JMolnar6/NonAnthroHands_User_Study/HandsLoggerWithURDF/tempdata/files/r_shoulder_JointMotion_gesture_1_3.csv
Time,r_shoulder,r_shoulder_x,r_upper_arm,r_forearm,r_wrist,r_wrist2hand,r_gripper_thumb,r_gripper_finger,
169.4223,-0.03313718,-0.001698183,NaN,0.1295821,-0.0007022967,NaN,-0.04324682,-1.169891,NaN,-0.00853294,-0.004961742,-0.008099855,1.170041,NaN,NaN,-0.0003411347,0.007481654,0.005884798,-0.00383816,8.344585E-09,0.3628501
169.4401,-0.03319619,-0.001698596,NaN,0.1323595,-0.0007026435,NaN,0.01611077,-1.169682,NaN,-0.03623158,-0.004962131,-0.06783302,1.169832,NaN,NaN,-0.003485232,0.007484881,0.00576924,-0.003840996,1.311296E-08,0.3628469
169.4557,-0.03319619,-0.001698596,NaN,0.1323595,-0.0007026435,NaN,0.01611077,-1.169682,NaN,-0.03623158,-0.004962131,-0.06783302,1.169832,NaN,NaN,-0.003485232,0.007484881,0.00576924,-0.003840996,1.311296E-08,0.3628469
169.4717,-0.03321279,-0.001699009,NaN,0.1349645,-0.0007029904,NaN,0.06381228,-1.169474,NaN,-0.08476974,-0.00496183,-0.1157826,1.169623,NaN,NaN,-0.00630455,0.007487834,0.005253611,-0.003844469,8.344585E-09,0.3629687
169.4893,-0.03319059,-0.001699422,NaN,0.1373277,-0.0007033374,NaN,0.08605329,-1.169269,NaN,-0.1426238,-0.00496058,-0.137828,1.169419,NaN,NaN,-0.008751954,0.0074904,0.004543345,-0.003848807,4.172319E-08,0.3629512
169.5063,-0.03312973,-0.001699835,NaN,0.1394185,-0.0007036845,NaN,0.09953846,-1.169066,NaN,-0.2020794,-0.004959079,-0.1502849,1.169216,NaN,NaN,-0.01074202,0.007492862,0.004455645,-0.003853376,3.576215E-09,0.3629325
169.5233,-0.03311928,-0.001700249,NaN,0.1411795,-0.0007040317,NaN,0.121352,-1.168866,NaN,-0.2582496,-0.00495725,-0.1699496,1.169016,NaN,NaN,-0.01234228,0.007495182,0.004366691,-0.003858239,4.649156E-08,0.3629122
169.5396,-0.03311928,-0.001700249,NaN,0.1411795,-0.0007040317,NaN,0.121352,-1.168866,NaN,-0.2582496,-0.00495725,-0.1699496,1.169016,NaN,NaN,-0.01234228,0.007495182,0.004366691,-0.003858239,4.649156E-08,0.3629122
169.5559,-0.033156,-0.001700662,NaN,0.1425825,-0.000704379,NaN,0.1454063,-1.168667,NaN,-0.3086134,-0.004955266,-0.1903529,1.168817,NaN,NaN,-0.01366193,0.007497441,0.004280038,-0.003863247,6.556505E-08,0.3628902
169.5732,-0.03323958,-0.001701075,NaN,0.143606,-0.0007047264,NaN,0.170593,-1.168467,NaN,-0.3520614,-0.004953345,-0.210096,1.168617,NaN,NaN,-0.01475438,0.007499725,0.004196617,-0.003868197,5.602831E-08,0.3628692
169.5906,-0.03337284,-0.001701488,NaN,0.1445708,-0.0007050738,NaN,0.1959163,-1.168267,NaN,-0.3883452,-0.004952183,-0.227991,1.168417,NaN,NaN,-0.01566127,0.007502309,0.004114337,-0.00387245,5.602831E-08,0.3628546
169.6073,-0.03355565,-0.001701901,NaN,0.1454776,-0.0007054214,NaN,0.2216817,-1.168071,NaN,-0.4178271,-0.004951586,-0.2443877,1.168222,NaN,NaN,-0.01641246,0.007505094,0.004033684,-0.003876175,5.841249E-08,0.3628387
169.6241,-0.0337879,-0.001702314,NaN,0.1463264,-0.000705769,NaN,0.2478433,-1.167876,NaN,-0.441181,-0.004949503,-0.2594932,1.168027,NaN,NaN,-0.01703339,0.007507294,0.00395462,-0.003881268,5.841249E-08,0.3629399
169.6407,-0.03406947,-0.001702728,NaN,0.1471172,-0.0007061167,NaN,0.2741514,-1.167684,NaN,-0.459222,-0.004947737,-0.2734699,1.167835,NaN,NaN,-0.01754555,0.007509606,0.003877118,-0.003886063,6.556505E-08,0.3629299
169.6582,-0.03406947,-0.001702728,NaN,0.1471172,-0.0007061167,NaN,0.2741514,-1.167684,NaN,-0.459222,-0.004947737,-0.2734699,1.167835,NaN,NaN,-0.01754555,0.007509606,0.003877118,-0.003886063,6.556505E-08,0.3629299
169.6737,-0.03440028,-0.001703141,NaN,0.1478501,-0.0007064645,NaN,0.3002248,-1.167495,NaN,-0.4727973,-0.004945435,-0.2864389,1.167646,NaN,NaN,-0.0179671,0.007511696,0.003801142,-0.003891347,6.556505E-08,0.3629057
169.6914,-0.03478025,-0.001703554,NaN,0.1485249,-0.0007068124,NaN,0.3256096,-1.167306,NaN,-0.4827183,-0.004943078,-0.2984709,1.167457,NaN,NaN,-0.01831338,0.007513765,0.003726666,-0.003896682,6.318086E-08,0.3628831
169.7086,-0.03520932,-0.001703967,NaN,0.1491418,-0.0007071604,NaN,0.3498369,-1.167117,NaN,-0.4897223,-0.004940677,-0.3095865,1.167268,NaN,NaN,-0.01859742,0.007515816,0.003653653,-0.003902059,6.556505E-08,0.362862
169.7257,-0.03568747,-0.00170438,NaN,0.1497007,-0.0007075085,NaN,0.3724734,-1.166928,NaN,-0.4944547,-0.004939385,-0.3197687,1.167078,NaN,NaN,-0.0188302,0.007518304,0.003582076,-0.003906415,6.794923E-08,0.3628499
169.742,-0.03621469,-0.001704793,NaN,0.1502016,-0.0007078566,NaN,0.3931595,-1.166739,NaN,-0.4974634,-0.004938378,-0.3289821,1.166889,NaN,NaN,-0.019021,0.007520904,0.003511907,-0.00391051,6.556505E-08,0.3628299
169.7591,-0.03621469,-0.001704793,NaN,0.1502016,-0.0007078566,NaN,0.3931595,-1.166739,NaN,-0.4974634,-0.004938378,-0.3289821,1.166889,NaN,NaN,-0.019021,0.007520904,0.003511907,-0.00391051,6.556505E-08,0.3628299
169.775,-0.03679098,-0.001705206,NaN,0.1506445,-0.0007082049,NaN,0.4116329,-1.166551,NaN,-0.4992019,-0.004938819,-0.3371912,1.166702,NaN,NaN,-0.01917758,0.007524067,0.003443112,-0.003913273,6.318086E-08,0.3628227
169.7948,-0.03741639,-0.00170562,NaN,0.1510294,-0.0007085532,NaN,0.4277373,-1.166365,NaN,-0.5000367,-0.004937803,-0.3443751,1.166515,NaN,NaN,-0.0193064,0.007526653,0.003375667,-0.003917373,6.318086E-08,0.3629316
169.8095,-0.03809099,-0.001706033,NaN,0.1513563,-0.0007089016,NaN,0.4414191,-1.166178,NaN,-0.5002574,-0.004936816,-0.3505362,1.166328,NaN,NaN,-0.01941275,0.007529254,0.003309542,-0.003921449,6.318086E-08,0.3629236
169.8266,-0.03881484,-0.001706446,NaN,0.1516251,-0.0007092501,NaN,0.4527157,-1.165994,NaN,-0.5000868,-0.004935299,-0.3557028,1.166144,NaN,NaN,-0.01950097,0.007531633,0.003244706,-0.003926007,5.841249E-08,0.3629009
169.8432,-0.03958806,-0.001706859,NaN,0.151836,-0.0007095987,NaN,0.4617392,-1.16581,NaN,-0.4996919,-0.004933554,-0.3599279,1.165961,NaN,NaN,-0.01957455,0.007533923,0.003181136,-0.003930775,6.079668E-08,0.3628816
169.8603,-0.04041078,-0.001707272,NaN,0.1519888,-0.0007099474,NaN,0.4686581,-1.165627,NaN,-0.4991933,-0.004932155,-0.3632844,1.165778,NaN,NaN,-0.01963629,0.007536346,0.003118805,-0.003935223,5.841249E-08,0.3628686
169.8772,-0.04041078,-0.001707272,NaN,0.1519888,-0.0007099474,NaN,0.4686581,-1.165627,NaN,-0.4991933,-0.004932155,-0.3632844,1.165778,NaN,NaN,-0.01963629,0.007536346,0.003118805,-0.003935223,5.841249E-08,0.3628686
169.893,-0.04128315,-0.001707685,NaN,0.1520836,-0.0007102962,NaN,0.4736796,-1.165446,NaN,-0.4986744,-0.00493065,-0.3658595,1.165597,NaN,NaN,-0.01968841,0.007538716,0.003057691,-0.003939766,5.841249E-08,0.3628436
169.9103,-0.04220535,-0.001708098,NaN,0.1521203,-0.000710645,NaN,0.4770339,-1.165267,NaN,-0.4981894,-0.004930458,-0.3677484,1.165418,NaN,NaN,-0.01973266,0.007541596,0.002997769,-0.003943099,6.079668E-08,0.3628392
169.9274,-0.04317759,-0.001708511,NaN,0.152099,-0.0007109939,NaN,0.47896,-1.165091,NaN,-0.4977704,-0.004930648,-0.3690492,1.165241,NaN,NaN,-0.01977045,0.007544619,0.002939016,-0.003946078,6.318086E-08,0.3628218
169.9444,-0.04419987,-0.001708924,NaN,0.1520196,-0.000711343,NaN,0.4796956,-1.164914,NaN,-0.4974326,-0.004931633,-0.369858,1.165065,NaN,NaN,-0.01980288,0.007547956,0.00288141,-0.003948327,6.079668E-08,0.362813
169.961,-0.04527194,-0.001709337,NaN,0.1518822,-0.0007116921,NaN,0.4794685,-1.164741,NaN,-0.4971799,-0.004932041,-0.3702657,1.164892,NaN,NaN,-0.01983082,0.00755105,0.002824929,-0.0039511,6.556505E-08,0.3629333
169.9778,-0.04527194,-0.001709337,NaN,0.1518822,-0.0007116921,NaN,0.4794685,-1.164741,NaN,-0.4971799,-0.004932041,-0.3702657,1.164892,NaN,NaN,-0.01983082,0.00755105,0.002824929,-0.0039511,6.556505E-08,0.3629333
169.9942,-0.0463935,-0.00170975,NaN,0.1516867,-0.0007120413,NaN,0.4784907,-1.164568,NaN,-0.4970081,-0.004931864,-0.3703559,1.164719,NaN,NaN,-0.01985496,0.007553916,0.00276955,-0.003954412,6.794924E-08,0.3629202
170.0121,-0.04756425,-0.001710163,NaN,0.151433,-0.0007123906,NaN,0.4769551,-1.164397,NaN,-0.4969085,-0.004930985,-0.3702037,1.164548,NaN,NaN,-0.01987587,0.007556495,0.002715254,-0.003958365,6.318086E-08,0.3629054
170.0289,-0.04878383,-0.001710576,NaN,0.1511213,-0.0007127401,NaN,0.4750327,-1.164228,NaN,-0.4968692,-0.004929852,-0.3698747,1.16438,NaN,NaN,-0.019894,0.007558962,0.002662018,-0.003962548,6.079668E-08,0.3628901
170.0451,-0.05005188,-0.001710989,NaN,0.1507515,-0.0007130895,NaN,0.4728716,-1.164061,NaN,-0.4968781,-0.004928589,-0.3694251,1.164212,NaN,NaN,-0.01990972,0.007561376,0.002609825,-0.003966849,5.364412E-08,0.36287
170.062,-0.05136801,-0.001711402,NaN,0.1503235,-0.0007134391,NaN,0.4705973,-1.163895,NaN,-0.4969227,-0.004927271,-0.3689022,1.164046,NaN,NaN,-0.01992333,0.007563759,0.002558651,-0.003971199,5.125993E-08,0.36285
170.0794,-0.05136801,-0.001711402,NaN,0.1503235,-0.0007134391,NaN,0.4705973,-1.163895,NaN,-0.4969227,-0.004927271,-0.3689022,1.164046,NaN,NaN,-0.01992333,0.007563759,0.002558651,-0.003971199,5.125993E-08,0.36285
170.0952,-0.0527318,-0.001711815,NaN,0.1498374,-0.0007137888,NaN,0.468313,-1.163734,NaN,-0.4969921,-0.004926369,-0.3683446,1.163885,NaN,NaN,-0.01993509,0.007566287,0.002508479,-0.003975156,5.364412E-08,0.362836
170.1125,-0.05414283,-0.001712228,NaN,0.1492932,-0.0007141386,NaN,0.4661011,-1.163575,NaN,-0.4970764,-0.004925915,-0.3677831,1.163726,NaN,NaN,-0.01994523,0.007568984,0.002459288,-0.0039787,5.364412E-08,0.3628244
170.1294,-0.05560062,-0.001712641,NaN,0.1486908,-0.0007144884,NaN,0.4640247,-1.163418,NaN,-0.4971676,-0.004926365,-0.3672417,1.163569,NaN,NaN,-0.01995393,0.007572033,0.002411062,-0.003981411,4.887575E-08,0.3628137
170.1465,-0.05710469,-0.001713054,NaN,0.1480303,-0.0007148383,NaN,0.4621294,-1.163263,NaN,-0.4972592,-0.004927463,-0.3667378,1.163414,NaN,NaN,-0.01996136,0.007575326,0.002363781,-0.003983523,4.649156E-08,0.3628009
170.163,-0.05865453,-0.001713467,NaN,0.1473115,-0.0007151883,NaN,0.4604459,-1.163109,NaN,-0.4973465,-0.004927459,-0.3662838,1.163261,NaN,NaN,-0.01996767,0.00757818,0.002317426,-0.003986646,4.410738E-08,0.3629172
170.1798,-0.05865453,-0.001713467,NaN,0.1473115,-0.0007151883,NaN,0.4604459,-1.163109,NaN,-0.4973465,-0.004927459,-0.3662838,1.163261,NaN,NaN,-0.01996767,0.00757818,0.002317426,-0.003986646,4.410738E-08,0.3629172
170.1961,-0.06024962,-0.00171388,NaN,0.1465346,-0.0007155385,NaN,0.4589911,-1.162957,NaN,-0.4974258,-0.004927231,-0.3658873,1.163109,NaN,NaN,-0.01997299,0.007580939,0.002271981,-0.003989973,4.410738E-08,0.3629109
170.2139,-0.06188941,-0.001714293,NaN,0.1456995,-0.0007158886,NaN,0.4577711,-1.162805,NaN,-0.4974951,-0.004926222,-0.3655522,1.162957,NaN,NaN,-0.01997744,0.007583389,0.002227425,-0.003994016,4.172319E-08,0.3628933
170.2306,-0.06357333,-0.001714706,NaN,0.1448061,-0.0007162389,NaN,0.4567829,-1.162656,NaN,-0.4975531,-0.004924609,-0.3652793,1.162808,NaN,NaN,-0.01998112,0.007585585,0.002183744,-0.003998608,4.410738E-08,0.3628709
170.2476,-0.06530079,-0.001715119,NaN,0.1438546,-0.0007165893,NaN,0.4560161,-1.162508,NaN,-0.4975995,-0.004922536,-0.3650669,1.16266,NaN,NaN,-0.01998414,0.007587595,0.002140918,-0.004003622,4.410738E-08,0.3628511
170.2658,-0.06707117,-0.001715532,NaN,0.1428448,-0.0007169397,NaN,0.455455,-1.162364,NaN,-0.4976344,-0.004920876,-0.3649114,1.162516,NaN,NaN,-0.01998657,0.007589755,0.002098934,-0.00400825,4.172319E-08,0.3628341
170.2816,-0.06888386,-0.001715945,NaN,0.1417767,-0.0007172903,NaN,0.4550801,-1.162219,NaN,-0.4976587,-0.004919789,-0.3648079,1.162371,NaN,NaN,-0.01998852,0.007592142,0.002057773,-0.004012353,3.9339E-08,0.3628198
170.2981,-0.06888386,-0.001715945,NaN,0.1417767,-0.0007172903,NaN,0.4550801,-1.162219,NaN,-0.4976587,-0.004919789,-0.3648079,1.162371,NaN,NaN,-0.01998852,0.007592142,0.002057773,-0.004012353,3.9339E-08,0.3628198
170.3145,-0.0707382,-0.001716358,NaN,0.1406504,-0.0007176409,NaN,0.4548692,-1.162075,NaN,-0.4976732,-0.004919142,-0.3647506,1.162227,NaN,NaN,-0.01999004,0.007594704,0.002017419,-0.004016053,3.695482E-08,0.3628021
170.3319,-0.07263355,-0.001716771,NaN,0.1394659,-0.0007179916,NaN,0.4547992,-1.161932,NaN,-0.4976793,-0.004919543,-0.3647332,1.162084,NaN,NaN,-0.0199912,0.007597674,0.001977856,-0.004018787,3.695482E-08,0.3627947
170.3492,-0.07456921,-0.001717184,NaN,0.138223,-0.0007183424,NaN,0.4548465,-1.16179,NaN,-0.4976782,-0.004918881,-0.3647493,1.161942,NaN,NaN,-0.01999206,0.007600223,0.001939071,-0.004022499,4.172319E-08,0.3629098
170.3661,-0.07654449,-0.001717597,NaN,0.1369219,-0.0007186933,NaN,0.4549884,-1.161651,NaN,-0.4976713,-0.004917659,-0.3647924,1.161803,NaN,NaN,-0.01999268,0.007602536,0.001901047,-0.004026718,3.9339E-08,0.3628958
170.3822,-0.07855868,-0.00171801,NaN,0.1355624,-0.0007190443,NaN,0.455203,-1.161514,NaN,-0.4976599,-0.004915752,-0.3648565,1.161666,NaN,NaN,-0.0199931,0.007604568,0.00186377,-0.004031563,4.172319E-08,0.3628716
170.3992,-0.07855868,-0.00171801,NaN,0.1355624,-0.0007190443,NaN,0.455203,-1.161514,NaN,-0.4976599,-0.004915752,-0.3648565,1.161666,NaN,NaN,-0.0199931,0.007604568,0.00186377,-0.004031563,4.172319E-08,0.3628716
170.4153,-0.08061107,-0.001718423,NaN,0.1341447,-0.0007193953,NaN,0.4554707,-1.161376,NaN,-0.4976451,-0.004913769,-0.3649359,1.161528,NaN,NaN,-0.01999336,0.007606572,0.001827225,-0.00403648,4.172319E-08,0.3628552
170.4331,-0.08270089,-0.001718835,NaN,0.1326686,-0.0007197465,NaN,0.4557734,-1.161241,NaN,-0.4976281,-0.004911795,-0.3650255,1.161393,NaN,NaN,-0.0199935,0.007608566,0.001791394,-0.004041382,3.9339E-08,0.3628338
170.4496,-0.08482742,-0.001719248,NaN,0.1311342,-0.0007200978,NaN,0.4560957,-1.161106,NaN,-0.4976098,-0.004910267,-0.365121,1.161259,NaN,NaN,-0.01999354,0.007610739,0.001756267,-0.004045876,4.410737E-08,0.3628163
170.4662,-0.08698987,-0.001719661,NaN,0.1295414,-0.0007204491,NaN,0.4564241,-1.160972,NaN,-0.497591,-0.004909107,-0.3652184,1.161124,NaN,NaN,-0.01999351,0.007613058,0.001721829,-0.004050033,4.410737E-08,0.3627999
170.4833,-0.08918749,-0.001720074,NaN,0.1278903,-0.0007208006,NaN,0.4567478,-1.160837,NaN,-0.4975725,-0.004908621,-0.3653147,1.16099,NaN,NaN,-0.01999344,0.007615646,0.001688066,-0.004053572,4.887574E-08,0.3627836
170.5003,-0.09141947,-0.001720487,NaN,0.1261809,-0.0007211521,NaN,0.457058,-1.160704,NaN,-0.4975546,-0.004909152,-0.3654073,1.160856,NaN,NaN,-0.01999334,0.007618635,0.001654966,-0.004056177,5.125993E-08,0.3627774
170.5168,-0.09141947,-0.001720487,NaN,0.1261809,-0.0007211521,NaN,0.457058,-1.160704,NaN,-0.4975546,-0.004909152,-0.3654073,1.160856,NaN,NaN,-0.01999334,0.007618635,0.001654966,-0.004056177,5.125993E-08,0.3627774
170.5327,-0.09368504,-0.0017209,NaN,0.1244131,-0.0007215037,NaN,0.457348,-1.160572,NaN,-0.497538,-0.004909202,-0.3654943,1.160724,NaN,NaN,-0.01999322,0.007621426,0.001622514,-0.00405922,4.172318E-08,0.3628996
170.5503,-0.09598337,-0.001721313,NaN,0.1225869,-0.0007218554,NaN,0.4576131,-1.160441,NaN,-0.4975228,-0.004908699,-0.3655744,1.160594,NaN,NaN,-0.01999309,0.007623991,0.001590698,-0.004062769,4.172318E-08,0.3628865
170.5677,-0.09831367,-0.001721726,NaN,0.1207023,-0.0007222072,NaN,0.4578503,-1.160311,NaN,-0.4975093,-0.004907547,-0.3656466,1.160463,NaN,NaN,-0.01999297,0.0076263,0.001559507,-0.004066913,4.172318E-08,0.3628729
170.5842,-0.1006751,-0.001722139,NaN,0.1187594,-0.0007225591,NaN,0.4580581,-1.160184,NaN,-0.4974976,-0.004906241,-0.3657106,1.160336,NaN,NaN,-0.01999285,0.007628531,0.001528929,-0.004071194,3.218644E-08,0.3628546
170.6011,-0.1030668,-0.001722552,NaN,0.116758,-0.0007229111,NaN,0.458236,-1.160057,NaN,-0.4974876,-0.004903868,-0.3657663,1.160209,NaN,NaN,-0.01999275,0.007630336,0.001498949,-0.004076452,2.980226E-08,0.3628207
170.6176,-0.1030668,-0.001722552,NaN,0.116758,-0.0007229111,NaN,0.458236,-1.160057,NaN,-0.4974876,-0.004903868,-0.3657663,1.160209,NaN,NaN,-0.01999275,0.007630336,0.001498949,-0.004076452,2.980226E-08,0.3628207
170.6339,-0.1054881,-0.001722965,NaN,0.1146983,-0.0007232631,NaN,0.4583848,-1.15993,NaN,-0.4974795,-0.004901839,-0.3658137,1.160083,NaN,NaN,-0.01999266,0.007632276,0.001469558,-0.004081394,3.218644E-08,0.3628049
170.6517,-0.1079379,-0.001723377,NaN,0.1125802,-0.0007236153,NaN,0.4585061,-1.159806,NaN,-0.497473,-0.004900745,-0.3658535,1.159959,NaN,NaN,-0.01999258,0.007634581,0.001440744,-0.004085477,2.741807E-08,0.3627983
170.6681,-0.1104156,-0.00172379,NaN,0.1104036,-0.0007239675,NaN,0.458602,-1.159681,NaN,-0.4974681,-0.004899951,-0.3658861,1.159834,NaN,NaN,-0.01999252,0.007637006,0.001412494,-0.004089284,2.980226E-08,0.3627743
170.6848,-0.1129202,-0.001724203,NaN,0.1081687,-0.0007243198,NaN,0.4586749,-1.159557,NaN,-0.4974647,-0.004900448,-0.3659123,1.15971,NaN,NaN,-0.01999247,0.007639946,0.001384797,-0.004091908,3.457063E-08,0.3627706
170.7016,-0.1154509,-0.001724616,NaN,0.1058753,-0.0007246722,NaN,0.4587278,-1.159435,NaN,-0.4974625,-0.004899636,-0.3659329,1.159588,NaN,NaN,-0.01999244,0.007642355,0.001357644,-0.004095729,2.980226E-08,0.362883
170.7189,-0.1154509,-0.001724616,NaN,0.1058753,-0.0007246722,NaN,0.4587278,-1.159435,NaN,-0.4974625,-0.004899636,-0.3659329,1.159588,NaN,NaN,-0.01999244,0.007642355,0.001357644,-0.004095729,2.980226E-08,0.362883
170.7359,-0.1180068,-0.001725029,NaN,0.1035235,-0.0007250247,NaN,0.4587636,-1.159316,NaN,-0.4974614,-0.004898171,-0.3659488,1.159469,NaN,NaN,-0.01999241,0.007644493,0.001331023,-0.004100144,2.741807E-08,0.3628672
170.7518,-0.1205871,-0.001725441,NaN,0.1011133,-0.0007253773,NaN,0.4587852,-1.159198,NaN,-0.4974612,-0.00489637,-0.3659607,1.159351,NaN,NaN,-0.01999239,0.007646489,0.001304924,-0.004104865,2.741807E-08,0.362851
170.7687,-0.123191,-0.001725854,NaN,0.09864473,-0.00072573,NaN,0.4587954,-1.159083,NaN,-0.4974617,-0.004894538,-0.3659695,1.159236,NaN,NaN,-0.01999239,0.00764846,0.001279336,-0.004109609,2.741807E-08,0.3628315
170.7854,-0.1258175,-0.001726267,NaN,0.09611772,-0.0007260827,NaN,0.4587969,-1.158968,NaN,-0.4974628,-0.004892667,-0.365976,1.159121,NaN,NaN,-0.01999238,0.007650415,0.001254251,-0.004114389,2.026552E-08,0.362809
170.8026,-0.1284658,-0.00172668,NaN,0.0935323,-0.0007264356,NaN,0.4587923,-1.158854,NaN,-0.4974644,-0.004891442,-0.3659809,1.159007,NaN,NaN,-0.01999238,0.007652627,0.001229658,-0.004118577,2.26497E-08,0.3627988
170.8188,-0.1284658,-0.00172668,NaN,0.0935323,-0.0007264356,NaN,0.4587923,-1.158854,NaN,-0.4974644,-0.004891442,-0.3659809,1.159007,NaN,NaN,-0.01999238,0.007652627,0.001229658,-0.004118577,2.26497E-08,0.3627988
170.8351,-0.1311352,-0.001727093,NaN,0.09088847,-0.0007267885,NaN,0.4587837,-1.158742,NaN,-0.4974663,-0.004890613,-0.3659847,1.158895,NaN,NaN,-0.01999238,0.007654989,0.001205546,-0.004122397,2.503389E-08,0.3627814
170.8526,-0.1338246,-0.001727505,NaN,0.08818623,-0.0007271415,NaN,0.458773,-1.158628,NaN,-0.4974684,-0.004889999,-0.3659881,1.158782,NaN,NaN,-0.01999237,0.007657442,0.001181907,-0.004126024,2.503389E-08,0.3627602
170.8698,-0.1365333,-0.001727918,NaN,0.08542559,-0.0007274946,NaN,0.458762,-1.15852,NaN,-0.4974706,-0.004889966,-0.3659915,1.158673,NaN,NaN,-0.01999237,0.007660106,0.001158731,-0.004129109,2.503389E-08,0.3627444
170.8859,-0.1392604,-0.001728331,NaN,0.08260655,-0.0007278478,NaN,0.4587518,-1.158414,NaN,-0.4974727,-0.004891488,-0.3659953,1.158568,NaN,NaN,-0.01999236,0.007663383,0.001136009,-0.004130765,3.218644E-08,0.3627471
170.9027,-0.1420051,-0.001728744,NaN,0.07972912,-0.0007282011,NaN,0.4587437,-1.15831,NaN,-0.4974748,-0.004892109,-0.3659999,1.158463,NaN,NaN,-0.01999235,0.007666295,0.001113734,-0.004133245,3.218644E-08,0.362868
170.9195,-0.1420051,-0.001728744,NaN,0.07972912,-0.0007282011,NaN,0.4587437,-1.15831,NaN,-0.4974748,-0.004892109,-0.3659999,1.158463,NaN,NaN,-0.01999235,0.007666295,0.001113734,-0.004133245,3.218644E-08,0.362868
170.9357,-0.1447665,-0.001729157,NaN,0.0767933,-0.0007285544,NaN,0.4587384,-1.158208,NaN,-0.4974768,-0.004892608,-0.3660054,1.158362,NaN,NaN,-0.01999234,0.007669144,0.001091895,-0.004135832,3.218644E-08,0.3628624
170.9536,-0.1475438,-0.00172957,NaN,0.0737991,-0.0007289079,NaN,0.4587365,-1.158111,NaN,-0.4974787,-0.004892715,-0.3660119,1.158264,NaN,NaN,-0.01999232,0.007671819,0.001070485,-0.00413877,3.457063E-08,0.3628531
170.97,-0.1503361,-0.001729982,NaN,0.07074652,-0.0007292614,NaN,0.4587384,-1.158015,NaN,-0.4974804,-0.004891907,-0.3660198,1.158168,NaN,NaN,-0.0199923,0.007674121,0.001049495,-0.004142545,2.980226E-08,0.3628322
170.9869,-0.1531427,-0.001730395,NaN,0.06763557,-0.000729615,NaN,0.4587443,-1.157921,NaN,-0.4974819,-0.004890979,-0.3660288,1.158075,NaN,NaN,-0.01999227,0.007676365,0.001028917,-0.004146425,2.980226E-08,0.3628195
171.0035,-0.1559627,-0.001730808,NaN,0.06446628,-0.0007299688,NaN,0.4587542,-1.157829,NaN,-0.4974831,-0.004890237,-0.3660392,1.157983,NaN,NaN,-0.01999224,0.007678677,0.001008742,-0.004150132,2.980226E-08,0.3628066
171.0208,-0.1587953,-0.001731221,NaN,0.06123862,-0.0007303226,NaN,0.4587679,-1.157739,NaN,-0.4974842,-0.004889661,-0.3660508,1.157893,NaN,NaN,-0.0199922,0.007681046,0.0009889625,-0.004153684,2.980226E-08,0.3627931
171.0373,-0.1587953,-0.001731221,NaN,0.06123862,-0.0007303226,NaN,0.4587679,-1.157739,NaN,-0.4974842,-0.004889661,-0.3660508,1.157893,NaN,NaN,-0.0199922,0.007681046,0.0009889625,-0.004153684,2.980226E-08,0.3627931
171.0535,-0.1616398,-0.001731633,NaN,0.05795263,-0.0007306765,NaN,0.4587854,-1.157651,NaN,-0.4974852,-0.004889341,-0.3660637,1.157804,NaN,NaN,-0.01999216,0.007683513,0.0009695713,-0.004156999,3.457063E-08,0.3627746
171.0708,-0.1644952,-0.001732046,NaN,0.05460832,-0.0007310304,NaN,0.4588063,-1.157563,NaN,-0.4974859,-0.004889372,-0.3660776,1.157717,NaN,NaN,-0.01999211,0.007686116,0.0009505595,-0.004159991,3.457063E-08,0.3627608
171.0882,-0.1673608,-0.001732459,NaN,0.05120569,-0.0007313845,NaN,0.4588303,-1.15748,NaN,-0.4974865,-0.004890242,-0.3660926,1.157634,NaN,NaN,-0.01999206,0.00768904,0.0009319211,-0.004162207,2.980226E-08,0.3627544
171.1045,-0.1702358,-0.001732872,NaN,0.04774475,-0.0007317386,NaN,0.4588571,-1.157399,NaN,-0.4974869,-0.004891974,-0.3661085,1.157553,NaN,NaN,-0.01999201,0.007692297,0.0009136475,-0.004163629,3.218645E-08,0.3627518
171.1213,-0.1731195,-0.001733284,NaN,0.04422553,-0.0007320929,NaN,0.4588862,-1.15732,NaN,-0.4974873,-0.004892625,-0.3661253,1.157474,NaN,NaN,-0.01999195,0.007695115,0.0008957337,-0.004166039,2.980226E-08,0.3628728
171.1382,-0.1731195,-0.001733284,NaN,0.04422553,-0.0007320929,NaN,0.4588862,-1.15732,NaN,-0.4974873,-0.004892625,-0.3661253,1.157474,NaN,NaN,-0.01999195,0.007695115,0.0008957337,-0.004166039,2.980226E-08,0.3628728
171.1542,-0.1760111,-0.001733697,NaN,0.04064803,-0.0007324473,NaN,0.4589173,-1.157244,NaN,-0.4974876,-0.004892516,-0.3661427,1.157398,NaN,NaN,-0.01999189,0.007697614,0.0008781708,-0.004169139,2.980226E-08,0.3628619
171.1721,-0.1789098,-0.00173411,NaN,0.03701227,-0.0007328017,NaN,0.4589501,-1.157167,NaN,-0.4974878,-0.004891315,-0.3661608,1.157321,NaN,NaN,-0.01999183,0.007699677,0.0008609522,-0.004173241,2.980226E-08,0.3628451
171.1886,-0.1818149,-0.001734522,NaN,0.03331826,-0.0007331562,NaN,0.4589841,-1.157093,NaN,-0.4974879,-0.004889688,-0.3661794,1.157247,NaN,NaN,-0.01999176,0.007701559,0.000844071,-0.00417773,2.980226E-08,0.3628332
171.2064,-0.1847257,-0.001734935,NaN,0.02956602,-0.0007335108,NaN,0.4590191,-1.157021,NaN,-0.497488,-0.004887479,-0.3661984,1.157175,NaN,NaN,-0.0199917,0.007703196,0.0008275215,-0.004182746,2.980226E-08,0.3628064
171.2221,-0.1876414,-0.001735348,NaN,0.02575556,-0.0007338655,NaN,0.4590547,-1.156946,NaN,-0.4974881,-0.00488457,-0.3662177,1.157101,NaN,NaN,-0.01999163,0.007704567,0.0008112965,-0.00418841,2.980226E-08,0.3627798
171.2392,-0.1876414,-0.001735348,NaN,0.02575556,-0.0007338655,NaN,0.4590547,-1.156946,NaN,-0.4974881,-0.00488457,-0.3662177,1.157101,NaN,NaN,-0.01999163,0.007704567,0.0008112965,-0.00418841,2.980226E-08,0.3627798
171.2552,-0.1905612,-0.00173576,NaN,0.0218869,-0.0007342203,NaN,0.4590908,-1.156877,NaN,-0.4974882,-0.004882173,-0.3662373,1.157031,NaN,NaN,-0.01999156,0.007706118,0.0007953895,-0.004193595,2.980226E-08,0.3627611
171.2726,-0.1934846,-0.001736173,NaN,0.01796005,-0.0007345752,NaN,0.4591271,-1.156812,NaN,-0.4974883,-0.004880456,-0.3662571,1.156966,NaN,NaN,-0.0199915,0.007707925,0.0007797941,-0.00419815,2.980226E-08,0.3627444
171.2896,-0.1964107,-0.001736586,NaN,0.01397504,-0.0007349302,NaN,0.4591635,-1.156749,NaN,-0.4974885,-0.004879351,-0.3662771,1.156903,NaN,NaN,-0.01999143,0.007709968,0.0007645058,-0.00420214,2.980226E-08,0.362725
171.3066,-0.199339,-0.001736998,NaN,0.009931888,-0.0007352852,NaN,0.4591997,-1.156688,NaN,-0.4974886,-0.004879388,-0.3662972,1.156842,NaN,NaN,-0.01999136,0.007712463,0.0007495157,-0.004205082,2.26497E-08,0.3627184
171.323,-0.2022687,-0.001737411,NaN,0.005830603,-0.0007356404,NaN,0.4592357,-1.156629,NaN,-0.4974889,-0.004878632,-0.3663174,1.156783,NaN,NaN,-0.01999129,0.00771463,0.0007348193,-0.004208745,2.026552E-08,0.3628338
171.3396,-0.2022687,-0.001737411,NaN,0.005830603,-0.0007356404,NaN,0.4592357,-1.156629,NaN,-0.4974889,-0.004878632,-0.3663174,1.156783,NaN,NaN,-0.01999129,0.00771463,0.0007348193,-0.004208745,2.026552E-08,0.3628338
171.3561,-0.2051991,-0.001737824,NaN,0.001671206,-0.0007359956,NaN,0.4592714,-1.156572,NaN,-0.4974892,-0.00487773,-0.3663376,1.156726,NaN,NaN,-0.01999122,0.007716728,0.0007204106,-0.004212539,2.026552E-08,0.3628214
171.374,-0.2081297,-0.001738237,NaN,-0.002546282,-0.0007363509,NaN,0.4593067,-1.156517,NaN,-0.4974895,-0.004876396,-0.3663579,1.156672,NaN,NaN,-0.01999115,0.007718645,0.0007062856,-0.004216725,1.549715E-08,0.3628064
171.3903,-0.2110597,-0.001738649,NaN,-0.006821842,-0.0007367063,NaN,0.4593416,-1.156465,NaN,-0.4974899,-0.004875032,-0.3663781,1.15662,NaN,NaN,-0.01999108,0.007720537,0.0006924368,-0.004220934,1.549715E-08,0.3627889
171.4073,-0.2139886,-0.001739062,NaN,-0.01115546,-0.0007370618,NaN,0.4593762,-1.156413,NaN,-0.4974904,-0.004873661,-0.3663984,1.156568,NaN,NaN,-0.01999101,0.007722426,0.0006788608,-0.004225149,1.549715E-08,0.3627705
171.4237,-0.2169157,-0.001739475,NaN,-0.0155471,-0.0007374174,NaN,0.4594103,-1.156362,NaN,-0.4974909,-0.004872476,-0.3664187,1.156517,NaN,NaN,-0.01999094,0.007724386,0.0006655506,-0.004229193,8.344589E-09,0.3627535
171.4405,-0.2198404,-0.001739887,NaN,-0.01999676,-0.000737773,NaN,0.4594441,-1.156314,NaN,-0.4974915,-0.004871998,-0.3664391,1.156469,NaN,NaN,-0.01999087,0.00772662,0.000652503,-0.004232583,1.072877E-08,0.3627429
171.458,-0.2198404,-0.001739887,NaN,-0.01999676,-0.000737773,NaN,0.4594441,-1.156314,NaN,-0.4974915,-0.004871998,-0.3664391,1.156469,NaN,NaN,-0.01999087,0.00772662,0.000652503,-0.004232583,1.072877E-08,0.3627429
171.4734,-0.2227621,-0.0017403,NaN,-0.0245044,-0.0007381288,NaN,0.4594775,-1.156267,NaN,-0.4974922,-0.004872155,-0.3664595,1.156422,NaN,NaN,-0.0199908,0.007729103,0.0006397102,-0.004235392,1.549715E-08,0.3627295
171.4908,-0.2256802,-0.001740712,NaN,-0.02907002,-0.0007384846,NaN,0.4595107,-1.15622,NaN,-0.497493,-0.004872886,-0.3664799,1.156375,NaN,NaN,-0.01999073,0.007731817,0.0006271693,-0.004237675,1.549715E-08,0.3627204
171.5081,-0.2285942,-0.001741125,NaN,-0.03369359,-0.0007388406,NaN,0.4595435,-1.156173,NaN,-0.4974938,-0.004874163,-0.3665004,1.156328,NaN,NaN,-0.01999065,0.007734754,0.0006148733,-0.004239459,1.311296E-08,0.3627105
171.5247,-0.2315034,-0.001741537,NaN,-0.03837508,-0.0007391965,NaN,0.4595761,-1.156131,NaN,-0.4974947,-0.004876805,-0.3665209,1.156286,NaN,NaN,-0.01999059,0.007738216,0.000602819,-0.004239983,1.072878E-08,0.3627135
171.5418,-0.2344073,-0.00174195,NaN,-0.04311449,-0.0007395527,NaN,0.4596085,-1.15609,NaN,-0.4974956,-0.004877974,-0.3665415,1.156245,NaN,NaN,-0.01999052,0.007741084,0.0005910012,-0.004241857,8.344591E-09,0.3628331
171.5584,-0.2344073,-0.00174195,NaN,-0.04311449,-0.0007395527,NaN,0.4596085,-1.15609,NaN,-0.4974956,-0.004877974,-0.3665415,1.156245,NaN,NaN,-0.01999052,0.007741084,0.0005910012,-0.004241857,8.344591E-09,0.3628331
171.5746,-0.2373054,-0.001742363,NaN,-0.04791177,-0.0007399088,NaN,0.4596408,-1.156049,NaN,-0.4974966,-0.004878763,-0.3665622,1.156204,NaN,NaN,-0.01999044,0.007743801,0.0005794148,-0.004244078,1.072878E-08,0.3628319
171.5924,-0.2401972,-0.001742775,NaN,-0.05276693,-0.0007402651,NaN,0.459673,-1.156007,NaN,-0.4974977,-0.004878941,-0.366583,1.156162,NaN,NaN,-0.01999038,0.007746271,0.0005680558,-0.004246858,8.344591E-09,0.3628217
171.6095,-0.243082,-0.001743188,NaN,-0.05767992,-0.0007406215,NaN,0.4597051,-1.155967,NaN,-0.4974989,-0.004878381,-0.3666039,1.156122,NaN,NaN,-0.0199903,0.007748441,0.0005569197,-0.004250315,1.311296E-08,0.362805
171.6262,-0.2459595,-0.0017436,NaN,-0.06265073,-0.0007409779,NaN,0.4597372,-1.155928,NaN,-0.4975002,-0.004877235,-0.3666248,1.156084,NaN,NaN,-0.01999023,0.007750364,0.0005460018,-0.004254302,1.072878E-08,0.3627888
171.643,-0.2488291,-0.001744013,NaN,-0.06767935,-0.0007413345,NaN,0.4597692,-1.155892,NaN,-0.4975015,-0.004876012,-0.3666459,1.156048,NaN,NaN,-0.01999016,0.007752247,0.000535298,-0.004258356,1.549715E-08,0.3627731
171.66,-0.2516902,-0.001744426,NaN,-0.07276574,-0.0007416911,NaN,0.4598013,-1.155859,NaN,-0.4975029,-0.004874254,-0.3666671,1.156014,NaN,NaN,-0.01999008,0.007753904,0.0005248039,-0.004262895,8.344589E-09,0.362751
171.6785,-0.2516902,-0.001744426,NaN,-0.07276574,-0.0007416911,NaN,0.4598013,-1.155859,NaN,-0.4975029,-0.004874254,-0.3666671,1.156014,NaN,NaN,-0.01999008,0.007753904,0.0005248039,-0.004262895,8.344589E-09,0.362751
171.693,-0.2545425,-0.001744838,NaN,-0.07790989,-0.0007420478,NaN,0.4598334,-1.155827,NaN,-0.4975044,-0.00487285,-0.3666884,1.155983,NaN,NaN,-0.01999001,0.007755696,0.0005145158,-0.004267108,5.960403E-09,0.3627357
171.7103,-0.2573854,-0.001745251,NaN,-0.08311177,-0.0007424046,NaN,0.4598655,-1.155795,NaN,-0.4975059,-0.00487176,-0.3667098,1.155951,NaN,NaN,-0.01998993,0.007757615,0.0005044303,-0.004271033,3.576218E-09,0.3627165
171.7274,-0.2602184,-0.001745663,NaN,-0.08837137,-0.0007427615,NaN,0.4598977,-1.155764,NaN,-0.4975075,-0.004871886,-0.3667313,1.15592,NaN,NaN,-0.01998986,0.00776002,0.0004945422,-0.004273844,3.576218E-09,0.3627176
171.744,-0.2630413,-0.001746076,NaN,-0.09368865,-0.0007431185,NaN,0.45993,-1.155736,NaN,-0.4975093,-0.004872656,-0.3667529,1.155892,NaN,NaN,-0.01998978,0.007762674,0.0004848464,-0.004276062,3.576218E-09,0.3627037
171.7617,-0.2658533,-0.001746488,NaN,-0.09906361,-0.0007434755,NaN,0.4599624,-1.155711,NaN,-0.4975111,-0.004872364,-0.3667747,1.155867,NaN,NaN,-0.01998971,0.007764886,0.0004753426,-0.004279246,3.576218E-09,0.3628223
171.7778,-0.2658533,-0.001746488,NaN,-0.09906361,-0.0007434755,NaN,0.4599624,-1.155711,NaN,-0.4975111,-0.004872364,-0.3667747,1.155867,NaN,NaN,-0.01998971,0.007764886,0.0004753426,-0.004279246,3.576218E-09,0.3628223
171.7941,-0.2686543,-0.001746901,NaN,-0.1044962,-0.0007438327,NaN,0.4599948,-1.155687,NaN,-0.497513,-0.004871839,-0.3667965,1.155843,NaN,NaN,-0.01998963,0.007766999,0.0004660242,-0.004282641,3.576218E-09,0.3628086
171.8114,-0.2714436,-0.001747314,NaN,-0.1099865,-0.0007441899,NaN,0.4600273,-1.155663,NaN,-0.497515,-0.004870539,-0.3668185,1.155819,NaN,NaN,-0.01998956,0.0077688,0.0004568873,-0.004286745,1.192032E-09,0.3627912
171.8288,-0.2742209,-0.001747726,NaN,-0.1155343,-0.0007445472,NaN,0.4600599,-1.155639,NaN,-0.4975171,-0.004868744,-0.3668405,1.155795,NaN,NaN,-0.01998948,0.007770402,0.000447931,-0.004291302,3.576218E-09,0.3627697
171.8452,-0.2769859,-0.001748138,NaN,-0.1211397,-0.0007449046,NaN,0.4600925,-1.155615,NaN,-0.4975193,-0.004867015,-0.3668627,1.155771,NaN,NaN,-0.0199894,0.00777203,0.0004391509,-0.0042958,1.192032E-09,0.3627518
171.8621,-0.2797379,-0.001748551,NaN,-0.1268027,-0.0007452621,NaN,0.4601252,-1.155591,NaN,-0.4975215,-0.004865356,-0.366885,1.155747,NaN,NaN,-0.01998933,0.007773687,0.0004305429,-0.004300235,3.576218E-09,0.3627332
171.8793,-0.2797379,-0.001748551,NaN,-0.1268027,-0.0007452621,NaN,0.4601252,-1.155591,NaN,-0.4975215,-0.004865356,-0.366885,1.155747,NaN,NaN,-0.01998933,0.007773687,0.0004305429,-0.004300235,3.576218E-09,0.3627332
171.8949,-0.2824768,-0.001748963,NaN,-0.1325233,-0.0007456197,NaN,0.460158,-1.155567,NaN,-0.4975239,-0.00486399,-0.3669073,1.155723,NaN,NaN,-0.01998925,0.007775462,0.0004221024,-0.004304402,3.576218E-09,0.3627205
171.9127,-0.2852021,-0.001749376,NaN,-0.1383014,-0.0007459774,NaN,0.4601907,-1.155543,NaN,-0.4975264,-0.004863398,-0.3669297,1.155699,NaN,NaN,-0.01998917,0.00777755,0.0004138293,-0.00430786,8.344589E-09,0.3627062
171.9295,-0.2879134,-0.001749788,NaN,-0.144137,-0.0007463351,NaN,0.4602236,-1.15552,NaN,-0.497529,-0.004863697,-0.3669522,1.155676,NaN,NaN,-0.01998909,0.007779995,0.0004057194,-0.004310503,1.072877E-08,0.3626989
171.9462,-0.2906104,-0.001750201,NaN,-0.1500301,-0.000746693,NaN,0.4602565,-1.155499,NaN,-0.4975317,-0.004863047,-0.3669748,1.155655,NaN,NaN,-0.01998901,0.007782048,0.0003977674,-0.00431401,1.311296E-08,0.3628132
171.963,-0.2932926,-0.001750613,NaN,-0.1559806,-0.000747051,NaN,0.4602894,-1.155479,NaN,-0.4975345,-0.004861827,-0.3669974,1.155635,NaN,NaN,-0.01998894,0.007783867,0.0003899722,-0.004318037,1.549714E-08,0.3627985
171.9802,-0.2959598,-0.001751026,NaN,-0.1619887,-0.000747409,NaN,0.4603223,-1.155461,NaN,-0.4975375,-0.004859879,-0.3670201,1.155617,NaN,NaN,-0.01998886,0.007785383,0.0003823278,-0.004322727,1.072877E-08,0.3627788
171.9967,-0.2959598,-0.001751026,NaN,-0.1619887,-0.000747409,NaN,0.4603223,-1.155461,NaN,-0.4975375,-0.004859879,-0.3670201,1.155617,NaN,NaN,-0.01998886,0.007785383,0.0003823278,-0.004322727,1.072877E-08,0.3627788
172.0128,-0.2986115,-0.001751438,NaN,-0.1680541,-0.0007477672,NaN,0.4603552,-1.155442,NaN,-0.4975406,-0.004857796,-0.3670429,1.155598,NaN,NaN,-0.01998878,0.007786848,0.0003748338,-0.004327543,1.072877E-08,0.3627608
172.0303,-0.3012475,-0.001751851,NaN,-0.174177,-0.0007481254,NaN,0.4603882,-1.155427,NaN,-0.4975438,-0.004855974,-0.3670657,1.155584,NaN,NaN,-0.0199887,0.007788401,0.0003674881,-0.004332112,1.072877E-08,0.3627445
172.0477,-0.3038674,-0.001752263,NaN,-0.1803573,-0.0007484837,NaN,0.4604211,-1.155412,NaN,-0.4975472,-0.004853946,-0.3670885,1.155569,NaN,NaN,-0.01998862,0.007789871,0.0003602854,-0.004336869,1.072877E-08,0.362723
172.0642,-0.3064708,-0.001752676,NaN,-0.186595,-0.0007488421,NaN,0.460454,-1.155398,NaN,-0.4975507,-0.004852574,-0.3671114,1.155554,NaN,NaN,-0.01998855,0.007791605,0.0003532228,-0.004341027,1.311296E-08,0.3627037
172.0812,-0.3090575,-0.001753088,NaN,-0.1928901,-0.0007492006,NaN,0.4604869,-1.155383,NaN,-0.4975543,-0.004851368,-0.3671343,1.15554,NaN,NaN,-0.01998847,0.007793407,0.0003463015,-0.004345034,1.311296E-08,0.362684
172.0981,-0.3090575,-0.001753088,NaN,-0.1928901,-0.0007492006,NaN,0.4604869,-1.155383,NaN,-0.4975543,-0.004851368,-0.3671343,1.15554,NaN,NaN,-0.01998847,0.007793407,0.0003463015,-0.004345034,1.311296E-08,0.362684
