JMolnar6/NonAnthroHands_User_Study/HandsLoggerWithURDF/tempdata/files/r_shoulder_JointMotion_gesture_6_7.csv
Time,r_shoulder,r_shoulder_x,r_upper_arm,r_forearm,r_wrist,r_wrist2hand,r_gripper_thumb,r_gripper_finger,
95.64968,1.356163E-08,-2.061235E-08,NaN,1.683921E-07,-1.734961E-09,NaN,-1.582583E-06,9.000352E-05,NaN,3.523712E-05,-0.007061408,2.284806E-06,-9.00029E-05,NaN,NaN,1.782458E-07,0.007061499,5.38798E-07,-6.961622E-07,9.059906E-08,0.3671734
95.66817,1.356163E-08,-2.061235E-08,NaN,1.683921E-07,-1.734961E-09,NaN,-1.582583E-06,9.000352E-05,NaN,3.523712E-05,-0.007061408,2.284806E-06,-9.00029E-05,NaN,NaN,1.782458E-07,0.007061499,5.38798E-07,-6.961622E-07,9.059906E-08,0.3671734
95.6879,1.356163E-08,-2.061235E-08,NaN,1.683921E-07,-1.734961E-09,NaN,-1.582583E-06,9.000352E-05,NaN,3.523712E-05,-0.007061408,2.284806E-06,-9.00029E-05,NaN,NaN,1.782458E-07,0.007061499,5.38798E-07,-6.961622E-07,9.059906E-08,0.3671734
95.70773,1.356163E-08,-2.061235E-08,NaN,1.683921E-07,-1.734961E-09,NaN,-1.582583E-06,9.000352E-05,NaN,3.523712E-05,-0.007061408,2.284806E-06,-9.00029E-05,NaN,NaN,1.782458E-07,0.007061499,5.38798E-07,-6.961622E-07,9.059906E-08,0.3671734
95.72754,1.356163E-08,-2.061235E-08,NaN,1.683921E-07,-1.734961E-09,NaN,-1.582583E-06,9.000352E-05,NaN,3.523712E-05,-0.007061408,2.284806E-06,-9.00029E-05,NaN,NaN,1.782458E-07,0.007061499,5.38798E-07,-6.961622E-07,9.059906E-08,0.3671734
95.74743,1.356163E-08,-2.061235E-08,NaN,1.683921E-07,-1.734961E-09,NaN,-1.582583E-06,9.000352E-05,NaN,3.523712E-05,-0.007061408,2.284806E-06,-9.00029E-05,NaN,NaN,1.782458E-07,0.007061499,5.38798E-07,-6.961622E-07,9.059906E-08,0.3671734
95.76655,1.356163E-08,-2.061235E-08,NaN,1.683921E-07,-1.734961E-09,NaN,-1.582583E-06,9.000352E-05,NaN,3.523712E-05,-0.007061408,2.284806E-06,-9.00029E-05,NaN,NaN,1.782458E-07,0.007061499,5.38798E-07,-6.961622E-07,9.059906E-08,0.3671734
95.78623,1.356163E-08,-2.061235E-08,NaN,1.683921E-07,-1.734961E-09,NaN,-1.582583E-06,9.000352E-05,NaN,3.523712E-05,-0.007061408,2.284806E-06,-9.00029E-05,NaN,NaN,1.782458E-07,0.007061499,5.38798E-07,-6.961622E-07,9.059906E-08,0.3671734
95.80592,1.356163E-08,-2.061235E-08,NaN,1.683921E-07,-1.734961E-09,NaN,-1.582583E-06,9.000352E-05,NaN,3.523712E-05,-0.007061408,2.284806E-06,-9.00029E-05,NaN,NaN,1.782458E-07,0.007061499,5.38798E-07,-6.961622E-07,9.059906E-08,0.3671734
95.82557,1.356163E-08,-2.061235E-08,NaN,1.683921E-07,-1.734961E-09,NaN,-1.582583E-06,9.000352E-05,NaN,3.523712E-05,-0.007061408,2.284806E-06,-9.00029E-05,NaN,NaN,1.782458E-07,0.007061499,5.38798E-07,-6.961622E-07,9.059906E-08,0.3671734
95.84528,1.356163E-08,-2.061235E-08,NaN,1.683921E-07,-1.734961E-09,NaN,-1.582583E-06,9.000352E-05,NaN,3.523712E-05,-0.007061408,2.284806E-06,-9.00029E-05,NaN,NaN,1.782458E-07,0.007061499,5.38798E-07,-6.961622E-07,9.059906E-08,0.3671734
95.8649,1.356163E-08,-2.061235E-08,NaN,1.683921E-07,-1.734961E-09,NaN,-1.582583E-06,9.000352E-05,NaN,3.523712E-05,-0.007061408,2.284806E-06,-9.00029E-05,NaN,NaN,1.782458E-07,0.007061499,5.38798E-07,-6.961622E-07,9.059906E-08,0.3671734
95.88456,1.356163E-08,-2.061235E-08,NaN,1.683921E-07,-1.734961E-09,NaN,-1.582583E-06,9.000352E-05,NaN,3.523712E-05,-0.007061408,2.284806E-06,-9.00029E-05,NaN,NaN,1.782458E-07,0.007061499,5.38798E-07,-6.961622E-07,9.059906E-08,0.3671734
95.90404,1.356163E-08,-2.061235E-08,NaN,1.683921E-07,-1.734961E-09,NaN,-1.582583E-06,9.000352E-05,NaN,3.523712E-05,-0.007061408,2.284806E-06,-9.00029E-05,NaN,NaN,1.782458E-07,0.007061499,5.38798E-07,-6.961622E-07,9.059906E-08,0.3671734
95.92379,1.356163E-08,-2.061235E-08,NaN,1.683921E-07,-1.734961E-09,NaN,-1.582583E-06,9.000352E-05,NaN,3.523712E-05,-0.007061408,2.284806E-06,-9.00029E-05,NaN,NaN,1.782458E-07,0.007061499,5.38798E-07,-6.961622E-07,9.059906E-08,0.3671734
95.94378,1.356163E-08,-2.061235E-08,NaN,1.683921E-07,-1.734961E-09,NaN,-1.582583E-06,9.000352E-05,NaN,3.523712E-05,-0.007061408,2.284806E-06,-9.00029E-05,NaN,NaN,1.782458E-07,0.007061499,5.38798E-07,-6.961622E-07,9.059906E-08,0.3671734
95.96347,1.356163E-08,-2.061235E-08,NaN,1.683921E-07,-1.734961E-09,NaN,-1.582583E-06,9.000352E-05,NaN,3.523712E-05,-0.007061408,2.284806E-06,-9.00029E-05,NaN,NaN,1.782458E-07,0.007061499,5.38798E-07,-6.961622E-07,9.059906E-08,0.3671734
95.98357,1.356163E-08,-2.061235E-08,NaN,1.683921E-07,-1.734961E-09,NaN,-1.582583E-06,9.000352E-05,NaN,3.523712E-05,-0.007061408,2.284806E-06,-9.00029E-05,NaN,NaN,1.782458E-07,0.007061499,5.38798E-07,-6.961622E-07,9.059906E-08,0.3671734
96.00307,1.356163E-08,-2.061235E-08,NaN,1.683921E-07,-1.734961E-09,NaN,-1.582583E-06,9.000352E-05,NaN,3.523712E-05,-0.007061408,2.284806E-06,-9.00029E-05,NaN,NaN,1.782458E-07,0.007061499,5.38798E-07,-6.961622E-07,9.059906E-08,0.3671734
96.02293,1.356163E-08,-2.061235E-08,NaN,1.683921E-07,-1.734961E-09,NaN,-1.582583E-06,9.000352E-05,NaN,3.523712E-05,-0.007061408,2.284806E-06,-9.00029E-05,NaN,NaN,1.782458E-07,0.007061499,5.38798E-07,-6.961622E-07,9.059906E-08,0.3671734
96.0435,1.356163E-08,-2.061235E-08,NaN,1.683921E-07,-1.734961E-09,NaN,-1.582583E-06,9.000352E-05,NaN,3.523712E-05,-0.007061408,2.284806E-06,-9.00029E-05,NaN,NaN,1.782458E-07,0.007061499,5.38798E-07,-6.961622E-07,9.059906E-08,0.3671734
96.06235,1.356163E-08,-2.061235E-08,NaN,1.683921E-07,-1.734961E-09,NaN,-1.582583E-06,9.000352E-05,NaN,3.523712E-05,-0.007061408,2.284806E-06,-9.00029E-05,NaN,NaN,1.782458E-07,0.007061499,5.38798E-07,-6.961622E-07,9.059906E-08,0.3671734
96.08226,1.356163E-08,-2.061235E-08,NaN,1.683921E-07,-1.734961E-09,NaN,-1.582583E-06,9.000352E-05,NaN,3.523712E-05,-0.007061408,2.284806E-06,-9.00029E-05,NaN,NaN,1.782458E-07,0.007061499,5.38798E-07,-6.961622E-07,9.059906E-08,0.3671734
96.10152,1.356163E-08,-2.061235E-08,NaN,1.683921E-07,-1.734961E-09,NaN,-1.582583E-06,9.000352E-05,NaN,3.523712E-05,-0.007061408,2.284806E-06,-9.00029E-05,NaN,NaN,1.782458E-07,0.007061499,5.38798E-07,-6.961622E-07,9.059906E-08,0.3671734
96.12183,1.356163E-08,-2.061235E-08,NaN,1.683921E-07,-1.734961E-09,NaN,-1.582583E-06,9.000352E-05,NaN,3.523712E-05,-0.007061408,2.284806E-06,-9.00029E-05,NaN,NaN,1.782458E-07,0.007061499,5.38798E-07,-6.961622E-07,9.059906E-08,0.3671734
96.14097,1.356163E-08,-2.061235E-08,NaN,1.683921E-07,-1.734961E-09,NaN,-1.582583E-06,9.000352E-05,NaN,3.523712E-05,-0.007061408,2.284806E-06,-9.00029E-05,NaN,NaN,1.782458E-07,0.007061499,5.38798E-07,-6.961622E-07,9.059906E-08,0.3671734
96.16068,1.356163E-08,-2.061235E-08,NaN,1.683921E-07,-1.734961E-09,NaN,-1.582583E-06,9.000352E-05,NaN,3.523712E-05,-0.007061408,2.284806E-06,-9.00029E-05,NaN,NaN,1.782458E-07,0.007061499,5.38798E-07,-6.961622E-07,9.059906E-08,0.3671734
96.18036,1.356163E-08,-2.061235E-08,NaN,1.683921E-07,-1.734961E-09,NaN,-1.582583E-06,9.000352E-05,NaN,3.523712E-05,-0.007061408,2.284806E-06,-9.00029E-05,NaN,NaN,1.782458E-07,0.007061499,5.38798E-07,-6.961622E-07,9.059906E-08,0.3671734
96.20088,1.356163E-08,-2.061235E-08,NaN,1.683921E-07,-1.734961E-09,NaN,-1.582583E-06,9.000352E-05,NaN,3.523712E-05,-0.007061408,2.284806E-06,-9.00029E-05,NaN,NaN,1.782458E-07,0.007061499,5.38798E-07,-6.961622E-07,9.059906E-08,0.3671734
96.22002,1.356163E-08,-2.061235E-08,NaN,1.683921E-07,-1.734961E-09,NaN,-1.582583E-06,9.000352E-05,NaN,3.523712E-05,-0.007061408,2.284806E-06,-9.00029E-05,NaN,NaN,1.782458E-07,0.007061499,5.38798E-07,-6.961622E-07,9.059906E-08,0.3671734
96.23994,1.356163E-08,-2.061235E-08,NaN,1.683921E-07,-1.734961E-09,NaN,-1.582583E-06,9.000352E-05,NaN,3.523712E-05,-0.007061408,2.284806E-06,-9.00029E-05,NaN,NaN,1.782458E-07,0.007061499,5.38798E-07,-6.961622E-07,9.059906E-08,0.3671734
96.25927,1.356163E-08,-2.061235E-08,NaN,1.683921E-07,-1.734961E-09,NaN,-1.582583E-06,9.000352E-05,NaN,3.523712E-05,-0.007061408,2.284806E-06,-9.00029E-05,NaN,NaN,1.782458E-07,0.007061499,5.38798E-07,-6.961622E-07,9.059906E-08,0.3671734
96.27967,1.356163E-08,-2.061235E-08,NaN,1.683921E-07,-1.734961E-09,NaN,-1.582583E-06,9.000352E-05,NaN,3.523712E-05,-0.007061408,2.284806E-06,-9.00029E-05,NaN,NaN,1.782458E-07,0.007061499,5.38798E-07,-6.961622E-07,9.059906E-08,0.3671734
96.29914,1.356163E-08,-2.061235E-08,NaN,1.683921E-07,-1.734961E-09,NaN,-1.582583E-06,9.000352E-05,NaN,3.523712E-05,-0.007061408,2.284806E-06,-9.00029E-05,NaN,NaN,1.782458E-07,0.007061499,5.38798E-07,-6.961622E-07,9.059906E-08,0.3671734
96.32017,1.356163E-08,-2.061235E-08,NaN,1.683921E-07,-1.734961E-09,NaN,-1.582583E-06,9.000352E-05,NaN,3.523712E-05,-0.007061408,2.284806E-06,-9.00029E-05,NaN,NaN,1.782458E-07,0.007061499,5.38798E-07,-6.961622E-07,9.059906E-08,0.3671734
96.339,1.356163E-08,-2.061235E-08,NaN,1.683921E-07,-1.734961E-09,NaN,-1.582583E-06,9.000352E-05,NaN,3.523712E-05,-0.007061408,2.284806E-06,-9.00029E-05,NaN,NaN,1.782458E-07,0.007061499,5.38798E-07,-6.961622E-07,9.059906E-08,0.3671734
96.35867,1.356163E-08,-2.061235E-08,NaN,1.683921E-07,-1.734961E-09,NaN,-1.582583E-06,9.000352E-05,NaN,3.523712E-05,-0.007061408,2.284806E-06,-9.00029E-05,NaN,NaN,1.782458E-07,0.007061499,5.38798E-07,-6.961622E-07,9.059906E-08,0.3671734
96.37831,1.356163E-08,-2.061235E-08,NaN,1.683921E-07,-1.734961E-09,NaN,-1.582583E-06,9.000352E-05,NaN,3.523712E-05,-0.007061408,2.284806E-06,-9.00029E-05,NaN,NaN,1.782458E-07,0.007061499,5.38798E-07,-6.961622E-07,9.059906E-08,0.3671734
96.39864,1.356163E-08,-2.061235E-08,NaN,1.683921E-07,-1.734961E-09,NaN,-1.582583E-06,9.000352E-05,NaN,3.523712E-05,-0.007061408,2.284806E-06,-9.00029E-05,NaN,NaN,1.782458E-07,0.007061499,5.38798E-07,-6.961622E-07,9.059906E-08,0.3671734
96.41834,1.356163E-08,-2.061235E-08,NaN,1.683921E-07,-1.734961E-09,NaN,-1.582583E-06,9.000352E-05,NaN,3.523712E-05,-0.007061408,2.284806E-06,-9.00029E-05,NaN,NaN,1.782458E-07,0.007061499,5.38798E-07,-6.961622E-07,9.059906E-08,0.3671734
96.43803,1.356163E-08,-2.061235E-08,NaN,1.683921E-07,-1.734961E-09,NaN,-1.582583E-06,9.000352E-05,NaN,3.523712E-05,-0.007061408,2.284806E-06,-9.00029E-05,NaN,NaN,1.782458E-07,0.007061499,5.38798E-07,-6.961622E-07,9.059906E-08,0.3671734
96.45816,1.356163E-08,-2.061235E-08,NaN,1.683921E-07,-1.734961E-09,NaN,-1.582583E-06,9.000352E-05,NaN,3.523712E-05,-0.007061408,2.284806E-06,-9.00029E-05,NaN,NaN,1.782458E-07,0.007061499,5.38798E-07,-6.961622E-07,9.059906E-08,0.3671734
96.47789,1.356163E-08,-2.061235E-08,NaN,1.683921E-07,-1.734961E-09,NaN,-1.582583E-06,9.000352E-05,NaN,3.523712E-05,-0.007061408,2.284806E-06,-9.00029E-05,NaN,NaN,1.782458E-07,0.007061499,5.38798E-07,-6.961622E-07,9.059906E-08,0.3671734
96.498,1.356163E-08,-2.061235E-08,NaN,1.683921E-07,-1.734961E-09,NaN,-1.582583E-06,9.000352E-05,NaN,3.523712E-05,-0.007061408,2.284806E-06,-9.00029E-05,NaN,NaN,1.782458E-07,0.007061499,5.38798E-07,-6.961622E-07,9.059906E-08,0.3671734
96.51765,1.356163E-08,-2.061235E-08,NaN,1.683921E-07,-1.734961E-09,NaN,-1.582583E-06,9.000352E-05,NaN,3.523712E-05,-0.007061408,2.284806E-06,-9.00029E-05,NaN,NaN,1.782458E-07,0.007061499,5.38798E-07,-6.961622E-07,9.059906E-08,0.3671734
96.53736,1.356163E-08,-2.061235E-08,NaN,1.683921E-07,-1.734961E-09,NaN,-1.582583E-06,9.000352E-05,NaN,3.523712E-05,-0.007061408,2.284806E-06,-9.00029E-05,NaN,NaN,1.782458E-07,0.007061499,5.38798E-07,-6.961622E-07,9.059906E-08,0.3671734
96.55734,1.356163E-08,-2.061235E-08,NaN,1.683921E-07,-1.734961E-09,NaN,-1.582583E-06,9.000352E-05,NaN,3.523712E-05,-0.007061408,2.284806E-06,-9.00029E-05,NaN,NaN,1.782458E-07,0.007061499,5.38798E-07,-6.961622E-07,9.059906E-08,0.3671734
96.57687,1.356163E-08,-2.061235E-08,NaN,1.683921E-07,-1.734961E-09,NaN,-1.582583E-06,9.000352E-05,NaN,3.523712E-05,-0.007061408,2.284806E-06,-9.00029E-05,NaN,NaN,1.782458E-07,0.007061499,5.38798E-07,-6.961622E-07,9.059906E-08,0.3671734
96.59686,1.356163E-08,-2.061235E-08,NaN,1.683921E-07,-1.734961E-09,NaN,-1.582583E-06,9.000352E-05,NaN,3.523712E-05,-0.007061408,2.284806E-06,-9.00029E-05,NaN,NaN,1.782458E-07,0.007061499,5.38798E-07,-6.961622E-07,9.059906E-08,0.3671734
96.61626,1.356163E-08,-2.061235E-08,NaN,1.683921E-07,-1.734961E-09,NaN,-1.582583E-06,9.000352E-05,NaN,3.523712E-05,-0.007061408,2.284806E-06,-9.00029E-05,NaN,NaN,1.782458E-07,0.007061499,5.38798E-07,-6.961622E-07,9.059906E-08,0.3671734
96.63597,1.356163E-08,-2.061235E-08,NaN,1.683921E-07,-1.734961E-09,NaN,-1.582583E-06,9.000352E-05,NaN,3.523712E-05,-0.007061408,2.284806E-06,-9.00029E-05,NaN,NaN,1.782458E-07,0.007061499,5.38798E-07,-6.961622E-07,9.059906E-08,0.3671734
96.65566,1.356163E-08,-2.061235E-08,NaN,1.683921E-07,-1.734961E-09,NaN,-1.582583E-06,9.000352E-05,NaN,3.523712E-05,-0.007061408,2.284806E-06,-9.00029E-05,NaN,NaN,1.782458E-07,0.007061499,5.38798E-07,-6.961622E-07,9.059906E-08,0.3671734
96.67582,1.356163E-08,-2.061235E-08,NaN,1.683921E-07,-1.734961E-09,NaN,-1.582583E-06,9.000352E-05,NaN,3.523712E-05,-0.007061408,2.284806E-06,-9.00029E-05,NaN,NaN,1.782458E-07,0.007061499,5.38798E-07,-6.961622E-07,9.059906E-08,0.3671734
96.6953,1.356163E-08,-2.061235E-08,NaN,1.683921E-07,-1.734961E-09,NaN,-1.582583E-06,9.000352E-05,NaN,3.523712E-05,-0.007061408,2.284806E-06,-9.00029E-05,NaN,NaN,1.782458E-07,0.007061499,5.38798E-07,-6.961622E-07,9.059906E-08,0.3671734
96.71468,1.356163E-08,-2.061235E-08,NaN,1.683921E-07,-1.734961E-09,NaN,-1.582583E-06,9.000352E-05,NaN,3.523712E-05,-0.007061408,2.284806E-06,-9.00029E-05,NaN,NaN,1.782458E-07,0.007061499,5.38798E-07,-6.961622E-07,9.059906E-08,0.3671734
96.73464,1.356163E-08,-2.061235E-08,NaN,1.683921E-07,-1.734961E-09,NaN,-1.582583E-06,9.000352E-05,NaN,3.523712E-05,-0.007061408,2.284806E-06,-9.00029E-05,NaN,NaN,1.782458E-07,0.007061499,5.38798E-07,-6.961622E-07,9.059906E-08,0.3671734
96.75427,1.356163E-08,-2.061235E-08,NaN,1.683921E-07,-1.734961E-09,NaN,-1.582583E-06,9.000352E-05,NaN,3.523712E-05,-0.007061408,2.284806E-06,-9.00029E-05,NaN,NaN,1.782458E-07,0.007061499,5.38798E-07,-6.961622E-07,9.059906E-08,0.3671734
96.77417,1.356163E-08,-2.061235E-08,NaN,1.683921E-07,-1.734961E-09,NaN,-1.582583E-06,9.000352E-05,NaN,3.523712E-05,-0.007061408,2.284806E-06,-9.00029E-05,NaN,NaN,1.782458E-07,0.007061499,5.38798E-07,-6.961622E-07,9.059906E-08,0.3671734
96.79384,1.356163E-08,-2.061235E-08,NaN,1.683921E-07,-1.734961E-09,NaN,-1.582583E-06,9.000352E-05,NaN,3.523712E-05,-0.007061408,2.284806E-06,-9.00029E-05,NaN,NaN,1.782458E-07,0.007061499,5.38798E-07,-6.961622E-07,9.059906E-08,0.3671734
96.81319,1.356163E-08,-2.061235E-08,NaN,1.683921E-07,-1.734961E-09,NaN,-1.582583E-06,9.000352E-05,NaN,3.523712E-05,-0.007061408,2.284806E-06,-9.00029E-05,NaN,NaN,1.782458E-07,0.007061499,5.38798E-07,-6.961622E-07,9.059906E-08,0.3671734
96.83292,1.356163E-08,-2.061235E-08,NaN,1.683921E-07,-1.734961E-09,NaN,-1.582583E-06,9.000352E-05,NaN,3.523712E-05,-0.007061408,2.284806E-06,-9.00029E-05,NaN,NaN,1.782458E-07,0.007061499,5.38798E-07,-6.961622E-07,9.059906E-08,0.3671734
96.85227,1.356163E-08,-2.061235E-08,NaN,1.683921E-07,-1.734961E-09,NaN,-1.582583E-06,9.000352E-05,NaN,3.523712E-05,-0.007061408,2.284806E-06,-9.00029E-05,NaN,NaN,1.782458E-07,0.007061499,5.38798E-07,-6.961622E-07,9.059906E-08,0.3671734
96.87173,1.356163E-08,-2.061235E-08,NaN,1.683921E-07,-1.734961E-09,NaN,-1.582583E-06,9.000352E-05,NaN,3.523712E-05,-0.007061408,2.284806E-06,-9.00029E-05,NaN,NaN,1.782458E-07,0.007061499,5.38798E-07,-6.961622E-07,9.059906E-08,0.3671734
96.89165,1.356163E-08,-2.061235E-08,NaN,1.683921E-07,-1.734961E-09,NaN,-1.582583E-06,9.000352E-05,NaN,3.523712E-05,-0.007061408,2.284806E-06,-9.00029E-05,NaN,NaN,1.782458E-07,0.007061499,5.38798E-07,-6.961622E-07,9.059906E-08,0.3671734
96.91115,1.356163E-08,-2.061235E-08,NaN,1.683921E-07,-1.734961E-09,NaN,-1.582583E-06,9.000352E-05,NaN,3.523712E-05,-0.007061408,2.284806E-06,-9.00029E-05,NaN,NaN,1.782458E-07,0.007061499,5.38798E-07,-6.961622E-07,9.059906E-08,0.3671734
96.93087,1.356163E-08,-2.061235E-08,NaN,1.683921E-07,-1.734961E-09,NaN,-1.582583E-06,9.000352E-05,NaN,3.523712E-05,-0.007061408,2.284806E-06,-9.00029E-05,NaN,NaN,1.782458E-07,0.007061499,5.38798E-07,-6.961622E-07,9.059906E-08,0.3671734
96.9501,1.356163E-08,-2.061235E-08,NaN,1.683921E-07,-1.734961E-09,NaN,-1.582583E-06,9.000352E-05,NaN,3.523712E-05,-0.007061408,2.284806E-06,-9.00029E-05,NaN,NaN,1.782458E-07,0.007061499,5.38798E-07,-6.961622E-07,9.059906E-08,0.3671734
96.96983,1.356163E-08,-2.061235E-08,NaN,1.683921E-07,-1.734961E-09,NaN,-1.582583E-06,9.000352E-05,NaN,3.523712E-05,-0.007061408,2.284806E-06,-9.00029E-05,NaN,NaN,1.782458E-07,0.007061499,5.38798E-07,-6.961622E-07,9.059906E-08,0.3671734
96.98952,1.356163E-08,-2.061235E-08,NaN,1.683921E-07,-1.734961E-09,NaN,-1.582583E-06,9.000352E-05,NaN,3.523712E-05,-0.007061408,2.284806E-06,-9.00029E-05,NaN,NaN,1.782458E-07,0.007061499,5.38798E-07,-6.961622E-07,9.059906E-08,0.3671734
97.00951,1.356163E-08,-2.061235E-08,NaN,1.683921E-07,-1.734961E-09,NaN,-1.582583E-06,9.000352E-05,NaN,3.523712E-05,-0.007061408,2.284806E-06,-9.00029E-05,NaN,NaN,1.782458E-07,0.007061499,5.38798E-07,-6.961622E-07,9.059906E-08,0.3671734
97.03015,1.356163E-08,-2.061235E-08,NaN,1.683921E-07,-1.734961E-09,NaN,-1.582583E-06,9.000352E-05,NaN,3.523712E-05,-0.007061408,2.284806E-06,-9.00029E-05,NaN,NaN,1.782458E-07,0.007061499,5.38798E-07,-6.961622E-07,9.059906E-08,0.3671734
97.0481,1.356163E-08,-2.061235E-08,NaN,1.683921E-07,-1.734961E-09,NaN,-1.582583E-06,9.000352E-05,NaN,3.523712E-05,-0.007061408,2.284806E-06,-9.00029E-05,NaN,NaN,1.782458E-07,0.007061499,5.38798E-07,-6.961622E-07,9.059906E-08,0.3671734
97.06828,1.356163E-08,-2.061235E-08,NaN,1.683921E-07,-1.734961E-09,NaN,-1.582583E-06,9.000352E-05,NaN,3.523712E-05,-0.007061408,2.284806E-06,-9.00029E-05,NaN,NaN,1.782458E-07,0.007061499,5.38798E-07,-6.961622E-07,9.059906E-08,0.3671734
97.08754,1.356163E-08,-2.061235E-08,NaN,1.683921E-07,-1.734961E-09,NaN,-1.582583E-06,9.000352E-05,NaN,3.523712E-05,-0.007061408,2.284806E-06,-9.00029E-05,NaN,NaN,1.782458E-07,0.007061499,5.38798E-07,-6.961622E-07,9.059906E-08,0.3671734
97.10748,1.356163E-08,-2.061235E-08,NaN,1.683921E-07,-1.734961E-09,NaN,-1.582583E-06,9.000352E-05,NaN,3.523712E-05,-0.007061408,2.284806E-06,-9.00029E-05,NaN,NaN,1.782458E-07,0.007061499,5.38798E-07,-6.961622E-07,9.059906E-08,0.3671734
97.12683,1.356163E-08,-2.061235E-08,NaN,1.683921E-07,-1.734961E-09,NaN,-1.582583E-06,9.000352E-05,NaN,3.523712E-05,-0.007061408,2.284806E-06,-9.00029E-05,NaN,NaN,1.782458E-07,0.007061499,5.38798E-07,-6.961622E-07,9.059906E-08,0.3671734
97.14667,1.356163E-08,-2.061235E-08,NaN,1.683921E-07,-1.734961E-09,NaN,-1.582583E-06,9.000352E-05,NaN,3.523712E-05,-0.007061408,2.284806E-06,-9.00029E-05,NaN,NaN,1.782458E-07,0.007061499,5.38798E-07,-6.961622E-07,9.059906E-08,0.3671734
97.16665,1.356163E-08,-2.061235E-08,NaN,1.683921E-07,-1.734961E-09,NaN,-1.582583E-06,9.000352E-05,NaN,3.523712E-05,-0.007061408,2.284806E-06,-9.00029E-05,NaN,NaN,1.782458E-07,0.007061499,5.38798E-07,-6.961622E-07,9.059906E-08,0.3671734
97.18573,1.356163E-08,-2.061235E-08,NaN,1.683921E-07,-1.734961E-09,NaN,-1.582583E-06,9.000352E-05,NaN,3.523712E-05,-0.007061408,2.284806E-06,-9.00029E-05,NaN,NaN,1.782458E-07,0.007061499,5.38798E-07,-6.961622E-07,9.059906E-08,0.3671734
97.20557,1.356163E-08,-2.061235E-08,NaN,1.683921E-07,-1.734961E-09,NaN,-1.582583E-06,9.000352E-05,NaN,3.523712E-05,-0.007061408,2.284806E-06,-9.00029E-05,NaN,NaN,1.782458E-07,0.007061499,5.38798E-07,-6.961622E-07,9.059906E-08,0.3671734
97.22551,1.356163E-08,-2.061235E-08,NaN,1.683921E-07,-1.734961E-09,NaN,-1.582583E-06,9.000352E-05,NaN,3.523712E-05,-0.007061408,2.284806E-06,-9.00029E-05,NaN,NaN,1.782458E-07,0.007061499,5.38798E-07,-6.961622E-07,9.059906E-08,0.3671734
97.24476,1.356163E-08,-2.061235E-08,NaN,1.683921E-07,-1.734961E-09,NaN,-1.582583E-06,9.000352E-05,NaN,3.523712E-05,-0.007061408,2.284806E-06,-9.00029E-05,NaN,NaN,1.782458E-07,0.007061499,5.38798E-07,-6.961622E-07,9.059906E-08,0.3671734
97.26445,1.356163E-08,-2.061235E-08,NaN,1.683921E-07,-1.734961E-09,NaN,-1.582583E-06,9.000352E-05,NaN,3.523712E-05,-0.007061408,2.284806E-06,-9.00029E-05,NaN,NaN,1.782458E-07,0.007061499,5.38798E-07,-6.961622E-07,9.059906E-08,0.3671734
97.28371,1.356163E-08,-2.061235E-08,NaN,1.683921E-07,-1.734961E-09,NaN,-1.582583E-06,9.000352E-05,NaN,3.523712E-05,-0.007061408,2.284806E-06,-9.00029E-05,NaN,NaN,1.782458E-07,0.007061499,5.38798E-07,-6.961622E-07,9.059906E-08,0.3671734
97.30338,1.356163E-08,-2.061235E-08,NaN,1.683921E-07,-1.734961E-09,NaN,-1.582583E-06,9.000352E-05,NaN,3.523712E-05,-0.007061408,2.284806E-06,-9.00029E-05,NaN,NaN,1.782458E-07,0.007061499,5.38798E-07,-6.961622E-07,9.059906E-08,0.3671734
97.32317,1.356163E-08,-2.061235E-08,NaN,1.683921E-07,-1.734961E-09,NaN,-1.582583E-06,9.000352E-05,NaN,3.523712E-05,-0.007061408,2.284806E-06,-9.00029E-05,NaN,NaN,1.782458E-07,0.007061499,5.38798E-07,-6.961622E-07,9.059906E-08,0.3671734
97.34262,1.356163E-08,-2.061235E-08,NaN,1.683921E-07,-1.734961E-09,NaN,-1.582583E-06,9.000352E-05,NaN,3.523712E-05,-0.007061408,2.284806E-06,-9.00029E-05,NaN,NaN,1.782458E-07,0.007061499,5.38798E-07,-6.961622E-07,9.059906E-08,0.3671734
97.36226,1.356163E-08,-2.061235E-08,NaN,1.683921E-07,-1.734961E-09,NaN,-1.582583E-06,9.000352E-05,NaN,3.523712E-05,-0.007061408,2.284806E-06,-9.00029E-05,NaN,NaN,1.782458E-07,0.007061499,5.38798E-07,-6.961622E-07,9.059906E-08,0.3671734
97.38293,1.356163E-08,-2.061235E-08,NaN,1.683921E-07,-1.734961E-09,NaN,-1.582583E-06,9.000352E-05,NaN,3.523712E-05,-0.007061408,2.284806E-06,-9.00029E-05,NaN,NaN,1.782458E-07,0.007061499,5.38798E-07,-6.961622E-07,9.059906E-08,0.3671734
97.40139,1.356163E-08,-2.061235E-08,NaN,1.683921E-07,-1.734961E-09,NaN,-1.582583E-06,9.000352E-05,NaN,3.523712E-05,-0.007061408,2.284806E-06,-9.00029E-05,NaN,NaN,1.782458E-07,0.007061499,5.38798E-07,-6.961622E-07,9.059906E-08,0.3671734
97.42108,1.356163E-08,-2.061235E-08,NaN,1.683921E-07,-1.734961E-09,NaN,-1.582583E-06,9.000352E-05,NaN,3.523712E-05,-0.007061408,2.284806E-06,-9.00029E-05,NaN,NaN,1.782458E-07,0.007061499,5.38798E-07,-6.961622E-07,9.059906E-08,0.3671734
97.4406,1.356163E-08,-2.061235E-08,NaN,1.683921E-07,-1.734961E-09,NaN,-1.582583E-06,9.000352E-05,NaN,3.523712E-05,-0.007061408,2.284806E-06,-9.00029E-05,NaN,NaN,1.782458E-07,0.007061499,5.38798E-07,-6.961622E-07,9.059906E-08,0.3671734
97.46023,1.356163E-08,-2.061235E-08,NaN,1.683921E-07,-1.734961E-09,NaN,-1.582583E-06,9.000352E-05,NaN,3.523712E-05,-0.007061408,2.284806E-06,-9.00029E-05,NaN,NaN,1.782458E-07,0.007061499,5.38798E-07,-6.961622E-07,9.059906E-08,0.3671734
97.47977,1.356163E-08,-2.061235E-08,NaN,1.683921E-07,-1.734961E-09,NaN,-1.582583E-06,9.000352E-05,NaN,3.523712E-05,-0.007061408,2.284806E-06,-9.00029E-05,NaN,NaN,1.782458E-07,0.007061499,5.38798E-07,-6.961622E-07,9.059906E-08,0.3671734
97.50003,1.356163E-08,-2.061235E-08,NaN,1.683921E-07,-1.734961E-09,NaN,-1.582583E-06,9.000352E-05,NaN,3.523712E-05,-0.007061408,2.284806E-06,-9.00029E-05,NaN,NaN,1.782458E-07,0.007061499,5.38798E-07,-6.961622E-07,9.059906E-08,0.3671734
97.52005,1.356163E-08,-2.061235E-08,NaN,1.683921E-07,-1.734961E-09,NaN,-1.582583E-06,9.000352E-05,NaN,3.523712E-05,-0.007061408,2.284806E-06,-9.00029E-05,NaN,NaN,1.782458E-07,0.007061499,5.38798E-07,-6.961622E-07,9.059906E-08,0.3671734
97.53991,1.356163E-08,-2.061235E-08,NaN,1.683921E-07,-1.734961E-09,NaN,-1.582583E-06,9.000352E-05,NaN,3.523712E-05,-0.007061408,2.284806E-06,-9.00029E-05,NaN,NaN,1.782458E-07,0.007061499,5.38798E-07,-6.961622E-07,9.059906E-08,0.3671734
97.5591,1.356163E-08,-2.061235E-08,NaN,1.683921E-07,-1.734961E-09,NaN,-1.582583E-06,9.000352E-05,NaN,3.523712E-05,-0.007061408,2.284806E-06,-9.00029E-05,NaN,NaN,1.782458E-07,0.007061499,5.38798E-07,-6.961622E-07,9.059906E-08,0.3671734
97.5792,1.356163E-08,-2.061235E-08,NaN,1.683921E-07,-1.734961E-09,NaN,-1.582583E-06,9.000352E-05,NaN,3.523712E-05,-0.007061408,2.284806E-06,-9.00029E-05,NaN,NaN,1.782458E-07,0.007061499,5.38798E-07,-6.961622E-07,9.059906E-08,0.3671734
97.59921,1.356163E-08,-2.061235E-08,NaN,1.683921E-07,-1.734961E-09,NaN,-1.582583E-06,9.000352E-05,NaN,3.523712E-05,-0.007061408,2.284806E-06,-9.00029E-05,NaN,NaN,1.782458E-07,0.007061499,5.38798E-07,-6.961622E-07,9.059906E-08,0.3671734
97.61859,1.356163E-08,-2.061235E-08,NaN,1.683921E-07,-1.734961E-09,NaN,-1.582583E-06,9.000352E-05,NaN,3.523712E-05,-0.007061408,2.284806E-06,-9.00029E-05,NaN,NaN,1.782458E-07,0.007061499,5.38798E-07,-6.961622E-07,9.059906E-08,0.3671734
97.63872,1.356163E-08,-2.061235E-08,NaN,1.683921E-07,-1.734961E-09,NaN,-1.582583E-06,9.000352E-05,NaN,3.523712E-05,-0.007061408,2.284806E-06,-9.00029E-05,NaN,NaN,1.782458E-07,0.007061499,5.38798E-07,-6.961622E-07,9.059906E-08,0.3671734
97.65799,1.356163E-08,-2.061235E-08,NaN,1.683921E-07,-1.734961E-09,NaN,-1.582583E-06,9.000352E-05,NaN,3.523712E-05,-0.007061408,2.284806E-06,-9.00029E-05,NaN,NaN,1.782458E-07,0.007061499,5.38798E-07,-6.961622E-07,9.059906E-08,0.3671734
97.67757,1.356163E-08,-2.061235E-08,NaN,1.683921E-07,-1.734961E-09,NaN,-1.582583E-06,9.000352E-05,NaN,3.523712E-05,-0.007061408,2.284806E-06,-9.00029E-05,NaN,NaN,1.782458E-07,0.007061499,5.38798E-07,-6.961622E-07,9.059906E-08,0.3671734
97.69753,1.356163E-08,-2.061235E-08,NaN,1.683921E-07,-1.734961E-09,NaN,-1.582583E-06,9.000352E-05,NaN,3.523712E-05,-0.007061408,2.284806E-06,-9.00029E-05,NaN,NaN,1.782458E-07,0.007061499,5.38798E-07,-6.961622E-07,9.059906E-08,0.3671734
97.717,1.356163E-08,-2.061235E-08,NaN,1.683921E-07,-1.734961E-09,NaN,-1.582583E-06,9.000352E-05,NaN,3.523712E-05,-0.007061408,2.284806E-06,-9.00029E-05,NaN,NaN,1.782458E-07,0.007061499,5.38798E-07,-6.961622E-07,9.059906E-08,0.3671734
97.73705,1.356163E-08,-2.061235E-08,NaN,1.683921E-07,-1.734961E-09,NaN,-1.582583E-06,9.000352E-05,NaN,3.523712E-05,-0.007061408,2.284806E-06,-9.00029E-05,NaN,NaN,1.782458E-07,0.007061499,5.38798E-07,-6.961622E-07,9.059906E-08,0.3671734
97.75675,1.356163E-08,-2.061235E-08,NaN,1.683921E-07,-1.734961E-09,NaN,-1.582583E-06,9.000352E-05,NaN,3.523712E-05,-0.007061408,2.284806E-06,-9.00029E-05,NaN,NaN,1.782458E-07,0.007061499,5.38798E-07,-6.961622E-07,9.059906E-08,0.3671734
97.77641,1.356163E-08,-2.061235E-08,NaN,1.683921E-07,-1.734961E-09,NaN,-1.582583E-06,9.000352E-05,NaN,3.523712E-05,-0.007061408,2.284806E-06,-9.00029E-05,NaN,NaN,1.782458E-07,0.007061499,5.38798E-07,-6.961622E-07,9.059906E-08,0.3671734
97.79635,1.356163E-08,-2.061235E-08,NaN,1.683921E-07,-1.734961E-09,NaN,-1.582583E-06,9.000352E-05,NaN,3.523712E-05,-0.007061408,2.284806E-06,-9.00029E-05,NaN,NaN,1.782458E-07,0.007061499,5.38798E-07,-6.961622E-07,9.059906E-08,0.3671734
97.81578,1.356163E-08,-2.061235E-08,NaN,1.683921E-07,-1.734961E-09,NaN,-1.582583E-06,9.000352E-05,NaN,3.523712E-05,-0.007061408,2.284806E-06,-9.00029E-05,NaN,NaN,1.782458E-07,0.007061499,5.38798E-07,-6.961622E-07,9.059906E-08,0.3671734
97.83549,1.356163E-08,-2.061235E-08,NaN,1.683921E-07,-1.734961E-09,NaN,-1.582583E-06,9.000352E-05,NaN,3.523712E-05,-0.007061408,2.284806E-06,-9.00029E-05,NaN,NaN,1.782458E-07,0.007061499,5.38798E-07,-6.961622E-07,9.059906E-08,0.3671734
97.85506,1.356163E-08,-2.061235E-08,NaN,1.683921E-07,-1.734961E-09,NaN,-1.582583E-06,9.000352E-05,NaN,3.523712E-05,-0.007061408,2.284806E-06,-9.00029E-05,NaN,NaN,1.782458E-07,0.007061499,5.38798E-07,-6.961622E-07,9.059906E-08,0.3671734
97.87517,1.356163E-08,-2.061235E-08,NaN,1.683921E-07,-1.734961E-09,NaN,-1.582583E-06,9.000352E-05,NaN,3.523712E-05,-0.007061408,2.284806E-06,-9.00029E-05,NaN,NaN,1.782458E-07,0.007061499,5.38798E-07,-6.961622E-07,9.059906E-08,0.3671734
97.89457,1.356163E-08,-2.061235E-08,NaN,1.683921E-07,-1.734961E-09,NaN,-1.582583E-06,9.000352E-05,NaN,3.523712E-05,-0.007061408,2.284806E-06,-9.00029E-05,NaN,NaN,1.782458E-07,0.007061499,5.38798E-07,-6.961622E-07,9.059906E-08,0.3671734
97.91409,1.356163E-08,-2.061235E-08,NaN,1.683921E-07,-1.734961E-09,NaN,-1.582583E-06,9.000352E-05,NaN,3.523712E-05,-0.007061408,2.284806E-06,-9.00029E-05,NaN,NaN,1.782458E-07,0.007061499,5.38798E-07,-6.961622E-07,9.059906E-08,0.3671734
97.93399,1.356163E-08,-2.061235E-08,NaN,1.683921E-07,-1.734961E-09,NaN,-1.582583E-06,9.000352E-05,NaN,3.523712E-05,-0.007061408,2.284806E-06,-9.00029E-05,NaN,NaN,1.782458E-07,0.007061499,5.38798E-07,-6.961622E-07,9.059906E-08,0.3671734
97.95367,1.356163E-08,-2.061235E-08,NaN,1.683921E-07,-1.734961E-09,NaN,-1.582583E-06,9.000352E-05,NaN,3.523712E-05,-0.007061408,2.284806E-06,-9.00029E-05,NaN,NaN,1.782458E-07,0.007061499,5.38798E-07,-6.961622E-07,9.059906E-08,0.3671734
97.97395,1.356163E-08,-2.061235E-08,NaN,1.683921E-07,-1.734961E-09,NaN,-1.582583E-06,9.000352E-05,NaN,3.523712E-05,-0.007061408,2.284806E-06,-9.00029E-05,NaN,NaN,1.782458E-07,0.007061499,5.38798E-07,-6.961622E-07,9.059906E-08,0.3671734
97.99322,1.356163E-08,-2.061235E-08,NaN,1.683921E-07,-1.734961E-09,NaN,-1.582583E-06,9.000352E-05,NaN,3.523712E-05,-0.007061408,2.284806E-06,-9.00029E-05,NaN,NaN,1.782458E-07,0.007061499,5.38798E-07,-6.961622E-07,9.059906E-08,0.3671734
98.0131,1.356163E-08,-2.061235E-08,NaN,1.683921E-07,-1.734961E-09,NaN,-1.582583E-06,9.000352E-05,NaN,3.523712E-05,-0.007061408,2.284806E-06,-9.00029E-05,NaN,NaN,1.782458E-07,0.007061499,5.38798E-07,-6.961622E-07,9.059906E-08,0.3671734
98.03273,1.356163E-08,-2.061235E-08,NaN,1.683921E-07,-1.734961E-09,NaN,-1.582583E-06,9.000352E-05,NaN,3.523712E-05,-0.007061408,2.284806E-06,-9.00029E-05,NaN,NaN,1.782458E-07,0.007061499,5.38798E-07,-6.961622E-07,9.059906E-08,0.3671734
98.05202,1.356163E-08,-2.061235E-08,NaN,1.683921E-07,-1.734961E-09,NaN,-1.582583E-06,9.000352E-05,NaN,3.523712E-05,-0.007061408,2.284806E-06,-9.00029E-05,NaN,NaN,1.782458E-07,0.007061499,5.38798E-07,-6.961622E-07,9.059906E-08,0.3671734
98.07195,1.356163E-08,-2.061235E-08,NaN,1.683921E-07,-1.734961E-09,NaN,-1.582583E-06,9.000352E-05,NaN,3.523712E-05,-0.007061408,2.284806E-06,-9.00029E-05,NaN,NaN,1.782458E-07,0.007061499,5.38798E-07,-6.961622E-07,9.059906E-08,0.3671734
98.09178,1.356163E-08,-2.061235E-08,NaN,1.683921E-07,-1.734961E-09,NaN,-1.582583E-06,9.000352E-05,NaN,3.523712E-05,-0.007061408,2.284806E-06,-9.00029E-05,NaN,NaN,1.782458E-07,0.007061499,5.38798E-07,-6.961622E-07,9.059906E-08,0.3671734
98.1113,1.356163E-08,-2.061235E-08,NaN,1.683921E-07,-1.734961E-09,NaN,-1.582583E-06,9.000352E-05,NaN,3.523712E-05,-0.007061408,2.284806E-06,-9.00029E-05,NaN,NaN,1.782458E-07,0.007061499,5.38798E-07,-6.961622E-07,9.059906E-08,0.3671734
98.13122,1.356163E-08,-2.061235E-08,NaN,1.683921E-07,-1.734961E-09,NaN,-1.582583E-06,9.000352E-05,NaN,3.523712E-05,-0.007061408,2.284806E-06,-9.00029E-05,NaN,NaN,1.782458E-07,0.007061499,5.38798E-07,-6.961622E-07,9.059906E-08,0.3671734
98.15082,1.356163E-08,-2.061235E-08,NaN,1.683921E-07,-1.734961E-09,NaN,-1.582583E-06,9.000352E-05,NaN,3.523712E-05,-0.007061408,2.284806E-06,-9.00029E-05,NaN,NaN,1.782458E-07,0.007061499,5.38798E-07,-6.961622E-07,9.059906E-08,0.3671734
98.17098,1.356163E-08,-2.061235E-08,NaN,1.683921E-07,-1.734961E-09,NaN,-1.582583E-06,9.000352E-05,NaN,3.523712E-05,-0.007061408,2.284806E-06,-9.00029E-05,NaN,NaN,1.782458E-07,0.007061499,5.38798E-07,-6.961622E-07,9.059906E-08,0.3671734
98.19089,1.356163E-08,-2.061235E-08,NaN,1.683921E-07,-1.734961E-09,NaN,-1.582583E-06,9.000352E-05,NaN,3.523712E-05,-0.007061408,2.284806E-06,-9.00029E-05,NaN,NaN,1.782458E-07,0.007061499,5.38798E-07,-6.961622E-07,9.059906E-08,0.3671734
98.21123,1.356163E-08,-2.061235E-08,NaN,1.683921E-07,-1.734961E-09,NaN,-1.582583E-06,9.000352E-05,NaN,3.523712E-05,-0.007061408,2.284806E-06,-9.00029E-05,NaN,NaN,1.782458E-07,0.007061499,5.38798E-07,-6.961622E-07,9.059906E-08,0.3671734
98.23079,1.356163E-08,-2.061235E-08,NaN,1.683921E-07,-1.734961E-09,NaN,-1.582583E-06,9.000352E-05,NaN,3.523712E-05,-0.007061408,2.284806E-06,-9.00029E-05,NaN,NaN,1.782458E-07,0.007061499,5.38798E-07,-6.961622E-07,9.059906E-08,0.3671734
98.25073,1.356163E-08,-2.061235E-08,NaN,1.683921E-07,-1.734961E-09,NaN,-1.582583E-06,9.000352E-05,NaN,3.523712E-05,-0.007061408,2.284806E-06,-9.00029E-05,NaN,NaN,1.782458E-07,0.007061499,5.38798E-07,-6.961622E-07,9.059906E-08,0.3671734
98.27058,1.356163E-08,-2.061235E-08,NaN,1.683921E-07,-1.734961E-09,NaN,-1.582583E-06,9.000352E-05,NaN,3.523712E-05,-0.007061408,2.284806E-06,-9.00029E-05,NaN,NaN,1.782458E-07,0.007061499,5.38798E-07,-6.961622E-07,9.059906E-08,0.3671734
98.29076,1.356163E-08,-2.061235E-08,NaN,1.683921E-07,-1.734961E-09,NaN,-1.582583E-06,9.000352E-05,NaN,3.523712E-05,-0.007061408,2.284806E-06,-9.00029E-05,NaN,NaN,1.782458E-07,0.007061499,5.38798E-07,-6.961622E-07,9.059906E-08,0.3671734
98.31068,1.356163E-08,-2.061235E-08,NaN,1.683921E-07,-1.734961E-09,NaN,-1.582583E-06,9.000352E-05,NaN,3.523712E-05,-0.007061408,2.284806E-06,-9.00029E-05,NaN,NaN,1.782458E-07,0.007061499,5.38798E-07,-6.961622E-07,9.059906E-08,0.3671734
98.33044,1.356163E-08,-2.061235E-08,NaN,1.683921E-07,-1.734961E-09,NaN,-1.582583E-06,9.000352E-05,NaN,3.523712E-05,-0.007061408,2.284806E-06,-9.00029E-05,NaN,NaN,1.782458E-07,0.007061499,5.38798E-07,-6.961622E-07,9.059906E-08,0.3671734
98.35019,1.356163E-08,-2.061235E-08,NaN,1.683921E-07,-1.734961E-09,NaN,-1.582583E-06,9.000352E-05,NaN,3.523712E-05,-0.007061408,2.284806E-06,-9.00029E-05,NaN,NaN,1.782458E-07,0.007061499,5.38798E-07,-6.961622E-07,9.059906E-08,0.3671734
98.36999,1.356163E-08,-2.061235E-08,NaN,1.683921E-07,-1.734961E-09,NaN,-1.582583E-06,9.000352E-05,NaN,3.523712E-05,-0.007061408,2.284806E-06,-9.00029E-05,NaN,NaN,1.782458E-07,0.007061499,5.38798E-07,-6.961622E-07,9.059906E-08,0.3671734
98.38956,1.356163E-08,-2.061235E-08,NaN,1.683921E-07,-1.734961E-09,NaN,-1.582583E-06,9.000352E-05,NaN,3.523712E-05,-0.007061408,2.284806E-06,-9.00029E-05,NaN,NaN,1.782458E-07,0.007061499,5.38798E-07,-6.961622E-07,9.059906E-08,0.3671734
98.40904,1.356163E-08,-2.061235E-08,NaN,1.683921E-07,-1.734961E-09,NaN,-1.582583E-06,9.000352E-05,NaN,3.523712E-05,-0.007061408,2.284806E-06,-9.00029E-05,NaN,NaN,1.782458E-07,0.007061499,5.38798E-07,-6.961622E-07,9.059906E-08,0.3671734
98.42782,1.356163E-08,-2.061235E-08,NaN,1.683921E-07,-1.734961E-09,NaN,-1.582583E-06,9.000352E-05,NaN,3.523712E-05,-0.007061408,2.284806E-06,-9.00029E-05,NaN,NaN,1.782458E-07,0.007061499,5.38798E-07,-6.961622E-07,9.059906E-08,0.3671734
98.44827,1.356163E-08,-2.061235E-08,NaN,1.683921E-07,-1.734961E-09,NaN,-1.582583E-06,9.000352E-05,NaN,3.523712E-05,-0.007061408,2.284806E-06,-9.00029E-05,NaN,NaN,1.782458E-07,0.007061499,5.38798E-07,-6.961622E-07,9.059906E-08,0.3671734
98.46601,1.356163E-08,-2.061235E-08,NaN,1.683921E-07,-1.734961E-09,NaN,-1.582583E-06,9.000352E-05,NaN,3.523712E-05,-0.007061408,2.284806E-06,-9.00029E-05,NaN,NaN,1.782458E-07,0.007061499,5.38798E-07,-6.961622E-07,9.059906E-08,0.3671734
98.48461,1.356163E-08,-2.061235E-08,NaN,1.683921E-07,-1.734961E-09,NaN,-1.582583E-06,9.000352E-05,NaN,3.523712E-05,-0.007061408,2.284806E-06,-9.00029E-05,NaN,NaN,1.782458E-07,0.007061499,5.38798E-07,-6.961622E-07,9.059906E-08,0.3671734
98.50325,1.356163E-08,-2.061235E-08,NaN,1.683921E-07,-1.734961E-09,NaN,-1.582583E-06,9.000352E-05,NaN,3.523712E-05,-0.007061408,2.284806E-06,-9.00029E-05,NaN,NaN,1.782458E-07,0.007061499,5.38798E-07,-6.961622E-07,9.059906E-08,0.3671734
98.52183,1.356163E-08,-2.061235E-08,NaN,1.683921E-07,-1.734961E-09,NaN,-1.582583E-06,9.000352E-05,NaN,3.523712E-05,-0.007061408,2.284806E-06,-9.00029E-05,NaN,NaN,1.782458E-07,0.007061499,5.38798E-07,-6.961622E-07,9.059906E-08,0.3671734
98.5405,1.356163E-08,-2.061235E-08,NaN,1.683921E-07,-1.734961E-09,NaN,-1.582583E-06,9.000352E-05,NaN,3.523712E-05,-0.007061408,2.284806E-06,-9.00029E-05,NaN,NaN,1.782458E-07,0.007061499,5.38798E-07,-6.961622E-07,9.059906E-08,0.3671734
98.55916,1.356163E-08,-2.061235E-08,NaN,1.683921E-07,-1.734961E-09,NaN,-1.582583E-06,9.000352E-05,NaN,3.523712E-05,-0.007061408,2.284806E-06,-9.00029E-05,NaN,NaN,1.782458E-07,0.007061499,5.38798E-07,-6.961622E-07,9.059906E-08,0.3671734
98.57745,1.356163E-08,-2.061235E-08,NaN,1.683921E-07,-1.734961E-09,NaN,-1.582583E-06,9.000352E-05,NaN,3.523712E-05,-0.007061408,2.284806E-06,-9.00029E-05,NaN,NaN,1.782458E-07,0.007061499,5.38798E-07,-6.961622E-07,9.059906E-08,0.3671734
98.59611,1.356163E-08,-2.061235E-08,NaN,1.683921E-07,-1.734961E-09,NaN,-1.582583E-06,9.000352E-05,NaN,3.523712E-05,-0.007061408,2.284806E-06,-9.00029E-05,NaN,NaN,1.782458E-07,0.007061499,5.38798E-07,-6.961622E-07,9.059906E-08,0.3671734
98.61456,1.356163E-08,-2.061235E-08,NaN,1.683921E-07,-1.734961E-09,NaN,-1.582583E-06,9.000352E-05,NaN,3.523712E-05,-0.007061408,2.284806E-06,-9.00029E-05,NaN,NaN,1.782458E-07,0.007061499,5.38798E-07,-6.961622E-07,9.059906E-08,0.3671734
98.63312,1.356163E-08,-2.061235E-08,NaN,1.683921E-07,-1.734961E-09,NaN,-1.582583E-06,9.000352E-05,NaN,3.523712E-05,-0.007061408,2.284806E-06,-9.00029E-05,NaN,NaN,1.782458E-07,0.007061499,5.38798E-07,-6.961622E-07,9.059906E-08,0.3671734
98.65099,1.356163E-08,-2.061235E-08,NaN,1.683921E-07,-1.734961E-09,NaN,-1.582583E-06,9.000352E-05,NaN,3.523712E-05,-0.007061408,2.284806E-06,-9.00029E-05,NaN,NaN,1.782458E-07,0.007061499,5.38798E-07,-6.961622E-07,9.059906E-08,0.3671734
98.66933,1.356163E-08,-2.061235E-08,NaN,1.683921E-07,-1.734961E-09,NaN,-1.582583E-06,9.000352E-05,NaN,3.523712E-05,-0.007061408,2.284806E-06,-9.00029E-05,NaN,NaN,1.782458E-07,0.007061499,5.38798E-07,-6.961622E-07,9.059906E-08,0.3671734
98.6876,1.356163E-08,-2.061235E-08,NaN,1.683921E-07,-1.734961E-09,NaN,-1.582583E-06,9.000352E-05,NaN,3.523712E-05,-0.007061408,2.284806E-06,-9.00029E-05,NaN,NaN,1.782458E-07,0.007061499,5.38798E-07,-6.961622E-07,9.059906E-08,0.3671734
98.70606,1.356163E-08,-2.061235E-08,NaN,1.683921E-07,-1.734961E-09,NaN,-1.582583E-06,9.000352E-05,NaN,3.523712E-05,-0.007061408,2.284806E-06,-9.00029E-05,NaN,NaN,1.782458E-07,0.007061499,5.38798E-07,-6.961622E-07,9.059906E-08,0.3671734
98.72421,1.356163E-08,-2.061235E-08,NaN,1.683921E-07,-1.734961E-09,NaN,-1.582583E-06,9.000352E-05,NaN,3.523712E-05,-0.007061408,2.284806E-06,-9.00029E-05,NaN,NaN,1.782458E-07,0.007061499,5.38798E-07,-6.961622E-07,9.059906E-08,0.3671734
98.74229,1.356163E-08,-2.061235E-08,NaN,1.683921E-07,-1.734961E-09,NaN,-1.582583E-06,9.000352E-05,NaN,3.523712E-05,-0.007061408,2.284806E-06,-9.00029E-05,NaN,NaN,1.782458E-07,0.007061499,5.38798E-07,-6.961622E-07,9.059906E-08,0.3671734
98.7606,1.356163E-08,-2.061235E-08,NaN,1.683921E-07,-1.734961E-09,NaN,-1.582583E-06,9.000352E-05,NaN,3.523712E-05,-0.007061408,2.284806E-06,-9.00029E-05,NaN,NaN,1.782458E-07,0.007061499,5.38798E-07,-6.961622E-07,9.059906E-08,0.3671734
98.77866,1.356163E-08,-2.061235E-08,NaN,1.683921E-07,-1.734961E-09,NaN,-1.582583E-06,9.000352E-05,NaN,3.523712E-05,-0.007061408,2.284806E-06,-9.00029E-05,NaN,NaN,1.782458E-07,0.007061499,5.38798E-07,-6.961622E-07,9.059906E-08,0.3671734
98.79633,1.356163E-08,-2.061235E-08,NaN,1.683921E-07,-1.734961E-09,NaN,-1.582583E-06,9.000352E-05,NaN,3.523712E-05,-0.007061408,2.284806E-06,-9.00029E-05,NaN,NaN,1.782458E-07,0.007061499,5.38798E-07,-6.961622E-07,9.059906E-08,0.3671734
98.8148,1.356163E-08,-2.061235E-08,NaN,1.683921E-07,-1.734961E-09,NaN,-1.582583E-06,9.000352E-05,NaN,3.523712E-05,-0.007061408,2.284806E-06,-9.00029E-05,NaN,NaN,1.782458E-07,0.007061499,5.38798E-07,-6.961622E-07,9.059906E-08,0.3671734
98.83614,1.356163E-08,-2.061235E-08,NaN,1.683921E-07,-1.734961E-09,NaN,-1.582583E-06,9.000352E-05,NaN,3.523712E-05,-0.007061408,2.284806E-06,-9.00029E-05,NaN,NaN,1.782458E-07,0.007061499,5.38798E-07,-6.961622E-07,9.059906E-08,0.3671734
98.85136,1.356163E-08,-2.061235E-08,NaN,1.683921E-07,-1.734961E-09,NaN,-1.582583E-06,9.000352E-05,NaN,3.523712E-05,-0.007061408,2.284806E-06,-9.00029E-05,NaN,NaN,1.782458E-07,0.007061499,5.38798E-07,-6.961622E-07,9.059906E-08,0.3671734
98.86857,1.356163E-08,-2.061235E-08,NaN,1.683921E-07,-1.734961E-09,NaN,-1.582583E-06,9.000352E-05,NaN,3.523712E-05,-0.007061408,2.284806E-06,-9.00029E-05,NaN,NaN,1.782458E-07,0.007061499,5.38798E-07,-6.961622E-07,9.059906E-08,0.3671734
98.88711,1.356163E-08,-2.061235E-08,NaN,1.683921E-07,-1.734961E-09,NaN,-1.582583E-06,9.000352E-05,NaN,3.523712E-05,-0.007061408,2.284806E-06,-9.00029E-05,NaN,NaN,1.782458E-07,0.007061499,5.38798E-07,-6.961622E-07,9.059906E-08,0.3671734
98.9052,1.356163E-08,-2.061235E-08,NaN,1.683921E-07,-1.734961E-09,NaN,-1.582583E-06,9.000352E-05,NaN,3.523712E-05,-0.007061408,2.284806E-06,-9.00029E-05,NaN,NaN,1.782458E-07,0.007061499,5.38798E-07,-6.961622E-07,9.059906E-08,0.3671734
98.92358,1.356163E-08,-2.061235E-08,NaN,1.683921E-07,-1.734961E-09,NaN,-1.582583E-06,9.000352E-05,NaN,3.523712E-05,-0.007061408,2.284806E-06,-9.00029E-05,NaN,NaN,1.782458E-07,0.007061499,5.38798E-07,-6.961622E-07,9.059906E-08,0.3671734
98.94301,1.356163E-08,-2.061235E-08,NaN,1.683921E-07,-1.734961E-09,NaN,-1.582583E-06,9.000352E-05,NaN,3.523712E-05,-0.007061408,2.284806E-06,-9.00029E-05,NaN,NaN,1.782458E-07,0.007061499,5.38798E-07,-6.961622E-07,9.059906E-08,0.3671734
98.95976,1.356163E-08,-2.061235E-08,NaN,1.683921E-07,-1.734961E-09,NaN,-1.582583E-06,9.000352E-05,NaN,3.523712E-05,-0.007061408,2.284806E-06,-9.00029E-05,NaN,NaN,1.782458E-07,0.007061499,5.38798E-07,-6.961622E-07,9.059906E-08,0.3671734
98.97729,1.356163E-08,-2.061235E-08,NaN,1.683921E-07,-1.734961E-09,NaN,-1.582583E-06,9.000352E-05,NaN,3.523712E-05,-0.007061408,2.284806E-06,-9.00029E-05,NaN,NaN,1.782458E-07,0.007061499,5.38798E-07,-6.961622E-07,9.059906E-08,0.3671734
98.99596,1.356163E-08,-2.061235E-08,NaN,1.683921E-07,-1.734961E-09,NaN,-1.582583E-06,9.000352E-05,NaN,3.523712E-05,-0.007061408,2.284806E-06,-9.00029E-05,NaN,NaN,1.782458E-07,0.007061499,5.38798E-07,-6.961622E-07,9.059906E-08,0.3671734
99.01408,1.356163E-08,-2.061235E-08,NaN,1.683921E-07,-1.734961E-09,NaN,-1.582583E-06,9.000352E-05,NaN,3.523712E-05,-0.007061408,2.284806E-06,-9.00029E-05,NaN,NaN,1.782458E-07,0.007061499,5.38798E-07,-6.961622E-07,9.059906E-08,0.3671734
99.03165,1.356163E-08,-2.061235E-08,NaN,1.683921E-07,-1.734961E-09,NaN,-1.582583E-06,9.000352E-05,NaN,3.523712E-05,-0.007061408,2.284806E-06,-9.00029E-05,NaN,NaN,1.782458E-07,0.007061499,5.38798E-07,-6.961622E-07,9.059906E-08,0.3671734
99.05032,1.356163E-08,-2.061235E-08,NaN,1.683921E-07,-1.734961E-09,NaN,-1.582583E-06,9.000352E-05,NaN,3.523712E-05,-0.007061408,2.284806E-06,-9.00029E-05,NaN,NaN,1.782458E-07,0.007061499,5.38798E-07,-6.961622E-07,9.059906E-08,0.3671734
99.06763,1.356163E-08,-2.061235E-08,NaN,1.683921E-07,-1.734961E-09,NaN,-1.582583E-06,9.000352E-05,NaN,3.523712E-05,-0.007061408,2.284806E-06,-9.00029E-05,NaN,NaN,1.782458E-07,0.007061499,5.38798E-07,-6.961622E-07,9.059906E-08,0.3671734
99.08748,1.356163E-08,-2.061235E-08,NaN,1.683921E-07,-1.734961E-09,NaN,-1.582583E-06,9.000352E-05,NaN,3.523712E-05,-0.007061408,2.284806E-06,-9.00029E-05,NaN,NaN,1.782458E-07,0.007061499,5.38798E-07,-6.961622E-07,9.059906E-08,0.3671734
99.10497,1.356163E-08,-2.061235E-08,NaN,1.683921E-07,-1.734961E-09,NaN,-1.582583E-06,9.000352E-05,NaN,3.523712E-05,-0.007061408,2.284806E-06,-9.00029E-05,NaN,NaN,1.782458E-07,0.007061499,5.38798E-07,-6.961622E-07,9.059906E-08,0.3671734
99.12374,1.356163E-08,-2.061235E-08,NaN,1.683921E-07,-1.734961E-09,NaN,-1.582583E-06,9.000352E-05,NaN,3.523712E-05,-0.007061408,2.284806E-06,-9.00029E-05,NaN,NaN,1.782458E-07,0.007061499,5.38798E-07,-6.961622E-07,9.059906E-08,0.3671734
99.14127,1.356163E-08,-2.061235E-08,NaN,1.683921E-07,-1.734961E-09,NaN,-1.582583E-06,9.000352E-05,NaN,3.523712E-05,-0.007061408,2.284806E-06,-9.00029E-05,NaN,NaN,1.782458E-07,0.007061499,5.38798E-07,-6.961622E-07,9.059906E-08,0.3671734
99.16029,1.356163E-08,-2.061235E-08,NaN,1.683921E-07,-1.734961E-09,NaN,-1.582583E-06,9.000352E-05,NaN,3.523712E-05,-0.007061408,2.284806E-06,-9.00029E-05,NaN,NaN,1.782458E-07,0.007061499,5.38798E-07,-6.961622E-07,9.059906E-08,0.3671734
99.1779,1.356163E-08,-2.061235E-08,NaN,1.683921E-07,-1.734961E-09,NaN,-1.582583E-06,9.000352E-05,NaN,3.523712E-05,-0.007061408,2.284806E-06,-9.00029E-05,NaN,NaN,1.782458E-07,0.007061499,5.38798E-07,-6.961622E-07,9.059906E-08,0.3671734
99.19585,1.356163E-08,-2.061235E-08,NaN,1.683921E-07,-1.734961E-09,NaN,-1.582583E-06,9.000352E-05,NaN,3.523712E-05,-0.007061408,2.284806E-06,-9.00029E-05,NaN,NaN,1.782458E-07,0.007061499,5.38798E-07,-6.961622E-07,9.059906E-08,0.3671734
99.21519,1.356163E-08,-2.061235E-08,NaN,1.683921E-07,-1.734961E-09,NaN,-1.582583E-06,9.000352E-05,NaN,3.523712E-05,-0.007061408,2.284806E-06,-9.00029E-05,NaN,NaN,1.782458E-07,0.007061499,5.38798E-07,-6.961622E-07,9.059906E-08,0.3671734
99.23381,1.356163E-08,-2.061235E-08,NaN,1.683921E-07,-1.734961E-09,NaN,-1.582583E-06,9.000352E-05,NaN,3.523712E-05,-0.007061408,2.284806E-06,-9.00029E-05,NaN,NaN,1.782458E-07,0.007061499,5.38798E-07,-6.961622E-07,9.059906E-08,0.3671734
99.25474,1.356163E-08,-2.061235E-08,NaN,1.683921E-07,-1.734961E-09,NaN,-1.582583E-06,9.000352E-05,NaN,3.523712E-05,-0.007061408,2.284806E-06,-9.00029E-05,NaN,NaN,1.782458E-07,0.007061499,5.38798E-07,-6.961622E-07,9.059906E-08,0.3671734
99.27357,1.356163E-08,-2.061235E-08,NaN,1.683921E-07,-1.734961E-09,NaN,-1.582583E-06,9.000352E-05,NaN,3.523712E-05,-0.007061408,2.284806E-06,-9.00029E-05,NaN,NaN,1.782458E-07,0.007061499,5.38798E-07,-6.961622E-07,9.059906E-08,0.3671734
99.29628,1.356163E-08,-2.061235E-08,NaN,1.683921E-07,-1.734961E-09,NaN,-1.582583E-06,9.000352E-05,NaN,3.523712E-05,-0.007061408,2.284806E-06,-9.00029E-05,NaN,NaN,1.782458E-07,0.007061499,5.38798E-07,-6.961622E-07,9.059906E-08,0.3671734
99.31577,1.356163E-08,-2.061235E-08,NaN,1.683921E-07,-1.734961E-09,NaN,-1.582583E-06,9.000352E-05,NaN,3.523712E-05,-0.007061408,2.284806E-06,-9.00029E-05,NaN,NaN,1.782458E-07,0.007061499,5.38798E-07,-6.961622E-07,9.059906E-08,0.3671734
99.33824,1.356163E-08,-2.061235E-08,NaN,1.683921E-07,-1.734961E-09,NaN,-1.582583E-06,9.000352E-05,NaN,3.523712E-05,-0.007061408,2.284806E-06,-9.00029E-05,NaN,NaN,1.782458E-07,0.007061499,5.38798E-07,-6.961622E-07,9.059906E-08,0.3671734
99.35759,1.356163E-08,-2.061235E-08,NaN,1.683921E-07,-1.734961E-09,NaN,-1.582583E-06,9.000352E-05,NaN,3.523712E-05,-0.007061408,2.284806E-06,-9.00029E-05,NaN,NaN,1.782458E-07,0.007061499,5.38798E-07,-6.961622E-07,9.059906E-08,0.3671734
99.37997,1.356163E-08,-2.061235E-08,NaN,1.683921E-07,-1.734961E-09,NaN,-1.582583E-06,9.000352E-05,NaN,3.523712E-05,-0.007061408,2.284806E-06,-9.00029E-05,NaN,NaN,1.782458E-07,0.007061499,5.38798E-07,-6.961622E-07,9.059906E-08,0.3671734
99.3991,1.356163E-08,-2.061235E-08,NaN,1.683921E-07,-1.734961E-09,NaN,-1.582583E-06,9.000352E-05,NaN,3.523712E-05,-0.007061408,2.284806E-06,-9.00029E-05,NaN,NaN,1.782458E-07,0.007061499,5.38798E-07,-6.961622E-07,9.059906E-08,0.3671734
99.42155,1.356163E-08,-2.061235E-08,NaN,1.683921E-07,-1.734961E-09,NaN,-1.582583E-06,9.000352E-05,NaN,3.523712E-05,-0.007061408,2.284806E-06,-9.00029E-05,NaN,NaN,1.782458E-07,0.007061499,5.38798E-07,-6.961622E-07,9.059906E-08,0.3671734
99.44139,1.356163E-08,-2.061235E-08,NaN,1.683921E-07,-1.734961E-09,NaN,-1.582583E-06,9.000352E-05,NaN,3.523712E-05,-0.007061408,2.284806E-06,-9.00029E-05,NaN,NaN,1.782458E-07,0.007061499,5.38798E-07,-6.961622E-07,9.059906E-08,0.3671734
99.46073,1.356163E-08,-2.061235E-08,NaN,1.683921E-07,-1.734961E-09,NaN,-1.582583E-06,9.000352E-05,NaN,3.523712E-05,-0.007061408,2.284806E-06,-9.00029E-05,NaN,NaN,1.782458E-07,0.007061499,5.38798E-07,-6.961622E-07,9.059906E-08,0.3671734
99.4799,1.356163E-08,-2.061235E-08,NaN,1.683921E-07,-1.734961E-09,NaN,-1.582583E-06,9.000352E-05,NaN,3.523712E-05,-0.007061408,2.284806E-06,-9.00029E-05,NaN,NaN,1.782458E-07,0.007061499,5.38798E-07,-6.961622E-07,9.059906E-08,0.3671734
99.49886,1.356163E-08,-2.061235E-08,NaN,1.683921E-07,-1.734961E-09,NaN,-1.582583E-06,9.000352E-05,NaN,3.523712E-05,-0.007061408,2.284806E-06,-9.00029E-05,NaN,NaN,1.782458E-07,0.007061499,5.38798E-07,-6.961622E-07,9.059906E-08,0.3671734
99.51916,1.356163E-08,-2.061235E-08,NaN,1.683921E-07,-1.734961E-09,NaN,-1.582583E-06,9.000352E-05,NaN,3.523712E-05,-0.007061408,2.284806E-06,-9.00029E-05,NaN,NaN,1.782458E-07,0.007061499,5.38798E-07,-6.961622E-07,9.059906E-08,0.3671734
99.53864,1.356163E-08,-2.061235E-08,NaN,1.683921E-07,-1.734961E-09,NaN,-1.582583E-06,9.000352E-05,NaN,3.523712E-05,-0.007061408,2.284806E-06,-9.00029E-05,NaN,NaN,1.782458E-07,0.007061499,5.38798E-07,-6.961622E-07,9.059906E-08,0.3671734
99.55865,1.356163E-08,-2.061235E-08,NaN,1.683921E-07,-1.734961E-09,NaN,-1.582583E-06,9.000352E-05,NaN,3.523712E-05,-0.007061408,2.284806E-06,-9.00029E-05,NaN,NaN,1.782458E-07,0.007061499,5.38798E-07,-6.961622E-07,9.059906E-08,0.3671734
99.57815,1.356163E-08,-2.061235E-08,NaN,1.683921E-07,-1.734961E-09,NaN,-1.582583E-06,9.000352E-05,NaN,3.523712E-05,-0.007061408,2.284806E-06,-9.00029E-05,NaN,NaN,1.782458E-07,0.007061499,5.38798E-07,-6.961622E-07,9.059906E-08,0.3671734
99.59759,1.356163E-08,-2.061235E-08,NaN,1.683921E-07,-1.734961E-09,NaN,-1.582583E-06,9.000352E-05,NaN,3.523712E-05,-0.007061408,2.284806E-06,-9.00029E-05,NaN,NaN,1.782458E-07,0.007061499,5.38798E-07,-6.961622E-07,9.059906E-08,0.3671734
99.61711,1.356163E-08,-2.061235E-08,NaN,1.683921E-07,-1.734961E-09,NaN,-1.582583E-06,9.000352E-05,NaN,3.523712E-05,-0.007061408,2.284806E-06,-9.00029E-05,NaN,NaN,1.782458E-07,0.007061499,5.38798E-07,-6.961622E-07,9.059906E-08,0.3671734
99.63675,1.356163E-08,-2.061235E-08,NaN,1.683921E-07,-1.734961E-09,NaN,-1.582583E-06,9.000352E-05,NaN,3.523712E-05,-0.007061408,2.284806E-06,-9.00029E-05,NaN,NaN,1.782458E-07,0.007061499,5.38798E-07,-6.961622E-07,9.059906E-08,0.3671734
99.65635,1.356163E-08,-2.061235E-08,NaN,1.683921E-07,-1.734961E-09,NaN,-1.582583E-06,9.000352E-05,NaN,3.523712E-05,-0.007061408,2.284806E-06,-9.00029E-05,NaN,NaN,1.782458E-07,0.007061499,5.38798E-07,-6.961622E-07,9.059906E-08,0.3671734
99.67603,1.356163E-08,-2.061235E-08,NaN,1.683921E-07,-1.734961E-09,NaN,-1.582583E-06,9.000352E-05,NaN,3.523712E-05,-0.007061408,2.284806E-06,-9.00029E-05,NaN,NaN,1.782458E-07,0.007061499,5.38798E-07,-6.961622E-07,9.059906E-08,0.3671734
99.69572,1.356163E-08,-2.061235E-08,NaN,1.683921E-07,-1.734961E-09,NaN,-1.582583E-06,9.000352E-05,NaN,3.523712E-05,-0.007061408,2.284806E-06,-9.00029E-05,NaN,NaN,1.782458E-07,0.007061499,5.38798E-07,-6.961622E-07,9.059906E-08,0.3671734
99.71559,1.356163E-08,-2.061235E-08,NaN,1.683921E-07,-1.734961E-09,NaN,-1.582583E-06,9.000352E-05,NaN,3.523712E-05,-0.007061408,2.284806E-06,-9.00029E-05,NaN,NaN,1.782458E-07,0.007061499,5.38798E-07,-6.961622E-07,9.059906E-08,0.3671734
99.73518,1.356163E-08,-2.061235E-08,NaN,1.683921E-07,-1.734961E-09,NaN,-1.582583E-06,9.000352E-05,NaN,3.523712E-05,-0.007061408,2.284806E-06,-9.00029E-05,NaN,NaN,1.782458E-07,0.007061499,5.38798E-07,-6.961622E-07,9.059906E-08,0.3671734
99.75488,1.356163E-08,-2.061235E-08,NaN,1.683921E-07,-1.734961E-09,NaN,-1.582583E-06,9.000352E-05,NaN,3.523712E-05,-0.007061408,2.284806E-06,-9.00029E-05,NaN,NaN,1.782458E-07,0.007061499,5.38798E-07,-6.961622E-07,9.059906E-08,0.3671734
99.7749,1.356163E-08,-2.061235E-08,NaN,1.683921E-07,-1.734961E-09,NaN,-1.582583E-06,9.000352E-05,NaN,3.523712E-05,-0.007061408,2.284806E-06,-9.00029E-05,NaN,NaN,1.782458E-07,0.007061499,5.38798E-07,-6.961622E-07,9.059906E-08,0.3671734
99.7946,1.356163E-08,-2.061235E-08,NaN,1.683921E-07,-1.734961E-09,NaN,-1.582583E-06,9.000352E-05,NaN,3.523712E-05,-0.007061408,2.284806E-06,-9.00029E-05,NaN,NaN,1.782458E-07,0.007061499,5.38798E-07,-6.961622E-07,9.059906E-08,0.3671734
99.81391,1.356163E-08,-2.061235E-08,NaN,1.683921E-07,-1.734961E-09,NaN,-1.582583E-06,9.000352E-05,NaN,3.523712E-05,-0.007061408,2.284806E-06,-9.00029E-05,NaN,NaN,1.782458E-07,0.007061499,5.38798E-07,-6.961622E-07,9.059906E-08,0.3671734
99.83352,1.356163E-08,-2.061235E-08,NaN,1.683921E-07,-1.734961E-09,NaN,-1.582583E-06,9.000352E-05,NaN,3.523712E-05,-0.007061408,2.284806E-06,-9.00029E-05,NaN,NaN,1.782458E-07,0.007061499,5.38798E-07,-6.961622E-07,9.059906E-08,0.3671734
99.85323,1.356163E-08,-2.061235E-08,NaN,1.683921E-07,-1.734961E-09,NaN,-1.582583E-06,9.000352E-05,NaN,3.523712E-05,-0.007061408,2.284806E-06,-9.00029E-05,NaN,NaN,1.782458E-07,0.007061499,5.38798E-07,-6.961622E-07,9.059906E-08,0.3671734
99.8726,1.356163E-08,-2.061235E-08,NaN,1.683921E-07,-1.734961E-09,NaN,-1.582583E-06,9.000352E-05,NaN,3.523712E-05,-0.007061408,2.284806E-06,-9.00029E-05,NaN,NaN,1.782458E-07,0.007061499,5.38798E-07,-6.961622E-07,9.059906E-08,0.3671734
99.8924,1.356163E-08,-2.061235E-08,NaN,1.683921E-07,-1.734961E-09,NaN,-1.582583E-06,9.000352E-05,NaN,3.523712E-05,-0.007061408,2.284806E-06,-9.00029E-05,NaN,NaN,1.782458E-07,0.007061499,5.38798E-07,-6.961622E-07,9.059906E-08,0.3671734
99.91183,1.356163E-08,-2.061235E-08,NaN,1.683921E-07,-1.734961E-09,NaN,-1.582583E-06,9.000352E-05,NaN,3.523712E-05,-0.007061408,2.284806E-06,-9.00029E-05,NaN,NaN,1.782458E-07,0.007061499,5.38798E-07,-6.961622E-07,9.059906E-08,0.3671734
99.93115,1.356163E-08,-2.061235E-08,NaN,1.683921E-07,-1.734961E-09,NaN,-1.582583E-06,9.000352E-05,NaN,3.523712E-05,-0.007061408,2.284806E-06,-9.00029E-05,NaN,NaN,1.782458E-07,0.007061499,5.38798E-07,-6.961622E-07,9.059906E-08,0.3671734
99.95086,1.356163E-08,-2.061235E-08,NaN,1.683921E-07,-1.734961E-09,NaN,-1.582583E-06,9.000352E-05,NaN,3.523712E-05,-0.007061408,2.284806E-06,-9.00029E-05,NaN,NaN,1.782458E-07,0.007061499,5.38798E-07,-6.961622E-07,9.059906E-08,0.3671734
99.97155,1.356163E-08,-2.061235E-08,NaN,1.683921E-07,-1.734961E-09,NaN,-1.582583E-06,9.000352E-05,NaN,3.523712E-05,-0.007061408,2.284806E-06,-9.00029E-05,NaN,NaN,1.782458E-07,0.007061499,5.38798E-07,-6.961622E-07,9.059906E-08,0.3671734
99.98978,1.356163E-08,-2.061235E-08,NaN,1.683921E-07,-1.734961E-09,NaN,-1.582583E-06,9.000352E-05,NaN,3.523712E-05,-0.007061408,2.284806E-06,-9.00029E-05,NaN,NaN,1.782458E-07,0.007061499,5.38798E-07,-6.961622E-07,9.059906E-08,0.3671734
100.0094,1.356163E-08,-2.061235E-08,NaN,1.683921E-07,-1.734961E-09,NaN,-1.582583E-06,9.000352E-05,NaN,3.523712E-05,-0.007061408,2.284806E-06,-9.00029E-05,NaN,NaN,1.782458E-07,0.007061499,5.38798E-07,-6.961622E-07,9.059906E-08,0.3671734
100.0287,1.356163E-08,-2.061235E-08,NaN,1.683921E-07,-1.734961E-09,NaN,-1.582583E-06,9.000352E-05,NaN,3.523712E-05,-0.007061408,2.284806E-06,-9.00029E-05,NaN,NaN,1.782458E-07,0.007061499,5.38798E-07,-6.961622E-07,9.059906E-08,0.3671734
100.0486,1.356163E-08,-2.061235E-08,NaN,1.683921E-07,-1.734961E-09,NaN,-1.582583E-06,9.000352E-05,NaN,3.523712E-05,-0.007061408,2.284806E-06,-9.00029E-05,NaN,NaN,1.782458E-07,0.007061499,5.38798E-07,-6.961622E-07,9.059906E-08,0.3671734
100.068,1.356163E-08,-2.061235E-08,NaN,1.683921E-07,-1.734961E-09,NaN,-1.582583E-06,9.000352E-05,NaN,3.523712E-05,-0.007061408,2.284806E-06,-9.00029E-05,NaN,NaN,1.782458E-07,0.007061499,5.38798E-07,-6.961622E-07,9.059906E-08,0.3671734
100.0876,1.356163E-08,-2.061235E-08,NaN,1.683921E-07,-1.734961E-09,NaN,-1.582583E-06,9.000352E-05,NaN,3.523712E-05,-0.007061408,2.284806E-06,-9.00029E-05,NaN,NaN,1.782458E-07,0.007061499,5.38798E-07,-6.961622E-07,9.059906E-08,0.3671734
100.1072,1.356163E-08,-2.061235E-08,NaN,1.683921E-07,-1.734961E-09,NaN,-1.582583E-06,9.000352E-05,NaN,3.523712E-05,-0.007061408,2.284806E-06,-9.00029E-05,NaN,NaN,1.782458E-07,0.007061499,5.38798E-07,-6.961622E-07,9.059906E-08,0.3671734
100.127,1.356163E-08,-2.061235E-08,NaN,1.683921E-07,-1.734961E-09,NaN,-1.582583E-06,9.000352E-05,NaN,3.523712E-05,-0.007061408,2.284806E-06,-9.00029E-05,NaN,NaN,1.782458E-07,0.007061499,5.38798E-07,-6.961622E-07,9.059906E-08,0.3671734
100.1466,1.356163E-08,-2.061235E-08,NaN,1.683921E-07,-1.734961E-09,NaN,-1.582583E-06,9.000352E-05,NaN,3.523712E-05,-0.007061408,2.284806E-06,-9.00029E-05,NaN,NaN,1.782458E-07,0.007061499,5.38798E-07,-6.961622E-07,9.059906E-08,0.3671734
100.1663,1.356163E-08,-2.061235E-08,NaN,1.683921E-07,-1.734961E-09,NaN,-1.582583E-06,9.000352E-05,NaN,3.523712E-05,-0.007061408,2.284806E-06,-9.00029E-05,NaN,NaN,1.782458E-07,0.007061499,5.38798E-07,-6.961622E-07,9.059906E-08,0.3671734
100.1857,1.356163E-08,-2.061235E-08,NaN,1.683921E-07,-1.734961E-09,NaN,-1.582583E-06,9.000352E-05,NaN,3.523712E-05,-0.007061408,2.284806E-06,-9.00029E-05,NaN,NaN,1.782458E-07,0.007061499,5.38798E-07,-6.961622E-07,9.059906E-08,0.3671734
100.2054,1.356163E-08,-2.061235E-08,NaN,1.683921E-07,-1.734961E-09,NaN,-1.582583E-06,9.000352E-05,NaN,3.523712E-05,-0.007061408,2.284806E-06,-9.00029E-05,NaN,NaN,1.782458E-07,0.007061499,5.38798E-07,-6.961622E-07,9.059906E-08,0.3671734
100.2247,1.356163E-08,-2.061235E-08,NaN,1.683921E-07,-1.734961E-09,NaN,-1.582583E-06,9.000352E-05,NaN,3.523712E-05,-0.007061408,2.284806E-06,-9.00029E-05,NaN,NaN,1.782458E-07,0.007061499,5.38798E-07,-6.961622E-07,9.059906E-08,0.3671734
100.2444,1.356163E-08,-2.061235E-08,NaN,1.683921E-07,-1.734961E-09,NaN,-1.582583E-06,9.000352E-05,NaN,3.523712E-05,-0.007061408,2.284806E-06,-9.00029E-05,NaN,NaN,1.782458E-07,0.007061499,5.38798E-07,-6.961622E-07,9.059906E-08,0.3671734
100.2639,1.356163E-08,-2.061235E-08,NaN,1.683921E-07,-1.734961E-09,NaN,-1.582583E-06,9.000352E-05,NaN,3.523712E-05,-0.007061408,2.284806E-06,-9.00029E-05,NaN,NaN,1.782458E-07,0.007061499,5.38798E-07,-6.961622E-07,9.059906E-08,0.3671734
100.2838,1.356163E-08,-2.061235E-08,NaN,1.683921E-07,-1.734961E-09,NaN,-1.582583E-06,9.000352E-05,NaN,3.523712E-05,-0.007061408,2.284806E-06,-9.00029E-05,NaN,NaN,1.782458E-07,0.007061499,5.38798E-07,-6.961622E-07,9.059906E-08,0.3671734
100.3029,1.356163E-08,-2.061235E-08,NaN,1.683921E-07,-1.734961E-09,NaN,-1.582583E-06,9.000352E-05,NaN,3.523712E-05,-0.007061408,2.284806E-06,-9.00029E-05,NaN,NaN,1.782458E-07,0.007061499,5.38798E-07,-6.961622E-07,9.059906E-08,0.3671734
100.3224,1.356163E-08,-2.061235E-08,NaN,1.683921E-07,-1.734961E-09,NaN,-1.582583E-06,9.000352E-05,NaN,3.523712E-05,-0.007061408,2.284806E-06,-9.00029E-05,NaN,NaN,1.782458E-07,0.007061499,5.38798E-07,-6.961622E-07,9.059906E-08,0.3671734
100.342,1.356163E-08,-2.061235E-08,NaN,1.683921E-07,-1.734961E-09,NaN,-1.582583E-06,9.000352E-05,NaN,3.523712E-05,-0.007061408,2.284806E-06,-9.00029E-05,NaN,NaN,1.782458E-07,0.007061499,5.38798E-07,-6.961622E-07,9.059906E-08,0.3671734
100.3616,1.356163E-08,-2.061235E-08,NaN,1.683921E-07,-1.734961E-09,NaN,-1.582583E-06,9.000352E-05,NaN,3.523712E-05,-0.007061408,2.284806E-06,-9.00029E-05,NaN,NaN,1.782458E-07,0.007061499,5.38798E-07,-6.961622E-07,9.059906E-08,0.3671734
100.3812,1.356163E-08,-2.061235E-08,NaN,1.683921E-07,-1.734961E-09,NaN,-1.582583E-06,9.000352E-05,NaN,3.523712E-05,-0.007061408,2.284806E-06,-9.00029E-05,NaN,NaN,1.782458E-07,0.007061499,5.38798E-07,-6.961622E-07,9.059906E-08,0.3671734
100.401,1.356163E-08,-2.061235E-08,NaN,1.683921E-07,-1.734961E-09,NaN,-1.582583E-06,9.000352E-05,NaN,3.523712E-05,-0.007061408,2.284806E-06,-9.00029E-05,NaN,NaN,1.782458E-07,0.007061499,5.38798E-07,-6.961622E-07,9.059906E-08,0.3671734
100.4202,1.356163E-08,-2.061235E-08,NaN,1.683921E-07,-1.734961E-09,NaN,-1.582583E-06,9.000352E-05,NaN,3.523712E-05,-0.007061408,2.284806E-06,-9.00029E-05,NaN,NaN,1.782458E-07,0.007061499,5.38798E-07,-6.961622E-07,9.059906E-08,0.3671734
100.44,1.356163E-08,-2.061235E-08,NaN,1.683921E-07,-1.734961E-09,NaN,-1.582583E-06,9.000352E-05,NaN,3.523712E-05,-0.007061408,2.284806E-06,-9.00029E-05,NaN,NaN,1.782458E-07,0.007061499,5.38798E-07,-6.961622E-07,9.059906E-08,0.3671734
100.4598,1.356163E-08,-2.061235E-08,NaN,1.683921E-07,-1.734961E-09,NaN,-1.582583E-06,9.000352E-05,NaN,3.523712E-05,-0.007061408,2.284806E-06,-9.00029E-05,NaN,NaN,1.782458E-07,0.007061499,5.38798E-07,-6.961622E-07,9.059906E-08,0.3671734
100.4794,1.356163E-08,-2.061235E-08,NaN,1.683921E-07,-1.734961E-09,NaN,-1.582583E-06,9.000352E-05,NaN,3.523712E-05,-0.007061408,2.284806E-06,-9.00029E-05,NaN,NaN,1.782458E-07,0.007061499,5.38798E-07,-6.961622E-07,9.059906E-08,0.3671734
100.5008,1.356163E-08,-2.061235E-08,NaN,1.683921E-07,-1.734961E-09,NaN,-1.582583E-06,9.000352E-05,NaN,3.523712E-05,-0.007061408,2.284806E-06,-9.00029E-05,NaN,NaN,1.782458E-07,0.007061499,5.38798E-07,-6.961622E-07,9.059906E-08,0.3671734
100.5191,1.356163E-08,-2.061235E-08,NaN,1.683921E-07,-1.734961E-09,NaN,-1.582583E-06,9.000352E-05,NaN,3.523712E-05,-0.007061408,2.284806E-06,-9.00029E-05,NaN,NaN,1.782458E-07,0.007061499,5.38798E-07,-6.961622E-07,9.059906E-08,0.3671734
100.538,1.356163E-08,-2.061235E-08,NaN,1.683921E-07,-1.734961E-09,NaN,-1.582583E-06,9.000352E-05,NaN,3.523712E-05,-0.007061408,2.284806E-06,-9.00029E-05,NaN,NaN,1.782458E-07,0.007061499,5.38798E-07,-6.961622E-07,9.059906E-08,0.3671734
100.5582,1.356163E-08,-2.061235E-08,NaN,1.683921E-07,-1.734961E-09,NaN,-1.582583E-06,9.000352E-05,NaN,3.523712E-05,-0.007061408,2.284806E-06,-9.00029E-05,NaN,NaN,1.782458E-07,0.007061499,5.38798E-07,-6.961622E-07,9.059906E-08,0.3671734
100.5782,1.356163E-08,-2.061235E-08,NaN,1.683921E-07,-1.734961E-09,NaN,-1.582583E-06,9.000352E-05,NaN,3.523712E-05,-0.007061408,2.284806E-06,-9.00029E-05,NaN,NaN,1.782458E-07,0.007061499,5.38798E-07,-6.961622E-07,9.059906E-08,0.3671734
100.5976,1.356163E-08,-2.061235E-08,NaN,1.683921E-07,-1.734961E-09,NaN,-1.582583E-06,9.000352E-05,NaN,3.523712E-05,-0.007061408,2.284806E-06,-9.00029E-05,NaN,NaN,1.782458E-07,0.007061499,5.38798E-07,-6.961622E-07,9.059906E-08,0.3671734
100.6172,1.356163E-08,-2.061235E-08,NaN,1.683921E-07,-1.734961E-09,NaN,-1.582583E-06,9.000352E-05,NaN,3.523712E-05,-0.007061408,2.284806E-06,-9.00029E-05,NaN,NaN,1.782458E-07,0.007061499,5.38798E-07,-6.961622E-07,9.059906E-08,0.3671734
100.6406,1.356163E-08,-2.061235E-08,NaN,1.683921E-07,-1.734961E-09,NaN,-1.582583E-06,9.000352E-05,NaN,3.523712E-05,-0.007061408,2.284806E-06,-9.00029E-05,NaN,NaN,1.782458E-07,0.007061499,5.38798E-07,-6.961622E-07,9.059906E-08,0.3671734
100.6565,1.356163E-08,-2.061235E-08,NaN,1.683921E-07,-1.734961E-09,NaN,-1.582583E-06,9.000352E-05,NaN,3.523712E-05,-0.007061408,2.284806E-06,-9.00029E-05,NaN,NaN,1.782458E-07,0.007061499,5.38798E-07,-6.961622E-07,9.059906E-08,0.3671734
100.6756,1.356163E-08,-2.061235E-08,NaN,1.683921E-07,-1.734961E-09,NaN,-1.582583E-06,9.000352E-05,NaN,3.523712E-05,-0.007061408,2.284806E-06,-9.00029E-05,NaN,NaN,1.782458E-07,0.007061499,5.38798E-07,-6.961622E-07,9.059906E-08,0.3671734
100.696,1.356163E-08,-2.061235E-08,NaN,1.683921E-07,-1.734961E-09,NaN,-1.582583E-06,9.000352E-05,NaN,3.523712E-05,-0.007061408,2.284806E-06,-9.00029E-05,NaN,NaN,1.782458E-07,0.007061499,5.38798E-07,-6.961622E-07,9.059906E-08,0.3671734
100.7166,1.356163E-08,-2.061235E-08,NaN,1.683921E-07,-1.734961E-09,NaN,-1.582583E-06,9.000352E-05,NaN,3.523712E-05,-0.007061408,2.284806E-06,-9.00029E-05,NaN,NaN,1.782458E-07,0.007061499,5.38798E-07,-6.961622E-07,9.059906E-08,0.3671734
100.7359,1.356163E-08,-2.061235E-08,NaN,1.683921E-07,-1.734961E-09,NaN,-1.582583E-06,9.000352E-05,NaN,3.523712E-05,-0.007061408,2.284806E-06,-9.00029E-05,NaN,NaN,1.782458E-07,0.007061499,5.38798E-07,-6.961622E-07,9.059906E-08,0.3671734
100.7557,1.356163E-08,-2.061235E-08,NaN,1.683921E-07,-1.734961E-09,NaN,-1.582583E-06,9.000352E-05,NaN,3.523712E-05,-0.007061408,2.284806E-06,-9.00029E-05,NaN,NaN,1.782458E-07,0.007061499,5.38798E-07,-6.961622E-07,9.059906E-08,0.3671734
100.7759,1.356163E-08,-2.061235E-08,NaN,1.683921E-07,-1.734961E-09,NaN,-1.582583E-06,9.000352E-05,NaN,3.523712E-05,-0.007061408,2.284806E-06,-9.00029E-05,NaN,NaN,1.782458E-07,0.007061499,5.38798E-07,-6.961622E-07,9.059906E-08,0.3671734
100.7952,1.356163E-08,-2.061235E-08,NaN,1.683921E-07,-1.734961E-09,NaN,-1.582583E-06,9.000352E-05,NaN,3.523712E-05,-0.007061408,2.284806E-06,-9.00029E-05,NaN,NaN,1.782458E-07,0.007061499,5.38798E-07,-6.961622E-07,9.059906E-08,0.3671734
100.8148,1.356163E-08,-2.061235E-08,NaN,1.683921E-07,-1.734961E-09,NaN,-1.582583E-06,9.000352E-05,NaN,3.523712E-05,-0.007061408,2.284806E-06,-9.00029E-05,NaN,NaN,1.782458E-07,0.007061499,5.38798E-07,-6.961622E-07,9.059906E-08,0.3671734
100.8343,1.356163E-08,-2.061235E-08,NaN,1.683921E-07,-1.734961E-09,NaN,-1.582583E-06,9.000352E-05,NaN,3.523712E-05,-0.007061408,2.284806E-06,-9.00029E-05,NaN,NaN,1.782458E-07,0.007061499,5.38798E-07,-6.961622E-07,9.059906E-08,0.3671734
100.8557,1.356163E-08,-2.061235E-08,NaN,1.683921E-07,-1.734961E-09,NaN,-1.582583E-06,9.000352E-05,NaN,3.523712E-05,-0.007061408,2.284806E-06,-9.00029E-05,NaN,NaN,1.782458E-07,0.007061499,5.38798E-07,-6.961622E-07,9.059906E-08,0.3671734
100.8752,1.356163E-08,-2.061235E-08,NaN,1.683921E-07,-1.734961E-09,NaN,-1.582583E-06,9.000352E-05,NaN,3.523712E-05,-0.007061408,2.284806E-06,-9.00029E-05,NaN,NaN,1.782458E-07,0.007061499,5.38798E-07,-6.961622E-07,9.059906E-08,0.3671734
100.8949,1.356163E-08,-2.061235E-08,NaN,1.683921E-07,-1.734961E-09,NaN,-1.582583E-06,9.000352E-05,NaN,3.523712E-05,-0.007061408,2.284806E-06,-9.00029E-05,NaN,NaN,1.782458E-07,0.007061499,5.38798E-07,-6.961622E-07,9.059906E-08,0.3671734
100.9144,1.356163E-08,-2.061235E-08,NaN,1.683921E-07,-1.734961E-09,NaN,-1.582583E-06,9.000352E-05,NaN,3.523712E-05,-0.007061408,2.284806E-06,-9.00029E-05,NaN,NaN,1.782458E-07,0.007061499,5.38798E-07,-6.961622E-07,9.059906E-08,0.3671734
100.9339,1.356163E-08,-2.061235E-08,NaN,1.683921E-07,-1.734961E-09,NaN,-1.582583E-06,9.000352E-05,NaN,3.523712E-05,-0.007061408,2.284806E-06,-9.00029E-05,NaN,NaN,1.782458E-07,0.007061499,5.38798E-07,-6.961622E-07,9.059906E-08,0.3671734
100.9537,1.356163E-08,-2.061235E-08,NaN,1.683921E-07,-1.734961E-09,NaN,-1.582583E-06,9.000352E-05,NaN,3.523712E-05,-0.007061408,2.284806E-06,-9.00029E-05,NaN,NaN,1.782458E-07,0.007061499,5.38798E-07,-6.961622E-07,9.059906E-08,0.3671734
100.9732,1.356163E-08,-2.061235E-08,NaN,1.683921E-07,-1.734961E-09,NaN,-1.582583E-06,9.000352E-05,NaN,3.523712E-05,-0.007061408,2.284806E-06,-9.00029E-05,NaN,NaN,1.782458E-07,0.007061499,5.38798E-07,-6.961622E-07,9.059906E-08,0.3671734
100.9932,1.356163E-08,-2.061235E-08,NaN,1.683921E-07,-1.734961E-09,NaN,-1.582583E-06,9.000352E-05,NaN,3.523712E-05,-0.007061408,2.284806E-06,-9.00029E-05,NaN,NaN,1.782458E-07,0.007061499,5.38798E-07,-6.961622E-07,9.059906E-08,0.3671734
101.0142,1.356163E-08,-2.061235E-08,NaN,1.683921E-07,-1.734961E-09,NaN,-1.582583E-06,9.000352E-05,NaN,3.523712E-05,-0.007061408,2.284806E-06,-9.00029E-05,NaN,NaN,1.782458E-07,0.007061499,5.38798E-07,-6.961622E-07,9.059906E-08,0.3671734
101.0331,1.356163E-08,-2.061235E-08,NaN,1.683921E-07,-1.734961E-09,NaN,-1.582583E-06,9.000352E-05,NaN,3.523712E-05,-0.007061408,2.284806E-06,-9.00029E-05,NaN,NaN,1.782458E-07,0.007061499,5.38798E-07,-6.961622E-07,9.059906E-08,0.3671734
101.0521,1.356163E-08,-2.061235E-08,NaN,1.683921E-07,-1.734961E-09,NaN,-1.582583E-06,9.000352E-05,NaN,3.523712E-05,-0.007061408,2.284806E-06,-9.00029E-05,NaN,NaN,1.782458E-07,0.007061499,5.38798E-07,-6.961622E-07,9.059906E-08,0.3671734
101.0714,1.356163E-08,-2.061235E-08,NaN,1.683921E-07,-1.734961E-09,NaN,-1.582583E-06,9.000352E-05,NaN,3.523712E-05,-0.007061408,2.284806E-06,-9.00029E-05,NaN,NaN,1.782458E-07,0.007061499,5.38798E-07,-6.961622E-07,9.059906E-08,0.3671734
101.0924,1.356163E-08,-2.061235E-08,NaN,1.683921E-07,-1.734961E-09,NaN,-1.582583E-06,9.000352E-05,NaN,3.523712E-05,-0.007061408,2.284806E-06,-9.00029E-05,NaN,NaN,1.782458E-07,0.007061499,5.38798E-07,-6.961622E-07,9.059906E-08,0.3671734
101.1124,1.356163E-08,-2.061235E-08,NaN,1.683921E-07,-1.734961E-09,NaN,-1.582583E-06,9.000352E-05,NaN,3.523712E-05,-0.007061408,2.284806E-06,-9.00029E-05,NaN,NaN,1.782458E-07,0.007061499,5.38798E-07,-6.961622E-07,9.059906E-08,0.3671734
101.1324,1.356163E-08,-2.061235E-08,NaN,1.683921E-07,-1.734961E-09,NaN,-1.582583E-06,9.000352E-05,NaN,3.523712E-05,-0.007061408,2.284806E-06,-9.00029E-05,NaN,NaN,1.782458E-07,0.007061499,5.38798E-07,-6.961622E-07,9.059906E-08,0.3671734
101.1521,1.356163E-08,-2.061235E-08,NaN,1.683921E-07,-1.734961E-09,NaN,-1.582583E-06,9.000352E-05,NaN,3.523712E-05,-0.007061408,2.284806E-06,-9.00029E-05,NaN,NaN,1.782458E-07,0.007061499,5.38798E-07,-6.961622E-07,9.059906E-08,0.3671734
101.1777,1.356163E-08,-2.061235E-08,NaN,1.683921E-07,-1.734961E-09,NaN,-1.582583E-06,9.000352E-05,NaN,3.523712E-05,-0.007061408,2.284806E-06,-9.00029E-05,NaN,NaN,1.782458E-07,0.007061499,5.38798E-07,-6.961622E-07,9.059906E-08,0.3671734
101.1928,1.356163E-08,-2.061235E-08,NaN,1.683921E-07,-1.734961E-09,NaN,-1.582583E-06,9.000352E-05,NaN,3.523712E-05,-0.007061408,2.284806E-06,-9.00029E-05,NaN,NaN,1.782458E-07,0.007061499,5.38798E-07,-6.961622E-07,9.059906E-08,0.3671734
101.213,1.356163E-08,-2.061235E-08,NaN,1.683921E-07,-1.734961E-09,NaN,-1.582583E-06,9.000352E-05,NaN,3.523712E-05,-0.007061408,2.284806E-06,-9.00029E-05,NaN,NaN,1.782458E-07,0.007061499,5.38798E-07,-6.961622E-07,9.059906E-08,0.3671734
101.2332,1.356163E-08,-2.061235E-08,NaN,1.683921E-07,-1.734961E-09,NaN,-1.582583E-06,9.000352E-05,NaN,3.523712E-05,-0.007061408,2.284806E-06,-9.00029E-05,NaN,NaN,1.782458E-07,0.007061499,5.38798E-07,-6.961622E-07,9.059906E-08,0.3671734
101.2535,1.356163E-08,-2.061235E-08,NaN,1.683921E-07,-1.734961E-09,NaN,-1.582583E-06,9.000352E-05,NaN,3.523712E-05,-0.007061408,2.284806E-06,-9.00029E-05,NaN,NaN,1.782458E-07,0.007061499,5.38798E-07,-6.961622E-07,9.059906E-08,0.3671734
101.2741,1.356163E-08,-2.061235E-08,NaN,1.683921E-07,-1.734961E-09,NaN,-1.582583E-06,9.000352E-05,NaN,3.523712E-05,-0.007061408,2.284806E-06,-9.00029E-05,NaN,NaN,1.782458E-07,0.007061499,5.38798E-07,-6.961622E-07,9.059906E-08,0.3671734
101.2936,1.356163E-08,-2.061235E-08,NaN,1.683921E-07,-1.734961E-09,NaN,-1.582583E-06,9.000352E-05,NaN,3.523712E-05,-0.007061408,2.284806E-06,-9.00029E-05,NaN,NaN,1.782458E-07,0.007061499,5.38798E-07,-6.961622E-07,9.059906E-08,0.3671734
101.3158,1.356163E-08,-2.061235E-08,NaN,1.683921E-07,-1.734961E-09,NaN,-1.582583E-06,9.000352E-05,NaN,3.523712E-05,-0.007061408,2.284806E-06,-9.00029E-05,NaN,NaN,1.782458E-07,0.007061499,5.38798E-07,-6.961622E-07,9.059906E-08,0.3671734
101.3349,1.356163E-08,-2.061235E-08,NaN,1.683921E-07,-1.734961E-09,NaN,-1.582583E-06,9.000352E-05,NaN,3.523712E-05,-0.007061408,2.284806E-06,-9.00029E-05,NaN,NaN,1.782458E-07,0.007061499,5.38798E-07,-6.961622E-07,9.059906E-08,0.3671734
101.3568,1.356163E-08,-2.061235E-08,NaN,1.683921E-07,-1.734961E-09,NaN,-1.582583E-06,9.000352E-05,NaN,3.523712E-05,-0.007061408,2.284806E-06,-9.00029E-05,NaN,NaN,1.782458E-07,0.007061499,5.38798E-07,-6.961622E-07,9.059906E-08,0.3671734
101.3767,1.356163E-08,-2.061235E-08,NaN,1.683921E-07,-1.734961E-09,NaN,-1.582583E-06,9.000352E-05,NaN,3.523712E-05,-0.007061408,2.284806E-06,-9.00029E-05,NaN,NaN,1.782458E-07,0.007061499,5.38798E-07,-6.961622E-07,9.059906E-08,0.3671734
101.399,1.356163E-08,-2.061235E-08,NaN,1.683921E-07,-1.734961E-09,NaN,-1.582583E-06,9.000352E-05,NaN,3.523712E-05,-0.007061408,2.284806E-06,-9.00029E-05,NaN,NaN,1.782458E-07,0.007061499,5.38798E-07,-6.961622E-07,9.059906E-08,0.3671734
101.4184,1.356163E-08,-2.061235E-08,NaN,1.683921E-07,-1.734961E-09,NaN,-1.582583E-06,9.000352E-05,NaN,3.523712E-05,-0.007061408,2.284806E-06,-9.00029E-05,NaN,NaN,1.782458E-07,0.007061499,5.38798E-07,-6.961622E-07,9.059906E-08,0.3671734
101.4388,1.356163E-08,-2.061235E-08,NaN,1.683921E-07,-1.734961E-09,NaN,-1.582583E-06,9.000352E-05,NaN,3.523712E-05,-0.007061408,2.284806E-06,-9.00029E-05,NaN,NaN,1.782458E-07,0.007061499,5.38798E-07,-6.961622E-07,9.059906E-08,0.3671734
101.459,1.356163E-08,-2.061235E-08,NaN,1.683921E-07,-1.734961E-09,NaN,-1.582583E-06,9.000352E-05,NaN,3.523712E-05,-0.007061408,2.284806E-06,-9.00029E-05,NaN,NaN,1.782458E-07,0.007061499,5.38798E-07,-6.961622E-07,9.059906E-08,0.3671734
101.4784,1.356163E-08,-2.061235E-08,NaN,1.683921E-07,-1.734961E-09,NaN,-1.582583E-06,9.000352E-05,NaN,3.523712E-05,-0.007061408,2.284806E-06,-9.00029E-05,NaN,NaN,1.782458E-07,0.007061499,5.38798E-07,-6.961622E-07,9.059906E-08,0.3671734
101.4983,1.356163E-08,-2.061235E-08,NaN,1.683921E-07,-1.734961E-09,NaN,-1.582583E-06,9.000352E-05,NaN,3.523712E-05,-0.007061408,2.284806E-06,-9.00029E-05,NaN,NaN,1.782458E-07,0.007061499,5.38798E-07,-6.961622E-07,9.059906E-08,0.3671734
101.5181,1.356163E-08,-2.061235E-08,NaN,1.683921E-07,-1.734961E-09,NaN,-1.582583E-06,9.000352E-05,NaN,3.523712E-05,-0.007061408,2.284806E-06,-9.00029E-05,NaN,NaN,1.782458E-07,0.007061499,5.38798E-07,-6.961622E-07,9.059906E-08,0.3671734
101.5379,1.356163E-08,-2.061235E-08,NaN,1.683921E-07,-1.734961E-09,NaN,-1.582583E-06,9.000352E-05,NaN,3.523712E-05,-0.007061408,2.284806E-06,-9.00029E-05,NaN,NaN,1.782458E-07,0.007061499,5.38798E-07,-6.961622E-07,9.059906E-08,0.3671734
101.5587,1.356163E-08,-2.061235E-08,NaN,1.683921E-07,-1.734961E-09,NaN,-1.582583E-06,9.000352E-05,NaN,3.523712E-05,-0.007061408,2.284806E-06,-9.00029E-05,NaN,NaN,1.782458E-07,0.007061499,5.38798E-07,-6.961622E-07,9.059906E-08,0.3671734
101.5771,1.356163E-08,-2.061235E-08,NaN,1.683921E-07,-1.734961E-09,NaN,-1.582583E-06,9.000352E-05,NaN,3.523712E-05,-0.007061408,2.284806E-06,-9.00029E-05,NaN,NaN,1.782458E-07,0.007061499,5.38798E-07,-6.961622E-07,9.059906E-08,0.3671734
101.5966,1.356163E-08,-2.061235E-08,NaN,1.683921E-07,-1.734961E-09,NaN,-1.582583E-06,9.000352E-05,NaN,3.523712E-05,-0.007061408,2.284806E-06,-9.00029E-05,NaN,NaN,1.782458E-07,0.007061499,5.38798E-07,-6.961622E-07,9.059906E-08,0.3671734
101.6162,1.356163E-08,-2.061235E-08,NaN,1.683921E-07,-1.734961E-09,NaN,-1.582583E-06,9.000352E-05,NaN,3.523712E-05,-0.007061408,2.284806E-06,-9.00029E-05,NaN,NaN,1.782458E-07,0.007061499,5.38798E-07,-6.961622E-07,9.059906E-08,0.3671734
101.6362,1.356163E-08,-2.061235E-08,NaN,1.683921E-07,-1.734961E-09,NaN,-1.582583E-06,9.000352E-05,NaN,3.523712E-05,-0.007061408,2.284806E-06,-9.00029E-05,NaN,NaN,1.782458E-07,0.007061499,5.38798E-07,-6.961622E-07,9.059906E-08,0.3671734
101.6559,1.356163E-08,-2.061235E-08,NaN,1.683921E-07,-1.734961E-09,NaN,-1.582583E-06,9.000352E-05,NaN,3.523712E-05,-0.007061408,2.284806E-06,-9.00029E-05,NaN,NaN,1.782458E-07,0.007061499,5.38798E-07,-6.961622E-07,9.059906E-08,0.3671734
101.6759,1.356163E-08,-2.061235E-08,NaN,1.683921E-07,-1.734961E-09,NaN,-1.582583E-06,9.000352E-05,NaN,3.523712E-05,-0.007061408,2.284806E-06,-9.00029E-05,NaN,NaN,1.782458E-07,0.007061499,5.38798E-07,-6.961622E-07,9.059906E-08,0.3671734
101.6956,1.356163E-08,-2.061235E-08,NaN,1.683921E-07,-1.734961E-09,NaN,-1.582583E-06,9.000352E-05,NaN,3.523712E-05,-0.007061408,2.284806E-06,-9.00029E-05,NaN,NaN,1.782458E-07,0.007061499,5.38798E-07,-6.961622E-07,9.059906E-08,0.3671734
101.7155,1.356163E-08,-2.061235E-08,NaN,1.683921E-07,-1.734961E-09,NaN,-1.582583E-06,9.000352E-05,NaN,3.523712E-05,-0.007061408,2.284806E-06,-9.00029E-05,NaN,NaN,1.782458E-07,0.007061499,5.38798E-07,-6.961622E-07,9.059906E-08,0.3671734
101.7355,1.356163E-08,-2.061235E-08,NaN,1.683921E-07,-1.734961E-09,NaN,-1.582583E-06,9.000352E-05,NaN,3.523712E-05,-0.007061408,2.284806E-06,-9.00029E-05,NaN,NaN,1.782458E-07,0.007061499,5.38798E-07,-6.961622E-07,9.059906E-08,0.3671734
101.7552,1.356163E-08,-2.061235E-08,NaN,1.683921E-07,-1.734961E-09,NaN,-1.582583E-06,9.000352E-05,NaN,3.523712E-05,-0.007061408,2.284806E-06,-9.00029E-05,NaN,NaN,1.782458E-07,0.007061499,5.38798E-07,-6.961622E-07,9.059906E-08,0.3671734
101.7755,1.356163E-08,-2.061235E-08,NaN,1.683921E-07,-1.734961E-09,NaN,-1.582583E-06,9.000352E-05,NaN,3.523712E-05,-0.007061408,2.284806E-06,-9.00029E-05,NaN,NaN,1.782458E-07,0.007061499,5.38798E-07,-6.961622E-07,9.059906E-08,0.3671734
101.7952,1.356163E-08,-2.061235E-08,NaN,1.683921E-07,-1.734961E-09,NaN,-1.582583E-06,9.000352E-05,NaN,3.523712E-05,-0.007061408,2.284806E-06,-9.00029E-05,NaN,NaN,1.782458E-07,0.007061499,5.38798E-07,-6.961622E-07,9.059906E-08,0.3671734
101.8163,1.356163E-08,-2.061235E-08,NaN,1.683921E-07,-1.734961E-09,NaN,-1.582583E-06,9.000352E-05,NaN,3.523712E-05,-0.007061408,2.284806E-06,-9.00029E-05,NaN,NaN,1.782458E-07,0.007061499,5.38798E-07,-6.961622E-07,9.059906E-08,0.3671734
101.8362,1.356163E-08,-2.061235E-08,NaN,1.683921E-07,-1.734961E-09,NaN,-1.582583E-06,9.000352E-05,NaN,3.523712E-05,-0.007061408,2.284806E-06,-9.00029E-05,NaN,NaN,1.782458E-07,0.007061499,5.38798E-07,-6.961622E-07,9.059906E-08,0.3671734
101.8586,1.356163E-08,-2.061235E-08,NaN,1.683921E-07,-1.734961E-09,NaN,-1.582583E-06,9.000352E-05,NaN,3.523712E-05,-0.007061408,2.284806E-06,-9.00029E-05,NaN,NaN,1.782458E-07,0.007061499,5.38798E-07,-6.961622E-07,9.059906E-08,0.3671734
101.8779,1.356163E-08,-2.061235E-08,NaN,1.683921E-07,-1.734961E-09,NaN,-1.582583E-06,9.000352E-05,NaN,3.523712E-05,-0.007061408,2.284806E-06,-9.00029E-05,NaN,NaN,1.782458E-07,0.007061499,5.38798E-07,-6.961622E-07,9.059906E-08,0.3671734
101.8979,1.356163E-08,-2.061235E-08,NaN,1.683921E-07,-1.734961E-09,NaN,-1.582583E-06,9.000352E-05,NaN,3.523712E-05,-0.007061408,2.284806E-06,-9.00029E-05,NaN,NaN,1.782458E-07,0.007061499,5.38798E-07,-6.961622E-07,9.059906E-08,0.3671734
101.9179,1.356163E-08,-2.061235E-08,NaN,1.683921E-07,-1.734961E-09,NaN,-1.582583E-06,9.000352E-05,NaN,3.523712E-05,-0.007061408,2.284806E-06,-9.00029E-05,NaN,NaN,1.782458E-07,0.007061499,5.38798E-07,-6.961622E-07,9.059906E-08,0.3671734
101.9373,1.356163E-08,-2.061235E-08,NaN,1.683921E-07,-1.734961E-09,NaN,-1.582583E-06,9.000352E-05,NaN,3.523712E-05,-0.007061408,2.284806E-06,-9.00029E-05,NaN,NaN,1.782458E-07,0.007061499,5.38798E-07,-6.961622E-07,9.059906E-08,0.3671734
101.9573,1.356163E-08,-2.061235E-08,NaN,1.683921E-07,-1.734961E-09,NaN,-1.582583E-06,9.000352E-05,NaN,3.523712E-05,-0.007061408,2.284806E-06,-9.00029E-05,NaN,NaN,1.782458E-07,0.007061499,5.38798E-07,-6.961622E-07,9.059906E-08,0.3671734
101.9769,1.356163E-08,-2.061235E-08,NaN,1.683921E-07,-1.734961E-09,NaN,-1.582583E-06,9.000352E-05,NaN,3.523712E-05,-0.007061408,2.284806E-06,-9.00029E-05,NaN,NaN,1.782458E-07,0.007061499,5.38798E-07,-6.961622E-07,9.059906E-08,0.3671734
101.9968,1.356163E-08,-2.061235E-08,NaN,1.683921E-07,-1.734961E-09,NaN,-1.582583E-06,9.000352E-05,NaN,3.523712E-05,-0.007061408,2.284806E-06,-9.00029E-05,NaN,NaN,1.782458E-07,0.007061499,5.38798E-07,-6.961622E-07,9.059906E-08,0.3671734
102.0164,1.356163E-08,-2.061235E-08,NaN,1.683921E-07,-1.734961E-09,NaN,-1.582583E-06,9.000352E-05,NaN,3.523712E-05,-0.007061408,2.284806E-06,-9.00029E-05,NaN,NaN,1.782458E-07,0.007061499,5.38798E-07,-6.961622E-07,9.059906E-08,0.3671734
102.0361,1.356163E-08,-2.061235E-08,NaN,1.683921E-07,-1.734961E-09,NaN,-1.582583E-06,9.000352E-05,NaN,3.523712E-05,-0.007061408,2.284806E-06,-9.00029E-05,NaN,NaN,1.782458E-07,0.007061499,5.38798E-07,-6.961622E-07,9.059906E-08,0.3671734
102.0559,1.356163E-08,-2.061235E-08,NaN,1.683921E-07,-1.734961E-09,NaN,-1.582583E-06,9.000352E-05,NaN,3.523712E-05,-0.007061408,2.284806E-06,-9.00029E-05,NaN,NaN,1.782458E-07,0.007061499,5.38798E-07,-6.961622E-07,9.059906E-08,0.3671734
102.0755,1.356163E-08,-2.061235E-08,NaN,1.683921E-07,-1.734961E-09,NaN,-1.582583E-06,9.000352E-05,NaN,3.523712E-05,-0.007061408,2.284806E-06,-9.00029E-05,NaN,NaN,1.782458E-07,0.007061499,5.38798E-07,-6.961622E-07,9.059906E-08,0.3671734
102.0952,1.356163E-08,-2.061235E-08,NaN,1.683921E-07,-1.734961E-09,NaN,-1.582583E-06,9.000352E-05,NaN,3.523712E-05,-0.007061408,2.284806E-06,-9.00029E-05,NaN,NaN,1.782458E-07,0.007061499,5.38798E-07,-6.961622E-07,9.059906E-08,0.3671734
102.116,1.356163E-08,-2.061235E-08,NaN,1.683921E-07,-1.734961E-09,NaN,-1.582583E-06,9.000352E-05,NaN,3.523712E-05,-0.007061408,2.284806E-06,-9.00029E-05,NaN,NaN,1.782458E-07,0.007061499,5.38798E-07,-6.961622E-07,9.059906E-08,0.3671734
102.1345,1.356163E-08,-2.061235E-08,NaN,1.683921E-07,-1.734961E-09,NaN,-1.582583E-06,9.000352E-05,NaN,3.523712E-05,-0.007061408,2.284806E-06,-9.00029E-05,NaN,NaN,1.782458E-07,0.007061499,5.38798E-07,-6.961622E-07,9.059906E-08,0.3671734
102.154,1.356163E-08,-2.061235E-08,NaN,1.683921E-07,-1.734961E-09,NaN,-1.582583E-06,9.000352E-05,NaN,3.523712E-05,-0.007061408,2.284806E-06,-9.00029E-05,NaN,NaN,1.782458E-07,0.007061499,5.38798E-07,-6.961622E-07,9.059906E-08,0.3671734
102.1738,1.356163E-08,-2.061235E-08,NaN,1.683921E-07,-1.734961E-09,NaN,-1.582583E-06,9.000352E-05,NaN,3.523712E-05,-0.007061408,2.284806E-06,-9.00029E-05,NaN,NaN,1.782458E-07,0.007061499,5.38798E-07,-6.961622E-07,9.059906E-08,0.3671734
102.1936,1.356163E-08,-2.061235E-08,NaN,1.683921E-07,-1.734961E-09,NaN,-1.582583E-06,9.000352E-05,NaN,3.523712E-05,-0.007061408,2.284806E-06,-9.00029E-05,NaN,NaN,1.782458E-07,0.007061499,5.38798E-07,-6.961622E-07,9.059906E-08,0.3671734
102.213,1.356163E-08,-2.061235E-08,NaN,1.683921E-07,-1.734961E-09,NaN,-1.582583E-06,9.000352E-05,NaN,3.523712E-05,-0.007061408,2.284806E-06,-9.00029E-05,NaN,NaN,1.782458E-07,0.007061499,5.38798E-07,-6.961622E-07,9.059906E-08,0.3671734
102.2328,1.356163E-08,-2.061235E-08,NaN,1.683921E-07,-1.734961E-09,NaN,-1.582583E-06,9.000352E-05,NaN,3.523712E-05,-0.007061408,2.284806E-06,-9.00029E-05,NaN,NaN,1.782458E-07,0.007061499,5.38798E-07,-6.961622E-07,9.059906E-08,0.3671734
102.2521,1.356163E-08,-2.061235E-08,NaN,1.683921E-07,-1.734961E-09,NaN,-1.582583E-06,9.000352E-05,NaN,3.523712E-05,-0.007061408,2.284806E-06,-9.00029E-05,NaN,NaN,1.782458E-07,0.007061499,5.38798E-07,-6.961622E-07,9.059906E-08,0.3671734
102.2716,1.356163E-08,-2.061235E-08,NaN,1.683921E-07,-1.734961E-09,NaN,-1.582583E-06,9.000352E-05,NaN,3.523712E-05,-0.007061408,2.284806E-06,-9.00029E-05,NaN,NaN,1.782458E-07,0.007061499,5.38798E-07,-6.961622E-07,9.059906E-08,0.3671734
102.2916,1.356163E-08,-2.061235E-08,NaN,1.683921E-07,-1.734961E-09,NaN,-1.582583E-06,9.000352E-05,NaN,3.523712E-05,-0.007061408,2.284806E-06,-9.00029E-05,NaN,NaN,1.782458E-07,0.007061499,5.38798E-07,-6.961622E-07,9.059906E-08,0.3671734
102.311,1.356163E-08,-2.061235E-08,NaN,1.683921E-07,-1.734961E-09,NaN,-1.582583E-06,9.000352E-05,NaN,3.523712E-05,-0.007061408,2.284806E-06,-9.00029E-05,NaN,NaN,1.782458E-07,0.007061499,5.38798E-07,-6.961622E-07,9.059906E-08,0.3671734
102.3307,1.356163E-08,-2.061235E-08,NaN,1.683921E-07,-1.734961E-09,NaN,-1.582583E-06,9.000352E-05,NaN,3.523712E-05,-0.007061408,2.284806E-06,-9.00029E-05,NaN,NaN,1.782458E-07,0.007061499,5.38798E-07,-6.961622E-07,9.059906E-08,0.3671734
102.3497,1.356163E-08,-2.061235E-08,NaN,1.683921E-07,-1.734961E-09,NaN,-1.582583E-06,9.000352E-05,NaN,3.523712E-05,-0.007061408,2.284806E-06,-9.00029E-05,NaN,NaN,1.782458E-07,0.007061499,5.38798E-07,-6.961622E-07,9.059906E-08,0.3671734
102.3693,1.356163E-08,-2.061235E-08,NaN,1.683921E-07,-1.734961E-09,NaN,-1.582583E-06,9.000352E-05,NaN,3.523712E-05,-0.007061408,2.284806E-06,-9.00029E-05,NaN,NaN,1.782458E-07,0.007061499,5.38798E-07,-6.961622E-07,9.059906E-08,0.3671734
102.3892,1.356163E-08,-2.061235E-08,NaN,1.683921E-07,-1.734961E-09,NaN,-1.582583E-06,9.000352E-05,NaN,3.523712E-05,-0.007061408,2.284806E-06,-9.00029E-05,NaN,NaN,1.782458E-07,0.007061499,5.38798E-07,-6.961622E-07,9.059906E-08,0.3671734
102.4086,1.356163E-08,-2.061235E-08,NaN,1.683921E-07,-1.734961E-09,NaN,-1.582583E-06,9.000352E-05,NaN,3.523712E-05,-0.007061408,2.284806E-06,-9.00029E-05,NaN,NaN,1.782458E-07,0.007061499,5.38798E-07,-6.961622E-07,9.059906E-08,0.3671734
102.4282,1.356163E-08,-2.061235E-08,NaN,1.683921E-07,-1.734961E-09,NaN,-1.582583E-06,9.000352E-05,NaN,3.523712E-05,-0.007061408,2.284806E-06,-9.00029E-05,NaN,NaN,1.782458E-07,0.007061499,5.38798E-07,-6.961622E-07,9.059906E-08,0.3671734
102.4476,1.356163E-08,-2.061235E-08,NaN,1.683921E-07,-1.734961E-09,NaN,-1.582583E-06,9.000352E-05,NaN,3.523712E-05,-0.007061408,2.284806E-06,-9.00029E-05,NaN,NaN,1.782458E-07,0.007061499,5.38798E-07,-6.961622E-07,9.059906E-08,0.3671734
102.4672,1.356163E-08,-2.061235E-08,NaN,1.683921E-07,-1.734961E-09,NaN,-1.582583E-06,9.000352E-05,NaN,3.523712E-05,-0.007061408,2.284806E-06,-9.00029E-05,NaN,NaN,1.782458E-07,0.007061499,5.38798E-07,-6.961622E-07,9.059906E-08,0.3671734
102.4868,1.356163E-08,-2.061235E-08,NaN,1.683921E-07,-1.734961E-09,NaN,-1.582583E-06,9.000352E-05,NaN,3.523712E-05,-0.007061408,2.284806E-06,-9.00029E-05,NaN,NaN,1.782458E-07,0.007061499,5.38798E-07,-6.961622E-07,9.059906E-08,0.3671734
102.5061,1.356163E-08,-2.061235E-08,NaN,1.683921E-07,-1.734961E-09,NaN,-1.582583E-06,9.000352E-05,NaN,3.523712E-05,-0.007061408,2.284806E-06,-9.00029E-05,NaN,NaN,1.782458E-07,0.007061499,5.38798E-07,-6.961622E-07,9.059906E-08,0.3671734
102.5265,1.356163E-08,-2.061235E-08,NaN,1.683921E-07,-1.734961E-09,NaN,-1.582583E-06,9.000352E-05,NaN,3.523712E-05,-0.007061408,2.284806E-06,-9.00029E-05,NaN,NaN,1.782458E-07,0.007061499,5.38798E-07,-6.961622E-07,9.059906E-08,0.3671734
102.5458,1.356163E-08,-2.061235E-08,NaN,1.683921E-07,-1.734961E-09,NaN,-1.582583E-06,9.000352E-05,NaN,3.523712E-05,-0.007061408,2.284806E-06,-9.00029E-05,NaN,NaN,1.782458E-07,0.007061499,5.38798E-07,-6.961622E-07,9.059906E-08,0.3671734
102.5651,1.356163E-08,-2.061235E-08,NaN,1.683921E-07,-1.734961E-09,NaN,-1.582583E-06,9.000352E-05,NaN,3.523712E-05,-0.007061408,2.284806E-06,-9.00029E-05,NaN,NaN,1.782458E-07,0.007061499,5.38798E-07,-6.961622E-07,9.059906E-08,0.3671734
102.5848,1.356163E-08,-2.061235E-08,NaN,1.683921E-07,-1.734961E-09,NaN,-1.582583E-06,9.000352E-05,NaN,3.523712E-05,-0.007061408,2.284806E-06,-9.00029E-05,NaN,NaN,1.782458E-07,0.007061499,5.38798E-07,-6.961622E-07,9.059906E-08,0.3671734
102.6041,1.356163E-08,-2.061235E-08,NaN,1.683921E-07,-1.734961E-09,NaN,-1.582583E-06,9.000352E-05,NaN,3.523712E-05,-0.007061408,2.284806E-06,-9.00029E-05,NaN,NaN,1.782458E-07,0.007061499,5.38798E-07,-6.961622E-07,9.059906E-08,0.3671734
102.624,1.356163E-08,-2.061235E-08,NaN,1.683921E-07,-1.734961E-09,NaN,-1.582583E-06,9.000352E-05,NaN,3.523712E-05,-0.007061408,2.284806E-06,-9.00029E-05,NaN,NaN,1.782458E-07,0.007061499,5.38798E-07,-6.961622E-07,9.059906E-08,0.3671734
102.6433,1.356163E-08,-2.061235E-08,NaN,1.683921E-07,-1.734961E-09,NaN,-1.582583E-06,9.000352E-05,NaN,3.523712E-05,-0.007061408,2.284806E-06,-9.00029E-05,NaN,NaN,1.782458E-07,0.007061499,5.38798E-07,-6.961622E-07,9.059906E-08,0.3671734
102.6628,1.356163E-08,-2.061235E-08,NaN,1.683921E-07,-1.734961E-09,NaN,-1.582583E-06,9.000352E-05,NaN,3.523712E-05,-0.007061408,2.284806E-06,-9.00029E-05,NaN,NaN,1.782458E-07,0.007061499,5.38798E-07,-6.961622E-07,9.059906E-08,0.3671734
102.6823,1.356163E-08,-2.061235E-08,NaN,1.683921E-07,-1.734961E-09,NaN,-1.582583E-06,9.000352E-05,NaN,3.523712E-05,-0.007061408,2.284806E-06,-9.00029E-05,NaN,NaN,1.782458E-07,0.007061499,5.38798E-07,-6.961622E-07,9.059906E-08,0.3671734
102.7013,1.356163E-08,-2.061235E-08,NaN,1.683921E-07,-1.734961E-09,NaN,-1.582583E-06,9.000352E-05,NaN,3.523712E-05,-0.007061408,2.284806E-06,-9.00029E-05,NaN,NaN,1.782458E-07,0.007061499,5.38798E-07,-6.961622E-07,9.059906E-08,0.3671734
102.7212,1.356163E-08,-2.061235E-08,NaN,1.683921E-07,-1.734961E-09,NaN,-1.582583E-06,9.000352E-05,NaN,3.523712E-05,-0.007061408,2.284806E-06,-9.00029E-05,NaN,NaN,1.782458E-07,0.007061499,5.38798E-07,-6.961622E-07,9.059906E-08,0.3671734
102.7403,1.356163E-08,-2.061235E-08,NaN,1.683921E-07,-1.734961E-09,NaN,-1.582583E-06,9.000352E-05,NaN,3.523712E-05,-0.007061408,2.284806E-06,-9.00029E-05,NaN,NaN,1.782458E-07,0.007061499,5.38798E-07,-6.961622E-07,9.059906E-08,0.3671734
102.76,1.356163E-08,-2.061235E-08,NaN,1.683921E-07,-1.734961E-09,NaN,-1.582583E-06,9.000352E-05,NaN,3.523712E-05,-0.007061408,2.284806E-06,-9.00029E-05,NaN,NaN,1.782458E-07,0.007061499,5.38798E-07,-6.961622E-07,9.059906E-08,0.3671734
102.7795,1.356163E-08,-2.061235E-08,NaN,1.683921E-07,-1.734961E-09,NaN,-1.582583E-06,9.000352E-05,NaN,3.523712E-05,-0.007061408,2.284806E-06,-9.00029E-05,NaN,NaN,1.782458E-07,0.007061499,5.38798E-07,-6.961622E-07,9.059906E-08,0.3671734
102.7984,1.356163E-08,-2.061235E-08,NaN,1.683921E-07,-1.734961E-09,NaN,-1.582583E-06,9.000352E-05,NaN,3.523712E-05,-0.007061408,2.284806E-06,-9.00029E-05,NaN,NaN,1.782458E-07,0.007061499,5.38798E-07,-6.961622E-07,9.059906E-08,0.3671734
102.8188,1.356163E-08,-2.061235E-08,NaN,1.683921E-07,-1.734961E-09,NaN,-1.582583E-06,9.000352E-05,NaN,3.523712E-05,-0.007061408,2.284806E-06,-9.00029E-05,NaN,NaN,1.782458E-07,0.007061499,5.38798E-07,-6.961622E-07,9.059906E-08,0.3671734
102.8382,1.356163E-08,-2.061235E-08,NaN,1.683921E-07,-1.734961E-09,NaN,-1.582583E-06,9.000352E-05,NaN,3.523712E-05,-0.007061408,2.284806E-06,-9.00029E-05,NaN,NaN,1.782458E-07,0.007061499,5.38798E-07,-6.961622E-07,9.059906E-08,0.3671734
102.8581,1.356163E-08,-2.061235E-08,NaN,1.683921E-07,-1.734961E-09,NaN,-1.582583E-06,9.000352E-05,NaN,3.523712E-05,-0.007061408,2.284806E-06,-9.00029E-05,NaN,NaN,1.782458E-07,0.007061499,5.38798E-07,-6.961622E-07,9.059906E-08,0.3671734
102.8781,1.356163E-08,-2.061235E-08,NaN,1.683921E-07,-1.734961E-09,NaN,-1.582583E-06,9.000352E-05,NaN,3.523712E-05,-0.007061408,2.284806E-06,-9.00029E-05,NaN,NaN,1.782458E-07,0.007061499,5.38798E-07,-6.961622E-07,9.059906E-08,0.3671734
102.8976,1.356163E-08,-2.061235E-08,NaN,1.683921E-07,-1.734961E-09,NaN,-1.582583E-06,9.000352E-05,NaN,3.523712E-05,-0.007061408,2.284806E-06,-9.00029E-05,NaN,NaN,1.782458E-07,0.007061499,5.38798E-07,-6.961622E-07,9.059906E-08,0.3671734
102.9176,1.356163E-08,-2.061235E-08,NaN,1.683921E-07,-1.734961E-09,NaN,-1.582583E-06,9.000352E-05,NaN,3.523712E-05,-0.007061408,2.284806E-06,-9.00029E-05,NaN,NaN,1.782458E-07,0.007061499,5.38798E-07,-6.961622E-07,9.059906E-08,0.3671734
102.937,1.356163E-08,-2.061235E-08,NaN,1.683921E-07,-1.734961E-09,NaN,-1.582583E-06,9.000352E-05,NaN,3.523712E-05,-0.007061408,2.284806E-06,-9.00029E-05,NaN,NaN,1.782458E-07,0.007061499,5.38798E-07,-6.961622E-07,9.059906E-08,0.3671734
102.9571,1.356163E-08,-2.061235E-08,NaN,1.683921E-07,-1.734961E-09,NaN,-1.582583E-06,9.000352E-05,NaN,3.523712E-05,-0.007061408,2.284806E-06,-9.00029E-05,NaN,NaN,1.782458E-07,0.007061499,5.38798E-07,-6.961622E-07,9.059906E-08,0.3671734
102.977,1.356163E-08,-2.061235E-08,NaN,1.683921E-07,-1.734961E-09,NaN,-1.582583E-06,9.000352E-05,NaN,3.523712E-05,-0.007061408,2.284806E-06,-9.00029E-05,NaN,NaN,1.782458E-07,0.007061499,5.38798E-07,-6.961622E-07,9.059906E-08,0.3671734
102.9965,1.356163E-08,-2.061235E-08,NaN,1.683921E-07,-1.734961E-09,NaN,-1.582583E-06,9.000352E-05,NaN,3.523712E-05,-0.007061408,2.284806E-06,-9.00029E-05,NaN,NaN,1.782458E-07,0.007061499,5.38798E-07,-6.961622E-07,9.059906E-08,0.3671734
103.0162,1.356163E-08,-2.061235E-08,NaN,1.683921E-07,-1.734961E-09,NaN,-1.582583E-06,9.000352E-05,NaN,3.523712E-05,-0.007061408,2.284806E-06,-9.00029E-05,NaN,NaN,1.782458E-07,0.007061499,5.38798E-07,-6.961622E-07,9.059906E-08,0.3671734
103.0356,1.356163E-08,-2.061235E-08,NaN,1.683921E-07,-1.734961E-09,NaN,-1.582583E-06,9.000352E-05,NaN,3.523712E-05,-0.007061408,2.284806E-06,-9.00029E-05,NaN,NaN,1.782458E-07,0.007061499,5.38798E-07,-6.961622E-07,9.059906E-08,0.3671734
103.0557,1.356163E-08,-2.061235E-08,NaN,1.683921E-07,-1.734961E-09,NaN,-1.582583E-06,9.000352E-05,NaN,3.523712E-05,-0.007061408,2.284806E-06,-9.00029E-05,NaN,NaN,1.782458E-07,0.007061499,5.38798E-07,-6.961622E-07,9.059906E-08,0.3671734
103.0756,1.356163E-08,-2.061235E-08,NaN,1.683921E-07,-1.734961E-09,NaN,-1.582583E-06,9.000352E-05,NaN,3.523712E-05,-0.007061408,2.284806E-06,-9.00029E-05,NaN,NaN,1.782458E-07,0.007061499,5.38798E-07,-6.961622E-07,9.059906E-08,0.3671734
103.0949,1.356163E-08,-2.061235E-08,NaN,1.683921E-07,-1.734961E-09,NaN,-1.582583E-06,9.000352E-05,NaN,3.523712E-05,-0.007061408,2.284806E-06,-9.00029E-05,NaN,NaN,1.782458E-07,0.007061499,5.38798E-07,-6.961622E-07,9.059906E-08,0.3671734
103.1146,1.356163E-08,-2.061235E-08,NaN,1.683921E-07,-1.734961E-09,NaN,-1.582583E-06,9.000352E-05,NaN,3.523712E-05,-0.007061408,2.284806E-06,-9.00029E-05,NaN,NaN,1.782458E-07,0.007061499,5.38798E-07,-6.961622E-07,9.059906E-08,0.3671734
103.1346,1.356163E-08,-2.061235E-08,NaN,1.683921E-07,-1.734961E-09,NaN,-1.582583E-06,9.000352E-05,NaN,3.523712E-05,-0.007061408,2.284806E-06,-9.00029E-05,NaN,NaN,1.782458E-07,0.007061499,5.38798E-07,-6.961622E-07,9.059906E-08,0.3671734
103.1555,1.356163E-08,-2.061235E-08,NaN,1.683921E-07,-1.734961E-09,NaN,-1.582583E-06,9.000352E-05,NaN,3.523712E-05,-0.007061408,2.284806E-06,-9.00029E-05,NaN,NaN,1.782458E-07,0.007061499,5.38798E-07,-6.961622E-07,9.059906E-08,0.3671734
103.1741,1.356163E-08,-2.061235E-08,NaN,1.683921E-07,-1.734961E-09,NaN,-1.582583E-06,9.000352E-05,NaN,3.523712E-05,-0.007061408,2.284806E-06,-9.00029E-05,NaN,NaN,1.782458E-07,0.007061499,5.38798E-07,-6.961622E-07,9.059906E-08,0.3671734
103.1936,1.356163E-08,-2.061235E-08,NaN,1.683921E-07,-1.734961E-09,NaN,-1.582583E-06,9.000352E-05,NaN,3.523712E-05,-0.007061408,2.284806E-06,-9.00029E-05,NaN,NaN,1.782458E-07,0.007061499,5.38798E-07,-6.961622E-07,9.059906E-08,0.3671734
103.213,1.356163E-08,-2.061235E-08,NaN,1.683921E-07,-1.734961E-09,NaN,-1.582583E-06,9.000352E-05,NaN,3.523712E-05,-0.007061408,2.284806E-06,-9.00029E-05,NaN,NaN,1.782458E-07,0.007061499,5.38798E-07,-6.961622E-07,9.059906E-08,0.3671734
103.2324,1.356163E-08,-2.061235E-08,NaN,1.683921E-07,-1.734961E-09,NaN,-1.582583E-06,9.000352E-05,NaN,3.523712E-05,-0.007061408,2.284806E-06,-9.00029E-05,NaN,NaN,1.782458E-07,0.007061499,5.38798E-07,-6.961622E-07,9.059906E-08,0.3671734
103.2519,1.356163E-08,-2.061235E-08,NaN,1.683921E-07,-1.734961E-09,NaN,-1.582583E-06,9.000352E-05,NaN,3.523712E-05,-0.007061408,2.284806E-06,-9.00029E-05,NaN,NaN,1.782458E-07,0.007061499,5.38798E-07,-6.961622E-07,9.059906E-08,0.3671734
103.2709,1.356163E-08,-2.061235E-08,NaN,1.683921E-07,-1.734961E-09,NaN,-1.582583E-06,9.000352E-05,NaN,3.523712E-05,-0.007061408,2.284806E-06,-9.00029E-05,NaN,NaN,1.782458E-07,0.007061499,5.38798E-07,-6.961622E-07,9.059906E-08,0.3671734
103.2901,1.356163E-08,-2.061235E-08,NaN,1.683921E-07,-1.734961E-09,NaN,-1.582583E-06,9.000352E-05,NaN,3.523712E-05,-0.007061408,2.284806E-06,-9.00029E-05,NaN,NaN,1.782458E-07,0.007061499,5.38798E-07,-6.961622E-07,9.059906E-08,0.3671734
103.3094,1.356163E-08,-2.061235E-08,NaN,1.683921E-07,-1.734961E-09,NaN,-1.582583E-06,9.000352E-05,NaN,3.523712E-05,-0.007061408,2.284806E-06,-9.00029E-05,NaN,NaN,1.782458E-07,0.007061499,5.38798E-07,-6.961622E-07,9.059906E-08,0.3671734
103.3282,1.356163E-08,-2.061235E-08,NaN,1.683921E-07,-1.734961E-09,NaN,-1.582583E-06,9.000352E-05,NaN,3.523712E-05,-0.007061408,2.284806E-06,-9.00029E-05,NaN,NaN,1.782458E-07,0.007061499,5.38798E-07,-6.961622E-07,9.059906E-08,0.3671734
103.3462,1.356163E-08,-2.061235E-08,NaN,1.683921E-07,-1.734961E-09,NaN,-1.582583E-06,9.000352E-05,NaN,3.523712E-05,-0.007061408,2.284806E-06,-9.00029E-05,NaN,NaN,1.782458E-07,0.007061499,5.38798E-07,-6.961622E-07,9.059906E-08,0.3671734
103.3648,1.356163E-08,-2.061235E-08,NaN,1.683921E-07,-1.734961E-09,NaN,-1.582583E-06,9.000352E-05,NaN,3.523712E-05,-0.007061408,2.284806E-06,-9.00029E-05,NaN,NaN,1.782458E-07,0.007061499,5.38798E-07,-6.961622E-07,9.059906E-08,0.3671734
103.3833,1.356163E-08,-2.061235E-08,NaN,1.683921E-07,-1.734961E-09,NaN,-1.582583E-06,9.000352E-05,NaN,3.523712E-05,-0.007061408,2.284806E-06,-9.00029E-05,NaN,NaN,1.782458E-07,0.007061499,5.38798E-07,-6.961622E-07,9.059906E-08,0.3671734
103.4025,1.356163E-08,-2.061235E-08,NaN,1.683921E-07,-1.734961E-09,NaN,-1.582583E-06,9.000352E-05,NaN,3.523712E-05,-0.007061408,2.284806E-06,-9.00029E-05,NaN,NaN,1.782458E-07,0.007061499,5.38798E-07,-6.961622E-07,9.059906E-08,0.3671734
103.4198,1.356163E-08,-2.061235E-08,NaN,1.683921E-07,-1.734961E-09,NaN,-1.582583E-06,9.000352E-05,NaN,3.523712E-05,-0.007061408,2.284806E-06,-9.00029E-05,NaN,NaN,1.782458E-07,0.007061499,5.38798E-07,-6.961622E-07,9.059906E-08,0.3671734
103.4381,1.356163E-08,-2.061235E-08,NaN,1.683921E-07,-1.734961E-09,NaN,-1.582583E-06,9.000352E-05,NaN,3.523712E-05,-0.007061408,2.284806E-06,-9.00029E-05,NaN,NaN,1.782458E-07,0.007061499,5.38798E-07,-6.961622E-07,9.059906E-08,0.3671734
103.4573,1.356163E-08,-2.061235E-08,NaN,1.683921E-07,-1.734961E-09,NaN,-1.582583E-06,9.000352E-05,NaN,3.523712E-05,-0.007061408,2.284806E-06,-9.00029E-05,NaN,NaN,1.782458E-07,0.007061499,5.38798E-07,-6.961622E-07,9.059906E-08,0.3671734
103.4767,1.356163E-08,-2.061235E-08,NaN,1.683921E-07,-1.734961E-09,NaN,-1.582583E-06,9.000352E-05,NaN,3.523712E-05,-0.007061408,2.284806E-06,-9.00029E-05,NaN,NaN,1.782458E-07,0.007061499,5.38798E-07,-6.961622E-07,9.059906E-08,0.3671734
103.4955,1.356163E-08,-2.061235E-08,NaN,1.683921E-07,-1.734961E-09,NaN,-1.582583E-06,9.000352E-05,NaN,3.523712E-05,-0.007061408,2.284806E-06,-9.00029E-05,NaN,NaN,1.782458E-07,0.007061499,5.38798E-07,-6.961622E-07,9.059906E-08,0.3671734
103.5149,1.356163E-08,-2.061235E-08,NaN,1.683921E-07,-1.734961E-09,NaN,-1.582583E-06,9.000352E-05,NaN,3.523712E-05,-0.007061408,2.284806E-06,-9.00029E-05,NaN,NaN,1.782458E-07,0.007061499,5.38798E-07,-6.961622E-07,9.059906E-08,0.3671734
103.5342,1.356163E-08,-2.061235E-08,NaN,1.683921E-07,-1.734961E-09,NaN,-1.582583E-06,9.000352E-05,NaN,3.523712E-05,-0.007061408,2.284806E-06,-9.00029E-05,NaN,NaN,1.782458E-07,0.007061499,5.38798E-07,-6.961622E-07,9.059906E-08,0.3671734
103.5537,1.356163E-08,-2.061235E-08,NaN,1.683921E-07,-1.734961E-09,NaN,-1.582583E-06,9.000352E-05,NaN,3.523712E-05,-0.007061408,2.284806E-06,-9.00029E-05,NaN,NaN,1.782458E-07,0.007061499,5.38798E-07,-6.961622E-07,9.059906E-08,0.3671734
103.5734,1.356163E-08,-2.061235E-08,NaN,1.683921E-07,-1.734961E-09,NaN,-1.582583E-06,9.000352E-05,NaN,3.523712E-05,-0.007061408,2.284806E-06,-9.00029E-05,NaN,NaN,1.782458E-07,0.007061499,5.38798E-07,-6.961622E-07,9.059906E-08,0.3671734
103.593,1.356163E-08,-2.061235E-08,NaN,1.683921E-07,-1.734961E-09,NaN,-1.582583E-06,9.000352E-05,NaN,3.523712E-05,-0.007061408,2.284806E-06,-9.00029E-05,NaN,NaN,1.782458E-07,0.007061499,5.38798E-07,-6.961622E-07,9.059906E-08,0.3671734
103.6127,1.356163E-08,-2.061235E-08,NaN,1.683921E-07,-1.734961E-09,NaN,-1.582583E-06,9.000352E-05,NaN,3.523712E-05,-0.007061408,2.284806E-06,-9.00029E-05,NaN,NaN,1.782458E-07,0.007061499,5.38798E-07,-6.961622E-07,9.059906E-08,0.3671734
103.6323,1.356163E-08,-2.061235E-08,NaN,1.683921E-07,-1.734961E-09,NaN,-1.582583E-06,9.000352E-05,NaN,3.523712E-05,-0.007061408,2.284806E-06,-9.00029E-05,NaN,NaN,1.782458E-07,0.007061499,5.38798E-07,-6.961622E-07,9.059906E-08,0.3671734
103.6543,1.356163E-08,-2.061235E-08,NaN,1.683921E-07,-1.734961E-09,NaN,-1.582583E-06,9.000352E-05,NaN,3.523712E-05,-0.007061408,2.284806E-06,-9.00029E-05,NaN,NaN,1.782458E-07,0.007061499,5.38798E-07,-6.961622E-07,9.059906E-08,0.3671734
103.6737,1.356163E-08,-2.061235E-08,NaN,1.683921E-07,-1.734961E-09,NaN,-1.582583E-06,9.000352E-05,NaN,3.523712E-05,-0.007061408,2.284806E-06,-9.00029E-05,NaN,NaN,1.782458E-07,0.007061499,5.38798E-07,-6.961622E-07,9.059906E-08,0.3671734
103.696,1.356163E-08,-2.061235E-08,NaN,1.683921E-07,-1.734961E-09,NaN,-1.582583E-06,9.000352E-05,NaN,3.523712E-05,-0.007061408,2.284806E-06,-9.00029E-05,NaN,NaN,1.782458E-07,0.007061499,5.38798E-07,-6.961622E-07,9.059906E-08,0.3671734
103.7153,1.356163E-08,-2.061235E-08,NaN,1.683921E-07,-1.734961E-09,NaN,-1.582583E-06,9.000352E-05,NaN,3.523712E-05,-0.007061408,2.284806E-06,-9.00029E-05,NaN,NaN,1.782458E-07,0.007061499,5.38798E-07,-6.961622E-07,9.059906E-08,0.3671734
103.7375,1.356163E-08,-2.061235E-08,NaN,1.683921E-07,-1.734961E-09,NaN,-1.582583E-06,9.000352E-05,NaN,3.523712E-05,-0.007061408,2.284806E-06,-9.00029E-05,NaN,NaN,1.782458E-07,0.007061499,5.38798E-07,-6.961622E-07,9.059906E-08,0.3671734
103.7571,1.356163E-08,-2.061235E-08,NaN,1.683921E-07,-1.734961E-09,NaN,-1.582583E-06,9.000352E-05,NaN,3.523712E-05,-0.007061408,2.284806E-06,-9.00029E-05,NaN,NaN,1.782458E-07,0.007061499,5.38798E-07,-6.961622E-07,9.059906E-08,0.3671734
103.7794,1.356163E-08,-2.061235E-08,NaN,1.683921E-07,-1.734961E-09,NaN,-1.582583E-06,9.000352E-05,NaN,3.523712E-05,-0.007061408,2.284806E-06,-9.00029E-05,NaN,NaN,1.782458E-07,0.007061499,5.38798E-07,-6.961622E-07,9.059906E-08,0.3671734
103.7989,1.356163E-08,-2.061235E-08,NaN,1.683921E-07,-1.734961E-09,NaN,-1.582583E-06,9.000352E-05,NaN,3.523712E-05,-0.007061408,2.284806E-06,-9.00029E-05,NaN,NaN,1.782458E-07,0.007061499,5.38798E-07,-6.961622E-07,9.059906E-08,0.3671734
103.8211,1.356163E-08,-2.061235E-08,NaN,1.683921E-07,-1.734961E-09,NaN,-1.582583E-06,9.000352E-05,NaN,3.523712E-05,-0.007061408,2.284806E-06,-9.00029E-05,NaN,NaN,1.782458E-07,0.007061499,5.38798E-07,-6.961622E-07,9.059906E-08,0.3671734
103.8409,1.356163E-08,-2.061235E-08,NaN,1.683921E-07,-1.734961E-09,NaN,-1.582583E-06,9.000352E-05,NaN,3.523712E-05,-0.007061408,2.284806E-06,-9.00029E-05,NaN,NaN,1.782458E-07,0.007061499,5.38798E-07,-6.961622E-07,9.059906E-08,0.3671734
103.8604,1.356163E-08,-2.061235E-08,NaN,1.683921E-07,-1.734961E-09,NaN,-1.582583E-06,9.000352E-05,NaN,3.523712E-05,-0.007061408,2.284806E-06,-9.00029E-05,NaN,NaN,1.782458E-07,0.007061499,5.38798E-07,-6.961622E-07,9.059906E-08,0.3671734
103.8799,1.356163E-08,-2.061235E-08,NaN,1.683921E-07,-1.734961E-09,NaN,-1.582583E-06,9.000352E-05,NaN,3.523712E-05,-0.007061408,2.284806E-06,-9.00029E-05,NaN,NaN,1.782458E-07,0.007061499,5.38798E-07,-6.961622E-07,9.059906E-08,0.3671734
103.8991,1.356163E-08,-2.061235E-08,NaN,1.683921E-07,-1.734961E-09,NaN,-1.582583E-06,9.000352E-05,NaN,3.523712E-05,-0.007061408,2.284806E-06,-9.00029E-05,NaN,NaN,1.782458E-07,0.007061499,5.38798E-07,-6.961622E-07,9.059906E-08,0.3671734
103.9193,1.356163E-08,-2.061235E-08,NaN,1.683921E-07,-1.734961E-09,NaN,-1.582583E-06,9.000352E-05,NaN,3.523712E-05,-0.007061408,2.284806E-06,-9.00029E-05,NaN,NaN,1.782458E-07,0.007061499,5.38798E-07,-6.961622E-07,9.059906E-08,0.3671734
