JMolnar6/NonAnthroHands_User_Study/HandsLoggerWithURDF/tempdata/files/r_shoulder_JointMotion_gesture_1_1.csv
Time,r_shoulder,r_shoulder_x,r_upper_arm,r_forearm,r_wrist,r_wrist2hand,r_gripper_thumb,r_gripper_finger,
80.35658,-0.0087449,-0.0001212349,NaN,0.117783,-8.789056E-06,NaN,-0.04742646,-0.1875596,NaN,-0.008477818,-0.004643517,-0.00789687,0.1875728,NaN,NaN,-0.0003414545,0.004970656,0.005974884,0.0002997869,-2.861025E-08,0.3678194
80.37916,-0.008769415,-0.0001214093,NaN,0.1156698,-8.805976E-06,NaN,0.01314952,-0.1880675,NaN,-0.03618618,-0.004563276,-0.06750751,0.1880806,NaN,NaN,-0.003485987,0.00489197,0.005857661,0.0002863331,-3.814699E-08,0.3677724
80.39036,-0.008766749,-0.0001215839,NaN,0.1134107,-8.822914E-06,NaN,0.06518525,-0.1885702,NaN,-0.08477062,-0.004465578,-0.1186196,0.1885833,NaN,NaN,-0.006275869,0.004796154,0.005158629,0.0002695112,-3.337862E-08,0.3677091
80.40659,-0.008738061,-0.0001217585,NaN,0.1109352,-8.839868E-06,NaN,0.09334005,-0.1890681,NaN,-0.1427241,-0.004353187,-0.1456427,0.1890811,NaN,NaN,-0.008697445,0.004685927,0.003839975,0.0002498164,-4.76839E-09,0.3676375
80.42358,-0.008683551,-0.0001219334,NaN,0.1082007,-8.856842E-06,NaN,0.1060129,-0.1895663,NaN,-0.2021601,-0.004226745,-0.1566696,0.1895792,NaN,NaN,-0.01070389,0.004561919,0.003763849,0.0002273716,1.43051E-08,0.3675565
80.44246,-0.008603724,-0.0001221083,NaN,0.1051873,-8.873835E-06,NaN,0.126991,-0.1900644,NaN,-0.2583771,-0.004089592,-0.1751623,0.1900772,NaN,NaN,-0.01231139,0.004427416,0.003690551,0.0002027838,4.768353E-09,0.3674664
80.45771,-0.008603724,-0.0001221083,NaN,0.1051873,-8.873835E-06,NaN,0.126991,-0.1900644,NaN,-0.2583771,-0.004089592,-0.1751623,0.1900772,NaN,NaN,-0.01231139,0.004427416,0.003690551,0.0002027838,4.768353E-09,0.3674664
80.47265,-0.008577159,-0.0001222834,NaN,0.1020178,-8.890848E-06,NaN,0.1497672,-0.1905614,NaN,-0.3087514,-0.003944846,-0.194195,0.1905741,NaN,NaN,-0.01363741,0.004285483,0.003618561,0.0001766223,-1.430513E-08,0.3673752
80.4904,-0.008599949,-0.0001224586,NaN,0.09869045,-8.907884E-06,NaN,0.1735545,-0.1910592,NaN,-0.3521861,-0.003793255,-0.2126123,0.1910717,NaN,NaN,-0.01473586,0.004136855,0.003547715,0.000149025,-1.90735E-08,0.3672721
80.50702,-0.008672292,-0.000122634,NaN,0.09520679,-8.924943E-06,NaN,0.1981197,-0.1915574,NaN,-0.3884854,-0.003638449,-0.2299972,0.1915699,NaN,NaN,-0.01564602,0.003985098,0.003477942,0.0001206703,-1.430513E-08,0.3671678
80.52412,-0.0087936,-0.0001228094,NaN,0.0916662,-8.942026E-06,NaN,0.2231394,-0.1920582,NaN,-0.4179968,-0.003483288,-0.2460025,0.1920706,NaN,NaN,-0.01639982,0.003833019,0.003409769,9.210531E-05,-1.90735E-08,0.3670655
80.54085,-0.008963137,-0.000122985,NaN,0.08806759,-8.959135E-06,NaN,0.248562,-0.1925631,NaN,-0.4413938,-0.00333072,-0.2607723,0.1925754,NaN,NaN,-0.017023,0.003683513,0.003342942,6.38964E-05,-1.430513E-08,0.3669625
80.55885,-0.008963137,-0.000122985,NaN,0.08806759,-8.959135E-06,NaN,0.248562,-0.1925631,NaN,-0.4413938,-0.00333072,-0.2607723,0.1925754,NaN,NaN,-0.017023,0.003683513,0.003342942,6.38964E-05,-1.430513E-08,0.3669625
80.57301,-0.00918015,-0.0001231607,NaN,0.08441097,-8.976269E-06,NaN,0.2741602,-0.1930685,NaN,-0.4594896,-0.003184115,-0.2744412,0.1930807,NaN,NaN,-0.01753717,0.003539887,0.003277432,3.667832E-05,-1.668932E-08,0.366863
80.59283,-0.009443868,-0.0001233365,NaN,0.08069631,-8.99343E-06,NaN,0.2995847,-0.1935791,NaN,-0.4731282,-0.003045743,-0.2871216,0.1935912,NaN,NaN,-0.01796051,0.003404366,0.003213214,1.091049E-05,-1.90735E-08,0.3667697
80.60999,-0.009753506,-0.0001235124,NaN,0.07692365,-9.01062E-06,NaN,0.3244126,-0.1940953,NaN,-0.4831167,-0.002917426,-0.2988856,0.1941074,NaN,NaN,-0.01830842,0.003278737,0.003150263,-1.304508E-05,-1.668932E-08,0.3666816
80.6263,-0.01010827,-0.0001236885,NaN,0.07309295,-9.027838E-06,NaN,0.348199,-0.1946183,NaN,-0.4901883,-0.002800672,-0.3097609,0.1946303,NaN,NaN,-0.01859388,0.003164475,0.003088552,-3.488154E-05,-1.668932E-08,0.3666019
80.64286,-0.01050735,-0.0001238646,NaN,0.06920423,-9.045085E-06,NaN,0.3705246,-0.1951479,NaN,-0.4949839,-0.002698988,-0.3197384,0.1951599,NaN,NaN,-0.01882789,0.003065017,0.003028054,-5.390571E-05,-9.536761E-09,0.3665326
80.65984,-0.01050735,-0.0001238646,NaN,0.06920423,-9.045085E-06,NaN,0.3705246,-0.1951479,NaN,-0.4949839,-0.002698988,-0.3197384,0.1951599,NaN,NaN,-0.01882789,0.003065017,0.003028054,-5.390571E-05,-9.536761E-09,0.3665326
80.67587,-0.01094995,-0.0001240408,NaN,0.06525747,-9.062362E-06,NaN,0.3910339,-0.1956841,NaN,-0.4980478,-0.00261345,-0.3287891,0.1956961,NaN,NaN,-0.0190197,0.002981417,0.002968747,-6.988712E-05,-9.536761E-09,0.3664736
80.69369,-0.01143525,-0.0001242171,NaN,0.06125267,-9.079668E-06,NaN,0.4094596,-0.1962207,NaN,-0.4998306,-0.00254488,-0.3368812,0.1962326,NaN,NaN,-0.01917708,0.002914477,0.002910603,-8.265889E-05,-7.152575E-09,0.3664292
80.70987,-0.01196242,-0.0001243936,NaN,0.05718983,-9.097005E-06,NaN,0.4256328,-0.1967639,NaN,-0.5006969,-0.002493866,-0.3439944,0.1967758,NaN,NaN,-0.01930647,0.002864768,0.002853598,-9.206396E-05,-7.152575E-09,0.3663921
80.72682,-0.01253065,-0.0001245701,NaN,0.05306895,-9.114371E-06,NaN,0.4394825,-0.1973071,NaN,-0.5009354,-0.002464354,-0.3501284,0.197319,NaN,NaN,-0.01941319,0.002836155,0.002797706,-9.731993E-05,-2.384204E-09,0.3663715
80.74517,-0.01313911,-0.0001247467,NaN,0.04889001,-9.131765E-06,NaN,0.4510261,-0.1978505,NaN,-0.5007692,-0.002456417,-0.3553068,0.1978625,NaN,NaN,-0.01950159,0.002828706,0.002742906,-9.837788E-05,-2.384204E-09,0.3663688
80.76022,-0.01378698,-0.0001249234,NaN,0.04465301,-9.149187E-06,NaN,0.4603543,-0.1983941,NaN,-0.5003661,-0.002470181,-0.3595762,0.1984061,NaN,NaN,-0.0195752,0.002842534,0.002689177,-9.517876E-05,-1.776357E-14,0.3663787
80.77749,-0.01378698,-0.0001249234,NaN,0.04465301,-9.149187E-06,NaN,0.4603543,-0.1983941,NaN,-0.5003661,-0.002470181,-0.3595762,0.1984061,NaN,NaN,-0.0195752,0.002842534,0.002689177,-9.517876E-05,-1.776357E-14,0.3663787
80.793,-0.01447343,-0.0001251002,NaN,0.04035794,-9.166637E-06,NaN,0.4676154,-0.1989377,NaN,-0.4998485,-0.002505488,-0.3630023,0.1989497,NaN,NaN,-0.01963683,0.00287748,0.002636496,-8.771935E-05,2.384168E-09,0.3664048
80.81031,-0.01519763,-0.0001252771,NaN,0.03600482,-9.184115E-06,NaN,0.4729978,-0.1994813,NaN,-0.499302,-0.002558549,-0.3656651,0.1994933,NaN,NaN,-0.01968875,0.002929823,0.002584841,-7.671391E-05,2.384168E-09,0.3664466
80.82704,-0.01595875,-0.0001254541,NaN,0.03159361,-9.20162E-06,NaN,0.4767154,-0.200025,NaN,-0.4987831,-0.002628912,-0.3676529,0.2000371,NaN,NaN,-0.01973275,0.002999112,0.002534195,-6.222363E-05,4.768354E-09,0.366498
80.84364,-0.01675596,-0.0001256312,NaN,0.02712434,-9.21915E-06,NaN,0.478994,-0.2005687,NaN,-0.4983262,-0.002715827,-0.3690579,0.2005809,NaN,NaN,-0.01977024,0.003084606,0.002484532,-4.437022E-05,4.768354E-09,0.3665625
80.86093,-0.01758843,-0.0001258084,NaN,0.02259699,-9.236705E-06,NaN,0.4800606,-0.2011168,NaN,-0.4979489,-0.002818388,-0.369971,0.201129,NaN,NaN,-0.01980234,0.003185413,0.00243584,-2.329594E-05,-1.776357E-14,0.3666411
80.87707,-0.01758843,-0.0001258084,NaN,0.02259699,-9.236705E-06,NaN,0.4800606,-0.2011168,NaN,-0.4979489,-0.002818388,-0.369971,0.201129,NaN,NaN,-0.01980234,0.003185413,0.00243584,-2.329594E-05,-1.776357E-14,0.3666411
80.89303,-0.01845533,-0.0001259857,NaN,0.01801155,-9.254285E-06,NaN,0.4801356,-0.2016645,NaN,-0.4976567,-0.002933201,-0.3704795,0.2016768,NaN,NaN,-0.01982997,0.003298201,0.002388098,3.344794E-07,2.384168E-09,0.366724
80.91041,-0.01935584,-0.0001261631,NaN,0.01336804,-9.271887E-06,NaN,0.4794262,-0.2022123,NaN,-0.4974473,-0.003058976,-0.3706639,0.2022247,NaN,NaN,-0.01985382,0.003421705,0.002341287,2.628326E-05,4.768354E-09,0.3668177
80.92873,-0.02028913,-0.0001263406,NaN,0.008666439,-9.289511E-06,NaN,0.4781223,-0.2027626,NaN,-0.4973128,-0.003194072,-0.3705973,0.2027751,NaN,NaN,-0.01987445,0.003554308,0.002295391,5.424571E-05,7.152539E-09,0.3669214
80.94376,-0.02125438,-0.0001265183,NaN,0.003906759,-9.307154E-06,NaN,0.4763942,-0.2033125,NaN,-0.4972429,-0.003335269,-0.370344,0.2033252,NaN,NaN,-0.01989233,0.003692858,0.00225039,8.358073E-05,2.384168E-09,0.3670258
80.96056,-0.02225077,-0.000126696,NaN,-0.0009110062,-9.324816E-06,NaN,0.4743908,-0.2038632,NaN,-0.4972256,-0.003479742,-0.3699596,0.2038759,NaN,NaN,-0.01990783,0.003834583,0.00220627,0.0001137304,9.536725E-09,0.3671367
80.9786,-0.02225077,-0.000126696,NaN,-0.0009110062,-9.324816E-06,NaN,0.4743908,-0.2038632,NaN,-0.4972256,-0.003479742,-0.3699596,0.2038759,NaN,NaN,-0.01990783,0.003834583,0.00220627,0.0001137304,9.536725E-09,0.3671367
80.99335,-0.02327747,-0.0001268739,NaN,-0.005786854,-9.342497E-06,NaN,0.4722397,-0.2044124,NaN,-0.4972492,-0.003625452,-0.3694912,0.2044253,NaN,NaN,-0.01992127,0.00397749,0.002163013,0.0001442811,1.43051E-08,0.3672487
81.0108,-0.02433367,-0.0001270519,NaN,-0.01072078,-9.360195E-06,NaN,0.4700471,-0.2049612,NaN,-0.4973027,-0.003769262,-0.3689778,0.2049742,NaN,NaN,-0.01993289,0.004118502,0.002120601,0.0001745998,1.668928E-08,0.3673579
81.02746,-0.02541856,-0.00012723,NaN,-0.0157128,-9.377909E-06,NaN,0.4678991,-0.2055069,NaN,-0.4973761,-0.003908559,-0.3684511,0.20552,NaN,NaN,-0.01994291,0.004255065,0.002079021,0.0002041423,1.668928E-08,0.3674681
81.04398,-0.02653133,-0.0001274083,NaN,-0.02076289,-9.395638E-06,NaN,0.4658628,-0.206052,NaN,-0.4974613,-0.004041136,-0.3679359,0.2060653,NaN,NaN,-0.01995153,0.004385019,0.002038253,0.0002324593,1.668928E-08,0.3675711
81.0608,-0.02767117,-0.0001275867,NaN,-0.02587106,-9.413381E-06,NaN,0.4639881,-0.2065972,NaN,-0.4975513,-0.004165104,-0.3674507,0.2066106,NaN,NaN,-0.01995891,0.004506515,0.001998283,0.0002591554,9.536725E-09,0.3676711
81.07741,-0.02767117,-0.0001275867,NaN,-0.02587106,-9.413381E-06,NaN,0.4639881,-0.2065972,NaN,-0.4975513,-0.004165104,-0.3674507,0.2066106,NaN,NaN,-0.01995891,0.004506515,0.001998283,0.0002591554,9.536725E-09,0.3676711
81.0938,-0.02883728,-0.0001277652,NaN,-0.0310373,-9.431138E-06,NaN,0.4623096,-0.2071357,NaN,-0.4976407,-0.004277247,-0.3670092,0.2071493,NaN,NaN,-0.01996518,0.004616416,0.001959098,0.00028353,1.43051E-08,0.3677588
81.11087,-0.03002887,-0.0001279439,NaN,-0.03626161,-9.448909E-06,NaN,0.4608485,-0.2076735,NaN,-0.4977257,-0.004376356,-0.3666201,0.2076872,NaN,NaN,-0.01997049,0.004713534,0.001920681,0.0003053379,1.668928E-08,0.3678363
81.12731,-0.03124514,-0.0001281227,NaN,-0.041544,-9.466693E-06,NaN,0.4596143,-0.2082112,NaN,-0.4978034,-0.004459294,-0.3662886,0.2082249,NaN,NaN,-0.01997493,0.004794809,0.001883016,0.0003239143,1.192091E-08,0.367905
81.14417,-0.03248531,-0.0001283017,NaN,-0.04688444,-9.484489E-06,NaN,0.4586073,-0.2087485,NaN,-0.4978721,-0.004525907,-0.3660165,0.2087624,NaN,NaN,-0.01997862,0.004860091,0.001846091,0.000339201,1.668928E-08,0.36796
81.16172,-0.03374858,-0.0001284808,NaN,-0.05228295,-9.502298E-06,NaN,0.45782,-0.2092856,NaN,-0.4979309,-0.004573851,-0.3658032,0.2092996,NaN,NaN,-0.01998165,0.004907094,0.001809891,0.0003506865,1.668928E-08,0.3680028
81.17743,-0.03374858,-0.0001284808,NaN,-0.05228295,-9.502298E-06,NaN,0.45782,-0.2092856,NaN,-0.4979309,-0.004573851,-0.3658032,0.2092996,NaN,NaN,-0.01998165,0.004907094,0.001809891,0.0003506865,1.668928E-08,0.3680028
81.19357,-0.03503419,-0.0001286601,NaN,-0.0577395,-9.520119E-06,NaN,0.4572389,-0.2098114,NaN,-0.4979795,-0.004604373,-0.3656458,0.2098254,NaN,NaN,-0.0199841,0.004937055,0.0017744,0.0003585511,1.668928E-08,0.3680336
81.21093,-0.03634136,-0.0001288395,NaN,-0.06325411,-9.537952E-06,NaN,0.4568462,-0.2103251,NaN,-0.4980182,-0.004616292,-0.3655403,0.2103391,NaN,NaN,-0.01998606,0.004948825,0.001739605,0.0003625168,1.668928E-08,0.3680487
81.22763,-0.03766932,-0.000129019,NaN,-0.06882676,-9.555798E-06,NaN,0.4566215,-0.2108386,NaN,-0.4980478,-0.004609118,-0.3654815,0.2108527,NaN,NaN,-0.01998759,0.004941919,0.001705493,0.0003625067,1.907347E-08,0.3680485
81.24487,-0.03901732,-0.0001291987,NaN,-0.07445744,-9.573658E-06,NaN,0.4565422,-0.2113519,NaN,-0.498069,-0.004582881,-0.3654635,0.211366,NaN,NaN,-0.01998876,0.004916374,0.001672051,0.0003584978,1.43051E-08,0.3680333
81.2613,-0.04038458,-0.0001293786,NaN,-0.08014614,-9.591531E-06,NaN,0.4565856,-0.2118548,NaN,-0.4980829,-0.004538372,-0.3654802,0.2118688,NaN,NaN,-0.01998962,0.004872978,0.001639263,0.0003505813,1.43051E-08,0.3680066
81.27797,-0.04038458,-0.0001293786,NaN,-0.08014614,-9.591531E-06,NaN,0.4565856,-0.2118548,NaN,-0.4980829,-0.004538372,-0.3654802,0.2118688,NaN,NaN,-0.01998962,0.004872978,0.001639263,0.0003505813,1.43051E-08,0.3680066
81.29424,-0.04177037,-0.0001295586,NaN,-0.08589287,-9.609419E-06,NaN,0.4567291,-0.212348,NaN,-0.4980907,-0.004477053,-0.3655255,0.212362,NaN,NaN,-0.01999024,0.004813166,0.001607121,0.0003390428,1.43051E-08,0.3679663
81.31211,-0.04317394,-0.0001297387,NaN,-0.09169761,-9.627323E-06,NaN,0.4569509,-0.2128413,NaN,-0.4980935,-0.004398023,-0.3655934,0.2128552,NaN,NaN,-0.01999065,0.004736052,0.001575609,0.0003237115,1.668928E-08,0.3679087
81.32879,-0.04459454,-0.000129919,NaN,-0.09756035,-9.645244E-06,NaN,0.4572308,-0.2133263,NaN,-0.4980924,-0.004303817,-0.3656783,0.2133401,NaN,NaN,-0.0199909,0.004644129,0.001544717,0.0003050619,1.668928E-08,0.367843
81.34553,-0.04603145,-0.0001300994,NaN,-0.1034811,-9.663183E-06,NaN,0.4575507,-0.2138051,NaN,-0.4980884,-0.004197273,-0.365775,0.2138188,NaN,NaN,-0.01999101,0.004540172,0.00151443,0.0002836843,1.907347E-08,0.3677648
81.3621,-0.04748393,-0.00013028,NaN,-0.1094598,-9.68114E-06,NaN,0.4578943,-0.2142842,NaN,-0.4980825,-0.004079293,-0.365879,0.2142979,NaN,NaN,-0.01999103,0.00442506,0.001484736,0.0002597808,1.668928E-08,0.367678
81.37957,-0.04748393,-0.00013028,NaN,-0.1094598,-9.68114E-06,NaN,0.4578943,-0.2142842,NaN,-0.4980825,-0.004079293,-0.365879,0.2142979,NaN,NaN,-0.01999103,0.00442506,0.001484736,0.0002597808,1.668928E-08,0.367678
81.3952,-0.04895127,-0.0001304607,NaN,-0.1154965,-9.699117E-06,NaN,0.4582477,-0.2147593,NaN,-0.4980754,-0.003952933,-0.3659864,0.2147728,NaN,NaN,-0.01999097,0.004301786,0.001455627,0.0002339677,1.43051E-08,0.3675852
81.41259,-0.05043274,-0.0001306415,NaN,-0.1215912,-9.717115E-06,NaN,0.4585992,-0.2152323,NaN,-0.498068,-0.003819908,-0.3660939,0.2152457,NaN,NaN,-0.01999086,0.004172029,0.001427088,0.0002066086,1.668928E-08,0.3674842
81.43672,-0.05192764,-0.0001308225,NaN,-0.1277438,-9.735134E-06,NaN,0.4589396,-0.2157058,NaN,-0.4980607,-0.003683036,-0.3661987,0.2157192,NaN,NaN,-0.01999072,0.004038539,0.001399109,0.0001783063,1.907347E-08,0.3673816
81.44628,-0.05343526,-0.0001310035,NaN,-0.1339544,-9.753177E-06,NaN,0.4592613,-0.2161793,NaN,-0.4980541,-0.003544497,-0.3662987,0.2161926,NaN,NaN,-0.01999056,0.003903447,0.00137168,0.0001495196,2.145765E-08,0.367274
81.46317,-0.05495491,-0.0001311847,NaN,-0.1402229,-9.771243E-06,NaN,0.4595591,-0.2166544,NaN,-0.4980485,-0.003406643,-0.3663924,0.2166675,NaN,NaN,-0.01999039,0.003769052,0.001344788,0.0001207569,1.907347E-08,0.3671726
81.47955,-0.05495491,-0.0001311847,NaN,-0.1402229,-9.771243E-06,NaN,0.4595591,-0.2166544,NaN,-0.4980485,-0.003406643,-0.3663924,0.2166675,NaN,NaN,-0.01999039,0.003769052,0.001344788,0.0001207569,1.907347E-08,0.3671726
81.49569,-0.05648587,-0.0001313661,NaN,-0.1465494,-9.789334E-06,NaN,0.4598294,-0.2171321,NaN,-0.4980442,-0.003271856,-0.3664788,0.2171452,NaN,NaN,-0.01999022,0.003637677,0.001318424,9.253359E-05,1.907347E-08,0.3670708
81.51323,-0.05802748,-0.0001315475,NaN,-0.1529337,-9.807452E-06,NaN,0.4600701,-0.2176131,NaN,-0.4980414,-0.003142841,-0.3665572,0.2176261,NaN,NaN,-0.01999005,0.003511964,0.001292576,6.543795E-05,1.907347E-08,0.3669696
81.53033,-0.05957905,-0.000131729,NaN,-0.159376,-9.825596E-06,NaN,0.4602805,-0.2180981,NaN,-0.4980401,-0.003022708,-0.3666272,0.218111,NaN,NaN,-0.0199899,0.003394948,0.001267236,4.01509E-05,1.43051E-08,0.3668774
81.54654,-0.0611399,-0.0001319107,NaN,-0.1658762,-9.843768E-06,NaN,0.4604611,-0.2185875,NaN,-0.4980405,-0.002913048,-0.3666892,0.2186004,NaN,NaN,-0.01998976,0.003288178,0.001242392,1.702872E-05,1.192091E-08,0.3667934
81.56341,-0.06270935,-0.0001320924,NaN,-0.1724342,-9.861968E-06,NaN,0.4606129,-0.2190774,NaN,-0.4980424,-0.002814964,-0.3667432,0.2190902,NaN,NaN,-0.01998963,0.00319273,0.001218036,-3.687233E-06,7.152539E-09,0.3667187
81.58009,-0.06428675,-0.0001322743,NaN,-0.1790501,-9.880195E-06,NaN,0.4607381,-0.2195673,NaN,-0.4980459,-0.002731678,-0.3667899,0.21958,NaN,NaN,-0.01998952,0.003111749,0.001194158,-2.128105E-05,9.536725E-09,0.366653
81.59731,-0.06428675,-0.0001322743,NaN,-0.1790501,-9.880195E-06,NaN,0.4607381,-0.2195673,NaN,-0.4980459,-0.002731678,-0.3667899,0.21958,NaN,NaN,-0.01998952,0.003111749,0.001194158,-2.128105E-05,9.536725E-09,0.366653
81.61269,-0.06587143,-0.0001324562,NaN,-0.1857239,-9.898451E-06,NaN,0.4608389,-0.2200573,NaN,-0.4980507,-0.002664044,-0.3668299,0.22007,NaN,NaN,-0.01998943,0.00304606,0.001170748,-3.554564E-05,1.43051E-08,0.3666
81.63017,-0.06746274,-0.0001326383,NaN,-0.1924555,-9.916734E-06,NaN,0.4609182,-0.2205519,NaN,-0.4980569,-0.002615754,-0.366864,0.2205646,NaN,NaN,-0.01998935,0.002999261,0.001147797,-4.564041E-05,1.668928E-08,0.3665616
81.64732,-0.06906002,-0.0001328205,NaN,-0.1992414,-9.935043E-06,NaN,0.4609762,-0.2210507,NaN,-0.4980634,-0.002587067,-0.3668892,0.2210634,NaN,NaN,-0.01998929,0.002971597,0.001125294,-5.148305E-05,2.384184E-08,0.3665405
81.66344,-0.07066263,-0.0001330027,NaN,-0.2060774,-9.953379E-06,NaN,0.4610148,-0.2215547,NaN,-0.4980692,-0.00257827,-0.3669047,0.2215674,NaN,NaN,-0.01998926,0.002963343,0.001103233,-5.297972E-05,2.145766E-08,0.3665361
81.6807,-0.07226998,-0.0001331851,NaN,-0.2129594,-9.971744E-06,NaN,0.4610378,-0.2220587,NaN,-0.4980741,-0.002586206,-0.3669109,0.2220715,NaN,NaN,-0.01998926,0.002971414,0.001081607,-5.080853E-05,2.384184E-08,0.3665458
81.69687,-0.07226998,-0.0001331851,NaN,-0.2129594,-9.971744E-06,NaN,0.4610378,-0.2220587,NaN,-0.4980741,-0.002586206,-0.3669109,0.2220715,NaN,NaN,-0.01998926,0.002971414,0.001081607,-5.080853E-05,2.384184E-08,0.3665458
81.71279,-0.07388151,-0.0001333675,NaN,-0.2198832,-9.990134E-06,NaN,0.4610489,-0.2225673,NaN,-0.4980779,-0.002613964,-0.366909,0.2225801,NaN,NaN,-0.01998929,0.002998816,0.001060402,-4.425292E-05,2.861021E-08,0.3665653
81.73009,-0.07549667,-0.00013355,NaN,-0.2268447,-1.000855E-05,NaN,0.4610522,-0.2230804,NaN,-0.4980804,-0.002658093,-0.3669007,0.2230932,NaN,NaN,-0.01998933,0.003042176,0.001039614,-3.404507E-05,2.622603E-08,0.3666021
81.74717,-0.07711496,-0.0001337327,NaN,-0.2338397,-1.002699E-05,NaN,0.4610511,-0.2235933,NaN,-0.4980817,-0.002718255,-0.3668876,0.2236062,NaN,NaN,-0.01998939,0.003101162,0.001019232,-2.024678E-05,2.861021E-08,0.3666536
81.76388,-0.07873592,-0.0001339154,NaN,-0.2408639,-1.004546E-05,NaN,0.4610487,-0.2241063,NaN,-0.4980819,-0.002793968,-0.3668711,0.2241192,NaN,NaN,-0.01998946,0.003175297,0.0009992511,-2.940518E-06,2.622603E-08,0.3667136
81.78045,-0.08035909,-0.0001340983,NaN,-0.2479134,-1.006396E-05,NaN,0.4610474,-0.2246194,NaN,-0.498081,-0.002881967,-0.3668524,0.2246324,NaN,NaN,-0.01998953,0.003261394,0.0009796636,1.717165E-05,2.622603E-08,0.3667894
81.79676,-0.08035909,-0.0001340983,NaN,-0.2479134,-1.006396E-05,NaN,0.4610474,-0.2246194,NaN,-0.498081,-0.002881967,-0.3668524,0.2246324,NaN,NaN,-0.01998953,0.003261394,0.0009796636,1.717165E-05,2.622603E-08,0.3667894
81.81278,-0.08198409,-0.0001342812,NaN,-0.2549838,-1.008247E-05,NaN,0.4610492,-0.2251353,NaN,-0.4980791,-0.002981469,-0.3668326,0.2251484,NaN,NaN,-0.01998961,0.003358682,0.0009604594,3.994111E-05,2.622603E-08,0.3668724
81.83012,-0.08361051,-0.0001344643,NaN,-0.2620709,-1.010101E-05,NaN,0.4610553,-0.225651,NaN,-0.4980763,-0.003091376,-0.3668126,0.2256642,NaN,NaN,-0.01998968,0.00346609,0.0009416303,6.513215E-05,3.337858E-08,0.3669621
81.84885,-0.08523802,-0.0001346475,NaN,-0.2691707,-1.011957E-05,NaN,0.4610667,-0.2261666,NaN,-0.4980725,-0.003210197,-0.3667928,0.2261799,NaN,NaN,-0.01998975,0.00358216,0.0009231693,9.24273E-05,3.576277E-08,0.3670613
81.86346,-0.0868663,-0.0001348308,NaN,-0.2762789,-1.013815E-05,NaN,0.4610838,-0.226682,NaN,-0.498068,-0.003334748,-0.3667738,0.2266955,NaN,NaN,-0.01998983,0.003703785,0.00090507,0.0001211252,3.814696E-08,0.3671643
81.88025,-0.08849506,-0.0001350142,NaN,-0.2833914,-1.015675E-05,NaN,0.4611067,-0.2271959,NaN,-0.4980627,-0.003462929,-0.3667558,0.2272094,NaN,NaN,-0.01998989,0.00382892,0.000887327,0.0001507582,4.053114E-08,0.3672753
81.89707,-0.08849506,-0.0001350142,NaN,-0.2833914,-1.015675E-05,NaN,0.4611067,-0.2271959,NaN,-0.4980627,-0.003462929,-0.3667558,0.2272094,NaN,NaN,-0.01998989,0.00382892,0.000887327,0.0001507582,4.053114E-08,0.3672753
81.91294,-0.09012404,-0.0001351977,NaN,-0.2905041,-1.017537E-05,NaN,0.4611354,-0.2277092,NaN,-0.4980568,-0.003591782,-0.3667389,0.2277229,NaN,NaN,-0.01998996,0.003954681,0.0008699331,0.0001806684,4.053114E-08,0.3673846
81.93078,-0.09175301,-0.0001353814,NaN,-0.2976128,-1.0194E-05,NaN,0.4611696,-0.2282225,NaN,-0.4980502,-0.003718769,-0.3667233,0.2282363,NaN,NaN,-0.01999002,0.004078593,0.0008528769,0.0002102848,4.053114E-08,0.3674915
81.94695,-0.09338178,-0.0001355651,NaN,-0.3047134,-1.021265E-05,NaN,0.4612086,-0.2287357,NaN,-0.4980432,-0.003841644,-0.3667089,0.2287497,NaN,NaN,-0.01999007,0.00419847,0.0008361567,0.0002390968,4.529952E-08,0.3675954
81.9644,-0.09501017,-0.000135749,NaN,-0.3118019,-1.023132E-05,NaN,0.4612521,-0.2292427,NaN,-0.4980356,-0.003958452,-0.3666956,0.2292568,NaN,NaN,-0.01999012,0.004312414,0.0008197638,0.0002666319,4.76837E-08,0.367698
81.98026,-0.09663804,-0.0001359331,NaN,-0.3188741,-1.025E-05,NaN,0.4612992,-0.2297416,NaN,-0.4980277,-0.004067557,-0.3666833,0.2297558,NaN,NaN,-0.01999016,0.004418836,0.0008036945,0.0002924996,4.76837E-08,0.3677944
81.99699,-0.09663804,-0.0001359331,NaN,-0.3188741,-1.025E-05,NaN,0.4612992,-0.2297416,NaN,-0.4980277,-0.004067557,-0.3666833,0.2297558,NaN,NaN,-0.01999016,0.004418836,0.0008036945,0.0002924996,4.76837E-08,0.3677944
82.01345,-0.09826528,-0.0001361173,NaN,-0.325926,-1.026869E-05,NaN,0.4613494,-0.2302315,NaN,-0.4980193,-0.004166086,-0.3666719,0.2302459,NaN,NaN,-0.0199902,0.004514944,0.0007879382,0.0003160281,5.006789E-08,0.3678785
82.03029,-0.09989179,-0.0001363016,NaN,-0.3329536,-1.028739E-05,NaN,0.4614019,-0.2307112,NaN,-0.4980107,-0.004252939,-0.3666613,0.2307257,NaN,NaN,-0.01999024,0.00459967,0.0007724916,0.0003369436,5.245208E-08,0.3679567
82.0471,-0.1015175,-0.0001364861,NaN,-0.3399529,-1.030611E-05,NaN,0.4614563,-0.2311795,NaN,-0.4980017,-0.004325195,-0.3666514,0.231194,NaN,NaN,-0.01999027,0.004670179,0.000757348,0.0003545539,4.768371E-08,0.3680184
82.06373,-0.1031425,-0.0001366707,NaN,-0.34692,-1.032484E-05,NaN,0.4615118,-0.2316359,NaN,-0.4979926,-0.004382925,-0.3666419,0.2316506,NaN,NaN,-0.01999031,0.004726543,0.000742502,0.000368851,5.245208E-08,0.3680724
82.08081,-0.1047666,-0.0001368554,NaN,-0.3538508,-1.034359E-05,NaN,0.461568,-0.2320921,NaN,-0.4979832,-0.004424048,-0.3666329,0.2321068,NaN,NaN,-0.01999034,0.004766732,0.0007279475,0.0003793848,5.483626E-08,0.368111
82.09724,-0.1047666,-0.0001368554,NaN,-0.3538508,-1.034359E-05,NaN,0.461568,-0.2320921,NaN,-0.4979832,-0.004424048,-0.3666329,0.2321068,NaN,NaN,-0.01999034,0.004766732,0.0007279475,0.0003793848,5.483626E-08,0.368111
82.11288,-0.1063899,-0.0001370403,NaN,-0.3607416,-1.036235E-05,NaN,0.4616244,-0.232548,NaN,-0.4979737,-0.004446882,-0.3666241,0.2325628,NaN,NaN,-0.01999038,0.004789113,0.0007136766,0.0003857459,5.245208E-08,0.3681328
82.13017,-0.1080125,-0.0001372254,NaN,-0.3675884,-1.038112E-05,NaN,0.4616806,-0.2329913,NaN,-0.4979641,-0.004453294,-0.3666155,0.2330061,NaN,NaN,-0.01999041,0.004795521,0.0006996847,0.0003882872,5.722045E-08,0.3681448
82.14709,-0.1096344,-0.0001374105,NaN,-0.3743875,-1.03999E-05,NaN,0.4617363,-0.2334236,NaN,-0.4979543,-0.00443988,-0.366607,0.2334383,NaN,NaN,-0.01999043,0.00478265,0.0006859679,0.0003862074,5.245208E-08,0.3681383
82.16402,-0.1112558,-0.0001375959,NaN,-0.3811351,-1.041871E-05,NaN,0.4617912,-0.2338558,NaN,-0.4979445,-0.004407182,-0.3665985,0.2338706,NaN,NaN,-0.01999047,0.00475102,0.000672522,0.000379655,5.960463E-08,0.368112
82.1806,-0.1128768,-0.0001377814,NaN,-0.3878274,-1.043752E-05,NaN,0.4618451,-0.2342878,NaN,-0.4979346,-0.004359325,-0.3665901,0.2343026,NaN,NaN,-0.0199905,0.00470465,0.0006593384,0.0003695601,5.245208E-08,0.3680778
82.19707,-0.1128768,-0.0001377814,NaN,-0.3878274,-1.043752E-05,NaN,0.4618451,-0.2342878,NaN,-0.4979346,-0.004359325,-0.3665901,0.2343026,NaN,NaN,-0.0199905,0.00470465,0.0006593384,0.0003695601,5.245208E-08,0.3680778
82.21295,-0.1144975,-0.000137967,NaN,-0.3944611,-1.045635E-05,NaN,0.4618983,-0.2347086,NaN,-0.4979247,-0.004297678,-0.366582,0.2347233,NaN,NaN,-0.01999053,0.004644887,0.0006464137,0.000356175,5.245208E-08,0.3680309
82.23058,-0.1161181,-0.0001381528,NaN,-0.4010362,-1.04752E-05,NaN,0.461953,-0.2351216,NaN,-0.4979157,-0.004219325,-0.3665777,0.2351362,NaN,NaN,-0.01999054,0.004568896,0.0006337418,0.0003388211,5.006789E-08,0.3679652
82.24759,-0.1177388,-0.0001383387,NaN,-0.4075527,-1.049407E-05,NaN,0.4620096,-0.2355258,NaN,-0.4979083,-0.004129358,-0.3665784,0.2355403,NaN,NaN,-0.01999054,0.004481634,0.0006213166,0.0003186614,4.529952E-08,0.3678931
82.26395,-0.1193599,-0.0001385247,NaN,-0.4140106,-1.051295E-05,NaN,0.4620674,-0.2359232,NaN,-0.4979023,-0.004028461,-0.3665839,0.2359377,NaN,NaN,-0.01999052,0.004383767,0.000609137,0.0002958527,4.291533E-08,0.3678128
82.28034,-0.1209815,-0.0001387109,NaN,-0.4204099,-1.053186E-05,NaN,0.4621251,-0.236315,NaN,-0.497898,-0.003919402,-0.3665938,0.2363294,NaN,NaN,-0.01999049,0.004277987,0.0005971964,0.0002710356,4.291533E-08,0.367721
82.29723,-0.1209815,-0.0001387109,NaN,-0.4204099,-1.053186E-05,NaN,0.4621251,-0.236315,NaN,-0.497898,-0.003919402,-0.3665938,0.2363294,NaN,NaN,-0.01999049,0.004277987,0.0005971964,0.0002710356,4.291533E-08,0.367721
82.3148,-0.1226037,-0.0001388972,NaN,-0.4267507,-1.055078E-05,NaN,0.4621816,-0.2367033,NaN,-0.4978951,-0.003802401,-0.366607,0.2367176,NaN,NaN,-0.01999044,0.00416451,0.0005854891,0.0002442618,4.053114E-08,0.3676217
82.3311,-0.1242269,-0.0001390837,NaN,-0.4330328,-1.056973E-05,NaN,0.4622358,-0.2370891,NaN,-0.4978935,-0.003680644,-0.3666228,0.2371033,NaN,NaN,-0.01999039,0.004046433,0.0005740126,0.0002162743,3.814696E-08,0.3675208
82.34721,-0.1258511,-0.0001392702,NaN,-0.4392562,-1.05887E-05,NaN,0.4622871,-0.2374753,NaN,-0.4978931,-0.00355631,-0.3666403,0.2374894,NaN,NaN,-0.01999033,0.003925873,0.0005627595,0.0001875914,3.337859E-08,0.3674174
82.364,-0.1274765,-0.0001394569,NaN,-0.445421,-1.060769E-05,NaN,0.462335,-0.2378609,NaN,-0.4978937,-0.003431981,-0.3666588,0.2378749,NaN,NaN,-0.01999027,0.003805339,0.0005517276,0.0001588135,3.576277E-08,0.3673137
82.38065,-0.1291033,-0.0001396437,NaN,-0.4515272,-1.062671E-05,NaN,0.4623792,-0.2382469,NaN,-0.4978952,-0.003310069,-0.366678,0.2382608,NaN,NaN,-0.0199902,0.003687178,0.0005409141,0.0001305132,3.814696E-08,0.3672065
82.39727,-0.1291033,-0.0001396437,NaN,-0.4515272,-1.062671E-05,NaN,0.4623792,-0.2382469,NaN,-0.4978952,-0.003310069,-0.366678,0.2382608,NaN,NaN,-0.0199902,0.003687178,0.0005409141,0.0001305132,3.814696E-08,0.3672065
82.41372,-0.1307317,-0.0001398306,NaN,-0.4575748,-1.064575E-05,NaN,0.4624199,-0.238633,NaN,-0.4978973,-0.003193272,-0.3666973,0.2386468,NaN,NaN,-0.01999013,0.003574008,0.0005303104,0.0001033279,3.814696E-08,0.3671096
82.43056,-0.1323619,-0.0001400177,NaN,-0.4635637,-1.066482E-05,NaN,0.4624571,-0.2390213,NaN,-0.4978999,-0.003083316,-0.3667166,0.239035,NaN,NaN,-0.01999007,0.003467506,0.0005199169,7.767868E-05,3.814696E-08,0.3670145
82.44745,-0.133994,-0.0001402048,NaN,-0.4694939,-1.068392E-05,NaN,0.4624912,-0.2394129,NaN,-0.4979031,-0.002981544,-0.3667356,0.2394265,NaN,NaN,-0.01999,0.003368973,0.0005097275,5.389362E-05,3.337859E-08,0.3669292
82.46412,-0.1356282,-0.0001403921,NaN,-0.4753655,-1.070304E-05,NaN,0.4625226,-0.2398049,NaN,-0.4979066,-0.002890539,-0.3667544,0.2398185,NaN,NaN,-0.01998993,0.003280918,0.0004997368,3.258513E-05,3.09944E-08,0.3668511
82.4811,-0.1372647,-0.0001405794,NaN,-0.4811785,-1.072219E-05,NaN,0.4625518,-0.2402009,NaN,-0.4979103,-0.002811326,-0.3667728,0.2402145,NaN,NaN,-0.01998987,0.003204332,0.0004899411,1.401903E-05,3.09944E-08,0.3667839
82.49757,-0.1372647,-0.0001405794,NaN,-0.4811785,-1.072219E-05,NaN,0.4625518,-0.2402009,NaN,-0.4979103,-0.002811326,-0.3667728,0.2402145,NaN,NaN,-0.01998987,0.003204332,0.0004899411,1.401903E-05,3.09944E-08,0.3667839
82.51358,-0.1389037,-0.0001407669,NaN,-0.4869327,-1.074137E-05,NaN,0.4625791,-0.2405971,NaN,-0.4979143,-0.002746844,-0.3667909,0.2406107,NaN,NaN,-0.01998981,0.003142068,0.0004803376,-1.103247E-06,3.576277E-08,0.366727
82.5308,-0.1405453,-0.0001409544,NaN,-0.4926283,-1.076058E-05,NaN,0.462605,-0.2409977,NaN,-0.4979184,-0.002697536,-0.3668087,0.2410112,NaN,NaN,-0.01998975,0.00309455,0.0004709222,-1.264831E-05,3.337859E-08,0.3666835
82.54764,-0.1421898,-0.0001411421,NaN,-0.4982652,-1.077982E-05,NaN,0.46263,-0.2413985,NaN,-0.4979225,-0.002663769,-0.3668262,0.241412,NaN,NaN,-0.01998969,0.003062133,0.0004616924,-2.05224E-05,3.576277E-08,0.3666549
82.56506,-0.1438372,-0.0001413298,NaN,-0.5038434,-1.079908E-05,NaN,0.4626544,-0.2417994,NaN,-0.4979267,-0.002648803,-0.3668436,0.2418129,NaN,NaN,-0.01998963,0.003047979,0.0004526405,-2.39281E-05,3.576277E-08,0.3666411
82.58136,-0.1454878,-0.0001415177,NaN,-0.509363,-1.081838E-05,NaN,0.4626785,-0.2422042,NaN,-0.4979309,-0.002649709,-0.3668609,0.2422177,NaN,NaN,-0.01998957,0.003049236,0.0004437705,-2.353511E-05,3.814696E-08,0.366641
82.59795,-0.1454878,-0.0001415177,NaN,-0.509363,-1.081838E-05,NaN,0.4626785,-0.2422042,NaN,-0.4979309,-0.002649709,-0.3668609,0.2422177,NaN,NaN,-0.01998957,0.003049236,0.0004437705,-2.353511E-05,3.814696E-08,0.366641
82.61397,-0.1471418,-0.0001417056,NaN,-0.5148239,-1.08377E-05,NaN,0.4627026,-0.2426134,NaN,-0.497935,-0.002666363,-0.3668781,0.2426269,NaN,NaN,-0.01998951,0.003065778,0.0004350723,-1.935346E-05,3.814696E-08,0.3666576
82.63131,-0.1487993,-0.0001418937,NaN,-0.520226,-1.085705E-05,NaN,0.4627269,-0.2430227,NaN,-0.497939,-0.002698673,-0.3668953,0.2430362,NaN,NaN,-0.01998945,0.003097513,0.0004265438,-1.139786E-05,4.291533E-08,0.3666852
82.64915,-0.1504605,-0.0001420819,NaN,-0.5255694,-1.087642E-05,NaN,0.4627517,-0.243432,NaN,-0.497943,-0.002746262,-0.3669124,0.2434456,NaN,NaN,-0.01998939,0.003144072,0.0004181846,2.599963E-07,4.291533E-08,0.366728
82.66511,-0.1521257,-0.0001422701,NaN,-0.5308542,-1.089582E-05,NaN,0.4627769,-0.2438439,NaN,-0.4979468,-0.002808602,-0.3669297,0.2438576,NaN,NaN,-0.01998933,0.003204936,0.0004099907,1.551761E-05,4.053114E-08,0.366785
82.6818,-0.1537949,-0.0001424585,NaN,-0.5360802,-1.091525E-05,NaN,0.4628027,-0.2442588,NaN,-0.4979505,-0.002882954,-0.3669469,0.2442725,NaN,NaN,-0.01998927,0.003277442,0.0004019554,3.373264E-05,4.053114E-08,0.366851
82.69861,-0.1537949,-0.0001424585,NaN,-0.5360802,-1.091525E-05,NaN,0.4628027,-0.2442588,NaN,-0.4979505,-0.002882954,-0.3669469,0.2442725,NaN,NaN,-0.01998927,0.003277442,0.0004019554,3.373264E-05,4.053114E-08,0.366851
82.71666,-0.1554684,-0.000142647,NaN,-0.5412475,-1.093469E-05,NaN,0.4628292,-0.2446754,NaN,-0.4979541,-0.002968589,-0.3669642,0.2446893,NaN,NaN,-0.01998921,0.00336088,0.000394078,5.474065E-05,3.814696E-08,0.3669252
82.7323,-0.1571465,-0.0001428355,NaN,-0.546356,-1.095417E-05,NaN,0.4628563,-0.2450918,NaN,-0.4979575,-0.003062988,-0.3669816,0.2451057,NaN,NaN,-0.01998915,0.003452805,0.0003863556,7.793964E-05,4.053114E-08,0.3670098
82.74911,-0.1588292,-0.0001430242,NaN,-0.5514058,-1.097366E-05,NaN,0.4628839,-0.2455082,NaN,-0.4979608,-0.003165063,-0.366999,0.2455222,NaN,NaN,-0.01998909,0.003552155,0.0003787835,0.0001030765,3.337859E-08,0.3671022
82.76572,-0.1605168,-0.000143213,NaN,-0.556397,-1.099318E-05,NaN,0.4629121,-0.2459245,NaN,-0.4979639,-0.003273386,-0.3670165,0.2459387,NaN,NaN,-0.01998903,0.003657546,0.0003713591,0.0001298139,3.576277E-08,0.3672006
82.78267,-0.1622095,-0.000143402,NaN,-0.5613293,-1.101271E-05,NaN,0.4629408,-0.2463394,NaN,-0.4979669,-0.003385454,-0.367034,0.2463536,NaN,NaN,-0.01998897,0.003766549,0.0003640808,0.000157545,3.576277E-08,0.3673031
82.79979,-0.1622095,-0.000143402,NaN,-0.5613293,-1.101271E-05,NaN,0.4629408,-0.2463394,NaN,-0.4979669,-0.003385454,-0.367034,0.2463536,NaN,NaN,-0.01998897,0.003766549,0.0003640808,0.000157545,3.576277E-08,0.3673031
82.8155,-0.1639075,-0.000143591,NaN,-0.5662029,-1.103227E-05,NaN,0.4629698,-0.2467538,NaN,-0.4979697,-0.003499346,-0.3670514,0.2467682,NaN,NaN,-0.01998891,0.003877298,0.0003569467,0.000185809,3.814696E-08,0.3674033
82.83291,-0.165611,-0.0001437802,NaN,-0.5710177,-1.105184E-05,NaN,0.4629991,-0.2471647,NaN,-0.4979724,-0.003612634,-0.3670689,0.2471792,NaN,NaN,-0.01998885,0.003987442,0.0003499539,0.0002140044,4.291533E-08,0.3675064
82.84953,-0.1673202,-0.0001439695,NaN,-0.5757738,-1.107143E-05,NaN,0.4630286,-0.2475707,NaN,-0.4979749,-0.003723196,-0.3670862,0.2475853,NaN,NaN,-0.01998879,0.004094922,0.0003430958,0.0002416044,4.053114E-08,0.3676066
82.86642,-0.1690354,-0.0001441589,NaN,-0.5804711,-1.109104E-05,NaN,0.4630583,-0.247976,NaN,-0.4979773,-0.003829136,-0.3671035,0.2479907,NaN,NaN,-0.01998873,0.004197902,0.0003363736,0.0002681559,3.814696E-08,0.3677053
82.88363,-0.1707567,-0.0001443484,NaN,-0.5851096,-1.111066E-05,NaN,0.463088,-0.2483743,NaN,-0.4979795,-0.003927809,-0.3671208,0.2483892,NaN,NaN,-0.01998867,0.004293821,0.0003297831,0.0002929802,4.053114E-08,0.3677962
82.9,-0.1724844,-0.0001445381,NaN,-0.5896893,-1.11303E-05,NaN,0.4631177,-0.248764,NaN,-0.4979816,-0.004017717,-0.3671379,0.248779,NaN,NaN,-0.01998861,0.004381233,0.000323322,0.0003156922,3.814696E-08,0.3678773
82.91692,-0.1724844,-0.0001445381,NaN,-0.5896893,-1.11303E-05,NaN,0.4631177,-0.248764,NaN,-0.4979816,-0.004017717,-0.3671379,0.248779,NaN,NaN,-0.01998861,0.004381233,0.000323322,0.0003156922,3.814696E-08,0.3678773
82.93287,-0.1742188,-0.000144728,NaN,-0.5942103,-1.114996E-05,NaN,0.4631473,-0.249153,NaN,-0.4979835,-0.00409586,-0.3671549,0.2491681,NaN,NaN,-0.01998855,0.004457226,0.0003169872,0.0003355719,4.053114E-08,0.3679519
82.95091,-0.17596,-0.0001449179,NaN,-0.5986724,-1.116963E-05,NaN,0.4631767,-0.2495323,NaN,-0.4979853,-0.004161754,-0.3671718,0.2495475,NaN,NaN,-0.01998849,0.004521343,0.0003107782,0.0003524504,4.053114E-08,0.3680119
82.96752,-0.1777084,-0.000145108,NaN,-0.6030758,-1.118931E-05,NaN,0.4632058,-0.2499013,NaN,-0.4979869,-0.004212705,-0.3671885,0.2499166,NaN,NaN,-0.01998843,0.004570978,0.0003046908,0.000365645,4.291533E-08,0.3680626
82.9844,-0.1794641,-0.0001452983,NaN,-0.6074203,-1.120901E-05,NaN,0.4632348,-0.2502702,NaN,-0.4979884,-0.004249303,-0.367205,0.2502855,NaN,NaN,-0.01998838,0.004606696,0.0002987238,0.0003753245,4.529952E-08,0.3680972
83.00147,-0.1812274,-0.0001454887,NaN,-0.6117061,-1.122873E-05,NaN,0.4632634,-0.2506387,NaN,-0.4979898,-0.004272719,-0.3672214,0.2506541,NaN,NaN,-0.01998832,0.004629637,0.0002928712,0.0003817631,4.768371E-08,0.3681217
83.01822,-0.1812274,-0.0001454887,NaN,-0.6117061,-1.122873E-05,NaN,0.4632634,-0.2506387,NaN,-0.4979898,-0.004272719,-0.3672214,0.2506541,NaN,NaN,-0.01998832,0.004629637,0.0002928712,0.0003817631,4.768371E-08,0.3681217
83.03403,-0.1829985,-0.0001456792,NaN,-0.615933,-1.124846E-05,NaN,0.4632916,-0.2509961,NaN,-0.497991,-0.00427939,-0.3672375,0.2510115,NaN,NaN,-0.01998826,0.004636363,0.0002871343,0.0003840183,4.529952E-08,0.3681281
