JMolnar6/NonAnthroHands_User_Study/HandsLoggerWithURDF/tempdata/files/r_shoulder_JointMotion_gesture_11_12.csv
Time,r_shoulder,r_shoulder_x,r_upper_arm,r_forearm,r_wrist,r_wrist2hand,r_gripper_thumb,r_gripper_finger,
617.8231,1.356163E-08,-2.061235E-08,NaN,1.683921E-07,-1.734961E-09,NaN,-1.582583E-06,9.000352E-05,NaN,3.523712E-05,-0.007061408,2.284806E-06,-9.00029E-05,NaN,NaN,1.782458E-07,0.007061499,5.38798E-07,-6.961622E-07,9.059906E-08,0.3671734
617.8411,1.356163E-08,-2.061235E-08,NaN,1.683921E-07,-1.734961E-09,NaN,-1.582583E-06,9.000352E-05,NaN,3.523712E-05,-0.007061408,2.284806E-06,-9.00029E-05,NaN,NaN,1.782458E-07,0.007061499,5.38798E-07,-6.961622E-07,9.059906E-08,0.3671734
617.8578,1.356163E-08,-2.061235E-08,NaN,1.683921E-07,-1.734961E-09,NaN,-1.582583E-06,9.000352E-05,NaN,3.523712E-05,-0.007061408,2.284806E-06,-9.00029E-05,NaN,NaN,1.782458E-07,0.007061499,5.38798E-07,-6.961622E-07,9.059906E-08,0.3671734
617.875,1.356163E-08,-2.061235E-08,NaN,1.683921E-07,-1.734961E-09,NaN,-1.582583E-06,9.000352E-05,NaN,3.523712E-05,-0.007061408,2.284806E-06,-9.00029E-05,NaN,NaN,1.782458E-07,0.007061499,5.38798E-07,-6.961622E-07,9.059906E-08,0.3671734
617.8925,1.356163E-08,-2.061235E-08,NaN,1.683921E-07,-1.734961E-09,NaN,-1.582583E-06,9.000352E-05,NaN,3.523712E-05,-0.007061408,2.284806E-06,-9.00029E-05,NaN,NaN,1.782458E-07,0.007061499,5.38798E-07,-6.961622E-07,9.059906E-08,0.3671734
617.91,1.356163E-08,-2.061235E-08,NaN,1.683921E-07,-1.734961E-09,NaN,-1.582583E-06,9.000352E-05,NaN,3.523712E-05,-0.007061408,2.284806E-06,-9.00029E-05,NaN,NaN,1.782458E-07,0.007061499,5.38798E-07,-6.961622E-07,9.059906E-08,0.3671734
617.9275,1.356163E-08,-2.061235E-08,NaN,1.683921E-07,-1.734961E-09,NaN,-1.582583E-06,9.000352E-05,NaN,3.523712E-05,-0.007061408,2.284806E-06,-9.00029E-05,NaN,NaN,1.782458E-07,0.007061499,5.38798E-07,-6.961622E-07,9.059906E-08,0.3671734
617.9446,1.356163E-08,-2.061235E-08,NaN,1.683921E-07,-1.734961E-09,NaN,-1.582583E-06,9.000352E-05,NaN,3.523712E-05,-0.007061408,2.284806E-06,-9.00029E-05,NaN,NaN,1.782458E-07,0.007061499,5.38798E-07,-6.961622E-07,9.059906E-08,0.3671734
617.9619,1.356163E-08,-2.061235E-08,NaN,1.683921E-07,-1.734961E-09,NaN,-1.582583E-06,9.000352E-05,NaN,3.523712E-05,-0.007061408,2.284806E-06,-9.00029E-05,NaN,NaN,1.782458E-07,0.007061499,5.38798E-07,-6.961622E-07,9.059906E-08,0.3671734
617.9796,1.356163E-08,-2.061235E-08,NaN,1.683921E-07,-1.734961E-09,NaN,-1.582583E-06,9.000352E-05,NaN,3.523712E-05,-0.007061408,2.284806E-06,-9.00029E-05,NaN,NaN,1.782458E-07,0.007061499,5.38798E-07,-6.961622E-07,9.059906E-08,0.3671734
617.9964,1.356163E-08,-2.061235E-08,NaN,1.683921E-07,-1.734961E-09,NaN,-1.582583E-06,9.000352E-05,NaN,3.523712E-05,-0.007061408,2.284806E-06,-9.00029E-05,NaN,NaN,1.782458E-07,0.007061499,5.38798E-07,-6.961622E-07,9.059906E-08,0.3671734
618.0143,1.356163E-08,-2.061235E-08,NaN,1.683921E-07,-1.734961E-09,NaN,-1.582583E-06,9.000352E-05,NaN,3.523712E-05,-0.007061408,2.284806E-06,-9.00029E-05,NaN,NaN,1.782458E-07,0.007061499,5.38798E-07,-6.961622E-07,9.059906E-08,0.3671734
618.0313,1.356163E-08,-2.061235E-08,NaN,1.683921E-07,-1.734961E-09,NaN,-1.582583E-06,9.000352E-05,NaN,3.523712E-05,-0.007061408,2.284806E-06,-9.00029E-05,NaN,NaN,1.782458E-07,0.007061499,5.38798E-07,-6.961622E-07,9.059906E-08,0.3671734
618.0489,1.356163E-08,-2.061235E-08,NaN,1.683921E-07,-1.734961E-09,NaN,-1.582583E-06,9.000352E-05,NaN,3.523712E-05,-0.007061408,2.284806E-06,-9.00029E-05,NaN,NaN,1.782458E-07,0.007061499,5.38798E-07,-6.961622E-07,9.059906E-08,0.3671734
618.0662,1.356163E-08,-2.061235E-08,NaN,1.683921E-07,-1.734961E-09,NaN,-1.582583E-06,9.000352E-05,NaN,3.523712E-05,-0.007061408,2.284806E-06,-9.00029E-05,NaN,NaN,1.782458E-07,0.007061499,5.38798E-07,-6.961622E-07,9.059906E-08,0.3671734
618.0836,1.356163E-08,-2.061235E-08,NaN,1.683921E-07,-1.734961E-09,NaN,-1.582583E-06,9.000352E-05,NaN,3.523712E-05,-0.007061408,2.284806E-06,-9.00029E-05,NaN,NaN,1.782458E-07,0.007061499,5.38798E-07,-6.961622E-07,9.059906E-08,0.3671734
618.1011,1.356163E-08,-2.061235E-08,NaN,1.683921E-07,-1.734961E-09,NaN,-1.582583E-06,9.000352E-05,NaN,3.523712E-05,-0.007061408,2.284806E-06,-9.00029E-05,NaN,NaN,1.782458E-07,0.007061499,5.38798E-07,-6.961622E-07,9.059906E-08,0.3671734
618.1183,1.356163E-08,-2.061235E-08,NaN,1.683921E-07,-1.734961E-09,NaN,-1.582583E-06,9.000352E-05,NaN,3.523712E-05,-0.007061408,2.284806E-06,-9.00029E-05,NaN,NaN,1.782458E-07,0.007061499,5.38798E-07,-6.961622E-07,9.059906E-08,0.3671734
618.1353,1.356163E-08,-2.061235E-08,NaN,1.683921E-07,-1.734961E-09,NaN,-1.582583E-06,9.000352E-05,NaN,3.523712E-05,-0.007061408,2.284806E-06,-9.00029E-05,NaN,NaN,1.782458E-07,0.007061499,5.38798E-07,-6.961622E-07,9.059906E-08,0.3671734
618.1532,1.356163E-08,-2.061235E-08,NaN,1.683921E-07,-1.734961E-09,NaN,-1.582583E-06,9.000352E-05,NaN,3.523712E-05,-0.007061408,2.284806E-06,-9.00029E-05,NaN,NaN,1.782458E-07,0.007061499,5.38798E-07,-6.961622E-07,9.059906E-08,0.3671734
618.1705,1.356163E-08,-2.061235E-08,NaN,1.683921E-07,-1.734961E-09,NaN,-1.582583E-06,9.000352E-05,NaN,3.523712E-05,-0.007061408,2.284806E-06,-9.00029E-05,NaN,NaN,1.782458E-07,0.007061499,5.38798E-07,-6.961622E-07,9.059906E-08,0.3671734
618.1882,1.356163E-08,-2.061235E-08,NaN,1.683921E-07,-1.734961E-09,NaN,-1.582583E-06,9.000352E-05,NaN,3.523712E-05,-0.007061408,2.284806E-06,-9.00029E-05,NaN,NaN,1.782458E-07,0.007061499,5.38798E-07,-6.961622E-07,9.059906E-08,0.3671734
618.2057,1.356163E-08,-2.061235E-08,NaN,1.683921E-07,-1.734961E-09,NaN,-1.582583E-06,9.000352E-05,NaN,3.523712E-05,-0.007061408,2.284806E-06,-9.00029E-05,NaN,NaN,1.782458E-07,0.007061499,5.38798E-07,-6.961622E-07,9.059906E-08,0.3671734
618.223,1.356163E-08,-2.061235E-08,NaN,1.683921E-07,-1.734961E-09,NaN,-1.582583E-06,9.000352E-05,NaN,3.523712E-05,-0.007061408,2.284806E-06,-9.00029E-05,NaN,NaN,1.782458E-07,0.007061499,5.38798E-07,-6.961622E-07,9.059906E-08,0.3671734
618.2403,1.356163E-08,-2.061235E-08,NaN,1.683921E-07,-1.734961E-09,NaN,-1.582583E-06,9.000352E-05,NaN,3.523712E-05,-0.007061408,2.284806E-06,-9.00029E-05,NaN,NaN,1.782458E-07,0.007061499,5.38798E-07,-6.961622E-07,9.059906E-08,0.3671734
618.2577,1.356163E-08,-2.061235E-08,NaN,1.683921E-07,-1.734961E-09,NaN,-1.582583E-06,9.000352E-05,NaN,3.523712E-05,-0.007061408,2.284806E-06,-9.00029E-05,NaN,NaN,1.782458E-07,0.007061499,5.38798E-07,-6.961622E-07,9.059906E-08,0.3671734
618.2747,1.356163E-08,-2.061235E-08,NaN,1.683921E-07,-1.734961E-09,NaN,-1.582583E-06,9.000352E-05,NaN,3.523712E-05,-0.007061408,2.284806E-06,-9.00029E-05,NaN,NaN,1.782458E-07,0.007061499,5.38798E-07,-6.961622E-07,9.059906E-08,0.3671734
618.2926,1.356163E-08,-2.061235E-08,NaN,1.683921E-07,-1.734961E-09,NaN,-1.582583E-06,9.000352E-05,NaN,3.523712E-05,-0.007061408,2.284806E-06,-9.00029E-05,NaN,NaN,1.782458E-07,0.007061499,5.38798E-07,-6.961622E-07,9.059906E-08,0.3671734
618.31,1.356163E-08,-2.061235E-08,NaN,1.683921E-07,-1.734961E-09,NaN,-1.582583E-06,9.000352E-05,NaN,3.523712E-05,-0.007061408,2.284806E-06,-9.00029E-05,NaN,NaN,1.782458E-07,0.007061499,5.38798E-07,-6.961622E-07,9.059906E-08,0.3671734
618.3272,1.356163E-08,-2.061235E-08,NaN,1.683921E-07,-1.734961E-09,NaN,-1.582583E-06,9.000352E-05,NaN,3.523712E-05,-0.007061408,2.284806E-06,-9.00029E-05,NaN,NaN,1.782458E-07,0.007061499,5.38798E-07,-6.961622E-07,9.059906E-08,0.3671734
618.3445,1.356163E-08,-2.061235E-08,NaN,1.683921E-07,-1.734961E-09,NaN,-1.582583E-06,9.000352E-05,NaN,3.523712E-05,-0.007061408,2.284806E-06,-9.00029E-05,NaN,NaN,1.782458E-07,0.007061499,5.38798E-07,-6.961622E-07,9.059906E-08,0.3671734
618.362,1.356163E-08,-2.061235E-08,NaN,1.683921E-07,-1.734961E-09,NaN,-1.582583E-06,9.000352E-05,NaN,3.523712E-05,-0.007061408,2.284806E-06,-9.00029E-05,NaN,NaN,1.782458E-07,0.007061499,5.38798E-07,-6.961622E-07,9.059906E-08,0.3671734
618.3793,1.356163E-08,-2.061235E-08,NaN,1.683921E-07,-1.734961E-09,NaN,-1.582583E-06,9.000352E-05,NaN,3.523712E-05,-0.007061408,2.284806E-06,-9.00029E-05,NaN,NaN,1.782458E-07,0.007061499,5.38798E-07,-6.961622E-07,9.059906E-08,0.3671734
618.3964,1.356163E-08,-2.061235E-08,NaN,1.683921E-07,-1.734961E-09,NaN,-1.582583E-06,9.000352E-05,NaN,3.523712E-05,-0.007061408,2.284806E-06,-9.00029E-05,NaN,NaN,1.782458E-07,0.007061499,5.38798E-07,-6.961622E-07,9.059906E-08,0.3671734
618.4141,1.356163E-08,-2.061235E-08,NaN,1.683921E-07,-1.734961E-09,NaN,-1.582583E-06,9.000352E-05,NaN,3.523712E-05,-0.007061408,2.284806E-06,-9.00029E-05,NaN,NaN,1.782458E-07,0.007061499,5.38798E-07,-6.961622E-07,9.059906E-08,0.3671734
618.4315,1.356163E-08,-2.061235E-08,NaN,1.683921E-07,-1.734961E-09,NaN,-1.582583E-06,9.000352E-05,NaN,3.523712E-05,-0.007061408,2.284806E-06,-9.00029E-05,NaN,NaN,1.782458E-07,0.007061499,5.38798E-07,-6.961622E-07,9.059906E-08,0.3671734
618.4485,1.356163E-08,-2.061235E-08,NaN,1.683921E-07,-1.734961E-09,NaN,-1.582583E-06,9.000352E-05,NaN,3.523712E-05,-0.007061408,2.284806E-06,-9.00029E-05,NaN,NaN,1.782458E-07,0.007061499,5.38798E-07,-6.961622E-07,9.059906E-08,0.3671734
618.466,1.356163E-08,-2.061235E-08,NaN,1.683921E-07,-1.734961E-09,NaN,-1.582583E-06,9.000352E-05,NaN,3.523712E-05,-0.007061408,2.284806E-06,-9.00029E-05,NaN,NaN,1.782458E-07,0.007061499,5.38798E-07,-6.961622E-07,9.059906E-08,0.3671734
618.4833,1.356163E-08,-2.061235E-08,NaN,1.683921E-07,-1.734961E-09,NaN,-1.582583E-06,9.000352E-05,NaN,3.523712E-05,-0.007061408,2.284806E-06,-9.00029E-05,NaN,NaN,1.782458E-07,0.007061499,5.38798E-07,-6.961622E-07,9.059906E-08,0.3671734
618.5009,1.356163E-08,-2.061235E-08,NaN,1.683921E-07,-1.734961E-09,NaN,-1.582583E-06,9.000352E-05,NaN,3.523712E-05,-0.007061408,2.284806E-06,-9.00029E-05,NaN,NaN,1.782458E-07,0.007061499,5.38798E-07,-6.961622E-07,9.059906E-08,0.3671734
618.5181,1.356163E-08,-2.061235E-08,NaN,1.683921E-07,-1.734961E-09,NaN,-1.582583E-06,9.000352E-05,NaN,3.523712E-05,-0.007061408,2.284806E-06,-9.00029E-05,NaN,NaN,1.782458E-07,0.007061499,5.38798E-07,-6.961622E-07,9.059906E-08,0.3671734
618.5353,1.356163E-08,-2.061235E-08,NaN,1.683921E-07,-1.734961E-09,NaN,-1.582583E-06,9.000352E-05,NaN,3.523712E-05,-0.007061408,2.284806E-06,-9.00029E-05,NaN,NaN,1.782458E-07,0.007061499,5.38798E-07,-6.961622E-07,9.059906E-08,0.3671734
618.5529,1.356163E-08,-2.061235E-08,NaN,1.683921E-07,-1.734961E-09,NaN,-1.582583E-06,9.000352E-05,NaN,3.523712E-05,-0.007061408,2.284806E-06,-9.00029E-05,NaN,NaN,1.782458E-07,0.007061499,5.38798E-07,-6.961622E-07,9.059906E-08,0.3671734
618.5705,1.356163E-08,-2.061235E-08,NaN,1.683921E-07,-1.734961E-09,NaN,-1.582583E-06,9.000352E-05,NaN,3.523712E-05,-0.007061408,2.284806E-06,-9.00029E-05,NaN,NaN,1.782458E-07,0.007061499,5.38798E-07,-6.961622E-07,9.059906E-08,0.3671734
618.5878,1.356163E-08,-2.061235E-08,NaN,1.683921E-07,-1.734961E-09,NaN,-1.582583E-06,9.000352E-05,NaN,3.523712E-05,-0.007061408,2.284806E-06,-9.00029E-05,NaN,NaN,1.782458E-07,0.007061499,5.38798E-07,-6.961622E-07,9.059906E-08,0.3671734
618.6067,1.356163E-08,-2.061235E-08,NaN,1.683921E-07,-1.734961E-09,NaN,-1.582583E-06,9.000352E-05,NaN,3.523712E-05,-0.007061408,2.284806E-06,-9.00029E-05,NaN,NaN,1.782458E-07,0.007061499,5.38798E-07,-6.961622E-07,9.059906E-08,0.3671734
618.6229,1.356163E-08,-2.061235E-08,NaN,1.683921E-07,-1.734961E-09,NaN,-1.582583E-06,9.000352E-05,NaN,3.523712E-05,-0.007061408,2.284806E-06,-9.00029E-05,NaN,NaN,1.782458E-07,0.007061499,5.38798E-07,-6.961622E-07,9.059906E-08,0.3671734
618.6401,1.356163E-08,-2.061235E-08,NaN,1.683921E-07,-1.734961E-09,NaN,-1.582583E-06,9.000352E-05,NaN,3.523712E-05,-0.007061408,2.284806E-06,-9.00029E-05,NaN,NaN,1.782458E-07,0.007061499,5.38798E-07,-6.961622E-07,9.059906E-08,0.3671734
618.6573,1.356163E-08,-2.061235E-08,NaN,1.683921E-07,-1.734961E-09,NaN,-1.582583E-06,9.000352E-05,NaN,3.523712E-05,-0.007061408,2.284806E-06,-9.00029E-05,NaN,NaN,1.782458E-07,0.007061499,5.38798E-07,-6.961622E-07,9.059906E-08,0.3671734
618.6743,1.356163E-08,-2.061235E-08,NaN,1.683921E-07,-1.734961E-09,NaN,-1.582583E-06,9.000352E-05,NaN,3.523712E-05,-0.007061408,2.284806E-06,-9.00029E-05,NaN,NaN,1.782458E-07,0.007061499,5.38798E-07,-6.961622E-07,9.059906E-08,0.3671734
618.6922,1.356163E-08,-2.061235E-08,NaN,1.683921E-07,-1.734961E-09,NaN,-1.582583E-06,9.000352E-05,NaN,3.523712E-05,-0.007061408,2.284806E-06,-9.00029E-05,NaN,NaN,1.782458E-07,0.007061499,5.38798E-07,-6.961622E-07,9.059906E-08,0.3671734
618.7096,1.356163E-08,-2.061235E-08,NaN,1.683921E-07,-1.734961E-09,NaN,-1.582583E-06,9.000352E-05,NaN,3.523712E-05,-0.007061408,2.284806E-06,-9.00029E-05,NaN,NaN,1.782458E-07,0.007061499,5.38798E-07,-6.961622E-07,9.059906E-08,0.3671734
618.7269,1.356163E-08,-2.061235E-08,NaN,1.683921E-07,-1.734961E-09,NaN,-1.582583E-06,9.000352E-05,NaN,3.523712E-05,-0.007061408,2.284806E-06,-9.00029E-05,NaN,NaN,1.782458E-07,0.007061499,5.38798E-07,-6.961622E-07,9.059906E-08,0.3671734
618.7441,1.356163E-08,-2.061235E-08,NaN,1.683921E-07,-1.734961E-09,NaN,-1.582583E-06,9.000352E-05,NaN,3.523712E-05,-0.007061408,2.284806E-06,-9.00029E-05,NaN,NaN,1.782458E-07,0.007061499,5.38798E-07,-6.961622E-07,9.059906E-08,0.3671734
618.7615,1.356163E-08,-2.061235E-08,NaN,1.683921E-07,-1.734961E-09,NaN,-1.582583E-06,9.000352E-05,NaN,3.523712E-05,-0.007061408,2.284806E-06,-9.00029E-05,NaN,NaN,1.782458E-07,0.007061499,5.38798E-07,-6.961622E-07,9.059906E-08,0.3671734
618.7787,1.356163E-08,-2.061235E-08,NaN,1.683921E-07,-1.734961E-09,NaN,-1.582583E-06,9.000352E-05,NaN,3.523712E-05,-0.007061408,2.284806E-06,-9.00029E-05,NaN,NaN,1.782458E-07,0.007061499,5.38798E-07,-6.961622E-07,9.059906E-08,0.3671734
618.7955,1.356163E-08,-2.061235E-08,NaN,1.683921E-07,-1.734961E-09,NaN,-1.582583E-06,9.000352E-05,NaN,3.523712E-05,-0.007061408,2.284806E-06,-9.00029E-05,NaN,NaN,1.782458E-07,0.007061499,5.38798E-07,-6.961622E-07,9.059906E-08,0.3671734
618.8135,1.356163E-08,-2.061235E-08,NaN,1.683921E-07,-1.734961E-09,NaN,-1.582583E-06,9.000352E-05,NaN,3.523712E-05,-0.007061408,2.284806E-06,-9.00029E-05,NaN,NaN,1.782458E-07,0.007061499,5.38798E-07,-6.961622E-07,9.059906E-08,0.3671734
618.8306,1.356163E-08,-2.061235E-08,NaN,1.683921E-07,-1.734961E-09,NaN,-1.582583E-06,9.000352E-05,NaN,3.523712E-05,-0.007061408,2.284806E-06,-9.00029E-05,NaN,NaN,1.782458E-07,0.007061499,5.38798E-07,-6.961622E-07,9.059906E-08,0.3671734
618.8479,1.356163E-08,-2.061235E-08,NaN,1.683921E-07,-1.734961E-09,NaN,-1.582583E-06,9.000352E-05,NaN,3.523712E-05,-0.007061408,2.284806E-06,-9.00029E-05,NaN,NaN,1.782458E-07,0.007061499,5.38798E-07,-6.961622E-07,9.059906E-08,0.3671734
618.8651,1.356163E-08,-2.061235E-08,NaN,1.683921E-07,-1.734961E-09,NaN,-1.582583E-06,9.000352E-05,NaN,3.523712E-05,-0.007061408,2.284806E-06,-9.00029E-05,NaN,NaN,1.782458E-07,0.007061499,5.38798E-07,-6.961622E-07,9.059906E-08,0.3671734
618.8823,1.356163E-08,-2.061235E-08,NaN,1.683921E-07,-1.734961E-09,NaN,-1.582583E-06,9.000352E-05,NaN,3.523712E-05,-0.007061408,2.284806E-06,-9.00029E-05,NaN,NaN,1.782458E-07,0.007061499,5.38798E-07,-6.961622E-07,9.059906E-08,0.3671734
618.8997,1.356163E-08,-2.061235E-08,NaN,1.683921E-07,-1.734961E-09,NaN,-1.582583E-06,9.000352E-05,NaN,3.523712E-05,-0.007061408,2.284806E-06,-9.00029E-05,NaN,NaN,1.782458E-07,0.007061499,5.38798E-07,-6.961622E-07,9.059906E-08,0.3671734
618.9164,1.356163E-08,-2.061235E-08,NaN,1.683921E-07,-1.734961E-09,NaN,-1.582583E-06,9.000352E-05,NaN,3.523712E-05,-0.007061408,2.284806E-06,-9.00029E-05,NaN,NaN,1.782458E-07,0.007061499,5.38798E-07,-6.961622E-07,9.059906E-08,0.3671734
618.9337,1.356163E-08,-2.061235E-08,NaN,1.683921E-07,-1.734961E-09,NaN,-1.582583E-06,9.000352E-05,NaN,3.523712E-05,-0.007061408,2.284806E-06,-9.00029E-05,NaN,NaN,1.782458E-07,0.007061499,5.38798E-07,-6.961622E-07,9.059906E-08,0.3671734
618.9509,1.356163E-08,-2.061235E-08,NaN,1.683921E-07,-1.734961E-09,NaN,-1.582583E-06,9.000352E-05,NaN,3.523712E-05,-0.007061408,2.284806E-06,-9.00029E-05,NaN,NaN,1.782458E-07,0.007061499,5.38798E-07,-6.961622E-07,9.059906E-08,0.3671734
618.9685,1.356163E-08,-2.061235E-08,NaN,1.683921E-07,-1.734961E-09,NaN,-1.582583E-06,9.000352E-05,NaN,3.523712E-05,-0.007061408,2.284806E-06,-9.00029E-05,NaN,NaN,1.782458E-07,0.007061499,5.38798E-07,-6.961622E-07,9.059906E-08,0.3671734
618.986,1.356163E-08,-2.061235E-08,NaN,1.683921E-07,-1.734961E-09,NaN,-1.582583E-06,9.000352E-05,NaN,3.523712E-05,-0.007061408,2.284806E-06,-9.00029E-05,NaN,NaN,1.782458E-07,0.007061499,5.38798E-07,-6.961622E-07,9.059906E-08,0.3671734
619.0021,1.356163E-08,-2.061235E-08,NaN,1.683921E-07,-1.734961E-09,NaN,-1.582583E-06,9.000352E-05,NaN,3.523712E-05,-0.007061408,2.284806E-06,-9.00029E-05,NaN,NaN,1.782458E-07,0.007061499,5.38798E-07,-6.961622E-07,9.059906E-08,0.3671734
619.0201,1.356163E-08,-2.061235E-08,NaN,1.683921E-07,-1.734961E-09,NaN,-1.582583E-06,9.000352E-05,NaN,3.523712E-05,-0.007061408,2.284806E-06,-9.00029E-05,NaN,NaN,1.782458E-07,0.007061499,5.38798E-07,-6.961622E-07,9.059906E-08,0.3671734
619.0377,1.356163E-08,-2.061235E-08,NaN,1.683921E-07,-1.734961E-09,NaN,-1.582583E-06,9.000352E-05,NaN,3.523712E-05,-0.007061408,2.284806E-06,-9.00029E-05,NaN,NaN,1.782458E-07,0.007061499,5.38798E-07,-6.961622E-07,9.059906E-08,0.3671734
619.0548,1.356163E-08,-2.061235E-08,NaN,1.683921E-07,-1.734961E-09,NaN,-1.582583E-06,9.000352E-05,NaN,3.523712E-05,-0.007061408,2.284806E-06,-9.00029E-05,NaN,NaN,1.782458E-07,0.007061499,5.38798E-07,-6.961622E-07,9.059906E-08,0.3671734
619.0728,1.356163E-08,-2.061235E-08,NaN,1.683921E-07,-1.734961E-09,NaN,-1.582583E-06,9.000352E-05,NaN,3.523712E-05,-0.007061408,2.284806E-06,-9.00029E-05,NaN,NaN,1.782458E-07,0.007061499,5.38798E-07,-6.961622E-07,9.059906E-08,0.3671734
619.0905,1.356163E-08,-2.061235E-08,NaN,1.683921E-07,-1.734961E-09,NaN,-1.582583E-06,9.000352E-05,NaN,3.523712E-05,-0.007061408,2.284806E-06,-9.00029E-05,NaN,NaN,1.782458E-07,0.007061499,5.38798E-07,-6.961622E-07,9.059906E-08,0.3671734
619.1082,1.356163E-08,-2.061235E-08,NaN,1.683921E-07,-1.734961E-09,NaN,-1.582583E-06,9.000352E-05,NaN,3.523712E-05,-0.007061408,2.284806E-06,-9.00029E-05,NaN,NaN,1.782458E-07,0.007061499,5.38798E-07,-6.961622E-07,9.059906E-08,0.3671734
619.1261,1.356163E-08,-2.061235E-08,NaN,1.683921E-07,-1.734961E-09,NaN,-1.582583E-06,9.000352E-05,NaN,3.523712E-05,-0.007061408,2.284806E-06,-9.00029E-05,NaN,NaN,1.782458E-07,0.007061499,5.38798E-07,-6.961622E-07,9.059906E-08,0.3671734
619.1437,1.356163E-08,-2.061235E-08,NaN,1.683921E-07,-1.734961E-09,NaN,-1.582583E-06,9.000352E-05,NaN,3.523712E-05,-0.007061408,2.284806E-06,-9.00029E-05,NaN,NaN,1.782458E-07,0.007061499,5.38798E-07,-6.961622E-07,9.059906E-08,0.3671734
619.1615,1.356163E-08,-2.061235E-08,NaN,1.683921E-07,-1.734961E-09,NaN,-1.582583E-06,9.000352E-05,NaN,3.523712E-05,-0.007061408,2.284806E-06,-9.00029E-05,NaN,NaN,1.782458E-07,0.007061499,5.38798E-07,-6.961622E-07,9.059906E-08,0.3671734
619.1797,1.356163E-08,-2.061235E-08,NaN,1.683921E-07,-1.734961E-09,NaN,-1.582583E-06,9.000352E-05,NaN,3.523712E-05,-0.007061408,2.284806E-06,-9.00029E-05,NaN,NaN,1.782458E-07,0.007061499,5.38798E-07,-6.961622E-07,9.059906E-08,0.3671734
619.1973,1.356163E-08,-2.061235E-08,NaN,1.683921E-07,-1.734961E-09,NaN,-1.582583E-06,9.000352E-05,NaN,3.523712E-05,-0.007061408,2.284806E-06,-9.00029E-05,NaN,NaN,1.782458E-07,0.007061499,5.38798E-07,-6.961622E-07,9.059906E-08,0.3671734
619.2156,1.356163E-08,-2.061235E-08,NaN,1.683921E-07,-1.734961E-09,NaN,-1.582583E-06,9.000352E-05,NaN,3.523712E-05,-0.007061408,2.284806E-06,-9.00029E-05,NaN,NaN,1.782458E-07,0.007061499,5.38798E-07,-6.961622E-07,9.059906E-08,0.3671734
619.2352,1.356163E-08,-2.061235E-08,NaN,1.683921E-07,-1.734961E-09,NaN,-1.582583E-06,9.000352E-05,NaN,3.523712E-05,-0.007061408,2.284806E-06,-9.00029E-05,NaN,NaN,1.782458E-07,0.007061499,5.38798E-07,-6.961622E-07,9.059906E-08,0.3671734
619.2534,1.356163E-08,-2.061235E-08,NaN,1.683921E-07,-1.734961E-09,NaN,-1.582583E-06,9.000352E-05,NaN,3.523712E-05,-0.007061408,2.284806E-06,-9.00029E-05,NaN,NaN,1.782458E-07,0.007061499,5.38798E-07,-6.961622E-07,9.059906E-08,0.3671734
619.2714,1.356163E-08,-2.061235E-08,NaN,1.683921E-07,-1.734961E-09,NaN,-1.582583E-06,9.000352E-05,NaN,3.523712E-05,-0.007061408,2.284806E-06,-9.00029E-05,NaN,NaN,1.782458E-07,0.007061499,5.38798E-07,-6.961622E-07,9.059906E-08,0.3671734
619.291,1.356163E-08,-2.061235E-08,NaN,1.683921E-07,-1.734961E-09,NaN,-1.582583E-06,9.000352E-05,NaN,3.523712E-05,-0.007061408,2.284806E-06,-9.00029E-05,NaN,NaN,1.782458E-07,0.007061499,5.38798E-07,-6.961622E-07,9.059906E-08,0.3671734
619.3091,1.356163E-08,-2.061235E-08,NaN,1.683921E-07,-1.734961E-09,NaN,-1.582583E-06,9.000352E-05,NaN,3.523712E-05,-0.007061408,2.284806E-06,-9.00029E-05,NaN,NaN,1.782458E-07,0.007061499,5.38798E-07,-6.961622E-07,9.059906E-08,0.3671734
619.3271,1.356163E-08,-2.061235E-08,NaN,1.683921E-07,-1.734961E-09,NaN,-1.582583E-06,9.000352E-05,NaN,3.523712E-05,-0.007061408,2.284806E-06,-9.00029E-05,NaN,NaN,1.782458E-07,0.007061499,5.38798E-07,-6.961622E-07,9.059906E-08,0.3671734
619.3466,1.356163E-08,-2.061235E-08,NaN,1.683921E-07,-1.734961E-09,NaN,-1.582583E-06,9.000352E-05,NaN,3.523712E-05,-0.007061408,2.284806E-06,-9.00029E-05,NaN,NaN,1.782458E-07,0.007061499,5.38798E-07,-6.961622E-07,9.059906E-08,0.3671734
619.3646,1.356163E-08,-2.061235E-08,NaN,1.683921E-07,-1.734961E-09,NaN,-1.582583E-06,9.000352E-05,NaN,3.523712E-05,-0.007061408,2.284806E-06,-9.00029E-05,NaN,NaN,1.782458E-07,0.007061499,5.38798E-07,-6.961622E-07,9.059906E-08,0.3671734
619.3829,1.356163E-08,-2.061235E-08,NaN,1.683921E-07,-1.734961E-09,NaN,-1.582583E-06,9.000352E-05,NaN,3.523712E-05,-0.007061408,2.284806E-06,-9.00029E-05,NaN,NaN,1.782458E-07,0.007061499,5.38798E-07,-6.961622E-07,9.059906E-08,0.3671734
619.4026,1.356163E-08,-2.061235E-08,NaN,1.683921E-07,-1.734961E-09,NaN,-1.582583E-06,9.000352E-05,NaN,3.523712E-05,-0.007061408,2.284806E-06,-9.00029E-05,NaN,NaN,1.782458E-07,0.007061499,5.38798E-07,-6.961622E-07,9.059906E-08,0.3671734
619.4206,1.356163E-08,-2.061235E-08,NaN,1.683921E-07,-1.734961E-09,NaN,-1.582583E-06,9.000352E-05,NaN,3.523712E-05,-0.007061408,2.284806E-06,-9.00029E-05,NaN,NaN,1.782458E-07,0.007061499,5.38798E-07,-6.961622E-07,9.059906E-08,0.3671734
619.4388,1.356163E-08,-2.061235E-08,NaN,1.683921E-07,-1.734961E-09,NaN,-1.582583E-06,9.000352E-05,NaN,3.523712E-05,-0.007061408,2.284806E-06,-9.00029E-05,NaN,NaN,1.782458E-07,0.007061499,5.38798E-07,-6.961622E-07,9.059906E-08,0.3671734
619.4578,1.356163E-08,-2.061235E-08,NaN,1.683921E-07,-1.734961E-09,NaN,-1.582583E-06,9.000352E-05,NaN,3.523712E-05,-0.007061408,2.284806E-06,-9.00029E-05,NaN,NaN,1.782458E-07,0.007061499,5.38798E-07,-6.961622E-07,9.059906E-08,0.3671734
619.4761,1.356163E-08,-2.061235E-08,NaN,1.683921E-07,-1.734961E-09,NaN,-1.582583E-06,9.000352E-05,NaN,3.523712E-05,-0.007061408,2.284806E-06,-9.00029E-05,NaN,NaN,1.782458E-07,0.007061499,5.38798E-07,-6.961622E-07,9.059906E-08,0.3671734
619.4942,1.356163E-08,-2.061235E-08,NaN,1.683921E-07,-1.734961E-09,NaN,-1.582583E-06,9.000352E-05,NaN,3.523712E-05,-0.007061408,2.284806E-06,-9.00029E-05,NaN,NaN,1.782458E-07,0.007061499,5.38798E-07,-6.961622E-07,9.059906E-08,0.3671734
619.5127,1.356163E-08,-2.061235E-08,NaN,1.683921E-07,-1.734961E-09,NaN,-1.582583E-06,9.000352E-05,NaN,3.523712E-05,-0.007061408,2.284806E-06,-9.00029E-05,NaN,NaN,1.782458E-07,0.007061499,5.38798E-07,-6.961622E-07,9.059906E-08,0.3671734
619.5308,1.356163E-08,-2.061235E-08,NaN,1.683921E-07,-1.734961E-09,NaN,-1.582583E-06,9.000352E-05,NaN,3.523712E-05,-0.007061408,2.284806E-06,-9.00029E-05,NaN,NaN,1.782458E-07,0.007061499,5.38798E-07,-6.961622E-07,9.059906E-08,0.3671734
619.5491,1.356163E-08,-2.061235E-08,NaN,1.683921E-07,-1.734961E-09,NaN,-1.582583E-06,9.000352E-05,NaN,3.523712E-05,-0.007061408,2.284806E-06,-9.00029E-05,NaN,NaN,1.782458E-07,0.007061499,5.38798E-07,-6.961622E-07,9.059906E-08,0.3671734
619.5677,1.356163E-08,-2.061235E-08,NaN,1.683921E-07,-1.734961E-09,NaN,-1.582583E-06,9.000352E-05,NaN,3.523712E-05,-0.007061408,2.284806E-06,-9.00029E-05,NaN,NaN,1.782458E-07,0.007061499,5.38798E-07,-6.961622E-07,9.059906E-08,0.3671734
619.5861,1.356163E-08,-2.061235E-08,NaN,1.683921E-07,-1.734961E-09,NaN,-1.582583E-06,9.000352E-05,NaN,3.523712E-05,-0.007061408,2.284806E-06,-9.00029E-05,NaN,NaN,1.782458E-07,0.007061499,5.38798E-07,-6.961622E-07,9.059906E-08,0.3671734
619.6045,1.356163E-08,-2.061235E-08,NaN,1.683921E-07,-1.734961E-09,NaN,-1.582583E-06,9.000352E-05,NaN,3.523712E-05,-0.007061408,2.284806E-06,-9.00029E-05,NaN,NaN,1.782458E-07,0.007061499,5.38798E-07,-6.961622E-07,9.059906E-08,0.3671734
619.623,1.356163E-08,-2.061235E-08,NaN,1.683921E-07,-1.734961E-09,NaN,-1.582583E-06,9.000352E-05,NaN,3.523712E-05,-0.007061408,2.284806E-06,-9.00029E-05,NaN,NaN,1.782458E-07,0.007061499,5.38798E-07,-6.961622E-07,9.059906E-08,0.3671734
619.6414,1.356163E-08,-2.061235E-08,NaN,1.683921E-07,-1.734961E-09,NaN,-1.582583E-06,9.000352E-05,NaN,3.523712E-05,-0.007061408,2.284806E-06,-9.00029E-05,NaN,NaN,1.782458E-07,0.007061499,5.38798E-07,-6.961622E-07,9.059906E-08,0.3671734
619.6596,1.356163E-08,-2.061235E-08,NaN,1.683921E-07,-1.734961E-09,NaN,-1.582583E-06,9.000352E-05,NaN,3.523712E-05,-0.007061408,2.284806E-06,-9.00029E-05,NaN,NaN,1.782458E-07,0.007061499,5.38798E-07,-6.961622E-07,9.059906E-08,0.3671734
619.6779,1.356163E-08,-2.061235E-08,NaN,1.683921E-07,-1.734961E-09,NaN,-1.582583E-06,9.000352E-05,NaN,3.523712E-05,-0.007061408,2.284806E-06,-9.00029E-05,NaN,NaN,1.782458E-07,0.007061499,5.38798E-07,-6.961622E-07,9.059906E-08,0.3671734
619.6965,1.356163E-08,-2.061235E-08,NaN,1.683921E-07,-1.734961E-09,NaN,-1.582583E-06,9.000352E-05,NaN,3.523712E-05,-0.007061408,2.284806E-06,-9.00029E-05,NaN,NaN,1.782458E-07,0.007061499,5.38798E-07,-6.961622E-07,9.059906E-08,0.3671734
619.7147,1.356163E-08,-2.061235E-08,NaN,1.683921E-07,-1.734961E-09,NaN,-1.582583E-06,9.000352E-05,NaN,3.523712E-05,-0.007061408,2.284806E-06,-9.00029E-05,NaN,NaN,1.782458E-07,0.007061499,5.38798E-07,-6.961622E-07,9.059906E-08,0.3671734
619.7334,1.356163E-08,-2.061235E-08,NaN,1.683921E-07,-1.734961E-09,NaN,-1.582583E-06,9.000352E-05,NaN,3.523712E-05,-0.007061408,2.284806E-06,-9.00029E-05,NaN,NaN,1.782458E-07,0.007061499,5.38798E-07,-6.961622E-07,9.059906E-08,0.3671734
619.7515,1.356163E-08,-2.061235E-08,NaN,1.683921E-07,-1.734961E-09,NaN,-1.582583E-06,9.000352E-05,NaN,3.523712E-05,-0.007061408,2.284806E-06,-9.00029E-05,NaN,NaN,1.782458E-07,0.007061499,5.38798E-07,-6.961622E-07,9.059906E-08,0.3671734
619.7699,1.356163E-08,-2.061235E-08,NaN,1.683921E-07,-1.734961E-09,NaN,-1.582583E-06,9.000352E-05,NaN,3.523712E-05,-0.007061408,2.284806E-06,-9.00029E-05,NaN,NaN,1.782458E-07,0.007061499,5.38798E-07,-6.961622E-07,9.059906E-08,0.3671734
619.7886,1.356163E-08,-2.061235E-08,NaN,1.683921E-07,-1.734961E-09,NaN,-1.582583E-06,9.000352E-05,NaN,3.523712E-05,-0.007061408,2.284806E-06,-9.00029E-05,NaN,NaN,1.782458E-07,0.007061499,5.38798E-07,-6.961622E-07,9.059906E-08,0.3671734
619.8067,1.356163E-08,-2.061235E-08,NaN,1.683921E-07,-1.734961E-09,NaN,-1.582583E-06,9.000352E-05,NaN,3.523712E-05,-0.007061408,2.284806E-06,-9.00029E-05,NaN,NaN,1.782458E-07,0.007061499,5.38798E-07,-6.961622E-07,9.059906E-08,0.3671734
619.825,1.356163E-08,-2.061235E-08,NaN,1.683921E-07,-1.734961E-09,NaN,-1.582583E-06,9.000352E-05,NaN,3.523712E-05,-0.007061408,2.284806E-06,-9.00029E-05,NaN,NaN,1.782458E-07,0.007061499,5.38798E-07,-6.961622E-07,9.059906E-08,0.3671734
619.8434,1.356163E-08,-2.061235E-08,NaN,1.683921E-07,-1.734961E-09,NaN,-1.582583E-06,9.000352E-05,NaN,3.523712E-05,-0.007061408,2.284806E-06,-9.00029E-05,NaN,NaN,1.782458E-07,0.007061499,5.38798E-07,-6.961622E-07,9.059906E-08,0.3671734
619.8617,1.356163E-08,-2.061235E-08,NaN,1.683921E-07,-1.734961E-09,NaN,-1.582583E-06,9.000352E-05,NaN,3.523712E-05,-0.007061408,2.284806E-06,-9.00029E-05,NaN,NaN,1.782458E-07,0.007061499,5.38798E-07,-6.961622E-07,9.059906E-08,0.3671734
619.8801,1.356163E-08,-2.061235E-08,NaN,1.683921E-07,-1.734961E-09,NaN,-1.582583E-06,9.000352E-05,NaN,3.523712E-05,-0.007061408,2.284806E-06,-9.00029E-05,NaN,NaN,1.782458E-07,0.007061499,5.38798E-07,-6.961622E-07,9.059906E-08,0.3671734
619.8986,1.356163E-08,-2.061235E-08,NaN,1.683921E-07,-1.734961E-09,NaN,-1.582583E-06,9.000352E-05,NaN,3.523712E-05,-0.007061408,2.284806E-06,-9.00029E-05,NaN,NaN,1.782458E-07,0.007061499,5.38798E-07,-6.961622E-07,9.059906E-08,0.3671734
619.9167,1.356163E-08,-2.061235E-08,NaN,1.683921E-07,-1.734961E-09,NaN,-1.582583E-06,9.000352E-05,NaN,3.523712E-05,-0.007061408,2.284806E-06,-9.00029E-05,NaN,NaN,1.782458E-07,0.007061499,5.38798E-07,-6.961622E-07,9.059906E-08,0.3671734
619.9353,1.356163E-08,-2.061235E-08,NaN,1.683921E-07,-1.734961E-09,NaN,-1.582583E-06,9.000352E-05,NaN,3.523712E-05,-0.007061408,2.284806E-06,-9.00029E-05,NaN,NaN,1.782458E-07,0.007061499,5.38798E-07,-6.961622E-07,9.059906E-08,0.3671734
619.9537,1.356163E-08,-2.061235E-08,NaN,1.683921E-07,-1.734961E-09,NaN,-1.582583E-06,9.000352E-05,NaN,3.523712E-05,-0.007061408,2.284806E-06,-9.00029E-05,NaN,NaN,1.782458E-07,0.007061499,5.38798E-07,-6.961622E-07,9.059906E-08,0.3671734
619.9724,1.356163E-08,-2.061235E-08,NaN,1.683921E-07,-1.734961E-09,NaN,-1.582583E-06,9.000352E-05,NaN,3.523712E-05,-0.007061408,2.284806E-06,-9.00029E-05,NaN,NaN,1.782458E-07,0.007061499,5.38798E-07,-6.961622E-07,9.059906E-08,0.3671734
619.9905,1.356163E-08,-2.061235E-08,NaN,1.683921E-07,-1.734961E-09,NaN,-1.582583E-06,9.000352E-05,NaN,3.523712E-05,-0.007061408,2.284806E-06,-9.00029E-05,NaN,NaN,1.782458E-07,0.007061499,5.38798E-07,-6.961622E-07,9.059906E-08,0.3671734
620.009,1.356163E-08,-2.061235E-08,NaN,1.683921E-07,-1.734961E-09,NaN,-1.582583E-06,9.000352E-05,NaN,3.523712E-05,-0.007061408,2.284806E-06,-9.00029E-05,NaN,NaN,1.782458E-07,0.007061499,5.38798E-07,-6.961622E-07,9.059906E-08,0.3671734
620.0276,1.356163E-08,-2.061235E-08,NaN,1.683921E-07,-1.734961E-09,NaN,-1.582583E-06,9.000352E-05,NaN,3.523712E-05,-0.007061408,2.284806E-06,-9.00029E-05,NaN,NaN,1.782458E-07,0.007061499,5.38798E-07,-6.961622E-07,9.059906E-08,0.3671734
620.046,1.356163E-08,-2.061235E-08,NaN,1.683921E-07,-1.734961E-09,NaN,-1.582583E-06,9.000352E-05,NaN,3.523712E-05,-0.007061408,2.284806E-06,-9.00029E-05,NaN,NaN,1.782458E-07,0.007061499,5.38798E-07,-6.961622E-07,9.059906E-08,0.3671734
620.064,1.356163E-08,-2.061235E-08,NaN,1.683921E-07,-1.734961E-09,NaN,-1.582583E-06,9.000352E-05,NaN,3.523712E-05,-0.007061408,2.284806E-06,-9.00029E-05,NaN,NaN,1.782458E-07,0.007061499,5.38798E-07,-6.961622E-07,9.059906E-08,0.3671734
620.0825,1.356163E-08,-2.061235E-08,NaN,1.683921E-07,-1.734961E-09,NaN,-1.582583E-06,9.000352E-05,NaN,3.523712E-05,-0.007061408,2.284806E-06,-9.00029E-05,NaN,NaN,1.782458E-07,0.007061499,5.38798E-07,-6.961622E-07,9.059906E-08,0.3671734
620.101,1.356163E-08,-2.061235E-08,NaN,1.683921E-07,-1.734961E-09,NaN,-1.582583E-06,9.000352E-05,NaN,3.523712E-05,-0.007061408,2.284806E-06,-9.00029E-05,NaN,NaN,1.782458E-07,0.007061499,5.38798E-07,-6.961622E-07,9.059906E-08,0.3671734
620.1193,1.356163E-08,-2.061235E-08,NaN,1.683921E-07,-1.734961E-09,NaN,-1.582583E-06,9.000352E-05,NaN,3.523712E-05,-0.007061408,2.284806E-06,-9.00029E-05,NaN,NaN,1.782458E-07,0.007061499,5.38798E-07,-6.961622E-07,9.059906E-08,0.3671734
620.1373,1.356163E-08,-2.061235E-08,NaN,1.683921E-07,-1.734961E-09,NaN,-1.582583E-06,9.000352E-05,NaN,3.523712E-05,-0.007061408,2.284806E-06,-9.00029E-05,NaN,NaN,1.782458E-07,0.007061499,5.38798E-07,-6.961622E-07,9.059906E-08,0.3671734
620.1567,1.356163E-08,-2.061235E-08,NaN,1.683921E-07,-1.734961E-09,NaN,-1.582583E-06,9.000352E-05,NaN,3.523712E-05,-0.007061408,2.284806E-06,-9.00029E-05,NaN,NaN,1.782458E-07,0.007061499,5.38798E-07,-6.961622E-07,9.059906E-08,0.3671734
620.1754,1.356163E-08,-2.061235E-08,NaN,1.683921E-07,-1.734961E-09,NaN,-1.582583E-06,9.000352E-05,NaN,3.523712E-05,-0.007061408,2.284806E-06,-9.00029E-05,NaN,NaN,1.782458E-07,0.007061499,5.38798E-07,-6.961622E-07,9.059906E-08,0.3671734
620.193,1.356163E-08,-2.061235E-08,NaN,1.683921E-07,-1.734961E-09,NaN,-1.582583E-06,9.000352E-05,NaN,3.523712E-05,-0.007061408,2.284806E-06,-9.00029E-05,NaN,NaN,1.782458E-07,0.007061499,5.38798E-07,-6.961622E-07,9.059906E-08,0.3671734
620.2115,1.356163E-08,-2.061235E-08,NaN,1.683921E-07,-1.734961E-09,NaN,-1.582583E-06,9.000352E-05,NaN,3.523712E-05,-0.007061408,2.284806E-06,-9.00029E-05,NaN,NaN,1.782458E-07,0.007061499,5.38798E-07,-6.961622E-07,9.059906E-08,0.3671734
620.2299,1.356163E-08,-2.061235E-08,NaN,1.683921E-07,-1.734961E-09,NaN,-1.582583E-06,9.000352E-05,NaN,3.523712E-05,-0.007061408,2.284806E-06,-9.00029E-05,NaN,NaN,1.782458E-07,0.007061499,5.38798E-07,-6.961622E-07,9.059906E-08,0.3671734
620.2487,1.356163E-08,-2.061235E-08,NaN,1.683921E-07,-1.734961E-09,NaN,-1.582583E-06,9.000352E-05,NaN,3.523712E-05,-0.007061408,2.284806E-06,-9.00029E-05,NaN,NaN,1.782458E-07,0.007061499,5.38798E-07,-6.961622E-07,9.059906E-08,0.3671734
620.2668,1.356163E-08,-2.061235E-08,NaN,1.683921E-07,-1.734961E-09,NaN,-1.582583E-06,9.000352E-05,NaN,3.523712E-05,-0.007061408,2.284806E-06,-9.00029E-05,NaN,NaN,1.782458E-07,0.007061499,5.38798E-07,-6.961622E-07,9.059906E-08,0.3671734
620.2854,1.356163E-08,-2.061235E-08,NaN,1.683921E-07,-1.734961E-09,NaN,-1.582583E-06,9.000352E-05,NaN,3.523712E-05,-0.007061408,2.284806E-06,-9.00029E-05,NaN,NaN,1.782458E-07,0.007061499,5.38798E-07,-6.961622E-07,9.059906E-08,0.3671734
620.3042,1.356163E-08,-2.061235E-08,NaN,1.683921E-07,-1.734961E-09,NaN,-1.582583E-06,9.000352E-05,NaN,3.523712E-05,-0.007061408,2.284806E-06,-9.00029E-05,NaN,NaN,1.782458E-07,0.007061499,5.38798E-07,-6.961622E-07,9.059906E-08,0.3671734
620.3226,1.356163E-08,-2.061235E-08,NaN,1.683921E-07,-1.734961E-09,NaN,-1.582583E-06,9.000352E-05,NaN,3.523712E-05,-0.007061408,2.284806E-06,-9.00029E-05,NaN,NaN,1.782458E-07,0.007061499,5.38798E-07,-6.961622E-07,9.059906E-08,0.3671734
620.3412,1.356163E-08,-2.061235E-08,NaN,1.683921E-07,-1.734961E-09,NaN,-1.582583E-06,9.000352E-05,NaN,3.523712E-05,-0.007061408,2.284806E-06,-9.00029E-05,NaN,NaN,1.782458E-07,0.007061499,5.38798E-07,-6.961622E-07,9.059906E-08,0.3671734
620.3599,1.356163E-08,-2.061235E-08,NaN,1.683921E-07,-1.734961E-09,NaN,-1.582583E-06,9.000352E-05,NaN,3.523712E-05,-0.007061408,2.284806E-06,-9.00029E-05,NaN,NaN,1.782458E-07,0.007061499,5.38798E-07,-6.961622E-07,9.059906E-08,0.3671734
620.3784,1.356163E-08,-2.061235E-08,NaN,1.683921E-07,-1.734961E-09,NaN,-1.582583E-06,9.000352E-05,NaN,3.523712E-05,-0.007061408,2.284806E-06,-9.00029E-05,NaN,NaN,1.782458E-07,0.007061499,5.38798E-07,-6.961622E-07,9.059906E-08,0.3671734
620.3972,1.356163E-08,-2.061235E-08,NaN,1.683921E-07,-1.734961E-09,NaN,-1.582583E-06,9.000352E-05,NaN,3.523712E-05,-0.007061408,2.284806E-06,-9.00029E-05,NaN,NaN,1.782458E-07,0.007061499,5.38798E-07,-6.961622E-07,9.059906E-08,0.3671734
620.416,1.356163E-08,-2.061235E-08,NaN,1.683921E-07,-1.734961E-09,NaN,-1.582583E-06,9.000352E-05,NaN,3.523712E-05,-0.007061408,2.284806E-06,-9.00029E-05,NaN,NaN,1.782458E-07,0.007061499,5.38798E-07,-6.961622E-07,9.059906E-08,0.3671734
620.4343,1.356163E-08,-2.061235E-08,NaN,1.683921E-07,-1.734961E-09,NaN,-1.582583E-06,9.000352E-05,NaN,3.523712E-05,-0.007061408,2.284806E-06,-9.00029E-05,NaN,NaN,1.782458E-07,0.007061499,5.38798E-07,-6.961622E-07,9.059906E-08,0.3671734
620.4528,1.356163E-08,-2.061235E-08,NaN,1.683921E-07,-1.734961E-09,NaN,-1.582583E-06,9.000352E-05,NaN,3.523712E-05,-0.007061408,2.284806E-06,-9.00029E-05,NaN,NaN,1.782458E-07,0.007061499,5.38798E-07,-6.961622E-07,9.059906E-08,0.3671734
620.4713,1.356163E-08,-2.061235E-08,NaN,1.683921E-07,-1.734961E-09,NaN,-1.582583E-06,9.000352E-05,NaN,3.523712E-05,-0.007061408,2.284806E-06,-9.00029E-05,NaN,NaN,1.782458E-07,0.007061499,5.38798E-07,-6.961622E-07,9.059906E-08,0.3671734
620.4898,1.356163E-08,-2.061235E-08,NaN,1.683921E-07,-1.734961E-09,NaN,-1.582583E-06,9.000352E-05,NaN,3.523712E-05,-0.007061408,2.284806E-06,-9.00029E-05,NaN,NaN,1.782458E-07,0.007061499,5.38798E-07,-6.961622E-07,9.059906E-08,0.3671734
620.5078,1.356163E-08,-2.061235E-08,NaN,1.683921E-07,-1.734961E-09,NaN,-1.582583E-06,9.000352E-05,NaN,3.523712E-05,-0.007061408,2.284806E-06,-9.00029E-05,NaN,NaN,1.782458E-07,0.007061499,5.38798E-07,-6.961622E-07,9.059906E-08,0.3671734
620.5264,1.356163E-08,-2.061235E-08,NaN,1.683921E-07,-1.734961E-09,NaN,-1.582583E-06,9.000352E-05,NaN,3.523712E-05,-0.007061408,2.284806E-06,-9.00029E-05,NaN,NaN,1.782458E-07,0.007061499,5.38798E-07,-6.961622E-07,9.059906E-08,0.3671734
620.5449,1.356163E-08,-2.061235E-08,NaN,1.683921E-07,-1.734961E-09,NaN,-1.582583E-06,9.000352E-05,NaN,3.523712E-05,-0.007061408,2.284806E-06,-9.00029E-05,NaN,NaN,1.782458E-07,0.007061499,5.38798E-07,-6.961622E-07,9.059906E-08,0.3671734
620.5629,1.356163E-08,-2.061235E-08,NaN,1.683921E-07,-1.734961E-09,NaN,-1.582583E-06,9.000352E-05,NaN,3.523712E-05,-0.007061408,2.284806E-06,-9.00029E-05,NaN,NaN,1.782458E-07,0.007061499,5.38798E-07,-6.961622E-07,9.059906E-08,0.3671734
620.5814,1.356163E-08,-2.061235E-08,NaN,1.683921E-07,-1.734961E-09,NaN,-1.582583E-06,9.000352E-05,NaN,3.523712E-05,-0.007061408,2.284806E-06,-9.00029E-05,NaN,NaN,1.782458E-07,0.007061499,5.38798E-07,-6.961622E-07,9.059906E-08,0.3671734
620.5995,1.356163E-08,-2.061235E-08,NaN,1.683921E-07,-1.734961E-09,NaN,-1.582583E-06,9.000352E-05,NaN,3.523712E-05,-0.007061408,2.284806E-06,-9.00029E-05,NaN,NaN,1.782458E-07,0.007061499,5.38798E-07,-6.961622E-07,9.059906E-08,0.3671734
620.6177,1.356163E-08,-2.061235E-08,NaN,1.683921E-07,-1.734961E-09,NaN,-1.582583E-06,9.000352E-05,NaN,3.523712E-05,-0.007061408,2.284806E-06,-9.00029E-05,NaN,NaN,1.782458E-07,0.007061499,5.38798E-07,-6.961622E-07,9.059906E-08,0.3671734
620.6364,1.356163E-08,-2.061235E-08,NaN,1.683921E-07,-1.734961E-09,NaN,-1.582583E-06,9.000352E-05,NaN,3.523712E-05,-0.007061408,2.284806E-06,-9.00029E-05,NaN,NaN,1.782458E-07,0.007061499,5.38798E-07,-6.961622E-07,9.059906E-08,0.3671734
620.6547,1.356163E-08,-2.061235E-08,NaN,1.683921E-07,-1.734961E-09,NaN,-1.582583E-06,9.000352E-05,NaN,3.523712E-05,-0.007061408,2.284806E-06,-9.00029E-05,NaN,NaN,1.782458E-07,0.007061499,5.38798E-07,-6.961622E-07,9.059906E-08,0.3671734
620.673,1.356163E-08,-2.061235E-08,NaN,1.683921E-07,-1.734961E-09,NaN,-1.582583E-06,9.000352E-05,NaN,3.523712E-05,-0.007061408,2.284806E-06,-9.00029E-05,NaN,NaN,1.782458E-07,0.007061499,5.38798E-07,-6.961622E-07,9.059906E-08,0.3671734
620.691,1.356163E-08,-2.061235E-08,NaN,1.683921E-07,-1.734961E-09,NaN,-1.582583E-06,9.000352E-05,NaN,3.523712E-05,-0.007061408,2.284806E-06,-9.00029E-05,NaN,NaN,1.782458E-07,0.007061499,5.38798E-07,-6.961622E-07,9.059906E-08,0.3671734
620.7098,1.356163E-08,-2.061235E-08,NaN,1.683921E-07,-1.734961E-09,NaN,-1.582583E-06,9.000352E-05,NaN,3.523712E-05,-0.007061408,2.284806E-06,-9.00029E-05,NaN,NaN,1.782458E-07,0.007061499,5.38798E-07,-6.961622E-07,9.059906E-08,0.3671734
620.7281,1.356163E-08,-2.061235E-08,NaN,1.683921E-07,-1.734961E-09,NaN,-1.582583E-06,9.000352E-05,NaN,3.523712E-05,-0.007061408,2.284806E-06,-9.00029E-05,NaN,NaN,1.782458E-07,0.007061499,5.38798E-07,-6.961622E-07,9.059906E-08,0.3671734
620.7463,1.356163E-08,-2.061235E-08,NaN,1.683921E-07,-1.734961E-09,NaN,-1.582583E-06,9.000352E-05,NaN,3.523712E-05,-0.007061408,2.284806E-06,-9.00029E-05,NaN,NaN,1.782458E-07,0.007061499,5.38798E-07,-6.961622E-07,9.059906E-08,0.3671734
620.7646,1.356163E-08,-2.061235E-08,NaN,1.683921E-07,-1.734961E-09,NaN,-1.582583E-06,9.000352E-05,NaN,3.523712E-05,-0.007061408,2.284806E-06,-9.00029E-05,NaN,NaN,1.782458E-07,0.007061499,5.38798E-07,-6.961622E-07,9.059906E-08,0.3671734
620.7845,1.356163E-08,-2.061235E-08,NaN,1.683921E-07,-1.734961E-09,NaN,-1.582583E-06,9.000352E-05,NaN,3.523712E-05,-0.007061408,2.284806E-06,-9.00029E-05,NaN,NaN,1.782458E-07,0.007061499,5.38798E-07,-6.961622E-07,9.059906E-08,0.3671734
620.8015,1.356163E-08,-2.061235E-08,NaN,1.683921E-07,-1.734961E-09,NaN,-1.582583E-06,9.000352E-05,NaN,3.523712E-05,-0.007061408,2.284806E-06,-9.00029E-05,NaN,NaN,1.782458E-07,0.007061499,5.38798E-07,-6.961622E-07,9.059906E-08,0.3671734
620.8201,1.356163E-08,-2.061235E-08,NaN,1.683921E-07,-1.734961E-09,NaN,-1.582583E-06,9.000352E-05,NaN,3.523712E-05,-0.007061408,2.284806E-06,-9.00029E-05,NaN,NaN,1.782458E-07,0.007061499,5.38798E-07,-6.961622E-07,9.059906E-08,0.3671734
620.8388,1.356163E-08,-2.061235E-08,NaN,1.683921E-07,-1.734961E-09,NaN,-1.582583E-06,9.000352E-05,NaN,3.523712E-05,-0.007061408,2.284806E-06,-9.00029E-05,NaN,NaN,1.782458E-07,0.007061499,5.38798E-07,-6.961622E-07,9.059906E-08,0.3671734
620.8566,1.356163E-08,-2.061235E-08,NaN,1.683921E-07,-1.734961E-09,NaN,-1.582583E-06,9.000352E-05,NaN,3.523712E-05,-0.007061408,2.284806E-06,-9.00029E-05,NaN,NaN,1.782458E-07,0.007061499,5.38798E-07,-6.961622E-07,9.059906E-08,0.3671734
620.8753,1.356163E-08,-2.061235E-08,NaN,1.683921E-07,-1.734961E-09,NaN,-1.582583E-06,9.000352E-05,NaN,3.523712E-05,-0.007061408,2.284806E-06,-9.00029E-05,NaN,NaN,1.782458E-07,0.007061499,5.38798E-07,-6.961622E-07,9.059906E-08,0.3671734
620.8936,1.356163E-08,-2.061235E-08,NaN,1.683921E-07,-1.734961E-09,NaN,-1.582583E-06,9.000352E-05,NaN,3.523712E-05,-0.007061408,2.284806E-06,-9.00029E-05,NaN,NaN,1.782458E-07,0.007061499,5.38798E-07,-6.961622E-07,9.059906E-08,0.3671734
620.912,1.356163E-08,-2.061235E-08,NaN,1.683921E-07,-1.734961E-09,NaN,-1.582583E-06,9.000352E-05,NaN,3.523712E-05,-0.007061408,2.284806E-06,-9.00029E-05,NaN,NaN,1.782458E-07,0.007061499,5.38798E-07,-6.961622E-07,9.059906E-08,0.3671734
620.9305,1.356163E-08,-2.061235E-08,NaN,1.683921E-07,-1.734961E-09,NaN,-1.582583E-06,9.000352E-05,NaN,3.523712E-05,-0.007061408,2.284806E-06,-9.00029E-05,NaN,NaN,1.782458E-07,0.007061499,5.38798E-07,-6.961622E-07,9.059906E-08,0.3671734
620.9489,1.356163E-08,-2.061235E-08,NaN,1.683921E-07,-1.734961E-09,NaN,-1.582583E-06,9.000352E-05,NaN,3.523712E-05,-0.007061408,2.284806E-06,-9.00029E-05,NaN,NaN,1.782458E-07,0.007061499,5.38798E-07,-6.961622E-07,9.059906E-08,0.3671734
620.9673,1.356163E-08,-2.061235E-08,NaN,1.683921E-07,-1.734961E-09,NaN,-1.582583E-06,9.000352E-05,NaN,3.523712E-05,-0.007061408,2.284806E-06,-9.00029E-05,NaN,NaN,1.782458E-07,0.007061499,5.38798E-07,-6.961622E-07,9.059906E-08,0.3671734
620.9858,1.356163E-08,-2.061235E-08,NaN,1.683921E-07,-1.734961E-09,NaN,-1.582583E-06,9.000352E-05,NaN,3.523712E-05,-0.007061408,2.284806E-06,-9.00029E-05,NaN,NaN,1.782458E-07,0.007061499,5.38798E-07,-6.961622E-07,9.059906E-08,0.3671734
621.0042,1.356163E-08,-2.061235E-08,NaN,1.683921E-07,-1.734961E-09,NaN,-1.582583E-06,9.000352E-05,NaN,3.523712E-05,-0.007061408,2.284806E-06,-9.00029E-05,NaN,NaN,1.782458E-07,0.007061499,5.38798E-07,-6.961622E-07,9.059906E-08,0.3671734
621.0226,1.356163E-08,-2.061235E-08,NaN,1.683921E-07,-1.734961E-09,NaN,-1.582583E-06,9.000352E-05,NaN,3.523712E-05,-0.007061408,2.284806E-06,-9.00029E-05,NaN,NaN,1.782458E-07,0.007061499,5.38798E-07,-6.961622E-07,9.059906E-08,0.3671734
621.0411,1.356163E-08,-2.061235E-08,NaN,1.683921E-07,-1.734961E-09,NaN,-1.582583E-06,9.000352E-05,NaN,3.523712E-05,-0.007061408,2.284806E-06,-9.00029E-05,NaN,NaN,1.782458E-07,0.007061499,5.38798E-07,-6.961622E-07,9.059906E-08,0.3671734
621.0627,1.356163E-08,-2.061235E-08,NaN,1.683921E-07,-1.734961E-09,NaN,-1.582583E-06,9.000352E-05,NaN,3.523712E-05,-0.007061408,2.284806E-06,-9.00029E-05,NaN,NaN,1.782458E-07,0.007061499,5.38798E-07,-6.961622E-07,9.059906E-08,0.3671734
621.0782,1.356163E-08,-2.061235E-08,NaN,1.683921E-07,-1.734961E-09,NaN,-1.582583E-06,9.000352E-05,NaN,3.523712E-05,-0.007061408,2.284806E-06,-9.00029E-05,NaN,NaN,1.782458E-07,0.007061499,5.38798E-07,-6.961622E-07,9.059906E-08,0.3671734
621.0961,1.356163E-08,-2.061235E-08,NaN,1.683921E-07,-1.734961E-09,NaN,-1.582583E-06,9.000352E-05,NaN,3.523712E-05,-0.007061408,2.284806E-06,-9.00029E-05,NaN,NaN,1.782458E-07,0.007061499,5.38798E-07,-6.961622E-07,9.059906E-08,0.3671734
621.1152,1.356163E-08,-2.061235E-08,NaN,1.683921E-07,-1.734961E-09,NaN,-1.582583E-06,9.000352E-05,NaN,3.523712E-05,-0.007061408,2.284806E-06,-9.00029E-05,NaN,NaN,1.782458E-07,0.007061499,5.38798E-07,-6.961622E-07,9.059906E-08,0.3671734
621.1347,1.356163E-08,-2.061235E-08,NaN,1.683921E-07,-1.734961E-09,NaN,-1.582583E-06,9.000352E-05,NaN,3.523712E-05,-0.007061408,2.284806E-06,-9.00029E-05,NaN,NaN,1.782458E-07,0.007061499,5.38798E-07,-6.961622E-07,9.059906E-08,0.3671734
621.1523,1.356163E-08,-2.061235E-08,NaN,1.683921E-07,-1.734961E-09,NaN,-1.582583E-06,9.000352E-05,NaN,3.523712E-05,-0.007061408,2.284806E-06,-9.00029E-05,NaN,NaN,1.782458E-07,0.007061499,5.38798E-07,-6.961622E-07,9.059906E-08,0.3671734
621.1711,1.356163E-08,-2.061235E-08,NaN,1.683921E-07,-1.734961E-09,NaN,-1.582583E-06,9.000352E-05,NaN,3.523712E-05,-0.007061408,2.284806E-06,-9.00029E-05,NaN,NaN,1.782458E-07,0.007061499,5.38798E-07,-6.961622E-07,9.059906E-08,0.3671734
621.1896,1.356163E-08,-2.061235E-08,NaN,1.683921E-07,-1.734961E-09,NaN,-1.582583E-06,9.000352E-05,NaN,3.523712E-05,-0.007061408,2.284806E-06,-9.00029E-05,NaN,NaN,1.782458E-07,0.007061499,5.38798E-07,-6.961622E-07,9.059906E-08,0.3671734
621.2081,1.356163E-08,-2.061235E-08,NaN,1.683921E-07,-1.734961E-09,NaN,-1.582583E-06,9.000352E-05,NaN,3.523712E-05,-0.007061408,2.284806E-06,-9.00029E-05,NaN,NaN,1.782458E-07,0.007061499,5.38798E-07,-6.961622E-07,9.059906E-08,0.3671734
621.2269,1.356163E-08,-2.061235E-08,NaN,1.683921E-07,-1.734961E-09,NaN,-1.582583E-06,9.000352E-05,NaN,3.523712E-05,-0.007061408,2.284806E-06,-9.00029E-05,NaN,NaN,1.782458E-07,0.007061499,5.38798E-07,-6.961622E-07,9.059906E-08,0.3671734
621.2452,1.356163E-08,-2.061235E-08,NaN,1.683921E-07,-1.734961E-09,NaN,-1.582583E-06,9.000352E-05,NaN,3.523712E-05,-0.007061408,2.284806E-06,-9.00029E-05,NaN,NaN,1.782458E-07,0.007061499,5.38798E-07,-6.961622E-07,9.059906E-08,0.3671734
621.2635,1.356163E-08,-2.061235E-08,NaN,1.683921E-07,-1.734961E-09,NaN,-1.582583E-06,9.000352E-05,NaN,3.523712E-05,-0.007061408,2.284806E-06,-9.00029E-05,NaN,NaN,1.782458E-07,0.007061499,5.38798E-07,-6.961622E-07,9.059906E-08,0.3671734
621.2824,1.356163E-08,-2.061235E-08,NaN,1.683921E-07,-1.734961E-09,NaN,-1.582583E-06,9.000352E-05,NaN,3.523712E-05,-0.007061408,2.284806E-06,-9.00029E-05,NaN,NaN,1.782458E-07,0.007061499,5.38798E-07,-6.961622E-07,9.059906E-08,0.3671734
621.3009,1.356163E-08,-2.061235E-08,NaN,1.683921E-07,-1.734961E-09,NaN,-1.582583E-06,9.000352E-05,NaN,3.523712E-05,-0.007061408,2.284806E-06,-9.00029E-05,NaN,NaN,1.782458E-07,0.007061499,5.38798E-07,-6.961622E-07,9.059906E-08,0.3671734
621.3196,1.356163E-08,-2.061235E-08,NaN,1.683921E-07,-1.734961E-09,NaN,-1.582583E-06,9.000352E-05,NaN,3.523712E-05,-0.007061408,2.284806E-06,-9.00029E-05,NaN,NaN,1.782458E-07,0.007061499,5.38798E-07,-6.961622E-07,9.059906E-08,0.3671734
621.3379,1.356163E-08,-2.061235E-08,NaN,1.683921E-07,-1.734961E-09,NaN,-1.582583E-06,9.000352E-05,NaN,3.523712E-05,-0.007061408,2.284806E-06,-9.00029E-05,NaN,NaN,1.782458E-07,0.007061499,5.38798E-07,-6.961622E-07,9.059906E-08,0.3671734
621.357,1.356163E-08,-2.061235E-08,NaN,1.683921E-07,-1.734961E-09,NaN,-1.582583E-06,9.000352E-05,NaN,3.523712E-05,-0.007061408,2.284806E-06,-9.00029E-05,NaN,NaN,1.782458E-07,0.007061499,5.38798E-07,-6.961622E-07,9.059906E-08,0.3671734
621.3754,1.356163E-08,-2.061235E-08,NaN,1.683921E-07,-1.734961E-09,NaN,-1.582583E-06,9.000352E-05,NaN,3.523712E-05,-0.007061408,2.284806E-06,-9.00029E-05,NaN,NaN,1.782458E-07,0.007061499,5.38798E-07,-6.961622E-07,9.059906E-08,0.3671734
621.3938,1.356163E-08,-2.061235E-08,NaN,1.683921E-07,-1.734961E-09,NaN,-1.582583E-06,9.000352E-05,NaN,3.523712E-05,-0.007061408,2.284806E-06,-9.00029E-05,NaN,NaN,1.782458E-07,0.007061499,5.38798E-07,-6.961622E-07,9.059906E-08,0.3671734
621.4124,1.356163E-08,-2.061235E-08,NaN,1.683921E-07,-1.734961E-09,NaN,-1.582583E-06,9.000352E-05,NaN,3.523712E-05,-0.007061408,2.284806E-06,-9.00029E-05,NaN,NaN,1.782458E-07,0.007061499,5.38798E-07,-6.961622E-07,9.059906E-08,0.3671734
621.431,1.356163E-08,-2.061235E-08,NaN,1.683921E-07,-1.734961E-09,NaN,-1.582583E-06,9.000352E-05,NaN,3.523712E-05,-0.007061408,2.284806E-06,-9.00029E-05,NaN,NaN,1.782458E-07,0.007061499,5.38798E-07,-6.961622E-07,9.059906E-08,0.3671734
621.4495,1.356163E-08,-2.061235E-08,NaN,1.683921E-07,-1.734961E-09,NaN,-1.582583E-06,9.000352E-05,NaN,3.523712E-05,-0.007061408,2.284806E-06,-9.00029E-05,NaN,NaN,1.782458E-07,0.007061499,5.38798E-07,-6.961622E-07,9.059906E-08,0.3671734
621.4682,1.356163E-08,-2.061235E-08,NaN,1.683921E-07,-1.734961E-09,NaN,-1.582583E-06,9.000352E-05,NaN,3.523712E-05,-0.007061408,2.284806E-06,-9.00029E-05,NaN,NaN,1.782458E-07,0.007061499,5.38798E-07,-6.961622E-07,9.059906E-08,0.3671734
621.4873,1.356163E-08,-2.061235E-08,NaN,1.683921E-07,-1.734961E-09,NaN,-1.582583E-06,9.000352E-05,NaN,3.523712E-05,-0.007061408,2.284806E-06,-9.00029E-05,NaN,NaN,1.782458E-07,0.007061499,5.38798E-07,-6.961622E-07,9.059906E-08,0.3671734
621.506,1.356163E-08,-2.061235E-08,NaN,1.683921E-07,-1.734961E-09,NaN,-1.582583E-06,9.000352E-05,NaN,3.523712E-05,-0.007061408,2.284806E-06,-9.00029E-05,NaN,NaN,1.782458E-07,0.007061499,5.38798E-07,-6.961622E-07,9.059906E-08,0.3671734
621.5244,1.356163E-08,-2.061235E-08,NaN,1.683921E-07,-1.734961E-09,NaN,-1.582583E-06,9.000352E-05,NaN,3.523712E-05,-0.007061408,2.284806E-06,-9.00029E-05,NaN,NaN,1.782458E-07,0.007061499,5.38798E-07,-6.961622E-07,9.059906E-08,0.3671734
621.5433,1.356163E-08,-2.061235E-08,NaN,1.683921E-07,-1.734961E-09,NaN,-1.582583E-06,9.000352E-05,NaN,3.523712E-05,-0.007061408,2.284806E-06,-9.00029E-05,NaN,NaN,1.782458E-07,0.007061499,5.38798E-07,-6.961622E-07,9.059906E-08,0.3671734
621.562,1.356163E-08,-2.061235E-08,NaN,1.683921E-07,-1.734961E-09,NaN,-1.582583E-06,9.000352E-05,NaN,3.523712E-05,-0.007061408,2.284806E-06,-9.00029E-05,NaN,NaN,1.782458E-07,0.007061499,5.38798E-07,-6.961622E-07,9.059906E-08,0.3671734
621.5805,1.356163E-08,-2.061235E-08,NaN,1.683921E-07,-1.734961E-09,NaN,-1.582583E-06,9.000352E-05,NaN,3.523712E-05,-0.007061408,2.284806E-06,-9.00029E-05,NaN,NaN,1.782458E-07,0.007061499,5.38798E-07,-6.961622E-07,9.059906E-08,0.3671734
621.5993,1.356163E-08,-2.061235E-08,NaN,1.683921E-07,-1.734961E-09,NaN,-1.582583E-06,9.000352E-05,NaN,3.523712E-05,-0.007061408,2.284806E-06,-9.00029E-05,NaN,NaN,1.782458E-07,0.007061499,5.38798E-07,-6.961622E-07,9.059906E-08,0.3671734
621.6174,1.356163E-08,-2.061235E-08,NaN,1.683921E-07,-1.734961E-09,NaN,-1.582583E-06,9.000352E-05,NaN,3.523712E-05,-0.007061408,2.284806E-06,-9.00029E-05,NaN,NaN,1.782458E-07,0.007061499,5.38798E-07,-6.961622E-07,9.059906E-08,0.3671734
621.6363,1.356163E-08,-2.061235E-08,NaN,1.683921E-07,-1.734961E-09,NaN,-1.582583E-06,9.000352E-05,NaN,3.523712E-05,-0.007061408,2.284806E-06,-9.00029E-05,NaN,NaN,1.782458E-07,0.007061499,5.38798E-07,-6.961622E-07,9.059906E-08,0.3671734
621.655,1.356163E-08,-2.061235E-08,NaN,1.683921E-07,-1.734961E-09,NaN,-1.582583E-06,9.000352E-05,NaN,3.523712E-05,-0.007061408,2.284806E-06,-9.00029E-05,NaN,NaN,1.782458E-07,0.007061499,5.38798E-07,-6.961622E-07,9.059906E-08,0.3671734
621.674,1.356163E-08,-2.061235E-08,NaN,1.683921E-07,-1.734961E-09,NaN,-1.582583E-06,9.000352E-05,NaN,3.523712E-05,-0.007061408,2.284806E-06,-9.00029E-05,NaN,NaN,1.782458E-07,0.007061499,5.38798E-07,-6.961622E-07,9.059906E-08,0.3671734
621.692,1.356163E-08,-2.061235E-08,NaN,1.683921E-07,-1.734961E-09,NaN,-1.582583E-06,9.000352E-05,NaN,3.523712E-05,-0.007061408,2.284806E-06,-9.00029E-05,NaN,NaN,1.782458E-07,0.007061499,5.38798E-07,-6.961622E-07,9.059906E-08,0.3671734
621.7106,1.356163E-08,-2.061235E-08,NaN,1.683921E-07,-1.734961E-09,NaN,-1.582583E-06,9.000352E-05,NaN,3.523712E-05,-0.007061408,2.284806E-06,-9.00029E-05,NaN,NaN,1.782458E-07,0.007061499,5.38798E-07,-6.961622E-07,9.059906E-08,0.3671734
621.7293,1.356163E-08,-2.061235E-08,NaN,1.683921E-07,-1.734961E-09,NaN,-1.582583E-06,9.000352E-05,NaN,3.523712E-05,-0.007061408,2.284806E-06,-9.00029E-05,NaN,NaN,1.782458E-07,0.007061499,5.38798E-07,-6.961622E-07,9.059906E-08,0.3671734
621.7478,1.356163E-08,-2.061235E-08,NaN,1.683921E-07,-1.734961E-09,NaN,-1.582583E-06,9.000352E-05,NaN,3.523712E-05,-0.007061408,2.284806E-06,-9.00029E-05,NaN,NaN,1.782458E-07,0.007061499,5.38798E-07,-6.961622E-07,9.059906E-08,0.3671734
621.7665,1.356163E-08,-2.061235E-08,NaN,1.683921E-07,-1.734961E-09,NaN,-1.582583E-06,9.000352E-05,NaN,3.523712E-05,-0.007061408,2.284806E-06,-9.00029E-05,NaN,NaN,1.782458E-07,0.007061499,5.38798E-07,-6.961622E-07,9.059906E-08,0.3671734
621.7849,1.356163E-08,-2.061235E-08,NaN,1.683921E-07,-1.734961E-09,NaN,-1.582583E-06,9.000352E-05,NaN,3.523712E-05,-0.007061408,2.284806E-06,-9.00029E-05,NaN,NaN,1.782458E-07,0.007061499,5.38798E-07,-6.961622E-07,9.059906E-08,0.3671734
621.8032,1.356163E-08,-2.061235E-08,NaN,1.683921E-07,-1.734961E-09,NaN,-1.582583E-06,9.000352E-05,NaN,3.523712E-05,-0.007061408,2.284806E-06,-9.00029E-05,NaN,NaN,1.782458E-07,0.007061499,5.38798E-07,-6.961622E-07,9.059906E-08,0.3671734
621.822,1.356163E-08,-2.061235E-08,NaN,1.683921E-07,-1.734961E-09,NaN,-1.582583E-06,9.000352E-05,NaN,3.523712E-05,-0.007061408,2.284806E-06,-9.00029E-05,NaN,NaN,1.782458E-07,0.007061499,5.38798E-07,-6.961622E-07,9.059906E-08,0.3671734
621.8404,1.356163E-08,-2.061235E-08,NaN,1.683921E-07,-1.734961E-09,NaN,-1.582583E-06,9.000352E-05,NaN,3.523712E-05,-0.007061408,2.284806E-06,-9.00029E-05,NaN,NaN,1.782458E-07,0.007061499,5.38798E-07,-6.961622E-07,9.059906E-08,0.3671734
621.8587,1.356163E-08,-2.061235E-08,NaN,1.683921E-07,-1.734961E-09,NaN,-1.582583E-06,9.000352E-05,NaN,3.523712E-05,-0.007061408,2.284806E-06,-9.00029E-05,NaN,NaN,1.782458E-07,0.007061499,5.38798E-07,-6.961622E-07,9.059906E-08,0.3671734
621.8772,1.356163E-08,-2.061235E-08,NaN,1.683921E-07,-1.734961E-09,NaN,-1.582583E-06,9.000352E-05,NaN,3.523712E-05,-0.007061408,2.284806E-06,-9.00029E-05,NaN,NaN,1.782458E-07,0.007061499,5.38798E-07,-6.961622E-07,9.059906E-08,0.3671734
621.8961,1.356163E-08,-2.061235E-08,NaN,1.683921E-07,-1.734961E-09,NaN,-1.582583E-06,9.000352E-05,NaN,3.523712E-05,-0.007061408,2.284806E-06,-9.00029E-05,NaN,NaN,1.782458E-07,0.007061499,5.38798E-07,-6.961622E-07,9.059906E-08,0.3671734
621.9144,1.356163E-08,-2.061235E-08,NaN,1.683921E-07,-1.734961E-09,NaN,-1.582583E-06,9.000352E-05,NaN,3.523712E-05,-0.007061408,2.284806E-06,-9.00029E-05,NaN,NaN,1.782458E-07,0.007061499,5.38798E-07,-6.961622E-07,9.059906E-08,0.3671734
621.9328,1.356163E-08,-2.061235E-08,NaN,1.683921E-07,-1.734961E-09,NaN,-1.582583E-06,9.000352E-05,NaN,3.523712E-05,-0.007061408,2.284806E-06,-9.00029E-05,NaN,NaN,1.782458E-07,0.007061499,5.38798E-07,-6.961622E-07,9.059906E-08,0.3671734
621.9516,1.356163E-08,-2.061235E-08,NaN,1.683921E-07,-1.734961E-09,NaN,-1.582583E-06,9.000352E-05,NaN,3.523712E-05,-0.007061408,2.284806E-06,-9.00029E-05,NaN,NaN,1.782458E-07,0.007061499,5.38798E-07,-6.961622E-07,9.059906E-08,0.3671734
621.9701,1.356163E-08,-2.061235E-08,NaN,1.683921E-07,-1.734961E-09,NaN,-1.582583E-06,9.000352E-05,NaN,3.523712E-05,-0.007061408,2.284806E-06,-9.00029E-05,NaN,NaN,1.782458E-07,0.007061499,5.38798E-07,-6.961622E-07,9.059906E-08,0.3671734
621.9886,1.356163E-08,-2.061235E-08,NaN,1.683921E-07,-1.734961E-09,NaN,-1.582583E-06,9.000352E-05,NaN,3.523712E-05,-0.007061408,2.284806E-06,-9.00029E-05,NaN,NaN,1.782458E-07,0.007061499,5.38798E-07,-6.961622E-07,9.059906E-08,0.3671734
622.0073,1.356163E-08,-2.061235E-08,NaN,1.683921E-07,-1.734961E-09,NaN,-1.582583E-06,9.000352E-05,NaN,3.523712E-05,-0.007061408,2.284806E-06,-9.00029E-05,NaN,NaN,1.782458E-07,0.007061499,5.38798E-07,-6.961622E-07,9.059906E-08,0.3671734
622.0255,1.356163E-08,-2.061235E-08,NaN,1.683921E-07,-1.734961E-09,NaN,-1.582583E-06,9.000352E-05,NaN,3.523712E-05,-0.007061408,2.284806E-06,-9.00029E-05,NaN,NaN,1.782458E-07,0.007061499,5.38798E-07,-6.961622E-07,9.059906E-08,0.3671734
622.0438,1.356163E-08,-2.061235E-08,NaN,1.683921E-07,-1.734961E-09,NaN,-1.582583E-06,9.000352E-05,NaN,3.523712E-05,-0.007061408,2.284806E-06,-9.00029E-05,NaN,NaN,1.782458E-07,0.007061499,5.38798E-07,-6.961622E-07,9.059906E-08,0.3671734
622.0624,1.356163E-08,-2.061235E-08,NaN,1.683921E-07,-1.734961E-09,NaN,-1.582583E-06,9.000352E-05,NaN,3.523712E-05,-0.007061408,2.284806E-06,-9.00029E-05,NaN,NaN,1.782458E-07,0.007061499,5.38798E-07,-6.961622E-07,9.059906E-08,0.3671734
622.0809,1.356163E-08,-2.061235E-08,NaN,1.683921E-07,-1.734961E-09,NaN,-1.582583E-06,9.000352E-05,NaN,3.523712E-05,-0.007061408,2.284806E-06,-9.00029E-05,NaN,NaN,1.782458E-07,0.007061499,5.38798E-07,-6.961622E-07,9.059906E-08,0.3671734
622.0995,1.356163E-08,-2.061235E-08,NaN,1.683921E-07,-1.734961E-09,NaN,-1.582583E-06,9.000352E-05,NaN,3.523712E-05,-0.007061408,2.284806E-06,-9.00029E-05,NaN,NaN,1.782458E-07,0.007061499,5.38798E-07,-6.961622E-07,9.059906E-08,0.3671734
622.1183,1.356163E-08,-2.061235E-08,NaN,1.683921E-07,-1.734961E-09,NaN,-1.582583E-06,9.000352E-05,NaN,3.523712E-05,-0.007061408,2.284806E-06,-9.00029E-05,NaN,NaN,1.782458E-07,0.007061499,5.38798E-07,-6.961622E-07,9.059906E-08,0.3671734
622.1394,1.356163E-08,-2.061235E-08,NaN,1.683921E-07,-1.734961E-09,NaN,-1.582583E-06,9.000352E-05,NaN,3.523712E-05,-0.007061408,2.284806E-06,-9.00029E-05,NaN,NaN,1.782458E-07,0.007061499,5.38798E-07,-6.961622E-07,9.059906E-08,0.3671734
622.1587,1.356163E-08,-2.061235E-08,NaN,1.683921E-07,-1.734961E-09,NaN,-1.582583E-06,9.000352E-05,NaN,3.523712E-05,-0.007061408,2.284806E-06,-9.00029E-05,NaN,NaN,1.782458E-07,0.007061499,5.38798E-07,-6.961622E-07,9.059906E-08,0.3671734
622.1809,1.356163E-08,-2.061235E-08,NaN,1.683921E-07,-1.734961E-09,NaN,-1.582583E-06,9.000352E-05,NaN,3.523712E-05,-0.007061408,2.284806E-06,-9.00029E-05,NaN,NaN,1.782458E-07,0.007061499,5.38798E-07,-6.961622E-07,9.059906E-08,0.3671734
622.2007,1.356163E-08,-2.061235E-08,NaN,1.683921E-07,-1.734961E-09,NaN,-1.582583E-06,9.000352E-05,NaN,3.523712E-05,-0.007061408,2.284806E-06,-9.00029E-05,NaN,NaN,1.782458E-07,0.007061499,5.38798E-07,-6.961622E-07,9.059906E-08,0.3671734
622.2203,1.356163E-08,-2.061235E-08,NaN,1.683921E-07,-1.734961E-09,NaN,-1.582583E-06,9.000352E-05,NaN,3.523712E-05,-0.007061408,2.284806E-06,-9.00029E-05,NaN,NaN,1.782458E-07,0.007061499,5.38798E-07,-6.961622E-07,9.059906E-08,0.3671734
622.2424,1.356163E-08,-2.061235E-08,NaN,1.683921E-07,-1.734961E-09,NaN,-1.582583E-06,9.000352E-05,NaN,3.523712E-05,-0.007061408,2.284806E-06,-9.00029E-05,NaN,NaN,1.782458E-07,0.007061499,5.38798E-07,-6.961622E-07,9.059906E-08,0.3671734
622.2615,1.356163E-08,-2.061235E-08,NaN,1.683921E-07,-1.734961E-09,NaN,-1.582583E-06,9.000352E-05,NaN,3.523712E-05,-0.007061408,2.284806E-06,-9.00029E-05,NaN,NaN,1.782458E-07,0.007061499,5.38798E-07,-6.961622E-07,9.059906E-08,0.3671734
622.2806,1.356163E-08,-2.061235E-08,NaN,1.683921E-07,-1.734961E-09,NaN,-1.582583E-06,9.000352E-05,NaN,3.523712E-05,-0.007061408,2.284806E-06,-9.00029E-05,NaN,NaN,1.782458E-07,0.007061499,5.38798E-07,-6.961622E-07,9.059906E-08,0.3671734
622.2994,1.356163E-08,-2.061235E-08,NaN,1.683921E-07,-1.734961E-09,NaN,-1.582583E-06,9.000352E-05,NaN,3.523712E-05,-0.007061408,2.284806E-06,-9.00029E-05,NaN,NaN,1.782458E-07,0.007061499,5.38798E-07,-6.961622E-07,9.059906E-08,0.3671734
622.3179,1.356163E-08,-2.061235E-08,NaN,1.683921E-07,-1.734961E-09,NaN,-1.582583E-06,9.000352E-05,NaN,3.523712E-05,-0.007061408,2.284806E-06,-9.00029E-05,NaN,NaN,1.782458E-07,0.007061499,5.38798E-07,-6.961622E-07,9.059906E-08,0.3671734
622.3371,1.356163E-08,-2.061235E-08,NaN,1.683921E-07,-1.734961E-09,NaN,-1.582583E-06,9.000352E-05,NaN,3.523712E-05,-0.007061408,2.284806E-06,-9.00029E-05,NaN,NaN,1.782458E-07,0.007061499,5.38798E-07,-6.961622E-07,9.059906E-08,0.3671734
622.356,1.356163E-08,-2.061235E-08,NaN,1.683921E-07,-1.734961E-09,NaN,-1.582583E-06,9.000352E-05,NaN,3.523712E-05,-0.007061408,2.284806E-06,-9.00029E-05,NaN,NaN,1.782458E-07,0.007061499,5.38798E-07,-6.961622E-07,9.059906E-08,0.3671734
622.3743,1.356163E-08,-2.061235E-08,NaN,1.683921E-07,-1.734961E-09,NaN,-1.582583E-06,9.000352E-05,NaN,3.523712E-05,-0.007061408,2.284806E-06,-9.00029E-05,NaN,NaN,1.782458E-07,0.007061499,5.38798E-07,-6.961622E-07,9.059906E-08,0.3671734
622.3929,1.356163E-08,-2.061235E-08,NaN,1.683921E-07,-1.734961E-09,NaN,-1.582583E-06,9.000352E-05,NaN,3.523712E-05,-0.007061408,2.284806E-06,-9.00029E-05,NaN,NaN,1.782458E-07,0.007061499,5.38798E-07,-6.961622E-07,9.059906E-08,0.3671734
622.4115,1.356163E-08,-2.061235E-08,NaN,1.683921E-07,-1.734961E-09,NaN,-1.582583E-06,9.000352E-05,NaN,3.523712E-05,-0.007061408,2.284806E-06,-9.00029E-05,NaN,NaN,1.782458E-07,0.007061499,5.38798E-07,-6.961622E-07,9.059906E-08,0.3671734
622.4302,1.356163E-08,-2.061235E-08,NaN,1.683921E-07,-1.734961E-09,NaN,-1.582583E-06,9.000352E-05,NaN,3.523712E-05,-0.007061408,2.284806E-06,-9.00029E-05,NaN,NaN,1.782458E-07,0.007061499,5.38798E-07,-6.961622E-07,9.059906E-08,0.3671734
622.449,1.356163E-08,-2.061235E-08,NaN,1.683921E-07,-1.734961E-09,NaN,-1.582583E-06,9.000352E-05,NaN,3.523712E-05,-0.007061408,2.284806E-06,-9.00029E-05,NaN,NaN,1.782458E-07,0.007061499,5.38798E-07,-6.961622E-07,9.059906E-08,0.3671734
622.4675,1.356163E-08,-2.061235E-08,NaN,1.683921E-07,-1.734961E-09,NaN,-1.582583E-06,9.000352E-05,NaN,3.523712E-05,-0.007061408,2.284806E-06,-9.00029E-05,NaN,NaN,1.782458E-07,0.007061499,5.38798E-07,-6.961622E-07,9.059906E-08,0.3671734
622.4872,1.356163E-08,-2.061235E-08,NaN,1.683921E-07,-1.734961E-09,NaN,-1.582583E-06,9.000352E-05,NaN,3.523712E-05,-0.007061408,2.284806E-06,-9.00029E-05,NaN,NaN,1.782458E-07,0.007061499,5.38798E-07,-6.961622E-07,9.059906E-08,0.3671734
622.5048,1.356163E-08,-2.061235E-08,NaN,1.683921E-07,-1.734961E-09,NaN,-1.582583E-06,9.000352E-05,NaN,3.523712E-05,-0.007061408,2.284806E-06,-9.00029E-05,NaN,NaN,1.782458E-07,0.007061499,5.38798E-07,-6.961622E-07,9.059906E-08,0.3671734
622.5234,1.356163E-08,-2.061235E-08,NaN,1.683921E-07,-1.734961E-09,NaN,-1.582583E-06,9.000352E-05,NaN,3.523712E-05,-0.007061408,2.284806E-06,-9.00029E-05,NaN,NaN,1.782458E-07,0.007061499,5.38798E-07,-6.961622E-07,9.059906E-08,0.3671734
622.5418,1.356163E-08,-2.061235E-08,NaN,1.683921E-07,-1.734961E-09,NaN,-1.582583E-06,9.000352E-05,NaN,3.523712E-05,-0.007061408,2.284806E-06,-9.00029E-05,NaN,NaN,1.782458E-07,0.007061499,5.38798E-07,-6.961622E-07,9.059906E-08,0.3671734
622.5605,1.356163E-08,-2.061235E-08,NaN,1.683921E-07,-1.734961E-09,NaN,-1.582583E-06,9.000352E-05,NaN,3.523712E-05,-0.007061408,2.284806E-06,-9.00029E-05,NaN,NaN,1.782458E-07,0.007061499,5.38798E-07,-6.961622E-07,9.059906E-08,0.3671734
622.5792,1.356163E-08,-2.061235E-08,NaN,1.683921E-07,-1.734961E-09,NaN,-1.582583E-06,9.000352E-05,NaN,3.523712E-05,-0.007061408,2.284806E-06,-9.00029E-05,NaN,NaN,1.782458E-07,0.007061499,5.38798E-07,-6.961622E-07,9.059906E-08,0.3671734
622.5977,1.356163E-08,-2.061235E-08,NaN,1.683921E-07,-1.734961E-09,NaN,-1.582583E-06,9.000352E-05,NaN,3.523712E-05,-0.007061408,2.284806E-06,-9.00029E-05,NaN,NaN,1.782458E-07,0.007061499,5.38798E-07,-6.961622E-07,9.059906E-08,0.3671734
622.6175,1.356163E-08,-2.061235E-08,NaN,1.683921E-07,-1.734961E-09,NaN,-1.582583E-06,9.000352E-05,NaN,3.523712E-05,-0.007061408,2.284806E-06,-9.00029E-05,NaN,NaN,1.782458E-07,0.007061499,5.38798E-07,-6.961622E-07,9.059906E-08,0.3671734
622.6371,1.356163E-08,-2.061235E-08,NaN,1.683921E-07,-1.734961E-09,NaN,-1.582583E-06,9.000352E-05,NaN,3.523712E-05,-0.007061408,2.284806E-06,-9.00029E-05,NaN,NaN,1.782458E-07,0.007061499,5.38798E-07,-6.961622E-07,9.059906E-08,0.3671734
622.6571,1.356163E-08,-2.061235E-08,NaN,1.683921E-07,-1.734961E-09,NaN,-1.582583E-06,9.000352E-05,NaN,3.523712E-05,-0.007061408,2.284806E-06,-9.00029E-05,NaN,NaN,1.782458E-07,0.007061499,5.38798E-07,-6.961622E-07,9.059906E-08,0.3671734
622.6765,1.356163E-08,-2.061235E-08,NaN,1.683921E-07,-1.734961E-09,NaN,-1.582583E-06,9.000352E-05,NaN,3.523712E-05,-0.007061408,2.284806E-06,-9.00029E-05,NaN,NaN,1.782458E-07,0.007061499,5.38798E-07,-6.961622E-07,9.059906E-08,0.3671734
622.6967,1.356163E-08,-2.061235E-08,NaN,1.683921E-07,-1.734961E-09,NaN,-1.582583E-06,9.000352E-05,NaN,3.523712E-05,-0.007061408,2.284806E-06,-9.00029E-05,NaN,NaN,1.782458E-07,0.007061499,5.38798E-07,-6.961622E-07,9.059906E-08,0.3671734
622.716,1.356163E-08,-2.061235E-08,NaN,1.683921E-07,-1.734961E-09,NaN,-1.582583E-06,9.000352E-05,NaN,3.523712E-05,-0.007061408,2.284806E-06,-9.00029E-05,NaN,NaN,1.782458E-07,0.007061499,5.38798E-07,-6.961622E-07,9.059906E-08,0.3671734
622.7354,1.356163E-08,-2.061235E-08,NaN,1.683921E-07,-1.734961E-09,NaN,-1.582583E-06,9.000352E-05,NaN,3.523712E-05,-0.007061408,2.284806E-06,-9.00029E-05,NaN,NaN,1.782458E-07,0.007061499,5.38798E-07,-6.961622E-07,9.059906E-08,0.3671734
622.7576,1.356163E-08,-2.061235E-08,NaN,1.683921E-07,-1.734961E-09,NaN,-1.582583E-06,9.000352E-05,NaN,3.523712E-05,-0.007061408,2.284806E-06,-9.00029E-05,NaN,NaN,1.782458E-07,0.007061499,5.38798E-07,-6.961622E-07,9.059906E-08,0.3671734
622.7763,1.356163E-08,-2.061235E-08,NaN,1.683921E-07,-1.734961E-09,NaN,-1.582583E-06,9.000352E-05,NaN,3.523712E-05,-0.007061408,2.284806E-06,-9.00029E-05,NaN,NaN,1.782458E-07,0.007061499,5.38798E-07,-6.961622E-07,9.059906E-08,0.3671734
622.7944,1.356163E-08,-2.061235E-08,NaN,1.683921E-07,-1.734961E-09,NaN,-1.582583E-06,9.000352E-05,NaN,3.523712E-05,-0.007061408,2.284806E-06,-9.00029E-05,NaN,NaN,1.782458E-07,0.007061499,5.38798E-07,-6.961622E-07,9.059906E-08,0.3671734
622.8132,1.356163E-08,-2.061235E-08,NaN,1.683921E-07,-1.734961E-09,NaN,-1.582583E-06,9.000352E-05,NaN,3.523712E-05,-0.007061408,2.284806E-06,-9.00029E-05,NaN,NaN,1.782458E-07,0.007061499,5.38798E-07,-6.961622E-07,9.059906E-08,0.3671734
622.8315,1.356163E-08,-2.061235E-08,NaN,1.683921E-07,-1.734961E-09,NaN,-1.582583E-06,9.000352E-05,NaN,3.523712E-05,-0.007061408,2.284806E-06,-9.00029E-05,NaN,NaN,1.782458E-07,0.007061499,5.38798E-07,-6.961622E-07,9.059906E-08,0.3671734
622.8499,1.356163E-08,-2.061235E-08,NaN,1.683921E-07,-1.734961E-09,NaN,-1.582583E-06,9.000352E-05,NaN,3.523712E-05,-0.007061408,2.284806E-06,-9.00029E-05,NaN,NaN,1.782458E-07,0.007061499,5.38798E-07,-6.961622E-07,9.059906E-08,0.3671734
622.8685,1.356163E-08,-2.061235E-08,NaN,1.683921E-07,-1.734961E-09,NaN,-1.582583E-06,9.000352E-05,NaN,3.523712E-05,-0.007061408,2.284806E-06,-9.00029E-05,NaN,NaN,1.782458E-07,0.007061499,5.38798E-07,-6.961622E-07,9.059906E-08,0.3671734
622.8872,1.356163E-08,-2.061235E-08,NaN,1.683921E-07,-1.734961E-09,NaN,-1.582583E-06,9.000352E-05,NaN,3.523712E-05,-0.007061408,2.284806E-06,-9.00029E-05,NaN,NaN,1.782458E-07,0.007061499,5.38798E-07,-6.961622E-07,9.059906E-08,0.3671734
622.9055,1.356163E-08,-2.061235E-08,NaN,1.683921E-07,-1.734961E-09,NaN,-1.582583E-06,9.000352E-05,NaN,3.523712E-05,-0.007061408,2.284806E-06,-9.00029E-05,NaN,NaN,1.782458E-07,0.007061499,5.38798E-07,-6.961622E-07,9.059906E-08,0.3671734
622.9238,1.356163E-08,-2.061235E-08,NaN,1.683921E-07,-1.734961E-09,NaN,-1.582583E-06,9.000352E-05,NaN,3.523712E-05,-0.007061408,2.284806E-06,-9.00029E-05,NaN,NaN,1.782458E-07,0.007061499,5.38798E-07,-6.961622E-07,9.059906E-08,0.3671734
622.9421,1.356163E-08,-2.061235E-08,NaN,1.683921E-07,-1.734961E-09,NaN,-1.582583E-06,9.000352E-05,NaN,3.523712E-05,-0.007061408,2.284806E-06,-9.00029E-05,NaN,NaN,1.782458E-07,0.007061499,5.38798E-07,-6.961622E-07,9.059906E-08,0.3671734
622.9604,1.356163E-08,-2.061235E-08,NaN,1.683921E-07,-1.734961E-09,NaN,-1.582583E-06,9.000352E-05,NaN,3.523712E-05,-0.007061408,2.284806E-06,-9.00029E-05,NaN,NaN,1.782458E-07,0.007061499,5.38798E-07,-6.961622E-07,9.059906E-08,0.3671734
622.9789,1.356163E-08,-2.061235E-08,NaN,1.683921E-07,-1.734961E-09,NaN,-1.582583E-06,9.000352E-05,NaN,3.523712E-05,-0.007061408,2.284806E-06,-9.00029E-05,NaN,NaN,1.782458E-07,0.007061499,5.38798E-07,-6.961622E-07,9.059906E-08,0.3671734
622.9967,1.356163E-08,-2.061235E-08,NaN,1.683921E-07,-1.734961E-09,NaN,-1.582583E-06,9.000352E-05,NaN,3.523712E-05,-0.007061408,2.284806E-06,-9.00029E-05,NaN,NaN,1.782458E-07,0.007061499,5.38798E-07,-6.961622E-07,9.059906E-08,0.3671734
623.0168,1.356163E-08,-2.061235E-08,NaN,1.683921E-07,-1.734961E-09,NaN,-1.582583E-06,9.000352E-05,NaN,3.523712E-05,-0.007061408,2.284806E-06,-9.00029E-05,NaN,NaN,1.782458E-07,0.007061499,5.38798E-07,-6.961622E-07,9.059906E-08,0.3671734
623.0336,1.356163E-08,-2.061235E-08,NaN,1.683921E-07,-1.734961E-09,NaN,-1.582583E-06,9.000352E-05,NaN,3.523712E-05,-0.007061408,2.284806E-06,-9.00029E-05,NaN,NaN,1.782458E-07,0.007061499,5.38798E-07,-6.961622E-07,9.059906E-08,0.3671734
623.0517,1.356163E-08,-2.061235E-08,NaN,1.683921E-07,-1.734961E-09,NaN,-1.582583E-06,9.000352E-05,NaN,3.523712E-05,-0.007061408,2.284806E-06,-9.00029E-05,NaN,NaN,1.782458E-07,0.007061499,5.38798E-07,-6.961622E-07,9.059906E-08,0.3671734
623.0696,1.356163E-08,-2.061235E-08,NaN,1.683921E-07,-1.734961E-09,NaN,-1.582583E-06,9.000352E-05,NaN,3.523712E-05,-0.007061408,2.284806E-06,-9.00029E-05,NaN,NaN,1.782458E-07,0.007061499,5.38798E-07,-6.961622E-07,9.059906E-08,0.3671734
623.0879,1.356163E-08,-2.061235E-08,NaN,1.683921E-07,-1.734961E-09,NaN,-1.582583E-06,9.000352E-05,NaN,3.523712E-05,-0.007061408,2.284806E-06,-9.00029E-05,NaN,NaN,1.782458E-07,0.007061499,5.38798E-07,-6.961622E-07,9.059906E-08,0.3671734
623.1063,1.356163E-08,-2.061235E-08,NaN,1.683921E-07,-1.734961E-09,NaN,-1.582583E-06,9.000352E-05,NaN,3.523712E-05,-0.007061408,2.284806E-06,-9.00029E-05,NaN,NaN,1.782458E-07,0.007061499,5.38798E-07,-6.961622E-07,9.059906E-08,0.3671734
623.1241,1.356163E-08,-2.061235E-08,NaN,1.683921E-07,-1.734961E-09,NaN,-1.582583E-06,9.000352E-05,NaN,3.523712E-05,-0.007061408,2.284806E-06,-9.00029E-05,NaN,NaN,1.782458E-07,0.007061499,5.38798E-07,-6.961622E-07,9.059906E-08,0.3671734
623.1434,1.356163E-08,-2.061235E-08,NaN,1.683921E-07,-1.734961E-09,NaN,-1.582583E-06,9.000352E-05,NaN,3.523712E-05,-0.007061408,2.284806E-06,-9.00029E-05,NaN,NaN,1.782458E-07,0.007061499,5.38798E-07,-6.961622E-07,9.059906E-08,0.3671734
623.162,1.356163E-08,-2.061235E-08,NaN,1.683921E-07,-1.734961E-09,NaN,-1.582583E-06,9.000352E-05,NaN,3.523712E-05,-0.007061408,2.284806E-06,-9.00029E-05,NaN,NaN,1.782458E-07,0.007061499,5.38798E-07,-6.961622E-07,9.059906E-08,0.3671734
623.1807,1.356163E-08,-2.061235E-08,NaN,1.683921E-07,-1.734961E-09,NaN,-1.582583E-06,9.000352E-05,NaN,3.523712E-05,-0.007061408,2.284806E-06,-9.00029E-05,NaN,NaN,1.782458E-07,0.007061499,5.38798E-07,-6.961622E-07,9.059906E-08,0.3671734
623.2,1.356163E-08,-2.061235E-08,NaN,1.683921E-07,-1.734961E-09,NaN,-1.582583E-06,9.000352E-05,NaN,3.523712E-05,-0.007061408,2.284806E-06,-9.00029E-05,NaN,NaN,1.782458E-07,0.007061499,5.38798E-07,-6.961622E-07,9.059906E-08,0.3671734
623.2189,1.356163E-08,-2.061235E-08,NaN,1.683921E-07,-1.734961E-09,NaN,-1.582583E-06,9.000352E-05,NaN,3.523712E-05,-0.007061408,2.284806E-06,-9.00029E-05,NaN,NaN,1.782458E-07,0.007061499,5.38798E-07,-6.961622E-07,9.059906E-08,0.3671734
623.238,1.356163E-08,-2.061235E-08,NaN,1.683921E-07,-1.734961E-09,NaN,-1.582583E-06,9.000352E-05,NaN,3.523712E-05,-0.007061408,2.284806E-06,-9.00029E-05,NaN,NaN,1.782458E-07,0.007061499,5.38798E-07,-6.961622E-07,9.059906E-08,0.3671734
623.2588,1.356163E-08,-2.061235E-08,NaN,1.683921E-07,-1.734961E-09,NaN,-1.582583E-06,9.000352E-05,NaN,3.523712E-05,-0.007061408,2.284806E-06,-9.00029E-05,NaN,NaN,1.782458E-07,0.007061499,5.38798E-07,-6.961622E-07,9.059906E-08,0.3671734
623.2773,1.356163E-08,-2.061235E-08,NaN,1.683921E-07,-1.734961E-09,NaN,-1.582583E-06,9.000352E-05,NaN,3.523712E-05,-0.007061408,2.284806E-06,-9.00029E-05,NaN,NaN,1.782458E-07,0.007061499,5.38798E-07,-6.961622E-07,9.059906E-08,0.3671734
623.2959,1.356163E-08,-2.061235E-08,NaN,1.683921E-07,-1.734961E-09,NaN,-1.582583E-06,9.000352E-05,NaN,3.523712E-05,-0.007061408,2.284806E-06,-9.00029E-05,NaN,NaN,1.782458E-07,0.007061499,5.38798E-07,-6.961622E-07,9.059906E-08,0.3671734
623.3146,1.356163E-08,-2.061235E-08,NaN,1.683921E-07,-1.734961E-09,NaN,-1.582583E-06,9.000352E-05,NaN,3.523712E-05,-0.007061408,2.284806E-06,-9.00029E-05,NaN,NaN,1.782458E-07,0.007061499,5.38798E-07,-6.961622E-07,9.059906E-08,0.3671734
623.3329,1.356163E-08,-2.061235E-08,NaN,1.683921E-07,-1.734961E-09,NaN,-1.582583E-06,9.000352E-05,NaN,3.523712E-05,-0.007061408,2.284806E-06,-9.00029E-05,NaN,NaN,1.782458E-07,0.007061499,5.38798E-07,-6.961622E-07,9.059906E-08,0.3671734
623.3514,1.356163E-08,-2.061235E-08,NaN,1.683921E-07,-1.734961E-09,NaN,-1.582583E-06,9.000352E-05,NaN,3.523712E-05,-0.007061408,2.284806E-06,-9.00029E-05,NaN,NaN,1.782458E-07,0.007061499,5.38798E-07,-6.961622E-07,9.059906E-08,0.3671734
623.3701,1.356163E-08,-2.061235E-08,NaN,1.683921E-07,-1.734961E-09,NaN,-1.582583E-06,9.000352E-05,NaN,3.523712E-05,-0.007061408,2.284806E-06,-9.00029E-05,NaN,NaN,1.782458E-07,0.007061499,5.38798E-07,-6.961622E-07,9.059906E-08,0.3671734
