JMolnar6/NonAnthroHands_User_Study/HandsLoggerWithURDF/tempdata/files/r_shoulder_JointMotion_gesture_7_8.csv
Time,r_shoulder,r_shoulder_x,r_upper_arm,r_forearm,r_wrist,r_wrist2hand,r_gripper_thumb,r_gripper_finger,
125.9519,1.356163E-08,-2.061235E-08,NaN,1.683921E-07,-1.734961E-09,NaN,-1.582583E-06,9.000352E-05,NaN,3.523712E-05,-0.007061408,2.284806E-06,-9.00029E-05,NaN,NaN,1.782458E-07,0.007061499,5.38798E-07,-6.961622E-07,9.059906E-08,0.3671734
125.9726,1.356163E-08,-2.061235E-08,NaN,1.683921E-07,-1.734961E-09,NaN,-1.582583E-06,9.000352E-05,NaN,3.523712E-05,-0.007061408,2.284806E-06,-9.00029E-05,NaN,NaN,1.782458E-07,0.007061499,5.38798E-07,-6.961622E-07,9.059906E-08,0.3671734
125.9911,1.356163E-08,-2.061235E-08,NaN,1.683921E-07,-1.734961E-09,NaN,-1.582583E-06,9.000352E-05,NaN,3.523712E-05,-0.007061408,2.284806E-06,-9.00029E-05,NaN,NaN,1.782458E-07,0.007061499,5.38798E-07,-6.961622E-07,9.059906E-08,0.3671734
126.011,1.356163E-08,-2.061235E-08,NaN,1.683921E-07,-1.734961E-09,NaN,-1.582583E-06,9.000352E-05,NaN,3.523712E-05,-0.007061408,2.284806E-06,-9.00029E-05,NaN,NaN,1.782458E-07,0.007061499,5.38798E-07,-6.961622E-07,9.059906E-08,0.3671734
126.0307,1.356163E-08,-2.061235E-08,NaN,1.683921E-07,-1.734961E-09,NaN,-1.582583E-06,9.000352E-05,NaN,3.523712E-05,-0.007061408,2.284806E-06,-9.00029E-05,NaN,NaN,1.782458E-07,0.007061499,5.38798E-07,-6.961622E-07,9.059906E-08,0.3671734
126.0503,1.356163E-08,-2.061235E-08,NaN,1.683921E-07,-1.734961E-09,NaN,-1.582583E-06,9.000352E-05,NaN,3.523712E-05,-0.007061408,2.284806E-06,-9.00029E-05,NaN,NaN,1.782458E-07,0.007061499,5.38798E-07,-6.961622E-07,9.059906E-08,0.3671734
126.0701,1.356163E-08,-2.061235E-08,NaN,1.683921E-07,-1.734961E-09,NaN,-1.582583E-06,9.000352E-05,NaN,3.523712E-05,-0.007061408,2.284806E-06,-9.00029E-05,NaN,NaN,1.782458E-07,0.007061499,5.38798E-07,-6.961622E-07,9.059906E-08,0.3671734
126.09,1.356163E-08,-2.061235E-08,NaN,1.683921E-07,-1.734961E-09,NaN,-1.582583E-06,9.000352E-05,NaN,3.523712E-05,-0.007061408,2.284806E-06,-9.00029E-05,NaN,NaN,1.782458E-07,0.007061499,5.38798E-07,-6.961622E-07,9.059906E-08,0.3671734
126.1104,1.356163E-08,-2.061235E-08,NaN,1.683921E-07,-1.734961E-09,NaN,-1.582583E-06,9.000352E-05,NaN,3.523712E-05,-0.007061408,2.284806E-06,-9.00029E-05,NaN,NaN,1.782458E-07,0.007061499,5.38798E-07,-6.961622E-07,9.059906E-08,0.3671734
126.1297,1.356163E-08,-2.061235E-08,NaN,1.683921E-07,-1.734961E-09,NaN,-1.582583E-06,9.000352E-05,NaN,3.523712E-05,-0.007061408,2.284806E-06,-9.00029E-05,NaN,NaN,1.782458E-07,0.007061499,5.38798E-07,-6.961622E-07,9.059906E-08,0.3671734
126.1495,1.356163E-08,-2.061235E-08,NaN,1.683921E-07,-1.734961E-09,NaN,-1.582583E-06,9.000352E-05,NaN,3.523712E-05,-0.007061408,2.284806E-06,-9.00029E-05,NaN,NaN,1.782458E-07,0.007061499,5.38798E-07,-6.961622E-07,9.059906E-08,0.3671734
126.1696,1.356163E-08,-2.061235E-08,NaN,1.683921E-07,-1.734961E-09,NaN,-1.582583E-06,9.000352E-05,NaN,3.523712E-05,-0.007061408,2.284806E-06,-9.00029E-05,NaN,NaN,1.782458E-07,0.007061499,5.38798E-07,-6.961622E-07,9.059906E-08,0.3671734
126.1896,1.356163E-08,-2.061235E-08,NaN,1.683921E-07,-1.734961E-09,NaN,-1.582583E-06,9.000352E-05,NaN,3.523712E-05,-0.007061408,2.284806E-06,-9.00029E-05,NaN,NaN,1.782458E-07,0.007061499,5.38798E-07,-6.961622E-07,9.059906E-08,0.3671734
126.2104,1.356163E-08,-2.061235E-08,NaN,1.683921E-07,-1.734961E-09,NaN,-1.582583E-06,9.000352E-05,NaN,3.523712E-05,-0.007061408,2.284806E-06,-9.00029E-05,NaN,NaN,1.782458E-07,0.007061499,5.38798E-07,-6.961622E-07,9.059906E-08,0.3671734
126.2293,1.356163E-08,-2.061235E-08,NaN,1.683921E-07,-1.734961E-09,NaN,-1.582583E-06,9.000352E-05,NaN,3.523712E-05,-0.007061408,2.284806E-06,-9.00029E-05,NaN,NaN,1.782458E-07,0.007061499,5.38798E-07,-6.961622E-07,9.059906E-08,0.3671734
126.25,1.356163E-08,-2.061235E-08,NaN,1.683921E-07,-1.734961E-09,NaN,-1.582583E-06,9.000352E-05,NaN,3.523712E-05,-0.007061408,2.284806E-06,-9.00029E-05,NaN,NaN,1.782458E-07,0.007061499,5.38798E-07,-6.961622E-07,9.059906E-08,0.3671734
126.2696,1.356163E-08,-2.061235E-08,NaN,1.683921E-07,-1.734961E-09,NaN,-1.582583E-06,9.000352E-05,NaN,3.523712E-05,-0.007061408,2.284806E-06,-9.00029E-05,NaN,NaN,1.782458E-07,0.007061499,5.38798E-07,-6.961622E-07,9.059906E-08,0.3671734
126.2901,1.356163E-08,-2.061235E-08,NaN,1.683921E-07,-1.734961E-09,NaN,-1.582583E-06,9.000352E-05,NaN,3.523712E-05,-0.007061408,2.284806E-06,-9.00029E-05,NaN,NaN,1.782458E-07,0.007061499,5.38798E-07,-6.961622E-07,9.059906E-08,0.3671734
126.3101,1.356163E-08,-2.061235E-08,NaN,1.683921E-07,-1.734961E-09,NaN,-1.582583E-06,9.000352E-05,NaN,3.523712E-05,-0.007061408,2.284806E-06,-9.00029E-05,NaN,NaN,1.782458E-07,0.007061499,5.38798E-07,-6.961622E-07,9.059906E-08,0.3671734
126.3299,1.356163E-08,-2.061235E-08,NaN,1.683921E-07,-1.734961E-09,NaN,-1.582583E-06,9.000352E-05,NaN,3.523712E-05,-0.007061408,2.284806E-06,-9.00029E-05,NaN,NaN,1.782458E-07,0.007061499,5.38798E-07,-6.961622E-07,9.059906E-08,0.3671734
126.3496,1.356163E-08,-2.061235E-08,NaN,1.683921E-07,-1.734961E-09,NaN,-1.582583E-06,9.000352E-05,NaN,3.523712E-05,-0.007061408,2.284806E-06,-9.00029E-05,NaN,NaN,1.782458E-07,0.007061499,5.38798E-07,-6.961622E-07,9.059906E-08,0.3671734
126.3698,1.356163E-08,-2.061235E-08,NaN,1.683921E-07,-1.734961E-09,NaN,-1.582583E-06,9.000352E-05,NaN,3.523712E-05,-0.007061408,2.284806E-06,-9.00029E-05,NaN,NaN,1.782458E-07,0.007061499,5.38798E-07,-6.961622E-07,9.059906E-08,0.3671734
126.3899,1.356163E-08,-2.061235E-08,NaN,1.683921E-07,-1.734961E-09,NaN,-1.582583E-06,9.000352E-05,NaN,3.523712E-05,-0.007061408,2.284806E-06,-9.00029E-05,NaN,NaN,1.782458E-07,0.007061499,5.38798E-07,-6.961622E-07,9.059906E-08,0.3671734
126.4098,1.356163E-08,-2.061235E-08,NaN,1.683921E-07,-1.734961E-09,NaN,-1.582583E-06,9.000352E-05,NaN,3.523712E-05,-0.007061408,2.284806E-06,-9.00029E-05,NaN,NaN,1.782458E-07,0.007061499,5.38798E-07,-6.961622E-07,9.059906E-08,0.3671734
126.431,1.356163E-08,-2.061235E-08,NaN,1.683921E-07,-1.734961E-09,NaN,-1.582583E-06,9.000352E-05,NaN,3.523712E-05,-0.007061408,2.284806E-06,-9.00029E-05,NaN,NaN,1.782458E-07,0.007061499,5.38798E-07,-6.961622E-07,9.059906E-08,0.3671734
126.4507,1.356163E-08,-2.061235E-08,NaN,1.683921E-07,-1.734961E-09,NaN,-1.582583E-06,9.000352E-05,NaN,3.523712E-05,-0.007061408,2.284806E-06,-9.00029E-05,NaN,NaN,1.782458E-07,0.007061499,5.38798E-07,-6.961622E-07,9.059906E-08,0.3671734
126.4708,1.356163E-08,-2.061235E-08,NaN,1.683921E-07,-1.734961E-09,NaN,-1.582583E-06,9.000352E-05,NaN,3.523712E-05,-0.007061408,2.284806E-06,-9.00029E-05,NaN,NaN,1.782458E-07,0.007061499,5.38798E-07,-6.961622E-07,9.059906E-08,0.3671734
126.4908,1.356163E-08,-2.061235E-08,NaN,1.683921E-07,-1.734961E-09,NaN,-1.582583E-06,9.000352E-05,NaN,3.523712E-05,-0.007061408,2.284806E-06,-9.00029E-05,NaN,NaN,1.782458E-07,0.007061499,5.38798E-07,-6.961622E-07,9.059906E-08,0.3671734
126.5108,1.356163E-08,-2.061235E-08,NaN,1.683921E-07,-1.734961E-09,NaN,-1.582583E-06,9.000352E-05,NaN,3.523712E-05,-0.007061408,2.284806E-06,-9.00029E-05,NaN,NaN,1.782458E-07,0.007061499,5.38798E-07,-6.961622E-07,9.059906E-08,0.3671734
126.5309,1.356163E-08,-2.061235E-08,NaN,1.683921E-07,-1.734961E-09,NaN,-1.582583E-06,9.000352E-05,NaN,3.523712E-05,-0.007061408,2.284806E-06,-9.00029E-05,NaN,NaN,1.782458E-07,0.007061499,5.38798E-07,-6.961622E-07,9.059906E-08,0.3671734
126.55,1.356163E-08,-2.061235E-08,NaN,1.683921E-07,-1.734961E-09,NaN,-1.582583E-06,9.000352E-05,NaN,3.523712E-05,-0.007061408,2.284806E-06,-9.00029E-05,NaN,NaN,1.782458E-07,0.007061499,5.38798E-07,-6.961622E-07,9.059906E-08,0.3671734
126.5702,1.356163E-08,-2.061235E-08,NaN,1.683921E-07,-1.734961E-09,NaN,-1.582583E-06,9.000352E-05,NaN,3.523712E-05,-0.007061408,2.284806E-06,-9.00029E-05,NaN,NaN,1.782458E-07,0.007061499,5.38798E-07,-6.961622E-07,9.059906E-08,0.3671734
126.59,1.356163E-08,-2.061235E-08,NaN,1.683921E-07,-1.734961E-09,NaN,-1.582583E-06,9.000352E-05,NaN,3.523712E-05,-0.007061408,2.284806E-06,-9.00029E-05,NaN,NaN,1.782458E-07,0.007061499,5.38798E-07,-6.961622E-07,9.059906E-08,0.3671734
126.6103,1.356163E-08,-2.061235E-08,NaN,1.683921E-07,-1.734961E-09,NaN,-1.582583E-06,9.000352E-05,NaN,3.523712E-05,-0.007061408,2.284806E-06,-9.00029E-05,NaN,NaN,1.782458E-07,0.007061499,5.38798E-07,-6.961622E-07,9.059906E-08,0.3671734
126.6303,1.356163E-08,-2.061235E-08,NaN,1.683921E-07,-1.734961E-09,NaN,-1.582583E-06,9.000352E-05,NaN,3.523712E-05,-0.007061408,2.284806E-06,-9.00029E-05,NaN,NaN,1.782458E-07,0.007061499,5.38798E-07,-6.961622E-07,9.059906E-08,0.3671734
126.6504,1.356163E-08,-2.061235E-08,NaN,1.683921E-07,-1.734961E-09,NaN,-1.582583E-06,9.000352E-05,NaN,3.523712E-05,-0.007061408,2.284806E-06,-9.00029E-05,NaN,NaN,1.782458E-07,0.007061499,5.38798E-07,-6.961622E-07,9.059906E-08,0.3671734
126.6704,1.356163E-08,-2.061235E-08,NaN,1.683921E-07,-1.734961E-09,NaN,-1.582583E-06,9.000352E-05,NaN,3.523712E-05,-0.007061408,2.284806E-06,-9.00029E-05,NaN,NaN,1.782458E-07,0.007061499,5.38798E-07,-6.961622E-07,9.059906E-08,0.3671734
126.6905,1.356163E-08,-2.061235E-08,NaN,1.683921E-07,-1.734961E-09,NaN,-1.582583E-06,9.000352E-05,NaN,3.523712E-05,-0.007061408,2.284806E-06,-9.00029E-05,NaN,NaN,1.782458E-07,0.007061499,5.38798E-07,-6.961622E-07,9.059906E-08,0.3671734
126.711,1.356163E-08,-2.061235E-08,NaN,1.683921E-07,-1.734961E-09,NaN,-1.582583E-06,9.000352E-05,NaN,3.523712E-05,-0.007061408,2.284806E-06,-9.00029E-05,NaN,NaN,1.782458E-07,0.007061499,5.38798E-07,-6.961622E-07,9.059906E-08,0.3671734
126.7308,1.356163E-08,-2.061235E-08,NaN,1.683921E-07,-1.734961E-09,NaN,-1.582583E-06,9.000352E-05,NaN,3.523712E-05,-0.007061408,2.284806E-06,-9.00029E-05,NaN,NaN,1.782458E-07,0.007061499,5.38798E-07,-6.961622E-07,9.059906E-08,0.3671734
126.7512,1.356163E-08,-2.061235E-08,NaN,1.683921E-07,-1.734961E-09,NaN,-1.582583E-06,9.000352E-05,NaN,3.523712E-05,-0.007061408,2.284806E-06,-9.00029E-05,NaN,NaN,1.782458E-07,0.007061499,5.38798E-07,-6.961622E-07,9.059906E-08,0.3671734
126.7713,1.356163E-08,-2.061235E-08,NaN,1.683921E-07,-1.734961E-09,NaN,-1.582583E-06,9.000352E-05,NaN,3.523712E-05,-0.007061408,2.284806E-06,-9.00029E-05,NaN,NaN,1.782458E-07,0.007061499,5.38798E-07,-6.961622E-07,9.059906E-08,0.3671734
126.7915,1.356163E-08,-2.061235E-08,NaN,1.683921E-07,-1.734961E-09,NaN,-1.582583E-06,9.000352E-05,NaN,3.523712E-05,-0.007061408,2.284806E-06,-9.00029E-05,NaN,NaN,1.782458E-07,0.007061499,5.38798E-07,-6.961622E-07,9.059906E-08,0.3671734
126.8115,1.356163E-08,-2.061235E-08,NaN,1.683921E-07,-1.734961E-09,NaN,-1.582583E-06,9.000352E-05,NaN,3.523712E-05,-0.007061408,2.284806E-06,-9.00029E-05,NaN,NaN,1.782458E-07,0.007061499,5.38798E-07,-6.961622E-07,9.059906E-08,0.3671734
126.8317,1.356163E-08,-2.061235E-08,NaN,1.683921E-07,-1.734961E-09,NaN,-1.582583E-06,9.000352E-05,NaN,3.523712E-05,-0.007061408,2.284806E-06,-9.00029E-05,NaN,NaN,1.782458E-07,0.007061499,5.38798E-07,-6.961622E-07,9.059906E-08,0.3671734
126.8522,1.356163E-08,-2.061235E-08,NaN,1.683921E-07,-1.734961E-09,NaN,-1.582583E-06,9.000352E-05,NaN,3.523712E-05,-0.007061408,2.284806E-06,-9.00029E-05,NaN,NaN,1.782458E-07,0.007061499,5.38798E-07,-6.961622E-07,9.059906E-08,0.3671734
126.8719,1.356163E-08,-2.061235E-08,NaN,1.683921E-07,-1.734961E-09,NaN,-1.582583E-06,9.000352E-05,NaN,3.523712E-05,-0.007061408,2.284806E-06,-9.00029E-05,NaN,NaN,1.782458E-07,0.007061499,5.38798E-07,-6.961622E-07,9.059906E-08,0.3671734
126.8923,1.356163E-08,-2.061235E-08,NaN,1.683921E-07,-1.734961E-09,NaN,-1.582583E-06,9.000352E-05,NaN,3.523712E-05,-0.007061408,2.284806E-06,-9.00029E-05,NaN,NaN,1.782458E-07,0.007061499,5.38798E-07,-6.961622E-07,9.059906E-08,0.3671734
126.9122,1.356163E-08,-2.061235E-08,NaN,1.683921E-07,-1.734961E-09,NaN,-1.582583E-06,9.000352E-05,NaN,3.523712E-05,-0.007061408,2.284806E-06,-9.00029E-05,NaN,NaN,1.782458E-07,0.007061499,5.38798E-07,-6.961622E-07,9.059906E-08,0.3671734
126.9323,1.356163E-08,-2.061235E-08,NaN,1.683921E-07,-1.734961E-09,NaN,-1.582583E-06,9.000352E-05,NaN,3.523712E-05,-0.007061408,2.284806E-06,-9.00029E-05,NaN,NaN,1.782458E-07,0.007061499,5.38798E-07,-6.961622E-07,9.059906E-08,0.3671734
126.9519,1.356163E-08,-2.061235E-08,NaN,1.683921E-07,-1.734961E-09,NaN,-1.582583E-06,9.000352E-05,NaN,3.523712E-05,-0.007061408,2.284806E-06,-9.00029E-05,NaN,NaN,1.782458E-07,0.007061499,5.38798E-07,-6.961622E-07,9.059906E-08,0.3671734
126.9719,1.356163E-08,-2.061235E-08,NaN,1.683921E-07,-1.734961E-09,NaN,-1.582583E-06,9.000352E-05,NaN,3.523712E-05,-0.007061408,2.284806E-06,-9.00029E-05,NaN,NaN,1.782458E-07,0.007061499,5.38798E-07,-6.961622E-07,9.059906E-08,0.3671734
126.992,1.356163E-08,-2.061235E-08,NaN,1.683921E-07,-1.734961E-09,NaN,-1.582583E-06,9.000352E-05,NaN,3.523712E-05,-0.007061408,2.284806E-06,-9.00029E-05,NaN,NaN,1.782458E-07,0.007061499,5.38798E-07,-6.961622E-07,9.059906E-08,0.3671734
127.0118,1.356163E-08,-2.061235E-08,NaN,1.683921E-07,-1.734961E-09,NaN,-1.582583E-06,9.000352E-05,NaN,3.523712E-05,-0.007061408,2.284806E-06,-9.00029E-05,NaN,NaN,1.782458E-07,0.007061499,5.38798E-07,-6.961622E-07,9.059906E-08,0.3671734
127.0318,1.356163E-08,-2.061235E-08,NaN,1.683921E-07,-1.734961E-09,NaN,-1.582583E-06,9.000352E-05,NaN,3.523712E-05,-0.007061408,2.284806E-06,-9.00029E-05,NaN,NaN,1.782458E-07,0.007061499,5.38798E-07,-6.961622E-07,9.059906E-08,0.3671734
127.0514,1.356163E-08,-2.061235E-08,NaN,1.683921E-07,-1.734961E-09,NaN,-1.582583E-06,9.000352E-05,NaN,3.523712E-05,-0.007061408,2.284806E-06,-9.00029E-05,NaN,NaN,1.782458E-07,0.007061499,5.38798E-07,-6.961622E-07,9.059906E-08,0.3671734
127.0713,1.356163E-08,-2.061235E-08,NaN,1.683921E-07,-1.734961E-09,NaN,-1.582583E-06,9.000352E-05,NaN,3.523712E-05,-0.007061408,2.284806E-06,-9.00029E-05,NaN,NaN,1.782458E-07,0.007061499,5.38798E-07,-6.961622E-07,9.059906E-08,0.3671734
127.0909,1.356163E-08,-2.061235E-08,NaN,1.683921E-07,-1.734961E-09,NaN,-1.582583E-06,9.000352E-05,NaN,3.523712E-05,-0.007061408,2.284806E-06,-9.00029E-05,NaN,NaN,1.782458E-07,0.007061499,5.38798E-07,-6.961622E-07,9.059906E-08,0.3671734
127.1108,1.356163E-08,-2.061235E-08,NaN,1.683921E-07,-1.734961E-09,NaN,-1.582583E-06,9.000352E-05,NaN,3.523712E-05,-0.007061408,2.284806E-06,-9.00029E-05,NaN,NaN,1.782458E-07,0.007061499,5.38798E-07,-6.961622E-07,9.059906E-08,0.3671734
127.1303,1.356163E-08,-2.061235E-08,NaN,1.683921E-07,-1.734961E-09,NaN,-1.582583E-06,9.000352E-05,NaN,3.523712E-05,-0.007061408,2.284806E-06,-9.00029E-05,NaN,NaN,1.782458E-07,0.007061499,5.38798E-07,-6.961622E-07,9.059906E-08,0.3671734
127.1501,1.356163E-08,-2.061235E-08,NaN,1.683921E-07,-1.734961E-09,NaN,-1.582583E-06,9.000352E-05,NaN,3.523712E-05,-0.007061408,2.284806E-06,-9.00029E-05,NaN,NaN,1.782458E-07,0.007061499,5.38798E-07,-6.961622E-07,9.059906E-08,0.3671734
127.1704,1.356163E-08,-2.061235E-08,NaN,1.683921E-07,-1.734961E-09,NaN,-1.582583E-06,9.000352E-05,NaN,3.523712E-05,-0.007061408,2.284806E-06,-9.00029E-05,NaN,NaN,1.782458E-07,0.007061499,5.38798E-07,-6.961622E-07,9.059906E-08,0.3671734
127.1899,1.356163E-08,-2.061235E-08,NaN,1.683921E-07,-1.734961E-09,NaN,-1.582583E-06,9.000352E-05,NaN,3.523712E-05,-0.007061408,2.284806E-06,-9.00029E-05,NaN,NaN,1.782458E-07,0.007061499,5.38798E-07,-6.961622E-07,9.059906E-08,0.3671734
127.2095,1.356163E-08,-2.061235E-08,NaN,1.683921E-07,-1.734961E-09,NaN,-1.582583E-06,9.000352E-05,NaN,3.523712E-05,-0.007061408,2.284806E-06,-9.00029E-05,NaN,NaN,1.782458E-07,0.007061499,5.38798E-07,-6.961622E-07,9.059906E-08,0.3671734
127.2302,1.356163E-08,-2.061235E-08,NaN,1.683921E-07,-1.734961E-09,NaN,-1.582583E-06,9.000352E-05,NaN,3.523712E-05,-0.007061408,2.284806E-06,-9.00029E-05,NaN,NaN,1.782458E-07,0.007061499,5.38798E-07,-6.961622E-07,9.059906E-08,0.3671734
127.2529,1.356163E-08,-2.061235E-08,NaN,1.683921E-07,-1.734961E-09,NaN,-1.582583E-06,9.000352E-05,NaN,3.523712E-05,-0.007061408,2.284806E-06,-9.00029E-05,NaN,NaN,1.782458E-07,0.007061499,5.38798E-07,-6.961622E-07,9.059906E-08,0.3671734
127.2725,1.356163E-08,-2.061235E-08,NaN,1.683921E-07,-1.734961E-09,NaN,-1.582583E-06,9.000352E-05,NaN,3.523712E-05,-0.007061408,2.284806E-06,-9.00029E-05,NaN,NaN,1.782458E-07,0.007061499,5.38798E-07,-6.961622E-07,9.059906E-08,0.3671734
127.2944,1.356163E-08,-2.061235E-08,NaN,1.683921E-07,-1.734961E-09,NaN,-1.582583E-06,9.000352E-05,NaN,3.523712E-05,-0.007061408,2.284806E-06,-9.00029E-05,NaN,NaN,1.782458E-07,0.007061499,5.38798E-07,-6.961622E-07,9.059906E-08,0.3671734
127.3143,1.356163E-08,-2.061235E-08,NaN,1.683921E-07,-1.734961E-09,NaN,-1.582583E-06,9.000352E-05,NaN,3.523712E-05,-0.007061408,2.284806E-06,-9.00029E-05,NaN,NaN,1.782458E-07,0.007061499,5.38798E-07,-6.961622E-07,9.059906E-08,0.3671734
127.3359,1.356163E-08,-2.061235E-08,NaN,1.683921E-07,-1.734961E-09,NaN,-1.582583E-06,9.000352E-05,NaN,3.523712E-05,-0.007061408,2.284806E-06,-9.00029E-05,NaN,NaN,1.782458E-07,0.007061499,5.38798E-07,-6.961622E-07,9.059906E-08,0.3671734
127.3556,1.356163E-08,-2.061235E-08,NaN,1.683921E-07,-1.734961E-09,NaN,-1.582583E-06,9.000352E-05,NaN,3.523712E-05,-0.007061408,2.284806E-06,-9.00029E-05,NaN,NaN,1.782458E-07,0.007061499,5.38798E-07,-6.961622E-07,9.059906E-08,0.3671734
127.3782,1.356163E-08,-2.061235E-08,NaN,1.683921E-07,-1.734961E-09,NaN,-1.582583E-06,9.000352E-05,NaN,3.523712E-05,-0.007061408,2.284806E-06,-9.00029E-05,NaN,NaN,1.782458E-07,0.007061499,5.38798E-07,-6.961622E-07,9.059906E-08,0.3671734
127.3981,1.356163E-08,-2.061235E-08,NaN,1.683921E-07,-1.734961E-09,NaN,-1.582583E-06,9.000352E-05,NaN,3.523712E-05,-0.007061408,2.284806E-06,-9.00029E-05,NaN,NaN,1.782458E-07,0.007061499,5.38798E-07,-6.961622E-07,9.059906E-08,0.3671734
127.4193,1.356163E-08,-2.061235E-08,NaN,1.683921E-07,-1.734961E-09,NaN,-1.582583E-06,9.000352E-05,NaN,3.523712E-05,-0.007061408,2.284806E-06,-9.00029E-05,NaN,NaN,1.782458E-07,0.007061499,5.38798E-07,-6.961622E-07,9.059906E-08,0.3671734
127.4393,1.356163E-08,-2.061235E-08,NaN,1.683921E-07,-1.734961E-09,NaN,-1.582583E-06,9.000352E-05,NaN,3.523712E-05,-0.007061408,2.284806E-06,-9.00029E-05,NaN,NaN,1.782458E-07,0.007061499,5.38798E-07,-6.961622E-07,9.059906E-08,0.3671734
127.4597,1.356163E-08,-2.061235E-08,NaN,1.683921E-07,-1.734961E-09,NaN,-1.582583E-06,9.000352E-05,NaN,3.523712E-05,-0.007061408,2.284806E-06,-9.00029E-05,NaN,NaN,1.782458E-07,0.007061499,5.38798E-07,-6.961622E-07,9.059906E-08,0.3671734
127.4797,1.356163E-08,-2.061235E-08,NaN,1.683921E-07,-1.734961E-09,NaN,-1.582583E-06,9.000352E-05,NaN,3.523712E-05,-0.007061408,2.284806E-06,-9.00029E-05,NaN,NaN,1.782458E-07,0.007061499,5.38798E-07,-6.961622E-07,9.059906E-08,0.3671734
127.5,1.356163E-08,-2.061235E-08,NaN,1.683921E-07,-1.734961E-09,NaN,-1.582583E-06,9.000352E-05,NaN,3.523712E-05,-0.007061408,2.284806E-06,-9.00029E-05,NaN,NaN,1.782458E-07,0.007061499,5.38798E-07,-6.961622E-07,9.059906E-08,0.3671734
127.5201,1.356163E-08,-2.061235E-08,NaN,1.683921E-07,-1.734961E-09,NaN,-1.582583E-06,9.000352E-05,NaN,3.523712E-05,-0.007061408,2.284806E-06,-9.00029E-05,NaN,NaN,1.782458E-07,0.007061499,5.38798E-07,-6.961622E-07,9.059906E-08,0.3671734
127.5397,1.356163E-08,-2.061235E-08,NaN,1.683921E-07,-1.734961E-09,NaN,-1.582583E-06,9.000352E-05,NaN,3.523712E-05,-0.007061408,2.284806E-06,-9.00029E-05,NaN,NaN,1.782458E-07,0.007061499,5.38798E-07,-6.961622E-07,9.059906E-08,0.3671734
127.5592,1.356163E-08,-2.061235E-08,NaN,1.683921E-07,-1.734961E-09,NaN,-1.582583E-06,9.000352E-05,NaN,3.523712E-05,-0.007061408,2.284806E-06,-9.00029E-05,NaN,NaN,1.782458E-07,0.007061499,5.38798E-07,-6.961622E-07,9.059906E-08,0.3671734
127.5794,1.356163E-08,-2.061235E-08,NaN,1.683921E-07,-1.734961E-09,NaN,-1.582583E-06,9.000352E-05,NaN,3.523712E-05,-0.007061408,2.284806E-06,-9.00029E-05,NaN,NaN,1.782458E-07,0.007061499,5.38798E-07,-6.961622E-07,9.059906E-08,0.3671734
127.599,1.356163E-08,-2.061235E-08,NaN,1.683921E-07,-1.734961E-09,NaN,-1.582583E-06,9.000352E-05,NaN,3.523712E-05,-0.007061408,2.284806E-06,-9.00029E-05,NaN,NaN,1.782458E-07,0.007061499,5.38798E-07,-6.961622E-07,9.059906E-08,0.3671734
127.6187,1.356163E-08,-2.061235E-08,NaN,1.683921E-07,-1.734961E-09,NaN,-1.582583E-06,9.000352E-05,NaN,3.523712E-05,-0.007061408,2.284806E-06,-9.00029E-05,NaN,NaN,1.782458E-07,0.007061499,5.38798E-07,-6.961622E-07,9.059906E-08,0.3671734
127.6385,1.356163E-08,-2.061235E-08,NaN,1.683921E-07,-1.734961E-09,NaN,-1.582583E-06,9.000352E-05,NaN,3.523712E-05,-0.007061408,2.284806E-06,-9.00029E-05,NaN,NaN,1.782458E-07,0.007061499,5.38798E-07,-6.961622E-07,9.059906E-08,0.3671734
127.6587,1.356163E-08,-2.061235E-08,NaN,1.683921E-07,-1.734961E-09,NaN,-1.582583E-06,9.000352E-05,NaN,3.523712E-05,-0.007061408,2.284806E-06,-9.00029E-05,NaN,NaN,1.782458E-07,0.007061499,5.38798E-07,-6.961622E-07,9.059906E-08,0.3671734
127.6781,1.356163E-08,-2.061235E-08,NaN,1.683921E-07,-1.734961E-09,NaN,-1.582583E-06,9.000352E-05,NaN,3.523712E-05,-0.007061408,2.284806E-06,-9.00029E-05,NaN,NaN,1.782458E-07,0.007061499,5.38798E-07,-6.961622E-07,9.059906E-08,0.3671734
127.6985,1.356163E-08,-2.061235E-08,NaN,1.683921E-07,-1.734961E-09,NaN,-1.582583E-06,9.000352E-05,NaN,3.523712E-05,-0.007061408,2.284806E-06,-9.00029E-05,NaN,NaN,1.782458E-07,0.007061499,5.38798E-07,-6.961622E-07,9.059906E-08,0.3671734
127.7178,1.356163E-08,-2.061235E-08,NaN,1.683921E-07,-1.734961E-09,NaN,-1.582583E-06,9.000352E-05,NaN,3.523712E-05,-0.007061408,2.284806E-06,-9.00029E-05,NaN,NaN,1.782458E-07,0.007061499,5.38798E-07,-6.961622E-07,9.059906E-08,0.3671734
127.7375,1.356163E-08,-2.061235E-08,NaN,1.683921E-07,-1.734961E-09,NaN,-1.582583E-06,9.000352E-05,NaN,3.523712E-05,-0.007061408,2.284806E-06,-9.00029E-05,NaN,NaN,1.782458E-07,0.007061499,5.38798E-07,-6.961622E-07,9.059906E-08,0.3671734
127.7569,1.356163E-08,-2.061235E-08,NaN,1.683921E-07,-1.734961E-09,NaN,-1.582583E-06,9.000352E-05,NaN,3.523712E-05,-0.007061408,2.284806E-06,-9.00029E-05,NaN,NaN,1.782458E-07,0.007061499,5.38798E-07,-6.961622E-07,9.059906E-08,0.3671734
127.7766,1.356163E-08,-2.061235E-08,NaN,1.683921E-07,-1.734961E-09,NaN,-1.582583E-06,9.000352E-05,NaN,3.523712E-05,-0.007061408,2.284806E-06,-9.00029E-05,NaN,NaN,1.782458E-07,0.007061499,5.38798E-07,-6.961622E-07,9.059906E-08,0.3671734
127.7954,1.356163E-08,-2.061235E-08,NaN,1.683921E-07,-1.734961E-09,NaN,-1.582583E-06,9.000352E-05,NaN,3.523712E-05,-0.007061408,2.284806E-06,-9.00029E-05,NaN,NaN,1.782458E-07,0.007061499,5.38798E-07,-6.961622E-07,9.059906E-08,0.3671734
127.8143,1.356163E-08,-2.061235E-08,NaN,1.683921E-07,-1.734961E-09,NaN,-1.582583E-06,9.000352E-05,NaN,3.523712E-05,-0.007061408,2.284806E-06,-9.00029E-05,NaN,NaN,1.782458E-07,0.007061499,5.38798E-07,-6.961622E-07,9.059906E-08,0.3671734
127.8332,1.356163E-08,-2.061235E-08,NaN,1.683921E-07,-1.734961E-09,NaN,-1.582583E-06,9.000352E-05,NaN,3.523712E-05,-0.007061408,2.284806E-06,-9.00029E-05,NaN,NaN,1.782458E-07,0.007061499,5.38798E-07,-6.961622E-07,9.059906E-08,0.3671734
127.8519,1.356163E-08,-2.061235E-08,NaN,1.683921E-07,-1.734961E-09,NaN,-1.582583E-06,9.000352E-05,NaN,3.523712E-05,-0.007061408,2.284806E-06,-9.00029E-05,NaN,NaN,1.782458E-07,0.007061499,5.38798E-07,-6.961622E-07,9.059906E-08,0.3671734
127.8705,1.356163E-08,-2.061235E-08,NaN,1.683921E-07,-1.734961E-09,NaN,-1.582583E-06,9.000352E-05,NaN,3.523712E-05,-0.007061408,2.284806E-06,-9.00029E-05,NaN,NaN,1.782458E-07,0.007061499,5.38798E-07,-6.961622E-07,9.059906E-08,0.3671734
127.8893,1.356163E-08,-2.061235E-08,NaN,1.683921E-07,-1.734961E-09,NaN,-1.582583E-06,9.000352E-05,NaN,3.523712E-05,-0.007061408,2.284806E-06,-9.00029E-05,NaN,NaN,1.782458E-07,0.007061499,5.38798E-07,-6.961622E-07,9.059906E-08,0.3671734
127.9085,1.356163E-08,-2.061235E-08,NaN,1.683921E-07,-1.734961E-09,NaN,-1.582583E-06,9.000352E-05,NaN,3.523712E-05,-0.007061408,2.284806E-06,-9.00029E-05,NaN,NaN,1.782458E-07,0.007061499,5.38798E-07,-6.961622E-07,9.059906E-08,0.3671734
127.927,1.356163E-08,-2.061235E-08,NaN,1.683921E-07,-1.734961E-09,NaN,-1.582583E-06,9.000352E-05,NaN,3.523712E-05,-0.007061408,2.284806E-06,-9.00029E-05,NaN,NaN,1.782458E-07,0.007061499,5.38798E-07,-6.961622E-07,9.059906E-08,0.3671734
127.9453,1.356163E-08,-2.061235E-08,NaN,1.683921E-07,-1.734961E-09,NaN,-1.582583E-06,9.000352E-05,NaN,3.523712E-05,-0.007061408,2.284806E-06,-9.00029E-05,NaN,NaN,1.782458E-07,0.007061499,5.38798E-07,-6.961622E-07,9.059906E-08,0.3671734
127.9641,1.356163E-08,-2.061235E-08,NaN,1.683921E-07,-1.734961E-09,NaN,-1.582583E-06,9.000352E-05,NaN,3.523712E-05,-0.007061408,2.284806E-06,-9.00029E-05,NaN,NaN,1.782458E-07,0.007061499,5.38798E-07,-6.961622E-07,9.059906E-08,0.3671734
127.9826,1.356163E-08,-2.061235E-08,NaN,1.683921E-07,-1.734961E-09,NaN,-1.582583E-06,9.000352E-05,NaN,3.523712E-05,-0.007061408,2.284806E-06,-9.00029E-05,NaN,NaN,1.782458E-07,0.007061499,5.38798E-07,-6.961622E-07,9.059906E-08,0.3671734
128.001,1.356163E-08,-2.061235E-08,NaN,1.683921E-07,-1.734961E-09,NaN,-1.582583E-06,9.000352E-05,NaN,3.523712E-05,-0.007061408,2.284806E-06,-9.00029E-05,NaN,NaN,1.782458E-07,0.007061499,5.38798E-07,-6.961622E-07,9.059906E-08,0.3671734
128.0193,1.356163E-08,-2.061235E-08,NaN,1.683921E-07,-1.734961E-09,NaN,-1.582583E-06,9.000352E-05,NaN,3.523712E-05,-0.007061408,2.284806E-06,-9.00029E-05,NaN,NaN,1.782458E-07,0.007061499,5.38798E-07,-6.961622E-07,9.059906E-08,0.3671734
128.0376,1.356163E-08,-2.061235E-08,NaN,1.683921E-07,-1.734961E-09,NaN,-1.582583E-06,9.000352E-05,NaN,3.523712E-05,-0.007061408,2.284806E-06,-9.00029E-05,NaN,NaN,1.782458E-07,0.007061499,5.38798E-07,-6.961622E-07,9.059906E-08,0.3671734
128.0564,1.356163E-08,-2.061235E-08,NaN,1.683921E-07,-1.734961E-09,NaN,-1.582583E-06,9.000352E-05,NaN,3.523712E-05,-0.007061408,2.284806E-06,-9.00029E-05,NaN,NaN,1.782458E-07,0.007061499,5.38798E-07,-6.961622E-07,9.059906E-08,0.3671734
128.0748,1.356163E-08,-2.061235E-08,NaN,1.683921E-07,-1.734961E-09,NaN,-1.582583E-06,9.000352E-05,NaN,3.523712E-05,-0.007061408,2.284806E-06,-9.00029E-05,NaN,NaN,1.782458E-07,0.007061499,5.38798E-07,-6.961622E-07,9.059906E-08,0.3671734
128.0932,1.356163E-08,-2.061235E-08,NaN,1.683921E-07,-1.734961E-09,NaN,-1.582583E-06,9.000352E-05,NaN,3.523712E-05,-0.007061408,2.284806E-06,-9.00029E-05,NaN,NaN,1.782458E-07,0.007061499,5.38798E-07,-6.961622E-07,9.059906E-08,0.3671734
128.1117,1.356163E-08,-2.061235E-08,NaN,1.683921E-07,-1.734961E-09,NaN,-1.582583E-06,9.000352E-05,NaN,3.523712E-05,-0.007061408,2.284806E-06,-9.00029E-05,NaN,NaN,1.782458E-07,0.007061499,5.38798E-07,-6.961622E-07,9.059906E-08,0.3671734
128.1298,1.356163E-08,-2.061235E-08,NaN,1.683921E-07,-1.734961E-09,NaN,-1.582583E-06,9.000352E-05,NaN,3.523712E-05,-0.007061408,2.284806E-06,-9.00029E-05,NaN,NaN,1.782458E-07,0.007061499,5.38798E-07,-6.961622E-07,9.059906E-08,0.3671734
128.1483,1.356163E-08,-2.061235E-08,NaN,1.683921E-07,-1.734961E-09,NaN,-1.582583E-06,9.000352E-05,NaN,3.523712E-05,-0.007061408,2.284806E-06,-9.00029E-05,NaN,NaN,1.782458E-07,0.007061499,5.38798E-07,-6.961622E-07,9.059906E-08,0.3671734
128.1663,1.356163E-08,-2.061235E-08,NaN,1.683921E-07,-1.734961E-09,NaN,-1.582583E-06,9.000352E-05,NaN,3.523712E-05,-0.007061408,2.284806E-06,-9.00029E-05,NaN,NaN,1.782458E-07,0.007061499,5.38798E-07,-6.961622E-07,9.059906E-08,0.3671734
128.1848,1.356163E-08,-2.061235E-08,NaN,1.683921E-07,-1.734961E-09,NaN,-1.582583E-06,9.000352E-05,NaN,3.523712E-05,-0.007061408,2.284806E-06,-9.00029E-05,NaN,NaN,1.782458E-07,0.007061499,5.38798E-07,-6.961622E-07,9.059906E-08,0.3671734
128.2033,1.356163E-08,-2.061235E-08,NaN,1.683921E-07,-1.734961E-09,NaN,-1.582583E-06,9.000352E-05,NaN,3.523712E-05,-0.007061408,2.284806E-06,-9.00029E-05,NaN,NaN,1.782458E-07,0.007061499,5.38798E-07,-6.961622E-07,9.059906E-08,0.3671734
128.2213,1.356163E-08,-2.061235E-08,NaN,1.683921E-07,-1.734961E-09,NaN,-1.582583E-06,9.000352E-05,NaN,3.523712E-05,-0.007061408,2.284806E-06,-9.00029E-05,NaN,NaN,1.782458E-07,0.007061499,5.38798E-07,-6.961622E-07,9.059906E-08,0.3671734
128.2399,1.356163E-08,-2.061235E-08,NaN,1.683921E-07,-1.734961E-09,NaN,-1.582583E-06,9.000352E-05,NaN,3.523712E-05,-0.007061408,2.284806E-06,-9.00029E-05,NaN,NaN,1.782458E-07,0.007061499,5.38798E-07,-6.961622E-07,9.059906E-08,0.3671734
128.2579,1.356163E-08,-2.061235E-08,NaN,1.683921E-07,-1.734961E-09,NaN,-1.582583E-06,9.000352E-05,NaN,3.523712E-05,-0.007061408,2.284806E-06,-9.00029E-05,NaN,NaN,1.782458E-07,0.007061499,5.38798E-07,-6.961622E-07,9.059906E-08,0.3671734
128.2769,1.356163E-08,-2.061235E-08,NaN,1.683921E-07,-1.734961E-09,NaN,-1.582583E-06,9.000352E-05,NaN,3.523712E-05,-0.007061408,2.284806E-06,-9.00029E-05,NaN,NaN,1.782458E-07,0.007061499,5.38798E-07,-6.961622E-07,9.059906E-08,0.3671734
128.2952,1.356163E-08,-2.061235E-08,NaN,1.683921E-07,-1.734961E-09,NaN,-1.582583E-06,9.000352E-05,NaN,3.523712E-05,-0.007061408,2.284806E-06,-9.00029E-05,NaN,NaN,1.782458E-07,0.007061499,5.38798E-07,-6.961622E-07,9.059906E-08,0.3671734
128.3134,1.356163E-08,-2.061235E-08,NaN,1.683921E-07,-1.734961E-09,NaN,-1.582583E-06,9.000352E-05,NaN,3.523712E-05,-0.007061408,2.284806E-06,-9.00029E-05,NaN,NaN,1.782458E-07,0.007061499,5.38798E-07,-6.961622E-07,9.059906E-08,0.3671734
128.332,1.356163E-08,-2.061235E-08,NaN,1.683921E-07,-1.734961E-09,NaN,-1.582583E-06,9.000352E-05,NaN,3.523712E-05,-0.007061408,2.284806E-06,-9.00029E-05,NaN,NaN,1.782458E-07,0.007061499,5.38798E-07,-6.961622E-07,9.059906E-08,0.3671734
128.3497,1.356163E-08,-2.061235E-08,NaN,1.683921E-07,-1.734961E-09,NaN,-1.582583E-06,9.000352E-05,NaN,3.523712E-05,-0.007061408,2.284806E-06,-9.00029E-05,NaN,NaN,1.782458E-07,0.007061499,5.38798E-07,-6.961622E-07,9.059906E-08,0.3671734
128.3682,1.356163E-08,-2.061235E-08,NaN,1.683921E-07,-1.734961E-09,NaN,-1.582583E-06,9.000352E-05,NaN,3.523712E-05,-0.007061408,2.284806E-06,-9.00029E-05,NaN,NaN,1.782458E-07,0.007061499,5.38798E-07,-6.961622E-07,9.059906E-08,0.3671734
128.3863,1.356163E-08,-2.061235E-08,NaN,1.683921E-07,-1.734961E-09,NaN,-1.582583E-06,9.000352E-05,NaN,3.523712E-05,-0.007061408,2.284806E-06,-9.00029E-05,NaN,NaN,1.782458E-07,0.007061499,5.38798E-07,-6.961622E-07,9.059906E-08,0.3671734
128.4047,1.356163E-08,-2.061235E-08,NaN,1.683921E-07,-1.734961E-09,NaN,-1.582583E-06,9.000352E-05,NaN,3.523712E-05,-0.007061408,2.284806E-06,-9.00029E-05,NaN,NaN,1.782458E-07,0.007061499,5.38798E-07,-6.961622E-07,9.059906E-08,0.3671734
128.423,1.356163E-08,-2.061235E-08,NaN,1.683921E-07,-1.734961E-09,NaN,-1.582583E-06,9.000352E-05,NaN,3.523712E-05,-0.007061408,2.284806E-06,-9.00029E-05,NaN,NaN,1.782458E-07,0.007061499,5.38798E-07,-6.961622E-07,9.059906E-08,0.3671734
128.4413,1.356163E-08,-2.061235E-08,NaN,1.683921E-07,-1.734961E-09,NaN,-1.582583E-06,9.000352E-05,NaN,3.523712E-05,-0.007061408,2.284806E-06,-9.00029E-05,NaN,NaN,1.782458E-07,0.007061499,5.38798E-07,-6.961622E-07,9.059906E-08,0.3671734
128.4597,1.356163E-08,-2.061235E-08,NaN,1.683921E-07,-1.734961E-09,NaN,-1.582583E-06,9.000352E-05,NaN,3.523712E-05,-0.007061408,2.284806E-06,-9.00029E-05,NaN,NaN,1.782458E-07,0.007061499,5.38798E-07,-6.961622E-07,9.059906E-08,0.3671734
128.4778,1.356163E-08,-2.061235E-08,NaN,1.683921E-07,-1.734961E-09,NaN,-1.582583E-06,9.000352E-05,NaN,3.523712E-05,-0.007061408,2.284806E-06,-9.00029E-05,NaN,NaN,1.782458E-07,0.007061499,5.38798E-07,-6.961622E-07,9.059906E-08,0.3671734
128.4965,1.356163E-08,-2.061235E-08,NaN,1.683921E-07,-1.734961E-09,NaN,-1.582583E-06,9.000352E-05,NaN,3.523712E-05,-0.007061408,2.284806E-06,-9.00029E-05,NaN,NaN,1.782458E-07,0.007061499,5.38798E-07,-6.961622E-07,9.059906E-08,0.3671734
128.5149,1.356163E-08,-2.061235E-08,NaN,1.683921E-07,-1.734961E-09,NaN,-1.582583E-06,9.000352E-05,NaN,3.523712E-05,-0.007061408,2.284806E-06,-9.00029E-05,NaN,NaN,1.782458E-07,0.007061499,5.38798E-07,-6.961622E-07,9.059906E-08,0.3671734
128.5334,1.356163E-08,-2.061235E-08,NaN,1.683921E-07,-1.734961E-09,NaN,-1.582583E-06,9.000352E-05,NaN,3.523712E-05,-0.007061408,2.284806E-06,-9.00029E-05,NaN,NaN,1.782458E-07,0.007061499,5.38798E-07,-6.961622E-07,9.059906E-08,0.3671734
128.5515,1.356163E-08,-2.061235E-08,NaN,1.683921E-07,-1.734961E-09,NaN,-1.582583E-06,9.000352E-05,NaN,3.523712E-05,-0.007061408,2.284806E-06,-9.00029E-05,NaN,NaN,1.782458E-07,0.007061499,5.38798E-07,-6.961622E-07,9.059906E-08,0.3671734
128.5699,1.356163E-08,-2.061235E-08,NaN,1.683921E-07,-1.734961E-09,NaN,-1.582583E-06,9.000352E-05,NaN,3.523712E-05,-0.007061408,2.284806E-06,-9.00029E-05,NaN,NaN,1.782458E-07,0.007061499,5.38798E-07,-6.961622E-07,9.059906E-08,0.3671734
128.5887,1.356163E-08,-2.061235E-08,NaN,1.683921E-07,-1.734961E-09,NaN,-1.582583E-06,9.000352E-05,NaN,3.523712E-05,-0.007061408,2.284806E-06,-9.00029E-05,NaN,NaN,1.782458E-07,0.007061499,5.38798E-07,-6.961622E-07,9.059906E-08,0.3671734
128.6073,1.356163E-08,-2.061235E-08,NaN,1.683921E-07,-1.734961E-09,NaN,-1.582583E-06,9.000352E-05,NaN,3.523712E-05,-0.007061408,2.284806E-06,-9.00029E-05,NaN,NaN,1.782458E-07,0.007061499,5.38798E-07,-6.961622E-07,9.059906E-08,0.3671734
128.6256,1.356163E-08,-2.061235E-08,NaN,1.683921E-07,-1.734961E-09,NaN,-1.582583E-06,9.000352E-05,NaN,3.523712E-05,-0.007061408,2.284806E-06,-9.00029E-05,NaN,NaN,1.782458E-07,0.007061499,5.38798E-07,-6.961622E-07,9.059906E-08,0.3671734
128.6444,1.356163E-08,-2.061235E-08,NaN,1.683921E-07,-1.734961E-09,NaN,-1.582583E-06,9.000352E-05,NaN,3.523712E-05,-0.007061408,2.284806E-06,-9.00029E-05,NaN,NaN,1.782458E-07,0.007061499,5.38798E-07,-6.961622E-07,9.059906E-08,0.3671734
128.663,1.356163E-08,-2.061235E-08,NaN,1.683921E-07,-1.734961E-09,NaN,-1.582583E-06,9.000352E-05,NaN,3.523712E-05,-0.007061408,2.284806E-06,-9.00029E-05,NaN,NaN,1.782458E-07,0.007061499,5.38798E-07,-6.961622E-07,9.059906E-08,0.3671734
128.6812,1.356163E-08,-2.061235E-08,NaN,1.683921E-07,-1.734961E-09,NaN,-1.582583E-06,9.000352E-05,NaN,3.523712E-05,-0.007061408,2.284806E-06,-9.00029E-05,NaN,NaN,1.782458E-07,0.007061499,5.38798E-07,-6.961622E-07,9.059906E-08,0.3671734
128.7001,1.356163E-08,-2.061235E-08,NaN,1.683921E-07,-1.734961E-09,NaN,-1.582583E-06,9.000352E-05,NaN,3.523712E-05,-0.007061408,2.284806E-06,-9.00029E-05,NaN,NaN,1.782458E-07,0.007061499,5.38798E-07,-6.961622E-07,9.059906E-08,0.3671734
128.7188,1.356163E-08,-2.061235E-08,NaN,1.683921E-07,-1.734961E-09,NaN,-1.582583E-06,9.000352E-05,NaN,3.523712E-05,-0.007061408,2.284806E-06,-9.00029E-05,NaN,NaN,1.782458E-07,0.007061499,5.38798E-07,-6.961622E-07,9.059906E-08,0.3671734
128.737,1.356163E-08,-2.061235E-08,NaN,1.683921E-07,-1.734961E-09,NaN,-1.582583E-06,9.000352E-05,NaN,3.523712E-05,-0.007061408,2.284806E-06,-9.00029E-05,NaN,NaN,1.782458E-07,0.007061499,5.38798E-07,-6.961622E-07,9.059906E-08,0.3671734
128.756,1.356163E-08,-2.061235E-08,NaN,1.683921E-07,-1.734961E-09,NaN,-1.582583E-06,9.000352E-05,NaN,3.523712E-05,-0.007061408,2.284806E-06,-9.00029E-05,NaN,NaN,1.782458E-07,0.007061499,5.38798E-07,-6.961622E-07,9.059906E-08,0.3671734
128.7746,1.356163E-08,-2.061235E-08,NaN,1.683921E-07,-1.734961E-09,NaN,-1.582583E-06,9.000352E-05,NaN,3.523712E-05,-0.007061408,2.284806E-06,-9.00029E-05,NaN,NaN,1.782458E-07,0.007061499,5.38798E-07,-6.961622E-07,9.059906E-08,0.3671734
128.7932,1.356163E-08,-2.061235E-08,NaN,1.683921E-07,-1.734961E-09,NaN,-1.582583E-06,9.000352E-05,NaN,3.523712E-05,-0.007061408,2.284806E-06,-9.00029E-05,NaN,NaN,1.782458E-07,0.007061499,5.38798E-07,-6.961622E-07,9.059906E-08,0.3671734
128.8116,1.356163E-08,-2.061235E-08,NaN,1.683921E-07,-1.734961E-09,NaN,-1.582583E-06,9.000352E-05,NaN,3.523712E-05,-0.007061408,2.284806E-06,-9.00029E-05,NaN,NaN,1.782458E-07,0.007061499,5.38798E-07,-6.961622E-07,9.059906E-08,0.3671734
128.8302,1.356163E-08,-2.061235E-08,NaN,1.683921E-07,-1.734961E-09,NaN,-1.582583E-06,9.000352E-05,NaN,3.523712E-05,-0.007061408,2.284806E-06,-9.00029E-05,NaN,NaN,1.782458E-07,0.007061499,5.38798E-07,-6.961622E-07,9.059906E-08,0.3671734
128.8488,1.356163E-08,-2.061235E-08,NaN,1.683921E-07,-1.734961E-09,NaN,-1.582583E-06,9.000352E-05,NaN,3.523712E-05,-0.007061408,2.284806E-06,-9.00029E-05,NaN,NaN,1.782458E-07,0.007061499,5.38798E-07,-6.961622E-07,9.059906E-08,0.3671734
128.8674,1.356163E-08,-2.061235E-08,NaN,1.683921E-07,-1.734961E-09,NaN,-1.582583E-06,9.000352E-05,NaN,3.523712E-05,-0.007061408,2.284806E-06,-9.00029E-05,NaN,NaN,1.782458E-07,0.007061499,5.38798E-07,-6.961622E-07,9.059906E-08,0.3671734
128.8857,1.356163E-08,-2.061235E-08,NaN,1.683921E-07,-1.734961E-09,NaN,-1.582583E-06,9.000352E-05,NaN,3.523712E-05,-0.007061408,2.284806E-06,-9.00029E-05,NaN,NaN,1.782458E-07,0.007061499,5.38798E-07,-6.961622E-07,9.059906E-08,0.3671734
128.9042,1.356163E-08,-2.061235E-08,NaN,1.683921E-07,-1.734961E-09,NaN,-1.582583E-06,9.000352E-05,NaN,3.523712E-05,-0.007061408,2.284806E-06,-9.00029E-05,NaN,NaN,1.782458E-07,0.007061499,5.38798E-07,-6.961622E-07,9.059906E-08,0.3671734
128.9231,1.356163E-08,-2.061235E-08,NaN,1.683921E-07,-1.734961E-09,NaN,-1.582583E-06,9.000352E-05,NaN,3.523712E-05,-0.007061408,2.284806E-06,-9.00029E-05,NaN,NaN,1.782458E-07,0.007061499,5.38798E-07,-6.961622E-07,9.059906E-08,0.3671734
128.9417,1.356163E-08,-2.061235E-08,NaN,1.683921E-07,-1.734961E-09,NaN,-1.582583E-06,9.000352E-05,NaN,3.523712E-05,-0.007061408,2.284806E-06,-9.00029E-05,NaN,NaN,1.782458E-07,0.007061499,5.38798E-07,-6.961622E-07,9.059906E-08,0.3671734
128.9603,1.356163E-08,-2.061235E-08,NaN,1.683921E-07,-1.734961E-09,NaN,-1.582583E-06,9.000352E-05,NaN,3.523712E-05,-0.007061408,2.284806E-06,-9.00029E-05,NaN,NaN,1.782458E-07,0.007061499,5.38798E-07,-6.961622E-07,9.059906E-08,0.3671734
128.9788,1.356163E-08,-2.061235E-08,NaN,1.683921E-07,-1.734961E-09,NaN,-1.582583E-06,9.000352E-05,NaN,3.523712E-05,-0.007061408,2.284806E-06,-9.00029E-05,NaN,NaN,1.782458E-07,0.007061499,5.38798E-07,-6.961622E-07,9.059906E-08,0.3671734
128.9973,1.356163E-08,-2.061235E-08,NaN,1.683921E-07,-1.734961E-09,NaN,-1.582583E-06,9.000352E-05,NaN,3.523712E-05,-0.007061408,2.284806E-06,-9.00029E-05,NaN,NaN,1.782458E-07,0.007061499,5.38798E-07,-6.961622E-07,9.059906E-08,0.3671734
129.0161,1.356163E-08,-2.061235E-08,NaN,1.683921E-07,-1.734961E-09,NaN,-1.582583E-06,9.000352E-05,NaN,3.523712E-05,-0.007061408,2.284806E-06,-9.00029E-05,NaN,NaN,1.782458E-07,0.007061499,5.38798E-07,-6.961622E-07,9.059906E-08,0.3671734
129.0348,1.356163E-08,-2.061235E-08,NaN,1.683921E-07,-1.734961E-09,NaN,-1.582583E-06,9.000352E-05,NaN,3.523712E-05,-0.007061408,2.284806E-06,-9.00029E-05,NaN,NaN,1.782458E-07,0.007061499,5.38798E-07,-6.961622E-07,9.059906E-08,0.3671734
129.0536,1.356163E-08,-2.061235E-08,NaN,1.683921E-07,-1.734961E-09,NaN,-1.582583E-06,9.000352E-05,NaN,3.523712E-05,-0.007061408,2.284806E-06,-9.00029E-05,NaN,NaN,1.782458E-07,0.007061499,5.38798E-07,-6.961622E-07,9.059906E-08,0.3671734
129.0724,1.356163E-08,-2.061235E-08,NaN,1.683921E-07,-1.734961E-09,NaN,-1.582583E-06,9.000352E-05,NaN,3.523712E-05,-0.007061408,2.284806E-06,-9.00029E-05,NaN,NaN,1.782458E-07,0.007061499,5.38798E-07,-6.961622E-07,9.059906E-08,0.3671734
129.0909,1.356163E-08,-2.061235E-08,NaN,1.683921E-07,-1.734961E-09,NaN,-1.582583E-06,9.000352E-05,NaN,3.523712E-05,-0.007061408,2.284806E-06,-9.00029E-05,NaN,NaN,1.782458E-07,0.007061499,5.38798E-07,-6.961622E-07,9.059906E-08,0.3671734
129.1098,1.356163E-08,-2.061235E-08,NaN,1.683921E-07,-1.734961E-09,NaN,-1.582583E-06,9.000352E-05,NaN,3.523712E-05,-0.007061408,2.284806E-06,-9.00029E-05,NaN,NaN,1.782458E-07,0.007061499,5.38798E-07,-6.961622E-07,9.059906E-08,0.3671734
129.1284,1.356163E-08,-2.061235E-08,NaN,1.683921E-07,-1.734961E-09,NaN,-1.582583E-06,9.000352E-05,NaN,3.523712E-05,-0.007061408,2.284806E-06,-9.00029E-05,NaN,NaN,1.782458E-07,0.007061499,5.38798E-07,-6.961622E-07,9.059906E-08,0.3671734
129.147,1.356163E-08,-2.061235E-08,NaN,1.683921E-07,-1.734961E-09,NaN,-1.582583E-06,9.000352E-05,NaN,3.523712E-05,-0.007061408,2.284806E-06,-9.00029E-05,NaN,NaN,1.782458E-07,0.007061499,5.38798E-07,-6.961622E-07,9.059906E-08,0.3671734
129.1657,1.356163E-08,-2.061235E-08,NaN,1.683921E-07,-1.734961E-09,NaN,-1.582583E-06,9.000352E-05,NaN,3.523712E-05,-0.007061408,2.284806E-06,-9.00029E-05,NaN,NaN,1.782458E-07,0.007061499,5.38798E-07,-6.961622E-07,9.059906E-08,0.3671734
129.1842,1.356163E-08,-2.061235E-08,NaN,1.683921E-07,-1.734961E-09,NaN,-1.582583E-06,9.000352E-05,NaN,3.523712E-05,-0.007061408,2.284806E-06,-9.00029E-05,NaN,NaN,1.782458E-07,0.007061499,5.38798E-07,-6.961622E-07,9.059906E-08,0.3671734
129.2028,1.356163E-08,-2.061235E-08,NaN,1.683921E-07,-1.734961E-09,NaN,-1.582583E-06,9.000352E-05,NaN,3.523712E-05,-0.007061408,2.284806E-06,-9.00029E-05,NaN,NaN,1.782458E-07,0.007061499,5.38798E-07,-6.961622E-07,9.059906E-08,0.3671734
129.2217,1.356163E-08,-2.061235E-08,NaN,1.683921E-07,-1.734961E-09,NaN,-1.582583E-06,9.000352E-05,NaN,3.523712E-05,-0.007061408,2.284806E-06,-9.00029E-05,NaN,NaN,1.782458E-07,0.007061499,5.38798E-07,-6.961622E-07,9.059906E-08,0.3671734
129.2406,1.356163E-08,-2.061235E-08,NaN,1.683921E-07,-1.734961E-09,NaN,-1.582583E-06,9.000352E-05,NaN,3.523712E-05,-0.007061408,2.284806E-06,-9.00029E-05,NaN,NaN,1.782458E-07,0.007061499,5.38798E-07,-6.961622E-07,9.059906E-08,0.3671734
129.259,1.356163E-08,-2.061235E-08,NaN,1.683921E-07,-1.734961E-09,NaN,-1.582583E-06,9.000352E-05,NaN,3.523712E-05,-0.007061408,2.284806E-06,-9.00029E-05,NaN,NaN,1.782458E-07,0.007061499,5.38798E-07,-6.961622E-07,9.059906E-08,0.3671734
129.2775,1.356163E-08,-2.061235E-08,NaN,1.683921E-07,-1.734961E-09,NaN,-1.582583E-06,9.000352E-05,NaN,3.523712E-05,-0.007061408,2.284806E-06,-9.00029E-05,NaN,NaN,1.782458E-07,0.007061499,5.38798E-07,-6.961622E-07,9.059906E-08,0.3671734
129.2965,1.356163E-08,-2.061235E-08,NaN,1.683921E-07,-1.734961E-09,NaN,-1.582583E-06,9.000352E-05,NaN,3.523712E-05,-0.007061408,2.284806E-06,-9.00029E-05,NaN,NaN,1.782458E-07,0.007061499,5.38798E-07,-6.961622E-07,9.059906E-08,0.3671734
129.3154,1.356163E-08,-2.061235E-08,NaN,1.683921E-07,-1.734961E-09,NaN,-1.582583E-06,9.000352E-05,NaN,3.523712E-05,-0.007061408,2.284806E-06,-9.00029E-05,NaN,NaN,1.782458E-07,0.007061499,5.38798E-07,-6.961622E-07,9.059906E-08,0.3671734
129.334,1.356163E-08,-2.061235E-08,NaN,1.683921E-07,-1.734961E-09,NaN,-1.582583E-06,9.000352E-05,NaN,3.523712E-05,-0.007061408,2.284806E-06,-9.00029E-05,NaN,NaN,1.782458E-07,0.007061499,5.38798E-07,-6.961622E-07,9.059906E-08,0.3671734
129.3524,1.356163E-08,-2.061235E-08,NaN,1.683921E-07,-1.734961E-09,NaN,-1.582583E-06,9.000352E-05,NaN,3.523712E-05,-0.007061408,2.284806E-06,-9.00029E-05,NaN,NaN,1.782458E-07,0.007061499,5.38798E-07,-6.961622E-07,9.059906E-08,0.3671734
129.371,1.356163E-08,-2.061235E-08,NaN,1.683921E-07,-1.734961E-09,NaN,-1.582583E-06,9.000352E-05,NaN,3.523712E-05,-0.007061408,2.284806E-06,-9.00029E-05,NaN,NaN,1.782458E-07,0.007061499,5.38798E-07,-6.961622E-07,9.059906E-08,0.3671734
129.39,1.356163E-08,-2.061235E-08,NaN,1.683921E-07,-1.734961E-09,NaN,-1.582583E-06,9.000352E-05,NaN,3.523712E-05,-0.007061408,2.284806E-06,-9.00029E-05,NaN,NaN,1.782458E-07,0.007061499,5.38798E-07,-6.961622E-07,9.059906E-08,0.3671734
129.4086,1.356163E-08,-2.061235E-08,NaN,1.683921E-07,-1.734961E-09,NaN,-1.582583E-06,9.000352E-05,NaN,3.523712E-05,-0.007061408,2.284806E-06,-9.00029E-05,NaN,NaN,1.782458E-07,0.007061499,5.38798E-07,-6.961622E-07,9.059906E-08,0.3671734
129.4273,1.356163E-08,-2.061235E-08,NaN,1.683921E-07,-1.734961E-09,NaN,-1.582583E-06,9.000352E-05,NaN,3.523712E-05,-0.007061408,2.284806E-06,-9.00029E-05,NaN,NaN,1.782458E-07,0.007061499,5.38798E-07,-6.961622E-07,9.059906E-08,0.3671734
129.4461,1.356163E-08,-2.061235E-08,NaN,1.683921E-07,-1.734961E-09,NaN,-1.582583E-06,9.000352E-05,NaN,3.523712E-05,-0.007061408,2.284806E-06,-9.00029E-05,NaN,NaN,1.782458E-07,0.007061499,5.38798E-07,-6.961622E-07,9.059906E-08,0.3671734
129.4658,1.356163E-08,-2.061235E-08,NaN,1.683921E-07,-1.734961E-09,NaN,-1.582583E-06,9.000352E-05,NaN,3.523712E-05,-0.007061408,2.284806E-06,-9.00029E-05,NaN,NaN,1.782458E-07,0.007061499,5.38798E-07,-6.961622E-07,9.059906E-08,0.3671734
129.4836,1.356163E-08,-2.061235E-08,NaN,1.683921E-07,-1.734961E-09,NaN,-1.582583E-06,9.000352E-05,NaN,3.523712E-05,-0.007061408,2.284806E-06,-9.00029E-05,NaN,NaN,1.782458E-07,0.007061499,5.38798E-07,-6.961622E-07,9.059906E-08,0.3671734
129.5048,1.356163E-08,-2.061235E-08,NaN,1.683921E-07,-1.734961E-09,NaN,-1.582583E-06,9.000352E-05,NaN,3.523712E-05,-0.007061408,2.284806E-06,-9.00029E-05,NaN,NaN,1.782458E-07,0.007061499,5.38798E-07,-6.961622E-07,9.059906E-08,0.3671734
129.5209,1.356163E-08,-2.061235E-08,NaN,1.683921E-07,-1.734961E-09,NaN,-1.582583E-06,9.000352E-05,NaN,3.523712E-05,-0.007061408,2.284806E-06,-9.00029E-05,NaN,NaN,1.782458E-07,0.007061499,5.38798E-07,-6.961622E-07,9.059906E-08,0.3671734
129.5387,1.356163E-08,-2.061235E-08,NaN,1.683921E-07,-1.734961E-09,NaN,-1.582583E-06,9.000352E-05,NaN,3.523712E-05,-0.007061408,2.284806E-06,-9.00029E-05,NaN,NaN,1.782458E-07,0.007061499,5.38798E-07,-6.961622E-07,9.059906E-08,0.3671734
129.558,1.356163E-08,-2.061235E-08,NaN,1.683921E-07,-1.734961E-09,NaN,-1.582583E-06,9.000352E-05,NaN,3.523712E-05,-0.007061408,2.284806E-06,-9.00029E-05,NaN,NaN,1.782458E-07,0.007061499,5.38798E-07,-6.961622E-07,9.059906E-08,0.3671734
129.5781,1.356163E-08,-2.061235E-08,NaN,1.683921E-07,-1.734961E-09,NaN,-1.582583E-06,9.000352E-05,NaN,3.523712E-05,-0.007061408,2.284806E-06,-9.00029E-05,NaN,NaN,1.782458E-07,0.007061499,5.38798E-07,-6.961622E-07,9.059906E-08,0.3671734
129.5965,1.356163E-08,-2.061235E-08,NaN,1.683921E-07,-1.734961E-09,NaN,-1.582583E-06,9.000352E-05,NaN,3.523712E-05,-0.007061408,2.284806E-06,-9.00029E-05,NaN,NaN,1.782458E-07,0.007061499,5.38798E-07,-6.961622E-07,9.059906E-08,0.3671734
129.615,1.356163E-08,-2.061235E-08,NaN,1.683921E-07,-1.734961E-09,NaN,-1.582583E-06,9.000352E-05,NaN,3.523712E-05,-0.007061408,2.284806E-06,-9.00029E-05,NaN,NaN,1.782458E-07,0.007061499,5.38798E-07,-6.961622E-07,9.059906E-08,0.3671734
129.6342,1.356163E-08,-2.061235E-08,NaN,1.683921E-07,-1.734961E-09,NaN,-1.582583E-06,9.000352E-05,NaN,3.523712E-05,-0.007061408,2.284806E-06,-9.00029E-05,NaN,NaN,1.782458E-07,0.007061499,5.38798E-07,-6.961622E-07,9.059906E-08,0.3671734
129.6527,1.356163E-08,-2.061235E-08,NaN,1.683921E-07,-1.734961E-09,NaN,-1.582583E-06,9.000352E-05,NaN,3.523712E-05,-0.007061408,2.284806E-06,-9.00029E-05,NaN,NaN,1.782458E-07,0.007061499,5.38798E-07,-6.961622E-07,9.059906E-08,0.3671734
129.6753,1.356163E-08,-2.061235E-08,NaN,1.683921E-07,-1.734961E-09,NaN,-1.582583E-06,9.000352E-05,NaN,3.523712E-05,-0.007061408,2.284806E-06,-9.00029E-05,NaN,NaN,1.782458E-07,0.007061499,5.38798E-07,-6.961622E-07,9.059906E-08,0.3671734
129.6939,1.356163E-08,-2.061235E-08,NaN,1.683921E-07,-1.734961E-09,NaN,-1.582583E-06,9.000352E-05,NaN,3.523712E-05,-0.007061408,2.284806E-06,-9.00029E-05,NaN,NaN,1.782458E-07,0.007061499,5.38798E-07,-6.961622E-07,9.059906E-08,0.3671734
129.7128,1.356163E-08,-2.061235E-08,NaN,1.683921E-07,-1.734961E-09,NaN,-1.582583E-06,9.000352E-05,NaN,3.523712E-05,-0.007061408,2.284806E-06,-9.00029E-05,NaN,NaN,1.782458E-07,0.007061499,5.38798E-07,-6.961622E-07,9.059906E-08,0.3671734
129.7314,1.356163E-08,-2.061235E-08,NaN,1.683921E-07,-1.734961E-09,NaN,-1.582583E-06,9.000352E-05,NaN,3.523712E-05,-0.007061408,2.284806E-06,-9.00029E-05,NaN,NaN,1.782458E-07,0.007061499,5.38798E-07,-6.961622E-07,9.059906E-08,0.3671734
129.7502,1.356163E-08,-2.061235E-08,NaN,1.683921E-07,-1.734961E-09,NaN,-1.582583E-06,9.000352E-05,NaN,3.523712E-05,-0.007061408,2.284806E-06,-9.00029E-05,NaN,NaN,1.782458E-07,0.007061499,5.38798E-07,-6.961622E-07,9.059906E-08,0.3671734
129.7691,1.356163E-08,-2.061235E-08,NaN,1.683921E-07,-1.734961E-09,NaN,-1.582583E-06,9.000352E-05,NaN,3.523712E-05,-0.007061408,2.284806E-06,-9.00029E-05,NaN,NaN,1.782458E-07,0.007061499,5.38798E-07,-6.961622E-07,9.059906E-08,0.3671734
129.7879,1.356163E-08,-2.061235E-08,NaN,1.683921E-07,-1.734961E-09,NaN,-1.582583E-06,9.000352E-05,NaN,3.523712E-05,-0.007061408,2.284806E-06,-9.00029E-05,NaN,NaN,1.782458E-07,0.007061499,5.38798E-07,-6.961622E-07,9.059906E-08,0.3671734
129.8067,1.356163E-08,-2.061235E-08,NaN,1.683921E-07,-1.734961E-09,NaN,-1.582583E-06,9.000352E-05,NaN,3.523712E-05,-0.007061408,2.284806E-06,-9.00029E-05,NaN,NaN,1.782458E-07,0.007061499,5.38798E-07,-6.961622E-07,9.059906E-08,0.3671734
129.8255,1.356163E-08,-2.061235E-08,NaN,1.683921E-07,-1.734961E-09,NaN,-1.582583E-06,9.000352E-05,NaN,3.523712E-05,-0.007061408,2.284806E-06,-9.00029E-05,NaN,NaN,1.782458E-07,0.007061499,5.38798E-07,-6.961622E-07,9.059906E-08,0.3671734
129.8442,1.356163E-08,-2.061235E-08,NaN,1.683921E-07,-1.734961E-09,NaN,-1.582583E-06,9.000352E-05,NaN,3.523712E-05,-0.007061408,2.284806E-06,-9.00029E-05,NaN,NaN,1.782458E-07,0.007061499,5.38798E-07,-6.961622E-07,9.059906E-08,0.3671734
129.863,1.356163E-08,-2.061235E-08,NaN,1.683921E-07,-1.734961E-09,NaN,-1.582583E-06,9.000352E-05,NaN,3.523712E-05,-0.007061408,2.284806E-06,-9.00029E-05,NaN,NaN,1.782458E-07,0.007061499,5.38798E-07,-6.961622E-07,9.059906E-08,0.3671734
129.8815,1.356163E-08,-2.061235E-08,NaN,1.683921E-07,-1.734961E-09,NaN,-1.582583E-06,9.000352E-05,NaN,3.523712E-05,-0.007061408,2.284806E-06,-9.00029E-05,NaN,NaN,1.782458E-07,0.007061499,5.38798E-07,-6.961622E-07,9.059906E-08,0.3671734
129.9004,1.356163E-08,-2.061235E-08,NaN,1.683921E-07,-1.734961E-09,NaN,-1.582583E-06,9.000352E-05,NaN,3.523712E-05,-0.007061408,2.284806E-06,-9.00029E-05,NaN,NaN,1.782458E-07,0.007061499,5.38798E-07,-6.961622E-07,9.059906E-08,0.3671734
129.9191,1.356163E-08,-2.061235E-08,NaN,1.683921E-07,-1.734961E-09,NaN,-1.582583E-06,9.000352E-05,NaN,3.523712E-05,-0.007061408,2.284806E-06,-9.00029E-05,NaN,NaN,1.782458E-07,0.007061499,5.38798E-07,-6.961622E-07,9.059906E-08,0.3671734
129.9372,1.356163E-08,-2.061235E-08,NaN,1.683921E-07,-1.734961E-09,NaN,-1.582583E-06,9.000352E-05,NaN,3.523712E-05,-0.007061408,2.284806E-06,-9.00029E-05,NaN,NaN,1.782458E-07,0.007061499,5.38798E-07,-6.961622E-07,9.059906E-08,0.3671734
129.9565,1.356163E-08,-2.061235E-08,NaN,1.683921E-07,-1.734961E-09,NaN,-1.582583E-06,9.000352E-05,NaN,3.523712E-05,-0.007061408,2.284806E-06,-9.00029E-05,NaN,NaN,1.782458E-07,0.007061499,5.38798E-07,-6.961622E-07,9.059906E-08,0.3671734
129.9752,1.356163E-08,-2.061235E-08,NaN,1.683921E-07,-1.734961E-09,NaN,-1.582583E-06,9.000352E-05,NaN,3.523712E-05,-0.007061408,2.284806E-06,-9.00029E-05,NaN,NaN,1.782458E-07,0.007061499,5.38798E-07,-6.961622E-07,9.059906E-08,0.3671734
129.9938,1.356163E-08,-2.061235E-08,NaN,1.683921E-07,-1.734961E-09,NaN,-1.582583E-06,9.000352E-05,NaN,3.523712E-05,-0.007061408,2.284806E-06,-9.00029E-05,NaN,NaN,1.782458E-07,0.007061499,5.38798E-07,-6.961622E-07,9.059906E-08,0.3671734
130.0125,1.356163E-08,-2.061235E-08,NaN,1.683921E-07,-1.734961E-09,NaN,-1.582583E-06,9.000352E-05,NaN,3.523712E-05,-0.007061408,2.284806E-06,-9.00029E-05,NaN,NaN,1.782458E-07,0.007061499,5.38798E-07,-6.961622E-07,9.059906E-08,0.3671734
130.031,1.356163E-08,-2.061235E-08,NaN,1.683921E-07,-1.734961E-09,NaN,-1.582583E-06,9.000352E-05,NaN,3.523712E-05,-0.007061408,2.284806E-06,-9.00029E-05,NaN,NaN,1.782458E-07,0.007061499,5.38798E-07,-6.961622E-07,9.059906E-08,0.3671734
130.0497,1.356163E-08,-2.061235E-08,NaN,1.683921E-07,-1.734961E-09,NaN,-1.582583E-06,9.000352E-05,NaN,3.523712E-05,-0.007061408,2.284806E-06,-9.00029E-05,NaN,NaN,1.782458E-07,0.007061499,5.38798E-07,-6.961622E-07,9.059906E-08,0.3671734
130.0686,1.356163E-08,-2.061235E-08,NaN,1.683921E-07,-1.734961E-09,NaN,-1.582583E-06,9.000352E-05,NaN,3.523712E-05,-0.007061408,2.284806E-06,-9.00029E-05,NaN,NaN,1.782458E-07,0.007061499,5.38798E-07,-6.961622E-07,9.059906E-08,0.3671734
130.0869,1.356163E-08,-2.061235E-08,NaN,1.683921E-07,-1.734961E-09,NaN,-1.582583E-06,9.000352E-05,NaN,3.523712E-05,-0.007061408,2.284806E-06,-9.00029E-05,NaN,NaN,1.782458E-07,0.007061499,5.38798E-07,-6.961622E-07,9.059906E-08,0.3671734
130.1057,1.356163E-08,-2.061235E-08,NaN,1.683921E-07,-1.734961E-09,NaN,-1.582583E-06,9.000352E-05,NaN,3.523712E-05,-0.007061408,2.284806E-06,-9.00029E-05,NaN,NaN,1.782458E-07,0.007061499,5.38798E-07,-6.961622E-07,9.059906E-08,0.3671734
130.1245,1.356163E-08,-2.061235E-08,NaN,1.683921E-07,-1.734961E-09,NaN,-1.582583E-06,9.000352E-05,NaN,3.523712E-05,-0.007061408,2.284806E-06,-9.00029E-05,NaN,NaN,1.782458E-07,0.007061499,5.38798E-07,-6.961622E-07,9.059906E-08,0.3671734
130.143,1.356163E-08,-2.061235E-08,NaN,1.683921E-07,-1.734961E-09,NaN,-1.582583E-06,9.000352E-05,NaN,3.523712E-05,-0.007061408,2.284806E-06,-9.00029E-05,NaN,NaN,1.782458E-07,0.007061499,5.38798E-07,-6.961622E-07,9.059906E-08,0.3671734
130.1631,1.356163E-08,-2.061235E-08,NaN,1.683921E-07,-1.734961E-09,NaN,-1.582583E-06,9.000352E-05,NaN,3.523712E-05,-0.007061408,2.284806E-06,-9.00029E-05,NaN,NaN,1.782458E-07,0.007061499,5.38798E-07,-6.961622E-07,9.059906E-08,0.3671734
130.1806,1.356163E-08,-2.061235E-08,NaN,1.683921E-07,-1.734961E-09,NaN,-1.582583E-06,9.000352E-05,NaN,3.523712E-05,-0.007061408,2.284806E-06,-9.00029E-05,NaN,NaN,1.782458E-07,0.007061499,5.38798E-07,-6.961622E-07,9.059906E-08,0.3671734
130.1992,1.356163E-08,-2.061235E-08,NaN,1.683921E-07,-1.734961E-09,NaN,-1.582583E-06,9.000352E-05,NaN,3.523712E-05,-0.007061408,2.284806E-06,-9.00029E-05,NaN,NaN,1.782458E-07,0.007061499,5.38798E-07,-6.961622E-07,9.059906E-08,0.3671734
130.2173,1.356163E-08,-2.061235E-08,NaN,1.683921E-07,-1.734961E-09,NaN,-1.582583E-06,9.000352E-05,NaN,3.523712E-05,-0.007061408,2.284806E-06,-9.00029E-05,NaN,NaN,1.782458E-07,0.007061499,5.38798E-07,-6.961622E-07,9.059906E-08,0.3671734
130.2364,1.356163E-08,-2.061235E-08,NaN,1.683921E-07,-1.734961E-09,NaN,-1.582583E-06,9.000352E-05,NaN,3.523712E-05,-0.007061408,2.284806E-06,-9.00029E-05,NaN,NaN,1.782458E-07,0.007061499,5.38798E-07,-6.961622E-07,9.059906E-08,0.3671734
130.2547,1.356163E-08,-2.061235E-08,NaN,1.683921E-07,-1.734961E-09,NaN,-1.582583E-06,9.000352E-05,NaN,3.523712E-05,-0.007061408,2.284806E-06,-9.00029E-05,NaN,NaN,1.782458E-07,0.007061499,5.38798E-07,-6.961622E-07,9.059906E-08,0.3671734
130.2738,1.356163E-08,-2.061235E-08,NaN,1.683921E-07,-1.734961E-09,NaN,-1.582583E-06,9.000352E-05,NaN,3.523712E-05,-0.007061408,2.284806E-06,-9.00029E-05,NaN,NaN,1.782458E-07,0.007061499,5.38798E-07,-6.961622E-07,9.059906E-08,0.3671734
130.2922,1.356163E-08,-2.061235E-08,NaN,1.683921E-07,-1.734961E-09,NaN,-1.582583E-06,9.000352E-05,NaN,3.523712E-05,-0.007061408,2.284806E-06,-9.00029E-05,NaN,NaN,1.782458E-07,0.007061499,5.38798E-07,-6.961622E-07,9.059906E-08,0.3671734
130.3107,1.356163E-08,-2.061235E-08,NaN,1.683921E-07,-1.734961E-09,NaN,-1.582583E-06,9.000352E-05,NaN,3.523712E-05,-0.007061408,2.284806E-06,-9.00029E-05,NaN,NaN,1.782458E-07,0.007061499,5.38798E-07,-6.961622E-07,9.059906E-08,0.3671734
130.3293,1.356163E-08,-2.061235E-08,NaN,1.683921E-07,-1.734961E-09,NaN,-1.582583E-06,9.000352E-05,NaN,3.523712E-05,-0.007061408,2.284806E-06,-9.00029E-05,NaN,NaN,1.782458E-07,0.007061499,5.38798E-07,-6.961622E-07,9.059906E-08,0.3671734
130.348,1.356163E-08,-2.061235E-08,NaN,1.683921E-07,-1.734961E-09,NaN,-1.582583E-06,9.000352E-05,NaN,3.523712E-05,-0.007061408,2.284806E-06,-9.00029E-05,NaN,NaN,1.782458E-07,0.007061499,5.38798E-07,-6.961622E-07,9.059906E-08,0.3671734
130.3672,1.356163E-08,-2.061235E-08,NaN,1.683921E-07,-1.734961E-09,NaN,-1.582583E-06,9.000352E-05,NaN,3.523712E-05,-0.007061408,2.284806E-06,-9.00029E-05,NaN,NaN,1.782458E-07,0.007061499,5.38798E-07,-6.961622E-07,9.059906E-08,0.3671734
130.3851,1.356163E-08,-2.061235E-08,NaN,1.683921E-07,-1.734961E-09,NaN,-1.582583E-06,9.000352E-05,NaN,3.523712E-05,-0.007061408,2.284806E-06,-9.00029E-05,NaN,NaN,1.782458E-07,0.007061499,5.38798E-07,-6.961622E-07,9.059906E-08,0.3671734
130.4036,1.356163E-08,-2.061235E-08,NaN,1.683921E-07,-1.734961E-09,NaN,-1.582583E-06,9.000352E-05,NaN,3.523712E-05,-0.007061408,2.284806E-06,-9.00029E-05,NaN,NaN,1.782458E-07,0.007061499,5.38798E-07,-6.961622E-07,9.059906E-08,0.3671734
130.422,1.356163E-08,-2.061235E-08,NaN,1.683921E-07,-1.734961E-09,NaN,-1.582583E-06,9.000352E-05,NaN,3.523712E-05,-0.007061408,2.284806E-06,-9.00029E-05,NaN,NaN,1.782458E-07,0.007061499,5.38798E-07,-6.961622E-07,9.059906E-08,0.3671734
130.4408,1.356163E-08,-2.061235E-08,NaN,1.683921E-07,-1.734961E-09,NaN,-1.582583E-06,9.000352E-05,NaN,3.523712E-05,-0.007061408,2.284806E-06,-9.00029E-05,NaN,NaN,1.782458E-07,0.007061499,5.38798E-07,-6.961622E-07,9.059906E-08,0.3671734
130.4593,1.356163E-08,-2.061235E-08,NaN,1.683921E-07,-1.734961E-09,NaN,-1.582583E-06,9.000352E-05,NaN,3.523712E-05,-0.007061408,2.284806E-06,-9.00029E-05,NaN,NaN,1.782458E-07,0.007061499,5.38798E-07,-6.961622E-07,9.059906E-08,0.3671734
130.4773,1.356163E-08,-2.061235E-08,NaN,1.683921E-07,-1.734961E-09,NaN,-1.582583E-06,9.000352E-05,NaN,3.523712E-05,-0.007061408,2.284806E-06,-9.00029E-05,NaN,NaN,1.782458E-07,0.007061499,5.38798E-07,-6.961622E-07,9.059906E-08,0.3671734
130.4965,1.356163E-08,-2.061235E-08,NaN,1.683921E-07,-1.734961E-09,NaN,-1.582583E-06,9.000352E-05,NaN,3.523712E-05,-0.007061408,2.284806E-06,-9.00029E-05,NaN,NaN,1.782458E-07,0.007061499,5.38798E-07,-6.961622E-07,9.059906E-08,0.3671734
130.5151,1.356163E-08,-2.061235E-08,NaN,1.683921E-07,-1.734961E-09,NaN,-1.582583E-06,9.000352E-05,NaN,3.523712E-05,-0.007061408,2.284806E-06,-9.00029E-05,NaN,NaN,1.782458E-07,0.007061499,5.38798E-07,-6.961622E-07,9.059906E-08,0.3671734
130.5334,1.356163E-08,-2.061235E-08,NaN,1.683921E-07,-1.734961E-09,NaN,-1.582583E-06,9.000352E-05,NaN,3.523712E-05,-0.007061408,2.284806E-06,-9.00029E-05,NaN,NaN,1.782458E-07,0.007061499,5.38798E-07,-6.961622E-07,9.059906E-08,0.3671734
130.552,1.356163E-08,-2.061235E-08,NaN,1.683921E-07,-1.734961E-09,NaN,-1.582583E-06,9.000352E-05,NaN,3.523712E-05,-0.007061408,2.284806E-06,-9.00029E-05,NaN,NaN,1.782458E-07,0.007061499,5.38798E-07,-6.961622E-07,9.059906E-08,0.3671734
130.5705,1.356163E-08,-2.061235E-08,NaN,1.683921E-07,-1.734961E-09,NaN,-1.582583E-06,9.000352E-05,NaN,3.523712E-05,-0.007061408,2.284806E-06,-9.00029E-05,NaN,NaN,1.782458E-07,0.007061499,5.38798E-07,-6.961622E-07,9.059906E-08,0.3671734
130.5888,1.356163E-08,-2.061235E-08,NaN,1.683921E-07,-1.734961E-09,NaN,-1.582583E-06,9.000352E-05,NaN,3.523712E-05,-0.007061408,2.284806E-06,-9.00029E-05,NaN,NaN,1.782458E-07,0.007061499,5.38798E-07,-6.961622E-07,9.059906E-08,0.3671734
130.6078,1.356163E-08,-2.061235E-08,NaN,1.683921E-07,-1.734961E-09,NaN,-1.582583E-06,9.000352E-05,NaN,3.523712E-05,-0.007061408,2.284806E-06,-9.00029E-05,NaN,NaN,1.782458E-07,0.007061499,5.38798E-07,-6.961622E-07,9.059906E-08,0.3671734
130.6262,1.356163E-08,-2.061235E-08,NaN,1.683921E-07,-1.734961E-09,NaN,-1.582583E-06,9.000352E-05,NaN,3.523712E-05,-0.007061408,2.284806E-06,-9.00029E-05,NaN,NaN,1.782458E-07,0.007061499,5.38798E-07,-6.961622E-07,9.059906E-08,0.3671734
130.6446,1.356163E-08,-2.061235E-08,NaN,1.683921E-07,-1.734961E-09,NaN,-1.582583E-06,9.000352E-05,NaN,3.523712E-05,-0.007061408,2.284806E-06,-9.00029E-05,NaN,NaN,1.782458E-07,0.007061499,5.38798E-07,-6.961622E-07,9.059906E-08,0.3671734
130.6666,1.356163E-08,-2.061235E-08,NaN,1.683921E-07,-1.734961E-09,NaN,-1.582583E-06,9.000352E-05,NaN,3.523712E-05,-0.007061408,2.284806E-06,-9.00029E-05,NaN,NaN,1.782458E-07,0.007061499,5.38798E-07,-6.961622E-07,9.059906E-08,0.3671734
130.6816,1.356163E-08,-2.061235E-08,NaN,1.683921E-07,-1.734961E-09,NaN,-1.582583E-06,9.000352E-05,NaN,3.523712E-05,-0.007061408,2.284806E-06,-9.00029E-05,NaN,NaN,1.782458E-07,0.007061499,5.38798E-07,-6.961622E-07,9.059906E-08,0.3671734
130.7001,1.356163E-08,-2.061235E-08,NaN,1.683921E-07,-1.734961E-09,NaN,-1.582583E-06,9.000352E-05,NaN,3.523712E-05,-0.007061408,2.284806E-06,-9.00029E-05,NaN,NaN,1.782458E-07,0.007061499,5.38798E-07,-6.961622E-07,9.059906E-08,0.3671734
130.7185,1.356163E-08,-2.061235E-08,NaN,1.683921E-07,-1.734961E-09,NaN,-1.582583E-06,9.000352E-05,NaN,3.523712E-05,-0.007061408,2.284806E-06,-9.00029E-05,NaN,NaN,1.782458E-07,0.007061499,5.38798E-07,-6.961622E-07,9.059906E-08,0.3671734
130.737,1.356163E-08,-2.061235E-08,NaN,1.683921E-07,-1.734961E-09,NaN,-1.582583E-06,9.000352E-05,NaN,3.523712E-05,-0.007061408,2.284806E-06,-9.00029E-05,NaN,NaN,1.782458E-07,0.007061499,5.38798E-07,-6.961622E-07,9.059906E-08,0.3671734
130.7558,1.356163E-08,-2.061235E-08,NaN,1.683921E-07,-1.734961E-09,NaN,-1.582583E-06,9.000352E-05,NaN,3.523712E-05,-0.007061408,2.284806E-06,-9.00029E-05,NaN,NaN,1.782458E-07,0.007061499,5.38798E-07,-6.961622E-07,9.059906E-08,0.3671734
130.7746,1.356163E-08,-2.061235E-08,NaN,1.683921E-07,-1.734961E-09,NaN,-1.582583E-06,9.000352E-05,NaN,3.523712E-05,-0.007061408,2.284806E-06,-9.00029E-05,NaN,NaN,1.782458E-07,0.007061499,5.38798E-07,-6.961622E-07,9.059906E-08,0.3671734
130.7934,1.356163E-08,-2.061235E-08,NaN,1.683921E-07,-1.734961E-09,NaN,-1.582583E-06,9.000352E-05,NaN,3.523712E-05,-0.007061408,2.284806E-06,-9.00029E-05,NaN,NaN,1.782458E-07,0.007061499,5.38798E-07,-6.961622E-07,9.059906E-08,0.3671734
130.812,1.356163E-08,-2.061235E-08,NaN,1.683921E-07,-1.734961E-09,NaN,-1.582583E-06,9.000352E-05,NaN,3.523712E-05,-0.007061408,2.284806E-06,-9.00029E-05,NaN,NaN,1.782458E-07,0.007061499,5.38798E-07,-6.961622E-07,9.059906E-08,0.3671734
130.8313,1.356163E-08,-2.061235E-08,NaN,1.683921E-07,-1.734961E-09,NaN,-1.582583E-06,9.000352E-05,NaN,3.523712E-05,-0.007061408,2.284806E-06,-9.00029E-05,NaN,NaN,1.782458E-07,0.007061499,5.38798E-07,-6.961622E-07,9.059906E-08,0.3671734
130.8499,1.356163E-08,-2.061235E-08,NaN,1.683921E-07,-1.734961E-09,NaN,-1.582583E-06,9.000352E-05,NaN,3.523712E-05,-0.007061408,2.284806E-06,-9.00029E-05,NaN,NaN,1.782458E-07,0.007061499,5.38798E-07,-6.961622E-07,9.059906E-08,0.3671734
130.8691,1.356163E-08,-2.061235E-08,NaN,1.683921E-07,-1.734961E-09,NaN,-1.582583E-06,9.000352E-05,NaN,3.523712E-05,-0.007061408,2.284806E-06,-9.00029E-05,NaN,NaN,1.782458E-07,0.007061499,5.38798E-07,-6.961622E-07,9.059906E-08,0.3671734
130.8884,1.356163E-08,-2.061235E-08,NaN,1.683921E-07,-1.734961E-09,NaN,-1.582583E-06,9.000352E-05,NaN,3.523712E-05,-0.007061408,2.284806E-06,-9.00029E-05,NaN,NaN,1.782458E-07,0.007061499,5.38798E-07,-6.961622E-07,9.059906E-08,0.3671734
130.9081,1.356163E-08,-2.061235E-08,NaN,1.683921E-07,-1.734961E-09,NaN,-1.582583E-06,9.000352E-05,NaN,3.523712E-05,-0.007061408,2.284806E-06,-9.00029E-05,NaN,NaN,1.782458E-07,0.007061499,5.38798E-07,-6.961622E-07,9.059906E-08,0.3671734
130.9281,1.356163E-08,-2.061235E-08,NaN,1.683921E-07,-1.734961E-09,NaN,-1.582583E-06,9.000352E-05,NaN,3.523712E-05,-0.007061408,2.284806E-06,-9.00029E-05,NaN,NaN,1.782458E-07,0.007061499,5.38798E-07,-6.961622E-07,9.059906E-08,0.3671734
130.9474,1.356163E-08,-2.061235E-08,NaN,1.683921E-07,-1.734961E-09,NaN,-1.582583E-06,9.000352E-05,NaN,3.523712E-05,-0.007061408,2.284806E-06,-9.00029E-05,NaN,NaN,1.782458E-07,0.007061499,5.38798E-07,-6.961622E-07,9.059906E-08,0.3671734
130.9696,1.356163E-08,-2.061235E-08,NaN,1.683921E-07,-1.734961E-09,NaN,-1.582583E-06,9.000352E-05,NaN,3.523712E-05,-0.007061408,2.284806E-06,-9.00029E-05,NaN,NaN,1.782458E-07,0.007061499,5.38798E-07,-6.961622E-07,9.059906E-08,0.3671734
130.9889,1.356163E-08,-2.061235E-08,NaN,1.683921E-07,-1.734961E-09,NaN,-1.582583E-06,9.000352E-05,NaN,3.523712E-05,-0.007061408,2.284806E-06,-9.00029E-05,NaN,NaN,1.782458E-07,0.007061499,5.38798E-07,-6.961622E-07,9.059906E-08,0.3671734
131.0116,1.356163E-08,-2.061235E-08,NaN,1.683921E-07,-1.734961E-09,NaN,-1.582583E-06,9.000352E-05,NaN,3.523712E-05,-0.007061408,2.284806E-06,-9.00029E-05,NaN,NaN,1.782458E-07,0.007061499,5.38798E-07,-6.961622E-07,9.059906E-08,0.3671734
131.0307,1.356163E-08,-2.061235E-08,NaN,1.683921E-07,-1.734961E-09,NaN,-1.582583E-06,9.000352E-05,NaN,3.523712E-05,-0.007061408,2.284806E-06,-9.00029E-05,NaN,NaN,1.782458E-07,0.007061499,5.38798E-07,-6.961622E-07,9.059906E-08,0.3671734
131.0534,1.356163E-08,-2.061235E-08,NaN,1.683921E-07,-1.734961E-09,NaN,-1.582583E-06,9.000352E-05,NaN,3.523712E-05,-0.007061408,2.284806E-06,-9.00029E-05,NaN,NaN,1.782458E-07,0.007061499,5.38798E-07,-6.961622E-07,9.059906E-08,0.3671734
131.0722,1.356163E-08,-2.061235E-08,NaN,1.683921E-07,-1.734961E-09,NaN,-1.582583E-06,9.000352E-05,NaN,3.523712E-05,-0.007061408,2.284806E-06,-9.00029E-05,NaN,NaN,1.782458E-07,0.007061499,5.38798E-07,-6.961622E-07,9.059906E-08,0.3671734
131.0908,1.356163E-08,-2.061235E-08,NaN,1.683921E-07,-1.734961E-09,NaN,-1.582583E-06,9.000352E-05,NaN,3.523712E-05,-0.007061408,2.284806E-06,-9.00029E-05,NaN,NaN,1.782458E-07,0.007061499,5.38798E-07,-6.961622E-07,9.059906E-08,0.3671734
131.1098,1.356163E-08,-2.061235E-08,NaN,1.683921E-07,-1.734961E-09,NaN,-1.582583E-06,9.000352E-05,NaN,3.523712E-05,-0.007061408,2.284806E-06,-9.00029E-05,NaN,NaN,1.782458E-07,0.007061499,5.38798E-07,-6.961622E-07,9.059906E-08,0.3671734
131.1283,1.356163E-08,-2.061235E-08,NaN,1.683921E-07,-1.734961E-09,NaN,-1.582583E-06,9.000352E-05,NaN,3.523712E-05,-0.007061408,2.284806E-06,-9.00029E-05,NaN,NaN,1.782458E-07,0.007061499,5.38798E-07,-6.961622E-07,9.059906E-08,0.3671734
131.1467,1.356163E-08,-2.061235E-08,NaN,1.683921E-07,-1.734961E-09,NaN,-1.582583E-06,9.000352E-05,NaN,3.523712E-05,-0.007061408,2.284806E-06,-9.00029E-05,NaN,NaN,1.782458E-07,0.007061499,5.38798E-07,-6.961622E-07,9.059906E-08,0.3671734
131.1654,1.356163E-08,-2.061235E-08,NaN,1.683921E-07,-1.734961E-09,NaN,-1.582583E-06,9.000352E-05,NaN,3.523712E-05,-0.007061408,2.284806E-06,-9.00029E-05,NaN,NaN,1.782458E-07,0.007061499,5.38798E-07,-6.961622E-07,9.059906E-08,0.3671734
131.1841,1.356163E-08,-2.061235E-08,NaN,1.683921E-07,-1.734961E-09,NaN,-1.582583E-06,9.000352E-05,NaN,3.523712E-05,-0.007061408,2.284806E-06,-9.00029E-05,NaN,NaN,1.782458E-07,0.007061499,5.38798E-07,-6.961622E-07,9.059906E-08,0.3671734
131.2024,1.356163E-08,-2.061235E-08,NaN,1.683921E-07,-1.734961E-09,NaN,-1.582583E-06,9.000352E-05,NaN,3.523712E-05,-0.007061408,2.284806E-06,-9.00029E-05,NaN,NaN,1.782458E-07,0.007061499,5.38798E-07,-6.961622E-07,9.059906E-08,0.3671734
131.2211,1.356163E-08,-2.061235E-08,NaN,1.683921E-07,-1.734961E-09,NaN,-1.582583E-06,9.000352E-05,NaN,3.523712E-05,-0.007061408,2.284806E-06,-9.00029E-05,NaN,NaN,1.782458E-07,0.007061499,5.38798E-07,-6.961622E-07,9.059906E-08,0.3671734
131.2395,1.356163E-08,-2.061235E-08,NaN,1.683921E-07,-1.734961E-09,NaN,-1.582583E-06,9.000352E-05,NaN,3.523712E-05,-0.007061408,2.284806E-06,-9.00029E-05,NaN,NaN,1.782458E-07,0.007061499,5.38798E-07,-6.961622E-07,9.059906E-08,0.3671734
131.2576,1.356163E-08,-2.061235E-08,NaN,1.683921E-07,-1.734961E-09,NaN,-1.582583E-06,9.000352E-05,NaN,3.523712E-05,-0.007061408,2.284806E-06,-9.00029E-05,NaN,NaN,1.782458E-07,0.007061499,5.38798E-07,-6.961622E-07,9.059906E-08,0.3671734
131.2766,1.356163E-08,-2.061235E-08,NaN,1.683921E-07,-1.734961E-09,NaN,-1.582583E-06,9.000352E-05,NaN,3.523712E-05,-0.007061408,2.284806E-06,-9.00029E-05,NaN,NaN,1.782458E-07,0.007061499,5.38798E-07,-6.961622E-07,9.059906E-08,0.3671734
131.2951,1.356163E-08,-2.061235E-08,NaN,1.683921E-07,-1.734961E-09,NaN,-1.582583E-06,9.000352E-05,NaN,3.523712E-05,-0.007061408,2.284806E-06,-9.00029E-05,NaN,NaN,1.782458E-07,0.007061499,5.38798E-07,-6.961622E-07,9.059906E-08,0.3671734
131.3136,1.356163E-08,-2.061235E-08,NaN,1.683921E-07,-1.734961E-09,NaN,-1.582583E-06,9.000352E-05,NaN,3.523712E-05,-0.007061408,2.284806E-06,-9.00029E-05,NaN,NaN,1.782458E-07,0.007061499,5.38798E-07,-6.961622E-07,9.059906E-08,0.3671734
131.3322,1.356163E-08,-2.061235E-08,NaN,1.683921E-07,-1.734961E-09,NaN,-1.582583E-06,9.000352E-05,NaN,3.523712E-05,-0.007061408,2.284806E-06,-9.00029E-05,NaN,NaN,1.782458E-07,0.007061499,5.38798E-07,-6.961622E-07,9.059906E-08,0.3671734
131.3504,1.356163E-08,-2.061235E-08,NaN,1.683921E-07,-1.734961E-09,NaN,-1.582583E-06,9.000352E-05,NaN,3.523712E-05,-0.007061408,2.284806E-06,-9.00029E-05,NaN,NaN,1.782458E-07,0.007061499,5.38798E-07,-6.961622E-07,9.059906E-08,0.3671734
131.3691,1.356163E-08,-2.061235E-08,NaN,1.683921E-07,-1.734961E-09,NaN,-1.582583E-06,9.000352E-05,NaN,3.523712E-05,-0.007061408,2.284806E-06,-9.00029E-05,NaN,NaN,1.782458E-07,0.007061499,5.38798E-07,-6.961622E-07,9.059906E-08,0.3671734
131.3865,1.356163E-08,-2.061235E-08,NaN,1.683921E-07,-1.734961E-09,NaN,-1.582583E-06,9.000352E-05,NaN,3.523712E-05,-0.007061408,2.284806E-06,-9.00029E-05,NaN,NaN,1.782458E-07,0.007061499,5.38798E-07,-6.961622E-07,9.059906E-08,0.3671734
131.4059,1.356163E-08,-2.061235E-08,NaN,1.683921E-07,-1.734961E-09,NaN,-1.582583E-06,9.000352E-05,NaN,3.523712E-05,-0.007061408,2.284806E-06,-9.00029E-05,NaN,NaN,1.782458E-07,0.007061499,5.38798E-07,-6.961622E-07,9.059906E-08,0.3671734
131.4241,1.356163E-08,-2.061235E-08,NaN,1.683921E-07,-1.734961E-09,NaN,-1.582583E-06,9.000352E-05,NaN,3.523712E-05,-0.007061408,2.284806E-06,-9.00029E-05,NaN,NaN,1.782458E-07,0.007061499,5.38798E-07,-6.961622E-07,9.059906E-08,0.3671734
131.443,1.356163E-08,-2.061235E-08,NaN,1.683921E-07,-1.734961E-09,NaN,-1.582583E-06,9.000352E-05,NaN,3.523712E-05,-0.007061408,2.284806E-06,-9.00029E-05,NaN,NaN,1.782458E-07,0.007061499,5.38798E-07,-6.961622E-07,9.059906E-08,0.3671734
131.4623,1.356163E-08,-2.061235E-08,NaN,1.683921E-07,-1.734961E-09,NaN,-1.582583E-06,9.000352E-05,NaN,3.523712E-05,-0.007061408,2.284806E-06,-9.00029E-05,NaN,NaN,1.782458E-07,0.007061499,5.38798E-07,-6.961622E-07,9.059906E-08,0.3671734
131.4789,1.356163E-08,-2.061235E-08,NaN,1.683921E-07,-1.734961E-09,NaN,-1.582583E-06,9.000352E-05,NaN,3.523712E-05,-0.007061408,2.284806E-06,-9.00029E-05,NaN,NaN,1.782458E-07,0.007061499,5.38798E-07,-6.961622E-07,9.059906E-08,0.3671734
131.4971,1.356163E-08,-2.061235E-08,NaN,1.683921E-07,-1.734961E-09,NaN,-1.582583E-06,9.000352E-05,NaN,3.523712E-05,-0.007061408,2.284806E-06,-9.00029E-05,NaN,NaN,1.782458E-07,0.007061499,5.38798E-07,-6.961622E-07,9.059906E-08,0.3671734
131.5168,1.356163E-08,-2.061235E-08,NaN,1.683921E-07,-1.734961E-09,NaN,-1.582583E-06,9.000352E-05,NaN,3.523712E-05,-0.007061408,2.284806E-06,-9.00029E-05,NaN,NaN,1.782458E-07,0.007061499,5.38798E-07,-6.961622E-07,9.059906E-08,0.3671734
131.5347,1.356163E-08,-2.061235E-08,NaN,1.683921E-07,-1.734961E-09,NaN,-1.582583E-06,9.000352E-05,NaN,3.523712E-05,-0.007061408,2.284806E-06,-9.00029E-05,NaN,NaN,1.782458E-07,0.007061499,5.38798E-07,-6.961622E-07,9.059906E-08,0.3671734
131.553,1.356163E-08,-2.061235E-08,NaN,1.683921E-07,-1.734961E-09,NaN,-1.582583E-06,9.000352E-05,NaN,3.523712E-05,-0.007061408,2.284806E-06,-9.00029E-05,NaN,NaN,1.782458E-07,0.007061499,5.38798E-07,-6.961622E-07,9.059906E-08,0.3671734
131.5719,1.356163E-08,-2.061235E-08,NaN,1.683921E-07,-1.734961E-09,NaN,-1.582583E-06,9.000352E-05,NaN,3.523712E-05,-0.007061408,2.284806E-06,-9.00029E-05,NaN,NaN,1.782458E-07,0.007061499,5.38798E-07,-6.961622E-07,9.059906E-08,0.3671734
131.5903,1.356163E-08,-2.061235E-08,NaN,1.683921E-07,-1.734961E-09,NaN,-1.582583E-06,9.000352E-05,NaN,3.523712E-05,-0.007061408,2.284806E-06,-9.00029E-05,NaN,NaN,1.782458E-07,0.007061499,5.38798E-07,-6.961622E-07,9.059906E-08,0.3671734
131.6088,1.356163E-08,-2.061235E-08,NaN,1.683921E-07,-1.734961E-09,NaN,-1.582583E-06,9.000352E-05,NaN,3.523712E-05,-0.007061408,2.284806E-06,-9.00029E-05,NaN,NaN,1.782458E-07,0.007061499,5.38798E-07,-6.961622E-07,9.059906E-08,0.3671734
131.6275,1.356163E-08,-2.061235E-08,NaN,1.683921E-07,-1.734961E-09,NaN,-1.582583E-06,9.000352E-05,NaN,3.523712E-05,-0.007061408,2.284806E-06,-9.00029E-05,NaN,NaN,1.782458E-07,0.007061499,5.38798E-07,-6.961622E-07,9.059906E-08,0.3671734
131.6459,1.356163E-08,-2.061235E-08,NaN,1.683921E-07,-1.734961E-09,NaN,-1.582583E-06,9.000352E-05,NaN,3.523712E-05,-0.007061408,2.284806E-06,-9.00029E-05,NaN,NaN,1.782458E-07,0.007061499,5.38798E-07,-6.961622E-07,9.059906E-08,0.3671734
131.6658,1.356163E-08,-2.061235E-08,NaN,1.683921E-07,-1.734961E-09,NaN,-1.582583E-06,9.000352E-05,NaN,3.523712E-05,-0.007061408,2.284806E-06,-9.00029E-05,NaN,NaN,1.782458E-07,0.007061499,5.38798E-07,-6.961622E-07,9.059906E-08,0.3671734
131.6828,1.356163E-08,-2.061235E-08,NaN,1.683921E-07,-1.734961E-09,NaN,-1.582583E-06,9.000352E-05,NaN,3.523712E-05,-0.007061408,2.284806E-06,-9.00029E-05,NaN,NaN,1.782458E-07,0.007061499,5.38798E-07,-6.961622E-07,9.059906E-08,0.3671734
131.7012,1.356163E-08,-2.061235E-08,NaN,1.683921E-07,-1.734961E-09,NaN,-1.582583E-06,9.000352E-05,NaN,3.523712E-05,-0.007061408,2.284806E-06,-9.00029E-05,NaN,NaN,1.782458E-07,0.007061499,5.38798E-07,-6.961622E-07,9.059906E-08,0.3671734
131.7196,1.356163E-08,-2.061235E-08,NaN,1.683921E-07,-1.734961E-09,NaN,-1.582583E-06,9.000352E-05,NaN,3.523712E-05,-0.007061408,2.284806E-06,-9.00029E-05,NaN,NaN,1.782458E-07,0.007061499,5.38798E-07,-6.961622E-07,9.059906E-08,0.3671734
131.7377,1.356163E-08,-2.061235E-08,NaN,1.683921E-07,-1.734961E-09,NaN,-1.582583E-06,9.000352E-05,NaN,3.523712E-05,-0.007061408,2.284806E-06,-9.00029E-05,NaN,NaN,1.782458E-07,0.007061499,5.38798E-07,-6.961622E-07,9.059906E-08,0.3671734
131.7566,1.356163E-08,-2.061235E-08,NaN,1.683921E-07,-1.734961E-09,NaN,-1.582583E-06,9.000352E-05,NaN,3.523712E-05,-0.007061408,2.284806E-06,-9.00029E-05,NaN,NaN,1.782458E-07,0.007061499,5.38798E-07,-6.961622E-07,9.059906E-08,0.3671734
131.7753,1.356163E-08,-2.061235E-08,NaN,1.683921E-07,-1.734961E-09,NaN,-1.582583E-06,9.000352E-05,NaN,3.523712E-05,-0.007061408,2.284806E-06,-9.00029E-05,NaN,NaN,1.782458E-07,0.007061499,5.38798E-07,-6.961622E-07,9.059906E-08,0.3671734
131.794,1.356163E-08,-2.061235E-08,NaN,1.683921E-07,-1.734961E-09,NaN,-1.582583E-06,9.000352E-05,NaN,3.523712E-05,-0.007061408,2.284806E-06,-9.00029E-05,NaN,NaN,1.782458E-07,0.007061499,5.38798E-07,-6.961622E-07,9.059906E-08,0.3671734
131.8123,1.356163E-08,-2.061235E-08,NaN,1.683921E-07,-1.734961E-09,NaN,-1.582583E-06,9.000352E-05,NaN,3.523712E-05,-0.007061408,2.284806E-06,-9.00029E-05,NaN,NaN,1.782458E-07,0.007061499,5.38798E-07,-6.961622E-07,9.059906E-08,0.3671734
131.8309,1.356163E-08,-2.061235E-08,NaN,1.683921E-07,-1.734961E-09,NaN,-1.582583E-06,9.000352E-05,NaN,3.523712E-05,-0.007061408,2.284806E-06,-9.00029E-05,NaN,NaN,1.782458E-07,0.007061499,5.38798E-07,-6.961622E-07,9.059906E-08,0.3671734
131.8493,1.356163E-08,-2.061235E-08,NaN,1.683921E-07,-1.734961E-09,NaN,-1.582583E-06,9.000352E-05,NaN,3.523712E-05,-0.007061408,2.284806E-06,-9.00029E-05,NaN,NaN,1.782458E-07,0.007061499,5.38798E-07,-6.961622E-07,9.059906E-08,0.3671734
131.868,1.356163E-08,-2.061235E-08,NaN,1.683921E-07,-1.734961E-09,NaN,-1.582583E-06,9.000352E-05,NaN,3.523712E-05,-0.007061408,2.284806E-06,-9.00029E-05,NaN,NaN,1.782458E-07,0.007061499,5.38798E-07,-6.961622E-07,9.059906E-08,0.3671734
131.8863,1.356163E-08,-2.061235E-08,NaN,1.683921E-07,-1.734961E-09,NaN,-1.582583E-06,9.000352E-05,NaN,3.523712E-05,-0.007061408,2.284806E-06,-9.00029E-05,NaN,NaN,1.782458E-07,0.007061499,5.38798E-07,-6.961622E-07,9.059906E-08,0.3671734
131.9051,1.356163E-08,-2.061235E-08,NaN,1.683921E-07,-1.734961E-09,NaN,-1.582583E-06,9.000352E-05,NaN,3.523712E-05,-0.007061408,2.284806E-06,-9.00029E-05,NaN,NaN,1.782458E-07,0.007061499,5.38798E-07,-6.961622E-07,9.059906E-08,0.3671734
131.9238,1.356163E-08,-2.061235E-08,NaN,1.683921E-07,-1.734961E-09,NaN,-1.582583E-06,9.000352E-05,NaN,3.523712E-05,-0.007061408,2.284806E-06,-9.00029E-05,NaN,NaN,1.782458E-07,0.007061499,5.38798E-07,-6.961622E-07,9.059906E-08,0.3671734
131.9423,1.356163E-08,-2.061235E-08,NaN,1.683921E-07,-1.734961E-09,NaN,-1.582583E-06,9.000352E-05,NaN,3.523712E-05,-0.007061408,2.284806E-06,-9.00029E-05,NaN,NaN,1.782458E-07,0.007061499,5.38798E-07,-6.961622E-07,9.059906E-08,0.3671734
131.9609,1.356163E-08,-2.061235E-08,NaN,1.683921E-07,-1.734961E-09,NaN,-1.582583E-06,9.000352E-05,NaN,3.523712E-05,-0.007061408,2.284806E-06,-9.00029E-05,NaN,NaN,1.782458E-07,0.007061499,5.38798E-07,-6.961622E-07,9.059906E-08,0.3671734
131.9794,1.356163E-08,-2.061235E-08,NaN,1.683921E-07,-1.734961E-09,NaN,-1.582583E-06,9.000352E-05,NaN,3.523712E-05,-0.007061408,2.284806E-06,-9.00029E-05,NaN,NaN,1.782458E-07,0.007061499,5.38798E-07,-6.961622E-07,9.059906E-08,0.3671734
131.9976,1.356163E-08,-2.061235E-08,NaN,1.683921E-07,-1.734961E-09,NaN,-1.582583E-06,9.000352E-05,NaN,3.523712E-05,-0.007061408,2.284806E-06,-9.00029E-05,NaN,NaN,1.782458E-07,0.007061499,5.38798E-07,-6.961622E-07,9.059906E-08,0.3671734
132.0164,1.356163E-08,-2.061235E-08,NaN,1.683921E-07,-1.734961E-09,NaN,-1.582583E-06,9.000352E-05,NaN,3.523712E-05,-0.007061408,2.284806E-06,-9.00029E-05,NaN,NaN,1.782458E-07,0.007061499,5.38798E-07,-6.961622E-07,9.059906E-08,0.3671734
132.0352,1.356163E-08,-2.061235E-08,NaN,1.683921E-07,-1.734961E-09,NaN,-1.582583E-06,9.000352E-05,NaN,3.523712E-05,-0.007061408,2.284806E-06,-9.00029E-05,NaN,NaN,1.782458E-07,0.007061499,5.38798E-07,-6.961622E-07,9.059906E-08,0.3671734
132.0535,1.356163E-08,-2.061235E-08,NaN,1.683921E-07,-1.734961E-09,NaN,-1.582583E-06,9.000352E-05,NaN,3.523712E-05,-0.007061408,2.284806E-06,-9.00029E-05,NaN,NaN,1.782458E-07,0.007061499,5.38798E-07,-6.961622E-07,9.059906E-08,0.3671734
132.072,1.356163E-08,-2.061235E-08,NaN,1.683921E-07,-1.734961E-09,NaN,-1.582583E-06,9.000352E-05,NaN,3.523712E-05,-0.007061408,2.284806E-06,-9.00029E-05,NaN,NaN,1.782458E-07,0.007061499,5.38798E-07,-6.961622E-07,9.059906E-08,0.3671734
132.0904,1.356163E-08,-2.061235E-08,NaN,1.683921E-07,-1.734961E-09,NaN,-1.582583E-06,9.000352E-05,NaN,3.523712E-05,-0.007061408,2.284806E-06,-9.00029E-05,NaN,NaN,1.782458E-07,0.007061499,5.38798E-07,-6.961622E-07,9.059906E-08,0.3671734
132.1093,1.356163E-08,-2.061235E-08,NaN,1.683921E-07,-1.734961E-09,NaN,-1.582583E-06,9.000352E-05,NaN,3.523712E-05,-0.007061408,2.284806E-06,-9.00029E-05,NaN,NaN,1.782458E-07,0.007061499,5.38798E-07,-6.961622E-07,9.059906E-08,0.3671734
132.1278,1.356163E-08,-2.061235E-08,NaN,1.683921E-07,-1.734961E-09,NaN,-1.582583E-06,9.000352E-05,NaN,3.523712E-05,-0.007061408,2.284806E-06,-9.00029E-05,NaN,NaN,1.782458E-07,0.007061499,5.38798E-07,-6.961622E-07,9.059906E-08,0.3671734
132.1462,1.356163E-08,-2.061235E-08,NaN,1.683921E-07,-1.734961E-09,NaN,-1.582583E-06,9.000352E-05,NaN,3.523712E-05,-0.007061408,2.284806E-06,-9.00029E-05,NaN,NaN,1.782458E-07,0.007061499,5.38798E-07,-6.961622E-07,9.059906E-08,0.3671734
132.1649,1.356163E-08,-2.061235E-08,NaN,1.683921E-07,-1.734961E-09,NaN,-1.582583E-06,9.000352E-05,NaN,3.523712E-05,-0.007061408,2.284806E-06,-9.00029E-05,NaN,NaN,1.782458E-07,0.007061499,5.38798E-07,-6.961622E-07,9.059906E-08,0.3671734
132.1832,1.356163E-08,-2.061235E-08,NaN,1.683921E-07,-1.734961E-09,NaN,-1.582583E-06,9.000352E-05,NaN,3.523712E-05,-0.007061408,2.284806E-06,-9.00029E-05,NaN,NaN,1.782458E-07,0.007061499,5.38798E-07,-6.961622E-07,9.059906E-08,0.3671734
132.2018,1.356163E-08,-2.061235E-08,NaN,1.683921E-07,-1.734961E-09,NaN,-1.582583E-06,9.000352E-05,NaN,3.523712E-05,-0.007061408,2.284806E-06,-9.00029E-05,NaN,NaN,1.782458E-07,0.007061499,5.38798E-07,-6.961622E-07,9.059906E-08,0.3671734
132.2201,1.356163E-08,-2.061235E-08,NaN,1.683921E-07,-1.734961E-09,NaN,-1.582583E-06,9.000352E-05,NaN,3.523712E-05,-0.007061408,2.284806E-06,-9.00029E-05,NaN,NaN,1.782458E-07,0.007061499,5.38798E-07,-6.961622E-07,9.059906E-08,0.3671734
132.2386,1.356163E-08,-2.061235E-08,NaN,1.683921E-07,-1.734961E-09,NaN,-1.582583E-06,9.000352E-05,NaN,3.523712E-05,-0.007061408,2.284806E-06,-9.00029E-05,NaN,NaN,1.782458E-07,0.007061499,5.38798E-07,-6.961622E-07,9.059906E-08,0.3671734
132.2568,1.356163E-08,-2.061235E-08,NaN,1.683921E-07,-1.734961E-09,NaN,-1.582583E-06,9.000352E-05,NaN,3.523712E-05,-0.007061408,2.284806E-06,-9.00029E-05,NaN,NaN,1.782458E-07,0.007061499,5.38798E-07,-6.961622E-07,9.059906E-08,0.3671734
132.2756,1.356163E-08,-2.061235E-08,NaN,1.683921E-07,-1.734961E-09,NaN,-1.582583E-06,9.000352E-05,NaN,3.523712E-05,-0.007061408,2.284806E-06,-9.00029E-05,NaN,NaN,1.782458E-07,0.007061499,5.38798E-07,-6.961622E-07,9.059906E-08,0.3671734
132.2941,1.356163E-08,-2.061235E-08,NaN,1.683921E-07,-1.734961E-09,NaN,-1.582583E-06,9.000352E-05,NaN,3.523712E-05,-0.007061408,2.284806E-06,-9.00029E-05,NaN,NaN,1.782458E-07,0.007061499,5.38798E-07,-6.961622E-07,9.059906E-08,0.3671734
132.3124,1.356163E-08,-2.061235E-08,NaN,1.683921E-07,-1.734961E-09,NaN,-1.582583E-06,9.000352E-05,NaN,3.523712E-05,-0.007061408,2.284806E-06,-9.00029E-05,NaN,NaN,1.782458E-07,0.007061499,5.38798E-07,-6.961622E-07,9.059906E-08,0.3671734
132.3308,1.356163E-08,-2.061235E-08,NaN,1.683921E-07,-1.734961E-09,NaN,-1.582583E-06,9.000352E-05,NaN,3.523712E-05,-0.007061408,2.284806E-06,-9.00029E-05,NaN,NaN,1.782458E-07,0.007061499,5.38798E-07,-6.961622E-07,9.059906E-08,0.3671734
132.349,1.356163E-08,-2.061235E-08,NaN,1.683921E-07,-1.734961E-09,NaN,-1.582583E-06,9.000352E-05,NaN,3.523712E-05,-0.007061408,2.284806E-06,-9.00029E-05,NaN,NaN,1.782458E-07,0.007061499,5.38798E-07,-6.961622E-07,9.059906E-08,0.3671734
132.3677,1.356163E-08,-2.061235E-08,NaN,1.683921E-07,-1.734961E-09,NaN,-1.582583E-06,9.000352E-05,NaN,3.523712E-05,-0.007061408,2.284806E-06,-9.00029E-05,NaN,NaN,1.782458E-07,0.007061499,5.38798E-07,-6.961622E-07,9.059906E-08,0.3671734
132.3859,1.356163E-08,-2.061235E-08,NaN,1.683921E-07,-1.734961E-09,NaN,-1.582583E-06,9.000352E-05,NaN,3.523712E-05,-0.007061408,2.284806E-06,-9.00029E-05,NaN,NaN,1.782458E-07,0.007061499,5.38798E-07,-6.961622E-07,9.059906E-08,0.3671734
132.4045,1.356163E-08,-2.061235E-08,NaN,1.683921E-07,-1.734961E-09,NaN,-1.582583E-06,9.000352E-05,NaN,3.523712E-05,-0.007061408,2.284806E-06,-9.00029E-05,NaN,NaN,1.782458E-07,0.007061499,5.38798E-07,-6.961622E-07,9.059906E-08,0.3671734
132.4228,1.356163E-08,-2.061235E-08,NaN,1.683921E-07,-1.734961E-09,NaN,-1.582583E-06,9.000352E-05,NaN,3.523712E-05,-0.007061408,2.284806E-06,-9.00029E-05,NaN,NaN,1.782458E-07,0.007061499,5.38798E-07,-6.961622E-07,9.059906E-08,0.3671734
132.4417,1.356163E-08,-2.061235E-08,NaN,1.683921E-07,-1.734961E-09,NaN,-1.582583E-06,9.000352E-05,NaN,3.523712E-05,-0.007061408,2.284806E-06,-9.00029E-05,NaN,NaN,1.782458E-07,0.007061499,5.38798E-07,-6.961622E-07,9.059906E-08,0.3671734
132.4602,1.356163E-08,-2.061235E-08,NaN,1.683921E-07,-1.734961E-09,NaN,-1.582583E-06,9.000352E-05,NaN,3.523712E-05,-0.007061408,2.284806E-06,-9.00029E-05,NaN,NaN,1.782458E-07,0.007061499,5.38798E-07,-6.961622E-07,9.059906E-08,0.3671734
132.4785,1.356163E-08,-2.061235E-08,NaN,1.683921E-07,-1.734961E-09,NaN,-1.582583E-06,9.000352E-05,NaN,3.523712E-05,-0.007061408,2.284806E-06,-9.00029E-05,NaN,NaN,1.782458E-07,0.007061499,5.38798E-07,-6.961622E-07,9.059906E-08,0.3671734
132.4965,1.356163E-08,-2.061235E-08,NaN,1.683921E-07,-1.734961E-09,NaN,-1.582583E-06,9.000352E-05,NaN,3.523712E-05,-0.007061408,2.284806E-06,-9.00029E-05,NaN,NaN,1.782458E-07,0.007061499,5.38798E-07,-6.961622E-07,9.059906E-08,0.3671734
132.5157,1.356163E-08,-2.061235E-08,NaN,1.683921E-07,-1.734961E-09,NaN,-1.582583E-06,9.000352E-05,NaN,3.523712E-05,-0.007061408,2.284806E-06,-9.00029E-05,NaN,NaN,1.782458E-07,0.007061499,5.38798E-07,-6.961622E-07,9.059906E-08,0.3671734
132.534,1.356163E-08,-2.061235E-08,NaN,1.683921E-07,-1.734961E-09,NaN,-1.582583E-06,9.000352E-05,NaN,3.523712E-05,-0.007061408,2.284806E-06,-9.00029E-05,NaN,NaN,1.782458E-07,0.007061499,5.38798E-07,-6.961622E-07,9.059906E-08,0.3671734
132.552,1.356163E-08,-2.061235E-08,NaN,1.683921E-07,-1.734961E-09,NaN,-1.582583E-06,9.000352E-05,NaN,3.523712E-05,-0.007061408,2.284806E-06,-9.00029E-05,NaN,NaN,1.782458E-07,0.007061499,5.38798E-07,-6.961622E-07,9.059906E-08,0.3671734
132.5708,1.356163E-08,-2.061235E-08,NaN,1.683921E-07,-1.734961E-09,NaN,-1.582583E-06,9.000352E-05,NaN,3.523712E-05,-0.007061408,2.284806E-06,-9.00029E-05,NaN,NaN,1.782458E-07,0.007061499,5.38798E-07,-6.961622E-07,9.059906E-08,0.3671734
132.5893,1.356163E-08,-2.061235E-08,NaN,1.683921E-07,-1.734961E-09,NaN,-1.582583E-06,9.000352E-05,NaN,3.523712E-05,-0.007061408,2.284806E-06,-9.00029E-05,NaN,NaN,1.782458E-07,0.007061499,5.38798E-07,-6.961622E-07,9.059906E-08,0.3671734
132.6075,1.356163E-08,-2.061235E-08,NaN,1.683921E-07,-1.734961E-09,NaN,-1.582583E-06,9.000352E-05,NaN,3.523712E-05,-0.007061408,2.284806E-06,-9.00029E-05,NaN,NaN,1.782458E-07,0.007061499,5.38798E-07,-6.961622E-07,9.059906E-08,0.3671734
132.6262,1.356163E-08,-2.061235E-08,NaN,1.683921E-07,-1.734961E-09,NaN,-1.582583E-06,9.000352E-05,NaN,3.523712E-05,-0.007061408,2.284806E-06,-9.00029E-05,NaN,NaN,1.782458E-07,0.007061499,5.38798E-07,-6.961622E-07,9.059906E-08,0.3671734
132.646,1.356163E-08,-2.061235E-08,NaN,1.683921E-07,-1.734961E-09,NaN,-1.582583E-06,9.000352E-05,NaN,3.523712E-05,-0.007061408,2.284806E-06,-9.00029E-05,NaN,NaN,1.782458E-07,0.007061499,5.38798E-07,-6.961622E-07,9.059906E-08,0.3671734
132.6629,1.356163E-08,-2.061235E-08,NaN,1.683921E-07,-1.734961E-09,NaN,-1.582583E-06,9.000352E-05,NaN,3.523712E-05,-0.007061408,2.284806E-06,-9.00029E-05,NaN,NaN,1.782458E-07,0.007061499,5.38798E-07,-6.961622E-07,9.059906E-08,0.3671734
132.6813,1.356163E-08,-2.061235E-08,NaN,1.683921E-07,-1.734961E-09,NaN,-1.582583E-06,9.000352E-05,NaN,3.523712E-05,-0.007061408,2.284806E-06,-9.00029E-05,NaN,NaN,1.782458E-07,0.007061499,5.38798E-07,-6.961622E-07,9.059906E-08,0.3671734
132.7,1.356163E-08,-2.061235E-08,NaN,1.683921E-07,-1.734961E-09,NaN,-1.582583E-06,9.000352E-05,NaN,3.523712E-05,-0.007061408,2.284806E-06,-9.00029E-05,NaN,NaN,1.782458E-07,0.007061499,5.38798E-07,-6.961622E-07,9.059906E-08,0.3671734
132.7177,1.356163E-08,-2.061235E-08,NaN,1.683921E-07,-1.734961E-09,NaN,-1.582583E-06,9.000352E-05,NaN,3.523712E-05,-0.007061408,2.284806E-06,-9.00029E-05,NaN,NaN,1.782458E-07,0.007061499,5.38798E-07,-6.961622E-07,9.059906E-08,0.3671734
132.7367,1.356163E-08,-2.061235E-08,NaN,1.683921E-07,-1.734961E-09,NaN,-1.582583E-06,9.000352E-05,NaN,3.523712E-05,-0.007061408,2.284806E-06,-9.00029E-05,NaN,NaN,1.782458E-07,0.007061499,5.38798E-07,-6.961622E-07,9.059906E-08,0.3671734
132.7555,1.356163E-08,-2.061235E-08,NaN,1.683921E-07,-1.734961E-09,NaN,-1.582583E-06,9.000352E-05,NaN,3.523712E-05,-0.007061408,2.284806E-06,-9.00029E-05,NaN,NaN,1.782458E-07,0.007061499,5.38798E-07,-6.961622E-07,9.059906E-08,0.3671734
132.7737,1.356163E-08,-2.061235E-08,NaN,1.683921E-07,-1.734961E-09,NaN,-1.582583E-06,9.000352E-05,NaN,3.523712E-05,-0.007061408,2.284806E-06,-9.00029E-05,NaN,NaN,1.782458E-07,0.007061499,5.38798E-07,-6.961622E-07,9.059906E-08,0.3671734
132.7921,1.356163E-08,-2.061235E-08,NaN,1.683921E-07,-1.734961E-09,NaN,-1.582583E-06,9.000352E-05,NaN,3.523712E-05,-0.007061408,2.284806E-06,-9.00029E-05,NaN,NaN,1.782458E-07,0.007061499,5.38798E-07,-6.961622E-07,9.059906E-08,0.3671734
132.8106,1.356163E-08,-2.061235E-08,NaN,1.683921E-07,-1.734961E-09,NaN,-1.582583E-06,9.000352E-05,NaN,3.523712E-05,-0.007061408,2.284806E-06,-9.00029E-05,NaN,NaN,1.782458E-07,0.007061499,5.38798E-07,-6.961622E-07,9.059906E-08,0.3671734
132.8289,1.356163E-08,-2.061235E-08,NaN,1.683921E-07,-1.734961E-09,NaN,-1.582583E-06,9.000352E-05,NaN,3.523712E-05,-0.007061408,2.284806E-06,-9.00029E-05,NaN,NaN,1.782458E-07,0.007061499,5.38798E-07,-6.961622E-07,9.059906E-08,0.3671734
132.8473,1.356163E-08,-2.061235E-08,NaN,1.683921E-07,-1.734961E-09,NaN,-1.582583E-06,9.000352E-05,NaN,3.523712E-05,-0.007061408,2.284806E-06,-9.00029E-05,NaN,NaN,1.782458E-07,0.007061499,5.38798E-07,-6.961622E-07,9.059906E-08,0.3671734
132.8657,1.356163E-08,-2.061235E-08,NaN,1.683921E-07,-1.734961E-09,NaN,-1.582583E-06,9.000352E-05,NaN,3.523712E-05,-0.007061408,2.284806E-06,-9.00029E-05,NaN,NaN,1.782458E-07,0.007061499,5.38798E-07,-6.961622E-07,9.059906E-08,0.3671734
132.8842,1.356163E-08,-2.061235E-08,NaN,1.683921E-07,-1.734961E-09,NaN,-1.582583E-06,9.000352E-05,NaN,3.523712E-05,-0.007061408,2.284806E-06,-9.00029E-05,NaN,NaN,1.782458E-07,0.007061499,5.38798E-07,-6.961622E-07,9.059906E-08,0.3671734
132.9024,1.356163E-08,-2.061235E-08,NaN,1.683921E-07,-1.734961E-09,NaN,-1.582583E-06,9.000352E-05,NaN,3.523712E-05,-0.007061408,2.284806E-06,-9.00029E-05,NaN,NaN,1.782458E-07,0.007061499,5.38798E-07,-6.961622E-07,9.059906E-08,0.3671734
132.9207,1.356163E-08,-2.061235E-08,NaN,1.683921E-07,-1.734961E-09,NaN,-1.582583E-06,9.000352E-05,NaN,3.523712E-05,-0.007061408,2.284806E-06,-9.00029E-05,NaN,NaN,1.782458E-07,0.007061499,5.38798E-07,-6.961622E-07,9.059906E-08,0.3671734
132.9392,1.356163E-08,-2.061235E-08,NaN,1.683921E-07,-1.734961E-09,NaN,-1.582583E-06,9.000352E-05,NaN,3.523712E-05,-0.007061408,2.284806E-06,-9.00029E-05,NaN,NaN,1.782458E-07,0.007061499,5.38798E-07,-6.961622E-07,9.059906E-08,0.3671734
132.9575,1.356163E-08,-2.061235E-08,NaN,1.683921E-07,-1.734961E-09,NaN,-1.582583E-06,9.000352E-05,NaN,3.523712E-05,-0.007061408,2.284806E-06,-9.00029E-05,NaN,NaN,1.782458E-07,0.007061499,5.38798E-07,-6.961622E-07,9.059906E-08,0.3671734
132.976,1.356163E-08,-2.061235E-08,NaN,1.683921E-07,-1.734961E-09,NaN,-1.582583E-06,9.000352E-05,NaN,3.523712E-05,-0.007061408,2.284806E-06,-9.00029E-05,NaN,NaN,1.782458E-07,0.007061499,5.38798E-07,-6.961622E-07,9.059906E-08,0.3671734
132.9945,1.356163E-08,-2.061235E-08,NaN,1.683921E-07,-1.734961E-09,NaN,-1.582583E-06,9.000352E-05,NaN,3.523712E-05,-0.007061408,2.284806E-06,-9.00029E-05,NaN,NaN,1.782458E-07,0.007061499,5.38798E-07,-6.961622E-07,9.059906E-08,0.3671734
133.0127,1.356163E-08,-2.061235E-08,NaN,1.683921E-07,-1.734961E-09,NaN,-1.582583E-06,9.000352E-05,NaN,3.523712E-05,-0.007061408,2.284806E-06,-9.00029E-05,NaN,NaN,1.782458E-07,0.007061499,5.38798E-07,-6.961622E-07,9.059906E-08,0.3671734
133.0311,1.356163E-08,-2.061235E-08,NaN,1.683921E-07,-1.734961E-09,NaN,-1.582583E-06,9.000352E-05,NaN,3.523712E-05,-0.007061408,2.284806E-06,-9.00029E-05,NaN,NaN,1.782458E-07,0.007061499,5.38798E-07,-6.961622E-07,9.059906E-08,0.3671734
133.0493,1.356163E-08,-2.061235E-08,NaN,1.683921E-07,-1.734961E-09,NaN,-1.582583E-06,9.000352E-05,NaN,3.523712E-05,-0.007061408,2.284806E-06,-9.00029E-05,NaN,NaN,1.782458E-07,0.007061499,5.38798E-07,-6.961622E-07,9.059906E-08,0.3671734
133.0677,1.356163E-08,-2.061235E-08,NaN,1.683921E-07,-1.734961E-09,NaN,-1.582583E-06,9.000352E-05,NaN,3.523712E-05,-0.007061408,2.284806E-06,-9.00029E-05,NaN,NaN,1.782458E-07,0.007061499,5.38798E-07,-6.961622E-07,9.059906E-08,0.3671734
133.0863,1.356163E-08,-2.061235E-08,NaN,1.683921E-07,-1.734961E-09,NaN,-1.582583E-06,9.000352E-05,NaN,3.523712E-05,-0.007061408,2.284806E-06,-9.00029E-05,NaN,NaN,1.782458E-07,0.007061499,5.38798E-07,-6.961622E-07,9.059906E-08,0.3671734
133.1046,1.356163E-08,-2.061235E-08,NaN,1.683921E-07,-1.734961E-09,NaN,-1.582583E-06,9.000352E-05,NaN,3.523712E-05,-0.007061408,2.284806E-06,-9.00029E-05,NaN,NaN,1.782458E-07,0.007061499,5.38798E-07,-6.961622E-07,9.059906E-08,0.3671734
133.1228,1.356163E-08,-2.061235E-08,NaN,1.683921E-07,-1.734961E-09,NaN,-1.582583E-06,9.000352E-05,NaN,3.523712E-05,-0.007061408,2.284806E-06,-9.00029E-05,NaN,NaN,1.782458E-07,0.007061499,5.38798E-07,-6.961622E-07,9.059906E-08,0.3671734
133.1414,1.356163E-08,-2.061235E-08,NaN,1.683921E-07,-1.734961E-09,NaN,-1.582583E-06,9.000352E-05,NaN,3.523712E-05,-0.007061408,2.284806E-06,-9.00029E-05,NaN,NaN,1.782458E-07,0.007061499,5.38798E-07,-6.961622E-07,9.059906E-08,0.3671734
133.1599,1.356163E-08,-2.061235E-08,NaN,1.683921E-07,-1.734961E-09,NaN,-1.582583E-06,9.000352E-05,NaN,3.523712E-05,-0.007061408,2.284806E-06,-9.00029E-05,NaN,NaN,1.782458E-07,0.007061499,5.38798E-07,-6.961622E-07,9.059906E-08,0.3671734
133.1778,1.356163E-08,-2.061235E-08,NaN,1.683921E-07,-1.734961E-09,NaN,-1.582583E-06,9.000352E-05,NaN,3.523712E-05,-0.007061408,2.284806E-06,-9.00029E-05,NaN,NaN,1.782458E-07,0.007061499,5.38798E-07,-6.961622E-07,9.059906E-08,0.3671734
133.1965,1.356163E-08,-2.061235E-08,NaN,1.683921E-07,-1.734961E-09,NaN,-1.582583E-06,9.000352E-05,NaN,3.523712E-05,-0.007061408,2.284806E-06,-9.00029E-05,NaN,NaN,1.782458E-07,0.007061499,5.38798E-07,-6.961622E-07,9.059906E-08,0.3671734
133.2149,1.356163E-08,-2.061235E-08,NaN,1.683921E-07,-1.734961E-09,NaN,-1.582583E-06,9.000352E-05,NaN,3.523712E-05,-0.007061408,2.284806E-06,-9.00029E-05,NaN,NaN,1.782458E-07,0.007061499,5.38798E-07,-6.961622E-07,9.059906E-08,0.3671734
133.2333,1.356163E-08,-2.061235E-08,NaN,1.683921E-07,-1.734961E-09,NaN,-1.582583E-06,9.000352E-05,NaN,3.523712E-05,-0.007061408,2.284806E-06,-9.00029E-05,NaN,NaN,1.782458E-07,0.007061499,5.38798E-07,-6.961622E-07,9.059906E-08,0.3671734
133.2518,1.356163E-08,-2.061235E-08,NaN,1.683921E-07,-1.734961E-09,NaN,-1.582583E-06,9.000352E-05,NaN,3.523712E-05,-0.007061408,2.284806E-06,-9.00029E-05,NaN,NaN,1.782458E-07,0.007061499,5.38798E-07,-6.961622E-07,9.059906E-08,0.3671734
133.2704,1.356163E-08,-2.061235E-08,NaN,1.683921E-07,-1.734961E-09,NaN,-1.582583E-06,9.000352E-05,NaN,3.523712E-05,-0.007061408,2.284806E-06,-9.00029E-05,NaN,NaN,1.782458E-07,0.007061499,5.38798E-07,-6.961622E-07,9.059906E-08,0.3671734
133.2888,1.356163E-08,-2.061235E-08,NaN,1.683921E-07,-1.734961E-09,NaN,-1.582583E-06,9.000352E-05,NaN,3.523712E-05,-0.007061408,2.284806E-06,-9.00029E-05,NaN,NaN,1.782458E-07,0.007061499,5.38798E-07,-6.961622E-07,9.059906E-08,0.3671734
133.3076,1.356163E-08,-2.061235E-08,NaN,1.683921E-07,-1.734961E-09,NaN,-1.582583E-06,9.000352E-05,NaN,3.523712E-05,-0.007061408,2.284806E-06,-9.00029E-05,NaN,NaN,1.782458E-07,0.007061499,5.38798E-07,-6.961622E-07,9.059906E-08,0.3671734
133.3262,1.356163E-08,-2.061235E-08,NaN,1.683921E-07,-1.734961E-09,NaN,-1.582583E-06,9.000352E-05,NaN,3.523712E-05,-0.007061408,2.284806E-06,-9.00029E-05,NaN,NaN,1.782458E-07,0.007061499,5.38798E-07,-6.961622E-07,9.059906E-08,0.3671734
133.3444,1.356163E-08,-2.061235E-08,NaN,1.683921E-07,-1.734961E-09,NaN,-1.582583E-06,9.000352E-05,NaN,3.523712E-05,-0.007061408,2.284806E-06,-9.00029E-05,NaN,NaN,1.782458E-07,0.007061499,5.38798E-07,-6.961622E-07,9.059906E-08,0.3671734
133.363,1.356163E-08,-2.061235E-08,NaN,1.683921E-07,-1.734961E-09,NaN,-1.582583E-06,9.000352E-05,NaN,3.523712E-05,-0.007061408,2.284806E-06,-9.00029E-05,NaN,NaN,1.782458E-07,0.007061499,5.38798E-07,-6.961622E-07,9.059906E-08,0.3671734
133.3817,1.356163E-08,-2.061235E-08,NaN,1.683921E-07,-1.734961E-09,NaN,-1.582583E-06,9.000352E-05,NaN,3.523712E-05,-0.007061408,2.284806E-06,-9.00029E-05,NaN,NaN,1.782458E-07,0.007061499,5.38798E-07,-6.961622E-07,9.059906E-08,0.3671734
133.3999,1.356163E-08,-2.061235E-08,NaN,1.683921E-07,-1.734961E-09,NaN,-1.582583E-06,9.000352E-05,NaN,3.523712E-05,-0.007061408,2.284806E-06,-9.00029E-05,NaN,NaN,1.782458E-07,0.007061499,5.38798E-07,-6.961622E-07,9.059906E-08,0.3671734
133.418,1.356163E-08,-2.061235E-08,NaN,1.683921E-07,-1.734961E-09,NaN,-1.582583E-06,9.000352E-05,NaN,3.523712E-05,-0.007061408,2.284806E-06,-9.00029E-05,NaN,NaN,1.782458E-07,0.007061499,5.38798E-07,-6.961622E-07,9.059906E-08,0.3671734
133.437,1.356163E-08,-2.061235E-08,NaN,1.683921E-07,-1.734961E-09,NaN,-1.582583E-06,9.000352E-05,NaN,3.523712E-05,-0.007061408,2.284806E-06,-9.00029E-05,NaN,NaN,1.782458E-07,0.007061499,5.38798E-07,-6.961622E-07,9.059906E-08,0.3671734
133.4554,1.356163E-08,-2.061235E-08,NaN,1.683921E-07,-1.734961E-09,NaN,-1.582583E-06,9.000352E-05,NaN,3.523712E-05,-0.007061408,2.284806E-06,-9.00029E-05,NaN,NaN,1.782458E-07,0.007061499,5.38798E-07,-6.961622E-07,9.059906E-08,0.3671734
133.4755,1.356163E-08,-2.061235E-08,NaN,1.683921E-07,-1.734961E-09,NaN,-1.582583E-06,9.000352E-05,NaN,3.523712E-05,-0.007061408,2.284806E-06,-9.00029E-05,NaN,NaN,1.782458E-07,0.007061499,5.38798E-07,-6.961622E-07,9.059906E-08,0.3671734
133.4939,1.356163E-08,-2.061235E-08,NaN,1.683921E-07,-1.734961E-09,NaN,-1.582583E-06,9.000352E-05,NaN,3.523712E-05,-0.007061408,2.284806E-06,-9.00029E-05,NaN,NaN,1.782458E-07,0.007061499,5.38798E-07,-6.961622E-07,9.059906E-08,0.3671734
133.5106,1.356163E-08,-2.061235E-08,NaN,1.683921E-07,-1.734961E-09,NaN,-1.582583E-06,9.000352E-05,NaN,3.523712E-05,-0.007061408,2.284806E-06,-9.00029E-05,NaN,NaN,1.782458E-07,0.007061499,5.38798E-07,-6.961622E-07,9.059906E-08,0.3671734
133.5293,1.356163E-08,-2.061235E-08,NaN,1.683921E-07,-1.734961E-09,NaN,-1.582583E-06,9.000352E-05,NaN,3.523712E-05,-0.007061408,2.284806E-06,-9.00029E-05,NaN,NaN,1.782458E-07,0.007061499,5.38798E-07,-6.961622E-07,9.059906E-08,0.3671734
133.5481,1.356163E-08,-2.061235E-08,NaN,1.683921E-07,-1.734961E-09,NaN,-1.582583E-06,9.000352E-05,NaN,3.523712E-05,-0.007061408,2.284806E-06,-9.00029E-05,NaN,NaN,1.782458E-07,0.007061499,5.38798E-07,-6.961622E-07,9.059906E-08,0.3671734
133.5666,1.356163E-08,-2.061235E-08,NaN,1.683921E-07,-1.734961E-09,NaN,-1.582583E-06,9.000352E-05,NaN,3.523712E-05,-0.007061408,2.284806E-06,-9.00029E-05,NaN,NaN,1.782458E-07,0.007061499,5.38798E-07,-6.961622E-07,9.059906E-08,0.3671734
133.5848,1.356163E-08,-2.061235E-08,NaN,1.683921E-07,-1.734961E-09,NaN,-1.582583E-06,9.000352E-05,NaN,3.523712E-05,-0.007061408,2.284806E-06,-9.00029E-05,NaN,NaN,1.782458E-07,0.007061499,5.38798E-07,-6.961622E-07,9.059906E-08,0.3671734
133.6032,1.356163E-08,-2.061235E-08,NaN,1.683921E-07,-1.734961E-09,NaN,-1.582583E-06,9.000352E-05,NaN,3.523712E-05,-0.007061408,2.284806E-06,-9.00029E-05,NaN,NaN,1.782458E-07,0.007061499,5.38798E-07,-6.961622E-07,9.059906E-08,0.3671734
133.623,1.356163E-08,-2.061235E-08,NaN,1.683921E-07,-1.734961E-09,NaN,-1.582583E-06,9.000352E-05,NaN,3.523712E-05,-0.007061408,2.284806E-06,-9.00029E-05,NaN,NaN,1.782458E-07,0.007061499,5.38798E-07,-6.961622E-07,9.059906E-08,0.3671734
133.64,1.356163E-08,-2.061235E-08,NaN,1.683921E-07,-1.734961E-09,NaN,-1.582583E-06,9.000352E-05,NaN,3.523712E-05,-0.007061408,2.284806E-06,-9.00029E-05,NaN,NaN,1.782458E-07,0.007061499,5.38798E-07,-6.961622E-07,9.059906E-08,0.3671734
133.6585,1.356163E-08,-2.061235E-08,NaN,1.683921E-07,-1.734961E-09,NaN,-1.582583E-06,9.000352E-05,NaN,3.523712E-05,-0.007061408,2.284806E-06,-9.00029E-05,NaN,NaN,1.782458E-07,0.007061499,5.38798E-07,-6.961622E-07,9.059906E-08,0.3671734
133.6767,1.356163E-08,-2.061235E-08,NaN,1.683921E-07,-1.734961E-09,NaN,-1.582583E-06,9.000352E-05,NaN,3.523712E-05,-0.007061408,2.284806E-06,-9.00029E-05,NaN,NaN,1.782458E-07,0.007061499,5.38798E-07,-6.961622E-07,9.059906E-08,0.3671734
133.6954,1.356163E-08,-2.061235E-08,NaN,1.683921E-07,-1.734961E-09,NaN,-1.582583E-06,9.000352E-05,NaN,3.523712E-05,-0.007061408,2.284806E-06,-9.00029E-05,NaN,NaN,1.782458E-07,0.007061499,5.38798E-07,-6.961622E-07,9.059906E-08,0.3671734
133.7135,1.356163E-08,-2.061235E-08,NaN,1.683921E-07,-1.734961E-09,NaN,-1.582583E-06,9.000352E-05,NaN,3.523712E-05,-0.007061408,2.284806E-06,-9.00029E-05,NaN,NaN,1.782458E-07,0.007061499,5.38798E-07,-6.961622E-07,9.059906E-08,0.3671734
133.7321,1.356163E-08,-2.061235E-08,NaN,1.683921E-07,-1.734961E-09,NaN,-1.582583E-06,9.000352E-05,NaN,3.523712E-05,-0.007061408,2.284806E-06,-9.00029E-05,NaN,NaN,1.782458E-07,0.007061499,5.38798E-07,-6.961622E-07,9.059906E-08,0.3671734
133.7503,1.356163E-08,-2.061235E-08,NaN,1.683921E-07,-1.734961E-09,NaN,-1.582583E-06,9.000352E-05,NaN,3.523712E-05,-0.007061408,2.284806E-06,-9.00029E-05,NaN,NaN,1.782458E-07,0.007061499,5.38798E-07,-6.961622E-07,9.059906E-08,0.3671734
133.7688,1.356163E-08,-2.061235E-08,NaN,1.683921E-07,-1.734961E-09,NaN,-1.582583E-06,9.000352E-05,NaN,3.523712E-05,-0.007061408,2.284806E-06,-9.00029E-05,NaN,NaN,1.782458E-07,0.007061499,5.38798E-07,-6.961622E-07,9.059906E-08,0.3671734
133.7873,1.356163E-08,-2.061235E-08,NaN,1.683921E-07,-1.734961E-09,NaN,-1.582583E-06,9.000352E-05,NaN,3.523712E-05,-0.007061408,2.284806E-06,-9.00029E-05,NaN,NaN,1.782458E-07,0.007061499,5.38798E-07,-6.961622E-07,9.059906E-08,0.3671734
133.8058,1.356163E-08,-2.061235E-08,NaN,1.683921E-07,-1.734961E-09,NaN,-1.582583E-06,9.000352E-05,NaN,3.523712E-05,-0.007061408,2.284806E-06,-9.00029E-05,NaN,NaN,1.782458E-07,0.007061499,5.38798E-07,-6.961622E-07,9.059906E-08,0.3671734
133.8242,1.356163E-08,-2.061235E-08,NaN,1.683921E-07,-1.734961E-09,NaN,-1.582583E-06,9.000352E-05,NaN,3.523712E-05,-0.007061408,2.284806E-06,-9.00029E-05,NaN,NaN,1.782458E-07,0.007061499,5.38798E-07,-6.961622E-07,9.059906E-08,0.3671734
133.8428,1.356163E-08,-2.061235E-08,NaN,1.683921E-07,-1.734961E-09,NaN,-1.582583E-06,9.000352E-05,NaN,3.523712E-05,-0.007061408,2.284806E-06,-9.00029E-05,NaN,NaN,1.782458E-07,0.007061499,5.38798E-07,-6.961622E-07,9.059906E-08,0.3671734
133.8611,1.356163E-08,-2.061235E-08,NaN,1.683921E-07,-1.734961E-09,NaN,-1.582583E-06,9.000352E-05,NaN,3.523712E-05,-0.007061408,2.284806E-06,-9.00029E-05,NaN,NaN,1.782458E-07,0.007061499,5.38798E-07,-6.961622E-07,9.059906E-08,0.3671734
133.8795,1.356163E-08,-2.061235E-08,NaN,1.683921E-07,-1.734961E-09,NaN,-1.582583E-06,9.000352E-05,NaN,3.523712E-05,-0.007061408,2.284806E-06,-9.00029E-05,NaN,NaN,1.782458E-07,0.007061499,5.38798E-07,-6.961622E-07,9.059906E-08,0.3671734
133.8977,1.356163E-08,-2.061235E-08,NaN,1.683921E-07,-1.734961E-09,NaN,-1.582583E-06,9.000352E-05,NaN,3.523712E-05,-0.007061408,2.284806E-06,-9.00029E-05,NaN,NaN,1.782458E-07,0.007061499,5.38798E-07,-6.961622E-07,9.059906E-08,0.3671734
133.9167,1.356163E-08,-2.061235E-08,NaN,1.683921E-07,-1.734961E-09,NaN,-1.582583E-06,9.000352E-05,NaN,3.523712E-05,-0.007061408,2.284806E-06,-9.00029E-05,NaN,NaN,1.782458E-07,0.007061499,5.38798E-07,-6.961622E-07,9.059906E-08,0.3671734
133.9351,1.356163E-08,-2.061235E-08,NaN,1.683921E-07,-1.734961E-09,NaN,-1.582583E-06,9.000352E-05,NaN,3.523712E-05,-0.007061408,2.284806E-06,-9.00029E-05,NaN,NaN,1.782458E-07,0.007061499,5.38798E-07,-6.961622E-07,9.059906E-08,0.3671734
