JMolnar6/NonAnthroHands_User_Study/HandsLoggerWithURDF/tempdata/files/Reachy_PID0_JointMotion_gesture_10_2.csv
Time,r_shoulder,r_shoulder_x,r_upper_arm,r_forearm,r_wrist,r_wrist2hand,
625.8038,-0.03957989,-0.5819902,-0.2981008,-0.8711157,0.4731108,-0.484905
625.8184,-0.03957989,-0.5819902,-0.2981008,-0.8711157,0.4731108,-0.484905
625.8327,-0.03799401,-0.5819486,-0.2981474,-0.8704807,0.4735618,-0.484885
625.8476,-0.03642717,-0.5819076,-0.2981883,-0.8698525,0.474005,-0.4848655
625.8623,-0.03487916,-0.5818672,-0.2982237,-0.8692312,0.4744405,-0.4848463
625.8771,-0.03487916,-0.5818672,-0.2982237,-0.8692312,0.4744405,-0.4848463
625.8912,-0.03334973,-0.5818272,-0.2982538,-0.8686166,0.4748686,-0.4848275
625.9066,-0.03183867,-0.5817879,-0.2982787,-0.8680087,0.4752893,-0.4848092
625.9219,-0.03034575,-0.5817491,-0.2982986,-0.8674075,0.4757027,-0.4847911
625.9363,-0.03034575,-0.5817491,-0.2982986,-0.8674075,0.4757027,-0.4847911
625.9504,-0.02887077,-0.5817108,-0.2983135,-0.8668129,0.4761091,-0.4847735
625.9659,-0.0274135,-0.5816731,-0.2983236,-0.8662248,0.4765084,-0.4847561
625.9807,-0.02597373,-0.5816358,-0.2983289,-0.8656431,0.4769009,-0.4847392
625.9954,-0.02597373,-0.5816358,-0.2983289,-0.8656431,0.4769009,-0.4847392
626.0117,-0.02455125,-0.5815991,-0.2983297,-0.8650678,0.4772866,-0.4847225
626.0261,-0.02314586,-0.5815629,-0.298326,-0.8644989,0.4776657,-0.4847062
626.0398,-0.02314586,-0.5815629,-0.298326,-0.8644989,0.4776657,-0.4847062
626.0538,-0.02175734,-0.5815272,-0.298318,-0.8639362,0.4780383,-0.4846902
626.0691,-0.02038549,-0.5814919,-0.2983057,-0.8633798,0.4784045,-0.4846746
626.0841,-0.01903012,-0.5814572,-0.2982894,-0.8628294,0.4787644,-0.4846593
626.0984,-0.01903012,-0.5814572,-0.2982894,-0.8628294,0.4787644,-0.4846593
626.1127,-0.01769103,-0.5814229,-0.298269,-0.8622852,0.479118,-0.4846442
626.1282,-0.01636801,-0.5813891,-0.2982447,-0.861747,0.4794657,-0.4846295
626.1431,-0.01506089,-0.5813558,-0.2982166,-0.8612147,0.4798073,-0.4846151
626.1579,-0.01506089,-0.5813558,-0.2982166,-0.8612147,0.4798073,-0.4846151
626.172,-0.01376946,-0.5813229,-0.2981848,-0.8606883,0.4801431,-0.4846009
626.1873,-0.01249354,-0.5812905,-0.2981494,-0.8601678,0.4804731,-0.4845871
626.2022,-0.01123294,-0.5812585,-0.2981105,-0.8596531,0.4807975,-0.4845735
626.2171,-0.01123294,-0.5812585,-0.2981105,-0.8596531,0.4807975,-0.4845735
626.2311,-0.009987473,-0.5812269,-0.2980682,-0.8591442,0.4811163,-0.4845602
626.2465,-0.008756966,-0.5811958,-0.2980226,-0.8586408,0.4814296,-0.4845471
626.2622,-0.007541235,-0.5811651,-0.2979738,-0.8581432,0.4817376,-0.4845343
626.2761,-0.007541235,-0.5811651,-0.2979738,-0.8581432,0.4817376,-0.4845343
626.2916,-0.006340101,-0.5811349,-0.2979218,-0.857651,0.4820402,-0.4845218
626.3054,-0.005153391,-0.581105,-0.2978669,-0.8571643,0.4823377,-0.4845095
626.32,-0.00398093,-0.5810755,-0.2978089,-0.8566831,0.48263,-0.4844975
626.3347,-0.00398093,-0.5810755,-0.2978089,-0.8566831,0.48263,-0.4844975
626.3485,-0.002822548,-0.5810465,-0.2977481,-0.8562073,0.4829174,-0.4844857
626.3639,-0.001678076,-0.5810179,-0.2976846,-0.8557369,0.4831998,-0.4844742
626.3787,-0.001678076,-0.5810179,-0.2976846,-0.8557369,0.4831998,-0.4844742
626.3928,-0.0005473451,-0.5809897,-0.2976183,-0.8552716,0.4834774,-0.4844629
626.4084,0.0005698081,-0.5809618,-0.2975494,-0.8548117,0.4837502,-0.4844518
626.423,0.001673547,-0.5809343,-0.297478,-0.8543569,0.4840183,-0.4844409
626.4377,0.001673547,-0.5809343,-0.297478,-0.8543569,0.4840183,-0.4844409
626.4518,0.002764034,-0.5809072,-0.2974041,-0.8539072,0.4842819,-0.4844303
626.4674,0.003841426,-0.5808805,-0.2973278,-0.8534625,0.4845409,-0.4844198
626.4819,0.004905882,-0.5808542,-0.2972493,-0.8530229,0.4847955,-0.4844096
626.4966,0.004905882,-0.5808542,-0.2972493,-0.8530229,0.4847955,-0.4844096
626.5127,0.005957558,-0.5808282,-0.2971684,-0.8525883,0.4850456,-0.4843996
626.527,0.006996606,-0.5808026,-0.2970855,-0.8521585,0.4852915,-0.4843898
626.541,0.008023177,-0.5807773,-0.2970004,-0.8517337,0.4855332,-0.4843802
626.5554,0.008023177,-0.5807773,-0.2970004,-0.8517337,0.4855332,-0.4843802
626.5695,0.009037424,-0.5807524,-0.2969133,-0.8513136,0.4857708,-0.4843707
626.5848,0.01003949,-0.5807278,-0.2968242,-0.8508983,0.4860043,-0.4843615
626.5994,0.01003949,-0.5807278,-0.2968242,-0.8508983,0.4860043,-0.4843615
626.6132,0.01102953,-0.5807035,-0.2967333,-0.8504876,0.4862337,-0.4843525
626.6286,0.01200768,-0.5806796,-0.2966405,-0.8500817,0.4864593,-0.4843436
626.6435,0.01297409,-0.580656,-0.2965459,-0.8496803,0.486681,-0.4843349
626.6578,0.01297409,-0.580656,-0.2965459,-0.8496803,0.486681,-0.4843349
626.6723,0.01392889,-0.5806327,-0.2964496,-0.8492835,0.4868988,-0.4843265
626.6874,0.01487223,-0.5806097,-0.2963517,-0.8488912,0.4871129,-0.4843181
626.7022,0.01580424,-0.5805871,-0.2962522,-0.8485034,0.4873234,-0.4843099
626.7171,0.01580424,-0.5805871,-0.2962522,-0.8485034,0.4873234,-0.4843099
626.7311,0.01672506,-0.5805647,-0.2961511,-0.8481199,0.4875302,-0.484302
626.7467,0.01763483,-0.5805427,-0.2960486,-0.8477409,0.4877335,-0.4842941
626.7611,0.01853367,-0.580521,-0.2959446,-0.8473662,0.4879333,-0.4842864
626.7779,0.01853367,-0.580521,-0.2959446,-0.8473662,0.4879333,-0.4842864
626.7911,0.01942172,-0.5804996,-0.2958393,-0.8469957,0.4881296,-0.4842789
626.8055,0.02029911,-0.5804785,-0.2957327,-0.8466295,0.4883226,-0.4842716
626.8207,0.02150688,-0.580444,-0.2962648,-0.846315,0.4891705,-0.4842184
626.8347,0.02150688,-0.580444,-0.2962648,-0.846315,0.4891705,-0.4842184
626.8486,0.02291237,-0.5804018,-0.2969114,-0.8459459,0.4900759,-0.4841662
626.8643,0.02443308,-0.5803553,-0.2975821,-0.8455297,0.4909916,-0.484115
626.8788,0.02443308,-0.5803553,-0.2975821,-0.8455297,0.4909916,-0.484115
626.8925,0.02567687,-0.5803199,-0.297606,-0.8450323,0.4912499,-0.4841108
626.908,0.02674472,-0.5802915,-0.2974932,-0.8445721,0.4914383,-0.4841068
626.9227,0.02769952,-0.5802674,-0.2973319,-0.8441505,0.491601,-0.4841029
626.9374,0.02769952,-0.5802674,-0.2973319,-0.8441505,0.491601,-0.4841029
626.9516,0.02858046,-0.5802459,-0.297154,-0.8437602,0.4917482,-0.4840991
626.967,0.0290711,-0.5802397,-0.2963342,-0.8433459,0.4912308,-0.4841413
626.9816,0.02931943,-0.5802415,-0.2954,-0.8430077,0.4906439,-0.4841827
626.9962,0.02931943,-0.5802415,-0.2954,-0.8430077,0.4906439,-0.4841827
627.0102,0.02941757,-0.5802481,-0.2944445,-0.8427331,0.4900379,-0.4842234
627.0257,0.02942284,-0.5802574,-0.2934996,-0.8425053,0.4894263,-0.4842632
627.0424,0.02903124,-0.5802819,-0.2919372,-0.8422632,0.4881612,-0.4843481
627.0561,0.02903124,-0.5802819,-0.2919372,-0.8422632,0.4881612,-0.4843481
627.0703,0.02839725,-0.5803152,-0.290283,-0.8421024,0.4868386,-0.4844315
627.0845,0.02761704,-0.5803534,-0.2886281,-0.8420079,0.4855098,-0.4845133
627.0989,0.02761704,-0.5803534,-0.2886281,-0.8420079,0.4855098,-0.4845133
627.113,0.02640951,-0.5804078,-0.2863608,-0.8419135,0.4835308,-0.4846393
627.1282,0.02494463,-0.5804713,-0.2840166,-0.8419109,0.481503,-0.4847629
627.1428,0.02332809,-0.5805397,-0.2816888,-0.8419814,0.479479,-0.4848841
627.1574,0.02332809,-0.5805397,-0.2816888,-0.8419814,0.479479,-0.4848841
627.1716,0.0216256,-0.5806105,-0.2794073,-0.8421036,0.4774732,-0.4850028
627.187,0.01953702,-0.5806957,-0.2765375,-0.8422121,0.4748311,-0.4851652
627.2015,0.01722048,-0.5807889,-0.2736102,-0.8424022,0.4721572,-0.4853244
627.2162,0.01722048,-0.5807889,-0.2736102,-0.8424022,0.4721572,-0.4853244
627.23,0.01477424,-0.5808858,-0.270713,-0.8426577,0.4695011,-0.4854804
627.2454,0.01225932,-0.5809844,-0.2678739,-0.8429596,0.4668755,-0.4856334
627.2603,0.009372554,-0.5810969,-0.2644546,-0.843243,0.4636182,-0.4858292
627.2756,0.009372554,-0.5810969,-0.2644546,-0.843243,0.4636182,-0.4858292
627.2889,0.006270247,-0.5812166,-0.2609915,-0.8436047,0.4603428,-0.4860213
627.3043,0.003049456,-0.5813396,-0.2575703,-0.8440294,0.4570963,-0.4862095
627.321,-0.0002296157,-0.5814636,-0.2542185,-0.8444982,0.4538907,-0.486394
627.3349,-0.0002296157,-0.5814636,-0.2542185,-0.8444982,0.4538907,-0.486394
627.3487,-0.003870737,-0.5816012,-0.2502942,-0.8449461,0.4500554,-0.4866208
627.3629,-0.007717927,-0.5817454,-0.2463403,-0.8454704,0.4462151,-0.4868432
627.3774,-0.007717927,-0.5817454,-0.2463403,-0.8454704,0.4462151,-0.4868432
627.3914,-0.01167439,-0.5818924,-0.2424403,-0.8460558,0.4424143,-0.4870611
627.4067,-0.01602122,-0.5820536,-0.2379679,-0.8466334,0.4379798,-0.4873207
627.4212,-0.02058831,-0.5822217,-0.2334794,-0.8472968,0.4335497,-0.4875751
627.436,-0.02058831,-0.5822217,-0.2334794,-0.8472968,0.4335497,-0.4875751
627.4501,-0.0252701,-0.5823924,-0.2290592,-0.8480273,0.4291676,-0.4878246
627.4654,-0.03000125,-0.5825635,-0.2247339,-0.8488041,0.4248456,-0.488069
627.48,-0.03508253,-0.5827475,-0.2198536,-0.8495586,0.4198943,-0.4883545
627.4948,-0.03508253,-0.5827475,-0.2198536,-0.8495586,0.4198943,-0.4883545
627.5087,-0.04035597,-0.5829372,-0.2149745,-0.8503881,0.4149645,-0.4886345
627.5242,-0.04572364,-0.5831289,-0.2101739,-0.8512769,0.4100944,-0.4889088
627.5391,-0.04572364,-0.5831289,-0.2101739,-0.8512769,0.4100944,-0.4889088
627.553,-0.05146623,-0.5833341,-0.2048164,-0.8521543,0.4045899,-0.4892237
627.5684,-0.05741315,-0.5835452,-0.1994721,-0.8531145,0.3991168,-0.4895323
627.5829,-0.06345874,-0.5837581,-0.194219,-0.8541393,0.3937118,-0.4898348
627.5988,-0.06345874,-0.5837581,-0.194219,-0.8541393,0.3937118,-0.4898348
627.6126,-0.06953764,-0.5839707,-0.1890819,-0.8552078,0.3883857,-0.4901313
627.6271,-0.07595093,-0.5841954,-0.1834023,-0.85625,0.3824263,-0.4904678
627.6417,-0.08254058,-0.5844252,-0.1777512,-0.857364,0.376515,-0.4907976
627.6562,-0.08254058,-0.5844252,-0.1777512,-0.857364,0.376515,-0.4907976
627.6702,-0.08920878,-0.5846562,-0.1721997,-0.8585346,0.3706829,-0.4911209
627.6855,-0.09589513,-0.5848864,-0.1667707,-0.8597436,0.3649388,-0.4914378
627.7003,-0.1029039,-0.5851286,-0.1608014,-0.8609216,0.3585566,-0.4917943
627.7148,-0.1029039,-0.5851286,-0.1608014,-0.8609216,0.3585566,-0.4917943
627.7288,-0.110079,-0.5853755,-0.1548712,-0.8621682,0.3522359,-0.4921438
627.7444,-0.1173237,-0.5856233,-0.1490482,-0.8634691,0.3460031,-0.4924863
627.7591,-0.1173237,-0.5856233,-0.1490482,-0.8634691,0.3460031,-0.4924863
627.773,-0.1249201,-0.5858837,-0.1426837,-0.864752,0.3391261,-0.4928678
627.7883,-0.1326981,-0.586149,-0.1363704,-0.8661127,0.3323202,-0.4932418
627.8032,-0.1405524,-0.5864151,-0.1301762,-0.8675339,0.3256105,-0.4936084
627.8178,-0.1405524,-0.5864151,-0.1301762,-0.8675339,0.3256105,-0.4936084
627.8319,-0.148418,-0.5866799,-0.1241231,-0.8689956,0.3190051,-0.4939677
627.8473,-0.1565969,-0.5869563,-0.1175415,-0.8704261,0.311754,-0.4943658
627.864,-0.164931,-0.5872368,-0.1110237,-0.8719239,0.304589,-0.4947559
627.8774,-0.164931,-0.5872368,-0.1110237,-0.8719239,0.304589,-0.4947559
627.8915,-0.1733228,-0.5875177,-0.1046313,-0.8734751,0.2975298,-0.4951383
627.906,-0.181712,-0.587797,-0.09838448,-0.8750619,0.290583,-0.4955131
627.9206,-0.1904037,-0.5880877,-0.09161071,-0.8766136,0.2829849,-0.4959263
627.9349,-0.1904037,-0.5880877,-0.09161071,-0.8766136,0.2829849,-0.4959263
627.9489,-0.1992416,-0.5883823,-0.08490887,-0.8782298,0.2754844,-0.4963313
627.9642,-0.2081294,-0.588677,-0.07833784,-0.8798974,0.2680977,-0.4967282
627.9787,-0.2081294,-0.588677,-0.07833784,-0.8798974,0.2680977,-0.4967282
627.9933,-0.2173495,-0.5889838,-0.07123952,-0.8815432,0.2600543,-0.4971631
628.0083,-0.2267319,-0.5892945,-0.06422339,-0.883263,0.2521177,-0.4975894
628.0229,-0.2361714,-0.5896053,-0.05734861,-0.8850407,0.2443026,-0.4980072
628.0375,-0.2361714,-0.5896053,-0.05734861,-0.8850407,0.2443026,-0.4980072
628.0519,-0.2456034,-0.5899142,-0.05063441,-0.886857,0.2366149,-0.4984167
628.0674,-0.2553302,-0.590234,-0.04340431,-0.8886395,0.2282681,-0.4988639
628.0817,-0.2651939,-0.5905573,-0.03626518,-0.8904862,0.2200398,-0.4993022
628.0964,-0.2651939,-0.5905573,-0.03626518,-0.8904862,0.2200398,-0.4993022
628.1105,-0.275097,-0.5908803,-0.02927131,-0.8923842,0.2119413,-0.4997318
628.126,-0.2849795,-0.5912013,-0.02244039,-0.8943163,0.2039771,-0.5001529
628.1417,-0.295147,-0.5915331,-0.01509476,-0.8962117,0.1953481,-0.5006114
628.1562,-0.295147,-0.5915331,-0.01509476,-0.8962117,0.1953481,-0.5006114
628.1717,-0.3054432,-0.5918682,-0.007844973,-0.8981689,0.1868464,-0.5010608
628.1848,-0.3157719,-0.5922028,-0.0007438161,-0.9001759,0.1784815,-0.5015014
628.1992,-0.3157719,-0.5922028,-0.0007438161,-0.9001759,0.1784815,-0.5015014
628.2131,-0.3264162,-0.592549,0.006871768,-0.9021597,0.1694478,-0.5019789
628.2285,-0.3372058,-0.5928984,0.01438308,-0.9042151,0.1605495,-0.502447
628.243,-0.3480358,-0.5932474,0.02173669,-0.9063271,0.1517954,-0.5029058
628.2575,-0.3480358,-0.5932474,0.02173669,-0.9063271,0.1517954,-0.5029058
628.2717,-0.3588415,-0.5935939,0.02891592,-0.9084771,0.143189,-0.5033555
628.2872,-0.3699262,-0.593951,0.03660004,-0.9105934,0.1339101,-0.5038421
628.302,-0.3811316,-0.5943109,0.04417444,-0.9127723,0.1247754,-0.5043191
628.3167,-0.3811316,-0.5943109,0.04417444,-0.9127723,0.1247754,-0.5043191
628.3304,-0.3923604,-0.5946701,0.05158939,-0.9150015,0.1157918,-0.5047866
628.3459,-0.4035527,-0.5950268,0.05882948,-0.9172648,0.1069616,-0.5052448
628.3608,-0.4150148,-0.595394,0.06657414,-0.9194926,0.09745253,-0.5057397
628.3753,-0.4150148,-0.595394,0.06657414,-0.9194926,0.09745253,-0.5057397
628.3894,-0.4265904,-0.5957639,0.07420656,-0.921781,0.08809484,-0.5062249
628.4069,-0.4381831,-0.596133,0.08167789,-0.9241186,0.07889419,-0.5067004
628.4204,-0.4497339,-0.5964994,0.08897315,-0.9264898,0.06985205,-0.5071665
628.4341,-0.4497339,-0.5964994,0.08897315,-0.9264898,0.06985205,-0.5071665
628.4481,-0.4615497,-0.5968764,0.09677175,-0.9288263,0.06012448,-0.5076692
628.4634,-0.4734743,-0.597256,0.1044551,-0.931223,0.05055511,-0.508162
628.478,-0.4734743,-0.597256,0.1044551,-0.931223,0.05055511,-0.508162
628.4919,-0.4854116,-0.5976346,0.1119754,-0.9336689,0.04114853,-0.5086449
628.5074,-0.4976458,-0.5980241,0.1199982,-0.9360947,0.03105362,-0.5091642
628.5219,-0.5100064,-0.5984164,0.1278987,-0.938591,0.0211248,-0.5096731
628.5366,-0.5100064,-0.5984164,0.1278987,-0.938591,0.0211248,-0.5096731
628.5506,-0.5223884,-0.5988075,0.1356284,-0.9411437,0.01136619,-0.510172
628.566,-0.5347276,-0.5991957,0.1431736,-0.9437352,0.001778111,-0.5106611
628.5807,-0.547328,-0.5995941,0.1512143,-0.9462982,-0.008504267,-0.5111862
628.5953,-0.547328,-0.5995941,0.1512143,-0.9462982,-0.008504267,-0.5111862
628.6093,-0.5600312,-0.5999948,0.15913,-0.9489238,-0.01861368,-0.511701
628.6248,-0.5727398,-0.6003941,0.1668751,-0.9516,-0.02854738,-0.5122057
628.6395,-0.5727398,-0.6003941,0.1668751,-0.9516,-0.02854738,-0.5122057
628.6539,-0.5857378,-0.6008042,0.1751164,-0.9542603,-0.03917801,-0.5127462
628.669,-0.5988538,-0.6012167,0.1832269,-0.956992,-0.0496276,-0.513276
628.6848,-0.6119828,-0.6016276,0.1911605,-0.9597808,-0.05989405,-0.5137954
628.6993,-0.6119828,-0.6016276,0.1911605,-0.9597808,-0.05989405,-0.5137954
628.7134,-0.6250601,-0.6020355,0.1989048,-0.9626093,-0.06997836,-0.5143046
628.7281,-0.6383905,-0.6024533,0.2071401,-0.9654139,-0.08076672,-0.5148495
628.7421,-0.6518151,-0.6028732,0.2152433,-0.9682816,-0.09136779,-0.5153837
628.7568,-0.6518151,-0.6028732,0.2152433,-0.9682816,-0.09136779,-0.5153837
628.7707,-0.6652366,-0.6032915,0.2231708,-0.9712006,-0.1017807,-0.5159073
628.7862,-0.6785953,-0.6037067,0.230911,-0.9741557,-0.1120071,-0.5164208
628.8008,-0.6921991,-0.6041319,0.2391436,-0.9770871,-0.1229453,-0.5169699
628.8152,-0.6921991,-0.6041319,0.2391436,-0.9770871,-0.1229453,-0.5169699
628.8293,-0.7058909,-0.6045591,0.2472441,-0.9800802,-0.1336902,-0.5175083
628.8447,-0.7195745,-0.6049848,0.2551694,-0.9831237,-0.1442419,-0.518036
628.8595,-0.7195745,-0.6049848,0.2551694,-0.9831237,-0.1442419,-0.518036
628.8736,-0.7335352,-0.6054209,0.2635868,-0.9861586,-0.1555071,-0.5185993
628.8887,-0.747602,-0.6058592,0.2718661,-0.9892653,-0.1665703,-0.5191514
628.9037,-0.7616698,-0.6062955,0.2799642,-0.9924294,-0.1774326,-0.5196927
628.9185,-0.7616698,-0.6062955,0.2799642,-0.9924294,-0.1774326,-0.5196927
628.9324,-0.7756745,-0.6067286,0.2878699,-0.9956342,-0.188097,-0.5202234
628.9479,-0.7899213,-0.6071714,0.2962632,-0.9988242,-0.1994832,-0.5207896
628.9633,-0.8042516,-0.6076159,0.3045181,-1.002079,-0.2106618,-0.5213447
628.9779,-0.8042516,-0.6076159,0.3045181,-1.002079,-0.2106618,-0.5213447
628.991,-0.8185677,-0.6080586,0.3125935,-1.005385,-0.2216351,-0.5218889
629.0062,-0.8328102,-0.608498,0.3204789,-1.008728,-0.2324065,-0.5224224
629.0208,-0.8472877,-0.6089472,0.3288537,-1.012058,-0.243908,-0.5229914
629.0358,-0.8472877,-0.6089472,0.3288537,-1.012058,-0.243908,-0.5229914
629.0493,-0.8618429,-0.6093982,0.3370906,-1.015451,-0.255196,-0.5235492
629.0648,-0.8763796,-0.6098473,0.3451491,-1.018895,-0.2662739,-0.5240961
629.0792,-0.8763796,-0.6098473,0.3451491,-1.018895,-0.2662739,-0.5240961
629.0933,-0.8911837,-0.6103067,0.3536961,-1.022341,-0.2780825,-0.5246782
629.1085,-0.9060838,-0.6107679,0.3620999,-1.02586,-0.2896684,-0.5252488
629.1232,-0.920975,-0.611227,0.3703196,-1.029436,-0.3010359,-0.5258083
629.1378,-0.920975,-0.611227,0.3703196,-1.029436,-0.3010359,-0.5258083
629.1519,-0.935793,-0.6116824,0.3783455,-1.033053,-0.3121901,-0.5263569
629.1675,-0.9508441,-0.6121476,0.3868559,-1.036667,-0.3240843,-0.5269408
629.1822,-0.965969,-0.6126142,0.3952236,-1.040346,-0.3357508,-0.5275132
629.1965,-0.965969,-0.6126142,0.3952236,-1.040346,-0.3357508,-0.5275132
629.2106,-0.9810703,-0.6130787,0.4034096,-1.044078,-0.3471949,-0.5280744
629.226,-0.9960884,-0.6135396,0.4114044,-1.047846,-0.3584219,-0.5286247
629.2418,-1.011333,-0.6140103,0.4198852,-1.051613,-0.370397,-0.5292102
629.2564,-1.011333,-0.6140103,0.4198852,-1.051613,-0.370397,-0.5292102
629.2703,-1.026646,-0.6144826,0.4282244,-1.055444,-0.3821388,-0.5297843
629.2847,-1.041931,-0.6149527,0.4363835,-1.059325,-0.3936535,-0.530347
629.2991,-1.041931,-0.6149527,0.4363835,-1.059325,-0.3936535,-0.530347
629.313,-1.045728,-0.614966,0.422108,-1.063901,-0.3729888,-0.5293798
629.3282,-1.042485,-0.6147621,0.4062046,-1.067128,-0.3532459,-0.5284367
629.3428,-1.034945,-0.614435,0.3900793,-1.069064,-0.3343094,-0.5275145
629.3577,-1.034945,-0.614435,0.3900793,-1.069064,-0.3343094,-0.5275145
629.3713,-1.024813,-0.6140355,0.3742464,-1.069959,-0.3160461,-0.5266114
629.387,-1.013488,-0.6136065,0.3595139,-1.070052,-0.2993005,-0.5257727
629.4014,-1.001487,-0.6131607,0.3452972,-1.069639,-0.2830124,-0.5249505
629.4161,-1.001487,-0.6131607,0.3452972,-1.069639,-0.2830124,-0.5249505
629.4299,-0.9891289,-0.6127061,0.3315128,-1.068893,-0.267136,-0.5241445
629.4454,-0.9766089,-0.6122482,0.3181016,-1.067931,-0.2516398,-0.5233544
629.4602,-0.9643931,-0.6118041,0.3056728,-1.066793,-0.2374323,-0.5226259
629.4749,-0.9643931,-0.6118041,0.3056728,-1.066793,-0.2374323,-0.5226259
629.489,-0.9524195,-0.6113709,0.2936126,-1.065607,-0.2235312,-0.5219115
629.5043,-0.9406489,-0.6109468,0.2818462,-1.064404,-0.209929,-0.5212111
629.5208,-0.9290564,-0.6105306,0.2703378,-1.063194,-0.1966189,-0.5205246
629.5348,-0.9290564,-0.6105306,0.2703378,-1.063194,-0.1966189,-0.5205246
629.5485,-0.9179711,-0.6101352,0.2597148,-1.061942,-0.1845103,-0.5198974
629.5625,-0.9072467,-0.6097549,0.2493889,-1.060732,-0.1726488,-0.5192824
629.5773,-0.9072467,-0.6097549,0.2493889,-1.060732,-0.1726488,-0.5192824
629.5912,-0.8967921,-0.6093861,0.2392975,-1.059561,-0.1610331,-0.5186794
629.6066,-0.8868952,-0.60904,0.2300569,-1.058378,-0.1505663,-0.5181342
629.621,-0.8773847,-0.6087099,0.2210807,-1.057258,-0.1403084,-0.5175996
629.6357,-0.8773847,-0.6087099,0.2210807,-1.057258,-0.1403084,-0.5175996
629.6497,-0.8681541,-0.6083915,0.2123069,-1.056192,-0.1302595,-0.5170755
629.665,-0.8591371,-0.6080821,0.2037101,-1.055167,-0.1204176,-0.5165616
629.6795,-0.8591371,-0.6080821,0.2037101,-1.055167,-0.1204176,-0.5165616
629.6935,-0.8506367,-0.6077935,0.1959203,-1.054122,-0.1116747,-0.5161037
629.7087,-0.8424913,-0.6075193,0.1883625,-1.053137,-0.103105,-0.5156547
629.7236,-0.8346004,-0.6072555,0.1809774,-1.052204,-0.09470834,-0.5152145
629.7383,-0.8346004,-0.6072555,0.1809774,-1.052204,-0.09470834,-0.5152145
629.7524,-0.827246,-0.6070132,0.1743793,-1.051261,-0.08737078,-0.5148288
629.768,-0.8202534,-0.6067854,0.1679905,-1.050387,-0.0801764,-0.5144506
629.7824,-0.8135145,-0.6065678,0.1617497,-1.049572,-0.07312547,-0.5140797
629.8004,-0.8069618,-0.6063576,0.1556331,-1.0488,-0.06621686,-0.5137161
629.8125,-0.8069618,-0.6063576,0.1556331,-1.0488,-0.06621686,-0.5137161
629.8267,-0.8008974,-0.6061667,0.1502683,-1.048007,-0.06032845,-0.5134055
629.8411,-0.7951597,-0.6059887,0.1450864,-1.047277,-0.0545542,-0.5131009
629.8556,-0.7951597,-0.6059887,0.1450864,-1.047277,-0.0545542,-0.5131009
629.8696,-0.7896484,-0.6058196,0.1400285,-1.046601,-0.04889429,-0.5128022
629.8849,-0.784301,-0.6056567,0.1350714,-1.045965,-0.04334772,-0.5125095
629.8988,-0.784301,-0.6056567,0.1350714,-1.045965,-0.04334772,-0.5125095
629.9134,-0.7794228,-0.6055122,0.1308421,-1.045304,-0.03878631,-0.5122682
629.9288,-0.7748543,-0.6053797,0.1267735,-1.044706,-0.03431245,-0.5120317
629.9434,-0.7704964,-0.6052552,0.1228069,-1.044162,-0.02992647,-0.5117997
629.9579,-0.7704964,-0.6052552,0.1228069,-1.044162,-0.02992647,-0.5117997
629.9754,-0.7666317,-0.6051499,0.1195538,-1.043607,-0.0264973,-0.5116181
629.9882,-0.763087,-0.6050569,0.1164424,-1.043124,-0.02313293,-0.51144
630.0024,-0.7597545,-0.6049718,0.1134124,-1.042703,-0.019834,-0.5112654
630.0168,-0.7597545,-0.6049718,0.1134124,-1.042703,-0.019834,-0.5112654
630.0311,-0.7565674,-0.6048919,0.1104408,-1.042328,-0.01660008,-0.5110942
630.0467,-0.753828,-0.6048293,0.108154,-1.041932,-0.01429601,-0.5109722
630.061,-0.7513758,-0.6047775,0.1059875,-1.041603,-0.01203495,-0.5108525
630.078,-0.7513758,-0.6047775,0.1059875,-1.041603,-0.01203495,-0.5108525
630.0918,-0.7491108,-0.6047325,0.1038834,-1.04133,-0.009817569,-0.5107352
630.1052,-0.7469708,-0.6046917,0.1018196,-1.041099,-0.007643648,-0.5106201
630.1198,-0.7469708,-0.6046917,0.1018196,-1.041099,-0.007643648,-0.5106201
630.1339,-0.7452616,-0.6046675,0.1004227,-1.040845,-0.006375764,-0.5105531
630.1489,-0.7438242,-0.6046534,0.09912848,-1.040657,-0.005130857,-0.5104873
630.1636,-0.7425603,-0.6046453,0.0978793,-1.040525,-0.003909773,-0.5104228
630.1782,-0.7425603,-0.6046453,0.0978793,-1.040525,-0.003909773,-0.5104228
630.1924,-0.7417527,-0.6046539,0.09728663,-1.040382,-0.003574668,-0.5104054
630.2076,-0.7412287,-0.6046724,0.09678076,-1.040316,-0.003244601,-0.5103883
630.2236,-0.7408811,-0.6046966,0.09630244,-1.040313,-0.002920658,-0.5103715
630.2372,-0.7408811,-0.6046966,0.09630244,-1.040313,-0.002920658,-0.5103715
630.2513,-0.7406433,-0.6047242,0.09582991,-1.040358,-0.002603127,-0.510355
630.2668,-0.7408171,-0.6047672,0.09598991,-1.040383,-0.003153744,-0.5103847
630.2811,-0.7412427,-0.6048192,0.09621908,-1.040477,-0.003692524,-0.5104137
630.2958,-0.7412427,-0.6048192,0.09621908,-1.040477,-0.003692524,-0.5104137
630.3098,-0.7418208,-0.6048762,0.09646089,-1.040629,-0.00422073,-0.5104421
630.3254,-0.7424898,-0.6049358,0.09669461,-1.040825,-0.004738903,-0.51047
630.3399,-0.7424898,-0.6049358,0.09669461,-1.040825,-0.004738903,-0.51047
630.3561,-0.7435557,-0.6050102,0.09754772,-1.040998,-0.006109674,-0.5105431
630.3705,-0.74486,-0.6050928,0.09845608,-1.041238,-0.007452964,-0.5106148
630.3843,-0.7463046,-0.6051796,0.09936334,-1.041536,-0.008770309,-0.510685
630.3984,-0.7463046,-0.6051796,0.09936334,-1.041536,-0.008770309,-0.510685
630.4124,-0.7481729,-0.605282,0.1008825,-1.041824,-0.01092605,-0.5107996
630.4276,-0.7502923,-0.6053927,0.1024431,-1.04219,-0.01303947,-0.5109119
630.4421,-0.7525561,-0.6055074,0.1039876,-1.04262,-0.0151124,-0.511022
630.4567,-0.7525561,-0.6055074,0.1039876,-1.04262,-0.0151124,-0.511022
630.4709,-0.754898,-0.6056237,0.1054955,-1.043098,-0.01714594,-0.51113
630.4863,-0.7576214,-0.605754,0.1075958,-1.043556,-0.02000681,-0.5112816
630.5007,-0.7605662,-0.6058912,0.1097232,-1.044084,-0.02281187,-0.5114302
630.5153,-0.7605662,-0.6058912,0.1097232,-1.044084,-0.02281187,-0.5114302
630.5294,-0.7636332,-0.6060316,0.111823,-1.04467,-0.02556328,-0.5115759
630.5449,-0.7667612,-0.6061728,0.1138756,-1.0453,-0.02826244,-0.5117186
630.5596,-0.7667612,-0.6061728,0.1138756,-1.0453,-0.02826244,-0.5117186
630.5736,-0.7702566,-0.6063274,0.1165104,-1.045908,-0.03177954,-0.5119045
630.5889,-0.7739612,-0.6064885,0.1191614,-1.046584,-0.03522819,-0.5120866
630.6037,-0.7777771,-0.6066521,0.1217739,-1.047317,-0.03861089,-0.5122651
630.6183,-0.7777771,-0.6066521,0.1217739,-1.047317,-0.03861089,-0.5122651
630.6345,-0.7819881,-0.6068299,0.1249632,-1.048041,-0.04280155,-0.5124859
630.6486,-0.7864221,-0.6070142,0.1281567,-1.048842,-0.04691087,-0.5127023
630.6624,-0.7909725,-0.607201,0.1312987,-1.049708,-0.05094179,-0.5129145
630.6767,-0.7909725,-0.607201,0.1312987,-1.049708,-0.05094179,-0.5129145
630.6909,-0.7955734,-0.607388,0.1343703,-1.050621,-0.05489638,-0.5131224
630.7061,-0.8005287,-0.6075877,0.1380023,-1.051515,-0.05965308,-0.5133722
630.7206,-0.8056786,-0.607793,0.1416272,-1.052479,-0.06431742,-0.513617
630.7354,-0.8056786,-0.607793,0.1416272,-1.052479,-0.06431742,-0.513617
630.7494,-0.8109242,-0.6079999,0.1451917,-1.0535,-0.06889272,-0.5138569
630.7647,-0.8162044,-0.6082066,0.1486778,-1.054565,-0.07338141,-0.5140921
630.7793,-0.8162044,-0.6082066,0.1486778,-1.054565,-0.07338141,-0.5140921
630.7933,-0.8218265,-0.6084256,0.1527172,-1.055609,-0.07866739,-0.5143687
630.8086,-0.8276321,-0.6086497,0.1567406,-1.056719,-0.08385044,-0.5146396
630.8234,-0.8335238,-0.6088753,0.1606955,-1.057887,-0.08893438,-0.5149053
630.8379,-0.8335238,-0.6088753,0.1606955,-1.057887,-0.08893438,-0.5149053
630.8521,-0.839786,-0.6091139,0.1651996,-1.059047,-0.09480834,-0.5152116
630.8677,-0.8462464,-0.6093578,0.1696774,-1.060284,-0.1005677,-0.5155118
630.8821,-0.8527988,-0.6096029,0.1740753,-1.061584,-0.1062168,-0.515806
630.8968,-0.8527988,-0.6096029,0.1740753,-1.061584,-0.1062168,-0.515806
630.9127,-0.8593776,-0.6098472,0.1783756,-1.06293,-0.1117589,-0.5160945
630.9272,-0.8662875,-0.6101033,0.1832117,-1.064261,-0.1180893,-0.5164232
630.9407,-0.8733684,-0.610364,0.1880124,-1.065659,-0.1242958,-0.5167454
630.9553,-0.8733684,-0.610364,0.1880124,-1.065659,-0.1242958,-0.5167454
630.9693,-0.8805218,-0.6106253,0.1927267,-1.067115,-0.1303834,-0.5170612
630.9846,-0.887687,-0.6108854,0.1973379,-1.068612,-0.1363556,-0.5173709
630.9993,-0.887687,-0.6108854,0.1973379,-1.068612,-0.1363556,-0.5173709
631.0129,-0.8951716,-0.6111572,0.2024797,-1.070092,-0.1431148,-0.5177203
631.0286,-0.9028175,-0.6114331,0.2075795,-1.071638,-0.149741,-0.5180629
631.0431,-0.9105274,-0.6117095,0.2125867,-1.07324,-0.1562398,-0.5183987
631.0576,-0.9105274,-0.6117095,0.2125867,-1.07324,-0.1562398,-0.5183987
631.0717,-0.9185863,-0.6119983,0.2181215,-1.074838,-0.16352,-0.5187738
631.0869,-0.9268219,-0.6122913,0.2236054,-1.076512,-0.1706563,-0.5191414
631.1018,-0.9351282,-0.6125847,0.2289867,-1.078247,-0.1776548,-0.5195019
631.1168,-0.9351282,-0.6125847,0.2289867,-1.078247,-0.1776548,-0.5195019
631.1305,-0.9434398,-0.6128764,0.2342493,-1.080028,-0.18452,-0.5198552
631.1458,-0.952062,-0.6131793,0.2400282,-1.081797,-0.1921684,-0.5202476
631.1606,-0.9608349,-0.613486,0.2457491,-1.083633,-0.1996649,-0.5206321
631.1752,-0.9608349,-0.613486,0.2457491,-1.083633,-0.1996649,-0.5206321
631.1915,-0.9696598,-0.6137925,0.2513631,-1.085526,-0.2070163,-0.5210091
631.2055,-0.9784764,-0.6140972,0.2568545,-1.087459,-0.2142275,-0.5213788
631.2192,-0.9784764,-0.6140972,0.2568545,-1.087459,-0.2142275,-0.5213788
631.2332,-0.9875931,-0.614413,0.2628587,-1.089379,-0.2222231,-0.5217871
631.2485,-0.9968517,-0.6147322,0.2688003,-1.091366,-0.2300587,-0.5221874
631.2629,-1.006155,-0.6150512,0.2746303,-1.093406,-0.2377419,-0.5225797
631.2773,-1.006155,-0.6150512,0.2746303,-1.093406,-0.2377419,-0.5225797
631.2916,-1.015788,-0.615382,0.2809709,-1.095448,-0.2462051,-0.5230104
631.3069,-1.02558,-0.6157163,0.2872408,-1.097566,-0.2544975,-0.5234326
631.3215,-1.035423,-0.6160502,0.2933905,-1.099744,-0.2626276,-0.5238464
631.3362,-1.035423,-0.6160502,0.2933905,-1.099744,-0.2626276,-0.5238464
631.3501,-1.045253,-0.6163819,0.299405,-1.101965,-0.2706013,-0.5242521
631.3655,-1.055376,-0.6167244,0.3059205,-1.104182,-0.2793593,-0.5246959
631.3809,-1.065632,-0.6170699,0.3123603,-1.106465,-0.2879398,-0.5251309
631.3949,-1.065632,-0.6170699,0.3123603,-1.106465,-0.2879398,-0.5251309
631.4089,-1.075922,-0.6174148,0.3186769,-1.108804,-0.2963516,-0.5255574
631.4243,-1.086186,-0.6177573,0.324856,-1.111181,-0.3046011,-0.5259755
631.4391,-1.086186,-0.6177573,0.324856,-1.111181,-0.3046011,-0.5259755
631.4533,-1.096733,-0.6181104,0.3315338,-1.113553,-0.313638,-0.5264315
631.4697,-1.107405,-0.6184665,0.3381324,-1.115991,-0.3224901,-0.5268784
631.4843,-1.118105,-0.6188218,0.344605,-1.118481,-0.3311669,-0.5273166
631.4979,-1.118105,-0.6188218,0.344605,-1.118481,-0.3311669,-0.5273166
631.512,-1.129119,-0.6191884,0.3515742,-1.120981,-0.3406271,-0.5277922
631.5273,-1.140274,-0.619558,0.3584575,-1.123555,-0.3498916,-0.5282584
631.5418,-1.151465,-0.6199266,0.3652069,-1.126187,-0.3589712,-0.5287155
631.5564,-1.151465,-0.6199266,0.3652069,-1.126187,-0.3589712,-0.5287155
631.5706,-1.162626,-0.6202926,0.3718085,-1.128862,-0.3678734,-0.5291636
631.586,-1.174065,-0.6206689,0.3788982,-1.131541,-0.3775649,-0.5296491
631.6005,-1.185621,-0.6210479,0.3858984,-1.134286,-0.3870552,-0.530125
631.6154,-1.185621,-0.6210479,0.3858984,-1.134286,-0.3870552,-0.530125
631.6291,-1.197195,-0.6214256,0.3927632,-1.137083,-0.3963549,-0.5305915
631.6447,-1.208728,-0.6218007,0.3994791,-1.139918,-0.4054719,-0.5310488
631.6593,-1.208728,-0.6218007,0.3994791,-1.139918,-0.4054719,-0.5310488
631.6732,-1.22053,-0.6221861,0.4066809,-1.142757,-0.4153821,-0.5315434
631.6887,-1.232441,-0.622574,0.4137915,-1.145661,-0.4250847,-0.5320282
631.7034,-1.244366,-0.6229606,0.4207647,-1.148616,-0.4345904,-0.5325034
631.7179,-1.244366,-0.6229606,0.4207647,-1.148616,-0.4345904,-0.5325034
631.7343,-1.245498,-0.6229348,0.4079151,-1.152096,-0.4136261,-0.5315377
631.7482,-1.240031,-0.6226853,0.3931492,-1.15429,-0.393791,-0.5305965
631.7617,-1.230553,-0.6223038,0.377997,-1.155286,-0.3748526,-0.5296766
631.7762,-1.230553,-0.6223038,0.377997,-1.155286,-0.3748526,-0.5296766
631.7902,-1.21867,-0.6218433,0.363031,-1.155325,-0.356612,-0.5287762
631.8054,-1.205376,-0.6213356,0.3484357,-1.154658,-0.3389437,-0.5278941
631.8201,-1.191282,-0.6208003,0.3342442,-1.153498,-0.3217682,-0.5270296
631.8347,-1.191282,-0.6208003,0.3342442,-1.153498,-0.3217682,-0.5270296
631.8485,-1.176767,-0.62025,0.3204379,-1.152005,-0.305034,-0.5261824
631.8639,-1.162062,-0.6196932,0.3069862,-1.150292,-0.2887069,-0.5253519
631.8785,-1.162062,-0.6196932,0.3069862,-1.150292,-0.2887069,-0.5253519
631.8927,-1.14731,-0.6191348,0.2938603,-1.148438,-0.272763,-0.5245379
631.908,-1.132597,-0.6185785,0.2810367,-1.146494,-0.2571848,-0.52374
631.9225,-1.117977,-0.6180263,0.268497,-1.144496,-0.2419584,-0.5229578
631.9374,-1.117977,-0.6180263,0.268497,-1.144496,-0.2419584,-0.5229578
631.9513,-1.103481,-0.6174796,0.2562274,-1.142465,-0.2270725,-0.522191
631.9668,-1.089128,-0.6169392,0.2442169,-1.140414,-0.2125172,-0.5214394
631.9811,-1.074928,-0.6164057,0.2324567,-1.138353,-0.1982836,-0.5207025
631.996,-1.074928,-0.6164057,0.2324567,-1.138353,-0.1982836,-0.5207025
632.0099,-1.060888,-0.6158791,0.2209396,-1.136285,-0.1843632,-0.5199802
632.0262,-1.047009,-0.6153598,0.209659,-1.134214,-0.1707483,-0.5192721
632.0407,-1.033294,-0.6148477,0.1986094,-1.132141,-0.1574313,-0.5185779
632.0543,-1.033294,-0.6148477,0.1986094,-1.132141,-0.1574313,-0.5185779
632.0686,-1.019742,-0.6143427,0.1877854,-1.130068,-0.1444048,-0.5178974
632.0836,-1.006351,-0.6138451,0.1771821,-1.127994,-0.131662,-0.5172303
632.0981,-1.006351,-0.6138451,0.1771821,-1.127994,-0.131662,-0.5172303
632.1133,-0.9931214,-0.6133544,0.1667947,-1.125921,-0.1191958,-0.5165763
632.1273,-0.980051,-0.6128708,0.1566189,-1.123847,-0.1069996,-0.5159352
632.1418,-0.9671381,-0.6123941,0.1466501,-1.121773,-0.09506705,-0.5153067
632.1565,-0.9671381,-0.6123941,0.1466501,-1.121773,-0.09506705,-0.5153067
632.1705,-0.9543809,-0.6119242,0.1368841,-1.119698,-0.0833917,-0.5146905
632.1859,-0.9417776,-0.6114611,0.1273168,-1.117623,-0.07196741,-0.5140864
632.2007,-0.9293265,-0.6110046,0.1179441,-1.115548,-0.0607882,-0.5134942
632.2149,-0.9293265,-0.6110046,0.1179441,-1.115548,-0.0607882,-0.5134942
632.2289,-0.9170257,-0.6105546,0.1087621,-1.113472,-0.04984824,-0.5129136
632.2443,-0.9048735,-0.6101111,0.09976699,-1.111395,-0.03914183,-0.5123444
632.2592,-0.9048735,-0.6101111,0.09976699,-1.111395,-0.03914183,-0.5123444
632.2729,-0.892868,-0.609674,0.09095488,-1.109317,-0.02866342,-0.5117864
632.2885,-0.8810074,-0.6092431,0.08232214,-1.107239,-0.01840762,-0.5112393
632.3032,-0.8692901,-0.6088184,0.07386513,-1.10516,-0.00836916,-0.510703
632.3188,-0.8692901,-0.6088184,0.07386513,-1.10516,-0.00836916,-0.510703
632.3328,-0.8577142,-0.6083997,0.06558032,-1.103081,0.001457077,-0.5101772
632.347,-0.846278,-0.607987,0.05746426,-1.101001,0.01107609,-0.5096617
632.3616,-0.8349799,-0.6075803,0.04951356,-1.098921,0.02049274,-0.5091563
632.3763,-0.8349799,-0.6075803,0.04951356,-1.098921,0.02049274,-0.5091563
632.3902,-0.8238181,-0.6071793,0.04172489,-1.096841,0.02971178,-0.5086608
632.4054,-0.8127911,-0.6067841,0.03409502,-1.094761,0.03873781,-0.508175
632.4199,-0.8127911,-0.6067841,0.03409502,-1.094761,0.03873781,-0.508175
632.434,-0.8018972,-0.6063945,0.02662076,-1.092681,0.04757534,-0.5076987
632.4493,-0.7911347,-0.6060105,0.019299,-1.090601,0.05622874,-0.5072318
632.464,-0.7805021,-0.6056319,0.01212671,-1.088522,0.06470229,-0.5067739
632.4785,-0.7805021,-0.6056319,0.01212671,-1.088522,0.06470229,-0.5067739
632.4926,-0.7699978,-0.6052588,0.005100902,-1.086444,0.07300014,-0.5063251
632.5079,-0.7596202,-0.604891,-0.001781344,-1.084368,0.08112635,-0.5058851
632.5225,-0.7493679,-0.6045284,-0.008522881,-1.082292,0.08908486,-0.5054536
632.5372,-0.7493679,-0.6045284,-0.008522881,-1.082292,0.08908486,-0.5054536
632.5513,-0.7392392,-0.604171,-0.01512651,-1.080219,0.09687953,-0.5050306
632.5667,-0.7292327,-0.6038187,-0.02159496,-1.078147,0.1045141,-0.5046159
632.581,-0.7193468,-0.6034714,-0.02793093,-1.076078,0.1119922,-0.5042093
632.5978,-0.7193468,-0.6034714,-0.02793093,-1.076078,0.1119922,-0.5042093
632.6117,-0.7095802,-0.603129,-0.03413702,-1.074011,0.1193174,-0.5038107
632.6259,-0.6999314,-0.6027915,-0.04021582,-1.071947,0.1264933,-0.5034199
632.6394,-0.6999314,-0.6027915,-0.04021582,-1.071947,0.1264933,-0.5034199
632.6536,-0.690399,-0.6024588,-0.04616983,-1.069886,0.133523,-0.5030367
632.6687,-0.6809815,-0.6021308,-0.05200154,-1.067829,0.1404101,-0.502661
632.6832,-0.6716776,-0.6018075,-0.05771333,-1.065775,0.1471576,-0.5022926
632.6977,-0.6716776,-0.6018075,-0.05771333,-1.065775,0.1471576,-0.5022926
632.7115,-0.6624858,-0.6014887,-0.06330758,-1.063725,0.1537687,-0.5019315
632.7268,-0.6534049,-0.6011745,-0.06878661,-1.06168,0.1602465,-0.5015774
632.7415,-0.6444334,-0.6008647,-0.07415268,-1.059639,0.1665939,-0.5012303
632.7561,-0.6444334,-0.6008647,-0.07415268,-1.059639,0.1665939,-0.5012303
632.77,-0.6355701,-0.6005594,-0.079408,-1.057603,0.1728138,-0.50089
632.7855,-0.6268136,-0.6002583,-0.08455477,-1.055571,0.1789091,-0.5005563
632.8,-0.6181626,-0.5999615,-0.0895951,-1.053546,0.1848825,-0.5002291
632.8146,-0.6181626,-0.5999615,-0.0895951,-1.053546,0.1848825,-0.5002291
632.8298,-0.6096159,-0.5996689,-0.09453108,-1.051526,0.1907367,-0.4999084
632.8438,-0.6011723,-0.5993805,-0.09936476,-1.049512,0.1964744,-0.4995939
632.8585,-0.6011723,-0.5993805,-0.09936476,-1.049512,0.1964744,-0.4995939
632.8727,-0.5928304,-0.5990961,-0.1040981,-1.047504,0.202098,-0.4992856
632.888,-0.5845889,-0.5988158,-0.1087332,-1.045502,0.2076101,-0.4989833
632.9037,-0.5764468,-0.5985394,-0.1132718,-1.043508,0.2130131,-0.4986869
632.9185,-0.5764468,-0.5985394,-0.1132718,-1.043508,0.2130131,-0.4986869
632.9314,-0.5684028,-0.598267,-0.1177158,-1.04152,0.2183094,-0.4983964
632.9466,-0.5604558,-0.5979983,-0.1220672,-1.039539,0.2235013,-0.4981115
632.961,-0.5526045,-0.5977335,-0.1263277,-1.037566,0.2285911,-0.4978322
632.9756,-0.5526045,-0.5977335,-0.1263277,-1.037566,0.2285911,-0.4978322
632.9895,-0.5448478,-0.5974724,-0.130499,-1.035601,0.2335809,-0.4975583
633.0048,-0.5371845,-0.5972151,-0.134583,-1.033643,0.238473,-0.4972898
633.0193,-0.5371845,-0.5972151,-0.134583,-1.033643,0.238473,-0.4972898
633.0335,-0.5296136,-0.5969613,-0.1385813,-1.031694,0.2432694,-0.4970266
633.0485,-0.5221338,-0.5967112,-0.1424956,-1.029753,0.2479721,-0.4967685
633.0631,-0.5147441,-0.5964645,-0.1463275,-1.02782,0.2525832,-0.4965155
633.0777,-0.5147441,-0.5964645,-0.1463275,-1.02782,0.2525832,-0.4965155
633.0918,-0.5074434,-0.5962213,-0.1500786,-1.025897,0.2571046,-0.4962674
633.1075,-0.5002307,-0.5959816,-0.1537505,-1.023982,0.2615383,-0.4960242
633.1219,-0.4931048,-0.5957452,-0.1573447,-1.022076,0.265886,-0.4957857
633.1364,-0.4931048,-0.5957452,-0.1573447,-1.022076,0.265886,-0.4957857
633.1505,-0.4860648,-0.5955122,-0.1608627,-1.020179,0.2701496,-0.4955519
633.1659,-0.4791095,-0.5952824,-0.164306,-1.018292,0.2743309,-0.4953227
633.1824,-0.472238,-0.5950558,-0.1676761,-1.016415,0.2784315,-0.4950979
633.196,-0.472238,-0.5950558,-0.1676761,-1.016415,0.2784315,-0.4950979
633.2101,-0.4654492,-0.5948325,-0.1709743,-1.014548,0.2824532,-0.4948776
633.2244,-0.4587421,-0.5946122,-0.1742021,-1.01269,0.2863977,-0.4946616
633.2388,-0.4587421,-0.5946122,-0.1742021,-1.01269,0.2863977,-0.4946616
633.2529,-0.4521159,-0.5943951,-0.1773608,-1.010842,0.2902665,-0.4944498
633.2681,-0.4455694,-0.5941811,-0.1804518,-1.009005,0.2940612,-0.4942421
633.2825,-0.4391017,-0.59397,-0.1834763,-1.007178,0.2977834,-0.4940386
633.2972,-0.4391017,-0.59397,-0.1834763,-1.007178,0.2977834,-0.4940386
633.3112,-0.4327119,-0.5937619,-0.1864357,-1.005362,0.3014345,-0.493839
633.3265,-0.426399,-0.5935568,-0.1893312,-1.003556,0.305016,-0.4936433
633.3411,-0.4201621,-0.5933545,-0.192164,-1.001761,0.3085294,-0.4934514
