JMolnar6/NonAnthroHands_User_Study/HandsLoggerWithURDF/tempdata/files/Reachy_PID0_JointMotion_gesture_4_18.csv
Time,r_shoulder,r_shoulder_x,r_upper_arm,r_forearm,r_wrist,r_wrist2hand,
217.9375,0.04500163,-2.483167E-08,NaN,-0.326999,-1.369295E-07,NaN,0.4722528,3.618206E-08,NaN,-0.5184546,6.991379E-06,-0.3849188,-3.089314E-08,NaN,NaN,-0.01997299,-8.381958E-11,1.689366E-07,-1.146454E-07,-4.750923E-08,-2.622604E-08
217.9512,0.04500163,-2.483056E-08,NaN,-0.326999,-1.3693E-07,NaN,0.4722322,3.633605E-08,NaN,-0.5184329,6.992064E-06,-0.3848942,-3.104489E-08,NaN,NaN,-0.0199729,-8.381958E-11,1.701287E-07,-1.146447E-07,-4.750923E-08,-2.622604E-08
217.9675,0.04500164,-2.482946E-08,NaN,-0.326999,-1.369306E-07,NaN,0.4723618,3.648859E-08,NaN,-0.519645,6.992748E-06,-0.3850706,-3.119517E-08,NaN,NaN,-0.01997657,-8.381958E-11,1.407734E-07,-1.14644E-07,-4.512504E-08,-2.622604E-08
217.9814,0.04500165,-2.482835E-08,NaN,-0.326999,-1.369311E-07,NaN,0.4724803,3.663828E-08,NaN,-0.5215558,6.993433E-06,-0.3852616,-3.13426E-08,NaN,NaN,-0.0199786,-8.381958E-11,1.242331E-07,-1.146434E-07,-4.274085E-08,-2.622604E-08
217.9962,0.04500165,-2.482835E-08,NaN,-0.326999,-1.369311E-07,NaN,0.4724803,3.663828E-08,NaN,-0.5215558,6.993433E-06,-0.3852616,-3.13426E-08,NaN,NaN,-0.0199786,-8.381958E-11,1.242331E-07,-1.146434E-07,-4.274085E-08,-2.622604E-08
218.0103,0.04500166,-2.482725E-08,NaN,-0.326999,-1.369316E-07,NaN,0.4725543,3.678377E-08,NaN,-0.5237802,6.994117E-06,-0.385414,-3.148584E-08,NaN,NaN,-0.01997997,-8.381958E-11,1.118651E-07,-1.146427E-07,-4.512504E-08,-2.622604E-08
218.0258,0.04500167,-2.482614E-08,NaN,-0.326999,-1.369322E-07,NaN,0.4725936,3.692655E-08,NaN,-0.5261346,6.994801E-06,-0.3855285,-3.162637E-08,NaN,NaN,-0.01998104,-8.381958E-11,1.021794E-07,-1.14642E-07,-4.750923E-08,-2.622604E-08
218.0407,0.04500166,-2.482503E-08,NaN,-0.326999,-1.369327E-07,NaN,0.4724649,3.706667E-08,NaN,-0.5272975,6.995486E-06,-0.3854172,-3.176424E-08,NaN,NaN,-0.01997833,-8.381958E-11,1.22743E-07,-1.146414E-07,-4.750923E-08,-2.622604E-08
218.0551,0.04500166,-2.482503E-08,NaN,-0.326999,-1.369327E-07,NaN,0.4724649,3.706667E-08,NaN,-0.5272975,6.995486E-06,-0.3854172,-3.176424E-08,NaN,NaN,-0.01997833,-8.381958E-11,1.22743E-07,-1.146414E-07,-4.750923E-08,-2.622604E-08
218.0691,0.04500166,-2.482393E-08,NaN,-0.326999,-1.369332E-07,NaN,0.4723377,3.720561E-08,NaN,-0.5277624,6.99617E-06,-0.3852749,-3.190092E-08,NaN,NaN,-0.01997713,-8.381958E-11,1.312366E-07,-1.146407E-07,-4.750923E-08,-2.622604E-08
218.0846,0.04500166,-2.482282E-08,NaN,-0.326999,-1.369337E-07,NaN,0.4722494,3.734197E-08,NaN,-0.5278943,6.996855E-06,-0.3851602,-3.203503E-08,NaN,NaN,-0.01997653,-8.381958E-11,1.36601E-07,-1.146401E-07,-4.512504E-08,-2.622604E-08
218.0996,0.04500166,-2.482282E-08,NaN,-0.326999,-1.369337E-07,NaN,0.4722494,3.734197E-08,NaN,-0.5278943,6.996855E-06,-0.3851602,-3.203503E-08,NaN,NaN,-0.01997653,-8.381958E-11,1.36601E-07,-1.146401E-07,-4.512504E-08,-2.622604E-08
218.1134,0.04500164,-2.482171E-08,NaN,-0.326999,-1.369343E-07,NaN,0.4720459,3.74758E-08,NaN,-0.5266345,6.997544E-06,-0.3848773,-3.216661E-08,NaN,NaN,-0.01997256,-8.847619E-11,1.680425E-07,-1.146394E-07,-4.512504E-08,-2.622604E-08
218.1287,0.04500163,-2.482061E-08,NaN,-0.326999,-1.369348E-07,NaN,0.4718717,3.760715E-08,NaN,-0.5246015,6.998228E-06,-0.3846008,-3.229571E-08,NaN,NaN,-0.01997025,-8.847619E-11,1.862219E-07,-1.146388E-07,-4.512504E-08,-2.622604E-08
218.1445,0.04500163,-2.48195E-08,NaN,-0.326999,-1.369353E-07,NaN,0.4717497,3.773608E-08,NaN,-0.5222207,6.998913E-06,-0.384375,-3.242238E-08,NaN,NaN,-0.01996861,-8.847619E-11,2.0008E-07,-1.146381E-07,-4.750923E-08,-2.622604E-08
218.159,0.04500163,-2.48195E-08,NaN,-0.326999,-1.369353E-07,NaN,0.4717497,3.773608E-08,NaN,-0.5222207,6.998913E-06,-0.384375,-3.242238E-08,NaN,NaN,-0.01996861,-8.847619E-11,2.0008E-07,-1.146381E-07,-4.750923E-08,-2.622604E-08
218.1732,0.04500162,-2.481839E-08,NaN,-0.326999,-1.369359E-07,NaN,0.4716653,3.786262E-08,NaN,-0.519695,6.999602E-06,-0.3841937,-3.254667E-08,NaN,NaN,-0.01996726,-9.313281E-11,2.106598E-07,-1.146375E-07,-4.035667E-08,-2.622604E-08
218.1876,0.0450016,-2.481729E-08,NaN,-0.326999,-1.369364E-07,NaN,0.471453,3.798683E-08,NaN,-0.5158885,7.000287E-06,-0.383843,-3.266862E-08,NaN,NaN,-0.01996232,-9.313281E-11,2.497009E-07,-1.146369E-07,-4.035667E-08,-2.622604E-08
218.2021,0.04500159,-2.481618E-08,NaN,-0.326999,-1.369369E-07,NaN,0.4712598,3.811016E-08,NaN,-0.5113822,7.000971E-06,-0.383495,-3.278969E-08,NaN,NaN,-0.01995902,-9.313281E-11,2.754799E-07,-1.146362E-07,-4.512504E-08,-2.622604E-08
218.2169,0.04500159,-2.481618E-08,NaN,-0.326999,-1.369369E-07,NaN,0.4712598,3.811016E-08,NaN,-0.5113822,7.000971E-06,-0.383495,-3.278969E-08,NaN,NaN,-0.01995902,-9.313281E-11,2.754799E-07,-1.146362E-07,-4.512504E-08,-2.622604E-08
218.2308,0.04500158,-2.481507E-08,NaN,-0.326999,-1.369374E-07,NaN,0.4711137,3.823121E-08,NaN,-0.5065832,7.001655E-06,-0.3831961,-3.29085E-08,NaN,NaN,-0.0199564,-9.313281E-11,2.954474E-07,-1.146356E-07,-4.512504E-08,-2.622604E-08
218.2464,0.04500157,-2.481397E-08,NaN,-0.326999,-1.369379E-07,NaN,0.4710035,3.835004E-08,NaN,-0.5016856,7.00234E-06,-0.3829426,-3.302507E-08,NaN,NaN,-0.01995407,-9.313281E-11,3.122857E-07,-1.14635E-07,-4.750923E-08,-2.622604E-08
218.2611,0.04500155,-2.481286E-08,NaN,-0.326999,-1.369384E-07,NaN,0.47076,3.846669E-08,NaN,-0.4955486,7.003024E-06,-0.3825174,-3.313946E-08,NaN,NaN,-0.01994788,-9.313281E-11,3.549031E-07,-1.146343E-07,-4.750923E-08,-2.622604E-08
218.2759,0.04500155,-2.481286E-08,NaN,-0.326999,-1.369384E-07,NaN,0.47076,3.846669E-08,NaN,-0.4955486,7.003024E-06,-0.3825174,-3.313946E-08,NaN,NaN,-0.01994788,-9.313281E-11,3.549031E-07,-1.146343E-07,-4.750923E-08,-2.622604E-08
218.2897,0.04500153,-2.481175E-08,NaN,-0.326999,-1.369389E-07,NaN,0.4705335,3.85812E-08,NaN,-0.4887508,7.003709E-06,-0.3820947,-3.325172E-08,NaN,NaN,-0.01994342,-9.313281E-11,3.866425E-07,-1.146337E-07,-4.750923E-08,-2.622604E-08
218.3053,0.04500151,-2.481065E-08,NaN,-0.326999,-1.369394E-07,NaN,0.4703551,3.86936E-08,NaN,-0.4816976,7.004393E-06,-0.381723,-3.336187E-08,NaN,NaN,-0.01993965,-9.313281E-11,4.122725E-07,-1.146331E-07,-5.22776E-08,-2.622604E-08
218.32,0.0450015,-2.480954E-08,NaN,-0.326999,-1.369399E-07,NaN,0.470215,3.880536E-08,NaN,-0.474582,7.005077E-06,-0.3813996,-3.347137E-08,NaN,NaN,-0.01993616,-9.313281E-11,4.349223E-07,-1.146325E-07,-5.466179E-08,-2.622604E-08
218.3347,0.0450015,-2.480954E-08,NaN,-0.326999,-1.369399E-07,NaN,0.470215,3.880536E-08,NaN,-0.474582,7.005077E-06,-0.3813996,-3.347137E-08,NaN,NaN,-0.01993616,-9.313281E-11,4.349223E-07,-1.146325E-07,-5.466179E-08,-2.622604E-08
218.3488,0.04500148,-2.480843E-08,NaN,-0.326999,-1.369404E-07,NaN,0.4700797,3.891508E-08,NaN,-0.4673505,7.005762E-06,-0.3810871,-3.357883E-08,NaN,NaN,-0.01993226,-9.313281E-11,4.583171E-07,-1.146319E-07,-5.22776E-08,-2.622604E-08
218.3656,0.04500147,-2.480733E-08,NaN,-0.326999,-1.369409E-07,NaN,0.469959,3.902279E-08,NaN,-0.460109,7.006446E-06,-0.3807971,-3.368429E-08,NaN,NaN,-0.01992861,-9.313281E-11,4.800728E-07,-1.146312E-07,-4.989341E-08,-2.622604E-08
218.379,0.04500147,-2.480733E-08,NaN,-0.326999,-1.369409E-07,NaN,0.469959,3.902279E-08,NaN,-0.460109,7.006446E-06,-0.3807971,-3.368429E-08,NaN,NaN,-0.01992861,-9.313281E-11,4.800728E-07,-1.146312E-07,-4.989341E-08,-2.622604E-08
218.3929,0.04500145,-2.480622E-08,NaN,-0.326999,-1.369414E-07,NaN,0.4698519,3.912853E-08,NaN,-0.4529227,7.007131E-06,-0.3805296,-3.378778E-08,NaN,NaN,-0.01992505,-9.313281E-11,5.010834E-07,-1.146306E-07,-4.512504E-08,-2.622604E-08
218.4094,0.04500144,-2.480511E-08,NaN,-0.326999,-1.369419E-07,NaN,0.4697551,3.923234E-08,NaN,-0.4458218,7.007815E-06,-0.3802805,-3.388934E-08,NaN,NaN,-0.0199215,-9.313281E-11,5.203059E-07,-1.1463E-07,-4.274085E-08,-2.622604E-08
218.4238,0.04500142,-2.4804E-08,NaN,-0.326999,-1.369424E-07,NaN,0.4696662,3.933425E-08,NaN,-0.4388198,7.008499E-06,-0.3800465,-3.398899E-08,NaN,NaN,-0.01991796,-9.313281E-11,5.387834E-07,-1.146294E-07,-3.797248E-08,-2.622604E-08
218.4375,0.04500142,-2.4804E-08,NaN,-0.326999,-1.369424E-07,NaN,0.4696662,3.933425E-08,NaN,-0.4388198,7.008499E-06,-0.3800465,-3.398899E-08,NaN,NaN,-0.01991796,-9.313281E-11,5.387834E-07,-1.146294E-07,-3.797248E-08,-2.622604E-08
218.4514,0.04500141,-2.480289E-08,NaN,-0.326999,-1.369429E-07,NaN,0.4695837,3.94343E-08,NaN,-0.4319225,7.009179E-06,-0.3798252,-3.408679E-08,NaN,NaN,-0.01991439,-8.847619E-11,5.562177E-07,-1.146288E-07,-3.55883E-08,-2.622604E-08
218.4669,0.0450014,-2.480178E-08,NaN,-0.326999,-1.369434E-07,NaN,0.4695071,3.953395E-08,NaN,-0.4251316,7.009859E-06,-0.379615,-3.418419E-08,NaN,NaN,-0.01991078,-8.381958E-11,5.730561E-07,-1.146282E-07,-3.320411E-08,-2.622604E-08
218.4815,0.04500139,-2.480068E-08,NaN,-0.326999,-1.369439E-07,NaN,0.4694362,3.963179E-08,NaN,-0.418447,7.010539E-06,-0.3794153,-3.427977E-08,NaN,NaN,-0.01990715,-7.916296E-11,5.887023E-07,-1.146276E-07,-3.320411E-08,-2.622604E-08
218.4963,0.04500139,-2.480068E-08,NaN,-0.326999,-1.369439E-07,NaN,0.4694362,3.963179E-08,NaN,-0.418447,7.010539E-06,-0.3794153,-3.427977E-08,NaN,NaN,-0.01990715,-7.916296E-11,5.887023E-07,-1.146276E-07,-3.320411E-08,-2.622604E-08
218.5104,0.04500138,-2.479957E-08,NaN,-0.326999,-1.369444E-07,NaN,0.4693713,3.972785E-08,NaN,-0.4118679,7.011219E-06,-0.3792256,-3.437358E-08,NaN,NaN,-0.01990348,-7.450635E-11,6.039015E-07,-1.14627E-07,-3.797248E-08,-2.622604E-08
218.5259,0.04500137,-2.479846E-08,NaN,-0.326999,-1.369449E-07,NaN,0.4693123,3.982218E-08,NaN,-0.4053929,7.011899E-06,-0.3790454,-3.446566E-08,NaN,NaN,-0.01989977,-6.984973E-11,6.188026E-07,-1.146264E-07,-3.797248E-08,-2.622604E-08
218.5407,0.04500136,-2.479735E-08,NaN,-0.326999,-1.36945E-07,NaN,0.4692595,3.942707E-08,NaN,-0.3990207,7.012578E-06,-0.3788748,-3.406829E-08,NaN,NaN,-0.01989602,-6.519311E-11,6.325117E-07,-1.146265E-07,-3.558829E-08,-2.622604E-08
218.5553,0.04500136,-2.479735E-08,NaN,-0.326999,-1.36945E-07,NaN,0.4692595,3.942707E-08,NaN,-0.3990207,7.012578E-06,-0.3788748,-3.406829E-08,NaN,NaN,-0.01989602,-6.519311E-11,6.325117E-07,-1.146265E-07,-3.558829E-08,-2.622604E-08
218.5693,0.04500135,-2.479624E-08,NaN,-0.326999,-1.369451E-07,NaN,0.469213,3.904268E-08,NaN,-0.3927497,7.013258E-06,-0.3787135,-3.368164E-08,NaN,NaN,-0.01989223,-6.05365E-11,6.459227E-07,-1.146266E-07,-4.035666E-08,-2.622604E-08
218.5849,0.04500134,-2.479513E-08,NaN,-0.326999,-1.369452E-07,NaN,0.469173,3.866596E-08,NaN,-0.3865782,7.013938E-06,-0.3785614,-3.330267E-08,NaN,NaN,-0.01988839,-5.587989E-11,6.591848E-07,-1.146267E-07,-3.320411E-08,-2.622604E-08
218.5993,0.04500134,-2.479513E-08,NaN,-0.326999,-1.369452E-07,NaN,0.469173,3.866596E-08,NaN,-0.3865782,7.013938E-06,-0.3785614,-3.330267E-08,NaN,NaN,-0.01988839,-5.587989E-11,6.591848E-07,-1.146267E-07,-3.320411E-08,-2.622604E-08
218.6133,0.04500132,-2.479402E-08,NaN,-0.326999,-1.369453E-07,NaN,0.4691393,3.829818E-08,NaN,-0.3805048,7.014618E-06,-0.3784184,-3.293263E-08,NaN,NaN,-0.01988451,-5.122328E-11,6.719998E-07,-1.146268E-07,-3.081992E-08,-2.622604E-08
218.629,0.04500131,-2.479292E-08,NaN,-0.326999,-1.369454E-07,NaN,0.4691122,3.793776E-08,NaN,-0.3745278,7.015298E-06,-0.3782845,-3.256996E-08,NaN,NaN,-0.01988058,-4.656666E-11,6.828776E-07,-1.146269E-07,-3.081992E-08,-2.622604E-08
218.6436,0.0450013,-2.479181E-08,NaN,-0.326999,-1.369455E-07,NaN,0.4690916,3.758456E-08,NaN,-0.3686458,7.015969E-06,-0.3781595,-3.221449E-08,NaN,NaN,-0.0198766,-3.259682E-11,6.937555E-07,-1.14627E-07,-3.320411E-08,-2.622604E-08
218.6581,0.0450013,-2.479181E-08,NaN,-0.326999,-1.369455E-07,NaN,0.4690916,3.758456E-08,NaN,-0.3686458,7.015969E-06,-0.3781595,-3.221449E-08,NaN,NaN,-0.0198766,-3.259682E-11,6.937555E-07,-1.14627E-07,-3.320411E-08,-2.622604E-08
218.6743,0.04500129,-2.47907E-08,NaN,-0.326999,-1.369456E-07,NaN,0.4690776,3.723842E-08,NaN,-0.3628572,7.016648E-06,-0.3780433,-3.18661E-08,NaN,NaN,-0.01987256,-2.794021E-11,7.035902E-07,-1.146271E-07,-3.320411E-08,-2.622604E-08
218.6892,0.04500128,-2.478959E-08,NaN,-0.326999,-1.369457E-07,NaN,0.4690701,3.689921E-08,NaN,-0.3571606,7.017324E-06,-0.3779359,-3.152464E-08,NaN,NaN,-0.01986847,-1.862699E-11,7.14021E-07,-1.146272E-07,-3.797248E-08,-2.622604E-08
218.7023,0.04500127,-2.478848E-08,NaN,-0.326999,-1.369458E-07,NaN,0.4690692,3.65668E-08,NaN,-0.3515545,7.017999E-06,-0.377837,-3.118998E-08,NaN,NaN,-0.01986433,-9.313762E-12,7.238558E-07,-1.146273E-07,-3.558829E-08,-2.622604E-08
218.7168,0.04500127,-2.478848E-08,NaN,-0.326999,-1.369458E-07,NaN,0.4690692,3.65668E-08,NaN,-0.3515545,7.017999E-06,-0.377837,-3.118998E-08,NaN,NaN,-0.01986433,-9.313762E-12,7.238558E-07,-1.146273E-07,-3.558829E-08,-2.622604E-08
218.7309,0.04500126,-2.478737E-08,NaN,-0.326999,-1.36946E-07,NaN,0.4690748,3.624106E-08,NaN,-0.3460375,7.018683E-06,-0.3777468,-3.086198E-08,NaN,NaN,-0.01986012,-9.313762E-12,7.320514E-07,-1.146274E-07,-3.558829E-08,-2.622604E-08
218.7463,0.04500125,-2.478627E-08,NaN,-0.326999,-1.369461E-07,NaN,0.4690869,3.592185E-08,NaN,-0.3406081,7.019359E-06,-0.3776649,-3.054052E-08,NaN,NaN,-0.01985586,-5.360296E-16,7.405451E-07,-1.146275E-07,-3.081992E-08,-2.622604E-08
218.7611,0.04500123,-2.478516E-08,NaN,-0.326999,-1.369462E-07,NaN,0.4691056,3.560905E-08,NaN,-0.335265,7.020043E-06,-0.3775915,-3.022546E-08,NaN,NaN,-0.01985153,-5.360296E-16,7.479957E-07,-1.146276E-07,-3.797248E-08,-2.622604E-08
218.776,0.04500123,-2.478516E-08,NaN,-0.326999,-1.369462E-07,NaN,0.4691056,3.560905E-08,NaN,-0.335265,7.020043E-06,-0.3775915,-3.022546E-08,NaN,NaN,-0.01985153,-5.360296E-16,7.479957E-07,-1.146276E-07,-3.797248E-08,-2.622604E-08
218.7899,0.04500122,-2.478405E-08,NaN,-0.326999,-1.369463E-07,NaN,0.4691308,3.530253E-08,NaN,-0.3300068,7.020718E-06,-0.3775263,-2.991668E-08,NaN,NaN,-0.01984714,9.31269E-12,7.552973E-07,-1.146277E-07,-2.843573E-08,-2.622604E-08
218.8052,0.04500121,-2.478294E-08,NaN,-0.326999,-1.369464E-07,NaN,0.4691626,3.500216E-08,NaN,-0.3248321,7.021403E-06,-0.3774692,-2.961406E-08,NaN,NaN,-0.01984268,9.31269E-12,7.624498E-07,-1.146278E-07,-2.843573E-08,-2.622604E-08
218.8202,0.0450012,-2.478183E-08,NaN,-0.326999,-1.369465E-07,NaN,0.4692007,3.470783E-08,NaN,-0.3197397,7.022083E-06,-0.3774203,-2.931747E-08,NaN,NaN,-0.01983815,1.39693E-11,7.699004E-07,-1.146279E-07,-2.605155E-08,-2.622604E-08
218.8362,0.0450012,-2.478183E-08,NaN,-0.326999,-1.369465E-07,NaN,0.4692007,3.470783E-08,NaN,-0.3197397,7.022083E-06,-0.3774203,-2.931747E-08,NaN,NaN,-0.01983815,1.39693E-11,7.699004E-07,-1.146279E-07,-2.605155E-08,-2.622604E-08
218.8489,0.04500119,-2.478072E-08,NaN,-0.326999,-1.369466E-07,NaN,0.4692454,3.441942E-08,NaN,-0.3147282,7.022762E-06,-0.3773795,-2.902681E-08,NaN,NaN,-0.01983356,1.862592E-11,7.767549E-07,-1.14628E-07,-2.843573E-08,-2.622604E-08
218.8642,0.04500118,-2.477961E-08,NaN,-0.326999,-1.369468E-07,NaN,0.4692965,3.413681E-08,NaN,-0.3097963,7.023442E-06,-0.3773465,-2.874194E-08,NaN,NaN,-0.01982889,2.328253E-11,7.830134E-07,-1.146282E-07,-2.366736E-08,-2.622604E-08
218.8797,0.04500118,-2.477961E-08,NaN,-0.326999,-1.369468E-07,NaN,0.4692965,3.413681E-08,NaN,-0.3097963,7.023442E-06,-0.3773465,-2.874194E-08,NaN,NaN,-0.01982889,2.328253E-11,7.830134E-07,-1.146282E-07,-2.366736E-08,-2.622604E-08
218.8932,0.04500117,-2.477851E-08,NaN,-0.326999,-1.369469E-07,NaN,0.469354,3.385989E-08,NaN,-0.3049428,7.024122E-06,-0.3773215,-2.846277E-08,NaN,NaN,-0.01982414,2.793914E-11,7.892718E-07,-1.146283E-07,-2.128318E-08,-2.622604E-08
218.9087,0.04500116,-2.47774E-08,NaN,-0.326999,-1.36947E-07,NaN,0.4694179,3.358852E-08,NaN,-0.3001664,7.024802E-06,-0.3773042,-2.818914E-08,NaN,NaN,-0.01981931,3.259575E-11,7.947853E-07,-1.146284E-07,-2.366736E-08,-2.622604E-08
218.9241,0.04500115,-2.477629E-08,NaN,-0.326999,-1.369471E-07,NaN,0.4694882,3.332261E-08,NaN,-0.2954659,7.025482E-06,-0.3772947,-2.792098E-08,NaN,NaN,-0.01981441,3.725236E-11,8.013417E-07,-1.146285E-07,-2.843573E-08,-2.622604E-08
218.9388,0.04500115,-2.477629E-08,NaN,-0.326999,-1.369471E-07,NaN,0.4694882,3.332261E-08,NaN,-0.2954659,7.025482E-06,-0.3772947,-2.792098E-08,NaN,NaN,-0.01981441,3.725236E-11,8.013417E-07,-1.146285E-07,-2.843573E-08,-2.622604E-08
218.9518,0.04500113,-2.477518E-08,NaN,-0.326999,-1.369472E-07,NaN,0.4695649,3.306207E-08,NaN,-0.2908401,7.026162E-06,-0.3772928,-2.765818E-08,NaN,NaN,-0.01980942,4.190898E-11,8.059611E-07,-1.146286E-07,-2.843573E-08,-2.622604E-08
218.9674,0.04500112,-2.477407E-08,NaN,-0.326999,-1.369473E-07,NaN,0.469648,3.280678E-08,NaN,-0.2862878,7.026842E-06,-0.3772985,-2.740064E-08,NaN,NaN,-0.01980435,4.656559E-11,8.099844E-07,-1.146287E-07,-2.128317E-08,-2.622604E-08
218.9818,0.04500111,-2.477296E-08,NaN,-0.326999,-1.369474E-07,NaN,0.4697375,3.255665E-08,NaN,-0.2818078,7.027521E-06,-0.3773118,-2.714825E-08,NaN,NaN,-0.01979919,5.12222E-11,8.138587E-07,-1.146288E-07,-2.128317E-08,-2.622604E-08
218.9967,0.04500111,-2.477296E-08,NaN,-0.326999,-1.369474E-07,NaN,0.4697375,3.255665E-08,NaN,-0.2818078,7.027521E-06,-0.3773118,-2.714825E-08,NaN,NaN,-0.01979919,5.12222E-11,8.138587E-07,-1.146288E-07,-2.128317E-08,-2.622604E-08
219.0107,0.0450011,-2.477186E-08,NaN,-0.326999,-1.369475E-07,NaN,0.4698332,3.231156E-08,NaN,-0.2773991,7.028201E-06,-0.3773324,-2.690091E-08,NaN,NaN,-0.01979395,5.587881E-11,8.181801E-07,-1.146289E-07,-2.128317E-08,-2.622604E-08
219.0262,0.0450011,-2.477075E-08,NaN,-0.326999,-1.369477E-07,NaN,0.4699353,3.207143E-08,NaN,-0.2730604,7.028881E-06,-0.3773605,-2.665852E-08,NaN,NaN,-0.01978861,6.053542E-11,8.219054E-07,-1.14629E-07,-1.889899E-08,-2.622604E-08
219.0408,0.04500109,-2.476964E-08,NaN,-0.326999,-1.369478E-07,NaN,0.4700437,3.183616E-08,NaN,-0.2687907,7.029561E-06,-0.3773959,-2.6421E-08,NaN,NaN,-0.01978318,6.519204E-11,8.256307E-07,-1.146291E-07,-1.65148E-08,-2.622604E-08
219.0554,0.04500109,-2.476964E-08,NaN,-0.326999,-1.369478E-07,NaN,0.4700437,3.183616E-08,NaN,-0.2687907,7.029561E-06,-0.3773959,-2.6421E-08,NaN,NaN,-0.01978318,6.519204E-11,8.256307E-07,-1.146291E-07,-1.65148E-08,-2.622604E-08
219.0696,0.04500108,-2.476853E-08,NaN,-0.326999,-1.369479E-07,NaN,0.4701583,3.160564E-08,NaN,-0.2645888,7.030241E-06,-0.3774386,-2.618822E-08,NaN,NaN,-0.01977765,6.984865E-11,8.30101E-07,-1.146292E-07,-1.65148E-08,-2.622604E-08
219.085,0.04500107,-2.476742E-08,NaN,-0.326999,-1.36948E-07,NaN,0.4702792,3.137979E-08,NaN,-0.2604537,7.030921E-06,-0.3774884,-2.596012E-08,NaN,NaN,-0.01977202,7.450527E-11,8.323362E-07,-1.146293E-07,-1.65148E-08,-2.622604E-08
219.1,0.04500107,-2.476742E-08,NaN,-0.326999,-1.36948E-07,NaN,0.4702792,3.137979E-08,NaN,-0.2604537,7.030921E-06,-0.3774884,-2.596012E-08,NaN,NaN,-0.01977202,7.450527E-11,8.323362E-07,-1.146293E-07,-1.65148E-08,-2.622604E-08
219.1141,0.04500107,-2.476631E-08,NaN,-0.326999,-1.369481E-07,NaN,0.4704064,3.115711E-08,NaN,-0.2563843,7.0316E-06,-0.3775454,-2.573518E-08,NaN,NaN,-0.01976629,7.916189E-11,8.342734E-07,-1.146294E-07,-1.889899E-08,-2.622604E-08
219.1296,0.04500106,-2.47652E-08,NaN,-0.326999,-1.369482E-07,NaN,0.4705397,3.093893E-08,NaN,-0.2523796,7.03228E-06,-0.3776096,-2.551475E-08,NaN,NaN,-0.01976046,8.38185E-11,8.357634E-07,-1.146295E-07,-1.889899E-08,-2.622604E-08
219.1445,0.04500105,-2.476409E-08,NaN,-0.326999,-1.369483E-07,NaN,0.4706793,3.072519E-08,NaN,-0.2484385,7.03296E-06,-0.3776807,-2.529876E-08,NaN,NaN,-0.01975452,8.847512E-11,8.369556E-07,-1.146296E-07,-1.413062E-08,-2.622604E-08
219.1588,0.04500105,-2.476409E-08,NaN,-0.326999,-1.369483E-07,NaN,0.4706793,3.072519E-08,NaN,-0.2484385,7.03296E-06,-0.3776807,-2.529876E-08,NaN,NaN,-0.01975452,8.847512E-11,8.369556E-07,-1.146296E-07,-1.413062E-08,-2.622604E-08
219.1749,0.04500104,-2.476298E-08,NaN,-0.326999,-1.369485E-07,NaN,0.4708251,3.051577E-08,NaN,-0.2445601,7.03364E-06,-0.3777588,-2.508709E-08,NaN,NaN,-0.01974847,9.313173E-11,8.393397E-07,-1.146297E-07,-1.889899E-08,-2.622604E-08
219.1891,0.04500104,-2.476187E-08,NaN,-0.326999,-1.369486E-07,NaN,0.470977,3.030921E-08,NaN,-0.2407433,7.03432E-06,-0.3778438,-2.487827E-08,NaN,NaN,-0.0197423,9.778835E-11,8.402338E-07,-1.146298E-07,-1.65148E-08,-2.622604E-08
219.2027,0.04500103,-2.476076E-08,NaN,-0.326999,-1.369487E-07,NaN,0.4711351,3.010683E-08,NaN,-0.2369872,7.035E-06,-0.3779356,-2.467364E-08,NaN,NaN,-0.01973602,1.02445E-10,8.4232E-07,-1.146299E-07,-1.413062E-08,-2.622604E-08
219.2176,0.04500103,-2.476076E-08,NaN,-0.326999,-1.369487E-07,NaN,0.4711351,3.010683E-08,NaN,-0.2369872,7.035E-06,-0.3779356,-2.467364E-08,NaN,NaN,-0.01973602,1.02445E-10,8.4232E-07,-1.146299E-07,-1.413062E-08,-2.622604E-08
219.2316,0.04500102,-2.475965E-08,NaN,-0.326999,-1.369488E-07,NaN,0.4712992,2.990857E-08,NaN,-0.2332908,7.035684E-06,-0.3780343,-2.447313E-08,NaN,NaN,-0.01972962,1.02445E-10,8.42618E-07,-1.1463E-07,-1.413062E-08,-2.622604E-08
219.2472,0.04500102,-2.475854E-08,NaN,-0.326999,-1.369489E-07,NaN,0.4714695,2.971435E-08,NaN,-0.2296531,7.036359E-06,-0.3781397,-2.427665E-08,NaN,NaN,-0.0197231,1.117582E-10,8.441081E-07,-1.146301E-07,-1.413062E-08,-2.622604E-08
219.2617,0.04500101,-2.475743E-08,NaN,-0.326999,-1.36949E-07,NaN,0.4716458,2.952408E-08,NaN,-0.2260733,7.037044E-06,-0.3782518,-2.408413E-08,NaN,NaN,-0.01971646,1.117582E-10,8.444061E-07,-1.146302E-07,-6.978061E-09,-2.622604E-08
219.2765,0.04500101,-2.475743E-08,NaN,-0.326999,-1.36949E-07,NaN,0.4716458,2.952408E-08,NaN,-0.2260733,7.037044E-06,-0.3782518,-2.408413E-08,NaN,NaN,-0.01971646,1.117582E-10,8.444061E-07,-1.146302E-07,-6.978061E-09,-2.622604E-08
219.2918,0.045001,-2.475632E-08,NaN,-0.326999,-1.369491E-07,NaN,0.4718282,2.933768E-08,NaN,-0.2225504,7.037728E-06,-0.3783705,-2.389548E-08,NaN,NaN,-0.01970969,1.117582E-10,8.447042E-07,-1.146303E-07,-6.978061E-09,-2.622604E-08
219.3062,0.04500099,-2.475521E-08,NaN,-0.326999,-1.369492E-07,NaN,0.4720166,2.91551E-08,NaN,-0.2190835,7.038413E-06,-0.3784958,-2.371064E-08,NaN,NaN,-0.01970279,1.117582E-10,8.447042E-07,-1.146304E-07,-4.593876E-09,-2.622604E-08
219.3206,0.04500099,-2.47541E-08,NaN,-0.326999,-1.369493E-07,NaN,0.472211,2.897623E-08,NaN,-0.2156717,7.039088E-06,-0.3786277,-2.352952E-08,NaN,NaN,-0.01969576,1.210714E-10,8.441081E-07,-1.146305E-07,-2.20969E-09,-2.622604E-08
219.3356,0.04500099,-2.47541E-08,NaN,-0.326999,-1.369493E-07,NaN,0.472211,2.897623E-08,NaN,-0.2156717,7.039088E-06,-0.3786277,-2.352952E-08,NaN,NaN,-0.01969576,1.210714E-10,8.441081E-07,-1.146305E-07,-2.20969E-09,-2.622604E-08
219.3497,0.04500098,-2.475299E-08,NaN,-0.326999,-1.369494E-07,NaN,0.4724114,2.880102E-08,NaN,-0.2123141,7.039772E-06,-0.378766,-2.335206E-08,NaN,NaN,-0.0196886,1.210714E-10,8.42916E-07,-1.146306E-07,-2.20969E-09,-2.622604E-08
219.365,0.04500097,-2.475188E-08,NaN,-0.326999,-1.369495E-07,NaN,0.4726177,2.86294E-08,NaN,-0.2090099,7.040448E-06,-0.3789107,-2.317818E-08,NaN,NaN,-0.01968129,1.303846E-10,8.423199E-07,-1.146307E-07,1.74496E-10,-2.622604E-08
219.3797,0.04500097,-2.475188E-08,NaN,-0.326999,-1.369495E-07,NaN,0.4726177,2.86294E-08,NaN,-0.2090099,7.040448E-06,-0.3789107,-2.317818E-08,NaN,NaN,-0.01968129,1.303846E-10,8.423199E-07,-1.146307E-07,1.74496E-10,-2.622604E-08
219.3937,0.04500096,-2.475077E-08,NaN,-0.326999,-1.369496E-07,NaN,0.4728299,2.846128E-08,NaN,-0.2057582,7.041132E-06,-0.3790618,-2.300782E-08,NaN,NaN,-0.01967384,1.303846E-10,8.417239E-07,-1.146308E-07,1.74496E-10,-2.622604E-08
219.4094,0.04500096,-2.474966E-08,NaN,-0.326999,-1.369497E-07,NaN,0.473048,2.829661E-08,NaN,-0.2025582,7.041816E-06,-0.3792192,-2.284089E-08,NaN,NaN,-0.01966625,1.303846E-10,8.405318E-07,-1.146309E-07,1.74496E-10,-2.622604E-08
219.4237,0.04500095,-2.474855E-08,NaN,-0.326999,-1.369498E-07,NaN,0.4732719,2.813532E-08,NaN,-0.1994091,7.042501E-06,-0.3793828,-2.267735E-08,NaN,NaN,-0.01965851,1.303846E-10,8.396377E-07,-1.14631E-07,4.942867E-09,-2.622604E-08
219.4397,0.04500095,-2.474855E-08,NaN,-0.326999,-1.369498E-07,NaN,0.4732719,2.813532E-08,NaN,-0.1994091,7.042501E-06,-0.3793828,-2.267735E-08,NaN,NaN,-0.01965851,1.303846E-10,8.396377E-07,-1.14631E-07,4.942867E-09,-2.622604E-08
219.4536,0.04500094,-2.474744E-08,NaN,-0.326999,-1.369499E-07,NaN,0.4735016,2.797733E-08,NaN,-0.1963101,7.043176E-06,-0.3795526,-2.251711E-08,NaN,NaN,-0.01965063,1.396979E-10,8.387436E-07,-1.14631E-07,4.942867E-09,-2.622604E-08
219.4679,0.04500093,-2.474633E-08,NaN,-0.326999,-1.3695E-07,NaN,0.4737371,2.782259E-08,NaN,-0.1932603,7.04386E-06,-0.3797286,-2.236011E-08,NaN,NaN,-0.01964258,1.396979E-10,8.375515E-07,-1.146311E-07,2.558682E-09,-2.622604E-08
219.4824,0.04500093,-2.474522E-08,NaN,-0.326999,-1.369501E-07,NaN,0.4739783,2.767103E-08,NaN,-0.1902591,7.044536E-06,-0.3799106,-2.22063E-08,NaN,NaN,-0.01963438,1.490111E-10,8.360614E-07,-1.146312E-07,4.942867E-09,-2.622604E-08
219.4972,0.04500093,-2.474522E-08,NaN,-0.326999,-1.369501E-07,NaN,0.4739783,2.767103E-08,NaN,-0.1902591,7.044536E-06,-0.3799106,-2.22063E-08,NaN,NaN,-0.01963438,1.490111E-10,8.360614E-07,-1.146312E-07,4.942867E-09,-2.622604E-08
219.5114,0.04500092,-2.474411E-08,NaN,-0.326999,-1.369502E-07,NaN,0.4742251,2.752259E-08,NaN,-0.1873055,7.04522E-06,-0.3800986,-2.205561E-08,NaN,NaN,-0.01962602,1.490111E-10,8.342732E-07,-1.146313E-07,9.711239E-09,-2.622604E-08
219.5268,0.04500091,-2.4743E-08,NaN,-0.326999,-1.369503E-07,NaN,0.4744776,2.737721E-08,NaN,-0.1843989,7.045905E-06,-0.3802925,-2.190798E-08,NaN,NaN,-0.0196175,1.490111E-10,8.330811E-07,-1.146314E-07,9.711239E-09,-2.622604E-08
219.5416,0.0450009,-2.474189E-08,NaN,-0.326999,-1.369504E-07,NaN,0.4747357,2.723482E-08,NaN,-0.1815386,7.04658E-06,-0.3804923,-2.176333E-08,NaN,NaN,-0.01960881,1.583243E-10,8.324851E-07,-1.146315E-07,4.942867E-09,-2.622604E-08
219.5562,0.0450009,-2.474189E-08,NaN,-0.326999,-1.369504E-07,NaN,0.4747357,2.723482E-08,NaN,-0.1815386,7.04658E-06,-0.3804923,-2.176333E-08,NaN,NaN,-0.01960881,1.583243E-10,8.324851E-07,-1.146315E-07,4.942867E-09,-2.622604E-08
219.5704,0.0450009,-2.474078E-08,NaN,-0.326999,-1.369505E-07,NaN,0.4749993,2.709537E-08,NaN,-0.1787237,7.047264E-06,-0.3806979,-2.162163E-08,NaN,NaN,-0.01959995,1.583243E-10,8.30995E-07,-1.146316E-07,4.942867E-09,-2.622604E-08
219.5859,0.04500089,-2.473967E-08,NaN,-0.326999,-1.369506E-07,NaN,0.4752684,2.69588E-08,NaN,-0.1759535,7.047949E-06,-0.3809093,-2.14828E-08,NaN,NaN,-0.01959092,1.583243E-10,8.286108E-07,-1.146317E-07,4.942867E-09,-2.622604E-08
219.601,0.04500088,-2.473856E-08,NaN,-0.326999,-1.369507E-07,NaN,0.4755429,2.682505E-08,NaN,-0.1732275,7.048633E-06,-0.3811263,-2.13468E-08,NaN,NaN,-0.01958171,1.583243E-10,8.283127E-07,-1.146318E-07,1.209543E-08,-2.622604E-08
219.6152,0.04500088,-2.473856E-08,NaN,-0.326999,-1.369507E-07,NaN,0.4755429,2.682505E-08,NaN,-0.1732275,7.048633E-06,-0.3811263,-2.13468E-08,NaN,NaN,-0.01958171,1.583243E-10,8.283127E-07,-1.146318E-07,1.209543E-08,-2.622604E-08
219.6293,0.04500087,-2.473745E-08,NaN,-0.326999,-1.369508E-07,NaN,0.4758228,2.669408E-08,NaN,-0.1705447,7.049308E-06,-0.3813489,-2.121357E-08,NaN,NaN,-0.01957233,1.676376E-10,8.277167E-07,-1.146319E-07,7.327054E-09,-2.622604E-08
219.6447,0.04500087,-2.473634E-08,NaN,-0.326999,-1.369509E-07,NaN,0.476108,2.65644E-08,NaN,-0.1679047,7.049993E-06,-0.3815771,-2.108165E-08,NaN,NaN,-0.01956278,1.676376E-10,8.253325E-07,-1.14632E-07,7.327054E-09,-2.622604E-08
219.6597,0.04500087,-2.473634E-08,NaN,-0.326999,-1.369509E-07,NaN,0.476108,2.65644E-08,NaN,-0.1679047,7.049993E-06,-0.3815771,-2.108165E-08,NaN,NaN,-0.01956278,1.676376E-10,8.253325E-07,-1.14632E-07,7.327054E-09,-2.622604E-08
219.6736,0.04500086,-2.473523E-08,NaN,-0.326999,-1.36951E-07,NaN,0.4763985,2.643742E-08,NaN,-0.1653066,7.050668E-06,-0.3818107,-2.095241E-08,NaN,NaN,-0.01955303,1.769508E-10,8.241404E-07,-1.146321E-07,9.71124E-09,-2.622604E-08
219.6909,0.04500085,-2.473412E-08,NaN,-0.326999,-1.369511E-07,NaN,0.4766942,2.631307E-08,NaN,-0.1627498,7.051352E-06,-0.3820496,-2.082581E-08,NaN,NaN,-0.01954309,1.769508E-10,8.202661E-07,-1.146322E-07,9.71124E-09,-2.622604E-08
219.7044,0.04500084,-2.4733E-08,NaN,-0.326999,-1.369512E-07,NaN,0.476995,2.619131E-08,NaN,-0.1602337,7.052037E-06,-0.3822939,-2.070179E-08,NaN,NaN,-0.01953296,1.769508E-10,8.1818E-07,-1.146323E-07,1.447961E-08,-2.622604E-08
219.7182,0.04500084,-2.4733E-08,NaN,-0.326999,-1.369512E-07,NaN,0.476995,2.619131E-08,NaN,-0.1602337,7.052037E-06,-0.3822939,-2.070179E-08,NaN,NaN,-0.01953296,1.769508E-10,8.1818E-07,-1.146323E-07,1.447961E-08,-2.622604E-08
219.7323,0.04500084,-2.473189E-08,NaN,-0.326999,-1.369513E-07,NaN,0.4773008,2.607067E-08,NaN,-0.1577577,7.052721E-06,-0.3825433,-2.05789E-08,NaN,NaN,-0.01952264,1.722942E-10,8.163918E-07,-1.146309E-07,1.924798E-08,-2.622604E-08
219.7474,0.04500083,-2.473078E-08,NaN,-0.326999,-1.36951E-07,NaN,0.4776116,2.590617E-08,NaN,-0.155321,7.053392E-06,-0.3827979,-2.041214E-08,NaN,NaN,-0.01951213,1.816074E-10,8.146037E-07,-1.146307E-07,2.163217E-08,-2.622604E-08
219.7636,0.04500082,-2.472967E-08,NaN,-0.326999,-1.369509E-07,NaN,0.4779274,2.576753E-08,NaN,-0.152923,7.054076E-06,-0.3830575,-2.027124E-08,NaN,NaN,-0.01950141,1.816074E-10,8.113254E-07,-1.146306E-07,2.401635E-08,-2.622604E-08
219.777,0.04500082,-2.472967E-08,NaN,-0.326999,-1.369509E-07,NaN,0.4779274,2.576753E-08,NaN,-0.152923,7.054076E-06,-0.3830575,-2.027124E-08,NaN,NaN,-0.01950141,1.816074E-10,8.113254E-07,-1.146306E-07,2.401635E-08,-2.622604E-08
219.791,0.04500081,-2.472856E-08,NaN,-0.326999,-1.369509E-07,NaN,0.4782479,2.5643E-08,NaN,-0.1505632,7.054761E-06,-0.3833221,-2.014445E-08,NaN,NaN,-0.0194905,1.816074E-10,8.098353E-07,-1.146306E-07,1.924798E-08,-2.622604E-08
219.8066,0.04500081,-2.472745E-08,NaN,-0.326999,-1.369505E-07,NaN,0.4786402,2.544376E-08,NaN,-0.1483838,7.055436E-06,-0.3836608,-1.994295E-08,NaN,NaN,-0.01948442,1.909207E-10,8.029808E-07,-1.146315E-07,2.401635E-08,-2.622604E-08
219.821,0.04500081,-2.472634E-08,NaN,-0.326999,-1.369501E-07,NaN,0.4790373,2.526824E-08,NaN,-0.1463255,7.056111E-06,-0.3840059,-1.976517E-08,NaN,NaN,-0.01947612,2.002339E-10,7.979144E-07,-1.146326E-07,2.640054E-08,-2.622604E-08
219.8361,0.04500081,-2.472634E-08,NaN,-0.326999,-1.369501E-07,NaN,0.4790373,2.526824E-08,NaN,-0.1463255,7.056111E-06,-0.3840059,-1.976517E-08,NaN,NaN,-0.01947612,2.002339E-10,7.979144E-07,-1.146326E-07,2.640054E-08,-2.622604E-08
219.8502,0.0450008,-2.472523E-08,NaN,-0.326999,-1.369499E-07,NaN,0.4794266,2.510475E-08,NaN,-0.1443408,7.056787E-06,-0.3843438,-1.959941E-08,NaN,NaN,-0.01946677,2.095471E-10,7.934441E-07,-1.146337E-07,2.878472E-08,-2.622604E-08
219.8654,0.0450008,-2.472412E-08,NaN,-0.326999,-1.369496E-07,NaN,0.4798091,2.494883E-08,NaN,-0.142407,7.057467E-06,-0.3846751,-1.944123E-08,NaN,NaN,-0.0194569,2.142037E-10,7.895698E-07,-1.146349E-07,3.116891E-08,-2.622604E-08
219.8801,0.0450008,-2.472301E-08,NaN,-0.326999,-1.369494E-07,NaN,0.4807941,2.479751E-08,NaN,-0.1417259,7.058146E-06,-0.3856279,-1.928765E-08,NaN,NaN,-0.0194942,2.188603E-10,7.597675E-07,-1.14636E-07,3.116891E-08,-2.622604E-08
219.8949,0.0450008,-2.472301E-08,NaN,-0.326999,-1.369494E-07,NaN,0.4807941,2.479751E-08,NaN,-0.1417259,7.058146E-06,-0.3856279,-1.928765E-08,NaN,NaN,-0.0194942,2.188603E-10,7.597675E-07,-1.14636E-07,3.116891E-08,-2.622604E-08
219.9092,0.04500081,-2.47219E-08,NaN,-0.326999,-1.369493E-07,NaN,0.4817628,2.465072E-08,NaN,-0.1417963,7.058826E-06,-0.3865765,-1.913859E-08,NaN,NaN,-0.01951193,2.235169E-10,7.377138E-07,-1.146372E-07,3.35531E-08,-2.622604E-08
219.9242,0.04500081,-2.472079E-08,NaN,-0.326999,-1.369491E-07,NaN,0.4826132,2.450694E-08,NaN,-0.1422158,7.059506E-06,-0.3874114,-1.899256E-08,NaN,NaN,-0.01952131,2.281735E-10,7.216205E-07,-1.146384E-07,3.593728E-08,-2.622604E-08
219.9388,0.04500081,-2.472079E-08,NaN,-0.326999,-1.369491E-07,NaN,0.4826132,2.450694E-08,NaN,-0.1422158,7.059506E-06,-0.3874114,-1.899256E-08,NaN,NaN,-0.01952131,2.281735E-10,7.216205E-07,-1.146384E-07,3.593728E-08,-2.622604E-08
