JMolnar6/NonAnthroHands_User_Study/HandsLoggerWithURDF/tempdata/files/Reachy_JointMotion_gesture_7_35.csv
Time,r_shoulder,r_shoulder_x,r_upper_arm,r_forearm,r_wrist,r_wrist2hand,
437.9105,-0.09804666,-1.325068E-08,NaN,-0.3271307,-1.345746E-07,NaN,0.4551589,-1.70189E-08,NaN,-2.170015,1.39919E-05,-0.3691141,4.580888E-08,NaN,NaN,-0.05813712,6.658943E-10,-4.498385E-08,-1.127617E-07,1.382903E-08,-2.622604E-08
437.9264,-0.09840218,-1.324981E-08,NaN,-0.3271304,-1.345754E-07,NaN,0.4553004,-1.686951E-08,NaN,-2.169797,1.399243E-05,-0.3689601,4.566131E-08,NaN,NaN,-0.05738952,6.752075E-10,-4.852288E-08,-1.127636E-07,1.263694E-08,-2.622604E-08
437.9433,-0.0980264,-1.324894E-08,NaN,-0.327128,-1.345763E-07,NaN,0.4552792,-1.672577E-08,NaN,-2.169966,1.399296E-05,-0.3687757,4.551939E-08,NaN,NaN,-0.05665618,6.845207E-10,-4.397802E-08,-1.127656E-07,1.263694E-08,-2.622604E-08
437.9583,-0.0980264,-1.324894E-08,NaN,-0.327128,-1.345763E-07,NaN,0.4552792,-1.672577E-08,NaN,-2.169966,1.399296E-05,-0.3687757,4.551939E-08,NaN,NaN,-0.05665618,6.845207E-10,-4.397802E-08,-1.127656E-07,1.263694E-08,-2.622604E-08
437.9734,-0.09719204,-1.324807E-08,NaN,-0.3271247,-1.345771E-07,NaN,0.4551772,-1.658474E-08,NaN,-2.170249,1.399349E-05,-0.3686409,4.538017E-08,NaN,NaN,-0.05593726,6.938339E-10,-4.071839E-08,-1.127676E-07,1.382903E-08,-2.622604E-08
437.99,-0.09607262,-1.32472E-08,NaN,-0.3271211,-1.345779E-07,NaN,0.4550591,-1.644919E-08,NaN,-2.17054,1.399403E-05,-0.3685356,4.524644E-08,NaN,NaN,-0.05523252,7.031472E-10,-3.8893E-08,-1.127695E-07,7.868567E-09,-2.622604E-08
438.0057,-0.09477852,-1.324632E-08,NaN,-0.3271174,-1.345787E-07,NaN,0.4549524,-1.631901E-08,NaN,-2.1708,1.399456E-05,-0.3684404,4.511807E-08,NaN,NaN,-0.05454163,7.124604E-10,-3.662058E-08,-1.127715E-07,7.868567E-09,-2.622604E-08
438.0217,-0.09410822,-1.324545E-08,NaN,-0.3271163,-1.345796E-07,NaN,0.4550259,-1.619128E-08,NaN,-2.170637,1.399509E-05,-0.3683776,4.499216E-08,NaN,NaN,-0.0538647,7.217736E-10,-4.258104E-08,-1.127734E-07,3.100196E-09,-2.622604E-08
438.0374,-0.09410822,-1.324545E-08,NaN,-0.3271163,-1.345796E-07,NaN,0.4550259,-1.619128E-08,NaN,-2.170637,1.399509E-05,-0.3683776,4.499216E-08,NaN,NaN,-0.0538647,7.217736E-10,-4.258104E-08,-1.127734E-07,3.100196E-09,-2.622604E-08
438.0526,-0.09383322,-1.324458E-08,NaN,-0.327116,-1.345804E-07,NaN,0.4551963,-1.606876E-08,NaN,-2.170326,1.399562E-05,-0.3682644,4.487146E-08,NaN,NaN,-0.053201,7.310868E-10,-4.891404E-08,-1.127754E-07,1.908103E-09,-2.622604E-08
438.0691,-0.09380811,-1.324371E-08,NaN,-0.327116,-1.345812E-07,NaN,0.4553949,-1.594854E-08,NaN,-2.169981,1.399615E-05,-0.3681213,4.475305E-08,NaN,NaN,-0.05255027,7.404E-10,-5.431571E-08,-1.127773E-07,-4.76083E-10,-2.622604E-08
438.0848,-0.09393927,-1.324284E-08,NaN,-0.3271159,-1.34582E-07,NaN,0.4555907,-1.583339E-08,NaN,-2.169643,1.399668E-05,-0.3679684,4.463972E-08,NaN,NaN,-0.05191225,7.497132E-10,-5.794787E-08,-1.127793E-07,-6.436547E-09,-2.622604E-08
438.1008,-0.09489648,-1.324197E-08,NaN,-0.3271176,-1.345828E-07,NaN,0.4559368,-1.572039E-08,NaN,-2.168939,1.399723E-05,-0.3678451,4.452853E-08,NaN,NaN,-0.0512871,7.450566E-10,-6.929137E-08,-1.127812E-07,-7.62864E-09,-2.622604E-08
438.1166,-0.09489648,-1.324197E-08,NaN,-0.3271176,-1.345828E-07,NaN,0.4559368,-1.572039E-08,NaN,-2.168939,1.399723E-05,-0.3678451,4.452853E-08,NaN,NaN,-0.0512871,7.450566E-10,-6.929137E-08,-1.127812E-07,-7.62864E-09,-2.622604E-08
438.1313,-0.09636947,-1.32411E-08,NaN,-0.3271198,-1.345837E-07,NaN,0.4563496,-1.565613E-08,NaN,-2.168142,1.399777E-05,-0.3676768,4.446609E-08,NaN,NaN,-0.05067416,7.404E-10,-8.033686E-08,-1.127814E-07,-1.239701E-08,-2.861022E-08
438.1476,-0.09816082,-1.324023E-08,NaN,-0.3271219,-1.345843E-07,NaN,0.4567659,-1.569168E-08,NaN,-2.167356,1.39983E-05,-0.367485,4.450346E-08,NaN,NaN,-0.05007316,7.357434E-10,-9.004124E-08,-1.127812E-07,-1.239701E-08,-2.622604E-08
438.1635,-0.100145,-1.323935E-08,NaN,-0.3271235,-1.345846E-07,NaN,0.4571607,-1.57828E-08,NaN,-2.166615,1.399884E-05,-0.3672889,4.45964E-08,NaN,NaN,-0.04948389,7.264302E-10,-1.009005E-07,-1.127809E-07,-1.35891E-08,-2.861022E-08
438.1797,-0.100145,-1.323935E-08,NaN,-0.3271235,-1.345846E-07,NaN,0.4571607,-1.57828E-08,NaN,-2.166615,1.399884E-05,-0.3672889,4.45964E-08,NaN,NaN,-0.04948389,7.264302E-10,-1.009005E-07,-1.127809E-07,-1.35891E-08,-2.861022E-08
438.1946,-0.1029705,-1.323848E-08,NaN,-0.327127,-1.345847E-07,NaN,0.4576923,-1.590304E-08,NaN,-2.165535,1.399937E-05,-0.3671246,4.471846E-08,NaN,NaN,-0.04890653,7.264302E-10,-1.145537E-07,-1.127805E-07,-1.239701E-08,-2.622604E-08
438.2126,-0.1063134,-1.323761E-08,NaN,-0.3271308,-1.345847E-07,NaN,0.4582793,-1.603773E-08,NaN,-2.164384,1.399989E-05,-0.3669176,4.485497E-08,NaN,NaN,-0.04834042,7.264302E-10,-1.282068E-07,-1.127801E-07,-8.820733E-09,-2.861022E-08
438.2271,-0.109968,-1.323674E-08,NaN,-0.327134,-1.345847E-07,NaN,0.4588605,-1.618094E-08,NaN,-2.163264,1.400041E-05,-0.3666897,4.500002E-08,NaN,NaN,-0.04778534,7.264302E-10,-1.415434E-07,-1.127796E-07,-4.052361E-09,-2.622604E-08
438.2426,-0.1138033,-1.323587E-08,NaN,-0.3271362,-1.345847E-07,NaN,0.4594128,-1.632688E-08,NaN,-2.162202,1.400094E-05,-0.3664595,4.514779E-08,NaN,NaN,-0.04724108,7.17117E-10,-1.538927E-07,-1.12779E-07,-6.436547E-09,-2.861022E-08
438.2585,-0.1138033,-1.323587E-08,NaN,-0.3271362,-1.345847E-07,NaN,0.4594128,-1.632688E-08,NaN,-2.162202,1.400094E-05,-0.3664595,4.514779E-08,NaN,NaN,-0.04724108,7.17117E-10,-1.538927E-07,-1.12779E-07,-6.436547E-09,-2.861022E-08
438.2734,-0.1184646,-1.3235E-08,NaN,-0.3271401,-1.345846E-07,NaN,0.4600963,-1.647267E-08,NaN,-2.160816,1.400146E-05,-0.3662597,4.529542E-08,NaN,NaN,-0.04670783,7.17117E-10,-1.719045E-07,-1.127785E-07,-7.62864E-09,-2.622604E-08
438.29,-0.123626,-1.323413E-08,NaN,-0.3271435,-1.345845E-07,NaN,0.4608289,-1.66155E-08,NaN,-2.159372,1.400199E-05,-0.3660181,4.544007E-08,NaN,NaN,-0.04618496,7.078038E-10,-1.882399E-07,-1.12778E-07,-4.052361E-09,-2.861022E-08
438.3058,-0.1290804,-1.323326E-08,NaN,-0.3271458,-1.345845E-07,NaN,0.4615501,-1.675824E-08,NaN,-2.157967,1.400252E-05,-0.3657568,4.558465E-08,NaN,NaN,-0.04567226,7.078038E-10,-2.009059E-07,-1.127774E-07,-2.860268E-09,-2.622604E-08
438.3214,-0.1346963,-1.323238E-08,NaN,-0.3271467,-1.345844E-07,NaN,0.4622373,-1.689808E-08,NaN,-2.156632,1.400304E-05,-0.3654943,4.572633E-08,NaN,NaN,-0.04516956,6.984905E-10,-2.138326E-07,-1.127769E-07,-6.436547E-09,-2.861022E-08
438.3376,-0.1346963,-1.323238E-08,NaN,-0.3271467,-1.345844E-07,NaN,0.4622373,-1.689808E-08,NaN,-2.156632,1.400304E-05,-0.3654943,4.572633E-08,NaN,NaN,-0.04516956,6.984905E-10,-2.138326E-07,-1.127769E-07,-6.436547E-09,-2.861022E-08
438.3525,-0.1411185,-1.323151E-08,NaN,-0.3271488,-1.345843E-07,NaN,0.4630518,-1.703508E-08,NaN,-2.154983,1.400356E-05,-0.3652602,4.586517E-08,NaN,NaN,-0.04467703,6.984905E-10,-2.331855E-07,-1.127764E-07,-7.62864E-09,-2.622604E-08
438.3688,-0.1480211,-1.323064E-08,NaN,-0.32715,-1.345842E-07,NaN,0.4639103,-1.71693E-08,NaN,-2.153284,1.400408E-05,-0.3649848,4.600122E-08,NaN,NaN,-0.04419408,6.984905E-10,-2.526688E-07,-1.127759E-07,-4.760827E-10,-2.861022E-08
438.3844,-0.1551971,-1.322977E-08,NaN,-0.3271503,-1.345841E-07,NaN,0.4647521,-1.730078E-08,NaN,-2.151635,1.400459E-05,-0.3646915,4.613455E-08,NaN,NaN,-0.04372051,6.984905E-10,-2.692091E-07,-1.127753E-07,3.100196E-09,-2.622604E-08
438.4004,-0.1625149,-1.32289E-08,NaN,-0.32715,-1.345841E-07,NaN,0.4655554,-1.742958E-08,NaN,-2.150064,1.400512E-05,-0.3643986,4.626519E-08,NaN,NaN,-0.04325617,6.891773E-10,-2.838495E-07,-1.127748E-07,3.100196E-09,-2.861022E-08
438.4162,-0.1625149,-1.32289E-08,NaN,-0.32715,-1.345841E-07,NaN,0.4655554,-1.742958E-08,NaN,-2.150064,1.400512E-05,-0.3643986,4.626519E-08,NaN,NaN,-0.04325617,6.891773E-10,-2.838495E-07,-1.127748E-07,3.100196E-09,-2.861022E-08
438.4314,-0.1706195,-1.322803E-08,NaN,-0.3271506,-1.34584E-07,NaN,0.4664829,-1.755293E-08,NaN,-2.148186,1.400564E-05,-0.3641315,4.639038E-08,NaN,NaN,-0.04280124,6.891773E-10,-3.050091E-07,-1.127743E-07,-4.760827E-10,-2.622604E-08
438.4478,-0.1791852,-1.322716E-08,NaN,-0.3271506,-1.345839E-07,NaN,0.4674491,-1.767375E-08,NaN,-2.146268,1.400615E-05,-0.363824,4.651305E-08,NaN,NaN,-0.04235514,6.891773E-10,-3.25312E-07,-1.127737E-07,-6.436547E-09,-2.861022E-08
438.4637,-0.1880051,-1.322629E-08,NaN,-0.3271497,-1.345838E-07,NaN,0.4683941,-1.779211E-08,NaN,-2.144408,1.400667E-05,-0.3635002,4.663325E-08,NaN,NaN,-0.04191769,6.891773E-10,-3.428953E-07,-1.127732E-07,-1.001283E-08,-2.622604E-08
438.4794,-0.1880051,-1.322629E-08,NaN,-0.3271497,-1.345838E-07,NaN,0.4683941,-1.779211E-08,NaN,-2.144408,1.400667E-05,-0.3635002,4.663325E-08,NaN,NaN,-0.04191769,6.891773E-10,-3.428953E-07,-1.127732E-07,-1.001283E-08,-2.622604E-08
438.4947,-0.1976762,-1.322542E-08,NaN,-0.3271495,-1.345837E-07,NaN,0.4694626,-1.790805E-08,NaN,-2.142248,1.400719E-05,-0.3631934,4.675102E-08,NaN,NaN,-0.04148909,6.891773E-10,-3.663647E-07,-1.127727E-07,-1.239701E-08,-2.861022E-08
438.5109,-0.2078422,-1.322455E-08,NaN,-0.3271483,-1.345836E-07,NaN,0.4705611,-1.802161E-08,NaN,-2.140062,1.40077E-05,-0.3628458,4.686643E-08,NaN,NaN,-0.04106879,6.891773E-10,-3.8704E-07,-1.127722E-07,-1.120492E-08,-2.622604E-08
438.5269,-0.2182769,-1.322368E-08,NaN,-0.3271462,-1.345835E-07,NaN,0.4716287,-1.813285E-08,NaN,-2.137951,1.400823E-05,-0.3624841,4.69795E-08,NaN,NaN,-0.04065664,6.798641E-10,-4.065606E-07,-1.127717E-07,-1.239701E-08,-2.861022E-08
438.5428,-0.228837,-1.322281E-08,NaN,-0.327143,-1.345835E-07,NaN,0.4726454,-1.82418E-08,NaN,-2.135941,1.400874E-05,-0.3621263,4.70903E-08,NaN,NaN,-0.04025251,6.798641E-10,-4.257085E-07,-1.127712E-07,-1.35891E-08,-2.622604E-08
438.5588,-0.228837,-1.322281E-08,NaN,-0.327143,-1.345835E-07,NaN,0.4726454,-1.82418E-08,NaN,-2.135941,1.400874E-05,-0.3621263,4.70903E-08,NaN,NaN,-0.04025251,6.798641E-10,-4.257085E-07,-1.127712E-07,-1.35891E-08,-2.622604E-08
438.5741,-0.2401599,-1.322194E-08,NaN,-0.3271407,-1.345834E-07,NaN,0.4737769,-1.834569E-08,NaN,-2.133647,1.400926E-05,-0.361791,4.719603E-08,NaN,NaN,-0.03985656,6.798641E-10,-4.490289E-07,-1.127706E-07,-1.001283E-08,-2.861022E-08
438.5904,-0.2519153,-1.322107E-08,NaN,-0.3271375,-1.345833E-07,NaN,0.4749353,-1.844744E-08,NaN,-2.131331,1.400978E-05,-0.3614182,4.729963E-08,NaN,NaN,-0.03946828,6.798641E-10,-4.69518E-07,-1.127701E-07,-7.628639E-09,-2.622604E-08
438.6064,-0.2638934,-1.32202E-08,NaN,-0.3271324,-1.345832E-07,NaN,0.4760623,-1.85471E-08,NaN,-2.12909,1.401029E-05,-0.3610323,4.740113E-08,NaN,NaN,-0.03908752,6.798641E-10,-4.88964E-07,-1.127696E-07,-1.239701E-08,-2.861022E-08
438.6223,-0.2759613,-1.321933E-08,NaN,-0.3271253,-1.345831E-07,NaN,0.477138,-1.86447E-08,NaN,-2.126952,1.401081E-05,-0.360651,4.750057E-08,NaN,NaN,-0.03871417,6.798641E-10,-5.071434E-07,-1.127691E-07,-1.239701E-08,-2.622604E-08
438.6382,-0.2759613,-1.321933E-08,NaN,-0.3271253,-1.345831E-07,NaN,0.477138,-1.86447E-08,NaN,-2.126952,1.401081E-05,-0.360651,4.750057E-08,NaN,NaN,-0.03871417,6.798641E-10,-5.071434E-07,-1.127691E-07,-1.239701E-08,-2.622604E-08
438.6534,-0.2887636,-1.321846E-08,NaN,-0.3271193,-1.34583E-07,NaN,0.4783285,-1.874028E-08,NaN,-2.124532,1.401134E-05,-0.360289,4.7598E-08,NaN,NaN,-0.03834838,6.705509E-10,-5.310598E-07,-1.127686E-07,-8.820732E-09,-2.861022E-08
438.6696,-0.301974,-1.321759E-08,NaN,-0.3271116,-1.345829E-07,NaN,0.4795432,-1.883389E-08,NaN,-2.122094,1.401185E-05,-0.3598899,4.769345E-08,NaN,NaN,-0.03798967,6.705509E-10,-5.502823E-07,-1.127681E-07,-1.001282E-08,-2.622604E-08
438.6859,-0.3153858,-1.321672E-08,NaN,-0.3271018,-1.345829E-07,NaN,0.4807237,-1.892557E-08,NaN,-2.119735,1.401237E-05,-0.3594796,4.778697E-08,NaN,NaN,-0.03763789,6.705509E-10,-5.696538E-07,-1.127676E-07,-6.436546E-09,-2.861022E-08
438.7012,-0.328868,-1.321585E-08,NaN,-0.3270899,-1.345828E-07,NaN,0.4818505,-1.901252E-08,NaN,-2.117482,1.401289E-05,-0.3590753,4.787577E-08,NaN,NaN,-0.03729296,6.705509E-10,-5.841079E-07,-1.127671E-07,-7.628638E-09,-2.622604E-08
438.7183,-0.328868,-1.321585E-08,NaN,-0.3270899,-1.345828E-07,NaN,0.4818505,-1.901252E-08,NaN,-2.117482,1.401289E-05,-0.3590753,4.787577E-08,NaN,NaN,-0.03729296,6.705509E-10,-5.841079E-07,-1.127671E-07,-7.628638E-09,-2.622604E-08
438.7321,-0.3430662,-1.321498E-08,NaN,-0.327079,-1.345827E-07,NaN,0.4830905,-1.909766E-08,NaN,-2.114954,1.40134E-05,-0.3586873,4.796275E-08,NaN,NaN,-0.03695501,6.705509E-10,-6.067577E-07,-1.127666E-07,-6.436546E-09,-2.861022E-08
438.7485,-0.3576554,-1.321411E-08,NaN,-0.3270664,-1.345826E-07,NaN,0.4843507,-1.918103E-08,NaN,-2.112412,1.401392E-05,-0.3582636,4.804797E-08,NaN,NaN,-0.03662358,6.705509E-10,-6.267252E-07,-1.127661E-07,-6.436546E-09,-2.622604E-08
438.7644,-0.3724293,-1.321324E-08,NaN,-0.3270514,-1.345825E-07,NaN,0.4855732,-1.926267E-08,NaN,-2.109955,1.401444E-05,-0.3578309,4.813145E-08,NaN,NaN,-0.03629857,6.705509E-10,-6.434145E-07,-1.127656E-07,-8.820731E-09,-2.861022E-08
438.7801,-0.3872573,-1.321237E-08,NaN,-0.3270344,-1.345824E-07,NaN,0.4867394,-1.934261E-08,NaN,-2.107609,1.401495E-05,-0.3574059,4.821323E-08,NaN,NaN,-0.03597986,6.705509E-10,-6.599548E-07,-1.127652E-07,-1.120492E-08,-2.622604E-08
438.7963,-0.3872573,-1.321237E-08,NaN,-0.3270344,-1.345824E-07,NaN,0.4867394,-1.934261E-08,NaN,-2.107609,1.401495E-05,-0.3574059,4.821323E-08,NaN,NaN,-0.03597986,6.705509E-10,-6.599548E-07,-1.127652E-07,-1.120492E-08,-2.622604E-08
438.8112,-0.4027856,-1.32115E-08,NaN,-0.3270183,-1.345824E-07,NaN,0.488017,-1.942088E-08,NaN,-2.104994,1.401548E-05,-0.3569943,4.829334E-08,NaN,NaN,-0.03566761,6.612377E-10,-6.829026E-07,-1.127647E-07,-1.120492E-08,-2.861022E-08
438.8278,-0.4186892,-1.321063E-08,NaN,-0.3270004,-1.345823E-07,NaN,0.4893108,-1.949751E-08,NaN,-2.102371,1.4016E-05,-0.3565488,4.837181E-08,NaN,NaN,-0.03536138,6.612377E-10,-7.025722E-07,-1.127642E-07,-1.120492E-08,-2.622604E-08
438.8434,-0.4347621,-1.320976E-08,NaN,-0.3269801,-1.345822E-07,NaN,0.4905637,-1.956971E-08,NaN,-2.099837,1.401652E-05,-0.3560967,4.844586E-08,NaN,NaN,-0.03506106,6.565811E-10,-7.189634E-07,-1.127637E-07,-6.436545E-09,-2.861022E-08
438.8593,-0.4347621,-1.320976E-08,NaN,-0.3269801,-1.345822E-07,NaN,0.4905637,-1.956971E-08,NaN,-2.099837,1.401652E-05,-0.3560967,4.844586E-08,NaN,NaN,-0.03506106,6.565811E-10,-7.189634E-07,-1.127637E-07,-6.436545E-09,-2.861022E-08
438.8742,-0.4508742,-1.320889E-08,NaN,-0.3269578,-1.345822E-07,NaN,0.4917578,-1.964039E-08,NaN,-2.097419,1.401703E-05,-0.3556539,4.851838E-08,NaN,NaN,-0.03476658,6.612377E-10,-7.355037E-07,-1.127632E-07,-7.628637E-09,-2.622604E-08
438.891,-0.4676716,-1.320802E-08,NaN,-0.3269364,-1.345821E-07,NaN,0.4930616,-1.970959E-08,NaN,-2.094738,1.401754E-05,-0.3552218,4.858943E-08,NaN,NaN,-0.03447806,6.658943E-10,-7.563654E-07,-1.127627E-07,-1.001282E-08,-2.861022E-08
438.9066,-0.4848297,-1.320716E-08,NaN,-0.3269131,-1.34582E-07,NaN,0.4943779,-1.977734E-08,NaN,-2.092053,1.401805E-05,-0.3547578,4.865901E-08,NaN,NaN,-0.03419509,6.705509E-10,-7.721606E-07,-1.127622E-07,-5.244451E-09,-2.622604E-08
438.9228,-0.5021425,-1.320629E-08,NaN,-0.3268874,-1.345819E-07,NaN,0.4956503,-1.984365E-08,NaN,-2.089463,1.401858E-05,-0.3542894,4.872717E-08,NaN,NaN,-0.03391758,6.612377E-10,-7.872108E-07,-1.127618E-07,-2.860265E-09,-2.861022E-08
438.9381,-0.5021425,-1.320629E-08,NaN,-0.3268874,-1.345819E-07,NaN,0.4956503,-1.984365E-08,NaN,-2.089463,1.401858E-05,-0.3542894,4.872717E-08,NaN,NaN,-0.03391758,6.612377E-10,-7.872108E-07,-1.127618E-07,-2.860265E-09,-2.861022E-08
438.9532,-0.5194802,-1.320542E-08,NaN,-0.3268595,-1.345819E-07,NaN,0.4968617,-1.990856E-08,NaN,-2.086993,1.40191E-05,-0.3538322,4.879393E-08,NaN,NaN,-0.03364546,6.612377E-10,-7.997277E-07,-1.127613E-07,-1.120492E-08,-2.622604E-08
438.9696,-0.5374891,-1.320455E-08,NaN,-0.3268327,-1.345818E-07,NaN,0.4981813,-1.99721E-08,NaN,-2.084265,1.401962E-05,-0.3533828,4.885931E-08,NaN,NaN,-0.03337885,6.565811E-10,-8.16417E-07,-1.127608E-07,-5.244452E-09,-2.861022E-08
438.9852,-0.5558445,-1.320368E-08,NaN,-0.326804,-1.345817E-07,NaN,0.4995099,-2.003429E-08,NaN,-2.081539,1.402013E-05,-0.3529036,4.892334E-08,NaN,NaN,-0.03311736,6.612377E-10,-8.319142E-07,-1.127603E-07,-6.436545E-09,-2.622604E-08
439.0011,-0.574341,-1.320281E-08,NaN,-0.3267727,-1.345817E-07,NaN,0.5007919,-2.009233E-08,NaN,-2.078911,1.402065E-05,-0.3524225,4.898323E-08,NaN,NaN,-0.03286092,6.565811E-10,-8.480075E-07,-1.127599E-07,-5.244452E-09,-2.861022E-08
439.0169,-0.574341,-1.320281E-08,NaN,-0.3267727,-1.345817E-07,NaN,0.5007919,-2.009233E-08,NaN,-2.078911,1.402065E-05,-0.3524225,4.898323E-08,NaN,NaN,-0.03286092,6.565811E-10,-8.480075E-07,-1.127599E-07,-5.244452E-09,-2.861022E-08
439.0321,-0.5928486,-1.320194E-08,NaN,-0.3267394,-1.345816E-07,NaN,0.5020111,-2.014914E-08,NaN,-2.076408,1.402116E-05,-0.3519541,4.904188E-08,NaN,NaN,-0.03260944,6.612377E-10,-8.596304E-07,-1.127594E-07,-7.628637E-09,-2.622604E-08
439.0485,-0.6120138,-1.320107E-08,NaN,-0.3267071,-1.345815E-07,NaN,0.5033371,-2.020473E-08,NaN,-2.073651,1.402169E-05,-0.3514909,4.909931E-08,NaN,NaN,-0.03236305,6.565811E-10,-8.748296E-07,-1.127589E-07,-1.239701E-08,-2.861022E-08
439.0641,-0.6315123,-1.32002E-08,NaN,-0.3266729,-1.345814E-07,NaN,0.5046688,-2.025913E-08,NaN,-2.0709,1.402221E-05,-0.3510002,4.915555E-08,NaN,NaN,-0.03212139,6.472679E-10,-8.876446E-07,-1.127585E-07,-1.597329E-08,-2.622604E-08
439.0797,-0.6315123,-1.32002E-08,NaN,-0.3266729,-1.345814E-07,NaN,0.5046688,-2.025913E-08,NaN,-2.0709,1.402221E-05,-0.3510002,4.915555E-08,NaN,NaN,-0.03212139,6.472679E-10,-8.876446E-07,-1.127585E-07,-1.597329E-08,-2.622604E-08
439.0948,-0.6511387,-1.319934E-08,NaN,-0.3266361,-1.345814E-07,NaN,0.5059516,-2.031236E-08,NaN,-2.068251,1.402273E-05,-0.3505098,4.921063E-08,NaN,NaN,-0.03188439,6.426112E-10,-9.019497E-07,-1.12758E-07,-1.35891E-08,-2.861022E-08
439.1111,-0.6707631,-1.319847E-08,NaN,-0.3265973,-1.345813E-07,NaN,0.5071701,-2.036445E-08,NaN,-2.065732,1.402325E-05,-0.3500338,4.926456E-08,NaN,NaN,-0.03165198,6.472679E-10,-9.123805E-07,-1.127575E-07,-1.35891E-08,-2.622604E-08
439.1271,-0.6910322,-1.31976E-08,NaN,-0.3265597,-1.345812E-07,NaN,0.5084941,-2.041542E-08,NaN,-2.062962,1.402376E-05,-0.3495604,4.931736E-08,NaN,NaN,-0.03142428,6.519245E-10,-9.272817E-07,-1.127571E-07,-1.835747E-08,-2.861022E-08
439.1433,-0.7116219,-1.319673E-08,NaN,-0.3265201,-1.345812E-07,NaN,0.5098208,-2.046246E-08,NaN,-2.060203,1.402427E-05,-0.3490618,4.936626E-08,NaN,NaN,-0.03120093,6.565811E-10,-9.392026E-07,-1.127566E-07,-2.074166E-08,-2.622604E-08
439.1588,-0.7116219,-1.319673E-08,NaN,-0.3265201,-1.345812E-07,NaN,0.5098208,-2.046246E-08,NaN,-2.060203,1.402427E-05,-0.3490618,4.936626E-08,NaN,NaN,-0.03120093,6.565811E-10,-9.392026E-07,-1.127566E-07,-2.074166E-08,-2.622604E-08
439.1736,-0.7323267,-1.319586E-08,NaN,-0.3264779,-1.345811E-07,NaN,0.5110965,-2.050849E-08,NaN,-2.057549,1.402479E-05,-0.3485657,4.941413E-08,NaN,NaN,-0.03098189,6.519245E-10,-9.478453E-07,-1.127562E-07,-2.551003E-08,-2.861022E-08
439.1899,-0.7530172,-1.319499E-08,NaN,-0.3264337,-1.34581E-07,NaN,0.5123066,-2.055351E-08,NaN,-2.055027,1.40253E-05,-0.3480857,4.946099E-08,NaN,NaN,-0.03076709,6.565811E-10,-9.552959E-07,-1.127557E-07,-2.551003E-08,-2.622604E-08
439.2059,-0.773833,-1.319412E-08,NaN,-0.3263891,-1.345809E-07,NaN,0.5135033,-2.059755E-08,NaN,-2.052524,1.402582E-05,-0.3476192,4.950687E-08,NaN,NaN,-0.03055651,6.519245E-10,-9.657267E-07,-1.127552E-07,-2.789421E-08,-2.861022E-08
439.2231,-0.7946402,-1.319326E-08,NaN,-0.3263437,-1.345809E-07,NaN,0.5146586,-2.064062E-08,NaN,-2.050111,1.402634E-05,-0.347159,4.955179E-08,NaN,NaN,-0.03035,6.565811E-10,-9.740713E-07,-1.127548E-07,-2.551003E-08,-2.622604E-08
439.2376,-0.7946402,-1.319326E-08,NaN,-0.3263437,-1.345809E-07,NaN,0.5146586,-2.064062E-08,NaN,-2.050111,1.402634E-05,-0.347159,4.955179E-08,NaN,NaN,-0.03035,6.565811E-10,-9.740713E-07,-1.127548E-07,-2.551003E-08,-2.622604E-08
439.2526,-0.8153551,-1.319239E-08,NaN,-0.3262977,-1.345808E-07,NaN,0.5157607,-2.068275E-08,NaN,-2.04781,1.402685E-05,-0.3467126,4.959576E-08,NaN,NaN,-0.03014751,6.612377E-10,-9.806279E-07,-1.127543E-07,-3.02784E-08,-2.861022E-08
439.2692,-0.835925,-1.319152E-08,NaN,-0.3262517,-1.345807E-07,NaN,0.5168088,-2.072396E-08,NaN,-2.045623,1.402736E-05,-0.3462826,4.96388E-08,NaN,NaN,-0.02994895,6.658943E-10,-9.853962E-07,-1.127539E-07,-3.981514E-08,-2.622604E-08
439.285,-0.8563177,-1.319065E-08,NaN,-0.3262063,-1.345807E-07,NaN,0.5178059,-2.076425E-08,NaN,-2.043545,1.402787E-05,-0.3458693,4.968094E-08,NaN,NaN,-0.02975425,6.705509E-10,-9.895685E-07,-1.127534E-07,-3.02784E-08,-2.861022E-08
439.3005,-0.8765137,-1.318978E-08,NaN,-0.3261618,-1.345806E-07,NaN,0.5187557,-2.080083E-08,NaN,-2.041569,1.402838E-05,-0.3454717,4.971936E-08,NaN,NaN,-0.02956334,6.752075E-10,-9.910586E-07,-1.12753E-07,-2.789421E-08,-2.622604E-08
439.3161,-0.8765137,-1.318978E-08,NaN,-0.3261618,-1.345806E-07,NaN,0.5187557,-2.080083E-08,NaN,-2.041569,1.402838E-05,-0.3454717,4.971936E-08,NaN,NaN,-0.02956334,6.752075E-10,-9.910586E-07,-1.12753E-07,-2.789421E-08,-2.622604E-08
439.3311,-0.8965014,-1.318891E-08,NaN,-0.3261186,-1.345805E-07,NaN,0.5196618,-2.083659E-08,NaN,-2.039689,1.40289E-05,-0.3450889,4.975697E-08,NaN,NaN,-0.02937615,6.752075E-10,-9.916547E-07,-1.127526E-07,-2.551003E-08,-2.861022E-08
439.3475,-0.9162747,-1.318805E-08,NaN,-0.3260768,-1.345803E-07,NaN,0.5205268,-2.07856E-08,NaN,-2.037899,1.402943E-05,-0.34472,4.970781E-08,NaN,NaN,-0.02919261,6.705509E-10,-9.931448E-07,-1.127538E-07,-2.074166E-08,-2.622604E-08
439.3635,-0.9358304,-1.318718E-08,NaN,-0.3260366,-1.345806E-07,NaN,0.5213531,-2.063685E-08,NaN,-2.036195,1.402995E-05,-0.3443644,4.956091E-08,NaN,NaN,-0.02901264,6.705509E-10,-9.937409E-07,-1.127554E-07,-2.312584E-08,-2.861022E-08
439.3789,-0.9358304,-1.318718E-08,NaN,-0.3260366,-1.345806E-07,NaN,0.5213531,-2.063685E-08,NaN,-2.036195,1.402995E-05,-0.3443644,4.956091E-08,NaN,NaN,-0.02901264,6.705509E-10,-9.937409E-07,-1.127554E-07,-2.312584E-08,-2.861022E-08
439.3942,-0.9551674,-1.318631E-08,NaN,-0.3259981,-1.34581E-07,NaN,0.5221425,-2.043737E-08,NaN,-2.034574,1.403048E-05,-0.3440216,4.936327E-08,NaN,NaN,-0.02883618,6.705509E-10,-9.925487E-07,-1.127572E-07,-3.02784E-08,-2.622604E-08
439.4105,-0.9742862,-1.318545E-08,NaN,-0.3259614,-1.345816E-07,NaN,0.5228965,-2.021071E-08,NaN,-2.033032,1.403101E-05,-0.343691,4.913843E-08,NaN,NaN,-0.02866315,6.705509E-10,-9.907606E-07,-1.127591E-07,-2.789421E-08,-2.861022E-08
439.4261,-0.9931878,-1.318458E-08,NaN,-0.3259263,-1.345823E-07,NaN,0.5236165,-1.99743E-08,NaN,-2.031567,1.403153E-05,-0.3433725,4.890386E-08,NaN,NaN,-0.0284935,6.705509E-10,-9.901645E-07,-1.12761E-07,-3.504677E-08,-2.622604E-08
439.4417,-1.011874,-1.318371E-08,NaN,-0.3258929,-1.345831E-07,NaN,0.5243036,-1.973117E-08,NaN,-2.030176,1.403206E-05,-0.3430656,4.866255E-08,NaN,NaN,-0.02832715,6.705509E-10,-9.883763E-07,-1.127629E-07,-3.266258E-08,-2.861022E-08
439.4575,-1.011874,-1.318371E-08,NaN,-0.3258929,-1.345831E-07,NaN,0.5243036,-1.973117E-08,NaN,-2.030176,1.403206E-05,-0.3430656,4.866255E-08,NaN,NaN,-0.02832715,6.705509E-10,-9.883763E-07,-1.127629E-07,-3.266258E-08,-2.861022E-08
439.4724,-1.030346,-1.318285E-08,NaN,-0.3258612,-1.345838E-07,NaN,0.5249589,-1.948989E-08,NaN,-2.028858,1.403259E-05,-0.3427701,4.84231E-08,NaN,NaN,-0.02816405,6.705509E-10,-9.877803E-07,-1.127649E-07,-3.02784E-08,-2.622604E-08
439.4892,-1.048607,-1.318198E-08,NaN,-0.3258312,-1.345846E-07,NaN,0.5255833,-1.925043E-08,NaN,-2.027611,1.403311E-05,-0.3424858,4.818547E-08,NaN,NaN,-0.02800412,6.705509E-10,-9.883763E-07,-1.127668E-07,-3.504677E-08,-2.861022E-08
439.5045,-1.066658,-1.318111E-08,NaN,-0.3258028,-1.345854E-07,NaN,0.5261779,-1.901558E-08,NaN,-2.026433,1.403365E-05,-0.3422124,4.795243E-08,NaN,NaN,-0.02784732,6.612377E-10,-9.883763E-07,-1.127688E-07,-3.266258E-08,-2.622604E-08
439.5205,-1.084502,-1.318025E-08,NaN,-0.325776,-1.345862E-07,NaN,0.5267434,-1.878524E-08,NaN,-2.025322,1.403418E-05,-0.3419497,4.772391E-08,NaN,NaN,-0.02769358,6.612377E-10,-9.877803E-07,-1.127708E-07,-3.266258E-08,-2.861022E-08
439.536,-1.084502,-1.318025E-08,NaN,-0.325776,-1.345862E-07,NaN,0.5267434,-1.878524E-08,NaN,-2.025322,1.403418E-05,-0.3419497,4.772391E-08,NaN,NaN,-0.02769358,6.612377E-10,-9.877803E-07,-1.127708E-07,-3.266258E-08,-2.861022E-08
439.5508,-1.102141,-1.317938E-08,NaN,-0.3257507,-1.34587E-07,NaN,0.5272806,-1.855931E-08,NaN,-2.024276,1.40347E-05,-0.3416975,4.74998E-08,NaN,NaN,-0.02754283,6.612377E-10,-9.830119E-07,-1.127727E-07,-3.504677E-08,-2.622604E-08
439.5672,-1.119577,-1.317851E-08,NaN,-0.3257269,-1.345878E-07,NaN,0.5277905,-1.834055E-08,NaN,-2.023294,1.403524E-05,-0.3414555,4.728286E-08,NaN,NaN,-0.02739503,6.519245E-10,-9.788396E-07,-1.127747E-07,-3.02784E-08,-2.861022E-08
439.5831,-1.136814,-1.317764E-08,NaN,-0.3257045,-1.345886E-07,NaN,0.5282739,-1.812598E-08,NaN,-2.022375,1.403576E-05,-0.3412236,4.70701E-08,NaN,NaN,-0.02725011,6.519245E-10,-9.746673E-07,-1.127766E-07,-2.789421E-08,-2.622604E-08
439.5987,-1.136814,-1.317764E-08,NaN,-0.3257045,-1.345886E-07,NaN,0.5282739,-1.812598E-08,NaN,-2.022375,1.403576E-05,-0.3412236,4.70701E-08,NaN,NaN,-0.02725011,6.519245E-10,-9.746673E-07,-1.127766E-07,-2.789421E-08,-2.622604E-08
439.6136,-1.153852,-1.317678E-08,NaN,-0.3256836,-1.345894E-07,NaN,0.5287313,-1.791834E-08,NaN,-2.021517,1.403629E-05,-0.3410016,4.686428E-08,NaN,NaN,-0.02710801,6.519245E-10,-9.687068E-07,-1.127785E-07,-2.789421E-08,-2.861022E-08
439.6301,-1.170694,-1.317591E-08,NaN,-0.325664,-1.345902E-07,NaN,0.5291637,-1.771468E-08,NaN,-2.020718,1.403682E-05,-0.3407892,4.666244E-08,NaN,NaN,-0.0269687,6.519245E-10,-9.669186E-07,-1.127805E-07,-1.835747E-08,-2.622604E-08
439.6458,-1.187343,-1.317504E-08,NaN,-0.3256457,-1.34591E-07,NaN,0.5295717,-1.751774E-08,NaN,-2.019977,1.403734E-05,-0.3405863,4.646731E-08,NaN,NaN,-0.0268321,6.519245E-10,-9.621502E-07,-1.127824E-07,-1.835747E-08,-2.861022E-08
439.6616,-1.203801,-1.317417E-08,NaN,-0.3256287,-1.345918E-07,NaN,0.5299559,-1.732456E-08,NaN,-2.019292,1.403787E-05,-0.3403926,4.627595E-08,NaN,NaN,-0.02669817,6.519245E-10,-9.59766E-07,-1.127843E-07,-2.074165E-08,-2.622604E-08
439.677,-1.203801,-1.317417E-08,NaN,-0.3256287,-1.345918E-07,NaN,0.5299559,-1.732456E-08,NaN,-2.019292,1.403787E-05,-0.3403926,4.627595E-08,NaN,NaN,-0.02669817,6.519245E-10,-9.59766E-07,-1.127843E-07,-2.074165E-08,-2.622604E-08
439.6919,-1.220069,-1.317331E-08,NaN,-0.3256129,-1.345926E-07,NaN,0.530317,-1.71379E-08,NaN,-2.018663,1.40384E-05,-0.340208,4.60911E-08,NaN,NaN,-0.02656685,6.519245E-10,-9.532095E-07,-1.127862E-07,-1.35891E-08,-2.861022E-08
439.7083,-1.236151,-1.317244E-08,NaN,-0.3255983,-1.345933E-07,NaN,0.5306557,-1.695763E-08,NaN,-2.018087,1.403892E-05,-0.3400322,4.591264E-08,NaN,NaN,-0.0264381,6.519245E-10,-9.478451E-07,-1.127881E-07,-1.835747E-08,-2.622604E-08
439.7238,-1.252047,-1.317157E-08,NaN,-0.3255849,-1.345941E-07,NaN,0.5309727,-1.678079E-08,NaN,-2.017564,1.403945E-05,-0.339865,4.573761E-08,NaN,NaN,-0.02631186,6.519245E-10,-9.430767E-07,-1.1279E-07,-1.597328E-08,-2.861022E-08
439.741,-1.267761,-1.31707E-08,NaN,-0.3255726,-1.345949E-07,NaN,0.5312685,-1.661015E-08,NaN,-2.017092,1.403998E-05,-0.3397064,4.556879E-08,NaN,NaN,-0.02618808,6.519245E-10,-9.353281E-07,-1.127919E-07,-2.074166E-08,-2.622604E-08
439.7557,-1.267761,-1.31707E-08,NaN,-0.3255726,-1.345949E-07,NaN,0.5312685,-1.661015E-08,NaN,-2.017092,1.403998E-05,-0.3397064,4.556879E-08,NaN,NaN,-0.02618808,6.519245E-10,-9.353281E-07,-1.127919E-07,-2.074166E-08,-2.622604E-08
439.7705,-1.283295,-1.316983E-08,NaN,-0.3255614,-1.345957E-07,NaN,0.5315438,-1.644277E-08,NaN,-2.01667,1.40405E-05,-0.339556,4.540322E-08,NaN,NaN,-0.02606673,6.519245E-10,-9.281756E-07,-1.127938E-07,-2.312584E-08,-2.861022E-08
439.7872,-1.298649,-1.316897E-08,NaN,-0.3255512,-1.345965E-07,NaN,0.5317991,-1.62814E-08,NaN,-2.016297,1.404103E-05,-0.3394137,4.524366E-08,NaN,NaN,-0.02594775,6.519245E-10,-9.228111E-07,-1.127957E-07,-2.074166E-08,-2.622604E-08
439.8025,-1.313828,-1.31681E-08,NaN,-0.3255421,-1.345972E-07,NaN,0.5320349,-1.612592E-08,NaN,-2.015971,1.404156E-05,-0.3392793,4.508999E-08,NaN,NaN,-0.02583108,6.519245E-10,-9.150625E-07,-1.127975E-07,-1.835747E-08,-2.861022E-08
439.8183,-1.313828,-1.31681E-08,NaN,-0.3255421,-1.345972E-07,NaN,0.5320349,-1.612592E-08,NaN,-2.015971,1.404156E-05,-0.3392793,4.508999E-08,NaN,NaN,-0.02583108,6.519245E-10,-9.150625E-07,-1.127975E-07,-1.835747E-08,-2.861022E-08
439.8335,-1.328611,-1.316723E-08,NaN,-0.3255332,-1.34598E-07,NaN,0.5322009,-1.597339E-08,NaN,-2.015805,1.404208E-05,-0.3391622,4.493927E-08,NaN,NaN,-0.02571667,6.519245E-10,-9.09102E-07,-1.127994E-07,-1.597328E-08,-2.622604E-08
439.8496,-1.343083,-1.316637E-08,NaN,-0.3255256,-1.345988E-07,NaN,0.5323329,-1.582658E-08,NaN,-2.015718,1.404261E-05,-0.3390633,4.479427E-08,NaN,NaN,-0.02560452,6.519245E-10,-8.995653E-07,-1.128012E-07,-1.120491E-08,-2.861022E-08
439.8656,-1.3573,-1.31655E-08,NaN,-0.3255194,-1.345995E-07,NaN,0.5324476,-1.568255E-08,NaN,-2.015675,1.404314E-05,-0.3389742,4.465205E-08,NaN,NaN,-0.02549456,6.519245E-10,-8.924127E-07,-1.128031E-07,-8.820727E-09,-2.622604E-08
439.8809,-1.371296,-1.316463E-08,NaN,-0.3255147,-1.346003E-07,NaN,0.5325503,-1.554407E-08,NaN,-2.015666,1.404366E-05,-0.3388913,4.451539E-08,NaN,NaN,-0.02538675,6.519245E-10,-8.858563E-07,-1.128049E-07,-8.820727E-09,-2.861022E-08
439.8971,-1.371296,-1.316463E-08,NaN,-0.3255147,-1.346003E-07,NaN,0.5325503,-1.554407E-08,NaN,-2.015666,1.404366E-05,-0.3388913,4.451539E-08,NaN,NaN,-0.02538675,6.519245E-10,-8.858563E-07,-1.128049E-07,-8.820727E-09,-2.861022E-08
439.9119,-1.384367,-1.316377E-08,NaN,-0.3255089,-1.346011E-07,NaN,0.5324743,-1.540821E-08,NaN,-2.016062,1.404419E-05,-0.3388454,4.438134E-08,NaN,NaN,-0.02528095,6.519245E-10,-8.733393E-07,-1.128068E-07,-8.820727E-09,-2.622604E-08
439.9281,-1.396802,-1.31629E-08,NaN,-0.325505,-1.346018E-07,NaN,0.5323355,-1.527774E-08,NaN,-2.016598,1.404472E-05,-0.3388393,4.425268E-08,NaN,NaN,-0.02517727,6.519245E-10,-8.620144E-07,-1.128086E-07,-1.35891E-08,-2.861022E-08
439.9438,-1.408784,-1.316203E-08,NaN,-0.3255033,-1.346026E-07,NaN,0.5321867,-1.515256E-08,NaN,-2.017169,1.404524E-05,-0.3388458,4.412931E-08,NaN,NaN,-0.02507564,6.519245E-10,-8.506896E-07,-1.128104E-07,-1.597328E-08,-2.622604E-08
439.9597,-1.408784,-1.316203E-08,NaN,-0.3255033,-1.346026E-07,NaN,0.5321867,-1.515256E-08,NaN,-2.017169,1.404524E-05,-0.3388458,4.412931E-08,NaN,NaN,-0.02507564,6.519245E-10,-8.506896E-07,-1.128104E-07,-1.597328E-08,-2.622604E-08
439.9747,-1.420432,-1.316116E-08,NaN,-0.3255028,-1.346033E-07,NaN,0.5320438,-1.502973E-08,NaN,-2.01774,1.404577E-05,-0.3388538,4.40083E-08,NaN,NaN,-0.024976,6.519245E-10,-8.387686E-07,-1.128123E-07,-2.074166E-08,-2.861022E-08
439.9911,-1.431092,-1.31603E-08,NaN,-0.325502,-1.346041E-07,NaN,0.5317397,-1.491204E-08,NaN,-2.01868,1.40463E-05,-0.3388928,4.389242E-08,NaN,NaN,-0.02487821,6.519245E-10,-8.250596E-07,-1.128141E-07,-2.074166E-08,-2.622604E-08
440.0069,-1.441087,-1.315943E-08,NaN,-0.3255024,-1.346048E-07,NaN,0.5313883,-1.479656E-08,NaN,-2.019727,1.404682E-05,-0.3389656,4.377875E-08,NaN,NaN,-0.02478239,6.519245E-10,-8.113506E-07,-1.128159E-07,-1.835747E-08,-2.861022E-08
440.0227,-1.450622,-1.315856E-08,NaN,-0.3255039,-1.346056E-07,NaN,0.53104,-1.468608E-08,NaN,-2.020779,1.404735E-05,-0.339046,4.367007E-08,NaN,NaN,-0.02468846,6.519245E-10,-7.988336E-07,-1.128177E-07,-1.597328E-08,-2.622604E-08
440.0381,-1.450622,-1.315856E-08,NaN,-0.3255039,-1.346056E-07,NaN,0.53104,-1.468608E-08,NaN,-2.020779,1.404735E-05,-0.339046,4.367007E-08,NaN,NaN,-0.02468846,6.519245E-10,-7.988336E-07,-1.128177E-07,-1.597328E-08,-2.622604E-08
440.0532,-1.459827,-1.315769E-08,NaN,-0.3255064,-1.346064E-07,NaN,0.5307078,-1.457766E-08,NaN,-2.021808,1.404788E-05,-0.3391242,4.356346E-08,NaN,NaN,-0.02459638,6.519245E-10,-7.857205E-07,-1.128195E-07,-1.35891E-08,-2.861022E-08
440.0697,-1.468058,-1.315682E-08,NaN,-0.3255082,-1.346071E-07,NaN,0.530223,-1.447409E-08,NaN,-2.023185,1.40484E-05,-0.3392291,4.346171E-08,NaN,NaN,-0.02450599,6.519245E-10,-7.702233E-07,-1.128213E-07,-2.074166E-08,-2.622604E-08
440.0854,-1.475643,-1.315596E-08,NaN,-0.3255109,-1.346078E-07,NaN,0.529698,-1.437246E-08,NaN,-2.02465,1.404893E-05,-0.3393655,4.336189E-08,NaN,NaN,-0.02441742,6.519245E-10,-7.559182E-07,-1.128231E-07,-1.597328E-08,-2.861022E-08
440.1011,-1.482788,-1.315509E-08,NaN,-0.3255153,-1.346086E-07,NaN,0.5291824,-1.427555E-08,NaN,-2.026107,1.404946E-05,-0.3395078,4.326678E-08,NaN,NaN,-0.02433061,6.519245E-10,-7.428052E-07,-1.128248E-07,-1.835747E-08,-2.622604E-08
440.1169,-1.482788,-1.315509E-08,NaN,-0.3255153,-1.346086E-07,NaN,0.5291824,-1.427555E-08,NaN,-2.026107,1.404946E-05,-0.3395078,4.326678E-08,NaN,NaN,-0.02433061,6.519245E-10,-7.428052E-07,-1.128248E-07,-1.835747E-08,-2.622604E-08
440.1319,-1.489628,-1.315422E-08,NaN,-0.3255217,-1.346093E-07,NaN,0.5286888,-1.418049E-08,NaN,-2.027525,1.404999E-05,-0.339646,4.317353E-08,NaN,NaN,-0.0242455,6.472679E-10,-7.314803E-07,-1.128266E-07,-1.120491E-08,-2.861022E-08
440.1482,-1.495519,-1.315335E-08,NaN,-0.3255276,-1.346101E-07,NaN,0.5280479,-1.409002E-08,NaN,-2.029278,1.405052E-05,-0.3398075,4.308487E-08,NaN,NaN,-0.02416195,6.426112E-10,-7.14195E-07,-1.128284E-07,-1.35891E-08,-2.622604E-08
440.1638,-1.500788,-1.315249E-08,NaN,-0.325535,-1.346108E-07,NaN,0.5273713,-1.400405E-08,NaN,-2.031107,1.405105E-05,-0.3399993,4.300071E-08,NaN,NaN,-0.02408009,6.379546E-10,-6.992938E-07,-1.128301E-07,-1.835747E-08,-2.861022E-08
440.1794,-1.500788,-1.315249E-08,NaN,-0.325535,-1.346108E-07,NaN,0.5273713,-1.400405E-08,NaN,-2.031107,1.405105E-05,-0.3399993,4.300071E-08,NaN,NaN,-0.02408009,6.379546E-10,-6.992938E-07,-1.128301E-07,-1.835747E-08,-2.861022E-08
440.1948,-1.505644,-1.315162E-08,NaN,-0.3255443,-1.346115E-07,NaN,0.5267087,-1.391966E-08,NaN,-2.032915,1.405158E-05,-0.3401955,4.291814E-08,NaN,NaN,-0.02399985,6.33298E-10,-6.849887E-07,-1.128319E-07,-1.835747E-08,-2.622604E-08
440.2105,-1.510219,-1.315075E-08,NaN,-0.3255554,-1.346123E-07,NaN,0.5260729,-1.383966E-08,NaN,-2.034673,1.405211E-05,-0.3403859,4.283995E-08,NaN,NaN,-0.02392119,6.286414E-10,-6.682994E-07,-1.128336E-07,-2.074165E-08,-2.861022E-08
440.2267,-1.513871,-1.314988E-08,NaN,-0.3255656,-1.34613E-07,NaN,0.5252941,-1.376113E-08,NaN,-2.036755,1.405264E-05,-0.340596,4.276323E-08,NaN,NaN,-0.02384395,6.239848E-10,-6.49226E-07,-1.128354E-07,-1.835747E-08,-2.622604E-08
440.2433,-1.516927,-1.314901E-08,NaN,-0.3255765,-1.346137E-07,NaN,0.5244828,-1.368686E-08,NaN,-2.038902,1.405317E-05,-0.3408356,4.269077E-08,NaN,NaN,-0.02376827,6.239848E-10,-6.325367E-07,-1.128371E-07,-1.835747E-08,-2.861022E-08
440.2579,-1.516927,-1.314901E-08,NaN,-0.3255765,-1.346137E-07,NaN,0.5244828,-1.368686E-08,NaN,-2.038902,1.405317E-05,-0.3408356,4.269077E-08,NaN,NaN,-0.02376827,6.239848E-10,-6.325367E-07,-1.128371E-07,-1.835747E-08,-2.861022E-08
440.2728,-1.519595,-1.314815E-08,NaN,-0.3255886,-1.346144E-07,NaN,0.5236896,-1.361396E-08,NaN,-2.041017,1.405371E-05,-0.3410784,4.261967E-08,NaN,NaN,-0.02369409,6.239848E-10,-6.176355E-07,-1.128388E-07,-2.312584E-08,-2.622604E-08
440.2893,-1.522007,-1.314728E-08,NaN,-0.3256018,-1.346152E-07,NaN,0.522927,-1.354521E-08,NaN,-2.043072,1.405425E-05,-0.3413141,4.255273E-08,NaN,NaN,-0.02362138,6.193282E-10,-6.045225E-07,-1.128405E-07,-1.835747E-08,-2.861022E-08
440.3047,-1.523521,-1.314641E-08,NaN,-0.3256134,-1.346159E-07,NaN,0.5220251,-1.34777E-08,NaN,-2.04544,1.40548E-05,-0.3415658,4.248704E-08,NaN,NaN,-0.02354996,6.193282E-10,-5.86045E-07,-1.128423E-07,-1.35891E-08,-2.622604E-08
440.3207,-1.524462,-1.314554E-08,NaN,-0.3256249,-1.346166E-07,NaN,0.5210935,-1.341425E-08,NaN,-2.047864,1.405534E-05,-0.3418465,4.24254E-08,NaN,NaN,-0.02347999,6.193282E-10,-5.663755E-07,-1.12844E-07,-1.835747E-08,-2.861022E-08
440.3365,-1.524462,-1.314554E-08,NaN,-0.3256249,-1.346166E-07,NaN,0.5210935,-1.341425E-08,NaN,-2.047864,1.405534E-05,-0.3418465,4.24254E-08,NaN,NaN,-0.02347999,6.193282E-10,-5.663755E-07,-1.12844E-07,-1.835747E-08,-2.861022E-08
440.3506,-1.52504,-1.314468E-08,NaN,-0.3256367,-1.346173E-07,NaN,0.5201831,-1.335194E-08,NaN,-2.050246,1.405589E-05,-0.3421297,4.23649E-08,NaN,NaN,-0.02341141,6.193282E-10,-5.484941E-07,-1.128457E-07,-1.120491E-08,-2.622604E-08
440.3678,-1.525387,-1.314381E-08,NaN,-0.3256488,-1.34618E-07,NaN,0.5193071,-1.329358E-08,NaN,-2.052558,1.405643E-05,-0.3424047,4.230835E-08,NaN,NaN,-0.02334418,6.193282E-10,-5.324008E-07,-1.128474E-07,-1.35891E-08,-2.861022E-08
440.3836,-1.52486,-1.314294E-08,NaN,-0.325659,-1.346187E-07,NaN,0.5182952,-1.323627E-08,NaN,-2.055174,1.405698E-05,-0.3426916,4.225284E-08,NaN,NaN,-0.02327813,6.193282E-10,-5.145194E-07,-1.128491E-07,-8.820725E-09,-2.622604E-08
440.3994,-1.52486,-1.314294E-08,NaN,-0.325659,-1.346187E-07,NaN,0.5182952,-1.323627E-08,NaN,-2.055174,1.405698E-05,-0.3426916,4.225284E-08,NaN,NaN,-0.02327813,6.193282E-10,-5.145194E-07,-1.128491E-07,-8.820725E-09,-2.622604E-08
440.4138,-1.523785,-1.314207E-08,NaN,-0.3256683,-1.346195E-07,NaN,0.517256,-1.318281E-08,NaN,-2.057837,1.405752E-05,-0.3430071,4.220118E-08,NaN,NaN,-0.02321341,6.193282E-10,-4.96638E-07,-1.128508E-07,-1.120491E-08,-2.861022E-08
440.4302,-1.522371,-1.31412E-08,NaN,-0.3256772,-1.346202E-07,NaN,0.5162407,-1.313029E-08,NaN,-2.060448,1.405808E-05,-0.3433247,4.215048E-08,NaN,NaN,-0.02315,6.10015E-10,-4.787566E-07,-1.128524E-07,-1.120491E-08,-2.622604E-08
440.4459,-1.520748,-1.314033E-08,NaN,-0.325686,-1.346209E-07,NaN,0.515263,-1.308153E-08,NaN,-2.062982,1.405862E-05,-0.343633,4.210352E-08,NaN,NaN,-0.02308783,6.10015E-10,-4.614712E-07,-1.128541E-07,-1.35891E-08,-2.861022E-08
440.4615,-1.518273,-1.313946E-08,NaN,-0.3256924,-1.346216E-07,NaN,0.514152,-1.303645E-08,NaN,-2.065812,1.405917E-05,-0.343949,4.206025E-08,NaN,NaN,-0.02302672,6.10015E-10,-4.412057E-07,-1.128558E-07,-1.35891E-08,-2.622604E-08
440.4773,-1.518273,-1.313946E-08,NaN,-0.3256924,-1.346216E-07,NaN,0.514152,-1.303645E-08,NaN,-2.065812,1.405917E-05,-0.343949,4.206025E-08,NaN,NaN,-0.02302672,6.10015E-10,-4.412057E-07,-1.128558E-07,-1.35891E-08,-2.622604E-08
440.4924,-1.515273,-1.31386E-08,NaN,-0.3256972,-1.346223E-07,NaN,0.513015,-1.299216E-08,NaN,-2.068681,1.405971E-05,-0.3442936,4.201776E-08,NaN,NaN,-0.02296685,6.10015E-10,-4.20344E-07,-1.128575E-07,-1.835747E-08,-2.861022E-08
440.5089,-1.511954,-1.313773E-08,NaN,-0.3257012,-1.34623E-07,NaN,0.5119045,-1.295146E-08,NaN,-2.071491,1.406026E-05,-0.34464,4.197887E-08,NaN,NaN,-0.02290819,6.10015E-10,-4.018666E-07,-1.128591E-07,-1.597328E-08,-2.622604E-08
440.5244,-1.508449,-1.313686E-08,NaN,-0.3257046,-1.346237E-07,NaN,0.5108343,-1.291146E-08,NaN,-2.074214,1.40608E-05,-0.3449765,4.194068E-08,NaN,NaN,-0.02285068,6.10015E-10,-3.839852E-07,-1.128608E-07,-8.820725E-09,-2.861022E-08
440.5399,-1.508449,-1.313686E-08,NaN,-0.3257046,-1.346237E-07,NaN,0.5108343,-1.291146E-08,NaN,-2.074214,1.40608E-05,-0.3449765,4.194068E-08,NaN,NaN,-0.02285068,6.10015E-10,-3.839852E-07,-1.128608E-07,-8.820725E-09,-2.861022E-08
440.5549,-1.504113,-1.313599E-08,NaN,-0.3257059,-1.346244E-07,NaN,0.5096338,-1.287497E-08,NaN,-2.077228,1.406135E-05,-0.3453161,4.1906E-08,NaN,NaN,-0.02279412,6.10015E-10,-3.625275E-07,-1.128624E-07,-4.052354E-09,-2.622604E-08
440.571,-1.499272,-1.313512E-08,NaN,-0.3257064,-1.346251E-07,NaN,0.5084084,-1.283909E-08,NaN,-2.080273,1.406189E-05,-0.3456846,4.187193E-08,NaN,NaN,-0.02273872,6.10015E-10,-3.416659E-07,-1.128641E-07,-1.120491E-08,-2.861022E-08
440.5869,-1.494135,-1.313425E-08,NaN,-0.3257066,-1.346258E-07,NaN,0.5072113,-1.280665E-08,NaN,-2.083253,1.406244E-05,-0.3460552,4.184129E-08,NaN,NaN,-0.02268443,6.10015E-10,-3.196122E-07,-1.128657E-07,-4.052354E-09,-2.622604E-08
440.6024,-1.488832,-1.313338E-08,NaN,-0.3257068,-1.346265E-07,NaN,0.5060573,-1.277474E-08,NaN,-2.086138,1.406298E-05,-0.3464151,4.181119E-08,NaN,NaN,-0.02263121,6.10015E-10,-2.999427E-07,-1.128673E-07,-8.820725E-09,-2.861022E-08
440.6189,-1.488832,-1.313338E-08,NaN,-0.3257068,-1.346265E-07,NaN,0.5060573,-1.277474E-08,NaN,-2.086138,1.406298E-05,-0.3464151,4.181119E-08,NaN,NaN,-0.02263121,6.10015E-10,-2.999427E-07,-1.128673E-07,-8.820725E-09,-2.861022E-08
440.6335,-1.482719,-1.313251E-08,NaN,-0.325705,-1.346271E-07,NaN,0.5047755,-1.274619E-08,NaN,-2.089307,1.406352E-05,-0.3467735,4.178444E-08,NaN,NaN,-0.02257884,6.10015E-10,-2.79081E-07,-1.12869E-07,-8.820725E-09,-2.622604E-08
440.6496,-1.476122,-1.313164E-08,NaN,-0.3257017,-1.346278E-07,NaN,0.5034695,-1.271809E-08,NaN,-2.092501,1.406407E-05,-0.3471608,4.175815E-08,NaN,NaN,-0.02252755,6.10015E-10,-2.540471E-07,-1.128706E-07,-8.820725E-09,-2.861022E-08
440.6655,-1.469248,-1.313077E-08,NaN,-0.3256975,-1.346285E-07,NaN,0.5021935,-1.269327E-08,NaN,-2.095621,1.406461E-05,-0.3475501,4.173514E-08,NaN,NaN,-0.02247729,6.10015E-10,-2.343776E-07,-1.128722E-07,-6.43654E-09,-2.622604E-08
440.6808,-1.462228,-1.31299E-08,NaN,-0.3256926,-1.346292E-07,NaN,0.5009628,-1.267167E-08,NaN,-2.098641,1.406516E-05,-0.3479284,4.171534E-08,NaN,NaN,-0.02242802,6.10015E-10,-2.14708E-07,-1.128738E-07,3.100203E-09,-2.861022E-08
440.6971,-1.462228,-1.31299E-08,NaN,-0.3256926,-1.346292E-07,NaN,0.5009628,-1.267167E-08,NaN,-2.098641,1.406516E-05,-0.3479284,4.171534E-08,NaN,NaN,-0.02242802,6.10015E-10,-2.14708E-07,-1.128738E-07,3.100203E-09,-2.861022E-08
440.7117,-1.454419,-1.312903E-08,NaN,-0.3256849,-1.346299E-07,NaN,0.4996069,-1.265321E-08,NaN,-2.10194,1.40657E-05,-0.3483,4.169869E-08,NaN,NaN,-0.02237951,6.10015E-10,-1.872899E-07,-1.128754E-07,7.160175E-10,-2.622604E-08
440.7285,-1.446145,-1.312816E-08,NaN,-0.3256751,-1.346306E-07,NaN,0.4982272,-1.263502E-08,NaN,-2.105256,1.406625E-05,-0.3487009,4.168231E-08,NaN,NaN,-0.02233199,6.10015E-10,-1.63448E-07,-1.12877E-07,-1.668168E-09,-2.861022E-08
440.7439,-1.437613,-1.312729E-08,NaN,-0.3256637,-1.346312E-07,NaN,0.4968788,-1.261991E-08,NaN,-2.108493,1.40668E-05,-0.3491042,4.1669E-08,NaN,NaN,-0.02228544,6.007018E-10,-1.402022E-07,-1.128786E-07,5.484389E-09,-2.622604E-08
440.7612,-1.428955,-1.312642E-08,NaN,-0.3256512,-1.346319E-07,NaN,0.4955777,-1.260504E-08,NaN,-2.111624,1.406735E-05,-0.3494963,4.165594E-08,NaN,NaN,-0.02223981,6.007018E-10,-1.187445E-07,-1.128802E-07,5.484389E-09,-2.861022E-08
440.7755,-1.428955,-1.312642E-08,NaN,-0.3256512,-1.346319E-07,NaN,0.4955777,-1.260504E-08,NaN,-2.111624,1.406735E-05,-0.3494963,4.165594E-08,NaN,NaN,-0.02223981,6.007018E-10,-1.187445E-07,-1.128802E-07,5.484389E-09,-2.861022E-08
440.7903,-1.419526,-1.312555E-08,NaN,-0.3256358,-1.346326E-07,NaN,0.494154,-1.259319E-08,NaN,-2.115027,1.406789E-05,-0.3498766,4.164589E-08,NaN,NaN,-0.02219483,6.007018E-10,-9.192246E-08,-1.128818E-07,1.025276E-08,-2.622604E-08
440.8065,-1.409651,-1.312468E-08,NaN,-0.3256179,-1.346333E-07,NaN,0.4927065,-1.258147E-08,NaN,-2.118443,1.406844E-05,-0.3502863,4.163598E-08,NaN,NaN,-0.02215078,6.007018E-10,-6.510037E-08,-1.128833E-07,7.868575E-09,-2.861022E-08
440.8226,-1.399537,-1.312381E-08,NaN,-0.3255982,-1.346339E-07,NaN,0.4912913,-1.257271E-08,NaN,-2.121775,1.406898E-05,-0.3506991,4.162903E-08,NaN,NaN,-0.02210763,6.007018E-10,-4.24506E-08,-1.128849E-07,1.025276E-08,-2.622604E-08
440.8381,-1.399537,-1.312381E-08,NaN,-0.3255982,-1.346339E-07,NaN,0.4912913,-1.257271E-08,NaN,-2.121775,1.406898E-05,-0.3506991,4.162903E-08,NaN,NaN,-0.02210763,6.007018E-10,-4.24506E-08,-1.128849E-07,1.025276E-08,-2.622604E-08
440.8533,-1.388587,-1.312293E-08,NaN,-0.325575,-1.346346E-07,NaN,0.4897559,-1.256402E-08,NaN,-2.125376,1.406953E-05,-0.3511001,4.162214E-08,NaN,NaN,-0.02206509,6.007018E-10,-1.622456E-08,-1.128865E-07,1.502113E-08,-2.861022E-08
440.8697,-1.377156,-1.312206E-08,NaN,-0.3255487,-1.346353E-07,NaN,0.4882019,-1.25554E-08,NaN,-2.128975,1.407007E-05,-0.3515305,4.161533E-08,NaN,NaN,-0.02202342,6.007018E-10,1.000149E-08,-1.12888E-07,1.740532E-08,-2.622604E-08
440.8855,-1.365472,-1.312119E-08,NaN,-0.3255201,-1.346359E-07,NaN,0.4866866,-1.254968E-08,NaN,-2.132476,1.407062E-05,-0.3519629,4.161141E-08,NaN,NaN,-0.02198261,6.007018E-10,3.801567E-08,-1.128896E-07,1.740532E-08,-2.861022E-08
440.9014,-1.353676,-1.312032E-08,NaN,-0.32549,-1.346366E-07,NaN,0.4852263,-1.254398E-08,NaN,-2.13585,1.407117E-05,-0.3523822,4.160751E-08,NaN,NaN,-0.02194261,5.913885E-10,6.185753E-08,-1.128911E-07,1.502113E-08,-2.622604E-08
440.9167,-1.353676,-1.312032E-08,NaN,-0.32549,-1.346366E-07,NaN,0.4852263,-1.254398E-08,NaN,-2.13585,1.407117E-05,-0.3523822,4.160751E-08,NaN,NaN,-0.02194261,5.913885E-10,6.185753E-08,-1.128911E-07,1.502113E-08,-2.622604E-08
440.9315,-1.341132,-1.311945E-08,NaN,-0.3254567,-1.346372E-07,NaN,0.4836517,-1.254111E-08,NaN,-2.139482,1.407171E-05,-0.3527789,4.160645E-08,NaN,NaN,-0.02190312,5.913885E-10,9.10638E-08,-1.128927E-07,1.97895E-08,-2.861022E-08
440.9485,-1.32817,-1.311858E-08,NaN,-0.3254205,-1.346379E-07,NaN,0.4820554,-1.25382E-08,NaN,-2.143112,1.407226E-05,-0.3532043,4.160534E-08,NaN,NaN,-0.02186445,5.913885E-10,1.19674E-07,-1.128942E-07,2.217369E-08,-2.622604E-08
440.9639,-1.314998,-1.311771E-08,NaN,-0.3253821,-1.346387E-07,NaN,0.4804946,-1.218907E-08,NaN,-2.146643,1.40728E-05,-0.3536335,4.125801E-08,NaN,NaN,-0.02182657,5.867319E-10,1.482843E-07,-1.12894E-07,2.217369E-08,-2.861022E-08
440.9796,-1.314998,-1.311771E-08,NaN,-0.3253821,-1.346387E-07,NaN,0.4804946,-1.218907E-08,NaN,-2.146643,1.40728E-05,-0.3536335,4.125801E-08,NaN,NaN,-0.02182657,5.867319E-10,1.482843E-07,-1.12894E-07,2.217369E-08,-2.861022E-08
440.9946,-1.301751,-1.311683E-08,NaN,-0.3253423,-1.34639E-07,NaN,0.478987,-1.195094E-08,NaN,-2.150049,1.407335E-05,-0.3540511,4.102169E-08,NaN,NaN,-0.02178944,5.727621E-10,1.739143E-07,-1.128935E-07,2.217369E-08,-2.622604E-08
441.0112,-1.287782,-1.311596E-08,NaN,-0.3252995,-1.346391E-07,NaN,0.4773653,-1.177091E-08,NaN,-2.153714,1.407389E-05,-0.3544413,4.084345E-08,NaN,NaN,-0.02175275,5.634489E-10,2.066968E-07,-1.128928E-07,1.740532E-08,-2.861022E-08
441.0268,-1.273419,-1.311509E-08,NaN,-0.3252539,-1.346391E-07,NaN,0.4757197,-1.162527E-08,NaN,-2.157375,1.407443E-05,-0.3548614,4.069963E-08,NaN,NaN,-0.02171681,5.587923E-10,2.34711E-07,-1.12892E-07,1.740532E-08,-2.622604E-08
441.0422,-1.258868,-1.311422E-08,NaN,-0.3252061,-1.34639E-07,NaN,0.4741085,-1.149926E-08,NaN,-2.160936,1.407496E-05,-0.3552868,4.057543E-08,NaN,NaN,-0.02168163,5.541357E-10,2.633212E-07,-1.128912E-07,2.455787E-08,-2.861022E-08
441.0581,-1.258868,-1.311422E-08,NaN,-0.3252061,-1.34639E-07,NaN,0.4741085,-1.149926E-08,NaN,-2.160936,1.407496E-05,-0.3552868,4.057543E-08,NaN,NaN,-0.02168163,5.541357E-10,2.633212E-07,-1.128912E-07,2.455787E-08,-2.861022E-08
441.073,-1.244259,-1.311335E-08,NaN,-0.325157,-1.346388E-07,NaN,0.4725511,-1.138687E-08,NaN,-2.164369,1.407549E-05,-0.3557014,4.046485E-08,NaN,NaN,-0.02164715,5.494791E-10,2.913354E-07,-1.128903E-07,2.217369E-08,-2.622604E-08
441.0896,-1.228947,-1.311247E-08,NaN,-0.325105,-1.346386E-07,NaN,0.4708817,-1.128218E-08,NaN,-2.168058,1.407602E-05,-0.3560837,4.036198E-08,NaN,NaN,-0.02161302,5.448225E-10,3.259061E-07,-1.128894E-07,1.502113E-08,-2.861022E-08
441.1052,-1.213257,-1.31116E-08,NaN,-0.3250501,-1.346384E-07,NaN,0.4691872,-1.118223E-08,NaN,-2.17174,1.407655E-05,-0.3564962,4.026385E-08,NaN,NaN,-0.0215796,5.401659E-10,3.574966E-07,-1.128885E-07,1.025276E-08,-2.622604E-08
441.121,-1.197394,-1.311073E-08,NaN,-0.3249931,-1.346382E-07,NaN,0.4675269,-1.108411E-08,NaN,-2.175319,1.407709E-05,-0.3569154,4.016754E-08,NaN,NaN,-0.02154688,5.355092E-10,3.872989E-07,-1.128876E-07,1.502113E-08,-2.861022E-08
441.1369,-1.197394,-1.311073E-08,NaN,-0.3249931,-1.346382E-07,NaN,0.4675269,-1.108411E-08,NaN,-2.175319,1.407709E-05,-0.3569154,4.016754E-08,NaN,NaN,-0.02154688,5.355092E-10,3.872989E-07,-1.128876E-07,1.502113E-08,-2.861022E-08
441.152,-1.18149,-1.310986E-08,NaN,-0.3249348,-1.34638E-07,NaN,0.4659211,-1.098777E-08,NaN,-2.178767,1.407762E-05,-0.3573247,4.007302E-08,NaN,NaN,-0.02151482,5.308526E-10,4.14717E-07,-1.128867E-07,1.740532E-08,-2.622604E-08
441.1682,-1.164898,-1.310899E-08,NaN,-0.3248736,-1.346378E-07,NaN,0.464206,-1.039107E-08,NaN,-2.182468,1.407815E-05,-0.3576964,3.946096E-08,NaN,NaN,-0.02148304,5.215394E-10,4.486917E-07,-1.128851E-07,1.502113E-08,-2.861022E-08
441.1837,-1.147943,-1.310811E-08,NaN,-0.3248096,-1.346375E-07,NaN,0.462459,-9.79437E-09,NaN,-2.186005,1.407868E-05,-0.3581115,3.883771E-08,NaN,NaN,-0.02145175,5.168828E-10,4.844545E-07,-1.128835E-07,1.263695E-08,-2.622604E-08
441.1995,-1.147943,-1.310811E-08,NaN,-0.3248096,-1.346375E-07,NaN,0.462459,-9.79437E-09,NaN,-2.186005,1.407868E-05,-0.3581115,3.883771E-08,NaN,NaN,-0.02145175,5.168828E-10,4.844545E-07,-1.128835E-07,1.263695E-08,-2.622604E-08
441.2145,-1.13083,-1.310724E-08,NaN,-0.3247435,-1.346371E-07,NaN,0.4606994,-9.197672E-09,NaN,-2.188084,1.407921E-05,-0.3586397,3.820737E-08,NaN,NaN,-0.02141977,5.122262E-10,5.440591E-07,-1.128817E-07,1.025276E-08,-2.861022E-08
441.2313,-1.11369,-1.310637E-08,NaN,-0.3246761,-1.346366E-07,NaN,0.4589828,-8.600974E-09,NaN,-2.188652,1.407975E-05,-0.3592067,3.757295E-08,NaN,NaN,-0.02138808,5.02913E-10,6.108163E-07,-1.1288E-07,5.484389E-09,-2.622604E-08
441.247,-1.095876,-1.31055E-08,NaN,-0.324606,-1.346362E-07,NaN,0.4571714,-8.004276E-09,NaN,-2.188638,1.408029E-05,-0.3597258,3.693663E-08,NaN,NaN,-0.02135689,4.889432E-10,6.769774E-07,-1.128783E-07,1.025276E-08,-2.861022E-08
441.2627,-1.077713,-1.310462E-08,NaN,-0.3245331,-1.346357E-07,NaN,0.4553479,-7.407579E-09,NaN,-2.188252,1.408082E-05,-0.3602574,3.630004E-08,NaN,NaN,-0.02132668,4.796299E-10,7.336018E-07,-1.128766E-07,1.025276E-08,-2.622604E-08
441.2794,-1.077713,-1.310462E-08,NaN,-0.3245331,-1.346357E-07,NaN,0.4553479,-7.407579E-09,NaN,-2.188252,1.408082E-05,-0.3602574,3.630004E-08,NaN,NaN,-0.02132668,4.796299E-10,7.336018E-07,-1.128766E-07,1.025276E-08,-2.622604E-08
441.2929,-1.059407,-1.310375E-08,NaN,-0.3244581,-1.346353E-07,NaN,0.4535724,-6.810881E-09,NaN,-2.187757,1.408136E-05,-0.3607788,3.566434E-08,NaN,NaN,-0.02129746,4.749733E-10,7.848618E-07,-1.128749E-07,7.868575E-09,-2.861022E-08
441.3092,-1.041087,-1.310288E-08,NaN,-0.3243819,-1.346348E-07,NaN,0.4518653,-6.214183E-09,NaN,-2.187336,1.408189E-05,-0.361277,3.503039E-08,NaN,NaN,-0.02126909,4.656601E-10,8.283732E-07,-1.128732E-07,1.025276E-08,-2.622604E-08
441.3253,-1.022107,-1.310201E-08,NaN,-0.3243031,-1.346344E-07,NaN,0.4500617,-5.617485E-09,NaN,-2.187446,1.408242E-05,-0.36173,3.439881E-08,NaN,NaN,-0.0212411,4.656601E-10,8.754608E-07,-1.128715E-07,1.025276E-08,-2.861022E-08
441.3408,-1.002792,-1.310114E-08,NaN,-0.3242215,-1.34634E-07,NaN,0.448236,-5.020787E-09,NaN,-2.187661,1.408295E-05,-0.3622262,3.377004E-08,NaN,NaN,-0.02121363,4.610035E-10,9.183762E-07,-1.128698E-07,1.025276E-08,-2.622604E-08
441.3568,-1.002792,-1.310114E-08,NaN,-0.3242215,-1.34634E-07,NaN,0.448236,-5.020787E-09,NaN,-2.187661,1.408295E-05,-0.3622262,3.377004E-08,NaN,NaN,-0.02121363,4.610035E-10,9.183762E-07,-1.128698E-07,1.025276E-08,-2.622604E-08
441.3718,-0.9833465,-1.310026E-08,NaN,-0.3241378,-1.346335E-07,NaN,0.4464504,-4.42409E-09,NaN,-2.18777,1.408348E-05,-0.3627444,3.314442E-08,NaN,NaN,-0.02118668,4.516903E-10,9.654639E-07,-1.128682E-07,7.868575E-09,-2.861022E-08
441.3883,-0.9639004,-1.309939E-08,NaN,-0.3240531,-1.346331E-07,NaN,0.4447306,-3.827392E-09,NaN,-2.187728,1.408401E-05,-0.3632603,3.252216E-08,NaN,NaN,-0.02116031,4.470337E-10,1.011956E-06,-1.128666E-07,3.100204E-09,-2.622604E-08
441.4036,-0.9438074,-1.309852E-08,NaN,-0.3239659,-1.346327E-07,NaN,0.4429156,-3.230694E-09,NaN,-2.187971,1.408453E-05,-0.3637395,3.190344E-08,NaN,NaN,-0.02113418,4.423771E-10,1.059043E-06,-1.128649E-07,5.484389E-09,-2.861022E-08
441.4193,-0.9438074,-1.309852E-08,NaN,-0.3239659,-1.346327E-07,NaN,0.4429156,-3.230694E-09,NaN,-2.187971,1.408453E-05,-0.3637395,3.190344E-08,NaN,NaN,-0.02113418,4.423771E-10,1.059043E-06,-1.128649E-07,5.484389E-09,-2.861022E-08
441.4344,-0.9233918,-1.309765E-08,NaN,-0.323876,-1.346324E-07,NaN,0.4410828,-2.633996E-09,NaN,-2.188153,1.408505E-05,-0.3642596,3.128836E-08,NaN,NaN,-0.02110856,4.423771E-10,1.108515E-06,-1.128633E-07,3.100204E-09,-2.622604E-08
441.4507,-0.9028587,-1.309677E-08,NaN,-0.3237841,-1.34632E-07,NaN,0.4392941,-2.037298E-09,NaN,-2.188159,1.408557E-05,-0.3647955,3.067699E-08,NaN,NaN,-0.02108349,4.423771E-10,1.150834E-06,-1.128617E-07,7.160179E-10,-2.861022E-08
441.4667,-0.8823375,-1.30959E-08,NaN,-0.3236912,-1.346319E-07,NaN,0.4375741,-1.707101E-09,NaN,-2.188018,1.408609E-05,-0.365323,3.033574E-08,NaN,NaN,-0.02105902,4.470337E-10,1.194346E-06,-1.128598E-07,-1.668168E-09,-2.622604E-08
441.4821,-0.8611819,-1.309503E-08,NaN,-0.3235959,-1.346319E-07,NaN,0.4357607,-1.38375E-09,NaN,-2.188201,1.408662E-05,-0.3658115,3.000392E-08,NaN,NaN,-0.0210348,4.516903E-10,1.240837E-06,-1.128579E-07,7.160179E-10,-2.861022E-08
441.4981,-0.8611819,-1.309503E-08,NaN,-0.3235959,-1.346319E-07,NaN,0.4357607,-1.38375E-09,NaN,-2.188201,1.408662E-05,-0.3658115,3.000392E-08,NaN,NaN,-0.0210348,4.516903E-10,1.240837E-06,-1.128579E-07,7.160179E-10,-2.861022E-08
441.5129,-0.839716,-1.309416E-08,NaN,-0.3234981,-1.346319E-07,NaN,0.4339307,-1.059108E-09,NaN,-2.18836,1.408715E-05,-0.3663391,2.967286E-08,NaN,NaN,-0.02101105,4.563469E-10,1.285541E-06,-1.12856E-07,3.100204E-09,-2.622604E-08
441.5291,-0.8181446,-1.309329E-08,NaN,-0.3233982,-1.34632E-07,NaN,0.4321456,-7.363951E-10,NaN,-2.188369,1.408768E-05,-0.3668821,2.934538E-08,NaN,NaN,-0.02098783,4.563469E-10,1.326668E-06,-1.128541E-07,7.160179E-10,-2.861022E-08
441.5445,-0.7965971,-1.309241E-08,NaN,-0.3232975,-1.34632E-07,NaN,0.4304298,-4.158699E-10,NaN,-2.18824,1.408822E-05,-0.3674172,2.90214E-08,NaN,NaN,-0.02096516,4.516903E-10,1.366007E-06,-1.128522E-07,1.025276E-08,-2.622604E-08
441.5605,-0.7744272,-1.309154E-08,NaN,-0.3231947,-1.34632E-07,NaN,0.4286211,-9.772805E-11,NaN,-2.188435,1.408876E-05,-0.3679148,2.870086E-08,NaN,NaN,-0.0209427,4.470337E-10,1.408326E-06,-1.128503E-07,7.868575E-09,-2.861022E-08
441.576,-0.7744272,-1.309154E-08,NaN,-0.3231947,-1.34632E-07,NaN,0.4286211,-9.772805E-11,NaN,-2.188435,1.408876E-05,-0.3679148,2.870086E-08,NaN,NaN,-0.0209427,4.470337E-10,1.408326E-06,-1.128503E-07,7.868575E-09,-2.861022E-08
441.5911,-0.7519586,-1.309067E-08,NaN,-0.3230893,-1.34632E-07,NaN,0.4267969,2.150619E-10,NaN,-2.1886,1.408929E-05,-0.3684516,2.838652E-08,NaN,NaN,-0.02092067,4.516903E-10,1.451242E-06,-1.128485E-07,5.484389E-09,-2.622604E-08
441.6075,-0.7293962,-1.30898E-08,NaN,-0.322982,-1.346321E-07,NaN,0.4250187,5.252826E-10,NaN,-2.188607,1.408983E-05,-0.3690033,2.807542E-08,NaN,NaN,-0.02089912,4.563469E-10,1.491773E-06,-1.128466E-07,5.484389E-09,-2.861022E-08
441.6235,-0.7068691,-1.308892E-08,NaN,-0.322874,-1.346321E-07,NaN,0.4233108,8.300321E-10,NaN,-2.188474,1.409037E-05,-0.3695464,2.777033E-08,NaN,NaN,-0.0208781,4.516903E-10,1.529324E-06,-1.128448E-07,1.263695E-08,-2.622604E-08
441.639,-0.7068691,-1.308892E-08,NaN,-0.322874,-1.346321E-07,NaN,0.4233108,8.300321E-10,NaN,-2.188474,1.409037E-05,-0.3695464,2.777033E-08,NaN,NaN,-0.0208781,4.516903E-10,1.529324E-06,-1.128448E-07,1.263695E-08,-2.622604E-08
441.6541,-0.6837308,-1.308805E-08,NaN,-0.322764,-1.346321E-07,NaN,0.4215105,1.132154E-09,NaN,-2.188663,1.409091E-05,-0.3700529,2.74683E-08,NaN,NaN,-0.02085726,4.470337E-10,1.571643E-06,-1.128429E-07,1.502113E-08,-2.861022E-08
441.6702,-0.6603051,-1.308718E-08,NaN,-0.3226515,-1.346322E-07,NaN,0.4196959,1.42879E-09,NaN,-2.188823,1.409145E-05,-0.3705978,2.71721E-08,NaN,NaN,-0.02083682,4.423771E-10,1.614856E-06,-1.128411E-07,1.263695E-08,-2.622604E-08
441.686,-0.6367967,-1.308631E-08,NaN,-0.3225372,-1.346322E-07,NaN,0.4179282,1.722813E-09,NaN,-2.188826,1.409199E-05,-0.371157,2.687879E-08,NaN,NaN,-0.02081684,4.377205E-10,1.65658E-06,-1.128392E-07,7.868576E-09,-2.861022E-08
441.7015,-0.6133344,-1.308544E-08,NaN,-0.3224224,-1.346322E-07,NaN,0.4162316,2.011399E-09,NaN,-2.188689,1.409253E-05,-0.371707,2.659114E-08,NaN,NaN,-0.02079736,4.330639E-10,1.69413E-06,-1.128374E-07,5.48439E-09,-2.622604E-08
441.7175,-0.6133344,-1.308544E-08,NaN,-0.3224224,-1.346322E-07,NaN,0.4162316,2.011399E-09,NaN,-2.188689,1.409253E-05,-0.371707,2.659114E-08,NaN,NaN,-0.02079736,4.330639E-10,1.69413E-06,-1.128374E-07,5.48439E-09,-2.622604E-08
441.7325,-0.5894439,-1.308456E-08,NaN,-0.3223062,-1.346322E-07,NaN,0.4144825,2.297443E-09,NaN,-2.188783,1.409307E-05,-0.372225,2.630621E-08,NaN,NaN,-0.0207781,4.284073E-10,1.73347E-06,-1.128356E-07,7.868576E-09,-2.861022E-08
441.7489,-0.5653841,-1.308369E-08,NaN,-0.3221887,-1.346323E-07,NaN,0.4127398,2.580959E-09,NaN,-2.188854,1.40936E-05,-0.3727668,2.602395E-08,NaN,NaN,-0.02075926,4.330639E-10,1.768636E-06,-1.128338E-07,7.868576E-09,-2.622604E-08
441.7646,-0.5413184,-1.308282E-08,NaN,-0.3220704,-1.346323E-07,NaN,0.4110484,2.859146E-09,NaN,-2.188814,1.409414E-05,-0.3733142,2.574713E-08,NaN,NaN,-0.02074086,4.284073E-10,1.807677E-06,-1.12832E-07,7.868576E-09,-2.861022E-08
441.7816,-0.5173498,-1.308194E-08,NaN,-0.3219526,-1.346323E-07,NaN,0.4094253,3.134917E-09,NaN,-2.188676,1.409469E-05,-0.3738501,2.547281E-08,NaN,NaN,-0.02072291,4.237506E-10,1.844334E-06,-1.128302E-07,7.868576E-09,-2.622604E-08
441.7962,-0.5173498,-1.308194E-08,NaN,-0.3219526,-1.346323E-07,NaN,0.4094253,3.134917E-09,NaN,-2.188676,1.409469E-05,-0.3738501,2.547281E-08,NaN,NaN,-0.02072291,4.237506E-10,1.844334E-06,-1.128302E-07,7.868576E-09,-2.622604E-08
441.8109,-0.4935425,-1.308107E-08,NaN,-0.3218363,-1.346324E-07,NaN,0.4078721,3.405476E-09,NaN,-2.188493,1.409523E-05,-0.3743669,2.520378E-08,NaN,NaN,-0.02070543,4.284073E-10,1.875031E-06,-1.128284E-07,5.48439E-09,-2.861022E-08
441.8275,-0.4699364,-1.30802E-08,NaN,-0.3217223,-1.346324E-07,NaN,0.4063845,3.673737E-09,NaN,-2.188313,1.409577E-05,-0.3748632,2.493711E-08,NaN,NaN,-0.02068841,4.330639E-10,1.904833E-06,-1.128266E-07,3.100205E-09,-2.622604E-08
441.8432,-0.4465556,-1.307933E-08,NaN,-0.3216115,-1.346324E-07,NaN,0.4049568,3.93691E-09,NaN,-2.188162,1.409631E-05,-0.375341,2.467557E-08,NaN,NaN,-0.02067182,4.377205E-10,1.929569E-06,-1.128248E-07,7.160188E-10,-2.861022E-08
441.8593,-0.4465556,-1.307933E-08,NaN,-0.3216115,-1.346324E-07,NaN,0.4049568,3.93691E-09,NaN,-2.188162,1.409631E-05,-0.375341,2.467557E-08,NaN,NaN,-0.02067182,4.377205E-10,1.929569E-06,-1.128248E-07,7.160188E-10,-2.861022E-08
441.8743,-0.4234146,-1.307845E-08,NaN,-0.3215043,-1.346324E-07,NaN,0.403584,4.198489E-09,NaN,-2.188044,1.409687E-05,-0.3758028,2.441566E-08,NaN,NaN,-0.02065562,4.330639E-10,1.954305E-06,-1.12823E-07,-1.668167E-09,-2.622604E-08
441.8907,-0.4005212,-1.307758E-08,NaN,-0.3214012,-1.346325E-07,NaN,0.4022622,4.455097E-09,NaN,-2.187952,1.409742E-05,-0.3762508,2.416075E-08,NaN,NaN,-0.02063981,4.284073E-10,1.975464E-06,-1.128213E-07,3.100205E-09,-2.861022E-08
441.9063,-0.3778796,-1.307671E-08,NaN,-0.3213024,-1.346325E-07,NaN,0.4009885,4.709654E-09,NaN,-2.187872,1.409797E-05,-0.3766864,2.390792E-08,NaN,NaN,-0.02062435,4.330639E-10,1.996624E-06,-1.128195E-07,5.48439E-09,-2.622604E-08
441.9223,-0.3554912,-1.307583E-08,NaN,-0.3212081,-1.346325E-07,NaN,0.3997607,4.959366E-09,NaN,-2.187797,1.409851E-05,-0.3771103,2.365995E-08,NaN,NaN,-0.02060924,4.377205E-10,2.015996E-06,-1.128178E-07,3.100205E-09,-2.861022E-08
441.938,-0.3554912,-1.307583E-08,NaN,-0.3212081,-1.346325E-07,NaN,0.3997607,4.959366E-09,NaN,-2.187797,1.409851E-05,-0.3771103,2.365995E-08,NaN,NaN,-0.02060924,4.377205E-10,2.015996E-06,-1.128178E-07,3.100205E-09,-2.861022E-08
441.9532,-0.3333558,-1.307496E-08,NaN,-0.3211183,-1.346326E-07,NaN,0.3985772,5.207151E-09,NaN,-2.187721,1.409906E-05,-0.3775228,2.341393E-08,NaN,NaN,-0.02059447,4.330639E-10,2.034175E-06,-1.12816E-07,7.160188E-10,-2.622604E-08
441.9698,-0.3114724,-1.307409E-08,NaN,-0.321033,-1.346326E-07,NaN,0.3974364,5.45022E-09,NaN,-2.187642,1.409962E-05,-0.3779239,2.317263E-08,NaN,NaN,-0.02058003,4.284073E-10,2.051907E-06,-1.128143E-07,5.48439E-09,-2.861022E-08
441.9855,-0.2898391,-1.307321E-08,NaN,-0.3209521,-1.346326E-07,NaN,0.3963373,5.688665E-09,NaN,-2.187561,1.410017E-05,-0.3783138,2.293596E-08,NaN,NaN,-0.02056594,4.237506E-10,2.064424E-06,-1.128125E-07,5.48439E-09,-2.622604E-08
442.0011,-0.2684538,-1.307234E-08,NaN,-0.3208757,-1.346326E-07,NaN,0.3952785,5.925397E-09,NaN,-2.18748,1.410073E-05,-0.3786926,2.270102E-08,NaN,NaN,-0.02055217,4.19094E-10,2.076941E-06,-1.128108E-07,7.868576E-09,-2.861022E-08
442.017,-0.2684538,-1.307234E-08,NaN,-0.3208757,-1.346326E-07,NaN,0.3952785,5.925397E-09,NaN,-2.18748,1.410073E-05,-0.3786926,2.270102E-08,NaN,NaN,-0.02055217,4.19094E-10,2.076941E-06,-1.128108E-07,7.868576E-09,-2.861022E-08
442.0319,-0.2536875,-1.307146E-08,NaN,-0.3208241,-1.346327E-07,NaN,0.3957225,6.16045E-09,NaN,-2.183918,1.410128E-05,-0.3791503,2.246776E-08,NaN,NaN,-0.02054194,4.144374E-10,2.034026E-06,-1.128091E-07,1.025276E-08,-2.622604E-08
442.0483,-0.2431469,-1.307059E-08,NaN,-0.3208055,-1.346327E-07,NaN,0.3969288,6.391033E-09,NaN,-2.180601,1.410183E-05,-0.3790578,2.223897E-08,NaN,NaN,-0.02053314,4.097808E-10,1.963543E-06,-1.128074E-07,5.484391E-09,-2.861022E-08
442.0641,-0.2353095,-1.306972E-08,NaN,-0.3208112,-1.346327E-07,NaN,0.3982837,6.617228E-09,NaN,-2.178472,1.410239E-05,-0.3787014,2.201458E-08,NaN,NaN,-0.02052432,4.051242E-10,1.893657E-06,-1.128057E-07,7.160192E-10,-2.622604E-08
442.0797,-0.2353095,-1.306972E-08,NaN,-0.3208112,-1.346327E-07,NaN,0.3982837,6.617228E-09,NaN,-2.178472,1.410239E-05,-0.3787014,2.201458E-08,NaN,NaN,-0.02052432,4.051242E-10,1.893657E-06,-1.128057E-07,7.160192E-10,-2.622604E-08
442.0949,-0.2292063,-1.306884E-08,NaN,-0.3208348,-1.346328E-07,NaN,0.3995263,6.841948E-09,NaN,-2.177156,1.410294E-05,-0.3783249,2.179166E-08,NaN,NaN,-0.02051492,4.004676E-10,1.841205E-06,-1.12804E-07,3.100205E-09,-2.861022E-08
442.1113,-0.2242199,-1.306797E-08,NaN,-0.3208715,-1.346328E-07,NaN,0.4006156,7.062399E-09,NaN,-2.176389,1.41035E-05,-0.3779908,2.157302E-08,NaN,NaN,-0.02050537,3.95811E-10,1.795011E-06,-1.128023E-07,7.160192E-10,-2.622604E-08
442.1271,-0.2199573,-1.306709E-08,NaN,-0.3209168,-1.346328E-07,NaN,0.4015734,7.281485E-09,NaN,-2.175985,1.410405E-05,-0.3777054,2.135575E-08,NaN,NaN,-0.02049585,3.911544E-10,1.752692E-06,-1.128006E-07,-1.668166E-09,-2.861022E-08
442.1427,-0.216168,-1.306622E-08,NaN,-0.3209676,-1.346328E-07,NaN,0.4024318,7.496411E-09,NaN,-2.175815,1.410461E-05,-0.3774599,2.114263E-08,NaN,NaN,-0.02048642,3.818412E-10,1.7138E-06,-1.127989E-07,-4.052352E-09,-2.622604E-08
442.1584,-0.216168,-1.306622E-08,NaN,-0.3209676,-1.346328E-07,NaN,0.4024318,7.496411E-09,NaN,-2.175815,1.410461E-05,-0.3774599,2.114263E-08,NaN,NaN,-0.02048642,3.818412E-10,1.7138E-06,-1.127989E-07,-4.052352E-09,-2.622604E-08
442.1735,-0.2126925,-1.306534E-08,NaN,-0.3210219,-1.346329E-07,NaN,0.4032192,7.710083E-09,NaN,-2.175795,1.410516E-05,-0.3772436,2.093077E-08,NaN,NaN,-0.02047713,3.818412E-10,1.6761E-06,-1.127972E-07,-8.820724E-09,-2.861022E-08
442.1903,-0.2094669,-1.306447E-08,NaN,-0.3336826,-1.346329E-07,NaN,0.4030201,7.919695E-09,NaN,-2.178947,1.410572E-05,-0.380879,2.072298E-08,NaN,NaN,-0.02047684,3.72528E-10,1.522916E-06,-1.127955E-07,-2.074165E-08,-2.622604E-08
442.2059,-0.2064839,-1.306359E-08,NaN,-0.3539765,-1.346329E-07,NaN,0.4035195,8.128158E-09,NaN,-2.18293,1.410627E-05,-0.3842549,2.051633E-08,NaN,NaN,-0.02047518,3.632147E-10,1.402515E-06,-1.127939E-07,-2.551002E-08,-2.861022E-08
442.222,-0.2036992,-1.306272E-08,NaN,-0.3788471,-1.34633E-07,NaN,0.4044234,8.332666E-09,NaN,-2.186557,1.410682E-05,-0.3870476,2.031364E-08,NaN,NaN,-0.02047141,3.632147E-10,1.316684E-06,-1.127922E-07,-2.789421E-08,-2.622604E-08
442.2374,-0.2036992,-1.306272E-08,NaN,-0.3788471,-1.34633E-07,NaN,0.4044234,8.332666E-09,NaN,-2.186557,1.410682E-05,-0.3870476,2.031364E-08,NaN,NaN,-0.02047141,3.632147E-10,1.316684E-06,-1.127922E-07,-2.789421E-08,-2.622604E-08
442.2527,-0.2010649,-1.306184E-08,NaN,-0.4064107,-1.34633E-07,NaN,0.405405,8.536123E-09,NaN,-2.188433,1.410738E-05,-0.3895196,2.0112E-08,NaN,NaN,-0.02046518,3.539015E-10,1.265275E-06,-1.127906E-07,-2.789421E-08,-2.861022E-08
442.2694,-0.1985381,-1.306096E-08,NaN,-0.4347487,-1.34633E-07,NaN,0.4064589,8.735721E-09,NaN,-2.18845,1.410793E-05,-0.3914954,1.991421E-08,NaN,NaN,-0.02045764,3.539015E-10,1.239571E-06,-1.127889E-07,-2.551002E-08,-2.622604E-08
442.2847,-0.1960873,-1.306009E-08,NaN,-0.463436,-1.34633E-07,NaN,0.4074754,8.934366E-09,NaN,-2.187522,1.410849E-05,-0.3932422,1.971739E-08,NaN,NaN,-0.02045051,3.445883E-10,1.206937E-06,-1.127873E-07,-3.027839E-08,-2.861022E-08
442.3018,-0.1936923,-1.305921E-08,NaN,-0.4922089,-1.34633E-07,NaN,0.4084597,9.129248E-09,NaN,-2.186446,1.410904E-05,-0.3948164,1.952432E-08,NaN,NaN,-0.02044407,3.445883E-10,1.163202E-06,-1.127856E-07,-3.266258E-08,-2.622604E-08
442.3163,-0.1936923,-1.305921E-08,NaN,-0.4922089,-1.34633E-07,NaN,0.4084597,9.129248E-09,NaN,-2.186446,1.410904E-05,-0.3948164,1.952432E-08,NaN,NaN,-0.02044407,3.445883E-10,1.163202E-06,-1.127856E-07,-3.266258E-08,-2.622604E-08
442.3315,-0.1913405,-1.305834E-08,NaN,-0.5209039,-1.346331E-07,NaN,0.409411,9.323264E-09,NaN,-2.185663,1.41096E-05,-0.3962582,1.933213E-08,NaN,NaN,-0.02043818,3.352751E-10,1.112389E-06,-1.12784E-07,-3.147049E-08,-2.861022E-08
442.3478,-0.18902,-1.305746E-08,NaN,-0.5486584,-1.346331E-07,NaN,0.4103842,9.513607E-09,NaN,-2.18509,1.411015E-05,-0.3973669,1.91436E-08,NaN,NaN,-0.02043201,3.352751E-10,1.066196E-06,-1.127824E-07,-3.147049E-08,-2.622604E-08
442.3636,-0.1867247,-1.305658E-08,NaN,-0.5757094,-1.346331E-07,NaN,0.4112701,9.700353E-09,NaN,-2.18484,1.41107E-05,-0.3984276,1.895868E-08,NaN,NaN,-0.02042612,3.259619E-10,1.023876E-06,-1.127808E-07,-3.147049E-08,-2.861022E-08
442.3791,-0.1867247,-1.305658E-08,NaN,-0.5757094,-1.346331E-07,NaN,0.4112701,9.700353E-09,NaN,-2.18484,1.41107E-05,-0.3984276,1.895868E-08,NaN,NaN,-0.02042612,3.259619E-10,1.023876E-06,-1.127808E-07,-3.147049E-08,-2.861022E-08
442.3941,-0.184452,-1.305571E-08,NaN,-0.6022049,-1.346331E-07,NaN,0.4120881,9.886397E-09,NaN,-2.184837,1.411125E-05,-0.3994837,1.877445E-08,NaN,NaN,-0.0204204,3.259619E-10,9.760436E-07,-1.127791E-07,-3.147049E-08,-2.622604E-08
442.4102,-0.1822009,-1.305483E-08,NaN,-0.6282377,-1.346331E-07,NaN,0.4128638,1.00661E-08,NaN,-2.184944,1.411181E-05,-0.4005327,1.859657E-08,NaN,NaN,-0.02041472,3.166487E-10,9.316381E-07,-1.127775E-07,-2.90863E-08,-2.861022E-08
442.4267,-0.1799666,-1.305395E-08,NaN,-0.6531049,-1.346331E-07,NaN,0.4136759,1.024524E-08,NaN,-2.184864,1.411236E-05,-0.4013234,1.841925E-08,NaN,NaN,-0.02040849,3.166487E-10,8.967694E-07,-1.127759E-07,-2.431793E-08,-2.622604E-08
442.4418,-0.1777478,-1.305307E-08,NaN,-0.6771435,-1.346331E-07,NaN,0.4144301,1.052528E-08,NaN,-2.184749,1.411292E-05,-0.4020974,1.814103E-08,NaN,NaN,-0.02040249,3.073354E-10,8.621987E-07,-1.127746E-07,-2.312584E-08,-2.861022E-08
442.4576,-0.1777478,-1.305307E-08,NaN,-0.6771435,-1.346331E-07,NaN,0.4144301,1.052528E-08,NaN,-2.184749,1.411292E-05,-0.4020974,1.814103E-08,NaN,NaN,-0.02040249,3.073354E-10,8.621987E-07,-1.127746E-07,-2.312584E-08,-2.861022E-08
442.4727,-0.1755453,-1.30522E-08,NaN,-0.7005634,-1.346327E-07,NaN,0.4151471,1.056039E-08,NaN,-2.184672,1.411347E-05,-0.4028732,1.810774E-08,NaN,NaN,-0.02039674,3.073354E-10,8.261379E-07,-1.12774E-07,-1.478119E-08,-2.622604E-08
442.4892,-0.1733601,-1.305132E-08,NaN,-0.7234963,-1.346324E-07,NaN,0.4158463,1.060904E-08,NaN,-2.18464,1.411402E-05,-0.4036394,1.806092E-08,NaN,NaN,-0.02039114,3.073354E-10,7.900771E-07,-1.127734E-07,-1.954956E-08,-2.861022E-08
442.5049,-0.1711879,-1.305044E-08,NaN,-0.7452631,-1.346321E-07,NaN,0.4165969,1.066532E-08,NaN,-2.184444,1.411457E-05,-0.4041458,1.800646E-08,NaN,NaN,-0.02038508,3.073354E-10,7.614669E-07,-1.127729E-07,-2.193374E-08,-2.622604E-08
442.5208,-0.1690281,-1.304956E-08,NaN,-0.7662162,-1.346318E-07,NaN,0.4172969,1.072628E-08,NaN,-2.184274,1.411512E-05,-0.4046388,1.794734E-08,NaN,NaN,-0.02037929,3.073354E-10,7.286844E-07,-1.127724E-07,-1.478119E-08,-2.861022E-08
442.5368,-0.1690281,-1.304956E-08,NaN,-0.7662162,-1.346318E-07,NaN,0.4172969,1.072628E-08,NaN,-2.184274,1.411512E-05,-0.4046388,1.794734E-08,NaN,NaN,-0.02037929,3.073354E-10,7.286844E-07,-1.127724E-07,-1.478119E-08,-2.861022E-08
442.5514,-0.166882,-1.304869E-08,NaN,-0.7865747,-1.346314E-07,NaN,0.4179624,1.08071E-08,NaN,-2.184193,1.411567E-05,-0.4051409,1.786835E-08,NaN,NaN,-0.02037375,3.073354E-10,6.935176E-07,-1.127736E-07,-1.835746E-08,-2.622604E-08
442.5674,-0.1647511,-1.304781E-08,NaN,-0.8064757,-1.346315E-07,NaN,0.418611,1.099075E-08,NaN,-2.184186,1.411622E-05,-0.405643,1.768652E-08,NaN,NaN,-0.02036835,3.073354E-10,6.625232E-07,-1.127751E-07,-1.835746E-08,-2.861022E-08
442.5837,-0.1626308,-1.304693E-08,NaN,-0.8252433,-1.346318E-07,NaN,0.4193106,1.122449E-08,NaN,-2.184022,1.411677E-05,-0.4058963,1.745461E-08,NaN,NaN,-0.02036248,3.073354E-10,6.404695E-07,-1.127769E-07,-1.478119E-08,-2.622604E-08
442.5995,-0.1626308,-1.304693E-08,NaN,-0.8252433,-1.346318E-07,NaN,0.4193106,1.122449E-08,NaN,-2.184022,1.411677E-05,-0.4058963,1.745461E-08,NaN,NaN,-0.02036248,3.073354E-10,6.404695E-07,-1.127769E-07,-1.478119E-08,-2.622604E-08
442.6143,-0.1605203,-1.304605E-08,NaN,-0.8432322,-1.346322E-07,NaN,0.4199597,1.148192E-08,NaN,-2.183877,1.411732E-05,-0.4061458,1.7199E-08,NaN,NaN,-0.02035687,3.073354E-10,6.154356E-07,-1.127787E-07,-1.478119E-08,-2.861022E-08
442.6311,-0.1584212,-1.304518E-08,NaN,-0.8606626,-1.346327E-07,NaN,0.4205751,1.175134E-08,NaN,-2.183811,1.411786E-05,-0.4064129,1.693139E-08,NaN,NaN,-0.0203515,3.073354E-10,5.874214E-07,-1.127806E-07,-1.597328E-08,-2.622604E-08
442.647,-0.1563355,-1.30443E-08,NaN,-0.8776718,-1.346333E-07,NaN,0.421175,1.202688E-08,NaN,-2.183812,1.411841E-05,-0.4066876,1.665767E-08,NaN,NaN,-0.02034627,3.073354E-10,5.594072E-07,-1.127825E-07,-1.478119E-08,-2.861022E-08
442.6632,-0.1542581,-1.304342E-08,NaN,-0.8935838,-1.346339E-07,NaN,0.4218266,1.230278E-08,NaN,-2.18365,1.411896E-05,-0.4067206,1.638358E-08,NaN,NaN,-0.02034058,3.073354E-10,5.409297E-07,-1.127844E-07,-1.418514E-08,-2.622604E-08
442.6787,-0.1542581,-1.304342E-08,NaN,-0.8935838,-1.346339E-07,NaN,0.4218266,1.230278E-08,NaN,-2.18365,1.411896E-05,-0.4067206,1.638358E-08,NaN,NaN,-0.02034058,3.073354E-10,5.409297E-07,-1.127844E-07,-1.418514E-08,-2.622604E-08
442.694,-0.1521882,-1.304254E-08,NaN,-0.9087537,-1.346345E-07,NaN,0.4224281,1.257338E-08,NaN,-2.183507,1.411951E-05,-0.4067569,1.611479E-08,NaN,NaN,-0.02033514,3.073354E-10,5.152997E-07,-1.127863E-07,-1.180095E-08,-2.861022E-08
442.7104,-0.1501274,-1.304167E-08,NaN,-0.9234015,-1.346351E-07,NaN,0.4229966,1.283879E-08,NaN,-2.183444,1.412005E-05,-0.4068176,1.585118E-08,NaN,NaN,-0.02032995,3.166487E-10,4.902657E-07,-1.127882E-07,-1.358909E-08,-2.622604E-08
442.7261,-0.1480782,-1.304079E-08,NaN,-0.9376638,-1.346358E-07,NaN,0.4235503,1.309913E-08,NaN,-2.18345,1.41206E-05,-0.4068921,1.559266E-08,NaN,NaN,-0.02032491,3.166487E-10,4.652318E-07,-1.127901E-07,-1.418514E-08,-2.861022E-08
442.7418,-0.1460354,-1.303991E-08,NaN,-0.9508641,-1.346364E-07,NaN,0.4241558,1.335448E-08,NaN,-2.183292,1.412115E-05,-0.4067319,1.533911E-08,NaN,NaN,-0.02031939,3.166487E-10,4.467543E-07,-1.12792E-07,-1.180095E-08,-2.622604E-08
442.7576,-0.1460354,-1.303991E-08,NaN,-0.9508641,-1.346364E-07,NaN,0.4241558,1.335448E-08,NaN,-2.183292,1.412115E-05,-0.4067319,1.533911E-08,NaN,NaN,-0.02031939,3.166487E-10,4.467543E-07,-1.12792E-07,-1.180095E-08,-2.622604E-08
442.7726,-0.1439977,-1.303903E-08,NaN,-0.9633574,-1.346371E-07,NaN,0.4247112,1.360495E-08,NaN,-2.183154,1.41217E-05,-0.4065817,1.509044E-08,NaN,NaN,-0.02031414,3.166487E-10,4.288729E-07,-1.127939E-07,-1.001282E-08,-2.861022E-08
442.7894,-0.1419673,-1.303815E-08,NaN,-0.9753633,-1.346377E-07,NaN,0.4252338,1.384781E-08,NaN,-2.183097,1.412225E-05,-0.4064621,1.484938E-08,NaN,NaN,-0.02030914,3.166487E-10,4.109915E-07,-1.127958E-07,-1.418514E-08,-2.622604E-08
442.8053,-0.139947,-1.303728E-08,NaN,-0.9870177,-1.346383E-07,NaN,0.4257423,1.408603E-08,NaN,-2.183108,1.41228E-05,-0.4063622,1.461296E-08,NaN,NaN,-0.02030428,3.166487E-10,3.901299E-07,-1.127977E-07,-1.358909E-08,-2.861022E-08
442.8227,-0.1379314,-1.30364E-08,NaN,-0.9976434,-1.34639E-07,NaN,0.4263027,1.431688E-08,NaN,-2.182955,1.412335E-05,-0.406034,1.438391E-08,NaN,NaN,-0.02029895,3.166487E-10,3.758248E-07,-1.127996E-07,-1.358909E-08,-2.622604E-08
442.8371,-0.1379314,-1.30364E-08,NaN,-0.9976434,-1.34639E-07,NaN,0.4263027,1.431688E-08,NaN,-2.182955,1.412335E-05,-0.406034,1.438391E-08,NaN,NaN,-0.02029895,3.166487E-10,3.758248E-07,-1.127996E-07,-1.358909E-08,-2.622604E-08
442.8519,-0.1359191,-1.303552E-08,NaN,-1.007595,-1.346396E-07,NaN,0.4268129,1.454051E-08,NaN,-2.182821,1.41239E-05,-0.4057217,1.416209E-08,NaN,NaN,-0.02029388,3.166487E-10,3.609237E-07,-1.128015E-07,-1.418514E-08,-2.861022E-08
442.8685,-0.1339125,-1.303464E-08,NaN,-1.017092,-1.346402E-07,NaN,0.4272907,1.475987E-08,NaN,-2.182768,1.412445E-05,-0.4054456,1.394452E-08,NaN,NaN,-0.02028906,3.166487E-10,3.424462E-07,-1.128034E-07,-1.299305E-08,-2.622604E-08
442.8843,-0.1319149,-1.303376E-08,NaN,-1.02627,-1.346408E-07,NaN,0.427755,1.497224E-08,NaN,-2.182784,1.4125E-05,-0.4051945,1.373395E-08,NaN,NaN,-0.02028438,3.166487E-10,3.251609E-07,-1.128052E-07,-1.448316E-08,-2.861022E-08
442.9004,-0.1299208,-1.303288E-08,NaN,-1.03445,-1.346415E-07,NaN,0.4282714,1.518056E-08,NaN,-2.182634,1.412555E-05,-0.4047207,1.352743E-08,NaN,NaN,-0.02027923,3.166487E-10,3.150281E-07,-1.128071E-07,-1.090688E-08,-2.622604E-08
442.9161,-0.1299208,-1.303288E-08,NaN,-1.03445,-1.346415E-07,NaN,0.4282714,1.518056E-08,NaN,-2.182634,1.412555E-05,-0.4047207,1.352743E-08,NaN,NaN,-0.02027923,3.166487E-10,3.150281E-07,-1.128071E-07,-1.090688E-08,-2.622604E-08
442.9313,-0.1279288,-1.3032E-08,NaN,-1.041988,-1.346421E-07,NaN,0.4287376,1.53821E-08,NaN,-2.182504,1.41261E-05,-0.4042681,1.332768E-08,NaN,NaN,-0.02027435,3.166487E-10,3.019151E-07,-1.12809E-07,-8.820722E-09,-2.861022E-08
442.9476,-0.1259414,-1.303112E-08,NaN,-1.049102,-1.346427E-07,NaN,0.4291717,1.557982E-08,NaN,-2.182455,1.412664E-05,-0.4038566,1.313176E-08,NaN,NaN,-0.0202697,3.166487E-10,2.888021E-07,-1.128108E-07,-1.031084E-08,-2.622604E-08
442.9635,-0.1239621,-1.303024E-08,NaN,-1.055926,-1.346433E-07,NaN,0.4295931,1.577096E-08,NaN,-2.182475,1.412719E-05,-0.4034748,1.294242E-08,NaN,NaN,-0.0202652,3.166487E-10,2.75689E-07,-1.128126E-07,-1.150293E-08,-2.861022E-08
442.979,-0.1239621,-1.303024E-08,NaN,-1.055926,-1.346433E-07,NaN,0.4295931,1.577096E-08,NaN,-2.182475,1.412719E-05,-0.4034748,1.294242E-08,NaN,NaN,-0.0202652,3.166487E-10,2.75689E-07,-1.128126E-07,-1.150293E-08,-2.861022E-08
442.9942,-0.121986,-1.302937E-08,NaN,-1.061782,-1.34644E-07,NaN,0.4300669,1.595849E-08,NaN,-2.182329,1.412774E-05,-0.4028753,1.275669E-08,NaN,NaN,-0.02026023,3.166487E-10,2.709207E-07,-1.128145E-07,-1.269502E-08,-2.622604E-08
443.0105,-0.120011,-1.302849E-08,NaN,-1.067025,-1.346446E-07,NaN,0.4304907,1.613963E-08,NaN,-2.182202,1.412829E-05,-0.4023018,1.257735E-08,NaN,NaN,-0.02025553,3.166487E-10,2.589998E-07,-1.128163E-07,-1.180095E-08,-2.861022E-08
443.0265,-0.11804,-1.302761E-08,NaN,-1.071872,-1.346452E-07,NaN,0.4308828,1.631452E-08,NaN,-2.182157,1.412884E-05,-0.4017739,1.240425E-08,NaN,NaN,-0.02025107,3.166487E-10,2.476749E-07,-1.128181E-07,-1.2397E-08,-2.622604E-08
443.0422,-0.1160771,-1.302673E-08,NaN,-1.076458,-1.346458E-07,NaN,0.4312629,1.648329E-08,NaN,-2.18218,1.412939E-05,-0.4012797,1.223729E-08,NaN,NaN,-0.02024674,3.166487E-10,2.351579E-07,-1.1282E-07,-1.150293E-08,-2.861022E-08
443.0583,-0.1160771,-1.302673E-08,NaN,-1.076458,-1.346458E-07,NaN,0.4312629,1.648329E-08,NaN,-2.18218,1.412939E-05,-0.4012797,1.223729E-08,NaN,NaN,-0.02024674,3.166487E-10,2.351579E-07,-1.1282E-07,-1.150293E-08,-2.861022E-08
443.0734,-0.1141171,-1.302585E-08,NaN,-1.080103,-1.346464E-07,NaN,0.4316959,1.664604E-08,NaN,-2.182037,1.412994E-05,-0.4005723,1.207633E-08,NaN,NaN,-0.02024195,3.166487E-10,2.291974E-07,-1.128218E-07,-8.67171E-09,-2.622604E-08
443.0898,-0.1121581,-1.302497E-08,NaN,-1.083162,-1.34647E-07,NaN,0.4320792,1.680573E-08,NaN,-2.181912,1.413049E-05,-0.3998952,1.191844E-08,NaN,NaN,-0.02023742,3.166487E-10,2.208528E-07,-1.128236E-07,-9.714792E-09,-2.861022E-08
443.1055,-0.1102031,-1.302409E-08,NaN,-1.085853,-1.346476E-07,NaN,0.4324296,1.695959E-08,NaN,-2.181822,1.413104E-05,-0.3992716,1.176637E-08,NaN,NaN,-0.02023307,3.166487E-10,2.137002E-07,-1.128254E-07,-1.10559E-08,-2.622604E-08
443.1214,-0.1082564,-1.302321E-08,NaN,-1.088308,-1.346482E-07,NaN,0.4327691,1.711052E-08,NaN,-2.181763,1.413159E-05,-0.3986858,1.161724E-08,NaN,NaN,-0.02022886,3.166487E-10,2.017793E-07,-1.128272E-07,-8.522698E-09,-2.861022E-08
443.1375,-0.1082564,-1.302321E-08,NaN,-1.088308,-1.346482E-07,NaN,0.4327691,1.711052E-08,NaN,-2.181763,1.413159E-05,-0.3986858,1.161724E-08,NaN,NaN,-0.02022886,3.166487E-10,2.017793E-07,-1.128272E-07,-8.522698E-09,-2.861022E-08
443.153,-0.1063132,-1.302233E-08,NaN,-1.089849,-1.346489E-07,NaN,0.4331631,1.72558E-08,NaN,-2.18153,1.413214E-05,-0.3978889,1.147376E-08,NaN,NaN,-0.02022421,3.166487E-10,2.005872E-07,-1.128289E-07,-8.224675E-09,-2.622604E-08
443.1693,-0.1043712,-1.302145E-08,NaN,-1.090828,-1.346495E-07,NaN,0.4335061,1.739835E-08,NaN,-2.181264,1.413269E-05,-0.3971299,1.133301E-08,NaN,NaN,-0.02021976,3.166487E-10,1.97607E-07,-1.128307E-07,-7.032583E-09,-2.861022E-08
443.185,-0.1024338,-1.302057E-08,NaN,-1.091465,-1.346506E-07,NaN,0.4338178,1.787662E-08,NaN,-2.181011,1.413324E-05,-0.3964266,1.085653E-08,NaN,NaN,-0.02021551,3.11992E-10,1.928386E-07,-1.128298E-07,-8.522699E-09,-2.861022E-08
443.2008,-0.1005054,-1.301969E-08,NaN,-1.09189,-1.346513E-07,NaN,0.4341199,1.822161E-08,NaN,-2.180783,1.413379E-05,-0.3957633,1.051333E-08,NaN,NaN,-0.02021141,3.11992E-10,1.904544E-07,-1.128285E-07,-1.016183E-08,-2.861022E-08
443.2168,-0.1005054,-1.301969E-08,NaN,-1.09189,-1.346513E-07,NaN,0.4341199,1.822161E-08,NaN,-2.180783,1.413379E-05,-0.3957633,1.051333E-08,NaN,NaN,-0.02021141,3.11992E-10,1.904544E-07,-1.128285E-07,-1.016183E-08,-2.861022E-08
443.232,-0.09858166,-1.301881E-08,NaN,-1.091437,-1.346517E-07,NaN,0.4344756,1.849513E-08,NaN,-2.180381,1.413434E-05,-0.3948972,1.02416E-08,NaN,NaN,-0.02020689,3.11992E-10,1.874742E-07,-1.12827E-07,-8.597205E-09,-2.861022E-08
443.2485,-0.09667364,-1.301793E-08,NaN,-1.090442,-1.346519E-07,NaN,0.4347924,1.87296E-08,NaN,-2.179942,1.41349E-05,-0.3940651,1.000893E-08,NaN,NaN,-0.02020255,3.026788E-10,1.862821E-07,-1.128254E-07,-7.181594E-09,-2.861022E-08
443.2645,-0.09479546,-1.301705E-08,NaN,-1.089125,-1.346521E-07,NaN,0.4350927,1.893705E-08,NaN,-2.179513,1.413545E-05,-0.3932865,9.80329E-09,NaN,NaN,-0.02019841,3.026788E-10,1.827058E-07,-1.128238E-07,-8.820722E-09,-2.861022E-08
443.2801,-0.09295076,-1.301617E-08,NaN,-1.087619,-1.346521E-07,NaN,0.4353935,1.912928E-08,NaN,-2.179109,1.413601E-05,-0.3925464,9.612867E-09,NaN,NaN,-0.02019441,2.933656E-10,1.785335E-07,-1.128221E-07,-7.703135E-09,-2.861022E-08
443.296,-0.09295076,-1.301617E-08,NaN,-1.087619,-1.346521E-07,NaN,0.4353935,1.912928E-08,NaN,-2.179109,1.413601E-05,-0.3925464,9.612867E-09,NaN,NaN,-0.02019441,2.933656E-10,1.785335E-07,-1.128221E-07,-7.703135E-09,-2.861022E-08
443.3111,-0.09113012,-1.301529E-08,NaN,-1.085243,-1.346521E-07,NaN,0.4357528,1.931223E-08,NaN,-2.17853,1.413656E-05,-0.3916015,9.431721E-09,NaN,NaN,-0.02018998,2.933656E-10,1.821098E-07,-1.128203E-07,-7.181594E-09,-2.861022E-08
443.3273,-0.08934903,-1.301441E-08,NaN,-1.08235,-1.346521E-07,NaN,0.4360788,1.948891E-08,NaN,-2.177915,1.41371E-05,-0.390696,9.256859E-09,NaN,NaN,-0.02018574,2.933656E-10,1.833019E-07,-1.128186E-07,-7.926652E-09,-2.861022E-08
443.3444,-0.08760924,-1.301353E-08,NaN,-1.079158,-1.346521E-07,NaN,0.4363868,1.966225E-08,NaN,-2.177317,1.413766E-05,-0.3898468,9.085328E-09,NaN,NaN,-0.02018169,2.840524E-10,1.84494E-07,-1.128169E-07,-8.075664E-09,-2.861022E-08
443.3592,-0.08760924,-1.301353E-08,NaN,-1.079158,-1.346521E-07,NaN,0.4363868,1.966225E-08,NaN,-2.177317,1.413766E-05,-0.3898468,9.085328E-09,NaN,NaN,-0.02018169,2.840524E-10,1.84494E-07,-1.128169E-07,-8.075664E-09,-2.861022E-08
443.3741,-0.08589875,-1.301265E-08,NaN,-1.075035,-1.346521E-07,NaN,0.4367428,1.983232E-08,NaN,-2.17655,1.413821E-05,-0.3888108,8.917073E-09,NaN,NaN,-0.02017727,2.840524E-10,1.898584E-07,-1.128151E-07,-8.001158E-09,-2.861022E-08
443.3907,-0.08423018,-1.301177E-08,NaN,-1.070367,-1.346521E-07,NaN,0.437061,1.999918E-08,NaN,-2.175758,1.413876E-05,-0.3878257,8.75203E-09,NaN,NaN,-0.02017306,2.840524E-10,1.970109E-07,-1.128134E-07,-1.008732E-08,-2.861022E-08
443.4066,-0.08260317,-1.301089E-08,NaN,-1.065388,-1.346521E-07,NaN,0.4373592,2.016289E-08,NaN,-2.174991,1.41393E-05,-0.3869048,8.590137E-09,NaN,NaN,-0.02016905,2.840524E-10,2.017793E-07,-1.128117E-07,-9.789297E-09,-2.861022E-08
443.4224,-0.08101307,-1.301001E-08,NaN,-1.060241,-1.34652E-07,NaN,0.4376524,2.032634E-08,NaN,-2.174263,1.413985E-05,-0.3860322,8.428505E-09,NaN,NaN,-0.0201652,2.840524E-10,1.999912E-07,-1.1281E-07,-8.150169E-09,-2.861022E-08
443.438,-0.08101307,-1.301001E-08,NaN,-1.060241,-1.34652E-07,NaN,0.4376524,2.032634E-08,NaN,-2.174263,1.413985E-05,-0.3860322,8.428505E-09,NaN,NaN,-0.0201652,2.840524E-10,1.999912E-07,-1.1281E-07,-8.150169E-09,-2.861022E-08
443.4532,-0.0794462,-1.300913E-08,NaN,-1.054253,-1.34652E-07,NaN,0.4379962,2.048671E-08,NaN,-2.173373,1.41404E-05,-0.3849695,8.269954E-09,NaN,NaN,-0.02016094,2.747392E-10,2.071437E-07,-1.128082E-07,-6.734559E-09,-2.861022E-08
443.4697,-0.07791429,-1.300825E-08,NaN,-1.047779,-1.34652E-07,NaN,0.4383017,2.064405E-08,NaN,-2.17246,1.414095E-05,-0.3839556,8.114426E-09,NaN,NaN,-0.02015688,2.747392E-10,2.125081E-07,-1.128065E-07,-7.2561E-09,-2.861022E-08
443.4857,-0.07641735,-1.300737E-08,NaN,-1.041038,-1.346519E-07,NaN,0.4385855,2.080126E-08,NaN,-2.171573,1.414149E-05,-0.3830056,7.959035E-09,NaN,NaN,-0.02015303,2.747392E-10,2.154884E-07,-1.128048E-07,-8.299181E-09,-2.861022E-08
443.5014,-0.0749516,-1.300649E-08,NaN,-1.034164,-1.346519E-07,NaN,0.4388627,2.095551E-08,NaN,-2.170726,1.414204E-05,-0.3821049,7.806604E-09,NaN,NaN,-0.02014932,2.747392E-10,2.172765E-07,-1.128031E-07,-8.895228E-09,-2.861022E-08
443.5172,-0.0749516,-1.300649E-08,NaN,-1.034164,-1.346519E-07,NaN,0.4388627,2.095551E-08,NaN,-2.170726,1.414204E-05,-0.3821049,7.806604E-09,NaN,NaN,-0.02014932,2.747392E-10,2.172765E-07,-1.128031E-07,-8.895228E-09,-2.861022E-08
443.5323,-0.07350451,-1.300561E-08,NaN,-1.026475,-1.346519E-07,NaN,0.4391874,2.110968E-08,NaN,-2.169718,1.414258E-05,-0.3810196,7.654252E-09,NaN,NaN,-0.02014522,2.747392E-10,2.268132E-07,-1.128015E-07,-6.287524E-09,-2.861022E-08
443.5485,-0.07208759,-1.300473E-08,NaN,-1.018326,-1.346519E-07,NaN,0.4394726,2.126095E-08,NaN,-2.168688,1.414312E-05,-0.3799857,7.504802E-09,NaN,NaN,-0.02014133,2.747392E-10,2.315816E-07,-1.127998E-07,-4.797408E-09,-2.861022E-08
443.5643,-0.07070121,-1.300385E-08,NaN,-1.00993,-1.346518E-07,NaN,0.4397354,2.141221E-08,NaN,-2.167687,1.414367E-05,-0.3790175,7.355368E-09,NaN,NaN,-0.02013764,2.747392E-10,2.357539E-07,-1.127981E-07,-2.63674E-09,-2.861022E-08
443.58,-0.06934213,-1.300297E-08,NaN,-1.00142,-1.346518E-07,NaN,0.439991,2.156062E-08,NaN,-2.166729,1.414421E-05,-0.3781006,7.208779E-09,NaN,NaN,-0.02013409,2.747392E-10,2.387342E-07,-1.127964E-07,-2.189705E-09,-2.861022E-08
443.5958,-0.06934213,-1.300297E-08,NaN,-1.00142,-1.346518E-07,NaN,0.439991,2.156062E-08,NaN,-2.166729,1.414421E-05,-0.3781006,7.208779E-09,NaN,NaN,-0.02013409,2.747392E-10,2.387342E-07,-1.127964E-07,-2.189705E-09,-2.861022E-08
443.6107,-0.06799863,-1.300209E-08,NaN,-0.9921159,-1.346518E-07,NaN,0.4402919,2.170906E-08,NaN,-2.165612,1.414476E-05,-0.3770053,7.062154E-09,NaN,NaN,-0.02013017,2.747392E-10,2.476749E-07,-1.127948E-07,-1.295635E-09,-2.861022E-08
443.6275,-0.06668166,-1.300121E-08,NaN,-0.9823678,-1.346517E-07,NaN,0.4405527,2.185472E-08,NaN,-2.164477,1.414531E-05,-0.3759642,6.918315E-09,NaN,NaN,-0.02012646,2.65426E-10,2.589998E-07,-1.127931E-07,4.925039E-10,-2.861022E-08
443.6432,-0.06539173,-1.300033E-08,NaN,-0.9723912,-1.346517E-07,NaN,0.440791,2.200047E-08,NaN,-2.163373,1.414586E-05,-0.3749905,6.774384E-09,NaN,NaN,-0.02012295,2.65426E-10,2.643642E-07,-1.127915E-07,1.08855E-09,-2.861022E-08
443.6591,-0.06539173,-1.300033E-08,NaN,-0.9723912,-1.346517E-07,NaN,0.440791,2.200047E-08,NaN,-2.163373,1.414586E-05,-0.3749905,6.774384E-09,NaN,NaN,-0.02012295,2.65426E-10,2.643642E-07,-1.127915E-07,1.08855E-09,-2.861022E-08
443.674,-0.06412598,-1.299944E-08,NaN,-0.9623179,-1.346517E-07,NaN,0.4410219,2.214349E-08,NaN,-2.162316,1.41464E-05,-0.3740698,6.633187E-09,NaN,NaN,-0.02011957,2.65426E-10,2.691326E-07,-1.127898E-07,2.429655E-09,-2.861022E-08
443.6906,-0.06287344,-1.299856E-08,NaN,-0.9514668,-1.346517E-07,NaN,0.4412958,2.228665E-08,NaN,-2.161102,1.414695E-05,-0.3729771,6.491848E-09,NaN,NaN,-0.02011584,2.65426E-10,2.810535E-07,-1.127882E-07,3.472736E-09,-2.861022E-08
443.7062,-0.06164436,-1.299768E-08,NaN,-0.9401888,-1.346516E-07,NaN,0.4415296,2.242712E-08,NaN,-2.159873,1.41475E-05,-0.3719411,6.353193E-09,NaN,NaN,-0.02011231,2.561127E-10,2.899942E-07,-1.127865E-07,4.068782E-09,-2.861022E-08
443.7222,-0.06043933,-1.29968E-08,NaN,-0.9286988,-1.346516E-07,NaN,0.4417409,2.256779E-08,NaN,-2.158679,1.414805E-05,-0.3709738,6.214345E-09,NaN,NaN,-0.02010898,2.561127E-10,3.00127E-07,-1.127849E-07,3.472736E-09,-2.861022E-08
443.7378,-0.06043933,-1.29968E-08,NaN,-0.9286988,-1.346516E-07,NaN,0.4417409,2.256779E-08,NaN,-2.158679,1.414805E-05,-0.3709738,6.214345E-09,NaN,NaN,-0.02010898,2.561127E-10,3.00127E-07,-1.127849E-07,3.472736E-09,-2.861022E-08
443.7533,-0.05925583,-1.299592E-08,NaN,-0.9171285,-1.346516E-07,NaN,0.4419449,2.270582E-08,NaN,-2.157534,1.414859E-05,-0.3700608,6.078133E-09,NaN,NaN,-0.02010579,2.561127E-10,3.066835E-07,-1.127833E-07,4.366806E-09,-2.861022E-08
443.7695,-0.0580909,-1.299504E-08,NaN,-0.9055585,-1.346515E-07,NaN,0.4421475,2.284409E-08,NaN,-2.156437,1.414914E-05,-0.3691904,5.94168E-09,NaN,NaN,-0.02010272,2.467995E-10,3.108558E-07,-1.127817E-07,4.366806E-09,-2.861022E-08
443.7854,-0.05694206,-1.299416E-08,NaN,-0.8940384,-1.346515E-07,NaN,0.4423501,2.297977E-08,NaN,-2.155382,1.414969E-05,-0.3683555,5.807816E-09,NaN,NaN,-0.02009974,2.467995E-10,3.150282E-07,-1.127801E-07,4.664829E-09,-2.861022E-08
443.8007,-0.05580745,-1.299327E-08,NaN,-0.8825981,-1.346515E-07,NaN,0.4425521,2.311292E-08,NaN,-2.154366,1.415023E-05,-0.3675521,5.676492E-09,NaN,NaN,-0.02009684,2.467995E-10,3.186044E-07,-1.127785E-07,3.770759E-09,-2.861022E-08
443.8168,-0.05580745,-1.299327E-08,NaN,-0.8825981,-1.346515E-07,NaN,0.4425521,2.311292E-08,NaN,-2.154366,1.415023E-05,-0.3675521,5.676492E-09,NaN,NaN,-0.02009684,2.467995E-10,3.186044E-07,-1.127785E-07,3.770759E-09,-2.861022E-08
443.8318,-0.05468577,-1.299239E-08,NaN,-0.8712559,-1.346515E-07,NaN,0.4427531,2.32464E-08,NaN,-2.153382,1.415078E-05,-0.3667774,5.544828E-09,NaN,NaN,-0.02009403,2.467995E-10,3.233728E-07,-1.127769E-07,2.87669E-09,-2.861022E-08
443.8495,-0.053583,-1.299151E-08,NaN,-0.8607845,-1.346514E-07,NaN,0.4429119,2.337739E-08,NaN,-2.15263,1.415133E-05,-0.3662337,5.415657E-09,NaN,NaN,-0.02009173,2.374863E-10,3.209886E-07,-1.127753E-07,2.578666E-09,-2.861022E-08
443.8645,-0.05248789,-1.299063E-08,NaN,-0.8508896,-1.346514E-07,NaN,0.4431082,2.350876E-08,NaN,-2.151961,1.415188E-05,-0.3656928,5.286107E-09,NaN,NaN,-0.02008941,2.374863E-10,3.192005E-07,-1.127737E-07,2.578666E-09,-2.861022E-08
443.8798,-0.05248789,-1.299063E-08,NaN,-0.8508896,-1.346514E-07,NaN,0.4431082,2.350876E-08,NaN,-2.151961,1.415188E-05,-0.3656928,5.286107E-09,NaN,NaN,-0.02008941,2.374863E-10,3.192005E-07,-1.127737E-07,2.578666E-09,-2.861022E-08
443.8953,-0.05139762,-1.298975E-08,NaN,-0.8413902,-1.346514E-07,NaN,0.4433232,2.363767E-08,NaN,-2.151318,1.415242E-05,-0.3651394,5.159013E-09,NaN,NaN,-0.02008705,2.374863E-10,3.192005E-07,-1.127721E-07,2.578666E-09,-2.861022E-08
443.9116,-0.05031249,-1.298886E-08,NaN,-0.832174,-1.346513E-07,NaN,0.4435413,2.376701E-08,NaN,-2.150681,1.415297E-05,-0.3645843,5.031497E-09,NaN,NaN,-0.0200847,2.374863E-10,3.215847E-07,-1.127705E-07,2.280643E-09,-2.861022E-08
443.9275,-0.04924023,-1.298798E-08,NaN,-0.8239331,-1.346513E-07,NaN,0.4437166,2.389392E-08,NaN,-2.150248,1.415351E-05,-0.3642372,4.906409E-09,NaN,NaN,-0.02008283,2.374863E-10,3.156242E-07,-1.12769E-07,1.386574E-09,-2.861022E-08
443.9432,-0.04817256,-1.29871E-08,NaN,-0.8163244,-1.346513E-07,NaN,0.4439262,2.402128E-08,NaN,-2.149875,1.415406E-05,-0.3638794,4.780863E-09,NaN,NaN,-0.0200809,2.374863E-10,3.096637E-07,-1.127674E-07,5.260875E-09,-2.861022E-08
443.959,-0.04817256,-1.29871E-08,NaN,-0.8163244,-1.346513E-07,NaN,0.4439262,2.402128E-08,NaN,-2.149875,1.415406E-05,-0.3638794,4.780863E-09,NaN,NaN,-0.0200809,2.374863E-10,3.096637E-07,-1.127674E-07,5.260875E-09,-2.861022E-08
443.9739,-0.04710808,-1.298622E-08,NaN,-0.8091356,-1.346513E-07,NaN,0.4441517,2.414627E-08,NaN,-2.149508,1.41546E-05,-0.3634993,4.657692E-09,NaN,NaN,-0.02007892,2.374863E-10,3.078756E-07,-1.127658E-07,4.962852E-09,-2.861022E-08
443.9906,-0.04604786,-1.298534E-08,NaN,-0.8022356,-1.346512E-07,NaN,0.4443783,2.427176E-08,NaN,-2.149133,1.415515E-05,-0.3631094,4.534023E-09,NaN,NaN,-0.02007693,2.374863E-10,3.072795E-07,-1.127643E-07,3.770759E-09,-2.861022E-08
444.0066,-0.04499982,-1.298445E-08,NaN,-0.7963044,-1.346512E-07,NaN,0.4445616,2.439491E-08,NaN,-2.148951,1.415569E-05,-0.3629189,4.412692E-09,NaN,NaN,-0.02007542,2.374863E-10,2.995309E-07,-1.127627E-07,3.174712E-09,-2.861022E-08
444.0219,-0.04395682,-1.298357E-08,NaN,-0.7909921,-1.346512E-07,NaN,0.4447783,2.451294E-08,NaN,-2.148819,1.415624E-05,-0.3627116,4.29648E-09,NaN,NaN,-0.02007383,2.374863E-10,2.923784E-07,-1.127612E-07,3.770759E-09,-2.861022E-08
444.0377,-0.04395682,-1.298357E-08,NaN,-0.7909921,-1.346512E-07,NaN,0.4447783,2.451294E-08,NaN,-2.148819,1.415624E-05,-0.3627116,4.29648E-09,NaN,NaN,-0.02007383,2.374863E-10,2.923784E-07,-1.127612E-07,3.770759E-09,-2.861022E-08
444.0529,-0.04291765,-1.298269E-08,NaN,-0.786082,-1.346511E-07,NaN,0.4450105,2.46316E-08,NaN,-2.148685,1.415678E-05,-0.3624766,4.179636E-09,NaN,NaN,-0.02007218,2.374863E-10,2.870139E-07,-1.127597E-07,4.962851E-09,-2.861022E-08
444.0692,-0.04188332,-1.298181E-08,NaN,-0.78144,-1.346511E-07,NaN,0.4452435,2.474806E-08,NaN,-2.148536,1.415733E-05,-0.3622267,4.064996E-09,NaN,NaN,-0.02007052,2.374863E-10,2.816495E-07,-1.127581E-07,6.154944E-09,-2.861022E-08
444.0855,-0.04086142,-1.298092E-08,NaN,-0.7777445,-1.34651E-07,NaN,0.4454333,2.486518E-08,NaN,-2.148572,1.415787E-05,-0.3621706,3.949691E-09,NaN,NaN,-0.02006932,2.374863E-10,2.709207E-07,-1.127566E-07,5.558898E-09,-2.861022E-08
444.1013,-0.03984537,-1.298004E-08,NaN,-0.7746448,-1.34651E-07,NaN,0.4456565,2.498013E-08,NaN,-2.148653,1.415842E-05,-0.3620933,3.836561E-09,NaN,NaN,-0.02006803,2.374863E-10,2.62576E-07,-1.127551E-07,6.750991E-09,-2.861022E-08
444.1169,-0.03984537,-1.298004E-08,NaN,-0.7746448,-1.34651E-07,NaN,0.4456565,2.498013E-08,NaN,-2.148653,1.415842E-05,-0.3620933,3.836561E-09,NaN,NaN,-0.02006803,2.374863E-10,2.62576E-07,-1.127551E-07,6.750991E-09,-2.861022E-08
444.1322,-0.03883392,-1.297916E-08,NaN,-0.7719238,-1.34651E-07,NaN,0.4458952,2.510423E-08,NaN,-2.148726,1.415896E-05,-0.361984,3.714281E-09,NaN,NaN,-0.02006667,2.328297E-10,2.542314E-07,-1.127536E-07,5.558898E-09,-2.861022E-08
444.1484,-0.03782783,-1.297827E-08,NaN,-0.7694471,-1.346505E-07,NaN,0.4461349,2.506817E-08,NaN,-2.148777,1.41595E-05,-0.3618557,3.752163E-09,NaN,NaN,-0.0200653,2.328297E-10,2.470788E-07,-1.12753E-07,6.750991E-09,-2.861022E-08
444.1645,-0.03683441,-1.297739E-08,NaN,-0.7678927,-1.346501E-07,NaN,0.4463313,2.505267E-08,NaN,-2.14901,1.416004E-05,-0.3619172,3.769486E-09,NaN,NaN,-0.02006436,2.328297E-10,2.345619E-07,-1.127526E-07,6.154945E-09,-2.861022E-08
444.1802,-0.03584743,-1.297651E-08,NaN,-0.7669104,-1.346498E-07,NaN,0.4465612,2.504889E-08,NaN,-2.149281,1.416058E-05,-0.3619538,3.775099E-09,NaN,NaN,-0.02006334,2.328297E-10,2.256212E-07,-1.127521E-07,6.154945E-09,-2.861022E-08
444.1962,-0.03584743,-1.297651E-08,NaN,-0.7669104,-1.346498E-07,NaN,0.4465612,2.504889E-08,NaN,-2.149281,1.416058E-05,-0.3619538,3.775099E-09,NaN,NaN,-0.02006334,2.328297E-10,2.256212E-07,-1.127521E-07,6.154945E-09,-2.861022E-08
444.211,-0.03486556,-1.297563E-08,NaN,-0.7662832,-1.346494E-07,NaN,0.4468069,2.505093E-08,NaN,-2.14954,1.416112E-05,-0.3619548,3.774879E-09,NaN,NaN,-0.02006224,2.328297E-10,2.187666E-07,-1.127517E-07,6.750991E-09,-2.861022E-08
444.2278,-0.03388936,-1.297474E-08,NaN,-0.7658764,-1.346491E-07,NaN,0.4470538,2.505588E-08,NaN,-2.149771,1.416166E-05,-0.361933,3.771757E-09,NaN,NaN,-0.02006111,2.328297E-10,2.131042E-07,-1.127513E-07,6.154945E-09,-2.861022E-08
444.2433,-0.03292589,-1.297386E-08,NaN,-0.7663644,-1.346488E-07,NaN,0.4472575,2.506368E-08,NaN,-2.150179,1.41622E-05,-0.3620971,3.765787E-09,NaN,NaN,-0.02006042,2.328297E-10,1.990971E-07,-1.127509E-07,7.347038E-09,-2.861022E-08
444.259,-0.03292589,-1.297386E-08,NaN,-0.7663644,-1.346488E-07,NaN,0.4472575,2.506368E-08,NaN,-2.150179,1.41622E-05,-0.3620971,3.765787E-09,NaN,NaN,-0.02006042,2.328297E-10,1.990971E-07,-1.127509E-07,7.347038E-09,-2.861022E-08
444.2739,-0.03197359,-1.297298E-08,NaN,-0.7674022,-1.346485E-07,NaN,0.4474967,2.507427E-08,NaN,-2.15062,1.416274E-05,-0.3622338,3.757023E-09,NaN,NaN,-0.02005963,2.328297E-10,1.874742E-07,-1.127504E-07,7.347038E-09,-2.861022E-08
444.2904,-0.0310339,-1.297209E-08,NaN,-0.7687725,-1.346482E-07,NaN,0.4477552,2.508477E-08,NaN,-2.15104,1.416328E-05,-0.3623307,3.748346E-09,NaN,NaN,-0.02005876,2.328297E-10,1.779375E-07,-1.1275E-07,7.347038E-09,-2.861022E-08
444.3062,-0.03010698,-1.297121E-08,NaN,-0.7703408,-1.346479E-07,NaN,0.4480174,2.509519E-08,NaN,-2.151428,1.416382E-05,-0.3624007,3.739748E-09,NaN,NaN,-0.02005786,2.328297E-10,1.695928E-07,-1.127496E-07,8.53913E-09,-2.861022E-08
444.3221,-0.02919843,-1.297033E-08,NaN,-0.7727853,-1.346476E-07,NaN,0.4482365,2.510553E-08,NaN,-2.151988,1.416436E-05,-0.3626556,3.731234E-09,NaN,NaN,-0.02005738,2.328297E-10,1.561818E-07,-1.127492E-07,6.750991E-09,-2.861022E-08
444.3382,-0.02919843,-1.297033E-08,NaN,-0.7727853,-1.346476E-07,NaN,0.4482365,2.510553E-08,NaN,-2.151988,1.416436E-05,-0.3626556,3.731234E-09,NaN,NaN,-0.02005738,2.328297E-10,1.561818E-07,-1.127492E-07,6.750991E-09,-2.861022E-08
444.3535,-0.02830696,-1.296945E-08,NaN,-0.7757567,-1.346473E-07,NaN,0.4484932,2.511861E-08,NaN,-2.152575,1.41649E-05,-0.362879,3.719973E-09,NaN,NaN,-0.0200568,2.328297E-10,1.454529E-07,-1.127488E-07,7.347037E-09,-2.861022E-08
444.3712,-0.02743076,-1.296856E-08,NaN,-0.7790381,-1.34647E-07,NaN,0.4487688,2.513156E-08,NaN,-2.153138,1.416545E-05,-0.3630595,3.708845E-09,NaN,NaN,-0.02005614,2.235165E-10,1.359162E-07,-1.127484E-07,7.943084E-09,-2.861022E-08
444.3853,-0.02656816,-1.296768E-08,NaN,-0.7824954,-1.346467E-07,NaN,0.4490475,2.514438E-08,NaN,-2.153665,1.416599E-05,-0.3632103,3.697845E-09,NaN,NaN,-0.02005542,2.235165E-10,1.260814E-07,-1.12748E-07,5.558898E-09,-2.861022E-08
444.4011,-0.02572389,-1.29668E-08,NaN,-0.7868071,-1.346464E-07,NaN,0.4492813,2.515708E-08,NaN,-2.154361,1.416653E-05,-0.3635457,3.686974E-09,NaN,NaN,-0.02005514,2.235165E-10,1.117763E-07,-1.127476E-07,6.154944E-09,-2.861022E-08
444.4172,-0.02572389,-1.29668E-08,NaN,-0.7868071,-1.346464E-07,NaN,0.4492813,2.515708E-08,NaN,-2.154361,1.416653E-05,-0.3635457,3.686974E-09,NaN,NaN,-0.02005514,2.235165E-10,1.117763E-07,-1.127476E-07,6.154944E-09,-2.861022E-08
444.4322,-0.02489569,-1.296591E-08,NaN,-0.7916242,-1.346461E-07,NaN,0.4495521,2.516965E-08,NaN,-2.155081,1.416707E-05,-0.3638476,3.676228E-09,NaN,NaN,-0.02005475,2.235165E-10,9.925931E-08,-1.127473E-07,4.366805E-09,-2.861022E-08
444.4484,-0.02408143,-1.296503E-08,NaN,-0.7967304,-1.346459E-07,NaN,0.4498417,2.518209E-08,NaN,-2.155774,1.416761E-05,-0.3641042,3.665606E-09,NaN,NaN,-0.02005426,2.235165E-10,9.031861E-08,-1.127469E-07,1.982619E-09,-2.861022E-08
444.4644,-0.02327933,-1.296415E-08,NaN,-0.8019913,-1.346456E-07,NaN,0.4501343,2.519442E-08,NaN,-2.156428,1.416816E-05,-0.3643285,3.655103E-09,NaN,NaN,-0.02005372,2.142032E-10,8.197397E-08,-1.127465E-07,1.386573E-09,-2.861022E-08
444.48,-0.02249432,-1.296327E-08,NaN,-0.8080857,-1.346453E-07,NaN,0.4503807,2.520662E-08,NaN,-2.157247,1.41687E-05,-0.3647377,3.64472E-09,NaN,NaN,-0.02005361,2.142032E-10,6.677478E-08,-1.127461E-07,1.944797E-10,-2.861022E-08
444.4959,-0.02249432,-1.296327E-08,NaN,-0.8080857,-1.346453E-07,NaN,0.4503807,2.520662E-08,NaN,-2.157247,1.41687E-05,-0.3647377,3.64472E-09,NaN,NaN,-0.02005361,2.142032E-10,6.677478E-08,-1.127461E-07,1.944797E-10,-2.861022E-08
444.5106,-0.02172384,-1.296238E-08,NaN,-0.8146651,-1.34645E-07,NaN,0.4506643,2.522149E-08,NaN,-2.158088,1.416924E-05,-0.3651115,3.631673E-09,NaN,NaN,-0.02005339,2.142032E-10,5.306571E-08,-1.127457E-07,-4.015668E-10,-2.861022E-08
444.5269,-0.02096574,-1.29615E-08,NaN,-0.8215132,-1.346447E-07,NaN,0.450967,2.523619E-08,NaN,-2.158899,1.416978E-05,-0.3654374,3.618794E-09,NaN,NaN,-0.02005306,2.142032E-10,4.26349E-08,-1.127453E-07,-1.035436E-10,-2.861022E-08
444.5425,-0.02021836,-1.296061E-08,NaN,-0.8284959,-1.346444E-07,NaN,0.4512729,2.525073E-08,NaN,-2.159666,1.417032E-05,-0.3657286,3.606077E-09,NaN,NaN,-0.02005268,2.142032E-10,3.190606E-08,-1.127449E-07,-1.59366E-09,-2.861022E-08
444.5584,-0.02021836,-1.296061E-08,NaN,-0.8284959,-1.346444E-07,NaN,0.4512729,2.525073E-08,NaN,-2.159666,1.417032E-05,-0.3657286,3.606077E-09,NaN,NaN,-0.02005268,2.142032E-10,3.190606E-08,-1.127449E-07,-1.59366E-09,-2.861022E-08
444.5735,-0.019487,-1.295973E-08,NaN,-0.8362919,-1.346442E-07,NaN,0.4515315,2.526511E-08,NaN,-2.160597,1.417086E-05,-0.3662054,3.593524E-09,NaN,NaN,-0.02005273,2.142032E-10,1.581281E-08,-1.127446E-07,-2.189706E-09,-2.861022E-08
444.5901,-0.01876883,-1.295885E-08,NaN,-0.8445532,-1.346439E-07,NaN,0.4518275,2.527932E-08,NaN,-2.161546,1.41714E-05,-0.3666452,3.581129E-09,NaN,NaN,-0.02005267,2.142032E-10,2.401764E-09,-1.127442E-07,-2.785753E-09,-2.861022E-08
444.6057,-0.01806169,-1.295796E-08,NaN,-0.8530638,-1.346436E-07,NaN,0.4521432,2.529338E-08,NaN,-2.162462,1.417194E-05,-0.3670346,3.568889E-09,NaN,NaN,-0.02005249,2.142032E-10,-1.13073E-08,-1.127438E-07,-2.487729E-09,-2.861022E-08
444.6216,-0.01736404,-1.295708E-08,NaN,-0.8616896,-1.346433E-07,NaN,0.4524624,2.530729E-08,NaN,-2.163332,1.417248E-05,-0.367387,3.556803E-09,NaN,NaN,-0.02005225,2.142032E-10,-2.144009E-08,-1.127434E-07,-1.295636E-09,-2.861022E-08
444.6371,-0.01736404,-1.295708E-08,NaN,-0.8616896,-1.346433E-07,NaN,0.4524624,2.530729E-08,NaN,-2.163332,1.417248E-05,-0.367387,3.556803E-09,NaN,NaN,-0.02005225,2.142032E-10,-2.144009E-08,-1.127434E-07,-1.295636E-09,-2.861022E-08
444.6522,-0.01668161,-1.29562E-08,NaN,-0.8711094,-1.34643E-07,NaN,0.452733,2.532105E-08,NaN,-2.164363,1.417302E-05,-0.3679262,3.544864E-09,NaN,NaN,-0.02005244,2.142032E-10,-3.514916E-08,-1.12743E-07,7.905261E-10,-2.861022E-08
444.6684,-0.01601124,-1.295531E-08,NaN,-0.8809757,-1.346427E-07,NaN,0.4530414,2.533749E-08,NaN,-2.16541,1.417356E-05,-0.3684269,3.530246E-09,NaN,NaN,-0.02005252,2.142032E-10,-4.826219E-08,-1.127427E-07,7.905261E-10,-2.861022E-08
444.6843,-0.01535073,-1.295443E-08,NaN,-0.8910726,-1.346424E-07,NaN,0.4533702,2.535373E-08,NaN,-2.16642,1.41741E-05,-0.368875,3.515828E-09,NaN,NaN,-0.02005248,2.142032E-10,-5.958707E-08,-1.127423E-07,1.088549E-09,-2.861022E-08
444.7,-0.01469867,-1.295354E-08,NaN,-0.9012662,-1.346422E-07,NaN,0.4537029,2.51825E-08,NaN,-2.167382,1.417464E-05,-0.3692837,3.688886E-09,NaN,NaN,-0.02005237,2.235165E-10,-7.031591E-08,-1.127419E-07,7.90526E-10,-2.622604E-08
444.7155,-0.01469867,-1.295354E-08,NaN,-0.9012662,-1.346422E-07,NaN,0.4537029,2.51825E-08,NaN,-2.167382,1.417464E-05,-0.3692837,3.688886E-09,NaN,NaN,-0.02005237,2.235165E-10,-7.031591E-08,-1.127419E-07,7.90526E-10,-2.622604E-08
444.7305,-0.01406124,-1.295266E-08,NaN,-0.9122354,-1.346419E-07,NaN,0.4539854,2.501477E-08,NaN,-2.168503,1.417517E-05,-0.369881,3.858445E-09,NaN,NaN,-0.0200527,2.281731E-10,-8.581311E-08,-1.127415E-07,7.90526E-10,-2.861022E-08
444.747,-0.01343488,-1.295178E-08,NaN,-0.923633,-1.346416E-07,NaN,0.4543063,2.485047E-08,NaN,-2.169636,1.417571E-05,-0.3704386,4.024573E-09,NaN,NaN,-0.02005291,2.328297E-10,-9.833009E-08,-1.127412E-07,1.684596E-09,-2.622604E-08
444.7626,-0.01281736,-1.295089E-08,NaN,-0.9352433,-1.346413E-07,NaN,0.4546483,2.468954E-08,NaN,-2.170732,1.417624E-05,-0.3709413,4.187336E-09,NaN,NaN,-0.02005299,2.374863E-10,-1.126352E-07,-1.127408E-07,2.578665E-09,-2.861022E-08
444.7783,-0.01281736,-1.295089E-08,NaN,-0.9352433,-1.346413E-07,NaN,0.4546483,2.468954E-08,NaN,-2.170732,1.417624E-05,-0.3709413,4.187336E-09,NaN,NaN,-0.02005299,2.374863E-10,-1.126352E-07,-1.127408E-07,2.578665E-09,-2.861022E-08
444.7935,-0.01221476,-1.295001E-08,NaN,-0.9476944,-1.346411E-07,NaN,0.4549459,2.453191E-08,NaN,-2.171983,1.417678E-05,-0.3716228,4.346798E-09,NaN,NaN,-0.02005348,2.421429E-10,-1.299206E-07,-1.127404E-07,2.280642E-09,-2.622604E-08
