JMolnar6/NonAnthroHands_User_Study/HandsLoggerWithURDF/tempdata/files/Reachy_PID0_JointMotion_gesture_6_31.csv
Time,r_shoulder,r_shoulder_x,r_upper_arm,r_forearm,r_wrist,r_wrist2hand,
348.9694,-0.09806394,-1.803958E-08,NaN,-0.3273045,-1.354817E-07,NaN,0.4580037,-3.653635E-08,NaN,-2.161122,1.109601E-05,-0.3635121,1.388648E-08,NaN,NaN,-0.04915545,-9.627715E-16,-2.992777E-07,-1.135145E-07,7.760102E-09,-2.861022E-08
348.984,-0.09841927,-1.803862E-08,NaN,-0.3273029,-1.354805E-07,NaN,0.4581028,-3.647898E-08,NaN,-2.160999,1.109658E-05,-0.3634501,1.383118E-08,NaN,NaN,-0.04858395,-9.314188E-12,-2.976572E-07,-1.135116E-07,6.568009E-09,-2.622604E-08
348.9995,-0.09841927,-1.803862E-08,NaN,-0.3273029,-1.354805E-07,NaN,0.4581028,-3.647898E-08,NaN,-2.160999,1.109658E-05,-0.3634501,1.383118E-08,NaN,NaN,-0.04858395,-9.314188E-12,-2.976572E-07,-1.135116E-07,6.568009E-09,-2.622604E-08
349.0148,-0.09804328,-1.803766E-08,NaN,-0.3272989,-1.354791E-07,NaN,0.4580373,-3.646343E-08,NaN,-2.161261,1.109714E-05,-0.363364,1.381771E-08,NaN,NaN,-0.04802331,-4.657576E-12,-2.908586E-07,-1.135101E-07,5.375917E-09,-2.861022E-08
349.0291,-0.09720868,-1.80367E-08,NaN,-0.3272939,-1.35478E-07,NaN,0.4578934,-3.639314E-08,NaN,-2.161638,1.10977E-05,-0.3633263,1.374947E-08,NaN,NaN,-0.0474737,-4.657576E-12,-2.830168E-07,-1.135073E-07,4.183824E-09,-2.622604E-08
349.0426,-0.09608901,-1.803574E-08,NaN,-0.3272884,-1.354767E-07,NaN,0.457736,-3.637056E-08,NaN,-2.16202,1.109827E-05,-0.3633149,1.372897E-08,NaN,NaN,-0.04693493,-1.39708E-11,-2.763672E-07,-1.135043E-07,-5.845475E-10,-2.861022E-08
349.0594,-0.09608901,-1.803574E-08,NaN,-0.3272884,-1.354767E-07,NaN,0.457736,-3.637056E-08,NaN,-2.16202,1.109827E-05,-0.3633149,1.372897E-08,NaN,NaN,-0.04693493,-1.39708E-11,-2.763672E-07,-1.135043E-07,-5.845475E-10,-2.861022E-08
349.0714,-0.09552298,-1.803478E-08,NaN,-0.3272853,-1.354752E-07,NaN,0.4577557,-3.637083E-08,NaN,-2.161986,1.109883E-05,-0.3633347,1.37313E-08,NaN,NaN,-0.04640712,-9.314188E-12,-2.773171E-07,-1.135028E-07,1.799638E-09,-2.622604E-08
349.0866,-0.09530768,-1.803382E-08,NaN,-0.3272834,-1.354741E-07,NaN,0.457872,-3.629209E-08,NaN,-2.1618,1.109939E-05,-0.3633047,1.365463E-08,NaN,NaN,-0.04588963,-9.314188E-12,-2.779877E-07,-1.135001E-07,-5.845475E-10,-2.861022E-08
349.1013,-0.09531289,-1.803286E-08,NaN,-0.327282,-1.354733E-07,NaN,0.4580183,-3.630771E-08,NaN,-2.161574,1.109997E-05,-0.363245,1.367232E-08,NaN,NaN,-0.04538222,-1.39708E-11,-2.794778E-07,-1.134978E-07,-5.352919E-09,-2.622604E-08
349.116,-0.09531289,-1.803286E-08,NaN,-0.327282,-1.354733E-07,NaN,0.4580183,-3.630771E-08,NaN,-2.161574,1.109997E-05,-0.363245,1.367232E-08,NaN,NaN,-0.04538222,-1.39708E-11,-2.794778E-07,-1.134978E-07,-5.352919E-09,-2.622604E-08
349.1303,-0.09545682,-1.80319E-08,NaN,-0.3272809,-1.354728E-07,NaN,0.4581647,-3.569759E-08,NaN,-2.16135,1.110055E-05,-0.363175,1.306426E-08,NaN,NaN,-0.04488474,-2.328403E-11,-2.800738E-07,-1.134958E-07,-5.845475E-10,-2.861022E-08
349.1458,-0.09641577,-1.803093E-08,NaN,-0.3272813,-1.354725E-07,NaN,0.4584664,-3.506694E-08,NaN,-2.160753,1.110112E-05,-0.3631262,1.243566E-08,NaN,NaN,-0.04439735,-2.328403E-11,-2.863882E-07,-1.134939E-07,6.075453E-10,-2.622604E-08
349.1601,-0.09788351,-1.802997E-08,NaN,-0.3272819,-1.354723E-07,NaN,0.4588353,-3.442883E-08,NaN,-2.160059,1.11017E-05,-0.3630306,1.17996E-08,NaN,NaN,-0.04391946,-3.259725E-11,-2.930937E-07,-1.134921E-07,6.075453E-10,-2.861022E-08
349.1751,-0.09788351,-1.802997E-08,NaN,-0.3272819,-1.354723E-07,NaN,0.4588353,-3.442883E-08,NaN,-2.160059,1.11017E-05,-0.3630306,1.17996E-08,NaN,NaN,-0.04391946,-3.259725E-11,-2.930937E-07,-1.134921E-07,6.075453E-10,-2.861022E-08
349.1889,-0.09966525,-1.802901E-08,NaN,-0.3272822,-1.354722E-07,NaN,0.4592079,-3.379185E-08,NaN,-2.159374,1.110228E-05,-0.3629117,1.116468E-08,NaN,NaN,-0.04345087,-3.259725E-11,-2.971729E-07,-1.134904E-07,1.799638E-09,-2.622604E-08
349.2042,-0.1016371,-1.802805E-08,NaN,-0.3272824,-1.354721E-07,NaN,0.4595595,-3.316022E-08,NaN,-2.15873,1.110286E-05,-0.3627887,1.053509E-08,NaN,NaN,-0.04299142,-4.191048E-11,-3.013639E-07,-1.134887E-07,6.075453E-10,-2.861022E-08
349.2191,-0.1016371,-1.802805E-08,NaN,-0.3272824,-1.354721E-07,NaN,0.4595595,-3.316022E-08,NaN,-2.15873,1.110286E-05,-0.3627887,1.053509E-08,NaN,NaN,-0.04299142,-4.191048E-11,-3.013639E-07,-1.134887E-07,6.075453E-10,-2.861022E-08
349.2332,-0.1044486,-1.802709E-08,NaN,-0.3272842,-1.35472E-07,NaN,0.4600509,-3.253664E-08,NaN,-2.157746,1.110343E-05,-0.3626904,9.913546E-09,NaN,NaN,-0.0425413,-4.191048E-11,-3.105281E-07,-1.13487E-07,-2.968733E-09,-2.622604E-08
349.2484,-0.1077766,-1.802613E-08,NaN,-0.3272862,-1.35472E-07,NaN,0.4605968,-3.192094E-08,NaN,-2.15669,1.110401E-05,-0.3625488,9.299893E-09,NaN,NaN,-0.04209995,-5.12237E-11,-3.190776E-07,-1.134853E-07,-5.352919E-09,-2.861022E-08
349.2631,-0.1114157,-1.802517E-08,NaN,-0.3272876,-1.354714E-07,NaN,0.4611365,-3.219552E-08,NaN,-2.155663,1.110457E-05,-0.3623868,9.576511E-09,NaN,NaN,-0.04166717,-4.191048E-11,-3.270684E-07,-1.134862E-07,-6.545012E-09,-2.622604E-08
349.2798,-0.1114157,-1.802517E-08,NaN,-0.3272876,-1.354714E-07,NaN,0.4611365,-3.219552E-08,NaN,-2.155663,1.110457E-05,-0.3623868,9.576511E-09,NaN,NaN,-0.04166717,-4.191048E-11,-3.270684E-07,-1.134862E-07,-6.545012E-09,-2.622604E-08
349.2932,-0.1159636,-1.802421E-08,NaN,-0.3272905,-1.354713E-07,NaN,0.4618127,-3.17942E-08,NaN,-2.154307,1.110514E-05,-0.3622423,9.17723E-09,NaN,NaN,-0.04124318,-3.725386E-11,-3.404235E-07,-1.134876E-07,-8.929197E-09,-2.861022E-08
349.3072,-0.1210641,-1.802325E-08,NaN,-0.3272929,-1.354715E-07,NaN,0.4625337,-3.134852E-08,NaN,-2.152899,1.11057E-05,-0.3620537,8.733589E-09,NaN,NaN,-0.04082741,-3.259725E-11,-3.52419E-07,-1.134891E-07,-7.737104E-09,-2.622604E-08
349.3217,-0.126491,-1.802229E-08,NaN,-0.327294,-1.354718E-07,NaN,0.4632379,-3.088189E-08,NaN,-2.151538,1.110626E-05,-0.3618468,8.268993E-09,NaN,NaN,-0.04041971,-2.794064E-11,-3.637066E-07,-1.134908E-07,-4.160825E-09,-2.861022E-08
349.3364,-0.126491,-1.802229E-08,NaN,-0.327294,-1.354718E-07,NaN,0.4632379,-3.088189E-08,NaN,-2.151538,1.110626E-05,-0.3618468,8.268993E-09,NaN,NaN,-0.04041971,-2.794064E-11,-3.637066E-07,-1.134908E-07,-4.160825E-09,-2.861022E-08
349.3503,-0.1321005,-1.802133E-08,NaN,-0.3272942,-1.354723E-07,NaN,0.4639037,-3.040882E-08,NaN,-2.150254,1.110683E-05,-0.3616405,7.797943E-09,NaN,NaN,-0.04001996,-2.328403E-11,-3.729639E-07,-1.134925E-07,-8.929197E-09,-2.622604E-08
349.3659,-0.1385296,-1.802037E-08,NaN,-0.3272952,-1.354728E-07,NaN,0.464696,-2.993504E-08,NaN,-2.14866,1.110739E-05,-0.361458,7.326189E-09,NaN,NaN,-0.03962834,-1.862742E-11,-3.876043E-07,-1.134943E-07,-1.250548E-08,-2.861022E-08
349.3804,-0.1454474,-1.801942E-08,NaN,-0.3272956,-1.354734E-07,NaN,0.4655291,-2.946622E-08,NaN,-2.14702,1.110796E-05,-0.361235,6.859388E-09,NaN,NaN,-0.03924432,-1.39708E-11,-4.011271E-07,-1.13496E-07,-7.737104E-09,-2.622604E-08
349.3951,-0.1454474,-1.801942E-08,NaN,-0.3272956,-1.354734E-07,NaN,0.4655291,-2.946622E-08,NaN,-2.14702,1.110796E-05,-0.361235,6.859388E-09,NaN,NaN,-0.03924432,-1.39708E-11,-4.011271E-07,-1.13496E-07,-7.737104E-09,-2.622604E-08
349.4095,-0.1526438,-1.801846E-08,NaN,-0.3272953,-1.354739E-07,NaN,0.4663435,-2.900366E-08,NaN,-2.145432,1.110852E-05,-0.3609954,6.398845E-09,NaN,NaN,-0.03886775,-9.31419E-12,-4.133088E-07,-1.134978E-07,-7.737104E-09,-2.861022E-08
349.4246,-0.1599851,-1.80175E-08,NaN,-0.3272945,-1.354745E-07,NaN,0.4671184,-2.855006E-08,NaN,-2.143924,1.110908E-05,-0.360757,5.947261E-09,NaN,NaN,-0.03849851,-4.657577E-12,-4.253787E-07,-1.134996E-07,-1.131338E-08,-2.622604E-08
349.4395,-0.1599851,-1.80175E-08,NaN,-0.3272945,-1.354745E-07,NaN,0.4671184,-2.855006E-08,NaN,-2.143924,1.110908E-05,-0.360757,5.947261E-09,NaN,NaN,-0.03849851,-4.657577E-12,-4.253787E-07,-1.134996E-07,-1.131338E-08,-2.622604E-08
349.4534,-0.1681152,-1.801654E-08,NaN,-0.3272945,-1.354751E-07,NaN,0.4680188,-2.810524E-08,NaN,-2.14211,1.110965E-05,-0.3605396,5.504456E-09,NaN,NaN,-0.03813679,-9.645063E-16,-4.428504E-07,-1.135014E-07,-1.131338E-08,-2.861022E-08
349.4688,-0.1767075,-1.801558E-08,NaN,-0.3272939,-1.354757E-07,NaN,0.4689568,-2.767045E-08,NaN,-2.140256,1.111021E-05,-0.3602819,5.071669E-09,NaN,NaN,-0.03778208,4.655648E-12,-4.594652E-07,-1.135032E-07,-1.250548E-08,-2.622604E-08
349.4834,-0.1855545,-1.801462E-08,NaN,-0.3272925,-1.354763E-07,NaN,0.4698726,-2.724547E-08,NaN,-2.138459,1.111078E-05,-0.3600088,4.648705E-09,NaN,NaN,-0.03743424,9.312261E-12,-4.728762E-07,-1.13505E-07,-1.012129E-08,-2.861022E-08
349.4983,-0.1855545,-1.801462E-08,NaN,-0.3272925,-1.354763E-07,NaN,0.4698726,-2.724547E-08,NaN,-2.138459,1.111078E-05,-0.3600088,4.648705E-09,NaN,NaN,-0.03743424,9.312261E-12,-4.728762E-07,-1.13505E-07,-1.012129E-08,-2.861022E-08
349.5124,-0.195253,-1.801366E-08,NaN,-0.3272917,-1.354769E-07,NaN,0.4709132,-2.682871E-08,NaN,-2.136363,1.111134E-05,-0.3597487,4.233953E-09,NaN,NaN,-0.03709347,1.396887E-11,-4.931418E-07,-1.135067E-07,-5.352919E-09,-2.622604E-08
349.5288,-0.2054465,-1.80127E-08,NaN,-0.32729,-1.354775E-07,NaN,0.4719827,-2.642141E-08,NaN,-2.13424,1.111191E-05,-0.359448,3.828668E-09,NaN,NaN,-0.03675929,1.396887E-11,-5.116565E-07,-1.135085E-07,-5.352919E-09,-2.861022E-08
349.5444,-0.2159086,-1.801175E-08,NaN,-0.3272871,-1.354781E-07,NaN,0.473021,-2.60234E-08,NaN,-2.132191,1.111247E-05,-0.3591342,3.432664E-09,NaN,NaN,-0.03643157,1.862549E-11,-5.276007E-07,-1.135103E-07,-2.968733E-09,-2.622604E-08
349.5579,-0.2159086,-1.801175E-08,NaN,-0.3272871,-1.354781E-07,NaN,0.473021,-2.60234E-08,NaN,-2.132191,1.111247E-05,-0.3591342,3.432664E-09,NaN,NaN,-0.03643157,1.862549E-11,-5.276007E-07,-1.135103E-07,-2.968733E-09,-2.622604E-08
349.5718,-0.2264958,-1.801079E-08,NaN,-0.3272828,-1.354787E-07,NaN,0.4740086,-2.563449E-08,NaN,-2.130244,1.111304E-05,-0.3588245,3.045758E-09,NaN,NaN,-0.03611021,1.862549E-11,-5.415333E-07,-1.13512E-07,-2.968733E-09,-2.861022E-08
349.5862,-0.2378457,-1.800983E-08,NaN,-0.3272795,-1.354793E-07,NaN,0.4751124,-2.525308E-08,NaN,-2.128011,1.11136E-05,-0.3585334,2.666358E-09,NaN,NaN,-0.03579541,2.32821E-11,-5.592657E-07,-1.135138E-07,-7.737105E-09,-2.622604E-08
349.6008,-0.2496278,-1.800887E-08,NaN,-0.3272749,-1.354799E-07,NaN,0.4762427,-2.488045E-08,NaN,-2.125757,1.111417E-05,-0.3582045,2.295731E-09,NaN,NaN,-0.03548668,2.32821E-11,-5.742414E-07,-1.135155E-07,-1.488966E-08,-2.861022E-08
349.6172,-0.2496278,-1.800887E-08,NaN,-0.3272749,-1.354799E-07,NaN,0.4762427,-2.488045E-08,NaN,-2.125757,1.111417E-05,-0.3582045,2.295731E-09,NaN,NaN,-0.03548668,2.32821E-11,-5.742414E-07,-1.135155E-07,-1.488966E-08,-2.861022E-08
349.6295,-0.2616323,-1.800792E-08,NaN,-0.3272682,-1.354804E-07,NaN,0.4773411,-2.451641E-08,NaN,-2.123577,1.111474E-05,-0.3578637,1.933703E-09,NaN,NaN,-0.03518392,2.793871E-11,-5.901856E-07,-1.135172E-07,-1.488966E-08,-2.622604E-08
349.6451,-0.2737264,-1.800696E-08,NaN,-0.3272597,-1.35481E-07,NaN,0.4783884,-2.416081E-08,NaN,-2.121499,1.11153E-05,-0.3575279,1.580108E-09,NaN,NaN,-0.03488704,2.793871E-11,-6.053848E-07,-1.13519E-07,-1.012129E-08,-2.861022E-08
349.6607,-0.2865544,-1.8006E-08,NaN,-0.3272521,-1.354816E-07,NaN,0.4795521,-2.381348E-08,NaN,-2.119139,1.111587E-05,-0.3572074,1.23478E-09,NaN,NaN,-0.03459622,2.793871E-11,-6.257249E-07,-1.135207E-07,-1.250548E-08,-2.622604E-08
349.6743,-0.2865544,-1.8006E-08,NaN,-0.3272521,-1.354816E-07,NaN,0.4795521,-2.381348E-08,NaN,-2.119139,1.111587E-05,-0.3572074,1.23478E-09,NaN,NaN,-0.03459622,2.793871E-11,-6.257249E-07,-1.135207E-07,-1.250548E-08,-2.622604E-08
349.6884,-0.2997904,-1.800504E-08,NaN,-0.3272429,-1.354822E-07,NaN,0.4807394,-2.347425E-08,NaN,-2.11676,1.111644E-05,-0.3568501,8.975566E-10,NaN,NaN,-0.03431099,2.793871E-11,-6.415202E-07,-1.135224E-07,-8.929199E-09,-2.861022E-08
349.7036,-0.3132274,-1.800409E-08,NaN,-0.3272315,-1.354828E-07,NaN,0.4818921,-2.314296E-08,NaN,-2.11446,1.111701E-05,-0.3564825,5.68278E-10,NaN,NaN,-0.03403128,2.793871E-11,-6.570174E-07,-1.135241E-07,-1.131338E-08,-2.622604E-08
349.7185,-0.3132274,-1.800409E-08,NaN,-0.3272315,-1.354828E-07,NaN,0.4818921,-2.314296E-08,NaN,-2.11446,1.111701E-05,-0.3564825,5.68278E-10,NaN,NaN,-0.03403128,2.793871E-11,-6.570174E-07,-1.135241E-07,-1.131338E-08,-2.622604E-08
349.7326,-0.3274629,-1.800313E-08,NaN,-0.3272205,-1.354833E-07,NaN,0.4831603,-2.281806E-08,NaN,-2.111882,1.111758E-05,-0.3561226,2.453747E-10,NaN,NaN,-0.03375725,2.793871E-11,-6.759419E-07,-1.135258E-07,-1.012129E-08,-2.861022E-08
349.7482,-0.3421409,-1.800217E-08,NaN,-0.3272073,-1.354839E-07,NaN,0.4844437,-2.250081E-08,NaN,-2.109299,1.111814E-05,-0.3557266,-6.986298E-11,NaN,NaN,-0.03348849,3.259532E-11,-6.941213E-07,-1.135275E-07,-8.929199E-09,-2.622604E-08
349.7628,-0.3570355,-1.800121E-08,NaN,-0.3271913,-1.354845E-07,NaN,0.4856839,-2.219109E-08,NaN,-2.10681,1.111871E-05,-0.3553232,-3.77586E-10,NaN,NaN,-0.03322491,3.259532E-11,-7.099165E-07,-1.135292E-07,-8.929199E-09,-2.861022E-08
349.7776,-0.3570355,-1.800121E-08,NaN,-0.3271913,-1.354845E-07,NaN,0.4856839,-2.219109E-08,NaN,-2.10681,1.111871E-05,-0.3553232,-3.77586E-10,NaN,NaN,-0.03322491,3.259532E-11,-7.099165E-07,-1.135292E-07,-8.929199E-09,-2.861022E-08
349.7914,-0.3720041,-1.800026E-08,NaN,-0.3271729,-1.354851E-07,NaN,0.4868633,-2.188873E-08,NaN,-2.10444,1.111927E-05,-0.3549289,-6.779423E-10,NaN,NaN,-0.03296644,3.725193E-11,-7.225825E-07,-1.135309E-07,-7.737106E-09,-2.622604E-08
349.8079,-0.3876846,-1.79993E-08,NaN,-0.3271552,-1.354856E-07,NaN,0.4881517,-2.159359E-08,NaN,-2.101806,1.111984E-05,-0.3545463,-9.710756E-10,NaN,NaN,-0.03271323,3.725193E-11,-7.398679E-07,-1.135326E-07,-6.545013E-09,-2.861022E-08
349.8225,-0.4037472,-1.799834E-08,NaN,-0.3271354,-1.354862E-07,NaN,0.4894533,-2.130416E-08,NaN,-2.09917,1.112042E-05,-0.3541309,-1.258498E-09,NaN,NaN,-0.03246489,3.725193E-11,-7.562591E-07,-1.135343E-07,-5.845493E-10,-2.622604E-08
349.8363,-0.4037472,-1.799834E-08,NaN,-0.3271354,-1.354862E-07,NaN,0.4894533,-2.130416E-08,NaN,-2.09917,1.112042E-05,-0.3541309,-1.258498E-09,NaN,NaN,-0.03246489,3.725193E-11,-7.562591E-07,-1.135343E-07,-5.845493E-10,-2.622604E-08
349.8506,-0.4199827,-1.799738E-08,NaN,-0.3271131,-1.354868E-07,NaN,0.4907119,-2.10217E-08,NaN,-2.096626,1.112099E-05,-0.3537099,-1.538952E-09,NaN,NaN,-0.03222133,4.190855E-11,-7.725014E-07,-1.135359E-07,4.183822E-09,-2.861022E-08
349.8657,-0.4362589,-1.799643E-08,NaN,-0.3270886,-1.354873E-07,NaN,0.4919105,-2.074608E-08,NaN,-2.094201,1.112156E-05,-0.3532988,-1.812574E-09,NaN,NaN,-0.03198249,4.656516E-11,-7.856144E-07,-1.135376E-07,4.183822E-09,-2.622604E-08
349.8804,-0.4532207,-1.799547E-08,NaN,-0.3270651,-1.354879E-07,NaN,0.4932187,-2.047715E-08,NaN,-2.091515,1.112214E-05,-0.3528961,-2.079499E-09,NaN,NaN,-0.03174851,4.656516E-11,-8.039428E-07,-1.135393E-07,-5.845493E-10,-2.861022E-08
349.895,-0.4532207,-1.799547E-08,NaN,-0.3270651,-1.354879E-07,NaN,0.4932187,-2.047715E-08,NaN,-2.091515,1.112214E-05,-0.3528961,-2.079499E-09,NaN,NaN,-0.03174851,4.656516E-11,-8.039428E-07,-1.135393E-07,-5.845493E-10,-2.861022E-08
349.9092,-0.4705426,-1.799451E-08,NaN,-0.3270396,-1.354885E-07,NaN,0.494538,-2.021479E-08,NaN,-2.088826,1.112271E-05,-0.3524619,-2.339858E-09,NaN,NaN,-0.03151901,5.122177E-11,-8.19291E-07,-1.135409E-07,1.799636E-09,-2.622604E-08
349.9243,-0.4880184,-1.799356E-08,NaN,-0.3270116,-1.35489E-07,NaN,0.4958126,-1.995745E-08,NaN,-2.086233,1.112329E-05,-0.352024,-2.595193E-09,NaN,NaN,-0.03129394,5.122177E-11,-8.327021E-07,-1.135426E-07,2.991729E-09,-2.861022E-08
349.9393,-0.4880184,-1.799356E-08,NaN,-0.3270116,-1.35489E-07,NaN,0.4958126,-1.995745E-08,NaN,-2.086233,1.112329E-05,-0.352024,-2.595193E-09,NaN,NaN,-0.03129394,5.122177E-11,-8.327021E-07,-1.135426E-07,2.991729E-09,-2.861022E-08
349.9532,-0.5062459,-1.79926E-08,NaN,-0.3269839,-1.354896E-07,NaN,0.4971955,-1.970645E-08,NaN,-2.083382,1.112387E-05,-0.351588,-2.84419E-09,NaN,NaN,-0.03107343,5.587838E-11,-8.481993E-07,-1.135442E-07,1.799636E-09,-2.622604E-08
349.9688,-0.5248697,-1.799164E-08,NaN,-0.3269536,-1.354902E-07,NaN,0.4985816,-1.946167E-08,NaN,-2.080541,1.112445E-05,-0.3511222,-3.086972E-09,NaN,NaN,-0.03085713,6.053499E-11,-8.628024E-07,-1.135459E-07,-5.352921E-09,-2.861022E-08
349.9833,-0.5436646,-1.799068E-08,NaN,-0.3269202,-1.354907E-07,NaN,0.4999151,-1.922298E-08,NaN,-2.077809,1.112503E-05,-0.3506558,-3.323662E-09,NaN,NaN,-0.03064499,6.053499E-11,-8.768095E-07,-1.135475E-07,-1.012129E-08,-2.622604E-08
349.9994,-0.5436646,-1.799068E-08,NaN,-0.3269202,-1.354907E-07,NaN,0.4999151,-1.922298E-08,NaN,-2.077809,1.112503E-05,-0.3506558,-3.323662E-09,NaN,NaN,-0.03064499,6.053499E-11,-8.768095E-07,-1.135475E-07,-1.012129E-08,-2.622604E-08
350.0123,-0.5624882,-1.798973E-08,NaN,-0.3268843,-1.354913E-07,NaN,0.5011806,-1.893652E-08,NaN,-2.075212,1.112561E-05,-0.3502036,-3.608119E-09,NaN,NaN,-0.03043696,6.053499E-11,-8.878364E-07,-1.135491E-07,-5.352921E-09,-2.861022E-08
350.0277,-0.5819793,-1.798877E-08,NaN,-0.3268491,-1.354918E-07,NaN,0.5025495,-1.865697E-08,NaN,-2.072369,1.112619E-05,-0.3497561,-3.88567E-09,NaN,NaN,-0.03023315,6.053499E-11,-9.015454E-07,-1.135508E-07,6.075433E-10,-2.622604E-08
350.0423,-0.6018084,-1.798781E-08,NaN,-0.3268117,-1.354924E-07,NaN,0.5039206,-1.838418E-08,NaN,-2.069538,1.112677E-05,-0.3492821,-4.15645E-09,NaN,NaN,-0.03003325,6.053499E-11,-9.134664E-07,-1.135524E-07,-2.968735E-09,-2.861022E-08
350.0567,-0.6018084,-1.798781E-08,NaN,-0.3268117,-1.354924E-07,NaN,0.5039206,-1.838418E-08,NaN,-2.069538,1.112677E-05,-0.3492821,-4.15645E-09,NaN,NaN,-0.03003325,6.053499E-11,-9.134664E-07,-1.135524E-07,-2.968735E-09,-2.861022E-08
350.073,-0.6217668,-1.798685E-08,NaN,-0.3267716,-1.354929E-07,NaN,0.5052401,-1.811663E-08,NaN,-2.066814,1.112735E-05,-0.3488092,-4.422004E-09,NaN,NaN,-0.02983718,6.519161E-11,-9.235991E-07,-1.13554E-07,6.075433E-10,-2.622604E-08
350.0863,-0.6417229,-1.79859E-08,NaN,-0.3267294,-1.354935E-07,NaN,0.5064934,-1.785561E-08,NaN,-2.064223,1.112793E-05,-0.3483513,-4.681023E-09,NaN,NaN,-0.0296449,6.519161E-11,-9.322418E-07,-1.135556E-07,-5.352921E-09,-2.861022E-08
350.1009,-0.6623221,-1.798494E-08,NaN,-0.3266883,-1.35494E-07,NaN,0.5078512,-1.7601E-08,NaN,-2.061385,1.112851E-05,-0.3478947,-4.933634E-09,NaN,NaN,-0.02945653,6.984822E-11,-9.447588E-07,-1.135572E-07,-2.968735E-09,-2.622604E-08
350.1155,-0.6623221,-1.798494E-08,NaN,-0.3266883,-1.35494E-07,NaN,0.5078512,-1.7601E-08,NaN,-2.061385,1.112851E-05,-0.3478947,-4.933634E-09,NaN,NaN,-0.02945653,6.984822E-11,-9.447588E-07,-1.135572E-07,-2.968735E-09,-2.622604E-08
350.1296,-0.6832394,-1.798398E-08,NaN,-0.3266452,-1.354946E-07,NaN,0.5092098,-1.735267E-08,NaN,-2.05856,1.112909E-05,-0.3474132,-5.179962E-09,NaN,NaN,-0.02927175,6.984822E-11,-9.563818E-07,-1.135588E-07,-1.131339E-08,-2.861022E-08
350.1451,-0.704269,-1.798302E-08,NaN,-0.3265995,-1.354951E-07,NaN,0.510516,-1.710908E-08,NaN,-2.055844,1.112967E-05,-0.3469349,-5.421545E-09,NaN,NaN,-0.02909052,7.450484E-11,-9.665146E-07,-1.135604E-07,-5.352922E-09,-2.622604E-08
350.1596,-0.704269,-1.798302E-08,NaN,-0.3265995,-1.354951E-07,NaN,0.510516,-1.710908E-08,NaN,-2.055844,1.112967E-05,-0.3469349,-5.421545E-09,NaN,NaN,-0.02909052,7.450484E-11,-9.665146E-07,-1.135604E-07,-5.352922E-09,-2.622604E-08
350.1736,-0.725502,-1.798207E-08,NaN,-0.3265525,-1.354956E-07,NaN,0.511807,-1.687157E-08,NaN,-2.053147,1.113025E-05,-0.3464666,-5.657062E-09,NaN,NaN,-0.02891284,7.450484E-11,-9.754552E-07,-1.13562E-07,-1.776643E-09,-2.861022E-08
350.1891,-0.746774,-1.798111E-08,NaN,-0.326504,-1.354962E-07,NaN,0.5130501,-1.663999E-08,NaN,-2.050551,1.113083E-05,-0.3460051,-5.886632E-09,NaN,NaN,-0.02873859,7.450484E-11,-9.85588E-07,-1.135635E-07,-4.160829E-09,-2.622604E-08
350.2037,-0.7679812,-1.798015E-08,NaN,-0.3264542,-1.354967E-07,NaN,0.5142334,-1.641425E-08,NaN,-2.04808,1.113142E-05,-0.3455588,-6.11037E-09,NaN,NaN,-0.02856771,7.450484E-11,-9.906544E-07,-1.135651E-07,-8.9292E-09,-2.861022E-08
350.2186,-0.7679812,-1.798015E-08,NaN,-0.3264542,-1.354967E-07,NaN,0.5142334,-1.641425E-08,NaN,-2.04808,1.113142E-05,-0.3455588,-6.11037E-09,NaN,NaN,-0.02856771,7.450484E-11,-9.906544E-07,-1.135651E-07,-8.9292E-09,-2.861022E-08
350.2325,-0.7890589,-1.797919E-08,NaN,-0.326404,-1.354973E-07,NaN,0.5153568,-1.619423E-08,NaN,-2.045734,1.113199E-05,-0.3451305,-6.328392E-09,NaN,NaN,-0.02840015,7.916146E-11,-9.942306E-07,-1.135667E-07,-6.545015E-09,-2.622604E-08
350.2481,-0.8099669,-1.797824E-08,NaN,-0.3263541,-1.354978E-07,NaN,0.5164246,-1.59784E-08,NaN,-2.043506,1.113258E-05,-0.3447199,-6.542224E-09,NaN,NaN,-0.02823583,7.916146E-11,-9.975089E-07,-1.135683E-07,-6.545015E-09,-2.861022E-08
350.2626,-0.8306807,-1.797728E-08,NaN,-0.3263049,-1.354983E-07,NaN,0.5174413,-1.576809E-08,NaN,-2.041388,1.113315E-05,-0.344326,-6.750534E-09,NaN,NaN,-0.02807471,8.381807E-11,-1.000489E-06,-1.135698E-07,-1.776643E-09,-2.622604E-08
350.2774,-0.8306807,-1.797728E-08,NaN,-0.3263049,-1.354983E-07,NaN,0.5174413,-1.576809E-08,NaN,-2.041388,1.113315E-05,-0.344326,-6.750534E-09,NaN,NaN,-0.02807471,8.381807E-11,-1.000489E-06,-1.135698E-07,-1.776643E-09,-2.622604E-08
350.2912,-0.8511857,-1.797632E-08,NaN,-0.3262568,-1.354989E-07,NaN,0.5184112,-1.556319E-08,NaN,-2.039371,1.113374E-05,-0.3439475,-6.953429E-09,NaN,NaN,-0.02791673,8.381807E-11,-1.002873E-06,-1.135714E-07,-4.160829E-09,-2.861022E-08
350.3067,-0.8714737,-1.797536E-08,NaN,-0.3262102,-1.354994E-07,NaN,0.5193374,-1.536219E-08,NaN,-2.037451,1.113432E-05,-0.3435834,-7.152429E-09,NaN,NaN,-0.02776181,8.381807E-11,-1.00645E-06,-1.135729E-07,-4.160829E-09,-2.622604E-08
350.321,-0.8915403,-1.797441E-08,NaN,-0.3261653,-1.354999E-07,NaN,0.5202227,-1.516642E-08,NaN,-2.035621,1.11349E-05,-0.3432329,-7.3462E-09,NaN,NaN,-0.02760991,8.381807E-11,-1.009728E-06,-1.135745E-07,-4.160829E-09,-2.861022E-08
350.3373,-0.8915403,-1.797441E-08,NaN,-0.3261653,-1.354999E-07,NaN,0.5202227,-1.516642E-08,NaN,-2.035621,1.11349E-05,-0.3432329,-7.3462E-09,NaN,NaN,-0.02760991,8.381807E-11,-1.009728E-06,-1.135745E-07,-4.160829E-09,-2.861022E-08
350.3508,-0.9113839,-1.797345E-08,NaN,-0.3261221,-1.355004E-07,NaN,0.521069,-1.497578E-08,NaN,-2.033878,1.113548E-05,-0.3428954,-7.534842E-09,NaN,NaN,-0.02746096,8.381807E-11,-1.009728E-06,-1.13576E-07,-6.545015E-09,-2.622604E-08
350.3651,-0.9310042,-1.797249E-08,NaN,-0.3260807,-1.35501E-07,NaN,0.5218781,-1.479017E-08,NaN,-2.032218,1.113606E-05,-0.3425704,-7.718455E-09,NaN,NaN,-0.02731491,8.381807E-11,-1.00794E-06,-1.135775E-07,-1.131339E-08,-2.861022E-08
350.3797,-0.9310042,-1.797249E-08,NaN,-0.3260807,-1.35501E-07,NaN,0.5218781,-1.479017E-08,NaN,-2.032218,1.113606E-05,-0.3425704,-7.718455E-09,NaN,NaN,-0.02731491,8.381807E-11,-1.00794E-06,-1.135775E-07,-1.131339E-08,-2.861022E-08
350.3937,-0.9504021,-1.797153E-08,NaN,-0.3260411,-1.355015E-07,NaN,0.5226515,-1.460807E-08,NaN,-2.030639,1.113665E-05,-0.3422575,-7.898553E-09,NaN,NaN,-0.0271717,8.381807E-11,-1.006748E-06,-1.135791E-07,-1.131339E-08,-2.622604E-08
350.409,-0.969579,-1.797058E-08,NaN,-0.3260033,-1.35502E-07,NaN,0.5233904,-1.443084E-08,NaN,-2.029138,1.113723E-05,-0.3419563,-8.07379E-09,NaN,NaN,-0.02703128,8.381807E-11,-1.003767E-06,-1.135806E-07,-1.131339E-08,-2.861022E-08
350.4232,-0.9885368,-1.796962E-08,NaN,-0.3259673,-1.355025E-07,NaN,0.5240959,-1.425836E-08,NaN,-2.027712,1.113781E-05,-0.3416667,-8.244262E-09,NaN,NaN,-0.02689359,8.381807E-11,-1.000191E-06,-1.135821E-07,-1.369757E-08,-2.622604E-08
350.438,-0.9885368,-1.796962E-08,NaN,-0.3259673,-1.355025E-07,NaN,0.5240959,-1.425836E-08,NaN,-2.027712,1.113781E-05,-0.3416667,-8.244262E-09,NaN,NaN,-0.02689359,8.381807E-11,-1.000191E-06,-1.135821E-07,-1.369757E-08,-2.622604E-08
350.4519,-1.007278,-1.796866E-08,NaN,-0.3259331,-1.355031E-07,NaN,0.5247691,-1.409198E-08,NaN,-2.026361,1.113839E-05,-0.3413884,-8.40865E-09,NaN,NaN,-0.02675859,8.381807E-11,-1.000787E-06,-1.135836E-07,-1.608176E-08,-2.861022E-08
350.4687,-1.025804,-1.79677E-08,NaN,-0.3259006,-1.355036E-07,NaN,0.5254111,-1.392873E-08,NaN,-2.025081,1.113897E-05,-0.341121,-8.569897E-09,NaN,NaN,-0.02662621,8.381807E-11,-9.984029E-07,-1.135851E-07,-1.846594E-08,-2.622604E-08
350.4821,-1.044117,-1.796675E-08,NaN,-0.3258698,-1.355041E-07,NaN,0.5260226,-1.376998E-08,NaN,-2.023871,1.113956E-05,-0.3408644,-8.726654E-09,NaN,NaN,-0.02649642,8.381807E-11,-9.966147E-07,-1.135866E-07,-1.846594E-08,-2.861022E-08
350.4966,-1.044117,-1.796675E-08,NaN,-0.3258698,-1.355041E-07,NaN,0.5260226,-1.376998E-08,NaN,-2.023871,1.113956E-05,-0.3408644,-8.726654E-09,NaN,NaN,-0.02649642,8.381807E-11,-9.966147E-07,-1.135866E-07,-1.846594E-08,-2.861022E-08
350.5108,-1.06222,-1.796579E-08,NaN,-0.3258407,-1.355046E-07,NaN,0.5266047,-1.361562E-08,NaN,-2.02273,1.114014E-05,-0.3406184,-8.87901E-09,NaN,NaN,-0.02636915,8.381807E-11,-9.924424E-07,-1.135881E-07,-1.369757E-08,-2.622604E-08
350.526,-1.080115,-1.796483E-08,NaN,-0.3258131,-1.355051E-07,NaN,0.527158,-1.346559E-08,NaN,-2.021656,1.114072E-05,-0.3403827,-9.027048E-09,NaN,NaN,-0.02624437,8.381807E-11,-9.876741E-07,-1.135896E-07,-1.846594E-08,-2.861022E-08
350.5405,-1.097805,-1.796387E-08,NaN,-0.3257871,-1.355056E-07,NaN,0.5276836,-1.331837E-08,NaN,-2.020646,1.11413E-05,-0.3401572,-9.172267E-09,NaN,NaN,-0.02612201,8.381807E-11,-9.835018E-07,-1.135911E-07,-1.608176E-08,-2.622604E-08
350.555,-1.097805,-1.796387E-08,NaN,-0.3257871,-1.355056E-07,NaN,0.5276836,-1.331837E-08,NaN,-2.020646,1.11413E-05,-0.3401572,-9.172267E-09,NaN,NaN,-0.02612201,8.381807E-11,-9.835018E-07,-1.135911E-07,-1.608176E-08,-2.622604E-08
350.5692,-1.115291,-1.796292E-08,NaN,-0.3257626,-1.355062E-07,NaN,0.5281821,-1.317533E-08,NaN,-2.019701,1.114188E-05,-0.3399415,-9.313309E-09,NaN,NaN,-0.02600204,8.381807E-11,-9.787334E-07,-1.135926E-07,-1.608176E-08,-2.861022E-08
350.5844,-1.132577,-1.796196E-08,NaN,-0.3257396,-1.355067E-07,NaN,0.5286544,-1.303638E-08,NaN,-2.018817,1.114246E-05,-0.3397355,-9.450257E-09,NaN,NaN,-0.02588441,8.847469E-11,-9.727729E-07,-1.13594E-07,-2.085013E-08,-2.622604E-08
350.5991,-1.132577,-1.796196E-08,NaN,-0.3257396,-1.355067E-07,NaN,0.5286544,-1.303638E-08,NaN,-2.018817,1.114246E-05,-0.3397355,-9.450257E-09,NaN,NaN,-0.02588441,8.847469E-11,-9.727729E-07,-1.13594E-07,-2.085013E-08,-2.622604E-08
350.613,-1.149664,-1.7961E-08,NaN,-0.3257179,-1.355072E-07,NaN,0.5291011,-1.290004E-08,NaN,-2.017994,1.114304E-05,-0.339539,-9.584603E-09,NaN,NaN,-0.02576908,8.847469E-11,-9.668124E-07,-1.135955E-07,-1.131338E-08,-2.861022E-08
350.6303,-1.166555,-1.796004E-08,NaN,-0.3256977,-1.355077E-07,NaN,0.5295231,-1.276766E-08,NaN,-2.017231,1.114362E-05,-0.3393518,-9.714987E-09,NaN,NaN,-0.02565599,9.31313E-11,-9.608519E-07,-1.13597E-07,-8.929199E-09,-2.622604E-08
350.6437,-1.183251,-1.795909E-08,NaN,-0.3256787,-1.355082E-07,NaN,0.5299209,-1.263916E-08,NaN,-2.016525,1.11442E-05,-0.3391736,-9.841483E-09,NaN,NaN,-0.02554511,9.31313E-11,-9.560836E-07,-1.135984E-07,-1.369757E-08,-2.861022E-08
350.6573,-1.183251,-1.795909E-08,NaN,-0.3256787,-1.355082E-07,NaN,0.5299209,-1.263916E-08,NaN,-2.016525,1.11442E-05,-0.3391736,-9.841483E-09,NaN,NaN,-0.02554511,9.31313E-11,-9.560836E-07,-1.135984E-07,-1.369757E-08,-2.861022E-08
350.6711,-1.199756,-1.795813E-08,NaN,-0.3256611,-1.355087E-07,NaN,0.5302953,-1.251307E-08,NaN,-2.015875,1.114478E-05,-0.3390044,-9.965583E-09,NaN,NaN,-0.02543639,9.778792E-11,-9.501231E-07,-1.135999E-07,-1.608176E-08,-2.622604E-08
350.6866,-1.216071,-1.795717E-08,NaN,-0.3256447,-1.355092E-07,NaN,0.5306469,-1.239073E-08,NaN,-2.01528,1.114536E-05,-0.3388438,-1.008592E-08,NaN,NaN,-0.02532979,9.778792E-11,-9.447587E-07,-1.136013E-07,-1.369757E-08,-2.861022E-08
350.701,-1.232198,-1.795621E-08,NaN,-0.3256295,-1.355097E-07,NaN,0.5309764,-1.227209E-08,NaN,-2.014738,1.114595E-05,-0.3386917,-1.020257E-08,NaN,NaN,-0.02522528,9.778792E-11,-9.376061E-07,-1.136028E-07,-1.369757E-08,-2.622604E-08
350.7157,-1.232198,-1.795621E-08,NaN,-0.3256295,-1.355097E-07,NaN,0.5309764,-1.227209E-08,NaN,-2.014738,1.114595E-05,-0.3386917,-1.020257E-08,NaN,NaN,-0.02522528,9.778792E-11,-9.376061E-07,-1.136028E-07,-1.369757E-08,-2.622604E-08
350.7297,-1.24814,-1.795526E-08,NaN,-0.3256155,-1.355102E-07,NaN,0.5312843,-1.222142E-08,NaN,-2.014249,1.114653E-05,-0.3385479,-1.025124E-08,NaN,NaN,-0.0251228,9.31313E-11,-9.310496E-07,-1.136042E-07,-1.369757E-08,-2.622604E-08
350.745,-1.263899,-1.79543E-08,NaN,-0.3256027,-1.355107E-07,NaN,0.5315714,-1.217304E-08,NaN,-2.013811,1.114712E-05,-0.3384122,-1.029762E-08,NaN,NaN,-0.02502233,8.847469E-11,-9.221089E-07,-1.136056E-07,-1.608176E-08,-2.622604E-08
350.7596,-1.263899,-1.79543E-08,NaN,-0.3256027,-1.355107E-07,NaN,0.5315714,-1.217304E-08,NaN,-2.013811,1.114712E-05,-0.3384122,-1.029762E-08,NaN,NaN,-0.02502233,8.847469E-11,-9.221089E-07,-1.136056E-07,-1.608176E-08,-2.622604E-08
350.7733,-1.279256,-1.795335E-08,NaN,-0.3255902,-1.355112E-07,NaN,0.5317872,-1.21269E-08,NaN,-2.013536,1.114769E-05,-0.3382944,-1.034176E-08,NaN,NaN,-0.02492378,9.778791E-11,-9.143603E-07,-1.136071E-07,-1.608176E-08,-2.622604E-08
350.7885,-1.294296,-1.795239E-08,NaN,-0.325579,-1.355117E-07,NaN,0.5319676,-1.208155E-08,NaN,-2.013343,1.114828E-05,-0.3381948,-1.038511E-08,NaN,NaN,-0.02482718,9.313129E-11,-9.048236E-07,-1.136085E-07,-1.369757E-08,-2.622604E-08
350.8032,-1.309073,-1.795144E-08,NaN,-0.3255695,-1.355122E-07,NaN,0.5321295,-1.203838E-08,NaN,-2.013198,1.114887E-05,-0.3381049,-1.042628E-08,NaN,NaN,-0.02473247,8.381807E-11,-8.97671E-07,-1.136099E-07,-1.608176E-08,-2.622604E-08
350.8178,-1.309073,-1.795144E-08,NaN,-0.3255695,-1.355122E-07,NaN,0.5321295,-1.203838E-08,NaN,-2.013198,1.114887E-05,-0.3381049,-1.042628E-08,NaN,NaN,-0.02473247,8.381807E-11,-8.97671E-07,-1.136099E-07,-1.608176E-08,-2.622604E-08
350.8318,-1.322896,-1.795048E-08,NaN,-0.3255592,-1.355127E-07,NaN,0.5321102,-1.199735E-08,NaN,-2.013465,1.114945E-05,-0.3380544,-1.046532E-08,NaN,NaN,-0.02463952,8.847469E-11,-8.851541E-07,-1.136113E-07,-1.846594E-08,-2.622604E-08
350.847,-1.33606,-1.794952E-08,NaN,-0.3255512,-1.355132E-07,NaN,0.5320275,-1.1957E-08,NaN,-2.013876,1.115002E-05,-0.3380434,-1.050366E-08,NaN,NaN,-0.02454844,9.778791E-11,-8.738292E-07,-1.136127E-07,-2.085013E-08,-2.622604E-08
350.8616,-1.348755,-1.794857E-08,NaN,-0.3255461,-1.355137E-07,NaN,0.5319344,-1.191874E-08,NaN,-2.014324,1.115061E-05,-0.3380449,-1.053992E-08,NaN,NaN,-0.02445915,9.313129E-11,-8.666767E-07,-1.136141E-07,-1.608176E-08,-2.622604E-08
350.876,-1.348755,-1.794857E-08,NaN,-0.3255461,-1.355137E-07,NaN,0.5319344,-1.191874E-08,NaN,-2.014324,1.115061E-05,-0.3380449,-1.053992E-08,NaN,NaN,-0.02445915,9.313129E-11,-8.666767E-07,-1.136141E-07,-1.608176E-08,-2.622604E-08
350.8896,-1.361103,-1.794761E-08,NaN,-0.3255438,-1.355142E-07,NaN,0.5318462,-1.188253E-08,NaN,-2.014775,1.115119E-05,-0.3380482,-1.057414E-08,NaN,NaN,-0.02437162,8.847468E-11,-8.565439E-07,-1.136155E-07,-2.085013E-08,-2.622604E-08
350.9052,-1.372451,-1.794666E-08,NaN,-0.3255416,-1.355147E-07,NaN,0.531596,-1.18469E-08,NaN,-2.015597,1.115177E-05,-0.3380834,-1.060777E-08,NaN,NaN,-0.0242857,9.77879E-11,-8.434308E-07,-1.136169E-07,-2.085013E-08,-2.622604E-08
350.9194,-1.372451,-1.794666E-08,NaN,-0.3255416,-1.355147E-07,NaN,0.531596,-1.18469E-08,NaN,-2.015597,1.115177E-05,-0.3380834,-1.060777E-08,NaN,NaN,-0.0242857,9.77879E-11,-8.434308E-07,-1.136169E-07,-2.085013E-08,-2.622604E-08
350.9367,-1.383125,-1.79457E-08,NaN,-0.325541,-1.355152E-07,NaN,0.5312979,-1.181327E-08,NaN,-2.016529,1.115235E-05,-0.338152,-1.06394E-08,NaN,NaN,-0.02420152,9.313129E-11,-8.315099E-07,-1.136183E-07,-2.085013E-08,-2.622604E-08
350.9496,-1.393328,-1.794474E-08,NaN,-0.3255416,-1.355162E-07,NaN,0.5310017,-1.119332E-08,NaN,-2.017469,1.115294E-05,-0.338228,-1.125735E-08,NaN,NaN,-0.02411899,9.313129E-11,-8.201851E-07,-1.136171E-07,-1.846594E-08,-2.622604E-08
350.9641,-1.403194,-1.794379E-08,NaN,-0.3255432,-1.355167E-07,NaN,0.5307204,-1.067977E-08,NaN,-2.018389,1.115352E-05,-0.3383018,-1.176891E-08,NaN,NaN,-0.02403809,8.847467E-11,-8.082641E-07,-1.136155E-07,-1.846594E-08,-2.622604E-08
350.9777,-1.403194,-1.794379E-08,NaN,-0.3255432,-1.355167E-07,NaN,0.5307204,-1.067977E-08,NaN,-2.018389,1.115352E-05,-0.3383018,-1.176891E-08,NaN,NaN,-0.02403809,8.847467E-11,-8.082641E-07,-1.136155E-07,-1.846594E-08,-2.622604E-08
350.9912,-1.412078,-1.794283E-08,NaN,-0.3255442,-1.35517E-07,NaN,0.5302854,-1.022686E-08,NaN,-2.019661,1.115411E-05,-0.3384036,-1.221982E-08,NaN,NaN,-0.02395867,8.381806E-11,-7.927669E-07,-1.136136E-07,-1.846594E-08,-2.622604E-08
351.0064,-1.420307,-1.794187E-08,NaN,-0.3255463,-1.355171E-07,NaN,0.5298093,-9.809457E-09,NaN,-2.021024,1.11547E-05,-0.3385366,-1.263521E-08,NaN,NaN,-0.02388086,7.916144E-11,-7.790579E-07,-1.136117E-07,-2.085013E-08,-2.622604E-08
351.0208,-1.428089,-1.794091E-08,NaN,-0.3255493,-1.355171E-07,NaN,0.5293416,-9.415603E-09,NaN,-2.022381,1.115528E-05,-0.3386748,-1.302706E-08,NaN,NaN,-0.02380458,7.450483E-11,-7.653488E-07,-1.136097E-07,-2.323431E-08,-2.622604E-08
351.0354,-1.428089,-1.794091E-08,NaN,-0.3255493,-1.355171E-07,NaN,0.5293416,-9.415603E-09,NaN,-2.022381,1.115528E-05,-0.3386748,-1.302706E-08,NaN,NaN,-0.02380458,7.450483E-11,-7.653488E-07,-1.136097E-07,-2.323431E-08,-2.622604E-08
351.0494,-1.434831,-1.793996E-08,NaN,-0.3255519,-1.35517E-07,NaN,0.5287262,-9.03779E-09,NaN,-2.024079,1.115587E-05,-0.3388401,-1.340286E-08,NaN,NaN,-0.02372971,6.984821E-11,-7.486595E-07,-1.136077E-07,-2.56185E-08,-2.622604E-08
351.0643,-1.440889,-1.7939E-08,NaN,-0.325556,-1.355169E-07,NaN,0.5280787,-8.672895E-09,NaN,-2.025849,1.115646E-05,-0.3390344,-1.376574E-08,NaN,NaN,-0.02365634,6.51916E-11,-7.319703E-07,-1.136056E-07,-3.038687E-08,-2.622604E-08
351.079,-1.440889,-1.7939E-08,NaN,-0.325556,-1.355169E-07,NaN,0.5280787,-8.672895E-09,NaN,-2.025849,1.115646E-05,-0.3390344,-1.376574E-08,NaN,NaN,-0.02365634,6.51916E-11,-7.319703E-07,-1.136056E-07,-3.038687E-08,-2.622604E-08
351.0927,-1.446491,-1.793804E-08,NaN,-0.3255626,-1.355167E-07,NaN,0.5274487,-8.316432E-09,NaN,-2.027594,1.115704E-05,-0.3392315,-1.412019E-08,NaN,NaN,-0.02358444,6.053498E-11,-7.15877E-07,-1.136036E-07,-3.038687E-08,-2.622604E-08
351.1079,-1.451784,-1.793708E-08,NaN,-0.3255714,-1.355166E-07,NaN,0.5268477,-7.968241E-09,NaN,-2.029285,1.115763E-05,-0.3394215,-1.446636E-08,NaN,NaN,-0.02351394,5.587837E-11,-6.997838E-07,-1.136015E-07,-3.277106E-08,-2.622604E-08
351.1224,-1.456132,-1.793613E-08,NaN,-0.3255796,-1.355164E-07,NaN,0.526105,-7.626761E-09,NaN,-2.031298,1.115821E-05,-0.3396322,-1.480582E-08,NaN,NaN,-0.02344472,5.587837E-11,-6.824984E-07,-1.135995E-07,-3.277106E-08,-2.622604E-08
351.1423,-1.459867,-1.793517E-08,NaN,-0.3255891,-1.355163E-07,NaN,0.5253313,-7.290438E-09,NaN,-2.033375,1.115879E-05,-0.339871,-1.514013E-08,NaN,NaN,-0.0233769,5.587837E-11,-6.658091E-07,-1.135974E-07,-3.277106E-08,-2.622604E-08
351.1512,-1.459867,-1.793517E-08,NaN,-0.3255891,-1.355163E-07,NaN,0.5253313,-7.290438E-09,NaN,-2.033375,1.115879E-05,-0.339871,-1.514013E-08,NaN,NaN,-0.0233769,5.587837E-11,-6.658091E-07,-1.135974E-07,-3.277106E-08,-2.622604E-08
351.1651,-1.463201,-1.793421E-08,NaN,-0.3256,-1.355161E-07,NaN,0.5245759,-6.959174E-09,NaN,-2.03542,1.115937E-05,-0.3401123,-1.546937E-08,NaN,NaN,-0.02331042,5.587837E-11,-6.491198E-07,-1.135954E-07,-3.277106E-08,-2.622604E-08
351.1802,-1.466269,-1.793325E-08,NaN,-0.3256123,-1.35516E-07,NaN,0.5238509,-6.634282E-09,NaN,-2.037405,1.115996E-05,-0.3403461,-1.579224E-08,NaN,NaN,-0.02324526,5.587837E-11,-6.348147E-07,-1.135934E-07,-2.800268E-08,-2.622604E-08
351.1949,-1.466269,-1.793325E-08,NaN,-0.3256123,-1.35516E-07,NaN,0.5238509,-6.634282E-09,NaN,-2.037405,1.115996E-05,-0.3403461,-1.579224E-08,NaN,NaN,-0.02324526,5.587837E-11,-6.348147E-07,-1.135934E-07,-2.800268E-08,-2.622604E-08
351.2086,-1.468428,-1.79323E-08,NaN,-0.3256234,-1.355158E-07,NaN,0.5229858,-6.314226E-09,NaN,-2.039707,1.116054E-05,-0.3405977,-1.611027E-08,NaN,NaN,-0.02318125,5.587837E-11,-6.169333E-07,-1.135913E-07,-2.800268E-08,-2.622604E-08
351.2235,-1.470006,-1.793134E-08,NaN,-0.3256346,-1.355157E-07,NaN,0.5220912,-5.99891E-09,NaN,-2.042066,1.116112E-05,-0.3408775,-1.642357E-08,NaN,NaN,-0.02311855,5.587837E-11,-5.984559E-07,-1.135893E-07,-3.038687E-08,-2.622604E-08
351.2381,-1.470006,-1.793134E-08,NaN,-0.3256346,-1.355157E-07,NaN,0.5220912,-5.99891E-09,NaN,-2.042066,1.116112E-05,-0.3408775,-1.642357E-08,NaN,NaN,-0.02311855,5.587837E-11,-5.984559E-07,-1.135893E-07,-3.038687E-08,-2.622604E-08
351.2518,-1.471212,-1.793038E-08,NaN,-0.3256464,-1.355155E-07,NaN,0.5212172,-5.688238E-09,NaN,-2.044385,1.11617E-05,-0.3411593,-1.673221E-08,NaN,NaN,-0.02305709,5.587837E-11,-5.811705E-07,-1.135873E-07,-3.277106E-08,-2.622604E-08
351.2673,-1.471452,-1.792943E-08,NaN,-0.3256565,-1.355154E-07,NaN,0.5202072,-5.382124E-09,NaN,-2.047013,1.116228E-05,-0.341458,-1.70363E-08,NaN,NaN,-0.02299671,5.587837E-11,-5.609049E-07,-1.135853E-07,-3.277106E-08,-2.622604E-08
351.2815,-1.471083,-1.792847E-08,NaN,-0.325666,-1.355152E-07,NaN,0.5191751,-5.080477E-09,NaN,-2.049681,1.116287E-05,-0.3417835,-1.733592E-08,NaN,NaN,-0.02293756,5.587837E-11,-5.418315E-07,-1.135833E-07,-3.038687E-08,-2.622604E-08
351.2981,-1.471083,-1.792847E-08,NaN,-0.325666,-1.355152E-07,NaN,0.5191751,-5.080477E-09,NaN,-2.049681,1.116287E-05,-0.3417835,-1.733592E-08,NaN,NaN,-0.02293756,5.587837E-11,-5.418315E-07,-1.135833E-07,-3.038687E-08,-2.622604E-08
351.3118,-1.470333,-1.792751E-08,NaN,-0.3256756,-1.35515E-07,NaN,0.5181713,-4.9287E-09,NaN,-2.052293,1.116345E-05,-0.3421087,-1.748568E-08,NaN,NaN,-0.02287959,5.122176E-11,-5.22758E-07,-1.135813E-07,-3.038687E-08,-2.622604E-08
351.3259,-1.469346,-1.792655E-08,NaN,-0.3256853,-1.355149E-07,NaN,0.517208,-4.778372E-09,NaN,-2.054821,1.116404E-05,-0.342423,-1.763398E-08,NaN,NaN,-0.02282277,5.122176E-11,-5.054727E-07,-1.135793E-07,-3.515524E-08,-2.622604E-08
351.3393,-1.469346,-1.792655E-08,NaN,-0.3256853,-1.355149E-07,NaN,0.517208,-4.778372E-09,NaN,-2.054821,1.116404E-05,-0.342423,-1.763398E-08,NaN,NaN,-0.02282277,5.122176E-11,-5.054727E-07,-1.135793E-07,-3.515524E-08,-2.622604E-08
351.3531,-1.467486,-1.79256E-08,NaN,-0.3256927,-1.355147E-07,NaN,0.5161132,-4.630877E-09,NaN,-2.057642,1.116462E-05,-0.3427468,-1.777944E-08,NaN,NaN,-0.02276691,5.122176E-11,-4.858031E-07,-1.135774E-07,-3.753943E-08,-2.622604E-08
351.3684,-1.465085,-1.792464E-08,NaN,-0.3256989,-1.355146E-07,NaN,0.5149947,-4.484749E-09,NaN,-2.060499,1.11652E-05,-0.3430975,-1.792355E-08,NaN,NaN,-0.02271219,5.122176E-11,-4.655375E-07,-1.135754E-07,-3.753943E-08,-2.622604E-08
351.3827,-1.462354,-1.792368E-08,NaN,-0.3257044,-1.355144E-07,NaN,0.5139036,-4.339957E-09,NaN,-2.063297,1.116578E-05,-0.3434487,-1.806631E-08,NaN,NaN,-0.02265857,5.122176E-11,-4.482522E-07,-1.135734E-07,-3.515524E-08,-2.622604E-08
351.3985,-1.462354,-1.792368E-08,NaN,-0.3257044,-1.355144E-07,NaN,0.5139036,-4.339957E-09,NaN,-2.063297,1.116578E-05,-0.3434487,-1.806631E-08,NaN,NaN,-0.02265857,5.122176E-11,-4.482522E-07,-1.135734E-07,-3.515524E-08,-2.622604E-08
351.4112,-1.458698,-1.792272E-08,NaN,-0.3257071,-1.355143E-07,NaN,0.512683,-4.196477E-09,NaN,-2.066386,1.116636E-05,-0.3438088,-1.820776E-08,NaN,NaN,-0.02260584,5.122176E-11,-4.250064E-07,-1.135715E-07,-3.038687E-08,-2.622604E-08
351.4262,-1.454475,-1.792177E-08,NaN,-0.3257085,-1.355141E-07,NaN,0.5114439,-4.054284E-09,NaN,-2.069499,1.116695E-05,-0.3441953,-1.834793E-08,NaN,NaN,-0.0225542,4.656514E-11,-4.053369E-07,-1.135695E-07,-2.56185E-08,-2.622604E-08
351.4406,-1.449913,-1.792081E-08,NaN,-0.3257094,-1.355139E-07,NaN,0.5102383,-3.913351E-09,NaN,-2.072538,1.116753E-05,-0.344581,-1.848683E-08,NaN,NaN,-0.02250359,4.656514E-11,-3.838792E-07,-1.135676E-07,-2.56185E-08,-2.622604E-08
351.4551,-1.449913,-1.792081E-08,NaN,-0.3257094,-1.355139E-07,NaN,0.5102383,-3.913351E-09,NaN,-2.072538,1.116753E-05,-0.344581,-1.848683E-08,NaN,NaN,-0.02250359,4.656514E-11,-3.838792E-07,-1.135676E-07,-2.56185E-08,-2.622604E-08
351.469,-1.445158,-1.791985E-08,NaN,-0.3257102,-1.355138E-07,NaN,0.5090793,-3.773656E-09,NaN,-2.075476,1.116811E-05,-0.3449541,-1.86245E-08,NaN,NaN,-0.02245398,4.656514E-11,-3.630176E-07,-1.135656E-07,-3.277106E-08,-2.622604E-08
351.4841,-1.439572,-1.791889E-08,NaN,-0.3257095,-1.355136E-07,NaN,0.5077946,-3.635172E-09,NaN,-2.078693,1.11687E-05,-0.3453285,-1.876095E-08,NaN,NaN,-0.02240517,4.656514E-11,-3.397718E-07,-1.135637E-07,-2.800269E-08,-2.622604E-08
351.4987,-1.439572,-1.791889E-08,NaN,-0.3257095,-1.355136E-07,NaN,0.5077946,-3.635172E-09,NaN,-2.078693,1.11687E-05,-0.3453285,-1.876095E-08,NaN,NaN,-0.02240517,4.656514E-11,-3.397718E-07,-1.135637E-07,-2.800269E-08,-2.622604E-08
351.5126,-1.433487,-1.791794E-08,NaN,-0.3257078,-1.355135E-07,NaN,0.5064888,-3.499289E-09,NaN,-2.081931,1.116928E-05,-0.3457295,-1.889481E-08,NaN,NaN,-0.02235736,4.656514E-11,-3.17122E-07,-1.135618E-07,-3.277106E-08,-2.622604E-08
351.5276,-1.427114,-1.791698E-08,NaN,-0.3257053,-1.355133E-07,NaN,0.5052148,-3.364544E-09,NaN,-2.085094,1.116986E-05,-0.3461308,-1.902752E-08,NaN,NaN,-0.02231051,4.656514E-11,-2.980485E-07,-1.135599E-07,-3.277106E-08,-2.622604E-08
351.5421,-1.420586,-1.791602E-08,NaN,-0.3257023,-1.355132E-07,NaN,0.5039864,-3.230914E-09,NaN,-2.088156,1.117044E-05,-0.3465201,-1.915913E-08,NaN,NaN,-0.02226458,4.656514E-11,-2.771869E-07,-1.13558E-07,-3.277106E-08,-2.622604E-08
351.5565,-1.420586,-1.791602E-08,NaN,-0.3257023,-1.355132E-07,NaN,0.5039864,-3.230914E-09,NaN,-2.088156,1.117044E-05,-0.3465201,-1.915913E-08,NaN,NaN,-0.02226458,4.656514E-11,-2.771869E-07,-1.13558E-07,-3.277106E-08,-2.622604E-08
351.5703,-1.413259,-1.791506E-08,NaN,-0.3256966,-1.35513E-07,NaN,0.5026326,-3.098376E-09,NaN,-2.091494,1.117103E-05,-0.3469062,-1.928963E-08,NaN,NaN,-0.02221936,4.656514E-11,-2.503648E-07,-1.135561E-07,-3.277106E-08,-2.622604E-08
351.5854,-1.405462,-1.791411E-08,NaN,-0.325689,-1.355128E-07,NaN,0.5012566,-2.966911E-09,NaN,-2.09485,1.117161E-05,-0.3473201,-1.941907E-08,NaN,NaN,-0.02217508,4.656514E-11,-2.27119E-07,-1.135542E-07,-3.277106E-08,-2.622604E-08
351.5999,-1.405462,-1.791411E-08,NaN,-0.325689,-1.355128E-07,NaN,0.5012566,-2.966911E-09,NaN,-2.09485,1.117161E-05,-0.3473201,-1.941907E-08,NaN,NaN,-0.02217508,4.656514E-11,-2.27119E-07,-1.135542E-07,-3.277106E-08,-2.622604E-08
351.6135,-1.3974,-1.791315E-08,NaN,-0.3256798,-1.355127E-07,NaN,0.4999125,-2.836496E-09,NaN,-2.098127,1.117219E-05,-0.347735,-1.954746E-08,NaN,NaN,-0.02213168,4.656514E-11,-2.056613E-07,-1.135523E-07,-3.515525E-08,-2.622604E-08
351.629,-1.388478,-1.791219E-08,NaN,-0.3256672,-1.355125E-07,NaN,0.4984456,-2.707111E-09,NaN,-2.101678,1.117277E-05,-0.3481462,-1.967481E-08,NaN,NaN,-0.02208893,4.656514E-11,-1.800313E-07,-1.135504E-07,-3.515525E-08,-2.622604E-08
351.6435,-1.379052,-1.791123E-08,NaN,-0.325652,-1.355124E-07,NaN,0.4969617,-2.578736E-09,NaN,-2.105234,1.117335E-05,-0.3485848,-1.980116E-08,NaN,NaN,-0.02204707,4.656514E-11,-1.544013E-07,-1.135486E-07,-3.277106E-08,-2.622604E-08
351.6574,-1.379052,-1.791123E-08,NaN,-0.325652,-1.355124E-07,NaN,0.4969617,-2.578736E-09,NaN,-2.105234,1.117335E-05,-0.3485848,-1.980116E-08,NaN,NaN,-0.02204707,4.656514E-11,-1.544013E-07,-1.135486E-07,-3.277106E-08,-2.622604E-08
351.6734,-1.369348,-1.791028E-08,NaN,-0.3256347,-1.355122E-07,NaN,0.495516,-2.452766E-09,NaN,-2.108696,1.117394E-05,-0.3490233,-1.99251E-08,NaN,NaN,-0.02200606,4.656514E-11,-1.293674E-07,-1.135467E-07,-3.038687E-08,-2.622604E-08
351.6873,-1.359511,-1.790932E-08,NaN,-0.3256162,-1.355121E-07,NaN,0.4941234,-2.327737E-09,NaN,-2.112038,1.117452E-05,-0.349448,-2.00481E-08,NaN,NaN,-0.02196585,4.656514E-11,-1.043334E-07,-1.135449E-07,-2.56185E-08,-2.622604E-08
351.702,-1.348902,-1.790836E-08,NaN,-0.3255944,-1.355119E-07,NaN,0.4926128,-2.203632E-09,NaN,-2.115641,1.11751E-05,-0.3498589,-2.017017E-08,NaN,NaN,-0.0219262,4.656514E-11,-7.691528E-08,-1.13543E-07,-2.56185E-08,-2.622604E-08
351.7154,-1.348902,-1.790836E-08,NaN,-0.3255944,-1.355119E-07,NaN,0.4926128,-2.203632E-09,NaN,-2.115641,1.11751E-05,-0.3498589,-2.017017E-08,NaN,NaN,-0.0219262,4.656514E-11,-7.691528E-08,-1.13543E-07,-2.56185E-08,-2.622604E-08
351.7292,-1.337852,-1.79074E-08,NaN,-0.3255699,-1.355118E-07,NaN,0.4910822,-2.080433E-09,NaN,-2.119247,1.117568E-05,-0.3502972,-2.029134E-08,NaN,NaN,-0.02188738,4.656514E-11,-5.00932E-08,-1.135412E-07,-2.56185E-08,-2.622604E-08
351.7444,-1.326571,-1.790645E-08,NaN,-0.3255435,-1.355116E-07,NaN,0.4895869,-1.958123E-09,NaN,-2.12276,1.117626E-05,-0.3507371,-2.041162E-08,NaN,NaN,-0.02184934,4.656514E-11,-2.386715E-08,-1.135393E-07,-2.323432E-08,-2.622604E-08
351.7586,-1.326571,-1.790645E-08,NaN,-0.3255435,-1.355116E-07,NaN,0.4895869,-1.958123E-09,NaN,-2.12276,1.117626E-05,-0.3507371,-2.041162E-08,NaN,NaN,-0.02184934,4.656514E-11,-2.386715E-08,-1.135393E-07,-2.323432E-08,-2.622604E-08
351.7727,-1.314465,-1.790549E-08,NaN,-0.3255134,-1.355114E-07,NaN,0.487974,-1.838096E-09,NaN,-2.126535,1.117685E-05,-0.3511638,-2.052962E-08,NaN,NaN,-0.0218118,4.656514E-11,5.339123E-09,-1.135375E-07,-2.085013E-08,-2.622604E-08
351.7877,-1.301889,-1.790453E-08,NaN,-0.32548,-1.355113E-07,NaN,0.4863446,-1.718896E-09,NaN,-2.130302,1.117743E-05,-0.3516185,-2.064679E-08,NaN,NaN,-0.02177505,4.656514E-11,3.573749E-08,-1.135357E-07,-2.085013E-08,-2.622604E-08
351.8021,-1.289071,-1.790357E-08,NaN,-0.3254441,-1.355111E-07,NaN,0.4847558,-1.600505E-09,NaN,-2.133964,1.117801E-05,-0.3520741,-2.076315E-08,NaN,NaN,-0.02173905,4.656514E-11,6.553982E-08,-1.135339E-07,-1.846595E-08,-2.622604E-08
351.8166,-1.289071,-1.790357E-08,NaN,-0.3254441,-1.355111E-07,NaN,0.4847558,-1.600505E-09,NaN,-2.133964,1.117801E-05,-0.3520741,-2.076315E-08,NaN,NaN,-0.02173905,4.656514E-11,6.553982E-08,-1.135339E-07,-1.846595E-08,-2.622604E-08
351.8306,-1.276154,-1.790262E-08,NaN,-0.3254067,-1.35511E-07,NaN,0.4832238,-1.482909E-09,NaN,-2.137495,1.117859E-05,-0.3525157,-2.087872E-08,NaN,NaN,-0.02170377,4.656514E-11,9.176586E-08,-1.13532E-07,-2.085013E-08,-2.622604E-08
351.8459,-1.2625,-1.790166E-08,NaN,-0.325366,-1.355108E-07,NaN,0.4815791,-1.366091E-09,NaN,-2.141277,1.117917E-05,-0.3529333,-2.099351E-08,NaN,NaN,-0.0216689,4.656514E-11,1.233563E-07,-1.135302E-07,-1.369757E-08,-2.622604E-08
351.8616,-1.248441,-1.79007E-08,NaN,-0.3253223,-1.355102E-07,NaN,0.4799142,-1.369744E-09,NaN,-2.145052,1.117975E-05,-0.3533788,-2.098782E-08,NaN,NaN,-0.02163475,5.587837E-11,1.531586E-07,-1.135294E-07,-1.608176E-08,-2.622604E-08
351.8748,-1.248441,-1.79007E-08,NaN,-0.3253223,-1.355102E-07,NaN,0.4799142,-1.369744E-09,NaN,-2.145052,1.117975E-05,-0.3533788,-2.098782E-08,NaN,NaN,-0.02163475,5.587837E-11,1.531586E-07,-1.135294E-07,-1.608176E-08,-2.622604E-08
351.8885,-1.234185,-1.789974E-08,NaN,-0.3252763,-1.355097E-07,NaN,0.478286,-1.357724E-09,NaN,-2.148723,1.118032E-05,-0.3538273,-2.09978E-08,NaN,NaN,-0.02160131,6.51916E-11,1.811728E-07,-1.135286E-07,-1.608176E-08,-2.622604E-08
351.9039,-1.219866,-1.789879E-08,NaN,-0.325229,-1.355092E-07,NaN,0.4767126,-1.337373E-09,NaN,-2.152264,1.11809E-05,-0.3542633,-2.101612E-08,NaN,NaN,-0.02156854,6.51916E-11,2.08591E-07,-1.135279E-07,-1.369757E-08,-2.622604E-08
351.9182,-1.219866,-1.789879E-08,NaN,-0.325229,-1.355092E-07,NaN,0.4767126,-1.337373E-09,NaN,-2.152264,1.11809E-05,-0.3542633,-2.101612E-08,NaN,NaN,-0.02156854,6.51916E-11,2.08591E-07,-1.135279E-07,-1.369757E-08,-2.622604E-08
351.9323,-1.204838,-1.789783E-08,NaN,-0.3251787,-1.355088E-07,NaN,0.4750265,-1.311666E-09,NaN,-2.156059,1.118148E-05,-0.3546708,-2.103979E-08,NaN,NaN,-0.02153611,6.51916E-11,2.389893E-07,-1.135271E-07,-1.369757E-08,-2.622604E-08
351.9474,-1.189427,-1.789687E-08,NaN,-0.3251255,-1.355083E-07,NaN,0.4733175,-1.28353E-09,NaN,-2.159846,1.118206E-05,-0.3551074,-2.106589E-08,NaN,NaN,-0.02150435,7.450482E-11,2.717719E-07,-1.135264E-07,-1.608176E-08,-2.622604E-08
351.9618,-1.17384,-1.789591E-08,NaN,-0.3250701,-1.355079E-07,NaN,0.4716441,-1.253008E-09,NaN,-2.163528,1.118263E-05,-0.3555487,-2.109438E-08,NaN,NaN,-0.02147326,8.381804E-11,3.003821E-07,-1.135257E-07,-1.369757E-08,-2.622604E-08
351.9762,-1.17384,-1.789591E-08,NaN,-0.3250701,-1.355079E-07,NaN,0.4716441,-1.253008E-09,NaN,-2.163528,1.118263E-05,-0.3555487,-2.109438E-08,NaN,NaN,-0.02147326,8.381804E-11,3.003821E-07,-1.135257E-07,-1.369757E-08,-2.622604E-08
351.9901,-1.15748,-1.789496E-08,NaN,-0.325011,-1.355075E-07,NaN,0.4698586,-1.221561E-09,NaN,-2.167462,1.11832E-05,-0.3559631,-2.112379E-08,NaN,NaN,-0.02144246,9.313127E-11,3.379331E-07,-1.13525E-07,-1.608176E-08,-2.622604E-08
352.0053,-1.140701,-1.7894E-08,NaN,-0.3249484,-1.355071E-07,NaN,0.4680544,-1.190616E-09,NaN,-2.171376,1.118379E-05,-0.3564072,-2.11527E-08,NaN,NaN,-0.02141232,9.313127E-11,3.707156E-07,-1.135244E-07,-6.545015E-09,-2.622604E-08
352.0196,-1.140701,-1.7894E-08,NaN,-0.3249484,-1.355071E-07,NaN,0.4680544,-1.190616E-09,NaN,-2.171376,1.118379E-05,-0.3564072,-2.11527E-08,NaN,NaN,-0.02141232,9.313127E-11,3.707156E-07,-1.135244E-07,-6.545015E-09,-2.622604E-08
352.0356,-1.123729,-1.789304E-08,NaN,-0.324883,-1.355067E-07,NaN,0.4662911,-1.158751E-09,NaN,-2.175173,1.118437E-05,-0.3568559,-2.118252E-08,NaN,NaN,-0.02138281,9.313127E-11,4.01114E-07,-1.135237E-07,-1.776644E-09,-2.622604E-08
352.0497,-1.106708,-1.789209E-08,NaN,-0.3248159,-1.355062E-07,NaN,0.4645882,-1.303927E-09,NaN,-2.178826,1.118495E-05,-0.3572921,-2.103531E-08,NaN,NaN,-0.02135389,9.778788E-11,4.303203E-07,-1.135247E-07,2.991728E-09,-2.622604E-08
352.0643,-1.088997,-1.789113E-08,NaN,-0.3247458,-1.355061E-07,NaN,0.4627804,-1.367261E-09,NaN,-2.18272,1.118555E-05,-0.357689,-2.096995E-08,NaN,NaN,-0.02132519,9.313127E-11,4.648909E-07,-1.13526E-07,1.014429E-08,-2.622604E-08
352.0778,-1.088997,-1.789113E-08,NaN,-0.3247458,-1.355061E-07,NaN,0.4627804,-1.367261E-09,NaN,-2.18272,1.118555E-05,-0.357689,-2.096995E-08,NaN,NaN,-0.02132519,9.313127E-11,4.648909E-07,-1.13526E-07,1.014429E-08,-2.622604E-08
352.0914,-1.070929,-1.789017E-08,NaN,-0.3246725,-1.355062E-07,NaN,0.4609411,-1.388391E-09,NaN,-2.18635,1.118614E-05,-0.358135,-2.094679E-08,NaN,NaN,-0.02129682,9.313127E-11,5.030379E-07,-1.135275E-07,1.491266E-08,-2.622604E-08
352.1066,-1.05271,-1.788922E-08,NaN,-0.3245969,-1.355065E-07,NaN,0.4590918,-1.385038E-09,NaN,-2.188438,1.118674E-05,-0.3586946,-2.094812E-08,NaN,NaN,-0.02126769,9.313127E-11,5.662189E-07,-1.13529E-07,1.729684E-08,-2.622604E-08
352.1209,-1.034472,-1.788826E-08,NaN,-0.3245201,-1.355069E-07,NaN,0.4572886,-1.368954E-09,NaN,-2.188969,1.118734E-05,-0.3592912,-2.096218E-08,NaN,NaN,-0.02123882,9.778788E-11,6.31784E-07,-1.135307E-07,1.252847E-08,-2.622604E-08
352.1357,-1.034472,-1.788826E-08,NaN,-0.3245201,-1.355069E-07,NaN,0.4572886,-1.368954E-09,NaN,-2.188969,1.118734E-05,-0.3592912,-2.096218E-08,NaN,NaN,-0.02123882,9.778788E-11,6.31784E-07,-1.135307E-07,1.252847E-08,-2.622604E-08
352.1495,-1.015572,-1.78873E-08,NaN,-0.3244405,-1.355073E-07,NaN,0.4553934,-1.344606E-09,NaN,-2.18891,1.118795E-05,-0.3598376,-2.098451E-08,NaN,NaN,-0.02121043,9.778788E-11,7.033096E-07,-1.135323E-07,1.014429E-08,-2.622604E-08
352.1647,-0.9963339,-1.788635E-08,NaN,-0.324358,-1.355077E-07,NaN,0.4534888,-1.317798E-09,NaN,-2.188489,1.118855E-05,-0.3603947,-2.100931E-08,NaN,NaN,-0.02118299,1.024445E-10,7.652984E-07,-1.13534E-07,7.7601E-09,-2.622604E-08
352.1793,-0.9963339,-1.788635E-08,NaN,-0.324358,-1.355077E-07,NaN,0.4534888,-1.317798E-09,NaN,-2.188489,1.118855E-05,-0.3603947,-2.100931E-08,NaN,NaN,-0.02118299,1.024445E-10,7.652984E-07,-1.13534E-07,7.7601E-09,-2.622604E-08
352.1931,-0.9769637,-1.788539E-08,NaN,-0.3242735,-1.355082E-07,NaN,0.4516344,-1.289983E-09,NaN,-2.187976,1.118915E-05,-0.3609403,-2.103511E-08,NaN,NaN,-0.02115648,1.071011E-10,8.177505E-07,-1.135357E-07,1.252847E-08,-2.622604E-08
352.2085,-0.9568636,-1.788443E-08,NaN,-0.3241854,-1.355087E-07,NaN,0.4496855,-1.261179E-09,NaN,-2.187937,1.118976E-05,-0.3614397,-2.106191E-08,NaN,NaN,-0.02113043,1.071011E-10,8.719907E-07,-1.135373E-07,1.729684E-08,-2.622604E-08
352.2228,-0.9363887,-1.788347E-08,NaN,-0.3240937,-1.355092E-07,NaN,0.4477226,-1.232812E-09,NaN,-2.188023,1.119036E-05,-0.361977,-2.108827E-08,NaN,NaN,-0.02110494,1.117577E-10,9.226547E-07,-1.13539E-07,1.252847E-08,-2.622604E-08
352.2376,-0.9363887,-1.788347E-08,NaN,-0.3240937,-1.355092E-07,NaN,0.4477226,-1.232812E-09,NaN,-2.188023,1.119036E-05,-0.361977,-2.108827E-08,NaN,NaN,-0.02110494,1.117577E-10,9.226547E-07,-1.13539E-07,1.252847E-08,-2.622604E-08
352.2515,-0.9157636,-1.788252E-08,NaN,-0.3239992,-1.355097E-07,NaN,0.4458083,-1.206285E-09,NaN,-2.188051,1.119097E-05,-0.3625316,-2.111279E-08,NaN,NaN,-0.02108001,1.117577E-10,9.709345E-07,-1.135407E-07,1.014429E-08,-2.622604E-08
352.2668,-0.8951303,-1.788156E-08,NaN,-0.3239032,-1.355101E-07,NaN,0.4439667,-1.180149E-09,NaN,-2.187979,1.119158E-05,-0.3630812,-2.113692E-08,NaN,NaN,-0.02105562,1.164143E-10,1.015042E-06,-1.135424E-07,5.375914E-09,-2.622604E-08
352.2812,-0.8738503,-1.78806E-08,NaN,-0.3238044,-1.355106E-07,NaN,0.4420358,-1.15581E-09,NaN,-2.188222,1.119219E-05,-0.3635934,-2.115926E-08,NaN,NaN,-0.02103143,1.21071E-10,1.06511E-06,-1.13544E-07,2.991728E-09,-2.622604E-08
352.2962,-0.8738503,-1.78806E-08,NaN,-0.3238044,-1.355106E-07,NaN,0.4420358,-1.15581E-09,NaN,-2.188222,1.119219E-05,-0.3635934,-2.115926E-08,NaN,NaN,-0.02103143,1.21071E-10,1.06511E-06,-1.13544E-07,2.991728E-09,-2.622604E-08
352.3098,-0.8522528,-1.787964E-08,NaN,-0.3237027,-1.355111E-07,NaN,0.4400917,-1.131817E-09,NaN,-2.188415,1.119279E-05,-0.3641461,-2.118125E-08,NaN,NaN,-0.0210077,1.257276E-10,1.115178E-06,-1.135457E-07,2.991728E-09,-2.622604E-08
352.3264,-0.830546,-1.787869E-08,NaN,-0.3235987,-1.355116E-07,NaN,0.4381957,-1.109576E-09,NaN,-2.188432,1.11934E-05,-0.3647147,-2.120148E-08,NaN,NaN,-0.02098448,1.303842E-10,1.162265E-06,-1.135473E-07,1.014429E-08,-2.622604E-08
352.3394,-0.830546,-1.787869E-08,NaN,-0.3235987,-1.355116E-07,NaN,0.4381957,-1.109576E-09,NaN,-2.188432,1.11934E-05,-0.3647147,-2.120148E-08,NaN,NaN,-0.02098448,1.303842E-10,1.162265E-06,-1.135473E-07,1.014429E-08,-2.622604E-08
352.3555,-0.8081334,-1.787773E-08,NaN,-0.3234914,-1.355121E-07,NaN,0.4362065,-1.089053E-09,NaN,-2.188685,1.1194E-05,-0.3652547,-2.122E-08,NaN,NaN,-0.02096145,1.350408E-10,1.211737E-06,-1.13549E-07,5.375914E-09,-2.622604E-08
352.3696,-0.7853707,-1.787677E-08,NaN,-0.3233804,-1.355126E-07,NaN,0.4342087,-1.071627E-09,NaN,-2.188839,1.119461E-05,-0.3658353,-2.123543E-08,NaN,NaN,-0.02093889,1.396974E-10,1.263593E-06,-1.135506E-07,5.375914E-09,-2.622604E-08
352.3842,-0.7624831,-1.787581E-08,NaN,-0.3232666,-1.35513E-07,NaN,0.4322655,-1.054412E-09,NaN,-2.188802,1.119522E-05,-0.3664285,-2.125064E-08,NaN,NaN,-0.02091685,1.396974E-10,1.310085E-06,-1.135523E-07,7.7601E-09,-2.622604E-08
352.3979,-0.7624831,-1.787581E-08,NaN,-0.3232666,-1.35513E-07,NaN,0.4322655,-1.054412E-09,NaN,-2.188802,1.119522E-05,-0.3664285,-2.125064E-08,NaN,NaN,-0.02091685,1.396974E-10,1.310085E-06,-1.135523E-07,7.7601E-09,-2.622604E-08
352.4118,-0.7396127,-1.787485E-08,NaN,-0.3231514,-1.355135E-07,NaN,0.4304004,-1.038815E-09,NaN,-2.18862,1.119583E-05,-0.3670097,-2.126424E-08,NaN,NaN,-0.02089538,1.396974E-10,1.356577E-06,-1.135539E-07,2.991729E-09,-2.622604E-08
352.4271,-0.716121,-1.787389E-08,NaN,-0.3230338,-1.35514E-07,NaN,0.4284498,-1.024807E-09,NaN,-2.188774,1.119643E-05,-0.3675502,-2.127624E-08,NaN,NaN,-0.02087411,1.44354E-10,1.406048E-06,-1.135555E-07,2.991729E-09,-2.622604E-08
352.4416,-0.692337,-1.787293E-08,NaN,-0.3229133,-1.355145E-07,NaN,0.4264897,-1.012357E-09,NaN,-2.188916,1.119704E-05,-0.3681275,-2.12867E-08,NaN,NaN,-0.02085327,1.44354E-10,1.451944E-06,-1.135571E-07,6.075429E-10,-2.622604E-08
352.4561,-0.692337,-1.787293E-08,NaN,-0.3229133,-1.355145E-07,NaN,0.4264897,-1.012357E-09,NaN,-2.188916,1.119704E-05,-0.3681275,-2.12867E-08,NaN,NaN,-0.02085327,1.44354E-10,1.451944E-06,-1.135571E-07,6.075429E-10,-2.622604E-08
352.47,-0.6684687,-1.787197E-08,NaN,-0.3227908,-1.35515E-07,NaN,0.4245803,-1.001434E-09,NaN,-2.188916,1.119765E-05,-0.3687186,-2.129562E-08,NaN,NaN,-0.02083289,1.490106E-10,1.500224E-06,-1.135587E-07,6.075429E-10,-2.622604E-08
352.4854,-0.6446472,-1.787101E-08,NaN,-0.3226675,-1.355155E-07,NaN,0.4227454,-9.905924E-10,NaN,-2.188782,1.119826E-05,-0.3693005,-2.130447E-08,NaN,NaN,-0.02081303,1.490106E-10,1.543735E-06,-1.135603E-07,-6.545014E-09,-2.622604E-08
352.5002,-0.6203992,-1.787006E-08,NaN,-0.322543,-1.355159E-07,NaN,0.4208614,-9.812451E-10,NaN,-2.18888,1.119887E-05,-0.3698496,-2.131182E-08,NaN,NaN,-0.02079339,1.536672E-10,1.586352E-06,-1.135619E-07,-1.131339E-08,-2.622604E-08
352.5149,-0.6203992,-1.787006E-08,NaN,-0.322543,-1.355159E-07,NaN,0.4208614,-9.812451E-10,NaN,-2.18888,1.119887E-05,-0.3698496,-2.131182E-08,NaN,NaN,-0.02079339,1.536672E-10,1.586352E-06,-1.135619E-07,-1.131339E-08,-2.622604E-08
352.5288,-0.5959845,-1.78691E-08,NaN,-0.3224171,-1.355164E-07,NaN,0.4189864,-9.733626E-10,NaN,-2.188954,1.119948E-05,-0.3704224,-2.13177E-08,NaN,NaN,-0.02077417,1.583238E-10,1.627182E-06,-1.135635E-07,-8.9292E-09,-2.622604E-08
352.544,-0.5715672,-1.786814E-08,NaN,-0.3222905,-1.355169E-07,NaN,0.4171654,-9.669165E-10,NaN,-2.188914,1.120009E-05,-0.3710009,-2.132215E-08,NaN,NaN,-0.0207554,1.629804E-10,1.667713E-06,-1.135651E-07,-8.9292E-09,-2.622604E-08
352.5588,-0.5715672,-1.786814E-08,NaN,-0.3222905,-1.355169E-07,NaN,0.4171654,-9.669165E-10,NaN,-2.188914,1.120009E-05,-0.3710009,-2.132215E-08,NaN,NaN,-0.0207554,1.629804E-10,1.667713E-06,-1.135651E-07,-8.9292E-09,-2.622604E-08
352.5728,-0.5472504,-1.786718E-08,NaN,-0.3221644,-1.355173E-07,NaN,0.4154154,-9.604643E-10,NaN,-2.188776,1.120071E-05,-0.371568,-2.132661E-08,NaN,NaN,-0.02073709,1.629804E-10,1.704072E-06,-1.135667E-07,-8.9292E-09,-2.622604E-08
352.5881,-0.5230986,-1.786622E-08,NaN,-0.3220399,-1.355178E-07,NaN,0.4137377,-9.554274E-10,NaN,-2.188591,1.120132E-05,-0.3721158,-2.132965E-08,NaN,NaN,-0.02071927,1.629804E-10,1.737748E-06,-1.135683E-07,-1.369757E-08,-2.622604E-08
352.6027,-0.4991517,-1.786525E-08,NaN,-0.3219179,-1.355183E-07,NaN,0.412128,-9.517684E-10,NaN,-2.18841,1.120193E-05,-0.3726431,-2.133131E-08,NaN,NaN,-0.0207019,1.67637E-10,1.769935E-06,-1.135699E-07,-1.369757E-08,-2.622604E-08
352.6176,-0.4991517,-1.786525E-08,NaN,-0.3219179,-1.355183E-07,NaN,0.412128,-9.517684E-10,NaN,-2.18841,1.120193E-05,-0.3726431,-2.133131E-08,NaN,NaN,-0.0207019,1.67637E-10,1.769935E-06,-1.135699E-07,-1.369757E-08,-2.622604E-08
352.6313,-0.475434,-1.786429E-08,NaN,-0.3217992,-1.355187E-07,NaN,0.4105806,-9.494617E-10,NaN,-2.188257,1.120254E-05,-0.3731517,-2.133162E-08,NaN,NaN,-0.02068496,1.722937E-10,1.801525E-06,-1.135714E-07,-1.608176E-08,-2.622604E-08
352.6488,-0.4519598,-1.786333E-08,NaN,-0.3216844,-1.355192E-07,NaN,0.4090903,-9.470698E-10,NaN,-2.188138,1.120315E-05,-0.3736441,-2.133201E-08,NaN,NaN,-0.02066844,1.769503E-10,1.829838E-06,-1.13573E-07,-1.369757E-08,-2.622604E-08
352.6624,-0.4287371,-1.786237E-08,NaN,-0.3215739,-1.355197E-07,NaN,0.4076533,-9.460045E-10,NaN,-2.188044,1.120376E-05,-0.3741227,-2.133108E-08,NaN,NaN,-0.0206523,1.816069E-10,1.854872E-06,-1.135746E-07,-1.608176E-08,-2.622604E-08
352.6761,-0.4287371,-1.786237E-08,NaN,-0.3215739,-1.355197E-07,NaN,0.4076533,-9.460045E-10,NaN,-2.188044,1.120376E-05,-0.3741227,-2.133108E-08,NaN,NaN,-0.0206523,1.816069E-10,1.854872E-06,-1.135746E-07,-1.608176E-08,-2.622604E-08
352.6898,-0.40577,-1.786141E-08,NaN,-0.3214678,-1.355202E-07,NaN,0.4062666,-9.462426E-10,NaN,-2.187964,1.120437E-05,-0.3745886,-2.132884E-08,NaN,NaN,-0.02063652,1.862635E-10,1.880204E-06,-1.135761E-07,-1.131339E-08,-2.622604E-08
352.7053,-0.3830599,-1.786045E-08,NaN,-0.3213665,-1.355206E-07,NaN,0.4049279,-9.477581E-10,NaN,-2.187888,1.120499E-05,-0.3750427,-2.132533E-08,NaN,NaN,-0.02062109,1.862635E-10,1.903449E-06,-1.135777E-07,-1.131339E-08,-2.622604E-08
352.72,-0.3606065,-1.785949E-08,NaN,-0.3212698,-1.355211E-07,NaN,0.4036356,-9.491116E-10,NaN,-2.187811,1.12056E-05,-0.3754852,-2.132198E-08,NaN,NaN,-0.02060602,1.909201E-10,1.922821E-06,-1.135792E-07,-1.369757E-08,-2.622604E-08
352.7346,-0.3606065,-1.785949E-08,NaN,-0.3212698,-1.355211E-07,NaN,0.4036356,-9.491116E-10,NaN,-2.187811,1.12056E-05,-0.3754852,-2.132198E-08,NaN,NaN,-0.02060602,1.909201E-10,1.922821E-06,-1.135792E-07,-1.369757E-08,-2.622604E-08
352.7487,-0.3384088,-1.785853E-08,NaN,-0.3211779,-1.355215E-07,NaN,0.4023881,-9.517189E-10,NaN,-2.187731,1.120621E-05,-0.3759161,-2.131738E-08,NaN,NaN,-0.0205913,1.909201E-10,1.941298E-06,-1.135807E-07,-1.369757E-08,-2.622604E-08
352.764,-0.3164649,-1.785756E-08,NaN,-0.3210907,-1.35522E-07,NaN,0.4011842,-9.555581E-10,NaN,-2.187649,1.120683E-05,-0.3763356,-2.131155E-08,NaN,NaN,-0.02057692,1.909201E-10,1.960223E-06,-1.135823E-07,-1.608176E-08,-2.622604E-08
352.7789,-0.3164649,-1.785756E-08,NaN,-0.3210907,-1.35522E-07,NaN,0.4011842,-9.555581E-10,NaN,-2.187649,1.120683E-05,-0.3763356,-2.131155E-08,NaN,NaN,-0.02057692,1.909201E-10,1.960223E-06,-1.135823E-07,-1.608176E-08,-2.622604E-08
352.7945,-0.3011464,-1.78566E-08,NaN,-0.3210286,-1.355224E-07,NaN,0.4014836,-9.606018E-10,NaN,-2.184093,1.120744E-05,-0.3768457,-2.130451E-08,NaN,NaN,-0.02056608,1.909201E-10,1.920586E-06,-1.135838E-07,-1.846594E-08,-2.622604E-08
352.8085,-0.2900598,-1.785564E-08,NaN,-0.3210005,-1.355229E-07,NaN,0.4025501,-9.654142E-10,NaN,-2.180781,1.120806E-05,-0.3768055,-2.12977E-08,NaN,NaN,-0.02055665,1.909201E-10,1.856809E-06,-1.135853E-07,-2.323431E-08,-2.622604E-08
352.8228,-0.2816827,-1.785468E-08,NaN,-0.3210013,-1.355234E-07,NaN,0.403771,-9.714128E-10,NaN,-2.178718,1.120867E-05,-0.3764956,-2.12897E-08,NaN,NaN,-0.0205473,1.909201E-10,1.792585E-06,-1.135868E-07,-2.56185E-08,-2.622604E-08
352.8376,-0.2816827,-1.785468E-08,NaN,-0.3210013,-1.355234E-07,NaN,0.403771,-9.714128E-10,NaN,-2.178718,1.120867E-05,-0.3764956,-2.12897E-08,NaN,NaN,-0.0205473,1.909201E-10,1.792585E-06,-1.135868E-07,-2.56185E-08,-2.622604E-08
352.8515,-0.275046,-1.785371E-08,NaN,-0.32102,-1.355238E-07,NaN,0.404883,-9.785734E-10,NaN,-2.177495,1.120928E-05,-0.3761624,-2.128054E-08,NaN,NaN,-0.02053736,1.955767E-10,1.741325E-06,-1.135883E-07,-3.038687E-08,-2.622604E-08
352.8671,-0.2695323,-1.785275E-08,NaN,-0.3210517,-1.355243E-07,NaN,0.4058439,-9.86876E-10,NaN,-2.176831,1.120989E-05,-0.3758709,-2.127024E-08,NaN,NaN,-0.02052728,2.002333E-10,1.697068E-06,-1.135898E-07,-3.277106E-08,-2.622604E-08
352.8817,-0.2647485,-1.785179E-08,NaN,-0.3210921,-1.355247E-07,NaN,0.4066754,-9.948842E-10,NaN,-2.176532,1.121051E-05,-0.3756274,-2.126024E-08,NaN,NaN,-0.02051722,2.002333E-10,1.657133E-06,-1.135913E-07,-2.800269E-08,-2.622604E-08
352.8963,-0.2647485,-1.785179E-08,NaN,-0.3210921,-1.355247E-07,NaN,0.4066754,-9.948842E-10,NaN,-2.176532,1.121051E-05,-0.3756274,-2.126024E-08,NaN,NaN,-0.02051722,2.002333E-10,1.657133E-06,-1.135913E-07,-2.800269E-08,-2.622604E-08
352.9103,-0.260444,-1.785082E-08,NaN,-0.3211383,-1.355252E-07,NaN,0.4074099,-1.004016E-09,NaN,-2.176468,1.121112E-05,-0.3754232,-2.124911E-08,NaN,NaN,-0.02050728,2.002333E-10,1.621668E-06,-1.135928E-07,-2.085013E-08,-2.622604E-08
352.9266,-0.2564592,-1.784986E-08,NaN,-0.3211881,-1.355256E-07,NaN,0.4080756,-1.01425E-09,NaN,-2.176553,1.121174E-05,-0.3752474,-2.123688E-08,NaN,NaN,-0.02049749,2.002333E-10,1.587098E-06,-1.135943E-07,-2.323432E-08,-2.622604E-08
352.9402,-0.2527302,-1.78489E-08,NaN,-0.3338446,-1.355261E-07,NaN,0.4077525,-1.024153E-09,NaN,-2.179842,1.121235E-05,-0.3789278,-2.122498E-08,NaN,NaN,-0.02049667,2.002333E-10,1.434212E-06,-1.135958E-07,-2.323432E-08,-2.622604E-08
352.9547,-0.2527302,-1.78489E-08,NaN,-0.3338446,-1.355261E-07,NaN,0.4077525,-1.024153E-09,NaN,-2.179842,1.121235E-05,-0.3789278,-2.122498E-08,NaN,NaN,-0.02049667,2.002333E-10,1.434212E-06,-1.135958E-07,-2.323432E-08,-2.622604E-08
352.9693,-0.2492619,-1.784793E-08,NaN,-0.3541196,-1.355265E-07,NaN,0.4081296,-1.035141E-09,NaN,-2.183956,1.121297E-05,-0.3823497,-2.1212E-08,NaN,NaN,-0.02049451,1.955767E-10,1.314257E-06,-1.135973E-07,-2.085013E-08,-2.622604E-08
352.984,-0.2460122,-1.784697E-08,NaN,-0.3789541,-1.355269E-07,NaN,0.4088979,-1.047195E-09,NaN,-2.187328,1.121359E-05,-0.3852204,-2.119795E-08,NaN,NaN,-0.02048981,1.955767E-10,1.232897E-06,-1.135988E-07,-1.608176E-08,-2.622604E-08
352.9987,-0.2460122,-1.784697E-08,NaN,-0.3789541,-1.355269E-07,NaN,0.4088979,-1.047195E-09,NaN,-2.187328,1.121359E-05,-0.3852204,-2.119795E-08,NaN,NaN,-0.02048981,1.955767E-10,1.232897E-06,-1.135988E-07,-1.608176E-08,-2.622604E-08
353.0128,-0.2429283,-1.784601E-08,NaN,-0.4057119,-1.355274E-07,NaN,0.4098223,-1.060293E-09,NaN,-2.18867,1.12142E-05,-0.3875087,-2.118286E-08,NaN,NaN,-0.02048237,1.955767E-10,1.19624E-06,-1.136002E-07,-1.608176E-08,-2.622604E-08
353.0283,-0.2399643,-1.784504E-08,NaN,-0.4335292,-1.355278E-07,NaN,0.4107254,-1.073003E-09,NaN,-2.18844,1.121482E-05,-0.3895289,-2.116816E-08,NaN,NaN,-0.02047455,1.955767E-10,1.170983E-06,-1.136017E-07,-1.608176E-08,-2.622604E-08
353.043,-0.2370876,-1.784408E-08,NaN,-0.4618713,-1.355283E-07,NaN,0.411606,-1.086744E-09,NaN,-2.187477,1.121543E-05,-0.3913361,-2.115242E-08,NaN,NaN,-0.02046721,1.909201E-10,1.14051E-06,-1.136032E-07,-2.323432E-08,-2.622604E-08
353.0576,-0.2370876,-1.784408E-08,NaN,-0.4618713,-1.355283E-07,NaN,0.411606,-1.086744E-09,NaN,-2.187477,1.121543E-05,-0.3913361,-2.115242E-08,NaN,NaN,-0.02046721,1.909201E-10,1.14051E-06,-1.136032E-07,-2.323432E-08,-2.622604E-08
353.0716,-0.2342765,-1.784311E-08,NaN,-0.490407,-1.355287E-07,NaN,0.4124658,-1.101496E-09,NaN,-2.186467,1.121605E-05,-0.392964,-2.113567E-08,NaN,NaN,-0.0204605,1.909201E-10,1.097148E-06,-1.136046E-07,-2.56185E-08,-2.622604E-08
353.0871,-0.2315132,-1.784215E-08,NaN,-0.5181696,-1.355291E-07,NaN,0.413357,-1.115827E-09,NaN,-2.185578,1.121666E-05,-0.3942145,-2.111935E-08,NaN,NaN,-0.02045368,1.909201E-10,1.059299E-06,-1.136061E-07,-3.038688E-08,-2.622604E-08
353.1017,-0.2287861,-1.784118E-08,NaN,-0.5453323,-1.355296E-07,NaN,0.4141623,-1.131157E-09,NaN,-2.18508,1.121727E-05,-0.3953858,-2.110202E-08,NaN,NaN,-0.0204473,1.955767E-10,1.015638E-06,-1.136075E-07,-2.68106E-08,-2.622604E-08
353.1164,-0.2287861,-1.784118E-08,NaN,-0.5453323,-1.355296E-07,NaN,0.4141623,-1.131157E-09,NaN,-2.18508,1.121727E-05,-0.3953858,-2.110202E-08,NaN,NaN,-0.0204473,1.955767E-10,1.015638E-06,-1.136075E-07,-2.68106E-08,-2.622604E-08
353.1305,-0.2260895,-1.784022E-08,NaN,-0.5720028,-1.3553E-07,NaN,0.4148943,-1.147468E-09,NaN,-2.184946,1.121789E-05,-0.3965355,-2.108372E-08,NaN,NaN,-0.02044117,1.955767E-10,9.678055E-07,-1.136089E-07,-1.965804E-08,-2.622604E-08
353.1462,-0.2234209,-1.783925E-08,NaN,-0.5982487,-1.355305E-07,NaN,0.4155755,-1.163327E-09,NaN,-2.185023,1.12185E-05,-0.3976725,-2.106586E-08,NaN,NaN,-0.02043512,1.955767E-10,9.210158E-07,-1.136104E-07,-1.608176E-08,-2.622604E-08
353.1607,-0.2207746,-1.783829E-08,NaN,-0.6233512,-1.355309E-07,NaN,0.4162848,-1.180156E-09,NaN,-2.184966,1.121912E-05,-0.3985519,-2.104704E-08,NaN,NaN,-0.02042852,1.955767E-10,8.84657E-07,-1.136118E-07,-1.608176E-08,-2.622604E-08
353.1752,-0.2207746,-1.783829E-08,NaN,-0.6233512,-1.355309E-07,NaN,0.4162848,-1.180156E-09,NaN,-2.184966,1.121912E-05,-0.3985519,-2.104704E-08,NaN,NaN,-0.02042852,1.955767E-10,8.84657E-07,-1.136118E-07,-1.608176E-08,-2.622604E-08
353.1911,-0.2181478,-1.783732E-08,NaN,-0.6476383,-1.355313E-07,NaN,0.4169298,-1.197936E-09,NaN,-2.18489,1.121973E-05,-0.3994173,-2.102726E-08,NaN,NaN,-0.02042212,1.955767E-10,8.497883E-07,-1.136132E-07,-1.369757E-08,-2.622604E-08
353.2055,-0.2155405,-1.783635E-08,NaN,-0.671314,-1.355318E-07,NaN,0.4175338,-1.216648E-09,NaN,-2.184842,1.122035E-05,-0.4002864,-2.100656E-08,NaN,NaN,-0.02041595,1.955767E-10,8.146216E-07,-1.136147E-07,-1.608176E-08,-2.622604E-08
353.2191,-0.2155405,-1.783635E-08,NaN,-0.671314,-1.355318E-07,NaN,0.4175338,-1.216648E-09,NaN,-2.184842,1.122035E-05,-0.4002864,-2.100656E-08,NaN,NaN,-0.02041595,1.955767E-10,8.146216E-07,-1.136147E-07,-1.608176E-08,-2.622604E-08
353.2333,-0.2129488,-1.783539E-08,NaN,-0.693744,-1.355322E-07,NaN,0.4181789,-1.234861E-09,NaN,-2.184631,1.122096E-05,-0.4009058,-2.098635E-08,NaN,NaN,-0.02040939,1.955767E-10,7.883955E-07,-1.136161E-07,-1.488967E-08,-2.622604E-08
353.2486,-0.2103712,-1.783442E-08,NaN,-0.7153091,-1.355326E-07,NaN,0.4187695,-1.253998E-09,NaN,-2.184454,1.122158E-05,-0.4015169,-2.096522E-08,NaN,NaN,-0.02040314,1.955767E-10,7.565071E-07,-1.136175E-07,-1.369757E-08,-2.622604E-08
353.2653,-0.2078092,-1.783345E-08,NaN,-0.7362458,-1.35533E-07,NaN,0.419325,-1.274042E-09,NaN,-2.184373,1.122219E-05,-0.4021393,-2.094318E-08,NaN,NaN,-0.02039715,1.955767E-10,7.228305E-07,-1.136189E-07,-1.608176E-08,-2.622604E-08
353.2779,-0.2078092,-1.783345E-08,NaN,-0.7362458,-1.35533E-07,NaN,0.419325,-1.274042E-09,NaN,-2.184373,1.122219E-05,-0.4021393,-2.094318E-08,NaN,NaN,-0.02039715,1.955767E-10,7.228305E-07,-1.136189E-07,-1.608176E-08,-2.622604E-08
353.2916,-0.2052646,-1.783249E-08,NaN,-0.7567013,-1.355335E-07,NaN,0.4198639,-1.294975E-09,NaN,-2.184369,1.122281E-05,-0.4027623,-2.092025E-08,NaN,NaN,-0.02039132,1.955767E-10,6.885578E-07,-1.136203E-07,-1.488967E-08,-2.622604E-08
353.3072,-0.2027337,-1.783152E-08,NaN,-0.7760063,-1.355339E-07,NaN,0.4204552,-1.316779E-09,NaN,-2.184207,1.122343E-05,-0.4031357,-2.089646E-08,NaN,NaN,-0.02038504,1.909201E-10,6.629278E-07,-1.136217E-07,-1.488967E-08,-2.622604E-08
353.3218,-0.2002149,-1.783055E-08,NaN,-0.7945205,-1.355343E-07,NaN,0.420997,-1.339435E-09,NaN,-2.184063,1.122404E-05,-0.4035044,-2.087181E-08,NaN,NaN,-0.02037902,1.909201E-10,6.369997E-07,-1.136231E-07,-1.488967E-08,-2.622604E-08
353.3367,-0.2002149,-1.783055E-08,NaN,-0.7945205,-1.355343E-07,NaN,0.420997,-1.339435E-09,NaN,-2.184063,1.122404E-05,-0.4035044,-2.087181E-08,NaN,NaN,-0.02037902,1.909201E-10,6.369997E-07,-1.136231E-07,-1.488967E-08,-2.622604E-08
353.3505,-0.1977098,-1.782959E-08,NaN,-0.8124666,-1.355347E-07,NaN,0.4215061,-1.361517E-09,NaN,-2.183995,1.122466E-05,-0.4038893,-2.084773E-08,NaN,NaN,-0.02037326,1.909201E-10,6.083895E-07,-1.136245E-07,-1.131339E-08,-2.622604E-08
353.3661,-0.1952205,-1.782862E-08,NaN,-0.8299834,-1.355352E-07,NaN,0.4220008,-1.384445E-09,NaN,-2.183993,1.122527E-05,-0.4042798,-2.082281E-08,NaN,NaN,-0.02036765,1.955767E-10,5.809714E-07,-1.136258E-07,-7.73711E-09,-2.622604E-08
353.3806,-0.1927429,-1.782765E-08,NaN,-0.8463956,-1.355356E-07,NaN,0.4225489,-1.408205E-09,NaN,-2.183827,1.122588E-05,-0.4044265,-2.079706E-08,NaN,NaN,-0.02036157,1.955767E-10,5.583216E-07,-1.136272E-07,-5.352924E-09,-2.622604E-08
353.3953,-0.1927429,-1.782765E-08,NaN,-0.8463956,-1.355356E-07,NaN,0.4225489,-1.408205E-09,NaN,-2.183827,1.122588E-05,-0.4044265,-2.079706E-08,NaN,NaN,-0.02036157,1.955767E-10,5.583216E-07,-1.136272E-07,-5.352924E-09,-2.622604E-08
353.4093,-0.1902749,-1.782668E-08,NaN,-0.8620598,-1.35536E-07,NaN,0.4230479,-1.431365E-09,NaN,-2.183679,1.12265E-05,-0.4045746,-2.07719E-08,NaN,NaN,-0.02035578,1.955767E-10,5.338837E-07,-1.136286E-07,-5.352924E-09,-2.622604E-08
353.4244,-0.1878183,-1.782571E-08,NaN,-0.8771965,-1.355364E-07,NaN,0.4235148,-1.455355E-09,NaN,-2.183613,1.122711E-05,-0.4047451,-2.074592E-08,NaN,NaN,-0.02035025,1.955767E-10,5.082537E-07,-1.1363E-07,-5.352924E-09,-2.622604E-08
353.4392,-0.1878183,-1.782571E-08,NaN,-0.8771965,-1.355364E-07,NaN,0.4235148,-1.455355E-09,NaN,-2.183613,1.122711E-05,-0.4047451,-2.074592E-08,NaN,NaN,-0.02035025,1.955767E-10,5.082537E-07,-1.1363E-07,-5.352924E-09,-2.622604E-08
353.4535,-0.1853688,-1.782475E-08,NaN,-0.8911806,-1.355369E-07,NaN,0.4240262,-1.47875E-09,NaN,-2.183422,1.122773E-05,-0.404689,-2.072053E-08,NaN,NaN,-0.02034431,1.909201E-10,4.903723E-07,-1.136313E-07,-2.968738E-09,-2.622604E-08
353.4696,-0.1829249,-1.782378E-08,NaN,-0.9043998,-1.355373E-07,NaN,0.4244846,-1.502969E-09,NaN,-2.183284,1.122835E-05,-0.404648,-2.069432E-08,NaN,NaN,-0.02033867,1.909201E-10,4.707028E-07,-1.136327E-07,-4.160831E-09,-2.622604E-08
353.484,-0.180489,-1.782281E-08,NaN,-0.9170934,-1.355377E-07,NaN,0.4249102,-1.527995E-09,NaN,-2.183244,1.122896E-05,-0.4046409,-2.06673E-08,NaN,NaN,-0.02033328,1.909201E-10,4.498412E-07,-1.13634E-07,-5.94897E-09,-2.622604E-08
353.4977,-0.180489,-1.782281E-08,NaN,-0.9170934,-1.355377E-07,NaN,0.4249102,-1.527995E-09,NaN,-2.183244,1.122896E-05,-0.4046409,-2.06673E-08,NaN,NaN,-0.02033328,1.909201E-10,4.498412E-07,-1.13634E-07,-5.94897E-09,-2.622604E-08
353.5118,-0.1780646,-1.782184E-08,NaN,-0.9294093,-1.355381E-07,NaN,0.4253229,-1.552399E-09,NaN,-2.183274,1.122958E-05,-0.4046547,-2.064091E-08,NaN,NaN,-0.02032804,1.909201E-10,4.283835E-07,-1.136354E-07,-4.756878E-09,-2.622604E-08
353.5272,-0.1756475,-1.782087E-08,NaN,-0.9406776,-1.355385E-07,NaN,0.4257899,-1.577608E-09,NaN,-2.183133,1.123019E-05,-0.4044398,-2.061371E-08,NaN,NaN,-0.02032232,1.955767E-10,4.140784E-07,-1.136367E-07,-4.756878E-09,-2.622604E-08
353.542,-0.1732353,-1.781991E-08,NaN,-0.9512589,-1.355389E-07,NaN,0.4262086,-1.603604E-09,NaN,-2.183004,1.12308E-05,-0.4042395,-2.058572E-08,NaN,NaN,-0.02031688,1.955767E-10,3.979851E-07,-1.136381E-07,-2.968738E-09,-2.622604E-08
353.5562,-0.1732353,-1.781991E-08,NaN,-0.9512589,-1.355389E-07,NaN,0.4262086,-1.603604E-09,NaN,-2.183004,1.12308E-05,-0.4042395,-2.058572E-08,NaN,NaN,-0.02031688,1.955767E-10,3.979851E-07,-1.136381E-07,-2.968738E-09,-2.622604E-08
353.5703,-0.1708307,-1.781894E-08,NaN,-0.961375,-1.355393E-07,NaN,0.4265969,-1.62896E-09,NaN,-2.18295,1.123142E-05,-0.4040736,-2.055838E-08,NaN,NaN,-0.02031169,1.955767E-10,3.795077E-07,-1.136394E-07,6.075405E-10,-2.622604E-08
353.5856,-0.1684371,-1.781797E-08,NaN,-0.9711628,-1.355397E-07,NaN,0.4269737,-1.6551E-09,NaN,-2.182961,1.123203E-05,-0.4039302,-2.053025E-08,NaN,NaN,-0.02030665,1.955767E-10,3.592421E-07,-1.136407E-07,1.799633E-09,-2.622604E-08
353.6005,-0.1660501,-1.7817E-08,NaN,-0.9799453,-1.355401E-07,NaN,0.4274051,-1.682007E-09,NaN,-2.182806,1.123265E-05,-0.4035614,-2.050135E-08,NaN,NaN,-0.02030115,1.909201E-10,3.467251E-07,-1.136421E-07,2.39568E-09,-2.622604E-08
353.6151,-0.1660501,-1.7817E-08,NaN,-0.9799453,-1.355401E-07,NaN,0.4274051,-1.682007E-09,NaN,-2.182806,1.123265E-05,-0.4035614,-2.050135E-08,NaN,NaN,-0.02030115,1.909201E-10,3.467251E-07,-1.136421E-07,2.39568E-09,-2.622604E-08
353.6294,-0.163667,-1.781603E-08,NaN,-0.988079,-1.355406E-07,NaN,0.4277878,-1.708258E-09,NaN,-2.182672,1.123326E-05,-0.4032115,-2.047311E-08,NaN,NaN,-0.02029593,1.909201E-10,3.336121E-07,-1.136434E-07,2.39568E-09,-2.622604E-08
353.6447,-0.1612903,-1.781506E-08,NaN,-0.9957827,-1.35541E-07,NaN,0.4281399,-1.735274E-09,NaN,-2.182621,1.123388E-05,-0.4029007,-2.044411E-08,NaN,NaN,-0.02029096,1.909201E-10,3.181149E-07,-1.136447E-07,1.203587E-09,-2.622604E-08
353.6592,-0.1612903,-1.781506E-08,NaN,-0.9957827,-1.35541E-07,NaN,0.4281399,-1.735274E-09,NaN,-2.182621,1.123388E-05,-0.4029007,-2.044411E-08,NaN,NaN,-0.02029096,1.909201E-10,3.181149E-07,-1.136447E-07,1.203587E-09,-2.622604E-08
353.6733,-0.1589161,-1.781409E-08,NaN,-1.002429,-1.355414E-07,NaN,0.4285369,-1.763042E-09,NaN,-2.182443,1.123449E-05,-0.4023807,-2.041435E-08,NaN,NaN,-0.02028559,1.955767E-10,3.103663E-07,-1.13646E-07,1.203587E-09,-2.622604E-08
353.6886,-0.1565422,-1.781312E-08,NaN,-1.008407,-1.355418E-07,NaN,0.4288814,-1.790134E-09,NaN,-2.182319,1.12351E-05,-0.4018924,-2.038527E-08,NaN,NaN,-0.02028052,2.002333E-10,2.984454E-07,-1.136473E-07,1.799633E-09,-2.622604E-08
353.7032,-0.1541721,-1.781215E-08,NaN,-1.013952,-1.355422E-07,NaN,0.4291946,-1.817976E-09,NaN,-2.182293,1.123571E-05,-0.4014531,-2.035544E-08,NaN,NaN,-0.02027569,2.002333E-10,2.835442E-07,-1.136486E-07,1.799633E-09,-2.622604E-08
353.7178,-0.1541721,-1.781215E-08,NaN,-1.013952,-1.355422E-07,NaN,0.4291946,-1.817976E-09,NaN,-2.182293,1.123571E-05,-0.4014531,-2.035544E-08,NaN,NaN,-0.02027569,2.002333E-10,2.835442E-07,-1.136486E-07,1.799633E-09,-2.622604E-08
353.7352,-0.1518106,-1.781118E-08,NaN,-1.01921,-1.355426E-07,NaN,0.4294976,-1.846553E-09,NaN,-2.182337,1.123633E-05,-0.4010488,-2.032487E-08,NaN,NaN,-0.020271,2.002333E-10,2.710273E-07,-1.136499E-07,2.693703E-09,-2.622604E-08
353.7483,-0.1494541,-1.781021E-08,NaN,-1.02351,-1.35543E-07,NaN,0.4298564,-1.874439E-09,NaN,-2.182208,1.123694E-05,-0.4004308,-2.0295E-08,NaN,NaN,-0.02026583,2.002333E-10,2.644707E-07,-1.136512E-07,4.183819E-09,-2.622604E-08
353.7618,-0.1470999,-1.780923E-08,NaN,-1.027212,-1.355434E-07,NaN,0.4301678,-1.903058E-09,NaN,-2.18209,1.123756E-05,-0.3998418,-2.026439E-08,NaN,NaN,-0.02026094,2.002333E-10,2.5553E-07,-1.136525E-07,2.991726E-09,-2.622604E-08
353.7765,-0.1470999,-1.780923E-08,NaN,-1.027212,-1.355434E-07,NaN,0.4301678,-1.903058E-09,NaN,-2.18209,1.123756E-05,-0.3998418,-2.026439E-08,NaN,NaN,-0.02026094,2.002333E-10,2.5553E-07,-1.136525E-07,2.991726E-09,-2.622604E-08
353.7903,-0.1447511,-1.780826E-08,NaN,-1.030536,-1.355438E-07,NaN,0.4304503,-1.930986E-09,NaN,-2.182048,1.123818E-05,-0.3993007,-2.023447E-08,NaN,NaN,-0.02025629,1.955767E-10,2.459933E-07,-1.136538E-07,2.395679E-09,-2.622604E-08
353.8059,-0.1424126,-1.780729E-08,NaN,-1.033616,-1.355442E-07,NaN,0.4307238,-1.959645E-09,NaN,-2.182071,1.123879E-05,-0.3987946,-2.020383E-08,NaN,NaN,-0.02025178,1.955767E-10,2.340724E-07,-1.136551E-07,1.799633E-09,-2.622604E-08
353.8204,-0.1400804,-1.780632E-08,NaN,-1.035774,-1.355446E-07,NaN,0.4310536,-1.989026E-09,NaN,-2.181926,1.123941E-05,-0.3980765,-2.017246E-08,NaN,NaN,-0.02024682,1.955767E-10,2.275159E-07,-1.136563E-07,2.395679E-09,-2.622604E-08
353.8352,-0.1400804,-1.780632E-08,NaN,-1.035774,-1.355446E-07,NaN,0.4310536,-1.989026E-09,NaN,-2.181926,1.123941E-05,-0.3980765,-2.017246E-08,NaN,NaN,-0.02024682,1.955767E-10,2.275159E-07,-1.136563E-07,2.395679E-09,-2.622604E-08
353.8493,-0.1377514,-1.780535E-08,NaN,-1.037365,-1.35545E-07,NaN,0.4313343,-2.017699E-09,NaN,-2.181761,1.124002E-05,-0.3973939,-2.01418E-08,NaN,NaN,-0.02024207,1.955767E-10,2.239396E-07,-1.136576E-07,6.075399E-10,-2.622604E-08
353.8646,-0.1354289,-1.780438E-08,NaN,-1.038608,-1.355454E-07,NaN,0.431585,-2.04709E-09,NaN,-2.181613,1.124064E-05,-0.3967657,-2.011042E-08,NaN,NaN,-0.02023753,1.909201E-10,2.144028E-07,-1.136589E-07,6.075399E-10,-2.622604E-08
353.8794,-0.1354289,-1.780438E-08,NaN,-1.038608,-1.355454E-07,NaN,0.431585,-2.04709E-09,NaN,-2.181613,1.124064E-05,-0.3967657,-2.011042E-08,NaN,NaN,-0.02023753,1.909201E-10,2.144028E-07,-1.136589E-07,6.075399E-10,-2.622604E-08
353.8934,-0.1331094,-1.78034E-08,NaN,-1.038872,-1.355458E-07,NaN,0.4318827,-2.077187E-09,NaN,-2.181293,1.124126E-05,-0.395941,-2.007834E-08,NaN,NaN,-0.0202326,1.909201E-10,2.144028E-07,-1.136601E-07,-2.372692E-09,-2.622604E-08
353.9089,-0.1307905,-1.780243E-08,NaN,-1.038554,-1.355462E-07,NaN,0.4321269,-2.106561E-09,NaN,-2.180948,1.124187E-05,-0.3951672,-2.004697E-08,NaN,NaN,-0.0202279,1.909201E-10,2.096345E-07,-1.136614E-07,-2.865297E-10,-2.622604E-08
353.9234,-0.1284866,-1.780146E-08,NaN,-1.037879,-1.355466E-07,NaN,0.43235,-2.136641E-09,NaN,-2.180619,1.124249E-05,-0.39445,-2.001491E-08,NaN,NaN,-0.02022342,1.909201E-10,2.042701E-07,-1.136627E-07,-1.180599E-09,-2.622604E-08
353.9381,-0.1284866,-1.780146E-08,NaN,-1.037879,-1.355466E-07,NaN,0.43235,-2.136641E-09,NaN,-2.180619,1.124249E-05,-0.39445,-2.001491E-08,NaN,NaN,-0.02022342,1.909201E-10,2.042701E-07,-1.136627E-07,-1.180599E-09,-2.622604E-08
353.9521,-0.1262112,-1.780049E-08,NaN,-1.03699,-1.355469E-07,NaN,0.432577,-2.166001E-09,NaN,-2.180316,1.12431E-05,-0.3937722,-1.998356E-08,NaN,NaN,-0.02021908,1.909201E-10,1.983096E-07,-1.136639E-07,-1.478623E-09,-2.622604E-08
353.9675,-0.1239609,-1.779952E-08,NaN,-1.035215,-1.355473E-07,NaN,0.4328698,-2.196097E-09,NaN,-2.179838,1.124371E-05,-0.3928865,-1.995148E-08,NaN,NaN,-0.02021431,1.909201E-10,1.977136E-07,-1.136652E-07,-2.968739E-09,-2.622604E-08
353.9822,-0.1217551,-1.779855E-08,NaN,-1.032913,-1.355477E-07,NaN,0.4331356,-2.225473E-09,NaN,-2.179322,1.124432E-05,-0.3920376,-1.992011E-08,NaN,NaN,-0.02020974,1.909201E-10,1.977136E-07,-1.136664E-07,-3.564785E-09,-2.622604E-08
353.997,-0.1217551,-1.779855E-08,NaN,-1.032913,-1.355477E-07,NaN,0.4331356,-2.225473E-09,NaN,-2.179322,1.124432E-05,-0.3920376,-1.992011E-08,NaN,NaN,-0.02020974,1.909201E-10,1.977136E-07,-1.136664E-07,-3.564785E-09,-2.622604E-08
354.0131,-0.1195971,-1.779757E-08,NaN,-1.030303,-1.355481E-07,NaN,0.4333889,-1.930027E-09,NaN,-2.17882,1.124491E-05,-0.3912425,-2.015367E-08,NaN,NaN,-0.02020537,2.002333E-10,1.953294E-07,-1.136682E-07,-3.266762E-09,-2.622604E-08
354.0272,-0.1174841,-1.77966E-08,NaN,-1.027518,-1.355486E-07,NaN,0.433643,-1.634581E-09,NaN,-2.178344,1.12455E-05,-0.3904873,-2.034294E-08,NaN,NaN,-0.02020113,2.048899E-10,1.947333E-07,-1.136701E-07,-5.948971E-09,-2.622604E-08
354.0409,-0.1154032,-1.779563E-08,NaN,-1.023877,-1.355493E-07,NaN,0.433955,-1.339135E-09,NaN,-2.177698,1.124609E-05,-0.3895299,-2.049956E-08,NaN,NaN,-0.02019649,2.048899E-10,1.977136E-07,-1.13672E-07,-5.054901E-09,-2.622604E-08
354.0554,-0.1154032,-1.779563E-08,NaN,-1.023877,-1.355493E-07,NaN,0.433955,-1.339135E-09,NaN,-2.177698,1.124609E-05,-0.3895299,-2.049956E-08,NaN,NaN,-0.02019649,2.048899E-10,1.977136E-07,-1.13672E-07,-5.054901E-09,-2.622604E-08
354.0694,-0.113368,-1.779466E-08,NaN,-1.019735,-1.355499E-07,NaN,0.4342331,-1.043689E-09,NaN,-2.17702,1.124668E-05,-0.3886143,-2.06321E-08,NaN,NaN,-0.02019204,2.002333E-10,2.018859E-07,-1.13674E-07,-7.141064E-09,-2.622604E-08
354.0847,-0.1113788,-1.779369E-08,NaN,-1.015306,-1.355506E-07,NaN,0.4344932,-7.482434E-10,NaN,-2.17636,1.124726E-05,-0.3877569,-2.074683E-08,NaN,NaN,-0.02018779,2.048899E-10,2.03078E-07,-1.13676E-07,-8.035133E-09,-2.622604E-08
354.0996,-0.1113788,-1.779369E-08,NaN,-1.015306,-1.355506E-07,NaN,0.4344932,-7.482434E-10,NaN,-2.17636,1.124726E-05,-0.3877569,-2.074683E-08,NaN,NaN,-0.02018779,2.048899E-10,2.03078E-07,-1.13676E-07,-8.035133E-09,-2.622604E-08
354.1136,-0.1094231,-1.779272E-08,NaN,-1.009962,-1.355512E-07,NaN,0.4348019,-4.527975E-10,NaN,-2.175533,1.124784E-05,-0.3867151,-2.084837E-08,NaN,NaN,-0.02018318,2.002333E-10,2.102305E-07,-1.136779E-07,-8.929203E-09,-2.622604E-08
354.1292,-0.1075131,-1.779174E-08,NaN,-1.004086,-1.355519E-07,NaN,0.4350734,-1.573515E-10,NaN,-2.174684,1.124842E-05,-0.385726,-2.094011E-08,NaN,NaN,-0.02017879,1.955767E-10,2.132108E-07,-1.136799E-07,-7.439087E-09,-2.622604E-08
354.1439,-0.1056479,-1.779077E-08,NaN,-0.997913,-1.355525E-07,NaN,0.435326,1.380944E-10,NaN,-2.173862,1.1249E-05,-0.3848024,-2.102454E-08,NaN,NaN,-0.02017461,2.002333E-10,2.155949E-07,-1.136818E-07,-6.545017E-09,-2.622604E-08
354.1586,-0.1056479,-1.779077E-08,NaN,-0.997913,-1.355525E-07,NaN,0.435326,1.380944E-10,NaN,-2.173862,1.1249E-05,-0.3848024,-2.102454E-08,NaN,NaN,-0.02017461,2.002333E-10,2.155949E-07,-1.136818E-07,-6.545017E-09,-2.622604E-08
354.1725,-0.1038224,-1.77898E-08,NaN,-0.9915856,-1.355532E-07,NaN,0.4355747,4.335404E-10,NaN,-2.17308,1.124957E-05,-0.3839283,-2.11035E-08,NaN,NaN,-0.02017058,2.002333E-10,2.203633E-07,-1.136838E-07,-6.843041E-09,-2.622604E-08
354.188,-0.1020233,-1.778883E-08,NaN,-0.9844294,-1.355538E-07,NaN,0.4358752,7.289863E-10,NaN,-2.172138,1.125015E-05,-0.382866,-2.117832E-08,NaN,NaN,-0.02016616,2.002333E-10,2.269198E-07,-1.136857E-07,-8.929203E-09,-2.622604E-08
354.2041,-0.1002621,-1.778786E-08,NaN,-0.9768013,-1.355544E-07,NaN,0.4361387,1.024432E-09,NaN,-2.171175,1.125073E-05,-0.381854,-2.125E-08,NaN,NaN,-0.02016195,2.002333E-10,2.316882E-07,-1.136876E-07,-7.737111E-09,-2.622604E-08
354.2174,-0.1002621,-1.778786E-08,NaN,-0.9768013,-1.355544E-07,NaN,0.4361387,1.024432E-09,NaN,-2.171175,1.125073E-05,-0.381854,-2.125E-08,NaN,NaN,-0.02016195,2.002333E-10,2.316882E-07,-1.136876E-07,-7.737111E-09,-2.622604E-08
354.2315,-0.09853841,-1.778689E-08,NaN,-0.9689193,-1.35555E-07,NaN,0.4363817,1.319878E-09,NaN,-2.170239,1.125131E-05,-0.3809069,-2.131926E-08,NaN,NaN,-0.02015794,2.002333E-10,2.346684E-07,-1.136895E-07,-7.737111E-09,-2.622604E-08
354.2469,-0.09684838,-1.778591E-08,NaN,-0.9609161,-1.355557E-07,NaN,0.4366194,1.615324E-09,NaN,-2.169345,1.125188E-05,-0.3800099,-2.138664E-08,NaN,NaN,-0.02015409,2.002333E-10,2.370526E-07,-1.136914E-07,-7.737111E-09,-2.622604E-08
354.2614,-0.09517992,-1.778494E-08,NaN,-0.9521113,-1.355563E-07,NaN,0.4369059,1.91077E-09,NaN,-2.168293,1.125246E-05,-0.3789302,-2.145253E-08,NaN,NaN,-0.02014986,2.002333E-10,2.465893E-07,-1.136933E-07,-9.227227E-09,-2.622604E-08
354.2772,-0.09517992,-1.778494E-08,NaN,-0.9521113,-1.355563E-07,NaN,0.4369059,1.91077E-09,NaN,-2.168293,1.125246E-05,-0.3789302,-2.145253E-08,NaN,NaN,-0.02014986,2.002333E-10,2.465893E-07,-1.136933E-07,-9.227227E-09,-2.622604E-08
354.2909,-0.09354418,-1.778397E-08,NaN,-0.9428576,-1.355569E-07,NaN,0.4371541,2.206216E-09,NaN,-2.16722,1.125304E-05,-0.3779032,-2.151721E-08,NaN,NaN,-0.02014583,2.002333E-10,2.525498E-07,-1.136952E-07,-6.246995E-09,-2.622604E-08
354.3055,-0.09194131,-1.7783E-08,NaN,-0.9333702,-1.355575E-07,NaN,0.4373811,2.501662E-09,NaN,-2.166177,1.125362E-05,-0.3769428,-2.158091E-08,NaN,NaN,-0.02014201,2.002333E-10,2.567221E-07,-1.13697E-07,-6.545018E-09,-2.622604E-08
354.3202,-0.09036797,-1.778203E-08,NaN,-0.9237808,-1.355581E-07,NaN,0.4376023,2.797108E-09,NaN,-2.165179,1.125419E-05,-0.3760344,-2.164378E-08,NaN,NaN,-0.02013833,1.955767E-10,2.626826E-07,-1.136989E-07,-7.439088E-09,-2.622604E-08
354.3349,-0.09036797,-1.778203E-08,NaN,-0.9237808,-1.355581E-07,NaN,0.4376023,2.797108E-09,NaN,-2.165179,1.125419E-05,-0.3760344,-2.164378E-08,NaN,NaN,-0.02013833,1.955767E-10,2.626826E-07,-1.136989E-07,-7.439088E-09,-2.622604E-08
354.3489,-0.08881301,-1.778106E-08,NaN,-0.913408,-1.355588E-07,NaN,0.4378698,3.092554E-09,NaN,-2.164024,1.125476E-05,-0.3749494,-2.170593E-08,NaN,NaN,-0.02013429,2.002333E-10,2.704312E-07,-1.137008E-07,-5.948972E-09,-2.622604E-08
354.3643,-0.08728689,-1.778009E-08,NaN,-0.9026035,-1.355594E-07,NaN,0.4380985,3.387999E-09,NaN,-2.162852,1.125533E-05,-0.3739198,-2.176746E-08,NaN,NaN,-0.02013046,2.048899E-10,2.781798E-07,-1.137026E-07,-6.246995E-09,-2.622604E-08
354.379,-0.08728689,-1.778009E-08,NaN,-0.9026035,-1.355594E-07,NaN,0.4380985,3.387999E-09,NaN,-2.162852,1.125533E-05,-0.3739198,-2.176746E-08,NaN,NaN,-0.02013046,2.048899E-10,2.781798E-07,-1.137026E-07,-6.246995E-09,-2.622604E-08
354.3931,-0.08578993,-1.777912E-08,NaN,-0.8915821,-1.3556E-07,NaN,0.4383059,3.683445E-09,NaN,-2.161714,1.12559E-05,-0.3729583,-2.182842E-08,NaN,NaN,-0.02012684,2.002333E-10,2.853324E-07,-1.137045E-07,-5.948972E-09,-2.622604E-08
354.4087,-0.08431919,-1.777815E-08,NaN,-0.8804752,-1.355606E-07,NaN,0.4385072,3.978891E-09,NaN,-2.160622,1.125646E-05,-0.3720502,-2.188886E-08,NaN,NaN,-0.02012336,1.955767E-10,2.924849E-07,-1.137063E-07,-8.333158E-09,-2.622604E-08
354.4232,-0.08287132,-1.777718E-08,NaN,-0.8693634,-1.355612E-07,NaN,0.4387084,4.274337E-09,NaN,-2.159577,1.125703E-05,-0.3711838,-2.194882E-08,NaN,NaN,-0.02012,1.909201E-10,2.966572E-07,-1.137082E-07,-8.631181E-09,-2.622604E-08
354.4378,-0.08287132,-1.777718E-08,NaN,-0.8693634,-1.355612E-07,NaN,0.4387084,4.274337E-09,NaN,-2.159577,1.125703E-05,-0.3711838,-2.194882E-08,NaN,NaN,-0.02012,1.909201E-10,2.966572E-07,-1.137082E-07,-8.631181E-09,-2.622604E-08
354.452,-0.08144347,-1.777621E-08,NaN,-0.8582959,-1.355618E-07,NaN,0.4389107,4.569783E-09,NaN,-2.158573,1.12576E-05,-0.370352,-2.200833E-08,NaN,NaN,-0.02011673,1.862635E-10,3.008296E-07,-1.1371E-07,-9.227228E-09,-2.622604E-08
354.4675,-0.08003353,-1.777524E-08,NaN,-0.8473026,-1.355624E-07,NaN,0.4391136,4.865229E-09,NaN,-2.157605,1.125817E-05,-0.3695507,-2.20674E-08,NaN,NaN,-0.02011355,1.816069E-10,3.050019E-07,-1.137118E-07,-1.071734E-08,-2.622604E-08
354.4821,-0.07864659,-1.777427E-08,NaN,-0.8371634,-1.35563E-07,NaN,0.4392737,5.160675E-09,NaN,-2.156869,1.125873E-05,-0.3689859,-2.212605E-08,NaN,NaN,-0.02011092,1.769503E-10,3.014256E-07,-1.137136E-07,-1.220746E-08,-2.622604E-08
354.4972,-0.07864659,-1.777427E-08,NaN,-0.8371634,-1.35563E-07,NaN,0.4392737,5.160675E-09,NaN,-2.156869,1.125873E-05,-0.3689859,-2.212605E-08,NaN,NaN,-0.02011092,1.769503E-10,3.014256E-07,-1.137136E-07,-1.220746E-08,-2.622604E-08
354.511,-0.07727024,-1.77733E-08,NaN,-0.8275882,-1.355636E-07,NaN,0.4394729,5.456121E-09,NaN,-2.156218,1.12593E-05,-0.3684246,-2.21843E-08,NaN,NaN,-0.02010825,1.722937E-10,2.990415E-07,-1.137155E-07,-1.220746E-08,-2.622604E-08
354.5284,-0.07590125,-1.777233E-08,NaN,-0.8183983,-1.355642E-07,NaN,0.4396926,5.751567E-09,NaN,-2.155591,1.125986E-05,-0.3678502,-2.224215E-08,NaN,NaN,-0.02010556,1.676371E-10,2.984454E-07,-1.137173E-07,-1.220746E-08,-2.622604E-08
354.5417,-0.07453987,-1.777136E-08,NaN,-0.8094836,-1.355649E-07,NaN,0.4399166,6.047013E-09,NaN,-2.154972,1.126042E-05,-0.3672735,-2.229961E-08,NaN,NaN,-0.02010287,1.629804E-10,2.984454E-07,-1.137191E-07,-1.161141E-08,-2.622604E-08
354.5553,-0.07453987,-1.777136E-08,NaN,-0.8094836,-1.355649E-07,NaN,0.4399166,6.047013E-09,NaN,-2.154972,1.126042E-05,-0.3672735,-2.229961E-08,NaN,NaN,-0.02010287,1.629804E-10,2.984454E-07,-1.137191E-07,-1.161141E-08,-2.622604E-08
354.5695,-0.07319371,-1.777039E-08,NaN,-0.8015375,-1.355655E-07,NaN,0.4400964,6.342459E-09,NaN,-2.154554,1.126099E-05,-0.3669094,-2.235669E-08,NaN,NaN,-0.02010069,1.583238E-10,2.906968E-07,-1.137209E-07,-1.220746E-08,-2.622604E-08
354.5848,-0.0718539,-1.776942E-08,NaN,-0.7942169,-1.355661E-07,NaN,0.4403118,6.637904E-09,NaN,-2.154197,1.126155E-05,-0.3665344,-2.241339E-08,NaN,NaN,-0.02009845,1.536672E-10,2.871205E-07,-1.137227E-07,-9.823275E-09,-2.622604E-08
354.5996,-0.0718539,-1.776942E-08,NaN,-0.7942169,-1.355661E-07,NaN,0.4403118,6.637904E-09,NaN,-2.154197,1.126155E-05,-0.3665344,-2.241339E-08,NaN,NaN,-0.02009845,1.536672E-10,2.871205E-07,-1.137227E-07,-9.823275E-09,-2.622604E-08
354.6137,-0.07051904,-1.776846E-08,NaN,-0.7873105,-1.355667E-07,NaN,0.4405444,6.93335E-09,NaN,-2.153845,1.126212E-05,-0.3661361,-2.246972E-08,NaN,NaN,-0.02009616,1.490106E-10,2.835442E-07,-1.137244E-07,-8.035135E-09,-2.622604E-08
354.6293,-0.06919651,-1.776749E-08,NaN,-0.7814492,-1.355672E-07,NaN,0.4407376,7.228796E-09,NaN,-2.153684,1.126267E-05,-0.3659321,-2.252567E-08,NaN,NaN,-0.02009433,1.536672E-10,2.757956E-07,-1.137262E-07,-5.650949E-09,-2.622604E-08
354.6439,-0.06787869,-1.776652E-08,NaN,-0.7762519,-1.355678E-07,NaN,0.4409665,7.524243E-09,NaN,-2.153569,1.126323E-05,-0.3657057,-2.258126E-08,NaN,NaN,-0.02009242,1.490106E-10,2.698352E-07,-1.13728E-07,-3.86281E-09,-2.622604E-08
354.6584,-0.06787869,-1.776652E-08,NaN,-0.7762519,-1.355678E-07,NaN,0.4409665,7.524243E-09,NaN,-2.153569,1.126323E-05,-0.3657057,-2.258126E-08,NaN,NaN,-0.02009242,1.490106E-10,2.698352E-07,-1.13728E-07,-3.86281E-09,-2.622604E-08
354.6738,-0.06656482,-1.776555E-08,NaN,-0.7714832,-1.355684E-07,NaN,0.4412115,7.819689E-09,NaN,-2.153447,1.126379E-05,-0.3654478,-2.263649E-08,NaN,NaN,-0.02009044,1.536672E-10,2.632787E-07,-1.137298E-07,-1.478624E-09,-2.622604E-08
354.6879,-0.06525652,-1.776458E-08,NaN,-0.7669977,-1.35569E-07,NaN,0.4414573,8.115135E-09,NaN,-2.153305,1.126435E-05,-0.3651727,-2.269136E-08,NaN,NaN,-0.02008846,1.490106E-10,2.579142E-07,-1.137315E-07,1.501608E-09,-2.622604E-08
354.7027,-0.0639619,-1.776361E-08,NaN,-0.7634669,-1.355696E-07,NaN,0.4416572,8.410582E-09,NaN,-2.153345,1.126491E-05,-0.3650955,-2.274587E-08,NaN,NaN,-0.02008694,1.536672E-10,2.495696E-07,-1.137333E-07,-2.865316E-10,-2.622604E-08
354.7174,-0.0639619,-1.776361E-08,NaN,-0.7634669,-1.355696E-07,NaN,0.4416572,8.410582E-09,NaN,-2.153345,1.126491E-05,-0.3650955,-2.274587E-08,NaN,NaN,-0.02008694,1.536672E-10,2.495696E-07,-1.137333E-07,-2.865316E-10,-2.622604E-08
354.7314,-0.06267409,-1.776265E-08,NaN,-0.7605352,-1.355702E-07,NaN,0.4418909,8.706028E-09,NaN,-2.153425,1.126547E-05,-0.3649966,-2.280002E-08,NaN,NaN,-0.02008536,1.490106E-10,2.42417E-07,-1.137351E-07,-2.074671E-09,-2.622604E-08
354.7469,-0.06139209,-1.776168E-08,NaN,-0.757983,-1.355708E-07,NaN,0.4421407,9.001474E-09,NaN,-2.153497,1.126603E-05,-0.3648646,-2.285382E-08,NaN,NaN,-0.0200837,1.44354E-10,2.382447E-07,-1.137368E-07,-1.478624E-09,-2.622604E-08
354.7616,-0.06011707,-1.776071E-08,NaN,-0.7556742,-1.355714E-07,NaN,0.442392,9.296921E-09,NaN,-2.153545,1.12666E-05,-0.3647128,-2.290728E-08,NaN,NaN,-0.02008203,1.396974E-10,2.304961E-07,-1.137386E-07,-2.865316E-10,-2.622604E-08
354.7762,-0.06011707,-1.776071E-08,NaN,-0.7556742,-1.355714E-07,NaN,0.442392,9.296921E-09,NaN,-2.153545,1.12666E-05,-0.3647128,-2.290728E-08,NaN,NaN,-0.02008203,1.396974E-10,2.304961E-07,-1.137386E-07,-2.865316E-10,-2.622604E-08
354.7922,-0.0588566,-1.775974E-08,NaN,-0.7542863,-1.35572E-07,NaN,0.4425978,9.592367E-09,NaN,-2.153772,1.126715E-05,-0.3647555,-2.296038E-08,NaN,NaN,-0.02008082,1.44354E-10,2.191712E-07,-1.137403E-07,3.095149E-10,-2.622604E-08
354.8064,-0.05760398,-1.775877E-08,NaN,-0.753468,-1.355726E-07,NaN,0.4428379,9.887813E-09,NaN,-2.154037,1.12677E-05,-0.3647734,-2.301315E-08,NaN,NaN,-0.02007953,1.536672E-10,2.096345E-07,-1.13742E-07,9.055613E-10,-2.622604E-08
354.82,-0.05635798,-1.775781E-08,NaN,-0.7530019,-1.355732E-07,NaN,0.4430946,1.018326E-08,NaN,-2.154287,1.126826E-05,-0.3647548,-2.306556E-08,NaN,NaN,-0.02007816,1.536672E-10,2.027799E-07,-1.137438E-07,-8.82578E-10,-2.622604E-08
354.8347,-0.05635798,-1.775781E-08,NaN,-0.7530019,-1.355732E-07,NaN,0.4430946,1.018326E-08,NaN,-2.154287,1.126826E-05,-0.3647548,-2.306556E-08,NaN,NaN,-0.02007816,1.536672E-10,2.027799E-07,-1.137438E-07,-8.82578E-10,-2.622604E-08
354.8488,-0.05512521,-1.775684E-08,NaN,-0.7535098,-1.355738E-07,NaN,0.4433117,1.047871E-08,NaN,-2.154711,1.126884E-05,-0.364916,-2.311764E-08,NaN,NaN,-0.02007721,1.490106E-10,1.91157E-07,-1.137455E-07,-8.82578E-10,-2.622604E-08
354.8639,-0.05390495,-1.775587E-08,NaN,-0.7546164,-1.355744E-07,NaN,0.4435665,1.077415E-08,NaN,-2.155162,1.12694E-05,-0.3650445,-2.316938E-08,NaN,NaN,-0.02007616,1.536672E-10,1.78342E-07,-1.137472E-07,-2.865316E-10,-2.622604E-08
354.8786,-0.05390495,-1.775587E-08,NaN,-0.7546164,-1.355744E-07,NaN,0.4435665,1.077415E-08,NaN,-2.155162,1.12694E-05,-0.3650445,-2.316938E-08,NaN,NaN,-0.02007616,1.536672E-10,1.78342E-07,-1.137472E-07,-2.865316E-10,-2.622604E-08
354.8925,-0.05270007,-1.775491E-08,NaN,-0.7560846,-1.35575E-07,NaN,0.4438417,1.10696E-08,NaN,-2.155587,1.126997E-05,-0.3651289,-2.322079E-08,NaN,NaN,-0.02007503,1.490106E-10,1.696994E-07,-1.137489E-07,-2.865316E-10,-2.622604E-08
354.9079,-0.0515113,-1.775394E-08,NaN,-0.7577679,-1.355756E-07,NaN,0.444121,1.136504E-08,NaN,-2.155974,1.127054E-05,-0.3651837,-2.327186E-08,NaN,NaN,-0.02007386,1.490106E-10,1.610567E-07,-1.137506E-07,2.6937E-09,-2.622604E-08
354.9224,-0.05034425,-1.775298E-08,NaN,-0.7603371,-1.355761E-07,NaN,0.4443546,1.166049E-08,NaN,-2.156528,1.127111E-05,-0.365427,-2.332259E-08,NaN,NaN,-0.02007313,1.490106E-10,1.461555E-07,-1.137523E-07,2.097654E-09,-2.622604E-08
354.9372,-0.05034425,-1.775298E-08,NaN,-0.7603371,-1.355761E-07,NaN,0.4443546,1.166049E-08,NaN,-2.156528,1.127111E-05,-0.365427,-2.332259E-08,NaN,NaN,-0.02007313,1.490106E-10,1.461555E-07,-1.137523E-07,2.097654E-09,-2.622604E-08
354.9512,-0.04919836,-1.775201E-08,NaN,-0.7634377,-1.355767E-07,NaN,0.4446266,1.195594E-08,NaN,-2.157106,1.127168E-05,-0.3656379,-2.3373E-08,NaN,NaN,-0.02007231,1.490106E-10,1.342346E-07,-1.13754E-07,9.055612E-10,-2.622604E-08
354.9668,-0.04807185,-1.775104E-08,NaN,-0.7668502,-1.355773E-07,NaN,0.4449186,1.225138E-08,NaN,-2.157657,1.127225E-05,-0.3658043,-2.342309E-08,NaN,NaN,-0.0200714,1.490106E-10,1.214196E-07,-1.137557E-07,2.097654E-09,-2.622604E-08
354.9813,-0.04696283,-1.775008E-08,NaN,-0.7704388,-1.355779E-07,NaN,0.445214,1.254683E-08,NaN,-2.15817,1.127282E-05,-0.3659401,-2.347284E-08,NaN,NaN,-0.02007045,1.490106E-10,1.100947E-07,-1.137574E-07,2.097654E-09,-2.622604E-08
354.9961,-0.04696283,-1.775008E-08,NaN,-0.7704388,-1.355779E-07,NaN,0.445214,1.254683E-08,NaN,-2.15817,1.127282E-05,-0.3659401,-2.347284E-08,NaN,NaN,-0.02007045,1.490106E-10,1.100947E-07,-1.137574E-07,2.097654E-09,-2.622604E-08
355.01,-0.0458756,-1.774911E-08,NaN,-0.7748812,-1.355785E-07,NaN,0.4454621,1.284228E-08,NaN,-2.15885,1.127339E-05,-0.3662648,-2.352228E-08,NaN,NaN,-0.02006994,1.490106E-10,9.608764E-08,-1.137591E-07,-8.82578E-10,-2.622604E-08
355.0252,-0.04480843,-1.774814E-08,NaN,-0.7798274,-1.355791E-07,NaN,0.4457483,1.313772E-08,NaN,-2.159552,1.127395E-05,-0.3665559,-2.357139E-08,NaN,NaN,-0.02006933,1.490106E-10,8.476276E-08,-1.137608E-07,-2.074671E-09,-2.622604E-08
355.0402,-0.04375907,-1.774718E-08,NaN,-0.7850605,-1.355796E-07,NaN,0.4460544,1.343317E-08,NaN,-2.160227,1.127452E-05,-0.3668004,-2.362018E-08,NaN,NaN,-0.02006862,1.490106E-10,7.254381E-08,-1.137624E-07,-2.074671E-09,-2.622604E-08
355.0547,-0.04375907,-1.774718E-08,NaN,-0.7850605,-1.355796E-07,NaN,0.4460544,1.343317E-08,NaN,-2.160227,1.127452E-05,-0.3668004,-2.362018E-08,NaN,NaN,-0.02006862,1.490106E-10,7.254381E-08,-1.137624E-07,-2.074671E-09,-2.622604E-08
355.0709,-0.04273157,-1.774621E-08,NaN,-0.7912081,-1.355802E-07,NaN,0.4463193,1.372862E-08,NaN,-2.161063,1.127509E-05,-0.3672226,-2.366866E-08,NaN,NaN,-0.02006832,1.490106E-10,5.764264E-08,-1.137641E-07,-3.86281E-09,-2.622604E-08
355.0849,-0.04172353,-1.774525E-08,NaN,-0.7978895,-1.355808E-07,NaN,0.446624,1.402406E-08,NaN,-2.161915,1.127567E-05,-0.3676029,-2.371683E-08,NaN,NaN,-0.02006791,1.396974E-10,4.274148E-08,-1.137658E-07,-3.266764E-09,-2.622604E-08
355.0985,-0.04172353,-1.774525E-08,NaN,-0.7978895,-1.355808E-07,NaN,0.446624,1.402406E-08,NaN,-2.161915,1.127567E-05,-0.3676029,-2.371683E-08,NaN,NaN,-0.02006791,1.396974E-10,4.274148E-08,-1.137658E-07,-3.266764E-09,-2.622604E-08
355.1126,-0.04073238,-1.774428E-08,NaN,-0.8048686,-1.355814E-07,NaN,0.4469485,1.431951E-08,NaN,-2.16273,1.127624E-05,-0.3679306,-2.376468E-08,NaN,NaN,-0.02006739,1.396974E-10,3.082055E-08,-1.137674E-07,-4.458856E-09,-2.622604E-08
355.1279,-0.03975594,-1.774331E-08,NaN,-0.8119994,-1.35582E-07,NaN,0.4472756,1.461495E-08,NaN,-2.163498,1.12768E-05,-0.3682209,-2.381222E-08,NaN,NaN,-0.02006681,1.396974E-10,2.247591E-08,-1.137691E-07,-4.458856E-09,-2.622604E-08
355.1439,-0.03879888,-1.774235E-08,NaN,-0.8199533,-1.355826E-07,NaN,0.4475524,1.49104E-08,NaN,-2.164424,1.127737E-05,-0.3686995,-2.385945E-08,NaN,NaN,-0.02006667,1.396974E-10,6.680676E-09,-1.137707E-07,-1.478624E-09,-2.622604E-08
355.1572,-0.03879888,-1.774235E-08,NaN,-0.8199533,-1.355826E-07,NaN,0.4475524,1.49104E-08,NaN,-2.164424,1.127737E-05,-0.3686995,-2.385945E-08,NaN,NaN,-0.02006667,1.396974E-10,6.680676E-09,-1.137707E-07,-1.478624E-09,-2.622604E-08
355.1711,-0.03785878,-1.774139E-08,NaN,-0.8283769,-1.355831E-07,NaN,0.4478668,1.520585E-08,NaN,-2.165365,1.127794E-05,-0.3691402,-2.390638E-08,NaN,NaN,-0.02006643,1.396974E-10,-5.836299E-09,-1.137724E-07,-2.865315E-10,-2.622604E-08
355.1864,-0.03693335,-1.774042E-08,NaN,-0.8370515,-1.355837E-07,NaN,0.4482013,1.550129E-08,NaN,-2.16627,1.127851E-05,-0.369529,-2.3953E-08,NaN,NaN,-0.02006607,1.396974E-10,-1.835327E-08,-1.13774E-07,3.09515E-10,-2.622604E-08
355.2011,-0.03602073,-1.773946E-08,NaN,-0.8458413,-1.355843E-07,NaN,0.4485394,1.579674E-08,NaN,-2.167128,1.127908E-05,-0.3698796,-2.399931E-08,NaN,NaN,-0.02006565,1.396974E-10,-3.057223E-08,-1.137756E-07,2.097654E-09,-2.622604E-08
355.2159,-0.03602073,-1.773946E-08,NaN,-0.8458413,-1.355843E-07,NaN,0.4485394,1.579674E-08,NaN,-2.167128,1.127908E-05,-0.3698796,-2.399931E-08,NaN,NaN,-0.02006565,1.396974E-10,-3.057223E-08,-1.137756E-07,2.097654E-09,-2.622604E-08
355.23,-0.03512618,-1.773849E-08,NaN,-0.8554245,-1.355848E-07,NaN,0.4488263,1.609218E-08,NaN,-2.168144,1.127965E-05,-0.3704206,-2.404533E-08,NaN,NaN,-0.02006568,1.396974E-10,-4.785758E-08,-1.137773E-07,2.097654E-09,-2.622604E-08
355.2454,-0.03424707,-1.773753E-08,NaN,-0.8654522,-1.355854E-07,NaN,0.4491518,1.638763E-08,NaN,-2.169174,1.128022E-05,-0.3709227,-2.409105E-08,NaN,NaN,-0.0200656,1.396974E-10,-6.156665E-08,-1.137789E-07,4.183817E-09,-2.622604E-08
355.2603,-0.03338116,-1.773656E-08,NaN,-0.8757081,-1.35586E-07,NaN,0.4494985,1.668307E-08,NaN,-2.170168,1.128078E-05,-0.3713708,-2.413647E-08,NaN,NaN,-0.02006539,1.396974E-10,-7.169943E-08,-1.137805E-07,3.587771E-09,-2.622604E-08
355.2748,-0.03338116,-1.773656E-08,NaN,-0.8757081,-1.35586E-07,NaN,0.4494985,1.668307E-08,NaN,-2.170168,1.128078E-05,-0.3713708,-2.413647E-08,NaN,NaN,-0.02006539,1.396974E-10,-7.169943E-08,-1.137805E-07,3.587771E-09,-2.622604E-08
355.2889,-0.03253364,-1.77356E-08,NaN,-0.8868201,-1.355865E-07,NaN,0.4498004,1.697852E-08,NaN,-2.171316,1.128135E-05,-0.3719989,-2.41816E-08,NaN,NaN,-0.02006561,1.396974E-10,-8.898478E-08,-1.137821E-07,1.799631E-09,-2.622604E-08
355.3042,-0.03170125,-1.773463E-08,NaN,-0.8984087,-1.355871E-07,NaN,0.4501434,1.727396E-08,NaN,-2.172471,1.128192E-05,-0.3725802,-2.422643E-08,NaN,NaN,-0.02006569,1.396974E-10,-1.05078E-07,-1.137837E-07,1.501608E-09,-2.622604E-08
355.3189,-0.03170125,-1.773463E-08,NaN,-0.8984087,-1.355871E-07,NaN,0.4501434,1.727396E-08,NaN,-2.172471,1.128192E-05,-0.3725802,-2.422643E-08,NaN,NaN,-0.02006569,1.396974E-10,-1.05078E-07,-1.137837E-07,1.501608E-09,-2.622604E-08
