JMolnar6/NonAnthroHands_User_Study/HandsLoggerWithURDF/tempdata/files/Reachy_JointMotion_gesture_9_42.csv
Time,r_shoulder,r_shoulder_x,r_upper_arm,r_forearm,r_wrist,r_wrist2hand,
619.8152,-0.01406218,-5.655704E-09,NaN,-0.9036521,-1.336094E-07,NaN,-1.561138,-4.069475E-07,NaN,-2.102916,1.859593E-05,0.3762966,7.995917E-08,NaN,NaN,-0.09227791,6.519185E-11,-5.198704E-08,-1.116706E-07,1.012697E-08,-2.622604E-08
619.8339,-0.01406115,-5.654905E-09,NaN,-0.9037453,-1.336098E-07,NaN,-1.560635,-4.068762E-07,NaN,-2.103562,1.85964E-05,0.3776287,7.98894E-08,NaN,NaN,-0.09215005,6.984847E-11,-5.720245E-08,-1.116714E-07,1.251116E-08,-2.861022E-08
619.847,-0.01406003,-5.654107E-09,NaN,-0.9038807,-1.336101E-07,NaN,-1.56022,-4.068063E-07,NaN,-2.104493,1.859687E-05,0.3791872,7.982093E-08,NaN,NaN,-0.09202513,7.916169E-11,-5.042242E-08,-1.116721E-07,1.966372E-08,-2.622604E-08
619.8627,-0.01405885,-5.653308E-09,NaN,-0.9040414,-1.336105E-07,NaN,-1.559924,-4.067376E-07,NaN,-2.105553,1.859735E-05,0.3807136,7.975373E-08,NaN,NaN,-0.09190258,8.381831E-11,-4.475998E-08,-1.116729E-07,1.727953E-08,-2.861022E-08
619.8785,-0.01405885,-5.653308E-09,NaN,-0.9040414,-1.336105E-07,NaN,-1.559924,-4.067376E-07,NaN,-2.105553,1.859735E-05,0.3807136,7.975373E-08,NaN,NaN,-0.09190258,8.381831E-11,-4.475998E-08,-1.116729E-07,1.727953E-08,-2.861022E-08
619.8937,-0.01405762,-5.65251E-09,NaN,-0.9042171,-1.336109E-07,NaN,-1.559698,-4.066702E-07,NaN,-2.106668,1.859782E-05,0.3821862,7.968779E-08,NaN,NaN,-0.09178233,9.313153E-11,-4.088568E-08,-1.116737E-07,1.727953E-08,-2.622604E-08
619.91,-0.01405649,-5.651711E-09,NaN,-0.904332,-1.336113E-07,NaN,-1.560029,-4.06604E-07,NaN,-2.107207,1.85983E-05,0.3822642,7.962307E-08,NaN,NaN,-0.09179363,9.778815E-11,-3.380763E-08,-1.116744E-07,1.966372E-08,-2.861022E-08
619.926,-0.01405544,-5.650913E-09,NaN,-0.9044089,-1.336116E-07,NaN,-1.560293,-4.065418E-07,NaN,-2.107461,1.859877E-05,0.3820772,7.956238E-08,NaN,NaN,-0.09180424,1.071014E-10,-3.850149E-08,-1.116752E-07,1.727953E-08,-2.622604E-08
619.9416,-0.01405446,-5.650114E-09,NaN,-0.9044619,-1.33612E-07,NaN,-1.560448,-4.064808E-07,NaN,-2.107576,1.859924E-05,0.381891,7.950282E-08,NaN,NaN,-0.09181472,1.11758E-10,-4.252481E-08,-1.116759E-07,1.012697E-08,-2.861022E-08
619.9574,-0.01405446,-5.650114E-09,NaN,-0.9044619,-1.33612E-07,NaN,-1.560448,-4.064808E-07,NaN,-2.107576,1.859924E-05,0.381891,7.950282E-08,NaN,NaN,-0.09181472,1.11758E-10,-4.252481E-08,-1.116759E-07,1.012697E-08,-2.861022E-08
619.9725,-0.01405351,-5.649316E-09,NaN,-0.9044999,-1.336123E-07,NaN,-1.560539,-4.064208E-07,NaN,-2.107625,1.859971E-05,0.3817311,7.944436E-08,NaN,NaN,-0.09182508,1.210712E-10,-4.49835E-08,-1.116767E-07,1.012697E-08,-2.622604E-08
619.989,-0.01405271,-5.648518E-09,NaN,-0.9044611,-1.336127E-07,NaN,-1.56112,-4.063619E-07,NaN,-2.107047,1.860019E-05,0.3802394,7.938697E-08,NaN,NaN,-0.09196454,1.257278E-10,-4.125821E-08,-1.116774E-07,7.742788E-09,-2.861022E-08
620.0046,-0.01405203,-5.64772E-09,NaN,-0.9043751,-1.336131E-07,NaN,-1.561599,-4.06307E-07,NaN,-2.106167,1.860066E-05,0.3785278,7.933347E-08,NaN,NaN,-0.09210086,1.35041E-10,-4.923033E-08,-1.116782E-07,1.012697E-08,-2.622604E-08
620.0206,-0.01405142,-5.646922E-09,NaN,-0.9042604,-1.336134E-07,NaN,-1.561949,-4.06253E-07,NaN,-2.105148,1.860114E-05,0.3768536,7.928095E-08,NaN,NaN,-0.0922346,1.303844E-10,-5.601036E-08,-1.116789E-07,1.012697E-08,-2.861022E-08
620.0364,-0.01405142,-5.646922E-09,NaN,-0.9042604,-1.336134E-07,NaN,-1.561949,-4.06253E-07,NaN,-2.105148,1.860114E-05,0.3768536,7.928095E-08,NaN,NaN,-0.0922346,1.303844E-10,-5.601036E-08,-1.116789E-07,1.012697E-08,-2.861022E-08
620.0513,-0.01405086,-5.646124E-09,NaN,-0.9041284,-1.336138E-07,NaN,-1.562222,-4.061999E-07,NaN,-2.104072,1.860161E-05,0.3752377,7.922939E-08,NaN,NaN,-0.09236584,1.396977E-10,-6.062972E-08,-1.116797E-07,7.742788E-09,-2.622604E-08
620.0681,-0.01405046,-5.645326E-09,NaN,-0.9039171,-1.336141E-07,NaN,-1.562972,-4.061507E-07,NaN,-2.102383,1.860209E-05,0.3723153,7.918161E-08,NaN,NaN,-0.09262381,1.443543E-10,-5.958664E-08,-1.116804E-07,7.742788E-09,-2.861022E-08
620.0835,-0.01405017,-5.644528E-09,NaN,-0.9036578,-1.336145E-07,NaN,-1.563609,-4.061023E-07,NaN,-2.100406,1.860256E-05,0.3692054,7.913469E-08,NaN,NaN,-0.09287635,1.536675E-10,-7.016646E-08,-1.116812E-07,5.902305E-10,-2.622604E-08
620.0995,-0.01405017,-5.644528E-09,NaN,-0.9036578,-1.336145E-07,NaN,-1.563609,-4.061023E-07,NaN,-2.100406,1.860256E-05,0.3692054,7.913469E-08,NaN,NaN,-0.09287635,1.536675E-10,-7.016646E-08,-1.116812E-07,5.902305E-10,-2.622604E-08
620.1145,-0.01404996,-5.643731E-09,NaN,-0.90337,-1.336148E-07,NaN,-1.564107,-4.058964E-07,NaN,-2.098307,1.860303E-05,0.3661621,7.893028E-08,NaN,NaN,-0.09312405,1.629807E-10,-7.880913E-08,-1.116819E-07,-1.793955E-09,-2.861022E-08
620.1307,-0.0140498,-5.642934E-09,NaN,-0.9030659,-1.336152E-07,NaN,-1.564521,-4.056944E-07,NaN,-2.096165,1.86035E-05,0.3632039,7.87298E-08,NaN,NaN,-0.093367,1.862638E-10,-8.514213E-08,-1.116826E-07,-1.793955E-09,-2.622604E-08
620.1468,-0.0140498,-5.642138E-09,NaN,-0.9026837,-1.336155E-07,NaN,-1.5654,-4.054963E-07,NaN,-2.093427,1.860398E-05,0.3589554,7.853318E-08,NaN,NaN,-0.09373451,1.95577E-10,-8.566366E-08,-1.116833E-07,5.902305E-10,-2.861022E-08
620.1624,-0.01404992,-5.641342E-09,NaN,-0.9022552,-1.336159E-07,NaN,-1.566152,-4.05302E-07,NaN,-2.090417,1.860447E-05,0.3545531,7.834035E-08,NaN,NaN,-0.09409446,2.002336E-10,-9.713756E-08,-1.116841E-07,5.902305E-10,-2.622604E-08
620.1785,-0.01404992,-5.641342E-09,NaN,-0.9022552,-1.336159E-07,NaN,-1.566152,-4.05302E-07,NaN,-2.090417,1.860447E-05,0.3545531,7.834035E-08,NaN,NaN,-0.09409446,2.002336E-10,-9.713756E-08,-1.116841E-07,5.902305E-10,-2.622604E-08
620.1934,-0.01405012,-5.640545E-09,NaN,-0.9017999,-1.336163E-07,NaN,-1.566758,-4.051142E-07,NaN,-2.0873,1.860496E-05,0.3502453,7.815405E-08,NaN,NaN,-0.09444748,2.048903E-10,-1.073449E-07,-1.116848E-07,5.902305E-10,-2.861022E-08
620.2098,-0.01405038,-5.639747E-09,NaN,-0.9013302,-1.336162E-07,NaN,-1.567275,-4.028011E-07,NaN,-2.084155,1.860545E-05,0.3460473,7.591051E-08,NaN,NaN,-0.09479369,2.095469E-10,-1.144229E-07,-1.116867E-07,2.974416E-09,-2.622604E-08
620.2258,-0.01405079,-5.638949E-09,NaN,-0.9007843,-1.336162E-07,NaN,-1.56824,-4.004879E-07,NaN,-2.080431,1.860592E-05,0.3405681,7.372083E-08,NaN,NaN,-0.09526245,2.188601E-10,-1.153915E-07,-1.116888E-07,-1.793955E-09,-2.861022E-08
620.2416,-0.01405132,-5.638151E-09,NaN,-0.9001939,-1.336164E-07,NaN,-1.569065,-3.981748E-07,NaN,-2.07645,1.86064E-05,0.3349706,7.157423E-08,NaN,NaN,-0.09572171,2.188601E-10,-1.279085E-07,-1.116909E-07,2.974416E-09,-2.622604E-08
620.2575,-0.01405132,-5.638151E-09,NaN,-0.9001939,-1.336164E-07,NaN,-1.569065,-3.981748E-07,NaN,-2.07645,1.86064E-05,0.3349706,7.157423E-08,NaN,NaN,-0.09572171,2.188601E-10,-1.279085E-07,-1.116909E-07,2.974416E-09,-2.622604E-08
620.2724,-0.01405194,-5.637354E-09,NaN,-0.8995787,-1.336166E-07,NaN,-1.569739,-3.958617E-07,NaN,-2.072377,1.860687E-05,0.3294946,6.946276E-08,NaN,NaN,-0.09617209,2.281733E-10,-1.375942E-07,-1.116931E-07,5.358602E-09,-2.861022E-08
620.2892,-0.01405261,-5.636556E-09,NaN,-0.8989509,-1.336168E-07,NaN,-1.570319,-3.935486E-07,NaN,-2.068291,1.860734E-05,0.324151,6.738057E-08,NaN,NaN,-0.09661376,2.328299E-10,-1.458643E-07,-1.116953E-07,2.974416E-09,-2.622604E-08
620.3047,-0.01405344,-5.635759E-09,NaN,-0.8982489,-1.336171E-07,NaN,-1.571301,-3.912354E-07,NaN,-2.063639,1.86078E-05,0.3174994,6.532333E-08,NaN,NaN,-0.09717606,2.467998E-10,-1.502602E-07,-1.116975E-07,2.974416E-09,-2.861022E-08
620.3238,-0.01405439,-5.634961E-09,NaN,-0.8975042,-1.336174E-07,NaN,-1.571856,-3.889223E-07,NaN,-2.058727,1.860827E-05,0.3105035,6.328784E-08,NaN,NaN,-0.09772654,2.421432E-10,-1.789449E-07,-1.116998E-07,-1.793955E-09,-2.622604E-08
620.3387,-0.01405439,-5.634961E-09,NaN,-0.8975042,-1.336174E-07,NaN,-1.571856,-3.889223E-07,NaN,-2.058727,1.860827E-05,0.3105035,6.328784E-08,NaN,NaN,-0.09772654,2.421432E-10,-1.789449E-07,-1.116998E-07,-1.793955E-09,-2.622604E-08
620.3511,-0.01405543,-5.634163E-09,NaN,-0.8967364,-1.336177E-07,NaN,-1.571894,-3.866092E-07,NaN,-2.053723,1.860873E-05,0.303564,6.127173E-08,NaN,NaN,-0.09826618,2.514564E-10,-2.111314E-07,-1.11702E-07,-1.793955E-09,-2.861022E-08
620.3679,-0.01405653,-5.633366E-09,NaN,-0.8959579,-1.336181E-07,NaN,-1.571605,-3.84296E-07,NaN,-2.048722,1.860919E-05,0.2968581,5.927324E-08,NaN,NaN,-0.09879551,2.514564E-10,-2.368359E-07,-1.117043E-07,-8.946513E-09,-2.622604E-08
620.3835,-0.01405778,-5.632569E-09,NaN,-0.895107,-1.336184E-07,NaN,-1.571704,-3.819829E-07,NaN,-2.043184,1.860964E-05,0.2890168,5.729105E-08,NaN,NaN,-0.09944409,2.607696E-10,-2.475648E-07,-1.117066E-07,-1.13307E-08,-2.861022E-08
620.3995,-0.01405778,-5.632569E-09,NaN,-0.895107,-1.336184E-07,NaN,-1.571704,-3.819829E-07,NaN,-2.043184,1.860964E-05,0.2890168,5.729105E-08,NaN,NaN,-0.09944409,2.607696E-10,-2.475648E-07,-1.117066E-07,-1.13307E-08,-2.861022E-08
620.4143,-0.01405916,-5.631772E-09,NaN,-0.8942152,-1.336188E-07,NaN,-1.571635,-3.796698E-07,NaN,-2.037424,1.861011E-05,0.2811245,5.532417E-08,NaN,NaN,-0.1000797,2.56113E-10,-2.679049E-07,-1.117088E-07,-1.609907E-08,-2.622604E-08
620.4308,-0.01406069,-5.630976E-09,NaN,-0.8933021,-1.336197E-07,NaN,-1.57143,-3.773567E-07,NaN,-2.031604,1.861057E-05,0.2734318,5.337185E-08,NaN,NaN,-0.1007031,2.607696E-10,-2.872019E-07,-1.117102E-07,-1.848325E-08,-2.861022E-08
620.4465,-0.01406243,-5.630179E-09,NaN,-0.8923801,-1.336205E-07,NaN,-1.571205,-3.750435E-07,NaN,-2.025803,1.861102E-05,0.2659717,5.143352E-08,NaN,NaN,-0.1013144,2.654262E-10,-2.989738E-07,-1.117115E-07,-1.848325E-08,-2.622604E-08
620.4622,-0.01406451,-5.629383E-09,NaN,-0.8913872,-1.336212E-07,NaN,-1.571494,-3.727304E-07,NaN,-2.019472,1.861148E-05,0.257277,4.950875E-08,NaN,NaN,-0.1020433,2.700828E-10,-3.032951E-07,-1.117128E-07,-2.563581E-08,-2.861022E-08
620.478,-0.01406451,-5.629383E-09,NaN,-0.8913872,-1.336212E-07,NaN,-1.571494,-3.727304E-07,NaN,-2.019472,1.861148E-05,0.257277,4.950875E-08,NaN,NaN,-0.1020433,2.700828E-10,-3.032951E-07,-1.117128E-07,-2.563581E-08,-2.861022E-08
620.4933,-0.01406695,-5.628586E-09,NaN,-0.8903552,-1.336216E-07,NaN,-1.571604,-3.704173E-07,NaN,-2.012923,1.861194E-05,0.2484824,4.759719E-08,NaN,NaN,-0.1027575,2.747394E-10,-3.225921E-07,-1.117151E-07,-2.325163E-08,-2.622604E-08
620.5095,-0.0140697,-5.62779E-09,NaN,-0.8893036,-1.33622E-07,NaN,-1.571506,-3.681041E-07,NaN,-2.006319,1.861239E-05,0.2398588,4.569856E-08,NaN,NaN,-0.1034578,2.79396E-10,-3.39952E-07,-1.117174E-07,-2.086744E-08,-2.861022E-08
620.5255,-0.01407271,-5.626996E-09,NaN,-0.8882446,-1.336227E-07,NaN,-1.571311,-3.680608E-07,NaN,-1.999742,1.861285E-05,0.2314703,4.59874E-08,NaN,NaN,-0.1041445,2.840526E-10,-3.529905E-07,-1.117188E-07,-2.086744E-08,-2.622604E-08
620.5411,-0.01407609,-5.626203E-09,NaN,-0.8871165,-1.336232E-07,NaN,-1.571551,-3.681537E-07,NaN,-1.992647,1.861331E-05,0.2218474,4.634642E-08,NaN,NaN,-0.1049472,2.980225E-10,-3.581314E-07,-1.117199E-07,-1.609907E-08,-2.861022E-08
620.5568,-0.01407609,-5.626203E-09,NaN,-0.8871165,-1.336232E-07,NaN,-1.571551,-3.681537E-07,NaN,-1.992647,1.861331E-05,0.2218474,4.634642E-08,NaN,NaN,-0.1049472,2.980225E-10,-3.581314E-07,-1.117199E-07,-1.609907E-08,-2.861022E-08
620.5717,-0.01407984,-5.625409E-09,NaN,-0.8859508,-1.336236E-07,NaN,-1.571589,-3.68329E-07,NaN,-1.985349,1.861378E-05,0.2121945,4.673488E-08,NaN,NaN,-0.105734,3.026791E-10,-3.740011E-07,-1.11721E-07,-2.086744E-08,-2.622604E-08
620.5883,-0.01408391,-5.624616E-09,NaN,-0.8847672,-1.33624E-07,NaN,-1.571442,-3.685587E-07,NaN,-1.978009,1.861425E-05,0.202758,4.713533E-08,NaN,NaN,-0.1065055,3.119923E-10,-3.892003E-07,-1.11722E-07,-3.040418E-08,-2.861022E-08
620.6038,-0.01408823,-5.623822E-09,NaN,-0.8835777,-1.336241E-07,NaN,-1.571234,-3.663326E-07,NaN,-1.970708,1.861474E-05,0.1935807,4.514819E-08,NaN,NaN,-0.1072621,3.073357E-10,-3.991096E-07,-1.11724E-07,-3.517255E-08,-2.622604E-08
620.6198,-0.01408823,-5.623822E-09,NaN,-0.8835777,-1.336241E-07,NaN,-1.571234,-3.663326E-07,NaN,-1.970708,1.861474E-05,0.1935807,4.514819E-08,NaN,NaN,-0.1072621,3.073357E-10,-3.991096E-07,-1.11724E-07,-3.517255E-08,-2.622604E-08
620.6348,-0.01409292,-5.623028E-09,NaN,-0.8823207,-1.336246E-07,NaN,-1.571458,-3.665019E-07,NaN,-1.962901,1.86152E-05,0.1831533,4.550932E-08,NaN,NaN,-0.1081332,3.213055E-10,-3.97843E-07,-1.117252E-07,-3.278836E-08,-2.861022E-08
620.6509,-0.01409798,-5.622235E-09,NaN,-0.8810276,-1.33625E-07,NaN,-1.571486,-3.667556E-07,NaN,-1.954902,1.861567E-05,0.17274,4.591672E-08,NaN,NaN,-0.1089871,3.306187E-10,-4.117011E-07,-1.117263E-07,-3.278836E-08,-2.622604E-08
620.6669,-0.01410335,-5.621442E-09,NaN,-0.8797181,-1.336253E-07,NaN,-1.571346,-3.670541E-07,NaN,-1.946872,1.861614E-05,0.1625616,4.633855E-08,NaN,NaN,-0.1098244,3.445886E-10,-4.213868E-07,-1.117273E-07,-3.278836E-08,-2.861022E-08
620.6825,-0.01410897,-5.62065E-09,NaN,-0.8784043,-1.336256E-07,NaN,-1.571154,-3.673799E-07,NaN,-1.938889,1.861662E-05,0.1526507,4.676328E-08,NaN,NaN,-0.1106454,3.445886E-10,-4.285394E-07,-1.117282E-07,-2.563581E-08,-2.622604E-08
620.6982,-0.01410897,-5.62065E-09,NaN,-0.8784043,-1.336256E-07,NaN,-1.571154,-3.673799E-07,NaN,-1.938889,1.861662E-05,0.1526507,4.676328E-08,NaN,NaN,-0.1106454,3.445886E-10,-4.285394E-07,-1.117282E-07,-2.563581E-08,-2.622604E-08
620.7131,-0.01411494,-5.619857E-09,NaN,-0.8770244,-1.336259E-07,NaN,-1.571361,-3.677252E-07,NaN,-1.930411,1.861708E-05,0.1414723,4.718805E-08,NaN,NaN,-0.1115797,3.585584E-10,-4.241435E-07,-1.117292E-07,-2.801999E-08,-2.861022E-08
620.7298,-0.01412129,-5.619064E-09,NaN,-0.8756099,-1.336261E-07,NaN,-1.571369,-3.680834E-07,NaN,-1.921752,1.861757E-05,0.1303595,4.761004E-08,NaN,NaN,-0.1124956,3.492452E-10,-4.314451E-07,-1.117301E-07,-2.325162E-08,-2.622604E-08
620.7452,-0.01412793,-5.618272E-09,NaN,-0.8741804,-1.336264E-07,NaN,-1.571226,-3.684484E-07,NaN,-1.913072,1.861805E-05,0.1195029,4.802649E-08,NaN,NaN,-0.1133937,3.539018E-10,-4.355057E-07,-1.117311E-07,-2.325162E-08,-2.861022E-08
620.7613,-0.0141348,-5.617478E-09,NaN,-0.8727481,-1.336265E-07,NaN,-1.571045,-3.663555E-07,NaN,-1.904447,1.861854E-05,0.1089236,4.607215E-08,NaN,NaN,-0.1142742,3.445886E-10,-4.359899E-07,-1.11733E-07,-2.086743E-08,-2.622604E-08
620.7771,-0.0141348,-5.617478E-09,NaN,-0.8727481,-1.336265E-07,NaN,-1.571045,-3.663555E-07,NaN,-1.904447,1.861854E-05,0.1089236,4.607215E-08,NaN,NaN,-0.1142742,3.445886E-10,-4.359899E-07,-1.11733E-07,-2.086743E-08,-2.622604E-08
620.7922,-0.01414204,-5.616684E-09,NaN,-0.871251,-1.336269E-07,NaN,-1.571228,-3.66609E-07,NaN,-1.895336,1.861901E-05,0.09706274,4.643709E-08,NaN,NaN,-0.1152669,3.539018E-10,-4.293217E-07,-1.117341E-07,-2.325162E-08,-2.861022E-08
620.8085,-0.01414963,-5.615892E-09,NaN,-0.8697208,-1.336273E-07,NaN,-1.57122,-3.66925E-07,NaN,-1.886056,1.861949E-05,0.08531871,4.684259E-08,NaN,NaN,-0.1162401,3.585584E-10,-4.314451E-07,-1.117352E-07,-2.325162E-08,-2.622604E-08
620.8245,-0.01415752,-5.615099E-09,NaN,-0.868177,-1.336276E-07,NaN,-1.571081,-3.672703E-07,NaN,-1.876762,1.861996E-05,0.07384692,4.725975E-08,NaN,NaN,-0.1171943,3.678716E-10,-4.321342E-07,-1.117361E-07,-2.56358E-08,-2.861022E-08
620.8414,-0.01416562,-5.614306E-09,NaN,-0.8666317,-1.336279E-07,NaN,-1.570915,-3.676326E-07,NaN,-1.86753,1.862044E-05,0.0626586,4.767991E-08,NaN,NaN,-0.1181298,3.725282E-10,-4.274031E-07,-1.11737E-07,-2.56358E-08,-2.622604E-08
620.8564,-0.01416562,-5.614306E-09,NaN,-0.8666317,-1.336279E-07,NaN,-1.570915,-3.676326E-07,NaN,-1.86753,1.862044E-05,0.0626586,4.767991E-08,NaN,NaN,-0.1181298,3.725282E-10,-4.274031E-07,-1.11737E-07,-2.56358E-08,-2.622604E-08
620.8714,-0.01417154,-5.613514E-09,NaN,-0.8659239,-1.336281E-07,NaN,-1.567337,-3.680036E-07,NaN,-1.865307,1.862092E-05,0.07039779,4.809738E-08,NaN,NaN,-0.1174951,3.818414E-10,-4.744535E-07,-1.11738E-07,-2.325162E-08,-2.861022E-08
620.8879,-0.01417472,-5.612721E-09,NaN,-0.8657361,-1.336284E-07,NaN,-1.565409,-3.683809E-07,NaN,-1.866476,1.86214E-05,0.07860147,4.851221E-08,NaN,NaN,-0.1168729,3.818414E-10,-4.42118E-07,-1.117389E-07,-2.325162E-08,-2.622604E-08
620.9037,-0.01417549,-5.611928E-09,NaN,-0.8658684,-1.336286E-07,NaN,-1.564327,-3.6876E-07,NaN,-1.869326,1.862188E-05,0.08632894,4.892165E-08,NaN,NaN,-0.1162629,3.911546E-10,-4.246092E-07,-1.117398E-07,-2.325162E-08,-2.861022E-08
620.9194,-0.01417549,-5.611928E-09,NaN,-0.8658684,-1.336286E-07,NaN,-1.564327,-3.6876E-07,NaN,-1.869326,1.862188E-05,0.08632894,4.892165E-08,NaN,NaN,-0.1162629,3.911546E-10,-4.246092E-07,-1.117398E-07,-2.325162E-08,-2.861022E-08
620.9349,-0.0141754,-5.611134E-09,NaN,-0.8661284,-1.336287E-07,NaN,-1.563884,-3.666789E-07,NaN,-1.872421,1.862236E-05,0.09219929,4.696117E-08,NaN,NaN,-0.1157942,3.911546E-10,-4.095217E-07,-1.117416E-07,-2.325162E-08,-2.622604E-08
620.9512,-0.014175,-5.610341E-09,NaN,-0.8664659,-1.336291E-07,NaN,-1.563486,-3.669371E-07,NaN,-1.87563,1.862284E-05,0.09785125,4.731651E-08,NaN,NaN,-0.1153347,3.958112E-10,-4.028907E-07,-1.117428E-07,-1.848325E-08,-2.861022E-08
620.9672,-0.01417444,-5.609548E-09,NaN,-0.8668498,-1.336295E-07,NaN,-1.563098,-3.67258E-07,NaN,-1.878881,1.862332E-05,0.1033872,4.771545E-08,NaN,NaN,-0.1148842,3.958112E-10,-3.956264E-07,-1.117437E-07,-2.086743E-08,-2.622604E-08
620.9827,-0.01417379,-5.608756E-09,NaN,-0.8672606,-1.336298E-07,NaN,-1.562719,-3.676032E-07,NaN,-1.882132,1.86238E-05,0.1088137,4.812334E-08,NaN,NaN,-0.1144425,4.004679E-10,-3.881386E-07,-1.117447E-07,-1.848325E-08,-2.861022E-08
620.9988,-0.01417379,-5.608756E-09,NaN,-0.8672606,-1.336298E-07,NaN,-1.562719,-3.676032E-07,NaN,-1.882132,1.86238E-05,0.1088137,4.812334E-08,NaN,NaN,-0.1144425,4.004679E-10,-3.881386E-07,-1.117447E-07,-1.848325E-08,-2.861022E-08
621.0139,-0.01417322,-5.607963E-09,NaN,-0.8676169,-1.336301E-07,NaN,-1.562652,-3.679638E-07,NaN,-1.884786,1.862429E-05,0.1125788,4.853441E-08,NaN,NaN,-0.1141389,4.004679E-10,-3.770372E-07,-1.117456E-07,-1.848325E-08,-2.622604E-08
621.03,-0.01417273,-5.60717E-09,NaN,-0.8679379,-1.336303E-07,NaN,-1.562488,-3.683346E-07,NaN,-1.887133,1.862477E-05,0.1162198,4.894579E-08,NaN,NaN,-0.1138412,4.004679E-10,-3.722316E-07,-1.117465E-07,-1.371488E-08,-2.861022E-08
621.0457,-0.01417228,-5.606378E-09,NaN,-0.8682356,-1.336306E-07,NaN,-1.562273,-3.687078E-07,NaN,-1.889314,1.862526E-05,0.1198103,4.935183E-08,NaN,NaN,-0.1135493,4.004679E-10,-3.662711E-07,-1.117473E-07,-1.371488E-08,-2.622604E-08
621.0619,-0.01417186,-5.605584E-09,NaN,-0.8685178,-1.336306E-07,NaN,-1.562041,-3.666211E-07,NaN,-1.891396,1.862574E-05,0.1233405,4.738737E-08,NaN,NaN,-0.1132632,4.051245E-10,-3.598636E-07,-1.117492E-07,-6.56232E-09,-2.861022E-08
621.0774,-0.01417186,-5.605584E-09,NaN,-0.8685178,-1.336306E-07,NaN,-1.562041,-3.666211E-07,NaN,-1.891396,1.862574E-05,0.1233405,4.738737E-08,NaN,NaN,-0.1132632,4.051245E-10,-3.598636E-07,-1.117492E-07,-6.56232E-09,-2.861022E-08
621.0929,-0.01417159,-5.60479E-09,NaN,-0.8687196,-1.33631E-07,NaN,-1.562122,-3.668777E-07,NaN,-1.892836,1.862622E-05,0.1252548,4.774228E-08,NaN,NaN,-0.1131121,4.051245E-10,-3.505131E-07,-1.117503E-07,-1.133069E-08,-2.622604E-08
621.1091,-0.01417143,-5.603998E-09,NaN,-0.868871,-1.336314E-07,NaN,-1.562095,-3.671943E-07,NaN,-1.893955,1.86267E-05,0.1270781,4.813796E-08,NaN,NaN,-0.1129639,4.051245E-10,-3.470486E-07,-1.117512E-07,-1.609906E-08,-2.861022E-08
621.125,-0.01417134,-5.603205E-09,NaN,-0.8689905,-1.336317E-07,NaN,-1.562009,-3.675384E-07,NaN,-1.894906,1.862719E-05,0.1288889,4.854549E-08,NaN,NaN,-0.1128186,4.004679E-10,-3.422802E-07,-1.117521E-07,-1.848325E-08,-2.622604E-08
621.141,-0.01417129,-5.602412E-09,NaN,-0.86909,-1.33632E-07,NaN,-1.561901,-3.67898E-07,NaN,-1.895766,1.862769E-05,0.1306757,4.895621E-08,NaN,NaN,-0.1126762,3.911546E-10,-3.369903E-07,-1.11753E-07,-1.609906E-08,-2.861022E-08
621.1566,-0.01417129,-5.602412E-09,NaN,-0.86909,-1.33632E-07,NaN,-1.561901,-3.67898E-07,NaN,-1.895766,1.862769E-05,0.1306757,4.895621E-08,NaN,NaN,-0.1126762,3.911546E-10,-3.369903E-07,-1.11753E-07,-1.609906E-08,-2.861022E-08
621.1719,-0.01417141,-5.60162E-09,NaN,-0.8691071,-1.336322E-07,NaN,-1.562108,-3.682678E-07,NaN,-1.895996,1.862817E-05,0.1308834,4.936725E-08,NaN,NaN,-0.1126659,3.911546E-10,-3.291672E-07,-1.117539E-07,-1.848325E-08,-2.622604E-08
621.1882,-0.01417166,-5.600827E-09,NaN,-0.8690753,-1.336325E-07,NaN,-1.5622,-3.686403E-07,NaN,-1.895917,1.862865E-05,0.1310321,4.977296E-08,NaN,NaN,-0.1126558,3.958112E-10,-3.267085E-07,-1.117547E-07,-1.371488E-08,-2.861022E-08
621.2042,-0.01417198,-5.600033E-09,NaN,-0.8690134,-1.336325E-07,NaN,-1.562227,-3.665516E-07,NaN,-1.895687,1.862914E-05,0.1312024,4.780617E-08,NaN,NaN,-0.112646,3.911546E-10,-3.229087E-07,-1.117565E-07,-1.848325E-08,-2.622604E-08
621.22,-0.01417235,-5.59924E-09,NaN,-0.8689331,-1.336329E-07,NaN,-1.562228,-3.668081E-07,NaN,-1.895381,1.862962E-05,0.1313819,4.816081E-08,NaN,NaN,-0.1126363,3.958112E-10,-3.183639E-07,-1.117576E-07,-1.371488E-08,-2.861022E-08
621.2358,-0.01417235,-5.59924E-09,NaN,-0.8689331,-1.336329E-07,NaN,-1.562228,-3.668081E-07,NaN,-1.895381,1.862962E-05,0.1313819,4.816081E-08,NaN,NaN,-0.1126363,3.958112E-10,-3.183639E-07,-1.117576E-07,-1.371488E-08,-2.861022E-08
621.2507,-0.01417289,-5.598447E-09,NaN,-0.8687726,-1.336333E-07,NaN,-1.562539,-3.671246E-07,NaN,-1.894462,1.86301E-05,0.130014,4.855622E-08,NaN,NaN,-0.1127562,3.958112E-10,-3.110623E-07,-1.117586E-07,-1.848325E-08,-2.622604E-08
621.2672,-0.01417354,-5.597654E-09,NaN,-0.8685632,-1.336336E-07,NaN,-1.562728,-3.674685E-07,NaN,-1.893252,1.863059E-05,0.1286199,4.896348E-08,NaN,NaN,-0.1128737,3.958112E-10,-3.096467E-07,-1.117594E-07,-1.609906E-08,-2.861022E-08
621.2826,-0.01417427,-5.596861E-09,NaN,-0.8683247,-1.336338E-07,NaN,-1.562848,-3.678279E-07,NaN,-1.891905,1.863108E-05,0.1272785,4.937393E-08,NaN,NaN,-0.1129889,3.911546E-10,-3.068155E-07,-1.117603E-07,-1.133069E-08,-2.622604E-08
621.2985,-0.01417427,-5.596861E-09,NaN,-0.8683247,-1.336338E-07,NaN,-1.562848,-3.678279E-07,NaN,-1.891905,1.863108E-05,0.1272785,4.937393E-08,NaN,NaN,-0.1129889,3.911546E-10,-3.068155E-07,-1.117603E-07,-1.133069E-08,-2.622604E-08
621.3133,-0.01417505,-5.596068E-09,NaN,-0.8680692,-1.336341E-07,NaN,-1.562937,-3.681948E-07,NaN,-1.890501,1.863156E-05,0.1259765,4.978188E-08,NaN,NaN,-0.1131019,3.911546E-10,-3.034627E-07,-1.117611E-07,-1.371488E-08,-2.861022E-08
621.3299,-0.014176,-5.595276E-09,NaN,-0.867735,-1.336343E-07,NaN,-1.563327,-3.685671E-07,NaN,-1.8885,1.863204E-05,0.1231542,5.018739E-08,NaN,NaN,-0.1133421,3.911546E-10,-2.969062E-07,-1.117619E-07,-2.086743E-08,-2.622604E-08
621.3469,-0.01417707,-5.594481E-09,NaN,-0.8673538,-1.336344E-07,NaN,-1.563591,-3.664769E-07,NaN,-1.886222,1.863253E-05,0.1203392,4.821849E-08,NaN,NaN,-0.1135775,3.958112E-10,-2.961984E-07,-1.117637E-07,-2.086743E-08,-2.861022E-08
621.3616,-0.01417821,-5.593688E-09,NaN,-0.8669453,-1.336348E-07,NaN,-1.563782,-3.667337E-07,NaN,-1.883825,1.863302E-05,0.1176052,4.857296E-08,NaN,NaN,-0.1138083,3.86498E-10,-2.938887E-07,-1.117648E-07,-2.325162E-08,-2.622604E-08
621.3773,-0.01417821,-5.593688E-09,NaN,-0.8669453,-1.336348E-07,NaN,-1.563782,-3.667337E-07,NaN,-1.883825,1.863302E-05,0.1176052,4.857296E-08,NaN,NaN,-0.1138083,3.86498E-10,-2.938887E-07,-1.117648E-07,-2.325162E-08,-2.622604E-08
621.3921,-0.01417941,-5.592895E-09,NaN,-0.8665217,-1.336347E-07,NaN,-1.563937,-3.672557E-07,NaN,-1.881385,1.86335E-05,0.1149382,4.917339E-08,NaN,NaN,-0.1140346,3.818414E-10,-2.90983E-07,-1.117632E-07,-2.086743E-08,-2.861022E-08
621.4084,-0.01418083,-5.592102E-09,NaN,-0.8660215,-1.336338E-07,NaN,-1.56438,-3.680596E-07,NaN,-1.878364,1.863396E-05,0.1107741,5.004034E-08,NaN,NaN,-0.1143858,3.818414E-10,-2.843892E-07,-1.117609E-07,-1.848325E-08,-2.622604E-08
621.4241,-0.01418258,-5.59131E-09,NaN,-0.8654761,-1.336324E-07,NaN,-1.564692,-3.690077E-07,NaN,-1.875082,1.863442E-05,0.1066511,5.103923E-08,NaN,NaN,-0.1147302,3.818414E-10,-2.832344E-07,-1.117582E-07,-1.848325E-08,-2.861022E-08
621.4397,-0.01418258,-5.59131E-09,NaN,-0.8654761,-1.336324E-07,NaN,-1.564692,-3.690077E-07,NaN,-1.875082,1.863442E-05,0.1066511,5.103923E-08,NaN,NaN,-0.1147302,3.818414E-10,-2.832344E-07,-1.117582E-07,-1.848325E-08,-2.861022E-08
621.455,-0.01418462,-5.590516E-09,NaN,-0.8649053,-1.336301E-07,NaN,-1.564929,-3.691574E-07,NaN,-1.871694,1.863489E-05,0.1026351,5.112469E-08,NaN,NaN,-0.1150678,3.771848E-10,-2.814835E-07,-1.117579E-07,-2.086743E-08,-2.622604E-08
621.4712,-0.01418688,-5.589723E-09,NaN,-0.8643214,-1.336292E-07,NaN,-1.565128,-3.699884E-07,NaN,-1.868279,1.863536E-05,0.09871113,5.190487E-08,NaN,NaN,-0.1153988,3.678716E-10,-2.785778E-07,-1.117576E-07,-2.801999E-08,-2.861022E-08
621.4871,-0.01418953,-5.588931E-09,NaN,-0.8636627,-1.336287E-07,NaN,-1.565596,-3.70661E-07,NaN,-1.864297,1.863583E-05,0.09331019,5.253712E-08,NaN,NaN,-0.1158527,3.725282E-10,-2.730271E-07,-1.117576E-07,-2.563581E-08,-2.622604E-08
621.5027,-0.01419256,-5.588139E-09,NaN,-0.8629608,-1.336291E-07,NaN,-1.565931,-3.710278E-07,NaN,-1.860069,1.863631E-05,0.08798424,5.287203E-08,NaN,NaN,-0.1162977,3.585584E-10,-2.709782E-07,-1.117569E-07,-2.086744E-08,-2.861022E-08
621.5182,-0.01419256,-5.588139E-09,NaN,-0.8629608,-1.336291E-07,NaN,-1.565931,-3.710278E-07,NaN,-1.860069,1.863631E-05,0.08798424,5.287203E-08,NaN,NaN,-0.1162977,3.585584E-10,-2.709782E-07,-1.117569E-07,-2.086744E-08,-2.861022E-08
621.5331,-0.01419589,-5.587347E-09,NaN,-0.8622353,-1.336295E-07,NaN,-1.566191,-3.713616E-07,NaN,-1.85575,1.863677E-05,0.08278845,5.318055E-08,NaN,NaN,-0.116734,3.585584E-10,-2.678862E-07,-1.117562E-07,-2.086744E-08,-2.622604E-08
621.5495,-0.01419946,-5.586555E-09,NaN,-0.8614985,-1.3363E-07,NaN,-1.56641,-3.716671E-07,NaN,-1.851416,1.863726E-05,0.07770767,5.346603E-08,NaN,NaN,-0.1171618,3.445886E-10,-2.644589E-07,-1.117555E-07,-2.086744E-08,-2.861022E-08
621.5655,-0.01420342,-5.585763E-09,NaN,-0.8606888,-1.336306E-07,NaN,-1.566876,-3.719541E-07,NaN,-1.84653,1.863773E-05,0.07116795,5.373737E-08,NaN,NaN,-0.1177105,3.399319E-10,-2.572318E-07,-1.117548E-07,-1.848325E-08,-2.622604E-08
621.5811,-0.01420776,-5.584971E-09,NaN,-0.8598377,-1.336311E-07,NaN,-1.567211,-3.722266E-07,NaN,-1.841412,1.863821E-05,0.06473646,5.39977E-08,NaN,NaN,-0.1182485,3.306187E-10,-2.552016E-07,-1.117542E-07,-1.848325E-08,-2.861022E-08
621.5967,-0.01420776,-5.584971E-09,NaN,-0.8598377,-1.336311E-07,NaN,-1.567211,-3.722266E-07,NaN,-1.841412,1.863821E-05,0.06473646,5.39977E-08,NaN,NaN,-0.1182485,3.306187E-10,-2.552016E-07,-1.117542E-07,-1.848325E-08,-2.861022E-08
621.6116,-0.0142124,-5.584179E-09,NaN,-0.8589647,-1.336317E-07,NaN,-1.56747,-3.724856E-07,NaN,-1.836215,1.86387E-05,0.05845604,5.424719E-08,NaN,NaN,-0.118776,3.259621E-10,-2.512528E-07,-1.117535E-07,-1.848325E-08,-2.622604E-08
621.6282,-0.01421727,-5.583388E-09,NaN,-0.8580823,-1.336323E-07,NaN,-1.567689,-3.727346E-07,NaN,-1.831017,1.863918E-05,0.05231164,5.44889E-08,NaN,NaN,-0.1192932,3.166489E-10,-2.462236E-07,-1.117529E-07,-1.371488E-08,-2.861022E-08
621.6436,-0.01422253,-5.582596E-09,NaN,-0.8571286,-1.336329E-07,NaN,-1.568129,-3.72977E-07,NaN,-1.82528,1.863966E-05,0.04472556,5.472581E-08,NaN,NaN,-0.1199296,3.119923E-10,-2.369849E-07,-1.117523E-07,-1.609907E-08,-2.622604E-08
621.6595,-0.01422253,-5.582596E-09,NaN,-0.8571286,-1.336329E-07,NaN,-1.568129,-3.72977E-07,NaN,-1.82528,1.863966E-05,0.04472556,5.472581E-08,NaN,NaN,-0.1199296,3.119923E-10,-2.369849E-07,-1.117523E-07,-1.609907E-08,-2.622604E-08
621.6743,-0.01422816,-5.581804E-09,NaN,-0.8561352,-1.336335E-07,NaN,-1.56844,-3.732105E-07,NaN,-1.819323,1.864014E-05,0.0372795,5.495517E-08,NaN,NaN,-0.1205535,3.073357E-10,-2.320163E-07,-1.117517E-07,-1.609907E-08,-2.861022E-08
621.6912,-0.01423408,-5.581012E-09,NaN,-0.8551218,-1.33634E-07,NaN,-1.568679,-3.734384E-07,NaN,-1.813301,1.864061E-05,0.03000322,5.517997E-08,NaN,NaN,-0.1211652,3.073357E-10,-2.264761E-07,-1.117511E-07,-1.371488E-08,-2.622604E-08
621.7066,-0.01424023,-5.58022E-09,NaN,-0.8541005,-1.336346E-07,NaN,-1.568877,-3.736608E-07,NaN,-1.807289,1.864109E-05,0.02288222,5.540029E-08,NaN,NaN,-0.121765,3.026791E-10,-2.196262E-07,-1.117505E-07,-1.609907E-08,-2.861022E-08
621.7224,-0.01424675,-5.579428E-09,NaN,-0.8530096,-1.336352E-07,NaN,-1.569267,-3.738753E-07,NaN,-1.800751,1.864157E-05,0.01433725,5.56134E-08,NaN,NaN,-0.1224824,3.026791E-10,-2.091582E-07,-1.117499E-07,-1.609907E-08,-2.622604E-08
621.7382,-0.01424675,-5.579428E-09,NaN,-0.8530096,-1.336352E-07,NaN,-1.569267,-3.738753E-07,NaN,-1.800751,1.864157E-05,0.01433725,5.56134E-08,NaN,NaN,-0.1224824,3.026791E-10,-2.091582E-07,-1.117499E-07,-1.609907E-08,-2.622604E-08
621.7531,-0.01425364,-5.578636E-09,NaN,-0.8518807,-1.336358E-07,NaN,-1.569535,-3.74085E-07,NaN,-1.794005,1.864206E-05,0.005961576,5.582226E-08,NaN,NaN,-0.1231857,2.887093E-10,-2.002361E-07,-1.117493E-07,-1.848325E-08,-2.861022E-08
621.7697,-0.01426082,-5.577844E-09,NaN,-0.8507333,-1.336364E-07,NaN,-1.569735,-3.742901E-07,NaN,-1.787204,1.864253E-05,-0.002227597,5.602695E-08,NaN,NaN,-0.1238752,2.887093E-10,-1.912023E-07,-1.117486E-07,-1.609907E-08,-2.622604E-08
621.7855,-0.01426821,-5.577053E-09,NaN,-0.8495796,-1.336369E-07,NaN,-1.569895,-3.744907E-07,NaN,-1.780425,1.864302E-05,-0.01024383,5.622756E-08,NaN,NaN,-0.1245512,2.747394E-10,-1.821871E-07,-1.117481E-07,-1.371488E-08,-2.861022E-08
621.8016,-0.01427598,-5.57626E-09,NaN,-0.848358,-1.336375E-07,NaN,-1.570216,-3.74687E-07,NaN,-1.773132,1.86435E-05,-0.01966476,5.642417E-08,NaN,NaN,-0.1253434,2.747394E-10,-1.673604E-07,-1.117475E-07,-1.371488E-08,-2.622604E-08
621.8173,-0.01427598,-5.57626E-09,NaN,-0.848358,-1.336375E-07,NaN,-1.570216,-3.74687E-07,NaN,-1.773132,1.86435E-05,-0.01966476,5.642417E-08,NaN,NaN,-0.1253434,2.747394E-10,-1.673604E-07,-1.117475E-07,-1.371488E-08,-2.622604E-08
621.8345,-0.0142841,-5.575468E-09,NaN,-0.8470998,-1.336371E-07,NaN,-1.570424,-3.755144E-07,NaN,-1.765641,1.864396E-05,-0.02889067,5.725203E-08,NaN,NaN,-0.1261201,2.747394E-10,-1.5611E-07,-1.117456E-07,-1.133069E-08,-2.861022E-08
621.8488,-0.0142925,-5.574675E-09,NaN,-0.8458248,-1.33636E-07,NaN,-1.570491,-3.765452E-07,NaN,-1.758108,1.864442E-05,-0.03795352,5.828361E-08,NaN,NaN,-0.1268815,2.747394E-10,-1.475046E-07,-1.117432E-07,-1.133069E-08,-2.622604E-08
621.8646,-0.01430111,-5.573882E-09,NaN,-0.844545,-1.336344E-07,NaN,-1.570467,-3.776797E-07,NaN,-1.750607,1.864488E-05,-0.04682909,5.9419E-08,NaN,NaN,-0.1276281,2.654262E-10,-1.396815E-07,-1.117405E-07,-8.946509E-09,-2.861022E-08
621.8803,-0.01430945,-5.57309E-09,NaN,-0.8432684,-1.336325E-07,NaN,-1.570403,-3.788623E-07,NaN,-1.743177,1.864533E-05,-0.0555084,6.060259E-08,NaN,NaN,-0.1283591,2.700828E-10,-1.282821E-07,-1.117377E-07,-8.946509E-09,-2.622604E-08
621.8959,-0.01430945,-5.57309E-09,NaN,-0.8432684,-1.336325E-07,NaN,-1.570403,-3.788623E-07,NaN,-1.743177,1.864533E-05,-0.0555084,6.060259E-08,NaN,NaN,-0.1283591,2.700828E-10,-1.282821E-07,-1.117377E-07,-8.946509E-09,-2.622604E-08
621.9108,-0.01431764,-5.572297E-09,NaN,-0.8419995,-1.336306E-07,NaN,-1.570341,-3.811525E-07,NaN,-1.735834,1.864578E-05,-0.06399654,6.289397E-08,NaN,NaN,-0.1290757,2.654262E-10,-1.167337E-07,-1.117345E-07,-6.562324E-09,-2.861022E-08
621.9274,-0.01432574,-5.571505E-09,NaN,-0.840741,-1.336289E-07,NaN,-1.570298,-3.821482E-07,NaN,-1.728587,1.864623E-05,-0.0723037,6.389082E-08,NaN,NaN,-0.1297783,2.654262E-10,-1.043657E-07,-1.117305E-07,-4.178138E-09,-2.622604E-08
621.9431,-0.01433378,-5.570713E-09,NaN,-0.8394946,-1.336271E-07,NaN,-1.570273,-3.831495E-07,NaN,-1.721439,1.86467E-05,-0.08043935,6.489346E-08,NaN,NaN,-0.1304671,2.514564E-10,-9.169976E-08,-1.117265E-07,-6.562324E-09,-2.861022E-08
621.959,-0.01433378,-5.570713E-09,NaN,-0.8394946,-1.336271E-07,NaN,-1.570273,-3.831495E-07,NaN,-1.721439,1.86467E-05,-0.08043935,6.489346E-08,NaN,NaN,-0.1304671,2.514564E-10,-9.169976E-08,-1.117265E-07,-6.562324E-09,-2.861022E-08
621.9739,-0.01434159,-5.569921E-09,NaN,-0.8383305,-1.336253E-07,NaN,-1.570135,-3.841452E-07,NaN,-1.714965,1.864715E-05,-0.08685346,6.589047E-08,NaN,NaN,-0.1310131,2.514564E-10,-8.506874E-08,-1.117224E-07,-1.793952E-09,-2.622604E-08
621.9902,-0.01434913,-5.569129E-09,NaN,-0.8372224,-1.336234E-07,NaN,-1.570078,-3.851268E-07,NaN,-1.708865,1.864761E-05,-0.09314068,6.687351E-08,NaN,NaN,-0.1315484,2.467998E-10,-7.501045E-08,-1.117183E-07,2.974419E-09,-2.861022E-08
622.006,-0.01435645,-5.568337E-09,NaN,-0.8361539,-1.336216E-07,NaN,-1.570042,-3.860891E-07,NaN,-1.702995,1.864806E-05,-0.09930948,6.783721E-08,NaN,NaN,-0.1320732,2.467998E-10,-6.450514E-08,-1.117142E-07,-1.793952E-09,-2.622604E-08
622.0216,-0.01436357,-5.567546E-09,NaN,-0.8351145,-1.336197E-07,NaN,-1.570011,-3.870325E-07,NaN,-1.697283,1.864852E-05,-0.1053573,6.878196E-08,NaN,NaN,-0.1325877,2.421432E-10,-5.37763E-08,-1.117102E-07,5.902336E-10,-2.861022E-08
622.0374,-0.01436357,-5.567546E-09,NaN,-0.8351145,-1.336197E-07,NaN,-1.570011,-3.870325E-07,NaN,-1.697283,1.864852E-05,-0.1053573,6.878196E-08,NaN,NaN,-0.1325877,2.421432E-10,-5.37763E-08,-1.117102E-07,5.902336E-10,-2.861022E-08
622.0522,-0.01437035,-5.566755E-09,NaN,-0.8341671,-1.336178E-07,NaN,-1.569881,-3.879543E-07,NaN,-1.692263,1.864897E-05,-0.109735,6.970529E-08,NaN,NaN,-0.1329629,2.421432E-10,-5.183915E-08,-1.117061E-07,5.902336E-10,-2.622604E-08
622.069,-0.01437678,-5.565963E-09,NaN,-0.8332806,-1.336159E-07,NaN,-1.569797,-3.888553E-07,NaN,-1.687618,1.864942E-05,-0.1140317,7.06077E-08,NaN,NaN,-0.1333307,2.421432E-10,-4.721979E-08,-1.11702E-07,-4.178138E-09,-2.861022E-08
622.0847,-0.01438292,-5.565172E-09,NaN,-0.8324358,-1.33614E-07,NaN,-1.569732,-3.897356E-07,NaN,-1.683192,1.864988E-05,-0.1182471,7.148952E-08,NaN,NaN,-0.1336913,2.421432E-10,-4.140834E-08,-1.11698E-07,-6.562324E-09,-2.622604E-08
622.1005,-0.01438881,-5.564381E-09,NaN,-0.8316204,-1.336121E-07,NaN,-1.569673,-3.905929E-07,NaN,-1.678909,1.865034E-05,-0.1223802,7.234836E-08,NaN,NaN,-0.1340448,2.374866E-10,-3.544788E-08,-1.11694E-07,-1.133069E-08,-2.861022E-08
622.1163,-0.01438881,-5.564381E-09,NaN,-0.8316204,-1.336121E-07,NaN,-1.569673,-3.905929E-07,NaN,-1.678909,1.865034E-05,-0.1223802,7.234836E-08,NaN,NaN,-0.1340448,2.374866E-10,-3.544788E-08,-1.11694E-07,-1.133069E-08,-2.861022E-08
622.131,-0.01439434,-5.56359E-09,NaN,-0.8308961,-1.336102E-07,NaN,-1.569536,-3.914305E-07,NaN,-1.6753,1.86508E-05,-0.1248876,7.318747E-08,NaN,NaN,-0.1342621,2.374866E-10,-3.723601E-08,-1.1169E-07,-1.609907E-08,-2.622604E-08
622.1475,-0.01439948,-5.562799E-09,NaN,-0.8302314,-1.336084E-07,NaN,-1.569438,-3.922459E-07,NaN,-1.672047,1.865126E-05,-0.1273495,7.400442E-08,NaN,NaN,-0.1344751,2.328299E-10,-3.678898E-08,-1.11686E-07,-1.371488E-08,-2.861022E-08
622.1633,-0.01440432,-5.562009E-09,NaN,-0.8296063,-1.336065E-07,NaN,-1.569357,-3.930396E-07,NaN,-1.668994,1.865171E-05,-0.1297655,7.479964E-08,NaN,NaN,-0.134684,2.328299E-10,-3.514985E-08,-1.11682E-07,-1.609907E-08,-2.622604E-08
622.18,-0.01440891,-5.561218E-09,NaN,-0.8290085,-1.336046E-07,NaN,-1.569283,-3.938149E-07,NaN,-1.666064,1.865217E-05,-0.1321345,7.557639E-08,NaN,NaN,-0.1348888,2.281733E-10,-3.32127E-08,-1.11678E-07,-1.133069E-08,-2.861022E-08
622.1951,-0.01440891,-5.561218E-09,NaN,-0.8290085,-1.336046E-07,NaN,-1.569283,-3.938149E-07,NaN,-1.666064,1.865217E-05,-0.1321345,7.557639E-08,NaN,NaN,-0.1348888,2.281733E-10,-3.32127E-08,-1.11678E-07,-1.133069E-08,-2.861022E-08
622.2099,-0.01441312,-5.560428E-09,NaN,-0.8284996,-1.336028E-07,NaN,-1.569146,-3.945692E-07,NaN,-1.66379,1.865263E-05,-0.1329172,7.633221E-08,NaN,NaN,-0.1349603,2.281733E-10,-3.991822E-08,-1.11674E-07,-8.946508E-09,-2.622604E-08
622.2265,-0.01441695,-5.559638E-09,NaN,-0.8280476,-1.336009E-07,NaN,-1.569041,-3.953057E-07,NaN,-1.661852,1.865309E-05,-0.1336872,7.707033E-08,NaN,NaN,-0.1350304,2.235167E-10,-4.379253E-08,-1.116701E-07,-8.946508E-09,-2.861022E-08
622.2421,-0.01442047,-5.558848E-09,NaN,-0.827633,-1.335991E-07,NaN,-1.568951,-3.960221E-07,NaN,-1.660095,1.865355E-05,-0.1344436,7.778827E-08,NaN,NaN,-0.1350991,2.235167E-10,-4.647474E-08,-1.116661E-07,-1.79395E-09,-2.622604E-08
622.2582,-0.01442047,-5.558848E-09,NaN,-0.827633,-1.335991E-07,NaN,-1.568951,-3.960221E-07,NaN,-1.660095,1.865355E-05,-0.1344436,7.778827E-08,NaN,NaN,-0.1350991,2.235167E-10,-4.647474E-08,-1.116661E-07,-1.79395E-09,-2.622604E-08
622.2729,-0.01442354,-5.558058E-09,NaN,-0.8273125,-1.335972E-07,NaN,-1.568807,-3.967187E-07,NaN,-1.659014,1.865401E-05,-0.1336478,7.848643E-08,NaN,NaN,-0.1350373,2.188601E-10,-5.779962E-08,-1.116622E-07,-4.178136E-09,-2.861022E-08
622.2895,-0.0144262,-5.557268E-09,NaN,-0.8270516,-1.335954E-07,NaN,-1.568694,-3.973988E-07,NaN,-1.658272,1.865447E-05,-0.1328694,7.916802E-08,NaN,NaN,-0.1349766,2.142035E-10,-6.584624E-08,-1.116583E-07,-4.178136E-09,-2.622604E-08
622.3051,-0.0144285,-5.556478E-09,NaN,-0.8268285,-1.335936E-07,NaN,-1.568594,-3.980598E-07,NaN,-1.657703,1.865493E-05,-0.1321075,7.983054E-08,NaN,NaN,-0.1349172,2.095469E-10,-7.135967E-08,-1.116544E-07,-4.178136E-09,-2.861022E-08
622.3209,-0.01443054,-5.555688E-09,NaN,-0.8266299,-1.335917E-07,NaN,-1.568501,-3.987049E-07,NaN,-1.657225,1.865538E-05,-0.1313607,8.047718E-08,NaN,NaN,-0.1348588,2.095469E-10,-7.68731E-08,-1.116505E-07,-8.946508E-09,-2.622604E-08
622.338,-0.01443054,-5.555688E-09,NaN,-0.8266299,-1.335917E-07,NaN,-1.568501,-3.987049E-07,NaN,-1.657225,1.865538E-05,-0.1313607,8.047718E-08,NaN,NaN,-0.1348588,2.095469E-10,-7.68731E-08,-1.116505E-07,-8.946508E-09,-2.622604E-08
622.3516,-0.01443219,-5.554899E-09,NaN,-0.8265164,-1.335899E-07,NaN,-1.568353,-3.988698E-07,NaN,-1.65737,1.865584E-05,-0.129091,8.064365E-08,NaN,NaN,-0.1346724,2.142035E-10,-9.177426E-08,-1.116501E-07,-1.133069E-08,-2.622604E-08
622.3682,-0.01443344,-5.554111E-09,NaN,-0.8264561,-1.335889E-07,NaN,-1.568232,-3.987409E-07,NaN,-1.657817,1.865629E-05,-0.1268668,8.051628E-08,NaN,NaN,-0.1344896,2.281734E-10,-1.021306E-07,-1.116504E-07,-1.609907E-08,-2.622604E-08
622.3834,-0.01443443,-5.553322E-09,NaN,-0.8264289,-1.335885E-07,NaN,-1.568122,-3.984565E-07,NaN,-1.658411,1.865675E-05,-0.1246868,8.023338E-08,NaN,NaN,-0.1343104,2.421432E-10,-1.106242E-07,-1.116511E-07,-1.609907E-08,-2.622604E-08
622.3994,-0.01443443,-5.553322E-09,NaN,-0.8264289,-1.335885E-07,NaN,-1.568122,-3.984565E-07,NaN,-1.658411,1.865675E-05,-0.1246868,8.023338E-08,NaN,NaN,-0.1343104,2.421432E-10,-1.106242E-07,-1.116511E-07,-1.609907E-08,-2.622604E-08
622.4142,-0.0144353,-5.552533E-09,NaN,-0.8264222,-1.335884E-07,NaN,-1.568017,-3.98549E-07,NaN,-1.659074,1.865721E-05,-0.1225495,8.03275E-08,NaN,NaN,-0.1341347,2.514564E-10,-1.177023E-07,-1.116485E-07,-1.371488E-08,-2.861022E-08
622.431,-0.01443597,-5.551744E-09,NaN,-0.8264959,-1.335876E-07,NaN,-1.567855,-3.988739E-07,NaN,-1.660342,1.865767E-05,-0.1189148,8.065382E-08,NaN,NaN,-0.1338332,2.607696E-10,-1.333485E-07,-1.116454E-07,-1.371488E-08,-2.622604E-08
622.4466,-0.01443651,-5.550956E-09,NaN,-0.8266189,-1.335865E-07,NaN,-1.567717,-3.988545E-07,NaN,-1.661894,1.865813E-05,-0.1153519,8.063599E-08,NaN,NaN,-0.1335376,2.700828E-10,-1.453439E-07,-1.116454E-07,-1.133069E-08,-2.622604E-08
622.4624,-0.01443697,-5.550167E-09,NaN,-0.8267718,-1.335859E-07,NaN,-1.56759,-3.986154E-07,NaN,-1.663576,1.865858E-05,-0.1118591,8.039842E-08,NaN,NaN,-0.1332478,2.840527E-10,-1.551787E-07,-1.116459E-07,-1.848325E-08,-2.622604E-08
622.4782,-0.01443697,-5.550167E-09,NaN,-0.8267718,-1.335859E-07,NaN,-1.56759,-3.986154E-07,NaN,-1.663576,1.865858E-05,-0.1118591,8.039842E-08,NaN,NaN,-0.1332478,2.840527E-10,-1.551787E-07,-1.116459E-07,-1.848325E-08,-2.622604E-08
622.4932,-0.01443738,-5.54938E-09,NaN,-0.8269424,-1.335856E-07,NaN,-1.567467,-3.982653E-07,NaN,-1.66531,1.865904E-05,-0.1084343,8.004981E-08,NaN,NaN,-0.1329637,2.933659E-10,-1.638959E-07,-1.116468E-07,-1.133069E-08,-2.622604E-08
622.5102,-0.01443763,-5.548591E-09,NaN,-0.8271925,-1.335857E-07,NaN,-1.56728,-3.983217E-07,NaN,-1.667632,1.865951E-05,-0.1035341,8.010772E-08,NaN,NaN,-0.1325558,2.980225E-10,-1.818518E-07,-1.116443E-07,-1.133069E-08,-2.861022E-08
622.5256,-0.01443776,-5.547803E-09,NaN,-0.8274906,-1.33585E-07,NaN,-1.567118,-3.986251E-07,NaN,-1.670222,1.865998E-05,-0.09873027,8.041265E-08,NaN,NaN,-0.132156,2.980225E-10,-1.945178E-07,-1.116412E-07,-1.133069E-08,-2.622604E-08
622.5414,-0.01443782,-5.547015E-09,NaN,-0.8278168,-1.335839E-07,NaN,-1.566966,-3.985932E-07,NaN,-1.672927,1.866044E-05,-0.09402068,8.038229E-08,NaN,NaN,-0.1317639,3.119923E-10,-2.050976E-07,-1.116413E-07,-1.371488E-08,-2.622604E-08
622.5575,-0.01443782,-5.547015E-09,NaN,-0.8278168,-1.335839E-07,NaN,-1.566966,-3.985932E-07,NaN,-1.672927,1.866044E-05,-0.09402068,8.038229E-08,NaN,NaN,-0.1317639,3.119923E-10,-2.050976E-07,-1.116413E-07,-1.371488E-08,-2.622604E-08
622.5727,-0.01443782,-5.546227E-09,NaN,-0.8281591,-1.335833E-07,NaN,-1.566818,-3.983475E-07,NaN,-1.675669,1.86609E-05,-0.08940266,8.013809E-08,NaN,NaN,-0.1313796,3.213055E-10,-2.151559E-07,-1.116419E-07,-1.133069E-08,-2.622604E-08
622.589,-0.01443766,-5.545439E-09,NaN,-0.8285789,-1.335831E-07,NaN,-1.566595,-3.984584E-07,NaN,-1.678984,1.866136E-05,-0.08332749,8.025043E-08,NaN,NaN,-0.1308735,3.259621E-10,-2.313237E-07,-1.116393E-07,-4.178137E-09,-2.861022E-08
622.6044,-0.01443739,-5.544651E-09,NaN,-0.8290448,-1.335823E-07,NaN,-1.566398,-3.987926E-07,NaN,-1.682552,1.866183E-05,-0.07737198,8.058616E-08,NaN,NaN,-0.1303773,3.259621E-10,-2.438406E-07,-1.116361E-07,-1.793952E-09,-2.622604E-08
622.6202,-0.01443703,-5.543863E-09,NaN,-0.829537,-1.335811E-07,NaN,-1.566212,-3.987711E-07,NaN,-1.686221,1.866229E-05,-0.07153329,8.056624E-08,NaN,NaN,-0.1298908,3.352754E-10,-2.545694E-07,-1.116361E-07,-1.793952E-09,-2.622604E-08
622.6362,-0.01443703,-5.543863E-09,NaN,-0.829537,-1.335811E-07,NaN,-1.566212,-3.987711E-07,NaN,-1.686221,1.866229E-05,-0.07153329,8.056624E-08,NaN,NaN,-0.1298908,3.352754E-10,-2.545694E-07,-1.116361E-07,-1.793952E-09,-2.622604E-08
622.6509,-0.01443663,-5.543076E-09,NaN,-0.8300433,-1.335805E-07,NaN,-1.566031,-3.985272E-07,NaN,-1.689914,1.866275E-05,-0.06580797,8.032381E-08,NaN,NaN,-0.1294138,3.445886E-10,-2.636592E-07,-1.116367E-07,-1.793952E-09,-2.622604E-08
622.6678,-0.01443606,-5.542288E-09,NaN,-0.8306252,-1.335803E-07,NaN,-1.565758,-3.986369E-07,NaN,-1.694165,1.866322E-05,-0.05864088,8.043509E-08,NaN,NaN,-0.1288169,3.39932E-10,-2.775172E-07,-1.116342E-07,-6.562323E-09,-2.861022E-08
622.6834,-0.01443538,-5.541501E-09,NaN,-0.8312512,-1.335795E-07,NaN,-1.565516,-3.984998E-07,NaN,-1.698656,1.866368E-05,-0.05161516,8.029946E-08,NaN,NaN,-0.1282317,3.39932E-10,-2.873893E-07,-1.116344E-07,-1.371488E-08,-2.861022E-08
622.6996,-0.01443538,-5.541501E-09,NaN,-0.8312512,-1.335795E-07,NaN,-1.565516,-3.984998E-07,NaN,-1.698656,1.866368E-05,-0.05161516,8.029946E-08,NaN,NaN,-0.1282317,3.39932E-10,-2.873893E-07,-1.116344E-07,-1.371488E-08,-2.861022E-08
622.7144,-0.01443461,-5.540713E-09,NaN,-0.8319016,-1.335792E-07,NaN,-1.565286,-3.986578E-07,NaN,-1.703234,1.866415E-05,-0.04472756,8.045904E-08,NaN,NaN,-0.127658,3.352754E-10,-2.965162E-07,-1.116317E-07,-1.371488E-08,-2.622604E-08
622.7305,-0.0144338,-5.539926E-09,NaN,-0.8325642,-1.335783E-07,NaN,-1.565061,-3.985483E-07,NaN,-1.707823,1.866461E-05,-0.03797371,8.035101E-08,NaN,NaN,-0.1270955,3.445886E-10,-3.041158E-07,-1.11632E-07,-1.371488E-08,-2.622604E-08
622.7467,-0.01443282,-5.539139E-09,NaN,-0.8333005,-1.335779E-07,NaN,-1.564725,-3.987194E-07,NaN,-1.712958,1.866507E-05,-0.02979103,8.052356E-08,NaN,NaN,-0.1264148,3.39932E-10,-3.151241E-07,-1.116293E-07,-2.086744E-08,-2.861022E-08
622.7625,-0.01443172,-5.538352E-09,NaN,-0.8340791,-1.335769E-07,NaN,-1.564426,-3.98614E-07,NaN,-1.718319,1.866554E-05,-0.0217698,8.041977E-08,NaN,NaN,-0.1257474,3.39932E-10,-3.229099E-07,-1.116295E-07,-1.848325E-08,-2.861022E-08
622.7782,-0.01443172,-5.538352E-09,NaN,-0.8340791,-1.335769E-07,NaN,-1.564426,-3.98614E-07,NaN,-1.718319,1.866554E-05,-0.0217698,8.041977E-08,NaN,NaN,-0.1257474,3.39932E-10,-3.229099E-07,-1.116295E-07,-1.848325E-08,-2.861022E-08
622.7933,-0.01443054,-5.537565E-09,NaN,-0.8348804,-1.335765E-07,NaN,-1.564141,-3.983217E-07,NaN,-1.723756,1.8666E-05,-0.01390694,8.012898E-08,NaN,NaN,-0.125093,3.492452E-10,-3.289076E-07,-1.116302E-07,-1.371488E-08,-2.861022E-08
622.8099,-0.01442928,-5.536778E-09,NaN,-0.8356919,-1.335764E-07,NaN,-1.563862,-3.98401E-07,NaN,-1.729191,1.866646E-05,-0.006196963,8.020978E-08,NaN,NaN,-0.1244515,3.492452E-10,-3.333128E-07,-1.116277E-07,-1.133069E-08,-2.622604E-08
622.8271,-0.01442769,-5.535991E-09,NaN,-0.8365755,-1.335757E-07,NaN,-1.563448,-3.9871E-07,NaN,-1.73516,1.866691E-05,0.002930457,8.052023E-08,NaN,NaN,-0.1236933,3.492452E-10,-3.415922E-07,-1.116246E-07,-8.946509E-09,-2.861022E-08
622.8412,-0.01442578,-5.535205E-09,NaN,-0.8374996,-1.335745E-07,NaN,-1.56308,-3.986694E-07,NaN,-1.741345,1.866738E-05,0.01187824,8.048112E-08,NaN,NaN,-0.1229499,3.492452E-10,-3.456528E-07,-1.116247E-07,-1.133069E-08,-2.861022E-08
622.8569,-0.01442578,-5.535205E-09,NaN,-0.8374996,-1.335745E-07,NaN,-1.56308,-3.986694E-07,NaN,-1.741345,1.866738E-05,0.01187824,8.048112E-08,NaN,NaN,-0.1229499,3.492452E-10,-3.456528E-07,-1.116247E-07,-1.133069E-08,-2.861022E-08
622.8719,-0.01442359,-5.534418E-09,NaN,-0.8384445,-1.335739E-07,NaN,-1.56273,-3.984094E-07,NaN,-1.747592,1.866783E-05,0.02064814,8.02227E-08,NaN,NaN,-0.1222211,3.585584E-10,-3.47413E-07,-1.116253E-07,-8.946509E-09,-2.861022E-08
622.8885,-0.01442119,-5.533632E-09,NaN,-0.839398,-1.335738E-07,NaN,-1.562386,-3.985064E-07,NaN,-1.753827,1.86683E-05,0.02924697,8.032117E-08,NaN,NaN,-0.1215066,3.539018E-10,-3.483723E-07,-1.116228E-07,-8.946509E-09,-2.622604E-08
622.9044,-0.01442073,-5.532845E-09,NaN,-0.8395212,-1.33573E-07,NaN,-1.564014,-3.988214E-07,NaN,-1.75312,1.866875E-05,0.01880044,8.063764E-08,NaN,NaN,-0.1223577,3.539018E-10,-3.202836E-07,-1.116197E-07,-8.946509E-09,-2.861022E-08
622.9201,-0.01442163,-5.532059E-09,NaN,-0.839133,-1.335718E-07,NaN,-1.564855,-3.98781E-07,NaN,-1.749051,1.866921E-05,0.008633127,8.059879E-08,NaN,NaN,-0.1231921,3.63215E-10,-3.076921E-07,-1.116197E-07,-8.946509E-09,-2.861022E-08
622.936,-0.01442163,-5.532059E-09,NaN,-0.839133,-1.335718E-07,NaN,-1.564855,-3.98781E-07,NaN,-1.749051,1.866921E-05,0.008633127,8.059879E-08,NaN,NaN,-0.1231921,3.63215E-10,-3.076921E-07,-1.116197E-07,-8.946509E-09,-2.861022E-08
622.9506,-0.01442356,-5.531273E-09,NaN,-0.8384309,-1.335712E-07,NaN,-1.565323,-3.985185E-07,NaN,-1.743348,1.866966E-05,-0.001208431,8.033781E-08,NaN,NaN,-0.1240101,3.725282E-10,-2.925302E-07,-1.116204E-07,-8.946509E-09,-2.861022E-08
622.9671,-0.01442666,-5.530487E-09,NaN,-0.8375383,-1.335706E-07,NaN,-1.565614,-3.988104E-07,NaN,-1.736872,1.867012E-05,-0.01079758,8.06312E-08,NaN,NaN,-0.124812,3.725282E-10,-2.772937E-07,-1.116188E-07,-1.133069E-08,-2.622604E-08
622.9826,-0.0144306,-5.529702E-09,NaN,-0.8366013,-1.335699E-07,NaN,-1.565672,-3.986233E-07,NaN,-1.730625,1.867059E-05,-0.01860206,8.044561E-08,NaN,NaN,-0.1254689,3.725282E-10,-2.663414E-07,-1.116192E-07,-6.562323E-09,-2.622604E-08
622.9985,-0.0144306,-5.529702E-09,NaN,-0.8366013,-1.335699E-07,NaN,-1.565672,-3.986233E-07,NaN,-1.730625,1.867059E-05,-0.01860206,8.044561E-08,NaN,NaN,-0.1254689,3.725282E-10,-2.663414E-07,-1.116192E-07,-6.562323E-09,-2.622604E-08
623.0134,-0.01443513,-5.528916E-09,NaN,-0.8356411,-1.335696E-07,NaN,-1.565753,-3.982818E-07,NaN,-1.724525,1.867105E-05,-0.0262489,8.010563E-08,NaN,NaN,-0.1261128,3.818414E-10,-2.551282E-07,-1.1162E-07,-4.178137E-09,-2.622604E-08
623.0302,-0.01444005,-5.52813E-09,NaN,-0.834671,-1.335692E-07,NaN,-1.565837,-3.985301E-07,NaN,-1.718537,1.867151E-05,-0.03374659,8.035544E-08,NaN,NaN,-0.1267442,3.818414E-10,-2.441014E-07,-1.116186E-07,-1.793952E-09,-2.861022E-08
623.046,-0.01444524,-5.527344E-09,NaN,-0.833699,-1.335681E-07,NaN,-1.565916,-3.98985E-07,NaN,-1.712645,1.867196E-05,-0.04109525,8.081184E-08,NaN,NaN,-0.1273632,3.818414E-10,-2.314727E-07,-1.116166E-07,-1.793952E-09,-2.622604E-08
623.0616,-0.01445043,-5.526559E-09,NaN,-0.8327995,-1.335671E-07,NaN,-1.565868,-3.988787E-07,NaN,-1.707416,1.867242E-05,-0.04673673,8.070705E-08,NaN,NaN,-0.1278407,3.771848E-10,-2.250652E-07,-1.116168E-07,5.902341E-10,-2.622604E-08
623.0773,-0.01445043,-5.526559E-09,NaN,-0.8327995,-1.335671E-07,NaN,-1.565868,-3.988787E-07,NaN,-1.707416,1.867242E-05,-0.04673673,8.070705E-08,NaN,NaN,-0.1278407,3.771848E-10,-2.250652E-07,-1.116168E-07,5.902341E-10,-2.622604E-08
623.0924,-0.01445552,-5.525774E-09,NaN,-0.8319488,-1.335666E-07,NaN,-1.565871,-3.985797E-07,NaN,-1.702546,1.867288E-05,-0.05227458,8.040963E-08,NaN,NaN,-0.1283089,3.818414E-10,-2.17391E-07,-1.116175E-07,-1.793952E-09,-2.622604E-08
623.1089,-0.01446048,-5.524988E-09,NaN,-0.8311319,-1.335665E-07,NaN,-1.565891,-3.981822E-07,NaN,-1.697889,1.867334E-05,-0.05770847,8.001361E-08,NaN,NaN,-0.1287678,3.864981E-10,-2.095679E-07,-1.116185E-07,-8.946509E-09,-2.622604E-08
623.1247,-0.01446532,-5.524203E-09,NaN,-0.8303397,-1.335668E-07,NaN,-1.565917,-3.978832E-07,NaN,-1.693373,1.867382E-05,-0.06303645,7.971607E-08,NaN,NaN,-0.1292178,3.771848E-10,-2.012978E-07,-1.116178E-07,-6.562324E-09,-2.861022E-08
623.1406,-0.01446989,-5.523418E-09,NaN,-0.8296355,-1.335668E-07,NaN,-1.565844,-3.976914E-07,NaN,-1.689531,1.86743E-05,-0.06670537,7.952584E-08,NaN,NaN,-0.1295297,3.771848E-10,-1.993606E-07,-1.116168E-07,-1.793952E-09,-2.622604E-08
623.1567,-0.01446989,-5.523418E-09,NaN,-0.8296355,-1.335668E-07,NaN,-1.565844,-3.976914E-07,NaN,-1.689531,1.86743E-05,-0.06670537,7.952584E-08,NaN,NaN,-0.1295297,3.771848E-10,-1.993606E-07,-1.116168E-07,-1.793952E-09,-2.622604E-08
623.1716,-0.01447415,-5.522632E-09,NaN,-0.8289888,-1.335666E-07,NaN,-1.565816,-3.975541E-07,NaN,-1.686048,1.867478E-05,-0.0703091,7.939003E-08,NaN,NaN,-0.1298354,3.678716E-10,-1.954118E-07,-1.116158E-07,-4.178138E-09,-2.861022E-08
623.1879,-0.01447814,-5.521847E-09,NaN,-0.8283804,-1.335663E-07,NaN,-1.565806,-3.974476E-07,NaN,-1.682767,1.867525E-05,-0.07384618,7.928502E-08,NaN,NaN,-0.1301351,3.678716E-10,-1.910905E-07,-1.116146E-07,-8.946509E-09,-2.622604E-08
623.2035,-0.01448193,-5.521061E-09,NaN,-0.8277984,-1.335659E-07,NaN,-1.565802,-3.9736E-07,NaN,-1.679612,1.867574E-05,-0.07731495,7.919892E-08,NaN,NaN,-0.130429,3.585584E-10,-1.858751E-07,-1.116135E-07,-6.562324E-09,-2.861022E-08
623.2192,-0.01448193,-5.521061E-09,NaN,-0.8277984,-1.335659E-07,NaN,-1.565802,-3.9736E-07,NaN,-1.679612,1.867574E-05,-0.07731495,7.919892E-08,NaN,NaN,-0.130429,3.585584E-10,-1.858751E-07,-1.116135E-07,-6.562324E-09,-2.861022E-08
623.2344,-0.01448538,-5.520275E-09,NaN,-0.8273047,-1.335655E-07,NaN,-1.565717,-3.972825E-07,NaN,-1.677116,1.867621E-05,-0.07916661,7.91229E-08,NaN,NaN,-0.1305878,3.585584E-10,-1.885573E-07,-1.116123E-07,-8.946509E-09,-2.622604E-08
623.2504,-0.01448848,-5.51949E-09,NaN,-0.8268675,-1.335651E-07,NaN,-1.565671,-3.97212E-07,NaN,-1.674959,1.86767E-05,-0.08098765,7.905394E-08,NaN,NaN,-0.1307435,3.492452E-10,-1.884083E-07,-1.116111E-07,-1.371488E-08,-2.861022E-08
623.2664,-0.01449128,-5.518704E-09,NaN,-0.8264673,-1.335646E-07,NaN,-1.565642,-3.971428E-07,NaN,-1.672987,1.867717E-05,-0.08277632,7.898625E-08,NaN,NaN,-0.1308961,3.539018E-10,-1.873652E-07,-1.116099E-07,-1.371488E-08,-2.622604E-08
623.2822,-0.01449387,-5.517919E-09,NaN,-0.8260916,-1.335642E-07,NaN,-1.565619,-3.970777E-07,NaN,-1.671122,1.867765E-05,-0.08453105,7.892265E-08,NaN,NaN,-0.1310457,3.445886E-10,-1.855026E-07,-1.116087E-07,-8.946509E-09,-2.861022E-08
623.2983,-0.01449387,-5.517919E-09,NaN,-0.8260916,-1.335642E-07,NaN,-1.565619,-3.970777E-07,NaN,-1.671122,1.867765E-05,-0.08453105,7.892265E-08,NaN,NaN,-0.1310457,3.445886E-10,-1.855026E-07,-1.116087E-07,-8.946509E-09,-2.861022E-08
623.3129,-0.0144961,-5.517133E-09,NaN,-0.8258021,-1.335638E-07,NaN,-1.565524,-3.970137E-07,NaN,-1.669897,1.867813E-05,-0.08470549,7.886022E-08,NaN,NaN,-0.1310631,3.445886E-10,-1.91761E-07,-1.116075E-07,-1.133069E-08,-2.622604E-08
623.3304,-0.01449797,-5.516347E-09,NaN,-0.8255671,-1.335633E-07,NaN,-1.565464,-3.969481E-07,NaN,-1.668994,1.867861E-05,-0.08488116,7.879612E-08,NaN,NaN,-0.1310802,3.352754E-10,-1.951138E-07,-1.116063E-07,-1.133069E-08,-2.861022E-08
623.3447,-0.01449956,-5.515562E-09,NaN,-0.8253667,-1.335629E-07,NaN,-1.565419,-3.968837E-07,NaN,-1.668257,1.867909E-05,-0.08505613,7.87332E-08,NaN,NaN,-0.1310969,3.352754E-10,-1.97051E-07,-1.116051E-07,-1.609907E-08,-2.622604E-08
623.3604,-0.01450091,-5.514776E-09,NaN,-0.8251886,-1.335624E-07,NaN,-1.565381,-3.968204E-07,NaN,-1.667608,1.867957E-05,-0.08522871,7.867145E-08,NaN,NaN,-0.1311133,3.259621E-10,-1.985411E-07,-1.116039E-07,-1.371488E-08,-2.861022E-08
623.3762,-0.01450091,-5.514776E-09,NaN,-0.8251886,-1.335624E-07,NaN,-1.565381,-3.968204E-07,NaN,-1.667608,1.867957E-05,-0.08522871,7.867145E-08,NaN,NaN,-0.1311133,3.259621E-10,-1.985411E-07,-1.116039E-07,-1.371488E-08,-2.861022E-08
623.3912,-0.01450193,-5.513991E-09,NaN,-0.8250944,-1.33562E-07,NaN,-1.565275,-3.967555E-07,NaN,-1.667583,1.868004E-05,-0.08385305,7.860801E-08,NaN,NaN,-0.131,3.259621E-10,-2.072583E-07,-1.116027E-07,-1.133069E-08,-2.622604E-08
623.4075,-0.01450277,-5.513205E-09,NaN,-0.8250523,-1.335616E-07,NaN,-1.5652,-3.966917E-07,NaN,-1.667861,1.868053E-05,-0.08250817,7.854575E-08,NaN,NaN,-0.130889,3.166489E-10,-2.129952E-07,-1.116015E-07,-1.371488E-08,-2.861022E-08
623.4232,-0.01450348,-5.512419E-09,NaN,-0.8250427,-1.335611E-07,NaN,-1.565138,-3.966263E-07,NaN,-1.668288,1.8681E-05,-0.08119188,7.848182E-08,NaN,NaN,-0.1307801,3.213055E-10,-2.173911E-07,-1.116003E-07,-1.371488E-08,-2.622604E-08
623.4389,-0.01450348,-5.512419E-09,NaN,-0.8250427,-1.335611E-07,NaN,-1.565138,-3.966263E-07,NaN,-1.668288,1.8681E-05,-0.08119188,7.848182E-08,NaN,NaN,-0.1307801,3.213055E-10,-2.173911E-07,-1.116003E-07,-1.371488E-08,-2.622604E-08
623.4537,-0.01450402,-5.511633E-09,NaN,-0.8251207,-1.335607E-07,NaN,-1.565011,-3.96562E-07,NaN,-1.66936,1.868148E-05,-0.07835634,7.841907E-08,NaN,NaN,-0.1305441,3.119923E-10,-2.279709E-07,-1.115991E-07,-1.848325E-08,-2.861022E-08
623.47,-0.01450442,-5.510847E-09,NaN,-0.8252526,-1.335602E-07,NaN,-1.564914,-3.964961E-07,NaN,-1.67074,1.868196E-05,-0.07557981,7.835465E-08,NaN,NaN,-0.1303127,3.119923E-10,-2.35943E-07,-1.11598E-07,-1.848325E-08,-2.622604E-08
623.4857,-0.01450475,-5.510061E-09,NaN,-0.8254171,-1.335598E-07,NaN,-1.564831,-3.964313E-07,NaN,-1.672262,1.868244E-05,-0.07285962,7.829143E-08,NaN,NaN,-0.1300858,3.026791E-10,-2.426485E-07,-1.115968E-07,-1.609907E-08,-2.861022E-08
623.5017,-0.01450502,-5.509275E-09,NaN,-0.825601,-1.335594E-07,NaN,-1.564754,-3.963649E-07,NaN,-1.673845,1.868292E-05,-0.07019325,7.822655E-08,NaN,NaN,-0.1298634,3.026791E-10,-2.48311E-07,-1.115956E-07,-1.848325E-08,-2.622604E-08
623.5172,-0.01450502,-5.509275E-09,NaN,-0.825601,-1.335594E-07,NaN,-1.564754,-3.963649E-07,NaN,-1.673845,1.868292E-05,-0.07019325,7.822655E-08,NaN,NaN,-0.1298634,3.026791E-10,-2.48311E-07,-1.115956E-07,-1.848325E-08,-2.622604E-08
623.5326,-0.01450514,-5.508489E-09,NaN,-0.8258653,-1.335589E-07,NaN,-1.564601,-3.962997E-07,NaN,-1.676021,1.86834E-05,-0.06603075,7.816287E-08,NaN,NaN,-0.129516,2.933659E-10,-2.599339E-07,-1.115945E-07,-2.325162E-08,-2.861022E-08
623.5493,-0.01450514,-5.507703E-09,NaN,-0.8261781,-1.335585E-07,NaN,-1.564478,-3.962357E-07,NaN,-1.678468,1.868388E-05,-0.06195282,7.810037E-08,NaN,NaN,-0.1291754,2.933659E-10,-2.688746E-07,-1.115933E-07,-2.325162E-08,-2.622604E-08
623.5647,-0.01450506,-5.506917E-09,NaN,-0.8265194,-1.33558E-07,NaN,-1.564368,-3.9617E-07,NaN,-1.681034,1.868436E-05,-0.05795645,7.80362E-08,NaN,NaN,-0.1288415,2.840527E-10,-2.758036E-07,-1.115922E-07,-2.086744E-08,-2.861022E-08
623.58,-0.01450494,-5.506131E-09,NaN,-0.8268768,-1.335576E-07,NaN,-1.564263,-3.961055E-07,NaN,-1.68364,1.868483E-05,-0.05403857,7.797322E-08,NaN,NaN,-0.1285141,2.840527E-10,-2.819131E-07,-1.11591E-07,-1.848325E-08,-2.622604E-08
623.596,-0.01450494,-5.506131E-09,NaN,-0.8268768,-1.335576E-07,NaN,-1.564263,-3.961055E-07,NaN,-1.68364,1.868483E-05,-0.05403857,7.797322E-08,NaN,NaN,-0.1285141,2.840527E-10,-2.819131E-07,-1.11591E-07,-1.848325E-08,-2.622604E-08
623.6109,-0.01450466,-5.505345E-09,NaN,-0.8273117,-1.335572E-07,NaN,-1.564072,-3.960394E-07,NaN,-1.686822,1.868532E-05,-0.04864471,7.790858E-08,NaN,NaN,-0.1280639,2.747395E-10,-2.940575E-07,-1.115899E-07,-2.325162E-08,-2.861022E-08
623.6272,-0.01450427,-5.504559E-09,NaN,-0.8277926,-1.335568E-07,NaN,-1.563913,-3.959745E-07,NaN,-1.69026,1.868579E-05,-0.04335954,7.784514E-08,NaN,NaN,-0.1276224,2.747395E-10,-3.021042E-07,-1.115887E-07,-2.563581E-08,-2.622604E-08
623.643,-0.01450379,-5.503773E-09,NaN,-0.8282997,-1.335563E-07,NaN,-1.563767,-3.959079E-07,NaN,-1.6938,1.868627E-05,-0.03817963,7.778004E-08,NaN,NaN,-0.1271896,2.747395E-10,-3.086979E-07,-1.115876E-07,-2.563581E-08,-2.861022E-08
623.6588,-0.01450379,-5.503773E-09,NaN,-0.8282997,-1.335563E-07,NaN,-1.563767,-3.959079E-07,NaN,-1.6938,1.868627E-05,-0.03817963,7.778004E-08,NaN,NaN,-0.1271896,2.747395E-10,-3.086979E-07,-1.115876E-07,-2.563581E-08,-2.861022E-08
623.6739,-0.01450327,-5.502987E-09,NaN,-0.8288207,-1.335559E-07,NaN,-1.563626,-3.958425E-07,NaN,-1.697367,1.868674E-05,-0.03310112,7.771616E-08,NaN,NaN,-0.1267653,2.747395E-10,-3.149937E-07,-1.115865E-07,-3.040418E-08,-2.622604E-08
623.6904,-0.0145026,-5.502201E-09,NaN,-0.8294172,-1.335555E-07,NaN,-1.563384,-3.957754E-07,NaN,-1.701496,1.868723E-05,-0.02656369,7.765063E-08,NaN,NaN,-0.1262199,2.654262E-10,-3.226492E-07,-1.115854E-07,-2.802E-08,-2.861022E-08
623.7061,-0.01450181,-5.501415E-09,NaN,-0.8300577,-1.33555E-07,NaN,-1.563178,-3.957096E-07,NaN,-1.705866,1.86877E-05,-0.02015748,7.758632E-08,NaN,NaN,-0.1256853,2.654262E-10,-3.29187E-07,-1.115842E-07,-2.802E-08,-2.622604E-08
623.7216,-0.01450094,-5.500629E-09,NaN,-0.8307224,-1.335546E-07,NaN,-1.562987,-3.956422E-07,NaN,-1.710325,1.868818E-05,-0.0138788,7.752038E-08,NaN,NaN,-0.1251611,2.56113E-10,-3.342255E-07,-1.115831E-07,-3.278837E-08,-2.861022E-08
623.7375,-0.01450094,-5.500629E-09,NaN,-0.8307224,-1.335546E-07,NaN,-1.562987,-3.956422E-07,NaN,-1.710325,1.868818E-05,-0.0138788,7.752038E-08,NaN,NaN,-0.1251611,2.56113E-10,-3.342255E-07,-1.115831E-07,-3.278837E-08,-2.861022E-08
623.7526,-0.01450002,-5.499843E-09,NaN,-0.8313991,-1.335542E-07,NaN,-1.562801,-3.955759E-07,NaN,-1.714798,1.868866E-05,-0.007722887,7.745565E-08,NaN,NaN,-0.1246472,2.56113E-10,-3.382302E-07,-1.11582E-07,-3.994093E-08,-2.622604E-08
623.7693,-0.01449896,-5.499057E-09,NaN,-0.8321494,-1.335538E-07,NaN,-1.562495,-3.955109E-07,NaN,-1.719819,1.868913E-05,-0.0001226491,7.739213E-08,NaN,NaN,-0.1240141,2.56113E-10,-3.455783E-07,-1.115809E-07,-3.994093E-08,-2.861022E-08
623.7849,-0.01449777,-5.498271E-09,NaN,-0.8329419,-1.335533E-07,NaN,-1.562231,-3.954442E-07,NaN,-1.725069,1.868961E-05,0.007325637,7.732696E-08,NaN,NaN,-0.1233933,2.56113E-10,-3.499206E-07,-1.115798E-07,-3.994093E-08,-2.622604E-08
623.8005,-0.01449644,-5.497485E-09,NaN,-0.8337567,-1.335529E-07,NaN,-1.561984,-3.953787E-07,NaN,-1.730396,1.869009E-05,0.01462523,7.7263E-08,NaN,NaN,-0.1227848,2.467998E-10,-3.531709E-07,-1.115787E-07,-3.994093E-08,-2.861022E-08
623.8175,-0.01449644,-5.497485E-09,NaN,-0.8337567,-1.335529E-07,NaN,-1.561984,-3.953787E-07,NaN,-1.730396,1.869009E-05,0.01462523,7.7263E-08,NaN,NaN,-0.1227848,2.467998E-10,-3.531709E-07,-1.115787E-07,-3.994093E-08,-2.861022E-08
623.8314,-0.01449494,-5.496699E-09,NaN,-0.8345818,-1.335525E-07,NaN,-1.561743,-3.953117E-07,NaN,-1.735723,1.869056E-05,0.02178195,7.719746E-08,NaN,NaN,-0.1221882,2.467998E-10,-3.551826E-07,-1.115776E-07,-3.994093E-08,-2.622604E-08
623.8476,-0.01449312,-5.495913E-09,NaN,-0.8354787,-1.335521E-07,NaN,-1.561359,-3.952459E-07,NaN,-1.741588,1.869104E-05,0.03037006,7.713313E-08,NaN,NaN,-0.1214739,2.374866E-10,-3.585726E-07,-1.115765E-07,-3.755674E-08,-2.861022E-08
623.8635,-0.01449098,-5.495127E-09,NaN,-0.8364159,-1.335517E-07,NaN,-1.561026,-3.951784E-07,NaN,-1.747669,1.86915E-05,0.03878751,7.706717E-08,NaN,NaN,-0.1207737,2.374866E-10,-3.600441E-07,-1.115754E-07,-3.517255E-08,-2.622604E-08
623.8792,-0.01449098,-5.495127E-09,NaN,-0.8364159,-1.335517E-07,NaN,-1.561026,-3.951784E-07,NaN,-1.747669,1.86915E-05,0.03878751,7.706717E-08,NaN,NaN,-0.1207737,2.374866E-10,-3.600441E-07,-1.115754E-07,-3.517255E-08,-2.622604E-08
623.8946,-0.01448857,-5.494341E-09,NaN,-0.8373739,-1.335513E-07,NaN,-1.560712,-3.951122E-07,NaN,-1.753816,1.869198E-05,0.04703599,7.700244E-08,NaN,NaN,-0.1200871,2.3283E-10,-3.605842E-07,-1.115743E-07,-3.755674E-08,-2.861022E-08
623.9107,-0.01448593,-5.493555E-09,NaN,-0.8383403,-1.335509E-07,NaN,-1.560405,-3.950471E-07,NaN,-1.759952,1.869245E-05,0.05512261,7.693891E-08,NaN,NaN,-0.1194141,2.281734E-10,-3.595225E-07,-1.115732E-07,-3.755674E-08,-2.622604E-08
623.9268,-0.01448288,-5.492769E-09,NaN,-0.8393078,-1.335504E-07,NaN,-1.560101,-3.949804E-07,NaN,-1.766039,1.869292E-05,0.06305356,7.687373E-08,NaN,NaN,-0.1187542,2.235168E-10,-3.56505E-07,-1.115721E-07,-3.755674E-08,-2.861022E-08
623.9423,-0.01447955,-5.491983E-09,NaN,-0.8402715,-1.3355E-07,NaN,-1.559798,-3.94915E-07,NaN,-1.77206,1.869339E-05,0.07083073,7.680976E-08,NaN,NaN,-0.1181072,2.188602E-10,-3.525935E-07,-1.115711E-07,-3.278837E-08,-2.622604E-08
623.9584,-0.01447955,-5.491983E-09,NaN,-0.8402715,-1.3355E-07,NaN,-1.559798,-3.94915E-07,NaN,-1.77206,1.869339E-05,0.07083073,7.680976E-08,NaN,NaN,-0.1181072,2.188602E-10,-3.525935E-07,-1.115711E-07,-3.278837E-08,-2.622604E-08
623.9733,-0.01447605,-5.491198E-09,NaN,-0.8412287,-1.335496E-07,NaN,-1.559496,-3.948478E-07,NaN,-1.778005,1.869386E-05,0.07845713,7.674415E-08,NaN,NaN,-0.1174729,2.142035E-10,-3.49129E-07,-1.1157E-07,-3.278837E-08,-2.861022E-08
623.9899,-0.01447244,-5.490412E-09,NaN,-0.8421774,-1.335492E-07,NaN,-1.559195,-3.947819E-07,NaN,-1.78387,1.869433E-05,0.08593562,7.667975E-08,NaN,NaN,-0.116851,2.095469E-10,-3.436528E-07,-1.115689E-07,-3.755674E-08,-2.622604E-08
624.0059,-0.01446897,-5.489627E-09,NaN,-0.8430474,-1.335488E-07,NaN,-1.559094,-3.947144E-07,NaN,-1.789078,1.869479E-05,0.09168877,7.661373E-08,NaN,NaN,-0.1163707,2.142035E-10,-3.381766E-07,-1.115679E-07,-4.232511E-08,-2.861022E-08
624.0215,-0.0144657,-5.488841E-09,NaN,-0.843865,-1.335484E-07,NaN,-1.558924,-3.946481E-07,NaN,-1.793931,1.869526E-05,0.09732966,7.654894E-08,NaN,NaN,-0.1158998,2.095469E-10,-3.3352E-07,-1.115668E-07,-3.755674E-08,-2.622604E-08
624.0374,-0.0144657,-5.488841E-09,NaN,-0.843865,-1.335484E-07,NaN,-1.558924,-3.946481E-07,NaN,-1.793931,1.869526E-05,0.09732966,7.654894E-08,NaN,NaN,-0.1158998,2.095469E-10,-3.3352E-07,-1.115668E-07,-3.755674E-08,-2.622604E-08
624.0521,-0.01446262,-5.488056E-09,NaN,-0.8446465,-1.33548E-07,NaN,-1.558725,-3.945829E-07,NaN,-1.798573,1.869573E-05,0.1028719,7.648521E-08,NaN,NaN,-0.1154381,2.095469E-10,-3.282673E-07,-1.115657E-07,-4.47093E-08,-2.861022E-08
624.0687,-0.01445969,-5.487271E-09,NaN,-0.8454022,-1.335476E-07,NaN,-1.558516,-3.94516E-07,NaN,-1.803077,1.869619E-05,0.1083108,7.641985E-08,NaN,NaN,-0.1149856,2.095469E-10,-3.229401E-07,-1.115647E-07,-4.47093E-08,-2.622604E-08
624.0843,-0.01445708,-5.486485E-09,NaN,-0.8460693,-1.335472E-07,NaN,-1.558527,-3.944503E-07,NaN,-1.806903,1.869665E-05,0.1120641,7.63557E-08,NaN,NaN,-0.1146711,2.142035E-10,-3.170542E-07,-1.115636E-07,-4.232511E-08,-2.861022E-08
624.1003,-0.0144548,-5.485701E-09,NaN,-0.8466789,-1.335468E-07,NaN,-1.558456,-3.94383E-07,NaN,-1.810372,1.869712E-05,0.1157405,7.628992E-08,NaN,NaN,-0.1143629,2.142035E-10,-3.132544E-07,-1.115626E-07,-3.994092E-08,-2.622604E-08
624.1157,-0.0144548,-5.485701E-09,NaN,-0.8466789,-1.335468E-07,NaN,-1.558456,-3.94383E-07,NaN,-1.810372,1.869712E-05,0.1157405,7.628992E-08,NaN,NaN,-0.1143629,2.142035E-10,-3.132544E-07,-1.115626E-07,-3.994092E-08,-2.622604E-08
624.131,-0.0144528,-5.484916E-09,NaN,-0.84725,-1.335464E-07,NaN,-1.558351,-3.943169E-07,NaN,-1.81364,1.869758E-05,0.1193588,7.622536E-08,NaN,NaN,-0.1140607,2.188602E-10,-3.08635E-07,-1.115615E-07,-3.994092E-08,-2.861022E-08
624.1474,-0.01445101,-5.484131E-09,NaN,-0.847795,-1.33546E-07,NaN,-1.558232,-3.942521E-07,NaN,-1.816783,1.869805E-05,0.1229121,7.6162E-08,NaN,NaN,-0.1137644,2.188602E-10,-3.044627E-07,-1.115605E-07,-3.994092E-08,-2.622604E-08
624.1633,-0.01444958,-5.483347E-09,NaN,-0.8482521,-1.335456E-07,NaN,-1.558348,-3.941856E-07,NaN,-1.819263,1.869851E-05,0.1248175,7.6097E-08,NaN,NaN,-0.1136033,2.235168E-10,-2.990238E-07,-1.115595E-07,-3.755673E-08,-2.861022E-08
624.1791,-0.01444958,-5.483347E-09,NaN,-0.8482521,-1.335456E-07,NaN,-1.558348,-3.941856E-07,NaN,-1.819263,1.869851E-05,0.1248175,7.6097E-08,NaN,NaN,-0.1136033,2.235168E-10,-2.990238E-07,-1.115595E-07,-3.755673E-08,-2.861022E-08
624.1942,-0.01444846,-5.482562E-09,NaN,-0.8486528,-1.335452E-07,NaN,-1.558374,-3.941203E-07,NaN,-1.821404,1.869897E-05,0.1266786,7.603319E-08,NaN,NaN,-0.1134453,2.235168E-10,-2.961926E-07,-1.115584E-07,-3.994092E-08,-2.622604E-08
624.2104,-0.01444748,-5.481777E-09,NaN,-0.849017,-1.335448E-07,NaN,-1.558359,-3.940533E-07,NaN,-1.823362,1.869944E-05,0.128519,7.596774E-08,NaN,NaN,-0.1132904,2.235168E-10,-2.923182E-07,-1.115574E-07,-3.755673E-08,-2.861022E-08
624.2266,-0.01444658,-5.480993E-09,NaN,-0.849357,-1.335444E-07,NaN,-1.558329,-3.939876E-07,NaN,-1.825214,1.869991E-05,0.1303301,7.590352E-08,NaN,NaN,-0.1131386,2.142035E-10,-2.882949E-07,-1.115564E-07,-4.232511E-08,-2.622604E-08
624.2423,-0.01444585,-5.480208E-09,NaN,-0.8496113,-1.33544E-07,NaN,-1.55854,-3.939202E-07,NaN,-1.826421,1.870038E-05,0.1305287,7.583767E-08,NaN,NaN,-0.113119,2.142035E-10,-2.838991E-07,-1.115554E-07,-4.232511E-08,-2.861022E-08
624.2583,-0.01444585,-5.480208E-09,NaN,-0.8496113,-1.33544E-07,NaN,-1.55854,-3.939202E-07,NaN,-1.826421,1.870038E-05,0.1305287,7.583767E-08,NaN,NaN,-0.113119,2.142035E-10,-2.838991E-07,-1.115554E-07,-4.232511E-08,-2.861022E-08
624.2729,-0.01444524,-5.479424E-09,NaN,-0.8498115,-1.335436E-07,NaN,-1.558654,-3.938541E-07,NaN,-1.827307,1.870085E-05,0.1307143,7.577304E-08,NaN,NaN,-0.1130998,2.095469E-10,-2.822599E-07,-1.115543E-07,-4.232511E-08,-2.622604E-08
624.2896,-0.0144447,-5.478639E-09,NaN,-0.8499774,-1.335432E-07,NaN,-1.558722,-3.937892E-07,NaN,-1.828027,1.870131E-05,0.1309138,7.570961E-08,NaN,NaN,-0.113081,2.095469E-10,-2.798012E-07,-1.115533E-07,-4.232511E-08,-2.861022E-08
624.3052,-0.01444421,-5.477855E-09,NaN,-0.8501214,-1.335428E-07,NaN,-1.558771,-3.937226E-07,NaN,-1.828659,1.870178E-05,0.131117,7.564453E-08,NaN,NaN,-0.1130626,2.048903E-10,-2.7697E-07,-1.115523E-07,-3.040418E-08,-2.622604E-08
624.3223,-0.01444388,-5.477071E-09,NaN,-0.850182,-1.335424E-07,NaN,-1.559062,-3.936572E-07,NaN,-1.828665,1.870225E-05,0.1297405,7.558065E-08,NaN,NaN,-0.1131738,2.048903E-10,-2.739898E-07,-1.115513E-07,-3.040418E-08,-2.861022E-08
624.337,-0.01444388,-5.477071E-09,NaN,-0.850182,-1.335424E-07,NaN,-1.559062,-3.936572E-07,NaN,-1.828665,1.870225E-05,0.1297405,7.558065E-08,NaN,NaN,-0.1131738,2.048903E-10,-2.739898E-07,-1.115513E-07,-3.040418E-08,-2.861022E-08
624.3517,-0.01444366,-5.476287E-09,NaN,-0.8501908,-1.33542E-07,NaN,-1.55925,-3.935902E-07,NaN,-1.828366,1.870272E-05,0.1283816,7.551514E-08,NaN,NaN,-0.1132828,2.002337E-10,-2.733192E-07,-1.115503E-07,-3.517255E-08,-2.622604E-08
624.3687,-0.01444353,-5.475502E-09,NaN,-0.8501693,-1.335416E-07,NaN,-1.559387,-3.935244E-07,NaN,-1.827918,1.870319E-05,0.127068,7.545084E-08,NaN,NaN,-0.1133897,2.002337E-10,-2.717546E-07,-1.115493E-07,-3.040418E-08,-2.861022E-08
624.3843,-0.01444345,-5.474718E-09,NaN,-0.8501292,-1.335412E-07,NaN,-1.559502,-3.934598E-07,NaN,-1.827399,1.870366E-05,0.1257887,7.538774E-08,NaN,NaN,-0.1134945,1.955771E-10,-2.69892E-07,-1.115483E-07,-3.517255E-08,-2.622604E-08
624.3998,-0.01444345,-5.474718E-09,NaN,-0.8501292,-1.335412E-07,NaN,-1.559502,-3.934598E-07,NaN,-1.827399,1.870366E-05,0.1257887,7.538774E-08,NaN,NaN,-0.1134945,1.955771E-10,-2.69892E-07,-1.115483E-07,-3.517255E-08,-2.622604E-08
624.4145,-0.01444352,-5.473934E-09,NaN,-0.8500086,-1.335409E-07,NaN,-1.559854,-3.933935E-07,NaN,-1.82627,1.870412E-05,0.1229595,7.532298E-08,NaN,NaN,-0.1137266,1.955771E-10,-2.684764E-07,-1.115473E-07,-3.517255E-08,-2.861022E-08
624.4307,-0.01444371,-5.473149E-09,NaN,-0.8498388,-1.335405E-07,NaN,-1.560099,-3.933284E-07,NaN,-1.824853,1.87046E-05,0.1201781,7.525942E-08,NaN,NaN,-0.1139541,1.909205E-10,-2.680293E-07,-1.115463E-07,-3.517255E-08,-2.622604E-08
624.4466,-0.01444397,-5.472365E-09,NaN,-0.8496394,-1.335401E-07,NaN,-1.560289,-3.932617E-07,NaN,-1.823305,1.870506E-05,0.1174706,7.519422E-08,NaN,NaN,-0.1141772,1.909205E-10,-2.669862E-07,-1.115453E-07,-3.517255E-08,-2.861022E-08
624.4623,-0.01444429,-5.471581E-09,NaN,-0.8494225,-1.335397E-07,NaN,-1.560453,-3.931962E-07,NaN,-1.821702,1.870553E-05,0.1148253,7.513022E-08,NaN,NaN,-0.1143959,1.862639E-10,-2.648256E-07,-1.115444E-07,-3.994092E-08,-2.622604E-08
624.478,-0.01444429,-5.471581E-09,NaN,-0.8494225,-1.335397E-07,NaN,-1.560453,-3.931962E-07,NaN,-1.821702,1.870553E-05,0.1148253,7.513022E-08,NaN,NaN,-0.1143959,1.862639E-10,-2.648256E-07,-1.115444E-07,-3.994092E-08,-2.622604E-08
624.493,-0.01444476,-5.470798E-09,NaN,-0.8491266,-1.335393E-07,NaN,-1.560845,-3.931319E-07,NaN,-1.819506,1.8706E-05,0.1106573,7.50674E-08,NaN,NaN,-0.1147396,1.862639E-10,-2.625159E-07,-1.115434E-07,-3.755673E-08,-2.861022E-08
624.5093,-0.01444535,-5.470014E-09,NaN,-0.8487833,-1.335389E-07,NaN,-1.561126,-3.930659E-07,NaN,-1.817038,1.870647E-05,0.1065666,7.500293E-08,NaN,NaN,-0.1150766,1.816073E-10,-2.621061E-07,-1.115424E-07,-3.994092E-08,-2.622604E-08
624.525,-0.01444602,-5.46923E-09,NaN,-0.8484122,-1.335385E-07,NaN,-1.561351,-3.930012E-07,NaN,-1.814454,1.870693E-05,0.1025758,7.493966E-08,NaN,NaN,-0.115407,1.909205E-10,-2.60765E-07,-1.115414E-07,-3.994092E-08,-2.861022E-08
624.5405,-0.01444674,-5.468446E-09,NaN,-0.8480256,-1.335382E-07,NaN,-1.561546,-3.929347E-07,NaN,-1.81183,1.87074E-05,0.09867277,7.487473E-08,NaN,NaN,-0.1157309,1.862639E-10,-2.593866E-07,-1.115405E-07,-3.994092E-08,-2.622604E-08
624.5568,-0.01444674,-5.468446E-09,NaN,-0.8480256,-1.335382E-07,NaN,-1.561546,-3.929347E-07,NaN,-1.81183,1.87074E-05,0.09867277,7.487473E-08,NaN,NaN,-0.1157309,1.862639E-10,-2.593866E-07,-1.115405E-07,-3.994092E-08,-2.622604E-08
624.5714,-0.01444762,-5.467662E-09,NaN,-0.847562,-1.335378E-07,NaN,-1.561956,-3.928695E-07,NaN,-1.808629,1.870786E-05,0.0932721,7.481101E-08,NaN,NaN,-0.1161778,1.862639E-10,-2.568534E-07,-1.115395E-07,-3.994092E-08,-2.861022E-08
624.5884,-0.01444862,-5.466879E-09,NaN,-0.8470528,-1.335374E-07,NaN,-1.562253,-3.928054E-07,NaN,-1.805171,1.870833E-05,0.0879774,7.474846E-08,NaN,NaN,-0.1166159,1.816073E-10,-2.564436E-07,-1.115385E-07,-3.994092E-08,-2.622604E-08
624.6036,-0.0144497,-5.466095E-09,NaN,-0.8465177,-1.33537E-07,NaN,-1.562493,-3.927397E-07,NaN,-1.80161,1.87088E-05,0.08280612,7.468425E-08,NaN,NaN,-0.1170455,1.816073E-10,-2.54432E-07,-1.115376E-07,-4.232511E-08,-2.861022E-08
624.6191,-0.0144497,-5.466095E-09,NaN,-0.8465177,-1.33537E-07,NaN,-1.562493,-3.927397E-07,NaN,-1.80161,1.87088E-05,0.08280612,7.468425E-08,NaN,NaN,-0.1170455,1.816073E-10,-2.54432E-07,-1.115376E-07,-4.232511E-08,-2.861022E-08
624.6344,-0.01445096,-5.465311E-09,NaN,-0.8458999,-1.335366E-07,NaN,-1.56292,-3.926752E-07,NaN,-1.797449,1.870927E-05,0.07616732,7.462123E-08,NaN,NaN,-0.1175959,1.769507E-10,-2.521968E-07,-1.115366E-07,-4.232511E-08,-2.622604E-08
624.6503,-0.0144525,-5.464527E-09,NaN,-0.8452337,-1.335363E-07,NaN,-1.563231,-3.926118E-07,NaN,-1.793026,1.870974E-05,0.06966499,7.455938E-08,NaN,NaN,-0.1181356,1.769507E-10,-2.504459E-07,-1.115357E-07,-3.755673E-08,-2.861022E-08
624.6666,-0.01445433,-5.463744E-09,NaN,-0.8445406,-1.335359E-07,NaN,-1.56348,-3.925468E-07,NaN,-1.788506,1.871021E-05,0.06331056,7.449585E-08,NaN,NaN,-0.1186647,1.722941E-10,-2.477264E-07,-1.115347E-07,-3.755673E-08,-2.622604E-08
624.6816,-0.01445639,-5.462961E-09,NaN,-0.843834,-1.335355E-07,NaN,-1.563694,-3.924829E-07,NaN,-1.783969,1.871067E-05,0.0570912,7.443349E-08,NaN,NaN,-0.1191835,1.722941E-10,-2.443737E-07,-1.115338E-07,-3.755673E-08,-2.861022E-08
624.6976,-0.01445639,-5.462961E-09,NaN,-0.843834,-1.335355E-07,NaN,-1.563694,-3.924829E-07,NaN,-1.783969,1.871067E-05,0.0570912,7.443349E-08,NaN,NaN,-0.1191835,1.722941E-10,-2.443737E-07,-1.115338E-07,-3.755673E-08,-2.861022E-08
624.7128,-0.01445883,-5.462177E-09,NaN,-0.843053,-1.335352E-07,NaN,-1.564085,-3.924174E-07,NaN,-1.778882,1.871114E-05,0.04942265,7.436947E-08,NaN,NaN,-0.1198214,1.676375E-10,-2.37873E-07,-1.115329E-07,-3.517255E-08,-2.622604E-08
624.7288,-0.01446165,-5.461394E-09,NaN,-0.8422296,-1.335348E-07,NaN,-1.564367,-3.920167E-07,NaN,-1.773564,1.871161E-05,0.04191435,7.397023E-08,NaN,NaN,-0.1204468,1.722941E-10,-2.333002E-07,-1.115334E-07,-3.278836E-08,-2.861022E-08
624.7446,-0.01446478,-5.460612E-09,NaN,-0.8413836,-1.335348E-07,NaN,-1.564592,-3.914967E-07,NaN,-1.768171,1.871208E-05,0.034572,7.345182E-08,NaN,NaN,-0.12106,1.722941E-10,-2.273584E-07,-1.115343E-07,-3.278836E-08,-2.622604E-08
624.7604,-0.01446815,-5.459829E-09,NaN,-0.8405275,-1.33535E-07,NaN,-1.564783,-3.909192E-07,NaN,-1.76278,1.871255E-05,0.0273838,7.287581E-08,NaN,NaN,-0.1216611,1.769507E-10,-2.207693E-07,-1.115353E-07,-2.801999E-08,-2.861022E-08
624.776,-0.01446815,-5.459829E-09,NaN,-0.8405275,-1.33535E-07,NaN,-1.564783,-3.909192E-07,NaN,-1.76278,1.871255E-05,0.0273838,7.287581E-08,NaN,NaN,-0.1216611,1.769507E-10,-2.207693E-07,-1.115353E-07,-2.801999E-08,-2.861022E-08
624.7909,-0.0144719,-5.459046E-09,NaN,-0.8395998,-1.335354E-07,NaN,-1.565125,-3.903135E-07,NaN,-1.756853,1.871302E-05,0.01876909,7.227154E-08,NaN,NaN,-0.1223798,1.769507E-10,-2.119584E-07,-1.115364E-07,-2.801999E-08,-2.622604E-08
624.8072,-0.01447603,-5.458263E-09,NaN,-0.8386319,-1.335359E-07,NaN,-1.565365,-3.896969E-07,NaN,-1.75071,1.871348E-05,0.01033759,7.165649E-08,NaN,NaN,-0.1230844,1.816073E-10,-2.043495E-07,-1.115376E-07,-2.801999E-08,-2.861022E-08
624.8246,-0.01448045,-5.457481E-09,NaN,-0.8376436,-1.335364E-07,NaN,-1.565551,-3.890811E-07,NaN,-1.744504,1.871395E-05,0.002088921,7.104214E-08,NaN,NaN,-0.1237752,1.816073E-10,-1.966195E-07,-1.115388E-07,-2.325162E-08,-2.622604E-08
624.8387,-0.01448045,-5.457481E-09,NaN,-0.8376436,-1.335364E-07,NaN,-1.565551,-3.890811E-07,NaN,-1.744504,1.871395E-05,0.002088921,7.104214E-08,NaN,NaN,-0.1237752,1.816073E-10,-1.966195E-07,-1.115388E-07,-2.325162E-08,-2.622604E-08
624.8538,-0.01448511,-5.456698E-09,NaN,-0.8366472,-1.335369E-07,NaN,-1.565704,-3.884716E-07,NaN,-1.738311,1.871442E-05,-0.005987861,7.043414E-08,NaN,NaN,-0.1244525,1.862639E-10,-1.878278E-07,-1.1154E-07,-1.609906E-08,-2.861022E-08
624.8704,-0.01449015,-5.455916E-09,NaN,-0.8355808,-1.335375E-07,NaN,-1.565979,-3.878683E-07,NaN,-1.731596,1.871489E-05,-0.01546749,6.983235E-08,NaN,NaN,-0.1252458,1.862639E-10,-1.74454E-07,-1.115412E-07,-1.133069E-08,-2.622604E-08
624.886,-0.01449555,-5.455133E-09,NaN,-0.8344761,-1.335381E-07,NaN,-1.566163,-3.872768E-07,NaN,-1.724676,1.871536E-05,-0.02474406,6.924229E-08,NaN,NaN,-0.1260236,1.862639E-10,-1.631291E-07,-1.115424E-07,-6.562319E-09,-2.861022E-08
624.9019,-0.01450125,-5.454351E-09,NaN,-0.8333527,-1.335386E-07,NaN,-1.566296,-3.866968E-07,NaN,-1.717704,1.871583E-05,-0.03382269,6.866373E-08,NaN,NaN,-0.1267861,1.909205E-10,-1.509474E-07,-1.115436E-07,-4.178133E-09,-2.622604E-08
624.9176,-0.01450125,-5.454351E-09,NaN,-0.8333527,-1.335386E-07,NaN,-1.566296,-3.866968E-07,NaN,-1.717704,1.871583E-05,-0.03382269,6.866373E-08,NaN,NaN,-0.1267861,1.909205E-10,-1.509474E-07,-1.115436E-07,-4.178133E-09,-2.622604E-08
624.9328,-0.01450717,-5.453568E-09,NaN,-0.8322228,-1.335392E-07,NaN,-1.566397,-3.86128E-07,NaN,-1.710756,1.87163E-05,-0.0427133,6.809645E-08,NaN,NaN,-0.1275337,1.862639E-10,-1.388775E-07,-1.115449E-07,5.902385E-10,-2.861022E-08
624.9494,-0.01451075,-5.452786E-09,NaN,-0.8319254,-1.335398E-07,NaN,-1.565092,-3.855703E-07,NaN,-1.710748,1.871677E-05,-0.03270639,6.754022E-08,NaN,NaN,-0.1267144,1.909205E-10,-1.911806E-07,-1.115461E-07,5.35861E-09,-2.622604E-08
624.965,-0.01451149,-5.452003E-09,NaN,-0.8321416,-1.335403E-07,NaN,-1.564396,-3.850263E-07,NaN,-1.714098,1.871724E-05,-0.02297882,6.699765E-08,NaN,NaN,-0.1259113,1.862639E-10,-2.189241E-07,-1.115473E-07,5.35861E-09,-2.861022E-08
624.9807,-0.01451094,-5.451221E-09,NaN,-0.8326738,-1.335409E-07,NaN,-1.563939,-3.844928E-07,NaN,-1.719096,1.87177E-05,-0.01350395,6.646565E-08,NaN,NaN,-0.1251239,1.955771E-10,-2.371361E-07,-1.115485E-07,2.974424E-09,-2.622604E-08
624.9964,-0.01451094,-5.451221E-09,NaN,-0.8326738,-1.335409E-07,NaN,-1.563939,-3.844928E-07,NaN,-1.719096,1.87177E-05,-0.01350395,6.646565E-08,NaN,NaN,-0.1251239,1.955771E-10,-2.371361E-07,-1.115485E-07,2.974424E-09,-2.622604E-08
625.0116,-0.01450975,-5.450438E-09,NaN,-0.8333986,-1.335415E-07,NaN,-1.563569,-3.839725E-07,NaN,-1.724886,1.871818E-05,-0.004236459,6.594684E-08,NaN,NaN,-0.124352,1.909205E-10,-2.507334E-07,-1.115497E-07,-6.562319E-09,-2.861022E-08
625.028,-0.01450827,-5.449656E-09,NaN,-0.8341698,-1.33542E-07,NaN,-1.563363,-3.834623E-07,NaN,-1.730461,1.871864E-05,0.003277266,6.543814E-08,NaN,NaN,-0.1237246,2.002337E-10,-2.559721E-07,-1.115509E-07,-4.178133E-09,-2.622604E-08
625.0435,-0.01450646,-5.448874E-09,NaN,-0.8349661,-1.335426E-07,NaN,-1.563122,-3.829649E-07,NaN,-1.735905,1.871911E-05,0.01064709,6.494216E-08,NaN,NaN,-0.1231095,1.955771E-10,-2.605705E-07,-1.115521E-07,-4.178133E-09,-2.861022E-08
625.0593,-0.01450646,-5.448874E-09,NaN,-0.8349661,-1.335426E-07,NaN,-1.563122,-3.829649E-07,NaN,-1.735905,1.871911E-05,0.01064709,6.494216E-08,NaN,NaN,-0.1231095,1.955771E-10,-2.605705E-07,-1.115521E-07,-4.178133E-09,-2.861022E-08
625.0747,-0.01450441,-5.448092E-09,NaN,-0.8357744,-1.335432E-07,NaN,-1.562868,-3.824771E-07,NaN,-1.741249,1.871958E-05,0.01787907,6.445583E-08,NaN,NaN,-0.1225065,2.002337E-10,-2.652225E-07,-1.115533E-07,-4.178133E-09,-2.622604E-08
625.0911,-0.01450217,-5.44731E-09,NaN,-0.8365864,-1.335438E-07,NaN,-1.562607,-3.820016E-07,NaN,-1.746507,1.872005E-05,0.02497326,6.39818E-08,NaN,NaN,-0.1219153,1.955771E-10,-2.677557E-07,-1.115545E-07,-6.562319E-09,-2.861022E-08
625.1071,-0.01450004,-5.446528E-09,NaN,-0.8373277,-1.335443E-07,NaN,-1.562502,-3.815353E-07,NaN,-1.751113,1.872052E-05,0.03035891,6.351699E-08,NaN,NaN,-0.1214651,2.002337E-10,-2.672248E-07,-1.115557E-07,-8.946504E-09,-2.622604E-08
625.1226,-0.01449807,-5.445746E-09,NaN,-0.8380221,-1.335449E-07,NaN,-1.56234,-3.81078E-07,NaN,-1.75537,1.872099E-05,0.03564482,6.306123E-08,NaN,NaN,-0.1210238,1.955771E-10,-2.675973E-07,-1.115568E-07,-1.371488E-08,-2.861022E-08
625.1385,-0.01449807,-5.445746E-09,NaN,-0.8380221,-1.335449E-07,NaN,-1.56234,-3.81078E-07,NaN,-1.75537,1.872099E-05,0.03564482,6.306123E-08,NaN,NaN,-0.1210238,1.955771E-10,-2.675973E-07,-1.115568E-07,-1.371488E-08,-2.861022E-08
625.1534,-0.01449625,-5.444964E-09,NaN,-0.8386844,-1.335454E-07,NaN,-1.562157,-3.806325E-07,NaN,-1.759424,1.872146E-05,0.04083601,6.261715E-08,NaN,NaN,-0.1205911,2.002337E-10,-2.675228E-07,-1.11558E-07,-1.848325E-08,-2.622604E-08
625.17,-0.01449456,-5.444182E-09,NaN,-0.839324,-1.33546E-07,NaN,-1.561966,-3.801956E-07,NaN,-1.763348,1.872193E-05,0.04592954,6.218172E-08,NaN,NaN,-0.1201669,1.955771E-10,-2.671689E-07,-1.115592E-07,-1.848325E-08,-2.861022E-08
625.1862,-0.0144932,-5.4434E-09,NaN,-0.8398773,-1.335465E-07,NaN,-1.561949,-3.7977E-07,NaN,-1.766603,1.87224E-05,0.04934949,6.175758E-08,NaN,NaN,-0.1198804,2.002337E-10,-2.649524E-07,-1.115604E-07,-2.086743E-08,-2.622604E-08
625.2019,-0.01449211,-5.442617E-09,NaN,-0.8403749,-1.335471E-07,NaN,-1.561867,-3.793526E-07,NaN,-1.769511,1.872287E-05,0.05270677,6.134169E-08,NaN,NaN,-0.1195995,1.955771E-10,-2.635927E-07,-1.115615E-07,-1.609906E-08,-2.861022E-08
625.2174,-0.01449211,-5.442617E-09,NaN,-0.8403749,-1.335471E-07,NaN,-1.561867,-3.793526E-07,NaN,-1.769511,1.872287E-05,0.05270677,6.134169E-08,NaN,NaN,-0.1195995,1.955771E-10,-2.635927E-07,-1.115615E-07,-1.609906E-08,-2.861022E-08
625.2326,-0.01449115,-5.441835E-09,NaN,-0.8408359,-1.335477E-07,NaN,-1.561759,-3.789461E-07,NaN,-1.772224,1.872334E-05,0.05600843,6.093671E-08,NaN,NaN,-0.1193241,2.002337E-10,-2.616555E-07,-1.115627E-07,-1.371488E-08,-2.622604E-08
625.2488,-0.01449027,-5.441053E-09,NaN,-0.8412722,-1.335482E-07,NaN,-1.561642,-3.785476E-07,NaN,-1.77482,1.872381E-05,0.05924965,6.05396E-08,NaN,NaN,-0.1190541,1.955771E-10,-2.605752E-07,-1.115638E-07,-1.848325E-08,-2.861022E-08
625.2646,-0.01448956,-5.440271E-09,NaN,-0.8416221,-1.335488E-07,NaN,-1.56171,-3.781595E-07,NaN,-1.776764,1.872427E-05,0.06085162,6.015303E-08,NaN,NaN,-0.1189188,2.002337E-10,-2.580792E-07,-1.115635E-07,-1.371488E-08,-2.622604E-08
625.2802,-0.01448898,-5.439489E-09,NaN,-0.8419169,-1.335489E-07,NaN,-1.561706,-3.779059E-07,NaN,-1.778377,1.872475E-05,0.06242548,5.99009E-08,NaN,NaN,-0.1187862,2.002337E-10,-2.566264E-07,-1.115643E-07,-1.371488E-08,-2.861022E-08
625.2965,-0.01448898,-5.439489E-09,NaN,-0.8419169,-1.335489E-07,NaN,-1.561706,-3.779059E-07,NaN,-1.778377,1.872475E-05,0.06242548,5.99009E-08,NaN,NaN,-0.1187862,2.002337E-10,-2.566264E-07,-1.115643E-07,-1.371488E-08,-2.861022E-08
625.3124,-0.01448847,-5.438707E-09,NaN,-0.8421766,-1.335492E-07,NaN,-1.561671,-3.775979E-07,NaN,-1.779813,1.872521E-05,0.06398007,5.959441E-08,NaN,NaN,-0.1186562,2.09547E-10,-2.5495E-07,-1.115653E-07,-1.133069E-08,-2.622604E-08
625.3277,-0.014488,-5.437925E-09,NaN,-0.8424132,-1.335497E-07,NaN,-1.561624,-3.772677E-07,NaN,-1.78115,1.872568E-05,0.06550904,5.926566E-08,NaN,NaN,-0.1185287,2.048904E-10,-2.536834E-07,-1.115664E-07,-1.133069E-08,-2.861022E-08
625.3434,-0.01448771,-5.437143E-09,NaN,-0.8425654,-1.335501E-07,NaN,-1.561769,-3.769297E-07,NaN,-1.781852,1.872615E-05,0.06543189,5.892919E-08,NaN,NaN,-0.1185331,2.09547E-10,-2.508895E-07,-1.115675E-07,-1.133069E-08,-2.622604E-08
625.3591,-0.01448771,-5.437143E-09,NaN,-0.8425654,-1.335501E-07,NaN,-1.561769,-3.769297E-07,NaN,-1.781852,1.872615E-05,0.06543189,5.892919E-08,NaN,NaN,-0.1185331,2.09547E-10,-2.508895E-07,-1.115675E-07,-1.133069E-08,-2.622604E-08
625.3742,-0.01448753,-5.436362E-09,NaN,-0.8426647,-1.335506E-07,NaN,-1.561834,-3.765898E-07,NaN,-1.782241,1.872662E-05,0.06535935,5.859078E-08,NaN,NaN,-0.1185374,2.002337E-10,-2.497346E-07,-1.115671E-07,-1.133069E-08,-2.861022E-08
625.3906,-0.01448743,-5.43558E-09,NaN,-0.8427309,-1.335508E-07,NaN,-1.561864,-3.763778E-07,NaN,-1.78247,1.872708E-05,0.06530105,5.838023E-08,NaN,NaN,-0.1185417,2.142036E-10,-2.482445E-07,-1.115679E-07,-8.946506E-09,-2.622604E-08
625.406,-0.01448737,-5.434798E-09,NaN,-0.8427765,-1.335511E-07,NaN,-1.561879,-3.761106E-07,NaN,-1.782619,1.872755E-05,0.06524938,5.811451E-08,NaN,NaN,-0.1185459,2.142036E-10,-2.466426E-07,-1.115689E-07,-6.56232E-09,-2.861022E-08
625.4219,-0.0144875,-5.434017E-09,NaN,-0.8427414,-1.335514E-07,NaN,-1.562085,-3.758175E-07,NaN,-1.782148,1.872801E-05,0.06362304,5.78229E-08,NaN,NaN,-0.1186793,2.188602E-10,-2.429918E-07,-1.115699E-07,-4.178134E-09,-2.622604E-08
625.4378,-0.0144875,-5.434017E-09,NaN,-0.8427414,-1.335514E-07,NaN,-1.562085,-3.758175E-07,NaN,-1.782148,1.872801E-05,0.06362304,5.78229E-08,NaN,NaN,-0.1186793,2.188602E-10,-2.429918E-07,-1.115699E-07,-4.178134E-09,-2.622604E-08
625.4526,-0.01448775,-5.433235E-09,NaN,-0.8426567,-1.335519E-07,NaN,-1.562207,-3.755132E-07,NaN,-1.781381,1.872849E-05,0.06203249,5.752002E-08,NaN,NaN,-0.1188102,2.09547E-10,-2.417625E-07,-1.115695E-07,-1.793949E-09,-2.861022E-08
625.4694,-0.01448807,-5.432454E-09,NaN,-0.8425418,-1.33552E-07,NaN,-1.56229,-3.753304E-07,NaN,-1.780472,1.872895E-05,0.06048682,5.733866E-08,NaN,NaN,-0.1189385,2.188602E-10,-2.397881E-07,-1.115703E-07,-1.793949E-09,-2.622604E-08
625.4848,-0.01448844,-5.431672E-09,NaN,-0.8424087,-1.335523E-07,NaN,-1.562355,-3.750889E-07,NaN,-1.779498,1.872942E-05,0.05897759,5.709873E-08,NaN,NaN,-0.1190642,2.188602E-10,-2.377392E-07,-1.115712E-07,5.358609E-09,-2.861022E-08
625.501,-0.01448898,-5.43089E-09,NaN,-0.8421956,-1.335527E-07,NaN,-1.562605,-3.748212E-07,NaN,-1.777923,1.872988E-05,0.0559233,5.683242E-08,NaN,NaN,-0.119317,2.235168E-10,-2.338649E-07,-1.115707E-07,5.358609E-09,-2.622604E-08
625.5166,-0.01448898,-5.43089E-09,NaN,-0.8421956,-1.335527E-07,NaN,-1.562605,-3.748212E-07,NaN,-1.777923,1.872988E-05,0.0559233,5.683242E-08,NaN,NaN,-0.119317,2.235168E-10,-2.338649E-07,-1.115707E-07,5.358609E-09,-2.622604E-08
625.5316,-0.01448964,-5.430109E-09,NaN,-0.8419343,-1.335527E-07,NaN,-1.562767,-3.746657E-07,NaN,-1.776067,1.873035E-05,0.05293453,5.667844E-08,NaN,NaN,-0.1195647,2.235168E-10,-2.322071E-07,-1.115715E-07,2.974423E-09,-2.861022E-08
625.5482,-0.01449038,-5.429327E-09,NaN,-0.8416442,-1.33553E-07,NaN,-1.562888,-3.744455E-07,NaN,-1.774086,1.873081E-05,0.0500186,5.645972E-08,NaN,NaN,-0.1198076,2.3283E-10,-2.301768E-07,-1.115724E-07,5.358609E-09,-2.622604E-08
625.5639,-0.01449117,-5.428546E-09,NaN,-0.8413377,-1.335533E-07,NaN,-1.562988,-3.741957E-07,NaN,-1.772056,1.873129E-05,0.04716647,5.621138E-08,NaN,NaN,-0.1200458,2.235168E-10,-2.280348E-07,-1.115719E-07,7.742795E-09,-2.861022E-08
625.58,-0.01449117,-5.428546E-09,NaN,-0.8413377,-1.335533E-07,NaN,-1.562988,-3.741957E-07,NaN,-1.772056,1.873129E-05,0.04716647,5.621138E-08,NaN,NaN,-0.1200458,2.235168E-10,-2.280348E-07,-1.115719E-07,7.742795E-09,-2.861022E-08
625.5948,-0.01449213,-5.427765E-09,NaN,-0.8409531,-1.335534E-07,NaN,-1.563262,-3.74055E-07,NaN,-1.76944,1.873175E-05,0.04279738,5.60722E-08,NaN,NaN,-0.1204086,2.3283E-10,-2.244585E-07,-1.115727E-07,7.742795E-09,-2.622604E-08
625.6111,-0.01449321,-5.426984E-09,NaN,-0.8405221,-1.335536E-07,NaN,-1.563448,-3.738493E-07,NaN,-1.766559,1.873222E-05,0.038522,5.5868E-08,NaN,NaN,-0.1207644,2.3283E-10,-2.219812E-07,-1.115736E-07,7.742795E-09,-2.861022E-08
625.6277,-0.01449438,-5.426203E-09,NaN,-0.8400642,-1.33554E-07,NaN,-1.56359,-3.736109E-07,NaN,-1.763567,1.873268E-05,0.0343448,5.563107E-08,NaN,NaN,-0.1211132,2.3283E-10,-2.191593E-07,-1.115731E-07,5.902376E-10,-2.622604E-08
625.6426,-0.01449562,-5.425421E-09,NaN,-0.839592,-1.33554E-07,NaN,-1.56371,-3.734843E-07,NaN,-1.760542,1.873316E-05,0.03025656,5.55059E-08,NaN,NaN,-0.1214551,2.3283E-10,-2.160859E-07,-1.115739E-07,2.974423E-09,-2.861022E-08
625.6586,-0.01449562,-5.425421E-09,NaN,-0.839592,-1.33554E-07,NaN,-1.56371,-3.734843E-07,NaN,-1.760542,1.873316E-05,0.03025656,5.55059E-08,NaN,NaN,-0.1214551,2.3283E-10,-2.160859E-07,-1.115739E-07,2.974423E-09,-2.861022E-08
625.6738,-0.01449721,-5.42464E-09,NaN,-0.8390436,-1.335543E-07,NaN,-1.563988,-3.732895E-07,NaN,-1.756946,1.873362E-05,0.02467838,5.53126E-08,NaN,NaN,-0.1219198,2.421432E-10,-2.105818E-07,-1.115748E-07,-1.793948E-09,-2.622604E-08
625.6904,-0.01449916,-5.423859E-09,NaN,-0.8384506,-1.335546E-07,NaN,-1.564178,-3.730646E-07,NaN,-1.753099,1.873409E-05,0.01922036,5.508918E-08,NaN,NaN,-0.1223753,2.3283E-10,-2.059951E-07,-1.115743E-07,-1.793948E-09,-2.861022E-08
625.7062,-0.0145014,-5.423078E-09,NaN,-0.8378328,-1.335547E-07,NaN,-1.564325,-3.729512E-07,NaN,-1.749155,1.873455E-05,0.01388353,5.497726E-08,NaN,NaN,-0.1228219,2.467999E-10,-2.004724E-07,-1.11575E-07,5.902376E-10,-2.622604E-08
625.7219,-0.01450387,-5.422297E-09,NaN,-0.8372025,-1.335549E-07,NaN,-1.564448,-3.727694E-07,NaN,-1.745191,1.873502E-05,0.008658692,5.479696E-08,NaN,NaN,-0.1232598,2.421432E-10,-1.963234E-07,-1.115744E-07,2.974423E-09,-2.861022E-08
625.7377,-0.01450387,-5.422297E-09,NaN,-0.8372025,-1.335549E-07,NaN,-1.564448,-3.727694E-07,NaN,-1.745191,1.873502E-05,0.008658692,5.479696E-08,NaN,NaN,-0.1232598,2.421432E-10,-1.963234E-07,-1.115744E-07,2.974423E-09,-2.861022E-08
625.7527,-0.01450674,-5.421516E-09,NaN,-0.8364979,-1.335549E-07,NaN,-1.56471,-3.726813E-07,NaN,-1.740671,1.873548E-05,0.001970284,5.471038E-08,NaN,NaN,-0.1238185,2.514565E-10,-1.883047E-07,-1.115751E-07,2.974423E-09,-2.622604E-08
625.7693,-0.01451,-5.420735E-09,NaN,-0.8357506,-1.335551E-07,NaN,-1.564888,-3.725159E-07,NaN,-1.735914,1.873595E-05,-0.004573816,5.454644E-08,NaN,NaN,-0.1243662,2.514565E-10,-1.80761E-07,-1.11576E-07,1.012698E-08,-2.861022E-08
625.7852,-0.01451356,-5.419953E-09,NaN,-0.8349804,-1.335554E-07,NaN,-1.565022,-3.723142E-07,NaN,-1.731073,1.873641E-05,-0.01097601,5.434617E-08,NaN,NaN,-0.1249032,2.514565E-10,-1.737015E-07,-1.115755E-07,1.251117E-08,-2.622604E-08
625.801,-0.01451736,-5.419172E-09,NaN,-0.8341994,-1.335554E-07,NaN,-1.565133,-3.722178E-07,NaN,-1.726225,1.873689E-05,-0.01724513,5.425131E-08,NaN,NaN,-0.1254296,2.514565E-10,-1.671823E-07,-1.115762E-07,1.012698E-08,-2.861022E-08
625.8182,-0.01451736,-5.419172E-09,NaN,-0.8341994,-1.335554E-07,NaN,-1.565133,-3.722178E-07,NaN,-1.726225,1.873689E-05,-0.01724513,5.425131E-08,NaN,NaN,-0.1254296,2.514565E-10,-1.671823E-07,-1.115762E-07,1.012698E-08,-2.861022E-08
625.832,-0.01452156,-5.418392E-09,NaN,-0.8333459,-1.335557E-07,NaN,-1.56536,-3.720528E-07,NaN,-1.720834,1.873735E-05,-0.0249515,5.408771E-08,NaN,NaN,-0.1260752,2.561131E-10,-1.570867E-07,-1.115756E-07,7.742795E-09,-2.622604E-08
625.8482,-0.01452615,-5.417611E-09,NaN,-0.8324515,-1.335556E-07,NaN,-1.565508,-3.719811E-07,NaN,-1.715219,1.873782E-05,-0.03249202,5.401753E-08,NaN,NaN,-0.1267081,2.561131E-10,-1.469167E-07,-1.115763E-07,1.012698E-08,-2.861022E-08
625.8638,-0.01453103,-5.41683E-09,NaN,-0.8315359,-1.335558E-07,NaN,-1.565616,-3.718318E-07,NaN,-1.709533,1.873828E-05,-0.03987196,5.386967E-08,NaN,NaN,-0.1273285,2.607697E-10,-1.373054E-07,-1.115757E-07,1.489535E-08,-2.622604E-08
625.8797,-0.01453103,-5.41683E-09,NaN,-0.8315359,-1.335558E-07,NaN,-1.565616,-3.718318E-07,NaN,-1.709533,1.873828E-05,-0.03987196,5.386967E-08,NaN,NaN,-0.1273285,2.607697E-10,-1.373054E-07,-1.115757E-07,1.489535E-08,-2.622604E-08
625.8947,-0.01453638,-5.416049E-09,NaN,-0.830542,-1.335558E-07,NaN,-1.565814,-3.717699E-07,NaN,-1.703278,1.873875E-05,-0.04865923,5.380926E-08,NaN,NaN,-0.1280663,2.607697E-10,-1.21473E-07,-1.115764E-07,1.489535E-08,-2.861022E-08
625.9109,-0.01454215,-5.415269E-09,NaN,-0.8295041,-1.335559E-07,NaN,-1.565935,-3.716273E-07,NaN,-1.696792,1.873921E-05,-0.05725772,5.366817E-08,NaN,NaN,-0.1287895,2.654263E-10,-1.069443E-07,-1.115757E-07,1.489535E-08,-2.622604E-08
625.9269,-0.01454825,-5.414488E-09,NaN,-0.8284438,-1.335559E-07,NaN,-1.566014,-3.71572E-07,NaN,-1.690238,1.873968E-05,-0.06567493,5.361441E-08,NaN,NaN,-0.1294985,2.654263E-10,-9.450186E-08,-1.115764E-07,1.251117E-08,-2.861022E-08
625.9427,-0.01455461,-5.413707E-09,NaN,-0.8273744,-1.335561E-07,NaN,-1.566068,-3.71436E-07,NaN,-1.683696,1.874014E-05,-0.07391901,5.347983E-08,NaN,NaN,-0.1301937,2.700829E-10,-8.131434E-08,-1.115758E-07,1.251117E-08,-2.622604E-08
625.9586,-0.01455461,-5.413707E-09,NaN,-0.8273744,-1.335561E-07,NaN,-1.566068,-3.71436E-07,NaN,-1.683696,1.874014E-05,-0.07391901,5.347983E-08,NaN,NaN,-0.1301937,2.700829E-10,-8.131434E-08,-1.115758E-07,1.251117E-08,-2.622604E-08
625.9736,-0.01456073,-5.412927E-09,NaN,-0.8263046,-1.33556E-07,NaN,-1.566105,-3.713843E-07,NaN,-1.677207,1.874061E-05,-0.08199526,5.342961E-08,NaN,NaN,-0.1308743,2.700829E-10,-6.775429E-08,-1.115764E-07,1.251117E-08,-2.861022E-08
625.9899,-0.01456672,-5.412146E-09,NaN,-0.8252392,-1.335562E-07,NaN,-1.566128,-3.712517E-07,NaN,-1.670791,1.874107E-05,-0.08990811,5.329852E-08,NaN,NaN,-0.1315416,2.747395E-10,-5.434324E-08,-1.115758E-07,1.251117E-08,-2.622604E-08
626.0056,-0.01457265,-5.411366E-09,NaN,-0.8241814,-1.335561E-07,NaN,-1.566139,-3.712034E-07,NaN,-1.664457,1.874154E-05,-0.09766132,5.325173E-08,NaN,NaN,-0.1321958,2.747395E-10,-4.093219E-08,-1.115765E-07,1.012698E-08,-2.861022E-08
626.0217,-0.01457855,-5.410585E-09,NaN,-0.823133,-1.335563E-07,NaN,-1.56614,-3.710742E-07,NaN,-1.658209,1.8742E-05,-0.1052584,5.312399E-08,NaN,NaN,-0.1328371,2.793961E-10,-2.826621E-08,-1.115758E-07,1.727954E-08,-2.622604E-08
626.0373,-0.01457855,-5.410585E-09,NaN,-0.823133,-1.335563E-07,NaN,-1.56614,-3.710742E-07,NaN,-1.658209,1.8742E-05,-0.1052584,5.312399E-08,NaN,NaN,-0.1328371,2.793961E-10,-2.826621E-08,-1.115758E-07,1.727954E-08,-2.622604E-08
626.0523,-0.01458423,-5.409805E-09,NaN,-0.8221644,-1.335562E-07,NaN,-1.566071,-3.710292E-07,NaN,-1.652622,1.874247E-05,-0.111162,5.308049E-08,NaN,NaN,-0.1333366,2.793961E-10,-2.379586E-08,-1.115765E-07,1.727954E-08,-2.861022E-08
626.0691,-0.01458966,-5.409025E-09,NaN,-0.8212493,-1.335558E-07,NaN,-1.566031,-3.715461E-07,NaN,-1.647397,1.874294E-05,-0.1169521,5.359888E-08,NaN,NaN,-0.1338264,2.747395E-10,-1.768638E-08,-1.115752E-07,1.727954E-08,-2.622604E-08
626.0844,-0.01459487,-5.408245E-09,NaN,-0.8203714,-1.335548E-07,NaN,-1.566,-3.722614E-07,NaN,-1.642389,1.87434E-05,-0.122629,5.431575E-08,NaN,NaN,-0.1343065,2.700829E-10,-8.745688E-09,-1.115733E-07,1.727954E-08,-2.861022E-08
626.1003,-0.01459991,-5.407465E-09,NaN,-0.8195204,-1.335534E-07,NaN,-1.565973,-3.730755E-07,NaN,-1.637527,1.874385E-05,-0.1281935,5.513133E-08,NaN,NaN,-0.1347772,2.700829E-10,-9.970842E-10,-1.115712E-07,2.44321E-08,-2.622604E-08
626.116,-0.01459991,-5.407465E-09,NaN,-0.8195204,-1.335534E-07,NaN,-1.565973,-3.730755E-07,NaN,-1.637527,1.874385E-05,-0.1281935,5.513133E-08,NaN,NaN,-0.1347772,2.700829E-10,-9.970842E-10,-1.115712E-07,2.44321E-08,-2.622604E-08
626.1312,-0.01460461,-5.406686E-09,NaN,-0.818759,-1.335518E-07,NaN,-1.565903,-3.739355E-07,NaN,-1.633346,1.874431E-05,-0.132114,5.59929E-08,NaN,NaN,-0.1351094,2.607697E-10,-1.891154E-09,-1.115689E-07,2.44321E-08,-2.861022E-08
626.1475,-0.01460898,-5.405906E-09,NaN,-0.8180563,-1.3355E-07,NaN,-1.565856,-3.748153E-07,NaN,-1.629527,1.874475E-05,-0.1359584,5.687417E-08,NaN,NaN,-0.1354351,2.607697E-10,4.930318E-10,-1.115666E-07,1.727954E-08,-2.622604E-08
626.1631,-0.01461306,-5.405127E-09,NaN,-0.8173931,-1.335481E-07,NaN,-1.565819,-3.756975E-07,NaN,-1.625917,1.87452E-05,-0.1397274,5.775785E-08,NaN,NaN,-0.1357544,2.607697E-10,4.06931E-09,-1.115642E-07,1.966372E-08,-2.861022E-08
626.179,-0.01461306,-5.405127E-09,NaN,-0.8173931,-1.335481E-07,NaN,-1.565819,-3.756975E-07,NaN,-1.625917,1.87452E-05,-0.1397274,5.775785E-08,NaN,NaN,-0.1357544,2.607697E-10,4.06931E-09,-1.115642E-07,1.966372E-08,-2.861022E-08
626.1939,-0.01461693,-5.404348E-09,NaN,-0.8167572,-1.335463E-07,NaN,-1.565786,-3.765735E-07,NaN,-1.622437,1.874565E-05,-0.1434218,5.863541E-08,NaN,NaN,-0.1360675,2.607697E-10,7.645589E-09,-1.115618E-07,1.727954E-08,-2.622604E-08
626.2104,-0.01462042,-5.403569E-09,NaN,-0.8162103,-1.335443E-07,NaN,-1.565727,-3.774379E-07,NaN,-1.619621,1.874611E-05,-0.1455148,5.950135E-08,NaN,NaN,-0.1362452,2.514565E-10,1.387102E-09,-1.115593E-07,1.489535E-08,-2.861022E-08
626.2261,-0.01462356,-5.40279E-09,NaN,-0.8157207,-1.335424E-07,NaN,-1.565684,-3.782852E-07,NaN,-1.61715,1.874655E-05,-0.1475659,6.035023E-08,NaN,NaN,-0.1364194,2.514565E-10,-1.593131E-09,-1.115569E-07,1.727954E-08,-2.622604E-08
626.2416,-0.0146264,-5.402011E-09,NaN,-0.8152687,-1.335405E-07,NaN,-1.565649,-3.791158E-07,NaN,-1.614869,1.874701E-05,-0.1495762,6.11824E-08,NaN,NaN,-0.1365901,2.421432E-10,-3.38127E-09,-1.115545E-07,2.204791E-08,-2.861022E-08
626.2574,-0.0146264,-5.402011E-09,NaN,-0.8152687,-1.335405E-07,NaN,-1.565649,-3.791158E-07,NaN,-1.614869,1.874701E-05,-0.1495762,6.11824E-08,NaN,NaN,-0.1365901,2.421432E-10,-3.38127E-09,-1.115545E-07,2.204791E-08,-2.861022E-08
626.2725,-0.01462901,-5.401232E-09,NaN,-0.8148419,-1.335385E-07,NaN,-1.565616,-3.799301E-07,NaN,-1.612699,1.874746E-05,-0.1515464,6.199819E-08,NaN,NaN,-0.1367575,2.421432E-10,-3.977316E-09,-1.115521E-07,1.966372E-08,-2.622604E-08
626.2892,-0.01463124,-5.400454E-09,NaN,-0.8145019,-1.335366E-07,NaN,-1.565568,-3.807255E-07,NaN,-1.611174,1.874791E-05,-0.1519525,6.27951E-08,NaN,NaN,-0.1367925,2.3283E-10,-1.545121E-08,-1.115496E-07,2.44321E-08,-2.861022E-08
626.3047,-0.01463311,-5.399675E-09,NaN,-0.814217,-1.335347E-07,NaN,-1.565531,-3.815023E-07,NaN,-1.609975,1.874835E-05,-0.1523485,6.357349E-08,NaN,NaN,-0.1368267,2.3283E-10,-2.409388E-08,-1.115472E-07,2.44321E-08,-2.622604E-08
626.3217,-0.01463469,-5.398897E-09,NaN,-0.8139674,-1.335328E-07,NaN,-1.565499,-3.82261E-07,NaN,-1.608948,1.87488E-05,-0.1527354,6.433374E-08,NaN,NaN,-0.1368602,2.235168E-10,-2.975632E-08,-1.115448E-07,2.44321E-08,-2.861022E-08
626.3364,-0.01463469,-5.398897E-09,NaN,-0.8139674,-1.335328E-07,NaN,-1.565499,-3.82261E-07,NaN,-1.608948,1.87488E-05,-0.1527354,6.433374E-08,NaN,NaN,-0.1368602,2.235168E-10,-2.975632E-08,-1.115448E-07,2.44321E-08,-2.861022E-08
626.3508,-0.01463603,-5.398119E-09,NaN,-0.8137407,-1.335309E-07,NaN,-1.565469,-3.830019E-07,NaN,-1.608013,1.874924E-05,-0.1531141,6.507619E-08,NaN,NaN,-0.1368931,2.235168E-10,-3.512074E-08,-1.115424E-07,1.727954E-08,-2.622604E-08
626.3674,-0.01463701,-5.397341E-09,NaN,-0.8135983,-1.33529E-07,NaN,-1.565427,-3.837253E-07,NaN,-1.607705,1.87497E-05,-0.151961,6.580119E-08,NaN,NaN,-0.1367961,2.142036E-10,-5.166103E-08,-1.115401E-07,1.489535E-08,-2.861022E-08
626.3827,-0.0146378,-5.396564E-09,NaN,-0.8135087,-1.335271E-07,NaN,-1.565393,-3.844317E-07,NaN,-1.607706,1.875014E-05,-0.1508274,6.650909E-08,NaN,NaN,-0.136701,2.142036E-10,-6.328393E-08,-1.115377E-07,1.489535E-08,-2.622604E-08
626.3985,-0.0146378,-5.396564E-09,NaN,-0.8135087,-1.335271E-07,NaN,-1.565393,-3.844317E-07,NaN,-1.607706,1.875014E-05,-0.1508274,6.650909E-08,NaN,NaN,-0.136701,2.142036E-10,-6.328393E-08,-1.115377E-07,1.489535E-08,-2.622604E-08
626.4134,-0.01463848,-5.395786E-09,NaN,-0.8134521,-1.335252E-07,NaN,-1.565361,-3.851212E-07,NaN,-1.60786,1.875058E-05,-0.1497143,6.720023E-08,NaN,NaN,-0.1366078,2.142036E-10,-7.252265E-08,-1.115353E-07,1.251117E-08,-2.861022E-08
626.4302,-0.01463909,-5.395008E-09,NaN,-0.8134161,-1.335233E-07,NaN,-1.56533,-3.857944E-07,NaN,-1.608089,1.875102E-05,-0.148622,6.787492E-08,NaN,NaN,-0.1365164,2.142036E-10,-8.012225E-08,-1.115329E-07,7.742798E-09,-2.622604E-08
626.4457,-0.01463953,-5.394231E-09,NaN,-0.8134607,-1.335214E-07,NaN,-1.565286,-3.864514E-07,NaN,-1.60893,1.875147E-05,-0.146026,6.85335E-08,NaN,NaN,-0.1362975,2.048903E-10,-9.785463E-08,-1.115306E-07,1.489535E-08,-2.861022E-08
626.4612,-0.01463986,-5.393454E-09,NaN,-0.8135549,-1.335195E-07,NaN,-1.565247,-3.870926E-07,NaN,-1.610062,1.875191E-05,-0.1434771,6.917628E-08,NaN,NaN,-0.136083,2.048903E-10,-1.120107E-07,-1.115283E-07,1.966373E-08,-2.622604E-08
626.477,-0.01463986,-5.393454E-09,NaN,-0.8135549,-1.335195E-07,NaN,-1.565247,-3.870926E-07,NaN,-1.610062,1.875191E-05,-0.1434771,6.917628E-08,NaN,NaN,-0.136083,2.048903E-10,-1.120107E-07,-1.115283E-07,1.966373E-08,-2.622604E-08
626.4923,-0.01464011,-5.392677E-09,NaN,-0.8136793,-1.335176E-07,NaN,-1.565209,-3.877184E-07,NaN,-1.61133,1.875237E-05,-0.1409761,6.980357E-08,NaN,NaN,-0.1358726,1.955771E-10,-1.237827E-07,-1.115259E-07,1.727954E-08,-2.861022E-08
626.5087,-0.01464031,-5.391901E-09,NaN,-0.8138217,-1.335158E-07,NaN,-1.565171,-3.883289E-07,NaN,-1.612657,1.875281E-05,-0.1385228,7.041572E-08,NaN,NaN,-0.1356663,1.955771E-10,-1.346605E-07,-1.115236E-07,1.489536E-08,-2.622604E-08
626.5245,-0.01464035,-5.391124E-09,NaN,-0.814044,-1.335144E-07,NaN,-1.565114,-3.890233E-07,NaN,-1.614578,1.875326E-05,-0.13459,7.111166E-08,NaN,NaN,-0.1353348,1.909205E-10,-1.53883E-07,-1.115235E-07,1.251117E-08,-2.861022E-08
626.5403,-0.01464027,-5.390348E-09,NaN,-0.8143145,-1.335139E-07,NaN,-1.565062,-3.894529E-07,NaN,-1.616774,1.875372E-05,-0.1307304,7.154283E-08,NaN,NaN,-0.1350099,1.909205E-10,-1.701998E-07,-1.11524E-07,1.727954E-08,-2.622604E-08
626.5561,-0.01464027,-5.390348E-09,NaN,-0.8143145,-1.335139E-07,NaN,-1.565062,-3.894529E-07,NaN,-1.616774,1.875372E-05,-0.1307304,7.154283E-08,NaN,NaN,-0.1350099,1.909205E-10,-1.701998E-07,-1.11524E-07,1.727954E-08,-2.622604E-08
626.5709,-0.01464012,-5.389572E-09,NaN,-0.8146136,-1.335139E-07,NaN,-1.56501,-3.89733E-07,NaN,-1.61909,1.875419E-05,-0.126944,7.182443E-08,NaN,NaN,-0.1346912,1.909205E-10,-1.839088E-07,-1.115233E-07,2.204791E-08,-2.861022E-08
626.5873,-0.01463992,-5.388796E-09,NaN,-0.8149289,-1.335138E-07,NaN,-1.564957,-3.900554E-07,NaN,-1.621449,1.875466E-05,-0.1232301,7.214838E-08,NaN,NaN,-0.1343788,1.909205E-10,-1.954572E-07,-1.11524E-07,1.966373E-08,-2.622604E-08
626.603,-0.01463956,-5.388019E-09,NaN,-0.8153222,-1.335139E-07,NaN,-1.564876,-3.902642E-07,NaN,-1.624388,1.875514E-05,-0.1180574,7.23587E-08,NaN,NaN,-0.1339433,1.816073E-10,-2.154248E-07,-1.115235E-07,1.727954E-08,-2.861022E-08
626.6185,-0.01463956,-5.388019E-09,NaN,-0.8153222,-1.335139E-07,NaN,-1.564876,-3.902642E-07,NaN,-1.624388,1.875514E-05,-0.1180574,7.23587E-08,NaN,NaN,-0.1339433,1.816073E-10,-2.154248E-07,-1.115235E-07,1.727954E-08,-2.861022E-08
626.6337,-0.01463908,-5.387243E-09,NaN,-0.8157619,-1.335139E-07,NaN,-1.564801,-3.905394E-07,NaN,-1.627585,1.875562E-05,-0.1129823,7.263533E-08,NaN,NaN,-0.1335163,1.816073E-10,-2.321141E-07,-1.115243E-07,1.727954E-08,-2.622604E-08
626.65,-0.01463852,-5.386467E-09,NaN,-0.8162281,-1.335142E-07,NaN,-1.564725,-3.907187E-07,NaN,-1.630889,1.875609E-05,-0.108004,7.281619E-08,NaN,NaN,-0.1330976,1.769506E-10,-2.454506E-07,-1.115238E-07,1.966373E-08,-2.861022E-08
626.6666,-0.01463791,-5.385691E-09,NaN,-0.8167087,-1.335142E-07,NaN,-1.564648,-3.909734E-07,NaN,-1.634221,1.875656E-05,-0.1031212,7.30724E-08,NaN,NaN,-0.1326872,1.72294E-10,-2.576696E-07,-1.115231E-07,1.966373E-08,-2.622604E-08
