JMolnar6/NonAnthroHands_User_Study/HandsLoggerWithURDF/tempdata/files/Reachy_JointMotion_gesture_11_55.csv
Time,r_shoulder,r_shoulder_x,r_upper_arm,r_forearm,r_wrist,r_wrist2hand,
791.5651,-0.8550097,5.092983E-10,NaN,-0.3630725,-1.32054E-07,NaN,1.151698,-4.670945E-07,NaN,-0.677703,2.231554E-05,0.431755,4.564304E-08,NaN,NaN,-0.01028483,-5.820771E-10,-7.623953E-07,-1.096325E-07,-2.414866E-08,-2.861022E-08
791.5813,-0.8527849,5.099283E-10,NaN,-0.3622999,-1.320533E-07,NaN,1.151603,-4.670015E-07,NaN,-0.6748534,2.231592E-05,0.4328425,4.555144E-08,NaN,NaN,-0.01011301,-5.913903E-10,-7.647795E-07,-1.096315E-07,-2.295657E-08,-2.622604E-08
791.5964,-0.8527849,5.099283E-10,NaN,-0.3622999,-1.320533E-07,NaN,1.151603,-4.670015E-07,NaN,-0.6748534,2.231592E-05,0.4328425,4.555144E-08,NaN,NaN,-0.01011301,-5.913903E-10,-7.647795E-07,-1.096315E-07,-2.295657E-08,-2.622604E-08
791.6115,-0.8504516,5.105584E-10,NaN,-0.3614893,-1.320526E-07,NaN,1.151419,-4.669103E-07,NaN,-0.6717175,2.231629E-05,0.4341137,4.546158E-08,NaN,NaN,-0.009944517,-5.867337E-10,-7.671637E-07,-1.096305E-07,-2.176447E-08,-2.861022E-08
791.6281,-0.8480605,5.111884E-10,NaN,-0.3606591,-1.32052E-07,NaN,1.151261,-4.668179E-07,NaN,-0.6684713,2.231667E-05,0.4354146,4.537061E-08,NaN,NaN,-0.009779424,-5.960469E-10,-7.683558E-07,-1.096295E-07,-1.461192E-08,-2.622604E-08
791.6439,-0.8456436,5.118184E-10,NaN,-0.3598209,-1.320513E-07,NaN,1.151154,-4.667273E-07,NaN,-0.6652001,2.231704E-05,0.4366919,4.528136E-08,NaN,NaN,-0.009617676,-5.913903E-10,-7.695479E-07,-1.096286E-07,-1.69961E-08,-2.861022E-08
791.66,-0.8456436,5.118184E-10,NaN,-0.3598209,-1.320513E-07,NaN,1.151154,-4.667273E-07,NaN,-0.6652001,2.231704E-05,0.4366919,4.528136E-08,NaN,NaN,-0.009617676,-5.913903E-10,-7.695479E-07,-1.096286E-07,-1.69961E-08,-2.861022E-08
791.6748,-0.8434335,5.124483E-10,NaN,-0.3590586,-1.320506E-07,NaN,1.151442,-4.666384E-07,NaN,-0.6624323,2.231742E-05,0.4374518,4.519383E-08,NaN,NaN,-0.009543276,-6.007035E-10,-7.623954E-07,-1.096276E-07,-1.580401E-08,-2.622604E-08
791.6912,-0.8413619,5.130781E-10,NaN,-0.3583457,-1.320499E-07,NaN,1.151862,-4.665484E-07,NaN,-0.6600214,2.231779E-05,0.4379717,4.510512E-08,NaN,NaN,-0.009470436,-5.960469E-10,-7.504744E-07,-1.096267E-07,-1.580401E-08,-2.861022E-08
791.7072,-0.8393854,5.13708E-10,NaN,-0.3576661,-1.320493E-07,NaN,1.152287,-4.664572E-07,NaN,-0.6577986,2.231817E-05,0.4384086,4.501529E-08,NaN,NaN,-0.009398986,-6.053602E-10,-7.385535E-07,-1.096257E-07,-2.057238E-08,-2.622604E-08
791.7231,-0.8374768,5.143378E-10,NaN,-0.3570097,-1.320486E-07,NaN,1.152684,-4.663677E-07,NaN,-0.6556819,2.231854E-05,0.4388205,4.492716E-08,NaN,NaN,-0.009328876,-6.007035E-10,-7.278247E-07,-1.096248E-07,-2.057238E-08,-2.861022E-08
791.739,-0.8374768,5.143378E-10,NaN,-0.3570097,-1.320486E-07,NaN,1.152684,-4.663677E-07,NaN,-0.6556819,2.231854E-05,0.4388205,4.492716E-08,NaN,NaN,-0.009328876,-6.007035E-10,-7.278247E-07,-1.096248E-07,-2.057238E-08,-2.861022E-08
791.7553,-0.8358312,5.149675E-10,NaN,-0.3564473,-1.320479E-07,NaN,1.153401,-4.662798E-07,NaN,-0.6541199,2.231892E-05,0.438749,4.484071E-08,NaN,NaN,-0.009344229,-6.100168E-10,-7.087512E-07,-1.096238E-07,-2.295656E-08,-2.622604E-08
791.7704,-0.8343569,5.155972E-10,NaN,-0.3559446,-1.320473E-07,NaN,1.154194,-4.661908E-07,NaN,-0.652928,2.231929E-05,0.4384726,4.475307E-08,NaN,NaN,-0.009359272,-6.053602E-10,-6.884856E-07,-1.096229E-07,-2.176447E-08,-2.861022E-08
791.7859,-0.8329959,5.162269E-10,NaN,-0.3554806,-1.320466E-07,NaN,1.15495,-4.661035E-07,NaN,-0.6519199,2.231967E-05,0.4381443,4.466711E-08,NaN,NaN,-0.00937391,-6.146734E-10,-6.706042E-07,-1.096219E-07,-2.653284E-08,-2.622604E-08
791.8015,-0.8317115,5.168566E-10,NaN,-0.3550423,-1.32046E-07,NaN,1.155648,-4.660149E-07,NaN,-0.6510054,2.232004E-05,0.4378172,4.457995E-08,NaN,NaN,-0.009388153,-6.100168E-10,-6.55107E-07,-1.09621E-07,-2.414866E-08,-2.861022E-08
791.8176,-0.8317115,5.168566E-10,NaN,-0.3550423,-1.32046E-07,NaN,1.155648,-4.660149E-07,NaN,-0.6510054,2.232004E-05,0.4378172,4.457995E-08,NaN,NaN,-0.009388153,-6.100168E-10,-6.55107E-07,-1.09621E-07,-2.414866E-08,-2.861022E-08
791.8326,-0.830693,5.174863E-10,NaN,-0.3546986,-1.320453E-07,NaN,1.156647,-4.659281E-07,NaN,-0.6506302,2.232042E-05,0.4370295,4.449445E-08,NaN,NaN,-0.009486191,-6.1933E-10,-6.324572E-07,-1.096201E-07,-2.176447E-08,-2.622604E-08
791.8492,-0.8298452,5.181159E-10,NaN,-0.3544141,-1.320446E-07,NaN,1.157707,-4.6584E-07,NaN,-0.6506079,2.232079E-05,0.4360553,4.440775E-08,NaN,NaN,-0.009582268,-6.146734E-10,-6.074233E-07,-1.096191E-07,-2.176447E-08,-2.861022E-08
791.8649,-0.8291079,5.187455E-10,NaN,-0.3541672,-1.32044E-07,NaN,1.158716,-4.657535E-07,NaN,-0.6507519,2.232117E-05,0.4350457,4.43227E-08,NaN,NaN,-0.009676333,-6.239866E-10,-5.847735E-07,-1.096182E-07,-2.534075E-08,-2.622604E-08
791.8808,-0.8284429,5.19375E-10,NaN,-0.3539445,-1.320433E-07,NaN,1.159656,-4.656659E-07,NaN,-0.6509718,2.232154E-05,0.4340523,4.423644E-08,NaN,NaN,-0.009768433,-6.1933E-10,-5.633158E-07,-1.096173E-07,-2.891703E-08,-2.861022E-08
791.8969,-0.8284429,5.19375E-10,NaN,-0.3539445,-1.320433E-07,NaN,1.159656,-4.656659E-07,NaN,-0.6509718,2.232154E-05,0.4340523,4.423644E-08,NaN,NaN,-0.009768433,-6.1933E-10,-5.633158E-07,-1.096173E-07,-2.891703E-08,-2.861022E-08
791.9117,-0.8280384,5.200045E-10,NaN,-0.3538144,-1.320427E-07,NaN,1.160887,-4.655799E-07,NaN,-0.6517136,2.232192E-05,0.4326115,4.415183E-08,NaN,NaN,-0.00994277,-6.286432E-10,-5.347056E-07,-1.096163E-07,-2.414866E-08,-2.622604E-08
791.9283,-0.827799,5.20634E-10,NaN,-0.3537417,-1.32042E-07,NaN,1.162167,-4.654927E-07,NaN,-0.6527911,2.232229E-05,0.4309981,4.406599E-08,NaN,NaN,-0.01011363,-6.239866E-10,-5.060954E-07,-1.096154E-07,-2.057238E-08,-2.861022E-08
791.9443,-0.8276641,5.212634E-10,NaN,-0.3537047,-1.320414E-07,NaN,1.163387,-4.654071E-07,NaN,-0.6540177,2.232267E-05,0.4293625,4.398178E-08,NaN,NaN,-0.01028099,-6.332998E-10,-4.798694E-07,-1.096145E-07,-1.69961E-08,-2.622604E-08
791.9601,-0.8275954,5.218928E-10,NaN,-0.3536897,-1.320407E-07,NaN,1.164528,-4.653204E-07,NaN,-0.6553035,2.232304E-05,0.4277561,4.389642E-08,NaN,NaN,-0.01044494,-6.286432E-10,-4.572196E-07,-1.096136E-07,-1.580401E-08,-2.861022E-08
791.976,-0.8275954,5.218928E-10,NaN,-0.3536897,-1.320407E-07,NaN,1.164528,-4.653204E-07,NaN,-0.6553035,2.232304E-05,0.4277561,4.389642E-08,NaN,NaN,-0.01044494,-6.286432E-10,-4.572196E-07,-1.096136E-07,-1.580401E-08,-2.861022E-08
791.991,-0.8277799,5.225221E-10,NaN,-0.3537641,-1.320401E-07,NaN,1.165948,-4.652352E-07,NaN,-0.6570942,2.232342E-05,0.4257138,4.381269E-08,NaN,NaN,-0.01068966,-6.379564E-10,-4.262252E-07,-1.096127E-07,-1.69961E-08,-2.622604E-08
792.0078,-0.8281226,5.231514E-10,NaN,-0.3538933,-1.320395E-07,NaN,1.167406,-4.651517E-07,NaN,-0.6592041,2.232379E-05,0.4235123,4.373055E-08,NaN,NaN,-0.0109295,-6.332998E-10,-3.940387E-07,-1.096118E-07,-2.057238E-08,-2.861022E-08
792.0236,-0.828563,5.237806E-10,NaN,-0.3540555,-1.320388E-07,NaN,1.168792,-4.650669E-07,NaN,-0.661447,2.232417E-05,0.4213018,4.364714E-08,NaN,NaN,-0.01116448,-6.42613E-10,-3.630443E-07,-1.096109E-07,-1.580401E-08,-2.622604E-08
792.0392,-0.828563,5.237806E-10,NaN,-0.3540555,-1.320388E-07,NaN,1.168792,-4.650669E-07,NaN,-0.661447,2.232417E-05,0.4213018,4.364714E-08,NaN,NaN,-0.01116448,-6.42613E-10,-3.630443E-07,-1.096109E-07,-1.580401E-08,-2.622604E-08
792.0544,-0.8292754,5.244098E-10,NaN,-0.354314,-1.320382E-07,NaN,1.170441,-4.649837E-07,NaN,-0.6642221,2.232454E-05,0.418651,4.356531E-08,NaN,NaN,-0.01147874,-6.379564E-10,-3.248973E-07,-1.0961E-07,-1.222773E-08,-2.861022E-08
792.0708,-0.8301552,5.25039E-10,NaN,-0.3546305,-1.320375E-07,NaN,1.172099,-4.648993E-07,NaN,-0.6673206,2.232492E-05,0.4158548,4.348221E-08,NaN,NaN,-0.01178671,-6.472696E-10,-2.879425E-07,-1.096091E-07,-8.651451E-09,-2.622604E-08
792.0866,-0.8311363,5.256681E-10,NaN,-0.3549808,-1.320369E-07,NaN,1.173661,-4.648164E-07,NaN,-0.6705456,2.232528E-05,0.4130672,4.34007E-08,NaN,NaN,-0.01208845,-6.42613E-10,-2.55756E-07,-1.096082E-07,-5.075172E-09,-2.861022E-08
792.1025,-0.8321767,5.262971E-10,NaN,-0.3553503,-1.320363E-07,NaN,1.175113,-4.647322E-07,NaN,-0.6738024,2.232567E-05,0.410338,4.331791E-08,NaN,NaN,-0.01238408,-6.519262E-10,-2.211853E-07,-1.096073E-07,-2.690987E-09,-2.622604E-08
792.1185,-0.8321767,5.262971E-10,NaN,-0.3553503,-1.320363E-07,NaN,1.175113,-4.647322E-07,NaN,-0.6738024,2.232567E-05,0.410338,4.331791E-08,NaN,NaN,-0.01238408,-6.519262E-10,-2.211853E-07,-1.096073E-07,-2.690987E-09,-2.622604E-08
792.1334,-0.8334624,5.269262E-10,NaN,-0.3558067,-1.320357E-07,NaN,1.176821,-4.646496E-07,NaN,-0.6775352,2.232603E-05,0.4071906,4.323669E-08,NaN,NaN,-0.01275771,-6.472696E-10,-1.782699E-07,-1.096064E-07,-2.690987E-09,-2.861022E-08
792.1496,-0.8348963,5.275551E-10,NaN,-0.3563139,-1.32035E-07,NaN,1.178534,-4.645658E-07,NaN,-0.6815575,2.232642E-05,0.4039133,4.315418E-08,NaN,NaN,-0.01312392,-6.565828E-10,-1.401229E-07,-1.096055E-07,-2.690987E-09,-2.622604E-08
792.1655,-0.8364169,5.281841E-10,NaN,-0.3568498,-1.320344E-07,NaN,1.180147,-4.644835E-07,NaN,-0.6856826,2.232678E-05,0.4006562,4.307324E-08,NaN,NaN,-0.01348274,-6.519262E-10,-1.091285E-07,-1.096047E-07,8.852921E-10,-2.861022E-08
792.1811,-0.8379855,5.288129E-10,NaN,-0.3574007,-1.320338E-07,NaN,1.181649,-4.644027E-07,NaN,-0.6898212,2.232717E-05,0.397467,4.299384E-08,NaN,NaN,-0.01383435,-6.612395E-10,-7.813412E-08,-1.096038E-07,2.077385E-09,-2.622604E-08
792.1972,-0.8379855,5.288129E-10,NaN,-0.3574007,-1.320338E-07,NaN,1.181649,-4.644027E-07,NaN,-0.6898212,2.232717E-05,0.397467,4.299384E-08,NaN,NaN,-0.01383435,-6.612395E-10,-7.813412E-08,-1.096038E-07,2.077385E-09,-2.622604E-08
792.2123,-0.8397899,5.294418E-10,NaN,-0.3580351,-1.320332E-07,NaN,1.183401,-4.643206E-07,NaN,-0.69442,2.232753E-05,0.3938617,4.291312E-08,NaN,NaN,-0.01426274,-6.565828E-10,-3.760296E-08,-1.096029E-07,-3.883079E-09,-2.861022E-08
792.2289,-0.8417344,5.300706E-10,NaN,-0.3587172,-1.320325E-07,NaN,1.185146,-4.6424E-07,NaN,-0.6992936,2.232791E-05,0.3901389,4.283393E-08,NaN,NaN,-0.01468264,-6.658961E-10,4.120288E-09,-1.09602E-07,-5.075172E-09,-2.622604E-08
792.2441,-0.8437583,5.306994E-10,NaN,-0.3594252,-1.320319E-07,NaN,1.186781,-4.641581E-07,NaN,-0.7042561,2.232829E-05,0.3864491,4.275341E-08,NaN,NaN,-0.01509411,-6.658961E-10,4.345935E-08,-1.096012E-07,-3.068008E-10,-2.861022E-08
792.2602,-0.8458233,5.313281E-10,NaN,-0.3601456,-1.320313E-07,NaN,1.188297,-4.640778E-07,NaN,-0.7092186,2.232867E-05,0.3828385,4.267443E-08,NaN,NaN,-0.0154973,-6.752093E-10,7.922213E-08,-1.096003E-07,8.852921E-10,-2.622604E-08
792.2771,-0.8458233,5.313281E-10,NaN,-0.3601456,-1.320313E-07,NaN,1.188297,-4.640778E-07,NaN,-0.7092186,2.232867E-05,0.3828385,4.267443E-08,NaN,NaN,-0.0154973,-6.752093E-10,7.922213E-08,-1.096003E-07,8.852921E-10,-2.622604E-08
792.2908,-0.8481182,5.319568E-10,NaN,-0.3609471,-1.320307E-07,NaN,1.190054,-4.639961E-07,NaN,-0.7146279,2.232904E-05,0.3788142,4.259411E-08,NaN,NaN,-0.01597617,-6.705527E-10,1.197533E-07,-1.095994E-07,8.037849E-09,-2.861022E-08
792.3072,-0.8505469,5.325855E-10,NaN,-0.361794,-1.320301E-07,NaN,1.191789,-4.639159E-07,NaN,-0.7202989,2.232942E-05,0.3746864,4.251531E-08,NaN,NaN,-0.01644555,-6.798659E-10,1.614765E-07,-1.095986E-07,8.037849E-09,-2.622604E-08
792.323,-0.8530491,5.332141E-10,NaN,-0.3626644,-1.320295E-07,NaN,1.193404,-4.638344E-07,NaN,-0.726046,2.232979E-05,0.3706056,4.243519E-08,NaN,NaN,-0.01690552,-6.752093E-10,2.031998E-07,-1.095977E-07,6.845757E-09,-2.861022E-08
792.3391,-0.8530491,5.332141E-10,NaN,-0.3626644,-1.320295E-07,NaN,1.193404,-4.638344E-07,NaN,-0.726046,2.232979E-05,0.3706056,4.243519E-08,NaN,NaN,-0.01690552,-6.752093E-10,2.031998E-07,-1.095977E-07,6.845757E-09,-2.861022E-08
792.3539,-0.8555867,5.338427E-10,NaN,-0.363545,-1.320288E-07,NaN,1.194893,-4.637544E-07,NaN,-0.7317808,2.233017E-05,0.3666161,4.235658E-08,NaN,NaN,-0.01735625,-6.845225E-10,2.413468E-07,-1.095969E-07,4.461571E-09,-2.622604E-08
792.3705,-0.8583487,5.344714E-10,NaN,-0.3645046,-1.320282E-07,NaN,1.196615,-4.636759E-07,NaN,-0.7379496,2.233054E-05,0.3622133,4.227946E-08,NaN,NaN,-0.01788162,-6.798659E-10,2.878384E-07,-1.09596E-07,4.461571E-09,-2.861022E-08
792.3861,-0.8612391,5.350999E-10,NaN,-0.3655075,-1.320276E-07,NaN,1.198299,-4.635961E-07,NaN,-0.7443677,2.233092E-05,0.357722,4.220098E-08,NaN,NaN,-0.0183966,-6.891791E-10,3.307537E-07,-1.095952E-07,5.653664E-09,-2.622604E-08
792.4018,-0.8641975,5.357284E-10,NaN,-0.3665317,-1.32027E-07,NaN,1.199854,-4.635177E-07,NaN,-0.75085,2.233129E-05,0.3532922,4.212399E-08,NaN,NaN,-0.01890126,-6.891791E-10,3.760533E-07,-1.095943E-07,2.077386E-09,-2.861022E-08
792.4176,-0.8641975,5.357284E-10,NaN,-0.3665317,-1.32027E-07,NaN,1.199854,-4.635177E-07,NaN,-0.75085,2.233129E-05,0.3532922,4.212399E-08,NaN,NaN,-0.01890126,-6.891791E-10,3.760533E-07,-1.095943E-07,2.077386E-09,-2.861022E-08
792.4329,-0.867186,5.363568E-10,NaN,-0.3675641,-1.320264E-07,NaN,1.201277,-4.63438E-07,NaN,-0.7573081,2.233167E-05,0.3489653,4.204563E-08,NaN,NaN,-0.01939581,-6.984923E-10,4.153923E-07,-1.095935E-07,8.852927E-10,-2.622604E-08
792.4493,-0.8703938,5.369852E-10,NaN,-0.3686736,-1.320258E-07,NaN,1.202926,-4.633597E-07,NaN,-0.7641882,2.233204E-05,0.3442235,4.196875E-08,NaN,NaN,-0.01996404,-6.938357E-10,4.594997E-07,-1.095927E-07,2.077386E-09,-2.861022E-08
792.4651,-0.8737248,5.376136E-10,NaN,-0.3698243,-1.320252E-07,NaN,1.204523,-4.632801E-07,NaN,-0.7713062,2.233242E-05,0.3394091,4.189051E-08,NaN,NaN,-0.02052104,-7.031489E-10,5.024151E-07,-1.095918E-07,2.077386E-09,-2.622604E-08
792.4809,-0.8771188,5.38242E-10,NaN,-0.3709943,-1.320246E-07,NaN,1.205984,-4.63202E-07,NaN,-0.778477,2.233279E-05,0.334671,4.181375E-08,NaN,NaN,-0.02106691,-6.984923E-10,5.465225E-07,-1.09591E-07,-3.068001E-10,-2.861022E-08
792.4968,-0.8771188,5.38242E-10,NaN,-0.3709943,-1.320246E-07,NaN,1.205984,-4.63202E-07,NaN,-0.778477,2.233279E-05,0.334671,4.181375E-08,NaN,NaN,-0.02106691,-6.984923E-10,5.465225E-07,-1.09591E-07,-3.068001E-10,-2.861022E-08
792.5115,-0.8805377,5.388703E-10,NaN,-0.3721706,-1.32024E-07,NaN,1.207309,-4.631253E-07,NaN,-0.7856128,2.233317E-05,0.330047,4.173844E-08,NaN,NaN,-0.02160185,-7.078055E-10,5.870537E-07,-1.095902E-07,2.077386E-09,-2.622604E-08
792.5283,-0.8841713,5.394986E-10,NaN,-0.3734222,-1.320234E-07,NaN,1.208854,-4.630472E-07,NaN,-0.7931592,2.233354E-05,0.3250042,4.166173E-08,NaN,NaN,-0.02220959,-7.031489E-10,6.311611E-07,-1.095893E-07,2.077386E-09,-2.861022E-08
792.5438,-0.8879233,5.401268E-10,NaN,-0.3747131,-1.320228E-07,NaN,1.210335,-4.629706E-07,NaN,-0.8009326,2.233392E-05,0.3199056,4.158647E-08,NaN,NaN,-0.02280534,-7.124621E-10,6.800369E-07,-1.095885E-07,4.461572E-09,-2.622604E-08
792.56,-0.8917333,5.40755E-10,NaN,-0.3760214,-1.320222E-07,NaN,1.211673,-4.628926E-07,NaN,-0.8087483,2.233429E-05,0.3148983,4.150981E-08,NaN,NaN,-0.02338919,-7.078055E-10,7.241443E-07,-1.095877E-07,1.042204E-08,-2.861022E-08
792.5756,-0.8917333,5.40755E-10,NaN,-0.3760214,-1.320222E-07,NaN,1.211673,-4.628926E-07,NaN,-0.8087483,2.233429E-05,0.3148983,4.150981E-08,NaN,NaN,-0.02338919,-7.078055E-10,7.241443E-07,-1.095877E-07,1.042204E-08,-2.861022E-08
792.5906,-0.8955634,5.413832E-10,NaN,-0.3773342,-1.320217E-07,NaN,1.212875,-4.62816E-07,NaN,-0.8165187,2.233467E-05,0.3100154,4.143461E-08,NaN,NaN,-0.02396139,-7.171188E-10,7.646755E-07,-1.095869E-07,9.229943E-09,-2.622604E-08
792.6072,-0.8996038,5.420113E-10,NaN,-0.3787206,-1.320211E-07,NaN,1.214293,-4.627408E-07,NaN,-0.8246893,2.233504E-05,0.3047076,4.136082E-08,NaN,NaN,-0.02460558,-7.124621E-10,8.052067E-07,-1.095861E-07,8.03785E-09,-2.861022E-08
792.6227,-0.9037579,5.426394E-10,NaN,-0.3801445,-1.320205E-07,NaN,1.215633,-4.626642E-07,NaN,-0.8330765,2.233542E-05,0.2993622,4.128561E-08,NaN,NaN,-0.02523707,-7.217754E-10,8.528904E-07,-1.095853E-07,5.653665E-09,-2.622604E-08
792.6387,-0.9037579,5.426394E-10,NaN,-0.3801445,-1.320205E-07,NaN,1.215633,-4.626642E-07,NaN,-0.8330765,2.233542E-05,0.2993622,4.128561E-08,NaN,NaN,-0.02523707,-7.217754E-10,8.528904E-07,-1.095853E-07,5.653665E-09,-2.622604E-08
792.6536,-0.9079654,5.432676E-10,NaN,-0.381584,-1.320203E-07,NaN,1.216827,-4.624102E-07,NaN,-0.8414962,2.233579E-05,0.2941228,4.103292E-08,NaN,NaN,-0.02585596,-7.124621E-10,8.958058E-07,-1.09587E-07,8.852932E-10,-2.861022E-08
792.6703,-0.9121885,5.438958E-10,NaN,-0.3830264,-1.320209E-07,NaN,1.217888,-4.618479E-07,NaN,-0.8498613,2.233617E-05,0.2890176,4.047195E-08,NaN,NaN,-0.02646253,-6.984923E-10,9.315686E-07,-1.095894E-07,3.269479E-09,-2.622604E-08
792.6862,-0.9166177,5.44524E-10,NaN,-0.3845407,-1.32022E-07,NaN,1.21916,-4.611272E-07,NaN,-0.8586166,2.233654E-05,0.2834785,3.975263E-08,NaN,NaN,-0.02714035,-6.798659E-10,9.720998E-07,-1.095922E-07,2.077386E-09,-2.861022E-08
792.7019,-0.9211562,5.451523E-10,NaN,-0.3860907,-1.320234E-07,NaN,1.220344,-4.603275E-07,NaN,-0.867579,2.233692E-05,0.2779217,3.895425E-08,NaN,NaN,-0.02780482,-6.658961E-10,1.017399E-06,-1.095951E-07,8.852932E-10,-2.622604E-08
792.7176,-0.9211562,5.451523E-10,NaN,-0.3860907,-1.320234E-07,NaN,1.220344,-4.603275E-07,NaN,-0.867579,2.233692E-05,0.2779217,3.895425E-08,NaN,NaN,-0.02780482,-6.658961E-10,1.017399E-06,-1.095951E-07,8.852932E-10,-2.622604E-08
792.7327,-0.9257437,5.457805E-10,NaN,-0.3876548,-1.320249E-07,NaN,1.221381,-4.594869E-07,NaN,-0.8765647,2.233731E-05,0.2724853,3.811504E-08,NaN,NaN,-0.02845606,-6.519262E-10,1.05793E-06,-1.095981E-07,8.852932E-10,-2.861022E-08
792.7494,-0.9303424,5.464087E-10,NaN,-0.3892201,-1.320266E-07,NaN,1.222288,-4.586346E-07,NaN,-0.8854871,2.233769E-05,0.2671913,3.726402E-08,NaN,NaN,-0.02909434,-6.42613E-10,1.099654E-06,-1.096012E-07,-1.498893E-09,-2.622604E-08
792.765,-0.9351433,5.47037E-10,NaN,-0.3908558,-1.320283E-07,NaN,1.223404,-4.57782E-07,NaN,-0.8947905,2.233808E-05,0.2614524,3.64127E-08,NaN,NaN,-0.02980322,-6.332998E-10,1.138993E-06,-1.096043E-07,8.852932E-10,-2.861022E-08
792.7819,-0.9400494,5.476653E-10,NaN,-0.3925257,-1.320301E-07,NaN,1.224421,-4.569375E-07,NaN,-0.904292,2.233846E-05,0.2557176,3.556956E-08,NaN,NaN,-0.03049814,-6.239866E-10,1.180716E-06,-1.096075E-07,4.461572E-09,-2.622604E-08
792.7966,-0.9400494,5.476653E-10,NaN,-0.3925257,-1.320301E-07,NaN,1.224421,-4.569375E-07,NaN,-0.904292,2.233846E-05,0.2557176,3.556956E-08,NaN,NaN,-0.03049814,-6.239866E-10,1.180716E-06,-1.096075E-07,4.461572E-09,-2.622604E-08
792.8113,-0.9450002,5.482936E-10,NaN,-0.394208,-1.320319E-07,NaN,1.225293,-4.561095E-07,NaN,-0.9138085,2.233885E-05,0.2501167,3.474289E-08,NaN,NaN,-0.03117923,-6.146734E-10,1.223631E-06,-1.096106E-07,1.481339E-09,-2.861022E-08
792.8284,-0.949958,5.489215E-10,NaN,-0.39589,-1.320337E-07,NaN,1.226041,-4.554022E-07,NaN,-0.9232538,2.233925E-05,0.2446647,3.403686E-08,NaN,NaN,-0.0318468,-6.100168E-10,1.259394E-06,-1.096137E-07,2.077386E-09,-2.622604E-08
792.844,-0.9551144,5.495493E-10,NaN,-0.397641,-1.320355E-07,NaN,1.226996,-4.547086E-07,NaN,-0.9330713,2.233965E-05,0.2387549,3.334459E-08,NaN,NaN,-0.03258437,-6.053602E-10,1.301118E-06,-1.096168E-07,8.85293E-10,-2.861022E-08
792.8597,-0.9551144,5.495493E-10,NaN,-0.397641,-1.320355E-07,NaN,1.226996,-4.547086E-07,NaN,-0.9330713,2.233965E-05,0.2387549,3.334459E-08,NaN,NaN,-0.03258437,-6.053602E-10,1.301118E-06,-1.096168E-07,8.85293E-10,-2.861022E-08
792.8748,-0.960372,5.501771E-10,NaN,-0.3994247,-1.320372E-07,NaN,1.227842,-4.540314E-07,NaN,-0.9430788,2.234005E-05,0.2328731,3.266867E-08,NaN,NaN,-0.03330739,-6.007035E-10,1.33688E-06,-1.096199E-07,6.249711E-09,-2.622604E-08
792.8911,-0.9656703,5.508051E-10,NaN,-0.4012193,-1.32039E-07,NaN,1.228548,-4.53373E-07,NaN,-0.9530933,2.234046E-05,0.2271371,3.201157E-08,NaN,NaN,-0.03401607,-6.007035E-10,1.376219E-06,-1.096231E-07,4.461572E-09,-2.861022E-08
792.9075,-0.9709717,5.514333E-10,NaN,-0.4030121,-1.320408E-07,NaN,1.229138,-4.527303E-07,NaN,-0.9630296,2.234087E-05,0.2215546,3.137019E-08,NaN,NaN,-0.03471069,-5.960469E-10,1.409598E-06,-1.096261E-07,5.057618E-09,-2.622604E-08
792.9233,-0.9764681,5.520617E-10,NaN,-0.4048727,-1.320426E-07,NaN,1.229931,-4.52103E-07,NaN,-0.97333,2.234127E-05,0.2155003,3.074414E-08,NaN,NaN,-0.03547477,-5.867337E-10,1.444169E-06,-1.096292E-07,6.249711E-09,-2.861022E-08
792.9392,-0.9764681,5.520617E-10,NaN,-0.4048727,-1.320426E-07,NaN,1.229931,-4.52103E-07,NaN,-0.97333,2.234127E-05,0.2155003,3.074414E-08,NaN,NaN,-0.03547477,-5.867337E-10,1.444169E-06,-1.096292E-07,6.249711E-09,-2.861022E-08
792.9542,-0.982062,5.526902E-10,NaN,-0.4067644,-1.320444E-07,NaN,1.230608,-4.514935E-07,NaN,-0.9838126,2.234167E-05,0.2094995,3.013595E-08,NaN,NaN,-0.03622378,-5.820771E-10,1.482316E-06,-1.096323E-07,3.865525E-09,-2.622604E-08
792.9705,-0.9876929,5.533188E-10,NaN,-0.4086657,-1.320461E-07,NaN,1.231151,-4.508987E-07,NaN,-0.9942953,2.234207E-05,0.2036541,2.954243E-08,NaN,NaN,-0.03695794,-5.727639E-10,1.51331E-06,-1.096354E-07,1.481339E-09,-2.861022E-08
792.9866,-0.993323,5.539476E-10,NaN,-0.4105638,-1.320479E-07,NaN,1.231589,-4.503211E-07,NaN,-1.004693,2.234248E-05,0.1979651,2.896614E-08,NaN,NaN,-0.03767758,-5.681073E-10,1.544304E-06,-1.096384E-07,2.077386E-09,-2.622604E-08
793.0022,-0.9991449,5.545765E-10,NaN,-0.4125284,-1.320496E-07,NaN,1.232224,-4.497576E-07,NaN,-1.015448,2.234288E-05,0.1917901,2.84039E-08,NaN,NaN,-0.03846615,-5.587941E-10,1.571723E-06,-1.096415E-07,1.481339E-09,-2.861022E-08
793.0181,-0.9991449,5.545765E-10,NaN,-0.4125284,-1.320496E-07,NaN,1.232224,-4.497576E-07,NaN,-1.015448,2.234288E-05,0.1917901,2.84039E-08,NaN,NaN,-0.03846615,-5.587941E-10,1.571723E-06,-1.096415E-07,1.481339E-09,-2.861022E-08
793.0332,-1.005061,5.552055E-10,NaN,-0.4145228,-1.320514E-07,NaN,1.232738,-4.492107E-07,NaN,-1.026377,2.234328E-05,0.1856952,2.785826E-08,NaN,NaN,-0.03923918,-5.541375E-10,1.600333E-06,-1.096445E-07,2.077386E-09,-2.622604E-08
793.0496,-1.01101,5.558347E-10,NaN,-0.4165254,-1.320531E-07,NaN,1.233127,-4.486772E-07,NaN,-1.0373,2.23437E-05,0.1797623,2.732608E-08,NaN,NaN,-0.03999691,-5.587941E-10,1.631327E-06,-1.096475E-07,8.85293E-10,-2.861022E-08
793.0657,-1.016954,5.56464E-10,NaN,-0.4185235,-1.320549E-07,NaN,1.233421,-4.481598E-07,NaN,-1.048133,2.23441E-05,0.1739868,2.680991E-08,NaN,NaN,-0.04073966,-5.541375E-10,1.655169E-06,-1.096505E-07,2.892465E-10,-2.622604E-08
793.0812,-1.023088,5.570936E-10,NaN,-0.420587,-1.320566E-07,NaN,1.233903,-4.476552E-07,NaN,-1.059315,2.23445E-05,0.1677127,2.630661E-08,NaN,NaN,-0.04155089,-5.448242E-10,1.682587E-06,-1.096535E-07,2.673432E-09,-2.861022E-08
793.0969,-1.023088,5.570936E-10,NaN,-0.420587,-1.320566E-07,NaN,1.233903,-4.476552E-07,NaN,-1.059315,2.23445E-05,0.1677127,2.630661E-08,NaN,NaN,-0.04155089,-5.448242E-10,1.682587E-06,-1.096535E-07,2.673432E-09,-2.861022E-08
793.1116,-1.029312,5.577233E-10,NaN,-0.4226789,-1.320584E-07,NaN,1.234264,-4.471661E-07,NaN,-1.070665,2.234491E-05,0.1615445,2.581877E-08,NaN,NaN,-0.04234613,-5.401676E-10,1.714774E-06,-1.096565E-07,2.673432E-09,-2.622604E-08
793.1283,-1.035565,5.58353E-10,NaN,-0.4247778,-1.320601E-07,NaN,1.234511,-4.466893E-07,NaN,-1.082004,2.234532E-05,0.1555416,2.534324E-08,NaN,NaN,-0.04312564,-5.448242E-10,1.738615E-06,-1.096595E-07,-3.067999E-10,-2.861022E-08
793.1439,-1.041811,5.58983E-10,NaN,-0.426871,-1.320618E-07,NaN,1.234673,-4.462273E-07,NaN,-1.093246,2.234573E-05,0.1496958,2.488262E-08,NaN,NaN,-0.04388978,-5.401676E-10,1.757689E-06,-1.096625E-07,-1.796916E-09,-2.622604E-08
793.16,-1.041811,5.58983E-10,NaN,-0.426871,-1.320618E-07,NaN,1.234673,-4.462273E-07,NaN,-1.093246,2.234573E-05,0.1496958,2.488262E-08,NaN,NaN,-0.04388978,-5.401676E-10,1.757689E-06,-1.096625E-07,-1.796916E-09,-2.622604E-08
793.1748,-1.048243,5.596132E-10,NaN,-0.4290284,-1.320635E-07,NaN,1.235012,-4.457772E-07,NaN,-1.104831,2.234613E-05,0.1433415,2.443378E-08,NaN,NaN,-0.04472196,-5.308544E-10,1.777954E-06,-1.096655E-07,-9.028463E-10,-2.861022E-08
793.1911,-1.054762,5.602436E-10,NaN,-0.431213,-1.320652E-07,NaN,1.235232,-4.453415E-07,NaN,-1.116579,2.234654E-05,0.1371162,2.399933E-08,NaN,NaN,-0.04553773,-5.261978E-10,1.802988E-06,-1.096684E-07,8.85293E-10,-2.622604E-08
793.207,-1.061307,5.608741E-10,NaN,-0.4334034,-1.320669E-07,NaN,1.23535,-4.44917E-07,NaN,-1.128309,2.234695E-05,0.1310562,2.357615E-08,NaN,NaN,-0.04633741,-5.308544E-10,1.819678E-06,-1.096714E-07,1.183316E-09,-2.861022E-08
793.2223,-1.067842,5.615047E-10,NaN,-0.4355869,-1.320686E-07,NaN,1.235393,-4.445064E-07,NaN,-1.139938,2.234736E-05,0.1251521,2.316684E-08,NaN,NaN,-0.04712133,-5.261978E-10,1.836367E-06,-1.096743E-07,1.779363E-09,-2.622604E-08
793.2385,-1.067842,5.615047E-10,NaN,-0.4355869,-1.320686E-07,NaN,1.235393,-4.445064E-07,NaN,-1.139938,2.234736E-05,0.1251521,2.316684E-08,NaN,NaN,-0.04712133,-5.261978E-10,1.836367E-06,-1.096743E-07,1.779363E-09,-2.622604E-08
793.2532,-1.074559,5.621356E-10,NaN,-0.4378336,-1.320703E-07,NaN,1.2356,-4.441066E-07,NaN,-1.151905,2.234777E-05,0.118734,2.276831E-08,NaN,NaN,-0.0479729,-5.308544E-10,1.854248E-06,-1.096772E-07,2.077386E-09,-2.861022E-08
793.27,-1.081361,5.627666E-10,NaN,-0.4401063,-1.32072E-07,NaN,1.235694,-4.437202E-07,NaN,-1.164028,2.234817E-05,0.1124624,2.238318E-08,NaN,NaN,-0.04880768,-5.215412E-10,1.869746E-06,-1.096801E-07,1.779363E-09,-2.622604E-08
793.2856,-1.088185,5.633977E-10,NaN,-0.4423836,-1.320737E-07,NaN,1.235699,-4.433441E-07,NaN,-1.176129,2.234857E-05,0.1063539,2.200835E-08,NaN,NaN,-0.04962602,-5.12228E-10,1.881667E-06,-1.09683E-07,5.872698E-10,-2.861022E-08
793.3029,-1.094996,5.64029E-10,NaN,-0.444653,-1.320754E-07,NaN,1.235637,-4.429781E-07,NaN,-1.188125,2.234898E-05,0.1003993,2.164363E-08,NaN,NaN,-0.05042825,-5.075714E-10,1.891203E-06,-1.096859E-07,2.673432E-09,-2.622604E-08
793.3171,-1.094996,5.64029E-10,NaN,-0.444653,-1.320754E-07,NaN,1.235637,-4.429781E-07,NaN,-1.188125,2.234898E-05,0.1003993,2.164363E-08,NaN,NaN,-0.05042825,-5.075714E-10,1.891203E-06,-1.096859E-07,2.673432E-09,-2.622604E-08
793.3323,-1.101987,5.646604E-10,NaN,-0.4469845,-1.320771E-07,NaN,1.235723,-4.426248E-07,NaN,-1.200452,2.234939E-05,0.09393058,2.129164E-08,NaN,NaN,-0.05129774,-5.12228E-10,1.904316E-06,-1.096888E-07,1.183316E-09,-2.861022E-08
793.3486,-1.109059,5.652919E-10,NaN,-0.449341,-1.320788E-07,NaN,1.235707,-4.422812E-07,NaN,-1.212931,2.23498E-05,0.08761846,2.094931E-08,NaN,NaN,-0.05215012,-5.075714E-10,1.913853E-06,-1.096917E-07,1.034305E-09,-2.622604E-08
793.3644,-1.116152,5.659236E-10,NaN,-0.4517009,-1.320804E-07,NaN,1.235613,-4.419499E-07,NaN,-1.225384,2.23502E-05,0.08146603,2.061926E-08,NaN,NaN,-0.05298572,-4.982582E-10,1.92339E-06,-1.096945E-07,1.402351E-10,-2.861022E-08
793.3801,-1.123227,5.665555E-10,NaN,-0.4540519,-1.320821E-07,NaN,1.23546,-4.416278E-07,NaN,-1.237726,2.23506E-05,0.07546525,2.029845E-08,NaN,NaN,-0.0538049,-4.936015E-10,1.928158E-06,-1.096974E-07,2.892467E-10,-2.622604E-08
793.3961,-1.123227,5.665555E-10,NaN,-0.4540519,-1.320821E-07,NaN,1.23546,-4.416278E-07,NaN,-1.237726,2.23506E-05,0.07546525,2.029845E-08,NaN,NaN,-0.0538049,-4.936015E-10,1.928158E-06,-1.096974E-07,2.892467E-10,-2.622604E-08
793.4111,-1.13048,5.671874E-10,NaN,-0.456464,-1.320837E-07,NaN,1.235439,-4.413176E-07,NaN,-1.250396,2.235102E-05,0.06895483,1.998951E-08,NaN,NaN,-0.05469099,-4.982582E-10,1.934119E-06,-1.097002E-07,-1.72241E-09,-2.861022E-08
793.4277,-1.137812,5.678196E-10,NaN,-0.4589,-1.320854E-07,NaN,1.235327,-4.410161E-07,NaN,-1.263212,2.235142E-05,0.06260407,1.968937E-08,NaN,NaN,-0.05555966,-4.936015E-10,1.936503E-06,-1.097031E-07,-2.132192E-09,-2.622604E-08
793.4434,-1.145161,5.684518E-10,NaN,-0.4613385,-1.32087E-07,NaN,1.235148,-4.407234E-07,NaN,-1.275998,2.235184E-05,0.05640946,1.939788E-08,NaN,NaN,-0.05641124,-4.982582E-10,1.938887E-06,-1.097059E-07,-9.467928E-10,-2.861022E-08
793.4589,-1.145161,5.684518E-10,NaN,-0.4613385,-1.32087E-07,NaN,1.235148,-4.407234E-07,NaN,-1.275998,2.235184E-05,0.05640946,1.939788E-08,NaN,NaN,-0.05641124,-4.982582E-10,1.938887E-06,-1.097059E-07,-9.467928E-10,-2.861022E-08
793.4739,-1.147453,5.690843E-10,NaN,-0.4619927,-1.320887E-07,NaN,1.23124,-4.404419E-07,NaN,-1.277764,2.235224E-05,0.06527016,1.911768E-08,NaN,NaN,-0.05533716,-4.936015E-10,1.879283E-06,-1.097087E-07,3.113774E-09,-2.622604E-08
793.4902,-1.146633,5.697169E-10,NaN,-0.4616052,-1.320903E-07,NaN,1.228212,-4.401686E-07,NaN,-1.272209,2.235264E-05,0.07386275,1.884573E-08,NaN,NaN,-0.05428391,-4.842883E-10,1.808949E-06,-1.097115E-07,2.517727E-09,-2.861022E-08
793.5062,-1.143876,5.703496E-10,NaN,-0.4605767,-1.32092E-07,NaN,1.225722,-4.399063E-07,NaN,-1.263188,2.235305E-05,0.08221941,1.858469E-08,NaN,NaN,-0.05325119,-4.796317E-10,1.744576E-06,-1.097143E-07,3.337291E-09,-2.622604E-08
793.5217,-1.139933,5.709824E-10,NaN,-0.4591645,-1.320936E-07,NaN,1.223567,-4.396519E-07,NaN,-1.252576,2.235346E-05,0.09037067,1.833152E-08,NaN,NaN,-0.05223867,-4.842883E-10,1.684971E-06,-1.097171E-07,3.137057E-09,-2.861022E-08
793.5378,-1.139933,5.709824E-10,NaN,-0.4591645,-1.320936E-07,NaN,1.223567,-4.396519E-07,NaN,-1.252576,2.235346E-05,0.09037067,1.833152E-08,NaN,NaN,-0.05223867,-4.842883E-10,1.684971E-06,-1.097171E-07,3.137057E-09,-2.861022E-08
793.5526,-1.135495,5.716155E-10,NaN,-0.4576062,-1.320952E-07,NaN,1.221801,-4.394052E-07,NaN,-1.241758,2.235387E-05,0.09768535,1.808608E-08,NaN,NaN,-0.05132903,-4.796317E-10,1.631327E-06,-1.097199E-07,2.541011E-09,-2.622604E-08
793.569,-1.130774,5.722486E-10,NaN,-0.4559681,-1.320968E-07,NaN,1.220153,-4.391688E-07,NaN,-1.231014,2.235428E-05,0.1048374,1.785102E-08,NaN,NaN,-0.05043722,-4.842883E-10,1.586028E-06,-1.097226E-07,1.795952E-09,-2.861022E-08
793.5844,-1.125899,5.72882E-10,NaN,-0.4542904,-1.320984E-07,NaN,1.218588,-4.389399E-07,NaN,-1.220388,2.235469E-05,0.111839,1.762333E-08,NaN,NaN,-0.04956288,-4.796317E-10,1.539536E-06,-1.097254E-07,2.093976E-09,-2.622604E-08
793.6001,-1.120951,5.735155E-10,NaN,-0.4525968,-1.321001E-07,NaN,1.217086,-4.387209E-07,NaN,-1.209897,2.235511E-05,0.1186973,1.740568E-08,NaN,NaN,-0.04870567,-4.842883E-10,1.499005E-06,-1.097281E-07,3.956621E-09,-2.861022E-08
793.6159,-1.120951,5.735155E-10,NaN,-0.4525968,-1.321001E-07,NaN,1.217086,-4.387209E-07,NaN,-1.209897,2.235511E-05,0.1186973,1.740568E-08,NaN,NaN,-0.04870567,-4.842883E-10,1.499005E-06,-1.097281E-07,3.956621E-09,-2.861022E-08
793.6312,-1.116199,5.741493E-10,NaN,-0.4509786,-1.321017E-07,NaN,1.21582,-4.38509E-07,NaN,-1.200026,2.235551E-05,0.1247629,1.719505E-08,NaN,NaN,-0.04794836,-4.796317E-10,1.46205E-06,-1.097309E-07,3.509586E-09,-2.622604E-08
793.6472,-1.111588,5.747832E-10,NaN,-0.4494126,-1.321033E-07,NaN,1.214559,-4.38304E-07,NaN,-1.190618,2.235593E-05,0.130703,1.699131E-08,NaN,NaN,-0.04720587,-4.842883E-10,1.422711E-06,-1.097336E-07,6.340807E-09,-2.861022E-08
793.6633,-1.107083,5.754173E-10,NaN,-0.4478848,-1.321049E-07,NaN,1.213308,-4.381085E-07,NaN,-1.181503,2.235633E-05,0.1365288,1.679714E-08,NaN,NaN,-0.04647792,-4.796317E-10,1.384564E-06,-1.097363E-07,4.850691E-09,-2.622604E-08
793.6787,-1.107083,5.754173E-10,NaN,-0.4478848,-1.321049E-07,NaN,1.213308,-4.381085E-07,NaN,-1.181503,2.235633E-05,0.1365288,1.679714E-08,NaN,NaN,-0.04647792,-4.796317E-10,1.384564E-06,-1.097363E-07,4.850691E-09,-2.622604E-08
793.6938,-1.102664,5.760515E-10,NaN,-0.4463866,-1.321065E-07,NaN,1.212072,-4.379197E-07,NaN,-1.172597,2.235675E-05,0.1422424,1.660954E-08,NaN,NaN,-0.04576423,-4.842883E-10,1.344033E-06,-1.09739E-07,6.042783E-09,-2.861022E-08
793.7098,-1.098536,5.766859E-10,NaN,-0.4449899,-1.32108E-07,NaN,1.211062,-4.377372E-07,NaN,-1.164334,2.235715E-05,0.1471889,1.642836E-08,NaN,NaN,-0.04514765,-4.796317E-10,1.31423E-06,-1.097417E-07,3.807609E-09,-2.622604E-08
793.7257,-1.094603,5.773205E-10,NaN,-0.44366,-1.321096E-07,NaN,1.210031,-4.375498E-07,NaN,-1.156535,2.235757E-05,0.1520284,1.624221E-08,NaN,NaN,-0.04454314,-4.842883E-10,1.284428E-06,-1.097444E-07,1.274412E-09,-2.861022E-08
793.7411,-1.09081,5.779552E-10,NaN,-0.4423761,-1.321112E-07,NaN,1.208993,-4.373659E-07,NaN,-1.149017,2.235797E-05,0.1567785,1.605964E-08,NaN,NaN,-0.04395045,-4.796317E-10,1.25105E-06,-1.097472E-07,1.274412E-09,-2.622604E-08
793.757,-1.09081,5.779552E-10,NaN,-0.4423761,-1.321112E-07,NaN,1.208993,-4.373659E-07,NaN,-1.149017,2.235797E-05,0.1567785,1.605964E-08,NaN,NaN,-0.04395045,-4.796317E-10,1.25105E-06,-1.097472E-07,1.274412E-09,-2.622604E-08
793.7722,-1.087118,5.785901E-10,NaN,-0.4411255,-1.321128E-07,NaN,1.20796,-4.371884E-07,NaN,-1.14169,2.235839E-05,0.1614393,1.588341E-08,NaN,NaN,-0.04336937,-4.842883E-10,1.221247E-06,-1.097499E-07,2.168482E-09,-2.861022E-08
793.7885,-1.083722,5.792251E-10,NaN,-0.4399774,-1.321143E-07,NaN,1.207159,-4.370171E-07,NaN,-1.134985,2.235879E-05,0.1653555,1.571339E-08,NaN,NaN,-0.04288283,-4.796317E-10,1.198597E-06,-1.097526E-07,-1.70582E-09,-2.622604E-08
793.8043,-1.080525,5.798603E-10,NaN,-0.4388961,-1.321159E-07,NaN,1.206329,-4.368519E-07,NaN,-1.128723,2.235921E-05,0.1691769,1.554946E-08,NaN,NaN,-0.04240581,-4.842883E-10,1.17714E-06,-1.097553E-07,-4.686052E-09,-2.861022E-08
793.8209,-1.077464,5.804956E-10,NaN,-0.4378598,-1.321175E-07,NaN,1.205484,-4.366955E-07,NaN,-1.12272,2.235961E-05,0.1729304,1.539432E-08,NaN,NaN,-0.04193813,-4.796317E-10,1.14853E-06,-1.09758E-07,-3.49396E-09,-2.622604E-08
793.8353,-1.077464,5.804956E-10,NaN,-0.4378598,-1.321175E-07,NaN,1.205484,-4.366955E-07,NaN,-1.12272,2.235961E-05,0.1729304,1.539432E-08,NaN,NaN,-0.04193813,-4.796317E-10,1.14853E-06,-1.09758E-07,-3.49396E-09,-2.622604E-08
793.85,-1.074501,5.811311E-10,NaN,-0.4368553,-1.32119E-07,NaN,1.204638,-4.365449E-07,NaN,-1.116886,2.236003E-05,0.1766152,1.524498E-08,NaN,NaN,-0.04147959,-4.842883E-10,1.122304E-06,-1.097606E-07,-2.59989E-09,-2.861022E-08
793.8668,-1.071828,5.817667E-10,NaN,-0.4359514,-1.321206E-07,NaN,1.20403,-4.364E-07,NaN,-1.111653,2.236043E-05,0.1795774,1.510132E-08,NaN,NaN,-0.04111321,-4.796317E-10,1.105614E-06,-1.097633E-07,-4.388029E-09,-2.622604E-08
793.8824,-1.069347,5.824025E-10,NaN,-0.4351123,-1.321221E-07,NaN,1.20339,-4.362634E-07,NaN,-1.106841,2.236085E-05,0.1824553,1.496606E-08,NaN,NaN,-0.040754,-4.842883E-10,1.088925E-06,-1.09766E-07,-7.666284E-09,-2.861022E-08
793.8983,-1.069347,5.824025E-10,NaN,-0.4351123,-1.321221E-07,NaN,1.20339,-4.362634E-07,NaN,-1.106841,2.236085E-05,0.1824553,1.496606E-08,NaN,NaN,-0.040754,-4.842883E-10,1.088925E-06,-1.09766E-07,-7.666284E-09,-2.861022E-08
793.9134,-1.066995,5.830384E-10,NaN,-0.4343161,-1.321237E-07,NaN,1.202726,-4.361323E-07,NaN,-1.102266,2.236125E-05,0.1852849,1.483621E-08,NaN,NaN,-0.04040181,-4.796317E-10,1.068659E-06,-1.097686E-07,-8.262331E-09,-2.622604E-08
793.9296,-1.064733,5.836745E-10,NaN,-0.4335495,-1.321248E-07,NaN,1.202057,-4.362352E-07,NaN,-1.097839,2.236166E-05,0.1880651,1.49404E-08,NaN,NaN,-0.04005651,-4.889449E-10,1.048394E-06,-1.097687E-07,-1.034849E-08,-2.861022E-08
793.9453,-1.062754,5.843108E-10,NaN,-0.4328813,-1.321252E-07,NaN,1.201629,-4.366549E-07,NaN,-1.093993,2.236205E-05,0.190144,1.536135E-08,NaN,NaN,-0.03980117,-4.842883E-10,1.035281E-06,-1.097681E-07,-9.752447E-09,-2.622604E-08
793.9608,-1.06096,5.84947E-10,NaN,-0.4322757,-1.321251E-07,NaN,1.201165,-4.372383E-07,NaN,-1.090547,2.236244E-05,0.1921488,1.594611E-08,NaN,NaN,-0.03955083,-4.889449E-10,1.020976E-06,-1.097671E-07,-7.666284E-09,-2.861022E-08
793.9766,-1.06096,5.84947E-10,NaN,-0.4322757,-1.321251E-07,NaN,1.201165,-4.372383E-07,NaN,-1.090547,2.236244E-05,0.1921488,1.594611E-08,NaN,NaN,-0.03955083,-4.889449E-10,1.020976E-06,-1.097671E-07,-7.666284E-09,-2.861022E-08
793.9916,-1.059287,5.855833E-10,NaN,-0.4317108,-1.321246E-07,NaN,1.200671,-4.37909E-07,NaN,-1.087317,2.236283E-05,0.1941238,1.661811E-08,NaN,NaN,-0.03930536,-4.889449E-10,1.003094E-06,-1.097659E-07,-6.176168E-09,-2.622604E-08
794.0084,-1.057698,5.862196E-10,NaN,-0.4311733,-1.32124E-07,NaN,1.200165,-4.386229E-07,NaN,-1.084215,2.23632E-05,0.1960671,1.733333E-08,NaN,NaN,-0.03906469,-4.889449E-10,9.899812E-07,-1.097647E-07,-7.964307E-09,-2.861022E-08
794.0239,-1.056384,5.868557E-10,NaN,-0.4307318,-1.321233E-07,NaN,1.199903,-4.393566E-07,NaN,-1.081674,2.236358E-05,0.1973292,1.806834E-08,NaN,NaN,-0.03891193,-4.889449E-10,9.828286E-07,-1.097634E-07,-7.070238E-09,-2.622604E-08
794.0397,-1.056384,5.868557E-10,NaN,-0.4307318,-1.321233E-07,NaN,1.199903,-4.393566E-07,NaN,-1.081674,2.236358E-05,0.1973292,1.806834E-08,NaN,NaN,-0.03891193,-4.889449E-10,9.828286E-07,-1.097634E-07,-7.070238E-09,-2.622604E-08
794.0543,-1.055247,5.874918E-10,NaN,-0.4303509,-1.321225E-07,NaN,1.199599,-4.400956E-07,NaN,-1.079513,2.236396E-05,0.1985281,1.880865E-08,NaN,NaN,-0.03876217,-4.982582E-10,9.74484E-07,-1.09762E-07,-5.878145E-09,-2.861022E-08
794.0709,-1.054224,5.881278E-10,NaN,-0.4300086,-1.321217E-07,NaN,1.199259,-4.408284E-07,NaN,-1.07755,2.236433E-05,0.199714,1.954286E-08,NaN,NaN,-0.03861532,-4.982582E-10,9.673314E-07,-1.097606E-07,-7.964307E-09,-2.622604E-08
794.0869,-1.053278,5.887638E-10,NaN,-0.4296913,-1.321208E-07,NaN,1.198901,-4.415525E-07,NaN,-1.075695,2.236472E-05,0.2008851,2.026828E-08,NaN,NaN,-0.03847132,-5.12228E-10,9.577947E-07,-1.097592E-07,-7.666284E-09,-2.861022E-08
794.1024,-1.0526,5.893997E-10,NaN,-0.4294679,-1.3212E-07,NaN,1.198786,-4.422652E-07,NaN,-1.074382,2.236509E-05,0.201393,2.098226E-08,NaN,NaN,-0.03841335,-5.12228E-10,9.566025E-07,-1.097578E-07,-9.752447E-09,-2.622604E-08
794.1177,-1.0526,5.893997E-10,NaN,-0.4294679,-1.3212E-07,NaN,1.198786,-4.422652E-07,NaN,-1.074382,2.236509E-05,0.201393,2.098226E-08,NaN,NaN,-0.03841335,-5.12228E-10,9.566025E-07,-1.097578E-07,-9.752447E-09,-2.622604E-08
794.134,-1.052092,5.900356E-10,NaN,-0.4293029,-1.321191E-07,NaN,1.198625,-4.429637E-07,NaN,-1.073431,2.236547E-05,0.2018496,2.16822E-08,NaN,NaN,-0.03835651,-5.215412E-10,9.554104E-07,-1.097564E-07,-9.752447E-09,-2.861022E-08
794.1494,-1.051692,5.906713E-10,NaN,-0.4291744,-1.321183E-07,NaN,1.198422,-4.436486E-07,NaN,-1.07266,2.236584E-05,0.2023089,2.236837E-08,NaN,NaN,-0.03830075,-5.168846E-10,9.530262E-07,-1.09755E-07,-9.1564E-09,-2.622604E-08
794.1655,-1.051361,5.913069E-10,NaN,-0.4290689,-1.321174E-07,NaN,1.198196,-4.443171E-07,NaN,-1.071979,2.236622E-05,0.2027689,2.303822E-08,NaN,NaN,-0.03824607,-5.215412E-10,9.518341E-07,-1.097536E-07,-9.454423E-09,-2.861022E-08
794.181,-1.051291,5.919425E-10,NaN,-0.429055,-1.321166E-07,NaN,1.198209,-4.449724E-07,NaN,-1.071822,2.236658E-05,0.2025816,2.36949E-08,NaN,NaN,-0.03827565,-5.168846E-10,9.518341E-07,-1.097523E-07,-8.858376E-09,-2.622604E-08
794.1967,-1.051291,5.919425E-10,NaN,-0.429055,-1.321166E-07,NaN,1.198209,-4.449724E-07,NaN,-1.071822,2.236658E-05,0.2025816,2.36949E-08,NaN,NaN,-0.03827565,-5.168846E-10,9.518341E-07,-1.097523E-07,-8.858376E-09,-2.622604E-08
794.2114,-1.051385,5.925779E-10,NaN,-0.4290967,-1.321157E-07,NaN,1.198171,-4.45612E-07,NaN,-1.072009,2.236696E-05,0.2023564,2.433583E-08,NaN,NaN,-0.03830465,-5.215412E-10,9.542183E-07,-1.097509E-07,-4.984074E-09,-2.861022E-08
794.2284,-1.051579,5.932133E-10,NaN,-0.4291725,-1.321148E-07,NaN,1.198084,-4.462389E-07,NaN,-1.072358,2.236733E-05,0.2021486,2.496417E-08,NaN,NaN,-0.03833304,-5.168846E-10,9.530262E-07,-1.097495E-07,-6.772214E-09,-2.622604E-08
794.244,-1.051836,5.938485E-10,NaN,-0.4292688,-1.32114E-07,NaN,1.19797,-4.468507E-07,NaN,-1.072781,2.23677E-05,0.2019558,2.557732E-08,NaN,NaN,-0.03836086,-5.215412E-10,9.530262E-07,-1.097481E-07,-6.474191E-09,-2.861022E-08
794.2598,-1.051836,5.938485E-10,NaN,-0.4292688,-1.32114E-07,NaN,1.19797,-4.468507E-07,NaN,-1.072781,2.23677E-05,0.2019558,2.557732E-08,NaN,NaN,-0.03836086,-5.215412E-10,9.530262E-07,-1.097481E-07,-6.474191E-09,-2.861022E-08
794.2748,-1.052347,5.944837E-10,NaN,-0.4294543,-1.321131E-07,NaN,1.198091,-4.474477E-07,NaN,-1.073711,2.236807E-05,0.2011292,2.617558E-08,NaN,NaN,-0.03847132,-5.168846E-10,9.577946E-07,-1.097468E-07,-5.282097E-09,-2.622604E-08
794.2913,-1.053015,5.951188E-10,NaN,-0.4296937,-1.321123E-07,NaN,1.198154,-4.480328E-07,NaN,-1.074969,2.236845E-05,0.200279,2.676207E-08,NaN,NaN,-0.03857961,-5.215412E-10,9.661392E-07,-1.097454E-07,-6.176167E-09,-2.861022E-08
794.3075,-1.053777,5.957539E-10,NaN,-0.4299649,-1.321115E-07,NaN,1.198165,-4.486036E-07,NaN,-1.076372,2.236881E-05,0.19946,2.73342E-08,NaN,NaN,-0.03868573,-5.168846E-10,9.720997E-07,-1.09744E-07,-8.262329E-09,-2.622604E-08
794.3228,-1.054596,5.963888E-10,NaN,-0.4302543,-1.321106E-07,NaN,1.198143,-4.491603E-07,NaN,-1.077833,2.236919E-05,0.1986691,2.789224E-08,NaN,NaN,-0.03878974,-5.215412E-10,9.76868E-07,-1.097427E-07,-6.47419E-09,-2.861022E-08
794.3406,-1.055662,5.970237E-10,NaN,-0.4306306,-1.321098E-07,NaN,1.19835,-4.49706E-07,NaN,-1.079785,2.236957E-05,0.1972561,2.843931E-08,NaN,NaN,-0.03897489,-5.261978E-10,9.864048E-07,-1.097413E-07,-5.282097E-09,-2.622604E-08
794.3563,-1.055662,5.970237E-10,NaN,-0.4306306,-1.321098E-07,NaN,1.19835,-4.49706E-07,NaN,-1.079785,2.236957E-05,0.1972561,2.843931E-08,NaN,NaN,-0.03897489,-5.261978E-10,9.864048E-07,-1.097413E-07,-5.282097E-09,-2.622604E-08
794.37,-1.056879,5.976585E-10,NaN,-0.431058,-1.32109E-07,NaN,1.198493,-4.502381E-07,NaN,-1.08205,2.236994E-05,0.1958351,2.897278E-08,NaN,NaN,-0.03915641,-5.308544E-10,9.983257E-07,-1.0974E-07,-5.580121E-09,-2.861022E-08
794.3871,-1.058183,5.982933E-10,NaN,-0.4315147,-1.321081E-07,NaN,1.19858,-4.507569E-07,NaN,-1.084444,2.237032E-05,0.1944579,2.949293E-08,NaN,NaN,-0.03933432,-5.35511E-10,1.005478E-06,-1.097387E-07,-2.599889E-09,-2.622604E-08
794.403,-1.059537,5.989281E-10,NaN,-0.4319871,-1.321073E-07,NaN,1.19863,-4.512654E-07,NaN,-1.08688,2.237069E-05,0.1931209,3.000284E-08,NaN,NaN,-0.03950871,-5.308544E-10,1.009055E-06,-1.097373E-07,6.783667E-10,-2.861022E-08
794.4185,-1.059537,5.989281E-10,NaN,-0.4319871,-1.321073E-07,NaN,1.19863,-4.512654E-07,NaN,-1.08688,2.237069E-05,0.1931209,3.000284E-08,NaN,NaN,-0.03950871,-5.308544E-10,1.009055E-06,-1.097373E-07,6.783667E-10,-2.861022E-08
794.4332,-1.061133,5.995627E-10,NaN,-0.4325439,-1.321065E-07,NaN,1.198902,-4.517611E-07,NaN,-1.089793,2.237106E-05,0.1911714,3.049989E-08,NaN,NaN,-0.03976285,-5.35511E-10,1.020976E-06,-1.09736E-07,6.783667E-10,-2.622604E-08
794.4493,-1.062873,6.001967E-10,NaN,-0.4331494,-1.32106E-07,NaN,1.199104,-4.519842E-07,NaN,-1.093003,2.237143E-05,0.1892305,3.072437E-08,NaN,NaN,-0.04001199,-5.308544E-10,1.032897E-06,-1.097372E-07,-1.109773E-09,-2.861022E-08
794.465,-1.064694,6.008304E-10,NaN,-0.4337815,-1.321064E-07,NaN,1.199247,-4.518897E-07,NaN,-1.096328,2.237181E-05,0.1873449,3.063122E-08,NaN,NaN,-0.0402562,-5.308544E-10,1.040049E-06,-1.097391E-07,3.062552E-09,-2.622604E-08
794.481,-1.066558,6.014639E-10,NaN,-0.434427,-1.321072E-07,NaN,1.19935,-4.516277E-07,NaN,-1.099681,2.237218E-05,0.1855105,3.037056E-08,NaN,NaN,-0.04049559,-5.308544E-10,1.048394E-06,-1.097413E-07,3.956622E-09,-2.861022E-08
794.4977,-1.066558,6.014639E-10,NaN,-0.434427,-1.321072E-07,NaN,1.19935,-4.516277E-07,NaN,-1.099681,2.237218E-05,0.1855105,3.037056E-08,NaN,NaN,-0.04049559,-5.308544E-10,1.048394E-06,-1.097413E-07,3.956622E-09,-2.861022E-08
794.5125,-1.068658,6.020974E-10,NaN,-0.4351545,-1.321084E-07,NaN,1.199666,-4.512721E-07,NaN,-1.103497,2.237256E-05,0.1830718,3.001621E-08,NaN,NaN,-0.04081344,-5.448242E-10,1.062699E-06,-1.097438E-07,3.956622E-09,-2.622604E-08
794.5291,-1.070896,6.027308E-10,NaN,-0.4359284,-1.321097E-07,NaN,1.199908,-4.508556E-07,NaN,-1.107596,2.237294E-05,0.1806586,2.960105E-08,NaN,NaN,-0.04112503,-5.448242E-10,1.075812E-06,-1.097463E-07,5.148715E-09,-2.861022E-08
794.5444,-1.07321,6.033642E-10,NaN,-0.4367265,-1.321112E-07,NaN,1.200088,-4.504134E-07,NaN,-1.111797,2.237332E-05,0.1783112,2.916014E-08,NaN,NaN,-0.04143047,-5.587941E-10,1.085349E-06,-1.097489E-07,6.936855E-09,-2.622604E-08
794.5602,-1.075561,6.039976E-10,NaN,-0.4375357,-1.321127E-07,NaN,1.200226,-4.499628E-07,NaN,-1.116012,2.23737E-05,0.1760249,2.871089E-08,NaN,NaN,-0.04172987,-5.587941E-10,1.096077E-06,-1.097516E-07,7.681913E-09,-2.861022E-08
794.5758,-1.075561,6.039976E-10,NaN,-0.4375357,-1.321127E-07,NaN,1.200226,-4.499628E-07,NaN,-1.116012,2.23737E-05,0.1760249,2.871089E-08,NaN,NaN,-0.04172987,-5.587941E-10,1.096077E-06,-1.097516E-07,7.681913E-09,-2.861022E-08
794.5913,-1.078142,6.046308E-10,NaN,-0.4384249,-1.321142E-07,NaN,1.200566,-4.495098E-07,NaN,-1.120677,2.237408E-05,0.1731415,2.825913E-08,NaN,NaN,-0.04210656,-5.727639E-10,1.112767E-06,-1.097542E-07,7.532901E-09,-2.622604E-08
794.6097,-1.080856,6.052642E-10,NaN,-0.4393581,-1.321157E-07,NaN,1.200829,-4.490627E-07,NaN,-1.125611,2.237445E-05,0.1703006,2.781335E-08,NaN,NaN,-0.04247582,-5.727639E-10,1.128264E-06,-1.097569E-07,9.023017E-09,-2.861022E-08
794.6238,-1.083639,6.058974E-10,NaN,-0.4403134,-1.321173E-07,NaN,1.201029,-4.486243E-07,NaN,-1.130634,2.237484E-05,0.1675348,2.737628E-08,NaN,NaN,-0.04283779,-5.820771E-10,1.141377E-06,-1.097596E-07,6.042785E-09,-2.622604E-08
794.6402,-1.086454,6.065307E-10,NaN,-0.4412776,-1.321188E-07,NaN,1.201185,-4.481945E-07,NaN,-1.13566,2.237522E-05,0.1648389,2.694773E-08,NaN,NaN,-0.04319263,-5.820771E-10,1.153298E-06,-1.097622E-07,4.552669E-09,-2.861022E-08
794.6584,-1.086454,6.065307E-10,NaN,-0.4412776,-1.321188E-07,NaN,1.201185,-4.481945E-07,NaN,-1.13566,2.237522E-05,0.1648389,2.694773E-08,NaN,NaN,-0.04319263,-5.820771E-10,1.153298E-06,-1.097622E-07,4.552669E-09,-2.861022E-08
794.6696,-1.089495,6.071639E-10,NaN,-0.4423198,-1.321204E-07,NaN,1.201534,-4.477758E-07,NaN,-1.141122,2.23756E-05,0.1615527,2.653036E-08,NaN,NaN,-0.04362364,-5.913903E-10,1.169987E-06,-1.097649E-07,2.019471E-09,-2.622604E-08
794.6871,-1.092662,6.077971E-10,NaN,-0.4434039,-1.321219E-07,NaN,1.201802,-4.473681E-07,NaN,-1.146842,2.237597E-05,0.1583254,2.612395E-08,NaN,NaN,-0.04404616,-5.867337E-10,1.189061E-06,-1.097675E-07,-1.85483E-09,-2.861022E-08
794.7014,-1.095894,6.084303E-10,NaN,-0.444508,-1.321235E-07,NaN,1.202007,-4.469712E-07,NaN,-1.152638,2.237636E-05,0.1551813,2.572829E-08,NaN,NaN,-0.04446035,-5.960469E-10,1.200982E-06,-1.097702E-07,-2.450877E-09,-2.622604E-08
794.7173,-1.095894,6.084303E-10,NaN,-0.444508,-1.321235E-07,NaN,1.202007,-4.469712E-07,NaN,-1.152638,2.237636E-05,0.1551813,2.572829E-08,NaN,NaN,-0.04446035,-5.960469E-10,1.200982E-06,-1.097702E-07,-2.450877E-09,-2.622604E-08
794.7327,-1.099369,6.090635E-10,NaN,-0.4456961,-1.32125E-07,NaN,1.202383,-4.465848E-07,NaN,-1.1589,2.237673E-05,0.1514585,2.534318E-08,NaN,NaN,-0.04494952,-5.913903E-10,1.217671E-06,-1.097728E-07,-2.7489E-09,-2.861022E-08
794.7492,-1.102982,6.096966E-10,NaN,-0.4469288,-1.321266E-07,NaN,1.202671,-4.462116E-07,NaN,-1.165426,2.237712E-05,0.1478117,2.497123E-08,NaN,NaN,-0.04542905,-6.007035E-10,1.23436E-06,-1.097755E-07,-2.450877E-09,-2.622604E-08
794.7649,-1.106663,6.103298E-10,NaN,-0.4481823,-1.321281E-07,NaN,1.202891,-4.458484E-07,NaN,-1.172027,2.23775E-05,0.1442581,2.460934E-08,NaN,NaN,-0.04589913,-6.007035E-10,1.246281E-06,-1.097781E-07,-1.631313E-09,-2.861022E-08
794.7803,-1.110371,6.10963E-10,NaN,-0.4494424,-1.321296E-07,NaN,1.203063,-4.454951E-07,NaN,-1.178611,2.237788E-05,0.1407916,2.425733E-08,NaN,NaN,-0.04635995,-6.100168E-10,1.25701E-06,-1.097807E-07,1.568263E-10,-2.622604E-08
