JMolnar6/NonAnthroHands_User_Study/HandsLoggerWithURDF/tempdata/files/Reachy_PID0_JointMotion_gesture_10_47.csv
Time,r_shoulder,r_shoulder_x,r_upper_arm,r_forearm,r_wrist,r_wrist2hand,
687.2545,-0.2781941,-3.639584E-09,NaN,-0.588075,-1.329117E-07,NaN,-0.2887474,-4.159623E-07,NaN,-0.9786562,1.980897E-05,0.4136142,7.009244E-08,NaN,NaN,-0.4875486,-2.142047E-10,1.219767E-06,-1.109075E-07,-2.935434E-08,-2.861022E-08
687.2681,-0.2737407,-3.638862E-09,NaN,-0.5879474,-1.329107E-07,NaN,-0.2895451,-4.150804E-07,NaN,-0.976844,1.980939E-05,0.4150392,6.921203E-08,NaN,NaN,-0.4874761,-2.142047E-10,1.197117E-06,-1.109051E-07,-2.548003E-08,-2.622604E-08
687.2835,-0.268999,-3.63814E-09,NaN,-0.5878079,-1.329098E-07,NaN,-0.290937,-4.142072E-07,NaN,-0.9750984,1.980981E-05,0.417174,6.834036E-08,NaN,NaN,-0.4873592,-2.142047E-10,1.180428E-06,-1.109028E-07,-2.071166E-08,-2.861022E-08
687.2993,-0.268999,-3.63814E-09,NaN,-0.5878079,-1.329098E-07,NaN,-0.290937,-4.142072E-07,NaN,-0.9750984,1.980981E-05,0.417174,6.834036E-08,NaN,NaN,-0.4873592,-2.142047E-10,1.180428E-06,-1.109028E-07,-2.071166E-08,-2.861022E-08
687.3132,-0.264102,-3.637419E-09,NaN,-0.587662,-1.329089E-07,NaN,-0.2923996,-4.133426E-07,NaN,-0.9733137,1.981023E-05,0.4192962,6.747725E-08,NaN,NaN,-0.4872446,-2.142047E-10,1.162546E-06,-1.109006E-07,-2.011562E-08,-2.622604E-08
687.3264,-0.2591318,-3.636697E-09,NaN,-0.587513,-1.32908E-07,NaN,-0.293864,-4.124892E-07,NaN,-0.9714959,1.981064E-05,0.4213964,6.662538E-08,NaN,NaN,-0.4871322,-2.142047E-10,1.142281E-06,-1.108983E-07,-2.24998E-08,-2.861022E-08
687.3412,-0.2541394,-3.635976E-09,NaN,-0.5873628,-1.329071E-07,NaN,-0.2953018,-4.116497E-07,NaN,-0.9696577,1.981106E-05,0.4234698,6.578733E-08,NaN,NaN,-0.487022,-2.142047E-10,1.120823E-06,-1.10896E-07,-1.951957E-08,-2.622604E-08
687.356,-0.2541394,-3.635976E-09,NaN,-0.5873628,-1.329071E-07,NaN,-0.2953018,-4.116497E-07,NaN,-0.9696577,1.981106E-05,0.4234698,6.578733E-08,NaN,NaN,-0.487022,-2.142047E-10,1.120823E-06,-1.10896E-07,-1.951957E-08,-2.622604E-08
687.3699,-0.2494978,-3.635255E-09,NaN,-0.5872265,-1.329062E-07,NaN,-0.2960838,-4.108208E-07,NaN,-0.9677619,1.981148E-05,0.4247828,6.496E-08,NaN,NaN,-0.4869599,-2.142047E-10,1.091021E-06,-1.108938E-07,-2.071167E-08,-2.861022E-08
687.3854,-0.2450929,-3.634534E-09,NaN,-0.5870992,-1.329054E-07,NaN,-0.2967322,-4.100053E-07,NaN,-0.9659233,1.98119E-05,0.4260502,6.414601E-08,NaN,NaN,-0.4868991,-2.142047E-10,1.063603E-06,-1.108916E-07,-1.773143E-08,-2.622604E-08
687.4001,-0.2408531,-3.633813E-09,NaN,-0.5869781,-1.329045E-07,NaN,-0.2973178,-4.092029E-07,NaN,-0.9641414,1.981232E-05,0.4272822,6.33451E-08,NaN,NaN,-0.4868394,-2.142047E-10,1.042145E-06,-1.108893E-07,-1.832748E-08,-2.861022E-08
687.4149,-0.2408531,-3.633813E-09,NaN,-0.5869781,-1.329045E-07,NaN,-0.2973178,-4.092029E-07,NaN,-0.9641414,1.981232E-05,0.4272822,6.33451E-08,NaN,NaN,-0.4868394,-2.142047E-10,1.042145E-06,-1.108893E-07,-1.832748E-08,-2.861022E-08
687.429,-0.2370759,-3.633092E-09,NaN,-0.5868751,-1.329036E-07,NaN,-0.297251,-4.084133E-07,NaN,-0.9623591,1.981274E-05,0.4277564,6.255701E-08,NaN,NaN,-0.4868268,-2.142047E-10,1.011151E-06,-1.108871E-07,-1.832748E-08,-2.622604E-08
687.4443,-0.2335999,-3.632371E-09,NaN,-0.5867836,-1.329027E-07,NaN,-0.2970712,-4.076363E-07,NaN,-0.9606731,1.981315E-05,0.4281896,6.178148E-08,NaN,NaN,-0.4868145,-2.142047E-10,9.885009E-07,-1.108849E-07,-1.892353E-08,-2.861022E-08
687.4589,-0.2335999,-3.632371E-09,NaN,-0.5867836,-1.329027E-07,NaN,-0.2970712,-4.076363E-07,NaN,-0.9606731,1.981315E-05,0.4281896,6.178148E-08,NaN,NaN,-0.4868145,-2.142047E-10,9.885009E-07,-1.108849E-07,-1.892353E-08,-2.861022E-08
687.473,-0.2303247,-3.63165E-09,NaN,-0.5866996,-1.329019E-07,NaN,-0.2968532,-4.068716E-07,NaN,-0.9590693,1.981357E-05,0.4285967,6.101829E-08,NaN,NaN,-0.4868024,-2.142047E-10,9.658512E-07,-1.108827E-07,-1.832748E-08,-2.622604E-08
687.4884,-0.2271877,-3.63093E-09,NaN,-0.5866206,-1.32901E-07,NaN,-0.2966276,-4.06119E-07,NaN,-0.9575295,1.981399E-05,0.4289856,6.026718E-08,NaN,NaN,-0.4867905,-2.142047E-10,9.455856E-07,-1.108805E-07,-2.130771E-08,-2.861022E-08
687.5031,-0.2244916,-3.630209E-09,NaN,-0.5865586,-1.329001E-07,NaN,-0.2957825,-4.053782E-07,NaN,-0.95599,1.981441E-05,0.4286358,5.952791E-08,NaN,NaN,-0.4868248,-2.142047E-10,9.181675E-07,-1.108783E-07,-2.428795E-08,-2.622604E-08
687.5179,-0.2244916,-3.630209E-09,NaN,-0.5865586,-1.329001E-07,NaN,-0.2957825,-4.053782E-07,NaN,-0.95599,1.981441E-05,0.4286358,5.952791E-08,NaN,NaN,-0.4868248,-2.142047E-10,9.181675E-07,-1.108783E-07,-2.428795E-08,-2.622604E-08
687.5319,-0.2220786,-3.629489E-09,NaN,-0.5865072,-1.328993E-07,NaN,-0.2948495,-4.046491E-07,NaN,-0.9545454,1.981483E-05,0.4282598,5.880025E-08,NaN,NaN,-0.4868584,-2.142047E-10,8.955177E-07,-1.108761E-07,-2.548004E-08,-2.861022E-08
687.5471,-0.2198505,-3.628768E-09,NaN,-0.5864626,-1.328984E-07,NaN,-0.2938982,-4.058541E-07,NaN,-0.953181,1.981525E-05,0.4278729,6.000681E-08,NaN,NaN,-0.4868913,-2.095481E-10,8.776363E-07,-1.108772E-07,-3.084446E-08,-2.622604E-08
687.5638,-0.2177461,-3.628048E-09,NaN,-0.5864221,-1.32898E-07,NaN,-0.2929563,-4.061987E-07,NaN,-0.9518785,1.981568E-05,0.4274829,6.035287E-08,NaN,NaN,-0.4869236,-2.142047E-10,8.60947E-07,-1.108764E-07,-3.322864E-08,-2.861022E-08
687.5774,-0.2177461,-3.628048E-09,NaN,-0.5864221,-1.32898E-07,NaN,-0.2929563,-4.061987E-07,NaN,-0.9518785,1.981568E-05,0.4274829,6.035287E-08,NaN,NaN,-0.4869236,-2.142047E-10,8.60947E-07,-1.108764E-07,-3.322864E-08,-2.861022E-08
687.5915,-0.216069,-3.627328E-09,NaN,-0.5863982,-1.328973E-07,NaN,-0.2914083,-4.066577E-07,NaN,-0.9505742,1.98161E-05,0.4263694,6.081338E-08,NaN,NaN,-0.4870011,-2.095481E-10,8.323368E-07,-1.108752E-07,-3.203655E-08,-2.622604E-08
687.6058,-0.2146622,-3.626608E-09,NaN,-0.5863842,-1.328968E-07,NaN,-0.2897874,-4.058015E-07,NaN,-0.9493633,1.981652E-05,0.4252428,5.995872E-08,NaN,NaN,-0.4870771,-2.095481E-10,8.120712E-07,-1.108733E-07,-3.322864E-08,-2.861022E-08
687.6204,-0.2134278,-3.625888E-09,NaN,-0.5863762,-1.328961E-07,NaN,-0.288163,-4.050015E-07,NaN,-0.9482308,1.981695E-05,0.4241189,5.916024E-08,NaN,NaN,-0.4871516,-2.095481E-10,7.918056E-07,-1.108713E-07,-3.084446E-08,-2.622604E-08
687.6352,-0.2134278,-3.625888E-09,NaN,-0.5863762,-1.328961E-07,NaN,-0.288163,-4.050015E-07,NaN,-0.9482308,1.981695E-05,0.4241189,5.916024E-08,NaN,NaN,-0.4871516,-2.095481E-10,7.918056E-07,-1.108713E-07,-3.084446E-08,-2.622604E-08
687.6494,-0.2126467,-3.625167E-09,NaN,-0.5863849,-1.328954E-07,NaN,-0.2859354,-4.057116E-07,NaN,-0.9471099,1.981737E-05,0.4222794,5.987179E-08,NaN,NaN,-0.4872705,-2.002349E-10,7.667717E-07,-1.108724E-07,-3.084446E-08,-2.622604E-08
687.6646,-0.2121479,-3.624446E-09,NaN,-0.5864034,-1.32895E-07,NaN,-0.2836478,-4.060303E-07,NaN,-0.9460921,1.98178E-05,0.4204364,6.019197E-08,NaN,NaN,-0.4873872,-2.048915E-10,7.429298E-07,-1.108716E-07,-2.905632E-08,-2.861022E-08
687.6808,-0.2118249,-3.623726E-09,NaN,-0.5864277,-1.328943E-07,NaN,-0.2813718,-4.064724E-07,NaN,-0.9451587,1.981823E-05,0.4186071,6.063557E-08,NaN,NaN,-0.4875015,-2.048915E-10,7.214722E-07,-1.108705E-07,-2.846027E-08,-2.622604E-08
687.6941,-0.2118249,-3.623726E-09,NaN,-0.5864277,-1.328943E-07,NaN,-0.2813718,-4.064724E-07,NaN,-0.9451587,1.981823E-05,0.4186071,6.063557E-08,NaN,NaN,-0.4875015,-2.048915E-10,7.214722E-07,-1.108705E-07,-2.846027E-08,-2.622604E-08
687.7084,-0.2116115,-3.623006E-09,NaN,-0.5864553,-1.328934E-07,NaN,-0.2791348,-4.069706E-07,NaN,-0.9442892,1.981865E-05,0.4167998,6.113529E-08,NaN,NaN,-0.4876135,-2.048915E-10,7.023987E-07,-1.108693E-07,-2.548004E-08,-2.861022E-08
687.7235,-0.2118072,-3.622287E-09,NaN,-0.5864984,-1.328928E-07,NaN,-0.2763163,-4.061331E-07,NaN,-0.9434177,1.981908E-05,0.4142914,6.029932E-08,NaN,NaN,-0.4877692,-2.048915E-10,6.773648E-07,-1.108673E-07,-2.011562E-08,-2.622604E-08
687.7383,-0.2118072,-3.622287E-09,NaN,-0.5864984,-1.328928E-07,NaN,-0.2763163,-4.061331E-07,NaN,-0.9434177,1.981908E-05,0.4142914,6.029932E-08,NaN,NaN,-0.4877692,-2.048915E-10,6.773648E-07,-1.108673E-07,-2.011562E-08,-2.622604E-08
687.7523,-0.2122536,-3.621567E-09,NaN,-0.5865503,-1.328921E-07,NaN,-0.2734545,-4.053374E-07,NaN,-0.9426386,1.98195E-05,0.4117943,5.950507E-08,NaN,NaN,-0.4879219,-2.048915E-10,6.582913E-07,-1.108653E-07,-2.190376E-08,-2.861022E-08
687.7678,-0.212852,-3.620848E-09,NaN,-0.5866072,-1.328914E-07,NaN,-0.2706172,-4.045684E-07,NaN,-0.9419361,1.981992E-05,0.4093242,5.873761E-08,NaN,NaN,-0.4880716,-2.048915E-10,6.380257E-07,-1.108632E-07,-2.071167E-08,-2.622604E-08
687.7825,-0.2135412,-3.620128E-09,NaN,-0.5866665,-1.328906E-07,NaN,-0.26783,-4.057459E-07,NaN,-0.9412917,1.982035E-05,0.4068886,5.991663E-08,NaN,NaN,-0.4882183,-2.048915E-10,6.213364E-07,-1.108643E-07,-2.130771E-08,-2.861022E-08
687.7971,-0.2135412,-3.620128E-09,NaN,-0.5866665,-1.328906E-07,NaN,-0.26783,-4.057459E-07,NaN,-0.9412917,1.982035E-05,0.4068886,5.991663E-08,NaN,NaN,-0.4882183,-2.048915E-10,6.213364E-07,-1.108643E-07,-2.130771E-08,-2.861022E-08
687.811,-0.2146247,-3.619409E-09,NaN,-0.5867407,-1.328902E-07,NaN,-0.2644693,-4.060661E-07,NaN,-0.94064,1.982077E-05,0.4037606,6.023831E-08,NaN,NaN,-0.488408,-2.002349E-10,5.939183E-07,-1.108635E-07,-1.951958E-08,-2.622604E-08
687.8282,-0.2159457,-3.618689E-09,NaN,-0.586823,-1.328895E-07,NaN,-0.2610771,-4.06504E-07,NaN,-0.940077,1.982119E-05,0.4006556,6.067773E-08,NaN,NaN,-0.488594,-2.002349E-10,5.700765E-07,-1.108625E-07,-1.773144E-08,-2.861022E-08
687.8419,-0.2174066,-3.61797E-09,NaN,-0.5869095,-1.328886E-07,NaN,-0.2577206,-4.069953E-07,NaN,-0.939588,1.982161E-05,0.3975887,6.117055E-08,NaN,NaN,-0.4887763,-1.955783E-10,5.533872E-07,-1.108613E-07,-1.892353E-08,-2.622604E-08
687.8555,-0.2174066,-3.61797E-09,NaN,-0.5869095,-1.328886E-07,NaN,-0.2577206,-4.069953E-07,NaN,-0.939588,1.982161E-05,0.3975887,6.117055E-08,NaN,NaN,-0.4887763,-1.955783E-10,5.533872E-07,-1.108613E-07,-1.892353E-08,-2.622604E-08
687.8699,-0.2192887,-3.617251E-09,NaN,-0.5870115,-1.32888E-07,NaN,-0.2537918,-4.061483E-07,NaN,-0.939104,1.982204E-05,0.3938327,6.032498E-08,NaN,NaN,-0.4890009,-1.955783E-10,5.295453E-07,-1.108593E-07,-1.59433E-08,-2.861022E-08
687.8851,-0.2214209,-3.616532E-09,NaN,-0.5871218,-1.328873E-07,NaN,-0.2498433,-4.053431E-07,NaN,-0.938718,1.982246E-05,0.3901083,5.952132E-08,NaN,NaN,-0.4892211,-1.955783E-10,5.092797E-07,-1.108573E-07,-1.832748E-08,-2.622604E-08
687.8996,-0.2214209,-3.616532E-09,NaN,-0.5871218,-1.328873E-07,NaN,-0.2498433,-4.053431E-07,NaN,-0.938718,1.982246E-05,0.3901083,5.952132E-08,NaN,NaN,-0.4892211,-1.955783E-10,5.092797E-07,-1.108573E-07,-1.832748E-08,-2.622604E-08
687.9138,-0.2236972,-3.615813E-09,NaN,-0.5872362,-1.328866E-07,NaN,-0.2459442,-4.045649E-07,NaN,-0.9384115,1.982288E-05,0.3864315,5.874464E-08,NaN,NaN,-0.4894369,-1.955783E-10,4.902063E-07,-1.108552E-07,-1.47512E-08,-2.861022E-08
687.9292,-0.2260517,-3.615094E-09,NaN,-0.5873522,-1.328858E-07,NaN,-0.24212,-4.057307E-07,NaN,-0.9381641,1.982331E-05,0.3828098,5.99119E-08,NaN,NaN,-0.4896485,-2.002349E-10,4.747091E-07,-1.108564E-07,-1.59433E-08,-2.622604E-08
687.9439,-0.2287854,-3.614375E-09,NaN,-0.587482,-1.328854E-07,NaN,-0.2377419,-4.060421E-07,NaN,-0.9379075,1.982373E-05,0.3785078,6.022477E-08,NaN,NaN,-0.4899018,-1.955783E-10,4.437146E-07,-1.108556E-07,-1.355911E-08,-2.861022E-08
687.9584,-0.2287854,-3.614375E-09,NaN,-0.587482,-1.328854E-07,NaN,-0.2377419,-4.060421E-07,NaN,-0.9379075,1.982373E-05,0.3785078,6.022477E-08,NaN,NaN,-0.4899018,-1.955783E-10,4.437146E-07,-1.108556E-07,-1.355911E-08,-2.861022E-08
687.9726,-0.2317396,-3.613656E-09,NaN,-0.5876189,-1.328847E-07,NaN,-0.2333588,-4.064714E-07,NaN,-0.9377376,1.982415E-05,0.3742508,6.065557E-08,NaN,NaN,-0.49015,-1.909217E-10,4.234491E-07,-1.108546E-07,-1.415516E-08,-2.622604E-08
687.9881,-0.2348159,-3.612938E-09,NaN,-0.5877588,-1.328839E-07,NaN,-0.2290354,-4.069542E-07,NaN,-0.9376394,1.982457E-05,0.3700527,6.113991E-08,NaN,NaN,-0.4903934,-1.909217E-10,4.055676E-07,-1.108534E-07,-1.355911E-08,-2.861022E-08
688.0028,-0.2379533,-3.612219E-09,NaN,-0.5878997,-1.328829E-07,NaN,-0.2247957,-4.074614E-07,NaN,-0.9375942,1.9825E-05,0.36592,6.164854E-08,NaN,NaN,-0.490632,-1.909217E-10,3.864942E-07,-1.108521E-07,-1.415516E-08,-2.622604E-08
688.0176,-0.2379533,-3.612219E-09,NaN,-0.5878997,-1.328829E-07,NaN,-0.2247957,-4.074614E-07,NaN,-0.9375942,1.9825E-05,0.36592,6.164854E-08,NaN,NaN,-0.490632,-1.909217E-10,3.864942E-07,-1.108521E-07,-1.415516E-08,-2.622604E-08
688.0316,-0.2414559,-3.611501E-09,NaN,-0.5880539,-1.328822E-07,NaN,-0.2200079,-4.066129E-07,NaN,-0.9375347,1.982542E-05,0.3611103,6.080156E-08,NaN,NaN,-0.4909118,-1.909217E-10,3.602681E-07,-1.108501E-07,-1.296307E-08,-2.861022E-08
688.047,-0.2451668,-3.610782E-09,NaN,-0.5882145,-1.328815E-07,NaN,-0.2152252,-4.057979E-07,NaN,-0.9375583,1.982585E-05,0.3563563,5.998805E-08,NaN,NaN,-0.491186,-1.909217E-10,3.411946E-07,-1.108481E-07,-1.653934E-08,-2.622604E-08
688.0616,-0.248989,-3.610064E-09,NaN,-0.5883778,-1.328807E-07,NaN,-0.2105115,-4.066243E-07,NaN,-0.9376506,1.982626E-05,0.3516707,6.081594E-08,NaN,NaN,-0.4914548,-1.86265E-10,3.233132E-07,-1.108493E-07,-9.386786E-09,-2.861022E-08
688.0761,-0.248989,-3.610064E-09,NaN,-0.5883778,-1.328807E-07,NaN,-0.2105115,-4.066243E-07,NaN,-0.9376506,1.982626E-05,0.3516707,6.081594E-08,NaN,NaN,-0.4914548,-1.86265E-10,3.233132E-07,-1.108493E-07,-9.386786E-09,-2.861022E-08
688.0921,-0.253204,-3.609347E-09,NaN,-0.5885551,-1.328808E-07,NaN,-0.20525,-4.071579E-07,NaN,-0.9377408,1.982669E-05,0.3463083,6.135107E-08,NaN,NaN,-0.4917642,-1.86265E-10,2.970872E-07,-1.108511E-07,-8.194694E-09,-2.622604E-08
688.1066,-0.2576413,-3.60863E-09,NaN,-0.588739,-1.328813E-07,NaN,-0.2000046,-4.075316E-07,NaN,-0.9379231,1.982711E-05,0.3410099,6.172621E-08,NaN,NaN,-0.4920674,-1.816084E-10,2.803978E-07,-1.108533E-07,-5.214462E-09,-2.861022E-08
688.1202,-0.2621948,-3.607913E-09,NaN,-0.5889254,-1.328821E-07,NaN,-0.1948406,-4.078132E-07,NaN,-0.9381798,1.982753E-05,0.3357882,6.200931E-08,NaN,NaN,-0.4923647,-1.62982E-10,2.601323E-07,-1.108556E-07,-2.23423E-09,-2.622604E-08
688.1348,-0.2621948,-3.607913E-09,NaN,-0.5889254,-1.328821E-07,NaN,-0.1948406,-4.078132E-07,NaN,-0.9381798,1.982753E-05,0.3357882,6.200931E-08,NaN,NaN,-0.4923647,-1.62982E-10,2.601323E-07,-1.108556E-07,-2.23423E-09,-2.622604E-08
688.1489,-0.2667992,-3.607196E-09,NaN,-0.589112,-1.328831E-07,NaN,-0.1897814,-4.080412E-07,NaN,-0.9384907,1.982796E-05,0.3306495,6.223883E-08,NaN,NaN,-0.4926561,-1.536688E-10,2.398667E-07,-1.10858E-07,7.460024E-10,-2.861022E-08
688.1655,-0.271756,-3.606479E-09,NaN,-0.5893113,-1.328843E-07,NaN,-0.1841903,-4.082365E-07,NaN,-0.9387855,1.982838E-05,0.3248387,6.243558E-08,NaN,NaN,-0.4929876,-1.350423E-10,2.207932E-07,-1.108605E-07,4.918328E-09,-2.622604E-08
688.1788,-0.271756,-3.606479E-09,NaN,-0.5893113,-1.328843E-07,NaN,-0.1841903,-4.082365E-07,NaN,-0.9387855,1.982838E-05,0.3248387,6.243558E-08,NaN,NaN,-0.4929876,-1.350423E-10,2.207932E-07,-1.108605E-07,4.918328E-09,-2.622604E-08
688.1927,-0.2769066,-3.605762E-09,NaN,-0.5895162,-1.328854E-07,NaN,-0.1786278,-4.084138E-07,NaN,-0.9391614,1.982882E-05,0.3191037,6.26143E-08,NaN,NaN,-0.4933126,-1.303857E-10,1.969513E-07,-1.108631E-07,4.918328E-09,-2.861022E-08
688.2081,-0.282153,-3.605045E-09,NaN,-0.5897228,-1.328866E-07,NaN,-0.1731547,-4.08579E-07,NaN,-0.9396037,1.982925E-05,0.3134553,6.278099E-08,NaN,NaN,-0.4936311,-1.164159E-10,1.766858E-07,-1.108656E-07,9.090653E-09,-2.622604E-08
688.2227,-0.2874343,-3.604328E-09,NaN,-0.5899291,-1.328879E-07,NaN,-0.1677931,-4.087381E-07,NaN,-0.9400947,1.98297E-05,0.3078986,6.294152E-08,NaN,NaN,-0.4939433,-1.164159E-10,1.588044E-07,-1.108682E-07,7.89856E-09,-2.861022E-08
688.2377,-0.2874343,-3.604328E-09,NaN,-0.5899291,-1.328879E-07,NaN,-0.1677931,-4.087381E-07,NaN,-0.9400947,1.98297E-05,0.3078986,6.294152E-08,NaN,NaN,-0.4939433,-1.164159E-10,1.588044E-07,-1.108682E-07,7.89856E-09,-2.861022E-08
688.2515,-0.2930554,-3.603611E-09,NaN,-0.5901477,-1.328891E-07,NaN,-0.1619036,-4.08894E-07,NaN,-0.9405648,1.983014E-05,0.3016697,6.309883E-08,NaN,NaN,-0.4942952,-1.02446E-10,1.2781E-07,-1.108707E-07,6.110421E-09,-2.622604E-08
688.2672,-0.2988595,-3.602894E-09,NaN,-0.5903715,-1.328903E-07,NaN,-0.156051,-4.090467E-07,NaN,-0.9411123,1.98306E-05,0.2955261,6.325299E-08,NaN,NaN,-0.4946402,-1.02446E-10,1.063523E-07,-1.108733E-07,3.726235E-09,-2.861022E-08
688.2817,-0.3047497,-3.602176E-09,NaN,-0.5905968,-1.328916E-07,NaN,-0.1502951,-4.091991E-07,NaN,-0.9417237,1.983105E-05,0.2894773,6.340688E-08,NaN,NaN,-0.4949783,-9.778941E-11,8.966298E-08,-1.108758E-07,-2.830276E-09,-2.622604E-08
688.2961,-0.3047497,-3.602176E-09,NaN,-0.5905968,-1.328916E-07,NaN,-0.1502951,-4.091991E-07,NaN,-0.9417237,1.983105E-05,0.2894773,6.340688E-08,NaN,NaN,-0.4949783,-9.778941E-11,8.966298E-08,-1.108758E-07,-2.830276E-09,-2.622604E-08
688.3104,-0.3110083,-3.601459E-09,NaN,-0.590835,-1.328928E-07,NaN,-0.1440115,-4.093513E-07,NaN,-0.9423267,1.983151E-05,0.2827552,6.356051E-08,NaN,NaN,-0.4953556,-1.02446E-10,5.986066E-08,-1.108783E-07,-2.830276E-09,-2.861022E-08
688.3254,-0.3174646,-3.600741E-09,NaN,-0.5910786,-1.32894E-07,NaN,-0.1377745,-4.095033E-07,NaN,-0.9430162,1.983196E-05,0.2761261,6.371387E-08,NaN,NaN,-0.4957255,-9.778941E-11,3.244253E-08,-1.108809E-07,-4.460903E-10,-2.622604E-08
688.3403,-0.324013,-3.600024E-09,NaN,-0.5913235,-1.328953E-07,NaN,-0.1316454,-4.09655E-07,NaN,-0.9437756,1.983242E-05,0.2695997,6.386698E-08,NaN,NaN,-0.496088,-1.02446E-10,8.600669E-09,-1.108834E-07,-1.042137E-09,-2.861022E-08
688.3547,-0.324013,-3.600024E-09,NaN,-0.5913235,-1.328953E-07,NaN,-0.1316454,-4.09655E-07,NaN,-0.9437756,1.983242E-05,0.2695997,6.386698E-08,NaN,NaN,-0.496088,-1.02446E-10,8.600669E-09,-1.108834E-07,-1.042137E-09,-2.861022E-08
688.371,-0.3305883,-3.599306E-09,NaN,-0.5915676,-1.328965E-07,NaN,-0.1256455,-4.098064E-07,NaN,-0.9445852,1.983287E-05,0.2631805,6.401984E-08,NaN,NaN,-0.4964433,-9.778941E-11,-9.280724E-09,-1.108859E-07,-4.022369E-09,-2.622604E-08
688.3853,-0.3374927,-3.598588E-09,NaN,-0.5918235,-1.328977E-07,NaN,-0.1191316,-4.099576E-07,NaN,-0.9453732,1.983333E-05,0.2560892,6.417246E-08,NaN,NaN,-0.4968375,-1.02446E-10,-3.789095E-08,-1.108884E-07,-4.022369E-09,-2.861022E-08
688.3989,-0.3374927,-3.598588E-09,NaN,-0.5918235,-1.328977E-07,NaN,-0.1191316,-4.099576E-07,NaN,-0.9453732,1.983333E-05,0.2560892,6.417246E-08,NaN,NaN,-0.4968375,-1.02446E-10,-3.789095E-08,-1.108884E-07,-4.022369E-09,-2.861022E-08
688.413,-0.3445677,-3.59787E-09,NaN,-0.5920839,-1.328989E-07,NaN,-0.1126742,-4.101085E-07,NaN,-0.9462371,1.983379E-05,0.2491014,6.432484E-08,NaN,NaN,-0.4972238,-9.778941E-11,-6.29249E-08,-1.108909E-07,-2.234229E-09,-2.622604E-08
688.4281,-0.3517154,-3.597152E-09,NaN,-0.592345,-1.329002E-07,NaN,-0.1063307,-4.102592E-07,NaN,-0.9471635,1.983424E-05,0.2422246,6.447697E-08,NaN,NaN,-0.4976026,-9.313279E-11,-9.034304E-08,-1.108934E-07,-1.638183E-09,-2.861022E-08
688.4429,-0.3588753,-3.596433E-09,NaN,-0.592605,-1.329014E-07,NaN,-0.1001211,-4.104097E-07,NaN,-0.9481348,1.983469E-05,0.2354625,6.462888E-08,NaN,NaN,-0.4979738,-8.847618E-11,-1.165691E-07,-1.108958E-07,-2.234229E-09,-2.622604E-08
688.4576,-0.3588753,-3.596433E-09,NaN,-0.592605,-1.329014E-07,NaN,-0.1001211,-4.104097E-07,NaN,-0.9481348,1.983469E-05,0.2354625,6.462888E-08,NaN,NaN,-0.4979738,-8.847618E-11,-1.165691E-07,-1.108958E-07,-2.234229E-09,-2.622604E-08
688.4716,-0.3663528,-3.595715E-09,NaN,-0.5928766,-1.329026E-07,NaN,-0.09340003,-4.1056E-07,NaN,-0.9490803,1.983515E-05,0.2280259,6.478056E-08,NaN,NaN,-0.4983835,-9.313279E-11,-1.439872E-07,-1.108983E-07,-4.022369E-09,-2.861022E-08
688.4872,-0.3739912,-3.594996E-09,NaN,-0.5931523,-1.329038E-07,NaN,-0.08674189,-4.1071E-07,NaN,-0.9500985,1.98356E-05,0.2207011,6.493202E-08,NaN,NaN,-0.4987851,-8.381957E-11,-1.690212E-07,-1.109008E-07,-1.480669E-10,-2.622604E-08
688.5017,-0.3816937,-3.594278E-09,NaN,-0.5934286,-1.32905E-07,NaN,-0.08020291,-4.108598E-07,NaN,-0.9511769,1.983606E-05,0.2134944,6.508326E-08,NaN,NaN,-0.4991788,-8.847618E-11,-1.940551E-07,-1.109032E-07,1.499563E-10,-2.861022E-08
688.5168,-0.3816937,-3.594278E-09,NaN,-0.5934286,-1.32905E-07,NaN,-0.08020291,-4.108598E-07,NaN,-0.9511769,1.983606E-05,0.2134944,6.508326E-08,NaN,NaN,-0.4991788,-8.847618E-11,-1.940551E-07,-1.109032E-07,1.499563E-10,-2.861022E-08
688.5308,-0.3897432,-3.593559E-09,NaN,-0.5937172,-1.329062E-07,NaN,-0.0731526,-4.110094E-07,NaN,-0.9522423,1.983651E-05,0.2056115,6.523428E-08,NaN,NaN,-0.4996105,-8.381957E-11,-2.3101E-07,-1.109057E-07,-2.830276E-09,-2.622604E-08
688.546,-0.3979692,-3.59284E-09,NaN,-0.5940101,-1.329074E-07,NaN,-0.06617391,-4.111588E-07,NaN,-0.9533897,1.983697E-05,0.1978478,6.53851E-08,NaN,NaN,-0.5000336,-8.847618E-11,-2.596202E-07,-1.109081E-07,-1.638183E-09,-2.861022E-08
688.5607,-0.406266,-3.592121E-09,NaN,-0.5943034,-1.329086E-07,NaN,-0.05932428,-4.113108E-07,NaN,-0.9546035,1.983742E-05,0.1902096,6.553854E-08,NaN,NaN,-0.5004484,-8.381957E-11,-2.918067E-07,-1.109105E-07,-4.022369E-09,-2.622604E-08
688.5757,-0.406266,-3.592121E-09,NaN,-0.5943034,-1.329086E-07,NaN,-0.05932428,-4.113108E-07,NaN,-0.9546035,1.983742E-05,0.1902096,6.553854E-08,NaN,NaN,-0.5004484,-8.381957E-11,-2.918067E-07,-1.109105E-07,-4.022369E-09,-2.622604E-08
688.5894,-0.4145687,-3.591402E-09,NaN,-0.5945951,-1.329098E-07,NaN,-0.05262297,-4.114625E-07,NaN,-0.9558647,1.983788E-05,0.1827,6.569172E-08,NaN,NaN,-0.500855,-8.847618E-11,-3.20417E-07,-1.109129E-07,-4.022369E-09,-2.861022E-08
688.6049,-0.4231803,-3.590683E-09,NaN,-0.594898,-1.32911E-07,NaN,-0.04542169,-4.116141E-07,NaN,-0.957101,1.983833E-05,0.1745128,6.584465E-08,NaN,NaN,-0.5012993,-7.916296E-11,-3.555837E-07,-1.109153E-07,-6.704577E-09,-2.622604E-08
688.6193,-0.4231803,-3.590683E-09,NaN,-0.594898,-1.32911E-07,NaN,-0.04542169,-4.116141E-07,NaN,-0.957101,1.983833E-05,0.1745128,6.584465E-08,NaN,NaN,-0.5012993,-7.916296E-11,-3.555837E-07,-1.109153E-07,-6.704577E-09,-2.622604E-08
688.6354,-0.4319422,-3.589963E-09,NaN,-0.5952047,-1.329121E-07,NaN,-0.0382996,-4.117653E-07,NaN,-0.9584093,1.983879E-05,0.1664536,6.599733E-08,NaN,NaN,-0.5017349,-8.381958E-11,-3.901544E-07,-1.109177E-07,-6.108531E-09,-2.861022E-08
688.6511,-0.4407565,-3.589244E-09,NaN,-0.5955113,-1.329133E-07,NaN,-0.0313106,-4.119163E-07,NaN,-0.959777,1.983923E-05,0.1585271,6.614977E-08,NaN,NaN,-0.5021618,-7.450635E-11,-4.247251E-07,-1.109201E-07,-2.532252E-09,-2.622604E-08
688.6633,-0.4495631,-3.588524E-09,NaN,-0.595816,-1.329145E-07,NaN,-0.02447264,-4.120671E-07,NaN,-0.9611873,1.983969E-05,0.1507354,6.630197E-08,NaN,NaN,-0.5025803,-7.916297E-11,-4.575077E-07,-1.109225E-07,-4.022368E-09,-2.861022E-08
688.6782,-0.4495631,-3.588524E-09,NaN,-0.595816,-1.329145E-07,NaN,-0.02447264,-4.120671E-07,NaN,-0.9611873,1.983969E-05,0.1507354,6.630197E-08,NaN,NaN,-0.5025803,-7.916297E-11,-4.575077E-07,-1.109225E-07,-4.022368E-09,-2.861022E-08
688.692,-0.4586681,-3.587804E-09,NaN,-0.5961318,-1.329157E-07,NaN,-0.01713612,-4.122176E-07,NaN,-0.9625695,1.984014E-05,0.142262,6.645394E-08,NaN,NaN,-0.5030364,-7.450635E-11,-4.956547E-07,-1.109249E-07,-1.042136E-09,-2.622604E-08
688.7073,-0.4679146,-3.587085E-09,NaN,-0.5964511,-1.329168E-07,NaN,-0.009883198,-4.12368E-07,NaN,-0.964021,1.984061E-05,0.1339236,6.660568E-08,NaN,NaN,-0.5034834,-7.916297E-11,-5.320135E-07,-1.109273E-07,-3.724345E-09,-2.861022E-08
688.722,-0.4772059,-3.586365E-09,NaN,-0.5967702,-1.32918E-07,NaN,-0.002767032,-4.125181E-07,NaN,-0.96553,1.984105E-05,0.1257244,6.67572E-08,NaN,NaN,-0.5039215,-6.984974E-11,-5.630079E-07,-1.109296E-07,-9.386786E-09,-2.622604E-08
688.7368,-0.4772059,-3.586365E-09,NaN,-0.5967702,-1.32918E-07,NaN,-0.002767032,-4.125181E-07,NaN,-0.96553,1.984105E-05,0.1257244,6.67572E-08,NaN,NaN,-0.5039215,-6.984974E-11,-5.630079E-07,-1.109296E-07,-9.386786E-09,-2.622604E-08
688.7511,-0.4868257,-3.585645E-09,NaN,-0.597101,-1.329192E-07,NaN,0.004847839,-4.126679E-07,NaN,-0.9670242,1.984151E-05,0.1168414,6.690849E-08,NaN,NaN,-0.5043968,-7.450636E-11,-6.094995E-07,-1.10932E-07,-1.08769E-08,-2.861022E-08
688.7665,-0.4966033,-3.584925E-09,NaN,-0.5974355,-1.329203E-07,NaN,0.01237132,-4.128176E-07,NaN,-0.9685972,1.984196E-05,0.1081011,6.705957E-08,NaN,NaN,-0.5048627,-6.519314E-11,-6.512228E-07,-1.109343E-07,-1.028086E-08,-2.622604E-08
688.7814,-0.5064331,-3.584204E-09,NaN,-0.5977696,-1.329215E-07,NaN,0.0197493,-4.12967E-07,NaN,-0.9702343,1.984242E-05,0.09950712,6.721044E-08,NaN,NaN,-0.5053194,-6.984975E-11,-6.935421E-07,-1.109367E-07,-1.221801E-08,-2.861022E-08
688.796,-0.5064331,-3.584204E-09,NaN,-0.5977696,-1.329215E-07,NaN,0.0197493,-4.12967E-07,NaN,-0.9702343,1.984242E-05,0.09950712,6.721044E-08,NaN,NaN,-0.5053194,-6.984975E-11,-6.935421E-07,-1.109367E-07,-1.221801E-08,-2.861022E-08
688.8099,-0.5162505,-3.583484E-09,NaN,-0.5981016,-1.329226E-07,NaN,0.02696463,-4.131163E-07,NaN,-0.9719172,1.984287E-05,0.09106067,6.736111E-08,NaN,NaN,-0.505767,-6.053653E-11,-7.293049E-07,-1.10939E-07,-1.2069E-08,-2.622604E-08
688.8253,-0.5263591,-3.582763E-09,NaN,-0.5984442,-1.329238E-07,NaN,0.03466949,-4.132653E-07,NaN,-0.9735746,1.984333E-05,0.0819266,6.751158E-08,NaN,NaN,-0.5062517,-6.519314E-11,-7.763925E-07,-1.109413E-07,-1.266504E-08,-2.861022E-08
688.84,-0.5366002,-3.582043E-09,NaN,-0.59879,-1.329249E-07,NaN,0.04227743,-4.134142E-07,NaN,-0.9753017,1.984378E-05,0.0729427,6.766184E-08,NaN,NaN,-0.5067267,-5.587992E-11,-8.169237E-07,-1.109436E-07,-1.028086E-08,-2.622604E-08
688.8545,-0.5366002,-3.582043E-09,NaN,-0.59879,-1.329249E-07,NaN,0.04227743,-4.134142E-07,NaN,-0.9753017,1.984378E-05,0.0729427,6.766184E-08,NaN,NaN,-0.5067267,-5.587992E-11,-8.169237E-07,-1.109436E-07,-1.028086E-08,-2.622604E-08
688.8686,-0.546876,-3.581322E-09,NaN,-0.5991351,-1.329261E-07,NaN,0.04973757,-4.135628E-07,NaN,-0.9770864,1.984424E-05,0.06411152,6.781192E-08,NaN,NaN,-0.5071924,-6.053653E-11,-8.628193E-07,-1.109459E-07,-9.610305E-09,-2.861022E-08
688.8841,-0.5571266,-3.580602E-09,NaN,-0.5994779,-1.329272E-07,NaN,0.05703386,-4.137113E-07,NaN,-0.9789124,1.984469E-05,0.05543324,6.79618E-08,NaN,NaN,-0.5076489,-5.587992E-11,-9.051386E-07,-1.109482E-07,-5.661497E-09,-2.622604E-08
688.8998,-0.5571266,-3.580602E-09,NaN,-0.5994779,-1.329272E-07,NaN,0.05703386,-4.137113E-07,NaN,-0.9789124,1.984469E-05,0.05543324,6.79618E-08,NaN,NaN,-0.5076489,-5.587992E-11,-9.051386E-07,-1.109482E-07,-5.661497E-09,-2.622604E-08
688.9138,-0.5676587,-3.579881E-09,NaN,-0.5998313,-1.329283E-07,NaN,0.06481947,-4.138595E-07,NaN,-0.980711,1.984515E-05,0.04606172,6.81115E-08,NaN,NaN,-0.5081422,-6.053653E-11,-9.575907E-07,-1.109505E-07,-1.296307E-08,-2.861022E-08
688.9278,-0.5783154,-3.57916E-09,NaN,-0.6001877,-1.329295E-07,NaN,0.07250521,-4.140076E-07,NaN,-0.9825768,1.98456E-05,0.03684702,6.826101E-08,NaN,NaN,-0.5086257,-5.587992E-11,-1.00289E-06,-1.109528E-07,-1.631583E-08,-2.622604E-08
688.9427,-0.5890001,-3.578439E-09,NaN,-0.6005433,-1.329306E-07,NaN,0.08004092,-4.141555E-07,NaN,-0.9844987,1.984606E-05,0.02779076,6.841034E-08,NaN,NaN,-0.5090997,-6.053653E-11,-1.05117E-06,-1.10955E-07,-1.443455E-08,-2.861022E-08
688.9573,-0.5890001,-3.578439E-09,NaN,-0.6005433,-1.329306E-07,NaN,0.08004092,-4.141555E-07,NaN,-0.9844987,1.984606E-05,0.02779076,6.841034E-08,NaN,NaN,-0.5090997,-6.053653E-11,-1.05117E-06,-1.10955E-07,-1.443455E-08,-2.861022E-08
688.9715,-0.5999971,-3.577718E-09,NaN,-0.6009102,-1.329317E-07,NaN,0.08806616,-4.143033E-07,NaN,-0.9864069,1.984651E-05,0.01803929,6.85595E-08,NaN,NaN,-0.5096101,-5.587992E-11,-1.103026E-06,-1.109573E-07,-1.276749E-08,-2.622604E-08
688.9869,-0.6111354,-3.576996E-09,NaN,-0.6012801,-1.329328E-07,NaN,0.09598454,-4.144508E-07,NaN,-0.9883921,1.984697E-05,0.008452459,6.870849E-08,NaN,NaN,-0.5101104,-6.053653E-11,-1.151306E-06,-1.109596E-07,-1.120287E-08,-2.861022E-08
689.0016,-0.6223098,-3.576275E-09,NaN,-0.6016491,-1.32934E-07,NaN,0.1037451,-4.145982E-07,NaN,-0.9904401,1.984742E-05,-0.0009685559,6.885732E-08,NaN,NaN,-0.5106009,-5.122331E-11,-1.194221E-06,-1.109618E-07,-1.138913E-08,-2.622604E-08
689.0165,-0.6223098,-3.576275E-09,NaN,-0.6016491,-1.32934E-07,NaN,0.1037451,-4.145982E-07,NaN,-0.9904401,1.984742E-05,-0.0009685559,6.885732E-08,NaN,NaN,-0.5106009,-5.122331E-11,-1.194221E-06,-1.109618E-07,-1.138913E-08,-2.622604E-08
689.0304,-0.6334556,-3.575554E-09,NaN,-0.6020155,-1.329351E-07,NaN,0.1113327,-4.147455E-07,NaN,-0.9925334,1.984788E-05,-0.01022456,6.900598E-08,NaN,NaN,-0.5110818,-5.587992E-11,-1.240117E-06,-1.109641E-07,-1.280474E-08,-2.861022E-08
689.0463,-0.6448771,-3.574832E-09,NaN,-0.6023923,-1.329362E-07,NaN,0.1194025,-4.148926E-07,NaN,-0.9946039,1.984833E-05,-0.02018158,6.915447E-08,NaN,NaN,-0.5115989,-5.122331E-11,-1.30151E-06,-1.109663E-07,-1.213419E-08,-2.622604E-08
689.0607,-0.6564156,-3.57411E-09,NaN,-0.6027716,-1.329373E-07,NaN,0.1273617,-4.150395E-07,NaN,-0.9967429,1.984879E-05,-0.02996733,6.930281E-08,NaN,NaN,-0.5121059,-5.587992E-11,-1.353962E-06,-1.109685E-07,-1.034605E-08,-2.861022E-08
689.0752,-0.6564156,-3.57411E-09,NaN,-0.6027716,-1.329373E-07,NaN,0.1273617,-4.150395E-07,NaN,-0.9967429,1.984879E-05,-0.02996733,6.930281E-08,NaN,NaN,-0.5121059,-5.587992E-11,-1.353962E-06,-1.109685E-07,-1.034605E-08,-2.861022E-08
689.0894,-0.6679733,-3.573388E-09,NaN,-0.6031498,-1.329384E-07,NaN,0.1351622,-4.151862E-07,NaN,-0.9989386,1.984924E-05,-0.03958175,6.945098E-08,NaN,NaN,-0.5126029,-5.122331E-11,-1.403433E-06,-1.109707E-07,-6.918782E-09,-2.622604E-08
689.1045,-0.6794904,-3.572667E-09,NaN,-0.6035253,-1.329395E-07,NaN,0.1427897,-4.153328E-07,NaN,-1.001175,1.98497E-05,-0.04902636,6.959901E-08,NaN,NaN,-0.5130901,-5.587992E-11,-1.454097E-06,-1.109729E-07,-8.855933E-09,-2.861022E-08
689.1194,-0.6794904,-3.572667E-09,NaN,-0.6035253,-1.329395E-07,NaN,0.1427897,-4.153328E-07,NaN,-1.001175,1.98497E-05,-0.04902636,6.959901E-08,NaN,NaN,-0.5130901,-5.587992E-11,-1.454097E-06,-1.109729E-07,-8.855933E-09,-2.861022E-08
689.1347,-0.6912743,-3.571945E-09,NaN,-0.6039112,-1.329406E-07,NaN,0.1509002,-4.154793E-07,NaN,-1.003388,1.985015E-05,-0.05917874,6.974689E-08,NaN,NaN,-0.5136135,-5.122331E-11,-1.514298E-06,-1.109751E-07,-8.259886E-09,-2.622604E-08
689.1488,-0.703168,-3.571222E-09,NaN,-0.6042995,-1.329417E-07,NaN,0.1588984,-4.156256E-07,NaN,-1.005668,1.985061E-05,-0.06915361,6.989462E-08,NaN,NaN,-0.5141266,-5.587992E-11,-1.573307E-06,-1.109773E-07,-6.76977E-09,-2.861022E-08
689.1642,-0.715075,-3.5705E-09,NaN,-0.6046867,-1.329428E-07,NaN,0.1667368,-4.157746E-07,NaN,-1.008003,1.985106E-05,-0.07895185,7.004503E-08,NaN,NaN,-0.5146296,-5.122331E-11,-1.625759E-06,-1.109795E-07,-2.299422E-09,-2.622604E-08
689.179,-0.715075,-3.5705E-09,NaN,-0.6046867,-1.329428E-07,NaN,0.1667368,-4.157746E-07,NaN,-1.008003,1.985106E-05,-0.07895185,7.004503E-08,NaN,NaN,-0.5146296,-5.122331E-11,-1.625759E-06,-1.109795E-07,-2.299422E-09,-2.622604E-08
689.1932,-0.72728,-3.569778E-09,NaN,-0.6050847,-1.329439E-07,NaN,0.1750584,-4.159234E-07,NaN,-1.010329,1.985152E-05,-0.08945941,7.019524E-08,NaN,NaN,-0.5151685,-5.587992E-11,-1.690728E-06,-1.109817E-07,2.468949E-09,-2.861022E-08
689.2073,-0.739612,-3.569055E-09,NaN,-0.6054854,-1.32945E-07,NaN,0.1832612,-4.16072E-07,NaN,-1.012731,1.985197E-05,-0.09978119,7.034526E-08,NaN,NaN,-0.5156968,-5.122331E-11,-1.752717E-06,-1.109839E-07,4.853135E-09,-2.622604E-08
689.222,-0.7519658,-3.568333E-09,NaN,-0.6058847,-1.329461E-07,NaN,0.1912974,-4.162204E-07,NaN,-1.015195,1.985243E-05,-0.1099187,7.049509E-08,NaN,NaN,-0.5162147,-5.587992E-11,-1.810533E-06,-1.10986E-07,3.661042E-09,-2.861022E-08
689.2367,-0.7519658,-3.568333E-09,NaN,-0.6058847,-1.329461E-07,NaN,0.1912974,-4.162204E-07,NaN,-1.015195,1.985243E-05,-0.1099187,7.049509E-08,NaN,NaN,-0.5162147,-5.587992E-11,-1.810533E-06,-1.10986E-07,3.661042E-09,-2.861022E-08
689.2507,-0.7642769,-3.56761E-09,NaN,-0.606281,-1.329471E-07,NaN,0.1991534,-4.163686E-07,NaN,-1.017704,1.985289E-05,-0.1198747,7.064473E-08,NaN,NaN,-0.5167225,-5.122331E-11,-1.864177E-06,-1.109882E-07,4.555112E-09,-2.622604E-08
689.2663,-0.7768502,-3.566887E-09,NaN,-0.6066874,-1.329482E-07,NaN,0.2074868,-4.165167E-07,NaN,-1.020197,1.985335E-05,-0.1305474,7.079419E-08,NaN,NaN,-0.5172662,-5.587992E-11,-1.929742E-06,-1.109904E-07,1.021755E-08,-2.861022E-08
689.2809,-0.7895268,-3.566164E-09,NaN,-0.607096,-1.329493E-07,NaN,0.2156992,-4.166645E-07,NaN,-1.022758,1.98538E-05,-0.1410284,7.094348E-08,NaN,NaN,-0.5177991,-5.122331E-11,-1.994711E-06,-1.109925E-07,9.02546E-09,-2.622604E-08
689.2955,-0.7895268,-3.566164E-09,NaN,-0.607096,-1.329493E-07,NaN,0.2156992,-4.166645E-07,NaN,-1.022758,1.98538E-05,-0.1410284,7.094348E-08,NaN,NaN,-0.5177991,-5.122331E-11,-1.994711E-06,-1.109925E-07,9.02546E-09,-2.622604E-08
689.3096,-0.802209,-3.565441E-09,NaN,-0.6075031,-1.329504E-07,NaN,0.2237451,-4.168122E-07,NaN,-1.025375,1.985426E-05,-0.1513202,7.109259E-08,NaN,NaN,-0.5183215,-5.587992E-11,-2.054316E-06,-1.109946E-07,8.131391E-09,-2.861022E-08
689.325,-0.8148371,-3.564718E-09,NaN,-0.6079071,-1.329514E-07,NaN,0.2316117,-4.169598E-07,NaN,-1.028033,1.985471E-05,-0.1614262,7.124154E-08,NaN,NaN,-0.5188338,-5.122331E-11,-2.114517E-06,-1.109968E-07,6.939298E-09,-2.622604E-08
689.3398,-0.8148371,-3.564718E-09,NaN,-0.6079071,-1.329514E-07,NaN,0.2316117,-4.169598E-07,NaN,-1.028033,1.985471E-05,-0.1614262,7.124154E-08,NaN,NaN,-0.5188338,-5.122331E-11,-2.114517E-06,-1.109968E-07,6.939298E-09,-2.622604E-08
689.3537,-0.8277193,-3.563995E-09,NaN,-0.6083212,-1.329525E-07,NaN,0.2399572,-4.171043E-07,NaN,-1.030675,1.985517E-05,-0.1722563,7.138749E-08,NaN,NaN,-0.5193818,-5.587992E-11,-2.185446E-06,-1.109989E-07,9.91953E-09,-2.861022E-08
689.369,-0.8406982,-3.563271E-09,NaN,-0.6087375,-1.329536E-07,NaN,0.2481809,-4.172487E-07,NaN,-1.033383,1.985562E-05,-0.1828887,7.153333E-08,NaN,NaN,-0.5199191,-4.656669E-11,-2.252203E-06,-1.11001E-07,8.727437E-09,-2.622604E-08
689.3839,-0.8536773,-3.562548E-09,NaN,-0.6091523,-1.329546E-07,NaN,0.2562379,-4.17393E-07,NaN,-1.036146,1.985608E-05,-0.1933269,7.167906E-08,NaN,NaN,-0.5204458,-5.122331E-11,-2.314788E-06,-1.110031E-07,3.959066E-09,-2.861022E-08
689.3985,-0.8536773,-3.562548E-09,NaN,-0.6091523,-1.329546E-07,NaN,0.2562379,-4.17393E-07,NaN,-1.036146,1.985608E-05,-0.1933269,7.167906E-08,NaN,NaN,-0.5204458,-5.122331E-11,-2.314788E-06,-1.110031E-07,3.959066E-09,-2.861022E-08
689.4126,-0.8669422,-3.561824E-09,NaN,-0.6095777,-1.329557E-07,NaN,0.2647738,-4.175373E-07,NaN,-1.038908,1.985653E-05,-0.2044902,7.182469E-08,NaN,NaN,-0.5210081,-4.656669E-11,-2.38989E-06,-1.110052E-07,6.939298E-09,-2.622604E-08
689.4296,-0.8803216,-3.561101E-09,NaN,-0.6100053,-1.329567E-07,NaN,0.2731821,-4.176813E-07,NaN,-1.041745,1.985699E-05,-0.2154469,7.197021E-08,NaN,NaN,-0.5215594,-5.122331E-11,-2.461415E-06,-1.110073E-07,4.555112E-09,-2.861022E-08
689.4432,-0.8937101,-3.560377E-09,NaN,-0.6104311,-1.329578E-07,NaN,0.2814175,-4.178254E-07,NaN,-1.044645,1.985743E-05,-0.2262015,7.211564E-08,NaN,NaN,-0.5220997,-4.191008E-11,-2.529365E-06,-1.110094E-07,6.939298E-09,-2.622604E-08
689.4569,-0.8937101,-3.560377E-09,NaN,-0.6104311,-1.329578E-07,NaN,0.2814175,-4.178254E-07,NaN,-1.044645,1.985743E-05,-0.2262015,7.211564E-08,NaN,NaN,-0.5220997,-4.191008E-11,-2.529365E-06,-1.110094E-07,6.939298E-09,-2.622604E-08
689.4711,-0.9070435,-3.559653E-09,NaN,-0.6108537,-1.329588E-07,NaN,0.2894679,-4.179693E-07,NaN,-1.047589,1.985789E-05,-0.2367584,7.226097E-08,NaN,NaN,-0.5226296,-4.656669E-11,-2.597314E-06,-1.110114E-07,1.46879E-08,-2.861022E-08
689.4863,-0.9206274,-3.558929E-09,NaN,-0.6112861,-1.329599E-07,NaN,0.2979924,-4.181131E-07,NaN,-1.050525,1.985835E-05,-0.2480491,7.240619E-08,NaN,NaN,-0.523195,-4.191008E-11,-2.670032E-06,-1.110135E-07,1.409185E-08,-2.622604E-08
689.501,-0.9343026,-3.558205E-09,NaN,-0.6117204,-1.329609E-07,NaN,0.3063882,-4.182568E-07,NaN,-1.05353,1.985881E-05,-0.2591279,7.255133E-08,NaN,NaN,-0.5237492,-4.656669E-11,-2.738577E-06,-1.110156E-07,8.727437E-09,-2.861022E-08
689.5162,-0.9343026,-3.558205E-09,NaN,-0.6117204,-1.329609E-07,NaN,0.3063882,-4.182568E-07,NaN,-1.05353,1.985881E-05,-0.2591279,7.255133E-08,NaN,NaN,-0.5237492,-4.656669E-11,-2.738577E-06,-1.110156E-07,8.727437E-09,-2.861022E-08
689.5298,-0.9479714,-3.557481E-09,NaN,-0.6121529,-1.329619E-07,NaN,0.3146122,-4.184004E-07,NaN,-1.056591,1.985926E-05,-0.27,7.269637E-08,NaN,NaN,-0.5242926,-4.191008E-11,-2.808314E-06,-1.110176E-07,1.46879E-08,-2.622604E-08
689.5451,-0.9615742,-3.556757E-09,NaN,-0.6125821,-1.32963E-07,NaN,0.3226529,-4.185439E-07,NaN,-1.059692,1.985972E-05,-0.2806706,7.284132E-08,NaN,NaN,-0.5248255,-4.656669E-11,-2.873283E-06,-1.110197E-07,1.647604E-08,-2.861022E-08
689.5601,-0.9754199,-3.556032E-09,NaN,-0.6130212,-1.32964E-07,NaN,0.3311691,-4.186874E-07,NaN,-1.062786,1.986017E-05,-0.2920828,7.298618E-08,NaN,NaN,-0.5253938,-4.191008E-11,-2.950769E-06,-1.110217E-07,1.230372E-08,-2.622604E-08
689.5747,-0.9754199,-3.556032E-09,NaN,-0.6130212,-1.32964E-07,NaN,0.3311691,-4.186874E-07,NaN,-1.062786,1.986017E-05,-0.2920828,7.298618E-08,NaN,NaN,-0.5253938,-4.191008E-11,-2.950769E-06,-1.110217E-07,1.230372E-08,-2.622604E-08
689.5889,-0.989351,-3.555308E-09,NaN,-0.6134622,-1.32965E-07,NaN,0.3395567,-4.188279E-07,NaN,-1.065948,1.986063E-05,-0.3032772,7.312813E-08,NaN,NaN,-0.5259509,-4.656669E-11,-3.025275E-06,-1.110237E-07,5.747204E-09,-2.861022E-08
689.604,-1.003271,-3.554584E-09,NaN,-0.6139014,-1.329661E-07,NaN,0.347773,-4.189684E-07,NaN,-1.069163,1.986108E-05,-0.3142601,7.327004E-08,NaN,NaN,-0.5264971,-4.191008E-11,-3.096205E-06,-1.110258E-07,9.78833E-10,-2.622604E-08
689.6202,-1.01712,-3.553859E-09,NaN,-0.6143372,-1.329671E-07,NaN,0.3558065,-4.191088E-07,NaN,-1.072418,1.986154E-05,-0.325037,7.341193E-08,NaN,NaN,-0.5270327,-4.656669E-11,-3.164154E-06,-1.110278E-07,6.939297E-09,-2.861022E-08
689.6335,-1.01712,-3.553859E-09,NaN,-0.6143372,-1.329671E-07,NaN,0.3558065,-4.191088E-07,NaN,-1.072418,1.986154E-05,-0.325037,7.341193E-08,NaN,NaN,-0.5270327,-4.656669E-11,-3.164154E-06,-1.110278E-07,6.939297E-09,-2.861022E-08
689.6475,-1.03121,-3.553134E-09,NaN,-0.614783,-1.329681E-07,NaN,0.3643159,-4.192493E-07,NaN,-1.075669,1.986199E-05,-0.3365631,7.355378E-08,NaN,NaN,-0.5276039,-3.725346E-11,-3.245216E-06,-1.110298E-07,9.323482E-09,-2.622604E-08
689.6628,-1.045381,-3.552409E-09,NaN,-0.6152306,-1.329691E-07,NaN,0.372696,-4.193897E-07,NaN,-1.078987,1.986245E-05,-0.3478654,7.36956E-08,NaN,NaN,-0.5281637,-4.191008E-11,-3.317338E-06,-1.110318E-07,3.363018E-09,-2.861022E-08
689.6774,-1.045381,-3.552409E-09,NaN,-0.6152306,-1.329691E-07,NaN,0.372696,-4.193897E-07,NaN,-1.078987,1.986245E-05,-0.3478654,7.36956E-08,NaN,NaN,-0.5281637,-4.191008E-11,-3.317338E-06,-1.110318E-07,3.363018E-09,-2.861022E-08
689.6934,-1.059537,-3.551684E-09,NaN,-0.6156763,-1.329701E-07,NaN,0.3809049,-4.1953E-07,NaN,-1.082358,1.98629E-05,-0.3589511,7.38374E-08,NaN,NaN,-0.5287126,-3.725346E-11,-3.387969E-06,-1.110338E-07,-1.405353E-09,-2.622604E-08
689.7078,-1.073967,-3.550959E-09,NaN,-0.6161324,-1.329712E-07,NaN,0.3895888,-4.196704E-07,NaN,-1.085742,1.986336E-05,-0.3707853,7.397917E-08,NaN,NaN,-0.5292969,-4.191008E-11,-3.471714E-06,-1.110358E-07,-6.173725E-09,-2.861022E-08
689.7214,-1.088496,-3.550234E-09,NaN,-0.6165902,-1.329722E-07,NaN,0.3981382,-4.198107E-07,NaN,-1.089202,1.986381E-05,-0.3823858,7.41209E-08,NaN,NaN,-0.5298696,-3.259685E-11,-3.548008E-06,-1.110378E-07,-1.213419E-08,-2.622604E-08
689.7358,-1.088496,-3.550234E-09,NaN,-0.6165902,-1.329722E-07,NaN,0.3981382,-4.198107E-07,NaN,-1.089202,1.986381E-05,-0.3823858,7.41209E-08,NaN,NaN,-0.5298696,-3.259685E-11,-3.548008E-06,-1.110378E-07,-1.213419E-08,-2.622604E-08
689.75,-1.103021,-3.549509E-09,NaN,-0.6170459,-1.329732E-07,NaN,0.4065107,-4.199482E-07,NaN,-1.092721,1.986426E-05,-0.3937612,7.425979E-08,NaN,NaN,-0.530431,-2.794024E-11,-3.6246E-06,-1.110398E-07,-1.213419E-08,-2.861022E-08
689.7653,-1.117477,-3.548783E-09,NaN,-0.6174981,-1.329742E-07,NaN,0.4146953,-4.200857E-07,NaN,-1.096283,1.986471E-05,-0.4049183,7.439871E-08,NaN,NaN,-0.5309816,-2.328363E-11,-3.697317E-06,-1.110418E-07,-1.809465E-08,-2.622604E-08
689.7819,-1.120412,-3.548058E-09,NaN,-0.6174948,-1.329752E-07,NaN,0.4010318,-4.202232E-07,NaN,-1.100527,1.986517E-05,-0.3838512,7.453766E-08,NaN,NaN,-0.530001,-3.259685E-11,-3.255349E-06,-1.110437E-07,-1.571047E-08,-2.861022E-08
689.7944,-1.120412,-3.548058E-09,NaN,-0.6174948,-1.329752E-07,NaN,0.4010318,-4.202232E-07,NaN,-1.100527,1.986517E-05,-0.3838512,7.453766E-08,NaN,NaN,-0.530001,-3.259685E-11,-3.255349E-06,-1.110437E-07,-1.571047E-08,-2.861022E-08
689.8086,-1.116291,-3.547332E-09,NaN,-0.6172693,-1.329762E-07,NaN,0.3855721,-4.203608E-07,NaN,-1.103415,1.986563E-05,-0.3638161,7.467663E-08,NaN,NaN,-0.5290451,-2.794024E-11,-2.898615E-06,-1.110457E-07,-1.213419E-08,-2.622604E-08
689.824,-1.10787,-3.546607E-09,NaN,-0.6169162,-1.329771E-07,NaN,0.3698046,-4.204984E-07,NaN,-1.10501,1.986609E-05,-0.3446358,7.481564E-08,NaN,NaN,-0.5281106,-3.259685E-11,-2.615493E-06,-1.110476E-07,-7.365817E-09,-2.861022E-08
689.8387,-1.10787,-3.546607E-09,NaN,-0.6169162,-1.329771E-07,NaN,0.3698046,-4.204984E-07,NaN,-1.10501,1.986609E-05,-0.3446358,7.481564E-08,NaN,NaN,-0.5281106,-3.259685E-11,-2.615493E-06,-1.110476E-07,-7.365817E-09,-2.861022E-08
689.8528,-1.097207,-3.545881E-09,NaN,-0.6165012,-1.329781E-07,NaN,0.3549269,-4.20636E-07,NaN,-1.105537,1.986654E-05,-0.3271038,7.495467E-08,NaN,NaN,-0.5272418,-2.794024E-11,-2.393466E-06,-1.110496E-07,-7.365817E-09,-2.622604E-08
689.8682,-1.085222,-3.545155E-09,NaN,-0.6160493,-1.329791E-07,NaN,0.3405274,-4.207736E-07,NaN,-1.105331,1.9867E-05,-0.310108,7.509372E-08,NaN,NaN,-0.5263904,-3.259685E-11,-2.203923E-06,-1.110515E-07,-9.750003E-09,-2.861022E-08
689.8828,-1.072486,-3.544429E-09,NaN,-0.6155761,-1.329801E-07,NaN,0.3265761,-4.209085E-07,NaN,-1.104619,1.986744E-05,-0.2935788,7.522998E-08,NaN,NaN,-0.5255559,-2.328362E-11,-2.034646E-06,-1.110535E-07,-8.557911E-09,-2.622604E-08
689.8975,-1.072486,-3.544429E-09,NaN,-0.6155761,-1.329801E-07,NaN,0.3265761,-4.209085E-07,NaN,-1.104619,1.986744E-05,-0.2935788,7.522998E-08,NaN,NaN,-0.5255559,-2.328362E-11,-2.034646E-06,-1.110535E-07,-8.557911E-09,-2.622604E-08
689.9114,-1.05935,-3.543703E-09,NaN,-0.6150914,-1.329811E-07,NaN,0.3130264,-4.210434E-07,NaN,-1.103569,1.98679E-05,-0.2774697,7.536631E-08,NaN,NaN,-0.524738,-2.794024E-11,-1.882058E-06,-1.110554E-07,-1.213419E-08,-2.861022E-08
689.9271,-1.046377,-3.542977E-09,NaN,-0.6146155,-1.329821E-07,NaN,0.3004725,-4.211784E-07,NaN,-1.102263,1.986834E-05,-0.2626866,7.550273E-08,NaN,NaN,-0.5239822,-1.39704E-11,-1.7551E-06,-1.110573E-07,-8.557911E-09,-2.622604E-08
689.9416,-1.033562,-3.542251E-09,NaN,-0.6141475,-1.32983E-07,NaN,0.2883117,-4.213135E-07,NaN,-1.100854,1.986879E-05,-0.248229,7.563922E-08,NaN,NaN,-0.5232412,-9.313786E-12,-1.628738E-06,-1.110592E-07,-1.09421E-08,-2.861022E-08
689.956,-1.033562,-3.542251E-09,NaN,-0.6141475,-1.32983E-07,NaN,0.2883117,-4.213135E-07,NaN,-1.100854,1.986879E-05,-0.248229,7.563922E-08,NaN,NaN,-0.5232412,-9.313786E-12,-1.628738E-06,-1.110592E-07,-1.09421E-08,-2.861022E-08
689.972,-1.020904,-3.541525E-09,NaN,-0.6136869,-1.32984E-07,NaN,0.2764623,-4.214486E-07,NaN,-1.099393,1.986923E-05,-0.2340882,7.577579E-08,NaN,NaN,-0.5225146,-5.603157E-16,-1.507145E-06,-1.110611E-07,-9.750004E-09,-2.622604E-08
689.9866,-1.008399,-3.540799E-09,NaN,-0.6132333,-1.32985E-07,NaN,0.2648834,-4.215838E-07,NaN,-1.097905,1.986967E-05,-0.220256,7.591245E-08,NaN,NaN,-0.5218024,-5.603157E-16,-1.394492E-06,-1.11063E-07,9.788312E-10,-2.861022E-08
690.0002,-0.9963915,-3.540073E-09,NaN,-0.6128002,-1.329859E-07,NaN,0.2541862,-4.217192E-07,NaN,-1.096363,1.987011E-05,-0.2076475,7.604919E-08,NaN,NaN,-0.5211502,9.312665E-12,-1.300317E-06,-1.110649E-07,-2.597447E-09,-2.622604E-08
690.0149,-0.9963915,-3.540073E-09,NaN,-0.6128002,-1.329859E-07,NaN,0.2541862,-4.217192E-07,NaN,-1.096363,1.987011E-05,-0.2076475,7.604919E-08,NaN,NaN,-0.5211502,9.312665E-12,-1.300317E-06,-1.110649E-07,-2.597447E-09,-2.622604E-08
690.0286,-0.9847423,-3.539347E-09,NaN,-0.6123822,-1.329869E-07,NaN,0.2437959,-4.218517E-07,NaN,-1.094856,1.987056E-05,-0.1952958,7.618318E-08,NaN,NaN,-0.5205107,9.312665E-12,-1.207334E-06,-1.110668E-07,-2.132616E-10,-2.861022E-08
690.0439,-0.9733658,-3.538621E-09,NaN,-0.6119759,-1.329879E-07,NaN,0.233647,-4.219844E-07,NaN,-1.093385,1.9871E-05,-0.1832014,7.631729E-08,NaN,NaN,-0.5198837,1.862589E-11,-1.114946E-06,-1.110687E-07,2.170924E-09,-2.622604E-08
690.0586,-0.9733658,-3.538621E-09,NaN,-0.6119759,-1.329879E-07,NaN,0.233647,-4.219844E-07,NaN,-1.093385,1.9871E-05,-0.1832014,7.631729E-08,NaN,NaN,-0.5198837,1.862589E-11,-1.114946E-06,-1.110687E-07,2.170924E-09,-2.622604E-08
690.0731,-0.9625534,-3.537895E-09,NaN,-0.6115928,-1.329888E-07,NaN,0.2243414,-4.221172E-07,NaN,-1.091901,1.987144E-05,-0.1722746,7.645153E-08,NaN,NaN,-0.5193149,1.862589E-11,-1.039845E-06,-1.110706E-07,-3.78954E-09,-2.861022E-08
690.0896,-0.9521352,-3.537168E-09,NaN,-0.6112261,-1.329898E-07,NaN,0.2153074,-4.222502E-07,NaN,-1.090481,1.987188E-05,-0.1615643,7.65859E-08,NaN,NaN,-0.5187572,2.793912E-11,-9.641466E-07,-1.110724E-07,-6.173726E-09,-2.622604E-08
690.1028,-0.9420059,-3.536442E-09,NaN,-0.6108716,-1.329907E-07,NaN,0.2064806,-4.223833E-07,NaN,-1.089116,1.987233E-05,-0.1510727,7.672038E-08,NaN,NaN,-0.5182104,2.793912E-11,-8.890447E-07,-1.110743E-07,-7.365819E-09,-2.861022E-08
690.118,-0.9420059,-3.536442E-09,NaN,-0.6108716,-1.329907E-07,NaN,0.2064806,-4.223833E-07,NaN,-1.089116,1.987233E-05,-0.1510727,7.672038E-08,NaN,NaN,-0.5182104,2.793912E-11,-8.890447E-07,-1.110743E-07,-7.365819E-09,-2.861022E-08
690.1316,-0.9320997,-3.535716E-09,NaN,-0.6105266,-1.329917E-07,NaN,0.1978348,-4.225165E-07,NaN,-1.087793,1.987277E-05,-0.1407988,7.685498E-08,NaN,NaN,-0.5176743,3.725234E-11,-8.169231E-07,-1.110761E-07,-1.09421E-08,-2.622604E-08
690.1475,-0.9227204,-3.534989E-09,NaN,-0.610203,-1.329926E-07,NaN,0.1899872,-4.226469E-07,NaN,-1.086453,1.987322E-05,-0.1316409,7.698687E-08,NaN,NaN,-0.5171947,3.725234E-11,-7.597026E-07,-1.11078E-07,-1.213419E-08,-2.861022E-08
690.1617,-0.9137062,-3.534263E-09,NaN,-0.6098945,-1.329936E-07,NaN,0.1823775,-4.227776E-07,NaN,-1.085175,1.987365E-05,-0.1226624,7.711893E-08,NaN,NaN,-0.5167243,4.656556E-11,-7.00098E-07,-1.110798E-07,-1.153814E-08,-2.622604E-08
690.1765,-0.9137062,-3.534263E-09,NaN,-0.6098945,-1.329936E-07,NaN,0.1823775,-4.227776E-07,NaN,-1.085175,1.987365E-05,-0.1226624,7.711893E-08,NaN,NaN,-0.5167243,4.656556E-11,-7.00098E-07,-1.110798E-07,-1.153814E-08,-2.622604E-08
690.1904,-0.9049567,-3.533537E-09,NaN,-0.6095968,-1.329945E-07,NaN,0.1749446,-4.229084E-07,NaN,-1.08395,1.98741E-05,-0.1138653,7.725116E-08,NaN,NaN,-0.5162632,4.656556E-11,-6.387052E-07,-1.110817E-07,-1.034605E-08,-2.861022E-08
690.2061,-0.8964092,-3.53281E-09,NaN,-0.6093075,-1.329955E-07,NaN,0.1676636,-4.230394E-07,NaN,-1.082766,1.987454E-05,-0.1052488,7.738355E-08,NaN,NaN,-0.5158111,5.587879E-11,-5.796966E-07,-1.110835E-07,-2.597448E-09,-2.622604E-08
690.2205,-0.8883694,-3.532084E-09,NaN,-0.6090385,-1.329964E-07,NaN,0.1611512,-4.231705E-07,NaN,-1.081561,1.987499E-05,-0.09770196,7.751609E-08,NaN,NaN,-0.5154138,5.587879E-11,-5.373773E-07,-1.110853E-07,9.78831E-10,-2.861022E-08
690.2365,-0.8883694,-3.532084E-09,NaN,-0.6090385,-1.329964E-07,NaN,0.1611512,-4.231705E-07,NaN,-1.081561,1.987499E-05,-0.09770196,7.751609E-08,NaN,NaN,-0.5154138,5.587879E-11,-5.373773E-07,-1.110853E-07,9.78831E-10,-2.861022E-08
690.2506,-0.8806769,-3.531358E-09,NaN,-0.6087837,-1.329973E-07,NaN,0.1548501,-4.23299E-07,NaN,-1.080418,1.987543E-05,-0.09030082,7.764597E-08,NaN,NaN,-0.5150241,6.519201E-11,-4.914817E-07,-1.110871E-07,2.76697E-09,-2.622604E-08
690.2645,-0.8732322,-3.530632E-09,NaN,-0.6085388,-1.329983E-07,NaN,0.1486992,-4.234277E-07,NaN,-1.079328,1.987588E-05,-0.08304751,7.777606E-08,NaN,NaN,-0.5146421,6.05354E-11,-4.479703E-07,-1.11089E-07,6.343249E-09,-2.861022E-08
690.2794,-0.8732322,-3.530632E-09,NaN,-0.6085388,-1.329983E-07,NaN,0.1486992,-4.234277E-07,NaN,-1.079328,1.987588E-05,-0.08304751,7.777606E-08,NaN,NaN,-0.5146421,6.05354E-11,-4.479703E-07,-1.11089E-07,6.343249E-09,-2.861022E-08
690.293,-0.8663179,-3.529905E-09,NaN,-0.6083151,-1.329992E-07,NaN,0.1432997,-4.235565E-07,NaN,-1.07823,1.987632E-05,-0.07682688,7.790634E-08,NaN,NaN,-0.5143135,6.984862E-11,-4.18168E-07,-1.110908E-07,5.747202E-09,-2.622604E-08
690.3085,-0.85976,-3.529179E-09,NaN,-0.6081056,-1.330001E-07,NaN,0.1380899,-4.236856E-07,NaN,-1.077204,1.987676E-05,-0.07072385,7.803683E-08,NaN,NaN,-0.5139911,6.984862E-11,-3.841934E-07,-1.110926E-07,5.151156E-09,-2.861022E-08
690.3231,-0.8534502,-3.528452E-09,NaN,-0.6079059,-1.330011E-07,NaN,0.1330072,-4.23812E-07,NaN,-1.07624,1.98772E-05,-0.06474109,7.816468E-08,NaN,NaN,-0.5136751,7.916184E-11,-3.478345E-07,-1.110943E-07,1.051557E-08,-2.622604E-08
690.3378,-0.8534502,-3.528452E-09,NaN,-0.6079059,-1.330011E-07,NaN,0.1330072,-4.23812E-07,NaN,-1.07624,1.98772E-05,-0.06474109,7.816468E-08,NaN,NaN,-0.5136751,7.916184E-11,-3.478345E-07,-1.110943E-07,1.051557E-08,-2.622604E-08
690.3518,-0.8473212,-3.527726E-09,NaN,-0.6077133,-1.33002E-07,NaN,0.1280274,-4.239387E-07,NaN,-1.075322,1.987765E-05,-0.05887853,7.829279E-08,NaN,NaN,-0.5133653,7.916184E-11,-3.144559E-07,-1.110961E-07,8.727435E-09,-2.861022E-08
690.3674,-0.8416756,-3.526999E-09,NaN,-0.6075398,-1.330029E-07,NaN,0.1237662,-4.240657E-07,NaN,-1.074384,1.987809E-05,-0.05401341,7.842113E-08,NaN,NaN,-0.5131074,8.847507E-11,-2.918061E-07,-1.110979E-07,1.409185E-08,-2.622604E-08
690.3823,-0.8363518,-3.526273E-09,NaN,-0.6073789,-1.330038E-07,NaN,0.1196698,-4.241928E-07,NaN,-1.073513,1.987853E-05,-0.0492391,7.854972E-08,NaN,NaN,-0.5128544,8.847507E-11,-2.673683E-07,-1.110997E-07,6.939296E-09,-2.861022E-08
690.3965,-0.8363518,-3.526273E-09,NaN,-0.6073789,-1.330038E-07,NaN,0.1196698,-4.241928E-07,NaN,-1.073513,1.987853E-05,-0.0492391,7.854972E-08,NaN,NaN,-0.5128544,8.847507E-11,-2.673683E-07,-1.110997E-07,6.939296E-09,-2.861022E-08
690.4105,-0.8312494,-3.525546E-09,NaN,-0.6072266,-1.330047E-07,NaN,0.1156781,-4.243203E-07,NaN,-1.072699,1.987897E-05,-0.04455801,7.867854E-08,NaN,NaN,-0.5126064,9.778829E-11,-2.411422E-07,-1.111015E-07,7.535342E-09,-2.622604E-08
690.4259,-0.826306,-3.52482E-09,NaN,-0.6070802,-1.330056E-07,NaN,0.1117677,-4.244451E-07,NaN,-1.071927,1.987942E-05,-0.0399702,7.880477E-08,NaN,NaN,-0.5123633,9.778829E-11,-2.167043E-07,-1.111032E-07,8.131389E-09,-2.861022E-08
690.4406,-0.8218271,-3.524093E-09,NaN,-0.6069521,-1.330065E-07,NaN,0.1085544,-4.245701E-07,NaN,-1.071134,1.987986E-05,-0.03634783,7.893127E-08,NaN,NaN,-0.5121707,1.071015E-10,-2.041873E-07,-1.11105E-07,7.535342E-09,-2.622604E-08
690.4552,-0.8218271,-3.524093E-09,NaN,-0.6069521,-1.330065E-07,NaN,0.1085544,-4.245701E-07,NaN,-1.071134,1.987986E-05,-0.03634783,7.893127E-08,NaN,NaN,-0.5121707,1.071015E-10,-2.041873E-07,-1.11105E-07,7.535342E-09,-2.622604E-08
690.4694,-0.8176532,-3.523367E-09,NaN,-0.6068356,-1.330074E-07,NaN,0.1054852,-4.246955E-07,NaN,-1.070406,1.988031E-05,-0.03279155,7.905805E-08,NaN,NaN,-0.5119819,1.071015E-10,-1.87498E-07,-1.111067E-07,8.131389E-09,-2.861022E-08
690.4845,-0.8136853,-3.52264E-09,NaN,-0.6067269,-1.330083E-07,NaN,0.1025004,-4.248211E-07,NaN,-1.069735,1.988075E-05,-0.0293039,7.91851E-08,NaN,NaN,-0.5117967,1.071015E-10,-1.708087E-07,-1.111085E-07,2.766971E-09,-2.622604E-08
690.5012,-0.8098617,-3.521914E-09,NaN,-0.6066235,-1.330092E-07,NaN,0.0995767,-4.249442E-07,NaN,-1.069107,1.98812E-05,-0.02588516,7.930959E-08,NaN,NaN,-0.5116152,1.024449E-10,-1.529273E-07,-1.111102E-07,2.766971E-09,-2.861022E-08
690.5149,-0.8098617,-3.521914E-09,NaN,-0.6066235,-1.330092E-07,NaN,0.0995767,-4.249442E-07,NaN,-1.069107,1.98812E-05,-0.02588516,7.930959E-08,NaN,NaN,-0.5116152,1.024449E-10,-1.529273E-07,-1.111102E-07,2.766971E-09,-2.861022E-08
690.5286,-0.8064885,-3.521187E-09,NaN,-0.6065375,-1.330101E-07,NaN,0.09732983,-4.250676E-07,NaN,-1.068457,1.988164E-05,-0.02340378,7.943438E-08,NaN,NaN,-0.511483,1.117581E-10,-1.493511E-07,-1.111119E-07,3.363017E-09,-2.622604E-08
690.5428,-0.8034067,-3.52046E-09,NaN,-0.6064626,-1.33011E-07,NaN,0.09520748,-4.251913E-07,NaN,-1.067873,1.988209E-05,-0.02096617,7.955948E-08,NaN,NaN,-0.5113534,1.117581E-10,-1.404104E-07,-1.111137E-07,4.55511E-09,-2.861022E-08
690.5576,-0.8034067,-3.52046E-09,NaN,-0.6064626,-1.33011E-07,NaN,0.09520748,-4.251913E-07,NaN,-1.067873,1.988209E-05,-0.02096617,7.955948E-08,NaN,NaN,-0.5113534,1.117581E-10,-1.404104E-07,-1.111137E-07,4.55511E-09,-2.861022E-08
690.575,-0.8005176,-3.519733E-09,NaN,-0.6063948,-1.330119E-07,NaN,0.09315018,-4.253153E-07,NaN,-1.067347,1.988253E-05,-0.01857493,7.968489E-08,NaN,NaN,-0.5112262,1.210713E-10,-1.320657E-07,-1.111154E-07,4.55511E-09,-2.622604E-08
690.5884,-0.7981042,-3.519007E-09,NaN,-0.6063453,-1.330128E-07,NaN,0.09175863,-4.254396E-07,NaN,-1.066812,1.988298E-05,-0.01709768,7.981059E-08,NaN,NaN,-0.5111474,1.210713E-10,-1.350459E-07,-1.111171E-07,6.343249E-09,-2.861022E-08
690.6017,-0.7959933,-3.51828E-09,NaN,-0.6063071,-1.330137E-07,NaN,0.09047481,-4.255613E-07,NaN,-1.066354,1.988342E-05,-0.01564452,7.993376E-08,NaN,NaN,-0.5110701,1.210713E-10,-1.332578E-07,-1.111188E-07,1.111162E-08,-2.622604E-08
690.6165,-0.7959933,-3.51828E-09,NaN,-0.6063071,-1.330137E-07,NaN,0.09047481,-4.255613E-07,NaN,-1.066354,1.988342E-05,-0.01564452,7.993376E-08,NaN,NaN,-0.5110701,1.210713E-10,-1.332578E-07,-1.111188E-07,1.111162E-08,-2.622604E-08
690.6305,-0.7940777,-3.517553E-09,NaN,-0.6062759,-1.330146E-07,NaN,0.0892377,-4.256834E-07,NaN,-1.065962,1.988388E-05,-0.01421836,8.005726E-08,NaN,NaN,-0.5109943,1.164147E-10,-1.290855E-07,-1.111205E-07,1.230371E-08,-2.861022E-08
690.6459,-0.7922905,-3.516826E-09,NaN,-0.6062491,-1.330155E-07,NaN,0.08802459,-4.258059E-07,NaN,-1.065619,1.988431E-05,-0.01281996,8.01811E-08,NaN,NaN,-0.5109199,1.25728E-10,-1.249131E-07,-1.111222E-07,8.131389E-09,-2.622604E-08
690.6608,-0.7909346,-3.5161E-09,NaN,-0.6062388,-1.330163E-07,NaN,0.08745221,-4.259286E-07,NaN,-1.065257,1.988476E-05,-0.01231467,8.030527E-08,NaN,NaN,-0.5108929,1.210713E-10,-1.326617E-07,-1.111239E-07,9.919528E-09,-2.861022E-08
690.6751,-0.7909346,-3.5161E-09,NaN,-0.6062388,-1.330163E-07,NaN,0.08745221,-4.259286E-07,NaN,-1.065257,1.988476E-05,-0.01231467,8.030527E-08,NaN,NaN,-0.5108929,1.210713E-10,-1.326617E-07,-1.111239E-07,9.919528E-09,-2.861022E-08
690.6894,-0.7898494,-3.515373E-09,NaN,-0.6062385,-1.330172E-07,NaN,0.08696865,-4.260489E-07,NaN,-1.064965,1.988521E-05,-0.01181501,8.042693E-08,NaN,NaN,-0.5108663,1.210713E-10,-1.374301E-07,-1.111256E-07,1.111162E-08,-2.622604E-08
690.7047,-0.7889353,-3.514646E-09,NaN,-0.6062433,-1.33018E-07,NaN,0.08651561,-4.228244E-07,NaN,-1.064734,1.988565E-05,-0.01132385,7.734858E-08,NaN,NaN,-0.5108402,1.303846E-10,-1.36238E-07,-1.111285E-07,6.939296E-09,-2.622604E-08
690.7195,-0.7889353,-3.514646E-09,NaN,-0.6062433,-1.33018E-07,NaN,0.08651561,-4.228244E-07,NaN,-1.064734,1.988565E-05,-0.01132385,7.734858E-08,NaN,NaN,-0.5108402,1.303846E-10,-1.36238E-07,-1.111285E-07,6.939296E-09,-2.622604E-08
690.7336,-0.7884746,-3.51392E-09,NaN,-0.6062647,-1.330192E-07,NaN,0.08669518,-4.226289E-07,NaN,-1.064495,1.988611E-05,-0.01170714,7.727029E-08,NaN,NaN,-0.5108604,1.303846E-10,-1.511392E-07,-1.111306E-07,1.230371E-08,-2.861022E-08
690.7489,-0.7882941,-3.513194E-09,NaN,-0.606296,-1.330203E-07,NaN,0.0869491,-4.225285E-07,NaN,-1.064335,1.988656E-05,-0.01207902,7.726396E-08,NaN,NaN,-0.5108802,1.303846E-10,-1.61868E-07,-1.111324E-07,1.230371E-08,-2.622604E-08
690.7632,-0.7882864,-3.512468E-09,NaN,-0.606333,-1.330213E-07,NaN,0.08721747,-4.224806E-07,NaN,-1.064242,1.988702E-05,-0.01244263,7.729153E-08,NaN,NaN,-0.5108995,1.303846E-10,-1.678285E-07,-1.111341E-07,9.323482E-09,-2.861022E-08
690.7803,-0.7883836,-3.511742E-09,NaN,-0.6063731,-1.330222E-07,NaN,0.08747814,-4.224637E-07,NaN,-1.0642,1.988747E-05,-0.01279922,7.73354E-08,NaN,NaN,-0.5109184,1.396978E-10,-1.737889E-07,-1.111358E-07,9.919528E-09,-2.622604E-08
690.7936,-0.7883836,-3.511742E-09,NaN,-0.6063731,-1.330222E-07,NaN,0.08747814,-4.224637E-07,NaN,-1.0642,1.988747E-05,-0.01279922,7.73354E-08,NaN,NaN,-0.5109184,1.396978E-10,-1.737889E-07,-1.111358E-07,9.919528E-09,-2.622604E-08
690.8079,-0.7888891,-3.511016E-09,NaN,-0.6064286,-1.330231E-07,NaN,0.08834962,-4.224691E-07,NaN,-1.064139,1.988793E-05,-0.01401459,7.738961E-08,NaN,NaN,-0.5109829,1.396978E-10,-1.886901E-07,-1.111375E-07,8.727436E-09,-2.861022E-08
690.8219,-0.7896428,-3.51029E-09,NaN,-0.6064928,-1.33024E-07,NaN,0.08927912,-4.224913E-07,NaN,-1.06415,1.988837E-05,-0.01520285,7.745115E-08,NaN,NaN,-0.5110459,1.49011E-10,-2.035913E-07,-1.111391E-07,9.323482E-09,-2.622604E-08
690.8367,-0.7896428,-3.51029E-09,NaN,-0.6064928,-1.33024E-07,NaN,0.08927912,-4.224913E-07,NaN,-1.06415,1.988837E-05,-0.01520285,7.745115E-08,NaN,NaN,-0.5110459,1.49011E-10,-2.035913E-07,-1.111391E-07,9.323482E-09,-2.622604E-08
690.8508,-0.7905451,-3.509564E-09,NaN,-0.6065617,-1.330249E-07,NaN,0.09020943,-4.225254E-07,NaN,-1.064222,1.988882E-05,-0.01636722,7.751704E-08,NaN,NaN,-0.5111077,1.536676E-10,-2.143201E-07,-1.111407E-07,1.111162E-08,-2.861022E-08
690.866,-0.7915345,-3.508838E-09,NaN,-0.6066329,-1.330258E-07,NaN,0.09111974,-4.225671E-07,NaN,-1.064339,1.988928E-05,-0.01750913,7.758438E-08,NaN,NaN,-0.5111684,1.583243E-10,-2.238568E-07,-1.111424E-07,8.13139E-09,-2.622604E-08
690.8807,-0.7929171,-3.508112E-09,NaN,-0.6067188,-1.330266E-07,NaN,0.09262903,-4.22615E-07,NaN,-1.064436,1.988973E-05,-0.01949601,7.765314E-08,NaN,NaN,-0.5112736,1.583243E-10,-2.494868E-07,-1.11144E-07,1.051558E-08,-2.861022E-08
690.8951,-0.7929171,-3.508112E-09,NaN,-0.6067188,-1.330266E-07,NaN,0.09262903,-4.22615E-07,NaN,-1.064436,1.988973E-05,-0.01949601,7.765314E-08,NaN,NaN,-0.5112736,1.583243E-10,-2.494868E-07,-1.11144E-07,1.051558E-08,-2.861022E-08
690.9095,-0.7945344,-3.507385E-09,NaN,-0.6068127,-1.330275E-07,NaN,0.09418331,-4.226682E-07,NaN,-1.064602,1.989019E-05,-0.0214411,7.772329E-08,NaN,NaN,-0.5113767,1.583243E-10,-2.661762E-07,-1.111456E-07,7.535344E-09,-2.622604E-08
690.9248,-0.7962883,-3.506659E-09,NaN,-0.6069104,-1.330283E-07,NaN,0.0957257,-4.227258E-07,NaN,-1.064828,1.989065E-05,-0.02334785,7.779479E-08,NaN,NaN,-0.5114778,1.583243E-10,-2.828655E-07,-1.111472E-07,7.535344E-09,-2.861022E-08
690.9395,-0.7962883,-3.506659E-09,NaN,-0.6069104,-1.330283E-07,NaN,0.0957257,-4.227258E-07,NaN,-1.064828,1.989065E-05,-0.02334785,7.779479E-08,NaN,NaN,-0.5114778,1.583243E-10,-2.828655E-07,-1.111472E-07,7.535344E-09,-2.861022E-08
690.9537,-0.7984623,-3.505933E-09,NaN,-0.6070236,-1.330292E-07,NaN,0.09786078,-4.227873E-07,NaN,-1.065046,1.989111E-05,-0.0260863,7.786764E-08,NaN,NaN,-0.5116227,1.536676E-10,-3.114757E-07,-1.111488E-07,5.747204E-09,-2.622604E-08
690.9689,-0.8008839,-3.505206E-09,NaN,-0.6071448,-1.3303E-07,NaN,0.1000279,-4.228521E-07,NaN,-1.065344,1.989156E-05,-0.02876871,7.794179E-08,NaN,NaN,-0.5117646,1.536676E-10,-3.341255E-07,-1.111504E-07,6.939297E-09,-2.861022E-08
690.9836,-0.8034461,-3.504479E-09,NaN,-0.6072698,-1.330309E-07,NaN,0.1021689,-4.229169E-07,NaN,-1.065709,1.989202E-05,-0.03139887,7.80144E-08,NaN,NaN,-0.5119038,1.536676E-10,-3.53795E-07,-1.11152E-07,5.151158E-09,-2.622604E-08
690.9984,-0.8034461,-3.504479E-09,NaN,-0.6072698,-1.330309E-07,NaN,0.1021689,-4.229169E-07,NaN,-1.065709,1.989202E-05,-0.03139887,7.80144E-08,NaN,NaN,-0.5119038,1.536676E-10,-3.53795E-07,-1.11152E-07,5.151158E-09,-2.622604E-08
691.0121,-0.8060828,-3.503753E-09,NaN,-0.6073962,-1.330317E-07,NaN,0.1042634,-4.229843E-07,NaN,-1.066123,1.989248E-05,-0.03397882,7.808833E-08,NaN,NaN,-0.5120403,1.536676E-10,-3.692922E-07,-1.111536E-07,1.051558E-08,-2.861022E-08
691.0276,-0.8090977,-3.503026E-09,NaN,-0.6075363,-1.330326E-07,NaN,0.1069322,-4.23054E-07,NaN,-1.066519,1.989294E-05,-0.03738111,7.816354E-08,NaN,NaN,-0.5122198,1.49011E-10,-3.979024E-07,-1.111551E-07,4.555112E-09,-2.622604E-08
691.0443,-0.8123305,-3.502299E-09,NaN,-0.6076832,-1.330334E-07,NaN,0.1096197,-4.23123E-07,NaN,-1.066988,1.989339E-05,-0.04071478,7.823719E-08,NaN,NaN,-0.5123959,1.49011E-10,-4.223403E-07,-1.111567E-07,6.343251E-09,-2.861022E-08
691.0582,-0.8123305,-3.502299E-09,NaN,-0.6076832,-1.330334E-07,NaN,0.1096197,-4.23123E-07,NaN,-1.066988,1.989339E-05,-0.04071478,7.823719E-08,NaN,NaN,-0.5123959,1.49011E-10,-4.223403E-07,-1.111567E-07,6.343251E-09,-2.861022E-08
691.072,-0.8156822,-3.501571E-09,NaN,-0.6078331,-1.330342E-07,NaN,0.1122703,-4.233223E-07,NaN,-1.067516,1.989384E-05,-0.04398383,7.844046E-08,NaN,NaN,-0.5125684,1.49011E-10,-4.44394E-07,-1.111583E-07,1.409185E-08,-2.622604E-08
691.0865,-0.8190913,-3.500842E-09,NaN,-0.6079836,-1.33035E-07,NaN,0.1148646,-4.23518E-07,NaN,-1.06809,1.98943E-05,-0.04719057,7.863969E-08,NaN,NaN,-0.5127375,1.443544E-10,-4.658517E-07,-1.111598E-07,1.46879E-08,-2.861022E-08
691.1013,-0.8228646,-3.500114E-09,NaN,-0.6081474,-1.330359E-07,NaN,0.1180244,-4.23713E-07,NaN,-1.068644,1.989474E-05,-0.05121153,7.883776E-08,NaN,NaN,-0.5129491,1.536677E-10,-5.010185E-07,-1.111614E-07,1.528395E-08,-2.622604E-08
691.1158,-0.8228646,-3.500114E-09,NaN,-0.6081474,-1.330359E-07,NaN,0.1180244,-4.23713E-07,NaN,-1.068644,1.989474E-05,-0.05121153,7.883776E-08,NaN,NaN,-0.5129491,1.536677E-10,-5.010185E-07,-1.111614E-07,1.528395E-08,-2.622604E-08
691.1297,-0.8268439,-3.499385E-09,NaN,-0.6083175,-1.330367E-07,NaN,0.1211925,-4.239072E-07,NaN,-1.069268,1.989519E-05,-0.0551519,7.90347E-08,NaN,NaN,-0.5131565,1.536677E-10,-5.278405E-07,-1.11163E-07,9.91953E-09,-2.861022E-08
691.145,-0.8309311,-3.498656E-09,NaN,-0.6084899,-1.330375E-07,NaN,0.1243138,-4.240977E-07,NaN,-1.06995,1.989563E-05,-0.05901607,7.922771E-08,NaN,NaN,-0.5133598,1.629809E-10,-5.522784E-07,-1.111645E-07,8.131391E-09,-2.622604E-08
691.1597,-0.8309311,-3.498656E-09,NaN,-0.6084899,-1.330375E-07,NaN,0.1243138,-4.240977E-07,NaN,-1.06995,1.989563E-05,-0.05901607,7.922771E-08,NaN,NaN,-0.5133598,1.629809E-10,-5.522784E-07,-1.111645E-07,8.131391E-09,-2.622604E-08
691.174,-0.8354105,-3.497928E-09,NaN,-0.6086764,-1.330383E-07,NaN,0.1279962,-4.242875E-07,NaN,-1.070626,1.989609E-05,-0.06368501,7.941969E-08,NaN,NaN,-0.5136051,1.629809E-10,-5.856571E-07,-1.111661E-07,9.91953E-09,-2.861022E-08
691.1893,-0.8401096,-3.497199E-09,NaN,-0.6088692,-1.330391E-07,NaN,0.1316755,-4.244763E-07,NaN,-1.071382,1.989653E-05,-0.06826084,7.961066E-08,NaN,NaN,-0.5138454,1.722941E-10,-6.178436E-07,-1.111676E-07,9.91953E-09,-2.622604E-08
691.204,-0.8449219,-3.496471E-09,NaN,-0.6090643,-1.330401E-07,NaN,0.1352958,-4.242197E-07,NaN,-1.072202,1.989698E-05,-0.07274841,7.935601E-08,NaN,NaN,-0.5140809,1.722941E-10,-6.458578E-07,-1.111673E-07,9.323483E-09,-2.861022E-08
691.2189,-0.8449219,-3.496471E-09,NaN,-0.6090643,-1.330401E-07,NaN,0.1352958,-4.242197E-07,NaN,-1.072202,1.989698E-05,-0.07274841,7.935601E-08,NaN,NaN,-0.5140809,1.722941E-10,-6.458578E-07,-1.111673E-07,9.323483E-09,-2.861022E-08
691.2328,-0.8497816,-3.495742E-09,NaN,-0.6092594,-1.330407E-07,NaN,0.1388379,-4.24112E-07,NaN,-1.073072,1.989744E-05,-0.07715071,7.925014E-08,NaN,NaN,-0.5143119,1.676375E-10,-6.720838E-07,-1.111667E-07,7.535344E-09,-2.622604E-08
691.2484,-0.8549928,-3.495014E-09,NaN,-0.609467,-1.33041E-07,NaN,0.1429257,-4.240854E-07,NaN,-1.073925,1.989789E-05,-0.0823534,7.922528E-08,NaN,NaN,-0.5145841,1.676375E-10,-7.114228E-07,-1.111659E-07,8.131391E-09,-2.861022E-08
691.2629,-0.8603956,-3.494286E-09,NaN,-0.6096801,-1.330411E-07,NaN,0.1469998,-4.241015E-07,NaN,-1.07485,1.989834E-05,-0.08745264,7.924315E-08,NaN,NaN,-0.514851,1.629809E-10,-7.448015E-07,-1.11165E-07,1.170767E-08,-2.622604E-08
691.2776,-0.8603956,-3.494286E-09,NaN,-0.6096801,-1.330411E-07,NaN,0.1469998,-4.241015E-07,NaN,-1.07485,1.989834E-05,-0.08745264,7.924315E-08,NaN,NaN,-0.514851,1.629809E-10,-7.448015E-07,-1.11165E-07,1.170767E-08,-2.622604E-08
691.2913,-0.8658909,-3.493557E-09,NaN,-0.6098948,-1.330412E-07,NaN,0.1510067,-4.241427E-07,NaN,-1.075834,1.989879E-05,-0.09245358,7.928599E-08,NaN,NaN,-0.5151125,1.629809E-10,-7.787761E-07,-1.11164E-07,6.343252E-09,-2.861022E-08
691.309,-0.8714179,-3.492828E-09,NaN,-0.610109,-1.330412E-07,NaN,0.1549282,-4.242E-07,NaN,-1.076862,1.989925E-05,-0.09735952,7.934485E-08,NaN,NaN,-0.5153689,1.629809E-10,-8.091745E-07,-1.11163E-07,5.747205E-09,-2.622604E-08
691.3225,-0.877284,-3.4921E-09,NaN,-0.6103354,-1.330412E-07,NaN,0.1593891,-4.242617E-07,NaN,-1.077872,1.98997E-05,-0.103062,7.940813E-08,NaN,NaN,-0.5156662,1.583243E-10,-8.532819E-07,-1.11162E-07,3.36302E-09,-2.861022E-08
691.3363,-0.877284,-3.4921E-09,NaN,-0.6103354,-1.330412E-07,NaN,0.1593891,-4.242617E-07,NaN,-1.077872,1.98997E-05,-0.103062,7.940813E-08,NaN,NaN,-0.5156662,1.583243E-10,-8.532819E-07,-1.11162E-07,3.36302E-09,-2.861022E-08
691.3503,-0.8833308,-3.491371E-09,NaN,-0.6105669,-1.330412E-07,NaN,0.1638281,-4.243278E-07,NaN,-1.078951,1.990016E-05,-0.108651,7.947575E-08,NaN,NaN,-0.5159576,1.536677E-10,-8.944091E-07,-1.11161E-07,6.939298E-09,-2.622604E-08
691.3656,-0.8894607,-3.490642E-09,NaN,-0.6107996,-1.330411E-07,NaN,0.1681924,-4.243925E-07,NaN,-1.080087,1.990061E-05,-0.1141321,7.954198E-08,NaN,NaN,-0.5162432,1.536677E-10,-9.283837E-07,-1.1116E-07,3.959066E-09,-2.861022E-08
691.3801,-0.8956136,-3.489913E-09,NaN,-0.6110315,-1.330411E-07,NaN,0.1724639,-4.244586E-07,NaN,-1.081267,1.990107E-05,-0.1195089,7.960966E-08,NaN,NaN,-0.5165232,1.490111E-10,-9.623584E-07,-1.11159E-07,-3.193491E-09,-2.622604E-08
691.3947,-0.8956136,-3.489913E-09,NaN,-0.6110315,-1.330411E-07,NaN,0.1724639,-4.244586E-07,NaN,-1.081267,1.990107E-05,-0.1195089,7.960966E-08,NaN,NaN,-0.5165232,1.490111E-10,-9.623584E-07,-1.11159E-07,-3.193491E-09,-2.622604E-08
691.4088,-0.9020973,-3.489184E-09,NaN,-0.6112755,-1.33041E-07,NaN,0.1772683,-4.245234E-07,NaN,-1.082429,1.990152E-05,-0.1256796,7.967595E-08,NaN,NaN,-0.5168437,1.490111E-10,-1.01183E-06,-1.11158E-07,-1.405352E-09,-2.861022E-08
691.4241,-0.9087541,-3.488455E-09,NaN,-0.6115242,-1.33041E-07,NaN,0.1820427,-4.245869E-07,NaN,-1.083659,1.990197E-05,-0.1317271,7.974088E-08,NaN,NaN,-0.5171577,1.490111E-10,-1.051765E-06,-1.11157E-07,5.151159E-09,-2.622604E-08
691.4388,-0.9087541,-3.488455E-09,NaN,-0.6115242,-1.33041E-07,NaN,0.1820427,-4.245869E-07,NaN,-1.083659,1.990197E-05,-0.1317271,7.974088E-08,NaN,NaN,-0.5171577,1.490111E-10,-1.051765E-06,-1.11157E-07,5.151159E-09,-2.622604E-08
691.4529,-0.9154863,-3.487726E-09,NaN,-0.6117737,-1.330409E-07,NaN,0.1867349,-4.246461E-07,NaN,-1.084946,1.990243E-05,-0.1376576,7.980164E-08,NaN,NaN,-0.5174656,1.443545E-10,-1.0917E-06,-1.11156E-07,6.343252E-09,-2.861022E-08
691.4685,-0.9225791,-3.486996E-09,NaN,-0.612036,-1.330409E-07,NaN,0.1919566,-4.247042E-07,NaN,-1.08623,1.990288E-05,-0.1443755,7.986115E-08,NaN,NaN,-0.5178133,1.396979E-10,-1.142364E-06,-1.11155E-07,1.111162E-08,-2.622604E-08
691.4833,-0.9298601,-3.486267E-09,NaN,-0.6123032,-1.330408E-07,NaN,0.1971389,-4.24761E-07,NaN,-1.087591,1.990333E-05,-0.150959,7.991942E-08,NaN,NaN,-0.5181541,1.396979E-10,-1.18528E-06,-1.11154E-07,7.535345E-09,-2.861022E-08
691.4979,-0.9298601,-3.486267E-09,NaN,-0.6123032,-1.330408E-07,NaN,0.1971389,-4.24761E-07,NaN,-1.087591,1.990333E-05,-0.150959,7.991942E-08,NaN,NaN,-0.5181541,1.396979E-10,-1.18528E-06,-1.11154E-07,7.535345E-09,-2.861022E-08
691.5118,-0.9372232,-3.485538E-09,NaN,-0.6125711,-1.330407E-07,NaN,0.2022284,-4.248138E-07,NaN,-1.089016,1.990378E-05,-0.1574148,7.997366E-08,NaN,NaN,-0.5184882,1.396979E-10,-1.228195E-06,-1.11153E-07,8.727437E-09,-2.622604E-08
691.5287,-0.9446028,-3.484808E-09,NaN,-0.6128378,-1.330407E-07,NaN,0.207208,-4.248654E-07,NaN,-1.090488,1.990424E-05,-0.1637477,8.002677E-08,NaN,NaN,-0.5188158,1.350413E-10,-1.266938E-06,-1.11152E-07,1.349581E-08,-2.861022E-08
691.5422,-0.9523042,-3.484079E-09,NaN,-0.613116,-1.330406E-07,NaN,0.2127052,-4.249132E-07,NaN,-1.091948,1.990469E-05,-0.1708684,8.007595E-08,NaN,NaN,-0.5191828,1.350413E-10,-1.318794E-06,-1.11151E-07,1.46879E-08,-2.622604E-08
691.5566,-0.9523042,-3.484079E-09,NaN,-0.613116,-1.330406E-07,NaN,0.2127052,-4.249132E-07,NaN,-1.091948,1.990469E-05,-0.1708684,8.007595E-08,NaN,NaN,-0.5191828,1.350413E-10,-1.318794E-06,-1.11151E-07,1.46879E-08,-2.622604E-08
691.5706,-0.9601673,-3.483349E-09,NaN,-0.6133984,-1.330406E-07,NaN,0.218155,-4.249599E-07,NaN,-1.093478,1.990515E-05,-0.1778465,8.01241E-08,NaN,NaN,-0.5195426,1.303846E-10,-1.365286E-06,-1.1115E-07,1.707209E-08,-2.861022E-08
691.587,-0.9680934,-3.48262E-09,NaN,-0.613681,-1.330405E-07,NaN,0.2235066,-4.250056E-07,NaN,-1.095065,1.99056E-05,-0.1846891,8.017125E-08,NaN,NaN,-0.5198953,1.303846E-10,-1.408201E-06,-1.11149E-07,1.230372E-08,-2.622604E-08
691.601,-0.9760219,-3.48189E-09,NaN,-0.6139621,-1.330405E-07,NaN,0.2287439,-4.250475E-07,NaN,-1.096695,1.990606E-05,-0.1914011,8.021458E-08,NaN,NaN,-0.520241,1.25728E-10,-1.448136E-06,-1.111481E-07,8.727437E-09,-2.861022E-08
691.6155,-0.9760219,-3.48189E-09,NaN,-0.6139621,-1.330405E-07,NaN,0.2287439,-4.250475E-07,NaN,-1.096695,1.990606E-05,-0.1914011,8.021458E-08,NaN,NaN,-0.520241,1.25728E-10,-1.448136E-06,-1.111481E-07,8.727437E-09,-2.861022E-08
691.6295,-0.9842611,-3.48116E-09,NaN,-0.6142546,-1.330404E-07,NaN,0.2344947,-4.250884E-07,NaN,-1.098312,1.990651E-05,-0.1989013,8.0257E-08,NaN,NaN,-0.5206259,1.210714E-10,-1.502973E-06,-1.111471E-07,8.727437E-09,-2.622604E-08
691.6446,-0.9926527,-3.48043E-09,NaN,-0.6145509,-1.330403E-07,NaN,0.2401926,-4.251257E-07,NaN,-1.099996,1.990697E-05,-0.2062503,8.029569E-08,NaN,NaN,-0.5210032,1.164148E-10,-1.550656E-06,-1.111461E-07,7.535345E-09,-2.861022E-08
691.6594,-0.9926527,-3.48043E-09,NaN,-0.6145509,-1.330403E-07,NaN,0.2401926,-4.251257E-07,NaN,-1.099996,1.990697E-05,-0.2062503,8.029569E-08,NaN,NaN,-0.5210032,1.164148E-10,-1.550656E-06,-1.111461E-07,7.535345E-09,-2.861022E-08
691.6735,-1.001099,-3.479701E-09,NaN,-0.6148474,-1.330403E-07,NaN,0.2457873,-4.251621E-07,NaN,-1.101737,1.990743E-05,-0.2134561,8.033356E-08,NaN,NaN,-0.5213731,1.117582E-10,-1.598936E-06,-1.111451E-07,2.766973E-09,-2.622604E-08
691.6889,-1.009886,-3.47897E-09,NaN,-0.6151559,-1.330402E-07,NaN,0.2518935,-4.251978E-07,NaN,-1.103478,1.990788E-05,-0.2214451,8.037063E-08,NaN,NaN,-0.5217817,1.117582E-10,-1.656156E-06,-1.111442E-07,6.343252E-09,-2.861022E-08
691.7034,-1.018841,-3.478241E-09,NaN,-0.6154683,-1.330396E-07,NaN,0.2579385,-4.236615E-07,NaN,-1.105296,1.990833E-05,-0.2292719,7.883586E-08,NaN,NaN,-0.5221822,1.164148E-10,-1.708012E-06,-1.111438E-07,3.959066E-09,-2.622604E-08
691.7183,-1.018841,-3.478241E-09,NaN,-0.6154683,-1.330396E-07,NaN,0.2579385,-4.236615E-07,NaN,-1.105296,1.990833E-05,-0.2292719,7.883586E-08,NaN,NaN,-0.5221822,1.164148E-10,-1.708012E-06,-1.111438E-07,3.959066E-09,-2.622604E-08
691.7324,-1.027858,-3.477511E-09,NaN,-0.6157808,-1.330394E-07,NaN,0.2638712,-4.237151E-07,NaN,-1.107176,1.990879E-05,-0.2369456,7.889087E-08,NaN,NaN,-0.5225747,1.02445E-10,-1.756292E-06,-1.111429E-07,3.959066E-09,-2.861022E-08
691.7479,-1.036872,-3.47678E-09,NaN,-0.6160913,-1.330393E-07,NaN,0.2696757,-4.237817E-07,NaN,-1.109102,1.990925E-05,-0.2444719,7.895887E-08,NaN,NaN,-0.5229596,9.778836E-11,-1.80636E-06,-1.111419E-07,3.959066E-09,-2.622604E-08
691.7623,-1.046189,-3.47605E-09,NaN,-0.6164128,-1.330393E-07,NaN,0.2759815,-4.23844E-07,NaN,-1.111022,1.99097E-05,-0.2527848,7.902262E-08,NaN,NaN,-0.523383,9.778836E-11,-1.864773E-06,-1.11141E-07,2.766974E-09,-2.861022E-08
691.7772,-1.046189,-3.47605E-09,NaN,-0.6164128,-1.330393E-07,NaN,0.2759815,-4.23844E-07,NaN,-1.111022,1.99097E-05,-0.2527848,7.902262E-08,NaN,NaN,-0.523383,9.778836E-11,-1.864773E-06,-1.11141E-07,2.766974E-09,-2.861022E-08
691.7911,-1.055647,-3.475319E-09,NaN,-0.6167377,-1.330392E-07,NaN,0.2822202,-4.239022E-07,NaN,-1.11301,1.991015E-05,-0.2609285,7.908223E-08,NaN,NaN,-0.5237979,9.778836E-11,-1.916629E-06,-1.1114E-07,5.151159E-09,-2.622604E-08
