JMolnar6/NonAnthroHands_User_Study/HandsLoggerWithURDF/tempdata/files/Reachy_PID0_JointMotion_gesture_1_1.csv
Time,r_shoulder,r_shoulder_x,r_upper_arm,r_forearm,r_wrist,r_wrist2hand,
38.58324,-0.1438493,-3.039222E-08,NaN,-0.3243351,-1.123504E-07,NaN,0.4511968,7.063003E-08,NaN,-0.4910303,4.857031E-07,-0.3803912,-3.539771E-08,NaN,NaN,-0.01997003,2.793965E-11,1.157575E-07,-9.650813E-08,7.117636E-09,-3.576278E-08
38.60308,-0.1429533,-3.041027E-08,NaN,-0.324362,-1.12435E-07,NaN,0.4508663,7.072683E-08,NaN,-0.4913467,4.865739E-07,-0.3800501,-3.523177E-08,NaN,NaN,-0.0199704,1.862642E-11,1.169495E-07,-9.657554E-08,2.349264E-09,-3.337859E-08
38.61251,-0.1429533,-3.041027E-08,NaN,-0.324362,-1.12435E-07,NaN,0.4508663,7.072683E-08,NaN,-0.4913467,4.865739E-07,-0.3800501,-3.523177E-08,NaN,NaN,-0.0199704,1.862642E-11,1.169495E-07,-9.657554E-08,2.349264E-09,-3.337859E-08
38.62642,-0.1416043,-3.042825E-08,NaN,-0.3243874,-1.125193E-07,NaN,0.4503866,7.082364E-08,NaN,-0.4917832,4.874447E-07,-0.37959,-3.50669E-08,NaN,NaN,-0.01997088,9.313198E-12,1.153104E-07,-9.664272E-08,2.349264E-09,-3.576278E-08
38.64164,-0.1399759,-3.044616E-08,NaN,-0.3244119,-1.126034E-07,NaN,0.4499014,7.092044E-08,NaN,-0.4922242,4.883154E-07,-0.379128,-3.490311E-08,NaN,NaN,-0.01997135,-2.775558E-17,1.145654E-07,-9.670968E-08,-3.49214E-11,-3.337859E-08
38.65873,-0.1399759,-3.044616E-08,NaN,-0.3244119,-1.126034E-07,NaN,0.4499014,7.092044E-08,NaN,-0.4922242,4.883154E-07,-0.379128,-3.490311E-08,NaN,NaN,-0.01997135,-2.775558E-17,1.145654E-07,-9.670968E-08,-3.49214E-11,-3.337859E-08
38.67234,-0.1389062,-3.046399E-08,NaN,-0.3244382,-1.126872E-07,NaN,0.4499746,7.101725E-08,NaN,-0.4922194,4.891862E-07,-0.3791213,-3.474038E-08,NaN,NaN,-0.0199714,-9.313253E-12,1.144163E-07,-9.677643E-08,4.73345E-09,-3.576278E-08
38.68636,-0.1381927,-3.048176E-08,NaN,-0.3244654,-1.127707E-07,NaN,0.450245,7.111405E-08,NaN,-0.4920545,4.90057E-07,-0.3792754,-3.457871E-08,NaN,NaN,-0.01997132,-1.862648E-11,1.145654E-07,-9.684295E-08,7.117636E-09,-3.337859E-08
38.70008,-0.1377062,-3.049945E-08,NaN,-0.3244928,-1.12854E-07,NaN,0.4505641,7.121086E-08,NaN,-0.4918489,4.909185E-07,-0.379469,-3.441809E-08,NaN,NaN,-0.01997121,-1.862648E-11,1.160555E-07,-9.690925E-08,-3.49214E-11,-3.576278E-08
38.71506,-0.1377062,-3.049945E-08,NaN,-0.3244928,-1.12854E-07,NaN,0.4505641,7.121086E-08,NaN,-0.4918489,4.909185E-07,-0.379469,-3.441809E-08,NaN,NaN,-0.01997121,-1.862648E-11,1.160555E-07,-9.690925E-08,-3.49214E-11,-3.576278E-08
38.72867,-0.1373646,-3.051707E-08,NaN,-0.3245203,-1.12937E-07,NaN,0.450877,7.130766E-08,NaN,-0.4916478,4.917893E-07,-0.3796573,-3.425851E-08,NaN,NaN,-0.0199711,-2.79397E-11,1.172476E-07,-9.697539E-08,2.349264E-09,-3.337859E-08
38.744,-0.1378419,-3.053462E-08,NaN,-0.32455,-1.130199E-07,NaN,0.4516847,7.162632E-08,NaN,-0.4910545,4.926554E-07,-0.3802466,-3.437131E-08,NaN,NaN,-0.01997063,-2.79397E-11,1.156084E-07,-9.704171E-08,2.349264E-09,-3.576278E-08
38.75858,-0.1378419,-3.053462E-08,NaN,-0.32455,-1.130199E-07,NaN,0.4516847,7.162632E-08,NaN,-0.4910545,4.926554E-07,-0.3802466,-3.437131E-08,NaN,NaN,-0.01997063,-2.79397E-11,1.156084E-07,-9.704171E-08,2.349264E-09,-3.576278E-08
38.77249,-0.1388326,-3.05521E-08,NaN,-0.3245804,-1.131028E-07,NaN,0.4526176,7.190256E-08,NaN,-0.4903621,4.935262E-07,-0.3809361,-3.448211E-08,NaN,NaN,-0.01997008,-3.259632E-11,1.170985E-07,-9.710797E-08,4.73345E-09,-3.337859E-08
38.78944,-0.1401422,-3.056951E-08,NaN,-0.3246107,-1.131856E-07,NaN,0.4535367,7.214312E-08,NaN,-0.489683,4.943923E-07,-0.3816125,-3.458957E-08,NaN,NaN,-0.01996953,-3.259632E-11,1.193337E-07,-9.717409E-08,9.501822E-09,-3.576278E-08
38.80257,-0.141647,-3.058685E-08,NaN,-0.3246406,-1.132682E-07,NaN,0.4543998,7.235458E-08,NaN,-0.4890519,4.952584E-07,-0.3822417,-3.46938E-08,NaN,NaN,-0.01996903,-3.259632E-11,1.211219E-07,-9.724005E-08,7.117636E-09,-3.337859E-08
38.81739,-0.141647,-3.058685E-08,NaN,-0.3246406,-1.132682E-07,NaN,0.4543998,7.235458E-08,NaN,-0.4890519,4.952584E-07,-0.3822417,-3.46938E-08,NaN,NaN,-0.01996903,-3.259632E-11,1.211219E-07,-9.724005E-08,7.117636E-09,-3.337859E-08
38.8314,-0.1439962,-3.060412E-08,NaN,-0.3246722,-1.133506E-07,NaN,0.4557252,7.254077E-08,NaN,-0.488062,4.961245E-07,-0.3832458,-3.479346E-08,NaN,NaN,-0.01996819,-3.259632E-11,1.2291E-07,-9.730581E-08,9.501822E-09,-3.576278E-08
38.84679,-0.146867,-3.062132E-08,NaN,-0.3247039,-1.134327E-07,NaN,0.4571488,7.270735E-08,NaN,-0.486999,4.969907E-07,-0.3843278,-3.489007E-08,NaN,NaN,-0.01996728,-3.259632E-11,1.239531E-07,-9.737137E-08,4.73345E-09,-3.337859E-08
38.86114,-0.1500541,-3.063845E-08,NaN,-0.324735,-1.135147E-07,NaN,0.4585369,7.285628E-08,NaN,-0.48597,4.978568E-07,-0.385379,-3.498227E-08,NaN,NaN,-0.01996639,-3.259632E-11,1.239531E-07,-9.743673E-08,7.117636E-09,-3.576278E-08
38.87611,-0.1500541,-3.063845E-08,NaN,-0.324735,-1.135147E-07,NaN,0.4585369,7.285628E-08,NaN,-0.48597,4.978568E-07,-0.385379,-3.498227E-08,NaN,NaN,-0.01996639,-3.259632E-11,1.239531E-07,-9.743673E-08,7.117636E-09,-3.576278E-08
38.89043,-0.1541548,-3.065551E-08,NaN,-0.3247675,-1.135963E-07,NaN,0.4603803,7.299029E-08,NaN,-0.4845955,4.987276E-07,-0.3868001,-3.507016E-08,NaN,NaN,-0.01996517,-3.725293E-11,1.266353E-07,-9.750188E-08,1.188601E-08,-3.337859E-08
38.90528,-0.1588134,-3.06725E-08,NaN,-0.3247995,-1.136777E-07,NaN,0.4623018,7.311301E-08,NaN,-0.4831687,4.99603E-07,-0.388283,-3.515523E-08,NaN,NaN,-0.01996388,-4.190954E-11,1.294665E-07,-9.756681E-08,9.501822E-09,-3.576278E-08
38.92146,-0.1638035,-3.068943E-08,NaN,-0.3248303,-1.137589E-07,NaN,0.4641666,7.322477E-08,NaN,-0.4817964,5.004784E-07,-0.389718,-3.523613E-08,NaN,NaN,-0.01996265,-4.656615E-11,1.312546E-07,-9.763153E-08,1.188601E-08,-3.337859E-08
38.93435,-0.1638035,-3.068943E-08,NaN,-0.3248303,-1.137589E-07,NaN,0.4641666,7.322477E-08,NaN,-0.4817964,5.004784E-07,-0.389718,-3.523613E-08,NaN,NaN,-0.01996265,-4.656615E-11,1.312546E-07,-9.763153E-08,1.188601E-08,-3.337859E-08
38.9514,-0.1689816,-3.070628E-08,NaN,-0.3248596,-1.138394E-07,NaN,0.4659385,7.340453E-08,NaN,-0.4805071,5.013306E-07,-0.3910764,-3.539046E-08,NaN,NaN,-0.01996148,-3.725293E-11,1.343839E-07,-9.769548E-08,1.427019E-08,-3.576278E-08
38.96461,-0.174984,-3.072307E-08,NaN,-0.3248898,-1.139193E-07,NaN,0.4681582,7.357178E-08,NaN,-0.478891,5.021781E-07,-0.3928017,-3.553662E-08,NaN,NaN,-0.01995995,-3.259632E-11,1.346819E-07,-9.775898E-08,1.188601E-08,-3.337859E-08
38.97823,-0.174984,-3.072307E-08,NaN,-0.3248898,-1.139193E-07,NaN,0.4681582,7.357178E-08,NaN,-0.478891,5.021781E-07,-0.3928017,-3.553662E-08,NaN,NaN,-0.01995995,-3.259632E-11,1.346819E-07,-9.775898E-08,1.188601E-08,-3.337859E-08
38.99215,-0.1814801,-3.073979E-08,NaN,-0.3249189,-1.139988E-07,NaN,0.4704552,7.372888E-08,NaN,-0.477228,5.030209E-07,-0.3945896,-3.56761E-08,NaN,NaN,-0.01995837,-2.793971E-11,1.378112E-07,-9.782215E-08,7.117635E-09,-3.576278E-08
39.00753,-0.1882597,-3.075644E-08,NaN,-0.3249462,-1.140779E-07,NaN,0.4726959,7.387661E-08,NaN,-0.4756216,5.038592E-07,-0.3963311,-3.580899E-08,NaN,NaN,-0.01995682,-2.328309E-11,1.421325E-07,-9.788504E-08,2.349264E-09,-3.337859E-08
39.02202,-0.1951893,-3.077302E-08,NaN,-0.3249715,-1.141567E-07,NaN,0.4748436,7.401704E-08,NaN,-0.4741001,5.046927E-07,-0.397997,-3.593679E-08,NaN,NaN,-0.01995534,-1.396987E-11,1.452617E-07,-9.794767E-08,4.73345E-09,-3.576278E-08
39.03675,-0.1951893,-3.077302E-08,NaN,-0.3249715,-1.141567E-07,NaN,0.4748436,7.401704E-08,NaN,-0.4741001,5.046927E-07,-0.397997,-3.593679E-08,NaN,NaN,-0.01995534,-1.396987E-11,1.452617E-07,-9.794767E-08,4.73345E-09,-3.576278E-08
39.05058,-0.2029121,-3.078954E-08,NaN,-0.3249975,-1.142352E-07,NaN,0.4774502,7.41507E-08,NaN,-0.4722563,5.055309E-07,-0.4000423,-3.60596E-08,NaN,NaN,-0.01995348,-9.313256E-12,1.4854E-07,-9.801007E-08,4.73345E-09,-3.337859E-08
39.066,-0.2111018,-3.0806E-08,NaN,-0.3250219,-1.143135E-07,NaN,0.4801351,7.427802E-08,NaN,-0.4703701,5.063645E-07,-0.4021525,-3.61775E-08,NaN,NaN,-0.01995157,-3.035766E-17,1.512222E-07,-9.807225E-08,9.501822E-09,-3.576278E-08
39.0806,-0.2195509,-3.082238E-08,NaN,-0.325044,-1.143915E-07,NaN,0.4827609,7.439938E-08,NaN,-0.4685452,5.072027E-07,-0.4042149,-3.629058E-08,NaN,NaN,-0.01994969,4.656582E-12,1.543515E-07,-9.813422E-08,9.501822E-09,-3.337859E-08
39.09531,-0.2195509,-3.082238E-08,NaN,-0.325044,-1.143915E-07,NaN,0.4827609,7.439938E-08,NaN,-0.4685452,5.072027E-07,-0.4042149,-3.629058E-08,NaN,NaN,-0.01994969,4.656582E-12,1.543515E-07,-9.813422E-08,9.501822E-09,-3.337859E-08
39.10946,-0.2288558,-3.08387E-08,NaN,-0.3250662,-1.144693E-07,NaN,0.4858532,7.451511E-08,NaN,-0.4664055,5.080362E-07,-0.4066648,-3.639894E-08,NaN,NaN,-0.01994743,1.396981E-11,1.600139E-07,-9.819598E-08,1.188601E-08,-3.576278E-08
39.1248,-0.2386602,-3.085496E-08,NaN,-0.3250861,-1.145468E-07,NaN,0.489012,7.46188E-08,NaN,-0.4642392,5.088791E-07,-0.4091703,-3.649599E-08,NaN,NaN,-0.01994512,1.396981E-11,1.643352E-07,-9.825753E-08,1.188601E-08,-3.337859E-08
39.13931,-0.2386602,-3.085496E-08,NaN,-0.3250861,-1.145468E-07,NaN,0.489012,7.46188E-08,NaN,-0.4642392,5.088791E-07,-0.4091703,-3.649599E-08,NaN,NaN,-0.01994512,1.396981E-11,1.643352E-07,-9.825753E-08,1.188601E-08,-3.337859E-08
39.1533,-0.2487377,-3.087115E-08,NaN,-0.3251029,-1.14624E-07,NaN,0.4920957,7.47189E-08,NaN,-0.4621514,5.09722E-07,-0.4116152,-3.659004E-08,NaN,NaN,-0.01994286,1.396981E-11,1.689546E-07,-9.831888E-08,9.501822E-09,-3.576278E-08
39.16875,-0.2589449,-3.088727E-08,NaN,-0.3251168,-1.147011E-07,NaN,0.4950671,7.481417E-08,NaN,-0.4601699,5.105649E-07,-0.4139697,-3.667971E-08,NaN,NaN,-0.01994067,1.396981E-11,1.711898E-07,-9.838003E-08,1.188601E-08,-3.337859E-08
39.18343,-0.2699188,-3.090333E-08,NaN,-0.3251307,-1.147783E-07,NaN,0.4985093,7.491143E-08,NaN,-0.4578895,5.114123E-07,-0.4167199,-3.677176E-08,NaN,NaN,-0.01993806,9.313195E-12,1.768522E-07,-9.844004E-08,1.903856E-08,-3.576278E-08
39.19791,-0.2699188,-3.090333E-08,NaN,-0.3251307,-1.147783E-07,NaN,0.4985093,7.491143E-08,NaN,-0.4578895,5.114123E-07,-0.4167199,-3.677176E-08,NaN,NaN,-0.01993806,9.313195E-12,1.768522E-07,-9.844004E-08,1.903856E-08,-3.576278E-08
39.21205,-0.2813292,-3.091932E-08,NaN,-0.3251421,-1.148552E-07,NaN,0.5020229,7.50027E-08,NaN,-0.4555857,5.122598E-07,-0.4195318,-3.685813E-08,NaN,NaN,-0.0199354,4.656582E-12,1.799815E-07,-9.849978E-08,1.903856E-08,-3.337859E-08
39.22725,-0.2929662,-3.093524E-08,NaN,-0.3251503,-1.149318E-07,NaN,0.5054654,7.508952E-08,NaN,-0.4533602,5.131073E-07,-0.4222875,-3.694029E-08,NaN,NaN,-0.01993279,-3.035766E-17,1.832597E-07,-9.855928E-08,2.142275E-08,-3.576278E-08
39.24527,-0.3046972,-3.095111E-08,NaN,-0.3251556,-1.150082E-07,NaN,0.5087976,7.517203E-08,NaN,-0.4512405,5.139548E-07,-0.4249556,-3.701834E-08,NaN,NaN,-0.01993024,-4.656643E-12,1.853459E-07,-9.861858E-08,2.142275E-08,-3.337859E-08
39.25774,-0.3046972,-3.095111E-08,NaN,-0.3251556,-1.150082E-07,NaN,0.5087976,7.517203E-08,NaN,-0.4512405,5.139548E-07,-0.4249556,-3.701834E-08,NaN,NaN,-0.01993024,-4.656643E-12,1.853459E-07,-9.861858E-08,2.142275E-08,-3.337859E-08
39.27149,-0.317166,-3.096691E-08,NaN,-0.3251609,-1.150843E-07,NaN,0.5126219,7.525033E-08,NaN,-0.4488258,5.148023E-07,-0.4280413,-3.709232E-08,NaN,NaN,-0.01992724,-9.313256E-12,1.878791E-07,-9.867767E-08,1.665438E-08,-3.576278E-08
39.28579,-0.3300468,-3.098264E-08,NaN,-0.3251644,-1.151602E-07,NaN,0.5165236,7.532454E-08,NaN,-0.446391,5.156497E-07,-0.4311956,-3.716234E-08,NaN,NaN,-0.01992417,-1.396987E-11,1.920514E-07,-9.873656E-08,1.188601E-08,-3.337859E-08
39.30021,-0.3431328,-3.099831E-08,NaN,-0.3251665,-1.152358E-07,NaN,0.5203556,7.539614E-08,NaN,-0.4440383,5.164972E-07,-0.4342963,-3.722986E-08,NaN,NaN,-0.01992114,-1.862648E-11,1.981609E-07,-9.879525E-08,9.501822E-09,-3.576278E-08
39.31498,-0.3431328,-3.099831E-08,NaN,-0.3251665,-1.152358E-07,NaN,0.5203556,7.539614E-08,NaN,-0.4440383,5.164972E-07,-0.4342963,-3.722986E-08,NaN,NaN,-0.01992114,-1.862648E-11,1.981609E-07,-9.879525E-08,9.501822E-09,-3.576278E-08
39.32916,-0.357021,-3.101392E-08,NaN,-0.325169,-1.153108E-07,NaN,0.5246955,7.542405E-08,NaN,-0.4413979,5.173447E-07,-0.4378302,-3.725377E-08,NaN,NaN,-0.01991764,-2.328309E-11,2.045684E-07,-9.885441E-08,4.73345E-09,-3.337859E-08
39.34425,-0.3713557,-3.102946E-08,NaN,-0.3251701,-1.153856E-07,NaN,0.5291052,7.54503E-08,NaN,-0.4387527,5.181876E-07,-0.4414271,-3.727607E-08,NaN,NaN,-0.01991407,-2.328309E-11,2.108269E-07,-9.89134E-08,7.117636E-09,-3.576278E-08
39.35899,-0.3713557,-3.102946E-08,NaN,-0.3251701,-1.153856E-07,NaN,0.5291052,7.54503E-08,NaN,-0.4387527,5.181876E-07,-0.4414271,-3.727607E-08,NaN,NaN,-0.01991407,-2.328309E-11,2.108269E-07,-9.89134E-08,7.117636E-09,-3.576278E-08
39.37308,-0.3859112,-3.104494E-08,NaN,-0.32517,-1.154601E-07,NaN,0.5334316,7.547352E-08,NaN,-0.4362058,5.19035E-07,-0.444959,-3.72954E-08,NaN,NaN,-0.01991055,-2.793971E-11,2.12913E-07,-9.897219E-08,4.73345E-09,-3.337859E-08
39.38844,-0.4005447,-3.106036E-08,NaN,-0.3251689,-1.155344E-07,NaN,0.5376334,7.549379E-08,NaN,-0.4337842,5.198779E-07,-0.448393,-3.731182E-08,NaN,NaN,-0.01990709,-2.793971E-11,2.149992E-07,-9.90308E-08,9.501822E-09,-3.576278E-08
39.40297,-0.415894,-3.107571E-08,NaN,-0.3251687,-1.156085E-07,NaN,0.5423561,7.551255E-08,NaN,-0.4310906,5.207254E-07,-0.4522768,-3.732677E-08,NaN,NaN,-0.01990311,-3.259632E-11,2.223008E-07,-9.908926E-08,9.501822E-09,-3.337859E-08
39.41773,-0.415894,-3.107571E-08,NaN,-0.3251687,-1.156085E-07,NaN,0.5423561,7.551255E-08,NaN,-0.4310906,5.207254E-07,-0.4522768,-3.732677E-08,NaN,NaN,-0.01990311,-3.259632E-11,2.223008E-07,-9.908926E-08,9.501822E-09,-3.337859E-08
39.43168,-0.4316292,-3.109101E-08,NaN,-0.3251672,-1.15682E-07,NaN,0.5471573,7.55204E-08,NaN,-0.4283943,5.215683E-07,-0.456233,-3.733084E-08,NaN,NaN,-0.01989906,-3.259632E-11,2.312415E-07,-9.914844E-08,7.117636E-09,-3.576278E-08
39.44691,-0.4475413,-3.110624E-08,NaN,-0.3251645,-1.157552E-07,NaN,0.551881,7.552697E-08,NaN,-0.425795,5.224111E-07,-0.4601302,-3.733365E-08,NaN,NaN,-0.01989504,-3.259632E-11,2.403312E-07,-9.920749E-08,4.73345E-09,-3.337859E-08
39.46164,-0.4634981,-3.112141E-08,NaN,-0.325161,-1.158283E-07,NaN,0.556484,7.553232E-08,NaN,-0.4233195,5.23254E-07,-0.4639335,-3.733525E-08,NaN,NaN,-0.01989108,-3.259632E-11,2.448015E-07,-9.926638E-08,2.349264E-09,-3.099441E-08
39.47625,-0.4634981,-3.112141E-08,NaN,-0.325161,-1.158283E-07,NaN,0.556484,7.553232E-08,NaN,-0.4233195,5.23254E-07,-0.4639335,-3.733525E-08,NaN,NaN,-0.01989108,-3.259632E-11,2.448015E-07,-9.926638E-08,2.349264E-09,-3.099441E-08
39.49017,-0.4801441,-3.113652E-08,NaN,-0.3251583,-1.159012E-07,NaN,0.561639,7.553508E-08,NaN,-0.4205761,5.240969E-07,-0.468218,-3.733428E-08,NaN,NaN,-0.01988655,-3.259632E-11,2.51358E-07,-9.93251E-08,7.117636E-09,-3.337859E-08
39.50536,-0.497154,-3.115156E-08,NaN,-0.3251543,-1.159739E-07,NaN,0.5668815,7.553671E-08,NaN,-0.4178323,5.249398E-07,-0.472584,-3.73322E-08,NaN,NaN,-0.01988195,-3.259632E-11,2.565735E-07,-9.938363E-08,9.501822E-09,-3.099441E-08
39.52188,-0.5143214,-3.116655E-08,NaN,-0.325148,-1.160463E-07,NaN,0.572046,7.553583E-08,NaN,-0.4151874,5.257826E-07,-0.4768906,-3.732762E-08,NaN,NaN,-0.01987739,-3.259632E-11,2.605968E-07,-9.944198E-08,7.117636E-09,-3.337859E-08
39.53532,-0.5143214,-3.116655E-08,NaN,-0.325148,-1.160463E-07,NaN,0.572046,7.553583E-08,NaN,-0.4151874,5.257826E-07,-0.4768906,-3.732762E-08,NaN,NaN,-0.01987739,-3.259632E-11,2.605968E-07,-9.944198E-08,7.117636E-09,-3.337859E-08
39.54956,-0.5322441,-3.118147E-08,NaN,-0.325142,-1.161186E-07,NaN,0.5777877,7.55339E-08,NaN,-0.4122826,5.266162E-07,-0.4817025,-3.732201E-08,NaN,NaN,-0.01987222,-2.328309E-11,2.683454E-07,-9.950014E-08,9.501822E-09,-3.099441E-08
39.56367,-0.5505667,-3.119633E-08,NaN,-0.3251332,-1.161906E-07,NaN,0.5836104,7.553096E-08,NaN,-0.4093919,5.274544E-07,-0.4865902,-3.731538E-08,NaN,NaN,-0.01986698,-1.862648E-11,2.76094E-07,-9.955811E-08,4.73345E-09,-3.337859E-08
39.57817,-0.5505667,-3.119633E-08,NaN,-0.3251332,-1.161906E-07,NaN,0.5836104,7.553096E-08,NaN,-0.4093919,5.274544E-07,-0.4865902,-3.731538E-08,NaN,NaN,-0.01986698,-1.862648E-11,2.76094E-07,-9.955811E-08,4.73345E-09,-3.337859E-08
39.59203,-0.569064,-3.121113E-08,NaN,-0.3251211,-1.162624E-07,NaN,0.5893424,7.552559E-08,NaN,-0.4066156,5.282926E-07,-0.4914076,-3.730634E-08,NaN,NaN,-0.0198618,-1.396987E-11,2.792232E-07,-9.961589E-08,4.73345E-09,-3.099441E-08
39.60727,-0.5875937,-3.122587E-08,NaN,-0.3251062,-1.16334E-07,NaN,0.5949383,7.551786E-08,NaN,-0.4039798,5.291308E-07,-0.4961179,-3.729495E-08,NaN,NaN,-0.0198567,-9.313253E-12,2.829485E-07,-9.967348E-08,2.349264E-09,-3.337859E-08
39.62195,-0.6067941,-3.124056E-08,NaN,-0.3250919,-1.164053E-07,NaN,0.6011352,7.550922E-08,NaN,-0.4011011,5.29969E-07,-0.5013607,-3.728265E-08,NaN,NaN,-0.01985091,-4.656641E-12,2.880149E-07,-9.973088E-08,7.117636E-09,-3.099441E-08
39.63632,-0.6067941,-3.124056E-08,NaN,-0.3250919,-1.164053E-07,NaN,0.6011352,7.550922E-08,NaN,-0.4011011,5.29969E-07,-0.5013607,-3.728265E-08,NaN,NaN,-0.01985091,-4.656641E-12,2.880149E-07,-9.973088E-08,7.117636E-09,-3.099441E-08
39.65021,-0.6263359,-3.125518E-08,NaN,-0.3250751,-1.164764E-07,NaN,0.6074258,7.549828E-08,NaN,-0.3982385,5.307979E-07,-0.506693,-3.726805E-08,NaN,NaN,-0.01984503,9.313198E-12,2.918892E-07,-9.97881E-08,9.501822E-09,-3.337859E-08
39.66565,-0.6460105,-3.126974E-08,NaN,-0.3250553,-1.165474E-07,NaN,0.6136334,7.548508E-08,NaN,-0.3954885,5.316222E-07,-0.5119628,-3.72512E-08,NaN,NaN,-0.01983921,2.328304E-11,2.935284E-07,-9.984512E-08,1.188601E-08,-3.099441E-08
39.6801,-0.6656862,-3.128424E-08,NaN,-0.3250332,-1.16618E-07,NaN,0.6197094,7.546966E-08,NaN,-0.3928769,5.324557E-07,-0.5171303,-3.723214E-08,NaN,NaN,-0.01983345,2.328304E-11,2.974027E-07,-9.990196E-08,1.188601E-08,-3.337859E-08
39.69636,-0.6656862,-3.128424E-08,NaN,-0.3250332,-1.16618E-07,NaN,0.6197094,7.546966E-08,NaN,-0.3928769,5.324557E-07,-0.5171303,-3.723214E-08,NaN,NaN,-0.01983345,2.328304E-11,2.974027E-07,-9.990196E-08,1.188601E-08,-3.337859E-08
39.70894,-0.6860081,-3.129869E-08,NaN,-0.3250119,-1.166885E-07,NaN,0.6264279,7.545349E-08,NaN,-0.3900276,5.332846E-07,-0.5228721,-3.721233E-08,NaN,NaN,-0.01982692,2.793965E-11,3.02022E-07,-9.995861E-08,1.188601E-08,-3.099441E-08
39.7242,-0.7066513,-3.131307E-08,NaN,-0.3249883,-1.167588E-07,NaN,0.633252,7.543515E-08,NaN,-0.3871967,5.341135E-07,-0.5287154,-3.719036E-08,NaN,NaN,-0.01982031,3.259626E-11,3.112607E-07,-1.000151E-07,9.501822E-09,-3.337859E-08
39.73882,-0.7066513,-3.131307E-08,NaN,-0.3249883,-1.167588E-07,NaN,0.633252,7.543515E-08,NaN,-0.3871967,5.341135E-07,-0.5287154,-3.719036E-08,NaN,NaN,-0.01982031,3.259626E-11,3.112607E-07,-1.000151E-07,9.501822E-09,-3.337859E-08
39.75261,-0.7274101,-3.13274E-08,NaN,-0.3249619,-1.168288E-07,NaN,0.6399944,7.541471E-08,NaN,-0.3844802,5.34947E-07,-0.5344979,-3.716628E-08,NaN,NaN,-0.01981376,2.793965E-11,3.173702E-07,-1.000714E-07,9.501822E-09,-3.099441E-08
39.76812,-0.7483755,-3.134167E-08,NaN,-0.324934,-1.168986E-07,NaN,0.6468488,7.539357E-08,NaN,-0.3817924,5.357806E-07,-0.5403917,-3.714151E-08,NaN,NaN,-0.01980701,2.328304E-11,3.181153E-07,-1.001275E-07,1.188601E-08,-3.337859E-08
39.78253,-0.769383,-3.135588E-08,NaN,-0.3249042,-1.169682E-07,NaN,0.6536378,7.537176E-08,NaN,-0.3792118,5.366142E-07,-0.5462414,-3.711607E-08,NaN,NaN,-0.01980028,1.862642E-11,3.236287E-07,-1.001835E-07,9.501822E-09,-3.099441E-08
39.79729,-0.769383,-3.135588E-08,NaN,-0.3249042,-1.169682E-07,NaN,0.6536378,7.537176E-08,NaN,-0.3792118,5.366142E-07,-0.5462414,-3.711607E-08,NaN,NaN,-0.01980028,1.862642E-11,3.236287E-07,-1.001835E-07,9.501822E-09,-3.099441E-08
39.81112,-0.790329,-3.137003E-08,NaN,-0.324873,-1.170376E-07,NaN,0.6603089,7.53479E-08,NaN,-0.3767607,5.37443E-07,-0.552002,-3.708859E-08,NaN,NaN,-0.0197936,1.862642E-11,3.258639E-07,-1.002393E-07,4.73345E-09,-3.337859E-08
39.82856,-0.8111486,-3.138413E-08,NaN,-0.3248411,-1.171068E-07,NaN,0.6668541,7.532344E-08,NaN,-0.3744385,5.382719E-07,-0.5576679,-3.706052E-08,NaN,NaN,-0.01978696,1.862642E-11,3.301852E-07,-1.002949E-07,7.117636E-09,-3.099441E-08
39.84216,-0.8318016,-3.139816E-08,NaN,-0.3248091,-1.171758E-07,NaN,0.6732796,7.529699E-08,NaN,-0.3722373,5.391008E-07,-0.5632451,-3.703045E-08,NaN,NaN,-0.01978036,1.862642E-11,3.386789E-07,-1.003504E-07,7.117636E-09,-3.337859E-08
39.85575,-0.8318016,-3.139816E-08,NaN,-0.3248091,-1.171758E-07,NaN,0.6732796,7.529699E-08,NaN,-0.3722373,5.391008E-07,-0.5632451,-3.703045E-08,NaN,NaN,-0.01978036,1.862642E-11,3.386789E-07,-1.003504E-07,7.117636E-09,-3.337859E-08
39.86948,-0.8522634,-3.141214E-08,NaN,-0.3247777,-1.172445E-07,NaN,0.6795938,7.526857E-08,NaN,-0.3701477,5.399297E-07,-0.5687414,-3.699843E-08,NaN,NaN,-0.0197738,1.862642E-11,3.412121E-07,-1.004056E-07,7.117636E-09,-3.099441E-08
39.88481,-0.8725194,-3.142607E-08,NaN,-0.3247471,-1.17313E-07,NaN,0.6858034,7.523261E-08,NaN,-0.3681613,5.407586E-07,-0.5741627,-3.695885E-08,NaN,NaN,-0.01976729,1.862642E-11,3.444903E-07,-1.004607E-07,4.73345E-09,-3.337859E-08
39.89922,-0.8725194,-3.142607E-08,NaN,-0.3247471,-1.17313E-07,NaN,0.6858034,7.523261E-08,NaN,-0.3681613,5.407586E-07,-0.5741627,-3.695885E-08,NaN,NaN,-0.01976729,1.862642E-11,3.444903E-07,-1.004607E-07,4.73345E-09,-3.337859E-08
39.91338,-0.8925614,-3.143993E-08,NaN,-0.3247178,-1.173814E-07,NaN,0.6919132,7.519485E-08,NaN,-0.366271,5.415875E-07,-0.5795131,-3.691749E-08,NaN,NaN,-0.01976082,1.862642E-11,3.470235E-07,-1.005156E-07,1.157171E-09,-3.099441E-08
39.92901,-0.9123849,-3.145374E-08,NaN,-0.3246899,-1.174495E-07,NaN,0.697926,7.515536E-08,NaN,-0.3644714,5.424164E-07,-0.5847944,-3.687439E-08,NaN,NaN,-0.01975442,1.862642E-11,3.462785E-07,-1.005704E-07,-3.49214E-11,-3.337859E-08
39.94322,-0.9319881,-3.146749E-08,NaN,-0.3246635,-1.175174E-07,NaN,0.7038434,7.511555E-08,NaN,-0.362758,5.432453E-07,-0.5900075,-3.683099E-08,NaN,NaN,-0.01974809,1.862642E-11,3.471725E-07,-1.006249E-07,-3.6112E-09,-3.099441E-08
39.958,-0.9319881,-3.146749E-08,NaN,-0.3246635,-1.175174E-07,NaN,0.7038434,7.511555E-08,NaN,-0.362758,5.432453E-07,-0.5900075,-3.683099E-08,NaN,NaN,-0.01974809,1.862642E-11,3.471725E-07,-1.006249E-07,-3.6112E-09,-3.099441E-08
39.97188,-0.951371,-3.148119E-08,NaN,-0.3246387,-1.175851E-07,NaN,0.7096654,7.507403E-08,NaN,-0.361127,5.440742E-07,-0.5951521,-3.678588E-08,NaN,NaN,-0.01974183,1.862642E-11,3.52388E-07,-1.006793E-07,-2.419107E-09,-3.337859E-08
39.98743,-0.9705342,-3.149483E-08,NaN,-0.3246154,-1.176526E-07,NaN,0.7153918,7.503225E-08,NaN,-0.3595754,5.449031E-07,-0.6002272,-3.674051E-08,NaN,NaN,-0.01973565,1.862642E-11,3.556662E-07,-1.007334E-07,-7.187479E-09,-3.099441E-08
40.00191,-0.9894792,-3.150841E-08,NaN,-0.3245937,-1.177199E-07,NaN,0.7210218,7.49888E-08,NaN,-0.3581006,5.45732E-07,-0.6052315,-3.669347E-08,NaN,NaN,-0.01972957,1.862642E-11,3.565603E-07,-1.007875E-07,-9.571664E-09,-3.337859E-08
40.01662,-0.9894792,-3.150841E-08,NaN,-0.3245937,-1.177199E-07,NaN,0.7210218,7.49888E-08,NaN,-0.3581006,5.45732E-07,-0.6052315,-3.669347E-08,NaN,NaN,-0.01972957,1.862642E-11,3.565603E-07,-1.007875E-07,-9.571664E-09,-3.337859E-08
40.03046,-1.008208,-3.152194E-08,NaN,-0.3245736,-1.177869E-07,NaN,0.7265542,7.494371E-08,NaN,-0.3567002,5.465608E-07,-0.6101634,-3.664479E-08,NaN,NaN,-0.01972357,1.862642E-11,3.640108E-07,-1.008413E-07,-7.187479E-09,-3.099441E-08
40.04577,-1.026722,-3.153541E-08,NaN,-0.324555,-1.178538E-07,NaN,0.7319877,7.489843E-08,NaN,-0.355372,5.473897E-07,-0.6150212,-3.659592E-08,NaN,NaN,-0.01971768,1.862642E-11,3.677361E-07,-1.008949E-07,-5.995386E-09,-3.337859E-08
40.06044,-1.045024,-3.154883E-08,NaN,-0.324538,-1.179205E-07,NaN,0.7373211,7.485154E-08,NaN,-0.3541139,5.482186E-07,-0.6198032,-3.654545E-08,NaN,NaN,-0.01971189,1.862642E-11,3.686302E-07,-1.009484E-07,-9.571664E-09,-3.099441E-08
40.07508,-1.045024,-3.154883E-08,NaN,-0.324538,-1.179205E-07,NaN,0.7373211,7.485154E-08,NaN,-0.3541139,5.482186E-07,-0.6198032,-3.654545E-08,NaN,NaN,-0.01971189,1.862642E-11,3.686302E-07,-1.009484E-07,-9.571664E-09,-3.099441E-08
40.08892,-1.063116,-3.156219E-08,NaN,-0.3245224,-1.179869E-07,NaN,0.7425529,7.480449E-08,NaN,-0.352924,5.490475E-07,-0.6245075,-3.649482E-08,NaN,NaN,-0.01970622,1.862642E-11,3.690772E-07,-1.010017E-07,-8.379572E-09,-3.337859E-08
40.10423,-1.081001,-3.15755E-08,NaN,-0.3245082,-1.180532E-07,NaN,0.7476818,7.475445E-08,NaN,-0.3518004,5.498764E-07,-0.6291323,-3.644121E-08,NaN,NaN,-0.01970066,1.862642E-11,3.681832E-07,-1.010548E-07,-5.995386E-09,-3.099441E-08
40.12078,-1.09868,-3.158875E-08,NaN,-0.3244955,-1.181192E-07,NaN,0.7527065,7.470432E-08,NaN,-0.3507412,5.507053E-07,-0.6336761,-3.638751E-08,NaN,NaN,-0.01969523,1.862642E-11,3.751867E-07,-1.011078E-07,-5.995386E-09,-3.337859E-08
40.13425,-1.09868,-3.158875E-08,NaN,-0.3244955,-1.181192E-07,NaN,0.7527065,7.470432E-08,NaN,-0.3507412,5.507053E-07,-0.6336761,-3.638751E-08,NaN,NaN,-0.01969523,1.862642E-11,3.751867E-07,-1.011078E-07,-5.995386E-09,-3.337859E-08
40.14813,-1.116156,-3.160195E-08,NaN,-0.3244841,-1.18185E-07,NaN,0.7576258,7.465267E-08,NaN,-0.3497448,5.515342E-07,-0.6381371,-3.633229E-08,NaN,NaN,-0.01968991,1.862642E-11,3.729515E-07,-1.011606E-07,-5.995386E-09,-3.099441E-08
40.16244,-1.133432,-3.161509E-08,NaN,-0.3244739,-1.182507E-07,NaN,0.7624384,7.460095E-08,NaN,-0.3488093,5.523631E-07,-0.6425138,-3.6277E-08,NaN,NaN,-0.01968474,1.862642E-11,3.704183E-07,-1.012132E-07,-5.995386E-09,-3.337859E-08
40.17718,-1.133432,-3.161509E-08,NaN,-0.3244739,-1.182507E-07,NaN,0.7624384,7.460095E-08,NaN,-0.3488093,5.523631E-07,-0.6425138,-3.6277E-08,NaN,NaN,-0.01968474,1.862642E-11,3.704183E-07,-1.012132E-07,-5.995386E-09,-3.337859E-08
40.19208,-1.150509,-3.162818E-08,NaN,-0.3244651,-1.183155E-07,NaN,0.7671431,7.451873E-08,NaN,-0.3479331,5.53178E-07,-0.6468046,-3.619122E-08,NaN,NaN,-0.01967969,3.259626E-11,3.711634E-07,-1.012649E-07,-7.783525E-09,-3.099441E-08
40.20648,-1.16739,-3.164121E-08,NaN,-0.3244575,-1.183798E-07,NaN,0.771739,7.443303E-08,NaN,-0.3471144,5.539976E-07,-0.6510081,-3.610194E-08,NaN,NaN,-0.01967478,4.190949E-11,3.698223E-07,-1.013162E-07,-8.975618E-09,-3.337859E-08
40.22075,-1.184077,-3.16542E-08,NaN,-0.324451,-1.184436E-07,NaN,0.776225,7.43452E-08,NaN,-0.3463517,5.548171E-07,-0.655123,-3.601055E-08,NaN,NaN,-0.01967,5.122271E-11,3.704183E-07,-1.013671E-07,-1.016771E-08,-3.099441E-08
40.23543,-1.184077,-3.16542E-08,NaN,-0.324451,-1.184436E-07,NaN,0.776225,7.43452E-08,NaN,-0.3463517,5.548171E-07,-0.655123,-3.601055E-08,NaN,NaN,-0.01967,5.122271E-11,3.704183E-07,-1.013671E-07,-1.016771E-08,-3.099441E-08
40.24947,-1.200572,-3.166712E-08,NaN,-0.3244457,-1.185071E-07,NaN,0.7806003,7.425524E-08,NaN,-0.3456433,5.556367E-07,-0.659148,-3.591701E-08,NaN,NaN,-0.01966536,6.053594E-11,3.693753E-07,-1.014177E-07,-9.571663E-09,-3.337859E-08
40.26466,-1.216877,-3.168E-08,NaN,-0.3244416,-1.185703E-07,NaN,0.7848642,7.416456E-08,NaN,-0.3449877,5.564563E-07,-0.663082,-3.582275E-08,NaN,NaN,-0.01966087,6.984916E-11,3.6565E-07,-1.014681E-07,-1.016771E-08,-3.099441E-08
40.27945,-1.216877,-3.168E-08,NaN,-0.3244416,-1.185703E-07,NaN,0.7848642,7.416456E-08,NaN,-0.3449877,5.564563E-07,-0.663082,-3.582275E-08,NaN,NaN,-0.01966087,6.984916E-11,3.6565E-07,-1.014681E-07,-1.016771E-08,-3.099441E-08
40.29338,-1.232996,-3.169282E-08,NaN,-0.3244385,-1.186332E-07,NaN,0.7890159,7.407316E-08,NaN,-0.3443833,5.572758E-07,-0.666924,-3.572778E-08,NaN,NaN,-0.01965652,7.450578E-11,3.66395E-07,-1.015184E-07,-1.374399E-08,-3.337859E-08
40.30869,-1.248929,-3.170559E-08,NaN,-0.3244361,-1.18696E-07,NaN,0.7930543,7.398245E-08,NaN,-0.3438285,5.580861E-07,-0.6706724,-3.563349E-08,NaN,NaN,-0.01965231,8.847562E-11,3.678851E-07,-1.015684E-07,-1.314794E-08,-3.099441E-08
40.32339,-1.264678,-3.171831E-08,NaN,-0.3244342,-1.187585E-07,NaN,0.7969788,7.389099E-08,NaN,-0.3433216,5.588917E-07,-0.6743262,-3.553845E-08,NaN,NaN,-0.01964827,1.024455E-10,3.674381E-07,-1.016183E-07,-1.195585E-08,-3.337859E-08
40.33793,-1.264678,-3.171831E-08,NaN,-0.3244342,-1.187585E-07,NaN,0.7969788,7.389099E-08,NaN,-0.3433216,5.588917E-07,-0.6743262,-3.553845E-08,NaN,NaN,-0.01964827,1.024455E-10,3.674381E-07,-1.016183E-07,-1.195585E-08,-3.337859E-08
40.35181,-1.280027,-3.173097E-08,NaN,-0.3244324,-1.188208E-07,NaN,0.8004747,7.380022E-08,NaN,-0.3429597,5.597019E-07,-0.6775994,-3.54441E-08,NaN,NaN,-0.01964477,1.071021E-10,3.652029E-07,-1.01668E-07,-1.225387E-08,-3.099441E-08
40.36707,-1.295058,-3.174359E-08,NaN,-0.3244313,-1.188829E-07,NaN,0.8037679,7.370868E-08,NaN,-0.3426715,5.605121E-07,-0.6806987,-3.534899E-08,NaN,NaN,-0.01964145,1.117587E-10,3.683322E-07,-1.017175E-07,-1.225387E-08,-3.337859E-08
40.38188,-1.309826,-3.175615E-08,NaN,-0.3244308,-1.189448E-07,NaN,0.8069395,7.361783E-08,NaN,-0.342427,5.613224E-07,-0.6836972,-3.525456E-08,NaN,NaN,-0.01963826,1.164153E-10,3.680341E-07,-1.017669E-07,-1.13598E-08,-3.099441E-08
40.39642,-1.309826,-3.175615E-08,NaN,-0.3244308,-1.189448E-07,NaN,0.8069395,7.361783E-08,NaN,-0.342427,5.613224E-07,-0.6836972,-3.525456E-08,NaN,NaN,-0.01963826,1.164153E-10,3.680341E-07,-1.017669E-07,-1.13598E-08,-3.099441E-08
40.4125,-1.324369,-3.176866E-08,NaN,-0.3244309,-1.190065E-07,NaN,0.8100145,7.352622E-08,NaN,-0.3422149,5.621326E-07,-0.6866165,-3.515937E-08,NaN,NaN,-0.01963519,1.210719E-10,3.674381E-07,-1.018161E-07,-9.571663E-09,-3.337859E-08
40.42669,-1.33798,-3.178111E-08,NaN,-0.3244303,-1.190681E-07,NaN,0.8119473,7.343528E-08,NaN,-0.3423518,5.629429E-07,-0.6885051,-3.506486E-08,NaN,NaN,-0.01963356,1.257285E-10,3.66693E-07,-1.018651E-07,-1.016771E-08,-3.099441E-08
40.44135,-1.350948,-3.179352E-08,NaN,-0.3244309,-1.191294E-07,NaN,0.8134947,7.334359E-08,NaN,-0.3426114,5.637578E-07,-0.6900565,-3.49696E-08,NaN,NaN,-0.01963219,1.257285E-10,3.681832E-07,-1.01914E-07,-9.869687E-09,-3.337859E-08
40.45461,-1.350948,-3.179352E-08,NaN,-0.3244309,-1.191294E-07,NaN,0.8134947,7.334359E-08,NaN,-0.3426114,5.637578E-07,-0.6900565,-3.49696E-08,NaN,NaN,-0.01963219,1.257285E-10,3.681832E-07,-1.01914E-07,-9.869687E-09,-3.337859E-08
40.46862,-1.363458,-3.180588E-08,NaN,-0.324433,-1.191905E-07,NaN,0.814926,7.325257E-08,NaN,-0.3429007,5.64568E-07,-0.6915148,-3.487502E-08,NaN,NaN,-0.01963086,1.303851E-10,3.672891E-07,-1.019627E-07,-9.571664E-09,-3.099441E-08
40.48367,-1.375627,-3.181818E-08,NaN,-0.324436,-1.192515E-07,NaN,0.8163213,7.31608E-08,NaN,-0.3431876,5.653829E-07,-0.6929505,-3.477968E-08,NaN,NaN,-0.01962956,1.303851E-10,3.66097E-07,-1.020113E-07,-9.64617E-09,-3.337859E-08
40.49853,-1.375627,-3.181818E-08,NaN,-0.324436,-1.192515E-07,NaN,0.8163213,7.31608E-08,NaN,-0.3431876,5.653829E-07,-0.6929505,-3.477968E-08,NaN,NaN,-0.01962956,1.303851E-10,3.66097E-07,-1.020113E-07,-9.64617E-09,-3.337859E-08
40.51237,-1.386803,-3.183043E-08,NaN,-0.3244386,-1.193122E-07,NaN,0.81664,7.30697E-08,NaN,-0.3437842,5.661932E-07,-0.6934139,-3.468502E-08,NaN,NaN,-0.01962965,1.350417E-10,3.629678E-07,-1.020597E-07,-9.310894E-09,-3.099441E-08
40.52763,-1.397308,-3.184264E-08,NaN,-0.3244424,-1.193728E-07,NaN,0.8166361,7.297926E-08,NaN,-0.3444693,5.670081E-07,-0.6935959,-3.459103E-08,NaN,NaN,-0.01963002,1.350417E-10,3.619247E-07,-1.021079E-07,-1.031672E-08,-3.337859E-08
40.54227,-1.407346,-3.185479E-08,NaN,-0.3244485,-1.194332E-07,NaN,0.816573,7.288806E-08,NaN,-0.3451564,5.67809E-07,-0.693735,-3.449626E-08,NaN,NaN,-0.01963039,1.490116E-10,3.604346E-07,-1.02156E-07,-1.098728E-08,-3.099441E-08
40.5569,-1.407346,-3.185479E-08,NaN,-0.3244485,-1.194332E-07,NaN,0.816573,7.288806E-08,NaN,-0.3451564,5.67809E-07,-0.693735,-3.449626E-08,NaN,NaN,-0.01963039,1.490116E-10,3.604346E-07,-1.02156E-07,-1.098728E-08,-3.099441E-08
40.57084,-1.416322,-3.186689E-08,NaN,-0.3244551,-1.194934E-07,NaN,0.815475,7.282664E-08,NaN,-0.346136,5.686193E-07,-0.6929401,-3.443129E-08,NaN,NaN,-0.01963203,1.536682E-10,3.517919E-07,-1.02204E-07,-8.60309E-09,-3.337859E-08
40.58608,-1.424591,-3.187894E-08,NaN,-0.3244646,-1.195535E-07,NaN,0.8141109,7.276388E-08,NaN,-0.3471825,5.694202E-07,-0.6919151,-3.436498E-08,NaN,NaN,-0.01963384,1.67638E-10,3.459805E-07,-1.022518E-07,-7.858032E-09,-3.099441E-08
40.60085,-1.432382,-3.189094E-08,NaN,-0.3244778,-1.196134E-07,NaN,0.8127413,7.270122E-08,NaN,-0.3482096,5.702304E-07,-0.6908955,-3.429877E-08,NaN,NaN,-0.01963559,1.722946E-10,3.39871E-07,-1.022995E-07,-8.305066E-09,-3.337859E-08
40.61531,-1.432382,-3.189094E-08,NaN,-0.3244778,-1.196134E-07,NaN,0.8127413,7.270122E-08,NaN,-0.3482096,5.702304E-07,-0.6908955,-3.429877E-08,NaN,NaN,-0.01963559,1.722946E-10,3.39871E-07,-1.022995E-07,-8.305066E-09,-3.337859E-08
40.63057,-1.439838,-3.190289E-08,NaN,-0.3244941,-1.196731E-07,NaN,0.8114316,7.263866E-08,NaN,-0.3491923,5.710314E-07,-0.6899381,-3.423266E-08,NaN,NaN,-0.01963727,1.816079E-10,3.362947E-07,-1.02347E-07,-8.007043E-09,-3.099441E-08
40.64449,-1.446325,-3.191479E-08,NaN,-0.3245107,-1.197326E-07,NaN,0.8091472,7.257477E-08,NaN,-0.3504492,5.718369E-07,-0.6880985,-3.416523E-08,NaN,NaN,-0.01964017,1.862645E-10,3.337615E-07,-1.023944E-07,-9.497159E-09,-3.337859E-08
40.65902,-1.446325,-3.191479E-08,NaN,-0.3245107,-1.197326E-07,NaN,0.8091472,7.257477E-08,NaN,-0.3504492,5.718369E-07,-0.6880985,-3.416523E-08,NaN,NaN,-0.01964017,1.862645E-10,3.337615E-07,-1.023944E-07,-9.497159E-09,-3.337859E-08
40.67297,-1.452176,-3.192664E-08,NaN,-0.3245293,-1.197919E-07,NaN,0.8066226,7.251101E-08,NaN,-0.3517645,5.726332E-07,-0.6860491,-3.409792E-08,NaN,NaN,-0.01964322,2.002343E-10,3.260129E-07,-1.024416E-07,-7.709019E-09,-3.099441E-08
40.68832,-1.457602,-3.193845E-08,NaN,-0.3245502,-1.198511E-07,NaN,0.8041106,7.244736E-08,NaN,-0.353055,5.734388E-07,-0.6840187,-3.403073E-08,NaN,NaN,-0.0196462,2.048909E-10,3.230327E-07,-1.024886E-07,-9.199136E-09,-3.337859E-08
40.7026,-1.462737,-3.19502E-08,NaN,-0.3245732,-1.1991E-07,NaN,0.8016771,7.238241E-08,NaN,-0.3542962,5.742351E-07,-0.6820652,-3.396225E-08,NaN,NaN,-0.01964906,2.188608E-10,3.197544E-07,-1.025355E-07,-9.497159E-09,-3.099441E-08
40.71928,-1.462737,-3.19502E-08,NaN,-0.3245732,-1.1991E-07,NaN,0.8016771,7.238241E-08,NaN,-0.3542962,5.742351E-07,-0.6820652,-3.396225E-08,NaN,NaN,-0.01964906,2.188608E-10,3.197544E-07,-1.025355E-07,-9.497159E-09,-3.099441E-08
40.73492,-1.466941,-3.196191E-08,NaN,-0.3245955,-1.199688E-07,NaN,0.7983115,7.231761E-08,NaN,-0.3558096,5.750453E-07,-0.6792676,-3.389392E-08,NaN,NaN,-0.01965305,2.188608E-10,3.14688E-07,-1.025823E-07,-1.068925E-08,-3.337859E-08
40.74763,-1.47054,-3.197357E-08,NaN,-0.3246186,-1.200274E-07,NaN,0.7947361,7.225153E-08,NaN,-0.3573764,5.758416E-07,-0.6762861,-3.38243E-08,NaN,NaN,-0.01965716,2.328306E-10,3.103667E-07,-1.026289E-07,-9.199136E-09,-3.099441E-08
40.76099,-1.473744,-3.198518E-08,NaN,-0.3246429,-1.200858E-07,NaN,0.7912012,7.218561E-08,NaN,-0.3589125,5.766518E-07,-0.6733475,-3.375486E-08,NaN,NaN,-0.01966115,2.328306E-10,3.055983E-07,-1.026753E-07,-7.709019E-09,-3.337859E-08
40.77547,-1.473744,-3.198518E-08,NaN,-0.3246429,-1.200858E-07,NaN,0.7912012,7.218561E-08,NaN,-0.3589125,5.766518E-07,-0.6733475,-3.375486E-08,NaN,NaN,-0.01966115,2.328306E-10,3.055983E-07,-1.026753E-07,-7.709019E-09,-3.337859E-08
40.78955,-1.475959,-3.199674E-08,NaN,-0.324666,-1.20144E-07,NaN,0.7867832,7.211844E-08,NaN,-0.3607183,5.774481E-07,-0.669611,-3.368416E-08,NaN,NaN,-0.01966614,2.468004E-10,2.994888E-07,-1.027216E-07,-8.007042E-09,-3.099441E-08
40.80456,-1.477541,-3.200825E-08,NaN,-0.3246891,-1.202021E-07,NaN,0.7822099,7.205004E-08,NaN,-0.362565,5.782583E-07,-0.6657405,-3.361224E-08,NaN,NaN,-0.01967119,2.468004E-10,2.944224E-07,-1.027677E-07,-7.410996E-09,-3.337859E-08
40.81909,-1.477541,-3.200825E-08,NaN,-0.3246891,-1.202021E-07,NaN,0.7822099,7.205004E-08,NaN,-0.362565,5.782583E-07,-0.6657405,-3.361224E-08,NaN,NaN,-0.01967119,2.468004E-10,2.944224E-07,-1.027677E-07,-7.410996E-09,-3.337859E-08
40.83322,-1.478719,-3.201972E-08,NaN,-0.3247129,-1.2026E-07,NaN,0.7777292,7.198184E-08,NaN,-0.3643665,5.790686E-07,-0.6619601,-3.354052E-08,NaN,NaN,-0.01967606,2.468004E-10,2.896541E-07,-1.028137E-07,-7.410996E-09,-3.099441E-08
40.8484,-1.479637,-3.203114E-08,NaN,-0.3247371,-1.203177E-07,NaN,0.773402,7.191385E-08,NaN,-0.3660986,5.798788E-07,-0.6583229,-3.346901E-08,NaN,NaN,-0.01968071,2.468004E-10,2.833956E-07,-1.028596E-07,-6.814949E-09,-3.337859E-08
40.86295,-1.47966,-3.204251E-08,NaN,-0.3247595,-1.203752E-07,NaN,0.7682659,7.184464E-08,NaN,-0.368093,5.806891E-07,-0.6539559,-3.339629E-08,NaN,NaN,-0.01968629,2.468004E-10,2.771371E-07,-1.029052E-07,-5.622857E-09,-3.099441E-08
40.87759,-1.47966,-3.204251E-08,NaN,-0.3247595,-1.203752E-07,NaN,0.7682659,7.184464E-08,NaN,-0.368093,5.806891E-07,-0.6539559,-3.339629E-08,NaN,NaN,-0.01968629,2.468004E-10,2.771371E-07,-1.029052E-07,-5.622857E-09,-3.099441E-08
40.89164,-1.47912,-3.205383E-08,NaN,-0.3247811,-1.204325E-07,NaN,0.7630037,7.177565E-08,NaN,-0.3701259,5.814993E-07,-0.64948,-3.33238E-08,NaN,NaN,-0.0196919,2.468004E-10,2.716236E-07,-1.029508E-07,-5.026811E-09,-3.337859E-08
40.90712,-1.478229,-3.206511E-08,NaN,-0.3248024,-1.204897E-07,NaN,0.7578503,7.170689E-08,NaN,-0.3721129,5.823096E-07,-0.6451072,-3.325152E-08,NaN,NaN,-0.01969732,2.468004E-10,2.647691E-07,-1.029962E-07,-8.544854E-10,-3.099441E-08
40.92142,-1.47712,-3.207634E-08,NaN,-0.3248236,-1.205466E-07,NaN,0.7528652,7.163692E-08,NaN,-0.3740297,5.831198E-07,-0.6408901,-3.317805E-08,NaN,NaN,-0.0197025,2.468004E-10,2.571695E-07,-1.030414E-07,3.376075E-10,-3.337859E-08
40.93616,-1.47712,-3.207634E-08,NaN,-0.3248236,-1.205466E-07,NaN,0.7528652,7.163692E-08,NaN,-0.3740297,5.831198E-07,-0.6408901,-3.317805E-08,NaN,NaN,-0.0197025,2.468004E-10,2.571695E-07,-1.030414E-07,3.376075E-10,-3.337859E-08
40.95007,-1.475151,-3.208752E-08,NaN,-0.3248423,-1.206034E-07,NaN,0.7471235,7.156719E-08,NaN,-0.3762132,5.8393E-07,-0.6359922,-3.310481E-08,NaN,NaN,-0.01970851,2.468004E-10,2.497189E-07,-1.030865E-07,-2.584389E-10,-3.099441E-08
40.96529,-1.472649,-3.209865E-08,NaN,-0.3248596,-1.206601E-07,NaN,0.7412841,7.149769E-08,NaN,-0.3784346,5.847403E-07,-0.6310107,-3.303181E-08,NaN,NaN,-0.01971453,2.468004E-10,2.427154E-07,-1.031314E-07,9.336539E-10,-3.337859E-08
40.97989,-1.472649,-3.209865E-08,NaN,-0.3248596,-1.206601E-07,NaN,0.7412841,7.149769E-08,NaN,-0.3784346,5.847403E-07,-0.6310107,-3.303181E-08,NaN,NaN,-0.01971453,2.468004E-10,2.427154E-07,-1.031314E-07,9.336539E-10,-3.337859E-08
40.99381,-1.469821,-3.210974E-08,NaN,-0.324876,-1.207165E-07,NaN,0.7355763,7.1427E-08,NaN,-0.380607,5.855505E-07,-0.626152,-3.295762E-08,NaN,NaN,-0.01972033,2.468004E-10,2.375E-07,-1.031762E-07,3.376075E-10,-3.099441E-08
41.00923,-1.466074,-3.212078E-08,NaN,-0.3248893,-1.207728E-07,NaN,0.7291656,7.135655E-08,NaN,-0.3830475,5.863608E-07,-0.620664,-3.288369E-08,NaN,NaN,-0.01972685,2.468004E-10,2.293043E-07,-1.032209E-07,3.31784E-09,-3.337859E-08
41.02573,-1.461762,-3.213178E-08,NaN,-0.3249006,-1.208289E-07,NaN,0.722709,7.128636E-08,NaN,-0.3855153,5.87171E-07,-0.61514,-3.281E-08,NaN,NaN,-0.01973333,2.468004E-10,2.230459E-07,-1.032654E-07,3.376075E-10,-3.099441E-08
41.0391,-1.461762,-3.213178E-08,NaN,-0.3249006,-1.208289E-07,NaN,0.722709,7.128636E-08,NaN,-0.3855153,5.87171E-07,-0.61514,-3.281E-08,NaN,NaN,-0.01973333,2.468004E-10,2.230459E-07,-1.032654E-07,3.376075E-10,-3.099441E-08
41.0529,-1.457114,-3.214273E-08,NaN,-0.3249104,-1.208848E-07,NaN,0.7164309,7.121498E-08,NaN,-0.3879209,5.879813E-07,-0.6097811,-3.273513E-08,NaN,NaN,-0.01973955,2.468004E-10,2.157443E-07,-1.033097E-07,3.376075E-10,-3.337859E-08
41.06728,-1.452274,-3.215364E-08,NaN,-0.3249191,-1.209406E-07,NaN,0.7103842,7.114387E-08,NaN,-0.3902395,5.887915E-07,-0.604634,-3.266053E-08,NaN,NaN,-0.01974547,2.468004E-10,2.094858E-07,-1.033539E-07,9.336539E-10,-3.099441E-08
41.08183,-1.446605,-3.21645E-08,NaN,-0.3249248,-1.209962E-07,NaN,0.7037077,7.107298E-08,NaN,-0.3928219,5.896018E-07,-0.5989259,-3.258616E-08,NaN,NaN,-0.01975203,2.468004E-10,2.038234E-07,-1.03398E-07,-2.046578E-09,-3.337859E-08
41.09626,-1.446605,-3.21645E-08,NaN,-0.3249248,-1.209962E-07,NaN,0.7037077,7.107298E-08,NaN,-0.3928219,5.896018E-07,-0.5989259,-3.258616E-08,NaN,NaN,-0.01975203,2.468004E-10,2.038234E-07,-1.03398E-07,-2.046578E-09,-3.337859E-08
41.11149,-1.440439,-3.217531E-08,NaN,-0.324928,-1.210516E-07,NaN,0.6970066,7.100234E-08,NaN,-0.3954314,5.904027E-07,-0.5932004,-3.251203E-08,NaN,NaN,-0.01975854,2.561137E-10,1.968198E-07,-1.03442E-07,-2.642624E-09,-3.099441E-08
41.12553,-1.433985,-3.218608E-08,NaN,-0.32493,-1.211068E-07,NaN,0.6904913,7.093193E-08,NaN,-0.3979794,5.912129E-07,-0.5876459,-3.243815E-08,NaN,NaN,-0.01976478,2.561137E-10,1.907103E-07,-1.034859E-07,-2.642624E-09,-3.337859E-08
41.14017,-1.427377,-3.21968E-08,NaN,-0.3249316,-1.211619E-07,NaN,0.6842133,7.086035E-08,NaN,-0.4004409,5.920139E-07,-0.5823075,-3.236309E-08,NaN,NaN,-0.01977072,2.654269E-10,1.856439E-07,-1.035296E-07,-2.642624E-09,-3.099441E-08
41.15471,-1.427377,-3.21968E-08,NaN,-0.3249316,-1.211619E-07,NaN,0.6842133,7.086035E-08,NaN,-0.4004409,5.920139E-07,-0.5823075,-3.236309E-08,NaN,NaN,-0.01977072,2.654269E-10,1.856439E-07,-1.035296E-07,-2.642624E-09,-3.099441E-08
41.16854,-1.419972,-3.220748E-08,NaN,-0.3249315,-1.212168E-07,NaN,0.6773551,7.078904E-08,NaN,-0.4031734,5.928241E-07,-0.5764561,-3.22883E-08,NaN,NaN,-0.01977722,2.654269E-10,1.810246E-07,-1.035731E-07,-1.450531E-09,-3.337859E-08
41.18369,-1.412097,-3.221811E-08,NaN,-0.3249303,-1.212716E-07,NaN,0.6704939,7.071797E-08,NaN,-0.4059333,5.93625E-07,-0.570607,-3.221376E-08,NaN,NaN,-0.01978365,2.747401E-10,1.752131E-07,-1.036166E-07,-1.450531E-09,-3.099441E-08
41.19853,-1.412097,-3.221811E-08,NaN,-0.3249303,-1.212716E-07,NaN,0.6704939,7.071797E-08,NaN,-0.4059333,5.93625E-07,-0.570607,-3.221376E-08,NaN,NaN,-0.01978365,2.747401E-10,1.752131E-07,-1.036166E-07,-1.450531E-09,-3.099441E-08
41.21252,-1.403959,-3.222871E-08,NaN,-0.324928,-1.213261E-07,NaN,0.6638308,7.064716E-08,NaN,-0.408629,5.944306E-07,-0.5649389,-3.213948E-08,NaN,NaN,-0.01978982,2.793967E-10,1.686566E-07,-1.036598E-07,-8.54485E-10,-3.337859E-08
41.22782,-1.394961,-3.223925E-08,NaN,-0.3249227,-1.213812E-07,NaN,0.656634,7.05223E-08,NaN,-0.4115971,5.952455E-07,-0.558802,-3.196703E-08,NaN,NaN,-0.01979648,2.793967E-10,1.616531E-07,-1.037039E-07,-2.642624E-09,-3.099441E-08
41.24252,-1.385461,-3.224975E-08,NaN,-0.3249148,-1.214367E-07,NaN,0.6494765,7.039745E-08,NaN,-0.4145818,5.960558E-07,-0.5527054,-3.176269E-08,NaN,NaN,-0.01980304,2.840533E-10,1.556926E-07,-1.037482E-07,-4.430764E-09,-3.337859E-08
41.25719,-1.385461,-3.224975E-08,NaN,-0.3249148,-1.214367E-07,NaN,0.6494765,7.039745E-08,NaN,-0.4145818,5.960558E-07,-0.5527054,-3.176269E-08,NaN,NaN,-0.01980304,2.840533E-10,1.556926E-07,-1.037482E-07,-4.430764E-09,-3.337859E-08
