JMolnar6/NonAnthroHands_User_Study/HandsLoggerWithURDF/tempdata/files/Reachy_JointMotion_gesture_2_10.csv
Time,r_shoulder,r_shoulder_x,r_upper_arm,r_forearm,r_wrist,r_wrist2hand,
111.6149,0.04463973,-3.009883E-08,NaN,-1.911941,-1.381195E-07,NaN,0.4853932,6.227034E-08,NaN,-2.17684,3.80488E-06,-0.3506247,-2.860718E-08,NaN,NaN,-0.01996261,-4.144389E-10,5.57184E-07,-1.15779E-07,5.599317E-10,-2.622604E-08
111.6319,0.04463377,-3.009763E-08,NaN,-1.912849,-1.381192E-07,NaN,0.4853322,6.225417E-08,NaN,-2.177047,3.805588E-06,-0.3508311,-2.858856E-08,NaN,NaN,-0.01996305,-4.097823E-10,5.512235E-07,-1.157798E-07,1.752025E-09,-2.622604E-08
111.6473,0.04462542,-3.009644E-08,NaN,-1.914223,-1.381191E-07,NaN,0.485315,6.224829E-08,NaN,-2.177315,3.806296E-06,-0.3510205,-2.858022E-08,NaN,NaN,-0.0199634,-4.051257E-10,5.464551E-07,-1.157807E-07,5.328303E-09,-2.622604E-08
111.6627,0.04461718,-3.009524E-08,NaN,-1.915877,-1.381191E-07,NaN,0.4853242,6.224759E-08,NaN,-2.177581,3.807004E-06,-0.3511719,-2.857707E-08,NaN,NaN,-0.01996364,-4.004691E-10,5.440709E-07,-1.157816E-07,1.752025E-09,-2.622604E-08
111.6788,0.04461718,-3.009524E-08,NaN,-1.915877,-1.381191E-07,NaN,0.4853242,6.224759E-08,NaN,-2.177581,3.807004E-06,-0.3511719,-2.857707E-08,NaN,NaN,-0.01996364,-4.004691E-10,5.440709E-07,-1.157816E-07,1.752025E-09,-2.622604E-08
111.6936,0.04460993,-3.009404E-08,NaN,-1.917697,-1.381187E-07,NaN,0.485342,6.198541E-08,NaN,-2.177827,3.807702E-06,-0.3512962,-2.831244E-08,NaN,NaN,-0.01996382,-3.864992E-10,5.440709E-07,-1.157832E-07,2.944117E-09,-2.622604E-08
111.7098,0.04461133,-3.009285E-08,NaN,-1.918849,-1.381184E-07,NaN,0.4854107,6.173134E-08,NaN,-2.177827,3.808401E-06,-0.3511812,-2.805593E-08,NaN,NaN,-0.0199635,-3.725294E-10,5.476472E-07,-1.157849E-07,7.712488E-09,-2.622604E-08
111.7254,0.04461567,-3.009165E-08,NaN,-1.919584,-1.381181E-07,NaN,0.4854332,6.148311E-08,NaN,-2.177747,3.809099E-06,-0.3510725,-2.780526E-08,NaN,NaN,-0.01996325,-3.585596E-10,5.512235E-07,-1.157865E-07,5.328303E-09,-2.622604E-08
111.7411,0.04462087,-3.009045E-08,NaN,-1.920058,-1.381179E-07,NaN,0.485426,6.124063E-08,NaN,-2.177654,3.809798E-06,-0.3509952,-2.756034E-08,NaN,NaN,-0.01996311,-3.445898E-10,5.512235E-07,-1.157882E-07,1.128877E-08,-2.622604E-08
111.757,0.04462087,-3.009045E-08,NaN,-1.920058,-1.381179E-07,NaN,0.485426,6.124063E-08,NaN,-2.177654,3.809798E-06,-0.3509952,-2.756034E-08,NaN,NaN,-0.01996311,-3.445898E-10,5.512235E-07,-1.157882E-07,1.128877E-08,-2.622604E-08
111.7732,0.04462597,-3.008925E-08,NaN,-1.92037,-1.381176E-07,NaN,0.4854076,6.100307E-08,NaN,-2.177568,3.810506E-06,-0.3509401,-2.732033E-08,NaN,NaN,-0.01996303,-3.399332E-10,5.536077E-07,-1.157899E-07,1.486505E-08,-2.622604E-08
111.7885,0.04464038,-3.008806E-08,NaN,-1.919819,-1.381174E-07,NaN,0.4854355,6.077034E-08,NaN,-2.177273,3.811204E-06,-0.350677,-2.708516E-08,NaN,NaN,-0.01996251,-3.259633E-10,5.57184E-07,-1.157916E-07,1.128877E-08,-2.622604E-08
111.8037,0.04465772,-3.008686E-08,NaN,-1.918738,-1.381171E-07,NaN,0.4854203,6.054234E-08,NaN,-2.176929,3.811903E-06,-0.3504391,-2.685472E-08,NaN,NaN,-0.01996209,-3.119935E-10,5.643366E-07,-1.157932E-07,8.904582E-09,-2.622604E-08
111.8197,0.04465772,-3.008686E-08,NaN,-1.918738,-1.381171E-07,NaN,0.4854203,6.054234E-08,NaN,-2.176929,3.811903E-06,-0.3504391,-2.685472E-08,NaN,NaN,-0.01996209,-3.119935E-10,5.643366E-07,-1.157932E-07,8.904582E-09,-2.622604E-08
111.8344,0.04467509,-3.008567E-08,NaN,-1.917336,-1.381169E-07,NaN,0.4853802,6.031899E-08,NaN,-2.176597,3.812601E-06,-0.3502445,-2.662893E-08,NaN,NaN,-0.0199618,-2.980237E-10,5.643366E-07,-1.157949E-07,6.520396E-09,-2.622604E-08
111.8506,0.04469139,-3.008448E-08,NaN,-1.915741,-1.381167E-07,NaN,0.4853335,6.009948E-08,NaN,-2.176292,3.813309E-06,-0.3500803,-2.640699E-08,NaN,NaN,-0.01996157,-2.933671E-10,5.667208E-07,-1.157966E-07,4.13621E-09,-2.622604E-08
111.8667,0.04471618,-3.008328E-08,NaN,-1.913274,-1.381165E-07,NaN,0.4853358,5.988446E-08,NaN,-2.175792,3.814007E-06,-0.3497149,-2.618952E-08,NaN,NaN,-0.01996091,-2.793973E-10,5.738733E-07,-1.157982E-07,5.599319E-10,-2.622604E-08
111.8821,0.04474263,-3.008209E-08,NaN,-1.910278,-1.381162E-07,NaN,0.4852976,5.967311E-08,NaN,-2.175255,3.814706E-06,-0.3493803,-2.597574E-08,NaN,NaN,-0.01996037,-2.654274E-10,5.8341E-07,-1.157999E-07,-1.824254E-09,-2.622604E-08
111.8983,0.04474263,-3.008209E-08,NaN,-1.910278,-1.381162E-07,NaN,0.4852976,5.967311E-08,NaN,-2.175255,3.814706E-06,-0.3493803,-2.597574E-08,NaN,NaN,-0.01996037,-2.654274E-10,5.8341E-07,-1.157999E-07,-1.824254E-09,-2.622604E-08
111.913,0.04476792,-3.008089E-08,NaN,-1.906972,-1.38116E-07,NaN,0.4852365,5.946609E-08,NaN,-2.174737,3.815413E-06,-0.3490933,-2.576628E-08,NaN,NaN,-0.01995995,-2.607708E-10,5.893705E-07,-1.158015E-07,-4.20844E-09,-2.622604E-08
111.9293,0.04479124,-3.00797E-08,NaN,-1.903487,-1.381158E-07,NaN,0.4851701,5.92626E-08,NaN,-2.174255,3.816121E-06,-0.3488406,-2.556036E-08,NaN,NaN,-0.01995959,-2.561142E-10,5.977152E-07,-1.158032E-07,5.599317E-10,-2.622604E-08
111.9451,0.04482248,-3.007851E-08,NaN,-1.899148,-1.381156E-07,NaN,0.4851525,5.906327E-08,NaN,-2.173582,3.816829E-06,-0.3483924,-2.535859E-08,NaN,NaN,-0.01995882,-2.514576E-10,6.084441E-07,-1.158048E-07,5.599317E-10,-2.622604E-08
111.9604,0.04485436,-3.007731E-08,NaN,-1.894301,-1.381153E-07,NaN,0.4850954,5.881737E-08,NaN,-2.172878,3.817536E-06,-0.3479789,-2.511026E-08,NaN,NaN,-0.01995818,-2.46801E-10,6.191729E-07,-1.158064E-07,-1.824254E-09,-2.622604E-08
111.9763,0.04485436,-3.007731E-08,NaN,-1.894301,-1.381153E-07,NaN,0.4850954,5.881737E-08,NaN,-2.172878,3.817536E-06,-0.3479789,-2.511026E-08,NaN,NaN,-0.01995818,-2.46801E-10,6.191729E-07,-1.158064E-07,-1.824254E-09,-2.622604E-08
111.991,0.0448842,-3.007612E-08,NaN,-1.889163,-1.381151E-07,NaN,0.4850165,5.857645E-08,NaN,-2.172199,3.818244E-06,-0.3476163,-2.486691E-08,NaN,NaN,-0.01995766,-2.421444E-10,6.251334E-07,-1.158081E-07,-4.20844E-09,-2.622604E-08
112.0075,0.04491142,-3.007493E-08,NaN,-1.883868,-1.381149E-07,NaN,0.4849329,5.833973E-08,NaN,-2.171559,3.818951E-06,-0.347291,-2.462775E-08,NaN,NaN,-0.01995722,-2.374878E-10,6.275176E-07,-1.158097E-07,-3.016347E-09,-2.622604E-08
112.0235,0.04494626,-3.007373E-08,NaN,-1.87774,-1.381147E-07,NaN,0.4848969,5.81078E-08,NaN,-2.170734,3.819659E-06,-0.3467759,-2.43934E-08,NaN,NaN,-0.01995637,-2.328312E-10,6.394385E-07,-1.158113E-07,-1.01689E-08,-2.622604E-08
112.0392,0.04494626,-3.007373E-08,NaN,-1.87774,-1.381147E-07,NaN,0.4848969,5.81078E-08,NaN,-2.170734,3.819659E-06,-0.3467759,-2.43934E-08,NaN,NaN,-0.01995637,-2.328312E-10,6.394385E-07,-1.158113E-07,-1.01689E-08,-2.622604E-08
112.054,0.04498094,-3.007254E-08,NaN,-1.871125,-1.381145E-07,NaN,0.4848222,5.787989E-08,NaN,-2.169881,3.820367E-06,-0.3462991,-2.416305E-08,NaN,NaN,-0.01995565,-2.281746E-10,6.489752E-07,-1.158129E-07,-1.255309E-08,-2.622604E-08
112.0706,0.04501286,-3.007134E-08,NaN,-1.86424,-1.381143E-07,NaN,0.4847267,5.765661E-08,NaN,-2.169058,3.821074E-06,-0.3458758,-2.393734E-08,NaN,NaN,-0.01995505,-2.23518E-10,6.561278E-07,-1.158145E-07,-1.612937E-08,-2.622604E-08
112.0858,0.04504165,-3.007015E-08,NaN,-1.857221,-1.381141E-07,NaN,0.4846271,5.743718E-08,NaN,-2.168277,3.821787E-06,-0.3454924,-2.371547E-08,NaN,NaN,-0.01995454,-2.188613E-10,6.608961E-07,-1.158161E-07,-1.1361E-08,-2.622604E-08
112.1013,0.04507795,-3.006896E-08,NaN,-1.849387,-1.381138E-07,NaN,0.4845736,5.722221E-08,NaN,-2.167314,3.822499E-06,-0.3449252,-2.349807E-08,NaN,NaN,-0.01995363,-2.142047E-10,6.71625E-07,-1.158177E-07,-4.208439E-09,-2.622604E-08
112.1171,0.04507795,-3.006896E-08,NaN,-1.849387,-1.381138E-07,NaN,0.4845736,5.722221E-08,NaN,-2.167314,3.822499E-06,-0.3449252,-2.349807E-08,NaN,NaN,-0.01995363,-2.142047E-10,6.71625E-07,-1.158177E-07,-4.208439E-09,-2.622604E-08
112.1321,0.04511337,-3.006776E-08,NaN,-1.841088,-1.381136E-07,NaN,0.4844823,5.701021E-08,NaN,-2.166327,3.823212E-06,-0.3443995,-2.328365E-08,NaN,NaN,-0.01995286,-2.095481E-10,6.84738E-07,-1.158193E-07,-4.208439E-09,-2.622604E-08
112.1487,0.04514541,-3.006657E-08,NaN,-1.83254,-1.381138E-07,NaN,0.4843713,5.684311E-08,NaN,-2.165374,3.823929E-06,-0.3439296,-2.311412E-08,NaN,NaN,-0.01995222,-2.095481E-10,6.978511E-07,-1.158199E-07,-7.784718E-09,-2.622604E-08
112.1641,0.04517393,-3.006538E-08,NaN,-1.823877,-1.38114E-07,NaN,0.484257,5.667386E-08,NaN,-2.164466,3.824646E-06,-0.3435017,-2.294244E-08,NaN,NaN,-0.01995167,-2.095481E-10,7.014274E-07,-1.158205E-07,-7.784718E-09,-2.622604E-08
112.1802,0.04520994,-3.006418E-08,NaN,-1.81442,-1.381141E-07,NaN,0.4841868,5.65053E-08,NaN,-2.16338,3.825363E-06,-0.3428962,-2.277145E-08,NaN,NaN,-0.01995074,-2.095481E-10,7.109641E-07,-1.15821E-07,-1.01689E-08,-2.622604E-08
112.1955,0.04520994,-3.006418E-08,NaN,-1.81442,-1.381141E-07,NaN,0.4841868,5.65053E-08,NaN,-2.16338,3.825363E-06,-0.3428962,-2.277145E-08,NaN,NaN,-0.01995074,-2.095481E-10,7.109641E-07,-1.15821E-07,-1.01689E-08,-2.622604E-08
112.2107,0.04524442,-3.006299E-08,NaN,-1.804517,-1.381138E-07,NaN,0.48408,5.629753E-08,NaN,-2.162273,3.826076E-06,-0.3423352,-2.256125E-08,NaN,NaN,-0.01994994,-2.048915E-10,7.181167E-07,-1.158225E-07,-1.255309E-08,-2.622604E-08
112.2268,0.04527498,-3.006179E-08,NaN,-1.794385,-1.381135E-07,NaN,0.4839548,5.609889E-08,NaN,-2.161203,3.826789E-06,-0.3418318,-2.236019E-08,NaN,NaN,-0.01994928,-2.002349E-10,7.276534E-07,-1.15824E-07,-1.374518E-08,-2.622604E-08
112.2424,0.04530171,-3.00606E-08,NaN,-1.784156,-1.381132E-07,NaN,0.483827,5.590572E-08,NaN,-2.160181,3.827501E-06,-0.3413722,-2.216458E-08,NaN,NaN,-0.01994871,-1.955783E-10,7.359981E-07,-1.158255E-07,-1.970565E-08,-2.622604E-08
112.2584,0.04530171,-3.00606E-08,NaN,-1.784156,-1.381132E-07,NaN,0.483827,5.590572E-08,NaN,-2.160181,3.827501E-06,-0.3413722,-2.216458E-08,NaN,NaN,-0.01994871,-1.955783E-10,7.359981E-07,-1.158255E-07,-1.970565E-08,-2.622604E-08
112.2745,0.04533599,-3.005941E-08,NaN,-1.773153,-1.38113E-07,NaN,0.4837413,5.571789E-08,NaN,-2.158984,3.828218E-06,-0.3407412,-2.197433E-08,NaN,NaN,-0.01994777,-1.955783E-10,7.443427E-07,-1.15827E-07,-2.089774E-08,-2.622604E-08
112.29,0.04536815,-3.005821E-08,NaN,-1.761722,-1.381128E-07,NaN,0.4836201,5.553392E-08,NaN,-2.157771,3.828931E-06,-0.3401574,-2.178792E-08,NaN,NaN,-0.01994698,-1.909217E-10,7.526874E-07,-1.158286E-07,-1.732146E-08,-2.622604E-08
112.3053,0.0453959,-3.005702E-08,NaN,-1.750081,-1.381126E-07,NaN,0.4834819,5.535371E-08,NaN,-2.156596,3.829643E-06,-0.3396327,-2.160528E-08,NaN,NaN,-0.01994631,-1.862651E-10,7.586479E-07,-1.158301E-07,-1.255309E-08,-2.622604E-08
112.321,0.04541959,-3.005583E-08,NaN,-1.738361,-1.381123E-07,NaN,0.483342,5.51772E-08,NaN,-2.155472,3.830356E-06,-0.3391534,-2.142635E-08,NaN,NaN,-0.01994574,-1.816085E-10,7.669926E-07,-1.158317E-07,-7.784717E-09,-2.622604E-08
112.3364,0.04541959,-3.005583E-08,NaN,-1.738361,-1.381123E-07,NaN,0.483342,5.51772E-08,NaN,-2.155472,3.830356E-06,-0.3391534,-2.142635E-08,NaN,NaN,-0.01994574,-1.816085E-10,7.669926E-07,-1.158317E-07,-7.784717E-09,-2.622604E-08
112.3514,0.04545097,-3.005463E-08,NaN,-1.725884,-1.381121E-07,NaN,0.4832418,5.500432E-08,NaN,-2.154177,3.831073E-06,-0.3385088,-2.125104E-08,NaN,NaN,-0.01994481,-1.816085E-10,7.789135E-07,-1.158332E-07,-1.01689E-08,-2.622604E-08
112.3676,0.04547967,-3.005344E-08,NaN,-1.712999,-1.381119E-07,NaN,0.4831075,5.4835E-08,NaN,-2.152868,3.831786E-06,-0.3379139,-2.107929E-08,NaN,NaN,-0.01994403,-1.769519E-10,7.872582E-07,-1.158347E-07,-7.784717E-09,-2.622604E-08
112.3833,0.04550358,-3.005225E-08,NaN,-1.699919,-1.381117E-07,NaN,0.4829576,5.466845E-08,NaN,-2.151599,3.832498E-06,-0.3373794,-2.091032E-08,NaN,NaN,-0.01994339,-1.722953E-10,7.956028E-07,-1.158362E-07,-7.784717E-09,-2.622604E-08
112.399,0.04550358,-3.005225E-08,NaN,-1.699919,-1.381117E-07,NaN,0.4829576,5.466845E-08,NaN,-2.151599,3.832498E-06,-0.3373794,-2.091032E-08,NaN,NaN,-0.01994339,-1.722953E-10,7.956028E-07,-1.158362E-07,-7.784717E-09,-2.622604E-08
112.4141,0.04553419,-3.005105E-08,NaN,-1.686018,-1.381115E-07,NaN,0.4828401,5.450535E-08,NaN,-2.150163,3.833215E-06,-0.3366955,-2.074478E-08,NaN,NaN,-0.01994244,-1.676387E-10,8.087159E-07,-1.158378E-07,-8.97681E-09,-2.622604E-08
112.4303,0.04556109,-3.004986E-08,NaN,-1.671674,-1.381113E-07,NaN,0.482688,5.43449E-08,NaN,-2.148721,3.833937E-06,-0.3360702,-2.058191E-08,NaN,NaN,-0.01994165,-1.676387E-10,8.170605E-07,-1.158393E-07,-6.592624E-09,-2.622604E-08
112.4462,0.04558603,-3.004866E-08,NaN,-1.657123,-1.381111E-07,NaN,0.482518,5.418776E-08,NaN,-2.147328,3.834654E-06,-0.3355108,-2.042234E-08,NaN,NaN,-0.01994101,-1.62982E-10,8.277894E-07,-1.158408E-07,-7.784717E-09,-2.622604E-08
112.4617,0.04560915,-3.004747E-08,NaN,-1.642509,-1.381109E-07,NaN,0.4823458,5.403317E-08,NaN,-2.145997,3.835371E-06,-0.3350019,-2.026533E-08,NaN,NaN,-0.01994046,-1.583254E-10,8.373261E-07,-1.158423E-07,-1.374518E-08,-2.622604E-08
112.4774,0.04560915,-3.004747E-08,NaN,-1.642509,-1.381109E-07,NaN,0.4823458,5.403317E-08,NaN,-2.145997,3.835371E-06,-0.3350019,-2.026533E-08,NaN,NaN,-0.01994046,-1.583254E-10,8.373261E-07,-1.158423E-07,-1.374518E-08,-2.622604E-08
112.4923,0.0456365,-3.004628E-08,NaN,-1.627159,-1.381107E-07,NaN,0.4822138,5.388178E-08,NaN,-2.144503,3.836089E-06,-0.3343406,-2.011151E-08,NaN,NaN,-0.01993959,-1.536688E-10,8.504392E-07,-1.158438E-07,-1.255309E-08,-2.622604E-08
112.5088,0.04566345,-3.004508E-08,NaN,-1.611428,-1.381105E-07,NaN,0.4820473,5.373353E-08,NaN,-2.143002,3.83681E-06,-0.3337343,-1.996083E-08,NaN,NaN,-0.01993887,-1.536688E-10,8.552075E-07,-1.158453E-07,-1.1361E-08,-2.622604E-08
112.5245,0.04568902,-3.004389E-08,NaN,-1.595534,-1.381103E-07,NaN,0.4818641,5.358693E-08,NaN,-2.141549,3.837527E-06,-0.3331914,-1.981181E-08,NaN,NaN,-0.01993829,-1.490122E-10,8.599759E-07,-1.158468E-07,-8.97681E-09,-2.622604E-08
112.5401,0.04571353,-3.00427E-08,NaN,-1.579609,-1.381101E-07,NaN,0.4816786,5.344338E-08,NaN,-2.140156,3.838245E-06,-0.3326978,-1.966583E-08,NaN,NaN,-0.0199378,-1.443556E-10,8.647443E-07,-1.158483E-07,-1.01689E-08,-2.622604E-08
112.5561,0.04571353,-3.00427E-08,NaN,-1.579609,-1.381101E-07,NaN,0.4816786,5.344338E-08,NaN,-2.140156,3.838245E-06,-0.3326978,-1.966583E-08,NaN,NaN,-0.0199378,-1.443556E-10,8.647443E-07,-1.158483E-07,-1.01689E-08,-2.622604E-08
112.5707,0.04574241,-3.00415E-08,NaN,-1.562976,-1.381099E-07,NaN,0.4815308,5.330211E-08,NaN,-2.138601,3.838962E-06,-0.3320573,-1.952213E-08,NaN,NaN,-0.019937,-1.39699E-10,8.74281E-07,-1.158497E-07,-7.784717E-09,-2.622604E-08
112.5874,0.0457706,-3.004031E-08,NaN,-1.545984,-1.381097E-07,NaN,0.4813495,5.316377E-08,NaN,-2.137039,3.839679E-06,-0.3314722,-1.938137E-08,NaN,NaN,-0.01993635,-1.350424E-10,8.838177E-07,-1.158512E-07,-1.01689E-08,-2.622604E-08
112.6027,0.04579756,-3.003911E-08,NaN,-1.528846,-1.381095E-07,NaN,0.481152,5.302761E-08,NaN,-2.135526,3.840396E-06,-0.3309502,-1.924278E-08,NaN,NaN,-0.01993585,-1.303858E-10,8.885861E-07,-1.158527E-07,-7.784717E-09,-2.622604E-08
112.6184,0.04579756,-3.003911E-08,NaN,-1.528846,-1.381095E-07,NaN,0.481152,5.302761E-08,NaN,-2.135526,3.840396E-06,-0.3309502,-1.924278E-08,NaN,NaN,-0.01993585,-1.303858E-10,8.885861E-07,-1.158527E-07,-7.784717E-09,-2.622604E-08
112.6334,0.04582346,-3.003792E-08,NaN,-1.511697,-1.381093E-07,NaN,0.4809527,5.289429E-08,NaN,-2.134074,3.841113E-06,-0.3304774,-1.910703E-08,NaN,NaN,-0.01993543,-1.257292E-10,8.921624E-07,-1.158541E-07,-8.97681E-09,-2.622604E-08
112.6502,0.04585366,-3.003673E-08,NaN,-1.493855,-1.381092E-07,NaN,0.4807885,5.276304E-08,NaN,-2.132462,3.841835E-06,-0.3298638,-1.897336E-08,NaN,NaN,-0.01993472,-1.210726E-10,9.028913E-07,-1.158556E-07,-1.1361E-08,-2.622604E-08
112.6656,0.04588309,-3.003553E-08,NaN,-1.475668,-1.38109E-07,NaN,0.4805916,5.263453E-08,NaN,-2.130845,3.842556E-06,-0.3293064,-1.884242E-08,NaN,NaN,-0.01993416,-1.16416E-10,9.100438E-07,-1.15857E-07,-1.493727E-08,-2.622604E-08
112.6815,0.04591122,-3.003434E-08,NaN,-1.457351,-1.381088E-07,NaN,0.4803795,5.250872E-08,NaN,-2.129278,3.843278E-06,-0.3288116,-1.871418E-08,NaN,NaN,-0.01993373,-1.117593E-10,9.136201E-07,-1.158585E-07,-1.612937E-08,-2.622604E-08
112.6968,0.04591122,-3.003434E-08,NaN,-1.457351,-1.381088E-07,NaN,0.4803795,5.250872E-08,NaN,-2.129278,3.843278E-06,-0.3288116,-1.871418E-08,NaN,NaN,-0.01993373,-1.117593E-10,9.136201E-07,-1.158585E-07,-1.612937E-08,-2.622604E-08
112.7121,0.04593822,-3.003315E-08,NaN,-1.439036,-1.381086E-07,NaN,0.480166,5.238483E-08,NaN,-2.127775,3.844E-06,-0.3283659,-1.858787E-08,NaN,NaN,-0.0199334,-1.071027E-10,9.171964E-07,-1.158599E-07,-2.089774E-08,-2.622604E-08
112.7282,0.04596429,-3.003195E-08,NaN,-1.420805,-1.381084E-07,NaN,0.4799567,5.226354E-08,NaN,-2.126333,3.844722E-06,-0.3279588,-1.846415E-08,NaN,NaN,-0.01993312,-1.024461E-10,9.219648E-07,-1.158614E-07,-2.208983E-08,-2.622604E-08
112.7438,0.04598957,-3.003076E-08,NaN,-1.402705,-1.381082E-07,NaN,0.4797529,5.21441E-08,NaN,-2.124946,3.845443E-06,-0.3275839,-1.834228E-08,NaN,NaN,-0.0199329,-9.77895E-11,9.279253E-07,-1.158628E-07,-2.328193E-08,-2.622604E-08
112.7596,0.04598957,-3.003076E-08,NaN,-1.402705,-1.381082E-07,NaN,0.4797529,5.21441E-08,NaN,-2.124946,3.845443E-06,-0.3275839,-1.834228E-08,NaN,NaN,-0.0199329,-9.77895E-11,9.279253E-07,-1.158628E-07,-2.328193E-08,-2.622604E-08
112.7762,0.04601415,-3.002956E-08,NaN,-1.384767,-1.38108E-07,NaN,0.4795541,5.202716E-08,NaN,-2.123609,3.846165E-06,-0.3272373,-1.822291E-08,NaN,NaN,-0.01993272,-9.313288E-11,9.279253E-07,-1.158642E-07,-2.447402E-08,-2.622604E-08
112.7911,0.04603809,-3.002837E-08,NaN,-1.367008,-1.381079E-07,NaN,0.4793596,5.191198E-08,NaN,-2.122316,3.846887E-06,-0.3269167,-1.81053E-08,NaN,NaN,-0.01993259,-8.847627E-11,9.279253E-07,-1.158657E-07,-2.208984E-08,-2.622604E-08
112.8069,0.0460564,-3.002718E-08,NaN,-1.3502,-1.381077E-07,NaN,0.4791425,5.179923E-08,NaN,-2.121283,3.847608E-06,-0.3267884,-1.799012E-08,NaN,NaN,-0.01993282,-8.381965E-11,9.195806E-07,-1.158671E-07,-2.328193E-08,-2.622604E-08
112.8225,0.04607417,-3.002598E-08,NaN,-1.33405,-1.381075E-07,NaN,0.4789643,5.168885E-08,NaN,-2.120347,3.84833E-06,-0.326659,-1.787732E-08,NaN,NaN,-0.01993299,-7.916304E-11,9.171964E-07,-1.158685E-07,-1.970565E-08,-2.622604E-08
112.8377,0.04607417,-3.002598E-08,NaN,-1.33405,-1.381075E-07,NaN,0.4789643,5.168885E-08,NaN,-2.120347,3.84833E-06,-0.326659,-1.787732E-08,NaN,NaN,-0.01993299,-7.916304E-11,9.171964E-07,-1.158685E-07,-1.970565E-08,-2.622604E-08
112.8528,0.04609206,-3.002479E-08,NaN,-1.318376,-1.381073E-07,NaN,0.4788064,5.158011E-08,NaN,-2.119444,3.849056E-06,-0.3265193,-1.776615E-08,NaN,NaN,-0.01993311,-7.916304E-11,9.136201E-07,-1.158699E-07,-1.612937E-08,-2.622604E-08
112.8691,0.04610996,-3.00236E-08,NaN,-1.303064,-1.381071E-07,NaN,0.4786553,5.147366E-08,NaN,-2.118556,3.849778E-06,-0.3263789,-1.765728E-08,NaN,NaN,-0.01993321,-7.450642E-11,9.100438E-07,-1.158713E-07,-1.1361E-08,-2.622604E-08
112.885,0.0461228,-3.00224E-08,NaN,-1.288805,-1.381069E-07,NaN,0.4784805,5.136876E-08,NaN,-2.117897,3.850504E-06,-0.3264099,-1.754996E-08,NaN,NaN,-0.01993366,-7.450642E-11,9.005071E-07,-1.158727E-07,-1.1361E-08,-2.622604E-08
112.9006,0.04613541,-3.002121E-08,NaN,-1.275256,-1.381068E-07,NaN,0.4783399,5.126539E-08,NaN,-2.117309,3.851226E-06,-0.3264275,-1.744416E-08,NaN,NaN,-0.01993402,-6.984981E-11,8.945466E-07,-1.158741E-07,-1.1361E-08,-2.622604E-08
112.9164,0.04613541,-3.002121E-08,NaN,-1.275256,-1.381068E-07,NaN,0.4783399,5.126539E-08,NaN,-2.117309,3.851226E-06,-0.3264275,-1.744416E-08,NaN,NaN,-0.01993402,-6.984981E-11,8.945466E-07,-1.158741E-07,-1.1361E-08,-2.622604E-08
112.9325,0.04614836,-3.002001E-08,NaN,-1.262203,-1.381066E-07,NaN,0.4782155,5.11635E-08,NaN,-2.116736,3.851952E-06,-0.3264264,-1.733984E-08,NaN,NaN,-0.01993432,-6.984981E-11,8.915663E-07,-1.158755E-07,-1.255309E-08,-2.622604E-08
112.9477,0.0461615,-3.001882E-08,NaN,-1.249513,-1.381064E-07,NaN,0.4780949,5.106378E-08,NaN,-2.116161,3.852674E-06,-0.3264174,-1.72377E-08,NaN,NaN,-0.0199346,-6.519319E-11,8.862019E-07,-1.158769E-07,-1.1361E-08,-2.622604E-08
112.9634,0.04616983,-3.001763E-08,NaN,-1.237866,-1.381062E-07,NaN,0.4779496,5.096619E-08,NaN,-2.115802,3.8534E-06,-0.3265709,-1.713768E-08,NaN,NaN,-0.0199352,-6.519319E-11,8.754731E-07,-1.158782E-07,-8.380768E-09,-2.622604E-08
112.979,0.04616983,-3.001763E-08,NaN,-1.237866,-1.381062E-07,NaN,0.4779496,5.096619E-08,NaN,-2.115802,3.8534E-06,-0.3265709,-1.713768E-08,NaN,NaN,-0.0199352,-6.519319E-11,8.754731E-07,-1.158782E-07,-8.380768E-09,-2.622604E-08
112.9938,0.04617803,-3.001643E-08,NaN,-1.226911,-1.38106E-07,NaN,0.4778363,5.086997E-08,NaN,-2.115504,3.854122E-06,-0.3267057,-1.703903E-08,NaN,NaN,-0.01993572,-6.053658E-11,8.671284E-07,-1.158796E-07,-8.380768E-09,-2.622604E-08
113.0102,0.04618666,-3.001524E-08,NaN,-1.216431,-1.381059E-07,NaN,0.4777379,5.077581E-08,NaN,-2.115212,3.854848E-06,-0.3268168,-1.694245E-08,NaN,NaN,-0.01993616,-6.053658E-11,8.599758E-07,-1.15881E-07,-7.784721E-09,-2.622604E-08
113.0261,0.04619558,-3.001405E-08,NaN,-1.20629,-1.381057E-07,NaN,0.4776424,5.068295E-08,NaN,-2.114911,3.855574E-06,-0.3269154,-1.684717E-08,NaN,NaN,-0.01993657,-6.053658E-11,8.546114E-07,-1.158823E-07,-8.976814E-09,-2.622604E-08
113.0418,0.04619988,-3.001285E-08,NaN,-1.197165,-1.381055E-07,NaN,0.4775221,5.059209E-08,NaN,-2.114817,3.8563E-06,-0.3271708,-1.675388E-08,NaN,NaN,-0.01993731,-6.053658E-11,8.414984E-07,-1.158837E-07,-7.784721E-09,-2.622604E-08
113.0575,0.04619988,-3.001285E-08,NaN,-1.197165,-1.381055E-07,NaN,0.4775221,5.059209E-08,NaN,-2.114817,3.8563E-06,-0.3271708,-1.675388E-08,NaN,NaN,-0.01993731,-6.053658E-11,8.414984E-07,-1.158837E-07,-7.784721E-09,-2.622604E-08
113.0723,0.04620411,-3.001166E-08,NaN,-1.188706,-1.381053E-07,NaN,0.4774331,5.050248E-08,NaN,-2.114779,3.857022E-06,-0.3274033,-1.666184E-08,NaN,NaN,-0.01993794,-5.587996E-11,8.301735E-07,-1.158851E-07,-4.208442E-09,-2.622604E-08
113.0889,0.04620884,-3.001047E-08,NaN,-1.180694,-1.381052E-07,NaN,0.4773584,5.041478E-08,NaN,-2.11474,3.857753E-06,-0.3276084,-1.657172E-08,NaN,NaN,-0.0199385,-6.519319E-11,8.212328E-07,-1.158864E-07,-3.01635E-09,-2.622604E-08
113.104,0.04621393,-3.000927E-08,NaN,-1.172994,-1.38105E-07,NaN,0.4772863,5.032898E-08,NaN,-2.114685,3.858475E-06,-0.3277971,-1.648349E-08,NaN,NaN,-0.01993902,-6.984981E-11,8.152724E-07,-1.158878E-07,-2.420303E-09,-2.622604E-08
113.12,0.04621393,-3.000927E-08,NaN,-1.172994,-1.38105E-07,NaN,0.4772863,5.032898E-08,NaN,-2.114685,3.858475E-06,-0.3277971,-1.648349E-08,NaN,NaN,-0.01993902,-6.984981E-11,8.152724E-07,-1.158878E-07,-2.420303E-09,-2.622604E-08
113.135,0.04621455,-3.000808E-08,NaN,-1.166282,-1.381048E-07,NaN,0.4771893,5.024432E-08,NaN,-2.114832,3.859192E-06,-0.3281387,-1.639641E-08,NaN,NaN,-0.01993985,-7.450642E-11,8.021593E-07,-1.158891E-07,2.348068E-09,-2.622604E-08
113.1514,0.04621517,-3.000688E-08,NaN,-1.160208,-1.381047E-07,NaN,0.4771233,5.016149E-08,NaN,-2.115028,3.859905E-06,-0.3284541,-1.631115E-08,NaN,NaN,-0.01994058,-7.916304E-11,7.932186E-07,-1.158904E-07,1.155976E-09,-2.622604E-08
113.1669,0.04621633,-3.000569E-08,NaN,-1.154555,-1.381045E-07,NaN,0.4770713,5.007974E-08,NaN,-2.115218,3.860608E-06,-0.3287387,-1.622698E-08,NaN,NaN,-0.01994123,-7.450642E-11,7.836819E-07,-1.158918E-07,2.348068E-09,-2.622604E-08
113.1827,0.04621792,-3.00045E-08,NaN,-1.149187,-1.381043E-07,NaN,0.4770218,5.000555E-08,NaN,-2.115387,3.861306E-06,-0.3290038,-1.615036E-08,NaN,NaN,-0.01994184,-6.053658E-11,7.759333E-07,-1.158931E-07,3.540161E-09,-2.861022E-08
113.1984,0.04621792,-3.00045E-08,NaN,-1.149187,-1.381043E-07,NaN,0.4770218,5.000555E-08,NaN,-2.115387,3.861306E-06,-0.3290038,-1.615036E-08,NaN,NaN,-0.01994184,-6.053658E-11,7.759333E-07,-1.158931E-07,3.540161E-09,-2.861022E-08
113.2133,0.04621517,-3.00033E-08,NaN,-1.144779,-1.381042E-07,NaN,0.476947,4.993227E-08,NaN,-2.115752,3.862019E-06,-0.3294191,-1.607465E-08,NaN,NaN,-0.01994275,-6.053658E-11,7.634163E-07,-1.158944E-07,1.155976E-09,-2.622604E-08
113.2295,0.04621243,-3.000211E-08,NaN,-1.140984,-1.38104E-07,NaN,0.4769032,4.98606E-08,NaN,-2.116162,3.862731E-06,-0.3298056,-1.600055E-08,NaN,NaN,-0.01994356,-6.053658E-11,7.491112E-07,-1.158957E-07,2.348068E-09,-2.861022E-08
113.2451,0.04621016,-3.000092E-08,NaN,-1.137583,-1.381038E-07,NaN,0.4768735,4.97905E-08,NaN,-2.116559,3.863444E-06,-0.3301584,-1.592803E-08,NaN,NaN,-0.01994428,-6.053658E-11,7.389784E-07,-1.15897E-07,5.599291E-10,-2.622604E-08
113.2611,0.04620842,-2.999972E-08,NaN,-1.13444,-1.381036E-07,NaN,0.4768462,4.972124E-08,NaN,-2.11693,3.864147E-06,-0.3304888,-1.585634E-08,NaN,NaN,-0.01994495,-5.122336E-11,7.300378E-07,-1.158983E-07,2.348068E-09,-2.861022E-08
113.2784,0.04620842,-2.999972E-08,NaN,-1.13444,-1.381036E-07,NaN,0.4768462,4.972124E-08,NaN,-2.11693,3.864147E-06,-0.3304888,-1.585634E-08,NaN,NaN,-0.01994495,-5.122336E-11,7.300378E-07,-1.158983E-07,2.348068E-09,-2.861022E-08
113.2918,0.04619835,-2.999853E-08,NaN,-1.132233,-1.381035E-07,NaN,0.4767962,4.96535E-08,NaN,-2.117491,3.86486E-06,-0.330968,-1.578617E-08,NaN,NaN,-0.01994593,-5.122336E-11,7.163287E-07,-1.158996E-07,5.3283E-09,-2.622604E-08
113.3083,0.04618485,-2.999733E-08,NaN,-1.130612,-1.381033E-07,NaN,0.4767792,4.958584E-08,NaN,-2.118091,3.865563E-06,-0.3314152,-1.571609E-08,NaN,NaN,-0.0199468,-4.191014E-11,7.038117E-07,-1.159009E-07,6.520393E-09,-2.861022E-08
113.3238,0.04617047,-2.999614E-08,NaN,-1.12936,-1.381031E-07,NaN,0.4767762,4.951967E-08,NaN,-2.118674,3.866275E-06,-0.3318261,-1.56475E-08,NaN,NaN,-0.01994758,-4.191014E-11,6.930829E-07,-1.159022E-07,5.924347E-09,-2.622604E-08
113.3392,0.04617047,-2.999614E-08,NaN,-1.12936,-1.381031E-07,NaN,0.4767762,4.951967E-08,NaN,-2.118674,3.866275E-06,-0.3318261,-1.56475E-08,NaN,NaN,-0.01994758,-4.191014E-11,6.930829E-07,-1.159022E-07,5.924347E-09,-2.622604E-08
113.3544,0.04614726,-2.999495E-08,NaN,-1.129103,-1.38103E-07,NaN,0.4767534,4.945498E-08,NaN,-2.119442,3.866978E-06,-0.3323772,-1.558038E-08,NaN,NaN,-0.01994863,-3.259691E-11,6.81162E-07,-1.159035E-07,2.348068E-09,-2.861022E-08
113.3704,0.04612134,-2.999376E-08,NaN,-1.129461,-1.381028E-07,NaN,0.4767632,4.9391E-08,NaN,-2.120238,3.867691E-06,-0.3328901,-1.551398E-08,NaN,NaN,-0.01994956,-3.259691E-11,6.674529E-07,-1.159048E-07,1.752022E-09,-2.622604E-08
113.3866,0.04609551,-2.999257E-08,NaN,-1.130196,-1.381031E-07,NaN,0.4767859,4.925938E-08,NaN,-2.121009,3.868408E-06,-0.3333622,-1.536507E-08,NaN,NaN,-0.0199504,-3.725352E-11,6.55532E-07,-1.159037E-07,5.599289E-10,-2.622604E-08
113.4019,0.04607085,-2.999138E-08,NaN,-1.131162,-1.38103E-07,NaN,0.4768093,4.912776E-08,NaN,-2.121741,3.86913E-06,-0.3338059,-1.520549E-08,NaN,NaN,-0.01995118,-4.656675E-11,6.436111E-07,-1.159022E-07,1.155975E-09,-2.622604E-08
113.4177,0.04607085,-2.999138E-08,NaN,-1.131162,-1.38103E-07,NaN,0.4768093,4.912776E-08,NaN,-2.121741,3.86913E-06,-0.3338059,-1.520549E-08,NaN,NaN,-0.01995118,-4.656675E-11,6.436111E-07,-1.159022E-07,1.155975E-09,-2.622604E-08
113.4328,0.04603852,-2.999019E-08,NaN,-1.133026,-1.381027E-07,NaN,0.4768068,4.899614E-08,NaN,-2.12265,3.869842E-06,-0.3343979,-1.503841E-08,NaN,NaN,-0.01995227,-4.656675E-11,6.263257E-07,-1.159006E-07,2.348068E-09,-2.622604E-08
113.449,0.04600466,-2.9989E-08,NaN,-1.135436,-1.381022E-07,NaN,0.4768357,4.886452E-08,NaN,-2.123587,3.870555E-06,-0.3349542,-1.486613E-08,NaN,NaN,-0.01995325,-4.656675E-11,6.144048E-07,-1.158988E-07,2.944115E-09,-2.622604E-08
113.4646,0.04597186,-2.998781E-08,NaN,-1.138172,-1.381016E-07,NaN,0.476878,4.87329E-08,NaN,-2.124498,3.871267E-06,-0.3354696,-1.469037E-08,NaN,NaN,-0.01995412,-4.656675E-11,6.048681E-07,-1.158969E-07,1.752022E-09,-2.622604E-08
113.4805,0.04594092,-2.998662E-08,NaN,-1.141097,-1.38101E-07,NaN,0.4769218,4.860128E-08,NaN,-2.125369,3.87198E-06,-0.3359557,-1.451236E-08,NaN,NaN,-0.01995493,-4.656675E-11,5.941392E-07,-1.158951E-07,1.752022E-09,-2.622604E-08
113.496,0.04594092,-2.998662E-08,NaN,-1.141097,-1.38101E-07,NaN,0.4769218,4.860128E-08,NaN,-2.125369,3.87198E-06,-0.3359557,-1.451236E-08,NaN,NaN,-0.01995493,-4.656675E-11,5.941392E-07,-1.158951E-07,1.752022E-09,-2.622604E-08
