JMolnar6/NonAnthroHands_User_Study/HandsLoggerWithURDF/tempdata/files/Reachy_PID0_JointMotion_gesture_5_25.csv
Time,r_shoulder,r_shoulder_x,r_upper_arm,r_forearm,r_wrist,r_wrist2hand,
280.5901,0.04500314,-2.147274E-08,NaN,-0.3270014,-1.362629E-07,NaN,0.4559727,-1.72034E-08,NaN,-2.148515,9.020963E-06,-0.5257872,-1.255918E-08,NaN,NaN,-0.02002794,-2.23518E-10,-4.565967E-07,-1.140532E-07,-1.923428E-08,-2.861022E-08
280.6054,0.04500314,-2.147171E-08,NaN,-0.3270014,-1.362635E-07,NaN,0.4560714,-1.704535E-08,NaN,-2.148509,9.021574E-06,-0.5258105,-1.271511E-08,NaN,NaN,-0.02002788,-2.188614E-10,-4.574907E-07,-1.140553E-07,-1.804219E-08,-2.622604E-08
280.6224,0.04500313,-2.147068E-08,NaN,-0.3270014,-1.362641E-07,NaN,0.4552618,-1.689168E-08,NaN,-2.148529,9.022179E-06,-0.5280882,-1.286666E-08,NaN,NaN,-0.020027,-2.095481E-10,-4.47656E-07,-1.140574E-07,-1.804219E-08,-2.861022E-08
280.6349,0.04500313,-2.147068E-08,NaN,-0.3270014,-1.362641E-07,NaN,0.4552618,-1.689168E-08,NaN,-2.148529,9.022179E-06,-0.5280882,-1.286666E-08,NaN,NaN,-0.020027,-2.095481E-10,-4.47656E-07,-1.140574E-07,-1.804219E-08,-2.861022E-08
280.649,0.04500313,-2.146965E-08,NaN,-0.3270014,-1.362648E-07,NaN,0.454581,-1.674232E-08,NaN,-2.148566,9.022794E-06,-0.5307282,-1.301391E-08,NaN,NaN,-0.02002751,-2.095481E-10,-4.515303E-07,-1.140595E-07,-1.923428E-08,-2.622604E-08
280.6642,0.04500312,-2.146861E-08,NaN,-0.3270014,-1.362654E-07,NaN,0.4541049,-1.659717E-08,NaN,-2.148605,9.023409E-06,-0.5333076,-1.315694E-08,NaN,NaN,-0.02002796,-2.095481E-10,-4.580868E-07,-1.140616E-07,-2.042637E-08,-2.861022E-08
280.6789,0.04500312,-2.146861E-08,NaN,-0.3270014,-1.362654E-07,NaN,0.4541049,-1.659717E-08,NaN,-2.148605,9.023409E-06,-0.5333076,-1.315694E-08,NaN,NaN,-0.02002796,-2.095481E-10,-4.580868E-07,-1.140616E-07,-2.042637E-08,-2.861022E-08
280.6929,0.04500313,-2.146758E-08,NaN,-0.3270014,-1.36266E-07,NaN,0.4546608,-1.645615E-08,NaN,-2.148613,9.024024E-06,-0.5335399,-1.329583E-08,NaN,NaN,-0.02002907,-2.095481E-10,-4.703057E-07,-1.140637E-07,-2.042637E-08,-2.622604E-08
280.7083,0.04500313,-2.146655E-08,NaN,-0.3270014,-1.362666E-07,NaN,0.4551544,-1.631778E-08,NaN,-2.148598,9.024629E-06,-0.5333322,-1.343209E-08,NaN,NaN,-0.0200287,-2.002349E-10,-4.649413E-07,-1.140657E-07,-2.161847E-08,-2.861022E-08
280.7228,0.04500313,-2.146552E-08,NaN,-0.3270014,-1.362673E-07,NaN,0.4554783,-1.61834E-08,NaN,-2.148578,9.025244E-06,-0.533123,-1.356434E-08,NaN,NaN,-0.02002835,-2.002349E-10,-4.61067E-07,-1.140678E-07,-2.161847E-08,-2.622604E-08
280.7373,0.04500313,-2.146552E-08,NaN,-0.3270014,-1.362673E-07,NaN,0.4554783,-1.61834E-08,NaN,-2.148578,9.025244E-06,-0.533123,-1.356434E-08,NaN,NaN,-0.02002835,-2.002349E-10,-4.61067E-07,-1.140678E-07,-2.161847E-08,-2.622604E-08
280.7574,0.04500313,-2.146449E-08,NaN,-0.3270014,-1.362679E-07,NaN,0.4556974,-1.605296E-08,NaN,-2.14856,9.025864E-06,-0.5329534,-1.369267E-08,NaN,NaN,-0.02002813,-2.048915E-10,-4.589808E-07,-1.140699E-07,-2.281056E-08,-2.861022E-08
280.7676,0.04500314,-2.146345E-08,NaN,-0.3270013,-1.362685E-07,NaN,0.4567703,-1.592636E-08,NaN,-2.148519,9.026478E-06,-0.5305568,-1.381715E-08,NaN,NaN,-0.02002881,-2.048915E-10,-4.661334E-07,-1.14072E-07,-2.161847E-08,-2.622604E-08
280.7813,0.04500315,-2.146242E-08,NaN,-0.3270013,-1.362691E-07,NaN,0.457688,-1.580352E-08,NaN,-2.148462,9.027098E-06,-0.5278108,-1.393787E-08,NaN,NaN,-0.02002815,-2.095481E-10,-4.583848E-07,-1.14074E-07,-1.923428E-08,-2.861022E-08
280.7961,0.04500315,-2.146242E-08,NaN,-0.3270013,-1.362691E-07,NaN,0.457688,-1.580352E-08,NaN,-2.148462,9.027098E-06,-0.5278108,-1.393787E-08,NaN,NaN,-0.02002815,-2.095481E-10,-4.583848E-07,-1.14074E-07,-1.923428E-08,-2.861022E-08
280.8101,0.04500315,-2.146139E-08,NaN,-0.3270013,-1.362702E-07,NaN,0.4583866,-1.558729E-08,NaN,-2.148405,9.027713E-06,-0.5251322,-1.415199E-08,NaN,NaN,-0.02002757,-2.095481E-10,-4.503382E-07,-1.140751E-07,-1.804219E-08,-2.622604E-08
280.8251,0.04500316,-2.146036E-08,NaN,-0.3270013,-1.362712E-07,NaN,0.4589516,-1.539066E-08,NaN,-2.148354,9.028332E-06,-0.522551,-1.43465E-08,NaN,NaN,-0.02002715,-2.142047E-10,-4.425896E-07,-1.140761E-07,-1.804219E-08,-2.861022E-08
280.84,0.04500316,-2.146036E-08,NaN,-0.3270013,-1.362712E-07,NaN,0.4589516,-1.539066E-08,NaN,-2.148354,9.028332E-06,-0.522551,-1.43465E-08,NaN,NaN,-0.02002715,-2.142047E-10,-4.425896E-07,-1.140761E-07,-1.804219E-08,-2.861022E-08
280.8539,0.04500317,-2.145932E-08,NaN,-0.3270013,-1.362721E-07,NaN,0.4603507,-1.519776E-08,NaN,-2.148283,9.02896E-06,-0.5177922,-1.453729E-08,NaN,NaN,-0.02002764,-2.281746E-10,-4.506362E-07,-1.140772E-07,-1.923428E-08,-2.622604E-08
280.8693,0.04500318,-2.145829E-08,NaN,-0.3270013,-1.362726E-07,NaN,0.4615781,-1.511407E-08,NaN,-2.148197,9.02958E-06,-0.5127337,-1.461887E-08,NaN,NaN,-0.0200268,-2.328312E-10,-4.399074E-07,-1.140791E-07,-1.68501E-08,-2.861022E-08
280.8838,0.04500318,-2.145726E-08,NaN,-0.3270013,-1.362731E-07,NaN,0.4625727,-1.502204E-08,NaN,-2.148111,9.030195E-06,-0.5077898,-1.470878E-08,NaN,NaN,-0.02002604,-2.328312E-10,-4.303706E-07,-1.140811E-07,-1.5658E-08,-2.622604E-08
280.8986,0.04500318,-2.145726E-08,NaN,-0.3270013,-1.362731E-07,NaN,0.4625727,-1.502204E-08,NaN,-2.148111,9.030195E-06,-0.5077898,-1.470878E-08,NaN,NaN,-0.02002604,-2.328312E-10,-4.303706E-07,-1.140811E-07,-1.5658E-08,-2.622604E-08
280.9129,0.04500319,-2.145623E-08,NaN,-0.3270013,-1.362737E-07,NaN,0.4643283,-1.492888E-08,NaN,-2.148008,9.030809E-06,-0.5007296,-1.479981E-08,NaN,NaN,-0.02002625,-2.328312E-10,-4.330529E-07,-1.14083E-07,-1.68501E-08,-2.861022E-08
280.9283,0.04500321,-2.14552E-08,NaN,-0.3270012,-1.362743E-07,NaN,0.465867,-1.483603E-08,NaN,-2.147889,9.031433E-06,-0.4934308,-1.489055E-08,NaN,NaN,-0.0200252,-2.421444E-10,-4.199399E-07,-1.14085E-07,-1.68501E-08,-2.622604E-08
280.9427,0.04500321,-2.145417E-08,NaN,-0.3270012,-1.362749E-07,NaN,0.4671462,-1.474347E-08,NaN,-2.147774,9.032048E-06,-0.4862992,-1.498099E-08,NaN,NaN,-0.02002426,-2.421444E-10,-4.077209E-07,-1.14087E-07,-1.5658E-08,-2.861022E-08
280.9575,0.04500321,-2.145417E-08,NaN,-0.3270012,-1.362749E-07,NaN,0.4671462,-1.474347E-08,NaN,-2.147774,9.032048E-06,-0.4862992,-1.498099E-08,NaN,NaN,-0.02002426,-2.421444E-10,-4.077209E-07,-1.14087E-07,-1.5658E-08,-2.861022E-08
280.9714,0.04500322,-2.145314E-08,NaN,-0.3270012,-1.362755E-07,NaN,0.468262,-1.465262E-08,NaN,-2.147669,9.032658E-06,-0.4793572,-1.506972E-08,NaN,NaN,-0.0200235,-2.374878E-10,-3.978861E-07,-1.14089E-07,-1.327382E-08,-2.622604E-08
280.9869,0.04500324,-2.145211E-08,NaN,-0.3270012,-1.362761E-07,NaN,0.470187,-1.456485E-08,NaN,-2.147547,9.033278E-06,-0.470317,-1.515538E-08,NaN,NaN,-0.02002361,-2.421444E-10,-3.981842E-07,-1.14091E-07,-1.208172E-08,-2.861022E-08
281.0012,0.04500325,-2.145108E-08,NaN,-0.3270012,-1.362767E-07,NaN,0.4719121,-1.447867E-08,NaN,-2.147411,9.033897E-06,-0.4610681,-1.523944E-08,NaN,NaN,-0.02002245,-2.46801E-10,-3.82836E-07,-1.14093E-07,-1.208172E-08,-2.622604E-08
281.016,0.04500325,-2.145108E-08,NaN,-0.3270012,-1.362767E-07,NaN,0.4719121,-1.447867E-08,NaN,-2.147411,9.033897E-06,-0.4610681,-1.523944E-08,NaN,NaN,-0.02002245,-2.46801E-10,-3.82836E-07,-1.14093E-07,-1.208172E-08,-2.622604E-08
281.0321,0.04500326,-2.145005E-08,NaN,-0.3270012,-1.362773E-07,NaN,0.4733816,-1.439548E-08,NaN,-2.147277,9.034507E-06,-0.4520195,-1.532052E-08,NaN,NaN,-0.02002138,-2.421444E-10,-3.691269E-07,-1.14095E-07,-1.327382E-08,-2.861022E-08
281.0464,0.04500327,-2.144902E-08,NaN,-0.3270012,-1.362778E-07,NaN,0.474685,-1.43152E-08,NaN,-2.147153,9.035118E-06,-0.4431952,-1.539868E-08,NaN,NaN,-0.02002048,-2.374878E-10,-3.554178E-07,-1.14097E-07,-1.208172E-08,-2.622604E-08
281.0612,0.04500328,-2.144799E-08,NaN,-0.3270011,-1.362784E-07,NaN,0.476792,-1.423638E-08,NaN,-2.147015,9.035728E-06,-0.4323019,-1.547539E-08,NaN,NaN,-0.02002041,-2.328312E-10,-3.534807E-07,-1.140989E-07,-1.088963E-08,-2.861022E-08
281.0746,0.04500328,-2.144799E-08,NaN,-0.3270011,-1.362784E-07,NaN,0.476792,-1.423638E-08,NaN,-2.147015,9.035728E-06,-0.4323019,-1.547539E-08,NaN,NaN,-0.02002041,-2.328312E-10,-3.534807E-07,-1.140989E-07,-1.088963E-08,-2.861022E-08
281.0885,0.0450033,-2.144696E-08,NaN,-0.3270011,-1.362784E-07,NaN,0.4786876,-1.452861E-08,NaN,-2.146862,9.036338E-06,-0.4212404,-1.518103E-08,NaN,NaN,-0.02001913,-2.328312E-10,-3.360463E-07,-1.140987E-07,-9.69754E-09,-2.622604E-08
281.1037,0.04500331,-2.144593E-08,NaN,-0.3270011,-1.362776E-07,NaN,0.480319,-1.482993E-08,NaN,-2.146713,9.036939E-06,-0.4104168,-1.487758E-08,NaN,NaN,-0.02001794,-2.281746E-10,-3.19357E-07,-1.140978E-07,-9.69754E-09,-2.861022E-08
281.1183,0.04500331,-2.144593E-08,NaN,-0.3270011,-1.362776E-07,NaN,0.480319,-1.482993E-08,NaN,-2.146713,9.036939E-06,-0.4104168,-1.487758E-08,NaN,NaN,-0.02001794,-2.281746E-10,-3.19357E-07,-1.140978E-07,-9.69754E-09,-2.861022E-08
281.1325,0.04500333,-2.14449E-08,NaN,-0.327001,-1.362762E-07,NaN,0.4826838,-1.512706E-08,NaN,-2.146552,9.037539E-06,-0.3975762,-1.457832E-08,NaN,NaN,-0.02001761,-2.23518E-10,-3.177179E-07,-1.140965E-07,-9.69754E-09,-2.622604E-08
281.1478,0.04500334,-2.144387E-08,NaN,-0.327001,-1.362746E-07,NaN,0.4847939,-1.541933E-08,NaN,-2.146379,9.038149E-06,-0.3846237,-1.42839E-08,NaN,NaN,-0.02001617,-2.281746E-10,-2.976758E-07,-1.14095E-07,-1.208173E-08,-2.861022E-08
281.1625,0.04500336,-2.144284E-08,NaN,-0.327001,-1.362727E-07,NaN,0.486616,-1.570638E-08,NaN,-2.146214,9.038749E-06,-0.3719555,-1.399469E-08,NaN,NaN,-0.02001487,-2.23518E-10,-2.786769E-07,-1.140934E-07,-1.327382E-08,-2.622604E-08
281.1776,0.04500336,-2.144284E-08,NaN,-0.327001,-1.362727E-07,NaN,0.486616,-1.570638E-08,NaN,-2.146214,9.038749E-06,-0.3719555,-1.399469E-08,NaN,NaN,-0.02001487,-2.23518E-10,-2.786769E-07,-1.140934E-07,-1.327382E-08,-2.622604E-08
281.1913,0.04500337,-2.14418E-08,NaN,-0.3270009,-1.362708E-07,NaN,0.4882503,-1.598806E-08,NaN,-2.146061,9.03936E-06,-0.3595874,-1.371084E-08,NaN,NaN,-0.02001375,-2.281746E-10,-2.61019E-07,-1.140918E-07,-1.327382E-08,-2.861022E-08
281.2069,0.04500339,-2.144077E-08,NaN,-0.3270009,-1.362688E-07,NaN,0.4906703,-1.626435E-08,NaN,-2.1459,9.03996E-06,-0.3452077,-1.343238E-08,NaN,NaN,-0.02001336,-2.23518E-10,-2.578152E-07,-1.140901E-07,-1.088963E-08,-2.622604E-08
281.2213,0.04500341,-2.143974E-08,NaN,-0.3270009,-1.362668E-07,NaN,0.4928542,-1.653528E-08,NaN,-2.145728,9.04057E-06,-0.3307396,-1.315928E-08,NaN,NaN,-0.02001193,-2.281746E-10,-2.364693E-07,-1.140884E-07,-1.088963E-08,-2.861022E-08
281.2361,0.04500341,-2.143974E-08,NaN,-0.3270009,-1.362668E-07,NaN,0.4928542,-1.653528E-08,NaN,-2.145728,9.04057E-06,-0.3307396,-1.315928E-08,NaN,NaN,-0.02001193,-2.281746E-10,-2.364693E-07,-1.140884E-07,-1.088963E-08,-2.861022E-08
281.25,0.04500343,-2.143872E-08,NaN,-0.3270009,-1.362648E-07,NaN,0.4947572,-1.680088E-08,NaN,-2.145564,9.04117E-06,-0.3165816,-1.28915E-08,NaN,NaN,-0.02001062,-2.23518E-10,-2.153842E-07,-1.140867E-07,-1.446591E-08,-2.622604E-08
281.2654,0.04500344,-2.143769E-08,NaN,-0.3270008,-1.362627E-07,NaN,0.4964735,-1.706125E-08,NaN,-2.145413,9.041781E-06,-0.3027505,-1.262894E-08,NaN,NaN,-0.02000948,-2.281746E-10,-1.984434E-07,-1.14085E-07,-1.327382E-08,-2.861022E-08
281.2802,0.04500346,-2.143666E-08,NaN,-0.3270008,-1.362607E-07,NaN,0.4989734,-1.731648E-08,NaN,-2.145256,9.042381E-06,-0.2869272,-1.237152E-08,NaN,NaN,-0.020009,-2.23518E-10,-1.896471E-07,-1.140833E-07,-1.327382E-08,-2.622604E-08
281.2968,0.04500346,-2.143666E-08,NaN,-0.3270008,-1.362607E-07,NaN,0.4989734,-1.731648E-08,NaN,-2.145256,9.042381E-06,-0.2869272,-1.237152E-08,NaN,NaN,-0.020009,-2.23518E-10,-1.896471E-07,-1.140833E-07,-1.327382E-08,-2.622604E-08
281.3109,0.04500348,-2.143563E-08,NaN,-0.3270008,-1.362587E-07,NaN,0.5012286,-1.756661E-08,NaN,-2.145092,9.042991E-06,-0.2710496,-1.21192E-08,NaN,NaN,-0.02000762,-2.281746E-10,-1.653582E-07,-1.140816E-07,-9.69754E-09,-2.861022E-08
281.3239,0.0450035,-2.14346E-08,NaN,-0.3270007,-1.362566E-07,NaN,0.503198,-1.78118E-08,NaN,-2.144936,9.043591E-06,-0.2555125,-1.187182E-08,NaN,NaN,-0.02000637,-2.23518E-10,-1.396909E-07,-1.140799E-07,-9.69754E-09,-2.622604E-08
281.3387,0.0450035,-2.14346E-08,NaN,-0.3270007,-1.362566E-07,NaN,0.503198,-1.78118E-08,NaN,-2.144936,9.043591E-06,-0.2555125,-1.187182E-08,NaN,NaN,-0.02000637,-2.23518E-10,-1.396909E-07,-1.140799E-07,-9.69754E-09,-2.622604E-08
281.3528,0.04500352,-2.143357E-08,NaN,-0.3270007,-1.362546E-07,NaN,0.5058839,-1.805209E-08,NaN,-2.144777,9.044202E-06,-0.2380304,-1.162934E-08,NaN,NaN,-0.02000577,-2.281746E-10,-1.259073E-07,-1.140782E-07,-1.208173E-08,-2.861022E-08
281.3681,0.04500354,-2.143254E-08,NaN,-0.3270007,-1.362526E-07,NaN,0.5082854,-1.828762E-08,NaN,-2.144614,9.044802E-06,-0.2205454,-1.139161E-08,NaN,NaN,-0.02000444,-2.23518E-10,-9.893625E-08,-1.140766E-07,-1.5658E-08,-2.622604E-08
281.3827,0.04500356,-2.143152E-08,NaN,-0.3270006,-1.362506E-07,NaN,0.5103811,-1.851846E-08,NaN,-2.144464,9.045412E-06,-0.2034416,-1.115858E-08,NaN,NaN,-0.02000327,-2.281746E-10,-7.278471E-08,-1.140749E-07,-1.5658E-08,-2.861022E-08
281.3975,0.04500356,-2.143152E-08,NaN,-0.3270006,-1.362506E-07,NaN,0.5103811,-1.851846E-08,NaN,-2.144464,9.045412E-06,-0.2034416,-1.115858E-08,NaN,NaN,-0.02000327,-2.281746E-10,-7.278471E-08,-1.140749E-07,-1.5658E-08,-2.861022E-08
281.4114,0.04500358,-2.143049E-08,NaN,-0.3270006,-1.362486E-07,NaN,0.5122756,-1.874468E-08,NaN,-2.14433,9.046013E-06,-0.1867272,-1.093015E-08,NaN,NaN,-0.02000228,-2.23518E-10,-5.102901E-08,-1.140732E-07,-1.208173E-08,-2.622604E-08
281.427,0.04500361,-2.142946E-08,NaN,-0.3270006,-1.362466E-07,NaN,0.5149426,-1.896639E-08,NaN,-2.144198,9.046623E-06,-0.1680659,-1.070625E-08,NaN,NaN,-0.02000177,-2.281746E-10,-3.851204E-08,-1.140715E-07,-1.088963E-08,-2.861022E-08
281.4416,0.04500363,-2.142843E-08,NaN,-0.3270006,-1.362446E-07,NaN,0.5173476,-1.918371E-08,NaN,-2.144066,9.047223E-06,-0.1494177,-1.048673E-08,NaN,NaN,-0.02000072,-2.23518E-10,-7.666635E-09,-1.140699E-07,-1.327382E-08,-2.622604E-08
281.4562,0.04500363,-2.142843E-08,NaN,-0.3270006,-1.362446E-07,NaN,0.5173476,-1.918371E-08,NaN,-2.144066,9.047223E-06,-0.1494177,-1.048673E-08,NaN,NaN,-0.02000072,-2.23518E-10,-7.666635E-09,-1.140699E-07,-1.327382E-08,-2.622604E-08
281.4703,0.04500365,-2.14274E-08,NaN,-0.3270005,-1.362426E-07,NaN,0.5194573,-1.939668E-08,NaN,-2.143946,9.047833E-06,-0.1311695,-1.027156E-08,NaN,NaN,-0.01999983,-2.281746E-10,1.97515E-08,-1.140682E-07,-1.5658E-08,-2.861022E-08
281.4856,0.04500367,-2.142637E-08,NaN,-0.3270005,-1.362406E-07,NaN,0.5213702,-1.96054E-08,NaN,-2.143843,9.048434E-06,-0.113331,-1.006065E-08,NaN,NaN,-0.01999911,-2.23518E-10,4.612656E-08,-1.140666E-07,-1.327382E-08,-2.622604E-08
281.5004,0.0450037,-2.142535E-08,NaN,-0.3270005,-1.362386E-07,NaN,0.5240567,-1.980997E-08,NaN,-2.143746,9.049044E-06,-0.09356132,-9.853876E-09,NaN,NaN,-0.01999874,-2.281746E-10,5.685539E-08,-1.140649E-07,-9.697541E-09,-2.861022E-08
281.5149,0.0450037,-2.142535E-08,NaN,-0.3270005,-1.362386E-07,NaN,0.5240567,-1.980997E-08,NaN,-2.143746,9.049044E-06,-0.09356132,-9.853876E-09,NaN,NaN,-0.01999874,-2.281746E-10,5.685539E-08,-1.140649E-07,-9.697541E-09,-2.861022E-08
281.5304,0.04500372,-2.142432E-08,NaN,-0.3270004,-1.362366E-07,NaN,0.5264776,-2.001049E-08,NaN,-2.143651,9.049644E-06,-0.07383077,-9.651158E-09,NaN,NaN,-0.01999807,-2.23518E-10,8.90419E-08,-1.140633E-07,-9.697541E-09,-2.622604E-08
281.5444,0.04500374,-2.142329E-08,NaN,-0.3270004,-1.362347E-07,NaN,0.5286022,-2.0207E-08,NaN,-2.143571,9.050254E-06,-0.05452347,-9.452454E-09,NaN,NaN,-0.01999756,-2.281746E-10,1.188442E-07,-1.140616E-07,-8.505448E-09,-2.861022E-08
281.5589,0.04500374,-2.142329E-08,NaN,-0.3270004,-1.362347E-07,NaN,0.5286022,-2.0207E-08,NaN,-2.143571,9.050254E-06,-0.05452347,-9.452454E-09,NaN,NaN,-0.01999756,-2.281746E-10,1.188442E-07,-1.140616E-07,-8.505448E-09,-2.861022E-08
281.575,0.04500377,-2.142226E-08,NaN,-0.3270004,-1.362327E-07,NaN,0.5314358,-2.039957E-08,NaN,-2.143499,9.050855E-06,-0.03333188,-9.257684E-09,NaN,NaN,-0.01999733,-2.23518E-10,1.358315E-07,-1.1406E-07,-7.313355E-09,-2.622604E-08
281.5892,0.0450038,-2.142123E-08,NaN,-0.3270003,-1.362308E-07,NaN,0.5339698,-2.058832E-08,NaN,-2.143433,9.051465E-06,-0.01222392,-9.066735E-09,NaN,NaN,-0.01999703,-2.281746E-10,1.730844E-07,-1.140584E-07,-9.697541E-09,-2.861022E-08
281.6028,0.04500382,-2.142021E-08,NaN,-0.3270003,-1.362288E-07,NaN,0.5361913,-2.077328E-08,NaN,-2.143384,9.052065E-06,0.008425688,-8.879569E-09,NaN,NaN,-0.01999689,-2.23518E-10,2.06463E-07,-1.140568E-07,-1.446591E-08,-2.622604E-08
281.6174,0.04500382,-2.142021E-08,NaN,-0.3270003,-1.362288E-07,NaN,0.5361913,-2.077328E-08,NaN,-2.143384,9.052065E-06,0.008425688,-8.879569E-09,NaN,NaN,-0.01999689,-2.23518E-10,2.06463E-07,-1.140568E-07,-1.446591E-08,-2.622604E-08
281.6314,0.04500384,-2.141918E-08,NaN,-0.3270003,-1.362269E-07,NaN,0.5382077,-2.095454E-08,NaN,-2.143355,9.052676E-06,0.02861409,-8.69611E-09,NaN,NaN,-0.0199969,-2.281746E-10,2.341792E-07,-1.140552E-07,-1.208173E-08,-2.861022E-08
281.6467,0.04500387,-2.141815E-08,NaN,-0.3270003,-1.362249E-07,NaN,0.5409915,-2.11322E-08,NaN,-2.143339,9.053276E-06,0.05068965,-8.516253E-09,NaN,NaN,-0.01999701,-2.23518E-10,2.538487E-07,-1.140535E-07,-7.313354E-09,-2.622604E-08
281.6614,0.0450039,-2.141713E-08,NaN,-0.3270002,-1.36223E-07,NaN,0.5435041,-2.130629E-08,NaN,-2.143333,9.053876E-06,0.07267544,-8.339961E-09,NaN,NaN,-0.01999733,-2.188613E-10,2.911016E-07,-1.140519E-07,-6.121262E-09,-2.861022E-08
281.6761,0.0450039,-2.141713E-08,NaN,-0.3270002,-1.36223E-07,NaN,0.5435041,-2.130629E-08,NaN,-2.143333,9.053876E-06,0.07267544,-8.339961E-09,NaN,NaN,-0.01999733,-2.188613E-10,2.911016E-07,-1.140519E-07,-6.121262E-09,-2.861022E-08
281.6898,0.04500392,-2.14161E-08,NaN,-0.3270002,-1.362211E-07,NaN,0.5457177,-2.147689E-08,NaN,-2.143344,9.054476E-06,0.09419122,-8.167164E-09,NaN,NaN,-0.01999779,-2.142047E-10,3.223941E-07,-1.140503E-07,-2.544983E-09,-2.622604E-08
281.7054,0.04500395,-2.141507E-08,NaN,-0.3270002,-1.362191E-07,NaN,0.5477325,-2.164406E-08,NaN,-2.143374,9.055077E-06,0.1152311,-7.997793E-09,NaN,NaN,-0.01999835,-2.095481E-10,3.527924E-07,-1.140488E-07,-4.929169E-09,-2.861022E-08
281.7201,0.04500398,-2.141405E-08,NaN,-0.3270001,-1.362172E-07,NaN,0.5505174,-2.180791E-08,NaN,-2.143421,9.055677E-06,0.1381403,-7.831746E-09,NaN,NaN,-0.01999886,-2.048915E-10,3.72462E-07,-1.140472E-07,-2.544983E-09,-2.622604E-08
281.7349,0.04500398,-2.141405E-08,NaN,-0.3270001,-1.362172E-07,NaN,0.5505174,-2.180791E-08,NaN,-2.143421,9.055677E-06,0.1381403,-7.831746E-09,NaN,NaN,-0.01999886,-2.048915E-10,3.72462E-07,-1.140472E-07,-2.544983E-09,-2.622604E-08
281.749,0.045004,-2.141302E-08,NaN,-0.3270001,-1.362153E-07,NaN,0.5530344,-2.196846E-08,NaN,-2.14348,9.056277E-06,0.1609443,-7.668993E-09,NaN,NaN,-0.01999984,-2.002349E-10,4.082247E-07,-1.140456E-07,-3.737076E-09,-2.861022E-08
281.7643,0.04500403,-2.1412E-08,NaN,-0.3270001,-1.362134E-07,NaN,0.5552546,-2.212579E-08,NaN,-2.143556,9.056877E-06,0.1832627,-7.509469E-09,NaN,NaN,-0.02000095,-1.955783E-10,4.445836E-07,-1.14044E-07,-2.544984E-09,-2.622604E-08
281.7787,0.04500403,-2.1412E-08,NaN,-0.3270001,-1.362134E-07,NaN,0.5552546,-2.212579E-08,NaN,-2.143556,9.056877E-06,0.1832627,-7.509469E-09,NaN,NaN,-0.02000095,-1.955783E-10,4.445836E-07,-1.14044E-07,-2.544984E-09,-2.622604E-08
281.7929,0.04500406,-2.141097E-08,NaN,-0.3270001,-1.362115E-07,NaN,0.5581819,-2.227998E-08,NaN,-2.143651,9.057483E-06,0.2074003,-7.353076E-09,NaN,NaN,-0.02000183,-1.955783E-10,4.642531E-07,-1.140424E-07,-2.544984E-09,-2.861022E-08
281.8081,0.04500409,-2.140995E-08,NaN,-0.327,-1.362096E-07,NaN,0.5608129,-2.243107E-08,NaN,-2.143762,9.058083E-06,0.231397,-7.199788E-09,NaN,NaN,-0.02000338,-1.909217E-10,5.029961E-07,-1.140409E-07,1.031295E-09,-2.622604E-08
281.8226,0.04500412,-2.140892E-08,NaN,-0.327,-1.362077E-07,NaN,0.5631332,-2.257911E-08,NaN,-2.143889,9.058684E-06,0.2548786,-7.049543E-09,NaN,NaN,-0.02000502,-1.862651E-10,5.369707E-07,-1.140393E-07,1.031295E-09,-2.861022E-08
281.8373,0.04500412,-2.140892E-08,NaN,-0.327,-1.362077E-07,NaN,0.5631332,-2.257911E-08,NaN,-2.143889,9.058684E-06,0.2548786,-7.049543E-09,NaN,NaN,-0.02000502,-1.862651E-10,5.369707E-07,-1.140393E-07,1.031295E-09,-2.861022E-08
281.8532,0.04500414,-2.14079E-08,NaN,-0.327,-1.362059E-07,NaN,0.5652484,-2.272421E-08,NaN,-2.144035,9.059284E-06,0.2778424,-6.902247E-09,NaN,NaN,-0.02000669,-1.816085E-10,5.697533E-07,-1.140378E-07,-1.352891E-09,-2.622604E-08
281.8676,0.04500418,-2.140687E-08,NaN,-0.3269999,-1.36204E-07,NaN,0.5681293,-2.286638E-08,NaN,-2.144203,9.059884E-06,0.3026231,-6.757878E-09,NaN,NaN,-0.02000797,-1.769519E-10,5.888268E-07,-1.140362E-07,-1.607978E-10,-2.861022E-08
281.8813,0.04500421,-2.140585E-08,NaN,-0.3269999,-1.362021E-07,NaN,0.5707491,-2.300568E-08,NaN,-2.144387,9.060484E-06,0.3272688,-6.616377E-09,NaN,NaN,-0.02001017,-1.722953E-10,6.281658E-07,-1.140347E-07,4.607574E-09,-2.622604E-08
281.896,0.04500421,-2.140585E-08,NaN,-0.3269999,-1.362021E-07,NaN,0.5707491,-2.300568E-08,NaN,-2.144387,9.060484E-06,0.3272688,-6.616377E-09,NaN,NaN,-0.02001017,-1.722953E-10,6.281658E-07,-1.140347E-07,4.607574E-09,-2.622604E-08
281.9102,0.04500423,-2.140482E-08,NaN,-0.3269999,-1.362003E-07,NaN,0.5730734,-2.31422E-08,NaN,-2.144588,9.06109E-06,0.3513954,-6.477654E-09,NaN,NaN,-0.02001241,-1.722953E-10,6.657168E-07,-1.140331E-07,2.223388E-09,-2.861022E-08
281.9251,0.04500426,-2.14038E-08,NaN,-0.3269998,-1.361984E-07,NaN,0.5751987,-2.327597E-08,NaN,-2.144804,9.06169E-06,0.3749948,-6.341689E-09,NaN,NaN,-0.02001463,-1.676387E-10,6.973072E-07,-1.140316E-07,1.031295E-09,-2.622604E-08
281.9399,0.04500426,-2.14038E-08,NaN,-0.3269998,-1.361984E-07,NaN,0.5751987,-2.327597E-08,NaN,-2.144804,9.06169E-06,0.3749948,-6.341689E-09,NaN,NaN,-0.02001463,-1.676387E-10,6.973072E-07,-1.140316E-07,1.031295E-09,-2.622604E-08
281.9538,0.04500429,-2.140277E-08,NaN,-0.3269998,-1.361966E-07,NaN,0.577188,-2.340703E-08,NaN,-2.145035,9.062296E-06,0.3980971,-6.208428E-09,NaN,NaN,-0.02001685,-1.676387E-10,7.259174E-07,-1.140301E-07,2.223388E-09,-2.861022E-08
281.9692,0.04500431,-2.140175E-08,NaN,-0.3269998,-1.361947E-07,NaN,0.5790737,-2.353547E-08,NaN,-2.145278,9.062902E-06,0.420726,-6.077784E-09,NaN,NaN,-0.02001909,-1.676387E-10,7.575078E-07,-1.140285E-07,1.031295E-09,-2.622604E-08
281.9852,0.04500433,-2.140072E-08,NaN,-0.3269998,-1.361929E-07,NaN,0.5808715,-2.366131E-08,NaN,-2.145534,9.063508E-06,0.4428979,-5.949738E-09,NaN,NaN,-0.02002136,-1.676387E-10,7.84926E-07,-1.14027E-07,1.031295E-09,-2.861022E-08
281.9986,0.04500433,-2.140072E-08,NaN,-0.3269998,-1.361929E-07,NaN,0.5808715,-2.366131E-08,NaN,-2.145534,9.063508E-06,0.4428979,-5.949738E-09,NaN,NaN,-0.02002136,-1.676387E-10,7.84926E-07,-1.14027E-07,1.031295E-09,-2.861022E-08
282.0127,0.04500435,-2.13997E-08,NaN,-0.3269998,-1.36191E-07,NaN,0.5816864,-2.378461E-08,NaN,-2.145789,9.064113E-06,0.4623456,-5.824242E-09,NaN,NaN,-0.02002431,-1.676387E-10,8.212848E-07,-1.140255E-07,3.415481E-09,-2.622604E-08
282.028,0.04500436,-2.139868E-08,NaN,-0.3269997,-1.361892E-07,NaN,0.5825678,-2.390544E-08,NaN,-2.146047,9.064714E-06,0.4810159,-5.701209E-09,NaN,NaN,-0.02002609,-1.62982E-10,8.36186E-07,-1.14024E-07,4.607574E-09,-2.861022E-08
282.0428,0.04500438,-2.139766E-08,NaN,-0.3269997,-1.361874E-07,NaN,0.5835812,-2.402386E-08,NaN,-2.14631,9.065314E-06,0.4993283,-5.580591E-09,NaN,NaN,-0.02002793,-1.583254E-10,8.516832E-07,-1.140225E-07,1.031295E-09,-2.622604E-08
282.0573,0.04500438,-2.139766E-08,NaN,-0.3269997,-1.361874E-07,NaN,0.5835812,-2.402386E-08,NaN,-2.14631,9.065314E-06,0.4993283,-5.580591E-09,NaN,NaN,-0.02002793,-1.583254E-10,8.516832E-07,-1.140225E-07,1.031295E-09,-2.622604E-08
282.0713,0.0450044,-2.139663E-08,NaN,-0.3269997,-1.361856E-07,NaN,0.5846456,-2.413988E-08,NaN,-2.146582,9.06592E-06,0.5173178,-5.462376E-09,NaN,NaN,-0.02002991,-1.583254E-10,8.719488E-07,-1.14021E-07,1.031295E-09,-2.861022E-08
282.0868,0.04500441,-2.139561E-08,NaN,-0.3269997,-1.361838E-07,NaN,0.5848026,-2.425353E-08,NaN,-2.146848,9.06652E-06,0.5327077,-5.346518E-09,NaN,NaN,-0.02003269,-1.536688E-10,8.99963E-07,-1.140195E-07,3.415481E-09,-2.622604E-08
282.1016,0.04500442,-2.139459E-08,NaN,-0.3269997,-1.36182E-07,NaN,0.5850609,-2.436492E-08,NaN,-2.147108,9.067126E-06,0.5474055,-5.232934E-09,NaN,NaN,-0.02003422,-1.536688E-10,9.148641E-07,-1.14018E-07,3.415481E-09,-2.861022E-08
282.1158,0.04500442,-2.139459E-08,NaN,-0.3269997,-1.36182E-07,NaN,0.5850609,-2.436492E-08,NaN,-2.147108,9.067126E-06,0.5474055,-5.232934E-09,NaN,NaN,-0.02003422,-1.536688E-10,9.148641E-07,-1.14018E-07,3.415481E-09,-2.861022E-08
282.132,0.04500443,-2.139356E-08,NaN,-0.3269997,-1.361802E-07,NaN,0.5854777,-2.447404E-08,NaN,-2.147369,9.067731E-06,0.561827,-5.121615E-09,NaN,NaN,-0.0200358,-1.536688E-10,9.25593E-07,-1.140165E-07,4.607574E-09,-2.622604E-08
282.1463,0.04500445,-2.139254E-08,NaN,-0.3269997,-1.361784E-07,NaN,0.5859676,-2.458097E-08,NaN,-2.147635,9.068337E-06,0.5760054,-5.012482E-09,NaN,NaN,-0.02003752,-1.536688E-10,9.3811E-07,-1.14015E-07,5.799667E-09,-2.861022E-08
282.1599,0.04500445,-2.139254E-08,NaN,-0.3269997,-1.361784E-07,NaN,0.5859676,-2.458097E-08,NaN,-2.147635,9.068337E-06,0.5760054,-5.012482E-09,NaN,NaN,-0.02003752,-1.536688E-10,9.3811E-07,-1.14015E-07,5.799667E-09,-2.861022E-08
282.1739,0.04500445,-2.139152E-08,NaN,-0.3269997,-1.361766E-07,NaN,0.5855692,-2.468572E-08,NaN,-2.147891,9.068943E-06,0.5876732,-4.905527E-09,NaN,NaN,-0.02004007,-1.536688E-10,9.607597E-07,-1.140136E-07,5.799667E-09,-2.622604E-08
282.1891,0.04500446,-2.139049E-08,NaN,-0.3269997,-1.361748E-07,NaN,0.5852823,-2.478834E-08,NaN,-2.148134,9.069548E-06,0.5987157,-4.800707E-09,NaN,NaN,-0.02004131,-1.536688E-10,9.673163E-07,-1.140121E-07,3.415481E-09,-2.861022E-08
282.2036,0.04500447,-2.138947E-08,NaN,-0.3269997,-1.36173E-07,NaN,0.5851685,-2.48889E-08,NaN,-2.148376,9.070154E-06,0.6095514,-4.697945E-09,NaN,NaN,-0.0200426,-1.536688E-10,9.756609E-07,-1.140106E-07,3.415481E-09,-2.622604E-08
282.2184,0.04500447,-2.138947E-08,NaN,-0.3269997,-1.36173E-07,NaN,0.5851685,-2.48889E-08,NaN,-2.148376,9.070154E-06,0.6095514,-4.697945E-09,NaN,NaN,-0.0200426,-1.536688E-10,9.756609E-07,-1.140106E-07,3.415481E-09,-2.622604E-08
282.2326,0.04500447,-2.138845E-08,NaN,-0.3269997,-1.361713E-07,NaN,0.5842416,-2.498741E-08,NaN,-2.148604,9.07076E-06,0.6179671,-4.597237E-09,NaN,NaN,-0.0200448,-1.536688E-10,9.971186E-07,-1.140092E-07,-1.607978E-10,-2.861022E-08
282.2477,0.04500447,-2.138742E-08,NaN,-0.3269997,-1.361695E-07,NaN,0.5834675,-2.508391E-08,NaN,-2.148816,9.071366E-06,0.6258307,-4.498541E-09,NaN,NaN,-0.02004573,-1.536688E-10,9.995028E-07,-1.140077E-07,2.223388E-09,-2.622604E-08
282.2624,0.04500448,-2.13864E-08,NaN,-0.3269997,-1.361677E-07,NaN,0.5828946,-2.517846E-08,NaN,-2.149026,9.071966E-06,0.6335559,-4.401783E-09,NaN,NaN,-0.02004674,-1.490122E-10,1.003079E-06,-1.140063E-07,-1.607978E-10,-2.861022E-08
282.2776,0.04500448,-2.13864E-08,NaN,-0.3269997,-1.361677E-07,NaN,0.5828946,-2.517846E-08,NaN,-2.149026,9.071966E-06,0.6335559,-4.401783E-09,NaN,NaN,-0.02004674,-1.490122E-10,1.003079E-06,-1.140063E-07,-1.607978E-10,-2.861022E-08
282.2912,0.04500448,-2.138538E-08,NaN,-0.3269997,-1.36166E-07,NaN,0.5824316,-2.527108E-08,NaN,-2.149238,9.072572E-06,0.6411737,-4.306961E-09,NaN,NaN,-0.02004788,-1.490122E-10,1.00904E-06,-1.140048E-07,-1.607978E-10,-2.622604E-08
282.3068,0.04500448,-2.138435E-08,NaN,-0.3269997,-1.361642E-07,NaN,0.5811128,-2.536181E-08,NaN,-2.149436,9.073163E-06,0.6464275,-4.214036E-09,NaN,NaN,-0.02004987,-1.39699E-10,1.028113E-06,-1.140034E-07,3.415481E-09,-2.861022E-08
282.3213,0.04500448,-2.138333E-08,NaN,-0.3269997,-1.361625E-07,NaN,0.579927,-2.545071E-08,NaN,-2.149616,9.073763E-06,0.6511735,-4.122936E-09,NaN,NaN,-0.02005056,-1.443556E-10,1.028113E-06,-1.14002E-07,3.415481E-09,-2.622604E-08
282.3361,0.04500448,-2.138333E-08,NaN,-0.3269997,-1.361625E-07,NaN,0.579927,-2.545071E-08,NaN,-2.149616,9.073763E-06,0.6511735,-4.122936E-09,NaN,NaN,-0.02005056,-1.443556E-10,1.028113E-06,-1.14002E-07,3.415481E-09,-2.622604E-08
282.3499,0.04500448,-2.138231E-08,NaN,-0.3269997,-1.361607E-07,NaN,0.5789415,-2.553778E-08,NaN,-2.14979,9.074359E-06,0.6558336,-4.03366E-09,NaN,NaN,-0.0200513,-1.443556E-10,1.029305E-06,-1.140005E-07,2.223388E-09,-2.861022E-08
282.3655,0.04500448,-2.138129E-08,NaN,-0.3269997,-1.36159E-07,NaN,0.5780736,-2.562307E-08,NaN,-2.149965,9.074955E-06,0.6604432,-3.946173E-09,NaN,NaN,-0.02005216,-1.443556E-10,1.034074E-06,-1.139991E-07,1.031295E-09,-2.622604E-08
282.3802,0.04500447,-2.138027E-08,NaN,-0.3269997,-1.361573E-07,NaN,0.5763606,-2.570664E-08,NaN,-2.150126,9.07555E-06,0.6627516,-3.860404E-09,NaN,NaN,-0.02005388,-1.443556E-10,1.051955E-06,-1.139977E-07,-2.544984E-09,-2.861022E-08
282.3966,0.04500447,-2.138027E-08,NaN,-0.3269997,-1.361573E-07,NaN,0.5763606,-2.570664E-08,NaN,-2.150126,9.07555E-06,0.6627516,-3.860404E-09,NaN,NaN,-0.02005388,-1.443556E-10,1.051955E-06,-1.139977E-07,-2.544984E-09,-2.861022E-08
282.4108,0.04500446,-2.137925E-08,NaN,-0.3269997,-1.361555E-07,NaN,0.5747902,-2.578849E-08,NaN,-2.150265,9.076146E-06,0.664606,-3.776355E-09,NaN,NaN,-0.0200543,-1.443556E-10,1.049571E-06,-1.139963E-07,2.223388E-09,-2.622604E-08
282.4238,0.04500446,-2.137822E-08,NaN,-0.3269997,-1.361538E-07,NaN,0.5734324,-2.586868E-08,NaN,-2.150398,9.076742E-06,0.6664299,-3.693956E-09,NaN,NaN,-0.02005476,-1.443556E-10,1.048379E-06,-1.139949E-07,-1.607978E-10,-2.861022E-08
282.44,0.04500446,-2.137822E-08,NaN,-0.3269997,-1.361538E-07,NaN,0.5734324,-2.586868E-08,NaN,-2.150398,9.076742E-06,0.6664299,-3.693956E-09,NaN,NaN,-0.02005476,-1.443556E-10,1.048379E-06,-1.139949E-07,-1.607978E-10,-2.861022E-08
282.4526,0.04500445,-2.13772E-08,NaN,-0.3269997,-1.361521E-07,NaN,0.5713025,-2.594723E-08,NaN,-2.150516,9.077337E-06,0.6660252,-3.613212E-09,NaN,NaN,-0.02005615,-1.443556E-10,1.057915E-06,-1.139934E-07,3.415481E-09,-2.622604E-08
282.4679,0.04500444,-2.137618E-08,NaN,-0.3269997,-1.361504E-07,NaN,0.5693588,-2.602415E-08,NaN,-2.150611,9.077933E-06,0.6652321,-3.534088E-09,NaN,NaN,-0.0200563,-1.443556E-10,1.051955E-06,-1.13992E-07,3.415481E-09,-2.861022E-08
282.4825,0.04500443,-2.137516E-08,NaN,-0.3269997,-1.361487E-07,NaN,0.5676556,-2.609952E-08,NaN,-2.150702,9.078529E-06,0.6644675,-3.456519E-09,NaN,NaN,-0.02005651,-1.443556E-10,1.048379E-06,-1.139906E-07,2.223388E-09,-2.622604E-08
282.4971,0.04500443,-2.137516E-08,NaN,-0.3269997,-1.361487E-07,NaN,0.5676556,-2.609952E-08,NaN,-2.150702,9.078529E-06,0.6644675,-3.456519E-09,NaN,NaN,-0.02005651,-1.443556E-10,1.048379E-06,-1.139906E-07,2.223388E-09,-2.622604E-08
282.5113,0.04500443,-2.137414E-08,NaN,-0.3269997,-1.361474E-07,NaN,0.5661024,-2.617093E-08,NaN,-2.150795,9.079125E-06,0.6637624,-3.382911E-09,NaN,NaN,-0.02005687,-1.443556E-10,1.045994E-06,-1.139883E-07,-1.607978E-10,-2.861022E-08
282.5268,0.04500442,-2.137312E-08,NaN,-0.3269997,-1.361461E-07,NaN,0.5637316,-2.624122E-08,NaN,-2.150876,9.07973E-06,0.6608649,-3.310431E-09,NaN,NaN,-0.02005811,-1.536688E-10,1.053147E-06,-1.139859E-07,-1.352891E-09,-2.622604E-08
282.5413,0.04500441,-2.13721E-08,NaN,-0.3269997,-1.361447E-07,NaN,0.5615283,-2.631022E-08,NaN,-2.150932,9.080326E-06,0.6576146,-3.239234E-09,NaN,NaN,-0.02005806,-1.536688E-10,1.042418E-06,-1.139835E-07,-2.544984E-09,-2.861022E-08
282.5562,0.04500441,-2.13721E-08,NaN,-0.3269997,-1.361447E-07,NaN,0.5615283,-2.631022E-08,NaN,-2.150932,9.080326E-06,0.6576146,-3.239234E-09,NaN,NaN,-0.02005806,-1.536688E-10,1.042418E-06,-1.139835E-07,-2.544984E-09,-2.861022E-08
282.5701,0.0450044,-2.137107E-08,NaN,-0.3269997,-1.361434E-07,NaN,0.5595626,-2.637786E-08,NaN,-2.150983,9.080922E-06,0.6544339,-3.169401E-09,NaN,NaN,-0.02005805,-1.536688E-10,1.031689E-06,-1.139811E-07,1.031295E-09,-2.622604E-08
282.5854,0.04500439,-2.137005E-08,NaN,-0.3269997,-1.36142E-07,NaN,0.5577517,-2.644416E-08,NaN,-2.151036,9.081517E-06,0.6513568,-3.100904E-09,NaN,NaN,-0.02005818,-1.536688E-10,1.026921E-06,-1.139786E-07,-2.544984E-09,-2.861022E-08
282.6003,0.04500438,-2.136903E-08,NaN,-0.3269998,-1.361406E-07,NaN,0.5551305,-2.650912E-08,NaN,-2.151076,9.082123E-06,0.6461306,-3.033752E-09,NaN,NaN,-0.02005919,-1.629821E-10,1.030497E-06,-1.139762E-07,-1.352891E-09,-2.622604E-08
282.615,0.04500438,-2.136903E-08,NaN,-0.3269998,-1.361406E-07,NaN,0.5551305,-2.650912E-08,NaN,-2.151076,9.082123E-06,0.6461306,-3.033752E-09,NaN,NaN,-0.02005919,-1.629821E-10,1.030497E-06,-1.139762E-07,-1.352891E-09,-2.622604E-08
282.6291,0.04500437,-2.136801E-08,NaN,-0.3269998,-1.361392E-07,NaN,0.5526876,-2.657272E-08,NaN,-2.151092,9.082719E-06,0.6405976,-2.967956E-09,NaN,NaN,-0.0200589,-1.629821E-10,1.018576E-06,-1.139738E-07,1.031295E-09,-2.861022E-08
282.6443,0.04500436,-2.136699E-08,NaN,-0.3269998,-1.361378E-07,NaN,0.5504929,-2.663503E-08,NaN,-2.151101,9.083325E-06,0.6351792,-2.903453E-09,NaN,NaN,-0.02005866,-1.722953E-10,1.010231E-06,-1.139713E-07,-1.352891E-09,-2.622604E-08
282.6589,0.04500436,-2.136699E-08,NaN,-0.3269998,-1.361378E-07,NaN,0.5504929,-2.663503E-08,NaN,-2.151101,9.083325E-06,0.6351792,-2.903453E-09,NaN,NaN,-0.02005866,-1.722953E-10,1.010231E-06,-1.139713E-07,-1.352891E-09,-2.622604E-08
282.675,0.04500434,-2.136597E-08,NaN,-0.3269998,-1.361364E-07,NaN,0.5475588,-2.669604E-08,NaN,-2.151098,9.08392E-06,0.6276711,-2.840253E-09,NaN,NaN,-0.02005937,-1.722953E-10,1.012616E-06,-1.139689E-07,-2.544984E-09,-2.861022E-08
282.6891,0.04500432,-2.136495E-08,NaN,-0.3269998,-1.36135E-07,NaN,0.5448477,-2.675577E-08,NaN,-2.151071,9.084511E-06,0.6199163,-2.77833E-09,NaN,NaN,-0.02005883,-1.676387E-10,9.989067E-07,-1.139665E-07,-3.737076E-09,-2.622604E-08
282.7028,0.04500431,-2.136393E-08,NaN,-0.3269999,-1.361336E-07,NaN,0.5424112,-2.681425E-08,NaN,-2.151039,9.085112E-06,0.6123281,-2.717659E-09,NaN,NaN,-0.02005836,-1.722953E-10,9.851976E-07,-1.139641E-07,-4.929169E-09,-2.861022E-08
282.7175,0.04500431,-2.136393E-08,NaN,-0.3269999,-1.361336E-07,NaN,0.5424112,-2.681425E-08,NaN,-2.151039,9.085112E-06,0.6123281,-2.717659E-09,NaN,NaN,-0.02005836,-1.722953E-10,9.851976E-07,-1.139641E-07,-4.929169E-09,-2.861022E-08
282.7313,0.0450043,-2.136291E-08,NaN,-0.3269999,-1.361322E-07,NaN,0.540157,-2.687149E-08,NaN,-2.151013,9.085703E-06,0.6049339,-2.658216E-09,NaN,NaN,-0.02005805,-1.676387E-10,9.756609E-07,-1.139617E-07,-7.313355E-09,-2.622604E-08
282.7473,0.04500428,-2.13619E-08,NaN,-0.3269999,-1.361308E-07,NaN,0.5371143,-2.692754E-08,NaN,-2.150978,9.086303E-06,0.5954697,-2.599977E-09,NaN,NaN,-0.02005862,-1.722953E-10,9.732767E-07,-1.139593E-07,-4.929169E-09,-2.861022E-08
282.7617,0.04500426,-2.136088E-08,NaN,-0.327,-1.361295E-07,NaN,0.5342761,-2.69824E-08,NaN,-2.150918,9.086894E-06,0.5857876,-2.542918E-09,NaN,NaN,-0.02005789,-1.676387E-10,9.547992E-07,-1.13957E-07,1.031295E-09,-2.622604E-08
282.7762,0.04500426,-2.136088E-08,NaN,-0.327,-1.361295E-07,NaN,0.5342761,-2.69824E-08,NaN,-2.150918,9.086894E-06,0.5857876,-2.542918E-09,NaN,NaN,-0.02005789,-1.676387E-10,9.547992E-07,-1.13957E-07,1.031295E-09,-2.622604E-08
282.7899,0.04500424,-2.135986E-08,NaN,-0.327,-1.361281E-07,NaN,0.5317076,-2.703611E-08,NaN,-2.150853,9.087495E-06,0.5763046,-2.487015E-09,NaN,NaN,-0.02005722,-1.722953E-10,9.38706E-07,-1.139546E-07,4.607574E-09,-2.861022E-08
282.8055,0.04500423,-2.135884E-08,NaN,-0.327,-1.361268E-07,NaN,0.5293227,-2.745848E-08,NaN,-2.150794,9.08809E-06,0.56705,-2.062455E-09,NaN,NaN,-0.02005669,-1.769519E-10,9.26785E-07,-1.139521E-07,3.415481E-09,-2.861022E-08
282.8203,0.04500421,-2.135782E-08,NaN,-0.3270001,-1.361256E-07,NaN,0.5261534,-2.787244E-08,NaN,-2.150727,9.088682E-06,0.5557536,-1.646305E-09,NaN,NaN,-0.02005702,-1.769519E-10,9.244009E-07,-1.139496E-07,4.607574E-09,-2.861022E-08
282.8348,0.04500421,-2.135782E-08,NaN,-0.3270001,-1.361256E-07,NaN,0.5261534,-2.787244E-08,NaN,-2.150727,9.088682E-06,0.5557536,-1.646305E-09,NaN,NaN,-0.02005702,-1.769519E-10,9.244009E-07,-1.139496E-07,4.607574E-09,-2.861022E-08
282.8491,0.04500419,-2.13568E-08,NaN,-0.3270001,-1.361244E-07,NaN,0.5231993,-2.827674E-08,NaN,-2.150635,9.089277E-06,0.5442793,-1.239808E-09,NaN,NaN,-0.02005607,-1.816085E-10,9.071155E-07,-1.139471E-07,3.415481E-09,-2.861022E-08
282.8644,0.04500417,-2.135578E-08,NaN,-0.3270001,-1.361232E-07,NaN,0.520523,-2.867017E-08,NaN,-2.15054,9.089868E-06,0.5330412,-8.441871E-10,NaN,NaN,-0.02005518,-1.816085E-10,8.886381E-07,-1.139447E-07,2.223388E-09,-2.861022E-08
282.879,0.04500417,-2.135578E-08,NaN,-0.3270001,-1.361232E-07,NaN,0.520523,-2.867017E-08,NaN,-2.15054,9.089868E-06,0.5330412,-8.441871E-10,NaN,NaN,-0.02005518,-1.816085E-10,8.886381E-07,-1.139447E-07,2.223388E-09,-2.861022E-08
282.8931,0.04500415,-2.135477E-08,NaN,-0.3270001,-1.36122E-07,NaN,0.5171311,-2.905434E-08,NaN,-2.150436,9.090464E-06,0.5198115,-4.578223E-10,NaN,NaN,-0.0200552,-1.862651E-10,8.868499E-07,-1.139422E-07,1.031295E-09,-2.861022E-08
282.9099,0.04500413,-2.135375E-08,NaN,-0.3270002,-1.361208E-07,NaN,0.5139984,-2.942945E-08,NaN,-2.150311,9.091055E-06,0.5064597,-8.052869E-11,NaN,NaN,-0.02005402,-1.862651E-10,8.659883E-07,-1.139398E-07,-1.607976E-10,-2.861022E-08
282.923,0.04500411,-2.135273E-08,NaN,-0.3270002,-1.361196E-07,NaN,0.5111676,-2.979565E-08,NaN,-2.150184,9.091651E-06,0.4933904,2.878735E-10,NaN,NaN,-0.02005292,-1.909217E-10,8.481069E-07,-1.139373E-07,3.415481E-09,-2.861022E-08
282.9396,0.04500411,-2.135273E-08,NaN,-0.3270002,-1.361196E-07,NaN,0.5111676,-2.979565E-08,NaN,-2.150184,9.091651E-06,0.4933904,2.878735E-10,NaN,NaN,-0.02005292,-1.909217E-10,8.481069E-07,-1.139373E-07,3.415481E-09,-2.861022E-08
282.9535,0.0450041,-2.135171E-08,NaN,-0.3270002,-1.361184E-07,NaN,0.5085419,-3.015314E-08,NaN,-2.150066,9.092242E-06,0.4806247,6.475559E-10,NaN,NaN,-0.02005198,-1.909217E-10,8.302255E-07,-1.139349E-07,4.607574E-09,-2.861022E-08
282.9673,0.04500407,-2.13507E-08,NaN,-0.3270003,-1.361173E-07,NaN,0.5051473,-3.050208E-08,NaN,-2.149945,9.092833E-06,0.4658733,9.986914E-10,NaN,NaN,-0.02005185,-1.909217E-10,8.260532E-07,-1.139325E-07,3.415481E-09,-2.861022E-08
282.9815,0.04500405,-2.134968E-08,NaN,-0.3270003,-1.361161E-07,NaN,0.5019928,-3.084264E-08,NaN,-2.149803,9.093425E-06,0.4510233,1.341445E-09,NaN,NaN,-0.02005052,-1.909217E-10,8.010192E-07,-1.1393E-07,2.223388E-09,-2.861022E-08
282.9961,0.04500405,-2.134968E-08,NaN,-0.3270003,-1.361161E-07,NaN,0.5019928,-3.084264E-08,NaN,-2.149803,9.093425E-06,0.4510233,1.341445E-09,NaN,NaN,-0.02005052,-1.909217E-10,8.010192E-07,-1.1393E-07,2.223388E-09,-2.861022E-08
