JMolnar6/NonAnthroHands_User_Study/HandsLoggerWithURDF/tempdata/files/Reachy_JointMotion_gesture_2_11.csv
Time,r_shoulder,r_shoulder_x,r_upper_arm,r_forearm,r_wrist,r_wrist2hand,
128.1704,0.04521892,-2.911649E-08,NaN,-0.3340201,-1.379221E-07,NaN,0.2554987,5.171873E-08,NaN,-2.15274,4.400142E-06,-0.3716185,-1.501388E-08,NaN,NaN,-0.02004838,1.396903E-11,-7.67176E-07,-1.156903E-07,-1.185462E-08,-2.622604E-08
128.1895,0.04521792,-2.911531E-08,NaN,-0.3339376,-1.379218E-07,NaN,0.2568658,5.171768E-08,NaN,-2.152752,4.400883E-06,-0.3723438,-1.501042E-08,NaN,NaN,-0.02005058,9.312414E-12,-8.004987E-07,-1.156891E-07,-1.185462E-08,-2.861022E-08
128.204,0.04521694,-2.911412E-08,NaN,-0.3338561,-1.379215E-07,NaN,0.2590518,5.171754E-08,NaN,-2.152786,4.401614E-06,-0.3729279,-1.500787E-08,NaN,NaN,-0.0200523,1.396903E-11,-8.288388E-07,-1.156879E-07,-8.278336E-09,-2.622604E-08
128.2213,0.04521596,-2.911293E-08,NaN,-0.3337756,-1.379212E-07,NaN,0.2616715,5.171758E-08,NaN,-2.152812,4.402354E-06,-0.3733026,-1.50055E-08,NaN,NaN,-0.02005339,9.312414E-12,-8.46662E-07,-1.156868E-07,-5.894151E-09,-2.861022E-08
128.238,0.04521596,-2.911293E-08,NaN,-0.3337756,-1.379212E-07,NaN,0.2616715,5.171758E-08,NaN,-2.152812,4.402354E-06,-0.3733026,-1.50055E-08,NaN,NaN,-0.02005339,9.312414E-12,-8.46662E-07,-1.156868E-07,-5.894151E-09,-2.861022E-08
128.2545,0.04521499,-2.911175E-08,NaN,-0.333696,-1.379209E-07,NaN,0.2637405,5.171851E-08,NaN,-2.152742,4.403085E-06,-0.3726482,-1.500402E-08,NaN,NaN,-0.02005134,1.396903E-11,-8.170925E-07,-1.156856E-07,-4.702057E-09,-2.622604E-08
128.2721,0.04521404,-2.911056E-08,NaN,-0.3336174,-1.379207E-07,NaN,0.2650397,5.171959E-08,NaN,-2.152639,4.403826E-06,-0.3720721,-1.50027E-08,NaN,NaN,-0.02004959,9.312414E-12,-7.913508E-07,-1.156844E-07,-4.702057E-09,-2.861022E-08
128.2896,0.0452131,-2.910937E-08,NaN,-0.3335397,-1.379204E-07,NaN,0.2658979,5.172084E-08,NaN,-2.152537,4.404557E-06,-0.3716733,-1.500154E-08,NaN,NaN,-0.02004839,1.396903E-11,-7.747546E-07,-1.156833E-07,-5.89415E-09,-2.622604E-08
128.3062,0.04521216,-2.910819E-08,NaN,-0.333463,-1.379201E-07,NaN,0.2665412,5.172295E-08,NaN,-2.152445,4.405297E-06,-0.3713816,-1.500124E-08,NaN,NaN,-0.02004752,9.312414E-12,-7.60971E-07,-1.156821E-07,-5.89415E-09,-2.861022E-08
128.3232,0.04521124,-2.9107E-08,NaN,-0.3333871,-1.379198E-07,NaN,0.266349,5.172521E-08,NaN,-2.15228,4.406028E-06,-0.3702389,-1.500109E-08,NaN,NaN,-0.02004405,1.396903E-11,-7.081092E-07,-1.15681E-07,-2.317871E-09,-2.622604E-08
128.3399,0.04521124,-2.9107E-08,NaN,-0.3333871,-1.379198E-07,NaN,0.266349,5.172521E-08,NaN,-2.15228,4.406028E-06,-0.3702389,-1.500109E-08,NaN,NaN,-0.02004405,1.396903E-11,-7.081092E-07,-1.15681E-07,-2.317871E-09,-2.622604E-08
128.3566,0.04521033,-2.910581E-08,NaN,-0.3333122,-1.379195E-07,NaN,0.2652795,5.17283E-08,NaN,-2.152101,4.406769E-06,-0.3692662,-1.500178E-08,NaN,NaN,-0.02004114,9.312414E-12,-6.645605E-07,-1.156798E-07,-4.702057E-09,-2.861022E-08
128.374,0.04520943,-2.910463E-08,NaN,-0.3332381,-1.379192E-07,NaN,0.2637416,5.173081E-08,NaN,-2.151937,4.4075E-06,-0.3685184,-1.500188E-08,NaN,NaN,-0.02003892,1.396903E-11,-6.322622E-07,-1.156787E-07,-2.317872E-09,-2.622604E-08
128.391,0.04520854,-2.910344E-08,NaN,-0.3331649,-1.379189E-07,NaN,0.2612602,5.173345E-08,NaN,-2.151709,4.40824E-06,-0.3670001,-1.500211E-08,NaN,NaN,-0.02003435,9.312414E-12,-5.628228E-07,-1.156775E-07,-3.509965E-09,-2.861022E-08
128.4078,0.04520766,-2.910225E-08,NaN,-0.3330926,-1.379187E-07,NaN,0.2578705,5.173692E-08,NaN,-2.151477,4.408972E-06,-0.3656986,-1.500318E-08,NaN,NaN,-0.02003048,1.396903E-11,-5.048573E-07,-1.156764E-07,-1.125779E-09,-2.622604E-08
128.4248,0.04520679,-2.910107E-08,NaN,-0.3330212,-1.379184E-07,NaN,0.2540173,5.174051E-08,NaN,-2.151265,4.409712E-06,-0.3646493,-1.500436E-08,NaN,NaN,-0.02002738,9.312414E-12,-4.579932E-07,-1.156753E-07,-5.89415E-09,-2.861022E-08
128.4416,0.04520593,-2.909988E-08,NaN,-0.3329506,-1.379181E-07,NaN,0.2499773,5.174491E-08,NaN,-2.151075,4.410443E-06,-0.3637523,-1.500635E-08,NaN,NaN,-0.02002473,1.396903E-11,-4.188031E-07,-1.156742E-07,-5.89415E-09,-2.622604E-08
128.4587,0.04520593,-2.909988E-08,NaN,-0.3329506,-1.379181E-07,NaN,0.2499773,5.174491E-08,NaN,-2.151075,4.410443E-06,-0.3637523,-1.500635E-08,NaN,NaN,-0.02002473,1.396903E-11,-4.188031E-07,-1.156742E-07,-5.89415E-09,-2.622604E-08
128.4749,0.04520508,-2.909869E-08,NaN,-0.3328809,-1.379178E-07,NaN,0.2451475,5.174941E-08,NaN,-2.150821,4.411183E-06,-0.3620358,-1.500844E-08,NaN,NaN,-0.0200196,9.312414E-12,-3.40125E-07,-1.15673E-07,-5.89415E-09,-2.861022E-08
128.4924,0.04520424,-2.909751E-08,NaN,-0.332812,-1.379175E-07,NaN,0.2394964,5.1754E-08,NaN,-2.150562,4.411915E-06,-0.3605176,-1.501063E-08,NaN,NaN,-0.02001511,1.396903E-11,-2.697915E-07,-1.156719E-07,-7.086243E-09,-2.622604E-08
128.5097,0.04520342,-2.909632E-08,NaN,-0.3327439,-1.379172E-07,NaN,0.2334378,5.175939E-08,NaN,-2.150323,4.412655E-06,-0.3592478,-1.501361E-08,NaN,NaN,-0.02001138,9.312414E-12,-2.145082E-07,-1.156708E-07,-9.470428E-09,-2.861022E-08
128.5267,0.04520261,-2.909513E-08,NaN,-0.3326766,-1.37917E-07,NaN,0.2264937,5.176486E-08,NaN,-2.150025,4.413386E-06,-0.3572281,-1.501667E-08,NaN,NaN,-0.0200054,1.396903E-11,-1.2227E-07,-1.156697E-07,-8.278335E-09,-2.622604E-08
128.5435,0.0452018,-2.909395E-08,NaN,-0.3326102,-1.379167E-07,NaN,0.218701,5.17711E-08,NaN,-2.149728,4.414127E-06,-0.3554482,-1.50205E-08,NaN,NaN,-0.02000019,9.312414E-12,-4.061166E-08,-1.156686E-07,-1.066252E-08,-2.861022E-08
128.5604,0.04520101,-2.909276E-08,NaN,-0.3325445,-1.379164E-07,NaN,0.2105063,5.17774E-08,NaN,-2.149455,4.414858E-06,-0.3539408,-1.50244E-08,NaN,NaN,-0.01999579,1.396903E-11,2.867874E-08,-1.156675E-07,-8.278336E-09,-2.622604E-08
128.5774,0.04520101,-2.909276E-08,NaN,-0.3325445,-1.379164E-07,NaN,0.2105063,5.17774E-08,NaN,-2.149455,4.414858E-06,-0.3539408,-1.50244E-08,NaN,NaN,-0.01999579,1.396903E-11,2.867874E-08,-1.156675E-07,-8.278336E-09,-2.622604E-08
128.5936,0.04520023,-2.909157E-08,NaN,-0.3324797,-1.379161E-07,NaN,0.2014433,5.178446E-08,NaN,-2.149128,4.415598E-06,-0.3516985,-1.502906E-08,NaN,NaN,-0.01998922,4.655801E-12,1.295596E-07,-1.156649E-07,-9.470429E-09,-2.861022E-08
128.6113,0.04519946,-2.909038E-08,NaN,-0.3324156,-1.37915E-07,NaN,0.1915556,5.171073E-08,NaN,-2.148805,4.416329E-06,-0.3497095,-1.495291E-08,NaN,NaN,-0.01998345,9.312414E-12,2.210527E-07,-1.15666E-07,-1.066252E-08,-2.622604E-08
128.6281,0.0451987,-2.908919E-08,NaN,-0.3323522,-1.379149E-07,NaN,0.1812936,5.173976E-08,NaN,-2.148508,4.41707E-06,-0.3480031,-1.497953E-08,NaN,NaN,-0.01997852,-8.118506E-16,2.985387E-07,-1.156636E-07,-4.702057E-09,-2.861022E-08
128.645,0.04519795,-2.9088E-08,NaN,-0.3322896,-1.379144E-07,NaN,0.1709341,5.172918E-08,NaN,-2.148236,4.417796E-06,-0.346477,-1.496655E-08,NaN,NaN,-0.01997412,9.312414E-12,3.681272E-07,-1.156623E-07,-2.317872E-09,-2.622604E-08
128.6618,0.04519722,-2.908681E-08,NaN,-0.3322278,-1.37914E-07,NaN,0.1598657,5.17281E-08,NaN,-2.147907,4.418532E-06,-0.3441569,-1.496305E-08,NaN,NaN,-0.0199674,9.312414E-12,4.766076E-07,-1.156612E-07,6.026779E-09,-2.861022E-08
128.6791,0.04519722,-2.908681E-08,NaN,-0.3322278,-1.37914E-07,NaN,0.1598657,5.17281E-08,NaN,-2.147907,4.418532E-06,-0.3441569,-1.496305E-08,NaN,NaN,-0.0199674,9.312414E-12,4.766076E-07,-1.156612E-07,6.026779E-09,-2.861022E-08
128.6948,0.0451965,-2.908563E-08,NaN,-0.3321667,-1.379136E-07,NaN,0.1480594,5.173212E-08,NaN,-2.14758,4.419263E-06,-0.3420662,-1.496466E-08,NaN,NaN,-0.01996141,9.312414E-12,5.698889E-07,-1.156585E-07,2.4505E-09,-2.622604E-08
128.7124,0.04519578,-2.908444E-08,NaN,-0.3321064,-1.379129E-07,NaN,0.1359324,5.170963E-08,NaN,-2.147277,4.419999E-06,-0.3402504,-1.493976E-08,NaN,NaN,-0.01995623,4.655801E-12,6.522923E-07,-1.156571E-07,1.258407E-09,-2.861022E-08
128.7307,0.04519507,-2.908325E-08,NaN,-0.3320467,-1.379124E-07,NaN,0.1229976,5.170317E-08,NaN,-2.146922,4.420725E-06,-0.3377076,-1.493089E-08,NaN,NaN,-0.01994897,1.396903E-11,7.716505E-07,-1.156559E-07,4.834686E-09,-2.622604E-08
128.7464,0.04519437,-2.908206E-08,NaN,-0.3319878,-1.379115E-07,NaN,0.109295,5.165261E-08,NaN,-2.146575,4.421456E-06,-0.3354337,-1.487792E-08,NaN,NaN,-0.01994253,1.862564E-11,8.79833E-07,-1.156572E-07,3.642593E-09,-2.861022E-08
128.7628,0.04519367,-2.908087E-08,NaN,-0.3319296,-1.379111E-07,NaN,0.09527434,5.164385E-08,NaN,-2.146255,4.422182E-06,-0.3334562,-1.486675E-08,NaN,NaN,-0.01993697,2.793886E-11,9.732632E-07,-1.15659E-07,1.258407E-09,-2.622604E-08
128.7795,0.04519367,-2.908087E-08,NaN,-0.3319296,-1.379111E-07,NaN,0.09527434,5.164385E-08,NaN,-2.146255,4.422182E-06,-0.3334562,-1.486675E-08,NaN,NaN,-0.01993697,2.793886E-11,9.732632E-07,-1.15659E-07,1.258407E-09,-2.622604E-08
128.7955,0.04519298,-2.907968E-08,NaN,-0.3318721,-1.37911E-07,NaN,0.08121105,5.165716E-08,NaN,-2.145961,4.422918E-06,-0.3316721,-1.487765E-08,NaN,NaN,-0.01993197,2.328225E-11,1.058498E-06,-1.156595E-07,3.642593E-09,-2.861022E-08
128.813,0.04519229,-2.90785E-08,NaN,-0.3318152,-1.379108E-07,NaN,0.06648583,5.165287E-08,NaN,-2.145613,4.42364E-06,-0.3291059,-1.487095E-08,NaN,NaN,-0.01992476,3.725209E-11,1.182476E-06,-1.156613E-07,3.642593E-09,-2.622604E-08
128.8299,0.04519162,-2.907731E-08,NaN,-0.3317591,-1.379108E-07,NaN,0.05107191,5.166986E-08,NaN,-2.145272,4.424376E-06,-0.3267861,-1.488554E-08,NaN,NaN,-0.01991831,3.259548E-11,1.29334E-06,-1.156618E-07,3.642593E-09,-2.861022E-08
128.8467,0.04519094,-2.907612E-08,NaN,-0.3317036,-1.379106E-07,NaN,0.035389,5.166778E-08,NaN,-2.144957,4.425097E-06,-0.3247545,-1.488106E-08,NaN,NaN,-0.0199127,4.190871E-11,1.389751E-06,-1.156637E-07,-4.702057E-09,-2.622604E-08
128.8632,0.04519027,-2.907493E-08,NaN,-0.3316489,-1.379106E-07,NaN,0.0196982,5.168553E-08,NaN,-2.144666,4.425829E-06,-0.3229149,-1.489641E-08,NaN,NaN,-0.01990764,3.725209E-11,1.478264E-06,-1.156642E-07,-9.470429E-09,-2.861022E-08
128.88,0.04519027,-2.907493E-08,NaN,-0.3316489,-1.379106E-07,NaN,0.0196982,5.168553E-08,NaN,-2.144666,4.425829E-06,-0.3229149,-1.489641E-08,NaN,NaN,-0.01990764,3.725209E-11,1.478264E-06,-1.156642E-07,-9.470429E-09,-2.861022E-08
128.8959,0.04518961,-2.907374E-08,NaN,-0.3315947,-1.379104E-07,NaN,0.003370035,5.16835E-08,NaN,-2.144323,4.426546E-06,-0.3202946,-1.489198E-08,NaN,NaN,-0.01990043,4.656532E-11,1.60388E-06,-1.15666E-07,-1.185462E-08,-2.622604E-08
128.9135,0.04518896,-2.907255E-08,NaN,-0.3315412,-1.379105E-07,NaN,-0.01362336,5.170061E-08,NaN,-2.143987,4.427272E-06,-0.3179265,-1.490669E-08,NaN,NaN,-0.01989398,4.190871E-11,1.721004E-06,-1.156666E-07,-1.185462E-08,-2.861022E-08
128.9304,0.0451883,-2.907137E-08,NaN,-0.3314884,-1.379103E-07,NaN,-0.03086178,5.169793E-08,NaN,-2.143677,4.427985E-06,-0.3158509,-1.490162E-08,NaN,NaN,-0.01988837,5.122194E-11,1.820245E-06,-1.156684E-07,-1.662299E-08,-2.622604E-08
128.9473,0.04518766,-2.907018E-08,NaN,-0.3314362,-1.379103E-07,NaN,-0.04884305,5.171441E-08,NaN,-2.143319,4.428706E-06,-0.3130625,-1.49157E-08,NaN,NaN,-0.01988082,4.656532E-11,1.956144E-06,-1.156689E-07,-1.066252E-08,-2.861022E-08
128.9638,0.04518701,-2.906899E-08,NaN,-0.3313846,-1.379101E-07,NaN,-0.06752349,5.171112E-08,NaN,-2.142974,4.429423E-06,-0.310565,-1.491001E-08,NaN,NaN,-0.01987414,4.190871E-11,2.073416E-06,-1.156693E-07,-8.278338E-09,-2.622604E-08
128.9804,0.04518637,-2.90678E-08,NaN,-0.3313337,-1.379098E-07,NaN,-0.08644923,5.169827E-08,NaN,-2.142658,4.430136E-06,-0.3083802,-1.489477E-08,NaN,NaN,-0.01986835,4.190871E-11,2.180108E-06,-1.15671E-07,-1.42388E-08,-2.861022E-08
128.9975,0.04518637,-2.90678E-08,NaN,-0.3313337,-1.379098E-07,NaN,-0.08644923,5.169827E-08,NaN,-2.142658,4.430136E-06,-0.3083802,-1.489477E-08,NaN,NaN,-0.01986835,4.190871E-11,2.180108E-06,-1.15671E-07,-1.42388E-08,-2.861022E-08
129.0137,0.04518572,-2.906661E-08,NaN,-0.3312833,-1.379098E-07,NaN,-0.1053457,5.170897E-08,NaN,-2.142369,4.430853E-06,-0.3064031,-1.490307E-08,NaN,NaN,-0.01986315,3.72521E-11,2.281734E-06,-1.156714E-07,-1.662299E-08,-2.622604E-08
129.0312,0.04518508,-2.906542E-08,NaN,-0.3312336,-1.379095E-07,NaN,-0.1248437,5.170282E-08,NaN,-2.142031,4.431566E-06,-0.3036562,-1.489453E-08,NaN,NaN,-0.0198559,3.259549E-11,2.413908E-06,-1.156717E-07,-1.543089E-08,-2.861022E-08
129.0478,0.04518444,-2.906424E-08,NaN,-0.3311845,-1.379092E-07,NaN,-0.144966,5.168787E-08,NaN,-2.141705,4.432278E-06,-0.3011762,-1.487718E-08,NaN,NaN,-0.01984944,3.259549E-11,2.539972E-06,-1.156734E-07,-1.781508E-08,-2.622604E-08
129.0644,0.04518381,-2.906305E-08,NaN,-0.331136,-1.379091E-07,NaN,-0.1652884,5.169792E-08,NaN,-2.141404,4.432995E-06,-0.2989991,-1.488482E-08,NaN,NaN,-0.01984383,2.793888E-11,2.644876E-06,-1.156738E-07,-1.42388E-08,-2.861022E-08
129.0814,0.04518317,-2.906186E-08,NaN,-0.331088,-1.379089E-07,NaN,-0.1855502,5.169112E-08,NaN,-2.14113,4.433708E-06,-0.2970264,-1.487563E-08,NaN,NaN,-0.01983879,2.328227E-11,2.741137E-06,-1.156741E-07,-1.066252E-08,-2.622604E-08
129.0982,0.04518317,-2.906186E-08,NaN,-0.331088,-1.379089E-07,NaN,-0.1855502,5.169112E-08,NaN,-2.14113,4.433708E-06,-0.2970264,-1.487563E-08,NaN,NaN,-0.01983879,2.328227E-11,2.741137E-06,-1.156741E-07,-1.066252E-08,-2.622604E-08
129.1144,0.04518254,-2.906067E-08,NaN,-0.3310407,-1.379085E-07,NaN,-0.2056277,5.167624E-08,NaN,-2.140876,4.434421E-06,-0.295193,-1.485835E-08,NaN,NaN,-0.01983414,2.328227E-11,2.833822E-06,-1.156758E-07,-1.066252E-08,-2.861022E-08
129.1317,0.04518191,-2.905948E-08,NaN,-0.3309939,-1.379085E-07,NaN,-0.225467,5.168635E-08,NaN,-2.14064,4.435138E-06,-0.2934664,-1.486606E-08,NaN,NaN,-0.01982979,1.862565E-11,2.919653E-06,-1.156762E-07,-1.185461E-08,-2.622604E-08
129.1487,0.04518128,-2.905829E-08,NaN,-0.3309477,-1.379082E-07,NaN,-0.2450465,5.167891E-08,NaN,-2.140419,4.43585E-06,-0.2918305,-1.485622E-08,NaN,NaN,-0.01982571,1.396904E-11,3.000566E-06,-1.156765E-07,-1.066252E-08,-2.861022E-08
129.1652,0.04518065,-2.905711E-08,NaN,-0.330902,-1.379079E-07,NaN,-0.2643591,5.16634E-08,NaN,-2.140212,4.436563E-06,-0.2902768,-1.483831E-08,NaN,NaN,-0.01982186,9.312428E-12,3.079244E-06,-1.156766E-07,-1.42388E-08,-2.622604E-08
129.1821,0.04518002,-2.905592E-08,NaN,-0.3308569,-1.379074E-07,NaN,-0.2834036,5.164346E-08,NaN,-2.140016,4.437275E-06,-0.2888006,-1.481597E-08,NaN,NaN,-0.01981822,9.312428E-12,3.152558E-06,-1.156782E-07,-1.42388E-08,-2.861022E-08
129.1988,0.04518002,-2.905592E-08,NaN,-0.3308569,-1.379074E-07,NaN,-0.2834036,5.164346E-08,NaN,-2.140016,4.437275E-06,-0.2888006,-1.481597E-08,NaN,NaN,-0.01981822,9.312428E-12,3.152558E-06,-1.156782E-07,-1.42388E-08,-2.861022E-08
129.215,0.0451794,-2.905473E-08,NaN,-0.3308124,-1.379073E-07,NaN,-0.3021815,5.165071E-08,NaN,-2.139832,4.437979E-06,-0.2873985,-1.482082E-08,NaN,NaN,-0.0198148,1.862565E-11,3.221699E-06,-1.156786E-07,-1.066252E-08,-2.622604E-08
129.2327,0.04517877,-2.905354E-08,NaN,-0.3307684,-1.379071E-07,NaN,-0.3206954,5.164258E-08,NaN,-2.139659,4.438696E-06,-0.2860678,-1.481029E-08,NaN,NaN,-0.01981157,9.312428E-12,3.287861E-06,-1.156789E-07,-7.086243E-09,-2.861022E-08
129.2504,0.04517815,-2.905235E-08,NaN,-0.3307249,-1.379067E-07,NaN,-0.3389485,5.162708E-08,NaN,-2.139497,4.439403E-06,-0.2848062,-1.47924E-08,NaN,NaN,-0.01980854,9.312428E-12,3.352085E-06,-1.15679E-07,-3.509964E-09,-2.622604E-08
129.2659,0.04517753,-2.905116E-08,NaN,-0.330682,-1.379063E-07,NaN,-0.3569439,5.160787E-08,NaN,-2.139345,4.440116E-06,-0.2836117,-1.477078E-08,NaN,NaN,-0.01980569,4.655815E-12,3.412285E-06,-1.156791E-07,4.834686E-09,-2.861022E-08
129.2828,0.04517692,-2.904997E-08,NaN,-0.3306396,-1.379058E-07,NaN,-0.374685,5.159342E-08,NaN,-2.139202,4.440823E-06,-0.2824822,-1.475393E-08,NaN,NaN,-0.01980302,9.312428E-12,3.467271E-06,-1.156808E-07,1.258408E-09,-2.622604E-08
129.2997,0.04517692,-2.904997E-08,NaN,-0.3306396,-1.379058E-07,NaN,-0.374685,5.159342E-08,NaN,-2.139202,4.440823E-06,-0.2824822,-1.475393E-08,NaN,NaN,-0.01980302,9.312428E-12,3.467271E-06,-1.156808E-07,1.258408E-09,-2.622604E-08
129.3161,0.0451763,-2.904879E-08,NaN,-0.3305977,-1.379052E-07,NaN,-0.392175,5.155561E-08,NaN,-2.139069,4.441531E-06,-0.2814158,-1.471372E-08,NaN,NaN,-0.01980052,1.396904E-11,3.52166E-06,-1.156836E-07,6.631495E-11,-2.861022E-08
129.3336,0.04517569,-2.90476E-08,NaN,-0.3305563,-1.37905E-07,NaN,-0.4094173,5.153833E-08,NaN,-2.138945,4.442234E-06,-0.2804105,-1.469404E-08,NaN,NaN,-0.01979818,2.328227E-11,3.573069E-06,-1.156851E-07,2.450501E-09,-2.622604E-08
129.3505,0.04517508,-2.904641E-08,NaN,-0.3305154,-1.379045E-07,NaN,-0.4264151,5.150336E-08,NaN,-2.13883,4.442942E-06,-0.2794646,-1.465666E-08,NaN,NaN,-0.019796,2.793888E-11,3.624627E-06,-1.15688E-07,-2.317871E-09,-2.861022E-08
129.3673,0.04517446,-2.904522E-08,NaN,-0.330475,-1.379043E-07,NaN,-0.4431716,5.148815E-08,NaN,-2.138724,4.443645E-06,-0.2785762,-1.463906E-08,NaN,NaN,-0.01979398,3.72521E-11,3.671565E-06,-1.156895E-07,6.631495E-11,-2.622604E-08
129.3839,0.04517386,-2.904403E-08,NaN,-0.3304351,-1.379039E-07,NaN,-0.4596901,5.145451E-08,NaN,-2.138626,4.444352E-06,-0.2777436,-1.460302E-08,NaN,NaN,-0.0197921,4.190872E-11,3.71612E-06,-1.156923E-07,6.631495E-11,-2.861022E-08
129.4008,0.04517325,-2.904285E-08,NaN,-0.3303957,-1.379037E-07,NaN,-0.4759736,5.143992E-08,NaN,-2.138536,4.445055E-06,-0.2769651,-1.458603E-08,NaN,NaN,-0.01979036,5.122194E-11,3.7568E-06,-1.156939E-07,6.631495E-11,-2.622604E-08
129.418,0.04517325,-2.904285E-08,NaN,-0.3303957,-1.379037E-07,NaN,-0.4759736,5.143992E-08,NaN,-2.138536,4.445055E-06,-0.2769651,-1.458603E-08,NaN,NaN,-0.01979036,5.122194E-11,3.7568E-06,-1.156939E-07,6.631495E-11,-2.622604E-08
129.4341,0.04517265,-2.904166E-08,NaN,-0.3303568,-1.379033E-07,NaN,-0.4920254,5.140616E-08,NaN,-2.138454,4.445763E-06,-0.2762391,-1.454988E-08,NaN,NaN,-0.01978876,5.587856E-11,3.792712E-06,-1.156967E-07,-2.317871E-09,-2.861022E-08
129.4513,0.04517204,-2.904047E-08,NaN,-0.3303183,-1.379031E-07,NaN,-0.5078486,5.139217E-08,NaN,-2.13838,4.446466E-06,-0.275564,-1.453348E-08,NaN,NaN,-0.01978729,6.519178E-11,3.831157E-06,-1.156982E-07,-7.086242E-09,-2.622604E-08
129.4682,0.04517144,-2.903929E-08,NaN,-0.3302803,-1.379026E-07,NaN,-0.5234461,5.135901E-08,NaN,-2.138313,4.447174E-06,-0.274938,-1.449793E-08,NaN,NaN,-0.01978595,7.450501E-11,3.867218E-06,-1.15701E-07,-2.317871E-09,-2.861022E-08
129.4848,0.04517084,-2.90381E-08,NaN,-0.3302428,-1.379024E-07,NaN,-0.538821,5.134559E-08,NaN,-2.138252,4.447881E-06,-0.2743599,-1.448212E-08,NaN,NaN,-0.01978473,8.381823E-11,3.901342E-06,-1.157025E-07,-4.702057E-09,-2.622604E-08
129.5018,0.04517024,-2.903692E-08,NaN,-0.3302057,-1.37902E-07,NaN,-0.5539764,5.131301E-08,NaN,-2.138199,4.448594E-06,-0.273828,-1.444713E-08,NaN,NaN,-0.01978363,8.847485E-11,3.931889E-06,-1.157053E-07,-7.086242E-09,-2.861022E-08
129.5185,0.04517024,-2.903692E-08,NaN,-0.3302057,-1.37902E-07,NaN,-0.5539764,5.131301E-08,NaN,-2.138199,4.448594E-06,-0.273828,-1.444713E-08,NaN,NaN,-0.01978363,8.847485E-11,3.931889E-06,-1.157053E-07,-7.086242E-09,-2.861022E-08
129.5343,0.04516964,-2.903573E-08,NaN,-0.3301691,-1.379018E-07,NaN,-0.5689152,5.129944E-08,NaN,-2.138153,4.449301E-06,-0.2733409,-1.443117E-08,NaN,NaN,-0.01978264,9.778807E-11,3.958413E-06,-1.157068E-07,-4.702057E-09,-2.622604E-08
129.5519,0.04516905,-2.903454E-08,NaN,-0.3301329,-1.379014E-07,NaN,-0.5836403,5.126671E-08,NaN,-2.138113,4.450014E-06,-0.2728972,-1.439604E-08,NaN,NaN,-0.01978175,1.024447E-10,3.982702E-06,-1.157096E-07,-2.317871E-09,-2.861022E-08
129.5688,0.04516846,-2.903336E-08,NaN,-0.3300972,-1.379012E-07,NaN,-0.5981547,5.125371E-08,NaN,-2.138079,4.450731E-06,-0.2724955,-1.438065E-08,NaN,NaN,-0.01978097,1.024447E-10,4.004607E-06,-1.157111E-07,-2.317871E-09,-2.622604E-08
129.5853,0.04516786,-2.903217E-08,NaN,-0.3300619,-1.379008E-07,NaN,-0.6124611,5.122154E-08,NaN,-2.138051,4.451453E-06,-0.2721345,-1.434608E-08,NaN,NaN,-0.01978029,1.024447E-10,4.025319E-06,-1.157138E-07,-4.702057E-09,-2.861022E-08
129.6021,0.04516727,-2.903098E-08,NaN,-0.330027,-1.379006E-07,NaN,-0.6265625,5.120838E-08,NaN,-2.138029,4.45217E-06,-0.2718129,-1.433053E-08,NaN,NaN,-0.0197797,1.071013E-10,4.045436E-06,-1.157153E-07,6.631495E-11,-2.622604E-08
129.6189,0.04516727,-2.903098E-08,NaN,-0.330027,-1.379006E-07,NaN,-0.6265625,5.120838E-08,NaN,-2.138029,4.45217E-06,-0.2718129,-1.433053E-08,NaN,NaN,-0.0197797,1.071013E-10,4.045436E-06,-1.157153E-07,6.631495E-11,-2.622604E-08
129.6347,0.04516669,-2.90298E-08,NaN,-0.3299926,-1.379002E-07,NaN,-0.6404616,5.117605E-08,NaN,-2.138013,4.452892E-06,-0.2715295,-1.42958E-08,NaN,NaN,-0.01977921,1.024447E-10,4.063318E-06,-1.157166E-07,-2.317871E-09,-2.861022E-08
129.6529,0.0451661,-2.902861E-08,NaN,-0.3299586,-1.378997E-07,NaN,-0.6541612,5.113401E-08,NaN,-2.138002,4.453604E-06,-0.2712829,-1.425136E-08,NaN,NaN,-0.0197788,1.117579E-10,4.079858E-06,-1.157192E-07,2.450501E-09,-2.622604E-08
129.6691,0.04516552,-2.902742E-08,NaN,-0.3299249,-1.378994E-07,NaN,-0.6676639,5.111538E-08,NaN,-2.137996,4.454321E-06,-0.2710719,-1.423033E-08,NaN,NaN,-0.01977848,1.164145E-10,4.093865E-06,-1.157206E-07,2.450501E-09,-2.861022E-08
129.6857,0.04516494,-2.902624E-08,NaN,-0.3298917,-1.37899E-07,NaN,-0.6809727,5.108048E-08,NaN,-2.137996,4.455034E-06,-0.2708955,-1.419304E-08,NaN,NaN,-0.01977824,1.210711E-10,4.104147E-06,-1.157218E-07,4.834686E-09,-2.622604E-08
129.7021,0.04516435,-2.902505E-08,NaN,-0.3298589,-1.378984E-07,NaN,-0.69409,5.103735E-08,NaN,-2.138,4.455756E-06,-0.2707524,-1.414751E-08,NaN,NaN,-0.01977809,1.210711E-10,4.115173E-06,-1.157244E-07,1.198724E-08,-2.861022E-08
129.7189,0.04516435,-2.902505E-08,NaN,-0.3298589,-1.378984E-07,NaN,-0.69409,5.103735E-08,NaN,-2.138,4.455756E-06,-0.2707524,-1.414751E-08,NaN,NaN,-0.01977809,1.210711E-10,4.115173E-06,-1.157244E-07,1.198724E-08,-2.861022E-08
129.7348,0.04516378,-2.902386E-08,NaN,-0.3298265,-1.378981E-07,NaN,-0.7070186,5.101906E-08,NaN,-2.138009,4.456473E-06,-0.2706416,-1.412681E-08,NaN,NaN,-0.019778,1.257277E-10,4.123369E-06,-1.157257E-07,1.198724E-08,-2.622604E-08
129.7525,0.0451632,-2.902268E-08,NaN,-0.3297945,-1.378976E-07,NaN,-0.719761,5.098449E-08,NaN,-2.138023,4.457194E-06,-0.2705619,-1.408985E-08,NaN,NaN,-0.01977799,1.210711E-10,4.128584E-06,-1.157269E-07,1.198724E-08,-2.861022E-08
129.7704,0.04516263,-2.902149E-08,NaN,-0.3297629,-1.37897E-07,NaN,-0.7323198,5.094238E-08,NaN,-2.138041,4.457907E-06,-0.2705123,-1.404533E-08,NaN,NaN,-0.01977805,1.303844E-10,4.134768E-06,-1.157295E-07,7.218872E-09,-2.622604E-08
129.7855,0.04516205,-2.90203E-08,NaN,-0.3297317,-1.378968E-07,NaN,-0.7446975,5.092508E-08,NaN,-2.138063,4.458624E-06,-0.2704919,-1.402564E-08,NaN,NaN,-0.01977817,1.35041E-10,4.138866E-06,-1.157308E-07,7.218872E-09,-2.861022E-08
129.8022,0.04516148,-2.901912E-08,NaN,-0.3297008,-1.378963E-07,NaN,-0.7568967,5.08915E-08,NaN,-2.13809,4.459337E-06,-0.2704995,-1.398965E-08,NaN,NaN,-0.01977836,1.396976E-10,4.141847E-06,-1.15732E-07,9.603058E-09,-2.622604E-08
129.8188,0.04516148,-2.901912E-08,NaN,-0.3297008,-1.378963E-07,NaN,-0.7568967,5.08915E-08,NaN,-2.13809,4.459337E-06,-0.2704995,-1.398965E-08,NaN,NaN,-0.01977836,1.396976E-10,4.141847E-06,-1.15732E-07,9.603058E-09,-2.622604E-08
129.8349,0.04516091,-2.901793E-08,NaN,-0.3296703,-1.378957E-07,NaN,-0.7689199,5.085035E-08,NaN,-2.138121,4.460058E-06,-0.2705342,-1.394609E-08,NaN,NaN,-0.01977861,1.35041E-10,4.141921E-06,-1.15733E-07,7.218872E-09,-2.861022E-08
129.8522,0.04516034,-2.901674E-08,NaN,-0.3296402,-1.378951E-07,NaN,-0.7807694,5.080528E-08,NaN,-2.138155,4.460771E-06,-0.2705951,-1.389862E-08,NaN,NaN,-0.01977892,1.443542E-10,4.141996E-06,-1.157355E-07,4.834686E-09,-2.622604E-08
129.8688,0.04515977,-2.901556E-08,NaN,-0.3296105,-1.378948E-07,NaN,-0.7924477,5.07872E-08,NaN,-2.138193,4.461497E-06,-0.2706812,-1.387813E-08,NaN,NaN,-0.01977929,1.396976E-10,4.140357E-06,-1.157368E-07,2.450501E-09,-2.861022E-08
129.8856,0.04515921,-2.901437E-08,NaN,-0.3295811,-1.378943E-07,NaN,-0.8039573,5.075423E-08,NaN,-2.138235,4.46221E-06,-0.2707917,-1.384277E-08,NaN,NaN,-0.0197797,1.443542E-10,4.136557E-06,-1.157379E-07,4.834686E-09,-2.622604E-08
129.9021,0.04515864,-2.901318E-08,NaN,-0.3295521,-1.378937E-07,NaN,-0.8153003,5.071369E-08,NaN,-2.13828,4.462931E-06,-0.2709256,-1.379981E-08,NaN,NaN,-0.01978017,1.396976E-10,4.131193E-06,-1.15739E-07,7.218872E-09,-2.861022E-08
129.9191,0.04515864,-2.901318E-08,NaN,-0.3295521,-1.378937E-07,NaN,-0.8153003,5.071369E-08,NaN,-2.13828,4.462931E-06,-0.2709256,-1.379981E-08,NaN,NaN,-0.01978017,1.396976E-10,4.131193E-06,-1.15739E-07,7.218872E-09,-2.861022E-08
129.935,0.04515808,-2.9012E-08,NaN,-0.3295234,-1.37893E-07,NaN,-0.8264793,5.066921E-08,NaN,-2.138329,4.463653E-06,-0.2710822,-1.375293E-08,NaN,NaN,-0.0197807,1.35041E-10,4.127617E-06,-1.157399E-07,7.218872E-09,-2.622604E-08
129.9525,0.04515752,-2.901081E-08,NaN,-0.3294951,-1.378924E-07,NaN,-0.8374963,5.062298E-08,NaN,-2.138381,4.464379E-06,-0.2712606,-1.370429E-08,NaN,NaN,-0.01978127,1.257278E-10,4.121209E-06,-1.157409E-07,4.834686E-09,-2.861022E-08
129.9689,0.04515696,-2.900962E-08,NaN,-0.3294671,-1.378916E-07,NaN,-0.8483539,5.057645E-08,NaN,-2.138436,4.465101E-06,-0.27146,-1.365535E-08,NaN,NaN,-0.01978189,1.210712E-10,4.115621E-06,-1.157418E-07,4.834686E-09,-2.622604E-08
129.9858,0.04515641,-2.900844E-08,NaN,-0.3294394,-1.378909E-07,NaN,-0.859054,5.05296E-08,NaN,-2.138493,4.465827E-06,-0.2716796,-1.360609E-08,NaN,NaN,-0.01978256,1.117579E-10,4.107053E-06,-1.157428E-07,2.450501E-09,-2.861022E-08
130.0024,0.04515585,-2.900725E-08,NaN,-0.3294121,-1.378902E-07,NaN,-0.8695991,5.048315E-08,NaN,-2.138554,4.46654E-06,-0.2719187,-1.355724E-08,NaN,NaN,-0.01978326,1.164145E-10,4.097367E-06,-1.157437E-07,-2.317871E-09,-2.622604E-08
130.0195,0.04515585,-2.900725E-08,NaN,-0.3294121,-1.378902E-07,NaN,-0.8695991,5.048315E-08,NaN,-2.138554,4.46654E-06,-0.2719187,-1.355724E-08,NaN,NaN,-0.01978326,1.164145E-10,4.097367E-06,-1.157437E-07,-2.317871E-09,-2.622604E-08
130.0354,0.0451553,-2.900606E-08,NaN,-0.3293851,-1.378895E-07,NaN,-0.8799912,5.043709E-08,NaN,-2.138618,4.467266E-06,-0.2721765,-1.350877E-08,NaN,NaN,-0.01978401,1.071013E-10,4.086564E-06,-1.157446E-07,6.631495E-11,-2.861022E-08
130.0534,0.04515475,-2.900488E-08,NaN,-0.3293585,-1.378896E-07,NaN,-0.8902326,5.049666E-08,NaN,-2.138684,4.467988E-06,-0.2724523,-1.356594E-08,NaN,NaN,-0.0197848,9.77881E-11,4.075313E-06,-1.15742E-07,6.631495E-11,-2.622604E-08
130.0702,0.0451542,-2.900369E-08,NaN,-0.3293321,-1.378893E-07,NaN,-0.9003252,5.051107E-08,NaN,-2.138752,4.468709E-06,-0.2727454,-1.357794E-08,NaN,NaN,-0.01978562,8.381826E-11,4.062051E-06,-1.15739E-07,6.631495E-11,-2.861022E-08
130.0875,0.04515365,-2.900251E-08,NaN,-0.3293061,-1.378887E-07,NaN,-0.9102712,5.050363E-08,NaN,-2.138823,4.469427E-06,-0.2730551,-1.356809E-08,NaN,NaN,-0.01978647,6.984842E-11,4.048566E-06,-1.157358E-07,6.631495E-11,-2.622604E-08
130.104,0.0451531,-2.900132E-08,NaN,-0.3292804,-1.378878E-07,NaN,-0.9200728,5.048386E-08,NaN,-2.138897,4.470144E-06,-0.2733808,-1.354592E-08,NaN,NaN,-0.01978736,5.122197E-11,4.035676E-06,-1.157324E-07,-4.702057E-09,-2.861022E-08
130.1208,0.04515256,-2.900014E-08,NaN,-0.329255,-1.378868E-07,NaN,-0.9297319,5.045763E-08,NaN,-2.138973,4.470851E-06,-0.2737217,-1.351727E-08,NaN,NaN,-0.01978828,3.725213E-11,4.019359E-06,-1.15729E-07,-2.317871E-09,-2.622604E-08
130.1378,0.04515256,-2.900014E-08,NaN,-0.329255,-1.378868E-07,NaN,-0.9297319,5.045763E-08,NaN,-2.138973,4.470851E-06,-0.2737217,-1.351727E-08,NaN,NaN,-0.01978828,3.725213E-11,4.019359E-06,-1.15729E-07,-2.317871E-09,-2.622604E-08
130.1542,0.04515201,-2.899895E-08,NaN,-0.3292299,-1.378858E-07,NaN,-0.9392505,5.042855E-08,NaN,-2.13905,4.471554E-06,-0.2740774,-1.348578E-08,NaN,NaN,-0.01978924,2.328229E-11,4.003192E-06,-1.157256E-07,-2.317871E-09,-2.861022E-08
130.1716,0.04515147,-2.899777E-08,NaN,-0.3292052,-1.378848E-07,NaN,-0.9486307,5.039879E-08,NaN,-2.13913,4.472248E-06,-0.2744471,-1.34536E-08,NaN,NaN,-0.01979022,1.396906E-11,3.988812E-06,-1.157221E-07,-4.702057E-09,-2.622604E-08
130.1888,0.04515093,-2.899658E-08,NaN,-0.3291807,-1.378837E-07,NaN,-0.9578744,5.036906E-08,NaN,-2.139212,4.472947E-06,-0.2748303,-1.342145E-08,NaN,NaN,-0.01979124,-7.74554E-16,3.970633E-06,-1.157186E-07,6.631495E-11,-2.861022E-08
130.2051,0.0451504,-2.89954E-08,NaN,-0.3291565,-1.378826E-07,NaN,-0.9669834,5.034006E-08,NaN,-2.139296,4.473641E-06,-0.2752265,-1.339002E-08,NaN,NaN,-0.01979228,-9.314E-12,3.953497E-06,-1.157152E-07,6.631495E-11,-2.622604E-08
130.2224,0.04514986,-2.899422E-08,NaN,-0.3291326,-1.378815E-07,NaN,-0.9759599,5.031176E-08,NaN,-2.139382,4.474335E-06,-0.2756349,-1.33593E-08,NaN,NaN,-0.01979334,-2.328384E-11,3.935094E-06,-1.157117E-07,4.834686E-09,-2.861022E-08
130.2391,0.04514986,-2.899422E-08,NaN,-0.3291326,-1.378815E-07,NaN,-0.9759599,5.031176E-08,NaN,-2.139382,4.474335E-06,-0.2756349,-1.33593E-08,NaN,NaN,-0.01979334,-2.328384E-11,3.935094E-06,-1.157117E-07,4.834686E-09,-2.861022E-08
130.2556,0.04514932,-2.899303E-08,NaN,-0.329109,-1.378804E-07,NaN,-0.9848055,5.028487E-08,NaN,-2.13947,4.475033E-06,-0.2760552,-1.332998E-08,NaN,NaN,-0.01979443,-4.191029E-11,3.91617E-06,-1.157083E-07,2.450501E-09,-2.622604E-08
130.2728,0.04514879,-2.899185E-08,NaN,-0.3290857,-1.378793E-07,NaN,-0.9935222,5.026005E-08,NaN,-2.139559,4.475727E-06,-0.2764868,-1.330274E-08,NaN,NaN,-0.01979554,-5.588013E-11,3.895159E-06,-1.157048E-07,4.834686E-09,-2.861022E-08
130.2913,0.04514826,-2.899066E-08,NaN,-0.3290627,-1.378781E-07,NaN,-1.002112,5.023657E-08,NaN,-2.13965,4.476421E-06,-0.2769291,-1.327682E-08,NaN,NaN,-0.01979668,-6.984997E-11,3.874595E-06,-1.157014E-07,2.450501E-09,-2.622604E-08
130.307,0.04514773,-2.898948E-08,NaN,-0.3290399,-1.378771E-07,NaN,-1.010576,5.021438E-08,NaN,-2.139742,4.477115E-06,-0.2773817,-1.325221E-08,NaN,NaN,-0.01979783,-8.381981E-11,3.85269E-06,-1.15698E-07,2.450501E-09,-2.861022E-08
130.324,0.0451472,-2.89883E-08,NaN,-0.3290174,-1.37876E-07,NaN,-1.018917,5.019348E-08,NaN,-2.139836,4.477809E-06,-0.2778441,-1.322887E-08,NaN,NaN,-0.01979901,-9.778964E-11,3.830562E-06,-1.156946E-07,-2.317871E-09,-2.622604E-08
130.3412,0.04514667,-2.898711E-08,NaN,-0.3289952,-1.378749E-07,NaN,-1.027136,5.017382E-08,NaN,-2.139931,4.478498E-06,-0.2783158,-1.320679E-08,NaN,NaN,-0.0198002,-1.071029E-10,3.809701E-06,-1.156912E-07,6.631495E-11,-2.861022E-08
130.3578,0.04514667,-2.898711E-08,NaN,-0.3289952,-1.378749E-07,NaN,-1.027136,5.017382E-08,NaN,-2.139931,4.478498E-06,-0.2783158,-1.320679E-08,NaN,NaN,-0.0198002,-1.071029E-10,3.809701E-06,-1.156912E-07,6.631495E-11,-2.861022E-08
130.3737,0.04514615,-2.898593E-08,NaN,-0.3289733,-1.378738E-07,NaN,-1.035235,5.01561E-08,NaN,-2.140027,4.479188E-06,-0.2787964,-1.318664E-08,NaN,NaN,-0.01980142,-1.164161E-10,3.788467E-06,-1.156878E-07,-2.317871E-09,-2.622604E-08
130.3918,0.04514563,-2.898475E-08,NaN,-0.3289516,-1.378727E-07,NaN,-1.043216,5.013957E-08,NaN,-2.140125,4.479877E-06,-0.2792854,-1.316768E-08,NaN,NaN,-0.01980265,-1.257293E-10,3.765743E-06,-1.156844E-07,6.631495E-11,-2.861022E-08
130.4088,0.04514511,-2.898357E-08,NaN,-0.3289302,-1.378716E-07,NaN,-1.05108,5.012419E-08,NaN,-2.140224,4.480567E-06,-0.2797823,-1.314986E-08,NaN,NaN,-0.01980389,-1.350426E-10,3.742348E-06,-1.156811E-07,2.450501E-09,-2.622604E-08
130.4256,0.04514458,-2.898238E-08,NaN,-0.328909,-1.378705E-07,NaN,-1.05883,5.010995E-08,NaN,-2.140324,4.481256E-06,-0.2802868,-1.31332E-08,NaN,NaN,-0.01980515,-1.443558E-10,3.718655E-06,-1.156777E-07,6.631495E-11,-2.861022E-08
130.4426,0.04514407,-2.89812E-08,NaN,-0.3288881,-1.378694E-07,NaN,-1.066466,5.009754E-08,NaN,-2.140425,4.481945E-06,-0.2807985,-1.311835E-08,NaN,NaN,-0.01980643,-1.53669E-10,3.694962E-06,-1.156744E-07,6.631495E-11,-2.622604E-08
130.4598,0.04514407,-2.89812E-08,NaN,-0.3288881,-1.378694E-07,NaN,-1.066466,5.009754E-08,NaN,-2.140425,4.481945E-06,-0.2807985,-1.311835E-08,NaN,NaN,-0.01980643,-1.53669E-10,3.694962E-06,-1.156744E-07,6.631495E-11,-2.622604E-08
130.4765,0.04514355,-2.898002E-08,NaN,-0.3288675,-1.378683E-07,NaN,-1.07399,5.008621E-08,NaN,-2.140528,4.482635E-06,-0.281317,-1.31046E-08,NaN,NaN,-0.01980772,-1.629823E-10,3.670375E-06,-1.156711E-07,-2.317871E-09,-2.861022E-08
130.4938,0.04514303,-2.897884E-08,NaN,-0.3288471,-1.378673E-07,NaN,-1.081404,5.007595E-08,NaN,-2.140631,4.483324E-06,-0.2818418,-1.30919E-08,NaN,NaN,-0.01980902,-1.722955E-10,3.645043E-06,-1.156678E-07,6.631495E-11,-2.622604E-08
130.5108,0.04514252,-2.897765E-08,NaN,-0.3288269,-1.378662E-07,NaN,-1.08871,5.006673E-08,NaN,-2.140735,4.484014E-06,-0.2823726,-1.308025E-08,NaN,NaN,-0.01981034,-1.816087E-10,3.619562E-06,-1.156645E-07,6.631495E-11,-2.861022E-08
130.5277,0.04514201,-2.897647E-08,NaN,-0.328807,-1.378651E-07,NaN,-1.095909,5.005924E-08,NaN,-2.14084,4.484703E-06,-0.282909,-1.307033E-08,NaN,NaN,-0.01981166,-1.909219E-10,3.594826E-06,-1.156612E-07,6.631495E-11,-2.622604E-08
130.545,0.0451415,-2.897529E-08,NaN,-0.3287874,-1.37864E-07,NaN,-1.103002,5.005274E-08,NaN,-2.140946,4.485392E-06,-0.2834508,-1.306139E-08,NaN,NaN,-0.01981299,-2.002352E-10,3.566812E-06,-1.156579E-07,6.631495E-11,-2.861022E-08
130.562,0.04514099,-2.897411E-08,NaN,-0.3287679,-1.37863E-07,NaN,-1.109992,5.00472E-08,NaN,-2.141052,4.486082E-06,-0.2839975,-1.305343E-08,NaN,NaN,-0.01981433,-2.095484E-10,3.540735E-06,-1.156547E-07,4.834686E-09,-2.622604E-08
130.5788,0.04514099,-2.897411E-08,NaN,-0.3287679,-1.37863E-07,NaN,-1.109992,5.00472E-08,NaN,-2.141052,4.486082E-06,-0.2839975,-1.305343E-08,NaN,NaN,-0.01981433,-2.095484E-10,3.540735E-06,-1.156547E-07,4.834686E-09,-2.622604E-08
130.5951,0.04514049,-2.897293E-08,NaN,-0.3287487,-1.378619E-07,NaN,-1.116879,5.004262E-08,NaN,-2.14116,4.486771E-06,-0.2845488,-1.304641E-08,NaN,NaN,-0.01981569,-2.188616E-10,3.515999E-06,-1.156514E-07,4.834686E-09,-2.861022E-08
130.6132,0.04513998,-2.897175E-08,NaN,-0.3287298,-1.378609E-07,NaN,-1.123665,5.003967E-08,NaN,-2.141268,4.487461E-06,-0.2851045,-1.304103E-08,NaN,NaN,-0.01981705,-2.281749E-10,3.489773E-06,-1.156482E-07,9.603058E-09,-2.622604E-08
130.6303,0.04513948,-2.897057E-08,NaN,-0.328711,-1.378598E-07,NaN,-1.130352,5.003762E-08,NaN,-2.141376,4.48815E-06,-0.2856642,-1.303655E-08,NaN,NaN,-0.01981843,-2.374881E-10,3.465186E-06,-1.156449E-07,7.218872E-09,-2.861022E-08
130.647,0.04513897,-2.896939E-08,NaN,-0.3286925,-1.378587E-07,NaN,-1.13694,5.003646E-08,NaN,-2.141486,4.488839E-06,-0.2862275,-1.303295E-08,NaN,NaN,-0.0198198,-2.468013E-10,3.438215E-06,-1.156417E-07,7.218872E-09,-2.622604E-08
130.664,0.04513847,-2.89682E-08,NaN,-0.3286742,-1.378577E-07,NaN,-1.143432,5.003616E-08,NaN,-2.141595,4.489529E-06,-0.2867943,-1.303022E-08,NaN,NaN,-0.01982119,-2.561145E-10,3.41035E-06,-1.156385E-07,7.218872E-09,-2.861022E-08
130.6809,0.04513798,-2.896702E-08,NaN,-0.3286562,-1.378566E-07,NaN,-1.149829,5.003741E-08,NaN,-2.141706,4.490218E-06,-0.2873642,-1.302904E-08,NaN,NaN,-0.01982258,-2.654277E-10,3.383528E-06,-1.156353E-07,7.218872E-09,-2.622604E-08
130.6981,0.04513798,-2.896702E-08,NaN,-0.3286562,-1.378566E-07,NaN,-1.149829,5.003741E-08,NaN,-2.141706,4.490218E-06,-0.2873642,-1.302904E-08,NaN,NaN,-0.01982258,-2.654277E-10,3.383528E-06,-1.156353E-07,7.218872E-09,-2.622604E-08
130.7143,0.04513748,-2.896584E-08,NaN,-0.3286383,-1.378556E-07,NaN,-1.156132,5.003949E-08,NaN,-2.141816,4.490907E-06,-0.287937,-1.302868E-08,NaN,NaN,-0.01982397,-2.74741E-10,3.355812E-06,-1.156321E-07,9.603058E-09,-2.861022E-08
130.7321,0.04513698,-2.896467E-08,NaN,-0.3286207,-1.378546E-07,NaN,-1.162343,5.004236E-08,NaN,-2.141927,4.491601E-06,-0.2885123,-1.302912E-08,NaN,NaN,-0.01982537,-2.887108E-10,3.327947E-06,-1.15629E-07,7.218872E-09,-2.622604E-08
130.749,0.04513649,-2.896349E-08,NaN,-0.3286032,-1.378535E-07,NaN,-1.168462,5.004531E-08,NaN,-2.142039,4.492291E-06,-0.28909,-1.302963E-08,NaN,NaN,-0.01982678,-2.98024E-10,3.298591E-06,-1.156258E-07,4.834686E-09,-2.861022E-08
130.766,0.045136,-2.896231E-08,NaN,-0.328586,-1.378525E-07,NaN,-1.174491,5.004905E-08,NaN,-2.142151,4.49298E-06,-0.2896698,-1.303094E-08,NaN,NaN,-0.01982819,-3.073372E-10,3.269683E-06,-1.156227E-07,2.450501E-09,-2.622604E-08
130.7829,0.04513551,-2.896113E-08,NaN,-0.328569,-1.378514E-07,NaN,-1.180432,5.005426E-08,NaN,-2.142263,4.49367E-06,-0.2902514,-1.303371E-08,NaN,NaN,-0.0198296,-3.166504E-10,3.241818E-06,-1.156195E-07,-4.702057E-09,-2.861022E-08
130.7999,0.04513551,-2.896113E-08,NaN,-0.328569,-1.378514E-07,NaN,-1.180432,5.005426E-08,NaN,-2.142263,4.49367E-06,-0.2902514,-1.303371E-08,NaN,NaN,-0.0198296,-3.166504E-10,3.241818E-06,-1.156195E-07,-4.702057E-09,-2.861022E-08
130.8164,0.04513502,-2.895995E-08,NaN,-0.3285522,-1.378504E-07,NaN,-1.186285,5.00602E-08,NaN,-2.142375,4.494359E-06,-0.2908347,-1.303723E-08,NaN,NaN,-0.01983102,-3.259636E-10,3.212463E-06,-1.156164E-07,-7.086242E-09,-2.622604E-08
130.8356,0.04513453,-2.895877E-08,NaN,-0.3285356,-1.378494E-07,NaN,-1.192053,5.006688E-08,NaN,-2.142488,4.495048E-06,-0.2914193,-1.304147E-08,NaN,NaN,-0.01983243,-3.352769E-10,3.183405E-06,-1.156133E-07,-4.702057E-09,-2.861022E-08
130.8511,0.04513405,-2.895759E-08,NaN,-0.3285192,-1.378484E-07,NaN,-1.197735,5.007427E-08,NaN,-2.142601,4.495733E-06,-0.2920051,-1.304642E-08,NaN,NaN,-0.01983386,-3.399335E-10,3.153007E-06,-1.156102E-07,-7.086242E-09,-2.622604E-08
130.8681,0.04513356,-2.895641E-08,NaN,-0.328503,-1.378473E-07,NaN,-1.203334,5.008235E-08,NaN,-2.142714,4.496417E-06,-0.2925919,-1.305207E-08,NaN,NaN,-0.01983527,-3.445901E-10,3.125142E-06,-1.156071E-07,-9.470428E-09,-2.861022E-08
130.885,0.04513308,-2.895523E-08,NaN,-0.328487,-1.378463E-07,NaN,-1.208851,5.009111E-08,NaN,-2.142827,4.497102E-06,-0.2931794,-1.305839E-08,NaN,NaN,-0.0198367,-3.492467E-10,3.095638E-06,-1.15604E-07,-7.086242E-09,-2.622604E-08
130.9016,0.0451326,-2.895405E-08,NaN,-0.3284712,-1.378453E-07,NaN,-1.214287,5.010125E-08,NaN,-2.14294,4.497786E-06,-0.2937675,-1.30661E-08,NaN,NaN,-0.01983812,-3.539033E-10,3.067028E-06,-1.156009E-07,-1.185461E-08,-2.861022E-08
130.9188,0.0451326,-2.895405E-08,NaN,-0.3284712,-1.378453E-07,NaN,-1.214287,5.010125E-08,NaN,-2.14294,4.497786E-06,-0.2937675,-1.30661E-08,NaN,NaN,-0.01983812,-3.539033E-10,3.067028E-06,-1.156009E-07,-1.185461E-08,-2.861022E-08
130.9353,0.04513212,-2.895287E-08,NaN,-0.3284555,-1.378443E-07,NaN,-1.219642,5.011202E-08,NaN,-2.143054,4.49847E-06,-0.2943565,-1.307444E-08,NaN,NaN,-0.01983954,-3.585599E-10,3.03797E-06,-1.155979E-07,-1.42388E-08,-2.622604E-08
130.9529,0.04513164,-2.89517E-08,NaN,-0.3284401,-1.378433E-07,NaN,-1.224917,5.012343E-08,NaN,-2.143167,4.499155E-06,-0.2949456,-1.308342E-08,NaN,NaN,-0.01984097,-3.632165E-10,3.009658E-06,-1.155948E-07,-1.42388E-08,-2.861022E-08
130.9698,0.04513116,-2.895052E-08,NaN,-0.3284248,-1.378423E-07,NaN,-1.230115,5.013546E-08,NaN,-2.143281,4.499839E-06,-0.2955346,-1.309301E-08,NaN,NaN,-0.01984239,-3.678731E-10,2.981346E-06,-1.155918E-07,-1.42388E-08,-2.622604E-08
130.9869,0.04513069,-2.894934E-08,NaN,-0.3284098,-1.378413E-07,NaN,-1.234474,5.014809E-08,NaN,-2.143463,4.500524E-06,-0.2970328,-1.310321E-08,NaN,NaN,-0.01984619,-3.725297E-10,2.907884E-06,-1.155887E-07,-9.470427E-09,-2.861022E-08
131.0039,0.04513021,-2.894816E-08,NaN,-0.3283949,-1.378402E-07,NaN,-1.237918,5.016132E-08,NaN,-2.14366,4.501208E-06,-0.2983691,-1.3114E-08,NaN,NaN,-0.01984955,-3.771863E-10,2.843213E-06,-1.155857E-07,-1.185461E-08,-2.622604E-08
131.0211,0.04512974,-2.894699E-08,NaN,-0.3283802,-1.378393E-07,NaN,-1.240849,5.017583E-08,NaN,-2.14385,4.501888E-06,-0.299491,-1.312608E-08,NaN,NaN,-0.01985234,-3.771863E-10,2.788823E-06,-1.155827E-07,-1.185461E-08,-2.861022E-08
131.0378,0.04512974,-2.894699E-08,NaN,-0.3283802,-1.378393E-07,NaN,-1.240849,5.017583E-08,NaN,-2.14385,4.501888E-06,-0.299491,-1.312608E-08,NaN,NaN,-0.01985234,-3.771863E-10,2.788823E-06,-1.155827E-07,-1.185461E-08,-2.861022E-08
131.0542,0.04512927,-2.894581E-08,NaN,-0.3283657,-1.378383E-07,NaN,-1.242761,5.01909E-08,NaN,-2.144098,4.502572E-06,-0.3013971,-1.313872E-08,NaN,NaN,-0.01985721,-3.818429E-10,2.695244E-06,-1.155797E-07,-1.185461E-08,-2.622604E-08
131.0716,0.0451288,-2.894463E-08,NaN,-0.3283513,-1.378373E-07,NaN,-1.243697,5.020652E-08,NaN,-2.144352,4.503257E-06,-0.3030773,-1.31519E-08,NaN,NaN,-0.01986146,-3.864996E-10,2.614107E-06,-1.155767E-07,-9.470428E-09,-2.861022E-08
131.0891,0.04512832,-2.894345E-08,NaN,-0.3283372,-1.378363E-07,NaN,-1.244115,5.022267E-08,NaN,-2.144593,4.503941E-06,-0.3045079,-1.316562E-08,NaN,NaN,-0.01986507,-3.911562E-10,2.545264E-06,-1.155738E-07,-1.185461E-08,-2.622604E-08
131.1058,0.04512785,-2.894228E-08,NaN,-0.3283232,-1.378353E-07,NaN,-1.244292,5.023934E-08,NaN,-2.144818,4.504625E-06,-0.3057917,-1.317986E-08,NaN,NaN,-0.01986829,-3.958128E-10,2.483499E-06,-1.155708E-07,-1.42388E-08,-2.861022E-08
131.1231,0.04512739,-2.89411E-08,NaN,-0.3283093,-1.378343E-07,NaN,-1.243604,5.025653E-08,NaN,-2.1451,4.50531E-06,-0.3079031,-1.319462E-08,NaN,NaN,-0.01987375,-4.004694E-10,2.380755E-06,-1.155678E-07,-1.185461E-08,-2.622604E-08
131.1401,0.04512692,-2.893992E-08,NaN,-0.3282956,-1.378333E-07,NaN,-1.242029,5.027423E-08,NaN,-2.145392,4.505994E-06,-0.3098071,-1.320988E-08,NaN,NaN,-0.01987863,-4.05126E-10,2.28915E-06,-1.155649E-07,-7.086242E-09,-2.861022E-08
131.1573,0.04512692,-2.893992E-08,NaN,-0.3282956,-1.378333E-07,NaN,-1.242029,5.027423E-08,NaN,-2.145392,4.505994E-06,-0.3098071,-1.320988E-08,NaN,NaN,-0.01987863,-4.05126E-10,2.28915E-06,-1.155649E-07,-7.086242E-09,-2.861022E-08
131.1733,0.04512646,-2.893875E-08,NaN,-0.3282821,-1.378323E-07,NaN,-1.239993,5.029242E-08,NaN,-2.145669,4.506679E-06,-0.3114637,-1.322563E-08,NaN,NaN,-0.01988287,-4.097826E-10,2.208237E-06,-1.15562E-07,-4.702056E-09,-2.622604E-08
131.1909,0.04512599,-2.893757E-08,NaN,-0.3282688,-1.378313E-07,NaN,-1.237004,5.03118E-08,NaN,-2.146001,4.507363E-06,-0.3138769,-1.324258E-08,NaN,NaN,-0.01988918,-4.144392E-10,2.0913E-06,-1.15559E-07,-7.086242E-09,-2.861022E-08
131.2077,0.04512553,-2.89364E-08,NaN,-0.3282556,-1.378304E-07,NaN,-1.233108,5.033165E-08,NaN,-2.146339,4.508047E-06,-0.3160441,-1.325999E-08,NaN,NaN,-0.01989481,-4.190958E-10,1.986079E-06,-1.155561E-07,-2.31787E-09,-2.622604E-08
131.2254,0.04512507,-2.893522E-08,NaN,-0.3282426,-1.378294E-07,NaN,-1.22876,5.035194E-08,NaN,-2.14666,4.508732E-06,-0.3179405,-1.327785E-08,NaN,NaN,-0.01989973,-4.237524E-10,1.896607E-06,-1.155532E-07,2.450501E-09,-2.861022E-08
131.2419,0.04512461,-2.893404E-08,NaN,-0.3282297,-1.378284E-07,NaN,-1.224237,5.037268E-08,NaN,-2.146961,4.509416E-06,-0.3196694,-1.329616E-08,NaN,NaN,-0.01990421,-4.28409E-10,1.813468E-06,-1.155503E-07,7.218873E-09,-2.622604E-08
131.259,0.04512461,-2.893404E-08,NaN,-0.3282297,-1.378284E-07,NaN,-1.224237,5.037268E-08,NaN,-2.146961,4.509416E-06,-0.3196694,-1.329616E-08,NaN,NaN,-0.01990421,-4.28409E-10,1.813468E-06,-1.155503E-07,7.218873E-09,-2.622604E-08
131.2751,0.04512415,-2.893287E-08,NaN,-0.328217,-1.378275E-07,NaN,-1.21892,5.039385E-08,NaN,-2.147317,4.510101E-06,-0.322205,-1.331489E-08,NaN,NaN,-0.01991095,-4.330656E-10,1.69228E-06,-1.155475E-07,1.437143E-08,-2.861022E-08
131.2929,0.04512369,-2.893169E-08,NaN,-0.3282044,-1.378265E-07,NaN,-1.212784,5.041545E-08,NaN,-2.147683,4.510785E-06,-0.3245178,-1.333406E-08,NaN,NaN,-0.01991706,-4.377222E-10,1.581694E-06,-1.155446E-07,1.437143E-08,-2.622604E-08
131.31,0.04512323,-2.893052E-08,NaN,-0.328192,-1.378255E-07,NaN,-1.206252,5.043747E-08,NaN,-2.148032,4.511469E-06,-0.3265653,-1.335364E-08,NaN,NaN,-0.01992247,-4.423789E-10,1.485694E-06,-1.155417E-07,1.437143E-08,-2.861022E-08
131.3267,0.04512278,-2.892934E-08,NaN,-0.3281797,-1.378246E-07,NaN,-1.198836,5.04599E-08,NaN,-2.148435,4.512154E-06,-0.32935,-1.337364E-08,NaN,NaN,-0.01992997,-4.470355E-10,1.353744E-06,-1.155389E-07,1.437143E-08,-2.622604E-08
131.3436,0.04512232,-2.892817E-08,NaN,-0.3281676,-1.378236E-07,NaN,-1.190578,5.048273E-08,NaN,-2.148843,4.512838E-06,-0.3318751,-1.339403E-08,NaN,NaN,-0.01993675,-4.516921E-10,1.233566E-06,-1.15536E-07,1.198724E-08,-2.861022E-08
131.3623,0.04512187,-2.8927E-08,NaN,-0.3281556,-1.378227E-07,NaN,-1.18193,5.050595E-08,NaN,-2.149231,4.513523E-06,-0.334113,-1.341482E-08,NaN,NaN,-0.01994275,-4.563487E-10,1.127321E-06,-1.155332E-07,1.198724E-08,-2.622604E-08
131.3771,0.04512187,-2.8927E-08,NaN,-0.3281556,-1.378227E-07,NaN,-1.18193,5.050595E-08,NaN,-2.149231,4.513523E-06,-0.334113,-1.341482E-08,NaN,NaN,-0.01994275,-4.563487E-10,1.127321E-06,-1.155332E-07,1.198724E-08,-2.622604E-08
131.3931,0.04512142,-2.892582E-08,NaN,-0.3281437,-1.378217E-07,NaN,-1.173166,5.053027E-08,NaN,-2.149596,4.514207E-06,-0.3361663,-1.34367E-08,NaN,NaN,-0.01994827,-4.610053E-10,1.030389E-06,-1.155304E-07,7.218873E-09,-2.861022E-08
131.4105,0.04512097,-2.892465E-08,NaN,-0.328132,-1.378207E-07,NaN,-1.163676,5.055495E-08,NaN,-2.150016,4.514887E-06,-0.3390087,-1.345895E-08,NaN,NaN,-0.01995607,-4.610053E-10,8.932981E-07,-1.155276E-07,4.834688E-09,-2.622604E-08
131.4272,0.04512052,-2.892347E-08,NaN,-0.3281204,-1.378198E-07,NaN,-1.153429,5.057999E-08,NaN,-2.150444,4.515576E-06,-0.3416171,-1.348155E-08,NaN,NaN,-0.0199632,-4.703185E-10,7.70289E-07,-1.155248E-07,4.834688E-09,-2.861022E-08
131.4438,0.04512007,-2.89223E-08,NaN,-0.328109,-1.378188E-07,NaN,-1.142843,5.060538E-08,NaN,-2.150854,4.516261E-06,-0.3439459,-1.350451E-08,NaN,NaN,-0.01996958,-4.749751E-10,6.638202E-07,-1.15522E-07,2.450502E-09,-2.622604E-08
131.4605,0.04511962,-2.892113E-08,NaN,-0.3280977,-1.378179E-07,NaN,-1.13218,5.063112E-08,NaN,-2.151239,4.51695E-06,-0.3460893,-1.352781E-08,NaN,NaN,-0.01997545,-4.842883E-10,5.642059E-07,-1.155192E-07,-2.317869E-09,-2.861022E-08
131.4778,0.04511962,-2.892113E-08,NaN,-0.3280977,-1.378179E-07,NaN,-1.13218,5.063112E-08,NaN,-2.151239,4.51695E-06,-0.3460893,-1.352781E-08,NaN,NaN,-0.01997545,-4.842883E-10,5.642059E-07,-1.155192E-07,-2.317869E-09,-2.861022E-08
131.4938,0.04511918,-2.891995E-08,NaN,-0.3280865,-1.37817E-07,NaN,-1.120824,5.065719E-08,NaN,-2.151682,4.517634E-06,-0.3490172,-1.355145E-08,NaN,NaN,-0.01998365,-4.889449E-10,4.278603E-07,-1.155164E-07,-4.702055E-09,-2.622604E-08
131.511,0.04511874,-2.891878E-08,NaN,-0.3280755,-1.37816E-07,NaN,-1.108743,5.063429E-08,NaN,-2.152133,4.518319E-06,-0.351709,-1.352612E-08,NaN,NaN,-0.01999117,-4.889449E-10,3.020945E-07,-1.155136E-07,-4.702055E-09,-2.861022E-08
131.5277,0.04511829,-2.89176E-08,NaN,-0.3280646,-1.378151E-07,NaN,-1.096349,5.061271E-08,NaN,-2.152564,4.519003E-06,-0.3541161,-1.35021E-08,NaN,NaN,-0.01999789,-4.889449E-10,1.910809E-07,-1.155109E-07,-7.086241E-09,-2.622604E-08
131.545,0.04511786,-2.891643E-08,NaN,-0.3280538,-1.378142E-07,NaN,-1.083165,5.059242E-08,NaN,-2.153049,4.519702E-06,-0.3572373,-1.347937E-08,NaN,NaN,-0.02000677,-4.982582E-10,4.743369E-08,-1.155082E-07,-7.086241E-09,-2.861022E-08
131.5616,0.04511742,-2.891526E-08,NaN,-0.3280431,-1.378132E-07,NaN,-1.069227,5.057269E-08,NaN,-2.153539,4.520391E-06,-0.3600862,-1.345721E-08,NaN,NaN,-0.02001486,-4.982582E-10,-8.473961E-08,-1.155054E-07,-1.42388E-08,-2.622604E-08
131.5787,0.04511742,-2.891526E-08,NaN,-0.3280431,-1.378132E-07,NaN,-1.069227,5.057269E-08,NaN,-2.153539,4.520391E-06,-0.3600862,-1.345721E-08,NaN,NaN,-0.02001486,-4.982582E-10,-8.473961E-08,-1.155054E-07,-1.42388E-08,-2.622604E-08
131.5944,0.04511698,-2.891409E-08,NaN,-0.3280326,-1.378123E-07,NaN,-1.054977,5.055422E-08,NaN,-2.154004,4.52109E-06,-0.3626296,-1.34363E-08,NaN,NaN,-0.02002208,-5.075714E-10,-2.008197E-07,-1.155027E-07,-9.470427E-09,-2.861022E-08
131.6124,0.04511654,-2.891291E-08,NaN,-0.3280222,-1.378114E-07,NaN,-1.039956,5.053698E-08,NaN,-2.154521,4.521779E-06,-0.365873,-1.341663E-08,NaN,NaN,-0.02003145,-5.075714E-10,-3.487882E-07,-1.155E-07,-7.086241E-09,-2.622604E-08
131.6289,0.0451161,-2.891174E-08,NaN,-0.3280118,-1.378104E-07,NaN,-1.024203,5.052095E-08,NaN,-2.15504,4.522477E-06,-0.3688373,-1.339817E-08,NaN,NaN,-0.02004001,-5.168846E-10,-4.842398E-07,-1.154973E-07,-7.086241E-09,-2.861022E-08
131.6462,0.04511567,-2.891057E-08,NaN,-0.3280016,-1.378095E-07,NaN,-1.008163,5.056239E-08,NaN,-2.155534,4.523171E-06,-0.3714887,-1.343717E-08,NaN,NaN,-0.02004767,-5.168846E-10,-6.055352E-07,-1.154946E-07,-7.086241E-09,-2.622604E-08
