JMolnar6/NonAnthroHands_User_Study/HandsLoggerWithURDF/tempdata/files/Reachy_JointMotion_gesture_6_29.csv
Time,r_shoulder,r_shoulder_x,r_upper_arm,r_forearm,r_wrist,r_wrist2hand,
299.5853,0.04500349,-1.981089E-08,NaN,-0.3269999,-1.359214E-07,NaN,0.4599618,-1.091926E-08,NaN,-2.155725,1.002732E-05,-0.3670234,-1.538477E-08,NaN,NaN,-0.6168927,-7.45066E-11,-8.559293E-07,-1.139345E-07,3.507942E-08,-2.861022E-08
299.6013,0.0450035,-1.980988E-08,NaN,-0.3269999,-1.359197E-07,NaN,0.460773,-1.09113E-08,NaN,-2.153885,1.002791E-05,-0.3665124,-1.539058E-08,NaN,NaN,-0.6201899,-8.381983E-11,-9.176946E-07,-1.139312E-07,3.627151E-08,-2.622604E-08
299.6168,0.0450035,-1.980988E-08,NaN,-0.3269999,-1.359197E-07,NaN,0.460773,-1.09113E-08,NaN,-2.153885,1.002791E-05,-0.3665124,-1.539058E-08,NaN,NaN,-0.6201899,-8.381983E-11,-9.176946E-07,-1.139312E-07,3.627151E-08,-2.622604E-08
299.6318,0.0450035,-1.980887E-08,NaN,-0.3269999,-1.35918E-07,NaN,0.4612396,-1.090052E-08,NaN,-2.152726,1.002849E-05,-0.3661814,-1.539922E-08,NaN,NaN,-0.6234223,-8.847644E-11,-9.565866E-07,-1.139279E-07,3.507942E-08,-2.861022E-08
299.6486,0.04500351,-1.980786E-08,NaN,-0.3269999,-1.359163E-07,NaN,0.461548,-1.088837E-08,NaN,-2.151909,1.002908E-05,-0.3659495,-1.540923E-08,NaN,NaN,-0.6265911,-9.778967E-11,-9.851224E-07,-1.139247E-07,3.567547E-08,-2.622604E-08
299.6642,0.04500351,-1.980685E-08,NaN,-0.3269999,-1.359146E-07,NaN,0.4617835,-1.087348E-08,NaN,-2.151269,1.002966E-05,-0.3657715,-1.542197E-08,NaN,NaN,-0.6296979,-1.024463E-10,-1.007474E-06,-1.139214E-07,4.342407E-08,-2.861022E-08
299.6802,0.04500351,-1.980584E-08,NaN,-0.3269999,-1.359129E-07,NaN,0.4611621,-1.085732E-08,NaN,-2.152654,1.003024E-05,-0.3661393,-1.5436E-08,NaN,NaN,-0.6294176,-1.071029E-10,-9.619511E-07,-1.139182E-07,4.342407E-08,-2.622604E-08
299.6962,0.04500351,-1.980584E-08,NaN,-0.3269999,-1.359129E-07,NaN,0.4611621,-1.085732E-08,NaN,-2.152654,1.003024E-05,-0.3661393,-1.5436E-08,NaN,NaN,-0.6294176,-1.071029E-10,-9.619511E-07,-1.139182E-07,4.342407E-08,-2.622604E-08
299.7115,0.0450035,-1.980483E-08,NaN,-0.3269999,-1.359116E-07,NaN,0.4608631,-1.115165E-08,NaN,-2.153412,1.003083E-05,-0.3663485,-1.513953E-08,NaN,NaN,-0.6291431,-1.117595E-10,-9.366936E-07,-1.139158E-07,4.759639E-08,-2.861022E-08
299.7282,0.0450035,-1.980382E-08,NaN,-0.3269999,-1.359107E-07,NaN,0.4607098,-1.143845E-08,NaN,-2.153864,1.003142E-05,-0.3664706,-1.48506E-08,NaN,NaN,-0.6288739,-1.210727E-10,-9.250707E-07,-1.139138E-07,4.521221E-08,-2.622604E-08
299.7439,0.04500349,-1.980281E-08,NaN,-0.3269999,-1.359101E-07,NaN,0.4606201,-1.171863E-08,NaN,-2.154166,1.003201E-05,-0.366547,-1.45683E-08,NaN,NaN,-0.6286101,-1.210727E-10,-9.168751E-07,-1.139119E-07,4.044384E-08,-2.861022E-08
299.7599,0.04500349,-1.980281E-08,NaN,-0.3269999,-1.359101E-07,NaN,0.4606201,-1.171863E-08,NaN,-2.154166,1.003201E-05,-0.366547,-1.45683E-08,NaN,NaN,-0.6286101,-1.210727E-10,-9.168751E-07,-1.139119E-07,4.044384E-08,-2.861022E-08
299.7747,0.04500348,-1.98018E-08,NaN,-0.3269999,-1.359096E-07,NaN,0.45973,-1.199271E-08,NaN,-2.156326,1.003261E-05,-0.3671216,-1.42921E-08,NaN,NaN,-0.6250176,-1.30386E-10,-8.445299E-07,-1.139102E-07,3.388732E-08,-2.622604E-08
299.7914,0.04500347,-1.980079E-08,NaN,-0.3269999,-1.359091E-07,NaN,0.4591927,-1.226106E-08,NaN,-2.157764,1.00332E-05,-0.3675091,-1.402164E-08,NaN,NaN,-0.6214958,-1.396992E-10,-7.969953E-07,-1.139085E-07,2.792686E-08,-2.861022E-08
299.8073,0.04500346,-1.979978E-08,NaN,-0.3269999,-1.359088E-07,NaN,0.4588179,-1.252389E-08,NaN,-2.158837,1.003379E-05,-0.367793,-1.375669E-08,NaN,NaN,-0.6180432,-1.396992E-10,-7.626481E-07,-1.139068E-07,2.613872E-08,-2.622604E-08
299.8235,0.04500345,-1.979878E-08,NaN,-0.3269999,-1.359084E-07,NaN,0.4585181,-1.278139E-08,NaN,-2.15972,1.003439E-05,-0.3680203,-1.349709E-08,NaN,NaN,-0.6146583,-1.490124E-10,-7.341869E-07,-1.139052E-07,2.613872E-08,-2.861022E-08
299.8391,0.04500345,-1.979878E-08,NaN,-0.3269999,-1.359084E-07,NaN,0.4585181,-1.278139E-08,NaN,-2.15972,1.003439E-05,-0.3680203,-1.349709E-08,NaN,NaN,-0.6146583,-1.490124E-10,-7.341869E-07,-1.139052E-07,2.613872E-08,-2.861022E-08
299.8543,0.04500344,-1.979777E-08,NaN,-0.3269999,-1.359081E-07,NaN,0.4574196,-1.30337E-08,NaN,-2.162431,1.003498E-05,-0.368746,-1.324268E-08,NaN,NaN,-0.6080059,-1.583257E-10,-6.450034E-07,-1.139036E-07,2.852291E-08,-2.622604E-08
299.8705,0.04500342,-1.979676E-08,NaN,-0.3269999,-1.359078E-07,NaN,0.4566835,-1.328098E-08,NaN,-2.164393,1.003558E-05,-0.3692763,-1.29933E-08,NaN,NaN,-0.6014842,-1.676389E-10,-5.82195E-07,-1.13902E-07,2.792686E-08,-2.861022E-08
299.8864,0.04500341,-1.979575E-08,NaN,-0.3269999,-1.359075E-07,NaN,0.4561186,-1.35233E-08,NaN,-2.165968,1.003617E-05,-0.3696958,-1.274889E-08,NaN,NaN,-0.5950905,-1.769521E-10,-5.317546E-07,-1.139004E-07,2.792686E-08,-2.622604E-08
299.9021,0.0450034,-1.979475E-08,NaN,-0.3269999,-1.359072E-07,NaN,0.4556369,-1.376083E-08,NaN,-2.167332,1.003677E-05,-0.3700525,-1.250926E-08,NaN,NaN,-0.5888222,-1.862654E-10,-4.878707E-07,-1.138988E-07,2.19664E-08,-2.861022E-08
299.9179,0.0450034,-1.979475E-08,NaN,-0.3269999,-1.359072E-07,NaN,0.4556369,-1.376083E-08,NaN,-2.167332,1.003677E-05,-0.3700525,-1.250926E-08,NaN,NaN,-0.5888222,-1.862654E-10,-4.878707E-07,-1.138988E-07,2.19664E-08,-2.861022E-08
299.933,0.04500338,-1.979374E-08,NaN,-0.3269999,-1.359069E-07,NaN,0.4543532,-1.399362E-08,NaN,-2.1705,1.003736E-05,-0.3709132,-1.227438E-08,NaN,NaN,-0.5793431,-1.955786E-10,-3.867663E-07,-1.138972E-07,2.137035E-08,-2.622604E-08
299.95,0.04500336,-1.979273E-08,NaN,-0.3269999,-1.359066E-07,NaN,0.4534411,-1.422176E-08,NaN,-2.172902,1.003795E-05,-0.3715703,-1.204414E-08,NaN,NaN,-0.57005,-1.955786E-10,-3.133036E-07,-1.138956E-07,1.242965E-08,-2.861022E-08
299.9656,0.04500334,-1.979172E-08,NaN,-0.3269999,-1.359063E-07,NaN,0.4527088,-1.444536E-08,NaN,-2.174898,1.003854E-05,-0.3721095,-1.181845E-08,NaN,NaN,-0.5609393,-1.955786E-10,-2.533264E-07,-1.138941E-07,1.660198E-08,-2.622604E-08
299.9813,0.04500332,-1.979072E-08,NaN,-0.3269999,-1.35906E-07,NaN,0.4520673,-1.466449E-08,NaN,-2.176664,1.003912E-05,-0.3725799,-1.159723E-08,NaN,NaN,-0.5520072,-1.955786E-10,-1.996822E-07,-1.138925E-07,1.362175E-08,-2.861022E-08
299.9971,0.04500332,-1.979072E-08,NaN,-0.3269999,-1.35906E-07,NaN,0.4520673,-1.466449E-08,NaN,-2.176664,1.003912E-05,-0.3725799,-1.159723E-08,NaN,NaN,-0.5520072,-1.955786E-10,-1.996822E-07,-1.138925E-07,1.362175E-08,-2.861022E-08
300.012,0.0450033,-1.978971E-08,NaN,-0.3269999,-1.359057E-07,NaN,0.4506166,-1.487929E-08,NaN,-2.180214,1.003971E-05,-0.3735639,-1.138034E-08,NaN,NaN,-0.5399166,-1.955786E-10,-9.298992E-08,-1.13891E-07,2.017826E-08,-2.622604E-08
300.0288,0.04500328,-1.97887E-08,NaN,-0.3269999,-1.359054E-07,NaN,0.4495469,-1.508979E-08,NaN,-2.182981,1.00403E-05,-0.3743354,-1.116775E-08,NaN,NaN,-0.5280632,-1.955786E-10,-1.371575E-08,-1.138894E-07,1.839012E-08,-2.861022E-08
300.046,0.04500326,-1.97877E-08,NaN,-0.3269999,-1.359051E-07,NaN,0.4486795,-1.529612E-08,NaN,-2.184981,1.004088E-05,-0.3749426,-1.095933E-08,NaN,NaN,-0.5164418,-1.955786E-10,7.330703E-08,-1.138879E-07,1.779407E-08,-2.622604E-08
300.0606,0.04500323,-1.978669E-08,NaN,-0.3269999,-1.359048E-07,NaN,0.4479365,-1.549837E-08,NaN,-2.185843,1.004147E-05,-0.3753886,-1.075499E-08,NaN,NaN,-0.5050472,-1.90922E-10,1.858108E-07,-1.138863E-07,2.017826E-08,-2.861022E-08
300.076,0.04500323,-1.978669E-08,NaN,-0.3269999,-1.359048E-07,NaN,0.4479365,-1.549837E-08,NaN,-2.185843,1.004147E-05,-0.3753886,-1.075499E-08,NaN,NaN,-0.5050472,-1.90922E-10,1.858108E-07,-1.138863E-07,2.017826E-08,-2.861022E-08
300.0913,0.04500319,-1.978568E-08,NaN,-0.3269998,-1.359045E-07,NaN,0.4463762,-1.569657E-08,NaN,-2.187749,1.004207E-05,-0.37632,-1.05547E-08,NaN,NaN,-0.4905422,-1.90922E-10,3.473394E-07,-1.138848E-07,2.137035E-08,-2.622604E-08
300.1075,0.04500315,-1.978467E-08,NaN,-0.3269998,-1.359042E-07,NaN,0.4452174,-1.589084E-08,NaN,-2.187838,1.004266E-05,-0.3769666,-1.035834E-08,NaN,NaN,-0.476321,-1.862654E-10,5.103581E-07,-1.138833E-07,1.481384E-08,-2.861022E-08
300.1232,0.04500312,-1.978367E-08,NaN,-0.3269998,-1.359039E-07,NaN,0.4442368,-1.608122E-08,NaN,-2.187005,1.004326E-05,-0.377492,-1.016587E-08,NaN,NaN,-0.4623792,-1.862654E-10,6.423824E-07,-1.138817E-07,1.481384E-08,-2.622604E-08
300.1389,0.04500312,-1.978367E-08,NaN,-0.3269998,-1.359039E-07,NaN,0.4442368,-1.608122E-08,NaN,-2.187005,1.004326E-05,-0.377492,-1.016587E-08,NaN,NaN,-0.4623792,-1.862654E-10,6.423824E-07,-1.138817E-07,1.481384E-08,-2.622604E-08
300.1541,0.04500308,-1.978266E-08,NaN,-0.3269998,-1.359032E-07,NaN,0.4424508,-1.627051E-08,NaN,-2.187941,1.004386E-05,-0.3785747,-9.97449E-09,NaN,NaN,-0.4453779,-1.769521E-10,7.876687E-07,-1.138812E-07,1.540989E-08,-2.861022E-08
300.1704,0.04500304,-1.978165E-08,NaN,-0.3269997,-1.359025E-07,NaN,0.4410883,-1.645562E-08,NaN,-2.187759,1.004445E-05,-0.3794069,-9.787289E-09,NaN,NaN,-0.4287097,-1.676389E-10,9.237163E-07,-1.138807E-07,1.42178E-08,-2.622604E-08
300.1864,0.045003,-1.978064E-08,NaN,-0.3269997,-1.359019E-07,NaN,0.4399324,-1.663687E-08,NaN,-2.187075,1.004504E-05,-0.3801114,-9.603938E-09,NaN,NaN,-0.4123687,-1.536691E-10,1.034879E-06,-1.138802E-07,1.958221E-08,-2.861022E-08
300.2022,0.04500297,-1.977964E-08,NaN,-0.3269997,-1.359013E-07,NaN,0.4388814,-1.681442E-08,NaN,-2.186372,1.004564E-05,-0.3807639,-9.424292E-09,NaN,NaN,-0.3963487,-1.443558E-10,1.119816E-06,-1.138798E-07,9.449423E-09,-2.622604E-08
300.2183,0.04500297,-1.977964E-08,NaN,-0.3269997,-1.359013E-07,NaN,0.4388814,-1.681442E-08,NaN,-2.186372,1.004564E-05,-0.3807639,-9.424292E-09,NaN,NaN,-0.3963487,-1.443558E-10,1.119816E-06,-1.138798E-07,9.449423E-09,-2.622604E-08
300.2332,0.04500293,-1.977863E-08,NaN,-0.3269996,-1.359007E-07,NaN,0.4370031,-1.698838E-08,NaN,-2.187804,1.004624E-05,-0.3819767,-9.24824E-09,NaN,NaN,-0.3773097,-1.350426E-10,1.230531E-06,-1.138793E-07,8.257331E-09,-2.861022E-08
300.2497,0.04500289,-1.977763E-08,NaN,-0.3269996,-1.359001E-07,NaN,0.4355529,-1.715885E-08,NaN,-2.188104,1.004683E-05,-0.3829156,-9.07568E-09,NaN,NaN,-0.3586432,-1.257294E-10,1.345717E-06,-1.138789E-07,7.065238E-09,-2.622604E-08
300.2656,0.04500285,-1.977662E-08,NaN,-0.3269996,-1.358997E-07,NaN,0.4343159,-1.752696E-08,NaN,-2.187711,1.004744E-05,-0.3837007,-8.705467E-09,NaN,NaN,-0.3403428,-1.210728E-10,1.447194E-06,-1.138783E-07,4.681052E-09,-2.861022E-08
300.2815,0.04500281,-1.977562E-08,NaN,-0.3269995,-1.358994E-07,NaN,0.4331879,-1.788776E-08,NaN,-2.187096,1.004804E-05,-0.3844148,-8.342579E-09,NaN,NaN,-0.3224016,-1.164162E-10,1.525872E-06,-1.138777E-07,5.873146E-09,-2.622604E-08
300.2972,0.04500281,-1.977562E-08,NaN,-0.3269995,-1.358994E-07,NaN,0.4331879,-1.788776E-08,NaN,-2.187096,1.004804E-05,-0.3844148,-8.342579E-09,NaN,NaN,-0.3224016,-1.164162E-10,1.525872E-06,-1.138777E-07,5.873146E-09,-2.622604E-08
300.3123,0.04500277,-1.977461E-08,NaN,-0.3269995,-1.35899E-07,NaN,0.4312223,-1.823996E-08,NaN,-2.188481,1.004864E-05,-0.3856882,-7.988282E-09,NaN,NaN,-0.3014792,-1.071029E-10,1.621687E-06,-1.138771E-07,5.873146E-09,-2.861022E-08
300.329,0.04500272,-1.977361E-08,NaN,-0.3269995,-1.358986E-07,NaN,0.429682,-1.858374E-08,NaN,-2.188689,1.004925E-05,-0.3866986,-7.642407E-09,NaN,NaN,-0.2809663,-1.024463E-10,1.719885E-06,-1.138766E-07,-8.73186E-11,-2.622604E-08
300.3444,0.04500268,-1.97726E-08,NaN,-0.3269995,-1.358983E-07,NaN,0.4283565,-1.891926E-08,NaN,-2.188212,1.004985E-05,-0.3875622,-7.30479E-09,NaN,NaN,-0.2608558,-9.313309E-11,1.798265E-06,-1.13876E-07,2.296867E-09,-2.861022E-08
300.3604,0.04500265,-1.97716E-08,NaN,-0.3269994,-1.35898E-07,NaN,0.4271465,-1.92481E-08,NaN,-2.187544,1.005045E-05,-0.3883516,-6.973857E-09,NaN,NaN,-0.24114,-8.847648E-11,1.859658E-06,-1.138754E-07,5.873146E-09,-2.622604E-08
300.3758,0.04500265,-1.97716E-08,NaN,-0.3269994,-1.35898E-07,NaN,0.4271465,-1.92481E-08,NaN,-2.187544,1.005045E-05,-0.3883516,-6.973857E-09,NaN,NaN,-0.24114,-8.847648E-11,1.859658E-06,-1.138754E-07,5.873146E-09,-2.622604E-08
300.3911,0.04500261,-1.977059E-08,NaN,-0.3269994,-1.358976E-07,NaN,0.4257939,-1.957039E-08,NaN,-2.187444,1.005106E-05,-0.3892406,-6.649478E-09,NaN,NaN,-0.2210191,-8.381986E-11,1.909279E-06,-1.138748E-07,2.296867E-09,-2.861022E-08
300.4075,0.04500258,-1.976959E-08,NaN,-0.3269994,-1.358973E-07,NaN,0.4245895,-1.988484E-08,NaN,-2.187233,1.005167E-05,-0.3900418,-6.332939E-09,NaN,NaN,-0.2012927,-8.381986E-11,1.949661E-06,-1.138743E-07,4.681053E-09,-2.622604E-08
300.4236,0.04500254,-1.976858E-08,NaN,-0.3269993,-1.358969E-07,NaN,0.4234792,-2.019301E-08,NaN,-2.187003,1.005228E-05,-0.390782,-6.022669E-09,NaN,NaN,-0.1819532,-7.916325E-11,1.979613E-06,-1.138737E-07,9.449424E-09,-2.861022E-08
300.4392,0.04500254,-1.976858E-08,NaN,-0.3269993,-1.358969E-07,NaN,0.4234792,-2.019301E-08,NaN,-2.187003,1.005228E-05,-0.390782,-6.022669E-09,NaN,NaN,-0.1819532,-7.916325E-11,1.979613E-06,-1.138737E-07,9.449424E-09,-2.861022E-08
300.4543,0.04500251,-1.976757E-08,NaN,-0.3269993,-1.358966E-07,NaN,0.4224369,-2.049504E-08,NaN,-2.186805,1.005288E-05,-0.391477,-5.71855E-09,NaN,NaN,-0.1629931,-7.450663E-11,2.003156E-06,-1.138731E-07,8.257332E-09,-2.622604E-08
300.4706,0.04500248,-1.976657E-08,NaN,-0.3269993,-1.358963E-07,NaN,0.4214503,-2.078963E-08,NaN,-2.186653,1.005349E-05,-0.3921348,-5.421871E-09,NaN,NaN,-0.1444047,-6.985001E-11,2.019548E-06,-1.138726E-07,7.065239E-09,-2.861022E-08
300.4864,0.04500245,-1.976556E-08,NaN,-0.3269992,-1.358959E-07,NaN,0.4205136,-2.107833E-08,NaN,-2.186538,1.005409E-05,-0.3927595,-5.131076E-09,NaN,NaN,-0.1261809,-6.51934E-11,2.029233E-06,-1.13872E-07,1.064152E-08,-2.622604E-08
300.5021,0.04500242,-1.976456E-08,NaN,-0.3269992,-1.358956E-07,NaN,0.4196233,-2.136126E-08,NaN,-2.186441,1.00547E-05,-0.3933536,-4.846047E-09,NaN,NaN,-0.1083145,-6.053678E-11,2.032959E-06,-1.138715E-07,1.30257E-08,-2.861022E-08
300.5181,0.04500242,-1.976456E-08,NaN,-0.3269992,-1.358956E-07,NaN,0.4196233,-2.136126E-08,NaN,-2.186441,1.00547E-05,-0.3933536,-4.846047E-09,NaN,NaN,-0.1083145,-6.053678E-11,2.032959E-06,-1.138715E-07,1.30257E-08,-2.861022E-08
300.5354,0.04500239,-1.976355E-08,NaN,-0.3269992,-1.358952E-07,NaN,0.4187775,-2.163854E-08,NaN,-2.18635,1.005531E-05,-0.3939185,-4.566673E-09,NaN,NaN,-0.09079839,-5.588017E-11,2.031021E-06,-1.138709E-07,1.183361E-08,-2.622604E-08
300.5499,0.04500236,-1.976255E-08,NaN,-0.3269992,-1.358949E-07,NaN,0.4181963,-2.190887E-08,NaN,-2.185803,1.005591E-05,-0.3943089,-4.294256E-09,NaN,NaN,-0.07441786,-5.122356E-11,2.02223E-06,-1.138704E-07,1.064152E-08,-2.861022E-08
300.5657,0.04500234,-1.976154E-08,NaN,-0.3269992,-1.358946E-07,NaN,0.4175728,-2.217378E-08,NaN,-2.185575,1.005652E-05,-0.3947128,-4.027245E-09,NaN,NaN,-0.0583588,-4.656695E-11,2.006286E-06,-1.138698E-07,5.873146E-09,-2.622604E-08
300.581,0.04500232,-1.976054E-08,NaN,-0.3269992,-1.358942E-07,NaN,0.4169494,-2.24334E-08,NaN,-2.185548,1.005712E-05,-0.3951141,-3.765534E-09,NaN,NaN,-0.04261465,-4.191034E-11,1.985871E-06,-1.138693E-07,1.183361E-08,-2.861022E-08
300.5967,0.04500232,-1.976054E-08,NaN,-0.3269992,-1.358942E-07,NaN,0.4169494,-2.24334E-08,NaN,-2.185548,1.005712E-05,-0.3951141,-3.765534E-09,NaN,NaN,-0.04261465,-4.191034E-11,1.985871E-06,-1.138693E-07,1.183361E-08,-2.861022E-08
300.6116,0.0450023,-1.975953E-08,NaN,-0.3269992,-1.358939E-07,NaN,0.4163447,-2.268783E-08,NaN,-2.185592,1.005773E-05,-0.3955055,-3.509012E-09,NaN,NaN,-0.02717916,-4.191034E-11,1.963445E-06,-1.138687E-07,7.065239E-09,-2.622604E-08
300.6285,0.04500228,-1.975853E-08,NaN,-0.3269992,-1.358936E-07,NaN,0.4167036,-2.293575E-08,NaN,-2.183711,1.005835E-05,-0.3952655,-3.258999E-09,NaN,NaN,-0.01537937,-4.656695E-11,1.937815E-06,-1.138682E-07,8.257332E-09,-2.861022E-08
300.6439,0.04500227,-1.975752E-08,NaN,-0.3269992,-1.358933E-07,NaN,0.4167462,-2.31787E-08,NaN,-2.183141,1.005896E-05,-0.3951599,-3.013956E-09,NaN,NaN,-0.003811901,-5.122356E-11,1.893707E-06,-1.138676E-07,1.660198E-08,-2.622604E-08
300.66,0.04500227,-1.975651E-08,NaN,-0.3269992,-1.358929E-07,NaN,0.4166464,-2.341678E-08,NaN,-2.183381,1.005957E-05,-0.3951379,-2.773781E-09,NaN,NaN,0.007528714,-5.122356E-11,1.849823E-06,-1.138671E-07,1.779408E-08,-2.861022E-08
300.6755,0.04500227,-1.975651E-08,NaN,-0.3269992,-1.358929E-07,NaN,0.4166464,-2.341678E-08,NaN,-2.183381,1.005957E-05,-0.3951379,-2.773781E-09,NaN,NaN,0.007528714,-5.122356E-11,1.849823E-06,-1.138671E-07,1.779408E-08,-2.861022E-08
300.6906,0.04500226,-1.975551E-08,NaN,-0.3269992,-1.358926E-07,NaN,0.4164853,-2.365009E-08,NaN,-2.183892,1.006018E-05,-0.3951768,-2.538384E-09,NaN,NaN,0.01864726,-5.122356E-11,1.8119E-06,-1.138665E-07,1.660198E-08,-2.622604E-08
300.7069,0.04500225,-1.97545E-08,NaN,-0.3269992,-1.358923E-07,NaN,0.41724,-2.387871E-08,NaN,-2.18241,1.006079E-05,-0.3946389,-2.307665E-09,NaN,NaN,0.02621499,-5.122356E-11,1.779564E-06,-1.13866E-07,1.540989E-08,-2.861022E-08
300.7225,0.04500225,-1.97535E-08,NaN,-0.3269992,-1.35892E-07,NaN,0.4176588,-2.410133E-08,NaN,-2.182068,1.006141E-05,-0.3942498,-2.082953E-09,NaN,NaN,0.03363355,-5.588017E-11,1.735457E-06,-1.138655E-07,1.779407E-08,-2.622604E-08
300.738,0.04500225,-1.97535E-08,NaN,-0.3269992,-1.35892E-07,NaN,0.4176588,-2.410133E-08,NaN,-2.182068,1.006141E-05,-0.3942498,-2.082953E-09,NaN,NaN,0.03363355,-5.588017E-11,1.735457E-06,-1.138655E-07,1.779407E-08,-2.622604E-08
300.7532,0.04500225,-1.975249E-08,NaN,-0.3269992,-1.358916E-07,NaN,0.4179167,-2.431948E-08,NaN,-2.18238,1.006202E-05,-0.3939614,-1.862712E-09,NaN,NaN,0.04090665,-5.588017E-11,1.692393E-06,-1.138649E-07,1.540989E-08,-2.861022E-08
300.7698,0.04500225,-1.975149E-08,NaN,-0.3269992,-1.358913E-07,NaN,0.4180983,-2.453325E-08,NaN,-2.182873,1.006263E-05,-0.3937478,-1.646855E-09,NaN,NaN,0.04803738,-6.053678E-11,1.652085E-06,-1.138644E-07,1.660198E-08,-2.622604E-08
300.7856,0.04500225,-1.975048E-08,NaN,-0.3269992,-1.35891E-07,NaN,0.4191796,-2.474271E-08,NaN,-2.181344,1.006324E-05,-0.392969,-1.435297E-09,NaN,NaN,0.05169544,-6.053678E-11,1.618557E-06,-1.138639E-07,1.540989E-08,-2.861022E-08
300.8013,0.04500225,-1.974948E-08,NaN,-0.3269992,-1.358906E-07,NaN,0.4199037,-2.494655E-08,NaN,-2.180715,1.006386E-05,-0.3923693,-1.229367E-09,NaN,NaN,0.05528128,-6.51934E-11,1.579144E-06,-1.138633E-07,1.660198E-08,-2.622604E-08
300.8175,0.04500225,-1.974948E-08,NaN,-0.3269992,-1.358906E-07,NaN,0.4199037,-2.494655E-08,NaN,-2.180715,1.006386E-05,-0.3923693,-1.229367E-09,NaN,NaN,0.05528128,-6.51934E-11,1.579144E-06,-1.138633E-07,1.660198E-08,-2.622604E-08
300.8321,0.04500226,-1.974847E-08,NaN,-0.3269992,-1.358903E-07,NaN,0.4204522,-2.514628E-08,NaN,-2.180513,1.006447E-05,-0.3918898,-1.027541E-09,NaN,NaN,0.05879685,-6.51934E-11,1.54122E-06,-1.138628E-07,2.017826E-08,-2.861022E-08
300.8489,0.04500226,-1.974747E-08,NaN,-0.3269992,-1.3589E-07,NaN,0.4209246,-2.534199E-08,NaN,-2.18051,1.006508E-05,-0.39147,-8.297382E-10,NaN,NaN,0.06224351,-6.985001E-11,1.504265E-06,-1.138623E-07,1.779408E-08,-2.622604E-08
300.8645,0.04500226,-1.974646E-08,NaN,-0.3269992,-1.358897E-07,NaN,0.4222888,-2.553375E-08,NaN,-2.178682,1.006569E-05,-0.3904715,-6.358808E-10,NaN,NaN,0.06228952,-6.985001E-11,1.474836E-06,-1.138618E-07,1.660198E-08,-2.861022E-08
300.8805,0.04500227,-1.974546E-08,NaN,-0.3269992,-1.358894E-07,NaN,0.4232618,-2.572024E-08,NaN,-2.177557,1.006631E-05,-0.3897084,-4.473037E-10,NaN,NaN,0.06233455,-7.450663E-11,1.442202E-06,-1.138612E-07,1.540989E-08,-2.622604E-08
300.8963,0.04500227,-1.974546E-08,NaN,-0.3269992,-1.358894E-07,NaN,0.4232618,-2.572024E-08,NaN,-2.177557,1.006631E-05,-0.3897084,-4.473037E-10,NaN,NaN,0.06233455,-7.450663E-11,1.442202E-06,-1.138612E-07,1.540989E-08,-2.622604E-08
300.9113,0.04500228,-1.974445E-08,NaN,-0.3269992,-1.358895E-07,NaN,0.4240541,-2.579597E-08,NaN,-2.176779,1.006691E-05,-0.3890691,-3.69485E-10,NaN,NaN,0.06237866,-6.519341E-11,1.409941E-06,-1.138598E-07,1.42178E-08,-2.861022E-08
300.9282,0.04500228,-1.974344E-08,NaN,-0.3269992,-1.358895E-07,NaN,0.4247636,-2.58856E-08,NaN,-2.176173,1.006752E-05,-0.3884913,-2.777684E-10,NaN,NaN,0.06242189,-6.985002E-11,1.378723E-06,-1.138583E-07,1.660198E-08,-2.622604E-08
300.9435,0.04500229,-1.974244E-08,NaN,-0.3269992,-1.358896E-07,NaN,0.426346,-2.597899E-08,NaN,-2.173741,1.006814E-05,-0.3873489,-1.82288E-10,NaN,NaN,0.05913118,-7.450664E-11,1.351827E-06,-1.138567E-07,1.779408E-08,-2.861022E-08
300.9594,0.04500229,-1.974244E-08,NaN,-0.3269992,-1.358896E-07,NaN,0.426346,-2.597899E-08,NaN,-2.173741,1.006814E-05,-0.3873489,-1.82288E-10,NaN,NaN,0.05913118,-7.450664E-11,1.351827E-06,-1.138567E-07,1.779408E-08,-2.861022E-08
300.9742,0.0450023,-1.974143E-08,NaN,-0.3269992,-1.358895E-07,NaN,0.4275301,-2.607467E-08,NaN,-2.172024,1.006875E-05,-0.3864463,-8.451845E-11,NaN,NaN,0.05590492,-7.916325E-11,1.321875E-06,-1.138551E-07,1.660198E-08,-2.622604E-08
300.9906,0.04500232,-1.974043E-08,NaN,-0.3269992,-1.358895E-07,NaN,0.428525,-2.616978E-08,NaN,-2.170671,1.006937E-05,-0.3856733,1.267214E-11,NaN,NaN,0.05274187,-8.381987E-11,1.291924E-06,-1.138536E-07,1.42178E-08,-2.861022E-08
301.0065,0.04500233,-1.973942E-08,NaN,-0.3269992,-1.358895E-07,NaN,0.4294282,-2.626291E-08,NaN,-2.169511,1.006998E-05,-0.3849684,1.078891E-10,NaN,NaN,0.04964083,-8.847648E-11,1.262792E-06,-1.13852E-07,1.898617E-08,-2.622604E-08
301.0222,0.04500234,-1.973842E-08,NaN,-0.3269992,-1.358894E-07,NaN,0.4311827,-2.63541E-08,NaN,-2.166542,1.00706E-05,-0.3837181,2.011712E-10,NaN,NaN,0.04326749,-9.31331E-11,1.238131E-06,-1.138504E-07,2.137035E-08,-2.861022E-08
301.0395,0.04500234,-1.973842E-08,NaN,-0.3269992,-1.358894E-07,NaN,0.4311827,-2.63541E-08,NaN,-2.166542,1.00706E-05,-0.3837181,2.011712E-10,NaN,NaN,0.04326749,-9.31331E-11,1.238131E-06,-1.138504E-07,2.137035E-08,-2.861022E-08
301.0533,0.04500236,-1.973741E-08,NaN,-0.3269992,-1.358894E-07,NaN,0.4325338,-2.64434E-08,NaN,-2.16431,1.007121E-05,-0.3827111,2.925592E-10,NaN,NaN,0.03701904,-9.778971E-11,1.210116E-06,-1.138488E-07,2.017826E-08,-2.622604E-08
