JMolnar6/NonAnthroHands_User_Study/HandsLoggerWithURDF/tempdata/files/Reachy_PID0_JointMotion_gesture_1_5.csv
Time,r_shoulder,r_shoulder_x,r_upper_arm,r_forearm,r_wrist,r_wrist2hand,
75.14934,-0.1117656,-3.318731E-08,NaN,-0.326736,-1.385147E-07,NaN,0.4738489,5.084027E-08,NaN,-0.4819353,1.937025E-06,-0.3903381,-1.318777E-08,NaN,NaN,-0.01996149,-1.071024E-10,1.494343E-07,-1.16023E-07,-1.526191E-09,-2.622604E-08
75.16505,-0.1112358,-3.318606E-08,NaN,-0.3267359,-1.385142E-07,NaN,0.4733292,5.086313E-08,NaN,-0.482329,1.937779E-06,-0.3899131,-1.320803E-08,NaN,NaN,-0.01996189,-1.164156E-10,1.483912E-07,-1.160209E-07,-6.294562E-09,-2.622604E-08
75.1789,-0.1112358,-3.318606E-08,NaN,-0.3267359,-1.385142E-07,NaN,0.4733292,5.086313E-08,NaN,-0.482329,1.937779E-06,-0.3899131,-1.320803E-08,NaN,NaN,-0.01996189,-1.164156E-10,1.483912E-07,-1.160209E-07,-6.294562E-09,-2.622604E-08
75.19308,-0.1102495,-3.31848E-08,NaN,-0.3267356,-1.385138E-07,NaN,0.4726561,5.088572E-08,NaN,-0.4828412,1.938529E-06,-0.3893643,-1.322803E-08,NaN,NaN,-0.0199624,-1.210722E-10,1.467521E-07,-1.160188E-07,-8.678748E-09,-2.622604E-08
75.20832,-0.1089802,-3.318355E-08,NaN,-0.3267353,-1.385133E-07,NaN,0.4719789,5.090842E-08,NaN,-0.4833574,1.939278E-06,-0.3888144,-1.324813E-08,NaN,NaN,-0.0199629,-1.257289E-10,1.45709E-07,-1.160168E-07,-8.678748E-09,-2.622604E-08
75.22301,-0.1075381,-3.31823E-08,NaN,-0.3267351,-1.385128E-07,NaN,0.471346,5.093085E-08,NaN,-0.4838395,1.940028E-06,-0.3883027,-1.326796E-08,NaN,NaN,-0.01996337,-1.303855E-10,1.443679E-07,-1.160147E-07,-8.678748E-09,-2.622604E-08
75.23775,-0.1075381,-3.31823E-08,NaN,-0.3267351,-1.385128E-07,NaN,0.471346,5.093085E-08,NaN,-0.4838395,1.940028E-06,-0.3883027,-1.326796E-08,NaN,NaN,-0.01996337,-1.303855E-10,1.443679E-07,-1.160147E-07,-8.678748E-09,-2.622604E-08
75.25344,-0.1067215,-3.318104E-08,NaN,-0.3267363,-1.385124E-07,NaN,0.4713043,5.095338E-08,NaN,-0.4838723,1.940782E-06,-0.3882768,-1.32879E-08,NaN,NaN,-0.01996337,-1.396987E-10,1.437719E-07,-1.160127E-07,-1.526191E-09,-2.622604E-08
75.26701,-0.1063019,-3.317979E-08,NaN,-0.326738,-1.385119E-07,NaN,0.4714625,5.097601E-08,NaN,-0.4837495,1.941532E-06,-0.388414,-1.330793E-08,NaN,NaN,-0.01996323,-1.443553E-10,1.448149E-07,-1.160106E-07,8.579946E-10,-2.622604E-08
75.28172,-0.1061339,-3.317853E-08,NaN,-0.3267399,-1.385115E-07,NaN,0.471663,5.099837E-08,NaN,-0.4835925,1.942282E-06,-0.3885847,-1.33277E-08,NaN,NaN,-0.01996306,-1.490119E-10,1.448149E-07,-1.160086E-07,8.579946E-10,-2.622604E-08
75.29642,-0.1061339,-3.317853E-08,NaN,-0.3267399,-1.385115E-07,NaN,0.471663,5.099837E-08,NaN,-0.4835925,1.942282E-06,-0.3885847,-1.33277E-08,NaN,NaN,-0.01996306,-1.490119E-10,1.448149E-07,-1.160086E-07,8.579946E-10,-2.622604E-08
75.3105,-0.1068515,-3.317728E-08,NaN,-0.3267443,-1.38511E-07,NaN,0.4723887,5.102084E-08,NaN,-0.4830393,1.943031E-06,-0.3891844,-1.334756E-08,NaN,NaN,-0.01996247,-1.536685E-10,1.45262E-07,-1.160066E-07,3.24218E-09,-2.622604E-08
75.32574,-0.1081233,-3.317603E-08,NaN,-0.3267495,-1.385106E-07,NaN,0.4732396,5.104305E-08,NaN,-0.4823913,1.943781E-06,-0.389884,-1.336717E-08,NaN,NaN,-0.01996181,-1.583251E-10,1.466031E-07,-1.160045E-07,5.626366E-09,-2.622604E-08
75.34051,-0.1097386,-3.317478E-08,NaN,-0.3267548,-1.385101E-07,NaN,0.4740679,5.1065E-08,NaN,-0.4817625,1.944531E-06,-0.3905618,-1.338653E-08,NaN,NaN,-0.01996117,-1.629817E-10,1.483912E-07,-1.160025E-07,1.039474E-08,-2.622604E-08
75.35511,-0.1097386,-3.317478E-08,NaN,-0.3267548,-1.385101E-07,NaN,0.4740679,5.1065E-08,NaN,-0.4817625,1.944531E-06,-0.3905618,-1.338653E-08,NaN,NaN,-0.01996117,-1.629817E-10,1.483912E-07,-1.160025E-07,1.039474E-08,-2.622604E-08
75.36903,-0.1115632,-3.317353E-08,NaN,-0.3267598,-1.385097E-07,NaN,0.4748305,5.108707E-08,NaN,-0.4811871,1.94528E-06,-0.391183,-1.3406E-08,NaN,NaN,-0.01996059,-1.676383E-10,1.518185E-07,-1.160005E-07,8.010552E-09,-2.622604E-08
75.38535,-0.1142402,-3.317228E-08,NaN,-0.3267668,-1.385092E-07,NaN,0.4760697,5.110924E-08,NaN,-0.480261,1.94603E-06,-0.3921934,-1.342557E-08,NaN,NaN,-0.01995963,-1.72295E-10,1.519675E-07,-1.159985E-07,5.626366E-09,-2.622604E-08
75.40002,-0.1174422,-3.317103E-08,NaN,-0.326774,-1.385088E-07,NaN,0.4774065,5.113116E-08,NaN,-0.4792657,1.94678E-06,-0.3932808,-1.344489E-08,NaN,NaN,-0.0199586,-1.769516E-10,1.547987E-07,-1.159966E-07,5.626366E-09,-2.622604E-08
75.4137,-0.1174422,-3.317103E-08,NaN,-0.326774,-1.385088E-07,NaN,0.4774065,5.113116E-08,NaN,-0.4792657,1.94678E-06,-0.3932808,-1.344489E-08,NaN,NaN,-0.0199586,-1.769516E-10,1.547987E-07,-1.159966E-07,5.626366E-09,-2.622604E-08
75.42774,-0.1209613,-3.316978E-08,NaN,-0.3267807,-1.385083E-07,NaN,0.4787033,5.115318E-08,NaN,-0.4783061,1.947529E-06,-0.3943323,-1.346432E-08,NaN,NaN,-0.01995761,-1.816082E-10,1.565869E-07,-1.159946E-07,5.626366E-09,-2.622604E-08
75.44283,-0.1246651,-3.316853E-08,NaN,-0.3267865,-1.385079E-07,NaN,0.479922,5.117496E-08,NaN,-0.477412,1.948279E-06,-0.3953174,-1.34835E-08,NaN,NaN,-0.01995667,-1.862648E-10,1.58524E-07,-1.159926E-07,3.242181E-09,-2.622604E-08
75.4576,-0.1246651,-3.316853E-08,NaN,-0.3267865,-1.385079E-07,NaN,0.479922,5.117496E-08,NaN,-0.477412,1.948279E-06,-0.3953174,-1.34835E-08,NaN,NaN,-0.01995667,-1.862648E-10,1.58524E-07,-1.159926E-07,3.242181E-09,-2.622604E-08
75.47133,-0.1291978,-3.316728E-08,NaN,-0.3267938,-1.385074E-07,NaN,0.4816142,5.11965E-08,NaN,-0.4761781,1.949029E-06,-0.3966911,-1.350244E-08,NaN,NaN,-0.01995536,-1.909214E-10,1.594181E-07,-1.159906E-07,5.626366E-09,-2.622604E-08
75.48677,-0.134233,-3.316602E-08,NaN,-0.3268008,-1.38507E-07,NaN,0.4833971,5.121815E-08,NaN,-0.4748844,1.949778E-06,-0.3981369,-1.35215E-08,NaN,NaN,-0.01995398,-1.95578E-10,1.643355E-07,-1.159887E-07,8.57995E-10,-2.622604E-08
75.50123,-0.1395634,-3.316477E-08,NaN,-0.3268066,-1.385065E-07,NaN,0.485132,5.123956E-08,NaN,-0.4736349,1.950528E-06,-0.3995412,-1.354031E-08,NaN,NaN,-0.01995264,-2.002346E-10,1.685078E-07,-1.159867E-07,-1.526191E-09,-2.622604E-08
75.51602,-0.1395634,-3.316477E-08,NaN,-0.3268066,-1.385065E-07,NaN,0.485132,5.123956E-08,NaN,-0.4736349,1.950528E-06,-0.3995412,-1.354031E-08,NaN,NaN,-0.01995264,-2.002346E-10,1.685078E-07,-1.159867E-07,-1.526191E-09,-2.622604E-08
75.53017,-0.1457854,-3.316352E-08,NaN,-0.3268135,-1.385061E-07,NaN,0.4873407,5.126109E-08,NaN,-0.4720543,1.951277E-06,-0.4013355,-1.355925E-08,NaN,NaN,-0.01995091,-2.048912E-10,1.723821E-07,-1.159848E-07,-1.526191E-09,-2.622604E-08
75.54543,-0.1525422,-3.316227E-08,NaN,-0.3268193,-1.385057E-07,NaN,0.4896242,5.128273E-08,NaN,-0.4704309,1.952023E-06,-0.4031892,-1.357829E-08,NaN,NaN,-0.01994913,-2.048912E-10,1.775975E-07,-1.159828E-07,-1.526191E-09,-2.622604E-08
75.56016,-0.1596072,-3.316102E-08,NaN,-0.3268231,-1.385052E-07,NaN,0.4918409,5.130413E-08,NaN,-0.46887,1.952768E-06,-0.4049861,-1.359709E-08,NaN,NaN,-0.0199474,-2.048912E-10,1.802797E-07,-1.159809E-07,8.010552E-09,-2.622604E-08
75.57484,-0.1596072,-3.316102E-08,NaN,-0.3268231,-1.385052E-07,NaN,0.4918409,5.130413E-08,NaN,-0.46887,1.952768E-06,-0.4049861,-1.359709E-08,NaN,NaN,-0.0199474,-2.048912E-10,1.802797E-07,-1.159809E-07,8.010552E-09,-2.622604E-08
75.58868,-0.1668365,-3.315977E-08,NaN,-0.3268249,-1.385048E-07,NaN,0.4939537,5.132529E-08,NaN,-0.4673993,1.953513E-06,-0.4066965,-1.361566E-08,NaN,NaN,-0.01994576,-2.048912E-10,1.825149E-07,-1.15979E-07,8.010552E-09,-2.622604E-08
75.60429,-0.174867,-3.315852E-08,NaN,-0.3268274,-1.385043E-07,NaN,0.4965378,5.134658E-08,NaN,-0.4656142,1.954258E-06,-0.4087984,-1.363435E-08,NaN,NaN,-0.0199437,-2.048912E-10,1.853461E-07,-1.159771E-07,8.010552E-09,-2.622604E-08
75.61903,-0.174867,-3.315852E-08,NaN,-0.3268274,-1.385043E-07,NaN,0.4965378,5.134658E-08,NaN,-0.4656142,1.954258E-06,-0.4087984,-1.363435E-08,NaN,NaN,-0.0199437,-2.048912E-10,1.853461E-07,-1.159771E-07,8.010552E-09,-2.622604E-08
75.63297,-0.1833681,-3.315727E-08,NaN,-0.3268289,-1.385039E-07,NaN,0.499199,5.136763E-08,NaN,-0.4637906,1.955003E-06,-0.4109638,-1.36528E-08,NaN,NaN,-0.01994159,-2.048912E-10,1.884753E-07,-1.159752E-07,3.242181E-09,-2.622604E-08
75.64809,-0.1921294,-3.315602E-08,NaN,-0.3268294,-1.385035E-07,NaN,0.5017971,5.138881E-08,NaN,-0.4620306,1.955748E-06,-0.4130772,-1.367138E-08,NaN,NaN,-0.01993952,-2.048912E-10,1.939888E-07,-1.159733E-07,1.039474E-08,-2.622604E-08
75.66392,-0.2010178,-3.315477E-08,NaN,-0.3268292,-1.38503E-07,NaN,0.5042939,5.141011E-08,NaN,-0.4603623,1.956493E-06,-0.4151079,-1.369008E-08,NaN,NaN,-0.01993752,-2.048912E-10,1.932437E-07,-1.159714E-07,1.75473E-08,-2.622604E-08
75.6778,-0.2010178,-3.315477E-08,NaN,-0.3268292,-1.38503E-07,NaN,0.5042939,5.141011E-08,NaN,-0.4603623,1.956493E-06,-0.4151079,-1.369008E-08,NaN,NaN,-0.01993752,-2.048912E-10,1.932437E-07,-1.159714E-07,1.75473E-08,-2.622604E-08
75.69171,-0.2106772,-3.315352E-08,NaN,-0.3268299,-1.385026E-07,NaN,0.5072759,5.143117E-08,NaN,-0.4583835,1.957238E-06,-0.4175453,-1.370854E-08,NaN,NaN,-0.01993508,-2.048912E-10,1.960749E-07,-1.159695E-07,1.993148E-08,-2.622604E-08
75.70844,-0.2207811,-3.315227E-08,NaN,-0.3268298,-1.385021E-07,NaN,0.5103379,5.145236E-08,NaN,-0.45637,1.957983E-06,-0.4200503,-1.372713E-08,NaN,NaN,-0.01993257,-2.048912E-10,2.005453E-07,-1.159676E-07,1.75473E-08,-2.622604E-08
75.72152,-0.2311222,-3.315102E-08,NaN,-0.3268287,-1.385017E-07,NaN,0.5133349,5.143911E-08,NaN,-0.4544245,1.958728E-06,-0.4225025,-1.371129E-08,NaN,NaN,-0.01993011,-2.048912E-10,2.053136E-07,-1.159657E-07,1.277892E-08,-2.861022E-08
75.73665,-0.2311222,-3.315102E-08,NaN,-0.3268287,-1.385017E-07,NaN,0.5133349,5.143911E-08,NaN,-0.4544245,1.958728E-06,-0.4225025,-1.371129E-08,NaN,NaN,-0.01993011,-2.048912E-10,2.053136E-07,-1.159657E-07,1.277892E-08,-2.861022E-08
75.75019,-0.2422976,-3.314977E-08,NaN,-0.3268283,-1.385013E-07,NaN,0.5168276,5.142592E-08,NaN,-0.4521758,1.959459E-06,-0.4253723,-1.36955E-08,NaN,NaN,-0.01992721,-1.909214E-10,2.115721E-07,-1.159638E-07,3.242181E-09,-2.622604E-08
75.76533,-0.2539509,-3.314852E-08,NaN,-0.3268268,-1.385009E-07,NaN,0.5203897,5.14135E-08,NaN,-0.4499082,1.9602E-06,-0.4283012,-1.368047E-08,NaN,NaN,-0.01992424,-1.862648E-10,2.173836E-07,-1.15962E-07,3.242181E-09,-2.861022E-08
75.78012,-0.265856,-3.314727E-08,NaN,-0.3268242,-1.385004E-07,NaN,0.5238714,5.140182E-08,NaN,-0.4477252,1.960931E-06,-0.4311649,-1.366619E-08,NaN,NaN,-0.01992134,-1.722949E-10,2.217049E-07,-1.159601E-07,8.57995E-10,-2.622604E-08
75.79473,-0.265856,-3.314727E-08,NaN,-0.3268242,-1.385004E-07,NaN,0.5238714,5.140182E-08,NaN,-0.4477252,1.960931E-06,-0.4311649,-1.366619E-08,NaN,NaN,-0.01992134,-1.722949E-10,2.217049E-07,-1.159601E-07,8.57995E-10,-2.622604E-08
75.8088,-0.2778696,-3.314602E-08,NaN,-0.3268205,-1.385E-07,NaN,0.527233,5.139053E-08,NaN,-0.445654,1.961671E-06,-0.4339313,-1.365229E-08,NaN,NaN,-0.01991851,-1.676383E-10,2.282614E-07,-1.159583E-07,8.57995E-10,-2.861022E-08
75.82414,-0.2906294,-3.314477E-08,NaN,-0.3268177,-1.384996E-07,NaN,0.5310981,5.137996E-08,NaN,-0.4432957,1.962411E-06,-0.4371266,-1.363912E-08,NaN,NaN,-0.01991519,-1.629817E-10,2.321357E-07,-1.159564E-07,8.57995E-10,-2.622604E-08
75.83887,-0.2906294,-3.314477E-08,NaN,-0.3268177,-1.384996E-07,NaN,0.5310981,5.137996E-08,NaN,-0.4432957,1.962411E-06,-0.4371266,-1.363912E-08,NaN,NaN,-0.01991519,-1.629817E-10,2.321357E-07,-1.159564E-07,8.57995E-10,-2.622604E-08
75.85247,-0.3038051,-3.314351E-08,NaN,-0.3268138,-1.384991E-07,NaN,0.5350386,5.13701E-08,NaN,-0.4409212,1.963152E-06,-0.4403883,-1.362665E-08,NaN,NaN,-0.0199118,-1.583251E-10,2.346689E-07,-1.159546E-07,-1.526191E-09,-2.861022E-08
75.8681,-0.3171872,-3.314226E-08,NaN,-0.3268076,-1.384987E-07,NaN,0.5389024,5.136058E-08,NaN,-0.4386302,1.963883E-06,-0.4435885,-1.361454E-08,NaN,NaN,-0.01990847,-1.443553E-10,2.372021E-07,-1.159528E-07,3.242181E-09,-2.622604E-08
75.88284,-0.330643,-3.314101E-08,NaN,-0.3267995,-1.384983E-07,NaN,0.5426485,5.135176E-08,NaN,-0.4364501,1.964623E-06,-0.4466941,-1.360311E-08,NaN,NaN,-0.01990522,-1.396987E-10,2.389903E-07,-1.159509E-07,-1.526191E-09,-2.861022E-08
75.89792,-0.330643,-3.314101E-08,NaN,-0.3267995,-1.384983E-07,NaN,0.5426485,5.135176E-08,NaN,-0.4364501,1.964623E-06,-0.4466941,-1.360311E-08,NaN,NaN,-0.01990522,-1.396987E-10,2.389903E-07,-1.159509E-07,-1.526191E-09,-2.861022E-08
75.91141,-0.344817,-3.313976E-08,NaN,-0.3267922,-1.384979E-07,NaN,0.5469234,5.134326E-08,NaN,-0.4339871,1.965363E-06,-0.4502546,-1.3592E-08,NaN,NaN,-0.01990143,-1.35042E-10,2.434606E-07,-1.159491E-07,-1.526191E-09,-2.622604E-08
75.92886,-0.3593834,-3.313851E-08,NaN,-0.3267831,-1.384974E-07,NaN,0.5512802,5.133543E-08,NaN,-0.4315104,1.966104E-06,-0.4538883,-1.358157E-08,NaN,NaN,-0.01989757,-1.303854E-10,2.458448E-07,-1.159473E-07,-3.910376E-09,-2.861022E-08
75.94263,-0.3741355,-3.313726E-08,NaN,-0.3267717,-1.38497E-07,NaN,0.5555608,5.132826E-08,NaN,-0.4291203,1.966844E-06,-0.4574618,-1.357179E-08,NaN,NaN,-0.01989377,-1.257288E-10,2.468879E-07,-1.159455E-07,-1.344712E-08,-2.622604E-08
75.95601,-0.3741355,-3.313726E-08,NaN,-0.3267717,-1.38497E-07,NaN,0.5555608,5.132826E-08,NaN,-0.4291203,1.966844E-06,-0.4574618,-1.357179E-08,NaN,NaN,-0.01989377,-1.257288E-10,2.468879E-07,-1.159455E-07,-1.344712E-08,-2.622604E-08
75.97015,-0.3896708,-3.313601E-08,NaN,-0.3267605,-1.384966E-07,NaN,0.5603889,5.132102E-08,NaN,-0.4264548,1.967589E-06,-0.4615082,-1.356195E-08,NaN,NaN,-0.01988941,-1.257288E-10,2.516562E-07,-1.159437E-07,-1.344712E-08,-2.861022E-08
75.98521,-0.4056337,-3.313476E-08,NaN,-0.3267469,-1.384962E-07,NaN,0.5652912,5.131444E-08,NaN,-0.4237907,1.96833E-06,-0.4656215,-1.355276E-08,NaN,NaN,-0.01988498,-1.210722E-10,2.570207E-07,-1.159419E-07,-1.344712E-08,-2.622604E-08
75.9999,-0.4056337,-3.313476E-08,NaN,-0.3267469,-1.384962E-07,NaN,0.5652912,5.131444E-08,NaN,-0.4237907,1.96833E-06,-0.4656215,-1.355276E-08,NaN,NaN,-0.01988498,-1.210722E-10,2.570207E-07,-1.159419E-07,-1.344712E-08,-2.622604E-08
76.01369,-0.4217984,-3.313351E-08,NaN,-0.3267303,-1.384958E-07,NaN,0.5701035,5.130813E-08,NaN,-0.4212291,1.969075E-06,-0.4696628,-1.354385E-08,NaN,NaN,-0.01988063,-1.210722E-10,2.635772E-07,-1.159401E-07,-1.344712E-08,-2.861022E-08
76.02907,-0.4380224,-3.313226E-08,NaN,-0.3267111,-1.384954E-07,NaN,0.5747827,5.130245E-08,NaN,-0.4187964,1.969815E-06,-0.4735973,-1.353557E-08,NaN,NaN,-0.01987635,-1.164156E-10,2.671535E-07,-1.159384E-07,-1.821549E-08,-2.622604E-08
76.04378,-0.4549438,-3.313101E-08,NaN,-0.3266925,-1.38495E-07,NaN,0.5800266,5.129739E-08,NaN,-0.4161046,1.97056E-06,-0.4780258,-1.35279E-08,NaN,NaN,-0.01987145,-1.164156E-10,2.729649E-07,-1.159366E-07,-1.821549E-08,-2.861022E-08
76.0586,-0.4549438,-3.313101E-08,NaN,-0.3266925,-1.38495E-07,NaN,0.5800266,5.129739E-08,NaN,-0.4161046,1.97056E-06,-0.4780258,-1.35279E-08,NaN,NaN,-0.01987145,-1.164156E-10,2.729649E-07,-1.159366E-07,-1.821549E-08,-2.861022E-08
76.07256,-0.4722329,-3.312977E-08,NaN,-0.3266717,-1.384945E-07,NaN,0.5853552,5.129258E-08,NaN,-0.4134165,1.9713E-06,-0.4825327,-1.352048E-08,NaN,NaN,-0.01986647,-1.11759E-10,2.793724E-07,-1.159348E-07,-1.583131E-08,-2.622604E-08
76.08779,-0.4896809,-3.312852E-08,NaN,-0.3266483,-1.384941E-07,NaN,0.5906008,5.128837E-08,NaN,-0.4108294,1.972046E-06,-0.4869747,-1.351366E-08,NaN,NaN,-0.01986156,-1.11759E-10,2.833957E-07,-1.159331E-07,-1.821549E-08,-2.861022E-08
76.10261,-0.5071555,-3.312727E-08,NaN,-0.3266225,-1.384937E-07,NaN,0.5957175,5.128439E-08,NaN,-0.4083696,1.972786E-06,-0.4913146,-1.350708E-08,NaN,NaN,-0.01985671,-1.071024E-10,2.886111E-07,-1.159313E-07,-1.344712E-08,-2.622604E-08
76.11731,-0.5071555,-3.312727E-08,NaN,-0.3266225,-1.384937E-07,NaN,0.5957175,5.128439E-08,NaN,-0.4083696,1.972786E-06,-0.4913146,-1.350708E-08,NaN,NaN,-0.01985671,-1.071024E-10,2.886111E-07,-1.159313E-07,-1.344712E-08,-2.622604E-08
76.13112,-0.5253019,-3.312602E-08,NaN,-0.3265977,-1.384933E-07,NaN,0.6014341,5.1281E-08,NaN,-0.4056554,1.973531E-06,-0.4961838,-1.350108E-08,NaN,NaN,-0.01985118,-1.071024E-10,2.971048E-07,-1.159296E-07,-1.344712E-08,-2.861022E-08
76.14685,-0.5437948,-3.312478E-08,NaN,-0.3265708,-1.384929E-07,NaN,0.6072454,5.127817E-08,NaN,-0.402947,1.974271E-06,-0.5011418,-1.349565E-08,NaN,NaN,-0.01984556,-1.024458E-10,3.050024E-07,-1.159278E-07,-1.583131E-08,-2.622604E-08
76.16266,-0.562428,-3.312353E-08,NaN,-0.3265413,-1.384925E-07,NaN,0.6129749,5.127555E-08,NaN,-0.4003419,1.975016E-06,-0.5060367,-1.349042E-08,NaN,NaN,-0.01984001,-1.024458E-10,3.094728E-07,-1.159261E-07,-1.821549E-08,-2.861022E-08
76.17625,-0.562428,-3.312353E-08,NaN,-0.3265413,-1.384925E-07,NaN,0.6129749,5.127555E-08,NaN,-0.4003419,1.975016E-06,-0.5060367,-1.349042E-08,NaN,NaN,-0.01984001,-1.024458E-10,3.094728E-07,-1.159261E-07,-1.821549E-08,-2.861022E-08
76.19031,-0.5817995,-3.312228E-08,NaN,-0.326512,-1.384921E-07,NaN,0.6193314,5.127313E-08,NaN,-0.3974906,1.975757E-06,-0.5114869,-1.34854E-08,NaN,NaN,-0.01983374,-9.778915E-11,3.149862E-07,-1.159244E-07,-2.059968E-08,-2.622604E-08
76.20776,-0.6015542,-3.312104E-08,NaN,-0.3264799,-1.384917E-07,NaN,0.6257771,5.127091E-08,NaN,-0.3946599,1.976502E-06,-0.5170214,-1.348058E-08,NaN,NaN,-0.01982739,-9.778915E-11,3.243739E-07,-1.159227E-07,-1.821549E-08,-2.861022E-08
76.22137,-0.6214669,-3.311979E-08,NaN,-0.3264446,-1.384912E-07,NaN,0.6321276,5.126924E-08,NaN,-0.3919478,1.977242E-06,-0.5224809,-1.347631E-08,NaN,NaN,-0.01982111,-9.313254E-11,3.306324E-07,-1.159209E-07,-2.059968E-08,-2.622604E-08
76.23492,-0.6214669,-3.311979E-08,NaN,-0.3264446,-1.384912E-07,NaN,0.6321276,5.126924E-08,NaN,-0.3919478,1.977242E-06,-0.5224809,-1.347631E-08,NaN,NaN,-0.01982111,-9.313254E-11,3.306324E-07,-1.159209E-07,-2.059968E-08,-2.622604E-08
76.24904,-0.6413955,-3.311854E-08,NaN,-0.3264067,-1.384908E-07,NaN,0.6383343,5.12681E-08,NaN,-0.3893798,1.977987E-06,-0.5278255,-1.347257E-08,NaN,NaN,-0.01981493,-9.313254E-11,3.409142E-07,-1.159192E-07,-2.298386E-08,-2.861022E-08
76.26429,-0.6619787,-3.31173E-08,NaN,-0.3263696,-1.384904E-07,NaN,0.6451948,5.126714E-08,NaN,-0.3865832,1.978723E-06,-0.5337563,-1.346901E-08,NaN,NaN,-0.01980792,-8.381931E-11,3.494079E-07,-1.159175E-07,-3.013642E-08,-2.622604E-08
76.27883,-0.6619787,-3.31173E-08,NaN,-0.3263696,-1.384904E-07,NaN,0.6451948,5.126714E-08,NaN,-0.3865832,1.978723E-06,-0.5337563,-1.346901E-08,NaN,NaN,-0.01980792,-8.381931E-11,3.494079E-07,-1.159175E-07,-3.013642E-08,-2.622604E-08
76.29282,-0.6828874,-3.311605E-08,NaN,-0.3263301,-1.384901E-07,NaN,0.6521583,5.12667E-08,NaN,-0.3838095,1.979468E-06,-0.539786,-1.346597E-08,NaN,NaN,-0.01980082,-8.381931E-11,3.51047E-07,-1.159158E-07,-3.013642E-08,-2.861022E-08
76.30834,-0.703913,-3.31148E-08,NaN,-0.3262878,-1.384897E-07,NaN,0.659034,5.126642E-08,NaN,-0.3811525,1.980213E-06,-0.5457486,-1.346309E-08,NaN,NaN,-0.0197938,-8.381931E-11,3.586466E-07,-1.159141E-07,-3.728898E-08,-2.622604E-08
76.32271,-0.724924,-3.311355E-08,NaN,-0.3262434,-1.384893E-07,NaN,0.6657698,5.126665E-08,NaN,-0.3786374,1.980958E-06,-0.5516006,-1.346072E-08,NaN,NaN,-0.01978686,-8.381931E-11,3.607328E-07,-1.159125E-07,-3.728898E-08,-2.861022E-08
76.33752,-0.724924,-3.311355E-08,NaN,-0.3262434,-1.384893E-07,NaN,0.6657698,5.126665E-08,NaN,-0.3786374,1.980958E-06,-0.5516006,-1.346072E-08,NaN,NaN,-0.01978686,-8.381931E-11,3.607328E-07,-1.159125E-07,-3.728898E-08,-2.861022E-08
76.3513,-0.7460587,-3.311231E-08,NaN,-0.3261984,-1.384889E-07,NaN,0.6726182,5.126703E-08,NaN,-0.3761525,1.981694E-06,-0.5575666,-1.34585E-08,NaN,NaN,-0.01977969,-7.450609E-11,3.63862E-07,-1.159108E-07,-3.490479E-08,-2.622604E-08
76.36683,-0.7671827,-3.311106E-08,NaN,-0.3261525,-1.384885E-07,NaN,0.6794091,5.126791E-08,NaN,-0.3737656,1.982439E-06,-0.5634962,-1.345677E-08,NaN,NaN,-0.01977252,-7.450609E-11,3.690774E-07,-1.159091E-07,-3.490479E-08,-2.861022E-08
76.38139,-0.7882115,-3.310981E-08,NaN,-0.326106,-1.384881E-07,NaN,0.6860896,5.126892E-08,NaN,-0.3714968,1.983175E-06,-0.5693431,-1.345518E-08,NaN,NaN,-0.01976542,-6.519286E-11,3.707165E-07,-1.159074E-07,-4.205735E-08,-2.622604E-08
76.39609,-0.7882115,-3.310981E-08,NaN,-0.326106,-1.384881E-07,NaN,0.6860896,5.126892E-08,NaN,-0.3714968,1.983175E-06,-0.5693431,-1.345518E-08,NaN,NaN,-0.01976542,-6.519286E-11,3.707165E-07,-1.159074E-07,-4.205735E-08,-2.622604E-08
76.41033,-0.8090925,-3.310857E-08,NaN,-0.3260596,-1.384877E-07,NaN,0.6926495,5.127006E-08,NaN,-0.3693467,1.98392E-06,-0.5750991,-1.345372E-08,NaN,NaN,-0.01975837,-6.519286E-11,3.747399E-07,-1.159058E-07,-4.205735E-08,-2.861022E-08
76.42573,-0.829793,-3.310732E-08,NaN,-0.3260136,-1.384873E-07,NaN,0.6990921,5.127168E-08,NaN,-0.3673091,1.984656E-06,-0.5807677,-1.345274E-08,NaN,NaN,-0.01975137,-5.587964E-11,3.76826E-07,-1.159041E-07,-3.848107E-08,-2.622604E-08
76.4406,-0.8502935,-3.310607E-08,NaN,-0.3259685,-1.384869E-07,NaN,0.7054235,5.127342E-08,NaN,-0.3653763,1.985401E-06,-0.5863544,-1.345188E-08,NaN,NaN,-0.01974443,-5.587964E-11,3.856177E-07,-1.159025E-07,-3.967316E-08,-2.861022E-08
76.45486,-0.8502935,-3.310607E-08,NaN,-0.3259685,-1.384869E-07,NaN,0.7054235,5.127342E-08,NaN,-0.3653763,1.985401E-06,-0.5863544,-1.345188E-08,NaN,NaN,-0.01974443,-5.587964E-11,3.856177E-07,-1.159025E-07,-3.967316E-08,-2.861022E-08
76.46889,-0.8705825,-3.310483E-08,NaN,-0.3259248,-1.384865E-07,NaN,0.7116489,5.127564E-08,NaN,-0.3635413,1.986137E-06,-0.5918638,-1.345149E-08,NaN,NaN,-0.01973756,-4.656642E-11,3.89343E-07,-1.159008E-07,-3.967316E-08,-2.622604E-08
76.4854,-0.8906536,-3.310358E-08,NaN,-0.3258824,-1.384861E-07,NaN,0.7177718,5.127796E-08,NaN,-0.3617981,1.986882E-06,-0.5972985,-1.345121E-08,NaN,NaN,-0.01973075,-4.656642E-11,3.967936E-07,-1.158992E-07,-3.609688E-08,-2.861022E-08
76.49995,-0.8906536,-3.310358E-08,NaN,-0.3258824,-1.384861E-07,NaN,0.7177718,5.127796E-08,NaN,-0.3617981,1.986882E-06,-0.5972985,-1.345121E-08,NaN,NaN,-0.01973075,-4.656642E-11,3.967936E-07,-1.158992E-07,-3.609688E-08,-2.861022E-08
76.51289,-0.9105039,-3.310233E-08,NaN,-0.3258418,-1.384857E-07,NaN,0.7237942,5.128074E-08,NaN,-0.3601419,1.987618E-06,-0.6026599,-1.345139E-08,NaN,NaN,-0.01972403,-3.725319E-11,4.042442E-07,-1.158976E-07,-3.967316E-08,-2.622604E-08
76.52843,-0.9301322,-3.310108E-08,NaN,-0.3258027,-1.384853E-07,NaN,0.7297168,5.128361E-08,NaN,-0.3585686,1.988363E-06,-0.6079482,-1.345166E-08,NaN,NaN,-0.01971739,-3.725319E-11,4.039461E-07,-1.15896E-07,-3.967316E-08,-2.861022E-08
76.54284,-0.9495389,-3.309984E-08,NaN,-0.3257655,-1.384849E-07,NaN,0.7355395,5.128694E-08,NaN,-0.3570751,1.989099E-06,-0.6131627,-1.345239E-08,NaN,NaN,-0.01971084,-2.793997E-11,4.096086E-07,-1.158943E-07,-4.086525E-08,-2.622604E-08
76.55755,-0.9495389,-3.309984E-08,NaN,-0.3257655,-1.384849E-07,NaN,0.7355395,5.128694E-08,NaN,-0.3570751,1.989099E-06,-0.6131627,-1.345239E-08,NaN,NaN,-0.01971084,-2.793997E-11,4.096086E-07,-1.158943E-07,-4.086525E-08,-2.622604E-08
76.57139,-0.9687252,-3.309859E-08,NaN,-0.3257299,-1.384845E-07,NaN,0.7412617,5.129035E-08,NaN,-0.3556583,1.989844E-06,-0.6183022,-1.34532E-08,NaN,NaN,-0.01970439,-2.793997E-11,4.125888E-07,-1.158927E-07,-4.324944E-08,-2.861022E-08
76.58662,-0.9876927,-3.309734E-08,NaN,-0.3256961,-1.384841E-07,NaN,0.7468823,5.129559E-08,NaN,-0.3543158,1.990579E-06,-0.6233653,-1.345583E-08,NaN,NaN,-0.01969806,-1.862674E-11,4.087145E-07,-1.158912E-07,-4.444153E-08,-2.622604E-08
76.60133,-1.006443,-3.30961E-08,NaN,-0.325664,-1.384833E-07,NaN,0.7524001,5.127869E-08,NaN,-0.3530453,1.991325E-06,-0.6283503,-1.343633E-08,NaN,NaN,-0.01969184,-1.862674E-11,4.097576E-07,-1.158905E-07,-4.324944E-08,-2.861022E-08
76.6173,-1.006443,-3.30961E-08,NaN,-0.325664,-1.384833E-07,NaN,0.7524001,5.127869E-08,NaN,-0.3530453,1.991325E-06,-0.6283503,-1.343633E-08,NaN,NaN,-0.01969184,-1.862674E-11,4.097576E-07,-1.158905E-07,-4.324944E-08,-2.861022E-08
76.63019,-1.024979,-3.309485E-08,NaN,-0.3256336,-1.384825E-07,NaN,0.7578138,5.12647E-08,NaN,-0.3518446,1.99207E-06,-0.6332554,-1.341973E-08,NaN,NaN,-0.01968574,-1.862674E-11,4.119927E-07,-1.158899E-07,-4.563363E-08,-2.622604E-08
76.64548,-1.043302,-3.30936E-08,NaN,-0.3256048,-1.384823E-07,NaN,0.7631219,5.127401E-08,NaN,-0.3507118,1.992815E-06,-0.6380787,-1.342644E-08,NaN,NaN,-0.01967978,-1.862674E-11,4.139299E-07,-1.158884E-07,-3.967316E-08,-2.861022E-08
76.66026,-1.061415,-3.309236E-08,NaN,-0.3255776,-1.38482E-07,NaN,0.7683231,5.128123E-08,NaN,-0.3496449,1.993551E-06,-0.6428187,-1.343105E-08,NaN,NaN,-0.01967393,-9.313517E-12,4.164631E-07,-1.158869E-07,-3.848107E-08,-2.622604E-08
76.67508,-1.061415,-3.309236E-08,NaN,-0.3255776,-1.38482E-07,NaN,0.7683231,5.128123E-08,NaN,-0.3496449,1.993551E-06,-0.6428187,-1.343105E-08,NaN,NaN,-0.01967393,-9.313517E-12,4.164631E-07,-1.158869E-07,-3.848107E-08,-2.622604E-08
76.68881,-1.07932,-3.309111E-08,NaN,-0.325552,-1.384816E-07,NaN,0.7734159,5.128776E-08,NaN,-0.3486421,1.994296E-06,-0.6474734,-1.343498E-08,NaN,NaN,-0.01966823,-9.313517E-12,4.215295E-07,-1.158853E-07,-3.728898E-08,-2.861022E-08
76.70441,-1.09702,-3.308986E-08,NaN,-0.3255278,-1.384813E-07,NaN,0.7783992,5.129397E-08,NaN,-0.3477014,1.99505E-06,-0.6520411,-1.343859E-08,NaN,NaN,-0.01966267,-1.862674E-11,4.189963E-07,-1.158838E-07,-3.848107E-08,-2.622604E-08
76.71903,-1.09702,-3.308986E-08,NaN,-0.3255278,-1.384813E-07,NaN,0.7783992,5.129397E-08,NaN,-0.3477014,1.99505E-06,-0.6520411,-1.343859E-08,NaN,NaN,-0.01966267,-1.862674E-11,4.189963E-07,-1.158838E-07,-3.848107E-08,-2.622604E-08
76.73289,-1.114516,-3.308861E-08,NaN,-0.3255051,-1.384809E-07,NaN,0.7832715,5.129987E-08,NaN,-0.3468213,1.9958E-06,-0.6565203,-1.344189E-08,NaN,NaN,-0.01965725,-2.328335E-11,4.228706E-07,-1.158822E-07,-3.848107E-08,-2.861022E-08
76.74944,-1.131811,-3.308737E-08,NaN,-0.3254839,-1.384805E-07,NaN,0.7880318,5.13058E-08,NaN,-0.3459999,1.996554E-06,-0.6609094,-1.344522E-08,NaN,NaN,-0.01965198,-3.259658E-11,4.233176E-07,-1.158807E-07,-3.907711E-08,-2.622604E-08
76.76401,-1.148907,-3.308612E-08,NaN,-0.325464,-1.384801E-07,NaN,0.7926788,5.131213E-08,NaN,-0.3452355,1.997304E-06,-0.6652068,-1.344895E-08,NaN,NaN,-0.01964685,-3.725319E-11,4.242117E-07,-1.158791E-07,-3.669293E-08,-2.861022E-08
76.77779,-1.148907,-3.308612E-08,NaN,-0.325464,-1.384801E-07,NaN,0.7926788,5.131213E-08,NaN,-0.3452355,1.997304E-06,-0.6652068,-1.344895E-08,NaN,NaN,-0.01964685,-3.725319E-11,4.242117E-07,-1.158791E-07,-3.669293E-08,-2.861022E-08
76.79157,-1.165807,-3.308487E-08,NaN,-0.3254454,-1.384798E-07,NaN,0.7972118,5.131849E-08,NaN,-0.3445266,1.998058E-06,-0.6694114,-1.345271E-08,NaN,NaN,-0.01964188,-4.656642E-11,4.27639E-07,-1.158775E-07,-3.550084E-08,-2.622604E-08
76.80711,-1.182513,-3.308363E-08,NaN,-0.3254282,-1.384794E-07,NaN,0.8016297,5.132488E-08,NaN,-0.3438714,1.998808E-06,-0.6735218,-1.345649E-08,NaN,NaN,-0.01963707,-5.122303E-11,4.28533E-07,-1.15876E-07,-3.192456E-08,-2.861022E-08
76.82142,-1.199027,-3.308238E-08,NaN,-0.3254122,-1.38479E-07,NaN,0.8059317,5.133129E-08,NaN,-0.3432683,1.999558E-06,-0.6775367,-1.346031E-08,NaN,NaN,-0.01963241,-5.587964E-11,4.338974E-07,-1.158744E-07,-3.311665E-08,-2.622604E-08
76.83609,-1.199027,-3.308238E-08,NaN,-0.3254122,-1.38479E-07,NaN,0.8059317,5.133129E-08,NaN,-0.3432683,1.999558E-06,-0.6775367,-1.346031E-08,NaN,NaN,-0.01963241,-5.587964E-11,4.338974E-07,-1.158744E-07,-3.311665E-08,-2.622604E-08
76.84995,-1.215351,-3.308114E-08,NaN,-0.3253974,-1.384786E-07,NaN,0.8101171,5.076223E-08,NaN,-0.3427158,2.000303E-06,-0.6814553,-1.291573E-08,NaN,NaN,-0.01962791,-5.122303E-11,4.334504E-07,-1.158728E-07,-3.192456E-08,-2.622604E-08
76.86531,-1.231488,-3.307989E-08,NaN,-0.3253838,-1.38478E-07,NaN,0.8141853,5.019317E-08,NaN,-0.3422124,2.001057E-06,-0.6852763,-1.239184E-08,NaN,NaN,-0.01962357,-5.587964E-11,4.316622E-07,-1.158711E-07,-3.013642E-08,-2.622604E-08
76.8799,-1.231488,-3.307989E-08,NaN,-0.3253838,-1.38478E-07,NaN,0.8141853,5.019317E-08,NaN,-0.3422124,2.001057E-06,-0.6852763,-1.239184E-08,NaN,NaN,-0.01962357,-5.587964E-11,4.316622E-07,-1.158711E-07,-3.013642E-08,-2.622604E-08
76.89396,-1.247439,-3.307865E-08,NaN,-0.3253714,-1.384774E-07,NaN,0.8181357,4.962411E-08,NaN,-0.3417565,2.001816E-06,-0.6889991,-1.188395E-08,NaN,NaN,-0.01961938,-6.053626E-11,4.338974E-07,-1.158693E-07,-2.954037E-08,-2.622604E-08
76.90949,-1.263207,-3.307741E-08,NaN,-0.32536,-1.384768E-07,NaN,0.821968,4.905505E-08,NaN,-0.3413467,2.002575E-06,-0.6926227,-1.13886E-08,NaN,NaN,-0.01961536,-6.519287E-11,4.313642E-07,-1.158676E-07,-2.954037E-08,-2.622604E-08
76.92413,-1.278573,-3.307616E-08,NaN,-0.325349,-1.384762E-07,NaN,0.825359,4.848599E-08,NaN,-0.3410772,2.003334E-06,-0.6958526,-1.090326E-08,NaN,NaN,-0.01961192,-6.519287E-11,4.298741E-07,-1.158659E-07,-2.834828E-08,-2.622604E-08
76.93883,-1.278573,-3.307616E-08,NaN,-0.325349,-1.384762E-07,NaN,0.825359,4.848599E-08,NaN,-0.3410772,2.003334E-06,-0.6958526,-1.090326E-08,NaN,NaN,-0.01961192,-6.519287E-11,4.298741E-07,-1.158659E-07,-2.834828E-08,-2.622604E-08
76.95263,-1.293621,-3.307492E-08,NaN,-0.3253393,-1.384755E-07,NaN,0.8285418,4.791693E-08,NaN,-0.3408791,2.004093E-06,-0.6989026,-1.042606E-08,NaN,NaN,-0.01960868,-6.519287E-11,4.297251E-07,-1.158641E-07,-2.715619E-08,-2.622604E-08
76.96809,-1.308407,-3.307368E-08,NaN,-0.3253313,-1.384749E-07,NaN,0.8315999,4.734787E-08,NaN,-0.3407228,2.004857E-06,-0.7018483,-9.955621E-09,NaN,NaN,-0.01960557,-6.984949E-11,4.315132E-07,-1.158624E-07,-2.715619E-08,-2.622604E-08
76.9828,-1.322966,-3.307243E-08,NaN,-0.3253248,-1.384743E-07,NaN,0.8345586,4.677882E-08,NaN,-0.3405973,2.00562E-06,-0.7047117,-9.490928E-09,NaN,NaN,-0.01960258,-6.984949E-11,4.292781E-07,-1.158607E-07,-2.656014E-08,-2.622604E-08
76.99765,-1.322966,-3.307243E-08,NaN,-0.3253248,-1.384743E-07,NaN,0.8345586,4.677882E-08,NaN,-0.3405973,2.00562E-06,-0.7047117,-9.490928E-09,NaN,NaN,-0.01960258,-6.984949E-11,4.292781E-07,-1.158607E-07,-2.656014E-08,-2.622604E-08
77.01165,-1.336594,-3.307119E-08,NaN,-0.3253174,-1.384736E-07,NaN,0.8363464,4.620976E-08,NaN,-0.3408106,2.006384E-06,-0.7065143,-9.031228E-09,NaN,NaN,-0.01960111,-6.984949E-11,4.265958E-07,-1.158589E-07,-2.536805E-08,-2.622604E-08
77.02785,-1.349579,-3.306995E-08,NaN,-0.325312,-1.38473E-07,NaN,0.837741,4.56407E-08,NaN,-0.3411429,2.007152E-06,-0.707971,-8.575964E-09,NaN,NaN,-0.01959992,-7.45061E-11,4.227215E-07,-1.158572E-07,-2.536805E-08,-2.622604E-08
77.04276,-1.362105,-3.30687E-08,NaN,-0.3253095,-1.384723E-07,NaN,0.8390192,4.507164E-08,NaN,-0.3415036,2.007921E-06,-0.7093338,-8.124721E-09,NaN,NaN,-0.01959875,-7.916272E-11,4.178042E-07,-1.158555E-07,-2.581508E-08,-2.622604E-08
77.05618,-1.362105,-3.30687E-08,NaN,-0.3253095,-1.384723E-07,NaN,0.8390192,4.507164E-08,NaN,-0.3415036,2.007921E-06,-0.7093338,-8.124721E-09,NaN,NaN,-0.01959875,-7.916272E-11,4.178042E-07,-1.158555E-07,-2.581508E-08,-2.622604E-08
77.07008,-1.373563,-3.306746E-08,NaN,-0.3253074,-1.384717E-07,NaN,0.8391863,4.450258E-08,NaN,-0.3421713,2.008689E-06,-0.7096916,-7.677191E-09,NaN,NaN,-0.01959899,-8.381933E-11,4.167611E-07,-1.158538E-07,-2.492101E-08,-2.622604E-08
77.08665,-1.3843,-3.306621E-08,NaN,-0.3253072,-1.38471E-07,NaN,0.8390358,4.393352E-08,NaN,-0.3429213,2.009457E-06,-0.7097729,-7.233142E-09,NaN,NaN,-0.01959946,-8.847595E-11,4.109496E-07,-1.15852E-07,-2.380343E-08,-2.622604E-08
77.10006,-1.394539,-3.306497E-08,NaN,-0.3253085,-1.384704E-07,NaN,0.8388388,4.336446E-08,NaN,-0.3436657,2.010226E-06,-0.7098231,-6.792397E-09,NaN,NaN,-0.01959995,-9.313256E-11,4.075224E-07,-1.158503E-07,-2.233194E-08,-2.622604E-08
77.11578,-1.394539,-3.306497E-08,NaN,-0.3253085,-1.384704E-07,NaN,0.8388388,4.336446E-08,NaN,-0.3436657,2.010226E-06,-0.7098231,-6.792397E-09,NaN,NaN,-0.01959995,-9.313256E-11,4.075224E-07,-1.158503E-07,-2.233194E-08,-2.622604E-08
77.12846,-1.404423,-3.306372E-08,NaN,-0.3253108,-1.384697E-07,NaN,0.8386658,4.27954E-08,NaN,-0.3443783,2.010994E-06,-0.7099038,-6.354825E-09,NaN,NaN,-0.01960045,-9.778918E-11,4.039461E-07,-1.158486E-07,-2.091632E-08,-2.622604E-08
77.14383,-1.413313,-3.306247E-08,NaN,-0.3253126,-1.384691E-07,NaN,0.8374518,4.222634E-08,NaN,-0.3453685,2.011762E-06,-0.70904,-5.920321E-09,NaN,NaN,-0.01960231,-9.778918E-11,3.988797E-07,-1.158469E-07,-1.92772E-08,-2.622604E-08
77.15847,-1.413313,-3.306247E-08,NaN,-0.3253126,-1.384691E-07,NaN,0.8374518,4.222634E-08,NaN,-0.3453685,2.011762E-06,-0.70904,-5.920321E-09,NaN,NaN,-0.01960231,-9.778918E-11,3.988797E-07,-1.158469E-07,-1.92772E-08,-2.622604E-08
77.17256,-1.421541,-3.306123E-08,NaN,-0.3253155,-1.384684E-07,NaN,0.8359564,4.165728E-08,NaN,-0.3464251,2.012531E-06,-0.7079291,-5.488805E-09,NaN,NaN,-0.0196044,-9.778918E-11,3.954524E-07,-1.158451E-07,-2.002225E-08,-2.622604E-08
77.1877,-1.429319,-3.305998E-08,NaN,-0.3253207,-1.384677E-07,NaN,0.8344423,4.108822E-08,NaN,-0.3474665,2.013304E-06,-0.7068099,-5.060213E-09,NaN,NaN,-0.01960643,-9.778918E-11,3.90237E-07,-1.158434E-07,-2.032028E-08,-2.622604E-08
77.20245,-1.43678,-3.305873E-08,NaN,-0.3253282,-1.384671E-07,NaN,0.832978,4.051916E-08,NaN,-0.3484683,2.014077E-06,-0.7057428,-4.634495E-09,NaN,NaN,-0.01960838,-9.778918E-11,3.885979E-07,-1.158417E-07,-2.002225E-08,-2.622604E-08
77.21716,-1.43678,-3.305873E-08,NaN,-0.3253282,-1.384671E-07,NaN,0.832978,4.051916E-08,NaN,-0.3484683,2.014077E-06,-0.7057428,-4.634495E-09,NaN,NaN,-0.01960838,-9.778918E-11,3.885979E-07,-1.158417E-07,-2.002225E-08,-2.622604E-08
77.23109,-1.443283,-3.305749E-08,NaN,-0.3253355,-1.384664E-07,NaN,0.8305125,3.99501E-08,NaN,-0.3497412,2.01485E-06,-0.7037662,-4.211606E-09,NaN,NaN,-0.01961161,-9.778918E-11,3.856177E-07,-1.1584E-07,-1.942621E-08,-2.622604E-08
77.24662,-1.449157,-3.305624E-08,NaN,-0.3253446,-1.384657E-07,NaN,0.8277976,3.938104E-08,NaN,-0.3510733,2.015623E-06,-0.7015699,-3.791511E-09,NaN,NaN,-0.019615,-9.778918E-11,3.821904E-07,-1.158383E-07,-1.853214E-08,-2.622604E-08
77.26115,-1.454609,-3.305499E-08,NaN,-0.3253559,-1.38465E-07,NaN,0.8250929,3.881198E-08,NaN,-0.3523822,2.016396E-06,-0.6993898,-3.37418E-09,NaN,NaN,-0.01961828,-9.778918E-11,3.732497E-07,-1.158366E-07,-1.6744E-08,-2.622604E-08
77.27611,-1.454609,-3.305499E-08,NaN,-0.3253559,-1.38465E-07,NaN,0.8250929,3.881198E-08,NaN,-0.3523822,2.016396E-06,-0.6993898,-3.37418E-09,NaN,NaN,-0.01961828,-9.778918E-11,3.732497E-07,-1.158366E-07,-1.6744E-08,-2.622604E-08
77.28992,-1.459046,-3.305374E-08,NaN,-0.3253668,-1.384643E-07,NaN,0.821433,3.824292E-08,NaN,-0.3539579,2.017169E-06,-0.6963431,-2.959584E-09,NaN,NaN,-0.01962272,-9.778918E-11,3.660971E-07,-1.158348E-07,-1.495586E-08,-2.622604E-08
77.3075,-1.462825,-3.30525E-08,NaN,-0.3253791,-1.384636E-07,NaN,0.8175784,3.767386E-08,NaN,-0.355579,2.017942E-06,-0.6931266,-2.5477E-09,NaN,NaN,-0.01962725,-9.778918E-11,3.574545E-07,-1.158331E-07,-1.316772E-08,-2.622604E-08
77.32069,-1.466175,-3.305125E-08,NaN,-0.3253931,-1.384629E-07,NaN,0.8137869,3.71048E-08,NaN,-0.3571616,2.018715E-06,-0.6899742,-2.138503E-09,NaN,NaN,-0.01963163,-9.778918E-11,3.532821E-07,-1.158314E-07,-1.227365E-08,-2.622604E-08
77.33437,-1.466175,-3.305125E-08,NaN,-0.3253931,-1.384629E-07,NaN,0.8137869,3.71048E-08,NaN,-0.3571616,2.018715E-06,-0.6899742,-2.138503E-09,NaN,NaN,-0.01963163,-9.778918E-11,3.532821E-07,-1.158314E-07,-1.227365E-08,-2.622604E-08
77.3485,-1.46924,-3.305E-08,NaN,-0.3254087,-1.384622E-07,NaN,0.8101222,3.653575E-08,NaN,-0.3586822,2.019488E-06,-0.686942,-1.731974E-09,NaN,NaN,-0.01963582,-9.778918E-11,3.485138E-07,-1.158297E-07,-1.316772E-08,-2.622604E-08
77.36385,-1.471386,-3.304876E-08,NaN,-0.3254231,-1.384615E-07,NaN,0.8055747,3.596669E-08,NaN,-0.3604603,2.020261E-06,-0.6831088,-1.328092E-09,NaN,NaN,-0.01964108,-9.778918E-11,3.443414E-07,-1.15828E-07,-1.137958E-08,-2.622604E-08
77.37826,-1.471386,-3.304876E-08,NaN,-0.3254231,-1.384615E-07,NaN,0.8055747,3.596669E-08,NaN,-0.3604603,2.020261E-06,-0.6831088,-1.328092E-09,NaN,NaN,-0.01964108,-9.778918E-11,3.443414E-07,-1.15828E-07,-1.137958E-08,-2.622604E-08
77.3923,-1.472944,-3.304751E-08,NaN,-0.3254377,-1.384608E-07,NaN,0.8008609,3.539763E-08,NaN,-0.362281,2.021034E-06,-0.6791299,-9.268373E-10,NaN,NaN,-0.01964641,-9.778918E-11,3.356988E-07,-1.158263E-07,-1.018749E-08,-2.622604E-08
77.40778,-1.474126,-3.304626E-08,NaN,-0.3254528,-1.384601E-07,NaN,0.7962278,3.482857E-08,NaN,-0.3640619,2.021807E-06,-0.6752293,-5.28192E-10,NaN,NaN,-0.01965156,-9.778918E-11,3.295893E-07,-1.158246E-07,-8.697373E-09,-2.622604E-08
77.42209,-1.475066,-3.304502E-08,NaN,-0.3254686,-1.384594E-07,NaN,0.7917386,3.425951E-08,NaN,-0.3657791,2.022576E-06,-0.671463,-1.321379E-10,NaN,NaN,-0.0196565,-9.778918E-11,3.227348E-07,-1.158229E-07,-9.29342E-09,-2.622604E-08
77.43678,-1.475066,-3.304502E-08,NaN,-0.3254686,-1.384594E-07,NaN,0.7917386,3.425951E-08,NaN,-0.3657791,2.022576E-06,-0.671463,-1.321379E-10,NaN,NaN,-0.0196565,-9.778918E-11,3.227348E-07,-1.158229E-07,-9.29342E-09,-2.622604E-08
77.45074,-1.475121,-3.304377E-08,NaN,-0.3254825,-1.384587E-07,NaN,0.7864187,3.369045E-08,NaN,-0.3677576,2.023339E-06,-0.6669444,2.613426E-10,NaN,NaN,-0.0196624,-9.313256E-11,3.154332E-07,-1.158212E-07,-9.889467E-09,-2.622604E-08
77.4662,-1.474621,-3.304252E-08,NaN,-0.3254956,-1.38458E-07,NaN,0.7809653,3.312139E-08,NaN,-0.3697766,2.024103E-06,-0.6623091,6.52267E-10,NaN,NaN,-0.01966834,-8.847595E-11,3.082806E-07,-1.158195E-07,-1.108156E-08,-2.622604E-08
77.48098,-1.473774,-3.304127E-08,NaN,-0.3255086,-1.384573E-07,NaN,0.7756189,3.255233E-08,NaN,-0.3717522,2.024871E-06,-0.657775,1.040652E-09,NaN,NaN,-0.01967407,-8.847595E-11,3.011281E-07,-1.158178E-07,-1.167761E-08,-2.622604E-08
77.49548,-1.473774,-3.304127E-08,NaN,-0.3255086,-1.384573E-07,NaN,0.7756189,3.255233E-08,NaN,-0.3717522,2.024871E-06,-0.657775,1.040652E-09,NaN,NaN,-0.01967407,-8.847595E-11,3.011281E-07,-1.158178E-07,-1.167761E-08,-2.622604E-08
77.50978,-1.471983,-3.304003E-08,NaN,-0.3255192,-1.384565E-07,NaN,0.7694969,3.198327E-08,NaN,-0.3739901,2.02564E-06,-0.652541,1.426515E-09,NaN,NaN,-0.01968066,-8.847595E-11,2.938265E-07,-1.158161E-07,-1.048551E-08,-2.622604E-08
77.52505,-1.469606,-3.303878E-08,NaN,-0.3255285,-1.384558E-07,NaN,0.7632952,3.141421E-08,NaN,-0.3762585,2.026408E-06,-0.6472397,1.809872E-09,NaN,NaN,-0.01968722,-8.847595E-11,2.86525E-07,-1.158144E-07,-9.889467E-09,-2.622604E-08
77.54119,-1.46687,-3.303753E-08,NaN,-0.325537,-1.384551E-07,NaN,0.7572505,3.084515E-08,NaN,-0.3784705,2.027176E-06,-0.6420851,2.190739E-09,NaN,NaN,-0.01969353,-8.847595E-11,2.790744E-07,-1.158127E-07,-8.697374E-09,-2.622604E-08
77.55428,-1.46687,-3.303753E-08,NaN,-0.325537,-1.384551E-07,NaN,0.7572505,3.084515E-08,NaN,-0.3784705,2.027176E-06,-0.6420851,2.190739E-09,NaN,NaN,-0.01969353,-8.847595E-11,2.790744E-07,-1.158127E-07,-8.697374E-09,-2.622604E-08
77.56847,-1.46392,-3.303629E-08,NaN,-0.325545,-1.384543E-07,NaN,0.7514192,3.027609E-08,NaN,-0.380602,2.027945E-06,-0.6371271,2.569134E-09,NaN,NaN,-0.01969954,-8.847595E-11,2.729649E-07,-1.15811E-07,-8.697374E-09,-2.622604E-08
77.58573,-1.460119,-3.303504E-08,NaN,-0.3255503,-1.384536E-07,NaN,0.7448884,2.970703E-08,NaN,-0.3829916,2.028713E-06,-0.6315403,2.945071E-09,NaN,NaN,-0.01970632,-8.847595E-11,2.649183E-07,-1.158093E-07,-9.293421E-09,-2.622604E-08
77.59938,-1.460119,-3.303504E-08,NaN,-0.3255503,-1.384536E-07,NaN,0.7448884,2.970703E-08,NaN,-0.3829916,2.028713E-06,-0.6315403,2.945071E-09,NaN,NaN,-0.01970632,-8.847595E-11,2.649183E-07,-1.158093E-07,-9.293421E-09,-2.622604E-08
77.6133,-1.455799,-3.303379E-08,NaN,-0.3255537,-1.384528E-07,NaN,0.7383024,2.913797E-08,NaN,-0.3854114,2.029481E-06,-0.6259079,3.318568E-09,NaN,NaN,-0.01971306,-8.847595E-11,2.565737E-07,-1.158076E-07,-6.909235E-09,-2.622604E-08
77.62777,-1.45117,-3.303255E-08,NaN,-0.325556,-1.384521E-07,NaN,0.7318835,2.856891E-08,NaN,-0.3877752,2.03025E-06,-0.6204303,3.689639E-09,NaN,NaN,-0.01971955,-8.847595E-11,2.510602E-07,-1.158059E-07,-7.505282E-09,-2.622604E-08
77.64218,-1.446367,-3.30313E-08,NaN,-0.3255575,-1.384514E-07,NaN,0.7256871,2.799985E-08,NaN,-0.3900586,2.031018E-06,-0.6151566,4.058302E-09,NaN,NaN,-0.01972574,-8.847595E-11,2.445037E-07,-1.158042E-07,-8.697374E-09,-2.622604E-08
77.65675,-1.446367,-3.30313E-08,NaN,-0.3255575,-1.384514E-07,NaN,0.7256871,2.799985E-08,NaN,-0.3900586,2.031018E-06,-0.6151566,4.058302E-09,NaN,NaN,-0.01972574,-8.847595E-11,2.445037E-07,-1.158042E-07,-8.697374E-09,-2.622604E-08
77.6704,-1.440745,-3.303005E-08,NaN,-0.3255575,-1.384506E-07,NaN,0.7188444,2.743079E-08,NaN,-0.3926075,2.031786E-06,-0.6093051,4.42457E-09,NaN,NaN,-0.01973259,-8.847595E-11,2.36159E-07,-1.158025E-07,-8.101328E-09,-2.622604E-08
77.68583,-1.434633,-3.30288E-08,NaN,-0.3255565,-1.384498E-07,NaN,0.7119715,2.686173E-08,NaN,-0.3951869,2.032554E-06,-0.603431,4.788461E-09,NaN,NaN,-0.01973939,-9.313256E-11,2.301986E-07,-1.158008E-07,-8.697374E-09,-2.622604E-08
77.70028,-1.428237,-3.302756E-08,NaN,-0.3255546,-1.384491E-07,NaN,0.7052827,2.629267E-08,NaN,-0.397708,2.033318E-06,-0.5977263,5.149989E-09,NaN,NaN,-0.01974591,-9.778918E-11,2.239401E-07,-1.157992E-07,-7.505282E-09,-2.622604E-08
77.71496,-1.428237,-3.302756E-08,NaN,-0.3255546,-1.384491E-07,NaN,0.7052827,2.629267E-08,NaN,-0.397708,2.033318E-06,-0.5977263,5.149989E-09,NaN,NaN,-0.01974591,-9.778918E-11,2.239401E-07,-1.157992E-07,-7.505282E-09,-2.622604E-08
77.72929,-1.420961,-3.302631E-08,NaN,-0.3255498,-1.384483E-07,NaN,0.6979978,2.572362E-08,NaN,-0.4004964,2.034077E-06,-0.5914919,5.50917E-09,NaN,NaN,-0.01975303,-1.024458E-10,2.170856E-07,-1.157975E-07,-8.101328E-09,-2.622604E-08
77.74439,-1.413163,-3.302506E-08,NaN,-0.3255428,-1.384476E-07,NaN,0.6907295,2.515456E-08,NaN,-0.4033049,2.034832E-06,-0.5852771,5.86602E-09,NaN,NaN,-0.01976005,-1.024458E-10,2.088899E-07,-1.157958E-07,-5.717143E-09,-2.622604E-08
77.75935,-1.413163,-3.302506E-08,NaN,-0.3255428,-1.384476E-07,NaN,0.6907295,2.515456E-08,NaN,-0.4033049,2.034832E-06,-0.5852771,5.86602E-09,NaN,NaN,-0.01976005,-1.024458E-10,2.088899E-07,-1.157958E-07,-5.717143E-09,-2.622604E-08
77.77328,-1.405068,-3.302382E-08,NaN,-0.3255342,-1.384468E-07,NaN,0.6836863,2.45855E-08,NaN,-0.406042,2.035581E-06,-0.5792685,6.220552E-09,NaN,NaN,-0.01976678,-9.778918E-11,2.021844E-07,-1.157941E-07,-9.293421E-09,-2.622604E-08
77.78824,-1.396821,-3.302257E-08,NaN,-0.3255244,-1.38446E-07,NaN,0.6769156,2.401644E-08,NaN,-0.4086828,2.036331E-06,-0.5735078,6.572783E-09,NaN,NaN,-0.01977316,-9.313256E-11,1.956279E-07,-1.157924E-07,-1.048551E-08,-2.622604E-08
77.80299,-1.387784,-3.302132E-08,NaN,-0.3255116,-1.384453E-07,NaN,0.6696162,2.344738E-08,NaN,-0.4115874,2.037081E-06,-0.567281,6.922726E-09,NaN,NaN,-0.01978006,-8.847595E-11,1.896674E-07,-1.157908E-07,-9.889467E-09,-2.622604E-08
77.81785,-1.387784,-3.302132E-08,NaN,-0.3255116,-1.384453E-07,NaN,0.6696162,2.344738E-08,NaN,-0.4115874,2.037081E-06,-0.567281,6.922726E-09,NaN,NaN,-0.01978006,-8.847595E-11,1.896674E-07,-1.157908E-07,-9.889467E-09,-2.622604E-08
