JMolnar6/NonAnthroHands_User_Study/HandsLoggerWithURDF/tempdata/files/Reachy_JointMotion_gesture_7_33.csv
Time,r_shoulder,r_shoulder_x,r_upper_arm,r_forearm,r_wrist,r_wrist2hand,
386.831,-0.09732746,-1.559352E-08,NaN,-0.3272409,-1.351065E-07,NaN,0.4570859,-1.130635E-08,NaN,-2.167683,1.257653E-05,-0.3656109,2.34006E-08,NaN,NaN,-0.05307781,1.07101E-10,-2.249327E-07,-1.132197E-07,1.152367E-10,-2.861022E-08
386.8456,-0.09650112,-1.559259E-08,NaN,-0.3272366,-1.35106E-07,NaN,0.456955,-1.127832E-08,NaN,-2.167983,1.257709E-05,-0.3655322,2.33745E-08,NaN,NaN,-0.05242907,1.024444E-10,-2.175939E-07,-1.132188E-07,2.499422E-09,-2.622604E-08
386.8618,-0.09538962,-1.559167E-08,NaN,-0.3272319,-1.351056E-07,NaN,0.4568091,-1.125071E-08,NaN,-2.16829,1.257765E-05,-0.3654816,2.334883E-08,NaN,NaN,-0.05179311,9.778777E-11,-2.140549E-07,-1.13218E-07,1.30733E-09,-2.861022E-08
386.8774,-0.09538962,-1.559167E-08,NaN,-0.3272319,-1.351056E-07,NaN,0.4568091,-1.125071E-08,NaN,-2.16829,1.257765E-05,-0.3654816,2.334883E-08,NaN,NaN,-0.05179311,9.778777E-11,-2.140549E-07,-1.13218E-07,1.30733E-09,-2.861022E-08
386.8927,-0.09410334,-1.559074E-08,NaN,-0.327227,-1.351051E-07,NaN,0.4566754,-1.12235E-08,NaN,-2.168567,1.25782E-05,-0.3654397,2.332356E-08,NaN,NaN,-0.05116966,9.313116E-11,-2.094541E-07,-1.132172E-07,1.30733E-09,-2.622604E-08
386.9089,-0.09344079,-1.558982E-08,NaN,-0.3272246,-1.351046E-07,NaN,0.4567233,-1.119529E-08,NaN,-2.168421,1.257876E-05,-0.3654266,2.329729E-08,NaN,NaN,-0.05055884,8.847454E-11,-2.103296E-07,-1.132163E-07,-2.268949E-09,-2.861022E-08
386.9245,-0.09317347,-1.55889E-08,NaN,-0.3272235,-1.351042E-07,NaN,0.4568677,-1.116751E-08,NaN,-2.168127,1.257932E-05,-0.3653622,2.327143E-08,NaN,NaN,-0.04995996,8.381792E-11,-2.128255E-07,-1.132155E-07,-2.268949E-09,-2.622604E-08
386.9404,-0.09315597,-1.558797E-08,NaN,-0.3272229,-1.351037E-07,NaN,0.4570402,-1.113873E-08,NaN,-2.167799,1.257987E-05,-0.3652676,2.324459E-08,NaN,NaN,-0.04937275,7.916131E-11,-2.149117E-07,-1.132147E-07,-4.653135E-09,-2.861022E-08
386.9565,-0.09315597,-1.558797E-08,NaN,-0.3272229,-1.351037E-07,NaN,0.4570402,-1.113873E-08,NaN,-2.167799,1.257987E-05,-0.3652676,2.324459E-08,NaN,NaN,-0.04937275,7.916131E-11,-2.149117E-07,-1.132147E-07,-4.653135E-09,-2.861022E-08
386.9713,-0.09329463,-1.558705E-08,NaN,-0.3272223,-1.351033E-07,NaN,0.4572099,-1.111038E-08,NaN,-2.167478,1.258042E-05,-0.3651628,2.321818E-08,NaN,NaN,-0.04879703,7.450469E-11,-2.156567E-07,-1.132139E-07,-1.076856E-09,-2.622604E-08
386.9886,-0.09425929,-1.558613E-08,NaN,-0.3272233,-1.351029E-07,NaN,0.4575311,-1.108105E-08,NaN,-2.166792,1.258098E-05,-0.3650846,2.319078E-08,NaN,NaN,-0.04823295,6.984808E-11,-2.231446E-07,-1.13213E-07,-1.076856E-09,-2.861022E-08
387.0043,-0.09573965,-1.55852E-08,NaN,-0.3272246,-1.351024E-07,NaN,0.4579189,-1.105217E-08,NaN,-2.166012,1.258153E-05,-0.3649606,2.316383E-08,NaN,NaN,-0.04767986,6.519146E-11,-2.306138E-07,-1.132122E-07,1.152367E-10,-2.622604E-08
387.0203,-0.09753828,-1.558428E-08,NaN,-0.3272257,-1.35102E-07,NaN,0.4583099,-1.102231E-08,NaN,-2.165243,1.258209E-05,-0.3648129,2.313591E-08,NaN,NaN,-0.04713756,6.053485E-11,-2.350096E-07,-1.132114E-07,1.152367E-10,-2.861022E-08
387.036,-0.09753828,-1.558428E-08,NaN,-0.3272257,-1.35102E-07,NaN,0.4583099,-1.102231E-08,NaN,-2.165243,1.258209E-05,-0.3648129,2.313591E-08,NaN,NaN,-0.04713756,6.053485E-11,-2.350096E-07,-1.132114E-07,1.152367E-10,-2.861022E-08
387.0527,-0.09952965,-1.558336E-08,NaN,-0.3272262,-1.351015E-07,NaN,0.4586797,-1.132252E-08,NaN,-2.164519,1.258264E-05,-0.3646607,2.343805E-08,NaN,NaN,-0.04660584,6.053485E-11,-2.41026E-07,-1.132106E-07,-3.461042E-09,-2.622604E-08
387.0677,-0.1023623,-1.558243E-08,NaN,-0.3272286,-1.351011E-07,NaN,0.4591872,-1.161531E-08,NaN,-2.163456,1.258319E-05,-0.3645378,2.373278E-08,NaN,NaN,-0.04608488,6.519146E-11,-2.511588E-07,-1.132098E-07,-5.845227E-09,-2.861022E-08
387.0838,-0.1057123,-1.558151E-08,NaN,-0.3272312,-1.351006E-07,NaN,0.4597499,-1.190225E-08,NaN,-2.162323,1.258375E-05,-0.3643716,2.402165E-08,NaN,NaN,-0.04557408,6.984808E-11,-2.612729E-07,-1.13209E-07,1.30733E-09,-2.622604E-08
387.0995,-0.1057123,-1.558151E-08,NaN,-0.3272312,-1.351006E-07,NaN,0.4597499,-1.190225E-08,NaN,-2.162323,1.258375E-05,-0.3643716,2.402165E-08,NaN,NaN,-0.04557408,6.984808E-11,-2.612729E-07,-1.13209E-07,1.30733E-09,-2.622604E-08
387.1144,-0.1093738,-1.558058E-08,NaN,-0.3272332,-1.351002E-07,NaN,0.4603068,-1.218204E-08,NaN,-2.16122,1.258431E-05,-0.3641844,2.430337E-08,NaN,NaN,-0.04507321,6.984808E-11,-2.711822E-07,-1.132082E-07,-2.268949E-09,-2.861022E-08
387.1308,-0.113216,-1.557966E-08,NaN,-0.3272343,-1.350998E-07,NaN,0.4608349,-1.245622E-08,NaN,-2.160176,1.258486E-05,-0.3639946,2.45795E-08,NaN,NaN,-0.04458211,7.450469E-11,-2.801229E-07,-1.132074E-07,-7.03732E-09,-2.622604E-08
387.1471,-0.1178841,-1.557874E-08,NaN,-0.3272369,-1.350993E-07,NaN,0.4614952,-1.272351E-08,NaN,-2.158808,1.258541E-05,-0.363833,2.484871E-08,NaN,NaN,-0.04410096,7.916131E-11,-2.938878E-07,-1.132066E-07,-5.845227E-09,-2.861022E-08
387.1623,-0.1230522,-1.557781E-08,NaN,-0.3272392,-1.350989E-07,NaN,0.4622045,-1.298688E-08,NaN,-2.157381,1.258597E-05,-0.363629,2.511402E-08,NaN,NaN,-0.04362918,8.381792E-11,-3.085655E-07,-1.132058E-07,-7.03732E-09,-2.622604E-08
387.178,-0.1230522,-1.557781E-08,NaN,-0.3272392,-1.350989E-07,NaN,0.4622045,-1.298688E-08,NaN,-2.157381,1.258597E-05,-0.363629,2.511402E-08,NaN,NaN,-0.04362918,8.381792E-11,-3.085655E-07,-1.132058E-07,-7.03732E-09,-2.622604E-08
387.1931,-0.1285133,-1.557689E-08,NaN,-0.3272403,-1.350985E-07,NaN,0.4629024,-1.324498E-08,NaN,-2.155994,1.258653E-05,-0.3634053,2.537406E-08,NaN,NaN,-0.04316656,8.381792E-11,-3.212128E-07,-1.13205E-07,-3.461041E-09,-2.861022E-08
387.2096,-0.1341357,-1.557597E-08,NaN,-0.3272406,-1.35098E-07,NaN,0.4635663,-1.349649E-08,NaN,-2.154677,1.258708E-05,-0.3631806,2.56275E-08,NaN,NaN,-0.04271296,8.381792E-11,-3.329661E-07,-1.132043E-07,-3.461041E-09,-2.622604E-08
387.2256,-0.1405645,-1.557504E-08,NaN,-0.3272418,-1.350976E-07,NaN,0.4643586,-1.374296E-08,NaN,-2.153045,1.258764E-05,-0.3629819,2.587591E-08,NaN,NaN,-0.04226856,8.847454E-11,-3.508847E-07,-1.132035E-07,-5.845227E-09,-2.861022E-08
387.241,-0.1474736,-1.557412E-08,NaN,-0.3272425,-1.350972E-07,NaN,0.4651947,-1.398307E-08,NaN,-2.151364,1.258819E-05,-0.3627416,2.611795E-08,NaN,NaN,-0.0418328,9.313116E-11,-3.663447E-07,-1.132027E-07,-7.03732E-09,-2.622604E-08
387.2568,-0.1474736,-1.557412E-08,NaN,-0.3272425,-1.350972E-07,NaN,0.4651947,-1.398307E-08,NaN,-2.151364,1.258819E-05,-0.3627416,2.611795E-08,NaN,NaN,-0.0418328,9.313116E-11,-3.663447E-07,-1.132027E-07,-7.03732E-09,-2.622604E-08
387.2719,-0.1546559,-1.557319E-08,NaN,-0.3272424,-1.350968E-07,NaN,0.4660141,-1.421836E-08,NaN,-2.149732,1.258875E-05,-0.3624834,2.635517E-08,NaN,NaN,-0.0414055,9.778777E-11,-3.787871E-07,-1.132019E-07,-5.845227E-09,-2.861022E-08
387.2885,-0.16198,-1.557227E-08,NaN,-0.3272417,-1.350963E-07,NaN,0.4667951,-1.444892E-08,NaN,-2.148179,1.25893E-05,-0.3622255,2.658766E-08,NaN,NaN,-0.04098653,1.024444E-10,-3.911924E-07,-1.132011E-07,-4.653135E-09,-2.622604E-08
387.3042,-0.1700909,-1.557135E-08,NaN,-0.327242,-1.350959E-07,NaN,0.4677012,-1.467343E-08,NaN,-2.146319,1.258986E-05,-0.3619913,2.68141E-08,NaN,NaN,-0.04057606,9.778777E-11,-4.085895E-07,-1.132004E-07,-4.653135E-09,-2.861022E-08
387.32,-0.1700909,-1.557135E-08,NaN,-0.327242,-1.350959E-07,NaN,0.4677012,-1.467343E-08,NaN,-2.146319,1.258986E-05,-0.3619913,2.68141E-08,NaN,NaN,-0.04057606,9.778777E-11,-4.085895E-07,-1.132004E-07,-4.653135E-09,-2.861022E-08
387.3353,-0.1786628,-1.557042E-08,NaN,-0.3272415,-1.350955E-07,NaN,0.468646,-1.483425E-08,NaN,-2.144418,1.259042E-05,-0.3617164,2.697686E-08,NaN,NaN,-0.04017355,9.778777E-11,-4.253533E-07,-1.131997E-07,-9.421506E-09,-2.622604E-08
387.3517,-0.1874888,-1.55695E-08,NaN,-0.3272403,-1.35095E-07,NaN,0.4695696,-1.498757E-08,NaN,-2.142575,1.259099E-05,-0.3614253,2.713211E-08,NaN,NaN,-0.03977885,9.313116E-11,-4.394349E-07,-1.13199E-07,-1.06136E-08,-2.861022E-08
387.3674,-0.1964376,-1.556858E-08,NaN,-0.3272385,-1.350946E-07,NaN,0.4704506,-1.513636E-08,NaN,-2.140818,1.259154E-05,-0.3611358,2.728283E-08,NaN,NaN,-0.03939183,9.313116E-11,-4.529949E-07,-1.131983E-07,-1.180569E-08,-2.622604E-08
387.3828,-0.2061545,-1.556765E-08,NaN,-0.3272376,-1.350942E-07,NaN,0.4714537,-1.528071E-08,NaN,-2.138763,1.25921E-05,-0.3608677,2.742911E-08,NaN,NaN,-0.03901268,9.778777E-11,-4.73037E-07,-1.131976E-07,-1.657406E-08,-2.861022E-08
387.3987,-0.2061545,-1.556765E-08,NaN,-0.3272376,-1.350942E-07,NaN,0.4714537,-1.528071E-08,NaN,-2.138763,1.25921E-05,-0.3608677,2.742911E-08,NaN,NaN,-0.03901268,9.778777E-11,-4.73037E-07,-1.131976E-07,-1.657406E-08,-2.861022E-08
387.4136,-0.2163139,-1.556673E-08,NaN,-0.3272358,-1.350938E-07,NaN,0.4724907,-1.54207E-08,NaN,-2.136675,1.259266E-05,-0.3605599,2.757104E-08,NaN,NaN,-0.03864087,9.778777E-11,-4.895028E-07,-1.13197E-07,-1.538197E-08,-2.622604E-08
387.4303,-0.2267091,-1.55658E-08,NaN,-0.3272332,-1.350934E-07,NaN,0.4735019,-1.555642E-08,NaN,-2.134651,1.259322E-05,-0.3602376,2.770869E-08,NaN,NaN,-0.03827626,9.778777E-11,-5.052235E-07,-1.131963E-07,-1.180569E-08,-2.861022E-08
387.4458,-0.237209,-1.556488E-08,NaN,-0.3272292,-1.350934E-07,NaN,0.4744671,-1.555411E-08,NaN,-2.13272,1.259377E-05,-0.359918,2.770831E-08,NaN,NaN,-0.03791875,9.778777E-11,-5.207952E-07,-1.131947E-07,-8.229412E-09,-2.622604E-08
387.4618,-0.2484591,-1.556396E-08,NaN,-0.3272265,-1.350934E-07,NaN,0.4755514,-1.557005E-08,NaN,-2.130499,1.259433E-05,-0.3596178,2.772618E-08,NaN,NaN,-0.03756849,9.778777E-11,-5.385276E-07,-1.131931E-07,-7.037319E-09,-2.861022E-08
387.4773,-0.2484591,-1.556396E-08,NaN,-0.3272265,-1.350934E-07,NaN,0.4755514,-1.557005E-08,NaN,-2.130499,1.259433E-05,-0.3596178,2.772618E-08,NaN,NaN,-0.03756849,9.778777E-11,-5.385276E-07,-1.131931E-07,-7.037319E-09,-2.861022E-08
387.4923,-0.2601339,-1.556303E-08,NaN,-0.3272225,-1.350933E-07,NaN,0.476665,-1.559402E-08,NaN,-2.128251,1.25949E-05,-0.3592789,2.775207E-08,NaN,NaN,-0.03722502,8.847455E-11,-5.560364E-07,-1.131914E-07,-2.268948E-09,-2.622604E-08
387.5087,-0.272027,-1.556211E-08,NaN,-0.3272166,-1.350932E-07,NaN,0.4777489,-1.562022E-08,NaN,-2.126074,1.259546E-05,-0.3589269,2.778019E-08,NaN,NaN,-0.03688819,8.847455E-11,-5.734707E-07,-1.131896E-07,1.15238E-10,-2.861022E-08
387.5242,-0.2840074,-1.556119E-08,NaN,-0.3272089,-1.35093E-07,NaN,0.4787832,-1.564719E-08,NaN,-2.123997,1.259602E-05,-0.3585792,2.780909E-08,NaN,NaN,-0.03655791,8.847455E-11,-5.896385E-07,-1.131879E-07,6.075702E-09,-2.622604E-08
387.5399,-0.2840074,-1.556119E-08,NaN,-0.3272089,-1.35093E-07,NaN,0.4787832,-1.564719E-08,NaN,-2.123997,1.259602E-05,-0.3585792,2.780909E-08,NaN,NaN,-0.03655791,8.847455E-11,-5.896385E-07,-1.131879E-07,6.075702E-09,-2.622604E-08
387.555,-0.296721,-1.556026E-08,NaN,-0.3272021,-1.350929E-07,NaN,0.4799342,-1.567493E-08,NaN,-2.121636,1.259658E-05,-0.3582484,2.783876E-08,NaN,NaN,-0.03623433,8.847455E-11,-6.086375E-07,-1.131862E-07,1.15238E-10,-2.861022E-08
387.5728,-0.3098424,-1.555934E-08,NaN,-0.3271938,-1.350928E-07,NaN,0.4811099,-1.570201E-08,NaN,-2.119256,1.259713E-05,-0.3578803,2.786776E-08,NaN,NaN,-0.03591701,8.847455E-11,-6.250287E-07,-1.131845E-07,1.307331E-09,-2.622604E-08
387.5872,-0.3231653,-1.555842E-08,NaN,-0.3271834,-1.350926E-07,NaN,0.4822521,-1.572703E-08,NaN,-2.116952,1.259769E-05,-0.3575013,2.789471E-08,NaN,NaN,-0.03560582,8.847455E-11,-6.423141E-07,-1.131828E-07,2.499424E-09,-2.861022E-08
387.6029,-0.336559,-1.555749E-08,NaN,-0.327171,-1.350925E-07,NaN,0.4833414,-1.575145E-08,NaN,-2.114754,1.259825E-05,-0.3571283,2.792105E-08,NaN,NaN,-0.03530068,8.847455E-11,-6.569172E-07,-1.131811E-07,3.691517E-09,-2.622604E-08
387.6187,-0.336559,-1.555749E-08,NaN,-0.327171,-1.350925E-07,NaN,0.4833414,-1.575145E-08,NaN,-2.114754,1.259825E-05,-0.3571283,2.792105E-08,NaN,NaN,-0.03530068,8.847455E-11,-6.569172E-07,-1.131811E-07,3.691517E-09,-2.622604E-08
387.6336,-0.3506695,-1.555657E-08,NaN,-0.3271595,-1.350923E-07,NaN,0.4845452,-1.577387E-08,NaN,-2.11228,1.259881E-05,-0.3567695,2.794539E-08,NaN,NaN,-0.03500174,8.847455E-11,-6.762887E-07,-1.131794E-07,1.15238E-10,-2.861022E-08
387.6508,-0.3651717,-1.555564E-08,NaN,-0.3271464,-1.350922E-07,NaN,0.4857696,-1.579431E-08,NaN,-2.109792,1.259937E-05,-0.3563752,2.796776E-08,NaN,NaN,-0.03470855,8.847455E-11,-6.940211E-07,-1.131777E-07,1.15238E-10,-2.622604E-08
387.6657,-0.3798594,-1.555472E-08,NaN,-0.3271309,-1.350921E-07,NaN,0.4869568,-1.581283E-08,NaN,-2.107386,1.259993E-05,-0.3559721,2.79882E-08,NaN,NaN,-0.03442103,8.847455E-11,-7.104123E-07,-1.13176E-07,3.691517E-09,-2.861022E-08
387.6817,-0.3946023,-1.55538E-08,NaN,-0.3271134,-1.350919E-07,NaN,0.4880883,-1.582946E-08,NaN,-2.105091,1.26005E-05,-0.3555768,2.800676E-08,NaN,NaN,-0.03413909,7.916132E-11,-7.236744E-07,-1.131743E-07,1.15238E-10,-2.622604E-08
387.6976,-0.3946023,-1.55538E-08,NaN,-0.3271134,-1.350919E-07,NaN,0.4880883,-1.582946E-08,NaN,-2.105091,1.26005E-05,-0.3555768,2.800676E-08,NaN,NaN,-0.03413909,7.916132E-11,-7.236744E-07,-1.131743E-07,1.15238E-10,-2.622604E-08
387.7124,-0.4100462,-1.555287E-08,NaN,-0.3270968,-1.350918E-07,NaN,0.4893323,-1.584566E-08,NaN,-2.102526,1.260106E-05,-0.3551931,2.802487E-08,NaN,NaN,-0.03386287,6.98481E-11,-7.400656E-07,-1.131727E-07,1.307331E-09,-2.861022E-08
387.7288,-0.4258665,-1.555195E-08,NaN,-0.3270785,-1.350916E-07,NaN,0.4905928,-1.586E-08,NaN,-2.099952,1.260163E-05,-0.3547755,2.804114E-08,NaN,NaN,-0.03359198,6.053488E-11,-7.560099E-07,-1.13171E-07,2.499424E-09,-2.622604E-08
387.7442,-0.4418571,-1.555103E-08,NaN,-0.3270577,-1.350904E-07,NaN,0.4918128,-1.635312E-08,NaN,-2.097466,1.260219E-05,-0.3543516,2.844402E-08,NaN,NaN,-0.03332631,6.053488E-11,-7.689738E-07,-1.131717E-07,-4.653133E-09,-2.861022E-08
387.7601,-0.4578877,-1.555011E-08,NaN,-0.3270349,-1.350894E-07,NaN,0.4929747,-1.684624E-08,NaN,-2.095097,1.260274E-05,-0.3539371,2.877916E-08,NaN,NaN,-0.0330658,6.519149E-11,-7.816398E-07,-1.131727E-07,-4.653133E-09,-2.622604E-08
387.7757,-0.4578877,-1.555011E-08,NaN,-0.3270349,-1.350894E-07,NaN,0.4929747,-1.684624E-08,NaN,-2.095097,1.260274E-05,-0.3539371,2.877916E-08,NaN,NaN,-0.0330658,6.519149E-11,-7.816398E-07,-1.131727E-07,-4.653133E-09,-2.622604E-08
387.7906,-0.4746045,-1.554918E-08,NaN,-0.3270131,-1.350884E-07,NaN,0.4942473,-1.733935E-08,NaN,-2.092463,1.26033E-05,-0.3535315,2.906429E-08,NaN,NaN,-0.03281057,6.984811E-11,-7.993722E-07,-1.131738E-07,-3.461041E-09,-2.861022E-08
387.8071,-0.491683,-1.554826E-08,NaN,-0.3269894,-1.350876E-07,NaN,0.4955327,-1.783247E-08,NaN,-2.089824,1.260386E-05,-0.3530942,2.931244E-08,NaN,NaN,-0.03256025,6.984811E-11,-8.154655E-07,-1.13175E-07,-3.461041E-09,-2.622604E-08
387.8232,-0.5089172,-1.554734E-08,NaN,-0.3269632,-1.350869E-07,NaN,0.4967745,-1.832559E-08,NaN,-2.087279,1.260441E-05,-0.3526527,2.953319E-08,NaN,NaN,-0.03231475,7.450472E-11,-8.287275E-07,-1.131762E-07,-1.076855E-09,-2.861022E-08
387.8387,-0.5089172,-1.554734E-08,NaN,-0.3269632,-1.350869E-07,NaN,0.4967745,-1.832559E-08,NaN,-2.087279,1.260441E-05,-0.3526527,2.953319E-08,NaN,NaN,-0.03231475,7.450472E-11,-8.287275E-07,-1.131762E-07,-1.076855E-09,-2.861022E-08
387.8535,-0.5269053,-1.554642E-08,NaN,-0.3269374,-1.350862E-07,NaN,0.4981255,-1.88187E-08,NaN,-2.084474,1.260497E-05,-0.3522139,2.973355E-08,NaN,NaN,-0.03207422,7.450472E-11,-8.48099E-07,-1.131774E-07,1.15238E-10,-2.622604E-08
387.8697,-0.5452922,-1.55455E-08,NaN,-0.326909,-1.350856E-07,NaN,0.4994809,-1.931182E-08,NaN,-2.081678,1.260552E-05,-0.3517449,2.99187E-08,NaN,NaN,-0.03183831,7.916134E-11,-8.630001E-07,-1.131787E-07,2.499424E-09,-2.861022E-08
387.8855,-0.5638527,-1.554457E-08,NaN,-0.3268775,-1.350849E-07,NaN,0.5007846,-1.980494E-08,NaN,-2.07899,1.260609E-05,-0.351275,3.009243E-08,NaN,NaN,-0.03160693,7.450472E-11,-8.758151E-07,-1.1318E-07,4.88361E-09,-2.622604E-08
387.9011,-0.5824445,-1.554365E-08,NaN,-0.3268434,-1.350843E-07,NaN,0.5020214,-2.029805E-08,NaN,-2.076435,1.260665E-05,-0.3508191,3.025752E-08,NaN,NaN,-0.03138003,7.450472E-11,-8.86544E-07,-1.131813E-07,3.691517E-09,-2.861022E-08
387.917,-0.5824445,-1.554365E-08,NaN,-0.3268434,-1.350843E-07,NaN,0.5020214,-2.029805E-08,NaN,-2.076435,1.260665E-05,-0.3508191,3.025752E-08,NaN,NaN,-0.03138003,7.450472E-11,-8.86544E-07,-1.131813E-07,3.691517E-09,-2.861022E-08
387.9319,-0.6017064,-1.554273E-08,NaN,-0.3268101,-1.350838E-07,NaN,0.5033619,-2.079117E-08,NaN,-2.073632,1.260719E-05,-0.3503687,3.041604E-08,NaN,NaN,-0.03115774,8.381795E-11,-9.011471E-07,-1.131826E-07,1.15238E-10,-2.622604E-08
387.9484,-0.6213088,-1.554181E-08,NaN,-0.3267746,-1.350832E-07,NaN,0.5047058,-2.128429E-08,NaN,-2.070841,1.260775E-05,-0.3498915,3.056947E-08,NaN,NaN,-0.0309397,8.381795E-11,-9.133661E-07,-1.13184E-07,2.499424E-09,-2.861022E-08
387.9641,-0.6410432,-1.554089E-08,NaN,-0.3267364,-1.350826E-07,NaN,0.505999,-2.17774E-08,NaN,-2.068155,1.260831E-05,-0.3494151,3.071894E-08,NaN,NaN,-0.03072586,8.381795E-11,-9.226048E-07,-1.131853E-07,4.88361E-09,-2.622604E-08
387.9795,-0.6410432,-1.554089E-08,NaN,-0.3267364,-1.350826E-07,NaN,0.505999,-2.17774E-08,NaN,-2.068155,1.260831E-05,-0.3494151,3.071894E-08,NaN,NaN,-0.03072586,8.381795E-11,-9.226048E-07,-1.131853E-07,4.88361E-09,-2.622604E-08
387.9945,-0.6607778,-1.553996E-08,NaN,-0.326696,-1.35082E-07,NaN,0.5072267,-2.227052E-08,NaN,-2.0656,1.260887E-05,-0.3489534,3.086525E-08,NaN,NaN,-0.03051617,8.381795E-11,-9.315455E-07,-1.131867E-07,8.459888E-09,-2.861022E-08
388.0107,-0.6811581,-1.553904E-08,NaN,-0.3266567,-1.350815E-07,NaN,0.5085593,-2.276364E-08,NaN,-2.062799,1.260943E-05,-0.3484939,3.100901E-08,NaN,NaN,-0.03031071,8.381795E-11,-9.416783E-07,-1.131881E-07,3.691516E-09,-2.622604E-08
388.0266,-0.7018589,-1.553812E-08,NaN,-0.3266154,-1.350809E-07,NaN,0.5098938,-2.325675E-08,NaN,-2.060009,1.260999E-05,-0.3480092,3.115065E-08,NaN,NaN,-0.03010919,8.381795E-11,-9.524071E-07,-1.131895E-07,1.307331E-09,-2.861022E-08
388.0421,-0.7226746,-1.55372E-08,NaN,-0.3265715,-1.350803E-07,NaN,0.5111767,-2.374987E-08,NaN,-2.057325,1.261055E-05,-0.3475273,3.129051E-08,NaN,NaN,-0.02991154,8.381795E-11,-9.625398E-07,-1.131909E-07,2.499424E-09,-2.622604E-08
388.0578,-0.7226746,-1.55372E-08,NaN,-0.3265715,-1.350803E-07,NaN,0.5111767,-2.374987E-08,NaN,-2.057325,1.261055E-05,-0.3475273,3.129051E-08,NaN,NaN,-0.02991154,8.381795E-11,-9.625398E-07,-1.131909E-07,2.499424E-09,-2.622604E-08
388.073,-0.7434751,-1.553628E-08,NaN,-0.3265256,-1.350798E-07,NaN,0.5123935,-2.424299E-08,NaN,-2.054775,1.26111E-05,-0.3470612,3.142883E-08,NaN,NaN,-0.02971772,8.381795E-11,-9.702884E-07,-1.131922E-07,1.152378E-10,-2.861022E-08
388.0907,-0.7644,-1.553535E-08,NaN,-0.3264793,-1.350792E-07,NaN,0.5135967,-2.47361E-08,NaN,-2.052245,1.261167E-05,-0.3466085,3.156578E-08,NaN,NaN,-0.02952771,7.916133E-11,-9.801232E-07,-1.131936E-07,4.883609E-09,-2.622604E-08
388.1049,-0.7853154,-1.553443E-08,NaN,-0.3264321,-1.350787E-07,NaN,0.5147581,-2.522922E-08,NaN,-2.049805,1.261223E-05,-0.3461621,3.17015E-08,NaN,NaN,-0.02934136,7.450471E-11,-9.89362E-07,-1.13195E-07,7.267795E-09,-2.861022E-08
388.1205,-0.8061372,-1.553351E-08,NaN,-0.3263845,-1.350781E-07,NaN,0.5158659,-2.572234E-08,NaN,-2.047479,1.26128E-05,-0.3457294,3.183609E-08,NaN,NaN,-0.02915864,6.98481E-11,-9.959185E-07,-1.131963E-07,2.499423E-09,-2.622604E-08
388.1364,-0.8061372,-1.553351E-08,NaN,-0.3263845,-1.350781E-07,NaN,0.5158659,-2.572234E-08,NaN,-2.047479,1.26128E-05,-0.3457294,3.183609E-08,NaN,NaN,-0.02915864,6.98481E-11,-9.959185E-07,-1.131963E-07,2.499423E-09,-2.622604E-08
388.1517,-0.826813,-1.553259E-08,NaN,-0.3263368,-1.350776E-07,NaN,0.5169194,-2.621545E-08,NaN,-2.045268,1.261336E-05,-0.345313,3.196962E-08,NaN,NaN,-0.02897946,6.519148E-11,-9.991968E-07,-1.131976E-07,2.499423E-09,-2.861022E-08
388.168,-0.8473104,-1.553167E-08,NaN,-0.3262898,-1.35077E-07,NaN,0.5179217,-2.670857E-08,NaN,-2.043166,1.261392E-05,-0.3449131,3.210215E-08,NaN,NaN,-0.02880376,6.053487E-11,-1.003667E-06,-1.13199E-07,1.152376E-10,-2.622604E-08
388.1839,-0.8676098,-1.553074E-08,NaN,-0.3262437,-1.350765E-07,NaN,0.5188766,-2.720169E-08,NaN,-2.041167,1.261449E-05,-0.3445288,3.223371E-08,NaN,NaN,-0.02863148,5.587826E-11,-1.007542E-06,-1.132003E-07,1.152376E-10,-2.861022E-08
388.1996,-0.8676098,-1.553074E-08,NaN,-0.3262437,-1.350765E-07,NaN,0.5188766,-2.720169E-08,NaN,-2.041167,1.261449E-05,-0.3445288,3.223371E-08,NaN,NaN,-0.02863148,5.587826E-11,-1.007542E-06,-1.132003E-07,1.152376E-10,-2.861022E-08
388.2144,-0.8876999,-1.552982E-08,NaN,-0.3261988,-1.35076E-07,NaN,0.5197874,-2.76948E-08,NaN,-2.039264,1.261505E-05,-0.3441591,3.236435E-08,NaN,NaN,-0.02846256,5.122164E-11,-1.01082E-06,-1.132017E-07,1.152376E-10,-2.622604E-08
388.2308,-0.9075743,-1.55289E-08,NaN,-0.3261555,-1.350754E-07,NaN,0.520657,-2.818792E-08,NaN,-2.037452,1.26156E-05,-0.3438033,3.249409E-08,NaN,NaN,-0.02829691,5.587826E-11,-1.012608E-06,-1.13203E-07,7.267795E-09,-2.861022E-08
388.2466,-0.9272299,-1.552798E-08,NaN,-0.3261138,-1.350749E-07,NaN,0.5214877,-2.868104E-08,NaN,-2.035728,1.261617E-05,-0.3434606,3.262295E-08,NaN,NaN,-0.0281345,5.122164E-11,-1.013502E-06,-1.132043E-07,7.267795E-09,-2.622604E-08
388.2623,-0.9466659,-1.552706E-08,NaN,-0.3260738,-1.350743E-07,NaN,0.5222812,-2.917415E-08,NaN,-2.034086,1.261673E-05,-0.3431305,3.275094E-08,NaN,NaN,-0.02797525,4.656503E-11,-1.014098E-06,-1.132056E-07,1.442035E-08,-2.861022E-08
388.2778,-0.9466659,-1.552706E-08,NaN,-0.3260738,-1.350743E-07,NaN,0.5222812,-2.917415E-08,NaN,-2.034086,1.261673E-05,-0.3431305,3.275094E-08,NaN,NaN,-0.02797525,4.656503E-11,-1.014098E-06,-1.132056E-07,1.442035E-08,-2.861022E-08
388.293,-0.9658824,-1.552614E-08,NaN,-0.3260356,-1.350738E-07,NaN,0.5230392,-2.966727E-08,NaN,-2.032524,1.26173E-05,-0.3428125,3.287808E-08,NaN,NaN,-0.0278191,4.190842E-11,-1.013502E-06,-1.132069E-07,1.680454E-08,-2.622604E-08
388.3093,-0.9848805,-1.552521E-08,NaN,-0.3259991,-1.350733E-07,NaN,0.523763,-3.016039E-08,NaN,-2.03104,1.261785E-05,-0.3425064,3.300437E-08,NaN,NaN,-0.02766599,3.725181E-11,-1.010522E-06,-1.132082E-07,1.680454E-08,-2.861022E-08
388.3251,-1.003662,-1.552429E-08,NaN,-0.3259643,-1.350727E-07,NaN,0.5244538,-3.06535E-08,NaN,-2.029631,1.261841E-05,-0.3422118,3.312984E-08,NaN,NaN,-0.02751586,3.25952E-11,-1.005753E-06,-1.132095E-07,1.442035E-08,-2.622604E-08
388.341,-1.022229,-1.552337E-08,NaN,-0.3259313,-1.350722E-07,NaN,0.5251125,-3.114662E-08,NaN,-2.028295,1.261897E-05,-0.3419285,3.325448E-08,NaN,NaN,-0.02736866,3.25952E-11,-1.005157E-06,-1.132108E-07,1.918873E-08,-2.861022E-08
388.3565,-1.022229,-1.552337E-08,NaN,-0.3259313,-1.350722E-07,NaN,0.5251125,-3.114662E-08,NaN,-2.028295,1.261897E-05,-0.3419285,3.325448E-08,NaN,NaN,-0.02736866,3.25952E-11,-1.005157E-06,-1.132108E-07,1.918873E-08,-2.861022E-08
388.3712,-1.040583,-1.552245E-08,NaN,-0.3258999,-1.350716E-07,NaN,0.5257403,-3.163974E-08,NaN,-2.02703,1.261953E-05,-0.3416562,3.337831E-08,NaN,NaN,-0.02722432,2.328197E-11,-1.000389E-06,-1.13212E-07,1.680454E-08,-2.622604E-08
388.3878,-1.058726,-1.552153E-08,NaN,-0.3258702,-1.350711E-07,NaN,0.526338,-3.213285E-08,NaN,-2.025835,1.262008E-05,-0.3413947,3.350132E-08,NaN,NaN,-0.0270828,2.328197E-11,-9.974088E-07,-1.132133E-07,2.157291E-08,-2.861022E-08
388.4034,-1.076661,-1.55206E-08,NaN,-0.3258421,-1.350706E-07,NaN,0.5269065,-3.262597E-08,NaN,-2.024708,1.262064E-05,-0.3411437,3.362354E-08,NaN,NaN,-0.02694404,2.328197E-11,-9.938326E-07,-1.132146E-07,2.157291E-08,-2.622604E-08
388.4196,-1.076661,-1.55206E-08,NaN,-0.3258421,-1.350706E-07,NaN,0.5269065,-3.262597E-08,NaN,-2.024708,1.262064E-05,-0.3411437,3.362354E-08,NaN,NaN,-0.02694404,2.328197E-11,-9.938326E-07,-1.132146E-07,2.157291E-08,-2.622604E-08
388.4344,-1.094391,-1.551968E-08,NaN,-0.3258156,-1.3507E-07,NaN,0.5274467,-3.311909E-08,NaN,-2.023647,1.26212E-05,-0.340903,3.374496E-08,NaN,NaN,-0.02680798,1.396875E-11,-9.902564E-07,-1.132158E-07,1.918873E-08,-2.861022E-08
388.4504,-1.111916,-1.551876E-08,NaN,-0.3257905,-1.350695E-07,NaN,0.5279593,-3.36122E-08,NaN,-2.02265,1.262175E-05,-0.3406725,3.386559E-08,NaN,NaN,-0.02667458,1.396875E-11,-9.86084E-07,-1.132171E-07,1.442036E-08,-2.622604E-08
388.4662,-1.129241,-1.551784E-08,NaN,-0.325767,-1.350689E-07,NaN,0.5284453,-3.410532E-08,NaN,-2.021716,1.26223E-05,-0.3404519,3.398543E-08,NaN,NaN,-0.02654377,1.396875E-11,-9.842959E-07,-1.132183E-07,9.651984E-09,-2.861022E-08
388.4818,-1.146366,-1.551692E-08,NaN,-0.3257448,-1.350684E-07,NaN,0.5289053,-3.459844E-08,NaN,-2.020844,1.262284E-05,-0.340241,3.41045E-08,NaN,NaN,-0.02641552,1.396875E-11,-9.789314E-07,-1.132196E-07,1.442036E-08,-2.622604E-08
388.4975,-1.146366,-1.551692E-08,NaN,-0.3257448,-1.350684E-07,NaN,0.5289053,-3.459844E-08,NaN,-2.020844,1.262284E-05,-0.340241,3.41045E-08,NaN,NaN,-0.02641552,1.396875E-11,-9.789314E-07,-1.132196E-07,1.442036E-08,-2.622604E-08
388.5122,-1.163294,-1.551599E-08,NaN,-0.325724,-1.350679E-07,NaN,0.52934,-3.509155E-08,NaN,-2.020031,1.26234E-05,-0.3400396,3.422279E-08,NaN,NaN,-0.02628977,4.655521E-12,-9.711829E-07,-1.132208E-07,1.918873E-08,-2.861022E-08
388.5288,-1.180028,-1.551507E-08,NaN,-0.3257046,-1.350673E-07,NaN,0.5297502,-3.558467E-08,NaN,-2.019277,1.262395E-05,-0.3398475,3.434031E-08,NaN,NaN,-0.02616648,-4.657705E-12,-9.670106E-07,-1.132221E-07,1.680454E-08,-2.622604E-08
388.5442,-1.19657,-1.551415E-08,NaN,-0.3256865,-1.350668E-07,NaN,0.5301366,-3.607779E-08,NaN,-2.01858,1.26245E-05,-0.3396645,3.445707E-08,NaN,NaN,-0.02604559,-1.397093E-11,-9.59858E-07,-1.132233E-07,1.680454E-08,-2.861022E-08
388.5602,-1.212922,-1.551323E-08,NaN,-0.3256696,-1.350662E-07,NaN,0.5304998,-3.65709E-08,NaN,-2.017939,1.262504E-05,-0.3394904,3.457308E-08,NaN,NaN,-0.02592707,-1.397093E-11,-9.515133E-07,-1.132245E-07,1.203617E-08,-2.622604E-08
388.5758,-1.212922,-1.551323E-08,NaN,-0.3256696,-1.350662E-07,NaN,0.5304998,-3.65709E-08,NaN,-2.017939,1.262504E-05,-0.3394904,3.457308E-08,NaN,NaN,-0.02592707,-1.397093E-11,-9.515133E-07,-1.132245E-07,1.203617E-08,-2.622604E-08
388.5906,-1.229085,-1.551231E-08,NaN,-0.325654,-1.350657E-07,NaN,0.5308405,-3.706402E-08,NaN,-2.017352,1.262559E-05,-0.339325,3.468833E-08,NaN,NaN,-0.02581085,-2.328416E-11,-9.449568E-07,-1.132257E-07,1.442036E-08,-2.861022E-08
388.6104,-1.245063,-1.551139E-08,NaN,-0.3256395,-1.350652E-07,NaN,0.5311593,-3.755714E-08,NaN,-2.016818,1.262613E-05,-0.3391681,3.480283E-08,NaN,NaN,-0.02569691,-2.328416E-11,-9.384003E-07,-1.132269E-07,1.442036E-08,-2.622604E-08
388.6243,-1.260857,-1.551047E-08,NaN,-0.3256262,-1.350646E-07,NaN,0.5314569,-3.805025E-08,NaN,-2.016335,1.262667E-05,-0.3390195,3.491659E-08,NaN,NaN,-0.02558519,-2.328416E-11,-9.300556E-07,-1.132281E-07,1.203617E-08,-2.861022E-08
388.6385,-1.260857,-1.551047E-08,NaN,-0.3256262,-1.350646E-07,NaN,0.5314569,-3.805025E-08,NaN,-2.016335,1.262667E-05,-0.3390195,3.491659E-08,NaN,NaN,-0.02558519,-2.328416E-11,-9.300556E-07,-1.132281E-07,1.203617E-08,-2.861022E-08
388.6536,-1.27647,-1.550955E-08,NaN,-0.325614,-1.350641E-07,NaN,0.5317339,-3.854337E-08,NaN,-2.015903,1.262721E-05,-0.3388791,3.50296E-08,NaN,NaN,-0.02547565,-2.328416E-11,-9.234992E-07,-1.132293E-07,7.2678E-09,-2.622604E-08
388.6698,-1.291903,-1.550863E-08,NaN,-0.3256028,-1.350635E-07,NaN,0.5319907,-3.903649E-08,NaN,-2.01552,1.262775E-05,-0.3387466,3.514189E-08,NaN,NaN,-0.02536825,-2.328416E-11,-9.157505E-07,-1.132305E-07,1.442036E-08,-2.861022E-08
388.6859,-1.307159,-1.550771E-08,NaN,-0.3255927,-1.35063E-07,NaN,0.5322281,-3.95296E-08,NaN,-2.015184,1.262829E-05,-0.3386219,3.525344E-08,NaN,NaN,-0.02526295,-2.328416E-11,-9.062138E-07,-1.132317E-07,9.651985E-09,-2.622604E-08
388.7012,-1.32224,-1.550679E-08,NaN,-0.3255836,-1.350625E-07,NaN,0.5324464,-4.002272E-08,NaN,-2.014895,1.262883E-05,-0.3385048,3.536427E-08,NaN,NaN,-0.02515971,-2.328416E-11,-8.996573E-07,-1.132329E-07,2.499428E-09,-2.861022E-08
388.717,-1.32224,-1.550679E-08,NaN,-0.3255836,-1.350625E-07,NaN,0.5324464,-4.002272E-08,NaN,-2.014895,1.262883E-05,-0.3385048,3.536427E-08,NaN,NaN,-0.02515971,-2.328416E-11,-8.996573E-07,-1.132329E-07,2.499428E-09,-2.861022E-08
388.7319,-1.336926,-1.550587E-08,NaN,-0.3255748,-1.350619E-07,NaN,0.5325955,-4.051584E-08,NaN,-2.014766,1.262938E-05,-0.3384048,3.547438E-08,NaN,NaN,-0.02505845,-3.259738E-11,-8.907166E-07,-1.13234E-07,9.651985E-09,-2.622604E-08
388.7482,-1.351303,-1.550494E-08,NaN,-0.3255671,-1.350614E-07,NaN,0.5327109,-4.100895E-08,NaN,-2.014714,1.262992E-05,-0.3383227,3.558378E-08,NaN,NaN,-0.02495919,-2.794077E-11,-8.82968E-07,-1.132352E-07,1.442036E-08,-2.861022E-08
388.7638,-1.365425,-1.550402E-08,NaN,-0.325561,-1.350608E-07,NaN,0.5328096,-4.150207E-08,NaN,-2.014706,1.263047E-05,-0.3382499,3.569246E-08,NaN,NaN,-0.02486187,-3.259738E-11,-8.752194E-07,-1.132364E-07,1.442036E-08,-2.622604E-08
388.7797,-1.365425,-1.550402E-08,NaN,-0.325561,-1.350608E-07,NaN,0.5328096,-4.150207E-08,NaN,-2.014706,1.263047E-05,-0.3382499,3.569246E-08,NaN,NaN,-0.02486187,-3.259738E-11,-8.752194E-07,-1.132364E-07,1.442036E-08,-2.622604E-08
388.7946,-1.3786,-1.55031E-08,NaN,-0.3255538,-1.350603E-07,NaN,0.5327288,-4.199519E-08,NaN,-2.015106,1.263101E-05,-0.3382154,3.580044E-08,NaN,NaN,-0.02476636,-2.794077E-11,-8.627024E-07,-1.132375E-07,7.267799E-09,-2.861022E-08
388.8108,-1.391124,-1.550218E-08,NaN,-0.3255488,-1.350602E-07,NaN,0.5325861,-4.24883E-08,NaN,-2.015646,1.263156E-05,-0.3382201,3.590772E-08,NaN,NaN,-0.02467277,-3.259738E-11,-8.519736E-07,-1.132377E-07,7.267799E-09,-2.622604E-08
388.8267,-1.403186,-1.550126E-08,NaN,-0.3255464,-1.3506E-07,NaN,0.5324345,-4.298142E-08,NaN,-2.016219,1.263211E-05,-0.3382372,3.60143E-08,NaN,NaN,-0.02458103,-3.7254E-11,-8.412447E-07,-1.132379E-07,7.267799E-09,-2.861022E-08
388.8422,-1.414908,-1.550034E-08,NaN,-0.3255455,-1.350598E-07,NaN,0.5322894,-4.347454E-08,NaN,-2.016791,1.263267E-05,-0.3382553,3.612018E-08,NaN,NaN,-0.02449109,-4.656722E-11,-8.305159E-07,-1.13238E-07,1.15242E-10,-2.622604E-08
388.8577,-1.414908,-1.550034E-08,NaN,-0.3255455,-1.350598E-07,NaN,0.5322894,-4.347454E-08,NaN,-2.016791,1.263267E-05,-0.3382553,3.612018E-08,NaN,NaN,-0.02449109,-4.656722E-11,-8.305159E-07,-1.13238E-07,1.15242E-10,-2.622604E-08
388.8727,-1.425638,-1.549942E-08,NaN,-0.3255444,-1.350592E-07,NaN,0.5319839,-4.396765E-08,NaN,-2.017731,1.263321E-05,-0.3383043,3.622538E-08,NaN,NaN,-0.02440281,-4.191061E-11,-8.174028E-07,-1.13239E-07,-2.268944E-09,-2.861022E-08
388.8889,-1.435699,-1.54985E-08,NaN,-0.3255445,-1.350586E-07,NaN,0.5316316,-4.446077E-08,NaN,-2.018776,1.263376E-05,-0.3383866,3.63299E-08,NaN,NaN,-0.02431631,-4.656722E-11,-8.042898E-07,-1.1324E-07,-2.268944E-09,-2.622604E-08
388.9046,-1.445298,-1.549758E-08,NaN,-0.3255458,-1.35058E-07,NaN,0.5312827,-4.495389E-08,NaN,-2.019827,1.26343E-05,-0.3384761,3.643375E-08,NaN,NaN,-0.02423152,-3.7254E-11,-7.917728E-07,-1.132411E-07,1.15242E-10,-2.861022E-08
388.9203,-1.454566,-1.549666E-08,NaN,-0.3255481,-1.350574E-07,NaN,0.5309501,-4.5447E-08,NaN,-2.020855,1.263484E-05,-0.338563,3.653691E-08,NaN,NaN,-0.02414839,-2.794077E-11,-7.786598E-07,-1.132423E-07,-4.653129E-09,-2.622604E-08
388.936,-1.454566,-1.549666E-08,NaN,-0.3255481,-1.350574E-07,NaN,0.5309501,-4.5447E-08,NaN,-2.020855,1.263484E-05,-0.338563,3.653691E-08,NaN,NaN,-0.02414839,-2.794077E-11,-7.786598E-07,-1.132423E-07,-4.653129E-09,-2.622604E-08
388.9515,-1.462859,-1.549574E-08,NaN,-0.3255497,-1.350569E-07,NaN,0.5304649,-4.594012E-08,NaN,-2.02223,1.263539E-05,-0.338677,3.663941E-08,NaN,NaN,-0.02406679,-2.328416E-11,-7.637586E-07,-1.132434E-07,-2.268944E-09,-2.861022E-08
388.9674,-1.470504,-1.549482E-08,NaN,-0.3255522,-1.350563E-07,NaN,0.5299398,-4.643324E-08,NaN,-2.023694,1.263593E-05,-0.338822,3.674124E-08,NaN,NaN,-0.02398683,-1.397093E-11,-7.500496E-07,-1.132445E-07,-2.268944E-09,-2.622604E-08
388.9828,-1.477709,-1.54939E-08,NaN,-0.3255562,-1.350558E-07,NaN,0.5294241,-4.692635E-08,NaN,-2.025149,1.263648E-05,-0.3389726,3.684241E-08,NaN,NaN,-0.02390846,-9.314321E-12,-7.369366E-07,-1.132456E-07,1.15242E-10,-2.861022E-08
388.9988,-1.477709,-1.54939E-08,NaN,-0.3255562,-1.350558E-07,NaN,0.5294241,-4.692635E-08,NaN,-2.025149,1.263648E-05,-0.3389726,3.684241E-08,NaN,NaN,-0.02390846,-9.314321E-12,-7.369366E-07,-1.132456E-07,1.15242E-10,-2.861022E-08
389.0135,-1.484607,-1.549298E-08,NaN,-0.3255621,-1.350552E-07,NaN,0.5289305,-4.741947E-08,NaN,-2.026566,1.263703E-05,-0.3391189,3.694293E-08,NaN,NaN,-0.02383163,-1.095478E-15,-7.256117E-07,-1.132467E-07,2.499428E-09,-2.622604E-08
389.0301,-1.490556,-1.549206E-08,NaN,-0.3255675,-1.350547E-07,NaN,0.5282895,-4.791259E-08,NaN,-2.028318,1.263757E-05,-0.3392887,3.704278E-08,NaN,NaN,-0.0237562,9.31213E-12,-7.101145E-07,-1.132478E-07,2.499428E-09,-2.861022E-08
389.0455,-1.495882,-1.549114E-08,NaN,-0.3255743,-1.350542E-07,NaN,0.5276129,-4.84057E-08,NaN,-2.030146,1.263812E-05,-0.3394886,3.7142E-08,NaN,NaN,-0.02368229,1.862535E-11,-6.952133E-07,-1.132489E-07,1.15242E-10,-2.622604E-08
389.0616,-1.500795,-1.549023E-08,NaN,-0.325583,-1.350536E-07,NaN,0.5269504,-4.889882E-08,NaN,-2.031953,1.263867E-05,-0.3396926,3.724056E-08,NaN,NaN,-0.02360985,2.328197E-11,-6.815043E-07,-1.1325E-07,-2.268944E-09,-2.861022E-08
389.0771,-1.500795,-1.549023E-08,NaN,-0.325583,-1.350536E-07,NaN,0.5269504,-4.889882E-08,NaN,-2.031953,1.263867E-05,-0.3396926,3.724056E-08,NaN,NaN,-0.02360985,2.328197E-11,-6.815043E-07,-1.1325E-07,-2.268944E-09,-2.861022E-08
389.0923,-1.505426,-1.548931E-08,NaN,-0.3255936,-1.350531E-07,NaN,0.5263146,-4.939194E-08,NaN,-2.033711,1.263921E-05,-0.3398906,3.733849E-08,NaN,NaN,-0.02353884,3.259519E-11,-6.666031E-07,-1.132511E-07,-4.653129E-09,-2.622604E-08
389.1082,-1.509133,-1.548839E-08,NaN,-0.3256033,-1.350526E-07,NaN,0.5255357,-4.988505E-08,NaN,-2.035792,1.263976E-05,-0.3401085,3.743578E-08,NaN,NaN,-0.0234691,3.72518E-11,-6.499138E-07,-1.132522E-07,-1.180569E-08,-2.861022E-08
389.1254,-1.512244,-1.548747E-08,NaN,-0.3256137,-1.35052E-07,NaN,0.5247246,-5.037817E-08,NaN,-2.037939,1.264031E-05,-0.3403557,3.753244E-08,NaN,NaN,-0.02340077,4.190841E-11,-6.332245E-07,-1.132533E-07,-1.657406E-08,-2.622604E-08
389.1396,-1.512244,-1.548747E-08,NaN,-0.3256137,-1.35052E-07,NaN,0.5247246,-5.037817E-08,NaN,-2.037939,1.264031E-05,-0.3403557,3.753244E-08,NaN,NaN,-0.02340077,4.190841E-11,-6.332245E-07,-1.132533E-07,-1.657406E-08,-2.622604E-08
389.1549,-1.514965,-1.548655E-08,NaN,-0.3256252,-1.350515E-07,NaN,0.5239314,-5.087129E-08,NaN,-2.040054,1.264086E-05,-0.3406059,3.762848E-08,NaN,NaN,-0.02333381,4.656503E-11,-6.177273E-07,-1.132543E-07,-1.418987E-08,-2.861022E-08
389.1709,-1.517431,-1.548563E-08,NaN,-0.3256379,-1.35051E-07,NaN,0.5231691,-5.13644E-08,NaN,-2.042109,1.264141E-05,-0.3408487,3.772389E-08,NaN,NaN,-0.02326816,5.587825E-11,-6.022301E-07,-1.132554E-07,-1.657406E-08,-2.622604E-08
389.1868,-1.518997,-1.548472E-08,NaN,-0.3256491,-1.350505E-07,NaN,0.5222672,-5.185752E-08,NaN,-2.044477,1.264195E-05,-0.3411079,3.781868E-08,NaN,NaN,-0.02320367,6.053487E-11,-5.825606E-07,-1.132565E-07,-1.418987E-08,-2.861022E-08
389.2024,-1.519991,-1.54838E-08,NaN,-0.3256601,-1.350499E-07,NaN,0.5213358,-5.235064E-08,NaN,-2.046902,1.26425E-05,-0.3413957,3.791285E-08,NaN,NaN,-0.02314049,6.984809E-11,-5.658713E-07,-1.132575E-07,-1.657406E-08,-2.622604E-08
389.2187,-1.519991,-1.54838E-08,NaN,-0.3256601,-1.350499E-07,NaN,0.5213358,-5.235064E-08,NaN,-2.046902,1.26425E-05,-0.3413957,3.791285E-08,NaN,NaN,-0.02314049,6.984809E-11,-5.658713E-07,-1.132575E-07,-1.657406E-08,-2.622604E-08
389.2336,-1.52062,-1.548288E-08,NaN,-0.3256716,-1.350494E-07,NaN,0.5204256,-5.284375E-08,NaN,-2.049284,1.264306E-05,-0.3416859,3.800642E-08,NaN,NaN,-0.02307857,7.450471E-11,-5.485859E-07,-1.132586E-07,-1.657406E-08,-2.861022E-08
389.2493,-1.521018,-1.548196E-08,NaN,-0.3256834,-1.350489E-07,NaN,0.5195498,-5.333687E-08,NaN,-2.051597,1.264361E-05,-0.3419676,3.809937E-08,NaN,NaN,-0.02301787,8.381793E-11,-5.336848E-07,-1.132596E-07,-9.421502E-09,-2.622604E-08
389.2651,-1.520541,-1.548104E-08,NaN,-0.3256932,-1.350484E-07,NaN,0.5185381,-5.382999E-08,NaN,-2.054214,1.264416E-05,-0.3422616,3.819173E-08,NaN,NaN,-0.02295822,8.847455E-11,-5.116311E-07,-1.132607E-07,-7.037316E-09,-2.861022E-08
389.2806,-1.519516,-1.548012E-08,NaN,-0.3257021,-1.350478E-07,NaN,0.517499,-5.43231E-08,NaN,-2.056878,1.264471E-05,-0.3425838,3.828348E-08,NaN,NaN,-0.02289979,9.778777E-11,-4.931536E-07,-1.132617E-07,-9.421502E-09,-2.622604E-08
389.2965,-1.519516,-1.548012E-08,NaN,-0.3257021,-1.350478E-07,NaN,0.517499,-5.43231E-08,NaN,-2.056878,1.264471E-05,-0.3425838,3.828348E-08,NaN,NaN,-0.02289979,9.778777E-11,-4.931536E-07,-1.132617E-07,-9.421502E-09,-2.622604E-08
389.3112,-1.518151,-1.547921E-08,NaN,-0.3257107,-1.350473E-07,NaN,0.5164841,-5.481622E-08,NaN,-2.059491,1.264526E-05,-0.3429078,3.837463E-08,NaN,NaN,-0.02284252,1.024444E-10,-4.770603E-07,-1.132627E-07,-7.037316E-09,-2.861022E-08
389.3279,-1.516577,-1.547829E-08,NaN,-0.3257192,-1.350468E-07,NaN,0.5155066,-5.530934E-08,NaN,-2.062025,1.264582E-05,-0.3432225,3.84652E-08,NaN,NaN,-0.02278639,1.117576E-10,-4.621592E-07,-1.132638E-07,-7.037316E-09,-2.622604E-08
389.3434,-1.51415,-1.547737E-08,NaN,-0.3257253,-1.350463E-07,NaN,0.5143958,-5.580245E-08,NaN,-2.064857,1.264638E-05,-0.3435452,3.855518E-08,NaN,NaN,-0.02273119,1.164142E-10,-4.418936E-07,-1.132648E-07,-2.268945E-09,-2.861022E-08
389.3591,-1.51415,-1.547737E-08,NaN,-0.3257253,-1.350463E-07,NaN,0.5143958,-5.580245E-08,NaN,-2.064857,1.264638E-05,-0.3435452,3.855518E-08,NaN,NaN,-0.02273119,1.164142E-10,-4.418936E-07,-1.132648E-07,-2.268945E-09,-2.861022E-08
389.374,-1.511197,-1.547645E-08,NaN,-0.3257299,-1.350463E-07,NaN,0.5132592,-5.587657E-08,NaN,-2.067727,1.264693E-05,-0.3438963,3.830739E-08,NaN,NaN,-0.02267713,1.210708E-10,-4.228201E-07,-1.132659E-07,-2.268945E-09,-2.861022E-08
389.3903,-1.507925,-1.547553E-08,NaN,-0.3257336,-1.350466E-07,NaN,0.512149,-5.584704E-08,NaN,-2.070539,1.264749E-05,-0.3442489,3.802072E-08,NaN,NaN,-0.02262415,1.210708E-10,-4.049387E-07,-1.132672E-07,-7.037316E-09,-2.861022E-08
389.4061,-1.504466,-1.547461E-08,NaN,-0.3257368,-1.35047E-07,NaN,0.5110792,-5.574589E-08,NaN,-2.073264,1.264805E-05,-0.3445913,3.771424E-08,NaN,NaN,-0.02257222,1.257274E-10,-3.870573E-07,-1.132686E-07,-4.65313E-09,-2.861022E-08
389.4221,-1.500176,-1.54737E-08,NaN,-0.325738,-1.350475E-07,NaN,0.5098789,-5.559373E-08,NaN,-2.07628,1.26486E-05,-0.3449373,3.739819E-08,NaN,NaN,-0.02252113,1.350407E-10,-3.632154E-07,-1.1327E-07,-4.65313E-09,-2.861022E-08
389.4377,-1.500176,-1.54737E-08,NaN,-0.325738,-1.350475E-07,NaN,0.5098789,-5.559373E-08,NaN,-2.07628,1.26486E-05,-0.3449373,3.739819E-08,NaN,NaN,-0.02252113,1.350407E-10,-3.632154E-07,-1.1327E-07,-4.65313E-09,-2.861022E-08
389.4526,-1.495381,-1.547278E-08,NaN,-0.3257384,-1.350481E-07,NaN,0.5086538,-5.540609E-08,NaN,-2.079327,1.264917E-05,-0.3453119,3.707983E-08,NaN,NaN,-0.02247109,1.350407E-10,-3.405656E-07,-1.132715E-07,-9.421502E-09,-2.861022E-08
389.4688,-1.490288,-1.547186E-08,NaN,-0.3257385,-1.350487E-07,NaN,0.5074571,-5.519246E-08,NaN,-2.082309,1.264972E-05,-0.3456883,3.676199E-08,NaN,NaN,-0.02242206,1.396973E-10,-3.19704E-07,-1.13273E-07,-1.418987E-08,-2.861022E-08
389.4846,-1.485029,-1.547094E-08,NaN,-0.3257386,-1.350494E-07,NaN,0.5063034,-5.496236E-08,NaN,-2.085196,1.265028E-05,-0.346054,3.64489E-08,NaN,NaN,-0.02237399,1.443539E-10,-2.976503E-07,-1.132744E-07,-1.657406E-08,-2.861022E-08
389.5003,-1.47896,-1.547002E-08,NaN,-0.3257367,-1.3505E-07,NaN,0.5050218,-5.471994E-08,NaN,-2.088368,1.265084E-05,-0.3464184,3.614047E-08,NaN,NaN,-0.02232668,1.490105E-10,-2.744045E-07,-1.132759E-07,-1.895824E-08,-2.861022E-08
389.5161,-1.47896,-1.547002E-08,NaN,-0.3257367,-1.3505E-07,NaN,0.5050218,-5.471994E-08,NaN,-2.088368,1.265084E-05,-0.3464184,3.614047E-08,NaN,NaN,-0.02232668,1.490105E-10,-2.744045E-07,-1.132759E-07,-1.895824E-08,-2.861022E-08
389.5309,-1.472406,-1.54691E-08,NaN,-0.3257334,-1.350506E-07,NaN,0.5037162,-5.446992E-08,NaN,-2.091563,1.265141E-05,-0.3468115,3.583802E-08,NaN,NaN,-0.02228034,1.490105E-10,-2.493705E-07,-1.132774E-07,-2.134243E-08,-2.861022E-08
389.5475,-1.465575,-1.546818E-08,NaN,-0.325729,-1.350513E-07,NaN,0.5024407,-5.42163E-08,NaN,-2.094687,1.265197E-05,-0.3472064,3.554284E-08,NaN,NaN,-0.02223493,1.536671E-10,-2.279129E-07,-1.132789E-07,-1.895824E-08,-2.861022E-08
389.5631,-1.458598,-1.546727E-08,NaN,-0.3257239,-1.350519E-07,NaN,0.5012104,-5.395971E-08,NaN,-2.097709,1.265253E-05,-0.3475901,3.525337E-08,NaN,NaN,-0.02219043,1.536671E-10,-2.082433E-07,-1.132804E-07,-1.657406E-08,-2.861022E-08
389.5786,-1.458598,-1.546727E-08,NaN,-0.3257239,-1.350519E-07,NaN,0.5012104,-5.395971E-08,NaN,-2.097709,1.265253E-05,-0.3475901,3.525337E-08,NaN,NaN,-0.02219043,1.536671E-10,-2.082433E-07,-1.132804E-07,-1.657406E-08,-2.861022E-08
389.5935,-1.45083,-1.546635E-08,NaN,-0.325716,-1.350525E-07,NaN,0.4998548,-5.370317E-08,NaN,-2.10101,1.265309E-05,-0.3479675,3.497091E-08,NaN,NaN,-0.02214658,1.536671E-10,-1.838054E-07,-1.132818E-07,-1.418987E-08,-2.861022E-08
389.6096,-1.442597,-1.546543E-08,NaN,-0.325706,-1.350532E-07,NaN,0.4984755,-5.344795E-08,NaN,-2.104329,1.265365E-05,-0.3483738,3.469534E-08,NaN,NaN,-0.02210364,1.536671E-10,-1.605596E-07,-1.132833E-07,-7.037317E-09,-2.861022E-08
389.6269,-1.434107,-1.546451E-08,NaN,-0.3256945,-1.350538E-07,NaN,0.4971276,-5.319361E-08,NaN,-2.107569,1.265422E-05,-0.3487824,3.442509E-08,NaN,NaN,-0.02206157,1.536671E-10,-1.39102E-07,-1.132848E-07,-2.268945E-09,-2.861022E-08
389.641,-1.425489,-1.546359E-08,NaN,-0.3256819,-1.350544E-07,NaN,0.495827,-5.294234E-08,NaN,-2.110703,1.265479E-05,-0.3491796,3.416147E-08,NaN,NaN,-0.02202034,1.536671E-10,-1.164522E-07,-1.132862E-07,1.152403E-10,-2.861022E-08
389.6568,-1.425489,-1.546359E-08,NaN,-0.3256819,-1.350544E-07,NaN,0.495827,-5.294234E-08,NaN,-2.110703,1.265479E-05,-0.3491796,3.416147E-08,NaN,NaN,-0.02202034,1.536671E-10,-1.164522E-07,-1.132862E-07,1.152403E-10,-2.861022E-08
389.6718,-1.4161,-1.546267E-08,NaN,-0.3256663,-1.350551E-07,NaN,0.4944036,-5.269474E-08,NaN,-2.114109,1.265535E-05,-0.3495654,3.390437E-08,NaN,NaN,-0.02197968,1.583237E-10,-8.963012E-08,-1.132877E-07,2.499426E-09,-2.861022E-08
389.6883,-1.406264,-1.546176E-08,NaN,-0.3256483,-1.350557E-07,NaN,0.4929565,-5.245124E-08,NaN,-2.117528,1.265591E-05,-0.3499804,3.365364E-08,NaN,NaN,-0.02193987,1.583237E-10,-6.340407E-08,-1.132891E-07,4.883612E-09,-2.861022E-08
389.7038,-1.396189,-1.546084E-08,NaN,-0.3256285,-1.350563E-07,NaN,0.4915418,-5.221075E-08,NaN,-2.120863,1.265648E-05,-0.3503982,3.340776E-08,NaN,NaN,-0.02190086,1.583237E-10,-3.837012E-08,-1.132906E-07,7.267797E-09,-2.861022E-08
389.7198,-1.396189,-1.546084E-08,NaN,-0.3256285,-1.350563E-07,NaN,0.4915418,-5.221075E-08,NaN,-2.120863,1.265648E-05,-0.3503982,3.340776E-08,NaN,NaN,-0.02190086,1.583237E-10,-3.837012E-08,-1.132906E-07,7.267797E-09,-2.861022E-08
389.7344,-1.385277,-1.545992E-08,NaN,-0.3256051,-1.35057E-07,NaN,0.4900069,-5.197497E-08,NaN,-2.124466,1.265704E-05,-0.3508046,3.316804E-08,NaN,NaN,-0.02186239,1.583237E-10,-9.16385E-09,-1.13292E-07,4.883612E-09,-2.861022E-08
389.7509,-1.373885,-1.5459E-08,NaN,-0.3255787,-1.350576E-07,NaN,0.4884534,-5.174406E-08,NaN,-2.128069,1.265761E-05,-0.3512401,3.293435E-08,NaN,NaN,-0.02182471,1.536671E-10,1.825429E-08,-1.132934E-07,4.883612E-09,-2.861022E-08
389.7665,-1.362238,-1.545808E-08,NaN,-0.32555,-1.350582E-07,NaN,0.4869387,-5.151813E-08,NaN,-2.131573,1.265817E-05,-0.3516774,3.270658E-08,NaN,NaN,-0.02178781,1.490105E-10,4.388428E-08,-1.132949E-07,1.152403E-10,-2.861022E-08
389.7822,-1.35048,-1.545716E-08,NaN,-0.3255198,-1.350588E-07,NaN,0.4854791,-5.129726E-08,NaN,-2.134951,1.265873E-05,-0.3521015,3.248462E-08,NaN,NaN,-0.02175164,1.443539E-10,7.011032E-08,-1.132963E-07,4.883612E-09,-2.861022E-08
389.7978,-1.35048,-1.545716E-08,NaN,-0.3255198,-1.350588E-07,NaN,0.4854791,-5.129726E-08,NaN,-2.134951,1.265873E-05,-0.3521015,3.248462E-08,NaN,NaN,-0.02175164,1.443539E-10,7.011032E-08,-1.132963E-07,4.883612E-09,-2.861022E-08
389.8128,-1.337972,-1.545624E-08,NaN,-0.3254863,-1.350595E-07,NaN,0.4839049,-5.108007E-08,NaN,-2.138587,1.265929E-05,-0.3525032,3.226693E-08,NaN,NaN,-0.02171591,1.490105E-10,1.022968E-07,-1.132977E-07,2.499426E-09,-2.861022E-08
389.8294,-1.325046,-1.545532E-08,NaN,-0.32545,-1.350601E-07,NaN,0.4823092,-5.086801E-08,NaN,-2.14222,1.265984E-05,-0.3529336,3.205485E-08,NaN,NaN,-0.02168092,1.536671E-10,1.326952E-07,-1.132991E-07,-4.653131E-09,-2.861022E-08
389.8448,-1.31191,-1.54544E-08,NaN,-0.3254115,-1.350607E-07,NaN,0.480749,-5.066106E-08,NaN,-2.145755,1.266039E-05,-0.3533674,3.184827E-08,NaN,NaN,-0.02164665,1.583237E-10,1.565371E-07,-1.133005E-07,2.499426E-09,-2.861022E-08
389.8604,-1.298698,-1.545348E-08,NaN,-0.3253717,-1.350613E-07,NaN,0.479242,-5.04592E-08,NaN,-2.149164,1.266095E-05,-0.3537895,3.164708E-08,NaN,NaN,-0.02161307,1.629803E-10,1.839552E-07,-1.133019E-07,1.152403E-10,-2.861022E-08
389.8762,-1.298698,-1.545348E-08,NaN,-0.3253717,-1.350613E-07,NaN,0.479242,-5.04592E-08,NaN,-2.149164,1.266095E-05,-0.3537895,3.164708E-08,NaN,NaN,-0.02161307,1.629803E-10,1.839552E-07,-1.133019E-07,1.152403E-10,-2.861022E-08
389.8911,-1.284765,-1.545256E-08,NaN,-0.3253287,-1.350619E-07,NaN,0.4776208,-5.026238E-08,NaN,-2.152832,1.26615E-05,-0.3541846,3.145117E-08,NaN,NaN,-0.02157985,1.676369E-10,2.149496E-07,-1.133033E-07,1.152403E-10,-2.861022E-08
389.9076,-1.270436,-1.545164E-08,NaN,-0.325283,-1.350625E-07,NaN,0.4759758,-5.006913E-08,NaN,-2.156497,1.266207E-05,-0.3546094,3.125902E-08,NaN,NaN,-0.02154733,1.629803E-10,2.447519E-07,-1.133047E-07,-2.268945E-09,-2.861022E-08
389.9232,-1.255919,-1.545072E-08,NaN,-0.3252352,-1.350631E-07,NaN,0.4743653,-4.988083E-08,NaN,-2.160061,1.266263E-05,-0.3550393,3.107199E-08,NaN,NaN,-0.02151548,1.676369E-10,2.727661E-07,-1.133061E-07,-7.037317E-09,-2.861022E-08
389.9391,-1.255919,-1.545072E-08,NaN,-0.3252352,-1.350631E-07,NaN,0.4743653,-4.988083E-08,NaN,-2.160061,1.266263E-05,-0.3550393,3.107199E-08,NaN,NaN,-0.02151548,1.676369E-10,2.727661E-07,-1.133061E-07,-7.037317E-09,-2.861022E-08
389.954,-1.241344,-1.54498E-08,NaN,-0.325186,-1.350637E-07,NaN,0.4728085,-4.969741E-08,NaN,-2.163498,1.266321E-05,-0.3554583,3.088995E-08,NaN,NaN,-0.02148427,1.629803E-10,3.007803E-07,-1.133075E-07,-4.653131E-09,-2.861022E-08
389.9703,-1.226066,-1.544888E-08,NaN,-0.3251338,-1.350643E-07,NaN,0.4711396,-4.951879E-08,NaN,-2.16719,1.266377E-05,-0.3558452,3.071283E-08,NaN,NaN,-0.02145335,1.676369E-10,3.341589E-07,-1.133089E-07,-4.653131E-09,-2.861022E-08
389.9858,-1.210409,-1.544796E-08,NaN,-0.3250789,-1.350649E-07,NaN,0.4694457,-4.934349E-08,NaN,-2.170877,1.266434E-05,-0.3562622,3.05391E-08,NaN,NaN,-0.02142308,1.629803E-10,3.651533E-07,-1.133103E-07,2.499426E-09,-2.861022E-08
390.0015,-1.194579,-1.544704E-08,NaN,-0.3250218,-1.350655E-07,NaN,0.4677861,-4.917429E-08,NaN,-2.174459,1.266491E-05,-0.3566857,3.037152E-08,NaN,NaN,-0.02139344,1.676369E-10,3.961477E-07,-1.133116E-07,2.499426E-09,-2.861022E-08
390.0173,-1.194579,-1.544704E-08,NaN,-0.3250218,-1.350655E-07,NaN,0.4677861,-4.917429E-08,NaN,-2.174459,1.266491E-05,-0.3566857,3.037152E-08,NaN,NaN,-0.02139344,1.676369E-10,3.961477E-07,-1.133116E-07,2.499426E-09,-2.861022E-08
390.0324,-1.178707,-1.544612E-08,NaN,-0.3249634,-1.350661E-07,NaN,0.466181,-4.900965E-08,NaN,-2.177911,1.266548E-05,-0.3570991,3.020858E-08,NaN,NaN,-0.02136441,1.629803E-10,4.25354E-07,-1.13313E-07,2.499426E-09,-2.861022E-08
390.0489,-1.162147,-1.54452E-08,NaN,-0.3249022,-1.350667E-07,NaN,0.4644664,-4.884951E-08,NaN,-2.181616,1.266605E-05,-0.3574753,3.005016E-08,NaN,NaN,-0.0213356,1.676369E-10,4.569444E-07,-1.133144E-07,2.499426E-09,-2.861022E-08
390.0646,-1.145223,-1.544428E-08,NaN,-0.3248381,-1.350673E-07,NaN,0.4627258,-4.869377E-08,NaN,-2.185311,1.266661E-05,-0.3578819,2.989619E-08,NaN,NaN,-0.02130739,1.722935E-10,4.89727E-07,-1.133157E-07,-2.268945E-09,-2.861022E-08
390.0799,-1.145223,-1.544428E-08,NaN,-0.3248381,-1.350673E-07,NaN,0.4627258,-4.869377E-08,NaN,-2.185311,1.266661E-05,-0.3578819,2.989619E-08,NaN,NaN,-0.02130739,1.722935E-10,4.89727E-07,-1.133157E-07,-2.268945E-09,-2.861022E-08
390.0952,-1.128142,-1.544336E-08,NaN,-0.3247719,-1.350679E-07,NaN,0.4609747,-4.854096E-08,NaN,-2.187716,1.266718E-05,-0.3583949,2.974515E-08,NaN,NaN,-0.02127848,1.676369E-10,5.469474E-07,-1.133171E-07,-2.268945E-09,-2.861022E-08
390.1111,-1.111032,-1.544244E-08,NaN,-0.3247045,-1.350685E-07,NaN,0.4592596,-4.839242E-08,NaN,-2.188568,1.266775E-05,-0.3589593,2.959842E-08,NaN,NaN,-0.02124961,1.722935E-10,6.119165E-07,-1.133184E-07,2.499426E-09,-2.861022E-08
390.1285,-1.093249,-1.544152E-08,NaN,-0.3246343,-1.350691E-07,NaN,0.4574457,-4.824808E-08,NaN,-2.188715,1.266832E-05,-0.3594852,2.94559E-08,NaN,NaN,-0.02122109,1.676369E-10,6.780776E-07,-1.133198E-07,-2.268945E-09,-2.861022E-08
390.1428,-1.075117,-1.54406E-08,NaN,-0.3245614,-1.350697E-07,NaN,0.4556189,-4.810785E-08,NaN,-2.188372,1.266888E-05,-0.3600267,2.931751E-08,NaN,NaN,-0.02119347,1.722935E-10,7.412585E-07,-1.133211E-07,-7.037317E-09,-2.861022E-08
390.1586,-1.075117,-1.54406E-08,NaN,-0.3245614,-1.350697E-07,NaN,0.4556189,-4.810785E-08,NaN,-2.188372,1.266888E-05,-0.3600267,2.931751E-08,NaN,NaN,-0.02119347,1.722935E-10,7.412585E-07,-1.133211E-07,-7.037317E-09,-2.861022E-08
390.1732,-1.05684,-1.543968E-08,NaN,-0.3244863,-1.350703E-07,NaN,0.4538407,-4.797026E-08,NaN,-2.187849,1.266946E-05,-0.3605565,2.918177E-08,NaN,NaN,-0.0211668,1.676369E-10,7.925185E-07,-1.133224E-07,-2.268945E-09,-2.861022E-08
390.1898,-1.03855,-1.543876E-08,NaN,-0.32441,-1.350709E-07,NaN,0.4521321,-4.783666E-08,NaN,-2.187376,1.267002E-05,-0.3610603,2.905002E-08,NaN,NaN,-0.02114097,1.722935E-10,8.360299E-07,-1.133238E-07,-4.653131E-09,-2.861022E-08
390.2055,-1.019599,-1.543784E-08,NaN,-0.3243311,-1.350714E-07,NaN,0.4503275,-4.770697E-08,NaN,-2.187443,1.267059E-05,-0.3615164,2.892219E-08,NaN,NaN,-0.02111549,1.722935E-10,8.825215E-07,-1.133251E-07,-7.037317E-09,-2.861022E-08
390.2212,-1.000312,-1.543692E-08,NaN,-0.3242495,-1.35072E-07,NaN,0.4485011,-4.758112E-08,NaN,-2.187635,1.267116E-05,-0.3620143,2.87982E-08,NaN,NaN,-0.0210905,1.722935E-10,9.290131E-07,-1.133264E-07,-9.421503E-09,-2.861022E-08
390.2366,-1.000312,-1.543692E-08,NaN,-0.3242495,-1.35072E-07,NaN,0.4485011,-4.758112E-08,NaN,-2.187635,1.267116E-05,-0.3620143,2.87982E-08,NaN,NaN,-0.0210905,1.722935E-10,9.290131E-07,-1.133264E-07,-9.421503E-09,-2.861022E-08
390.2517,-0.9808952,-1.5436E-08,NaN,-0.3241658,-1.350726E-07,NaN,0.4467146,-4.745761E-08,NaN,-2.187738,1.267173E-05,-0.3625339,2.867657E-08,NaN,NaN,-0.02106599,1.722935E-10,9.719284E-07,-1.133277E-07,-9.421503E-09,-2.861022E-08
390.2685,-0.9614771,-1.543508E-08,NaN,-0.324081,-1.350732E-07,NaN,0.4449935,-4.733783E-08,NaN,-2.187701,1.267229E-05,-0.3630514,2.855866E-08,NaN,NaN,-0.02104201,1.722935E-10,1.017824E-06,-1.13329E-07,-9.421503E-09,-2.861022E-08
390.2841,-0.9414119,-1.543416E-08,NaN,-0.3239938,-1.350738E-07,NaN,0.4431772,-4.722169E-08,NaN,-2.187953,1.267286E-05,-0.3635327,2.844441E-08,NaN,NaN,-0.02101821,1.722935E-10,1.065508E-06,-1.133303E-07,-1.418987E-08,-2.861022E-08
390.2995,-0.9414119,-1.543416E-08,NaN,-0.3239938,-1.350738E-07,NaN,0.4431772,-4.722169E-08,NaN,-2.187953,1.267286E-05,-0.3635327,2.844441E-08,NaN,NaN,-0.02101821,1.722935E-10,1.065508E-06,-1.133303E-07,-1.418987E-08,-2.861022E-08
390.3146,-0.9210237,-1.543324E-08,NaN,-0.3239038,-1.350744E-07,NaN,0.4413429,-4.710772E-08,NaN,-2.188141,1.267343E-05,-0.3640552,2.833231E-08,NaN,NaN,-0.02099486,1.722935E-10,1.114384E-06,-1.133316E-07,-9.421503E-09,-2.861022E-08
390.3309,-0.9005177,-1.543231E-08,NaN,-0.3238118,-1.350749E-07,NaN,0.4395527,-4.699728E-08,NaN,-2.18815,1.2674E-05,-0.3645936,2.822375E-08,NaN,NaN,-0.02097203,1.722935E-10,1.157299E-06,-1.133329E-07,-4.653131E-09,-2.861022E-08
390.3464,-0.8800233,-1.543139E-08,NaN,-0.3237188,-1.350755E-07,NaN,0.4378312,-4.68903E-08,NaN,-2.188011,1.267457E-05,-0.3651238,2.811866E-08,NaN,NaN,-0.02094976,1.722935E-10,1.197234E-06,-1.133342E-07,2.499426E-09,-2.861022E-08
390.3623,-0.8588942,-1.543047E-08,NaN,-0.3236235,-1.350761E-07,NaN,0.4360162,-4.678672E-08,NaN,-2.188193,1.267514E-05,-0.3656147,2.801696E-08,NaN,NaN,-0.02092768,1.722935E-10,1.241937E-06,-1.133355E-07,7.267797E-09,-2.861022E-08
390.3778,-0.8588942,-1.543047E-08,NaN,-0.3236235,-1.350761E-07,NaN,0.4360162,-4.678672E-08,NaN,-2.188193,1.267514E-05,-0.3656147,2.801696E-08,NaN,NaN,-0.02092768,1.722935E-10,1.241937E-06,-1.133355E-07,7.267797E-09,-2.861022E-08
390.3928,-0.8374544,-1.542955E-08,NaN,-0.3235256,-1.350766E-07,NaN,0.4341847,-4.668506E-08,NaN,-2.188351,1.26757E-05,-0.3661447,2.791718E-08,NaN,NaN,-0.02090605,1.722935E-10,1.284853E-06,-1.133368E-07,4.883612E-09,-2.861022E-08
390.4093,-0.815909,-1.542863E-08,NaN,-0.3234257,-1.350772E-07,NaN,0.4323981,-4.658673E-08,NaN,-2.188359,1.267627E-05,-0.36669,2.782074E-08,NaN,NaN,-0.02088489,1.722935E-10,1.327768E-06,-1.133381E-07,2.499426E-09,-2.861022E-08
390.4255,-0.7943871,-1.542771E-08,NaN,-0.323325,-1.350778E-07,NaN,0.4306808,-4.649163E-08,NaN,-2.18823,1.267684E-05,-0.3672273,2.772753E-08,NaN,NaN,-0.02086425,1.722935E-10,1.365319E-06,-1.133394E-07,1.152403E-10,-2.861022E-08
390.4409,-0.7722425,-1.542679E-08,NaN,-0.3232221,-1.350783E-07,NaN,0.4288705,-4.63997E-08,NaN,-2.188424,1.267741E-05,-0.3677272,2.763749E-08,NaN,NaN,-0.02084376,1.722935E-10,1.40883E-06,-1.133406E-07,-2.268945E-09,-2.861022E-08
390.4565,-0.7722425,-1.542679E-08,NaN,-0.3232221,-1.350783E-07,NaN,0.4288705,-4.63997E-08,NaN,-2.188424,1.267741E-05,-0.3677272,2.763749E-08,NaN,NaN,-0.02084376,1.722935E-10,1.40883E-06,-1.133406E-07,-2.268945E-09,-2.861022E-08
390.4713,-0.7497989,-1.542587E-08,NaN,-0.3231166,-1.350789E-07,NaN,0.4270448,-4.630946E-08,NaN,-2.188589,1.267798E-05,-0.3682661,2.754913E-08,NaN,NaN,-0.02082368,1.722935E-10,1.450554E-06,-1.133419E-07,-2.268945E-09,-2.861022E-08
390.4875,-0.7272612,-1.542495E-08,NaN,-0.3230093,-1.350795E-07,NaN,0.425265,-4.622228E-08,NaN,-2.188597,1.267855E-05,-0.36882,2.746385E-08,NaN,NaN,-0.02080405,1.722935E-10,1.492277E-06,-1.133432E-07,2.499426E-09,-2.861022E-08
390.5033,-0.7047585,-1.542403E-08,NaN,-0.3229012,-1.3508E-07,NaN,0.4235555,-4.613812E-08,NaN,-2.188464,1.267911E-05,-0.3693652,2.738157E-08,NaN,NaN,-0.0207849,1.722935E-10,1.53102E-06,-1.133444E-07,2.499426E-09,-2.861022E-08
390.519,-0.7047585,-1.542403E-08,NaN,-0.3229012,-1.3508E-07,NaN,0.4235555,-4.613812E-08,NaN,-2.188464,1.267911E-05,-0.3693652,2.738157E-08,NaN,NaN,-0.0207849,1.722935E-10,1.53102E-06,-1.133444E-07,2.499426E-09,-2.861022E-08
390.534,-0.6816445,-1.542311E-08,NaN,-0.3227911,-1.350806E-07,NaN,0.4217536,-4.605549E-08,NaN,-2.188653,1.267968E-05,-0.3698737,2.730084E-08,NaN,NaN,-0.02076589,1.722935E-10,1.572147E-06,-1.133457E-07,1.152403E-10,-2.861022E-08
390.5506,-0.6582427,-1.542218E-08,NaN,-0.3226786,-1.350811E-07,NaN,0.4199375,-4.597579E-08,NaN,-2.188813,1.268025E-05,-0.3704207,2.722302E-08,NaN,NaN,-0.02074725,1.722935E-10,1.614168E-06,-1.133469E-07,-2.268945E-09,-2.861022E-08
390.5663,-0.6347578,-1.542126E-08,NaN,-0.3225643,-1.350817E-07,NaN,0.4181682,-4.589895E-08,NaN,-2.188817,1.268082E-05,-0.370982,2.714807E-08,NaN,NaN,-0.02072903,1.722935E-10,1.652017E-06,-1.133482E-07,-2.268945E-09,-2.861022E-08
390.5819,-0.6113189,-1.542034E-08,NaN,-0.3224493,-1.350822E-07,NaN,0.4164699,-4.58235E-08,NaN,-2.188679,1.268139E-05,-0.371534,2.70745E-08,NaN,NaN,-0.02071128,1.676369E-10,1.69076E-06,-1.133494E-07,-4.653131E-09,-2.861022E-08
390.5977,-0.6113189,-1.542034E-08,NaN,-0.3224493,-1.350822E-07,NaN,0.4164699,-4.58235E-08,NaN,-2.188679,1.268139E-05,-0.371534,2.70745E-08,NaN,NaN,-0.02071128,1.676369E-10,1.69076E-06,-1.133494E-07,-4.653131E-09,-2.861022E-08
390.6124,-0.5874515,-1.541942E-08,NaN,-0.3223331,-1.350828E-07,NaN,0.4147192,-4.575083E-08,NaN,-2.188774,1.268196E-05,-0.372054,2.700372E-08,NaN,NaN,-0.02069372,1.676369E-10,1.730397E-06,-1.133507E-07,-2.268945E-09,-2.861022E-08
390.6303,-0.5634145,-1.54185E-08,NaN,-0.3222155,-1.350833E-07,NaN,0.4129748,-4.568088E-08,NaN,-2.188845,1.268253E-05,-0.3725977,2.693567E-08,NaN,NaN,-0.02067654,1.676369E-10,1.769438E-06,-1.133519E-07,2.499426E-09,-2.861022E-08
390.6445,-0.5393714,-1.541757E-08,NaN,-0.3220972,-1.350839E-07,NaN,0.4112818,-4.56122E-08,NaN,-2.188805,1.26831E-05,-0.373147,2.686887E-08,NaN,NaN,-0.02065976,1.676369E-10,1.804903E-06,-1.133531E-07,7.267797E-09,-2.861022E-08
390.6604,-0.515425,-1.541665E-08,NaN,-0.3219793,-1.350844E-07,NaN,0.4096571,-4.554616E-08,NaN,-2.188667,1.268367E-05,-0.3736849,2.680472E-08,NaN,NaN,-0.02064341,1.676369E-10,1.837686E-06,-1.133544E-07,9.651983E-09,-2.861022E-08
390.6758,-0.515425,-1.541665E-08,NaN,-0.3219793,-1.350844E-07,NaN,0.4096571,-4.554616E-08,NaN,-2.188667,1.268367E-05,-0.3736849,2.680472E-08,NaN,NaN,-0.02064341,1.676369E-10,1.837686E-06,-1.133544E-07,9.651983E-09,-2.861022E-08
390.6911,-0.4916398,-1.541573E-08,NaN,-0.3218629,-1.35085E-07,NaN,0.4081023,-4.548272E-08,NaN,-2.188484,1.268424E-05,-0.3742034,2.674316E-08,NaN,NaN,-0.0206275,1.676369E-10,1.86868E-06,-1.133556E-07,1.442035E-08,-2.861022E-08
390.7073,-0.4680554,-1.541481E-08,NaN,-0.3217489,-1.350855E-07,NaN,0.4066131,-4.542041E-08,NaN,-2.188305,1.26848E-05,-0.3747016,2.668274E-08,NaN,NaN,-0.02061202,1.676369E-10,1.8958E-06,-1.133568E-07,1.442035E-08,-2.861022E-08
390.723,-0.4446962,-1.541389E-08,NaN,-0.321638,-1.350861E-07,NaN,0.4051837,-4.536062E-08,NaN,-2.188154,1.268537E-05,-0.3751812,2.662484E-08,NaN,NaN,-0.02059694,1.676369E-10,1.921132E-06,-1.13358E-07,1.442035E-08,-2.861022E-08
390.7385,-0.4446962,-1.541389E-08,NaN,-0.321638,-1.350861E-07,NaN,0.4051837,-4.536062E-08,NaN,-2.188154,1.268537E-05,-0.3751812,2.662484E-08,NaN,NaN,-0.02059694,1.676369E-10,1.921132E-06,-1.13358E-07,1.442035E-08,-2.861022E-08
390.7538,-0.4215764,-1.541297E-08,NaN,-0.3215308,-1.350866E-07,NaN,0.4038093,-4.53033E-08,NaN,-2.188036,1.268594E-05,-0.3756448,2.656941E-08,NaN,NaN,-0.02058222,1.676369E-10,1.94557E-06,-1.133592E-07,1.680454E-08,-2.861022E-08
390.77,-0.3987041,-1.541204E-08,NaN,-0.3214276,-1.350871E-07,NaN,0.4024859,-4.524841E-08,NaN,-2.187943,1.268651E-05,-0.3760946,2.651641E-08,NaN,NaN,-0.02056784,1.676369E-10,1.965836E-06,-1.133604E-07,1.918873E-08,-2.861022E-08
390.786,-0.3760832,-1.541112E-08,NaN,-0.3213287,-1.350877E-07,NaN,0.4012105,-4.519448E-08,NaN,-2.187864,1.268708E-05,-0.376532,2.646437E-08,NaN,NaN,-0.0205538,1.676369E-10,1.987293E-06,-1.133616E-07,1.918873E-08,-2.861022E-08
390.8017,-0.3537154,-1.54102E-08,NaN,-0.3212343,-1.350882E-07,NaN,0.3999811,-4.514295E-08,NaN,-2.187789,1.268765E-05,-0.3769576,2.641473E-08,NaN,NaN,-0.02054008,1.676369E-10,2.006367E-06,-1.133628E-07,1.918873E-08,-2.861022E-08
390.8175,-0.3537154,-1.54102E-08,NaN,-0.3212343,-1.350882E-07,NaN,0.3999811,-4.514295E-08,NaN,-2.187789,1.268765E-05,-0.3769576,2.641473E-08,NaN,NaN,-0.02054008,1.676369E-10,2.006367E-06,-1.133628E-07,1.918873E-08,-2.861022E-08
390.8324,-0.3316003,-1.540928E-08,NaN,-0.3211444,-1.350888E-07,NaN,0.3987959,-4.509374E-08,NaN,-2.187713,1.268821E-05,-0.3773718,2.63674E-08,NaN,NaN,-0.02052667,1.676369E-10,2.024397E-06,-1.13364E-07,1.680454E-08,-2.861022E-08
390.8486,-0.309737,-1.540836E-08,NaN,-0.321059,-1.350893E-07,NaN,0.3976535,-4.504538E-08,NaN,-2.187634,1.268878E-05,-0.3777746,2.632092E-08,NaN,NaN,-0.02051358,1.676369E-10,2.040789E-06,-1.133652E-07,1.442035E-08,-2.861022E-08
390.8642,-0.2881236,-1.540743E-08,NaN,-0.320978,-1.350898E-07,NaN,0.3965527,-4.499926E-08,NaN,-2.187554,1.268935E-05,-0.3781662,2.627669E-08,NaN,NaN,-0.02050079,1.676369E-10,2.056584E-06,-1.133664E-07,9.651983E-09,-2.861022E-08
390.8799,-0.2881236,-1.540743E-08,NaN,-0.320978,-1.350898E-07,NaN,0.3965527,-4.499926E-08,NaN,-2.187554,1.268935E-05,-0.3781662,2.627669E-08,NaN,NaN,-0.02050079,1.676369E-10,2.056584E-06,-1.133664E-07,9.651983E-09,-2.861022E-08
390.8951,-0.2667579,-1.540651E-08,NaN,-0.3209015,-1.350903E-07,NaN,0.3954923,-4.495394E-08,NaN,-2.187473,1.268992E-05,-0.3785467,2.623326E-08,NaN,NaN,-0.02048831,1.676369E-10,2.070442E-06,-1.133676E-07,7.267797E-09,-2.861022E-08
390.9113,-0.2520111,-1.540559E-08,NaN,-0.3208498,-1.350909E-07,NaN,0.3959347,-4.491081E-08,NaN,-2.183911,1.269049E-05,-0.3790061,2.619201E-08,NaN,NaN,-0.02047934,1.676369E-10,2.028421E-06,-1.133687E-07,7.267797E-09,-2.861022E-08
390.9275,-0.2414897,-1.540467E-08,NaN,-0.3208311,-1.350914E-07,NaN,0.3971395,-4.486982E-08,NaN,-2.180594,1.269105E-05,-0.3789152,2.615291E-08,NaN,NaN,-0.02047176,1.722935E-10,1.959428E-06,-1.133699E-07,7.267797E-09,-2.861022E-08
390.943,-0.2336713,-1.540375E-08,NaN,-0.3208366,-1.350919E-07,NaN,0.3984929,-4.483094E-08,NaN,-2.178463,1.269162E-05,-0.3785607,2.611591E-08,NaN,NaN,-0.02046414,1.722935E-10,1.892373E-06,-1.133711E-07,1.152403E-10,-2.861022E-08
390.9588,-0.2336713,-1.540375E-08,NaN,-0.3208366,-1.350919E-07,NaN,0.3984929,-4.483094E-08,NaN,-2.178463,1.269162E-05,-0.3785607,2.611591E-08,NaN,NaN,-0.02046414,1.722935E-10,1.892373E-06,-1.133711E-07,1.152403E-10,-2.861022E-08
390.9738,-0.2275869,-1.540282E-08,NaN,-0.3208601,-1.350924E-07,NaN,0.3997339,-4.47927E-08,NaN,-2.177144,1.269219E-05,-0.378186,2.607956E-08,NaN,NaN,-0.02045592,1.722935E-10,1.837835E-06,-1.133722E-07,1.152403E-10,-2.861022E-08
390.9904,-0.2226191,-1.54019E-08,NaN,-0.3208966,-1.35093E-07,NaN,0.4008217,-4.475652E-08,NaN,-2.176373,1.269276E-05,-0.3778536,2.604527E-08,NaN,NaN,-0.02044754,1.722935E-10,1.791492E-06,-1.133734E-07,-2.268945E-09,-2.861022E-08
391.006,-0.2183749,-1.540098E-08,NaN,-0.3209417,-1.350935E-07,NaN,0.4017778,-4.472094E-08,NaN,-2.175964,1.269333E-05,-0.3775699,2.601157E-08,NaN,NaN,-0.02043914,1.722935E-10,1.748726E-06,-1.133746E-07,-4.653131E-09,-2.861022E-08
391.0221,-0.2146038,-1.540006E-08,NaN,-0.3209924,-1.35094E-07,NaN,0.4026347,-4.468735E-08,NaN,-2.175791,1.269389E-05,-0.3773261,2.597987E-08,NaN,NaN,-0.02043083,1.722935E-10,1.709237E-06,-1.133757E-07,1.152403E-10,-2.861022E-08
391.0376,-0.2146038,-1.540006E-08,NaN,-0.3209924,-1.35094E-07,NaN,0.4026347,-4.468735E-08,NaN,-2.175791,1.269389E-05,-0.3773261,2.597987E-08,NaN,NaN,-0.02043083,1.722935E-10,1.709237E-06,-1.133757E-07,1.152403E-10,-2.861022E-08
391.0531,-0.2111463,-1.539913E-08,NaN,-0.3210464,-1.350945E-07,NaN,0.4034205,-4.465572E-08,NaN,-2.175767,1.269446E-05,-0.3771115,2.595012E-08,NaN,NaN,-0.02042263,1.722935E-10,1.671389E-06,-1.133769E-07,1.152403E-10,-2.861022E-08
391.0694,-0.2079385,-1.539821E-08,NaN,-0.333707,-1.35095E-07,NaN,0.4032204,-4.462461E-08,NaN,-2.178916,1.269503E-05,-0.380747,2.592089E-08,NaN,NaN,-0.0204234,1.722935E-10,1.51731E-06,-1.13378E-07,1.152403E-10,-2.861022E-08
391.0851,-0.2049726,-1.539729E-08,NaN,-0.3540012,-1.350955E-07,NaN,0.4037187,-4.45954E-08,NaN,-2.182897,1.26956E-05,-0.384123,2.589356E-08,NaN,NaN,-0.02042278,1.722935E-10,1.388341E-06,-1.133792E-07,1.152403E-10,-2.861022E-08
391.1008,-0.2022043,-1.539636E-08,NaN,-0.3788727,-1.35096E-07,NaN,0.4046217,-4.456806E-08,NaN,-2.186535,1.269617E-05,-0.3869151,2.586811E-08,NaN,NaN,-0.02042005,1.722935E-10,1.295581E-06,-1.133803E-07,2.499426E-09,-2.861022E-08
391.1167,-0.2022043,-1.539636E-08,NaN,-0.3788727,-1.35096E-07,NaN,0.4046217,-4.456806E-08,NaN,-2.186535,1.269617E-05,-0.3869151,2.586811E-08,NaN,NaN,-0.02042005,1.722935E-10,1.295581E-06,-1.133803E-07,2.499426E-09,-2.861022E-08
391.133,-0.1995858,-1.539544E-08,NaN,-0.4064378,-1.350966E-07,NaN,0.4056019,-4.454116E-08,NaN,-2.188423,1.269674E-05,-0.3893874,2.584309E-08,NaN,NaN,-0.02041484,1.722935E-10,1.251921E-06,-1.133814E-07,-2.268945E-09,-2.861022E-08
391.1483,-0.1970742,-1.539452E-08,NaN,-0.4347776,-1.350971E-07,NaN,0.4066541,-4.45175E-08,NaN,-2.188449,1.269731E-05,-0.3913643,2.582132E-08,NaN,NaN,-0.02040828,1.676369E-10,1.225918E-06,-1.133826E-07,-2.268945E-09,-2.861022E-08
391.1641,-0.1946383,-1.539359E-08,NaN,-0.4634671,-1.350976E-07,NaN,0.4076688,-4.449418E-08,NaN,-2.187525,1.269788E-05,-0.3931127,2.579989E-08,NaN,NaN,-0.02040211,1.676369E-10,1.19254E-06,-1.133837E-07,-4.653131E-09,-2.861022E-08
391.1795,-0.1946383,-1.539359E-08,NaN,-0.4634671,-1.350976E-07,NaN,0.4076688,-4.449418E-08,NaN,-2.187525,1.269788E-05,-0.3931127,2.579989E-08,NaN,NaN,-0.02040211,1.676369E-10,1.19254E-06,-1.133837E-07,-4.653131E-09,-2.861022E-08
391.1946,-0.1922579,-1.539267E-08,NaN,-0.4922424,-1.350981E-07,NaN,0.4086518,-4.447263E-08,NaN,-2.186449,1.269845E-05,-0.3946884,2.578022E-08,NaN,NaN,-0.02039663,1.676369E-10,1.152754E-06,-1.133848E-07,-5.845224E-09,-2.861022E-08
391.2109,-0.1899203,-1.539174E-08,NaN,-0.5209398,-1.350986E-07,NaN,0.4096021,-4.44528E-08,NaN,-2.185663,1.269901E-05,-0.3961315,2.576228E-08,NaN,NaN,-0.02039167,1.676369E-10,1.102537E-06,-1.133859E-07,-1.076852E-09,-2.861022E-08
391.2271,-0.1876139,-1.539082E-08,NaN,-0.5486969,-1.350991E-07,NaN,0.4105745,-4.443324E-08,NaN,-2.185088,1.269958E-05,-0.3972413,2.57446E-08,NaN,NaN,-0.02038641,1.676369E-10,1.059621E-06,-1.13387E-07,1.152405E-10,-2.861022E-08
391.2425,-0.1853326,-1.53899E-08,NaN,-0.5757505,-1.350996E-07,NaN,0.4114598,-4.441537E-08,NaN,-2.184837,1.270015E-05,-0.3983029,2.572862E-08,NaN,NaN,-0.02038141,1.676369E-10,1.011938E-06,-1.133881E-07,-3.461038E-09,-2.861022E-08
391.2585,-0.1853326,-1.53899E-08,NaN,-0.5757505,-1.350996E-07,NaN,0.4114598,-4.441537E-08,NaN,-2.184837,1.270015E-05,-0.3983029,2.572862E-08,NaN,NaN,-0.02038141,1.676369E-10,1.011938E-06,-1.133881E-07,-3.461038E-09,-2.861022E-08
391.2733,-0.1830736,-1.538897E-08,NaN,-0.6022486,-1.351001E-07,NaN,0.4122773,-4.439915E-08,NaN,-2.184833,1.270072E-05,-0.3993597,2.571428E-08,NaN,NaN,-0.02037655,1.676369E-10,9.652971E-07,-1.133892E-07,-4.653131E-09,-2.861022E-08
391.2903,-0.1808361,-1.538805E-08,NaN,-0.628284,-1.351006E-07,NaN,0.4130525,-4.438314E-08,NaN,-2.184941,1.270129E-05,-0.4004095,2.570015E-08,NaN,NaN,-0.02037173,1.676369E-10,9.188055E-07,-1.133903E-07,-1.076853E-09,-2.861022E-08
391.3061,-0.1786154,-1.538713E-08,NaN,-0.6531537,-1.351011E-07,NaN,0.4138642,-4.436874E-08,NaN,-2.18486,1.270186E-05,-0.401201,2.568764E-08,NaN,NaN,-0.02036634,1.676369E-10,8.839368E-07,-1.133915E-07,1.152403E-10,-2.861022E-08
391.3216,-0.1764101,-1.53862E-08,NaN,-0.6771948,-1.351016E-07,NaN,0.414618,-4.435451E-08,NaN,-2.184747,1.270243E-05,-0.4019758,2.56753E-08,NaN,NaN,-0.02036117,1.676369E-10,8.49068E-07,-1.133925E-07,2.499426E-09,-2.861022E-08
391.3372,-0.1764101,-1.53862E-08,NaN,-0.6771948,-1.351016E-07,NaN,0.414618,-4.435451E-08,NaN,-2.184747,1.270243E-05,-0.4019758,2.56753E-08,NaN,NaN,-0.02036117,1.676369E-10,8.49068E-07,-1.133925E-07,2.499426E-09,-2.861022E-08
391.3525,-0.1742209,-1.538528E-08,NaN,-0.7006174,-1.351021E-07,NaN,0.4153346,-4.434186E-08,NaN,-2.184669,1.270299E-05,-0.4027523,2.566453E-08,NaN,NaN,-0.02035622,1.676369E-10,8.109211E-07,-1.133936E-07,1.307333E-09,-2.861022E-08
391.369,-0.172049,-1.538436E-08,NaN,-0.7235528,-1.351026E-07,NaN,0.4160336,-4.433076E-08,NaN,-2.184637,1.270356E-05,-0.4035192,2.565532E-08,NaN,NaN,-0.02035141,1.676369E-10,7.748603E-07,-1.133947E-07,-2.268945E-09,-2.861022E-08
391.3854,-0.1698899,-1.538343E-08,NaN,-0.745322,-1.351031E-07,NaN,0.4167839,-4.431977E-08,NaN,-2.184442,1.270413E-05,-0.4040265,2.564621E-08,NaN,NaN,-0.02034613,1.676369E-10,7.474421E-07,-1.133958E-07,1.152403E-10,-2.861022E-08
391.4008,-0.1677432,-1.538251E-08,NaN,-0.7662776,-1.351036E-07,NaN,0.4174837,-4.431029E-08,NaN,-2.184272,1.27047E-05,-0.4045201,2.563861E-08,NaN,NaN,-0.0203411,1.676369E-10,7.137655E-07,-1.133969E-07,-1.076853E-09,-2.861022E-08
391.4167,-0.1677432,-1.538251E-08,NaN,-0.7662776,-1.351036E-07,NaN,0.4174837,-4.431029E-08,NaN,-2.184272,1.27047E-05,-0.4045201,2.563861E-08,NaN,NaN,-0.0203411,1.676369E-10,7.137655E-07,-1.133969E-07,-1.076853E-09,-2.861022E-08
391.4318,-0.1656101,-1.538158E-08,NaN,-0.7866385,-1.351041E-07,NaN,0.418149,-4.43023E-08,NaN,-2.18419,1.270527E-05,-0.4050229,2.563251E-08,NaN,NaN,-0.0203363,1.676369E-10,6.80983E-07,-1.13398E-07,-2.268945E-09,-2.861022E-08
391.4482,-0.1634921,-1.538066E-08,NaN,-0.8065417,-1.351045E-07,NaN,0.4187975,-4.429435E-08,NaN,-2.184183,1.270584E-05,-0.4055257,2.562644E-08,NaN,NaN,-0.02033163,1.676369E-10,6.514787E-07,-1.13399E-07,-2.268945E-09,-2.861022E-08
391.4644,-0.1613847,-1.537974E-08,NaN,-0.8253115,-1.35105E-07,NaN,0.419497,-4.428786E-08,NaN,-2.184019,1.27064E-05,-0.4057796,2.562184E-08,NaN,NaN,-0.02032647,1.676369E-10,6.264447E-07,-1.134001E-07,-1.076853E-09,-2.861022E-08
391.4801,-0.159287,-1.537881E-08,NaN,-0.8433026,-1.351055E-07,NaN,0.420146,-4.428139E-08,NaN,-2.183875,1.270697E-05,-0.4060297,2.561725E-08,NaN,NaN,-0.02032156,1.676369E-10,6.014108E-07,-1.134012E-07,-3.461038E-09,-2.861022E-08
391.4963,-0.159287,-1.537881E-08,NaN,-0.8433026,-1.351055E-07,NaN,0.420146,-4.428139E-08,NaN,-2.183875,1.270697E-05,-0.4060297,2.561725E-08,NaN,NaN,-0.02032156,1.676369E-10,6.014108E-07,-1.134012E-07,-3.461038E-09,-2.861022E-08
391.5112,-0.1572006,-1.537789E-08,NaN,-0.8607351,-1.35106E-07,NaN,0.4207614,-4.427634E-08,NaN,-2.183809,1.270754E-05,-0.4062975,2.561409E-08,NaN,NaN,-0.02031688,1.676369E-10,5.733966E-07,-1.134023E-07,-3.461038E-09,-2.861022E-08
391.5279,-0.1551276,-1.537697E-08,NaN,-0.8777463,-1.351065E-07,NaN,0.4213613,-4.427128E-08,NaN,-2.18381,1.270811E-05,-0.4065727,2.561091E-08,NaN,NaN,-0.02031233,1.676369E-10,5.441903E-07,-1.134033E-07,-5.249178E-09,-2.861022E-08
391.5522,-0.1530628,-1.537604E-08,NaN,-0.8936602,-1.35107E-07,NaN,0.4220129,-4.426762E-08,NaN,-2.183648,1.270868E-05,-0.4066063,2.560913E-08,NaN,NaN,-0.0203073,1.676369E-10,5.239247E-07,-1.134044E-07,-5.845224E-09,-2.861022E-08
391.5597,-0.1530628,-1.537604E-08,NaN,-0.8936602,-1.35107E-07,NaN,0.4220129,-4.426762E-08,NaN,-2.183648,1.270868E-05,-0.4066063,2.560913E-08,NaN,NaN,-0.0203073,1.676369E-10,5.239247E-07,-1.134044E-07,-5.845224E-09,-2.861022E-08
391.5746,-0.1510054,-1.537512E-08,NaN,-0.908832,-1.351074E-07,NaN,0.4226144,-4.426533E-08,NaN,-2.183505,1.270925E-05,-0.4066432,2.560873E-08,NaN,NaN,-0.02030252,1.676369E-10,5.01871E-07,-1.134054E-07,-5.845224E-09,-2.861022E-08
391.5912,-0.1489571,-1.537419E-08,NaN,-0.9234815,-1.351079E-07,NaN,0.4231829,-4.426298E-08,NaN,-2.183442,1.270981E-05,-0.4067044,2.560826E-08,NaN,NaN,-0.02029796,1.676369E-10,4.786252E-07,-1.134065E-07,-9.421503E-09,-2.861022E-08
391.6093,-0.1469204,-1.537327E-08,NaN,-0.9377455,-1.351084E-07,NaN,0.4237368,-4.426197E-08,NaN,-2.183447,1.271038E-05,-0.4067794,2.560913E-08,NaN,NaN,-0.02029354,1.676369E-10,4.547833E-07,-1.134075E-07,-7.633363E-09,-2.861022E-08
391.6244,-0.1448899,-1.537235E-08,NaN,-0.9509474,-1.351089E-07,NaN,0.4243423,-4.426087E-08,NaN,-2.18329,1.271095E-05,-0.4066198,2.560992E-08,NaN,NaN,-0.02028864,1.676369E-10,4.363059E-07,-1.134086E-07,-7.633363E-09,-2.861022E-08
391.6402,-0.1428646,-1.537142E-08,NaN,-0.9634423,-1.351093E-07,NaN,0.4248977,-4.426109E-08,NaN,-2.183152,1.271152E-05,-0.4064701,2.561202E-08,NaN,NaN,-0.02028399,1.676369E-10,4.166363E-07,-1.134096E-07,-5.249178E-09,-2.861022E-08
391.6548,-0.1428646,-1.537142E-08,NaN,-0.9634423,-1.351093E-07,NaN,0.4248977,-4.426109E-08,NaN,-2.183152,1.271152E-05,-0.4064701,2.561202E-08,NaN,NaN,-0.02028399,1.676369E-10,4.166363E-07,-1.134096E-07,-5.249178E-09,-2.861022E-08
391.6701,-0.1408465,-1.53705E-08,NaN,-0.9754496,-1.351098E-07,NaN,0.4254204,-4.426261E-08,NaN,-2.183095,1.271209E-05,-0.4063509,2.561543E-08,NaN,NaN,-0.02027957,1.676369E-10,3.945826E-07,-1.134106E-07,-4.057084E-09,-2.861022E-08
391.6864,-0.1388384,-1.536958E-08,NaN,-0.9871053,-1.351103E-07,NaN,0.4259291,-4.426398E-08,NaN,-2.183106,1.271266E-05,-0.4062515,2.561869E-08,NaN,NaN,-0.02027529,1.676369E-10,3.731249E-07,-1.134117E-07,-4.057084E-09,-2.861022E-08
391.7044,-0.136835,-1.536865E-08,NaN,-0.9977321,-1.351108E-07,NaN,0.4264895,-4.426663E-08,NaN,-2.182952,1.271323E-05,-0.4059238,2.562322E-08,NaN,NaN,-0.02027052,1.676369E-10,3.61204E-07,-1.134127E-07,-4.653131E-09,-2.861022E-08
391.7209,-0.1348349,-1.536773E-08,NaN,-1.007685,-1.351112E-07,NaN,0.4269998,-4.426912E-08,NaN,-2.182819,1.271379E-05,-0.405612,2.562759E-08,NaN,NaN,-0.020266,1.676369E-10,3.439187E-07,-1.134137E-07,-1.672899E-09,-2.861022E-08
391.7353,-0.1348349,-1.536773E-08,NaN,-1.007685,-1.351112E-07,NaN,0.4269998,-4.426912E-08,NaN,-2.182819,1.271379E-05,-0.405612,2.562759E-08,NaN,NaN,-0.020266,1.676369E-10,3.439187E-07,-1.134137E-07,-1.672899E-09,-2.861022E-08
391.7506,-0.1328405,-1.53668E-08,NaN,-1.017183,-1.351117E-07,NaN,0.4274777,-4.427286E-08,NaN,-2.182766,1.271436E-05,-0.4053363,2.563321E-08,NaN,NaN,-0.02026173,1.676369E-10,3.278254E-07,-1.134147E-07,-1.970922E-09,-2.861022E-08
391.767,-0.1308549,-1.536588E-08,NaN,-1.026362,-1.351122E-07,NaN,0.4279422,-4.427783E-08,NaN,-2.182781,1.271493E-05,-0.4050855,2.564006E-08,NaN,NaN,-0.02025758,1.676369E-10,3.09944E-07,-1.134158E-07,-7.78829E-10,-2.861022E-08
391.783,-0.128873,-1.536495E-08,NaN,-1.034543,-1.351126E-07,NaN,0.4284587,-4.428259E-08,NaN,-2.182632,1.27155E-05,-0.4046122,2.564671E-08,NaN,NaN,-0.02025295,1.676369E-10,3.010033E-07,-1.134168E-07,-2.864992E-09,-2.861022E-08
391.8013,-0.1268929,-1.536403E-08,NaN,-1.042081,-1.351131E-07,NaN,0.428925,-4.428855E-08,NaN,-2.182502,1.271607E-05,-0.40416,2.565455E-08,NaN,NaN,-0.02024858,1.676369E-10,2.890824E-07,-1.134178E-07,-3.163015E-09,-2.861022E-08
391.8174,-0.1268929,-1.536403E-08,NaN,-1.042081,-1.351131E-07,NaN,0.428925,-4.428855E-08,NaN,-2.182502,1.271607E-05,-0.40416,2.565455E-08,NaN,NaN,-0.02024858,1.676369E-10,2.890824E-07,-1.134178E-07,-3.163015E-09,-2.861022E-08
391.8328,-0.1249175,-1.53631E-08,NaN,-1.049195,-1.351136E-07,NaN,0.4293593,-4.429429E-08,NaN,-2.182453,1.271664E-05,-0.4037489,2.566217E-08,NaN,NaN,-0.02024444,1.676369E-10,2.765654E-07,-1.134188E-07,-1.970922E-09,-2.861022E-08
391.8487,-0.1229502,-1.536218E-08,NaN,-1.05602,-1.35114E-07,NaN,0.4297808,-4.430122E-08,NaN,-2.182472,1.27172E-05,-0.4033674,2.567098E-08,NaN,NaN,-0.02024043,1.676369E-10,2.640485E-07,-1.134198E-07,-1.672899E-09,-2.861022E-08
391.8647,-0.120986,-1.536125E-08,NaN,-1.061876,-1.351145E-07,NaN,0.4302547,-4.43079E-08,NaN,-2.182326,1.271778E-05,-0.4027684,2.567955E-08,NaN,NaN,-0.02023595,1.629803E-10,2.574919E-07,-1.134208E-07,-3.461038E-09,-2.861022E-08
391.8802,-0.1190228,-1.536033E-08,NaN,-1.067119,-1.351149E-07,NaN,0.4306786,-4.431575E-08,NaN,-2.182199,1.271835E-05,-0.4021952,2.568928E-08,NaN,NaN,-0.02023171,1.583237E-10,2.467631E-07,-1.134218E-07,-2.268945E-09,-2.861022E-08
391.8968,-0.1190228,-1.536033E-08,NaN,-1.067119,-1.351149E-07,NaN,0.4306786,-4.431575E-08,NaN,-2.182199,1.271835E-05,-0.4021952,2.568928E-08,NaN,NaN,-0.02023171,1.583237E-10,2.467631E-07,-1.134218E-07,-2.268945E-09,-2.861022E-08
391.9118,-0.1170637,-1.53594E-08,NaN,-1.071967,-1.351154E-07,NaN,0.4310708,-4.432334E-08,NaN,-2.182154,1.271892E-05,-0.4016677,2.569875E-08,NaN,NaN,-0.02022771,1.583237E-10,2.354382E-07,-1.134228E-07,-1.672899E-09,-2.861022E-08
391.9286,-0.1151126,-1.535848E-08,NaN,-1.076553,-1.351158E-07,NaN,0.4314511,-4.433208E-08,NaN,-2.182178,1.271949E-05,-0.4011738,2.570937E-08,NaN,NaN,-0.02022384,1.583237E-10,2.247094E-07,-1.134238E-07,-1.076852E-09,-2.861022E-08
391.9441,-0.1131644,-1.535755E-08,NaN,-1.080198,-1.351163E-07,NaN,0.4318841,-4.434195E-08,NaN,-2.182034,1.272006E-05,-0.4004668,2.572112E-08,NaN,NaN,-0.0202195,1.583237E-10,2.187489E-07,-1.134248E-07,-1.225864E-09,-2.861022E-08
391.9603,-0.1112171,-1.535662E-08,NaN,-1.083257,-1.351167E-07,NaN,0.4322674,-4.435151E-08,NaN,-2.181908,1.272062E-05,-0.3997901,2.573256E-08,NaN,NaN,-0.0202154,1.583237E-10,2.115964E-07,-1.134257E-07,-1.82191E-09,-2.861022E-08
391.9758,-0.1112171,-1.535662E-08,NaN,-1.083257,-1.351167E-07,NaN,0.4322674,-4.435151E-08,NaN,-2.181908,1.272062E-05,-0.3997901,2.573256E-08,NaN,NaN,-0.0202154,1.583237E-10,2.115964E-07,-1.134257E-07,-1.82191E-09,-2.861022E-08
391.9907,-0.1092738,-1.53557E-08,NaN,-1.085947,-1.351172E-07,NaN,0.4326179,-4.436219E-08,NaN,-2.181817,1.272119E-05,-0.3991669,2.574512E-08,NaN,NaN,-0.02021148,1.583237E-10,2.044438E-07,-1.134267E-07,-3.61005E-09,-2.861022E-08
392.0073,-0.1073387,-1.535477E-08,NaN,-1.088402,-1.351176E-07,NaN,0.4329574,-4.437254E-08,NaN,-2.181757,1.272176E-05,-0.3985815,2.575735E-08,NaN,NaN,-0.02020769,1.583237E-10,1.949071E-07,-1.134277E-07,-3.014003E-09,-2.861022E-08
392.0234,-0.1054071,-1.535385E-08,NaN,-1.089942,-1.351181E-07,NaN,0.4333515,-4.4384E-08,NaN,-2.181522,1.272233E-05,-0.397785,2.577069E-08,NaN,NaN,-0.02020345,1.583237E-10,1.931189E-07,-1.134287E-07,-2.268945E-09,-2.861022E-08
392.039,-0.1054071,-1.535385E-08,NaN,-1.089942,-1.351181E-07,NaN,0.4333515,-4.4384E-08,NaN,-2.181522,1.272233E-05,-0.397785,2.577069E-08,NaN,NaN,-0.02020345,1.583237E-10,1.931189E-07,-1.134287E-07,-2.268945E-09,-2.861022E-08
392.0542,-0.1034768,-1.535292E-08,NaN,-1.090922,-1.351185E-07,NaN,0.4336945,-4.439511E-08,NaN,-2.181254,1.27229E-05,-0.3970264,2.578368E-08,NaN,NaN,-0.0201994,1.583237E-10,1.895427E-07,-1.134296E-07,-3.163015E-09,-2.861022E-08
392.0705,-0.1015509,-1.5352E-08,NaN,-1.091557,-1.35119E-07,NaN,0.4340062,-4.440731E-08,NaN,-2.180999,1.272347E-05,-0.3963236,2.579776E-08,NaN,NaN,-0.02019555,1.583237E-10,1.847743E-07,-1.134306E-07,-4.206096E-09,-2.861022E-08
392.0864,-0.09963394,-1.535107E-08,NaN,-1.091982,-1.351194E-07,NaN,0.4343083,-4.441916E-08,NaN,-2.180769,1.272403E-05,-0.3956606,2.581149E-08,NaN,NaN,-0.02019183,1.583237E-10,1.770257E-07,-1.134316E-07,-3.684556E-09,-2.861022E-08
392.1021,-0.09772158,-1.535015E-08,NaN,-1.091528,-1.351199E-07,NaN,0.4346639,-4.443208E-08,NaN,-2.180366,1.27246E-05,-0.3947949,2.582629E-08,NaN,NaN,-0.02018769,1.583237E-10,1.770257E-07,-1.134325E-07,-2.343451E-09,-2.861022E-08
392.1179,-0.09772158,-1.535015E-08,NaN,-1.091528,-1.351199E-07,NaN,0.4346639,-4.443208E-08,NaN,-2.180366,1.27246E-05,-0.3947949,2.582629E-08,NaN,NaN,-0.02018769,1.583237E-10,1.770257E-07,-1.134325E-07,-2.343451E-09,-2.861022E-08
392.1329,-0.09582487,-1.534922E-08,NaN,-1.090532,-1.351203E-07,NaN,0.4349806,-4.444604E-08,NaN,-2.179925,1.272517E-05,-0.3939632,2.584214E-08,NaN,NaN,-0.02018373,1.583237E-10,1.764297E-07,-1.134335E-07,-1.002347E-09,-2.861022E-08
392.151,-0.09395784,-1.53483E-08,NaN,-1.089214,-1.351207E-07,NaN,0.4352807,-4.445963E-08,NaN,-2.179495,1.272574E-05,-0.393185,2.58576E-08,NaN,NaN,-0.02017995,1.583237E-10,1.728534E-07,-1.134345E-07,-6.298178E-10,-2.861022E-08
392.1654,-0.09212412,-1.534737E-08,NaN,-1.087707,-1.351212E-07,NaN,0.4355813,-4.447424E-08,NaN,-2.179089,1.272631E-05,-0.3924453,2.587409E-08,NaN,NaN,-0.0201763,1.583237E-10,1.67489E-07,-1.134354E-07,-3.377132E-11,-2.861022E-08
392.1814,-0.09031427,-1.534644E-08,NaN,-1.085329,-1.351216E-07,NaN,0.4359403,-4.448846E-08,NaN,-2.178508,1.272688E-05,-0.3915009,2.589019E-08,NaN,NaN,-0.02017222,1.583237E-10,1.698731E-07,-1.134364E-07,4.073449E-11,-2.861022E-08
392.1966,-0.09031427,-1.534644E-08,NaN,-1.085329,-1.351216E-07,NaN,0.4359403,-4.448846E-08,NaN,-2.178508,1.272688E-05,-0.3915009,2.589019E-08,NaN,NaN,-0.02017222,1.583237E-10,1.698731E-07,-1.134364E-07,4.073449E-11,-2.861022E-08
392.2113,-0.08854374,-1.534552E-08,NaN,-1.082436,-1.351221E-07,NaN,0.4362659,-4.45037E-08,NaN,-2.177892,1.272745E-05,-0.3905959,2.590731E-08,NaN,NaN,-0.02016833,1.583237E-10,1.722573E-07,-1.134373E-07,2.052391E-09,-2.861022E-08
392.228,-0.08681426,-1.534459E-08,NaN,-1.079242,-1.351225E-07,NaN,0.4365733,-4.451853E-08,NaN,-2.177292,1.272801E-05,-0.3897473,2.592402E-08,NaN,NaN,-0.02016462,1.583237E-10,1.704692E-07,-1.134382E-07,2.871955E-09,-2.861022E-08
392.2436,-0.08512255,-1.534367E-08,NaN,-1.07588,-1.351229E-07,NaN,0.436877,-4.453437E-08,NaN,-2.176723,1.272858E-05,-0.3889411,2.594174E-08,NaN,NaN,-0.02016105,1.583237E-10,1.710652E-07,-1.134392E-07,3.691519E-09,-2.861022E-08
392.2598,-0.08512255,-1.534367E-08,NaN,-1.07588,-1.351229E-07,NaN,0.436877,-4.453437E-08,NaN,-2.176723,1.272858E-05,-0.3889411,2.594174E-08,NaN,NaN,-0.02016105,1.583237E-10,1.710652E-07,-1.134392E-07,3.691519E-09,-2.861022E-08
392.2748,-0.08345555,-1.534274E-08,NaN,-1.071669,-1.351234E-07,NaN,0.4372334,-4.45512E-08,NaN,-2.175984,1.272915E-05,-0.3879374,2.596045E-08,NaN,NaN,-0.02015705,1.583237E-10,1.788138E-07,-1.134401E-07,3.31899E-09,-2.861022E-08
392.2913,-0.08182597,-1.534182E-08,NaN,-1.066961,-1.351238E-07,NaN,0.4375524,-4.4569E-08,NaN,-2.175215,1.272972E-05,-0.3869777,2.598013E-08,NaN,NaN,-0.02015325,1.583237E-10,1.835822E-07,-1.13441E-07,1.754368E-09,-2.861022E-08
392.3072,-0.08023428,-1.534089E-08,NaN,-1.061971,-1.351242E-07,NaN,0.4378504,-4.458634E-08,NaN,-2.174468,1.273029E-05,-0.3860783,2.599935E-08,NaN,NaN,-0.02014964,1.583237E-10,1.853704E-07,-1.13442E-07,7.112868E-10,-2.861022E-08
392.3229,-0.07867676,-1.533997E-08,NaN,-1.056832,-1.351247E-07,NaN,0.4381424,-4.460465E-08,NaN,-2.173755,1.273086E-05,-0.3852249,2.601953E-08,NaN,NaN,-0.02014617,1.536671E-10,1.847743E-07,-1.134429E-07,3.169978E-09,-2.861022E-08
392.3389,-0.07867676,-1.533997E-08,NaN,-1.056832,-1.351247E-07,NaN,0.4381424,-4.460465E-08,NaN,-2.173755,1.273086E-05,-0.3852249,2.601953E-08,NaN,NaN,-0.02014617,1.536671E-10,1.847743E-07,-1.134429E-07,3.169978E-09,-2.861022E-08
392.3538,-0.07714052,-1.533904E-08,NaN,-1.050862,-1.351251E-07,NaN,0.4384841,-4.462248E-08,NaN,-2.172877,1.273143E-05,-0.3841804,2.603925E-08,NaN,NaN,-0.02014229,1.490105E-10,1.901387E-07,-1.134438E-07,4.809106E-09,-2.861022E-08
392.3701,-0.07563758,-1.533811E-08,NaN,-1.044414,-1.351255E-07,NaN,0.4387869,-4.464126E-08,NaN,-2.171973,1.2732E-05,-0.3831838,2.605991E-08,NaN,NaN,-0.0201386,1.536671E-10,1.955031E-07,-1.134447E-07,8.087362E-09,-2.861022E-08
392.3863,-0.07416835,-1.533719E-08,NaN,-1.037702,-1.351259E-07,NaN,0.4390678,-4.465957E-08,NaN,-2.171095,1.273257E-05,-0.3822502,2.60801E-08,NaN,NaN,-0.02013511,1.490105E-10,2.002715E-07,-1.134457E-07,6.969775E-09,-2.861022E-08
392.4017,-0.07272937,-1.533626E-08,NaN,-1.030859,-1.351264E-07,NaN,0.4393418,-4.468011E-08,NaN,-2.170255,1.273314E-05,-0.3813652,2.610252E-08,NaN,NaN,-0.02013176,1.443539E-10,2.014636E-07,-1.134466E-07,6.895269E-09,-2.622604E-08
392.418,-0.07272937,-1.533626E-08,NaN,-1.030859,-1.351264E-07,NaN,0.4393418,-4.468011E-08,NaN,-2.170255,1.273314E-05,-0.3813652,2.610252E-08,NaN,NaN,-0.02013176,1.443539E-10,2.014636E-07,-1.134466E-07,6.895269E-09,-2.622604E-08
392.4327,-0.07130838,-1.533534E-08,NaN,-1.023203,-1.351268E-07,NaN,0.4396632,-4.470154E-08,NaN,-2.169253,1.27337E-05,-0.3802956,2.612583E-08,NaN,NaN,-0.02012801,1.396973E-10,2.098082E-07,-1.134475E-07,7.565822E-09,-2.861022E-08
392.4489,-0.06991683,-1.533441E-08,NaN,-1.015086,-1.351272E-07,NaN,0.4399449,-4.472245E-08,NaN,-2.168229,1.273427E-05,-0.3792771,2.614861E-08,NaN,NaN,-0.02012445,1.350407E-10,2.163648E-07,-1.134484E-07,6.373729E-09,-2.622604E-08
392.4647,-0.06855518,-1.533349E-08,NaN,-1.006724,-1.351276E-07,NaN,0.4402042,-4.474425E-08,NaN,-2.167234,1.273482E-05,-0.3783239,2.617229E-08,NaN,NaN,-0.02012109,1.303841E-10,2.19941E-07,-1.134493E-07,8.236374E-09,-2.861022E-08
392.4804,-0.06722032,-1.533256E-08,NaN,-0.9982475,-1.351281E-07,NaN,0.4404563,-4.476551E-08,NaN,-2.166282,1.273538E-05,-0.3774214,2.619543E-08,NaN,NaN,-0.02011788,1.257275E-10,2.264975E-07,-1.134502E-07,8.087363E-09,-2.622604E-08
392.4968,-0.06722032,-1.533256E-08,NaN,-0.9982475,-1.351281E-07,NaN,0.4404563,-4.476551E-08,NaN,-2.166282,1.273538E-05,-0.3774214,2.619543E-08,NaN,NaN,-0.02011788,1.257275E-10,2.264975E-07,-1.134502E-07,8.087363E-09,-2.622604E-08
392.5115,-0.06590065,-1.533164E-08,NaN,-0.9889758,-1.351285E-07,NaN,0.4407534,-4.478765E-08,NaN,-2.16517,1.273594E-05,-0.3763407,2.621945E-08,NaN,NaN,-0.02011428,1.210708E-10,2.402066E-07,-1.134511E-07,7.938351E-09,-2.861022E-08
392.5288,-0.06460702,-1.533071E-08,NaN,-0.9792603,-1.351289E-07,NaN,0.4410106,-4.481067E-08,NaN,-2.164039,1.27365E-05,-0.375314,2.624434E-08,NaN,NaN,-0.02011087,1.164142E-10,2.425908E-07,-1.13452E-07,1.017353E-08,-2.622604E-08
392.5439,-0.06333995,-1.532979E-08,NaN,-0.9693161,-1.351293E-07,NaN,0.4412452,-4.483312E-08,NaN,-2.162941,1.273706E-05,-0.3743543,2.626867E-08,NaN,NaN,-0.02010767,1.07101E-10,2.46167E-07,-1.134529E-07,1.285573E-08,-2.861022E-08
392.5599,-0.06333995,-1.532979E-08,NaN,-0.9693161,-1.351293E-07,NaN,0.4412452,-4.483312E-08,NaN,-2.162941,1.273706E-05,-0.3743543,2.626867E-08,NaN,NaN,-0.02010767,1.07101E-10,2.46167E-07,-1.134529E-07,1.285573E-08,-2.861022E-08
392.575,-0.06208894,-1.532886E-08,NaN,-0.9585129,-1.351297E-07,NaN,0.4415171,-4.485644E-08,NaN,-2.161687,1.273762E-05,-0.3732334,2.629386E-08,NaN,NaN,-0.02010413,1.024444E-10,2.568959E-07,-1.134538E-07,1.360079E-08,-2.622604E-08
392.5914,-0.06086395,-1.532793E-08,NaN,-0.9472333,-1.351307E-07,NaN,0.4417476,-4.454641E-08,NaN,-2.160422,1.273819E-05,-0.3721758,2.598571E-08,NaN,NaN,-0.02010081,9.313117E-11,2.664326E-07,-1.13452E-07,1.434585E-08,-2.861022E-08
392.6073,-0.05966489,-1.532701E-08,NaN,-0.9357112,-1.351312E-07,NaN,0.441956,-4.435222E-08,NaN,-2.159198,1.273876E-05,-0.3711911,2.57934E-08,NaN,NaN,-0.02009768,8.381795E-11,2.729891E-07,-1.134498E-07,1.509091E-08,-2.622604E-08
392.6232,-0.05848863,-1.532608E-08,NaN,-0.9240903,-1.351314E-07,NaN,0.4421576,-4.421948E-08,NaN,-2.158027,1.273934E-05,-0.3702631,2.566254E-08,NaN,NaN,-0.0200947,6.984811E-11,2.807377E-07,-1.134475E-07,1.464387E-08,-2.861022E-08
392.6392,-0.05848863,-1.532608E-08,NaN,-0.9240903,-1.351314E-07,NaN,0.4421576,-4.421948E-08,NaN,-2.158027,1.273934E-05,-0.3702631,2.566254E-08,NaN,NaN,-0.0200947,6.984811E-11,2.807377E-07,-1.134475E-07,1.464387E-08,-2.861022E-08
392.6561,-0.05733173,-1.532516E-08,NaN,-0.9124587,-1.351314E-07,NaN,0.4423585,-4.41202E-08,NaN,-2.156907,1.273991E-05,-0.3693792,2.556514E-08,NaN,NaN,-0.02009183,6.984811E-11,2.83718E-07,-1.13445E-07,1.717707E-08,-2.622604E-08
392.6707,-0.05619138,-1.532423E-08,NaN,-0.9008702,-1.351313E-07,NaN,0.4425596,-4.404106E-08,NaN,-2.155832,1.274048E-05,-0.3685319,2.548788E-08,NaN,NaN,-0.02008905,5.587827E-11,2.866982E-07,-1.134425E-07,1.807114E-08,-2.861022E-08
392.6869,-0.0550655,-1.532331E-08,NaN,-0.8893579,-1.351312E-07,NaN,0.4427606,-4.397177E-08,NaN,-2.154796,1.274105E-05,-0.3677169,2.542049E-08,NaN,NaN,-0.02008634,5.587827E-11,2.920627E-07,-1.134399E-07,1.658102E-08,-2.622604E-08
392.7026,-0.05395263,-1.532238E-08,NaN,-0.8779417,-1.35131E-07,NaN,0.4429605,-4.390935E-08,NaN,-2.153795,1.274162E-05,-0.3669312,2.535997E-08,NaN,NaN,-0.02008372,4.656504E-11,2.980231E-07,-1.134374E-07,1.449486E-08,-2.861022E-08
392.7184,-0.05395263,-1.532238E-08,NaN,-0.8779417,-1.35131E-07,NaN,0.4429605,-4.390935E-08,NaN,-2.153795,1.274162E-05,-0.3669312,2.535997E-08,NaN,NaN,-0.02008372,4.656504E-11,2.980231E-07,-1.134374E-07,1.449486E-08,-2.861022E-08
392.7338,-0.05285873,-1.532146E-08,NaN,-0.8673953,-1.351309E-07,NaN,0.4431182,-4.384943E-08,NaN,-2.153027,1.27422E-05,-0.3663774,2.530194E-08,NaN,NaN,-0.02008161,4.190843E-11,2.938508E-07,-1.134348E-07,1.419684E-08,-2.622604E-08
392.7502,-0.05177239,-1.532053E-08,NaN,-0.8574252,-1.351307E-07,NaN,0.4433134,-4.379195E-08,NaN,-2.152343,1.274277E-05,-0.3658269,2.524636E-08,NaN,NaN,-0.02007947,4.190843E-11,2.932547E-07,-1.134322E-07,1.747509E-08,-2.861022E-08
392.7663,-0.05069076,-1.531961E-08,NaN,-0.8478506,-1.351304E-07,NaN,0.4435274,-4.373405E-08,NaN,-2.151684,1.274333E-05,-0.3652643,2.519037E-08,NaN,NaN,-0.02007729,4.190843E-11,2.938508E-07,-1.134296E-07,1.449486E-08,-2.622604E-08
392.7815,-0.04961414,-1.531868E-08,NaN,-0.8385596,-1.351302E-07,NaN,0.4437445,-4.367575E-08,NaN,-2.151032,1.27439E-05,-0.3647002,2.513397E-08,NaN,NaN,-0.02007512,4.190843E-11,2.950429E-07,-1.134271E-07,1.479288E-08,-2.861022E-08
392.7973,-0.04961414,-1.531868E-08,NaN,-0.8385596,-1.351302E-07,NaN,0.4437445,-4.367575E-08,NaN,-2.151032,1.27439E-05,-0.3647002,2.513397E-08,NaN,NaN,-0.02007512,4.190843E-11,2.950429E-07,-1.134271E-07,1.479288E-08,-2.861022E-08
392.8123,-0.04855031,-1.531775E-08,NaN,-0.8302445,-1.3513E-07,NaN,0.4439186,-4.361705E-08,NaN,-2.150585,1.274447E-05,-0.3643448,2.507717E-08,NaN,NaN,-0.02007342,4.190843E-11,2.890824E-07,-1.134245E-07,1.389881E-08,-2.622604E-08
392.8289,-0.04749091,-1.531683E-08,NaN,-0.8225622,-1.351298E-07,NaN,0.4441271,-4.355796E-08,NaN,-2.150198,1.274504E-05,-0.3639789,2.501999E-08,NaN,NaN,-0.02007166,4.190843E-11,2.84314E-07,-1.13422E-07,1.6283E-08,-2.861022E-08
392.8447,-0.04643455,-1.53159E-08,NaN,-0.8153006,-1.351296E-07,NaN,0.4443516,-4.349849E-08,NaN,-2.149818,1.274561E-05,-0.3635909,2.496242E-08,NaN,NaN,-0.02006986,4.190843E-11,2.83718E-07,-1.134195E-07,1.926323E-08,-2.622604E-08
392.8606,-0.04538231,-1.531498E-08,NaN,-0.8083284,-1.351294E-07,NaN,0.4445772,-4.343864E-08,NaN,-2.14943,1.274618E-05,-0.3631934,2.490448E-08,NaN,NaN,-0.02006804,4.190843E-11,2.801417E-07,-1.134169E-07,1.896521E-08,-2.861022E-08
392.8765,-0.04538231,-1.531498E-08,NaN,-0.8083284,-1.351294E-07,NaN,0.4445772,-4.343864E-08,NaN,-2.14943,1.274618E-05,-0.3631934,2.490448E-08,NaN,NaN,-0.02006804,4.190843E-11,2.801417E-07,-1.134169E-07,1.896521E-08,-2.861022E-08
392.8918,-0.04434216,-1.531405E-08,NaN,-0.8023259,-1.351292E-07,NaN,0.4447593,-4.337701E-08,NaN,-2.149235,1.274674E-05,-0.3629958,2.484476E-08,NaN,NaN,-0.02006668,4.190843E-11,2.717971E-07,-1.134144E-07,1.866719E-08,-2.622604E-08
392.9079,-0.04330691,-1.531313E-08,NaN,-0.7969429,-1.35129E-07,NaN,0.4449748,-4.331505E-08,NaN,-2.149091,1.274731E-05,-0.3627816,2.47847E-08,NaN,NaN,-0.02006526,4.190843E-11,2.634524E-07,-1.134119E-07,1.777312E-08,-2.861022E-08
392.9237,-0.04227537,-1.53122E-08,NaN,-0.791963,-1.351287E-07,NaN,0.4452058,-4.325276E-08,NaN,-2.148945,1.274788E-05,-0.3625398,2.472432E-08,NaN,NaN,-0.02006377,4.190843E-11,2.586841E-07,-1.134094E-07,1.777312E-08,-2.622604E-08
392.9395,-0.04227537,-1.53122E-08,NaN,-0.791963,-1.351287E-07,NaN,0.4452058,-4.325276E-08,NaN,-2.148945,1.274788E-05,-0.3625398,2.472432E-08,NaN,NaN,-0.02006377,4.190843E-11,2.586841E-07,-1.134094E-07,1.777312E-08,-2.622604E-08
392.9549,-0.04124853,-1.531128E-08,NaN,-0.7872519,-1.351285E-07,NaN,0.4454378,-4.319016E-08,NaN,-2.148783,1.274845E-05,-0.3622834,2.466362E-08,NaN,NaN,-0.02006227,4.190843E-11,2.557038E-07,-1.134069E-07,1.479289E-08,-2.861022E-08
392.9714,-0.04023405,-1.531035E-08,NaN,-0.7834881,-1.351283E-07,NaN,0.4456263,-4.312583E-08,NaN,-2.148808,1.274902E-05,-0.3622212,2.46012E-08,NaN,NaN,-0.02006122,4.190843E-11,2.431868E-07,-1.134044E-07,1.360079E-08,-2.622604E-08
392.9875,-0.0392253,-1.530942E-08,NaN,-0.7803209,-1.351281E-07,NaN,0.4458484,-4.306263E-08,NaN,-2.148877,1.274959E-05,-0.3621379,2.453991E-08,NaN,NaN,-0.02006008,4.190843E-11,2.348422E-07,-1.13402E-07,1.419684E-08,-2.861022E-08
393.0034,-0.03822103,-1.53085E-08,NaN,-0.7775332,-1.351279E-07,NaN,0.4460859,-4.299913E-08,NaN,-2.148939,1.275016E-05,-0.3620228,2.447832E-08,NaN,NaN,-0.02005887,4.190843E-11,2.282857E-07,-1.133995E-07,1.121661E-08,-2.622604E-08
393.0193,-0.03822103,-1.53085E-08,NaN,-0.7775332,-1.351279E-07,NaN,0.4460859,-4.299913E-08,NaN,-2.148939,1.275016E-05,-0.3620228,2.447832E-08,NaN,NaN,-0.02005887,4.190843E-11,2.282857E-07,-1.133995E-07,1.121661E-08,-2.622604E-08
393.0343,-0.03722202,-1.530757E-08,NaN,-0.7749904,-1.351277E-07,NaN,0.4463244,-4.293534E-08,NaN,-2.148979,1.275074E-05,-0.3618888,2.441643E-08,NaN,NaN,-0.02005764,2.793859E-11,2.235173E-07,-1.13397E-07,1.181265E-08,-2.861022E-08
393.0508,-0.03623562,-1.530665E-08,NaN,-0.7733707,-1.351275E-07,NaN,0.4465196,-4.286984E-08,NaN,-2.149201,1.275131E-05,-0.3619449,2.435284E-08,NaN,NaN,-0.02005684,1.862537E-11,2.115964E-07,-1.133946E-07,1.181265E-08,-2.622604E-08
393.0669,-0.03525556,-1.530572E-08,NaN,-0.7723238,-1.351273E-07,NaN,0.4467484,-4.280408E-08,NaN,-2.149463,1.275188E-05,-0.3619763,2.428899E-08,NaN,NaN,-0.02005596,1.862537E-11,2.020596E-07,-1.133922E-07,1.24087E-08,-2.861022E-08
393.087,-0.0342805,-1.53048E-08,NaN,-0.7716328,-1.35127E-07,NaN,0.4469929,-4.273807E-08,NaN,-2.149711,1.275245E-05,-0.3619722,2.422489E-08,NaN,NaN,-0.020055,1.862537E-11,1.958011E-07,-1.133897E-07,1.181265E-08,-2.622604E-08
393.0984,-0.0342805,-1.53048E-08,NaN,-0.7716328,-1.35127E-07,NaN,0.4469929,-4.273807E-08,NaN,-2.149711,1.275245E-05,-0.3619722,2.422489E-08,NaN,NaN,-0.020055,1.862537E-11,1.958011E-07,-1.133897E-07,1.181265E-08,-2.622604E-08
393.1135,-0.03331102,-1.530387E-08,NaN,-0.7711629,-1.351268E-07,NaN,0.4472387,-4.26704E-08,NaN,-2.149933,1.275302E-05,-0.3619454,2.415913E-08,NaN,NaN,-0.02005401,1.862537E-11,1.904367E-07,-1.133873E-07,1.002452E-08,-2.861022E-08
393.1302,-0.03235422,-1.530295E-08,NaN,-0.771588,-1.351266E-07,NaN,0.4474412,-4.260257E-08,NaN,-2.150331,1.275359E-05,-0.3621046,2.40932E-08,NaN,NaN,-0.02005344,1.862537E-11,1.779197E-07,-1.133849E-07,8.236376E-09,-2.622604E-08
393.1455,-0.03140799,-1.530202E-08,NaN,-0.7725639,-1.351264E-07,NaN,0.447679,-4.253452E-08,NaN,-2.150762,1.275416E-05,-0.3622368,2.402706E-08,NaN,NaN,-0.02005279,1.862537E-11,1.671909E-07,-1.133825E-07,9.428469E-09,-2.861022E-08
393.163,-0.030474,-1.53011E-08,NaN,-0.7738731,-1.351262E-07,NaN,0.447936,-4.246627E-08,NaN,-2.151174,1.275473E-05,-0.3623294,2.396071E-08,NaN,NaN,-0.02005204,1.862537E-11,1.597403E-07,-1.133801E-07,8.236376E-09,-2.622604E-08
393.1771,-0.030474,-1.53011E-08,NaN,-0.7738731,-1.351262E-07,NaN,0.447936,-4.246627E-08,NaN,-2.151174,1.275473E-05,-0.3623294,2.396071E-08,NaN,NaN,-0.02005204,1.862537E-11,1.597403E-07,-1.133801E-07,8.236376E-09,-2.622604E-08
393.1922,-0.02955254,-1.530017E-08,NaN,-0.775381,-1.35126E-07,NaN,0.4481968,-4.23964E-08,NaN,-2.151553,1.275529E-05,-0.3623951,2.389275E-08,NaN,NaN,-0.02005126,1.862537E-11,1.507996E-07,-1.133777E-07,8.236376E-09,-2.861022E-08
393.2088,-0.02864935,-1.529924E-08,NaN,-0.7777659,-1.351258E-07,NaN,0.4484145,-4.232636E-08,NaN,-2.152105,1.275586E-05,-0.362646,2.382462E-08,NaN,NaN,-0.02005091,1.862537E-11,1.385807E-07,-1.133753E-07,6.448237E-09,-2.622604E-08
393.2248,-0.02776317,-1.529832E-08,NaN,-0.7806783,-1.351255E-07,NaN,0.4486698,-4.225615E-08,NaN,-2.152684,1.275643E-05,-0.3628654,2.375632E-08,NaN,NaN,-0.02005045,1.862537E-11,1.275538E-07,-1.13373E-07,5.85219E-09,-2.861022E-08
393.2406,-0.02689221,-1.529739E-08,NaN,-0.7839016,-1.351253E-07,NaN,0.4489442,-4.218579E-08,NaN,-2.153239,1.2757E-05,-0.3630419,2.368786E-08,NaN,NaN,-0.02004989,1.862537E-11,1.16825E-07,-1.133706E-07,4.660097E-09,-2.622604E-08
393.2563,-0.02689221,-1.529739E-08,NaN,-0.7839016,-1.351253E-07,NaN,0.4489442,-4.218579E-08,NaN,-2.153239,1.2757E-05,-0.3630419,2.368786E-08,NaN,NaN,-0.02004989,1.862537E-11,1.16825E-07,-1.133706E-07,4.660097E-09,-2.622604E-08
393.2713,-0.02603481,-1.529646E-08,NaN,-0.7873014,-1.351251E-07,NaN,0.4492217,-4.211384E-08,NaN,-2.153758,1.275757E-05,-0.3631888,2.361782E-08,NaN,NaN,-0.02004929,1.862537E-11,1.075863E-07,-1.133682E-07,4.064051E-09,-2.861022E-08
393.2881,-0.02519573,-1.529553E-08,NaN,-0.7915562,-1.351249E-07,NaN,0.4494543,-4.204177E-08,NaN,-2.154447,1.275814E-05,-0.3635205,2.354766E-08,NaN,NaN,-0.02004912,1.862537E-11,9.447324E-08,-1.133659E-07,5.256144E-09,-2.622604E-08
393.3038,-0.02437271,-1.529461E-08,NaN,-0.7963171,-1.351247E-07,NaN,0.449724,-4.196957E-08,NaN,-2.155159,1.27587E-05,-0.3638189,2.347736E-08,NaN,NaN,-0.02004884,1.862537E-11,8.225429E-08,-1.133636E-07,5.85219E-09,-2.861022E-08
393.3199,-0.02437271,-1.529461E-08,NaN,-0.7963171,-1.351247E-07,NaN,0.449724,-4.196957E-08,NaN,-2.155159,1.27587E-05,-0.3638189,2.347736E-08,NaN,NaN,-0.02004884,1.862537E-11,8.225429E-08,-1.133636E-07,5.85219E-09,-2.861022E-08
393.3349,-0.0235636,-1.529368E-08,NaN,-0.8013677,-1.351245E-07,NaN,0.4500125,-4.189725E-08,NaN,-2.155846,1.275928E-05,-0.3640719,2.340695E-08,NaN,NaN,-0.02004845,9.312141E-12,7.361162E-08,-1.133612E-07,6.448237E-09,-2.622604E-08
393.3517,-0.02276662,-1.529275E-08,NaN,-0.8065737,-1.351243E-07,NaN,0.450304,-4.182481E-08,NaN,-2.156492,1.275985E-05,-0.3642928,2.333642E-08,NaN,NaN,-0.02004802,-1.084202E-15,6.467092E-08,-1.133589E-07,5.256144E-09,-2.861022E-08
393.3674,-0.02198673,-1.529182E-08,NaN,-0.8126139,-1.351241E-07,NaN,0.4505494,-4.175083E-08,NaN,-2.157305,1.276042E-05,-0.3646986,2.326434E-08,NaN,NaN,-0.02004801,-4.657697E-12,4.976976E-08,-1.133566E-07,7.044283E-09,-2.622604E-08
393.3827,-0.02122136,-1.52909E-08,NaN,-0.8191397,-1.351238E-07,NaN,0.4508319,-4.167677E-08,NaN,-2.158139,1.276099E-05,-0.3650691,2.319218E-08,NaN,NaN,-0.02004789,-9.31431E-12,3.755081E-08,-1.133543E-07,5.852191E-09,-2.861022E-08
393.3985,-0.02122136,-1.52909E-08,NaN,-0.8191397,-1.351238E-07,NaN,0.4508319,-4.167677E-08,NaN,-2.158139,1.276099E-05,-0.3650691,2.319218E-08,NaN,NaN,-0.02004789,-9.31431E-12,3.755081E-08,-1.133543E-07,5.852191E-09,-2.861022E-08
393.4136,-0.02046832,-1.528997E-08,NaN,-0.8259348,-1.351236E-07,NaN,0.4511335,-4.160261E-08,NaN,-2.158944,1.276156E-05,-0.3653919,2.311993E-08,NaN,NaN,-0.02004766,-1.397092E-11,2.682197E-08,-1.13352E-07,4.660098E-09,-2.622604E-08
393.4303,-0.01972597,-1.528904E-08,NaN,-0.8328651,-1.351234E-07,NaN,0.4514384,-4.152837E-08,NaN,-2.159705,1.276212E-05,-0.3656799,2.30476E-08,NaN,NaN,-0.02004737,-1.862754E-11,2.056349E-08,-1.133497E-07,4.660098E-09,-2.861022E-08
393.4459,-0.01899964,-1.528812E-08,NaN,-0.8406095,-1.351232E-07,NaN,0.4516959,-4.145405E-08,NaN,-2.16063,1.276269E-05,-0.3661536,2.297518E-08,NaN,NaN,-0.02004752,-2.328415E-11,4.172207E-09,-1.133474E-07,4.064052E-09,-2.622604E-08
393.4619,-0.01828646,-1.528719E-08,NaN,-0.8488197,-1.35123E-07,NaN,0.451991,-4.137823E-08,NaN,-2.161574,1.276326E-05,-0.3665904,2.290126E-08,NaN,NaN,-0.02004754,-2.794076E-11,-7.748721E-09,-1.133452E-07,2.573936E-09,-2.861022E-08
393.4775,-0.01828646,-1.528719E-08,NaN,-0.8488197,-1.35123E-07,NaN,0.451991,-4.137823E-08,NaN,-2.161574,1.276326E-05,-0.3665904,2.290126E-08,NaN,NaN,-0.02004754,-2.794076E-11,-7.748721E-09,-1.133452E-07,2.573936E-09,-2.861022E-08
393.4927,-0.01758427,-1.528626E-08,NaN,-0.8572798,-1.351228E-07,NaN,0.4523057,-4.130236E-08,NaN,-2.162485,1.276383E-05,-0.366977,2.28273E-08,NaN,NaN,-0.02004746,-3.259737E-11,-1.877558E-08,-1.133429E-07,4.362075E-09,-2.622604E-08
393.5092,-0.01689152,-1.528533E-08,NaN,-0.8658558,-1.351226E-07,NaN,0.452624,-4.122643E-08,NaN,-2.163349,1.27644E-05,-0.3673265,2.275327E-08,NaN,NaN,-0.0200473,-3.725398E-11,-2.771628E-08,-1.133407E-07,5.852191E-09,-2.861022E-08
393.5248,-0.01621399,-1.528441E-08,NaN,-0.8752264,-1.351223E-07,NaN,0.4528935,-4.115045E-08,NaN,-2.164375,1.276497E-05,-0.3678629,2.26792E-08,NaN,NaN,-0.02004758,-4.19106E-11,-4.202139E-08,-1.133384E-07,4.660098E-09,-2.622604E-08
393.541,-0.01554846,-1.528348E-08,NaN,-0.885044,-1.351221E-07,NaN,0.4532011,-4.107443E-08,NaN,-2.165416,1.276553E-05,-0.3683609,2.260507E-08,NaN,NaN,-0.02004775,-4.656721E-11,-5.513441E-08,-1.133362E-07,4.958121E-09,-2.861022E-08
393.5568,-0.01554846,-1.528348E-08,NaN,-0.885044,-1.351221E-07,NaN,0.4532011,-4.107443E-08,NaN,-2.165416,1.276553E-05,-0.3683609,2.260507E-08,NaN,NaN,-0.02004775,-4.656721E-11,-5.513441E-08,-1.133362E-07,4.958121E-09,-2.861022E-08
393.5717,-0.01489276,-1.528255E-08,NaN,-0.8950928,-1.351219E-07,NaN,0.4535289,-4.099834E-08,NaN,-2.166422,1.27661E-05,-0.3688064,2.25309E-08,NaN,NaN,-0.0200478,-5.122382E-11,-6.52672E-08,-1.13334E-07,5.554168E-09,-2.622604E-08
393.5882,-0.01424545,-1.528162E-08,NaN,-0.9052389,-1.351217E-07,NaN,0.4538607,-4.09208E-08,NaN,-2.167379,1.276667E-05,-0.3692125,2.245526E-08,NaN,NaN,-0.02004777,-5.588043E-11,-7.599603E-08,-1.133317E-07,4.958121E-09,-2.861022E-08
393.6039,-0.01361275,-1.52807E-08,NaN,-0.9161612,-1.351215E-07,NaN,0.4541423,-4.084324E-08,NaN,-2.168495,1.276724E-05,-0.3698072,2.23796E-08,NaN,NaN,-0.02004818,-6.519366E-11,-9.268533E-08,-1.133295E-07,5.852191E-09,-2.622604E-08
393.62,-0.01299108,-1.527977E-08,NaN,-0.9275125,-1.351213E-07,NaN,0.4544623,-4.076566E-08,NaN,-2.169625,1.27678E-05,-0.3703624,2.230393E-08,NaN,NaN,-0.02004847,-7.450688E-11,-1.046063E-07,-1.133273E-07,4.660098E-09,-2.861022E-08
393.6352,-0.01299108,-1.527977E-08,NaN,-0.9275125,-1.351213E-07,NaN,0.4544623,-4.076566E-08,NaN,-2.169625,1.27678E-05,-0.3703624,2.230393E-08,NaN,NaN,-0.02004847,-7.450688E-11,-1.046063E-07,-1.133273E-07,4.660098E-09,-2.861022E-08
393.6503,-0.01237819,-1.527884E-08,NaN,-0.9390771,-1.351211E-07,NaN,0.4548033,-4.068806E-08,NaN,-2.170716,1.276838E-05,-0.3708627,2.222823E-08,NaN,NaN,-0.02004863,-8.847672E-11,-1.14739E-07,-1.133251E-07,4.362075E-09,-2.622604E-08
393.6681,-0.01177275,-1.527792E-08,NaN,-0.9507212,-1.351209E-07,NaN,0.4551487,-4.061044E-08,NaN,-2.171756,1.276895E-05,-0.3713214,2.215251E-08,NaN,NaN,-0.02004872,-1.024466E-10,-1.260639E-07,-1.133229E-07,5.256144E-09,-2.861022E-08
393.6826,-0.01118151,-1.527699E-08,NaN,-0.9631239,-1.351206E-07,NaN,0.4554422,-4.05328E-08,NaN,-2.172953,1.276952E-05,-0.371971,2.207678E-08,NaN,NaN,-0.02004926,-1.117598E-10,-1.421572E-07,-1.133208E-07,6.597249E-09,-2.622604E-08
393.6985,-0.01118151,-1.527699E-08,NaN,-0.9631239,-1.351206E-07,NaN,0.4554422,-4.05328E-08,NaN,-2.172953,1.276952E-05,-0.371971,2.207678E-08,NaN,NaN,-0.02004926,-1.117598E-10,-1.421572E-07,-1.133208E-07,6.597249E-09,-2.622604E-08
