JMolnar6/NonAnthroHands_User_Study/HandsLoggerWithURDF/tempdata/files/Reachy_JointMotion_gesture_3_13.csv
Time,r_shoulder,r_shoulder_x,r_upper_arm,r_forearm,r_wrist,r_wrist2hand,
305.2728,0.04500655,0.0005722262,NaN,-0.3270118,0.000336541,NaN,0.289631,-14.16514,NaN,-2.149239,-1.457291,-0.3627348,14.14937,NaN,NaN,-0.02002134,0.8045319,-3.973074E-07,1.016983,6.415457E-09,1.457731
305.2879,0.04500654,0.000572329,NaN,-0.3270117,0.0003368409,NaN,0.2904855,-14.16576,NaN,-2.149293,-1.458873,-0.3635704,14.15106,NaN,NaN,-0.02002385,0.8038901,-4.355661E-07,1.019248,1.647086E-09,1.461623
305.3022,0.04500652,0.0005719076,NaN,-0.3270117,0.0003366081,NaN,0.2921694,-14.16534,NaN,-2.149369,-1.461878,-0.3642589,14.15413,NaN,NaN,-0.02002586,0.8042561,-4.692055E-07,1.023584,4.031272E-09,1.462427
305.317,0.04500652,0.0005719076,NaN,-0.3270117,0.0003366081,NaN,0.2921694,-14.16534,NaN,-2.149369,-1.461878,-0.3642589,14.15413,NaN,NaN,-0.02002586,0.8042561,-4.692055E-07,1.023584,4.031272E-09,1.462427
305.3311,0.04500651,0.0005720281,NaN,-0.3270117,0.000336277,NaN,0.2942932,-14.16563,NaN,-2.149436,-1.466442,-0.3647363,14.15889,NaN,NaN,-0.02002724,0.8038815,-4.902533E-07,1.030152,5.223365E-09,1.462904
305.3468,0.04500649,0.0005724967,NaN,-0.3270116,0.000335973,NaN,0.2966059,-14.16571,NaN,-2.149489,-1.466855,-0.3650886,14.1593,NaN,NaN,-0.02002824,0.8037665,-5.074735E-07,1.030736,2.839179E-09,1.463666
305.362,0.04500648,0.0005727301,NaN,-0.3270116,0.0003362128,NaN,0.2982427,-14.16472,NaN,-2.149449,-1.457995,-0.36447,14.15,NaN,NaN,-0.02002633,0.8049207,-4.771962E-07,1.017987,-7.370995E-10,1.457507
305.3769,0.04500648,0.0005727301,NaN,-0.3270116,0.0003362128,NaN,0.2982427,-14.16472,NaN,-2.149449,-1.457995,-0.36447,14.15,NaN,NaN,-0.02002633,0.8049207,-4.771962E-07,1.017987,-7.370995E-10,1.457507
305.3912,0.04500648,0.0005727434,NaN,-0.3270116,0.0003359875,NaN,0.2990574,-14.16618,NaN,-2.149381,-1.464861,-0.3639644,14.15726,NaN,NaN,-0.02002482,0.8033489,-4.536151E-07,1.027848,1.647086E-09,1.466105
305.408,0.04500647,0.0005727428,NaN,-0.3270115,0.000335412,NaN,0.2994146,-14.16616,NaN,-2.149316,-1.469049,-0.3636501,14.16158,NaN,NaN,-0.02002389,0.803261,-4.403903E-07,1.033869,-3.121285E-09,1.466542
305.4218,0.04500645,0.0005730791,NaN,-0.3270115,0.0003356237,NaN,0.2995552,-14.16494,NaN,-2.149262,-1.461839,-0.3634476,14.15399,NaN,NaN,-0.02002329,0.8046233,-4.310398E-07,1.023516,-3.121285E-09,1.457871
305.4367,0.04500645,0.0005730791,NaN,-0.3270115,0.0003356237,NaN,0.2995552,-14.16494,NaN,-2.149262,-1.461839,-0.3634476,14.15399,NaN,NaN,-0.02002329,0.8046233,-4.310398E-07,1.023516,-3.121285E-09,1.457871
305.4508,0.04500645,0.0005738395,NaN,-0.3270114,0.000336127,NaN,0.2988575,-14.1661,NaN,-2.149137,-1.461466,-0.3623944,14.15369,NaN,NaN,-0.02002013,0.8034645,-3.819777E-07,1.022941,-1.929192E-09,1.464501
305.4662,0.04500644,0.0005743027,NaN,-0.3270114,0.0003365396,NaN,0.2972861,-14.16523,NaN,-2.148999,-1.459155,-0.3615156,14.1512,NaN,NaN,-0.02001753,0.8043607,-3.430857E-07,1.019626,5.223365E-09,1.457067
305.4823,0.04500643,0.0005748024,NaN,-0.3270114,0.0003364435,NaN,0.2952545,-14.16565,NaN,-2.148875,-1.466346,-0.3608616,14.1587,NaN,NaN,-0.02001561,0.8038305,-3.146245E-07,1.029979,6.415457E-09,1.461726
305.4962,0.04500643,0.0005748024,NaN,-0.3270114,0.0003364435,NaN,0.2952545,-14.16565,NaN,-2.148875,-1.466346,-0.3608616,14.1587,NaN,NaN,-0.02001561,0.8038305,-3.146245E-07,1.029979,6.415457E-09,1.461726
305.5104,0.04500643,0.0005752864,NaN,-0.3270113,0.0003368152,NaN,0.2922817,-14.16493,NaN,-2.148688,-1.460954,-0.3594346,14.15302,NaN,NaN,-0.02001136,0.8046346,-2.484633E-07,1.022219,6.415457E-09,1.457574
305.5258,0.04500642,0.0005757494,NaN,-0.3270113,0.0003369838,NaN,0.2884064,-14.16624,NaN,-2.148496,-1.463477,-0.3582273,14.15575,NaN,NaN,-0.02000782,0.8032714,-1.920624E-07,1.025817,8.799644E-09,1.463905
305.5408,0.04500642,0.0005767327,NaN,-0.3270113,0.000337065,NaN,0.2840768,-14.16548,NaN,-2.148324,-1.467717,-0.3572714,14.16005,NaN,NaN,-0.02000503,0.803928,-1.492961E-07,1.031934,7.607551E-09,1.462527
305.5558,0.04500642,0.0005767327,NaN,-0.3270113,0.000337065,NaN,0.2840768,-14.16548,NaN,-2.148324,-1.467717,-0.3572714,14.16005,NaN,NaN,-0.02000503,0.803928,-1.492961E-07,1.031934,7.607551E-09,1.462527
305.5702,0.04500641,0.0005775206,NaN,-0.3270112,0.0003378389,NaN,0.2795693,-14.16557,NaN,-2.148173,-1.457623,-0.3564661,14.14957,NaN,NaN,-0.02000268,0.804043,-1.129373E-07,1.017379,9.991737E-09,1.459767
305.586,0.04500641,0.0005783029,NaN,-0.3270112,0.0003385869,NaN,0.2742742,-14.16514,NaN,-2.147958,-1.457991,-0.3548386,14.1499,NaN,NaN,-0.01999788,0.8044453,-3.537672E-08,1.01791,9.991737E-09,1.460361
305.6006,0.04500641,0.0005783337,NaN,-0.3270111,0.0003382375,NaN,0.2681632,-14.16562,NaN,-2.147738,-1.467721,-0.353412,14.16004,NaN,NaN,-0.01999371,0.803822,2.989037E-08,1.031928,9.991737E-09,1.460859
305.6155,0.04500641,0.0005783337,NaN,-0.3270111,0.0003382375,NaN,0.2681632,-14.16562,NaN,-2.147738,-1.467721,-0.353412,14.16004,NaN,NaN,-0.01999371,0.803822,2.989037E-08,1.031928,9.991737E-09,1.460859
305.6298,0.0450064,0.0005785971,NaN,-0.3270111,0.0003388179,NaN,0.2616534,-14.16521,NaN,-2.147537,-1.457254,-0.3522333,14.14914,NaN,NaN,-0.0199903,0.8044369,8.517367E-08,1.016855,8.799645E-09,1.45858
305.6456,0.0450064,0.0005785229,NaN,-0.3270111,0.0003384528,NaN,0.2550068,-14.16461,NaN,-2.147356,-1.466637,-0.3512084,14.15881,NaN,NaN,-0.01998732,0.8049104,1.328574E-07,1.030391,9.991737E-09,1.455893
305.6604,0.0450064,0.000578539,NaN,-0.327011,0.0003388663,NaN,0.2476051,-14.16564,NaN,-2.147113,-1.457474,-0.3493676,14.14937,NaN,NaN,-0.01998194,0.8040375,2.191351E-07,1.017141,7.607552E-09,1.458983
305.6752,0.0450064,0.000578539,NaN,-0.327011,0.0003388663,NaN,0.2476051,-14.16564,NaN,-2.147113,-1.457474,-0.3493676,14.14937,NaN,NaN,-0.01998194,0.8040375,2.191351E-07,1.017141,7.607552E-09,1.458983
305.6903,0.0450064,0.0005777699,NaN,-0.327011,0.0003381969,NaN,0.2394177,-14.16551,NaN,-2.146866,-1.467908,-0.3477371,14.16017,NaN,NaN,-0.01997723,0.8040103,2.94535E-07,1.032179,7.607552E-09,1.463144
305.705,0.04500639,0.0005766221,NaN,-0.327011,0.0003374591,NaN,0.2308616,-14.16596,NaN,-2.146639,-1.463167,-0.3463629,14.15528,NaN,NaN,-0.01997328,0.8036417,3.601001E-07,1.02533,1.237592E-08,1.463287
305.72,0.04500639,0.0005764632,NaN,-0.3270109,0.0003375172,NaN,0.2221982,-14.16557,NaN,-2.146434,-1.462484,-0.3451508,14.15454,NaN,NaN,-0.0199698,0.8040259,4.174696E-07,1.024357,9.991737E-09,1.462914
305.7349,0.04500639,0.0005764632,NaN,-0.3270109,0.0003375172,NaN,0.2221982,-14.16557,NaN,-2.146434,-1.462484,-0.3451508,14.15454,NaN,NaN,-0.0199698,0.8040259,4.174696E-07,1.024357,9.991737E-09,1.462914
305.749,0.04500639,0.0005763374,NaN,-0.3270109,0.0003372298,NaN,0.2128056,-14.16601,NaN,-2.146168,-1.46586,-0.3431304,14.15807,NaN,NaN,-0.01996396,0.8035123,5.104528E-07,1.029211,6.415458E-09,1.462286
305.7648,0.04500639,0.0005766126,NaN,-0.3270108,0.0003368557,NaN,0.2026543,-14.16644,NaN,-2.145902,-1.468727,-0.34133,14.16108,NaN,NaN,-0.01995882,0.8030053,5.924092E-07,1.033326,5.223366E-09,1.466419
305.7797,0.04500639,0.0005766126,NaN,-0.3270108,0.0003368557,NaN,0.2026543,-14.16644,NaN,-2.145902,-1.468727,-0.34133,14.16108,NaN,NaN,-0.01995882,0.8030053,5.924092E-07,1.033326,5.223366E-09,1.466419
305.7941,0.04500639,0.0005771259,NaN,-0.3270108,0.0003372821,NaN,0.1921622,-14.16554,NaN,-2.145656,-1.461127,-0.339794,14.15312,NaN,NaN,-0.01995446,0.8040543,6.642327E-07,1.02241,9.991737E-09,1.459996
305.8098,0.04500639,0.0005780724,NaN,-0.3270108,0.0003374768,NaN,0.1808389,-14.16639,NaN,-2.145356,-1.466609,-0.3375201,14.15888,NaN,NaN,-0.01994797,0.8031117,7.712231E-07,1.03029,1.356802E-08,1.465518
305.8248,0.0450064,0.0005785999,NaN,-0.3270107,0.0003379613,NaN,0.1687264,-14.16525,NaN,-2.145061,-1.459053,-0.3355071,14.15095,NaN,NaN,-0.01994228,0.8043774,8.643553E-07,1.019439,1.59522E-08,1.456852
305.8396,0.0450064,0.0005785999,NaN,-0.3270107,0.0003379613,NaN,0.1687264,-14.16525,NaN,-2.145061,-1.459053,-0.3355071,14.15095,NaN,NaN,-0.01994228,0.8043774,8.643553E-07,1.019439,1.59522E-08,1.456852
305.8539,0.0450064,0.0005788078,NaN,-0.3270107,0.0003379979,NaN,0.1562757,-14.16626,NaN,-2.144791,-1.463516,-0.3337813,14.15567,NaN,NaN,-0.01993744,0.803301,9.452687E-07,1.025848,1.237592E-08,1.461039
305.8706,0.0450064,0.0005791459,NaN,-0.3270107,0.0003385848,NaN,0.1437624,-14.16601,NaN,-2.144546,-1.456752,-0.3322393,14.14862,NaN,NaN,-0.01993313,0.8036631,1.018284E-06,1.016109,7.607551E-09,1.460304
305.8842,0.0450064,0.0005792564,NaN,-0.3270106,0.0003383429,NaN,0.1305647,-14.16662,NaN,-2.144245,-1.467149,-0.3299057,14.15946,NaN,NaN,-0.01992656,0.8029306,1.126467E-06,1.031074,8.799644E-09,1.4644
305.9,0.0450064,0.0005792564,NaN,-0.3270106,0.0003383429,NaN,0.1305647,-14.16662,NaN,-2.144245,-1.467149,-0.3299057,14.15946,NaN,NaN,-0.01992656,0.8029306,1.126467E-06,1.031074,8.799644E-09,1.4644
305.9132,0.04500641,0.000579425,NaN,-0.3270105,0.0003387551,NaN,0.1166576,-14.16575,NaN,-2.143948,-1.457382,-0.3278114,14.14926,NaN,NaN,-0.01992074,0.8039935,1.227646E-06,1.017038,8.799644E-09,1.459274
305.9287,0.04500641,0.0005798573,NaN,-0.3270105,0.0003385568,NaN,0.1024623,-14.16678,NaN,-2.143675,-1.466547,-0.325997,14.15886,NaN,NaN,-0.01991573,0.802856,1.313476E-06,1.030223,7.607551E-09,1.467452
305.9436,0.04500641,0.0005800786,NaN,-0.3270105,0.0003388336,NaN,0.08823985,-14.16563,NaN,-2.143425,-1.457455,-0.324366,14.14934,NaN,NaN,-0.01991124,0.8041867,1.392155E-06,1.017167,7.607551E-09,1.457202
305.9588,0.04500641,0.0005800786,NaN,-0.3270105,0.0003388336,NaN,0.08823985,-14.16563,NaN,-2.143425,-1.457455,-0.324366,14.14934,NaN,NaN,-0.01991124,0.8041867,1.392155E-06,1.017167,7.607551E-09,1.457202
305.9729,0.04500641,0.0005800244,NaN,-0.3270104,0.0003382339,NaN,0.07335889,-14.16576,NaN,-2.143121,-1.467778,-0.3219459,14.16006,NaN,NaN,-0.01990457,0.8039182,1.507639E-06,1.032041,5.223365E-09,1.459666
305.9886,0.04500642,0.0005803328,NaN,-0.3270104,0.0003380647,NaN,0.05779316,-14.16673,NaN,-2.142822,-1.463999,-0.3197715,14.1562,NaN,NaN,-0.01989863,0.8030198,1.613139E-06,1.026555,6.415458E-09,1.465874
306.0038,0.04500642,0.0005805061,NaN,-0.3270103,0.0003383158,NaN,0.04196398,-14.16571,NaN,-2.142546,-1.45718,-0.317882,14.14903,NaN,NaN,-0.01989351,0.80415,1.702546E-06,1.016757,5.223366E-09,1.457184
306.0186,0.04500642,0.0005805061,NaN,-0.3270103,0.0003383158,NaN,0.04196398,-14.16571,NaN,-2.142546,-1.45718,-0.317882,14.14903,NaN,NaN,-0.01989351,0.80415,1.702546E-06,1.016757,5.223366E-09,1.457184
306.033,0.04500643,0.0005807061,NaN,-0.3270103,0.0003378565,NaN,0.02537196,-14.16639,NaN,-2.142222,-1.46775,-0.3152718,14.16006,NaN,NaN,-0.01988641,0.8033357,1.830249E-06,1.031973,2.83918E-09,1.465459
306.0484,0.04500643,0.0005811383,NaN,-0.3270102,0.0003373226,NaN,0.008062178,-14.16623,NaN,-2.141908,-1.468248,-0.3129463,14.16054,NaN,NaN,-0.01988017,0.8034592,1.942603E-06,1.032686,1.647087E-09,1.465057
306.0634,0.04500644,0.0005814638,NaN,-0.3270102,0.0003375299,NaN,-0.009510584,-14.1654,NaN,-2.141622,-1.458828,-0.3109266,14.15069,NaN,NaN,-0.0198748,0.8044687,2.040653E-06,1.019135,7.607551E-09,1.457588
306.0783,0.04500644,0.0005814638,NaN,-0.3270102,0.0003375299,NaN,-0.009510584,-14.1654,NaN,-2.141622,-1.458828,-0.3109266,14.15069,NaN,NaN,-0.0198748,0.8044687,2.040653E-06,1.019135,7.607551E-09,1.457588
306.0945,0.04500644,0.000581027,NaN,-0.3270102,0.0003374591,NaN,-0.02707166,-14.16518,NaN,-2.141361,-1.456074,-0.3091073,14.14779,NaN,NaN,-0.01986999,0.8047125,2.13006E-06,1.01516,6.415458E-09,1.454822
306.1082,0.04500645,0.0005808746,NaN,-0.3270101,0.0003368871,NaN,-0.04525341,-14.16568,NaN,-2.14105,-1.466139,-0.3065114,14.15829,NaN,NaN,-0.01986309,0.8040916,2.255528E-06,1.029661,9.991737E-09,1.461626
306.1229,0.04500645,0.0005812661,NaN,-0.32701,0.0003365921,NaN,-0.06407712,-14.16663,NaN,-2.140748,-1.465264,-0.3041768,14.15743,NaN,NaN,-0.01985697,0.803133,2.371906E-06,1.028356,8.799645E-09,1.466884
306.1379,0.04500645,0.0005812661,NaN,-0.32701,0.0003365921,NaN,-0.06407712,-14.16663,NaN,-2.140748,-1.465264,-0.3041768,14.15743,NaN,NaN,-0.01985697,0.803133,2.371906E-06,1.028356,8.799645E-09,1.466884
306.1522,0.04500646,0.0005811204,NaN,-0.32701,0.0003365472,NaN,-0.08311786,-14.16516,NaN,-2.140471,-1.457123,-0.3021386,14.14884,NaN,NaN,-0.01985168,0.804727,2.472936E-06,1.01666,8.799645E-09,1.455964
306.1675,0.04500646,0.0005808789,NaN,-0.32701,0.0003364695,NaN,-0.102115,-14.16608,NaN,-2.140219,-1.459604,-0.3002987,14.15149,NaN,NaN,-0.01984693,0.8037565,2.565323E-06,1.020205,1.237592E-08,1.460983
306.1829,0.04500647,0.00058035,NaN,-0.3270099,0.0003355814,NaN,-0.1217105,-14.1661,NaN,-2.139918,-1.468632,-0.2976825,14.16084,NaN,NaN,-0.01984016,0.8035825,2.694963E-06,1.033201,1.356802E-08,1.462185
306.1975,0.04500647,0.00058035,NaN,-0.3270099,0.0003355814,NaN,-0.1217105,-14.1661,NaN,-2.139918,-1.468632,-0.2976825,14.16084,NaN,NaN,-0.01984016,0.8035825,2.694963E-06,1.033201,1.356802E-08,1.462185
306.2119,0.04500648,0.0005795003,NaN,-0.3270099,0.0003343363,NaN,-0.141927,-14.16574,NaN,-2.139626,-1.469122,-0.295332,14.16129,NaN,NaN,-0.01983416,0.8039056,2.815364E-06,1.033907,1.714429E-08,1.461986
306.2275,0.04500648,0.0005798066,NaN,-0.3270098,0.0003342076,NaN,-0.1623389,-14.16504,NaN,-2.139359,-1.46387,-0.2932812,14.15576,NaN,NaN,-0.01982898,0.8046963,2.922057E-06,1.026348,2.072057E-08,1.453446
306.2424,0.04500649,0.0005802091,NaN,-0.3270098,0.0003345697,NaN,-0.1826864,-14.16577,NaN,-2.139117,-1.457863,-0.2914313,14.14956,NaN,NaN,-0.01982436,0.8040637,3.015338E-06,1.017654,2.072057E-08,1.45891
306.2574,0.04500649,0.0005802091,NaN,-0.3270098,0.0003345697,NaN,-0.1826864,-14.16577,NaN,-2.139117,-1.457863,-0.2914313,14.14956,NaN,NaN,-0.01982436,0.8040637,3.015338E-06,1.017654,2.072057E-08,1.45891
306.2716,0.04500649,0.0005805899,NaN,-0.3270098,0.0003347803,NaN,-0.2028463,-14.16605,NaN,-2.138895,-1.459739,-0.2897176,14.15152,NaN,NaN,-0.01982011,0.8037478,3.100871E-06,1.020342,1.833639E-08,1.461156
306.2873,0.04500649,0.0005810215,NaN,-0.3270097,0.0003344708,NaN,-0.2227652,-14.16615,NaN,-2.13869,-1.467422,-0.2881078,14.15948,NaN,NaN,-0.01981615,0.8035151,3.180741E-06,1.031403,1.714429E-08,1.466231
306.3031,0.0450065,0.0005805393,NaN,-0.3270097,0.0003340539,NaN,-0.2424219,-14.16604,NaN,-2.138498,-1.458137,-0.286586,14.14983,NaN,NaN,-0.01981245,0.8038105,3.258823E-06,1.018023,1.714429E-08,1.460559
306.3179,0.0450065,0.0005805393,NaN,-0.3270097,0.0003340539,NaN,-0.2424219,-14.16604,NaN,-2.138498,-1.458137,-0.286586,14.14983,NaN,NaN,-0.01981245,0.8038105,3.258823E-06,1.018023,1.714429E-08,1.460559
306.3324,0.0450065,0.0005801844,NaN,-0.3270097,0.0003339261,NaN,-0.2618093,-14.16543,NaN,-2.138319,-1.457902,-0.285144,14.14952,NaN,NaN,-0.01980896,0.8043947,3.333031E-06,1.017693,2.072057E-08,1.457513
306.3465,0.04500651,0.0005797276,NaN,-0.3270096,0.0003333703,NaN,-0.2809264,-14.16671,NaN,-2.138152,-1.463864,-0.2837769,14.15583,NaN,NaN,-0.01980568,0.8030367,3.400831E-06,1.026264,1.714429E-08,1.466391
306.3615,0.04500651,0.0005791829,NaN,-0.3270096,0.0003333239,NaN,-0.2997748,-14.16537,NaN,-2.137995,-1.456167,-0.2824815,14.14773,NaN,NaN,-0.01980261,0.8044916,3.467737E-06,1.015217,1.952848E-08,1.456471
306.3764,0.04500651,0.0005791829,NaN,-0.3270096,0.0003333239,NaN,-0.2997748,-14.16537,NaN,-2.137995,-1.456167,-0.2824815,14.14773,NaN,NaN,-0.01980261,0.8044916,3.467737E-06,1.015217,1.952848E-08,1.456471
306.3908,0.04500651,0.0005791527,NaN,-0.3270096,0.0003329182,NaN,-0.3183573,-14.16605,NaN,-2.137849,-1.465522,-0.2812553,14.15751,NaN,NaN,-0.01979972,0.8037074,3.533302E-06,1.028694,1.833639E-08,1.463813
306.4065,0.04500651,0.0005791176,NaN,-0.3270096,0.0003331404,NaN,-0.3366769,-14.16533,NaN,-2.137712,-1.457015,-0.2800959,14.14861,NaN,NaN,-0.01979702,0.8045772,3.594248E-06,1.016451,9.991736E-09,1.45664
306.4217,0.04500651,0.000579709,NaN,-0.3270095,0.0003329433,NaN,-0.354737,-14.16564,NaN,-2.137585,-1.466368,-0.2790014,14.15835,NaN,NaN,-0.01979449,0.8041435,3.649829E-06,1.029926,7.60755E-09,1.461882
306.4364,0.04500651,0.000579709,NaN,-0.3270095,0.0003329433,NaN,-0.354737,-14.16564,NaN,-2.137585,-1.466368,-0.2790014,14.15835,NaN,NaN,-0.01979449,0.8041435,3.649829E-06,1.029926,7.60755E-09,1.461882
306.4507,0.04500651,0.0005798657,NaN,-0.3270095,0.0003331101,NaN,-0.3725409,-14.16564,NaN,-2.137467,-1.457019,-0.2779697,14.14862,NaN,NaN,-0.01979213,0.8043079,3.700642E-06,1.016442,1.237592E-08,1.458009
306.4663,0.04500651,0.0005800199,NaN,-0.3270095,0.0003327132,NaN,-0.390092,-14.1671,NaN,-2.137358,-1.466762,-0.2769989,14.15887,NaN,NaN,-0.01978993,0.8027159,3.749965E-06,1.030454,1.118383E-08,1.469542
306.4814,0.04500651,0.0005798311,NaN,-0.3270094,0.0003317854,NaN,-0.4073937,-14.1652,NaN,-2.137258,-1.469063,-0.2760873,14.16108,NaN,NaN,-0.01978789,0.804536,3.797798E-06,1.033818,1.237592E-08,1.459115
306.4966,0.04500651,0.0005798311,NaN,-0.3270094,0.0003317854,NaN,-0.4073937,-14.1652,NaN,-2.137258,-1.469063,-0.2760873,14.16108,NaN,NaN,-0.01978789,0.804536,3.797798E-06,1.033818,1.237592E-08,1.459115
306.5129,0.04500651,0.000580157,NaN,-0.3270094,0.0003319382,NaN,-0.4244491,-14.16552,NaN,-2.137166,-1.460866,-0.2752329,14.15258,NaN,NaN,-0.01978599,0.8043867,3.84116E-06,1.021981,1.237592E-08,1.45838
306.5261,0.04500651,0.0005797195,NaN,-0.3270094,0.0003310345,NaN,-0.4412617,-14.16501,NaN,-2.137082,-1.467666,-0.2744341,14.15958,NaN,NaN,-0.01978425,0.8047802,3.88348E-06,1.031792,1.237592E-08,1.460157
306.5411,0.04500651,0.0005796865,NaN,-0.3270094,0.0003314307,NaN,-0.4578347,-14.16601,NaN,-2.137006,-1.456403,-0.2736892,14.14795,NaN,NaN,-0.01978264,0.8039915,3.92103E-06,1.015513,1.237592E-08,1.460767
306.5559,0.04500651,0.0005796865,NaN,-0.3270094,0.0003314307,NaN,-0.4578347,-14.16601,NaN,-2.137006,-1.456403,-0.2736892,14.14795,NaN,NaN,-0.01978264,0.8039915,3.92103E-06,1.015513,1.237592E-08,1.460767
306.57,0.04500651,0.0005798147,NaN,-0.3270093,0.0003310984,NaN,-0.4741712,-14.16695,NaN,-2.136938,-1.467226,-0.2729965,14.15926,NaN,NaN,-0.01978116,0.8029154,3.959475E-06,1.031091,1.476011E-08,1.469203
306.5857,0.04500651,0.0005800528,NaN,-0.3270093,0.0003313868,NaN,-0.4902745,-14.16658,NaN,-2.136877,-1.458969,-0.2723544,14.15067,NaN,NaN,-0.01977982,0.8034267,3.995834E-06,1.019211,1.476011E-08,1.463416
306.6006,0.04500651,0.0005801208,NaN,-0.3270093,0.0003315131,NaN,-0.5061477,-14.16676,NaN,-2.136823,-1.45964,-0.2717614,14.15136,NaN,NaN,-0.01977859,0.8032203,4.027275E-06,1.020165,1.476011E-08,1.463936
306.6155,0.04500651,0.0005801208,NaN,-0.3270093,0.0003315131,NaN,-0.5061477,-14.16676,NaN,-2.136823,-1.45964,-0.2717614,14.15136,NaN,NaN,-0.01977859,0.8032203,4.027275E-06,1.020165,1.476011E-08,1.463936
306.6298,0.04500651,0.0005798151,NaN,-0.3270092,0.0003308303,NaN,-0.5217939,-14.16635,NaN,-2.136776,-1.468325,-0.2712159,14.16031,NaN,NaN,-0.01977748,0.8034859,4.057972E-06,1.032674,1.237592E-08,1.462746
306.6454,0.04500651,0.0005791659,NaN,-0.3270092,0.000330559,NaN,-0.5372162,-14.16585,NaN,-2.136736,-1.458284,-0.2707163,14.14985,NaN,NaN,-0.01977649,0.8041824,4.083751E-06,1.018224,1.237592E-08,1.459966
306.6603,0.04500651,0.0005787188,NaN,-0.3270091,0.0003298434,NaN,-0.5524176,-14.16713,NaN,-2.136702,-1.467112,-0.2702614,14.15913,NaN,NaN,-0.01977561,0.8027999,4.107444E-06,1.030924,9.991737E-09,1.469463
306.6753,0.04500651,0.0005787188,NaN,-0.3270091,0.0003298434,NaN,-0.5524176,-14.16713,NaN,-2.136702,-1.467112,-0.2702614,14.15913,NaN,NaN,-0.01977561,0.8027999,4.107444E-06,1.030924,9.991737E-09,1.469463
306.6895,0.04500651,0.0005784288,NaN,-0.3270091,0.0003298971,NaN,-0.5674011,-14.16576,NaN,-2.136674,-1.457482,-0.2698496,14.14903,NaN,NaN,-0.01977484,0.8043426,4.128305E-06,1.017095,1.237592E-08,1.459014
306.7053,0.04500651,0.0005786771,NaN,-0.3270091,0.0003295169,NaN,-0.5821697,-14.16626,NaN,-2.136652,-1.467595,-0.2694796,14.15957,NaN,NaN,-0.01977417,0.803711,4.15021E-06,1.031655,1.952848E-08,1.466125
306.7211,0.0450065,0.0005787977,NaN,-0.3270091,0.0003297769,NaN,-0.5967264,-14.16594,NaN,-2.136637,-1.457352,-0.26915,14.1489,NaN,NaN,-0.01977359,0.8042358,4.171518E-06,1.016898,1.714429E-08,1.459753
306.735,0.0450065,0.0005787977,NaN,-0.3270091,0.0003297769,NaN,-0.5967264,-14.16594,NaN,-2.136637,-1.457352,-0.26915,14.1489,NaN,NaN,-0.01977359,0.8042358,4.171518E-06,1.016898,1.714429E-08,1.459753
306.7492,0.0450065,0.0005786675,NaN,-0.327009,0.0003291628,NaN,-0.6110739,-14.16698,NaN,-2.136627,-1.4682,-0.2688596,14.16025,NaN,NaN,-0.01977311,0.8030573,4.188804E-06,1.032508,1.714429E-08,1.467389
306.7647,0.04500649,0.000579071,NaN,-0.327009,0.0003288998,NaN,-0.6252153,-14.16729,NaN,-2.136622,-1.466439,-0.2686071,14.15842,NaN,NaN,-0.01977271,0.8027695,4.203854E-06,1.029949,1.714429E-08,1.47
306.7797,0.04500649,0.000579071,NaN,-0.327009,0.0003288998,NaN,-0.6252153,-14.16729,NaN,-2.136622,-1.466439,-0.2686071,14.15842,NaN,NaN,-0.01977271,0.8027695,4.203854E-06,1.029949,1.714429E-08,1.47
306.7953,0.04500649,0.0005795071,NaN,-0.327009,0.0003293116,NaN,-0.6391533,-14.16586,NaN,-2.136623,-1.458506,-0.2683912,14.15007,NaN,NaN,-0.01977241,0.8043346,4.218159E-06,1.018562,1.237592E-08,1.459877
306.8098,0.04500649,0.000579556,NaN,-0.3270089,0.0003289641,NaN,-0.6528907,-14.16728,NaN,-2.136629,-1.466151,-0.2682107,14.15813,NaN,NaN,-0.01977219,0.8028089,4.23008E-06,1.029546,9.991737E-09,1.468617
306.8248,0.04500648,0.0005797087,NaN,-0.3270089,0.0003291355,NaN,-0.6664303,-14.16664,NaN,-2.136639,-1.460047,-0.2680644,14.15173,NaN,NaN,-0.01977204,0.8035581,4.241107E-06,1.020768,1.237592E-08,1.463969
306.8398,0.04500648,0.0005797087,NaN,-0.3270089,0.0003291355,NaN,-0.6664303,-14.16664,NaN,-2.136639,-1.460047,-0.2680644,14.15173,NaN,NaN,-0.01977204,0.8035581,4.241107E-06,1.020768,1.237592E-08,1.463969
306.854,0.04500648,0.0005789847,NaN,-0.3270089,0.0003281796,NaN,-0.6797748,-14.16551,NaN,-2.136655,-1.469689,-0.2679513,14.1616,NaN,NaN,-0.01977198,0.8045277,4.250644E-06,1.034671,1.714429E-08,1.464416
306.8696,0.04500648,0.0005776507,NaN,-0.3270088,0.0003268474,NaN,-0.6929269,-14.1665,NaN,-2.136675,-1.469029,-0.2678702,14.16098,NaN,NaN,-0.01977199,0.8035254,4.26167E-06,1.033679,1.952848E-08,1.468065
306.8845,0.04500647,0.0005770311,NaN,-0.3270088,0.0003261828,NaN,-0.7058893,-14.16697,NaN,-2.136699,-1.463873,-0.2678201,14.15565,NaN,NaN,-0.01977207,0.8031471,4.26629E-06,1.026225,2.429685E-08,1.466756
306.8994,0.04500647,0.0005770311,NaN,-0.3270088,0.0003261828,NaN,-0.7058893,-14.16697,NaN,-2.136699,-1.463873,-0.2678201,14.15565,NaN,NaN,-0.01977207,0.8031471,4.26629E-06,1.026225,2.429685E-08,1.466756
306.9136,0.04500647,0.0005767843,NaN,-0.3270088,0.0003261995,NaN,-0.7186646,-14.16585,NaN,-2.136728,-1.458167,-0.2677997,14.14961,NaN,NaN,-0.01977222,0.8043449,4.269717E-06,1.018023,2.906522E-08,1.459269
306.9303,0.04500647,0.0005762281,NaN,-0.3270088,0.0003254142,NaN,-0.7312555,-14.16671,NaN,-2.136761,-1.467409,-0.2678083,14.15927,NaN,NaN,-0.01977243,0.8033502,4.271505E-06,1.031316,2.906522E-08,1.464276
306.9442,0.04500646,0.0005755419,NaN,-0.3270087,0.0003243226,NaN,-0.7436644,-14.16663,NaN,-2.136798,-1.469275,-0.2678446,14.16118,NaN,NaN,-0.0197727,0.8033542,4.271356E-06,1.033992,2.429685E-08,1.464149
306.959,0.04500646,0.0005755419,NaN,-0.3270087,0.0003243226,NaN,-0.7436644,-14.16663,NaN,-2.136798,-1.469275,-0.2678446,14.16118,NaN,NaN,-0.0197727,0.8033542,4.271356E-06,1.033992,2.429685E-08,1.464149
306.9732,0.04500646,0.0005749345,NaN,-0.3270087,0.0003240381,NaN,-0.7558939,-14.1659,NaN,-2.136839,-1.458202,-0.2679079,14.14962,NaN,NaN,-0.01977304,0.8043068,4.269046E-06,1.018056,2.191267E-08,1.460521
306.9889,0.04500645,0.0005746778,NaN,-0.3270087,0.0003238615,NaN,-0.7679465,-14.16669,NaN,-2.136884,-1.460996,-0.267997,14.15258,NaN,NaN,-0.01977343,0.803466,4.267109E-06,1.022056,2.429685E-08,1.463634
307.004,0.04500645,0.0005748839,NaN,-0.3270086,0.0003235066,NaN,-0.7798247,-14.16716,NaN,-2.136932,-1.466564,-0.2681112,14.15837,NaN,NaN,-0.01977388,0.802881,4.264949E-06,1.030054,2.191267E-08,1.469295
307.0189,0.04500645,0.0005748839,NaN,-0.3270086,0.0003235066,NaN,-0.7798247,-14.16716,NaN,-2.136932,-1.466564,-0.2681112,14.15837,NaN,NaN,-0.01977388,0.802881,4.264949E-06,1.030054,2.191267E-08,1.469295
307.0331,0.04500644,0.0005748136,NaN,-0.3270086,0.0003236171,NaN,-0.7915309,-14.16568,NaN,-2.136984,-1.457383,-0.2682495,14.14872,NaN,NaN,-0.01977438,0.8045152,4.260702E-06,1.01687,2.429685E-08,1.458114
307.0487,0.04500644,0.0005751624,NaN,-0.3270086,0.0003233216,NaN,-0.8030676,-14.16625,NaN,-2.137039,-1.467408,-0.268411,14.15917,NaN,NaN,-0.01977494,0.8038129,4.254667E-06,1.031304,1.952848E-08,1.46593
307.0638,0.04500643,0.0005757964,NaN,-0.3270085,0.0003240421,NaN,-0.814437,-14.16597,NaN,-2.137098,-1.457186,-0.268595,14.14852,NaN,NaN,-0.01977554,0.8042919,4.249079E-06,1.016573,1.476011E-08,1.460456
307.0787,0.04500643,0.0005757964,NaN,-0.3270085,0.0003240421,NaN,-0.814437,-14.16597,NaN,-2.137098,-1.457186,-0.268595,14.14852,NaN,NaN,-0.01977554,0.8042919,4.249079E-06,1.016573,1.476011E-08,1.460456
307.093,0.04500642,0.0005757648,NaN,-0.3270085,0.0003243092,NaN,-0.8256416,-14.16554,NaN,-2.137159,-1.456023,-0.2688004,14.14725,NaN,NaN,-0.01977619,0.8047071,4.240138E-06,1.014894,1.476011E-08,1.456078
307.1085,0.04500641,0.0005757964,NaN,-0.3270085,0.0003246245,NaN,-0.8366837,-14.16614,NaN,-2.137223,-1.456721,-0.2690267,14.14803,NaN,NaN,-0.01977688,0.8040891,4.232166E-06,1.015884,1.237592E-08,1.459651
307.1244,0.04500641,0.0005753678,NaN,-0.3270085,0.0003248485,NaN,-0.8475655,-14.16558,NaN,-2.137291,-1.454614,-0.269273,14.14577,NaN,NaN,-0.01977761,0.8046533,4.222331E-06,1.012851,1.476011E-08,1.455183
307.1385,0.04500641,0.0005753678,NaN,-0.3270085,0.0003248485,NaN,-0.8475655,-14.16558,NaN,-2.137291,-1.454614,-0.269273,14.14577,NaN,NaN,-0.01977761,0.8046533,4.222331E-06,1.012851,1.476011E-08,1.455183
307.153,0.0450064,0.0005757763,NaN,-0.3270084,0.0003246831,NaN,-0.8582892,-14.1665,NaN,-2.137361,-1.465763,-0.2695384,14.15744,NaN,NaN,-0.01977839,0.8036336,4.210857E-06,1.028914,9.991738E-09,1.465082
307.1682,0.04500639,0.0005756925,NaN,-0.3270084,0.0003246356,NaN,-0.8688573,-14.16614,NaN,-2.137434,-1.458452,-0.2698224,14.14982,NaN,NaN,-0.01977921,0.8041192,4.198787E-06,1.018386,5.223367E-09,1.461123
307.1833,0.04500638,0.0005756349,NaN,-0.3270084,0.0003241923,NaN,-0.8792717,-14.16692,NaN,-2.137509,-1.46562,-0.2701241,14.15732,NaN,NaN,-0.01978006,0.8032323,4.186494E-06,1.028699,4.549952E-10,1.465269
307.1982,0.04500638,0.0005756349,NaN,-0.3270084,0.0003241923,NaN,-0.8792717,-14.16692,NaN,-2.137509,-1.46562,-0.2701241,14.15732,NaN,NaN,-0.01978006,0.8032323,4.186494E-06,1.028699,4.549952E-10,1.465269
307.2126,0.04500638,0.0005752287,NaN,-0.3270083,0.0003241248,NaN,-0.8895348,-14.16582,NaN,-2.137587,-1.456593,-0.2704429,14.14786,NaN,NaN,-0.01978095,0.8044795,4.172561E-06,1.015723,2.839181E-09,1.458953
307.2281,0.04500637,0.0005744902,NaN,-0.3270083,0.0003240487,NaN,-0.8996486,-14.1654,NaN,-2.137667,-1.455775,-0.2707781,14.14695,NaN,NaN,-0.01978187,0.8048764,4.158107E-06,1.014543,7.607552E-09,1.45559
307.2433,0.04500636,0.000573752,NaN,-0.3270083,0.0003241668,NaN,-0.9096152,-14.16546,NaN,-2.13775,-1.454986,-0.271129,14.14612,NaN,NaN,-0.01978282,0.8048077,4.142237E-06,1.013397,5.223366E-09,1.454821
307.2594,0.04500636,0.000573752,NaN,-0.3270083,0.0003241668,NaN,-0.9096152,-14.16546,NaN,-2.13775,-1.454986,-0.271129,14.14612,NaN,NaN,-0.01978282,0.8048077,4.142237E-06,1.013397,5.223366E-09,1.454821
307.2724,0.04500635,0.0005733425,NaN,-0.3270082,0.0003242831,NaN,-0.9194368,-14.16636,NaN,-2.137835,-1.4585,-0.271495,14.14986,NaN,NaN,-0.01978381,0.8038591,4.124952E-06,1.01845,7.607552E-09,1.461422
307.2881,0.04500635,0.0005730673,NaN,-0.3270082,0.0003238009,NaN,-0.9291153,-14.16664,NaN,-2.137921,-1.466884,-0.2718754,14.15858,NaN,NaN,-0.01978483,0.8034595,4.108933E-06,1.030521,1.237592E-08,1.465728
307.303,0.04500634,0.0005730554,NaN,-0.3270082,0.0003242521,NaN,-0.9386529,-14.16579,NaN,-2.13801,-1.456022,-0.2722697,14.14723,NaN,NaN,-0.01978588,0.8045063,4.091126E-06,1.014894,1.237592E-08,1.457472
307.3177,0.04500634,0.0005730554,NaN,-0.3270082,0.0003242521,NaN,-0.9386529,-14.16579,NaN,-2.13801,-1.456022,-0.2722697,14.14723,NaN,NaN,-0.01978588,0.8045063,4.091126E-06,1.014894,1.237592E-08,1.457472
307.334,0.04500633,0.0005728498,NaN,-0.3270082,0.0003238351,NaN,-0.9480515,-14.16699,NaN,-2.138101,-1.4664,-0.2726772,14.15812,NaN,NaN,-0.01978695,0.803186,4.071158E-06,1.029835,1.237592E-08,1.466992
307.3476,0.04500632,0.0005726901,NaN,-0.3270081,0.0003241699,NaN,-0.957313,-14.16548,NaN,-2.138194,-1.45631,-0.2730975,14.14752,NaN,NaN,-0.01978805,0.8048738,4.052756E-06,1.015341,1.237592E-08,1.45604
307.3623,0.04500632,0.0005726477,NaN,-0.3270081,0.0003237774,NaN,-0.9664395,-14.16587,NaN,-2.138288,-1.465778,-0.2735298,14.15739,NaN,NaN,-0.01978917,0.8043671,4.031894E-06,1.028982,1.237592E-08,1.459452
307.3773,0.04500632,0.0005726477,NaN,-0.3270081,0.0003237774,NaN,-0.9664395,-14.16587,NaN,-2.138288,-1.465778,-0.2735298,14.15739,NaN,NaN,-0.01978917,0.8043671,4.031894E-06,1.028982,1.237592E-08,1.459452
307.3914,0.04500631,0.0005730473,NaN,-0.3270081,0.0003243537,NaN,-0.9754329,-14.16593,NaN,-2.138384,-1.456709,-0.2739737,14.14795,NaN,NaN,-0.01979032,0.804442,4.010586E-06,1.015891,9.991737E-09,1.458648
307.4072,0.0450063,0.0005734903,NaN,-0.327008,0.0003242543,NaN,-0.984295,-14.16673,NaN,-2.138482,-1.465101,-0.2744287,14.15673,NaN,NaN,-0.01979149,0.8035176,3.990767E-06,1.027968,9.991737E-09,1.466804
307.4222,0.04500629,0.0005733533,NaN,-0.327008,0.0003242148,NaN,-0.9930277,-14.16566,NaN,-2.138581,-1.458826,-0.2748943,14.15011,NaN,NaN,-0.01979268,0.8046565,3.969607E-06,1.018945,1.476011E-08,1.458724
307.4372,0.04500629,0.0005733533,NaN,-0.327008,0.0003242148,NaN,-0.9930277,-14.16566,NaN,-2.138581,-1.458826,-0.2748943,14.15011,NaN,NaN,-0.01979268,0.8046565,3.969607E-06,1.018945,1.476011E-08,1.458724
307.4516,0.04500628,0.0005722619,NaN,-0.327008,0.0003234824,NaN,-1.001633,-14.16627,NaN,-2.138682,-1.456888,-0.2753699,14.14814,NaN,NaN,-0.01979389,0.8040385,3.947479E-06,1.016129,1.952848E-08,1.459653
307.4671,0.04500627,0.000571171,NaN,-0.3270079,0.0003221265,NaN,-1.010112,-14.16721,NaN,-2.138784,-1.467307,-0.275855,14.15903,NaN,NaN,-0.01979512,0.8029612,3.923637E-06,1.031124,1.952848E-08,1.467175
307.4818,0.04500626,0.0005709665,NaN,-0.3270079,0.000321147,NaN,-1.018468,-14.16648,NaN,-2.138887,-1.466984,-0.2763492,14.15862,NaN,NaN,-0.01979636,0.8036674,3.900019E-06,1.030673,1.952848E-08,1.463613
307.4968,0.04500626,0.0005709665,NaN,-0.3270079,0.000321147,NaN,-1.018468,-14.16648,NaN,-2.138887,-1.466984,-0.2763492,14.15862,NaN,NaN,-0.01979636,0.8036674,3.900019E-06,1.030673,1.952848E-08,1.463613
307.5134,0.04500625,0.000570519,NaN,-0.3270079,0.0003205915,NaN,-1.026701,-14.16527,NaN,-2.138992,-1.459736,-0.2768521,14.15099,NaN,NaN,-0.01979762,0.8049891,3.877593E-06,1.020258,1.952848E-08,1.45475
307.5268,0.04500624,0.0005708742,NaN,-0.3270079,0.0003207428,NaN,-1.034814,-14.16606,NaN,-2.139098,-1.460863,-0.2773632,14.15222,NaN,NaN,-0.0197989,0.8041713,3.853304E-06,1.02186,1.714429E-08,1.461877
307.5428,0.04500623,0.0005713655,NaN,-0.3270078,0.0003213559,NaN,-1.042809,-14.16652,NaN,-2.139205,-1.456195,-0.2778821,14.1474,NaN,NaN,-0.0198002,0.8037555,3.828866E-06,1.015112,2.191267E-08,1.462776
307.5567,0.04500623,0.0005713655,NaN,-0.3270078,0.0003213559,NaN,-1.042809,-14.16652,NaN,-2.139205,-1.456195,-0.2778821,14.1474,NaN,NaN,-0.0198002,0.8037555,3.828866E-06,1.015112,2.191267E-08,1.462776
307.5707,0.04500622,0.0005713315,NaN,-0.3270078,0.0003209141,NaN,-1.050686,-14.16546,NaN,-2.139313,-1.46624,-0.2784083,14.15769,NaN,NaN,-0.01980151,0.8046818,3.803385E-06,1.029594,2.429685E-08,1.457049
307.5865,0.0450062,0.0005716564,NaN,-0.3270078,0.0003204387,NaN,-1.058448,-14.16728,NaN,-2.139422,-1.46876,-0.2789415,14.16045,NaN,NaN,-0.01980283,0.802781,3.777606E-06,1.033171,2.191267E-08,1.467638
307.6012,0.04500619,0.0005716843,NaN,-0.3270077,0.0003203481,NaN,-1.066097,-14.16599,NaN,-2.139532,-1.460226,-0.2794812,14.1515,NaN,NaN,-0.01980417,0.8042186,3.751231E-06,1.020924,1.476011E-08,1.457983
307.616,0.04500619,0.0005716843,NaN,-0.3270077,0.0003203481,NaN,-1.066097,-14.16599,NaN,-2.139532,-1.460226,-0.2794812,14.1515,NaN,NaN,-0.01980417,0.8042186,3.751231E-06,1.020924,1.476011E-08,1.457983
307.6304,0.04500618,0.0005712655,NaN,-0.3270077,0.0003203592,NaN,-1.073633,-14.1661,NaN,-2.139643,-1.4565,-0.2800271,14.14764,NaN,NaN,-0.01980552,0.8041415,3.724409E-06,1.015549,1.714429E-08,1.454599
307.646,0.04500617,0.0005709272,NaN,-0.3270077,0.0003203202,NaN,-1.081059,-14.16718,NaN,-2.139755,-1.460568,-0.2805787,14.15196,NaN,NaN,-0.01980688,0.8030112,3.699524E-06,1.021395,1.476011E-08,1.461927
307.661,0.04500616,0.0005709637,NaN,-0.3270077,0.0003208145,NaN,-1.088376,-14.16635,NaN,-2.139868,-1.455917,-0.2811359,14.14706,NaN,NaN,-0.01980825,0.8038884,3.671509E-06,1.014714,1.952848E-08,1.456304
307.6761,0.04500616,0.0005709637,NaN,-0.3270077,0.0003208145,NaN,-1.088376,-14.16635,NaN,-2.139868,-1.455917,-0.2811359,14.14706,NaN,NaN,-0.01980825,0.8038884,3.671509E-06,1.014714,1.952848E-08,1.456304
307.6902,0.04500615,0.0005706518,NaN,-0.3270076,0.000320288,NaN,-1.095586,-14.16717,NaN,-2.139982,-1.467598,-0.2816981,14.15926,NaN,NaN,-0.01980963,0.802949,3.644985E-06,1.031536,1.714429E-08,1.462948
307.7059,0.04500614,0.0005704713,NaN,-0.3270076,0.000320472,NaN,-1.102691,-14.1666,NaN,-2.140096,-1.458253,-0.282265,14.14953,NaN,NaN,-0.01981102,0.8036968,3.616524E-06,1.018097,2.191267E-08,1.458122
307.7224,0.04500613,0.0005705122,NaN,-0.3270076,0.00032011,NaN,-1.109691,-14.16745,NaN,-2.140211,-1.467731,-0.2828364,14.15943,NaN,NaN,-0.01981241,0.8027227,3.590894E-06,1.031731,1.476011E-08,1.467578
307.7356,0.04500613,0.0005705122,NaN,-0.3270076,0.00032011,NaN,-1.109691,-14.16745,NaN,-2.140211,-1.467731,-0.2828364,14.15943,NaN,NaN,-0.01981241,0.8027227,3.590894E-06,1.031731,1.476011E-08,1.467578
307.7521,0.04500611,0.0005708486,NaN,-0.3270075,0.0003203905,NaN,-1.116588,-14.16725,NaN,-2.140326,-1.460847,-0.2834119,14.15228,NaN,NaN,-0.01981382,0.803062,3.563178E-06,1.021826,1.237592E-08,1.462887
307.7653,0.0450061,0.0005707063,NaN,-0.3270075,0.0003199043,NaN,-1.123384,-14.16777,NaN,-2.140443,-1.467013,-0.2839913,14.1587,NaN,NaN,-0.01981523,0.8024359,3.53427E-06,1.030687,1.237592E-08,1.465808
307.7801,0.04500609,0.0005700403,NaN,-0.3270075,0.000319655,NaN,-1.130081,-14.16686,NaN,-2.140559,-1.457263,-0.2845741,14.14853,NaN,NaN,-0.01981664,0.8035454,3.506702E-06,1.016684,1.476011E-08,1.460025
307.7952,0.04500609,0.0005700403,NaN,-0.3270075,0.000319655,NaN,-1.130081,-14.16686,NaN,-2.140559,-1.457263,-0.2845741,14.14853,NaN,NaN,-0.01981664,0.8035454,3.506702E-06,1.016684,1.476011E-08,1.460025
307.8094,0.04500608,0.0005694327,NaN,-0.3270074,0.0003191485,NaN,-1.136679,-14.16712,NaN,-2.140677,-1.462923,-0.2851601,14.15443,NaN,NaN,-0.01981807,0.8032176,3.478837E-06,1.024835,1.476011E-08,1.461687
307.8251,0.04500607,0.0005690195,NaN,-0.3270074,0.0003192556,NaN,-1.14318,-14.16677,NaN,-2.140794,-1.456967,-0.2857491,14.14821,NaN,NaN,-0.01981949,0.8036528,3.450823E-06,1.016265,1.237592E-08,1.458041
307.8401,0.04500606,0.0005685606,NaN,-0.3270074,0.0003191842,NaN,-1.149585,-14.16723,NaN,-2.140912,-1.460097,-0.2863407,14.1515,NaN,NaN,-0.01982092,0.8031571,3.422213E-06,1.020764,9.991737E-09,1.46085
307.855,0.04500606,0.0005685606,NaN,-0.3270074,0.0003191842,NaN,-1.149585,-14.16723,NaN,-2.140912,-1.460097,-0.2863407,14.1515,NaN,NaN,-0.01982092,0.8031571,3.422213E-06,1.020764,9.991737E-09,1.46085
307.8692,0.04500605,0.0005684567,NaN,-0.3270074,0.0003192599,NaN,-1.155897,-14.1677,NaN,-2.141031,-1.461071,-0.2869347,14.15254,NaN,NaN,-0.01982236,0.8026613,3.393454E-06,1.022154,9.991737E-09,1.464861
307.8849,0.04500604,0.0005688058,NaN,-0.3270073,0.0003196929,NaN,-1.162116,-14.16753,NaN,-2.14115,-1.45865,-0.2875309,14.15001,NaN,NaN,-0.0198238,0.8028609,3.362757E-06,1.018671,1.237592E-08,1.464302
307.8997,0.04500604,0.0005688058,NaN,-0.3270073,0.0003196929,NaN,-1.162116,-14.16753,NaN,-2.14115,-1.45865,-0.2875309,14.15001,NaN,NaN,-0.0198238,0.8028609,3.362757E-06,1.018671,1.237592E-08,1.464302
307.914,0.04500603,0.0005688601,NaN,-0.3270073,0.0003192745,NaN,-1.168243,-14.1682,NaN,-2.141268,-1.467988,-0.288129,14.15974,NaN,NaN,-0.01982525,0.8020645,3.333551E-06,1.032099,5.223365E-09,1.470541
307.9296,0.04500601,0.0005688087,NaN,-0.3270073,0.000318547,NaN,-1.17428,-14.16735,NaN,-2.141388,-1.469451,-0.2887287,14.16118,NaN,NaN,-0.01982669,0.8028713,3.303451E-06,1.03423,1.237592E-08,1.463155
307.9444,0.045006,0.0005691089,NaN,-0.3270072,0.0003183617,NaN,-1.180229,-14.16683,NaN,-2.141508,-1.465024,-0.2893299,14.15654,NaN,NaN,-0.01982814,0.8034864,3.27484E-06,1.02787,1.714429E-08,1.460422
307.9602,0.04500599,0.0005688276,NaN,-0.3270072,0.0003171095,NaN,-1.18609,-14.16552,NaN,-2.141627,-1.466767,-0.2899323,14.15823,NaN,NaN,-0.01982959,0.8047537,3.245038E-06,1.030414,1.952848E-08,1.454184
307.9744,0.04500599,0.0005688276,NaN,-0.3270072,0.0003171095,NaN,-1.18609,-14.16552,NaN,-2.141627,-1.466767,-0.2899323,14.15823,NaN,NaN,-0.01982959,0.8047537,3.245038E-06,1.030414,1.952848E-08,1.454184
307.9885,0.04500598,0.0005686869,NaN,-0.3270072,0.0003160351,NaN,-1.191864,-14.1671,NaN,-2.141747,-1.468364,-0.2905356,14.16001,NaN,NaN,-0.01983105,0.803122,3.216577E-06,1.03267,2.668104E-08,1.459581
308.004,0.04500597,0.0005684262,NaN,-0.3270071,0.0003157261,NaN,-1.197554,-14.16597,NaN,-2.141867,-1.458399,-0.2911398,14.14958,NaN,NaN,-0.0198325,0.8044288,3.187668E-06,1.018349,2.668104E-08,1.451257
308.019,0.04500597,0.0005684262,NaN,-0.3270071,0.0003157261,NaN,-1.197554,-14.16597,NaN,-2.141867,-1.458399,-0.2911398,14.14958,NaN,NaN,-0.0198325,0.8044288,3.187668E-06,1.018349,2.668104E-08,1.451257
308.0332,0.04500596,0.000567538,NaN,-0.3270071,0.0003151677,NaN,-1.20316,-14.16679,NaN,-2.141988,-1.45898,-0.2917445,14.15025,NaN,NaN,-0.01983396,0.8035854,3.159356E-06,1.019166,2.429685E-08,1.457824
308.0488,0.04500595,0.0005664361,NaN,-0.3270071,0.0003140905,NaN,-1.208683,-14.16704,NaN,-2.142108,-1.467326,-0.2923496,14.15892,NaN,NaN,-0.01983542,0.8032196,3.131789E-06,1.031178,2.429685E-08,1.460576
308.0637,0.04500593,0.000565415,NaN,-0.3270071,0.0003128999,NaN,-1.214125,-14.16689,NaN,-2.142228,-1.468798,-0.2929549,14.16042,NaN,NaN,-0.01983687,0.8033113,3.103179E-06,1.033297,2.429685E-08,1.459044
308.0789,0.04500593,0.000565415,NaN,-0.3270071,0.0003128999,NaN,-1.214125,-14.16689,NaN,-2.142228,-1.468798,-0.2929549,14.16042,NaN,NaN,-0.01983687,0.8033113,3.103179E-06,1.033297,2.429685E-08,1.459044
308.093,0.04500592,0.0005648579,NaN,-0.327007,0.0003120373,NaN,-1.219487,-14.16664,NaN,-2.142349,-1.466952,-0.2935602,14.15848,NaN,NaN,-0.01983833,0.8035879,3.072781E-06,1.030642,2.668104E-08,1.455736
308.1086,0.0450059,0.0005647502,NaN,-0.327007,0.0003120896,NaN,-1.22477,-14.16635,NaN,-2.142469,-1.45963,-0.2941653,14.15085,NaN,NaN,-0.01983978,0.8040078,3.043425E-06,1.020095,2.429685E-08,1.452992
308.1237,0.04500589,0.00056416,NaN,-0.327007,0.0003120928,NaN,-1.229975,-14.16649,NaN,-2.142589,-1.456127,-0.2947702,14.14721,NaN,NaN,-0.01984123,0.8039027,3.014368E-06,1.015035,1.952848E-08,1.453264
308.1385,0.04500589,0.00056416,NaN,-0.327007,0.0003120928,NaN,-1.229975,-14.16649,NaN,-2.142589,-1.456127,-0.2947702,14.14721,NaN,NaN,-0.01984123,0.8039027,3.014368E-06,1.015035,1.952848E-08,1.453264
308.1531,0.04500587,0.0005632176,NaN,-0.3270069,0.0003118149,NaN,-1.235103,-14.16704,NaN,-2.142709,-1.458991,-0.2953745,14.15022,NaN,NaN,-0.01984268,0.80331,2.984715E-06,1.019148,1.952848E-08,1.457569
308.1694,0.04500586,0.0005627485,NaN,-0.3270069,0.0003120197,NaN,-1.240155,-14.16717,NaN,-2.14283,-1.457909,-0.2959781,14.1491,NaN,NaN,-0.01984413,0.8031814,2.955359E-06,1.017581,1.952848E-08,1.457796
308.1846,0.04500584,0.0005620859,NaN,-0.3270069,0.00031204,NaN,-1.245133,-14.16687,NaN,-2.14295,-1.457997,-0.296581,14.14915,NaN,NaN,-0.01984558,0.8034747,2.926451E-06,1.017708,1.952848E-08,1.45622
308.1981,0.04500584,0.0005620859,NaN,-0.3270069,0.00031204,NaN,-1.245133,-14.16687,NaN,-2.14295,-1.457997,-0.296581,14.14915,NaN,NaN,-0.01984558,0.8034747,2.926451E-06,1.017708,1.952848E-08,1.45622
308.2124,0.04500583,0.0005614474,NaN,-0.3270068,0.0003121044,NaN,-1.250037,-14.16699,NaN,-2.14307,-1.458244,-0.2971834,14.14941,NaN,NaN,-0.01984703,0.8033368,2.897245E-06,1.018057,1.71443E-08,1.45667
308.2278,0.04500581,0.0005614027,NaN,-0.3270068,0.0003118372,NaN,-1.254869,-14.1674,NaN,-2.143189,-1.466604,-0.2977846,14.15811,NaN,NaN,-0.01984847,0.8028243,2.868038E-06,1.030087,1.476011E-08,1.46457
308.2428,0.0450058,0.0005619983,NaN,-0.3270068,0.0003119757,NaN,-1.259628,-14.16788,NaN,-2.143309,-1.464557,-0.2983845,14.15601,NaN,NaN,-0.01984991,0.8023635,2.838236E-06,1.027117,1.71443E-08,1.464487
308.2578,0.0450058,0.0005619983,NaN,-0.3270068,0.0003119757,NaN,-1.259628,-14.16788,NaN,-2.143309,-1.464557,-0.2983845,14.15601,NaN,NaN,-0.01984991,0.8023635,2.838236E-06,1.027117,1.71443E-08,1.464487
308.2723,0.04500579,0.0005625864,NaN,-0.3270068,0.0003120426,NaN,-1.263556,-14.16796,NaN,-2.143497,-1.464701,-0.2998923,14.15615,NaN,NaN,-0.01985374,0.802263,2.763283E-06,1.027314,1.71443E-08,1.46518
308.2878,0.04500577,0.0005630954,NaN,-0.3270067,0.0003125184,NaN,-1.266575,-14.16643,NaN,-2.143701,-1.458899,-0.3012374,14.15,NaN,NaN,-0.01985713,0.8038844,2.697867E-06,1.019001,1.952848E-08,1.454362
308.3028,0.04500575,0.0005635144,NaN,-0.3270067,0.0003131899,NaN,-1.269087,-14.16696,NaN,-2.143897,-1.455136,-0.302367,14.14614,NaN,NaN,-0.01985994,0.803391,2.642435E-06,1.013566,2.429685E-08,1.457064
308.3176,0.04500575,0.0005635144,NaN,-0.3270067,0.0003131899,NaN,-1.269087,-14.16696,NaN,-2.143897,-1.455136,-0.302367,14.14614,NaN,NaN,-0.01985994,0.803391,2.642435E-06,1.013566,2.429685E-08,1.457064
308.3318,0.04500574,0.0005634158,NaN,-0.3270067,0.0003132281,NaN,-1.271346,-14.16732,NaN,-2.144082,-1.460289,-0.3033704,14.15151,NaN,NaN,-0.01986242,0.8029861,2.593261E-06,1.020981,2.429685E-08,1.459188
308.3474,0.04500572,0.00056342,NaN,-0.3270066,0.0003128227,NaN,-1.272716,-14.16799,NaN,-2.144326,-1.467397,-0.3052163,14.15893,NaN,NaN,-0.01986716,0.8022118,2.504524E-06,1.031198,2.668104E-08,1.465301
308.3622,0.04500571,0.0005634929,NaN,-0.3270066,0.0003131457,NaN,-1.273173,-14.16714,NaN,-2.144581,-1.457618,-0.3068655,14.14873,NaN,NaN,-0.01987136,0.8032554,2.425995E-06,1.017154,1.952848E-08,1.457408
308.3782,0.04500571,0.0005634929,NaN,-0.3270066,0.0003131457,NaN,-1.273173,-14.16714,NaN,-2.144581,-1.457618,-0.3068655,14.14873,NaN,NaN,-0.01987136,0.8032554,2.425995E-06,1.017154,1.952848E-08,1.457408
308.3914,0.04500569,0.0005630872,NaN,-0.3270066,0.0003125445,NaN,-1.273141,-14.16624,NaN,-2.144824,-1.467205,-0.3082777,14.15856,NaN,NaN,-0.01987493,0.8040258,2.357971E-06,1.030967,2.191267E-08,1.457043
308.4071,0.04500567,0.000562739,NaN,-0.3270065,0.0003117375,NaN,-1.272885,-14.16808,NaN,-2.145051,-1.469258,-0.3095479,14.16083,NaN,NaN,-0.01987813,0.8021305,2.296206E-06,1.033864,2.191267E-08,1.464599
308.422,0.04500565,0.0005621927,NaN,-0.3270065,0.0003115111,NaN,-1.271774,-14.16624,NaN,-2.145337,-1.458174,-0.3116473,14.14921,NaN,NaN,-0.01988359,0.8041916,2.194208E-06,1.017975,1.714429E-08,1.452092
308.4368,0.04500565,0.0005621927,NaN,-0.3270065,0.0003115111,NaN,-1.271774,-14.16624,NaN,-2.145337,-1.458174,-0.3116473,14.14921,NaN,NaN,-0.01988359,0.8041916,2.194208E-06,1.017975,1.714429E-08,1.452092
308.4509,0.04500563,0.0005622691,NaN,-0.3270065,0.000311154,NaN,-1.269786,-14.16723,NaN,-2.145633,-1.465166,-0.3135401,14.15656,NaN,NaN,-0.01988848,0.8031155,2.103683E-06,1.028034,1.714429E-08,1.457771
308.4666,0.04500562,0.0005627113,NaN,-0.3270065,0.0003113328,NaN,-1.267343,-14.16624,NaN,-2.145915,-1.462525,-0.3151854,14.15371,NaN,NaN,-0.0198927,0.804109,2.025005E-06,1.024239,2.191267E-08,1.450706
308.4815,0.0450056,0.000562506,NaN,-0.3270064,0.0003106582,NaN,-1.264708,-14.16623,NaN,-2.146179,-1.468745,-0.3166784,14.16014,NaN,NaN,-0.01989653,0.8039885,1.954523E-06,1.033191,2.668104E-08,1.453521
308.4969,0.0450056,0.000562506,NaN,-0.3270064,0.0003106582,NaN,-1.264708,-14.16623,NaN,-2.146179,-1.468745,-0.3166784,14.16014,NaN,NaN,-0.01989653,0.8039885,1.954523E-06,1.033191,2.668104E-08,1.453521
308.511,0.04500558,0.0005618071,NaN,-0.3270064,0.0003103668,NaN,-1.261256,-14.16623,NaN,-2.146502,-1.457949,-0.31899,14.14892,NaN,NaN,-0.01990263,0.8042,1.842801E-06,1.017623,2.668104E-08,1.452094
308.5266,0.04500556,0.0005616462,NaN,-0.3270064,0.0003106211,NaN,-1.25696,-14.1664,NaN,-2.146835,-1.457567,-0.3210874,14.14852,NaN,NaN,-0.01990812,0.8040173,1.741268E-06,1.017061,2.906522E-08,1.451879
308.5413,0.04500554,0.0005612297,NaN,-0.3270063,0.0003106919,NaN,-1.252242,-14.16624,NaN,-2.147152,-1.45809,-0.3229282,14.14903,NaN,NaN,-0.01991293,0.804153,1.653379E-06,1.01781,2.906522E-08,1.450871
308.5565,0.04500554,0.0005612297,NaN,-0.3270063,0.0003106919,NaN,-1.252242,-14.16624,NaN,-2.147152,-1.45809,-0.3229282,14.14903,NaN,NaN,-0.01991293,0.804153,1.653379E-06,1.01781,2.906522E-08,1.450871
308.5706,0.04500552,0.0005609803,NaN,-0.3270063,0.0003102663,NaN,-1.246613,-14.16756,NaN,-2.147524,-1.467257,-0.3255151,14.15867,NaN,NaN,-0.01991985,0.8027134,1.53004E-06,1.030997,3.144941E-08,1.461561
308.5874,0.0450055,0.0005611034,NaN,-0.3270063,0.000309785,NaN,-1.240116,-14.16728,NaN,-2.147902,-1.46813,-0.3278491,14.15953,NaN,NaN,-0.01992605,0.8029502,1.418048E-06,1.032251,3.383359E-08,1.459756
308.601,0.04500548,0.0005610505,NaN,-0.3270063,0.0003096561,NaN,-1.233204,-14.16605,NaN,-2.148261,-1.461457,-0.3299035,14.1525,NaN,NaN,-0.01993151,0.8042973,1.319868E-06,1.022674,3.860196E-08,1.451121
308.6163,0.04500548,0.0005610505,NaN,-0.3270063,0.0003096561,NaN,-1.233204,-14.16605,NaN,-2.148261,-1.461457,-0.3299035,14.1525,NaN,NaN,-0.01993151,0.8042973,1.319868E-06,1.022674,3.860196E-08,1.451121
308.6303,0.04500546,0.0005612304,NaN,-0.3270062,0.0003093331,NaN,-1.226153,-14.16744,NaN,-2.148597,-1.467333,-0.3317811,14.15872,NaN,NaN,-0.0199365,0.8028047,1.232212E-06,1.031108,3.860196E-08,1.459696
308.6472,0.04500544,0.0005616277,NaN,-0.3270062,0.0003095554,NaN,-1.218347,-14.16604,NaN,-2.14899,-1.462172,-0.3344557,14.15325,NaN,NaN,-0.01994377,0.8042873,1.104323E-06,1.023716,3.860196E-08,1.450858
308.6608,0.04500541,0.0005618432,NaN,-0.3270062,0.0003099701,NaN,-1.209761,-14.16628,NaN,-2.149391,-1.457117,-0.3369019,14.14801,NaN,NaN,-0.0199504,0.8041201,9.888389E-07,1.01642,4.098615E-08,1.450294
308.6762,0.04500541,0.0005618432,NaN,-0.3270062,0.0003099701,NaN,-1.209761,-14.16628,NaN,-2.149391,-1.457117,-0.3369019,14.14801,NaN,NaN,-0.0199504,0.8041201,9.888389E-07,1.01642,4.098615E-08,1.450294
308.6903,0.04500539,0.0005619588,NaN,-0.3270061,0.0003097738,NaN,-1.200813,-14.1675,NaN,-2.149775,-1.466134,-0.3390751,14.15749,NaN,NaN,-0.01995628,0.8028017,8.863189E-07,1.029393,4.337034E-08,1.459116
308.7059,0.04500537,0.0005618864,NaN,-0.3270061,0.0003096852,NaN,-1.191763,-14.16644,NaN,-2.150136,-1.461997,-0.34107,14.15311,NaN,NaN,-0.01996168,0.8039261,7.91026E-07,1.023466,4.098615E-08,1.452226
308.7211,0.04500535,0.0005620655,NaN,-0.3270061,0.0003091928,NaN,-1.181997,-14.16705,NaN,-2.150554,-1.469409,-0.3438565,14.16084,NaN,NaN,-0.01996941,0.8031902,6.601193E-07,1.034127,4.098615E-08,1.459826
308.7356,0.04500535,0.0005620655,NaN,-0.3270061,0.0003091928,NaN,-1.181997,-14.16705,NaN,-2.150554,-1.469409,-0.3438565,14.16084,NaN,NaN,-0.01996941,0.8031902,6.601193E-07,1.034127,4.098615E-08,1.459826
308.7498,0.04500533,0.0005623702,NaN,-0.327006,0.0003096425,NaN,-1.17148,-14.16664,NaN,-2.150982,-1.457968,-0.3464117,14.14894,NaN,NaN,-0.01997646,0.8038514,5.402394E-07,1.017663,4.337034E-08,1.452527
