JMolnar6/NonAnthroHands_User_Study/HandsLoggerWithURDF/tempdata/files/Reachy_JointMotion_gesture_9_46.csv
Time,r_shoulder,r_shoulder_x,r_upper_arm,r_forearm,r_wrist,r_wrist2hand,
691.8629,-0.2393456,-2.970392E-09,NaN,-0.5870523,-1.326829E-07,NaN,-0.2883645,-5.37681E-07,NaN,-0.9590431,2.021475E-05,0.4201659,7.515128E-08,NaN,NaN,-0.4872895,3.259578E-11,9.358946E-07,-1.109278E-07,-2.010434E-08,-2.622604E-08
691.8788,-0.2393456,-2.970392E-09,NaN,-0.5870523,-1.326829E-07,NaN,-0.2883645,-5.37681E-07,NaN,-0.9590431,2.021475E-05,0.4201659,7.515128E-08,NaN,NaN,-0.4872895,3.259578E-11,9.358946E-07,-1.109278E-07,-2.010434E-08,-2.622604E-08
691.8934,-0.2350176,-2.969676E-09,NaN,-0.5869257,-1.326813E-07,NaN,-0.2897134,-5.364145E-07,NaN,-0.9574989,2.021517E-05,0.4222292,7.381593E-08,NaN,NaN,-0.4871763,3.725239E-11,9.275499E-07,-1.109271E-07,-1.831621E-08,-2.861022E-08
691.9097,-0.2305292,-2.968961E-09,NaN,-0.5867925,-1.326798E-07,NaN,-0.2911343,-5.35148E-07,NaN,-0.9559134,2.021558E-05,0.4242841,7.248363E-08,NaN,NaN,-0.4870653,3.725239E-11,9.15629E-07,-1.109263E-07,-1.652807E-08,-2.622604E-08
691.9257,-0.2259627,-2.968245E-09,NaN,-0.586656,-1.326783E-07,NaN,-0.292558,-5.338816E-07,NaN,-0.9542928,2.0216E-05,0.426319,7.115586E-08,NaN,NaN,-0.4869565,4.1909E-11,8.977476E-07,-1.109256E-07,-1.414388E-08,-2.861022E-08
691.9413,-0.2213692,-2.96753E-09,NaN,-0.5865183,-1.326768E-07,NaN,-0.2939558,-5.326151E-07,NaN,-0.95265,2.021643E-05,0.4283282,6.983369E-08,NaN,NaN,-0.4868499,3.725239E-11,8.834425E-07,-1.109249E-07,-1.473993E-08,-2.622604E-08
691.9573,-0.2213692,-2.96753E-09,NaN,-0.5865183,-1.326768E-07,NaN,-0.2939558,-5.326151E-07,NaN,-0.95265,2.021643E-05,0.4283282,6.983369E-08,NaN,NaN,-0.4868499,3.725239E-11,8.834425E-07,-1.109249E-07,-1.473993E-08,-2.622604E-08
691.9727,-0.2171216,-2.966815E-09,NaN,-0.5863941,-1.326753E-07,NaN,-0.2946929,-5.313486E-07,NaN,-0.9509477,2.021685E-05,0.4295829,6.851788E-08,NaN,NaN,-0.4867912,4.1909E-11,8.607927E-07,-1.109242E-07,-1.354783E-08,-2.861022E-08
691.9891,-0.2131057,-2.966099E-09,NaN,-0.5862789,-1.326739E-07,NaN,-0.2952969,-5.300822E-07,NaN,-0.9493008,2.021729E-05,0.4307893,6.720898E-08,NaN,NaN,-0.4867337,3.725239E-11,8.429113E-07,-1.109235E-07,-1.295179E-08,-2.622604E-08
692.0049,-0.2092504,-2.965384E-09,NaN,-0.5861697,-1.326725E-07,NaN,-0.295839,-5.288157E-07,NaN,-0.9477088,2.021772E-05,0.4319598,6.590738E-08,NaN,NaN,-0.4866774,4.1909E-11,8.250299E-07,-1.109229E-07,-1.17597E-08,-2.861022E-08
692.0206,-0.2055113,-2.964669E-09,NaN,-0.5860647,-1.326711E-07,NaN,-0.2963501,-5.275492E-07,NaN,-0.9461629,2.021815E-05,0.4331007,6.461335E-08,NaN,NaN,-0.4866222,4.1909E-11,8.107248E-07,-1.109223E-07,-1.05676E-08,-2.622604E-08
692.0383,-0.2055113,-2.964669E-09,NaN,-0.5860647,-1.326711E-07,NaN,-0.2963501,-5.275492E-07,NaN,-0.9461629,2.021815E-05,0.4331007,6.461335E-08,NaN,NaN,-0.4866222,4.1909E-11,8.107248E-07,-1.109223E-07,-1.05676E-08,-2.622604E-08
692.0515,-0.2022021,-2.963954E-09,NaN,-0.5859765,-1.326697E-07,NaN,-0.2962171,-5.262827E-07,NaN,-0.9446055,2.021859E-05,0.4334941,6.332708E-08,NaN,NaN,-0.4866139,4.1909E-11,7.844988E-07,-1.109216E-07,-5.799231E-09,-2.861022E-08
692.0679,-0.199172,-2.963239E-09,NaN,-0.5858989,-1.326684E-07,NaN,-0.2959762,-5.250163E-07,NaN,-0.9431355,2.021903E-05,0.4338458,6.204868E-08,NaN,NaN,-0.4866059,3.259578E-11,7.654253E-07,-1.109211E-07,-6.991324E-09,-2.622604E-08
692.0836,-0.1963273,-2.962523E-09,NaN,-0.5858281,-1.326671E-07,NaN,-0.2956998,-5.237498E-07,NaN,-0.9417405,2.021946E-05,0.4341726,6.077824E-08,NaN,NaN,-0.486598,3.259578E-11,7.463519E-07,-1.109205E-07,-5.799231E-09,-2.861022E-08
692.0996,-0.1963273,-2.962523E-09,NaN,-0.5858281,-1.326671E-07,NaN,-0.2956998,-5.237498E-07,NaN,-0.9417405,2.021946E-05,0.4341726,6.077824E-08,NaN,NaN,-0.486598,3.259578E-11,7.463519E-07,-1.109205E-07,-5.799231E-09,-2.861022E-08
692.1146,-0.1939508,-2.961808E-09,NaN,-0.5857755,-1.326658E-07,NaN,-0.2947896,-5.224833E-07,NaN,-0.9403557,2.021989E-05,0.4337622,5.951579E-08,NaN,NaN,-0.4866361,3.725239E-11,7.237021E-07,-1.109199E-07,-1.295179E-08,-2.622604E-08
692.1309,-0.191873,-2.961093E-09,NaN,-0.5857341,-1.326645E-07,NaN,-0.2937891,-5.212169E-07,NaN,-0.9390731,2.022032E-05,0.4333197,5.826134E-08,NaN,NaN,-0.4866735,4.1909E-11,7.058207E-07,-1.109194E-07,-1.473993E-08,-2.861022E-08
692.1471,-0.189988,-2.960378E-09,NaN,-0.5856996,-1.326633E-07,NaN,-0.2927725,-5.199504E-07,NaN,-0.9378749,2.022076E-05,0.4328645,5.70149E-08,NaN,NaN,-0.4867101,3.725239E-11,6.927077E-07,-1.109189E-07,-1.414388E-08,-2.622604E-08
692.1628,-0.1882302,-2.959663E-09,NaN,-0.5856695,-1.32662E-07,NaN,-0.2917682,-5.186839E-07,NaN,-0.9367409,2.022119E-05,0.4324056,5.577646E-08,NaN,NaN,-0.4867461,4.1909E-11,6.772104E-07,-1.109184E-07,-1.116365E-08,-2.861022E-08
692.1785,-0.1882302,-2.959663E-09,NaN,-0.5856695,-1.32662E-07,NaN,-0.2917682,-5.186839E-07,NaN,-0.9367409,2.022119E-05,0.4324056,5.577646E-08,NaN,NaN,-0.4867461,4.1909E-11,6.772104E-07,-1.109184E-07,-1.116365E-08,-2.861022E-08
692.1937,-0.1869001,-2.958947E-09,NaN,-0.5856557,-1.326608E-07,NaN,-0.2901562,-5.174174E-07,NaN,-0.9356059,2.022163E-05,0.4312285,5.454597E-08,NaN,NaN,-0.4868272,3.725239E-11,6.533686E-07,-1.109179E-07,-1.295179E-08,-2.622604E-08
692.2097,-0.1858389,-2.958232E-09,NaN,-0.5856519,-1.326596E-07,NaN,-0.2884735,-5.16151E-07,NaN,-0.9345641,2.022205E-05,0.4300351,5.332343E-08,NaN,NaN,-0.4869067,4.656562E-11,6.342951E-07,-1.109174E-07,-1.354784E-08,-2.861022E-08
692.2259,-0.1849479,-2.957517E-09,NaN,-0.5856534,-1.326584E-07,NaN,-0.2867901,-5.148845E-07,NaN,-0.9336002,2.02225E-05,0.4288442,5.210877E-08,NaN,NaN,-0.4869847,3.72524E-11,6.1999E-07,-1.10917E-07,-1.593202E-08,-2.622604E-08
692.2415,-0.1841656,-2.956802E-09,NaN,-0.5856578,-1.326573E-07,NaN,-0.2851326,-5.13618E-07,NaN,-0.9326954,2.022294E-05,0.4276638,5.090198E-08,NaN,NaN,-0.4870611,3.72524E-11,6.044928E-07,-1.109165E-07,-1.652807E-08,-2.861022E-08
692.2576,-0.1841656,-2.956802E-09,NaN,-0.5856578,-1.326573E-07,NaN,-0.2851326,-5.13618E-07,NaN,-0.9326954,2.022294E-05,0.4276638,5.090198E-08,NaN,NaN,-0.4870611,3.72524E-11,6.044928E-07,-1.109165E-07,-1.652807E-08,-2.861022E-08
692.2726,-0.1837952,-2.956086E-09,NaN,-0.5856778,-1.326562E-07,NaN,-0.282878,-5.123516E-07,NaN,-0.9317855,2.022338E-05,0.4257779,4.9703E-08,NaN,NaN,-0.4871819,3.259578E-11,5.854193E-07,-1.109161E-07,-2.248853E-08,-2.622604E-08
692.2891,-0.1836798,-2.955371E-09,NaN,-0.5857068,-1.32655E-07,NaN,-0.2805661,-5.110851E-07,NaN,-0.9309658,2.022382E-05,0.4238884,4.851178E-08,NaN,NaN,-0.4873003,2.793917E-11,5.699221E-07,-1.109157E-07,-2.189249E-08,-2.861022E-08
692.3047,-0.1837209,-2.954655E-09,NaN,-0.5857411,-1.32654E-07,NaN,-0.2782668,-5.098186E-07,NaN,-0.9302217,2.022427E-05,0.4220138,4.732829E-08,NaN,NaN,-0.4874164,2.328256E-11,5.55617E-07,-1.109153E-07,-2.248853E-08,-2.622604E-08
692.3204,-0.1838579,-2.95394E-09,NaN,-0.5857783,-1.326529E-07,NaN,-0.2760062,-5.085521E-07,NaN,-0.9295349,2.02247E-05,0.4201623,4.615248E-08,NaN,NaN,-0.4875303,2.328256E-11,5.389277E-07,-1.109149E-07,-2.129644E-08,-2.861022E-08
692.3365,-0.1838579,-2.95394E-09,NaN,-0.5857783,-1.326529E-07,NaN,-0.2760062,-5.085521E-07,NaN,-0.9295349,2.02247E-05,0.4201623,4.615248E-08,NaN,NaN,-0.4875303,2.328256E-11,5.389277E-07,-1.109149E-07,-2.129644E-08,-2.861022E-08
692.3515,-0.184395,-2.953224E-09,NaN,-0.5858306,-1.326518E-07,NaN,-0.2731589,-5.072857E-07,NaN,-0.9288403,2.022515E-05,0.4176151,4.498429E-08,NaN,NaN,-0.4876877,1.862595E-11,5.174701E-07,-1.109146E-07,-2.070039E-08,-2.622604E-08
692.3685,-0.1851755,-2.952508E-09,NaN,-0.5858915,-1.326508E-07,NaN,-0.2702677,-5.060192E-07,NaN,-0.9282342,2.022559E-05,0.4150763,4.382368E-08,NaN,NaN,-0.4878421,1.862595E-11,5.007808E-07,-1.109142E-07,-1.891225E-08,-2.861022E-08
692.3837,-0.1861021,-2.951793E-09,NaN,-0.585957,-1.326498E-07,NaN,-0.2674015,-5.047527E-07,NaN,-0.9277015,2.022603E-05,0.4125642,4.26706E-08,NaN,NaN,-0.4879935,1.396934E-11,4.817073E-07,-1.109139E-07,-1.712411E-08,-2.622604E-08
692.3997,-0.1861021,-2.951793E-09,NaN,-0.585957,-1.326498E-07,NaN,-0.2674015,-5.047527E-07,NaN,-0.9277015,2.022603E-05,0.4125642,4.26706E-08,NaN,NaN,-0.4879935,1.396934E-11,4.817073E-07,-1.109139E-07,-1.712411E-08,-2.622604E-08
692.4146,-0.1871143,-2.951077E-09,NaN,-0.5860248,-1.326488E-07,NaN,-0.2645864,-5.034863E-07,NaN,-0.9272242,2.022647E-05,0.4100866,4.1525E-08,NaN,NaN,-0.4881418,1.396934E-11,4.674022E-07,-1.109136E-07,-1.473993E-08,-2.861022E-08
692.431,-0.1885162,-2.950361E-09,NaN,-0.5861073,-1.326478E-07,NaN,-0.261194,-5.022198E-07,NaN,-0.926737,2.02269E-05,0.4069209,4.038684E-08,NaN,NaN,-0.4883331,1.396934E-11,4.447525E-07,-1.109133E-07,-1.05676E-08,-2.622604E-08
692.4467,-0.1901512,-2.949645E-09,NaN,-0.5861976,-1.326468E-07,NaN,-0.2577708,-5.009533E-07,NaN,-0.9263364,2.022734E-05,0.4037752,3.925607E-08,NaN,NaN,-0.4885207,1.862595E-11,4.268711E-07,-1.10913E-07,-6.991325E-09,-2.861022E-08
692.4622,-0.191922,-2.94893E-09,NaN,-0.586292,-1.326459E-07,NaN,-0.2543849,-4.996868E-07,NaN,-0.9260076,2.022777E-05,0.4006673,3.813264E-08,NaN,NaN,-0.4887046,2.328256E-11,4.12566E-07,-1.109127E-07,-8.779464E-09,-2.622604E-08
692.4782,-0.191922,-2.94893E-09,NaN,-0.586292,-1.326459E-07,NaN,-0.2543849,-4.996868E-07,NaN,-0.9260076,2.022777E-05,0.4006673,3.813264E-08,NaN,NaN,-0.4887046,2.328256E-11,4.12566E-07,-1.109127E-07,-8.779464E-09,-2.622604E-08
692.4939,-0.1937683,-2.948214E-09,NaN,-0.5863881,-1.32645E-07,NaN,-0.2510617,-4.984204E-07,NaN,-0.9257326,2.02282E-05,0.3976045,3.70165E-08,NaN,NaN,-0.4888848,2.793917E-11,4.018371E-07,-1.109125E-07,-1.17597E-08,-2.861022E-08
692.5098,-0.1959943,-2.947498E-09,NaN,-0.5864983,-1.32644E-07,NaN,-0.24717,-4.971539E-07,NaN,-0.9254453,2.022864E-05,0.3938593,3.590761E-08,NaN,NaN,-0.4891074,2.328256E-11,3.839557E-07,-1.109122E-07,-1.05676E-08,-2.622604E-08
692.5256,-0.1984435,-2.946782E-09,NaN,-0.5866158,-1.326432E-07,NaN,-0.2432602,-4.958874E-07,NaN,-0.9252427,2.022907E-05,0.3901454,3.480592E-08,NaN,NaN,-0.4893256,2.328256E-11,3.684585E-07,-1.10912E-07,-1.235574E-08,-2.861022E-08
692.5424,-0.2010187,-2.946066E-09,NaN,-0.5867367,-1.326423E-07,NaN,-0.2393992,-4.94621E-07,NaN,-0.9251102,2.022951E-05,0.3864795,3.371138E-08,NaN,NaN,-0.4895395,2.328256E-11,3.517692E-07,-1.109118E-07,-2.819E-09,-2.622604E-08
692.5569,-0.2010187,-2.946066E-09,NaN,-0.5867367,-1.326423E-07,NaN,-0.2393992,-4.94621E-07,NaN,-0.9251102,2.022951E-05,0.3864795,3.371138E-08,NaN,NaN,-0.4895395,2.328256E-11,3.517692E-07,-1.109118E-07,-2.819E-09,-2.622604E-08
692.5718,-0.2036597,-2.94535E-09,NaN,-0.5868589,-1.326414E-07,NaN,-0.2356118,-4.933545E-07,NaN,-0.9250298,2.022995E-05,0.3828689,3.262394E-08,NaN,NaN,-0.4897492,2.328256E-11,3.338878E-07,-1.109116E-07,-3.415046E-09,-2.861022E-08
692.5884,-0.2066709,-2.944634E-09,NaN,-0.5869948,-1.326406E-07,NaN,-0.231264,-4.92088E-07,NaN,-0.9249347,2.02304E-05,0.37858,3.154356E-08,NaN,NaN,-0.4900005,1.396933E-11,3.171985E-07,-1.109114E-07,-4.60714E-09,-2.622604E-08
692.6044,-0.2098958,-2.943918E-09,NaN,-0.5871374,-1.326398E-07,NaN,-0.2269102,-4.908215E-07,NaN,-0.9249225,2.023084E-05,0.3743333,3.04702E-08,NaN,NaN,-0.490247,9.312722E-12,3.005092E-07,-1.109112E-07,-9.971558E-09,-2.861022E-08
692.6201,-0.2132375,-2.943203E-09,NaN,-0.587283,-1.32639E-07,NaN,-0.2226161,-4.895551E-07,NaN,-0.9249786,2.023128E-05,0.3701445,2.940381E-08,NaN,NaN,-0.4904886,4.656109E-12,2.873962E-07,-1.109111E-07,-8.183418E-09,-2.622604E-08
692.6362,-0.2132375,-2.943203E-09,NaN,-0.587283,-1.32639E-07,NaN,-0.2226161,-4.895551E-07,NaN,-0.9249786,2.023128E-05,0.3701445,2.940381E-08,NaN,NaN,-0.4904886,4.656109E-12,2.873962E-07,-1.109111E-07,-8.183418E-09,-2.622604E-08
692.6511,-0.2166357,-2.942487E-09,NaN,-0.5874293,-1.326382E-07,NaN,-0.2184057,-4.882886E-07,NaN,-0.9250851,2.023172E-05,0.3660204,2.834434E-08,NaN,NaN,-0.4907254,-5.039372E-16,2.707069E-07,-1.109109E-07,-6.991326E-09,-2.861022E-08
692.6675,-0.2203951,-2.941771E-09,NaN,-0.5875888,-1.326374E-07,NaN,-0.2136423,-4.870221E-07,NaN,-0.9251747,2.023217E-05,0.3612207,2.729175E-08,NaN,NaN,-0.4910034,-4.657117E-12,2.528255E-07,-1.109108E-07,-1.05676E-08,-2.622604E-08
692.6832,-0.2243593,-2.941055E-09,NaN,-0.5877547,-1.326367E-07,NaN,-0.2088846,-4.857557E-07,NaN,-0.9253451,2.023261E-05,0.3564739,2.624599E-08,NaN,NaN,-0.491276,-9.313729E-12,2.313678E-07,-1.109107E-07,-4.60714E-09,-2.861022E-08
692.6991,-0.2243593,-2.941055E-09,NaN,-0.5877547,-1.326367E-07,NaN,-0.2088846,-4.857557E-07,NaN,-0.9253451,2.023261E-05,0.3564739,2.624599E-08,NaN,NaN,-0.491276,-9.313729E-12,2.313678E-07,-1.109107E-07,-4.60714E-09,-2.861022E-08
692.7142,-0.2284313,-2.940339E-09,NaN,-0.587923,-1.326359E-07,NaN,-0.2041966,-4.844892E-07,NaN,-0.9255821,2.023305E-05,0.3517944,2.520703E-08,NaN,NaN,-0.4915431,-1.397034E-11,2.134864E-07,-1.109106E-07,-6.39528E-09,-2.622604E-08
692.7306,-0.2325511,-2.939623E-09,NaN,-0.5880917,-1.326352E-07,NaN,-0.1996019,-4.832227E-07,NaN,-0.925868,2.023348E-05,0.3471885,2.41748E-08,NaN,NaN,-0.491805,-9.313729E-12,1.967971E-07,-1.109105E-07,-3.415048E-09,-2.861022E-08
692.7466,-0.2370235,-2.938906E-09,NaN,-0.5882733,-1.326345E-07,NaN,-0.194461,-4.819562E-07,NaN,-0.9261347,2.023392E-05,0.3419084,2.314928E-08,NaN,NaN,-0.4921075,-4.657117E-12,1.741473E-07,-1.109104E-07,-1.626908E-09,-2.622604E-08
692.7625,-0.2416921,-2.93819E-09,NaN,-0.5884607,-1.326338E-07,NaN,-0.1893367,-4.806898E-07,NaN,-0.9264804,2.023435E-05,0.3366916,2.213042E-08,NaN,NaN,-0.4924041,4.656109E-12,1.57458E-07,-1.109103E-07,-4.011094E-09,-2.861022E-08
692.7782,-0.2416921,-2.93819E-09,NaN,-0.5884607,-1.326338E-07,NaN,-0.1893367,-4.806898E-07,NaN,-0.9264804,2.023435E-05,0.3366916,2.213042E-08,NaN,NaN,-0.4924041,4.656109E-12,1.57458E-07,-1.109103E-07,-4.011094E-09,-2.861022E-08
692.7935,-0.2464601,-2.937474E-09,NaN,-0.5886503,-1.326332E-07,NaN,-0.1842918,-4.794233E-07,NaN,-0.926891,2.023478E-05,0.3315511,2.111817E-08,NaN,NaN,-0.4926949,4.656109E-12,1.455371E-07,-1.109103E-07,-3.415048E-09,-2.622604E-08
692.8099,-0.2512676,-2.936758E-09,NaN,-0.5888398,-1.326325E-07,NaN,-0.1793489,-4.781568E-07,NaN,-0.927349,2.023522E-05,0.3264926,2.011249E-08,NaN,NaN,-0.4929799,4.656109E-12,1.324241E-07,-1.109102E-07,-5.203187E-09,-2.861022E-08
692.826,-0.2564195,-2.936042E-09,NaN,-0.5890418,-1.326319E-07,NaN,-0.1738661,-4.768904E-07,NaN,-0.9277856,2.023566E-05,0.3207604,1.911335E-08,NaN,NaN,-0.4933051,-5.039372E-16,1.05006E-07,-1.109102E-07,-4.607141E-09,-2.622604E-08
692.8417,-0.2617595,-2.935326E-09,NaN,-0.5892494,-1.326312E-07,NaN,-0.1684104,-4.756239E-07,NaN,-0.9282994,2.02361E-05,0.3151015,1.812069E-08,NaN,NaN,-0.4936239,-4.657117E-12,8.593247E-08,-1.109102E-07,-7.587373E-09,-2.861022E-08
692.8579,-0.2617595,-2.935326E-09,NaN,-0.5892494,-1.326312E-07,NaN,-0.1684104,-4.756239E-07,NaN,-0.9282994,2.02361E-05,0.3151015,1.812069E-08,NaN,NaN,-0.4936239,-4.657117E-12,8.593247E-08,-1.109102E-07,-7.587373E-09,-2.861022E-08
692.8728,-0.2671908,-2.93461E-09,NaN,-0.5894586,-1.326306E-07,NaN,-0.1630428,-4.743574E-07,NaN,-0.9288766,2.023654E-05,0.3095274,1.713447E-08,NaN,NaN,-0.4939364,-9.313729E-12,7.043526E-08,-1.109102E-07,-6.991326E-09,-2.622604E-08
692.8893,-0.2726536,-2.933894E-09,NaN,-0.5896676,-1.3263E-07,NaN,-0.1577854,-4.730909E-07,NaN,-0.9294998,2.023698E-05,0.3040434,1.615466E-08,NaN,NaN,-0.4942427,-9.313729E-12,5.493806E-08,-1.109102E-07,-8.183419E-09,-2.861022E-08
692.9053,-0.2784531,-2.933177E-09,NaN,-0.5898887,-1.326295E-07,NaN,-0.1519941,-4.718245E-07,NaN,-0.9300997,2.023743E-05,0.2978854,1.51812E-08,NaN,NaN,-0.4945888,-1.862695E-11,2.632783E-08,-1.109102E-07,-5.799234E-09,-2.622604E-08
692.9205,-0.2844331,-2.932461E-09,NaN,-0.590115,-1.326289E-07,NaN,-0.1462394,-4.70558E-07,NaN,-0.9307749,2.023787E-05,0.2918101,1.421407E-08,NaN,NaN,-0.4949281,-1.862695E-11,2.485971E-09,-1.109102E-07,-1.030862E-09,-2.861022E-08
692.9367,-0.2844331,-2.932461E-09,NaN,-0.590115,-1.326289E-07,NaN,-0.1462394,-4.70558E-07,NaN,-0.9307749,2.023787E-05,0.2918101,1.421407E-08,NaN,NaN,-0.4949281,-1.862695E-11,2.485971E-09,-1.109102E-07,-1.030862E-09,-2.861022E-08
692.9514,-0.2904966,-2.931745E-09,NaN,-0.5903426,-1.326283E-07,NaN,-0.1405811,-4.692915E-07,NaN,-0.9315121,2.023831E-05,0.285828,1.325322E-08,NaN,NaN,-0.4952606,-2.794018E-11,-1.777961E-08,-1.109103E-07,2.545417E-09,-2.622604E-08
692.9681,-0.2965841,-2.931028E-09,NaN,-0.5905697,-1.326278E-07,NaN,-0.1350406,-4.680251E-07,NaN,-0.9322942,2.023875E-05,0.2799437,1.22986E-08,NaN,NaN,-0.4955866,-2.794018E-11,-2.970054E-08,-1.109103E-07,-1.626909E-09,-2.861022E-08
692.9846,-0.303001,-2.930312E-09,NaN,-0.5908087,-1.326273E-07,NaN,-0.1289715,-4.667586E-07,NaN,-0.9330511,2.02392E-05,0.2733841,1.135019E-08,NaN,NaN,-0.495952,-3.725341E-11,-5.354239E-08,-1.109104E-07,-1.030862E-09,-2.622604E-08
692.9998,-0.303001,-2.930312E-09,NaN,-0.5908087,-1.326273E-07,NaN,-0.1289715,-4.667586E-07,NaN,-0.9330511,2.02392E-05,0.2733841,1.135019E-08,NaN,NaN,-0.495952,-3.725341E-11,-5.354239E-08,-1.109104E-07,-1.030862E-09,-2.622604E-08
693.0148,-0.3095908,-2.929595E-09,NaN,-0.5910525,-1.326268E-07,NaN,-0.1229481,-4.654921E-07,NaN,-0.9338818,2.023964E-05,0.2669166,1.040793E-08,NaN,NaN,-0.4963101,-3.725341E-11,-7.619216E-08,-1.109105E-07,2.545416E-09,-2.861022E-08
693.0313,-0.316257,-2.928879E-09,NaN,-0.5912974,-1.326263E-07,NaN,-0.1170287,-4.642256E-07,NaN,-0.9347731,2.024008E-05,0.2605501,9.471784E-09,NaN,NaN,-0.4966612,-3.725341E-11,-9.407355E-08,-1.109106E-07,2.545416E-09,-2.622604E-08
693.0483,-0.3229399,-2.928162E-09,NaN,-0.5915413,-1.326258E-07,NaN,-0.1112341,-4.629592E-07,NaN,-0.9357082,2.024051E-05,0.2542887,8.541719E-09,NaN,NaN,-0.4970053,-3.725341E-11,-1.155312E-07,-1.109107E-07,5.525648E-09,-2.861022E-08
693.063,-0.3299451,-2.927446E-09,NaN,-0.5917971,-1.326254E-07,NaN,-0.1049159,-4.616927E-07,NaN,-0.9366166,2.024096E-05,0.2473504,7.617693E-09,NaN,NaN,-0.4973884,-4.656663E-11,-1.465256E-07,-1.109108E-07,1.94937E-09,-2.622604E-08
693.0786,-0.3299451,-2.927446E-09,NaN,-0.5917971,-1.326254E-07,NaN,-0.1049159,-4.616927E-07,NaN,-0.9366166,2.024096E-05,0.2473504,7.617693E-09,NaN,NaN,-0.4973884,-4.656663E-11,-1.465256E-07,-1.109108E-07,1.94937E-09,-2.622604E-08
693.094,-0.3371163,-2.926729E-09,NaN,-0.5920574,-1.326249E-07,NaN,-0.09865161,-4.604262E-07,NaN,-0.9375972,2.02414E-05,0.2405129,6.699666E-09,NaN,NaN,-0.4977639,-4.656663E-11,-1.703675E-07,-1.109109E-07,2.545416E-09,-2.861022E-08
693.1103,-0.344357,-2.926012E-09,NaN,-0.5923184,-1.326245E-07,NaN,-0.09249837,-4.591598E-07,NaN,-0.9386373,2.024185E-05,0.2337838,5.787598E-09,NaN,NaN,-0.4981321,-5.587986E-11,-1.942093E-07,-1.10911E-07,2.545416E-09,-2.622604E-08
693.1261,-0.3516074,-2.925295E-09,NaN,-0.5925783,-1.326241E-07,NaN,-0.08647622,-4.578933E-07,NaN,-0.9397202,2.024228E-05,0.2271671,4.881453E-09,NaN,NaN,-0.4984929,-5.122324E-11,-2.108986E-07,-1.109112E-07,5.525648E-09,-2.861022E-08
693.1418,-0.3591735,-2.924579E-09,NaN,-0.5928497,-1.326237E-07,NaN,-0.07993514,-4.566268E-07,NaN,-0.9407752,2.024271E-05,0.2198711,3.98119E-09,NaN,NaN,-0.4988924,-4.656663E-11,-2.454694E-07,-1.109113E-07,6.717741E-09,-2.622604E-08
693.1577,-0.3591735,-2.924579E-09,NaN,-0.5928497,-1.326237E-07,NaN,-0.07993514,-4.566268E-07,NaN,-0.9407752,2.024271E-05,0.2198711,3.98119E-09,NaN,NaN,-0.4988924,-4.656663E-11,-2.454694E-07,-1.109113E-07,6.717741E-09,-2.622604E-08
693.1727,-0.366899,-2.923862E-09,NaN,-0.5931255,-1.326233E-07,NaN,-0.07345562,-4.553604E-07,NaN,-0.941901,2.024315E-05,0.2126841,3.086771E-09,NaN,NaN,-0.499284,-5.122324E-11,-2.693112E-07,-1.109115E-07,4.929602E-09,-2.861022E-08
693.189,-0.3746872,-2.923145E-09,NaN,-0.5934017,-1.326229E-07,NaN,-0.06709354,-4.540939E-07,NaN,-0.9430852,2.02436E-05,0.2056129,2.19816E-09,NaN,NaN,-0.4996679,-5.587986E-11,-2.967294E-07,-1.109117E-07,9.101926E-09,-2.622604E-08
693.2051,-0.3824786,-2.922428E-09,NaN,-0.5936765,-1.326225E-07,NaN,-0.06086824,-4.528274E-07,NaN,-0.9443114,2.024403E-05,0.1986607,1.315318E-09,NaN,NaN,-0.5000442,-5.122324E-11,-3.193791E-07,-1.109118E-07,5.823671E-09,-2.861022E-08
693.2209,-0.3905794,-2.921712E-09,NaN,-0.5939627,-1.326222E-07,NaN,-0.05412828,-4.515609E-07,NaN,-0.9455088,2.024446E-05,0.1910264,4.382069E-10,NaN,NaN,-0.5004588,-4.656663E-11,-3.56334E-07,-1.10912E-07,1.055299E-09,-2.622604E-08
693.2366,-0.3905794,-2.921712E-09,NaN,-0.5939627,-1.326222E-07,NaN,-0.05412828,-4.515609E-07,NaN,-0.9455088,2.024446E-05,0.1910264,4.382069E-10,NaN,NaN,-0.5004588,-4.656663E-11,-3.56334E-07,-1.10912E-07,1.055299E-09,-2.622604E-08
693.2515,-0.3988332,-2.920995E-09,NaN,-0.5942529,-1.326218E-07,NaN,-0.04745683,-4.502945E-07,NaN,-0.9467757,2.024489E-05,0.1835091,-4.332094E-10,NaN,NaN,-0.5008652,-3.725341E-11,-3.867324E-07,-1.109122E-07,-1.924933E-09,-2.861022E-08
693.2682,-0.4071434,-2.920278E-09,NaN,-0.5945435,-1.326215E-07,NaN,-0.04090866,-4.49028E-07,NaN,-0.9481002,2.024534E-05,0.1761147,-1.298968E-09,NaN,NaN,-0.5012636,-4.656663E-11,-4.159386E-07,-1.109125E-07,-2.819002E-09,-2.622604E-08
693.284,-0.4154506,-2.919561E-09,NaN,-0.5948324,-1.326212E-07,NaN,-0.03450244,-4.477615E-07,NaN,-0.9494659,2.024578E-05,0.1688455,-2.159106E-09,NaN,NaN,-0.5016541,-4.656663E-11,-4.385884E-07,-1.109127E-07,-2.520979E-09,-2.861022E-08
693.3001,-0.4240611,-2.918844E-09,NaN,-0.5951325,-1.326209E-07,NaN,-0.0275854,-4.464951E-07,NaN,-0.9508023,2.024622E-05,0.1608911,-3.01366E-09,NaN,NaN,-0.5020828,-5.122324E-11,-4.71967E-07,-1.109129E-07,1.651346E-09,-2.622604E-08
693.3155,-0.4240611,-2.918844E-09,NaN,-0.5951325,-1.326209E-07,NaN,-0.0275854,-4.464951E-07,NaN,-0.9508023,2.024622E-05,0.1608911,-3.01366E-09,NaN,NaN,-0.5020828,-5.122324E-11,-4.71967E-07,-1.109129E-07,1.651346E-09,-2.622604E-08
693.3308,-0.4328186,-2.918127E-09,NaN,-0.5954364,-1.326206E-07,NaN,-0.02074323,-4.452286E-07,NaN,-0.9522071,2.024666E-05,0.1530612,-3.862666E-09,NaN,NaN,-0.5025029,-5.587986E-11,-5.095179E-07,-1.109131E-07,7.572763E-10,-2.861022E-08
693.3474,-0.4416265,-2.91741E-09,NaN,-0.5957404,-1.326203E-07,NaN,-0.01402965,-4.439621E-07,NaN,-0.9536686,2.02471E-05,0.1453609,-4.706159E-09,NaN,NaN,-0.5029147,-6.053647E-11,-5.381281E-07,-1.109134E-07,4.592531E-10,-2.622604E-08
693.3629,-0.4504254,-2.916693E-09,NaN,-0.5960426,-1.326201E-07,NaN,-0.007462622,-4.426956E-07,NaN,-0.9551708,2.024755E-05,0.1377921,-5.544177E-09,NaN,NaN,-0.5033184,-6.519309E-11,-5.643541E-07,-1.109137E-07,1.651346E-09,-2.861022E-08
693.3786,-0.4504254,-2.916693E-09,NaN,-0.5960426,-1.326201E-07,NaN,-0.007462622,-4.426956E-07,NaN,-0.9551708,2.024755E-05,0.1377921,-5.544177E-09,NaN,NaN,-0.5033184,-6.519309E-11,-5.643541E-07,-1.109137E-07,1.651346E-09,-2.861022E-08
693.3936,-0.4595219,-2.915976E-09,NaN,-0.5963559,-1.326198E-07,NaN,-0.0003882116,-4.414292E-07,NaN,-0.9566433,2.024799E-05,0.1295341,-6.376754E-09,NaN,NaN,-0.5037599,-6.98497E-11,-6.042893E-07,-1.109139E-07,-7.328398E-10,-2.622604E-08
693.41,-0.4687595,-2.915259E-09,NaN,-0.5966727,-1.326196E-07,NaN,0.006605485,-4.401627E-07,NaN,-0.9581833,2.024843E-05,0.1214082,-7.203926E-09,NaN,NaN,-0.5041926,-7.450632E-11,-6.364758E-07,-1.109142E-07,4.592531E-10,-2.861022E-08
693.4259,-0.4780418,-2.914542E-09,NaN,-0.5969894,-1.326193E-07,NaN,0.01346583,-4.388962E-07,NaN,-0.9597795,2.024887E-05,0.1134183,-8.025728E-09,NaN,NaN,-0.5046168,-7.916293E-11,-6.692583E-07,-1.109145E-07,-1.626909E-09,-2.622604E-08
693.4417,-0.4873095,-2.913825E-09,NaN,-0.5973042,-1.326191E-07,NaN,0.02017549,-4.376298E-07,NaN,-0.9614158,2.024931E-05,0.1055659,-8.842194E-09,NaN,NaN,-0.5050327,-8.381955E-11,-6.990606E-07,-1.109148E-07,1.612298E-10,-2.861022E-08
693.4577,-0.4873095,-2.913825E-09,NaN,-0.5973042,-1.326191E-07,NaN,0.02017549,-4.376298E-07,NaN,-0.9614158,2.024931E-05,0.1055659,-8.842194E-09,NaN,NaN,-0.5050327,-8.381955E-11,-6.990606E-07,-1.109148E-07,1.612298E-10,-2.861022E-08
693.4726,-0.4968693,-2.913108E-09,NaN,-0.5976298,-1.326189E-07,NaN,0.02738948,-4.363633E-07,NaN,-0.9630226,2.024976E-05,0.09702007,-9.653359E-09,NaN,NaN,-0.5054861,-8.847616E-11,-7.395918E-07,-1.109151E-07,1.612298E-10,-2.622604E-08
693.489,-0.5065647,-2.91239E-09,NaN,-0.5979589,-1.326187E-07,NaN,0.03451744,-4.350968E-07,NaN,-0.9646962,2.025019E-05,0.08861341,-1.045926E-08,NaN,NaN,-0.5059305,-9.313278E-11,-7.753546E-07,-1.109154E-07,7.572762E-10,-2.861022E-08
693.505,-0.5162994,-2.911673E-09,NaN,-0.5982876,-1.326186E-07,NaN,0.04150776,-4.338303E-07,NaN,-0.9664252,2.025063E-05,0.08034921,-1.125993E-08,NaN,NaN,-0.5063661,-9.778939E-11,-8.117134E-07,-1.109157E-07,-4.309118E-09,-2.622604E-08
693.5205,-0.5260139,-2.910956E-09,NaN,-0.5986143,-1.326184E-07,NaN,0.04834373,-4.325639E-07,NaN,-0.9681942,2.025107E-05,0.07222815,-1.205539E-08,NaN,NaN,-0.5067932,-1.02446E-10,-8.433039E-07,-1.109161E-07,-6.693304E-09,-2.861022E-08
693.5367,-0.5260139,-2.910956E-09,NaN,-0.5986143,-1.326184E-07,NaN,0.04834373,-4.325639E-07,NaN,-0.9681942,2.025107E-05,0.07222815,-1.205539E-08,NaN,NaN,-0.5067932,-1.02446E-10,-8.433039E-07,-1.109161E-07,-6.693304E-09,-2.861022E-08
693.5529,-0.5360155,-2.910238E-09,NaN,-0.5989518,-1.326185E-07,NaN,0.05568133,-4.34369E-07,NaN,-0.969934,2.02515E-05,0.06340912,-9.873363E-09,NaN,NaN,-0.5072576,-1.071026E-10,-8.886034E-07,-1.109153E-07,-6.097258E-09,-2.622604E-08
693.5682,-0.5461474,-2.90952E-09,NaN,-0.5992925,-1.326184E-07,NaN,0.06292807,-4.363023E-07,NaN,-0.9717399,2.025192E-05,0.05473624,-7.638283E-09,NaN,NaN,-0.5077128,-1.02446E-10,-9.273464E-07,-1.109143E-07,-3.713072E-09,-2.861022E-08
693.5837,-0.5563133,-2.908802E-09,NaN,-0.5996326,-1.326182E-07,NaN,0.0700333,-4.382941E-07,NaN,-0.973601,2.025234E-05,0.04621201,-5.404791E-09,NaN,NaN,-0.5081591,-1.02446E-10,-9.678776E-07,-1.109133E-07,-3.266037E-09,-2.622604E-08
693.5995,-0.5563133,-2.908802E-09,NaN,-0.5996326,-1.326182E-07,NaN,0.0700333,-4.382941E-07,NaN,-0.973601,2.025234E-05,0.04621201,-5.404791E-09,NaN,NaN,-0.5081591,-1.02446E-10,-9.678776E-07,-1.109133E-07,-3.266037E-09,-2.622604E-08
693.6145,-0.5667974,-2.908084E-09,NaN,-0.5999842,-1.32618E-07,NaN,0.07763939,-4.403126E-07,NaN,-0.975447,2.025274E-05,0.03698845,-3.192604E-09,NaN,NaN,-0.5086423,-9.313279E-11,-1.017945E-06,-1.109121E-07,-3.04252E-09,-2.861022E-08
693.631,-0.5774288,-2.907366E-09,NaN,-0.6003391,-1.326176E-07,NaN,0.08514683,-4.423374E-07,NaN,-0.9773691,2.025316E-05,0.02791913,-1.012588E-09,NaN,NaN,-0.5091159,-9.313279E-11,-1.065033E-06,-1.10911E-07,-1.328886E-09,-2.622604E-08
693.6468,-0.5881022,-2.906648E-09,NaN,-0.6006933,-1.326173E-07,NaN,0.09250426,-4.443586E-07,NaN,-0.9793532,2.025357E-05,0.01900617,1.133072E-09,NaN,NaN,-0.5095803,-9.313279E-11,-1.108544E-06,-1.109098E-07,-2.85805E-10,-2.861022E-08
693.6627,-0.598753,-2.90593E-09,NaN,-0.6010451,-1.326169E-07,NaN,0.09969607,-4.46365E-07,NaN,-0.9813817,2.025399E-05,0.01024929,3.239404E-09,NaN,NaN,-0.5100355,-9.313279E-11,-1.147287E-06,-1.109086E-07,-6.95587E-10,-2.622604E-08
693.6784,-0.598753,-2.90593E-09,NaN,-0.6010451,-1.326169E-07,NaN,0.09969607,-4.46365E-07,NaN,-0.9813817,2.025399E-05,0.01024929,3.239404E-09,NaN,NaN,-0.5100355,-9.313279E-11,-1.147287E-06,-1.109086E-07,-6.95587E-10,-2.622604E-08
693.6938,-0.6096852,-2.905213E-09,NaN,-0.6014074,-1.326166E-07,NaN,0.1073804,-4.483526E-07,NaN,-0.9833857,2.02544E-05,0.0007884959,5.307185E-09,NaN,NaN,-0.5105275,-9.313279E-11,-1.200932E-06,-1.109074E-07,-3.149622E-09,-2.861022E-08
693.7099,-0.6207402,-2.904496E-09,NaN,-0.6017725,-1.326162E-07,NaN,0.1149614,-4.503153E-07,NaN,-0.9854574,2.025481E-05,-0.008510935,7.334342E-09,NaN,NaN,-0.5110098,-8.847617E-11,-1.242059E-06,-1.109062E-07,-1.249724E-09,-2.622604E-08
693.7256,-0.6318202,-2.903778E-09,NaN,-0.6021367,-1.326158E-07,NaN,0.1223908,-4.522508E-07,NaN,-0.9875849,2.025522E-05,-0.01764805,9.32168E-09,NaN,NaN,-0.5114825,-7.916295E-11,-1.289146E-06,-1.10905E-07,-5.763101E-11,-2.861022E-08
693.7413,-0.6428653,-2.903061E-09,NaN,-0.6024983,-1.326155E-07,NaN,0.1296539,-4.541545E-07,NaN,-0.9897525,2.025563E-05,-0.02662385,1.126715E-08,NaN,NaN,-0.511946,-8.381956E-11,-1.335638E-06,-1.109038E-07,-1.175218E-09,-2.622604E-08
693.7572,-0.6428653,-2.903061E-09,NaN,-0.6024983,-1.326155E-07,NaN,0.1296539,-4.541545E-07,NaN,-0.9897525,2.025563E-05,-0.02662385,1.126715E-08,NaN,NaN,-0.511946,-8.381956E-11,-1.335638E-06,-1.109038E-07,-1.175218E-09,-2.622604E-08
693.7725,-0.6541827,-2.902345E-09,NaN,-0.6028703,-1.326151E-07,NaN,0.1374094,-4.56028E-07,NaN,-0.9918947,2.025604E-05,-0.03630942,1.31744E-08,NaN,NaN,-0.5124462,-7.916295E-11,-1.39107E-06,-1.109027E-07,-2.069288E-09,-2.861022E-08
693.7889,-0.6656154,-2.901629E-09,NaN,-0.6032451,-1.326154E-07,NaN,0.1450593,-4.573319E-07,NaN,-0.9941024,2.025645E-05,-0.04582707,1.450554E-08,NaN,NaN,-0.5129365,-7.916295E-11,-1.44233E-06,-1.109004E-07,-1.026206E-09,-2.622604E-08
693.8047,-0.6770669,-2.900913E-09,NaN,-0.6036189,-1.326158E-07,NaN,0.1525558,-4.58626E-07,NaN,-0.9963645,2.025686E-05,-0.05517673,1.58218E-08,NaN,NaN,-0.5134171,-7.916295E-11,-1.495379E-06,-1.10898E-07,2.997107E-09,-2.861022E-08
693.8203,-0.6884778,-2.900198E-09,NaN,-0.60399,-1.326161E-07,NaN,0.1598847,-4.598984E-07,NaN,-0.998666,2.025727E-05,-0.06436002,1.71122E-08,NaN,NaN,-0.5138883,-8.381956E-11,-1.542466E-06,-1.108957E-07,5.530304E-09,-2.622604E-08
693.8364,-0.6884778,-2.900198E-09,NaN,-0.60399,-1.326161E-07,NaN,0.1598847,-4.598984E-07,NaN,-0.998666,2.025727E-05,-0.06436002,1.71122E-08,NaN,NaN,-0.5138883,-8.381956E-11,-1.542466E-06,-1.108957E-07,5.530304E-09,-2.622604E-08
693.8512,-0.7001562,-2.899483E-09,NaN,-0.6043715,-1.326164E-07,NaN,0.1677049,-4.611488E-07,NaN,-1.000943,2.025768E-05,-0.07425912,1.837724E-08,NaN,NaN,-0.5143961,-7.916295E-11,-1.599687E-06,-1.108934E-07,5.977339E-09,-2.861022E-08
693.8679,-0.7119452,-2.898768E-09,NaN,-0.6047556,-1.326168E-07,NaN,0.1754167,-4.623741E-07,NaN,-1.003286,2.02581E-05,-0.08398382,1.961459E-08,NaN,NaN,-0.5148938,-8.847617E-11,-1.655715E-06,-1.108911E-07,8.063502E-09,-2.622604E-08
693.8832,-0.7237484,-2.898054E-09,NaN,-0.6051387,-1.326171E-07,NaN,0.1829731,-4.635744E-07,NaN,-1.005683,2.025851E-05,-0.09353494,2.082479E-08,NaN,NaN,-0.5153817,-9.313279E-11,-1.703995E-06,-1.108888E-07,1.074571E-08,-2.861022E-08
693.8993,-0.7237484,-2.898054E-09,NaN,-0.6051387,-1.326171E-07,NaN,0.1829731,-4.635744E-07,NaN,-1.005683,2.025851E-05,-0.09353494,2.082479E-08,NaN,NaN,-0.5153817,-9.313279E-11,-1.703995E-06,-1.108888E-07,1.074571E-08,-2.861022E-08
693.9142,-0.7355067,-2.897339E-09,NaN,-0.6055189,-1.326174E-07,NaN,0.1903602,-4.647498E-07,NaN,-1.008119,2.025893E-05,-0.1029147,2.200838E-08,NaN,NaN,-0.5158601,-1.02446E-10,-1.755255E-06,-1.108865E-07,1.640815E-08,-2.622604E-08
693.9308,-0.7475283,-2.896624E-09,NaN,-0.6059095,-1.326178E-07,NaN,0.1982377,-4.659033E-07,NaN,-1.010532,2.025933E-05,-0.1130164,2.316871E-08,NaN,NaN,-0.5163749,-9.778939E-11,-1.815455E-06,-1.108842E-07,1.70042E-08,-2.861022E-08
693.9468,-0.7596564,-2.89591E-09,NaN,-0.6063025,-1.326181E-07,NaN,0.2060039,-4.670322E-07,NaN,-1.013011,2.025975E-05,-0.1229374,2.430341E-08,NaN,NaN,-0.5168795,-1.071026E-10,-1.870292E-06,-1.108819E-07,1.491803E-08,-2.622604E-08
693.9624,-0.7717946,-2.895196E-09,NaN,-0.6066943,-1.326184E-07,NaN,0.2136129,-4.681368E-07,NaN,-1.015544,2.026016E-05,-0.1326791,2.541297E-08,NaN,NaN,-0.5173742,-1.02446E-10,-1.92632E-06,-1.108796E-07,1.253385E-08,-2.861022E-08
693.9781,-0.7717946,-2.895196E-09,NaN,-0.6066943,-1.326184E-07,NaN,0.2136129,-4.681368E-07,NaN,-1.015544,2.026016E-05,-0.1326791,2.541297E-08,NaN,NaN,-0.5173742,-1.02446E-10,-1.92632E-06,-1.108796E-07,1.253385E-08,-2.861022E-08
693.9932,-0.7838839,-2.894482E-09,NaN,-0.6070833,-1.326187E-07,NaN,0.2210512,-4.692175E-07,NaN,-1.018116,2.026058E-05,-0.1422446,2.64979E-08,NaN,NaN,-0.5178592,-1.117592E-10,-1.978772E-06,-1.108773E-07,1.134176E-08,-2.622604E-08
694.0098,-0.7962327,-2.893768E-09,NaN,-0.6074826,-1.32619E-07,NaN,0.228979,-4.702746E-07,NaN,-1.020669,2.026098E-05,-0.1525384,2.755867E-08,NaN,NaN,-0.5183806,-1.071026E-10,-2.043741E-06,-1.108751E-07,8.361525E-09,-2.861022E-08
694.0263,-0.8086841,-2.893054E-09,NaN,-0.6078842,-1.326194E-07,NaN,0.236793,-4.713085E-07,NaN,-1.023286,2.02614E-05,-0.162645,2.859576E-08,NaN,NaN,-0.5188916,-1.164158E-10,-2.105134E-06,-1.108728E-07,1.044769E-08,-2.622604E-08
694.0416,-0.8211417,-2.89234E-09,NaN,-0.6082845,-1.326197E-07,NaN,0.2444481,-4.723195E-07,NaN,-1.025958,2.026181E-05,-0.1725669,2.960964E-08,NaN,NaN,-0.5193927,-1.117592E-10,-2.164143E-06,-1.108706E-07,1.044769E-08,-2.861022E-08
694.0585,-0.8211417,-2.89234E-09,NaN,-0.6082845,-1.326197E-07,NaN,0.2444481,-4.723195E-07,NaN,-1.025958,2.026181E-05,-0.1725669,2.960964E-08,NaN,NaN,-0.5193927,-1.117592E-10,-2.164143E-06,-1.108706E-07,1.044769E-08,-2.861022E-08
694.0724,-0.8335465,-2.891626E-09,NaN,-0.6086818,-1.3262E-07,NaN,0.2519315,-4.733108E-07,NaN,-1.028668,2.026223E-05,-0.1823076,3.060358E-08,NaN,NaN,-0.5198839,-1.210724E-10,-2.219575E-06,-1.108683E-07,1.223583E-08,-2.622604E-08
694.0888,-0.8462073,-2.890913E-09,NaN,-0.6090893,-1.326203E-07,NaN,0.2599033,-4.7428E-07,NaN,-1.031362,2.026263E-05,-0.1927832,3.157515E-08,NaN,NaN,-0.5204114,-1.164158E-10,-2.286928E-06,-1.108661E-07,2.103037E-09,-2.861022E-08
694.1042,-0.8589669,-2.8902E-09,NaN,-0.6094991,-1.326206E-07,NaN,0.2677592,-4.752275E-07,NaN,-1.03412,2.026305E-05,-0.2030651,3.252478E-08,NaN,NaN,-0.5209285,-1.257291E-10,-2.349513E-06,-1.108639E-07,-2.811489E-10,-2.622604E-08
694.1199,-0.8589669,-2.8902E-09,NaN,-0.6094991,-1.326206E-07,NaN,0.2677592,-4.752275E-07,NaN,-1.03412,2.026305E-05,-0.2030651,3.252478E-08,NaN,NaN,-0.5209285,-1.257291E-10,-2.349513E-06,-1.108639E-07,-2.811489E-10,-2.622604E-08
694.1353,-0.8717291,-2.889487E-09,NaN,-0.6099074,-1.326209E-07,NaN,0.2754549,-4.761536E-07,NaN,-1.036933,2.026345E-05,-0.2131568,3.345292E-08,NaN,NaN,-0.5214354,-1.210725E-10,-2.413886E-06,-1.108617E-07,2.699083E-09,-2.861022E-08
694.1514,-0.8844347,-2.888774E-09,NaN,-0.6103128,-1.326212E-07,NaN,0.2829778,-4.770587E-07,NaN,-1.039783,2.026387E-05,-0.2230626,3.435998E-08,NaN,NaN,-0.5219325,-1.303857E-10,-2.472299E-06,-1.108594E-07,2.699083E-09,-2.622604E-08
694.1677,-0.8973929,-2.888061E-09,NaN,-0.6107283,-1.326216E-07,NaN,0.2909883,-4.779433E-07,NaN,-1.042621,2.026428E-05,-0.2337096,3.524637E-08,NaN,NaN,-0.5224657,-1.257291E-10,-2.543228E-06,-1.108573E-07,9.109439E-10,-2.861022E-08
694.1832,-0.9104465,-2.887348E-09,NaN,-0.611146,-1.326219E-07,NaN,0.298881,-4.788076E-07,NaN,-1.045524,2.02647E-05,-0.2441566,3.61125E-08,NaN,NaN,-0.5229884,-1.350423E-10,-2.607601E-06,-1.108551E-07,-8.771954E-10,-2.622604E-08
694.199,-0.9104465,-2.887348E-09,NaN,-0.611146,-1.326219E-07,NaN,0.298881,-4.788076E-07,NaN,-1.045524,2.02647E-05,-0.2441566,3.61125E-08,NaN,NaN,-0.5229884,-1.350423E-10,-2.607601E-06,-1.108551E-07,-8.771954E-10,-2.622604E-08
694.2138,-0.923499,-2.886635E-09,NaN,-0.6115621,-1.326222E-07,NaN,0.3066123,-4.796522E-07,NaN,-1.04848,2.02651E-05,-0.2544081,3.695876E-08,NaN,NaN,-0.5235009,-1.303857E-10,-2.674358E-06,-1.108529E-07,-2.069288E-09,-2.861022E-08
694.2303,-0.9364915,-2.885923E-09,NaN,-0.6119751,-1.326225E-07,NaN,0.31417,-4.804802E-07,NaN,-1.051474,2.026552E-05,-0.2644687,3.778836E-08,NaN,NaN,-0.5240034,-1.396989E-10,-2.732771E-06,-1.108507E-07,-1.473242E-09,-2.622604E-08
694.2464,-0.9497334,-2.88521E-09,NaN,-0.6123982,-1.326228E-07,NaN,0.3222145,-4.812891E-07,NaN,-1.054458,2.026593E-05,-0.2752773,3.859883E-08,NaN,NaN,-0.524542,-1.350423E-10,-2.806681E-06,-1.108485E-07,-2.069288E-09,-2.861022E-08
694.262,-0.9630672,-2.884498E-09,NaN,-0.6128234,-1.326231E-07,NaN,0.3301396,-4.820792E-07,NaN,-1.057508,2.026635E-05,-0.2858793,3.939052E-08,NaN,NaN,-0.52507,-1.443556E-10,-2.870458E-06,-1.108464E-07,-3.857428E-09,-2.622604E-08
694.2779,-0.9630672,-2.884498E-09,NaN,-0.6128234,-1.326231E-07,NaN,0.3301396,-4.820792E-07,NaN,-1.057508,2.026635E-05,-0.2858793,3.939052E-08,NaN,NaN,-0.52507,-1.443556E-10,-2.870458E-06,-1.108464E-07,-3.857428E-09,-2.622604E-08
694.2931,-0.9763967,-2.883786E-09,NaN,-0.6132469,-1.326234E-07,NaN,0.3379022,-4.82851E-07,NaN,-1.06061,2.026675E-05,-0.2962805,4.016388E-08,NaN,NaN,-0.5255876,-1.396989E-10,-2.936023E-06,-1.108442E-07,-5.049521E-09,-2.861022E-08
694.3094,-0.9896628,-2.883074E-09,NaN,-0.6136673,-1.326237E-07,NaN,0.3454906,-4.836048E-07,NaN,-1.06375,2.026717E-05,-0.306486,4.09192E-08,NaN,NaN,-0.526095,-1.490122E-10,-2.998608E-06,-1.108421E-07,-2.069289E-09,-2.622604E-08
694.3251,-1.003175,-2.882362E-09,NaN,-0.6140977,-1.32624E-07,NaN,0.3535649,-4.843409E-07,NaN,-1.066884,2.026757E-05,-0.317446,4.165683E-08,NaN,NaN,-0.5266386,-1.443556E-10,-3.074306E-06,-1.108399E-07,2.103036E-09,-2.861022E-08
694.3409,-1.016776,-2.88165E-09,NaN,-0.6145301,-1.326243E-07,NaN,0.3615184,-4.850626E-07,NaN,-1.070083,2.026799E-05,-0.328193,4.237993E-08,NaN,NaN,-0.5271715,-1.536688E-10,-3.144043E-06,-1.108378E-07,2.699083E-09,-2.622604E-08
694.3569,-1.016776,-2.88165E-09,NaN,-0.6145301,-1.326243E-07,NaN,0.3615184,-4.850626E-07,NaN,-1.070083,2.026799E-05,-0.328193,4.237993E-08,NaN,NaN,-0.5271715,-1.536688E-10,-3.144043E-06,-1.108378E-07,2.699083E-09,-2.622604E-08
694.3716,-1.03037,-2.880938E-09,NaN,-0.6149608,-1.326245E-07,NaN,0.3693086,-4.857671E-07,NaN,-1.073334,2.02684E-05,-0.3387338,4.308598E-08,NaN,NaN,-0.5276939,-1.490122E-10,-3.213184E-06,-1.108357E-07,8.659547E-09,-2.861022E-08
694.3879,-1.043897,-2.880227E-09,NaN,-0.6153883,-1.326248E-07,NaN,0.376924,-4.86455E-07,NaN,-1.076622,2.026882E-05,-0.3490741,4.37753E-08,NaN,NaN,-0.5282062,-1.583254E-10,-3.277557E-06,-1.108336E-07,1.58121E-08,-2.622604E-08
694.4042,-1.057667,-2.879516E-09,NaN,-0.6158258,-1.326251E-07,NaN,0.3850243,-4.871264E-07,NaN,-1.079909,2.026922E-05,-0.3601754,4.444822E-08,NaN,NaN,-0.5287544,-1.536688E-10,-3.354745E-06,-1.108315E-07,1.104373E-08,-2.861022E-08
694.4194,-1.057667,-2.879516E-09,NaN,-0.6158258,-1.326251E-07,NaN,0.3850243,-4.871264E-07,NaN,-1.079909,2.026922E-05,-0.3601754,4.444822E-08,NaN,NaN,-0.5287544,-1.536688E-10,-3.354745E-06,-1.108315E-07,1.104373E-08,-2.861022E-08
694.4345,-1.071523,-2.878804E-09,NaN,-0.6162651,-1.326254E-07,NaN,0.3930026,-4.877817E-07,NaN,-1.08326,2.026964E-05,-0.3710575,4.510507E-08,NaN,NaN,-0.5292919,-1.62982E-10,-3.430443E-06,-1.108294E-07,5.083268E-09,-2.622604E-08
694.4507,-1.085368,-2.878093E-09,NaN,-0.6167027,-1.326257E-07,NaN,0.4008169,-4.884213E-07,NaN,-1.086662,2.027005E-05,-0.3817278,4.574615E-08,NaN,NaN,-0.5298188,-1.583254E-10,-3.4972E-06,-1.108273E-07,6.275361E-09,-2.861022E-08
694.4665,-1.099144,-2.877382E-09,NaN,-0.617137,-1.32626E-07,NaN,0.4084561,-4.890483E-07,NaN,-1.090101,2.027047E-05,-0.3921928,4.637461E-08,NaN,NaN,-0.5303354,-1.676387E-10,-3.563958E-06,-1.108252E-07,1.506989E-09,-2.622604E-08
694.4822,-1.11316,-2.876671E-09,NaN,-0.6175812,-1.326263E-07,NaN,0.4165787,-4.896601E-07,NaN,-1.093542,2.027087E-05,-0.403425,4.698786E-08,NaN,NaN,-0.530888,-1.629821E-10,-3.642934E-06,-1.108231E-07,-8.771965E-10,-2.861022E-08
694.498,-1.11316,-2.876671E-09,NaN,-0.6175812,-1.326263E-07,NaN,0.4165787,-4.896601E-07,NaN,-1.093542,2.027087E-05,-0.403425,4.698786E-08,NaN,NaN,-0.530888,-1.629821E-10,-3.642934E-06,-1.108231E-07,-8.771965E-10,-2.861022E-08
694.5131,-1.127259,-2.87596E-09,NaN,-0.6180273,-1.326266E-07,NaN,0.4245785,-4.90257E-07,NaN,-1.097048,2.027129E-05,-0.4144317,4.758621E-08,NaN,NaN,-0.5314297,-1.722953E-10,-3.715055E-06,-1.108211E-07,-8.771965E-10,-2.622604E-08
694.5295,-1.141345,-2.87525E-09,NaN,-0.6184714,-1.326268E-07,NaN,0.4324138,-4.908393E-07,NaN,-1.100604,2.027169E-05,-0.4252212,4.816994E-08,NaN,NaN,-0.5319608,-1.676387E-10,-3.784793E-06,-1.10819E-07,7.467454E-09,-2.861022E-08
694.5452,-1.155358,-2.874539E-09,NaN,-0.6189123,-1.32627E-07,NaN,0.4400736,-4.916686E-07,NaN,-1.104195,2.02721E-05,-0.4358006,4.900071E-08,NaN,NaN,-0.5324815,-1.676387E-10,-3.852444E-06,-1.108188E-07,3.14897E-10,-2.622604E-08
694.561,-1.157843,-2.873829E-09,NaN,-0.6189023,-1.326275E-07,NaN,0.4258997,-4.924715E-07,NaN,-1.108328,2.027252E-05,-0.4139326,4.980508E-08,NaN,NaN,-0.5314707,-1.676387E-10,-3.389316E-06,-1.108189E-07,-6.83766E-09,-2.861022E-08
694.5782,-1.157843,-2.873829E-09,NaN,-0.6189023,-1.326275E-07,NaN,0.4258997,-4.924715E-07,NaN,-1.108328,2.027252E-05,-0.4139326,4.980508E-08,NaN,NaN,-0.5314707,-1.676387E-10,-3.389316E-06,-1.108189E-07,-6.83766E-09,-2.861022E-08
694.5931,-1.153271,-2.87312E-09,NaN,-0.6186664,-1.326283E-07,NaN,0.4099379,-4.931796E-07,NaN,-1.111102,2.027293E-05,-0.3931389,5.051462E-08,NaN,NaN,-0.5304853,-1.629821E-10,-3.02543E-06,-1.108192E-07,-5.645568E-09,-2.622604E-08
694.6089,-1.144402,-2.87241E-09,NaN,-0.6182998,-1.326292E-07,NaN,0.3936796,-4.938286E-07,NaN,-1.112595,2.027336E-05,-0.3732483,5.116503E-08,NaN,NaN,-0.529522,-1.629821E-10,-2.734857E-06,-1.108196E-07,-1.041394E-08,-2.861022E-08
694.6239,-1.132948,-2.8717E-09,NaN,-0.6178555,-1.326302E-07,NaN,0.3776751,-4.944393E-07,NaN,-1.11306,2.027378E-05,-0.3540871,5.177723E-08,NaN,NaN,-0.528579,-1.629821E-10,-2.48869E-06,-1.1082E-07,-9.221846E-09,-2.622604E-08
694.6398,-1.132948,-2.8717E-09,NaN,-0.6178555,-1.326302E-07,NaN,0.3776751,-4.944393E-07,NaN,-1.11306,2.027378E-05,-0.3540871,5.177723E-08,NaN,NaN,-0.528579,-1.629821E-10,-2.48869E-06,-1.1082E-07,-9.221846E-09,-2.622604E-08
694.6545,-1.120315,-2.870991E-09,NaN,-0.6173782,-1.326312E-07,NaN,0.3627351,-4.950239E-07,NaN,-1.112739,2.027421E-05,-0.3364912,5.236324E-08,NaN,NaN,-0.5277013,-1.676387E-10,-2.294677E-06,-1.108205E-07,-1.160603E-08,-2.861022E-08
694.6708,-1.107021,-2.870282E-09,NaN,-0.616882,-1.326323E-07,NaN,0.3483052,-4.955884E-07,NaN,-1.111925,2.027463E-05,-0.3193764,5.292923E-08,NaN,NaN,-0.5268409,-1.583254E-10,-2.116459E-06,-1.10821E-07,-8.029753E-09,-2.622604E-08
694.6868,-1.093385,-2.869572E-09,NaN,-0.616376,-1.326334E-07,NaN,0.3343056,-4.961362E-07,NaN,-1.110786,2.027505E-05,-0.3026959,5.347839E-08,NaN,NaN,-0.5259976,-1.629821E-10,-1.953142E-06,-1.108215E-07,-5.645567E-09,-2.861022E-08
694.7026,-1.079603,-2.868863E-09,NaN,-0.6158662,-1.326345E-07,NaN,0.3206797,-4.966702E-07,NaN,-1.109438,2.027547E-05,-0.2864173,5.401389E-08,NaN,NaN,-0.5251709,-1.583254E-10,-1.801746E-06,-1.108221E-07,-9.221846E-09,-2.622604E-08
694.7184,-1.079603,-2.868863E-09,NaN,-0.6158662,-1.326345E-07,NaN,0.3206797,-4.966702E-07,NaN,-1.109438,2.027547E-05,-0.2864173,5.401389E-08,NaN,NaN,-0.5251709,-1.583254E-10,-1.801746E-06,-1.108221E-07,-9.221846E-09,-2.622604E-08
694.7337,-1.066141,-2.868153E-09,NaN,-0.6153705,-1.326356E-07,NaN,0.3080235,-4.971937E-07,NaN,-1.107924,2.02759E-05,-0.2714581,5.453882E-08,NaN,NaN,-0.5244066,-1.629821E-10,-1.673596E-06,-1.108226E-07,-6.83766E-09,-2.861022E-08
694.7499,-1.052938,-2.867444E-09,NaN,-0.614886,-1.326367E-07,NaN,0.295743,-4.977068E-07,NaN,-1.106368,2.027632E-05,-0.2568201,5.505337E-08,NaN,NaN,-0.5236572,-1.583254E-10,-1.549916E-06,-1.108231E-07,-5.645567E-09,-2.622604E-08
694.766,-1.039953,-2.866735E-09,NaN,-0.6144112,-1.326379E-07,NaN,0.2837624,-4.982098E-07,NaN,-1.104799,2.027675E-05,-0.2424981,5.555776E-08,NaN,NaN,-0.5229225,-1.629821E-10,-1.431601E-06,-1.108236E-07,-4.453474E-09,-2.861022E-08
694.7812,-1.027161,-2.866026E-09,NaN,-0.6139449,-1.32639E-07,NaN,0.2720453,-4.987028E-07,NaN,-1.103229,2.027717E-05,-0.2284864,5.605219E-08,NaN,NaN,-0.5222023,-1.583254E-10,-1.31418E-06,-1.108241E-07,-6.83766E-09,-2.622604E-08
694.7971,-1.027161,-2.866026E-09,NaN,-0.6139449,-1.32639E-07,NaN,0.2720453,-4.987028E-07,NaN,-1.103229,2.027717E-05,-0.2284864,5.605219E-08,NaN,NaN,-0.5222023,-1.583254E-10,-1.31418E-06,-1.108241E-07,-6.83766E-09,-2.622604E-08
694.8119,-1.014891,-2.865316E-09,NaN,-0.6135001,-1.326401E-07,NaN,0.2612051,-4.99186E-07,NaN,-1.101624,2.02776E-05,-0.2157033,5.653684E-08,NaN,NaN,-0.5215421,-1.629821E-10,-1.220004E-06,-1.108247E-07,-9.221846E-09,-2.861022E-08
694.8286,-1.002996,-2.864607E-09,NaN,-0.6130712,-1.326411E-07,NaN,0.2506709,-4.996625E-07,NaN,-1.100064,2.027802E-05,-0.2031797,5.701473E-08,NaN,NaN,-0.5208949,-1.583254E-10,-1.124637E-06,-1.108252E-07,-1.041394E-08,-2.622604E-08
694.844,-0.9913858,-2.863898E-09,NaN,-0.6126545,-1.326422E-07,NaN,0.2403783,-5.001295E-07,NaN,-1.098546,2.027844E-05,-0.1909166,5.748318E-08,NaN,NaN,-0.5202603,-1.629821E-10,-1.03225E-06,-1.108257E-07,-9.221846E-09,-2.861022E-08
694.8599,-0.9913858,-2.863898E-09,NaN,-0.6126545,-1.326422E-07,NaN,0.2403783,-5.001295E-07,NaN,-1.098546,2.027844E-05,-0.1909166,5.748318E-08,NaN,NaN,-0.5202603,-1.629821E-10,-1.03225E-06,-1.108257E-07,-9.221846E-09,-2.861022E-08
694.8749,-0.9803474,-2.863189E-09,NaN,-0.6122614,-1.326433E-07,NaN,0.2309291,-5.005872E-07,NaN,-1.097021,2.027886E-05,-0.179827,5.794237E-08,NaN,NaN,-0.5196841,-1.583254E-10,-9.553598E-07,-1.108262E-07,-5.645567E-09,-2.622604E-08
694.8916,-0.9697093,-2.86248E-09,NaN,-0.611885,-1.326444E-07,NaN,0.2217536,-5.010388E-07,NaN,-1.095563,2.027928E-05,-0.1689568,5.83953E-08,NaN,NaN,-0.5191191,-1.536688E-10,-8.790659E-07,-1.108267E-07,-1.399022E-08,-2.861022E-08
694.9071,-0.9593647,-2.861771E-09,NaN,-0.6115211,-1.326455E-07,NaN,0.2127876,-5.014813E-07,NaN,-1.094162,2.02797E-05,-0.1583086,5.883928E-08,NaN,NaN,-0.5185652,-1.443556E-10,-8.045601E-07,-1.108272E-07,-1.041394E-08,-2.622604E-08
694.9227,-0.9492469,-2.861062E-09,NaN,-0.6111668,-1.326466E-07,NaN,0.204005,-5.019151E-07,NaN,-1.092804,2.028014E-05,-0.1478816,5.927448E-08,NaN,NaN,-0.5180222,-1.490122E-10,-7.306504E-07,-1.108277E-07,-1.63744E-08,-2.861022E-08
694.9385,-0.9492469,-2.861062E-09,NaN,-0.6111668,-1.326466E-07,NaN,0.204005,-5.019151E-07,NaN,-1.092804,2.028014E-05,-0.1478816,5.927448E-08,NaN,NaN,-0.5180222,-1.490122E-10,-7.306504E-07,-1.108277E-07,-1.63744E-08,-2.861022E-08
694.9532,-0.9396594,-2.860353E-09,NaN,-0.6108341,-1.326477E-07,NaN,0.196022,-5.023402E-07,NaN,-1.091431,2.028058E-05,-0.1385764,5.970107E-08,NaN,NaN,-0.5175357,-1.490122E-10,-6.704497E-07,-1.108282E-07,-1.875859E-08,-2.622604E-08
694.9698,-0.9304401,-2.859644E-09,NaN,-0.6105166,-1.326487E-07,NaN,0.1882797,-5.027598E-07,NaN,-1.09012,2.028102E-05,-0.1294532,6.012203E-08,NaN,NaN,-0.5170587,-1.536688E-10,-6.078648E-07,-1.108288E-07,-1.63744E-08,-2.861022E-08
694.9854,-0.9214881,-2.858935E-09,NaN,-0.6102102,-1.326498E-07,NaN,0.1807168,-5.03171E-07,NaN,-1.088863,2.028145E-05,-0.1205144,6.053465E-08,NaN,NaN,-0.516591,-1.490122E-10,-5.488562E-07,-1.108293E-07,-1.875859E-08,-2.622604E-08
695.001,-0.9127408,-2.858226E-09,NaN,-0.6099123,-1.326509E-07,NaN,0.1733086,-5.03574E-07,NaN,-1.087646,2.02819E-05,-0.1117594,6.093912E-08,NaN,NaN,-0.5161325,-1.583254E-10,-4.922318E-07,-1.108298E-07,-2.233487E-08,-2.861022E-08
695.0167,-0.9127408,-2.858226E-09,NaN,-0.6099123,-1.326509E-07,NaN,0.1733086,-5.03574E-07,NaN,-1.087646,2.02819E-05,-0.1117594,6.093912E-08,NaN,NaN,-0.5161325,-1.583254E-10,-4.922318E-07,-1.108298E-07,-2.233487E-08,-2.861022E-08
695.0318,-0.9045037,-2.857517E-09,NaN,-0.609635,-1.326519E-07,NaN,0.1666702,-5.039719E-07,NaN,-1.08641,2.028233E-05,-0.1040793,6.133839E-08,NaN,NaN,-0.5157288,-1.536688E-10,-4.475283E-07,-1.108303E-07,-2.293091E-08,-2.622604E-08
695.048,-0.8966164,-2.856807E-09,NaN,-0.6093718,-1.32653E-07,NaN,0.1602458,-5.045198E-07,NaN,-1.085236,2.028277E-05,-0.09654709,6.188773E-08,NaN,NaN,-0.515333,-1.583254E-10,-3.998446E-07,-1.108305E-07,-1.577835E-08,-2.861022E-08
695.0637,-0.8889793,-2.856098E-09,NaN,-0.6091187,-1.326545E-07,NaN,0.1539744,-5.047014E-07,NaN,-1.084115,2.028322E-05,-0.08916542,6.207077E-08,NaN,NaN,-0.5149449,-1.629821E-10,-3.54545E-07,-1.108301E-07,-1.458626E-08,-2.622604E-08
695.0806,-0.8815303,-2.855389E-09,NaN,-0.6088732,-1.326559E-07,NaN,0.1478313,-5.048991E-07,NaN,-1.083035,2.028366E-05,-0.08193383,6.226988E-08,NaN,NaN,-0.5145644,-1.722953E-10,-3.116297E-07,-1.108295E-07,-1.577835E-08,-2.861022E-08
695.0951,-0.8815303,-2.855389E-09,NaN,-0.6088732,-1.326559E-07,NaN,0.1478313,-5.048991E-07,NaN,-1.083035,2.028366E-05,-0.08193383,6.226988E-08,NaN,NaN,-0.5145644,-1.722953E-10,-3.116297E-07,-1.108295E-07,-1.577835E-08,-2.861022E-08
695.1102,-0.8745754,-2.854679E-09,NaN,-0.6086475,-1.326572E-07,NaN,0.1424311,-5.049461E-07,NaN,-1.081933,2.028411E-05,-0.07573572,6.231832E-08,NaN,NaN,-0.5142373,-1.769519E-10,-2.800392E-07,-1.108292E-07,-1.935463E-08,-2.622604E-08
695.1266,-0.8679546,-2.85397E-09,NaN,-0.608435,-1.326581E-07,NaN,0.1372201,-5.053532E-07,NaN,-1.080894,2.028454E-05,-0.06965508,6.272683E-08,NaN,NaN,-0.5139164,-1.722953E-10,-2.454685E-07,-1.108296E-07,-1.697045E-08,-2.861022E-08
695.1421,-0.8615687,-2.85326E-09,NaN,-0.6082318,-1.326591E-07,NaN,0.1321373,-5.057353E-07,NaN,-1.07991,2.028498E-05,-0.06369453,6.311031E-08,NaN,NaN,-0.5136018,-1.769519E-10,-2.12686E-07,-1.108301E-07,-1.756649E-08,-2.622604E-08
695.1579,-0.8615687,-2.85326E-09,NaN,-0.6082318,-1.326591E-07,NaN,0.1321373,-5.057353E-07,NaN,-1.07991,2.028498E-05,-0.06369453,6.311031E-08,NaN,NaN,-0.5136018,-1.769519E-10,-2.12686E-07,-1.108301E-07,-1.756649E-08,-2.622604E-08
695.1729,-0.8553559,-2.852551E-09,NaN,-0.6080354,-1.326601E-07,NaN,0.1271588,-5.061041E-07,NaN,-1.078966,2.028542E-05,-0.05785395,6.348056E-08,NaN,NaN,-0.5132934,-1.816085E-10,-1.793074E-07,-1.108305E-07,-1.875859E-08,-2.861022E-08
695.1891,-0.8496221,-2.851841E-09,NaN,-0.6078579,-1.326611E-07,NaN,0.1228984,-5.0646E-07,NaN,-1.078001,2.028586E-05,-0.05301043,6.383783E-08,NaN,NaN,-0.513037,-1.862651E-10,-1.596378E-07,-1.10831E-07,-1.458626E-08,-2.622604E-08
695.2047,-0.8442078,-2.851131E-09,NaN,-0.6076929,-1.326621E-07,NaN,0.1188042,-5.068059E-07,NaN,-1.0771,2.028631E-05,-0.04825701,6.418519E-08,NaN,NaN,-0.5127854,-1.909217E-10,-1.375841E-07,-1.108315E-07,-1.041394E-08,-2.861022E-08
695.2203,-0.8390139,-2.850421E-09,NaN,-0.6075364,-1.326632E-07,NaN,0.1148156,-5.07145E-07,NaN,-1.076255,2.028674E-05,-0.04359639,6.452566E-08,NaN,NaN,-0.5125388,-1.862651E-10,-1.131462E-07,-1.10832E-07,-1.100998E-08,-2.622604E-08
695.2363,-0.8390139,-2.850421E-09,NaN,-0.6075364,-1.326632E-07,NaN,0.1148156,-5.07145E-07,NaN,-1.076255,2.028674E-05,-0.04359639,6.452566E-08,NaN,NaN,-0.5125388,-1.862651E-10,-1.131462E-07,-1.10832E-07,-1.100998E-08,-2.622604E-08
695.251,-0.833979,-2.849712E-09,NaN,-0.607386,-1.326642E-07,NaN,0.1109089,-5.074773E-07,NaN,-1.075452,2.028718E-05,-0.03902871,6.485938E-08,NaN,NaN,-0.512297,-1.909217E-10,-8.990041E-08,-1.108325E-07,-1.041394E-08,-2.861022E-08
695.2676,-0.8294088,-2.849002E-09,NaN,-0.6072538,-1.326652E-07,NaN,0.107698,-5.07803E-07,NaN,-1.074627,2.028761E-05,-0.03542601,6.518647E-08,NaN,NaN,-0.5121058,-1.862651E-10,-8.215181E-08,-1.10833E-07,-1.100998E-08,-2.622604E-08
695.2831,-0.8251442,-2.848292E-09,NaN,-0.6071333,-1.326662E-07,NaN,0.1046319,-5.081221E-07,NaN,-1.073867,2.028806E-05,-0.03188874,6.550707E-08,NaN,NaN,-0.5119182,-1.909217E-10,-6.903878E-08,-1.108335E-07,-1.339417E-08,-2.861022E-08
695.299,-0.8251442,-2.848292E-09,NaN,-0.6071333,-1.326662E-07,NaN,0.1046319,-5.081221E-07,NaN,-1.073867,2.028806E-05,-0.03188874,6.550707E-08,NaN,NaN,-0.5119182,-1.909217E-10,-6.903878E-08,-1.108335E-07,-1.339417E-08,-2.861022E-08
695.3137,-0.8210865,-2.847582E-09,NaN,-0.6070207,-1.326672E-07,NaN,0.1016505,-5.084349E-07,NaN,-1.073164,2.028849E-05,-0.02841969,6.58213E-08,NaN,NaN,-0.5117342,-1.862651E-10,-5.532971E-08,-1.10834E-07,-6.83766E-09,-2.622604E-08
695.3299,-0.817174,-2.846872E-09,NaN,-0.6069134,-1.326682E-07,NaN,0.09873039,-5.087443E-07,NaN,-1.072504,2.028893E-05,-0.02501922,6.613212E-08,NaN,NaN,-0.5115539,-1.909217E-10,-4.042855E-08,-1.108345E-07,-7.433707E-09,-2.861022E-08
695.3459,-0.8137128,-2.846162E-09,NaN,-0.6068236,-1.326692E-07,NaN,0.09648576,-5.090475E-07,NaN,-1.071822,2.028936E-05,-0.02255574,6.643675E-08,NaN,NaN,-0.511423,-1.862651E-10,-3.566018E-08,-1.10835E-07,-8.6258E-09,-2.622604E-08
695.3615,-0.810544,-2.845451E-09,NaN,-0.6067449,-1.326703E-07,NaN,0.09436616,-5.093447E-07,NaN,-1.071207,2.028981E-05,-0.02013539,6.673534E-08,NaN,NaN,-0.5112945,-1.909217E-10,-2.910367E-08,-1.108355E-07,-6.83766E-09,-2.861022E-08
695.3773,-0.810544,-2.845451E-09,NaN,-0.6067449,-1.326703E-07,NaN,0.09436616,-5.093447E-07,NaN,-1.071207,2.028981E-05,-0.02013539,6.673534E-08,NaN,NaN,-0.5112945,-1.909217E-10,-2.910367E-08,-1.108355E-07,-6.83766E-09,-2.861022E-08
695.3926,-0.8075688,-2.844741E-09,NaN,-0.6066734,-1.326712E-07,NaN,0.09231184,-5.096359E-07,NaN,-1.07065,2.029024E-05,-0.01776103,6.702799E-08,NaN,NaN,-0.5111686,-1.862651E-10,-2.135507E-08,-1.10836E-07,-8.029753E-09,-2.622604E-08
695.4088,-0.8047261,-2.844031E-09,NaN,-0.6066065,-1.326722E-07,NaN,0.09029994,-5.099242E-07,NaN,-1.070136,2.029069E-05,-0.01543326,6.731765E-08,NaN,NaN,-0.5110451,-1.955783E-10,-1.181832E-08,-1.108365E-07,-5.049521E-09,-2.861022E-08
695.4243,-0.8023218,-2.843321E-09,NaN,-0.6065565,-1.326732E-07,NaN,0.08894497,-5.102067E-07,NaN,-1.069601,2.029112E-05,-0.01401805,6.760155E-08,NaN,NaN,-0.5109699,-1.909217E-10,-1.53946E-08,-1.108369E-07,-6.83766E-09,-2.622604E-08
695.4399,-0.8023218,-2.843321E-09,NaN,-0.6065565,-1.326732E-07,NaN,0.08894497,-5.102067E-07,NaN,-1.069601,2.029112E-05,-0.01401805,6.760155E-08,NaN,NaN,-0.5109699,-1.909217E-10,-1.53946E-08,-1.108369E-07,-6.83766E-09,-2.622604E-08
695.4549,-0.8001973,-2.842611E-09,NaN,-0.6065169,-1.326742E-07,NaN,0.08769666,-5.104835E-07,NaN,-1.069133,2.029155E-05,-0.0126257,6.787981E-08,NaN,NaN,-0.510896,-1.862651E-10,-1.65867E-08,-1.108374E-07,-4.453474E-09,-2.861022E-08
695.4715,-0.798254,-2.8419E-09,NaN,-0.6064838,-1.326752E-07,NaN,0.08649572,-5.107577E-07,NaN,-1.068724,2.029199E-05,-0.01125916,6.815536E-08,NaN,NaN,-0.5108236,-1.816085E-10,-1.479856E-08,-1.108379E-07,-6.241614E-09,-2.622604E-08
695.4869,-0.7964308,-2.84119E-09,NaN,-0.6064548,-1.326762E-07,NaN,0.08531969,-5.110263E-07,NaN,-1.068359,2.029243E-05,-0.009919241,6.842542E-08,NaN,NaN,-0.5107526,-1.862651E-10,-1.360646E-08,-1.108384E-07,-8.771961E-10,-2.861022E-08
695.503,-0.7950338,-2.84048E-09,NaN,-0.6064422,-1.326772E-07,NaN,0.08478368,-5.112896E-07,NaN,-1.067973,2.029286E-05,-0.009470625,6.869011E-08,NaN,NaN,-0.5107288,-1.816085E-10,-2.552739E-08,-1.108389E-07,1.50699E-09,-2.622604E-08
695.5187,-0.7950338,-2.84048E-09,NaN,-0.6064422,-1.326772E-07,NaN,0.08478368,-5.112896E-07,NaN,-1.067973,2.029286E-05,-0.009470625,6.869011E-08,NaN,NaN,-0.5107288,-1.816085E-10,-2.552739E-08,-1.108389E-07,1.50699E-09,-2.622604E-08
695.5334,-0.7939047,-2.839769E-09,NaN,-0.6064395,-1.326782E-07,NaN,0.08433729,-5.115476E-07,NaN,-1.067655,2.02933E-05,-0.009026352,6.894953E-08,NaN,NaN,-0.5107055,-1.862651E-10,-3.20839E-08,-1.108393E-07,9.109432E-10,-2.861022E-08
695.5496,-0.7929451,-2.839059E-09,NaN,-0.6064417,-1.326791E-07,NaN,0.08392169,-5.118033E-07,NaN,-1.067396,2.029374E-05,-0.008589485,6.92066E-08,NaN,NaN,-0.5106825,-1.816085E-10,-3.566018E-08,-1.108398E-07,-2.665336E-09,-2.622604E-08
695.5654,-0.7920938,-2.838349E-09,NaN,-0.606447,-1.326807E-07,NaN,0.08351483,-5.118514E-07,NaN,-1.067182,2.029418E-05,-0.008161064,6.925617E-08,NaN,NaN,-0.51066,-1.955784E-10,-3.566018E-08,-1.108375E-07,-6.241614E-09,-2.622604E-08
695.5822,-0.7916573,-2.837639E-09,NaN,-0.6064677,-1.326818E-07,NaN,0.08373255,-5.120762E-07,NaN,-1.066946,2.029462E-05,-0.008605512,6.948243E-08,NaN,NaN,-0.5106838,-2.048916E-10,-4.936925E-08,-1.108348E-07,-6.241614E-09,-2.622604E-08
695.5969,-0.7916573,-2.837639E-09,NaN,-0.6064677,-1.326818E-07,NaN,0.08373255,-5.120762E-07,NaN,-1.066946,2.029462E-05,-0.008605512,6.948243E-08,NaN,NaN,-0.5106838,-2.048916E-10,-4.936925E-08,-1.108348E-07,-6.241614E-09,-2.622604E-08
695.6118,-0.7914771,-2.836928E-09,NaN,-0.6064976,-1.326826E-07,NaN,0.08402394,-5.123896E-07,NaN,-1.06678,2.029505E-05,-0.009037303,6.979729E-08,NaN,NaN,-0.510707,-2.142048E-10,-6.009808E-08,-1.108319E-07,-1.100999E-08,-2.622604E-08
695.6285,-0.7914549,-2.836218E-09,NaN,-0.6065327,-1.326833E-07,NaN,0.0843307,-5.127476E-07,NaN,-1.066673,2.029548E-05,-0.009459646,7.015669E-08,NaN,NaN,-0.5107297,-2.235181E-10,-7.201901E-08,-1.108289E-07,-2.06929E-09,-2.622604E-08
695.644,-0.7915288,-2.835508E-09,NaN,-0.6065707,-1.326838E-07,NaN,0.08463085,-5.131267E-07,NaN,-1.066612,2.029591E-05,-0.009873839,7.053718E-08,NaN,NaN,-0.510752,-2.328313E-10,-8.215179E-08,-1.108258E-07,-2.811503E-10,-2.622604E-08
695.6599,-0.7915288,-2.835508E-09,NaN,-0.6065707,-1.326838E-07,NaN,0.08463085,-5.131267E-07,NaN,-1.066612,2.029591E-05,-0.009873839,7.053718E-08,NaN,NaN,-0.510752,-2.328313E-10,-8.215179E-08,-1.108258E-07,-2.811503E-10,-2.622604E-08
695.6745,-0.7920057,-2.834798E-09,NaN,-0.6066239,-1.326842E-07,NaN,0.08554135,-5.135124E-07,NaN,-1.06653,2.029633E-05,-0.01114501,7.092426E-08,NaN,NaN,-0.5108197,-2.374879E-10,-1.036095E-07,-1.108227E-07,-2.811503E-10,-2.622604E-08
695.6907,-0.7927275,-2.834089E-09,NaN,-0.6066858,-1.326846E-07,NaN,0.08651068,-5.138988E-07,NaN,-1.066517,2.029675E-05,-0.01238784,7.131214E-08,NaN,NaN,-0.510886,-2.468011E-10,-1.214909E-07,-1.108196E-07,-8.771968E-10,-2.622604E-08
695.7068,-0.7935962,-2.833379E-09,NaN,-0.6067524,-1.32685E-07,NaN,0.08748111,-5.142804E-07,NaN,-1.066563,2.029717E-05,-0.01360572,7.169518E-08,NaN,NaN,-0.510951,-2.561143E-10,-1.322197E-07,-1.108165E-07,-7.433708E-09,-2.622604E-08
695.7224,-0.7945511,-2.832669E-09,NaN,-0.6068213,-1.326854E-07,NaN,0.08843149,-5.146234E-07,NaN,-1.066655,2.02976E-05,-0.01480018,7.203962E-08,NaN,NaN,-0.5110146,-2.654275E-10,-1.477169E-07,-1.108135E-07,-2.811507E-10,-2.622604E-08
695.7383,-0.7945511,-2.832669E-09,NaN,-0.6068213,-1.326854E-07,NaN,0.08843149,-5.146234E-07,NaN,-1.066655,2.02976E-05,-0.01480018,7.203962E-08,NaN,NaN,-0.5110146,-2.654275E-10,-1.477169E-07,-1.108135E-07,-2.811507E-10,-2.622604E-08
695.7534,-0.7958987,-2.831959E-09,NaN,-0.6069049,-1.326854E-07,NaN,0.08997939,-5.151994E-07,NaN,-1.066726,2.029801E-05,-0.016838,7.261703E-08,NaN,NaN,-0.5111229,-2.654275E-10,-1.74539E-07,-1.108114E-07,5.679313E-09,-2.622604E-08
695.77,-0.7974811,-2.831249E-09,NaN,-0.6069964,-1.326854E-07,NaN,0.09157227,-5.157358E-07,NaN,-1.066866,2.029842E-05,-0.01883293,7.315484E-08,NaN,NaN,-0.5112289,-2.607709E-10,-1.971888E-07,-1.108093E-07,4.48722E-09,-2.622604E-08
695.7856,-0.7992001,-2.830539E-09,NaN,-0.607092,-1.326854E-07,NaN,0.09315297,-5.162474E-07,NaN,-1.067066,2.029884E-05,-0.02078861,7.366794E-08,NaN,NaN,-0.5113329,-2.607709E-10,-2.168583E-07,-1.108072E-07,1.163978E-08,-2.622604E-08
695.8013,-0.8009949,-2.82983E-09,NaN,-0.6071892,-1.326855E-07,NaN,0.09470079,-5.167405E-07,NaN,-1.067311,2.029925E-05,-0.02270682,7.416246E-08,NaN,NaN,-0.5114348,-2.607709E-10,-2.335476E-07,-1.108052E-07,1.342792E-08,-2.622604E-08
695.817,-0.8009949,-2.82983E-09,NaN,-0.6071892,-1.326855E-07,NaN,0.09470079,-5.167405E-07,NaN,-1.067311,2.029925E-05,-0.02270682,7.416246E-08,NaN,NaN,-0.5114348,-2.607709E-10,-2.335476E-07,-1.108052E-07,1.342792E-08,-2.622604E-08
695.8322,-0.8031726,-2.82912E-09,NaN,-0.6073006,-1.326855E-07,NaN,0.09683427,-5.172153E-07,NaN,-1.067536,2.029967E-05,-0.02545681,7.463874E-08,NaN,NaN,-0.5115805,-2.607709E-10,-2.579855E-07,-1.108032E-07,1.044768E-08,-2.622604E-08
695.8486,-0.805575,-2.828411E-09,NaN,-0.6074194,-1.326856E-07,NaN,0.09899983,-5.176779E-07,NaN,-1.06783,2.030008E-05,-0.02815039,7.510281E-08,NaN,NaN,-0.5117233,-2.607709E-10,-2.806353E-07,-1.108012E-07,7.467452E-09,-2.622604E-08
695.8646,-0.808104,-2.827702E-09,NaN,-0.6075416,-1.326857E-07,NaN,0.1011409,-5.181286E-07,NaN,-1.068184,2.030049E-05,-0.03079144,7.55549E-08,NaN,NaN,-0.5118634,-2.607709E-10,-3.02689E-07,-1.107993E-07,1.283187E-08,-2.622604E-08
695.8802,-0.8106992,-2.826993E-09,NaN,-0.6076649,-1.326858E-07,NaN,0.1032373,-5.185646E-07,NaN,-1.068582,2.030091E-05,-0.03338203,7.599242E-08,NaN,NaN,-0.5120006,-2.607709E-10,-3.211664E-07,-1.107973E-07,9.255592E-09,-2.622604E-08
695.896,-0.8106992,-2.826993E-09,NaN,-0.6076649,-1.326858E-07,NaN,0.1032373,-5.185646E-07,NaN,-1.068582,2.030091E-05,-0.03338203,7.599242E-08,NaN,NaN,-0.5120006,-2.607709E-10,-3.211664E-07,-1.107973E-07,9.255592E-09,-2.622604E-08
695.9108,-0.8136676,-2.826284E-09,NaN,-0.607802,-1.326859E-07,NaN,0.1059084,-5.189892E-07,NaN,-1.06896,2.030132E-05,-0.03679468,7.641847E-08,NaN,NaN,-0.5121809,-2.607709E-10,-3.479885E-07,-1.107953E-07,8.063499E-09,-2.622604E-08
695.9271,-0.8168511,-2.825575E-09,NaN,-0.6079459,-1.32686E-07,NaN,0.1085997,-5.194082E-07,NaN,-1.069408,2.030174E-05,-0.04013824,7.683894E-08,NaN,NaN,-0.5123577,-2.607709E-10,-3.718304E-07,-1.107934E-07,1.104373E-08,-2.622604E-08
695.9428,-0.8201519,-2.824866E-09,NaN,-0.6080927,-1.32686E-07,NaN,0.111255,-5.198161E-07,NaN,-1.069915,2.030215E-05,-0.04341692,7.724827E-08,NaN,NaN,-0.512531,-2.607709E-10,-3.944801E-07,-1.107914E-07,1.342792E-08,-2.622604E-08
695.9589,-0.8201519,-2.824866E-09,NaN,-0.6080927,-1.32686E-07,NaN,0.111255,-5.198161E-07,NaN,-1.069915,2.030215E-05,-0.04341692,7.724827E-08,NaN,NaN,-0.512531,-2.607709E-10,-3.944801E-07,-1.107914E-07,1.342792E-08,-2.622604E-08
695.9739,-0.823854,-2.824157E-09,NaN,-0.608254,-1.326861E-07,NaN,0.11448,-5.202131E-07,NaN,-1.070415,2.030257E-05,-0.04750711,7.76467E-08,NaN,NaN,-0.5127467,-2.607709E-10,-4.30839E-07,-1.107895E-07,1.70042E-08,-2.622604E-08
695.9904,-0.8277852,-2.823449E-09,NaN,-0.6084222,-1.326862E-07,NaN,0.1177131,-5.205994E-07,NaN,-1.070994,2.030299E-05,-0.05151526,7.803443E-08,NaN,NaN,-0.5129581,-2.700841E-10,-4.600452E-07,-1.107876E-07,1.640815E-08,-2.622604E-08
696.006,-0.8318387,-2.82274E-09,NaN,-0.6085931,-1.326863E-07,NaN,0.1208973,-5.209752E-07,NaN,-1.07164,2.030341E-05,-0.055446,7.841167E-08,NaN,NaN,-0.5131654,-2.700841E-10,-4.862713E-07,-1.107856E-07,1.104373E-08,-2.622604E-08
696.0217,-0.8359487,-2.822031E-09,NaN,-0.6087645,-1.326864E-07,NaN,0.1240131,-5.213435E-07,NaN,-1.072335,2.030382E-05,-0.05930205,7.878146E-08,NaN,NaN,-0.5133685,-2.700841E-10,-5.095171E-07,-1.107837E-07,1.044768E-08,-2.622604E-08
696.0374,-0.8359487,-2.822031E-09,NaN,-0.6087645,-1.326864E-07,NaN,0.1240131,-5.213435E-07,NaN,-1.072335,2.030382E-05,-0.05930205,7.878146E-08,NaN,NaN,-0.5133685,-2.700841E-10,-5.095171E-07,-1.107837E-07,1.044768E-08,-2.622604E-08
696.0523,-0.8404192,-2.821323E-09,NaN,-0.6089489,-1.326865E-07,NaN,0.1276822,-5.217017E-07,NaN,-1.073014,2.030424E-05,-0.06396376,7.914111E-08,NaN,NaN,-0.5136135,-2.700841E-10,-5.46472E-07,-1.107818E-07,5.679313E-09,-2.622604E-08
696.0688,-0.84509,-2.820614E-09,NaN,-0.6091391,-1.326866E-07,NaN,0.1313477,-5.22057E-07,NaN,-1.073764,2.030465E-05,-0.06853247,7.949789E-08,NaN,NaN,-0.5138537,-2.700841E-10,-5.786585E-07,-1.107799E-07,-8.771979E-10,-2.622604E-08
696.0842,-0.8498623,-2.819906E-09,NaN,-0.6093314,-1.326866E-07,NaN,0.1349554,-5.224024E-07,NaN,-1.074574,2.030507E-05,-0.07301306,7.98448E-08,NaN,NaN,-0.514089,-2.700841E-10,-6.090569E-07,-1.10778E-07,-5.645569E-09,-2.622604E-08
696.1017,-0.854675,-2.819198E-09,NaN,-0.6095235,-1.326867E-07,NaN,0.1384866,-5.227382E-07,NaN,-1.075429,2.030549E-05,-0.07740854,8.018201E-08,NaN,NaN,-0.5143198,-2.793974E-10,-6.35879E-07,-1.107761E-07,-3.85743E-09,-2.622604E-08
696.116,-0.854675,-2.819198E-09,NaN,-0.6095235,-1.326867E-07,NaN,0.1384866,-5.227382E-07,NaN,-1.075429,2.030549E-05,-0.07740854,8.018201E-08,NaN,NaN,-0.5143198,-2.793974E-10,-6.35879E-07,-1.107761E-07,-3.85743E-09,-2.622604E-08
696.1307,-0.8598352,-2.818489E-09,NaN,-0.6097283,-1.326868E-07,NaN,0.1425642,-5.230673E-07,NaN,-1.076266,2.03059E-05,-0.08260468,8.051256E-08,NaN,NaN,-0.5145919,-2.793974E-10,-6.799864E-07,-1.107742E-07,-2.069291E-09,-2.622604E-08
696.147,-0.8651847,-2.817781E-09,NaN,-0.6099384,-1.326869E-07,NaN,0.1466294,-5.23387E-07,NaN,-1.077172,2.030632E-05,-0.08769722,8.083374E-08,NaN,NaN,-0.5148586,-2.793974E-10,-7.13365E-07,-1.107724E-07,-8.029755E-09,-2.622604E-08
696.1629,-0.8706256,-2.817073E-09,NaN,-0.6101502,-1.32687E-07,NaN,0.1506284,-5.236976E-07,NaN,-1.078136,2.030673E-05,-0.0926915,8.114574E-08,NaN,NaN,-0.51512,-2.793974E-10,-7.467436E-07,-1.107705E-07,-5.645569E-09,-2.622604E-08
696.1784,-0.8706256,-2.817073E-09,NaN,-0.6101502,-1.32687E-07,NaN,0.1506284,-5.236976E-07,NaN,-1.078136,2.030673E-05,-0.0926915,8.114574E-08,NaN,NaN,-0.51512,-2.793974E-10,-7.467436E-07,-1.107705E-07,-5.645569E-09,-2.622604E-08
696.1935,-0.8760977,-2.816365E-09,NaN,-0.6103616,-1.326871E-07,NaN,0.1545429,-5.239991E-07,NaN,-1.079144,2.030715E-05,-0.09759087,8.144873E-08,NaN,NaN,-0.5153763,-2.793974E-10,-7.77738E-07,-1.107686E-07,2.699081E-09,-2.622604E-08
696.21,-0.8819089,-2.815657E-09,NaN,-0.6105852,-1.326871E-07,NaN,0.1589965,-5.242946E-07,NaN,-1.080133,2.030757E-05,-0.103287,8.174572E-08,NaN,NaN,-0.5156735,-2.887106E-10,-8.206534E-07,-1.107668E-07,-2.06929E-09,-2.622604E-08
696.2258,-0.8879011,-2.814949E-09,NaN,-0.610814,-1.326872E-07,NaN,0.1634291,-5.245815E-07,NaN,-1.081192,2.0308E-05,-0.1088696,8.203401E-08,NaN,NaN,-0.5159647,-2.933672E-10,-8.588004E-07,-1.107649E-07,-2.665336E-09,-2.622604E-08
696.2415,-0.8939767,-2.814241E-09,NaN,-0.611044,-1.326873E-07,NaN,0.1677873,-5.248598E-07,NaN,-1.082307,2.030843E-05,-0.1143442,8.231375E-08,NaN,NaN,-0.5162503,-2.980238E-10,-8.933711E-07,-1.107631E-07,-1.473244E-09,-2.622604E-08
696.2573,-0.8939767,-2.814241E-09,NaN,-0.611044,-1.326873E-07,NaN,0.1677873,-5.248598E-07,NaN,-1.082307,2.030843E-05,-0.1143442,8.231375E-08,NaN,NaN,-0.5162503,-2.980238E-10,-8.933711E-07,-1.107631E-07,-1.473244E-09,-2.622604E-08
696.272,-0.9000758,-2.813533E-09,NaN,-0.6112733,-1.326874E-07,NaN,0.1720533,-5.251325E-07,NaN,-1.083466,2.030885E-05,-0.1197147,8.258796E-08,NaN,NaN,-0.5165302,-2.980238E-10,-9.279418E-07,-1.107612E-07,-6.241615E-09,-2.622604E-08
696.2882,-0.9065064,-2.812825E-09,NaN,-0.6115146,-1.326874E-07,NaN,0.1768515,-5.25397E-07,NaN,-1.084608,2.030928E-05,-0.1258793,8.285389E-08,NaN,NaN,-0.5168505,-3.07337E-10,-9.708571E-07,-1.107594E-07,-7.433708E-09,-2.622604E-08
696.3041,-0.9131104,-2.812117E-09,NaN,-0.6117607,-1.326875E-07,NaN,0.1816205,-5.256534E-07,NaN,-1.085818,2.030972E-05,-0.1319205,8.311174E-08,NaN,NaN,-0.5171644,-3.166502E-10,-1.013772E-06,-1.107576E-07,-3.857429E-09,-2.622604E-08
696.3195,-0.9131104,-2.812117E-09,NaN,-0.6117607,-1.326875E-07,NaN,0.1816205,-5.256534E-07,NaN,-1.085818,2.030972E-05,-0.1319205,8.311174E-08,NaN,NaN,-0.5171644,-3.166502E-10,-1.013772E-06,-1.107576E-07,-3.857429E-09,-2.622604E-08
696.3347,-0.9197906,-2.811409E-09,NaN,-0.6120078,-1.326874E-07,NaN,0.1863075,-5.260566E-07,NaN,-1.087085,2.031014E-05,-0.1378448,8.351636E-08,NaN,NaN,-0.5174721,-3.166502E-10,-1.051919E-06,-1.107576E-07,-9.817893E-09,-2.861022E-08
696.3504,-0.9264869,-2.810701E-09,NaN,-0.6122539,-1.326878E-07,NaN,0.1908951,-5.263022E-07,NaN,-1.088395,2.031057E-05,-0.1436563,8.376347E-08,NaN,NaN,-0.5177739,-3.119936E-10,-1.087682E-06,-1.10758E-07,-5.049522E-09,-2.622604E-08
696.3666,-0.9335076,-2.809994E-09,NaN,-0.6125118,-1.326883E-07,NaN,0.1960088,-5.26464E-07,NaN,-1.089688,2.031102E-05,-0.15026,8.392668E-08,NaN,NaN,-0.5181156,-3.119936E-10,-1.13477E-06,-1.107585E-07,-3.857429E-09,-2.861022E-08
696.3821,-0.9406948,-2.809286E-09,NaN,-0.6127742,-1.326891E-07,NaN,0.2010854,-5.265774E-07,NaN,-1.091049,2.031145E-05,-0.1567311,8.404148E-08,NaN,NaN,-0.5184505,-3.026804E-10,-1.177089E-06,-1.107591E-07,-9.817893E-09,-2.622604E-08
696.3976,-0.9406948,-2.809286E-09,NaN,-0.6127742,-1.326891E-07,NaN,0.2010854,-5.265774E-07,NaN,-1.091049,2.031145E-05,-0.1567311,8.404148E-08,NaN,NaN,-0.5184505,-3.026804E-10,-1.177089E-06,-1.107591E-07,-9.817893E-09,-2.622604E-08
