JMolnar6/NonAnthroHands_User_Study/HandsLoggerWithURDF/tempdata/files/Reachy_JointMotion_gesture_6_31.csv
Time,r_shoulder,r_shoulder_x,r_upper_arm,r_forearm,r_wrist,r_wrist2hand,
338.2699,-0.09805433,-1.789687E-08,NaN,-0.3272405,-1.355083E-07,NaN,0.4569172,-1.28353E-09,NaN,-2.168423,1.118206E-05,-0.3661523,-2.106589E-08,NaN,NaN,-0.05397596,7.450482E-11,-2.065597E-07,-1.135264E-07,3.51224E-09,-2.622604E-08
338.2883,-0.09768255,-1.789591E-08,NaN,-0.3272373,-1.355079E-07,NaN,0.45687,-1.253008E-09,NaN,-2.168597,1.118263E-05,-0.3660169,-2.109438E-08,NaN,NaN,-0.05330956,8.381804E-11,-1.972837E-07,-1.135257E-07,1.128054E-09,-2.622604E-08
338.3015,-0.09685212,-1.789496E-08,NaN,-0.327233,-1.355075E-07,NaN,0.4567427,-1.221561E-09,NaN,-2.168885,1.11832E-05,-0.3659306,-2.112379E-08,NaN,NaN,-0.05265627,9.313127E-11,-1.899076E-07,-1.13525E-07,1.128054E-09,-2.622604E-08
338.3175,-0.09685212,-1.789496E-08,NaN,-0.327233,-1.355075E-07,NaN,0.4567427,-1.221561E-09,NaN,-2.168885,1.11832E-05,-0.3659306,-2.112379E-08,NaN,NaN,-0.05265627,9.313127E-11,-1.899076E-07,-1.13525E-07,1.128054E-09,-2.622604E-08
338.3341,-0.09573659,-1.7894E-08,NaN,-0.3272283,-1.355071E-07,NaN,0.4566001,-1.190616E-09,NaN,-2.16918,1.118379E-05,-0.3658727,-2.11527E-08,NaN,NaN,-0.05201585,9.313127E-11,-1.849903E-07,-1.135244E-07,-3.640318E-09,-2.622604E-08
338.3493,-0.09444632,-1.789304E-08,NaN,-0.3272235,-1.355067E-07,NaN,0.4564697,-1.158751E-09,NaN,-2.169446,1.118437E-05,-0.3658237,-2.118252E-08,NaN,NaN,-0.05138803,9.313127E-11,-1.796072E-07,-1.135237E-07,-2.448225E-09,-2.622604E-08
338.365,-0.09377982,-1.789209E-08,NaN,-0.3272211,-1.355062E-07,NaN,0.4565205,-1.303927E-09,NaN,-2.169288,1.118495E-05,-0.3658041,-2.103531E-08,NaN,NaN,-0.05077292,9.778788E-11,-1.827737E-07,-1.135247E-07,-6.4039E-11,-2.622604E-08
338.3806,-0.09350859,-1.789113E-08,NaN,-0.32722,-1.355061E-07,NaN,0.4566681,-1.367261E-09,NaN,-2.168983,1.118555E-05,-0.3657334,-2.096995E-08,NaN,NaN,-0.05016984,9.313127E-11,-1.857353E-07,-1.13526E-07,-6.024503E-09,-2.622604E-08
338.3964,-0.09350859,-1.789113E-08,NaN,-0.32722,-1.355061E-07,NaN,0.4566681,-1.367261E-09,NaN,-2.168983,1.118555E-05,-0.3657334,-2.096995E-08,NaN,NaN,-0.05016984,9.313127E-11,-1.857353E-07,-1.13526E-07,-6.024503E-09,-2.622604E-08
338.4113,-0.09348723,-1.789017E-08,NaN,-0.3272194,-1.355062E-07,NaN,0.4568439,-1.388391E-09,NaN,-2.168643,1.118614E-05,-0.3656324,-2.094679E-08,NaN,NaN,-0.04957853,9.313127E-11,-1.862755E-07,-1.135275E-07,-7.216596E-09,-2.622604E-08
338.4279,-0.09362207,-1.788922E-08,NaN,-0.3272189,-1.355065E-07,NaN,0.4570169,-1.385038E-09,NaN,-2.168312,1.118674E-05,-0.3655212,-2.094812E-08,NaN,NaN,-0.04899876,9.313127E-11,-1.878401E-07,-1.13529E-07,-3.640318E-09,-2.622604E-08
338.4434,-0.09458297,-1.788826E-08,NaN,-0.3272199,-1.355069E-07,NaN,0.4573413,-1.368954E-09,NaN,-2.167614,1.118734E-05,-0.3654372,-2.096218E-08,NaN,NaN,-0.04843073,9.778788E-11,-1.956073E-07,-1.135307E-07,-6.024504E-09,-2.622604E-08
338.4592,-0.09458297,-1.788826E-08,NaN,-0.3272199,-1.355069E-07,NaN,0.4573413,-1.368954E-09,NaN,-2.167614,1.118734E-05,-0.3654372,-2.096218E-08,NaN,NaN,-0.04843073,9.778788E-11,-1.956073E-07,-1.135307E-07,-6.024504E-09,-2.622604E-08
338.4744,-0.0960596,-1.78873E-08,NaN,-0.3272212,-1.355073E-07,NaN,0.4577323,-1.344606E-09,NaN,-2.166824,1.118795E-05,-0.3653074,-2.098451E-08,NaN,NaN,-0.04787377,9.778788E-11,-2.042314E-07,-1.135323E-07,-3.640318E-09,-2.622604E-08
338.4909,-0.09785455,-1.788635E-08,NaN,-0.3272223,-1.355077E-07,NaN,0.4581267,-1.317798E-09,NaN,-2.166045,1.118855E-05,-0.3651539,-2.100931E-08,NaN,NaN,-0.04732766,1.024445E-10,-2.124642E-07,-1.13534E-07,-6.024504E-09,-2.622604E-08
338.5067,-0.09984227,-1.788539E-08,NaN,-0.3272229,-1.355082E-07,NaN,0.4584998,-1.289983E-09,NaN,-2.16531,1.118915E-05,-0.3649959,-2.103511E-08,NaN,NaN,-0.04679221,1.071011E-10,-2.184992E-07,-1.135357E-07,-2.448225E-09,-2.622604E-08
338.5225,-0.1026713,-1.788443E-08,NaN,-0.3272253,-1.355087E-07,NaN,0.4590105,-1.261179E-09,NaN,-2.164237,1.118976E-05,-0.3648677,-2.106191E-08,NaN,NaN,-0.0462676,1.071011E-10,-2.302152E-07,-1.135373E-07,-4.832411E-09,-2.622604E-08
338.5381,-0.1026713,-1.788443E-08,NaN,-0.3272253,-1.355087E-07,NaN,0.4590105,-1.261179E-09,NaN,-2.164237,1.118976E-05,-0.3648677,-2.106191E-08,NaN,NaN,-0.0462676,1.071011E-10,-2.302152E-07,-1.135373E-07,-4.832411E-09,-2.622604E-08
338.5534,-0.1060177,-1.788347E-08,NaN,-0.327228,-1.355092E-07,NaN,0.4595765,-1.232812E-09,NaN,-2.163094,1.119036E-05,-0.3646962,-2.108827E-08,NaN,NaN,-0.04575322,1.117577E-10,-2.430861E-07,-1.13539E-07,-6.024504E-09,-2.622604E-08
338.5698,-0.1096758,-1.788252E-08,NaN,-0.3272299,-1.355097E-07,NaN,0.4601367,-1.206285E-09,NaN,-2.161981,1.119097E-05,-0.3645037,-2.111279E-08,NaN,NaN,-0.04524884,1.117577E-10,-2.536287E-07,-1.135407E-07,-1.256132E-09,-2.622604E-08
338.5859,-0.1135145,-1.788156E-08,NaN,-0.3272311,-1.355101E-07,NaN,0.4606682,-1.180149E-09,NaN,-2.160927,1.119158E-05,-0.3643086,-2.113692E-08,NaN,NaN,-0.04475429,1.164143E-10,-2.626626E-07,-1.135424E-07,2.320147E-09,-2.622604E-08
338.6015,-0.1181791,-1.78806E-08,NaN,-0.3272338,-1.355106E-07,NaN,0.4613316,-1.15581E-09,NaN,-2.159549,1.119219E-05,-0.3641421,-2.115926E-08,NaN,NaN,-0.04426977,1.21071E-10,-2.792773E-07,-1.13544E-07,1.128054E-09,-2.622604E-08
338.6178,-0.1181791,-1.78806E-08,NaN,-0.3272338,-1.355106E-07,NaN,0.4613316,-1.15581E-09,NaN,-2.159549,1.119219E-05,-0.3641421,-2.115926E-08,NaN,NaN,-0.04426977,1.21071E-10,-2.792773E-07,-1.13544E-07,1.128054E-09,-2.622604E-08
338.6325,-0.1233438,-1.787964E-08,NaN,-0.3272361,-1.355111E-07,NaN,0.4620442,-1.131817E-09,NaN,-2.158112,1.119279E-05,-0.3639333,-2.118125E-08,NaN,NaN,-0.04379468,1.257276E-10,-2.921668E-07,-1.135457E-07,-6.403922E-11,-2.622604E-08
338.649,-0.1288015,-1.787869E-08,NaN,-0.3272372,-1.355116E-07,NaN,0.4627454,-1.109576E-09,NaN,-2.156716,1.11934E-05,-0.3637047,-2.120148E-08,NaN,NaN,-0.04332883,1.303842E-10,-3.043299E-07,-1.135473E-07,-6.024504E-09,-2.622604E-08
338.6646,-0.1344207,-1.787773E-08,NaN,-0.3272375,-1.355121E-07,NaN,0.4634125,-1.089053E-09,NaN,-2.155389,1.1194E-05,-0.3634751,-2.122E-08,NaN,NaN,-0.04287205,1.350408E-10,-3.167538E-07,-1.13549E-07,-6.024504E-09,-2.622604E-08
338.6805,-0.1408462,-1.787677E-08,NaN,-0.3272388,-1.355126E-07,NaN,0.4642079,-1.071627E-09,NaN,-2.153748,1.119461E-05,-0.3632718,-2.123543E-08,NaN,NaN,-0.04242454,1.396974E-10,-3.32549E-07,-1.135506E-07,-2.448225E-09,-2.622604E-08
338.6963,-0.1408462,-1.787677E-08,NaN,-0.3272388,-1.355126E-07,NaN,0.4642079,-1.071627E-09,NaN,-2.153748,1.119461E-05,-0.3632718,-2.123543E-08,NaN,NaN,-0.04242454,1.396974E-10,-3.32549E-07,-1.135506E-07,-2.448225E-09,-2.622604E-08
338.7115,-0.147752,-1.787581E-08,NaN,-0.3272395,-1.35513E-07,NaN,0.4650472,-1.054412E-09,NaN,-2.152058,1.119522E-05,-0.363027,-2.125064E-08,NaN,NaN,-0.04198572,1.396974E-10,-3.474874E-07,-1.135523E-07,-6.403922E-11,-2.622604E-08
338.728,-0.1549311,-1.787485E-08,NaN,-0.3272394,-1.355135E-07,NaN,0.4658698,-1.038815E-09,NaN,-2.150417,1.119583E-05,-0.3627643,-2.126424E-08,NaN,NaN,-0.04155543,1.396974E-10,-3.623513E-07,-1.135539E-07,2.320147E-09,-2.622604E-08
338.7437,-0.162252,-1.787389E-08,NaN,-0.3272387,-1.35514E-07,NaN,0.4666539,-1.024807E-09,NaN,-2.148854,1.119643E-05,-0.3625019,-2.127624E-08,NaN,NaN,-0.04113352,1.44354E-10,-3.750918E-07,-1.135555E-07,-1.256132E-09,-2.622604E-08
338.7599,-0.162252,-1.787389E-08,NaN,-0.3272387,-1.35514E-07,NaN,0.4666539,-1.024807E-09,NaN,-2.148854,1.119643E-05,-0.3625019,-2.127624E-08,NaN,NaN,-0.04113352,1.44354E-10,-3.750918E-07,-1.135555E-07,-1.256132E-09,-2.622604E-08
338.7744,-0.1703598,-1.787293E-08,NaN,-0.327239,-1.355145E-07,NaN,0.4675632,-1.012357E-09,NaN,-2.146986,1.119704E-05,-0.3622635,-2.12867E-08,NaN,NaN,-0.04072017,1.44354E-10,-3.942025E-07,-1.135571E-07,2.320147E-09,-2.622604E-08
338.7906,-0.1789286,-1.787197E-08,NaN,-0.3272386,-1.35515E-07,NaN,0.4685111,-1.001434E-09,NaN,-2.145077,1.119765E-05,-0.3619845,-2.129562E-08,NaN,NaN,-0.04031484,1.490106E-10,-4.091782E-07,-1.135587E-07,3.512239E-09,-2.622604E-08
338.8067,-0.1877515,-1.787101E-08,NaN,-0.3272374,-1.355155E-07,NaN,0.4694377,-9.905924E-10,NaN,-2.143225,1.119826E-05,-0.3616892,-2.130447E-08,NaN,NaN,-0.03991737,1.490106E-10,-4.243028E-07,-1.135603E-07,-1.256132E-09,-2.622604E-08
338.8228,-0.1966973,-1.787006E-08,NaN,-0.3272356,-1.355159E-07,NaN,0.4703218,-9.812451E-10,NaN,-2.141459,1.119887E-05,-0.3613954,-2.131182E-08,NaN,NaN,-0.03952764,1.536672E-10,-4.372669E-07,-1.135619E-07,-9.600782E-09,-2.622604E-08
338.8416,-0.2064113,-1.78691E-08,NaN,-0.3272347,-1.355164E-07,NaN,0.4713279,-9.733626E-10,NaN,-2.139395,1.119948E-05,-0.3611234,-2.13177E-08,NaN,NaN,-0.03914583,1.583238E-10,-4.584265E-07,-1.135635E-07,-1.317706E-08,-2.622604E-08
338.8565,-0.2064113,-1.78691E-08,NaN,-0.3272347,-1.355164E-07,NaN,0.4713279,-9.733626E-10,NaN,-2.139395,1.119948E-05,-0.3611234,-2.13177E-08,NaN,NaN,-0.03914583,1.583238E-10,-4.584265E-07,-1.135635E-07,-1.317706E-08,-2.622604E-08
338.8696,-0.2165677,-1.786814E-08,NaN,-0.327233,-1.355169E-07,NaN,0.4723679,-9.669165E-10,NaN,-2.137299,1.120009E-05,-0.3608117,-2.132215E-08,NaN,NaN,-0.03877142,1.629804E-10,-4.757119E-07,-1.135651E-07,-1.556125E-08,-2.622604E-08
338.8861,-0.22696,-1.786718E-08,NaN,-0.3272304,-1.355173E-07,NaN,0.4733822,-9.604643E-10,NaN,-2.135267,1.120071E-05,-0.3604855,-2.132661E-08,NaN,NaN,-0.03840426,1.629804E-10,-4.929227E-07,-1.135667E-07,-1.794543E-08,-2.622604E-08
338.902,-0.2374569,-1.786622E-08,NaN,-0.3272264,-1.355178E-07,NaN,0.4743503,-9.554274E-10,NaN,-2.133327,1.120132E-05,-0.3601619,-2.132965E-08,NaN,NaN,-0.03804423,1.629804E-10,-5.072278E-07,-1.135683E-07,-1.913753E-08,-2.622604E-08
338.9179,-0.2374569,-1.786622E-08,NaN,-0.3272264,-1.355178E-07,NaN,0.4743503,-9.554274E-10,NaN,-2.133327,1.120132E-05,-0.3601619,-2.132965E-08,NaN,NaN,-0.03804423,1.629804E-10,-5.072278E-07,-1.135683E-07,-1.913753E-08,-2.622604E-08
338.9331,-0.2487042,-1.786525E-08,NaN,-0.3272237,-1.355183E-07,NaN,0.4754374,-9.517684E-10,NaN,-2.131098,1.120193E-05,-0.3598581,-2.133131E-08,NaN,NaN,-0.03769153,1.67637E-10,-5.260778E-07,-1.135699E-07,-2.032962E-08,-2.622604E-08
338.9498,-0.2603762,-1.786429E-08,NaN,-0.3272198,-1.355187E-07,NaN,0.4765539,-9.494617E-10,NaN,-2.128843,1.120254E-05,-0.3595155,-2.133162E-08,NaN,NaN,-0.03734564,1.722937E-10,-5.455238E-07,-1.135714E-07,-2.032962E-08,-2.622604E-08
338.9655,-0.2722665,-1.786333E-08,NaN,-0.3272139,-1.355192E-07,NaN,0.4776408,-9.470698E-10,NaN,-2.126658,1.120315E-05,-0.3591599,-2.133201E-08,NaN,NaN,-0.03700645,1.769503E-10,-5.60276E-07,-1.13573E-07,-1.794543E-08,-2.622604E-08
338.9812,-0.2842442,-1.786237E-08,NaN,-0.3272062,-1.355197E-07,NaN,0.4786779,-9.460045E-10,NaN,-2.124573,1.120376E-05,-0.3588085,-2.133108E-08,NaN,NaN,-0.03667385,1.816069E-10,-5.742086E-07,-1.135746E-07,-1.675334E-08,-2.622604E-08
338.9969,-0.2842442,-1.786237E-08,NaN,-0.3272062,-1.355197E-07,NaN,0.4786779,-9.460045E-10,NaN,-2.124573,1.120376E-05,-0.3588085,-2.133108E-08,NaN,NaN,-0.03667385,1.816069E-10,-5.742086E-07,-1.135746E-07,-1.675334E-08,-2.622604E-08
339.0117,-0.296955,-1.786141E-08,NaN,-0.3271995,-1.355202E-07,NaN,0.4798316,-9.462426E-10,NaN,-2.122205,1.120437E-05,-0.3584742,-2.132884E-08,NaN,NaN,-0.03634801,1.862635E-10,-5.936546E-07,-1.135761E-07,-1.198497E-08,-2.622604E-08
339.0284,-0.3100738,-1.786045E-08,NaN,-0.3271913,-1.355206E-07,NaN,0.4810102,-9.477581E-10,NaN,-2.119817,1.120499E-05,-0.3581027,-2.132533E-08,NaN,NaN,-0.03602846,1.862635E-10,-6.1243E-07,-1.135777E-07,-1.198497E-08,-2.622604E-08
339.0443,-0.323394,-1.785949E-08,NaN,-0.3271809,-1.355211E-07,NaN,0.4821551,-9.491116E-10,NaN,-2.117506,1.12056E-05,-0.3577202,-2.132198E-08,NaN,NaN,-0.03571509,1.909201E-10,-6.291193E-07,-1.135792E-07,-1.079288E-08,-2.622604E-08
339.0603,-0.3367851,-1.785853E-08,NaN,-0.3271685,-1.355215E-07,NaN,0.4832472,-9.517189E-10,NaN,-2.115301,1.120621E-05,-0.3573437,-2.131738E-08,NaN,NaN,-0.0354078,1.909201E-10,-6.432754E-07,-1.135807E-07,-8.408691E-09,-2.622604E-08
339.076,-0.3367851,-1.785853E-08,NaN,-0.3271685,-1.355215E-07,NaN,0.4832472,-9.517189E-10,NaN,-2.115301,1.120621E-05,-0.3573437,-2.131738E-08,NaN,NaN,-0.0354078,1.909201E-10,-6.432754E-07,-1.135807E-07,-8.408691E-09,-2.622604E-08
339.0914,-0.3508931,-1.785756E-08,NaN,-0.3271571,-1.35522E-07,NaN,0.4844536,-9.555581E-10,NaN,-2.11282,1.120683E-05,-0.3569817,-2.131155E-08,NaN,NaN,-0.03510676,1.909201E-10,-6.611568E-07,-1.135823E-07,-6.024505E-09,-2.622604E-08
339.1078,-0.3653927,-1.78566E-08,NaN,-0.327144,-1.355224E-07,NaN,0.4856807,-9.606018E-10,NaN,-2.110324,1.120744E-05,-0.3565841,-2.130451E-08,NaN,NaN,-0.03481153,1.909201E-10,-6.787402E-07,-1.135838E-07,-1.317706E-08,-2.622604E-08
339.1233,-0.3800779,-1.785564E-08,NaN,-0.3271286,-1.355229E-07,NaN,0.4868704,-9.654142E-10,NaN,-2.107911,1.120806E-05,-0.3561778,-2.12977E-08,NaN,NaN,-0.03452199,1.909201E-10,-6.949825E-07,-1.135853E-07,-1.317706E-08,-2.622604E-08
339.1393,-0.3800779,-1.785564E-08,NaN,-0.3271286,-1.355229E-07,NaN,0.4868704,-9.654142E-10,NaN,-2.107911,1.120806E-05,-0.3561778,-2.12977E-08,NaN,NaN,-0.03452199,1.909201E-10,-6.949825E-07,-1.135853E-07,-1.317706E-08,-2.622604E-08
339.1544,-0.3955465,-1.785468E-08,NaN,-0.3271135,-1.355234E-07,NaN,0.4881733,-9.714128E-10,NaN,-2.105228,1.120867E-05,-0.3557787,-2.12897E-08,NaN,NaN,-0.03423833,1.909201E-10,-7.140559E-07,-1.135868E-07,-1.079288E-08,-2.622604E-08
339.1709,-0.411443,-1.785371E-08,NaN,-0.3270961,-1.355238E-07,NaN,0.4894882,-9.785734E-10,NaN,-2.102543,1.120928E-05,-0.355345,-2.128054E-08,NaN,NaN,-0.03396012,1.955767E-10,-7.317883E-07,-1.135883E-07,-9.600783E-09,-2.622604E-08
339.187,-0.4275419,-1.785275E-08,NaN,-0.3270757,-1.355243E-07,NaN,0.4907571,-9.86876E-10,NaN,-2.099957,1.120989E-05,-0.3549055,-2.127024E-08,NaN,NaN,-0.03368727,2.002333E-10,-7.441563E-07,-1.135898E-07,-3.640319E-09,-2.622604E-08
339.2025,-0.4437006,-1.785179E-08,NaN,-0.327053,-1.355247E-07,NaN,0.4919631,-9.948842E-10,NaN,-2.097496,1.121051E-05,-0.3544765,-2.126024E-08,NaN,NaN,-0.03341971,2.002333E-10,-7.577164E-07,-1.135913E-07,-4.832412E-09,-2.622604E-08
339.2187,-0.4437006,-1.785179E-08,NaN,-0.327053,-1.355247E-07,NaN,0.4919631,-9.948842E-10,NaN,-2.097496,1.121051E-05,-0.3544765,-2.126024E-08,NaN,NaN,-0.03341971,2.002333E-10,-7.577164E-07,-1.135913E-07,-4.832412E-09,-2.622604E-08
339.2334,-0.4605574,-1.785082E-08,NaN,-0.3270308,-1.355252E-07,NaN,0.4932759,-1.004016E-09,NaN,-2.094777,1.121112E-05,-0.3540585,-2.124911E-08,NaN,NaN,-0.03315758,2.002333E-10,-7.78727E-07,-1.135928E-07,-9.600783E-09,-2.622604E-08
339.2498,-0.4777827,-1.784986E-08,NaN,-0.3270065,-1.355256E-07,NaN,0.4945989,-1.01425E-09,NaN,-2.092059,1.121174E-05,-0.3536093,-2.123688E-08,NaN,NaN,-0.0329005,2.002333E-10,-7.933301E-07,-1.135943E-07,-9.600783E-09,-2.622604E-08
339.2654,-0.4951673,-1.78489E-08,NaN,-0.3269797,-1.355261E-07,NaN,0.4958764,-1.024153E-09,NaN,-2.089439,1.121235E-05,-0.3531562,-2.122498E-08,NaN,NaN,-0.03264836,2.002333E-10,-8.070392E-07,-1.135958E-07,-1.317706E-08,-2.622604E-08
339.2813,-0.5125794,-1.784793E-08,NaN,-0.3269506,-1.355265E-07,NaN,0.4970918,-1.035141E-09,NaN,-2.086943,1.121297E-05,-0.3527145,-2.1212E-08,NaN,NaN,-0.03240111,1.955767E-10,-8.18364E-07,-1.135973E-07,-1.317706E-08,-2.622604E-08
339.2972,-0.5125794,-1.784793E-08,NaN,-0.3269506,-1.355265E-07,NaN,0.4970918,-1.035141E-09,NaN,-2.086943,1.121297E-05,-0.3527145,-2.1212E-08,NaN,NaN,-0.03240111,1.955767E-10,-8.18364E-07,-1.135973E-07,-1.317706E-08,-2.622604E-08
339.3127,-0.5306639,-1.784697E-08,NaN,-0.3269225,-1.355269E-07,NaN,0.4984149,-1.047195E-09,NaN,-2.084189,1.121359E-05,-0.3522802,-2.119795E-08,NaN,NaN,-0.03215889,1.955767E-10,-8.338612E-07,-1.135988E-07,-9.600783E-09,-2.622604E-08
339.3287,-0.5490956,-1.784601E-08,NaN,-0.3268924,-1.355274E-07,NaN,0.4997463,-1.060293E-09,NaN,-2.081439,1.12142E-05,-0.3518162,-2.118286E-08,NaN,NaN,-0.0319213,1.955767E-10,-8.487624E-07,-1.136002E-07,-1.079288E-08,-2.622604E-08
339.3458,-0.5676682,-1.784504E-08,NaN,-0.3268598,-1.355278E-07,NaN,0.5010306,-1.073003E-09,NaN,-2.078788,1.121482E-05,-0.3513502,-2.116816E-08,NaN,NaN,-0.03168829,1.955767E-10,-8.606833E-07,-1.136017E-07,-8.408691E-09,-2.622604E-08
339.3604,-0.5862516,-1.784408E-08,NaN,-0.3268251,-1.355283E-07,NaN,0.5022518,-1.086744E-09,NaN,-2.076264,1.121543E-05,-0.350897,-2.115242E-08,NaN,NaN,-0.0314598,1.909201E-10,-8.714122E-07,-1.136032E-07,-6.024505E-09,-2.622604E-08
339.3761,-0.5862516,-1.784408E-08,NaN,-0.3268251,-1.355283E-07,NaN,0.5022518,-1.086744E-09,NaN,-2.076264,1.121543E-05,-0.350897,-2.115242E-08,NaN,NaN,-0.0314598,1.909201E-10,-8.714122E-07,-1.136032E-07,-6.024505E-09,-2.622604E-08
339.3913,-0.6054922,-1.784311E-08,NaN,-0.3267915,-1.355287E-07,NaN,0.5035798,-1.101496E-09,NaN,-2.073486,1.121605E-05,-0.3504484,-2.113567E-08,NaN,NaN,-0.03123594,1.909201E-10,-8.854192E-07,-1.136046E-07,-7.216598E-09,-2.622604E-08
339.4077,-0.6250653,-1.784215E-08,NaN,-0.3267559,-1.355291E-07,NaN,0.5049131,-1.115827E-09,NaN,-2.070715,1.121666E-05,-0.3499722,-2.111935E-08,NaN,NaN,-0.03101636,1.909201E-10,-8.979362E-07,-1.136061E-07,-6.024505E-09,-2.622604E-08
339.4234,-0.6447656,-1.784118E-08,NaN,-0.3267178,-1.355296E-07,NaN,0.5061972,-1.131157E-09,NaN,-2.068047,1.121727E-05,-0.3494963,-2.110202E-08,NaN,NaN,-0.03080101,1.955767E-10,-9.08069E-07,-1.136075E-07,-6.024505E-09,-2.622604E-08
339.4394,-0.6447656,-1.784118E-08,NaN,-0.3267178,-1.355296E-07,NaN,0.5061972,-1.131157E-09,NaN,-2.068047,1.121727E-05,-0.3494963,-2.110202E-08,NaN,NaN,-0.03080101,1.955767E-10,-9.08069E-07,-1.136075E-07,-6.024505E-09,-2.622604E-08
339.4542,-0.6644632,-1.784022E-08,NaN,-0.3266777,-1.3553E-07,NaN,0.5074168,-1.147468E-09,NaN,-2.065508,1.121789E-05,-0.3490347,-2.108372E-08,NaN,NaN,-0.03058983,1.955767E-10,-9.167117E-07,-1.136089E-07,-2.448227E-09,-2.622604E-08
339.4706,-0.6848047,-1.783925E-08,NaN,-0.3266387,-1.355305E-07,NaN,0.508742,-1.163327E-09,NaN,-2.062721,1.12185E-05,-0.3485751,-2.106586E-08,NaN,NaN,-0.03038293,1.955767E-10,-9.292287E-07,-1.136104E-07,-7.216598E-09,-2.622604E-08
339.4862,-0.7054659,-1.783829E-08,NaN,-0.3265977,-1.355309E-07,NaN,0.5100696,-1.180156E-09,NaN,-2.059944,1.121912E-05,-0.3480902,-2.104704E-08,NaN,NaN,-0.03017998,1.955767E-10,-9.402556E-07,-1.136118E-07,-3.640319E-09,-2.622604E-08
339.5019,-0.7262416,-1.783732E-08,NaN,-0.3265542,-1.355313E-07,NaN,0.511346,-1.197936E-09,NaN,-2.057272,1.121973E-05,-0.3476079,-2.102726E-08,NaN,NaN,-0.02998095,1.955767E-10,-9.486002E-07,-1.136132E-07,-6.024505E-09,-2.622604E-08
339.5179,-0.7262416,-1.783732E-08,NaN,-0.3265542,-1.355313E-07,NaN,0.511346,-1.197936E-09,NaN,-2.057272,1.121973E-05,-0.3476079,-2.102726E-08,NaN,NaN,-0.02998095,1.955767E-10,-9.486002E-07,-1.136132E-07,-6.024505E-09,-2.622604E-08
339.533,-0.7470021,-1.783635E-08,NaN,-0.3265088,-1.355318E-07,NaN,0.5125567,-1.216648E-09,NaN,-2.054734,1.122035E-05,-0.3471415,-2.100656E-08,NaN,NaN,-0.02978576,1.955767E-10,-9.593291E-07,-1.136147E-07,1.128052E-09,-2.622604E-08
339.552,-0.767887,-1.783539E-08,NaN,-0.3264629,-1.355322E-07,NaN,0.5137538,-1.234861E-09,NaN,-2.052215,1.122096E-05,-0.3466884,-2.098635E-08,NaN,NaN,-0.02959441,1.955767E-10,-9.673757E-07,-1.136161E-07,5.896423E-09,-2.622604E-08
339.5654,-0.7887627,-1.783442E-08,NaN,-0.3264162,-1.355326E-07,NaN,0.5149095,-1.253998E-09,NaN,-2.049786,1.122158E-05,-0.3462416,-2.096522E-08,NaN,NaN,-0.02940676,1.955767E-10,-9.730381E-07,-1.136175E-07,5.896423E-09,-2.622604E-08
339.5811,-0.8095451,-1.783345E-08,NaN,-0.326369,-1.35533E-07,NaN,0.5160118,-1.274042E-09,NaN,-2.04747,1.122219E-05,-0.3458084,-2.094318E-08,NaN,NaN,-0.02922274,1.955767E-10,-9.789986E-07,-1.136189E-07,8.280609E-09,-2.622604E-08
339.5969,-0.8095451,-1.783345E-08,NaN,-0.326369,-1.35533E-07,NaN,0.5160118,-1.274042E-09,NaN,-2.04747,1.122219E-05,-0.3458084,-2.094318E-08,NaN,NaN,-0.02922274,1.955767E-10,-9.789986E-07,-1.136189E-07,8.280609E-09,-2.622604E-08
339.6121,-0.8301818,-1.783249E-08,NaN,-0.3263218,-1.355335E-07,NaN,0.51706,-1.294975E-09,NaN,-2.045269,1.122281E-05,-0.3453915,-2.092025E-08,NaN,NaN,-0.02904231,1.955767E-10,-9.843631E-07,-1.136203E-07,8.280609E-09,-2.622604E-08
339.6288,-0.8506406,-1.783152E-08,NaN,-0.3262751,-1.355339E-07,NaN,0.5180571,-1.316779E-09,NaN,-2.043176,1.122343E-05,-0.3449912,-2.089646E-08,NaN,NaN,-0.02886538,1.909201E-10,-9.870453E-07,-1.136217E-07,8.280609E-09,-2.622604E-08
339.6442,-0.8709018,-1.783055E-08,NaN,-0.3262295,-1.355343E-07,NaN,0.5190069,-1.339435E-09,NaN,-2.041187,1.122404E-05,-0.3446064,-2.087181E-08,NaN,NaN,-0.02869188,1.909201E-10,-9.921116E-07,-1.136231E-07,1.06648E-08,-2.622604E-08
339.6603,-0.8909541,-1.782959E-08,NaN,-0.326185,-1.355347E-07,NaN,0.5199128,-1.361517E-09,NaN,-2.039293,1.122466E-05,-0.3442363,-2.084773E-08,NaN,NaN,-0.02852177,1.909201E-10,-9.950918E-07,-1.136245E-07,1.06648E-08,-2.622604E-08
339.676,-0.8909541,-1.782959E-08,NaN,-0.326185,-1.355347E-07,NaN,0.5199128,-1.361517E-09,NaN,-2.039293,1.122466E-05,-0.3442363,-2.084773E-08,NaN,NaN,-0.02852177,1.909201E-10,-9.950918E-07,-1.136245E-07,1.06648E-08,-2.622604E-08
339.6911,-0.9107912,-1.782862E-08,NaN,-0.3261421,-1.355352E-07,NaN,0.5207777,-1.384445E-09,NaN,-2.037491,1.122527E-05,-0.34388,-2.082281E-08,NaN,NaN,-0.02835497,1.955767E-10,-9.97476E-07,-1.136258E-07,1.06648E-08,-2.622604E-08
339.7075,-0.9304098,-1.782765E-08,NaN,-0.3261008,-1.355356E-07,NaN,0.5216037,-1.408205E-09,NaN,-2.035774,1.122588E-05,-0.3435368,-2.079706E-08,NaN,NaN,-0.02819141,1.955767E-10,-9.980721E-07,-1.136272E-07,1.06648E-08,-2.622604E-08
339.723,-0.9498093,-1.782668E-08,NaN,-0.3260612,-1.35536E-07,NaN,0.5223927,-1.431365E-09,NaN,-2.034141,1.12265E-05,-0.3432063,-2.07719E-08,NaN,NaN,-0.02803104,1.955767E-10,-9.956879E-07,-1.136286E-07,1.06648E-08,-2.622604E-08
339.7389,-0.9498093,-1.782668E-08,NaN,-0.3260612,-1.35536E-07,NaN,0.5223927,-1.431365E-09,NaN,-2.034141,1.12265E-05,-0.3432063,-2.07719E-08,NaN,NaN,-0.02803104,1.955767E-10,-9.956879E-07,-1.136286E-07,1.06648E-08,-2.622604E-08
339.7541,-0.9689896,-1.782571E-08,NaN,-0.3260233,-1.355364E-07,NaN,0.5231464,-1.455355E-09,NaN,-2.032588,1.122711E-05,-0.3428878,-2.074592E-08,NaN,NaN,-0.02787379,1.955767E-10,-9.933036E-07,-1.1363E-07,8.28061E-09,-2.622604E-08
339.7704,-0.9879521,-1.782475E-08,NaN,-0.3259872,-1.355369E-07,NaN,0.5238659,-1.47875E-09,NaN,-2.031111,1.122773E-05,-0.3425813,-2.072053E-08,NaN,NaN,-0.02771961,1.909201E-10,-9.933036E-07,-1.136313E-07,-1.256133E-09,-2.622604E-08
339.7865,-1.006698,-1.782378E-08,NaN,-0.3259528,-1.355373E-07,NaN,0.5245525,-1.502969E-09,NaN,-2.02971,1.122835E-05,-0.3422862,-2.069432E-08,NaN,NaN,-0.02756843,1.909201E-10,-9.921115E-07,-1.136327E-07,1.128053E-09,-2.622604E-08
339.8022,-1.02523,-1.782281E-08,NaN,-0.3259201,-1.355377E-07,NaN,0.5252072,-1.527995E-09,NaN,-2.028382,1.122896E-05,-0.3420024,-2.06673E-08,NaN,NaN,-0.02742019,1.909201E-10,-9.873431E-07,-1.13634E-07,1.128053E-09,-2.622604E-08
339.8182,-1.02523,-1.782281E-08,NaN,-0.3259201,-1.355377E-07,NaN,0.5252072,-1.527995E-09,NaN,-2.028382,1.122896E-05,-0.3420024,-2.06673E-08,NaN,NaN,-0.02742019,1.909201E-10,-9.873431E-07,-1.13634E-07,1.128053E-09,-2.622604E-08
339.8345,-1.04355,-1.782184E-08,NaN,-0.3258891,-1.355381E-07,NaN,0.525831,-1.552399E-09,NaN,-2.027125,1.122958E-05,-0.3417296,-2.064091E-08,NaN,NaN,-0.02727485,1.909201E-10,-9.849589E-07,-1.136354E-07,-1.256133E-09,-2.622604E-08
339.8496,-1.061659,-1.782087E-08,NaN,-0.3258597,-1.355385E-07,NaN,0.5264248,-1.577608E-09,NaN,-2.025937,1.123019E-05,-0.3414676,-2.061371E-08,NaN,NaN,-0.02713234,1.955767E-10,-9.825746E-07,-1.136367E-07,1.128053E-09,-2.622604E-08
339.8655,-1.07956,-1.781991E-08,NaN,-0.3258319,-1.355389E-07,NaN,0.5269896,-1.603604E-09,NaN,-2.024816,1.12308E-05,-0.3412162,-2.058572E-08,NaN,NaN,-0.0269926,1.955767E-10,-9.801904E-07,-1.136381E-07,5.896424E-09,-2.622604E-08
339.8814,-1.097256,-1.781894E-08,NaN,-0.3258057,-1.355393E-07,NaN,0.5275261,-1.62896E-09,NaN,-2.023762,1.123142E-05,-0.340975,-2.055838E-08,NaN,NaN,-0.0268556,1.955767E-10,-9.795943E-07,-1.136394E-07,1.128053E-09,-2.622604E-08
339.8971,-1.097256,-1.781894E-08,NaN,-0.3258057,-1.355393E-07,NaN,0.5275261,-1.62896E-09,NaN,-2.023762,1.123142E-05,-0.340975,-2.055838E-08,NaN,NaN,-0.0268556,1.955767E-10,-9.795943E-07,-1.136394E-07,1.128053E-09,-2.622604E-08
339.9121,-1.114749,-1.781797E-08,NaN,-0.3257809,-1.355397E-07,NaN,0.5280353,-1.6551E-09,NaN,-2.022771,1.123203E-05,-0.340744,-2.053025E-08,NaN,NaN,-0.02672126,1.955767E-10,-9.736339E-07,-1.136407E-07,3.512239E-09,-2.622604E-08
339.9289,-1.132041,-1.7817E-08,NaN,-0.3257577,-1.355401E-07,NaN,0.5285178,-1.682007E-09,NaN,-2.021843,1.123265E-05,-0.340523,-2.050135E-08,NaN,NaN,-0.02658954,1.909201E-10,-9.694616E-07,-1.136421E-07,5.896424E-09,-2.622604E-08
339.9442,-1.149134,-1.781603E-08,NaN,-0.3257358,-1.355406E-07,NaN,0.5289744,-1.708258E-09,NaN,-2.020977,1.123326E-05,-0.3403116,-2.047311E-08,NaN,NaN,-0.02646039,1.909201E-10,-9.658853E-07,-1.136434E-07,1.06648E-08,-2.622604E-08
339.9601,-1.166031,-1.781506E-08,NaN,-0.3257153,-1.35541E-07,NaN,0.5294059,-1.735274E-09,NaN,-2.02017,1.123388E-05,-0.3401097,-2.044411E-08,NaN,NaN,-0.02633376,1.909201E-10,-9.629051E-07,-1.136447E-07,1.06648E-08,-2.622604E-08
339.9757,-1.166031,-1.781506E-08,NaN,-0.3257153,-1.35541E-07,NaN,0.5294059,-1.735274E-09,NaN,-2.02017,1.123388E-05,-0.3401097,-2.044411E-08,NaN,NaN,-0.02633376,1.909201E-10,-9.629051E-07,-1.136447E-07,1.06648E-08,-2.622604E-08
339.9907,-1.182733,-1.781409E-08,NaN,-0.3256961,-1.355414E-07,NaN,0.5298129,-1.763042E-09,NaN,-2.019422,1.123449E-05,-0.3399172,-2.041435E-08,NaN,NaN,-0.02620961,1.955767E-10,-9.599249E-07,-1.13646E-07,1.304898E-08,-2.622604E-08
340.0073,-1.199244,-1.781312E-08,NaN,-0.3256783,-1.355418E-07,NaN,0.5301962,-1.790134E-09,NaN,-2.018731,1.12351E-05,-0.3397337,-2.038527E-08,NaN,NaN,-0.02608787,2.002333E-10,-9.527724E-07,-1.136473E-07,1.06648E-08,-2.622604E-08
340.0233,-1.215565,-1.781215E-08,NaN,-0.3256617,-1.355422E-07,NaN,0.5305564,-1.817976E-09,NaN,-2.018095,1.123571E-05,-0.3395591,-2.035544E-08,NaN,NaN,-0.02596851,2.002333E-10,-9.47408E-07,-1.136486E-07,1.304898E-08,-2.622604E-08
340.0393,-1.215565,-1.781215E-08,NaN,-0.3256617,-1.355422E-07,NaN,0.5305564,-1.817976E-09,NaN,-2.018095,1.123571E-05,-0.3395591,-2.035544E-08,NaN,NaN,-0.02596851,2.002333E-10,-9.47408E-07,-1.136486E-07,1.304898E-08,-2.622604E-08
340.0541,-1.231698,-1.781118E-08,NaN,-0.3256463,-1.355426E-07,NaN,0.5308942,-1.846553E-09,NaN,-2.017513,1.123633E-05,-0.3393933,-2.032487E-08,NaN,NaN,-0.02585149,2.002333E-10,-9.396593E-07,-1.136499E-07,1.781735E-08,-2.622604E-08
340.0703,-1.247646,-1.781021E-08,NaN,-0.3256321,-1.35543E-07,NaN,0.5312101,-1.874439E-09,NaN,-2.016984,1.123694E-05,-0.3392359,-2.0295E-08,NaN,NaN,-0.02573674,2.002333E-10,-9.342949E-07,-1.136512E-07,2.258572E-08,-2.622604E-08
340.0862,-1.263411,-1.780923E-08,NaN,-0.325619,-1.355434E-07,NaN,0.5315049,-1.903058E-09,NaN,-2.016506,1.123756E-05,-0.3390869,-2.026439E-08,NaN,NaN,-0.02562424,2.002333E-10,-9.283344E-07,-1.136525E-07,2.735409E-08,-2.622604E-08
340.1019,-1.278994,-1.780826E-08,NaN,-0.325607,-1.355438E-07,NaN,0.5317791,-1.930986E-09,NaN,-2.016078,1.123818E-05,-0.338946,-2.023447E-08,NaN,NaN,-0.02551393,1.955767E-10,-9.187977E-07,-1.136538E-07,2.258572E-08,-2.622604E-08
340.1179,-1.278994,-1.780826E-08,NaN,-0.325607,-1.355438E-07,NaN,0.5317791,-1.930986E-09,NaN,-2.016078,1.123818E-05,-0.338946,-2.023447E-08,NaN,NaN,-0.02551393,1.955767E-10,-9.187977E-07,-1.136538E-07,2.258572E-08,-2.622604E-08
340.133,-1.294398,-1.780729E-08,NaN,-0.3255961,-1.355442E-07,NaN,0.5320333,-1.959645E-09,NaN,-2.0157,1.123879E-05,-0.3388131,-2.020383E-08,NaN,NaN,-0.02540578,1.955767E-10,-9.10453E-07,-1.136551E-07,2.973828E-08,-2.622604E-08
340.1499,-1.309625,-1.780632E-08,NaN,-0.3255862,-1.355446E-07,NaN,0.5322681,-1.989026E-09,NaN,-2.015369,1.123941E-05,-0.3386879,-2.017246E-08,NaN,NaN,-0.02529974,1.955767E-10,-9.021084E-07,-1.136563E-07,2.496991E-08,-2.622604E-08
340.1653,-1.324678,-1.780535E-08,NaN,-0.3255773,-1.35545E-07,NaN,0.532484,-2.017699E-09,NaN,-2.015085,1.124002E-05,-0.3385703,-2.01418E-08,NaN,NaN,-0.02519578,1.955767E-10,-8.931677E-07,-1.136576E-07,2.258573E-08,-2.622604E-08
340.1812,-1.339336,-1.780438E-08,NaN,-0.3255687,-1.355454E-07,NaN,0.5326306,-2.04709E-09,NaN,-2.014959,1.124064E-05,-0.3384699,-2.011042E-08,NaN,NaN,-0.02509382,1.909201E-10,-8.84227E-07,-1.136589E-07,2.258573E-08,-2.622604E-08
340.1966,-1.339336,-1.780438E-08,NaN,-0.3255687,-1.355454E-07,NaN,0.5326306,-2.04709E-09,NaN,-2.014959,1.124064E-05,-0.3384699,-2.011042E-08,NaN,NaN,-0.02509382,1.909201E-10,-8.84227E-07,-1.136589E-07,2.258573E-08,-2.622604E-08
340.2114,-1.353685,-1.78034E-08,NaN,-0.3255612,-1.355458E-07,NaN,0.5327436,-2.077187E-09,NaN,-2.014911,1.124126E-05,-0.3383873,-2.007834E-08,NaN,NaN,-0.02499386,1.909201E-10,-8.746903E-07,-1.136601E-07,2.73541E-08,-2.622604E-08
340.2279,-1.36778,-1.780243E-08,NaN,-0.3255552,-1.355462E-07,NaN,0.53284,-2.106561E-09,NaN,-2.014907,1.124187E-05,-0.338314,-2.004697E-08,NaN,NaN,-0.02489586,1.909201E-10,-8.651535E-07,-1.136614E-07,2.973828E-08,-2.622604E-08
340.2438,-1.381655,-1.780146E-08,NaN,-0.3255507,-1.355466E-07,NaN,0.5329248,-2.136641E-09,NaN,-2.014936,1.124249E-05,-0.3382467,-2.001491E-08,NaN,NaN,-0.02479978,1.909201E-10,-8.550207E-07,-1.136627E-07,2.973828E-08,-2.622604E-08
340.2595,-1.381655,-1.780146E-08,NaN,-0.3255507,-1.355466E-07,NaN,0.5329248,-2.136641E-09,NaN,-2.014936,1.124249E-05,-0.3382467,-2.001491E-08,NaN,NaN,-0.02479978,1.909201E-10,-8.550207E-07,-1.136627E-07,2.973828E-08,-2.622604E-08
340.2744,-1.394608,-1.780049E-08,NaN,-0.3255451,-1.355469E-07,NaN,0.5328314,-2.166001E-09,NaN,-2.015369,1.12431E-05,-0.3382165,-1.998356E-08,NaN,NaN,-0.02470549,1.909201E-10,-8.425038E-07,-1.136639E-07,2.973828E-08,-2.622604E-08
340.2907,-1.406924,-1.779952E-08,NaN,-0.3255413,-1.355473E-07,NaN,0.5326756,-2.196097E-09,NaN,-2.01594,1.124371E-05,-0.3382256,-1.995148E-08,NaN,NaN,-0.02461308,1.909201E-10,-8.305828E-07,-1.136652E-07,3.212247E-08,-2.622604E-08
340.3063,-1.41879,-1.779855E-08,NaN,-0.3255396,-1.355477E-07,NaN,0.5325105,-2.225473E-09,NaN,-2.016547,1.124432E-05,-0.3382469,-1.992011E-08,NaN,NaN,-0.02452251,1.909201E-10,-8.186619E-07,-1.136664E-07,2.73541E-08,-2.622604E-08
340.3219,-1.430323,-1.779757E-08,NaN,-0.3255392,-1.355481E-07,NaN,0.5323516,-1.930027E-09,NaN,-2.017152,1.124491E-05,-0.3382694,-2.015367E-08,NaN,NaN,-0.02443371,2.002333E-10,-8.109133E-07,-1.136682E-07,2.973828E-08,-2.622604E-08
340.3396,-1.430323,-1.779757E-08,NaN,-0.3255392,-1.355481E-07,NaN,0.5323516,-1.930027E-09,NaN,-2.017152,1.124491E-05,-0.3382694,-2.015367E-08,NaN,NaN,-0.02443371,2.002333E-10,-8.109133E-07,-1.136682E-07,2.973828E-08,-2.622604E-08
340.353,-1.44087,-1.77966E-08,NaN,-0.3255384,-1.355486E-07,NaN,0.532032,-1.634581E-09,NaN,-2.018126,1.12455E-05,-0.3383228,-2.034294E-08,NaN,NaN,-0.02434655,2.048899E-10,-7.966082E-07,-1.136701E-07,2.73541E-08,-2.622604E-08
340.369,-1.450752,-1.779563E-08,NaN,-0.3255388,-1.355493E-07,NaN,0.5316656,-1.339135E-09,NaN,-2.019204,1.124609E-05,-0.3384097,-2.049956E-08,NaN,NaN,-0.02426114,2.048899E-10,-7.840912E-07,-1.13672E-07,2.73541E-08,-2.622604E-08
340.3849,-1.460176,-1.779466E-08,NaN,-0.3255403,-1.355499E-07,NaN,0.5313026,-1.043689E-09,NaN,-2.020289,1.124668E-05,-0.3385038,-2.06321E-08,NaN,NaN,-0.02417743,2.002333E-10,-7.721703E-07,-1.13674E-07,2.973828E-08,-2.622604E-08
340.4006,-1.469271,-1.779369E-08,NaN,-0.3255427,-1.355506E-07,NaN,0.5309562,-7.482434E-10,NaN,-2.021349,1.124726E-05,-0.3385953,-2.074683E-08,NaN,NaN,-0.02409535,2.048899E-10,-7.620375E-07,-1.13676E-07,3.212247E-08,-2.622604E-08
340.4165,-1.469271,-1.779369E-08,NaN,-0.3255427,-1.355506E-07,NaN,0.5309562,-7.482434E-10,NaN,-2.021349,1.124726E-05,-0.3385953,-2.074683E-08,NaN,NaN,-0.02409535,2.048899E-10,-7.620375E-07,-1.13676E-07,3.212247E-08,-2.622604E-08
340.4311,-1.477394,-1.779272E-08,NaN,-0.3255445,-1.355512E-07,NaN,0.5304575,-4.527975E-10,NaN,-2.022756,1.124784E-05,-0.3387136,-2.084837E-08,NaN,NaN,-0.02401479,2.002333E-10,-7.471364E-07,-1.136779E-07,2.258573E-08,-2.622604E-08
340.4475,-1.484871,-1.779174E-08,NaN,-0.3255472,-1.355519E-07,NaN,0.529919,-1.573515E-10,NaN,-2.024251,1.124842E-05,-0.338863,-2.094011E-08,NaN,NaN,-0.02393585,1.955767E-10,-7.346194E-07,-1.136799E-07,2.020154E-08,-2.622604E-08
340.4631,-1.49191,-1.779077E-08,NaN,-0.3255515,-1.355525E-07,NaN,0.5293903,1.380944E-10,NaN,-2.025736,1.1249E-05,-0.339018,-2.102454E-08,NaN,NaN,-0.02385847,2.002333E-10,-7.209104E-07,-1.136818E-07,2.258573E-08,-2.622604E-08
340.4787,-1.49191,-1.779077E-08,NaN,-0.3255515,-1.355525E-07,NaN,0.5293903,1.380944E-10,NaN,-2.025736,1.1249E-05,-0.339018,-2.102454E-08,NaN,NaN,-0.02385847,2.002333E-10,-7.209104E-07,-1.136818E-07,2.258573E-08,-2.622604E-08
340.494,-1.497917,-1.77898E-08,NaN,-0.3255554,-1.355532E-07,NaN,0.5287154,4.335404E-10,NaN,-2.027558,1.124957E-05,-0.3391984,-2.11035E-08,NaN,NaN,-0.02378251,2.002333E-10,-7.030289E-07,-1.136838E-07,2.258573E-08,-2.622604E-08
340.5102,-1.503249,-1.778883E-08,NaN,-0.3255612,-1.355538E-07,NaN,0.5280096,7.289863E-10,NaN,-2.029449,1.125015E-05,-0.339408,-2.117832E-08,NaN,NaN,-0.02370808,2.002333E-10,-6.845515E-07,-1.136857E-07,2.020154E-08,-2.622604E-08
340.526,-1.508134,-1.778786E-08,NaN,-0.3255692,-1.355544E-07,NaN,0.5273226,1.024432E-09,NaN,-2.03131,1.125073E-05,-0.33962,-2.125E-08,NaN,NaN,-0.02363514,2.002333E-10,-6.690543E-07,-1.136876E-07,2.020154E-08,-2.622604E-08
340.5415,-1.512718,-1.778689E-08,NaN,-0.3255793,-1.35555E-07,NaN,0.5266663,1.319878E-09,NaN,-2.033114,1.125131E-05,-0.3398246,-2.131926E-08,NaN,NaN,-0.02356363,2.002333E-10,-6.559412E-07,-1.136895E-07,2.020154E-08,-2.622604E-08
340.5571,-1.512718,-1.778689E-08,NaN,-0.3255793,-1.35555E-07,NaN,0.5266663,1.319878E-09,NaN,-2.033114,1.125131E-05,-0.3398246,-2.131926E-08,NaN,NaN,-0.02356363,2.002333E-10,-6.559412E-07,-1.136895E-07,2.020154E-08,-2.622604E-08
340.5719,-1.516364,-1.778591E-08,NaN,-0.3255888,-1.355557E-07,NaN,0.5258696,1.615324E-09,NaN,-2.035236,1.125188E-05,-0.3400483,-2.138664E-08,NaN,NaN,-0.0234934,2.002333E-10,-6.386559E-07,-1.136914E-07,1.781735E-08,-2.622604E-08
340.5887,-1.519406,-1.778494E-08,NaN,-0.3255991,-1.355563E-07,NaN,0.5250428,1.91077E-09,NaN,-2.037418,1.125246E-05,-0.3403002,-2.145253E-08,NaN,NaN,-0.02342459,2.002333E-10,-6.243508E-07,-1.136933E-07,2.258573E-08,-2.622604E-08
340.6039,-1.522055,-1.778397E-08,NaN,-0.3256107,-1.355569E-07,NaN,0.5242355,2.206216E-09,NaN,-2.039566,1.125304E-05,-0.3405546,-2.151721E-08,NaN,NaN,-0.02335716,2.002333E-10,-6.088536E-07,-1.136952E-07,1.781736E-08,-2.622604E-08
340.6197,-1.522055,-1.778397E-08,NaN,-0.3256107,-1.355569E-07,NaN,0.5242355,2.206216E-09,NaN,-2.039566,1.125304E-05,-0.3405546,-2.151721E-08,NaN,NaN,-0.02335716,2.002333E-10,-6.088536E-07,-1.136952E-07,1.781736E-08,-2.622604E-08
340.6347,-1.524445,-1.7783E-08,NaN,-0.3256234,-1.355575E-07,NaN,0.5234599,2.501662E-09,NaN,-2.04165,1.125362E-05,-0.3408011,-2.158091E-08,NaN,NaN,-0.02329105,2.002333E-10,-5.939524E-07,-1.13697E-07,1.781736E-08,-2.622604E-08
340.6511,-1.525934,-1.778203E-08,NaN,-0.3256347,-1.355581E-07,NaN,0.5225456,2.797108E-09,NaN,-2.044047,1.125419E-05,-0.3410639,-2.164378E-08,NaN,NaN,-0.02322611,1.955767E-10,-5.742829E-07,-1.136989E-07,2.258573E-08,-2.622604E-08
340.6667,-1.526851,-1.778106E-08,NaN,-0.3256458,-1.355588E-07,NaN,0.5216024,3.092554E-09,NaN,-2.046498,1.125476E-05,-0.3413549,-2.170593E-08,NaN,NaN,-0.02316249,2.002333E-10,-5.564015E-07,-1.137008E-07,2.973828E-08,-2.622604E-08
340.6824,-1.527403,-1.778009E-08,NaN,-0.3256573,-1.355594E-07,NaN,0.5206809,3.387999E-09,NaN,-2.048906,1.125533E-05,-0.3416481,-2.176746E-08,NaN,NaN,-0.02310013,2.048899E-10,-5.426924E-07,-1.137026E-07,3.450666E-08,-2.622604E-08
340.6981,-1.527403,-1.778009E-08,NaN,-0.3256573,-1.355594E-07,NaN,0.5206809,3.387999E-09,NaN,-2.048906,1.125533E-05,-0.3416481,-2.176746E-08,NaN,NaN,-0.02310013,2.048899E-10,-5.426924E-07,-1.137026E-07,3.450666E-08,-2.622604E-08
340.7128,-1.527723,-1.777912E-08,NaN,-0.3256692,-1.3556E-07,NaN,0.5197941,3.683445E-09,NaN,-2.051244,1.12559E-05,-0.3419327,-2.182842E-08,NaN,NaN,-0.02303901,2.002333E-10,-5.260031E-07,-1.137045E-07,3.212247E-08,-2.622604E-08
340.7296,-1.52717,-1.777815E-08,NaN,-0.3256791,-1.355606E-07,NaN,0.5187718,3.978891E-09,NaN,-2.053885,1.125646E-05,-0.3422295,-2.188886E-08,NaN,NaN,-0.02297894,1.955767E-10,-5.057375E-07,-1.137063E-07,3.212247E-08,-2.622604E-08
340.7454,-1.526069,-1.777718E-08,NaN,-0.3256881,-1.355612E-07,NaN,0.5177224,4.274337E-09,NaN,-2.056571,1.125703E-05,-0.3425545,-2.194882E-08,NaN,NaN,-0.0229201,1.909201E-10,-4.884522E-07,-1.137082E-07,3.450666E-08,-2.622604E-08
340.7611,-1.524629,-1.777621E-08,NaN,-0.3256967,-1.355618E-07,NaN,0.5166975,4.569783E-09,NaN,-2.059206,1.12576E-05,-0.3428812,-2.200833E-08,NaN,NaN,-0.02286243,1.862635E-10,-4.717629E-07,-1.1371E-07,3.450666E-08,-2.622604E-08
340.7766,-1.524629,-1.777621E-08,NaN,-0.3256967,-1.355618E-07,NaN,0.5166975,4.569783E-09,NaN,-2.059206,1.12576E-05,-0.3428812,-2.200833E-08,NaN,NaN,-0.02286243,1.862635E-10,-4.717629E-07,-1.1371E-07,3.450666E-08,-2.622604E-08
340.7916,-1.52298,-1.777524E-08,NaN,-0.3257052,-1.355624E-07,NaN,0.5157102,4.865229E-09,NaN,-2.061763,1.125817E-05,-0.3431984,-2.20674E-08,NaN,NaN,-0.0228059,1.816069E-10,-4.538815E-07,-1.137118E-07,3.450666E-08,-2.622604E-08
340.8077,-1.52048,-1.777427E-08,NaN,-0.3257112,-1.35563E-07,NaN,0.5145899,5.160675E-09,NaN,-2.064616,1.125873E-05,-0.3435236,-2.212605E-08,NaN,NaN,-0.02275032,1.769503E-10,-4.318278E-07,-1.137136E-07,3.689084E-08,-2.622604E-08
340.8248,-1.517454,-1.77733E-08,NaN,-0.3257158,-1.355636E-07,NaN,0.5134439,5.456121E-09,NaN,-2.067507,1.12593E-05,-0.343877,-2.21843E-08,NaN,NaN,-0.02269588,1.722937E-10,-4.115622E-07,-1.137155E-07,3.450666E-08,-2.622604E-08
340.839,-1.517454,-1.77733E-08,NaN,-0.3257158,-1.355636E-07,NaN,0.5134439,5.456121E-09,NaN,-2.067507,1.12593E-05,-0.343877,-2.21843E-08,NaN,NaN,-0.02269588,1.722937E-10,-4.115622E-07,-1.137155E-07,3.450666E-08,-2.622604E-08
340.8539,-1.51411,-1.777233E-08,NaN,-0.3257195,-1.355642E-07,NaN,0.5123247,5.751567E-09,NaN,-2.070339,1.125986E-05,-0.3442319,-2.224215E-08,NaN,NaN,-0.02264253,1.676371E-10,-3.942768E-07,-1.137173E-07,3.450666E-08,-2.622604E-08
340.8702,-1.51058,-1.777136E-08,NaN,-0.3257225,-1.355649E-07,NaN,0.511246,6.047013E-09,NaN,-2.073084,1.126042E-05,-0.3445765,-2.229961E-08,NaN,NaN,-0.02259023,1.629804E-10,-3.752033E-07,-1.137191E-07,3.450666E-08,-2.622604E-08
340.8862,-1.506219,-1.777039E-08,NaN,-0.3257237,-1.355655E-07,NaN,0.5100371,6.342459E-09,NaN,-2.076119,1.126099E-05,-0.3449247,-2.235669E-08,NaN,NaN,-0.02253878,1.583238E-10,-3.531496E-07,-1.137209E-07,3.927503E-08,-2.622604E-08
340.9016,-1.501355,-1.776942E-08,NaN,-0.3257241,-1.355661E-07,NaN,0.5088035,6.637904E-09,NaN,-2.079185,1.126155E-05,-0.3453015,-2.241339E-08,NaN,NaN,-0.02248839,1.536672E-10,-3.32884E-07,-1.137227E-07,3.927503E-08,-2.622604E-08
340.9174,-1.501355,-1.776942E-08,NaN,-0.3257241,-1.355661E-07,NaN,0.5088035,6.637904E-09,NaN,-2.079185,1.126155E-05,-0.3453015,-2.241339E-08,NaN,NaN,-0.02248839,1.536672E-10,-3.32884E-07,-1.137227E-07,3.927503E-08,-2.622604E-08
340.9323,-1.496193,-1.776846E-08,NaN,-0.3257242,-1.355667E-07,NaN,0.5075986,6.93335E-09,NaN,-2.082185,1.126212E-05,-0.34568,-2.246972E-08,NaN,NaN,-0.02243902,1.490106E-10,-3.126185E-07,-1.137244E-07,4.40434E-08,-2.622604E-08
340.9486,-1.490866,-1.776749E-08,NaN,-0.3257243,-1.355672E-07,NaN,0.5064368,7.228796E-09,NaN,-2.08509,1.126267E-05,-0.3460476,-2.252567E-08,NaN,NaN,-0.02239062,1.536672E-10,-2.929489E-07,-1.137262E-07,3.689084E-08,-2.622604E-08
340.9644,-1.48473,-1.776652E-08,NaN,-0.3257223,-1.355678E-07,NaN,0.5051473,7.524243E-09,NaN,-2.088279,1.126323E-05,-0.3464139,-2.258126E-08,NaN,NaN,-0.02234297,1.490106E-10,-2.697031E-07,-1.13728E-07,4.165921E-08,-2.622604E-08
340.98,-1.48473,-1.776652E-08,NaN,-0.3257223,-1.355678E-07,NaN,0.5051473,7.524243E-09,NaN,-2.088279,1.126323E-05,-0.3464139,-2.258126E-08,NaN,NaN,-0.02234297,1.490106E-10,-2.697031E-07,-1.13728E-07,4.165921E-08,-2.622604E-08
340.995,-1.47811,-1.776555E-08,NaN,-0.3257189,-1.355684E-07,NaN,0.5038339,7.819689E-09,NaN,-2.091492,1.126379E-05,-0.3468089,-2.263649E-08,NaN,NaN,-0.02229631,1.536672E-10,-2.470534E-07,-1.137298E-07,4.40434E-08,-2.622604E-08
341.0112,-1.471213,-1.776458E-08,NaN,-0.3257144,-1.35569E-07,NaN,0.5025509,8.115135E-09,NaN,-2.094632,1.126435E-05,-0.3472055,-2.269136E-08,NaN,NaN,-0.02225059,1.490106E-10,-2.273838E-07,-1.137315E-07,4.165921E-08,-2.622604E-08
341.0272,-1.464171,-1.776361E-08,NaN,-0.3257092,-1.355696E-07,NaN,0.5013132,8.410582E-09,NaN,-2.097671,1.126491E-05,-0.347591,-2.274587E-08,NaN,NaN,-0.02220577,1.536672E-10,-2.089064E-07,-1.137333E-07,4.40434E-08,-2.622604E-08
341.0425,-1.456339,-1.776265E-08,NaN,-0.3257012,-1.355702E-07,NaN,0.4999504,8.706028E-09,NaN,-2.100987,1.126547E-05,-0.3479701,-2.280002E-08,NaN,NaN,-0.02216161,1.490106E-10,-1.832764E-07,-1.137351E-07,4.165921E-08,-2.622604E-08
341.0584,-1.456339,-1.776265E-08,NaN,-0.3257012,-1.355702E-07,NaN,0.4999504,8.706028E-09,NaN,-2.100987,1.126547E-05,-0.3479701,-2.280002E-08,NaN,NaN,-0.02216161,1.490106E-10,-1.832764E-07,-1.137351E-07,4.165921E-08,-2.622604E-08
341.073,-1.448043,-1.776168E-08,NaN,-0.3256911,-1.355708E-07,NaN,0.4985641,9.001474E-09,NaN,-2.104322,1.126603E-05,-0.3483781,-2.285382E-08,NaN,NaN,-0.02211837,1.44354E-10,-1.576464E-07,-1.137368E-07,4.40434E-08,-2.622604E-08
341.0896,-1.439489,-1.776071E-08,NaN,-0.3256794,-1.355714E-07,NaN,0.4972093,9.296921E-09,NaN,-2.107577,1.12666E-05,-0.3487882,-2.290728E-08,NaN,NaN,-0.02207601,1.396974E-10,-1.349966E-07,-1.137386E-07,3.927503E-08,-2.622604E-08
341.1053,-1.43081,-1.775974E-08,NaN,-0.3256666,-1.35572E-07,NaN,0.4959018,9.592367E-09,NaN,-2.110725,1.126715E-05,-0.349187,-2.296038E-08,NaN,NaN,-0.02203449,1.44354E-10,-1.14135E-07,-1.137403E-07,4.40434E-08,-2.622604E-08
341.1209,-1.421359,-1.775877E-08,NaN,-0.3256509,-1.355726E-07,NaN,0.4944718,9.887813E-09,NaN,-2.114146,1.12677E-05,-0.3495741,-2.301315E-08,NaN,NaN,-0.02199355,1.536672E-10,-8.790894E-08,-1.13742E-07,4.40434E-08,-2.622604E-08
341.1368,-1.421359,-1.775877E-08,NaN,-0.3256509,-1.355726E-07,NaN,0.4944718,9.887813E-09,NaN,-2.114146,1.12677E-05,-0.3495741,-2.301315E-08,NaN,NaN,-0.02199355,1.536672E-10,-8.790894E-08,-1.13742E-07,4.40434E-08,-2.622604E-08
341.1518,-1.411463,-1.775781E-08,NaN,-0.3256327,-1.355732E-07,NaN,0.4930183,1.018326E-08,NaN,-2.117579,1.126826E-05,-0.3499905,-2.306556E-08,NaN,NaN,-0.02195346,1.536672E-10,-6.525918E-08,-1.137438E-07,4.642758E-08,-2.622604E-08
341.1682,-1.401328,-1.775684E-08,NaN,-0.3256128,-1.355738E-07,NaN,0.4915972,1.047871E-08,NaN,-2.120927,1.126884E-05,-0.3504097,-2.311764E-08,NaN,NaN,-0.02191418,1.490106E-10,-4.022523E-08,-1.137455E-07,4.881177E-08,-2.622604E-08
341.1837,-1.391086,-1.775587E-08,NaN,-0.3255916,-1.355744E-07,NaN,0.4902254,1.077415E-08,NaN,-2.124162,1.12694E-05,-0.3508174,-2.316938E-08,NaN,NaN,-0.02187569,1.536672E-10,-1.399919E-08,-1.137472E-07,4.881177E-08,-2.622604E-08
341.1996,-1.391086,-1.775587E-08,NaN,-0.3255916,-1.355744E-07,NaN,0.4902254,1.077415E-08,NaN,-2.124162,1.12694E-05,-0.3508174,-2.316938E-08,NaN,NaN,-0.02187569,1.536672E-10,-1.399919E-08,-1.137472E-07,4.881177E-08,-2.622604E-08
341.2144,-1.38009,-1.775491E-08,NaN,-0.3255674,-1.35575E-07,NaN,0.4887335,1.10696E-08,NaN,-2.127666,1.126997E-05,-0.3512083,-2.322079E-08,NaN,NaN,-0.02183769,1.490106E-10,1.4015E-08,-1.137489E-07,4.881177E-08,-2.622604E-08
341.2307,-1.368666,-1.775394E-08,NaN,-0.3255406,-1.355756E-07,NaN,0.4872178,1.136504E-08,NaN,-2.131177,1.127054E-05,-0.3516288,-2.327186E-08,NaN,NaN,-0.02180049,1.490106E-10,4.083709E-08,-1.137506E-07,5.119596E-08,-2.622604E-08
341.2465,-1.357021,-1.775298E-08,NaN,-0.3255118,-1.355761E-07,NaN,0.4857353,1.166049E-08,NaN,-2.134598,1.127111E-05,-0.3520528,-2.332259E-08,NaN,NaN,-0.02176405,1.490106E-10,6.765917E-08,-1.137523E-07,4.881177E-08,-2.622604E-08
341.2623,-1.345286,-1.775201E-08,NaN,-0.3254818,-1.355767E-07,NaN,0.4843036,1.195594E-08,NaN,-2.137901,1.127168E-05,-0.3524655,-2.3373E-08,NaN,NaN,-0.02172833,1.490106E-10,9.209707E-08,-1.13754E-07,4.40434E-08,-2.622604E-08
341.2778,-1.345286,-1.775201E-08,NaN,-0.3254818,-1.355767E-07,NaN,0.4843036,1.195594E-08,NaN,-2.137901,1.127168E-05,-0.3524655,-2.3373E-08,NaN,NaN,-0.02172833,1.490106E-10,9.209707E-08,-1.13754E-07,4.40434E-08,-2.622604E-08
341.2928,-1.332815,-1.775104E-08,NaN,-0.3254488,-1.355773E-07,NaN,0.4827544,1.225138E-08,NaN,-2.141468,1.127225E-05,-0.3528561,-2.342309E-08,NaN,NaN,-0.02169304,1.490106E-10,1.213033E-07,-1.137557E-07,4.40434E-08,-2.622604E-08
341.309,-1.319933,-1.775008E-08,NaN,-0.325413,-1.355779E-07,NaN,0.481181,1.254683E-08,NaN,-2.145038,1.127282E-05,-0.3532765,-2.347284E-08,NaN,NaN,-0.02165849,1.490106E-10,1.511057E-07,-1.137574E-07,4.40434E-08,-2.622604E-08
341.3261,-1.306847,-1.774911E-08,NaN,-0.3253752,-1.355785E-07,NaN,0.4796411,1.284228E-08,NaN,-2.148514,1.127339E-05,-0.3537016,-2.352228E-08,NaN,NaN,-0.02162464,1.490106E-10,1.773317E-07,-1.137591E-07,3.927503E-08,-2.622604E-08
341.3402,-1.293687,-1.774814E-08,NaN,-0.3253361,-1.355791E-07,NaN,0.4781534,1.313772E-08,NaN,-2.151867,1.127395E-05,-0.3541156,-2.357139E-08,NaN,NaN,-0.02159148,1.490106E-10,2.029617E-07,-1.137608E-07,3.212247E-08,-2.622604E-08
341.3561,-1.293687,-1.774814E-08,NaN,-0.3253361,-1.355791E-07,NaN,0.4781534,1.313772E-08,NaN,-2.151867,1.127395E-05,-0.3541156,-2.357139E-08,NaN,NaN,-0.02159148,1.490106E-10,2.029617E-07,-1.137608E-07,3.212247E-08,-2.622604E-08
341.3708,-1.279808,-1.774718E-08,NaN,-0.325294,-1.355796E-07,NaN,0.4765509,1.343317E-08,NaN,-2.15548,1.127452E-05,-0.3545021,-2.362018E-08,NaN,NaN,-0.02155866,1.490106E-10,2.357443E-07,-1.137624E-07,3.212247E-08,-2.622604E-08
341.3875,-1.265534,-1.774621E-08,NaN,-0.3252491,-1.355802E-07,NaN,0.4749234,1.372862E-08,NaN,-2.159092,1.127509E-05,-0.3549189,-2.366866E-08,NaN,NaN,-0.02152653,1.490106E-10,2.643545E-07,-1.137641E-07,2.973829E-08,-2.622604E-08
341.4029,-1.251072,-1.774525E-08,NaN,-0.3252021,-1.355808E-07,NaN,0.4733297,1.402406E-08,NaN,-2.162605,1.127567E-05,-0.3553414,-2.371683E-08,NaN,NaN,-0.02149507,1.396974E-10,2.917726E-07,-1.137658E-07,2.73541E-08,-2.622604E-08
341.4188,-1.251072,-1.774525E-08,NaN,-0.3252021,-1.355808E-07,NaN,0.4733297,1.402406E-08,NaN,-2.162605,1.127567E-05,-0.3553414,-2.371683E-08,NaN,NaN,-0.02149507,1.396974E-10,2.917726E-07,-1.137658E-07,2.73541E-08,-2.622604E-08
341.4335,-1.235824,-1.774428E-08,NaN,-0.3251514,-1.355814E-07,NaN,0.4716223,1.431951E-08,NaN,-2.166376,1.127624E-05,-0.355738,-2.376468E-08,NaN,NaN,-0.02146393,1.396974E-10,3.263433E-07,-1.137674E-07,2.973829E-08,-2.622604E-08
341.4498,-1.220145,-1.774331E-08,NaN,-0.3250973,-1.35582E-07,NaN,0.4698944,1.461495E-08,NaN,-2.170132,1.12768E-05,-0.3561653,-2.381222E-08,NaN,NaN,-0.02143344,1.396974E-10,3.567417E-07,-1.137691E-07,2.973829E-08,-2.622604E-08
341.4655,-1.204261,-1.774235E-08,NaN,-0.3250404,-1.355826E-07,NaN,0.4682062,1.49104E-08,NaN,-2.173776,1.127737E-05,-0.3565978,-2.385945E-08,NaN,NaN,-0.02140359,1.396974E-10,3.853519E-07,-1.137707E-07,3.450666E-08,-2.622604E-08
341.481,-1.188314,-1.774139E-08,NaN,-0.3249818,-1.355831E-07,NaN,0.466577,1.520585E-08,NaN,-2.177281,1.127794E-05,-0.3570187,-2.390638E-08,NaN,NaN,-0.02137434,1.396974E-10,4.151542E-07,-1.137724E-07,3.212247E-08,-2.622604E-08
341.4969,-1.188314,-1.774139E-08,NaN,-0.3249818,-1.355831E-07,NaN,0.466577,1.520585E-08,NaN,-2.177281,1.127794E-05,-0.3570187,-2.390638E-08,NaN,NaN,-0.02137434,1.396974E-10,4.151542E-07,-1.137724E-07,3.212247E-08,-2.622604E-08
341.5117,-1.171667,-1.774042E-08,NaN,-0.3249201,-1.355837E-07,NaN,0.4648414,1.550129E-08,NaN,-2.181034,1.127851E-05,-0.3574013,-2.3953E-08,NaN,NaN,-0.02134533,1.396974E-10,4.497249E-07,-1.13774E-07,2.73541E-08,-2.622604E-08
341.5284,-1.154649,-1.773946E-08,NaN,-0.3248554,-1.355843E-07,NaN,0.4630823,1.579674E-08,NaN,-2.184771,1.127908E-05,-0.3578134,-2.399931E-08,NaN,NaN,-0.02131692,1.396974E-10,4.831035E-07,-1.137756E-07,2.258573E-08,-2.622604E-08
341.5438,-1.137468,-1.773849E-08,NaN,-0.3247883,-1.355848E-07,NaN,0.4613217,1.609218E-08,NaN,-2.18741,1.127965E-05,-0.3583148,-2.404533E-08,NaN,NaN,-0.02128803,1.396974E-10,5.355556E-07,-1.137773E-07,2.258573E-08,-2.622604E-08
341.5594,-1.137468,-1.773849E-08,NaN,-0.3247883,-1.355848E-07,NaN,0.4613217,1.609218E-08,NaN,-2.18741,1.127965E-05,-0.3583148,-2.404533E-08,NaN,NaN,-0.02128803,1.396974E-10,5.355556E-07,-1.137773E-07,2.258573E-08,-2.622604E-08
341.5742,-1.120257,-1.773753E-08,NaN,-0.3247198,-1.355854E-07,NaN,0.4595929,1.638763E-08,NaN,-2.1885,1.128022E-05,-0.358876,-2.409105E-08,NaN,NaN,-0.02125902,1.396974E-10,5.987365E-07,-1.137789E-07,2.496992E-08,-2.622604E-08
341.5908,-1.102372,-1.773656E-08,NaN,-0.3246486,-1.35586E-07,NaN,0.4577622,1.668307E-08,NaN,-2.188798,1.128078E-05,-0.3594072,-2.413647E-08,NaN,NaN,-0.02123026,1.396974E-10,6.69666E-07,-1.137805E-07,2.496992E-08,-2.622604E-08
341.6063,-1.084137,-1.77356E-08,NaN,-0.3245744,-1.355865E-07,NaN,0.4559178,1.697852E-08,NaN,-2.188509,1.128135E-05,-0.3599574,-2.41816E-08,NaN,NaN,-0.02120237,1.396974E-10,7.292707E-07,-1.137821E-07,2.73541E-08,-2.622604E-08
341.6221,-1.065758,-1.773463E-08,NaN,-0.3244981,-1.355871E-07,NaN,0.4541232,1.727396E-08,NaN,-2.187973,1.128192E-05,-0.3604956,-2.422643E-08,NaN,NaN,-0.02117545,1.396974E-10,7.823188E-07,-1.137837E-07,2.73541E-08,-2.622604E-08
341.638,-1.065758,-1.773463E-08,NaN,-0.3244981,-1.355871E-07,NaN,0.4541232,1.727396E-08,NaN,-2.187973,1.128192E-05,-0.3604956,-2.422643E-08,NaN,NaN,-0.02117545,1.396974E-10,7.823188E-07,-1.137837E-07,2.73541E-08,-2.622604E-08
341.6529,-1.047366,-1.773367E-08,NaN,-0.3244206,-1.355877E-07,NaN,0.4523993,1.756941E-08,NaN,-2.187462,1.12825E-05,-0.3610057,-2.427097E-08,NaN,NaN,-0.0211494,1.303842E-10,8.288104E-07,-1.137853E-07,2.496992E-08,-2.622604E-08
341.6692,-1.028314,-1.77327E-08,NaN,-0.3243405,-1.355882E-07,NaN,0.4505807,1.786485E-08,NaN,-2.187491,1.128307E-05,-0.3614658,-2.431523E-08,NaN,NaN,-0.02112372,1.303842E-10,8.770902E-07,-1.137869E-07,2.73541E-08,-2.622604E-08
341.6848,-1.008928,-1.773174E-08,NaN,-0.3242576,-1.355888E-07,NaN,0.4487408,1.81603E-08,NaN,-2.18766,1.128364E-05,-0.3619665,-2.43592E-08,NaN,NaN,-0.02109855,1.303842E-10,9.235818E-07,-1.137885E-07,2.496992E-08,-2.622604E-08
341.7005,-0.9894118,-1.773078E-08,NaN,-0.3241726,-1.355894E-07,NaN,0.4469411,1.845575E-08,NaN,-2.187755,1.12842E-05,-0.3624884,-2.440288E-08,NaN,NaN,-0.02107388,1.303842E-10,9.694774E-07,-1.137901E-07,2.496992E-08,-2.622604E-08
341.7162,-0.9894118,-1.773078E-08,NaN,-0.3241726,-1.355894E-07,NaN,0.4469411,1.845575E-08,NaN,-2.187755,1.12842E-05,-0.3624884,-2.440288E-08,NaN,NaN,-0.02107388,1.303842E-10,9.694774E-07,-1.137901E-07,2.496992E-08,-2.622604E-08
341.7315,-0.9698958,-1.772981E-08,NaN,-0.3240866,-1.355899E-07,NaN,0.4452072,1.875119E-08,NaN,-2.18772,1.128477E-05,-0.3630082,-2.444628E-08,NaN,NaN,-0.02104973,1.303842E-10,1.015373E-06,-1.137917E-07,2.73541E-08,-2.622604E-08
341.7477,-0.9497339,-1.772885E-08,NaN,-0.3239982,-1.355905E-07,NaN,0.4433782,1.904664E-08,NaN,-2.187978,1.128534E-05,-0.3634921,-2.448939E-08,NaN,NaN,-0.02102577,1.303842E-10,1.063653E-06,-1.137932E-07,2.496992E-08,-2.622604E-08
341.7634,-0.9292499,-1.772788E-08,NaN,-0.323907,-1.355911E-07,NaN,0.4415314,1.934208E-08,NaN,-2.188171,1.128591E-05,-0.3640175,-2.453223E-08,NaN,NaN,-0.02100226,1.303842E-10,1.11074E-06,-1.137948E-07,2.258573E-08,-2.622604E-08
341.7789,-0.9292499,-1.772788E-08,NaN,-0.323907,-1.355911E-07,NaN,0.4415314,1.934208E-08,NaN,-2.188171,1.128591E-05,-0.3640175,-2.453223E-08,NaN,NaN,-0.02100226,1.303842E-10,1.11074E-06,-1.137948E-07,2.258573E-08,-2.622604E-08
341.7941,-0.9086493,-1.772692E-08,NaN,-0.3238138,-1.355916E-07,NaN,0.4397289,1.963753E-08,NaN,-2.188184,1.128647E-05,-0.3645589,-2.457479E-08,NaN,NaN,-0.02097926,1.350408E-10,1.150676E-06,-1.137964E-07,2.258573E-08,-2.622604E-08
341.8103,-0.8880613,-1.772595E-08,NaN,-0.3237196,-1.355922E-07,NaN,0.4379955,1.993297E-08,NaN,-2.188045,1.128704E-05,-0.3650921,-2.461707E-08,NaN,NaN,-0.02095682,1.396974E-10,1.195379E-06,-1.137979E-07,2.496992E-08,-2.622604E-08
341.8275,-0.8668398,-1.772499E-08,NaN,-0.3236232,-1.355927E-07,NaN,0.436169,2.022842E-08,NaN,-2.188226,1.128761E-05,-0.365586,-2.465908E-08,NaN,NaN,-0.02093459,1.490106E-10,1.240679E-06,-1.137995E-07,2.258573E-08,-2.622604E-08
341.8417,-0.8453085,-1.772403E-08,NaN,-0.3235241,-1.355933E-07,NaN,0.4343263,2.052386E-08,NaN,-2.188383,1.128818E-05,-0.3661188,-2.470081E-08,NaN,NaN,-0.0209128,1.536672E-10,1.287766E-06,-1.13801E-07,2.020155E-08,-2.622604E-08
341.8575,-0.8453085,-1.772403E-08,NaN,-0.3235241,-1.355933E-07,NaN,0.4343263,2.052386E-08,NaN,-2.188383,1.128818E-05,-0.3661188,-2.470081E-08,NaN,NaN,-0.0209128,1.536672E-10,1.287766E-06,-1.13801E-07,2.020155E-08,-2.622604E-08
341.8723,-0.8236727,-1.772307E-08,NaN,-0.323423,-1.355939E-07,NaN,0.4325288,2.081931E-08,NaN,-2.18839,1.128876E-05,-0.3666669,-2.474228E-08,NaN,NaN,-0.02089149,1.536672E-10,1.328894E-06,-1.138026E-07,1.543317E-08,-2.622604E-08
341.8889,-0.8020615,-1.77221E-08,NaN,-0.3233211,-1.355944E-07,NaN,0.4308009,2.111475E-08,NaN,-2.18826,1.128935E-05,-0.3672069,-2.478347E-08,NaN,NaN,-0.0208707,1.583238E-10,1.370617E-06,-1.138041E-07,1.781736E-08,-2.622604E-08
341.9045,-0.7798285,-1.772114E-08,NaN,-0.3232171,-1.35595E-07,NaN,0.4289803,2.14102E-08,NaN,-2.188453,1.128993E-05,-0.3677093,-2.48244E-08,NaN,NaN,-0.02085007,1.583238E-10,1.413532E-06,-1.138057E-07,2.258573E-08,-2.622604E-08
341.9203,-0.7572977,-1.772018E-08,NaN,-0.3231106,-1.355955E-07,NaN,0.4271445,2.170565E-08,NaN,-2.188618,1.129052E-05,-0.3682508,-2.486506E-08,NaN,NaN,-0.02082985,1.583238E-10,1.456447E-06,-1.138072E-07,2.258573E-08,-2.622604E-08
341.936,-0.7572977,-1.772018E-08,NaN,-0.3231106,-1.355955E-07,NaN,0.4271445,2.170565E-08,NaN,-2.188618,1.129052E-05,-0.3682508,-2.486506E-08,NaN,NaN,-0.02082985,1.583238E-10,1.456447E-06,-1.138072E-07,2.258573E-08,-2.622604E-08
341.9509,-0.7346737,-1.771921E-08,NaN,-0.3230021,-1.355961E-07,NaN,0.425355,2.200109E-08,NaN,-2.188626,1.129111E-05,-0.3688072,-2.490546E-08,NaN,NaN,-0.02081007,1.583238E-10,1.499363E-06,-1.138087E-07,2.258573E-08,-2.622604E-08
341.9673,-0.7120858,-1.771825E-08,NaN,-0.322893,-1.355966E-07,NaN,0.4236359,2.229654E-08,NaN,-2.188493,1.129169E-05,-0.3693549,-2.49456E-08,NaN,NaN,-0.02079078,1.583238E-10,1.538702E-06,-1.138102E-07,2.496992E-08,-2.622604E-08
341.983,-0.6888874,-1.771729E-08,NaN,-0.3227819,-1.355972E-07,NaN,0.4218248,2.219888E-08,NaN,-2.188682,1.129228E-05,-0.3698659,-2.464309E-08,NaN,NaN,-0.02077164,1.583238E-10,1.581021E-06,-1.138113E-07,2.73541E-08,-2.622604E-08
341.9985,-0.6888874,-1.771729E-08,NaN,-0.3227819,-1.355972E-07,NaN,0.4218248,2.219888E-08,NaN,-2.188682,1.129228E-05,-0.3698659,-2.464309E-08,NaN,NaN,-0.02077164,1.583238E-10,1.581021E-06,-1.138113E-07,2.73541E-08,-2.622604E-08
342.0136,-0.6654023,-1.771632E-08,NaN,-0.3226683,-1.355976E-07,NaN,0.4199997,2.203005E-08,NaN,-2.188842,1.129288E-05,-0.3704153,-2.430999E-08,NaN,NaN,-0.02075287,1.583238E-10,1.620956E-06,-1.138122E-07,2.73541E-08,-2.622604E-08
342.03,-0.6418351,-1.771536E-08,NaN,-0.3225529,-1.35598E-07,NaN,0.4182217,2.181846E-08,NaN,-2.188845,1.129347E-05,-0.3709789,-2.396659E-08,NaN,NaN,-0.02073452,1.490106E-10,1.660891E-06,-1.13813E-07,2.73541E-08,-2.622604E-08
342.0456,-0.6183148,-1.771439E-08,NaN,-0.322437,-1.355983E-07,NaN,0.4165149,2.157786E-08,NaN,-2.188707,1.129406E-05,-0.3715332,-2.362014E-08,NaN,NaN,-0.02071665,1.396974E-10,1.699932E-06,-1.138138E-07,3.212247E-08,-2.622604E-08
342.0613,-0.5943669,-1.771343E-08,NaN,-0.3223198,-1.355986E-07,NaN,0.4147559,2.131772E-08,NaN,-2.188801,1.129465E-05,-0.3720555,-2.327493E-08,NaN,NaN,-0.02069897,1.350408E-10,1.738675E-06,-1.138146E-07,3.212247E-08,-2.622604E-08
342.0767,-0.5943669,-1.771343E-08,NaN,-0.3223198,-1.355986E-07,NaN,0.4147559,2.131772E-08,NaN,-2.188801,1.129465E-05,-0.3720555,-2.327493E-08,NaN,NaN,-0.02069897,1.350408E-10,1.738675E-06,-1.138146E-07,3.212247E-08,-2.622604E-08
342.0917,-0.5702503,-1.771246E-08,NaN,-0.3222012,-1.355989E-07,NaN,0.4130035,2.104358E-08,NaN,-2.188872,1.129524E-05,-0.3726013,-2.293234E-08,NaN,NaN,-0.02068168,1.303842E-10,1.778908E-06,-1.138153E-07,3.212247E-08,-2.622604E-08
342.1082,-0.5461286,-1.77115E-08,NaN,-0.322082,-1.355992E-07,NaN,0.4113027,2.076154E-08,NaN,-2.188831,1.129582E-05,-0.3731528,-2.259514E-08,NaN,NaN,-0.02066478,1.303842E-10,1.815267E-06,-1.13816E-07,3.212247E-08,-2.622604E-08
342.1237,-0.5221046,-1.771054E-08,NaN,-0.3219632,-1.355994E-07,NaN,0.4096705,2.047414E-08,NaN,-2.188693,1.129642E-05,-0.3736928,-2.226322E-08,NaN,NaN,-0.02064832,1.210709E-10,1.84656E-06,-1.138168E-07,3.212247E-08,-2.622604E-08
342.1395,-0.5221046,-1.771054E-08,NaN,-0.3219632,-1.355994E-07,NaN,0.4096705,2.047414E-08,NaN,-2.188693,1.129642E-05,-0.3736928,-2.226322E-08,NaN,NaN,-0.02064832,1.210709E-10,1.84656E-06,-1.138168E-07,3.212247E-08,-2.622604E-08
342.1548,-0.4982426,-1.770957E-08,NaN,-0.3218458,-1.355997E-07,NaN,0.4081084,2.018341E-08,NaN,-2.18851,1.1297E-05,-0.3742135,-2.193648E-08,NaN,NaN,-0.0206323,1.164143E-10,1.876958E-06,-1.138175E-07,2.973829E-08,-2.622604E-08
342.1708,-0.4745823,-1.770861E-08,NaN,-0.3217309,-1.355999E-07,NaN,0.406612,1.989095E-08,NaN,-2.18833,1.129759E-05,-0.3747137,-2.161481E-08,NaN,NaN,-0.02061671,1.164143E-10,1.90527E-06,-1.138182E-07,3.212247E-08,-2.622604E-08
342.1864,-0.451148,-1.770764E-08,NaN,-0.3216192,-1.356002E-07,NaN,0.4051758,1.959943E-08,NaN,-2.188179,1.129818E-05,-0.3751952,-2.129954E-08,NaN,NaN,-0.02060151,1.117577E-10,1.928516E-06,-1.138189E-07,3.689084E-08,-2.622604E-08
342.2019,-0.4279541,-1.770668E-08,NaN,-0.3215111,-1.356004E-07,NaN,0.4037946,1.93084E-08,NaN,-2.188061,1.129876E-05,-0.3756608,-2.098911E-08,NaN,NaN,-0.02058668,1.164143E-10,1.952656E-06,-1.138196E-07,3.450666E-08,-2.622604E-08
342.2182,-0.4279541,-1.770668E-08,NaN,-0.3215111,-1.356004E-07,NaN,0.4037946,1.93084E-08,NaN,-2.188061,1.129876E-05,-0.3756608,-2.098911E-08,NaN,NaN,-0.02058668,1.164143E-10,1.952656E-06,-1.138196E-07,3.450666E-08,-2.622604E-08
342.233,-0.4050084,-1.770571E-08,NaN,-0.3214072,-1.356007E-07,NaN,0.4024647,1.902006E-08,NaN,-2.187968,1.129934E-05,-0.3761125,-2.068484E-08,NaN,NaN,-0.0205722,1.210709E-10,1.975604E-06,-1.138204E-07,3.450666E-08,-2.622604E-08
342.2495,-0.3823151,-1.770475E-08,NaN,-0.3213075,-1.356009E-07,NaN,0.4011831,1.873356E-08,NaN,-2.187888,1.129992E-05,-0.3765517,-2.038521E-08,NaN,NaN,-0.02055805,1.257275E-10,1.994975E-06,-1.138211E-07,2.496991E-08,-2.622604E-08
342.2651,-0.3598756,-1.770378E-08,NaN,-0.3212124,-1.356012E-07,NaN,0.3999475,1.845078E-08,NaN,-2.187813,1.130051E-05,-0.3769791,-2.009153E-08,NaN,NaN,-0.02054423,1.303841E-10,2.014645E-06,-1.138218E-07,2.020154E-08,-2.622604E-08
342.281,-0.3376898,-1.770282E-08,NaN,-0.3211218,-1.356018E-07,NaN,0.3987564,1.830162E-08,NaN,-2.187737,1.13011E-05,-0.3773951,-1.993327E-08,NaN,NaN,-0.02053073,1.257275E-10,2.031334E-06,-1.138216E-07,2.020154E-08,-2.622604E-08
342.2967,-0.3376898,-1.770282E-08,NaN,-0.3211218,-1.356018E-07,NaN,0.3987564,1.830162E-08,NaN,-2.187737,1.13011E-05,-0.3773951,-1.993327E-08,NaN,NaN,-0.02053073,1.257275E-10,2.031334E-06,-1.138216E-07,2.020154E-08,-2.622604E-08
342.3114,-0.3157565,-1.770185E-08,NaN,-0.3210357,-1.356024E-07,NaN,0.3976083,1.814014E-08,NaN,-2.187657,1.130169E-05,-0.3777997,-1.97641E-08,NaN,NaN,-0.02051754,1.164143E-10,2.051302E-06,-1.138213E-07,2.258573E-08,-2.622604E-08
342.3295,-0.2940739,-1.770089E-08,NaN,-0.3209542,-1.35603E-07,NaN,0.3965019,1.797387E-08,NaN,-2.187577,1.130228E-05,-0.3781929,-1.959129E-08,NaN,NaN,-0.02050466,1.164143E-10,2.066203E-06,-1.138211E-07,2.258573E-08,-2.622604E-08
342.3434,-0.2726399,-1.769993E-08,NaN,-0.320877,-1.356031E-07,NaN,0.3954361,1.767635E-08,NaN,-2.187496,1.130287E-05,-0.3785751,-1.928814E-08,NaN,NaN,-0.0204921,1.164143E-10,2.077379E-06,-1.138217E-07,1.781735E-08,-2.622604E-08
342.3594,-0.2726399,-1.769993E-08,NaN,-0.320877,-1.356031E-07,NaN,0.3954361,1.767635E-08,NaN,-2.187496,1.130287E-05,-0.3785751,-1.928814E-08,NaN,NaN,-0.0204921,1.164143E-10,2.077379E-06,-1.138217E-07,1.781735E-08,-2.622604E-08
342.3743,-0.2578254,-1.769896E-08,NaN,-0.3208248,-1.356033E-07,NaN,0.3958732,1.739539E-08,NaN,-2.183933,1.130346E-05,-0.3790361,-1.900229E-08,NaN,NaN,-0.02048304,1.071011E-10,2.033718E-06,-1.138223E-07,1.781735E-08,-2.622604E-08
342.3906,-0.2472372,-1.7698E-08,NaN,-0.3208056,-1.356035E-07,NaN,0.3970728,1.712516E-08,NaN,-2.180616,1.130406E-05,-0.3789469,-1.872775E-08,NaN,NaN,-0.02047538,9.778787E-11,1.964577E-06,-1.13823E-07,2.020154E-08,-2.622604E-08
342.4065,-0.2393528,-1.769703E-08,NaN,-0.320811,-1.356037E-07,NaN,0.3984214,1.686274E-08,NaN,-2.178492,1.130464E-05,-0.3785933,-1.846148E-08,NaN,NaN,-0.02046769,9.778787E-11,1.89484E-06,-1.138237E-07,1.543317E-08,-2.622604E-08
342.4228,-0.233203,-1.769607E-08,NaN,-0.3208343,-1.356039E-07,NaN,0.3996577,1.660666E-08,NaN,-2.177185,1.130523E-05,-0.3782196,-1.820193E-08,NaN,NaN,-0.0204594,9.778787E-11,1.841642E-06,-1.138244E-07,1.304898E-08,-2.622604E-08
342.4381,-0.233203,-1.769607E-08,NaN,-0.3208343,-1.356039E-07,NaN,0.3996577,1.660666E-08,NaN,-2.177185,1.130523E-05,-0.3782196,-1.820193E-08,NaN,NaN,-0.0204594,9.778787E-11,1.841642E-06,-1.138244E-07,1.304898E-08,-2.622604E-08
342.4529,-0.2281706,-1.76951E-08,NaN,-0.3208707,-1.356041E-07,NaN,0.4007409,1.635544E-08,NaN,-2.176426,1.130582E-05,-0.3778883,-1.794754E-08,NaN,NaN,-0.02045093,9.778787E-11,1.795151E-06,-1.138251E-07,1.781735E-08,-2.622604E-08
342.4695,-0.2238626,-1.769414E-08,NaN,-0.3209157,-1.356044E-07,NaN,0.4016926,1.610905E-08,NaN,-2.176031,1.13064E-05,-0.3776056,-1.769822E-08,NaN,NaN,-0.02044247,9.778787E-11,1.753279E-06,-1.138257E-07,2.258572E-08,-2.622604E-08
342.4855,-0.2200284,-1.769317E-08,NaN,-0.3209663,-1.356046E-07,NaN,0.4025452,1.586602E-08,NaN,-2.175871,1.1307E-05,-0.3773629,-1.745245E-08,NaN,NaN,-0.02043408,8.847464E-11,1.715579E-06,-1.138264E-07,2.496991E-08,-2.622604E-08
342.501,-0.2165085,-1.769221E-08,NaN,-0.3210204,-1.356048E-07,NaN,0.4033269,1.562774E-08,NaN,-2.17586,1.130759E-05,-0.3771493,-1.721158E-08,NaN,NaN,-0.02042581,8.847464E-11,1.678177E-06,-1.138271E-07,2.020154E-08,-2.622604E-08
342.5171,-0.2165085,-1.769221E-08,NaN,-0.3210204,-1.356048E-07,NaN,0.4033269,1.562774E-08,NaN,-2.17586,1.130759E-05,-0.3771493,-1.721158E-08,NaN,NaN,-0.02042581,8.847464E-11,1.678177E-06,-1.138271E-07,2.020154E-08,-2.622604E-08
342.532,-0.213239,-1.769124E-08,NaN,-0.3336809,-1.35605E-07,NaN,0.4031219,1.539413E-08,NaN,-2.179022,1.130817E-05,-0.3807876,-1.697551E-08,NaN,NaN,-0.02042651,8.847464E-11,1.52544E-06,-1.138278E-07,1.304898E-08,-2.622604E-08
342.5484,-0.2102137,-1.769028E-08,NaN,-0.3539733,-1.356053E-07,NaN,0.4036156,1.516514E-08,NaN,-2.183013,1.130877E-05,-0.3841664,-1.674415E-08,NaN,NaN,-0.02042583,7.916142E-11,1.400568E-06,-1.138285E-07,8.280607E-09,-2.622604E-08
342.5639,-0.2073884,-1.768931E-08,NaN,-0.378841,-1.356055E-07,NaN,0.4045126,1.493927E-08,NaN,-2.186618,1.130936E-05,-0.3869645,-1.6516E-08,NaN,NaN,-0.020423,7.916142E-11,1.310192E-06,-1.138292E-07,3.512236E-09,-2.622604E-08
342.5798,-0.2073884,-1.768931E-08,NaN,-0.378841,-1.356055E-07,NaN,0.4045126,1.493927E-08,NaN,-2.186618,1.130936E-05,-0.3869645,-1.6516E-08,NaN,NaN,-0.020423,7.916142E-11,1.310192E-06,-1.138292E-07,3.512236E-09,-2.622604E-08
342.5948,-0.2047152,-1.768835E-08,NaN,-0.4064004,-1.356057E-07,NaN,0.4054885,1.471789E-08,NaN,-2.188464,1.130994E-05,-0.3894403,-1.629239E-08,NaN,NaN,-0.02041769,7.916142E-11,1.267277E-06,-1.138299E-07,1.12805E-09,-2.622604E-08
342.6112,-0.2021507,-1.768739E-08,NaN,-0.434733,-1.356059E-07,NaN,0.4065376,1.449952E-08,NaN,-2.18846,1.131053E-05,-0.391418,-1.607184E-08,NaN,NaN,-0.02041108,7.916142E-11,1.23889E-06,-1.138305E-07,-1.256136E-09,-2.622604E-08
342.6272,-0.1996633,-1.768642E-08,NaN,-0.4634143,-1.356062E-07,NaN,0.4075491,1.42855E-08,NaN,-2.187522,1.131112E-05,-0.393166,-1.58557E-08,NaN,NaN,-0.02040486,7.916142E-11,1.207747E-06,-1.138312E-07,-1.256136E-09,-2.622604E-08
342.6429,-0.1972325,-1.768546E-08,NaN,-0.4921807,-1.356064E-07,NaN,0.4085281,1.407578E-08,NaN,-2.186445,1.131171E-05,-0.3947413,-1.564387E-08,NaN,NaN,-0.02039932,6.98482E-11,1.164161E-06,-1.138319E-07,2.320143E-09,-2.622604E-08
342.6588,-0.1972325,-1.768546E-08,NaN,-0.4921807,-1.356064E-07,NaN,0.4085281,1.407578E-08,NaN,-2.186445,1.131171E-05,-0.3947413,-1.564387E-08,NaN,NaN,-0.02039932,6.98482E-11,1.164161E-06,-1.138319E-07,2.320143E-09,-2.622604E-08
342.6737,-0.1948453,-1.768449E-08,NaN,-0.5208689,-1.356066E-07,NaN,0.4094735,1.387025E-08,NaN,-2.185665,1.13123E-05,-0.3961847,-1.543627E-08,NaN,NaN,-0.02039431,7.450481E-11,1.112007E-06,-1.138325E-07,4.704328E-09,-2.622604E-08
342.6904,-0.1924901,-1.768353E-08,NaN,-0.5486163,-1.356069E-07,NaN,0.4104402,1.366745E-08,NaN,-2.185097,1.131289E-05,-0.3972957,-1.523141E-08,NaN,NaN,-0.02038899,7.450481E-11,1.068794E-06,-1.138332E-07,4.704328E-09,-2.622604E-08
342.7062,-0.1901605,-1.768256E-08,NaN,-0.5756603,-1.356071E-07,NaN,0.4113194,1.346872E-08,NaN,-2.18485,1.131348E-05,-0.398359,-1.503064E-08,NaN,NaN,-0.02038394,7.916143E-11,1.021557E-06,-1.138339E-07,7.088514E-09,-2.622604E-08
342.722,-0.1878537,-1.76816E-08,NaN,-0.6021488,-1.356073E-07,NaN,0.4121305,1.3274E-08,NaN,-2.184848,1.131408E-05,-0.3994178,-1.483389E-08,NaN,NaN,-0.02037903,8.381804E-11,9.771516E-07,-1.138345E-07,5.896421E-09,-2.622604E-08
342.7381,-0.1878537,-1.76816E-08,NaN,-0.6021488,-1.356073E-07,NaN,0.4121305,1.3274E-08,NaN,-2.184848,1.131408E-05,-0.3994178,-1.483389E-08,NaN,NaN,-0.02037903,8.381804E-11,9.771516E-07,-1.138345E-07,5.896421E-09,-2.622604E-08
342.754,-0.1855689,-1.768063E-08,NaN,-0.6281745,-1.356075E-07,NaN,0.4128994,1.309165E-08,NaN,-2.184955,1.131467E-05,-0.4004698,-1.464953E-08,NaN,NaN,-0.02037416,8.847466E-11,9.31554E-07,-1.138353E-07,8.280606E-09,-2.622604E-08
342.7697,-0.1833012,-1.767967E-08,NaN,-0.6530346,-1.356077E-07,NaN,0.4137046,1.291439E-08,NaN,-2.184873,1.131526E-05,-0.4012634,-1.447026E-08,NaN,NaN,-0.02036873,9.313127E-11,8.954932E-07,-1.13836E-07,1.304898E-08,-2.622604E-08
342.7855,-0.1810493,-1.76787E-08,NaN,-0.6770661,-1.35608E-07,NaN,0.414452,1.274214E-08,NaN,-2.184758,1.131585E-05,-0.4020403,-1.4296E-08,NaN,NaN,-0.02036351,9.778789E-11,8.579423E-07,-1.138367E-07,1.185689E-08,-2.622604E-08
342.8012,-0.1788137,-1.767774E-08,NaN,-0.7004793,-1.356082E-07,NaN,0.4151621,1.257337E-08,NaN,-2.18468,1.131644E-05,-0.402819,-1.412524E-08,NaN,NaN,-0.02035851,1.024445E-10,8.197953E-07,-1.138374E-07,1.424107E-08,-2.622604E-08
342.8192,-0.1788137,-1.767774E-08,NaN,-0.7004793,-1.356082E-07,NaN,0.4151621,1.257337E-08,NaN,-2.18468,1.131644E-05,-0.402819,-1.412524E-08,NaN,NaN,-0.02035851,1.024445E-10,8.197953E-07,-1.138374E-07,1.424107E-08,-2.622604E-08
342.8326,-0.1765958,-1.767678E-08,NaN,-0.7234054,-1.356084E-07,NaN,0.4158545,1.240802E-08,NaN,-2.184647,1.131703E-05,-0.4035881,-1.39579E-08,NaN,NaN,-0.02035366,1.071011E-10,7.852246E-07,-1.138382E-07,1.662526E-08,-2.622604E-08
342.8492,-0.1743912,-1.767581E-08,NaN,-0.7451655,-1.356087E-07,NaN,0.4165983,1.224604E-08,NaN,-2.184452,1.131762E-05,-0.4040976,-1.379392E-08,NaN,NaN,-0.02034833,1.117577E-10,7.569124E-07,-1.138389E-07,1.900944E-08,-2.622604E-08
342.8648,-0.1721991,-1.767485E-08,NaN,-0.766112,-1.356089E-07,NaN,0.4172914,1.208734E-08,NaN,-2.184282,1.131821E-05,-0.4045935,-1.363324E-08,NaN,NaN,-0.02034326,1.164144E-10,7.262159E-07,-1.138396E-07,1.662526E-08,-2.622604E-08
342.8806,-0.1700208,-1.767388E-08,NaN,-0.7864643,-1.356091E-07,NaN,0.41795,1.193054E-08,NaN,-2.1842,1.131881E-05,-0.4050987,-1.347446E-08,NaN,NaN,-0.02033843,1.164144E-10,6.928373E-07,-1.138403E-07,1.662526E-08,-2.622604E-08
342.8964,-0.1700208,-1.767388E-08,NaN,-0.7864643,-1.356091E-07,NaN,0.41795,1.193054E-08,NaN,-2.1842,1.131881E-05,-0.4050987,-1.347446E-08,NaN,NaN,-0.02033843,1.164144E-10,6.928373E-07,-1.138403E-07,1.662526E-08,-2.622604E-08
342.911,-0.167858,-1.767292E-08,NaN,-0.8063591,-1.356093E-07,NaN,0.4185918,1.177693E-08,NaN,-2.184193,1.131941E-05,-0.4056039,-1.331887E-08,NaN,NaN,-0.02033373,1.21071E-10,6.600548E-07,-1.13841E-07,1.781735E-08,-2.622604E-08
342.928,-0.165706,-1.767195E-08,NaN,-0.8251205,-1.356096E-07,NaN,0.4192846,1.162504E-08,NaN,-2.184029,1.132002E-05,-0.4058602,-1.3165E-08,NaN,NaN,-0.02032853,1.257276E-10,6.344247E-07,-1.138418E-07,2.020153E-08,-2.622604E-08
342.9435,-0.1635639,-1.767099E-08,NaN,-0.8431035,-1.356098E-07,NaN,0.4199269,1.147625E-08,NaN,-2.183884,1.132063E-05,-0.4061128,-1.301423E-08,NaN,NaN,-0.02032359,1.303842E-10,6.076027E-07,-1.138425E-07,2.020153E-08,-2.622604E-08
342.9596,-0.1635639,-1.767099E-08,NaN,-0.8431035,-1.356098E-07,NaN,0.4199269,1.147625E-08,NaN,-2.183884,1.132063E-05,-0.4061128,-1.301423E-08,NaN,NaN,-0.02032359,1.303842E-10,6.076027E-07,-1.138425E-07,2.020153E-08,-2.622604E-08
342.9747,-0.1614334,-1.767002E-08,NaN,-0.8605283,-1.3561E-07,NaN,0.4205356,1.133049E-08,NaN,-2.183818,1.132124E-05,-0.4063831,-1.28665E-08,NaN,NaN,-0.02031888,1.303842E-10,5.795885E-07,-1.138432E-07,2.139363E-08,-2.622604E-08
342.9914,-0.1593164,-1.766906E-08,NaN,-0.8775319,-1.356103E-07,NaN,0.4211288,1.11863E-08,NaN,-2.183819,1.132184E-05,-0.4066609,-1.272033E-08,NaN,NaN,-0.02031429,1.350408E-10,5.491901E-07,-1.138439E-07,2.079758E-08,-2.622604E-08
343.007,-0.157208,-1.766809E-08,NaN,-0.8934386,-1.356105E-07,NaN,0.4217738,1.104506E-08,NaN,-2.183657,1.132245E-05,-0.406697,-1.257711E-08,NaN,NaN,-0.02030922,1.396974E-10,5.283284E-07,-1.138446E-07,2.437386E-08,-2.622604E-08
343.0226,-0.155107,-1.766712E-08,NaN,-0.9086035,-1.356107E-07,NaN,0.4223687,1.090671E-08,NaN,-2.183514,1.132305E-05,-0.4067365,-1.243678E-08,NaN,NaN,-0.02030441,1.44354E-10,5.062747E-07,-1.138453E-07,2.318177E-08,-2.622604E-08
343.0388,-0.155107,-1.766712E-08,NaN,-0.9086035,-1.356107E-07,NaN,0.4223687,1.090671E-08,NaN,-2.183514,1.132305E-05,-0.4067365,-1.243678E-08,NaN,NaN,-0.02030441,1.44354E-10,5.062747E-07,-1.138453E-07,2.318177E-08,-2.622604E-08
343.0538,-0.1530154,-1.766616E-08,NaN,-0.9232464,-1.356109E-07,NaN,0.4229306,1.076978E-08,NaN,-2.183451,1.132366E-05,-0.4068003,-1.229788E-08,NaN,NaN,-0.02029982,1.490106E-10,4.836249E-07,-1.13846E-07,2.377781E-08,-2.622604E-08
343.0702,-0.1509355,-1.766519E-08,NaN,-0.9375041,-1.356112E-07,NaN,0.4234779,1.063565E-08,NaN,-2.183456,1.132426E-05,-0.4068779,-1.216178E-08,NaN,NaN,-0.02029537,1.536672E-10,4.597831E-07,-1.138467E-07,2.437386E-08,-2.622604E-08
343.0864,-0.1488621,-1.766423E-08,NaN,-0.9506999,-1.356114E-07,NaN,0.4240771,1.050428E-08,NaN,-2.183298,1.132488E-05,-0.4067209,-1.202843E-08,NaN,NaN,-0.02029044,1.536672E-10,4.436898E-07,-1.138474E-07,2.735409E-08,-2.622604E-08
343.1022,-0.1467939,-1.766326E-08,NaN,-0.9631891,-1.356116E-07,NaN,0.4246261,1.037419E-08,NaN,-2.18316,1.132549E-05,-0.4065738,-1.189636E-08,NaN,NaN,-0.02028576,1.583238E-10,4.252124E-07,-1.138481E-07,2.377781E-08,-2.622604E-08
343.1177,-0.1467939,-1.766326E-08,NaN,-0.9631891,-1.356116E-07,NaN,0.4246261,1.037419E-08,NaN,-2.18316,1.132549E-05,-0.4065738,-1.189636E-08,NaN,NaN,-0.02028576,1.583238E-10,4.252124E-07,-1.138481E-07,2.377781E-08,-2.622604E-08
343.1327,-0.1447331,-1.766229E-08,NaN,-0.9751911,-1.356118E-07,NaN,0.4251424,1.024677E-08,NaN,-2.183103,1.13261E-05,-0.4064573,-1.176697E-08,NaN,NaN,-0.02028132,1.629804E-10,4.055429E-07,-1.138488E-07,2.258572E-08,-2.622604E-08
343.1494,-0.1426825,-1.766133E-08,NaN,-0.9868419,-1.356121E-07,NaN,0.4256448,1.012197E-08,NaN,-2.183114,1.132671E-05,-0.4063605,-1.16402E-08,NaN,NaN,-0.02027701,1.67637E-10,3.858733E-07,-1.138495E-07,2.139362E-08,-2.622604E-08
343.165,-0.1406368,-1.766036E-08,NaN,-0.9974641,-1.356123E-07,NaN,0.4261991,9.998323E-09,NaN,-2.182961,1.132732E-05,-0.4060354,-1.151458E-08,NaN,NaN,-0.02027221,1.722937E-10,3.709722E-07,-1.138502E-07,2.020153E-08,-2.622604E-08
343.1808,-0.1385945,-1.765939E-08,NaN,-1.007413,-1.356125E-07,NaN,0.4267032,1.036799E-08,NaN,-2.182827,1.132793E-05,-0.4057262,-1.183017E-08,NaN,NaN,-0.02026767,1.722937E-10,3.55475E-07,-1.138513E-07,1.900944E-08,-2.861022E-08
343.1967,-0.1385945,-1.765939E-08,NaN,-1.007413,-1.356125E-07,NaN,0.4267032,1.036799E-08,NaN,-2.182827,1.132793E-05,-0.4057262,-1.183017E-08,NaN,NaN,-0.02026767,1.722937E-10,3.55475E-07,-1.138513E-07,1.900944E-08,-2.861022E-08
343.2119,-0.1365579,-1.765843E-08,NaN,-1.016907,-1.356128E-07,NaN,0.427175,1.073766E-08,NaN,-2.182774,1.132852E-05,-0.4054531,-1.210714E-08,NaN,NaN,-0.02026337,1.769503E-10,3.381896E-07,-1.138526E-07,1.692328E-08,-2.622604E-08
343.2285,-0.1345304,-1.765746E-08,NaN,-1.026082,-1.356132E-07,NaN,0.4276335,1.110733E-08,NaN,-2.182789,1.132912E-05,-0.405205,-1.235545E-08,NaN,NaN,-0.0202592,1.816069E-10,3.215003E-07,-1.138539E-07,1.424107E-08,-2.861022E-08
343.2441,-0.1325066,-1.765649E-08,NaN,-1.03426,-1.356136E-07,NaN,0.4281441,1.125809E-08,NaN,-2.18264,1.132972E-05,-0.4047342,-1.240865E-08,NaN,NaN,-0.02025455,1.816069E-10,3.101754E-07,-1.138547E-07,1.275095E-08,-2.622604E-08
343.26,-0.1304849,-1.765553E-08,NaN,-1.041795,-1.35614E-07,NaN,0.4286046,1.13648E-08,NaN,-2.18251,1.133031E-05,-0.4042846,-1.243694E-08,NaN,NaN,-0.02025016,1.862635E-10,2.976585E-07,-1.138555E-07,1.185688E-08,-2.861022E-08
343.2756,-0.1304849,-1.765553E-08,NaN,-1.041795,-1.35614E-07,NaN,0.4286046,1.13648E-08,NaN,-2.18251,1.133031E-05,-0.4042846,-1.243694E-08,NaN,NaN,-0.02025016,1.862635E-10,2.976585E-07,-1.138555E-07,1.185688E-08,-2.861022E-08
343.2907,-0.1284678,-1.765456E-08,NaN,-1.048907,-1.356143E-07,NaN,0.4290331,1.144589E-08,NaN,-2.182461,1.133092E-05,-0.4038762,-1.245489E-08,NaN,NaN,-0.020246,1.816069E-10,2.809691E-07,-1.138562E-07,1.096281E-08,-2.622604E-08
343.3073,-0.1264591,-1.76536E-08,NaN,-1.05573,-1.356146E-07,NaN,0.429449,1.150742E-08,NaN,-2.182481,1.133153E-05,-0.4034973,-1.246551E-08,NaN,NaN,-0.02024197,1.769503E-10,2.66068E-07,-1.138569E-07,8.578626E-09,-2.861022E-08
343.3246,-0.1244536,-1.765263E-08,NaN,-1.061584,-1.356148E-07,NaN,0.4299173,1.15548E-08,NaN,-2.182334,1.133213E-05,-0.4029007,-1.247178E-08,NaN,NaN,-0.02023747,1.769503E-10,2.607036E-07,-1.138576E-07,9.472696E-09,-2.622604E-08
343.339,-0.1244536,-1.765263E-08,NaN,-1.061584,-1.356148E-07,NaN,0.4299173,1.15548E-08,NaN,-2.182334,1.133213E-05,-0.4029007,-1.247178E-08,NaN,NaN,-0.02023747,1.769503E-10,2.607036E-07,-1.138576E-07,9.472696E-09,-2.622604E-08
343.354,-0.1224492,-1.765166E-08,NaN,-1.066826,-1.356151E-07,NaN,0.4303358,1.15929E-08,NaN,-2.182208,1.133273E-05,-0.4023301,-1.247659E-08,NaN,NaN,-0.02023322,1.769503E-10,2.499747E-07,-1.138582E-07,9.472696E-09,-2.861022E-08
343.3701,-0.120449,-1.76507E-08,NaN,-1.071673,-1.356153E-07,NaN,0.4307226,1.162189E-08,NaN,-2.182163,1.133333E-05,-0.4018051,-1.247855E-08,NaN,NaN,-0.0202292,1.769503E-10,2.362657E-07,-1.138589E-07,1.275095E-08,-2.622604E-08
343.386,-0.1184569,-1.764973E-08,NaN,-1.076258,-1.356155E-07,NaN,0.4310976,1.164591E-08,NaN,-2.182186,1.133393E-05,-0.4013137,-1.248056E-08,NaN,NaN,-0.02022531,1.769503E-10,2.243447E-07,-1.138596E-07,1.394304E-08,-2.861022E-08
343.4019,-0.1164679,-1.764876E-08,NaN,-1.079903,-1.356158E-07,NaN,0.4315256,1.166454E-08,NaN,-2.182042,1.133453E-05,-0.4006091,-1.248119E-08,NaN,NaN,-0.02022094,1.722937E-10,2.201724E-07,-1.138602E-07,1.260194E-08,-2.622604E-08
343.4178,-0.1164679,-1.764876E-08,NaN,-1.079903,-1.356158E-07,NaN,0.4315256,1.166454E-08,NaN,-2.182042,1.133453E-05,-0.4006091,-1.248119E-08,NaN,NaN,-0.02022094,1.722937E-10,2.201724E-07,-1.138602E-07,1.260194E-08,-2.622604E-08
343.4328,-0.11448,-1.76478E-08,NaN,-1.082962,-1.35616E-07,NaN,0.4319039,1.168003E-08,NaN,-2.181919,1.133513E-05,-0.3999346,-1.248188E-08,NaN,NaN,-0.02021683,1.67637E-10,2.14212E-07,-1.138609E-07,1.379403E-08,-2.861022E-08
343.4496,-0.1124961,-1.764683E-08,NaN,-1.085653,-1.356162E-07,NaN,0.4322495,1.16916E-08,NaN,-2.181832,1.133573E-05,-0.3993136,-1.248122E-08,NaN,NaN,-0.02021289,1.67637E-10,2.070594E-07,-1.138615E-07,1.304897E-08,-2.622604E-08
343.4659,-0.1105206,-1.764587E-08,NaN,-1.088109,-1.356164E-07,NaN,0.4325842,1.170121E-08,NaN,-2.181777,1.133632E-05,-0.3987303,-1.248065E-08,NaN,NaN,-0.02020908,1.722937E-10,1.987147E-07,-1.138621E-07,1.349601E-08,-2.861022E-08
343.481,-0.1085488,-1.76449E-08,NaN,-1.08965,-1.356166E-07,NaN,0.4329737,1.170784E-08,NaN,-2.181548,1.133692E-05,-0.397936,-1.247875E-08,NaN,NaN,-0.02020483,1.722937E-10,1.951385E-07,-1.138628E-07,1.424107E-08,-2.622604E-08
343.4967,-0.1085488,-1.76449E-08,NaN,-1.08965,-1.356166E-07,NaN,0.4329737,1.170784E-08,NaN,-2.181548,1.133692E-05,-0.397936,-1.247875E-08,NaN,NaN,-0.02020483,1.722937E-10,1.951385E-07,-1.138628E-07,1.424107E-08,-2.622604E-08
343.5116,-0.1065783,-1.764393E-08,NaN,-1.090631,-1.356168E-07,NaN,0.4333121,1.171328E-08,NaN,-2.181284,1.133751E-05,-0.3971795,-1.247696E-08,NaN,NaN,-0.02020076,1.769503E-10,1.921582E-07,-1.138634E-07,1.394304E-08,-2.861022E-08
343.5283,-0.1046124,-1.764297E-08,NaN,-1.091268,-1.356171E-07,NaN,0.4336194,1.171777E-08,NaN,-2.181036,1.13381E-05,-0.3964788,-1.247528E-08,NaN,NaN,-0.02019689,1.769503E-10,1.861978E-07,-1.138641E-07,1.364502E-08,-2.622604E-08
343.5439,-0.1026557,-1.7642E-08,NaN,-1.091695,-1.356173E-07,NaN,0.4339171,1.172012E-08,NaN,-2.180811,1.13387E-05,-0.3958179,-1.24723E-08,NaN,NaN,-0.02019316,1.769503E-10,1.814294E-07,-1.138647E-07,1.379403E-08,-2.861022E-08
343.5602,-0.1007038,-1.764103E-08,NaN,-1.091243,-1.356175E-07,NaN,0.4342687,1.172192E-08,NaN,-2.180413,1.133929E-05,-0.3949542,-1.246944E-08,NaN,NaN,-0.02018901,1.769503E-10,1.808334E-07,-1.138653E-07,1.394304E-08,-2.622604E-08
343.5756,-0.1007038,-1.764103E-08,NaN,-1.091243,-1.356175E-07,NaN,0.4342687,1.172192E-08,NaN,-2.180413,1.133929E-05,-0.3949542,-1.246944E-08,NaN,NaN,-0.02018901,1.769503E-10,1.808334E-07,-1.138653E-07,1.394304E-08,-2.622604E-08
343.5908,-0.09876782,-1.764007E-08,NaN,-1.090251,-1.356177E-07,NaN,0.4345815,1.172332E-08,NaN,-2.179977,1.133989E-05,-0.3941244,-1.246672E-08,NaN,NaN,-0.02018503,1.769503E-10,1.784492E-07,-1.13866E-07,1.260194E-08,-2.861022E-08
343.6071,-0.0968621,-1.76391E-08,NaN,-1.088936,-1.356179E-07,NaN,0.4348781,1.1723E-08,NaN,-2.179552,1.134048E-05,-0.393348,-1.246271E-08,NaN,NaN,-0.02018124,1.769503E-10,1.778531E-07,-1.138666E-07,1.21549E-08,-2.622604E-08
343.6234,-0.09499032,-1.763813E-08,NaN,-1.087432,-1.356181E-07,NaN,0.4351754,1.172249E-08,NaN,-2.179151,1.134108E-05,-0.39261,-1.245885E-08,NaN,NaN,-0.02017758,1.769503E-10,1.736808E-07,-1.138672E-07,1.200589E-08,-2.861022E-08
343.6388,-0.09499032,-1.763813E-08,NaN,-1.087432,-1.356181E-07,NaN,0.4351754,1.172249E-08,NaN,-2.179151,1.134108E-05,-0.39261,-1.245885E-08,NaN,NaN,-0.02017758,1.769503E-10,1.736808E-07,-1.138672E-07,1.200589E-08,-2.861022E-08
343.6539,-0.09314305,-1.763717E-08,NaN,-1.085058,-1.356183E-07,NaN,0.4355316,1.172185E-08,NaN,-2.178576,1.134168E-05,-0.3916671,-1.245515E-08,NaN,NaN,-0.02017348,1.769503E-10,1.772571E-07,-1.138678E-07,1.20804E-08,-2.622604E-08
343.6702,-0.09133592,-1.76362E-08,NaN,-1.082168,-1.356185E-07,NaN,0.4358546,1.171973E-08,NaN,-2.177964,1.134227E-05,-0.3907634,-1.245017E-08,NaN,NaN,-0.02016957,1.816069E-10,1.808334E-07,-1.138685E-07,1.155886E-08,-2.861022E-08
343.6863,-0.08957066,-1.763524E-08,NaN,-1.078979,-1.356188E-07,NaN,0.43616,1.17176E-08,NaN,-2.17737,1.134286E-05,-0.3899159,-1.244537E-08,NaN,NaN,-0.02016585,1.816069E-10,1.832176E-07,-1.138691E-07,8.578626E-09,-2.622604E-08
343.7021,-0.08784392,-1.763427E-08,NaN,-1.075621,-1.35619E-07,NaN,0.4364617,1.17155E-08,NaN,-2.176805,1.134345E-05,-0.3891108,-1.244074E-08,NaN,NaN,-0.02016226,1.816069E-10,1.832176E-07,-1.138697E-07,8.876649E-09,-2.861022E-08
343.7182,-0.08784392,-1.763427E-08,NaN,-1.075621,-1.35619E-07,NaN,0.4364617,1.17155E-08,NaN,-2.176805,1.134345E-05,-0.3891108,-1.244074E-08,NaN,NaN,-0.02016226,1.816069E-10,1.832176E-07,-1.138697E-07,8.876649E-09,-2.861022E-08
343.7328,-0.08614253,-1.76333E-08,NaN,-1.071414,-1.356192E-07,NaN,0.4368165,1.171344E-08,NaN,-2.17607,1.134405E-05,-0.3881079,-1.243626E-08,NaN,NaN,-0.02015825,1.816069E-10,1.861978E-07,-1.138703E-07,9.323683E-09,-2.622604E-08
343.7495,-0.08447937,-1.763234E-08,NaN,-1.06671,-1.356194E-07,NaN,0.437134,1.171005E-08,NaN,-2.175306,1.134463E-05,-0.387149,-1.243054E-08,NaN,NaN,-0.02015443,1.862635E-10,1.921582E-07,-1.138709E-07,9.249177E-09,-2.861022E-08
343.7654,-0.08285484,-1.763137E-08,NaN,-1.061726,-1.356196E-07,NaN,0.4374309,1.170677E-08,NaN,-2.174563,1.134521E-05,-0.3862503,-1.2425E-08,NaN,NaN,-0.0201508,1.955767E-10,1.939464E-07,-1.138715E-07,9.994236E-09,-2.622604E-08
343.7811,-0.08126513,-1.76304E-08,NaN,-1.056592,-1.356198E-07,NaN,0.4377219,1.170361E-08,NaN,-2.173855,1.13458E-05,-0.3853974,-1.241965E-08,NaN,NaN,-0.02014731,2.002333E-10,1.951385E-07,-1.138722E-07,1.073929E-08,-2.861022E-08
343.7971,-0.08126513,-1.76304E-08,NaN,-1.056592,-1.356198E-07,NaN,0.4377219,1.170361E-08,NaN,-2.173855,1.13458E-05,-0.3853974,-1.241965E-08,NaN,NaN,-0.02014731,2.002333E-10,1.951385E-07,-1.138722E-07,1.073929E-08,-2.861022E-08
343.8123,-0.07969729,-1.762944E-08,NaN,-1.050627,-1.3562E-07,NaN,0.4380629,1.169917E-08,NaN,-2.172981,1.134639E-05,-0.3843533,-1.241306E-08,NaN,NaN,-0.02014342,2.002333E-10,2.040792E-07,-1.138728E-07,1.096281E-08,-2.622604E-08
343.8304,-0.07816344,-1.762847E-08,NaN,-1.044183,-1.356203E-07,NaN,0.4383652,1.16949E-08,NaN,-2.172081,1.134698E-05,-0.383357,-1.240667E-08,NaN,NaN,-0.02013971,2.048899E-10,2.070594E-07,-1.138734E-07,1.178238E-08,-2.861022E-08
343.8447,-0.07666395,-1.76275E-08,NaN,-1.037477,-1.356205E-07,NaN,0.4386457,1.169079E-08,NaN,-2.171207,1.134757E-05,-0.3824236,-1.240048E-08,NaN,NaN,-0.02013621,2.095465E-10,2.106357E-07,-1.13874E-07,1.245293E-08,-2.622604E-08
343.8606,-0.0751953,-1.762654E-08,NaN,-1.030639,-1.356207E-07,NaN,0.4389195,1.168544E-08,NaN,-2.170371,1.134816E-05,-0.3815388,-1.239307E-08,NaN,NaN,-0.02013284,2.095465E-10,2.118278E-07,-1.138746E-07,1.349601E-08,-2.861022E-08
343.8765,-0.0751953,-1.762654E-08,NaN,-1.030639,-1.356207E-07,NaN,0.4389195,1.168544E-08,NaN,-2.170371,1.134816E-05,-0.3815388,-1.239307E-08,NaN,NaN,-0.02013284,2.095465E-10,2.118278E-07,-1.138746E-07,1.349601E-08,-2.861022E-08
343.8917,-0.07374513,-1.762557E-08,NaN,-1.022989,-1.356209E-07,NaN,0.4392408,1.168029E-08,NaN,-2.169374,1.134875E-05,-0.3804691,-1.238587E-08,NaN,NaN,-0.02012908,2.095465E-10,2.225566E-07,-1.138752E-07,1.409206E-08,-2.622604E-08
343.9081,-0.07232501,-1.762461E-08,NaN,-1.014878,-1.356211E-07,NaN,0.4395227,1.167392E-08,NaN,-2.168354,1.134933E-05,-0.3794505,-1.237748E-08,NaN,NaN,-0.02012551,2.142031E-10,2.267289E-07,-1.138758E-07,1.46136E-08,-2.861022E-08
343.9243,-0.07093535,-1.762364E-08,NaN,-1.006521,-1.356212E-07,NaN,0.4397824,1.166779E-08,NaN,-2.167362,1.134992E-05,-0.378497,-1.236933E-08,NaN,NaN,-0.02012213,2.188597E-10,2.297092E-07,-1.138764E-07,1.684877E-08,-2.622604E-08
343.94,-0.07093535,-1.762364E-08,NaN,-1.006521,-1.356212E-07,NaN,0.4397824,1.166779E-08,NaN,-2.167362,1.134992E-05,-0.378497,-1.236933E-08,NaN,NaN,-0.02012213,2.188597E-10,2.297092E-07,-1.138764E-07,1.684877E-08,-2.622604E-08
343.9554,-0.06956495,-1.762267E-08,NaN,-0.997288,-1.356214E-07,NaN,0.4400818,1.166046E-08,NaN,-2.166213,1.135051E-05,-0.3773759,-1.236E-08,NaN,NaN,-0.02011841,2.235164E-10,2.398419E-07,-1.13877E-07,1.610371E-08,-2.861022E-08
343.9716,-0.06822446,-1.762171E-08,NaN,-0.9875624,-1.356216E-07,NaN,0.4403401,1.165338E-08,NaN,-2.16505,1.13511E-05,-0.3763156,-1.235092E-08,NaN,NaN,-0.0201149,2.235164E-10,2.493787E-07,-1.138775E-07,1.357052E-08,-2.622604E-08
343.9877,-0.06691363,-1.762074E-08,NaN,-0.977578,-1.356218E-07,NaN,0.4405764,1.164654E-08,NaN,-2.163923,1.135169E-05,-0.3753267,-1.234209E-08,NaN,NaN,-0.0201116,2.235164E-10,2.577233E-07,-1.138781E-07,1.118633E-08,-2.861022E-08
344.0034,-0.06562887,-1.761977E-08,NaN,-0.9674783,-1.35622E-07,NaN,0.440806,1.163854E-08,NaN,-2.162847,1.135228E-05,-0.374393,-1.23321E-08,NaN,NaN,-0.02010844,2.235164E-10,2.618957E-07,-1.138787E-07,1.118633E-08,-2.622604E-08
344.0198,-0.06562887,-1.761977E-08,NaN,-0.9674783,-1.35622E-07,NaN,0.440806,1.163854E-08,NaN,-2.162847,1.135228E-05,-0.374393,-1.23321E-08,NaN,NaN,-0.02010844,2.235164E-10,2.618957E-07,-1.138787E-07,1.118633E-08,-2.622604E-08
344.0346,-0.06435857,-1.76188E-08,NaN,-0.9565895,-1.356222E-07,NaN,0.4410796,1.163079E-08,NaN,-2.161618,1.135287E-05,-0.3732882,-1.232237E-08,NaN,NaN,-0.02010492,2.28173E-10,2.738166E-07,-1.138793E-07,8.802145E-09,-2.861022E-08
344.051,-0.06311278,-1.761783E-08,NaN,-0.9452672,-1.356224E-07,NaN,0.4413135,1.162331E-08,NaN,-2.160375,1.135346E-05,-0.372241,-1.231291E-08,NaN,NaN,-0.0201016,2.28173E-10,2.803731E-07,-1.138799E-07,9.547203E-09,-2.622604E-08
344.0668,-0.0618918,-1.761687E-08,NaN,-0.9337289,-1.356226E-07,NaN,0.4415252,1.161609E-08,NaN,-2.159169,1.135405E-05,-0.3712634,-1.230371E-08,NaN,NaN,-0.02009847,2.328296E-10,2.857375E-07,-1.138805E-07,9.24918E-09,-2.861022E-08
344.0827,-0.06069287,-1.76159E-08,NaN,-0.9221081,-1.356228E-07,NaN,0.4417298,1.16077E-08,NaN,-2.158013,1.135463E-05,-0.3703406,-1.229335E-08,NaN,NaN,-0.02009548,2.374862E-10,2.887178E-07,-1.138811E-07,9.398192E-09,-2.622604E-08
344.0987,-0.06069287,-1.76159E-08,NaN,-0.9221081,-1.356228E-07,NaN,0.4417298,1.16077E-08,NaN,-2.158013,1.135463E-05,-0.3703406,-1.229335E-08,NaN,NaN,-0.02009548,2.374862E-10,2.887178E-07,-1.138811E-07,9.398192E-09,-2.622604E-08
344.1139,-0.05951288,-1.761493E-08,NaN,-0.9104865,-1.35623E-07,NaN,0.4419331,1.159959E-08,NaN,-2.156905,1.135522E-05,-0.3694608,-1.228327E-08,NaN,NaN,-0.0200926,2.374862E-10,2.928901E-07,-1.138816E-07,9.398192E-09,-2.861022E-08
344.1302,-0.05834924,-1.761396E-08,NaN,-0.8989141,-1.356232E-07,NaN,0.4421364,1.159174E-08,NaN,-2.155841,1.135581E-05,-0.368617,-1.227345E-08,NaN,NaN,-0.02008981,2.374862E-10,2.952743E-07,-1.138822E-07,9.696214E-09,-2.622604E-08
344.146,-0.05720001,-1.761299E-08,NaN,-0.8874214,-1.356234E-07,NaN,0.4423393,1.158271E-08,NaN,-2.154815,1.13564E-05,-0.3678049,-1.226245E-08,NaN,NaN,-0.0200871,2.421428E-10,2.970624E-07,-1.138828E-07,1.059028E-08,-2.861022E-08
344.162,-0.05606386,-1.761203E-08,NaN,-0.876027,-1.356236E-07,NaN,0.4425411,1.157396E-08,NaN,-2.153823,1.135699E-05,-0.3670219,-1.225173E-08,NaN,NaN,-0.02008447,2.421428E-10,2.988506E-07,-1.138834E-07,9.398192E-09,-2.622604E-08
344.1776,-0.05606386,-1.761203E-08,NaN,-0.876027,-1.356236E-07,NaN,0.4425411,1.157396E-08,NaN,-2.153823,1.135699E-05,-0.3670219,-1.225173E-08,NaN,NaN,-0.02008447,2.421428E-10,2.988506E-07,-1.138834E-07,9.398192E-09,-2.622604E-08
344.193,-0.05494679,-1.761106E-08,NaN,-0.8655034,-1.356238E-07,NaN,0.4427005,1.15655E-08,NaN,-2.153062,1.135758E-05,-0.3664705,-1.22413E-08,NaN,NaN,-0.02008236,2.421428E-10,2.964664E-07,-1.138839E-07,9.100169E-09,-2.861022E-08
344.2092,-0.05383736,-1.761009E-08,NaN,-0.8555567,-1.35624E-07,NaN,0.4428975,1.155732E-08,NaN,-2.152385,1.135817E-05,-0.3659222,-1.223115E-08,NaN,NaN,-0.02008021,2.421428E-10,2.964664E-07,-1.138845E-07,7.610053E-09,-2.622604E-08
344.2253,-0.05273274,-1.760912E-08,NaN,-0.8460057,-1.356242E-07,NaN,0.4431132,1.154799E-08,NaN,-2.151733,1.135877E-05,-0.3653616,-1.221986E-08,NaN,NaN,-0.02007802,2.421428E-10,2.976585E-07,-1.138851E-07,6.715983E-09,-2.861022E-08
344.2408,-0.05163326,-1.760815E-08,NaN,-0.8367382,-1.356244E-07,NaN,0.4433321,1.153896E-08,NaN,-2.151088,1.135936E-05,-0.3647994,-1.220886E-08,NaN,NaN,-0.02007584,2.374862E-10,2.994466E-07,-1.138856E-07,4.629821E-09,-2.622604E-08
344.2571,-0.05163326,-1.760815E-08,NaN,-0.8367382,-1.356244E-07,NaN,0.4433321,1.153896E-08,NaN,-2.151088,1.135936E-05,-0.3647994,-1.220886E-08,NaN,NaN,-0.02007584,2.374862E-10,2.994466E-07,-1.138856E-07,4.629821E-09,-2.622604E-08
344.2725,-0.05054673,-1.760719E-08,NaN,-0.8284464,-1.356246E-07,NaN,0.443508,1.153022E-08,NaN,-2.150647,1.135995E-05,-0.3644459,-1.219815E-08,NaN,NaN,-0.02007413,2.374862E-10,2.964664E-07,-1.138862E-07,2.543658E-09,-2.861022E-08
344.2888,-0.04946474,-1.760622E-08,NaN,-0.8207871,-1.356248E-07,NaN,0.4437183,1.152034E-08,NaN,-2.150266,1.136054E-05,-0.3640817,-1.218631E-08,NaN,NaN,-0.02007237,2.421428E-10,2.922941E-07,-1.138867E-07,1.649589E-09,-2.622604E-08
344.3044,-0.0483859,-1.760525E-08,NaN,-0.8135482,-1.35625E-07,NaN,0.4439445,1.151077E-08,NaN,-2.149892,1.136113E-05,-0.3636954,-1.217477E-08,NaN,NaN,-0.02007055,2.421428E-10,2.893138E-07,-1.138873E-07,3.437728E-09,-2.861022E-08
344.3202,-0.04731133,-1.760428E-08,NaN,-0.8065984,-1.356252E-07,NaN,0.444172,1.15015E-08,NaN,-2.149509,1.136172E-05,-0.3632993,-1.216354E-08,NaN,NaN,-0.02006873,2.421428E-10,2.887178E-07,-1.138879E-07,4.331798E-09,-2.622604E-08
344.3374,-0.04731133,-1.760428E-08,NaN,-0.8065984,-1.356252E-07,NaN,0.444172,1.15015E-08,NaN,-2.149509,1.136172E-05,-0.3632993,-1.216354E-08,NaN,NaN,-0.02006873,2.421428E-10,2.887178E-07,-1.138879E-07,4.331798E-09,-2.622604E-08
344.3515,-0.04624901,-1.760331E-08,NaN,-0.8006178,-1.356254E-07,NaN,0.4443559,1.149253E-08,NaN,-2.14932,1.136231E-05,-0.3631032,-1.21526E-08,NaN,NaN,-0.02006737,2.421428E-10,2.821612E-07,-1.138884E-07,5.821914E-09,-2.861022E-08
344.368,-0.04519172,-1.760234E-08,NaN,-0.7952564,-1.356256E-07,NaN,0.4445733,1.148243E-08,NaN,-2.14918,1.13629E-05,-0.3628905,-1.214053E-08,NaN,NaN,-0.02006594,2.421428E-10,2.767968E-07,-1.13889E-07,7.610053E-09,-2.622604E-08
344.3838,-0.04413825,-1.760138E-08,NaN,-0.7902976,-1.356258E-07,NaN,0.4448062,1.147264E-08,NaN,-2.14904,1.13635E-05,-0.3626501,-1.212877E-08,NaN,NaN,-0.02006444,2.421428E-10,2.720284E-07,-1.138895E-07,6.41796E-09,-2.861022E-08
344.3994,-0.04413825,-1.760138E-08,NaN,-0.7902976,-1.356258E-07,NaN,0.4448062,1.147264E-08,NaN,-2.14904,1.13635E-05,-0.3626501,-1.212877E-08,NaN,NaN,-0.02006444,2.421428E-10,2.720284E-07,-1.138895E-07,6.41796E-09,-2.861022E-08
344.4144,-0.04308963,-1.760041E-08,NaN,-0.7856073,-1.35626E-07,NaN,0.44504,1.146315E-08,NaN,-2.148883,1.136409E-05,-0.3623949,-1.211732E-08,NaN,NaN,-0.02006293,2.421428E-10,2.678561E-07,-1.138901E-07,5.821914E-09,-2.622604E-08
344.4309,-0.04205354,-1.759944E-08,NaN,-0.7818639,-1.356262E-07,NaN,0.4452305,1.145254E-08,NaN,-2.148912,1.136468E-05,-0.362334,-1.210475E-08,NaN,NaN,-0.02006187,2.374862E-10,2.577233E-07,-1.138906E-07,6.41796E-09,-2.861022E-08
344.4467,-0.0410233,-1.759847E-08,NaN,-0.7787167,-1.356263E-07,NaN,0.4454544,1.144226E-08,NaN,-2.148986,1.136527E-05,-0.3622519,-1.20925E-08,NaN,NaN,-0.02006072,2.374862E-10,2.505708E-07,-1.138912E-07,5.225868E-09,-2.622604E-08
344.4626,-0.03999767,-1.75975E-08,NaN,-0.7759487,-1.356265E-07,NaN,0.4456938,1.143229E-08,NaN,-2.149052,1.136586E-05,-0.362138,-1.208057E-08,NaN,NaN,-0.0200595,2.374862E-10,2.434182E-07,-1.138917E-07,4.033775E-09,-2.861022E-08
344.4784,-0.03999767,-1.75975E-08,NaN,-0.7759487,-1.356265E-07,NaN,0.4456938,1.143229E-08,NaN,-2.149052,1.136586E-05,-0.362138,-1.208057E-08,NaN,NaN,-0.0200595,2.374862E-10,2.434182E-07,-1.138917E-07,4.033775E-09,-2.861022E-08
344.4938,-0.03897746,-1.759654E-08,NaN,-0.7734252,-1.356267E-07,NaN,0.4459343,1.142263E-08,NaN,-2.149097,1.136646E-05,-0.3620051,-1.206894E-08,NaN,NaN,-0.02005826,2.374862E-10,2.380538E-07,-1.138923E-07,4.629821E-09,-2.622604E-08
344.5105,-0.03797,-1.759557E-08,NaN,-0.7718246,-1.356269E-07,NaN,0.4461314,1.141185E-08,NaN,-2.149323,1.136704E-05,-0.3620623,-1.20562E-08,NaN,NaN,-0.02005747,2.421428E-10,2.267289E-07,-1.138928E-07,4.629821E-09,-2.861022E-08
344.5258,-0.03696902,-1.75946E-08,NaN,-0.7707964,-1.356271E-07,NaN,0.446362,1.14014E-08,NaN,-2.149588,1.136763E-05,-0.3620948,-1.204378E-08,NaN,NaN,-0.02005657,2.421428E-10,2.160001E-07,-1.138933E-07,4.033775E-09,-2.622604E-08
344.5415,-0.03597317,-1.759363E-08,NaN,-0.7701237,-1.356273E-07,NaN,0.4466085,1.139126E-08,NaN,-2.14984,1.136822E-05,-0.3620917,-1.203168E-08,NaN,NaN,-0.02005561,2.421428E-10,2.064633E-07,-1.138939E-07,4.629821E-09,-2.861022E-08
344.5574,-0.03597317,-1.759363E-08,NaN,-0.7701237,-1.356273E-07,NaN,0.4466085,1.139126E-08,NaN,-2.14984,1.136822E-05,-0.3620917,-1.203168E-08,NaN,NaN,-0.02005561,2.421428E-10,2.064633E-07,-1.138939E-07,4.629821E-09,-2.861022E-08
344.5725,-0.03498304,-1.759266E-08,NaN,-0.7696718,-1.356274E-07,NaN,0.4468561,1.138144E-08,NaN,-2.150066,1.136882E-05,-0.3620659,-1.201989E-08,NaN,NaN,-0.0200546,2.421428E-10,2.005029E-07,-1.138944E-07,4.629821E-09,-2.622604E-08
344.5892,-0.03400574,-1.75917E-08,NaN,-0.7701148,-1.356276E-07,NaN,0.4470605,1.13705E-08,NaN,-2.150467,1.136941E-05,-0.3622261,-1.2007E-08,NaN,NaN,-0.02005403,2.421428E-10,1.8888E-07,-1.138949E-07,5.225868E-09,-2.861022E-08
344.6049,-0.03303937,-1.759073E-08,NaN,-0.771108,-1.356278E-07,NaN,0.4473003,1.135989E-08,NaN,-2.150902,1.137E-05,-0.3623593,-1.199442E-08,NaN,NaN,-0.02005338,2.374862E-10,1.787472E-07,-1.138955E-07,5.821914E-09,-2.622604E-08
344.6207,-0.03208558,-1.758976E-08,NaN,-0.7724344,-1.35628E-07,NaN,0.4475594,1.13496E-08,NaN,-2.151316,1.137059E-05,-0.3624528,-1.198217E-08,NaN,NaN,-0.02005262,2.374862E-10,1.680183E-07,-1.13896E-07,6.41796E-09,-2.861022E-08
344.6365,-0.03208558,-1.758976E-08,NaN,-0.7724344,-1.35628E-07,NaN,0.4475594,1.13496E-08,NaN,-2.151316,1.137059E-05,-0.3624528,-1.198217E-08,NaN,NaN,-0.02005262,2.374862E-10,1.680183E-07,-1.13896E-07,6.41796E-09,-2.861022E-08
344.6518,-0.03114463,-1.758879E-08,NaN,-0.7739591,-1.356282E-07,NaN,0.4478223,1.133963E-08,NaN,-2.151698,1.137118E-05,-0.3625194,-1.197023E-08,NaN,NaN,-0.02005183,2.374862E-10,1.602697E-07,-1.138965E-07,5.225868E-09,-2.622604E-08
344.6683,-0.03022224,-1.758782E-08,NaN,-0.7763605,-1.356284E-07,NaN,0.448042,1.132854E-08,NaN,-2.152252,1.137178E-05,-0.3627711,-1.195719E-08,NaN,NaN,-0.02005147,2.374862E-10,1.447725E-07,-1.138971E-07,5.821914E-09,-2.861022E-08
344.6842,-0.02931717,-1.758685E-08,NaN,-0.7792892,-1.356286E-07,NaN,0.4482994,1.131779E-08,NaN,-2.152833,1.137237E-05,-0.3629914,-1.194447E-08,NaN,NaN,-0.02005101,2.374862E-10,1.319575E-07,-1.138976E-07,5.821914E-09,-2.622604E-08
344.7037,-0.02842763,-1.758589E-08,NaN,-0.7825284,-1.356287E-07,NaN,0.4485759,1.130735E-08,NaN,-2.153391,1.137295E-05,-0.3631687,-1.193208E-08,NaN,NaN,-0.02005045,2.467994E-10,1.218247E-07,-1.138981E-07,6.41796E-09,-2.861022E-08
344.7159,-0.02842763,-1.758589E-08,NaN,-0.7825284,-1.356287E-07,NaN,0.4485759,1.130735E-08,NaN,-2.153391,1.137295E-05,-0.3631687,-1.193208E-08,NaN,NaN,-0.02005045,2.467994E-10,1.218247E-07,-1.138981E-07,6.41796E-09,-2.861022E-08
344.7311,-0.02755195,-1.758492E-08,NaN,-0.7859439,-1.356289E-07,NaN,0.4488555,1.129582E-08,NaN,-2.153912,1.137355E-05,-0.3633164,-1.191858E-08,NaN,NaN,-0.02004984,2.467994E-10,1.143742E-07,-1.138986E-07,6.41796E-09,-2.622604E-08
344.748,-0.02669484,-1.758395E-08,NaN,-0.7902141,-1.356291E-07,NaN,0.4490902,1.128463E-08,NaN,-2.154603,1.137415E-05,-0.3636489,-1.190543E-08,NaN,NaN,-0.02004967,2.51456E-10,1.009631E-07,-1.138991E-07,5.821914E-09,-2.861022E-08
344.7637,-0.02585409,-1.758298E-08,NaN,-0.7949902,-1.356293E-07,NaN,0.4493619,1.127377E-08,NaN,-2.155317,1.137475E-05,-0.3639481,-1.18926E-08,NaN,NaN,-0.02004938,2.51456E-10,8.814811E-08,-1.138997E-07,5.225868E-09,-2.622604E-08
344.7792,-0.02585409,-1.758298E-08,NaN,-0.7949902,-1.356293E-07,NaN,0.4493619,1.127377E-08,NaN,-2.155317,1.137475E-05,-0.3639481,-1.18926E-08,NaN,NaN,-0.02004938,2.51456E-10,8.814811E-08,-1.138997E-07,5.225868E-09,-2.622604E-08
344.7946,-0.02502752,-1.758201E-08,NaN,-0.8000557,-1.356295E-07,NaN,0.4496526,1.126323E-08,NaN,-2.156005,1.137534E-05,-0.3642018,-1.18801E-08,NaN,NaN,-0.02004899,2.561126E-10,8.010149E-08,-1.139002E-07,5.821914E-09,-2.861022E-08
344.811,-0.02421336,-1.758105E-08,NaN,-0.8052765,-1.356297E-07,NaN,0.4499462,1.125161E-08,NaN,-2.156653,1.137594E-05,-0.3644234,-1.186651E-08,NaN,NaN,-0.02004855,2.561126E-10,7.056475E-08,-1.139007E-07,4.629821E-09,-2.622604E-08
344.8271,-0.02341652,-1.758008E-08,NaN,-0.811331,-1.356298E-07,NaN,0.4501936,1.124032E-08,NaN,-2.157467,1.137655E-05,-0.3648299,-1.185326E-08,NaN,NaN,-0.02004854,2.467994E-10,5.417347E-08,-1.139012E-07,1.649589E-09,-2.861022E-08
344.8441,-0.02263446,-1.757911E-08,NaN,-0.817871,-1.3563E-07,NaN,0.4504782,1.122936E-08,NaN,-2.158303,1.137715E-05,-0.3652012,-1.184034E-08,NaN,NaN,-0.02004842,2.51456E-10,4.284859E-08,-1.139017E-07,1.053542E-09,-2.622604E-08
344.8587,-0.02263446,-1.757911E-08,NaN,-0.817871,-1.3563E-07,NaN,0.4504782,1.122936E-08,NaN,-2.158303,1.137715E-05,-0.3652012,-1.184034E-08,NaN,NaN,-0.02004842,2.51456E-10,4.284859E-08,-1.139017E-07,1.053542E-09,-2.622604E-08
344.8734,-0.02186501,-1.757814E-08,NaN,-0.82468,-1.356302E-07,NaN,0.450782,1.121874E-08,NaN,-2.159108,1.137776E-05,-0.3655246,-1.182775E-08,NaN,NaN,-0.02004819,2.421428E-10,3.182173E-08,-1.139022E-07,-4.365736E-10,-2.861022E-08
344.89,-0.02110649,-1.757717E-08,NaN,-0.8316241,-1.356304E-07,NaN,0.451089,1.120702E-08,NaN,-2.159871,1.137835E-05,-0.3658133,-1.181407E-08,NaN,NaN,-0.0200479,2.467994E-10,2.347708E-08,-1.139028E-07,1.594729E-10,-2.622604E-08
344.9059,-0.0203642,-1.757621E-08,NaN,-0.8393819,-1.356306E-07,NaN,0.4513485,1.119565E-08,NaN,-2.160796,1.137896E-05,-0.3662878,-1.180074E-08,NaN,NaN,-0.02004804,2.374862E-10,7.383825E-09,-1.139033E-07,-1.385503E-10,-2.861022E-08
344.9216,-0.01963532,-1.757524E-08,NaN,-0.8476054,-1.356307E-07,NaN,0.4516456,1.118461E-08,NaN,-2.161741,1.137956E-05,-0.3667253,-1.178774E-08,NaN,NaN,-0.02004807,2.421428E-10,-5.729197E-09,-1.139038E-07,7.555193E-10,-2.622604E-08
344.9373,-0.01963532,-1.757524E-08,NaN,-0.8476054,-1.356307E-07,NaN,0.4516456,1.118461E-08,NaN,-2.161741,1.137956E-05,-0.3667253,-1.178774E-08,NaN,NaN,-0.02004807,2.421428E-10,-5.729197E-09,-1.139038E-07,7.555193E-10,-2.622604E-08
344.9528,-0.01891767,-1.757427E-08,NaN,-0.8560785,-1.356309E-07,NaN,0.4519624,1.11739E-08,NaN,-2.162652,1.138017E-05,-0.3671125,-1.177506E-08,NaN,NaN,-0.02004798,2.328296E-10,-1.675606E-08,-1.139043E-07,2.245635E-09,-2.861022E-08
344.9688,-0.01820971,-1.75733E-08,NaN,-0.8646672,-1.356311E-07,NaN,0.4522827,1.11621E-08,NaN,-2.163517,1.138077E-05,-0.3674626,-1.17613E-08,NaN,NaN,-0.02004783,2.328296E-10,-2.510071E-08,-1.139048E-07,1.947612E-09,-2.622604E-08
344.9846,-0.01751714,-1.757233E-08,NaN,-0.8740504,-1.356312E-07,NaN,0.4525542,1.115064E-08,NaN,-2.164543,1.138138E-05,-0.3679997,-1.174788E-08,NaN,NaN,-0.02004811,2.235163E-10,-4.179001E-08,-1.139053E-07,2.841682E-09,-2.861022E-08
345.0003,-0.01683684,-1.757136E-08,NaN,-0.8838804,-1.356314E-07,NaN,0.4528637,1.113953E-08,NaN,-2.165585,1.138198E-05,-0.3684985,-1.17348E-08,NaN,NaN,-0.02004826,2.235163E-10,-5.490303E-08,-1.139058E-07,2.841682E-09,-2.622604E-08
345.0163,-0.01683684,-1.757136E-08,NaN,-0.8838804,-1.356314E-07,NaN,0.4528637,1.113953E-08,NaN,-2.165585,1.138198E-05,-0.3684985,-1.17348E-08,NaN,NaN,-0.02004826,2.235163E-10,-5.490303E-08,-1.139058E-07,2.841682E-09,-2.622604E-08
345.0313,-0.01616659,-1.757039E-08,NaN,-0.8939413,-1.356316E-07,NaN,0.4531936,1.112874E-08,NaN,-2.166591,1.138259E-05,-0.3689446,-1.172206E-08,NaN,NaN,-0.0200483,2.142031E-10,-6.742001E-08,-1.139063E-07,1.649589E-09,-2.861022E-08
345.0477,-0.01550495,-1.756942E-08,NaN,-0.9040993,-1.356318E-07,NaN,0.4535274,1.111687E-08,NaN,-2.167548,1.138319E-05,-0.3693512,-1.170822E-08,NaN,NaN,-0.02004827,2.142031E-10,-7.814884E-08,-1.139068E-07,1.649589E-09,-2.622604E-08
345.0638,-0.01485812,-1.756845E-08,NaN,-0.9150333,-1.356319E-07,NaN,0.4538109,1.110534E-08,NaN,-2.168664,1.138379E-05,-0.3699467,-1.169473E-08,NaN,NaN,-0.02004868,2.188597E-10,-9.364605E-08,-1.139072E-07,1.594729E-10,-2.861022E-08
345.0794,-0.01485812,-1.756845E-08,NaN,-0.9150333,-1.356319E-07,NaN,0.4538109,1.110534E-08,NaN,-2.168664,1.138379E-05,-0.3699467,-1.169473E-08,NaN,NaN,-0.02004868,2.188597E-10,-9.364605E-08,-1.139072E-07,1.594729E-10,-2.861022E-08
345.0946,-0.01422254,-1.756748E-08,NaN,-0.9263961,-1.356321E-07,NaN,0.4541329,1.109415E-08,NaN,-2.169793,1.138439E-05,-0.3705025,-1.168158E-08,NaN,NaN,-0.02004896,2.188597E-10,-1.067591E-07,-1.139077E-07,-7.345968E-10,-2.622604E-08
345.1107,-0.01359598,-1.756651E-08,NaN,-0.937972,-1.356323E-07,NaN,0.4544759,1.108329E-08,NaN,-2.170884,1.1385E-05,-0.3710034,-1.166876E-08,NaN,NaN,-0.02004912,2.095465E-10,-1.198721E-07,-1.139082E-07,1.947612E-09,-2.861022E-08
345.1271,-0.01297706,-1.756554E-08,NaN,-0.9496272,-1.356329E-07,NaN,0.4548233,1.119388E-08,NaN,-2.171924,1.13856E-05,-0.3714626,-1.177739E-08,NaN,NaN,-0.02004921,2.095465E-10,-1.300049E-07,-1.139078E-07,3.735751E-09,-2.622604E-08
345.1428,-0.01237253,-1.756457E-08,NaN,-0.9620408,-1.356334E-07,NaN,0.4551187,1.128551E-08,NaN,-2.17312,1.138621E-05,-0.3721129,-1.186707E-08,NaN,NaN,-0.02004974,2.002333E-10,-1.466942E-07,-1.139073E-07,3.437728E-09,-2.861022E-08
345.1589,-0.01237253,-1.756457E-08,NaN,-0.9620408,-1.356334E-07,NaN,0.4551187,1.128551E-08,NaN,-2.17312,1.138621E-05,-0.3721129,-1.186707E-08,NaN,NaN,-0.02004974,2.002333E-10,-1.466942E-07,-1.139073E-07,3.437728E-09,-2.861022E-08
