JMolnar6/NonAnthroHands_User_Study/HandsLoggerWithURDF/tempdata/files/Reachy_PID0_JointMotion_gesture_12_60.csv
Time,r_shoulder,r_shoulder_x,r_upper_arm,r_forearm,r_wrist,r_wrist2hand,
837.577,-0.7024238,1.547599E-09,NaN,-0.7039462,-1.322531E-07,NaN,0.08913057,-4.941823E-07,NaN,-0.6519809,2.294669E-05,0.09535919,8.86324E-08,NaN,NaN,0.1320275,-3.259743E-11,-2.416792E-06,-1.09943E-07,2.534176E-09,-2.861022E-08
837.5909,-0.6979258,1.548229E-09,NaN,-0.6999283,-1.322532E-07,NaN,0.08888981,-4.942079E-07,NaN,-0.6507424,2.294707E-05,0.0964309,8.865923E-08,NaN,NaN,0.1324375,-2.794082E-11,-2.406063E-06,-1.099433E-07,1.640106E-09,-2.622604E-08
837.6072,-0.6932475,1.548858E-09,NaN,-0.6957532,-1.322533E-07,NaN,0.08811917,-4.942329E-07,NaN,-0.6492614,2.294745E-05,0.09814174,8.86855E-08,NaN,NaN,0.132558,-2.794082E-11,-2.39295E-06,-1.099436E-07,-7.440799E-10,-2.861022E-08
837.6213,-0.6884902,1.549488E-09,NaN,-0.6915051,-1.322533E-07,NaN,0.08727714,-4.942573E-07,NaN,-0.6477683,2.294782E-05,0.1000542,8.871119E-08,NaN,NaN,0.1326762,-2.328421E-11,-2.390566E-06,-1.099439E-07,2.236152E-09,-2.622604E-08
837.6362,-0.6884902,1.549488E-09,NaN,-0.6915051,-1.322533E-07,NaN,0.08727714,-4.942573E-07,NaN,-0.6477683,2.294782E-05,0.1000542,8.871119E-08,NaN,NaN,0.1326762,-2.328421E-11,-2.390566E-06,-1.099439E-07,2.236152E-09,-2.622604E-08
837.6506,-0.6837119,1.550117E-09,NaN,-0.6872333,-1.322534E-07,NaN,0.08651445,-4.942812E-07,NaN,-0.6462631,2.294821E-05,0.1019773,8.873632E-08,NaN,NaN,0.1327923,-2.328421E-11,-2.383413E-06,-1.099442E-07,-1.340126E-09,-2.861022E-08
837.666,-0.6789458,1.550746E-09,NaN,-0.6829665,-1.322535E-07,NaN,0.08585864,-4.943074E-07,NaN,-0.6447528,2.294859E-05,0.1038468,8.876374E-08,NaN,NaN,0.132906,-2.328421E-11,-2.377453E-06,-1.099445E-07,-1.936173E-09,-2.622604E-08
837.681,-0.6744429,1.551375E-09,NaN,-0.6789212,-1.322536E-07,NaN,0.08585715,-4.94333E-07,NaN,-0.6434981,2.294898E-05,0.1049752,8.879057E-08,NaN,NaN,0.1332991,-3.259743E-11,-2.370301E-06,-1.099448E-07,-4.022335E-09,-2.861022E-08
837.6958,-0.6744429,1.551375E-09,NaN,-0.6789212,-1.322536E-07,NaN,0.08585715,-4.94333E-07,NaN,-0.6434981,2.294898E-05,0.1049752,8.879057E-08,NaN,NaN,0.1332991,-3.259743E-11,-2.370301E-06,-1.099448E-07,-4.022335E-09,-2.861022E-08
837.71,-0.6701128,1.552005E-09,NaN,-0.675023,-1.322537E-07,NaN,0.08603159,-4.94358E-07,NaN,-0.6422749,2.294936E-05,0.1058028,8.881682E-08,NaN,NaN,0.1336842,-2.794082E-11,-2.354803E-06,-1.099451E-07,-4.022335E-09,-2.622604E-08
837.7257,-0.6659034,1.552634E-09,NaN,-0.6712278,-1.322538E-07,NaN,0.08621503,-4.943824E-07,NaN,-0.6410866,2.294974E-05,0.106526,8.88425E-08,NaN,NaN,0.1340617,-2.794082E-11,-2.34169E-06,-1.099454E-07,-4.618382E-09,-2.861022E-08
837.7404,-0.6617845,1.553263E-09,NaN,-0.6675099,-1.322539E-07,NaN,0.0863672,-4.944063E-07,NaN,-0.6399282,2.295011E-05,0.1072152,8.886762E-08,NaN,NaN,0.1344318,-2.328421E-11,-2.327385E-06,-1.099457E-07,-4.618382E-09,-2.622604E-08
837.7552,-0.6617845,1.553263E-09,NaN,-0.6675099,-1.322539E-07,NaN,0.0863672,-4.944063E-07,NaN,-0.6399282,2.295011E-05,0.1072152,8.886762E-08,NaN,NaN,0.1344318,-2.328421E-11,-2.327385E-06,-1.099457E-07,-4.618382E-09,-2.622604E-08
837.7716,-0.6579686,1.553892E-09,NaN,-0.6640537,-1.322539E-07,NaN,0.08704866,-4.944297E-07,NaN,-0.6390466,2.29505E-05,0.107219,8.889221E-08,NaN,NaN,0.1350763,-2.328421E-11,-2.314272E-06,-1.099459E-07,-5.512451E-09,-2.861022E-08
837.785,-0.6543468,1.554522E-09,NaN,-0.6607668,-1.32254E-07,NaN,0.08781254,-4.944525E-07,NaN,-0.6382076,2.295087E-05,0.1069781,8.891625E-08,NaN,NaN,0.1357078,-1.86276E-11,-2.291622E-06,-1.099462E-07,-8.19466E-09,-2.622604E-08
837.7997,-0.6543468,1.554522E-09,NaN,-0.6607668,-1.32254E-07,NaN,0.08781254,-4.944525E-07,NaN,-0.6382076,2.295087E-05,0.1069781,8.891625E-08,NaN,NaN,0.1357078,-1.86276E-11,-2.291622E-06,-1.099462E-07,-8.19466E-09,-2.622604E-08
837.8138,-0.6508555,1.555151E-09,NaN,-0.6575944,-1.322541E-07,NaN,0.08852009,-4.944776E-07,NaN,-0.6374077,2.295126E-05,0.1066797,8.89426E-08,NaN,NaN,0.136327,-1.86276E-11,-2.270164E-06,-1.099465E-07,-9.386753E-09,-2.861022E-08
837.8307,-0.647687,1.55578E-09,NaN,-0.6547039,-1.322541E-07,NaN,0.08970828,-4.945022E-07,NaN,-0.6368905,2.295164E-05,0.1057139,8.896838E-08,NaN,NaN,0.1372155,-1.86276E-11,-2.251091E-06,-1.099468E-07,-8.790706E-09,-2.622604E-08
837.8439,-0.6447223,1.55641E-09,NaN,-0.6519934,-1.322542E-07,NaN,0.09093443,-4.945261E-07,NaN,-0.6364174,2.295202E-05,0.1045314,8.89936E-08,NaN,NaN,0.1380864,-1.86276E-11,-2.226057E-06,-1.099471E-07,-7.598613E-09,-2.861022E-08
837.8588,-0.6447223,1.55641E-09,NaN,-0.6519934,-1.322542E-07,NaN,0.09093443,-4.945261E-07,NaN,-0.6364174,2.295202E-05,0.1045314,8.89936E-08,NaN,NaN,0.1380864,-1.86276E-11,-2.226057E-06,-1.099471E-07,-7.598613E-09,-2.861022E-08
837.8731,-0.6418916,1.557039E-09,NaN,-0.6494021,-1.322543E-07,NaN,0.09206849,-4.945496E-07,NaN,-0.6359823,2.29524E-05,0.1033195,8.901828E-08,NaN,NaN,0.1389402,-1.86276E-11,-2.199831E-06,-1.099474E-07,-8.19466E-09,-2.622604E-08
837.8886,-0.6391534,1.557668E-09,NaN,-0.6468934,-1.322544E-07,NaN,0.09309769,-4.945725E-07,NaN,-0.6355741,2.295279E-05,0.1021372,8.904242E-08,NaN,NaN,0.1397773,-2.794082E-11,-2.175989E-06,-1.099476E-07,-7.598613E-09,-2.861022E-08
837.9037,-0.6367115,1.558297E-09,NaN,-0.6446453,-1.322544E-07,NaN,0.09459748,-4.945949E-07,NaN,-0.6354362,2.295317E-05,0.1003261,8.906603E-08,NaN,NaN,0.1408795,-2.328421E-11,-2.153339E-06,-1.099479E-07,-9.386753E-09,-2.622604E-08
837.9185,-0.6367115,1.558297E-09,NaN,-0.6446453,-1.322544E-07,NaN,0.09459748,-4.945949E-07,NaN,-0.6354362,2.295317E-05,0.1003261,8.906603E-08,NaN,NaN,0.1408795,-2.328421E-11,-2.153339E-06,-1.099479E-07,-9.386753E-09,-2.622604E-08
837.9327,-0.6344564,1.558927E-09,NaN,-0.6425632,-1.322545E-07,NaN,0.09613819,-4.946168E-07,NaN,-0.6353307,2.295355E-05,0.0983163,8.908913E-08,NaN,NaN,0.1419599,-2.328421E-11,-2.124729E-06,-1.099482E-07,-9.386753E-09,-2.861022E-08
837.9482,-0.6323228,1.559556E-09,NaN,-0.64059,-1.322546E-07,NaN,0.09758869,-4.946409E-07,NaN,-0.6352533,2.295393E-05,0.09628963,8.911454E-08,NaN,NaN,0.1430191,-1.86276E-11,-2.093735E-06,-1.099485E-07,-1.117489E-08,-2.622604E-08
837.9633,-0.6302716,1.560185E-09,NaN,-0.6386911,-1.322546E-07,NaN,0.09893233,-4.946646E-07,NaN,-0.6351947,2.295431E-05,0.09430482,8.913941E-08,NaN,NaN,0.1440575,-1.86276E-11,-2.068105E-06,-1.099488E-07,-9.982799E-09,-2.861022E-08
837.978,-0.6302716,1.560185E-09,NaN,-0.6386911,-1.322546E-07,NaN,0.09893233,-4.946646E-07,NaN,-0.6351947,2.295431E-05,0.09430482,8.913941E-08,NaN,NaN,0.1440575,-1.86276E-11,-2.068105E-06,-1.099488E-07,-9.982799E-09,-2.861022E-08
837.9942,-0.628507,1.560814E-09,NaN,-0.6370454,-1.322547E-07,NaN,0.1007372,-4.946876E-07,NaN,-0.6353995,2.295469E-05,0.09170644,8.916374E-08,NaN,NaN,0.1453571,-1.397098E-11,-2.039495E-06,-1.09949E-07,-7.598613E-09,-2.622604E-08
838.0076,-0.6269217,1.561444E-09,NaN,-0.6355597,-1.322548E-07,NaN,0.1025757,-4.947102E-07,NaN,-0.6356298,2.295507E-05,0.08892205,8.918754E-08,NaN,NaN,0.146631,-1.397098E-11,-2.01148E-06,-1.099493E-07,-4.618381E-09,-2.861022E-08
838.0225,-0.6254513,1.562073E-09,NaN,-0.6341776,-1.322549E-07,NaN,0.1043153,-4.947323E-07,NaN,-0.6358818,2.295544E-05,0.08613428,8.921083E-08,NaN,NaN,0.1478799,-9.31437E-12,-1.97691E-06,-1.099496E-07,-6.406521E-09,-2.622604E-08
838.0374,-0.6254513,1.562073E-09,NaN,-0.6341776,-1.322549E-07,NaN,0.1043153,-4.947323E-07,NaN,-0.6358818,2.295544E-05,0.08613428,8.921083E-08,NaN,NaN,0.1478799,-9.31437E-12,-1.97691E-06,-1.099496E-07,-6.406521E-09,-2.622604E-08
838.0516,-0.624284,1.562702E-09,NaN,-0.6330643,-1.322549E-07,NaN,0.106485,-4.947538E-07,NaN,-0.6364003,2.295584E-05,0.08273718,8.92336E-08,NaN,NaN,0.1493859,-1.86276E-11,-1.943531E-06,-1.099499E-07,-4.618381E-09,-2.861022E-08
838.0673,-0.6233043,1.563331E-09,NaN,-0.6321191,-1.32255E-07,NaN,0.1086563,-4.94775E-07,NaN,-0.6369444,2.295621E-05,0.07917093,8.925602E-08,NaN,NaN,0.1508622,-9.31437E-12,-1.906576E-06,-1.099501E-07,-5.810474E-09,-2.622604E-08
838.0821,-0.6224424,1.563961E-09,NaN,-0.6312805,-1.322551E-07,NaN,0.1107001,-4.947957E-07,NaN,-0.6375086,2.295659E-05,0.07562206,8.927795E-08,NaN,NaN,0.1523094,-4.657758E-12,-1.867833E-06,-1.099504E-07,-4.022334E-09,-2.861022E-08
838.097,-0.6224424,1.563961E-09,NaN,-0.6312805,-1.322551E-07,NaN,0.1107001,-4.947957E-07,NaN,-0.6375086,2.295659E-05,0.07562206,8.927795E-08,NaN,NaN,0.1523094,-4.657758E-12,-1.867833E-06,-1.099504E-07,-4.022334E-09,-2.861022E-08
838.1111,-0.6216555,1.56459E-09,NaN,-0.6305107,-1.322551E-07,NaN,0.1126035,-4.948187E-07,NaN,-0.6380832,2.295698E-05,0.07214989,8.930222E-08,NaN,NaN,0.1537284,-1.144917E-15,-1.833262E-06,-1.099507E-07,-3.426288E-09,-2.622604E-08
838.1272,-0.6211448,1.565219E-09,NaN,-0.6299862,-1.322552E-07,NaN,0.1149282,-4.948412E-07,NaN,-0.6389139,2.295736E-05,0.06810338,8.932597E-08,NaN,NaN,0.155401,4.655468E-12,-1.796903E-06,-1.099509E-07,-4.618381E-09,-2.861022E-08
838.1422,-0.6208039,1.565849E-09,NaN,-0.6296141,-1.322553E-07,NaN,0.1172612,-4.948632E-07,NaN,-0.6397598,2.295774E-05,0.06390017,8.934919E-08,NaN,NaN,0.1570407,9.312081E-12,-1.759352E-06,-1.099512E-07,-4.022335E-09,-2.622604E-08
838.1569,-0.6208039,1.565849E-09,NaN,-0.6296141,-1.322553E-07,NaN,0.1172612,-4.948632E-07,NaN,-0.6397598,2.295774E-05,0.06390017,8.934919E-08,NaN,NaN,0.1570407,9.312081E-12,-1.759352E-06,-1.099512E-07,-4.022335E-09,-2.622604E-08
838.1711,-0.6205676,1.566478E-09,NaN,-0.6293371,-1.322554E-07,NaN,0.1194713,-4.948847E-07,NaN,-0.6406173,2.295812E-05,0.05972259,8.937191E-08,NaN,NaN,0.1586483,1.396869E-11,-1.720013E-06,-1.099515E-07,-4.618381E-09,-2.861022E-08
838.187,-0.6203961,1.567107E-09,NaN,-0.6291196,-1.322554E-07,NaN,0.1215418,-4.949057E-07,NaN,-0.6414783,2.29585E-05,0.05563014,8.939413E-08,NaN,NaN,0.1602243,1.862531E-11,-1.680078E-06,-1.099517E-07,-4.618381E-09,-2.622604E-08
838.2026,-0.6204907,1.567736E-09,NaN,-0.6291386,-1.322555E-07,NaN,0.1240223,-4.949262E-07,NaN,-0.6425909,2.295889E-05,0.05097792,8.941586E-08,NaN,NaN,0.162051,2.328192E-11,-1.645508E-06,-1.09952E-07,-2.234195E-09,-2.861022E-08
838.2167,-0.6204907,1.567736E-09,NaN,-0.6291386,-1.322555E-07,NaN,0.1240223,-4.949262E-07,NaN,-0.6425909,2.295889E-05,0.05097792,8.941586E-08,NaN,NaN,0.162051,2.328192E-11,-1.645508E-06,-1.09952E-07,-2.234195E-09,-2.861022E-08
838.2306,-0.6207474,1.568366E-09,NaN,-0.6293032,-1.322556E-07,NaN,0.1265069,-4.949491E-07,NaN,-0.6437129,2.295927E-05,0.04617717,8.943994E-08,NaN,NaN,0.1638417,2.793853E-11,-1.605572E-06,-1.099523E-07,-3.426288E-09,-2.622604E-08
838.2462,-0.621102,1.568995E-09,NaN,-0.6295567,-1.322556E-07,NaN,0.1288622,-4.949714E-07,NaN,-0.6448414,2.295965E-05,0.04141208,8.946349E-08,NaN,NaN,0.1655973,3.259514E-11,-1.564445E-06,-1.099525E-07,-2.234195E-09,-2.861022E-08
838.261,-0.6215144,1.569624E-09,NaN,-0.6298636,-1.322557E-07,NaN,0.1310703,-4.949932E-07,NaN,-0.6459689,2.296003E-05,0.03674337,8.948653E-08,NaN,NaN,0.1673185,3.725175E-11,-1.523914E-06,-1.099528E-07,-4.460562E-10,-2.622604E-08
838.2761,-0.6215144,1.569624E-09,NaN,-0.6298636,-1.322557E-07,NaN,0.1310703,-4.949932E-07,NaN,-0.6459689,2.296003E-05,0.03674337,8.948653E-08,NaN,NaN,0.1673185,3.725175E-11,-1.523914E-06,-1.099528E-07,-4.460562E-10,-2.622604E-08
838.2903,-0.6221873,1.570253E-09,NaN,-0.6304017,-1.322558E-07,NaN,0.1336737,-4.950145E-07,NaN,-0.6473442,2.296041E-05,0.03152985,8.950907E-08,NaN,NaN,0.1692875,4.190837E-11,-1.485767E-06,-1.099531E-07,2.534176E-09,-2.861022E-08
838.3074,-0.6230153,1.570883E-09,NaN,-0.631079,-1.322558E-07,NaN,0.1362719,-4.950354E-07,NaN,-0.6487252,2.29608E-05,0.02617884,8.953111E-08,NaN,NaN,0.1712179,4.656498E-11,-1.44762E-06,-1.099533E-07,1.93813E-09,-2.622604E-08
838.321,-0.6239336,1.571512E-09,NaN,-0.6318382,-1.322559E-07,NaN,0.1387318,-4.950556E-07,NaN,-0.6501088,2.296119E-05,0.0208754,8.955267E-08,NaN,NaN,0.1731103,5.122159E-11,-1.405897E-06,-1.099536E-07,3.726269E-09,-2.861022E-08
838.3359,-0.6239336,1.571512E-09,NaN,-0.6318382,-1.322559E-07,NaN,0.1387318,-4.950556E-07,NaN,-0.6501088,2.296119E-05,0.0208754,8.955267E-08,NaN,NaN,0.1731103,5.122159E-11,-1.405897E-06,-1.099536E-07,3.726269E-09,-2.861022E-08
838.3505,-0.6251297,1.572141E-09,NaN,-0.6328438,-1.32256E-07,NaN,0.1415548,-4.950755E-07,NaN,-0.6517442,2.296157E-05,0.01502988,8.957375E-08,NaN,NaN,0.1752472,5.58782E-11,-1.364174E-06,-1.099538E-07,2.534176E-09,-2.622604E-08
838.366,-0.6264883,1.572771E-09,NaN,-0.6339948,-1.322561E-07,NaN,0.1443415,-4.950949E-07,NaN,-0.653387,2.296196E-05,0.00906156,8.959437E-08,NaN,NaN,0.1773422,6.053481E-11,-1.321258E-06,-1.099541E-07,1.93813E-09,-2.861022E-08
838.3809,-0.6279388,1.5734E-09,NaN,-0.6352289,-1.322561E-07,NaN,0.1469625,-4.951166E-07,NaN,-0.6550323,2.296234E-05,0.003159744,8.961734E-08,NaN,NaN,0.1793961,6.519143E-11,-1.278939E-06,-1.099544E-07,-4.460561E-10,-2.622604E-08
838.3955,-0.6279388,1.5734E-09,NaN,-0.6352289,-1.322561E-07,NaN,0.1469625,-4.951166E-07,NaN,-0.6550323,2.296234E-05,0.003159744,8.961734E-08,NaN,NaN,0.1793961,6.519143E-11,-1.278939E-06,-1.099544E-07,-4.460561E-10,-2.622604E-08
838.4119,-0.6294381,1.57403E-09,NaN,-0.6365077,-1.322562E-07,NaN,0.1494065,-4.951379E-07,NaN,-0.6566717,2.296273E-05,-0.002615427,8.963983E-08,NaN,NaN,0.1814097,6.984804E-11,-1.234832E-06,-1.099546E-07,-1.042103E-09,-2.861022E-08
838.4256,-0.6311876,1.574659E-09,NaN,-0.6380078,-1.322563E-07,NaN,0.1522053,-4.951586E-07,NaN,-0.658555,2.296311E-05,-0.008898264,8.966181E-08,NaN,NaN,0.1836654,7.450466E-11,-1.196685E-06,-1.099549E-07,3.130223E-09,-2.622604E-08
838.4403,-0.6330795,1.575289E-09,NaN,-0.6396347,-1.322563E-07,NaN,0.154977,-4.951789E-07,NaN,-0.6604376,2.29635E-05,-0.01529435,8.968331E-08,NaN,NaN,0.1858769,7.916127E-11,-1.148405E-06,-1.099551E-07,4.918362E-09,-2.861022E-08
838.4551,-0.6330795,1.575289E-09,NaN,-0.6396347,-1.322563E-07,NaN,0.154977,-4.951789E-07,NaN,-0.6604376,2.29635E-05,-0.01529435,8.968331E-08,NaN,NaN,0.1858769,7.916127E-11,-1.148405E-06,-1.099551E-07,4.918362E-09,-2.861022E-08
838.4694,-0.6350483,1.575918E-09,NaN,-0.6413308,-1.322564E-07,NaN,0.1575913,-4.951987E-07,NaN,-0.6623161,2.296388E-05,-0.02161875,8.970434E-08,NaN,NaN,0.188045,8.381789E-11,-1.101913E-06,-1.099554E-07,4.918362E-09,-2.622604E-08
838.4848,-0.6370543,1.576548E-09,NaN,-0.6430609,-1.322565E-07,NaN,0.1600332,-4.95218E-07,NaN,-0.6641832,2.296427E-05,-0.02781169,8.97249E-08,NaN,NaN,0.1901707,8.847451E-11,-1.056614E-06,-1.099556E-07,6.706502E-09,-2.861022E-08
838.4998,-0.6370543,1.576548E-09,NaN,-0.6430609,-1.322565E-07,NaN,0.1600332,-4.95218E-07,NaN,-0.6641832,2.296427E-05,-0.02781169,8.97249E-08,NaN,NaN,0.1901707,8.847451E-11,-1.056614E-06,-1.099556E-07,6.706502E-09,-2.861022E-08
838.5139,-0.6393017,1.577177E-09,NaN,-0.6450034,-1.322566E-07,NaN,0.162821,-4.952369E-07,NaN,-0.6662904,2.296466E-05,-0.03450086,8.974501E-08,NaN,NaN,0.1925361,9.313112E-11,-1.014295E-06,-1.099559E-07,7.898595E-09,-2.622604E-08
838.5298,-0.6416833,1.577807E-09,NaN,-0.6470648,-1.322566E-07,NaN,0.1655807,-4.952553E-07,NaN,-0.6683928,2.296506E-05,-0.04129827,8.976467E-08,NaN,NaN,0.1948553,8.38179E-11,-9.719753E-07,-1.099562E-07,1.028278E-08,-2.861022E-08
838.5445,-0.644134,1.578436E-09,NaN,-0.649188,-1.322567E-07,NaN,0.1681802,-4.952733E-07,NaN,-0.6704872,2.296545E-05,-0.04801727,8.978389E-08,NaN,NaN,0.197129,8.847451E-11,-9.266757E-07,-1.099564E-07,1.207092E-08,-2.622604E-08
838.5596,-0.644134,1.578436E-09,NaN,-0.649188,-1.322567E-07,NaN,0.1681802,-4.952733E-07,NaN,-0.6704872,2.296545E-05,-0.04801727,8.978389E-08,NaN,NaN,0.197129,8.847451E-11,-9.266757E-07,-1.099564E-07,1.207092E-08,-2.622604E-08
838.5738,-0.6468439,1.579066E-09,NaN,-0.6515385,-1.322568E-07,NaN,0.1710947,-4.952936E-07,NaN,-0.6728258,2.296584E-05,-0.05523164,8.98055E-08,NaN,NaN,0.1996396,9.313113E-11,-8.807801E-07,-1.099567E-07,1.087883E-08,-2.861022E-08
838.5895,-0.6496955,1.579696E-09,NaN,-0.654014,-1.322568E-07,NaN,0.1739527,-4.953135E-07,NaN,-0.6751615,2.296623E-05,-0.06254241,8.982664E-08,NaN,NaN,0.202101,9.778774E-11,-8.325003E-07,-1.099569E-07,1.147487E-08,-2.622604E-08
838.6042,-0.6526183,1.580326E-09,NaN,-0.6565527,-1.322569E-07,NaN,0.1766264,-4.95333E-07,NaN,-0.6774894,2.296663E-05,-0.06975828,8.984731E-08,NaN,NaN,0.2045143,1.024444E-10,-7.824324E-07,-1.099571E-07,1.087883E-08,-2.861022E-08
838.6192,-0.6526183,1.580326E-09,NaN,-0.6565527,-1.322569E-07,NaN,0.1766264,-4.95333E-07,NaN,-0.6774894,2.296663E-05,-0.06975828,8.984731E-08,NaN,NaN,0.2045143,1.024444E-10,-7.824324E-07,-1.099571E-07,1.087883E-08,-2.861022E-08
838.6344,-0.6555702,1.580956E-09,NaN,-0.6591173,-1.322572E-07,NaN,0.1791064,-4.952278E-07,NaN,-0.6798013,2.296703E-05,-0.07681896,8.974337E-08,NaN,NaN,0.2068802,9.778774E-11,-7.37729E-07,-1.099569E-07,1.207092E-08,-2.622604E-08
838.649,-0.6587557,1.581586E-09,NaN,-0.6618858,-1.322575E-07,NaN,0.1818956,-4.951415E-07,NaN,-0.6823501,2.296743E-05,-0.0843421,8.965834E-08,NaN,NaN,0.2094813,8.847452E-11,-6.954097E-07,-1.099567E-07,1.266697E-08,-2.861022E-08
838.6635,-0.6620649,1.582216E-09,NaN,-0.6647624,-1.322577E-07,NaN,0.1846422,-4.950569E-07,NaN,-0.6848887,2.296783E-05,-0.09195533,8.957492E-08,NaN,NaN,0.2120314,8.38179E-11,-6.48322E-07,-1.099564E-07,1.505115E-08,-2.622604E-08
838.6784,-0.6620649,1.582216E-09,NaN,-0.6647624,-1.322577E-07,NaN,0.1846422,-4.950569E-07,NaN,-0.6848887,2.296783E-05,-0.09195533,8.957492E-08,NaN,NaN,0.2120314,8.38179E-11,-6.48322E-07,-1.099564E-07,1.505115E-08,-2.622604E-08
838.6924,-0.6654321,1.582847E-09,NaN,-0.66769,-1.322577E-07,NaN,0.1872162,-4.951092E-07,NaN,-0.6874135,2.296822E-05,-0.09947145,8.962852E-08,NaN,NaN,0.2145316,8.847452E-11,-5.97062E-07,-1.099566E-07,1.505115E-08,-2.861022E-08
838.708,-0.6688182,1.583477E-09,NaN,-0.6706342,-1.322577E-07,NaN,0.1896044,-4.951464E-07,NaN,-0.6899174,2.296861E-05,-0.1068302,8.966691E-08,NaN,NaN,0.2169828,9.313113E-11,-5.499743E-07,-1.099568E-07,1.266697E-08,-2.622604E-08
838.7232,-0.6724311,1.584108E-09,NaN,-0.6737748,-1.322578E-07,NaN,0.1922945,-4.951771E-07,NaN,-0.6926549,2.296902E-05,-0.1146412,8.969885E-08,NaN,NaN,0.2196674,8.381791E-11,-5.06463E-07,-1.099571E-07,1.117685E-08,-2.861022E-08
838.7377,-0.6724311,1.584108E-09,NaN,-0.6737748,-1.322578E-07,NaN,0.1922945,-4.951771E-07,NaN,-0.6926549,2.296902E-05,-0.1146412,8.969885E-08,NaN,NaN,0.2196674,8.381791E-11,-5.06463E-07,-1.099571E-07,1.117685E-08,-2.861022E-08
838.7521,-0.6761608,1.584738E-09,NaN,-0.6770169,-1.322578E-07,NaN,0.194944,-4.952043E-07,NaN,-0.6953789,2.296941E-05,-0.1225399,8.972729E-08,NaN,NaN,0.2222994,8.847453E-11,-4.569911E-07,-1.099573E-07,9.686735E-09,-2.622604E-08
838.7678,-0.6799421,1.585369E-09,NaN,-0.6803036,-1.322579E-07,NaN,0.1974214,-4.952281E-07,NaN,-0.6980858,2.29698E-05,-0.1303371,8.97523E-08,NaN,NaN,0.22488,9.313114E-11,-4.099035E-07,-1.099575E-07,1.028278E-08,-2.861022E-08
838.7825,-0.6837365,1.586E-09,NaN,-0.6836016,-1.322579E-07,NaN,0.1997129,-4.952514E-07,NaN,-0.7007691,2.297019E-05,-0.1379717,8.977676E-08,NaN,NaN,0.2274099,9.778776E-11,-3.628158E-07,-1.099578E-07,1.207092E-08,-2.622604E-08
838.7989,-0.6837365,1.586E-09,NaN,-0.6836016,-1.322579E-07,NaN,0.1997129,-4.952514E-07,NaN,-0.7007691,2.297019E-05,-0.1379717,8.977676E-08,NaN,NaN,0.2274099,9.778776E-11,-3.628158E-07,-1.099578E-07,1.207092E-08,-2.622604E-08
838.8115,-0.6877536,1.58663E-09,NaN,-0.6870911,-1.32258E-07,NaN,0.2022934,-4.95274E-07,NaN,-0.7036839,2.297058E-05,-0.1460456,8.980069E-08,NaN,NaN,0.2301717,1.024444E-10,-3.228807E-07,-1.09958E-07,7.600573E-09,-2.861022E-08
838.827,-0.6918824,1.587261E-09,NaN,-0.6906767,-1.322581E-07,NaN,0.2048325,-4.952962E-07,NaN,-0.7065829,2.297097E-05,-0.1542029,8.982411E-08,NaN,NaN,0.2328795,1.07101E-10,-2.746009E-07,-1.099583E-07,4.322317E-09,-2.622604E-08
838.8417,-0.6960576,1.587892E-09,NaN,-0.694302,-1.322581E-07,NaN,0.2071987,-4.953179E-07,NaN,-0.7094625,2.297138E-05,-0.1622537,8.9847E-08,NaN,NaN,0.2355342,9.778776E-11,-2.24533E-07,-1.099585E-07,7.898596E-09,-2.861022E-08
838.8575,-0.6960576,1.587892E-09,NaN,-0.694302,-1.322581E-07,NaN,0.2071987,-4.953179E-07,NaN,-0.7094625,2.297138E-05,-0.1622537,8.9847E-08,NaN,NaN,0.2355342,9.778776E-11,-2.24533E-07,-1.099585E-07,7.898596E-09,-2.861022E-08
838.8706,-0.7004739,1.588523E-09,NaN,-0.6981338,-1.322582E-07,NaN,0.2098232,-4.95339E-07,NaN,-0.7125778,2.297177E-05,-0.1707441,8.98694E-08,NaN,NaN,0.2384183,1.024444E-10,-1.804256E-07,-1.099588E-07,1.117685E-08,-2.622604E-08
838.8862,-0.7050101,1.589154E-09,NaN,-0.7020681,-1.322583E-07,NaN,0.2123807,-4.953597E-07,NaN,-0.71568,2.297216E-05,-0.1793079,8.989129E-08,NaN,NaN,0.241246,1.07101E-10,-1.291656E-07,-1.09959E-07,1.236894E-08,-2.861022E-08
838.9007,-0.7095949,1.589786E-09,NaN,-0.7060437,-1.322584E-07,NaN,0.2147445,-4.953799E-07,NaN,-0.7187636,2.297255E-05,-0.1877505,8.991271E-08,NaN,NaN,0.2440184,1.117576E-10,-7.969375E-08,-1.099593E-07,1.266697E-08,-2.622604E-08
838.9155,-0.7095949,1.589786E-09,NaN,-0.7060437,-1.322584E-07,NaN,0.2147445,-4.953799E-07,NaN,-0.7187636,2.297255E-05,-0.1877505,8.991271E-08,NaN,NaN,0.2440184,1.117576E-10,-7.969375E-08,-1.099593E-07,1.266697E-08,-2.622604E-08
838.9295,-0.714187,1.590417E-09,NaN,-0.710025,-1.322584E-07,NaN,0.2169074,-4.953996E-07,NaN,-0.721821,2.297294E-05,-0.1960107,8.993366E-08,NaN,NaN,0.2467364,1.164142E-10,-3.379817E-08,-1.099595E-07,1.356104E-08,-2.861022E-08
838.9451,-0.7189974,1.591048E-09,NaN,-0.7141911,-1.322585E-07,NaN,0.2193266,-4.954189E-07,NaN,-0.7251076,2.297334E-05,-0.2046786,8.995415E-08,NaN,NaN,0.2496825,1.210708E-10,3.752753E-09,-1.099597E-07,1.207092E-08,-2.622604E-08
838.9598,-0.7189974,1.591048E-09,NaN,-0.7141911,-1.322585E-07,NaN,0.2193266,-4.954189E-07,NaN,-0.7251076,2.297334E-05,-0.2046786,8.995415E-08,NaN,NaN,0.2496825,1.210708E-10,3.752753E-09,-1.099597E-07,1.207092E-08,-2.622604E-08
838.9738,-0.7239114,1.591679E-09,NaN,-0.7184449,-1.322586E-07,NaN,0.2216968,-4.954377E-07,NaN,-0.7283752,2.297374E-05,-0.2134161,8.997419E-08,NaN,NaN,0.252571,1.117576E-10,5.024437E-08,-1.0996E-07,1.207092E-08,-2.861022E-08
838.9894,-0.7288624,1.592311E-09,NaN,-0.7227294,-1.322586E-07,NaN,0.2238892,-4.954589E-07,NaN,-0.7316191,2.297413E-05,-0.222033,8.999662E-08,NaN,NaN,0.2554029,1.164142E-10,9.792809E-08,-1.099602E-07,1.17729E-08,-2.622604E-08
839.0043,-0.733812,1.592942E-09,NaN,-0.7270117,-1.322587E-07,NaN,0.2258922,-4.954796E-07,NaN,-0.7348328,2.297452E-05,-0.2304679,9.001855E-08,NaN,NaN,0.2581793,1.210708E-10,1.456118E-07,-1.099605E-07,1.266697E-08,-2.861022E-08
839.0191,-0.733812,1.592942E-09,NaN,-0.7270117,-1.322587E-07,NaN,0.2258922,-4.954796E-07,NaN,-0.7348328,2.297452E-05,-0.2304679,9.001855E-08,NaN,NaN,0.2581793,1.210708E-10,1.456118E-07,-1.099605E-07,1.266697E-08,-2.861022E-08
839.0333,-0.7389749,1.593573E-09,NaN,-0.731473,-1.322588E-07,NaN,0.2281461,-4.954998E-07,NaN,-0.7382727,2.297491E-05,-0.239302,9.004E-08,NaN,NaN,0.2611826,1.257274E-10,1.873351E-07,-1.099607E-07,1.266697E-08,-2.622604E-08
839.0486,-0.7442359,1.594205E-09,NaN,-0.7360163,-1.322588E-07,NaN,0.2303562,-4.955195E-07,NaN,-0.7416915,2.297531E-05,-0.2482053,9.006098E-08,NaN,NaN,0.2641273,1.303841E-10,2.338267E-07,-1.099609E-07,1.05808E-08,-2.861022E-08
839.0634,-0.7495285,1.594836E-09,NaN,-0.7405853,-1.322589E-07,NaN,0.2323923,-4.955388E-07,NaN,-0.7450843,2.29757E-05,-0.2569861,9.008149E-08,NaN,NaN,0.2670142,1.350407E-10,2.838946E-07,-1.099612E-07,7.153538E-09,-2.622604E-08
839.078,-0.7495285,1.594836E-09,NaN,-0.7405853,-1.322589E-07,NaN,0.2323923,-4.955388E-07,NaN,-0.7450843,2.29757E-05,-0.2569861,9.008149E-08,NaN,NaN,0.2670142,1.350407E-10,2.838946E-07,-1.099612E-07,7.153538E-09,-2.622604E-08
839.0942,-0.755053,1.595468E-09,NaN,-0.7453479,-1.322589E-07,NaN,0.2346502,-4.955576E-07,NaN,-0.7487076,2.29761E-05,-0.2661684,9.010154E-08,NaN,NaN,0.2701259,1.257274E-10,3.283E-07,-1.099614E-07,6.259468E-09,-2.861022E-08
839.1076,-0.7606833,1.5961E-09,NaN,-0.7501985,-1.32259E-07,NaN,0.2368407,-4.95576E-07,NaN,-0.7523128,2.29765E-05,-0.2754112,9.012115E-08,NaN,NaN,0.2731768,1.257274E-10,3.774739E-07,-1.099616E-07,5.365398E-09,-2.622604E-08
839.1223,-0.7663474,1.596732E-09,NaN,-0.7550765,-1.32259E-07,NaN,0.238839,-4.955939E-07,NaN,-0.7558935,2.29769E-05,-0.2845183,9.014031E-08,NaN,NaN,0.276168,1.257274E-10,4.236675E-07,-1.099619E-07,9.016182E-09,-2.861022E-08
839.1369,-0.7663474,1.596732E-09,NaN,-0.7550765,-1.32259E-07,NaN,0.238839,-4.955939E-07,NaN,-0.7558935,2.29769E-05,-0.2845183,9.014031E-08,NaN,NaN,0.276168,1.257274E-10,4.236675E-07,-1.099619E-07,9.016182E-09,-2.861022E-08
839.151,-0.7720045,1.597364E-09,NaN,-0.7599471,-1.322591E-07,NaN,0.2406389,-4.956142E-07,NaN,-0.759442,2.297729E-05,-0.2934274,9.016188E-08,NaN,NaN,0.2791006,1.30384E-10,4.68967E-07,-1.099621E-07,6.073203E-09,-2.622604E-08
839.1664,-0.7778717,1.597996E-09,NaN,-0.7649909,-1.322592E-07,NaN,0.2426614,-4.956341E-07,NaN,-0.7632149,2.297768E-05,-0.3027072,9.018297E-08,NaN,NaN,0.2822568,1.350406E-10,5.08008E-07,-1.099624E-07,9.034808E-09,-2.861022E-08
839.1808,-0.7838295,1.598628E-09,NaN,-0.770109,-1.322592E-07,NaN,0.244637,-4.956535E-07,NaN,-0.7669647,2.297807E-05,-0.312045,9.020359E-08,NaN,NaN,0.2853515,1.396973E-10,5.527115E-07,-1.099626E-07,9.123284E-09,-2.622604E-08
839.1957,-0.7838295,1.598628E-09,NaN,-0.770109,-1.322592E-07,NaN,0.244637,-4.956535E-07,NaN,-0.7669647,2.297807E-05,-0.312045,9.020359E-08,NaN,NaN,0.2853515,1.396973E-10,5.527115E-07,-1.099626E-07,9.123284E-09,-2.622604E-08
839.2097,-0.7898104,1.59926E-09,NaN,-0.7752448,-1.322593E-07,NaN,0.2464382,-4.956724E-07,NaN,-0.7706857,2.297847E-05,-0.3212492,9.022375E-08,NaN,NaN,0.2883855,1.396973E-10,5.992031E-07,-1.099628E-07,7.409651E-09,-2.861022E-08
839.2252,-0.7957764,1.599892E-09,NaN,-0.7803664,-1.322593E-07,NaN,0.2480546,-4.956909E-07,NaN,-0.7743711,2.297886E-05,-0.3302575,9.024346E-08,NaN,NaN,0.29136,1.396973E-10,6.450987E-07,-1.099631E-07,8.788009E-09,-2.622604E-08
839.24,-0.8019488,1.600524E-09,NaN,-0.7856562,-1.322594E-07,NaN,0.2498896,-4.957089E-07,NaN,-0.7782781,2.297926E-05,-0.3396294,9.026273E-08,NaN,NaN,0.2945574,1.396973E-10,6.829476E-07,-1.099633E-07,7.968445E-09,-2.861022E-08
839.2549,-0.8019488,1.600524E-09,NaN,-0.7856562,-1.322594E-07,NaN,0.2498896,-4.957089E-07,NaN,-0.7782781,2.297926E-05,-0.3396294,9.026273E-08,NaN,NaN,0.2945574,1.396973E-10,6.829476E-07,-1.099633E-07,7.968445E-09,-2.861022E-08
839.2689,-0.8082069,1.601157E-09,NaN,-0.7910153,-1.322594E-07,NaN,0.2516843,-4.957265E-07,NaN,-0.7821607,2.297966E-05,-0.3490598,9.028157E-08,NaN,NaN,0.2976923,1.396973E-10,7.288432E-07,-1.099635E-07,1.117219E-08,-2.622604E-08
839.2859,-0.8144832,1.601789E-09,NaN,-0.7963879,-1.322595E-07,NaN,0.2533101,-4.957437E-07,NaN,-0.7860129,2.298005E-05,-0.3583558,9.029998E-08,NaN,NaN,0.3007658,1.396973E-10,7.77123E-07,-1.099637E-07,1.117219E-08,-2.861022E-08
839.2988,-0.8144832,1.601789E-09,NaN,-0.7963879,-1.322595E-07,NaN,0.2533101,-4.957437E-07,NaN,-0.7860129,2.298005E-05,-0.3583558,9.029998E-08,NaN,NaN,0.3007658,1.396973E-10,7.77123E-07,-1.099637E-07,1.117219E-08,-2.861022E-08
839.3131,-0.8209844,1.602422E-09,NaN,-0.8019427,-1.322596E-07,NaN,0.2551267,-4.957633E-07,NaN,-0.7900909,2.298045E-05,-0.3680192,9.032081E-08,NaN,NaN,0.3040603,1.396973E-10,8.176542E-07,-1.09964E-07,9.682077E-09,-2.622604E-08
839.3282,-0.8275786,1.603054E-09,NaN,-0.8075727,-1.322596E-07,NaN,0.2568808,-4.957824E-07,NaN,-0.7941485,2.298084E-05,-0.377733,9.034117E-08,NaN,NaN,0.3072904,1.396973E-10,8.65636E-07,-1.099642E-07,7.893938E-09,-2.861022E-08
839.3441,-0.8341928,1.603687E-09,NaN,-0.8132175,-1.322597E-07,NaN,0.2584498,-4.95801E-07,NaN,-0.7981775,2.298124E-05,-0.3873001,9.036108E-08,NaN,NaN,0.3104572,1.396973E-10,9.142137E-07,-1.099644E-07,7.446903E-09,-2.622604E-08
839.3588,-0.8341928,1.603687E-09,NaN,-0.8132175,-1.322597E-07,NaN,0.2584498,-4.95801E-07,NaN,-0.7981775,2.298124E-05,-0.3873001,9.036108E-08,NaN,NaN,0.3104572,1.396973E-10,9.142137E-07,-1.099644E-07,7.446903E-09,-2.622604E-08
839.3716,-0.8407866,1.60432E-09,NaN,-0.8188436,-1.322597E-07,NaN,0.2598286,-4.958193E-07,NaN,-0.8021703,2.298164E-05,-0.3966578,9.038055E-08,NaN,NaN,0.313562,1.396973E-10,9.586192E-07,-1.099646E-07,5.956787E-09,-2.861022E-08
839.3876,-0.8475848,1.604953E-09,NaN,-0.8246331,-1.322598E-07,NaN,0.2614012,-4.958371E-07,NaN,-0.8063829,2.298203E-05,-0.4063534,9.039958E-08,NaN,NaN,0.3168869,1.396973E-10,9.955742E-07,-1.099649E-07,2.380508E-09,-2.622604E-08
839.4017,-0.854462,1.605586E-09,NaN,-0.8304848,-1.322598E-07,NaN,0.2629333,-4.958545E-07,NaN,-0.8105711,2.298243E-05,-0.4160974,9.041818E-08,NaN,NaN,0.3201469,1.396973E-10,1.04296E-06,-1.099651E-07,4.466671E-09,-2.861022E-08
839.4166,-0.854462,1.605586E-09,NaN,-0.8304848,-1.322598E-07,NaN,0.2629333,-4.958545E-07,NaN,-0.8105711,2.298243E-05,-0.4160974,9.041818E-08,NaN,NaN,0.3201469,1.396973E-10,1.04296E-06,-1.099651E-07,4.466671E-09,-2.861022E-08
839.4302,-0.861349,1.606219E-09,NaN,-0.8363428,-1.322599E-07,NaN,0.2642991,-4.958714E-07,NaN,-0.814727,2.298283E-05,-0.425698,9.043637E-08,NaN,NaN,0.3233432,1.396973E-10,1.087067E-06,-1.099653E-07,8.937019E-09,-2.622604E-08
839.4457,-0.8682084,1.606852E-09,NaN,-0.8421763,-1.3226E-07,NaN,0.2654894,-4.958879E-07,NaN,-0.8188436,2.298322E-05,-0.4350923,9.045414E-08,NaN,NaN,0.3264767,1.396973E-10,1.130281E-06,-1.099655E-07,1.161923E-08,-2.861022E-08
839.4602,-0.8752696,1.607485E-09,NaN,-0.8481687,-1.3226E-07,NaN,0.2668707,-4.959041E-07,NaN,-0.8231776,2.298362E-05,-0.4448189,9.047151E-08,NaN,NaN,0.3298298,1.396973E-10,1.167534E-06,-1.099658E-07,1.25133E-08,-2.622604E-08
839.4749,-0.8752696,1.607485E-09,NaN,-0.8481687,-1.3226E-07,NaN,0.2668707,-4.959041E-07,NaN,-0.8231776,2.298362E-05,-0.4448189,9.047151E-08,NaN,NaN,0.3298298,1.396973E-10,1.167534E-06,-1.099658E-07,1.25133E-08,-2.622604E-08
839.489,-0.8824052,1.608118E-09,NaN,-0.8542192,-1.322601E-07,NaN,0.2682185,-4.959227E-07,NaN,-0.8274867,2.298402E-05,-0.4545949,9.049131E-08,NaN,NaN,0.3331175,1.396973E-10,1.212237E-06,-1.09966E-07,1.25133E-08,-2.861022E-08
839.5041,-0.8895462,1.608752E-09,NaN,-0.8602722,-1.322601E-07,NaN,0.2694065,-4.959408E-07,NaN,-0.8317625,2.298441E-05,-0.4642275,9.051067E-08,NaN,NaN,0.3363408,1.396973E-10,1.253364E-06,-1.099662E-07,1.072516E-08,-2.622604E-08
839.519,-0.8895462,1.608752E-09,NaN,-0.8602722,-1.322601E-07,NaN,0.2694065,-4.959408E-07,NaN,-0.8317625,2.298441E-05,-0.4642275,9.051067E-08,NaN,NaN,0.3363408,1.396973E-10,1.253364E-06,-1.099662E-07,1.072516E-08,-2.622604E-08
839.5331,-0.896907,1.609385E-09,NaN,-0.8664978,-1.322602E-07,NaN,0.2707588,-4.959585E-07,NaN,-0.8362603,2.298481E-05,-0.4741973,9.052959E-08,NaN,NaN,0.3397819,1.396973E-10,1.290319E-06,-1.099664E-07,9.235043E-09,-2.861022E-08
839.5483,-0.9043489,1.610019E-09,NaN,-0.8727868,-1.322602E-07,NaN,0.2720566,-4.959758E-07,NaN,-0.8407377,2.298521E-05,-0.4842089,9.054808E-08,NaN,NaN,0.3431559,1.396973E-10,1.335172E-06,-1.099666E-07,5.062718E-09,-2.622604E-08
839.5629,-0.9117972,1.610652E-09,NaN,-0.8790796,-1.322603E-07,NaN,0.2731799,-4.959926E-07,NaN,-0.8451842,2.29856E-05,-0.4940653,9.056617E-08,NaN,NaN,0.3464638,1.396973E-10,1.376895E-06,-1.099669E-07,8.042949E-09,-2.861022E-08
839.5775,-0.9117972,1.610652E-09,NaN,-0.8790796,-1.322603E-07,NaN,0.2731799,-4.959926E-07,NaN,-0.8451842,2.29856E-05,-0.4940653,9.056617E-08,NaN,NaN,0.3464638,1.396973E-10,1.376895E-06,-1.099669E-07,8.042949E-09,-2.861022E-08
839.5914,-0.9192125,1.611286E-09,NaN,-0.885344,-1.322604E-07,NaN,0.2741248,-4.96009E-07,NaN,-0.8495914,2.2986E-05,-0.503704,9.058385E-08,NaN,NaN,0.3497068,1.396973E-10,1.418618E-06,-1.099671E-07,6.850857E-09,-2.622604E-08
839.6069,-0.9268286,1.61192E-09,NaN,-0.8917633,-1.322604E-07,NaN,0.2752391,-4.960251E-07,NaN,-0.8542144,2.29864E-05,-0.513652,9.060112E-08,NaN,NaN,0.3531672,1.396973E-10,1.454232E-06,-1.099673E-07,2.678532E-09,-2.861022E-08
839.6234,-0.9345123,1.612553E-09,NaN,-0.8982342,-1.322605E-07,NaN,0.2763211,-4.960407E-07,NaN,-0.858814,2.298679E-05,-0.5236402,9.061799E-08,NaN,NaN,0.3565601,1.396973E-10,1.494763E-06,-1.099675E-07,4.466671E-09,-2.622604E-08
839.637,-0.9345123,1.612553E-09,NaN,-0.8982342,-1.322605E-07,NaN,0.2763211,-4.960407E-07,NaN,-0.858814,2.298679E-05,-0.5236402,9.061799E-08,NaN,NaN,0.3565601,1.396973E-10,1.494763E-06,-1.099675E-07,4.466671E-09,-2.622604E-08
839.6508,-0.9421933,1.613187E-09,NaN,-0.9047014,-1.322605E-07,NaN,0.2772478,-4.960559E-07,NaN,-0.8633793,2.298719E-05,-0.5334771,9.063449E-08,NaN,NaN,0.3598865,1.396973E-10,1.539914E-06,-1.099677E-07,8.903924E-10,-2.861022E-08
839.6651,-0.9498346,1.613821E-09,NaN,-0.9111349,-1.322606E-07,NaN,0.2780111,-4.960737E-07,NaN,-0.8679026,2.298759E-05,-0.5431002,9.065343E-08,NaN,NaN,0.3631477,1.396973E-10,1.578657E-06,-1.09968E-07,8.903924E-10,-2.622604E-08
839.6797,-0.9498346,1.613821E-09,NaN,-0.9111349,-1.322606E-07,NaN,0.2780111,-4.960737E-07,NaN,-0.8679026,2.298759E-05,-0.5431002,9.065343E-08,NaN,NaN,0.3631477,1.396973E-10,1.578657E-06,-1.09968E-07,8.903924E-10,-2.622604E-08
839.6935,-0.9576749,1.614455E-09,NaN,-0.9177199,-1.322606E-07,NaN,0.2789418,-4.960909E-07,NaN,-0.8726393,2.298798E-05,-0.5530289,9.067195E-08,NaN,NaN,0.3666258,1.396973E-10,1.611588E-06,-1.099682E-07,3.870625E-09,-2.861022E-08
839.7086,-0.9655787,1.615089E-09,NaN,-0.9243528,-1.322607E-07,NaN,0.279847,-4.961078E-07,NaN,-0.8773529,2.298838E-05,-0.5629985,9.069004E-08,NaN,NaN,0.3700362,1.396973E-10,1.649139E-06,-1.099684E-07,2.943461E-10,-2.622604E-08
839.7231,-0.9734755,1.615724E-09,NaN,-0.9309787,-1.322608E-07,NaN,0.2806037,-4.961243E-07,NaN,-0.8820316,2.298878E-05,-0.5728174,9.070774E-08,NaN,NaN,0.3733797,1.396973E-10,1.690564E-06,-1.099686E-07,-2.08984E-09,-2.861022E-08
839.7376,-0.9734755,1.615724E-09,NaN,-0.9309787,-1.322608E-07,NaN,0.2806037,-4.961243E-07,NaN,-0.8820316,2.298878E-05,-0.5728174,9.070774E-08,NaN,NaN,0.3733797,1.396973E-10,1.690564E-06,-1.099686E-07,-2.08984E-09,-2.861022E-08
839.7516,-0.9815887,1.616358E-09,NaN,-0.9377689,-1.322608E-07,NaN,0.2815018,-4.961403E-07,NaN,-0.8869288,2.298917E-05,-0.5829479,9.072502E-08,NaN,NaN,0.3769386,1.396973E-10,1.72208E-06,-1.099688E-07,-3.877979E-09,-2.622604E-08
839.7685,-0.9897711,1.616992E-09,NaN,-0.944612,-1.322609E-07,NaN,0.2823543,-4.96156E-07,NaN,-0.891808,2.298957E-05,-0.5931115,9.074192E-08,NaN,NaN,0.3804281,1.396973E-10,1.763282E-06,-1.09969E-07,-4.474025E-09,-2.861022E-08
839.7817,-0.9979469,1.617627E-09,NaN,-0.951449,-1.322609E-07,NaN,0.2830447,-4.961713E-07,NaN,-0.8966548,2.298997E-05,-0.6031135,9.075843E-08,NaN,NaN,0.3838492,1.396973E-10,1.804782E-06,-1.099692E-07,-5.070071E-09,-2.622604E-08
839.7961,-0.9979469,1.617627E-09,NaN,-0.951449,-1.322609E-07,NaN,0.2830447,-4.961713E-07,NaN,-0.8966548,2.298997E-05,-0.6031135,9.075843E-08,NaN,NaN,0.3838492,1.396973E-10,1.804782E-06,-1.099692E-07,-5.070071E-09,-2.622604E-08
839.8101,-1.006077,1.618261E-09,NaN,-0.9582493,-1.32261E-07,NaN,0.2835708,-4.961862E-07,NaN,-0.9014599,2.299036E-05,-0.6128917,9.077456E-08,NaN,NaN,0.3872032,1.396973E-10,1.844791E-06,-1.099694E-07,-6.262164E-09,-2.861022E-08
839.8254,-1.014407,1.618896E-09,NaN,-0.9651976,-1.32261E-07,NaN,0.2842451,-4.962008E-07,NaN,-0.9064772,2.299076E-05,-0.6229558,9.079032E-08,NaN,NaN,0.3907724,1.396973E-10,1.874631E-06,-1.099697E-07,-6.262164E-09,-2.622604E-08
839.8401,-1.022793,1.61953E-09,NaN,-0.9721882,-1.322611E-07,NaN,0.2848954,-4.962149E-07,NaN,-0.9114736,2.299115E-05,-0.6330516,9.080572E-08,NaN,NaN,0.3942719,1.396973E-10,1.91166E-06,-1.099699E-07,-8.646349E-09,-2.861022E-08
839.8547,-1.022793,1.61953E-09,NaN,-0.9721882,-1.322611E-07,NaN,0.2848954,-4.962149E-07,NaN,-0.9114736,2.299115E-05,-0.6330516,9.080572E-08,NaN,NaN,0.3942719,1.396973E-10,1.91166E-06,-1.099699E-07,-8.646349E-09,-2.861022E-08
839.8687,-1.031163,1.620165E-09,NaN,-0.9791661,-1.322611E-07,NaN,0.2854028,-4.962316E-07,NaN,-0.9164348,2.299155E-05,-0.6429902,9.082358E-08,NaN,NaN,0.3977028,1.396973E-10,1.952154E-06,-1.099701E-07,-7.454257E-09,-2.622604E-08
839.884,-1.039483,1.6208E-09,NaN,-0.9861029,-1.322612E-07,NaN,0.2857605,-4.962478E-07,NaN,-0.9213514,2.299195E-05,-0.6527098,9.084105E-08,NaN,NaN,0.4010665,1.396973E-10,1.989426E-06,-1.099703E-07,-8.646349E-09,-2.861022E-08
839.8986,-1.039483,1.6208E-09,NaN,-0.9861029,-1.322612E-07,NaN,0.2857605,-4.962478E-07,NaN,-0.9213514,2.299195E-05,-0.6527098,9.084105E-08,NaN,NaN,0.4010665,1.396973E-10,1.989426E-06,-1.099703E-07,-8.646349E-09,-2.861022E-08
839.9124,-1.048,1.621434E-09,NaN,-0.993185,-1.322613E-07,NaN,0.2862648,-4.962637E-07,NaN,-0.9264779,2.299234E-05,-0.6627127,9.085812E-08,NaN,NaN,0.4046452,1.396973E-10,2.017496E-06,-1.099705E-07,-1.103053E-08,-2.622604E-08
839.9296,-1.056571,1.622069E-09,NaN,-1.000306,-1.322613E-07,NaN,0.2867513,-4.962791E-07,NaN,-0.9315845,2.299274E-05,-0.6727481,9.087479E-08,NaN,NaN,0.408154,1.396973E-10,2.052839E-06,-1.099707E-07,-9.838442E-09,-2.861022E-08
839.9432,-1.065121,1.622704E-09,NaN,-1.007412,-1.322614E-07,NaN,0.2871014,-4.962942E-07,NaN,-0.9366553,2.299314E-05,-0.682627,9.089109E-08,NaN,NaN,0.4115941,1.396973E-10,2.087933E-06,-1.099709E-07,-7.454256E-09,-2.622604E-08
839.9568,-1.065121,1.622704E-09,NaN,-1.007412,-1.322614E-07,NaN,0.2871014,-4.962942E-07,NaN,-0.9366553,2.299314E-05,-0.682627,9.089109E-08,NaN,NaN,0.4115941,1.396973E-10,2.087933E-06,-1.099709E-07,-7.454256E-09,-2.622604E-08
839.9708,-1.073887,1.623339E-09,NaN,-1.014675,-1.322614E-07,NaN,0.287573,-4.963089E-07,NaN,-0.9419414,2.299353E-05,-0.692796,9.090702E-08,NaN,NaN,0.4152476,1.396973E-10,2.11713E-06,-1.099711E-07,-7.454256E-09,-2.861022E-08
839.9862,-1.08271,1.623975E-09,NaN,-1.021982,-1.322615E-07,NaN,0.2880071,-4.963232E-07,NaN,-0.9472132,2.299393E-05,-0.7029896,9.092257E-08,NaN,NaN,0.4188299,1.396973E-10,2.155295E-06,-1.099713E-07,-9.838441E-09,-2.622604E-08
840.0004,-1.091513,1.62461E-09,NaN,-1.029274,-1.322615E-07,NaN,0.2882926,-4.963372E-07,NaN,-0.9524517,2.299433E-05,-0.7130164,9.093777E-08,NaN,NaN,0.422342,1.396973E-10,2.191356E-06,-1.099715E-07,-1.222263E-08,-2.861022E-08
840.0151,-1.091513,1.62461E-09,NaN,-1.029274,-1.322615E-07,NaN,0.2882926,-4.963372E-07,NaN,-0.9524517,2.299433E-05,-0.7130164,9.093777E-08,NaN,NaN,0.422342,1.396973E-10,2.191356E-06,-1.099715E-07,-1.222263E-08,-2.861022E-08
840.0289,-1.100258,1.625245E-09,NaN,-1.036523,-1.322616E-07,NaN,0.2884289,-4.963508E-07,NaN,-0.9576458,2.299472E-05,-0.7228161,9.095261E-08,NaN,NaN,0.4257852,1.396973E-10,2.225666E-06,-1.099717E-07,-1.341472E-08,-2.622604E-08
840.0441,-1.109203,1.62588E-09,NaN,-1.043915,-1.322617E-07,NaN,0.2886946,-4.963669E-07,NaN,-0.9630485,2.299512E-05,-0.7328827,9.096994E-08,NaN,NaN,0.4294419,1.396973E-10,2.251259E-06,-1.099719E-07,-9.83844E-09,-2.861022E-08
840.0587,-1.109203,1.62588E-09,NaN,-1.043915,-1.322617E-07,NaN,0.2886946,-4.963669E-07,NaN,-0.9630485,2.299512E-05,-0.7328827,9.096994E-08,NaN,NaN,0.4294419,1.396973E-10,2.251259E-06,-1.099719E-07,-9.83844E-09,-2.861022E-08
840.0726,-1.118193,1.626516E-09,NaN,-1.05134,-1.322617E-07,NaN,0.2889436,-4.963825E-07,NaN,-0.9684342,2.299552E-05,-0.7429727,9.098687E-08,NaN,NaN,0.4330271,1.396973E-10,2.284339E-06,-1.099721E-07,-1.222263E-08,-2.622604E-08
840.088,-1.127156,1.627151E-09,NaN,-1.058745,-1.322618E-07,NaN,0.2890624,-4.963978E-07,NaN,-0.9737836,2.299591E-05,-0.7529007,9.100342E-08,NaN,NaN,0.4365421,1.396973E-10,2.319655E-06,-1.099723E-07,-1.579891E-08,-2.861022E-08
840.1025,-1.136056,1.627787E-09,NaN,-1.066103,-1.322618E-07,NaN,0.289046,-4.964128E-07,NaN,-0.9790857,2.299631E-05,-0.7626071,9.101959E-08,NaN,NaN,0.4399882,1.396973E-10,2.355641E-06,-1.099725E-07,-1.460681E-08,-2.622604E-08
840.1172,-1.136056,1.627787E-09,NaN,-1.066103,-1.322618E-07,NaN,0.289046,-4.964128E-07,NaN,-0.9790857,2.299631E-05,-0.7626071,9.101959E-08,NaN,NaN,0.4399882,1.396973E-10,2.355641E-06,-1.099725E-07,-1.460681E-08,-2.622604E-08
840.1311,-1.145155,1.628422E-09,NaN,-1.073602,-1.322619E-07,NaN,0.2891575,-4.964273E-07,NaN,-0.9845942,2.299671E-05,-0.7725791,9.103539E-08,NaN,NaN,0.4436477,1.396973E-10,2.380526E-06,-1.099727E-07,-1.222263E-08,-2.861022E-08
840.1462,-1.154296,1.629058E-09,NaN,-1.081133,-1.322619E-07,NaN,0.2892576,-4.964415E-07,NaN,-0.990087,2.29971E-05,-0.782575,9.105082E-08,NaN,NaN,0.4472357,1.396973E-10,2.413681E-06,-1.099729E-07,-1.579891E-08,-2.622604E-08
840.1609,-1.163406,1.629694E-09,NaN,-1.088641,-1.32262E-07,NaN,0.2892337,-4.964554E-07,NaN,-0.9955429,2.29975E-05,-0.7924101,9.10659E-08,NaN,NaN,0.4507535,1.396973E-10,2.446837E-06,-1.099731E-07,-1.341472E-08,-2.861022E-08
840.1754,-1.163406,1.629694E-09,NaN,-1.088641,-1.32262E-07,NaN,0.2892337,-4.964554E-07,NaN,-0.9955429,2.29975E-05,-0.7924101,9.10659E-08,NaN,NaN,0.4507535,1.396973E-10,2.446837E-06,-1.099731E-07,-1.341472E-08,-2.861022E-08
840.1895,-1.172729,1.63033E-09,NaN,-1.096301,-1.322621E-07,NaN,0.2893131,-4.964689E-07,NaN,-1.001211,2.29979E-05,-0.8025178,9.108063E-08,NaN,NaN,0.4544832,1.396973E-10,2.471945E-06,-1.099733E-07,-1.103053E-08,-2.622604E-08
840.2048,-1.182098,1.630965E-09,NaN,-1.103997,-1.322621E-07,NaN,0.2893622,-4.96482E-07,NaN,-1.006869,2.299829E-05,-0.8126414,9.109501E-08,NaN,NaN,0.4581401,1.396973E-10,2.50279E-06,-1.099735E-07,-8.646349E-09,-2.861022E-08
840.2193,-1.182098,1.630965E-09,NaN,-1.103997,-1.322621E-07,NaN,0.2893622,-4.96482E-07,NaN,-1.006869,2.299829E-05,-0.8126414,9.109501E-08,NaN,NaN,0.4581401,1.396973E-10,2.50279E-06,-1.099735E-07,-8.646349E-09,-2.861022E-08
840.2352,-1.191434,1.631601E-09,NaN,-1.11167,-1.322622E-07,NaN,0.2892763,-4.964948E-07,NaN,-1.012493,2.299869E-05,-0.8225949,9.110906E-08,NaN,NaN,0.4617254,1.396973E-10,2.533636E-06,-1.099737E-07,-1.103053E-08,-2.622604E-08
840.2507,-1.200703,1.632237E-09,NaN,-1.119295,-1.322622E-07,NaN,0.289057,-4.965101E-07,NaN,-1.018068,2.299909E-05,-0.8323209,9.11256E-08,NaN,NaN,0.4652404,1.396973E-10,2.567015E-06,-1.099739E-07,-1.103053E-08,-2.861022E-08
840.263,-1.21017,1.632874E-09,NaN,-1.127059,-1.322623E-07,NaN,0.2889498,-4.96525E-07,NaN,-1.023849,2.299948E-05,-0.8422989,9.114177E-08,NaN,NaN,0.4689674,1.396973E-10,2.588621E-06,-1.099741E-07,-1.103053E-08,-2.622604E-08
840.2775,-1.21017,1.632874E-09,NaN,-1.127059,-1.322623E-07,NaN,0.2889498,-4.96525E-07,NaN,-1.023849,2.299948E-05,-0.8422989,9.114177E-08,NaN,NaN,0.4689674,1.396973E-10,2.588621E-06,-1.099741E-07,-1.103053E-08,-2.622604E-08
840.2914,-1.219673,1.63351E-09,NaN,-1.134851,-1.322623E-07,NaN,0.2888319,-4.965396E-07,NaN,-1.029617,2.299988E-05,-0.8522921,9.115757E-08,NaN,NaN,0.4726217,1.396973E-10,2.619318E-06,-1.099743E-07,-1.460681E-08,-2.861022E-08
840.3066,-1.229137,1.634146E-09,NaN,-1.142615,-1.322624E-07,NaN,0.2885963,-4.965538E-07,NaN,-1.035347,2.300028E-05,-0.8621204,9.117301E-08,NaN,NaN,0.4762044,1.30384E-10,2.653292E-06,-1.099745E-07,-1.579891E-08,-2.622604E-08
840.3212,-1.238528,1.634782E-09,NaN,-1.150329,-1.322625E-07,NaN,0.2882406,-4.965677E-07,NaN,-1.041026,2.300068E-05,-0.8717274,9.118809E-08,NaN,NaN,0.4797168,1.30384E-10,2.683691E-06,-1.099747E-07,-1.937519E-08,-2.861022E-08
840.3357,-1.238528,1.634782E-09,NaN,-1.150329,-1.322625E-07,NaN,0.2882406,-4.965677E-07,NaN,-1.041026,2.300068E-05,-0.8717274,9.118809E-08,NaN,NaN,0.4797168,1.30384E-10,2.683691E-06,-1.099747E-07,-1.937519E-08,-2.861022E-08
840.3495,-1.248119,1.635418E-09,NaN,-1.15818,-1.322625E-07,NaN,0.2879951,-4.965812E-07,NaN,-1.046909,2.300108E-05,-0.8815861,9.120282E-08,NaN,NaN,0.4834414,1.30384E-10,2.703658E-06,-1.099749E-07,-1.937519E-08,-2.622604E-08
840.3646,-1.257743,1.636055E-09,NaN,-1.166056,-1.322626E-07,NaN,0.2877432,-4.965943E-07,NaN,-1.052779,2.300148E-05,-0.8914602,9.121721E-08,NaN,NaN,0.4870933,1.257274E-10,2.734504E-06,-1.099751E-07,-1.818309E-08,-2.861022E-08
840.3791,-1.257743,1.636055E-09,NaN,-1.166056,-1.322626E-07,NaN,0.2877432,-4.965943E-07,NaN,-1.052779,2.300148E-05,-0.8914602,9.121721E-08,NaN,NaN,0.4870933,1.257274E-10,2.734504E-06,-1.099751E-07,-1.818309E-08,-2.861022E-08
840.3929,-1.267323,1.636691E-09,NaN,-1.173905,-1.322626E-07,NaN,0.2873799,-4.966071E-07,NaN,-1.058612,2.300188E-05,-0.9011714,9.123126E-08,NaN,NaN,0.4906736,1.210708E-10,2.764604E-06,-1.099753E-07,-2.175937E-08,-2.622604E-08
840.4087,-1.266697,1.637328E-09,NaN,-1.17426,-1.322627E-07,NaN,0.2799819,-4.966196E-07,NaN,-1.054539,2.300228E-05,-0.8931202,9.124498E-08,NaN,NaN,0.4837838,1.164142E-10,3.126553E-06,-1.099755E-07,-2.175937E-08,-2.861022E-08
840.4228,-1.26051,1.637965E-09,NaN,-1.170549,-1.322627E-07,NaN,0.2686277,-4.966317E-07,NaN,-1.048624,2.300268E-05,-0.8753642,9.125837E-08,NaN,NaN,0.4770205,1.117576E-10,3.109864E-06,-1.099757E-07,-2.652774E-08,-2.622604E-08
840.4376,-1.26051,1.637965E-09,NaN,-1.170549,-1.322627E-07,NaN,0.2686277,-4.966317E-07,NaN,-1.048624,2.300268E-05,-0.8753642,9.125837E-08,NaN,NaN,0.4770205,1.117576E-10,3.109864E-06,-1.099757E-07,-2.652774E-08,-2.622604E-08
840.4515,-1.251426,1.638602E-09,NaN,-1.164512,-1.322628E-07,NaN,0.2579371,-4.966464E-07,NaN,-1.041787,2.300308E-05,-0.854748,9.127427E-08,NaN,NaN,0.4703864,1.07101E-10,2.983502E-06,-1.099758E-07,-2.175937E-08,-2.861022E-08
840.4666,-1.24108,1.639238E-09,NaN,-1.157287,-1.322629E-07,NaN,0.2490371,-4.966607E-07,NaN,-1.034365,2.300348E-05,-0.8340706,9.128981E-08,NaN,NaN,0.4638811,1.024443E-10,2.845964E-06,-1.09976E-07,-2.175937E-08,-2.622604E-08
840.4813,-1.230575,1.639875E-09,NaN,-1.149671,-1.322629E-07,NaN,0.2422835,-4.966747E-07,NaN,-1.026621,2.300388E-05,-0.8145987,9.130499E-08,NaN,NaN,0.457323,9.778773E-11,2.723924E-06,-1.099762E-07,-2.175937E-08,-2.861022E-08
840.4957,-1.230575,1.639875E-09,NaN,-1.149671,-1.322629E-07,NaN,0.2422835,-4.966747E-07,NaN,-1.026621,2.300388E-05,-0.8145987,9.130499E-08,NaN,NaN,0.457323,9.778773E-11,2.723924E-06,-1.099762E-07,-2.175937E-08,-2.861022E-08
840.5099,-1.220095,1.640512E-09,NaN,-1.141881,-1.32263E-07,NaN,0.2366903,-4.966882E-07,NaN,-1.018787,2.300428E-05,-0.796115,9.131981E-08,NaN,NaN,0.4508938,9.313111E-11,2.62796E-06,-1.099764E-07,-2.175937E-08,-2.622604E-08
840.5251,-1.209707,1.641149E-09,NaN,-1.134025,-1.32263E-07,NaN,0.2317145,-4.966336E-07,NaN,-1.010945,2.300468E-05,-0.7783574,9.126639E-08,NaN,NaN,0.4445908,9.313111E-11,2.552123E-06,-1.099766E-07,-2.175937E-08,-2.861022E-08
840.5396,-1.209707,1.641149E-09,NaN,-1.134025,-1.32263E-07,NaN,0.2317145,-4.966336E-07,NaN,-1.010945,2.300468E-05,-0.7783574,9.126639E-08,NaN,NaN,0.4445908,9.313111E-11,2.552123E-06,-1.099766E-07,-2.175937E-08,-2.861022E-08
840.5556,-1.199729,1.641785E-09,NaN,-1.126333,-1.322631E-07,NaN,0.2276445,-4.965799E-07,NaN,-1.003188,2.300507E-05,-0.7615755,9.121398E-08,NaN,NaN,0.4382313,9.313111E-11,2.480504E-06,-1.099768E-07,-1.937519E-08,-2.622604E-08
840.5705,-1.189998,1.642422E-09,NaN,-1.11874,-1.322631E-07,NaN,0.2238607,-4.965273E-07,NaN,-0.9956253,2.300546E-05,-0.7453579,9.116256E-08,NaN,NaN,0.4319968,9.778773E-11,2.420676E-06,-1.09977E-07,-3.129612E-08,-2.861022E-08
840.5836,-1.180438,1.643059E-09,NaN,-1.111221,-1.322632E-07,NaN,0.2201729,-4.964756E-07,NaN,-0.9882314,2.300585E-05,-0.7295167,9.111211E-08,NaN,NaN,0.4258845,1.024443E-10,2.362785E-06,-1.099772E-07,-3.36803E-08,-2.622604E-08
840.598,-1.180438,1.643059E-09,NaN,-1.111221,-1.322632E-07,NaN,0.2201729,-4.964756E-07,NaN,-0.9882314,2.300585E-05,-0.7295167,9.111211E-08,NaN,NaN,0.4258845,1.024443E-10,2.362785E-06,-1.099772E-07,-3.36803E-08,-2.622604E-08
840.6118,-1.171013,1.643695E-09,NaN,-1.103764,-1.322633E-07,NaN,0.2165223,-4.964277E-07,NaN,-0.9809929,2.300625E-05,-0.713967,9.106544E-08,NaN,NaN,0.4198921,1.07101E-10,2.306235E-06,-1.099773E-07,-3.606449E-08,-2.861022E-08
840.6271,-1.162001,1.644332E-09,NaN,-1.096538,-1.322633E-07,NaN,0.2134869,-4.963807E-07,NaN,-0.9739143,2.300664E-05,-0.6991342,9.101966E-08,NaN,NaN,0.413837,1.117576E-10,2.241639E-06,-1.099775E-07,-3.606449E-08,-2.622604E-08
840.6415,-1.15323,1.644969E-09,NaN,-1.08945,-1.322634E-07,NaN,0.2106057,-4.962753E-07,NaN,-0.9670724,2.300703E-05,-0.6847131,9.091548E-08,NaN,NaN,0.4079008,1.117576E-10,2.183971E-06,-1.099777E-07,-3.606449E-08,-2.861022E-08
840.656,-1.15323,1.644969E-09,NaN,-1.08945,-1.322634E-07,NaN,0.2106057,-4.962753E-07,NaN,-0.9670724,2.300703E-05,-0.6847131,9.091548E-08,NaN,NaN,0.4079008,1.117576E-10,2.183971E-06,-1.099777E-07,-3.606449E-08,-2.861022E-08
840.6699,-1.144623,1.645605E-09,NaN,-1.082459,-1.322634E-07,NaN,0.20776,-4.961663E-07,NaN,-0.9604151,2.300743E-05,-0.6705792,9.080767E-08,NaN,NaN,0.402081,1.117576E-10,2.127645E-06,-1.099779E-07,-3.36803E-08,-2.622604E-08
840.6852,-1.136141,1.646242E-09,NaN,-1.075542,-1.322635E-07,NaN,0.2049238,-4.960593E-07,NaN,-0.9539137,2.300783E-05,-0.6566821,9.070193E-08,NaN,NaN,0.3963753,1.117576E-10,2.071765E-06,-1.099782E-07,-3.36803E-08,-2.861022E-08
840.6998,-1.136141,1.646242E-09,NaN,-1.075542,-1.322635E-07,NaN,0.2049238,-4.960593E-07,NaN,-0.9539137,2.300783E-05,-0.6566821,9.070193E-08,NaN,NaN,0.3963753,1.117576E-10,2.071765E-06,-1.099782E-07,-3.36803E-08,-2.861022E-08
840.7137,-1.128059,1.646879E-09,NaN,-1.068864,-1.322635E-07,NaN,0.2026899,-4.960221E-07,NaN,-0.9475535,2.300823E-05,-0.6434743,9.066597E-08,NaN,NaN,0.3906012,1.07101E-10,2.010671E-06,-1.099784E-07,-4.083286E-08,-2.622604E-08
840.729,-1.120213,1.647517E-09,NaN,-1.062331,-1.322636E-07,NaN,0.2006072,-4.959855E-07,NaN,-0.9414183,2.300863E-05,-0.6306537,9.063066E-08,NaN,NaN,0.3849406,1.024443E-10,1.957176E-06,-1.099786E-07,-3.844868E-08,-2.861022E-08
840.7449,-1.112524,1.648155E-09,NaN,-1.055899,-1.322636E-07,NaN,0.1985547,-4.959496E-07,NaN,-0.935456,2.300903E-05,-0.6180967,9.0596E-08,NaN,NaN,0.379391,9.778773E-11,1.905021E-06,-1.099788E-07,-3.606449E-08,-2.622604E-08
840.7584,-1.112524,1.648155E-09,NaN,-1.055899,-1.322636E-07,NaN,0.1985547,-4.959496E-07,NaN,-0.935456,2.300903E-05,-0.6180967,9.0596E-08,NaN,NaN,0.379391,9.778773E-11,1.905021E-06,-1.099788E-07,-3.606449E-08,-2.622604E-08
840.7723,-1.105243,1.648793E-09,NaN,-1.049716,-1.322637E-07,NaN,0.1970948,-4.959143E-07,NaN,-0.9296324,2.300943E-05,-0.6062291,9.056195E-08,NaN,NaN,0.3737701,9.313111E-11,1.846609E-06,-1.099791E-07,-3.129612E-08,-2.861022E-08
840.7878,-1.098201,1.64943E-09,NaN,-1.043688,-1.322638E-07,NaN,0.1957726,-4.95812E-07,NaN,-0.9240323,2.300982E-05,-0.5947332,9.046085E-08,NaN,NaN,0.3682596,9.313111E-11,1.793561E-06,-1.099793E-07,-3.010403E-08,-2.622604E-08
840.8024,-1.091317,1.650067E-09,NaN,-1.037763,-1.322638E-07,NaN,0.1944653,-4.957116E-07,NaN,-0.9186006,2.301022E-05,-0.5834795,9.03617E-08,NaN,NaN,0.3628572,9.313111E-11,1.739619E-06,-1.099795E-07,-2.891193E-08,-2.861022E-08
840.817,-1.091317,1.650067E-09,NaN,-1.037763,-1.322638E-07,NaN,0.1944653,-4.957116E-07,NaN,-0.9186006,2.301022E-05,-0.5834795,9.03617E-08,NaN,NaN,0.3628572,9.313111E-11,1.739619E-06,-1.099795E-07,-2.891193E-08,-2.861022E-08
840.8307,-1.084549,1.650704E-09,NaN,-1.031919,-1.322639E-07,NaN,0.1931463,-4.956132E-07,NaN,-0.913306,2.301062E-05,-0.5724177,9.026446E-08,NaN,NaN,0.3575607,9.313111E-11,1.688359E-06,-1.099797E-07,-2.652775E-08,-2.622604E-08
840.8484,-1.078163,1.651342E-09,NaN,-1.026313,-1.322639E-07,NaN,0.1924111,-4.955166E-07,NaN,-0.9081166,2.301101E-05,-0.5620152,9.01691E-08,NaN,NaN,0.3521878,9.778773E-11,1.629946E-06,-1.0998E-07,-2.771984E-08,-2.861022E-08
840.8617,-1.072003,1.651979E-09,NaN,-1.020858,-1.32264E-07,NaN,0.1918165,-4.954247E-07,NaN,-0.9031313,2.30114E-05,-0.5519634,9.007839E-08,NaN,NaN,0.3469206,1.024443E-10,1.580772E-06,-1.099802E-07,-2.414356E-08,-2.622604E-08
840.8764,-1.072003,1.651979E-09,NaN,-1.020858,-1.32264E-07,NaN,0.1918165,-4.954247E-07,NaN,-0.9031313,2.30114E-05,-0.5519634,9.007839E-08,NaN,NaN,0.3469206,1.024443E-10,1.580772E-06,-1.099802E-07,-2.414356E-08,-2.622604E-08
840.8893,-1.065992,1.652617E-09,NaN,-1.015504,-1.32264E-07,NaN,0.1912365,-4.953345E-07,NaN,-0.898299,2.301179E-05,-0.5421345,8.998942E-08,NaN,NaN,0.3417567,1.024443E-10,1.53279E-06,-1.099804E-07,-2.533566E-08,-2.861022E-08
840.9045,-1.06009,1.653254E-09,NaN,-1.010229,-1.322641E-07,NaN,0.1906408,-4.95246E-07,NaN,-0.8935909,2.301219E-05,-0.5324781,8.990217E-08,NaN,NaN,0.336694,1.024443E-10,1.483915E-06,-1.099806E-07,-2.533566E-08,-2.622604E-08
840.9193,-1.06009,1.653254E-09,NaN,-1.010229,-1.322641E-07,NaN,0.1906408,-4.95246E-07,NaN,-0.8935909,2.301219E-05,-0.5324781,8.990217E-08,NaN,NaN,0.336694,1.024443E-10,1.483915E-06,-1.099806E-07,-2.533566E-08,-2.622604E-08
840.933,-1.054558,1.653892E-09,NaN,-1.005191,-1.322641E-07,NaN,0.1906233,-4.951592E-07,NaN,-0.8889698,2.301259E-05,-0.5234683,8.981658E-08,NaN,NaN,0.3315505,1.024443E-10,1.429972E-06,-1.099808E-07,-2.295147E-08,-2.861022E-08
840.9482,-1.049247,1.654529E-09,NaN,-1.000303,-1.322642E-07,NaN,0.1907431,-4.95074E-07,NaN,-0.8845417,2.301298E-05,-0.5147917,8.973264E-08,NaN,NaN,0.326508,1.024443E-10,1.381991E-06,-1.09981E-07,-2.295147E-08,-2.622604E-08
840.9626,-1.04408,1.655167E-09,NaN,-0.9955171,-1.322643E-07,NaN,0.1908701,-4.949904E-07,NaN,-0.880257,2.301338E-05,-0.5063177,8.965031E-08,NaN,NaN,0.3215646,1.024443E-10,1.337585E-06,-1.099812E-07,-2.175938E-08,-2.861022E-08
840.9773,-1.04408,1.655167E-09,NaN,-0.9955171,-1.322643E-07,NaN,0.1908701,-4.949904E-07,NaN,-0.880257,2.301338E-05,-0.5063177,8.965031E-08,NaN,NaN,0.3215646,1.024443E-10,1.337585E-06,-1.099812E-07,-2.175938E-08,-2.861022E-08
840.9914,-1.039295,1.655804E-09,NaN,-0.990981,-1.322643E-07,NaN,0.1915653,-4.949085E-07,NaN,-0.8760639,2.301377E-05,-0.4984902,8.956956E-08,NaN,NaN,0.3165379,1.07101E-10,1.289305E-06,-1.099815E-07,-1.81831E-08,-2.622604E-08
841.0067,-1.034737,1.656442E-09,NaN,-0.9866015,-1.322644E-07,NaN,0.1923816,-4.94828E-07,NaN,-0.8720659,2.301417E-05,-0.4909796,8.949036E-08,NaN,NaN,0.3116101,1.07101E-10,1.245794E-06,-1.099817E-07,-1.460682E-08,-2.861022E-08
841.0214,-1.030323,1.65708E-09,NaN,-0.9823278,-1.322644E-07,NaN,0.1931876,-4.947491E-07,NaN,-0.8682101,2.301456E-05,-0.4836501,8.941267E-08,NaN,NaN,0.306779,1.117576E-10,1.201687E-06,-1.099819E-07,-1.222263E-08,-2.622604E-08
841.0361,-1.030323,1.65708E-09,NaN,-0.9823278,-1.322644E-07,NaN,0.1931876,-4.947491E-07,NaN,-0.8682101,2.301456E-05,-0.4836501,8.941267E-08,NaN,NaN,0.306779,1.117576E-10,1.201687E-06,-1.099819E-07,-1.222263E-08,-2.622604E-08
841.0505,-1.026008,1.657718E-09,NaN,-0.978132,-1.322645E-07,NaN,0.193953,-4.946717E-07,NaN,-0.8644661,2.301495E-05,-0.4764501,8.933647E-08,NaN,NaN,0.3020426,1.164142E-10,1.160857E-06,-1.099821E-07,-1.103054E-08,-2.861022E-08
841.0656,-1.022049,1.658355E-09,NaN,-0.9741713,-1.322645E-07,NaN,0.1952756,-4.945985E-07,NaN,-0.8607877,2.301534E-05,-0.4698659,8.926442E-08,NaN,NaN,0.297219,1.210708E-10,1.114068E-06,-1.099823E-07,-1.222263E-08,-2.622604E-08
841.08,-1.0183,1.658993E-09,NaN,-0.9703594,-1.322646E-07,NaN,0.1967198,-4.945265E-07,NaN,-0.8572881,2.301574E-05,-0.4635783,8.919374E-08,NaN,NaN,0.2924903,1.210708E-10,1.076219E-06,-1.099825E-07,-1.341473E-08,-2.861022E-08
841.0946,-1.0183,1.658993E-09,NaN,-0.9703594,-1.322646E-07,NaN,0.1967198,-4.945265E-07,NaN,-0.8572881,2.301574E-05,-0.4635783,8.919374E-08,NaN,NaN,0.2924903,1.210708E-10,1.076219E-06,-1.099825E-07,-1.341473E-08,-2.861022E-08
841.1086,-1.014684,1.65963E-09,NaN,-0.9666483,-1.322647E-07,NaN,0.1981524,-4.94456E-07,NaN,-0.8539182,2.301612E-05,-0.4574538,8.912441E-08,NaN,NaN,0.2878543,1.30384E-10,1.041648E-06,-1.099827E-07,-1.103054E-08,-2.622604E-08
841.1239,-1.01116,1.660268E-09,NaN,-0.963011,-1.322647E-07,NaN,0.1995403,-4.943868E-07,NaN,-0.8506496,2.301652E-05,-0.4514415,8.905641E-08,NaN,NaN,0.2833093,1.30384E-10,1.005885E-06,-1.099829E-07,-1.341473E-08,-2.861022E-08
841.1385,-1.01116,1.660268E-09,NaN,-0.963011,-1.322647E-07,NaN,0.1995403,-4.943868E-07,NaN,-0.8506496,2.301652E-05,-0.4514415,8.905641E-08,NaN,NaN,0.2833093,1.30384E-10,1.005885E-06,-1.099829E-07,-1.341473E-08,-2.861022E-08
841.1544,-1.00798,1.660906E-09,NaN,-0.9596047,-1.322648E-07,NaN,0.2014807,-4.943188E-07,NaN,-0.847435,2.301692E-05,-0.4460335,8.898971E-08,NaN,NaN,0.2786733,1.30384E-10,9.63268E-07,-1.099831E-07,-1.579891E-08,-2.622604E-08
841.1688,-1.005004,1.661543E-09,NaN,-0.9563451,-1.322648E-07,NaN,0.2035378,-4.942522E-07,NaN,-0.844391,2.30173E-05,-0.4409058,8.892428E-08,NaN,NaN,0.2741285,1.396973E-10,9.286973E-07,-1.099833E-07,-1.579891E-08,-2.861022E-08
841.1824,-1.002156,1.662181E-09,NaN,-0.9531842,-1.322649E-07,NaN,0.2055755,-4.941867E-07,NaN,-0.8414695,2.301769E-05,-0.4359226,8.88601E-08,NaN,NaN,0.269673,1.490105E-10,8.977029E-07,-1.099836E-07,-1.460682E-08,-2.622604E-08
841.1969,-1.002156,1.662181E-09,NaN,-0.9531842,-1.322649E-07,NaN,0.2055755,-4.941867E-07,NaN,-0.8414695,2.301769E-05,-0.4359226,8.88601E-08,NaN,NaN,0.269673,1.490105E-10,8.977029E-07,-1.099836E-07,-1.460682E-08,-2.622604E-08
841.2109,-0.9996666,1.662818E-09,NaN,-0.9502671,-1.322649E-07,NaN,0.2081571,-4.941226E-07,NaN,-0.8386111,2.301808E-05,-0.4315446,8.879714E-08,NaN,NaN,0.2651247,1.536671E-10,8.61046E-07,-1.099838E-07,-1.460682E-08,-2.861022E-08
841.2273,-0.9973887,1.663456E-09,NaN,-0.9475039,-1.32265E-07,NaN,0.210838,-4.940596E-07,NaN,-0.8359277,2.301847E-05,-0.427431,8.873538E-08,NaN,NaN,0.260666,1.583237E-10,8.321378E-07,-1.09984E-07,-1.579891E-08,-2.622604E-08
841.2405,-0.9952394,1.664094E-09,NaN,-0.9448424,-1.322651E-07,NaN,0.2134813,-4.939978E-07,NaN,-0.8333677,2.301886E-05,-0.423441,8.86748E-08,NaN,NaN,0.2562947,1.629803E-10,8.011434E-07,-1.099842E-07,-1.579891E-08,-2.861022E-08
841.2552,-0.9952394,1.664094E-09,NaN,-0.9448424,-1.322651E-07,NaN,0.2134813,-4.939978E-07,NaN,-0.8333677,2.301886E-05,-0.423441,8.86748E-08,NaN,NaN,0.2562947,1.629803E-10,8.011434E-07,-1.099842E-07,-1.579891E-08,-2.861022E-08
841.2692,-0.993173,1.664731E-09,NaN,-0.9422525,-1.322651E-07,NaN,0.2160541,-4.9394E-07,NaN,-0.830901,2.301925E-05,-0.4195229,8.861819E-08,NaN,NaN,0.2520092,1.676369E-10,7.743213E-07,-1.099844E-07,-1.460682E-08,-2.622604E-08
841.2847,-0.9914372,1.665369E-09,NaN,-0.939889,-1.322652E-07,NaN,0.2191596,-4.938832E-07,NaN,-0.8284768,2.301964E-05,-0.4161812,8.856266E-08,NaN,NaN,0.2476277,1.722935E-10,7.44519E-07,-1.099846E-07,-1.6991E-08,-2.861022E-08
841.2991,-0.9914372,1.665369E-09,NaN,-0.939889,-1.322652E-07,NaN,0.2191596,-4.938832E-07,NaN,-0.8284768,2.301964E-05,-0.4161812,8.856266E-08,NaN,NaN,0.2476277,1.722935E-10,7.44519E-07,-1.099846E-07,-1.6991E-08,-2.861022E-08
841.313,-0.989895,1.666007E-09,NaN,-0.9376687,-1.322652E-07,NaN,0.2223638,-4.938275E-07,NaN,-0.8262136,2.302003E-05,-0.4130852,8.850827E-08,NaN,NaN,0.2433324,1.722935E-10,7.194851E-07,-1.099848E-07,-1.579891E-08,-2.622604E-08
841.3286,-0.9884695,1.666645E-09,NaN,-0.9355431,-1.322653E-07,NaN,0.2255288,-4.93773E-07,NaN,-0.8240629,2.302043E-05,-0.4100971,8.845491E-08,NaN,NaN,0.2391215,1.722935E-10,6.947491E-07,-1.09985E-07,-1.81831E-08,-2.861022E-08
841.343,-0.9871171,1.667282E-09,NaN,-0.933483,-1.322653E-07,NaN,0.2286195,-4.937194E-07,NaN,-0.821997,2.302082E-05,-0.4071659,8.840257E-08,NaN,NaN,0.2349931,1.722935E-10,6.726954E-07,-1.099852E-07,-1.6991E-08,-2.622604E-08
841.3578,-0.9871171,1.667282E-09,NaN,-0.933483,-1.322653E-07,NaN,0.2286195,-4.937194E-07,NaN,-0.821997,2.302082E-05,-0.4071659,8.840257E-08,NaN,NaN,0.2349931,1.722935E-10,6.726954E-07,-1.099852E-07,-1.6991E-08,-2.622604E-08
841.3718,-0.9860855,1.66792E-09,NaN,-0.9316441,-1.322654E-07,NaN,0.2322402,-4.936668E-07,NaN,-0.8199663,2.302121E-05,-0.404802,8.835121E-08,NaN,NaN,0.2307656,1.722935E-10,6.464694E-07,-1.099854E-07,-1.579891E-08,-2.861022E-08
841.3875,-0.9852408,1.668558E-09,NaN,-0.9299448,-1.322655E-07,NaN,0.2359539,-4.936152E-07,NaN,-0.8180904,2.30216E-05,-0.4026694,8.830082E-08,NaN,NaN,0.2266214,1.722935E-10,6.220315E-07,-1.099856E-07,-1.341472E-08,-2.622604E-08
841.402,-0.9845064,1.669196E-09,NaN,-0.9283364,-1.322655E-07,NaN,0.2396205,-4.935645E-07,NaN,-0.8163214,2.302199E-05,-0.4006279,8.825138E-08,NaN,NaN,0.2225585,1.722935E-10,6.02362E-07,-1.099858E-07,-1.341472E-08,-2.861022E-08
841.4169,-0.9845064,1.669196E-09,NaN,-0.9283364,-1.322655E-07,NaN,0.2396205,-4.935645E-07,NaN,-0.8163214,2.302199E-05,-0.4006279,8.825138E-08,NaN,NaN,0.2225585,1.722935E-10,6.02362E-07,-1.099858E-07,-1.341472E-08,-2.861022E-08
841.4327,-0.9841106,1.669833E-09,NaN,-0.9269628,-1.322656E-07,NaN,0.24381,-4.935148E-07,NaN,-0.8145996,2.302238E-05,-0.3991561,8.820287E-08,NaN,NaN,0.2183953,1.722935E-10,5.815003E-07,-1.09986E-07,-1.341472E-08,-2.622604E-08
841.4469,-0.9839103,1.670471E-09,NaN,-0.9257362,-1.322656E-07,NaN,0.2480748,-4.93466E-07,NaN,-0.8130384,2.302277E-05,-0.3979002,8.815529E-08,NaN,NaN,0.2143141,1.722935E-10,5.612347E-07,-1.099862E-07,-1.401077E-08,-2.861022E-08
841.4606,-0.9838231,1.671109E-09,NaN,-0.9246041,-1.322657E-07,NaN,0.2522738,-4.934209E-07,NaN,-0.811586,2.302316E-05,-0.3967156,8.811143E-08,NaN,NaN,0.210313,1.722935E-10,5.439494E-07,-1.099864E-07,-1.460682E-08,-2.622604E-08
841.4752,-0.9838231,1.671109E-09,NaN,-0.9246041,-1.322657E-07,NaN,0.2522738,-4.934209E-07,NaN,-0.811586,2.302316E-05,-0.3967156,8.811143E-08,NaN,NaN,0.210313,1.722935E-10,5.439494E-07,-1.099864E-07,-1.460682E-08,-2.622604E-08
841.4893,-0.9838016,1.671747E-09,NaN,-0.9235342,-1.322657E-07,NaN,0.2563732,-4.933766E-07,NaN,-0.8102128,2.302355E-05,-0.3955511,8.806839E-08,NaN,NaN,0.2063904,1.722935E-10,5.242799E-07,-1.099866E-07,-1.281868E-08,-2.861022E-08
841.5044,-0.9840878,1.672385E-09,NaN,-0.9226798,-1.322658E-07,NaN,0.2609847,-4.933331E-07,NaN,-0.8088707,2.302395E-05,-0.3949302,8.802616E-08,NaN,NaN,0.2023646,1.722935E-10,4.986499E-07,-1.099868E-07,-1.103054E-08,-2.622604E-08
841.5192,-0.9840878,1.672385E-09,NaN,-0.9226798,-1.322658E-07,NaN,0.2609847,-4.933331E-07,NaN,-0.8088707,2.302395E-05,-0.3949302,8.802616E-08,NaN,NaN,0.2023646,1.722935E-10,4.986499E-07,-1.099868E-07,-1.103054E-08,-2.622604E-08
841.533,-0.9845508,1.673023E-09,NaN,-0.9219628,-1.322659E-07,NaN,0.2656707,-4.932904E-07,NaN,-0.8076771,2.302434E-05,-0.3945101,8.798472E-08,NaN,NaN,0.1984182,1.722935E-10,4.825566E-07,-1.09987E-07,-1.103054E-08,-2.861022E-08
841.5485,-0.985114,1.673661E-09,NaN,-0.9213338,-1.322659E-07,NaN,0.2702898,-4.932485E-07,NaN,-0.8065829,2.302473E-05,-0.3941487,8.794407E-08,NaN,NaN,0.1945492,1.722935E-10,4.688476E-07,-1.099872E-07,-1.281868E-08,-2.622604E-08
841.563,-0.9857327,1.674299E-09,NaN,-0.920762,-1.32266E-07,NaN,0.274806,-4.932074E-07,NaN,-0.8055604,2.302512E-05,-0.3937947,8.790417E-08,NaN,NaN,0.1907561,1.722935E-10,4.557346E-07,-1.099874E-07,-1.103054E-08,-2.861022E-08
841.5778,-0.9857327,1.674299E-09,NaN,-0.920762,-1.32266E-07,NaN,0.274806,-4.932074E-07,NaN,-0.8055604,2.302512E-05,-0.3937947,8.790417E-08,NaN,NaN,0.1907561,1.722935E-10,4.557346E-07,-1.099874E-07,-1.103054E-08,-2.861022E-08
841.5918,-0.9866511,1.674937E-09,NaN,-0.9204006,-1.32266E-07,NaN,0.2798341,-4.93167E-07,NaN,-0.8045642,2.302551E-05,-0.3939781,8.786502E-08,NaN,NaN,0.1868574,1.722935E-10,4.36065E-07,-1.099876E-07,-1.222263E-08,-2.622604E-08
841.6074,-0.98774,1.675575E-09,NaN,-0.9201699,-1.322661E-07,NaN,0.28493,-4.931273E-07,NaN,-0.8037112,2.30259E-05,-0.3943473,8.78266E-08,NaN,NaN,0.1830355,1.722935E-10,4.205678E-07,-1.099877E-07,-1.222263E-08,-2.861022E-08
841.6221,-0.9889233,1.676213E-09,NaN,-0.9200202,-1.322661E-07,NaN,0.2899507,-4.930884E-07,NaN,-0.8029524,2.302629E-05,-0.3947586,8.77889E-08,NaN,NaN,0.1792886,1.722935E-10,4.068587E-07,-1.099879E-07,-1.103054E-08,-2.622604E-08
841.6368,-0.9889233,1.676213E-09,NaN,-0.9200202,-1.322661E-07,NaN,0.2899507,-4.930884E-07,NaN,-0.8029524,2.302629E-05,-0.3947586,8.77889E-08,NaN,NaN,0.1792886,1.722935E-10,4.068587E-07,-1.099879E-07,-1.103054E-08,-2.622604E-08
841.6512,-0.9904266,1.676851E-09,NaN,-0.9200903,-1.322662E-07,NaN,0.2954766,-4.930502E-07,NaN,-0.8022333,2.302668E-05,-0.3957078,8.775191E-08,NaN,NaN,0.1754352,1.722935E-10,3.925536E-07,-1.099881E-07,-1.222263E-08,-2.861022E-08
841.6664,-0.99211,1.677489E-09,NaN,-0.9202958,-1.322663E-07,NaN,0.301052,-4.930155E-07,NaN,-0.801664,2.302707E-05,-0.3968275,8.771843E-08,NaN,NaN,0.1716578,1.722935E-10,3.824208E-07,-1.099883E-07,-1.520286E-08,-2.622604E-08
841.6808,-0.9938884,1.678127E-09,NaN,-0.9205821,-1.322663E-07,NaN,0.3065314,-4.929814E-07,NaN,-0.8011922,2.302747E-05,-0.3979688,8.768557E-08,NaN,NaN,0.1679545,1.722935E-10,3.740762E-07,-1.099885E-07,-1.460682E-08,-2.861022E-08
841.6976,-0.9938884,1.678127E-09,NaN,-0.9205821,-1.322663E-07,NaN,0.3065314,-4.929814E-07,NaN,-0.8011922,2.302747E-05,-0.3979688,8.768557E-08,NaN,NaN,0.1679545,1.722935E-10,3.740762E-07,-1.099885E-07,-1.460682E-08,-2.861022E-08
841.7111,-0.9957123,1.678765E-09,NaN,-0.920916,-1.322664E-07,NaN,0.3118815,-4.929479E-07,NaN,-0.8007885,2.302786E-05,-0.3990823,8.765333E-08,NaN,NaN,0.1643238,1.722935E-10,3.651355E-07,-1.099887E-07,-1.937519E-08,-2.622604E-08
841.7253,-0.9978232,1.679404E-09,NaN,-0.9214498,-1.322664E-07,NaN,0.3177292,-4.92915E-07,NaN,-0.8004117,2.302825E-05,-0.4007131,8.762168E-08,NaN,NaN,0.1605843,1.722935E-10,3.520225E-07,-1.099889E-07,-1.818309E-08,-2.861022E-08
841.7397,-0.9978232,1.679404E-09,NaN,-0.9214498,-1.322664E-07,NaN,0.3177292,-4.92915E-07,NaN,-0.8004117,2.302825E-05,-0.4007131,8.762168E-08,NaN,NaN,0.1605843,1.722935E-10,3.520225E-07,-1.099889E-07,-1.818309E-08,-2.861022E-08
841.7538,-1.000088,1.680042E-09,NaN,-0.9221011,-1.322665E-07,NaN,0.3236191,-4.928827E-07,NaN,-0.8001749,2.302864E-05,-0.4024954,8.759061E-08,NaN,NaN,0.1569185,1.722935E-10,3.45466E-07,-1.099891E-07,-1.937519E-08,-2.622604E-08
841.7691,-1.002429,1.68068E-09,NaN,-0.9228198,-1.322665E-07,NaN,0.3294097,-4.92851E-07,NaN,-0.8000274,2.302903E-05,-0.4042857,8.756012E-08,NaN,NaN,0.1533248,1.722935E-10,3.412936E-07,-1.099893E-07,-1.639496E-08,-2.861022E-08
841.7837,-1.004802,1.681318E-09,NaN,-0.9235755,-1.322666E-07,NaN,0.3350684,-4.928199E-07,NaN,-0.7999409,2.302942E-05,-0.406037,8.75302E-08,NaN,NaN,0.1498014,1.722935E-10,3.33545E-07,-1.099895E-07,-1.81831E-08,-2.622604E-08
841.7985,-1.004802,1.681318E-09,NaN,-0.9235755,-1.322666E-07,NaN,0.3350684,-4.928199E-07,NaN,-0.7999409,2.302942E-05,-0.406037,8.75302E-08,NaN,NaN,0.1498014,1.722935E-10,3.33545E-07,-1.099895E-07,-1.81831E-08,-2.622604E-08
841.8123,-1.00745,1.681957E-09,NaN,-0.9245226,-1.322666E-07,NaN,0.3412265,-4.927893E-07,NaN,-0.7998794,2.302981E-05,-0.4083024,8.750082E-08,NaN,NaN,0.1461672,1.722935E-10,3.186439E-07,-1.099896E-07,-1.520286E-08,-2.861022E-08
841.8278,-1.010242,1.682595E-09,NaN,-0.9255792,-1.322667E-07,NaN,0.3474197,-4.927592E-07,NaN,-0.7999537,2.30302E-05,-0.4107063,8.747198E-08,NaN,NaN,0.1426046,1.722935E-10,3.126834E-07,-1.099898E-07,-1.520286E-08,-2.622604E-08
841.8425,-1.013102,1.683233E-09,NaN,-0.9266958,-1.322668E-07,NaN,0.3535056,-4.927297E-07,NaN,-0.8001129,2.303059E-05,-0.4131043,8.744367E-08,NaN,NaN,0.139112,1.722935E-10,3.097032E-07,-1.0999E-07,-1.520286E-08,-2.861022E-08
841.8572,-1.013102,1.683233E-09,NaN,-0.9266958,-1.322668E-07,NaN,0.3535056,-4.927297E-07,NaN,-0.8001129,2.303059E-05,-0.4131043,8.744367E-08,NaN,NaN,0.139112,1.722935E-10,3.097032E-07,-1.0999E-07,-1.520286E-08,-2.861022E-08
841.8713,-1.016255,1.683872E-09,NaN,-0.9280155,-1.322668E-07,NaN,0.3600844,-4.927035E-07,NaN,-0.8003126,2.303099E-05,-0.4160184,8.741871E-08,NaN,NaN,0.1355078,1.722935E-10,3.013585E-07,-1.099902E-07,-1.401077E-08,-2.622604E-08
841.8868,-1.019559,1.68451E-09,NaN,-0.9294488,-1.322669E-07,NaN,0.366677,-4.926777E-07,NaN,-0.8006553,2.303138E-05,-0.4190539,8.739421E-08,NaN,NaN,0.1319747,1.722935E-10,2.965901E-07,-1.099904E-07,-1.162659E-08,-2.861022E-08
841.9014,-1.02293,1.685149E-09,NaN,-0.9309422,-1.322669E-07,NaN,0.3731427,-4.926524E-07,NaN,-0.8010856,2.303177E-05,-0.4220639,8.737015E-08,NaN,NaN,0.128511,1.722935E-10,2.94802E-07,-1.099906E-07,-8.646354E-09,-2.622604E-08
841.9164,-1.02293,1.685149E-09,NaN,-0.9309422,-1.322669E-07,NaN,0.3731427,-4.926524E-07,NaN,-0.8010856,2.303177E-05,-0.4220639,8.737015E-08,NaN,NaN,0.128511,1.722935E-10,2.94802E-07,-1.099906E-07,-8.646354E-09,-2.622604E-08
841.9302,-1.026321,1.685787E-09,NaN,-0.9324641,-1.32267E-07,NaN,0.3794535,-4.926276E-07,NaN,-0.8015729,2.303216E-05,-0.4250044,8.734652E-08,NaN,NaN,0.1251153,1.722935E-10,2.906297E-07,-1.099908E-07,-9.838447E-09,-2.861022E-08
841.9457,-1.029977,1.686426E-09,NaN,-0.9341686,-1.32267E-07,NaN,0.3862543,-4.926031E-07,NaN,-0.8020881,2.303255E-05,-0.4284447,8.732333E-08,NaN,NaN,0.1216061,1.722935E-10,2.799008E-07,-1.099909E-07,-8.050307E-09,-2.622604E-08
841.9622,-1.033764,1.687064E-09,NaN,-0.9359716,-1.322671E-07,NaN,0.3930674,-4.925791E-07,NaN,-0.8027355,2.303294E-05,-0.4319934,8.730056E-08,NaN,NaN,0.118166,1.722935E-10,2.757285E-07,-1.099911E-07,-6.262168E-09,-2.861022E-08
841.976,-1.033764,1.687064E-09,NaN,-0.9359716,-1.322671E-07,NaN,0.3930674,-4.925791E-07,NaN,-0.8027355,2.303294E-05,-0.4319934,8.730056E-08,NaN,NaN,0.118166,1.722935E-10,2.757285E-07,-1.099911E-07,-6.262168E-09,-2.861022E-08
841.9901,-1.037603,1.687703E-09,NaN,-0.9378235,-1.322671E-07,NaN,0.3997527,-4.925556E-07,NaN,-0.8034619,2.303333E-05,-0.4355067,8.72782E-08,NaN,NaN,0.1147936,1.722935E-10,2.763246E-07,-1.099913E-07,-6.858214E-09,-2.622604E-08
842.0042,-1.041452,1.688342E-09,NaN,-0.9396955,-1.322671E-07,NaN,0.4062819,-4.925324E-07,NaN,-0.8042386,2.303372E-05,-0.4389422,8.725623E-08,NaN,NaN,0.1114873,1.722935E-10,2.757285E-07,-1.099915E-07,-8.050307E-09,-2.861022E-08
842.0191,-1.041452,1.688342E-09,NaN,-0.9396955,-1.322671E-07,NaN,0.4062819,-4.925324E-07,NaN,-0.8042386,2.303372E-05,-0.4389422,8.725623E-08,NaN,NaN,0.1114873,1.722935E-10,2.757285E-07,-1.099915E-07,-8.050307E-09,-2.861022E-08
842.0328,-1.045559,1.68898E-09,NaN,-0.9417434,-1.322672E-07,NaN,0.4133045,-4.925096E-07,NaN,-0.8050428,2.303411E-05,-0.4428765,8.723467E-08,NaN,NaN,0.1080658,1.722935E-10,2.685759E-07,-1.099917E-07,-1.162659E-08,-2.622604E-08
842.0483,-1.049787,1.689619E-09,NaN,-0.9438834,-1.322672E-07,NaN,0.4203321,-4.924872E-07,NaN,-0.8059754,2.30345E-05,-0.4469074,8.721349E-08,NaN,NaN,0.1047118,1.722935E-10,2.661918E-07,-1.099919E-07,-9.838447E-09,-2.861022E-08
842.0627,-1.054062,1.690258E-09,NaN,-0.9460666,-1.322673E-07,NaN,0.4272248,-4.924651E-07,NaN,-0.8069826,2.30349E-05,-0.4508908,8.71927E-08,NaN,NaN,0.1014237,1.722935E-10,2.632115E-07,-1.09992E-07,-1.162659E-08,-2.622604E-08
842.0775,-1.054062,1.690258E-09,NaN,-0.9460666,-1.322673E-07,NaN,0.4272248,-4.924651E-07,NaN,-0.8069826,2.30349E-05,-0.4508908,8.71927E-08,NaN,NaN,0.1014237,1.722935E-10,2.632115E-07,-1.09992E-07,-1.162659E-08,-2.622604E-08
842.0917,-1.058613,1.690897E-09,NaN,-0.9484375,-1.322673E-07,NaN,0.4346028,-4.924463E-07,NaN,-0.8080342,2.303529E-05,-0.4553733,8.71751E-08,NaN,NaN,0.09801999,1.722935E-10,2.524827E-07,-1.099922E-07,-9.242401E-09,-2.861022E-08
842.107,-1.063293,1.691535E-09,NaN,-0.9509045,-1.322674E-07,NaN,0.441964,-4.924278E-07,NaN,-0.8092208,2.303568E-05,-0.4599348,8.715781E-08,NaN,NaN,0.09468349,1.722935E-10,2.512906E-07,-1.099924E-07,-9.838447E-09,-2.622604E-08
842.1218,-1.068019,1.692174E-09,NaN,-0.9534152,-1.322674E-07,NaN,0.4491711,-4.924096E-07,NaN,-0.8104844,2.303607E-05,-0.4644298,8.714083E-08,NaN,NaN,0.09141253,1.722935E-10,2.518867E-07,-1.099926E-07,-9.838447E-09,-2.861022E-08
842.1364,-1.068019,1.692174E-09,NaN,-0.9534152,-1.322674E-07,NaN,0.4491711,-4.924096E-07,NaN,-0.8104844,2.303607E-05,-0.4644298,8.714083E-08,NaN,NaN,0.09141253,1.722935E-10,2.518867E-07,-1.099926E-07,-9.838447E-09,-2.861022E-08
842.1505,-1.072746,1.692813E-09,NaN,-0.9559391,-1.322674E-07,NaN,0.456201,-4.923917E-07,NaN,-0.811794,2.303646E-05,-0.4688198,8.712414E-08,NaN,NaN,0.08820572,1.722935E-10,2.518867E-07,-1.099927E-07,-1.043449E-08,-2.622604E-08
842.166,-1.077724,1.693452E-09,NaN,-0.9586321,-1.322675E-07,NaN,0.4637175,-4.923741E-07,NaN,-0.8131366,2.303685E-05,-0.4736975,8.710774E-08,NaN,NaN,0.0848817,1.722935E-10,2.441381E-07,-1.099929E-07,-8.646355E-09,-2.861022E-08
842.1807,-1.082813,1.694091E-09,NaN,-0.9614081,-1.322675E-07,NaN,0.4712171,-4.923567E-07,NaN,-0.8146036,2.303724E-05,-0.4786441,8.709164E-08,NaN,NaN,0.08162332,1.722935E-10,2.408598E-07,-1.099931E-07,-9.242402E-09,-2.622604E-08
842.1972,-1.082813,1.694091E-09,NaN,-0.9614081,-1.322675E-07,NaN,0.4712171,-4.923567E-07,NaN,-0.8146036,2.303724E-05,-0.4786441,8.709164E-08,NaN,NaN,0.08162332,1.722935E-10,2.408598E-07,-1.099931E-07,-9.242402E-09,-2.622604E-08
842.2094,-1.087935,1.69473E-09,NaN,-0.9642182,-1.322676E-07,NaN,0.478563,-4.923397E-07,NaN,-0.816139,2.303763E-05,-0.4835165,8.707581E-08,NaN,NaN,0.07842895,1.722935E-10,2.393697E-07,-1.099933E-07,-9.838448E-09,-2.861022E-08
842.2268,-1.093049,1.695369E-09,NaN,-0.9670346,-1.322676E-07,NaN,0.4857318,-4.923229E-07,NaN,-0.8177137,2.303802E-05,-0.4882775,8.706026E-08,NaN,NaN,0.07529724,1.722935E-10,2.375815E-07,-1.099935E-07,-8.050309E-09,-2.622604E-08
842.2405,-1.098407,1.696008E-09,NaN,-0.9700147,-1.322677E-07,NaN,0.4933913,-4.923064E-07,NaN,-0.8193225,2.303842E-05,-0.4935268,8.704497E-08,NaN,NaN,0.07204683,1.722935E-10,2.30429E-07,-1.099936E-07,-6.858216E-09,-2.861022E-08
842.2542,-1.098407,1.696008E-09,NaN,-0.9700147,-1.322677E-07,NaN,0.4933913,-4.923064E-07,NaN,-0.8193225,2.303842E-05,-0.4935268,8.704497E-08,NaN,NaN,0.07204683,1.722935E-10,2.30429E-07,-1.099936E-07,-6.858216E-09,-2.861022E-08
842.2681,-1.103871,1.696647E-09,NaN,-0.9730725,-1.322677E-07,NaN,0.5010272,-4.922902E-07,NaN,-0.8210518,2.303881E-05,-0.4988343,8.702995E-08,NaN,NaN,0.06886064,1.722935E-10,2.295349E-07,-1.099938E-07,-6.26217E-09,-2.622604E-08
842.2833,-1.109362,1.697286E-09,NaN,-0.9761595,-1.322677E-07,NaN,0.5085031,-4.922742E-07,NaN,-0.8228452,2.30392E-05,-0.5040568,8.70152E-08,NaN,NaN,0.06573704,1.722935E-10,2.256606E-07,-1.09994E-07,-3.877984E-09,-2.861022E-08
842.2979,-1.109362,1.697286E-09,NaN,-0.9761595,-1.322677E-07,NaN,0.5085031,-4.922742E-07,NaN,-0.8228452,2.30392E-05,-0.5040568,8.70152E-08,NaN,NaN,0.06573704,1.722935E-10,2.256606E-07,-1.09994E-07,-3.877984E-09,-2.861022E-08
842.312,-1.115116,1.697925E-09,NaN,-0.9794217,-1.322678E-07,NaN,0.51646,-4.922613E-07,NaN,-0.8246899,2.303959E-05,-0.5097662,8.700352E-08,NaN,NaN,0.06249461,1.722935E-10,2.211903E-07,-1.099941E-07,-5.070077E-09,-2.622604E-08
842.3273,-1.120982,1.698564E-09,NaN,-0.9827656,-1.322678E-07,NaN,0.524371,-4.922485E-07,NaN,-0.8266612,2.303998E-05,-0.5155153,8.699204E-08,NaN,NaN,0.05931625,1.722935E-10,2.194021E-07,-1.099943E-07,-9.242402E-09,-2.861022E-08
842.342,-1.126877,1.699203E-09,NaN,-0.9861392,-1.322679E-07,NaN,0.5321037,-4.92236E-07,NaN,-0.8286982,2.304037E-05,-0.5211614,8.698074E-08,NaN,NaN,0.05620032,1.722935E-10,2.194021E-07,-1.099945E-07,-8.646356E-09,-2.622604E-08
842.3567,-1.126877,1.699203E-09,NaN,-0.9861392,-1.322679E-07,NaN,0.5321037,-4.92236E-07,NaN,-0.8286982,2.304037E-05,-0.5211614,8.698074E-08,NaN,NaN,0.05620032,1.722935E-10,2.194021E-07,-1.099945E-07,-8.646356E-09,-2.622604E-08
842.3708,-1.132755,1.699842E-09,NaN,-0.9895137,-1.322679E-07,NaN,0.5396407,-4.922237E-07,NaN,-0.8307696,2.304076E-05,-0.5266721,8.696964E-08,NaN,NaN,0.0531455,1.722935E-10,2.1821E-07,-1.099947E-07,-7.454263E-09,-2.861022E-08
842.3864,-1.138874,1.700482E-09,NaN,-0.9930462,-1.32268E-07,NaN,0.5476635,-4.922115E-07,NaN,-0.8328822,2.304115E-05,-0.5326631,8.695873E-08,NaN,NaN,0.04997046,1.722935E-10,2.098654E-07,-1.099948E-07,-5.666124E-09,-2.622604E-08
842.4011,-1.145087,1.701121E-09,NaN,-0.9966486,-1.32268E-07,NaN,0.5556417,-4.921996E-07,NaN,-0.835111,2.304154E-05,-0.538686,8.6948E-08,NaN,NaN,0.04685818,1.722935E-10,2.089713E-07,-1.09995E-07,-6.26217E-09,-2.861022E-08
842.4158,-1.145087,1.701121E-09,NaN,-0.9966486,-1.32268E-07,NaN,0.5556417,-4.921996E-07,NaN,-0.835111,2.304154E-05,-0.538686,8.6948E-08,NaN,NaN,0.04685818,1.722935E-10,2.089713E-07,-1.09995E-07,-6.26217E-09,-2.861022E-08
842.4297,-1.151317,1.70176E-09,NaN,-1.000273,-1.32268E-07,NaN,0.5634433,-4.921878E-07,NaN,-0.8373969,2.304194E-05,-0.5446004,8.693744E-08,NaN,NaN,0.04380704,1.722935E-10,2.113555E-07,-1.099952E-07,-5.070077E-09,-2.622604E-08
842.4456,-1.157524,1.702399E-09,NaN,-1.003892,-1.322681E-07,NaN,0.5710503,-4.921683E-07,NaN,-0.8397105,2.304233E-05,-0.5503744,8.69191E-08,NaN,NaN,0.04081573,1.722935E-10,2.107594E-07,-1.099953E-07,-6.262169E-09,-2.861022E-08
842.4601,-1.163965,1.703038E-09,NaN,-1.007664,-1.322681E-07,NaN,0.5791481,-4.92149E-07,NaN,-0.8420676,2.304271E-05,-0.556631,8.690108E-08,NaN,NaN,0.03770297,1.769501E-10,2.024148E-07,-1.099955E-07,-8.646355E-09,-2.622604E-08
842.4748,-1.163965,1.703038E-09,NaN,-1.007664,-1.322681E-07,NaN,0.5791481,-4.92149E-07,NaN,-0.8420676,2.304271E-05,-0.556631,8.690108E-08,NaN,NaN,0.03770297,1.769501E-10,2.024148E-07,-1.099955E-07,-8.646355E-09,-2.622604E-08
842.4908,-1.170497,1.703677E-09,NaN,-1.011503,-1.322682E-07,NaN,0.5871948,-4.921301E-07,NaN,-0.8445369,2.30431E-05,-0.5629093,8.688338E-08,NaN,NaN,0.03465176,1.816068E-10,2.021168E-07,-1.099957E-07,-8.050308E-09,-2.861022E-08
842.5043,-1.17704,1.704316E-09,NaN,-1.015358,-1.322682E-07,NaN,0.5950599,-4.921114E-07,NaN,-0.8470586,2.304349E-05,-0.5690697,8.6866E-08,NaN,NaN,0.03166048,1.816068E-10,2.027128E-07,-1.099959E-07,-9.242401E-09,-2.622604E-08
842.5189,-1.17704,1.704316E-09,NaN,-1.015358,-1.322682E-07,NaN,0.5950599,-4.921114E-07,NaN,-0.8470586,2.304349E-05,-0.5690697,8.6866E-08,NaN,NaN,0.03166048,1.816068E-10,2.027128E-07,-1.099959E-07,-9.242401E-09,-2.622604E-08
842.5327,-1.183838,1.704956E-09,NaN,-1.019379,-1.322683E-07,NaN,0.6034042,-4.920931E-07,NaN,-0.8496411,2.304388E-05,-0.5757089,8.684891E-08,NaN,NaN,0.02854777,1.816068E-10,1.92878E-07,-1.09996E-07,-1.043449E-08,-2.861022E-08
842.548,-1.190731,1.705595E-09,NaN,-1.023468,-1.322683E-07,NaN,0.6116753,-4.92078E-07,NaN,-0.8523409,2.304427E-05,-0.582351,8.683496E-08,NaN,NaN,0.02549658,1.816068E-10,1.913879E-07,-1.099962E-07,-1.043449E-08,-2.622604E-08
842.5624,-1.197637,1.706234E-09,NaN,-1.027576,-1.322683E-07,NaN,0.6197474,-4.92063E-07,NaN,-0.855094,2.304466E-05,-0.5888584,8.682124E-08,NaN,NaN,0.02250534,1.816068E-10,1.940701E-07,-1.099964E-07,-1.043449E-08,-2.861022E-08
842.5771,-1.197637,1.706234E-09,NaN,-1.027576,-1.322683E-07,NaN,0.6197474,-4.92063E-07,NaN,-0.855094,2.304466E-05,-0.5888584,8.682124E-08,NaN,NaN,0.02250534,1.816068E-10,1.940701E-07,-1.099964E-07,-1.043449E-08,-2.861022E-08
842.5911,-1.204513,1.706873E-09,NaN,-1.031674,-1.322684E-07,NaN,0.6276091,-4.920483E-07,NaN,-0.8578692,2.304505E-05,-0.595205,8.680776E-08,NaN,NaN,0.01957273,1.816068E-10,1.949642E-07,-1.099965E-07,-1.162659E-08,-2.622604E-08
842.6066,-1.21162,1.707512E-09,NaN,-1.035921,-1.322684E-07,NaN,0.6359581,-4.920338E-07,NaN,-0.8606962,2.304544E-05,-0.6020289,8.679451E-08,NaN,NaN,0.01651753,1.816068E-10,1.881097E-07,-1.099967E-07,-9.242401E-09,-2.861022E-08
842.6212,-1.218808,1.708152E-09,NaN,-1.040227,-1.322685E-07,NaN,0.6442363,-4.920195E-07,NaN,-0.8636301,2.304584E-05,-0.6088498,8.678148E-08,NaN,NaN,0.01352273,1.816068E-10,1.857255E-07,-1.099968E-07,-5.666122E-09,-2.622604E-08
842.6357,-1.218808,1.708152E-09,NaN,-1.040227,-1.322685E-07,NaN,0.6442363,-4.920195E-07,NaN,-0.8636301,2.304584E-05,-0.6088498,8.678148E-08,NaN,NaN,0.01352273,1.816068E-10,1.857255E-07,-1.099968E-07,-5.666122E-09,-2.622604E-08
842.6502,-1.225998,1.708791E-09,NaN,-1.044543,-1.322685E-07,NaN,0.6523187,-4.920055E-07,NaN,-0.8666088,2.304622E-05,-0.615532,8.676867E-08,NaN,NaN,0.01058677,1.862634E-10,1.869176E-07,-1.09997E-07,-5.666122E-09,-2.861022E-08
842.665,-1.233151,1.70943E-09,NaN,-1.048846,-1.322686E-07,NaN,0.6601929,-4.919917E-07,NaN,-0.869603,2.304661E-05,-0.6220506,8.675607E-08,NaN,NaN,0.007708372,1.862634E-10,1.881097E-07,-1.099972E-07,-5.666122E-09,-2.622604E-08
842.6799,-1.233151,1.70943E-09,NaN,-1.048846,-1.322686E-07,NaN,0.6601929,-4.919917E-07,NaN,-0.869603,2.304661E-05,-0.6220506,8.675607E-08,NaN,NaN,0.007708372,1.862634E-10,1.881097E-07,-1.099972E-07,-5.666122E-09,-2.622604E-08
842.6951,-1.240533,1.71007E-09,NaN,-1.053293,-1.322686E-07,NaN,0.6685595,-4.919781E-07,NaN,-0.8726522,2.3047E-05,-0.6290499,8.674369E-08,NaN,NaN,0.00470631,1.862634E-10,1.815532E-07,-1.099973E-07,2.943423E-10,-2.861022E-08
842.7093,-1.247991,1.710709E-09,NaN,-1.057796,-1.322686E-07,NaN,0.6768494,-4.919647E-07,NaN,-0.875804,2.304739E-05,-0.6360366,8.673152E-08,NaN,NaN,0.00176363,1.862634E-10,1.833413E-07,-1.099975E-07,2.943423E-10,-2.622604E-08
842.7238,-1.255446,1.711348E-09,NaN,-1.062306,-1.322687E-07,NaN,0.6849397,-4.919515E-07,NaN,-0.8789957,2.304779E-05,-0.6428769,8.671955E-08,NaN,NaN,-0.001121253,1.862634E-10,1.851294E-07,-1.099977E-07,3.870621E-09,-2.861022E-08
842.7386,-1.255446,1.711348E-09,NaN,-1.062306,-1.322687E-07,NaN,0.6849397,-4.919515E-07,NaN,-0.8789957,2.304779E-05,-0.6428769,8.671955E-08,NaN,NaN,-0.001121253,1.862634E-10,1.851294E-07,-1.099977E-07,3.870621E-09,-2.861022E-08
842.7527,-1.263149,1.711988E-09,NaN,-1.066972,-1.322687E-07,NaN,0.6935094,-4.919385E-07,NaN,-0.8822592,2.304818E-05,-0.6501924,8.670778E-08,NaN,NaN,-0.004129658,1.862634E-10,1.79467E-07,-1.099978E-07,2.943426E-10,-2.622604E-08
842.769,-1.270933,1.712627E-09,NaN,-1.071697,-1.322688E-07,NaN,0.7019805,-4.919285E-07,NaN,-0.8856295,2.304857E-05,-0.6574764,8.669903E-08,NaN,NaN,-0.007078575,1.862634E-10,1.79765E-07,-1.09998E-07,2.678528E-09,-2.861022E-08
842.7838,-1.278716,1.713267E-09,NaN,-1.07643,-1.322688E-07,NaN,0.7102363,-4.919186E-07,NaN,-0.8890396,2.304896E-05,-0.6645985,8.669042E-08,NaN,NaN,-0.009969583,1.862634E-10,1.821492E-07,-1.099982E-07,2.678528E-09,-2.622604E-08
842.7973,-1.278716,1.713267E-09,NaN,-1.07643,-1.322688E-07,NaN,0.7102363,-4.919186E-07,NaN,-0.8890396,2.304896E-05,-0.6645985,8.669042E-08,NaN,NaN,-0.009969583,1.862634E-10,1.821492E-07,-1.099982E-07,2.678528E-09,-2.622604E-08
842.8113,-1.286454,1.713906E-09,NaN,-1.081144,-1.322689E-07,NaN,0.7182713,-4.919089E-07,NaN,-0.8924586,2.304935E-05,-0.6715406,8.668194E-08,NaN,NaN,-0.01280391,1.862634E-10,1.809571E-07,-1.099983E-07,2.678528E-09,-2.861022E-08
842.8267,-1.294419,1.714546E-09,NaN,-1.086,-1.322689E-07,NaN,0.7267958,-4.919925E-07,NaN,-0.8959416,2.304974E-05,-0.6789612,8.676671E-08,NaN,NaN,-0.01576276,1.862634E-10,1.729105E-07,-1.099984E-07,6.254807E-09,-2.622604E-08
842.8411,-1.302452,1.715185E-09,NaN,-1.090905,-1.322692E-07,NaN,0.7352252,-4.918683E-07,NaN,-0.8995211,2.305014E-05,-0.6863455,8.66438E-08,NaN,NaN,-0.01866309,1.769501E-10,1.723144E-07,-1.09998E-07,8.638993E-09,-2.861022E-08
842.8559,-1.302452,1.715185E-09,NaN,-1.090905,-1.322692E-07,NaN,0.7352252,-4.918683E-07,NaN,-0.8995211,2.305014E-05,-0.6863455,8.66438E-08,NaN,NaN,-0.01866309,1.769501E-10,1.723144E-07,-1.09998E-07,8.638993E-09,-2.861022E-08
842.8699,-1.310475,1.715825E-09,NaN,-1.095811,-1.322694E-07,NaN,0.7434437,-4.917578E-07,NaN,-0.903132,2.305054E-05,-0.6935658,8.653455E-08,NaN,NaN,-0.02150646,1.676369E-10,1.720164E-07,-1.099977E-07,8.638993E-09,-2.622604E-08
842.8853,-1.318446,1.716464E-09,NaN,-1.100696,-1.322696E-07,NaN,0.7514449,-4.916382E-07,NaN,-0.9067452,2.305094E-05,-0.700605,8.641612E-08,NaN,NaN,-0.02429409,1.583237E-10,1.714204E-07,-1.099974E-07,8.638993E-09,-2.861022E-08
842.8998,-1.318446,1.716464E-09,NaN,-1.100696,-1.322696E-07,NaN,0.7514449,-4.916382E-07,NaN,-0.9067452,2.305094E-05,-0.700605,8.641612E-08,NaN,NaN,-0.02429409,1.583237E-10,1.714204E-07,-1.099974E-07,8.638993E-09,-2.861022E-08
842.9138,-1.326643,1.717104E-09,NaN,-1.105719,-1.322695E-07,NaN,0.7599407,-4.91659E-07,NaN,-0.9104264,2.305133E-05,-0.7081275,8.643823E-08,NaN,NaN,-0.02720714,1.583237E-10,1.630757E-07,-1.099975E-07,1.102318E-08,-2.622604E-08
842.9291,-1.334903,1.717744E-09,NaN,-1.110788,-1.322695E-07,NaN,0.7683361,-4.916682E-07,NaN,-0.9141994,2.305172E-05,-0.7156044,8.644859E-08,NaN,NaN,-0.03006257,1.583237E-10,1.618836E-07,-1.099976E-07,5.062715E-09,-2.861022E-08
842.9437,-1.343148,1.718384E-09,NaN,-1.115857,-1.322696E-07,NaN,0.7765183,-4.916686E-07,NaN,-0.9179986,2.305211E-05,-0.7229112,8.645025E-08,NaN,NaN,-0.03286194,1.583237E-10,1.630757E-07,-1.099977E-07,5.062715E-09,-2.622604E-08
842.9584,-1.343148,1.718384E-09,NaN,-1.115857,-1.322696E-07,NaN,0.7765183,-4.916686E-07,NaN,-0.9179986,2.305211E-05,-0.7229112,8.645025E-08,NaN,NaN,-0.03286194,1.583237E-10,1.630757E-07,-1.099977E-07,5.062715E-09,-2.622604E-08
842.9727,-1.351634,1.719024E-09,NaN,-1.121074,-1.322696E-07,NaN,0.7851809,-4.916662E-07,NaN,-0.9218819,2.30525E-05,-0.7306951,8.644902E-08,NaN,NaN,-0.03578647,1.629803E-10,1.568172E-07,-1.099979E-07,5.062715E-09,-2.861022E-08
842.988,-1.36019,1.719663E-09,NaN,-1.12634,-1.322696E-07,NaN,0.7937219,-4.916637E-07,NaN,-0.9258599,2.305289E-05,-0.7384145,8.644778E-08,NaN,NaN,-0.03865319,1.629803E-10,1.556251E-07,-1.099981E-07,5.062715E-09,-2.622604E-08
843.0026,-1.36873,1.720303E-09,NaN,-1.131605,-1.322697E-07,NaN,0.802036,-4.916585E-07,NaN,-0.929863,2.305328E-05,-0.7459505,8.644371E-08,NaN,NaN,-0.04146362,1.629803E-10,1.562212E-07,-1.099982E-07,3.870622E-09,-2.861022E-08
843.0174,-1.36873,1.720303E-09,NaN,-1.131605,-1.322697E-07,NaN,0.802036,-4.916585E-07,NaN,-0.929863,2.305328E-05,-0.7459505,8.644371E-08,NaN,NaN,-0.04146362,1.629803E-10,1.562212E-07,-1.099982E-07,3.870622E-09,-2.861022E-08
843.0313,-1.377214,1.720943E-09,NaN,-1.136845,-1.322697E-07,NaN,0.810123,-4.916532E-07,NaN,-0.9338611,2.305367E-05,-0.7532929,8.643968E-08,NaN,NaN,-0.04421897,1.676369E-10,1.577113E-07,-1.099984E-07,9.831086E-09,-2.622604E-08
843.0477,-1.385921,1.721583E-09,NaN,-1.14222,-1.322697E-07,NaN,0.818702,-4.91648E-07,NaN,-0.9379364,2.305406E-05,-0.7611197,8.64357E-08,NaN,NaN,-0.04710034,1.676369E-10,1.499627E-07,-1.099985E-07,1.221527E-08,-2.861022E-08
843.0612,-1.394684,1.722223E-09,NaN,-1.147636,-1.322698E-07,NaN,0.8271635,-4.916428E-07,NaN,-0.9420964,2.305445E-05,-0.768878,8.643175E-08,NaN,NaN,-0.04992475,1.676369E-10,1.481745E-07,-1.099987E-07,1.459946E-08,-2.622604E-08
843.076,-1.394684,1.722223E-09,NaN,-1.147636,-1.322698E-07,NaN,0.8271635,-4.916428E-07,NaN,-0.9420964,2.305445E-05,-0.768878,8.643175E-08,NaN,NaN,-0.04992475,1.676369E-10,1.481745E-07,-1.099987E-07,1.459946E-08,-2.622604E-08
843.09,-1.403424,1.722863E-09,NaN,-1.153047,-1.322698E-07,NaN,0.8354037,-4.916377E-07,NaN,-0.9462735,2.305484E-05,-0.7764522,8.642785E-08,NaN,NaN,-0.05269371,1.676369E-10,1.481745E-07,-1.099988E-07,1.459946E-08,-2.861022E-08
843.105,-1.412102,1.723502E-09,NaN,-1.158429,-1.322699E-07,NaN,0.8434214,-4.916326E-07,NaN,-0.9504393,2.305523E-05,-0.7838336,8.6424E-08,NaN,NaN,-0.05540839,1.676369E-10,1.496647E-07,-1.09999E-07,1.579155E-08,-2.622604E-08
843.1198,-1.412102,1.723502E-09,NaN,-1.158429,-1.322699E-07,NaN,0.8434214,-4.916326E-07,NaN,-0.9504393,2.305523E-05,-0.7838336,8.6424E-08,NaN,NaN,-0.05540839,1.676369E-10,1.496647E-07,-1.09999E-07,1.579155E-08,-2.622604E-08
