JMolnar6/NonAnthroHands_User_Study/HandsLoggerWithURDF/tempdata/files/Reachy_JointMotion_gesture_12_61.csv
Time,r_shoulder,r_shoulder_x,r_upper_arm,r_forearm,r_wrist,r_wrist2hand,
889.083,-0.2255392,3.608673E-09,NaN,-0.4533626,-1.318493E-07,NaN,-0.01804565,-5.860708E-07,NaN,-0.6580303,2.419804E-05,0.01202558,1.346885E-07,NaN,NaN,0.181078,1.629801E-10,-6.346266E-07,-1.09653E-07,-1.948709E-08,-2.622604E-08
889.0997,-0.2255392,3.608673E-09,NaN,-0.4533626,-1.318493E-07,NaN,-0.01804565,-5.860708E-07,NaN,-0.6580303,2.419804E-05,0.01202558,1.346885E-07,NaN,NaN,0.181078,1.629801E-10,-6.346266E-07,-1.09653E-07,-1.948709E-08,-2.622604E-08
889.1137,-0.2260189,3.609292E-09,NaN,-0.4518175,-1.318496E-07,NaN,-0.01673409,-5.860346E-07,NaN,-0.6555701,2.419842E-05,0.01427092,1.346535E-07,NaN,NaN,0.1802437,1.583235E-10,-6.262819E-07,-1.096525E-07,-1.829499E-08,-2.861022E-08
889.1303,-0.2265137,3.609912E-09,NaN,-0.4502256,-1.318496E-07,NaN,-0.01542328,-5.861397E-07,NaN,-0.6530274,2.41988E-05,0.01676406,1.347598E-07,NaN,NaN,0.1794259,1.583235E-10,-6.221096E-07,-1.096524E-07,-2.067918E-08,-2.622604E-08
889.1461,-0.2270157,3.610531E-09,NaN,-0.4486121,-1.318497E-07,NaN,-0.01401642,-5.862287E-07,NaN,-0.6504691,2.419917E-05,0.01928851,1.3485E-07,NaN,NaN,0.1786242,1.583235E-10,-6.209175E-07,-1.096523E-07,-2.187127E-08,-2.861022E-08
889.1619,-0.22752,3.61115E-09,NaN,-0.4469924,-1.318497E-07,NaN,-0.01251657,-5.863103E-07,NaN,-0.6479271,2.419955E-05,0.02176741,1.349327E-07,NaN,NaN,0.1778381,1.583235E-10,-6.185333E-07,-1.096523E-07,-2.783174E-08,-2.622604E-08
889.1779,-0.22752,3.61115E-09,NaN,-0.4469924,-1.318497E-07,NaN,-0.01251657,-5.863103E-07,NaN,-0.6479271,2.419955E-05,0.02176741,1.349327E-07,NaN,NaN,0.1778381,1.583235E-10,-6.185333E-07,-1.096523E-07,-2.783174E-08,-2.622604E-08
889.1927,-0.2279904,3.61177E-09,NaN,-0.4454809,-1.318498E-07,NaN,-0.01063969,-5.863846E-07,NaN,-0.6459395,2.419993E-05,0.02348422,1.350081E-07,NaN,NaN,0.1773817,1.583235E-10,-6.173412E-07,-1.096523E-07,-2.663964E-08,-2.861022E-08
889.2108,-0.2284378,3.612389E-09,NaN,-0.4440426,-1.318499E-07,NaN,-0.008735567,-5.864574E-07,NaN,-0.644105,2.42003E-05,0.02485093,1.350821E-07,NaN,NaN,0.1769342,1.583235E-10,-6.113807E-07,-1.096523E-07,-2.663964E-08,-2.622604E-08
889.2247,-0.2288691,3.613008E-09,NaN,-0.4426557,-1.3185E-07,NaN,-0.006923354,-5.865258E-07,NaN,-0.6423578,2.420068E-05,0.02608772,1.351517E-07,NaN,NaN,0.1764954,1.583235E-10,-6.042281E-07,-1.096522E-07,-2.425546E-08,-2.861022E-08
889.2407,-0.2292885,3.613627E-09,NaN,-0.4413068,-1.318501E-07,NaN,-0.005214672,-5.865929E-07,NaN,-0.6406665,2.420106E-05,0.02727706,1.352199E-07,NaN,NaN,0.1760651,1.583235E-10,-5.964795E-07,-1.096522E-07,-2.544755E-08,-2.622604E-08
889.2562,-0.2292885,3.613627E-09,NaN,-0.4413068,-1.318501E-07,NaN,-0.005214672,-5.865929E-07,NaN,-0.6406665,2.420106E-05,0.02727706,1.352199E-07,NaN,NaN,0.1760651,1.583235E-10,-5.964795E-07,-1.096522E-07,-2.544755E-08,-2.622604E-08
889.2714,-0.2296657,3.614247E-09,NaN,-0.4400918,-1.318502E-07,NaN,-0.003272276,-5.866586E-07,NaN,-0.6395403,2.420143E-05,0.02775166,1.352868E-07,NaN,NaN,0.1759576,1.583235E-10,-5.934993E-07,-1.096522E-07,-2.902383E-08,-2.861022E-08
889.2877,-0.2300152,3.614866E-09,NaN,-0.4389646,-1.318503E-07,NaN,-0.001401483,-5.867229E-07,NaN,-0.6385636,2.42018E-05,0.02793026,1.353523E-07,NaN,NaN,0.175852,1.676367E-10,-5.827704E-07,-1.096522E-07,-3.736848E-08,-2.622604E-08
889.3037,-0.2303459,3.615485E-09,NaN,-0.4378966,-1.318504E-07,NaN,0.0003153335,-5.86786E-07,NaN,-0.637664,2.420218E-05,0.02802524,1.354165E-07,NaN,NaN,0.1757485,1.676367E-10,-5.720416E-07,-1.096521E-07,-3.736848E-08,-2.861022E-08
889.3192,-0.2303459,3.615485E-09,NaN,-0.4378966,-1.318504E-07,NaN,0.0003153335,-5.86786E-07,NaN,-0.637664,2.420218E-05,0.02802524,1.354165E-07,NaN,NaN,0.1757485,1.676367E-10,-5.720416E-07,-1.096521E-07,-3.736848E-08,-2.861022E-08
889.3343,-0.2306306,3.616105E-09,NaN,-0.4369743,-1.318505E-07,NaN,0.002211061,-5.868478E-07,NaN,-0.6373323,2.420256E-05,0.02741833,1.354795E-07,NaN,NaN,0.1759613,1.629801E-10,-5.631009E-07,-1.096521E-07,-3.856057E-08,-2.622604E-08
889.3504,-0.2308855,3.616724E-09,NaN,-0.436146,-1.318506E-07,NaN,0.003989946,-5.869084E-07,NaN,-0.6371433,2.420294E-05,0.02654259,1.355412E-07,NaN,NaN,0.1761697,1.583235E-10,-5.517761E-07,-1.096521E-07,-2.902383E-08,-2.861022E-08
889.3665,-0.2311207,3.617343E-09,NaN,-0.4353793,-1.318507E-07,NaN,0.00558285,-5.869677E-07,NaN,-0.6370208,2.420332E-05,0.02561155,1.356017E-07,NaN,NaN,0.1763741,1.536669E-10,-5.368749E-07,-1.096521E-07,-2.902383E-08,-2.622604E-08
889.3823,-0.2313426,3.617962E-09,NaN,-0.4346539,-1.318508E-07,NaN,0.007013275,-5.870258E-07,NaN,-0.6369284,2.42037E-05,0.02469734,1.35661E-07,NaN,NaN,0.1765745,1.536669E-10,-5.237619E-07,-1.096521E-07,-2.425546E-08,-2.861022E-08
889.3982,-0.2313426,3.617962E-09,NaN,-0.4346539,-1.318508E-07,NaN,0.007013275,-5.870258E-07,NaN,-0.6369284,2.42037E-05,0.02469734,1.35661E-07,NaN,NaN,0.1765745,1.536669E-10,-5.237619E-07,-1.096521E-07,-2.425546E-08,-2.861022E-08
889.4133,-0.2315224,3.618582E-09,NaN,-0.4340618,-1.318509E-07,NaN,0.008642061,-5.870827E-07,NaN,-0.6373749,2.420408E-05,0.02312688,1.35719E-07,NaN,NaN,0.1770851,1.490103E-10,-5.148212E-07,-1.09652E-07,-1.829499E-08,-2.622604E-08
889.4303,-0.2316752,3.619201E-09,NaN,-0.4335546,-1.31851E-07,NaN,0.0101752,-5.871384E-07,NaN,-0.6379432,2.420446E-05,0.02131081,1.357759E-07,NaN,NaN,0.1775857,1.443537E-10,-4.9992E-07,-1.09652E-07,-1.591081E-08,-2.861022E-08
889.4457,-0.2318104,3.619821E-09,NaN,-0.433102,-1.318511E-07,NaN,0.01153757,-5.87193E-07,NaN,-0.6385612,2.420485E-05,0.01945543,1.358317E-07,NaN,NaN,0.1780764,1.396971E-10,-4.844228E-07,-1.09652E-07,-1.71029E-08,-2.622604E-08
889.4613,-0.2319341,3.62044E-09,NaN,-0.432685,-1.318512E-07,NaN,0.01274635,-5.872464E-07,NaN,-0.6391947,2.420523E-05,0.01763133,1.358863E-07,NaN,NaN,0.1785575,1.350405E-10,-4.677335E-07,-1.09652E-07,-2.067918E-08,-2.861022E-08
889.4769,-0.2319341,3.62044E-09,NaN,-0.432685,-1.318512E-07,NaN,0.01274635,-5.872464E-07,NaN,-0.6391947,2.420523E-05,0.01763133,1.358863E-07,NaN,NaN,0.1785575,1.350405E-10,-4.677335E-07,-1.09652E-07,-2.067918E-08,-2.861022E-08
889.4921,-0.2320171,3.62106E-09,NaN,-0.4323965,-1.318513E-07,NaN,0.01415347,-5.872988E-07,NaN,-0.6403535,2.420561E-05,0.01516748,1.359398E-07,NaN,NaN,0.1793433,1.303839E-10,-4.546205E-07,-1.09652E-07,-2.306336E-08,-2.622604E-08
889.5087,-0.2320743,3.621679E-09,NaN,-0.4321886,-1.318514E-07,NaN,0.01546379,-5.8735E-07,NaN,-0.641621,2.420599E-05,0.01247334,1.359922E-07,NaN,NaN,0.1801137,1.257272E-10,-4.373351E-07,-1.09652E-07,-1.71029E-08,-2.861022E-08
889.5241,-0.2321151,3.622299E-09,NaN,-0.4320313,-1.318515E-07,NaN,0.01660034,-5.874002E-07,NaN,-0.6429253,2.420637E-05,0.009755752,1.360436E-07,NaN,NaN,0.180869,1.210706E-10,-4.176656E-07,-1.09652E-07,-1.71029E-08,-2.622604E-08
889.5405,-0.2321455,3.622918E-09,NaN,-0.431906,-1.318516E-07,NaN,0.01757952,-5.874494E-07,NaN,-0.6442326,2.420676E-05,0.007085507,1.360939E-07,NaN,NaN,0.1816094,1.16414E-10,-4.045526E-07,-1.096519E-07,-1.829499E-08,-2.861022E-08
889.5558,-0.2321455,3.622918E-09,NaN,-0.431906,-1.318516E-07,NaN,0.01757952,-5.874494E-07,NaN,-0.6442326,2.420676E-05,0.007085507,1.360939E-07,NaN,NaN,0.1816094,1.16414E-10,-4.045526E-07,-1.096519E-07,-1.829499E-08,-2.861022E-08
889.5709,-0.2321376,3.623538E-09,NaN,-0.4319055,-1.318517E-07,NaN,0.0187464,-5.874975E-07,NaN,-0.6460521,2.420714E-05,0.003793389,1.361433E-07,NaN,NaN,0.1826495,1.117574E-10,-3.902475E-07,-1.096519E-07,-2.425546E-08,-2.622604E-08
889.587,-0.2321056,3.624158E-09,NaN,-0.431981,-1.318518E-07,NaN,0.01980873,-5.875447E-07,NaN,-0.6479676,2.420752E-05,0.0002876937,1.361916E-07,NaN,NaN,0.1836692,1.071008E-10,-3.687898E-07,-1.096519E-07,-2.067918E-08,-2.861022E-08
889.6029,-0.2320587,3.624778E-09,NaN,-0.4321029,-1.318519E-07,NaN,0.02069092,-5.875908E-07,NaN,-0.6499079,2.42079E-05,-0.003225296,1.362389E-07,NaN,NaN,0.1846689,1.071008E-10,-3.503124E-07,-1.096519E-07,-1.591081E-08,-2.622604E-08
889.6187,-0.2320587,3.624778E-09,NaN,-0.4321029,-1.318519E-07,NaN,0.02069092,-5.875908E-07,NaN,-0.6499079,2.42079E-05,-0.003225296,1.362389E-07,NaN,NaN,0.1846689,1.071008E-10,-3.503124E-07,-1.096519E-07,-1.591081E-08,-2.622604E-08
889.6337,-0.2320026,3.625397E-09,NaN,-0.4322531,-1.31852E-07,NaN,0.02141022,-5.87636E-07,NaN,-0.6518397,2.420828E-05,-0.006675172,1.362853E-07,NaN,NaN,0.185649,1.024442E-10,-3.306428E-07,-1.096519E-07,-1.114244E-08,-2.861022E-08
889.6502,-0.231908,3.626017E-09,NaN,-0.4325246,-1.318521E-07,NaN,0.02230216,-5.876803E-07,NaN,-0.6542726,2.420866E-05,-0.01072964,1.363307E-07,NaN,NaN,0.186924,9.778756E-11,-3.151457E-07,-1.096519E-07,-1.471871E-08,-2.622604E-08
889.6661,-0.2317898,3.626637E-09,NaN,-0.4328697,-1.318522E-07,NaN,0.02308181,-5.877236E-07,NaN,-0.6567901,2.420904E-05,-0.01498456,1.363752E-07,NaN,NaN,0.188174,9.778756E-11,-2.954761E-07,-1.096519E-07,-1.471871E-08,-2.861022E-08
889.6817,-0.2316573,3.627256E-09,NaN,-0.4332587,-1.318523E-07,NaN,0.0236742,-5.877661E-07,NaN,-0.659321,2.420942E-05,-0.01923175,1.364188E-07,NaN,NaN,0.1893995,9.313095E-11,-2.728264E-07,-1.096519E-07,-1.591081E-08,-2.622604E-08
889.6978,-0.2316573,3.627256E-09,NaN,-0.4332587,-1.318523E-07,NaN,0.0236742,-5.877661E-07,NaN,-0.659321,2.420942E-05,-0.01923175,1.364188E-07,NaN,NaN,0.1893995,9.313095E-11,-2.728264E-07,-1.096519E-07,-1.591081E-08,-2.622604E-08
889.7127,-0.2315163,3.627876E-09,NaN,-0.4336731,-1.318524E-07,NaN,0.02409787,-5.878076E-07,NaN,-0.6618323,2.42098E-05,-0.02340069,1.364615E-07,NaN,NaN,0.190601,9.313095E-11,-2.543489E-07,-1.096518E-07,-1.471871E-08,-2.861022E-08
889.7307,-0.2313378,3.628496E-09,NaN,-0.4342059,-1.318525E-07,NaN,0.02467727,-5.878483E-07,NaN,-0.6648333,2.421018E-05,-0.02815777,1.365033E-07,NaN,NaN,0.1920931,8.847433E-11,-2.382557E-07,-1.096518E-07,-8.75825E-09,-2.622604E-08
889.7449,-0.2311364,3.629116E-09,NaN,-0.4348092,-1.318526E-07,NaN,0.02513571,-5.878881E-07,NaN,-0.6679077,2.421056E-05,-0.03310205,1.365443E-07,NaN,NaN,0.1935559,8.381772E-11,-2.16202E-07,-1.096518E-07,-3.989879E-09,-2.861022E-08
889.7607,-0.2309218,3.629736E-09,NaN,-0.4354534,-1.318527E-07,NaN,0.02540022,-5.879271E-07,NaN,-0.6709847,2.421094E-05,-0.03802423,1.365845E-07,NaN,NaN,0.19499,7.91611E-11,-1.953403E-07,-1.096518E-07,-5.181971E-09,-2.622604E-08
889.7769,-0.2309218,3.629736E-09,NaN,-0.4354534,-1.318527E-07,NaN,0.02540022,-5.879271E-07,NaN,-0.6709847,2.421094E-05,-0.03802423,1.365845E-07,NaN,NaN,0.19499,7.91611E-11,-1.953403E-07,-1.096518E-07,-5.181971E-09,-2.622604E-08
889.7916,-0.2306997,3.630356E-09,NaN,-0.4361199,-1.318528E-07,NaN,0.02549107,-5.879652E-07,NaN,-0.6740319,2.421132E-05,-0.04285387,1.366238E-07,NaN,NaN,0.1963961,7.91611E-11,-1.768629E-07,-1.096518E-07,-2.797786E-09,-2.861022E-08
889.8082,-0.2304409,3.630976E-09,NaN,-0.4369017,-1.318528E-07,NaN,0.02571962,-5.880026E-07,NaN,-0.6775577,2.421169E-05,-0.04825638,1.366623E-07,NaN,NaN,0.1980887,7.91611E-11,-1.613657E-07,-1.096518E-07,7.78493E-10,-2.622604E-08
889.8236,-0.2301604,3.631596E-09,NaN,-0.4377511,-1.318529E-07,NaN,0.02581898,-5.880391E-07,NaN,-0.6811464,2.421208E-05,-0.05383411,1.367E-07,NaN,NaN,0.1997481,7.450449E-11,-1.405041E-07,-1.096518E-07,1.970586E-09,-2.861022E-08
889.8395,-0.2301604,3.631596E-09,NaN,-0.4377511,-1.318529E-07,NaN,0.02581898,-5.880391E-07,NaN,-0.6811464,2.421208E-05,-0.05383411,1.367E-07,NaN,NaN,0.1997481,7.450449E-11,-1.405041E-07,-1.096518E-07,1.970586E-09,-2.861022E-08
889.8543,-0.2298674,3.632216E-09,NaN,-0.4386383,-1.31853E-07,NaN,0.0257186,-5.88075E-07,NaN,-0.6847277,2.421245E-05,-0.05937621,1.36737E-07,NaN,NaN,0.201375,7.450449E-11,-1.178543E-07,-1.096517E-07,-3.989878E-09,-2.622604E-08
889.8709,-0.229568,3.632836E-09,NaN,-0.4395449,-1.318531E-07,NaN,0.02544079,-5.8811E-07,NaN,-0.6882698,2.421284E-05,-0.0648123,1.367732E-07,NaN,NaN,0.2029701,6.984787E-11,-9.46085E-08,-1.096517E-07,-1.605692E-09,-2.861022E-08
889.8867,-0.2292327,3.633456E-09,NaN,-0.4405639,-1.318532E-07,NaN,0.02528202,-5.881442E-07,NaN,-0.69228,2.421321E-05,-0.07080709,1.368087E-07,NaN,NaN,0.2048479,6.984787E-11,-7.79192E-08,-1.096517E-07,7.784933E-10,-2.622604E-08
889.9024,-0.2288766,3.634077E-09,NaN,-0.4416476,-1.318533E-07,NaN,0.0249866,-5.881778E-07,NaN,-0.6963431,2.421359E-05,-0.07696613,1.368434E-07,NaN,NaN,0.206689,6.984787E-11,-5.61635E-08,-1.096517E-07,4.354772E-09,-2.861022E-08
889.9181,-0.2288766,3.634077E-09,NaN,-0.4416476,-1.318533E-07,NaN,0.0249866,-5.881778E-07,NaN,-0.6963431,2.421359E-05,-0.07696613,1.368434E-07,NaN,NaN,0.206689,6.984787E-11,-5.61635E-08,-1.096517E-07,4.354772E-09,-2.861022E-08
889.9332,-0.228509,3.634697E-09,NaN,-0.4427663,-1.318534E-07,NaN,0.02448692,-5.882107E-07,NaN,-0.7003896,2.421396E-05,-0.08307676,1.368774E-07,NaN,NaN,0.208494,6.984787E-11,-3.381176E-08,-1.096517E-07,1.031524E-08,-2.622604E-08
889.9495,-0.2281358,3.635317E-09,NaN,-0.4439015,-1.318534E-07,NaN,0.02380756,-5.882429E-07,NaN,-0.704388,2.421434E-05,-0.08906862,1.369107E-07,NaN,NaN,0.2102637,6.984787E-11,-1.146002E-08,-1.096517E-07,1.150733E-08,-2.861022E-08
889.9655,-0.2277276,3.635937E-09,NaN,-0.4451464,-1.318535E-07,NaN,0.02322845,-5.882744E-07,NaN,-0.7088445,2.421472E-05,-0.09560613,1.369433E-07,NaN,NaN,0.2123127,6.984787E-11,4.633236E-09,-1.096517E-07,5.546864E-09,-2.622604E-08
889.981,-0.2272995,3.636557E-09,NaN,-0.4464533,-1.318536E-07,NaN,0.02250636,-5.883052E-07,NaN,-0.7133447,2.421509E-05,-0.1022978,1.369753E-07,NaN,NaN,0.2143216,6.984787E-11,2.847509E-08,-1.096516E-07,7.784928E-10,-2.861022E-08
889.997,-0.2272995,3.636557E-09,NaN,-0.4464533,-1.318536E-07,NaN,0.02250636,-5.883052E-07,NaN,-0.7133447,2.421509E-05,-0.1022978,1.369753E-07,NaN,NaN,0.2143216,6.984787E-11,2.847509E-08,-1.096516E-07,7.784928E-10,-2.861022E-08
890.0119,-0.2268606,3.637177E-09,NaN,-0.4477924,-1.318537E-07,NaN,0.02157706,-5.883353E-07,NaN,-0.7178198,2.421548E-05,-0.1089288,1.370066E-07,NaN,NaN,0.2162912,6.519126E-11,5.321102E-08,-1.096516E-07,-2.797786E-09,-2.622604E-08
890.0287,-0.2264171,3.637798E-09,NaN,-0.4491454,-1.318538E-07,NaN,0.02046763,-5.883648E-07,NaN,-0.7222387,2.421585E-05,-0.115429,1.370372E-07,NaN,NaN,0.2182221,6.519126E-11,7.764892E-08,-1.096516E-07,3.162678E-09,-2.861022E-08
890.0444,-0.2259393,3.638418E-09,NaN,-0.4506054,-1.318539E-07,NaN,0.01943994,-5.883937E-07,NaN,-0.727106,2.421623E-05,-0.1224629,1.370672E-07,NaN,NaN,0.2204293,6.519126E-11,9.642439E-08,-1.096516E-07,7.93105E-09,-2.622604E-08
890.0599,-0.2259393,3.638418E-09,NaN,-0.4506054,-1.318539E-07,NaN,0.01943994,-5.883937E-07,NaN,-0.727106,2.421623E-05,-0.1224629,1.370672E-07,NaN,NaN,0.2204293,6.519126E-11,9.642439E-08,-1.096516E-07,7.93105E-09,-2.622604E-08
890.0751,-0.2254424,3.639038E-09,NaN,-0.4521247,-1.31854E-07,NaN,0.01826434,-5.884219E-07,NaN,-0.7320084,2.421661E-05,-0.1296414,1.370966E-07,NaN,NaN,0.2225932,6.519126E-11,1.205643E-07,-1.096516E-07,5.546864E-09,-2.861022E-08
890.0913,-0.2249356,3.639658E-09,NaN,-0.4536737,-1.31854E-07,NaN,0.0168804,-5.884496E-07,NaN,-0.7368778,2.421698E-05,-0.1367478,1.371254E-07,NaN,NaN,0.2247148,6.519126E-11,1.453002E-07,-1.096516E-07,4.354771E-09,-2.622604E-08
890.1077,-0.2244249,3.640278E-09,NaN,-0.455234,-1.318541E-07,NaN,0.01531786,-5.884766E-07,NaN,-0.7416839,2.421736E-05,-0.1437118,1.371536E-07,NaN,NaN,0.2267948,6.053464E-11,1.6795E-07,-1.096516E-07,3.162678E-09,-2.861022E-08
890.123,-0.2238807,3.640898E-09,NaN,-0.4568989,-1.318542E-07,NaN,0.01381912,-5.88503E-07,NaN,-0.746929,2.421774E-05,-0.1511986,1.371812E-07,NaN,NaN,0.229148,6.053464E-11,1.858314E-07,-1.096515E-07,7.784922E-10,-2.622604E-08
890.139,-0.2238807,3.640898E-09,NaN,-0.4568989,-1.318542E-07,NaN,0.01381912,-5.88503E-07,NaN,-0.746929,2.421774E-05,-0.1511986,1.371812E-07,NaN,NaN,0.229148,6.053464E-11,1.858314E-07,-1.096515E-07,7.784922E-10,-2.622604E-08
890.1539,-0.2233181,3.641519E-09,NaN,-0.4586206,-1.318543E-07,NaN,0.01216907,-5.885288E-07,NaN,-0.7522013,2.421812E-05,-0.1588213,1.372082E-07,NaN,NaN,0.2314553,6.053464E-11,2.07289E-07,-1.096515E-07,-1.605694E-09,-2.861022E-08
890.1702,-0.2227464,3.642139E-09,NaN,-0.4603695,-1.318544E-07,NaN,0.0103115,-5.885541E-07,NaN,-0.7574334,2.421849E-05,-0.1663606,1.372347E-07,NaN,NaN,0.2337173,6.053464E-11,2.302368E-07,-1.096515E-07,7.784922E-10,-2.622604E-08
890.186,-0.2221716,3.642759E-09,NaN,-0.4621273,-1.318545E-07,NaN,0.00827887,-5.885789E-07,NaN,-0.7625957,2.421887E-05,-0.1737465,1.372606E-07,NaN,NaN,0.235935,6.053464E-11,2.528866E-07,-1.096515E-07,7.784922E-10,-2.861022E-08
890.2018,-0.221564,3.643379E-09,NaN,-0.4639873,-1.318545E-07,NaN,0.006292875,-5.886002E-07,NaN,-0.768188,2.421925E-05,-0.1816457,1.372832E-07,NaN,NaN,0.2384231,6.053464E-11,2.692778E-07,-1.096515E-07,7.784922E-10,-2.622604E-08
890.2174,-0.221564,3.643379E-09,NaN,-0.4639873,-1.318545E-07,NaN,0.006292875,-5.886002E-07,NaN,-0.768188,2.421925E-05,-0.1816457,1.372832E-07,NaN,NaN,0.2384231,6.053464E-11,2.692778E-07,-1.096515E-07,7.784922E-10,-2.622604E-08
890.2325,-0.2209386,3.644E-09,NaN,-0.4659017,-1.318546E-07,NaN,0.004153748,-5.886212E-07,NaN,-0.7738003,2.421962E-05,-0.1896722,1.373052E-07,NaN,NaN,0.2408627,6.053464E-11,2.97292E-07,-1.096515E-07,3.162678E-09,-2.861022E-08
890.2501,-0.2203049,3.64462E-09,NaN,-0.467841,-1.318547E-07,NaN,0.001809909,-5.886416E-07,NaN,-0.7793661,2.422E-05,-0.1976045,1.373269E-07,NaN,NaN,0.2432545,6.053464E-11,3.217299E-07,-1.096515E-07,-3.98988E-09,-2.622604E-08
890.2647,-0.2196688,3.64524E-09,NaN,-0.4697868,-1.318548E-07,NaN,-0.000703454,-5.886616E-07,NaN,-0.7848563,2.422037E-05,-0.205373,1.37348E-07,NaN,NaN,0.2455994,6.984786E-11,3.503401E-07,-1.096514E-07,1.970585E-09,-2.861022E-08
890.2803,-0.2190005,3.645861E-09,NaN,-0.4718326,-1.318549E-07,NaN,-0.003186485,-5.886812E-07,NaN,-0.7907677,2.422074E-05,-0.2136462,1.373687E-07,NaN,NaN,0.2482121,6.984786E-11,3.694136E-07,-1.096514E-07,5.546863E-09,-2.622604E-08
890.2961,-0.2190005,3.645861E-09,NaN,-0.4718326,-1.318549E-07,NaN,-0.003186485,-5.886812E-07,NaN,-0.7907677,2.422074E-05,-0.2136462,1.373687E-07,NaN,NaN,0.2482121,6.984786E-11,3.694136E-07,-1.096514E-07,5.546863E-09,-2.622604E-08
890.3109,-0.2183152,3.646481E-09,NaN,-0.4739306,-1.31855E-07,NaN,-0.005822869,-5.887003E-07,NaN,-0.7966927,2.422111E-05,-0.2220384,1.37389E-07,NaN,NaN,0.2507739,7.916109E-11,3.935535E-07,-1.096514E-07,6.738956E-09,-2.861022E-08
890.3271,-0.2176223,3.647101E-09,NaN,-0.4760512,-1.318551E-07,NaN,-0.008659252,-5.88719E-07,NaN,-0.8025655,2.422149E-05,-0.2303261,1.374088E-07,NaN,NaN,0.2532856,7.916109E-11,4.200776E-07,-1.096514E-07,5.546863E-09,-2.622604E-08
890.3428,-0.2169276,3.647721E-09,NaN,-0.4781762,-1.318551E-07,NaN,-0.01165771,-5.887372E-07,NaN,-0.8083576,2.422186E-05,-0.23844,1.374282E-07,NaN,NaN,0.2557479,7.916109E-11,4.468997E-07,-1.096514E-07,6.738956E-09,-2.861022E-08
890.3587,-0.2169276,3.647721E-09,NaN,-0.4781762,-1.318551E-07,NaN,-0.01165771,-5.887372E-07,NaN,-0.8083576,2.422186E-05,-0.23844,1.374282E-07,NaN,NaN,0.2557479,7.916109E-11,4.468997E-07,-1.096514E-07,6.738956E-09,-2.861022E-08
890.3738,-0.2162013,3.648341E-09,NaN,-0.480399,-1.318552E-07,NaN,-0.0146413,-5.887551E-07,NaN,-0.8145626,2.422223E-05,-0.2470511,1.374472E-07,NaN,NaN,0.2584759,8.847431E-11,4.647811E-07,-1.096514E-07,7.931049E-09,-2.622604E-08
890.3902,-0.2154586,3.648961E-09,NaN,-0.4826717,-1.318553E-07,NaN,-0.01777697,-5.887725E-07,NaN,-0.8207754,2.422261E-05,-0.2557732,1.374658E-07,NaN,NaN,0.2611506,8.847431E-11,4.924972E-07,-1.096514E-07,1.150733E-08,-2.861022E-08
890.4061,-0.214709,3.649582E-09,NaN,-0.4849651,-1.318554E-07,NaN,-0.0211061,-5.887896E-07,NaN,-0.8269311,2.422299E-05,-0.2643805,1.37484E-07,NaN,NaN,0.2637729,8.847431E-11,5.220015E-07,-1.096513E-07,1.269942E-08,-2.622604E-08
890.4217,-0.2139583,3.650202E-09,NaN,-0.4872607,-1.318555E-07,NaN,-0.02458811,-5.888062E-07,NaN,-0.8330015,2.422337E-05,-0.2728044,1.375018E-07,NaN,NaN,0.2663438,8.847431E-11,5.464394E-07,-1.096513E-07,9.123141E-09,-2.861022E-08
890.4379,-0.2139583,3.650202E-09,NaN,-0.4872607,-1.318555E-07,NaN,-0.02458811,-5.888062E-07,NaN,-0.8330015,2.422337E-05,-0.2728044,1.375018E-07,NaN,NaN,0.2663438,8.847431E-11,5.464394E-07,-1.096513E-07,9.123141E-09,-2.861022E-08
890.4526,-0.2131766,3.650822E-09,NaN,-0.489652,-1.318556E-07,NaN,-0.02806991,-5.888225E-07,NaN,-0.8394768,2.422375E-05,-0.2817193,1.375192E-07,NaN,NaN,0.2691781,8.38177E-11,5.66705E-07,-1.096513E-07,1.150733E-08,-2.622604E-08
890.4692,-0.2123791,3.651442E-09,NaN,-0.4920913,-1.318557E-07,NaN,-0.03170115,-5.888384E-07,NaN,-0.8459548,2.422414E-05,-0.2907371,1.375363E-07,NaN,NaN,0.2719571,7.916108E-11,5.941232E-07,-1.096513E-07,9.123141E-09,-2.861022E-08
890.4848,-0.2115752,3.652062E-09,NaN,-0.4945491,-1.318557E-07,NaN,-0.03551766,-5.888539E-07,NaN,-0.8523715,2.422452E-05,-0.2996301,1.37553E-07,NaN,NaN,0.2746817,7.450447E-11,6.209452E-07,-1.096513E-07,1.031523E-08,-2.622604E-08
890.501,-0.2107709,3.652682E-09,NaN,-0.4970073,-1.318558E-07,NaN,-0.03947634,-5.888691E-07,NaN,-0.8586991,2.422491E-05,-0.3083307,1.375693E-07,NaN,NaN,0.2773528,6.984785E-11,6.491084E-07,-1.096513E-07,9.123141E-09,-2.861022E-08
890.5166,-0.2107709,3.652682E-09,NaN,-0.4970073,-1.318558E-07,NaN,-0.03947634,-5.888691E-07,NaN,-0.8586991,2.422491E-05,-0.3083307,1.375693E-07,NaN,NaN,0.2773528,6.984785E-11,6.491084E-07,-1.096513E-07,9.123141E-09,-2.861022E-08
890.5316,-0.2099361,3.653303E-09,NaN,-0.4995591,-1.318559E-07,NaN,-0.04344878,-5.888839E-07,NaN,-0.8654239,2.42253E-05,-0.317517,1.375853E-07,NaN,NaN,0.2802854,6.519123E-11,6.662448E-07,-1.096513E-07,1.389151E-08,-2.622604E-08
890.5479,-0.209086,3.653923E-09,NaN,-0.502157,-1.31856E-07,NaN,-0.04756678,-5.888984E-07,NaN,-0.872147,2.422568E-05,-0.3267979,1.376009E-07,NaN,NaN,0.2831607,6.053462E-11,6.905337E-07,-1.096513E-07,1.269942E-08,-2.861022E-08
890.5638,-0.2082303,3.654544E-09,NaN,-0.5047715,-1.318561E-07,NaN,-0.05186041,-5.889125E-07,NaN,-0.878805,2.422607E-05,-0.3359443,1.376162E-07,NaN,NaN,0.2859797,5.587801E-11,7.192929E-07,-1.096513E-07,1.62757E-08,-2.622604E-08
890.5797,-0.2082303,3.654544E-09,NaN,-0.5047715,-1.318561E-07,NaN,-0.05186041,-5.889125E-07,NaN,-0.878805,2.422607E-05,-0.3359443,1.376162E-07,NaN,NaN,0.2859797,5.587801E-11,7.192929E-07,-1.096513E-07,1.62757E-08,-2.622604E-08
890.5948,-0.207341,3.655164E-09,NaN,-0.507489,-1.318562E-07,NaN,-0.05622397,-5.889264E-07,NaN,-0.8858654,2.422645E-05,-0.3455791,1.376311E-07,NaN,NaN,0.2890572,5.12214E-11,7.382174E-07,-1.096513E-07,1.62757E-08,-2.861022E-08
890.6113,-0.2064349,3.655785E-09,NaN,-0.5102574,-1.318563E-07,NaN,-0.06076234,-5.889398E-07,NaN,-0.892925,2.422684E-05,-0.3552917,1.376458E-07,NaN,NaN,0.2920746,4.656478E-11,7.666786E-07,-1.096513E-07,1.865988E-08,-2.622604E-08
890.6272,-0.2055224,3.656405E-09,NaN,-0.5130445,-1.318563E-07,NaN,-0.065488,-5.88953E-07,NaN,-0.8999175,2.422722E-05,-0.36485,1.376601E-07,NaN,NaN,0.2950329,4.190817E-11,7.951398E-07,-1.096513E-07,1.985198E-08,-2.861022E-08
890.6431,-0.2046099,3.657026E-09,NaN,-0.5158307,-1.318564E-07,NaN,-0.07034492,-5.889658E-07,NaN,-0.9068143,2.422761E-05,-0.3741905,1.37674E-07,NaN,NaN,0.2979333,3.725156E-11,8.206953E-07,-1.096512E-07,1.746779E-08,-2.622604E-08
890.6586,-0.2046099,3.657026E-09,NaN,-0.5158307,-1.318564E-07,NaN,-0.07034492,-5.889658E-07,NaN,-0.9068143,2.422761E-05,-0.3741905,1.37674E-07,NaN,NaN,0.2979333,3.725156E-11,8.206953E-07,-1.096512E-07,1.746779E-08,-2.622604E-08
890.6739,-0.2036673,3.657646E-09,NaN,-0.5187083,-1.318565E-07,NaN,-0.07524548,-5.889783E-07,NaN,-0.914093,2.422799E-05,-0.3840015,1.376877E-07,NaN,NaN,0.3010904,3.259495E-11,8.390238E-07,-1.096512E-07,1.269942E-08,-2.861022E-08
890.6901,-0.2027104,3.658267E-09,NaN,-0.521629,-1.318566E-07,NaN,-0.08028598,-5.889905E-07,NaN,-0.9213613,2.422838E-05,-0.3938854,1.377011E-07,NaN,NaN,0.3041859,2.793834E-11,8.645047E-07,-1.096512E-07,9.123142E-09,-2.622604E-08
890.7061,-0.2017488,3.658888E-09,NaN,-0.524563,-1.318567E-07,NaN,-0.08548418,-5.890025E-07,NaN,-0.928557,2.422877E-05,-0.4036121,1.377142E-07,NaN,NaN,0.3072208,2.328172E-11,8.933385E-07,-1.096512E-07,1.269942E-08,-2.861022E-08
890.7217,-0.2007885,3.659509E-09,NaN,-0.5274919,-1.318567E-07,NaN,-0.09079009,-5.890141E-07,NaN,-0.9356533,2.422915E-05,-0.4131188,1.37727E-07,NaN,NaN,0.3101962,1.862511E-11,9.215762E-07,-1.096512E-07,4.950818E-09,-2.622604E-08
890.7379,-0.2007885,3.659509E-09,NaN,-0.5274919,-1.318567E-07,NaN,-0.09079009,-5.890141E-07,NaN,-0.9356533,2.422915E-05,-0.4131188,1.37727E-07,NaN,NaN,0.3101962,1.862511E-11,9.215762E-07,-1.096512E-07,4.950818E-09,-2.622604E-08
890.7542,-0.1997989,3.66013E-09,NaN,-0.5305092,-1.318568E-07,NaN,-0.09614803,-5.890255E-07,NaN,-0.9431235,2.422954E-05,-0.423097,1.377395E-07,NaN,NaN,0.3134269,1.862511E-11,9.387498E-07,-1.096512E-07,7.784924E-10,-2.861022E-08
890.7691,-0.1987959,3.660752E-09,NaN,-0.533567,-1.318569E-07,NaN,-0.1016371,-5.890366E-07,NaN,-0.9505808,2.422992E-05,-0.433141,1.377517E-07,NaN,NaN,0.3165946,1.862511E-11,9.653111E-07,-1.096512E-07,4.950818E-09,-2.622604E-08
890.7847,-0.1977888,3.661373E-09,NaN,-0.5366359,-1.318569E-07,NaN,-0.1072698,-5.890474E-07,NaN,-0.9579636,2.423031E-05,-0.4430196,1.377636E-07,NaN,NaN,0.3197002,1.862511E-11,9.900471E-07,-1.096512E-07,4.354771E-09,-2.861022E-08
890.8004,-0.1967836,3.661994E-09,NaN,-0.5396978,-1.31857E-07,NaN,-0.1129948,-5.890579E-07,NaN,-0.9652451,2.423069E-05,-0.4526718,1.377753E-07,NaN,NaN,0.3227449,1.862511E-11,1.015323E-06,-1.096512E-07,7.784926E-10,-2.622604E-08
890.8165,-0.1967836,3.661994E-09,NaN,-0.5396978,-1.31857E-07,NaN,-0.1129948,-5.890579E-07,NaN,-0.9652451,2.423069E-05,-0.4526718,1.377753E-07,NaN,NaN,0.3227449,1.862511E-11,1.015323E-06,-1.096512E-07,7.784926E-10,-2.622604E-08
890.8315,-0.1957496,3.662616E-09,NaN,-0.5428462,-1.318571E-07,NaN,-0.1187844,-5.890682E-07,NaN,-0.9728938,2.423108E-05,-0.4627941,1.377868E-07,NaN,NaN,0.3260435,1.862511E-11,1.031365E-06,-1.096512E-07,1.970585E-09,-2.861022E-08
890.8479,-0.1947027,3.663237E-09,NaN,-0.5460334,-1.318571E-07,NaN,-0.1246978,-5.890782E-07,NaN,-0.980528,2.423147E-05,-0.472973,1.377979E-07,NaN,NaN,0.3292778,1.862511E-11,1.055611E-06,-1.096512E-07,-2.20174E-09,-2.622604E-08
890.8639,-0.1936522,3.663858E-09,NaN,-0.54923,-1.318572E-07,NaN,-0.1307407,-5.89088E-07,NaN,-0.9880863,2.423185E-05,-0.4829775,1.378088E-07,NaN,NaN,0.3324488,1.862511E-11,1.080198E-06,-1.096512E-07,-6.970111E-09,-2.861022E-08
890.8795,-0.1936522,3.663858E-09,NaN,-0.54923,-1.318572E-07,NaN,-0.1307407,-5.89088E-07,NaN,-0.9880863,2.423185E-05,-0.4829775,1.378088E-07,NaN,NaN,0.3324488,1.862511E-11,1.080198E-06,-1.096512E-07,-6.970111E-09,-2.861022E-08
890.8948,-0.1926041,3.66448E-09,NaN,-0.552418,-1.318573E-07,NaN,-0.1368603,-5.890975E-07,NaN,-0.9955423,2.423224E-05,-0.4927492,1.378195E-07,NaN,NaN,0.3355575,1.862511E-11,1.104245E-06,-1.096512E-07,-6.970111E-09,-2.622604E-08
890.911,-0.1915277,3.665101E-09,NaN,-0.555691,-1.318574E-07,NaN,-0.1430574,-5.891067E-07,NaN,-1.003359,2.423262E-05,-0.5029901,1.378299E-07,NaN,NaN,0.3389189,1.862511E-11,1.120226E-06,-1.096512E-07,-7.566157E-09,-2.861022E-08
890.9271,-0.1904386,3.665723E-09,NaN,-0.5590013,-1.318574E-07,NaN,-0.1493703,-5.891158E-07,NaN,-1.01116,2.423301E-05,-0.5132778,1.378401E-07,NaN,NaN,0.3422148,1.862511E-11,1.143211E-06,-1.096511E-07,-7.566157E-09,-2.622604E-08
890.9429,-0.1893467,3.666345E-09,NaN,-0.5623195,-1.318575E-07,NaN,-0.1557981,-5.891246E-07,NaN,-1.018884,2.423339E-05,-0.5233823,1.378501E-07,NaN,NaN,0.345446,1.862511E-11,1.16668E-06,-1.096511E-07,-5.778018E-09,-2.861022E-08
890.9584,-0.1893467,3.666345E-09,NaN,-0.5623195,-1.318575E-07,NaN,-0.1557981,-5.891246E-07,NaN,-1.018884,2.423339E-05,-0.5233823,1.378501E-07,NaN,NaN,0.345446,1.862511E-11,1.16668E-06,-1.096511E-07,-5.778018E-09,-2.861022E-08
890.9738,-0.1882575,3.666966E-09,NaN,-0.5656276,-1.318576E-07,NaN,-0.1622869,-5.891332E-07,NaN,-1.026505,2.423378E-05,-0.5332483,1.378598E-07,NaN,NaN,0.3486139,1.862511E-11,1.19164E-06,-1.096511E-07,-3.989879E-09,-2.622604E-08
890.99,-0.1871403,3.667588E-09,NaN,-0.5690192,-1.318576E-07,NaN,-0.1688662,-5.891415E-07,NaN,-1.034479,2.423416E-05,-0.5435833,1.378693E-07,NaN,NaN,0.3520333,1.862511E-11,1.204008E-06,-1.096511E-07,-3.393832E-09,-2.861022E-08
891.006,-0.186011,3.66821E-09,NaN,-0.5724466,-1.318577E-07,NaN,-0.175553,-5.891496E-07,NaN,-1.042438,2.423455E-05,-0.5539545,1.378786E-07,NaN,NaN,0.3553859,1.862511E-11,1.228744E-06,-1.096511E-07,-5.181972E-09,-2.622604E-08
891.0212,-0.1848791,3.668832E-09,NaN,-0.5758805,-1.318578E-07,NaN,-0.1823397,-5.891575E-07,NaN,-1.05032,2.423494E-05,-0.5641342,1.378876E-07,NaN,NaN,0.3586729,1.862511E-11,1.253182E-06,-1.096511E-07,-1.173848E-08,-2.861022E-08
891.0372,-0.1848791,3.668832E-09,NaN,-0.5758805,-1.318578E-07,NaN,-0.1823397,-5.891575E-07,NaN,-1.05032,2.423494E-05,-0.5641342,1.378876E-07,NaN,NaN,0.3586729,1.862511E-11,1.253182E-06,-1.096511E-07,-1.173848E-08,-2.861022E-08
891.0521,-0.1837506,3.669454E-09,NaN,-0.579303,-1.318579E-07,NaN,-0.1891716,-5.891652E-07,NaN,-1.058097,2.423532E-05,-0.5740706,1.378965E-07,NaN,NaN,0.3618954,1.862511E-11,1.275534E-06,-1.096511E-07,-6.970111E-09,-2.622604E-08
891.0688,-0.1825943,3.670076E-09,NaN,-0.5828075,-1.318579E-07,NaN,-0.1961074,-5.891727E-07,NaN,-1.066222,2.423571E-05,-0.5844758,1.379051E-07,NaN,NaN,0.3653683,1.862511E-11,1.286113E-06,-1.096511E-07,-7.566157E-09,-2.861022E-08
891.0844,-0.1814263,3.670698E-09,NaN,-0.5863466,-1.31858E-07,NaN,-0.2031421,-5.8918E-07,NaN,-1.074331,2.423609E-05,-0.5949063,1.379136E-07,NaN,NaN,0.3687735,1.862511E-11,1.30623E-06,-1.096511E-07,-6.672088E-09,-2.622604E-08
891.1003,-0.1802562,3.67132E-09,NaN,-0.5898907,-1.318581E-07,NaN,-0.2102614,-5.891871E-07,NaN,-1.082363,2.423648E-05,-0.6051376,1.379218E-07,NaN,NaN,0.3721119,1.862511E-11,1.325303E-06,-1.096511E-07,-3.691856E-09,-2.861022E-08
891.1158,-0.1802562,3.67132E-09,NaN,-0.5898907,-1.318581E-07,NaN,-0.2102614,-5.891871E-07,NaN,-1.082363,2.423648E-05,-0.6051376,1.379218E-07,NaN,NaN,0.3721119,1.862511E-11,1.325303E-06,-1.096511E-07,-3.691856E-09,-2.861022E-08
891.1308,-0.1790899,3.671942E-09,NaN,-0.5934219,-1.318581E-07,NaN,-0.2174102,-5.89194E-07,NaN,-1.09029,2.423686E-05,-0.6151214,1.379298E-07,NaN,NaN,0.3753849,1.862511E-11,1.342291E-06,-1.096511E-07,-4.883948E-09,-2.622604E-08
891.1473,-0.1778961,3.672564E-09,NaN,-0.5970341,-1.318582E-07,NaN,-0.2246768,-5.892007E-07,NaN,-1.098558,2.423725E-05,-0.6255742,1.379377E-07,NaN,NaN,0.3789072,1.862511E-11,1.350188E-06,-1.096511E-07,-5.181972E-09,-2.861022E-08
891.1628,-0.176691,3.673186E-09,NaN,-0.6006793,-1.318583E-07,NaN,-0.2320335,-5.892072E-07,NaN,-1.10681,2.423764E-05,-0.6360408,1.379453E-07,NaN,NaN,0.3823609,1.862511E-11,1.370007E-06,-1.096511E-07,-7.566157E-09,-2.622604E-08
891.1788,-0.176691,3.673186E-09,NaN,-0.6006793,-1.318583E-07,NaN,-0.2320335,-5.892072E-07,NaN,-1.10681,2.423764E-05,-0.6360408,1.379453E-07,NaN,NaN,0.3823609,1.862511E-11,1.370007E-06,-1.096511E-07,-7.566157E-09,-2.622604E-08
891.1939,-0.1754843,3.673809E-09,NaN,-0.6043284,-1.318584E-07,NaN,-0.2394593,-5.892135E-07,NaN,-1.114985,2.423802E-05,-0.6463012,1.379528E-07,NaN,NaN,0.3857468,1.862511E-11,1.388931E-06,-1.096511E-07,-1.382464E-08,-2.861022E-08
891.2101,-0.1742818,3.674431E-09,NaN,-0.6079633,-1.318584E-07,NaN,-0.2468991,-5.892196E-07,NaN,-1.123055,2.423841E-05,-0.6563112,1.379601E-07,NaN,NaN,0.3890664,1.862511E-11,1.405025E-06,-1.09651E-07,-1.591081E-08,-2.622604E-08
891.226,-0.1730521,3.675054E-09,NaN,-0.6116779,-1.318585E-07,NaN,-0.2544712,-5.892256E-07,NaN,-1.131459,2.423879E-05,-0.6667899,1.379673E-07,NaN,NaN,0.3926345,1.862511E-11,1.410091E-06,-1.09651E-07,-1.352662E-08,-2.861022E-08
891.2419,-0.1718114,3.675676E-09,NaN,-0.6154243,-1.318586E-07,NaN,-0.2621242,-5.892314E-07,NaN,-1.139849,2.423918E-05,-0.6772709,1.379742E-07,NaN,NaN,0.3961329,1.862511E-11,1.427078E-06,-1.09651E-07,-1.754993E-08,-2.622604E-08
891.2574,-0.1718114,3.675676E-09,NaN,-0.6154243,-1.318586E-07,NaN,-0.2621242,-5.892314E-07,NaN,-1.139849,2.423918E-05,-0.6772709,1.379742E-07,NaN,NaN,0.3961329,1.862511E-11,1.427078E-06,-1.09651E-07,-1.754993E-08,-2.622604E-08
891.2741,-0.1705695,3.676298E-09,NaN,-0.6191732,-1.318586E-07,NaN,-0.2698306,-5.89237E-07,NaN,-1.148162,2.423956E-05,-0.6875395,1.37981E-07,NaN,NaN,0.3995628,1.862511E-11,1.444662E-06,-1.09651E-07,-1.665587E-08,-2.861022E-08
891.289,-0.1693322,3.676921E-09,NaN,-0.6229069,-1.318587E-07,NaN,-0.2775361,-5.892425E-07,NaN,-1.156368,2.423995E-05,-0.6975558,1.379876E-07,NaN,NaN,0.4029254,1.862511E-11,1.456583E-06,-1.09651E-07,-1.814598E-08,-2.622604E-08
891.305,-0.168068,3.677544E-09,NaN,-0.6267189,-1.318588E-07,NaN,-0.285389,-5.892477E-07,NaN,-1.164904,2.424033E-05,-0.7080401,1.379941E-07,NaN,NaN,0.4065358,1.862511E-11,1.460457E-06,-1.09651E-07,-2.008313E-08,-2.861022E-08
891.3206,-0.1667931,3.678166E-09,NaN,-0.6305616,-1.318589E-07,NaN,-0.2933133,-5.892529E-07,NaN,-1.173426,2.424072E-05,-0.718515,1.380004E-07,NaN,NaN,0.4100757,1.862511E-11,1.476252E-06,-1.09651E-07,-1.97106E-08,-2.622604E-08
891.3365,-0.1667931,3.678166E-09,NaN,-0.6305616,-1.318589E-07,NaN,-0.2933133,-5.892529E-07,NaN,-1.173426,2.424072E-05,-0.718515,1.380004E-07,NaN,NaN,0.4100757,1.862511E-11,1.476252E-06,-1.09651E-07,-1.97106E-08,-2.622604E-08
891.3514,-0.1655175,3.678789E-09,NaN,-0.6344057,-1.318589E-07,NaN,-0.3012755,-5.892579E-07,NaN,-1.181871,2.424111E-05,-0.7287728,1.380065E-07,NaN,NaN,0.4135462,1.862511E-11,1.490557E-06,-1.09651E-07,-1.732642E-08,-2.861022E-08
891.3679,-0.164247,3.679412E-09,NaN,-0.6382334,-1.31859E-07,NaN,-0.3092221,-5.892627E-07,NaN,-1.19021,2.424149E-05,-0.7387773,1.380125E-07,NaN,NaN,0.4169487,1.862511E-11,1.503372E-06,-1.09651E-07,-2.071643E-08,-2.622604E-08
891.3835,-0.1629496,3.680034E-09,NaN,-0.6421382,-1.318591E-07,NaN,-0.3173318,-5.892674E-07,NaN,-1.198871,2.424188E-05,-0.7492484,1.380184E-07,NaN,NaN,0.4205981,1.862511E-11,1.506651E-06,-1.09651E-07,-1.958022E-08,-2.861022E-08
891.3992,-0.1629496,3.680034E-09,NaN,-0.6421382,-1.318591E-07,NaN,-0.3173318,-5.892674E-07,NaN,-1.198871,2.424188E-05,-0.7492484,1.380184E-07,NaN,NaN,0.4205981,1.862511E-11,1.506651E-06,-1.09651E-07,-1.958022E-08,-2.861022E-08
891.4142,-0.161642,3.680657E-09,NaN,-0.6460726,-1.318591E-07,NaN,-0.3255031,-5.892719E-07,NaN,-1.207521,2.424226E-05,-0.7596987,1.38024E-07,NaN,NaN,0.4241762,1.862511E-11,1.520062E-06,-1.09651E-07,-1.789453E-08,-2.622604E-08
891.4308,-0.160334,3.68128E-09,NaN,-0.6500072,-1.318592E-07,NaN,-0.333697,-5.892763E-07,NaN,-1.216093,2.424265E-05,-0.7699281,1.380296E-07,NaN,NaN,0.4276842,1.862511E-11,1.531386E-06,-1.09651E-07,-1.346143E-08,-2.861022E-08
891.4464,-0.1590315,3.681903E-09,NaN,-0.6539243,-1.318593E-07,NaN,-0.3418611,-5.892805E-07,NaN,-1.224559,2.424303E-05,-0.7799048,1.38035E-07,NaN,NaN,0.4311234,1.862511E-11,1.540923E-06,-1.09651E-07,-1.524957E-08,-2.622604E-08
891.4622,-0.1577024,3.682526E-09,NaN,-0.6579176,-1.318594E-07,NaN,-0.3502047,-5.892846E-07,NaN,-1.233341,2.424342E-05,-0.7903452,1.380402E-07,NaN,NaN,0.4348088,1.862511E-11,1.536751E-06,-1.09651E-07,-1.30144E-08,-2.861022E-08
891.4778,-0.1577024,3.682526E-09,NaN,-0.6579176,-1.318594E-07,NaN,-0.3502047,-5.892846E-07,NaN,-1.233341,2.424342E-05,-0.7903452,1.380402E-07,NaN,NaN,0.4348088,1.862511E-11,1.536751E-06,-1.09651E-07,-1.30144E-08,-2.861022E-08
891.4929,-0.1563634,3.683149E-09,NaN,-0.6619392,-1.318594E-07,NaN,-0.3585997,-5.892886E-07,NaN,-1.242113,2.42438E-05,-0.8007538,1.380454E-07,NaN,NaN,0.4384222,2.328172E-11,1.542413E-06,-1.096509E-07,-1.673969E-08,-2.622604E-08
891.5091,-0.1550244,3.683772E-09,NaN,-0.66596,-1.318595E-07,NaN,-0.367002,-5.892924E-07,NaN,-1.250808,2.424417E-05,-0.8109397,1.380504E-07,NaN,NaN,0.4419648,2.793834E-11,1.54599E-06,-1.096509E-07,-1.450451E-08,-2.861022E-08
891.5247,-0.1536912,3.684395E-09,NaN,-0.6699622,-1.318596E-07,NaN,-0.3753614,-5.892961E-07,NaN,-1.259396,2.424454E-05,-0.8208746,1.380552E-07,NaN,NaN,0.445438,3.259495E-11,1.549864E-06,-1.096509E-07,-1.465352E-08,-2.622604E-08
891.5405,-0.1523316,3.685018E-09,NaN,-0.6740395,-1.318596E-07,NaN,-0.3839169,-5.892997E-07,NaN,-1.268296,2.424492E-05,-0.8312687,1.380599E-07,NaN,NaN,0.4491567,3.725156E-11,1.54748E-06,-1.096509E-07,-2.016695E-08,-2.861022E-08
891.5561,-0.1523316,3.685018E-09,NaN,-0.6740395,-1.318596E-07,NaN,-0.3839169,-5.892997E-07,NaN,-1.268296,2.424492E-05,-0.8312687,1.380599E-07,NaN,NaN,0.4491567,3.725156E-11,1.54748E-06,-1.096509E-07,-2.016695E-08,-2.861022E-08
891.5712,-0.1509625,3.685641E-09,NaN,-0.6781442,-1.318597E-07,NaN,-0.3925135,-5.893032E-07,NaN,-1.277186,2.424528E-05,-0.8416211,1.380646E-07,NaN,NaN,0.4528027,4.656479E-11,1.547778E-06,-1.096509E-07,-2.016695E-08,-2.622604E-08
891.5876,-0.1495937,3.686264E-09,NaN,-0.682247,-1.318598E-07,NaN,-0.4011025,-5.893065E-07,NaN,-1.285999,2.424565E-05,-0.8517506,1.38069E-07,NaN,NaN,0.4563774,5.587801E-11,1.548672E-06,-1.096509E-07,-1.599463E-08,-2.861022E-08
891.6031,-0.1482312,3.686886E-09,NaN,-0.6863303,-1.318598E-07,NaN,-0.409636,-5.893097E-07,NaN,-1.294705,2.424603E-05,-0.8616321,1.380734E-07,NaN,NaN,0.4598819,5.587801E-11,1.546287E-06,-1.096509E-07,-1.271637E-08,-2.622604E-08
891.6194,-0.1482312,3.686886E-09,NaN,-0.6863303,-1.318598E-07,NaN,-0.409636,-5.893097E-07,NaN,-1.294705,2.424603E-05,-0.8616321,1.380734E-07,NaN,NaN,0.4598819,5.587801E-11,1.546287E-06,-1.096509E-07,-1.271637E-08,-2.622604E-08
891.6337,-0.1468424,3.687509E-09,NaN,-0.6904876,-1.318599E-07,NaN,-0.4183827,-5.893128E-07,NaN,-1.303716,2.42464E-05,-0.8719662,1.380776E-07,NaN,NaN,0.4636315,5.587801E-11,1.538241E-06,-1.096509E-07,-1.748474E-08,-2.861022E-08
891.6501,-0.1454443,3.688131E-09,NaN,-0.6946713,-1.3186E-07,NaN,-0.4271598,-5.893157E-07,NaN,-1.31272,2.424677E-05,-0.8822502,1.380818E-07,NaN,NaN,0.4673077,6.519123E-11,1.533174E-06,-1.096509E-07,-1.599463E-08,-2.622604E-08
891.6658,-0.144047,3.688754E-09,NaN,-0.6988522,-1.318601E-07,NaN,-0.4359151,-5.893186E-07,NaN,-1.321648,2.424715E-05,-0.892313,1.380858E-07,NaN,NaN,0.470912,6.519123E-11,1.53079E-06,-1.096509E-07,-1.510056E-08,-2.861022E-08
891.6813,-0.1426563,3.689377E-09,NaN,-0.7030125,-1.318601E-07,NaN,-0.444603,-5.893213E-07,NaN,-1.330468,2.424752E-05,-0.9021319,1.380897E-07,NaN,NaN,0.4744456,6.984785E-11,1.525128E-06,-1.096509E-07,-1.390847E-08,-2.622604E-08
891.6974,-0.1426563,3.689377E-09,NaN,-0.7030125,-1.318601E-07,NaN,-0.444603,-5.893213E-07,NaN,-1.330468,2.424752E-05,-0.9021319,1.380897E-07,NaN,NaN,0.4744456,6.984785E-11,1.525128E-06,-1.096509E-07,-1.390847E-08,-2.622604E-08
891.7125,-0.1412395,3.689999E-09,NaN,-0.707246,-1.318602E-07,NaN,-0.4535215,-5.893239E-07,NaN,-1.339587,2.424791E-05,-0.9123943,1.380935E-07,NaN,NaN,0.4782236,6.519123E-11,1.509035E-06,-1.096509E-07,-1.212033E-08,-2.861022E-08
891.7287,-0.1398137,3.690622E-09,NaN,-0.7115049,-1.318603E-07,NaN,-0.4624594,-5.893265E-07,NaN,-1.348701,2.424829E-05,-0.9226003,1.380972E-07,NaN,NaN,0.4819278,6.984785E-11,1.50516E-06,-1.096509E-07,-7.948001E-09,-2.622604E-08
891.7444,-0.1383891,3.691245E-09,NaN,-0.7157601,-1.318603E-07,NaN,-0.4713618,-5.893289E-07,NaN,-1.357738,2.424867E-05,-0.9325883,1.381007E-07,NaN,NaN,0.4855595,6.519123E-11,1.498902E-06,-1.096509E-07,-4.967769E-09,-2.861022E-08
891.7603,-0.1369714,3.691868E-09,NaN,-0.7199938,-1.318604E-07,NaN,-0.4801861,-5.893313E-07,NaN,-1.366667,2.424905E-05,-0.9423376,1.381042E-07,NaN,NaN,0.48912,6.519123E-11,1.491749E-06,-1.096509E-07,-4.967769E-09,-2.622604E-08
891.7763,-0.1369714,3.691868E-09,NaN,-0.7199938,-1.318604E-07,NaN,-0.4801861,-5.893313E-07,NaN,-1.366667,2.424905E-05,-0.9423376,1.381042E-07,NaN,NaN,0.48912,6.519123E-11,1.491749E-06,-1.096509E-07,-4.967769E-09,-2.622604E-08
891.7922,-0.1355277,3.69249E-09,NaN,-0.7242998,-1.318605E-07,NaN,-0.4892581,-5.893363E-07,NaN,-1.375889,2.424942E-05,-0.9525189,1.381104E-07,NaN,NaN,0.4929244,6.984785E-11,1.475656E-06,-1.096509E-07,-9.140095E-09,-2.861022E-08
891.8076,-0.1340753,3.693113E-09,NaN,-0.7286303,-1.318606E-07,NaN,-0.4983386,-5.893384E-07,NaN,-1.385109,2.42498E-05,-0.9626394,1.381136E-07,NaN,NaN,0.4966544,6.984785E-11,1.461351E-06,-1.096509E-07,-4.96777E-09,-2.622604E-08
891.8231,-0.1326244,3.693736E-09,NaN,-0.7329561,-1.318606E-07,NaN,-0.5073708,-5.893403E-07,NaN,-1.394252,2.425017E-05,-0.9725472,1.381168E-07,NaN,NaN,0.5003114,6.984785E-11,1.45241E-06,-1.096509E-07,-1.391491E-09,-2.861022E-08
891.8391,-0.1326244,3.693736E-09,NaN,-0.7329561,-1.318606E-07,NaN,-0.5073708,-5.893403E-07,NaN,-1.394252,2.425017E-05,-0.9725472,1.381168E-07,NaN,NaN,0.5003114,6.984785E-11,1.45241E-06,-1.096509E-07,-1.391491E-09,-2.861022E-08
891.8541,-0.1311443,3.694358E-09,NaN,-0.7373641,-1.318607E-07,NaN,-0.5166825,-5.893422E-07,NaN,-1.4037,2.425054E-05,-0.9828735,1.381198E-07,NaN,NaN,0.5042104,7.916107E-11,1.432144E-06,-1.096509E-07,6.357112E-09,-2.622604E-08
891.87,-0.1296539,3.694981E-09,NaN,-0.741802,-1.318607E-07,NaN,-0.5260031,-5.89344E-07,NaN,-1.413151,2.425091E-05,-0.9931306,1.381227E-07,NaN,NaN,0.5080333,8.84743E-11,1.415455E-06,-1.096509E-07,9.933391E-09,-2.861022E-08
891.8859,-0.1281644,3.695603E-09,NaN,-0.7462379,-1.318608E-07,NaN,-0.5352693,-5.893485E-07,NaN,-1.422528,2.425129E-05,-1.003174,1.381284E-07,NaN,NaN,0.5117812,8.84743E-11,1.399958E-06,-1.096509E-07,9.933391E-09,-2.622604E-08
891.9014,-0.126682,3.696226E-09,NaN,-0.7506527,-1.318608E-07,NaN,-0.5444407,-5.8935E-07,NaN,-1.431794,2.425165E-05,-1.012984,1.381311E-07,NaN,NaN,0.5154557,9.778752E-11,1.385057E-06,-1.096509E-07,7.549206E-09,-2.861022E-08
891.9172,-0.126682,3.696226E-09,NaN,-0.7506527,-1.318608E-07,NaN,-0.5444407,-5.8935E-07,NaN,-1.431794,2.425165E-05,-1.012984,1.381311E-07,NaN,NaN,0.5154557,9.778752E-11,1.385057E-06,-1.096509E-07,7.549206E-09,-2.861022E-08
891.9324,-0.1251736,3.696848E-09,NaN,-0.7551393,-1.318609E-07,NaN,-0.5538886,-5.893515E-07,NaN,-1.441343,2.425203E-05,-1.023193,1.381337E-07,NaN,NaN,0.519372,9.778752E-11,1.358831E-06,-1.096509E-07,4.568974E-09,-2.622604E-08
891.9488,-0.123657,3.697471E-09,NaN,-0.759649,-1.31861E-07,NaN,-0.5633252,-5.893529E-07,NaN,-1.450891,2.425241E-05,-1.033334,1.381362E-07,NaN,NaN,0.5232117,9.778752E-11,1.337969E-06,-1.096509E-07,9.337345E-09,-2.861022E-08
891.9645,-0.1221426,3.698093E-09,NaN,-0.7641525,-1.31861E-07,NaN,-0.5726916,-5.893542E-07,NaN,-1.46036,2.425278E-05,-1.043272,1.381387E-07,NaN,NaN,0.5269762,9.778752E-11,1.314723E-06,-1.096509E-07,7.549206E-09,-2.622604E-08
891.9803,-0.1206363,3.698716E-09,NaN,-0.7686318,-1.318611E-07,NaN,-0.5819524,-5.893554E-07,NaN,-1.469715,2.425316E-05,-1.052983,1.381411E-07,NaN,NaN,0.530667,9.778752E-11,1.295054E-06,-1.096509E-07,8.145252E-09,-2.861022E-08
891.996,-0.1206363,3.698716E-09,NaN,-0.7686318,-1.318611E-07,NaN,-0.5819524,-5.893554E-07,NaN,-1.469715,2.425316E-05,-1.052983,1.381411E-07,NaN,NaN,0.530667,9.778752E-11,1.295054E-06,-1.096509E-07,8.145252E-09,-2.861022E-08
892.0108,-0.1191043,3.699338E-09,NaN,-0.7731807,-1.318611E-07,NaN,-0.5915044,-5.893565E-07,NaN,-1.479348,2.425354E-05,-1.063076,1.381434E-07,NaN,NaN,0.5345992,9.778752E-11,1.264059E-06,-1.096509E-07,8.145252E-09,-2.622604E-08
892.027,-0.1175647,3.69996E-09,NaN,-0.7777511,-1.318612E-07,NaN,-0.6010348,-5.893576E-07,NaN,-1.48898,2.425391E-05,-1.073104,1.381456E-07,NaN,NaN,0.5384546,9.778752E-11,1.239621E-06,-1.096509E-07,7.549206E-09,-2.861022E-08
892.043,-0.1160277,3.700583E-09,NaN,-0.7823141,-1.318612E-07,NaN,-0.6104843,-5.893585E-07,NaN,-1.498534,2.425429E-05,-1.082937,1.381477E-07,NaN,NaN,0.5422344,9.778752E-11,1.213395E-06,-1.096509E-07,5.16502E-09,-2.622604E-08
892.0584,-0.1160277,3.700583E-09,NaN,-0.7823141,-1.318612E-07,NaN,-0.6104843,-5.893585E-07,NaN,-1.498534,2.425429E-05,-1.082937,1.381477E-07,NaN,NaN,0.5422344,9.778752E-11,1.213395E-06,-1.096509E-07,5.16502E-09,-2.622604E-08
892.0739,-0.1144993,3.701205E-09,NaN,-0.7868518,-1.318613E-07,NaN,-0.6198204,-5.893623E-07,NaN,-1.507973,2.425466E-05,-1.092554,1.381526E-07,NaN,NaN,0.5459402,9.778752E-11,1.185977E-06,-1.096509E-07,-3.17963E-09,-2.861022E-08
892.0899,-0.1143696,3.701828E-09,NaN,-0.7874882,-1.318614E-07,NaN,-0.612941,-5.893631E-07,NaN,-1.502447,2.425504E-05,-1.080621,1.381545E-07,NaN,NaN,0.5379621,9.778752E-11,1.413071E-06,-1.096509E-07,3.972927E-09,-2.622604E-08
892.1056,-0.1150526,3.70245E-09,NaN,-0.7857423,-1.318614E-07,NaN,-0.6024715,-5.893666E-07,NaN,-1.491386,2.425541E-05,-1.06215,1.381592E-07,NaN,NaN,0.5301355,1.071007E-10,1.441681E-06,-1.096509E-07,1.470176E-08,-2.861022E-08
892.121,-0.1162163,3.703072E-09,NaN,-0.7825371,-1.318615E-07,NaN,-0.5905308,-5.8937E-07,NaN,-1.477777,2.425579E-05,-1.041988,1.381638E-07,NaN,NaN,0.5224606,1.071007E-10,1.439297E-06,-1.096509E-07,1.112548E-08,-2.622604E-08
892.1367,-0.1162163,3.703072E-09,NaN,-0.7825371,-1.318615E-07,NaN,-0.5905308,-5.8937E-07,NaN,-1.477777,2.425579E-05,-1.041988,1.381638E-07,NaN,NaN,0.5224606,1.071007E-10,1.439297E-06,-1.096509E-07,1.112548E-08,-2.622604E-08
892.1517,-0.1176514,3.703695E-09,NaN,-0.7784551,-1.318615E-07,NaN,-0.5781312,-5.893733E-07,NaN,-1.46306,2.425616E-05,-1.021392,1.381682E-07,NaN,NaN,0.5149356,1.071007E-10,1.432144E-06,-1.096509E-07,1.589386E-08,-2.861022E-08
892.1684,-0.1191953,3.704317E-09,NaN,-0.7739625,-1.318616E-07,NaN,-0.5661296,-5.893765E-07,NaN,-1.448337,2.425654E-05,-1.001401,1.381725E-07,NaN,NaN,0.5078714,1.071007E-10,1.416051E-06,-1.096509E-07,1.112548E-08,-2.622604E-08
892.1838,-0.1207918,3.704939E-09,NaN,-0.7692406,-1.318616E-07,NaN,-0.5543835,-5.893796E-07,NaN,-1.433689,2.425691E-05,-0.9817165,1.381767E-07,NaN,NaN,0.5009458,1.071007E-10,1.39817E-06,-1.096509E-07,1.589386E-08,-2.861022E-08
892.1996,-0.1207918,3.704939E-09,NaN,-0.7692406,-1.318616E-07,NaN,-0.5543835,-5.893796E-07,NaN,-1.433689,2.425691E-05,-0.9817165,1.381767E-07,NaN,NaN,0.5009458,1.071007E-10,1.39817E-06,-1.096509E-07,1.589386E-08,-2.861022E-08
892.2146,-0.1224094,3.705562E-09,NaN,-0.7644002,-1.318617E-07,NaN,-0.5429162,-5.893825E-07,NaN,-1.419193,2.425728E-05,-0.9622736,1.381808E-07,NaN,NaN,0.4941559,1.16414E-10,1.383865E-06,-1.096509E-07,1.350967E-08,-2.622604E-08
892.231,-0.1240302,3.706184E-09,NaN,-0.7595094,-1.318618E-07,NaN,-0.5317273,-5.893854E-07,NaN,-1.404886,2.425766E-05,-0.9430747,1.381848E-07,NaN,NaN,0.4874991,1.16414E-10,1.363003E-06,-1.096509E-07,1.231758E-08,-2.861022E-08
892.2467,-0.1256075,3.706806E-09,NaN,-0.7547138,-1.318618E-07,NaN,-0.5211787,-5.893881E-07,NaN,-1.391201,2.425804E-05,-0.9248059,1.381887E-07,NaN,NaN,0.4812866,1.16414E-10,1.334393E-06,-1.096509E-07,8.741298E-09,-2.622604E-08
892.2621,-0.1271521,3.707429E-09,NaN,-0.7499968,-1.318619E-07,NaN,-0.5109772,-5.893907E-07,NaN,-1.377877,2.425841E-05,-0.9069712,1.381924E-07,NaN,NaN,0.4751959,1.16414E-10,1.311743E-06,-1.096509E-07,5.16502E-09,-2.861022E-08
892.278,-0.1271521,3.707429E-09,NaN,-0.7499968,-1.318619E-07,NaN,-0.5109772,-5.893907E-07,NaN,-1.377877,2.425841E-05,-0.9069712,1.381924E-07,NaN,NaN,0.4751959,1.16414E-10,1.311743E-06,-1.096509E-07,5.16502E-09,-2.861022E-08
892.2928,-0.1286707,3.708051E-09,NaN,-0.7453482,-1.318619E-07,NaN,-0.5010664,-5.893932E-07,NaN,-1.364837,2.425879E-05,-0.8894284,1.381961E-07,NaN,NaN,0.4692248,1.16414E-10,1.287901E-06,-1.096509E-07,6.357112E-09,-2.622604E-08
892.3094,-0.1301669,3.708673E-09,NaN,-0.7407615,-1.31862E-07,NaN,-0.4914106,-5.893956E-07,NaN,-1.352041,2.425917E-05,-0.8721506,1.381996E-07,NaN,NaN,0.4633707,1.16414E-10,1.261079E-06,-1.096509E-07,5.16502E-09,-2.861022E-08
892.3265,-0.1316063,3.709295E-09,NaN,-0.736337,-1.31862E-07,NaN,-0.4823196,-5.893979E-07,NaN,-1.33989,2.425954E-05,-0.855842,1.382031E-07,NaN,NaN,0.457945,1.16414E-10,1.2277E-06,-1.096509E-07,6.357112E-09,-2.622604E-08
892.3408,-0.1330063,3.709918E-09,NaN,-0.7320305,-1.318621E-07,NaN,-0.4735431,-5.894E-07,NaN,-1.328091,2.425992E-05,-0.8399718,1.382064E-07,NaN,NaN,0.452626,1.16414E-10,1.20207E-06,-1.096509E-07,3.972926E-09,-2.861022E-08
892.3561,-0.1330063,3.709918E-09,NaN,-0.7320305,-1.318621E-07,NaN,-0.4735431,-5.894E-07,NaN,-1.328091,2.425992E-05,-0.8399718,1.382064E-07,NaN,NaN,0.452626,1.16414E-10,1.20207E-06,-1.096509E-07,3.972926E-09,-2.861022E-08
892.3712,-0.134377,3.71054E-09,NaN,-0.7278147,-1.318622E-07,NaN,-0.4650265,-5.894021E-07,NaN,-1.316561,2.426029E-05,-0.8243801,1.382097E-07,NaN,NaN,0.4474112,1.16414E-10,1.172864E-06,-1.096509E-07,-7.95445E-10,-2.622604E-08
892.3875,-0.1357242,3.711162E-09,NaN,-0.7236727,-1.318622E-07,NaN,-0.4567306,-5.894041E-07,NaN,-1.305257,2.426067E-05,-0.8090373,1.382128E-07,NaN,NaN,0.4422987,1.16414E-10,1.14634E-06,-1.096509E-07,-3.179631E-09,-2.861022E-08
892.4033,-0.1370149,3.711785E-09,NaN,-0.7196983,-1.318623E-07,NaN,-0.448927,-5.89406E-07,NaN,-1.294584,2.426105E-05,-0.7946686,1.382159E-07,NaN,NaN,0.4376,1.16414E-10,1.112067E-06,-1.096509E-07,1.588741E-09,-2.622604E-08
892.4188,-0.1370149,3.711785E-09,NaN,-0.7196983,-1.318623E-07,NaN,-0.448927,-5.89406E-07,NaN,-1.294584,2.426105E-05,-0.7946686,1.382159E-07,NaN,NaN,0.4376,1.16414E-10,1.112067E-06,-1.096509E-07,1.588741E-09,-2.622604E-08
892.434,-0.1382668,3.712407E-09,NaN,-0.7158435,-1.318623E-07,NaN,-0.4414097,-5.894078E-07,NaN,-1.284234,2.426142E-05,-0.7807301,1.382188E-07,NaN,NaN,0.4329938,1.16414E-10,1.085245E-06,-1.096509E-07,-1.391491E-09,-2.861022E-08
892.4502,-0.1394903,3.71303E-09,NaN,-0.7120785,-1.318624E-07,NaN,-0.4341272,-5.894095E-07,NaN,-1.27413,2.42618E-05,-0.7670475,1.382217E-07,NaN,NaN,0.4284778,1.16414E-10,1.059019E-06,-1.096509E-07,-2.583584E-09,-2.622604E-08
892.4659,-0.1406915,3.713652E-09,NaN,-0.7083849,-1.318624E-07,NaN,-0.4270372,-5.894112E-07,NaN,-1.26423,2.426218E-05,-0.7535897,1.382245E-07,NaN,NaN,0.4240504,1.16414E-10,1.032197E-06,-1.096509E-07,-1.993985E-10,-2.861022E-08
892.4815,-0.1418377,3.714274E-09,NaN,-0.7048557,-1.318625E-07,NaN,-0.4203758,-5.894127E-07,NaN,-1.254944,2.426254E-05,-0.7410961,1.382271E-07,NaN,NaN,0.4200235,1.257272E-10,9.970303E-07,-1.096509E-07,9.926944E-10,-2.622604E-08
892.4975,-0.1418377,3.714274E-09,NaN,-0.7048557,-1.318625E-07,NaN,-0.4203758,-5.894127E-07,NaN,-1.254944,2.426254E-05,-0.7410961,1.382271E-07,NaN,NaN,0.4200235,1.257272E-10,9.970303E-07,-1.096509E-07,9.926944E-10,-2.622604E-08
892.5121,-0.1429465,3.714897E-09,NaN,-0.7014424,-1.318625E-07,NaN,-0.4139762,-5.894141E-07,NaN,-1.245954,2.426292E-05,-0.7290198,1.382297E-07,NaN,NaN,0.4160757,1.257272E-10,9.746785E-07,-1.096509E-07,-7.954449E-10,-2.861022E-08
892.5286,-0.1440281,3.715519E-09,NaN,-0.6981148,-1.318626E-07,NaN,-0.4077904,-5.894155E-07,NaN,-1.237186,2.42633E-05,-0.7171738,1.382323E-07,NaN,NaN,0.4122054,1.257272E-10,9.526248E-07,-1.096509E-07,-7.954449E-10,-2.622604E-08
892.5443,-0.1450888,3.716141E-09,NaN,-0.6948543,-1.318627E-07,NaN,-0.4017738,-5.894168E-07,NaN,-1.228599,2.426367E-05,-0.7055252,1.382347E-07,NaN,NaN,0.408411,1.257272E-10,9.272928E-07,-1.096509E-07,-1.987538E-09,-2.861022E-08
892.56,-0.146096,3.716763E-09,NaN,-0.6917537,-1.318627E-07,NaN,-0.39613,-5.89418E-07,NaN,-1.220611,2.426405E-05,-0.6948218,1.382371E-07,NaN,NaN,0.4050047,1.257272E-10,8.967455E-07,-1.096509E-07,3.96648E-10,-2.622604E-08
892.5759,-0.146096,3.716763E-09,NaN,-0.6917537,-1.318627E-07,NaN,-0.39613,-5.89418E-07,NaN,-1.220611,2.426405E-05,-0.6948218,1.382371E-07,NaN,NaN,0.4050047,1.257272E-10,8.967455E-07,-1.096509E-07,3.96648E-10,-2.622604E-08
892.5905,-0.1470671,3.717385E-09,NaN,-0.6887645,-1.318628E-07,NaN,-0.3907263,-5.894191E-07,NaN,-1.212894,2.426443E-05,-0.6845196,1.382393E-07,NaN,NaN,0.4016654,1.257272E-10,8.737977E-07,-1.096509E-07,-7.954448E-10,-2.861022E-08
892.6072,-0.1480124,3.718007E-09,NaN,-0.6858567,-1.318628E-07,NaN,-0.385519,-5.899553E-07,NaN,-1.205376,2.42648E-05,-0.6744213,1.387767E-07,NaN,NaN,0.3983916,1.350404E-10,8.52638E-07,-1.096524E-07,3.37688E-09,-2.622604E-08
892.6224,-0.1489381,3.718629E-09,NaN,-0.6830115,-1.318633E-07,NaN,-0.380461,-5.903176E-07,NaN,-1.198019,2.426518E-05,-0.6644913,1.391401E-07,NaN,NaN,0.395182,1.39697E-10,8.293922E-07,-1.096542E-07,3.966483E-10,-2.861022E-08
892.6384,-0.1489381,3.718629E-09,NaN,-0.6830115,-1.318633E-07,NaN,-0.380461,-5.903176E-07,NaN,-1.198019,2.426518E-05,-0.6644913,1.391401E-07,NaN,NaN,0.395182,1.39697E-10,8.293922E-07,-1.096542E-07,3.966483E-10,-2.861022E-08
892.6531,-0.1498118,3.71925E-09,NaN,-0.6803218,-1.318639E-07,NaN,-0.375728,-5.905855E-07,NaN,-1.191245,2.426556E-05,-0.6554827,1.394092E-07,NaN,NaN,0.392349,1.39697E-10,8.003349E-07,-1.096562E-07,9.926947E-10,-2.622604E-08
892.6697,-0.1506508,3.719872E-09,NaN,-0.6777391,-1.318648E-07,NaN,-0.371216,-5.908003E-07,NaN,-1.184719,2.426594E-05,-0.6468567,1.396251E-07,NaN,NaN,0.3895718,1.443536E-10,7.830496E-07,-1.096582E-07,-4.974213E-10,-2.861022E-08
892.6852,-0.1514653,3.720493E-09,NaN,-0.6752333,-1.318656E-07,NaN,-0.3668855,-5.909826E-07,NaN,-1.178372,2.426632E-05,-0.638408,1.398085E-07,NaN,NaN,0.3868492,1.443536E-10,7.641251E-07,-1.096603E-07,-2.881607E-09,-2.622604E-08
892.7012,-0.1522614,3.721115E-09,NaN,-0.6727858,-1.318666E-07,NaN,-0.3626879,-5.911472E-07,NaN,-1.172166,2.426669E-05,-0.6300988,1.399743E-07,NaN,NaN,0.3841799,1.490102E-10,7.442321E-07,-1.096624E-07,-1.987537E-09,-2.861022E-08
892.7167,-0.1522614,3.721115E-09,NaN,-0.6727858,-1.318666E-07,NaN,-0.3626879,-5.911472E-07,NaN,-1.172166,2.426669E-05,-0.6300988,1.399743E-07,NaN,NaN,0.3841799,1.490102E-10,7.442321E-07,-1.096624E-07,-1.987537E-09,-2.861022E-08
892.7317,-0.1530071,3.721736E-09,NaN,-0.6704894,-1.318676E-07,NaN,-0.3587743,-5.913029E-07,NaN,-1.166528,2.426708E-05,-0.6226843,1.401312E-07,NaN,NaN,0.3818767,1.490102E-10,7.187511E-07,-1.096646E-07,9.862533E-11,-2.622604E-08
892.7479,-0.1537194,3.722358E-09,NaN,-0.6682957,-1.318685E-07,NaN,-0.3550653,-5.914527E-07,NaN,-1.161117,2.426745E-05,-0.6156325,1.402821E-07,NaN,NaN,0.3796189,1.536669E-10,7.04595E-07,-1.096667E-07,1.290718E-09,-2.861022E-08
892.7636,-0.1544083,3.722979E-09,NaN,-0.6661748,-1.318695E-07,NaN,-0.3515251,-5.915967E-07,NaN,-1.155866,2.426783E-05,-0.6087317,1.404272E-07,NaN,NaN,0.3774054,1.583235E-10,6.901408E-07,-1.096688E-07,3.966485E-10,-2.622604E-08
892.7793,-0.1544083,3.722979E-09,NaN,-0.6661748,-1.318695E-07,NaN,-0.3515251,-5.915967E-07,NaN,-1.155866,2.426783E-05,-0.6087317,1.404272E-07,NaN,NaN,0.3774054,1.583235E-10,6.901408E-07,-1.096688E-07,3.966485E-10,-2.622604E-08
892.7944,-0.1550445,3.723601E-09,NaN,-0.6642123,-1.318705E-07,NaN,-0.3482717,-5.917406E-07,NaN,-1.151186,2.426821E-05,-0.6026984,1.405723E-07,NaN,NaN,0.3755491,1.583235E-10,6.683852E-07,-1.09671E-07,1.588741E-09,-2.861022E-08
892.8106,-0.1556463,3.724222E-09,NaN,-0.6623559,-1.318715E-07,NaN,-0.3452257,-5.918816E-07,NaN,-1.146726,2.426859E-05,-0.5970006,1.407144E-07,NaN,NaN,0.3737295,1.629801E-10,6.54229E-07,-1.096731E-07,2.780834E-09,-2.622604E-08
892.8271,-0.1562245,3.724844E-09,NaN,-0.6605727,-1.318725E-07,NaN,-0.3423452,-5.920227E-07,NaN,-1.142414,2.426897E-05,-0.5914254,1.408566E-07,NaN,NaN,0.3719456,1.629801E-10,6.43761E-07,-1.096752E-07,3.227869E-09,-2.861022E-08
892.8453,-0.1567861,3.725465E-09,NaN,-0.6588424,-1.318735E-07,NaN,-0.3395754,-5.921637E-07,NaN,-1.138212,2.426935E-05,-0.5859341,1.409987E-07,NaN,NaN,0.3701966,1.629801E-10,6.307225E-07,-1.096773E-07,2.482811E-09,-2.622604E-08
892.8593,-0.1567861,3.725465E-09,NaN,-0.6588424,-1.318735E-07,NaN,-0.3395754,-5.921637E-07,NaN,-1.138212,2.426935E-05,-0.5859341,1.409987E-07,NaN,NaN,0.3701966,1.629801E-10,6.307225E-07,-1.096773E-07,2.482811E-09,-2.622604E-08
892.8725,-0.1572994,3.726087E-09,NaN,-0.6572569,-1.318745E-07,NaN,-0.3370337,-5.923048E-07,NaN,-1.134552,2.426973E-05,-0.5812843,1.41141E-07,NaN,NaN,0.3687958,1.676367E-10,6.114255E-07,-1.096794E-07,1.290718E-09,-2.861022E-08
892.8887,-0.1577813,3.726709E-09,NaN,-0.6557673,-1.318755E-07,NaN,-0.3346713,-5.924459E-07,NaN,-1.131083,2.42701E-05,-0.5769557,1.412832E-07,NaN,NaN,0.3674226,1.722933E-10,6.022985E-07,-1.096815E-07,-1.540502E-09,-2.622604E-08
892.9044,-0.1582422,3.72733E-09,NaN,-0.6543432,-1.318764E-07,NaN,-0.332458,-5.92587E-07,NaN,-1.12774,2.427048E-05,-0.57273,1.414254E-07,NaN,NaN,0.3660765,1.769499E-10,5.926501E-07,-1.096836E-07,3.525892E-09,-2.861022E-08
892.9199,-0.1582422,3.72733E-09,NaN,-0.6543432,-1.318764E-07,NaN,-0.332458,-5.92587E-07,NaN,-1.12774,2.427048E-05,-0.57273,1.414254E-07,NaN,NaN,0.3660765,1.769499E-10,5.926501E-07,-1.096836E-07,3.525892E-09,-2.861022E-08
892.935,-0.1586881,3.727952E-09,NaN,-0.6529658,-1.318774E-07,NaN,-0.3303425,-5.927309E-07,NaN,-1.124489,2.427086E-05,-0.568565,1.415704E-07,NaN,NaN,0.3647567,1.816065E-10,5.858328E-07,-1.096857E-07,4.866997E-09,-2.622604E-08
892.9512,-0.1590876,3.728574E-09,NaN,-0.6517277,-1.318784E-07,NaN,-0.3284309,-5.928748E-07,NaN,-1.121765,2.427123E-05,-0.5652165,1.417154E-07,NaN,NaN,0.3637766,1.862631E-10,5.683611E-07,-1.096878E-07,7.325689E-09,-2.861022E-08
892.9671,-0.1594571,3.729196E-09,NaN,-0.6505808,-1.318794E-07,NaN,-0.3266879,-5.930185E-07,NaN,-1.119215,2.427162E-05,-0.5621685,1.418603E-07,NaN,NaN,0.3628159,1.862631E-10,5.619536E-07,-1.096899E-07,8.443275E-09,-2.622604E-08
892.9826,-0.1598068,3.729817E-09,NaN,-0.649495,-1.318803E-07,NaN,-0.3250859,-5.931622E-07,NaN,-1.116774,2.4272E-05,-0.5592004,1.420051E-07,NaN,NaN,0.3618742,1.862631E-10,5.558255E-07,-1.09692E-07,1.015691E-08,-2.861022E-08
892.9984,-0.1598068,3.729817E-09,NaN,-0.649495,-1.318803E-07,NaN,-0.3250859,-5.931622E-07,NaN,-1.116774,2.4272E-05,-0.5592004,1.420051E-07,NaN,NaN,0.3618742,1.862631E-10,5.558255E-07,-1.09692E-07,1.015691E-08,-2.861022E-08
893.0135,-0.1601429,3.730439E-09,NaN,-0.6484518,-1.318813E-07,NaN,-0.3235732,-5.933059E-07,NaN,-1.11441,2.427237E-05,-0.5562686,1.421499E-07,NaN,NaN,0.3609509,1.909197E-10,5.503493E-07,-1.09694E-07,9.225587E-09,-2.622604E-08
893.0297,-0.1604338,3.731061E-09,NaN,-0.6475439,-1.318823E-07,NaN,-0.3222464,-5.934494E-07,NaN,-1.112559,2.427276E-05,-0.5541283,1.422946E-07,NaN,NaN,0.3603595,1.909197E-10,5.413341E-07,-1.096961E-07,3.48864E-09,-2.861022E-08
893.0455,-0.1606959,3.731683E-09,NaN,-0.6467233,-1.318832E-07,NaN,-0.3210796,-5.93593E-07,NaN,-1.110867,2.427313E-05,-0.5522678,1.424392E-07,NaN,NaN,0.35978,1.955763E-10,5.37404E-07,-1.096981E-07,3.153364E-09,-2.622604E-08
893.061,-0.1609393,3.732304E-09,NaN,-0.6459602,-1.318842E-07,NaN,-0.3200468,-5.937364E-07,NaN,-1.10927,2.427351E-05,-0.5504648,1.425838E-07,NaN,NaN,0.359212,2.002329E-10,5.359232E-07,-1.097002E-07,4.457215E-09,-2.861022E-08
893.0767,-0.1609393,3.732304E-09,NaN,-0.6459602,-1.318842E-07,NaN,-0.3200468,-5.937364E-07,NaN,-1.10927,2.427351E-05,-0.5504648,1.425838E-07,NaN,NaN,0.359212,2.002329E-10,5.359232E-07,-1.097002E-07,4.457215E-09,-2.861022E-08
893.0914,-0.1611702,3.732926E-09,NaN,-0.6452359,-1.318851E-07,NaN,-0.3190961,-5.938827E-07,NaN,-1.107735,2.427389E-05,-0.5486754,1.427312E-07,NaN,NaN,0.358655,2.002329E-10,5.32915E-07,-1.097022E-07,3.786663E-09,-2.622604E-08
893.108,-0.1613571,3.733548E-09,NaN,-0.6446432,-1.318861E-07,NaN,-0.3183176,-5.940288E-07,NaN,-1.1067,2.427427E-05,-0.5476537,1.428785E-07,NaN,NaN,0.3584228,2.048895E-10,5.220278E-07,-1.097042E-07,2.361739E-09,-2.861022E-08
893.1234,-0.1615163,3.734169E-09,NaN,-0.6441342,-1.31887E-07,NaN,-0.3176918,-5.941749E-07,NaN,-1.10581,2.427464E-05,-0.5468916,1.430256E-07,NaN,NaN,0.3581954,2.095462E-10,5.234807E-07,-1.097062E-07,-2.855449E-10,-2.622604E-08
893.1393,-0.1615163,3.734169E-09,NaN,-0.6441342,-1.31887E-07,NaN,-0.3176918,-5.941749E-07,NaN,-1.10581,2.427464E-05,-0.5468916,1.430256E-07,NaN,NaN,0.3581954,2.095462E-10,5.234807E-07,-1.097062E-07,-2.855449E-10,-2.622604E-08
893.1541,-0.1616579,3.734791E-09,NaN,-0.6436792,-1.31888E-07,NaN,-0.317194,-5.943208E-07,NaN,-1.105001,2.427503E-05,-0.5461658,1.431727E-07,NaN,NaN,0.3579725,2.095462E-10,5.24291E-07,-1.097082E-07,-1.747721E-09,-2.861022E-08
893.1705,-0.1617881,3.735413E-09,NaN,-0.6432594,-1.31889E-07,NaN,-0.3167718,-5.944666E-07,NaN,-1.104241,2.427541E-05,-0.5454322,1.433196E-07,NaN,NaN,0.357754,2.095462E-10,5.227636E-07,-1.097102E-07,-2.595225E-09,-2.622604E-08
893.1862,-0.1618754,3.736035E-09,NaN,-0.6429678,-1.318899E-07,NaN,-0.3165122,-5.946123E-07,NaN,-1.103968,2.427579E-05,-0.5454444,1.434665E-07,NaN,NaN,0.3578535,2.095462E-10,5.142047E-07,-1.097122E-07,1.614353E-09,-2.861022E-08
893.202,-0.161936,3.736657E-09,NaN,-0.6427565,-1.318908E-07,NaN,-0.3163992,-5.94758E-07,NaN,-1.103827,2.427617E-05,-0.5456962,1.436132E-07,NaN,NaN,0.3579514,2.095462E-10,5.166727E-07,-1.097142E-07,3.421119E-09,-2.622604E-08
893.2177,-0.161936,3.736657E-09,NaN,-0.6427565,-1.318908E-07,NaN,-0.3163992,-5.94758E-07,NaN,-1.103827,2.427617E-05,-0.5456962,1.436132E-07,NaN,NaN,0.3579514,2.095462E-10,5.166727E-07,-1.097142E-07,3.421119E-09,-2.622604E-08
893.2326,-0.16198,3.737279E-09,NaN,-0.6425957,-1.318918E-07,NaN,-0.3164085,-5.949035E-07,NaN,-1.103754,2.427655E-05,-0.5459644,1.437598E-07,NaN,NaN,0.3580474,2.095462E-10,5.18107E-07,-1.097162E-07,9.232572E-09,-2.861022E-08
893.2488,-0.1620136,3.737901E-09,NaN,-0.6424668,-1.318927E-07,NaN,-0.3164876,-5.950489E-07,NaN,-1.103717,2.427693E-05,-0.5462047,1.439064E-07,NaN,NaN,0.3581416,2.142028E-10,5.200907E-07,-1.097182E-07,4.166177E-09,-2.622604E-08
893.2645,-0.1620062,3.738523E-09,NaN,-0.6424627,-1.318936E-07,NaN,-0.3167228,-5.951943E-07,NaN,-1.104156,2.427731E-05,-0.5471703,1.440528E-07,NaN,NaN,0.3585476,2.188594E-10,5.14391E-07,-1.097202E-07,4.948488E-09,-2.861022E-08
893.2801,-0.1619734,3.739145E-09,NaN,-0.642535,-1.318946E-07,NaN,-0.3170993,-5.953395E-07,NaN,-1.104714,2.427769E-05,-0.548356,1.441992E-07,NaN,NaN,0.358946,2.188594E-10,5.199044E-07,-1.097221E-07,3.421119E-09,-2.622604E-08
893.2961,-0.1619734,3.739145E-09,NaN,-0.642535,-1.318946E-07,NaN,-0.3170993,-5.953395E-07,NaN,-1.104714,2.427769E-05,-0.548356,1.441992E-07,NaN,NaN,0.358946,2.188594E-10,5.199044E-07,-1.097221E-07,3.421119E-09,-2.622604E-08
893.3109,-0.1619254,3.739768E-09,NaN,-0.6426542,-1.318955E-07,NaN,-0.3175929,-5.954847E-07,NaN,-1.105327,2.427807E-05,-0.5495392,1.443455E-07,NaN,NaN,0.3593367,2.23516E-10,5.254923E-07,-1.097241E-07,2.936832E-09,-2.861022E-08
893.3273,-0.1618681,3.74039E-09,NaN,-0.6428018,-1.318964E-07,NaN,-0.3181506,-5.956297E-07,NaN,-1.105966,2.427844E-05,-0.550676,1.444917E-07,NaN,NaN,0.3597197,2.281726E-10,5.269452E-07,-1.09726E-07,6.289593E-09,-2.622604E-08
893.3433,-0.1617701,3.741012E-09,NaN,-0.6430708,-1.318973E-07,NaN,-0.3188615,-5.957747E-07,NaN,-1.107068,2.427882E-05,-0.5525193,1.446378E-07,NaN,NaN,0.3604089,2.328292E-10,5.240954E-07,-1.09728E-07,8.636526E-09,-2.861022E-08
893.3601,-0.1616476,3.741634E-09,NaN,-0.6434134,-1.318983E-07,NaN,-0.3197091,-5.959225E-07,NaN,-1.108279,2.42792E-05,-0.5545642,1.447866E-07,NaN,NaN,0.3610849,2.328292E-10,5.299441E-07,-1.097299E-07,8.152238E-09,-2.622604E-08
893.3742,-0.1616476,3.741634E-09,NaN,-0.6434134,-1.318983E-07,NaN,-0.3197091,-5.959225E-07,NaN,-1.108279,2.42792E-05,-0.5545642,1.447866E-07,NaN,NaN,0.3610849,2.328292E-10,5.299441E-07,-1.097299E-07,8.152238E-09,-2.622604E-08
893.3889,-0.1615106,3.742256E-09,NaN,-0.6438,-1.318992E-07,NaN,-0.3206686,-5.960673E-07,NaN,-1.109534,2.427959E-05,-0.5565887,1.449325E-07,NaN,NaN,0.3617478,2.328292E-10,5.38177E-07,-1.097318E-07,8.524767E-09,-2.861022E-08
893.4054,-0.1613654,3.742878E-09,NaN,-0.6442119,-1.319001E-07,NaN,-0.3216868,-5.962148E-07,NaN,-1.110803,2.427997E-05,-0.5585495,1.450811E-07,NaN,NaN,0.3623976,2.374858E-10,5.431689E-07,-1.097337E-07,8.748284E-09,-2.622604E-08
893.4211,-0.1611805,3.743501E-09,NaN,-0.6447422,-1.31901E-07,NaN,-0.3228575,-5.963622E-07,NaN,-1.112524,2.428035E-05,-0.5611991,1.452296E-07,NaN,NaN,0.3633485,2.374858E-10,5.421258E-07,-1.097356E-07,3.029963E-09,-2.861022E-08
893.4369,-0.1611805,3.743501E-09,NaN,-0.6447422,-1.31901E-07,NaN,-0.3228575,-5.963622E-07,NaN,-1.112524,2.428035E-05,-0.5611991,1.452296E-07,NaN,NaN,0.3633485,2.374858E-10,5.421258E-07,-1.097356E-07,3.029963E-09,-2.861022E-08
893.4517,-0.160972,3.744123E-09,NaN,-0.645343,-1.319019E-07,NaN,-0.3241606,-5.965094E-07,NaN,-1.114343,2.428074E-05,-0.5640323,1.45378E-07,NaN,NaN,0.364281,2.374858E-10,5.513273E-07,-1.097375E-07,1.31633E-09,-2.622604E-08
893.4681,-0.1607503,3.744745E-09,NaN,-0.6459846,-1.319028E-07,NaN,-0.3255703,-5.966565E-07,NaN,-1.116196,2.428112E-05,-0.5668281,1.455262E-07,NaN,NaN,0.3651953,2.421424E-10,5.597092E-07,-1.097394E-07,-5.649416E-10,-2.861022E-08
893.4836,-0.1605213,3.745367E-09,NaN,-0.6466485,-1.319037E-07,NaN,-0.3270331,-5.968035E-07,NaN,-1.118053,2.42815E-05,-0.5695442,1.456743E-07,NaN,NaN,0.3660916,2.46799E-10,5.683519E-07,-1.097413E-07,-3.005007E-09,-2.622604E-08
893.4995,-0.1605213,3.745367E-09,NaN,-0.6466485,-1.319037E-07,NaN,-0.3270331,-5.968035E-07,NaN,-1.118053,2.42815E-05,-0.5695442,1.456743E-07,NaN,NaN,0.3660916,2.46799E-10,5.683519E-07,-1.097413E-07,-3.005007E-09,-2.622604E-08
893.5143,-0.1602536,3.745989E-09,NaN,-0.6474276,-1.319046E-07,NaN,-0.3286499,-5.969504E-07,NaN,-1.120352,2.428189E-05,-0.572933,1.458223E-07,NaN,NaN,0.3672842,2.46799E-10,5.680538E-07,-1.097432E-07,-7.764065E-09,-2.861022E-08
893.5306,-0.1599635,3.746611E-09,NaN,-0.6482742,-1.319057E-07,NaN,-0.3303951,-5.96825E-07,NaN,-1.122738,2.428228E-05,-0.5764879,1.45698E-07,NaN,NaN,0.3684537,2.374858E-10,5.76175E-07,-1.097418E-07,-7.405506E-09,-2.622604E-08
893.5463,-0.1596611,3.747233E-09,NaN,-0.6491586,-1.31906E-07,NaN,-0.3322413,-5.970596E-07,NaN,-1.12515,2.428267E-05,-0.5799894,1.459337E-07,NaN,NaN,0.3696002,2.281726E-10,5.842216E-07,-1.097396E-07,-1.016921E-08,-2.861022E-08
893.562,-0.1593526,3.747855E-09,NaN,-0.6500623,-1.319058E-07,NaN,-0.3341348,-5.974753E-07,NaN,-1.127556,2.428306E-05,-0.5833964,1.463505E-07,NaN,NaN,0.3707244,2.142027E-10,5.924172E-07,-1.097371E-07,-1.513315E-08,-2.622604E-08
893.5778,-0.1593526,3.747855E-09,NaN,-0.6500623,-1.319058E-07,NaN,-0.3341348,-5.974753E-07,NaN,-1.127556,2.428306E-05,-0.5833964,1.463505E-07,NaN,NaN,0.3707244,2.142027E-10,5.924172E-07,-1.097371E-07,-1.513315E-08,-2.622604E-08
893.5926,-0.1590063,3.748478E-09,NaN,-0.6510783,-1.319054E-07,NaN,-0.3361857,-5.979869E-07,NaN,-1.130393,2.428344E-05,-0.5874614,1.468632E-07,NaN,NaN,0.3721401,2.048895E-10,5.942053E-07,-1.097344E-07,-1.556156E-08,-2.861022E-08
893.609,-0.1586385,3.7491E-09,NaN,-0.6521589,-1.319047E-07,NaN,-0.3383611,-5.985474E-07,NaN,-1.133308,2.428383E-05,-0.5916752,1.47425E-07,NaN,NaN,0.3735285,1.955763E-10,6.034441E-07,-1.097316E-07,-1.3196E-08,-2.622604E-08
893.6245,-0.1582594,3.749722E-09,NaN,-0.6532744,-1.319039E-07,NaN,-0.3406313,-5.991308E-07,NaN,-1.136241,2.428421E-05,-0.5958207,1.480094E-07,NaN,NaN,0.3748897,1.86263E-10,6.132788E-07,-1.097288E-07,-1.364304E-08,-2.861022E-08
893.6402,-0.1578751,3.750344E-09,NaN,-0.6544063,-1.319031E-07,NaN,-0.3429429,-5.997194E-07,NaN,-1.139159,2.428459E-05,-0.5998582,1.485993E-07,NaN,NaN,0.3762242,1.769498E-10,6.203568E-07,-1.097259E-07,-1.401556E-08,-2.622604E-08
893.6561,-0.1578751,3.750344E-09,NaN,-0.6544063,-1.319031E-07,NaN,-0.3429429,-5.997194E-07,NaN,-1.139159,2.428459E-05,-0.5998582,1.485993E-07,NaN,NaN,0.3762242,1.769498E-10,6.203568E-07,-1.097259E-07,-1.401556E-08,-2.622604E-08
893.6714,-0.1574539,3.750966E-09,NaN,-0.6556478,-1.319023E-07,NaN,-0.3454169,-6.003078E-07,NaN,-1.142497,2.428497E-05,-0.6045398,1.491888E-07,NaN,NaN,0.3778463,1.676366E-10,6.213254E-07,-1.09723E-07,-1.252545E-08,-2.861022E-08
893.6875,-0.1570123,3.751588E-09,NaN,-0.6569511,-1.319014E-07,NaN,-0.3480111,-6.008873E-07,NaN,-1.145907,2.428535E-05,-0.6093538,1.497695E-07,NaN,NaN,0.3794369,1.583234E-10,6.330228E-07,-1.097201E-07,-1.274897E-08,-2.622604E-08
893.7032,-0.1565602,3.752211E-09,NaN,-0.6582866,-1.319006E-07,NaN,-0.3506938,-6.014554E-07,NaN,-1.149325,2.428573E-05,-0.6140852,1.503388E-07,NaN,NaN,0.3809963,1.536667E-10,6.447947E-07,-1.097172E-07,-1.558019E-08,-2.861022E-08
893.7189,-0.1565602,3.752211E-09,NaN,-0.6582866,-1.319006E-07,NaN,-0.3506938,-6.014554E-07,NaN,-1.149325,2.428573E-05,-0.6140852,1.503388E-07,NaN,NaN,0.3809963,1.536667E-10,6.447947E-07,-1.097172E-07,-1.558019E-08,-2.861022E-08
893.7339,-0.1560683,3.752833E-09,NaN,-0.6597404,-1.318997E-07,NaN,-0.3535773,-6.020095E-07,NaN,-1.15317,2.428612E-05,-0.619443,1.50894E-07,NaN,NaN,0.3828389,1.350403E-10,6.488181E-07,-1.097143E-07,-1.602722E-08,-2.622604E-08
893.7499,-0.1555545,3.753455E-09,NaN,-0.6612603,-1.318988E-07,NaN,-0.3565951,-6.025498E-07,NaN,-1.157086,2.42865E-05,-0.6249074,1.514355E-07,NaN,NaN,0.3846457,1.303837E-10,6.60888E-07,-1.097115E-07,-1.505865E-08,-2.861022E-08
893.7657,-0.1550298,3.754077E-09,NaN,-0.6628141,-1.318979E-07,NaN,-0.3597033,-6.030767E-07,NaN,-1.161008,2.428688E-05,-0.6302685,1.519635E-07,NaN,NaN,0.3864171,1.210705E-10,6.73256E-07,-1.097086E-07,-1.468612E-08,-2.622604E-08
893.7816,-0.1545009,3.754701E-09,NaN,-0.6643816,-1.318969E-07,NaN,-0.3628436,-6.025104E-07,NaN,-1.164901,2.428726E-05,-0.6354926,1.513985E-07,NaN,NaN,0.3881537,1.164138E-10,6.836868E-07,-1.097076E-07,-1.341952E-08,-2.861022E-08
893.7974,-0.1545009,3.754701E-09,NaN,-0.6643816,-1.318969E-07,NaN,-0.3628436,-6.025104E-07,NaN,-1.164901,2.428726E-05,-0.6354926,1.513985E-07,NaN,NaN,0.3881537,1.164138E-10,6.836868E-07,-1.097076E-07,-1.341952E-08,-2.861022E-08
893.8122,-0.1539362,3.755323E-09,NaN,-0.6660551,-1.318964E-07,NaN,-0.3661591,-6.028493E-07,NaN,-1.169196,2.428763E-05,-0.6413329,1.517385E-07,NaN,NaN,0.3901701,1.117572E-10,6.84879E-07,-1.097051E-07,-1.05883E-08,-2.622604E-08
893.8287,-0.1533525,3.755946E-09,NaN,-0.6677862,-1.318957E-07,NaN,-0.3695864,-6.032659E-07,NaN,-1.173549,2.428802E-05,-0.6472716,1.521563E-07,NaN,NaN,0.3921472,9.778739E-11,6.978429E-07,-1.097024E-07,-1.163138E-08,-2.861022E-08
893.8444,-0.1527599,3.756569E-09,NaN,-0.6695449,-1.318948E-07,NaN,-0.3730882,-6.026307E-07,NaN,-1.177895,2.428839E-05,-0.6531004,1.515223E-07,NaN,NaN,0.3940855,9.778739E-11,7.090188E-07,-1.097016E-07,-1.327051E-08,-2.622604E-08
893.8625,-0.1521647,3.757192E-09,NaN,-0.6713125,-1.318945E-07,NaN,-0.3766116,-6.029276E-07,NaN,-1.182204,2.428877E-05,-0.6587853,1.518203E-07,NaN,NaN,0.3959859,9.313077E-11,7.182575E-07,-1.096991E-07,-1.282347E-08,-2.861022E-08
893.8754,-0.1521647,3.757192E-09,NaN,-0.6713125,-1.318945E-07,NaN,-0.3766116,-6.029276E-07,NaN,-1.182204,2.428877E-05,-0.6587853,1.518203E-07,NaN,NaN,0.3959859,9.313077E-11,7.182575E-07,-1.096991E-07,-1.282347E-08,-2.861022E-08
893.8901,-0.1515348,3.757816E-09,NaN,-0.6731823,-1.318937E-07,NaN,-0.3803177,-6.022339E-07,NaN,-1.186905,2.428914E-05,-0.6650765,1.511278E-07,NaN,NaN,0.3981628,9.313077E-11,7.218338E-07,-1.096984E-07,-1.267446E-08,-2.622604E-08
893.9067,-0.1508869,3.758438E-09,NaN,-0.6751063,-1.318934E-07,NaN,-0.3841298,-6.02499E-07,NaN,-1.191657,2.428952E-05,-0.6714513,1.513941E-07,NaN,NaN,0.4002972,8.847416E-11,7.339038E-07,-1.096961E-07,-1.029028E-08,-2.861022E-08
893.9223,-0.1502311,3.759061E-09,NaN,-0.677055,-1.318929E-07,NaN,-0.3880081,-6.028686E-07,NaN,-1.196396,2.42899E-05,-0.6777054,1.517649E-07,NaN,NaN,0.4023899,7.450432E-11,7.467188E-07,-1.096935E-07,-1.014126E-08,-2.622604E-08
893.9382,-0.1502311,3.759061E-09,NaN,-0.677055,-1.318929E-07,NaN,-0.3880081,-6.028686E-07,NaN,-1.196396,2.42899E-05,-0.6777054,1.517649E-07,NaN,NaN,0.4023899,7.450432E-11,7.467188E-07,-1.096935E-07,-1.014126E-08,-2.622604E-08
893.9532,-0.1495736,3.759684E-09,NaN,-0.67901,-1.318921E-07,NaN,-0.3919002,-6.022041E-07,NaN,-1.201093,2.429028E-05,-0.6838067,1.511015E-07,NaN,NaN,0.4044415,7.450432E-11,7.567025E-07,-1.096927E-07,-1.327051E-08,-2.861022E-08
893.9695,-0.148882,3.760307E-09,NaN,-0.6810647,-1.318917E-07,NaN,-0.3959846,-6.024808E-07,NaN,-1.206172,2.429065E-05,-0.6905037,1.513794E-07,NaN,NaN,0.4067666,6.98477E-11,7.605768E-07,-1.096903E-07,-1.416458E-08,-2.622604E-08
893.985,-0.1481733,3.760929E-09,NaN,-0.6831713,-1.318912E-07,NaN,-0.4001693,-6.028534E-07,NaN,-1.211296,2.429103E-05,-0.6972692,1.517532E-07,NaN,NaN,0.4090464,6.519109E-11,7.702626E-07,-1.096878E-07,-1.476062E-08,-2.861022E-08
894.0007,-0.1474574,3.761551E-09,NaN,-0.6853002,-1.318905E-07,NaN,-0.4044114,-6.032694E-07,NaN,-1.216403,2.42914E-05,-0.7039039,1.521703E-07,NaN,NaN,0.4112816,6.053447E-11,7.799484E-07,-1.096851E-07,-1.774086E-08,-2.622604E-08
894.0165,-0.1474574,3.761551E-09,NaN,-0.6853002,-1.318905E-07,NaN,-0.4044114,-6.032694E-07,NaN,-1.216403,2.42914E-05,-0.7039039,1.521703E-07,NaN,NaN,0.4112816,6.053447E-11,7.799484E-07,-1.096851E-07,-1.774086E-08,-2.622604E-08
894.0316,-0.1467405,3.762175E-09,NaN,-0.6874332,-1.318896E-07,NaN,-0.4086592,-6.026221E-07,NaN,-1.221462,2.429178E-05,-0.7103779,1.515242E-07,NaN,NaN,0.4134729,6.053447E-11,7.924654E-07,-1.096843E-07,-1.625074E-08,-2.861022E-08
894.0479,-0.1459903,3.762797E-09,NaN,-0.6896636,-1.318892E-07,NaN,-0.4131098,-6.029017E-07,NaN,-1.226894,2.429216E-05,-0.717437,1.51805E-07,NaN,NaN,0.415935,5.122125E-11,7.960417E-07,-1.096819E-07,-1.744283E-08,-2.622604E-08
894.0635,-0.1452235,3.763421E-09,NaN,-0.6919438,-1.318885E-07,NaN,-0.4176544,-6.021879E-07,NaN,-1.232368,2.429253E-05,-0.7245501,1.510924E-07,NaN,NaN,0.4183491,5.122125E-11,8.082606E-07,-1.096812E-07,-1.83369E-08,-2.861022E-08
894.0793,-0.1452235,3.763421E-09,NaN,-0.6919438,-1.318885E-07,NaN,-0.4176544,-6.021879E-07,NaN,-1.232368,2.429253E-05,-0.7245501,1.510924E-07,NaN,NaN,0.4183491,5.122125E-11,8.082606E-07,-1.096812E-07,-1.83369E-08,-2.861022E-08
894.0941,-0.1444502,3.764043E-09,NaN,-0.6942442,-1.318882E-07,NaN,-0.4222469,-6.024308E-07,NaN,-1.23782,2.429291E-05,-0.7315233,1.513365E-07,NaN,NaN,0.4207159,4.656464E-11,8.154132E-07,-1.096789E-07,-1.654876E-08,-2.622604E-08
894.1105,-0.1436767,3.764665E-09,NaN,-0.6965466,-1.318877E-07,NaN,-0.4268367,-6.027787E-07,NaN,-1.243218,2.429329E-05,-0.7383291,1.516855E-07,NaN,NaN,0.4230363,4.190803E-11,8.228637E-07,-1.096764E-07,-1.654876E-08,-2.861022E-08
894.126,-0.1428704,3.765288E-09,NaN,-0.6989444,-1.31887E-07,NaN,-0.4316407,-6.031731E-07,NaN,-1.248981,2.429366E-05,-0.7457095,1.520812E-07,NaN,NaN,0.425625,3.725141E-11,8.225657E-07,-1.096738E-07,-1.684679E-08,-2.622604E-08
894.1419,-0.1420481,3.765911E-09,NaN,-0.7013899,-1.318861E-07,NaN,-0.4365316,-6.025074E-07,NaN,-1.254783,2.429404E-05,-0.7531297,1.514167E-07,NaN,NaN,0.4281632,3.725141E-11,8.297183E-07,-1.09673E-07,-1.684679E-08,-2.861022E-08
894.1573,-0.1420481,3.765911E-09,NaN,-0.7013899,-1.318861E-07,NaN,-0.4365316,-6.025074E-07,NaN,-1.254783,2.429404E-05,-0.7531297,1.514167E-07,NaN,NaN,0.4281632,3.725141E-11,8.297183E-07,-1.09673E-07,-1.684679E-08,-2.861022E-08
