JMolnar6/NonAnthroHands_User_Study/HandsLoggerWithURDF/tempdata/files/Reachy_JointMotion_gesture_8_39.csv
Time,r_shoulder,r_shoulder_x,r_upper_arm,r_forearm,r_wrist,r_wrist2hand,
541.256,0.04495164,-8.836923E-09,NaN,-0.3280934,-1.339411E-07,NaN,0.3921012,-5.989006E-08,NaN,-0.5158502,1.666627E-05,-0.365428,2.950068E-08,NaN,NaN,-0.02002272,-2.374881E-10,-2.004321E-07,-1.117234E-07,7.49135E-09,-2.622604E-08
541.272,0.04495184,-8.836103E-09,NaN,-0.3280827,-1.339415E-07,NaN,0.3930763,-5.99611E-08,NaN,-0.5171114,1.666677E-05,-0.3657878,2.957336E-08,NaN,NaN,-0.0200257,-2.374881E-10,-2.25764E-07,-1.117255E-07,5.107164E-09,-2.861022E-08
541.2879,0.04495205,-8.835282E-09,NaN,-0.3280721,-1.33942E-07,NaN,0.3940309,-6.003347E-08,NaN,-0.5190699,1.666727E-05,-0.3661582,2.964737E-08,NaN,NaN,-0.02002718,-2.374881E-10,-2.38728E-07,-1.117276E-07,7.49135E-09,-2.622604E-08
541.3035,0.04495225,-8.834461E-09,NaN,-0.3280616,-1.339424E-07,NaN,0.3949336,-6.010431E-08,NaN,-0.5213416,1.666777E-05,-0.3664877,2.971986E-08,NaN,NaN,-0.02002805,-2.421447E-10,-2.470727E-07,-1.117297E-07,2.722978E-09,-2.861022E-08
541.3193,0.04495225,-8.834461E-09,NaN,-0.3280616,-1.339424E-07,NaN,0.3949336,-6.010431E-08,NaN,-0.5213416,1.666777E-05,-0.3664877,2.971986E-08,NaN,NaN,-0.02002805,-2.421447E-10,-2.470727E-07,-1.117297E-07,2.722978E-09,-2.861022E-08
541.3344,0.04495245,-8.83364E-09,NaN,-0.3280513,-1.339428E-07,NaN,0.3957947,-6.017648E-08,NaN,-0.5237429,1.666827E-05,-0.3667777,2.979368E-08,NaN,NaN,-0.02002866,-2.421447E-10,-2.551193E-07,-1.117318E-07,7.49135E-09,-2.622604E-08
541.351,0.04495263,-8.83282E-09,NaN,-0.3280411,-1.339433E-07,NaN,0.396487,-6.024996E-08,NaN,-0.5249547,1.666877E-05,-0.3668477,2.98688E-08,NaN,NaN,-0.02002577,-2.421447E-10,-2.312774E-07,-1.117338E-07,5.107164E-09,-2.861022E-08
541.3668,0.04495282,-8.831999E-09,NaN,-0.328031,-1.339437E-07,NaN,0.3971749,-6.032472E-08,NaN,-0.5254683,1.666926E-05,-0.3668872,2.99452E-08,NaN,NaN,-0.02002427,-2.421447E-10,-2.192075E-07,-1.117359E-07,2.722978E-09,-2.622604E-08
541.3824,0.044953,-8.831178E-09,NaN,-0.328021,-1.339441E-07,NaN,0.3978943,-6.03979E-08,NaN,-0.5256478,1.666976E-05,-0.3669529,3.002003E-08,NaN,NaN,-0.02002333,-2.421447E-10,-2.110118E-07,-1.117379E-07,5.107164E-09,-2.861022E-08
541.3986,0.044953,-8.831178E-09,NaN,-0.328021,-1.339441E-07,NaN,0.3978943,-6.03979E-08,NaN,-0.5256478,1.666976E-05,-0.3669529,3.002003E-08,NaN,NaN,-0.02002333,-2.421447E-10,-2.110118E-07,-1.117379E-07,5.107164E-09,-2.861022E-08
541.4133,0.04495319,-8.830358E-09,NaN,-0.3280111,-1.339446E-07,NaN,0.3986374,-6.047237E-08,NaN,-0.5256678,1.667026E-05,-0.367047,3.009615E-08,NaN,NaN,-0.02002261,-2.421447E-10,-2.062435E-07,-1.1174E-07,2.722978E-09,-2.622604E-08
541.43,0.04495336,-8.829537E-09,NaN,-0.3280014,-1.339451E-07,NaN,0.3992499,-6.05051E-08,NaN,-0.5243808,1.667075E-05,-0.3669694,3.013051E-08,NaN,NaN,-0.02001863,-2.421447E-10,-1.74653E-07,-1.117402E-07,3.387925E-10,-2.861022E-08
541.4455,0.04495354,-8.828716E-09,NaN,-0.3279917,-1.339453E-07,NaN,0.3998747,-6.065832E-08,NaN,-0.5223603,1.667123E-05,-0.3668906,3.028538E-08,NaN,NaN,-0.02001613,-2.328314E-10,-1.531953E-07,-1.117401E-07,2.722978E-09,-2.622604E-08
541.463,0.04495372,-8.827896E-09,NaN,-0.3279822,-1.339452E-07,NaN,0.4005373,-6.087328E-08,NaN,-0.5200099,1.667172E-05,-0.3668555,3.050199E-08,NaN,NaN,-0.02001424,-2.328314E-10,-1.368041E-07,-1.117399E-07,5.107164E-09,-2.861022E-08
541.4772,0.04495372,-8.827896E-09,NaN,-0.3279822,-1.339452E-07,NaN,0.4005373,-6.087328E-08,NaN,-0.5200099,1.667172E-05,-0.3668555,3.050199E-08,NaN,NaN,-0.02001424,-2.328314E-10,-1.368041E-07,-1.117399E-07,5.107164E-09,-2.861022E-08
541.4924,0.04495389,-8.827076E-09,NaN,-0.3279727,-1.33945E-07,NaN,0.401225,-6.112057E-08,NaN,-0.5175226,1.667221E-05,-0.3668602,3.075093E-08,NaN,NaN,-0.0200126,-2.328314E-10,-1.22946E-07,-1.117396E-07,5.107164E-09,-2.622604E-08
541.5088,0.04495406,-8.826256E-09,NaN,-0.3279634,-1.339446E-07,NaN,0.4017789,-6.138546E-08,NaN,-0.5137599,1.66727E-05,-0.3666992,3.101747E-08,NaN,NaN,-0.02000762,-2.281748E-10,-8.21168E-08,-1.117391E-07,5.107164E-09,-2.861022E-08
541.5247,0.04495423,-8.825436E-09,NaN,-0.3279542,-1.339443E-07,NaN,0.402342,-6.165632E-08,NaN,-0.5092989,1.667318E-05,-0.3665406,3.128999E-08,NaN,NaN,-0.02000416,-2.235182E-10,-5.454965E-08,-1.117387E-07,3.387925E-10,-2.622604E-08
541.5403,0.0449544,-8.824617E-09,NaN,-0.3279451,-1.339439E-07,NaN,0.402941,-6.193022E-08,NaN,-0.5045448,1.667367E-05,-0.3664297,3.156554E-08,NaN,NaN,-0.02000133,-2.235182E-10,-3.279396E-08,-1.117383E-07,7.49135E-09,-2.861022E-08
541.5562,0.0449544,-8.824617E-09,NaN,-0.3279451,-1.339439E-07,NaN,0.402941,-6.193022E-08,NaN,-0.5045448,1.667367E-05,-0.3664297,3.156554E-08,NaN,NaN,-0.02000133,-2.235182E-10,-3.279396E-08,-1.117383E-07,7.49135E-09,-2.861022E-08
541.571,0.04495457,-8.823797E-09,NaN,-0.3279362,-1.339434E-07,NaN,0.4035645,-6.220145E-08,NaN,-0.4996911,1.667416E-05,-0.3663627,3.183844E-08,NaN,NaN,-0.01999876,-2.235182E-10,-1.28264E-08,-1.117378E-07,5.107164E-09,-2.622604E-08
541.5877,0.04495473,-8.822977E-09,NaN,-0.3279273,-1.33943E-07,NaN,0.404048,-6.247007E-08,NaN,-0.4935994,1.667465E-05,-0.3661292,3.210872E-08,NaN,NaN,-0.0199926,-2.235182E-10,3.33672E-08,-1.117373E-07,2.722978E-09,-2.861022E-08
541.6033,0.04495489,-8.822157E-09,NaN,-0.3279185,-1.339426E-07,NaN,0.4045376,-6.273331E-08,NaN,-0.486846,1.667514E-05,-0.3658992,3.237361E-08,NaN,NaN,-0.01998804,-2.235182E-10,6.644778E-08,-1.117369E-07,2.722978E-09,-2.622604E-08
541.6194,0.04495489,-8.822157E-09,NaN,-0.3279185,-1.339426E-07,NaN,0.4045376,-6.273331E-08,NaN,-0.486846,1.667514E-05,-0.3658992,3.237361E-08,NaN,NaN,-0.01998804,-2.235182E-10,6.644778E-08,-1.117369E-07,2.722978E-09,-2.622604E-08
541.6348,0.04495505,-8.821337E-09,NaN,-0.3279099,-1.339421E-07,NaN,0.4050627,-6.299126E-08,NaN,-0.4798359,1.667563E-05,-0.3657195,3.263323E-08,NaN,NaN,-0.01998413,-2.235182E-10,9.446196E-08,-1.117364E-07,2.722978E-09,-2.861022E-08
541.6508,0.04495521,-8.820518E-09,NaN,-0.3279014,-1.339417E-07,NaN,0.405613,-6.324405E-08,NaN,-0.472762,1.667611E-05,-0.3655869,3.288769E-08,NaN,NaN,-0.01998047,-2.188616E-10,1.20986E-07,-1.117359E-07,3.387925E-10,-2.622604E-08
541.667,0.04495537,-8.819698E-09,NaN,-0.3278929,-1.339412E-07,NaN,0.4061555,-6.349178E-08,NaN,-0.4655713,1.667659E-05,-0.3654649,3.313707E-08,NaN,NaN,-0.01997643,-2.14205E-10,1.491492E-07,-1.117355E-07,-2.045393E-09,-2.861022E-08
541.6824,0.04495553,-8.818878E-09,NaN,-0.3278846,-1.339408E-07,NaN,0.4066994,-6.373453E-08,NaN,-0.4583695,1.667708E-05,-0.3653646,3.338149E-08,NaN,NaN,-0.01997262,-2.14205E-10,1.735871E-07,-1.11735E-07,2.722978E-09,-2.622604E-08
541.6985,0.04495553,-8.818878E-09,NaN,-0.3278846,-1.339408E-07,NaN,0.4066994,-6.373453E-08,NaN,-0.4583695,1.667708E-05,-0.3653646,3.338149E-08,NaN,NaN,-0.01997262,-2.14205E-10,1.735871E-07,-1.11735E-07,2.722978E-09,-2.622604E-08
541.7135,0.04495569,-8.818058E-09,NaN,-0.3278764,-1.339408E-07,NaN,0.4072437,-6.379193E-08,NaN,-0.4512218,1.667757E-05,-0.3652857,3.344056E-08,NaN,NaN,-0.01996889,-2.14205E-10,1.97876E-07,-1.117336E-07,2.722978E-09,-2.861022E-08
541.7302,0.04495585,-8.817238E-09,NaN,-0.3278683,-1.339407E-07,NaN,0.4077851,-6.387348E-08,NaN,-0.4441586,1.667806E-05,-0.3652242,3.352377E-08,NaN,NaN,-0.01996518,-2.14205E-10,2.194827E-07,-1.117321E-07,2.722978E-09,-2.622604E-08
541.7461,0.04495601,-8.816419E-09,NaN,-0.3278603,-1.339406E-07,NaN,0.4083213,-6.39646E-08,NaN,-0.4371934,1.667855E-05,-0.3651767,3.361654E-08,NaN,NaN,-0.01996147,-2.14205E-10,2.397483E-07,-1.117306E-07,2.722978E-09,-2.861022E-08
541.7618,0.04495617,-8.815599E-09,NaN,-0.3278523,-1.339405E-07,NaN,0.408851,-6.405946E-08,NaN,-0.4303319,1.667905E-05,-0.3651406,3.371307E-08,NaN,NaN,-0.01995773,-2.235182E-10,2.604609E-07,-1.117291E-07,9.875535E-09,-2.622604E-08
541.7775,0.04495617,-8.815599E-09,NaN,-0.3278523,-1.339405E-07,NaN,0.408851,-6.405946E-08,NaN,-0.4303319,1.667905E-05,-0.3651406,3.371307E-08,NaN,NaN,-0.01995773,-2.235182E-10,2.604609E-07,-1.117291E-07,9.875535E-09,-2.622604E-08
541.7926,0.04495633,-8.814779E-09,NaN,-0.3278445,-1.339404E-07,NaN,0.4093738,-6.415517E-08,NaN,-0.423576,1.667955E-05,-0.3651147,3.381044E-08,NaN,NaN,-0.01995396,-2.328315E-10,2.805775E-07,-1.117276E-07,7.49135E-09,-2.861022E-08
541.8091,0.04495649,-8.813959E-09,NaN,-0.3278368,-1.339402E-07,NaN,0.4098899,-6.424889E-08,NaN,-0.4169256,1.668005E-05,-0.365098,3.390582E-08,NaN,NaN,-0.01995017,-2.421447E-10,3.00098E-07,-1.11726E-07,7.49135E-09,-2.622604E-08
541.8251,0.04495665,-8.81314E-09,NaN,-0.3278292,-1.339401E-07,NaN,0.4103995,-6.434065E-08,NaN,-0.4103799,1.668054E-05,-0.3650901,3.399925E-08,NaN,NaN,-0.01994634,-2.421447E-10,3.178304E-07,-1.117245E-07,7.49135E-09,-2.861022E-08
541.8408,0.04495681,-8.81232E-09,NaN,-0.3278216,-1.339399E-07,NaN,0.4109032,-6.443051E-08,NaN,-0.4039376,1.668103E-05,-0.3650906,3.409077E-08,NaN,NaN,-0.01994248,-2.421447E-10,3.358608E-07,-1.11723E-07,9.875535E-09,-2.622604E-08
541.8568,0.04495681,-8.81232E-09,NaN,-0.3278216,-1.339399E-07,NaN,0.4109032,-6.443051E-08,NaN,-0.4039376,1.668103E-05,-0.3650906,3.409077E-08,NaN,NaN,-0.01994248,-2.421447E-10,3.358608E-07,-1.11723E-07,9.875535E-09,-2.622604E-08
541.8719,0.04495697,-8.811501E-09,NaN,-0.3278142,-1.339393E-07,NaN,0.4114011,-6.487593E-08,NaN,-0.3975973,1.668152E-05,-0.3650994,3.453786E-08,NaN,NaN,-0.01993859,-2.468013E-10,3.540402E-07,-1.117224E-07,1.225972E-08,-2.861022E-08
541.8888,0.04495713,-8.810682E-09,NaN,-0.3278068,-1.339388E-07,NaN,0.4118938,-6.528431E-08,NaN,-0.3913574,1.668201E-05,-0.3651164,3.494791E-08,NaN,NaN,-0.01993465,-2.514579E-10,3.713255E-07,-1.117219E-07,1.225972E-08,-2.622604E-08
541.9042,0.04495728,-8.809863E-09,NaN,-0.3277996,-1.339383E-07,NaN,0.4123816,-6.56733E-08,NaN,-0.3852164,1.66825E-05,-0.3651413,3.533857E-08,NaN,NaN,-0.01993066,-2.561145E-10,3.880148E-07,-1.117214E-07,1.464391E-08,-2.861022E-08
541.9199,0.04495728,-8.809863E-09,NaN,-0.3277996,-1.339383E-07,NaN,0.4123816,-6.56733E-08,NaN,-0.3852164,1.66825E-05,-0.3651413,3.533857E-08,NaN,NaN,-0.01993066,-2.561145E-10,3.880148E-07,-1.117214E-07,1.464391E-08,-2.861022E-08
541.935,0.04495744,-8.809044E-09,NaN,-0.3277924,-1.339378E-07,NaN,0.4128647,-6.604608E-08,NaN,-0.3791727,1.6683E-05,-0.3651741,3.571303E-08,NaN,NaN,-0.01992664,-2.607711E-10,4.03512E-07,-1.11721E-07,1.225972E-08,-2.622604E-08
541.9516,0.0449576,-8.808225E-09,NaN,-0.3277853,-1.339374E-07,NaN,0.4133436,-6.640863E-08,NaN,-0.3732249,1.668348E-05,-0.3652146,3.607725E-08,NaN,NaN,-0.01992257,-2.561145E-10,4.179662E-07,-1.117205E-07,1.225972E-08,-2.861022E-08
541.9689,0.04495775,-8.807407E-09,NaN,-0.3277783,-1.33937E-07,NaN,0.4138183,-6.676114E-08,NaN,-0.3673713,1.668397E-05,-0.3652628,3.643143E-08,NaN,NaN,-0.01991845,-2.561145E-10,4.325693E-07,-1.117201E-07,1.225972E-08,-2.622604E-08
541.9835,0.04495791,-8.806589E-09,NaN,-0.3277714,-1.339365E-07,NaN,0.4142893,-6.710381E-08,NaN,-0.3616105,1.668447E-05,-0.3653186,3.677577E-08,NaN,NaN,-0.01991428,-2.514579E-10,4.458313E-07,-1.117197E-07,9.875535E-09,-2.861022E-08
541.9996,0.04495791,-8.806589E-09,NaN,-0.3277714,-1.339365E-07,NaN,0.4142893,-6.710381E-08,NaN,-0.3616105,1.668447E-05,-0.3653186,3.677577E-08,NaN,NaN,-0.01991428,-2.514579E-10,4.458313E-07,-1.117197E-07,9.875535E-09,-2.861022E-08
542.0146,0.04495806,-8.805771E-09,NaN,-0.3277646,-1.339361E-07,NaN,0.4147566,-6.743964E-08,NaN,-0.355941,1.668496E-05,-0.3653817,3.711329E-08,NaN,NaN,-0.01991005,-2.468013E-10,4.589443E-07,-1.117193E-07,1.464391E-08,-2.622604E-08
542.0311,0.04495822,-8.804953E-09,NaN,-0.3277579,-1.339357E-07,NaN,0.4152206,-6.776597E-08,NaN,-0.3503614,1.668545E-05,-0.3654523,3.744129E-08,NaN,NaN,-0.01990578,-2.421447E-10,4.717593E-07,-1.117188E-07,1.225972E-08,-2.861022E-08
542.0472,0.04495837,-8.804135E-09,NaN,-0.3277512,-1.339353E-07,NaN,0.4156815,-6.808578E-08,NaN,-0.3448703,1.668595E-05,-0.36553,3.776277E-08,NaN,NaN,-0.01990144,-2.374881E-10,4.836803E-07,-1.117184E-07,7.491349E-09,-2.622604E-08
542.0632,0.04495852,-8.803317E-09,NaN,-0.3277446,-1.339349E-07,NaN,0.4161393,-6.839922E-08,NaN,-0.3394662,1.668644E-05,-0.3656149,3.807789E-08,NaN,NaN,-0.01989705,-2.328315E-10,4.963462E-07,-1.11718E-07,2.722977E-09,-2.861022E-08
542.0789,0.04495852,-8.803317E-09,NaN,-0.3277446,-1.339349E-07,NaN,0.4161393,-6.839922E-08,NaN,-0.3394662,1.668644E-05,-0.3656149,3.807789E-08,NaN,NaN,-0.01989705,-2.328315E-10,4.963462E-07,-1.11718E-07,2.722977E-09,-2.861022E-08
542.0944,0.04495867,-8.802499E-09,NaN,-0.3277381,-1.339345E-07,NaN,0.4165945,-6.87064E-08,NaN,-0.3341478,1.668694E-05,-0.3657068,3.838674E-08,NaN,NaN,-0.0198926,-2.328315E-10,5.082671E-07,-1.117176E-07,-6.813766E-09,-2.622604E-08
542.111,0.04495883,-8.801681E-09,NaN,-0.3277317,-1.339341E-07,NaN,0.4170471,-6.900463E-08,NaN,-0.3289137,1.668744E-05,-0.3658057,3.868664E-08,NaN,NaN,-0.01988808,-2.328315E-10,5.18996E-07,-1.117172E-07,-9.197951E-09,-2.861022E-08
542.1266,0.04495898,-8.800863E-09,NaN,-0.3277254,-1.339336E-07,NaN,0.4174973,-6.92969E-08,NaN,-0.3237626,1.668793E-05,-0.3659115,3.898058E-08,NaN,NaN,-0.0198835,-2.328315E-10,5.294268E-07,-1.117168E-07,-9.197951E-09,-2.622604E-08
542.1424,0.04495913,-8.800045E-09,NaN,-0.3277191,-1.339332E-07,NaN,0.4179454,-6.958333E-08,NaN,-0.3186932,1.668843E-05,-0.366024,3.926869E-08,NaN,NaN,-0.01987885,-2.328315E-10,5.391126E-07,-1.117164E-07,-9.197951E-09,-2.861022E-08
542.1583,0.04495913,-8.800045E-09,NaN,-0.3277191,-1.339332E-07,NaN,0.4179454,-6.958333E-08,NaN,-0.3186932,1.668843E-05,-0.366024,3.926869E-08,NaN,NaN,-0.01987885,-2.328315E-10,5.391126E-07,-1.117164E-07,-9.197951E-09,-2.861022E-08
542.1735,0.04495928,-8.799227E-09,NaN,-0.327713,-1.339328E-07,NaN,0.4183914,-6.986404E-08,NaN,-0.3137042,1.668893E-05,-0.3661431,3.955107E-08,NaN,NaN,-0.01987414,-2.374881E-10,5.479043E-07,-1.11716E-07,-1.158214E-08,-2.622604E-08
542.19,0.04495943,-8.798408E-09,NaN,-0.3277068,-1.339324E-07,NaN,0.4188356,-7.013913E-08,NaN,-0.3087943,1.668943E-05,-0.3662689,3.982783E-08,NaN,NaN,-0.01986935,-2.374881E-10,5.57739E-07,-1.117156E-07,-6.813765E-09,-2.861022E-08
542.206,0.04495957,-8.797589E-09,NaN,-0.3277008,-1.33932E-07,NaN,0.4192782,-7.040872E-08,NaN,-0.3039622,1.668993E-05,-0.3664012,4.00991E-08,NaN,NaN,-0.01986448,-2.374881E-10,5.663817E-07,-1.117151E-07,-4.429579E-09,-2.622604E-08
542.2219,0.04495972,-8.79677E-09,NaN,-0.3276949,-1.339316E-07,NaN,0.4197192,-7.067009E-08,NaN,-0.2992067,1.669043E-05,-0.36654,4.036214E-08,NaN,NaN,-0.01985954,-2.374881E-10,5.760675E-07,-1.117147E-07,-4.429579E-09,-2.861022E-08
542.2374,0.04495972,-8.79677E-09,NaN,-0.3276949,-1.339316E-07,NaN,0.4197192,-7.067009E-08,NaN,-0.2992067,1.669043E-05,-0.36654,4.036214E-08,NaN,NaN,-0.01985954,-2.374881E-10,5.760675E-07,-1.117147E-07,-4.429579E-09,-2.861022E-08
542.2525,0.04495987,-8.795952E-09,NaN,-0.327689,-1.339312E-07,NaN,0.420159,-7.092623E-08,NaN,-0.2945266,1.669093E-05,-0.3666851,4.061995E-08,NaN,NaN,-0.01985453,-2.374881E-10,5.842631E-07,-1.117143E-07,-2.045393E-09,-2.622604E-08
542.2691,0.04496002,-8.795133E-09,NaN,-0.3276832,-1.339308E-07,NaN,0.4205975,-7.117723E-08,NaN,-0.2899208,1.669143E-05,-0.3668365,4.087262E-08,NaN,NaN,-0.01984943,-2.374881E-10,5.920118E-07,-1.117139E-07,5.107164E-09,-2.861022E-08
542.2848,0.04496017,-8.794314E-09,NaN,-0.3276774,-1.339304E-07,NaN,0.421035,-7.142321E-08,NaN,-0.285388,1.669193E-05,-0.3669941,4.112027E-08,NaN,NaN,-0.01984425,-2.374881E-10,6.000584E-07,-1.117135E-07,3.387925E-10,-2.622604E-08
542.3009,0.04496031,-8.793495E-09,NaN,-0.3276717,-1.3393E-07,NaN,0.4214717,-7.166425E-08,NaN,-0.280927,1.669243E-05,-0.3671578,4.136299E-08,NaN,NaN,-0.01983898,-2.421447E-10,6.07509E-07,-1.117131E-07,7.49135E-09,-2.861022E-08
542.3164,0.04496031,-8.793495E-09,NaN,-0.3276717,-1.3393E-07,NaN,0.4214717,-7.166425E-08,NaN,-0.280927,1.669243E-05,-0.3671578,4.136299E-08,NaN,NaN,-0.01983898,-2.421447E-10,6.07509E-07,-1.117131E-07,7.49135E-09,-2.861022E-08
542.3318,0.04496046,-8.792676E-09,NaN,-0.3276661,-1.339296E-07,NaN,0.4219076,-7.190046E-08,NaN,-0.2765368,1.669293E-05,-0.3673277,4.160087E-08,NaN,NaN,-0.01983362,-2.421447E-10,6.140655E-07,-1.117128E-07,-2.045393E-09,-2.622604E-08
542.3481,0.0449606,-8.791857E-09,NaN,-0.3276606,-1.339292E-07,NaN,0.422343,-7.21291E-08,NaN,-0.2722163,1.669342E-05,-0.3675036,4.183118E-08,NaN,NaN,-0.01982817,-2.374881E-10,6.21218E-07,-1.117124E-07,3.387925E-10,-2.861022E-08
542.364,0.04496075,-8.791038E-09,NaN,-0.3276551,-1.339288E-07,NaN,0.4227779,-7.235315E-08,NaN,-0.2679642,1.669392E-05,-0.3676854,4.20569E-08,NaN,NaN,-0.01982263,-2.374881E-10,6.265824E-07,-1.11712E-07,5.107164E-09,-2.622604E-08
542.3795,0.04496075,-8.791038E-09,NaN,-0.3276551,-1.339288E-07,NaN,0.4227779,-7.235315E-08,NaN,-0.2679642,1.669392E-05,-0.3676854,4.20569E-08,NaN,NaN,-0.01982263,-2.374881E-10,6.265824E-07,-1.11712E-07,5.107164E-09,-2.622604E-08
542.3947,0.04496089,-8.790219E-09,NaN,-0.3276497,-1.339284E-07,NaN,0.4232125,-7.25727E-08,NaN,-0.2637796,1.669442E-05,-0.3678731,4.227812E-08,NaN,NaN,-0.01981699,-2.374881E-10,6.328409E-07,-1.117116E-07,3.387925E-10,-2.861022E-08
542.4111,0.04496104,-8.7894E-09,NaN,-0.3276443,-1.33928E-07,NaN,0.4236469,-7.278783E-08,NaN,-0.2596613,1.669491E-05,-0.3680666,4.249493E-08,NaN,NaN,-0.01981126,-2.374881E-10,6.379073E-07,-1.117112E-07,2.722978E-09,-2.622604E-08
542.4272,0.04496118,-8.788581E-09,NaN,-0.3276391,-1.339276E-07,NaN,0.4240813,-7.299864E-08,NaN,-0.2556083,1.669541E-05,-0.368266,4.270741E-08,NaN,NaN,-0.01980543,-2.374881E-10,6.435698E-07,-1.117108E-07,-4.429579E-09,-2.861022E-08
542.4432,0.04496133,-8.787763E-09,NaN,-0.3276339,-1.339272E-07,NaN,0.4245157,-7.320521E-08,NaN,-0.2516196,1.669591E-05,-0.368471,4.291565E-08,NaN,NaN,-0.01979949,-2.374881E-10,6.489342E-07,-1.117104E-07,-6.813765E-09,-2.622604E-08
542.4593,0.04496133,-8.787763E-09,NaN,-0.3276339,-1.339272E-07,NaN,0.4245157,-7.320521E-08,NaN,-0.2516196,1.669591E-05,-0.368471,4.291565E-08,NaN,NaN,-0.01979949,-2.374881E-10,6.489342E-07,-1.117104E-07,-6.813765E-09,-2.622604E-08
542.4755,0.04496147,-8.786944E-09,NaN,-0.3276287,-1.339269E-07,NaN,0.4249504,-7.340761E-08,NaN,-0.2476942,1.669641E-05,-0.3686817,4.311973E-08,NaN,NaN,-0.01979344,-2.374881E-10,6.542986E-07,-1.1171E-07,-9.197951E-09,-2.861022E-08
542.4911,0.04496161,-8.786125E-09,NaN,-0.3276236,-1.339265E-07,NaN,0.4253853,-7.360311E-08,NaN,-0.2438311,1.669691E-05,-0.368898,4.331691E-08,NaN,NaN,-0.01978729,-2.374881E-10,6.59365E-07,-1.117096E-07,-9.197951E-09,-2.622604E-08
542.5065,0.04496175,-8.785306E-09,NaN,-0.3276186,-1.339261E-07,NaN,0.4258206,-7.379467E-08,NaN,-0.2400292,1.669741E-05,-0.3691199,4.351014E-08,NaN,NaN,-0.01978102,-2.374881E-10,6.629413E-07,-1.117093E-07,-6.813765E-09,-2.861022E-08
542.5225,0.04496189,-8.784487E-09,NaN,-0.3276136,-1.339257E-07,NaN,0.4262565,-7.398237E-08,NaN,-0.2362876,1.66979E-05,-0.3693472,4.369951E-08,NaN,NaN,-0.01977463,-2.374881E-10,6.677097E-07,-1.117089E-07,-9.197951E-09,-2.622604E-08
542.5386,0.04496189,-8.784487E-09,NaN,-0.3276136,-1.339257E-07,NaN,0.4262565,-7.398237E-08,NaN,-0.2362876,1.66979E-05,-0.3693472,4.369951E-08,NaN,NaN,-0.01977463,-2.374881E-10,6.677097E-07,-1.117089E-07,-9.197951E-09,-2.622604E-08
542.5539,0.04496203,-8.783668E-09,NaN,-0.3276087,-1.339253E-07,NaN,0.426693,-7.416628E-08,NaN,-0.2326054,1.66984E-05,-0.36958,4.388509E-08,NaN,NaN,-0.01976813,-2.374881E-10,6.727761E-07,-1.117085E-07,-1.158214E-08,-2.861022E-08
542.5705,0.04496218,-8.782849E-09,NaN,-0.3276038,-1.339249E-07,NaN,0.4271303,-7.434647E-08,NaN,-0.2289815,1.66989E-05,-0.3698182,4.406695E-08,NaN,NaN,-0.01976151,-2.374881E-10,6.754583E-07,-1.117081E-07,-9.197951E-09,-2.622604E-08
542.5862,0.04496231,-8.782031E-09,NaN,-0.327599,-1.339238E-07,NaN,0.4275683,-7.415156E-08,NaN,-0.2254152,1.669939E-05,-0.3700617,4.381416E-08,NaN,NaN,-0.01975476,-2.328315E-10,6.781405E-07,-1.117097E-07,-9.197951E-09,-2.861022E-08
542.6021,0.04496245,-8.781213E-09,NaN,-0.3275943,-1.339228E-07,NaN,0.4280074,-7.395664E-08,NaN,-0.2219054,1.669988E-05,-0.3703106,4.351876E-08,NaN,NaN,-0.01974789,-2.188616E-10,6.811208E-07,-1.117115E-07,-6.813765E-09,-2.622604E-08
542.6182,0.04496245,-8.781213E-09,NaN,-0.3275943,-1.339228E-07,NaN,0.4280074,-7.395664E-08,NaN,-0.2219054,1.669988E-05,-0.3703106,4.351876E-08,NaN,NaN,-0.01974789,-2.188616E-10,6.811208E-07,-1.117115E-07,-6.813765E-09,-2.622604E-08
542.6334,0.04496259,-8.780395E-09,NaN,-0.3275896,-1.33922E-07,NaN,0.4284474,-7.376173E-08,NaN,-0.2184512,1.670038E-05,-0.3705646,4.319278E-08,NaN,NaN,-0.01974089,-2.14205E-10,6.83803E-07,-1.117134E-07,-1.158214E-08,-2.861022E-08
542.6498,0.04496273,-8.779577E-09,NaN,-0.327585,-1.339212E-07,NaN,0.4288885,-7.356681E-08,NaN,-0.2150519,1.670087E-05,-0.3708239,4.284505E-08,NaN,NaN,-0.01973375,-2.002352E-10,6.867832E-07,-1.117154E-07,-1.635051E-08,-2.622604E-08
542.6662,0.04496286,-8.778759E-09,NaN,-0.3275804,-1.339206E-07,NaN,0.4293309,-7.337189E-08,NaN,-0.2117065,1.670137E-05,-0.3710884,4.248204E-08,NaN,NaN,-0.01972649,-1.955786E-10,6.888694E-07,-1.117175E-07,-6.813766E-09,-2.861022E-08
542.6818,0.044963,-8.777941E-09,NaN,-0.3275759,-1.3392E-07,NaN,0.4297744,-7.317698E-08,NaN,-0.2084142,1.670186E-05,-0.3713579,4.210852E-08,NaN,NaN,-0.01971908,-1.862654E-10,6.912535E-07,-1.117196E-07,-9.197951E-09,-2.622604E-08
542.6979,0.044963,-8.777941E-09,NaN,-0.3275759,-1.3392E-07,NaN,0.4297744,-7.317698E-08,NaN,-0.2084142,1.670186E-05,-0.3713579,4.210852E-08,NaN,NaN,-0.01971908,-1.862654E-10,6.912535E-07,-1.117196E-07,-9.197951E-09,-2.622604E-08
542.7126,0.04496314,-8.777123E-09,NaN,-0.3275715,-1.339194E-07,NaN,0.4302194,-7.298206E-08,NaN,-0.2051741,1.670236E-05,-0.3716325,4.172797E-08,NaN,NaN,-0.01971153,-1.90922E-10,6.933397E-07,-1.117217E-07,-2.045394E-09,-2.861022E-08
542.7294,0.04496327,-8.776305E-09,NaN,-0.327567,-1.339189E-07,NaN,0.4306657,-7.278715E-08,NaN,-0.2019854,1.670284E-05,-0.371912,4.134294E-08,NaN,NaN,-0.01970383,-1.722955E-10,6.960219E-07,-1.117238E-07,5.107164E-09,-2.622604E-08
542.7453,0.04496341,-8.775487E-09,NaN,-0.3275627,-1.339184E-07,NaN,0.4311135,-7.259223E-08,NaN,-0.1988473,1.670335E-05,-0.3721965,4.095532E-08,NaN,NaN,-0.01969599,-1.722955E-10,6.981081E-07,-1.117259E-07,7.49135E-09,-2.861022E-08
542.7612,0.04496354,-8.774669E-09,NaN,-0.3275584,-1.339179E-07,NaN,0.4315628,-7.239731E-08,NaN,-0.195759,1.670385E-05,-0.3724859,4.056646E-08,NaN,NaN,-0.019688,-1.629823E-10,6.995982E-07,-1.11728E-07,1.225972E-08,-2.622604E-08
542.7772,0.04496354,-8.774669E-09,NaN,-0.3275584,-1.339179E-07,NaN,0.4315628,-7.239731E-08,NaN,-0.195759,1.670385E-05,-0.3724859,4.056646E-08,NaN,NaN,-0.019688,-1.629823E-10,6.995982E-07,-1.11728E-07,1.225972E-08,-2.622604E-08
542.7923,0.04496368,-8.773851E-09,NaN,-0.3275541,-1.339174E-07,NaN,0.4320137,-7.22024E-08,NaN,-0.1927197,1.670434E-05,-0.3727801,4.017738E-08,NaN,NaN,-0.01967985,-1.583257E-10,7.001942E-07,-1.117302E-07,1.225972E-08,-2.861022E-08
542.8084,0.04496381,-8.773033E-09,NaN,-0.3275499,-1.33917E-07,NaN,0.4324663,-7.200748E-08,NaN,-0.1897286,1.670483E-05,-0.3730792,3.978881E-08,NaN,NaN,-0.01967155,-1.490124E-10,7.010883E-07,-1.117323E-07,9.875535E-09,-2.622604E-08
542.8245,0.04496394,-8.772215E-09,NaN,-0.3275458,-1.339165E-07,NaN,0.4329205,-7.181256E-08,NaN,-0.1867849,1.670532E-05,-0.3733829,3.940127E-08,NaN,NaN,-0.01966308,-1.396992E-10,7.007903E-07,-1.117344E-07,9.875535E-09,-2.861022E-08
542.8401,0.04496408,-8.771397E-09,NaN,-0.3275417,-1.339161E-07,NaN,0.4333766,-7.161765E-08,NaN,-0.183888,1.670581E-05,-0.3736914,3.901516E-08,NaN,NaN,-0.01965445,-1.30386E-10,7.022804E-07,-1.117366E-07,7.49135E-09,-2.622604E-08
542.8565,0.04496408,-8.771397E-09,NaN,-0.3275417,-1.339161E-07,NaN,0.4333766,-7.161765E-08,NaN,-0.183888,1.670581E-05,-0.3736914,3.901516E-08,NaN,NaN,-0.01965445,-1.30386E-10,7.022804E-07,-1.117366E-07,7.49135E-09,-2.622604E-08
542.8712,0.04496421,-8.770579E-09,NaN,-0.3275377,-1.339156E-07,NaN,0.4338343,-7.142273E-08,NaN,-0.181037,1.67063E-05,-0.3740044,3.863076E-08,NaN,NaN,-0.01964566,-1.30386E-10,7.022804E-07,-1.117387E-07,5.107164E-09,-2.861022E-08
542.8881,0.04496434,-8.769761E-09,NaN,-0.3275337,-1.339152E-07,NaN,0.4342939,-7.122782E-08,NaN,-0.1782313,1.670679E-05,-0.374322,3.824826E-08,NaN,NaN,-0.01963669,-1.164161E-10,7.040685E-07,-1.117408E-07,-4.429579E-09,-2.622604E-08
542.9037,0.04496447,-8.768943E-09,NaN,-0.3275297,-1.339148E-07,NaN,0.4347554,-7.10329E-08,NaN,-0.1754701,1.670729E-05,-0.3746441,3.786781E-08,NaN,NaN,-0.01962755,-1.071029E-10,7.043665E-07,-1.11743E-07,-4.429579E-09,-2.861022E-08
542.9194,0.04496447,-8.768943E-09,NaN,-0.3275297,-1.339148E-07,NaN,0.4347554,-7.10329E-08,NaN,-0.1754701,1.670729E-05,-0.3746441,3.786781E-08,NaN,NaN,-0.01962755,-1.071029E-10,7.043665E-07,-1.11743E-07,-4.429579E-09,-2.861022E-08
542.9345,0.0449646,-8.768125E-09,NaN,-0.3275258,-1.339144E-07,NaN,0.4352187,-7.083798E-08,NaN,-0.1727527,1.670779E-05,-0.3749707,3.748952E-08,NaN,NaN,-0.01961823,-9.778969E-11,7.040685E-07,-1.117451E-07,-4.429579E-09,-2.622604E-08
542.9508,0.04496473,-8.767307E-09,NaN,-0.327522,-1.33914E-07,NaN,0.4356839,-7.064307E-08,NaN,-0.1700785,1.67083E-05,-0.3753016,3.711345E-08,NaN,NaN,-0.01960873,-9.778969E-11,7.037705E-07,-1.117472E-07,-2.045393E-09,-2.861022E-08
542.9669,0.04496486,-8.766489E-09,NaN,-0.3275181,-1.339136E-07,NaN,0.436151,-7.044815E-08,NaN,-0.1674466,1.67088E-05,-0.3756368,3.673965E-08,NaN,NaN,-0.01959905,-9.313308E-11,7.031744E-07,-1.117493E-07,-6.813765E-09,-2.622604E-08
542.9838,0.044965,-8.765671E-09,NaN,-0.3275144,-1.339132E-07,NaN,0.43662,-7.025324E-08,NaN,-0.1648566,1.67093E-05,-0.3759763,3.636816E-08,NaN,NaN,-0.01958918,-8.847646E-11,7.028764E-07,-1.117514E-07,-4.429579E-09,-2.861022E-08
542.9988,0.044965,-8.765671E-09,NaN,-0.3275144,-1.339132E-07,NaN,0.43662,-7.025324E-08,NaN,-0.1648566,1.67093E-05,-0.3759763,3.636816E-08,NaN,NaN,-0.01958918,-8.847646E-11,7.028764E-07,-1.117514E-07,-4.429579E-09,-2.861022E-08
543.0137,0.04496513,-8.764853E-09,NaN,-0.3275107,-1.339128E-07,NaN,0.437091,-7.005832E-08,NaN,-0.1623076,1.67098E-05,-0.3763199,3.599898E-08,NaN,NaN,-0.01957913,-7.916324E-11,7.028764E-07,-1.117535E-07,3.387925E-10,-2.622604E-08
543.0303,0.04496526,-8.764035E-09,NaN,-0.327507,-1.339124E-07,NaN,0.4375639,-6.98634E-08,NaN,-0.1597991,1.67103E-05,-0.3766677,3.563213E-08,NaN,NaN,-0.01956888,-6.985001E-11,7.025783E-07,-1.117557E-07,3.387925E-10,-2.861022E-08
543.0458,0.04496538,-8.763217E-09,NaN,-0.3275034,-1.339121E-07,NaN,0.4380387,-6.966849E-08,NaN,-0.1573305,1.67108E-05,-0.3770195,3.526761E-08,NaN,NaN,-0.01955843,-6.053679E-11,7.019823E-07,-1.117578E-07,3.387925E-10,-2.622604E-08
543.0618,0.04496551,-8.762399E-09,NaN,-0.3274998,-1.339117E-07,NaN,0.4385154,-6.947357E-08,NaN,-0.154901,1.67113E-05,-0.3773752,3.490543E-08,NaN,NaN,-0.01954779,-5.588018E-11,7.022803E-07,-1.117599E-07,3.387925E-10,-2.861022E-08
543.0776,0.04496551,-8.762399E-09,NaN,-0.3274998,-1.339117E-07,NaN,0.4385154,-6.947357E-08,NaN,-0.154901,1.67113E-05,-0.3773752,3.490543E-08,NaN,NaN,-0.01954779,-5.588018E-11,7.022803E-07,-1.117599E-07,3.387925E-10,-2.861022E-08
543.0931,0.04496564,-8.761581E-09,NaN,-0.3274962,-1.339113E-07,NaN,0.4389941,-6.927866E-08,NaN,-0.15251,1.671179E-05,-0.3777348,3.454556E-08,NaN,NaN,-0.01953694,-4.191034E-11,7.013862E-07,-1.11762E-07,7.49135E-09,-2.622604E-08
543.1094,0.04496576,-8.760763E-09,NaN,-0.3274927,-1.33911E-07,NaN,0.4394746,-6.908374E-08,NaN,-0.1501571,1.67123E-05,-0.3780981,3.418802E-08,NaN,NaN,-0.0195259,-4.191034E-11,7.022803E-07,-1.117641E-07,1.464391E-08,-2.861022E-08
543.1255,0.04496589,-8.759945E-09,NaN,-0.3274893,-1.339106E-07,NaN,0.4399571,-6.888882E-08,NaN,-0.1478414,1.67128E-05,-0.3784652,3.383278E-08,NaN,NaN,-0.01951464,-3.259711E-11,7.013862E-07,-1.117662E-07,5.107164E-09,-2.622604E-08
543.1411,0.04496602,-8.759127E-09,NaN,-0.3274858,-1.339103E-07,NaN,0.4404414,-6.869391E-08,NaN,-0.1455626,1.671331E-05,-0.3788358,3.347984E-08,NaN,NaN,-0.01950318,-3.259711E-11,6.995981E-07,-1.117682E-07,9.875536E-09,-2.861022E-08
543.1571,0.04496602,-8.759127E-09,NaN,-0.3274858,-1.339103E-07,NaN,0.4404414,-6.869391E-08,NaN,-0.1455626,1.671331E-05,-0.3788358,3.347984E-08,NaN,NaN,-0.01950318,-3.259711E-11,6.995981E-07,-1.117682E-07,9.875536E-09,-2.861022E-08
543.172,0.04496614,-8.758309E-09,NaN,-0.3274825,-1.3391E-07,NaN,0.4409275,-6.849899E-08,NaN,-0.1433199,1.67138E-05,-0.37921,3.312918E-08,NaN,NaN,-0.0194915,-2.328389E-11,6.98406E-07,-1.117703E-07,7.49135E-09,-2.622604E-08
543.1885,0.04496627,-8.757491E-09,NaN,-0.3274791,-1.339096E-07,NaN,0.4414153,-6.830408E-08,NaN,-0.1411128,1.671431E-05,-0.3795876,3.278079E-08,NaN,NaN,-0.0194796,-2.328389E-11,6.966179E-07,-1.117724E-07,5.107164E-09,-2.861022E-08
543.2044,0.04496639,-8.756673E-09,NaN,-0.3274758,-1.339093E-07,NaN,0.4419049,-6.810916E-08,NaN,-0.1389408,1.67148E-05,-0.3799685,3.243466E-08,NaN,NaN,-0.01946749,-9.314049E-12,6.951278E-07,-1.117745E-07,7.49135E-09,-2.622604E-08
543.2204,0.04496652,-8.755855E-09,NaN,-0.3274726,-1.33909E-07,NaN,0.4423962,-6.791424E-08,NaN,-0.1368032,1.671531E-05,-0.3803526,3.209077E-08,NaN,NaN,-0.01945516,-4.657436E-12,6.948297E-07,-1.117766E-07,1.702809E-08,-2.861022E-08
543.236,0.04496652,-8.755855E-09,NaN,-0.3274726,-1.33909E-07,NaN,0.4423962,-6.791424E-08,NaN,-0.1368032,1.671531E-05,-0.3803526,3.209077E-08,NaN,NaN,-0.01945516,-4.657436E-12,6.948297E-07,-1.117766E-07,1.702809E-08,-2.861022E-08
543.251,0.04496664,-8.755037E-09,NaN,-0.3274693,-1.339087E-07,NaN,0.4429625,-6.771933E-08,NaN,-0.134842,1.67158E-05,-0.3808154,3.174911E-08,NaN,NaN,-0.01944846,9.312402E-12,6.897633E-07,-1.117786E-07,1.225972E-08,-2.622604E-08
543.2676,0.04496676,-8.754219E-09,NaN,-0.3274662,-1.339084E-07,NaN,0.4435291,-6.752441E-08,NaN,-0.1329987,1.67163E-05,-0.3812813,3.140967E-08,NaN,NaN,-0.01943921,1.396902E-11,6.86187E-07,-1.117807E-07,1.225972E-08,-2.861022E-08
543.2831,0.04496689,-8.753401E-09,NaN,-0.327463,-1.339081E-07,NaN,0.4440834,-6.732949E-08,NaN,-0.1312256,1.671679E-05,-0.3817368,3.107243E-08,NaN,NaN,-0.01942876,2.793885E-11,6.820147E-07,-1.117828E-07,7.49135E-09,-2.622604E-08
543.2997,0.04496689,-8.753401E-09,NaN,-0.327463,-1.339081E-07,NaN,0.4440834,-6.732949E-08,NaN,-0.1312256,1.671679E-05,-0.3817368,3.107243E-08,NaN,NaN,-0.01942876,2.793885E-11,6.820147E-07,-1.117828E-07,7.49135E-09,-2.622604E-08
543.3143,0.04496701,-8.752583E-09,NaN,-0.3274599,-1.339078E-07,NaN,0.4446269,-6.713458E-08,NaN,-0.1295001,1.671731E-05,-0.3821827,3.073738E-08,NaN,NaN,-0.01941771,2.328224E-11,6.793325E-07,-1.117849E-07,9.875535E-09,-2.861022E-08
543.3308,0.04496714,-8.751765E-09,NaN,-0.3274568,-1.339075E-07,NaN,0.4458275,-6.693966E-08,NaN,-0.1290199,1.671781E-05,-0.3833049,3.040451E-08,NaN,NaN,-0.01946134,2.793885E-11,6.495302E-07,-1.117869E-07,1.225972E-08,-2.622604E-08
543.3466,0.04496728,-8.750947E-09,NaN,-0.3274538,-1.339072E-07,NaN,0.4469914,-6.674475E-08,NaN,-0.1292913,1.671832E-05,-0.3844028,3.007379E-08,NaN,NaN,-0.01948233,2.328224E-11,6.289666E-07,-1.11789E-07,1.464391E-08,-2.861022E-08
543.3626,0.04496741,-8.750129E-09,NaN,-0.3274508,-1.33907E-07,NaN,0.4480203,-6.654983E-08,NaN,-0.1299095,1.671882E-05,-0.3853705,2.974522E-08,NaN,NaN,-0.01949365,2.793885E-11,6.128734E-07,-1.11791E-07,1.464391E-08,-2.622604E-08
543.3788,0.04496741,-8.750129E-09,NaN,-0.3274508,-1.33907E-07,NaN,0.4480203,-6.654983E-08,NaN,-0.1299095,1.671882E-05,-0.3853705,2.974522E-08,NaN,NaN,-0.01949365,2.793885E-11,6.128734E-07,-1.11791E-07,1.464391E-08,-2.622604E-08
543.3936,0.04496754,-8.749311E-09,NaN,-0.3274479,-1.339067E-07,NaN,0.4489359,-6.635491E-08,NaN,-0.1306842,1.671933E-05,-0.3862263,2.941879E-08,NaN,NaN,-0.01950079,2.793885E-11,6.018465E-07,-1.117931E-07,9.875534E-09,-2.861022E-08
543.41,0.04496767,-8.748493E-09,NaN,-0.327445,-1.339064E-07,NaN,0.4504395,-6.616E-08,NaN,-0.1327348,1.671983E-05,-0.3876879,2.909447E-08,NaN,NaN,-0.01956128,3.259546E-11,5.556529E-07,-1.117951E-07,7.491348E-09,-2.622604E-08
543.4261,0.04496781,-8.747674E-09,NaN,-0.3274421,-1.339062E-07,NaN,0.451839,-6.596508E-08,NaN,-0.1355309,1.672033E-05,-0.3890562,2.877226E-08,NaN,NaN,-0.01959728,4.190869E-11,5.270427E-07,-1.117972E-07,2.722977E-09,-2.861022E-08
543.4418,0.04496795,-8.746855E-09,NaN,-0.3274393,-1.339059E-07,NaN,0.4530625,-6.577017E-08,NaN,-0.1386497,1.672083E-05,-0.3902519,2.845214E-08,NaN,NaN,-0.01962253,5.122192E-11,5.032009E-07,-1.117992E-07,-4.429581E-09,-2.622604E-08
543.4576,0.04496795,-8.746855E-09,NaN,-0.3274393,-1.339059E-07,NaN,0.4530625,-6.577017E-08,NaN,-0.1386497,1.672083E-05,-0.3902519,2.845214E-08,NaN,NaN,-0.01962253,5.122192E-11,5.032009E-07,-1.117992E-07,-4.429581E-09,-2.622604E-08
543.4729,0.04496808,-8.746036E-09,NaN,-0.3274365,-1.339057E-07,NaN,0.4541454,-6.557525E-08,NaN,-0.141893,1.672133E-05,-0.3913069,2.81341E-08,NaN,NaN,-0.01964272,5.587853E-11,4.853194E-07,-1.118013E-07,-6.813766E-09,-2.861022E-08
543.491,0.04496822,-8.745217E-09,NaN,-0.3274337,-1.339054E-07,NaN,0.4557481,-6.538033E-08,NaN,-0.1463802,1.672183E-05,-0.3928993,2.781812E-08,NaN,NaN,-0.01970943,6.053514E-11,4.376357E-07,-1.118033E-07,-4.429581E-09,-2.622604E-08
543.5052,0.04496836,-8.744398E-09,NaN,-0.327431,-1.339052E-07,NaN,0.4572246,-6.518542E-08,NaN,-0.151574,1.672233E-05,-0.3943761,2.75042E-08,NaN,NaN,-0.01975253,6.053514E-11,4.02469E-07,-1.118053E-07,2.722977E-09,-2.861022E-08
543.5209,0.04496849,-8.743579E-09,NaN,-0.3274283,-1.33905E-07,NaN,0.45851,-6.49905E-08,NaN,-0.1570527,1.672283E-05,-0.3956651,2.719231E-08,NaN,NaN,-0.01978474,6.984836E-11,3.732627E-07,-1.118073E-07,-2.045395E-09,-2.622604E-08
543.5367,0.04496849,-8.743579E-09,NaN,-0.3274283,-1.33905E-07,NaN,0.45851,-6.49905E-08,NaN,-0.1570527,1.672283E-05,-0.3956651,2.719231E-08,NaN,NaN,-0.01978474,6.984836E-11,3.732627E-07,-1.118073E-07,-2.045395E-09,-2.622604E-08
543.5517,0.04496863,-8.74276E-09,NaN,-0.3274256,-1.339048E-07,NaN,0.4596406,-6.479559E-08,NaN,-0.1626186,1.672333E-05,-0.3967989,2.688245E-08,NaN,NaN,-0.01981127,6.984836E-11,3.482288E-07,-1.118094E-07,-2.045395E-09,-2.861022E-08
543.5682,0.04496877,-8.741941E-09,NaN,-0.327423,-1.339045E-07,NaN,0.4612005,-6.460067E-08,NaN,-0.1693972,1.672384E-05,-0.3983812,2.65746E-08,NaN,NaN,-0.01987411,7.450498E-11,2.910083E-07,-1.118114E-07,-6.813766E-09,-2.622604E-08
543.5839,0.04496891,-8.741122E-09,NaN,-0.3274204,-1.339043E-07,NaN,0.4626281,-6.440575E-08,NaN,-0.1768421,1.672433E-05,-0.3998432,2.626874E-08,NaN,NaN,-0.01991621,7.916159E-11,2.492851E-07,-1.118134E-07,-6.813766E-09,-2.861022E-08
543.6001,0.04496905,-8.740304E-09,NaN,-0.3274179,-1.339041E-07,NaN,0.4638615,-6.421084E-08,NaN,-0.1845353,1.672483E-05,-0.401115,2.596488E-08,NaN,NaN,-0.01994827,8.381821E-11,2.173966E-07,-1.118154E-07,-6.813766E-09,-2.622604E-08
543.6157,0.04496905,-8.740304E-09,NaN,-0.3274179,-1.339041E-07,NaN,0.4638615,-6.421084E-08,NaN,-0.1845353,1.672483E-05,-0.401115,2.596488E-08,NaN,NaN,-0.01994827,8.381821E-11,2.173966E-07,-1.118154E-07,-6.813766E-09,-2.622604E-08
543.6308,0.04496919,-8.739485E-09,NaN,-0.3274153,-1.339044E-07,NaN,0.4649341,-6.484778E-08,NaN,-0.1922805,1.672534E-05,-0.4022262,2.651543E-08,NaN,NaN,-0.0199747,7.916159E-11,1.890844E-07,-1.118171E-07,-9.197953E-09,-2.861022E-08
543.6472,0.04496931,-8.738666E-09,NaN,-0.3274128,-1.339049E-07,NaN,0.4653421,-6.544781E-08,NaN,-0.1985465,1.672584E-05,-0.4026433,2.704667E-08,NaN,NaN,-0.01996214,8.381821E-11,1.962369E-07,-1.118188E-07,-9.197953E-09,-2.622604E-08
543.663,0.04496943,-8.737847E-09,NaN,-0.3274103,-1.339054E-07,NaN,0.4656828,-6.601199E-08,NaN,-0.2038939,1.672635E-05,-0.4029719,2.755615E-08,NaN,NaN,-0.01996304,7.916159E-11,1.908725E-07,-1.118205E-07,-1.396632E-08,-2.861022E-08
543.6788,0.04496943,-8.737847E-09,NaN,-0.3274103,-1.339054E-07,NaN,0.4656828,-6.601199E-08,NaN,-0.2038939,1.672635E-05,-0.4029719,2.755615E-08,NaN,NaN,-0.01996304,7.916159E-11,1.908725E-07,-1.118205E-07,-1.396632E-08,-2.861022E-08
543.6939,0.04496955,-8.737028E-09,NaN,-0.3274079,-1.339059E-07,NaN,0.4660664,-6.654639E-08,NaN,-0.2087682,1.672685E-05,-0.4033327,2.804712E-08,NaN,NaN,-0.01996876,7.916159E-11,1.801437E-07,-1.118222E-07,-1.635051E-08,-2.622604E-08
543.7103,0.04496967,-8.736209E-09,NaN,-0.3274055,-1.339065E-07,NaN,0.4664881,-6.705927E-08,NaN,-0.2133806,1.672735E-05,-0.4037262,2.852558E-08,NaN,NaN,-0.019976,8.381821E-11,1.685208E-07,-1.118239E-07,-1.396632E-08,-2.861022E-08
543.7263,0.0449698,-8.73539E-09,NaN,-0.3274031,-1.33907E-07,NaN,0.4669246,-6.755549E-08,NaN,-0.2178317,1.672786E-05,-0.4041322,2.899459E-08,NaN,NaN,-0.01998348,7.916159E-11,1.545137E-07,-1.118256E-07,-1.396632E-08,-2.622604E-08
543.7419,0.04496992,-8.734571E-09,NaN,-0.3274007,-1.339076E-07,NaN,0.4673578,-6.803668E-08,NaN,-0.22217,1.672838E-05,-0.4045338,2.945435E-08,NaN,NaN,-0.01999071,6.984837E-11,1.411026E-07,-1.118273E-07,-1.87347E-08,-2.861022E-08
543.7578,0.04496992,-8.734571E-09,NaN,-0.3274007,-1.339076E-07,NaN,0.4673578,-6.803668E-08,NaN,-0.22217,1.672838E-05,-0.4045338,2.945435E-08,NaN,NaN,-0.01999071,6.984837E-11,1.411026E-07,-1.118273E-07,-1.87347E-08,-2.861022E-08
543.7726,0.04497004,-8.733752E-09,NaN,-0.3273984,-1.339082E-07,NaN,0.4677766,-6.850419E-08,NaN,-0.2264193,1.672888E-05,-0.4049205,2.990502E-08,NaN,NaN,-0.01999752,6.519175E-11,1.285857E-07,-1.11829E-07,-2.350307E-08,-2.622604E-08
543.7892,0.04497017,-8.732933E-09,NaN,-0.327396,-1.339087E-07,NaN,0.4681755,-6.896192E-08,NaN,-0.2305915,1.672939E-05,-0.4052867,3.034963E-08,NaN,NaN,-0.02000386,6.053514E-11,1.166647E-07,-1.118307E-07,-2.111888E-08,-2.861022E-08
543.8049,0.04497018,-8.732114E-09,NaN,-0.3273937,-1.339093E-07,NaN,0.4685521,-6.940792E-08,NaN,-0.2346928,1.67299E-05,-0.4056301,3.078544E-08,NaN,NaN,-0.02000973,5.587853E-11,1.050418E-07,-1.118324E-07,-2.111888E-08,-2.622604E-08
543.821,0.04497016,-8.731294E-09,NaN,-0.3273915,-1.339099E-07,NaN,0.4689056,-6.984577E-08,NaN,-0.2387269,1.67304E-05,-0.4059498,3.121547E-08,NaN,NaN,-0.02001515,5.587853E-11,9.133277E-08,-1.118341E-07,-2.111888E-08,-2.861022E-08
543.8366,0.04497016,-8.731294E-09,NaN,-0.3273915,-1.339099E-07,NaN,0.4689056,-6.984577E-08,NaN,-0.2387269,1.67304E-05,-0.4059498,3.121547E-08,NaN,NaN,-0.02001515,5.587853E-11,9.133277E-08,-1.118341E-07,-2.111888E-08,-2.861022E-08
543.8517,0.04497013,-8.730474E-09,NaN,-0.3273892,-1.339104E-07,NaN,0.4692365,-7.027323E-08,NaN,-0.2426959,1.67309E-05,-0.406246,3.1637E-08,NaN,NaN,-0.02002013,5.587853E-11,7.911381E-08,-1.118358E-07,-2.111888E-08,-2.622604E-08
543.8685,0.0449701,-8.729654E-09,NaN,-0.327387,-1.33911E-07,NaN,0.4695455,-7.069367E-08,NaN,-0.2466014,1.67314E-05,-0.4065194,3.205303E-08,NaN,NaN,-0.02002472,5.587853E-11,6.600079E-08,-1.118375E-07,-2.111888E-08,-2.861022E-08
543.884,0.04424262,-8.728835E-09,NaN,-0.3273865,-1.339116E-07,NaN,0.4708082,-7.110751E-08,NaN,-0.250037,1.67319E-05,-0.4075823,3.246367E-08,NaN,NaN,-0.0200279,6.053514E-11,5.497393E-08,-1.118391E-07,-2.588725E-08,-2.622604E-08
543.9001,0.04306045,-8.728015E-09,NaN,-0.3273863,-1.339122E-07,NaN,0.472338,-7.151227E-08,NaN,-0.2532941,1.673241E-05,-0.408829,3.286618E-08,NaN,NaN,-0.02003062,6.053514E-11,4.424509E-08,-1.118408E-07,-2.350307E-08,-2.861022E-08
543.9158,0.04306045,-8.728015E-09,NaN,-0.3273863,-1.339122E-07,NaN,0.472338,-7.151227E-08,NaN,-0.2532941,1.673241E-05,-0.408829,3.286618E-08,NaN,NaN,-0.02003062,6.053514E-11,4.424509E-08,-1.118408E-07,-2.350307E-08,-2.861022E-08
543.9312,0.04159713,-8.727195E-09,NaN,-0.3273861,-1.339127E-07,NaN,0.4738781,-7.191112E-08,NaN,-0.2564882,1.673291E-05,-0.4100458,3.326357E-08,NaN,NaN,-0.02003313,6.053514E-11,3.53044E-08,-1.118425E-07,-2.588725E-08,-2.622604E-08
543.9477,0.03996303,-8.726375E-09,NaN,-0.3273857,-1.339133E-07,NaN,0.4753436,-7.230149E-08,NaN,-0.2596583,1.673341E-05,-0.411171,3.365309E-08,NaN,NaN,-0.02003546,6.053514E-11,2.606568E-08,-1.118441E-07,-2.350307E-08,-2.861022E-08
543.9636,0.03749999,-8.725555E-09,NaN,-0.3273863,-1.339138E-07,NaN,0.4776576,-7.268649E-08,NaN,-0.2624051,1.673391E-05,-0.4129811,3.403774E-08,NaN,NaN,-0.02003665,6.519175E-11,1.921114E-08,-1.118458E-07,-1.87347E-08,-2.622604E-08
543.9793,0.03749999,-8.725555E-09,NaN,-0.3273863,-1.339138E-07,NaN,0.4776576,-7.268649E-08,NaN,-0.2624051,1.673391E-05,-0.4129811,3.403774E-08,NaN,NaN,-0.02003665,6.519175E-11,1.921114E-08,-1.118458E-07,-1.87347E-08,-2.622604E-08
543.9958,0.0345257,-8.724736E-09,NaN,-0.3273869,-1.339144E-07,NaN,0.4801649,-7.306631E-08,NaN,-0.2650157,1.673441E-05,-0.4149078,3.441761E-08,NaN,NaN,-0.02003754,6.984837E-11,1.116452E-08,-1.118474E-07,-2.111888E-08,-2.861022E-08
544.0109,0.03124221,-8.723916E-09,NaN,-0.3273871,-1.33915E-07,NaN,0.4826266,-7.34383E-08,NaN,-0.267599,1.673491E-05,-0.4167578,3.478996E-08,NaN,NaN,-0.02003832,6.984837E-11,3.415913E-09,-1.118491E-07,-2.350307E-08,-2.622604E-08
544.0268,0.02777793,-8.723096E-09,NaN,-0.327387,-1.339155E-07,NaN,0.4849691,-7.38055E-08,NaN,-0.2701873,1.673541E-05,-0.4184818,3.515777E-08,NaN,NaN,-0.02003902,6.984837E-11,-1.650482E-09,-1.118507E-07,-2.588725E-08,-2.861022E-08
544.0427,0.02348609,-8.722276E-09,NaN,-0.327388,-1.339161E-07,NaN,0.4881052,-7.416521E-08,NaN,-0.2723782,1.673591E-05,-0.4208501,3.551831E-08,NaN,NaN,-0.0200387,6.984837E-11,-1.08892E-08,-1.118523E-07,-1.873469E-08,-2.622604E-08
544.0588,0.02348609,-8.722276E-09,NaN,-0.327388,-1.339161E-07,NaN,0.4881052,-7.416521E-08,NaN,-0.2723782,1.673591E-05,-0.4208501,3.551831E-08,NaN,NaN,-0.0200387,6.984837E-11,-1.08892E-08,-1.118523E-07,-1.873469E-08,-2.622604E-08
544.0737,0.01869156,-8.721456E-09,NaN,-0.3273886,-1.339166E-07,NaN,0.4913997,-7.452046E-08,NaN,-0.2744537,1.673641E-05,-0.4233136,3.587454E-08,NaN,NaN,-0.02003815,6.984837E-11,-1.684967E-08,-1.11854E-07,-2.111888E-08,-2.861022E-08
544.0901,0.01360087,-8.720637E-09,NaN,-0.3273887,-1.339172E-07,NaN,0.4946232,-7.486852E-08,NaN,-0.2765192,1.673692E-05,-0.425687,3.622371E-08,NaN,NaN,-0.02003755,6.984837E-11,-2.608839E-08,-1.118556E-07,-1.635051E-08,-2.622604E-08
544.106,0.008345172,-8.719817E-09,NaN,-0.3273883,-1.339177E-07,NaN,0.4977063,-7.52124E-08,NaN,-0.2786054,1.673741E-05,-0.4279241,3.65688E-08,NaN,NaN,-0.02003693,7.450499E-11,-3.294292E-08,-1.118572E-07,-1.158214E-08,-2.861022E-08
544.1216,0.002279348,-8.718997E-09,NaN,-0.327389,-1.339183E-07,NaN,0.501556,-7.555218E-08,NaN,-0.2803107,1.673792E-05,-0.4307923,3.690988E-08,NaN,NaN,-0.02003532,7.450499E-11,-3.830734E-08,-1.118588E-07,-9.197951E-09,-2.622604E-08
544.1378,0.002279348,-8.718997E-09,NaN,-0.327389,-1.339183E-07,NaN,0.501556,-7.555218E-08,NaN,-0.2803107,1.673792E-05,-0.4307923,3.690988E-08,NaN,NaN,-0.02003532,7.450499E-11,-3.830734E-08,-1.118588E-07,-9.197951E-09,-2.622604E-08
544.1525,-0.004270721,-8.718177E-09,NaN,-0.3273891,-1.339188E-07,NaN,0.5055451,-7.588515E-08,NaN,-0.2819144,1.673842E-05,-0.4337486,3.724421E-08,NaN,NaN,-0.02003354,7.450499E-11,-4.54599E-08,-1.118604E-07,-1.158214E-08,-2.861022E-08
544.1691,-0.01109798,-8.717358E-09,NaN,-0.3273886,-1.339195E-07,NaN,0.5094476,-7.599916E-08,NaN,-0.2835208,1.673891E-05,-0.4366098,3.735964E-08,NaN,NaN,-0.02003176,8.381821E-11,-4.93342E-08,-1.118602E-07,-9.197951E-09,-2.622604E-08
544.1855,-0.01807102,-8.716539E-09,NaN,-0.3273876,-1.339198E-07,NaN,0.5131956,-7.623163E-08,NaN,-0.2851597,1.673941E-05,-0.4393296,3.759357E-08,NaN,NaN,-0.02002998,8.381821E-11,-5.380454E-08,-1.118597E-07,-1.635051E-08,-2.861022E-08
544.2009,-0.0258349,-8.715721E-09,NaN,-0.3273875,-1.339198E-07,NaN,0.5176979,-7.652403E-08,NaN,-0.2864324,1.673992E-05,-0.44268,3.788747E-08,NaN,NaN,-0.02002725,8.381821E-11,-5.797687E-08,-1.11859E-07,-1.873469E-08,-2.622604E-08
544.2163,-0.0258349,-8.715721E-09,NaN,-0.3273875,-1.339198E-07,NaN,0.5176979,-7.652403E-08,NaN,-0.2864324,1.673992E-05,-0.44268,3.788747E-08,NaN,NaN,-0.02002725,8.381821E-11,-5.797687E-08,-1.11859E-07,-1.873469E-08,-2.622604E-08
544.2316,-0.03406376,-8.714903E-09,NaN,-0.3273867,-1.339197E-07,NaN,0.5223269,-7.684993E-08,NaN,-0.2876154,1.674043E-05,-0.4461161,3.82149E-08,NaN,NaN,-0.02002436,7.450499E-11,-6.423536E-08,-1.118583E-07,-1.635051E-08,-2.861022E-08
544.248,-0.04255062,-8.714085E-09,NaN,-0.3273852,-1.339195E-07,NaN,0.5268576,-7.718897E-08,NaN,-0.2888123,1.674093E-05,-0.4494543,3.85555E-08,NaN,NaN,-0.0200215,7.91616E-11,-7.138792E-08,-1.118574E-07,-1.158214E-08,-2.622604E-08
544.264,-0.05116424,-8.713267E-09,NaN,-0.3273831,-1.339192E-07,NaN,0.5312228,-7.753531E-08,NaN,-0.2900523,1.674143E-05,-0.4526476,3.890342E-08,NaN,NaN,-0.02001868,7.91616E-11,-7.645431E-08,-1.118566E-07,-9.197951E-09,-2.861022E-08
544.2798,-0.05116424,-8.713267E-09,NaN,-0.3273831,-1.339192E-07,NaN,0.5312228,-7.753531E-08,NaN,-0.2900523,1.674143E-05,-0.4526476,3.890342E-08,NaN,NaN,-0.02001868,7.91616E-11,-7.645431E-08,-1.118566E-07,-9.197951E-09,-2.861022E-08
544.2952,-0.06054986,-8.712448E-09,NaN,-0.3273819,-1.339189E-07,NaN,0.5363395,-7.788037E-08,NaN,-0.2909402,1.674193E-05,-0.4564789,3.925006E-08,NaN,NaN,-0.02001488,8.381822E-11,-8.181873E-08,-1.118557E-07,-4.429579E-09,-2.622604E-08
544.3116,-0.07038178,-8.711629E-09,NaN,-0.3273799,-1.339186E-07,NaN,0.5415744,-7.822135E-08,NaN,-0.2917498,1.674243E-05,-0.4603962,3.959265E-08,NaN,NaN,-0.02001095,8.381822E-11,-8.360687E-08,-1.118548E-07,-2.045394E-09,-2.861022E-08
544.3274,-0.08045323,-8.71081E-09,NaN,-0.3273771,-1.339183E-07,NaN,0.5467018,-7.855835E-08,NaN,-0.2925835,1.674293E-05,-0.4642134,3.993127E-08,NaN,NaN,-0.02000707,8.847483E-11,-8.748117E-08,-1.118539E-07,-2.045394E-09,-2.622604E-08
544.3433,-0.09063316,-8.709991E-09,NaN,-0.3273731,-1.33918E-07,NaN,0.551653,-7.888863E-08,NaN,-0.2934698,1.674343E-05,-0.4678814,4.026317E-08,NaN,NaN,-0.02000326,8.847483E-11,-8.926931E-08,-1.11853E-07,-4.429579E-09,-2.861022E-08
544.3593,-0.09063316,-8.709991E-09,NaN,-0.3273731,-1.33918E-07,NaN,0.551653,-7.888863E-08,NaN,-0.2934698,1.674343E-05,-0.4678814,4.026317E-08,NaN,NaN,-0.02000326,8.847483E-11,-8.926931E-08,-1.11853E-07,-4.429579E-09,-2.861022E-08
544.3745,-0.101567,-8.709172E-09,NaN,-0.3273701,-1.339177E-07,NaN,0.557362,-7.921233E-08,NaN,-0.2940185,1.674393E-05,-0.4722025,4.058851E-08,NaN,NaN,-0.01999843,9.313145E-11,-8.837524E-08,-1.118521E-07,-2.045394E-09,-2.622604E-08
544.3909,-0.1129293,-8.708353E-09,NaN,-0.3273662,-1.339173E-07,NaN,0.5631836,-7.952958E-08,NaN,-0.2944996,1.674444E-05,-0.4766112,4.090739E-08,NaN,NaN,-0.01999349,8.381822E-11,-8.733215E-08,-1.118513E-07,-4.429579E-09,-2.861022E-08
544.4067,-0.1245134,-8.707534E-09,NaN,-0.3273604,-1.33917E-07,NaN,0.5688878,-7.984051E-08,NaN,-0.2950138,1.674494E-05,-0.480916,4.121996E-08,NaN,NaN,-0.01998863,8.847484E-11,-9.135547E-08,-1.118504E-07,-4.429579E-09,-2.622604E-08
544.423,-0.1361886,-8.706715E-09,NaN,-0.3273528,-1.339167E-07,NaN,0.5744074,-8.014242E-08,NaN,-0.2955898,1.674544E-05,-0.485068,4.152352E-08,NaN,NaN,-0.01998386,8.847484E-11,-8.971634E-08,-1.118495E-07,-6.813765E-09,-2.861022E-08
544.4385,-0.1361886,-8.706715E-09,NaN,-0.3273528,-1.339167E-07,NaN,0.5744074,-8.014242E-08,NaN,-0.2955898,1.674544E-05,-0.485068,4.152352E-08,NaN,NaN,-0.01998386,8.847484E-11,-8.971634E-08,-1.118495E-07,-6.813765E-09,-2.861022E-08
544.4538,-0.1486004,-8.705896E-09,NaN,-0.3273461,-1.339163E-07,NaN,0.5806968,-8.022E-08,NaN,-0.2958423,1.674594E-05,-0.4898929,4.160274E-08,NaN,NaN,-0.01997803,8.847484E-11,-9.18025E-08,-1.118486E-07,-4.429579E-09,-2.622604E-08
544.4698,-0.1614235,-8.705078E-09,NaN,-0.327338,-1.33916E-07,NaN,0.5870956,-8.029595E-08,NaN,-0.2960375,1.674646E-05,-0.4948084,4.168035E-08,NaN,NaN,-0.01997209,7.916161E-11,-8.852425E-08,-1.118477E-07,-4.429579E-09,-2.861022E-08
544.486,-0.1744515,-8.704259E-09,NaN,-0.3273277,-1.339157E-07,NaN,0.5933705,-8.037313E-08,NaN,-0.2962749,1.674696E-05,-0.4996185,4.175919E-08,NaN,NaN,-0.01996625,7.916161E-11,-8.718314E-08,-1.118469E-07,-6.813765E-09,-2.622604E-08
544.5029,-0.1875539,-8.70344E-09,NaN,-0.3273154,-1.339154E-07,NaN,0.5994537,-8.044588E-08,NaN,-0.2965827,1.674746E-05,-0.504273,4.183359E-08,NaN,NaN,-0.01996051,7.916161E-11,-8.554401E-08,-1.11846E-07,-1.158214E-08,-2.861022E-08
544.5175,-0.1875539,-8.70344E-09,NaN,-0.3273154,-1.339154E-07,NaN,0.5994537,-8.044588E-08,NaN,-0.2965827,1.674746E-05,-0.504273,4.183359E-08,NaN,NaN,-0.01996051,7.916161E-11,-8.554401E-08,-1.11846E-07,-1.158214E-08,-2.861022E-08
544.5325,-0.2013764,-8.702621E-09,NaN,-0.3273041,-1.339155E-07,NaN,0.6063244,-8.033443E-08,NaN,-0.2965813,1.674796E-05,-0.5096247,4.172379E-08,NaN,NaN,-0.01995364,7.916161E-11,-8.360686E-08,-1.118442E-07,-9.197951E-09,-2.622604E-08
544.5488,-0.2155939,-8.701802E-09,NaN,-0.3272911,-1.339155E-07,NaN,0.6133036,-8.025036E-08,NaN,-0.2965326,1.674848E-05,-0.5150715,4.164137E-08,NaN,NaN,-0.01994668,6.984839E-11,-8.15207E-08,-1.118423E-07,-6.813765E-09,-2.861022E-08
544.5646,-0.2300003,-8.700983E-09,NaN,-0.3272759,-1.339155E-07,NaN,0.620153,-8.017907E-08,NaN,-0.2965347,1.674898E-05,-0.5204112,4.157174E-08,NaN,NaN,-0.01993983,6.984839E-11,-8.42029E-08,-1.118404E-07,-6.813765E-09,-2.622604E-08
544.5802,-0.2444651,-8.700164E-09,NaN,-0.3272586,-1.339155E-07,NaN,0.6268036,-8.01147E-08,NaN,-0.2966151,1.674949E-05,-0.5255916,4.150902E-08,NaN,NaN,-0.01993311,6.053517E-11,-7.89875E-08,-1.118385E-07,-9.197951E-09,-2.861022E-08
544.5964,-0.2444651,-8.700164E-09,NaN,-0.3272586,-1.339155E-07,NaN,0.6268036,-8.01147E-08,NaN,-0.2966151,1.674949E-05,-0.5255916,4.150902E-08,NaN,NaN,-0.01993311,6.053517E-11,-7.89875E-08,-1.118385E-07,-9.197951E-09,-2.861022E-08
544.6113,-0.2596342,-8.699345E-09,NaN,-0.3272422,-1.339154E-07,NaN,0.6342646,-8.005147E-08,NaN,-0.2964011,1.674999E-05,-0.531498,4.144745E-08,NaN,NaN,-0.01992517,6.053517E-11,-7.675232E-08,-1.118365E-07,-6.813765E-09,-2.622604E-08
544.6279,-0.2751828,-8.698525E-09,NaN,-0.3272241,-1.339154E-07,NaN,0.6418347,-7.99922E-08,NaN,-0.2961494,1.675051E-05,-0.5375046,4.138984E-08,NaN,NaN,-0.01991715,5.122194E-11,-7.347407E-08,-1.118346E-07,-2.045394E-09,-2.861022E-08
544.6437,-0.2909049,-8.697706E-09,NaN,-0.3272035,-1.339153E-07,NaN,0.6492691,-7.993116E-08,NaN,-0.2959566,1.675101E-05,-0.5434018,4.133045E-08,NaN,NaN,-0.01990927,5.122194E-11,-6.87057E-08,-1.118327E-07,3.387921E-10,-2.622604E-08
544.6597,-0.2909049,-8.697706E-09,NaN,-0.3272035,-1.339153E-07,NaN,0.6492691,-7.993116E-08,NaN,-0.2959566,1.675101E-05,-0.5434018,4.133045E-08,NaN,NaN,-0.01990927,5.122194E-11,-6.87057E-08,-1.118327E-07,3.387921E-10,-2.622604E-08
544.6747,-0.3073985,-8.696886E-09,NaN,-0.3271833,-1.339153E-07,NaN,0.6575407,-7.987121E-08,NaN,-0.295483,1.675151E-05,-0.5500494,4.127217E-08,NaN,NaN,-0.01990015,5.122194E-11,-6.200018E-08,-1.118308E-07,5.107164E-09,-2.861022E-08
544.6913,-0.3243081,-8.696066E-09,NaN,-0.3271607,-1.339152E-07,NaN,0.6659112,-7.981235E-08,NaN,-0.29499,1.675201E-05,-0.5567878,4.121496E-08,NaN,NaN,-0.01989099,5.122194E-11,-6.244721E-08,-1.118289E-07,2.722978E-09,-2.622604E-08
544.7071,-0.3414084,-8.695246E-09,NaN,-0.327135,-1.339152E-07,NaN,0.6741272,-7.975172E-08,NaN,-0.2945742,1.675251E-05,-0.5634001,4.115599E-08,NaN,NaN,-0.01988199,5.122194E-11,-5.544367E-08,-1.11827E-07,2.722978E-09,-2.861022E-08
544.7231,-0.3585569,-8.694427E-09,NaN,-0.3271067,-1.339151E-07,NaN,0.6821193,-7.968936E-08,NaN,-0.2942607,1.675302E-05,-0.5698335,4.109528E-08,NaN,NaN,-0.01987314,5.122194E-11,-5.320849E-08,-1.118251E-07,5.107164E-09,-2.622604E-08
544.7388,-0.3585569,-8.694427E-09,NaN,-0.3271067,-1.339151E-07,NaN,0.6821193,-7.968936E-08,NaN,-0.2942607,1.675302E-05,-0.5698335,4.109528E-08,NaN,NaN,-0.01987314,5.122194E-11,-5.320849E-08,-1.118251E-07,5.107164E-09,-2.622604E-08
544.7543,-0.3763922,-8.693607E-09,NaN,-0.3270792,-1.339151E-07,NaN,0.6909655,-7.962812E-08,NaN,-0.2936895,1.675353E-05,-0.5770469,4.10357E-08,NaN,NaN,-0.0198629,4.190872E-11,-4.30757E-08,-1.118232E-07,2.722978E-09,-2.861022E-08
544.7704,-0.3945846,-8.692787E-09,NaN,-0.3270495,-1.33915E-07,NaN,0.6999186,-7.956515E-08,NaN,-0.2931049,1.675403E-05,-0.5843662,4.097439E-08,NaN,NaN,-0.01985259,4.190872E-11,-3.547611E-08,-1.118213E-07,9.875535E-09,-2.622604E-08
544.7863,-0.4129252,-8.691967E-09,NaN,-0.3270171,-1.339149E-07,NaN,0.708721,-7.950334E-08,NaN,-0.2925987,1.675454E-05,-0.5915676,4.091423E-08,NaN,NaN,-0.01984246,3.25955E-11,-3.488006E-08,-1.118195E-07,1.225972E-08,-2.861022E-08
544.8021,-0.4312822,-8.691147E-09,NaN,-0.3269825,-1.339149E-07,NaN,0.7173005,-7.94398E-08,NaN,-0.2921956,1.675504E-05,-0.5985935,4.085235E-08,NaN,NaN,-0.0198325,3.25955E-11,-2.951565E-08,-1.118176E-07,1.702809E-08,-2.622604E-08
544.8178,-0.4312822,-8.691147E-09,NaN,-0.3269825,-1.339149E-07,NaN,0.7173005,-7.94398E-08,NaN,-0.2921956,1.675504E-05,-0.5985935,4.085235E-08,NaN,NaN,-0.0198325,3.25955E-11,-2.951565E-08,-1.118176E-07,1.702809E-08,-2.622604E-08
544.8332,-0.4503008,-8.690328E-09,NaN,-0.3269489,-1.339148E-07,NaN,0.7267767,-7.937459E-08,NaN,-0.2915466,1.675554E-05,-0.6064466,4.07888E-08,NaN,NaN,-0.01982105,2.328227E-11,-2.206506E-08,-1.118157E-07,1.702809E-08,-2.861022E-08
544.8494,-0.4696558,-8.689508E-09,NaN,-0.3269133,-1.339148E-07,NaN,0.7363673,-7.931057E-08,NaN,-0.29089,1.675604E-05,-0.6144163,4.072643E-08,NaN,NaN,-0.01980957,2.793888E-11,-1.580658E-08,-1.118139E-07,1.941228E-08,-2.622604E-08
544.8655,-0.4891411,-8.688688E-09,NaN,-0.3268751,-1.339147E-07,NaN,0.7458032,-7.924488E-08,NaN,-0.2903165,1.675654E-05,-0.6222661,4.06624E-08,NaN,NaN,-0.01979831,1.862566E-11,-8.952044E-09,-1.11812E-07,1.941228E-08,-2.861022E-08
544.881,-0.5086266,-8.687868E-09,NaN,-0.3268348,-1.339147E-07,NaN,0.7550085,-7.917755E-08,NaN,-0.2898509,1.675704E-05,-0.6299341,4.059673E-08,NaN,NaN,-0.01978725,1.862566E-11,-6.073932E-10,-1.118102E-07,1.464391E-08,-2.622604E-08
544.8971,-0.5086266,-8.687868E-09,NaN,-0.3268348,-1.339147E-07,NaN,0.7550085,-7.917755E-08,NaN,-0.2898509,1.675704E-05,-0.6299341,4.059673E-08,NaN,NaN,-0.01978725,1.862566E-11,-6.073932E-10,-1.118102E-07,1.464391E-08,-2.622604E-08
544.912,-0.5287589,-8.687048E-09,NaN,-0.3267957,-1.339146E-07,NaN,0.7651488,-7.911145E-08,NaN,-0.2891555,1.675755E-05,-0.6384714,4.053229E-08,NaN,NaN,-0.01977463,9.312433E-12,5.502083E-09,-1.118083E-07,9.875535E-09,-2.861022E-08
544.9286,-0.5492136,-8.686229E-09,NaN,-0.3267545,-1.339145E-07,NaN,0.7754056,-7.904372E-08,NaN,-0.2884613,1.675804E-05,-0.6471301,4.046622E-08,NaN,NaN,-0.019762,1.396905E-11,1.176057E-08,-1.118065E-07,1.225972E-08,-2.622604E-08
544.9442,-0.5697852,-8.685409E-09,NaN,-0.3267108,-1.339145E-07,NaN,0.7854986,-7.89744E-08,NaN,-0.2878565,1.675855E-05,-0.6556613,4.039855E-08,NaN,NaN,-0.01974965,4.65582E-12,1.936016E-08,-1.118047E-07,1.225972E-08,-2.861022E-08
544.96,-0.5903441,-8.684589E-09,NaN,-0.3266651,-1.339144E-07,NaN,0.7953485,-7.890634E-08,NaN,-0.2873653,1.675904E-05,-0.6639999,4.033215E-08,NaN,NaN,-0.01973755,9.312433E-12,2.576766E-08,-1.118029E-07,1.225972E-08,-2.622604E-08
544.9756,-0.5903441,-8.684589E-09,NaN,-0.3266651,-1.339144E-07,NaN,0.7953485,-7.890634E-08,NaN,-0.2873653,1.675904E-05,-0.6639999,4.033215E-08,NaN,NaN,-0.01973755,9.312433E-12,2.576766E-08,-1.118029E-07,1.225972E-08,-2.622604E-08
544.9913,-0.611537,-8.683769E-09,NaN,-0.3266206,-1.339143E-07,NaN,0.8061702,-7.88367E-08,NaN,-0.2866624,1.675955E-05,-0.6732479,4.026416E-08,NaN,NaN,-0.01972379,-7.927686E-16,3.560243E-08,-1.118011E-07,1.941228E-08,-2.861022E-08
545.0096,-0.6330399,-8.682949E-09,NaN,-0.3265741,-1.339143E-07,NaN,0.8171078,-7.876833E-08,NaN,-0.2859701,1.676004E-05,-0.6826192,4.019745E-08,NaN,NaN,-0.01971007,4.65582E-12,4.141388E-08,-1.117993E-07,1.464391E-08,-2.622604E-08
545.0234,-0.6546475,-8.68213E-09,NaN,-0.326525,-1.339142E-07,NaN,0.8278686,-7.869838E-08,NaN,-0.2853736,1.676054E-05,-0.6918517,4.012915E-08,NaN,NaN,-0.0196967,4.65582E-12,4.960951E-08,-1.117975E-07,1.225972E-08,-2.861022E-08
545.0388,-0.6546475,-8.68213E-09,NaN,-0.326525,-1.339142E-07,NaN,0.8278686,-7.869838E-08,NaN,-0.2853736,1.676054E-05,-0.6918517,4.012915E-08,NaN,NaN,-0.0196967,4.65582E-12,4.960951E-08,-1.117975E-07,1.225972E-08,-2.861022E-08
545.0538,-0.6762303,-8.68131E-09,NaN,-0.326474,-1.339141E-07,NaN,0.8383703,-7.862687E-08,NaN,-0.2848964,1.676104E-05,-0.7008768,4.00593E-08,NaN,NaN,-0.01968364,9.312433E-12,5.616603E-08,-1.117957E-07,2.722977E-09,-2.622604E-08
545.0703,-0.697928,-8.68049E-09,NaN,-0.3264226,-1.33914E-07,NaN,0.8489904,-7.855667E-08,NaN,-0.2844428,1.676154E-05,-0.710042,3.999076E-08,NaN,NaN,-0.01967024,-7.927686E-16,5.482492E-08,-1.117939E-07,3.387917E-10,-2.861022E-08
545.086,-0.7196072,-8.67967E-09,NaN,-0.3263705,-1.33914E-07,NaN,0.8594644,-7.848499E-08,NaN,-0.2840706,1.676205E-05,-0.7191051,3.992074E-08,NaN,NaN,-0.01965703,-9.314018E-12,5.989132E-08,-1.117921E-07,3.387917E-10,-2.622604E-08
545.1019,-0.7411839,-8.678851E-09,NaN,-0.3263179,-1.339139E-07,NaN,0.8697088,-7.841461E-08,NaN,-0.2837968,1.676257E-05,-0.7279916,3.985202E-08,NaN,NaN,-0.01964411,-2.794047E-11,7.151422E-08,-1.117904E-07,2.722977E-09,-2.861022E-08
545.1174,-0.7411839,-8.678851E-09,NaN,-0.3263179,-1.339139E-07,NaN,0.8697088,-7.841461E-08,NaN,-0.2837968,1.676257E-05,-0.7279916,3.985202E-08,NaN,NaN,-0.01964411,-2.794047E-11,7.151422E-08,-1.117904E-07,2.722977E-09,-2.861022E-08
545.1326,-0.7626059,-8.678031E-09,NaN,-0.3262655,-1.339138E-07,NaN,0.8797049,-7.834269E-08,NaN,-0.2836215,1.676307E-05,-0.7366864,3.978176E-08,NaN,NaN,-0.01963149,-3.259708E-11,7.732567E-08,-1.117886E-07,7.491349E-09,-2.622604E-08
545.149,-0.7838409,-8.677211E-09,NaN,-0.3262137,-1.339138E-07,NaN,0.8894545,-7.826925E-08,NaN,-0.2835384,1.676358E-05,-0.7451921,3.970999E-08,NaN,NaN,-0.01961917,-5.122353E-11,8.686241E-08,-1.117869E-07,9.875535E-09,-2.861022E-08
545.1647,-0.8048695,-8.67639E-09,NaN,-0.326163,-1.339137E-07,NaN,0.8989637,-7.819716E-08,NaN,-0.2835402,1.676408E-05,-0.7535143,3.963956E-08,NaN,NaN,-0.01960715,-5.588014E-11,9.386596E-08,-1.117851E-07,1.225972E-08,-2.622604E-08
545.1804,-0.8256803,-8.67557E-09,NaN,-0.3261136,-1.339136E-07,NaN,0.9082382,-7.812356E-08,NaN,-0.2836197,1.676458E-05,-0.7616578,3.956762E-08,NaN,NaN,-0.01959546,-6.519337E-11,1.010185E-07,-1.117834E-07,9.875535E-09,-2.861022E-08
545.1964,-0.8256803,-8.67557E-09,NaN,-0.3261136,-1.339136E-07,NaN,0.9082382,-7.812356E-08,NaN,-0.2836197,1.676458E-05,-0.7616578,3.956762E-08,NaN,NaN,-0.01959546,-6.519337E-11,1.010185E-07,-1.117834E-07,9.875535E-09,-2.861022E-08
545.2115,-0.8462672,-8.674749E-09,NaN,-0.3260659,-1.339135E-07,NaN,0.9172814,-7.805131E-08,NaN,-0.2837712,1.676508E-05,-0.769625,3.949703E-08,NaN,NaN,-0.01958412,-7.45066E-11,1.107043E-07,-1.117816E-07,1.225972E-08,-2.622604E-08
545.229,-0.8666273,-8.673928E-09,NaN,-0.32602,-1.339135E-07,NaN,0.9260949,-7.797755E-08,NaN,-0.2839895,1.676559E-05,-0.7774162,3.942493E-08,NaN,NaN,-0.01957314,-8.847643E-11,1.187509E-07,-1.117799E-07,1.702809E-08,-2.861022E-08
545.2443,-0.8867595,-8.673108E-09,NaN,-0.3259758,-1.339134E-07,NaN,0.9346793,-7.790231E-08,NaN,-0.2842707,1.676609E-05,-0.7850307,3.935136E-08,NaN,NaN,-0.01956253,-9.778966E-11,1.256054E-07,-1.117782E-07,1.822019E-08,-2.622604E-08
545.2599,-0.8867595,-8.673108E-09,NaN,-0.3259758,-1.339134E-07,NaN,0.9346793,-7.790231E-08,NaN,-0.2842707,1.676609E-05,-0.7850307,3.935136E-08,NaN,NaN,-0.01956253,-9.778966E-11,1.256054E-07,-1.117782E-07,1.822019E-08,-2.622604E-08
545.2752,-0.9066644,-8.672287E-09,NaN,-0.3259336,-1.339133E-07,NaN,0.9430342,-7.782846E-08,NaN,-0.284611,1.676659E-05,-0.792467,3.927916E-08,NaN,NaN,-0.0195523,-1.071029E-10,1.352912E-07,-1.117765E-07,1.464391E-08,-2.861022E-08
545.2917,-0.926343,-8.671466E-09,NaN,-0.3258932,-1.339133E-07,NaN,0.9511586,-7.775313E-08,NaN,-0.2850073,1.676709E-05,-0.799723,3.92055E-08,NaN,NaN,-0.01954246,-1.117595E-10,1.402086E-07,-1.117747E-07,1.941228E-08,-2.622604E-08
545.3076,-0.9457972,-8.670646E-09,NaN,-0.3258547,-1.339132E-07,NaN,0.9590516,-7.767918E-08,NaN,-0.2854569,1.676759E-05,-0.8067966,3.913321E-08,NaN,NaN,-0.01953303,-1.210727E-10,1.446789E-07,-1.11773E-07,1.941228E-08,-2.861022E-08
545.3234,-0.9650289,-8.669825E-09,NaN,-0.3258179,-1.339131E-07,NaN,0.9667121,-7.760375E-08,NaN,-0.285957,1.676809E-05,-0.8136854,3.905944E-08,NaN,NaN,-0.019524,-1.257293E-10,1.478082E-07,-1.117713E-07,1.702809E-08,-2.622604E-08
545.3393,-0.9650289,-8.669825E-09,NaN,-0.3258179,-1.339131E-07,NaN,0.9667121,-7.760375E-08,NaN,-0.285957,1.676809E-05,-0.8136854,3.905944E-08,NaN,NaN,-0.019524,-1.257293E-10,1.478082E-07,-1.117713E-07,1.702809E-08,-2.622604E-08
545.3544,-0.9840404,-8.669004E-09,NaN,-0.325783,-1.33913E-07,NaN,0.9741388,-7.752688E-08,NaN,-0.2865053,1.676859E-05,-0.8203874,3.898424E-08,NaN,NaN,-0.01951537,-1.350426E-10,1.530236E-07,-1.117696E-07,1.106763E-08,-2.861022E-08
545.3709,-1.002834,-8.668184E-09,NaN,-0.3257498,-1.33913E-07,NaN,0.9813311,-7.745142E-08,NaN,-0.2870994,1.676909E-05,-0.8269008,3.891044E-08,NaN,NaN,-0.01950714,-1.396992E-10,1.557058E-07,-1.11768E-07,1.106763E-08,-2.622604E-08
545.3873,-1.021412,-8.667363E-09,NaN,-0.3257184,-1.339129E-07,NaN,0.9882882,-7.737453E-08,NaN,-0.287737,1.676959E-05,-0.8332238,3.883521E-08,NaN,NaN,-0.01949931,-1.443558E-10,1.565999E-07,-1.117663E-07,1.106763E-08,-2.861022E-08
545.4022,-1.039776,-8.666542E-09,NaN,-0.3256886,-1.339128E-07,NaN,0.9950098,-7.729904E-08,NaN,-0.288416,1.677009E-05,-0.8393551,3.876138E-08,NaN,NaN,-0.01949187,-1.490124E-10,1.673287E-07,-1.117646E-07,1.106763E-08,-2.622604E-08
545.418,-1.039776,-8.666542E-09,NaN,-0.3256886,-1.339128E-07,NaN,0.9950098,-7.729904E-08,NaN,-0.288416,1.677009E-05,-0.8393551,3.876138E-08,NaN,NaN,-0.01949187,-1.490124E-10,1.673287E-07,-1.117646E-07,1.106763E-08,-2.622604E-08
545.4334,-1.05793,-8.665721E-09,NaN,-0.3256604,-1.339128E-07,NaN,1.001496,-7.722211E-08,NaN,-0.2891342,1.67706E-05,-0.8452933,3.868611E-08,NaN,NaN,-0.01948483,-1.629822E-10,1.71799E-07,-1.117629E-07,7.491352E-09,-2.861022E-08
545.4496,-1.075875,-8.664901E-09,NaN,-0.3256337,-1.339127E-07,NaN,1.007746,-7.714659E-08,NaN,-0.2898895,1.67711E-05,-0.8510381,3.861226E-08,NaN,NaN,-0.01947818,-1.722955E-10,1.746303E-07,-1.117613E-07,-8.532988E-10,-2.622604E-08
545.4656,-1.093614,-8.66408E-09,NaN,-0.3256086,-1.339126E-07,NaN,1.013761,-7.706963E-08,NaN,-0.29068,1.677161E-05,-0.8565884,3.853696E-08,NaN,NaN,-0.0194719,-1.862653E-10,1.753753E-07,-1.117596E-07,2.72298E-09,-2.861022E-08
545.4811,-1.111149,-8.66326E-09,NaN,-0.325585,-1.339116E-07,NaN,1.019542,-7.806167E-08,NaN,-0.2915037,1.67721E-05,-0.8619441,3.937679E-08,NaN,NaN,-0.019466,-1.909219E-10,1.802927E-07,-1.117577E-07,6.299258E-09,-2.622604E-08
545.4969,-1.111149,-8.66326E-09,NaN,-0.325585,-1.339116E-07,NaN,1.019542,-7.806167E-08,NaN,-0.2915037,1.67721E-05,-0.8619441,3.937679E-08,NaN,NaN,-0.019466,-1.909219E-10,1.802927E-07,-1.117577E-07,6.299258E-09,-2.622604E-08
545.512,-1.128483,-8.662441E-09,NaN,-0.3255628,-1.3391E-07,NaN,1.025089,-7.905371E-08,NaN,-0.2923588,1.677259E-05,-0.8671052,4.010294E-08,NaN,NaN,-0.01946046,-1.909219E-10,1.862532E-07,-1.117555E-07,3.915073E-09,-2.861022E-08
545.5299,-1.145618,-8.661621E-09,NaN,-0.325542,-1.339083E-07,NaN,1.030403,-8.004574E-08,NaN,-0.2932432,1.677308E-05,-0.8720718,4.074487E-08,NaN,NaN,-0.01945528,-1.955785E-10,1.872962E-07,-1.117532E-07,2.72298E-09,-2.622604E-08
545.5445,-1.162555,-8.660801E-09,NaN,-0.3255225,-1.339064E-07,NaN,1.035486,-8.103778E-08,NaN,-0.2941553,1.677357E-05,-0.8768445,4.132426E-08,NaN,NaN,-0.01945046,-1.955785E-10,1.865512E-07,-1.117509E-07,3.387941E-10,-2.861022E-08
545.5604,-1.179299,-8.659981E-09,NaN,-0.3255044,-1.339045E-07,NaN,1.04034,-8.202982E-08,NaN,-0.2950933,1.677407E-05,-0.8814238,4.185702E-08,NaN,NaN,-0.01944598,-2.048917E-10,1.919156E-07,-1.117485E-07,2.72298E-09,-2.622604E-08
545.5761,-1.179299,-8.659981E-09,NaN,-0.3255044,-1.339045E-07,NaN,1.04034,-8.202982E-08,NaN,-0.2950933,1.677407E-05,-0.8814238,4.185702E-08,NaN,NaN,-0.01944598,-2.048917E-10,1.919156E-07,-1.117485E-07,2.72298E-09,-2.622604E-08
545.5911,-1.195849,-8.659161E-09,NaN,-0.3254875,-1.339026E-07,NaN,1.044966,-8.302186E-08,NaN,-0.2960555,1.677456E-05,-0.8858109,4.235482E-08,NaN,NaN,-0.01944183,-2.048917E-10,1.908725E-07,-1.117462E-07,1.530887E-09,-2.861022E-08
545.6076,-1.21221,-8.658342E-09,NaN,-0.3254719,-1.339006E-07,NaN,1.049366,-8.40139E-08,NaN,-0.2970403,1.677506E-05,-0.8900066,4.282627E-08,NaN,NaN,-0.01943801,-2.14205E-10,1.925116E-07,-1.117439E-07,-8.532988E-10,-2.622604E-08
545.6237,-1.228382,-8.657522E-09,NaN,-0.3254574,-1.338987E-07,NaN,1.053542,-8.500594E-08,NaN,-0.2980459,1.677554E-05,-0.8940122,4.327768E-08,NaN,NaN,-0.01943449,-2.14205E-10,1.998132E-07,-1.117415E-07,-1.449345E-09,-2.861022E-08
545.6391,-1.228382,-8.657522E-09,NaN,-0.3254574,-1.338987E-07,NaN,1.053542,-8.500594E-08,NaN,-0.2980459,1.677554E-05,-0.8940122,4.327768E-08,NaN,NaN,-0.01943449,-2.14205E-10,1.998132E-07,-1.117415E-07,-1.449345E-09,-2.861022E-08
545.6544,-1.244369,-8.656702E-09,NaN,-0.3254441,-1.338968E-07,NaN,1.057497,-8.599797E-08,NaN,-0.299071,1.677603E-05,-0.8978293,4.371368E-08,NaN,NaN,-0.01943129,-2.235182E-10,2.014523E-07,-1.117392E-07,-3.237485E-09,-2.622604E-08
545.6705,-1.260172,-8.655882E-09,NaN,-0.3254319,-1.338949E-07,NaN,1.061233,-8.699001E-08,NaN,-0.300114,1.677652E-05,-0.9014596,4.413769E-08,NaN,NaN,-0.01942838,-2.235182E-10,2.062207E-07,-1.117369E-07,-5.025624E-09,-2.861022E-08
545.6866,-1.275794,-8.655062E-09,NaN,-0.3254208,-1.33893E-07,NaN,1.064753,-8.798205E-08,NaN,-0.3011734,1.677701E-05,-0.9049048,4.455222E-08,NaN,NaN,-0.01942575,-2.328314E-10,2.068167E-07,-1.117346E-07,-6.217717E-09,-2.622604E-08
545.7025,-1.291014,-8.654243E-09,NaN,-0.32541,-1.338912E-07,NaN,1.067637,-8.897409E-08,NaN,-0.3023171,1.677749E-05,-0.9077734,4.495912E-08,NaN,NaN,-0.01942397,-2.328314E-10,2.123302E-07,-1.117324E-07,-6.813763E-09,-2.861022E-08
545.7182,-1.291014,-8.654243E-09,NaN,-0.32541,-1.338912E-07,NaN,1.067637,-8.897409E-08,NaN,-0.3023171,1.677749E-05,-0.9077734,4.495912E-08,NaN,NaN,-0.01942397,-2.328314E-10,2.123302E-07,-1.117324E-07,-6.813763E-09,-2.861022E-08
545.7332,-1.30592,-8.653424E-09,NaN,-0.3254005,-1.338893E-07,NaN,1.070198,-8.996613E-08,NaN,-0.3034953,1.677799E-05,-0.9103577,4.535975E-08,NaN,NaN,-0.0194225,-2.468012E-10,2.114361E-07,-1.117301E-07,-5.62167E-09,-2.622604E-08
545.7498,-1.320564,-8.652605E-09,NaN,-0.3253926,-1.338874E-07,NaN,1.072548,-9.095817E-08,NaN,-0.3046854,1.677848E-05,-0.9127626,4.575511E-08,NaN,NaN,-0.01942123,-2.468012E-10,2.092009E-07,-1.117278E-07,-3.237485E-09,-2.861022E-08
545.7656,-1.334984,-8.651786E-09,NaN,-0.3253862,-1.338856E-07,NaN,1.074724,-9.195021E-08,NaN,-0.3058786,1.677897E-05,-0.9150205,4.614595E-08,NaN,NaN,-0.01942013,-2.607711E-10,2.10691E-07,-1.117256E-07,-2.641438E-09,-2.622604E-08
545.7812,-1.348473,-8.650967E-09,NaN,-0.3253789,-1.338837E-07,NaN,1.075356,-9.294224E-08,NaN,-0.3072959,1.677946E-05,-0.915852,4.653281E-08,NaN,NaN,-0.01942106,-2.607711E-10,2.10393E-07,-1.117233E-07,-2.343415E-09,-2.861022E-08
545.7971,-1.348473,-8.650967E-09,NaN,-0.3253789,-1.338837E-07,NaN,1.075356,-9.294224E-08,NaN,-0.3072959,1.677946E-05,-0.915852,4.653281E-08,NaN,NaN,-0.01942106,-2.607711E-10,2.10393E-07,-1.117233E-07,-2.343415E-09,-2.861022E-08
545.8121,-1.361322,-8.650148E-09,NaN,-0.3253735,-1.338818E-07,NaN,1.075455,-9.393428E-08,NaN,-0.3087812,1.677994E-05,-0.9162055,4.69161E-08,NaN,NaN,-0.01942233,-2.700843E-10,2.087539E-07,-1.117211E-07,-1.151322E-09,-2.622604E-08
545.8286,-1.373713,-8.649329E-09,NaN,-0.325371,-1.3388E-07,NaN,1.075381,-9.492632E-08,NaN,-0.3102664,1.678042E-05,-0.9164156,4.729613E-08,NaN,NaN,-0.01942359,-2.654277E-10,2.078598E-07,-1.117188E-07,-1.151322E-09,-2.861022E-08
545.8443,-1.385765,-8.64851E-09,NaN,-0.3253703,-1.338781E-07,NaN,1.075238,-9.591836E-08,NaN,-0.3117263,1.67809E-05,-0.9165776,4.767313E-08,NaN,NaN,-0.01942486,-2.700843E-10,2.094989E-07,-1.117166E-07,-5.552757E-10,-2.622604E-08
545.86,-1.396825,-8.647691E-09,NaN,-0.3253693,-1.338763E-07,NaN,1.073691,-9.69104E-08,NaN,-0.3133799,1.678138E-05,-0.9154405,4.804726E-08,NaN,NaN,-0.01942792,-2.654277E-10,2.114361E-07,-1.117143E-07,-1.449345E-09,-2.861022E-08
545.8755,-1.396825,-8.647691E-09,NaN,-0.3253693,-1.338763E-07,NaN,1.073691,-9.69104E-08,NaN,-0.3133799,1.678138E-05,-0.9154405,4.804726E-08,NaN,NaN,-0.01942792,-2.654277E-10,2.114361E-07,-1.117143E-07,-1.449345E-09,-2.861022E-08
545.8907,-1.407215,-8.646873E-09,NaN,-0.3253697,-1.338744E-07,NaN,1.07172,-9.790244E-08,NaN,-0.3150744,1.678186E-05,-0.9139251,4.841865E-08,NaN,NaN,-0.01943125,-2.700843E-10,2.10542E-07,-1.117121E-07,-1.598357E-09,-2.622604E-08
545.9071,-1.41714,-8.646054E-09,NaN,-0.3253714,-1.338726E-07,NaN,1.069667,-9.889447E-08,NaN,-0.3167457,1.678234E-05,-0.912347,4.878741E-08,NaN,NaN,-0.0194345,-2.654277E-10,2.074128E-07,-1.117099E-07,-1.449345E-09,-2.861022E-08
545.923,-1.426732,-8.645235E-09,NaN,-0.3253739,-1.338707E-07,NaN,1.067624,-9.988651E-08,NaN,-0.3183735,1.678283E-05,-0.9107899,4.915361E-08,NaN,NaN,-0.01943765,-2.747409E-10,2.068167E-07,-1.117076E-07,-1.598357E-09,-2.622604E-08
545.9388,-1.426732,-8.645235E-09,NaN,-0.3253739,-1.338707E-07,NaN,1.067624,-9.988651E-08,NaN,-0.3183735,1.678283E-05,-0.9107899,4.915361E-08,NaN,NaN,-0.01943765,-2.747409E-10,2.068167E-07,-1.117076E-07,-1.598357E-09,-2.622604E-08
545.954,-1.435345,-8.644416E-09,NaN,-0.3253759,-1.338689E-07,NaN,1.064275,-1.008786E-07,NaN,-0.3201832,1.678331E-05,-0.9080234,4.95173E-08,NaN,NaN,-0.01944242,-2.747409E-10,2.027934E-07,-1.117054E-07,-1.151322E-09,-2.861022E-08
545.9703,-1.443306,-8.643598E-09,NaN,-0.3253789,-1.33867E-07,NaN,1.060576,-1.018706E-07,NaN,-0.3220226,1.67838E-05,-0.9049414,4.987855E-08,NaN,NaN,-0.01944735,-2.840541E-10,1.998132E-07,-1.117032E-07,-6.297814E-10,-2.622604E-08
545.986,-1.450825,-8.64278E-09,NaN,-0.3253842,-1.338652E-07,NaN,1.056856,-1.028626E-07,NaN,-0.3238303,1.678428E-05,-0.9018503,5.023739E-08,NaN,NaN,-0.01945212,-2.840541E-10,1.9728E-07,-1.11701E-07,-4.248904E-10,-2.861022E-08
546.002,-1.458034,-8.641962E-09,NaN,-0.3253919,-1.338634E-07,NaN,1.0532,-1.038547E-07,NaN,-0.3255866,1.678476E-05,-0.8988289,5.059385E-08,NaN,NaN,-0.01945672,-2.933673E-10,1.945978E-07,-1.116988E-07,-6.484078E-10,-2.622604E-08
546.0179,-1.458034,-8.641962E-09,NaN,-0.3253919,-1.338634E-07,NaN,1.0532,-1.038547E-07,NaN,-0.3255866,1.678476E-05,-0.8988289,5.059385E-08,NaN,NaN,-0.01945672,-2.933673E-10,1.945978E-07,-1.116988E-07,-6.484078E-10,-2.622604E-08
546.0345,-1.464289,-8.641144E-09,NaN,-0.3253992,-1.338615E-07,NaN,1.048328,-1.048467E-07,NaN,-0.3275225,1.678524E-05,-0.8946777,5.094796E-08,NaN,NaN,-0.01946278,-2.933673E-10,1.920646E-07,-1.116966E-07,2.456618E-10,-2.861022E-08
546.0494,-1.469918,-8.640326E-09,NaN,-0.3254083,-1.338597E-07,NaN,1.043165,-1.058387E-07,NaN,-0.3294834,1.678573E-05,-0.8902643,5.129974E-08,NaN,NaN,-0.01946893,-2.980239E-10,1.880413E-07,-1.116943E-07,1.139731E-09,-2.622604E-08
546.0654,-1.475131,-8.639508E-09,NaN,-0.3254194,-1.338578E-07,NaN,1.038032,-1.068308E-07,NaN,-0.3314068,1.678622E-05,-0.8858855,5.164922E-08,NaN,NaN,-0.01947486,-3.026805E-10,1.837199E-07,-1.116921E-07,1.884789E-09,-2.861022E-08
546.0808,-1.480058,-8.63869E-09,NaN,-0.3254324,-1.33856E-07,NaN,1.03301,-1.078228E-07,NaN,-0.3332732,1.678672E-05,-0.881617,5.199642E-08,NaN,NaN,-0.01948053,-3.119938E-10,1.834219E-07,-1.116899E-07,3.946734E-10,-2.622604E-08
546.0969,-1.480058,-8.63869E-09,NaN,-0.3254324,-1.33856E-07,NaN,1.03301,-1.078228E-07,NaN,-0.3332732,1.678672E-05,-0.881617,5.199642E-08,NaN,NaN,-0.01948053,-3.119938E-10,1.834219E-07,-1.116899E-07,3.946734E-10,-2.622604E-08
546.1116,-1.484059,-8.637872E-09,NaN,-0.3254447,-1.338541E-07,NaN,1.026857,-1.088149E-07,NaN,-0.3353217,1.67872E-05,-0.8762976,5.234135E-08,NaN,NaN,-0.01948754,-3.119938E-10,1.788025E-07,-1.116877E-07,9.665019E-11,-2.861022E-08
546.1286,-1.487459,-8.637054E-09,NaN,-0.3254578,-1.338523E-07,NaN,1.020471,-1.098069E-07,NaN,-0.3373928,1.678769E-05,-0.870766,5.268404E-08,NaN,NaN,-0.0194946,-3.21307E-10,1.783555E-07,-1.116856E-07,3.946734E-10,-2.622604E-08
546.1437,-1.490467,-8.636236E-09,NaN,-0.3254721,-1.3385E-07,NaN,1.01416,-1.107989E-07,NaN,-0.3394226,1.678818E-05,-0.8653093,5.30245E-08,NaN,NaN,-0.01950139,-3.21307E-10,1.752263E-07,-1.116844E-07,-2.01373E-10,-2.861022E-08
546.1599,-1.490467,-8.636236E-09,NaN,-0.3254721,-1.3385E-07,NaN,1.01416,-1.107989E-07,NaN,-0.3394226,1.678818E-05,-0.8653093,5.30245E-08,NaN,NaN,-0.01950139,-3.21307E-10,1.752263E-07,-1.116844E-07,-2.01373E-10,-2.861022E-08
546.1748,-1.492487,-8.635418E-09,NaN,-0.3254853,-1.338478E-07,NaN,1.006795,-1.11791E-07,NaN,-0.3416389,1.678867E-05,-0.8588736,5.336275E-08,NaN,NaN,-0.01950936,-3.259636E-10,1.695638E-07,-1.116832E-07,6.926966E-10,-2.622604E-08
546.191,-1.493878,-8.6346E-09,NaN,-0.3254986,-1.338456E-07,NaN,0.9992711,-1.12783E-07,NaN,-0.3438711,1.678914E-05,-0.8522949,5.369879E-08,NaN,NaN,-0.01951729,-3.119938E-10,1.659875E-07,-1.11682E-07,6.926966E-10,-2.861022E-08
546.207,-1.494868,-8.633782E-09,NaN,-0.3255126,-1.338435E-07,NaN,0.9918911,-1.137751E-07,NaN,-0.3460524,1.678962E-05,-0.8458536,5.403266E-08,NaN,NaN,-0.01952489,-3.119938E-10,1.641994E-07,-1.116809E-07,3.946734E-10,-2.622604E-08
546.223,-1.4956,-8.632964E-09,NaN,-0.3255273,-1.338414E-07,NaN,0.984726,-1.147671E-07,NaN,-0.3481639,1.67901E-05,-0.8396158,5.436435E-08,NaN,NaN,-0.01953213,-3.026805E-10,1.616662E-07,-1.116798E-07,1.586766E-09,-2.861022E-08
546.2386,-1.4956,-8.632964E-09,NaN,-0.3255273,-1.338414E-07,NaN,0.984726,-1.147671E-07,NaN,-0.3481639,1.67901E-05,-0.8396158,5.436435E-08,NaN,NaN,-0.01953213,-3.026805E-10,1.616662E-07,-1.116798E-07,1.586766E-09,-2.861022E-08
546.254,-1.495439,-8.632147E-09,NaN,-0.32554,-1.338393E-07,NaN,0.9766082,-1.157591E-07,NaN,-0.3504639,1.679058E-05,-0.8324934,5.469389E-08,NaN,NaN,-0.01954047,-3.026805E-10,1.58984E-07,-1.116787E-07,1.586766E-09,-2.622604E-08
546.2705,-1.494718,-8.631329E-09,NaN,-0.3255521,-1.338372E-07,NaN,0.9683692,-1.167512E-07,NaN,-0.352782,1.679105E-05,-0.8252609,5.502129E-08,NaN,NaN,-0.01954877,-2.933673E-10,1.540666E-07,-1.116776E-07,3.970952E-09,-2.861022E-08
546.2862,-1.493647,-8.630512E-09,NaN,-0.325564,-1.338351E-07,NaN,0.9602931,-1.177432E-07,NaN,-0.3550512,1.679154E-05,-0.8181823,5.534657E-08,NaN,NaN,-0.01955673,-2.933673E-10,1.507884E-07,-1.116765E-07,5.461068E-09,-2.622604E-08
546.3021,-1.492361,-8.629695E-09,NaN,-0.3255758,-1.33833E-07,NaN,0.9524491,-1.187352E-07,NaN,-0.3572519,1.679201E-05,-0.8113221,5.566973E-08,NaN,NaN,-0.01956431,-2.840541E-10,1.482552E-07,-1.116754E-07,3.076882E-09,-2.861022E-08
546.3176,-1.492361,-8.629695E-09,NaN,-0.3255758,-1.33833E-07,NaN,0.9524491,-1.187352E-07,NaN,-0.3572519,1.679201E-05,-0.8113221,5.566973E-08,NaN,NaN,-0.01956431,-2.840541E-10,1.482552E-07,-1.116754E-07,3.076882E-09,-2.861022E-08
546.3328,-1.490216,-8.628878E-09,NaN,-0.3255852,-1.338309E-07,NaN,0.9437212,-1.197273E-07,NaN,-0.359654,1.67925E-05,-0.8036425,5.599079E-08,NaN,NaN,-0.01957291,-2.840541E-10,1.436358E-07,-1.116743E-07,1.884789E-09,-2.622604E-08
546.349,-1.48754,-8.628061E-09,NaN,-0.3255933,-1.338288E-07,NaN,0.9349089,-1.207193E-07,NaN,-0.3620774,1.679297E-05,-0.7958862,5.630977E-08,NaN,NaN,-0.01958143,-2.700843E-10,1.399105E-07,-1.116732E-07,-2.013731E-10,-2.861022E-08
546.3649,-1.484541,-8.627244E-09,NaN,-0.3256005,-1.338268E-07,NaN,0.9262868,-1.217113E-07,NaN,-0.3644517,1.679346E-05,-0.7883081,5.662668E-08,NaN,NaN,-0.0195896,-2.607711E-10,1.346951E-07,-1.116721E-07,9.907197E-10,-2.622604E-08
546.3804,-1.481351,-8.626427E-09,NaN,-0.3256072,-1.338247E-07,NaN,0.9179223,-1.227034E-07,NaN,-0.366756,1.679395E-05,-0.780971,5.694153E-08,NaN,NaN,-0.01959739,-2.561145E-10,1.3395E-07,-1.11671E-07,1.288743E-09,-2.861022E-08
546.3962,-1.481351,-8.626427E-09,NaN,-0.3256072,-1.338247E-07,NaN,0.9179223,-1.227034E-07,NaN,-0.366756,1.679395E-05,-0.780971,5.694153E-08,NaN,NaN,-0.01959739,-2.561145E-10,1.3395E-07,-1.11671E-07,1.288743E-09,-2.861022E-08
546.4114,-1.477326,-8.62561E-09,NaN,-0.3256111,-1.338226E-07,NaN,0.9087502,-1.236954E-07,NaN,-0.369272,1.679444E-05,-0.7728876,5.725434E-08,NaN,NaN,-0.01960608,-2.514579E-10,1.291817E-07,-1.116699E-07,6.926965E-10,-2.622604E-08
546.4277,-1.472794,-8.624792E-09,NaN,-0.3256131,-1.338205E-07,NaN,0.8995336,-1.246874E-07,NaN,-0.3718105,1.679493E-05,-0.7647641,5.756511E-08,NaN,NaN,-0.01961469,-2.468012E-10,1.235192E-07,-1.116688E-07,9.907197E-10,-2.861022E-08
546.4432,-1.46796,-8.623976E-09,NaN,-0.3256144,-1.338185E-07,NaN,0.8905351,-1.256795E-07,NaN,-0.3742982,1.679542E-05,-0.7568441,5.787387E-08,NaN,NaN,-0.01962294,-2.421446E-10,1.181548E-07,-1.116677E-07,3.946733E-10,-2.622604E-08
546.4589,-1.46796,-8.623976E-09,NaN,-0.3256144,-1.338185E-07,NaN,0.8905351,-1.256795E-07,NaN,-0.3742982,1.679542E-05,-0.7568441,5.787387E-08,NaN,NaN,-0.01962294,-2.421446E-10,1.181548E-07,-1.116677E-07,3.946733E-10,-2.622604E-08
546.4738,-1.462957,-8.62316E-09,NaN,-0.3256153,-1.338164E-07,NaN,0.8818185,-1.266715E-07,NaN,-0.3767132,1.679592E-05,-0.7491871,5.818062E-08,NaN,NaN,-0.01963079,-2.421446E-10,1.148765E-07,-1.116666E-07,6.926965E-10,-2.861022E-08
546.4907,-1.457141,-8.622344E-09,NaN,-0.3256144,-1.338143E-07,NaN,0.8723698,-1.276635E-07,NaN,-0.3793503,1.679642E-05,-0.7408565,5.848538E-08,NaN,NaN,-0.01963945,-2.421446E-10,1.123433E-07,-1.116655E-07,1.586766E-09,-2.622604E-08
546.5058,-1.450837,-8.621527E-09,NaN,-0.3256122,-1.338123E-07,NaN,0.8629137,-1.286556E-07,NaN,-0.3820106,1.679691E-05,-0.7325205,5.878816E-08,NaN,NaN,-0.019648,-2.328314E-10,1.086181E-07,-1.116644E-07,2.480836E-09,-2.861022E-08
546.5219,-1.444253,-8.62071E-09,NaN,-0.3256091,-1.338102E-07,NaN,0.853699,-1.296476E-07,NaN,-0.3846175,1.679741E-05,-0.7244089,5.908898E-08,NaN,NaN,-0.01965619,-2.328314E-10,1.041477E-07,-1.116633E-07,3.374905E-09,-2.622604E-08
546.5374,-1.444253,-8.62071E-09,NaN,-0.3256091,-1.338102E-07,NaN,0.853699,-1.296476E-07,NaN,-0.3846175,1.679741E-05,-0.7244089,5.908898E-08,NaN,NaN,-0.01965619,-2.328314E-10,1.041477E-07,-1.116633E-07,3.374905E-09,-2.622604E-08
546.554,-1.43752,-8.619893E-09,NaN,-0.3256053,-1.338081E-07,NaN,0.8447853,-1.306396E-07,NaN,-0.387148,1.67979E-05,-0.7165775,5.938784E-08,NaN,NaN,-0.01966399,-2.188616E-10,1.014655E-07,-1.116622E-07,5.163045E-09,-2.861022E-08
546.5692,-1.429994,-8.619077E-09,NaN,-0.3255988,-1.338061E-07,NaN,0.8352088,-1.316317E-07,NaN,-0.3899091,1.67984E-05,-0.7081394,5.968477E-08,NaN,NaN,-0.01967251,-2.188616E-10,9.565404E-08,-1.116611E-07,4.268975E-09,-2.622604E-08
546.5847,-1.422,-8.61826E-09,NaN,-0.3255902,-1.33804E-07,NaN,0.8256568,-1.326237E-07,NaN,-0.3926932,1.679889E-05,-0.6997255,5.997976E-08,NaN,NaN,-0.01968093,-2.095484E-10,9.222678E-08,-1.1166E-07,3.970952E-09,-2.861022E-08
546.6005,-1.413745,-8.617443E-09,NaN,-0.32558,-1.33802E-07,NaN,0.8163651,-1.336157E-07,NaN,-0.3954207,1.679939E-05,-0.691553,6.027284E-08,NaN,NaN,-0.01968898,-2.095484E-10,9.073666E-08,-1.116589E-07,4.566998E-09,-2.622604E-08
546.6161,-1.413745,-8.617443E-09,NaN,-0.32558,-1.33802E-07,NaN,0.8163651,-1.336157E-07,NaN,-0.3954207,1.679939E-05,-0.691553,6.027284E-08,NaN,NaN,-0.01968898,-2.095484E-10,9.073666E-08,-1.116589E-07,4.566998E-09,-2.622604E-08
546.6313,-1.405361,-8.616626E-09,NaN,-0.3255689,-1.337999E-07,NaN,0.8073893,-1.346077E-07,NaN,-0.398068,1.679989E-05,-0.6836738,6.056402E-08,NaN,NaN,-0.01969664,-2.002351E-10,8.61173E-08,-1.116578E-07,3.672928E-09,-2.861022E-08
546.6478,-1.396202,-8.615809E-09,NaN,-0.3255547,-1.337979E-07,NaN,0.797816,-1.355998E-07,NaN,-0.4009542,1.680039E-05,-0.6752515,6.085331E-08,NaN,NaN,-0.01970495,-1.955785E-10,8.269004E-08,-1.116567E-07,2.778858E-09,-2.622604E-08
546.6635,-1.386595,-8.61499E-09,NaN,-0.3255382,-1.337958E-07,NaN,0.7882947,-1.365918E-07,NaN,-0.4038627,1.680089E-05,-0.6668789,6.114072E-08,NaN,NaN,-0.01971314,-1.909219E-10,7.792166E-08,-1.116556E-07,3.076882E-09,-2.861022E-08
546.6791,-1.386595,-8.61499E-09,NaN,-0.3255382,-1.337958E-07,NaN,0.7882947,-1.365918E-07,NaN,-0.4038627,1.680089E-05,-0.6668789,6.114072E-08,NaN,NaN,-0.01971314,-1.909219E-10,7.792166E-08,-1.116556E-07,3.076882E-09,-2.861022E-08
546.6942,-1.376745,-8.614172E-09,NaN,-0.3255199,-1.337938E-07,NaN,0.779048,-1.375838E-07,NaN,-0.406711,1.680139E-05,-0.6587604,6.142626E-08,NaN,NaN,-0.01972098,-1.816087E-10,7.345131E-08,-1.116545E-07,3.076882E-09,-2.622604E-08
546.7104,-1.366784,-8.613354E-09,NaN,-0.3255004,-1.337917E-07,NaN,0.7701276,-1.385759E-07,NaN,-0.4094746,1.680189E-05,-0.6509441,6.170995E-08,NaN,NaN,-0.01972842,-1.769521E-10,6.9428E-08,-1.116534E-07,2.778858E-09,-2.861022E-08
546.7263,-1.356066,-8.612536E-09,NaN,-0.3254778,-1.337897E-07,NaN,0.7606695,-1.395679E-07,NaN,-0.4124846,1.680239E-05,-0.6426432,6.199181E-08,NaN,NaN,-0.01973644,-1.676388E-10,6.465962E-08,-1.116523E-07,1.586766E-09,-2.622604E-08
546.742,-1.344918,-8.611718E-09,NaN,-0.3254527,-1.337877E-07,NaN,0.751286,-1.405599E-07,NaN,-0.4155156,1.680288E-05,-0.6344131,6.227182E-08,NaN,NaN,-0.01974434,-1.583256E-10,5.989125E-08,-1.116512E-07,1.586766E-09,-2.861022E-08
546.7579,-1.344918,-8.611718E-09,NaN,-0.3254527,-1.337877E-07,NaN,0.751286,-1.405599E-07,NaN,-0.4155156,1.680288E-05,-0.6344131,6.227182E-08,NaN,NaN,-0.01974434,-1.583256E-10,5.989125E-08,-1.116512E-07,1.586766E-09,-2.861022E-08
546.773,-1.333546,-8.6109E-09,NaN,-0.3254257,-1.337856E-07,NaN,0.7421871,-1.41552E-07,NaN,-0.4184823,1.680337E-05,-0.6264454,6.255002E-08,NaN,NaN,-0.0197519,-1.490124E-10,5.6762E-08,-1.116501E-07,3.946727E-10,-2.622604E-08
546.7897,-1.322079,-8.610082E-09,NaN,-0.3253973,-1.337836E-07,NaN,0.7334207,-1.42544E-07,NaN,-0.4213595,1.680387E-05,-0.6187847,6.282642E-08,NaN,NaN,-0.01975907,-1.443558E-10,5.393078E-08,-1.11649E-07,-4.993969E-10,-2.861022E-08
546.8055,-1.309874,-8.609264E-09,NaN,-0.325366,-1.337816E-07,NaN,0.7241708,-1.43536E-07,NaN,-0.4244893,1.680436E-05,-0.6106926,6.310101E-08,NaN,NaN,-0.01976674,-1.350425E-10,4.856637E-08,-1.116479E-07,-1.542478E-09,-2.622604E-08
546.8212,-1.297255,-8.608446E-09,NaN,-0.3253319,-1.337796E-07,NaN,0.7150138,-1.445281E-07,NaN,-0.4276384,1.680486E-05,-0.6026881,6.337383E-08,NaN,NaN,-0.01977429,-1.257293E-10,4.409602E-08,-1.116468E-07,-1.393467E-09,-2.861022E-08
546.837,-1.297255,-8.608446E-09,NaN,-0.3253319,-1.337796E-07,NaN,0.7150138,-1.445281E-07,NaN,-0.4276384,1.680486E-05,-0.6026881,6.337383E-08,NaN,NaN,-0.01977429,-1.257293E-10,4.409602E-08,-1.116468E-07,-1.393467E-09,-2.861022E-08
546.8522,-1.284429,-8.607628E-09,NaN,-0.3252958,-1.337775E-07,NaN,0.7061472,-1.455201E-07,NaN,-0.4307186,1.680535E-05,-0.5949506,6.364488E-08,NaN,NaN,-0.01978151,-1.210727E-10,4.081776E-08,-1.116457E-07,-3.330618E-09,-2.622604E-08
546.8687,-1.271526,-8.60681E-09,NaN,-0.3252584,-1.337755E-07,NaN,0.6976153,-1.465121E-07,NaN,-0.4337043,1.680585E-05,-0.587521,6.391416E-08,NaN,NaN,-0.01978837,-1.117595E-10,3.783753E-08,-1.116446E-07,-3.032594E-09,-2.861022E-08
546.8844,-1.2579,-8.605992E-09,NaN,-0.3252179,-1.337735E-07,NaN,0.6886487,-1.475042E-07,NaN,-0.4369478,1.680634E-05,-0.5797077,6.418171E-08,NaN,NaN,-0.01979567,-1.024462E-10,3.277114E-08,-1.116435E-07,-3.330618E-09,-2.622604E-08
546.9005,-1.243877,-8.605174E-09,NaN,-0.3251747,-1.337715E-07,NaN,0.679789,-1.484962E-07,NaN,-0.4402083,1.680683E-05,-0.5719948,6.444751E-08,NaN,NaN,-0.01980284,-9.313302E-11,2.71087E-08,-1.116424E-07,-3.554135E-09,-2.861022E-08
546.916,-1.243877,-8.605174E-09,NaN,-0.3251747,-1.337715E-07,NaN,0.679789,-1.484962E-07,NaN,-0.4402083,1.680683E-05,-0.5719948,6.444751E-08,NaN,NaN,-0.01980284,-9.313302E-11,2.71087E-08,-1.116424E-07,-3.554135E-09,-2.861022E-08
546.9309,-1.229663,-8.604356E-09,NaN,-0.3251294,-1.337695E-07,NaN,0.6712219,-1.494882E-07,NaN,-0.4433952,1.680733E-05,-0.5645497,6.471158E-08,NaN,NaN,-0.0198097,-8.38198E-11,2.263835E-08,-1.116412E-07,-2.58556E-09,-2.622604E-08
546.9472,-1.215388,-8.603538E-09,NaN,-0.3250827,-1.337675E-07,NaN,0.6629885,-1.504802E-07,NaN,-0.4464822,1.680782E-05,-0.5574103,6.497394E-08,NaN,NaN,-0.0198162,-7.450657E-11,2.085021E-08,-1.116401E-07,-2.473801E-09,-2.861022E-08
546.9635,-1.200406,-8.60272E-09,NaN,-0.3250332,-1.337655E-07,NaN,0.6543636,-1.514723E-07,NaN,-0.4498314,1.680831E-05,-0.5499296,6.523459E-08,NaN,NaN,-0.01982307,-6.519335E-11,1.786998E-08,-1.11639E-07,-1.421406E-09,-2.622604E-08
546.979,-1.200406,-8.60272E-09,NaN,-0.3250332,-1.337655E-07,NaN,0.6543636,-1.514723E-07,NaN,-0.4498314,1.680831E-05,-0.5499296,6.523459E-08,NaN,NaN,-0.01982307,-6.519335E-11,1.786998E-08,-1.11639E-07,-1.421406E-09,-2.622604E-08
546.9939,-1.185043,-8.601902E-09,NaN,-0.3249808,-1.337635E-07,NaN,0.6458558,-1.524643E-07,NaN,-0.4531949,1.680882E-05,-0.5425584,6.549356E-08,NaN,NaN,-0.01982982,-6.984997E-11,1.399567E-08,-1.116379E-07,-9.743716E-10,-2.861022E-08
547.0104,-1.169504,-8.601084E-09,NaN,-0.3249262,-1.337615E-07,NaN,0.6376398,-1.534563E-07,NaN,-0.4564798,1.680932E-05,-0.5354526,6.575084E-08,NaN,NaN,-0.01983627,-6.519335E-11,1.280358E-08,-1.116368E-07,-2.091959E-09,-2.622604E-08
547.0266,-1.153919,-8.600266E-09,NaN,-0.3248704,-1.337595E-07,NaN,0.6297534,-1.544484E-07,NaN,-0.4596594,1.680982E-05,-0.5286472,6.600645E-08,NaN,NaN,-0.01984239,-6.053674E-11,1.012137E-08,-1.116357E-07,-2.837017E-09,-2.861022E-08
547.0421,-1.137643,-8.599448E-09,NaN,-0.3248117,-1.337575E-07,NaN,0.6215137,-1.554404E-07,NaN,-0.4631047,1.681032E-05,-0.521538,6.626041E-08,NaN,NaN,-0.01984883,-6.053674E-11,3.266838E-09,-1.116346E-07,-3.582075E-09,-2.622604E-08
547.0601,-1.121,-8.59863E-09,NaN,-0.3247501,-1.337555E-07,NaN,0.613398,-1.564324E-07,NaN,-0.4665614,1.681082E-05,-0.5145438,6.651271E-08,NaN,NaN,-0.01985515,-5.588012E-11,8.826526E-10,-1.116335E-07,-3.880098E-09,-2.861022E-08
547.0737,-1.121,-8.59863E-09,NaN,-0.3247501,-1.337555E-07,NaN,0.613398,-1.564324E-07,NaN,-0.4665614,1.681082E-05,-0.5145438,6.651271E-08,NaN,NaN,-0.01985515,-5.588012E-11,8.826526E-10,-1.116335E-07,-3.880098E-09,-2.861022E-08
547.0891,-1.104196,-8.597812E-09,NaN,-0.3246864,-1.337535E-07,NaN,0.6055704,-1.574245E-07,NaN,-0.4699345,1.681131E-05,-0.5078102,6.676338E-08,NaN,NaN,-0.01986118,-5.122351E-11,-6.269905E-09,-1.116324E-07,-3.582075E-09,-2.622604E-08
547.1054,-1.087361,-8.596994E-09,NaN,-0.3246215,-1.337515E-07,NaN,0.5980663,-1.584165E-07,NaN,-0.4731968,1.681181E-05,-0.5013694,6.701242E-08,NaN,NaN,-0.01986689,-4.65669E-11,-1.223037E-08,-1.116313E-07,-2.389982E-09,-2.861022E-08
547.1216,-1.069849,-8.596176E-09,NaN,-0.3245538,-1.337495E-07,NaN,0.590242,-1.594085E-07,NaN,-0.4767276,1.681231E-05,-0.4946571,6.725984E-08,NaN,NaN,-0.01987289,-4.191029E-11,-2.117106E-08,-1.116302E-07,-2.688005E-09,-2.622604E-08
547.1371,-1.069849,-8.596176E-09,NaN,-0.3245538,-1.337495E-07,NaN,0.590242,-1.594085E-07,NaN,-0.4767276,1.681231E-05,-0.4946571,6.725984E-08,NaN,NaN,-0.01987289,-4.191029E-11,-2.117106E-08,-1.116302E-07,-2.688005E-09,-2.622604E-08
547.1523,-1.051984,-8.595358E-09,NaN,-0.3244833,-1.337475E-07,NaN,0.5825458,-1.604006E-07,NaN,-0.4802667,1.681282E-05,-0.4880629,6.750566E-08,NaN,NaN,-0.01987878,-5.122351E-11,-2.355525E-08,-1.116291E-07,-2.688005E-09,-2.861022E-08
547.1686,-1.033973,-8.59454E-09,NaN,-0.3244107,-1.337456E-07,NaN,0.5751319,-1.613926E-07,NaN,-0.4837173,1.681333E-05,-0.4817221,6.774988E-08,NaN,NaN,-0.01988439,-4.65669E-11,-2.951571E-08,-1.116281E-07,-6.018426E-10,-2.622604E-08
547.1842,-1.015944,-8.593722E-09,NaN,-0.3243369,-1.337436E-07,NaN,0.5680333,-1.623846E-07,NaN,-0.4870519,1.681382E-05,-0.4756643,6.799252E-08,NaN,NaN,-0.01988971,-3.725367E-11,-3.18999E-08,-1.11627E-07,2.922271E-10,-2.861022E-08
547.2002,-0.9972523,-8.592902E-09,NaN,-0.3242604,-1.337426E-07,NaN,0.5606433,-1.631713E-07,NaN,-0.490657,1.681433E-05,-0.4693634,6.818004E-08,NaN,NaN,-0.01989528,-3.725367E-11,-4.113862E-08,-1.116261E-07,1.186297E-09,-2.622604E-08
547.2159,-0.9972523,-8.592902E-09,NaN,-0.3242604,-1.337426E-07,NaN,0.5606433,-1.631713E-07,NaN,-0.490657,1.681433E-05,-0.4693634,6.818004E-08,NaN,NaN,-0.01989528,-3.725367E-11,-4.113862E-08,-1.116261E-07,1.186297E-09,-2.622604E-08
547.2308,-0.9782217,-8.592083E-09,NaN,-0.3241812,-1.337421E-07,NaN,0.553383,-1.637073E-07,NaN,-0.4942673,1.681484E-05,-0.4631808,6.823708E-08,NaN,NaN,-0.01990072,-3.725367E-11,-4.739711E-08,-1.116256E-07,2.378389E-09,-2.861022E-08
547.247,-0.9590576,-8.591263E-09,NaN,-0.3240999,-1.337419E-07,NaN,0.5463976,-1.640812E-07,NaN,-0.4977843,1.681533E-05,-0.4572428,6.822807E-08,NaN,NaN,-0.01990592,-2.328383E-11,-4.888722E-08,-1.116252E-07,3.570482E-09,-2.622604E-08
547.2631,-0.9398896,-8.590443E-09,NaN,-0.3240176,-1.337419E-07,NaN,0.539718,-1.643387E-07,NaN,-0.5011804,1.681583E-05,-0.4515769,6.817967E-08,NaN,NaN,-0.01991084,-1.862722E-11,-5.335757E-08,-1.11625E-07,4.762575E-09,-2.861022E-08
547.2784,-0.9398896,-8.590443E-09,NaN,-0.3240176,-1.337419E-07,NaN,0.539718,-1.643387E-07,NaN,-0.5011804,1.681583E-05,-0.4515769,6.817967E-08,NaN,NaN,-0.01991084,-1.862722E-11,-5.335757E-08,-1.11625E-07,4.762575E-09,-2.861022E-08
547.2934,-0.9200717,-8.589623E-09,NaN,-0.3239327,-1.337419E-07,NaN,0.5327716,-1.645103E-07,NaN,-0.5048485,1.681634E-05,-0.4456919,6.810676E-08,NaN,NaN,-0.01991597,-1.862722E-11,-5.991408E-08,-1.116248E-07,1.782343E-09,-2.622604E-08
547.31,-0.8999279,-8.588803E-09,NaN,-0.3238451,-1.33742E-07,NaN,0.5259548,-1.646198E-07,NaN,-0.5085188,1.681684E-05,-0.4399236,6.802111E-08,NaN,NaN,-0.01992099,-1.397061E-11,-6.468245E-08,-1.116246E-07,-6.018426E-10,-2.861022E-08
547.3256,-0.8796634,-8.587984E-09,NaN,-0.3237555,-1.337422E-07,NaN,0.5194041,-1.646831E-07,NaN,-0.5120913,1.681734E-05,-0.4343899,6.792859E-08,NaN,NaN,-0.01992578,-7.702172E-16,-6.825873E-08,-1.116245E-07,-2.986028E-09,-2.622604E-08
547.3411,-0.8594078,-8.587164E-09,NaN,-0.3236649,-1.337423E-07,NaN,0.5131485,-1.64711E-07,NaN,-0.515538,1.681785E-05,-0.4291163,6.783216E-08,NaN,NaN,-0.0199303,-4.657383E-12,-7.30271E-08,-1.116244E-07,-4.178121E-09,-2.861022E-08
547.3573,-0.8594078,-8.587164E-09,NaN,-0.3236649,-1.337423E-07,NaN,0.5131485,-1.64711E-07,NaN,-0.515538,1.681785E-05,-0.4291163,6.783216E-08,NaN,NaN,-0.0199303,-4.657383E-12,-7.30271E-08,-1.116244E-07,-4.178121E-09,-2.861022E-08
547.3723,-0.8385149,-8.586344E-09,NaN,-0.323572,-1.337425E-07,NaN,0.5066475,-1.647127E-07,NaN,-0.5192581,1.681836E-05,-0.423644,6.773472E-08,NaN,NaN,-0.01993502,-4.657383E-12,-7.630535E-08,-1.116243E-07,-2.986028E-09,-2.622604E-08
547.3887,-0.8173085,-8.585524E-09,NaN,-0.3234765,-1.337427E-07,NaN,0.5002741,-1.646962E-07,NaN,-0.5229774,1.681887E-05,-0.4182854,6.763917E-08,NaN,NaN,-0.01993962,-4.657383E-12,-8.733221E-08,-1.116242E-07,-2.389982E-09,-2.861022E-08
547.4043,-0.7959938,-8.584705E-09,NaN,-0.323379,-1.337429E-07,NaN,0.4941573,-1.646624E-07,NaN,-0.5265946,1.681937E-05,-0.4131504,6.754259E-08,NaN,NaN,-0.019944,-7.702172E-16,-9.508081E-08,-1.116241E-07,-2.986028E-09,-2.622604E-08
547.4207,-0.7747,-8.583885E-09,NaN,-0.3232806,-1.337431E-07,NaN,0.4883245,-1.646176E-07,NaN,-0.5300817,1.681988E-05,-0.408263,6.744782E-08,NaN,NaN,-0.01994815,-4.657383E-12,-1.016373E-07,-1.11624E-07,-6.562306E-09,-2.861022E-08
547.4362,-0.7747,-8.583885E-09,NaN,-0.3232806,-1.337431E-07,NaN,0.4883245,-1.646176E-07,NaN,-0.5300817,1.681988E-05,-0.408263,6.744782E-08,NaN,NaN,-0.01994815,-4.657383E-12,-1.016373E-07,-1.11624E-07,-6.562306E-09,-2.861022E-08
547.4514,-0.752781,-8.583065E-09,NaN,-0.3231801,-1.337433E-07,NaN,0.4822641,-1.645642E-07,NaN,-0.5338431,1.682038E-05,-0.4031942,6.735483E-08,NaN,NaN,-0.01995246,4.655843E-12,-1.070017E-07,-1.116239E-07,-6.562306E-09,-2.622604E-08
547.4678,-0.7305604,-8.582245E-09,NaN,-0.323077,-1.337434E-07,NaN,0.4763283,-1.645043E-07,NaN,-0.5376008,1.682089E-05,-0.3982348,6.726358E-08,NaN,NaN,-0.01995666,4.655843E-12,-1.132602E-07,-1.116238E-07,-5.370214E-09,-2.861022E-08
547.4836,-0.7082431,-8.581425E-09,NaN,-0.3229721,-1.337436E-07,NaN,0.4706392,-1.644396E-07,NaN,-0.5412527,1.682139E-05,-0.3934878,6.717404E-08,NaN,NaN,-0.01996067,4.655843E-12,-1.213069E-07,-1.116237E-07,-6.562306E-09,-2.622604E-08
547.4995,-0.7082431,-8.581425E-09,NaN,-0.3229721,-1.337436E-07,NaN,0.4706392,-1.644396E-07,NaN,-0.5412527,1.682139E-05,-0.3934878,6.717404E-08,NaN,NaN,-0.01996067,4.655843E-12,-1.213069E-07,-1.116237E-07,-6.562306E-09,-2.622604E-08
547.5143,-0.6852307,-8.580606E-09,NaN,-0.322864,-1.337438E-07,NaN,0.4647422,-1.643712E-07,NaN,-0.545178,1.682191E-05,-0.388576,6.708617E-08,NaN,NaN,-0.01996482,-7.702172E-16,-1.281614E-07,-1.116236E-07,-5.370214E-09,-2.861022E-08
547.5307,-0.6618776,-8.579785E-09,NaN,-0.3227524,-1.33744E-07,NaN,0.4589854,-1.643002E-07,NaN,-0.5490875,1.682241E-05,-0.3837852,6.699995E-08,NaN,NaN,-0.01996886,9.312455E-12,-1.317377E-07,-1.116235E-07,-2.986028E-09,-2.622604E-08
547.5468,-0.6384077,-8.578964E-09,NaN,-0.3226382,-1.337442E-07,NaN,0.4534865,-1.642274E-07,NaN,-0.5528768,1.682292E-05,-0.379214,6.691533E-08,NaN,NaN,-0.01997269,4.655843E-12,-1.388902E-07,-1.116234E-07,-4.178121E-09,-2.861022E-08
547.5641,-0.6149626,-8.578144E-09,NaN,-0.3225228,-1.337444E-07,NaN,0.4482675,-1.641535E-07,NaN,-0.5565192,1.682342E-05,-0.3748819,6.683229E-08,NaN,NaN,-0.0199763,9.312455E-12,-1.430626E-07,-1.116233E-07,-5.370214E-09,-2.622604E-08
547.5781,-0.6149626,-8.578144E-09,NaN,-0.3225228,-1.337444E-07,NaN,0.4482675,-1.641535E-07,NaN,-0.5565192,1.682342E-05,-0.3748819,6.683229E-08,NaN,NaN,-0.0199763,9.312455E-12,-1.430626E-07,-1.116233E-07,-5.370214E-09,-2.622604E-08
547.5934,-0.5910757,-8.577323E-09,NaN,-0.3224055,-1.337445E-07,NaN,0.4429676,-1.640791E-07,NaN,-0.5603313,1.682392E-05,-0.370493,6.67508E-08,NaN,NaN,-0.01997994,1.396907E-11,-1.475329E-07,-1.116232E-07,-6.562306E-09,-2.861022E-08
547.6097,-0.5670109,-8.576502E-09,NaN,-0.3222865,-1.337447E-07,NaN,0.4378228,-1.640043E-07,NaN,-0.5641011,1.682442E-05,-0.3662371,6.667083E-08,NaN,NaN,-0.01998347,2.328229E-11,-1.546855E-07,-1.116231E-07,-1.252277E-08,-2.622604E-08
547.6257,-0.5429349,-8.575681E-09,NaN,-0.3221667,-1.337449E-07,NaN,0.4329111,-1.639297E-07,NaN,-0.5677532,1.682493E-05,-0.3621782,6.659234E-08,NaN,NaN,-0.01998682,2.328229E-11,-1.573677E-07,-1.11623E-07,-1.490696E-08,-2.861022E-08
547.6412,-0.5189526,-8.574861E-09,NaN,-0.322047,-1.337451E-07,NaN,0.4282444,-1.638555E-07,NaN,-0.5712692,1.682543E-05,-0.3583266,6.651532E-08,NaN,NaN,-0.01998997,3.259552E-11,-1.633281E-07,-1.116229E-07,-1.252277E-08,-2.622604E-08
547.6572,-0.5189526,-8.574861E-09,NaN,-0.322047,-1.337451E-07,NaN,0.4282444,-1.638555E-07,NaN,-0.5712692,1.682543E-05,-0.3583266,6.651532E-08,NaN,NaN,-0.01998997,3.259552E-11,-1.633281E-07,-1.116229E-07,-1.252277E-08,-2.622604E-08
547.6724,-0.4951297,-8.57404E-09,NaN,-0.3219287,-1.337453E-07,NaN,0.4238107,-1.637818E-07,NaN,-0.5746522,1.682593E-05,-0.3546726,6.643972E-08,NaN,NaN,-0.01999294,3.259552E-11,-1.689906E-07,-1.116228E-07,-1.133068E-08,-2.861022E-08
547.6891,-0.4715067,-8.573219E-09,NaN,-0.3218128,-1.337455E-07,NaN,0.4195918,-1.637087E-07,NaN,-0.5779117,1.682643E-05,-0.3512005,6.636553E-08,NaN,NaN,-0.01999574,4.190874E-11,-1.737589E-07,-1.116227E-07,-1.371486E-08,-2.622604E-08
547.7048,-0.4481085,-8.572399E-09,NaN,-0.3217,-1.337456E-07,NaN,0.41557,-1.636365E-07,NaN,-0.5810577,1.682694E-05,-0.3478949,6.629271E-08,NaN,NaN,-0.0199984,4.190874E-11,-1.779313E-07,-1.116226E-07,-1.252277E-08,-2.861022E-08
547.7208,-0.4249496,-8.571578E-09,NaN,-0.321591,-1.337458E-07,NaN,0.41173,-1.635652E-07,NaN,-0.5840987,1.682743E-05,-0.3447425,6.622123E-08,NaN,NaN,-0.02000093,5.587858E-11,-1.809115E-07,-1.116225E-07,-1.848323E-08,-2.622604E-08
547.7368,-0.4249496,-8.571578E-09,NaN,-0.321591,-1.337458E-07,NaN,0.41173,-1.635652E-07,NaN,-0.5840987,1.682743E-05,-0.3447425,6.622123E-08,NaN,NaN,-0.02000093,5.587858E-11,-1.809115E-07,-1.116225E-07,-1.848323E-08,-2.622604E-08
547.7518,-0.4020384,-8.570757E-09,NaN,-0.321486,-1.33746E-07,NaN,0.4080594,-1.634948E-07,NaN,-0.5870417,1.682794E-05,-0.3417319,6.615108E-08,NaN,NaN,-0.02000333,5.587858E-11,-1.853818E-07,-1.116224E-07,-1.609905E-08,-2.861022E-08
547.7682,-0.3793789,-8.569937E-09,NaN,-0.3213854,-1.337462E-07,NaN,0.4045479,-1.634227E-07,NaN,-0.5898919,1.682843E-05,-0.3388539,6.607939E-08,NaN,NaN,-0.02000561,6.51918E-11,-1.892561E-07,-1.116224E-07,-1.609905E-08,-2.622604E-08
547.784,-0.3569728,-8.569116E-09,NaN,-0.3212894,-1.337463E-07,NaN,0.4011871,-1.633544E-07,NaN,-0.5926534,1.682893E-05,-0.3361007,6.601186E-08,NaN,NaN,-0.0200078,6.984842E-11,-1.919384E-07,-1.116223E-07,-1.371486E-08,-2.861022E-08
547.8004,-0.3348199,-8.568295E-09,NaN,-0.3211979,-1.337465E-07,NaN,0.3979696,-1.632844E-07,NaN,-0.5953296,1.682942E-05,-0.3334657,6.594275E-08,NaN,NaN,-0.02000987,7.916164E-11,-1.964087E-07,-1.116222E-07,-1.371486E-08,-2.622604E-08
547.816,-0.3348199,-8.568295E-09,NaN,-0.3211979,-1.337465E-07,NaN,0.3979696,-1.632844E-07,NaN,-0.5953296,1.682942E-05,-0.3334657,6.594275E-08,NaN,NaN,-0.02000987,7.916164E-11,-1.964087E-07,-1.116222E-07,-1.371486E-08,-2.622604E-08
547.8317,-0.3129191,-8.567475E-09,NaN,-0.3211111,-1.337467E-07,NaN,0.3948892,-1.632183E-07,NaN,-0.597923,1.682992E-05,-0.3309429,6.587774E-08,NaN,NaN,-0.02001185,8.381826E-11,-1.990909E-07,-1.116221E-07,-1.848323E-08,-2.861022E-08
547.8479,-0.2912687,-8.566654E-09,NaN,-0.3210287,-1.337468E-07,NaN,0.3919401,-1.631504E-07,NaN,-0.6004361,1.683042E-05,-0.3285273,6.58111E-08,NaN,NaN,-0.02001374,9.313148E-11,-2.032632E-07,-1.11622E-07,-1.371486E-08,-2.622604E-08
547.8637,-0.2698666,-8.565833E-09,NaN,-0.3209509,-1.33747E-07,NaN,0.3891171,-1.630838E-07,NaN,-0.6028707,1.683092E-05,-0.3262142,6.574569E-08,NaN,NaN,-0.02001556,8.847487E-11,-2.071375E-07,-1.116219E-07,-1.848323E-08,-2.861022E-08
547.8794,-0.2698666,-8.565833E-09,NaN,-0.3209509,-1.33747E-07,NaN,0.3891171,-1.630838E-07,NaN,-0.6028707,1.683092E-05,-0.3262142,6.574569E-08,NaN,NaN,-0.02001556,8.847487E-11,-2.071375E-07,-1.116219E-07,-1.848323E-08,-2.861022E-08
547.8948,-0.2487102,-8.565013E-09,NaN,-0.3208775,-1.337472E-07,NaN,0.3864155,-1.630182E-07,NaN,-0.6052287,1.683142E-05,-0.3239991,6.568148E-08,NaN,NaN,-0.02001729,9.778809E-11,-2.104158E-07,-1.116218E-07,-1.609905E-08,-2.622604E-08
547.9113,-0.2341705,-8.564192E-09,NaN,-0.3208289,-1.337473E-07,NaN,0.3872251,-1.629537E-07,NaN,-0.6038122,1.683192E-05,-0.3245494,6.561844E-08,NaN,NaN,-0.0200168,9.313147E-11,-2.008791E-07,-1.116217E-07,-1.609905E-08,-2.861022E-08
547.9274,-0.2238542,-8.563371E-09,NaN,-0.320813,-1.337475E-07,NaN,0.3890671,-1.628904E-07,NaN,-0.6012647,1.683242E-05,-0.3259634,6.555656E-08,NaN,NaN,-0.02001556,1.024447E-10,-1.883621E-07,-1.116217E-07,-1.371486E-08,-2.622604E-08
547.9433,-0.2162387,-8.562551E-09,NaN,-0.3208203,-1.337477E-07,NaN,0.390963,-1.628281E-07,NaN,-0.5986189,1.683292E-05,-0.3274529,6.549582E-08,NaN,NaN,-0.02001427,9.778808E-11,-1.776332E-07,-1.116216E-07,-1.371486E-08,-2.861022E-08
547.9593,-0.2162387,-8.562551E-09,NaN,-0.3208203,-1.337477E-07,NaN,0.390963,-1.628281E-07,NaN,-0.5986189,1.683292E-05,-0.3274529,6.549582E-08,NaN,NaN,-0.02001427,9.778808E-11,-1.776332E-07,-1.116216E-07,-1.371486E-08,-2.861022E-08
547.9743,-0.2103548,-8.56173E-09,NaN,-0.3208457,-1.337479E-07,NaN,0.3926053,-1.627669E-07,NaN,-0.596218,1.683342E-05,-0.3287539,6.543618E-08,NaN,NaN,-0.02001316,1.024447E-10,-1.675004E-07,-1.116215E-07,-1.133068E-08,-2.622604E-08
547.991,-0.2055853,-8.560909E-09,NaN,-0.3208836,-1.33748E-07,NaN,0.3939496,-1.627068E-07,NaN,-0.5941258,1.683393E-05,-0.3298166,6.537763E-08,NaN,NaN,-0.02001228,9.778808E-11,-1.576657E-07,-1.116214E-07,-1.133068E-08,-2.861022E-08
548.0068,-0.2015371,-8.560089E-09,NaN,-0.32093,-1.337482E-07,NaN,0.3950422,-1.626478E-07,NaN,-0.5923071,1.683442E-05,-0.33067,6.532015E-08,NaN,NaN,-0.02001159,1.071013E-10,-1.517052E-07,-1.116213E-07,-1.371486E-08,-2.622604E-08
548.023,-0.1979599,-8.559268E-09,NaN,-0.3209816,-1.337484E-07,NaN,0.3959473,-1.625897E-07,NaN,-0.5907025,1.683493E-05,-0.3313632,6.526372E-08,NaN,NaN,-0.02001104,1.024447E-10,-1.451487E-07,-1.116212E-07,-1.609905E-08,-2.861022E-08
548.0388,-0.1979599,-8.559268E-09,NaN,-0.3209816,-1.337484E-07,NaN,0.3959473,-1.625897E-07,NaN,-0.5907025,1.683493E-05,-0.3313632,6.526372E-08,NaN,NaN,-0.02001104,1.024447E-10,-1.451487E-07,-1.116212E-07,-1.609905E-08,-2.861022E-08
548.0543,-0.1946939,-8.558447E-09,NaN,-0.3210365,-1.337485E-07,NaN,0.3967218,-1.625327E-07,NaN,-0.589256,1.683542E-05,-0.3319416,6.520831E-08,NaN,NaN,-0.02001059,1.117579E-10,-1.381452E-07,-1.116211E-07,-1.371486E-08,-2.622604E-08
548.0719,-0.1916375,-8.557626E-09,NaN,-0.3210934,-1.337491E-07,NaN,0.3999847,-1.623085E-07,NaN,-0.5879057,1.683594E-05,-0.3359868,6.498573E-08,NaN,NaN,-0.02001546,1.024447E-10,-1.792724E-07,-1.116201E-07,-1.133068E-08,-2.861022E-08
548.0867,-0.1887257,-8.556804E-09,NaN,-0.3211512,-1.337497E-07,NaN,0.4038882,-1.621141E-07,NaN,-0.5866107,1.683645E-05,-0.3415132,6.47929E-08,NaN,NaN,-0.02001647,8.847485E-11,-1.852328E-07,-1.11619E-07,-1.133068E-08,-2.622604E-08
548.1026,-0.1859172,-8.555983E-09,NaN,-0.3212095,-1.337502E-07,NaN,0.4076324,-1.619346E-07,NaN,-0.5853577,1.683697E-05,-0.3474389,6.461509E-08,NaN,NaN,-0.02001621,7.916163E-11,-1.832957E-07,-1.116179E-07,-1.133068E-08,-2.861022E-08
548.1183,-0.1859172,-8.555983E-09,NaN,-0.3212095,-1.337502E-07,NaN,0.4076324,-1.619346E-07,NaN,-0.5853577,1.683697E-05,-0.3474389,6.461509E-08,NaN,NaN,-0.02001621,7.916163E-11,-1.832957E-07,-1.116179E-07,-1.133068E-08,-2.861022E-08
