JMolnar6/NonAnthroHands_User_Study/HandsLoggerWithURDF/tempdata/files/Reachy_JointMotion_gesture_11_56.csv
Time,r_shoulder,r_shoulder_x,r_upper_arm,r_forearm,r_wrist,r_wrist2hand,
1053.168,-0.6549856,0.0009051107,NaN,-0.6476671,0.002042798,NaN,0.1154333,-14.90205,NaN,-0.6480517,-1.479096,0.08381458,14.13445,NaN,NaN,0.1329429,0.8123817,-1.920658E-06,1.080851,2.64538E-09,1.342686
1053.182,-0.6506919,0.0009047961,NaN,-0.643945,0.002044291,NaN,0.1144253,-14.90395,NaN,-0.6465234,-1.477667,0.08576649,14.13311,NaN,NaN,0.1330533,0.8104725,-1.918273E-06,1.07878,5.029566E-09,1.351415
1053.197,-0.6506919,0.0009047961,NaN,-0.643945,0.002044291,NaN,0.1144253,-14.90395,NaN,-0.6465234,-1.477667,0.08576649,14.13311,NaN,NaN,0.1330533,0.8104725,-1.918273E-06,1.07878,5.029566E-09,1.351415
1053.212,-0.6463705,0.0009041066,NaN,-0.640193,0.00204467,NaN,0.113495,-14.90257,NaN,-0.644985,-1.481401,0.08773109,14.1369,NaN,NaN,0.1331616,0.8118488,-1.914697E-06,1.084187,1.453287E-09,1.345078
1053.227,-0.6420544,0.000903114,NaN,-0.63644,0.002041645,NaN,0.1126696,-14.90207,NaN,-0.6434432,-1.471491,0.08964369,14.1264,NaN,NaN,0.1332678,0.8123267,-1.915889E-06,1.069783,-3.348518E-10,1.33737
1053.242,-0.6379902,0.0009022178,NaN,-0.6329028,0.002037948,NaN,0.1124867,-14.90147,NaN,-0.6421593,-1.467855,0.09081642,14.1225,NaN,NaN,0.1336534,0.8128803,-1.912313E-06,1.064492,8.572411E-10,1.334697
1053.257,-0.6379902,0.0009022178,NaN,-0.6329028,0.002037948,NaN,0.1124867,-14.90147,NaN,-0.6421593,-1.467855,0.09081642,14.1225,NaN,NaN,0.1336534,0.8128803,-1.912313E-06,1.064492,8.572411E-10,1.334697
1053.271,-0.6340922,0.0009019207,NaN,-0.6295084,0.002035986,NaN,0.1124782,-14.90246,NaN,-0.6409064,-1.465387,0.09168722,14.12001,NaN,NaN,0.1340313,0.8118584,-1.903968E-06,1.060925,2.611946E-10,1.338972
1053.287,-0.6303102,0.0009019827,NaN,-0.6262133,0.002033387,NaN,0.1124783,-14.90284,NaN,-0.6396877,-1.479379,0.09245396,14.13481,NaN,NaN,0.1344018,0.8117133,-1.890855E-06,1.081267,-9.308982E-10,1.343706
1053.302,-0.6266143,0.0009019878,NaN,-0.6229916,0.002033041,NaN,0.1124472,-14.90224,NaN,-0.6384989,-1.47447,0.09318762,14.12957,NaN,NaN,0.1347649,0.8122749,-1.878934E-06,1.074128,-3.91113E-09,1.340315
1053.317,-0.6266143,0.0009019878,NaN,-0.6229916,0.002033041,NaN,0.1124472,-14.90224,NaN,-0.6384989,-1.47447,0.09318762,14.12957,NaN,NaN,0.1347649,0.8122749,-1.878934E-06,1.074128,-3.91113E-09,1.340315
1053.331,-0.6232131,0.0009026226,NaN,-0.6200275,0.002032206,NaN,0.1129356,-14.90235,NaN,-0.6375889,-1.469513,0.09323694,14.12435,NaN,NaN,0.1354025,0.812115,-1.864629E-06,1.066922,2.611951E-10,1.340353
1053.347,-0.6200013,0.0009019898,NaN,-0.6172295,0.002032233,NaN,0.1135063,-14.90255,NaN,-0.6367208,-1.465798,0.09304062,14.12045,NaN,NaN,0.1360274,0.8118609,-1.850324E-06,1.061524,-2.122991E-09,1.339527
1053.362,-0.6169165,0.0009026101,NaN,-0.6145429,0.002032244,NaN,0.1140212,-14.90378,NaN,-0.6358916,-1.476807,0.09278719,14.1322,NaN,NaN,0.13664,0.8108126,-1.834827E-06,1.077548,-2.122991E-09,1.349917
1053.377,-0.6169165,0.0009026101,NaN,-0.6145429,0.002032244,NaN,0.1140212,-14.90378,NaN,-0.6358916,-1.476807,0.09278719,14.1322,NaN,NaN,0.13664,0.8108126,-1.834827E-06,1.077548,-2.122991E-09,1.349917
1053.393,-0.6141471,0.0009024139,NaN,-0.6121345,0.002031173,NaN,0.115008,-14.90261,NaN,-0.6353467,-1.466927,0.09186742,14.12168,NaN,NaN,0.1375222,0.8119205,-1.818734E-06,1.063196,-6.295316E-09,1.34109
1053.408,-0.6115778,0.0009022829,NaN,-0.6099032,0.002030812,NaN,0.1160331,-14.90403,NaN,-0.6348456,-1.473932,0.09073015,14.12923,NaN,NaN,0.1383868,0.810614,-1.796084E-06,1.073406,-7.487409E-09,1.350909
1053.422,-0.6091396,0.0009013072,NaN,-0.6077879,0.002030291,NaN,0.1169671,-14.90264,NaN,-0.6343821,-1.467162,0.08956397,14.12196,NaN,NaN,0.1392345,0.8119359,-1.772838E-06,1.063562,-8.083456E-09,1.341477
1053.437,-0.6091396,0.0009013072,NaN,-0.6077879,0.002030291,NaN,0.1169671,-14.90264,NaN,-0.6343821,-1.467162,0.08956397,14.12196,NaN,NaN,0.1392345,0.8119359,-1.772838E-06,1.063562,-8.083456E-09,1.341477
1053.451,-0.6067909,0.000901874,NaN,-0.6057519,0.002030351,NaN,0.1177973,-14.90406,NaN,-0.633946,-1.476919,0.08842851,14.13241,NaN,NaN,0.1400656,0.8106719,-1.75138E-06,1.07777,-9.871595E-09,1.352289
1053.466,-0.6047317,0.0009013312,NaN,-0.6039724,0.002030479,NaN,0.1190901,-14.90265,NaN,-0.6337825,-1.467462,0.08666548,14.12232,NaN,NaN,0.1411619,0.812019,-1.729327E-06,1.064034,-9.275548E-09,1.342419
1053.482,-0.6028553,0.0009013783,NaN,-0.6023555,0.002028774,NaN,0.1204244,-14.90266,NaN,-0.6336514,-1.46564,0.084703,14.1204,NaN,NaN,0.1422366,0.8119826,-1.703101E-06,1.061385,-8.679502E-09,1.340488
1053.496,-0.6028553,0.0009013783,NaN,-0.6023555,0.002028774,NaN,0.1204244,-14.90266,NaN,-0.6336514,-1.46564,0.084703,14.1204,NaN,NaN,0.1422366,0.8119826,-1.703101E-06,1.061385,-8.679502E-09,1.340488
1053.51,-0.6010973,0.0009023282,NaN,-0.6008441,0.002027618,NaN,0.1216695,-14.90411,NaN,-0.6335484,-1.472757,0.08272419,14.12808,NaN,NaN,0.1432901,0.8106585,-1.677471E-06,1.071764,-1.106369E-08,1.35073
1053.526,-0.5994187,0.0009028723,NaN,-0.5994033,0.00202871,NaN,0.1228089,-14.90315,NaN,-0.6334647,-1.465927,0.08078826,14.12079,NaN,NaN,0.144323,0.811551,-1.650052E-06,1.061836,-9.275547E-09,1.343735
1053.542,-0.59802,0.0009033204,NaN,-0.5982115,0.002030231,NaN,0.1244022,-14.90446,NaN,-0.6336468,-1.475829,0.07823997,14.13137,NaN,NaN,0.1456172,0.8104079,-1.625615E-06,1.076248,-1.285183E-08,1.354076
1053.557,-0.59802,0.0009033204,NaN,-0.5982115,0.002030231,NaN,0.1244022,-14.90446,NaN,-0.6336468,-1.475829,0.07823997,14.13137,NaN,NaN,0.1456172,0.8104079,-1.625615E-06,1.076248,-1.285183E-08,1.354076
1053.571,-0.5967966,0.0009040853,NaN,-0.5971761,0.002033253,NaN,0.12603,-14.90309,NaN,-0.6338544,-1.467435,0.07550489,14.1224,NaN,NaN,0.1468859,0.8117186,-1.597004E-06,1.064053,-1.344787E-08,1.343801
1053.587,-0.5956849,0.0009036826,NaN,-0.5962405,0.0020346,NaN,0.12756,-14.90401,NaN,-0.6340838,-1.478593,0.07276694,14.13426,NaN,NaN,0.1481296,0.8109669,-1.566606E-06,1.080281,-1.344787E-08,1.352602
1053.603,-0.594646,0.0009032283,NaN,-0.5953699,0.002036034,NaN,0.1289746,-14.90294,NaN,-0.6343266,-1.481969,0.07008604,14.13771,NaN,NaN,0.149349,0.8120465,-1.538592E-06,1.085175,-1.344787E-08,1.346418
1053.617,-0.594646,0.0009032283,NaN,-0.5953699,0.002036034,NaN,0.1289746,-14.90294,NaN,-0.6343266,-1.481969,0.07008604,14.13771,NaN,NaN,0.149349,0.8120465,-1.538592E-06,1.085175,-1.344787E-08,1.346418
1053.631,-0.59388,0.0009031789,NaN,-0.5947427,0.002035588,NaN,0.1308281,-14.90234,NaN,-0.6348305,-1.475573,0.06681019,14.1309,NaN,NaN,0.150826,0.8126376,-1.50879E-06,1.075874,-1.165973E-08,1.347504
1053.646,-0.5932833,0.0009025784,NaN,-0.5942668,0.002035435,NaN,0.1327062,-14.90278,NaN,-0.6353542,-1.467932,0.06336074,14.12287,NaN,NaN,0.1522739,0.8121561,-1.475411E-06,1.064762,-9.871594E-09,1.344334
1053.661,-0.5927925,0.0009026648,NaN,-0.5938858,0.002035576,NaN,0.1344765,-14.90395,NaN,-0.6358941,-1.471637,0.05992194,14.12691,NaN,NaN,0.1536933,0.8110358,-1.442032E-06,1.070169,-9.871594E-09,1.353623
1053.676,-0.5927925,0.0009026648,NaN,-0.5938858,0.002035576,NaN,0.1344765,-14.90395,NaN,-0.6358941,-1.471637,0.05992194,14.12691,NaN,NaN,0.1536933,0.8110358,-1.442032E-06,1.070169,-9.871594E-09,1.353623
1053.691,-0.5925922,0.0009037242,NaN,-0.5937644,0.002035566,NaN,0.1366545,-14.90392,NaN,-0.6366979,-1.481182,0.05589202,14.13695,NaN,NaN,0.1553666,0.8111646,-1.411038E-06,1.084025,-9.275547E-09,1.356153
1053.706,-0.5925705,0.0009044297,NaN,-0.593802,0.002035124,NaN,0.1388251,-14.90262,NaN,-0.6375218,-1.468155,0.05170541,14.12311,NaN,NaN,0.1570068,0.8124534,-1.372891E-06,1.065108,-8.679501E-09,1.344602
1053.721,-0.5926574,0.0009046278,NaN,-0.5939375,0.00203475,NaN,0.1408598,-14.90225,NaN,-0.6383612,-1.479851,0.04754956,14.1354,NaN,NaN,0.1586149,0.8129885,-1.333552E-06,1.082101,-8.083454E-09,1.347016
1053.736,-0.5926574,0.0009046278,NaN,-0.5939375,0.00203475,NaN,0.1408598,-14.90225,NaN,-0.6383612,-1.479851,0.04754956,14.1354,NaN,NaN,0.1586149,0.8129885,-1.333552E-06,1.082101,-8.083454E-09,1.347016
1053.751,-0.5928107,0.0009039702,NaN,-0.5941325,0.002034741,NaN,0.1427459,-14.90322,NaN,-0.6392068,-1.469891,0.0434846,14.12496,NaN,NaN,0.1601915,0.8119944,-1.297789E-06,1.067609,-9.275547E-09,1.348321
1053.767,-0.5932276,0.0009036057,NaN,-0.5945632,0.002034016,NaN,0.145031,-14.90393,NaN,-0.640307,-1.474025,0.03886376,14.12939,NaN,NaN,0.1620187,0.8113362,-1.262026E-06,1.073623,-1.165973E-08,1.352159
1053.781,-0.5938039,0.0009038462,NaN,-0.5951366,0.002035177,NaN,0.1473159,-14.90238,NaN,-0.6414182,-1.481594,0.0340977,14.13719,NaN,NaN,0.1638101,0.8129379,-1.225071E-06,1.084593,-6.891361E-09,1.347508
1053.797,-0.5938039,0.0009038462,NaN,-0.5951366,0.002035177,NaN,0.1473159,-14.90238,NaN,-0.6414182,-1.481594,0.0340977,14.13719,NaN,NaN,0.1638101,0.8129379,-1.225071E-06,1.084593,-6.891361E-09,1.347508
1053.812,-0.5944749,0.0009050313,NaN,-0.5957947,0.002037302,NaN,0.1494696,-14.90231,NaN,-0.6425369,-1.472744,0.02937081,14.12782,NaN,NaN,0.1655663,0.8130014,-1.189309E-06,1.071712,-8.083454E-09,1.347153
1053.831,-0.5952007,0.000906251,NaN,-0.5965018,0.002040032,NaN,0.1514758,-14.90233,NaN,-0.6436557,-1.469801,0.0247431,14.1247,NaN,NaN,0.167288,0.8129631,-1.151758E-06,1.067425,-1.106369E-08,1.347332
1053.841,-0.5961804,0.0009070493,NaN,-0.5974352,0.002040483,NaN,0.1538711,-14.90264,NaN,-0.6450245,-1.467319,0.0195729,14.1221,NaN,NaN,0.1692576,0.8126291,-1.114803E-06,1.063816,-8.083454E-09,1.340807
1053.856,-0.5961804,0.0009070493,NaN,-0.5974352,0.002040483,NaN,0.1538711,-14.90264,NaN,-0.6450245,-1.467319,0.0195729,14.1221,NaN,NaN,0.1692576,0.8126291,-1.114803E-06,1.063816,-8.083454E-09,1.340807
1053.872,-0.5973104,0.0009078442,NaN,-0.5985026,0.002041039,NaN,0.1562616,-14.90289,NaN,-0.6463997,-1.46601,0.01426625,14.12075,NaN,NaN,0.1711885,0.8123572,-1.072484E-06,1.061917,-5.699268E-09,1.345201
1053.886,-0.5985266,0.0009082058,NaN,-0.5996467,0.00204089,NaN,0.1585148,-14.90377,NaN,-0.6477779,-1.478385,0.009008719,14.13391,NaN,NaN,0.1730815,0.811694,-1.032548E-06,1.079926,-2.12299E-09,1.352007
1053.901,-0.5997896,0.000907868,NaN,-0.6008322,0.002039278,NaN,0.160614,-14.90219,NaN,-0.6491519,-1.466998,0.003860791,14.12175,NaN,NaN,0.1749374,0.8132312,-9.926133E-07,1.063373,-3.348503E-10,1.343258
1053.917,-0.5997896,0.000907868,NaN,-0.6008322,0.002039278,NaN,0.160614,-14.90219,NaN,-0.6491519,-1.466998,0.003860791,14.12175,NaN,NaN,0.1749374,0.8132312,-9.926133E-07,1.063373,-3.348503E-10,1.343258
1053.931,-0.6012996,0.0009081483,NaN,-0.6022373,0.002039651,NaN,0.1630872,-14.90231,NaN,-0.650773,-1.465977,-0.001814111,14.12068,NaN,NaN,0.1770385,0.8131002,-9.592347E-07,1.061891,3.241428E-09,1.343804
1053.947,-0.6029525,0.0009085058,NaN,-0.6037692,0.002038624,NaN,0.1655485,-14.90248,NaN,-0.6523966,-1.465332,-0.007616077,14.12002,NaN,NaN,0.1790984,0.8129218,-9.169154E-07,1.060959,3.837475E-09,1.343297
1053.962,-0.6046842,0.0009076216,NaN,-0.6053708,0.002035484,NaN,0.1678654,-14.90181,NaN,-0.6540195,-1.4786,-0.0133588,14.13396,NaN,NaN,0.1811179,0.8138106,-8.751922E-07,1.080246,5.029568E-09,1.342604
1053.976,-0.6046842,0.0009076216,NaN,-0.6053708,0.002035484,NaN,0.1678654,-14.90181,NaN,-0.6540195,-1.4786,-0.0133588,14.13396,NaN,NaN,0.1811179,0.8138106,-8.751922E-07,1.080246,5.029568E-09,1.342604
1053.992,-0.6066807,0.000906485,NaN,-0.6072072,0.002035005,NaN,0.1705249,-14.90301,NaN,-0.6558932,-1.465738,-0.01962629,14.12046,NaN,NaN,0.1833794,0.8125572,-8.34661E-07,1.061523,8.605847E-09,1.346815
1054.006,-0.6088277,0.0009065327,NaN,-0.6091767,0.002035393,NaN,0.1731426,-14.90377,NaN,-0.6577709,-1.466805,-0.02600724,14.12168,NaN,NaN,0.1855965,0.8118137,-7.917457E-07,1.063095,8.605847E-09,1.350984
1054.021,-0.6110557,0.0009067264,NaN,-0.6112174,0.002034014,NaN,0.1755901,-14.90281,NaN,-0.6596478,-1.465251,-0.032311,14.11992,NaN,NaN,0.1877701,0.8127383,-7.470422E-07,1.060817,9.797939E-09,1.344078
1054.036,-0.6110557,0.0009067264,NaN,-0.6112174,0.002034014,NaN,0.1755901,-14.90281,NaN,-0.6596478,-1.465251,-0.032311,14.11992,NaN,NaN,0.1877701,0.8127383,-7.470422E-07,1.060817,9.797939E-09,1.344078
1054.051,-0.6133223,0.0009064306,NaN,-0.6132916,0.002032479,NaN,0.1778571,-14.90394,NaN,-0.6615155,-1.469703,-0.03847747,14.12477,NaN,NaN,0.1899012,0.8116762,-7.035308E-07,1.067323,1.57584E-08,1.351052
1054.067,-0.6158276,0.0009063489,NaN,-0.6155763,0.002030722,NaN,0.1804596,-14.90418,NaN,-0.6636264,-1.478861,-0.04513499,14.13445,NaN,NaN,0.1922721,0.8115491,-6.624036E-07,1.080636,1.456631E-08,1.356257
1054.082,-0.6184646,0.0009061744,NaN,-0.6179767,0.002029618,NaN,0.1830317,-14.90268,NaN,-0.6657335,-1.466085,-0.05189784,14.12084,NaN,NaN,0.1945964,0.8129917,-6.206804E-07,1.06207,1.397026E-08,1.344544
1054.097,-0.6184646,0.0009061744,NaN,-0.6179767,0.002029618,NaN,0.1830317,-14.90268,NaN,-0.6657335,-1.466085,-0.05189784,14.12084,NaN,NaN,0.1945964,0.8129917,-6.206804E-07,1.06207,1.397026E-08,1.344544
1054.111,-0.6211687,0.0009073545,NaN,-0.6204354,0.002029995,NaN,0.1854432,-14.90391,NaN,-0.6678333,-1.479651,-0.0585796,14.13532,NaN,NaN,0.1968753,0.8119887,-5.76573E-07,1.081831,1.277817E-08,1.354786
1054.127,-0.6239008,0.0009076362,NaN,-0.6229177,0.002029867,NaN,0.18768,-14.90315,NaN,-0.6699187,-1.482935,-0.06512031,14.13871,NaN,NaN,0.1991095,0.8127549,-5.330616E-07,1.086601,1.337422E-08,1.350651
1054.142,-0.6268638,0.0009080983,NaN,-0.6256026,0.002030469,NaN,0.1902443,-14.90217,NaN,-0.6722433,-1.47595,-0.07214107,14.13123,NaN,NaN,0.2015813,0.813735,-4.949146E-07,1.076438,1.158608E-08,1.344077
1054.157,-0.6268638,0.0009080983,NaN,-0.6256026,0.002030469,NaN,0.1902443,-14.90217,NaN,-0.6722433,-1.47595,-0.07214107,14.13123,NaN,NaN,0.2015813,0.813735,-4.949146E-07,1.076438,1.158608E-08,1.344077
1054.171,-0.6299512,0.0009080974,NaN,-0.628396,0.002031254,NaN,0.1927783,-14.90233,NaN,-0.6745603,-1.467553,-0.07926317,14.12236,NaN,NaN,0.2040048,0.8135355,-4.537874E-07,1.064211,1.277817E-08,1.342288
1054.188,-0.6330988,0.0009087877,NaN,-0.6312411,0.00203222,NaN,0.1951501,-14.90292,NaN,-0.6768663,-1.465683,-0.08629842,14.12045,NaN,NaN,0.2063809,0.8129246,-4.10276E-07,1.061501,1.69505E-08,1.344725
1054.202,-0.6362681,0.000909314,NaN,-0.6341039,0.002033985,NaN,0.1973451,-14.90364,NaN,-0.6791545,-1.468112,-0.09318596,14.1231,NaN,NaN,0.2087103,0.8122413,-3.661686E-07,1.06505,1.635445E-08,1.350409
1054.217,-0.6362681,0.000909314,NaN,-0.6341039,0.002033985,NaN,0.1973451,-14.90364,NaN,-0.6791545,-1.468112,-0.09318596,14.1231,NaN,NaN,0.2087103,0.8122413,-3.661686E-07,1.06505,1.635445E-08,1.350409
1054.231,-0.6396638,0.0009105982,NaN,-0.6371641,0.002036573,NaN,0.1998541,-14.90414,NaN,-0.6816796,-1.471439,-0.1005398,14.12666,NaN,NaN,0.2112756,0.8117938,-3.268295E-07,1.069896,1.516236E-08,1.354873
1054.247,-0.6431782,0.0009111993,NaN,-0.640327,0.002037093,NaN,0.2023301,-14.90281,NaN,-0.6841942,-1.465834,-0.1079894,14.1206,NaN,NaN,0.2137907,0.8130546,-2.791458E-07,1.061732,1.57584E-08,1.341534
1054.262,-0.6467473,0.0009112547,NaN,-0.6435363,0.002035392,NaN,0.2046412,-14.90312,NaN,-0.6866948,-1.480129,-0.1153458,14.13574,NaN,NaN,0.2162565,0.8129808,-2.344423E-07,1.082536,1.69505E-08,1.343654
1054.277,-0.6467473,0.0009112547,NaN,-0.6435363,0.002035392,NaN,0.2046412,-14.90312,NaN,-0.6866948,-1.480129,-0.1153458,14.13574,NaN,NaN,0.2162565,0.8129808,-2.344423E-07,1.082536,1.69505E-08,1.343654
1054.292,-0.650561,0.0009104508,NaN,-0.6469581,0.002032615,NaN,0.2072354,-14.90335,NaN,-0.6894364,-1.469138,-0.1231678,14.12415,NaN,NaN,0.2189555,0.8127309,-1.945072E-07,1.066546,1.57584E-08,1.345724
1054.307,-0.6545018,0.0009092384,NaN,-0.6504893,0.002031273,NaN,0.2097697,-14.90344,NaN,-0.6921695,-1.469401,-0.1310746,14.12444,NaN,NaN,0.2216016,0.8126431,-1.498037E-07,1.066934,1.57584E-08,1.3461
1054.322,-0.6584998,0.0009079475,NaN,-0.6540686,0.002028708,NaN,0.2121169,-14.90313,NaN,-0.6948892,-1.467346,-0.1388726,14.12224,NaN,NaN,0.224196,0.8129224,-1.01524E-07,1.063945,1.516236E-08,1.343955
1054.337,-0.6584998,0.0009079475,NaN,-0.6540686,0.002028708,NaN,0.2121169,-14.90313,NaN,-0.6948892,-1.467346,-0.1388726,14.12224,NaN,NaN,0.224196,0.8129224,-1.01524E-07,1.063945,1.516236E-08,1.343955
1054.353,-0.6625135,0.0009060976,NaN,-0.6576596,0.002024404,NaN,0.2142686,-14.90235,NaN,-0.6975877,-1.479631,-0.1465009,14.13513,NaN,NaN,0.2267395,0.813879,-5.741653E-08,1.081804,1.635445E-08,1.34342
1054.368,-0.6667482,0.0009036231,NaN,-0.6614409,0.002020956,NaN,0.2166996,-14.90407,NaN,-0.7005202,-1.471766,-0.1545624,14.12698,NaN,NaN,0.2295145,0.8121269,-1.748142E-08,1.070362,1.754654E-08,1.349709
1054.382,-0.6710933,0.0009015018,NaN,-0.6653161,0.002018285,NaN,0.2190869,-14.90471,NaN,-0.7034379,-1.474576,-0.1627039,14.13002,NaN,NaN,0.2322353,0.8115063,2.722206E-08,1.074459,1.873864E-08,1.35334
1054.397,-0.6710933,0.0009015018,NaN,-0.6653161,0.002018285,NaN,0.2190869,-14.90471,NaN,-0.7034379,-1.474576,-0.1627039,14.13002,NaN,NaN,0.2322353,0.8115063,2.722206E-08,1.074459,1.873864E-08,1.35334
1054.411,-0.6754834,0.0008995167,NaN,-0.6692283,0.002016302,NaN,0.221301,-14.90386,NaN,-0.7063365,-1.468249,-0.170736,14.12327,NaN,NaN,0.2349028,0.812299,7.13295E-08,1.06526,1.754654E-08,1.346768
1054.427,-0.6798801,0.0008986972,NaN,-0.6731439,0.002013871,NaN,0.2233295,-14.90474,NaN,-0.7092094,-1.478926,-0.1785975,14.13464,NaN,NaN,0.237518,0.8115628,1.136488E-07,1.080802,1.57584E-08,1.354093
1054.443,-0.6844923,0.0008987819,NaN,-0.6772435,0.002014574,NaN,0.2256311,-14.90311,NaN,-0.7123131,-1.46854,-0.186883,14.12354,NaN,NaN,0.2403634,0.8131531,1.506037E-07,1.065709,1.605643E-08,1.342654
1054.458,-0.6844923,0.0008987819,NaN,-0.6772435,0.002014574,NaN,0.2256311,-14.90311,NaN,-0.7123131,-1.46854,-0.186883,14.12354,NaN,NaN,0.2403634,0.8131531,1.506037E-07,1.065709,1.605643E-08,1.342654
1054.472,-0.6892089,0.0008985749,NaN,-0.681431,0.002014615,NaN,0.2278926,-14.90321,NaN,-0.7153991,-1.467457,-0.1952471,14.12241,NaN,NaN,0.2431531,0.8130345,1.953072E-07,1.064138,1.814259E-08,1.342896
1054.488,-0.693965,0.0008985751,NaN,-0.6856501,0.002013575,NaN,0.2299831,-14.90394,NaN,-0.7184633,-1.470679,-0.2034987,14.1259,NaN,NaN,0.2458882,0.8123572,2.417988E-07,1.068843,1.754654E-08,1.346424
1054.503,-0.6987225,0.0008993761,NaN,-0.689868,0.002012939,NaN,0.2318897,-14.90448,NaN,-0.7214993,-1.478947,-0.2115759,14.13469,NaN,NaN,0.2485697,0.8119146,2.876943E-07,1.080877,1.277817E-08,1.352713
1054.518,-0.6987225,0.0008993761,NaN,-0.689868,0.002012939,NaN,0.2318897,-14.90448,NaN,-0.7214993,-1.478947,-0.2115759,14.13469,NaN,NaN,0.2485697,0.8119146,2.876943E-07,1.080877,1.277817E-08,1.352713
1054.532,-0.7036924,0.0008989127,NaN,-0.6942657,0.002012416,NaN,0.2340576,-14.90317,NaN,-0.7247643,-1.468378,-0.2200647,14.12342,NaN,NaN,0.25148,0.8131841,3.264374E-07,1.065512,1.248015E-08,1.342745
1054.548,-0.7087623,0.0008989436,NaN,-0.6987468,0.002012737,NaN,0.2361865,-14.90467,NaN,-0.7280099,-1.473738,-0.228629,14.12925,NaN,NaN,0.2543334,0.8117645,3.73227E-07,1.073338,9.499917E-09,1.351938
1054.563,-0.7138671,0.0009006553,NaN,-0.7032551,0.002014477,NaN,0.2381453,-14.90343,NaN,-0.7312316,-1.483121,-0.237077,14.139,NaN,NaN,0.257131,0.8130721,4.185266E-07,1.086957,5.923638E-09,1.346724
1054.578,-0.7138671,0.0009006553,NaN,-0.7032551,0.002014477,NaN,0.2381453,-14.90343,NaN,-0.7312316,-1.483121,-0.237077,14.139,NaN,NaN,0.257131,0.8130721,4.185266E-07,1.086957,5.923638E-09,1.346724
1054.592,-0.7192029,0.0009013838,NaN,-0.7079581,0.002016989,NaN,0.2403361,-14.90274,NaN,-0.7346864,-1.468234,-0.2459379,14.1232,NaN,NaN,0.2601549,0.8137879,4.560775E-07,1.065294,7.115731E-09,1.341665
1054.616,-0.724647,0.0009019403,NaN,-0.7127509,0.002018871,NaN,0.2424634,-14.90303,NaN,-0.7381247,-1.469843,-0.2548651,14.12494,NaN,NaN,0.2631199,0.813519,5.040592E-07,1.067644,8.009801E-09,1.343807
1054.623,-0.7301284,0.0009020941,NaN,-0.7175727,0.002019298,NaN,0.2444018,-14.90321,NaN,-0.7415404,-1.466935,-0.2636622,14.12188,NaN,NaN,0.2660268,0.8133112,5.508489E-07,1.063417,8.605848E-09,1.342741
1054.638,-0.7301284,0.0009020941,NaN,-0.7175727,0.002019298,NaN,0.2444018,-14.90321,NaN,-0.7415404,-1.466935,-0.2636622,14.12188,NaN,NaN,0.2660268,0.8133112,5.508489E-07,1.063417,8.605848E-09,1.342741
1054.652,-0.7356062,0.0009028209,NaN,-0.7223884,0.002022988,NaN,0.2461443,-14.90362,NaN,-0.744926,-1.465531,-0.272267,14.12044,NaN,NaN,0.2688767,0.8128781,5.967445E-07,1.061381,8.307825E-09,1.348995
1054.668,-0.7412933,0.0009033102,NaN,-0.7273784,0.002026459,NaN,0.2481185,-14.90357,NaN,-0.7485384,-1.479536,-0.2812535,14.13522,NaN,NaN,0.2719519,0.8131654,6.331033E-07,1.081748,6.817709E-09,1.348791
1054.683,-0.7470734,0.0009029676,NaN,-0.7324442,0.002029702,NaN,0.250049,-14.90415,NaN,-0.7521291,-1.46636,-0.2903033,14.12134,NaN,NaN,0.2749671,0.8125524,6.769127E-07,1.062574,3.837477E-09,1.349348
1054.701,-0.7528797,0.0009036657,NaN,-0.7375292,0.002033981,NaN,0.2518074,-14.90451,NaN,-0.7556928,-1.465389,-0.2992246,14.12035,NaN,NaN,0.2779233,0.8121833,7.225103E-07,1.061167,1.006256E-09,1.35475
1054.714,-0.7528797,0.0009036657,NaN,-0.7375292,0.002033981,NaN,0.2518074,-14.90451,NaN,-0.7556928,-1.465389,-0.2992246,14.12035,NaN,NaN,0.2779233,0.8121833,7.225103E-07,1.061167,1.006256E-09,1.35475
1054.728,-0.7586745,0.0009039602,NaN,-0.7426012,0.002035196,NaN,0.2533828,-14.90473,NaN,-0.7592228,-1.469105,-0.3079551,14.1243,NaN,NaN,0.2808215,0.8120236,7.669157E-07,1.066573,2.347361E-09,1.349884
1054.747,-0.7646747,0.0009036281,NaN,-0.7478422,0.002036999,NaN,0.2551855,-14.90497,NaN,-0.7629766,-1.465503,-0.3170598,14.12052,NaN,NaN,0.2839441,0.8117405,8.035726E-07,1.061341,1.602303E-09,1.350315
1054.758,-0.7646747,0.0009036281,NaN,-0.7478422,0.002036999,NaN,0.2551855,-14.90497,NaN,-0.7629766,-1.465503,-0.3170598,14.12052,NaN,NaN,0.2839441,0.8117405,8.035726E-07,1.061341,1.602303E-09,1.350315
1054.773,-0.7707628,0.0009036395,NaN,-0.753154,0.0020388,NaN,0.2569505,-14.90583,NaN,-0.7667072,-1.468011,-0.3262278,14.12326,NaN,NaN,0.2870058,0.8109266,8.452958E-07,1.065003,-1.005401E-09,1.355808
1054.788,-0.7768723,0.0009040011,NaN,-0.7584807,0.002038136,NaN,0.2585483,-14.90601,NaN,-0.7704088,-1.479628,-0.3352662,14.13551,NaN,NaN,0.2900075,0.8109091,8.920854E-07,1.081871,-3.650357E-09,1.355836
1054.805,-0.7829658,0.0009043748,NaN,-0.7637905,0.002037542,NaN,0.2599672,-14.90487,NaN,-0.7740752,-1.466128,-0.3441118,14.12119,NaN,NaN,0.2929504,0.8120129,9.37683E-07,1.06227,-6.462951E-09,1.348697
1054.819,-0.7829658,0.0009043748,NaN,-0.7637905,0.002037542,NaN,0.2599672,-14.90487,NaN,-0.7740752,-1.466128,-0.3441118,14.12119,NaN,NaN,0.2929504,0.8120129,9.37683E-07,1.06227,-6.462951E-09,1.348697
1054.837,-0.7892628,0.0009046663,NaN,-0.7692661,0.002035799,NaN,0.261604,-14.90481,NaN,-0.7779637,-1.479804,-0.3533211,14.1356,NaN,NaN,0.2961167,0.8122851,9.758299E-07,1.082139,-8.437355E-09,1.349343
1054.85,-0.7956442,0.0009044671,NaN,-0.7748087,0.00203541,NaN,0.263206,-14.90461,NaN,-0.7818286,-1.468488,-0.362592,14.12362,NaN,NaN,0.2992212,0.8124555,1.016063E-06,1.06568,-7.319768E-09,1.349125
1054.864,-0.8020427,0.0009042552,NaN,-0.7803624,0.002032846,NaN,0.2646443,-14.90503,NaN,-0.7856634,-1.480849,-0.3717309,14.13671,NaN,NaN,0.3022649,0.8121908,1.058084E-06,1.083657,-7.915815E-09,1.349032
1054.88,-0.8084211,0.0009040179,NaN,-0.785896,0.002032602,NaN,0.2659074,-14.90545,NaN,-0.7894619,-1.469248,-0.3806743,14.1245,NaN,NaN,0.3052489,0.8117532,1.097125E-06,1.066787,-8.362849E-09,1.353778
1054.895,-0.8084211,0.0009040179,NaN,-0.785896,0.002032602,NaN,0.2659074,-14.90545,NaN,-0.7894619,-1.469248,-0.3806743,14.1245,NaN,NaN,0.3052489,0.8117532,1.097125E-06,1.066787,-8.362849E-09,1.353778
1054.912,-0.8150018,0.0009037927,NaN,-0.7915924,0.002031381,NaN,0.267379,-14.90462,NaN,-0.7934812,-1.466924,-0.3899711,14.12195,NaN,NaN,0.3084555,0.8125262,1.134974E-06,1.063392,-5.084594E-09,1.34803
1054.925,-0.8216631,0.0009038916,NaN,-0.7973522,0.002031811,NaN,0.2688188,-14.90467,NaN,-0.7974767,-1.466694,-0.3993273,14.1217,NaN,NaN,0.3115995,0.8124658,1.177592E-06,1.063055,-7.021745E-09,1.348642
1054.94,-0.8283377,0.0009038812,NaN,-0.8031197,0.002031797,NaN,0.2700986,-14.9061,NaN,-0.8014414,-1.475444,-0.4085493,14.13111,NaN,NaN,0.3146819,0.8111619,1.219911E-06,1.075807,-7.915814E-09,1.358783
1054.955,-0.8283377,0.0009038812,NaN,-0.8031197,0.002031797,NaN,0.2700986,-14.9061,NaN,-0.8014414,-1.475444,-0.4085493,14.13111,NaN,NaN,0.3146819,0.8111619,1.219911E-06,1.075807,-7.915814E-09,1.358783
1054.97,-0.8352331,0.0009037822,NaN,-0.8090642,0.002032445,NaN,0.2715593,-14.90554,NaN,-0.8056314,-1.468158,-0.4181286,14.12337,NaN,NaN,0.317985,0.811672,1.256568E-06,1.065222,-7.766802E-09,1.353449
1054.986,-0.8422166,0.0009033028,NaN,-0.8150779,0.002032789,NaN,0.2729663,-14.90454,NaN,-0.8098017,-1.480014,-0.427759,14.13575,NaN,NaN,0.3212236,0.8128252,1.297397E-06,1.082425,-5.829651E-09,1.351533
1055.001,-0.849215,0.0009027313,NaN,-0.8211008,0.002031924,NaN,0.2741973,-14.90498,NaN,-0.8139433,-1.48282,-0.437243,14.13875,NaN,NaN,0.3243988,0.8123756,1.341504E-06,1.086508,-7.617791E-09,1.350929
1055.016,-0.849215,0.0009027313,NaN,-0.8211008,0.002031924,NaN,0.2741973,-14.90498,NaN,-0.8139433,-1.48282,-0.437243,14.13875,NaN,NaN,0.3243988,0.8123756,1.341504E-06,1.086508,-7.617791E-09,1.350929
1055.03,-0.8561883,0.0009017138,NaN,-0.8270999,0.002031989,NaN,0.2752472,-14.90382,NaN,-0.8180484,-1.476047,-0.4465173,14.13149,NaN,NaN,0.3275118,0.8135237,1.384122E-06,1.076655,-8.809883E-09,1.344074
1055.046,-0.8633627,0.0009012099,NaN,-0.8332576,0.002032129,NaN,0.2764816,-14.90424,NaN,-0.8223726,-1.474129,-0.4561198,14.1295,NaN,NaN,0.3308447,0.8130832,1.416308E-06,1.073864,-8.511861E-09,1.345516
1055.061,-0.8706113,0.0009003791,NaN,-0.8394721,0.002032061,NaN,0.2776837,-14.90438,NaN,-0.8266736,-1.46711,-0.4657711,14.12209,NaN,NaN,0.3341126,0.8128922,1.460118E-06,1.063651,-7.915814E-09,1.341269
1055.076,-0.8706113,0.0009003791,NaN,-0.8394721,0.002032061,NaN,0.2776837,-14.90438,NaN,-0.8266736,-1.46711,-0.4657711,14.12209,NaN,NaN,0.3341126,0.8128922,1.460118E-06,1.063651,-7.915814E-09,1.341269
1055.093,-0.877865,0.000900103,NaN,-0.8456876,0.002031858,NaN,0.2787285,-14.90547,NaN,-0.8309423,-1.478847,-0.4752793,14.13462,NaN,NaN,0.3373164,0.8119796,1.503033E-06,1.080745,-6.127674E-09,1.351497
1055.106,-0.8850867,0.0008997685,NaN,-0.8518738,0.002031914,NaN,0.2796064,-14.90519,NaN,-0.8351715,-1.469934,-0.4845811,14.12519,NaN,NaN,0.3404574,0.8122247,1.543564E-06,1.067791,-5.233605E-09,1.346178
1055.121,-0.8925071,0.0008996212,NaN,-0.8582144,0.002031442,NaN,0.2806663,-14.90518,NaN,-0.8396172,-1.481305,-0.494206,14.13718,NaN,NaN,0.3438179,0.8123775,1.574409E-06,1.084316,-2.253373E-09,1.34928
1055.136,-0.8925071,0.0008996212,NaN,-0.8582144,0.002031442,NaN,0.2806663,-14.90518,NaN,-0.8396172,-1.481305,-0.494206,14.13718,NaN,NaN,0.3438179,0.8123775,1.574409E-06,1.084316,-2.253373E-09,1.34928
1055.15,-0.8999975,0.0008991036,NaN,-0.864608,0.002033463,NaN,0.2817006,-14.90399,NaN,-0.8440394,-1.469438,-0.5038804,14.12454,NaN,NaN,0.3471127,0.8135596,1.61807E-06,1.067056,-3.743489E-09,1.340763
1055.166,-0.9074886,0.0008985105,NaN,-0.8709992,0.00203505,NaN,0.2825836,-14.90379,NaN,-0.8484285,-1.479898,-0.5134117,14.13557,NaN,NaN,0.3503431,0.8138961,1.658154E-06,1.082276,-4.935582E-09,1.342514
1055.181,-0.9149437,0.0008977035,NaN,-0.8773579,0.002036238,NaN,0.2833055,-14.90388,NaN,-0.8527772,-1.469235,-0.5227361,14.12429,NaN,NaN,0.3535101,0.8137811,1.69943E-06,1.066744,-4.339535E-09,1.339323
1055.196,-0.9149437,0.0008977035,NaN,-0.8773579,0.002036238,NaN,0.2833055,-14.90388,NaN,-0.8527772,-1.469235,-0.5227361,14.12429,NaN,NaN,0.3535101,0.8137811,1.69943E-06,1.066744,-4.339535E-09,1.339323
1055.211,-0.9225969,0.0008977456,NaN,-0.8838689,0.002038298,NaN,0.284202,-14.90462,NaN,-0.857341,-1.467201,-0.5323758,14.12221,NaN,NaN,0.3568959,0.813011,1.731021E-06,1.063791,-5.531628E-09,1.343604
1055.226,-0.9303167,0.0008975056,NaN,-0.8904297,0.002038669,NaN,0.2850766,-14.90448,NaN,-0.8618822,-1.479777,-0.5420634,14.13547,NaN,NaN,0.3602157,0.813342,1.768125E-06,1.082081,-4.339536E-09,1.345368
1055.241,-0.9380332,0.0008971497,NaN,-0.8969851,0.002039754,NaN,0.2858045,-14.90435,NaN,-0.86639,-1.468182,-0.5516067,14.12319,NaN,NaN,0.3634704,0.813436,1.810444E-06,1.065199,-4.339536E-09,1.341406
1055.256,-0.9380332,0.0008971497,NaN,-0.8969851,0.002039754,NaN,0.2858045,-14.90435,NaN,-0.86639,-1.468182,-0.5516067,14.12319,NaN,NaN,0.3634704,0.813436,1.810444E-06,1.065199,-4.339536E-09,1.341406
1055.271,-0.9459659,0.000896736,NaN,-0.9037062,0.002040666,NaN,0.2866811,-14.90525,NaN,-0.8711178,-1.471313,-0.5614706,14.1266,NaN,NaN,0.3669423,0.8125761,1.837713E-06,1.06977,-4.339536E-09,1.346262
1055.287,-0.9539712,0.0008975182,NaN,-0.9104822,0.002043407,NaN,0.2875149,-14.9055,NaN,-0.8758281,-1.471944,-0.5713746,14.12728,NaN,NaN,0.3703465,0.8123296,1.876531E-06,1.070687,-5.531628E-09,1.350384
1055.301,-0.9619741,0.0008975077,NaN,-0.9172539,0.002045512,NaN,0.288188,-14.90489,NaN,-0.8805075,-1.467869,-0.5811226,14.12291,NaN,NaN,0.373684,0.8128888,1.916913E-06,1.06475,-4.935582E-09,1.343811
1055.317,-0.9619741,0.0008975077,NaN,-0.9172539,0.002045512,NaN,0.288188,-14.90489,NaN,-0.8805075,-1.467869,-0.5811226,14.12291,NaN,NaN,0.373684,0.8128888,1.916913E-06,1.06475,-4.935582E-09,1.343811
1055.33,-0.9699356,0.0008977678,NaN,-0.9239902,0.002045372,NaN,0.288697,-14.90587,NaN,-0.8851467,-1.479108,-0.5906523,14.13489,NaN,NaN,0.376956,0.8120745,1.954166E-06,1.081117,-3.743489E-09,1.349426
1055.346,-0.9780951,0.0008977838,NaN,-0.9308755,0.002045439,NaN,0.2893605,-14.90499,NaN,-0.8899998,-1.482454,-0.600476,14.13833,NaN,NaN,0.3804449,0.8129491,1.980764E-06,1.085974,-5.531628E-09,1.34845
1055.361,-0.9863145,0.000897517,NaN,-0.9378048,0.002047183,NaN,0.2900024,-14.9043,NaN,-0.8948324,-1.474134,-0.6103377,14.12947,NaN,NaN,0.3838656,0.8136374,2.017421E-06,1.073864,-7.63257E-10,1.342071
1055.376,-0.9863145,0.000897517,NaN,-0.9378048,0.002047183,NaN,0.2900024,-14.9043,NaN,-0.8948324,-1.474134,-0.6103377,14.12947,NaN,NaN,0.3838656,0.8136374,2.017421E-06,1.073864,-7.63257E-10,1.342071
1055.391,-0.9945227,0.0008983661,NaN,-0.9447229,0.002049815,NaN,0.2905023,-14.90516,NaN,-0.8996308,-1.482667,-0.6200476,14.13857,NaN,NaN,0.3872193,0.8128368,2.054451E-06,1.08629,-1.359303E-09,1.348744
1055.406,-1.002683,0.0008980248,NaN,-0.9516011,0.002050151,NaN,0.2908524,-14.90475,NaN,-0.9043866,-1.468456,-0.6295433,14.12352,NaN,NaN,0.3905072,0.8132625,2.090958E-06,1.065614,-3.743489E-09,1.345229
1055.421,-1.011041,0.0008977493,NaN,-0.9586253,0.002050613,NaN,0.2913552,-14.9051,NaN,-0.9093536,-1.46772,-0.6393301,14.12277,NaN,NaN,0.3940116,0.8129123,2.117371E-06,1.064548,-5.531628E-09,1.345584
1055.436,-1.011041,0.0008977493,NaN,-0.9586253,0.002050613,NaN,0.2913552,-14.9051,NaN,-0.9093536,-1.46772,-0.6393301,14.12277,NaN,NaN,0.3940116,0.8129123,2.117371E-06,1.064548,-5.531628E-09,1.345584
1055.45,-1.019454,0.0008973387,NaN,-0.9656901,0.002050926,NaN,0.2918424,-14.90547,NaN,-0.9143007,-1.468631,-0.6491555,14.12378,NaN,NaN,0.3974476,0.8125598,2.15291E-06,1.06588,-7.63257E-10,1.348745
1055.466,-1.027852,0.0008969064,NaN,-0.972741,0.002051362,NaN,0.2921938,-14.90562,NaN,-0.9192132,-1.469608,-0.6588295,14.12482,NaN,NaN,0.4008163,0.8124257,2.189455E-06,1.067303,-7.63257E-10,1.350092
1055.482,-1.036199,0.0008968479,NaN,-0.9797497,0.002051621,NaN,0.2924013,-14.90457,NaN,-0.924082,-1.480433,-0.6682897,14.13612,NaN,NaN,0.404119,0.8136015,2.224911E-06,1.083021,4.288359E-10,1.347526
1055.496,-1.036199,0.0008968479,NaN,-0.9797497,0.002051621,NaN,0.2924013,-14.90457,NaN,-0.924082,-1.480433,-0.6682897,14.13612,NaN,NaN,0.404119,0.8136015,2.224911E-06,1.083021,4.288359E-10,1.347526
1055.51,-1.044742,0.0008968642,NaN,-0.9869028,0.002052488,NaN,0.2927555,-14.90476,NaN,-0.929161,-1.46927,-0.6780354,14.12433,NaN,NaN,0.4076377,0.8133916,2.251749E-06,1.066769,1.620929E-09,1.345701
1055.526,-1.053339,0.0008968081,NaN,-0.9940941,0.002052939,NaN,0.2930972,-14.90545,NaN,-0.9342216,-1.468196,-0.687818,14.12327,NaN,NaN,0.4110879,0.8126825,2.284727E-06,1.065218,-3.147443E-09,1.348346
1055.54,-1.061916,0.0008974197,NaN,-1.001269,0.002054142,NaN,0.2933079,-14.90567,NaN,-0.9392475,-1.480627,-0.6974486,14.13641,NaN,NaN,0.4144704,0.8126377,2.31845E-06,1.0833,-7.915814E-09,1.353181
1055.556,-1.061916,0.0008974197,NaN,-1.001269,0.002054142,NaN,0.2933079,-14.90567,NaN,-0.9392475,-1.480627,-0.6974486,14.13641,NaN,NaN,0.4144704,0.8126377,2.31845E-06,1.0833,-7.915814E-09,1.353181
1055.57,-1.070707,0.0008978927,NaN,-1.008601,0.002055252,NaN,0.29364,-14.90537,NaN,-0.9444891,-1.468589,-0.707371,14.12367,NaN,NaN,0.4180676,0.812916,2.34747E-06,1.06579,-1.03E-08,1.348603
1055.586,-1.079555,0.0008979284,NaN,-1.015975,0.002054506,NaN,0.2939399,-14.90555,NaN,-0.9497178,-1.480826,-0.7173223,14.13661,NaN,NaN,0.4215946,0.8128929,2.379843E-06,1.083594,-1.506837E-08,1.349106
1055.6,-1.088384,0.0008980922,NaN,-1.023334,0.00205537,NaN,0.2940961,-14.90527,NaN,-0.9549145,-1.469243,-0.7271109,14.12434,NaN,NaN,0.4250524,0.813152,2.413817E-06,1.066738,-1.864465E-08,1.348525
1055.616,-1.088384,0.0008980922,NaN,-1.023334,0.00205537,NaN,0.2940961,-14.90527,NaN,-0.9549145,-1.469243,-0.7271109,14.12434,NaN,NaN,0.4250524,0.813152,2.413817E-06,1.066738,-1.864465E-08,1.348525
1055.63,-1.097155,0.000898805,NaN,-1.030648,0.002057227,NaN,0.2941078,-14.90576,NaN,-0.9600676,-1.467214,-0.7366768,14.12224,NaN,NaN,0.4284425,0.8126363,2.447121E-06,1.063792,-2.102883E-08,1.351125
1055.645,-1.106125,0.0008993893,NaN,-1.038105,0.002057498,NaN,0.2942485,-14.90639,NaN,-0.9654294,-1.470289,-0.7465111,14.12556,NaN,NaN,0.432047,0.8120499,2.47074E-06,1.068275,-1.983674E-08,1.352302
1055.66,-1.11514,0.0008999282,NaN,-1.045594,0.002055028,NaN,0.2943771,-14.90544,NaN,-0.9707758,-1.48136,-0.7563726,14.13713,NaN,NaN,0.4355811,0.8131133,2.502554E-06,1.084352,-1.983674E-08,1.349369
1055.675,-1.11514,0.0008999282,NaN,-1.045594,0.002055028,NaN,0.2943771,-14.90544,NaN,-0.9707758,-1.48136,-0.7563726,14.13713,NaN,NaN,0.4355811,0.8131133,2.502554E-06,1.084352,-1.983674E-08,1.349369
1055.691,-1.124128,0.0009001986,NaN,-1.053063,0.002053341,NaN,0.2943798,-14.90587,NaN,-0.976087,-1.467692,-0.7660761,14.12272,NaN,NaN,0.4390461,0.8126576,2.535336E-06,1.064464,-2.102883E-08,1.345065
1055.705,-1.133053,0.0009007722,NaN,-1.060483,0.002050919,NaN,0.2942514,-14.90576,NaN,-0.9813518,-1.481407,-0.775562,14.13718,NaN,NaN,0.442443,0.812952,2.565735E-06,1.084401,-2.222093E-08,1.344514
1055.719,-1.133053,0.0009007722,NaN,-1.060483,0.002050919,NaN,0.2942514,-14.90576,NaN,-0.9813518,-1.481407,-0.775562,14.13718,NaN,NaN,0.442443,0.812952,2.565735E-06,1.084401,-2.222093E-08,1.344514
1055.734,-1.142176,0.000901243,NaN,-1.068044,0.002049875,NaN,0.2942506,-14.90743,NaN,-0.9868229,-1.473749,-0.7853152,14.12922,NaN,NaN,0.4460544,0.8112772,2.588682E-06,1.073253,-1.864465E-08,1.355093
1055.749,-1.151341,0.0009012179,NaN,-1.075635,0.002048933,NaN,0.2942423,-14.90584,NaN,-0.9922797,-1.467134,-0.7950956,14.12208,NaN,NaN,0.4495952,0.812795,2.6199E-06,1.063622,-1.864465E-08,1.344664
1055.764,-1.160475,0.0009008155,NaN,-1.083204,0.002045979,NaN,0.2941141,-14.90666,NaN,-0.9977006,-1.48021,-0.804719,14.13598,NaN,NaN,0.4530667,0.8121696,2.650448E-06,1.082654,-2.102883E-08,1.347401
1055.78,-1.169544,0.0009008565,NaN,-1.090722,0.002045652,NaN,0.2938609,-14.90697,NaN,-1.003074,-1.481628,-0.8141264,14.13749,NaN,NaN,0.4564701,0.8118567,2.678164E-06,1.084711,-1.745255E-08,1.354196
1055.794,-1.169544,0.0009008565,NaN,-1.090722,0.002045652,NaN,0.2938609,-14.90697,NaN,-1.003074,-1.481628,-0.8141264,14.13749,NaN,NaN,0.4564701,0.8118567,2.678164E-06,1.084711,-1.745255E-08,1.354196
1055.808,-1.178811,0.0009007916,NaN,-1.09838,0.002045927,NaN,0.2937296,-14.90533,NaN,-1.008653,-1.469314,-0.8237972,14.12435,NaN,NaN,0.4600877,0.8134778,2.697535E-06,1.066809,-1.983674E-08,1.342707
1055.824,-1.188117,0.0009016083,NaN,-1.106067,0.00204411,NaN,0.2935932,-14.90666,NaN,-1.014219,-1.478365,-0.8334935,14.13406,NaN,NaN,0.4636347,0.812264,2.725997E-06,1.080002,-2.341302E-08,1.349519
1055.839,-1.188117,0.0009016083,NaN,-1.106067,0.00204411,NaN,0.2935932,-14.90666,NaN,-1.014219,-1.478365,-0.8334935,14.13406,NaN,NaN,0.4636347,0.812264,2.725997E-06,1.080002,-2.341302E-08,1.349519
1055.853,-1.197387,0.0009027605,NaN,-1.113728,0.00204206,NaN,0.2933416,-14.90736,NaN,-1.019749,-1.481003,-0.8430331,14.13691,NaN,NaN,0.4671122,0.8115754,2.756544E-06,1.083838,-2.222093E-08,1.352223
1055.869,-1.206872,0.0009048289,NaN,-1.12154,0.002042397,NaN,0.2931876,-14.90698,NaN,-1.02549,-1.484417,-0.852843,14.14046,NaN,NaN,0.4708026,0.8119472,2.776512E-06,1.088795,-1.864465E-08,1.348797
1055.884,-1.216398,0.0009059361,NaN,-1.129385,0.002044582,NaN,0.2930098,-14.90568,NaN,-1.031224,-1.477008,-0.8626704,14.13253,NaN,NaN,0.4744209,0.8132704,2.803483E-06,1.078027,-2.222093E-08,1.344074
1055.898,-1.216398,0.0009059361,NaN,-1.129385,0.002044582,NaN,0.2930098,-14.90568,NaN,-1.031224,-1.477008,-0.8626704,14.13253,NaN,NaN,0.4744209,0.8132704,2.803483E-06,1.078027,-2.222093E-08,1.344074
1055.915,-1.225888,0.0009063957,NaN,-1.137205,0.002045792,NaN,0.2927063,-14.90545,NaN,-1.036924,-1.468004,-0.8723317,14.12298,NaN,NaN,0.4779683,0.8134645,2.831497E-06,1.064922,-2.460511E-08,1.335246
1055.928,-1.235307,0.0009071936,NaN,-1.144975,0.00204697,NaN,0.2922786,-14.90714,NaN,-1.042576,-1.478626,-0.8817711,14.13441,NaN,NaN,0.4814461,0.8119365,2.857872E-06,1.080415,-2.69893E-08,1.347956
1055.943,-1.244925,0.0009078695,NaN,-1.152882,0.002047602,NaN,0.291957,-14.90632,NaN,-1.048432,-1.467743,-0.8914609,14.12285,NaN,NaN,0.4851369,0.8127272,2.877392E-06,1.064597,-2.69893E-08,1.339748
1055.958,-1.244925,0.0009078695,NaN,-1.152882,0.002047602,NaN,0.291957,-14.90632,NaN,-1.048432,-1.467743,-0.8914609,14.12285,NaN,NaN,0.4851369,0.8127272,2.877392E-06,1.064597,-2.69893E-08,1.339748
1055.972,-1.254576,0.0009089723,NaN,-1.160815,0.002048066,NaN,0.2916301,-14.9072,NaN,-1.054278,-1.469157,-0.9011671,14.12444,NaN,NaN,0.4887555,0.8118839,2.906003E-06,1.066669,-2.57972E-08,1.344699
1055.987,-1.264183,0.0009087495,NaN,-1.168718,0.002046743,NaN,0.2911938,-14.90699,NaN,-1.060086,-1.480792,-0.9107126,14.13669,NaN,NaN,0.4923032,0.8122411,2.93506E-06,1.083572,-1.983674E-08,1.34548
1056.002,-1.273715,0.0009087577,NaN,-1.176569,0.002045378,NaN,0.2906459,-14.90709,NaN,-1.065843,-1.483353,-0.9200422,14.13939,NaN,NaN,0.4957813,0.8121479,2.960541E-06,1.087295,-1.983674E-08,1.345071
1056.017,-1.273715,0.0009087577,NaN,-1.176569,0.002045378,NaN,0.2906459,-14.90709,NaN,-1.065843,-1.483353,-0.9200422,14.13939,NaN,NaN,0.4957813,0.8121479,2.960541E-06,1.087295,-1.983674E-08,1.345071
1056.031,-1.273052,0.0009090477,NaN,-1.176915,0.002046344,NaN,0.2833166,-14.90628,NaN,-1.061706,-1.477629,-0.9117192,14.13328,NaN,NaN,0.488791,0.8129689,3.328749E-06,1.07897,-1.983674E-08,1.338344
1056.047,-1.266803,0.0009085919,NaN,-1.173186,0.002048372,NaN,0.2720267,-14.90579,NaN,-1.055677,-1.475254,-0.8937348,14.13071,NaN,NaN,0.4819296,0.813451,3.312954E-06,1.075507,-2.460511E-08,1.336176
1056.062,-1.257647,0.0009087221,NaN,-1.167128,0.002051424,NaN,0.2613707,-14.90638,NaN,-1.048708,-1.467668,-0.8728977,14.12274,NaN,NaN,0.4751993,0.8128174,3.184506E-06,1.064466,-1.983674E-08,1.339266
1056.077,-1.257647,0.0009087221,NaN,-1.167128,0.002051424,NaN,0.2613707,-14.90638,NaN,-1.048708,-1.467668,-0.8728977,14.12274,NaN,NaN,0.4751993,0.8128174,3.184506E-06,1.064466,-1.983674E-08,1.339266
1056.091,-1.247529,0.0009088248,NaN,-1.160058,0.002053738,NaN,0.2530629,-14.90672,NaN,-1.041201,-1.466448,-0.8524296,14.12148,NaN,NaN,0.4684198,0.8124616,3.039219E-06,1.062695,-2.460511E-08,1.339172
1056.107,-1.237085,0.0009101629,NaN,-1.152504,0.002056725,NaN,0.2464093,-14.90785,NaN,-1.03343,-1.478288,-0.8328769,14.1341,NaN,NaN,0.4617732,0.8115241,2.921947E-06,1.079931,-1.983674E-08,1.349224
1056.123,-1.22659,0.0009113205,NaN,-1.144732,0.002057431,NaN,0.240783,-14.90666,NaN,-1.025525,-1.466608,-0.8141876,14.12168,NaN,NaN,0.4552569,0.8126773,2.82889E-06,1.062958,-1.745255E-08,1.336719
1056.136,-1.22659,0.0009113205,NaN,-1.144732,0.002057431,NaN,0.240783,-14.90666,NaN,-1.025525,-1.466608,-0.8141876,14.12168,NaN,NaN,0.4552569,0.8126773,2.82889E-06,1.062958,-1.745255E-08,1.336719
1056.151,-1.216154,0.0009121968,NaN,-1.136876,0.002056985,NaN,0.2357382,-14.90745,NaN,-1.017594,-1.4675,-0.7961717,14.1227,NaN,NaN,0.4488685,0.8119019,2.748498E-06,1.064268,-1.506837E-08,1.340201
1056.166,-1.206116,0.0009124607,NaN,-1.129174,0.002056644,NaN,0.2315958,-14.90637,NaN,-1.00974,-1.479647,-0.7791122,14.13537,NaN,NaN,0.4424253,0.8131582,2.674942E-06,1.081892,-1.268418E-08,1.33905
1056.181,-1.196318,0.0009129317,NaN,-1.121569,0.002057085,NaN,0.2277443,-14.9079,NaN,-1.002076,-1.481608,-0.7626138,14.13758,NaN,NaN,0.4361086,0.8116245,2.611072E-06,1.084746,-1.268418E-08,1.348293
1056.196,-1.196318,0.0009129317,NaN,-1.121569,0.002057085,NaN,0.2277443,-14.9079,NaN,-1.002076,-1.481608,-0.7626138,14.13758,NaN,NaN,0.4361086,0.8116245,2.611072E-06,1.084746,-1.268418E-08,1.348293
1056.21,-1.18669,0.0009129826,NaN,-1.114033,0.002056649,NaN,0.2239945,-14.90631,NaN,-0.9945789,-1.469467,-0.7464948,14.12463,NaN,NaN,0.4299158,0.8132104,2.55102E-06,1.067101,-7.915813E-09,1.337927
1056.225,-1.177196,0.0009126331,NaN,-1.10656,0.00205543,NaN,0.2202859,-14.90611,NaN,-0.9872365,-1.468396,-0.7306715,14.12347,NaN,NaN,0.4238445,0.813394,2.490559E-06,1.065538,-7.632557E-10,1.335229
1056.24,-1.168114,0.000912623,NaN,-1.099316,0.002054099,NaN,0.2171945,-14.90654,NaN,-0.9800573,-1.466043,-0.7155682,14.12103,NaN,NaN,0.417712,0.8129275,2.425962E-06,1.062122,-7.632557E-10,1.336023
1056.257,-1.168114,0.000912623,NaN,-1.099316,0.002054099,NaN,0.2171945,-14.90654,NaN,-0.9800573,-1.466043,-0.7155682,14.12103,NaN,NaN,0.417712,0.8129275,2.425962E-06,1.062122,-7.632557E-10,1.336023
1056.269,-1.159275,0.0009132777,NaN,-1.092211,0.002053016,NaN,0.2142575,-14.90733,NaN,-0.9731155,-1.467358,-0.7008802,14.12251,NaN,NaN,0.4116999,0.8121683,2.366134E-06,1.064054,-3.147441E-09,1.340299
1056.285,-1.150599,0.0009137212,NaN,-1.085201,0.0020531,NaN,0.2113564,-14.90697,NaN,-0.9663594,-1.479871,-0.6864831,14.13567,NaN,NaN,0.4058057,0.8127027,2.307349E-06,1.082234,-7.632557E-10,1.34253
1056.3,-1.150599,0.0009137212,NaN,-1.085201,0.0020531,NaN,0.2113564,-14.90697,NaN,-0.9663594,-1.479871,-0.6864831,14.13567,NaN,NaN,0.4058057,0.8127027,2.307349E-06,1.082234,-7.632557E-10,1.34253
1056.314,-1.142341,0.0009139539,NaN,-1.078439,0.002052797,NaN,0.2090538,-14.9079,NaN,-0.959768,-1.481712,-0.6727924,14.1377,NaN,NaN,0.399847,0.8117753,2.24387E-06,1.084913,-7.632557E-10,1.348432
1056.329,-1.134328,0.0009140543,NaN,-1.071826,0.002054197,NaN,0.2068907,-14.907,NaN,-0.9534141,-1.477259,-0.6594956,14.13291,NaN,NaN,0.3940053,0.8126627,2.186649E-06,1.078435,-7.632557E-10,1.336276
1056.345,-1.126476,0.0009130411,NaN,-1.065315,0.002054319,NaN,0.2047489,-14.90671,NaN,-0.9472412,-1.480929,-0.6464661,14.13675,NaN,NaN,0.3882781,0.8129577,2.130323E-06,1.083767,1.62093E-09,1.333943
1056.36,-1.118747,0.0009123018,NaN,-1.058882,0.002054733,NaN,0.202604,-14.90637,NaN,-0.9412181,-1.476169,-0.6336544,14.13167,NaN,NaN,0.3826632,0.8132808,2.07355E-06,1.076832,4.288372E-10,1.331523
1056.374,-1.118747,0.0009123018,NaN,-1.058882,0.002054733,NaN,0.202604,-14.90637,NaN,-0.9412181,-1.476169,-0.6336544,14.13167,NaN,NaN,0.3826632,0.8132808,2.07355E-06,1.076832,4.288372E-10,1.331523
1056.388,-1.11141,0.0009113597,NaN,-1.052689,0.002056324,NaN,0.2010509,-14.90654,NaN,-0.9353236,-1.466529,-0.6215193,14.12148,NaN,NaN,0.3769782,0.8130434,2.012604E-06,1.062796,4.288372E-10,1.329694
1056.403,-1.104305,0.0009110627,NaN,-1.046643,0.002056524,NaN,0.1996421,-14.9066,NaN,-0.9296457,-1.465482,-0.6097567,14.12038,NaN,NaN,0.3714049,0.8129674,1.957917E-06,1.06127,4.005116E-09,1.326207
1056.418,-1.104305,0.0009110627,NaN,-1.046643,0.002056524,NaN,0.1996421,-14.9066,NaN,-0.9296457,-1.465482,-0.6097567,14.12038,NaN,NaN,0.3714049,0.8129674,1.957917E-06,1.06127,4.005116E-09,1.326207
1056.433,-1.097354,0.0009111564,NaN,-1.040699,0.002057461,NaN,0.1982553,-14.90796,NaN,-0.9241323,-1.470772,-0.5982419,14.12612,NaN,NaN,0.365941,0.8116953,1.905018E-06,1.068993,-7.632557E-10,1.335865
1056.448,-1.090518,0.0009109185,NaN,-1.034833,0.002055892,NaN,0.196862,-14.90823,NaN,-0.9187543,-1.477988,-0.586925,14.13375,NaN,NaN,0.3605841,0.8114998,1.850181E-06,1.07948,-7.632557E-10,1.337984
1056.463,-1.084063,0.0009105619,NaN,-1.029205,0.002055982,NaN,0.196056,-14.9078,NaN,-0.9134834,-1.468843,-0.5762724,14.12407,NaN,NaN,0.355152,0.811887,1.790577E-06,1.06619,4.288372E-10,1.334195
1056.478,-1.084063,0.0009105619,NaN,-1.029205,0.002055982,NaN,0.196056,-14.9078,NaN,-0.9134834,-1.468843,-0.5762724,14.12407,NaN,NaN,0.355152,0.811887,1.790577E-06,1.06619,4.288372E-10,1.334195
1056.492,-1.077835,0.000910328,NaN,-1.023726,0.002056103,NaN,0.1953917,-14.90663,NaN,-0.9084167,-1.46585,-0.5659749,14.12078,NaN,NaN,0.3498268,0.8130096,1.740211E-06,1.061818,4.005116E-09,1.326493
1056.507,-1.071755,0.0009097479,NaN,-1.018349,0.002057352,NaN,0.1947429,-14.90807,NaN,-0.9035036,-1.471237,-0.5559044,14.12664,NaN,NaN,0.344606,0.8116611,1.688951E-06,1.069685,7.581394E-09,1.336847
1056.523,-1.065785,0.0009092662,NaN,-1.013049,0.002058352,NaN,0.1940793,-14.90837,NaN,-0.8987153,-1.473767,-0.5460106,14.12933,NaN,NaN,0.3394875,0.8113856,1.640075E-06,1.073365,8.773487E-09,1.338886
1056.537,-1.065785,0.0009092662,NaN,-1.013049,0.002058352,NaN,0.1940793,-14.90837,NaN,-0.8987153,-1.473767,-0.5460106,14.12933,NaN,NaN,0.3394875,0.8113856,1.640075E-06,1.073365,8.773487E-09,1.338886
1056.551,-1.060186,0.0009095637,NaN,-1.007988,0.002058881,NaN,0.1939948,-14.90646,NaN,-0.8940171,-1.481142,-0.5367666,14.1369,NaN,NaN,0.3342893,0.8133385,1.586431E-06,1.084055,6.389301E-09,1.330153
1056.568,-1.054809,0.0009102649,NaN,-1.003075,0.002061065,NaN,0.1940471,-14.9063,NaN,-0.8895129,-1.468625,-0.5278589,14.12365,NaN,NaN,0.3291932,0.8134859,1.538151E-06,1.065838,5.197208E-09,1.327856
1056.583,-1.049575,0.0009108167,NaN,-0.9982644,0.002062681,NaN,0.194107,-14.90649,NaN,-0.885153,-1.466676,-0.5191574,14.1216,NaN,NaN,0.3241971,0.813262,1.491361E-06,1.063007,2.813022E-09,1.326848
1056.597,-1.049575,0.0009108167,NaN,-0.9982644,0.002062681,NaN,0.194107,-14.90649,NaN,-0.885153,-1.466676,-0.5191574,14.1216,NaN,NaN,0.3241971,0.813262,1.491361E-06,1.063007,2.813022E-09,1.326848
1056.61,-1.044726,0.0009118913,NaN,-0.9937036,0.002064663,NaN,0.1947357,-14.90702,NaN,-0.8808874,-1.465631,-0.5111052,14.12056,NaN,NaN,0.3191189,0.8127179,1.4404E-06,1.061499,2.813022E-09,1.330699
1056.626,-1.040103,0.0009126788,NaN,-0.9892992,0.002066344,NaN,0.1954852,-14.90762,NaN,-0.8768179,-1.479468,-0.5033731,14.13524,NaN,NaN,0.3141405,0.8123467,1.39808E-06,1.081637,4.288365E-10,1.336111
1056.641,-1.035624,0.0009130749,NaN,-0.9850006,0.002067785,NaN,0.1962248,-14.90794,NaN,-0.8728914,-1.470269,-0.4958254,14.12556,NaN,NaN,0.3092598,0.8120072,1.356357E-06,1.068263,-4.339535E-09,1.332469
1056.656,-1.035624,0.0009130749,NaN,-0.9850006,0.002067785,NaN,0.1962248,-14.90794,NaN,-0.8728914,-1.470269,-0.4958254,14.12556,NaN,NaN,0.3092598,0.8120072,1.356357E-06,1.068263,-4.339535E-09,1.332469
1056.67,-1.031246,0.0009138969,NaN,-0.9807796,0.00206759,NaN,0.1969244,-14.90783,NaN,-0.8690774,-1.473502,-0.4884105,14.12895,NaN,NaN,0.3044749,0.8121436,1.312548E-06,1.07296,-3.147442E-09,1.331587
1056.685,-1.027224,0.0009134186,NaN,-0.9767938,0.002067889,NaN,0.1981822,-14.90719,NaN,-0.8653317,-1.466129,-0.4816146,14.12111,NaN,NaN,0.2996036,0.8127189,1.268142E-06,1.062235,1.620929E-09,1.325813
1056.7,-1.023412,0.0009131118,NaN,-0.9729567,0.002066063,NaN,0.1995613,-14.90745,NaN,-0.8617656,-1.466772,-0.4751182,14.12182,NaN,NaN,0.2948281,0.8124667,1.228505E-06,1.063178,1.620929E-09,1.327696
1056.717,-1.023412,0.0009131118,NaN,-0.9729567,0.002066063,NaN,0.1995613,-14.90745,NaN,-0.8617656,-1.466772,-0.4751182,14.12182,NaN,NaN,0.2948281,0.8124667,1.228505E-06,1.063178,1.620929E-09,1.327696
1056.73,-1.019735,0.0009136481,NaN,-0.9692203,0.002066228,NaN,0.2009293,-14.90805,NaN,-0.85833,-1.466782,-0.4687881,14.1219,NaN,NaN,0.2901464,0.8118662,1.189464E-06,1.063206,2.813022E-09,1.331526
1056.745,-1.016149,0.0009144444,NaN,-0.9655576,0.002064077,NaN,0.2022532,-14.90749,NaN,-0.8549964,-1.465855,-0.4625733,14.12085,NaN,NaN,0.2855565,0.8124098,1.150125E-06,1.061851,2.813022E-09,1.329026
1056.76,-1.012909,0.0009149596,NaN,-0.9621262,0.00206258,NaN,0.2041306,-14.90764,NaN,-0.8517192,-1.465125,-0.456966,14.1201,NaN,NaN,0.2808764,0.8122434,1.106613E-06,1.060795,2.813022E-09,1.329613
1056.775,-1.012909,0.0009149596,NaN,-0.9621262,0.00206258,NaN,0.2041306,-14.90764,NaN,-0.8517192,-1.465125,-0.456966,14.1201,NaN,NaN,0.2808764,0.8122434,1.106613E-06,1.060795,2.813022E-09,1.329613
1056.791,-1.009873,0.0009154984,NaN,-0.9588413,0.002062165,NaN,0.2061245,-14.90754,NaN,-0.8486134,-1.478819,-0.4516417,14.13453,NaN,NaN,0.2762885,0.812571,1.069659E-06,1.080698,2.813022E-09,1.333774
1056.806,-1.006965,0.0009147933,NaN,-0.9556551,0.002059918,NaN,0.2080996,-14.90809,NaN,-0.8456308,-1.468573,-0.446465,14.12377,NaN,NaN,0.2717906,0.8119829,1.033598E-06,1.065802,2.813022E-09,1.333884
1056.819,-1.006965,0.0009147933,NaN,-0.9556551,0.002059918,NaN,0.2080996,-14.90809,NaN,-0.8456308,-1.468573,-0.446465,14.12377,NaN,NaN,0.2717906,0.8119829,1.033598E-06,1.065802,2.813022E-09,1.333884
1056.833,-1.004417,0.0009141442,NaN,-0.9527128,0.002059154,NaN,0.2106194,-14.90792,NaN,-0.8427132,-1.473548,-0.4418964,14.129,NaN,NaN,0.2672008,0.8122112,9.942587E-07,1.073032,1.620929E-09,1.332099
1056.849,-1.002081,0.0009141033,NaN,-0.9499242,0.002059569,NaN,0.2132386,-14.90851,NaN,-0.8399715,-1.467296,-0.4375949,14.12246,NaN,NaN,0.2627014,0.8115596,9.623702E-07,1.063954,4.288365E-10,1.335594
1056.864,-0.9998742,0.0009144074,NaN,-0.9472374,0.002061018,NaN,0.2158205,-14.90982,NaN,-0.8373537,-1.474544,-0.4334199,14.13025,NaN,NaN,0.2582903,0.8103513,9.33164E-07,1.07451,-7.632563E-10,1.345754
1056.879,-0.9998742,0.0009144074,NaN,-0.9472374,0.002061018,NaN,0.2158205,-14.90982,NaN,-0.8373537,-1.474544,-0.4334199,14.13025,NaN,NaN,0.2582903,0.8103513,9.33164E-07,1.07451,-7.632563E-10,1.345754
1056.893,-0.9977505,0.0009146249,NaN,-0.9446222,0.002062016,NaN,0.2183328,-14.90854,NaN,-0.8348298,-1.466871,-0.4293198,14.12206,NaN,NaN,0.2539656,0.8115577,9.042557E-07,1.063368,-7.632563E-10,1.334916
1056.909,-0.9959583,0.0009151073,NaN,-0.9422335,0.002061654,NaN,0.221379,-14.90869,NaN,-0.8323504,-1.465597,-0.425799,14.12073,NaN,NaN,0.2495458,0.8113879,8.681949E-07,1.061524,-3.147442E-09,1.333685
1056.924,-0.9943603,0.0009154877,NaN,-0.9399881,0.002059869,NaN,0.2245238,-14.90949,NaN,-0.8300326,-1.47914,-0.4225266,14.1351,NaN,NaN,0.2452129,0.8108138,8.395847E-07,1.081215,-7.632563E-10,1.341097
1056.938,-0.9943603,0.0009154877,NaN,-0.9399881,0.002059869,NaN,0.2245238,-14.90949,NaN,-0.8300326,-1.47914,-0.4225266,14.1351,NaN,NaN,0.2452129,0.8108138,8.395847E-07,1.081215,-7.632563E-10,1.341097
1056.953,-0.9928794,0.0009154844,NaN,-0.9378374,0.002060589,NaN,0.22763,-14.90838,NaN,-0.827828,-1.47179,-0.4193648,14.12725,NaN,NaN,0.2409651,0.8118907,8.157429E-07,1.070539,-3.147442E-09,1.331432
1056.968,-0.9914721,0.0009146255,NaN,-0.9357523,0.002060734,NaN,0.2306628,-14.90852,NaN,-0.8257086,-1.466619,-0.4162626,14.12181,NaN,NaN,0.2368005,0.8116873,7.883248E-07,1.063027,-3.147442E-09,1.333511
1056.983,-0.9903865,0.000914568,NaN,-0.9338884,0.002060211,NaN,0.2342265,-14.90874,NaN,-0.8236262,-1.465383,-0.4137306,14.12053,NaN,NaN,0.2325376,0.8114492,7.573303E-07,1.061237,-1.955349E-09,1.333796
1056.998,-0.9903865,0.000914568,NaN,-0.9338884,0.002060211,NaN,0.2342265,-14.90874,NaN,-0.8236262,-1.465383,-0.4137306,14.12053,NaN,NaN,0.2325376,0.8114492,7.573303E-07,1.061237,-1.955349E-09,1.333796
1057.014,-0.9894882,0.0009155534,NaN,-0.9321643,0.002059118,NaN,0.2378834,-14.91026,NaN,-0.8216993,-1.476614,-0.4114323,14.13255,NaN,NaN,0.2283586,0.8101155,7.337865E-07,1.077587,-1.955349E-09,1.345211
1057.028,-0.9887008,0.000915973,NaN,-0.9305312,0.00206033,NaN,0.2414937,-14.90859,NaN,-0.8198797,-1.467146,-0.4092278,14.12243,NaN,NaN,0.2242617,0.8117211,7.117328E-07,1.063838,-3.147442E-09,1.333236
1057.042,-0.9879807,0.0009166408,NaN,-0.9289602,0.002061914,NaN,0.245022,-14.90894,NaN,-0.8181399,-1.465944,-0.4070659,14.1212,NaN,NaN,0.2202451,0.8113496,6.884869E-07,1.062097,-3.147442E-09,1.335253
1057.057,-0.9879807,0.0009166408,NaN,-0.9289602,0.002061914,NaN,0.245022,-14.90894,NaN,-0.8181399,-1.465944,-0.4070659,14.1212,NaN,NaN,0.2202451,0.8113496,6.884869E-07,1.062097,-3.147442E-09,1.335253
1057.071,-0.9875745,0.0009167524,NaN,-0.9276063,0.002063,NaN,0.2490755,-14.90916,NaN,-0.8164327,-1.465202,-0.4054639,14.12044,NaN,NaN,0.2161273,0.8111085,6.628569E-07,1.061023,-1.955349E-09,1.336119
1057.087,-0.9873497,0.00091644,NaN,-0.926389,0.002060748,NaN,0.2532144,-14.90965,NaN,-0.8148761,-1.465886,-0.4040798,14.12122,NaN,NaN,0.2120905,0.8106291,6.443794E-07,1.06203,-3.147442E-09,1.340384
1057.102,-0.9872304,0.0009165026,NaN,-0.9252596,0.002059782,NaN,0.2572978,-14.90942,NaN,-0.8134221,-1.464769,-0.4027725,14.12001,NaN,NaN,0.208133,0.8108389,6.282862E-07,1.060405,-2.551396E-09,1.337415
1057.117,-0.9872304,0.0009165026,NaN,-0.9252596,0.002059782,NaN,0.2572978,-14.90942,NaN,-0.8134221,-1.464769,-0.4027725,14.12001,NaN,NaN,0.208133,0.8108389,6.282862E-07,1.060405,-2.551396E-09,1.337415
1057.131,-0.9874409,0.0009171092,NaN,-0.9243614,0.002059256,NaN,0.2618976,-14.90961,NaN,-0.8120146,-1.464254,-0.4020263,14.11949,NaN,NaN,0.2040731,0.8106287,6.044444E-07,1.059663,-5.531628E-09,1.338197
1057.147,-0.9878426,0.0009174335,NaN,-0.9236095,0.00205838,NaN,0.2665659,-14.91041,NaN,-0.8107638,-1.478041,-0.4014842,14.13409,NaN,NaN,0.2000932,0.8100773,5.859669E-07,1.07969,-6.127674E-09,1.347723
1057.161,-0.9883529,0.0009179189,NaN,-0.9229515,0.002057603,NaN,0.2711607,-14.90924,NaN,-0.8096178,-1.467766,-0.4010001,14.12318,NaN,NaN,0.1961914,0.8111994,5.710658E-07,1.064783,-3.743488E-09,1.337463
1057.177,-0.9883529,0.0009179189,NaN,-0.9229515,0.002057603,NaN,0.2711607,-14.90924,NaN,-0.8096178,-1.467766,-0.4010001,14.12318,NaN,NaN,0.1961914,0.8111994,5.710658E-07,1.064783,-3.743488E-09,1.337463
1057.19,-0.9889237,0.0009185979,NaN,-0.9223543,0.00205503,NaN,0.2756476,-14.9103,NaN,-0.808547,-1.47983,-0.4005227,14.13601,NaN,NaN,0.1923661,0.8103063,5.549725E-07,1.082324,-2.551395E-09,1.342937
1057.206,-0.9897978,0.0009189905,NaN,-0.92197,0.002052544,NaN,0.2806433,-14.9091,NaN,-0.8075057,-1.469271,-0.4005821,14.12479,NaN,NaN,0.1884358,0.8114799,5.311307E-07,1.067002,-1.672096E-10,1.338045
1057.221,-0.9908444,0.0009202286,NaN,-0.9217181,0.002050472,NaN,0.2857045,-14.91046,NaN,-0.8066094,-1.475131,-0.4008276,14.13112,NaN,NaN,0.1845829,0.8101879,5.150374E-07,1.075538,-1.359302E-09,1.346174
1057.237,-0.9908444,0.0009202286,NaN,-0.9217181,0.002050472,NaN,0.2857045,-14.91046,NaN,-0.8066094,-1.475131,-0.4008276,14.13112,NaN,NaN,0.1845829,0.8101879,5.150374E-07,1.075538,-1.359302E-09,1.346174
1057.25,-0.9919868,0.0009214851,NaN,-0.9215484,0.002050896,NaN,0.2906897,-14.91001,NaN,-0.8058084,-1.469729,-0.4011161,14.12539,NaN,NaN,0.1808057,0.8106009,5.049046E-07,1.067695,-1.359302E-09,1.342536
1057.266,-0.9931794,0.0009208551,NaN,-0.9214295,0.002050091,NaN,0.2955636,-14.91003,NaN,-0.8050751,-1.479494,-0.4013979,14.13566,NaN,NaN,0.1771026,0.8106936,4.935798E-07,1.081864,1.62093E-09,1.345211
1057.281,-0.9946662,0.0009209909,NaN,-0.9215124,0.00205141,NaN,0.3009453,-14.90914,NaN,-0.8043675,-1.468682,-0.4022089,14.12419,NaN,NaN,0.1732921,0.8115689,4.751023E-07,1.066168,3.409069E-09,1.338678
1057.296,-0.9946662,0.0009209909,NaN,-0.9215124,0.00205141,NaN,0.3009453,-14.90914,NaN,-0.8043675,-1.468682,-0.4022089,14.12419,NaN,NaN,0.1732921,0.8115689,4.751023E-07,1.066168,3.409069E-09,1.338678
1057.31,-0.9963178,0.000920729,NaN,-0.9217191,0.002050778,NaN,0.3063861,-14.9094,NaN,-0.8038004,-1.471731,-0.4031924,14.12743,NaN,NaN,0.1695566,0.8113537,4.643735E-07,1.070602,3.409069E-09,1.337885
1057.325,-0.9980558,0.0009206851,NaN,-0.9219998,0.002050183,NaN,0.3117414,-14.91036,NaN,-0.8033248,-1.478549,-0.4042034,14.13472,NaN,NaN,0.1658945,0.8104654,4.548368E-07,1.080518,2.813023E-09,1.345989
1057.34,-0.9998344,0.000920948,NaN,-0.9223238,0.002048593,NaN,0.3169759,-14.91041,NaN,-0.8029134,-1.48176,-0.4051926,14.1381,NaN,NaN,0.1623043,0.8104312,4.44704E-07,1.085177,4.601162E-09,1.345676
1057.355,-0.9998344,0.000920948,NaN,-0.9223238,0.002048593,NaN,0.3169759,-14.91041,NaN,-0.8029134,-1.48176,-0.4051926,14.1381,NaN,NaN,0.1623043,0.8104312,4.44704E-07,1.085177,4.601162E-09,1.345676
1057.369,-1.001898,0.0009204028,NaN,-0.9228453,0.002050985,NaN,0.3227153,-14.90912,NaN,-0.8025277,-1.469537,-0.4067054,14.12512,NaN,NaN,0.1586044,0.8117158,4.274186E-07,1.067435,1.62093E-09,1.336419
1057.385,-1.004114,0.0009207511,NaN,-0.923483,0.002054225,NaN,0.3285008,-14.9094,NaN,-0.8022803,-1.476877,-0.4083734,14.1329,NaN,NaN,0.1549774,0.8115093,4.1967E-07,1.078115,4.288372E-10,1.334398
1057.4,-1.004114,0.0009207511,NaN,-0.923483,0.002054225,NaN,0.3285008,-14.9094,NaN,-0.8022803,-1.476877,-0.4083734,14.1329,NaN,NaN,0.1549774,0.8115093,4.1967E-07,1.078115,4.288372E-10,1.334398
1057.414,-1.006406,0.0009205572,NaN,-0.9241873,0.002055795,NaN,0.3341901,-14.90891,NaN,-0.802121,-1.468983,-0.4100521,14.12454,NaN,NaN,0.1514217,0.8119523,4.131135E-07,1.066654,1.024884E-09,1.33466
1057.43,-1.009,0.0009205973,NaN,-0.925101,0.002055329,NaN,0.3403773,-14.90952,NaN,-0.8020027,-1.480936,-0.4122562,14.13723,NaN,NaN,0.1477557,0.8114877,3.982123E-07,1.084045,4.288372E-10,1.339524
1057.446,-1.011754,0.000920906,NaN,-0.9261351,0.002057246,NaN,0.3465897,-14.90883,NaN,-0.8020298,-1.471188,-0.414598,14.12689,NaN,NaN,0.1441619,0.8121634,3.904637E-07,1.069887,-7.632557E-10,1.334848
1057.459,-1.011754,0.000920906,NaN,-0.9261351,0.002057246,NaN,0.3465897,-14.90883,NaN,-0.8020298,-1.471188,-0.414598,14.12689,NaN,NaN,0.1441619,0.8121634,3.904637E-07,1.069887,-7.632557E-10,1.334848
1057.474,-1.014583,0.0009212289,NaN,-0.9272359,0.002057238,NaN,0.3526858,-14.909,NaN,-0.8021479,-1.467407,-0.4169304,14.12293,NaN,NaN,0.1406388,0.8119486,3.856954E-07,1.064397,1.024884E-09,1.333314
1057.489,-1.01744,0.0009220322,NaN,-0.9283712,0.002056985,NaN,0.3586363,-14.90962,NaN,-0.8023266,-1.480086,-0.4192079,14.13637,NaN,NaN,0.1371847,0.8115063,3.80927E-07,1.082839,2.813023E-09,1.340963
1057.504,-1.02057,0.0009207243,NaN,-0.9296945,0.002058292,NaN,0.3650806,-14.90873,NaN,-0.8025331,-1.468417,-0.4219926,14.12399,NaN,NaN,0.1336183,0.8123645,3.660258E-07,1.065884,4.601162E-09,1.332053
1057.519,-1.02057,0.0009207243,NaN,-0.9296945,0.002058292,NaN,0.3650806,-14.90873,NaN,-0.8025331,-1.468417,-0.4219926,14.12399,NaN,NaN,0.1336183,0.8123645,3.660258E-07,1.065884,4.601162E-09,1.332053
1057.533,-1.023838,0.0009203712,NaN,-0.9311225,0.002061083,NaN,0.3715478,-14.9093,NaN,-0.8028742,-1.467135,-0.4249009,14.1227,NaN,NaN,0.1301223,0.8117661,3.624496E-07,1.064031,5.197208E-09,1.335327
1057.549,-1.027166,0.0009202681,NaN,-0.9326053,0.002064445,NaN,0.3778975,-14.90944,NaN,-0.8032977,-1.465921,-0.4277891,14.12143,NaN,NaN,0.1266949,0.8115957,3.570851E-07,1.062267,4.005115E-09,1.33571
1057.564,-1.03051,0.000920082,NaN,-0.9341135,0.002066601,NaN,0.3841,-14.91004,NaN,-0.803775,-1.467076,-0.4306131,14.12272,NaN,NaN,0.1233347,0.8110063,3.505286E-07,1.063957,3.409069E-09,1.338902
1057.579,-1.03051,0.000920082,NaN,-0.9341135,0.002066601,NaN,0.3841,-14.91004,NaN,-0.803775,-1.467076,-0.4306131,14.12272,NaN,NaN,0.1233347,0.8110063,3.505286E-07,1.063957,3.409069E-09,1.338902
1057.593,-1.034119,0.0009197917,NaN,-0.9358027,0.002066048,NaN,0.390799,-14.91077,NaN,-0.8042792,-1.478391,-0.4339425,14.13471,NaN,NaN,0.1198604,0.8104416,3.374156E-07,1.0804,1.62093E-09,1.345679
1057.609,-1.037857,0.0009192534,NaN,-0.9375895,0.002066821,NaN,0.3975137,-14.90925,NaN,-0.8049142,-1.467101,-0.4373834,14.12269,NaN,NaN,0.1164546,0.8119128,3.308591E-07,1.064011,2.813023E-09,1.334816
1057.624,-1.041647,0.0009182628,NaN,-0.9394249,0.002067004,NaN,0.4041032,-14.90942,NaN,-0.8056273,-1.466154,-0.4407912,14.12171,NaN,NaN,0.1131157,0.8117287,3.290709E-07,1.062637,3.409069E-09,1.334619
1057.638,-1.041647,0.0009182628,NaN,-0.9394249,0.002067004,NaN,0.4041032,-14.90942,NaN,-0.8056273,-1.466154,-0.4407912,14.12171,NaN,NaN,0.1131157,0.8117287,3.290709E-07,1.062637,3.409069E-09,1.334619
1057.655,-1.045721,0.0009181715,NaN,-0.941453,0.002067431,NaN,0.4111816,-14.90994,NaN,-0.8063836,-1.479482,-0.4447052,14.13582,NaN,NaN,0.1096623,0.8114063,3.201302E-07,1.082012,4.005115E-09,1.342504
1057.668,-1.04993,0.0009177303,NaN,-0.943583,0.002068209,NaN,0.4182539,-14.90911,NaN,-0.8072776,-1.468091,-0.448713,14.12374,NaN,NaN,0.106277,0.812209,3.153619E-07,1.065462,3.409069E-09,1.3343
1057.683,-1.054193,0.0009167303,NaN,-0.9457617,0.002067173,NaN,0.4251817,-14.90925,NaN,-0.8082521,-1.468027,-0.4526686,14.12368,NaN,NaN,0.1029582,0.8120627,3.123816E-07,1.065372,4.005115E-09,1.33427
1057.698,-1.054193,0.0009167303,NaN,-0.9457617,0.002067173,NaN,0.4251817,-14.90925,NaN,-0.8082521,-1.468027,-0.4526686,14.12368,NaN,NaN,0.1029582,0.8120627,3.123816E-07,1.065372,4.005115E-09,1.33427
1057.712,-1.058462,0.000916357,NaN,-0.9479588,0.002066628,NaN,0.4319406,-14.90957,NaN,-0.8092762,-1.466435,-0.4565317,14.12204,NaN,NaN,0.09970447,0.8117217,3.094014E-07,1.063063,2.813022E-09,1.335282
1057.728,-1.062988,0.0009164314,NaN,-0.9503291,0.002067536,NaN,0.4391881,-14.91067,NaN,-0.8103319,-1.470736,-0.4608879,14.1267,NaN,NaN,0.09633448,0.8106793,3.016528E-07,1.069334,-1.359303E-09,1.343739
1057.742,-1.067631,0.0009168948,NaN,-0.9527876,0.002069169,NaN,0.446429,-14.91026,NaN,-0.8115145,-1.466813,-0.4653269,14.12252,NaN,NaN,0.09303102,0.8110436,2.986725E-07,1.063634,4.288366E-10,1.340045
1057.757,-1.067631,0.0009168948,NaN,-0.9527876,0.002069169,NaN,0.446429,-14.91026,NaN,-0.8115145,-1.466813,-0.4653269,14.12252,NaN,NaN,0.09303102,0.8110436,2.986725E-07,1.063634,4.288366E-10,1.340045
1057.772,-1.072314,0.0009177026,NaN,-0.9552849,0.002071156,NaN,0.4535254,-14.90994,NaN,-0.8127691,-1.46527,-0.4697053,14.12085,NaN,NaN,0.08979246,0.8113332,2.959903E-07,1.061385,5.197208E-09,1.338239
1057.788,-1.076994,0.0009176288,NaN,-0.957793,0.002071446,NaN,0.4604523,-14.91006,NaN,-0.8140666,-1.46543,-0.473984,14.12103,NaN,NaN,0.08661741,0.8112191,2.956923E-07,1.06162,4.601162E-09,1.33585
1057.803,-1.081924,0.0009179467,NaN,-0.9604687,0.002070607,NaN,0.4678717,-14.91153,NaN,-0.8153963,-1.476604,-0.4787558,14.13298,NaN,NaN,0.08332453,0.8099307,2.879437E-07,1.07788,3.409069E-09,1.348394
1057.817,-1.081924,0.0009179467,NaN,-0.9604687,0.002070607,NaN,0.4678717,-14.91153,NaN,-0.8153963,-1.476604,-0.4787558,14.13298,NaN,NaN,0.08332453,0.8099307,2.879437E-07,1.07788,3.409069E-09,1.348394
1057.832,-1.086964,0.0009182494,NaN,-0.9632268,0.002072304,NaN,0.4752775,-14.90995,NaN,-0.8168492,-1.467312,-0.4835993,14.12305,NaN,NaN,0.08009668,0.8114591,2.873476E-07,1.064393,6.389301E-09,1.33524
1057.847,-1.092038,0.0009178772,NaN,-0.9660187,0.002071162,NaN,0.4825323,-14.91015,NaN,-0.8183697,-1.466332,-0.4883709,14.12204,NaN,NaN,0.07693225,0.8112454,2.861555E-07,1.062975,4.601161E-09,1.33748
1057.863,-1.097104,0.000917903,NaN,-0.9688169,0.002072017,NaN,0.4896121,-14.91107,NaN,-0.8199287,-1.469747,-0.493033,14.12575,NaN,NaN,0.07382989,0.8103768,2.855595E-07,1.067954,4.601161E-09,1.343221
1057.877,-1.097104,0.000917903,NaN,-0.9688169,0.002072017,NaN,0.4896121,-14.91107,NaN,-0.8199287,-1.469747,-0.493033,14.12575,NaN,NaN,0.07382989,0.8103768,2.855595E-07,1.067954,4.601161E-09,1.343221
1057.891,-1.102415,0.0009187377,NaN,-0.9717788,0.002074315,NaN,0.4971852,-14.91005,NaN,-0.8215225,-1.469254,-0.4981863,14.12511,NaN,NaN,0.07060826,0.8113793,2.778108E-07,1.067219,4.005115E-09,1.335558
1057.906,-1.107831,0.000919093,NaN,-0.9748185,0.002074949,NaN,0.5047358,-14.91153,NaN,-0.8232365,-1.472379,-0.503399,14.12857,NaN,NaN,0.06745028,0.8099389,2.757247E-07,1.071784,1.620929E-09,1.345929
1057.921,-1.113276,0.0009194254,NaN,-0.9778877,0.002074671,NaN,0.5121279,-14.9104,NaN,-0.825014,-1.466119,-0.508528,14.12187,NaN,NaN,0.06435435,0.8110081,2.748306E-07,1.062696,4.005115E-09,1.337668
1057.936,-1.113276,0.0009194254,NaN,-0.9778877,0.002074671,NaN,0.5121279,-14.9104,NaN,-0.825014,-1.466119,-0.508528,14.12187,NaN,NaN,0.06435435,0.8110081,2.748306E-07,1.062696,4.005115E-09,1.337668
1057.951,-1.118984,0.0009199506,NaN,-0.9811323,0.002074284,NaN,0.520003,-14.91146,NaN,-0.8268435,-1.478439,-0.5141461,14.13496,NaN,NaN,0.06113904,0.810138,2.652939E-07,1.080606,4.005115E-09,1.348443
1057.966,-1.124805,0.0009196373,NaN,-0.9844588,0.002073712,NaN,0.5278332,-14.91015,NaN,-0.8287994,-1.467539,-0.5198051,14.12338,NaN,NaN,0.05798726,0.8114085,2.602275E-07,1.064791,5.197208E-09,1.337916
1057.981,-1.130655,0.0009191252,NaN,-0.9878153,0.002073293,NaN,0.5354863,-14.9108,NaN,-0.8308206,-1.480285,-0.5253622,14.13688,NaN,NaN,0.05489739,0.8109396,2.593334E-07,1.083313,6.985347E-09,1.343832
1057.996,-1.130655,0.0009191252,NaN,-0.9878153,0.002073293,NaN,0.5354863,-14.9108,NaN,-0.8308206,-1.480285,-0.5253622,14.13688,NaN,NaN,0.05489739,0.8109396,2.593334E-07,1.083313,6.985347E-09,1.343832
1058.01,-1.136489,0.0009190096,NaN,-0.9911729,0.002073111,NaN,0.5429453,-14.90987,NaN,-0.8328758,-1.469551,-0.5307851,14.12549,NaN,NaN,0.05186812,0.8118679,2.575453E-07,1.067728,8.773487E-09,1.336146
1058.026,-1.142564,0.000918199,NaN,-0.9946886,0.00207246,NaN,0.5508919,-14.90982,NaN,-0.834973,-1.468907,-0.5366907,14.12481,NaN,NaN,0.04871814,0.8119272,2.509888E-07,1.066794,8.17744E-09,1.335634
1058.041,-1.148734,0.0009180207,NaN,-0.9982746,0.002074108,NaN,0.5587949,-14.91062,NaN,-0.837186,-1.466513,-0.5426292,14.12238,NaN,NaN,0.04563041,0.8111084,2.486046E-07,1.063329,6.389301E-09,1.341039
1058.056,-1.148734,0.0009180207,NaN,-0.9982746,0.002074108,NaN,0.5587949,-14.91062,NaN,-0.837186,-1.466513,-0.5426292,14.12238,NaN,NaN,0.04563041,0.8111084,2.486046E-07,1.063329,6.389301E-09,1.341039
1058.072,-1.154922,0.0009175355,NaN,-1.001882,0.002074105,NaN,0.5665226,-14.91068,NaN,-0.8394558,-1.479656,-0.5484601,14.13622,NaN,NaN,0.04260335,0.8112536,2.474125E-07,1.082413,6.985347E-09,1.343118
1058.087,-1.161087,0.0009177731,NaN,-1.005485,0.002073526,NaN,0.574057,-14.91022,NaN,-0.8417531,-1.468086,-0.5541521,14.12399,NaN,NaN,0.03963565,0.8116929,2.477105E-07,1.065611,8.773486E-09,1.335951
1058.1,-1.167487,0.00091778,NaN,-1.009242,0.002073633,NaN,0.5820839,-14.91051,NaN,-0.8440946,-1.466034,-0.5603287,14.12185,NaN,NaN,0.03654603,0.8113867,2.393659E-07,1.062633,1.354186E-08,1.338308
1058.117,-1.167487,0.00091778,NaN,-1.009242,0.002073633,NaN,0.5820839,-14.91051,NaN,-0.8440946,-1.466034,-0.5603287,14.12185,NaN,NaN,0.03654603,0.8113867,2.393659E-07,1.062633,1.354186E-08,1.338308
1058.13,-1.173978,0.0009189186,NaN,-1.013065,0.002073711,NaN,0.5900606,-14.91176,NaN,-0.846548,-1.477076,-0.566528,14.13363,NaN,NaN,0.03351749,0.8103133,2.390678E-07,1.078696,1.473395E-08,1.347369
1058.145,-1.180481,0.0009182387,NaN,-1.016905,0.002072154,NaN,0.5978568,-14.91082,NaN,-0.8490534,-1.4723,-0.5726104,14.12851,NaN,NaN,0.03054846,0.8112373,2.381738E-07,1.071761,1.533E-08,1.341208
1058.16,-1.186956,0.0009179306,NaN,-1.020737,0.002070729,NaN,0.6054562,-14.91046,NaN,-0.8515818,-1.466498,-0.5785464,14.12237,NaN,NaN,0.02763764,0.8115396,2.384718E-07,1.063332,1.41379E-08,1.335779
1058.175,-1.186956,0.0009179306,NaN,-1.020737,0.002070729,NaN,0.6054562,-14.91046,NaN,-0.8515818,-1.466498,-0.5785464,14.12237,NaN,NaN,0.02763764,0.8115396,2.384718E-07,1.063332,1.41379E-08,1.335779
1058.189,-1.193664,0.0009169634,NaN,-1.02472,0.002068904,NaN,0.6135497,-14.91056,NaN,-0.8541582,-1.466769,-0.5849671,14.12266,NaN,NaN,0.0246038,0.8114492,2.313192E-07,1.063728,1.652209E-08,1.336559
1058.205,-1.200458,0.0009157394,NaN,-1.028765,0.002065417,NaN,0.6215849,-14.91078,NaN,-0.8568431,-1.479648,-0.5913993,14.13626,NaN,NaN,0.02162995,0.8114175,2.307232E-07,1.082441,1.890628E-08,1.338338
1058.22,-1.200458,0.0009157394,NaN,-1.028765,0.002065417,NaN,0.6215849,-14.91078,NaN,-0.8568431,-1.479648,-0.5913993,14.13626,NaN,NaN,0.02162995,0.8114175,2.307232E-07,1.082441,1.890628E-08,1.338338
1058.234,-1.20726,0.000915042,NaN,-1.032825,0.002064282,NaN,0.6294339,-14.91041,NaN,-0.8595757,-1.46752,-0.5977049,14.12344,NaN,NaN,0.01871452,0.811763,2.328094E-07,1.064823,1.533E-08,1.336133
1058.249,-1.214315,0.0009140534,NaN,-1.037046,0.002064621,NaN,0.6377645,-14.91185,NaN,-0.8623735,-1.474342,-0.6044906,14.1308,NaN,NaN,0.01567617,0.8104153,2.253588E-07,1.074761,1.175372E-08,1.346161
1058.265,-1.221461,0.0009135712,NaN,-1.041333,0.00206483,NaN,0.6460144,-14.91121,NaN,-0.8652848,-1.481554,-0.6112685,14.13831,NaN,NaN,0.0126979,0.8110975,2.241667E-07,1.085218,1.175372E-08,1.344457
1058.279,-1.221461,0.0009135712,NaN,-1.041333,0.00206483,NaN,0.6460144,-14.91121,NaN,-0.8652848,-1.481554,-0.6112685,14.13831,NaN,NaN,0.0126979,0.8110975,2.241667E-07,1.085218,1.175372E-08,1.344457
1058.295,-1.228616,0.0009117883,NaN,-1.045635,0.002064663,NaN,0.6540613,-14.9102,NaN,-0.8682443,-1.469391,-0.6179034,14.12541,NaN,NaN,0.00977812,0.8121083,2.232726E-07,1.067554,1.175372E-08,1.336377
1058.309,-1.235735,0.0009104942,NaN,-1.049925,0.002063083,NaN,0.6618958,-14.91018,NaN,-0.8712212,-1.47469,-0.6243722,14.13102,NaN,NaN,0.006915589,0.8121819,2.229746E-07,1.07527,1.056163E-08,1.33574
1058.324,-1.243086,0.0009084972,NaN,-1.054361,0.002063498,NaN,0.6702206,-14.91101,NaN,-0.8742546,-1.469572,-0.6313211,14.12571,NaN,NaN,0.003929074,0.8113202,2.140339E-07,1.067844,1.175372E-08,1.3412
1058.339,-1.243086,0.0009084972,NaN,-1.054361,0.002063498,NaN,0.6702206,-14.91101,NaN,-0.8742546,-1.469572,-0.6313211,14.12571,NaN,NaN,0.003929074,0.8113202,2.140339E-07,1.067844,1.175372E-08,1.3412
1058.353,-1.250513,0.0009071195,NaN,-1.058853,0.002064411,NaN,0.6784675,-14.91083,NaN,-0.8773911,-1.467332,-0.6382568,14.12334,NaN,NaN,0.00100163,0.8114724,2.107556E-07,1.064594,1.056163E-08,1.338663
1058.368,-1.257939,0.0009057379,NaN,-1.063353,0.002064316,NaN,0.6865147,-14.91043,NaN,-0.8805676,-1.478923,-0.645046,14.13551,NaN,NaN,-0.001868318,0.8120206,2.086694E-07,1.081425,1.056163E-08,1.340215
1058.383,-1.265324,0.0009042703,NaN,-1.067836,0.002063031,NaN,0.6943522,-14.91041,NaN,-0.8837548,-1.472688,-0.6516669,14.12893,NaN,NaN,-0.004681988,0.8120244,2.092655E-07,1.072365,1.056163E-08,1.337388
1058.399,-1.265324,0.0009042703,NaN,-1.067836,0.002063031,NaN,0.6943522,-14.91041,NaN,-0.8837548,-1.472688,-0.6516669,14.12893,NaN,NaN,-0.004681988,0.8120244,2.092655E-07,1.072365,1.056163E-08,1.337388
1058.413,-1.272937,0.0009031924,NaN,-1.072463,0.002062693,NaN,0.7026849,-14.91147,NaN,-0.8870019,-1.470123,-0.6587715,14.12634,NaN,NaN,-0.007620589,0.8109351,2.021129E-07,1.068652,9.369533E-09,1.341213
1058.428,-1.280622,0.0009020262,NaN,-1.077141,0.002060638,NaN,0.7109339,-14.9107,NaN,-0.890348,-1.46696,-0.6658533,14.12293,NaN,NaN,-0.01050106,0.8116646,1.982386E-07,1.064051,1.175372E-08,1.337518
1058.443,-1.288301,0.0009016382,NaN,-1.081824,0.002059007,NaN,0.71898,-14.91118,NaN,-0.8937289,-1.48002,-0.6727815,14.13675,NaN,NaN,-0.01332496,0.8113698,1.982386E-07,1.083036,9.369533E-09,1.343512
1058.458,-1.288301,0.0009016382,NaN,-1.081824,0.002059007,NaN,0.71898,-14.91118,NaN,-0.8937289,-1.48002,-0.6727815,14.13675,NaN,NaN,-0.01332496,0.8113698,1.982386E-07,1.083036,9.369533E-09,1.343512
1058.472,-1.296226,0.0009016761,NaN,-1.086661,0.002058467,NaN,0.7275076,-14.91099,NaN,-0.8971864,-1.466948,-0.6801875,14.12296,NaN,NaN,-0.01627357,0.811539,1.889999E-07,1.06405,1.056163E-08,1.33928
1058.488,-1.304229,0.0009019863,NaN,-1.091554,0.00205935,NaN,0.7359298,-14.91136,NaN,-0.9007464,-1.4654,-0.6875516,14.12137,NaN,NaN,-0.01916387,0.8111413,1.872118E-07,1.061807,9.369533E-09,1.341338
1058.504,-1.312226,0.0009023949,NaN,-1.096451,0.002060144,NaN,0.7441339,-14.91191,NaN,-0.9043409,-1.465677,-0.6947474,14.12172,NaN,NaN,-0.02199741,0.8105909,1.887019E-07,1.062219,1.533E-08,1.343524
1058.518,-1.312226,0.0009023949,NaN,-1.096451,0.002060144,NaN,0.7441339,-14.91191,NaN,-0.9043409,-1.465677,-0.6947474,14.12172,NaN,NaN,-0.02199741,0.8105909,1.887019E-07,1.062219,1.533E-08,1.343524
1058.532,-1.320175,0.0009021683,NaN,-1.101328,0.002059165,NaN,0.7521164,-14.91101,NaN,-0.9079394,-1.464933,-0.7017596,14.12083,NaN,NaN,-0.0247754,0.811466,1.878078E-07,1.061119,1.175372E-08,1.336647
1058.547,-1.32835,0.0009024563,NaN,-1.106345,0.002058836,NaN,0.7605913,-14.91249,NaN,-0.911607,-1.472176,-0.7092543,14.12864,NaN,NaN,-0.02767901,0.810104,1.806553E-07,1.071674,8.177439E-09,1.347396
1058.562,-1.33659,0.0009027339,NaN,-1.111408,0.002058765,NaN,0.7689643,-14.91109,NaN,-0.9153668,-1.465424,-0.7167026,14.12139,NaN,NaN,-0.03052519,0.8114344,1.800592E-07,1.061863,4.60116E-09,1.337386
1058.577,-1.33659,0.0009027339,NaN,-1.111408,0.002058765,NaN,0.7689643,-14.91109,NaN,-0.9153668,-1.465424,-0.7167026,14.12139,NaN,NaN,-0.03052519,0.8114344,1.800592E-07,1.061863,4.60116E-09,1.337386
1058.592,-1.344816,0.0009025352,NaN,-1.116471,0.00205999,NaN,0.7771239,-14.91164,NaN,-0.9191531,-1.465094,-0.7239808,14.1211,NaN,NaN,-0.03331548,0.8108858,1.785691E-07,1.061395,2.216975E-09,1.340682
1058.606,-1.352987,0.0009020892,NaN,-1.121509,0.002060548,NaN,0.7850658,-14.91312,NaN,-0.9229369,-1.473206,-0.731075,14.12981,NaN,NaN,-0.03605108,0.8095399,1.788671E-07,1.073202,2.216975E-09,1.351047
1058.622,-1.361382,0.000902302,NaN,-1.126685,0.002061781,NaN,0.7935047,-14.91286,NaN,-0.9267937,-1.469848,-0.7386568,14.12626,NaN,NaN,-0.03891309,0.8097737,1.714166E-07,1.068332,3.409067E-09,1.348894
1058.636,-1.361382,0.000902302,NaN,-1.126685,0.002061781,NaN,0.7935047,-14.91286,NaN,-0.9267937,-1.469848,-0.7386568,14.12626,NaN,NaN,-0.03891309,0.8097737,1.714166E-07,1.068332,3.409067E-09,1.348894
1058.651,-1.369838,0.0009028065,NaN,-1.131903,0.002063344,NaN,0.8018365,-14.91227,NaN,-0.9307382,-1.466002,-0.7461827,14.12215,NaN,NaN,-0.04171851,0.8103141,1.684363E-07,1.062747,4.60116E-09,1.344251
1058.666,-1.378276,0.0009034562,NaN,-1.137119,0.002065291,NaN,0.8099533,-14.91298,NaN,-0.9347039,-1.475698,-0.7535333,14.13242,NaN,NaN,-0.04446885,0.80975,1.690324E-07,1.076826,1.056162E-08,1.35166
1058.681,-1.386655,0.0009034834,NaN,-1.142308,0.002066355,NaN,0.817852,-14.91138,NaN,-0.9386621,-1.468603,-0.760697,14.12481,NaN,NaN,-0.04716527,0.8113164,1.672442E-07,1.066528,1.41379E-08,1.341241
1058.696,-1.386655,0.0009034834,NaN,-1.142308,0.002066355,NaN,0.817852,-14.91138,NaN,-0.9386621,-1.468603,-0.760697,14.12481,NaN,NaN,-0.04716527,0.8113164,1.672442E-07,1.066528,1.41379E-08,1.341241
1058.71,-1.395259,0.0009040021,NaN,-1.147633,0.00206797,NaN,0.8262497,-14.91219,NaN,-0.9426983,-1.479549,-0.7683522,14.13643,NaN,NaN,-0.04998885,0.8106506,1.594956E-07,1.082442,1.294581E-08,1.348213
