JMolnar6/NonAnthroHands_User_Study/HandsLoggerWithURDF/tempdata/files/Reachy_JointMotion_gesture_10_50.csv
Time,r_shoulder,r_shoulder_x,r_upper_arm,r_forearm,r_wrist,r_wrist2hand,
735.537,-0.2570812,-1.399064E-09,NaN,-0.5875058,-1.32629E-07,NaN,-0.2874121,-5.212171E-07,NaN,-0.9673558,2.116612E-05,0.4164593,8.319971E-08,NaN,NaN,-0.4874527,1.490111E-10,1.034985E-06,-1.107048E-07,5.581483E-09,-2.622604E-08
735.5516,-0.2525398,-1.39837E-09,NaN,-0.5873727,-1.326272E-07,NaN,-0.2888107,-5.218029E-07,NaN,-0.9657218,2.116655E-05,0.4185818,8.330239E-08,NaN,NaN,-0.4873362,1.396978E-10,1.024256E-06,-1.107047E-07,3.793344E-09,-2.622604E-08
735.5681,-0.2478407,-1.397676E-09,NaN,-0.587233,-1.326255E-07,NaN,-0.29028,-5.223886E-07,NaN,-0.9640475,2.116698E-05,0.4206933,8.334072E-08,NaN,NaN,-0.4872221,1.396978E-10,1.008759E-06,-1.107048E-07,6.773576E-09,-2.622604E-08
735.5836,-0.2430661,-1.396982E-09,NaN,-0.5870901,-1.326239E-07,NaN,-0.291751,-5.229743E-07,NaN,-0.962339,2.116742E-05,0.4227833,8.333204E-08,NaN,NaN,-0.4871102,1.396978E-10,9.932614E-07,-1.107051E-07,3.793344E-09,-2.622604E-08
735.5995,-0.2430661,-1.396982E-09,NaN,-0.5870901,-1.326239E-07,NaN,-0.291751,-5.229743E-07,NaN,-0.962339,2.116742E-05,0.4227833,8.333204E-08,NaN,NaN,-0.4871102,1.396978E-10,9.932614E-07,-1.107051E-07,3.793344E-09,-2.622604E-08
735.6163,-0.2382669,-1.396288E-09,NaN,-0.5869461,-1.326224E-07,NaN,-0.2931953,-5.2356E-07,NaN,-0.9606088,2.116785E-05,0.4248465,8.328907E-08,NaN,NaN,-0.4870005,1.396978E-10,9.729958E-07,-1.107055E-07,7.965669E-09,-2.622604E-08
735.6315,-0.2338162,-1.395594E-09,NaN,-0.5868157,-1.32621E-07,NaN,-0.2939804,-5.241457E-07,NaN,-0.95882,2.116829E-05,0.4261514,8.322115E-08,NaN,NaN,-0.4869388,1.350412E-10,9.431935E-07,-1.107059E-07,9.753808E-09,-2.622604E-08
735.6469,-0.2295997,-1.394899E-09,NaN,-0.5866944,-1.326197E-07,NaN,-0.2946319,-5.247314E-07,NaN,-0.9570872,2.116873E-05,0.427409,8.313514E-08,NaN,NaN,-0.4868784,1.303846E-10,9.229279E-07,-1.107064E-07,1.213799E-08,-2.622604E-08
735.6624,-0.2255462,-1.394204E-09,NaN,-0.5865791,-1.326184E-07,NaN,-0.2952206,-5.253171E-07,NaN,-0.95541,2.116917E-05,0.4286305,8.303609E-08,NaN,NaN,-0.4868192,1.210714E-10,9.074307E-07,-1.107069E-07,8.561715E-09,-2.622604E-08
735.6783,-0.2255462,-1.394204E-09,NaN,-0.5865791,-1.326184E-07,NaN,-0.2952206,-5.253171E-07,NaN,-0.95541,2.116917E-05,0.4286305,8.303609E-08,NaN,NaN,-0.4868192,1.210714E-10,9.074307E-07,-1.107069E-07,8.561715E-09,-2.622604E-08
735.6935,-0.2216112,-1.39351E-09,NaN,-0.5864683,-1.326179E-07,NaN,-0.2957773,-5.258482E-07,NaN,-0.9537796,2.116962E-05,0.4298218,8.301976E-08,NaN,NaN,-0.4867612,1.024449E-10,8.847809E-07,-1.107048E-07,8.561715E-09,-2.861022E-08
735.7097,-0.2181086,-1.392815E-09,NaN,-0.5863743,-1.326172E-07,NaN,-0.2956912,-5.264278E-07,NaN,-0.9521385,2.117005E-05,0.4302621,8.316169E-08,NaN,NaN,-0.4867501,9.31317E-11,8.609391E-07,-1.107024E-07,6.773575E-09,-2.622604E-08
735.7257,-0.2148874,-1.39212E-09,NaN,-0.586291,-1.326154E-07,NaN,-0.2954966,-5.270445E-07,NaN,-0.9505854,2.117048E-05,0.4306619,8.326153E-08,NaN,NaN,-0.4867393,8.847509E-11,8.382893E-07,-1.107023E-07,1.034985E-08,-2.622604E-08
735.7414,-0.2118538,-1.391425E-09,NaN,-0.5862146,-1.326137E-07,NaN,-0.2952654,-5.276612E-07,NaN,-0.9491081,2.117091E-05,0.4310367,8.33035E-08,NaN,NaN,-0.4867288,8.381847E-11,8.192159E-07,-1.107025E-07,9.157762E-09,-2.622604E-08
735.7572,-0.2118538,-1.391425E-09,NaN,-0.5862146,-1.326137E-07,NaN,-0.2952654,-5.276612E-07,NaN,-0.9491081,2.117091E-05,0.4310367,8.33035E-08,NaN,NaN,-0.4867288,8.381847E-11,8.192159E-07,-1.107025E-07,9.157762E-09,-2.622604E-08
735.7722,-0.2089492,-1.39073E-09,NaN,-0.5861428,-1.326122E-07,NaN,-0.2950267,-5.282779E-07,NaN,-0.9476901,2.117135E-05,0.4313943,8.33032E-08,NaN,NaN,-0.4867184,7.916186E-11,8.025266E-07,-1.107028E-07,7.965669E-09,-2.622604E-08
735.7889,-0.2064787,-1.390035E-09,NaN,-0.5860878,-1.326108E-07,NaN,-0.2941653,-5.288946E-07,NaN,-0.9462689,2.117179E-05,0.4310169,8.327204E-08,NaN,NaN,-0.4867541,7.916186E-11,7.786848E-07,-1.107031E-07,1.09459E-08,-2.622604E-08
735.8043,-0.2042862,-1.389339E-09,NaN,-0.5860432,-1.326094E-07,NaN,-0.2932154,-5.295113E-07,NaN,-0.94494,2.117222E-05,0.4306117,8.321842E-08,NaN,NaN,-0.4867891,7.450524E-11,7.584192E-07,-1.107036E-07,1.09459E-08,-2.622604E-08
735.8198,-0.2042862,-1.389339E-09,NaN,-0.5860432,-1.326094E-07,NaN,-0.2932154,-5.295113E-07,NaN,-0.94494,2.117222E-05,0.4306117,8.321842E-08,NaN,NaN,-0.4867891,7.450524E-11,7.584192E-07,-1.107036E-07,1.09459E-08,-2.622604E-08
735.8353,-0.2022743,-1.388644E-09,NaN,-0.5860052,-1.326081E-07,NaN,-0.2922476,-5.30128E-07,NaN,-0.9436891,2.117266E-05,0.4301955,8.314851E-08,NaN,NaN,-0.4868235,6.984863E-11,7.417299E-07,-1.10704E-07,9.753808E-09,-2.622604E-08
735.8516,-0.2003827,-1.387948E-09,NaN,-0.5859712,-1.326068E-07,NaN,-0.2912894,-5.307447E-07,NaN,-0.9424984,2.117309E-05,0.4297763,8.306682E-08,NaN,NaN,-0.4868571,7.450524E-11,7.250406E-07,-1.107045E-07,9.753808E-09,-2.622604E-08
735.8678,-0.1989152,-1.387253E-09,NaN,-0.5859536,-1.326056E-07,NaN,-0.2897226,-5.313614E-07,NaN,-0.9413041,2.117353E-05,0.4286367,8.297669E-08,NaN,NaN,-0.486936,7.450524E-11,7.023908E-07,-1.10705E-07,1.034986E-08,-2.622604E-08
735.8832,-0.1977151,-1.386557E-09,NaN,-0.5859458,-1.326052E-07,NaN,-0.2880831,-5.31905E-07,NaN,-0.9402019,2.117397E-05,0.4274822,8.295525E-08,NaN,NaN,-0.4870134,6.519202E-11,6.833174E-07,-1.10703E-07,1.09459E-08,-2.861022E-08
735.8992,-0.1977151,-1.386557E-09,NaN,-0.5859458,-1.326052E-07,NaN,-0.2880831,-5.31905E-07,NaN,-0.9402019,2.117397E-05,0.4274822,8.295525E-08,NaN,NaN,-0.4870134,6.519202E-11,6.833174E-07,-1.10703E-07,1.09459E-08,-2.861022E-08
735.9139,-0.1966847,-1.385861E-09,NaN,-0.585944,-1.326045E-07,NaN,-0.2864408,-5.324938E-07,NaN,-0.9391769,2.11744E-05,0.42633,8.309223E-08,NaN,NaN,-0.4870892,6.05354E-11,6.690123E-07,-1.107006E-07,1.034986E-08,-2.622604E-08
735.9304,-0.1957634,-1.385166E-09,NaN,-0.585945,-1.326028E-07,NaN,-0.2848227,-5.331184E-07,NaN,-0.938211,2.117482E-05,0.4251884,8.318908E-08,NaN,NaN,-0.4871635,6.519202E-11,6.511308E-07,-1.107004E-07,1.273404E-08,-2.622604E-08
735.9465,-0.195255,-1.38447E-09,NaN,-0.5859613,-1.326011E-07,NaN,-0.2826076,-5.33743E-07,NaN,-0.9372401,2.117524E-05,0.4233384,8.323045E-08,NaN,NaN,-0.4872823,6.984863E-11,6.284811E-07,-1.107006E-07,5.581484E-09,-2.622604E-08
735.9623,-0.1950027,-1.383774E-09,NaN,-0.5859867,-1.325996E-07,NaN,-0.2803342,-5.343676E-07,NaN,-0.9363598,2.117567E-05,0.4214859,8.323126E-08,NaN,NaN,-0.4873987,7.450525E-11,6.070234E-07,-1.107009E-07,4.985438E-09,-2.622604E-08
735.978,-0.1950027,-1.383774E-09,NaN,-0.5859867,-1.325996E-07,NaN,-0.2803342,-5.343676E-07,NaN,-0.9363598,2.117567E-05,0.4214859,8.323126E-08,NaN,NaN,-0.4873987,7.450525E-11,6.070234E-07,-1.107009E-07,4.985438E-09,-2.622604E-08
735.9932,-0.1949091,-1.383078E-09,NaN,-0.5860173,-1.325982E-07,NaN,-0.2780718,-5.349922E-07,NaN,-0.9355552,2.11761E-05,0.4196483,8.320247E-08,NaN,NaN,-0.4875129,7.450525E-11,5.915262E-07,-1.107013E-07,8.561717E-09,-2.622604E-08
736.0095,-0.1949126,-1.382383E-09,NaN,-0.5860508,-1.325969E-07,NaN,-0.2758473,-5.356168E-07,NaN,-0.9348086,2.117653E-05,0.4178334,8.315214E-08,NaN,NaN,-0.4876248,7.450525E-11,5.76029E-07,-1.107017E-07,1.2138E-08,-2.622604E-08
736.0251,-0.1953175,-1.381687E-09,NaN,-0.5860996,-1.325956E-07,NaN,-0.2730365,-5.362414E-07,NaN,-0.934055,2.117695E-05,0.4153202,8.308619E-08,NaN,NaN,-0.4877803,7.916186E-11,5.521871E-07,-1.107022E-07,1.750241E-08,-2.622604E-08
736.0409,-0.1959672,-1.380991E-09,NaN,-0.5861569,-1.325944E-07,NaN,-0.2701811,-5.36866E-07,NaN,-0.9333904,2.11774E-05,0.4128164,8.300893E-08,NaN,NaN,-0.4879329,7.450525E-11,5.331137E-07,-1.107027E-07,1.869451E-08,-2.622604E-08
736.0566,-0.1959672,-1.380991E-09,NaN,-0.5861569,-1.325944E-07,NaN,-0.2701811,-5.36866E-07,NaN,-0.9333904,2.11774E-05,0.4128164,8.300893E-08,NaN,NaN,-0.4879329,7.450525E-11,5.331137E-07,-1.107027E-07,1.869451E-08,-2.622604E-08
736.0723,-0.1967644,-1.380295E-09,NaN,-0.586219,-1.32594E-07,NaN,-0.2673498,-5.374045E-07,NaN,-0.9327999,2.117784E-05,0.4103392,8.298636E-08,NaN,NaN,-0.4880824,6.053541E-11,5.164244E-07,-1.107006E-07,1.929055E-08,-2.861022E-08
736.0883,-0.1976488,-1.379599E-09,NaN,-0.5862835,-1.325934E-07,NaN,-0.2645684,-5.379861E-07,NaN,-0.9322654,2.117826E-05,0.4078963,8.311934E-08,NaN,NaN,-0.4882289,6.053541E-11,5.009272E-07,-1.106982E-07,1.690637E-08,-2.622604E-08
736.1046,-0.1989243,-1.378903E-09,NaN,-0.5863627,-1.325917E-07,NaN,-0.2612104,-5.386035E-07,NaN,-0.9317216,2.11787E-05,0.4047629,8.321195E-08,NaN,NaN,-0.4884185,6.053541E-11,4.806616E-07,-1.106981E-07,1.631032E-08,-2.622604E-08
736.1213,-0.2004345,-1.378207E-09,NaN,-0.5864498,-1.325901E-07,NaN,-0.2578209,-5.392209E-07,NaN,-0.931265,2.117913E-05,0.4016504,8.324888E-08,NaN,NaN,-0.4886043,6.053541E-11,4.639723E-07,-1.106983E-07,1.631032E-08,-2.622604E-08
736.1358,-0.2004345,-1.378207E-09,NaN,-0.5864498,-1.325901E-07,NaN,-0.2578209,-5.392209E-07,NaN,-0.931265,2.117913E-05,0.4016504,8.324888E-08,NaN,NaN,-0.4886043,6.053541E-11,4.639723E-07,-1.106983E-07,1.631032E-08,-2.622604E-08
736.1506,-0.202082,-1.37751E-09,NaN,-0.586541,-1.325886E-07,NaN,-0.2544676,-5.398384E-07,NaN,-0.9308808,2.117957E-05,0.3985756,8.324511E-08,NaN,NaN,-0.4887865,6.053541E-11,4.437067E-07,-1.106986E-07,1.869451E-08,-2.622604E-08
736.1674,-0.2038065,-1.376814E-09,NaN,-0.586634,-1.325872E-07,NaN,-0.251176,-5.404558E-07,NaN,-0.9305509,2.118E-05,0.3955456,8.321166E-08,NaN,NaN,-0.4889651,6.519203E-11,4.305937E-07,-1.10699E-07,1.750241E-08,-2.622604E-08
736.1832,-0.2059121,-1.376117E-09,NaN,-0.5867412,-1.325859E-07,NaN,-0.2473165,-5.410732E-07,NaN,-0.9302095,2.118044E-05,0.3918312,8.315661E-08,NaN,NaN,-0.489186,6.053541E-11,4.127123E-07,-1.106994E-07,1.511823E-08,-2.622604E-08
736.1991,-0.2059121,-1.376117E-09,NaN,-0.5867412,-1.325859E-07,NaN,-0.2473165,-5.410732E-07,NaN,-0.9302095,2.118044E-05,0.3918312,8.315661E-08,NaN,NaN,-0.489186,6.053541E-11,4.127123E-07,-1.106994E-07,1.511823E-08,-2.622604E-08
736.2142,-0.2082423,-1.375421E-09,NaN,-0.5868558,-1.325847E-07,NaN,-0.2434382,-5.416907E-07,NaN,-0.9299533,2.118088E-05,0.3881489,8.308589E-08,NaN,NaN,-0.4894027,6.053541E-11,3.96023E-07,-1.106999E-07,1.154195E-08,-2.622604E-08
736.2308,-0.2107001,-1.374724E-09,NaN,-0.5869738,-1.325835E-07,NaN,-0.2396077,-5.423081E-07,NaN,-0.9297679,2.118132E-05,0.3845146,8.300385E-08,NaN,NaN,-0.489615,6.053541E-11,3.769495E-07,-1.107004E-07,1.2138E-08,-2.622604E-08
736.2463,-0.213225,-1.374027E-09,NaN,-0.5870932,-1.325832E-07,NaN,-0.2358498,-5.428386E-07,NaN,-0.9296352,2.118176E-05,0.3809353,8.297517E-08,NaN,NaN,-0.4898231,4.656557E-11,3.626444E-07,-1.106984E-07,1.511823E-08,-2.861022E-08
736.262,-0.2161215,-1.37333E-09,NaN,-0.5872263,-1.325826E-07,NaN,-0.2315321,-5.434127E-07,NaN,-0.9294884,2.118218E-05,0.3766757,8.310216E-08,NaN,NaN,-0.490073,4.656557E-11,3.423788E-07,-1.10696E-07,1.333009E-08,-2.622604E-08
736.2777,-0.2161215,-1.37333E-09,NaN,-0.5872263,-1.325826E-07,NaN,-0.2315321,-5.434127E-07,NaN,-0.9294884,2.118218E-05,0.3766757,8.310216E-08,NaN,NaN,-0.490073,4.656557E-11,3.423788E-07,-1.10696E-07,1.333009E-08,-2.622604E-08
736.2929,-0.2192332,-1.372633E-09,NaN,-0.5873662,-1.325809E-07,NaN,-0.2272077,-5.440224E-07,NaN,-0.9294251,2.118261E-05,0.3724592,8.318885E-08,NaN,NaN,-0.490318,5.122218E-11,3.233053E-07,-1.106959E-07,1.09459E-08,-2.622604E-08
736.3094,-0.222463,-1.371936E-09,NaN,-0.5875092,-1.325793E-07,NaN,-0.2229419,-5.446321E-07,NaN,-0.9294307,2.118304E-05,0.3683005,8.322009E-08,NaN,NaN,-0.4905582,5.122218E-11,3.078081E-07,-1.106961E-07,1.273404E-08,-2.622604E-08
736.3253,-0.2257506,-1.371239E-09,NaN,-0.5876529,-1.325779E-07,NaN,-0.2187589,-5.452418E-07,NaN,-0.9294873,2.118347E-05,0.3642063,8.321081E-08,NaN,NaN,-0.4907936,5.122218E-11,2.899267E-07,-1.106964E-07,1.09459E-08,-2.622604E-08
736.3414,-0.2294008,-1.370544E-09,NaN,-0.5878099,-1.32578E-07,NaN,-0.2140235,-5.443983E-07,NaN,-0.9295275,2.11839E-05,0.3594347,8.187254E-08,NaN,NaN,-0.4910702,4.656557E-11,2.648927E-07,-1.10695E-07,1.154195E-08,-2.861022E-08
736.3571,-0.2294008,-1.370544E-09,NaN,-0.5878099,-1.32578E-07,NaN,-0.2140235,-5.443983E-07,NaN,-0.9295275,2.11839E-05,0.3594347,8.187254E-08,NaN,NaN,-0.4910702,4.656557E-11,2.648927E-07,-1.10695E-07,1.154195E-08,-2.861022E-08
736.372,-0.2332571,-1.369847E-09,NaN,-0.5879732,-1.325777E-07,NaN,-0.209293,-5.44818E-07,NaN,-0.9296492,2.118433E-05,0.3547168,8.18967E-08,NaN,NaN,-0.4913414,4.190896E-11,2.43435E-07,-1.106929E-07,1.034986E-08,-2.622604E-08
736.3889,-0.2372225,-1.369152E-09,NaN,-0.5881392,-1.325776E-07,NaN,-0.2046312,-5.450809E-07,NaN,-0.9298381,2.118477E-05,0.350066,8.184345E-08,NaN,NaN,-0.4916072,3.259573E-11,2.279378E-07,-1.10693E-07,8.561718E-09,-2.861022E-08
736.4042,-0.241237,-1.368457E-09,NaN,-0.5883055,-1.32578E-07,NaN,-0.2000618,-5.439844E-07,NaN,-0.9300765,2.118522E-05,0.3454887,8.049421E-08,NaN,NaN,-0.4918678,1.862589E-11,2.136327E-07,-1.106937E-07,1.034986E-08,-2.622604E-08
736.42,-0.241237,-1.368457E-09,NaN,-0.5883055,-1.32578E-07,NaN,-0.2000618,-5.439844E-07,NaN,-0.9300765,2.118522E-05,0.3454887,8.049421E-08,NaN,NaN,-0.4918678,1.862589E-11,2.136327E-07,-1.106937E-07,1.034986E-08,-2.622604E-08
736.4351,-0.2456054,-1.367761E-09,NaN,-0.5884847,-1.325784E-07,NaN,-0.1949468,-5.41899E-07,NaN,-0.9302962,2.118566E-05,0.3402357,7.826921E-08,NaN,NaN,-0.4921691,1.862589E-11,1.933671E-07,-1.106956E-07,7.369626E-09,-2.861022E-08
736.4514,-0.2501712,-1.367064E-09,NaN,-0.5886699,-1.32579E-07,NaN,-0.1898476,-5.398136E-07,NaN,-0.9305955,2.11861E-05,0.3350465,7.613059E-08,NaN,NaN,-0.4924645,1.396928E-11,1.754858E-07,-1.106978E-07,9.157765E-09,-2.622604E-08
736.4673,-0.2548377,-1.366366E-09,NaN,-0.5888572,-1.325798E-07,NaN,-0.1848267,-5.377283E-07,NaN,-0.9309602,2.118654E-05,0.3299335,7.405869E-08,NaN,NaN,-0.492754,1.396928E-11,1.611806E-07,-1.107002E-07,9.753812E-09,-2.861022E-08
736.4828,-0.2595448,-1.365669E-09,NaN,-0.5890445,-1.325807E-07,NaN,-0.179907,-5.356429E-07,NaN,-0.9313731,2.118698E-05,0.3249024,7.203904E-08,NaN,NaN,-0.4930378,9.312667E-12,1.409151E-07,-1.107026E-07,7.965673E-09,-2.622604E-08
736.4987,-0.2595448,-1.365669E-09,NaN,-0.5890445,-1.325807E-07,NaN,-0.179907,-5.356429E-07,NaN,-0.9313731,2.118698E-05,0.3249024,7.203904E-08,NaN,NaN,-0.4930378,9.312667E-12,1.409151E-07,-1.107026E-07,7.965673E-09,-2.622604E-08
736.5135,-0.2645977,-1.364971E-09,NaN,-0.5892444,-1.325817E-07,NaN,-0.1744481,-5.335576E-07,NaN,-0.931765,2.118742E-05,0.3191962,7.006101E-08,NaN,NaN,-0.4933618,9.312667E-12,1.170732E-07,-1.107051E-07,4.389394E-09,-2.861022E-08
736.5297,-0.2698398,-1.364274E-09,NaN,-0.5894498,-1.325827E-07,NaN,-0.1690152,-5.314722E-07,NaN,-0.9322346,2.118785E-05,0.3135637,6.811673E-08,NaN,NaN,-0.4936794,1.862589E-11,9.561553E-08,-1.107076E-07,3.793347E-09,-2.622604E-08
736.5458,-0.2751744,-1.363576E-09,NaN,-0.589657,-1.325837E-07,NaN,-0.1636696,-5.293869E-07,NaN,-0.9327683,2.118829E-05,0.308016,6.620046E-08,NaN,NaN,-0.4939908,1.396928E-11,8.011833E-08,-1.107101E-07,2.005208E-09,-2.861022E-08
736.5618,-0.2805416,-1.362878E-09,NaN,-0.5898638,-1.325848E-07,NaN,-0.1584334,-5.273015E-07,NaN,-0.9333485,2.118873E-05,0.3025583,6.430791E-08,NaN,NaN,-0.494296,9.312667E-12,6.462112E-08,-1.107126E-07,4.98544E-09,-2.622604E-08
736.5778,-0.2805416,-1.362878E-09,NaN,-0.5898638,-1.325848E-07,NaN,-0.1584334,-5.273015E-07,NaN,-0.9333485,2.118873E-05,0.3025583,6.430791E-08,NaN,NaN,-0.494296,9.312667E-12,6.462112E-08,-1.107126E-07,4.98544E-09,-2.622604E-08
736.5923,-0.2862467,-1.36218E-09,NaN,-0.590083,-1.325859E-07,NaN,-0.1526637,-5.252161E-07,NaN,-0.933906,2.118917E-05,0.2964253,6.243594E-08,NaN,NaN,-0.494641,1.396928E-11,4.316345E-08,-1.107151E-07,3.197301E-09,-2.861022E-08
736.6086,-0.2921334,-1.361482E-09,NaN,-0.5903074,-1.325869E-07,NaN,-0.1469298,-5.231308E-07,NaN,-0.9345393,2.118961E-05,0.2903754,6.058221E-08,NaN,NaN,-0.4949792,9.312667E-12,2.289787E-08,-1.107176E-07,4.389394E-09,-2.622604E-08
736.6256,-0.2981048,-1.360784E-09,NaN,-0.5905331,-1.32588E-07,NaN,-0.1412914,-5.210454E-07,NaN,-0.9352351,2.119005E-05,0.2844186,5.874499E-08,NaN,NaN,-0.4953107,9.312667E-12,2.48102E-10,-1.107201E-07,1.09459E-08,-2.861022E-08
736.6401,-0.3041012,-1.360086E-09,NaN,-0.5907582,-1.325891E-07,NaN,-0.1357699,-5.189601E-07,NaN,-0.9359763,2.119047E-05,0.2785594,5.692297E-08,NaN,NaN,-0.4956357,1.862589E-11,-1.763329E-08,-1.107227E-07,9.753812E-09,-2.622604E-08
736.6558,-0.3041012,-1.360086E-09,NaN,-0.5907582,-1.325891E-07,NaN,-0.1357699,-5.189601E-07,NaN,-0.9359763,2.119047E-05,0.2785594,5.692297E-08,NaN,NaN,-0.4956357,1.862589E-11,-1.763329E-08,-1.107227E-07,9.753812E-09,-2.622604E-08
736.6711,-0.310428,-1.359388E-09,NaN,-0.5909954,-1.325903E-07,NaN,-0.1297205,-5.168747E-07,NaN,-0.9366929,2.11909E-05,0.272024,5.51152E-08,NaN,NaN,-0.4960001,2.793912E-11,-4.266724E-08,-1.107252E-07,1.034986E-08,-2.861022E-08
736.6874,-0.316929,-1.35869E-09,NaN,-0.5912374,-1.325914E-07,NaN,-0.1237158,-5.147893E-07,NaN,-0.9374837,2.119134E-05,0.2655809,5.332094E-08,NaN,NaN,-0.4963572,2.793912E-11,-6.412491E-08,-1.107278E-07,7.965673E-09,-2.622604E-08
736.7033,-0.3235074,-1.357991E-09,NaN,-0.5914804,-1.325926E-07,NaN,-0.1178143,-5.12704E-07,NaN,-0.9383357,2.119177E-05,0.2592386,5.153963E-08,NaN,NaN,-0.4967073,3.259573E-11,-8.915886E-08,-1.107303E-07,7.369626E-09,-2.861022E-08
736.7188,-0.3235074,-1.357991E-09,NaN,-0.5914804,-1.325926E-07,NaN,-0.1178143,-5.12704E-07,NaN,-0.9383357,2.119177E-05,0.2592386,5.153963E-08,NaN,NaN,-0.4967073,3.259573E-11,-8.915886E-08,-1.107303E-07,7.369626E-09,-2.861022E-08
736.7338,-0.3304458,-1.357293E-09,NaN,-0.5917363,-1.325938E-07,NaN,-0.1113856,-5.106186E-07,NaN,-0.9391761,2.119221E-05,0.2522189,4.977084E-08,NaN,NaN,-0.4970963,3.725234E-11,-1.177691E-07,-1.107329E-07,4.389394E-09,-2.622604E-08
736.7501,-0.3375737,-1.356595E-09,NaN,-0.5919971,-1.32595E-07,NaN,-0.1050115,-5.085333E-07,NaN,-0.9401002,2.119264E-05,0.2452993,4.801423E-08,NaN,NaN,-0.4974776,4.190896E-11,-1.451872E-07,-1.107355E-07,6.177534E-09,-2.861022E-08
736.7657,-0.3447856,-1.355896E-09,NaN,-0.5922589,-1.325962E-07,NaN,-0.09875163,-5.064479E-07,NaN,-0.9410917,2.119308E-05,0.2384884,4.626954E-08,NaN,NaN,-0.4978513,3.725234E-11,-1.690291E-07,-1.107381E-07,6.177534E-09,-2.622604E-08
736.7815,-0.3520164,-1.355198E-09,NaN,-0.5925195,-1.325975E-07,NaN,-0.09262642,-5.043626E-07,NaN,-0.9421314,2.119351E-05,0.2317905,4.453656E-08,NaN,NaN,-0.4982177,4.656557E-11,-1.94063E-07,-1.107407E-07,8.561719E-09,-2.861022E-08
736.7973,-0.3520164,-1.355198E-09,NaN,-0.5925195,-1.325975E-07,NaN,-0.09262642,-5.043626E-07,NaN,-0.9421314,2.119351E-05,0.2317905,4.453656E-08,NaN,NaN,-0.4982177,4.656557E-11,-1.94063E-07,-1.107407E-07,8.561719E-09,-2.861022E-08
736.8127,-0.3595686,-1.354499E-09,NaN,-0.5927917,-1.325987E-07,NaN,-0.08598733,-5.022772E-07,NaN,-0.9431469,2.119394E-05,0.2244158,4.281511E-08,NaN,NaN,-0.4986226,5.587879E-11,-2.286337E-07,-1.107433E-07,4.389394E-09,-2.622604E-08
736.829,-0.3672836,-1.3538E-09,NaN,-0.5930682,-1.326E-07,NaN,-0.07941221,-5.001918E-07,NaN,-0.9442359,2.119438E-05,0.2171512,4.110503E-08,NaN,NaN,-0.4990195,5.587879E-11,-2.536677E-07,-1.10746E-07,2.005208E-09,-2.861022E-08
736.8445,-0.3750636,-1.353102E-09,NaN,-0.5933452,-1.326013E-07,NaN,-0.07295673,-4.981065E-07,NaN,-0.945385,2.119481E-05,0.2100034,3.940621E-08,NaN,NaN,-0.4994086,6.053541E-11,-2.775095E-07,-1.107486E-07,8.131156E-10,-2.622604E-08
736.8604,-0.3828482,-1.352403E-09,NaN,-0.5936207,-1.326026E-07,NaN,-0.06664003,-4.960211E-07,NaN,-0.9465774,2.119525E-05,0.2029757,3.771853E-08,NaN,NaN,-0.49979,6.053541E-11,-3.061198E-07,-1.107513E-07,-3.061186E-09,-2.861022E-08
736.8763,-0.3828482,-1.352403E-09,NaN,-0.5936207,-1.326026E-07,NaN,-0.06664003,-4.960211E-07,NaN,-0.9465774,2.119525E-05,0.2029757,3.771853E-08,NaN,NaN,-0.49979,6.053541E-11,-3.061198E-07,-1.107513E-07,-3.061186E-09,-2.861022E-08
736.8917,-0.3909431,-1.351704E-09,NaN,-0.5939076,-1.326036E-07,NaN,-0.05981203,-4.939358E-07,NaN,-0.9477419,2.119568E-05,0.1952685,3.604189E-08,NaN,NaN,-0.5002096,6.519203E-11,-3.406905E-07,-1.107546E-07,1.111139E-09,-2.622604E-08
736.9081,-0.3991916,-1.351005E-09,NaN,-0.5941985,-1.326045E-07,NaN,-0.05305371,-4.918504E-07,NaN,-0.9489768,2.119612E-05,0.1876794,3.437619E-08,NaN,NaN,-0.500621,6.519203E-11,-3.693007E-07,-1.10758E-07,6.77358E-09,-2.861022E-08
736.924,-0.4074968,-1.350306E-09,NaN,-0.5944897,-1.326055E-07,NaN,-0.04641992,-4.897651E-07,NaN,-0.9502698,2.119655E-05,0.1802142,3.272135E-08,NaN,NaN,-0.5010242,6.984864E-11,-3.973149E-07,-1.107613E-07,4.985441E-09,-2.622604E-08
736.9399,-0.4074968,-1.350306E-09,NaN,-0.5944897,-1.326055E-07,NaN,-0.04641992,-4.897651E-07,NaN,-0.9502698,2.119655E-05,0.1802142,3.272135E-08,NaN,NaN,-0.5010242,6.984864E-11,-3.973149E-07,-1.107613E-07,4.985441E-09,-2.622604E-08
736.9548,-0.4157993,-1.349607E-09,NaN,-0.5947793,-1.326066E-07,NaN,-0.03992935,-4.876797E-07,NaN,-0.9516045,2.119699E-05,0.1728753,3.107728E-08,NaN,NaN,-0.5014194,7.450526E-11,-4.223488E-07,-1.107647E-07,1.034986E-08,-2.861022E-08
736.9714,-0.4244053,-1.348908E-09,NaN,-0.59508,-1.326076E-07,NaN,-0.03293072,-4.855943E-07,NaN,-0.9529104,2.119742E-05,0.1648535,2.944392E-08,NaN,NaN,-0.5018526,7.916187E-11,-4.610918E-07,-1.107681E-07,1.09459E-08,-2.622604E-08
736.9871,-0.4331584,-1.348209E-09,NaN,-0.5953845,-1.326087E-07,NaN,-0.0260078,-4.83509E-07,NaN,-0.9542852,2.119785E-05,0.1569573,2.782117E-08,NaN,NaN,-0.5022773,8.381849E-11,-4.956626E-07,-1.107715E-07,5.283463E-09,-2.861022E-08
737.0031,-0.441962,-1.34751E-09,NaN,-0.5956891,-1.326098E-07,NaN,-0.01921444,-4.814236E-07,NaN,-0.9557172,2.119828E-05,0.1491916,2.620897E-08,NaN,NaN,-0.5026935,8.84751E-11,-5.242728E-07,-1.10775E-07,7.369626E-09,-2.622604E-08
737.019,-0.441962,-1.34751E-09,NaN,-0.5956891,-1.326098E-07,NaN,-0.01921444,-4.814236E-07,NaN,-0.9557172,2.119828E-05,0.1491916,2.620897E-08,NaN,NaN,-0.5026935,8.84751E-11,-5.242728E-07,-1.10775E-07,7.369626E-09,-2.622604E-08
737.034,-0.4507566,-1.34681E-09,NaN,-0.5959919,-1.326109E-07,NaN,-0.01256871,-4.793383E-07,NaN,-0.9571903,2.119871E-05,0.1415583,2.460725E-08,NaN,NaN,-0.5031016,9.313172E-11,-5.540751E-07,-1.107784E-07,3.793347E-09,-2.861022E-08
737.0505,-0.459849,-1.346111E-09,NaN,-0.5963057,-1.32612E-07,NaN,-0.005418132,-4.772529E-07,NaN,-0.958634,2.119914E-05,0.1332381,2.301594E-08,NaN,NaN,-0.5035474,9.778833E-11,-5.928181E-07,-1.107818E-07,1.111138E-09,-2.622604E-08
737.0661,-0.4690826,-1.345412E-09,NaN,-0.5966232,-1.326132E-07,NaN,0.001651044,-4.751676E-07,NaN,-0.9601458,2.119957E-05,0.1250508,2.143496E-08,NaN,NaN,-0.5039843,1.024449E-10,-6.285809E-07,-1.107853E-07,3.197301E-09,-2.861022E-08
737.0817,-0.4783608,-1.344712E-09,NaN,-0.5969405,-1.326143E-07,NaN,0.008585993,-4.730823E-07,NaN,-0.961714,2.12E-05,0.1170004,1.986424E-08,NaN,NaN,-0.5044127,1.071016E-10,-6.631516E-07,-1.107887E-07,5.879509E-09,-2.622604E-08
737.0974,-0.4783608,-1.344712E-09,NaN,-0.5969405,-1.326143E-07,NaN,0.008585993,-4.730823E-07,NaN,-0.961714,2.12E-05,0.1170004,1.986424E-08,NaN,NaN,-0.5044127,1.071016E-10,-6.631516E-07,-1.107887E-07,5.879509E-09,-2.622604E-08
737.1125,-0.4876245,-1.344013E-09,NaN,-0.5972558,-1.326155E-07,NaN,0.01536929,-4.709969E-07,NaN,-0.9633228,2.120044E-05,0.1090884,1.830373E-08,NaN,NaN,-0.5048325,1.071016E-10,-6.94742E-07,-1.107922E-07,6.773579E-09,-2.861022E-08
737.1302,-0.4971804,-1.343314E-09,NaN,-0.597582,-1.326167E-07,NaN,0.02265455,-4.689116E-07,NaN,-0.9649022,2.120088E-05,0.100485,1.675335E-08,NaN,NaN,-0.5052899,1.071016E-10,-7.32889E-07,-1.107956E-07,4.687417E-09,-2.622604E-08
737.1448,-0.5068719,-1.342614E-09,NaN,-0.5979116,-1.326179E-07,NaN,0.02985316,-4.668263E-07,NaN,-0.9665489,2.120132E-05,0.09202152,1.521304E-08,NaN,NaN,-0.5057381,1.024449E-10,-7.722281E-07,-1.107991E-07,1.707185E-09,-2.861022E-08
737.1606,-0.5166028,-1.341914E-09,NaN,-0.5982409,-1.326192E-07,NaN,0.03691332,-4.647409E-07,NaN,-0.9682515,2.120176E-05,0.08370133,1.368273E-08,NaN,NaN,-0.5061776,9.778833E-11,-8.091829E-07,-1.108026E-07,2.899277E-09,-2.622604E-08
737.1765,-0.5166028,-1.341914E-09,NaN,-0.5982409,-1.326192E-07,NaN,0.03691332,-4.647409E-07,NaN,-0.9682515,2.120176E-05,0.08370133,1.368273E-08,NaN,NaN,-0.5061776,9.778833E-11,-8.091829E-07,-1.108026E-07,2.899277E-09,-2.622604E-08
737.1913,-0.5263135,-1.341215E-09,NaN,-0.5985681,-1.326204E-07,NaN,0.04381825,-4.626556E-07,NaN,-0.9699942,2.12022E-05,0.07552506,1.216235E-08,NaN,NaN,-0.5066084,9.313172E-11,-8.443497E-07,-1.10806E-07,1.707185E-09,-2.861022E-08
737.2077,-0.5363113,-1.340515E-09,NaN,-0.598906,-1.326217E-07,NaN,0.0512226,-4.605703E-07,NaN,-0.9717081,2.120264E-05,0.06665266,1.065185E-08,NaN,NaN,-0.5070764,9.778833E-11,-8.884571E-07,-1.108095E-07,-2.465141E-09,-2.622604E-08
737.2231,-0.5464396,-1.339815E-09,NaN,-0.5992473,-1.32623E-07,NaN,0.05853551,-4.584849E-07,NaN,-0.9734886,2.120307E-05,0.05792718,9.151151E-09,NaN,NaN,-0.5075352,1.024449E-10,-9.260081E-07,-1.10813E-07,-4.25328E-09,-2.861022E-08
737.2393,-0.5464396,-1.339815E-09,NaN,-0.5992473,-1.32623E-07,NaN,0.05853551,-4.584849E-07,NaN,-0.9734886,2.120307E-05,0.05792718,9.151151E-09,NaN,NaN,-0.5075352,1.024449E-10,-9.260081E-07,-1.10813E-07,-4.25328E-09,-2.861022E-08
737.2538,-0.5566018,-1.339115E-09,NaN,-0.599588,-1.326243E-07,NaN,0.06570619,-4.563996E-07,NaN,-0.9753244,2.12035E-05,0.04935106,7.660197E-09,NaN,NaN,-0.5079849,1.071016E-10,-9.653471E-07,-1.108165E-07,-1.869094E-09,-2.622604E-08
737.2705,-0.5667388,-1.338415E-09,NaN,-0.5999264,-1.326256E-07,NaN,0.07271846,-4.543143E-07,NaN,-0.9772002,2.120393E-05,0.04092438,6.178923E-09,NaN,NaN,-0.5084258,1.164148E-10,-1.002898E-06,-1.1082E-07,-1.04953E-09,-2.861022E-08
737.2863,-0.577158,-1.337715E-09,NaN,-0.6002755,-1.326269E-07,NaN,0.08022793,-4.52229E-07,NaN,-0.9790478,2.120436E-05,0.03179648,4.707266E-09,NaN,NaN,-0.5089038,1.25728E-10,-1.047601E-06,-1.108235E-07,-5.296361E-09,-2.622604E-08
737.3024,-0.5877026,-1.337015E-09,NaN,-0.6006277,-1.326283E-07,NaN,0.0876416,-4.501436E-07,NaN,-0.9809614,2.120479E-05,0.02282236,3.245164E-09,NaN,NaN,-0.5093724,1.350412E-10,-1.090517E-06,-1.108271E-07,1.222897E-09,-2.861022E-08
737.318,-0.5877026,-1.337015E-09,NaN,-0.6006277,-1.326283E-07,NaN,0.0876416,-4.501436E-07,NaN,-0.9809614,2.120479E-05,0.02282236,3.245164E-09,NaN,NaN,-0.5093724,1.350412E-10,-1.090517E-06,-1.108271E-07,1.222897E-09,-2.861022E-08
737.3328,-0.5982762,-1.336315E-09,NaN,-0.6009793,-1.326297E-07,NaN,0.09490964,-4.480583E-07,NaN,-0.9829302,2.120522E-05,0.0140036,1.792553E-09,NaN,NaN,-0.5098317,1.396979E-10,-1.130452E-06,-1.108306E-07,7.75862E-10,-2.622604E-08
737.3493,-0.6088197,-1.335614E-09,NaN,-0.6013284,-1.32631E-07,NaN,0.1020165,-4.45973E-07,NaN,-0.9849386,2.120566E-05,0.005339656,3.493741E-10,NaN,NaN,-0.5102819,1.396979E-10,-1.171579E-06,-1.108341E-07,-2.120551E-09,-2.861022E-08
737.3651,-0.6196405,-1.334914E-09,NaN,-0.6016881,-1.326324E-07,NaN,0.1096186,-4.438876E-07,NaN,-0.9869201,2.120609E-05,-0.0040309,-1.084436E-09,NaN,NaN,-0.5107691,1.443545E-10,-1.225223E-06,-1.108376E-07,-5.473312E-09,-2.622604E-08
737.3809,-0.630582,-1.334214E-09,NaN,-0.6020507,-1.326339E-07,NaN,0.117121,-4.418023E-07,NaN,-0.9889672,2.120653E-05,-0.01324097,-2.508937E-09,NaN,NaN,-0.5112467,1.490111E-10,-1.271119E-06,-1.108412E-07,-4.057702E-09,-2.861022E-08
737.3966,-0.630582,-1.334214E-09,NaN,-0.6020507,-1.326339E-07,NaN,0.117121,-4.418023E-07,NaN,-0.9889672,2.120653E-05,-0.01324097,-2.508937E-09,NaN,NaN,-0.5112467,1.490111E-10,-1.271119E-06,-1.108412E-07,-4.057702E-09,-2.861022E-08
737.4121,-0.6415479,-1.333513E-09,NaN,-0.6024125,-1.326353E-07,NaN,0.1244748,-4.39717E-07,NaN,-0.9910691,2.120696E-05,-0.02228985,-3.92419E-09,NaN,NaN,-0.5117148,1.536677E-10,-1.313438E-06,-1.108447E-07,-9.42212E-09,-2.622604E-08
737.4283,-0.6524788,-1.332813E-09,NaN,-0.6027718,-1.326367E-07,NaN,0.131665,-4.376317E-07,NaN,-0.9932106,2.120739E-05,-0.03117863,-5.330255E-09,NaN,NaN,-0.5121738,1.583243E-10,-1.357546E-06,-1.108483E-07,-8.826073E-09,-2.861022E-08
737.4438,-0.6636827,-1.332112E-09,NaN,-0.6031416,-1.326382E-07,NaN,0.1393488,-4.355463E-07,NaN,-0.9953265,2.120783E-05,-0.04077969,-6.727192E-09,NaN,NaN,-0.5126695,1.629809E-10,-1.407017E-06,-1.108518E-07,-4.206713E-09,-2.622604E-08
737.4594,-0.6636827,-1.332112E-09,NaN,-0.6031416,-1.326382E-07,NaN,0.1393488,-4.355463E-07,NaN,-0.9953265,2.120783E-05,-0.04077969,-6.727192E-09,NaN,NaN,-0.5126695,1.629809E-10,-1.407017E-06,-1.108518E-07,-4.206713E-09,-2.622604E-08
737.4744,-0.6750027,-1.331411E-09,NaN,-0.6035142,-1.326397E-07,NaN,0.1469293,-4.33461E-07,NaN,-0.9975079,2.120827E-05,-0.05021365,-8.115059E-09,NaN,NaN,-0.5131554,1.629809E-10,-1.460066E-06,-1.108554E-07,-7.633981E-09,-2.861022E-08
737.4908,-0.6863424,-1.330711E-09,NaN,-0.6038858,-1.326412E-07,NaN,0.1543585,-4.313757E-07,NaN,-0.9997438,2.12087E-05,-0.05948065,-9.493916E-09,NaN,NaN,-0.5136318,1.676375E-10,-1.507749E-06,-1.108589E-07,-3.438849E-11,-2.622604E-08
737.5068,-0.6976428,-1.33001E-09,NaN,-0.6042548,-1.326427E-07,NaN,0.161622,-4.292903E-07,NaN,-1.002019,2.120913E-05,-0.06858242,-1.086382E-08,NaN,NaN,-0.5140988,1.722941E-10,-1.554837E-06,-1.108625E-07,3.094855E-09,-2.861022E-08
737.5225,-0.7092119,-1.329309E-09,NaN,-0.6046342,-1.326442E-07,NaN,0.1693777,-4.27205E-07,NaN,-1.004271,2.120956E-05,-0.07840233,-1.222483E-08,NaN,NaN,-0.5146024,1.816073E-10,-1.612653E-06,-1.108661E-07,1.902762E-09,-2.622604E-08
737.5385,-0.7092119,-1.329309E-09,NaN,-0.6046342,-1.326442E-07,NaN,0.1693777,-4.27205E-07,NaN,-1.004271,2.120956E-05,-0.07840233,-1.222483E-08,NaN,NaN,-0.5146024,1.816073E-10,-1.612653E-06,-1.108661E-07,1.902762E-09,-2.622604E-08
737.5529,-0.7208928,-1.328608E-09,NaN,-0.6050163,-1.326457E-07,NaN,0.1770269,-4.251197E-07,NaN,-1.006588,2.120999E-05,-0.08804857,-1.357701E-08,NaN,NaN,-0.5150961,1.862639E-10,-1.668682E-06,-1.108697E-07,-1.375493E-09,-2.861022E-08
737.5695,-0.7325891,-1.327908E-09,NaN,-0.6053972,-1.326473E-07,NaN,0.1845225,-4.230344E-07,NaN,-1.008959,2.121043E-05,-0.0975222,-1.49204E-08,NaN,NaN,-0.5155801,1.909206E-10,-1.721134E-06,-1.108732E-07,-5.249795E-09,-2.622604E-08
737.5851,-0.7442418,-1.327207E-09,NaN,-0.6057755,-1.326489E-07,NaN,0.1918506,-4.20949E-07,NaN,-1.01137,2.121087E-05,-0.1068255,-1.625508E-08,NaN,NaN,-0.5160546,1.816073E-10,-1.771798E-06,-1.108768E-07,-2.269563E-09,-2.861022E-08
737.6012,-0.7561591,-1.326506E-09,NaN,-0.606164,-1.326504E-07,NaN,0.1996697,-4.188637E-07,NaN,-1.013759,2.121131E-05,-0.116853,-1.758109E-08,NaN,NaN,-0.5165656,1.769507E-10,-1.835575E-06,-1.108804E-07,7.106693E-10,-2.622604E-08
737.6172,-0.7561591,-1.326506E-09,NaN,-0.606164,-1.326504E-07,NaN,0.1996697,-4.188637E-07,NaN,-1.013759,2.121131E-05,-0.116853,-1.758109E-08,NaN,NaN,-0.5165656,1.769507E-10,-1.835575E-06,-1.108804E-07,7.106693E-10,-2.622604E-08
737.6336,-0.7681841,-1.325805E-09,NaN,-0.6065551,-1.32652E-07,NaN,0.2073793,-4.167784E-07,NaN,-1.016213,2.121175E-05,-0.1267003,-1.889849E-08,NaN,NaN,-0.5170665,1.676375E-10,-1.891603E-06,-1.10884E-07,3.392878E-09,-2.861022E-08
737.6486,-0.7802203,-1.325104E-09,NaN,-0.606945,-1.326536E-07,NaN,0.2149333,-4.14693E-07,NaN,-1.018722,2.121218E-05,-0.1363694,-2.020734E-08,NaN,NaN,-0.5175576,1.676375E-10,-1.944055E-06,-1.108876E-07,2.200785E-09,-2.622604E-08
737.6644,-0.7922089,-1.324402E-09,NaN,-0.6073321,-1.326552E-07,NaN,0.2223183,-4.126077E-07,NaN,-1.021269,2.121262E-05,-0.1458632,-2.150769E-08,NaN,NaN,-0.518039,1.536676E-10,-1.992931E-06,-1.108912E-07,-1.375493E-09,-2.861022E-08
737.6802,-0.8044582,-1.323701E-09,NaN,-0.6077294,-1.326569E-07,NaN,0.2301931,-4.105224E-07,NaN,-1.023798,2.121306E-05,-0.1560874,-2.27996E-08,NaN,NaN,-0.5185569,1.49011E-10,-2.057304E-06,-1.108948E-07,-5.845841E-09,-2.622604E-08
737.6961,-0.8044582,-1.323701E-09,NaN,-0.6077294,-1.326569E-07,NaN,0.2301931,-4.105224E-07,NaN,-1.023798,2.121306E-05,-0.1560874,-2.27996E-08,NaN,NaN,-0.5185569,1.49011E-10,-2.057304E-06,-1.108948E-07,-5.845841E-09,-2.622604E-08
737.7111,-0.8168113,-1.323E-09,NaN,-0.6081291,-1.326585E-07,NaN,0.2379559,-4.08437E-07,NaN,-1.026392,2.121349E-05,-0.1661249,-2.408312E-08,NaN,NaN,-0.5190645,1.49011E-10,-2.119293E-06,-1.108984E-07,1.14623E-10,-2.861022E-08
737.7275,-0.8291718,-1.322298E-09,NaN,-0.6085275,-1.326601E-07,NaN,0.2455614,-4.063517E-07,NaN,-1.02904,2.121393E-05,-0.1759787,-2.535831E-08,NaN,NaN,-0.5195622,1.350412E-10,-2.172937E-06,-1.10902E-07,-2.865609E-09,-2.622604E-08
737.7433,-0.8414806,-1.321597E-09,NaN,-0.608923,-1.326618E-07,NaN,0.2529966,-4.042664E-07,NaN,-1.031726,2.121437E-05,-0.1856522,-2.662522E-08,NaN,NaN,-0.5200502,1.210714E-10,-2.231946E-06,-1.109056E-07,-3.461655E-09,-2.861022E-08
737.7593,-0.8414806,-1.321597E-09,NaN,-0.608923,-1.326618E-07,NaN,0.2529966,-4.042664E-07,NaN,-1.031726,2.121437E-05,-0.1856522,-2.662522E-08,NaN,NaN,-0.5200502,1.210714E-10,-2.231946E-06,-1.109056E-07,-3.461655E-09,-2.861022E-08
737.7745,-0.8540465,-1.320896E-09,NaN,-0.6093286,-1.326637E-07,NaN,0.2609206,-4.049233E-07,NaN,-1.034397,2.12148E-05,-0.1960624,-2.53132E-08,NaN,NaN,-0.5205745,1.164147E-10,-2.295127E-06,-1.109059E-07,-1.061421E-08,-2.622604E-08
737.7907,-0.8667125,-1.320194E-09,NaN,-0.6097366,-1.326651E-07,NaN,0.2687303,-4.050033E-07,NaN,-1.037133,2.121523E-05,-0.2062794,-2.470885E-08,NaN,NaN,-0.5210884,1.117581E-10,-2.358308E-06,-1.109066E-07,-9.42212E-09,-2.861022E-08
737.8065,-0.8793821,-1.319491E-09,NaN,-0.6101432,-1.326664E-07,NaN,0.2763812,-4.050945E-07,NaN,-1.039923,2.121566E-05,-0.2163073,-2.419786E-08,NaN,NaN,-0.5215922,1.071015E-10,-2.416124E-06,-1.109072E-07,-1.29984E-08,-2.622604E-08
737.8218,-0.8919963,-1.318789E-09,NaN,-0.6105468,-1.326676E-07,NaN,0.2838607,-4.052764E-07,NaN,-1.042751,2.12161E-05,-0.2261499,-2.367999E-08,NaN,NaN,-0.5220862,1.024449E-10,-2.476325E-06,-1.109079E-07,-9.42212E-09,-2.861022E-08
737.8381,-0.8919963,-1.318789E-09,NaN,-0.6105468,-1.326676E-07,NaN,0.2838607,-4.052764E-07,NaN,-1.042751,2.12161E-05,-0.2261499,-2.367999E-08,NaN,NaN,-0.5220862,1.024449E-10,-2.476325E-06,-1.109079E-07,-9.42212E-09,-2.861022E-08
737.8528,-0.9048641,-1.318087E-09,NaN,-0.6109605,-1.326679E-07,NaN,0.291828,-4.046019E-07,NaN,-1.045566,2.121653E-05,-0.2367357,-2.400902E-08,NaN,NaN,-0.5226164,9.778828E-11,-2.546658E-06,-1.109102E-07,-9.42212E-09,-2.622604E-08
737.8696,-0.9178284,-1.317385E-09,NaN,-0.6113764,-1.32669E-07,NaN,0.2996791,-4.058788E-07,NaN,-1.048447,2.121695E-05,-0.2471219,-2.245536E-08,NaN,NaN,-0.5231362,1.024449E-10,-2.61282E-06,-1.109098E-07,-1.001817E-08,-2.861022E-08
737.8855,-0.9307927,-1.316684E-09,NaN,-0.6117908,-1.326698E-07,NaN,0.3073701,-4.059618E-07,NaN,-1.051381,2.121738E-05,-0.2573133,-2.215075E-08,NaN,NaN,-0.5236458,9.313168E-11,-2.676001E-06,-1.109102E-07,-2.86561E-09,-2.622604E-08
737.9039,-0.9436981,-1.315983E-09,NaN,-0.6122021,-1.326708E-07,NaN,0.3148887,-4.060348E-07,NaN,-1.054353,2.121781E-05,-0.2673148,-2.190013E-08,NaN,NaN,-0.5241455,8.381845E-11,-2.739182E-06,-1.109106E-07,-3.461656E-09,-2.622604E-08
737.9169,-0.9436981,-1.315983E-09,NaN,-0.6122021,-1.326708E-07,NaN,0.3148887,-4.060348E-07,NaN,-1.054353,2.121781E-05,-0.2673148,-2.190013E-08,NaN,NaN,-0.5241455,8.381845E-11,-2.739182E-06,-1.109106E-07,-3.461656E-09,-2.622604E-08
737.9318,-0.9568539,-1.315282E-09,NaN,-0.6126235,-1.326718E-07,NaN,0.3228943,-4.061127E-07,NaN,-1.057316,2.121824E-05,-0.2780658,-2.167989E-08,NaN,NaN,-0.5246813,7.450523E-11,-2.812495E-06,-1.109111E-07,-6.441888E-09,-2.622604E-08
737.9485,-0.9701027,-1.314581E-09,NaN,-0.613047,-1.326729E-07,NaN,0.3307819,-4.062032E-07,NaN,-1.060344,2.121866E-05,-0.2886108,-2.14753E-08,NaN,NaN,-0.5252066,6.984861E-11,-2.880445E-06,-1.109116E-07,-3.461656E-09,-2.622604E-08
737.9641,-0.983348,-1.313879E-09,NaN,-0.6134689,-1.326739E-07,NaN,0.3385083,-4.063036E-07,NaN,-1.063424,2.121908E-05,-0.2989556,-2.128325E-08,NaN,NaN,-0.5257215,6.053539E-11,-2.946606E-06,-1.109121E-07,-4.057702E-09,-2.622604E-08
737.98,-0.996531,-1.313178E-09,NaN,-0.6138876,-1.32675E-07,NaN,0.3460616,-4.064155E-07,NaN,-1.066543,2.12195E-05,-0.3091056,-2.109785E-08,NaN,NaN,-0.5262265,5.122217E-11,-3.012767E-06,-1.109127E-07,-4.653748E-09,-2.622604E-08
737.996,-0.996531,-1.313178E-09,NaN,-0.6138876,-1.32675E-07,NaN,0.3460616,-4.064155E-07,NaN,-1.066543,2.12195E-05,-0.3091056,-2.109785E-08,NaN,NaN,-0.5262265,5.122217E-11,-3.012767E-06,-1.109127E-07,-4.653748E-09,-2.622604E-08
738.0107,-1.009961,-1.312477E-09,NaN,-0.6143164,-1.326761E-07,NaN,0.3541009,-4.065353E-07,NaN,-1.069656,2.121993E-05,-0.3200116,-2.091896E-08,NaN,NaN,-0.5267675,4.190894E-11,-3.090253E-06,-1.109132E-07,7.106693E-10,-2.622604E-08
738.0275,-1.023481,-1.311776E-09,NaN,-0.6147472,-1.326772E-07,NaN,0.3620206,-4.066631E-07,NaN,-1.072834,2.122035E-05,-0.3307052,-2.074365E-08,NaN,NaN,-0.5272979,3.259572E-11,-3.158202E-06,-1.109138E-07,3.094855E-09,-2.622604E-08
738.043,-1.036995,-1.311075E-09,NaN,-0.6151763,-1.326783E-07,NaN,0.3697783,-4.067966E-07,NaN,-1.076064,2.122077E-05,-0.3411932,-2.057183E-08,NaN,NaN,-0.5278178,2.328249E-11,-3.224363E-06,-1.109143E-07,3.094855E-09,-2.622604E-08
738.0588,-1.036995,-1.311075E-09,NaN,-0.6151763,-1.326783E-07,NaN,0.3697783,-4.067966E-07,NaN,-1.076064,2.122077E-05,-0.3411932,-2.057183E-08,NaN,NaN,-0.5278178,2.328249E-11,-3.224363E-06,-1.109143E-07,3.094855E-09,-2.622604E-08
738.074,-1.050788,-1.310374E-09,NaN,-0.6156158,-1.326794E-07,NaN,0.3780206,-4.069341E-07,NaN,-1.079304,2.12212E-05,-0.3524359,-2.040344E-08,NaN,NaN,-0.5283737,1.396927E-11,-3.302446E-06,-1.109149E-07,3.094855E-09,-2.622604E-08
738.0903,-1.064689,-1.309673E-09,NaN,-0.6160575,-1.326805E-07,NaN,0.3861375,-4.070742E-07,NaN,-1.082618,2.122162E-05,-0.3634562,-2.023842E-08,NaN,NaN,-0.5289185,9.312654E-12,-3.376355E-06,-1.109154E-07,1.902762E-09,-2.622604E-08
738.1064,-1.078593,-1.308972E-09,NaN,-0.6164972,-1.326816E-07,NaN,0.3940861,-4.072157E-07,NaN,-1.085991,2.122203E-05,-0.3742621,-2.007669E-08,NaN,NaN,-0.5294527,9.312654E-12,-3.445199E-06,-1.10916E-07,3.094855E-09,-2.622604E-08
738.1219,-1.092436,-1.308271E-09,NaN,-0.6169334,-1.326827E-07,NaN,0.4018551,-4.073605E-07,NaN,-1.089406,2.122245E-05,-0.3848603,-1.991537E-08,NaN,NaN,-0.5299764,9.312654E-12,-3.508678E-06,-1.109165E-07,6.671134E-09,-2.622604E-08
738.138,-1.092436,-1.308271E-09,NaN,-0.6169334,-1.326827E-07,NaN,0.4018551,-4.073605E-07,NaN,-1.089406,2.122245E-05,-0.3848603,-1.991537E-08,NaN,NaN,-0.5299764,9.312654E-12,-3.508678E-06,-1.109165E-07,6.671134E-09,-2.622604E-08
738.1544,-1.106524,-1.30757E-09,NaN,-0.6173794,-1.326838E-07,NaN,0.4101032,-4.075052E-07,NaN,-1.092826,2.122286E-05,-0.3962217,-1.975727E-08,NaN,NaN,-0.5305361,9.312654E-12,-3.58825E-06,-1.109171E-07,9.05532E-09,-2.622604E-08
738.1692,-1.120696,-1.306869E-09,NaN,-0.6178272,-1.326848E-07,NaN,0.4182251,-4.076491E-07,NaN,-1.096312,2.122328E-05,-0.4073558,-1.960234E-08,NaN,NaN,-0.5310847,9.312654E-12,-3.66365E-06,-1.109176E-07,1.143951E-08,-2.622604E-08
738.1849,-1.134857,-1.306168E-09,NaN,-0.618273,-1.326859E-07,NaN,0.4261798,-4.077947E-07,NaN,-1.099851,2.122369E-05,-0.4182711,-1.944767E-08,NaN,NaN,-0.5316225,9.312654E-12,-3.734877E-06,-1.109181E-07,2.097625E-08,-2.622604E-08
738.2008,-1.148945,-1.305467E-09,NaN,-0.6187153,-1.32687E-07,NaN,0.4339564,-4.079388E-07,NaN,-1.103426,2.12241E-05,-0.4289745,-1.92961E-08,NaN,NaN,-0.5321498,9.312654E-12,-3.801038E-06,-1.109187E-07,2.097625E-08,-2.622604E-08
738.2167,-1.148945,-1.305467E-09,NaN,-0.6187153,-1.32687E-07,NaN,0.4339564,-4.079388E-07,NaN,-1.103426,2.12241E-05,-0.4289745,-1.92961E-08,NaN,NaN,-0.5321498,9.312654E-12,-3.801038E-06,-1.109187E-07,2.097625E-08,-2.622604E-08
738.2322,-1.151507,-1.304767E-09,NaN,-0.6187062,-1.326881E-07,NaN,0.4199118,-4.08081E-07,NaN,-1.107576,2.122452E-05,-0.4072794,-1.914756E-08,NaN,NaN,-0.5311456,9.312654E-12,-3.345063E-06,-1.109192E-07,1.024741E-08,-2.622604E-08
738.2483,-1.147011,-1.304066E-09,NaN,-0.6184717,-1.326891E-07,NaN,0.4040726,-4.082241E-07,NaN,-1.110366,2.122493E-05,-0.3866529,-1.899917E-08,NaN,NaN,-0.5301668,9.312654E-12,-2.980282E-06,-1.109197E-07,1.024741E-08,-2.622604E-08
738.2639,-1.138218,-1.303365E-09,NaN,-0.618107,-1.326902E-07,NaN,0.3879322,-4.083651E-07,NaN,-1.111873,2.122535E-05,-0.3669198,-1.885375E-08,NaN,NaN,-0.5292099,9.312654E-12,-2.686432E-06,-1.109203E-07,1.143951E-08,-2.622604E-08
738.2796,-1.138218,-1.303365E-09,NaN,-0.618107,-1.326902E-07,NaN,0.3879322,-4.083651E-07,NaN,-1.111873,2.122535E-05,-0.3669198,-1.885375E-08,NaN,NaN,-0.5292099,9.312654E-12,-2.686432E-06,-1.109203E-07,1.143951E-08,-2.622604E-08
738.2946,-1.126839,-1.302665E-09,NaN,-0.6176649,-1.326913E-07,NaN,0.3720423,-4.085038E-07,NaN,-1.112348,2.122576E-05,-0.3479084,-1.871124E-08,NaN,NaN,-0.5282731,9.312654E-12,-2.448609E-06,-1.109208E-07,9.05532E-09,-2.622604E-08
738.3111,-1.11428,-1.301964E-09,NaN,-0.6171901,-1.326923E-07,NaN,0.3572141,-4.086401E-07,NaN,-1.112035,2.122618E-05,-0.3304544,-1.857159E-08,NaN,NaN,-0.5274014,9.312654E-12,-2.25549E-06,-1.109213E-07,9.05532E-09,-2.622604E-08
738.3269,-1.101059,-1.301264E-09,NaN,-0.6166964,-1.326934E-07,NaN,0.342894,-4.087768E-07,NaN,-1.111226,2.122659E-05,-0.3134765,-1.843191E-08,NaN,NaN,-0.5265471,9.312654E-12,-2.080252E-06,-1.109219E-07,3.094856E-09,-2.622604E-08
738.3424,-1.087495,-1.300564E-09,NaN,-0.6161931,-1.326944E-07,NaN,0.3290022,-4.089111E-07,NaN,-1.110091,2.122701E-05,-0.2969285,-1.829503E-08,NaN,NaN,-0.5257096,9.312654E-12,-1.919916E-06,-1.109224E-07,5.479042E-09,-2.622604E-08
738.3584,-1.087495,-1.300564E-09,NaN,-0.6161931,-1.326944E-07,NaN,0.3290022,-4.089111E-07,NaN,-1.110091,2.122701E-05,-0.2969285,-1.829503E-08,NaN,NaN,-0.5257096,9.312654E-12,-1.919916E-06,-1.109224E-07,5.479042E-09,-2.622604E-08
738.3735,-1.073785,-1.299863E-09,NaN,-0.6156861,-1.326951E-07,NaN,0.3154821,-4.105099E-07,NaN,-1.108745,2.122742E-05,-0.2807786,-1.669383E-08,NaN,NaN,-0.5248886,9.312654E-12,-1.77299E-06,-1.109236E-07,-4.814225E-10,-2.622604E-08
738.3898,-1.060394,-1.299163E-09,NaN,-0.6151929,-1.326956E-07,NaN,0.3029293,-4.111691E-07,NaN,-1.107233,2.122784E-05,-0.2659431,-1.603246E-08,NaN,NaN,-0.5241299,9.312654E-12,-1.646033E-06,-1.109234E-07,7.863228E-09,-2.861022E-08
738.4055,-1.04726,-1.298464E-09,NaN,-0.6147111,-1.326957E-07,NaN,0.2907506,-4.119622E-07,NaN,-1.105678,2.122825E-05,-0.2514259,-1.523742E-08,NaN,NaN,-0.5233859,9.312654E-12,-1.525631E-06,-1.10923E-07,9.055321E-09,-2.622604E-08
738.4212,-1.034343,-1.297764E-09,NaN,-0.6142389,-1.326955E-07,NaN,0.2788697,-4.128215E-07,NaN,-1.10411,2.122867E-05,-0.2372219,-1.437623E-08,NaN,NaN,-0.5226566,9.312654E-12,-1.409998E-06,-1.109223E-07,4.286949E-09,-2.861022E-08
738.4371,-1.034343,-1.297764E-09,NaN,-0.6142389,-1.326955E-07,NaN,0.2788697,-4.128215E-07,NaN,-1.10411,2.122867E-05,-0.2372219,-1.437623E-08,NaN,NaN,-0.5226566,9.312654E-12,-1.409998E-06,-1.109223E-07,4.286949E-09,-2.861022E-08
738.452,-1.021619,-1.297064E-09,NaN,-0.6137753,-1.326952E-07,NaN,0.2672504,-4.137091E-07,NaN,-1.10254,2.122908E-05,-0.2233252,-1.348686E-08,NaN,NaN,-0.5219415,9.312654E-12,-1.293769E-06,-1.109216E-07,7.106709E-10,-2.622604E-08
738.4686,-1.009416,-1.296365E-09,NaN,-0.613333,-1.326948E-07,NaN,0.2565058,-4.146075E-07,NaN,-1.100933,2.12295E-05,-0.2106532,-1.258679E-08,NaN,NaN,-0.5212866,9.312654E-12,-1.198998E-06,-1.109208E-07,4.286949E-09,-2.861022E-08
738.4844,-0.9975876,-1.295665E-09,NaN,-0.6129067,-1.326944E-07,NaN,0.2460653,-4.155023E-07,NaN,-1.099373,2.122991E-05,-0.1982382,-1.169034E-08,NaN,NaN,-0.5206444,9.312654E-12,-1.10661E-06,-1.109199E-07,-4.81422E-10,-2.622604E-08
738.5002,-0.9860424,-1.294966E-09,NaN,-0.6124924,-1.326939E-07,NaN,0.2358648,-4.16388E-07,NaN,-1.097854,2.123033E-05,-0.1860813,-1.080308E-08,NaN,NaN,-0.5200147,9.312654E-12,-1.013627E-06,-1.109191E-07,5.479042E-09,-2.861022E-08
738.5158,-0.9860424,-1.294966E-09,NaN,-0.6124924,-1.326939E-07,NaN,0.2358648,-4.16388E-07,NaN,-1.097854,2.123033E-05,-0.1860813,-1.080308E-08,NaN,NaN,-0.5200147,9.312654E-12,-1.013627E-06,-1.109191E-07,5.479042E-09,-2.861022E-08
738.5303,-0.9747234,-1.294266E-09,NaN,-0.612088,-1.326934E-07,NaN,0.2258765,-4.172619E-07,NaN,-1.09637,2.123074E-05,-0.1741806,-9.927645E-09,NaN,NaN,-0.5193974,1.396927E-11,-9.230281E-07,-1.109182E-07,5.479042E-09,-2.622604E-08
738.5473,-0.9639398,-1.293567E-09,NaN,-0.6117055,-1.326929E-07,NaN,0.2167166,-4.181186E-07,NaN,-1.094866,2.123115E-05,-0.1634427,-9.069453E-09,NaN,NaN,-0.5188382,1.396927E-11,-8.520986E-07,-1.109174E-07,7.863228E-09,-2.861022E-08
738.5629,-0.9535328,-1.292868E-09,NaN,-0.6113387,-1.326924E-07,NaN,0.207823,-4.189613E-07,NaN,-1.093421,2.123156E-05,-0.1529181,-8.225338E-09,NaN,NaN,-0.5182899,1.396927E-11,-7.80573E-07,-1.109165E-07,3.094857E-09,-2.622604E-08
738.5789,-0.9535328,-1.292868E-09,NaN,-0.6113387,-1.326924E-07,NaN,0.207823,-4.189613E-07,NaN,-1.093421,2.123156E-05,-0.1529181,-8.225338E-09,NaN,NaN,-0.5182899,1.396927E-11,-7.80573E-07,-1.109165E-07,3.094857E-09,-2.622604E-08
738.5938,-0.9434039,-1.292169E-09,NaN,-0.6109836,-1.32692E-07,NaN,0.1991339,-4.197873E-07,NaN,-1.092028,2.123198E-05,-0.1426089,-7.397849E-09,NaN,NaN,-0.5177522,1.396927E-11,-7.078553E-07,-1.109156E-07,9.055321E-09,-2.861022E-08
738.6103,-0.9334915,-1.29147E-09,NaN,-0.6106377,-1.326914E-07,NaN,0.1906233,-4.205942E-07,NaN,-1.090673,2.123239E-05,-0.1325138,-6.589487E-09,NaN,NaN,-0.5172251,1.396927E-11,-6.363298E-07,-1.109148E-07,1.902764E-09,-2.622604E-08
738.6261,-0.9241019,-1.290771E-09,NaN,-0.6103131,-1.326909E-07,NaN,0.182907,-4.213853E-07,NaN,-1.089298,2.123281E-05,-0.1235292,-5.797047E-09,NaN,NaN,-0.5167543,1.396927E-11,-5.832816E-07,-1.109139E-07,3.094857E-09,-2.861022E-08
738.6417,-0.9150751,-1.290072E-09,NaN,-0.6100033,-1.326904E-07,NaN,0.175427,-4.221607E-07,NaN,-1.087985,2.123322E-05,-0.1147203,-5.020219E-09,NaN,NaN,-0.5162926,1.396927E-11,-5.272533E-07,-1.109131E-07,-4.81422E-10,-2.622604E-08
738.6588,-0.9150751,-1.290072E-09,NaN,-0.6100033,-1.326904E-07,NaN,0.175427,-4.221607E-07,NaN,-1.087985,2.123322E-05,-0.1147203,-5.020219E-09,NaN,NaN,-0.5162926,1.396927E-11,-5.272533E-07,-1.109131E-07,-4.81422E-10,-2.622604E-08
738.6724,-0.9063116,-1.289373E-09,NaN,-0.6097044,-1.326899E-07,NaN,0.1681219,-4.229208E-07,NaN,-1.086725,2.123364E-05,-0.1060894,-4.258697E-09,NaN,NaN,-0.51584,1.396927E-11,-4.706289E-07,-1.109122E-07,1.306717E-09,-2.861022E-08
738.6886,-0.8977493,-1.288674E-09,NaN,-0.6094139,-1.326894E-07,NaN,0.1609666,-4.236631E-07,NaN,-1.085504,2.123405E-05,-0.09763569,-3.515007E-09,NaN,NaN,-0.5153962,1.396927E-11,-4.146005E-07,-1.109114E-07,1.902764E-09,-2.622604E-08
738.7048,-0.8896942,-1.287976E-09,NaN,-0.6091437,-1.326889E-07,NaN,0.1545758,-4.243907E-07,NaN,-1.084262,2.123447E-05,-0.09024647,-2.785971E-09,NaN,NaN,-0.5150071,1.396927E-11,-3.758575E-07,-1.109105E-07,-4.81422E-10,-2.861022E-08
738.7202,-0.8819863,-1.287277E-09,NaN,-0.6088875,-1.326884E-07,NaN,0.1483945,-4.251012E-07,NaN,-1.083083,2.123488E-05,-0.08299958,-2.074126E-09,NaN,NaN,-0.5146254,1.862588E-11,-3.335382E-07,-1.109097E-07,-1.673515E-09,-2.622604E-08
738.7361,-0.8819863,-1.287277E-09,NaN,-0.6088875,-1.326884E-07,NaN,0.1483945,-4.251012E-07,NaN,-1.083083,2.123488E-05,-0.08299958,-2.074126E-09,NaN,NaN,-0.5146254,1.862588E-11,-3.335382E-07,-1.109097E-07,-1.673515E-09,-2.622604E-08
738.7507,-0.8745262,-1.286578E-09,NaN,-0.6086413,-1.326879E-07,NaN,0.1423617,-4.257976E-07,NaN,-1.081957,2.123529E-05,-0.07589742,-1.376312E-09,NaN,NaN,-0.5142512,1.862588E-11,-2.888347E-07,-1.109088E-07,-2.269561E-09,-2.861022E-08
738.7672,-0.8672519,-1.28588E-09,NaN,-0.6084027,-1.326874E-07,NaN,0.1364525,-4.264803E-07,NaN,-1.080872,2.123571E-05,-0.06893952,-6.922571E-10,NaN,NaN,-0.5138844,1.862588E-11,-2.459194E-07,-1.10908E-07,-6.441887E-09,-2.622604E-08
738.7827,-0.8604694,-1.285181E-09,NaN,-0.6081836,-1.326869E-07,NaN,0.1312812,-4.271467E-07,NaN,-1.079766,2.123612E-05,-0.06300568,-2.451356E-11,NaN,NaN,-0.5135705,1.862588E-11,-2.208854E-07,-1.109072E-07,-7.63398E-09,-2.861022E-08
738.7986,-0.8604694,-1.285181E-09,NaN,-0.6081836,-1.326869E-07,NaN,0.1312812,-4.271467E-07,NaN,-1.079766,2.123612E-05,-0.06300568,-2.451356E-11,NaN,NaN,-0.5135705,1.862588E-11,-2.208854E-07,-1.109072E-07,-7.63398E-09,-2.861022E-08
738.8135,-0.8540189,-1.284483E-09,NaN,-0.6079776,-1.326865E-07,NaN,0.1262948,-4.278E-07,NaN,-1.078722,2.123654E-05,-0.05718432,6.301339E-10,NaN,NaN,-0.5132628,1.862588E-11,-1.916791E-07,-1.109063E-07,-6.441887E-09,-2.622604E-08
738.8301,-0.8478011,-1.283785E-09,NaN,-0.6077809,-1.32686E-07,NaN,0.1214325,-4.284403E-07,NaN,-1.077734,2.123695E-05,-0.05147794,1.271874E-09,NaN,NaN,-0.5129611,2.328249E-11,-1.624729E-07,-1.109055E-07,-7.037933E-09,-2.861022E-08
738.8456,-0.8417545,-1.283086E-09,NaN,-0.6075908,-1.326855E-07,NaN,0.11667,-4.290652E-07,NaN,-1.076787,2.123737E-05,-0.04588636,1.89813E-09,NaN,NaN,-0.5126653,1.396926E-11,-1.302864E-07,-1.109047E-07,-9.422119E-09,-2.622604E-08
738.8615,-0.8361848,-1.282388E-09,NaN,-0.6074196,-1.32685E-07,NaN,0.1126212,-4.296778E-07,NaN,-1.075818,2.123778E-05,-0.04128329,2.512033E-09,NaN,NaN,-0.5124211,1.396926E-11,-1.118089E-07,-1.109038E-07,-9.422119E-09,-2.861022E-08
738.877,-0.8361848,-1.282388E-09,NaN,-0.6074196,-1.32685E-07,NaN,0.1126212,-4.296778E-07,NaN,-1.075818,2.123778E-05,-0.04128329,2.512033E-09,NaN,NaN,-0.5124211,1.396926E-11,-1.118089E-07,-1.109038E-07,-9.422119E-09,-2.861022E-08
738.892,-0.8309326,-1.28169E-09,NaN,-0.6072607,-1.326845E-07,NaN,0.1087346,-4.302753E-07,NaN,-1.074914,2.12382E-05,-0.03676594,3.111002E-09,NaN,NaN,-0.5121816,1.396926E-11,-9.09473E-08,-1.10903E-07,-1.419049E-08,-2.622604E-08
738.9085,-0.8258989,-1.280992E-09,NaN,-0.6071103,-1.32684E-07,NaN,0.1049496,-4.308611E-07,NaN,-1.074066,2.123861E-05,-0.03233685,3.698151E-09,NaN,NaN,-0.5119469,1.862588E-11,-6.948963E-08,-1.109022E-07,-1.657468E-08,-2.861022E-08
738.9241,-0.8210222,-1.280294E-09,NaN,-0.6069658,-1.326835E-07,NaN,0.1012426,-4.314353E-07,NaN,-1.073261,2.123902E-05,-0.02799609,4.273717E-09,NaN,NaN,-0.5117167,1.862588E-11,-4.743591E-08,-1.109014E-07,-1.121026E-08,-2.622604E-08
738.9398,-0.8210222,-1.280294E-09,NaN,-0.6069658,-1.326835E-07,NaN,0.1012426,-4.314353E-07,NaN,-1.073261,2.123902E-05,-0.02799609,4.273717E-09,NaN,NaN,-0.5117167,1.862588E-11,-4.743591E-08,-1.109014E-07,-1.121026E-08,-2.622604E-08
738.9547,-0.8166083,-1.279596E-09,NaN,-0.6068394,-1.32683E-07,NaN,0.09822728,-4.319953E-07,NaN,-1.072433,2.123944E-05,-0.02461256,4.835097E-09,NaN,NaN,-0.5115368,1.862588E-11,-4.08794E-08,-1.109006E-07,-8.826072E-09,-2.861022E-08
738.9713,-0.8124981,-1.278898E-09,NaN,-0.6067247,-1.326826E-07,NaN,0.09535313,-4.325443E-07,NaN,-1.071672,2.123985E-05,-0.02129058,5.385402E-09,NaN,NaN,-0.5113605,1.862588E-11,-2.955452E-08,-1.108998E-07,-5.84584E-09,-2.622604E-08
738.9868,-0.8085929,-1.2782E-09,NaN,-0.6066177,-1.326821E-07,NaN,0.09255999,-4.330795E-07,NaN,-1.070968,2.124026E-05,-0.01803278,5.922015E-09,NaN,NaN,-0.5111875,2.328249E-11,-1.52494E-08,-1.10899E-07,-8.826072E-09,-2.861022E-08
739.0026,-0.804831,-1.277502E-09,NaN,-0.606516,-1.326816E-07,NaN,0.08982456,-4.336042E-07,NaN,-1.070307,2.124068E-05,-0.01483946,6.448032E-09,NaN,NaN,-0.5110179,2.328249E-11,-3.328473E-09,-1.108981E-07,-5.84584E-09,-2.622604E-08
739.0181,-0.804831,-1.277502E-09,NaN,-0.606516,-1.326816E-07,NaN,0.08982456,-4.336042E-07,NaN,-1.070307,2.124068E-05,-0.01483946,6.448032E-09,NaN,NaN,-0.5110179,2.328249E-11,-3.328473E-09,-1.108981E-07,-5.84584E-09,-2.622604E-08
739.033,-0.8015187,-1.276804E-09,NaN,-0.6064317,-1.326811E-07,NaN,0.08776081,-4.341184E-07,NaN,-1.069624,2.124109E-05,-0.0125761,6.963664E-09,NaN,NaN,-0.5108975,2.79391E-11,-2.732427E-09,-1.108973E-07,-4.653748E-09,-2.861022E-08
739.0494,-0.798497,-1.276107E-09,NaN,-0.6063583,-1.326806E-07,NaN,0.08581876,-4.346197E-07,NaN,-1.069009,2.12415E-05,-0.01035244,7.466287E-09,NaN,NaN,-0.5107794,2.79391E-11,2.478049E-10,-1.108966E-07,-1.077469E-09,-2.622604E-08
739.0652,-0.7956672,-1.275409E-09,NaN,-0.6062921,-1.326801E-07,NaN,0.08393864,-4.35111E-07,NaN,-1.068452,2.124191E-05,-0.008171177,7.958982E-09,NaN,NaN,-0.5106635,3.259571E-11,7.996409E-09,-1.108958E-07,-1.077469E-09,-2.861022E-08
739.0807,-0.792968,-1.274711E-09,NaN,-0.6062304,-1.326797E-07,NaN,0.08209755,-4.355926E-07,NaN,-1.067939,2.124232E-05,-0.006032828,8.441942E-09,NaN,NaN,-0.5105499,3.259571E-11,1.574501E-08,-1.10895E-07,5.479042E-09,-2.622604E-08
739.0968,-0.792968,-1.274711E-09,NaN,-0.6062304,-1.326797E-07,NaN,0.08209755,-4.355926E-07,NaN,-1.067939,2.124232E-05,-0.006032828,8.441942E-09,NaN,NaN,-0.5105499,3.259571E-11,1.574501E-08,-1.10895E-07,5.479042E-09,-2.622604E-08
739.1116,-0.7907055,-1.274014E-09,NaN,-0.6061855,-1.326792E-07,NaN,0.08090997,-4.360618E-07,NaN,-1.067405,2.124273E-05,-0.004800655,8.912533E-09,NaN,NaN,-0.5104844,3.725233E-11,1.038059E-08,-1.108942E-07,7.106706E-10,-2.861022E-08
739.128,-0.7887211,-1.273316E-09,NaN,-0.606151,-1.326787E-07,NaN,0.07982598,-4.365217E-07,NaN,-1.066939,2.124315E-05,-0.00358831,9.373827E-09,NaN,NaN,-0.5104201,3.725233E-11,8.592455E-09,-1.108934E-07,-3.461655E-09,-2.622604E-08
739.1437,-0.7869163,-1.272619E-09,NaN,-0.6061229,-1.326783E-07,NaN,0.07878624,-4.369725E-07,NaN,-1.066531,2.124356E-05,-0.002398566,9.826E-09,NaN,NaN,-0.510357,4.190894E-11,7.996408E-09,-1.108926E-07,-1.001817E-08,-2.861022E-08
739.1608,-0.7852297,-1.271921E-09,NaN,-0.6060988,-1.326778E-07,NaN,0.07776828,-4.374116E-07,NaN,-1.066169,2.124397E-05,-0.001232156,1.026641E-08,NaN,NaN,-0.5102952,4.190894E-11,1.157269E-08,-1.108918E-07,-7.037934E-09,-2.622604E-08
739.1752,-0.7852297,-1.271921E-09,NaN,-0.6060988,-1.326778E-07,NaN,0.07776828,-4.374116E-07,NaN,-1.066169,2.124397E-05,-0.001232156,1.026641E-08,NaN,NaN,-0.5102952,4.190894E-11,1.157269E-08,-1.108918E-07,-7.037934E-09,-2.622604E-08
739.19,-0.7839679,-1.271224E-09,NaN,-0.6060909,-1.326773E-07,NaN,0.07738724,-4.378419E-07,NaN,-1.065785,2.124438E-05,-0.0009512317,1.069811E-08,NaN,NaN,-0.5102804,4.656555E-11,1.439897E-09,-1.10891E-07,-7.633981E-09,-2.861022E-08
739.2066,-0.7829722,-1.270527E-09,NaN,-0.6060921,-1.326769E-07,NaN,0.07709295,-4.382637E-07,NaN,-1.06547,2.12448E-05,-0.0006719572,1.112127E-08,NaN,NaN,-0.5102658,4.656555E-11,-5.116614E-09,-1.108903E-07,-5.845841E-09,-2.622604E-08
739.2224,-0.7821445,-1.26983E-09,NaN,-0.6060985,-1.326764E-07,NaN,0.07682656,-4.386743E-07,NaN,-1.065214,2.124521E-05,-0.0003972151,1.153324E-08,NaN,NaN,-0.5102515,5.122216E-11,-9.884985E-09,-1.108895E-07,-8.826073E-09,-2.861022E-08
739.2384,-0.7821445,-1.26983E-09,NaN,-0.6060985,-1.326764E-07,NaN,0.07682656,-4.386743E-07,NaN,-1.065214,2.124521E-05,-0.0003972151,1.153324E-08,NaN,NaN,-0.5102515,5.122216E-11,-9.884985E-09,-1.108895E-07,-8.826073E-09,-2.861022E-08
739.2533,-0.7817678,-1.269133E-09,NaN,-0.6061217,-1.326759E-07,NaN,0.07718854,-4.390767E-07,NaN,-1.064951,2.124563E-05,-0.0009899498,1.193705E-08,NaN,NaN,-0.5102832,4.190893E-11,-2.359405E-08,-1.108887E-07,-5.845841E-09,-2.622604E-08
739.2697,-0.7816696,-1.268435E-09,NaN,-0.6061549,-1.326755E-07,NaN,0.07762232,-4.394684E-07,NaN,-1.064767,2.124604E-05,-0.00156772,1.233005E-08,NaN,NaN,-0.5103143,4.656555E-11,-3.551498E-08,-1.108879E-07,-7.037934E-09,-2.861022E-08
739.2855,-0.7817416,-1.267738E-09,NaN,-0.6061937,-1.32675E-07,NaN,0.07806724,-4.398522E-07,NaN,-1.06465,2.124645E-05,-0.002133668,1.271527E-08,NaN,NaN,-0.5103447,5.122216E-11,-4.624382E-08,-1.108872E-07,-8.826073E-09,-2.622604E-08
739.3012,-0.7819176,-1.267041E-09,NaN,-0.6062357,-1.326745E-07,NaN,0.07850166,-4.402284E-07,NaN,-1.064584,2.124686E-05,-0.002688978,1.309286E-08,NaN,NaN,-0.5103745,5.587877E-11,-5.399242E-08,-1.108864E-07,-8.826073E-09,-2.861022E-08
739.317,-0.7819176,-1.267041E-09,NaN,-0.6062357,-1.326745E-07,NaN,0.07850166,-4.402284E-07,NaN,-1.064584,2.124686E-05,-0.002688978,1.309286E-08,NaN,NaN,-0.5103745,5.587877E-11,-5.399242E-08,-1.108864E-07,-8.826073E-09,-2.861022E-08
739.3325,-0.782501,-1.266344E-09,NaN,-0.6062931,-1.326741E-07,NaN,0.07954265,-4.405944E-07,NaN,-1.0645,2.124728E-05,-0.00409667,1.346016E-08,NaN,NaN,-0.5104496,4.656554E-11,-7.306591E-08,-1.108857E-07,-7.633981E-09,-2.622604E-08
739.3489,-0.7833316,-1.265648E-09,NaN,-0.6063592,-1.326736E-07,NaN,0.08063906,-4.40953E-07,NaN,-1.064488,2.12477E-05,-0.00547401,1.382017E-08,NaN,NaN,-0.5105232,4.656554E-11,-8.915916E-08,-1.108849E-07,-6.441888E-09,-2.861022E-08
739.3647,-0.78431,-1.264951E-09,NaN,-0.6064299,-1.326732E-07,NaN,0.0817334,-4.413045E-07,NaN,-1.064538,2.124811E-05,-0.006824207,1.417305E-08,NaN,NaN,-0.5105953,4.656554E-11,-1.034643E-07,-1.108841E-07,-8.826074E-09,-2.622604E-08
739.3802,-0.7853745,-1.264254E-09,NaN,-0.6065028,-1.326727E-07,NaN,0.08280477,-4.416462E-07,NaN,-1.064633,2.124852E-05,-0.008148689,1.451612E-08,NaN,NaN,-0.5106659,4.656554E-11,-1.165773E-07,-1.108834E-07,-6.441888E-09,-2.861022E-08
739.3963,-0.7853745,-1.264254E-09,NaN,-0.6065028,-1.326727E-07,NaN,0.08280477,-4.416462E-07,NaN,-1.064633,2.124852E-05,-0.008148689,1.451612E-08,NaN,NaN,-0.5106659,4.656554E-11,-1.165773E-07,-1.108834E-07,-6.441888E-09,-2.861022E-08
739.4113,-0.7868314,-1.263557E-09,NaN,-0.6065904,-1.326723E-07,NaN,0.08447106,-4.419811E-07,NaN,-1.064709,2.124893E-05,-0.01031227,1.485238E-08,NaN,NaN,-0.510781,5.122215E-11,-1.422073E-07,-1.108826E-07,-4.653749E-09,-2.622604E-08
739.4282,-0.7885221,-1.262861E-09,NaN,-0.6066858,-1.326718E-07,NaN,0.08617988,-4.423094E-07,NaN,-1.064854,2.124934E-05,-0.01243114,1.518198E-08,NaN,NaN,-0.5108938,5.587877E-11,-1.600887E-07,-1.108819E-07,-1.061421E-08,-2.861022E-08
739.4435,-0.7903484,-1.262164E-09,NaN,-0.6067852,-1.326714E-07,NaN,0.08787413,-4.426282E-07,NaN,-1.06506,2.124976E-05,-0.01450874,1.550222E-08,NaN,NaN,-0.5110043,5.587877E-11,-1.791622E-07,-1.108811E-07,-1.180631E-08,-2.622604E-08
739.4598,-0.7903484,-1.262164E-09,NaN,-0.6067852,-1.326714E-07,NaN,0.08787413,-4.426282E-07,NaN,-1.06506,2.124976E-05,-0.01450874,1.550222E-08,NaN,NaN,-0.5110043,5.587877E-11,-1.791622E-07,-1.108811E-07,-1.180631E-08,-2.622604E-08
739.4749,-0.7922496,-1.261467E-09,NaN,-0.6068862,-1.326709E-07,NaN,0.08953317,-4.429407E-07,NaN,-1.065311,2.125017E-05,-0.01654677,1.58161E-08,NaN,NaN,-0.5111126,5.587877E-11,-1.964475E-07,-1.108804E-07,-1.836282E-08,-2.861022E-08
739.4913,-0.7945323,-1.260771E-09,NaN,-0.6070013,-1.326705E-07,NaN,0.09177579,-4.432442E-07,NaN,-1.065542,2.125059E-05,-0.01941269,1.612093E-08,NaN,NaN,-0.5112647,5.587877E-11,-2.256538E-07,-1.108797E-07,-1.180631E-08,-2.622604E-08
739.5071,-0.7970385,-1.260075E-09,NaN,-0.6071237,-1.3267E-07,NaN,0.09404835,-4.435416E-07,NaN,-1.065842,2.1251E-05,-0.02222053,1.641971E-08,NaN,NaN,-0.5114137,6.053538E-11,-2.483036E-07,-1.108789E-07,-9.42212E-09,-2.861022E-08
739.5225,-0.7996702,-1.259378E-09,NaN,-0.6072494,-1.326696E-07,NaN,0.09629431,-4.438331E-07,NaN,-1.066202,2.125141E-05,-0.02497403,1.671256E-08,NaN,NaN,-0.5115597,6.053538E-11,-2.703573E-07,-1.108782E-07,-8.826073E-09,-2.622604E-08
739.5386,-0.7996702,-1.259378E-09,NaN,-0.6072494,-1.326696E-07,NaN,0.09629431,-4.438331E-07,NaN,-1.066202,2.125141E-05,-0.02497403,1.671256E-08,NaN,NaN,-0.5115597,6.053538E-11,-2.703573E-07,-1.108782E-07,-8.826073E-09,-2.622604E-08
739.5535,-0.8023669,-1.258682E-09,NaN,-0.6073762,-1.326691E-07,NaN,0.09849346,-4.441188E-07,NaN,-1.066608,2.125182E-05,-0.02767517,1.699959E-08,NaN,NaN,-0.5117029,6.5192E-11,-2.888347E-07,-1.108775E-07,-1.359444E-08,-2.861022E-08
739.5701,-0.8054354,-1.257986E-09,NaN,-0.6075167,-1.326687E-07,NaN,0.1012656,-4.443959E-07,NaN,-1.066993,2.125224E-05,-0.03119478,1.727811E-08,NaN,NaN,-0.5118891,6.5192E-11,-3.18637E-07,-1.108767E-07,-1.597863E-08,-2.622604E-08
739.5858,-0.8087179,-1.25729E-09,NaN,-0.6076639,-1.326682E-07,NaN,0.1040558,-4.446675E-07,NaN,-1.067447,2.125265E-05,-0.03464383,1.755109E-08,NaN,NaN,-0.5120716,6.5192E-11,-3.454591E-07,-1.10876E-07,-1.29984E-08,-2.861022E-08
739.6014,-0.8121165,-1.256594E-09,NaN,-0.607814,-1.326678E-07,NaN,0.1068082,-4.449337E-07,NaN,-1.067962,2.125306E-05,-0.03802634,1.781864E-08,NaN,NaN,-0.5122505,6.5192E-11,-3.716852E-07,-1.108753E-07,-9.422119E-09,-2.622604E-08
739.6171,-0.8121165,-1.256594E-09,NaN,-0.607814,-1.326678E-07,NaN,0.1068082,-4.449337E-07,NaN,-1.067962,2.125306E-05,-0.03802634,1.781864E-08,NaN,NaN,-0.5122505,6.5192E-11,-3.716852E-07,-1.108753E-07,-9.422119E-09,-2.622604E-08
739.632,-0.8155707,-1.255898E-09,NaN,-0.6079648,-1.326674E-07,NaN,0.109503,-4.451946E-07,NaN,-1.06852,2.125347E-05,-0.04134462,1.808088E-08,NaN,NaN,-0.5124258,6.984861E-11,-3.907587E-07,-1.108746E-07,-7.63398E-09,-2.861022E-08
739.6486,-0.8193878,-1.255202E-09,NaN,-0.6081287,-1.326669E-07,NaN,0.112761,-4.454502E-07,NaN,-1.069059,2.125389E-05,-0.0454736,1.83379E-08,NaN,NaN,-0.5126436,6.984861E-11,-4.259254E-07,-1.108738E-07,-8.230026E-09,-2.622604E-08
739.6654,-0.8234098,-1.254506E-09,NaN,-0.608299,-1.326665E-07,NaN,0.1160261,-4.456979E-07,NaN,-1.069668,2.12543E-05,-0.04952027,1.858698E-08,NaN,NaN,-0.5128571,7.450523E-11,-4.557277E-07,-1.108731E-07,-9.422119E-09,-2.861022E-08
739.6798,-0.8234098,-1.254506E-09,NaN,-0.608299,-1.326665E-07,NaN,0.1160261,-4.456979E-07,NaN,-1.069668,2.12543E-05,-0.04952027,1.858698E-08,NaN,NaN,-0.5128571,7.450523E-11,-4.557277E-07,-1.108731E-07,-9.422119E-09,-2.861022E-08
739.6951,-0.827539,-1.25381E-09,NaN,-0.6084716,-1.32666E-07,NaN,0.1192429,-4.459407E-07,NaN,-1.070335,2.125471E-05,-0.05348901,1.883111E-08,NaN,NaN,-0.5130663,7.450523E-11,-4.84934E-07,-1.108724E-07,-4.653748E-09,-2.622604E-08
739.7114,-0.8317149,-1.253114E-09,NaN,-0.6086444,-1.326656E-07,NaN,0.1223921,-4.461786E-07,NaN,-1.071047,2.125513E-05,-0.05738244,1.907037E-08,NaN,NaN,-0.5132714,7.450523E-11,-5.123521E-07,-1.108717E-07,-3.461655E-09,-2.861022E-08
739.7272,-0.8362452,-1.252419E-09,NaN,-0.6088302,-1.326652E-07,NaN,0.1260958,-4.464089E-07,NaN,-1.071739,2.125554E-05,-0.06208034,1.930205E-08,NaN,NaN,-0.5135183,7.916184E-11,-5.487109E-07,-1.10871E-07,-7.037933E-09,-2.622604E-08
739.7427,-0.8409717,-1.251723E-09,NaN,-0.6090217,-1.326647E-07,NaN,0.1297961,-4.466346E-07,NaN,-1.072501,2.125595E-05,-0.06668481,1.952911E-08,NaN,NaN,-0.5137603,8.381846E-11,-5.808974E-07,-1.108703E-07,-1.001817E-08,-2.861022E-08
739.7585,-0.8409717,-1.251723E-09,NaN,-0.6090217,-1.326647E-07,NaN,0.1297961,-4.466346E-07,NaN,-1.072501,2.125595E-05,-0.06668481,1.952911E-08,NaN,NaN,-0.5137603,8.381846E-11,-5.808974E-07,-1.108703E-07,-1.001817E-08,-2.861022E-08
739.7735,-0.8457969,-1.251027E-09,NaN,-0.6092153,-1.326643E-07,NaN,0.1334385,-4.468558E-07,NaN,-1.073321,2.125636E-05,-0.07120063,1.975165E-08,NaN,NaN,-0.5139976,8.381846E-11,-6.095077E-07,-1.108696E-07,-7.037934E-09,-2.622604E-08
739.7903,-0.8506606,-1.250332E-09,NaN,-0.6094087,-1.326639E-07,NaN,0.1370043,-4.470697E-07,NaN,-1.074185,2.125678E-05,-0.07563075,1.996692E-08,NaN,NaN,-0.5142301,8.381846E-11,-6.363297E-07,-1.108689E-07,-1.001817E-08,-2.861022E-08
739.806,-0.8558703,-1.249636E-09,NaN,-0.6096146,-1.326635E-07,NaN,0.1411162,-4.472793E-07,NaN,-1.07503,2.12572E-05,-0.08086044,2.017789E-08,NaN,NaN,-0.514504,7.450524E-11,-6.756688E-07,-1.108682E-07,-7.037934E-09,-2.622604E-08
739.8218,-0.8612682,-1.248941E-09,NaN,-0.609826,-1.32663E-07,NaN,0.1452153,-4.474847E-07,NaN,-1.075944,2.125761E-05,-0.08598617,2.038466E-08,NaN,NaN,-0.5147724,7.916185E-11,-7.096434E-07,-1.108675E-07,-1.001817E-08,-2.861022E-08
739.8378,-0.8612682,-1.248941E-09,NaN,-0.609826,-1.32663E-07,NaN,0.1452153,-4.474847E-07,NaN,-1.075944,2.125761E-05,-0.08598617,2.038466E-08,NaN,NaN,-0.5147724,7.916185E-11,-7.096434E-07,-1.108675E-07,-1.001817E-08,-2.861022E-08
739.8525,-0.8667567,-1.248246E-09,NaN,-0.610039,-1.326626E-07,NaN,0.1492476,-4.476859E-07,NaN,-1.076916,2.125802E-05,-0.09101315,2.05873E-08,NaN,NaN,-0.5150355,8.381847E-11,-7.43618E-07,-1.108668E-07,-1.240235E-08,-2.622604E-08
739.869,-0.8722757,-1.24755E-09,NaN,-0.6102515,-1.326622E-07,NaN,0.1531947,-4.478804E-07,NaN,-1.077931,2.125843E-05,-0.0959447,2.078307E-08,NaN,NaN,-0.5152935,8.381847E-11,-7.740164E-07,-1.108661E-07,-1.597863E-08,-2.861022E-08
739.8848,-0.8781329,-1.246855E-09,NaN,-0.6104764,-1.326618E-07,NaN,0.1576806,-4.480708E-07,NaN,-1.078929,2.125885E-05,-0.101672,2.097492E-08,NaN,NaN,-0.5155923,8.381847E-11,-8.163357E-07,-1.108654E-07,-1.776677E-08,-2.622604E-08
739.9009,-0.8841706,-1.24616E-09,NaN,-0.6107063,-1.326613E-07,NaN,0.1621448,-4.482547E-07,NaN,-1.079994,2.125926E-05,-0.1072854,2.116012E-08,NaN,NaN,-0.5158851,8.847508E-11,-8.538867E-07,-1.108647E-07,-2.0747E-08,-2.861022E-08
739.9164,-0.8841706,-1.24616E-09,NaN,-0.6107063,-1.326613E-07,NaN,0.1621448,-4.482547E-07,NaN,-1.079994,2.125926E-05,-0.1072854,2.116012E-08,NaN,NaN,-0.5158851,8.847508E-11,-8.538867E-07,-1.108647E-07,-2.0747E-08,-2.861022E-08
739.9316,-0.8902912,-1.245464E-09,NaN,-0.6109374,-1.326609E-07,NaN,0.1665339,-4.484348E-07,NaN,-1.081118,2.125967E-05,-0.1127904,2.134161E-08,NaN,NaN,-0.5161722,8.847508E-11,-8.878613E-07,-1.108641E-07,-2.253514E-08,-2.622604E-08
739.9484,-0.8964345,-1.244769E-09,NaN,-0.6111678,-1.326605E-07,NaN,0.1708301,-4.486113E-07,NaN,-1.082284,2.126009E-05,-0.1181909,2.151948E-08,NaN,NaN,-0.5164536,8.847508E-11,-9.218359E-07,-1.108634E-07,-2.432328E-08,-2.861022E-08
739.9638,-0.9029089,-1.244074E-09,NaN,-0.6114102,-1.326601E-07,NaN,0.1756582,-4.487842E-07,NaN,-1.083434,2.12605E-05,-0.1243844,2.16938E-08,NaN,NaN,-0.5167754,9.31317E-11,-9.689236E-07,-1.108627E-07,-2.015096E-08,-2.622604E-08
739.9794,-0.9029089,-1.244074E-09,NaN,-0.6114102,-1.326601E-07,NaN,0.1756582,-4.487842E-07,NaN,-1.083434,2.12605E-05,-0.1243844,2.16938E-08,NaN,NaN,-0.5167754,9.31317E-11,-9.689236E-07,-1.108627E-07,-2.015096E-08,-2.622604E-08
739.9943,-0.9095562,-1.243379E-09,NaN,-0.6116574,-1.326597E-07,NaN,0.1804564,-4.489509E-07,NaN,-1.084651,2.12609E-05,-0.1304544,2.186179E-08,NaN,NaN,-0.5170907,9.778831E-11,-1.010051E-06,-1.10862E-07,-2.849561E-08,-2.861022E-08
740.0107,-0.9162791,-1.242684E-09,NaN,-0.6119055,-1.326592E-07,NaN,0.1851719,-4.491141E-07,NaN,-1.085925,2.126133E-05,-0.136407,2.202641E-08,NaN,NaN,-0.5173999,8.847509E-11,-1.047006E-06,-1.108613E-07,-3.207188E-08,-2.622604E-08
740.0268,-0.9230176,-1.241989E-09,NaN,-0.6121526,-1.326588E-07,NaN,0.1897875,-4.492741E-07,NaN,-1.087242,2.126174E-05,-0.1422463,2.218774E-08,NaN,NaN,-0.517703,8.847509E-11,-1.085153E-06,-1.108607E-07,-3.445607E-08,-2.861022E-08
740.0423,-0.9300799,-1.241294E-09,NaN,-0.6124115,-1.326584E-07,NaN,0.1949287,-4.49428E-07,NaN,-1.088543,2.126216E-05,-0.148877,2.2343E-08,NaN,NaN,-0.5180461,8.847509E-11,-1.137009E-06,-1.1086E-07,-2.96877E-08,-2.622604E-08
740.0582,-0.9300799,-1.241294E-09,NaN,-0.6124115,-1.326584E-07,NaN,0.1949287,-4.49428E-07,NaN,-1.088543,2.126216E-05,-0.148877,2.2343E-08,NaN,NaN,-0.5180461,8.847509E-11,-1.137009E-06,-1.1086E-07,-2.96877E-08,-2.622604E-08
740.0731,-0.9373083,-1.240599E-09,NaN,-0.6126748,-1.32658E-07,NaN,0.2000324,-4.495788E-07,NaN,-1.089912,2.126257E-05,-0.1553749,2.249515E-08,NaN,NaN,-0.5183823,8.847509E-11,-1.181712E-06,-1.108593E-07,-2.611142E-08,-2.861022E-08
