JMolnar6/NonAnthroHands_User_Study/HandsLoggerWithURDF/tempdata/files/Reachy_JointMotion_gesture_6_30.csv
Time,r_shoulder,r_shoulder_x,r_upper_arm,r_forearm,r_wrist,r_wrist2hand,
306.0903,0.04500347,-1.948631E-08,NaN,-0.3269999,-1.358048E-07,NaN,0.4595542,-5.351295E-09,NaN,-2.15716,1.022162E-05,-0.3673965,-2.027124E-08,NaN,NaN,-0.6179123,6.984836E-11,-8.201669E-07,-1.136908E-07,5.057663E-08,-2.622604E-08
306.1072,0.04500347,-1.948532E-08,NaN,-0.3269999,-1.358047E-07,NaN,0.460372,-5.235881E-09,NaN,-2.155303,1.022222E-05,-0.3668792,-2.038457E-08,NaN,NaN,-0.6211895,7.450498E-11,-8.823792E-07,-1.136909E-07,4.700036E-08,-2.861022E-08
306.1219,0.04500348,-1.948433E-08,NaN,-0.3269999,-1.358047E-07,NaN,0.4608446,-5.122586E-09,NaN,-2.154127,1.022284E-05,-0.3665426,-2.049578E-08,NaN,NaN,-0.6244023,6.984836E-11,-9.207497E-07,-1.13691E-07,5.176873E-08,-2.622604E-08
306.1375,0.04500348,-1.948433E-08,NaN,-0.3269999,-1.358047E-07,NaN,0.4608446,-5.122586E-09,NaN,-2.154127,1.022284E-05,-0.3665426,-2.049578E-08,NaN,NaN,-0.6244023,6.984836E-11,-9.207497E-07,-1.13691E-07,5.176873E-08,-2.622604E-08
306.1528,0.04500348,-1.948334E-08,NaN,-0.3269999,-1.358046E-07,NaN,0.4611585,-5.011368E-09,NaN,-2.153294,1.022345E-05,-0.3663055,-2.060492E-08,NaN,NaN,-0.627552,6.519175E-11,-9.482424E-07,-1.136911E-07,5.355686E-08,-2.861022E-08
306.1691,0.04500349,-1.948235E-08,NaN,-0.3269999,-1.358045E-07,NaN,0.4613994,-4.902188E-09,NaN,-2.152637,1.022406E-05,-0.3661225,-2.071202E-08,NaN,NaN,-0.6306399,6.984836E-11,-9.704451E-07,-1.136912E-07,5.355686E-08,-2.622604E-08
306.1855,0.04500348,-1.948136E-08,NaN,-0.3269999,-1.358044E-07,NaN,0.4607817,-4.795007E-09,NaN,-2.154006,1.022466E-05,-0.3664871,-2.081712E-08,NaN,NaN,-0.6303411,7.450498E-11,-9.245495E-07,-1.136913E-07,5.772919E-08,-2.861022E-08
306.2008,0.04500348,-1.948037E-08,NaN,-0.3269999,-1.358043E-07,NaN,0.460487,-4.689784E-09,NaN,-2.154749,1.022527E-05,-0.3666927,-2.092026E-08,NaN,NaN,-0.6300485,7.916159E-11,-9.015272E-07,-1.136914E-07,5.951733E-08,-2.622604E-08
306.217,0.04500348,-1.948037E-08,NaN,-0.3269999,-1.358043E-07,NaN,0.460487,-4.689784E-09,NaN,-2.154749,1.022527E-05,-0.3666927,-2.092026E-08,NaN,NaN,-0.6300485,7.916159E-11,-9.015272E-07,-1.136914E-07,5.951733E-08,-2.622604E-08
306.2319,0.04500347,-1.947938E-08,NaN,-0.3269999,-1.358042E-07,NaN,0.4603381,-4.586482E-09,NaN,-2.155185,1.022588E-05,-0.3668108,-2.102148E-08,NaN,NaN,-0.6297616,8.381821E-11,-8.878181E-07,-1.136915E-07,5.832523E-08,-2.861022E-08
306.2482,0.04500347,-1.947839E-08,NaN,-0.3269999,-1.358042E-07,NaN,0.460253,-4.485064E-09,NaN,-2.155471,1.022649E-05,-0.3668832,-2.112082E-08,NaN,NaN,-0.6294804,7.916159E-11,-8.79399E-07,-1.136916E-07,6.368965E-08,-2.622604E-08
306.2642,0.04500346,-1.947739E-08,NaN,-0.3269999,-1.358041E-07,NaN,0.459366,-4.385491E-09,NaN,-2.157616,1.02271E-05,-0.3674555,-2.121831E-08,NaN,NaN,-0.6258708,8.381821E-11,-8.069794E-07,-1.136917E-07,6.42857E-08,-2.861022E-08
306.2795,0.04500346,-1.947739E-08,NaN,-0.3269999,-1.358041E-07,NaN,0.459366,-4.385491E-09,NaN,-2.157616,1.02271E-05,-0.3674555,-2.121831E-08,NaN,NaN,-0.6258708,8.381821E-11,-8.069794E-07,-1.136917E-07,6.42857E-08,-2.861022E-08
306.2948,0.04500345,-1.94764E-08,NaN,-0.3269999,-1.35804E-07,NaN,0.4588323,-4.287725E-09,NaN,-2.159038,1.022771E-05,-0.3678402,-2.131399E-08,NaN,NaN,-0.6223323,7.916159E-11,-7.596682E-07,-1.136917E-07,6.368965E-08,-2.622604E-08
306.3125,0.04500344,-1.947541E-08,NaN,-0.3269999,-1.358039E-07,NaN,0.4584614,-4.191737E-09,NaN,-2.160096,1.022832E-05,-0.3681208,-2.14079E-08,NaN,NaN,-0.6188632,8.381821E-11,-7.253955E-07,-1.136918E-07,6.249756E-08,-2.861022E-08
306.3271,0.04500343,-1.947442E-08,NaN,-0.3269999,-1.358039E-07,NaN,0.4581657,-4.097487E-09,NaN,-2.160964,1.022893E-05,-0.3683449,-2.150007E-08,NaN,NaN,-0.6154622,7.916159E-11,-6.99393E-07,-1.136919E-07,6.249756E-08,-2.622604E-08
306.3427,0.04500341,-1.947342E-08,NaN,-0.3269999,-1.358038E-07,NaN,0.4570698,-4.004943E-09,NaN,-2.163659,1.022955E-05,-0.3690689,-2.159053E-08,NaN,NaN,-0.6087941,7.450498E-11,-6.114017E-07,-1.13692E-07,6.488175E-08,-2.861022E-08
306.3584,0.04500341,-1.947342E-08,NaN,-0.3269999,-1.358038E-07,NaN,0.4570698,-4.004943E-09,NaN,-2.163659,1.022955E-05,-0.3690689,-2.159053E-08,NaN,NaN,-0.6087941,7.450498E-11,-6.114017E-07,-1.13692E-07,6.488175E-08,-2.861022E-08
306.3734,0.0450034,-1.947243E-08,NaN,-0.3269999,-1.358037E-07,NaN,0.4563368,-3.914069E-09,NaN,-2.165606,1.023016E-05,-0.3695968,-2.167933E-08,NaN,NaN,-0.602257,6.984836E-11,-5.514245E-07,-1.136921E-07,6.309361E-08,-2.622604E-08
306.3895,0.04500338,-1.947144E-08,NaN,-0.3269999,-1.358037E-07,NaN,0.4557754,-3.826244E-09,NaN,-2.167167,1.023078E-05,-0.3700137,-2.176507E-08,NaN,NaN,-0.5958481,6.053514E-11,-5.021016E-07,-1.136922E-07,6.070943E-08,-2.861022E-08
306.4052,0.04500337,-1.947044E-08,NaN,-0.3269999,-1.358036E-07,NaN,0.4552973,-3.741409E-09,NaN,-2.168516,1.02314E-05,-0.3703676,-2.184782E-08,NaN,NaN,-0.5895649,5.587853E-11,-4.576962E-07,-1.136923E-07,5.65371E-08,-2.622604E-08
306.4211,0.04500335,-1.946945E-08,NaN,-0.3269999,-1.358035E-07,NaN,0.4540157,-3.658095E-09,NaN,-2.17167,1.023201E-05,-0.3712271,-2.192905E-08,NaN,NaN,-0.5800712,4.65653E-11,-3.586034E-07,-1.136924E-07,5.892129E-08,-2.861022E-08
306.4369,0.04500335,-1.946945E-08,NaN,-0.3269999,-1.358035E-07,NaN,0.4540157,-3.658095E-09,NaN,-2.17167,1.023201E-05,-0.3712271,-2.192905E-08,NaN,NaN,-0.5800712,4.65653E-11,-3.586034E-07,-1.136924E-07,5.892129E-08,-2.861022E-08
306.4521,0.04500334,-1.946846E-08,NaN,-0.3269999,-1.358034E-07,NaN,0.4531064,-3.57627E-09,NaN,-2.174057,1.023262E-05,-0.3718823,-2.20088E-08,NaN,NaN,-0.5707639,5.122191E-11,-2.855878E-07,-1.136925E-07,5.713315E-08,-2.622604E-08
306.4686,0.04500332,-1.946747E-08,NaN,-0.3269999,-1.358034E-07,NaN,0.4523771,-3.495909E-09,NaN,-2.176039,1.023324E-05,-0.3724194,-2.208708E-08,NaN,NaN,-0.5616391,4.65653E-11,-2.258341E-07,-1.136925E-07,5.236478E-08,-2.861022E-08
306.4845,0.0450033,-1.946647E-08,NaN,-0.3269999,-1.358033E-07,NaN,0.4517386,-4.080368E-09,NaN,-2.17779,1.023385E-05,-0.3728876,-2.150053E-08,NaN,NaN,-0.5526934,4.65653E-11,-1.721154E-07,-1.136924E-07,5.594106E-08,-2.622604E-08
306.5001,0.04500328,-1.946548E-08,NaN,-0.3269999,-1.358032E-07,NaN,0.4502898,-4.665901E-09,NaN,-2.181326,1.023446E-05,-0.3738707,-2.091292E-08,NaN,NaN,-0.5405893,4.65653E-11,-6.512509E-08,-1.136921E-07,5.117269E-08,-2.861022E-08
306.516,0.04500328,-1.946548E-08,NaN,-0.3269999,-1.358032E-07,NaN,0.4502898,-4.665901E-09,NaN,-2.181326,1.023446E-05,-0.3738707,-2.091292E-08,NaN,NaN,-0.5405893,4.65653E-11,-6.512509E-08,-1.136921E-07,5.117269E-08,-2.861022E-08
306.5309,0.04500326,-1.946449E-08,NaN,-0.3269999,-1.358031E-07,NaN,0.4492224,-5.245445E-09,NaN,-2.18408,1.023508E-05,-0.3746408,-2.03313E-08,NaN,NaN,-0.5287228,3.725208E-11,1.42981E-08,-1.136919E-07,5.236478E-08,-2.622604E-08
306.5478,0.04500323,-1.946349E-08,NaN,-0.3269998,-1.35803E-07,NaN,0.4483742,-5.8163E-09,NaN,-2.185662,1.023569E-05,-0.3752002,-1.975837E-08,NaN,NaN,-0.5170878,3.725208E-11,1.22406E-07,-1.136916E-07,5.77292E-08,-2.861022E-08
306.5635,0.0450032,-1.94625E-08,NaN,-0.3269998,-1.358028E-07,NaN,0.4476407,-6.37723E-09,NaN,-2.186076,1.02363E-05,-0.3756098,-1.919536E-08,NaN,NaN,-0.5056802,2.793885E-11,2.426584E-07,-1.136913E-07,5.892129E-08,-2.622604E-08
306.5796,0.0450032,-1.94625E-08,NaN,-0.3269998,-1.358028E-07,NaN,0.4476407,-6.37723E-09,NaN,-2.186076,1.02363E-05,-0.3756098,-1.919536E-08,NaN,NaN,-0.5056802,2.793885E-11,2.426584E-07,-1.136913E-07,5.892129E-08,-2.622604E-08
306.5947,0.04500316,-1.946151E-08,NaN,-0.3269998,-1.358027E-07,NaN,0.4460785,-6.92843E-09,NaN,-2.187686,1.023691E-05,-0.3765311,-1.864208E-08,NaN,NaN,-0.4911629,2.793885E-11,4.001637E-07,-1.13691E-07,5.832524E-08,-2.861022E-08
306.6111,0.04500313,-1.946051E-08,NaN,-0.3269998,-1.358025E-07,NaN,0.4449141,-7.46868E-09,NaN,-2.187662,1.023753E-05,-0.377185,-1.809975E-08,NaN,NaN,-0.4769297,3.259546E-11,5.58414E-07,-1.136907E-07,5.474896E-08,-2.622604E-08
306.6272,0.04500309,-1.945952E-08,NaN,-0.3269997,-1.358023E-07,NaN,0.4439296,-7.998197E-09,NaN,-2.186844,1.023814E-05,-0.3777234,-1.756815E-08,NaN,NaN,-0.462976,4.190869E-11,6.846269E-07,-1.136904E-07,5.296083E-08,-2.861022E-08
306.6426,0.04500306,-1.945853E-08,NaN,-0.3269997,-1.358022E-07,NaN,0.4430264,-8.517193E-09,NaN,-2.185925,1.023876E-05,-0.3782385,-1.704708E-08,NaN,NaN,-0.4492968,3.725208E-11,7.75971E-07,-1.136901E-07,5.057664E-08,-2.622604E-08
306.6587,0.04500306,-1.945853E-08,NaN,-0.3269997,-1.358022E-07,NaN,0.4430264,-8.517193E-09,NaN,-2.185925,1.023876E-05,-0.3782385,-1.704708E-08,NaN,NaN,-0.4492968,3.725208E-11,7.75971E-07,-1.136901E-07,5.057664E-08,-2.622604E-08
306.6737,0.04500303,-1.945754E-08,NaN,-0.3269997,-1.35802E-07,NaN,0.4412876,-9.025871E-09,NaN,-2.187193,1.023937E-05,-0.3793375,-1.653633E-08,NaN,NaN,-0.4325529,4.190869E-11,8.932431E-07,-1.136898E-07,4.580827E-08,-2.861022E-08
306.6906,0.04500299,-1.945654E-08,NaN,-0.3269996,-1.358018E-07,NaN,0.4399699,-9.524433E-09,NaN,-2.187416,1.024E-05,-0.380175,-1.603569E-08,NaN,NaN,-0.4161365,3.259547E-11,1.016625E-06,-1.136895E-07,4.640431E-08,-2.622604E-08
306.7061,0.04500296,-1.945555E-08,NaN,-0.3269996,-1.358017E-07,NaN,0.438861,-1.001308E-08,NaN,-2.187021,1.024062E-05,-0.3808644,-1.554496E-08,NaN,NaN,-0.4000421,3.725208E-11,1.120337E-06,-1.136892E-07,4.402013E-08,-2.861022E-08
306.7217,0.04500293,-1.945456E-08,NaN,-0.3269996,-1.358015E-07,NaN,0.4378563,-1.0492E-08,NaN,-2.186445,1.024123E-05,-0.3814875,-1.506397E-08,NaN,NaN,-0.3842637,4.190869E-11,1.20423E-06,-1.136889E-07,4.640431E-08,-2.622604E-08
306.7375,0.04500293,-1.945456E-08,NaN,-0.3269996,-1.358015E-07,NaN,0.4378563,-1.0492E-08,NaN,-2.186445,1.024123E-05,-0.3814875,-1.506397E-08,NaN,NaN,-0.3842637,4.190869E-11,1.20423E-06,-1.136889E-07,4.640431E-08,-2.622604E-08
306.7525,0.04500289,-1.945356E-08,NaN,-0.3269995,-1.358013E-07,NaN,0.4360183,-1.09614E-08,NaN,-2.187881,1.024184E-05,-0.382668,-1.45925E-08,NaN,NaN,-0.3654616,5.587853E-11,1.312115E-06,-1.136887E-07,3.805966E-08,-2.861022E-08
306.7688,0.04500285,-1.945257E-08,NaN,-0.3269995,-1.358011E-07,NaN,0.4346036,-1.142145E-08,NaN,-2.188127,1.024247E-05,-0.3835785,-1.413037E-08,NaN,NaN,-0.3470274,4.656531E-11,1.424916E-06,-1.136884E-07,4.044385E-08,-2.622604E-08
306.7849,0.04500281,-1.945158E-08,NaN,-0.3269995,-1.35801E-07,NaN,0.4333987,-1.187093E-08,NaN,-2.187674,1.024308E-05,-0.3843405,-1.367881E-08,NaN,NaN,-0.3289547,5.587853E-11,1.521923E-06,-1.136881E-07,3.448339E-08,-2.861022E-08
306.8018,0.04500278,-1.945059E-08,NaN,-0.3269995,-1.358008E-07,NaN,0.4323011,-1.231145E-08,NaN,-2.187019,1.024369E-05,-0.3850349,-1.323621E-08,NaN,NaN,-0.3112369,6.053515E-11,1.595088E-06,-1.136878E-07,3.805966E-08,-2.622604E-08
306.817,0.04500278,-1.945059E-08,NaN,-0.3269995,-1.358008E-07,NaN,0.4323011,-1.231145E-08,NaN,-2.187019,1.024369E-05,-0.3850349,-1.323621E-08,NaN,NaN,-0.3112369,6.053515E-11,1.595088E-06,-1.136878E-07,3.805966E-08,-2.622604E-08
306.8316,0.04500274,-1.944959E-08,NaN,-0.3269994,-1.358007E-07,NaN,0.430364,-1.27432E-08,NaN,-2.188388,1.024431E-05,-0.3862909,-1.280239E-08,NaN,NaN,-0.2905335,6.519176E-11,1.684048E-06,-1.136875E-07,4.282803E-08,-2.861022E-08
306.8482,0.04500269,-1.94486E-08,NaN,-0.3269994,-1.358005E-07,NaN,0.4288517,-1.316635E-08,NaN,-2.188598,1.024493E-05,-0.3872857,-1.237717E-08,NaN,NaN,-0.2702353,6.519176E-11,1.777031E-06,-1.136872E-07,3.686757E-08,-2.622604E-08
306.8639,0.04500265,-1.944761E-08,NaN,-0.3269994,-1.358003E-07,NaN,0.4275545,-1.358106E-08,NaN,-2.188132,1.024555E-05,-0.3881339,-1.196039E-08,NaN,NaN,-0.2503352,6.519176E-11,1.854368E-06,-1.136869E-07,3.805966E-08,-2.861022E-08
306.8799,0.04500265,-1.944761E-08,NaN,-0.3269994,-1.358003E-07,NaN,0.4275545,-1.358106E-08,NaN,-2.188132,1.024555E-05,-0.3881339,-1.196039E-08,NaN,NaN,-0.2503352,6.519176E-11,1.854368E-06,-1.136869E-07,3.805966E-08,-2.861022E-08
306.8954,0.04500261,-1.944661E-08,NaN,-0.3269993,-1.358002E-07,NaN,0.4261552,-1.398749E-08,NaN,-2.18793,1.024616E-05,-0.3890501,-1.155188E-08,NaN,NaN,-0.2300337,6.519176E-11,1.917251E-06,-1.136867E-07,3.925175E-08,-2.622604E-08
306.9113,0.04500257,-1.944562E-08,NaN,-0.3269993,-1.358E-07,NaN,0.4249188,-1.438582E-08,NaN,-2.187512,1.024678E-05,-0.3898682,-1.115148E-08,NaN,NaN,-0.2101304,6.519176E-11,1.966872E-06,-1.136864E-07,4.044384E-08,-2.861022E-08
306.9276,0.04500254,-1.944463E-08,NaN,-0.3269993,-1.357999E-07,NaN,0.4237825,-1.477619E-08,NaN,-2.187101,1.02474E-05,-0.3906231,-1.075903E-08,NaN,NaN,-0.1906175,6.519176E-11,2.001144E-06,-1.136861E-07,3.567547E-08,-2.622604E-08
306.9431,0.04500251,-1.944363E-08,NaN,-0.3269992,-1.357997E-07,NaN,0.4227174,-1.515877E-08,NaN,-2.186801,1.024802E-05,-0.3913316,-1.037438E-08,NaN,NaN,-0.1714875,6.519176E-11,2.024837E-06,-1.136858E-07,3.329129E-08,-2.861022E-08
306.959,0.04500251,-1.944363E-08,NaN,-0.3269992,-1.357997E-07,NaN,0.4227174,-1.515877E-08,NaN,-2.186801,1.024802E-05,-0.3913316,-1.037438E-08,NaN,NaN,-0.1714875,6.519176E-11,2.024837E-06,-1.136858E-07,3.329129E-08,-2.861022E-08
306.9739,0.04500248,-1.944264E-08,NaN,-0.3269992,-1.357996E-07,NaN,0.4217106,-1.55323E-08,NaN,-2.186621,1.024864E-05,-0.3920017,-9.998779E-09,NaN,NaN,-0.1527326,6.519176E-11,2.03944E-06,-1.136855E-07,2.733082E-08,-2.622604E-08
306.9908,0.04500245,-1.944164E-08,NaN,-0.3269992,-1.357994E-07,NaN,0.4207551,-1.589836E-08,NaN,-2.186523,1.024925E-05,-0.3926378,-9.630641E-09,NaN,NaN,-0.1343456,7.450499E-11,2.049722E-06,-1.136853E-07,2.494664E-08,-2.861022E-08
307.0063,0.04500242,-1.944065E-08,NaN,-0.3269992,-1.357993E-07,NaN,0.4198471,-1.625711E-08,NaN,-2.186459,1.024987E-05,-0.3932426,-9.269821E-09,NaN,NaN,-0.1163191,7.450499E-11,2.056577E-06,-1.13685E-07,2.494664E-08,-2.622604E-08
307.022,0.04500239,-1.943965E-08,NaN,-0.3269991,-1.357991E-07,NaN,0.418984,-1.660868E-08,NaN,-2.186394,1.025049E-05,-0.3938182,-8.916177E-09,NaN,NaN,-0.09864601,7.450499E-11,2.057173E-06,-1.136847E-07,2.017827E-08,-2.861022E-08
307.0377,0.04500239,-1.943965E-08,NaN,-0.3269991,-1.357991E-07,NaN,0.418984,-1.660868E-08,NaN,-2.186394,1.025049E-05,-0.3938182,-8.916177E-09,NaN,NaN,-0.09864601,7.450499E-11,2.057173E-06,-1.136847E-07,2.017827E-08,-2.861022E-08
307.0533,0.04500236,-1.943866E-08,NaN,-0.3269991,-1.357989E-07,NaN,0.4183857,-1.695463E-08,NaN,-2.18586,1.025111E-05,-0.3942196,-8.568153E-09,NaN,NaN,-0.08211158,7.450499E-11,2.048381E-06,-1.136844E-07,1.898617E-08,-2.622604E-08
307.0694,0.04500234,-1.943766E-08,NaN,-0.3269991,-1.357988E-07,NaN,0.4177454,-1.729365E-08,NaN,-2.185634,1.025172E-05,-0.3946352,-8.227052E-09,NaN,NaN,-0.06590164,8.381821E-11,2.033778E-06,-1.136842E-07,1.779408E-08,-2.861022E-08
307.0852,0.04500232,-1.943667E-08,NaN,-0.3269991,-1.357985E-07,NaN,0.4171056,-1.703202E-08,NaN,-2.185603,1.025234E-05,-0.3950479,-8.486606E-09,NaN,NaN,-0.05000956,8.381821E-11,2.015599E-06,-1.136858E-07,1.898617E-08,-2.622604E-08
307.1008,0.04500229,-1.943567E-08,NaN,-0.3269991,-1.357983E-07,NaN,0.4164853,-1.7409E-08,NaN,-2.185641,1.025295E-05,-0.3954501,-8.107554E-09,NaN,NaN,-0.03442906,8.847482E-11,1.996078E-06,-1.136885E-07,1.302571E-08,-2.861022E-08
307.117,0.04500229,-1.943567E-08,NaN,-0.3269991,-1.357983E-07,NaN,0.4164853,-1.7409E-08,NaN,-2.185641,1.025295E-05,-0.3954501,-8.107554E-09,NaN,NaN,-0.03442906,8.847482E-11,1.996078E-06,-1.136885E-07,1.302571E-08,-2.861022E-08
307.1319,0.04500228,-1.943468E-08,NaN,-0.3269991,-1.357983E-07,NaN,0.416829,-1.773199E-08,NaN,-2.183755,1.025357E-05,-0.3952202,-7.782484E-09,NaN,NaN,-0.02248711,9.313144E-11,1.968809E-06,-1.136914E-07,1.183362E-08,-2.622604E-08
307.1486,0.04500227,-1.943368E-08,NaN,-0.3269991,-1.357986E-07,NaN,0.416856,-1.802319E-08,NaN,-2.183182,1.025418E-05,-0.3951272,-7.489214E-09,NaN,NaN,-0.01078027,1.024447E-10,1.925893E-06,-1.136945E-07,1.302571E-08,-2.861022E-08
307.1643,0.04500226,-1.943269E-08,NaN,-0.3269991,-1.357989E-07,NaN,0.4167412,-1.829447E-08,NaN,-2.183421,1.025479E-05,-0.3951176,-7.215858E-09,NaN,NaN,0.0006969841,1.117579E-10,1.883723E-06,-1.136975E-07,1.183362E-08,-2.622604E-08
307.1801,0.04500225,-1.943169E-08,NaN,-0.3269991,-1.357993E-07,NaN,0.4165663,-1.855328E-08,NaN,-2.183931,1.02554E-05,-0.3951673,-6.954985E-09,NaN,NaN,0.01194949,1.210711E-10,1.846247E-06,-1.137006E-07,9.44943E-09,-2.861022E-08
307.1957,0.04500225,-1.943169E-08,NaN,-0.3269991,-1.357993E-07,NaN,0.4165663,-1.855328E-08,NaN,-2.183931,1.02554E-05,-0.3951673,-6.954985E-09,NaN,NaN,0.01194949,1.210711E-10,1.846247E-06,-1.137006E-07,9.44943E-09,-2.861022E-08
307.2104,0.04500224,-1.94307E-08,NaN,-0.3269991,-1.357998E-07,NaN,0.417308,-1.880266E-08,NaN,-2.182449,1.025601E-05,-0.3946386,-6.703537E-09,NaN,NaN,0.01964855,1.303843E-10,1.811154E-06,-1.137038E-07,9.44943E-09,-2.622604E-08
307.2272,0.04500224,-1.94297E-08,NaN,-0.3269991,-1.358002E-07,NaN,0.4177132,-1.904562E-08,NaN,-2.182107,1.025662E-05,-0.394261,-6.458511E-09,NaN,NaN,0.02719587,1.396976E-10,1.766153E-06,-1.137069E-07,8.257337E-09,-2.861022E-08
307.2426,0.04500224,-1.942871E-08,NaN,-0.3269991,-1.358007E-07,NaN,0.4179582,-1.92837E-08,NaN,-2.182419,1.025723E-05,-0.3939837,-6.218374E-09,NaN,NaN,0.03459519,1.490108E-10,1.722418E-06,-1.1371E-07,5.873151E-09,-2.622604E-08
307.2587,0.04500224,-1.942871E-08,NaN,-0.3269991,-1.358007E-07,NaN,0.4179582,-1.92837E-08,NaN,-2.182419,1.025723E-05,-0.3939837,-6.218374E-09,NaN,NaN,0.03459519,1.490108E-10,1.722418E-06,-1.1371E-07,5.873151E-09,-2.622604E-08
307.2736,0.04500224,-1.942771E-08,NaN,-0.3269991,-1.358012E-07,NaN,0.4181277,-1.951839E-08,NaN,-2.18291,1.025785E-05,-0.3937798,-5.98162E-09,NaN,NaN,0.04184968,1.536674E-10,1.68293E-06,-1.137131E-07,4.681058E-09,-2.861022E-08
307.2919,0.04500224,-1.942672E-08,NaN,-0.3269991,-1.358016E-07,NaN,0.4191979,-1.974977E-08,NaN,-2.181381,1.025846E-05,-0.3930094,-5.748185E-09,NaN,NaN,0.04562907,1.58324E-10,1.6497E-06,-1.137162E-07,4.681058E-09,-2.622604E-08
307.3063,0.04500224,-1.942573E-08,NaN,-0.3269991,-1.358021E-07,NaN,0.4199113,-1.997789E-08,NaN,-2.180764,1.025908E-05,-0.3924172,-5.518002E-09,NaN,NaN,0.04933384,1.629806E-10,1.611479E-06,-1.137193E-07,7.065244E-09,-2.861022E-08
307.3217,0.04500225,-1.942473E-08,NaN,-0.3269991,-1.358026E-07,NaN,0.4204493,-2.020283E-08,NaN,-2.180581,1.025969E-05,-0.3919451,-5.291008E-09,NaN,NaN,0.05296602,1.676372E-10,1.572885E-06,-1.137224E-07,1.10478E-09,-2.622604E-08
307.3377,0.04500225,-1.942473E-08,NaN,-0.3269991,-1.358026E-07,NaN,0.4204493,-2.020283E-08,NaN,-2.180581,1.025969E-05,-0.3919451,-5.291008E-09,NaN,NaN,0.05296602,1.676372E-10,1.572885E-06,-1.137224E-07,1.10478E-09,-2.622604E-08
307.3528,0.04500225,-1.942374E-08,NaN,-0.3269991,-1.358031E-07,NaN,0.4209116,-2.042464E-08,NaN,-2.180598,1.02603E-05,-0.3915326,-5.067142E-09,NaN,NaN,0.056527,1.722938E-10,1.533471E-06,-1.137255E-07,3.488966E-09,-2.861022E-08
307.3694,0.04500226,-1.942274E-08,NaN,-0.3269991,-1.358036E-07,NaN,0.4222662,-2.064339E-08,NaN,-2.178792,1.026091E-05,-0.3905411,-4.846344E-09,NaN,NaN,0.05668509,1.816071E-10,1.502849E-06,-1.137285E-07,5.873151E-09,-2.622604E-08
307.385,0.04500226,-1.942175E-08,NaN,-0.3269991,-1.358041E-07,NaN,0.42323,-2.086054E-08,NaN,-2.177689,1.026151E-05,-0.3897845,-4.627138E-09,NaN,NaN,0.05684001,1.909203E-10,1.468279E-06,-1.137316E-07,4.681058E-09,-2.861022E-08
307.4009,0.04500227,-1.942075E-08,NaN,-0.3269991,-1.358045E-07,NaN,0.4240134,-2.107472E-08,NaN,-2.176931,1.026212E-05,-0.3891515,-4.410906E-09,NaN,NaN,0.05699185,2.002335E-10,1.435124E-06,-1.137347E-07,5.873151E-09,-2.622604E-08
307.4168,0.04500227,-1.942075E-08,NaN,-0.3269991,-1.358045E-07,NaN,0.4240134,-2.107472E-08,NaN,-2.176931,1.026212E-05,-0.3891515,-4.410906E-09,NaN,NaN,0.05699185,2.002335E-10,1.435124E-06,-1.137347E-07,5.873151E-09,-2.622604E-08
307.4316,0.04500227,-1.941976E-08,NaN,-0.3269991,-1.35805E-07,NaN,0.4247143,-2.128598E-08,NaN,-2.176346,1.026273E-05,-0.3885799,-4.197592E-09,NaN,NaN,0.05714071,2.048901E-10,1.401224E-06,-1.137377E-07,8.257336E-09,-2.861022E-08
307.448,0.04500229,-1.941876E-08,NaN,-0.3269991,-1.358055E-07,NaN,0.4262888,-2.149438E-08,NaN,-2.173934,1.026333E-05,-0.387443,-3.98714E-09,NaN,NaN,0.05395356,2.142034E-10,1.372017E-06,-1.137407E-07,1.064152E-08,-2.622604E-08
307.4637,0.0450023,-1.941777E-08,NaN,-0.3269991,-1.35806E-07,NaN,0.4274653,-2.170139E-08,NaN,-2.172236,1.026394E-05,-0.3865457,-3.778076E-09,NaN,NaN,0.05082882,2.1886E-10,1.341619E-06,-1.137437E-07,1.064152E-08,-2.861022E-08
307.4795,0.0450023,-1.941777E-08,NaN,-0.3269991,-1.35806E-07,NaN,0.4274653,-2.170139E-08,NaN,-2.172236,1.026394E-05,-0.3865457,-3.778076E-09,NaN,NaN,0.05082882,2.1886E-10,1.341619E-06,-1.137437E-07,1.064152E-08,-2.861022E-08
307.4947,0.04500231,-1.941677E-08,NaN,-0.3269991,-1.358064E-07,NaN,0.4284529,-2.190562E-08,NaN,-2.170902,1.026455E-05,-0.3857777,-3.571789E-09,NaN,NaN,0.04776529,2.281732E-10,1.312115E-06,-1.137467E-07,1.302571E-08,-2.622604E-08
307.5106,0.04500232,-1.941578E-08,NaN,-0.3269991,-1.358069E-07,NaN,0.429349,-2.210713E-08,NaN,-2.169759,1.026516E-05,-0.3850777,-3.368225E-09,NaN,NaN,0.04476182,2.328298E-10,1.28194E-06,-1.137497E-07,1.183361E-08,-2.861022E-08
307.5271,0.04500234,-1.941478E-08,NaN,-0.3269991,-1.358074E-07,NaN,0.4310971,-2.230739E-08,NaN,-2.166807,1.026577E-05,-0.3838317,-3.165915E-09,NaN,NaN,0.03848414,2.374864E-10,1.257427E-06,-1.137527E-07,1.42178E-08,-2.622604E-08
307.5423,0.04500236,-1.941379E-08,NaN,-0.3269991,-1.358078E-07,NaN,0.4324421,-2.2505E-08,NaN,-2.164591,1.026638E-05,-0.3828286,-2.966251E-09,NaN,NaN,0.03232948,2.421431E-10,1.229711E-06,-1.137557E-07,1.540989E-08,-2.861022E-08
307.5582,0.04500236,-1.941379E-08,NaN,-0.3269991,-1.358078E-07,NaN,0.4324421,-2.2505E-08,NaN,-2.164591,1.026638E-05,-0.3828286,-2.966251E-09,NaN,NaN,0.03232948,2.421431E-10,1.229711E-06,-1.137557E-07,1.540989E-08,-2.861022E-08
