JMolnar6/NonAnthroHands_User_Study/HandsLoggerWithURDF/tempdata/files/Reachy_PID0_JointMotion_gesture_8_1.csv
Time,r_shoulder,r_shoulder_x,r_upper_arm,r_forearm,r_wrist,r_wrist2hand,
408.526,-0.001963417,-0.3270997,0.4600856,-0.8563819,-0.3619364,-0.01954497
408.541,-0.001424559,-0.327099,0.4601166,-0.8510977,-0.3619932,-0.01955308
408.5562,-0.001424559,-0.327099,0.4601166,-0.8510977,-0.3619932,-0.01955308
408.5698,-0.0008919153,-0.3270984,0.4601485,-0.8458958,-0.3620518,-0.01956104
408.584,-0.0003654132,-0.3270977,0.4601812,-0.8407748,-0.3621121,-0.01956884
408.5985,-0.0003654132,-0.3270977,0.4601812,-0.8407748,-0.3621121,-0.01956884
408.6126,0.000155018,-0.3270971,0.4602147,-0.8357337,-0.362174,-0.01957648
408.6279,0.0006694483,-0.3270964,0.460249,-0.830771,-0.3622376,-0.01958398
408.6425,0.001177947,-0.3270958,0.4602842,-0.8258856,-0.3623029,-0.01959133
408.657,0.001177947,-0.3270958,0.4602842,-0.8258856,-0.3623029,-0.01959133
408.6711,0.001680583,-0.3270952,0.4603201,-0.8210763,-0.3623697,-0.01959854
408.6866,0.002177422,-0.3270946,0.4603568,-0.8163419,-0.3624381,-0.0196056
408.7014,0.002668534,-0.3270939,0.4603943,-0.8116812,-0.3625079,-0.01961253
408.7159,0.002668534,-0.3270939,0.4603943,-0.8116812,-0.3625079,-0.01961253
408.73,0.003153983,-0.3270933,0.4604326,-0.8070931,-0.3625793,-0.01961932
408.7453,0.003633834,-0.3270927,0.4604716,-0.8025766,-0.3626522,-0.01962598
408.7598,0.003633834,-0.3270927,0.4604716,-0.8025766,-0.3626522,-0.01962598
408.7739,0.004108154,-0.3270921,0.4605114,-0.7981304,-0.3627264,-0.01963251
408.7893,0.004577004,-0.3270915,0.4605519,-0.7937534,-0.362802,-0.01963891
408.804,0.00504045,-0.3270909,0.4605931,-0.7894447,-0.362879,-0.01964519
408.8203,0.005498551,-0.3270904,0.460635,-0.7852032,-0.3629574,-0.01965134
408.8342,0.005498551,-0.3270904,0.460635,-0.7852032,-0.3629574,-0.01965134
408.8483,0.005951372,-0.3270898,0.4606777,-0.7810277,-0.363037,-0.01965738
408.8625,0.006398971,-0.3270892,0.460721,-0.7769173,-0.3631179,-0.01966329
408.8771,0.006398971,-0.3270892,0.460721,-0.7769173,-0.3631179,-0.01966329
408.8908,0.00684141,-0.3270887,0.460765,-0.772871,-0.3632001,-0.01966909
408.9063,0.007278749,-0.3270881,0.4608097,-0.7688877,-0.3632834,-0.01967477
408.921,0.007711045,-0.3270875,0.460855,-0.7649665,-0.3633679,-0.01968035
408.9357,0.007711045,-0.3270875,0.460855,-0.7649665,-0.3633679,-0.01968035
408.9496,0.008138359,-0.327087,0.460901,-0.7611064,-0.3634536,-0.01968581
408.9651,0.008560745,-0.3270864,0.4609476,-0.7573065,-0.3635404,-0.01969117
408.9799,0.008560745,-0.3270864,0.4609476,-0.7573065,-0.3635404,-0.01969117
408.994,0.008978263,-0.3270859,0.4609948,-0.7535658,-0.3636282,-0.01969643
409.0092,0.009390967,-0.3270853,0.4610426,-0.7498835,-0.3637171,-0.01970158
409.0236,0.009798913,-0.3270848,0.461091,-0.7462586,-0.3638071,-0.01970663
409.0384,0.009798913,-0.3270848,0.461091,-0.7462586,-0.3638071,-0.01970663
409.0526,0.01020216,-0.3270843,0.46114,-0.7426902,-0.363898,-0.01971159
409.0679,0.01060075,-0.3270837,0.4611896,-0.7391774,-0.3639899,-0.01971645
409.0823,0.01099475,-0.3270832,0.4612397,-0.7357194,-0.3640827,-0.01972121
409.0979,0.01099475,-0.3270832,0.4612397,-0.7357194,-0.3640827,-0.01972121
409.112,0.01138421,-0.3270827,0.4612904,-0.7323153,-0.3641765,-0.01972588
409.1263,0.01176918,-0.3270822,0.4613415,-0.7289643,-0.3642711,-0.01973046
409.1407,0.01214971,-0.3270817,0.4613932,-0.7256655,-0.3643665,-0.01973495
409.1553,0.01214971,-0.3270817,0.4613932,-0.7256655,-0.3643665,-0.01973495
409.1693,0.01252585,-0.3270812,0.4614454,-0.7224182,-0.3644628,-0.01973935
409.1846,0.01289766,-0.3270807,0.4614981,-0.7192215,-0.3645599,-0.01974367
409.1993,0.01289766,-0.3270807,0.4614981,-0.7192215,-0.3645599,-0.01974367
409.2133,0.01326519,-0.3270802,0.4615512,-0.7160747,-0.3646577,-0.0197479
409.2288,0.01362847,-0.3270797,0.4616049,-0.7129769,-0.3647563,-0.01975206
409.2432,0.01398757,-0.3270792,0.4616589,-0.7099275,-0.3648555,-0.01975613
409.2579,0.01398757,-0.3270792,0.4616589,-0.7099275,-0.3648555,-0.01975613
409.2721,0.01434253,-0.3270788,0.4617134,-0.7069256,-0.3649555,-0.01976012
409.2874,0.0146934,-0.3270783,0.4617684,-0.7039706,-0.3650561,-0.01976403
409.3019,0.01504022,-0.3270778,0.4618237,-0.7010615,-0.3651573,-0.01976787
409.3166,0.01504022,-0.3270778,0.4618237,-0.7010615,-0.3651573,-0.01976787
409.3309,0.01538305,-0.3270773,0.4618794,-0.698198,-0.3652592,-0.01977164
409.3463,0.01572192,-0.3270769,0.4619355,-0.695379,-0.3653616,-0.01977533
409.3605,0.01605689,-0.3270764,0.461992,-0.692604,-0.3654645,-0.01977895
409.3774,0.01605689,-0.3270764,0.461992,-0.692604,-0.3654645,-0.01977895
409.3911,0.016388,-0.3270759,0.4620489,-0.6898723,-0.365568,-0.01978251
409.4053,0.01671529,-0.3270755,0.462106,-0.6871832,-0.365672,-0.01978599
409.419,0.01671529,-0.3270755,0.462106,-0.6871832,-0.365672,-0.01978599
409.433,0.01703881,-0.327075,0.4621635,-0.684536,-0.3657765,-0.0197894
409.4482,0.0173586,-0.3270746,0.4622213,-0.6819302,-0.3658814,-0.01979275
409.4629,0.0176747,-0.3270741,0.4622794,-0.679365,-0.3659868,-0.01979603
409.4773,0.0176747,-0.3270741,0.4622794,-0.679365,-0.3659868,-0.01979603
409.4913,0.01798716,-0.3270737,0.4623379,-0.6768398,-0.3660925,-0.01979925
409.5068,0.01829602,-0.3270732,0.4623965,-0.674354,-0.3661987,-0.01980241
409.5212,0.01860132,-0.3270728,0.4624555,-0.6719069,-0.3663051,-0.01980551
409.537,0.01860132,-0.3270728,0.4624555,-0.6719069,-0.3663051,-0.01980551
409.55,0.01890312,-0.3270724,0.4626163,-0.6707297,-0.3665749,-0.01981053
409.5653,0.01920144,-0.327072,0.4627565,-0.6702877,-0.3668461,-0.01981463
409.5802,0.01949632,-0.3270715,0.4628612,-0.6701965,-0.3670805,-0.01981835
409.5948,0.01949632,-0.3270715,0.4628612,-0.6701965,-0.3670805,-0.01981835
409.6086,0.01978779,-0.3270711,0.4628414,-0.66904,-0.3671204,-0.01981988
409.6238,0.0200759,-0.3270707,0.4628325,-0.6672639,-0.3671394,-0.01982214
409.6386,0.0200759,-0.3270707,0.4628325,-0.6672639,-0.3671394,-0.01982214
409.6525,0.02036069,-0.3270703,0.4628561,-0.6652095,-0.367184,-0.01982465
409.6696,0.02064219,-0.3270699,0.4629017,-0.6630399,-0.3672533,-0.01982723
409.6833,0.02092044,-0.3270695,0.462854,-0.6596014,-0.3671738,-0.01982776
409.6968,0.02092044,-0.3270695,0.462854,-0.6596014,-0.3671738,-0.01982776
409.7108,0.02119548,-0.327069,0.4628297,-0.6554656,-0.3671001,-0.01982913
409.7261,0.02146734,-0.3270686,0.4628415,-0.6510341,-0.3670672,-0.0198308
409.7404,0.02173608,-0.3270682,0.4628755,-0.6464989,-0.3670674,-0.01983257
409.7553,0.02173608,-0.3270682,0.4628755,-0.6464989,-0.3670674,-0.01983257
409.7692,0.0220017,-0.3270678,0.4628117,-0.6407198,-0.3669216,-0.0198322
409.7845,0.02226425,-0.3270674,0.4627684,-0.6342745,-0.3667827,-0.01983272
409.799,0.02226425,-0.3270674,0.4627684,-0.6342745,-0.3667827,-0.01983272
409.8129,0.02252378,-0.327067,0.462761,-0.6275674,-0.3666864,-0.01983358
409.8286,0.02278029,-0.3270667,0.4626644,-0.6195596,-0.3664557,-0.01983224
409.8432,0.02303385,-0.3270663,0.4625939,-0.610877,-0.3662407,-0.01983188
409.8573,0.02303385,-0.3270663,0.4625939,-0.610877,-0.3662407,-0.01983188
409.8731,0.02328447,-0.3270659,0.4625631,-0.601947,-0.366075,-0.01983188
409.8869,0.02353221,-0.3270655,0.462558,-0.5929731,-0.36595,-0.01983197
409.9016,0.02377708,-0.3270651,0.4625514,-0.583907,-0.3658315,-0.01983178
409.9163,0.02377708,-0.3270651,0.4625514,-0.583907,-0.3658315,-0.01983178
409.9302,0.02401913,-0.3270647,0.4625513,-0.5748571,-0.3657288,-0.01983168
409.9454,0.02425838,-0.3270643,0.4625574,-0.5658891,-0.3656416,-0.01983159
409.9621,0.02449487,-0.3270639,0.4625676,-0.5570336,-0.3655663,-0.01983146
409.9756,0.02449487,-0.3270639,0.4625676,-0.5570336,-0.3655663,-0.01983146
409.9893,0.02472864,-0.3270636,0.4625804,-0.548304,-0.3655002,-0.01983128
410.0036,0.0249597,-0.3270632,0.4625955,-0.5397056,-0.3654416,-0.01983103
410.0181,0.0249597,-0.3270632,0.4625955,-0.5397056,-0.3654416,-0.01983103
410.032,0.0251881,-0.3270629,0.4626127,-0.5312399,-0.3653895,-0.01983072
410.0476,0.02541386,-0.3270625,0.4626324,-0.5229065,-0.3653434,-0.01983035
410.0621,0.02563701,-0.3270622,0.4626548,-0.5147042,-0.365303,-0.0198299
410.0767,0.02563701,-0.3270622,0.4626548,-0.5147042,-0.365303,-0.0198299
410.0906,0.02585759,-0.3270618,0.4626802,-0.5066313,-0.3652684,-0.01982939
410.106,0.02607563,-0.3270614,0.4627087,-0.4986858,-0.3652394,-0.01982881
410.1206,0.02629115,-0.3270611,0.4627407,-0.4908659,-0.3652159,-0.01982816
410.1354,0.02629115,-0.3270611,0.4627407,-0.4908659,-0.3652159,-0.01982816
410.1492,0.02650418,-0.3270607,0.4627761,-0.4831696,-0.365198,-0.01982743
410.1647,0.02671475,-0.3270604,0.462815,-0.475595,-0.3651856,-0.01982663
410.1794,0.02671475,-0.3270604,0.462815,-0.475595,-0.3651856,-0.01982663
410.1931,0.02692289,-0.32706,0.4628577,-0.4681402,-0.3651786,-0.01982576
410.2083,0.02712863,-0.3270597,0.462904,-0.4608034,-0.3651771,-0.01982482
410.2231,0.027332,-0.3270594,0.4629541,-0.4535826,-0.3651811,-0.0198238
410.2375,0.027332,-0.3270594,0.4629541,-0.4535826,-0.3651811,-0.0198238
410.2536,0.02753302,-0.327059,0.463008,-0.446476,-0.3651904,-0.01982271
410.268,0.02773173,-0.3270587,0.4630657,-0.4394819,-0.365205,-0.01982154
410.2814,0.02792814,-0.3270584,0.4631273,-0.4325984,-0.3652249,-0.0198203
410.2961,0.02792814,-0.3270584,0.4631273,-0.4325984,-0.3652249,-0.0198203
410.31,0.02812229,-0.327058,0.4631926,-0.4258237,-0.3652501,-0.01981898
410.3253,0.02831419,-0.3270577,0.4632619,-0.4191563,-0.3652805,-0.01981758
410.3398,0.02831419,-0.3270577,0.4632619,-0.4191563,-0.3652805,-0.01981758
410.3537,0.02850389,-0.3270574,0.4633352,-0.4125944,-0.3653162,-0.0198161
410.369,0.02869139,-0.3270571,0.4634123,-0.4061363,-0.365357,-0.01981455
410.3837,0.02887673,-0.3270567,0.4634935,-0.3997804,-0.3654029,-0.0198129
410.3982,0.02887673,-0.3270567,0.4634935,-0.3997804,-0.3654029,-0.0198129
410.4124,0.02905994,-0.3270564,0.4635786,-0.393525,-0.3654539,-0.01981118
410.4277,0.02924103,-0.3270561,0.4636678,-0.3873687,-0.36551,-0.01980937
410.4422,0.02942004,-0.3270558,0.463761,-0.3813098,-0.3655712,-0.01980749
410.4572,0.02942004,-0.3270558,0.463761,-0.3813098,-0.3655712,-0.01980749
410.4711,0.02959698,-0.3270555,0.4638582,-0.3753468,-0.3656374,-0.01980552
410.4864,0.02977188,-0.3270552,0.4639596,-0.3694781,-0.3657086,-0.01980346
410.5009,0.02994477,-0.3270549,0.4640651,-0.3637024,-0.3657847,-0.01980131
410.5157,0.02994477,-0.3270549,0.4640651,-0.3637024,-0.3657847,-0.01980131
410.5297,0.03011566,-0.3270546,0.4641747,-0.358018,-0.3658659,-0.01979908
410.5469,0.03028458,-0.3270543,0.4642884,-0.3524237,-0.365952,-0.01979676
410.5609,0.03045155,-0.327054,0.4644064,-0.3469178,-0.3660429,-0.01979435
410.5739,0.03045155,-0.327054,0.4644064,-0.3469178,-0.3660429,-0.01979435
410.5881,0.0306166,-0.3270537,0.4645285,-0.3414991,-0.3661388,-0.01979184
410.6034,0.03077975,-0.3270534,0.4646549,-0.3361662,-0.3662396,-0.01978924
410.6177,0.03077975,-0.3270534,0.4646549,-0.3361662,-0.3662396,-0.01978924
410.6322,0.03094102,-0.3270531,0.4647855,-0.3309177,-0.3663452,-0.01978655
410.6472,0.03110042,-0.3270528,0.4649204,-0.3257523,-0.3664557,-0.01978376
410.6618,0.03125799,-0.3270525,0.4650596,-0.3206687,-0.366571,-0.01978087
410.6764,0.03125799,-0.3270525,0.4650596,-0.3206687,-0.366571,-0.01978087
410.6903,0.03141375,-0.3270522,0.4652031,-0.3156655,-0.3666911,-0.01977788
410.706,0.03156771,-0.3270519,0.4653509,-0.3107416,-0.3668161,-0.01977479
410.7205,0.03171989,-0.3270516,0.4655031,-0.3058956,-0.3669458,-0.0197716
410.7352,0.03171989,-0.3270516,0.4655031,-0.3058956,-0.3669458,-0.0197716
410.749,0.03187032,-0.3270514,0.4656596,-0.3011263,-0.3670803,-0.01976831
410.7645,0.03201902,-0.3270511,0.4658206,-0.2964325,-0.3672196,-0.01976491
410.7792,0.03201902,-0.3270511,0.4658206,-0.2964325,-0.3672196,-0.01976491
410.793,0.03216601,-0.3270508,0.465986,-0.291813,-0.3673636,-0.0197614
410.8084,0.0323113,-0.3270506,0.4661557,-0.2872667,-0.3675123,-0.01975778
410.8227,0.03245492,-0.3270503,0.46633,-0.2827923,-0.3676658,-0.01975406
410.8385,0.03245492,-0.3270503,0.46633,-0.2827923,-0.3676658,-0.01975406
410.8525,0.03259688,-0.32705,0.4665087,-0.2783888,-0.367824,-0.01975021
410.8669,0.0327372,-0.3270498,0.4666919,-0.274055,-0.3679869,-0.01974625
410.8813,0.03287591,-0.3270495,0.4668795,-0.2697898,-0.3681545,-0.01974218
410.8959,0.03287591,-0.3270495,0.4668795,-0.2697898,-0.3681545,-0.01974218
410.9098,0.03301302,-0.3270492,0.4670717,-0.2655921,-0.3683268,-0.01973798
410.9253,0.03314855,-0.327049,0.4672685,-0.2614609,-0.3685037,-0.01973367
410.9398,0.03314855,-0.327049,0.4672685,-0.2614609,-0.3685037,-0.01973367
410.9539,0.03328252,-0.3270487,0.4674698,-0.2573951,-0.3686854,-0.01972923
410.9691,0.03341495,-0.3270484,0.4676756,-0.2533937,-0.3688717,-0.01972467
410.9837,0.03354584,-0.3270482,0.467886,-0.2494557,-0.3690626,-0.01971998
410.9986,0.03354584,-0.3270482,0.467886,-0.2494557,-0.3690626,-0.01971998
411.0129,0.03367524,-0.3270479,0.468101,-0.24558,-0.3692582,-0.01971516
411.0285,0.03380314,-0.3270476,0.4683205,-0.2417657,-0.3694584,-0.01971021
411.0426,0.03392957,-0.3270473,0.4685447,-0.2380117,-0.3696633,-0.01970513
411.0573,0.03392957,-0.3270473,0.4685447,-0.2380117,-0.3696633,-0.01970513
411.0714,0.03405454,-0.3270471,0.4687735,-0.2343173,-0.3698727,-0.0196999
411.0868,0.03417807,-0.3270469,0.4690068,-0.2306813,-0.3700867,-0.01969454
411.1013,0.03430019,-0.3270466,0.4692448,-0.2271029,-0.3703053,-0.01968904
411.117,0.03430019,-0.3270466,0.4692448,-0.2271029,-0.3703053,-0.01968904
411.1312,0.03442089,-0.3270464,0.4694874,-0.2235811,-0.3705285,-0.0196834
411.1455,0.0345402,-0.3270462,0.4697346,-0.2201151,-0.3707562,-0.01967761
411.1599,0.0345402,-0.3270462,0.4697346,-0.2201151,-0.3707562,-0.01967761
411.1738,0.03465814,-0.3270459,0.4699864,-0.2167041,-0.3709885,-0.01967167
411.1892,0.03477472,-0.3270457,0.4702429,-0.213347,-0.3712253,-0.01966558
411.2041,0.03488996,-0.3270454,0.470504,-0.2100431,-0.3714666,-0.01965934
411.2185,0.03488996,-0.3270454,0.470504,-0.2100431,-0.3714666,-0.01965934
411.2325,0.03500387,-0.3270452,0.4707696,-0.2067915,-0.3717124,-0.01965294
411.2479,0.03511646,-0.327045,0.4710399,-0.2035914,-0.3719626,-0.01964638
411.2627,0.03522776,-0.3270447,0.4713148,-0.200442,-0.3722173,-0.01963966
411.2773,0.03522776,-0.3270447,0.4713148,-0.200442,-0.3722173,-0.01963966
411.2914,0.03533778,-0.3270445,0.4715942,-0.1973424,-0.3724764,-0.01963278
411.3066,0.03544654,-0.3270442,0.4718783,-0.194292,-0.3727399,-0.01962572
411.3213,0.03555404,-0.327044,0.4721668,-0.1912899,-0.3730078,-0.0196185
411.3363,0.03555404,-0.327044,0.4721668,-0.1912899,-0.3730078,-0.0196185
411.3503,0.0356603,-0.3270438,0.4724599,-0.1883353,-0.3732801,-0.01961111
411.3654,0.03576533,-0.3270435,0.4728093,-0.185571,-0.373611,-0.01960676
411.3799,0.03576533,-0.3270435,0.4728093,-0.185571,-0.373611,-0.01960676
411.3961,0.03586917,-0.3270433,0.4731651,-0.1829362,-0.3739499,-0.01960095
411.4101,0.0359718,-0.3270431,0.473516,-0.1803837,-0.3742841,-0.01959444
411.4236,0.03607325,-0.3270428,0.4738621,-0.1778911,-0.3746135,-0.01958753
411.4382,0.03607325,-0.3270428,0.4738621,-0.1778911,-0.3746135,-0.01958753
411.4523,0.03617355,-0.3270426,0.4746742,-0.1766663,-0.3754302,-0.01961099
411.4676,0.0362727,-0.3270424,0.4754948,-0.1761941,-0.3762685,-0.01962182
411.4822,0.03637071,-0.3270422,0.4762256,-0.176078,-0.3770219,-0.01962726
411.4969,0.03637071,-0.3270422,0.4762256,-0.176078,-0.3770219,-0.01962726
411.5111,0.0364676,-0.327042,0.47735,-0.1773488,-0.3781912,-0.01966191
411.5262,0.03656337,-0.3270418,0.4784111,-0.1794084,-0.3793098,-0.01968221
411.5408,0.03665805,-0.3270416,0.4793352,-0.18182,-0.3802955,-0.01969627
411.5556,0.03665805,-0.3270416,0.4793352,-0.18182,-0.3802955,-0.01969627
411.5696,0.03675163,-0.3270414,0.4801463,-0.1843766,-0.3811679,-0.01970749
411.5852,0.03684414,-0.3270412,0.4813366,-0.1882007,-0.38244,-0.01974682
411.5996,0.03684414,-0.3270412,0.4813366,-0.1882007,-0.38244,-0.01974682
411.6137,0.03693559,-0.327041,0.4824583,-0.1927352,-0.3836559,-0.01977234
411.6293,0.03702599,-0.3270408,0.4834393,-0.1975642,-0.3847354,-0.01979159
411.6438,0.03711534,-0.3270406,0.4843009,-0.2024912,-0.3856959,-0.0198077
411.6583,0.03711534,-0.3270406,0.4843009,-0.2024912,-0.3856959,-0.0198077
411.6747,0.03720368,-0.3270404,0.4854937,-0.2086466,-0.3870107,-0.01984727
411.6885,0.037291,-0.3270402,0.4866045,-0.2154718,-0.3882582,-0.01987412
411.7022,0.03737731,-0.32704,0.487567,-0.2225537,-0.3893636,-0.01989493
411.7169,0.03737731,-0.32704,0.487567,-0.2225537,-0.3893636,-0.01989493
411.7308,0.03746261,-0.3270398,0.4879519,-0.2282557,-0.3898631,-0.01988713
411.746,0.03754692,-0.3270396,0.4882522,-0.2330964,-0.3902583,-0.01988867
411.7607,0.03763026,-0.3270394,0.4885793,-0.2374937,-0.3906713,-0.01989363
411.7752,0.03763026,-0.3270394,0.4885793,-0.2374937,-0.3906713,-0.01989363
411.789,0.03771263,-0.3270392,0.4889363,-0.2416463,-0.3911108,-0.0198997
411.8045,0.03779406,-0.327039,0.489306,-0.2456491,-0.3915627,-0.01990599
411.8191,0.03779406,-0.327039,0.489306,-0.2456491,-0.3915627,-0.01990599
411.8331,0.03787456,-0.3270388,0.4896731,-0.2495481,-0.3920132,-0.01991213
411.8487,0.03795413,-0.3270386,0.4900283,-0.2533658,-0.3924535,-0.01991801
411.8633,0.03803279,-0.3270385,0.4903665,-0.2571135,-0.3928786,-0.01992358
411.8777,0.03803279,-0.3270385,0.4903665,-0.2571135,-0.3928786,-0.01992358
411.8917,0.03811036,-0.3270383,0.4906855,-0.2607971,-0.3932862,-0.01992883
411.9071,0.03818693,-0.3270381,0.4909845,-0.2644198,-0.3936753,-0.01993378
411.9222,0.03826254,-0.3270379,0.4912635,-0.2679839,-0.3940458,-0.01993843
411.9364,0.03826254,-0.3270379,0.4912635,-0.2679839,-0.3940458,-0.01993843
411.9525,0.03761079,-0.3270391,0.4924536,-0.2710876,-0.3951741,-0.01994164
411.9667,0.03650408,-0.3270406,0.4938979,-0.2740188,-0.3964825,-0.01994442
411.9805,0.03511572,-0.3270419,0.4953493,-0.2768917,-0.3977649,-0.01994704
411.9953,0.03511572,-0.3270419,0.4953493,-0.2768917,-0.3977649,-0.01994704
412.0088,0.03355595,-0.3270429,0.4967261,-0.279745,-0.3989609,-0.01994957
412.0255,0.03116657,-0.3270459,0.4989202,-0.2821839,-0.4008227,-0.01995089
412.0388,0.03116657,-0.3270459,0.4989202,-0.2821839,-0.4008227,-0.01995089
412.0528,0.02826519,-0.3270492,0.5012965,-0.284492,-0.4027996,-0.01995192
412.0681,0.02505383,-0.3270521,0.5036238,-0.2867768,-0.4047033,-0.01995291
412.0827,0.02166088,-0.3270543,0.5058317,-0.2890705,-0.4064853,-0.01995389
412.0976,0.02166088,-0.3270543,0.5058317,-0.2890705,-0.4064853,-0.01995389
412.1115,0.0174396,-0.3270581,0.5088058,-0.2909752,-0.4088952,-0.01995376
412.127,0.01271484,-0.3270617,0.5119284,-0.2927692,-0.4113984,-0.01995342
412.1415,0.007693117,-0.3270643,0.5149767,-0.2945569,-0.4138137,-0.0199531
412.1561,0.007693117,-0.3270643,0.5149767,-0.2945569,-0.4138137,-0.0199531
412.1702,0.001777314,-0.3270681,0.5187765,-0.2959697,-0.4168432,-0.01995173
412.1855,-0.004676199,-0.3270708,0.5226966,-0.297293,-0.4199429,-0.0199502
412.2002,-0.01144095,-0.3270721,0.5265135,-0.2986316,-0.4229324,-0.01994874
412.2148,-0.01144095,-0.3270721,0.5265135,-0.2986316,-0.4229324,-0.01994874
412.2308,-0.01837314,-0.3270725,0.5301654,-0.3000141,-0.4257711,-0.01994734
412.245,-0.02610993,-0.3270737,0.5345406,-0.3010434,-0.4292161,-0.01994491
412.2596,-0.02610993,-0.3270737,0.5345406,-0.3010434,-0.4292161,-0.01994491
412.2725,-0.03432047,-0.3270742,0.5390284,-0.3019916,-0.4327377,-0.01994231
412.2876,-0.04279463,-0.3270739,0.5434119,-0.3029598,-0.436158,-0.01993977
412.3022,-0.05139912,-0.327073,0.5476282,-0.3039761,-0.4394328,-0.01993731
412.3168,-0.05139912,-0.327073,0.5476282,-0.3039761,-0.4394328,-0.01993731
412.3308,-0.06077787,-0.327073,0.5525732,-0.3046482,-0.443329,-0.0199338
412.3461,-0.07060436,-0.3270722,0.5576281,-0.3052466,-0.4473065,-0.01993014
412.3607,-0.08067135,-0.3270705,0.5625733,-0.3058724,-0.4511835,-0.01992656
412.3754,-0.08067135,-0.3270705,0.5625733,-0.3058724,-0.4511835,-0.01992656
412.3893,-0.09157572,-0.3270695,0.5682588,-0.3061652,-0.4556922,-0.01992192
412.4047,-0.1029611,-0.3270674,0.5740398,-0.3064026,-0.4602703,-0.01991717
412.4193,-0.1029611,-0.3270674,0.5740398,-0.3064026,-0.4602703,-0.01991717
412.4334,-0.1146014,-0.3270642,0.5796911,-0.3066864,-0.4647317,-0.01991252
412.4488,-0.1263533,-0.3270594,0.5851481,-0.3070432,-0.46903,-0.019908
412.4635,-0.1388544,-0.3270558,0.5913445,-0.3070881,-0.4739744,-0.01990234
412.4781,-0.1388544,-0.3270558,0.5913445,-0.3070881,-0.4739744,-0.01990234
412.492,-0.1517743,-0.3270505,0.5976372,-0.3070835,-0.4789984,-0.01989655
412.5073,-0.1649036,-0.3270431,0.6038011,-0.3071271,-0.4839125,-0.01989089
412.5231,-0.1781094,-0.3270337,0.6097725,-0.3072457,-0.4886695,-0.01988535
412.5376,-0.1781094,-0.3270337,0.6097725,-0.3072457,-0.4886695,-0.01988535
412.5516,-0.1920364,-0.3270252,0.6165091,-0.3070616,-0.4941045,-0.01987861
412.5659,-0.2063587,-0.3270149,0.6233472,-0.3068342,-0.4996289,-0.01987175
412.5806,-0.2208694,-0.3270023,0.6300549,-0.3066606,-0.5050452,-0.01986503
412.5953,-0.2208694,-0.3270023,0.6300549,-0.3066606,-0.5050452,-0.01986503
412.6094,-0.2361662,-0.3269899,0.6375523,-0.3061961,-0.5111617,-0.01985708
412.6245,-0.2518933,-0.3269752,0.6451411,-0.3057057,-0.5173586,-0.01984904
412.6391,-0.2518933,-0.3269752,0.6451411,-0.3057057,-0.5173586,-0.01984904
412.6533,-0.2678249,-0.3269576,0.6525815,-0.305287,-0.5234317,-0.01984116
412.6685,-0.2838185,-0.3269374,0.6598082,-0.3049656,-0.5293317,-0.01983342
412.6836,-0.3005122,-0.3269178,0.6678395,-0.3043752,-0.5359591,-0.01982433
412.698,-0.3005122,-0.3269178,0.6678395,-0.3043752,-0.5359591,-0.01982433
412.713,-0.3175762,-0.3268961,0.6759705,-0.3037644,-0.5426818,-0.01981513
412.7278,-0.3348017,-0.3268717,0.6839581,-0.3032264,-0.5492898,-0.0198061
412.7423,-0.3520564,-0.3268451,0.6917345,-0.3027865,-0.55573,-0.01979724
412.7567,-0.3520564,-0.3268451,0.6917345,-0.3027865,-0.55573,-0.01979724
412.7713,-0.3699854,-0.3268194,0.7003551,-0.3020882,-0.5629413,-0.01978691
412.7884,-0.3882634,-0.3267916,0.7090836,-0.3013751,-0.5702593,-0.0197765
412.8018,-0.4066842,-0.3267613,0.7176664,-0.3007394,-0.5774623,-0.01976629
412.8165,-0.4066842,-0.3267613,0.7176664,-0.3007394,-0.5774623,-0.01976629
412.8306,-0.4258458,-0.3267313,0.7271267,-0.2998585,-0.5854669,-0.01975457
412.8448,-0.445393,-0.3266985,0.7366854,-0.2989801,-0.593569,-0.01974281
412.8593,-0.445393,-0.3266985,0.7366854,-0.2989801,-0.593569,-0.01974281
412.8732,-0.4651006,-0.3266625,0.746079,-0.2981962,-0.6015381,-0.0197313
412.8885,-0.4848265,-0.3266239,0.7552365,-0.2975308,-0.6093176,-0.01972
412.9033,-0.5052093,-0.3265861,0.7652963,-0.2966442,-0.6179339,-0.01970704
412.9179,-0.5052093,-0.3265861,0.7652963,-0.2966442,-0.6179339,-0.01970704
412.9321,-0.5259199,-0.326546,0.7754642,-0.2957656,-0.6266626,-0.01969404
412.9479,-0.5467497,-0.3265031,0.7854694,-0.2949821,-0.6352636,-0.01968131
412.9623,-0.5675672,-0.326458,0.7952371,-0.294317,-0.6436754,-0.01966884
412.9769,-0.5675672,-0.326458,0.7952371,-0.294317,-0.6436754,-0.01966884
412.9907,-0.5890177,-0.3264141,0.8059533,-0.293444,-0.6529737,-0.01965462
413.0063,-0.6107766,-0.3263682,0.8167834,-0.2925848,-0.6623925,-0.0196404
413.0209,-0.6326381,-0.3263196,0.8274427,-0.2918245,-0.6716769,-0.01962652
413.0356,-0.6326381,-0.3263196,0.8274427,-0.2918245,-0.6716769,-0.01962652
413.0497,-0.6546934,-0.3262697,0.8382263,-0.2910912,-0.6811002,-0.01961234
413.0671,-0.6767783,-0.3262182,0.8488588,-0.2904514,-0.6904123,-0.01959837
413.0806,-0.6987891,-0.3261656,0.8592581,-0.2899239,-0.6995415,-0.01958469
413.0943,-0.6987891,-0.3261656,0.8592581,-0.2899239,-0.6995415,-0.01958469
413.108,-0.7206611,-0.3261126,0.8694091,-0.2895075,-0.7084769,-0.0195713
413.1236,-0.7423544,-0.3260598,0.8793177,-0.2891943,-0.7172253,-0.01955821
413.1379,-0.7423544,-0.3260598,0.8793177,-0.2891943,-0.7172253,-0.01955821
413.152,-0.7638445,-0.326008,0.8889926,-0.2889752,-0.7257953,-0.01954539
413.1674,-0.7851169,-0.3259574,0.8984414,-0.2888419,-0.7341936,-0.01953288
413.182,-0.8061635,-0.3259083,0.9076687,-0.2887875,-0.7424238,-0.01952071
413.1967,-0.8061635,-0.3259083,0.9076687,-0.2887875,-0.7424238,-0.01952071
413.2108,-0.8269801,-0.325861,0.9166769,-0.2888063,-0.7504873,-0.0195089
413.2262,-0.8475651,-0.3258156,0.9254668,-0.2888937,-0.7583835,-0.01949744
413.2409,-0.8679183,-0.325772,0.9340379,-0.2890457,-0.7661107,-0.01948637
413.2557,-0.8679183,-0.325772,0.9340379,-0.2890457,-0.7661107,-0.01948637
413.2697,-0.8880408,-0.3257304,0.9423892,-0.2892591,-0.7736671,-0.01947571
413.2852,-0.9079341,-0.3256907,0.9505194,-0.2895307,-0.7810501,-0.01946546
413.2996,-0.9079341,-0.3256907,0.9505194,-0.2895307,-0.7810501,-0.01946546
413.3138,-0.9276001,-0.3256529,0.9584269,-0.289858,-0.7882571,-0.01945562
413.3292,-0.947041,-0.3256169,0.9661102,-0.2902382,-0.7952857,-0.0194462
413.345,-0.966259,-0.3255828,0.973568,-0.290669,-0.8021334,-0.01943721
413.3595,-0.966259,-0.3255828,0.973568,-0.290669,-0.8021334,-0.01943721
413.3724,-0.9852566,-0.3255505,0.980799,-0.291148,-0.8087983,-0.01942863
413.3877,-1.004036,-0.3255199,0.9878021,-0.291673,-0.8152782,-0.01942046
413.4023,-1.0226,-0.3254909,0.9945771,-0.2922419,-0.8215718,-0.01941272
413.417,-1.0226,-0.3254909,0.9945771,-0.2922419,-0.8215718,-0.01941272
413.431,-1.040951,-0.3254636,1.001123,-0.2928524,-0.8276774,-0.01940539
413.4465,-1.059091,-0.3254379,1.00744,-0.2935025,-0.8335941,-0.01939847
413.4611,-1.077023,-0.3254138,1.013527,-0.2941902,-0.8393213,-0.01939195
413.4758,-1.077023,-0.3254138,1.013527,-0.2941902,-0.8393213,-0.01939195
413.4898,-1.094748,-0.3253911,1.019387,-0.2949134,-0.8448581,-0.01938584
413.5054,-1.112271,-0.32537,1.025017,-0.2956704,-0.8502044,-0.01938011
413.52,-1.129591,-0.3253502,1.030421,-0.2964592,-0.8553601,-0.01937477
413.5346,-1.129591,-0.3253502,1.030421,-0.2964592,-0.8553601,-0.01937477
413.5486,-1.146713,-0.3253317,1.035599,-0.297278,-0.8603255,-0.01936981
413.5642,-1.163638,-0.3253146,1.040551,-0.2981249,-0.8651008,-0.01936521
413.5787,-1.163638,-0.3253146,1.040551,-0.2981249,-0.8651008,-0.01936521
413.5926,-1.180369,-0.3252988,1.04528,-0.2989983,-0.8696868,-0.01936098
413.61,-1.196907,-0.3252842,1.049787,-0.2998964,-0.8740844,-0.0193571
413.6234,-1.213255,-0.3252709,1.054074,-0.3008178,-0.8782948,-0.01935356
413.6371,-1.213255,-0.3252709,1.054074,-0.3008178,-0.8782948,-0.01935356
413.6511,-1.229195,-0.3252579,1.057724,-0.3018313,-0.8819282,-0.01935098
413.6665,-1.24481,-0.3252464,1.061045,-0.3028861,-0.8852743,-0.01934878
413.6812,-1.260157,-0.3252366,1.06415,-0.303959,-0.8884363,-0.0193468
413.696,-1.260157,-0.3252366,1.06415,-0.303959,-0.8884363,-0.0193468
413.7105,-1.274543,-0.3252262,1.065696,-0.3052692,-0.8901626,-0.01934712
413.7263,-1.288264,-0.3252181,1.066702,-0.3066548,-0.8914071,-0.01934784
413.7437,-1.301509,-0.3252132,1.067527,-0.3080449,-0.8925029,-0.01934859
413.7575,-1.301509,-0.3252132,1.067527,-0.3080449,-0.8925029,-0.01934859
413.7717,-1.3144,-0.3252113,1.068273,-0.3094142,-0.8935441,-0.01934937
413.7879,-1.326287,-0.3252096,1.0676,-0.3109845,-0.8932754,-0.0193522
413.8031,-1.337492,-0.3252095,1.066489,-0.3126003,-0.8926172,-0.01935535
413.8186,-1.337492,-0.3252095,1.066489,-0.3126003,-0.8926172,-0.01935535
413.8338,-1.348221,-0.3252108,1.06528,-0.3141968,-0.8918836,-0.01935846
413.8514,-1.358607,-0.325213,1.064063,-0.315753,-0.891157,-0.01936152
413.8694,-1.368004,-0.3252147,1.061519,-0.3174964,-0.8892019,-0.01936643
413.8829,-1.376741,-0.3252175,1.058604,-0.3192734,-0.8869155,-0.01937156
413.8984,-1.376741,-0.3252175,1.058604,-0.3192734,-0.8869155,-0.01937156
413.9136,-1.385026,-0.3252223,1.055649,-0.3210213,-0.8846041,-0.01937654
413.9301,-1.392991,-0.3252294,1.052741,-0.3227207,-0.8823469,-0.01938135
413.9496,-1.399995,-0.3252363,1.04859,-0.3246031,-0.8789367,-0.01938782
413.9652,-1.406364,-0.3252451,1.044128,-0.3265134,-0.8752474,-0.01939442
413.9808,-1.412308,-0.3252562,1.039676,-0.3283885,-0.8715768,-0.01940079
413.9965,-1.412308,-0.3252562,1.039676,-0.3283885,-0.8715768,-0.01940079
414.0117,-1.417958,-0.3252696,1.035318,-0.3302086,-0.8680007,-0.01940691
414.028,-1.422673,-0.3252824,1.029801,-0.3322124,-0.8633487,-0.01941454
414.0437,-1.42678,-0.3252963,1.024029,-0.3342406,-0.8584669,-0.01942225
414.0593,-1.42678,-0.3252963,1.024029,-0.3342406,-0.8584669,-0.01942225
414.0745,-1.430486,-0.3253117,1.018314,-0.3362291,-0.8536443,-0.01942968
414.091,-1.433925,-0.3253285,1.012737,-0.3381582,-0.8489543,-0.01943681
414.1068,-1.436454,-0.3253441,1.006084,-0.3402752,-0.8432667,-0.01944529
414.1222,-1.438399,-0.3253598,0.9992318,-0.3424152,-0.8373972,-0.01945379
414.1377,-1.438399,-0.3253598,0.9992318,-0.3424152,-0.8373972,-0.01945379
414.1527,-1.439969,-0.3253762,0.9924793,-0.3445123,-0.8316251,-0.01946198
414.1692,-1.441296,-0.3253932,0.985903,-0.3465466,-0.8260207,-0.01946982
414.185,-1.441737,-0.3254083,0.9783365,-0.3487754,-0.8194971,-0.01947888
414.201,-1.441619,-0.3254229,0.9706215,-0.3510267,-0.8128384,-0.01948792
414.2167,-1.441619,-0.3254229,0.9706215,-0.3510267,-0.8128384,-0.01948792
414.234,-1.441149,-0.3254373,0.9630458,-0.3532326,-0.806312,-0.01949661
414.2481,-1.440461,-0.3254518,0.9556818,-0.3553726,-0.799985,-0.01950493
414.2634,-1.43891,-0.325464,0.9474092,-0.3577153,-0.7928158,-0.01951434
414.2788,-1.43891,-0.325464,0.9474092,-0.3577153,-0.7928158,-0.01951434
414.2938,-1.436822,-0.3254749,0.9390337,-0.360081,-0.785553,-0.0195237
414.31,-1.434405,-0.3254851,0.930832,-0.3623992,-0.7784533,-0.0195327
414.3258,-1.431791,-0.3254949,0.9228724,-0.3646486,-0.7715804,-0.0195413
414.3415,-1.428337,-0.325502,0.9140832,-0.3671097,-0.7639405,-0.01955088
414.357,-1.428337,-0.325502,0.9140832,-0.3671097,-0.7639405,-0.01955088
414.3721,-1.424368,-0.3255073,0.9052336,-0.369594,-0.7562459,-0.01956039
414.3881,-1.420091,-0.3255115,0.8965877,-0.3720285,-0.7487414,-0.01956952
414.4036,-1.415639,-0.3255148,0.8882099,-0.374391,-0.7414871,-0.01957823
414.4192,-1.415639,-0.3255148,0.8882099,-0.374391,-0.7414871,-0.01957823
414.4342,-1.410368,-0.3255159,0.879078,-0.3769746,-0.7335383,-0.01958783
414.4505,-1.404602,-0.325516,0.8699247,-0.3795823,-0.7255711,-0.01959731
414.4663,-1.398551,-0.3255157,0.8610008,-0.3821378,-0.7178173,-0.01960641
414.4818,-1.392344,-0.325515,0.8523661,-0.384618,-0.7103328,-0.01961508
414.4975,-1.392344,-0.325515,0.8523661,-0.384618,-0.7103328,-0.01961508
414.5124,-1.385338,-0.3255117,0.8430475,-0.3873277,-0.7022215,-0.01962454
414.5287,-1.377858,-0.3255064,0.8337401,-0.390061,-0.6941218,-0.0196339
414.5441,-1.370111,-0.3254997,0.8246819,-0.3927386,-0.6862534,-0.01964286
414.5596,-1.370111,-0.3254997,0.8246819,-0.3927386,-0.6862534,-0.01964286
414.5744,-1.361501,-0.3254897,0.815003,-0.3956522,-0.6778181,-0.01965252
414.5908,-1.352384,-0.3254771,0.805389,-0.3985817,-0.6694437,-0.01966202
414.6066,-1.342986,-0.3254625,0.7960691,-0.4014446,-0.6613414,-0.0196711
414.6221,-1.33345,-0.3254465,0.787092,-0.4042177,-0.6535568,-0.01967971
414.6378,-1.33345,-0.3254465,0.787092,-0.4042177,-0.6535568,-0.01967971
414.6527,-1.32314,-0.3254274,0.7775676,-0.4072282,-0.6452774,-0.01968894
414.669,-1.312386,-0.3254057,0.7681202,-0.4102563,-0.6370713,-0.01969801
414.6846,-1.301397,-0.3253819,0.7589617,-0.4132187,-0.629132,-0.01970669
414.7003,-1.290307,-0.3253569,0.7501389,-0.4160915,-0.6215033,-0.01971493
414.7163,-1.290307,-0.3253569,0.7501389,-0.4160915,-0.6215033,-0.01971493
414.731,-1.278471,-0.3253287,0.7408143,-0.4192124,-0.6134249,-0.01972372
414.7476,-1.266216,-0.3252979,0.7315786,-0.4223522,-0.6054305,-0.01973235
414.7629,-1.253749,-0.325265,0.7226334,-0.425424,-0.5977038,-0.01974061
414.7785,-1.253749,-0.325265,0.7226334,-0.425424,-0.5977038,-0.01974061
414.7932,-1.2412,-0.3252307,0.7140238,-0.4284026,-0.5902863,-0.01974845
414.8093,-1.227924,-0.3251935,0.704961,-0.431636,-0.5824666,-0.01975678
414.825,-1.214247,-0.3251534,0.696001,-0.4348867,-0.5747436,-0.01976495
414.8406,-1.200374,-0.3251113,0.6873339,-0.4380653,-0.5672891,-0.01977276
414.8564,-1.200374,-0.3251113,0.6873339,-0.4380653,-0.5672891,-0.01977276
414.8717,-1.186436,-0.3250678,0.6790018,-0.4411457,-0.5601419,-0.01978018
414.8878,-1.171788,-0.3250214,0.6702613,-0.4444858,-0.5526365,-0.01978801
414.9034,-1.156754,-0.3249721,0.6616348,-0.4478409,-0.5452376,-0.01979569
414.9188,-1.156754,-0.3249721,0.6616348,-0.4478409,-0.5452376,-0.01979569
414.9338,-1.14154,-0.3249207,0.6533011,-0.451119,-0.5381056,-0.01980302
414.9501,-1.126277,-0.324868,0.6452992,-0.4542937,-0.5312764,-0.01980999
414.966,-1.110319,-0.3248124,0.6369288,-0.457732,-0.524128,-0.01981732
414.9818,-1.093991,-0.3247539,0.6286803,-0.4611824,-0.5170928,-0.01982449
414.9975,-1.093991,-0.3247539,0.6286803,-0.4611824,-0.5170928,-0.01982449
415.0125,-1.077498,-0.3246933,0.6207219,-0.464551,-0.5103204,-0.01983135
415.0288,-1.06097,-0.3246314,0.6130894,-0.4678107,-0.5038435,-0.01983786
415.0444,-1.043762,-0.3245667,0.6051235,-0.4713371,-0.4970817,-0.01984466
415.0597,-1.043762,-0.3245667,0.6051235,-0.4713371,-0.4970817,-0.01984466
415.0748,-1.026197,-0.3244992,0.5972844,-0.4748727,-0.4904368,-0.01985132
415.0912,-1.008483,-0.3244295,0.5897302,-0.4783215,-0.4840481,-0.01985769
415.1069,-0.9907473,-0.3243587,0.5824944,-0.4816562,-0.4779459,-0.01986372
415.1227,-0.9723455,-0.3242852,0.5749553,-0.4852599,-0.4715884,-0.01987002
415.1384,-0.9723455,-0.3242852,0.5749553,-0.4852599,-0.4715884,-0.01987002
415.1531,-0.9536014,-0.3242089,0.5675457,-0.4888698,-0.4653488,-0.01987617
415.1691,-0.9347206,-0.3241305,0.5604138,-0.4923881,-0.4593571,-0.01988205
415.1847,-0.9158326,-0.324051,0.5535911,-0.4957872,-0.4536412,-0.01988762
415.2003,-0.8962915,-0.323969,0.5464914,-0.4994572,-0.4476955,-0.01989342
415.2158,-0.8962915,-0.323969,0.5464914,-0.4994572,-0.4476955,-0.01989342
415.231,-0.8764213,-0.3238842,0.5395213,-0.5031303,-0.4418667,-0.01989907
415.2474,-0.8564273,-0.3237974,0.5328207,-0.5067073,-0.4362759,-0.01990447
415.2629,-0.836439,-0.3237095,0.5264189,-0.5101603,-0.4309493,-0.01990958
415.2785,-0.836439,-0.3237095,0.5264189,-0.5101603,-0.4309493,-0.01990958
415.2934,-0.8158103,-0.3236193,0.5197625,-0.5138856,-0.4254145,-0.01991489
415.3097,-0.7948651,-0.3235265,0.5132344,-0.5176109,-0.4199941,-0.01992007
415.3251,-0.7738085,-0.3234316,0.5069665,-0.5212359,-0.4148009,-0.01992501
415.3406,-0.7527699,-0.3233359,0.5009863,-0.5247325,-0.4098594,-0.01992968
415.3568,-0.7527699,-0.3233359,0.5009863,-0.5247325,-0.4098594,-0.01992968
415.3717,-0.7311031,-0.3232379,0.4947708,-0.5285023,-0.4047281,-0.01993453
415.3879,-0.7091317,-0.3231373,0.4886807,-0.5322695,-0.3997073,-0.01993925
415.4037,-0.6870608,-0.3230349,0.4828409,-0.5359324,-0.3949025,-0.01994376
415.4191,-0.6870608,-0.3230349,0.4828409,-0.5359324,-0.3949025,-0.01994376
415.4342,-0.664292,-0.3229293,0.4767865,-0.5398679,-0.3899258,-0.01994841
415.4504,-0.6411796,-0.3228202,0.4708739,-0.5437886,-0.3850715,-0.01995294
415.4663,-0.6179478,-0.3227085,0.4652234,-0.5475907,-0.3804412,-0.01995724
415.4819,-0.5947379,-0.3225954,0.459857,-0.5512473,-0.3760545,-0.01996129
415.4979,-0.5947379,-0.3225954,0.459857,-0.5512473,-0.3760545,-0.01996129
415.513,-0.5710835,-0.3224805,0.4544061,-0.5550737,-0.371607,-0.01996539
415.5291,-0.5472485,-0.3223638,0.4491123,-0.5588586,-0.3672946,-0.01996934
415.5445,-0.5233997,-0.3222462,0.4440551,-0.5625272,-0.3631829,-0.01997308
415.5599,-0.5233997,-0.3222462,0.4440551,-0.5625272,-0.3631829,-0.01997308
415.5746,-0.499642,-0.3221287,0.4392465,-0.5660611,-0.3592824,-0.01997663
415.5909,-0.476041,-0.3220126,0.4346742,-0.5694632,-0.3555829,-0.01997996
415.6067,-0.4526374,-0.3218988,0.4303196,-0.5727429,-0.3520684,-0.01998313
415.6221,-0.429456,-0.321788,0.4261646,-0.5759103,-0.3487232,-0.01998614
415.6377,-0.429456,-0.321788,0.4261646,-0.5759103,-0.3487232,-0.01998614
415.6524,-0.4065114,-0.3216809,0.4221938,-0.5789737,-0.3455335,-0.01998898
415.6685,-0.383812,-0.3215778,0.4183944,-0.5819398,-0.3424878,-0.0199917
415.6843,-0.361362,-0.321479,0.4147561,-0.5848141,-0.3395767,-0.01999428
415.6985,-0.361362,-0.321479,0.4147561,-0.5848141,-0.3395767,-0.01999428
415.7127,-0.3391628,-0.3213846,0.4112704,-0.5876004,-0.3367923,-0.01999676
415.7281,-0.3172145,-0.3212947,0.4079299,-0.5903021,-0.3341277,-0.01999912
415.7428,-0.295516,-0.3212093,0.4047282,-0.5929218,-0.331577,-0.02000139
415.7577,-0.295516,-0.3212093,0.4047282,-0.5929218,-0.331577,-0.02000139
415.7717,-0.2740655,-0.3211284,0.4016595,-0.5954617,-0.329135,-0.02000355
415.7871,-0.2528609,-0.3210519,0.3987186,-0.5979237,-0.3267969,-0.02000563
415.8017,-0.2318998,-0.3209797,0.3959006,-0.6003097,-0.3245581,-0.02000761
415.8164,-0.2318998,-0.3209797,0.3959006,-0.6003097,-0.3245581,-0.02000761
415.8305,-0.2175534,-0.3209323,0.3966569,-0.5989348,-0.3251544,-0.02000722
415.8464,-0.2074281,-0.3209172,0.3984577,-0.5964324,-0.3266287,-0.02000605
415.8609,-0.2000014,-0.3209252,0.4003094,-0.5938318,-0.3281753,-0.02000483
415.8753,-0.2000014,-0.3209252,0.4003094,-0.5938318,-0.3281753,-0.02000483
415.8894,-0.1943043,-0.3209508,0.4019009,-0.5914751,-0.329526,-0.02000381
415.9048,-0.1897194,-0.3209889,0.4031888,-0.5894256,-0.3306311,-0.02000303
415.9215,-0.1858537,-0.3210351,0.4042211,-0.5876486,-0.3315213,-0.02000245
415.9349,-0.1858537,-0.3210351,0.4042211,-0.5876486,-0.3315213,-0.02000245
415.9491,-0.1824569,-0.3210865,0.4050634,-0.5860848,-0.332247,-0.02000201
415.9635,-0.1793692,-0.3211411,0.40835,-0.5846612,-0.3363887,-0.02000698
415.9781,-0.1793692,-0.3211411,0.40835,-0.5846612,-0.3363887,-0.02000698
415.992,-0.176489,-0.3211975,0.4122543,-0.5833254,-0.3419839,-0.0200081
416.0072,-0.1737515,-0.3212548,0.4159849,-0.5820542,-0.3479616,-0.02000795
416.0217,-0.1711151,-0.3213126,0.4193686,-0.5808345,-0.3539387,-0.02000747
416.0364,-0.1711151,-0.3213126,0.4193686,-0.5808345,-0.3539387,-0.02000747
416.0504,-0.1685535,-0.3213703,0.4213181,-0.5796645,-0.358281,-0.02000456
416.066,-0.1660495,-0.3214279,0.4227017,-0.5785388,-0.3618156,-0.02000349
416.0804,-0.1635923,-0.321485,0.4239376,-0.5774482,-0.3650174,-0.02000308
416.0953,-0.1635923,-0.321485,0.4239376,-0.5774482,-0.3650174,-0.02000308
416.1094,-0.1611748,-0.3215418,0.4240499,-0.5763913,-0.3665652,-0.02000038
416.1249,-0.1587924,-0.3215981,0.4238654,-0.5753667,-0.3673736,-0.01999954
416.1395,-0.1587924,-0.3215981,0.4238654,-0.5753667,-0.3673736,-0.01999954
416.1536,-0.156442,-0.3216539,0.4237368,-0.5743665,-0.3679348,-0.0199993
416.1689,-0.1541216,-0.3217092,0.4237404,-0.5733829,-0.3684294,-0.01999919
416.1858,-0.1518298,-0.3217639,0.4227566,-0.5724196,-0.3674182,-0.01999653
416.1994,-0.1518298,-0.3217639,0.4227566,-0.5724196,-0.3674182,-0.01999653
416.2136,-0.1495655,-0.3218181,0.4215464,-0.571481,-0.3657552,-0.01999568
416.228,-0.1473279,-0.3218717,0.420436,-0.5705616,-0.3639066,-0.0199954
416.2425,-0.1451166,-0.3219248,0.4194919,-0.5696551,-0.3620424,-0.01999526
416.257,-0.1451166,-0.3219248,0.4194919,-0.5696551,-0.3620424,-0.01999526
416.2711,-0.142931,-0.3219773,0.4175888,-0.5687657,-0.3587232,-0.01999257
416.2863,-0.1407707,-0.3220293,0.415484,-0.5678998,-0.3547961,-0.01999168
416.301,-0.1386354,-0.3220808,0.4135032,-0.5670516,-0.3507246,-0.01999137
416.3157,-0.1386354,-0.3220808,0.4135032,-0.5670516,-0.3507246,-0.01999137
416.3299,-0.1365247,-0.3221317,0.4106021,-0.5662225,-0.3451845,-0.01998871
416.3454,-0.1344383,-0.3221821,0.4075553,-0.5654175,-0.3390628,-0.01998786
416.3599,-0.1344383,-0.3221821,0.4075553,-0.5654175,-0.3390628,-0.01998786
416.3739,-0.1323759,-0.3222321,0.4046863,-0.5646293,-0.3328359,-0.01998758
416.3895,-0.1303373,-0.3222815,0.4020544,-0.5638501,-0.3266756,-0.01998746
416.4044,-0.1283221,-0.3223303,0.3985234,-0.5630831,-0.3191438,-0.01998494
416.4191,-0.1283221,-0.3223303,0.3985234,-0.5630831,-0.3191438,-0.01998494
416.4332,-0.1263301,-0.3223787,0.3948456,-0.5623363,-0.3110836,-0.01998413
416.4508,-0.124361,-0.3224266,0.3913441,-0.5616037,-0.3029555,-0.01998389
416.4636,-0.1224145,-0.3224739,0.3880832,-0.5608782,-0.2949263,-0.01998381
416.4781,-0.1224145,-0.3224739,0.3880832,-0.5608782,-0.2949263,-0.01998381
416.4935,-0.1204904,-0.3225208,0.3839281,-0.5601622,-0.2855558,-0.01998148
416.5073,-0.1185884,-0.3225672,0.3796377,-0.5594643,-0.275688,-0.01998078
416.5222,-0.1167083,-0.3226131,0.3755386,-0.5587785,-0.2657837,-0.01998063
416.5367,-0.1167083,-0.3226131,0.3755386,-0.5587785,-0.2657837,-0.01998063
416.5511,-0.1148498,-0.3226586,0.3705769,-0.5581032,-0.2545147,-0.01997852
416.5663,-0.1130127,-0.3227036,0.3655321,-0.5574453,-0.2427684,-0.01997796
416.581,-0.1111967,-0.3227481,0.3607295,-0.5567971,-0.2310193,-0.0199779
416.596,-0.1111967,-0.3227481,0.3607295,-0.5567971,-0.2310193,-0.0199779
416.6101,-0.1094016,-0.3227921,0.3562275,-0.5561508,-0.2194369,-0.019978
416.6257,-0.1076271,-0.3228357,0.3508782,-0.5555067,-0.2065765,-0.01997631
416.6402,-0.105873,-0.3228788,0.3454407,-0.5548741,-0.193285,-0.01997594
416.6552,-0.105873,-0.3228788,0.3454407,-0.5548741,-0.193285,-0.01997594
416.6692,-0.1041391,-0.3229215,0.3402397,-0.5542472,-0.1800219,-0.01997601
416.6846,-0.1024251,-0.3229637,0.3353382,-0.5536194,-0.1669519,-0.0199762
416.7005,-0.1007308,-0.3230055,0.329589,-0.5529901,-0.1526268,-0.01997499
416.7146,-0.1007308,-0.3230055,0.329589,-0.5529901,-0.1526268,-0.01997499
416.7282,-0.09905604,-0.3230469,0.3237583,-0.5523685,-0.1378956,-0.01997485
416.7436,-0.09740051,-0.3230878,0.3181742,-0.5517494,-0.1232189,-0.01997506
416.7581,-0.09740051,-0.3230878,0.3181742,-0.5517494,-0.1232189,-0.01997506
416.7722,-0.09576401,-0.3231283,0.3117709,-0.5511284,-0.1072611,-0.01997427
416.7876,-0.09414633,-0.3231683,0.3053347,-0.5505131,-0.09091385,-0.01997432
416.8024,-0.09254726,-0.323208,0.2991916,-0.5498971,-0.074651,-0.01997464
416.8169,-0.09254726,-0.323208,0.2991916,-0.5498971,-0.074651,-0.01997464
416.8312,-0.09096657,-0.3232472,0.2933984,-0.5492744,-0.05863979,-0.01997504
416.8468,-0.08940406,-0.323286,0.2867968,-0.5486414,-0.04143082,-0.01997488
416.8613,-0.08785952,-0.3233244,0.2801504,-0.5480076,-0.02387323,-0.01997519
416.876,-0.08785952,-0.3233244,0.2801504,-0.5480076,-0.02387323,-0.01997519
416.8899,-0.08633274,-0.3233624,0.2737842,-0.5473691,-0.006425895,-0.01997562
416.9058,-0.08482351,-0.3234001,0.2677598,-0.5467212,0.01074874,-0.01997609
416.9205,-0.08333164,-0.3234373,0.2609235,-0.5460592,0.02909825,-0.01997658
416.935,-0.08333164,-0.3234373,0.2609235,-0.5460592,0.02909825,-0.01997658
416.9511,-0.08185693,-0.3234741,0.2540414,-0.5453925,0.04777541,-0.01997712
416.9656,-0.08039918,-0.3235105,0.2474415,-0.5447182,0.06632188,-0.01997763
416.9793,-0.08039918,-0.3235105,0.2474415,-0.5447182,0.06632188,-0.01997763
416.9934,-0.07895819,-0.3235465,0.2400555,-0.5440286,0.0860674,-0.01997863
417.0084,-0.07753377,-0.3235822,0.2326655,-0.5433319,0.1061269,-0.01997932
417.023,-0.07612574,-0.3236175,0.225597,-0.542625,0.1260298,-0.01997984
417.0377,-0.07612574,-0.3236175,0.225597,-0.542625,0.1260298,-0.01997984
417.0518,-0.07473391,-0.3236524,0.2189068,-0.541905,0.1456105,-0.01998031
417.0671,-0.07335807,-0.323687,0.2114403,-0.5411645,0.1663033,-0.01998194
417.0818,-0.07199807,-0.3237211,0.2039493,-0.5404125,0.1872731,-0.01998279
417.0966,-0.07199807,-0.3237211,0.2039493,-0.5404125,0.1872731,-0.01998279
417.1107,-0.0706537,-0.323755,0.1967574,-0.5396482,0.2080668,-0.0199833
417.1264,-0.0693248,-0.3237884,0.1899272,-0.5388707,0.228523,-0.01998369
417.141,-0.06801118,-0.3238215,0.1823166,-0.5380712,0.2500634,-0.01998588
417.1558,-0.06801118,-0.3238215,0.1823166,-0.5380712,0.2500634,-0.01998588
417.1697,-0.06671267,-0.3238543,0.1746717,-0.5372587,0.2718641,-0.01998682
417.1855,-0.0654291,-0.3238867,0.1673176,-0.5364336,0.293475,-0.01998726
417.2,-0.0654291,-0.3238867,0.1673176,-0.5364336,0.293475,-0.01998726
417.2162,-0.06416029,-0.3239188,0.1592049,-0.5355861,0.3161919,-0.01998981
417.2295,-0.06290607,-0.3239505,0.1510902,-0.5347249,0.3391605,-0.01999076
417.2443,-0.06166628,-0.3239819,0.1432967,-0.5338513,0.3619198,-0.0199911
417.2588,-0.06166628,-0.3239819,0.1432967,-0.5338513,0.3619198,-0.0199911
417.2728,-0.06044076,-0.3240129,0.1358862,-0.5329666,0.3843043,-0.01999122
417.2882,-0.05922933,-0.3240436,0.1288372,-0.5320724,0.4062638,-0.01999127
417.3029,-0.05803183,-0.324074,0.1221094,-0.5311705,0.4277905,-0.01999129
417.3177,-0.05803183,-0.324074,0.1221094,-0.5311705,0.4277905,-0.01999129
417.3318,-0.05684811,-0.3241041,0.1156655,-0.5302627,0.4488916,-0.01999128
417.3471,-0.055678,-0.3241338,0.1094755,-0.5293506,0.469578,-0.01999125
417.362,-0.05452136,-0.3241633,0.1046097,-0.5284491,0.4884467,-0.01998804
417.3767,-0.05452136,-0.3241633,0.1046097,-0.5284491,0.4884467,-0.01998804
417.3907,-0.05337802,-0.3241924,0.1003145,-0.5275559,0.5062724,-0.0199869
417.4061,-0.05224783,-0.3242213,0.09622318,-0.5266704,0.5235052,-0.01998648
417.4209,-0.05113064,-0.3242498,0.09222415,-0.5257905,0.5403262,-0.01998626
417.4358,-0.05113064,-0.3242498,0.09222415,-0.5257905,0.5403262,-0.01998626
417.4499,-0.0500263,-0.324278,0.08937946,-0.524929,0.5554136,-0.01998275
417.4663,-0.04893467,-0.3243059,0.08697817,-0.5240855,0.56954,-0.01998139
417.4801,-0.04785559,-0.3243335,0.08468276,-0.5232565,0.5831516,-0.01998077
417.4948,-0.04785559,-0.3243335,0.08468276,-0.5232565,0.5831516,-0.01998077
417.509,-0.04678893,-0.3243609,0.08347548,-0.5224523,0.5950465,-0.01997701
417.5244,-0.04573455,-0.3243879,0.08264145,-0.5216721,0.6060254,-0.01997547
417.539,-0.04573455,-0.3243879,0.08264145,-0.5216721,0.6060254,-0.01997547
417.553,-0.04469229,-0.3244146,0.08184875,-0.5209104,0.6165447,-0.01997469
417.5686,-0.04366202,-0.3244411,0.08101188,-0.5201616,0.6267866,-0.01997412
417.5836,-0.04264361,-0.3244673,0.0811986,-0.5194363,0.635455,-0.01997021
417.5983,-0.04264361,-0.3244673,0.0811986,-0.5194363,0.635455,-0.01997021
417.6125,-0.04163691,-0.3244932,0.08173662,-0.5187371,0.6432922,-0.01996847
417.6281,-0.0406418,-0.3245188,0.08230295,-0.5180584,0.6507325,-0.01996749
417.6429,-0.03965814,-0.3245441,0.08280984,-0.5173937,0.657951,-0.01996675
417.6577,-0.03965814,-0.3245441,0.08280984,-0.5173937,0.657951,-0.01996675
417.6718,-0.0386858,-0.3245692,0.08431538,-0.5167533,0.6636604,-0.0199627
417.6876,-0.03772464,-0.324594,0.08615264,-0.516141,0.6685921,-0.01996082
417.7032,-0.03677455,-0.3246185,0.08799718,-0.5155505,0.6731764,-0.01995971
417.7169,-0.03677455,-0.3246185,0.08799718,-0.5155505,0.6731764,-0.01995971
417.7312,-0.03583539,-0.3246428,0.09081771,-0.5149883,0.6762391,-0.01995551
417.7466,-0.03490704,-0.3246668,0.09392522,-0.5144572,0.6785491,-0.01995353
417.7611,-0.03398936,-0.3246906,0.09699149,-0.5139485,0.6805515,-0.01995234
417.7758,-0.03398936,-0.3246906,0.09699149,-0.5139485,0.6805515,-0.01995234
417.7901,-0.03308225,-0.3247141,0.09992824,-0.5134535,0.6824267,-0.01995142
417.8055,-0.03218558,-0.3247373,0.103791,-0.5129809,0.6828997,-0.01994721
417.8201,-0.03129923,-0.3247603,0.1079239,-0.5125369,0.682691,-0.01994516
417.8352,-0.03129923,-0.3247603,0.1079239,-0.5125369,0.682691,-0.01994516
417.8496,-0.03042308,-0.324783,0.1120057,-0.512114,0.6822261,-0.0199439
417.8646,-0.02955701,-0.3248055,0.1159467,-0.5117037,0.6816779,-0.0199429
417.8795,-0.02955701,-0.3248055,0.1159467,-0.5117037,0.6816779,-0.0199429
417.8937,-0.02870091,-0.3248278,0.120799,-0.5113146,0.6797712,-0.01993863
417.9094,-0.02785466,-0.3248498,0.1259043,-0.510954,0.6772233,-0.01993652
417.9237,-0.02701816,-0.3248715,0.1309392,-0.5106141,0.6744587,-0.01993522
417.9398,-0.02701816,-0.3248715,0.1309392,-0.5106141,0.6744587,-0.01993522
417.9539,-0.02619128,-0.3248931,0.1368706,-0.5102996,0.6703073,-0.01993081
417.9681,-0.02537392,-0.3249144,0.1430124,-0.5100158,0.6655303,-0.01992864
417.983,-0.02456597,-0.3249354,0.1490362,-0.5097528,0.6605688,-0.0199273
417.9977,-0.02456597,-0.3249354,0.1490362,-0.5097528,0.6605688,-0.0199273
418.0118,-0.02376731,-0.3249563,0.1548526,-0.5094998,0.6556008,-0.01992626
418.0273,-0.02297786,-0.3249769,0.1615215,-0.5092647,0.6493486,-0.01992187
418.0419,-0.02219749,-0.3249972,0.1683841,-0.5090563,0.6425318,-0.0199197
418.0567,-0.02219749,-0.3249972,0.1683841,-0.5090563,0.6425318,-0.0199197
418.0708,-0.0214261,-0.3250174,0.1751187,-0.5088661,0.6355743,-0.01991837
418.0864,-0.02066359,-0.3250373,0.1816358,-0.5086843,0.6286467,-0.01991734
418.1011,-0.01990986,-0.3250571,0.1889976,-0.5085186,0.6204627,-0.01991295
418.1161,-0.01990986,-0.3250571,0.1889976,-0.5085186,0.6204627,-0.01991295
418.1303,-0.01916481,-0.3250766,0.1965374,-0.5083788,0.6117459,-0.01991082
418.1459,-0.01842834,-0.3250958,0.2039302,-0.5082561,0.6029209,-0.01990954
418.1604,-0.01770034,-0.3251149,0.2110856,-0.5081402,0.5941581,-0.01990859
418.1764,-0.01770034,-0.3251149,0.2110856,-0.5081402,0.5941581,-0.01990859
418.1903,-0.01698073,-0.3251338,0.219071,-0.5080386,0.5841628,-0.01990427
418.2048,-0.0162694,-0.3251524,0.2272126,-0.5079614,0.5736651,-0.01990223
418.2194,-0.0162694,-0.3251524,0.2272126,-0.5079614,0.5736651,-0.01990223
418.2336,-0.01556627,-0.3251709,0.2351838,-0.5078996,0.5630911,-0.01990108
418.249,-0.01487122,-0.3251891,0.2439726,-0.5078562,0.5512451,-0.01989676
418.2637,-0.01418419,-0.3252072,0.2528732,-0.5078386,0.538906,-0.0198948
418.2784,-0.01418419,-0.3252072,0.2528732,-0.5078386,0.538906,-0.0198948
418.2924,-0.01350506,-0.325225,0.2615546,-0.5078353,0.5265176,-0.01989375
418.3079,-0.01283375,-0.3252427,0.2699313,-0.5078347,0.5142549,-0.01989305
418.3228,-0.01217017,-0.3252601,0.2790907,-0.5078427,0.5008054,-0.01988906
418.3375,-0.01217017,-0.3252601,0.2790907,-0.5078427,0.5008054,-0.01988906
418.3517,-0.01151424,-0.3252774,0.2883484,-0.5078703,0.486914,-0.01988737
418.3673,-0.01086586,-0.3252945,0.297379,-0.507908,0.47301,-0.01988657
418.382,-0.01022494,-0.3253113,0.3060975,-0.5079453,0.4592611,-0.01988613
418.3969,-0.01022494,-0.3253113,0.3060975,-0.5079453,0.4592611,-0.01988613
418.4129,-0.009591407,-0.325328,0.3155988,-0.5079882,0.4443398,-0.01988255
418.4276,-0.008965169,-0.3253445,0.3251854,-0.5080477,0.4290008,-0.01988122
418.4411,-0.008346143,-0.3253609,0.3345283,-0.5081145,0.4136763,-0.01988077
418.4562,-0.008346143,-0.3253609,0.3345283,-0.5081145,0.4136763,-0.01988077
418.4698,-0.007734248,-0.325377,0.3446431,-0.50819,0.3971361,-0.01987753
418.4854,-0.0071294,-0.325393,0.3547998,-0.5082817,0.3801858,-0.01987652
418.5,-0.006531517,-0.3254088,0.3646651,-0.5083783,0.3632758,-0.01987637
418.5151,-0.006531517,-0.3254088,0.3646651,-0.5083783,0.3632758,-0.01987637
418.5294,-0.005940519,-0.3254244,0.3741594,-0.508468,0.3465779,-0.01987659
418.5449,-0.005356331,-0.3254398,0.3844003,-0.5085551,0.3287416,-0.01987416
418.5595,-0.005356331,-0.3254398,0.3844003,-0.5085551,0.3287416,-0.01987416
418.5737,-0.004778871,-0.3254551,0.3946764,-0.5086503,0.310541,-0.01987373
418.5893,-0.004208061,-0.3254702,0.4046588,-0.5087447,0.2924131,-0.01987408
418.6042,-0.003643826,-0.3254851,0.4142686,-0.5088281,0.2745235,-0.01987478
418.6192,-0.003643826,-0.3254851,0.4142686,-0.5088281,0.2745235,-0.01987478
418.6332,-0.003086082,-0.3254999,0.4209235,-0.508873,0.2602226,-0.01988116
418.6498,-0.002534761,-0.3255144,0.4264006,-0.5088512,0.2477396,-0.01988401
418.6637,-0.00198979,-0.3255288,0.4315722,-0.508781,0.2360525,-0.01988569
418.6815,-0.001451096,-0.3255431,0.4367079,-0.5086833,0.22476,-0.01988706
418.6948,-0.001451096,-0.3255431,0.4367079,-0.5086833,0.22476,-0.01988706
418.7071,-0.0009186075,-0.3255572,0.4418592,-0.5085714,0.2137106,-0.01988841
418.7226,-0.0003922514,-0.3255711,0.4470082,-0.5084521,0.202851,-0.01988982
418.7372,-0.0003922514,-0.3255711,0.4470082,-0.5084521,0.202851,-0.01988982
418.7515,0.000128043,-0.3255849,0.4521224,-0.5083283,0.1921653,-0.0198913
418.7671,0.0006037578,-0.338203,0.466668,-0.5119044,0.1688491,-0.01991168
418.7818,0.001045444,-0.3585328,0.4811419,-0.5165435,0.1436954,-0.01993245
418.7966,0.001045444,-0.3585328,0.4811419,-0.5165435,0.1436954,-0.01993245
418.8107,0.001464242,-0.383529,0.493267,-0.5211508,0.11996,-0.019949
418.8262,0.001868667,-0.4112942,0.5030674,-0.5253718,0.09824391,-0.01996129
418.841,0.002267289,-0.439891,0.5105855,-0.5289258,0.07905522,-0.01996969
418.8559,0.002267289,-0.439891,0.5105855,-0.5289258,0.07905522,-0.01996969
418.8698,0.002661704,-0.4688741,0.51689,-0.5320555,0.06142595,-0.01997566
418.8864,0.003052731,-0.4979666,0.5225024,-0.5349116,0.04484819,-0.01997991
418.9011,0.003440726,-0.526997,0.527677,-0.5375854,0.02904564,-0.01998281
418.915,0.003440726,-0.526997,0.527677,-0.5375854,0.02904564,-0.01998281
418.929,0.003829675,-0.5550979,0.5320472,-0.5398816,0.01454748,-0.01998442
418.9445,0.004216899,-0.5824987,0.5361746,-0.5420189,0.0006808117,-0.01998514
418.9594,0.004216899,-0.5824987,0.5361746,-0.5420189,0.0006808117,-0.01998514
418.9729,0.004601117,-0.6093445,0.5402041,-0.5440858,-0.01278646,-0.01998506
418.9884,0.004986335,-0.6349658,0.5436692,-0.5458599,-0.02525474,-0.01998436
419.0031,0.005369136,-0.6597156,0.5470334,-0.5475389,-0.03730541,-0.01998311
419.0177,0.005369136,-0.6597156,0.5470334,-0.5475389,-0.03730541,-0.01998311
419.0321,0.005748122,-0.6838163,0.5503824,-0.5491922,-0.04910697,-0.0199813
419.0476,0.006122841,-0.7074081,0.5536919,-0.5508378,-0.06068582,-0.01997893
419.0623,0.006498658,-0.7298185,0.5564615,-0.5522172,-0.0713792,-0.01997644
419.0768,0.006498658,-0.7298185,0.5564615,-0.5522172,-0.0713792,-0.01997644
419.0912,0.006871832,-0.7513981,0.5591342,-0.5535159,-0.08172525,-0.01997362
419.1067,0.007240961,-0.7723681,0.5617955,-0.5547974,-0.09187561,-0.01997041
419.1215,0.007605678,-0.7928675,0.5644271,-0.5560771,-0.1018511,-0.01996679
419.1373,0.007605678,-0.7928675,0.5644271,-0.5560771,-0.1018511,-0.01996679
419.1514,0.007972177,-0.8122228,0.5665468,-0.5570929,-0.1110013,-0.01996342
419.1661,0.008336277,-0.8307843,0.5685923,-0.5580319,-0.1198544,-0.0199599
419.1805,0.008696458,-0.8487724,0.5706478,-0.5589585,-0.1285567,-0.01995609
419.1953,0.008696458,-0.8487724,0.5706478,-0.5589585,-0.1285567,-0.01995609
419.2092,0.00905898,-0.8655641,0.5722554,-0.5596263,-0.1364994,-0.01995275
419.2245,0.009419306,-0.8815414,0.5738401,-0.5602289,-0.1442071,-0.01994933
419.2393,0.009419306,-0.8815414,0.5738401,-0.5602289,-0.1442071,-0.01994933
419.2534,0.009775817,-0.8969443,0.5754732,-0.5608309,-0.1518175,-0.01994567
419.2691,0.0101281,-0.9119236,0.5771279,-0.5614468,-0.1593414,-0.01994173
419.2838,0.01048343,-0.9258127,0.5783293,-0.5618103,-0.1661368,-0.01993851
419.2981,0.01048343,-0.9258127,0.5783293,-0.5618103,-0.1661368,-0.01993851
419.3126,0.0108372,-0.9389663,0.5795011,-0.5621102,-0.172716,-0.0199353
419.328,0.0111877,-0.9516069,0.580721,-0.5624105,-0.1792164,-0.0199319
419.3427,0.01153442,-0.9638745,0.5819687,-0.5627266,-0.1856515,-0.01992829
419.3575,0.01153442,-0.9638745,0.5819687,-0.5627266,-0.1856515,-0.01992829
419.3737,0.01188496,-0.9750952,0.5827776,-0.562792,-0.1913872,-0.01992558
419.3882,0.01223463,-0.9856195,0.583571,-0.5627976,-0.1969344,-0.01992294
419.4018,0.01258156,-0.995667,0.5844265,-0.5628083,-0.2024297,-0.01992013
419.4165,0.01258156,-0.995667,0.5844265,-0.5628083,-0.2024297,-0.01992013
419.4305,0.01293303,-1.004614,0.5848935,-0.5625753,-0.2072724,-0.01991831
419.4458,0.0132842,-1.012841,0.5853863,-0.5622945,-0.2119744,-0.01991655
419.4604,0.01363304,-1.020589,0.5859716,-0.5620313,-0.2166653,-0.01991458
419.4753,0.01363304,-1.020589,0.5859716,-0.5620313,-0.2166653,-0.01991458
419.489,0.01397873,-1.028006,0.5866211,-0.5618,-0.2213518,-0.0199124
419.5046,0.01432923,-1.034424,0.5868627,-0.5613327,-0.2253963,-0.01991133
419.5191,0.01432923,-1.034424,0.5868627,-0.5613327,-0.2253963,-0.01991133
419.5331,0.01468,-1.040198,0.5871153,-0.56082,-0.2293045,-0.01991037
419.5485,0.01502897,-1.045549,0.5874537,-0.5603261,-0.2332086,-0.01990924
419.5634,0.01537517,-1.050616,0.5878567,-0.5598658,-0.2371194,-0.01990789
419.5778,0.01537517,-1.050616,0.5878567,-0.5598658,-0.2371194,-0.01990789
419.5921,0.01572656,-1.054723,0.5878544,-0.5591723,-0.2404005,-0.01990777
419.6073,0.01607879,-1.05822,0.5878698,-0.5584372,-0.2435614,-0.01990776
419.6219,0.01642967,-1.061327,0.5879794,-0.5577251,-0.2467354,-0.01990758
419.6387,0.01642967,-1.061327,0.5879794,-0.5577251,-0.2467354,-0.01990758
419.6519,0.01678655,-1.063418,0.5877251,-0.5567872,-0.2493154,-0.01990862
419.666,0.01714501,-1.064873,0.5875244,-0.5558196,-0.2518145,-0.01990973
419.6806,0.01750261,-1.065932,0.5874441,-0.5548871,-0.2543606,-0.0199106
419.6954,0.01750261,-1.065932,0.5874441,-0.5548871,-0.2543606,-0.0199106
419.7092,0.01785797,-1.066741,0.5874561,-0.5540034,-0.256959,-0.0199112
419.7246,0.01821873,-1.066637,0.5870796,-0.5529034,-0.2589653,-0.01991311
419.739,0.01821873,-1.066637,0.5870796,-0.5529034,-0.2589653,-0.01991311
419.7532,0.01858039,-1.065968,0.5867356,-0.5517743,-0.2608843,-0.01991512
419.7685,0.01893761,-1.064954,0.5865051,-0.5506794,-0.2628513,-0.01991691
419.7834,0.01928847,-1.063734,0.5863675,-0.5496333,-0.2648763,-0.01991843
419.7983,0.01928847,-1.063734,0.5863675,-0.5496333,-0.2648763,-0.01991843
419.8121,0.01964117,-1.061629,0.5858355,-0.5483711,-0.2663074,-0.01992133
419.8276,0.01998813,-1.058991,0.5853463,-0.5470824,-0.2676647,-0.01992432
419.8423,0.02032694,-1.056036,0.5849786,-0.545831,-0.2690828,-0.01992707
419.8572,0.02032694,-1.056036,0.5849786,-0.545831,-0.2690828,-0.01992707
419.8712,0.02066593,-1.052139,0.5842533,-0.5443705,-0.2699356,-0.01993118
419.8866,0.02099775,-1.047679,0.5836048,-0.5428945,-0.270749,-0.01993531
419.9034,0.02132043,-1.042893,0.583102,-0.541467,-0.2716531,-0.01993912
419.9174,0.02132043,-1.042893,0.583102,-0.541467,-0.2716531,-0.01993912
419.9306,0.02163432,-1.037928,0.5827149,-0.5401022,-0.2726518,-0.01994259
419.9456,0.02194878,-1.032114,0.5819341,-0.5385359,-0.2730731,-0.01994748
419.9602,0.02225677,-1.025803,0.5812061,-0.5369548,-0.2734452,-0.01995243
419.9747,0.02225677,-1.025803,0.5812061,-0.5369548,-0.2734452,-0.01995243
419.9891,0.0225565,-1.019215,0.5806111,-0.5354217,-0.2739035,-0.01995707
420.0045,0.02284832,-1.012487,0.5801263,-0.5339512,-0.2744569,-0.01996136
420.0189,0.02284832,-1.012487,0.5801263,-0.5339512,-0.2744569,-0.01996136
420.033,0.0231413,-1.004939,0.5792368,-0.5322812,-0.2744275,-0.01996713
420.0484,0.02342838,-0.9969222,0.5784001,-0.5305981,-0.2743529,-0.01997295
420.0634,0.0237078,-0.9886525,0.5776999,-0.5289652,-0.2743724,-0.01997845
420.078,0.0237078,-0.9886525,0.5776999,-0.5289652,-0.2743724,-0.01997845
420.0923,0.02398778,-0.9795021,0.5766291,-0.5271389,-0.2738327,-0.01998537
420.1077,0.02426123,-0.9698514,0.5756443,-0.5253096,-0.2732798,-0.01999227
420.1224,0.02452661,-0.9599361,0.5748205,-0.5235407,-0.2728489,-0.01999875
420.1368,0.02452661,-0.9599361,0.5748205,-0.5235407,-0.2728489,-0.01999875
420.1511,0.02478451,-0.949902,0.5741282,-0.5218459,-0.2725447,-0.02000481
420.1676,0.0250436,-0.9390773,0.5730253,-0.5199647,-0.2716639,-0.02001235
420.1814,0.02529719,-0.9278152,0.5719825,-0.5180802,-0.2707564,-0.02001988
420.1962,0.02529719,-0.9278152,0.5719825,-0.5180802,-0.2707564,-0.02001988
420.21,0.02554379,-0.9163341,0.5710863,-0.5162544,-0.2699638,-0.02002702
420.2253,0.02578385,-0.9047692,0.5703154,-0.5145017,-0.2692961,-0.02003374
420.2399,0.02578385,-0.9047692,0.5703154,-0.5145017,-0.2692961,-0.02003374
420.2542,0.02601834,-0.8932038,0.569631,-0.5128194,-0.2687301,-0.02004009
420.2693,0.02624823,-0.8816893,0.5690017,-0.5112004,-0.2682403,-0.02004614
420.2842,0.02647426,-0.8702571,0.5684073,-0.5096372,-0.2678075,-0.02005195
420.2989,0.02647426,-0.8702571,0.5684073,-0.5096372,-0.2678075,-0.02005195
420.313,0.02669015,-0.859688,0.5683565,-0.5083784,-0.2681158,-0.02005566
420.3285,0.02690306,-0.849696,0.5683206,-0.5072302,-0.268563,-0.02005889
420.343,0.02711532,-0.8401034,0.5681821,-0.5061191,-0.2689757,-0.02006212
420.3576,0.02711532,-0.8401034,0.5681821,-0.5061191,-0.2689757,-0.02006212
420.3721,0.02732737,-0.8307992,0.5679466,-0.5050216,-0.269325,-0.02006544
420.3877,0.02753245,-0.8224757,0.5681745,-0.5041878,-0.2703283,-0.02006689
420.4021,0.02773613,-0.8147925,0.5683661,-0.5034302,-0.271405,-0.02006805
420.4179,0.02773613,-0.8147925,0.5683661,-0.5034302,-0.271405,-0.02006805
420.4322,0.02794002,-0.8075374,0.5684233,-0.5026829,-0.2723998,-0.02006935
420.4467,0.02814418,-0.8005785,0.5683645,-0.5019281,-0.2732969,-0.02007085
420.4614,0.02834193,-0.7945946,0.568762,-0.5014204,-0.2748268,-0.02007051
420.4799,0.02834193,-0.7945946,0.568762,-0.5014204,-0.2748268,-0.02007051
420.4895,0.02853809,-0.7892376,0.5691164,-0.5009753,-0.2764115,-0.02006993
420.5051,0.02873412,-0.7842904,0.5693295,-0.5005289,-0.2778973,-0.02006954
420.5194,0.02873412,-0.7842904,0.5693295,-0.5005289,-0.2778973,-0.02006954
420.5331,0.02892406,-0.7803796,0.5699552,-0.5003203,-0.2799808,-0.02006737
420.5482,0.02911245,-0.7771244,0.5704991,-0.5001602,-0.2820805,-0.02006504
420.5626,0.02930073,-0.7742876,0.5708726,-0.4999854,-0.2840479,-0.02006301
420.5769,0.02930073,-0.7742876,0.5708726,-0.4999854,-0.2840479,-0.02006301
420.5908,0.02948901,-0.7717214,0.5711023,-0.4997817,-0.2858743,-0.02006131
420.6065,0.02967101,-0.7700951,0.5717695,-0.4998072,-0.2882986,-0.02005777
420.6206,0.02985078,-0.7690552,0.5723775,-0.4998779,-0.2907466,-0.02005406
420.635,0.02985078,-0.7690552,0.5723775,-0.4998779,-0.2907466,-0.02005406
420.6493,0.03002975,-0.7683813,0.5728284,-0.4999321,-0.293066,-0.02005063
420.6646,0.03020821,-0.7679361,0.5731407,-0.4999554,-0.2952432,-0.02004753
420.6792,0.03020821,-0.7679361,0.5731407,-0.4999554,-0.2952432,-0.02004753
420.6931,0.03038011,-0.7683932,0.5738876,-0.5002047,-0.2980093,-0.02004257
420.7108,0.03054866,-0.7694052,0.5745739,-0.5004953,-0.3007922,-0.02003743
420.7243,0.03071487,-0.7707548,0.5750997,-0.500765,-0.3034379,-0.02003259
420.738,0.03071487,-0.7707548,0.5750997,-0.500765,-0.3034379,-0.02003259
420.7524,0.03087327,-0.7730684,0.5760154,-0.5012552,-0.306639,-0.02002593
420.7677,0.03102723,-0.775966,0.5768301,-0.5017754,-0.3098186,-0.02001918
420.7838,0.03117853,-0.779211,0.5774544,-0.5022636,-0.3128275,-0.02001284
420.7974,0.03117853,-0.779211,0.5774544,-0.5022636,-0.3128275,-0.02001284
420.8114,0.03132803,-0.7826558,0.5779141,-0.5027066,-0.315657,-0.02000696
420.8268,0.03147005,-0.7869701,0.5787836,-0.5033646,-0.3190382,-0.01999919
420.8415,0.03160821,-0.7918016,0.5795742,-0.5040517,-0.3224052,-0.01999131
420.8567,0.03160821,-0.7918016,0.5795742,-0.5040517,-0.3224052,-0.01999131
420.8706,0.03174429,-0.7969307,0.5801889,-0.5047069,-0.3256069,-0.01998383
420.8858,0.0318791,-0.8022205,0.5806466,-0.5053164,-0.3286302,-0.0199768
420.9006,0.03200671,-0.8083476,0.5815115,-0.5061402,-0.332197,-0.01996785
420.9154,0.03200671,-0.8083476,0.5815115,-0.5061402,-0.332197,-0.01996785
420.9293,0.03213099,-0.8149641,0.5822957,-0.5069908,-0.3357428,-0.01995881
420.9448,0.03225379,-0.8218532,0.5829017,-0.5078066,-0.3391161,-0.01995018
420.9617,0.03237582,-0.8288797,0.5833474,-0.5085737,-0.3423028,-0.01994205
420.9754,0.03237582,-0.8288797,0.5833474,-0.5085737,-0.3423028,-0.01994205
420.9893,0.03249083,-0.8367214,0.5841906,-0.5095522,-0.346018,-0.01993198
421.0036,0.03260305,-0.8450314,0.5849483,-0.5105538,-0.3497021,-0.01992184
421.0183,0.03260305,-0.8450314,0.5849483,-0.5105538,-0.3497021,-0.01992184
421.0328,0.03271433,-0.8535936,0.5855241,-0.511517,-0.3532045,-0.01991217
421.0482,0.03281864,-0.863035,0.5864488,-0.5126861,-0.3571978,-0.01990062
421.0629,0.03291976,-0.8729765,0.5872498,-0.5138675,-0.3611221,-0.01988912
421.0777,0.03291976,-0.8729765,0.5872498,-0.5138675,-0.3611221,-0.01988912
421.0916,0.03301904,-0.8831816,0.5878426,-0.5149995,-0.3648336,-0.01987819
421.1072,0.03311712,-0.8935035,0.5882551,-0.5160699,-0.3683255,-0.0198679
421.1219,0.0332073,-0.9046128,0.589038,-0.5173414,-0.3723048,-0.0198557
421.1366,0.0332073,-0.9046128,0.589038,-0.5173414,-0.3723048,-0.0198557
421.1507,0.03329266,-0.9161572,0.5897237,-0.5186245,-0.3762257,-0.01984354
421.167,0.03337493,-0.9279177,0.5902215,-0.519859,-0.3799434,-0.01983193
421.1816,0.03345516,-0.9397584,0.5905516,-0.5210322,-0.3834471,-0.01982096
421.1983,0.03345516,-0.9397584,0.5905516,-0.5210322,-0.3834471,-0.01982096
421.2122,0.03352652,-0.9523569,0.5912511,-0.5224065,-0.3874318,-0.01980806
421.2257,0.03359212,-0.9653654,0.5918557,-0.5237908,-0.3913549,-0.01979521
421.2403,0.03365385,-0.9785674,0.5922746,-0.5251244,-0.395072,-0.01978296
421.2553,0.03365385,-0.9785674,0.5922746,-0.5251244,-0.395072,-0.01978296
421.2693,0.03370517,-0.9925908,0.593017,-0.5266536,-0.3992344,-0.01976887
421.2848,0.03374931,-1.007056,0.5936297,-0.5281829,-0.4033006,-0.01975495
421.2999,0.03374931,-1.007056,0.5936297,-0.5281829,-0.4033006,-0.01975495
421.3137,0.03378841,-1.021728,0.5940337,-0.5296518,-0.4071327,-0.01974173
421.3292,0.03382399,-1.036461,0.5942575,-0.531049,-0.4107261,-0.01972929
421.3443,0.03384885,-1.051926,0.5948277,-0.5326383,-0.4147644,-0.01971499
421.3586,0.03384885,-1.051926,0.5948277,-0.5326383,-0.4147644,-0.01971499
421.3731,0.0338686,-1.067771,0.5952936,-0.534229,-0.4187188,-0.01970084
421.3885,0.03388702,-1.083778,0.5955685,-0.535762,-0.42245,-0.01968737
421.4029,0.03390555,-1.099812,0.5956748,-0.5372252,-0.4259502,-0.01967467
421.418,0.03390555,-1.099812,0.5956748,-0.5372252,-0.4259502,-0.01967467
421.4318,0.03391993,-1.116553,0.5961202,-0.538883,-0.4298885,-0.01966012
421.4483,0.03393436,-1.133652,0.5964607,-0.5405423,-0.4337414,-0.01964574
421.4621,0.03394947,-1.150894,0.5966144,-0.5421424,-0.437372,-0.01963209
421.4767,0.03394947,-1.150894,0.5966144,-0.5421424,-0.437372,-0.01963209
421.4909,0.0339606,-1.168909,0.5970626,-0.5439314,-0.4414071,-0.01961668
421.5061,0.03397199,-1.187316,0.5973726,-0.5457124,-0.4453242,-0.01960156
421.5208,0.03398421,-1.205882,0.5974746,-0.547425,-0.4489936,-0.01958728
421.5358,0.03398421,-1.205882,0.5974746,-0.547425,-0.4489936,-0.01958728
421.5499,0.03399715,-1.224462,0.5974001,-0.5490584,-0.4524134,-0.01957388
421.5654,0.03400587,-1.243728,0.597644,-0.5508775,-0.4562402,-0.01955872
421.5801,0.03401487,-1.263328,0.5977783,-0.5526896,-0.4599652,-0.01954384
421.595,0.03401487,-1.263328,0.5977783,-0.5526896,-0.4599652,-0.01954384
421.6088,0.03402474,-1.283045,0.5977273,-0.5544354,-0.4634577,-0.01952976
421.6243,0.03403536,-1.302745,0.5975155,-0.5561034,-0.4667119,-0.01951654
421.639,0.03403536,-1.302745,0.5975155,-0.5561034,-0.4667119,-0.01951654
421.6529,0.0340417,-1.3231,0.5976186,-0.5579548,-0.4703657,-0.0195016
421.6685,0.03404842,-1.343765,0.5976169,-0.5597981,-0.4739187,-0.01948694
421.683,0.0340561,-1.364528,0.5974361,-0.561574,-0.4772424,-0.0194731
421.6986,0.0340561,-1.364528,0.5974361,-0.561574,-0.4772424,-0.0194731
421.7128,0.03418795,-1.372651,0.5899205,-0.5589834,-0.4702388,-0.01950169
421.7271,0.03440969,-1.372974,0.5824181,-0.5553679,-0.4615573,-0.01953768
421.7417,0.03466156,-1.368488,0.5766111,-0.5518017,-0.4537448,-0.01957062
421.7563,0.03466156,-1.368488,0.5766111,-0.5518017,-0.4537448,-0.01957062
421.7703,0.03490046,-1.361064,0.572431,-0.5485698,-0.4472444,-0.01959856
421.7858,0.0351105,-1.351868,0.5694043,-0.5456943,-0.4418578,-0.01962215
421.8003,0.03529254,-1.341625,0.5670894,-0.5431212,-0.4372739,-0.01964252
421.8151,0.03529254,-1.341625,0.5670894,-0.5431212,-0.4372739,-0.01964252
421.8292,0.03545289,-1.330782,0.565178,-0.5407856,-0.4332323,-0.01966065
421.8446,0.03559796,-1.319617,0.5634822,-0.5386313,-0.4295509,-0.01967723
421.8593,0.03559796,-1.319617,0.5634822,-0.5386313,-0.4295509,-0.01967723
421.8734,0.03573276,-1.308304,0.5693228,-0.5281569,-0.432676,-0.03469173
421.8886,0.03586069,-1.296949,0.5726625,-0.5207653,-0.4338701,-0.04941176
421.9032,0.035984,-1.285618,0.5747293,-0.5149496,-0.4340336,-0.06384332
421.9178,0.035984,-1.285618,0.5747293,-0.5149496,-0.4340336,-0.06384332
421.932,0.03610411,-1.274353,0.5744488,-0.5118439,-0.4321369,-0.07466676
421.9472,0.03622193,-1.263178,0.5744937,-0.5085562,-0.4305182,-0.08527793
421.964,0.03633802,-1.252107,0.574715,-0.5052338,-0.4290765,-0.09568094
421.9777,0.03633802,-1.252107,0.574715,-0.5052338,-0.4290765,-0.09568094
421.9916,0.03645272,-1.24115,0.5750288,-0.5019464,-0.4277509,-0.1058799
422.0057,0.03656623,-1.230313,0.5736325,-0.5006076,-0.424926,-0.1125457
422.0204,0.03667869,-1.219596,0.5728856,-0.4986905,-0.422696,-0.1190807
422.0349,0.03667869,-1.219596,0.5728856,-0.4986905,-0.422696,-0.1190807
422.0488,0.03679015,-1.209001,0.5724554,-0.4965291,-0.4207931,-0.1254874
422.0643,0.03690068,-1.198529,0.5721756,-0.4942852,-0.4190761,-0.1317683
422.0788,0.03690068,-1.198529,0.5721756,-0.4942852,-0.4190761,-0.1317683
422.0927,0.03701026,-1.188179,0.5702162,-0.4939252,-0.4158926,-0.134593
422.1081,0.03711891,-1.17795,0.56892,-0.492936,-0.4133256,-0.137362
422.1227,0.03722663,-1.16784,0.5679488,-0.4916638,-0.4110968,-0.1400767
422.1373,0.03722663,-1.16784,0.5679488,-0.4916638,-0.4110968,-0.1400767
422.1516,0.03733341,-1.15785,0.5654089,-0.4921722,-0.4074996,-0.1394048
422.1669,0.03743923,-1.147977,0.5635767,-0.4919838,-0.4045621,-0.138746
422.1813,0.0375441,-1.138221,0.5620953,-0.4914681,-0.4019873,-0.1380998
422.1962,0.0375441,-1.138221,0.5620953,-0.4914681,-0.4019873,-0.1380998
422.21,0.037648,-1.12858,0.560789,-0.4908047,-0.399621,-0.1374662
422.2253,0.0377509,-1.119052,0.5578908,-0.491985,-0.3958615,-0.1335118
422.2397,0.0377509,-1.119052,0.5578908,-0.491985,-0.3958615,-0.1335118
422.256,0.03785282,-1.109637,0.5556659,-0.4924806,-0.3927258,-0.1296348
422.27,0.03795373,-1.100333,0.5537843,-0.4926435,-0.3899398,-0.1258335
422.2838,0.03805362,-1.091139,0.5520826,-0.492645,-0.3873608,-0.1221067
422.2983,0.03805362,-1.091139,0.5520826,-0.492645,-0.3873608,-0.1221067
422.3124,0.03815249,-1.082053,0.5488547,-0.4944823,-0.3834438,-0.1151197
422.3276,0.03825033,-1.073075,0.5462971,-0.495613,-0.3801434,-0.1082695
422.342,0.03834712,-1.064203,0.5440888,-0.4963899,-0.377194,-0.1015534
422.3566,0.03834712,-1.064203,0.5440888,-0.4963899,-0.377194,-0.1015534
422.3709,0.03844286,-1.055436,0.5404952,-0.4989065,-0.3730347,-0.09163576
422.3865,0.03853755,-1.046772,0.5376054,-0.5006538,-0.3695228,-0.08191235
422.4007,0.03863118,-1.038211,0.535086,-0.5020073,-0.3663816,-0.07237939
422.4155,0.03863118,-1.038211,0.535086,-0.5020073,-0.3663816,-0.07237939
422.4296,0.03872375,-1.029751,0.5327723,-0.5031504,-0.363467,-0.06303318
422.4451,0.03881525,-1.021391,0.5290852,-0.5061042,-0.3593553,-0.05053695
422.4595,0.03881525,-1.021391,0.5290852,-0.5061042,-0.3593553,-0.05053695
422.4734,0.03890568,-1.01313,0.526053,-0.5083063,-0.3558413,-0.03828556
422.4887,0.03899504,-1.004966,0.5233747,-0.5101147,-0.3526774,-0.0262742
422.5034,0.03908334,-0.9968997,0.5209008,-0.5117043,-0.3497339,-0.01449818
422.5182,0.03908334,-0.9968997,0.5209008,-0.5117043,-0.3497339,-0.01449818
422.5353,0.03917055,-0.9889284,0.5171373,-0.515102,-0.3456696,0.0003802171
422.5483,0.03925669,-0.9810516,0.5140098,-0.517731,-0.342181,0.01496707
422.562,0.03934176,-0.973268,0.5112315,-0.5199497,-0.3390341,0.02926809
422.5768,0.03934176,-0.973268,0.5112315,-0.5199497,-0.3390341,0.02926809
422.5908,0.03942576,-0.9655765,0.5083373,-0.5223972,-0.3358179,0.04408095
422.6059,0.0395087,-0.9579762,0.5057018,-0.5245349,-0.3328595,0.05860351
422.6206,0.03959057,-0.9504659,0.503231,-0.5264864,-0.3300771,0.07284148
422.6353,0.03959057,-0.9504659,0.503231,-0.5264864,-0.3300771,0.07284148
422.6494,0.03967139,-0.9430446,0.5008783,-0.5283127,-0.3274276,0.0868004
422.6649,0.03975115,-0.9357113,0.4986208,-0.5300443,-0.3248878,0.1004857
422.6795,0.03975115,-0.9357113,0.4986208,-0.5300443,-0.3248878,0.1004857
422.6935,0.03982987,-0.9284648,0.4964472,-0.531697,-0.322445,0.1139029
422.709,0.03990753,-0.9213043,0.4943515,-0.5332793,-0.3200916,0.127057
422.7238,0.03998415,-0.9142286,0.4923299,-0.534796,-0.3178225,0.1399534
422.7382,0.03998415,-0.9142286,0.4923299,-0.534796,-0.3178225,0.1399534
422.7522,0.04005974,-0.9072369,0.490674,-0.535784,-0.3158949,0.1518049
422.7677,0.0401343,-0.900328,0.4889772,-0.5368754,-0.3139536,0.1634241
422.7822,0.04020783,-0.8935012,0.4872922,-0.5379907,-0.3120386,0.1748156
422.797,0.04020783,-0.8935012,0.4872922,-0.5379907,-0.3120386,0.1748156
422.813,0.04028036,-0.8867553,0.4868527,-0.5371259,-0.3112385,0.1826505
422.8273,0.04035188,-0.8800894,0.4860164,-0.5369189,-0.3101268,0.1903319
422.8407,0.0404224,-0.8735027,0.4850087,-0.5370185,-0.308877,0.1978628
422.8555,0.0404224,-0.8735027,0.4850087,-0.5370185,-0.308877,0.1978628
422.8696,0.04049192,-0.8669941,0.4839431,-0.5372541,-0.3075815,0.205246
422.8849,0.04056047,-0.8605627,0.4840658,-0.535574,-0.3073419,0.2091512
422.9007,0.04062803,-0.8542078,0.4837757,-0.5345985,-0.3067704,0.2129799
422.9143,0.04062803,-0.8542078,0.4837757,-0.5345985,-0.3067704,0.2129799
422.9284,0.04069463,-0.8479282,0.4832993,-0.5339646,-0.3060437,0.2167336
422.9437,0.04076026,-0.8417233,0.4827503,-0.5334956,-0.3052557,0.2204137
422.9585,0.04076026,-0.8417233,0.4827503,-0.5334956,-0.3052557,0.2204137
422.9725,0.04082495,-0.835592,0.4833729,-0.5311353,-0.3055091,0.2206884
422.9878,0.0408887,-0.8295335,0.4835728,-0.5295046,-0.3054207,0.2209577
423.0025,0.04095151,-0.823547,0.4835748,-0.5282388,-0.3051665,0.2212218
423.0173,0.04095151,-0.823547,0.4835748,-0.5282388,-0.3051665,0.2212218
423.0315,0.0410134,-0.8176316,0.484692,-0.5251898,-0.3059063,0.2181475
423.0468,0.04107438,-0.8117865,0.4853499,-0.5229339,-0.3062693,0.2151334
423.0613,0.04113445,-0.8060109,0.4857875,-0.5210841,-0.3064445,0.2121784
423.078,0.04113445,-0.8060109,0.4857875,-0.5210841,-0.3064445,0.2121784
423.0909,0.04119362,-0.8003039,0.486125,-0.5194517,-0.3065323,0.2092814
423.1054,0.04125192,-0.7946647,0.4876448,-0.5159748,-0.3076769,0.2031079
423.1203,0.04130933,-0.7890925,0.4887153,-0.51327,-0.3084536,0.1970555
423.1347,0.04130933,-0.7890925,0.4887153,-0.51327,-0.3084536,0.1970555
423.1487,0.04136588,-0.7835866,0.4895653,-0.5109702,-0.3090434,0.1911217
423.1643,0.04142157,-0.7781461,0.4903098,-0.5088963,-0.3095425,0.1853043
423.1792,0.04142157,-0.7781461,0.4903098,-0.5088963,-0.3095425,0.1853043
423.1933,0.04147642,-0.7727704,0.4922658,-0.5049926,-0.3111308,0.1762677
423.2085,0.04153044,-0.7674586,0.4937558,-0.5018751,-0.3123355,0.1674082
423.2233,0.04158363,-0.7622099,0.495013,-0.4991779,-0.313342,0.1587225
423.2382,0.04158363,-0.7622099,0.495013,-0.4991779,-0.313342,0.1587225
423.2523,0.04163601,-0.7570236,0.4974553,-0.4947568,-0.3154194,0.1468738
423.2678,0.04168758,-0.7518991,0.4993885,-0.4911802,-0.3170713,0.1352575
423.2825,0.04173835,-0.7468355,0.5010659,-0.4880604,-0.3185012,0.1238688
423.2972,0.04173835,-0.7468355,0.5010659,-0.4880604,-0.3185012,0.1238688
423.3112,0.04178834,-0.7418321,0.502615,-0.4852079,-0.3198172,0.1127035
423.3288,0.04183755,-0.7368883,0.5054617,-0.480568,-0.3223101,0.09842382
423.3422,0.04188601,-0.7320033,0.5078021,-0.476745,-0.3243776,0.08442414
423.3559,0.04188601,-0.7320033,0.5078021,-0.476745,-0.3243776,0.08442414
423.3701,0.0419337,-0.7271764,0.5098849,-0.4733722,-0.3262211,0.07069891
423.3854,0.04198065,-0.7224069,0.5118358,-0.4702698,-0.3279474,0.05724277
423.4001,0.04202687,-0.7176942,0.5151535,-0.4653978,-0.3309217,0.04072509
423.4149,0.04202687,-0.7176942,0.5151535,-0.4653978,-0.3309217,0.04072509
423.4292,0.04207236,-0.7130376,0.5179394,-0.4613492,-0.3334449,0.02453124
423.4446,0.04211714,-0.7084364,0.5204528,-0.4577601,-0.3357292,0.008654857
423.4593,0.04211714,-0.7084364,0.5204528,-0.4577601,-0.3357292,0.008654857
423.4733,0.04216116,-0.70389,0.516016,-0.4632287,-0.3316473,0.008088861
423.4886,0.04220445,-0.6993977,0.5139956,-0.4658136,-0.3296591,0.007534235
423.5034,0.04224705,-0.6949589,0.5131127,-0.466994,-0.3286973,0.006990733
423.5181,0.04224705,-0.6949589,0.5131127,-0.466994,-0.3286973,0.006990733
423.5323,0.04228899,-0.690573,0.5127621,-0.4674936,-0.3282481,0.006458068
423.5478,0.04233026,-0.6862392,0.5126538,-0.4676656,-0.3280576,0.005935966
423.5623,0.04237088,-0.6819571,0.5126506,-0.4676823,-0.3279991,0.005424188
423.5791,0.04237088,-0.6819571,0.5126506,-0.4676823,-0.3279991,0.005424188
423.593,0.04241086,-0.6777259,0.5126889,-0.4676276,-0.32801,0.004922501
423.6064,0.0424502,-0.6735451,0.5127409,-0.4675423,-0.3280594,0.004430698
423.6209,0.04248892,-0.6694142,0.5127964,-0.4674463,-0.3281292,0.00394857
423.636,0.04248892,-0.6694142,0.5127964,-0.4674463,-0.3281292,0.00394857
423.6496,0.04252702,-0.6653324,0.5128529,-0.4673491,-0.3282141,0.003475934
423.6652,0.04256451,-0.6612992,0.5129094,-0.4672548,-0.3283119,0.003012605
423.6798,0.04256451,-0.6612992,0.5129094,-0.4672548,-0.3283119,0.003012605
423.6942,0.0426014,-0.6573141,0.5128264,-0.467127,-0.3287242,0.002559378
423.7095,0.0426377,-0.6533765,0.512489,-0.4669862,-0.3292567,0.00211535
423.7243,0.04267342,-0.6494857,0.5119134,-0.4668466,-0.3298087,0.001680088
423.739,0.04267342,-0.6494857,0.5119134,-0.4668466,-0.3298087,0.001680088
423.7532,0.04270857,-0.6456413,0.5111502,-0.4667143,-0.3303475,0.001253346
423.7689,0.04274316,-0.6418427,0.5101123,-0.4665531,-0.3311697,0.0008359283
423.7836,0.04277719,-0.6380894,0.5087258,-0.4663828,-0.332083,0.0004269507
423.798,0.04277719,-0.6380894,0.5087258,-0.4663828,-0.332083,0.0004269507
423.8123,0.04281067,-0.6343807,0.5070379,-0.466217,-0.3329913,2.600427E-05
423.8298,0.04284361,-0.6307163,0.5051209,-0.4660611,-0.3338661,-0.0003671325
423.8434,0.04287603,-0.6270955,0.5029044,-0.4658783,-0.3350073,-0.0007516191
423.857,0.04287603,-0.6270955,0.5029044,-0.4658783,-0.3350073,-0.0007516191
423.8712,0.04290792,-0.6235178,0.5003251,-0.4656878,-0.3362255,-0.001128332
423.8864,0.0429393,-0.6199828,0.4974369,-0.4655029,-0.3374262,-0.00149766
423.901,0.04297017,-0.6164899,0.494317,-0.4653292,-0.3385827,-0.001859813
423.9161,0.04297017,-0.6164899,0.494317,-0.4653292,-0.3385827,-0.001859813
423.93,0.04300055,-0.6130386,0.4908994,-0.4651289,-0.3399953,-0.002213916
423.9453,0.04303043,-0.6096284,0.4871227,-0.4649214,-0.3414756,-0.002560852
423.9601,0.04305984,-0.6062589,0.4830422,-0.4647201,-0.3429301,-0.002900993
423.9748,0.04305984,-0.6062589,0.4830422,-0.4647201,-0.3429301,-0.002900993
423.9893,0.04308877,-0.6029296,0.478601,-0.4644908,-0.3446349,-0.003233511
424.0043,0.04311723,-0.59964,0.4737535,-0.4642545,-0.3463945,-0.003559303
424.019,0.04311723,-0.59964,0.4737535,-0.4642545,-0.3463945,-0.003559303
424.033,0.04314524,-0.5963895,0.4685696,-0.4640255,-0.3481144,-0.003878736
424.0482,0.04317279,-0.5931779,0.4631389,-0.4638094,-0.3497689,-0.004191999
424.0633,0.0431999,-0.5900044,0.4574064,-0.4635677,-0.3516591,-0.004498163
424.0776,0.0431999,-0.5900044,0.4574064,-0.4635677,-0.3516591,-0.004498163
424.0937,0.04322657,-0.5868688,0.4513178,-0.4633197,-0.3535994,-0.004798107
424.1079,0.04325281,-0.5837706,0.4449323,-0.4630789,-0.3554978,-0.005092196
424.1217,0.04327863,-0.5807093,0.4383302,-0.462851,-0.3573288,-0.005380603
424.1365,0.04327863,-0.5807093,0.4383302,-0.462851,-0.3573288,-0.005380603
424.1504,0.04330403,-0.5776845,0.431451,-0.4625968,-0.3593918,-0.005662373
424.1659,0.04332902,-0.5746958,0.4242357,-0.4623357,-0.3615013,-0.005938396
424.1805,0.04335361,-0.5717427,0.4167395,-0.4620817,-0.3635652,-0.006209035
424.1953,0.04335361,-0.5717427,0.4167395,-0.4620817,-0.3635652,-0.006209035
424.2093,0.0433778,-0.5688248,0.4089084,-0.4617992,-0.3658576,-0.006473366
424.2246,0.0434016,-0.5659416,0.4006978,-0.4615096,-0.3681859,-0.006732312
424.2393,0.0434016,-0.5659416,0.4006978,-0.4615096,-0.3681859,-0.006732312
424.2533,0.04342502,-0.5630929,0.3921763,-0.4612279,-0.3704568,-0.006986224
424.2687,0.04344805,-0.5602781,0.3834323,-0.4609603,-0.3726449,-0.007235257
424.2834,0.04347072,-0.5574969,0.3744133,-0.4606663,-0.3750488,-0.007478402
424.298,0.04347072,-0.5574969,0.3744133,-0.4606663,-0.3750488,-0.007478402
424.3124,0.04349303,-0.5547488,0.3650659,-0.4603657,-0.3774856,-0.00771657
424.3278,0.04351497,-0.5520335,0.3554476,-0.4600729,-0.3798649,-0.0079501
424.3423,0.04353656,-0.5493506,0.3456377,-0.459794,-0.3821613,-0.008179151
424.359,0.04353656,-0.5493506,0.3456377,-0.459794,-0.3821613,-0.008179151
424.3718,0.0435578,-0.5466997,0.3355776,-0.4594877,-0.3846709,-0.00840267
424.3862,0.0435787,-0.5440804,0.3252093,-0.4591743,-0.3872118,-0.008621587
424.4009,0.04359926,-0.5414923,0.3145866,-0.4588683,-0.3896931,-0.008836254
424.4155,0.04359926,-0.5414923,0.3145866,-0.4588683,-0.3896931,-0.008836254
424.4296,0.04361949,-0.5389351,0.3036572,-0.4585325,-0.3923852,-0.009045653
424.4449,0.0436394,-0.5364083,0.2923771,-0.4581892,-0.3950993,-0.009250748
424.4594,0.0436394,-0.5364083,0.2923771,-0.4581892,-0.3950993,-0.009250748
424.4736,0.04365899,-0.5339117,0.2808132,-0.4578542,-0.3977436,-0.009451878
424.4889,0.04367826,-0.5314448,0.269052,-0.457534,-0.4002928,-0.009649177
424.5037,0.04369722,-0.5290074,0.2570428,-0.4571863,-0.4030408,-0.009841546
424.5182,0.04369722,-0.5290074,0.2570428,-0.4571863,-0.4030408,-0.009841546
424.5325,0.04371588,-0.5265991,0.2447334,-0.4568317,-0.4058092,-0.01002994
424.5479,0.04373423,-0.5242195,0.2321799,-0.4564852,-0.4085089,-0.01021469
424.5627,0.0437523,-0.5218682,0.2194595,-0.4561535,-0.4111148,-0.01039592
424.5772,0.0437523,-0.5218682,0.2194595,-0.4561535,-0.4111148,-0.01039592
424.591,0.04377007,-0.519545,0.2066415,-0.4558383,-0.4136259,-0.01057371
424.6065,0.04378755,-0.5172495,0.1937798,-0.4555399,-0.4160484,-0.01074811
424.621,0.04380476,-0.5149813,0.1809143,-0.4552573,-0.4183897,-0.01091916
424.6377,0.04380476,-0.5149813,0.1809143,-0.4552573,-0.4183897,-0.01091916
424.6508,0.04382169,-0.5127403,0.1680731,-0.4549895,-0.4206567,-0.01108691
424.6652,0.04383834,-0.5105259,0.1552756,-0.4547356,-0.422855,-0.01125142
424.6798,0.04383834,-0.5105259,0.1552756,-0.4547356,-0.422855,-0.01125142
424.6936,0.04385473,-0.5083379,0.142535,-0.4544946,-0.4249892,-0.01141274
424.7088,0.04387085,-0.5061761,0.1298602,-0.4542657,-0.4270627,-0.01157092
424.7236,0.04388672,-0.50404,0.1172569,-0.4540485,-0.4290783,-0.01172603
424.7382,0.04388672,-0.50404,0.1172569,-0.4540485,-0.4290783,-0.01172603
424.7524,0.04390233,-0.5019294,0.1047289,-0.4538424,-0.4310385,-0.01187812
424.768,0.04391769,-0.499844,0.09227832,-0.4536469,-0.4329451,-0.01202725
424.7828,0.0439328,-0.4977834,0.07990658,-0.4534617,-0.4347998,-0.01217348
424.7973,0.0439328,-0.4977834,0.07990658,-0.4534617,-0.4347998,-0.01217348
424.8111,0.04394767,-0.4957474,0.06761433,-0.4532864,-0.4366042,-0.01231687
424.8266,0.04396231,-0.4937358,0.0554018,-0.4531207,-0.4383594,-0.01245747
424.8411,0.04397671,-0.4917481,0.04326893,-0.4529644,-0.4400668,-0.01259534
424.8559,0.04397671,-0.4917481,0.04326893,-0.4529644,-0.4400668,-0.01259534
424.87,0.04399087,-0.4897841,0.03121547,-0.4528171,-0.4417275,-0.01273052
424.8852,0.04400481,-0.4878435,0.01924104,-0.4526787,-0.4433426,-0.01286308
424.9019,0.04401853,-0.4859261,0.007345173,-0.4525488,-0.4449131,-0.01299307
424.9155,0.04401853,-0.4859261,0.007345173,-0.4525488,-0.4449131,-0.01299307
424.9295,0.04403203,-0.4840315,-0.004472646,-0.4524272,-0.4464401,-0.01312053
424.9438,0.04404531,-0.4821596,-0.01621297,-0.4523137,-0.4479244,-0.01324552
424.9582,0.04404531,-0.4821596,-0.01621297,-0.4523137,-0.4479244,-0.01324552
424.9724,0.04405838,-0.4803099,-0.02787634,-0.4522081,-0.4493671,-0.01336809
424.9878,0.04407123,-0.4784824,-0.03946333,-0.4521101,-0.4507691,-0.01348828
425.0038,0.04408388,-0.4766766,-0.05097451,-0.4520196,-0.4521311,-0.01360614
425.017,0.04408388,-0.4766766,-0.05097451,-0.4520196,-0.4521311,-0.01360614
425.0313,0.04409633,-0.4748924,-0.06241044,-0.4519364,-0.4534541,-0.01372173
425.0467,0.04410858,-0.4731295,-0.07377167,-0.4518601,-0.4547389,-0.01383508
425.0614,0.04412063,-0.4713875,-0.08505876,-0.4517907,-0.4559863,-0.01394623
425.0761,0.04412063,-0.4713875,-0.08505876,-0.4517907,-0.4559863,-0.01394623
425.09,0.04413249,-0.4696664,-0.09627225,-0.4517279,-0.4571971,-0.01405524
425.1054,0.04414416,-0.4679658,-0.1074127,-0.4516715,-0.458372,-0.01416215
425.1204,0.04415565,-0.4662855,-0.1184805,-0.4516214,-0.4595119,-0.01426699
425.1347,0.04415565,-0.4662855,-0.1184805,-0.4516214,-0.4595119,-0.01426699
425.1486,0.04416694,-0.4646252,-0.1294763,-0.4515774,-0.4606174,-0.01436981
425.1641,0.04417806,-0.4629847,-0.1404006,-0.4515392,-0.4616893,-0.01447065
425.1797,0.04417806,-0.4629847,-0.1404006,-0.4515392,-0.4616893,-0.01447065
425.1942,0.044189,-0.4613639,-0.1512539,-0.4515068,-0.4627282,-0.01456954
425.208,0.04419977,-0.4597623,-0.1620367,-0.4514799,-0.4637349,-0.01466654
425.2226,0.04421036,-0.4581799,-0.1727494,-0.4514584,-0.4647099,-0.01476166
425.2371,0.04421036,-0.4581799,-0.1727494,-0.4514584,-0.4647099,-0.01476166
425.2512,0.04422078,-0.4566163,-0.1833925,-0.451442,-0.465654,-0.01485496
425.2667,0.04423104,-0.4550714,-0.1939665,-0.4514308,-0.4665678,-0.01494647
425.2811,0.04424113,-0.4535449,-0.2044719,-0.4514244,-0.4674519,-0.01503622
425.2959,0.04424113,-0.4535449,-0.2044719,-0.4514244,-0.4674519,-0.01503622
425.3098,0.04425106,-0.4520366,-0.214909,-0.4514228,-0.4683068,-0.01512424
425.3253,0.04426083,-0.4505463,-0.2252783,-0.4514257,-0.4691333,-0.01521058
425.34,0.04426083,-0.4505463,-0.2252783,-0.4514257,-0.4691333,-0.01521058
425.3539,0.04427044,-0.4490738,-0.2355803,-0.4514331,-0.4699318,-0.01529527
425.3692,0.0442799,-0.4476189,-0.2458154,-0.4514447,-0.4707029,-0.01537834
425.3841,0.04428921,-0.4461813,-0.2559839,-0.4514606,-0.4714471,-0.01545982
425.399,0.04428921,-0.4461813,-0.2559839,-0.4514606,-0.4714471,-0.01545982
425.4127,0.04429837,-0.4447609,-0.2660864,-0.4514804,-0.4721651,-0.01553974
425.428,0.04430738,-0.4433574,-0.2761232,-0.4515042,-0.4728574,-0.01561814
425.4424,0.04431625,-0.4419706,-0.2860946,-0.4515317,-0.4735243,-0.01569503
425.4582,0.04431625,-0.4419706,-0.2860946,-0.4515317,-0.4735243,-0.01569503
425.4722,0.04432498,-0.4406005,-0.2960012,-0.4515629,-0.4741665,-0.01577047
425.4863,0.04433357,-0.4392466,-0.3058433,-0.4515975,-0.4747845,-0.01584447
425.501,0.04434201,-0.4379089,-0.3156212,-0.4516355,-0.4753787,-0.01591706
425.5157,0.04434201,-0.4379089,-0.3156212,-0.4516355,-0.4753787,-0.01591706
425.5298,0.04435033,-0.4365872,-0.3253354,-0.4516768,-0.4759495,-0.01598827
425.545,0.04435851,-0.4352812,-0.3349863,-0.4517213,-0.4764975,-0.01605813
425.5595,0.04435851,-0.4352812,-0.3349863,-0.4517213,-0.4764975,-0.01605813
425.5735,0.04436656,-0.4339908,-0.3445741,-0.4517688,-0.4770231,-0.01612667
425.5889,0.04437448,-0.4327158,-0.3540993,-0.4518193,-0.4775267,-0.0161939
425.6037,0.04438227,-0.431456,-0.3635622,-0.4518726,-0.4780088,-0.01625986
425.6183,0.04438227,-0.431456,-0.3635622,-0.4518726,-0.4780088,-0.01625986
425.6325,0.04438994,-0.4302113,-0.3729631,-0.4519286,-0.4784698,-0.01632457
425.6479,0.04439748,-0.4289814,-0.3823025,-0.4519872,-0.4789101,-0.01638807
425.6624,0.04440491,-0.4277662,-0.3915806,-0.4520484,-0.47933,-0.01645036
425.6771,0.04440491,-0.4277662,-0.3915806,-0.4520484,-0.47933,-0.01645036
425.6912,0.04441221,-0.4265654,-0.4007979,-0.452112,-0.4797301,-0.01651147
425.7065,0.0444194,-0.425379,-0.4099546,-0.452178,-0.4801107,-0.01657143
425.7211,0.04442648,-0.4242068,-0.419051,-0.4522462,-0.4804721,-0.01663027
425.7366,0.04442648,-0.4242068,-0.419051,-0.4522462,-0.4804721,-0.01663027
425.7506,0.04443344,-0.4230486,-0.4280876,-0.4523166,-0.4808148,-0.01668799
425.7649,0.04444028,-0.4219041,-0.4370646,-0.4523891,-0.4811392,-0.01674463
425.7796,0.04444028,-0.4219041,-0.4370646,-0.4523891,-0.4811392,-0.01674463
425.7935,0.04444702,-0.4207733,-0.4459824,-0.4524636,-0.4814454,-0.01680021
425.8086,0.04445365,-0.419656,-0.4548413,-0.45254,-0.481734,-0.01685474
425.8235,0.04446018,-0.4185521,-0.4636415,-0.4526182,-0.4820052,-0.01690825
425.8381,0.04446018,-0.4185521,-0.4636415,-0.4526182,-0.4820052,-0.01690825
425.8521,0.0444666,-0.4174613,-0.4723835,-0.4526982,-0.4822595,-0.01696076
425.8676,0.04447291,-0.4163835,-0.4810674,-0.4527798,-0.4824971,-0.01701229
425.8822,0.04447912,-0.4153186,-0.4896938,-0.4528631,-0.4827183,-0.01706285
425.8971,0.04447912,-0.4153186,-0.4896938,-0.4528631,-0.4827183,-0.01706285
425.911,0.04448524,-0.4142664,-0.4982627,-0.452948,-0.4829235,-0.01711247
425.9263,0.04449125,-0.4132268,-0.5067746,-0.4530343,-0.483113,-0.01716117
425.9408,0.04449717,-0.4121995,-0.5152298,-0.453122,-0.4832871,-0.01720896
425.9556,0.04449717,-0.4121995,-0.5152298,-0.453122,-0.4832871,-0.01720896
425.9695,0.044503,-0.4111845,-0.5236285,-0.4532111,-0.483446,-0.01725586
425.9848,0.04450873,-0.4101817,-0.531971,-0.4533015,-0.4835902,-0.01730189
426.0016,0.04451436,-0.4091908,-0.5402576,-0.453393,-0.4837199,-0.01734707
426.0152,0.04451436,-0.4091908,-0.5402576,-0.453393,-0.4837199,-0.01734707
426.0292,0.04451991,-0.4082117,-0.5484887,-0.4534858,-0.4838353,-0.01739141
426.0435,0.04452537,-0.4072443,-0.5566645,-0.4535796,-0.4839368,-0.01743493
426.058,0.04452537,-0.4072443,-0.5566645,-0.4535796,-0.4839368,-0.01743493
426.0721,0.04453074,-0.4062884,-0.5647854,-0.4536745,-0.4840246,-0.01747764
426.0873,0.04453602,-0.405344,-0.5728515,-0.4537704,-0.484099,-0.01751957
426.1019,0.04454122,-0.4044108,-0.5808632,-0.4538673,-0.4841602,-0.01756072
426.1168,0.04454122,-0.4044108,-0.5808632,-0.4538673,-0.4841602,-0.01756072
426.1305,0.04454633,-0.4034888,-0.5888208,-0.453965,-0.4842086,-0.01760112
426.1462,0.04455137,-0.4025777,-0.5967245,-0.4540636,-0.4842443,-0.01764077
426.1608,0.04455632,-0.4016775,-0.6045746,-0.454163,-0.4842677,-0.01767969
426.1754,0.04455632,-0.4016775,-0.6045746,-0.454163,-0.4842677,-0.01767969
426.1894,0.04456119,-0.4007881,-0.6123714,-0.4542631,-0.4842789,-0.0177179
426.2048,0.04456598,-0.3999093,-0.6201153,-0.4543639,-0.4842783,-0.01775542
426.2195,0.04456598,-0.3999093,-0.6201153,-0.4543639,-0.4842783,-0.01775542
426.2342,0.0445707,-0.399041,-0.6278064,-0.4544654,-0.484266,-0.01779223
426.2489,0.04457533,-0.398183,-0.6354449,-0.4545676,-0.4842423,-0.01782838
426.2636,0.0445799,-0.3973353,-0.6430313,-0.4546703,-0.4842074,-0.01786388
426.28,0.0445799,-0.3973353,-0.6430313,-0.4546703,-0.4842074,-0.01786388
426.2943,0.04458439,-0.3964976,-0.6505657,-0.4547735,-0.4841616,-0.01789872
426.3074,0.0445888,-0.39567,-0.6580485,-0.4548773,-0.4841051,-0.01793293
426.3219,0.04459315,-0.3948523,-0.6654799,-0.4549814,-0.484038,-0.01796652
426.3365,0.04459315,-0.3948523,-0.6654799,-0.4549814,-0.484038,-0.01796652
426.3504,0.04459743,-0.3940443,-0.6728601,-0.4550861,-0.4839607,-0.0179995
426.3658,0.04460163,-0.393246,-0.6801895,-0.4551911,-0.4838732,-0.01803188
426.3806,0.04460577,-0.3924572,-0.6874683,-0.4552965,-0.4837759,-0.01806368
426.3952,0.04460577,-0.3924572,-0.6874683,-0.4552965,-0.4837759,-0.01806368
426.409,0.04460984,-0.3916778,-0.6946968,-0.4554022,-0.483669,-0.0180949
426.4243,0.04461385,-0.3909077,-0.7018753,-0.4555082,-0.4835526,-0.01812556
426.439,0.04461385,-0.3909077,-0.7018753,-0.4555082,-0.4835526,-0.01812556
426.453,0.04461779,-0.3901468,-0.7090039,-0.4556145,-0.4834269,-0.01815566
426.4685,0.04462167,-0.3893949,-0.7160829,-0.455721,-0.4832922,-0.01818523
426.483,0.04462548,-0.3886521,-0.7231126,-0.4558277,-0.4831484,-0.01821426
426.4973,0.04462548,-0.3886521,-0.7231126,-0.4558277,-0.4831484,-0.01821426
426.5116,0.04462923,-0.3879181,-0.7300932,-0.4559347,-0.4829959,-0.01824278
426.527,0.04463292,-0.3871928,-0.7370248,-0.4560418,-0.4828348,-0.01827078
426.5416,0.04463655,-0.3864762,-0.7439077,-0.456149,-0.4826655,-0.01829828
426.5559,0.04463655,-0.3864762,-0.7439077,-0.456149,-0.4826655,-0.01829828
426.5722,0.04464012,-0.3857682,-0.7506205,-0.4563071,-0.4821967,-0.01832669
426.5864,0.04464363,-0.3850686,-0.7570537,-0.4564921,-0.4816083,-0.01835486
426.5998,0.04464363,-0.3850686,-0.7570537,-0.4564921,-0.4816083,-0.01835486
426.614,0.04464708,-0.3843774,-0.7632172,-0.4566853,-0.4809969,-0.01838253
426.6293,0.04465048,-0.3836944,-0.7690327,-0.456929,-0.4801036,-0.01841103
426.6438,0.04465381,-0.3830196,-0.7744361,-0.4571955,-0.4791168,-0.0184392
426.6582,0.04465381,-0.3830196,-0.7744361,-0.4571955,-0.4791168,-0.0184392
426.6723,0.0446571,-0.3823528,-0.7794759,-0.4574654,-0.4781327,-0.0184668
426.6876,0.04466033,-0.3816939,-0.784225,-0.4577304,-0.477181,-0.01849378
426.7023,0.0446635,-0.381043,-0.7886287,-0.4580381,-0.4759728,-0.01852153
426.7171,0.0446635,-0.381043,-0.7886287,-0.4580381,-0.4759728,-0.01852153
426.7309,0.04466662,-0.3803998,-0.7926297,-0.458364,-0.4746855,-0.01854896
426.7466,0.04466969,-0.3797642,-0.7962781,-0.4586903,-0.4734108,-0.01857582
426.761,0.04467271,-0.3791363,-0.7996467,-0.4590095,-0.4721765,-0.01860206
426.7757,0.04467271,-0.3791363,-0.7996467,-0.4590095,-0.4721765,-0.01860206
426.7896,0.04467567,-0.3785158,-0.8026791,-0.4593695,-0.4706909,-0.01862908
426.805,0.04467859,-0.3779028,-0.8053163,-0.4597458,-0.4691327,-0.01865578
426.8195,0.04467859,-0.3779028,-0.8053163,-0.4597458,-0.4691327,-0.01865578
426.8335,0.04468146,-0.3772971,-0.8076078,-0.4601209,-0.4675938,-0.01868192
426.8487,0.04468428,-0.3766986,-0.8095021,-0.4605374,-0.4658049,-0.01870883
426.8645,0.04468704,-0.3761072,-0.8109532,-0.4609687,-0.4639539,-0.01873537
426.8789,0.04468704,-0.3761072,-0.8109532,-0.4609687,-0.4639539,-0.01873537
426.8929,0.04468977,-0.3755229,-0.8120239,-0.4613965,-0.4621348,-0.01876133
426.9072,0.04469245,-0.3749456,-0.8127981,-0.4618131,-0.4603752,-0.01878664
426.9216,0.04469508,-0.3743752,-0.8132263,-0.4622661,-0.4583775,-0.0188127
426.9362,0.04469508,-0.3743752,-0.8132263,-0.4622661,-0.4583775,-0.0188127
426.9502,0.04469766,-0.3738116,-0.8132534,-0.4627314,-0.4563228,-0.01883843
426.9659,0.0447002,-0.3732547,-0.8129336,-0.4631917,-0.4543032,-0.01886358
426.9803,0.0447027,-0.3727044,-0.8123433,-0.4636401,-0.4523461,-0.01888812
426.9952,0.0447027,-0.3727044,-0.8123433,-0.4636401,-0.4523461,-0.01888812
427.009,0.04470515,-0.3721608,-0.8114261,-0.4641238,-0.4501514,-0.01891339
427.0247,0.04470756,-0.3716236,-0.8101215,-0.4646185,-0.4479028,-0.01893835
427.0388,0.04470756,-0.3716236,-0.8101215,-0.4646185,-0.4479028,-0.01893835
427.053,0.04470993,-0.3710928,-0.8084809,-0.4651073,-0.445694,-0.01896274
427.0684,0.04471225,-0.3705684,-0.8064524,-0.4656321,-0.4432472,-0.01898785
427.0829,0.04471454,-0.3700502,-0.8039879,-0.4661665,-0.4407563,-0.01901261
427.0992,0.04471454,-0.3700502,-0.8039879,-0.4661665,-0.4407563,-0.01901261
427.1119,0.04471678,-0.3695382,-0.8011525,-0.4666928,-0.4383169,-0.01903678
427.1269,0.04471899,-0.3690323,-0.7980324,-0.467204,-0.4359565,-0.01906031
427.1437,0.04472115,-0.3685324,-0.794577,-0.4677464,-0.4333683,-0.01908453
427.1568,0.04472115,-0.3685324,-0.794577,-0.4677464,-0.4333683,-0.01908453
427.1709,0.04472328,-0.3680386,-0.7907287,-0.4682963,-0.4307394,-0.01910843
427.1853,0.04472537,-0.3675506,-0.7865434,-0.4688371,-0.4281643,-0.01913174
427.2003,0.04472742,-0.3670684,-0.7821,-0.4693623,-0.42567,-0.01915443
427.2145,0.04472742,-0.3670684,-0.7821,-0.4693623,-0.42567,-0.01915443
427.2283,0.04472944,-0.366592,-0.7773408,-0.4699176,-0.4229468,-0.01917781
427.2435,0.04473142,-0.3661214,-0.7722024,-0.4704795,-0.4201852,-0.01920087
427.258,0.04473142,-0.3661214,-0.7722024,-0.4704795,-0.4201852,-0.01920087
427.2722,0.04473336,-0.3656563,-0.766738,-0.4710315,-0.4174812,-0.01922336
427.2874,0.04473526,-0.3651967,-0.760895,-0.4716143,-0.4145472,-0.01924651
427.3019,0.04473713,-0.3647427,-0.7546228,-0.4722023,-0.4115845,-0.01926932
427.3165,0.04473713,-0.3647427,-0.7546228,-0.4722023,-0.4115845,-0.01926932
427.3308,0.04473897,-0.3642941,-0.7479891,-0.4727785,-0.4086911,-0.01929153
427.346,0.04474077,-0.3638508,-0.7410834,-0.4733365,-0.405894,-0.01931308
427.3619,0.04474254,-0.3634128,-0.7338244,-0.4741383,-0.4029184,-0.01933614
427.375,0.04474254,-0.3634128,-0.7338244,-0.4741383,-0.4029184,-0.01933614
427.3889,0.04474428,-0.36298,-0.7261857,-0.4750668,-0.3999179,-0.01935848
427.4044,0.04474598,-0.3625525,-0.7182304,-0.4760382,-0.3969767,-0.01938009
427.4189,0.04474598,-0.3625525,-0.7182304,-0.4760382,-0.3969767,-0.01938009
427.4327,0.04474765,-0.36213,-0.7100363,-0.4770143,-0.3941216,-0.01940101
427.4491,0.0447493,-0.3617125,-0.7016722,-0.4779779,-0.3913564,-0.01942128
427.4636,0.04475091,-0.3613001,-0.6931924,-0.4789222,-0.3886774,-0.01944096
427.4771,0.04475091,-0.3613001,-0.6931924,-0.4789222,-0.3886774,-0.01944096
427.491,0.04475249,-0.3608926,-0.6846374,-0.4798449,-0.3860784,-0.01946009
427.5061,0.04475405,-0.3604899,-0.6760366,-0.4807455,-0.383554,-0.01947869
427.5209,0.04475557,-0.3600921,-0.6674111,-0.4816244,-0.3810991,-0.01949679
427.5354,0.04475557,-0.3600921,-0.6674111,-0.4816244,-0.3810991,-0.01949679
427.5494,0.04475706,-0.359699,-0.6587757,-0.4824824,-0.3787101,-0.01951442
427.5647,0.04475853,-0.3593106,-0.6501411,-0.48332,-0.3763838,-0.01953159
427.5795,0.04475853,-0.3593106,-0.6501411,-0.48332,-0.3763838,-0.01953159
427.5934,0.04475997,-0.3589269,-0.6415148,-0.4841381,-0.3741179,-0.01954831
427.6086,0.04476138,-0.3585477,-0.6329026,-0.4849371,-0.3719105,-0.0195646
427.6235,0.04476277,-0.358173,-0.6243085,-0.4857177,-0.36976,-0.01958048
427.638,0.04476277,-0.358173,-0.6243085,-0.4857177,-0.36976,-0.01958048
427.652,0.04476412,-0.3578029,-0.6157356,-0.4864804,-0.3676649,-0.01959594
427.6674,0.04476545,-0.3574371,-0.6071864,-0.4872257,-0.3656242,-0.01961101
