JMolnar6/NonAnthroHands_User_Study/HandsLoggerWithURDF/tempdata/files/Reachy_JointMotion_gesture_12_58.csv
Time,r_shoulder,r_shoulder_x,r_upper_arm,r_forearm,r_wrist,r_wrist2hand,
838.8278,-0.6934628,2.019482E-09,NaN,-0.692562,-1.322382E-07,NaN,0.09593838,-4.897009E-07,NaN,-0.652009,2.323352E-05,0.0923375,8.556801E-08,NaN,NaN,0.1321698,4.655357E-12,-2.301972E-06,-1.100008E-07,-4.16333E-09,-2.622604E-08
838.8442,-0.6888389,2.020113E-09,NaN,-0.6884674,-1.322382E-07,NaN,0.09510194,-4.904338E-07,NaN,-0.6505023,2.32339E-05,0.09408371,8.630204E-08,NaN,NaN,0.1322954,4.655357E-12,-2.290051E-06,-1.100013E-07,-9.229725E-09,-2.861022E-08
838.8593,-0.6888389,2.020113E-09,NaN,-0.6884674,-1.322382E-07,NaN,0.09510194,-4.904338E-07,NaN,-0.6505023,2.32339E-05,0.09408371,8.630204E-08,NaN,NaN,0.1322954,4.655357E-12,-2.290051E-06,-1.100013E-07,-9.229725E-09,-2.861022E-08
838.8747,-0.6841354,2.020743E-09,NaN,-0.6842988,-1.32238E-07,NaN,0.09419495,-4.900928E-07,NaN,-0.6489841,2.323427E-05,0.09603186,8.596231E-08,NaN,NaN,0.1324188,-4.657869E-12,-2.285282E-06,-1.099989E-07,-1.161391E-08,-2.622604E-08
838.891,-0.6794102,2.021374E-09,NaN,-0.6801056,-1.322374E-07,NaN,0.09336792,-4.903466E-07,NaN,-0.6474546,2.323464E-05,0.09799027,8.621729E-08,NaN,NaN,0.1325398,-1.25594E-15,-2.282898E-06,-1.099984E-07,-8.931701E-09,-2.861022E-08
838.9073,-0.6746963,2.022003E-09,NaN,-0.6759164,-1.322367E-07,NaN,0.09264816,-4.901877E-07,NaN,-0.6459205,2.323502E-05,0.09989481,8.605972E-08,NaN,NaN,0.1326584,-4.657869E-12,-2.279322E-06,-1.099957E-07,-8.037631E-09,-2.622604E-08
838.9227,-0.670244,2.022633E-09,NaN,-0.671948,-1.322353E-07,NaN,0.09258053,-4.902831E-07,NaN,-0.644643,2.323538E-05,0.1010575,8.615634E-08,NaN,NaN,0.1330562,-1.25594E-15,-2.273361E-06,-1.099924E-07,-6.547515E-09,-2.861022E-08
838.939,-0.670244,2.022633E-09,NaN,-0.671948,-1.322353E-07,NaN,0.09258053,-4.902831E-07,NaN,-0.644643,2.323538E-05,0.1010575,8.615634E-08,NaN,NaN,0.1330562,-1.25594E-15,-2.273361E-06,-1.099924E-07,-6.547515E-09,-2.861022E-08
838.9539,-0.6659638,2.023263E-09,NaN,-0.6681259,-1.322337E-07,NaN,0.09268871,-4.905092E-07,NaN,-0.6433972,2.323573E-05,0.1019186,8.638364E-08,NaN,NaN,0.1334461,-1.25594E-15,-2.26144E-06,-1.099889E-07,-3.26926E-09,-2.622604E-08
838.9707,-0.6618037,2.023892E-09,NaN,-0.6644064,-1.322317E-07,NaN,0.092806,-4.908069E-07,NaN,-0.6421863,2.323609E-05,0.102675,8.668263E-08,NaN,NaN,0.1338282,-1.25594E-15,-2.248327E-06,-1.099853E-07,-4.163329E-09,-2.861022E-08
838.9863,-0.6577336,2.024521E-09,NaN,-0.6607635,-1.322297E-07,NaN,0.09289234,-4.911383E-07,NaN,-0.6410056,2.323644E-05,0.1033974,8.701522E-08,NaN,NaN,0.1342028,-4.657869E-12,-2.235214E-06,-1.099816E-07,-3.567283E-09,-2.622604E-08
839.002,-0.6539654,2.02515E-09,NaN,-0.6573818,-1.322276E-07,NaN,0.09350609,-4.914856E-07,NaN,-0.6401026,2.323679E-05,0.1034339,8.736383E-08,NaN,NaN,0.1348516,-1.25594E-15,-2.222101E-06,-1.099778E-07,-5.951469E-09,-2.861022E-08
839.0195,-0.6539654,2.02515E-09,NaN,-0.6573818,-1.322276E-07,NaN,0.09350609,-4.914856E-07,NaN,-0.6401026,2.323679E-05,0.1034339,8.736383E-08,NaN,NaN,0.1348516,-1.25594E-15,-2.222101E-06,-1.099778E-07,-5.951469E-09,-2.861022E-08
839.0332,-0.6503909,2.025778E-09,NaN,-0.6541688,-1.322254E-07,NaN,0.09420244,-4.918373E-07,NaN,-0.6392424,2.323714E-05,0.103225,8.771685E-08,NaN,NaN,0.1354876,-1.25594E-15,-2.201835E-06,-1.09974E-07,-1.012379E-08,-2.622604E-08
839.0496,-0.6469464,2.026407E-09,NaN,-0.65107,-1.322232E-07,NaN,0.09484284,-4.921849E-07,NaN,-0.6384213,2.323748E-05,0.1029584,8.806573E-08,NaN,NaN,0.136111,4.655357E-12,-2.183954E-06,-1.099703E-07,-1.489216E-08,-2.861022E-08
839.0656,-0.6435947,2.027035E-09,NaN,-0.6480525,-1.32221E-07,NaN,0.09540696,-4.925257E-07,NaN,-0.6376304,2.323783E-05,0.1026956,8.840772E-08,NaN,NaN,0.1367222,4.655357E-12,-2.162496E-06,-1.099665E-07,-1.66803E-08,-2.622604E-08
839.0814,-0.6405423,2.027663E-09,NaN,-0.6452966,-1.322189E-07,NaN,0.09646475,-4.928568E-07,NaN,-0.6371144,2.323817E-05,0.1017792,8.874015E-08,NaN,NaN,0.1376029,9.31197E-12,-2.143423E-06,-1.099627E-07,-1.66803E-08,-2.861022E-08
839.0974,-0.6405423,2.027663E-09,NaN,-0.6452966,-1.322189E-07,NaN,0.09646475,-4.928568E-07,NaN,-0.6371144,2.323817E-05,0.1017792,8.874015E-08,NaN,NaN,0.1376029,9.31197E-12,-2.143423E-06,-1.099627E-07,-1.66803E-08,-2.861022E-08
839.1121,-0.6376802,2.028291E-09,NaN,-0.6427085,-1.322167E-07,NaN,0.09758156,-4.931786E-07,NaN,-0.6366364,2.323852E-05,0.1006431,8.90632E-08,NaN,NaN,0.1384662,9.31197E-12,-2.120773E-06,-1.09959E-07,-1.727635E-08,-2.622604E-08
839.1285,-0.6349438,2.028918E-09,NaN,-0.640232,-1.322145E-07,NaN,0.09862387,-4.934884E-07,NaN,-0.6361921,2.323887E-05,0.09947152,8.937423E-08,NaN,NaN,0.1393125,9.31197E-12,-2.094547E-06,-1.099552E-07,-1.310402E-08,-2.861022E-08
839.1442,-0.6322948,2.029545E-09,NaN,-0.6378333,-1.322123E-07,NaN,0.09957385,-4.937891E-07,NaN,-0.6357723,2.323922E-05,0.09832398,8.967631E-08,NaN,NaN,0.1401422,9.31197E-12,-2.069513E-06,-1.099515E-07,-1.250798E-08,-2.622604E-08
839.1602,-0.6299379,2.030173E-09,NaN,-0.6356918,-1.322101E-07,NaN,0.1010003,-4.940783E-07,NaN,-0.6356219,2.323957E-05,0.09654355,8.996677E-08,NaN,NaN,0.1412372,9.31197E-12,-2.048652E-06,-1.099478E-07,-1.012379E-08,-2.861022E-08
839.1758,-0.6299379,2.030173E-09,NaN,-0.6356918,-1.322101E-07,NaN,0.1010003,-4.940783E-07,NaN,-0.6356219,2.323957E-05,0.09654355,8.996677E-08,NaN,NaN,0.1412372,9.31197E-12,-2.048652E-06,-1.099478E-07,-1.012379E-08,-2.861022E-08
839.1908,-0.6277654,2.0308E-09,NaN,-0.6337139,-1.322079E-07,NaN,0.1024727,-4.943561E-07,NaN,-0.635503,2.323992E-05,0.09456111,9.024586E-08,NaN,NaN,0.1423106,9.31197E-12,-2.019445E-06,-1.09944E-07,-1.071984E-08,-2.622604E-08
839.2076,-0.6257128,2.031427E-09,NaN,-0.6318433,-1.322058E-07,NaN,0.1038582,-4.946227E-07,NaN,-0.6354117,2.324027E-05,0.09255989,9.051379E-08,NaN,NaN,0.1433628,9.31197E-12,-1.990835E-06,-1.099403E-07,-8.931699E-09,-2.861022E-08
839.2227,-0.6237414,2.032053E-09,NaN,-0.6300457,-1.322036E-07,NaN,0.1051391,-4.948784E-07,NaN,-0.635339,2.324062E-05,0.09059943,9.077078E-08,NaN,NaN,0.1443944,9.31197E-12,-1.964013E-06,-1.099367E-07,-8.335652E-09,-2.622604E-08
839.239,-0.6237414,2.032053E-09,NaN,-0.6300457,-1.322036E-07,NaN,0.1051391,-4.948784E-07,NaN,-0.635339,2.324062E-05,0.09059943,9.077078E-08,NaN,NaN,0.1443944,9.31197E-12,-1.964013E-06,-1.099367E-07,-8.335652E-09,-2.622604E-08
839.2534,-0.6220548,2.03268E-09,NaN,-0.6285,-1.322015E-07,NaN,0.1068802,-4.951234E-07,NaN,-0.6355303,2.324096E-05,0.08802487,9.101706E-08,NaN,NaN,0.1456874,1.396858E-11,-1.939575E-06,-1.09933E-07,-7.14356E-09,-2.861022E-08
839.27,-0.6205465,2.033306E-09,NaN,-0.6271135,-1.321993E-07,NaN,0.108656,-4.953607E-07,NaN,-0.6357471,2.324131E-05,0.08526343,9.125564E-08,NaN,NaN,0.1469548,1.396858E-11,-1.908581E-06,-1.099293E-07,-4.759374E-09,-2.622604E-08
839.2855,-0.6191522,2.033932E-09,NaN,-0.6258295,-1.321972E-07,NaN,0.1103336,-4.955876E-07,NaN,-0.6359856,2.324166E-05,0.08249829,9.148387E-08,NaN,NaN,0.1481973,1.86252E-11,-1.875798E-06,-1.099257E-07,-7.14356E-09,-2.861022E-08
839.3015,-0.6178331,2.034557E-09,NaN,-0.6246134,-1.32195E-07,NaN,0.111895,-4.958043E-07,NaN,-0.6362373,2.3242E-05,0.07978917,9.170193E-08,NaN,NaN,0.1494154,1.86252E-11,-1.844208E-06,-1.09922E-07,-9.527746E-09,-2.622604E-08
839.3171,-0.6178331,2.034557E-09,NaN,-0.6246134,-1.32195E-07,NaN,0.111895,-4.958043E-07,NaN,-0.6362373,2.3242E-05,0.07978917,9.170193E-08,NaN,NaN,0.1494154,1.86252E-11,-1.844208E-06,-1.09922E-07,-9.527746E-09,-2.622604E-08
839.3322,-0.6167918,2.035183E-09,NaN,-0.623644,-1.321929E-07,NaN,0.1139004,-4.960111E-07,NaN,-0.6367485,2.324235E-05,0.07648396,9.191004E-08,NaN,NaN,0.1508913,2.328181E-11,-1.812021E-06,-1.099184E-07,-7.739606E-09,-2.861022E-08
839.3486,-0.6159229,2.035809E-09,NaN,-0.6228289,-1.321908E-07,NaN,0.1159299,-4.962081E-07,NaN,-0.6372794,2.32427E-05,0.07300545,9.210838E-08,NaN,NaN,0.152338,2.328181E-11,-1.775662E-06,-1.099148E-07,-1.071984E-08,-2.622604E-08
839.3643,-0.6151623,2.036434E-09,NaN,-0.6221116,-1.321887E-07,NaN,0.1178507,-4.963956E-07,NaN,-0.6378266,2.324304E-05,0.06953703,9.229715E-08,NaN,NaN,0.1537563,2.793842E-11,-1.740495E-06,-1.099112E-07,-1.131589E-08,-2.861022E-08
839.3797,-0.6151623,2.036434E-09,NaN,-0.6221116,-1.321887E-07,NaN,0.1178507,-4.963956E-07,NaN,-0.6378266,2.324304E-05,0.06953703,9.229715E-08,NaN,NaN,0.1537563,2.793842E-11,-1.740495E-06,-1.099112E-07,-1.131589E-08,-2.861022E-08
839.395,-0.6146971,2.037059E-09,NaN,-0.6216571,-1.321866E-07,NaN,0.1201837,-4.965737E-07,NaN,-0.6386365,2.324339E-05,0.06547652,9.247653E-08,NaN,NaN,0.1554284,2.793842E-11,-1.708309E-06,-1.099076E-07,-9.527746E-09,-2.622604E-08
839.4111,-0.6144133,2.037684E-09,NaN,-0.6213654,-1.321845E-07,NaN,0.1225091,-4.967426E-07,NaN,-0.6394666,2.324373E-05,0.06125868,9.264672E-08,NaN,NaN,0.1570675,3.259503E-11,-1.667778E-06,-1.09904E-07,-1.012379E-08,-2.861022E-08
839.4274,-0.6142413,2.038308E-09,NaN,-0.6211749,-1.321824E-07,NaN,0.1246976,-4.969024E-07,NaN,-0.6403118,2.324408E-05,0.05707097,9.280787E-08,NaN,NaN,0.1586745,3.259503E-11,-1.628439E-06,-1.099005E-07,-8.9317E-09,-2.622604E-08
839.4428,-0.6141382,2.038933E-09,NaN,-0.6210474,-1.321803E-07,NaN,0.1267363,-4.970563E-07,NaN,-0.6411629,2.324443E-05,0.0529733,9.296301E-08,NaN,NaN,0.16025,3.725164E-11,-1.592676E-06,-1.098969E-07,-5.355421E-09,-2.861022E-08
839.4586,-0.6141382,2.038933E-09,NaN,-0.6210474,-1.321803E-07,NaN,0.1267363,-4.970563E-07,NaN,-0.6411629,2.324443E-05,0.0529733,9.296301E-08,NaN,NaN,0.16025,3.725164E-11,-1.592676E-06,-1.098969E-07,-5.355421E-09,-2.861022E-08
839.4736,-0.6143029,2.039557E-09,NaN,-0.6211582,-1.321782E-07,NaN,0.1291771,-4.972014E-07,NaN,-0.6422676,2.324478E-05,0.04831966,9.310943E-08,NaN,NaN,0.1620761,3.725164E-11,-1.557509E-06,-1.098934E-07,-6.547514E-09,-2.622604E-08
839.4896,-0.6146305,2.040181E-09,NaN,-0.6214154,-1.321761E-07,NaN,0.1316175,-4.97338E-07,NaN,-0.6433828,2.324513E-05,0.04352031,9.32473E-08,NaN,NaN,0.1638664,3.725164E-11,-1.522342E-06,-1.098899E-07,-7.14356E-09,-2.861022E-08
839.5055,-0.6150561,2.040805E-09,NaN,-0.6217612,-1.32174E-07,NaN,0.1339263,-4.974662E-07,NaN,-0.6445053,2.324547E-05,0.03875885,9.337678E-08,NaN,NaN,0.1656215,3.725164E-11,-1.483003E-06,-1.098864E-07,-6.547514E-09,-2.622604E-08
839.5221,-0.6155394,2.041428E-09,NaN,-0.6221599,-1.321719E-07,NaN,0.1360864,-4.975861E-07,NaN,-0.6456273,2.324582E-05,0.03409534,9.349803E-08,NaN,NaN,0.1673422,4.190825E-11,-1.446048E-06,-1.098829E-07,-6.547514E-09,-2.861022E-08
839.537,-0.6155394,2.041428E-09,NaN,-0.6221599,-1.321719E-07,NaN,0.1360864,-4.975861E-07,NaN,-0.6456273,2.324582E-05,0.03409534,9.349803E-08,NaN,NaN,0.1673422,4.190825E-11,-1.446048E-06,-1.098829E-07,-6.547514E-09,-2.861022E-08
839.5517,-0.6162819,2.042052E-09,NaN,-0.622789,-1.321699E-07,NaN,0.1386397,-4.97698E-07,NaN,-0.646998,2.324617E-05,0.02888809,9.361122E-08,NaN,NaN,0.1693107,4.190825E-11,-1.407901E-06,-1.098794E-07,-4.163328E-09,-2.622604E-08
839.5681,-0.6171786,2.042675E-09,NaN,-0.6235563,-1.321678E-07,NaN,0.1411874,-4.978048E-07,NaN,-0.6483746,2.324652E-05,0.02354398,9.371934E-08,NaN,NaN,0.1712406,4.190825E-11,-1.366178E-06,-1.098759E-07,-5.951467E-09,-2.861022E-08
839.5837,-0.6181648,2.043298E-09,NaN,-0.6244043,-1.321658E-07,NaN,0.1435968,-4.979038E-07,NaN,-0.649754,2.324687E-05,0.01824809,9.381964E-08,NaN,NaN,0.1731326,4.190825E-11,-1.325051E-06,-1.098724E-07,-5.951467E-09,-2.622604E-08
839.5993,-0.6181648,2.043298E-09,NaN,-0.6244043,-1.321658E-07,NaN,0.1435968,-4.979038E-07,NaN,-0.649754,2.324687E-05,0.01824809,9.381964E-08,NaN,NaN,0.1731326,4.190825E-11,-1.325051E-06,-1.098724E-07,-5.951467E-09,-2.622604E-08
839.6143,-0.6192008,2.043921E-09,NaN,-0.6252978,-1.321637E-07,NaN,0.1458507,-4.979952E-07,NaN,-0.6511289,2.324722E-05,0.01306096,9.391231E-08,NaN,NaN,0.1749875,4.190825E-11,-1.285712E-06,-1.09869E-07,-5.951467E-09,-2.861022E-08
839.6307,-0.6204888,2.044544E-09,NaN,-0.6264148,-1.321617E-07,NaN,0.1484819,-4.98079E-07,NaN,-0.6527497,2.324756E-05,0.007345818,9.399746E-08,NaN,NaN,0.1770876,4.190825E-11,-1.246969E-06,-1.098655E-07,-4.759374E-09,-2.622604E-08
839.6464,-0.6219233,2.045166E-09,NaN,-0.6276625,-1.321597E-07,NaN,0.1511001,-4.981584E-07,NaN,-0.6543727,2.324791E-05,0.0015035,9.407808E-08,NaN,NaN,0.1791465,4.190825E-11,-1.202265E-06,-1.098621E-07,-5.355421E-09,-2.861022E-08
839.6622,-0.6234397,2.045789E-09,NaN,-0.6289839,-1.321576E-07,NaN,0.1535725,-4.982305E-07,NaN,-0.6559948,2.324826E-05,-0.004280237,9.415145E-08,NaN,NaN,0.1811651,4.190825E-11,-1.15935E-06,-1.098587E-07,-3.567281E-09,-2.622604E-08
839.6777,-0.6234397,2.045789E-09,NaN,-0.6289839,-1.321576E-07,NaN,0.1535725,-4.982305E-07,NaN,-0.6559948,2.324826E-05,-0.004280237,9.415145E-08,NaN,NaN,0.1811651,4.190825E-11,-1.15935E-06,-1.098587E-07,-3.567281E-09,-2.622604E-08
839.6928,-0.6249986,2.046411E-09,NaN,-0.630344,-1.321556E-07,NaN,0.1558824,-4.982954E-07,NaN,-0.6576089,2.324861E-05,-0.009944765,9.421769E-08,NaN,NaN,0.1831441,4.190825E-11,-1.114647E-06,-1.098553E-07,-1.779142E-09,-2.861022E-08
839.7094,-0.6268031,2.047034E-09,NaN,-0.6319211,-1.321536E-07,NaN,0.1585538,-4.983534E-07,NaN,-0.6594663,2.324896E-05,-0.01612169,9.427695E-08,NaN,NaN,0.1853658,4.190825E-11,-1.077692E-06,-1.098519E-07,-1.183095E-09,-2.622604E-08
839.7247,-0.6287472,2.047656E-09,NaN,-0.6336222,-1.321516E-07,NaN,0.1612055,-4.984045E-07,NaN,-0.6613224,2.324931E-05,-0.02241705,9.432936E-08,NaN,NaN,0.1875439,4.656487E-11,-1.032988E-06,-1.098485E-07,-1.183095E-09,-2.861022E-08
839.7405,-0.6307662,2.048278E-09,NaN,-0.6353903,-1.321496E-07,NaN,0.163705,-4.984518E-07,NaN,-0.6631742,2.324965E-05,-0.02864435,9.437788E-08,NaN,NaN,0.1896794,4.656487E-11,-9.853045E-07,-1.098452E-07,-5.87049E-10,-2.622604E-08
839.756,-0.6307662,2.048278E-09,NaN,-0.6353903,-1.321496E-07,NaN,0.163705,-4.984518E-07,NaN,-0.6631742,2.324965E-05,-0.02864435,9.437788E-08,NaN,NaN,0.1896794,4.656487E-11,-9.853045E-07,-1.098452E-07,-5.87049E-10,-2.622604E-08
839.7711,-0.6328211,2.048899E-09,NaN,-0.6371908,-1.321476E-07,NaN,0.1660362,-4.984923E-07,NaN,-0.6650146,2.325E-05,-0.03474288,9.441977E-08,NaN,NaN,0.191773,4.656487E-11,-9.441773E-07,-1.098418E-07,1.797137E-09,-2.861022E-08
839.788,-0.6351158,2.049521E-09,NaN,-0.6392024,-1.321456E-07,NaN,0.1687134,-4.985264E-07,NaN,-0.667096,2.325035E-05,-0.04133856,9.445515E-08,NaN,NaN,0.1941071,4.656487E-11,-9.048383E-07,-1.098384E-07,3.585276E-09,-2.622604E-08
839.8032,-0.6375436,2.050142E-09,NaN,-0.6413316,-1.321436E-07,NaN,0.1713654,-4.985541E-07,NaN,-0.6691728,2.32507E-05,-0.04804492,9.448416E-08,NaN,NaN,0.1963955,4.656487E-11,-8.589427E-07,-1.098351E-07,3.585276E-09,-2.861022E-08
839.8188,-0.6375436,2.050142E-09,NaN,-0.6413316,-1.321436E-07,NaN,0.1713654,-4.985541E-07,NaN,-0.6691728,2.32507E-05,-0.04804492,9.448416E-08,NaN,NaN,0.1963955,4.656487E-11,-8.589427E-07,-1.098351E-07,3.585276E-09,-2.861022E-08
839.8343,-0.6400399,2.050764E-09,NaN,-0.6435215,-1.321416E-07,NaN,0.1738598,-4.985784E-07,NaN,-0.6712421,2.325105E-05,-0.05467466,9.450974E-08,NaN,NaN,0.198639,4.656487E-11,-8.130471E-07,-1.098318E-07,2.393183E-09,-2.622604E-08
839.8502,-0.6425658,2.051385E-09,NaN,-0.6457379,-1.321397E-07,NaN,0.1761811,-4.985965E-07,NaN,-0.6732969,2.32514E-05,-0.06116688,9.452913E-08,NaN,NaN,0.2008385,4.656487E-11,-7.659594E-07,-1.098285E-07,6.565508E-09,-2.861022E-08
839.8661,-0.6453264,2.052005E-09,NaN,-0.64816,-1.321377E-07,NaN,0.1788333,-4.986085E-07,NaN,-0.6755903,2.325175E-05,-0.06814142,9.454246E-08,NaN,NaN,0.2032765,4.656487E-11,-7.248323E-07,-1.098252E-07,8.353648E-09,-2.622604E-08
839.8815,-0.6482142,2.052626E-09,NaN,-0.6506937,-1.321357E-07,NaN,0.181456,-4.986175E-07,NaN,-0.6778764,2.32521E-05,-0.07521974,9.455267E-08,NaN,NaN,0.2056667,4.656487E-11,-6.771485E-07,-1.098219E-07,8.353648E-09,-2.861022E-08
839.8973,-0.6482142,2.052626E-09,NaN,-0.6506937,-1.321357E-07,NaN,0.181456,-4.986175E-07,NaN,-0.6778764,2.32521E-05,-0.07521974,9.455267E-08,NaN,NaN,0.2056667,4.656487E-11,-6.771485E-07,-1.098219E-07,8.353648E-09,-2.861022E-08
839.912,-0.6511644,2.053247E-09,NaN,-0.6532823,-1.321338E-07,NaN,0.1839169,-4.986205E-07,NaN,-0.6801518,2.325245E-05,-0.08221373,9.4557E-08,NaN,NaN,0.2080101,4.656487E-11,-6.31849E-07,-1.098186E-07,7.757601E-09,-2.622604E-08
839.9286,-0.6541383,2.053867E-09,NaN,-0.6558918,-1.321318E-07,NaN,0.1862009,-4.986177E-07,NaN,-0.6824098,2.325279E-05,-0.08906223,9.455555E-08,NaN,NaN,0.2103075,5.122148E-11,-5.853574E-07,-1.098153E-07,1.014179E-08,-2.861022E-08
839.9447,-0.6573424,2.054487E-09,NaN,-0.6587017,-1.321299E-07,NaN,0.1888014,-4.986093E-07,NaN,-0.6849043,2.325314E-05,-0.09637859,9.454845E-08,NaN,NaN,0.2128414,5.122148E-11,-5.430381E-07,-1.098121E-07,8.353647E-09,-2.622604E-08
839.9598,-0.6573424,2.054487E-09,NaN,-0.6587017,-1.321299E-07,NaN,0.1888014,-4.986093E-07,NaN,-0.6849043,2.325314E-05,-0.09637859,9.454845E-08,NaN,NaN,0.2128414,5.122148E-11,-5.430381E-07,-1.098121E-07,8.353647E-09,-2.622604E-08
839.975,-0.660668,2.055107E-09,NaN,-0.6616177,-1.32128E-07,NaN,0.1913689,-4.985982E-07,NaN,-0.6873888,2.325349E-05,-0.1037926,9.453864E-08,NaN,NaN,0.2153257,5.122148E-11,-4.995267E-07,-1.098089E-07,1.312202E-08,-2.861022E-08
839.9909,-0.6640504,2.055727E-09,NaN,-0.6645831,-1.32126E-07,NaN,0.1937715,-4.985816E-07,NaN,-0.6898597,2.325384E-05,-0.1111154,9.452334E-08,NaN,NaN,0.2177614,5.122148E-11,-4.566114E-07,-1.098056E-07,1.073783E-08,-2.622604E-08
840.0068,-0.6674509,2.056347E-09,NaN,-0.6675642,-1.321241E-07,NaN,0.1959945,-4.985596E-07,NaN,-0.6923104,2.325419E-05,-0.1182854,9.450265E-08,NaN,NaN,0.2201493,5.122148E-11,-4.107158E-07,-1.098024E-07,1.312202E-08,-2.861022E-08
840.0223,-0.6710774,2.056966E-09,NaN,-0.6707408,-1.321222E-07,NaN,0.1985199,-4.985352E-07,NaN,-0.6949958,2.325454E-05,-0.1259092,9.447951E-08,NaN,NaN,0.2227719,5.122148E-11,-3.701847E-07,-1.097992E-07,1.431411E-08,-2.622604E-08
840.0416,-0.6748203,2.057585E-09,NaN,-0.6740182,-1.321202E-07,NaN,0.20101,-4.985055E-07,NaN,-0.6976686,2.325489E-05,-0.1336252,9.445114E-08,NaN,NaN,0.2253431,5.122148E-11,-3.248851E-07,-1.09796E-07,1.431411E-08,-2.861022E-08
840.0553,-0.6748203,2.057585E-09,NaN,-0.6740182,-1.321202E-07,NaN,0.20101,-4.985055E-07,NaN,-0.6976686,2.325489E-05,-0.1336252,9.445114E-08,NaN,NaN,0.2253431,5.122148E-11,-3.248851E-07,-1.09796E-07,1.431411E-08,-2.861022E-08
840.0685,-0.6786146,2.058205E-09,NaN,-0.6773398,-1.321183E-07,NaN,0.203333,-4.984707E-07,NaN,-0.7003253,2.325524E-05,-0.1412437,9.441764E-08,NaN,NaN,0.2278641,5.122148E-11,-2.777975E-07,-1.097928E-07,1.282399E-08,-2.622604E-08
840.0853,-0.6824217,2.058824E-09,NaN,-0.6806721,-1.321164E-07,NaN,0.2054748,-4.984337E-07,NaN,-0.7029591,2.325558E-05,-0.1487029,9.438194E-08,NaN,NaN,0.2303356,5.587809E-11,-2.301138E-07,-1.097896E-07,1.520818E-08,-2.861022E-08
840.1009,-0.6864511,2.059443E-09,NaN,-0.6841955,-1.321145E-07,NaN,0.2079054,-4.983917E-07,NaN,-0.7058259,2.325593E-05,-0.1566022,9.434126E-08,NaN,NaN,0.23304,5.587809E-11,-1.913708E-07,-1.097865E-07,1.282399E-08,-2.622604E-08
840.1163,-0.6864511,2.059443E-09,NaN,-0.6841955,-1.321145E-07,NaN,0.2079054,-4.983917E-07,NaN,-0.7058259,2.325593E-05,-0.1566022,9.434126E-08,NaN,NaN,0.23304,5.587809E-11,-1.913708E-07,-1.097865E-07,1.282399E-08,-2.622604E-08
840.1313,-0.6905921,2.060061E-09,NaN,-0.6878145,-1.321126E-07,NaN,0.2102993,-4.983448E-07,NaN,-0.7086778,2.325627E-05,-0.1645889,9.429569E-08,NaN,NaN,0.2356916,6.05347E-11,-1.466673E-07,-1.097833E-07,1.401609E-08,-2.861022E-08
840.1476,-0.6947792,2.06068E-09,NaN,-0.6914727,-1.321108E-07,NaN,0.2125249,-4.98296E-07,NaN,-0.7115112,2.325662E-05,-0.1724724,9.424816E-08,NaN,NaN,0.2382913,6.05347E-11,-9.779147E-08,-1.097802E-07,1.461213E-08,-2.622604E-08
840.1636,-0.6989741,2.061298E-09,NaN,-0.695137,-1.321089E-07,NaN,0.2145684,-4.982424E-07,NaN,-0.7143195,2.325697E-05,-0.1801907,9.419587E-08,NaN,NaN,0.24084,6.05347E-11,-5.18959E-08,-1.09777E-07,1.66983E-08,-2.861022E-08
840.1792,-0.6989741,2.061298E-09,NaN,-0.695137,-1.321089E-07,NaN,0.2145684,-4.982424E-07,NaN,-0.7143195,2.325697E-05,-0.1801907,9.419587E-08,NaN,NaN,0.24084,6.05347E-11,-5.18959E-08,-1.09777E-07,1.66983E-08,-2.861022E-08
840.1943,-0.7033881,2.061916E-09,NaN,-0.6989881,-1.32107E-07,NaN,0.2168878,-4.981841E-07,NaN,-0.7173589,2.325732E-05,-0.1883359,9.413893E-08,NaN,NaN,0.2436201,6.05347E-11,-1.255683E-08,-1.097739E-07,2.176469E-08,-2.622604E-08
840.2105,-0.7079089,2.062534E-09,NaN,-0.70293,-1.321051E-07,NaN,0.21917,-4.981242E-07,NaN,-0.7203816,2.325767E-05,-0.1965641,9.408024E-08,NaN,NaN,0.2463459,6.05347E-11,3.27427E-08,-1.097708E-07,2.116865E-08,-2.861022E-08
840.2263,-0.712471,2.063152E-09,NaN,-0.7069064,-1.321033E-07,NaN,0.2212834,-4.980596E-07,NaN,-0.7233834,2.325802E-05,-0.2046841,9.401701E-08,NaN,NaN,0.2490183,6.05347E-11,7.565804E-08,-1.097677E-07,2.265876E-08,-2.622604E-08
840.2419,-0.7170362,2.063769E-09,NaN,-0.7108845,-1.321014E-07,NaN,0.2232149,-4.979935E-07,NaN,-0.7263581,2.325837E-05,-0.2126335,9.395217E-08,NaN,NaN,0.2516384,6.05347E-11,1.221497E-07,-1.097646E-07,2.087062E-08,-2.861022E-08
840.2575,-0.7170362,2.063769E-09,NaN,-0.7108845,-1.321014E-07,NaN,0.2232149,-4.979935E-07,NaN,-0.7263581,2.325837E-05,-0.2126335,9.395217E-08,NaN,NaN,0.2516384,6.05347E-11,1.221497E-07,-1.097646E-07,2.087062E-08,-2.861022E-08
840.2726,-0.7218174,2.064387E-09,NaN,-0.7150452,-1.320995E-07,NaN,0.2254099,-4.979229E-07,NaN,-0.7295623,2.325872E-05,-0.2209969,9.388291E-08,NaN,NaN,0.2544884,6.05347E-11,1.626808E-07,-1.097615E-07,2.05726E-08,-2.622604E-08
840.2888,-0.7267011,2.065004E-09,NaN,-0.7192922,-1.320977E-07,NaN,0.2275678,-4.978481E-07,NaN,-0.732748,2.325907E-05,-0.2294395,9.380933E-08,NaN,NaN,0.2572827,6.05347E-11,2.082784E-07,-1.097585E-07,2.221173E-08,-2.861022E-08
840.3047,-0.7316213,2.065621E-09,NaN,-0.7235693,-1.320958E-07,NaN,0.2295574,-4.977718E-07,NaN,-0.7359111,2.325942E-05,-0.2377694,9.373433E-08,NaN,NaN,0.2600223,6.05347E-11,2.538759E-07,-1.097554E-07,2.504295E-08,-2.622604E-08
840.3204,-0.73654,2.066238E-09,NaN,-0.7278438,-1.32094E-07,NaN,0.2313658,-4.976913E-07,NaN,-0.739045,2.325977E-05,-0.2459239,9.365512E-08,NaN,NaN,0.2627082,6.05347E-11,2.991754E-07,-1.097524E-07,2.161568E-08,-2.861022E-08
840.3361,-0.73654,2.066238E-09,NaN,-0.7278438,-1.32094E-07,NaN,0.2313658,-4.976913E-07,NaN,-0.739045,2.325977E-05,-0.2459239,9.365512E-08,NaN,NaN,0.2627082,6.05347E-11,2.991754E-07,-1.097524E-07,2.161568E-08,-2.861022E-08
840.351,-0.741672,2.066855E-09,NaN,-0.7322972,-1.320922E-07,NaN,0.2334261,-4.976095E-07,NaN,-0.7424068,2.326012E-05,-0.2544798,9.35746E-08,NaN,NaN,0.2656227,6.05347E-11,3.394086E-07,-1.097493E-07,2.161568E-08,-2.622604E-08
840.3672,-0.7469024,2.067472E-09,NaN,-0.7368325,-1.320903E-07,NaN,0.2354499,-4.975236E-07,NaN,-0.7457488,2.326047E-05,-0.2631116,9.348997E-08,NaN,NaN,0.2684804,6.05347E-11,3.83516E-07,-1.097463E-07,1.878446E-08,-2.861022E-08
840.3828,-0.7521647,2.068088E-09,NaN,-0.7413936,-1.320885E-07,NaN,0.2373066,-4.974336E-07,NaN,-0.7490664,2.326081E-05,-0.2716266,9.340132E-08,NaN,NaN,0.271282,6.05347E-11,4.314977E-07,-1.097433E-07,2.027457E-08,-2.622604E-08
840.3987,-0.7521647,2.068088E-09,NaN,-0.7413936,-1.320885E-07,NaN,0.2373066,-4.974336E-07,NaN,-0.7490664,2.326081E-05,-0.2716266,9.340132E-08,NaN,NaN,0.271282,6.05347E-11,4.314977E-07,-1.097433E-07,2.027457E-08,-2.622604E-08
840.4137,-0.7576591,2.068705E-09,NaN,-0.7461482,-1.320867E-07,NaN,0.2393859,-4.973426E-07,NaN,-0.752616,2.326116E-05,-0.280545,9.331155E-08,NaN,NaN,0.2743101,6.05347E-11,4.699427E-07,-1.097403E-07,2.012556E-08,-2.861022E-08
840.4304,-0.7632597,2.069321E-09,NaN,-0.750991,-1.320849E-07,NaN,0.2414047,-4.972476E-07,NaN,-0.7561491,2.326151E-05,-0.2895299,9.321785E-08,NaN,NaN,0.277279,6.05347E-11,5.158383E-07,-1.097373E-07,1.774138E-08,-2.622604E-08
840.4458,-0.7688944,2.069937E-09,NaN,-0.7558612,-1.320831E-07,NaN,0.2432378,-4.971516E-07,NaN,-0.7596591,2.326186E-05,-0.2983845,9.312313E-08,NaN,NaN,0.2801898,6.05347E-11,5.63224E-07,-1.097343E-07,1.945501E-08,-2.861022E-08
840.4614,-0.7745224,2.070553E-09,NaN,-0.7607241,-1.320813E-07,NaN,0.2448787,-4.970517E-07,NaN,-0.7631384,2.326221E-05,-0.307046,9.302457E-08,NaN,NaN,0.2830435,6.05347E-11,6.097156E-07,-1.097313E-07,1.80394E-08,-2.622604E-08
840.4772,-0.7745224,2.070553E-09,NaN,-0.7607241,-1.320813E-07,NaN,0.2448787,-4.970517E-07,NaN,-0.7631384,2.326221E-05,-0.307046,9.302457E-08,NaN,NaN,0.2830435,6.05347E-11,6.097156E-07,-1.097313E-07,1.80394E-08,-2.622604E-08
840.4921,-0.7803609,2.071169E-09,NaN,-0.7657604,-1.320795E-07,NaN,0.2467426,-4.969509E-07,NaN,-0.7668434,2.326256E-05,-0.3160799,9.29251E-08,NaN,NaN,0.2861225,6.05347E-11,6.499488E-07,-1.097284E-07,1.694975E-08,-2.861022E-08
840.5085,-0.7862905,2.071784E-09,NaN,-0.770871,-1.320777E-07,NaN,0.2485659,-4.968464E-07,NaN,-0.7705271,2.326291E-05,-0.325177,9.282189E-08,NaN,NaN,0.2891414,6.05347E-11,6.925661E-07,-1.097254E-07,1.946433E-08,-2.622604E-08
840.5239,-0.7922434,2.0724E-09,NaN,-0.7759995,-1.320759E-07,NaN,0.2502207,-4.967411E-07,NaN,-0.7741832,2.326326E-05,-0.3341455,9.271784E-08,NaN,NaN,0.2921011,6.05347E-11,7.378657E-07,-1.097225E-07,1.797421E-08,-2.861022E-08
840.5399,-0.7922434,2.0724E-09,NaN,-0.7759995,-1.320759E-07,NaN,0.2502207,-4.967411E-07,NaN,-0.7741832,2.326326E-05,-0.3341455,9.271784E-08,NaN,NaN,0.2921011,6.05347E-11,7.378657E-07,-1.097225E-07,1.797421E-08,-2.861022E-08
840.5558,-0.7981817,2.073015E-09,NaN,-0.7811139,-1.320741E-07,NaN,0.2516963,-4.966321E-07,NaN,-0.7778051,2.326361E-05,-0.3429227,9.261015E-08,NaN,NaN,0.2950028,6.05347E-11,7.80483E-07,-1.097195E-07,1.633508E-08,-2.622604E-08
840.5714,-0.8043267,2.07363E-09,NaN,-0.7863965,-1.320723E-07,NaN,0.2533908,-4.965223E-07,NaN,-0.7816498,2.326396E-05,-0.3520649,9.250171E-08,NaN,NaN,0.2981287,6.05347E-11,8.18928E-07,-1.097166E-07,1.968784E-08,-2.861022E-08
840.5869,-0.8105578,2.074245E-09,NaN,-0.7917485,-1.320706E-07,NaN,0.2550507,-4.96409E-07,NaN,-0.7854717,2.326431E-05,-0.3612706,9.238972E-08,NaN,NaN,0.3011937,6.05347E-11,8.597572E-07,-1.097137E-07,1.827223E-08,-2.622604E-08
840.6024,-0.8168074,2.07486E-09,NaN,-0.7971141,-1.320688E-07,NaN,0.256547,-4.962922E-07,NaN,-0.7892645,2.326466E-05,-0.3703465,9.227423E-08,NaN,NaN,0.3041985,6.05347E-11,9.038646E-07,-1.097108E-07,1.827223E-08,-2.861022E-08
840.6179,-0.8168074,2.07486E-09,NaN,-0.7971141,-1.320688E-07,NaN,0.256547,-4.962922E-07,NaN,-0.7892645,2.326466E-05,-0.3703465,9.227423E-08,NaN,NaN,0.3041985,6.05347E-11,9.038646E-07,-1.097108E-07,1.827223E-08,-2.861022E-08
840.6329,-0.8230379,2.075475E-09,NaN,-0.8024617,-1.32067E-07,NaN,0.2578684,-4.961748E-07,NaN,-0.7930216,2.326501E-05,-0.3792291,9.215815E-08,NaN,NaN,0.3071445,6.05347E-11,9.47078E-07,-1.097079E-07,1.678212E-08,-2.622604E-08
840.6493,-0.8294734,2.07609E-09,NaN,-0.8079745,-1.320653E-07,NaN,0.2593997,-4.96054E-07,NaN,-0.7969999,2.326535E-05,-0.3884669,9.203865E-08,NaN,NaN,0.3103138,6.05347E-11,9.849269E-07,-1.09705E-07,1.559002E-08,-2.861022E-08
840.665,-0.8359913,2.076704E-09,NaN,-0.8135529,-1.320635E-07,NaN,0.2608993,-4.959327E-07,NaN,-0.8009552,2.32657E-05,-0.397766,9.191864E-08,NaN,NaN,0.3134212,6.05347E-11,1.028438E-06,-1.097022E-07,1.797421E-08,-2.622604E-08
840.6808,-0.8425235,2.077319E-09,NaN,-0.8191411,-1.320618E-07,NaN,0.2622388,-4.958081E-07,NaN,-0.8048804,2.326605E-05,-0.4069331,9.179531E-08,NaN,NaN,0.3164679,6.05347E-11,1.069267E-06,-1.096993E-07,2.125246E-08,-2.861022E-08
840.6968,-0.8425235,2.077319E-09,NaN,-0.8191411,-1.320618E-07,NaN,0.2622388,-4.958081E-07,NaN,-0.8048804,2.326605E-05,-0.4069331,9.179531E-08,NaN,NaN,0.3164679,6.05347E-11,1.069267E-06,-1.096993E-07,2.125246E-08,-2.861022E-08
840.7115,-0.8490324,2.077933E-09,NaN,-0.8247082,-1.320601E-07,NaN,0.2634072,-4.95683E-07,NaN,-0.8087689,2.32664E-05,-0.4159042,9.167152E-08,NaN,NaN,0.3194548,6.05347E-11,1.111289E-06,-1.096965E-07,1.946432E-08,-2.622604E-08
840.7279,-0.8557453,2.078547E-09,NaN,-0.8304375,-1.320583E-07,NaN,0.2647765,-4.955546E-07,NaN,-0.8128773,2.326675E-05,-0.4252206,9.154449E-08,NaN,NaN,0.3226641,6.05347E-11,1.15033E-06,-1.096936E-07,1.976235E-08,-2.861022E-08
840.7433,-0.8625368,2.079161E-09,NaN,-0.8362288,-1.320566E-07,NaN,0.266117,-4.954259E-07,NaN,-0.8169628,2.32671E-05,-0.4345962,9.141708E-08,NaN,NaN,0.3258108,6.05347E-11,1.193543E-06,-1.096908E-07,1.767618E-08,-2.622604E-08
840.759,-0.8625368,2.079161E-09,NaN,-0.8362288,-1.320566E-07,NaN,0.266117,-4.954259E-07,NaN,-0.8169628,2.32671E-05,-0.4345962,9.141708E-08,NaN,NaN,0.3258108,6.05347E-11,1.193543E-06,-1.096908E-07,1.767618E-08,-2.622604E-08
840.7742,-0.8693386,2.079774E-09,NaN,-0.8420267,-1.320549E-07,NaN,0.2673012,-4.95294E-07,NaN,-0.8210174,2.326745E-05,-0.4438375,9.128649E-08,NaN,NaN,0.328896,6.05347E-11,1.239141E-06,-1.09688E-07,1.559002E-08,-2.861022E-08
840.7903,-0.8761132,2.080388E-09,NaN,-0.8478003,-1.320531E-07,NaN,0.2683183,-4.951618E-07,NaN,-0.8250345,2.32678E-05,-0.4528805,9.115559E-08,NaN,NaN,0.3319206,6.05347E-11,1.28295E-06,-1.096851E-07,1.290781E-08,-2.622604E-08
840.8063,-0.8830907,2.081001E-09,NaN,-0.8537334,-1.320514E-07,NaN,0.2695278,-4.950293E-07,NaN,-0.8292703,2.326815E-05,-0.4622595,9.10244E-08,NaN,NaN,0.3351669,6.05347E-11,1.316329E-06,-1.096823E-07,1.559002E-08,-2.861022E-08
840.8218,-0.8901435,2.081615E-09,NaN,-0.8597252,-1.320497E-07,NaN,0.2707114,-4.948937E-07,NaN,-0.8334836,2.32685E-05,-0.4716953,9.08901E-08,NaN,NaN,0.3383499,6.05347E-11,1.35537E-06,-1.096795E-07,1.409991E-08,-2.622604E-08
840.8376,-0.8901435,2.081615E-09,NaN,-0.8597252,-1.320497E-07,NaN,0.2707114,-4.948937E-07,NaN,-0.8334836,2.32685E-05,-0.4716953,9.08901E-08,NaN,NaN,0.3383499,6.05347E-11,1.35537E-06,-1.096795E-07,1.409991E-08,-2.622604E-08
840.8524,-0.8972023,2.082228E-09,NaN,-0.8657202,-1.32048E-07,NaN,0.2717426,-4.947578E-07,NaN,-0.8376655,2.326885E-05,-0.4809949,9.075558E-08,NaN,NaN,0.3414706,6.05347E-11,1.39605E-06,-1.096768E-07,1.5292E-08,-2.861022E-08
840.8686,-0.90423,2.08284E-09,NaN,-0.8716881,-1.320467E-07,NaN,0.272611,-4.944346E-07,NaN,-0.841809,2.326921E-05,-0.4900941,9.043361E-08,NaN,NaN,0.3445301,5.587809E-11,1.434197E-06,-1.096767E-07,1.588804E-08,-2.622604E-08
840.8843,-0.9114599,2.083453E-09,NaN,-0.877813,-1.320461E-07,NaN,0.2736636,-4.937818E-07,NaN,-0.8461699,2.326957E-05,-0.4995204,8.978213E-08,NaN,NaN,0.3478105,5.587809E-11,1.468023E-06,-1.096772E-07,1.648409E-08,-2.861022E-08
840.9,-0.9114599,2.083453E-09,NaN,-0.877813,-1.320461E-07,NaN,0.2736636,-4.937818E-07,NaN,-0.8461699,2.326957E-05,-0.4995204,8.978213E-08,NaN,NaN,0.3478105,5.587809E-11,1.468023E-06,-1.096772E-07,1.648409E-08,-2.861022E-08
840.915,-0.9187616,2.084065E-09,NaN,-0.8839934,-1.320461E-07,NaN,0.2746933,-4.929612E-07,NaN,-0.850509,2.326994E-05,-0.5090013,8.896279E-08,NaN,NaN,0.351027,5.587809E-11,1.508703E-06,-1.096781E-07,1.708014E-08,-2.622604E-08
840.9313,-0.9260653,2.084677E-09,NaN,-0.8901737,-1.320463E-07,NaN,0.2755748,-4.920522E-07,NaN,-0.8548164,2.327032E-05,-0.5183441,8.805507E-08,NaN,NaN,0.3541805,5.587809E-11,1.550128E-06,-1.096792E-07,1.5292E-08,-2.861022E-08
840.9471,-0.9333341,2.085289E-09,NaN,-0.8963242,-1.320467E-07,NaN,0.2762978,-4.911017E-07,NaN,-0.8590845,2.327069E-05,-0.5274848,8.710586E-08,NaN,NaN,0.3572721,5.122148E-11,1.58753E-06,-1.096804E-07,1.469595E-08,-2.622604E-08
840.963,-0.9408045,2.085901E-09,NaN,-0.9026295,-1.320473E-07,NaN,0.2771973,-4.90136E-07,NaN,-0.863569,2.327107E-05,-0.5369441,8.614135E-08,NaN,NaN,0.3605841,4.656487E-11,1.619418E-06,-1.096817E-07,1.588804E-08,-2.861022E-08
840.9788,-0.9408045,2.085901E-09,NaN,-0.9026295,-1.320473E-07,NaN,0.2771973,-4.90136E-07,NaN,-0.863569,2.327107E-05,-0.5369441,8.614135E-08,NaN,NaN,0.3605841,4.656487E-11,1.619418E-06,-1.096817E-07,1.588804E-08,-2.861022E-08
840.9933,-0.9483432,2.086513E-09,NaN,-0.908987,-1.320479E-07,NaN,0.2780769,-4.891693E-07,NaN,-0.8680323,2.327144E-05,-0.5464559,8.517596E-08,NaN,NaN,0.3638315,4.656487E-11,1.658907E-06,-1.09683E-07,1.290781E-08,-2.622604E-08
841.0096,-0.95588,2.087126E-09,NaN,-0.9153416,-1.320483E-07,NaN,0.2788123,-4.894401E-07,NaN,-0.8724636,2.327182E-05,-0.5558278,8.544793E-08,NaN,NaN,0.3670153,4.190825E-11,1.698395E-06,-1.096846E-07,9.331532E-09,-2.861022E-08
841.0252,-0.963378,2.08774E-09,NaN,-0.9216636,-1.320488E-07,NaN,0.279394,-4.897026E-07,NaN,-0.8768551,2.327218E-05,-0.5649961,8.571171E-08,NaN,NaN,0.3701366,4.656487E-11,1.735797E-06,-1.096862E-07,1.052362E-08,-2.622604E-08
841.0414,-0.9710772,2.088353E-09,NaN,-0.9281384,-1.320494E-07,NaN,0.2801446,-4.899572E-07,NaN,-0.8814617,2.327256E-05,-0.5744752,8.596754E-08,NaN,NaN,0.3734777,4.190825E-11,1.766642E-06,-1.096878E-07,1.171572E-08,-2.861022E-08
841.0568,-0.9710772,2.088353E-09,NaN,-0.9281384,-1.320494E-07,NaN,0.2801446,-4.899572E-07,NaN,-0.8814617,2.327256E-05,-0.5744752,8.596754E-08,NaN,NaN,0.3734777,4.190825E-11,1.766642E-06,-1.096878E-07,1.171572E-08,-2.861022E-08
841.0731,-0.9788414,2.088966E-09,NaN,-0.9346623,-1.320499E-07,NaN,0.2808782,-4.902068E-07,NaN,-0.8860483,2.327293E-05,-0.5840045,8.62183E-08,NaN,NaN,0.3767536,4.656487E-11,1.802554E-06,-1.096895E-07,1.052362E-08,-2.622604E-08
841.0881,-0.9865996,2.089578E-09,NaN,-0.9411805,-1.320503E-07,NaN,0.2814718,-4.90023E-07,NaN,-0.8906025,2.32733E-05,-0.5933924,8.603571E-08,NaN,NaN,0.3799653,4.656487E-11,1.842787E-06,-1.096911E-07,1.052362E-08,-2.861022E-08
841.1038,-0.9943153,2.090191E-09,NaN,-0.9476637,-1.320508E-07,NaN,0.2819164,-4.898399E-07,NaN,-0.8951161,2.327367E-05,-0.6025752,8.585384E-08,NaN,NaN,0.383114,4.656487E-11,1.878401E-06,-1.096928E-07,9.331532E-09,-2.622604E-08
841.1192,-0.9943153,2.090191E-09,NaN,-0.9476637,-1.320508E-07,NaN,0.2819164,-4.898399E-07,NaN,-0.8951161,2.327367E-05,-0.6025752,8.585384E-08,NaN,NaN,0.383114,4.656487E-11,1.878401E-06,-1.096928E-07,9.331532E-09,-2.622604E-08
841.134,-1.002232,2.090804E-09,NaN,-0.9542975,-1.320513E-07,NaN,0.2825227,-4.900887E-07,NaN,-0.8998437,2.327405E-05,-0.6120617,8.610388E-08,NaN,NaN,0.386482,4.190825E-11,1.906787E-06,-1.096944E-07,6.3513E-09,-2.861022E-08
841.1503,-1.01021,2.091416E-09,NaN,-0.9609778,-1.320518E-07,NaN,0.2831149,-4.899069E-07,NaN,-0.9045525,2.327442E-05,-0.6215961,8.59234E-08,NaN,NaN,0.3897842,4.190825E-11,1.943519E-06,-1.096961E-07,5.159207E-09,-2.622604E-08
841.1663,-1.018179,2.092029E-09,NaN,-0.9676495,-1.320523E-07,NaN,0.2835712,-4.901599E-07,NaN,-0.9092287,2.32748E-05,-0.6309875,8.617764E-08,NaN,NaN,0.3930218,3.725164E-11,1.980958E-06,-1.096977E-07,7.543393E-09,-2.861022E-08
841.1817,-1.026101,2.092641E-09,NaN,-0.9742839,-1.320528E-07,NaN,0.2838832,-4.899824E-07,NaN,-0.9138636,2.327517E-05,-0.6401729,8.600127E-08,NaN,NaN,0.3961958,3.725164E-11,2.018248E-06,-1.096994E-07,7.543393E-09,-2.622604E-08
841.1976,-1.026101,2.092641E-09,NaN,-0.9742839,-1.320528E-07,NaN,0.2838832,-4.899824E-07,NaN,-0.9138636,2.327517E-05,-0.6401729,8.600127E-08,NaN,NaN,0.3961958,3.725164E-11,2.018248E-06,-1.096994E-07,7.543393E-09,-2.622604E-08
841.2126,-1.034224,2.093254E-09,NaN,-0.9810673,-1.320533E-07,NaN,0.2843501,-4.898082E-07,NaN,-0.9187114,2.327555E-05,-0.6496552,8.582833E-08,NaN,NaN,0.3995886,3.725164E-11,2.046039E-06,-1.09701E-07,7.543393E-09,-2.861022E-08
841.229,-1.042405,2.093867E-09,NaN,-0.9878942,-1.320538E-07,NaN,0.2848054,-4.900686E-07,NaN,-0.9235416,2.327591E-05,-0.659183,8.608993E-08,NaN,NaN,0.4029151,4.190825E-11,2.078244E-06,-1.097026E-07,8.735486E-09,-2.622604E-08
841.2445,-1.050573,2.094479E-09,NaN,-0.99471,-1.320543E-07,NaN,0.2851291,-4.898982E-07,NaN,-0.9283391,2.327629E-05,-0.6685665,8.59208E-08,NaN,NaN,0.4061766,4.190825E-11,2.114062E-06,-1.097043E-07,7.543393E-09,-2.861022E-08
841.2603,-1.05869,2.095092E-09,NaN,-1.001487,-1.320549E-07,NaN,0.2853133,-4.901624E-07,NaN,-0.9330946,2.327665E-05,-0.6777433,8.618615E-08,NaN,NaN,0.409374,4.656487E-11,2.148228E-06,-1.097059E-07,7.543393E-09,-2.622604E-08
841.2759,-1.05869,2.095092E-09,NaN,-1.001487,-1.320549E-07,NaN,0.2853133,-4.901624E-07,NaN,-0.9330946,2.327665E-05,-0.6777433,8.618615E-08,NaN,NaN,0.409374,4.656487E-11,2.148228E-06,-1.097059E-07,7.543393E-09,-2.622604E-08
841.2909,-1.067009,2.095705E-09,NaN,-1.00841,-1.320553E-07,NaN,0.2856457,-4.899957E-07,NaN,-0.9380618,2.327703E-05,-0.6872106,8.60207E-08,NaN,NaN,0.4127897,4.656487E-11,2.174803E-06,-1.097075E-07,8.735486E-09,-2.861022E-08
841.3074,-1.075382,2.096317E-09,NaN,-1.015375,-1.320558E-07,NaN,0.2859689,-4.898322E-07,NaN,-0.943013,2.32774E-05,-0.6967212,8.585845E-08,NaN,NaN,0.4161387,4.656487E-11,2.206794E-06,-1.097091E-07,7.543393E-09,-2.622604E-08
841.3229,-1.083738,2.09693E-09,NaN,-1.022326,-1.320563E-07,NaN,0.2861647,-4.901031E-07,NaN,-0.9479311,2.327778E-05,-0.7060862,8.613053E-08,NaN,NaN,0.4194222,4.190825E-11,2.238795E-06,-1.097107E-07,8.735486E-09,-2.861022E-08
841.3386,-1.083738,2.09693E-09,NaN,-1.022326,-1.320563E-07,NaN,0.2861647,-4.901031E-07,NaN,-0.9479311,2.327778E-05,-0.7060862,8.613053E-08,NaN,NaN,0.4194222,4.190825E-11,2.238795E-06,-1.097107E-07,8.735486E-09,-2.861022E-08
841.3539,-1.092311,2.097542E-09,NaN,-1.029437,-1.320568E-07,NaN,0.2864834,-4.89943E-07,NaN,-0.9530664,2.327815E-05,-0.7157483,8.597168E-08,NaN,NaN,0.4229222,4.190825E-11,2.265058E-06,-1.097123E-07,8.735486E-09,-2.622604E-08
841.3699,-1.100943,2.098155E-09,NaN,-1.036593,-1.320573E-07,NaN,0.2867728,-4.902172E-07,NaN,-0.958191,2.327852E-05,-0.7254451,8.624709E-08,NaN,NaN,0.4263539,4.656487E-11,2.297505E-06,-1.097139E-07,8.735486E-09,-2.861022E-08
841.3854,-1.109558,2.098768E-09,NaN,-1.043736,-1.320578E-07,NaN,0.2869219,-4.900605E-07,NaN,-0.9632851,2.327889E-05,-0.7349854,8.609152E-08,NaN,NaN,0.4297184,4.656487E-11,2.330102E-06,-1.097155E-07,9.927579E-09,-2.622604E-08
841.4011,-1.118116,2.09938E-09,NaN,-1.050838,-1.320583E-07,NaN,0.2869298,-4.899067E-07,NaN,-0.968337,2.327926E-05,-0.744309,8.593896E-08,NaN,NaN,0.4330169,4.656487E-11,2.362661E-06,-1.097171E-07,1.111967E-08,-2.861022E-08
841.417,-1.118116,2.09938E-09,NaN,-1.050838,-1.320583E-07,NaN,0.2869298,-4.899067E-07,NaN,-0.968337,2.327926E-05,-0.744309,8.593896E-08,NaN,NaN,0.4330169,4.656487E-11,2.362661E-06,-1.097171E-07,1.111967E-08,-2.861022E-08
841.432,-1.126876,2.099993E-09,NaN,-1.058084,-1.320588E-07,NaN,0.2870682,-4.901871E-07,NaN,-0.973599,2.327963E-05,-0.7539061,8.622052E-08,NaN,NaN,0.4365317,5.122148E-11,2.38695E-06,-1.097186E-07,9.927579E-09,-2.622604E-08
841.4484,-1.135684,2.100606E-09,NaN,-1.065366,-1.320592E-07,NaN,0.2871968,-4.900363E-07,NaN,-0.9788475,2.328E-05,-0.7635359,8.607099E-08,NaN,NaN,0.4399779,5.122148E-11,2.416752E-06,-1.097202E-07,7.543393E-09,-2.861022E-08
841.4642,-1.144465,2.101218E-09,NaN,-1.072629,-1.320597E-07,NaN,0.2872022,-4.898885E-07,NaN,-0.984062,2.328038E-05,-0.7730132,8.592434E-08,NaN,NaN,0.4433565,5.122148E-11,2.448715E-06,-1.097218E-07,5.159208E-09,-2.622604E-08
841.4796,-1.144465,2.101218E-09,NaN,-1.072629,-1.320597E-07,NaN,0.2872022,-4.898885E-07,NaN,-0.984062,2.328038E-05,-0.7730132,8.592434E-08,NaN,NaN,0.4433565,5.122148E-11,2.448715E-06,-1.097218E-07,5.159208E-09,-2.622604E-08
841.4945,-1.153186,2.101831E-09,NaN,-1.079848,-1.320602E-07,NaN,0.2870795,-4.901746E-07,NaN,-0.9892313,2.328075E-05,-0.7822787,8.621171E-08,NaN,NaN,0.446669,4.656487E-11,2.479784E-06,-1.097233E-07,5.159208E-09,-2.861022E-08
841.5108,-1.162107,2.102444E-09,NaN,-1.087209,-1.320607E-07,NaN,0.2870855,-4.900295E-07,NaN,-0.9946085,2.328113E-05,-0.7918161,8.606786E-08,NaN,NaN,0.4501974,4.656487E-11,2.501018E-06,-1.097249E-07,1.582929E-09,-2.622604E-08
841.5264,-1.171073,2.103056E-09,NaN,-1.094603,-1.320612E-07,NaN,0.2870858,-4.898873E-07,NaN,-0.9999729,2.32815E-05,-0.8013859,8.592679E-08,NaN,NaN,0.4536569,4.656487E-11,2.529405E-06,-1.097265E-07,7.543393E-09,-2.861022E-08
841.5423,-1.180009,2.10367E-09,NaN,-1.101976,-1.320617E-07,NaN,0.2869686,-4.901789E-07,NaN,-1.005303,2.328187E-05,-0.8108039,8.621961E-08,NaN,NaN,0.4570487,5.122148E-11,2.558909E-06,-1.09728E-07,7.543393E-09,-2.622604E-08
841.5579,-1.180009,2.10367E-09,NaN,-1.101976,-1.320617E-07,NaN,0.2869686,-4.901789E-07,NaN,-1.005303,2.328187E-05,-0.8108039,8.621961E-08,NaN,NaN,0.4570487,5.122148E-11,2.558909E-06,-1.09728E-07,7.543393E-09,-2.622604E-08
841.5731,-1.18888,2.104282E-09,NaN,-1.109302,-1.320623E-07,NaN,0.2867289,-4.89915E-07,NaN,-1.010586,2.328224E-05,-0.8200112,8.595696E-08,NaN,NaN,0.460374,4.656487E-11,2.589307E-06,-1.097291E-07,3.967115E-09,-2.861022E-08
841.5906,-1.197954,2.104896E-09,NaN,-1.11677,-1.320628E-07,NaN,0.2866119,-4.902285E-07,NaN,-1.016076,2.328261E-05,-0.8294865,8.627168E-08,NaN,NaN,0.4639151,5.122148E-11,2.607934E-06,-1.097305E-07,3.967115E-09,-2.622604E-08
841.605,-1.207068,2.105508E-09,NaN,-1.124269,-1.320635E-07,NaN,0.2864914,-4.899777E-07,NaN,-1.021555,2.328299E-05,-0.8389919,8.602205E-08,NaN,NaN,0.4673871,4.656487E-11,2.635203E-06,-1.097316E-07,1.582929E-09,-2.861022E-08
841.6204,-1.216148,2.106121E-09,NaN,-1.131746,-1.320641E-07,NaN,0.2862577,-4.897457E-07,NaN,-1.026998,2.328336E-05,-0.8483455,8.579137E-08,NaN,NaN,0.470791,4.190825E-11,2.667538E-06,-1.097326E-07,2.775022E-09,-2.622604E-08
841.6362,-1.216148,2.106121E-09,NaN,-1.131746,-1.320641E-07,NaN,0.2862577,-4.897457E-07,NaN,-1.026998,2.328336E-05,-0.8483455,8.579137E-08,NaN,NaN,0.470791,4.190825E-11,2.667538E-06,-1.097326E-07,2.775022E-09,-2.622604E-08
841.6511,-1.225161,2.106734E-09,NaN,-1.139174,-1.320645E-07,NaN,0.2859067,-4.900793E-07,NaN,-1.032394,2.328374E-05,-0.8574892,8.612614E-08,NaN,NaN,0.4741282,3.725164E-11,2.695404E-06,-1.09734E-07,8.735486E-09,-2.861022E-08
841.6678,-1.234377,2.107347E-09,NaN,-1.146743,-1.320652E-07,NaN,0.2856724,-4.898424E-07,NaN,-1.037996,2.328411E-05,-0.866897,8.589051E-08,NaN,NaN,0.477681,3.725164E-11,2.71403E-06,-1.09735E-07,3.967115E-09,-2.622604E-08
841.6833,-1.24363,2.10796E-09,NaN,-1.154341,-1.320656E-07,NaN,0.2854363,-4.901768E-07,NaN,-1.043588,2.328449E-05,-0.8763328,8.622607E-08,NaN,NaN,0.4811644,3.259503E-11,2.741448E-06,-1.097365E-07,1.582929E-09,-2.861022E-08
841.6993,-1.24363,2.10796E-09,NaN,-1.154341,-1.320656E-07,NaN,0.2854363,-4.901768E-07,NaN,-1.043588,2.328449E-05,-0.8763328,8.622607E-08,NaN,NaN,0.4811644,3.259503E-11,2.741448E-06,-1.097365E-07,1.582929E-09,-2.861022E-08
841.7139,-1.252846,2.108572E-09,NaN,-1.161916,-1.320662E-07,NaN,0.2850914,-4.899407E-07,NaN,-1.049145,2.328486E-05,-0.8856167,8.599122E-08,NaN,NaN,0.4845795,3.259503E-11,2.770654E-06,-1.097375E-07,-8.012568E-10,-2.622604E-08
841.7303,-1.261991,2.109185E-09,NaN,-1.169441,-1.320668E-07,NaN,0.2846343,-4.897205E-07,NaN,-1.054652,2.328523E-05,-0.8946919,8.577222E-08,NaN,NaN,0.4879277,3.259503E-11,2.799265E-06,-1.097385E-07,1.582929E-09,-2.861022E-08
841.746,-1.27134,2.109798E-09,NaN,-1.177106,-1.320673E-07,NaN,0.2842879,-4.900655E-07,NaN,-1.060365,2.32856E-05,-0.9040278,8.611843E-08,NaN,NaN,0.4914914,3.725164E-11,2.814762E-06,-1.097399E-07,5.159207E-09,-2.622604E-08
841.7617,-1.280724,2.110411E-09,NaN,-1.184798,-1.320679E-07,NaN,0.2839413,-4.89837E-07,NaN,-1.066069,2.328598E-05,-0.9133894,8.58912E-08,NaN,NaN,0.4949854,3.259503E-11,2.840988E-06,-1.097409E-07,8.735486E-09,-2.861022E-08
841.7772,-1.280724,2.110411E-09,NaN,-1.184798,-1.320679E-07,NaN,0.2839413,-4.89837E-07,NaN,-1.066069,2.328598E-05,-0.9133894,8.58912E-08,NaN,NaN,0.4949854,3.259503E-11,2.840988E-06,-1.097409E-07,8.735486E-09,-2.861022E-08
841.7925,-1.290067,2.111024E-09,NaN,-1.192466,-1.320683E-07,NaN,0.2834902,-4.901796E-07,NaN,-1.071737,2.328635E-05,-0.9225994,8.623499E-08,NaN,NaN,0.4984109,3.725164E-11,2.867065E-06,-1.097423E-07,9.927579E-09,-2.622604E-08
841.8087,-1.299336,2.111637E-09,NaN,-1.200082,-1.320689E-07,NaN,0.2829322,-4.899516E-07,NaN,-1.077355,2.328672E-05,-0.9316024,8.600822E-08,NaN,NaN,0.5017693,3.259503E-11,2.891801E-06,-1.097433E-07,6.3513E-09,-2.861022E-08
841.8243,-1.298489,2.112249E-09,NaN,-1.200197,-1.320695E-07,NaN,0.2758682,-4.897393E-07,NaN,-1.073001,2.32871E-05,-0.9230411,8.579715E-08,NaN,NaN,0.494661,3.259503E-11,3.247044E-06,-1.097443E-07,2.775021E-09,-2.622604E-08
841.8403,-1.291948,2.112863E-09,NaN,-1.196219,-1.320699E-07,NaN,0.2647618,-4.900921E-07,NaN,-1.066737,2.328747E-05,-0.9048442,8.615111E-08,NaN,NaN,0.4876843,2.793842E-11,3.232441E-06,-1.097457E-07,5.159207E-09,-2.861022E-08
841.8558,-1.291948,2.112863E-09,NaN,-1.196219,-1.320699E-07,NaN,0.2647618,-4.900921E-07,NaN,-1.066737,2.328747E-05,-0.9048442,8.615111E-08,NaN,NaN,0.4876843,2.793842E-11,3.232441E-06,-1.097457E-07,5.159207E-09,-2.861022E-08
841.8707,-1.282474,2.113475E-09,NaN,-1.189925,-1.320706E-07,NaN,0.2542565,-4.898712E-07,NaN,-1.059537,2.328784E-05,-0.8838111,8.59315E-08,NaN,NaN,0.4808412,2.793842E-11,3.099225E-06,-1.097467E-07,5.159207E-09,-2.622604E-08
841.8868,-1.271752,2.114089E-09,NaN,-1.182471,-1.32071E-07,NaN,0.2455026,-4.902213E-07,NaN,-1.051761,2.328821E-05,-0.8627192,8.628274E-08,NaN,NaN,0.4741311,3.259503E-11,2.960495E-06,-1.09748E-07,2.775022E-09,-2.861022E-08
841.9025,-1.2609,2.114702E-09,NaN,-1.174649,-1.320716E-07,NaN,0.238862,-4.900006E-07,NaN,-1.043682,2.328858E-05,-0.8428161,8.606329E-08,NaN,NaN,0.4673723,3.259503E-11,2.83607E-06,-1.09749E-07,2.775022E-09,-2.622604E-08
841.9178,-1.2609,2.114702E-09,NaN,-1.174649,-1.320716E-07,NaN,0.238862,-4.900006E-07,NaN,-1.043682,2.328858E-05,-0.8428161,8.606329E-08,NaN,NaN,0.4673723,3.259503E-11,2.83607E-06,-1.09749E-07,2.775022E-09,-2.622604E-08
841.933,-1.250089,2.115314E-09,NaN,-1.166665,-1.320722E-07,NaN,0.2333515,-4.897955E-07,NaN,-1.035529,2.328896E-05,-0.8238841,8.585938E-08,NaN,NaN,0.4607462,3.259503E-11,2.74115E-06,-1.0975E-07,2.775022E-09,-2.861022E-08
841.9495,-1.23938,2.115927E-09,NaN,-1.158624,-1.320728E-07,NaN,0.2284368,-4.900282E-07,NaN,-1.027381,2.328933E-05,-0.8056651,8.609339E-08,NaN,NaN,0.4542501,3.725164E-11,2.663403E-06,-1.097509E-07,2.775022E-09,-2.622604E-08
841.9651,-1.22879,2.11654E-09,NaN,-1.150579,-1.320734E-07,NaN,0.2238267,-4.898338E-07,NaN,-1.019302,2.32897E-05,-0.7879637,8.590017E-08,NaN,NaN,0.4478814,3.725164E-11,2.596739E-06,-1.097518E-07,2.775022E-09,-2.861022E-08
841.9807,-1.218621,2.117154E-09,NaN,-1.142729,-1.320738E-07,NaN,0.2199639,-4.901984E-07,NaN,-1.011358,2.329007E-05,-0.7711073,8.626598E-08,NaN,NaN,0.4414575,4.656487E-11,2.528417E-06,-1.097532E-07,2.775022E-09,-2.622604E-08
841.9964,-1.218621,2.117154E-09,NaN,-1.142729,-1.320738E-07,NaN,0.2199639,-4.901984E-07,NaN,-1.011358,2.329007E-05,-0.7711073,8.626598E-08,NaN,NaN,0.4414575,4.656487E-11,2.528417E-06,-1.097532E-07,2.775022E-09,-2.622604E-08
842.0109,-1.208699,2.117766E-09,NaN,-1.134995,-1.320744E-07,NaN,0.2163104,-4.899892E-07,NaN,-1.003638,2.329045E-05,-0.7547436,8.6058E-08,NaN,NaN,0.4351598,5.587809E-11,2.468496E-06,-1.097541E-07,2.775022E-09,-2.861022E-08
842.0275,-1.198947,2.118379E-09,NaN,-1.127342,-1.320749E-07,NaN,0.2127184,-4.897925E-07,NaN,-0.9961044,2.329084E-05,-0.738721,8.586252E-08,NaN,NaN,0.4289856,5.587809E-11,2.411499E-06,-1.097551E-07,3.908358E-10,-2.622604E-08
842.043,-1.18933,2.118993E-09,NaN,-1.119756,-1.320753E-07,NaN,0.2091492,-4.901605E-07,NaN,-0.9887357,2.329123E-05,-0.7229742,8.623176E-08,NaN,NaN,0.4229324,6.053471E-11,2.352192E-06,-1.097564E-07,2.775022E-09,-2.861022E-08
842.0587,-1.18933,2.118993E-09,NaN,-1.119756,-1.320753E-07,NaN,0.2091492,-4.901605E-07,NaN,-0.9887357,2.329123E-05,-0.7229742,8.623176E-08,NaN,NaN,0.4229324,6.053471E-11,2.352192E-06,-1.097564E-07,2.775022E-09,-2.861022E-08
842.0736,-1.180126,2.119606E-09,NaN,-1.112404,-1.320759E-07,NaN,0.20619,-4.899547E-07,NaN,-0.981535,2.329162E-05,-0.7079371,8.602714E-08,NaN,NaN,0.4168177,6.519132E-11,2.286553E-06,-1.097574E-07,-1.99335E-09,-2.622604E-08
842.0898,-1.171163,2.120219E-09,NaN,-1.105191,-1.320765E-07,NaN,0.2033808,-4.897641E-07,NaN,-0.9745749,2.329202E-05,-0.6933105,8.583778E-08,NaN,NaN,0.410823,7.450455E-11,2.227693E-06,-1.097583E-07,-1.99335E-09,-2.861022E-08
842.1069,-1.162363,2.120833E-09,NaN,-1.098074,-1.320769E-07,NaN,0.2006048,-4.901353E-07,NaN,-0.9678023,2.329242E-05,-0.6789723,8.621018E-08,NaN,NaN,0.404946,7.916116E-11,2.170175E-06,-1.097596E-07,-4.377536E-09,-2.622604E-08
842.121,-1.153689,2.121446E-09,NaN,-1.091032,-1.320775E-07,NaN,0.1978366,-4.899354E-07,NaN,-0.9611879,2.329282E-05,-0.6648735,8.601149E-08,NaN,NaN,0.3991841,8.381778E-11,2.110868E-06,-1.097606E-07,-6.761721E-09,-2.861022E-08
842.1369,-1.153689,2.121446E-09,NaN,-1.091032,-1.320775E-07,NaN,0.1978366,-4.899354E-07,NaN,-0.9611879,2.329282E-05,-0.6648735,8.601149E-08,NaN,NaN,0.3991841,8.381778E-11,2.110868E-06,-1.097606E-07,-6.761721E-09,-2.861022E-08
842.1515,-1.145417,2.12206E-09,NaN,-1.084228,-1.320781E-07,NaN,0.1956703,-4.897478E-07,NaN,-0.9547185,2.329322E-05,-0.6514654,8.582511E-08,NaN,NaN,0.393355,8.847439E-11,2.04724E-06,-1.097615E-07,-1.99335E-09,-2.622604E-08
842.168,-1.137381,2.122674E-09,NaN,-1.077569,-1.320785E-07,NaN,0.1936524,-4.901247E-07,NaN,-0.9484766,2.329363E-05,-0.638447,8.620326E-08,NaN,NaN,0.3876404,8.847439E-11,1.987188E-06,-1.097628E-07,5.159207E-09,-2.861022E-08
842.1836,-1.129503,2.123288E-09,NaN,-1.071008,-1.320791E-07,NaN,0.1916626,-4.899276E-07,NaN,-0.9424093,2.329403E-05,-0.6256952,8.60074E-08,NaN,NaN,0.3820378,9.313101E-11,1.929223E-06,-1.097638E-07,7.543393E-09,-2.622604E-08
842.1993,-1.129503,2.123288E-09,NaN,-1.071008,-1.320791E-07,NaN,0.1916626,-4.899276E-07,NaN,-0.9424093,2.329403E-05,-0.6256952,8.60074E-08,NaN,NaN,0.3820378,9.313101E-11,1.929223E-06,-1.097638E-07,7.543393E-09,-2.622604E-08
842.2144,-1.122035,2.123902E-09,NaN,-1.064699,-1.320795E-07,NaN,0.1902646,-4.903533E-07,NaN,-0.9364842,2.329443E-05,-0.6136344,8.643428E-08,NaN,NaN,0.376365,9.313101E-11,1.868128E-06,-1.097651E-07,7.543393E-09,-2.861022E-08
842.2305,-1.114807,2.124516E-09,NaN,-1.058541,-1.320799E-07,NaN,0.1890016,-4.907592E-07,NaN,-0.9307847,2.329482E-05,-0.601948,8.684146E-08,NaN,NaN,0.3708036,1.024442E-10,1.81359E-06,-1.097664E-07,6.351301E-09,-2.622604E-08
842.2461,-1.107737,2.125129E-09,NaN,-1.052487,-1.320803E-07,NaN,0.1877516,-4.911544E-07,NaN,-0.9252552,2.329522E-05,-0.5905069,8.723779E-08,NaN,NaN,0.3653513,1.024442E-10,1.760244E-06,-1.097677E-07,3.967115E-09,-2.861022E-08
842.2615,-1.100783,2.125743E-09,NaN,-1.046513,-1.320808E-07,NaN,0.1864883,-4.915416E-07,NaN,-0.9198645,2.329562E-05,-0.5792609,8.76263E-08,NaN,NaN,0.3600059,1.071008E-10,1.707196E-06,-1.09769E-07,6.351301E-09,-2.622604E-08
842.2775,-1.100783,2.125743E-09,NaN,-1.046513,-1.320808E-07,NaN,0.1864883,-4.915416E-07,NaN,-0.9198645,2.329562E-05,-0.5792609,8.76263E-08,NaN,NaN,0.3600059,1.071008E-10,1.707196E-06,-1.09769E-07,6.351301E-09,-2.622604E-08
842.2922,-1.094214,2.126358E-09,NaN,-1.040777,-1.320812E-07,NaN,0.1858086,-4.919213E-07,NaN,-0.914582,2.329601E-05,-0.5686761,8.800714E-08,NaN,NaN,0.3545851,1.117575E-10,1.649379E-06,-1.097703E-07,5.159208E-09,-2.861022E-08
842.3087,-1.087873,2.126972E-09,NaN,-1.035191,-1.320816E-07,NaN,0.1852674,-4.922962E-07,NaN,-0.9095054,2.329641E-05,-0.5584448,8.83833E-08,NaN,NaN,0.3492708,1.164141E-10,1.594841E-06,-1.097717E-07,5.159208E-09,-2.622604E-08
842.3241,-1.08168,2.127586E-09,NaN,-1.029706,-1.320821E-07,NaN,0.1847389,-4.926637E-07,NaN,-0.9045833,2.329681E-05,-0.5484394,8.875202E-08,NaN,NaN,0.3440608,1.210707E-10,1.545369E-06,-1.09773E-07,7.543393E-09,-2.861022E-08
842.3401,-1.075596,2.128201E-09,NaN,-1.0243,-1.320825E-07,NaN,0.1841934,-4.930268E-07,NaN,-0.8997867,2.329721E-05,-0.5386099,8.911631E-08,NaN,NaN,0.3389529,1.210707E-10,1.495003E-06,-1.097743E-07,5.159208E-09,-2.622604E-08
842.3553,-1.075596,2.128201E-09,NaN,-1.0243,-1.320825E-07,NaN,0.1841934,-4.930268E-07,NaN,-0.8997867,2.329721E-05,-0.5386099,8.911631E-08,NaN,NaN,0.3389529,1.210707E-10,1.495003E-06,-1.097743E-07,5.159208E-09,-2.622604E-08
842.3705,-1.069887,2.128815E-09,NaN,-1.019131,-1.32083E-07,NaN,0.1842262,-4.933827E-07,NaN,-0.8950799,2.32976E-05,-0.5294288,8.94734E-08,NaN,NaN,0.3337651,1.257273E-10,1.440465E-06,-1.097756E-07,1.582929E-09,-2.861022E-08
842.3865,-1.064399,2.12943E-09,NaN,-1.014111,-1.320834E-07,NaN,0.1843942,-4.937343E-07,NaN,-0.8905677,2.3298E-05,-0.5205837,8.982626E-08,NaN,NaN,0.3286792,1.257273E-10,1.393079E-06,-1.097769E-07,-3.185442E-09,-2.622604E-08
842.4022,-1.059055,2.130045E-09,NaN,-1.009193,-1.320838E-07,NaN,0.1845681,-4.94079E-07,NaN,-0.8862002,2.32984E-05,-0.5119444,9.017215E-08,NaN,NaN,0.3236931,1.303839E-10,1.348078E-06,-1.097782E-07,-4.377535E-09,-2.861022E-08
842.4179,-1.059055,2.130045E-09,NaN,-1.009193,-1.320838E-07,NaN,0.1845681,-4.94079E-07,NaN,-0.8862002,2.32984E-05,-0.5119444,9.017215E-08,NaN,NaN,0.3236931,1.303839E-10,1.348078E-06,-1.097782E-07,-4.377535E-09,-2.861022E-08
842.433,-1.053815,2.130661E-09,NaN,-1.004352,-1.320845E-07,NaN,0.1847162,-4.942927E-07,NaN,-0.8819489,2.32988E-05,-0.5034597,9.038706E-08,NaN,NaN,0.3188047,1.303839E-10,1.301288E-06,-1.09779E-07,-4.377535E-09,-2.622604E-08
842.4493,-1.048939,2.131276E-09,NaN,-0.9997473,-1.320851E-07,NaN,0.1854343,-4.945219E-07,NaN,-0.877773,2.32992E-05,-0.495609,9.061746E-08,NaN,NaN,0.3138321,1.303839E-10,1.251518E-06,-1.097798E-07,-5.569628E-09,-2.861022E-08
842.4651,-1.044279,2.131891E-09,NaN,-0.9952914,-1.320857E-07,NaN,0.186282,-4.947493E-07,NaN,-0.8737826,2.32996E-05,-0.4880759,9.084612E-08,NaN,NaN,0.3089573,1.303839E-10,1.208603E-06,-1.097806E-07,-7.953814E-09,-2.622604E-08
842.4807,-1.039758,2.132507E-09,NaN,-0.9909371,-1.320861E-07,NaN,0.1871272,-4.951105E-07,NaN,-0.8699287,2.33E-05,-0.4807277,9.120852E-08,NaN,NaN,0.3041781,1.350405E-10,1.170456E-06,-1.097818E-07,-6.761721E-09,-2.861022E-08
842.4965,-1.039758,2.132507E-09,NaN,-0.9909371,-1.320861E-07,NaN,0.1871272,-4.951105E-07,NaN,-0.8699287,2.33E-05,-0.4807277,9.120852E-08,NaN,NaN,0.3041781,1.350405E-10,1.170456E-06,-1.097818E-07,-6.761721E-09,-2.861022E-08
842.511,-1.035335,2.133123E-09,NaN,-0.9866583,-1.320865E-07,NaN,0.1879374,-4.954504E-07,NaN,-0.8661828,2.33004E-05,-0.4735133,9.154965E-08,NaN,NaN,0.2994927,1.350405E-10,1.130819E-06,-1.097831E-07,-6.761721E-09,-2.622604E-08
842.5274,-1.031267,2.133739E-09,NaN,-0.9826136,-1.320869E-07,NaN,0.1893091,-4.957808E-07,NaN,-0.8625003,2.33008E-05,-0.4669184,9.188123E-08,NaN,NaN,0.294719,1.350405E-10,1.085818E-06,-1.097843E-07,-6.761721E-09,-2.861022E-08
842.543,-1.02741,2.134355E-09,NaN,-0.978717,-1.320873E-07,NaN,0.1908041,-4.961018E-07,NaN,-0.8589954,2.33012E-05,-0.4606227,9.220343E-08,NaN,NaN,0.2900392,1.350405E-10,1.044988E-06,-1.097856E-07,-4.377535E-09,-2.622604E-08
842.5587,-1.02741,2.134355E-09,NaN,-0.978717,-1.320873E-07,NaN,0.1908041,-4.961018E-07,NaN,-0.8589954,2.33012E-05,-0.4606227,9.220343E-08,NaN,NaN,0.2900392,1.350405E-10,1.044988E-06,-1.097856E-07,-4.377535E-09,-2.622604E-08
842.5738,-1.023685,2.134972E-09,NaN,-0.9749208,-1.320877E-07,NaN,0.192288,-4.964164E-07,NaN,-0.8556196,2.330159E-05,-0.4544918,9.251927E-08,NaN,NaN,0.2854512,1.396971E-10,1.005947E-06,-1.097869E-07,-4.377535E-09,-2.861022E-08
842.5904,-1.020053,2.135588E-09,NaN,-0.9711983,-1.320881E-07,NaN,0.1937272,-4.967248E-07,NaN,-0.8523447,2.330199E-05,-0.4484743,9.282886E-08,NaN,NaN,0.2809533,1.396971E-10,9.689925E-07,-1.097881E-07,-7.953814E-09,-2.622604E-08
842.6059,-1.016767,2.136205E-09,NaN,-0.9677072,-1.320886E-07,NaN,0.1957198,-4.970271E-07,NaN,-0.8491232,2.330239E-05,-0.4430623,9.313234E-08,NaN,NaN,0.2763634,1.396971E-10,9.287593E-07,-1.097894E-07,-6.761721E-09,-2.861022E-08
842.6224,-1.013685,2.136821E-09,NaN,-0.9643628,-1.32089E-07,NaN,0.1978287,-4.973262E-07,NaN,-0.8460724,2.330279E-05,-0.4379315,9.343265E-08,NaN,NaN,0.2718638,1.396971E-10,8.929965E-07,-1.097906E-07,-4.377535E-09,-2.622604E-08
842.6371,-1.013685,2.136821E-09,NaN,-0.9643628,-1.32089E-07,NaN,0.1978287,-4.973262E-07,NaN,-0.8460724,2.330279E-05,-0.4379315,9.343265E-08,NaN,NaN,0.2718638,1.396971E-10,8.929965E-07,-1.097906E-07,-4.377535E-09,-2.622604E-08
842.6518,-1.010731,2.137438E-09,NaN,-0.9611171,-1.320894E-07,NaN,0.1999177,-4.976222E-07,NaN,-0.843144,2.330319E-05,-0.4329459,9.372985E-08,NaN,NaN,0.2674526,1.443537E-10,8.614061E-07,-1.097919E-07,-5.569628E-09,-2.861022E-08
842.6683,-1.007863,2.138056E-09,NaN,-0.9579428,-1.320899E-07,NaN,0.2019523,-4.979123E-07,NaN,-0.8403101,2.330359E-05,-0.4280539,9.402116E-08,NaN,NaN,0.2631279,1.443537E-10,8.310077E-07,-1.097931E-07,-5.569628E-09,-2.622604E-08
842.684,-1.005333,2.138673E-09,NaN,-0.9549969,-1.320903E-07,NaN,0.2045325,-4.981995E-07,NaN,-0.8375215,2.330399E-05,-0.4237542,9.430954E-08,NaN,NaN,0.2587079,1.443537E-10,7.928607E-07,-1.097944E-07,-5.569628E-09,-2.861022E-08
842.6997,-1.005333,2.138673E-09,NaN,-0.9549969,-1.320903E-07,NaN,0.2045325,-4.981995E-07,NaN,-0.8375215,2.330399E-05,-0.4237542,9.430954E-08,NaN,NaN,0.2587079,1.443537E-10,7.928607E-07,-1.097944E-07,-5.569628E-09,-2.861022E-08
842.7146,-1.003001,2.13929E-09,NaN,-0.9521956,-1.320907E-07,NaN,0.2072217,-4.98481E-07,NaN,-0.8348973,2.330439E-05,-0.4197182,9.459222E-08,NaN,NaN,0.2543749,1.443537E-10,7.618663E-07,-1.097956E-07,-6.761721E-09,-2.622604E-08
842.7311,-1.000792,2.139908E-09,NaN,-0.949491,-1.320911E-07,NaN,0.2098819,-4.987597E-07,NaN,-0.8323895,2.330479E-05,-0.4158083,9.487213E-08,NaN,NaN,0.250127,1.490103E-10,7.32064E-07,-1.097968E-07,-7.953814E-09,-2.861022E-08
842.7466,-0.9986621,2.140526E-09,NaN,-0.946855,-1.320915E-07,NaN,0.2124781,-4.990357E-07,NaN,-0.8299704,2.330518E-05,-0.4119732,9.514932E-08,NaN,NaN,0.2459623,1.53667E-10,7.037518E-07,-1.097981E-07,-1.0338E-08,-2.622604E-08
842.7624,-0.9968617,2.141143E-09,NaN,-0.9444439,-1.320919E-07,NaN,0.2156125,-4.993062E-07,NaN,-0.82759,2.330558E-05,-0.4087177,9.542104E-08,NaN,NaN,0.2416993,1.53667E-10,6.68585E-07,-1.097993E-07,-6.76172E-09,-2.861022E-08
842.7779,-0.9968617,2.141143E-09,NaN,-0.9444439,-1.320919E-07,NaN,0.2156125,-4.993062E-07,NaN,-0.82759,2.330558E-05,-0.4087177,9.542104E-08,NaN,NaN,0.2416993,1.53667E-10,6.68585E-07,-1.097993E-07,-6.76172E-09,-2.861022E-08
842.7928,-0.9952543,2.141762E-09,NaN,-0.9421751,-1.320923E-07,NaN,0.2188482,-4.995741E-07,NaN,-0.8253685,2.330598E-05,-0.4057091,9.56902E-08,NaN,NaN,0.2375202,1.583236E-10,6.417629E-07,-1.098005E-07,-5.569627E-09,-2.622604E-08
842.8092,-0.9937634,2.14238E-09,NaN,-0.9400005,-1.320928E-07,NaN,0.2220459,-4.998367E-07,NaN,-0.8232579,2.330638E-05,-0.4028082,9.595404E-08,NaN,NaN,0.2334231,1.583236E-10,6.16729E-07,-1.098017E-07,-7.953814E-09,-2.861022E-08
842.8248,-0.9923459,2.142998E-09,NaN,-0.9378913,-1.320932E-07,NaN,0.2251698,-5.00097E-07,NaN,-0.8212307,2.330678E-05,-0.3999638,9.621547E-08,NaN,NaN,0.2294064,1.583236E-10,5.91695E-07,-1.098029E-07,-3.185442E-09,-2.622604E-08
842.841,-0.99125,2.143617E-09,NaN,-0.9360033,-1.320936E-07,NaN,0.2288252,-5.003549E-07,NaN,-0.8192369,2.330718E-05,-0.3976874,9.647457E-08,NaN,NaN,0.2252885,1.629802E-10,5.65469E-07,-1.098041E-07,-1.993349E-09,-2.861022E-08
842.8563,-0.99125,2.143617E-09,NaN,-0.9360033,-1.320936E-07,NaN,0.2288252,-5.003549E-07,NaN,-0.8192369,2.330718E-05,-0.3976874,9.647457E-08,NaN,NaN,0.2252885,1.629802E-10,5.65469E-07,-1.098041E-07,-1.993349E-09,-2.861022E-08
842.8714,-0.9903414,2.144235E-09,NaN,-0.934255,-1.32094E-07,NaN,0.232574,-5.006076E-07,NaN,-0.8173971,2.330758E-05,-0.3956415,9.672853E-08,NaN,NaN,0.2212516,1.629802E-10,5.463955E-07,-1.098053E-07,-8.012564E-10,-2.622604E-08
842.8875,-0.9895436,2.144854E-09,NaN,-0.9325979,-1.320944E-07,NaN,0.2362755,-5.008582E-07,NaN,-0.8156633,2.330797E-05,-0.3936858,9.698029E-08,NaN,NaN,0.217294,1.676368E-10,5.255339E-07,-1.098065E-07,3.908365E-10,-2.861022E-08
842.9034,-0.9888131,2.145473E-09,NaN,-0.931003,-1.320948E-07,NaN,0.2398938,-5.011037E-07,NaN,-0.8140079,2.330837E-05,-0.3917689,9.722706E-08,NaN,NaN,0.213414,1.676368E-10,5.040762E-07,-1.098077E-07,-8.012564E-10,-2.622604E-08
842.9189,-0.9888131,2.145473E-09,NaN,-0.931003,-1.320948E-07,NaN,0.2398938,-5.011037E-07,NaN,-0.8140079,2.330837E-05,-0.3917689,9.722706E-08,NaN,NaN,0.213414,1.676368E-10,5.040762E-07,-1.098077E-07,-8.012564E-10,-2.622604E-08
842.9339,-0.9883968,2.146092E-09,NaN,-0.9296254,-1.320952E-07,NaN,0.2440373,-5.013472E-07,NaN,-0.8123819,2.330877E-05,-0.3904093,9.747177E-08,NaN,NaN,0.20943,1.676368E-10,4.808304E-07,-1.098089E-07,3.908365E-10,-2.861022E-08
842.9504,-0.988162,2.146711E-09,NaN,-0.9283845,-1.320956E-07,NaN,0.2482661,-5.015887E-07,NaN,-0.8109054,2.330917E-05,-0.3892644,9.771446E-08,NaN,NaN,0.2055245,1.676368E-10,4.617569E-07,-1.098101E-07,-8.012564E-10,-2.622604E-08
842.9663,-0.9880327,2.147331E-09,NaN,-0.9272317,-1.32096E-07,NaN,0.2524385,-5.018254E-07,NaN,-0.8095303,2.330957E-05,-0.3881926,9.795234E-08,NaN,NaN,0.2016957,1.676368E-10,4.426834E-07,-1.098113E-07,-8.012564E-10,-2.861022E-08
842.9824,-0.9879646,2.14795E-09,NaN,-0.9261376,-1.320964E-07,NaN,0.2565183,-5.020602E-07,NaN,-0.808229,2.330997E-05,-0.3871429,9.818833E-08,NaN,NaN,0.197942,1.676368E-10,4.277823E-07,-1.098125E-07,-1.993349E-09,-2.622604E-08
842.9978,-0.9879646,2.14795E-09,NaN,-0.9261376,-1.320964E-07,NaN,0.2565183,-5.020602E-07,NaN,-0.808229,2.330997E-05,-0.3871429,9.818833E-08,NaN,NaN,0.197942,1.676368E-10,4.277823E-07,-1.098125E-07,-1.993349E-09,-2.622604E-08
843.0125,-0.9882016,2.14857E-09,NaN,-0.9252567,-1.320968E-07,NaN,0.2611161,-5.022931E-07,NaN,-0.8069549,2.331037E-05,-0.3866401,9.842247E-08,NaN,NaN,0.1940818,1.722934E-10,4.069206E-07,-1.098137E-07,-3.781488E-09,-2.861022E-08
843.0292,-0.9886146,2.14919E-09,NaN,-0.9245116,-1.320972E-07,NaN,0.265792,-5.025214E-07,NaN,-0.8058265,2.331076E-05,-0.3863382,9.865198E-08,NaN,NaN,0.1902978,1.816066E-10,3.908274E-07,-1.098148E-07,-3.185442E-09,-2.622604E-08
843.0448,-0.9891275,2.14981E-09,NaN,-0.9238536,-1.320976E-07,NaN,0.2704028,-5.02748E-07,NaN,-0.8047952,2.331116E-05,-0.3860941,9.887977E-08,NaN,NaN,0.186588,1.816066E-10,3.777144E-07,-1.09816E-07,-1.993349E-09,-2.861022E-08
843.061,-0.9896958,2.15043E-09,NaN,-0.9232525,-1.32098E-07,NaN,0.2749119,-5.029701E-07,NaN,-0.8038336,2.331157E-05,-0.3858563,9.910305E-08,NaN,NaN,0.182951,1.7695E-10,3.640053E-07,-1.098172E-07,-3.781488E-09,-2.622604E-08
843.0765,-0.9896958,2.15043E-09,NaN,-0.9232525,-1.32098E-07,NaN,0.2749119,-5.029701E-07,NaN,-0.8038336,2.331157E-05,-0.3858563,9.910305E-08,NaN,NaN,0.182951,1.7695E-10,3.640053E-07,-1.098172E-07,-3.781488E-09,-2.622604E-08
843.0914,-0.9905645,2.15105E-09,NaN,-0.9228616,-1.320984E-07,NaN,0.2799352,-5.031905E-07,NaN,-0.8028963,2.331196E-05,-0.3861566,9.932472E-08,NaN,NaN,0.1792053,1.816066E-10,3.437397E-07,-1.098183E-07,-3.185442E-09,-2.861022E-08
843.108,-0.991604,2.15167E-09,NaN,-0.9226018,-1.320988E-07,NaN,0.285027,-5.034066E-07,NaN,-0.8021008,2.331236E-05,-0.3866414,9.9542E-08,NaN,NaN,0.1755334,1.909198E-10,3.324148E-07,-1.098195E-07,-4.377535E-09,-2.622604E-08
843.1234,-0.9927382,2.152291E-09,NaN,-0.9224231,-1.320992E-07,NaN,0.2900438,-5.036212E-07,NaN,-0.8013982,2.331276E-05,-0.3871663,9.97578E-08,NaN,NaN,0.1719336,1.862632E-10,3.175137E-07,-1.098206E-07,-3.185442E-09,-2.861022E-08
843.1407,-0.9939222,2.152911E-09,NaN,-0.9222949,-1.320996E-07,NaN,0.2949497,-5.038343E-07,NaN,-0.8007609,2.331316E-05,-0.3876812,9.997214E-08,NaN,NaN,0.1684044,1.909198E-10,3.049967E-07,-1.098218E-07,-5.569627E-09,-2.622604E-08
843.1548,-0.9939222,2.152911E-09,NaN,-0.9222949,-1.320996E-07,NaN,0.2949497,-5.038343E-07,NaN,-0.8007609,2.331316E-05,-0.3876812,9.997214E-08,NaN,NaN,0.1684044,1.909198E-10,3.049967E-07,-1.098218E-07,-5.569627E-09,-2.622604E-08
843.1699,-0.9954002,2.153532E-09,NaN,-0.922368,-1.321E-07,NaN,0.3003645,-5.040432E-07,NaN,-0.8001462,2.331356E-05,-0.3887238,1.001822E-07,NaN,NaN,0.1647644,1.862632E-10,2.889034E-07,-1.098229E-07,-3.185442E-09,-2.861022E-08
843.1862,-0.9970431,2.154153E-09,NaN,-0.922565,-1.321004E-07,NaN,0.3058391,-5.042507E-07,NaN,-0.7996702,2.331396E-05,-0.3899358,1.00391E-07,NaN,NaN,0.1611962,1.909198E-10,2.817509E-07,-1.098241E-07,-3.185442E-09,-2.622604E-08
843.2019,-0.9987723,2.154774E-09,NaN,-0.9228359,-1.321008E-07,NaN,0.3112278,-5.044541E-07,NaN,-0.7992839,2.331436E-05,-0.3911715,1.005956E-07,NaN,NaN,0.157698,1.955765E-10,2.757904E-07,-1.098252E-07,-4.377535E-09,-2.861022E-08
843.2177,-0.9987723,2.154774E-09,NaN,-0.9228359,-1.321008E-07,NaN,0.3112278,-5.044541E-07,NaN,-0.7992839,2.331436E-05,-0.3911715,1.005956E-07,NaN,NaN,0.157698,1.955765E-10,2.757904E-07,-1.098252E-07,-4.377535E-09,-2.861022E-08
843.2329,-1.000813,2.155395E-09,NaN,-0.923323,-1.321012E-07,NaN,0.3171186,-5.046562E-07,NaN,-0.7989362,2.331475E-05,-0.3929382,1.007989E-07,NaN,NaN,0.1540884,2.002331E-10,2.638695E-07,-1.098263E-07,-3.781488E-09,-2.622604E-08
843.2489,-1.003023,2.156016E-09,NaN,-0.9239379,-1.321016E-07,NaN,0.3230448,-5.048543E-07,NaN,-0.7987354,2.331516E-05,-0.3948549,1.009983E-07,NaN,NaN,0.15055,1.955765E-10,2.555249E-07,-1.098275E-07,-4.377535E-09,-2.861022E-08
843.2647,-1.005317,2.156638E-09,NaN,-0.9246264,-1.32102E-07,NaN,0.3288634,-5.050513E-07,NaN,-0.7986277,2.331556E-05,-0.3967738,1.011965E-07,NaN,NaN,0.1470811,2.002331E-10,2.513525E-07,-1.098286E-07,-4.973581E-09,-2.622604E-08
843.2803,-1.007648,2.157259E-09,NaN,-0.9253559,-1.321023E-07,NaN,0.3345438,-5.052472E-07,NaN,-0.7985829,2.331596E-05,-0.398648,1.013936E-07,NaN,NaN,0.1436802,1.955765E-10,2.489683E-07,-1.098297E-07,-4.377535E-09,-2.861022E-08
843.2963,-1.007648,2.157259E-09,NaN,-0.9253559,-1.321023E-07,NaN,0.3345438,-5.052472E-07,NaN,-0.7985829,2.331596E-05,-0.398648,1.013936E-07,NaN,NaN,0.1436802,1.955765E-10,2.489683E-07,-1.098297E-07,-4.377535E-09,-2.861022E-08
843.3112,-1.010258,2.157881E-09,NaN,-0.9262794,-1.321027E-07,NaN,0.3407203,-5.054391E-07,NaN,-0.7985634,2.331636E-05,-0.4010331,1.015867E-07,NaN,NaN,0.140166,2.002331E-10,2.370474E-07,-1.098308E-07,-3.781488E-09,-2.622604E-08
843.3276,-1.013014,2.158503E-09,NaN,-0.9273139,-1.321031E-07,NaN,0.3469293,-5.056301E-07,NaN,-0.7986798,2.331676E-05,-0.403553,1.017789E-07,NaN,NaN,0.136721,1.955765E-10,2.31087E-07,-1.098319E-07,-4.377535E-09,-2.861022E-08
843.3435,-1.015839,2.159125E-09,NaN,-0.9284095,-1.321035E-07,NaN,0.3530292,-5.058172E-07,NaN,-0.7988808,2.331716E-05,-0.4060638,1.019672E-07,NaN,NaN,0.1333437,2.002331E-10,2.263186E-07,-1.09833E-07,-4.973581E-09,-2.622604E-08
843.3587,-1.015839,2.159125E-09,NaN,-0.9284095,-1.321035E-07,NaN,0.3530292,-5.058172E-07,NaN,-0.7988808,2.331716E-05,-0.4060638,1.019672E-07,NaN,NaN,0.1333437,2.002331E-10,2.263186E-07,-1.09833E-07,-4.973581E-09,-2.622604E-08
843.3739,-1.018687,2.159747E-09,NaN,-0.9295364,-1.321039E-07,NaN,0.3589889,-5.060034E-07,NaN,-0.7991379,2.331757E-05,-0.40852,1.021547E-07,NaN,NaN,0.1300327,1.955765E-10,2.203581E-07,-1.098341E-07,-3.781488E-09,-2.861022E-08
843.39,-1.021805,2.160369E-09,NaN,-0.9308495,-1.321043E-07,NaN,0.365447,-5.061887E-07,NaN,-0.7994189,2.331796E-05,-0.4114848,1.023412E-07,NaN,NaN,0.1266066,2.002331E-10,2.090332E-07,-1.098352E-07,-3.781488E-09,-2.622604E-08
843.4057,-1.02506,2.160992E-09,NaN,-0.9322661,-1.321046E-07,NaN,0.3719301,-5.063732E-07,NaN,-0.799832,2.331837E-05,-0.414572,1.025269E-07,NaN,NaN,0.123248,1.955765E-10,2.024767E-07,-1.098363E-07,-1.397302E-09,-2.861022E-08
843.4212,-1.028375,2.161614E-09,NaN,-0.933737,-1.32105E-07,NaN,0.3782963,-5.065567E-07,NaN,-0.8003256,2.331876E-05,-0.4176368,1.027116E-07,NaN,NaN,0.1199554,2.002331E-10,1.977084E-07,-1.098374E-07,-1.993349E-09,-2.622604E-08
843.4373,-1.028375,2.161614E-09,NaN,-0.933737,-1.32105E-07,NaN,0.3782963,-5.065567E-07,NaN,-0.8003256,2.331876E-05,-0.4176368,1.027116E-07,NaN,NaN,0.1199554,2.002331E-10,1.977084E-07,-1.098374E-07,-1.993349E-09,-2.622604E-08
843.4518,-1.031706,2.162237E-09,NaN,-0.9352332,-1.321054E-07,NaN,0.3845154,-5.067366E-07,NaN,-0.800871,2.331917E-05,-0.420635,1.028928E-07,NaN,NaN,0.1167274,1.955765E-10,1.953242E-07,-1.098385E-07,-2.052093E-10,-2.861022E-08
843.4685,-1.035302,2.16286E-09,NaN,-0.9369102,-1.321058E-07,NaN,0.3912318,-5.069157E-07,NaN,-0.8014412,2.331957E-05,-0.4241375,1.030731E-07,NaN,NaN,0.1133826,2.002331E-10,1.822112E-07,-1.098396E-07,1.58293E-09,-2.622604E-08
843.484,-1.039026,2.163483E-09,NaN,-0.9386848,-1.321062E-07,NaN,0.3979638,-5.070913E-07,NaN,-0.8021408,2.331997E-05,-0.4277488,1.032499E-07,NaN,NaN,0.1101039,1.955765E-10,1.780388E-07,-1.098407E-07,1.58293E-09,-2.861022E-08
843.4996,-1.039026,2.163483E-09,NaN,-0.9386848,-1.321062E-07,NaN,0.3979638,-5.070913E-07,NaN,-0.8021408,2.331997E-05,-0.4277488,1.032499E-07,NaN,NaN,0.1101039,1.955765E-10,1.780388E-07,-1.098407E-07,1.58293E-09,-2.861022E-08
843.5145,-1.042804,2.164106E-09,NaN,-0.940508,-1.321065E-07,NaN,0.40457,-5.072661E-07,NaN,-0.8029172,2.332037E-05,-0.431324,1.034259E-07,NaN,NaN,0.1068895,2.002331E-10,1.768468E-07,-1.098418E-07,2.178977E-09,-2.622604E-08
843.5309,-1.04659,2.164729E-09,NaN,-0.9423513,-1.321069E-07,NaN,0.4110217,-5.074374E-07,NaN,-0.8037416,2.332077E-05,-0.4348206,1.035985E-07,NaN,NaN,0.1037382,1.955765E-10,1.768468E-07,-1.098428E-07,-8.012555E-10,-2.861022E-08
843.5468,-1.050636,2.165353E-09,NaN,-0.9443707,-1.321073E-07,NaN,0.4179699,-5.076082E-07,NaN,-0.8045924,2.332117E-05,-0.4388176,1.037704E-07,NaN,NaN,0.1004686,2.002331E-10,1.679061E-07,-1.098439E-07,-8.012555E-10,-2.622604E-08
843.5624,-1.054805,2.165976E-09,NaN,-0.9464824,-1.321076E-07,NaN,0.4249239,-5.077756E-07,NaN,-0.8055701,2.332158E-05,-0.4429099,1.03939E-07,NaN,NaN,0.09726361,1.955765E-10,1.655219E-07,-1.09845E-07,-8.012555E-10,-2.861022E-08
843.5781,-1.054805,2.165976E-09,NaN,-0.9464824,-1.321076E-07,NaN,0.4249239,-5.077756E-07,NaN,-0.8055701,2.332158E-05,-0.4429099,1.03939E-07,NaN,NaN,0.09726361,1.955765E-10,1.655219E-07,-1.09845E-07,-8.012555E-10,-2.861022E-08
843.593,-1.05902,2.1666E-09,NaN,-0.9486375,-1.32108E-07,NaN,0.4317436,-5.079423E-07,NaN,-0.8066208,2.332197E-05,-0.4469528,1.04107E-07,NaN,NaN,0.09412155,2.002331E-10,1.66714E-07,-1.09846E-07,3.908374E-10,-2.622604E-08
843.6094,-1.063238,2.167224E-09,NaN,-0.9508079,-1.321084E-07,NaN,0.4384017,-5.081058E-07,NaN,-0.8077159,2.332237E-05,-0.4509056,1.042716E-07,NaN,NaN,0.09104113,2.048897E-10,1.661179E-07,-1.098471E-07,-1.397302E-09,-2.861022E-08
843.6249,-1.067711,2.167848E-09,NaN,-0.9531501,-1.321088E-07,NaN,0.4455558,-5.082688E-07,NaN,-0.8088394,2.332277E-05,-0.4553554,1.044359E-07,NaN,NaN,0.08784102,2.095463E-10,1.607535E-07,-1.098482E-07,-3.781488E-09,-2.622604E-08
843.6407,-1.0723,2.168472E-09,NaN,-0.9555796,-1.321091E-07,NaN,0.4527063,-5.084285E-07,NaN,-0.810087,2.332317E-05,-0.4598875,1.045968E-07,NaN,NaN,0.08470412,2.048897E-10,1.583693E-07,-1.098492E-07,-7.357766E-09,-2.861022E-08
843.6577,-1.0723,2.168472E-09,NaN,-0.9555796,-1.321091E-07,NaN,0.4527063,-5.084285E-07,NaN,-0.810087,2.332317E-05,-0.4598875,1.045968E-07,NaN,NaN,0.08470412,2.048897E-10,1.583693E-07,-1.098492E-07,-7.357766E-09,-2.861022E-08
843.6714,-1.076929,2.169096E-09,NaN,-0.9580478,-1.321095E-07,NaN,0.459714,-5.085878E-07,NaN,-0.8114041,2.332357E-05,-0.4643575,1.047574E-07,NaN,NaN,0.08162884,2.095463E-10,1.565812E-07,-1.098503E-07,-6.165673E-09,-2.622604E-08
843.6878,-1.081556,2.169721E-09,NaN,-0.9605268,-1.321099E-07,NaN,0.4665536,-5.087468E-07,NaN,-0.8127618,2.332396E-05,-0.4687263,1.049176E-07,NaN,NaN,0.07861389,2.142029E-10,1.589654E-07,-1.098513E-07,-8.549859E-09,-2.861022E-08
843.7036,-1.086433,2.170345E-09,NaN,-0.9631734,-1.321102E-07,NaN,0.4738889,-5.089026E-07,NaN,-0.8141503,2.332436E-05,-0.4735895,1.050746E-07,NaN,NaN,0.07547797,2.188595E-10,1.488326E-07,-1.098524E-07,-6.165674E-09,-2.622604E-08
843.7191,-1.086433,2.170345E-09,NaN,-0.9631734,-1.321102E-07,NaN,0.4738889,-5.089026E-07,NaN,-0.8141503,2.332436E-05,-0.4735895,1.050746E-07,NaN,NaN,0.07547797,2.188595E-10,1.488326E-07,-1.098524E-07,-6.165674E-09,-2.622604E-08
843.734,-1.091422,2.17097E-09,NaN,-0.9659028,-1.321106E-07,NaN,0.4812112,-5.090581E-07,NaN,-0.8156602,2.332476E-05,-0.4785221,1.052313E-07,NaN,NaN,0.07240401,2.235161E-10,1.500247E-07,-1.098534E-07,-4.973581E-09,-2.861022E-08
843.7501,-1.096444,2.171594E-09,NaN,-0.9686663,-1.32111E-07,NaN,0.4883829,-5.092105E-07,NaN,-0.8172359,2.332515E-05,-0.4833804,1.053848E-07,NaN,NaN,0.06939045,2.281727E-10,1.518128E-07,-1.098544E-07,-3.185441E-09,-2.622604E-08
843.766,-1.101459,2.172219E-09,NaN,-0.9714363,-1.321113E-07,NaN,0.4953802,-5.093626E-07,NaN,-0.8188484,2.332555E-05,-0.4881272,1.055382E-07,NaN,NaN,0.06643599,2.328293E-10,1.521108E-07,-1.098555E-07,-4.377534E-09,-2.861022E-08
843.7816,-1.10672,2.172844E-09,NaN,-0.9743704,-1.321117E-07,NaN,0.5028734,-5.095117E-07,NaN,-0.8204944,2.332595E-05,-0.4933661,1.056885E-07,NaN,NaN,0.06335936,2.374859E-10,1.464484E-07,-1.098565E-07,-4.377534E-09,-2.622604E-08
843.7973,-1.10672,2.172844E-09,NaN,-0.9743704,-1.321117E-07,NaN,0.5028734,-5.095117E-07,NaN,-0.8204944,2.332595E-05,-0.4933661,1.056885E-07,NaN,NaN,0.06335936,2.374859E-10,1.464484E-07,-1.098565E-07,-4.377534E-09,-2.622604E-08
843.8123,-1.112087,2.173469E-09,NaN,-0.9773828,-1.32112E-07,NaN,0.5103444,-5.096607E-07,NaN,-0.8222592,2.332634E-05,-0.498662,1.058386E-07,NaN,NaN,0.06034355,2.421426E-10,1.464484E-07,-1.098575E-07,-6.165673E-09,-2.861022E-08
843.829,-1.117482,2.174094E-09,NaN,-0.9804249,-1.321124E-07,NaN,0.5176572,-5.098066E-07,NaN,-0.824086,2.332674E-05,-0.503872,1.059857E-07,NaN,NaN,0.05738699,2.467992E-10,1.470444E-07,-1.098585E-07,-6.165673E-09,-2.622604E-08
843.8445,-1.122865,2.17472E-09,NaN,-0.9834698,-1.321127E-07,NaN,0.5247899,-5.099524E-07,NaN,-0.8259455,2.332714E-05,-0.5089607,1.061327E-07,NaN,NaN,0.05448841,2.514558E-10,1.467464E-07,-1.098595E-07,-4.377534E-09,-2.861022E-08
843.8601,-1.12849,2.175345E-09,NaN,-0.9866753,-1.321131E-07,NaN,0.5324188,-5.100953E-07,NaN,-0.8278418,2.332753E-05,-0.5145397,1.062768E-07,NaN,NaN,0.05146657,2.561124E-10,1.434681E-07,-1.098606E-07,-7.357766E-09,-2.622604E-08
843.8757,-1.12849,2.175345E-09,NaN,-0.9866753,-1.321131E-07,NaN,0.5324188,-5.100953E-07,NaN,-0.8278418,2.332753E-05,-0.5145397,1.062768E-07,NaN,NaN,0.05146657,2.561124E-10,1.434681E-07,-1.098606E-07,-7.357766E-09,-2.622604E-08
843.8904,-1.134217,2.175971E-09,NaN,-0.9899549,-1.321135E-07,NaN,0.5400166,-5.102381E-07,NaN,-0.8298541,2.332793E-05,-0.5201637,1.064209E-07,NaN,NaN,0.04850448,2.60769E-10,1.443622E-07,-1.098616E-07,-7.357766E-09,-2.861022E-08
843.9072,-1.139967,2.176597E-09,NaN,-0.9932602,-1.321138E-07,NaN,0.5474489,-5.103781E-07,NaN,-0.8319244,2.332833E-05,-0.5256904,1.06562E-07,NaN,NaN,0.04560059,2.654256E-10,1.452563E-07,-1.098626E-07,-7.357766E-09,-2.622604E-08
843.9224,-1.145698,2.177223E-09,NaN,-0.9965646,-1.321142E-07,NaN,0.5546958,-5.10518E-07,NaN,-0.8340237,2.332872E-05,-0.5310869,1.067032E-07,NaN,NaN,0.04275364,2.700822E-10,1.449583E-07,-1.098636E-07,-7.953813E-09,-2.861022E-08
843.9387,-1.145698,2.177223E-09,NaN,-0.9965646,-1.321142E-07,NaN,0.5546958,-5.10518E-07,NaN,-0.8340237,2.332872E-05,-0.5310869,1.067032E-07,NaN,NaN,0.04275364,2.700822E-10,1.449583E-07,-1.098636E-07,-7.953813E-09,-2.861022E-08
843.9531,-1.15167,2.177849E-09,NaN,-1.000026,-1.321145E-07,NaN,0.5624397,-5.106552E-07,NaN,-0.836163,2.332912E-05,-0.5369724,1.068416E-07,NaN,NaN,0.03978242,2.747388E-10,1.378057E-07,-1.098646E-07,-9.741952E-09,-2.622604E-08
843.9698,-1.157738,2.178475E-09,NaN,-1.003558,-1.321149E-07,NaN,0.5701436,-5.107924E-07,NaN,-0.8384155,2.332952E-05,-0.5428909,1.0698E-07,NaN,NaN,0.03686995,2.793954E-10,1.360176E-07,-1.098656E-07,-1.093404E-08,-2.861022E-08
843.9853,-1.163824,2.179101E-09,NaN,-1.007112,-1.321152E-07,NaN,0.5776752,-5.109268E-07,NaN,-0.840722,2.332991E-05,-0.5487016,1.071156E-07,NaN,NaN,0.03401471,2.84052E-10,1.375077E-07,-1.098666E-07,-9.741952E-09,-2.622604E-08
844.001,-1.169888,2.179727E-09,NaN,-1.010661,-1.321156E-07,NaN,0.5850166,-5.110614E-07,NaN,-0.8430534,2.333031E-05,-0.5543735,1.072514E-07,NaN,NaN,0.03121546,2.887086E-10,1.398919E-07,-1.098676E-07,-7.953813E-09,-2.861022E-08
844.0167,-1.169888,2.179727E-09,NaN,-1.010661,-1.321156E-07,NaN,0.5850166,-5.110614E-07,NaN,-0.8430534,2.333031E-05,-0.5543735,1.072514E-07,NaN,NaN,0.03121546,2.887086E-10,1.398919E-07,-1.098676E-07,-7.953813E-09,-2.861022E-08
844.0316,-1.176189,2.180353E-09,NaN,-1.014365,-1.321159E-07,NaN,0.5928558,-5.111933E-07,NaN,-0.8454286,2.333071E-05,-0.5605336,1.073845E-07,NaN,NaN,0.028291,2.933652E-10,1.360176E-07,-1.098686E-07,-7.357766E-09,-2.622604E-08
844.0479,-1.182581,2.18098E-09,NaN,-1.018135,-1.321163E-07,NaN,0.6006463,-5.113253E-07,NaN,-0.847914,2.33311E-05,-0.5667152,1.075177E-07,NaN,NaN,0.02542439,2.980219E-10,1.354215E-07,-1.098695E-07,-6.76172E-09,-2.861022E-08
844.0637,-1.188987,2.181606E-09,NaN,-1.021924,-1.321166E-07,NaN,0.6082583,-5.114547E-07,NaN,-0.8504493,2.33315E-05,-0.5727789,1.076483E-07,NaN,NaN,0.02261409,3.026785E-10,1.381037E-07,-1.098705E-07,-6.76172E-09,-2.622604E-08
844.0793,-1.188987,2.181606E-09,NaN,-1.021924,-1.321166E-07,NaN,0.6082583,-5.114547E-07,NaN,-0.8504493,2.33315E-05,-0.5727789,1.076483E-07,NaN,NaN,0.02261409,3.026785E-10,1.381037E-07,-1.098705E-07,-6.76172E-09,-2.622604E-08
844.0945,-1.195649,2.182233E-09,NaN,-1.025878,-1.32117E-07,NaN,0.6163556,-5.115843E-07,NaN,-0.8530457,2.33319E-05,-0.5793262,1.077791E-07,NaN,NaN,0.01967881,3.073351E-10,1.318453E-07,-1.098715E-07,-6.76172E-09,-2.861022E-08
844.111,-1.202408,2.18286E-09,NaN,-1.029902,-1.321173E-07,NaN,0.6243817,-5.117113E-07,NaN,-0.8557575,2.333229E-05,-0.5858758,1.079073E-07,NaN,NaN,0.01680159,3.119917E-10,1.342294E-07,-1.098725E-07,-1.0338E-08,-2.622604E-08
844.1265,-1.209182,2.183487E-09,NaN,-1.033945,-1.321176E-07,NaN,0.6322119,-5.118385E-07,NaN,-0.8585202,2.333269E-05,-0.5922906,1.080357E-07,NaN,NaN,0.01398089,3.166483E-10,1.381037E-07,-1.098734E-07,-1.153009E-08,-2.861022E-08
844.142,-1.215926,2.184114E-09,NaN,-1.037979,-1.32118E-07,NaN,0.6398354,-5.119632E-07,NaN,-0.8613027,2.333308E-05,-0.5985458,1.081616E-07,NaN,NaN,0.01121548,3.213049E-10,1.389978E-07,-1.098744E-07,-1.153009E-08,-2.622604E-08
844.1592,-1.215926,2.184114E-09,NaN,-1.037979,-1.32118E-07,NaN,0.6398354,-5.119632E-07,NaN,-0.8613027,2.333308E-05,-0.5985458,1.081616E-07,NaN,NaN,0.01121548,3.213049E-10,1.389978E-07,-1.098744E-07,-1.153009E-08,-2.622604E-08
844.173,-1.222905,2.184741E-09,NaN,-1.042163,-1.321183E-07,NaN,0.6479519,-5.120881E-07,NaN,-0.8641374,2.333349E-05,-0.6052833,1.082878E-07,NaN,NaN,0.008324199,3.166483E-10,1.327393E-07,-1.098754E-07,-9.145905E-09,-2.861022E-08
844.1889,-1.229965,2.185368E-09,NaN,-1.046407,-1.321187E-07,NaN,0.6559996,-5.122106E-07,NaN,-0.8670773,2.333389E-05,-0.6120173,1.084114E-07,NaN,NaN,0.005490115,3.213049E-10,1.324413E-07,-1.098763E-07,-9.145905E-09,-2.622604E-08
844.2051,-1.23703,2.185995E-09,NaN,-1.050662,-1.32119E-07,NaN,0.6638544,-5.123334E-07,NaN,-0.8700599,2.333429E-05,-0.6186126,1.085354E-07,NaN,NaN,0.002711706,3.166483E-10,1.339314E-07,-1.098773E-07,-9.145905E-09,-2.861022E-08
844.2205,-1.244058,2.186623E-09,NaN,-1.054903,-1.321194E-07,NaN,0.6715045,-5.124537E-07,NaN,-0.8730559,2.333469E-05,-0.6250455,1.086569E-07,NaN,NaN,-1.222547E-05,3.213049E-10,1.315472E-07,-1.098782E-07,-7.953813E-09,-2.622604E-08
844.2362,-1.244058,2.186623E-09,NaN,-1.054903,-1.321194E-07,NaN,0.6715045,-5.124537E-07,NaN,-0.8730559,2.333469E-05,-0.6250455,1.086569E-07,NaN,NaN,-1.222547E-05,3.213049E-10,1.315472E-07,-1.098782E-07,-7.953813E-09,-2.622604E-08
844.2511,-1.251317,2.18725E-09,NaN,-1.059291,-1.321197E-07,NaN,0.6796523,-5.125744E-07,NaN,-0.8761074,2.333509E-05,-0.631964,1.087789E-07,NaN,NaN,-0.002862852,3.259615E-10,1.258848E-07,-1.098792E-07,-7.953813E-09,-2.861022E-08
844.2673,-1.258654,2.187878E-09,NaN,-1.063734,-1.3212E-07,NaN,0.6877253,-5.126927E-07,NaN,-0.8792599,2.333548E-05,-0.6388691,1.088984E-07,NaN,NaN,-0.00565707,3.306181E-10,1.276729E-07,-1.098801E-07,-1.272218E-08,-2.622604E-08
844.2829,-1.265989,2.188506E-09,NaN,-1.068186,-1.321204E-07,NaN,0.6956015,-5.128114E-07,NaN,-0.8824504,2.333588E-05,-0.6456279,1.090183E-07,NaN,NaN,-0.008396403,3.352747E-10,1.28865E-07,-1.098811E-07,-1.510637E-08,-2.861022E-08
844.2988,-1.265989,2.188506E-09,NaN,-1.068186,-1.321204E-07,NaN,0.6956015,-5.128114E-07,NaN,-0.8824504,2.333588E-05,-0.6456279,1.090183E-07,NaN,NaN,-0.008396403,3.352747E-10,1.28865E-07,-1.098811E-07,-1.510637E-08,-2.861022E-08
844.3137,-1.273284,2.189134E-09,NaN,-1.072621,-1.321207E-07,NaN,0.703271,-5.129277E-07,NaN,-0.8856496,2.333628E-05,-0.6522191,1.091358E-07,NaN,NaN,-0.01108203,3.399313E-10,1.294611E-07,-1.09882E-07,-1.510637E-08,-2.622604E-08
844.3304,-1.280808,2.189762E-09,NaN,-1.0772,-1.321211E-07,NaN,0.7114398,-5.130445E-07,NaN,-0.8889089,2.333667E-05,-0.6592973,1.092538E-07,NaN,NaN,-0.0138951,3.445879E-10,1.232026E-07,-1.098829E-07,-1.391428E-08,-2.861022E-08
844.3459,-1.288406,2.19039E-09,NaN,-1.081832,-1.321214E-07,NaN,0.7195264,-5.13159E-07,NaN,-0.8922656,2.333707E-05,-0.6663516,1.093694E-07,NaN,NaN,-0.01665249,3.492445E-10,1.235006E-07,-1.098839E-07,-1.749055E-08,-2.622604E-08
844.3615,-1.295998,2.191018E-09,NaN,-1.086469,-1.321211E-07,NaN,0.7274119,-5.104625E-07,NaN,-0.8956555,2.333747E-05,-0.6732518,1.067227E-07,NaN,NaN,-0.01935572,3.585578E-10,1.249907E-07,-1.098873E-07,-1.510637E-08,-2.861022E-08
