JMolnar6/NonAnthroHands_User_Study/HandsLoggerWithURDF/tempdata/files/Reachy_PID0_JointMotion_gesture_12_58.csv
Time,r_shoulder,r_shoulder_x,r_upper_arm,r_forearm,r_wrist,r_wrist2hand,
814.0758,-0.6348873,7.887667E-10,NaN,-0.6246533,-1.323321E-07,NaN,0.124832,-4.685529E-07,NaN,-0.6451474,2.248802E-05,0.07874831,4.767395E-08,NaN,NaN,0.1339197,-1.955787E-10,-1.721107E-06,-1.101493E-07,1.349349E-08,-2.622604E-08
814.0897,-0.6311976,7.894132E-10,NaN,-0.6215057,-1.32332E-07,NaN,0.1244389,-4.692059E-07,NaN,-0.6439158,2.248842E-05,0.07977069,4.832821E-08,NaN,NaN,0.1342923,-1.955787E-10,-1.712762E-06,-1.101484E-07,1.587767E-08,-2.861022E-08
814.1048,-0.6273257,7.900598E-10,NaN,-0.6181931,-1.323319E-07,NaN,0.1235267,-4.69846E-07,NaN,-0.642441,2.248883E-05,0.08143507,4.89696E-08,NaN,NaN,0.134376,-2.048919E-10,-1.703226E-06,-1.101475E-07,1.408953E-08,-2.622604E-08
814.1188,-0.6273257,7.900598E-10,NaN,-0.6181931,-1.323319E-07,NaN,0.1235267,-4.69846E-07,NaN,-0.642441,2.248883E-05,0.08143507,4.89696E-08,NaN,NaN,0.134376,-2.048919E-10,-1.703226E-06,-1.101475E-07,1.408953E-08,-2.622604E-08
814.1343,-0.6233656,7.907064E-10,NaN,-0.6147975,-1.323318E-07,NaN,0.122539,-4.704735E-07,NaN,-0.6409568,2.248924E-05,0.08330797,4.959835E-08,NaN,NaN,0.1344582,-2.142051E-10,-1.700841E-06,-1.101466E-07,1.468558E-08,-2.861022E-08
814.148,-0.6193733,7.913531E-10,NaN,-0.611368,-1.323318E-07,NaN,0.1216251,-4.710857E-07,NaN,-0.6394628,2.248964E-05,0.08519697,5.021189E-08,NaN,NaN,0.1345388,-2.142051E-10,-1.699649E-06,-1.101456E-07,9.917208E-09,-2.622604E-08
814.1626,-0.6153814,7.919999E-10,NaN,-0.6079336,-1.323317E-07,NaN,0.1208131,-4.716859E-07,NaN,-0.6379651,2.249004E-05,0.08703702,5.081335E-08,NaN,NaN,0.1346179,-2.142051E-10,-1.697265E-06,-1.101447E-07,6.34093E-09,-2.861022E-08
814.1776,-0.6153814,7.919999E-10,NaN,-0.6079336,-1.323317E-07,NaN,0.1208131,-4.716859E-07,NaN,-0.6379651,2.249004E-05,0.08703702,5.081335E-08,NaN,NaN,0.1346179,-2.142051E-10,-1.697265E-06,-1.101447E-07,6.34093E-09,-2.861022E-08
814.1916,-0.6116341,7.926467E-10,NaN,-0.6047115,-1.323316E-07,NaN,0.1206378,-4.722714E-07,NaN,-0.6367252,2.249044E-05,0.08814065,5.140013E-08,NaN,NaN,0.134977,-2.142051E-10,-1.693689E-06,-1.101438E-07,9.321162E-09,-2.622604E-08
814.207,-0.6080483,7.932935E-10,NaN,-0.6016293,-1.323315E-07,NaN,0.1206356,-4.728453E-07,NaN,-0.635515,2.249084E-05,0.08894403,5.197535E-08,NaN,NaN,0.1353288,-2.142051E-10,-1.681768E-06,-1.101429E-07,9.321162E-09,-2.861022E-08
814.2219,-0.6045749,7.939405E-10,NaN,-0.5986438,-1.323314E-07,NaN,0.1206415,-4.734079E-07,NaN,-0.6343381,2.249124E-05,0.08964474,5.253924E-08,NaN,NaN,0.1356737,-2.095485E-10,-1.670443E-06,-1.10142E-07,1.051325E-08,-2.622604E-08
814.2366,-0.6045749,7.939405E-10,NaN,-0.5986438,-1.323314E-07,NaN,0.1206415,-4.734079E-07,NaN,-0.6343381,2.249124E-05,0.08964474,5.253924E-08,NaN,NaN,0.1356737,-2.095485E-10,-1.670443E-06,-1.10142E-07,1.051325E-08,-2.622604E-08
814.2508,-0.6014084,7.945874E-10,NaN,-0.5959291,-1.323313E-07,NaN,0.1211608,-4.739566E-07,NaN,-0.6334448,2.249163E-05,0.08964244,5.308918E-08,NaN,NaN,0.1362933,-2.048919E-10,-1.659714E-06,-1.101411E-07,1.230139E-08,-2.861022E-08
814.2661,-0.5984387,7.952344E-10,NaN,-0.5933877,-1.323312E-07,NaN,0.1217492,-4.744944E-07,NaN,-0.632597,2.249203E-05,0.08939292,5.362829E-08,NaN,NaN,0.1369006,-2.048919E-10,-1.644217E-06,-1.101402E-07,1.587767E-08,-2.622604E-08
814.2806,-0.5955998,7.958814E-10,NaN,-0.5909613,-1.323311E-07,NaN,0.1222694,-4.750188E-07,NaN,-0.6317904,2.249243E-05,0.08909021,5.415395E-08,NaN,NaN,0.137496,-2.002353E-10,-1.625143E-06,-1.101393E-07,1.408953E-08,-2.861022E-08
814.2953,-0.5955998,7.958814E-10,NaN,-0.5909613,-1.323311E-07,NaN,0.1222694,-4.750188E-07,NaN,-0.6317904,2.249243E-05,0.08909021,5.415395E-08,NaN,NaN,0.137496,-2.002353E-10,-1.625143E-06,-1.101393E-07,1.408953E-08,-2.861022E-08
814.3094,-0.5928521,7.965284E-10,NaN,-0.5886146,-1.32331E-07,NaN,0.1227037,-4.755328E-07,NaN,-0.6310156,2.249283E-05,0.08879731,5.466925E-08,NaN,NaN,0.1380797,-1.955787E-10,-1.610242E-06,-1.101384E-07,1.528163E-08,-2.622604E-08
814.3257,-0.5903952,7.971754E-10,NaN,-0.586526,-1.323309E-07,NaN,0.1236146,-4.760367E-07,NaN,-0.6305185,2.249322E-05,0.08785716,5.517439E-08,NaN,NaN,0.1389336,-1.909221E-10,-1.591765E-06,-1.101375E-07,1.587767E-08,-2.861022E-08
814.3404,-0.5881233,7.978225E-10,NaN,-0.5846016,-1.323308E-07,NaN,0.1245801,-4.765278E-07,NaN,-0.6300591,2.249362E-05,0.08670022,5.566674E-08,NaN,NaN,0.1397705,-1.862655E-10,-1.570903E-06,-1.101367E-07,1.88579E-08,-2.622604E-08
814.354,-0.5881233,7.978225E-10,NaN,-0.5846016,-1.323308E-07,NaN,0.1245801,-4.765278E-07,NaN,-0.6300591,2.249362E-05,0.08670022,5.566674E-08,NaN,NaN,0.1397705,-1.862655E-10,-1.570903E-06,-1.101367E-07,1.88579E-08,-2.622604E-08
814.368,-0.585973,7.984696E-10,NaN,-0.5827849,-1.323308E-07,NaN,0.1254688,-4.770091E-07,NaN,-0.6296333,2.249402E-05,0.08551072,5.614939E-08,NaN,NaN,0.1405909,-1.816089E-10,-1.549445E-06,-1.101358E-07,1.587767E-08,-2.861022E-08
814.3833,-0.5839058,7.991168E-10,NaN,-0.5810412,-1.323307E-07,NaN,0.1262635,-4.774781E-07,NaN,-0.6292322,2.249442E-05,0.08434843,5.661968E-08,NaN,NaN,0.1413953,-1.816089E-10,-1.531564E-06,-1.101349E-07,1.408953E-08,-2.622604E-08
814.398,-0.5839058,7.991168E-10,NaN,-0.5810412,-1.323307E-07,NaN,0.1262635,-4.774781E-07,NaN,-0.6292322,2.249442E-05,0.08434843,5.661968E-08,NaN,NaN,0.1413953,-1.816089E-10,-1.531564E-06,-1.101349E-07,1.408953E-08,-2.622604E-08
814.4119,-0.5821207,7.99764E-10,NaN,-0.5795491,-1.323306E-07,NaN,0.1275237,-4.785215E-07,NaN,-0.6291023,2.249481E-05,0.08255704,5.766439E-08,NaN,NaN,0.1424655,-1.769523E-10,-1.513087E-06,-1.10134E-07,1.408953E-08,-2.861022E-08
814.4273,-0.5805138,8.004112E-10,NaN,-0.578216,-1.323305E-07,NaN,0.1288293,-4.795444E-07,NaN,-0.6290033,2.249521E-05,0.08056448,5.868856E-08,NaN,NaN,0.1435145,-1.722956E-10,-1.486265E-06,-1.101332E-07,1.468558E-08,-2.622604E-08
814.442,-0.5790221,8.010584E-10,NaN,-0.5769852,-1.323304E-07,NaN,0.1300479,-4.805472E-07,NaN,-0.6289315,2.249561E-05,0.07855486,5.969261E-08,NaN,NaN,0.1445429,-1.67639E-10,-1.463615E-06,-1.101323E-07,1.587767E-08,-2.861022E-08
814.4568,-0.5790221,8.010584E-10,NaN,-0.5769852,-1.323304E-07,NaN,0.1300479,-4.805472E-07,NaN,-0.6289315,2.249561E-05,0.07855486,5.969261E-08,NaN,NaN,0.1445429,-1.67639E-10,-1.463615E-06,-1.101323E-07,1.587767E-08,-2.861022E-08
814.4709,-0.5778292,8.017057E-10,NaN,-0.5760219,-1.323303E-07,NaN,0.1317022,-4.815274E-07,NaN,-0.6291332,2.2496E-05,0.07592095,6.06741E-08,NaN,NaN,0.1458327,-1.629824E-10,-1.439177E-06,-1.101314E-07,1.647372E-08,-2.622604E-08
814.4865,-0.5768231,8.023531E-10,NaN,-0.5752256,-1.323302E-07,NaN,0.1333695,-4.819046E-07,NaN,-0.6293656,2.24964E-05,0.07310396,6.105257E-08,NaN,NaN,0.147097,-1.629824E-10,-1.410567E-06,-1.101306E-07,1.826186E-08,-2.861022E-08
814.5012,-0.5759351,8.030005E-10,NaN,-0.5745347,-1.323301E-07,NaN,0.1349213,-4.822715E-07,NaN,-0.6296234,2.24968E-05,0.07029163,6.142075E-08,NaN,NaN,0.1483365,-1.583258E-10,-1.382553E-06,-1.101297E-07,1.88579E-08,-2.622604E-08
814.5159,-0.5759351,8.030005E-10,NaN,-0.5745347,-1.323301E-07,NaN,0.1349213,-4.822715E-07,NaN,-0.6296234,2.24968E-05,0.07029163,6.142075E-08,NaN,NaN,0.1483365,-1.583258E-10,-1.382553E-06,-1.101297E-07,1.88579E-08,-2.622604E-08
814.5298,-0.5751232,8.03648E-10,NaN,-0.5739114,-1.323301E-07,NaN,0.1363447,-4.826311E-07,NaN,-0.6298969,2.24972E-05,0.06754369,6.178165E-08,NaN,NaN,0.1495518,-1.536692E-10,-1.353346E-06,-1.101288E-07,1.945395E-08,-2.861022E-08
814.5454,-0.5745834,8.042955E-10,NaN,-0.5735318,-1.3233E-07,NaN,0.138196,-4.829807E-07,NaN,-0.6304334,2.24976E-05,0.06420695,6.213259E-08,NaN,NaN,0.1510247,-1.536692E-10,-1.32414E-06,-1.10128E-07,1.88579E-08,-2.622604E-08
814.5598,-0.5745834,8.042955E-10,NaN,-0.5735318,-1.3233E-07,NaN,0.138196,-4.829807E-07,NaN,-0.6304334,2.24976E-05,0.06420695,6.213259E-08,NaN,NaN,0.1510247,-1.536692E-10,-1.32414E-06,-1.10128E-07,1.88579E-08,-2.622604E-08
814.5744,-0.5742122,8.04943E-10,NaN,-0.5733033,-1.323299E-07,NaN,0.1400665,-4.833234E-07,NaN,-0.6309901,2.2498E-05,0.0607009,6.24766E-08,NaN,NaN,0.1524687,-1.536692E-10,-1.29255E-06,-1.101271E-07,1.587767E-08,-2.861022E-08
814.5903,-0.5739461,8.055906E-10,NaN,-0.5731685,-1.323298E-07,NaN,0.1418256,-4.836594E-07,NaN,-0.6315634,2.249839E-05,0.05720885,6.28138E-08,NaN,NaN,0.1538843,-1.490126E-10,-1.258575E-06,-1.101263E-07,1.349349E-08,-2.622604E-08
814.6049,-0.5737455,8.062382E-10,NaN,-0.5730919,-1.323297E-07,NaN,0.1434564,-4.839858E-07,NaN,-0.6321452,2.249879E-05,0.05379048,6.314151E-08,NaN,NaN,0.1552722,-1.44356E-10,-1.22758E-06,-1.101254E-07,1.766581E-08,-2.861022E-08
814.62,-0.5738071,8.068858E-10,NaN,-0.5732503,-1.323296E-07,NaN,0.1455048,-4.843058E-07,NaN,-0.6329849,2.249919E-05,0.04979824,6.346274E-08,NaN,NaN,0.1569144,-1.44356E-10,-1.199566E-06,-1.101246E-07,1.647372E-08,-2.622604E-08
814.6333,-0.5738071,8.068858E-10,NaN,-0.5732503,-1.323296E-07,NaN,0.1455048,-4.843058E-07,NaN,-0.6329849,2.249919E-05,0.04979824,6.346274E-08,NaN,NaN,0.1569144,-1.44356E-10,-1.199566E-06,-1.101246E-07,1.647372E-08,-2.622604E-08
814.6472,-0.5740296,8.075335E-10,NaN,-0.5735527,-1.323295E-07,NaN,0.1475675,-4.846166E-07,NaN,-0.6338388,2.249959E-05,0.04564629,6.377479E-08,NaN,NaN,0.1585243,-1.44356E-10,-1.16738E-06,-1.101238E-07,1.289744E-08,-2.861022E-08
814.6625,-0.5743499,8.081812E-10,NaN,-0.5739422,-1.323295E-07,NaN,0.1495117,-4.85505E-07,NaN,-0.6347039,2.249999E-05,0.04151949,6.466448E-08,NaN,NaN,0.1601026,-1.44356E-10,-1.132809E-06,-1.101229E-07,1.408953E-08,-2.622604E-08
814.6774,-0.5743499,8.081812E-10,NaN,-0.5739422,-1.323295E-07,NaN,0.1495117,-4.85505E-07,NaN,-0.6347039,2.249999E-05,0.04151949,6.466448E-08,NaN,NaN,0.1601026,-1.44356E-10,-1.132809E-06,-1.101229E-07,1.408953E-08,-2.622604E-08
814.6913,-0.5749508,8.088289E-10,NaN,-0.5745834,-1.323294E-07,NaN,0.1518445,-4.863759E-07,NaN,-0.6358293,2.250039E-05,0.03682041,6.553669E-08,NaN,NaN,0.1619315,-1.44356E-10,-1.097046E-06,-1.101221E-07,1.468558E-08,-2.861022E-08
814.7068,-0.5757207,8.094766E-10,NaN,-0.5753756,-1.323293E-07,NaN,0.1541598,-4.872297E-07,NaN,-0.6369699,2.250079E-05,0.03197758,6.639175E-08,NaN,NaN,0.1637245,-1.44356E-10,-1.062476E-06,-1.101213E-07,1.706976E-08,-2.622604E-08
814.7216,-0.5765905,8.101244E-10,NaN,-0.5762567,-1.323292E-07,NaN,0.1563285,-4.880638E-07,NaN,-0.6381211,2.250119E-05,0.02718024,6.722717E-08,NaN,NaN,0.1654823,-1.396994E-10,-1.029097E-06,-1.101205E-07,1.587767E-08,-2.861022E-08
814.7366,-0.5765905,8.101244E-10,NaN,-0.5762567,-1.323292E-07,NaN,0.1563285,-4.880638E-07,NaN,-0.6381211,2.250119E-05,0.02718024,6.722717E-08,NaN,NaN,0.1654823,-1.396994E-10,-1.029097E-06,-1.101205E-07,1.587767E-08,-2.861022E-08
814.7506,-0.5775173,8.107722E-10,NaN,-0.577188,-1.323291E-07,NaN,0.1583379,-4.882976E-07,NaN,-0.6392744,2.250158E-05,0.02248861,6.74623E-08,NaN,NaN,0.1672057,-1.350428E-10,-9.933343E-07,-1.101196E-07,1.826185E-08,-2.622604E-08
814.7658,-0.5786971,8.114202E-10,NaN,-0.5783455,-1.32329E-07,NaN,0.1607272,-4.88524E-07,NaN,-0.6406794,2.250198E-05,0.01726004,6.768995E-08,NaN,NaN,0.1691768,-1.350428E-10,-9.605518E-07,-1.101188E-07,2.183813E-08,-2.861022E-08
814.7806,-0.5800257,8.120681E-10,NaN,-0.5796354,-1.323289E-07,NaN,0.1631062,-4.887459E-07,NaN,-0.6420914,2.250239E-05,0.01189954,6.791307E-08,NaN,NaN,0.1711093,-1.350428E-10,-9.194246E-07,-1.10118E-07,2.303023E-08,-2.622604E-08
814.795,-0.5800257,8.120681E-10,NaN,-0.5796354,-1.323289E-07,NaN,0.1631062,-4.887459E-07,NaN,-0.6420914,2.250239E-05,0.01189954,6.791307E-08,NaN,NaN,0.1711093,-1.350428E-10,-9.194246E-07,-1.10118E-07,2.303023E-08,-2.622604E-08
814.8093,-0.5814389,8.127161E-10,NaN,-0.5809999,-1.323289E-07,NaN,0.1653444,-4.889604E-07,NaN,-0.6435068,2.250279E-05,0.006591682,6.812894E-08,NaN,NaN,0.1730039,-1.350428E-10,-8.800856E-07,-1.101172E-07,2.899069E-08,-2.861022E-08
814.8246,-0.5828971,8.133641E-10,NaN,-0.5824035,-1.323288E-07,NaN,0.1674261,-4.891708E-07,NaN,-0.6449181,2.250319E-05,0.00139614,6.834052E-08,NaN,NaN,0.1748613,-1.350428E-10,-8.443228E-07,-1.101164E-07,3.018278E-08,-2.622604E-08
814.8395,-0.5828971,8.133641E-10,NaN,-0.5824035,-1.323288E-07,NaN,0.1674261,-4.891708E-07,NaN,-0.6449181,2.250319E-05,0.00139614,6.834052E-08,NaN,NaN,0.1748613,-1.350428E-10,-8.443228E-07,-1.101164E-07,3.018278E-08,-2.622604E-08
814.8553,-0.5845988,8.140122E-10,NaN,-0.5840243,-1.323287E-07,NaN,0.1698788,-4.893769E-07,NaN,-0.6465769,2.250359E-05,-0.004324025,6.85479E-08,NaN,NaN,0.1769639,-1.350428E-10,-8.115402E-07,-1.101156E-07,2.899069E-08,-2.861022E-08
814.869,-0.5864407,8.146603E-10,NaN,-0.585769,-1.323286E-07,NaN,0.1723183,-4.89576E-07,NaN,-0.6482379,2.250398E-05,-0.01016921,6.874833E-08,NaN,NaN,0.1790252,-1.303862E-10,-7.692209E-07,-1.101147E-07,3.077883E-08,-2.622604E-08
814.8834,-0.5883591,8.153085E-10,NaN,-0.5875807,-1.323285E-07,NaN,0.1746124,-4.897711E-07,NaN,-0.6498981,2.250438E-05,-0.01595335,6.894477E-08,NaN,NaN,0.1810462,-1.257296E-10,-7.292858E-07,-1.101139E-07,3.316302E-08,-2.861022E-08
814.8979,-0.5883591,8.153085E-10,NaN,-0.5875807,-1.323285E-07,NaN,0.1746124,-4.897711E-07,NaN,-0.6498981,2.250438E-05,-0.01595335,6.894477E-08,NaN,NaN,0.1810462,-1.257296E-10,-7.292858E-07,-1.101139E-07,3.316302E-08,-2.861022E-08
814.912,-0.5905384,8.159566E-10,NaN,-0.5896244,-1.323284E-07,NaN,0.177247,-4.899624E-07,NaN,-0.6518091,2.250478E-05,-0.02226049,6.913731E-08,NaN,NaN,0.183309,-1.257296E-10,-6.923309E-07,-1.101131E-07,3.375906E-08,-2.622604E-08
814.9272,-0.5928655,8.166048E-10,NaN,-0.5917984,-1.323284E-07,NaN,0.1798391,-4.90147E-07,NaN,-0.6537238,2.250518E-05,-0.02867953,6.932319E-08,NaN,NaN,0.1855275,-1.257296E-10,-6.464353E-07,-1.101123E-07,3.375906E-08,-2.861022E-08
814.9421,-0.5952713,8.17253E-10,NaN,-0.5940409,-1.323283E-07,NaN,0.1822605,-4.903279E-07,NaN,-0.6556373,2.250558E-05,-0.03501995,6.950538E-08,NaN,NaN,0.1877026,-1.303862E-10,-6.047121E-07,-1.101116E-07,3.077883E-08,-2.622604E-08
814.9569,-0.5952713,8.17253E-10,NaN,-0.5940409,-1.323283E-07,NaN,0.1822605,-4.903279E-07,NaN,-0.6556373,2.250558E-05,-0.03501995,6.950538E-08,NaN,NaN,0.1877026,-1.303862E-10,-6.047121E-07,-1.101116E-07,3.077883E-08,-2.622604E-08
814.9709,-0.5977137,8.179012E-10,NaN,-0.5963141,-1.323282E-07,NaN,0.1845007,-4.905024E-07,NaN,-0.6575415,2.250599E-05,-0.04122173,6.968111E-08,NaN,NaN,0.189835,-1.350428E-10,-5.65373E-07,-1.101108E-07,3.495115E-08,-2.861022E-08
814.9865,-0.6003913,8.185495E-10,NaN,-0.5987954,-1.323281E-07,NaN,0.1870746,-4.906733E-07,NaN,-0.6596887,2.25064E-05,-0.04791303,6.985334E-08,NaN,NaN,0.1922071,-1.396994E-10,-5.27226E-07,-1.1011E-07,3.55472E-08,-2.622604E-08
815.0015,-0.6031982,8.191979E-10,NaN,-0.6013896,-1.32328E-07,NaN,0.1896175,-4.908408E-07,NaN,-0.661832,2.25068E-05,-0.05470837,7.002213E-08,NaN,NaN,0.1945328,-1.44356E-10,-4.843106E-07,-1.101092E-07,3.614324E-08,-2.861022E-08
815.0159,-0.6031982,8.191979E-10,NaN,-0.6013896,-1.32328E-07,NaN,0.1896175,-4.908408E-07,NaN,-0.661832,2.25068E-05,-0.05470837,7.002213E-08,NaN,NaN,0.1945328,-1.44356E-10,-4.843106E-07,-1.101092E-07,3.614324E-08,-2.861022E-08
815.0298,-0.60607,8.198465E-10,NaN,-0.6040397,-1.323279E-07,NaN,0.1919995,-4.910021E-07,NaN,-0.6639675,2.250721E-05,-0.06142136,7.018473E-08,NaN,NaN,0.1968129,-1.490126E-10,-4.413953E-07,-1.101084E-07,3.55472E-08,-2.622604E-08
815.0453,-0.6089681,8.204951E-10,NaN,-0.6067109,-1.323278E-07,NaN,0.1942063,-4.911602E-07,NaN,-0.6660883,2.250761E-05,-0.06799211,7.034409E-08,NaN,NaN,0.1990483,-1.536692E-10,-4.014602E-07,-1.101076E-07,3.375906E-08,-2.861022E-08
815.0601,-0.6120939,8.211438E-10,NaN,-0.6095822,-1.323278E-07,NaN,0.1967387,-4.913151E-07,NaN,-0.6684485,2.250802E-05,-0.0750414,7.050027E-08,NaN,NaN,0.2015215,-1.583258E-10,-3.627172E-07,-1.101068E-07,3.793139E-08,-2.622604E-08
815.0749,-0.6120939,8.211438E-10,NaN,-0.6095822,-1.323278E-07,NaN,0.1967387,-4.913151E-07,NaN,-0.6684485,2.250802E-05,-0.0750414,7.050027E-08,NaN,NaN,0.2015215,-1.583258E-10,-3.627172E-07,-1.101068E-07,3.793139E-08,-2.622604E-08
815.0901,-0.6153417,8.217925E-10,NaN,-0.6125597,-1.323277E-07,NaN,0.1992405,-4.91464E-07,NaN,-0.6708007,2.250842E-05,-0.08219089,7.06505E-08,NaN,NaN,0.2039462,-1.629824E-10,-3.174176E-07,-1.101061E-07,3.852743E-08,-2.861022E-08
815.1063,-0.6186479,8.224413E-10,NaN,-0.6155865,-1.323276E-07,NaN,0.20158,-4.9161E-07,NaN,-0.6731414,2.250883E-05,-0.08925242,7.079773E-08,NaN,NaN,0.2063234,-1.67639E-10,-2.762904E-07,-1.101053E-07,4.091162E-08,-2.622604E-08
815.1199,-0.6186479,8.224413E-10,NaN,-0.6155865,-1.323276E-07,NaN,0.20158,-4.9161E-07,NaN,-0.6731414,2.250883E-05,-0.08925242,7.079773E-08,NaN,NaN,0.2063234,-1.67639E-10,-2.762904E-07,-1.101053E-07,4.091162E-08,-2.622604E-08
815.134,-0.6222,8.230903E-10,NaN,-0.6188285,-1.323275E-07,NaN,0.2042147,-4.91753E-07,NaN,-0.6757252,2.250924E-05,-0.09679198,7.094202E-08,NaN,NaN,0.2089355,-1.722956E-10,-2.387395E-07,-1.101045E-07,3.971953E-08,-2.861022E-08
815.1483,-0.6258821,8.237392E-10,NaN,-0.622183,-1.323274E-07,NaN,0.2067918,-4.918903E-07,NaN,-0.6783029,2.250964E-05,-0.1044207,7.10806E-08,NaN,NaN,0.2114965,-1.769523E-10,-1.964202E-07,-1.101038E-07,4.091162E-08,-2.622604E-08
815.1628,-0.6296252,8.243883E-10,NaN,-0.6255885,-1.323273E-07,NaN,0.2091838,-4.920249E-07,NaN,-0.6808694,2.251005E-05,-0.1119457,7.121641E-08,NaN,NaN,0.2140073,-1.816089E-10,-1.493325E-07,-1.10103E-07,4.150766E-08,-2.861022E-08
815.1775,-0.6296252,8.243883E-10,NaN,-0.6255885,-1.323273E-07,NaN,0.2091838,-4.920249E-07,NaN,-0.6808694,2.251005E-05,-0.1119457,7.121641E-08,NaN,NaN,0.2140073,-1.816089E-10,-1.493325E-07,-1.10103E-07,4.150766E-08,-2.861022E-08
815.1917,-0.6333877,8.250374E-10,NaN,-0.6290085,-1.323272E-07,NaN,0.2113817,-4.921567E-07,NaN,-0.683417,2.251045E-05,-0.1193065,7.134949E-08,NaN,NaN,0.216469,-1.862655E-10,-1.058211E-07,-1.101022E-07,4.269976E-08,-2.622604E-08
815.2072,-0.6373721,8.256866E-10,NaN,-0.6326213,-1.323272E-07,NaN,0.2138704,-4.928671E-07,NaN,-0.6862004,2.251086E-05,-0.1271129,7.206118E-08,NaN,NaN,0.2191638,-1.909221E-10,-6.707811E-08,-1.101015E-07,4.210371E-08,-2.861022E-08
815.2217,-0.6414697,8.263359E-10,NaN,-0.6363307,-1.323271E-07,NaN,0.2163167,-4.935635E-07,NaN,-0.688971,2.251125E-05,-0.135003,7.275887E-08,NaN,NaN,0.2218059,-1.862655E-10,-2.297067E-08,-1.101007E-07,4.150766E-08,-2.622604E-08
815.2366,-0.6414697,8.263359E-10,NaN,-0.6363307,-1.323271E-07,NaN,0.2163167,-4.935635E-07,NaN,-0.688971,2.251125E-05,-0.135003,7.275887E-08,NaN,NaN,0.2218059,-1.862655E-10,-2.297067E-08,-1.101007E-07,4.150766E-08,-2.622604E-08
815.2508,-0.6456158,8.269853E-10,NaN,-0.6400799,-1.32327E-07,NaN,0.2185909,-4.942462E-07,NaN,-0.6917247,2.251166E-05,-0.1427884,7.344283E-08,NaN,NaN,0.2243963,-1.909221E-10,2.232886E-08,-1.101E-07,3.971953E-08,-2.861022E-08
815.2663,-0.6497721,8.276346E-10,NaN,-0.6438349,-1.323269E-07,NaN,0.2206801,-4.943286E-07,NaN,-0.6944547,2.251207E-05,-0.1504083,7.352646E-08,NaN,NaN,0.2269359,-1.909221E-10,6.762838E-08,-1.100992E-07,3.733534E-08,-2.622604E-08
815.2808,-0.6541444,8.282841E-10,NaN,-0.6477762,-1.323268E-07,NaN,0.2230534,-4.944092E-07,NaN,-0.6974173,2.251247E-05,-0.1584638,7.360838E-08,NaN,NaN,0.2297072,-1.955787E-10,1.087556E-07,-1.100985E-07,3.614325E-08,-2.861022E-08
815.2953,-0.6541444,8.282841E-10,NaN,-0.6477762,-1.323268E-07,NaN,0.2230534,-4.944092E-07,NaN,-0.6974173,2.251247E-05,-0.1584638,7.360838E-08,NaN,NaN,0.2297072,-1.955787E-10,1.087556E-07,-1.100985E-07,3.614325E-08,-2.861022E-08
815.3095,-0.6586238,8.289336E-10,NaN,-0.6518081,-1.323267E-07,NaN,0.2253873,-4.944882E-07,NaN,-0.7003638,2.251288E-05,-0.1666016,7.368865E-08,NaN,NaN,0.2324243,-1.909221E-10,1.52267E-07,-1.100977E-07,3.55472E-08,-2.622604E-08
815.3248,-0.663146,8.295832E-10,NaN,-0.6558743,-1.323266E-07,NaN,0.2275507,-4.945628E-07,NaN,-0.7032905,2.251328E-05,-0.174631,7.376446E-08,NaN,NaN,0.2350882,-1.862655E-10,1.975665E-07,-1.10097E-07,3.852744E-08,-2.861022E-08
815.3397,-0.663146,8.295832E-10,NaN,-0.6558743,-1.323266E-07,NaN,0.2275507,-4.945628E-07,NaN,-0.7032905,2.251328E-05,-0.174631,7.376446E-08,NaN,NaN,0.2350882,-1.862655E-10,1.975665E-07,-1.10097E-07,3.852744E-08,-2.861022E-08
815.3536,-0.6679026,8.302328E-10,NaN,-0.6601415,-1.323266E-07,NaN,0.2299687,-4.946357E-07,NaN,-0.7064534,2.251368E-05,-0.183097,7.383873E-08,NaN,NaN,0.2379812,-1.816089E-10,2.369056E-07,-1.100963E-07,3.733534E-08,-2.622604E-08
815.3701,-0.6727746,8.308825E-10,NaN,-0.6645057,-1.323265E-07,NaN,0.2323223,-4.947072E-07,NaN,-0.7096028,2.251408E-05,-0.1916356,7.391148E-08,NaN,NaN,0.2408177,-1.862655E-10,2.81013E-07,-1.100955E-07,3.67393E-08,-2.861022E-08
815.3848,-0.677692,8.315322E-10,NaN,-0.668906,-1.323264E-07,NaN,0.2344852,-4.947744E-07,NaN,-0.712733,2.251448E-05,-0.2000517,7.397993E-08,NaN,NaN,0.2435987,-1.816089E-10,3.227362E-07,-1.100948E-07,4.031558E-08,-2.622604E-08
815.3982,-0.677692,8.315322E-10,NaN,-0.668906,-1.323264E-07,NaN,0.2344852,-4.947744E-07,NaN,-0.712733,2.251448E-05,-0.2000517,7.397993E-08,NaN,NaN,0.2435987,-1.816089E-10,3.227362E-07,-1.100948E-07,4.031558E-08,-2.622604E-08
815.4122,-0.6826138,8.32182E-10,NaN,-0.6733066,-1.323263E-07,NaN,0.2364496,-4.948402E-07,NaN,-0.7158366,2.251489E-05,-0.208284,7.404697E-08,NaN,NaN,0.2463251,-1.862655E-10,3.677378E-07,-1.100941E-07,3.793139E-08,-2.861022E-08
815.4275,-0.6877477,8.328319E-10,NaN,-0.6778872,-1.323262E-07,NaN,0.2386665,-4.949017E-07,NaN,-0.71917,2.25153E-05,-0.2169211,7.410982E-08,NaN,NaN,0.2492795,-1.909221E-10,4.049907E-07,-1.100933E-07,3.852744E-08,-2.622604E-08
815.4421,-0.692981,8.334819E-10,NaN,-0.6825502,-1.323261E-07,NaN,0.2408375,-4.94962E-07,NaN,-0.722484,2.251571E-05,-0.2256272,7.417138E-08,NaN,NaN,0.2521761,-1.955787E-10,4.499922E-07,-1.100926E-07,3.763337E-08,-2.861022E-08
815.4569,-0.692981,8.334819E-10,NaN,-0.6825502,-1.323261E-07,NaN,0.2408375,-4.94962E-07,NaN,-0.722484,2.251571E-05,-0.2256272,7.417138E-08,NaN,NaN,0.2521761,-1.955787E-10,4.499922E-07,-1.100926E-07,3.763337E-08,-2.861022E-08
815.4711,-0.6982484,8.341319E-10,NaN,-0.6872389,-1.323261E-07,NaN,0.2428334,-4.956052E-07,NaN,-0.7257738,2.251612E-05,-0.2342116,7.481592E-08,NaN,NaN,0.255016,-2.002353E-10,4.979739E-07,-1.100919E-07,3.852744E-08,-2.622604E-08
815.4865,-0.7035118,8.347821E-10,NaN,-0.6919206,-1.32326E-07,NaN,0.2446425,-4.962358E-07,NaN,-0.7290329,2.251652E-05,-0.2426128,7.544777E-08,NaN,NaN,0.2578002,-1.955787E-10,5.426774E-07,-1.100912E-07,3.822941E-08,-2.861022E-08
815.5013,-0.7089826,8.354323E-10,NaN,-0.6967765,-1.323259E-07,NaN,0.2466991,-4.968539E-07,NaN,-0.7325189,2.251692E-05,-0.2514104,7.606718E-08,NaN,NaN,0.2608112,-1.909221E-10,5.802283E-07,-1.100905E-07,3.67393E-08,-2.622604E-08
815.5162,-0.7089826,8.354323E-10,NaN,-0.6967765,-1.323259E-07,NaN,0.2466991,-4.968539E-07,NaN,-0.7325189,2.251692E-05,-0.2514104,7.606718E-08,NaN,NaN,0.2608112,-1.909221E-10,5.802283E-07,-1.100905E-07,3.67393E-08,-2.622604E-08
815.5301,-0.7145476,8.360825E-10,NaN,-0.7017095,-1.323258E-07,NaN,0.2487148,-4.968728E-07,NaN,-0.7359832,2.251733E-05,-0.2602767,7.608731E-08,NaN,NaN,0.2637633,-1.955787E-10,6.258259E-07,-1.100898E-07,3.614325E-08,-2.861022E-08
815.5453,-0.7201416,8.367328E-10,NaN,-0.7066635,-1.323257E-07,NaN,0.2505595,-4.968912E-07,NaN,-0.7394211,2.251774E-05,-0.2690195,7.610699E-08,NaN,NaN,0.2666576,-2.002353E-10,6.675492E-07,-1.10089E-07,3.435511E-08,-2.622604E-08
815.5601,-0.725727,8.373832E-10,NaN,-0.7116064,-1.323256E-07,NaN,0.2522205,-4.969063E-07,NaN,-0.7428263,2.251814E-05,-0.2775764,7.612339E-08,NaN,NaN,0.2694952,-1.955787E-10,7.107625E-07,-1.100883E-07,3.405709E-08,-2.861022E-08
815.5761,-0.725727,8.373832E-10,NaN,-0.7116064,-1.323256E-07,NaN,0.2522205,-4.969063E-07,NaN,-0.7428263,2.251814E-05,-0.2775764,7.612339E-08,NaN,NaN,0.2694952,-1.955787E-10,7.107625E-07,-1.100883E-07,3.405709E-08,-2.861022E-08
815.5889,-0.7315174,8.380337E-10,NaN,-0.7167198,-1.323255E-07,NaN,0.2541185,-4.969211E-07,NaN,-0.7464566,2.251854E-05,-0.2865182,7.613942E-08,NaN,NaN,0.2725584,-1.909221E-10,7.483135E-07,-1.100876E-07,3.077884E-08,-2.622604E-08
815.6042,-0.7373981,8.386842E-10,NaN,-0.7219063,-1.323255E-07,NaN,0.2559781,-4.969355E-07,NaN,-0.7500642,2.251894E-05,-0.2955266,7.615508E-08,NaN,NaN,0.2755618,-1.862655E-10,7.915269E-07,-1.100869E-07,2.750058E-08,-2.861022E-08
815.619,-0.7373981,8.386842E-10,NaN,-0.7219063,-1.323255E-07,NaN,0.2559781,-4.969355E-07,NaN,-0.7500642,2.251894E-05,-0.2955266,7.615508E-08,NaN,NaN,0.2755618,-1.862655E-10,7.915269E-07,-1.100869E-07,2.750058E-08,-2.861022E-08
815.6349,-0.7433036,8.393347E-10,NaN,-0.7271098,-1.323254E-07,NaN,0.2576692,-4.969467E-07,NaN,-0.7536439,2.251934E-05,-0.3044087,7.616755E-08,NaN,NaN,0.2785064,-1.816089E-10,8.347403E-07,-1.100862E-07,2.437134E-08,-2.622604E-08
815.6494,-0.7494329,8.399852E-10,NaN,-0.7324988,-1.323253E-07,NaN,0.2595686,-4.969576E-07,NaN,-0.7574527,2.251974E-05,-0.3136782,7.617972E-08,NaN,NaN,0.2816744,-1.769523E-10,8.755695E-07,-1.100855E-07,2.541442E-08,-2.861022E-08
815.6627,-0.7556607,8.406358E-10,NaN,-0.737967,-1.323252E-07,NaN,0.2614067,-4.969681E-07,NaN,-0.7612423,2.252015E-05,-0.3230057,7.61916E-08,NaN,NaN,0.2847807,-1.816089E-10,9.20571E-07,-1.100848E-07,2.764959E-08,-2.622604E-08
815.6776,-0.7556607,8.406358E-10,NaN,-0.737967,-1.323252E-07,NaN,0.2614067,-4.969681E-07,NaN,-0.7612423,2.252015E-05,-0.3230057,7.61916E-08,NaN,NaN,0.2847807,-1.816089E-10,9.20571E-07,-1.100848E-07,2.764959E-08,-2.622604E-08
815.6914,-0.7619155,8.412865E-10,NaN,-0.743454,-1.323251E-07,NaN,0.2630587,-4.969756E-07,NaN,-0.7650056,2.252056E-05,-0.3321939,7.620036E-08,NaN,NaN,0.2878261,-1.862655E-10,9.631883E-07,-1.100841E-07,2.660651E-08,-2.861022E-08
815.7069,-0.7681569,8.419373E-10,NaN,-0.7489257,-1.32325E-07,NaN,0.2645184,-4.969829E-07,NaN,-0.7687352,2.252097E-05,-0.3411803,7.620888E-08,NaN,NaN,0.2908118,-1.909221E-10,1.009084E-06,-1.100834E-07,2.556343E-08,-2.622604E-08
815.7216,-0.7746015,8.425882E-10,NaN,-0.7545632,-1.323249E-07,NaN,0.2661877,-4.9699E-07,NaN,-0.7726879,2.252138E-05,-0.3505237,7.621719E-08,NaN,NaN,0.2940201,-1.955787E-10,1.045443E-06,-1.100827E-07,2.77986E-08,-2.861022E-08
815.7364,-0.7746015,8.425882E-10,NaN,-0.7545632,-1.323249E-07,NaN,0.2661877,-4.9699E-07,NaN,-0.7726879,2.252138E-05,-0.3505237,7.621719E-08,NaN,NaN,0.2940201,-1.955787E-10,1.045443E-06,-1.100827E-07,2.77986E-08,-2.861022E-08
815.7504,-0.7811298,8.432392E-10,NaN,-0.7602667,-1.323249E-07,NaN,0.2678165,-4.975811E-07,NaN,-0.7766169,2.252178E-05,-0.3599225,7.680966E-08,NaN,NaN,0.2971658,-1.909221E-10,1.089848E-06,-1.100821E-07,2.262045E-08,-2.622604E-08
815.766,-0.7876748,8.438903E-10,NaN,-0.7659801,-1.323248E-07,NaN,0.2692773,-4.981578E-07,NaN,-0.7805155,2.252218E-05,-0.3691846,7.738765E-08,NaN,NaN,0.30025,-1.862655E-10,1.133956E-06,-1.100814E-07,2.209891E-08,-2.861022E-08
815.7806,-0.794199,8.445414E-10,NaN,-0.7716718,-1.323247E-07,NaN,0.2705595,-4.987231E-07,NaN,-0.7843772,2.252259E-05,-0.3782474,7.795425E-08,NaN,NaN,0.3032736,-1.909221E-10,1.178063E-06,-1.100807E-07,2.254594E-08,-2.622604E-08
815.7954,-0.794199,8.445414E-10,NaN,-0.7716718,-1.323247E-07,NaN,0.2705595,-4.987231E-07,NaN,-0.7843772,2.252259E-05,-0.3782474,7.795425E-08,NaN,NaN,0.3032736,-1.909221E-10,1.178063E-06,-1.100807E-07,2.254594E-08,-2.622604E-08
815.8093,-0.800923,8.451926E-10,NaN,-0.7775246,-1.323246E-07,NaN,0.2720481,-4.992773E-07,NaN,-0.7884591,2.2523E-05,-0.3876604,7.850969E-08,NaN,NaN,0.306519,-1.955787E-10,1.211144E-06,-1.1008E-07,2.370078E-08,-2.861022E-08
815.8245,-0.8077264,8.45844E-10,NaN,-0.783439,-1.323245E-07,NaN,0.2735028,-4.998205E-07,NaN,-0.7925164,2.25234E-05,-0.3971297,7.90542E-08,NaN,NaN,0.3097011,-1.909221E-10,1.253463E-06,-1.100794E-07,2.168913E-08,-2.622604E-08
815.8394,-0.8077264,8.45844E-10,NaN,-0.783439,-1.323245E-07,NaN,0.2735028,-4.998205E-07,NaN,-0.7925164,2.25234E-05,-0.3971297,7.90542E-08,NaN,NaN,0.3097011,-1.909221E-10,1.253463E-06,-1.100794E-07,2.168913E-08,-2.622604E-08
815.8534,-0.8145418,8.464953E-10,NaN,-0.7893594,-1.323244E-07,NaN,0.2747952,-5.003502E-07,NaN,-0.796542,2.25238E-05,-0.4064619,7.958516E-08,NaN,NaN,0.3128208,-1.862655E-10,1.29608E-06,-1.100787E-07,1.833636E-08,-2.861022E-08
815.8689,-0.8215756,8.471466E-10,NaN,-0.795455,-1.323243E-07,NaN,0.2762671,-5.008694E-07,NaN,-0.800792,2.252421E-05,-0.4161488,8.010567E-08,NaN,NaN,0.3161605,-1.909221E-10,1.330353E-06,-1.10078E-07,1.952846E-08,-2.622604E-08
815.8834,-0.828696,8.477981E-10,NaN,-0.801618,-1.323243E-07,NaN,0.2776836,-5.013784E-07,NaN,-0.8050213,2.252461E-05,-0.4258842,8.061593E-08,NaN,NaN,0.3194349,-1.862655E-10,1.374759E-06,-1.100774E-07,1.684625E-08,-2.861022E-08
815.8992,-0.828696,8.477981E-10,NaN,-0.801618,-1.323243E-07,NaN,0.2776836,-5.013784E-07,NaN,-0.8050213,2.252461E-05,-0.4258842,8.061593E-08,NaN,NaN,0.3194349,-1.862655E-10,1.374759E-06,-1.100774E-07,1.684625E-08,-2.861022E-08
815.913,-0.8358303,8.484496E-10,NaN,-0.8077884,-1.323242E-07,NaN,0.2789222,-5.018745E-07,NaN,-0.8092211,2.252501E-05,-0.4354705,8.111331E-08,NaN,NaN,0.3226453,-1.816089E-10,1.417078E-06,-1.100767E-07,1.62502E-08,-2.622604E-08
815.9274,-0.8429387,8.491011E-10,NaN,-0.8139332,-1.323241E-07,NaN,0.2799778,-5.023608E-07,NaN,-0.8133834,2.252542E-05,-0.4448446,8.160089E-08,NaN,NaN,0.3257926,-1.862655E-10,1.457013E-06,-1.10076E-07,1.818735E-08,-2.861022E-08
815.9421,-0.8502457,8.497527E-10,NaN,-0.8202348,-1.32324E-07,NaN,0.2812162,-5.028375E-07,NaN,-0.8177642,2.252583E-05,-0.4545444,8.207886E-08,NaN,NaN,0.3291593,-1.909221E-10,1.488007E-06,-1.100754E-07,1.669724E-08,-2.622604E-08
815.9567,-0.8502457,8.497527E-10,NaN,-0.8202348,-1.32324E-07,NaN,0.2812162,-5.028375E-07,NaN,-0.8177642,2.252583E-05,-0.4545444,8.207886E-08,NaN,NaN,0.3291593,-1.909221E-10,1.488007E-06,-1.100754E-07,1.669724E-08,-2.622604E-08
815.9708,-0.8576255,8.504046E-10,NaN,-0.8265916,-1.323239E-07,NaN,0.282421,-5.033047E-07,NaN,-0.8221208,2.252623E-05,-0.4642906,8.254741E-08,NaN,NaN,0.3324603,-1.909221E-10,1.529284E-06,-1.100747E-07,1.639921E-08,-2.861022E-08
815.9861,-0.8650095,8.510567E-10,NaN,-0.8329476,-1.323238E-07,NaN,0.2834668,-5.037599E-07,NaN,-0.8264443,2.252664E-05,-0.4738913,8.30039E-08,NaN,NaN,0.3356966,-1.909221E-10,1.571752E-06,-1.100741E-07,1.192887E-08,-2.622604E-08
816.001,-0.8723607,8.517082E-10,NaN,-0.8392726,-1.323236E-07,NaN,0.2843441,-5.043005E-07,NaN,-0.8307275,2.252704E-05,-0.4832833,8.354579E-08,NaN,NaN,0.3388695,-1.909221E-10,1.611389E-06,-1.100753E-07,7.756542E-09,-2.861022E-08
816.0157,-0.8723607,8.517082E-10,NaN,-0.8392726,-1.323236E-07,NaN,0.2843441,-5.043005E-07,NaN,-0.8307275,2.252704E-05,-0.4832833,8.354579E-08,NaN,NaN,0.3388695,-1.909221E-10,1.611389E-06,-1.100753E-07,7.756542E-09,-2.861022E-08
816.0295,-0.8799083,8.523595E-10,NaN,-0.8457505,-1.323237E-07,NaN,0.2854019,-5.045304E-07,NaN,-0.8352265,2.252745E-05,-0.4929959,8.377694E-08,NaN,NaN,0.3422611,-1.909221E-10,1.641787E-06,-1.100768E-07,6.266426E-09,-2.622604E-08
816.045,-0.8875246,8.530108E-10,NaN,-0.8522795,-1.323241E-07,NaN,0.286433,-5.040836E-07,NaN,-0.8397012,2.252786E-05,-0.502756,8.333149E-08,NaN,NaN,0.3455866,-2.002353E-10,1.68202E-06,-1.100785E-07,4.77631E-09,-2.861022E-08
816.0609,-0.8951407,8.536623E-10,NaN,-0.8588045,-1.323247E-07,NaN,0.2873115,-5.035948E-07,NaN,-0.844142,2.252827E-05,-0.5123706,8.28439E-08,NaN,NaN,0.3488469,-2.002353E-10,1.721061E-06,-1.100803E-07,3.584217E-09,-2.622604E-08
816.0744,-0.8951407,8.536623E-10,NaN,-0.8588045,-1.323247E-07,NaN,0.2873115,-5.035948E-07,NaN,-0.844142,2.252827E-05,-0.5123706,8.28439E-08,NaN,NaN,0.3488469,-2.002353E-10,1.721061E-06,-1.100803E-07,3.584217E-09,-2.622604E-08
816.0884,-0.9029713,8.543138E-10,NaN,-0.865496,-1.323253E-07,NaN,0.2883446,-5.032236E-07,NaN,-0.8488031,2.252867E-05,-0.5223116,8.247405E-08,NaN,NaN,0.3523243,-2.002353E-10,1.754291E-06,-1.100822E-07,1.498055E-09,-2.861022E-08
816.1036,-0.9108771,8.549654E-10,NaN,-0.8722441,-1.32326E-07,NaN,0.2893304,-5.028456E-07,NaN,-0.8534446,2.252909E-05,-0.5322923,8.209727E-08,NaN,NaN,0.3557338,-2.142052E-10,1.791097E-06,-1.100841E-07,3.059617E-10,-2.622604E-08
816.1185,-0.9108771,8.549654E-10,NaN,-0.8722441,-1.32326E-07,NaN,0.2893304,-5.028456E-07,NaN,-0.8534446,2.252909E-05,-0.5322923,8.209727E-08,NaN,NaN,0.3557338,-2.142052E-10,1.791097E-06,-1.100841E-07,3.059617E-10,-2.622604E-08
816.1324,-0.9187838,8.556172E-10,NaN,-0.8789894,-1.323268E-07,NaN,0.2901494,-5.024665E-07,NaN,-0.8580547,2.25295E-05,-0.5421162,8.171936E-08,NaN,NaN,0.3590766,-2.142052E-10,1.832969E-06,-1.10086E-07,-2.078224E-09,-2.861022E-08
816.1476,-0.9266524,8.56269E-10,NaN,-0.8857002,-1.323275E-07,NaN,0.2907976,-5.020918E-07,NaN,-0.8626246,2.252992E-05,-0.5517206,8.134599E-08,NaN,NaN,0.3623537,-2.28175E-10,1.870818E-06,-1.100879E-07,-2.674271E-09,-2.622604E-08
816.1633,-0.934717,8.569208E-10,NaN,-0.8925602,-1.323283E-07,NaN,0.2916057,-5.017216E-07,NaN,-0.8674087,2.253032E-05,-0.5616241,8.097705E-08,NaN,NaN,0.3658476,-2.28175E-10,1.901366E-06,-1.100898E-07,-3.866363E-09,-2.861022E-08
816.1778,-0.934717,8.569208E-10,NaN,-0.8925602,-1.323283E-07,NaN,0.2916057,-5.017216E-07,NaN,-0.8674087,2.253032E-05,-0.5616241,8.097705E-08,NaN,NaN,0.3658476,-2.28175E-10,1.901366E-06,-1.100898E-07,-3.866363E-09,-2.861022E-08
816.1918,-0.9428438,8.575725E-10,NaN,-0.8994657,-1.32329E-07,NaN,0.2923882,-5.013614E-07,NaN,-0.8721703,2.253073E-05,-0.5715655,8.061811E-08,NaN,NaN,0.3692732,-2.28175E-10,1.937128E-06,-1.100917E-07,-3.270317E-09,-2.622604E-08
816.2062,-0.9509625,8.582243E-10,NaN,-0.9063611,-1.323298E-07,NaN,0.2930229,-5.010082E-07,NaN,-0.8768973,2.253113E-05,-0.5813543,8.026615E-08,NaN,NaN,0.3726318,-2.28175E-10,1.97304E-06,-1.100936E-07,1.498055E-09,-2.861022E-08
816.2208,-0.9590366,8.588761E-10,NaN,-0.9132173,-1.323305E-07,NaN,0.2935015,-5.006646E-07,NaN,-0.8815815,2.253154E-05,-0.5909278,7.992385E-08,NaN,NaN,0.3759245,-2.328316E-10,2.008356E-06,-1.100955E-07,2.690147E-09,-2.622604E-08
816.2354,-0.9590366,8.588761E-10,NaN,-0.9132173,-1.323305E-07,NaN,0.2935015,-5.006646E-07,NaN,-0.8815815,2.253154E-05,-0.5909278,7.992385E-08,NaN,NaN,0.3759245,-2.328316E-10,2.008356E-06,-1.100955E-07,2.690147E-09,-2.622604E-08
816.2494,-0.9673055,8.595281E-10,NaN,-0.9202197,-1.323313E-07,NaN,0.2941383,-5.003277E-07,NaN,-0.8864775,2.253195E-05,-0.6007969,7.95882E-08,NaN,NaN,0.3794335,-2.328316E-10,2.034656E-06,-1.100974E-07,-2.900846E-10,-2.861022E-08
816.2648,-0.9756327,8.6018E-10,NaN,-0.9272641,-1.32332E-07,NaN,0.294756,-5.005876E-07,NaN,-0.8913515,2.253237E-05,-0.6107049,7.984939E-08,NaN,NaN,0.3828741,-2.421448E-10,2.07176E-06,-1.100993E-07,3.059618E-10,-2.622604E-08
816.2793,-0.9756327,8.6018E-10,NaN,-0.9272641,-1.32332E-07,NaN,0.294756,-5.005876E-07,NaN,-0.8913515,2.253237E-05,-0.6107049,7.984939E-08,NaN,NaN,0.3828741,-2.421448E-10,2.07176E-06,-1.100993E-07,3.059618E-10,-2.622604E-08
816.2933,-0.9839476,8.608321E-10,NaN,-0.9342955,-1.323328E-07,NaN,0.2952324,-5.002666E-07,NaN,-0.8961903,2.253277E-05,-0.6204608,7.952958E-08,NaN,NaN,0.3862473,-2.374882E-10,2.108417E-06,-1.101012E-07,3.059618E-10,-2.861022E-08
816.3088,-0.9924746,8.614843E-10,NaN,-0.9414861,-1.323335E-07,NaN,0.2958419,-4.999546E-07,NaN,-0.9012458,2.253318E-05,-0.6305189,7.921881E-08,NaN,NaN,0.3898353,-2.374882E-10,2.138033E-06,-1.101031E-07,-1.482177E-09,-2.622604E-08
816.3234,-1.001065,8.621365E-10,NaN,-0.9487234,-1.323343E-07,NaN,0.2964123,-4.996514E-07,NaN,-0.9062847,2.253359E-05,-0.6406081,7.891689E-08,NaN,NaN,0.3933533,-2.374882E-10,2.173088E-06,-1.101049E-07,1.498055E-09,-2.861022E-08
816.3382,-1.001065,8.621365E-10,NaN,-0.9487234,-1.323343E-07,NaN,0.2964123,-4.996514E-07,NaN,-0.9062847,2.253359E-05,-0.6406081,7.891689E-08,NaN,NaN,0.3933533,-2.374882E-10,2.173088E-06,-1.101049E-07,1.498055E-09,-2.861022E-08
816.3522,-1.009644,8.627887E-10,NaN,-0.9559489,-1.32335E-07,NaN,0.2968284,-4.993569E-07,NaN,-0.9112912,2.2534E-05,-0.6505345,7.862366E-08,NaN,NaN,0.3968023,-2.374882E-10,2.209447E-06,-1.101068E-07,2.690147E-09,-2.622604E-08
816.3676,-1.018173,8.634411E-10,NaN,-0.9631324,-1.323357E-07,NaN,0.2970878,-4.990709E-07,NaN,-0.9162551,2.253441E-05,-0.6602364,7.833894E-08,NaN,NaN,0.4001837,-2.374882E-10,2.24439E-06,-1.101087E-07,-2.900846E-10,-2.861022E-08
816.3824,-1.026896,8.640936E-10,NaN,-0.9704592,-1.323365E-07,NaN,0.2974871,-4.987933E-07,NaN,-0.9214292,2.253482E-05,-0.6702155,7.806256E-08,NaN,NaN,0.4037797,-2.374882E-10,2.269257E-06,-1.101105E-07,-2.900846E-10,-2.622604E-08
816.3969,-1.026896,8.640936E-10,NaN,-0.9704592,-1.323365E-07,NaN,0.2974871,-4.987933E-07,NaN,-0.9214292,2.253482E-05,-0.6702155,7.806256E-08,NaN,NaN,0.4037797,-2.374882E-10,2.269257E-06,-1.101105E-07,-2.900846E-10,-2.622604E-08
816.4109,-1.035672,8.647461E-10,NaN,-0.9778227,-1.323372E-07,NaN,0.2978684,-4.985239E-07,NaN,-0.9265841,2.253523E-05,-0.6802242,7.779437E-08,NaN,NaN,0.4073055,-2.374882E-10,2.304661E-06,-1.101123E-07,-1.482177E-09,-2.861022E-08
816.4263,-1.044427,8.653987E-10,NaN,-0.985168,-1.32338E-07,NaN,0.2981139,-4.982596E-07,NaN,-0.9317034,2.253564E-05,-0.6900746,7.753138E-08,NaN,NaN,0.4107623,-2.374882E-10,2.341415E-06,-1.101142E-07,2.094101E-09,-2.622604E-08
816.442,-1.053126,8.660514E-10,NaN,-0.9924675,-1.323387E-07,NaN,0.298217,-4.980033E-07,NaN,-0.9367776,2.253605E-05,-0.6997055,7.72763E-08,NaN,NaN,0.4141513,-2.374882E-10,2.376284E-06,-1.10116E-07,-1.482177E-09,-2.861022E-08
816.4567,-1.053126,8.660514E-10,NaN,-0.9924675,-1.323387E-07,NaN,0.298217,-4.980033E-07,NaN,-0.9367776,2.253605E-05,-0.6997055,7.72763E-08,NaN,NaN,0.4141513,-2.374882E-10,2.376284E-06,-1.10116E-07,-1.482177E-09,-2.861022E-08
816.4697,-1.06202,8.667042E-10,NaN,-0.999908,-1.323394E-07,NaN,0.2984587,-4.977547E-07,NaN,-0.9420596,2.253646E-05,-0.7096117,7.702899E-08,NaN,NaN,0.4177547,-2.374882E-10,2.403237E-06,-1.101178E-07,-2.900846E-10,-2.622604E-08
816.4852,-1.070961,8.673571E-10,NaN,-1.007382,-1.323401E-07,NaN,0.2986881,-4.975138E-07,NaN,-0.9473234,2.253687E-05,-0.719548,7.678929E-08,NaN,NaN,0.4212878,-2.374882E-10,2.436578E-06,-1.101197E-07,3.286194E-09,-2.861022E-08
816.4996,-1.070961,8.673571E-10,NaN,-1.007382,-1.323401E-07,NaN,0.2986881,-4.975138E-07,NaN,-0.9473234,2.253687E-05,-0.719548,7.678929E-08,NaN,NaN,0.4212878,-2.374882E-10,2.436578E-06,-1.101197E-07,3.286194E-09,-2.861022E-08
816.5135,-1.079879,8.6801E-10,NaN,-1.014836,-1.323409E-07,NaN,0.298788,-4.972803E-07,NaN,-0.9525512,2.253728E-05,-0.729327,7.655706E-08,NaN,NaN,0.4247517,-2.374882E-10,2.472676E-06,-1.101215E-07,2.094101E-09,-2.622604E-08
816.5289,-1.089007,8.68663E-10,NaN,-1.022443,-1.323416E-07,NaN,0.299002,-4.97639E-07,NaN,-0.9579924,2.253768E-05,-0.7393882,7.691694E-08,NaN,NaN,0.4284287,-2.374882E-10,2.49689E-06,-1.101233E-07,4.478287E-09,-2.861022E-08
816.5448,-1.098187,8.69316E-10,NaN,-1.030088,-1.323423E-07,NaN,0.2991844,-4.979933E-07,NaN,-0.963421,2.253809E-05,-0.749472,7.727254E-08,NaN,NaN,0.4320338,-2.374882E-10,2.528257E-06,-1.101251E-07,2.094101E-09,-2.622604E-08
816.5582,-1.098187,8.69316E-10,NaN,-1.030088,-1.323423E-07,NaN,0.2991844,-4.979933E-07,NaN,-0.963421,2.253809E-05,-0.749472,7.727254E-08,NaN,NaN,0.4320338,-2.374882E-10,2.528257E-06,-1.101251E-07,2.094101E-09,-2.622604E-08
816.5721,-1.107343,8.699691E-10,NaN,-1.037713,-1.32343E-07,NaN,0.2992254,-4.983435E-07,NaN,-0.9688162,2.25385E-05,-0.7593883,7.762394E-08,NaN,NaN,0.4355683,-2.374882E-10,2.561412E-06,-1.101269E-07,2.094101E-09,-2.861022E-08
816.5876,-1.116437,8.706223E-10,NaN,-1.04529,-1.323438E-07,NaN,0.2991247,-4.986895E-07,NaN,-0.974166,2.253891E-05,-0.7690778,7.797122E-08,NaN,NaN,0.4390335,-2.374882E-10,2.593971E-06,-1.101287E-07,9.020085E-10,-2.622604E-08
816.6025,-1.125726,8.712756E-10,NaN,-1.053006,-1.323445E-07,NaN,0.299146,-4.990316E-07,NaN,-0.9797222,2.253932E-05,-0.7790272,7.831447E-08,NaN,NaN,0.4427118,-2.374882E-10,2.6161E-06,-1.101305E-07,4.478287E-09,-2.861022E-08
816.6174,-1.125726,8.712756E-10,NaN,-1.053006,-1.323445E-07,NaN,0.299146,-4.990316E-07,NaN,-0.9797222,2.253932E-05,-0.7790272,7.831447E-08,NaN,NaN,0.4427118,-2.374882E-10,2.6161E-06,-1.101305E-07,4.478287E-09,-2.861022E-08
816.631,-1.135057,8.719289E-10,NaN,-1.060751,-1.323452E-07,NaN,0.2991557,-4.993696E-07,NaN,-0.9852633,2.253973E-05,-0.7889978,7.865376E-08,NaN,NaN,0.4463181,-2.374882E-10,2.644859E-06,-1.101322E-07,2.094101E-09,-2.622604E-08
816.6463,-1.144355,8.725823E-10,NaN,-1.068472,-1.323459E-07,NaN,0.2990419,-4.997038E-07,NaN,-0.9907679,2.254014E-05,-0.798806,7.898917E-08,NaN,NaN,0.4498539,-2.374882E-10,2.6763E-06,-1.10134E-07,-2.67427E-09,-2.861022E-08
816.6609,-1.153587,8.732358E-10,NaN,-1.076141,-1.323466E-07,NaN,0.2987999,-5.000313E-07,NaN,-0.9962243,2.254055E-05,-0.8083931,7.931796E-08,NaN,NaN,0.4533203,-2.374882E-10,2.707593E-06,-1.101358E-07,-2.67427E-09,-2.622604E-08
816.676,-1.153587,8.732358E-10,NaN,-1.076141,-1.323466E-07,NaN,0.2987999,-5.000313E-07,NaN,-0.9962243,2.254055E-05,-0.8083931,7.931796E-08,NaN,NaN,0.4533203,-2.374882E-10,2.707593E-06,-1.101358E-07,-2.67427E-09,-2.622604E-08
816.6897,-1.163014,8.738894E-10,NaN,-1.083947,-1.323474E-07,NaN,0.2986786,-5.003552E-07,NaN,-1.001885,2.254096E-05,-0.8182392,7.964307E-08,NaN,NaN,0.4569997,-2.374882E-10,2.728156E-06,-1.101375E-07,-3.866363E-09,-2.861022E-08
816.7072,-1.172479,8.74543E-10,NaN,-1.091781,-1.323481E-07,NaN,0.2985505,-5.006755E-07,NaN,-1.007532,2.254137E-05,-0.8281069,7.996458E-08,NaN,NaN,0.4606073,-2.374882E-10,2.757661E-06,-1.101393E-07,-3.866363E-09,-2.622604E-08
816.7208,-1.181908,8.751968E-10,NaN,-1.099587,-1.323488E-07,NaN,0.2983049,-5.009922E-07,NaN,-1.013141,2.254178E-05,-0.8378137,8.028256E-08,NaN,NaN,0.4641442,-2.374882E-10,2.788059E-06,-1.10141E-07,-3.866363E-09,-2.861022E-08
816.7344,-1.181908,8.751968E-10,NaN,-1.099587,-1.323488E-07,NaN,0.2983049,-5.009922E-07,NaN,-1.013141,2.254178E-05,-0.8378137,8.028256E-08,NaN,NaN,0.4641442,-2.374882E-10,2.788059E-06,-1.10141E-07,-3.866363E-09,-2.861022E-08
816.7486,-1.191548,8.758506E-10,NaN,-1.107543,-1.323495E-07,NaN,0.2981559,-5.013055E-07,NaN,-1.018961,2.254219E-05,-0.8477867,8.059708E-08,NaN,NaN,0.4678928,-2.374882E-10,2.808623E-06,-1.101428E-07,-7.442642E-09,-2.622604E-08
816.7635,-1.201228,8.765045E-10,NaN,-1.115528,-1.323502E-07,NaN,0.2979816,-5.016154E-07,NaN,-1.024772,2.25426E-05,-0.8577736,8.090821E-08,NaN,NaN,0.4715681,-2.374882E-10,2.837382E-06,-1.101445E-07,-7.442642E-09,-2.861022E-08
816.7781,-1.201228,8.765045E-10,NaN,-1.115528,-1.323502E-07,NaN,0.2979816,-5.016154E-07,NaN,-1.024772,2.25426E-05,-0.8577736,8.090821E-08,NaN,NaN,0.4715681,-2.374882E-10,2.837382E-06,-1.101445E-07,-7.442642E-09,-2.861022E-08
816.7923,-1.210871,8.771585E-10,NaN,-1.123488,-1.323509E-07,NaN,0.2976794,-5.019219E-07,NaN,-1.030549,2.2543E-05,-0.8675905,8.121601E-08,NaN,NaN,0.4751714,-2.374882E-10,2.866439E-06,-1.101462E-07,-6.250549E-09,-2.622604E-08
816.8077,-1.220441,8.778125E-10,NaN,-1.131395,-1.323516E-07,NaN,0.2972507,-5.022224E-07,NaN,-1.036276,2.254341E-05,-0.8771814,8.151772E-08,NaN,NaN,0.4787042,-2.374882E-10,2.895198E-06,-1.10148E-07,-7.442642E-09,-2.861022E-08
816.8226,-1.230209,8.784667E-10,NaN,-1.139439,-1.323523E-07,NaN,0.2969275,-5.025198E-07,NaN,-1.042206,2.254382E-05,-0.8870189,8.181629E-08,NaN,NaN,0.4824486,-2.374882E-10,2.912931E-06,-1.101497E-07,-5.058456E-09,-2.622604E-08
816.8373,-1.230209,8.784667E-10,NaN,-1.139439,-1.323523E-07,NaN,0.2969275,-5.025198E-07,NaN,-1.042206,2.254382E-05,-0.8870189,8.181629E-08,NaN,NaN,0.4824486,-2.374882E-10,2.912931E-06,-1.101497E-07,-5.058456E-09,-2.622604E-08
816.8514,-1.240008,8.791212E-10,NaN,-1.147505,-1.32353E-07,NaN,0.2965976,-5.02814E-07,NaN,-1.048125,2.254423E-05,-0.8968693,8.211178E-08,NaN,NaN,0.4861199,-2.374882E-10,2.938709E-06,-1.101514E-07,-2.674271E-09,-2.861022E-08
816.8666,-1.249763,8.797758E-10,NaN,-1.155541,-1.323537E-07,NaN,0.2961566,-5.031052E-07,NaN,-1.054006,2.254464E-05,-0.9065554,8.240426E-08,NaN,NaN,0.4897193,-2.374882E-10,2.966575E-06,-1.101531E-07,2.094101E-09,-2.622604E-08
816.8813,-1.259441,8.804305E-10,NaN,-1.163522,-1.323544E-07,NaN,0.2956021,-5.033935E-07,NaN,-1.059835,2.254505E-05,-0.9160218,8.269377E-08,NaN,NaN,0.4932481,-2.328316E-10,2.994291E-06,-1.101548E-07,-1.482178E-09,-2.861022E-08
816.8961,-1.259441,8.804305E-10,NaN,-1.163522,-1.323544E-07,NaN,0.2956021,-5.033935E-07,NaN,-1.059835,2.254505E-05,-0.9160218,8.269377E-08,NaN,NaN,0.4932481,-2.328316E-10,2.994291E-06,-1.101548E-07,-1.482178E-09,-2.861022E-08
816.9099,-1.25888,8.810852E-10,NaN,-1.163997,-1.323551E-07,NaN,0.2881365,-5.036788E-07,NaN,-1.055818,2.254547E-05,-0.9078106,8.298039E-08,NaN,NaN,0.4863077,-2.421448E-10,3.350578E-06,-1.101565E-07,3.286194E-09,-2.622604E-08
816.9252,-1.252795,8.817401E-10,NaN,-1.160407,-1.323558E-07,NaN,0.2767492,-5.039614E-07,NaN,-1.049908,2.254588E-05,-0.8899264,8.326415E-08,NaN,NaN,0.4794951,-2.421448E-10,3.335378E-06,-1.101582E-07,3.286194E-09,-2.861022E-08
816.94,-1.243817,8.82395E-10,NaN,-1.154481,-1.323564E-07,NaN,0.2660091,-5.046734E-07,NaN,-1.043056,2.254628E-05,-0.8691776,8.397745E-08,NaN,NaN,0.4728126,-2.374882E-10,3.20395E-06,-1.101599E-07,-3.866363E-09,-2.622604E-08
816.9548,-1.243817,8.82395E-10,NaN,-1.154481,-1.323564E-07,NaN,0.2660091,-5.046734E-07,NaN,-1.043056,2.254628E-05,-0.8691776,8.397745E-08,NaN,NaN,0.4728126,-2.374882E-10,3.20395E-06,-1.101599E-07,-3.866363E-09,-2.622604E-08
816.9687,-1.233867,8.830501E-10,NaN,-1.147529,-1.323573E-07,NaN,0.2576194,-5.05253E-07,NaN,-1.035661,2.25467E-05,-0.84879,8.455821E-08,NaN,NaN,0.4660799,-2.421448E-10,3.058664E-06,-1.101611E-07,-3.866363E-09,-2.861022E-08
816.985,-1.22358,8.837052E-10,NaN,-1.140082,-1.323582E-07,NaN,0.2508897,-5.058408E-07,NaN,-1.027996,2.254711E-05,-0.8293157,8.514728E-08,NaN,NaN,0.4594791,-2.468014E-10,2.943031E-06,-1.101622E-07,-3.866363E-09,-2.622604E-08
816.9996,-1.22358,8.837052E-10,NaN,-1.140082,-1.323582E-07,NaN,0.2508897,-5.058408E-07,NaN,-1.027996,2.254711E-05,-0.8293157,8.514728E-08,NaN,NaN,0.4594791,-2.468014E-10,2.943031E-06,-1.101622E-07,-3.866363E-09,-2.622604E-08
817.0125,-1.213234,8.843604E-10,NaN,-1.132411,-1.32359E-07,NaN,0.2451951,-5.06417E-07,NaN,-1.020193,2.254753E-05,-0.8107063,8.572475E-08,NaN,NaN,0.4530078,-2.51458E-10,2.852879E-06,-1.101634E-07,5.67038E-09,-2.861022E-08
817.028,-1.202941,8.850157E-10,NaN,-1.12465,-1.323597E-07,NaN,0.240089,-5.071173E-07,NaN,-1.012358,2.254793E-05,-0.7927733,8.642628E-08,NaN,NaN,0.4466635,-2.468014E-10,2.777963E-06,-1.10165E-07,8.054565E-09,-2.622604E-08
817.0437,-1.193041,8.856704E-10,NaN,-1.117042,-1.323603E-07,NaN,0.2358903,-5.073715E-07,NaN,-1.004597,2.254834E-05,-0.7758006,8.668165E-08,NaN,NaN,0.4402635,-2.468014E-10,2.706524E-06,-1.101666E-07,8.054565E-09,-2.861022E-08
817.0571,-1.193041,8.856704E-10,NaN,-1.117042,-1.323603E-07,NaN,0.2358903,-5.073715E-07,NaN,-1.004597,2.254834E-05,-0.7758006,8.668165E-08,NaN,NaN,0.4402635,-2.468014E-10,2.706524E-06,-1.101666E-07,8.054565E-09,-2.861022E-08
817.0712,-1.183381,8.863248E-10,NaN,-1.109529,-1.32361E-07,NaN,0.2319877,-5.076177E-07,NaN,-0.9970224,2.254875E-05,-0.7593911,8.692915E-08,NaN,NaN,0.4339893,-2.51458E-10,2.641164E-06,-1.101683E-07,1.043875E-08,-2.622604E-08
817.0866,-1.173889,8.869794E-10,NaN,-1.102086,-1.323616E-07,NaN,0.2281902,-5.078591E-07,NaN,-0.9896117,2.254915E-05,-0.7433617,8.717174E-08,NaN,NaN,0.4278381,-2.421448E-10,2.579548E-06,-1.101699E-07,1.043875E-08,-2.861022E-08
817.1011,-1.16453,8.876339E-10,NaN,-1.094705,-1.323623E-07,NaN,0.2244362,-5.080956E-07,NaN,-0.9823538,2.254957E-05,-0.727628,8.740953E-08,NaN,NaN,0.4218074,-2.468014E-10,2.523221E-06,-1.101715E-07,1.043875E-08,-2.622604E-08
817.1159,-1.16453,8.876339E-10,NaN,-1.094705,-1.323623E-07,NaN,0.2244362,-5.080956E-07,NaN,-0.9823538,2.254957E-05,-0.727628,8.740953E-08,NaN,NaN,0.4218074,-2.468014E-10,2.523221E-06,-1.101715E-07,1.043875E-08,-2.622604E-08
817.1299,-1.155583,8.882886E-10,NaN,-1.087554,-1.32363E-07,NaN,0.2213005,-5.083274E-07,NaN,-0.9752558,2.254998E-05,-0.7126149,8.764261E-08,NaN,NaN,0.4157149,-2.468014E-10,2.459072E-06,-1.101732E-07,5.670379E-09,-2.861022E-08
817.1453,-1.146877,8.889433E-10,NaN,-1.080542,-1.323636E-07,NaN,0.2183215,-5.085575E-07,NaN,-0.9683931,2.255039E-05,-0.6980166,8.787389E-08,NaN,NaN,0.409742,-2.51458E-10,2.399616E-06,-1.101748E-07,1.043875E-08,-2.622604E-08
817.1602,-1.138334,8.895981E-10,NaN,-1.073626,-1.323643E-07,NaN,0.2153801,-5.087829E-07,NaN,-0.9617145,2.25508E-05,-0.6837082,8.810059E-08,NaN,NaN,0.4038863,-2.51458E-10,2.342545E-06,-1.101764E-07,5.670379E-09,-2.861022E-08
817.1747,-1.138334,8.895981E-10,NaN,-1.073626,-1.323643E-07,NaN,0.2153801,-5.087829E-07,NaN,-0.9617145,2.25508E-05,-0.6837082,8.810059E-08,NaN,NaN,0.4038863,-2.51458E-10,2.342545E-06,-1.101764E-07,5.670379E-09,-2.861022E-08
817.1888,-1.130208,8.902529E-10,NaN,-1.066959,-1.32365E-07,NaN,0.213038,-5.090067E-07,NaN,-0.9551979,2.255122E-05,-0.6701062,8.832562E-08,NaN,NaN,0.3979652,-2.561147E-10,2.280556E-06,-1.10178E-07,8.054565E-09,-2.622604E-08
817.2042,-1.122326,8.909079E-10,NaN,-1.060441,-1.323656E-07,NaN,0.2108373,-5.092289E-07,NaN,-0.948917,2.255162E-05,-0.6568971,8.854901E-08,NaN,NaN,0.3921604,-2.468014E-10,2.225868E-06,-1.101796E-07,4.478286E-09,-2.861022E-08
817.2191,-1.122326,8.909079E-10,NaN,-1.060441,-1.323656E-07,NaN,0.2108373,-5.092289E-07,NaN,-0.948917,2.255162E-05,-0.6568971,8.854901E-08,NaN,NaN,0.3921604,-2.468014E-10,2.225868E-06,-1.101796E-07,4.478286E-09,-2.861022E-08
817.2328,-1.114606,8.915629E-10,NaN,-1.054026,-1.323663E-07,NaN,0.2086595,-5.094494E-07,NaN,-0.9428157,2.255203E-05,-0.6439542,8.877079E-08,NaN,NaN,0.3864694,-2.51458E-10,2.170287E-06,-1.101812E-07,-2.900853E-10,-2.622604E-08
817.2502,-1.107009,8.92218E-10,NaN,-1.04769,-1.32367E-07,NaN,0.2064795,-5.096655E-07,NaN,-0.9368629,2.255244E-05,-0.6312275,8.898817E-08,NaN,NaN,0.38089,-2.51458E-10,2.114557E-06,-1.101828E-07,-1.482178E-09,-2.861022E-08
817.2636,-1.099802,8.928732E-10,NaN,-1.041593,-1.323679E-07,NaN,0.2048917,-5.097589E-07,NaN,-0.9310362,2.255286E-05,-0.619177,8.908274E-08,NaN,NaN,0.3752398,-2.561147E-10,2.054207E-06,-1.101839E-07,-2.900853E-10,-2.622604E-08
817.2774,-1.099802,8.928732E-10,NaN,-1.041593,-1.323679E-07,NaN,0.2048917,-5.097589E-07,NaN,-0.9310362,2.255286E-05,-0.619177,8.908274E-08,NaN,NaN,0.3752398,-2.561147E-10,2.054207E-06,-1.101839E-07,-2.900853E-10,-2.622604E-08
817.2914,-1.092825,8.935285E-10,NaN,-1.035645,-1.323687E-07,NaN,0.2034496,-5.098701E-07,NaN,-0.9254246,2.255327E-05,-0.607498,8.919516E-08,NaN,NaN,0.3697006,-2.561147E-10,1.999073E-06,-1.10185E-07,5.670379E-09,-2.861022E-08
817.3066,-1.086003,8.941839E-10,NaN,-1.029798,-1.323695E-07,NaN,0.2020309,-5.099874E-07,NaN,-0.9199763,2.255368E-05,-0.5960653,8.931379E-08,NaN,NaN,0.36427,-2.607713E-10,1.947366E-06,-1.101861E-07,6.862471E-09,-2.622604E-08
817.3212,-1.079295,8.948394E-10,NaN,-1.024029,-1.323703E-07,NaN,0.2006066,-5.100206E-07,NaN,-0.9146621,2.255409E-05,-0.5848291,8.934821E-08,NaN,NaN,0.3589459,-2.607713E-10,1.895808E-06,-1.101872E-07,5.670379E-09,-2.861022E-08
817.3361,-1.079295,8.948394E-10,NaN,-1.024029,-1.323703E-07,NaN,0.2006066,-5.100206E-07,NaN,-0.9146621,2.255409E-05,-0.5848291,8.934821E-08,NaN,NaN,0.3589459,-2.607713E-10,1.895808E-06,-1.101872E-07,5.670379E-09,-2.861022E-08
817.3502,-1.072967,8.954949E-10,NaN,-1.018499,-1.323709E-07,NaN,0.1997696,-5.102563E-07,NaN,-0.909453,2.25545E-05,-0.5742566,8.958507E-08,NaN,NaN,0.3535461,-2.654279E-10,1.839779E-06,-1.101888E-07,2.0941E-09,-2.622604E-08
817.3653,-1.066864,8.961505E-10,NaN,-1.013118,-1.323715E-07,NaN,0.1990756,-5.104787E-07,NaN,-0.9044467,2.25549E-05,-0.5640379,8.980877E-08,NaN,NaN,0.3482523,-2.561147E-10,1.788221E-06,-1.101903E-07,3.286193E-09,-2.861022E-08
817.3801,-1.06091,8.968062E-10,NaN,-1.00784,-1.323721E-07,NaN,0.1983983,-5.10694E-07,NaN,-0.8995928,2.255532E-05,-0.554045,9.002522E-08,NaN,NaN,0.3430624,-2.607713E-10,1.739346E-06,-1.101919E-07,4.478286E-09,-2.622604E-08
817.3946,-1.06091,8.968062E-10,NaN,-1.00784,-1.323721E-07,NaN,0.1983983,-5.10694E-07,NaN,-0.8995928,2.255532E-05,-0.554045,9.002522E-08,NaN,NaN,0.3430624,-2.607713E-10,1.739346E-06,-1.101919E-07,4.478286E-09,-2.622604E-08
817.409,-1.055346,8.974619E-10,NaN,-1.002812,-1.323728E-07,NaN,0.1982981,-5.109048E-07,NaN,-0.894846,2.255572E-05,-0.5447158,9.023737E-08,NaN,NaN,0.3377941,-2.51458E-10,1.685701E-06,-1.101934E-07,4.478286E-09,-2.861022E-08
817.4241,-1.050014,8.981177E-10,NaN,-0.9979405,-1.323734E-07,NaN,0.1983256,-5.111115E-07,NaN,-0.890303,2.255613E-05,-0.5357242,9.044532E-08,NaN,NaN,0.3326294,-2.561147E-10,1.636826E-06,-1.10195E-07,2.0941E-09,-2.622604E-08
817.4389,-1.050014,8.981177E-10,NaN,-0.9979405,-1.323734E-07,NaN,0.1983256,-5.111115E-07,NaN,-0.890303,2.255613E-05,-0.5357242,9.044532E-08,NaN,NaN,0.3326294,-2.561147E-10,1.636826E-06,-1.10195E-07,2.0941E-09,-2.622604E-08
817.4529,-1.04483,8.987736E-10,NaN,-0.9931751,-1.323741E-07,NaN,0.1983528,-5.11317E-07,NaN,-0.8859102,2.255653E-05,-0.5269367,9.065197E-08,NaN,NaN,0.327566,-2.468014E-10,1.589142E-06,-1.101965E-07,5.670379E-09,-2.861022E-08
817.4683,-1.039753,8.994295E-10,NaN,-0.9884887,-1.323747E-07,NaN,0.1983504,-5.115182E-07,NaN,-0.8816371,2.255695E-05,-0.518302,9.085451E-08,NaN,NaN,0.3226019,-2.51458E-10,1.545034E-06,-1.101981E-07,6.862471E-09,-2.622604E-08
817.4832,-1.035038,9.000855E-10,NaN,-0.9840391,-1.323753E-07,NaN,0.1989145,-5.117183E-07,NaN,-0.877443,2.255735E-05,-0.5103002,9.105585E-08,NaN,NaN,0.317555,-2.421448E-10,1.495861E-06,-1.101996E-07,3.286193E-09,-2.861022E-08
817.4977,-1.035038,9.000855E-10,NaN,-0.9840391,-1.323753E-07,NaN,0.1989145,-5.117183E-07,NaN,-0.877443,2.255735E-05,-0.5103002,9.105585E-08,NaN,NaN,0.317555,-2.421448E-10,1.495861E-06,-1.101996E-07,3.286193E-09,-2.861022E-08
817.5115,-1.030539,9.007415E-10,NaN,-0.979739,-1.32376E-07,NaN,0.1996074,-5.119144E-07,NaN,-0.8734354,2.255776E-05,-0.5026153,9.125321E-08,NaN,NaN,0.3126073,-2.468014E-10,1.451753E-06,-1.102012E-07,-2.674271E-09,-2.622604E-08
817.5278,-1.026179,9.013977E-10,NaN,-0.9755409,-1.323766E-07,NaN,0.2002989,-5.121095E-07,NaN,-0.8695647,2.255816E-05,-0.4951158,9.144946E-08,NaN,NaN,0.3077568,-2.374882E-10,1.409434E-06,-1.102027E-07,-2.900855E-10,-2.861022E-08
817.5428,-1.021916,9.020533E-10,NaN,-0.9714182,-1.323771E-07,NaN,0.2009566,-5.091602E-07,NaN,-0.8658025,2.255856E-05,-0.4877507,8.860272E-08,NaN,NaN,0.3030013,-2.328316E-10,1.366519E-06,-1.10205E-07,9.020074E-10,-2.622604E-08
817.5565,-1.021916,9.020533E-10,NaN,-0.9714182,-1.323771E-07,NaN,0.2009566,-5.091602E-07,NaN,-0.8658025,2.255856E-05,-0.4877507,8.860272E-08,NaN,NaN,0.3030013,-2.328316E-10,1.366519E-06,-1.10205E-07,9.020074E-10,-2.622604E-08
817.5702,-1.018005,9.027086E-10,NaN,-0.9675291,-1.323777E-07,NaN,0.2021757,-5.062109E-07,NaN,-0.8621056,2.255897E-05,-0.4810066,8.583499E-08,NaN,NaN,0.298159,-2.374882E-10,1.322113E-06,-1.102076E-07,-2.900855E-10,-2.861022E-08
817.5855,-1.014304,9.033653E-10,NaN,-0.9637879,-1.323785E-07,NaN,0.2035192,-5.06089E-07,NaN,-0.8585862,2.255937E-05,-0.4745624,8.585869E-08,NaN,NaN,0.2934119,-2.28175E-10,1.28039E-06,-1.102094E-07,9.020074E-10,-2.622604E-08
817.6003,-1.010736,9.040223E-10,NaN,-0.9601469,-1.323793E-07,NaN,0.2048534,-5.06633E-07,NaN,-0.8551958,2.255977E-05,-0.4682842,8.651954E-08,NaN,NaN,0.288758,-2.235184E-10,1.242839E-06,-1.102111E-07,2.0941E-09,-2.861022E-08
817.6148,-1.010736,9.040223E-10,NaN,-0.9601469,-1.323793E-07,NaN,0.2048534,-5.06633E-07,NaN,-0.8551958,2.255977E-05,-0.4682842,8.651954E-08,NaN,NaN,0.288758,-2.235184E-10,1.242839E-06,-1.102111E-07,2.0941E-09,-2.861022E-08
817.6288,-1.007535,9.046782E-10,NaN,-0.956752,-1.323797E-07,NaN,0.2067401,-5.036268E-07,NaN,-0.851878,2.256017E-05,-0.4626273,8.371368E-08,NaN,NaN,0.2840152,-2.188618E-10,1.200222E-06,-1.10214E-07,3.286193E-09,-2.622604E-08
817.6441,-1.004549,9.05335E-10,NaN,-0.9535122,-1.323805E-07,NaN,0.2087341,-5.035368E-07,NaN,-0.8487416,2.256058E-05,-0.4572542,8.378447E-08,NaN,NaN,0.2793658,-2.142052E-10,1.165651E-06,-1.102158E-07,3.286193E-09,-2.861022E-08
817.6588,-1.004549,9.05335E-10,NaN,-0.9535122,-1.323805E-07,NaN,0.2087341,-5.035368E-07,NaN,-0.8487416,2.256058E-05,-0.4572542,8.378447E-08,NaN,NaN,0.2793658,-2.142052E-10,1.165651E-06,-1.102158E-07,3.286193E-09,-2.861022E-08
817.673,-1.001697,9.059922E-10,NaN,-0.9503759,-1.323813E-07,NaN,0.2107009,-5.041178E-07,NaN,-0.8457344,2.256098E-05,-0.4520259,8.449431E-08,NaN,NaN,0.2748076,-2.048919E-10,1.13406E-06,-1.102175E-07,3.286193E-09,-2.622604E-08
817.6885,-0.9989344,9.066494E-10,NaN,-0.9473132,-1.323821E-07,NaN,0.2126083,-5.047442E-07,NaN,-0.8428265,2.256139E-05,-0.4468906,8.522404E-08,NaN,NaN,0.2703388,-2.048919E-10,1.10247E-06,-1.10219E-07,3.286193E-09,-2.861022E-08
817.7032,-0.9965093,9.073068E-10,NaN,-0.94448,-1.323828E-07,NaN,0.215057,-5.053964E-07,NaN,-0.8399692,2.25618E-05,-0.442347,8.595917E-08,NaN,NaN,0.2657776,-2.048919E-10,1.061939E-06,-1.102205E-07,5.670379E-09,-2.622604E-08
817.7179,-0.9965093,9.073068E-10,NaN,-0.94448,-1.323828E-07,NaN,0.215057,-5.053964E-07,NaN,-0.8399692,2.25618E-05,-0.442347,8.595917E-08,NaN,NaN,0.2657776,-2.048919E-10,1.061939E-06,-1.102205E-07,5.670379E-09,-2.622604E-08
817.7316,-0.9942831,9.079642E-10,NaN,-0.941792,-1.323834E-07,NaN,0.2176126,-5.060618E-07,NaN,-0.8372784,2.256221E-05,-0.4380678,8.669112E-08,NaN,NaN,0.261306,-2.048919E-10,1.031838E-06,-1.10222E-07,5.670379E-09,-2.861022E-08
817.7472,-0.9921792,9.086205E-10,NaN,-0.9392008,-1.323837E-07,NaN,0.2201394,-5.031716E-07,NaN,-0.8347056,2.256261E-05,-0.4339167,8.395416E-08,NaN,NaN,0.2569223,-2.002353E-10,1.00144E-06,-1.102248E-07,6.862471E-09,-2.622604E-08
817.7618,-0.9901544,9.092775E-10,NaN,-0.9366779,-1.323844E-07,NaN,0.2226028,-5.031539E-07,NaN,-0.8322229,2.256301E-05,-0.4298425,8.405944E-08,NaN,NaN,0.2526246,-2.002353E-10,9.722338E-07,-1.102265E-07,4.478286E-09,-2.861022E-08
817.7766,-0.9901544,9.092775E-10,NaN,-0.9366779,-1.323844E-07,NaN,0.2226028,-5.031539E-07,NaN,-0.8322229,2.256301E-05,-0.4298425,8.405944E-08,NaN,NaN,0.2526246,-2.002353E-10,9.722338E-07,-1.102265E-07,4.478286E-09,-2.861022E-08
817.7925,-0.9884574,9.09935E-10,NaN,-0.9343794,-1.323852E-07,NaN,0.2256041,-5.037876E-07,NaN,-0.8297822,2.256341E-05,-0.4263502,8.479181E-08,NaN,NaN,0.2482311,-1.955787E-10,9.36173E-07,-1.102281E-07,6.862471E-09,-2.622604E-08
817.8068,-0.9869527,9.105921E-10,NaN,-0.9322228,-1.323855E-07,NaN,0.2287069,-5.008678E-07,NaN,-0.8275012,2.256382E-05,-0.423107,8.205448E-08,NaN,NaN,0.243924,-2.002353E-10,9.081588E-07,-1.102309E-07,9.246657E-09,-2.861022E-08
817.8209,-0.9855638,9.112486E-10,NaN,-0.9301597,-1.323863E-07,NaN,0.2317729,-5.004341E-07,NaN,-0.8253321,2.256422E-05,-0.4199744,8.176727E-08,NaN,NaN,0.2397015,-1.955787E-10,8.828268E-07,-1.102327E-07,1.043875E-08,-2.622604E-08
817.8351,-0.9855638,9.112486E-10,NaN,-0.9301597,-1.323863E-07,NaN,0.2317729,-5.004341E-07,NaN,-0.8253321,2.256422E-05,-0.4199744,8.176727E-08,NaN,NaN,0.2397015,-1.955787E-10,8.828268E-07,-1.102327E-07,1.043875E-08,-2.622604E-08
817.8493,-0.9845197,9.119048E-10,NaN,-0.9283344,-1.323871E-07,NaN,0.2353692,-5.001084E-07,NaN,-0.8232158,2.256463E-05,-0.4174252,8.1559E-08,NaN,NaN,0.2353817,-2.002353E-10,8.518324E-07,-1.102342E-07,9.246657E-09,-2.861022E-08
817.8643,-0.9836759,9.125608E-10,NaN,-0.9266583,-1.323878E-07,NaN,0.2390495,-5.004053E-07,NaN,-0.8212647,2.256503E-05,-0.4151096,8.195013E-08,NaN,NaN,0.231147,-2.002353E-10,8.270965E-07,-1.102357E-07,4.478285E-09,-2.622604E-08
817.8792,-0.9836759,9.125608E-10,NaN,-0.9266583,-1.323878E-07,NaN,0.2390495,-5.004053E-07,NaN,-0.8212647,2.256503E-05,-0.4151096,8.195013E-08,NaN,NaN,0.231147,-2.002353E-10,8.270965E-07,-1.102357E-07,4.478285E-09,-2.622604E-08
817.8931,-0.9829504,9.132169E-10,NaN,-0.925079,-1.323885E-07,NaN,0.2426744,-5.007329E-07,NaN,-0.8194272,2.256543E-05,-0.4128844,8.235329E-08,NaN,NaN,0.2269955,-2.048919E-10,8.053408E-07,-1.102372E-07,5.670378E-09,-2.861022E-08
817.9086,-0.9822962,9.138731E-10,NaN,-0.9235649,-1.323891E-07,NaN,0.2462105,-5.010787E-07,NaN,-0.8176735,2.256583E-05,-0.410698,8.275978E-08,NaN,NaN,0.2229254,-2.048919E-10,7.856713E-07,-1.102386E-07,6.862471E-09,-2.622604E-08
817.9232,-0.9819573,9.145293E-10,NaN,-0.9222698,-1.323898E-07,NaN,0.2502666,-5.014368E-07,NaN,-0.8159548,2.256624E-05,-0.4090682,8.316673E-08,NaN,NaN,0.218755,-2.095485E-10,7.558689E-07,-1.1024E-07,7.458517E-09,-2.861022E-08
817.9379,-0.9819573,9.145293E-10,NaN,-0.9222698,-1.323898E-07,NaN,0.2502666,-5.014368E-07,NaN,-0.8159548,2.256624E-05,-0.4090682,8.316673E-08,NaN,NaN,0.218755,-2.095485E-10,7.558689E-07,-1.1024E-07,7.458517E-09,-2.861022E-08
817.952,-0.9818006,9.151862E-10,NaN,-0.9211121,-1.3239E-07,NaN,0.2544053,-4.986433E-07,NaN,-0.8143884,2.256663E-05,-0.4076545,8.051101E-08,NaN,NaN,0.2146667,-2.048919E-10,7.326231E-07,-1.102427E-07,5.670378E-09,-2.622604E-08
817.9673,-0.9817497,9.158424E-10,NaN,-0.9200428,-1.323908E-07,NaN,0.2584871,-4.98312E-07,NaN,-0.8129256,2.256703E-05,-0.4063165,8.029042E-08,NaN,NaN,0.2106587,-2.048919E-10,7.123575E-07,-1.102444E-07,5.074332E-09,-2.861022E-08
817.9821,-0.9817582,9.164984E-10,NaN,-0.9190319,-1.323915E-07,NaN,0.2624754,-4.980717E-07,NaN,-0.8115395,2.256743E-05,-0.4050035,8.0139E-08,NaN,NaN,0.2067294,-2.002353E-10,6.944761E-07,-1.102459E-07,4.478285E-09,-2.622604E-08
817.9967,-0.9817582,9.164984E-10,NaN,-0.9190319,-1.323915E-07,NaN,0.2624754,-4.980717E-07,NaN,-0.8115395,2.256743E-05,-0.4050035,8.0139E-08,NaN,NaN,0.2067294,-2.002353E-10,6.944761E-07,-1.102459E-07,4.478285E-09,-2.622604E-08
818.0107,-0.9820723,9.171544E-10,NaN,-0.9182341,-1.323922E-07,NaN,0.2669824,-4.978773E-07,NaN,-0.8101832,2.256783E-05,-0.4042397,8.001589E-08,NaN,NaN,0.202697,-2.002353E-10,6.706343E-07,-1.102474E-07,9.020067E-10,-2.861022E-08
818.0275,-0.9825618,9.178103E-10,NaN,-0.9175718,-1.323928E-07,NaN,0.2715673,-4.982777E-07,NaN,-0.8089742,2.256823E-05,-0.4036803,8.047358E-08,NaN,NaN,0.1987441,-1.909221E-10,6.515608E-07,-1.102488E-07,1.498053E-09,-2.622604E-08
818.0406,-0.9831508,9.184664E-10,NaN,-0.9169964,-1.323935E-07,NaN,0.2760879,-4.986916E-07,NaN,-0.8078638,2.256865E-05,-0.4031821,8.093353E-08,NaN,NaN,0.1948688,-2.002353E-10,6.366596E-07,-1.102502E-07,-1.482179E-09,-2.861022E-08
818.0574,-0.9831508,9.184664E-10,NaN,-0.9169964,-1.323935E-07,NaN,0.2760879,-4.986916E-07,NaN,-0.8078638,2.256865E-05,-0.4031821,8.093353E-08,NaN,NaN,0.1948688,-2.002353E-10,6.366596E-07,-1.102502E-07,-1.482179E-09,-2.861022E-08
818.0715,-0.9840649,9.191226E-10,NaN,-0.9166497,-1.323941E-07,NaN,0.2811207,-4.99111E-07,NaN,-0.8067966,2.256906E-05,-0.4032362,8.139006E-08,NaN,NaN,0.1908894,-1.955787E-10,6.15202E-07,-1.102516E-07,3.059604E-10,-2.622604E-08
818.0847,-0.9851645,9.197789E-10,NaN,-0.9164449,-1.323947E-07,NaN,0.2862122,-4.995342E-07,NaN,-0.8058825,2.256947E-05,-0.4034773,8.184323E-08,NaN,NaN,0.1869885,-1.955787E-10,6.02089E-07,-1.102529E-07,-2.900861E-10,-2.861022E-08
818.0994,-0.9851645,9.197789E-10,NaN,-0.9164449,-1.323947E-07,NaN,0.2862122,-4.995342E-07,NaN,-0.8058825,2.256947E-05,-0.4034773,8.184323E-08,NaN,NaN,0.1869885,-1.955787E-10,6.02089E-07,-1.102529E-07,-2.900861E-10,-2.861022E-08
818.1132,-0.9863673,9.204355E-10,NaN,-0.9163278,-1.323953E-07,NaN,0.2912199,-4.999571E-07,NaN,-0.805069,2.256988E-05,-0.4037585,8.229028E-08,NaN,NaN,0.1831642,-1.955787E-10,5.853997E-07,-1.102543E-07,4.478285E-09,-2.622604E-08
818.1285,-0.9876246,9.210923E-10,NaN,-0.9162646,-1.323959E-07,NaN,0.2961103,-5.003785E-07,NaN,-0.8043267,2.257029E-05,-0.4040296,8.273134E-08,NaN,NaN,0.1794149,-2.002353E-10,5.722866E-07,-1.102556E-07,3.882239E-09,-2.861022E-08
818.1432,-0.9891777,9.217491E-10,NaN,-0.9164054,-1.323965E-07,NaN,0.3015037,-5.002335E-07,NaN,-0.8036122,2.25707E-05,-0.404827,8.260221E-08,NaN,NaN,0.175559,-2.002353E-10,5.544052E-07,-1.10257E-07,2.690146E-09,-2.622604E-08
818.1579,-0.9891777,9.217491E-10,NaN,-0.9164054,-1.323965E-07,NaN,0.3015037,-5.002335E-07,NaN,-0.8036122,2.25707E-05,-0.404827,8.260221E-08,NaN,NaN,0.175559,-2.002353E-10,5.544052E-07,-1.10257E-07,2.690146E-09,-2.622604E-08
818.1719,-0.9908954,9.22406E-10,NaN,-0.9166703,-1.32397E-07,NaN,0.3069524,-5.000938E-07,NaN,-0.8030399,2.257111E-05,-0.4057942,8.247557E-08,NaN,NaN,0.1717791,-2.095486E-10,5.401001E-07,-1.102583E-07,3.882239E-09,-2.861022E-08
818.1874,-0.9926991,9.230631E-10,NaN,-0.9170091,-1.323976E-07,NaN,0.3123138,-4.99959E-07,NaN,-0.8025603,2.257151E-05,-0.4067875,8.235136E-08,NaN,NaN,0.1680735,-2.04892E-10,5.311595E-07,-1.102597E-07,5.074332E-09,-2.622604E-08
818.2019,-0.9945427,9.237201E-10,NaN,-0.9173907,-1.323982E-07,NaN,0.3175534,-4.998313E-07,NaN,-0.8021456,2.257192E-05,-0.4077581,8.223237E-08,NaN,NaN,0.1644405,-2.142052E-10,5.192385E-07,-1.10261E-07,3.882239E-09,-2.861022E-08
818.2172,-0.9945427,9.237201E-10,NaN,-0.9173907,-1.323982E-07,NaN,0.3175534,-4.998313E-07,NaN,-0.8021456,2.257192E-05,-0.4077581,8.223237E-08,NaN,NaN,0.1644405,-2.142052E-10,5.192385E-07,-1.10261E-07,3.882239E-09,-2.861022E-08
818.2307,-0.9966699,9.243771E-10,NaN,-0.9179693,-1.323988E-07,NaN,0.3232965,-4.997073E-07,NaN,-0.8017572,2.257232E-05,-0.4092517,8.211565E-08,NaN,NaN,0.1606988,-2.188618E-10,5.037413E-07,-1.102624E-07,5.074332E-09,-2.622604E-08
818.2462,-0.998949,9.250342E-10,NaN,-0.9186633,-1.323994E-07,NaN,0.3290852,-4.995896E-07,NaN,-0.8015074,2.257273E-05,-0.4108999,8.200401E-08,NaN,NaN,0.1570308,-2.328316E-10,4.953966E-07,-1.102637E-07,3.286193E-09,-2.861022E-08
818.2606,-1.001303,9.256912E-10,NaN,-0.9194233,-1.324E-07,NaN,0.3347774,-4.99475E-07,NaN,-0.8013462,2.257313E-05,-0.4125589,8.189451E-08,NaN,NaN,0.1534348,-2.328316E-10,4.858599E-07,-1.102651E-07,4.478285E-09,-2.622604E-08
818.2756,-1.001303,9.256912E-10,NaN,-0.9194233,-1.324E-07,NaN,0.3347774,-4.99475E-07,NaN,-0.8013462,2.257313E-05,-0.4125589,8.189451E-08,NaN,NaN,0.1534348,-2.328316E-10,4.858599E-07,-1.102651E-07,4.478285E-09,-2.622604E-08
818.2896,-1.003958,9.263483E-10,NaN,-0.9203919,-1.324006E-07,NaN,0.3409669,-4.993661E-07,NaN,-0.8012261,2.257353E-05,-0.4147429,8.178992E-08,NaN,NaN,0.1497293,-2.421448E-10,4.685746E-07,-1.102664E-07,5.670378E-09,-2.861022E-08
818.305,-1.006771,9.270055E-10,NaN,-0.92148,-1.324012E-07,NaN,0.3471812,-4.992626E-07,NaN,-0.8012518,2.257393E-05,-0.4170646,8.169017E-08,NaN,NaN,0.1460969,-2.421448E-10,4.584418E-07,-1.102677E-07,6.266424E-09,-2.622604E-08
818.3196,-1.006771,9.270055E-10,NaN,-0.92148,-1.324012E-07,NaN,0.3471812,-4.992626E-07,NaN,-0.8012518,2.257393E-05,-0.4170646,8.169017E-08,NaN,NaN,0.1460969,-2.421448E-10,4.584418E-07,-1.102677E-07,6.266424E-09,-2.622604E-08
818.3355,-1.009659,9.276627E-10,NaN,-0.922634,-1.324018E-07,NaN,0.3532791,-4.991616E-07,NaN,-0.8013687,2.257434E-05,-0.419377,8.159232E-08,NaN,NaN,0.1425359,-2.51458E-10,4.500971E-07,-1.102691E-07,6.862471E-09,-2.861022E-08
818.35,-1.012574,9.283197E-10,NaN,-0.9238217,-1.324024E-07,NaN,0.3592316,-4.990656E-07,NaN,-0.8015466,2.257473E-05,-0.4216347,8.149917E-08,NaN,NaN,0.1390446,-2.421448E-10,4.423485E-07,-1.102704E-07,5.670378E-09,-2.622604E-08
818.3635,-1.015761,9.289762E-10,NaN,-0.9251968,-1.32403E-07,NaN,0.3656771,-4.994182E-07,NaN,-0.8017526,2.257513E-05,-0.4243993,8.185428E-08,NaN,NaN,0.1354418,-2.421448E-10,4.286395E-07,-1.102717E-07,6.862471E-09,-2.861022E-08
818.3781,-1.015761,9.289762E-10,NaN,-0.9251968,-1.32403E-07,NaN,0.3656771,-4.994182E-07,NaN,-0.8017526,2.257513E-05,-0.4243993,8.185428E-08,NaN,NaN,0.1354418,-2.421448E-10,4.286395E-07,-1.102717E-07,6.862471E-09,-2.861022E-08
818.392,-1.019084,9.296328E-10,NaN,-0.9266757,-1.324036E-07,NaN,0.3721453,-4.997669E-07,NaN,-0.8020934,2.257552E-05,-0.4272874,8.220521E-08,NaN,NaN,0.13191,-2.328316E-10,4.208908E-07,-1.10273E-07,9.246657E-09,-2.622604E-08
818.4073,-1.022467,9.302895E-10,NaN,-0.9282088,-1.324042E-07,NaN,0.3784961,-5.001089E-07,NaN,-0.8025168,2.257591E-05,-0.4301555,8.254921E-08,NaN,NaN,0.1284476,-2.235184E-10,4.149304E-07,-1.102743E-07,8.054564E-09,-2.861022E-08
818.4219,-1.025866,9.30946E-10,NaN,-0.9297667,-1.324048E-07,NaN,0.3846997,-5.00447E-07,NaN,-0.8029943,2.25763E-05,-0.4329597,8.288923E-08,NaN,NaN,0.1250531,-2.142052E-10,4.113541E-07,-1.102756E-07,9.246657E-09,-2.622604E-08
818.4368,-1.025866,9.30946E-10,NaN,-0.9297667,-1.324048E-07,NaN,0.3846997,-5.00447E-07,NaN,-0.8029943,2.25763E-05,-0.4329597,8.288923E-08,NaN,NaN,0.1250531,-2.142052E-10,4.113541E-07,-1.102756E-07,9.246657E-09,-2.622604E-08
818.4507,-1.029528,9.316026E-10,NaN,-0.9315048,-1.324053E-07,NaN,0.3913992,-5.007814E-07,NaN,-0.803499,2.25767E-05,-0.436269,8.322537E-08,NaN,NaN,0.1215451,-2.095485E-10,3.994332E-07,-1.102769E-07,8.65061E-09,-2.861022E-08
818.466,-1.033318,9.322596E-10,NaN,-0.9333398,-1.324057E-07,NaN,0.3981141,-4.980275E-07,NaN,-0.8041346,2.25771E-05,-0.4396899,8.057132E-08,NaN,NaN,0.1181063,-2.095485E-10,3.910885E-07,-1.102776E-07,8.054563E-09,-2.622604E-08
818.4805,-1.037161,9.329161E-10,NaN,-0.9352228,-1.32406E-07,NaN,0.4047041,-4.98385E-07,NaN,-0.8048486,2.257749E-05,-0.4430779,8.100923E-08,NaN,NaN,0.1147351,-2.048919E-10,3.851281E-07,-1.102788E-07,6.266424E-09,-2.861022E-08
818.4953,-1.037161,9.329161E-10,NaN,-0.9352228,-1.32406E-07,NaN,0.4047041,-4.98385E-07,NaN,-0.8048486,2.257749E-05,-0.4430779,8.100923E-08,NaN,NaN,0.1147351,-2.048919E-10,3.851281E-07,-1.102788E-07,6.266424E-09,-2.861022E-08
818.5108,-1.041284,9.335723E-10,NaN,-0.9372978,-1.324064E-07,NaN,0.4117824,-4.987356E-07,NaN,-0.8056059,2.257789E-05,-0.4469719,8.14244E-08,NaN,NaN,0.1112499,-1.955787E-10,3.743993E-07,-1.102801E-07,7.458516E-09,-2.622604E-08
818.5247,-1.045544,9.342286E-10,NaN,-0.939474,-1.32407E-07,NaN,0.4188546,-4.990794E-07,NaN,-0.8065012,2.25783E-05,-0.4509597,8.18201E-08,NaN,NaN,0.1078335,-2.002353E-10,3.696309E-07,-1.102813E-07,8.054563E-09,-2.861022E-08
818.5396,-1.045544,9.342286E-10,NaN,-0.939474,-1.32407E-07,NaN,0.4188546,-4.990794E-07,NaN,-0.8065012,2.25783E-05,-0.4509597,8.18201E-08,NaN,NaN,0.1078335,-2.002353E-10,3.696309E-07,-1.102813E-07,8.054563E-09,-2.861022E-08
818.5535,-1.049855,9.348851E-10,NaN,-0.9416984,-1.324075E-07,NaN,0.4257824,-4.994171E-07,NaN,-0.8074771,2.25787E-05,-0.4548956,8.219952E-08,NaN,NaN,0.1044842,-1.862655E-10,3.690348E-07,-1.102825E-07,5.670378E-09,-2.622604E-08
818.5689,-1.054174,9.355416E-10,NaN,-0.9439405,-1.32408E-07,NaN,0.4325413,-4.997497E-07,NaN,-0.808503,2.25791E-05,-0.4587392,8.25658E-08,NaN,NaN,0.1012006,-1.816089E-10,3.669487E-07,-1.102838E-07,6.862471E-09,-2.861022E-08
818.5835,-1.058747,9.361983E-10,NaN,-0.9463553,-1.324086E-07,NaN,0.4397885,-5.000816E-07,NaN,-0.8095606,2.257951E-05,-0.4630756,8.292486E-08,NaN,NaN,0.09780129,-1.769523E-10,3.571139E-07,-1.102851E-07,6.862471E-09,-2.622604E-08
818.5981,-1.058747,9.361983E-10,NaN,-0.9463553,-1.324086E-07,NaN,0.4397885,-5.000816E-07,NaN,-0.8095606,2.257951E-05,-0.4630756,8.292486E-08,NaN,NaN,0.09780129,-1.769523E-10,3.571139E-07,-1.102851E-07,6.862471E-09,-2.622604E-08
818.6142,-1.063437,9.368551E-10,NaN,-0.9488575,-1.324092E-07,NaN,0.4470289,-5.004116E-07,NaN,-0.8107453,2.257992E-05,-0.4674949,8.327683E-08,NaN,NaN,0.09446909,-1.722956E-10,3.532396E-07,-1.102863E-07,8.054563E-09,-2.861022E-08
818.6284,-1.068166,9.375124E-10,NaN,-0.9513981,-1.324095E-07,NaN,0.454125,-4.976507E-07,NaN,-0.8120022,2.258034E-05,-0.4718538,8.063107E-08,NaN,NaN,0.09120234,-1.722956E-10,3.499614E-07,-1.10287E-07,7.458516E-09,-2.622604E-08
818.6422,-1.072893,9.381692E-10,NaN,-0.9539489,-1.324098E-07,NaN,0.4610516,-4.980085E-07,NaN,-0.8133022,2.258075E-05,-0.4761131,8.108152E-08,NaN,NaN,0.08799966,-1.67639E-10,3.460871E-07,-1.102881E-07,6.266424E-09,-2.861022E-08
818.6569,-1.072893,9.381692E-10,NaN,-0.9539489,-1.324098E-07,NaN,0.4610516,-4.980085E-07,NaN,-0.8133022,2.258075E-05,-0.4761131,8.108152E-08,NaN,NaN,0.08799966,-1.67639E-10,3.460871E-07,-1.102881E-07,6.266424E-09,-2.861022E-08
818.6707,-1.077868,9.388259E-10,NaN,-0.9566668,-1.324102E-07,NaN,0.4684704,-4.983616E-07,NaN,-0.8146346,2.258115E-05,-0.4808654,8.150899E-08,NaN,NaN,0.0846797,-1.583258E-10,3.377424E-07,-1.102893E-07,3.882238E-09,-2.622604E-08
818.686,-1.082953,9.394826E-10,NaN,-0.9594665,-1.324107E-07,NaN,0.4758756,-4.987096E-07,NaN,-0.8160903,2.258157E-05,-0.4856895,8.191673E-08,NaN,NaN,0.0814253,-1.583258E-10,3.3208E-07,-1.102905E-07,4.478284E-09,-2.861022E-08
818.7007,-1.088071,9.401396E-10,NaN,-0.9622995,-1.324113E-07,NaN,0.4831298,-4.9905E-07,NaN,-0.8176138,2.258197E-05,-0.4904419,8.230514E-08,NaN,NaN,0.07823484,-1.536692E-10,3.302918E-07,-1.102917E-07,3.882238E-09,-2.622604E-08
818.7154,-1.088071,9.401396E-10,NaN,-0.9622995,-1.324113E-07,NaN,0.4831298,-4.9905E-07,NaN,-0.8176138,2.258197E-05,-0.4904419,8.230514E-08,NaN,NaN,0.07823484,-1.536692E-10,3.302918E-07,-1.102917E-07,3.882238E-09,-2.622604E-08
818.7295,-1.093456,9.407968E-10,NaN,-0.9653111,-1.324118E-07,NaN,0.4908669,-4.993892E-07,NaN,-0.8191866,2.258239E-05,-0.4956862,8.268307E-08,NaN,NaN,0.07492686,-1.536692E-10,3.207551E-07,-1.10293E-07,7.458516E-09,-2.861022E-08
818.7445,-1.098958,9.41454E-10,NaN,-0.9684086,-1.324124E-07,NaN,0.4985684,-4.997257E-07,NaN,-0.8208891,2.25828E-05,-0.5009841,8.305071E-08,NaN,NaN,0.07168422,-1.490126E-10,3.180729E-07,-1.102942E-07,6.86247E-09,-2.622604E-08
818.7592,-1.098958,9.41454E-10,NaN,-0.9684086,-1.324124E-07,NaN,0.4985684,-4.997257E-07,NaN,-0.8208891,2.25828E-05,-0.5009841,8.305071E-08,NaN,NaN,0.07168422,-1.490126E-10,3.180729E-07,-1.102942E-07,6.86247E-09,-2.622604E-08
818.7733,-1.104494,9.421114E-10,NaN,-0.9715398,-1.324129E-07,NaN,0.5061001,-5.000609E-07,NaN,-0.8226611,2.258322E-05,-0.5061919,8.341109E-08,NaN,NaN,0.06850527,-1.44356E-10,3.165828E-07,-1.102954E-07,7.458516E-09,-2.861022E-08
818.7888,-1.110019,9.427694E-10,NaN,-0.9746754,-1.324132E-07,NaN,0.5134429,-4.973052E-07,NaN,-0.8244717,2.258364E-05,-0.511275,8.077223E-08,NaN,NaN,0.06538867,-1.490126E-10,3.150926E-07,-1.10296E-07,6.86247E-09,-2.622604E-08
818.8035,-1.115787,9.43427E-10,NaN,-0.9779721,-1.324135E-07,NaN,0.5212724,-4.976726E-07,NaN,-0.8263211,2.258406E-05,-0.5168419,8.123362E-08,NaN,NaN,0.06215307,-1.44356E-10,3.043638E-07,-1.102972E-07,5.670377E-09,-2.861022E-08
818.8182,-1.115787,9.43427E-10,NaN,-0.9779721,-1.324135E-07,NaN,0.5212724,-4.976726E-07,NaN,-0.8263211,2.258406E-05,-0.5168419,8.123362E-08,NaN,NaN,0.06215307,-1.44356E-10,3.043638E-07,-1.102972E-07,5.670377E-09,-2.861022E-08
818.8322,-1.121655,9.440845E-10,NaN,-0.9813426,-1.324139E-07,NaN,0.529067,-4.980354E-07,NaN,-0.8282895,2.258447E-05,-0.5224537,8.167179E-08,NaN,NaN,0.05898141,-1.396994E-10,3.028737E-07,-1.102984E-07,6.266423E-09,-2.622604E-08
818.8474,-1.127546,9.447422E-10,NaN,-0.9847381,-1.324144E-07,NaN,0.5366932,-4.983902E-07,NaN,-0.8303191,2.258488E-05,-0.5279691,8.208722E-08,NaN,NaN,0.05587205,-1.396994E-10,3.025757E-07,-1.102995E-07,5.07433E-09,-2.861022E-08
818.8621,-1.133417,9.454001E-10,NaN,-0.9881319,-1.324149E-07,NaN,0.5441312,-4.987403E-07,NaN,-0.8323805,2.25853E-05,-0.5333545,8.248599E-08,NaN,NaN,0.05282368,-1.396994E-10,3.004895E-07,-1.103007E-07,5.07433E-09,-2.622604E-08
818.8766,-1.133417,9.454001E-10,NaN,-0.9881319,-1.324149E-07,NaN,0.5441312,-4.987403E-07,NaN,-0.8323805,2.25853E-05,-0.5333545,8.248599E-08,NaN,NaN,0.05282368,-1.396994E-10,3.004895E-07,-1.103007E-07,5.07433E-09,-2.622604E-08
818.8928,-1.139526,9.460581E-10,NaN,-0.9916822,-1.324155E-07,NaN,0.5520604,-4.990864E-07,NaN,-0.8344826,2.258571E-05,-0.5392252,8.287124E-08,NaN,NaN,0.04965496,-1.350428E-10,2.921449E-07,-1.103019E-07,6.86247E-09,-2.861022E-08
818.9069,-1.145729,9.467164E-10,NaN,-0.9953015,-1.32416E-07,NaN,0.5599481,-4.994325E-07,NaN,-0.8366998,2.258613E-05,-0.5451305,8.324889E-08,NaN,NaN,0.04654888,-1.303862E-10,2.930389E-07,-1.103031E-07,8.650609E-09,-2.622604E-08
818.9207,-1.15195,9.473752E-10,NaN,-0.9989417,-1.324163E-07,NaN,0.5676619,-4.966852E-07,NaN,-0.8389735,2.258656E-05,-0.5509295,8.062273E-08,NaN,NaN,0.04350382,-1.396994E-10,2.906548E-07,-1.103037E-07,7.458516E-09,-2.861022E-08
818.9354,-1.15195,9.473752E-10,NaN,-0.9989417,-1.324163E-07,NaN,0.5676619,-4.966852E-07,NaN,-0.8389735,2.258656E-05,-0.5509295,8.062273E-08,NaN,NaN,0.04350382,-1.396994E-10,2.906548E-07,-1.103037E-07,7.458516E-09,-2.861022E-08
818.9493,-1.158427,9.480335E-10,NaN,-1.002749,-1.324166E-07,NaN,0.575856,-4.970632E-07,NaN,-0.8413052,2.258697E-05,-0.5572108,8.109797E-08,NaN,NaN,0.04033838,-1.350428E-10,2.832042E-07,-1.103048E-07,6.86247E-09,-2.622604E-08
818.9647,-1.165004,9.486918E-10,NaN,-1.00663,-1.32417E-07,NaN,0.5839864,-4.974369E-07,NaN,-0.8437575,2.258739E-05,-0.563508,8.154973E-08,NaN,NaN,0.03723551,-1.350428E-10,2.820121E-07,-1.103059E-07,8.650609E-09,-2.861022E-08
818.9791,-1.165004,9.486918E-10,NaN,-1.00663,-1.32417E-07,NaN,0.5839864,-4.974369E-07,NaN,-0.8437575,2.258739E-05,-0.563508,8.154973E-08,NaN,NaN,0.03723551,-1.350428E-10,2.820121E-07,-1.103059E-07,8.650609E-09,-2.861022E-08
818.9946,-1.1716,9.4935E-10,NaN,-1.010532,-1.324175E-07,NaN,0.5919252,-4.978029E-07,NaN,-0.8462673,2.25878E-05,-0.5696815,8.197848E-08,NaN,NaN,0.03419358,-1.303862E-10,2.820121E-07,-1.103071E-07,1.043875E-08,-2.622604E-08
819.0085,-1.178169,9.500086E-10,NaN,-1.014428,-1.32418E-07,NaN,0.599659,-4.981643E-07,NaN,-0.8488035,2.258821E-05,-0.5757033,8.239031E-08,NaN,NaN,0.03121131,-1.303862E-10,2.823101E-07,-1.103082E-07,1.043875E-08,-2.861022E-08
819.0233,-1.184973,9.506674E-10,NaN,-1.018475,-1.324185E-07,NaN,0.6078799,-4.985218E-07,NaN,-0.8513884,2.258863E-05,-0.582204,8.278837E-08,NaN,NaN,0.02810739,-1.303862E-10,2.739655E-07,-1.103094E-07,1.222689E-08,-2.622604E-08
819.0379,-1.184973,9.506674E-10,NaN,-1.018475,-1.324185E-07,NaN,0.6078799,-4.985218E-07,NaN,-0.8513884,2.258863E-05,-0.582204,8.278837E-08,NaN,NaN,0.02810739,-1.303862E-10,2.739655E-07,-1.103094E-07,1.222689E-08,-2.622604E-08
819.0521,-1.191861,9.513264E-10,NaN,-1.022584,-1.32419E-07,NaN,0.6160393,-4.988764E-07,NaN,-0.8540834,2.258905E-05,-0.5887141,8.317575E-08,NaN,NaN,0.02506484,-1.350428E-10,2.733694E-07,-1.103106E-07,1.461107E-08,-2.861022E-08
819.0677,-1.198757,9.519859E-10,NaN,-1.026707,-1.324193E-07,NaN,0.6240097,-4.961384E-07,NaN,-0.8568276,2.258946E-05,-0.5950961,8.055888E-08,NaN,NaN,0.02208205,-1.350428E-10,2.727733E-07,-1.103111E-07,1.341898E-08,-2.622604E-08
819.0822,-1.20562,9.52645E-10,NaN,-1.030818,-1.324196E-07,NaN,0.6317769,-4.965284E-07,NaN,-0.8595914,2.258988E-05,-0.6013227,8.10463E-08,NaN,NaN,0.01915776,-1.396994E-10,2.703892E-07,-1.103122E-07,9.842702E-09,-2.861022E-08
819.0969,-1.20562,9.52645E-10,NaN,-1.030818,-1.324196E-07,NaN,0.6317769,-4.965284E-07,NaN,-0.8595914,2.258988E-05,-0.6013227,8.10463E-08,NaN,NaN,0.01915776,-1.396994E-10,2.703892E-07,-1.103122E-07,9.842702E-09,-2.861022E-08
819.1108,-1.212713,9.533039E-10,NaN,-1.035077,-1.3242E-07,NaN,0.6400363,-4.969139E-07,NaN,-0.8624068,2.259029E-05,-0.6080312,8.151001E-08,NaN,NaN,0.01611069,-1.350428E-10,2.626406E-07,-1.103133E-07,8.650609E-09,-2.622604E-08
819.1262,-1.219886,9.539628E-10,NaN,-1.039394,-1.324204E-07,NaN,0.6482279,-4.972916E-07,NaN,-0.8653281,2.259071E-05,-0.6147394,8.195047E-08,NaN,NaN,0.01312388,-1.396994E-10,2.623425E-07,-1.103144E-07,3.882238E-09,-2.861022E-08
819.1408,-1.227062,9.546222E-10,NaN,-1.043721,-1.324209E-07,NaN,0.6562264,-4.976644E-07,NaN,-0.8682937,2.259113E-05,-0.6213109,8.237377E-08,NaN,NaN,0.01019575,-1.396994E-10,2.620445E-07,-1.103156E-07,2.690145E-09,-2.622604E-08
819.1566,-1.227062,9.546222E-10,NaN,-1.043721,-1.324209E-07,NaN,0.6562264,-4.976644E-07,NaN,-0.8682937,2.259113E-05,-0.6213109,8.237377E-08,NaN,NaN,0.01019575,-1.396994E-10,2.620445E-07,-1.103156E-07,2.690145E-09,-2.622604E-08
819.1705,-1.234487,9.552816E-10,NaN,-1.048207,-1.324214E-07,NaN,0.6647045,-4.980331E-07,NaN,-0.8713278,2.259154E-05,-0.6283596,8.278309E-08,NaN,NaN,0.007144937,-1.350428E-10,2.5519E-07,-1.103167E-07,2.690145E-09,-2.861022E-08
819.185,-1.241998,9.559412E-10,NaN,-1.052754,-1.32422E-07,NaN,0.6730928,-4.983988E-07,NaN,-0.8744723,2.259196E-05,-0.6353888,8.31815E-08,NaN,NaN,0.004154452,-1.303862E-10,2.536999E-07,-1.103179E-07,-8.861338E-10,-2.622604E-08
819.1996,-1.241998,9.559412E-10,NaN,-1.052754,-1.32422E-07,NaN,0.6730928,-4.983988E-07,NaN,-0.8744723,2.259196E-05,-0.6353888,8.31815E-08,NaN,NaN,0.004154452,-1.303862E-10,2.536999E-07,-1.103179E-07,-8.861338E-10,-2.622604E-08
819.2134,-1.249512,9.566014E-10,NaN,-1.057312,-1.324222E-07,NaN,0.6812716,-4.956697E-07,NaN,-0.8776612,2.259238E-05,-0.6422656,8.057279E-08,NaN,NaN,0.001222695,-1.396994E-10,2.539979E-07,-1.103184E-07,2.690145E-09,-2.861022E-08
819.2285,-1.256986,9.57261E-10,NaN,-1.061854,-1.324225E-07,NaN,0.6892334,-4.960709E-07,NaN,-0.8808636,2.25928E-05,-0.6489691,8.107087E-08,NaN,NaN,-0.001651585,-1.350428E-10,2.522097E-07,-1.103195E-07,2.690145E-09,-2.622604E-08
819.2432,-1.264687,9.579207E-10,NaN,-1.06654,-1.324229E-07,NaN,0.6976844,-4.964674E-07,NaN,-0.8841263,2.259321E-05,-0.6561512,8.154503E-08,NaN,NaN,-0.004649609,-1.350428E-10,2.447591E-07,-1.103205E-07,5.07433E-09,-2.861022E-08
819.2579,-1.264687,9.579207E-10,NaN,-1.06654,-1.324229E-07,NaN,0.6976844,-4.964674E-07,NaN,-0.8841263,2.259321E-05,-0.6561512,8.154503E-08,NaN,NaN,-0.004649609,-1.350428E-10,2.447591E-07,-1.103205E-07,5.07433E-09,-2.861022E-08
819.2719,-1.272461,9.585804E-10,NaN,-1.071278,-1.324233E-07,NaN,0.7060487,-4.968529E-07,NaN,-0.8874891,2.259363E-05,-0.6633089,8.199291E-08,NaN,NaN,-0.007588341,-1.396994E-10,2.417789E-07,-1.103216E-07,7.458516E-09,-2.622604E-08
819.2874,-1.280229,9.592405E-10,NaN,-1.07602,-1.324238E-07,NaN,0.7142075,-4.972333E-07,NaN,-0.8908879,2.259405E-05,-0.6703113,8.242349E-08,NaN,NaN,-0.01046936,-1.44356E-10,2.411828E-07,-1.103227E-07,7.458516E-09,-2.861022E-08
819.3019,-1.28795,9.599006E-10,NaN,-1.080742,-1.324243E-07,NaN,0.7221523,-4.976093E-07,NaN,-0.8942936,2.259447E-05,-0.6771387,8.283993E-08,NaN,NaN,-0.01329389,-1.396994E-10,2.414809E-07,-1.103238E-07,8.650608E-09,-2.622604E-08
819.3168,-1.28795,9.599006E-10,NaN,-1.080742,-1.324243E-07,NaN,0.7221523,-4.976093E-07,NaN,-0.8942936,2.259447E-05,-0.6771387,8.283993E-08,NaN,NaN,-0.01329389,-1.396994E-10,2.414809E-07,-1.103238E-07,8.650608E-09,-2.622604E-08
819.3305,-1.295896,9.60561E-10,NaN,-1.085605,-1.324248E-07,NaN,0.7305914,-4.97985E-07,NaN,-0.8977633,2.259488E-05,-0.6844491,8.324816E-08,NaN,NaN,-0.01624312,-1.350428E-10,2.334342E-07,-1.10325E-07,6.266422E-09,-2.861022E-08
819.346,-1.303911,9.612219E-10,NaN,-1.090516,-1.324251E-07,NaN,0.7389382,-4.952632E-07,NaN,-0.9013285,2.25953E-05,-0.6917256,8.064587E-08,NaN,NaN,-0.01913402,-1.396994E-10,2.325402E-07,-1.103255E-07,8.650608E-09,-2.622604E-08
819.3605,-1.311914,9.618824E-10,NaN,-1.095429,-1.324253E-07,NaN,0.7470766,-4.956747E-07,NaN,-0.9049246,2.259573E-05,-0.6988401,8.115344E-08,NaN,NaN,-0.02196816,-1.44356E-10,2.30454E-07,-1.103265E-07,8.650608E-09,-2.861022E-08
819.3753,-1.311914,9.618824E-10,NaN,-1.095429,-1.324253E-07,NaN,0.7470766,-4.956747E-07,NaN,-0.9049246,2.259573E-05,-0.6988401,8.115344E-08,NaN,NaN,-0.02196816,-1.44356E-10,2.30454E-07,-1.103265E-07,8.650608E-09,-2.861022E-08
819.3896,-1.320161,9.625428E-10,NaN,-1.100492,-1.324257E-07,NaN,0.7556954,-4.960783E-07,NaN,-0.908601,2.259614E-05,-0.7064314,8.163408E-08,NaN,NaN,-0.02492679,-1.396994E-10,2.230034E-07,-1.103275E-07,9.842701E-09,-2.622604E-08
819.4048,-1.32848,9.632033E-10,NaN,-1.105608,-1.324262E-07,NaN,0.7642006,-4.964734E-07,NaN,-0.9123763,2.259656E-05,-0.7139699,8.209114E-08,NaN,NaN,-0.02782693,-1.44356E-10,2.209173E-07,-1.103286E-07,7.458516E-09,-2.861022E-08
819.4194,-1.32848,9.632033E-10,NaN,-1.105608,-1.324262E-07,NaN,0.7642006,-4.964734E-07,NaN,-0.9123763,2.259656E-05,-0.7139699,8.209114E-08,NaN,NaN,-0.02782693,-1.44356E-10,2.209173E-07,-1.103286E-07,7.458516E-09,-2.861022E-08
819.4354,-1.336789,9.638641E-10,NaN,-1.110725,-1.324266E-07,NaN,0.7724828,-4.968632E-07,NaN,-0.9161817,2.259697E-05,-0.7213325,8.253073E-08,NaN,NaN,-0.03067012,-1.396994E-10,2.203212E-07,-1.103297E-07,9.842701E-09,-2.622604E-08
819.4497,-1.345045,9.64525E-10,NaN,-1.115818,-1.324271E-07,NaN,0.7805403,-4.972483E-07,NaN,-0.9199868,2.259739E-05,-0.7285062,8.295599E-08,NaN,NaN,-0.03345758,-1.350428E-10,2.17639E-07,-1.103308E-07,9.842701E-09,-2.861022E-08
819.4633,-1.353525,9.65186E-10,NaN,-1.121049,-1.324276E-07,NaN,0.7890894,-4.976301E-07,NaN,-0.9238651,2.25978E-05,-0.7361627,8.337005E-08,NaN,NaN,-0.03637045,-1.303862E-10,2.086983E-07,-1.103319E-07,9.842701E-09,-2.622604E-08
819.4819,-1.362065,9.658476E-10,NaN,-1.126323,-1.324279E-07,NaN,0.7975288,-4.949144E-07,NaN,-0.9278321,2.259823E-05,-0.7437621,8.077299E-08,NaN,NaN,-0.03922573,-1.44356E-10,2.0542E-07,-1.103309E-07,1.341898E-08,-2.861022E-08
819.4952,-1.362065,9.658476E-10,NaN,-1.126323,-1.324279E-07,NaN,0.7975288,-4.949144E-07,NaN,-0.9278321,2.259823E-05,-0.7437621,8.077299E-08,NaN,NaN,-0.03922573,-1.44356E-10,2.0542E-07,-1.103309E-07,1.341898E-08,-2.861022E-08
819.5064,-1.370585,9.665088E-10,NaN,-1.131593,-1.324277E-07,NaN,0.8057504,-4.954846E-07,NaN,-0.9318211,2.259864E-05,-0.7511845,8.143854E-08,NaN,NaN,-0.04202495,-1.350428E-10,2.04824E-07,-1.103316E-07,1.103479E-08,-2.622604E-08
819.5217,-1.379048,9.671698E-10,NaN,-1.136837,-1.324279E-07,NaN,0.8137515,-4.959731E-07,NaN,-0.9358035,2.259904E-05,-0.758418,8.200352E-08,NaN,NaN,-0.04476929,-1.303862E-10,2.039299E-07,-1.103324E-07,1.222689E-08,-2.861022E-08
819.5365,-1.379048,9.671698E-10,NaN,-1.136837,-1.324279E-07,NaN,0.8137515,-4.959731E-07,NaN,-0.9358035,2.259904E-05,-0.758418,8.200352E-08,NaN,NaN,-0.04476929,-1.303862E-10,2.039299E-07,-1.103324E-07,1.222689E-08,-2.861022E-08
819.5504,-1.387733,9.67831E-10,NaN,-1.142215,-1.324282E-07,NaN,0.8222488,-4.964147E-07,NaN,-0.9398631,2.259946E-05,-0.76614,8.250659E-08,NaN,NaN,-0.04763986,-1.303862E-10,1.955853E-07,-1.103334E-07,9.842701E-09,-2.622604E-08
819.5659,-1.396474,9.684924E-10,NaN,-1.147633,-1.324286E-07,NaN,0.8306314,-4.968302E-07,NaN,-0.9440067,2.259987E-05,-0.7737954,8.297152E-08,NaN,NaN,-0.05045368,-1.303862E-10,1.934991E-07,-1.103344E-07,1.103479E-08,-2.861022E-08
819.5804,-1.405192,9.69154E-10,NaN,-1.153046,-1.32429E-07,NaN,0.8387951,-4.972293E-07,NaN,-0.9481669,2.260029E-05,-0.7812691,8.341036E-08,NaN,NaN,-0.05321227,-1.303862E-10,1.911149E-07,-1.103355E-07,9.842701E-09,-2.622604E-08
819.5952,-1.405192,9.69154E-10,NaN,-1.153046,-1.32429E-07,NaN,0.8387951,-4.972293E-07,NaN,-0.9481669,2.260029E-05,-0.7812691,8.341036E-08,NaN,NaN,-0.05321227,-1.303862E-10,1.911149E-07,-1.103355E-07,9.842701E-09,-2.622604E-08
819.6093,-1.414148,9.698161E-10,NaN,-1.158603,-1.324292E-07,NaN,0.8474401,-4.945296E-07,NaN,-0.9524198,2.260071E-05,-0.7892244,8.083327E-08,NaN,NaN,-0.05609679,-1.44356E-10,1.827703E-07,-1.103344E-07,1.103479E-08,-2.861022E-08
