JMolnar6/NonAnthroHands_User_Study/HandsLoggerWithURDF/tempdata/files/Reachy_JointMotion_gesture_8_40.csv
Time,r_shoulder,r_shoulder_x,r_upper_arm,r_forearm,r_wrist,r_wrist2hand,
570.208,0.04497766,-7.64006E-09,NaN,-0.3272721,-1.340055E-07,NaN,0.4621006,-7.777584E-08,NaN,-0.5146761,1.739635E-05,-0.3816983,4.332001E-08,NaN,NaN,-0.01997735,-8.381985E-11,9.581195E-08,-1.122068E-07,-2.986044E-09,-2.622604E-08
570.2238,0.04497775,-7.639225E-09,NaN,-0.3272711,-1.340059E-07,NaN,0.462198,-7.77974E-08,NaN,-0.5147157,1.739684E-05,-0.3817171,4.334313E-08,NaN,NaN,-0.01997727,-8.381985E-11,9.670602E-08,-1.122073E-07,-5.37023E-09,-2.861022E-08
570.2406,0.04497785,-7.63839E-09,NaN,-0.3272701,-1.340063E-07,NaN,0.4624445,-7.782127E-08,NaN,-0.5159876,1.739733E-05,-0.381936,4.336855E-08,NaN,NaN,-0.01998094,-8.847646E-11,6.720172E-08,-1.122079E-07,-1.01386E-08,-2.622604E-08
570.2554,0.04497785,-7.63839E-09,NaN,-0.3272701,-1.340063E-07,NaN,0.4624445,-7.782127E-08,NaN,-0.5159876,1.739733E-05,-0.381936,4.336855E-08,NaN,NaN,-0.01998094,-8.847646E-11,6.720172E-08,-1.122079E-07,-1.01386E-08,-2.622604E-08
570.2704,0.04497795,-7.637555E-09,NaN,-0.3272691,-1.340067E-07,NaN,0.4626786,-7.784457E-08,NaN,-0.5179572,1.739782E-05,-0.3821687,4.339341E-08,NaN,NaN,-0.01998298,-7.916324E-11,5.110847E-08,-1.122084E-07,-5.37023E-09,-2.861022E-08
570.2868,0.04497804,-7.636721E-09,NaN,-0.3272681,-1.340071E-07,NaN,0.4628668,-7.786731E-08,NaN,-0.5202395,1.739831E-05,-0.3823621,4.341771E-08,NaN,NaN,-0.01998435,-8.381985E-11,3.918754E-08,-1.122089E-07,-7.754416E-09,-2.622604E-08
570.3043,0.04497814,-7.635886E-09,NaN,-0.3272671,-1.340075E-07,NaN,0.463019,-7.788952E-08,NaN,-0.5226508,1.739879E-05,-0.3825169,4.344147E-08,NaN,NaN,-0.01998542,-7.450663E-11,3.024684E-08,-1.122094E-07,-7.754416E-09,-2.861022E-08
570.3185,0.04497814,-7.635886E-09,NaN,-0.3272671,-1.340075E-07,NaN,0.463019,-7.788952E-08,NaN,-0.5226508,1.739879E-05,-0.3825169,4.344147E-08,NaN,NaN,-0.01998542,-7.450663E-11,3.024684E-08,-1.122094E-07,-7.754416E-09,-2.861022E-08
570.3337,0.04497823,-7.635051E-09,NaN,-0.327266,-1.340078E-07,NaN,0.4630017,-7.791119E-08,NaN,-0.5238705,1.739928E-05,-0.3824455,4.346469E-08,NaN,NaN,-0.01998271,-7.450663E-11,5.289661E-08,-1.1221E-07,-7.754416E-09,-2.622604E-08
570.3499,0.04497831,-7.634216E-09,NaN,-0.327265,-1.340082E-07,NaN,0.4629844,-7.793517E-08,NaN,-0.5243911,1.739977E-05,-0.3823427,4.349023E-08,NaN,NaN,-0.01998151,-7.450663E-11,6.31784E-08,-1.122105E-07,-1.01386E-08,-2.861022E-08
570.3661,0.0449784,-7.633381E-09,NaN,-0.327264,-1.340086E-07,NaN,0.4630048,-7.795857E-08,NaN,-0.524578,1.740026E-05,-0.3822667,4.351519E-08,NaN,NaN,-0.0199809,-7.916325E-11,6.764876E-08,-1.12211E-07,-7.754416E-09,-2.622604E-08
570.3815,0.04497848,-7.632547E-09,NaN,-0.327263,-1.340089E-07,NaN,0.4630556,-7.798143E-08,NaN,-0.5246055,1.740075E-05,-0.3822204,4.35396E-08,NaN,NaN,-0.01998054,-7.916325E-11,7.0778E-08,-1.122115E-07,-1.01386E-08,-2.861022E-08
570.3995,0.04497848,-7.632547E-09,NaN,-0.327263,-1.340089E-07,NaN,0.4630556,-7.798143E-08,NaN,-0.5246055,1.740075E-05,-0.3822204,4.35396E-08,NaN,NaN,-0.01998054,-7.916325E-11,7.0778E-08,-1.122115E-07,-1.01386E-08,-2.861022E-08
570.4127,0.04497856,-7.631713E-09,NaN,-0.327262,-1.340093E-07,NaN,0.462977,-7.800375E-08,NaN,-0.5233243,1.740125E-05,-0.3819969,4.356347E-08,NaN,NaN,-0.01997666,-8.381986E-11,1.023685E-07,-1.12212E-07,-7.754416E-09,-2.622604E-08
570.4295,0.04497863,-7.630879E-09,NaN,-0.327261,-1.340097E-07,NaN,0.4629171,-7.802553E-08,NaN,-0.5213093,1.740175E-05,-0.3817711,4.35868E-08,NaN,NaN,-0.01997438,-7.916325E-11,1.21591E-07,-1.122125E-07,-7.754416E-09,-2.861022E-08
570.4452,0.04497871,-7.630045E-09,NaN,-0.32726,-1.340101E-07,NaN,0.4629029,-7.804961E-08,NaN,-0.5189649,1.740225E-05,-0.3815899,4.361242E-08,NaN,NaN,-0.01997275,-8.381986E-11,1.34704E-07,-1.122131E-07,-5.37023E-09,-2.622604E-08
570.4611,0.04497879,-7.629211E-09,NaN,-0.327259,-1.340104E-07,NaN,0.4629224,-7.807311E-08,NaN,-0.5164841,1.740274E-05,-0.3814496,4.363748E-08,NaN,NaN,-0.0199714,-7.916325E-11,1.469229E-07,-1.122136E-07,-5.37023E-09,-2.861022E-08
570.4769,0.04497879,-7.629211E-09,NaN,-0.327259,-1.340104E-07,NaN,0.4629224,-7.807311E-08,NaN,-0.5164841,1.740274E-05,-0.3814496,4.363748E-08,NaN,NaN,-0.0199714,-7.916325E-11,1.469229E-07,-1.122136E-07,-5.37023E-09,-2.861022E-08
570.4921,0.04497886,-7.628377E-09,NaN,-0.327258,-1.340108E-07,NaN,0.4628115,-7.809606E-08,NaN,-0.5127263,1.740324E-05,-0.381138,4.366198E-08,NaN,NaN,-0.01996646,-7.450663E-11,1.85964E-07,-1.122141E-07,-7.754416E-09,-2.622604E-08
570.5089,0.04497893,-7.627543E-09,NaN,-0.327257,-1.340112E-07,NaN,0.4627179,-7.811847E-08,NaN,-0.5082701,1.740374E-05,-0.3808279,4.368593E-08,NaN,NaN,-0.01996315,-7.916325E-11,2.12637E-07,-1.122146E-07,-5.37023E-09,-2.861022E-08
570.525,0.044979,-7.626709E-09,NaN,-0.327256,-1.340115E-07,NaN,0.46267,-7.814033E-08,NaN,-0.5035214,1.740424E-05,-0.3805661,4.370934E-08,NaN,NaN,-0.01996052,-8.381986E-11,2.337967E-07,-1.122151E-07,-2.986044E-09,-2.622604E-08
570.5406,0.04497907,-7.625875E-09,NaN,-0.327255,-1.340119E-07,NaN,0.4626568,-7.81645E-08,NaN,-0.4986735,1.740474E-05,-0.3803492,4.373505E-08,NaN,NaN,-0.01995818,-8.847648E-11,2.516781E-07,-1.122156E-07,-2.986044E-09,-2.861022E-08
570.5565,0.04497907,-7.625875E-09,NaN,-0.327255,-1.340119E-07,NaN,0.4626568,-7.81645E-08,NaN,-0.4986735,1.740474E-05,-0.3803492,4.373505E-08,NaN,NaN,-0.01995818,-8.847648E-11,2.516781E-07,-1.122156E-07,-2.986044E-09,-2.861022E-08
570.5713,0.04497914,-7.625041E-09,NaN,-0.3272541,-1.340123E-07,NaN,0.4625088,-7.818809E-08,NaN,-0.4925861,1.740523E-05,-0.3799604,4.376018E-08,NaN,NaN,-0.01995198,-8.381986E-11,2.962326E-07,-1.122161E-07,1.782327E-09,-2.622604E-08
570.5877,0.0449792,-7.624207E-09,NaN,-0.3272531,-1.340126E-07,NaN,0.4623764,-7.821112E-08,NaN,-0.4858372,1.740574E-05,-0.3795738,4.378476E-08,NaN,NaN,-0.0199475,-8.847648E-11,3.27674E-07,-1.122166E-07,4.166513E-09,-2.861022E-08
570.6033,0.04497927,-7.623373E-09,NaN,-0.3272521,-1.34013E-07,NaN,0.4622906,-7.82336E-08,NaN,-0.478832,1.740624E-05,-0.3792381,4.380879E-08,NaN,NaN,-0.01994371,-9.313309E-11,3.52857E-07,-1.122171E-07,6.550699E-09,-2.622604E-08
570.6191,0.04497927,-7.623373E-09,NaN,-0.3272521,-1.34013E-07,NaN,0.4622906,-7.82336E-08,NaN,-0.478832,1.740624E-05,-0.3792381,4.380879E-08,NaN,NaN,-0.01994371,-9.313309E-11,3.52857E-07,-1.122171E-07,6.550699E-09,-2.622604E-08
570.6345,0.04497933,-7.622539E-09,NaN,-0.3272511,-1.340133E-07,NaN,0.4622226,-7.825554E-08,NaN,-0.4716186,1.740674E-05,-0.3789257,4.383227E-08,NaN,NaN,-0.01993971,-9.778971E-11,3.792321E-07,-1.122176E-07,6.550699E-09,-2.861022E-08
570.6509,0.0449794,-7.621705E-09,NaN,-0.3272502,-1.340137E-07,NaN,0.4621776,-7.827978E-08,NaN,-0.4643513,1.740724E-05,-0.3786462,4.385806E-08,NaN,NaN,-0.01993601,-1.024463E-10,4.03372E-07,-1.122181E-07,6.550699E-09,-2.622604E-08
570.6669,0.04497947,-7.620871E-09,NaN,-0.3272492,-1.34014E-07,NaN,0.4621502,-7.830344E-08,NaN,-0.4571185,1.740774E-05,-0.3783958,4.388327E-08,NaN,NaN,-0.01993243,-1.024463E-10,4.255747E-07,-1.122186E-07,4.166513E-09,-2.861022E-08
570.6824,0.04497954,-7.620037E-09,NaN,-0.3272482,-1.340144E-07,NaN,0.462134,-7.832653E-08,NaN,-0.4499618,1.740825E-05,-0.3781677,4.390791E-08,NaN,NaN,-0.01992889,-1.071029E-10,4.455422E-07,-1.122191E-07,8.934885E-09,-2.622604E-08
570.6981,0.04497954,-7.620037E-09,NaN,-0.3272482,-1.340144E-07,NaN,0.462134,-7.832653E-08,NaN,-0.4499618,1.740825E-05,-0.3781677,4.390791E-08,NaN,NaN,-0.01992889,-1.071029E-10,4.455422E-07,-1.122191E-07,8.934885E-09,-2.622604E-08
570.7131,0.0449796,-7.619203E-09,NaN,-0.3272473,-1.340148E-07,NaN,0.462125,-7.834907E-08,NaN,-0.4429,1.740875E-05,-0.3779567,4.3932E-08,NaN,NaN,-0.01992534,-1.117596E-10,4.653608E-07,-1.122181E-07,8.934885E-09,-2.861022E-08
570.7296,0.04497967,-7.618369E-09,NaN,-0.3272463,-1.340147E-07,NaN,0.4621209,-7.848912E-08,NaN,-0.4359413,1.740925E-05,-0.3777592,4.407361E-08,NaN,NaN,-0.01992178,-1.071029E-10,4.826462E-07,-1.122182E-07,6.550699E-09,-2.622604E-08
570.7455,0.04497974,-7.617535E-09,NaN,-0.3272454,-1.340149E-07,NaN,0.4621209,-7.857292E-08,NaN,-0.4290889,1.740976E-05,-0.3775732,4.415897E-08,NaN,NaN,-0.01991818,-1.117596E-10,5.003785E-07,-1.122186E-07,4.166513E-09,-2.861022E-08
570.7613,0.0449798,-7.616701E-09,NaN,-0.3272444,-1.340151E-07,NaN,0.4621248,-7.862688E-08,NaN,-0.4223433,1.741026E-05,-0.3773976,4.421448E-08,NaN,NaN,-0.01991456,-1.117596E-10,5.179619E-07,-1.12219E-07,1.782328E-09,-2.622604E-08
570.777,0.0449798,-7.616701E-09,NaN,-0.3272444,-1.340151E-07,NaN,0.4621248,-7.862688E-08,NaN,-0.4223433,1.741026E-05,-0.3773976,4.421448E-08,NaN,NaN,-0.01991456,-1.117596E-10,5.179619E-07,-1.12219E-07,1.782328E-09,-2.622604E-08
570.7923,0.04497987,-7.615867E-09,NaN,-0.3272435,-1.340153E-07,NaN,0.4621327,-7.866563E-08,NaN,-0.4157037,1.741076E-05,-0.3772319,4.425479E-08,NaN,NaN,-0.0199109,-1.117596E-10,5.361413E-07,-1.122194E-07,-6.018581E-10,-2.861022E-08
570.8097,0.04497994,-7.615033E-09,NaN,-0.3272426,-1.340156E-07,NaN,0.4621448,-7.869509E-08,NaN,-0.4091692,1.741127E-05,-0.3770756,4.428581E-08,NaN,NaN,-0.01990721,-1.164162E-10,5.519366E-07,-1.122184E-07,4.166513E-09,-2.622604E-08
570.8243,0.04498,-7.6142E-09,NaN,-0.3272416,-1.34015E-07,NaN,0.4621613,-7.820848E-08,NaN,-0.4027383,1.741176E-05,-0.3769285,4.376665E-08,NaN,NaN,-0.01990347,-1.164162E-10,5.678808E-07,-1.122188E-07,6.550699E-09,-2.861022E-08
570.8401,0.04498007,-7.613367E-09,NaN,-0.3272407,-1.340143E-07,NaN,0.4621825,-7.772186E-08,NaN,-0.3964094,1.741227E-05,-0.3767906,4.322379E-08,NaN,NaN,-0.0198997,-1.210728E-10,5.82335E-07,-1.122195E-07,-6.018581E-10,-2.622604E-08
570.8557,0.04498007,-7.613367E-09,NaN,-0.3272407,-1.340143E-07,NaN,0.4621825,-7.772186E-08,NaN,-0.3964094,1.741227E-05,-0.3767906,4.322379E-08,NaN,NaN,-0.0198997,-1.210728E-10,5.82335E-07,-1.122195E-07,-6.018581E-10,-2.622604E-08
570.871,0.04498014,-7.612534E-09,NaN,-0.3272398,-1.340137E-07,NaN,0.4622086,-7.723525E-08,NaN,-0.3901809,1.741277E-05,-0.3766617,4.266458E-08,NaN,NaN,-0.01989588,-1.117596E-10,5.969381E-07,-1.122201E-07,-6.018581E-10,-2.861022E-08
570.8879,0.04498021,-7.611701E-09,NaN,-0.3272389,-1.340131E-07,NaN,0.4622396,-7.674863E-08,NaN,-0.3840514,1.741327E-05,-0.3765416,4.209439E-08,NaN,NaN,-0.01989202,-1.071029E-10,6.103492E-07,-1.122208E-07,-2.986044E-09,-2.622604E-08
570.9033,0.04498027,-7.610867E-09,NaN,-0.3272379,-1.340126E-07,NaN,0.4622757,-7.626202E-08,NaN,-0.3780192,1.741377E-05,-0.3764304,4.151719E-08,NaN,NaN,-0.0198881,-1.024463E-10,6.228661E-07,-1.122216E-07,-2.986044E-09,-2.861022E-08
570.9191,0.04498027,-7.610867E-09,NaN,-0.3272379,-1.340126E-07,NaN,0.4622757,-7.626202E-08,NaN,-0.3780192,1.741377E-05,-0.3764304,4.151719E-08,NaN,NaN,-0.0198881,-1.024463E-10,6.228661E-07,-1.122216E-07,-2.986044E-09,-2.861022E-08
570.9342,0.04498034,-7.610034E-09,NaN,-0.327237,-1.340121E-07,NaN,0.4623169,-7.57754E-08,NaN,-0.3720827,1.741428E-05,-0.3763278,4.093585E-08,NaN,NaN,-0.01988414,-9.778971E-11,6.353831E-07,-1.122223E-07,-5.37023E-09,-2.622604E-08
570.9504,0.04498041,-7.6092E-09,NaN,-0.3272361,-1.340121E-07,NaN,0.4623633,-7.599539E-08,NaN,-0.3662406,1.741477E-05,-0.3762338,4.108069E-08,NaN,NaN,-0.01988013,-8.847648E-11,6.46708E-07,-1.122212E-07,-7.754416E-09,-2.861022E-08
570.9665,0.04498047,-7.608367E-09,NaN,-0.3272352,-1.340113E-07,NaN,0.4624149,-7.569511E-08,NaN,-0.3604913,1.741527E-05,-0.3761483,4.068104E-08,NaN,NaN,-0.01987607,-8.381987E-11,6.583309E-07,-1.122215E-07,-5.37023E-09,-2.622604E-08
570.9821,0.04498054,-7.607533E-09,NaN,-0.3272343,-1.340112E-07,NaN,0.4624718,-7.598008E-08,NaN,-0.3548332,1.741576E-05,-0.3760713,4.088715E-08,NaN,NaN,-0.01987195,-7.450664E-11,6.687617E-07,-1.122218E-07,-7.754416E-09,-2.861022E-08
570.998,0.04498054,-7.607533E-09,NaN,-0.3272343,-1.340112E-07,NaN,0.4624718,-7.598008E-08,NaN,-0.3548332,1.741576E-05,-0.3760713,4.088715E-08,NaN,NaN,-0.01987195,-7.450664E-11,6.687617E-07,-1.122218E-07,-7.754416E-09,-2.861022E-08
571.0129,0.04498061,-7.6067E-09,NaN,-0.3272334,-1.34011E-07,NaN,0.462534,-7.453294E-08,NaN,-0.3492651,1.741626E-05,-0.3760026,3.94391E-08,NaN,NaN,-0.01986777,-7.916326E-11,6.790435E-07,-1.122213E-07,-2.986044E-09,-2.622604E-08
571.0296,0.04498067,-7.605866E-09,NaN,-0.3272325,-1.340109E-07,NaN,0.4626015,-7.475772E-08,NaN,-0.3437854,1.741676E-05,-0.3759421,3.966379E-08,NaN,NaN,-0.01986354,-6.985004E-11,6.885802E-07,-1.122216E-07,1.782327E-09,-2.861022E-08
571.0452,0.04498074,-7.605032E-09,NaN,-0.3272316,-1.340111E-07,NaN,0.4626743,-7.493539E-08,NaN,-0.3383927,1.741725E-05,-0.3758897,3.98417E-08,NaN,NaN,-0.01985924,-6.519342E-11,6.973719E-07,-1.122204E-07,1.782327E-09,-2.622604E-08
571.0608,0.04498081,-7.604198E-09,NaN,-0.3272307,-1.340109E-07,NaN,0.4627524,-7.520232E-08,NaN,-0.3330857,1.741774E-05,-0.3758454,4.010913E-08,NaN,NaN,-0.01985488,-5.58802E-11,7.061636E-07,-1.122205E-07,4.166513E-09,-2.861022E-08
571.0767,0.04498081,-7.604198E-09,NaN,-0.3272307,-1.340109E-07,NaN,0.4627524,-7.520232E-08,NaN,-0.3330857,1.741774E-05,-0.3758454,4.010913E-08,NaN,NaN,-0.01985488,-5.58802E-11,7.061636E-07,-1.122205E-07,4.166513E-09,-2.861022E-08
571.0918,0.04498088,-7.603364E-09,NaN,-0.3272298,-1.340109E-07,NaN,0.4628359,-7.539322E-08,NaN,-0.327863,1.741824E-05,-0.3758091,4.030075E-08,NaN,NaN,-0.01985046,-4.656697E-11,7.134652E-07,-1.122207E-07,6.550699E-09,-2.622604E-08
571.1083,0.04498094,-7.60253E-09,NaN,-0.3272289,-1.340111E-07,NaN,0.4629248,-7.554347E-08,NaN,-0.3227233,1.741873E-05,-0.3757806,4.045188E-08,NaN,NaN,-0.01984596,-4.656697E-11,7.215118E-07,-1.122196E-07,1.131907E-08,-2.861022E-08
571.124,0.04498101,-7.601696E-09,NaN,-0.327228,-1.34011E-07,NaN,0.463019,-7.578644E-08,NaN,-0.3176652,1.741923E-05,-0.37576,4.069586E-08,NaN,NaN,-0.0198414,-3.725375E-11,7.280683E-07,-1.122197E-07,8.934885E-09,-2.622604E-08
571.1399,0.04498101,-7.601696E-09,NaN,-0.327228,-1.34011E-07,NaN,0.463019,-7.578644E-08,NaN,-0.3176652,1.741923E-05,-0.37576,4.069586E-08,NaN,NaN,-0.0198414,-3.725375E-11,7.280683E-07,-1.122197E-07,8.934885E-09,-2.622604E-08
571.1553,0.04498108,-7.600862E-09,NaN,-0.3272272,-1.340111E-07,NaN,0.4631186,-7.595959E-08,NaN,-0.3126874,1.741972E-05,-0.3757471,4.087014E-08,NaN,NaN,-0.01983677,-2.794052E-11,7.352209E-07,-1.1222E-07,6.550699E-09,-2.861022E-08
571.1715,0.04498114,-7.600029E-09,NaN,-0.3272263,-1.34011E-07,NaN,0.4632236,-7.439665E-08,NaN,-0.3077887,1.742022E-05,-0.3757418,3.937487E-08,NaN,NaN,-0.01983206,-3.259714E-11,7.408833E-07,-1.122196E-07,-6.018581E-10,-2.622604E-08
571.1874,0.04498121,-7.599196E-09,NaN,-0.3272254,-1.34011E-07,NaN,0.463334,-7.454756E-08,NaN,-0.3029679,1.742071E-05,-0.3757441,3.958056E-08,NaN,NaN,-0.01982727,-2.794052E-11,7.480359E-07,-1.122184E-07,-6.018581E-10,-2.861022E-08
571.203,0.04498127,-7.598362E-09,NaN,-0.3272246,-1.340108E-07,NaN,0.4634497,-7.478963E-08,NaN,-0.2982236,1.742121E-05,-0.3757539,3.986676E-08,NaN,NaN,-0.01982241,-2.328391E-11,7.534003E-07,-1.122185E-07,1.782328E-09,-2.622604E-08
571.2196,0.04498127,-7.598362E-09,NaN,-0.3272246,-1.340108E-07,NaN,0.4634497,-7.478963E-08,NaN,-0.2982236,1.742121E-05,-0.3757539,3.986676E-08,NaN,NaN,-0.01982241,-2.328391E-11,7.534003E-07,-1.122185E-07,1.782328E-09,-2.622604E-08
571.2342,0.04498133,-7.597528E-09,NaN,-0.3272237,-1.340108E-07,NaN,0.4635709,-7.495557E-08,NaN,-0.2935547,1.74217E-05,-0.3757712,4.006831E-08,NaN,NaN,-0.01981747,-9.314075E-12,7.598078E-07,-1.122187E-07,4.166513E-09,-2.861022E-08
571.2502,0.0449814,-7.596694E-09,NaN,-0.3272229,-1.34011E-07,NaN,0.4636975,-7.508481E-08,NaN,-0.2889599,1.742219E-05,-0.3757958,4.022636E-08,NaN,NaN,-0.01981244,-9.314075E-12,7.653212E-07,-1.122176E-07,1.782328E-09,-2.622604E-08
571.2664,0.04498146,-7.59586E-09,NaN,-0.327222,-1.340109E-07,NaN,0.4638295,-7.531224E-08,NaN,-0.2844382,1.742268E-05,-0.3758278,4.047714E-08,NaN,NaN,-0.01980733,-4.657462E-12,7.709837E-07,-1.122177E-07,-6.018581E-10,-2.861022E-08
571.2819,0.04498152,-7.595027E-09,NaN,-0.3272211,-1.340109E-07,NaN,0.4639669,-7.547136E-08,NaN,-0.2799883,1.742317E-05,-0.3758669,4.065526E-08,NaN,NaN,-0.01980213,-4.657462E-12,7.75603E-07,-1.122165E-07,-6.018581E-10,-2.622604E-08
571.298,0.04498152,-7.595027E-09,NaN,-0.3272211,-1.340109E-07,NaN,0.4639669,-7.547136E-08,NaN,-0.2799883,1.742317E-05,-0.3758669,4.065526E-08,NaN,NaN,-0.01980213,-4.657462E-12,7.75603E-07,-1.122165E-07,-6.018581E-10,-2.622604E-08
571.3127,0.04498159,-7.594194E-09,NaN,-0.3272203,-1.340107E-07,NaN,0.4641098,-7.571219E-08,NaN,-0.2756091,1.742366E-05,-0.3759133,4.09116E-08,NaN,NaN,-0.01979684,4.655764E-12,7.809675E-07,-1.122165E-07,-5.37023E-09,-2.861022E-08
571.3305,0.04498165,-7.593361E-09,NaN,-0.3272194,-1.340108E-07,NaN,0.464258,-7.587457E-08,NaN,-0.2712995,1.742414E-05,-0.3759668,4.10867E-08,NaN,NaN,-0.01979146,4.655764E-12,7.854378E-07,-1.122153E-07,-2.986044E-09,-2.622604E-08
571.345,0.04498171,-7.592528E-09,NaN,-0.3272186,-1.340099E-07,NaN,0.4644117,-7.551524E-08,NaN,-0.2670583,1.742462E-05,-0.3760273,4.069729E-08,NaN,NaN,-0.01978598,2.328221E-11,7.896101E-07,-1.122156E-07,-5.37023E-09,-2.861022E-08
571.3608,0.04498178,-7.591695E-09,NaN,-0.3272178,-1.340098E-07,NaN,0.4645708,-7.574605E-08,NaN,-0.2628845,1.742511E-05,-0.3760948,4.090467E-08,NaN,NaN,-0.0197804,2.328221E-11,7.933354E-07,-1.122144E-07,-6.018581E-10,-2.622604E-08
571.3767,0.04498178,-7.591695E-09,NaN,-0.3272178,-1.340098E-07,NaN,0.4645708,-7.574605E-08,NaN,-0.2628845,1.742511E-05,-0.3760948,4.090467E-08,NaN,NaN,-0.0197804,2.328221E-11,7.933354E-07,-1.122144E-07,-6.018581E-10,-2.622604E-08
571.3921,0.04498184,-7.590862E-09,NaN,-0.3272169,-1.340088E-07,NaN,0.4647354,-7.545629E-08,NaN,-0.258777,1.74256E-05,-0.3761692,4.055275E-08,NaN,NaN,-0.01977472,1.86256E-11,7.969117E-07,-1.122146E-07,-6.018581E-10,-2.861022E-08
571.4083,0.0449819,-7.590029E-09,NaN,-0.3272161,-1.34008E-07,NaN,0.4649053,-7.516653E-08,NaN,-0.2547348,1.742609E-05,-0.3762505,4.017338E-08,NaN,NaN,-0.01976894,2.328221E-11,8.00488E-07,-1.122151E-07,4.166513E-09,-2.622604E-08
571.4242,0.04498197,-7.589196E-09,NaN,-0.3272153,-1.340072E-07,NaN,0.4650807,-7.487677E-08,NaN,-0.2507569,1.742658E-05,-0.3763386,3.977465E-08,NaN,NaN,-0.01976305,1.86256E-11,8.031702E-07,-1.122156E-07,8.934885E-09,-2.861022E-08
571.4397,0.04498197,-7.589196E-09,NaN,-0.3272153,-1.340072E-07,NaN,0.4650807,-7.487677E-08,NaN,-0.2507569,1.742658E-05,-0.3763386,3.977465E-08,NaN,NaN,-0.01976305,1.86256E-11,8.031702E-07,-1.122156E-07,8.934885E-09,-2.861022E-08
571.4551,0.04498203,-7.588363E-09,NaN,-0.3272144,-1.340065E-07,NaN,0.4652615,-7.458701E-08,NaN,-0.2468421,1.742707E-05,-0.3764335,3.936249E-08,NaN,NaN,-0.01975706,1.86256E-11,8.058524E-07,-1.122162E-07,6.550699E-09,-2.622604E-08
571.4715,0.04498209,-7.587531E-09,NaN,-0.3272136,-1.340066E-07,NaN,0.4654478,-7.487112E-08,NaN,-0.2429895,1.742756E-05,-0.3765351,3.954922E-08,NaN,NaN,-0.01975096,1.396899E-11,8.085347E-07,-1.122133E-07,1.782328E-09,-2.861022E-08
571.4874,0.04498216,-7.586698E-09,NaN,-0.3272128,-1.340061E-07,NaN,0.4656394,-7.534603E-08,NaN,-0.2391982,1.742806E-05,-0.3766434,3.994655E-08,NaN,NaN,-0.01974474,9.312376E-12,8.097268E-07,-1.122112E-07,-6.018581E-10,-2.622604E-08
571.5032,0.04498222,-7.585866E-09,NaN,-0.3272119,-1.340056E-07,NaN,0.4658365,-7.578596E-08,NaN,-0.2354671,1.742856E-05,-0.3767582,4.032473E-08,NaN,NaN,-0.01973841,4.655763E-12,8.109189E-07,-1.122092E-07,1.782328E-09,-2.861022E-08
571.5199,0.04498222,-7.585866E-09,NaN,-0.3272119,-1.340056E-07,NaN,0.4658365,-7.578596E-08,NaN,-0.2354671,1.742856E-05,-0.3767582,4.032473E-08,NaN,NaN,-0.01973841,4.655763E-12,8.109189E-07,-1.122092E-07,1.782328E-09,-2.861022E-08
571.5339,0.04498228,-7.585034E-09,NaN,-0.3272111,-1.340051E-07,NaN,0.4660389,-7.62001E-08,NaN,-0.2317953,1.742906E-05,-0.3768796,4.068978E-08,NaN,NaN,-0.01973196,4.655763E-12,8.12707E-07,-1.122072E-07,-2.986044E-09,-2.622604E-08
571.5501,0.04498235,-7.584203E-09,NaN,-0.3272103,-1.340045E-07,NaN,0.4662468,-7.666174E-08,NaN,-0.2281818,1.742956E-05,-0.3770075,4.111248E-08,NaN,NaN,-0.01972538,4.655763E-12,8.138991E-07,-1.122069E-07,-2.986044E-09,-2.861022E-08
571.5689,0.04498241,-7.583372E-09,NaN,-0.3272095,-1.340043E-07,NaN,0.46646,-7.697762E-08,NaN,-0.2246258,1.743006E-05,-0.3771418,4.139752E-08,NaN,NaN,-0.01971868,9.312376E-12,8.138991E-07,-1.12207E-07,4.166513E-09,-2.622604E-08
571.5817,0.04498247,-7.582542E-09,NaN,-0.3272087,-1.340043E-07,NaN,0.4666786,-7.72139E-08,NaN,-0.2211263,1.743057E-05,-0.3772825,4.160944E-08,NaN,NaN,-0.01971185,9.312376E-12,8.138991E-07,-1.122058E-07,1.782328E-09,-2.861022E-08
571.5975,0.04498247,-7.582542E-09,NaN,-0.3272087,-1.340043E-07,NaN,0.4666786,-7.72139E-08,NaN,-0.2211263,1.743057E-05,-0.3772825,4.160944E-08,NaN,NaN,-0.01971185,9.312376E-12,8.138991E-07,-1.122058E-07,1.782328E-09,-2.861022E-08
571.6125,0.04498253,-7.581711E-09,NaN,-0.3272079,-1.340041E-07,NaN,0.4669026,-7.751947E-08,NaN,-0.2176824,1.743107E-05,-0.3774295,4.189583E-08,NaN,NaN,-0.01970488,9.312376E-12,8.133031E-07,-1.122059E-07,1.782328E-09,-2.622604E-08
571.6292,0.04498259,-7.580881E-09,NaN,-0.3272071,-1.340041E-07,NaN,0.4671319,-7.773649E-08,NaN,-0.2142932,1.743156E-05,-0.3775828,4.209782E-08,NaN,NaN,-0.01969779,1.86256E-11,8.13005E-07,-1.122047E-07,6.550699E-09,-2.861022E-08
571.6447,0.04498265,-7.58005E-09,NaN,-0.3272063,-1.340039E-07,NaN,0.4673665,-7.802485E-08,NaN,-0.2109579,1.743206E-05,-0.3777424,4.237448E-08,NaN,NaN,-0.01969056,2.328221E-11,8.12409E-07,-1.122048E-07,8.934885E-09,-2.622604E-08
571.6606,0.04498271,-7.57922E-09,NaN,-0.3272055,-1.340039E-07,NaN,0.4676065,-7.822636E-08,NaN,-0.2076756,1.743257E-05,-0.3779081,4.256693E-08,NaN,NaN,-0.01968319,2.328221E-11,8.133031E-07,-1.122036E-07,8.934885E-09,-2.861022E-08
571.6765,0.04498271,-7.57922E-09,NaN,-0.3272055,-1.340039E-07,NaN,0.4676065,-7.822636E-08,NaN,-0.2076756,1.743257E-05,-0.3779081,4.256693E-08,NaN,NaN,-0.01968319,2.328221E-11,8.133031E-07,-1.122036E-07,8.934885E-09,-2.861022E-08
571.6921,0.04498277,-7.578389E-09,NaN,-0.3272047,-1.340037E-07,NaN,0.4678518,-7.849778E-08,NaN,-0.2044454,1.743307E-05,-0.3780799,4.283142E-08,NaN,NaN,-0.01967567,2.793882E-11,8.133031E-07,-1.122037E-07,8.934885E-09,-2.622604E-08
571.7083,0.04498283,-7.577559E-09,NaN,-0.3272039,-1.340038E-07,NaN,0.4681023,-7.868353E-08,NaN,-0.2012666,1.743358E-05,-0.3782578,4.301194E-08,NaN,NaN,-0.01966801,3.259544E-11,8.133031E-07,-1.122025E-07,1.131907E-08,-2.861022E-08
571.7244,0.04498289,-7.576729E-09,NaN,-0.3272032,-1.340036E-07,NaN,0.4683581,-7.894301E-08,NaN,-0.1981384,1.743408E-05,-0.3784417,4.326755E-08,NaN,NaN,-0.0196602,4.190866E-11,8.136011E-07,-1.122025E-07,8.934885E-09,-2.622604E-08
571.7402,0.04498295,-7.575898E-09,NaN,-0.3272024,-1.340036E-07,NaN,0.4686192,-7.911762E-08,NaN,-0.1950598,1.743459E-05,-0.3786315,4.343938E-08,NaN,NaN,-0.01965224,4.656528E-11,8.13005E-07,-1.122013E-07,6.550699E-09,-2.861022E-08
571.7561,0.04498295,-7.575898E-09,NaN,-0.3272024,-1.340036E-07,NaN,0.4686192,-7.911762E-08,NaN,-0.1950598,1.743459E-05,-0.3786315,4.343938E-08,NaN,NaN,-0.01965224,4.656528E-11,8.13005E-07,-1.122013E-07,6.550699E-09,-2.861022E-08
571.7712,0.04498301,-7.575068E-09,NaN,-0.3272016,-1.340034E-07,NaN,0.4688854,-7.936379E-08,NaN,-0.1920302,1.743509E-05,-0.3788273,4.368364E-08,NaN,NaN,-0.01964413,6.053511E-11,8.12707E-07,-1.122014E-07,-2.986044E-09,-2.622604E-08
571.7877,0.04498307,-7.574237E-09,NaN,-0.3272008,-1.340034E-07,NaN,0.4691568,-7.952569E-08,NaN,-0.1890487,1.74356E-05,-0.3790288,4.384433E-08,NaN,NaN,-0.01963585,6.519173E-11,8.12409E-07,-1.122002E-07,-5.37023E-09,-2.861022E-08
571.8038,0.04498313,-7.573407E-09,NaN,-0.3272001,-1.340032E-07,NaN,0.4694333,-7.976251E-08,NaN,-0.1861147,1.74361E-05,-0.3792362,4.408049E-08,NaN,NaN,-0.01962742,7.916157E-11,8.12409E-07,-1.122003E-07,-2.986044E-09,-2.622604E-08
571.8197,0.04498313,-7.573407E-09,NaN,-0.3272001,-1.340032E-07,NaN,0.4694333,-7.976251E-08,NaN,-0.1861147,1.74361E-05,-0.3792362,4.408049E-08,NaN,NaN,-0.01962742,7.916157E-11,8.12409E-07,-1.122003E-07,-2.986044E-09,-2.622604E-08
571.8351,0.04498319,-7.572576E-09,NaN,-0.3271993,-1.340033E-07,NaN,0.469715,-7.991549E-08,NaN,-0.1832272,1.743661E-05,-0.3794492,4.423325E-08,NaN,NaN,-0.01961882,8.381818E-11,8.118129E-07,-1.121992E-07,-6.018581E-10,-2.861022E-08
571.8527,0.04498325,-7.571746E-09,NaN,-0.3271985,-1.340031E-07,NaN,0.4700017,-8.014374E-08,NaN,-0.1803857,1.743711E-05,-0.3796678,4.446164E-08,NaN,NaN,-0.01961005,9.313141E-11,8.106208E-07,-1.121978E-07,-6.018581E-10,-2.622604E-08
571.8675,0.04498331,-7.570915E-09,NaN,-0.3271977,-1.340027E-07,NaN,0.4702935,-8.040649E-08,NaN,-0.1775894,1.743761E-05,-0.3798921,4.472482E-08,NaN,NaN,-0.01960111,1.071012E-10,8.085347E-07,-1.121978E-07,1.782328E-09,-2.861022E-08
571.8832,0.04498337,-7.570085E-09,NaN,-0.327197,-1.340027E-07,NaN,0.4705902,-8.056823E-08,NaN,-0.1748375,1.743812E-05,-0.3801219,4.488722E-08,NaN,NaN,-0.019592,1.024446E-10,8.067465E-07,-1.121965E-07,-2.986044E-09,-2.622604E-08
571.8995,0.04498337,-7.570085E-09,NaN,-0.327197,-1.340027E-07,NaN,0.4705902,-8.056823E-08,NaN,-0.1748375,1.743812E-05,-0.3801219,4.488722E-08,NaN,NaN,-0.019592,1.024446E-10,8.067465E-07,-1.121965E-07,-2.986044E-09,-2.622604E-08
571.9146,0.04498343,-7.569255E-09,NaN,-0.3271962,-1.340024E-07,NaN,0.4708919,-8.079116E-08,NaN,-0.1721293,1.743862E-05,-0.3803571,4.511098E-08,NaN,NaN,-0.01958271,1.117579E-10,8.052564E-07,-1.121966E-07,-1.252279E-08,-2.861022E-08
571.9313,0.04498349,-7.568424E-09,NaN,-0.3271955,-1.340024E-07,NaN,0.4711985,-8.092798E-08,NaN,-0.1694642,1.743913E-05,-0.3805977,4.524878E-08,NaN,NaN,-0.01957324,1.071012E-10,8.037663E-07,-1.121954E-07,-1.490697E-08,-2.622604E-08
571.9473,0.04498355,-7.567594E-09,NaN,-0.3271947,-1.340022E-07,NaN,0.47151,-8.113498E-08,NaN,-0.1668415,1.743963E-05,-0.3808436,4.545688E-08,NaN,NaN,-0.01956359,1.024446E-10,8.019782E-07,-1.12194E-07,-1.252279E-08,-2.861022E-08
571.9633,0.04498361,-7.566763E-09,NaN,-0.327194,-1.340019E-07,NaN,0.4718262,-8.137427E-08,NaN,-0.1642605,1.744013E-05,-0.3810947,4.569736E-08,NaN,NaN,-0.01955375,1.024446E-10,8.013822E-07,-1.12194E-07,-1.729116E-08,-2.622604E-08
571.9791,0.04498361,-7.566763E-09,NaN,-0.327194,-1.340019E-07,NaN,0.4718262,-8.137427E-08,NaN,-0.1642605,1.744013E-05,-0.3810947,4.569736E-08,NaN,NaN,-0.01955375,1.024446E-10,8.013822E-07,-1.12194E-07,-1.729116E-08,-2.622604E-08
571.9941,0.04498367,-7.565933E-09,NaN,-0.3271932,-1.340018E-07,NaN,0.4721472,-8.151313E-08,NaN,-0.1617205,1.744063E-05,-0.3813509,4.583748E-08,NaN,NaN,-0.01954372,9.31314E-11,7.98998E-07,-1.121928E-07,-1.490697E-08,-2.861022E-08
572.0107,0.04498372,-7.565102E-09,NaN,-0.3271925,-1.340016E-07,NaN,0.4724728,-8.171374E-08,NaN,-0.1592209,1.744113E-05,-0.3816123,4.603942E-08,NaN,NaN,-0.01953351,8.381817E-11,7.966138E-07,-1.121914E-07,-1.729116E-08,-2.622604E-08
572.027,0.04498378,-7.564272E-09,NaN,-0.3271917,-1.340012E-07,NaN,0.4728031,-8.194399E-08,NaN,-0.1567611,1.744163E-05,-0.3818786,4.627105E-08,NaN,NaN,-0.0195231,8.847479E-11,7.942296E-07,-1.121914E-07,-1.729116E-08,-2.861022E-08
572.0427,0.04498383,-7.563441E-09,NaN,-0.327191,-1.340011E-07,NaN,0.4731379,-8.207122E-08,NaN,-0.1543403,1.744212E-05,-0.3821498,4.639969E-08,NaN,NaN,-0.01951248,8.381817E-11,7.918454E-07,-1.121902E-07,-1.729116E-08,-2.622604E-08
572.059,0.04498383,-7.563441E-09,NaN,-0.327191,-1.340011E-07,NaN,0.4731379,-8.207122E-08,NaN,-0.1543403,1.744212E-05,-0.3821498,4.639969E-08,NaN,NaN,-0.01951248,8.381817E-11,7.918454E-07,-1.121902E-07,-1.729116E-08,-2.622604E-08
572.0739,0.04498389,-7.562612E-09,NaN,-0.3271903,-1.340009E-07,NaN,0.4734772,-8.226046E-08,NaN,-0.1519581,1.744262E-05,-0.3824258,4.659038E-08,NaN,NaN,-0.01950168,7.916156E-11,7.885671E-07,-1.121888E-07,-1.729116E-08,-2.861022E-08
572.0905,0.04498395,-7.561782E-09,NaN,-0.3271895,-1.340005E-07,NaN,0.4738209,-8.247959E-08,NaN,-0.1496137,1.744312E-05,-0.3827066,4.681099E-08,NaN,NaN,-0.01949067,7.916156E-11,7.858849E-07,-1.121888E-07,-1.729116E-08,-2.622604E-08
572.1065,0.044984,-7.560953E-09,NaN,-0.3271888,-1.340004E-07,NaN,0.4741689,-8.25931E-08,NaN,-0.1473067,1.744362E-05,-0.3829919,4.692599E-08,NaN,NaN,-0.01947944,7.450494E-11,7.846928E-07,-1.121875E-07,-1.729116E-08,-2.861022E-08
572.1221,0.04498406,-7.560123E-09,NaN,-0.3271881,-1.340002E-07,NaN,0.4745211,-8.276893E-08,NaN,-0.1450363,1.744412E-05,-0.3832818,4.710332E-08,NaN,NaN,-0.019468,6.984833E-11,7.826067E-07,-1.121862E-07,-1.490697E-08,-2.622604E-08
572.1382,0.04498406,-7.560123E-09,NaN,-0.3271881,-1.340002E-07,NaN,0.4745211,-8.276893E-08,NaN,-0.1450363,1.744412E-05,-0.3832818,4.710332E-08,NaN,NaN,-0.019468,6.984833E-11,7.826067E-07,-1.121862E-07,-1.490697E-08,-2.622604E-08
572.1533,0.04498411,-7.559294E-09,NaN,-0.3271874,-1.339998E-07,NaN,0.4748774,-8.297491E-08,NaN,-0.142802,1.744461E-05,-0.383576,4.731083E-08,NaN,NaN,-0.01945635,7.450494E-11,7.805205E-07,-1.121862E-07,-1.252279E-08,-2.861022E-08
572.1699,0.04498417,-7.558464E-09,NaN,-0.3271866,-1.339997E-07,NaN,0.4752379,-8.307556E-08,NaN,-0.1406032,1.744511E-05,-0.3838746,4.7413E-08,NaN,NaN,-0.0194445,6.984833E-11,7.787324E-07,-1.12185E-07,-1.729116E-08,-2.622604E-08
572.1854,0.04498423,-7.557635E-09,NaN,-0.3271859,-1.339995E-07,NaN,0.4756023,-8.324158E-08,NaN,-0.1384395,1.744561E-05,-0.3841774,4.758056E-08,NaN,NaN,-0.01943242,6.519171E-11,7.74262E-07,-1.121836E-07,-1.490697E-08,-2.861022E-08
572.2012,0.04498428,-7.556805E-09,NaN,-0.3271852,-1.339991E-07,NaN,0.4759705,-8.343516E-08,NaN,-0.1363101,1.744611E-05,-0.3844843,4.777568E-08,NaN,NaN,-0.01942012,6.05351E-11,7.712818E-07,-1.121821E-07,-1.490697E-08,-2.622604E-08
572.217,0.04498428,-7.556805E-09,NaN,-0.3271852,-1.339991E-07,NaN,0.4759705,-8.343516E-08,NaN,-0.1363101,1.744611E-05,-0.3844843,4.777568E-08,NaN,NaN,-0.01942012,6.05351E-11,7.712818E-07,-1.121821E-07,-1.490697E-08,-2.622604E-08
572.2322,0.04498434,-7.555975E-09,NaN,-0.3271845,-1.339987E-07,NaN,0.4764171,-8.364169E-08,NaN,-0.1343571,1.744661E-05,-0.3848719,4.798375E-08,NaN,NaN,-0.01941361,6.05351E-11,7.647253E-07,-1.121821E-07,-1.252279E-08,-2.861022E-08
572.2485,0.04498439,-7.555146E-09,NaN,-0.3271838,-1.339985E-07,NaN,0.4768659,-8.373726E-08,NaN,-0.1325219,1.744712E-05,-0.3852632,4.808087E-08,NaN,NaN,-0.01940447,5.587849E-11,7.593609E-07,-1.121809E-07,-1.01386E-08,-2.622604E-08
572.2649,0.04498445,-7.554316E-09,NaN,-0.3271831,-1.339983E-07,NaN,0.4773043,-8.388985E-08,NaN,-0.1307568,1.744762E-05,-0.3856449,4.823502E-08,NaN,NaN,-0.01939413,6.05351E-11,7.557846E-07,-1.121795E-07,-7.754416E-09,-2.861022E-08
572.2802,0.0449845,-7.553487E-09,NaN,-0.3271824,-1.339979E-07,NaN,0.4777338,-8.407027E-08,NaN,-0.1290393,1.744812E-05,-0.386018,4.8417E-08,NaN,NaN,-0.01938317,5.587849E-11,7.513142E-07,-1.12178E-07,-1.252279E-08,-2.622604E-08
572.2963,0.0449845,-7.553487E-09,NaN,-0.3271824,-1.339979E-07,NaN,0.4777338,-8.407027E-08,NaN,-0.1290393,1.744812E-05,-0.386018,4.8417E-08,NaN,NaN,-0.01938317,5.587849E-11,7.513142E-07,-1.12178E-07,-1.252279E-08,-2.622604E-08
572.3112,0.04498457,-7.552657E-09,NaN,-0.3271817,-1.339974E-07,NaN,0.4788314,-8.426391E-08,NaN,-0.128567,1.744863E-05,-0.3870773,4.861221E-08,NaN,NaN,-0.01942818,6.05351E-11,7.197238E-07,-1.12178E-07,-1.01386E-08,-2.861022E-08
572.3275,0.04498464,-7.551828E-09,NaN,-0.327181,-1.339973E-07,NaN,0.4798929,-8.434402E-08,NaN,-0.1288467,1.744914E-05,-0.3881119,4.869388E-08,NaN,NaN,-0.01944999,5.587849E-11,6.994582E-07,-1.121768E-07,-1.01386E-08,-2.622604E-08
572.3436,0.0449847,-7.550998E-09,NaN,-0.3271803,-1.33997E-07,NaN,0.4808201,-8.448148E-08,NaN,-0.1294731,1.744964E-05,-0.3890165,4.88329E-08,NaN,NaN,-0.0194619,6.05351E-11,6.821729E-07,-1.121754E-07,-1.252279E-08,-2.861022E-08
572.3593,0.0449847,-7.550998E-09,NaN,-0.3271803,-1.33997E-07,NaN,0.4808201,-8.448148E-08,NaN,-0.1294731,1.744964E-05,-0.3890165,4.88329E-08,NaN,NaN,-0.0194619,6.05351E-11,6.821729E-07,-1.121754E-07,-1.252279E-08,-2.861022E-08
572.376,0.04498478,-7.550168E-09,NaN,-0.3271796,-1.339967E-07,NaN,0.4823113,-8.464705E-08,NaN,-0.1314647,1.745015E-05,-0.3905041,4.900004E-08,NaN,NaN,-0.01952629,5.587849E-11,6.398536E-07,-1.12174E-07,-5.370229E-09,-2.622604E-08
572.3907,0.04498485,-7.549339E-09,NaN,-0.3271789,-1.339962E-07,NaN,0.48367,-8.482331E-08,NaN,-0.1342446,1.745064E-05,-0.3918704,4.917787E-08,NaN,NaN,-0.01956451,6.05351E-11,6.115413E-07,-1.121725E-07,-1.01386E-08,-2.861022E-08
572.4067,0.04498491,-7.548509E-09,NaN,-0.3271782,-1.339957E-07,NaN,0.4848355,-8.500443E-08,NaN,-0.137367,1.745115E-05,-0.3930472,4.936056E-08,NaN,NaN,-0.01959122,5.587849E-11,5.894876E-07,-1.12171E-07,-1.01386E-08,-2.622604E-08
572.4227,0.04498498,-7.54768E-09,NaN,-0.3271776,-1.339952E-07,NaN,0.4858514,-8.518752E-08,NaN,-0.1406231,1.745165E-05,-0.3940746,4.954522E-08,NaN,NaN,-0.0196125,6.05351E-11,5.6803E-07,-1.121694E-07,-1.252279E-08,-2.861022E-08
572.438,0.04498498,-7.54768E-09,NaN,-0.3271776,-1.339952E-07,NaN,0.4858514,-8.518752E-08,NaN,-0.1406231,1.745165E-05,-0.3940746,4.954522E-08,NaN,NaN,-0.0196125,6.05351E-11,5.6803E-07,-1.121694E-07,-1.252279E-08,-2.861022E-08
572.453,0.04498506,-7.54685E-09,NaN,-0.3271769,-1.339947E-07,NaN,0.4873927,-8.536973E-08,NaN,-0.1451269,1.745216E-05,-0.3956453,4.972901E-08,NaN,NaN,-0.01968149,5.587849E-11,5.218364E-07,-1.121679E-07,-1.490697E-08,-2.622604E-08
572.4696,0.04498513,-7.546021E-09,NaN,-0.3271762,-1.339942E-07,NaN,0.4888027,-8.554825E-08,NaN,-0.1503395,1.745266E-05,-0.3970962,4.990911E-08,NaN,NaN,-0.01972613,5.587849E-11,4.810072E-07,-1.121664E-07,-1.252279E-08,-2.861022E-08
572.4853,0.0449852,-7.545191E-09,NaN,-0.3271756,-1.339937E-07,NaN,0.4900185,-8.572317E-08,NaN,-0.1558376,1.745317E-05,-0.3983573,5.00856E-08,NaN,NaN,-0.01975954,5.122187E-11,4.515029E-07,-1.121649E-07,-7.754415E-09,-2.622604E-08
572.5012,0.04498527,-7.544362E-09,NaN,-0.3271749,-1.339931E-07,NaN,0.4910772,-8.589172E-08,NaN,-0.1614229,1.745367E-05,-0.3994626,5.025574E-08,NaN,NaN,-0.01978707,5.587849E-11,4.243828E-07,-1.121634E-07,-1.252279E-08,-2.861022E-08
572.5171,0.04498527,-7.544362E-09,NaN,-0.3271749,-1.339931E-07,NaN,0.4910772,-8.589172E-08,NaN,-0.1614229,1.745367E-05,-0.3994626,5.025574E-08,NaN,NaN,-0.01978707,5.587849E-11,4.243828E-07,-1.121634E-07,-1.252279E-08,-2.861022E-08
572.5324,0.04498535,-7.543532E-09,NaN,-0.3271743,-1.339926E-07,NaN,0.4925714,-8.605686E-08,NaN,-0.1682203,1.745417E-05,-0.4010243,5.042246E-08,NaN,NaN,-0.01985177,5.122187E-11,3.704406E-07,-1.121619E-07,-1.490697E-08,-2.622604E-08
572.5488,0.04498543,-7.542702E-09,NaN,-0.3271736,-1.339921E-07,NaN,0.4939302,-8.621584E-08,NaN,-0.1756842,1.745467E-05,-0.4024647,5.058302E-08,NaN,NaN,-0.01989517,5.122187E-11,3.290154E-07,-1.121604E-07,-1.01386E-08,-2.861022E-08
572.5644,0.0449855,-7.541873E-09,NaN,-0.327173,-1.339915E-07,NaN,0.4950918,-8.63716E-08,NaN,-0.1833957,1.745518E-05,-0.4037146,5.074036E-08,NaN,NaN,-0.01992825,5.122187E-11,2.926565E-07,-1.121589E-07,-1.490697E-08,-2.622604E-08
572.5804,0.04498558,-7.541043E-09,NaN,-0.3271723,-1.33991E-07,NaN,0.4960897,-8.652138E-08,NaN,-0.1911587,1.745568E-05,-0.404804,5.089173E-08,NaN,NaN,-0.01995554,5.122187E-11,2.610661E-07,-1.121574E-07,-1.729116E-08,-2.861022E-08
572.5966,0.04498558,-7.541043E-09,NaN,-0.3271723,-1.33991E-07,NaN,0.4960897,-8.652138E-08,NaN,-0.1911587,1.745568E-05,-0.404804,5.089173E-08,NaN,NaN,-0.01995554,5.122187E-11,2.610661E-07,-1.121574E-07,-1.729116E-08,-2.861022E-08
572.6118,0.04498564,-7.540214E-09,NaN,-0.3271717,-1.339905E-07,NaN,0.4964139,-8.666812E-08,NaN,-0.1974417,1.745619E-05,-0.4051936,5.104005E-08,NaN,NaN,-0.01994293,4.656526E-11,2.682186E-07,-1.121559E-07,-2.205953E-08,-2.622604E-08
572.6285,0.0449857,-7.539384E-09,NaN,-0.327171,-1.3399E-07,NaN,0.4966688,-8.680906E-08,NaN,-0.2028051,1.745669E-05,-0.4054964,5.118257E-08,NaN,NaN,-0.01994407,4.656526E-11,2.6047E-07,-1.121544E-07,-2.68279E-08,-2.861022E-08
572.6441,0.04498576,-7.538555E-09,NaN,-0.3271703,-1.339894E-07,NaN,0.4969648,-8.694713E-08,NaN,-0.2076951,1.745719E-05,-0.4058329,5.132223E-08,NaN,NaN,-0.01995013,4.656526E-11,2.467609E-07,-1.121529E-07,-1.729116E-08,-2.622604E-08
572.6605,0.04498582,-7.537725E-09,NaN,-0.3271697,-1.339889E-07,NaN,0.4972969,-8.707958E-08,NaN,-0.2123226,1.745769E-05,-0.4062037,5.145625E-08,NaN,NaN,-0.01995772,5.122187E-11,2.333499E-07,-1.121514E-07,-7.754412E-09,-2.861022E-08
572.6759,0.04498582,-7.537725E-09,NaN,-0.3271697,-1.339889E-07,NaN,0.4972969,-8.707958E-08,NaN,-0.2123226,1.745769E-05,-0.4062037,5.145625E-08,NaN,NaN,-0.01995772,5.122187E-11,2.333499E-07,-1.121514E-07,-7.754412E-09,-2.861022E-08
572.6912,0.04498588,-7.536896E-09,NaN,-0.327169,-1.339884E-07,NaN,0.4976419,-8.720932E-08,NaN,-0.2167885,1.74582E-05,-0.4065881,5.158758E-08,NaN,NaN,-0.01996556,4.656526E-11,2.169586E-07,-1.121499E-07,-1.01386E-08,-2.622604E-08
572.7076,0.04498595,-7.536066E-09,NaN,-0.3271684,-1.339879E-07,NaN,0.4979813,-8.73336E-08,NaN,-0.2211413,1.745869E-05,-0.406969,5.171344E-08,NaN,NaN,-0.01997314,5.122187E-11,2.029515E-07,-1.121485E-07,-1.490697E-08,-2.861022E-08
572.7236,0.04498601,-7.535236E-09,NaN,-0.3271677,-1.339873E-07,NaN,0.4983042,-8.745533E-08,NaN,-0.2254047,1.74592E-05,-0.407336,5.183676E-08,NaN,NaN,-0.01998027,5.122187E-11,1.892425E-07,-1.12147E-07,-1.729116E-08,-2.622604E-08
572.7397,0.04498601,-7.535236E-09,NaN,-0.3271677,-1.339873E-07,NaN,0.4983042,-8.745533E-08,NaN,-0.2254047,1.74592E-05,-0.407336,5.183676E-08,NaN,NaN,-0.01998027,5.122187E-11,1.892425E-07,-1.12147E-07,-1.729116E-08,-2.622604E-08
572.7549,0.04498607,-7.534407E-09,NaN,-0.3271671,-1.339868E-07,NaN,0.4986051,-8.757176E-08,NaN,-0.2295907,1.74597E-05,-0.4076833,5.195477E-08,NaN,NaN,-0.01998692,5.122187E-11,1.758314E-07,-1.121456E-07,-1.490697E-08,-2.861022E-08
572.7712,0.04498603,-7.533577E-09,NaN,-0.3271665,-1.339863E-07,NaN,0.4988817,-8.768297E-08,NaN,-0.2337055,1.746021E-05,-0.4080086,5.206757E-08,NaN,NaN,-0.01999308,4.656526E-11,1.630164E-07,-1.121441E-07,-1.01386E-08,-2.622604E-08
572.7868,0.04498595,-7.532748E-09,NaN,-0.3271658,-1.339858E-07,NaN,0.4991333,-8.77919E-08,NaN,-0.2377526,1.74607E-05,-0.408311,5.217809E-08,NaN,NaN,-0.01999877,5.122187E-11,1.499034E-07,-1.121427E-07,-5.370227E-09,-2.861022E-08
572.8028,0.04498586,-7.531918E-09,NaN,-0.3271652,-1.339853E-07,NaN,0.4993603,-8.789578E-08,NaN,-0.2417344,1.746121E-05,-0.4085907,5.228355E-08,NaN,NaN,-0.02000402,5.122187E-11,1.379825E-07,-1.121412E-07,-1.01386E-08,-2.622604E-08
572.8188,0.04498586,-7.531918E-09,NaN,-0.3271652,-1.339853E-07,NaN,0.4993603,-8.789578E-08,NaN,-0.2417344,1.746121E-05,-0.4085907,5.228355E-08,NaN,NaN,-0.02000402,5.122187E-11,1.379825E-07,-1.121412E-07,-1.01386E-08,-2.622604E-08
572.834,0.04498577,-7.531088E-09,NaN,-0.3271646,-1.339848E-07,NaN,0.4995634,-8.799751E-08,NaN,-0.2456524,1.746171E-05,-0.4088482,5.238687E-08,NaN,NaN,-0.02000885,5.587849E-11,1.245714E-07,-1.121398E-07,-7.754412E-09,-2.861022E-08
572.8506,0.04425823,-7.530258E-09,NaN,-0.3271652,-1.339843E-07,NaN,0.5007591,-8.809432E-08,NaN,-0.249106,1.746221E-05,-0.4099395,5.248527E-08,NaN,NaN,-0.02001196,5.122187E-11,1.135446E-07,-1.121384E-07,-5.370226E-09,-2.622604E-08
572.8667,0.04307599,-7.529428E-09,NaN,-0.327166,-1.339838E-07,NaN,0.5022264,-8.818914E-08,NaN,-0.252382,1.746271E-05,-0.4112236,5.258167E-08,NaN,NaN,-0.02001454,5.587849E-11,1.034118E-07,-1.12137E-07,-1.01386E-08,-2.861022E-08
572.8839,0.04161258,-7.528598E-09,NaN,-0.3271666,-1.339832E-07,NaN,0.5036984,-8.827917E-08,NaN,-0.2555946,1.746322E-05,-0.4124758,5.267329E-08,NaN,NaN,-0.02001693,5.122187E-11,9.119285E-08,-1.121355E-07,-1.01386E-08,-2.622604E-08
572.8985,0.04161258,-7.528598E-09,NaN,-0.3271666,-1.339832E-07,NaN,0.5036984,-8.827917E-08,NaN,-0.2555946,1.746322E-05,-0.4124758,5.267329E-08,NaN,NaN,-0.02001693,5.122187E-11,9.119285E-08,-1.121355E-07,-1.01386E-08,-2.622604E-08
572.9133,0.0399784,-7.527768E-09,NaN,-0.327167,-1.339827E-07,NaN,0.5050883,-8.836734E-08,NaN,-0.2587823,1.746372E-05,-0.413632,5.276304E-08,NaN,NaN,-0.02001917,5.587849E-11,8.135808E-08,-1.121341E-07,-2.98604E-09,-2.861022E-08
572.93,0.03751529,-7.526937E-09,NaN,-0.327169,-1.339822E-07,NaN,0.5073603,-8.845085E-08,NaN,-0.2615521,1.746422E-05,-0.4155122,5.284814E-08,NaN,NaN,-0.02002,5.122187E-11,7.211936E-08,-1.121327E-07,-2.98604E-09,-2.622604E-08
572.9459,0.03454094,-7.526107E-09,NaN,-0.3271712,-1.339817E-07,NaN,0.5098258,-8.853262E-08,NaN,-0.2641863,1.746473E-05,-0.4175137,5.29315E-08,NaN,NaN,-0.02002051,5.122187E-11,6.437076E-08,-1.121313E-07,-1.01386E-08,-2.861022E-08
572.9617,0.03125738,-7.525277E-09,NaN,-0.3271729,-1.339812E-07,NaN,0.5122362,-8.860985E-08,NaN,-0.2667922,1.746523E-05,-0.4194325,5.301032E-08,NaN,NaN,-0.02002096,5.122187E-11,5.572809E-08,-1.121299E-07,-1.490697E-08,-2.622604E-08
572.9775,0.03125738,-7.525277E-09,NaN,-0.3271729,-1.339812E-07,NaN,0.5122362,-8.860985E-08,NaN,-0.2667922,1.746523E-05,-0.4194325,5.301032E-08,NaN,NaN,-0.02002096,5.122187E-11,5.572809E-08,-1.121299E-07,-1.490697E-08,-2.622604E-08
572.9926,0.02779303,-7.524448E-09,NaN,-0.3271738,-1.339807E-07,NaN,0.514517,-8.868547E-08,NaN,-0.269402,1.746573E-05,-0.4212172,5.308753E-08,NaN,NaN,-0.02002137,5.122187E-11,4.678739E-08,-1.121285E-07,-1.01386E-08,-2.861022E-08
573.009,0.02350114,-7.523618E-09,NaN,-0.3271763,-1.339802E-07,NaN,0.5176213,-8.875669E-08,NaN,-0.2716195,1.746623E-05,-0.4236814,5.316033E-08,NaN,NaN,-0.02002053,5.122187E-11,4.082693E-08,-1.121271E-07,-1.729116E-08,-2.622604E-08
573.0248,0.01870657,-7.522789E-09,NaN,-0.3271784,-1.339797E-07,NaN,0.5208827,-8.883765E-08,NaN,-0.2737221,1.746673E-05,-0.4262432,5.324287E-08,NaN,NaN,-0.02001945,5.122187E-11,3.397239E-08,-1.121257E-07,-1.967534E-08,-2.861022E-08
573.0405,0.01361584,-7.521959E-09,NaN,-0.3271796,-1.339797E-07,NaN,0.5240626,-8.871742E-08,NaN,-0.2758136,1.746724E-05,-0.4287072,5.312422E-08,NaN,NaN,-0.02001838,4.656526E-11,2.741588E-08,-1.121234E-07,-2.205953E-08,-2.622604E-08
573.0564,0.01361584,-7.521959E-09,NaN,-0.3271796,-1.339797E-07,NaN,0.5240626,-8.871742E-08,NaN,-0.2758136,1.746724E-05,-0.4287072,5.312422E-08,NaN,NaN,-0.02001838,4.656526E-11,2.741588E-08,-1.121234E-07,-2.205953E-08,-2.622604E-08
573.0714,0.008360107,-7.521129E-09,NaN,-0.3271802,-1.339795E-07,NaN,0.5270922,-8.862192E-08,NaN,-0.2779246,1.746774E-05,-0.4310268,5.303031E-08,NaN,NaN,-0.02001734,4.656526E-11,1.936925E-08,-1.12121E-07,-2.444371E-08,-2.861022E-08
573.0884,0.002294278,-7.5203E-09,NaN,-0.3271818,-1.339793E-07,NaN,0.5309151,-8.751071E-08,NaN,-0.2796597,1.746825E-05,-0.4340087,5.192068E-08,NaN,NaN,-0.02001511,4.190865E-11,1.311077E-08,-1.121188E-07,-1.729115E-08,-2.622604E-08
573.104,-0.004255787,-7.51947E-09,NaN,-0.3271828,-1.339788E-07,NaN,0.5348756,-8.762136E-08,NaN,-0.2812937,1.746875E-05,-0.4370802,5.203291E-08,NaN,NaN,-0.0200127,4.190865E-11,9.83251E-09,-1.121174E-07,-1.729115E-08,-2.861022E-08
573.1196,-0.004255787,-7.51947E-09,NaN,-0.3271828,-1.339788E-07,NaN,0.5348756,-8.762136E-08,NaN,-0.2812937,1.746875E-05,-0.4370802,5.203291E-08,NaN,NaN,-0.0200127,4.190865E-11,9.83251E-09,-1.121174E-07,-1.729115E-08,-2.861022E-08
573.1348,-0.01108304,-7.518641E-09,NaN,-0.3271831,-1.339782E-07,NaN,0.5387402,-8.771567E-08,NaN,-0.2829295,1.746926E-05,-0.4400494,5.21288E-08,NaN,NaN,-0.02001033,3.725204E-11,5.958208E-09,-1.12116E-07,-1.490697E-08,-2.622604E-08
573.1517,-0.01805608,-7.517811E-09,NaN,-0.3271828,-1.339777E-07,NaN,0.5424407,-8.779958E-08,NaN,-0.2845966,1.746976E-05,-0.4428691,5.22143E-08,NaN,NaN,-0.02000802,3.725204E-11,-1.790395E-09,-1.121146E-07,-1.490697E-08,-2.861022E-08
573.1676,-0.02581993,-7.516982E-09,NaN,-0.3271835,-1.339772E-07,NaN,0.5469202,-8.787895E-08,NaN,-0.2859024,1.747028E-05,-0.4463479,5.229524E-08,NaN,NaN,-0.02000457,2.32822E-11,-6.260743E-09,-1.121133E-07,-1.252278E-08,-2.622604E-08
573.183,-0.03404874,-7.516152E-09,NaN,-0.3271835,-1.339767E-07,NaN,0.5515243,-8.795384E-08,NaN,-0.2871193,1.747078E-05,-0.4499132,5.237171E-08,NaN,NaN,-0.02000096,1.862559E-11,-9.538999E-09,-1.12112E-07,-5.370226E-09,-2.861022E-08
573.1992,-0.03404874,-7.516152E-09,NaN,-0.3271835,-1.339767E-07,NaN,0.5515243,-8.795384E-08,NaN,-0.2871193,1.747078E-05,-0.4499132,5.237171E-08,NaN,NaN,-0.02000096,1.862559E-11,-9.538999E-09,-1.12112E-07,-5.370226E-09,-2.861022E-08
573.2142,-0.04253556,-7.515323E-09,NaN,-0.3271828,-1.339762E-07,NaN,0.5560212,-8.802716E-08,NaN,-0.2883489,1.747128E-05,-0.4533729,5.244662E-08,NaN,NaN,-0.01999743,1.396897E-11,-1.520144E-08,-1.121106E-07,-1.01386E-08,-2.622604E-08
573.2308,-0.05114914,-7.514493E-09,NaN,-0.3271815,-1.339757E-07,NaN,0.5603429,-8.809613E-08,NaN,-0.2896204,1.747178E-05,-0.456679,5.251717E-08,NaN,NaN,-0.01999399,9.312362E-12,-1.937376E-08,-1.121093E-07,-1.967534E-08,-2.861022E-08
573.2466,-0.0605347,-7.513663E-09,NaN,-0.327181,-1.339752E-07,NaN,0.5654395,-8.816082E-08,NaN,-0.290545,1.747228E-05,-0.4606501,5.258345E-08,NaN,NaN,-0.0199894,4.655749E-12,-1.967179E-08,-1.12108E-07,-1.490697E-08,-2.622604E-08
573.2624,-0.07036655,-7.512834E-09,NaN,-0.3271798,-1.339747E-07,NaN,0.5706521,-8.822414E-08,NaN,-0.2913919,1.747279E-05,-0.464707,5.264835E-08,NaN,NaN,-0.01998467,-8.638923E-16,-2.295004E-08,-1.121067E-07,-1.729116E-08,-2.861022E-08
573.2783,-0.07036655,-7.512834E-09,NaN,-0.3271798,-1.339747E-07,NaN,0.5706521,-8.822414E-08,NaN,-0.2913919,1.747279E-05,-0.464707,5.264835E-08,NaN,NaN,-0.01998467,-8.638923E-16,-2.295004E-08,-1.121067E-07,-1.729116E-08,-2.861022E-08
573.2936,-0.08043793,-7.512004E-09,NaN,-0.3271777,-1.339742E-07,NaN,0.5757481,-8.828329E-08,NaN,-0.2922618,1.747329E-05,-0.4686559,5.270909E-08,NaN,NaN,-0.01998005,-4.657477E-12,-2.2354E-08,-1.121053E-07,-1.490697E-08,-2.622604E-08
573.3101,-0.09061781,-7.511175E-09,NaN,-0.327175,-1.339737E-07,NaN,0.5806599,-8.834119E-08,NaN,-0.2931833,1.747379E-05,-0.4724479,5.276856E-08,NaN,NaN,-0.01997553,-9.314089E-12,-2.458917E-08,-1.12104E-07,-1.252278E-08,-2.861022E-08
573.3261,-0.1015516,-7.510345E-09,NaN,-0.3271731,-1.339733E-07,NaN,0.5863505,-8.839502E-08,NaN,-0.2937723,1.747429E-05,-0.476917,5.282398E-08,NaN,NaN,-0.01996983,-1.39707E-11,-2.324807E-08,-1.121027E-07,-1.252278E-08,-2.622604E-08
573.3417,-0.1129138,-7.509516E-09,NaN,-0.3271703,-1.339728E-07,NaN,0.5921517,-8.84477E-08,NaN,-0.2942942,1.747479E-05,-0.4814735,5.287824E-08,NaN,NaN,-0.01996403,-9.314089E-12,-2.220498E-08,-1.121014E-07,-1.252278E-08,-2.861022E-08
573.3575,-0.1129138,-7.509516E-09,NaN,-0.3271703,-1.339728E-07,NaN,0.5921517,-8.84477E-08,NaN,-0.2942942,1.747479E-05,-0.4814735,5.287824E-08,NaN,NaN,-0.01996403,-9.314089E-12,-2.220498E-08,-1.121014E-07,-1.252278E-08,-2.861022E-08
573.3724,-0.1244979,-7.508686E-09,NaN,-0.3271663,-1.339723E-07,NaN,0.5978276,-8.849641E-08,NaN,-0.2948485,1.747529E-05,-0.4859189,5.292854E-08,NaN,NaN,-0.01995835,-1.39707E-11,-2.36951E-08,-1.121001E-07,-1.729116E-08,-2.622604E-08
573.3893,-0.136173,-7.507857E-09,NaN,-0.3271605,-1.339718E-07,NaN,0.6033095,-8.854408E-08,NaN,-0.2954632,1.747579E-05,-0.490202,5.297779E-08,NaN,NaN,-0.01995281,-1.39707E-11,-2.458917E-08,-1.120989E-07,-2.205953E-08,-2.861022E-08
573.4061,-0.1485847,-7.507027E-09,NaN,-0.3271559,-1.339713E-07,NaN,0.6095822,-8.858787E-08,NaN,-0.2957599,1.747629E-05,-0.4951818,5.302317E-08,NaN,NaN,-0.01994604,-1.862731E-11,-2.682434E-08,-1.120976E-07,-1.967534E-08,-2.622604E-08
573.4206,-0.1614078,-7.506197E-09,NaN,-0.3271498,-1.339709E-07,NaN,0.6159616,-8.863071E-08,NaN,-0.2959998,1.747679E-05,-0.5002506,5.30676E-08,NaN,NaN,-0.01993917,-1.862731E-11,-2.145993E-08,-1.120963E-07,-2.205953E-08,-2.861022E-08
573.4365,-0.1614078,-7.506197E-09,NaN,-0.3271498,-1.339709E-07,NaN,0.6159616,-8.863071E-08,NaN,-0.2959998,1.747679E-05,-0.5002506,5.30676E-08,NaN,NaN,-0.01993917,-1.862731E-11,-2.145993E-08,-1.120963E-07,-2.205953E-08,-2.861022E-08
573.4515,-0.1744359,-7.505368E-09,NaN,-0.3271416,-1.339703E-07,NaN,0.622208,-8.809632E-08,NaN,-0.2962808,1.747728E-05,-0.5052054,5.248974E-08,NaN,NaN,-0.01993246,-2.328393E-11,-2.026783E-08,-1.120926E-07,-2.68279E-08,-2.861022E-08
573.4682,-0.1875382,-7.504538E-09,NaN,-0.3271314,-1.339691E-07,NaN,0.6282533,-8.756193E-08,NaN,-0.2966307,1.747778E-05,-0.5099946,5.18803E-08,NaN,NaN,-0.0199259,-2.794054E-11,-1.952277E-08,-1.120884E-07,-2.444371E-08,-2.861022E-08
573.4838,-0.2013607,-7.503709E-09,NaN,-0.3271221,-1.339676E-07,NaN,0.635106,-8.702754E-08,NaN,-0.2966772,1.747827E-05,-0.5155032,5.124887E-08,NaN,NaN,-0.01991806,-2.794054E-11,-1.743661E-08,-1.120841E-07,-2.205953E-08,-2.861022E-08
573.4998,-0.2013607,-7.503709E-09,NaN,-0.3271221,-1.339676E-07,NaN,0.635106,-8.702754E-08,NaN,-0.2966772,1.747827E-05,-0.5155032,5.124887E-08,NaN,NaN,-0.01991806,-2.794054E-11,-1.743661E-08,-1.120841E-07,-2.205953E-08,-2.861022E-08
573.5148,-0.2155782,-7.502879E-09,NaN,-0.3271111,-1.339658E-07,NaN,0.6420643,-8.649315E-08,NaN,-0.2966769,1.747876E-05,-0.5211049,5.060248E-08,NaN,NaN,-0.01991012,-2.794054E-11,-1.520144E-08,-1.120796E-07,-2.68279E-08,-2.861022E-08
573.5313,-0.2299846,-7.50205E-09,NaN,-0.3270978,-1.33964E-07,NaN,0.6488837,-8.595875E-08,NaN,-0.2967262,1.747924E-05,-0.5265905,4.99463E-08,NaN,NaN,-0.01990236,-2.328393E-11,-9.688009E-09,-1.120765E-07,-2.921208E-08,-2.861022E-08
573.5472,-0.2444494,-7.501221E-09,NaN,-0.3270825,-1.339624E-07,NaN,0.655495,-8.542436E-08,NaN,-0.2968523,1.747973E-05,-0.5319067,4.92841E-08,NaN,NaN,-0.01989476,-2.794054E-11,-4.174579E-09,-1.120723E-07,-2.921208E-08,-2.861022E-08
573.5633,-0.2596186,-7.500392E-09,NaN,-0.3270681,-1.339607E-07,NaN,0.6629354,-8.488997E-08,NaN,-0.29669,1.748023E-05,-0.5379695,4.861865E-08,NaN,NaN,-0.01988581,-3.725376E-11,5.937926E-10,-1.120679E-07,-2.921208E-08,-2.861022E-08
573.5789,-0.2596186,-7.500392E-09,NaN,-0.3270681,-1.339607E-07,NaN,0.6629354,-8.488997E-08,NaN,-0.29669,1.748023E-05,-0.5379695,4.861865E-08,NaN,NaN,-0.01988581,-3.725376E-11,5.937926E-10,-1.120679E-07,-2.921208E-08,-2.861022E-08
573.5938,-0.2751672,-7.499564E-09,NaN,-0.3270518,-1.339589E-07,NaN,0.6704816,-8.435558E-08,NaN,-0.2964905,1.748073E-05,-0.54413,4.795198E-08,NaN,NaN,-0.01987678,-4.656699E-11,5.660187E-09,-1.120634E-07,-2.205953E-08,-2.861022E-08
573.6102,-0.2908892,-7.498736E-09,NaN,-0.3270332,-1.339565E-07,NaN,0.6778829,-8.382118E-08,NaN,-0.2963487,1.748122E-05,-0.5501716,4.728557E-08,NaN,NaN,-0.01986794,-4.656699E-11,9.832513E-09,-1.120631E-07,-1.967534E-08,-2.622604E-08
573.6263,-0.3066545,-7.497908E-09,NaN,-0.3270125,-1.339549E-07,NaN,0.6850689,-8.328679E-08,NaN,-0.2962912,1.748173E-05,-0.556039,4.662049E-08,NaN,NaN,-0.01985929,-5.12236E-11,1.311077E-08,-1.120636E-07,-1.490697E-08,-2.861022E-08
573.642,-0.3231091,-7.49708E-09,NaN,-0.3269927,-1.339538E-07,NaN,0.6931095,-8.27524E-08,NaN,-0.2959606,1.748222E-05,-0.5626837,4.595753E-08,NaN,NaN,-0.01984919,-5.588021E-11,1.6091E-08,-1.120629E-07,-1.490697E-08,-2.622604E-08
573.6576,-0.3231091,-7.49708E-09,NaN,-0.3269927,-1.339538E-07,NaN,0.6931095,-8.27524E-08,NaN,-0.2959606,1.748222E-05,-0.5626837,4.595753E-08,NaN,NaN,-0.01984919,-5.588021E-11,1.6091E-08,-1.120629E-07,-1.490697E-08,-2.622604E-08
573.6729,-0.3399283,-7.496253E-09,NaN,-0.326971,-1.339526E-07,NaN,0.7012569,-8.221801E-08,NaN,-0.2956024,1.748273E-05,-0.5694309,4.529726E-08,NaN,NaN,-0.01983904,-6.519343E-11,2.860797E-08,-1.120621E-07,-1.01386E-08,-2.861022E-08
573.6894,-0.3569063,-7.495427E-09,NaN,-0.3269468,-1.339514E-07,NaN,0.7092535,-8.168362E-08,NaN,-0.2953094,1.748321E-05,-0.5760558,4.464009E-08,NaN,NaN,-0.01982911,-6.519343E-11,3.069414E-08,-1.120613E-07,-1.252278E-08,-2.622604E-08
573.7051,-0.373913,-7.4946E-09,NaN,-0.3269205,-1.339502E-07,NaN,0.7170267,-8.114922E-08,NaN,-0.2951079,1.74837E-05,-0.5825008,4.398631E-08,NaN,NaN,-0.01981938,-6.519343E-11,3.799571E-08,-1.120605E-07,-1.01386E-08,-2.861022E-08
573.7208,-0.3915947,-7.493773E-09,NaN,-0.3268952,-1.33949E-07,NaN,0.7256836,-8.061483E-08,NaN,-0.294649,1.74842E-05,-0.5897564,4.333614E-08,NaN,NaN,-0.01980813,-6.985005E-11,4.410519E-08,-1.120597E-07,-7.754414E-09,-2.622604E-08
573.7368,-0.3915947,-7.493773E-09,NaN,-0.3268952,-1.33949E-07,NaN,0.7256836,-8.061483E-08,NaN,-0.294649,1.74842E-05,-0.5897564,4.333614E-08,NaN,NaN,-0.01980813,-6.985005E-11,4.410519E-08,-1.120597E-07,-7.754414E-09,-2.622604E-08
573.7518,-0.4096268,-7.492946E-09,NaN,-0.3268679,-1.339478E-07,NaN,0.734449,-8.008044E-08,NaN,-0.294172,1.748469E-05,-0.5971193,4.268972E-08,NaN,NaN,-0.01979683,-7.916327E-11,5.304588E-08,-1.120588E-07,-1.490697E-08,-2.861022E-08
573.7684,-0.4278037,-7.492119E-09,NaN,-0.3268382,-1.339465E-07,NaN,0.7430564,-7.954605E-08,NaN,-0.2937676,1.748518E-05,-0.6043553,4.204715E-08,NaN,NaN,-0.01978579,-9.313311E-11,6.124152E-08,-1.12058E-07,-1.729116E-08,-2.622604E-08
573.7843,-0.4459955,-7.491292E-09,NaN,-0.3268063,-1.339453E-07,NaN,0.7514313,-7.901166E-08,NaN,-0.2934612,1.748567E-05,-0.611404,4.14085E-08,NaN,NaN,-0.019775,-9.313311E-11,7.048024E-08,-1.120572E-07,-1.967534E-08,-2.861022E-08
573.8004,-0.4648485,-7.490465E-09,NaN,-0.3267754,-1.339441E-07,NaN,0.7607214,-7.847726E-08,NaN,-0.2929141,1.748616E-05,-0.6192989,4.077381E-08,NaN,NaN,-0.01976259,-1.024463E-10,7.76328E-08,-1.120564E-07,-1.967534E-08,-2.622604E-08
573.8159,-0.4648485,-7.490465E-09,NaN,-0.3267754,-1.339441E-07,NaN,0.7607214,-7.847726E-08,NaN,-0.2929141,1.748616E-05,-0.6192989,4.077381E-08,NaN,NaN,-0.01976259,-1.024463E-10,7.76328E-08,-1.120564E-07,-1.967534E-08,-2.622604E-08
573.8312,-0.4840384,-7.489638E-09,NaN,-0.3267426,-1.339429E-07,NaN,0.7701209,-7.794287E-08,NaN,-0.2923582,1.748665E-05,-0.6273047,4.014311E-08,NaN,NaN,-0.01975016,-1.07103E-10,8.657349E-08,-1.120556E-07,-1.729116E-08,-2.861022E-08
573.8477,-0.5033598,-7.488811E-09,NaN,-0.3267072,-1.339417E-07,NaN,0.7793539,-7.740848E-08,NaN,-0.2918819,1.748713E-05,-0.6351773,3.95164E-08,NaN,NaN,-0.01973803,-1.07103E-10,9.43221E-08,-1.120548E-07,-1.729116E-08,-2.622604E-08
573.8636,-0.5226828,-7.487984E-09,NaN,-0.3266697,-1.339406E-07,NaN,0.7883437,-7.687409E-08,NaN,-0.2915099,1.748763E-05,-0.6428533,3.889368E-08,NaN,NaN,-0.01972619,-1.117596E-10,9.81964E-08,-1.12054E-07,-1.252279E-08,-2.861022E-08
573.8795,-0.5226828,-7.487984E-09,NaN,-0.3266697,-1.339406E-07,NaN,0.7883437,-7.687409E-08,NaN,-0.2915099,1.748763E-05,-0.6428533,3.889368E-08,NaN,NaN,-0.01972619,-1.117596E-10,9.81964E-08,-1.12054E-07,-1.252279E-08,-2.861022E-08
573.8948,-0.542654,-7.487158E-09,NaN,-0.3266333,-1.339394E-07,NaN,0.7982812,-7.63397E-08,NaN,-0.2909146,1.748812E-05,-0.6514117,3.827496E-08,NaN,NaN,-0.01971264,-1.07103E-10,1.040078E-07,-1.120533E-07,-1.490697E-08,-2.622604E-08
573.9131,-0.5629492,-7.486332E-09,NaN,-0.3265949,-1.339383E-07,NaN,0.8083279,-7.58053E-08,NaN,-0.2903199,1.748862E-05,-0.6600836,3.766021E-08,NaN,NaN,-0.01969913,-1.164162E-10,1.108624E-07,-1.120525E-07,-1.252279E-08,-2.861022E-08
573.9272,-0.5833631,-7.485504E-09,NaN,-0.326554,-1.339372E-07,NaN,0.8181976,-7.609466E-08,NaN,-0.2898114,1.74891E-05,-0.6686133,3.788593E-08,NaN,NaN,-0.01968597,-1.164162E-10,1.181639E-07,-1.120503E-07,-2.986043E-09,-2.861022E-08
573.9427,-0.603766,-7.484677E-09,NaN,-0.326511,-1.339355E-07,NaN,0.8278106,-7.645283E-08,NaN,-0.2894131,1.748959E-05,-0.6769343,3.810072E-08,NaN,NaN,-0.01967314,-1.117596E-10,1.288928E-07,-1.120504E-07,4.166514E-09,-2.622604E-08
573.9589,-0.603766,-7.484677E-09,NaN,-0.326511,-1.339355E-07,NaN,0.8278106,-7.645283E-08,NaN,-0.2894131,1.748959E-05,-0.6769343,3.810072E-08,NaN,NaN,-0.01967314,-1.117596E-10,1.288928E-07,-1.120504E-07,4.166514E-09,-2.622604E-08
573.9738,-0.6248046,-7.483851E-09,NaN,-0.3264692,-1.339341E-07,NaN,0.8384039,-7.681099E-08,NaN,-0.2888098,1.749008E-05,-0.6861737,3.825726E-08,NaN,NaN,-0.01965855,-1.07103E-10,1.411117E-07,-1.120508E-07,1.131907E-08,-2.861022E-08
573.9904,-0.6461549,-7.483025E-09,NaN,-0.3264254,-1.339328E-07,NaN,0.849104,-7.716915E-08,NaN,-0.2882164,1.749059E-05,-0.6955267,3.837102E-08,NaN,NaN,-0.01964404,-1.117596E-10,1.436449E-07,-1.120498E-07,1.131907E-08,-2.622604E-08
574.0062,-0.6676117,-7.482199E-09,NaN,-0.326379,-1.339314E-07,NaN,0.8596134,-7.752732E-08,NaN,-0.2877157,1.749108E-05,-0.7047254,3.845338E-08,NaN,NaN,-0.01962996,-1.07103E-10,1.530327E-07,-1.120502E-07,4.166514E-09,-2.861022E-08
574.0222,-0.6890455,-7.481373E-09,NaN,-0.3263306,-1.339302E-07,NaN,0.8698494,-7.788548E-08,NaN,-0.2873307,1.749159E-05,-0.7136999,3.851268E-08,NaN,NaN,-0.01961627,-1.07103E-10,1.585461E-07,-1.120493E-07,8.934885E-09,-2.622604E-08
574.0379,-0.6890455,-7.481373E-09,NaN,-0.3263306,-1.339302E-07,NaN,0.8698494,-7.788548E-08,NaN,-0.2873307,1.749159E-05,-0.7136999,3.851268E-08,NaN,NaN,-0.01961627,-1.07103E-10,1.585461E-07,-1.120493E-07,8.934885E-09,-2.622604E-08
574.0529,-0.7105959,-7.480547E-09,NaN,-0.3262818,-1.339287E-07,NaN,0.880196,-7.824364E-08,NaN,-0.2869689,1.749208E-05,-0.7228049,3.855505E-08,NaN,NaN,-0.01960225,-9.778973E-11,1.694239E-07,-1.120497E-07,1.370326E-08,-2.861022E-08
574.0693,-0.7321295,-7.479721E-09,NaN,-0.3262322,-1.339276E-07,NaN,0.8903852,-7.860181E-08,NaN,-0.2866857,1.74926E-05,-0.7317942,3.8585E-08,NaN,NaN,-0.01958851,-1.07103E-10,1.759804E-07,-1.120488E-07,1.131907E-08,-2.622604E-08
574.085,-0.7535622,-7.478895E-09,NaN,-0.3261822,-1.339262E-07,NaN,0.9003334,-7.895997E-08,NaN,-0.2864977,1.749312E-05,-0.7405927,3.860584E-08,NaN,NaN,-0.01957513,-1.164162E-10,1.8358E-07,-1.120477E-07,6.550699E-09,-2.861022E-08
574.1013,-0.7748418,-7.478068E-09,NaN,-0.3261322,-1.339246E-07,NaN,0.9100226,-7.931813E-08,NaN,-0.2864048,1.749362E-05,-0.7491859,3.861999E-08,NaN,NaN,-0.01956211,-1.117596E-10,1.908816E-07,-1.12048E-07,4.166513E-09,-2.622604E-08
574.1168,-0.7748418,-7.478068E-09,NaN,-0.3261322,-1.339246E-07,NaN,0.9100226,-7.931813E-08,NaN,-0.2864048,1.749362E-05,-0.7491859,3.861999E-08,NaN,NaN,-0.01956211,-1.117596E-10,1.908816E-07,-1.12048E-07,4.166513E-09,-2.622604E-08
574.1322,-0.7959362,-7.477241E-09,NaN,-0.3260828,-1.339234E-07,NaN,0.9194558,-7.96763E-08,NaN,-0.2864009,1.749414E-05,-0.7575772,3.862923E-08,NaN,NaN,-0.01954946,-1.210728E-10,1.989282E-07,-1.120471E-07,4.166513E-09,-2.861022E-08
574.1487,-0.8168257,-7.476414E-09,NaN,-0.3260345,-1.33922E-07,NaN,0.9286402,-8.003446E-08,NaN,-0.2864787,1.749464E-05,-0.7657737,3.863489E-08,NaN,NaN,-0.0195372,-1.164162E-10,2.09508E-07,-1.12046E-07,4.166513E-09,-2.622604E-08
574.1643,-0.8374991,-7.475587E-09,NaN,-0.3259875,-1.339205E-07,NaN,0.9375821,-8.039262E-08,NaN,-0.2866313,1.749514E-05,-0.7737805,3.863791E-08,NaN,NaN,-0.0195253,-1.117596E-10,2.154685E-07,-1.120463E-07,-6.018586E-10,-2.861022E-08
574.1803,-0.8579502,-7.47476E-09,NaN,-0.3259422,-1.339192E-07,NaN,0.9462855,-8.075079E-08,NaN,-0.2868527,1.749565E-05,-0.7816008,3.8639E-08,NaN,NaN,-0.0195138,-1.164162E-10,2.241112E-07,-1.120454E-07,1.782327E-09,-2.622604E-08
574.196,-0.8579502,-7.47476E-09,NaN,-0.3259422,-1.339192E-07,NaN,0.9462855,-8.075079E-08,NaN,-0.2868527,1.749565E-05,-0.7816008,3.8639E-08,NaN,NaN,-0.0195138,-1.164162E-10,2.241112E-07,-1.120454E-07,1.782327E-09,-2.622604E-08
574.2112,-0.8781759,-7.473933E-09,NaN,-0.3258985,-1.339178E-07,NaN,0.954753,-8.110895E-08,NaN,-0.2871381,1.749617E-05,-0.789236,3.863869E-08,NaN,NaN,-0.01950272,-1.210728E-10,2.354361E-07,-1.120443E-07,1.782327E-09,-2.861022E-08
574.2278,-0.8981754,-7.473107E-09,NaN,-0.3258566,-1.339163E-07,NaN,0.9629858,-8.146711E-08,NaN,-0.2874833,1.749668E-05,-0.7966859,3.863735E-08,NaN,NaN,-0.01949206,-1.210728E-10,2.376712E-07,-1.120447E-07,2.97442E-09,-2.622604E-08
574.2438,-0.917949,-7.47228E-09,NaN,-0.3258165,-1.339151E-07,NaN,0.9709839,-8.182528E-08,NaN,-0.2878847,1.74972E-05,-0.8039498,3.863526E-08,NaN,NaN,-0.01948184,-1.257294E-10,2.461649E-07,-1.120438E-07,4.166513E-09,-2.861022E-08
574.2595,-0.917949,-7.47228E-09,NaN,-0.3258165,-1.339151E-07,NaN,0.9709839,-8.182528E-08,NaN,-0.2878847,1.74972E-05,-0.8039498,3.863526E-08,NaN,NaN,-0.01948184,-1.257294E-10,2.461649E-07,-1.120438E-07,4.166513E-09,-2.861022E-08
574.2746,-0.937498,-7.471453E-09,NaN,-0.3257782,-1.339137E-07,NaN,0.9787473,-8.218344E-08,NaN,-0.2883393,1.749771E-05,-0.8110262,3.863263E-08,NaN,NaN,-0.01947205,-1.30386E-10,2.486981E-07,-1.120427E-07,7.742791E-09,-2.622604E-08
574.291,-0.9568239,-7.470626E-09,NaN,-0.3257418,-1.339122E-07,NaN,0.9862753,-8.25416E-08,NaN,-0.2888443,1.749822E-05,-0.8179134,3.862962E-08,NaN,NaN,-0.0194627,-1.30386E-10,2.548076E-07,-1.12043E-07,8.934884E-09,-2.861022E-08
574.3068,-0.9759289,-7.469799E-09,NaN,-0.3257071,-1.33911E-07,NaN,0.9935673,-8.289977E-08,NaN,-0.289397,1.749874E-05,-0.82461,3.862632E-08,NaN,NaN,-0.01945379,-1.350426E-10,2.622581E-07,-1.120421E-07,1.608744E-08,-2.622604E-08
574.3226,-0.994815,-7.468972E-09,NaN,-0.3256741,-1.339097E-07,NaN,1.000623,-8.325793E-08,NaN,-0.289995,1.749924E-05,-0.8311142,3.862283E-08,NaN,NaN,-0.01944532,-1.30386E-10,2.644933E-07,-1.12041E-07,1.608744E-08,-2.861022E-08
574.3384,-0.994815,-7.468972E-09,NaN,-0.3256741,-1.339097E-07,NaN,1.000623,-8.325793E-08,NaN,-0.289995,1.749924E-05,-0.8311142,3.862283E-08,NaN,NaN,-0.01944532,-1.30386E-10,2.644933E-07,-1.12041E-07,1.608744E-08,-2.861022E-08
574.3535,-1.013485,-7.468145E-09,NaN,-0.3256429,-1.339082E-07,NaN,1.007441,-8.361609E-08,NaN,-0.2906361,1.749975E-05,-0.8374249,3.861919E-08,NaN,NaN,-0.01943728,-1.350426E-10,2.670265E-07,-1.120399E-07,1.608744E-08,-2.622604E-08
574.3699,-1.03194,-7.467318E-09,NaN,-0.3256134,-1.339066E-07,NaN,1.014023,-8.397426E-08,NaN,-0.2913179,1.750027E-05,-0.8435408,3.861547E-08,NaN,NaN,-0.01942966,-1.350426E-10,2.744771E-07,-1.120402E-07,1.012698E-08,-2.861022E-08
574.3858,-1.050184,-7.466491E-09,NaN,-0.3255855,-1.339054E-07,NaN,1.020368,-8.433242E-08,NaN,-0.2920383,1.750078E-05,-0.8494614,3.861168E-08,NaN,NaN,-0.01942248,-1.396992E-10,2.752221E-07,-1.120393E-07,7.742791E-09,-2.622604E-08
574.4016,-1.068218,-7.465664E-09,NaN,-0.3255591,-1.33904E-07,NaN,1.026476,-8.469058E-08,NaN,-0.2927953,1.750129E-05,-0.8551859,3.860785E-08,NaN,NaN,-0.01941572,-1.350426E-10,2.764142E-07,-1.120382E-07,2.97442E-09,-2.861022E-08
574.4174,-1.068218,-7.465664E-09,NaN,-0.3255591,-1.33904E-07,NaN,1.026476,-8.469058E-08,NaN,-0.2927953,1.750129E-05,-0.8551859,3.860785E-08,NaN,NaN,-0.01941572,-1.350426E-10,2.764142E-07,-1.120382E-07,2.97442E-09,-2.861022E-08
574.4341,-1.086044,-7.464836E-09,NaN,-0.3255343,-1.339025E-07,NaN,1.032348,-8.504875E-08,NaN,-0.2935868,1.75018E-05,-0.8607137,3.8604E-08,NaN,NaN,-0.01940937,-1.396992E-10,2.816296E-07,-1.12037E-07,1.782327E-09,-2.622604E-08
574.4491,-1.103667,-7.464008E-09,NaN,-0.325511,-1.33901E-07,NaN,1.037984,-8.540691E-08,NaN,-0.2944109,1.750231E-05,-0.866045,3.860014E-08,NaN,NaN,-0.01940342,-1.443558E-10,2.868451E-07,-1.120358E-07,6.550699E-09,-2.861022E-08
574.465,-1.121086,-7.46318E-09,NaN,-0.3254891,-1.338994E-07,NaN,1.043387,-8.576507E-08,NaN,-0.2952656,1.750283E-05,-0.8711798,3.859628E-08,NaN,NaN,-0.01939787,-1.443558E-10,2.898253E-07,-1.120361E-07,5.358606E-09,-2.622604E-08
574.481,-1.138306,-7.462353E-09,NaN,-0.3254686,-1.338982E-07,NaN,1.048557,-8.612324E-08,NaN,-0.296149,1.750334E-05,-0.8761185,3.859243E-08,NaN,NaN,-0.01939271,-1.490124E-10,2.928055E-07,-1.120352E-07,1.012698E-08,-2.861022E-08
574.4969,-1.138306,-7.462353E-09,NaN,-0.3254686,-1.338982E-07,NaN,1.048557,-8.612324E-08,NaN,-0.296149,1.750334E-05,-0.8761185,3.859243E-08,NaN,NaN,-0.01939271,-1.490124E-10,2.928055E-07,-1.120352E-07,1.012698E-08,-2.861022E-08
574.5118,-1.155327,-7.461525E-09,NaN,-0.3254495,-1.338968E-07,NaN,1.053495,-8.64814E-08,NaN,-0.2970595,1.750385E-05,-0.8808618,3.858858E-08,NaN,NaN,-0.01938792,-1.490124E-10,2.950407E-07,-1.120341E-07,6.550699E-09,-2.622604E-08
574.5283,-1.172154,-7.460697E-09,NaN,-0.3254317,-1.338954E-07,NaN,1.058204,-8.683956E-08,NaN,-0.2979952,1.750437E-05,-0.8854105,3.858475E-08,NaN,NaN,-0.01938351,-1.490124E-10,2.971269E-07,-1.120329E-07,5.358606E-09,-2.861022E-08
574.5442,-1.188786,-7.459869E-09,NaN,-0.3254151,-1.338938E-07,NaN,1.062684,-8.719773E-08,NaN,-0.2989545,1.750488E-05,-0.8897656,3.858095E-08,NaN,NaN,-0.01937944,-1.490124E-10,3.026403E-07,-1.120318E-07,5.358606E-09,-2.622604E-08
574.5598,-1.188786,-7.459869E-09,NaN,-0.3254151,-1.338938E-07,NaN,1.062684,-8.719773E-08,NaN,-0.2989545,1.750488E-05,-0.8897656,3.858095E-08,NaN,NaN,-0.01937944,-1.490124E-10,3.026403E-07,-1.120318E-07,5.358606E-09,-2.622604E-08
574.5749,-1.205228,-7.459041E-09,NaN,-0.3253998,-1.338923E-07,NaN,1.066939,-8.755589E-08,NaN,-0.2999356,1.750539E-05,-0.8939283,3.857716E-08,NaN,NaN,-0.01937573,-1.490124E-10,3.074087E-07,-1.120305E-07,4.166513E-09,-2.861022E-08
574.5913,-1.221481,-7.458214E-09,NaN,-0.3253857,-1.338907E-07,NaN,1.070971,-8.791405E-08,NaN,-0.3009371,1.750591E-05,-0.8979003,3.857339E-08,NaN,NaN,-0.01937236,-1.490124E-10,3.060676E-07,-1.120293E-07,2.97442E-09,-2.622604E-08
574.6073,-1.237547,-7.457386E-09,NaN,-0.3253728,-1.338891E-07,NaN,1.074782,-8.827222E-08,NaN,-0.3019573,1.750642E-05,-0.9016831,3.856965E-08,NaN,NaN,-0.0193693,-1.490124E-10,3.081537E-07,-1.120281E-07,3.570467E-09,-2.861022E-08
574.6232,-1.253428,-7.456557E-09,NaN,-0.3253609,-1.338875E-07,NaN,1.078374,-8.863038E-08,NaN,-0.3029948,1.750693E-05,-0.9052784,3.856593E-08,NaN,NaN,-0.01936656,-1.490124E-10,3.108359E-07,-1.120269E-07,1.782328E-09,-2.622604E-08
574.6387,-1.253428,-7.456557E-09,NaN,-0.3253609,-1.338875E-07,NaN,1.078374,-8.863038E-08,NaN,-0.3029948,1.750693E-05,-0.9052784,3.856593E-08,NaN,NaN,-0.01936656,-1.490124E-10,3.108359E-07,-1.120269E-07,1.782328E-09,-2.622604E-08
574.6539,-1.269127,-7.455728E-09,NaN,-0.3253502,-1.338859E-07,NaN,1.081751,-8.898854E-08,NaN,-0.3040482,1.750745E-05,-0.9086882,3.856223E-08,NaN,NaN,-0.01936413,-1.490124E-10,3.181375E-07,-1.120257E-07,1.782328E-09,-2.861022E-08
574.6704,-1.284424,-7.4549E-09,NaN,-0.3253398,-1.338843E-07,NaN,1.084494,-8.934671E-08,NaN,-0.3051833,1.750796E-05,-0.9115214,3.855855E-08,NaN,NaN,-0.0193626,-1.490124E-10,3.138161E-07,-1.120244E-07,2.378374E-09,-2.622604E-08
574.6863,-1.299405,-7.454071E-09,NaN,-0.3253307,-1.338827E-07,NaN,1.086914,-8.970487E-08,NaN,-0.3063518,1.750847E-05,-0.9140701,3.85549E-08,NaN,NaN,-0.01936139,-1.490124E-10,3.153063E-07,-1.120232E-07,2.378374E-09,-2.861022E-08
574.7021,-1.314125,-7.453242E-09,NaN,-0.3253232,-1.338812E-07,NaN,1.089126,-9.006303E-08,NaN,-0.3075318,1.750898E-05,-0.9164396,3.855127E-08,NaN,NaN,-0.01936038,-1.490124E-10,3.166474E-07,-1.12022E-07,5.358606E-09,-2.622604E-08
574.7179,-1.314125,-7.453242E-09,NaN,-0.3253232,-1.338812E-07,NaN,1.089126,-9.006303E-08,NaN,-0.3075318,1.750898E-05,-0.9164396,3.855127E-08,NaN,NaN,-0.01936038,-1.490124E-10,3.166474E-07,-1.12022E-07,5.358606E-09,-2.622604E-08
574.7333,-1.328618,-7.452414E-09,NaN,-0.3253172,-1.338796E-07,NaN,1.091165,-9.04212E-08,NaN,-0.3087144,1.75095E-05,-0.9186623,3.854766E-08,NaN,NaN,-0.01935958,-1.490124E-10,3.144122E-07,-1.120208E-07,5.954652E-09,-2.861022E-08
574.7496,-1.342181,-7.451585E-09,NaN,-0.3253103,-1.33878E-07,NaN,1.091665,-9.077936E-08,NaN,-0.3101147,1.751001E-05,-0.9194604,3.854408E-08,NaN,NaN,-0.01936089,-1.490124E-10,3.150083E-07,-1.120196E-07,6.848722E-09,-2.622604E-08
574.7654,-1.355101,-7.450756E-09,NaN,-0.3253054,-1.338765E-07,NaN,1.091634,-9.113752E-08,NaN,-0.3115811,1.751052E-05,-0.9197814,3.854052E-08,NaN,NaN,-0.01936257,-1.490124E-10,3.133691E-07,-1.120184E-07,6.848722E-09,-2.861022E-08
574.7813,-1.367564,-7.449928E-09,NaN,-0.3253033,-1.338749E-07,NaN,1.091434,-9.149569E-08,NaN,-0.3130473,1.751104E-05,-0.9199603,3.853698E-08,NaN,NaN,-0.01936425,-1.490124E-10,3.123261E-07,-1.120172E-07,7.444768E-09,-2.622604E-08
574.7972,-1.367564,-7.449928E-09,NaN,-0.3253033,-1.338749E-07,NaN,1.091434,-9.149569E-08,NaN,-0.3130473,1.751104E-05,-0.9199603,3.853698E-08,NaN,NaN,-0.01936425,-1.490124E-10,3.123261E-07,-1.120172E-07,7.444768E-09,-2.622604E-08
574.812,-1.379687,-7.449099E-09,NaN,-0.3253029,-1.338733E-07,NaN,1.091167,-9.185385E-08,NaN,-0.3144881,1.751155E-05,-0.9200919,3.853346E-08,NaN,NaN,-0.01936593,-1.490124E-10,3.084517E-07,-1.12016E-07,7.444768E-09,-2.861022E-08
574.8289,-1.390817,-7.44827E-09,NaN,-0.3253021,-1.338718E-07,NaN,1.089501,-9.221201E-08,NaN,-0.316117,1.751206E-05,-0.9189266,3.852997E-08,NaN,NaN,-0.0193695,-1.490124E-10,3.069616E-07,-1.120148E-07,7.146745E-09,-2.622604E-08
574.8443,-1.401276,-7.447442E-09,NaN,-0.3253027,-1.338702E-07,NaN,1.087416,-9.257018E-08,NaN,-0.3177854,1.751258E-05,-0.9173846,3.85265E-08,NaN,NaN,-0.01937332,-1.490124E-10,3.057695E-07,-1.120136E-07,6.997734E-09,-2.861022E-08
574.8599,-1.401276,-7.447442E-09,NaN,-0.3253027,-1.338702E-07,NaN,1.087416,-9.257018E-08,NaN,-0.3177854,1.751258E-05,-0.9173846,3.85265E-08,NaN,NaN,-0.01937332,-1.490124E-10,3.057695E-07,-1.120136E-07,6.997734E-09,-2.861022E-08
574.8749,-1.411269,-7.446613E-09,NaN,-0.3253045,-1.338687E-07,NaN,1.085251,-9.292834E-08,NaN,-0.3194309,1.751309E-05,-0.9157816,3.852306E-08,NaN,NaN,-0.01937708,-1.490124E-10,3.027893E-07,-1.120125E-07,7.295757E-09,-2.622604E-08
574.8916,-1.420928,-7.445784E-09,NaN,-0.3253072,-1.338672E-07,NaN,1.083099,-9.32865E-08,NaN,-0.3210333,1.75136E-05,-0.914201,3.851963E-08,NaN,NaN,-0.01938073,-1.490124E-10,2.98766E-07,-1.120113E-07,6.848722E-09,-2.861022E-08
574.9074,-1.429608,-7.444955E-09,NaN,-0.3253093,-1.338656E-07,NaN,1.079646,-9.364467E-08,NaN,-0.3228122,1.751411E-05,-0.911413,3.851623E-08,NaN,NaN,-0.01938606,-1.490124E-10,2.975739E-07,-1.120101E-07,5.954652E-09,-2.622604E-08
574.9232,-1.437636,-7.444126E-09,NaN,-0.3253127,-1.338641E-07,NaN,1.075846,-9.400283E-08,NaN,-0.3246201,1.751463E-05,-0.908311,3.851285E-08,NaN,NaN,-0.01939157,-1.490124E-10,2.944446E-07,-1.120089E-07,6.17817E-09,-2.861022E-08
574.939,-1.437636,-7.444126E-09,NaN,-0.3253127,-1.338641E-07,NaN,1.075846,-9.400283E-08,NaN,-0.3246201,1.751463E-05,-0.908311,3.851285E-08,NaN,NaN,-0.01939157,-1.490124E-10,2.944446E-07,-1.120089E-07,6.17817E-09,-2.861022E-08
574.9562,-1.445219,-7.443297E-09,NaN,-0.3253184,-1.338626E-07,NaN,1.072027,-9.436099E-08,NaN,-0.3263966,1.751514E-05,-0.9052014,3.850949E-08,NaN,NaN,-0.01939689,-1.490124E-10,2.925075E-07,-1.120078E-07,6.420313E-09,-2.622604E-08
574.9705,-1.452492,-7.442468E-09,NaN,-0.3253266,-1.338611E-07,NaN,1.068276,-9.471916E-08,NaN,-0.3281225,1.751565E-05,-0.9021627,3.850616E-08,NaN,NaN,-0.01940202,-1.490124E-10,2.907194E-07,-1.120066E-07,6.941854E-09,-2.861022E-08
574.9863,-1.458811,-7.441639E-09,NaN,-0.3253345,-1.338596E-07,NaN,1.063312,-9.507732E-08,NaN,-0.330023,1.751617E-05,-0.8979953,3.850284E-08,NaN,NaN,-0.01940869,-1.490124E-10,2.880371E-07,-1.120055E-07,5.749761E-09,-2.622604E-08
575.002,-1.464504,-7.44081E-09,NaN,-0.325344,-1.338581E-07,NaN,1.05806,-9.543548E-08,NaN,-0.3319478,1.751668E-05,-0.8935668,3.849955E-08,NaN,NaN,-0.01941546,-1.490124E-10,2.828217E-07,-1.120043E-07,5.973278E-09,-2.861022E-08
575.0176,-1.464504,-7.44081E-09,NaN,-0.325344,-1.338581E-07,NaN,1.05806,-9.543548E-08,NaN,-0.3319478,1.751668E-05,-0.8935668,3.849955E-08,NaN,NaN,-0.01941546,-1.490124E-10,2.828217E-07,-1.120043E-07,5.973278E-09,-2.861022E-08
575.0329,-1.469778,-7.439981E-09,NaN,-0.3253558,-1.338566E-07,NaN,1.052839,-9.579365E-08,NaN,-0.3338357,1.751719E-05,-0.889174,3.849628E-08,NaN,NaN,-0.01942199,-1.490124E-10,2.790964E-07,-1.120031E-07,5.824266E-09,-2.622604E-08
575.0491,-1.474768,-7.439151E-09,NaN,-0.3253695,-1.338551E-07,NaN,1.047732,-9.615181E-08,NaN,-0.3356673,1.75177E-05,-0.8848926,3.849303E-08,NaN,NaN,-0.01942826,-1.490124E-10,2.743281E-07,-1.12002E-07,5.973278E-09,-2.861022E-08
575.0651,-1.478829,-7.438322E-09,NaN,-0.3253824,-1.338536E-07,NaN,1.041497,-9.650997E-08,NaN,-0.3376765,1.751822E-05,-0.8795604,3.84898E-08,NaN,NaN,-0.01943592,-1.490124E-10,2.686656E-07,-1.120009E-07,5.526243E-09,-2.622604E-08
575.0808,-1.482289,-7.437492E-09,NaN,-0.3253962,-1.338521E-07,NaN,1.035029,-9.686813E-08,NaN,-0.3397078,1.751873E-05,-0.8740166,3.848659E-08,NaN,NaN,-0.01944363,-1.490124E-10,2.631522E-07,-1.119997E-07,5.675254E-09,-2.861022E-08
575.0967,-1.482289,-7.437492E-09,NaN,-0.3253962,-1.338521E-07,NaN,1.035029,-9.686813E-08,NaN,-0.3397078,1.751873E-05,-0.8740166,3.848659E-08,NaN,NaN,-0.01944363,-1.490124E-10,2.631522E-07,-1.119997E-07,5.675254E-09,-2.861022E-08
575.1116,-1.485357,-7.436662E-09,NaN,-0.3254112,-1.338506E-07,NaN,1.028639,-9.72263E-08,NaN,-0.3416984,1.751924E-05,-0.8685486,3.84834E-08,NaN,NaN,-0.01945105,-1.490124E-10,2.624072E-07,-1.119986E-07,3.291069E-09,-2.622604E-08
575.1281,-1.488164,-7.435832E-09,NaN,-0.3254274,-1.338491E-07,NaN,1.022404,-9.758446E-08,NaN,-0.3436291,1.751976E-05,-0.8632293,3.848024E-08,NaN,NaN,-0.01945817,-1.490124E-10,2.594269E-07,-1.119975E-07,2.993046E-09,-2.861022E-08
575.1437,-1.490069,-7.435002E-09,NaN,-0.3254422,-1.338476E-07,NaN,1.015125,-9.794262E-08,NaN,-0.3457434,1.752027E-05,-0.8569376,3.847709E-08,NaN,NaN,-0.01946654,-1.490124E-10,2.534665E-07,-1.119963E-07,3.291069E-09,-2.622604E-08
575.1598,-1.490069,-7.435002E-09,NaN,-0.3254422,-1.338476E-07,NaN,1.015125,-9.794262E-08,NaN,-0.3457434,1.752027E-05,-0.8569376,3.847709E-08,NaN,NaN,-0.01946654,-1.490124E-10,2.534665E-07,-1.119963E-07,3.291069E-09,-2.622604E-08
575.1746,-1.491397,-7.434172E-09,NaN,-0.3254569,-1.338462E-07,NaN,1.007667,-9.830079E-08,NaN,-0.3478792,1.752078E-05,-0.8504817,3.847396E-08,NaN,NaN,-0.01947491,-1.490124E-10,2.509333E-07,-1.119952E-07,2.695022E-09,-2.861022E-08
575.191,-1.492356,-7.433342E-09,NaN,-0.325472,-1.338447E-07,NaN,1.000328,-9.865895E-08,NaN,-0.3499718,1.75213E-05,-0.8441387,3.847086E-08,NaN,NaN,-0.01948297,-1.490124E-10,2.47357E-07,-1.119941E-07,3.291069E-09,-2.622604E-08
575.207,-1.49308,-7.432512E-09,NaN,-0.3254876,-1.338433E-07,NaN,0.9931825,-9.901711E-08,NaN,-0.3520015,1.752181E-05,-0.8379784,3.846777E-08,NaN,NaN,-0.01949068,-1.53669E-10,2.425886E-07,-1.11993E-07,4.781185E-09,-2.861022E-08
575.2227,-1.492926,-7.431682E-09,NaN,-0.3255011,-1.338418E-07,NaN,0.9850768,-9.937528E-08,NaN,-0.3542226,1.752232E-05,-0.8309247,3.846471E-08,NaN,NaN,-0.01949953,-1.53669E-10,2.376712E-07,-1.119919E-07,5.079208E-09,-2.622604E-08
575.2383,-1.492926,-7.431682E-09,NaN,-0.3255011,-1.338418E-07,NaN,0.9850768,-9.937528E-08,NaN,-0.3542226,1.752232E-05,-0.8309247,3.846471E-08,NaN,NaN,-0.01949953,-1.53669E-10,2.376712E-07,-1.119919E-07,5.079208E-09,-2.622604E-08
575.2532,-1.492218,-7.430852E-09,NaN,-0.3255139,-1.338403E-07,NaN,0.9768416,-9.973344E-08,NaN,-0.3564655,1.752284E-05,-0.8237517,3.846166E-08,NaN,NaN,-0.01950834,-1.53669E-10,2.300716E-07,-1.119908E-07,5.675254E-09,-2.861022E-08
575.2697,-1.491167,-7.430022E-09,NaN,-0.3255264,-1.338389E-07,NaN,0.9687625,-1.000916E-07,NaN,-0.3586631,1.752335E-05,-0.8167253,3.845864E-08,NaN,NaN,-0.01951682,-1.53669E-10,2.245582E-07,-1.119897E-07,4.483161E-09,-2.622604E-08
575.2854,-1.489903,-7.429191E-09,NaN,-0.3255388,-1.338374E-07,NaN,0.9609104,-1.004498E-07,NaN,-0.3607951,1.752386E-05,-0.8099118,3.845563E-08,NaN,NaN,-0.01952492,-1.53669E-10,2.211309E-07,-1.119886E-07,3.291069E-09,-2.861022E-08
575.3015,-1.487782,-7.428361E-09,NaN,-0.3255488,-1.33836E-07,NaN,0.9521771,-1.008079E-07,NaN,-0.3631281,1.752438E-05,-0.8022798,3.845264E-08,NaN,NaN,-0.01953407,-1.53669E-10,2.162136E-07,-1.119875E-07,3.887115E-09,-2.622604E-08
575.3171,-1.487782,-7.428361E-09,NaN,-0.3255488,-1.33836E-07,NaN,0.9521771,-1.008079E-07,NaN,-0.3631281,1.752438E-05,-0.8022798,3.845264E-08,NaN,NaN,-0.01953407,-1.53669E-10,2.162136E-07,-1.119875E-07,3.887115E-09,-2.622604E-08
575.332,-1.485132,-7.427531E-09,NaN,-0.3255574,-1.338346E-07,NaN,0.9433593,-1.011661E-07,NaN,-0.3654836,1.752489E-05,-0.7945696,3.844968E-08,NaN,NaN,-0.01954314,-1.53669E-10,2.08763E-07,-1.119864E-07,3.887115E-09,-2.861022E-08
575.3483,-1.482159,-7.4267E-09,NaN,-0.3255651,-1.338331E-07,NaN,0.9347302,-1.015243E-07,NaN,-0.3677919,1.75254E-05,-0.7870356,3.844673E-08,NaN,NaN,-0.01955187,-1.53669E-10,2.020575E-07,-1.119853E-07,5.675254E-09,-2.622604E-08
575.3641,-1.478996,-7.42587E-09,NaN,-0.3255723,-1.338317E-07,NaN,0.9263572,-1.018824E-07,NaN,-0.3700317,1.752592E-05,-0.7797409,3.84438E-08,NaN,NaN,-0.01956019,-1.53669E-10,1.977361E-07,-1.119842E-07,3.589092E-09,-2.861022E-08
575.3797,-1.478996,-7.42587E-09,NaN,-0.3255723,-1.338317E-07,NaN,0.9263572,-1.018824E-07,NaN,-0.3700317,1.752592E-05,-0.7797409,3.84438E-08,NaN,NaN,-0.01956019,-1.53669E-10,1.977361E-07,-1.119842E-07,3.589092E-09,-2.861022E-08
575.395,-1.474998,-7.425039E-09,NaN,-0.3255767,-1.338303E-07,NaN,0.9171801,-1.022406E-07,NaN,-0.3724822,1.752643E-05,-0.7717013,3.844089E-08,NaN,NaN,-0.01956945,-1.53669E-10,1.914776E-07,-1.119831E-07,4.483161E-09,-2.622604E-08
575.4109,-1.470491,-7.424209E-09,NaN,-0.3255793,-1.338289E-07,NaN,0.907959,-1.025987E-07,NaN,-0.3749559,1.752694E-05,-0.7636213,3.8438E-08,NaN,NaN,-0.01957864,-1.53669E-10,1.843251E-07,-1.11982E-07,3.291069E-09,-2.861022E-08
575.4269,-1.465684,-7.423378E-09,NaN,-0.3255808,-1.338275E-07,NaN,0.8989552,-1.029569E-07,NaN,-0.3773801,1.752746E-05,-0.7557434,3.843513E-08,NaN,NaN,-0.01958746,-1.583257E-10,1.795567E-07,-1.11981E-07,3.589092E-09,-2.622604E-08
575.4427,-1.460707,-7.422547E-09,NaN,-0.3255819,-1.338261E-07,NaN,0.8902318,-1.033151E-07,NaN,-0.3797331,1.752797E-05,-0.748127,3.843228E-08,NaN,NaN,-0.01959587,-1.583257E-10,1.753844E-07,-1.119799E-07,2.993045E-09,-2.861022E-08
575.4587,-1.460707,-7.422547E-09,NaN,-0.3255819,-1.338261E-07,NaN,0.8902318,-1.033151E-07,NaN,-0.3797331,1.752797E-05,-0.748127,3.843228E-08,NaN,NaN,-0.01959587,-1.583257E-10,1.753844E-07,-1.119799E-07,2.993045E-09,-2.861022E-08
575.4757,-1.454917,-7.421717E-09,NaN,-0.3255813,-1.338247E-07,NaN,0.8807787,-1.036732E-07,NaN,-0.382307,1.752848E-05,-0.7398377,3.842944E-08,NaN,NaN,-0.0196051,-1.583257E-10,1.694239E-07,-1.119788E-07,4.185138E-09,-2.622604E-08
575.4899,-1.448639,-7.420886E-09,NaN,-0.3255794,-1.338233E-07,NaN,0.8713186,-1.040314E-07,NaN,-0.3849048,1.7529E-05,-0.7315424,3.842662E-08,NaN,NaN,-0.01961424,-1.583257E-10,1.646556E-07,-1.119778E-07,3.589092E-09,-2.861022E-08
575.5057,-1.44208,-7.420055E-09,NaN,-0.3255767,-1.338219E-07,NaN,0.862099,-1.043896E-07,NaN,-0.3874505,1.75295E-05,-0.7234705,3.842382E-08,NaN,NaN,-0.01962301,-1.490124E-10,1.583971E-07,-1.119767E-07,4.781185E-09,-2.622604E-08
575.5217,-1.435372,-7.419224E-09,NaN,-0.3255734,-1.338205E-07,NaN,0.8531789,-1.047477E-07,NaN,-0.3899212,1.753E-05,-0.7156774,3.842104E-08,NaN,NaN,-0.01963137,-1.53669E-10,1.540757E-07,-1.119756E-07,5.675255E-09,-2.861022E-08
575.5373,-1.435372,-7.419224E-09,NaN,-0.3255734,-1.338205E-07,NaN,0.8531789,-1.047477E-07,NaN,-0.3899212,1.753E-05,-0.7156774,3.842104E-08,NaN,NaN,-0.01963137,-1.53669E-10,1.540757E-07,-1.119756E-07,5.675255E-09,-2.861022E-08
575.5524,-1.427871,-7.418393E-09,NaN,-0.3255674,-1.338191E-07,NaN,0.8435968,-1.051059E-07,NaN,-0.3926214,1.753049E-05,-0.7072771,3.841828E-08,NaN,NaN,-0.01964048,-1.443558E-10,1.503505E-07,-1.119746E-07,3.887116E-09,-2.622604E-08
575.5689,-1.419901,-7.417562E-09,NaN,-0.3255592,-1.338177E-07,NaN,0.8340389,-1.054641E-07,NaN,-0.3953452,1.753099E-05,-0.6988999,3.841554E-08,NaN,NaN,-0.01964948,-1.443558E-10,1.469232E-07,-1.119735E-07,3.291069E-09,-2.861022E-08
575.5843,-1.411671,-7.416731E-09,NaN,-0.3255496,-1.338163E-07,NaN,0.8247404,-1.058222E-07,NaN,-0.3980137,1.753149E-05,-0.6907631,3.841281E-08,NaN,NaN,-0.01965811,-1.443558E-10,1.424528E-07,-1.119725E-07,3.589092E-09,-2.622604E-08
575.6002,-1.40331,-7.415901E-09,NaN,-0.3255389,-1.33815E-07,NaN,0.8157563,-1.061804E-07,NaN,-0.4006035,1.753199E-05,-0.6829184,3.841011E-08,NaN,NaN,-0.01966633,-1.490124E-10,1.372374E-07,-1.119715E-07,1.800953E-09,-2.861022E-08
575.6157,-1.40331,-7.415901E-09,NaN,-0.3255389,-1.33815E-07,NaN,0.8157563,-1.061804E-07,NaN,-0.4006035,1.753199E-05,-0.6829184,3.841011E-08,NaN,NaN,-0.01966633,-1.490124E-10,1.372374E-07,-1.119715E-07,1.800953E-09,-2.861022E-08
575.6309,-1.394175,-7.41507E-09,NaN,-0.3255253,-1.338136E-07,NaN,0.8061742,-1.065385E-07,NaN,-0.403431,1.753249E-05,-0.6745289,3.840741E-08,NaN,NaN,-0.01967522,-1.490124E-10,1.297869E-07,-1.119704E-07,6.088602E-10,-2.622604E-08
575.6473,-1.384591,-7.41424E-09,NaN,-0.3255092,-1.338122E-07,NaN,0.7966436,-1.068967E-07,NaN,-0.4062816,1.753299E-05,-0.6661881,3.840474E-08,NaN,NaN,-0.01968399,-1.490124E-10,1.242734E-07,-1.119694E-07,6.088602E-10,-2.861022E-08
575.6631,-1.374764,-7.413409E-09,NaN,-0.3254914,-1.338109E-07,NaN,0.7873866,-1.072549E-07,NaN,-0.4090732,1.753349E-05,-0.6581003,3.840208E-08,NaN,NaN,-0.01969239,-1.490124E-10,1.217402E-07,-1.119683E-07,1.204907E-09,-2.622604E-08
575.6787,-1.374764,-7.413409E-09,NaN,-0.3254914,-1.338109E-07,NaN,0.7873866,-1.072549E-07,NaN,-0.4090732,1.753349E-05,-0.6581003,3.840208E-08,NaN,NaN,-0.01969239,-1.490124E-10,1.217402E-07,-1.119683E-07,1.204907E-09,-2.622604E-08
575.6938,-1.364098,-7.412579E-09,NaN,-0.32547,-1.338095E-07,NaN,0.7775894,-1.07613E-07,NaN,-0.4121085,1.753398E-05,-0.6495225,3.839944E-08,NaN,NaN,-0.01970139,-1.490124E-10,1.139916E-07,-1.119673E-07,-2.852094E-10,-2.861022E-08
575.7098,-1.352948,-7.411749E-09,NaN,-0.3254456,-1.338082E-07,NaN,0.7678914,-1.079712E-07,NaN,-0.4151585,1.753448E-05,-0.6410371,3.839682E-08,NaN,NaN,-0.01971022,-1.490124E-10,1.098193E-07,-1.119663E-07,-2.852094E-10,-2.622604E-08
575.726,-1.341541,-7.410918E-09,NaN,-0.3254189,-1.338068E-07,NaN,0.7585061,-1.083294E-07,NaN,-0.4181376,1.753498E-05,-0.6328401,3.839422E-08,NaN,NaN,-0.01971865,-1.490124E-10,1.035608E-07,-1.119653E-07,-1.179279E-09,-2.861022E-08
575.7415,-1.33002,-7.410088E-09,NaN,-0.3253908,-1.338055E-07,NaN,0.7494773,-1.086875E-07,NaN,-0.4210221,1.753548E-05,-0.624973,3.839163E-08,NaN,NaN,-0.01972665,-1.490124E-10,1.008786E-07,-1.119643E-07,-2.852095E-10,-2.622604E-08
575.7573,-1.33002,-7.410088E-09,NaN,-0.3253908,-1.338055E-07,NaN,0.7494773,-1.086875E-07,NaN,-0.4210221,1.753548E-05,-0.624973,3.839163E-08,NaN,NaN,-0.01972665,-1.490124E-10,1.008786E-07,-1.119643E-07,-2.852095E-10,-2.622604E-08
575.7723,-1.317747,-7.409257E-09,NaN,-0.3253593,-1.338041E-07,NaN,0.7399736,-1.090457E-07,NaN,-0.4241509,1.753598E-05,-0.6166808,3.838906E-08,NaN,NaN,-0.01973516,-1.490124E-10,9.58122E-08,-1.119632E-07,-1.328291E-09,-2.861022E-08
575.7888,-1.305052,-7.408427E-09,NaN,-0.325325,-1.338028E-07,NaN,0.7305756,-1.094038E-07,NaN,-0.4272954,1.753648E-05,-0.6084882,3.83865E-08,NaN,NaN,-0.01974352,-1.490124E-10,9.044778E-08,-1.119622E-07,-2.073349E-09,-2.622604E-08
575.8044,-1.292146,-7.407596E-09,NaN,-0.3252886,-1.338014E-07,NaN,0.7214801,-1.09762E-07,NaN,-0.4303696,1.753698E-05,-0.6005744,3.838397E-08,NaN,NaN,-0.01975151,-1.490124E-10,8.448732E-08,-1.119612E-07,-1.477302E-09,-2.861022E-08
575.8201,-1.27916,-7.406766E-09,NaN,-0.3252507,-1.338001E-07,NaN,0.7127292,-1.101202E-07,NaN,-0.4333491,1.753747E-05,-0.592979,3.838144E-08,NaN,NaN,-0.0197591,-1.490124E-10,8.061302E-08,-1.119602E-07,-1.328291E-09,-2.622604E-08
575.8358,-1.27916,-7.406766E-09,NaN,-0.3252507,-1.338001E-07,NaN,0.7127292,-1.101202E-07,NaN,-0.4333491,1.753747E-05,-0.592979,3.838144E-08,NaN,NaN,-0.0197591,-1.490124E-10,8.061302E-08,-1.119602E-07,-1.328291E-09,-2.622604E-08
575.8506,-1.26545,-7.405935E-09,NaN,-0.3252098,-1.337988E-07,NaN,0.703542,-1.104783E-07,NaN,-0.4365825,1.753797E-05,-0.5849972,3.837894E-08,NaN,NaN,-0.01976715,-1.490124E-10,7.52486E-08,-1.119592E-07,-1.477302E-09,-2.861022E-08
575.8672,-1.251343,-7.405105E-09,NaN,-0.3251661,-1.337975E-07,NaN,0.694467,-1.108365E-07,NaN,-0.4398324,1.753847E-05,-0.5771209,3.837645E-08,NaN,NaN,-0.01977506,-1.490124E-10,7.01822E-08,-1.119582E-07,-8.067502E-10,-2.622604E-08
575.8827,-1.237044,-7.404275E-09,NaN,-0.3251202,-1.337962E-07,NaN,0.6856914,-1.111947E-07,NaN,-0.4430094,1.753897E-05,-0.5695194,3.837398E-08,NaN,NaN,-0.01978263,-1.490124E-10,6.392371E-08,-1.119572E-07,-1.849831E-09,-2.861022E-08
575.8984,-1.237044,-7.404275E-09,NaN,-0.3251202,-1.337962E-07,NaN,0.6856914,-1.111947E-07,NaN,-0.4430094,1.753897E-05,-0.5695194,3.837398E-08,NaN,NaN,-0.01978263,-1.490124E-10,6.392371E-08,-1.119572E-07,-1.849831E-09,-2.861022E-08
575.9135,-1.222685,-7.403445E-09,NaN,-0.325073,-1.337949E-07,NaN,0.6772558,-1.115528E-07,NaN,-0.4460877,1.753947E-05,-0.5622306,3.837152E-08,NaN,NaN,-0.01978981,-1.490124E-10,6.064546E-08,-1.119562E-07,-1.365544E-09,-2.622604E-08
575.93,-1.207621,-7.402615E-09,NaN,-0.3250229,-1.337936E-07,NaN,0.6684254,-1.11911E-07,NaN,-0.4494256,1.753997E-05,-0.5545962,3.836908E-08,NaN,NaN,-0.01979738,-1.490124E-10,5.528105E-08,-1.119553E-07,-4.71474E-10,-2.861022E-08
575.9456,-1.192175,-7.401784E-09,NaN,-0.3249699,-1.337923E-07,NaN,0.659716,-1.122692E-07,NaN,-0.4527781,1.754046E-05,-0.547075,3.836665E-08,NaN,NaN,-0.0198048,-1.490124E-10,4.932058E-08,-1.119543E-07,-3.410889E-10,-2.622604E-08
575.9612,-1.176554,-7.400954E-09,NaN,-0.3249147,-1.33791E-07,NaN,0.6513039,-1.126273E-07,NaN,-0.4560531,1.754096E-05,-0.5398253,3.836425E-08,NaN,NaN,-0.01981189,-1.490124E-10,4.723442E-08,-1.119533E-07,6.274866E-10,-2.861022E-08
575.9769,-1.176554,-7.400954E-09,NaN,-0.3249147,-1.33791E-07,NaN,0.6513039,-1.126273E-07,NaN,-0.4560531,1.754096E-05,-0.5398253,3.836425E-08,NaN,NaN,-0.01981189,-1.490124E-10,4.723442E-08,-1.119533E-07,6.274866E-10,-2.861022E-08
575.9934,-1.160888,-7.400123E-09,NaN,-0.3248583,-1.337897E-07,NaN,0.6432272,-1.129855E-07,NaN,-0.4592242,1.754146E-05,-0.5328823,3.836185E-08,NaN,NaN,-0.01981863,-1.490124E-10,4.187E-08,-1.119523E-07,3.294633E-10,-2.622604E-08
576.0086,-1.144532,-7.399293E-09,NaN,-0.324799,-1.337884E-07,NaN,0.6347937,-1.133436E-07,NaN,-0.4626589,1.754196E-05,-0.5256312,3.835947E-08,NaN,NaN,-0.0198257,-1.490124E-10,3.531349E-08,-1.119513E-07,3.160684E-09,-2.861022E-08
576.0244,-1.12781,-7.398463E-09,NaN,-0.3247368,-1.337871E-07,NaN,0.6264879,-1.137018E-07,NaN,-0.4661053,1.754246E-05,-0.5184988,3.835711E-08,NaN,NaN,-0.01983264,-1.490124E-10,3.054512E-08,-1.119504E-07,2.862661E-09,-2.622604E-08
576.0402,-1.110927,-7.397633E-09,NaN,-0.3246725,-1.337858E-07,NaN,0.6184755,-1.1406E-07,NaN,-0.4694694,1.754296E-05,-0.5116327,3.835476E-08,NaN,NaN,-0.01983927,-1.490124E-10,2.667082E-08,-1.119494E-07,1.819579E-09,-2.861022E-08
576.0561,-1.110927,-7.397633E-09,NaN,-0.3246725,-1.337858E-07,NaN,0.6184755,-1.1406E-07,NaN,-0.4694694,1.754296E-05,-0.5116327,3.835476E-08,NaN,NaN,-0.01983927,-1.490124E-10,2.667082E-08,-1.119494E-07,1.819579E-09,-2.861022E-08
576.0709,-1.094015,-7.396803E-09,NaN,-0.324607,-1.337845E-07,NaN,0.6107917,-1.144181E-07,NaN,-0.4727241,1.754345E-05,-0.5050652,3.835243E-08,NaN,NaN,-0.01984556,-1.490124E-10,2.309454E-08,-1.119484E-07,1.521556E-09,-2.622604E-08
576.0873,-1.076426,-7.395973E-09,NaN,-0.3245387,-1.337833E-07,NaN,0.6027848,-1.147763E-07,NaN,-0.4762454,1.754395E-05,-0.4982225,3.835012E-08,NaN,NaN,-0.01985214,-1.490124E-10,1.773012E-08,-1.119475E-07,1.819579E-09,-2.861022E-08
576.103,-1.058486,-7.395143E-09,NaN,-0.3244676,-1.33782E-07,NaN,0.5949095,-1.151345E-07,NaN,-0.4797755,1.754445E-05,-0.4915013,3.834781E-08,NaN,NaN,-0.01985858,-1.490124E-10,9.683495E-09,-1.119465E-07,1.223533E-09,-2.622604E-08
576.1186,-1.058486,-7.395143E-09,NaN,-0.3244676,-1.33782E-07,NaN,0.5949095,-1.151345E-07,NaN,-0.4797755,1.754445E-05,-0.4915013,3.834781E-08,NaN,NaN,-0.01985858,-1.490124E-10,9.683495E-09,-1.119465E-07,1.223533E-09,-2.622604E-08
576.1339,-1.0404,-7.394313E-09,NaN,-0.3243944,-1.337807E-07,NaN,0.5873215,-1.154926E-07,NaN,-0.4832182,1.754495E-05,-0.4850389,3.834553E-08,NaN,NaN,-0.01986474,-1.490124E-10,1.040822E-09,-1.119456E-07,2.415626E-09,-2.861022E-08
576.1503,-1.022297,-7.393483E-09,NaN,-0.32432,-1.337795E-07,NaN,0.5800536,-1.158508E-07,NaN,-0.4865462,1.754545E-05,-0.4788654,3.834325E-08,NaN,NaN,-0.01987058,-1.490124E-10,-4.323596E-09,-1.119446E-07,2.415626E-09,-2.622604E-08
576.1663,-1.003533,-7.392653E-09,NaN,-0.324243,-1.337782E-07,NaN,0.5724917,-1.16209E-07,NaN,-0.4901432,1.754594E-05,-0.4724451,3.8341E-08,NaN,NaN,-0.01987667,-1.396992E-10,-9.688014E-09,-1.119437E-07,1.819579E-09,-2.861022E-08
576.1817,-0.9844297,-7.391823E-09,NaN,-0.3241632,-1.33777E-07,NaN,0.5650629,-1.165671E-07,NaN,-0.4937457,1.754644E-05,-0.4661466,3.833875E-08,NaN,NaN,-0.01988262,-1.396992E-10,-1.59465E-08,-1.119427E-07,1.819579E-09,-2.622604E-08
576.1976,-0.9844297,-7.391823E-09,NaN,-0.3241632,-1.33777E-07,NaN,0.5650629,-1.165671E-07,NaN,-0.4937457,1.754644E-05,-0.4661466,3.833875E-08,NaN,NaN,-0.01988262,-1.396992E-10,-1.59465E-08,-1.119427E-07,1.819579E-09,-2.622604E-08
576.2127,-0.9651941,-7.390993E-09,NaN,-0.3240813,-1.337757E-07,NaN,0.5579137,-1.169253E-07,NaN,-0.4972561,1.754693E-05,-0.4600978,3.833653E-08,NaN,NaN,-0.01988831,-1.396992E-10,-1.922476E-08,-1.119418E-07,1.223533E-09,-2.861022E-08
576.2292,-0.9459556,-7.390163E-09,NaN,-0.3239984,-1.337744E-07,NaN,0.5510747,-1.172834E-07,NaN,-0.5006467,1.754743E-05,-0.4543267,3.833431E-08,NaN,NaN,-0.0198937,-1.396992E-10,-2.607929E-08,-1.119409E-07,3.607719E-09,-2.622604E-08
576.2449,-0.9260679,-7.389333E-09,NaN,-0.3239129,-1.337732E-07,NaN,0.5439667,-1.176416E-07,NaN,-0.504308,1.754793E-05,-0.4483331,3.833211E-08,NaN,NaN,-0.01989931,-1.396992E-10,-2.786743E-08,-1.119399E-07,5.991905E-09,-2.861022E-08
576.2608,-0.9058552,-7.388503E-09,NaN,-0.3238248,-1.33772E-07,NaN,0.5369912,-1.179998E-07,NaN,-0.5079718,1.754843E-05,-0.4424597,3.832993E-08,NaN,NaN,-0.0199048,-1.396992E-10,-3.561603E-08,-1.11939E-07,6.587951E-09,-2.622604E-08
576.2768,-0.9058552,-7.388503E-09,NaN,-0.3238248,-1.33772E-07,NaN,0.5369912,-1.179998E-07,NaN,-0.5079718,1.754843E-05,-0.4424597,3.832993E-08,NaN,NaN,-0.0199048,-1.396992E-10,-3.561603E-08,-1.11939E-07,6.587951E-09,-2.622604E-08
576.2919,-0.8855227,-7.387673E-09,NaN,-0.3237347,-1.337707E-07,NaN,0.5302865,-1.183579E-07,NaN,-0.5115389,1.754893E-05,-0.4368257,3.832776E-08,NaN,NaN,-0.01991003,-1.396992E-10,-4.396068E-08,-1.119381E-07,7.183997E-09,-2.861022E-08
576.3081,-0.8651997,-7.386843E-09,NaN,-0.3236435,-1.337695E-07,NaN,0.5238811,-1.187161E-07,NaN,-0.5149813,1.754943E-05,-0.431457,3.83256E-08,NaN,NaN,-0.01991499,-1.396992E-10,-5.170929E-08,-1.119371E-07,7.780044E-09,-2.622604E-08
576.3239,-0.8442402,-7.386014E-09,NaN,-0.3235501,-1.337683E-07,NaN,0.5172281,-1.190743E-07,NaN,-0.5186958,1.754992E-05,-0.4258867,3.832346E-08,NaN,NaN,-0.01992013,-1.396992E-10,-6.124603E-08,-1.119362E-07,1.076028E-08,-2.861022E-08
576.3397,-0.8442402,-7.386014E-09,NaN,-0.3235501,-1.337683E-07,NaN,0.5172281,-1.190743E-07,NaN,-0.5186958,1.754992E-05,-0.4258867,3.832346E-08,NaN,NaN,-0.01992013,-1.396992E-10,-6.124603E-08,-1.119362E-07,1.076028E-08,-2.861022E-08
576.355,-0.8229681,-7.385184E-09,NaN,-0.323454,-1.337671E-07,NaN,0.5107057,-1.194324E-07,NaN,-0.5224099,1.755042E-05,-0.4204332,3.832133E-08,NaN,NaN,-0.01992515,-1.396992E-10,-6.333219E-08,-1.119353E-07,1.016423E-08,-2.622604E-08
576.3715,-0.8015884,-7.384354E-09,NaN,-0.323356,-1.337658E-07,NaN,0.5044441,-1.197906E-07,NaN,-0.5260229,1.755092E-05,-0.415208,3.831913E-08,NaN,NaN,-0.01992995,-1.350426E-10,-7.048475E-08,-1.119344E-07,1.076028E-08,-2.861022E-08
576.3872,-0.7802303,-7.383525E-09,NaN,-0.3232571,-1.337646E-07,NaN,0.4984704,-1.201487E-07,NaN,-0.5295069,1.755141E-05,-0.4102351,3.831693E-08,NaN,NaN,-0.01993448,-1.257293E-10,-8.121358E-08,-1.119335E-07,8.376091E-09,-2.622604E-08
576.4033,-0.7582477,-7.382696E-09,NaN,-0.3231561,-1.337634E-07,NaN,0.4922672,-1.205069E-07,NaN,-0.5332639,1.75519E-05,-0.4050783,3.831476E-08,NaN,NaN,-0.01993917,-1.210727E-10,-8.627998E-08,-1.119326E-07,1.195237E-08,-2.861022E-08
576.4191,-0.7582477,-7.382696E-09,NaN,-0.3231561,-1.337634E-07,NaN,0.4922672,-1.205069E-07,NaN,-0.5332639,1.75519E-05,-0.4050783,3.831476E-08,NaN,NaN,-0.01993917,-1.210727E-10,-8.627998E-08,-1.119326E-07,1.195237E-08,-2.861022E-08
576.4341,-0.7359642,-7.381867E-09,NaN,-0.3230526,-1.337622E-07,NaN,0.4861914,-1.20865E-07,NaN,-0.5370176,1.755239E-05,-0.4000338,3.831259E-08,NaN,NaN,-0.01994376,-1.164161E-10,-9.194242E-08,-1.119317E-07,1.433656E-08,-2.622604E-08
576.4504,-0.7135848,-7.381038E-09,NaN,-0.3229471,-1.33761E-07,NaN,0.4803661,-1.212232E-07,NaN,-0.5406664,1.755289E-05,-0.395206,3.831044E-08,NaN,NaN,-0.01994813,-1.210727E-10,-9.730684E-08,-1.119308E-07,1.314446E-08,-2.861022E-08
576.4665,-0.6912388,-7.380208E-09,NaN,-0.3228409,-1.337598E-07,NaN,0.4748167,-1.215814E-07,NaN,-0.544182,1.755339E-05,-0.3906174,3.83083E-08,NaN,NaN,-0.01995226,-1.164161E-10,-1.029693E-07,-1.119299E-07,1.195237E-08,-2.622604E-08
576.4821,-0.6682795,-7.379379E-09,NaN,-0.3227328,-1.337586E-07,NaN,0.4690534,-1.219395E-07,NaN,-0.5479715,1.755388E-05,-0.3858595,3.830617E-08,NaN,NaN,-0.01995653,-1.117595E-10,-1.101218E-07,-1.11929E-07,1.076028E-08,-2.861022E-08
576.4986,-0.6682795,-7.379379E-09,NaN,-0.3227328,-1.337586E-07,NaN,0.4690534,-1.219395E-07,NaN,-0.5479715,1.755388E-05,-0.3858595,3.830617E-08,NaN,NaN,-0.01995653,-1.117595E-10,-1.101218E-07,-1.11929E-07,1.076028E-08,-2.861022E-08
576.5164,-0.6450307,-7.37855E-09,NaN,-0.3226222,-1.337574E-07,NaN,0.4634133,-1.222977E-07,NaN,-0.5517552,1.755437E-05,-0.3812088,3.830406E-08,NaN,NaN,-0.0199607,-1.071029E-10,-1.163803E-07,-1.119281E-07,9.568184E-09,-2.622604E-08
576.5308,-0.6216972,-7.377721E-09,NaN,-0.3225099,-1.337562E-07,NaN,0.4580131,-1.226558E-07,NaN,-0.5554302,1.755487E-05,-0.376763,3.830197E-08,NaN,NaN,-0.01996467,-1.117595E-10,-1.244269E-07,-1.119272E-07,8.376092E-09,-2.861022E-08
576.5453,-0.5984079,-7.376892E-09,NaN,-0.3223969,-1.33755E-07,NaN,0.452877,-1.23014E-07,NaN,-0.5589684,1.755536E-05,-0.3725431,3.829988E-08,NaN,NaN,-0.01996842,-1.024463E-10,-1.336657E-07,-1.119263E-07,1.076028E-08,-2.622604E-08
576.5613,-0.5746884,-7.376063E-09,NaN,-0.3222827,-1.337539E-07,NaN,0.4476473,-1.233721E-07,NaN,-0.562684,1.755587E-05,-0.368255,3.829781E-08,NaN,NaN,-0.01997222,-1.071029E-10,-1.405202E-07,-1.119254E-07,1.195237E-08,-2.861022E-08
576.577,-0.5746884,-7.376063E-09,NaN,-0.3222827,-1.337539E-07,NaN,0.4476473,-1.233721E-07,NaN,-0.562684,1.755587E-05,-0.368255,3.829781E-08,NaN,NaN,-0.01997222,-1.071029E-10,-1.405202E-07,-1.119254E-07,1.195237E-08,-2.861022E-08
576.5921,-0.5507977,-7.375234E-09,NaN,-0.3221672,-1.337527E-07,NaN,0.4425631,-1.237303E-07,NaN,-0.5663634,1.755636E-05,-0.3640915,3.829576E-08,NaN,NaN,-0.0199759,-1.024463E-10,-1.458846E-07,-1.119245E-07,3.60772E-09,-2.622604E-08
576.6087,-0.5268992,-7.374405E-09,NaN,-0.3220509,-1.337515E-07,NaN,0.4377042,-1.240884E-07,NaN,-0.5699301,1.755686E-05,-0.3601186,3.829371E-08,NaN,NaN,-0.0199794,-1.071029E-10,-1.515471E-07,-1.119236E-07,1.223535E-09,-2.861022E-08
576.6248,-0.5030959,-7.373576E-09,NaN,-0.3219351,-1.337503E-07,NaN,0.4330837,-1.244466E-07,NaN,-0.5733646,1.755735E-05,-0.3563478,3.829168E-08,NaN,NaN,-0.0199827,-1.024463E-10,-1.557194E-07,-1.119228E-07,3.144174E-11,-2.622604E-08
576.6406,-0.4794521,-7.372748E-09,NaN,-0.3218208,-1.337492E-07,NaN,0.4286905,-1.248048E-07,NaN,-0.5766694,1.755786E-05,-0.35277,3.828967E-08,NaN,NaN,-0.01998582,-1.071029E-10,-1.619779E-07,-1.119219E-07,-2.352744E-09,-2.861022E-08
576.6564,-0.4794521,-7.372748E-09,NaN,-0.3218208,-1.337492E-07,NaN,0.4286905,-1.248048E-07,NaN,-0.5766694,1.755786E-05,-0.35277,3.828967E-08,NaN,NaN,-0.01998582,-1.071029E-10,-1.619779E-07,-1.119219E-07,-2.352744E-09,-2.861022E-08
576.6711,-0.4560076,-7.371919E-09,NaN,-0.3217089,-1.33748E-07,NaN,0.4245071,-1.251629E-07,NaN,-0.5798534,1.755835E-05,-0.3493703,3.828766E-08,NaN,NaN,-0.01998877,-1.024463E-10,-1.658522E-07,-1.11921E-07,-5.929023E-09,-2.622604E-08
576.6879,-0.4327866,-7.37109E-09,NaN,-0.3216,-1.337468E-07,NaN,0.4205163,-1.255211E-07,NaN,-0.5829263,1.755885E-05,-0.3461339,3.828567E-08,NaN,NaN,-0.01999157,-1.071029E-10,-1.691304E-07,-1.119202E-07,-7.121115E-09,-2.861022E-08
576.7035,-0.4098036,-7.370262E-09,NaN,-0.3214949,-1.337457E-07,NaN,0.4167033,-1.258792E-07,NaN,-0.5858963,1.755934E-05,-0.3430475,3.828369E-08,NaN,NaN,-0.01999423,-9.778968E-11,-1.715146E-07,-1.119193E-07,-5.929023E-09,-2.622604E-08
576.7197,-0.4098036,-7.370262E-09,NaN,-0.3214949,-1.337457E-07,NaN,0.4167033,-1.258792E-07,NaN,-0.5858963,1.755934E-05,-0.3430475,3.828369E-08,NaN,NaN,-0.01999423,-9.778968E-11,-1.715146E-07,-1.119193E-07,-5.929023E-09,-2.622604E-08
576.7347,-0.3870665,-7.369433E-09,NaN,-0.3213938,-1.337445E-07,NaN,0.4130558,-1.262374E-07,NaN,-0.5887702,1.755984E-05,-0.3401003,3.828173E-08,NaN,NaN,-0.01999676,-1.024463E-10,-1.738988E-07,-1.119184E-07,-5.929023E-09,-2.861022E-08
576.7512,-0.3645793,-7.368604E-09,NaN,-0.321297,-1.337434E-07,NaN,0.4095641,-1.265955E-07,NaN,-0.5915531,1.756033E-05,-0.3372832,3.827978E-08,NaN,NaN,-0.01999917,-9.778968E-11,-1.771771E-07,-1.119176E-07,-1.069739E-08,-2.622604E-08
576.7673,-0.3423437,-7.367776E-09,NaN,-0.3212047,-1.337422E-07,NaN,0.4062198,-1.269537E-07,NaN,-0.5942491,1.756084E-05,-0.3345885,3.827784E-08,NaN,NaN,-0.02000148,-1.024463E-10,-1.816474E-07,-1.119167E-07,-8.313208E-09,-2.861022E-08
576.7828,-0.3203594,-7.366947E-09,NaN,-0.3211169,-1.337411E-07,NaN,0.4030159,-1.273118E-07,NaN,-0.5968613,1.756133E-05,-0.3320097,3.827591E-08,NaN,NaN,-0.02000369,-9.313307E-11,-1.819454E-07,-1.119159E-07,-8.313208E-09,-2.622604E-08
576.7988,-0.3203594,-7.366947E-09,NaN,-0.3211169,-1.337411E-07,NaN,0.4030159,-1.273118E-07,NaN,-0.5968613,1.756133E-05,-0.3320097,3.827591E-08,NaN,NaN,-0.02000369,-9.313307E-11,-1.819454E-07,-1.119159E-07,-8.313208E-09,-2.622604E-08
576.8138,-0.2986253,-7.366118E-09,NaN,-0.3210335,-1.3374E-07,NaN,0.3999462,-1.2767E-07,NaN,-0.5993924,1.756183E-05,-0.3295412,3.8274E-08,NaN,NaN,-0.02000579,-9.778969E-11,-1.852237E-07,-1.11915E-07,-5.929022E-09,-2.861022E-08
576.8306,-0.2771398,-7.36529E-09,NaN,-0.3209546,-1.337388E-07,NaN,0.3970052,-1.280282E-07,NaN,-0.6018447,1.756232E-05,-0.3271779,3.82721E-08,NaN,NaN,-0.02000782,-8.847646E-11,-1.89098E-07,-1.119142E-07,-1.160651E-09,-2.622604E-08
576.8463,-0.2559005,-7.364461E-09,NaN,-0.3208801,-1.337377E-07,NaN,0.3941879,-1.283863E-07,NaN,-0.60422,1.756282E-05,-0.3249152,3.827021E-08,NaN,NaN,-0.02000974,-9.313308E-11,-1.920782E-07,-1.119133E-07,-1.160651E-09,-2.861022E-08
576.8624,-0.2349052,-7.363632E-09,NaN,-0.3208099,-1.337366E-07,NaN,0.3914895,-1.287445E-07,NaN,-0.6065203,1.756331E-05,-0.3227488,3.826833E-08,NaN,NaN,-0.02001159,-8.847646E-11,-1.962506E-07,-1.119125E-07,1.223535E-09,-2.622604E-08
576.8782,-0.2349052,-7.363632E-09,NaN,-0.3208099,-1.337366E-07,NaN,0.3914895,-1.287445E-07,NaN,-0.6065203,1.756331E-05,-0.3227488,3.826833E-08,NaN,NaN,-0.02001159,-8.847646E-11,-1.962506E-07,-1.119125E-07,1.223535E-09,-2.622604E-08
576.8934,-0.2205246,-7.362804E-09,NaN,-0.3207644,-1.337354E-07,NaN,0.3923076,-1.291026E-07,NaN,-0.6050546,1.756381E-05,-0.3233646,3.826647E-08,NaN,NaN,-0.02001114,-9.313308E-11,-1.873099E-07,-1.119117E-07,-1.160651E-09,-2.861022E-08
576.9099,-0.2103654,-7.361975E-09,NaN,-0.3207513,-1.337343E-07,NaN,0.3941509,-1.294608E-07,NaN,-0.602461,1.756431E-05,-0.3248428,3.826461E-08,NaN,NaN,-0.02000993,-8.847646E-11,-1.76879E-07,-1.119108E-07,1.223535E-09,-2.622604E-08
576.9258,-0.2029051,-7.361147E-09,NaN,-0.320761,-1.337332E-07,NaN,0.3960412,-1.298189E-07,NaN,-0.5997705,1.756481E-05,-0.326392,3.826277E-08,NaN,NaN,-0.02000868,-9.313308E-11,-1.6317E-07,-1.1191E-07,3.607721E-09,-2.861022E-08
576.9416,-0.1971747,-7.360319E-09,NaN,-0.3207884,-1.337321E-07,NaN,0.3976729,-1.301771E-07,NaN,-0.5973255,1.75653E-05,-0.3277479,3.826094E-08,NaN,NaN,-0.02000762,-8.381985E-11,-1.536332E-07,-1.119092E-07,3.607721E-09,-2.622604E-08
576.958,-0.1971747,-7.360319E-09,NaN,-0.3207884,-1.337321E-07,NaN,0.3976729,-1.301771E-07,NaN,-0.5973255,1.75653E-05,-0.3277479,3.826094E-08,NaN,NaN,-0.02000762,-8.381985E-11,-1.536332E-07,-1.119092E-07,3.607721E-09,-2.622604E-08
576.9731,-0.192557,-7.35949E-09,NaN,-0.3208282,-1.33731E-07,NaN,0.399004,-1.305353E-07,NaN,-0.5951896,1.75658E-05,-0.3288618,3.825913E-08,NaN,NaN,-0.02000679,-8.847647E-11,-1.439475E-07,-1.119083E-07,1.223535E-09,-2.861022E-08
576.9897,-0.1886587,-7.358662E-09,NaN,-0.3208761,-1.337299E-07,NaN,0.4000821,-1.308934E-07,NaN,-0.5933278,1.756629E-05,-0.329764,3.825732E-08,NaN,NaN,-0.02000616,-7.916325E-11,-1.361989E-07,-1.119075E-07,1.223535E-09,-2.622604E-08
577.0056,-0.1852296,-7.357834E-09,NaN,-0.3209292,-1.337288E-07,NaN,0.4009723,-1.312516E-07,NaN,-0.5916808,1.756678E-05,-0.3305041,3.825553E-08,NaN,NaN,-0.02000567,-7.450663E-11,-1.281523E-07,-1.119067E-07,1.223535E-09,-2.861022E-08
577.0215,-0.1821101,-7.357006E-09,NaN,-0.3209855,-1.337277E-07,NaN,0.4017316,-1.316097E-07,NaN,-0.5901926,1.756728E-05,-0.3311279,3.825375E-08,NaN,NaN,-0.02000529,-6.985001E-11,-1.220428E-07,-1.119059E-07,1.223535E-09,-2.622604E-08
577.0389,-0.1821101,-7.357006E-09,NaN,-0.3209855,-1.337277E-07,NaN,0.4017316,-1.316097E-07,NaN,-0.5901926,1.756728E-05,-0.3311279,3.825375E-08,NaN,NaN,-0.02000529,-6.985001E-11,-1.220428E-07,-1.119059E-07,1.223535E-09,-2.622604E-08
577.0529,-0.1791985,-7.356177E-09,NaN,-0.3210436,-1.337266E-07,NaN,0.4049793,-1.319679E-07,NaN,-0.5888014,1.756777E-05,-0.3352211,3.825198E-08,NaN,NaN,-0.02001019,-6.51934E-11,-1.64064E-07,-1.119051E-07,3.607721E-09,-2.861022E-08
577.0693,-0.1764299,-7.355349E-09,NaN,-0.3211026,-1.337255E-07,NaN,0.4088651,-1.32326E-07,NaN,-0.5874664,1.756826E-05,-0.3407943,3.825022E-08,NaN,NaN,-0.02001125,-6.053678E-11,-1.716636E-07,-1.119042E-07,-1.160651E-09,-2.622604E-08
