JMolnar6/NonAnthroHands_User_Study/HandsLoggerWithURDF/tempdata/files/Reachy_JointMotion_gesture_13_62.csv
Time,r_shoulder,r_shoulder_x,r_upper_arm,r_forearm,r_wrist,r_wrist2hand,
899.8967,-0.2214807,3.943264E-09,NaN,-0.4574629,-1.31868E-07,NaN,-0.01990698,-5.861107E-07,NaN,-0.6623812,2.44005E-05,0.007688987,1.353502E-07,NaN,NaN,0.1821755,2.793817E-11,-6.071909E-07,-1.096129E-07,1.020347E-08,-2.622604E-08
899.9124,-0.2220075,3.943878E-09,NaN,-0.4558697,-1.318681E-07,NaN,-0.01857376,-5.860865E-07,NaN,-0.6598424,2.440087E-05,0.01002615,1.353272E-07,NaN,NaN,0.1813198,3.259478E-11,-5.976542E-07,-1.096131E-07,1.258766E-08,-2.861022E-08
899.9279,-0.2225489,3.944491E-09,NaN,-0.4542302,-1.318681E-07,NaN,-0.01723993,-5.860628E-07,NaN,-0.6572226,2.440123E-05,0.01260979,1.353046E-07,NaN,NaN,0.1804809,3.72514E-11,-5.928858E-07,-1.096133E-07,1.139557E-08,-2.622604E-08
899.9437,-0.2230969,3.945104E-09,NaN,-0.4525697,-1.318682E-07,NaN,-0.01580956,-5.860394E-07,NaN,-0.6545888,2.44016E-05,0.01522263,1.352824E-07,NaN,NaN,0.1796584,4.190801E-11,-5.916937E-07,-1.096135E-07,1.258766E-08,-2.861022E-08
899.9592,-0.2230969,3.945104E-09,NaN,-0.4525697,-1.318682E-07,NaN,-0.01580956,-5.860394E-07,NaN,-0.6545888,2.44016E-05,0.01522263,1.352824E-07,NaN,NaN,0.1796584,4.190801E-11,-5.916937E-07,-1.096135E-07,1.258766E-08,-2.861022E-08
899.9744,-0.2236466,3.945718E-09,NaN,-0.4509037,-1.318682E-07,NaN,-0.01428639,-5.860164E-07,NaN,-0.6519724,2.440196E-05,0.01778777,1.352606E-07,NaN,NaN,0.1788521,4.656462E-11,-5.910976E-07,-1.096137E-07,1.497184E-08,-2.622604E-08
899.9906,-0.2241618,3.946331E-09,NaN,-0.4493462,-1.318683E-07,NaN,-0.01239055,-5.859939E-07,NaN,-0.6499113,2.440232E-05,0.01958822,1.352392E-07,NaN,NaN,0.1783758,5.122123E-11,-5.916937E-07,-1.096139E-07,2.21244E-08,-2.861022E-08
900.0069,-0.2246535,3.946944E-09,NaN,-0.4478626,-1.318684E-07,NaN,-0.01046984,-5.859717E-07,NaN,-0.6480042,2.440269E-05,0.02103634,1.352182E-07,NaN,NaN,0.1779087,5.587784E-11,-5.851372E-07,-1.09614E-07,1.616394E-08,-2.622604E-08
900.0223,-0.2251286,3.947557E-09,NaN,-0.4464309,-1.318684E-07,NaN,-0.008642653,-5.859499E-07,NaN,-0.6461858,2.440305E-05,0.02235323,1.351975E-07,NaN,NaN,0.1774508,6.053446E-11,-5.773886E-07,-1.096142E-07,1.974022E-08,-2.861022E-08
900.0384,-0.2251286,3.947557E-09,NaN,-0.4464309,-1.318684E-07,NaN,-0.008642653,-5.859499E-07,NaN,-0.6461858,2.440305E-05,0.02235323,1.351975E-07,NaN,NaN,0.1774508,6.053446E-11,-5.773886E-07,-1.096142E-07,1.974022E-08,-2.861022E-08
900.0551,-0.2255913,3.948171E-09,NaN,-0.4450376,-1.318685E-07,NaN,-0.006919872,-5.859313E-07,NaN,-0.6444243,2.440341E-05,0.02362153,1.351801E-07,NaN,NaN,0.1770019,6.519107E-11,-5.70236E-07,-1.096144E-07,1.974022E-08,-2.622604E-08
900.0699,-0.2260113,3.948784E-09,NaN,-0.4437788,-1.318685E-07,NaN,-0.004967232,-5.859131E-07,NaN,-0.6432289,2.440378E-05,0.0241733,1.35163E-07,NaN,NaN,0.1768759,6.984769E-11,-5.660637E-07,-1.096146E-07,1.616394E-08,-2.861022E-08
900.0855,-0.226403,3.949397E-09,NaN,-0.4426082,-1.318686E-07,NaN,-0.003087807,-5.858951E-07,NaN,-0.642184,2.440414E-05,0.0244273,1.351461E-07,NaN,NaN,0.1767524,7.450431E-11,-5.559309E-07,-1.096148E-07,1.974022E-08,-2.622604E-08
900.1016,-0.2267756,3.95001E-09,NaN,-0.4414973,-1.318686E-07,NaN,-0.001363179,-5.858774E-07,NaN,-0.6412175,2.440451E-05,0.02459658,1.351296E-07,NaN,NaN,0.1766312,7.916092E-11,-5.434139E-07,-1.09615E-07,2.21244E-08,-2.861022E-08
900.1173,-0.2267756,3.95001E-09,NaN,-0.4414973,-1.318686E-07,NaN,-0.001363179,-5.858774E-07,NaN,-0.6412175,2.440451E-05,0.02459658,1.351296E-07,NaN,NaN,0.1766312,7.916092E-11,-5.434139E-07,-1.09615E-07,2.21244E-08,-2.861022E-08
900.1325,-0.2271346,3.950622E-09,NaN,-0.4404281,-1.318687E-07,NaN,0.0002202331,-5.858601E-07,NaN,-0.6402949,2.440487E-05,0.02475536,1.351134E-07,NaN,NaN,0.1765125,8.381754E-11,-5.326851E-07,-1.096152E-07,2.093231E-08,-2.622604E-08
900.149,-0.2274507,3.951235E-09,NaN,-0.4394939,-1.318688E-07,NaN,0.002014608,-5.858429E-07,NaN,-0.6399249,2.440523E-05,0.0242309,1.350974E-07,NaN,NaN,0.1767102,8.847415E-11,-5.249365E-07,-1.096153E-07,2.21244E-08,-2.861022E-08
900.165,-0.2277388,3.951848E-09,NaN,-0.438647,-1.318688E-07,NaN,0.003723304,-5.858261E-07,NaN,-0.6396912,2.440561E-05,0.0234368,1.350817E-07,NaN,NaN,0.176904,7.916093E-11,-5.112274E-07,-1.096155E-07,1.974022E-08,-2.622604E-08
900.1805,-0.2280082,3.952461E-09,NaN,-0.4378577,-1.318689E-07,NaN,0.005269119,-5.858096E-07,NaN,-0.6395215,2.440598E-05,0.02258185,1.350663E-07,NaN,NaN,0.177094,7.916093E-11,-4.999026E-07,-1.096157E-07,2.33165E-08,-2.861022E-08
900.1961,-0.2280082,3.952461E-09,NaN,-0.4378577,-1.318689E-07,NaN,0.005269119,-5.858096E-07,NaN,-0.6395215,2.440598E-05,0.02258185,1.350663E-07,NaN,NaN,0.177094,7.916093E-11,-4.999026E-07,-1.096157E-07,2.33165E-08,-2.861022E-08
900.2111,-0.2282648,3.953074E-09,NaN,-0.4371074,-1.318689E-07,NaN,0.006667998,-5.857933E-07,NaN,-0.6393816,2.440634E-05,0.02173799,1.350512E-07,NaN,NaN,0.1772802,8.381754E-11,-4.879817E-07,-1.096159E-07,2.21244E-08,-2.622604E-08
900.2277,-0.2284794,3.953687E-09,NaN,-0.436489,-1.31869E-07,NaN,0.008272687,-5.857801E-07,NaN,-0.6397806,2.440671E-05,0.02023301,1.350391E-07,NaN,NaN,0.1777771,8.847416E-11,-4.778489E-07,-1.096161E-07,2.33165E-08,-2.861022E-08
900.2437,-0.2286669,3.9543E-09,NaN,-0.4359548,-1.31869E-07,NaN,0.009787042,-5.857672E-07,NaN,-0.6403022,2.440707E-05,0.01847844,1.350273E-07,NaN,NaN,0.178264,8.847416E-11,-4.629477E-07,-1.096163E-07,2.570068E-08,-2.622604E-08
900.2598,-0.2286669,3.9543E-09,NaN,-0.4359548,-1.31869E-07,NaN,0.009787042,-5.857672E-07,NaN,-0.6403022,2.440707E-05,0.01847844,1.350273E-07,NaN,NaN,0.178264,8.847416E-11,-4.629477E-07,-1.096163E-07,2.570068E-08,-2.622604E-08
900.2746,-0.2288366,3.954912E-09,NaN,-0.4354749,-1.318691E-07,NaN,0.01113395,-5.857544E-07,NaN,-0.6408741,2.440744E-05,0.01668198,1.350157E-07,NaN,NaN,0.1787414,8.847416E-11,-4.474505E-07,-1.096165E-07,1.974022E-08,-2.861022E-08
900.2908,-0.2289947,3.955525E-09,NaN,-0.4350305,-1.318692E-07,NaN,0.01232952,-5.857418E-07,NaN,-0.6414626,2.440781E-05,0.01491492,1.350042E-07,NaN,NaN,0.1792095,8.847416E-11,-4.337414E-07,-1.096166E-07,1.974022E-08,-2.622604E-08
900.3069,-0.2291117,3.956138E-09,NaN,-0.4347147,-1.318692E-07,NaN,0.01372276,-5.857294E-07,NaN,-0.6425769,2.440817E-05,0.01250647,1.34993E-07,NaN,NaN,0.1799826,8.847416E-11,-4.230126E-07,-1.096168E-07,1.497185E-08,-2.861022E-08
900.3224,-0.2292026,3.956751E-09,NaN,-0.4344795,-1.318693E-07,NaN,0.01501963,-5.857172E-07,NaN,-0.6438007,2.440854E-05,0.009866083,1.349819E-07,NaN,NaN,0.1807404,8.847416E-11,-4.081114E-07,-1.09617E-07,1.616394E-08,-2.622604E-08
900.3386,-0.2292026,3.956751E-09,NaN,-0.4344795,-1.318693E-07,NaN,0.01501963,-5.857172E-07,NaN,-0.6438007,2.440854E-05,0.009866083,1.349819E-07,NaN,NaN,0.1807404,8.847416E-11,-4.081114E-07,-1.09617E-07,1.616394E-08,-2.622604E-08
900.3535,-0.2292768,3.957364E-09,NaN,-0.4342952,-1.318693E-07,NaN,0.01614329,-5.857052E-07,NaN,-0.6450621,2.440891E-05,0.00720119,1.34971E-07,NaN,NaN,0.1814834,8.847416E-11,-3.932103E-07,-1.096172E-07,1.139557E-08,-2.861022E-08
900.3699,-0.2293402,3.957976E-09,NaN,-0.4341431,-1.318694E-07,NaN,0.01711031,-5.856934E-07,NaN,-0.6463274,2.440928E-05,0.004582743,1.349603E-07,NaN,NaN,0.1822118,8.847416E-11,-3.77117E-07,-1.096173E-07,1.377975E-08,-2.622604E-08
900.3859,-0.2293637,3.958589E-09,NaN,-0.4341162,-1.318694E-07,NaN,0.01826328,-5.856818E-07,NaN,-0.6481062,2.440964E-05,0.00134145,1.349499E-07,NaN,NaN,0.1832401,9.313077E-11,-3.634079E-07,-1.096175E-07,1.974022E-08,-2.861022E-08
900.4015,-0.2293626,3.959202E-09,NaN,-0.4341654,-1.318694E-07,NaN,0.01931184,-5.856704E-07,NaN,-0.6499816,2.441002E-05,-0.002114582,1.349396E-07,NaN,NaN,0.1842482,9.778739E-11,-3.455265E-07,-1.096177E-07,2.21244E-08,-2.622604E-08
900.4173,-0.2293626,3.959202E-09,NaN,-0.4341654,-1.318694E-07,NaN,0.01931184,-5.856704E-07,NaN,-0.6499816,2.441002E-05,-0.002114582,1.349396E-07,NaN,NaN,0.1842482,9.778739E-11,-3.455265E-07,-1.096177E-07,2.21244E-08,-2.622604E-08
900.4323,-0.2293469,3.959815E-09,NaN,-0.4342614,-1.318695E-07,NaN,0.02018102,-5.856591E-07,NaN,-0.6518819,2.441039E-05,-0.005578801,1.349295E-07,NaN,NaN,0.1852365,1.02444E-10,-3.270491E-07,-1.096179E-07,2.33165E-08,-2.861022E-08
900.4487,-0.2293219,3.960428E-09,NaN,-0.4343858,-1.318695E-07,NaN,0.02088816,-5.856509E-07,NaN,-0.6537744,2.441076E-05,-0.008980718,1.349224E-07,NaN,NaN,0.1862055,1.071006E-10,-3.097637E-07,-1.096181E-07,1.735603E-08,-2.622604E-08
900.4645,-0.2292583,3.96104E-09,NaN,-0.4346319,-1.318696E-07,NaN,0.02176693,-5.856427E-07,NaN,-0.6561686,2.441114E-05,-0.01298822,1.349154E-07,NaN,NaN,0.1874696,1.117572E-10,-2.936705E-07,-1.096182E-07,2.093231E-08,-2.861022E-08
900.4805,-0.2291707,3.961653E-09,NaN,-0.434952,-1.318696E-07,NaN,0.02253363,-5.856347E-07,NaN,-0.6586481,2.441151E-05,-0.0171973,1.349085E-07,NaN,NaN,0.1887089,1.164139E-10,-2.728089E-07,-1.096184E-07,2.212441E-08,-2.622604E-08
900.4965,-0.2291707,3.961653E-09,NaN,-0.434952,-1.318696E-07,NaN,0.02253363,-5.856347E-07,NaN,-0.6586481,2.441151E-05,-0.0171973,1.349085E-07,NaN,NaN,0.1887089,1.164139E-10,-2.728089E-07,-1.096184E-07,2.212441E-08,-2.622604E-08
900.5116,-0.2290685,3.962266E-09,NaN,-0.4353163,-1.318697E-07,NaN,0.02311362,-5.856268E-07,NaN,-0.6611418,2.441188E-05,-0.02139943,1.349017E-07,NaN,NaN,0.189924,1.210705E-10,-2.537354E-07,-1.096186E-07,2.093231E-08,-2.861022E-08
900.528,-0.2289575,3.962879E-09,NaN,-0.4357063,-1.318697E-07,NaN,0.02352566,-5.856189E-07,NaN,-0.6636166,2.441225E-05,-0.02552398,1.34895E-07,NaN,NaN,0.1911152,1.257271E-10,-2.340659E-07,-1.096188E-07,2.808487E-08,-2.622604E-08
900.5438,-0.2288087,3.963492E-09,NaN,-0.4362149,-1.318697E-07,NaN,0.02409256,-5.856112E-07,NaN,-0.6665816,2.441263E-05,-0.03023759,1.348884E-07,NaN,NaN,0.1925972,1.303837E-10,-2.173766E-07,-1.096189E-07,2.450859E-08,-2.861022E-08
900.5605,-0.2286367,3.964105E-09,NaN,-0.4367944,-1.318698E-07,NaN,0.02453882,-5.856035E-07,NaN,-0.6696206,2.4413E-05,-0.03513941,1.348819E-07,NaN,NaN,0.1940501,1.350403E-10,-1.965149E-07,-1.096191E-07,2.33165E-08,-2.622604E-08
900.5754,-0.2286367,3.964105E-09,NaN,-0.4367944,-1.318698E-07,NaN,0.02453882,-5.856035E-07,NaN,-0.6696206,2.4413E-05,-0.03513941,1.348819E-07,NaN,NaN,0.1940501,1.350403E-10,-1.965149E-07,-1.096191E-07,2.33165E-08,-2.622604E-08
900.5901,-0.228451,3.964717E-09,NaN,-0.4374151,-1.318698E-07,NaN,0.02479175,-5.85596E-07,NaN,-0.672663,2.441337E-05,-0.04001981,1.348754E-07,NaN,NaN,0.1954746,1.396969E-10,-1.774414E-07,-1.096193E-07,2.450859E-08,-2.861022E-08
900.6069,-0.2282576,3.96533E-09,NaN,-0.4380583,-1.318699E-07,NaN,0.02487184,-5.855885E-07,NaN,-0.6756763,2.441375E-05,-0.0448083,1.348691E-07,NaN,NaN,0.1968711,1.443535E-10,-1.559838E-07,-1.096194E-07,2.33165E-08,-2.622604E-08
900.6227,-0.2280271,3.965943E-09,NaN,-0.4388172,-1.318699E-07,NaN,0.02508898,-5.855811E-07,NaN,-0.6791687,2.441412E-05,-0.05017052,1.348629E-07,NaN,NaN,0.1985544,1.490101E-10,-1.404866E-07,-1.096196E-07,1.854812E-08,-2.861022E-08
900.6387,-0.2280271,3.965943E-09,NaN,-0.4388172,-1.318699E-07,NaN,0.02508898,-5.855811E-07,NaN,-0.6791687,2.441412E-05,-0.05017052,1.348629E-07,NaN,NaN,0.1985544,1.490101E-10,-1.404866E-07,-1.096196E-07,1.854812E-08,-2.861022E-08
900.6534,-0.2277745,3.966556E-09,NaN,-0.4396439,-1.3187E-07,NaN,0.02517732,-5.855767E-07,NaN,-0.6827245,2.441449E-05,-0.05570888,1.348596E-07,NaN,NaN,0.2002047,1.536667E-10,-1.20221E-07,-1.096198E-07,1.974022E-08,-2.622604E-08
900.6697,-0.2275091,3.967169E-09,NaN,-0.4405088,-1.3187E-07,NaN,0.02506659,-5.855723E-07,NaN,-0.6862738,2.441487E-05,-0.06121225,1.348563E-07,NaN,NaN,0.2018227,1.583233E-10,-9.935938E-08,-1.0962E-07,1.735603E-08,-2.861022E-08
900.6854,-0.227237,3.967782E-09,NaN,-0.4413933,-1.3187E-07,NaN,0.02477931,-5.855679E-07,NaN,-0.6897843,2.441525E-05,-0.0666102,1.348531E-07,NaN,NaN,0.2034089,1.536667E-10,-7.909379E-08,-1.096201E-07,2.570068E-08,-2.622604E-08
900.7015,-0.2269287,3.968395E-09,NaN,-0.4423905,-1.318701E-07,NaN,0.02461056,-5.855635E-07,NaN,-0.6937634,2.441563E-05,-0.07256768,1.348498E-07,NaN,NaN,0.2052782,1.490101E-10,-6.12124E-08,-1.096203E-07,1.854812E-08,-2.861022E-08
900.7172,-0.2269287,3.968395E-09,NaN,-0.4423905,-1.318701E-07,NaN,0.02461056,-5.855635E-07,NaN,-0.6937634,2.441563E-05,-0.07256768,1.348498E-07,NaN,NaN,0.2052782,1.490101E-10,-6.12124E-08,-1.096203E-07,1.854812E-08,-2.861022E-08
900.7324,-0.2265992,3.969007E-09,NaN,-0.4434527,-1.318701E-07,NaN,0.0243056,-5.855592E-07,NaN,-0.6977961,2.4416E-05,-0.07869025,1.348466E-07,NaN,NaN,0.2071108,1.536667E-10,-4.422508E-08,-1.096205E-07,2.689277E-08,-2.622604E-08
900.7491,-0.2262579,3.96962E-09,NaN,-0.4445502,-1.318702E-07,NaN,0.02379708,-5.855549E-07,NaN,-0.7018128,2.441638E-05,-0.08476497,1.348435E-07,NaN,NaN,0.2089076,1.490101E-10,-1.889311E-08,-1.096206E-07,2.33165E-08,-2.861022E-08
900.7648,-0.2259107,3.970233E-09,NaN,-0.4456644,-1.318702E-07,NaN,0.02310977,-5.855506E-07,NaN,-0.7057821,2.441676E-05,-0.09072149,1.348404E-07,NaN,NaN,0.2106691,1.536667E-10,1.968516E-09,-1.096208E-07,1.974022E-08,-2.622604E-08
900.7804,-0.2255282,3.970846E-09,NaN,-0.4468885,-1.318703E-07,NaN,0.02252232,-5.855463E-07,NaN,-0.7102098,2.441713E-05,-0.09722444,1.348373E-07,NaN,NaN,0.2127102,1.583233E-10,1.746572E-08,-1.09621E-07,1.854812E-08,-2.861022E-08
900.7963,-0.2255282,3.970846E-09,NaN,-0.4468885,-1.318703E-07,NaN,0.02252232,-5.855463E-07,NaN,-0.7102098,2.441713E-05,-0.09722444,1.348373E-07,NaN,NaN,0.2127102,1.583233E-10,1.746572E-08,-1.09621E-07,1.854812E-08,-2.861022E-08
900.8115,-0.2251254,3.971459E-09,NaN,-0.4481749,-1.318703E-07,NaN,0.02179236,-5.855421E-07,NaN,-0.7146817,2.441751E-05,-0.1038823,1.348342E-07,NaN,NaN,0.2147113,1.536667E-10,4.011549E-08,-1.096212E-07,2.21244E-08,-2.622604E-08
900.828,-0.2247116,3.972072E-09,NaN,-0.4494938,-1.318703E-07,NaN,0.02085591,-5.855379E-07,NaN,-0.719129,2.441788E-05,-0.11048,1.348311E-07,NaN,NaN,0.2166732,1.583233E-10,6.395734E-08,-1.096213E-07,1.974022E-08,-2.861022E-08
900.8441,-0.2242928,3.972684E-09,NaN,-0.4508267,-1.318704E-07,NaN,0.01974022,-5.855338E-07,NaN,-0.7235209,2.441826E-05,-0.1169475,1.348281E-07,NaN,NaN,0.2185967,1.629799E-10,8.690513E-08,-1.096215E-07,1.974022E-08,-2.622604E-08
900.8599,-0.2242928,3.972684E-09,NaN,-0.4508267,-1.318704E-07,NaN,0.01974022,-5.855338E-07,NaN,-0.7235209,2.441826E-05,-0.1169475,1.348281E-07,NaN,NaN,0.2185967,1.629799E-10,8.690513E-08,-1.096215E-07,1.974022E-08,-2.622604E-08
900.8751,-0.2238395,3.973297E-09,NaN,-0.452267,-1.318704E-07,NaN,0.01870597,-5.855325E-07,NaN,-0.7283615,2.441864E-05,-0.1239493,1.348279E-07,NaN,NaN,0.2207965,1.583233E-10,1.024023E-07,-1.096216E-07,1.974022E-08,-2.861022E-08
900.8914,-0.2233668,3.97391E-09,NaN,-0.4537669,-1.318705E-07,NaN,0.01752428,-5.855311E-07,NaN,-0.7332377,2.441902E-05,-0.1310966,1.348277E-07,NaN,NaN,0.2229533,1.536667E-10,1.24158E-07,-1.096218E-07,1.139557E-08,-2.622604E-08
900.9075,-0.2228839,3.974523E-09,NaN,-0.4552966,-1.318705E-07,NaN,0.01613496,-5.855297E-07,NaN,-0.7380816,2.441939E-05,-0.1381721,1.348275E-07,NaN,NaN,0.2250678,1.583233E-10,1.49788E-07,-1.09622E-07,9.01138E-09,-2.861022E-08
900.9232,-0.2223968,3.975137E-09,NaN,-0.4568379,-1.318706E-07,NaN,0.01456789,-5.855283E-07,NaN,-0.7428626,2.441978E-05,-0.1451057,1.348272E-07,NaN,NaN,0.2271409,1.536667E-10,1.7512E-07,-1.096221E-07,5.435101E-09,-2.622604E-08
900.9393,-0.2223968,3.975137E-09,NaN,-0.4568379,-1.318706E-07,NaN,0.01456789,-5.855283E-07,NaN,-0.7428626,2.441978E-05,-0.1451057,1.348272E-07,NaN,NaN,0.2271409,1.536667E-10,1.7512E-07,-1.096221E-07,5.435101E-09,-2.622604E-08
900.9543,-0.2218759,3.97575E-09,NaN,-0.458484,-1.318706E-07,NaN,0.0130644,-5.855269E-07,NaN,-0.748083,2.442016E-05,-0.152563,1.348269E-07,NaN,NaN,0.2294873,1.490101E-10,1.909152E-07,-1.096223E-07,6.667298E-10,-2.861022E-08
900.9709,-0.2213363,3.976363E-09,NaN,-0.4601871,-1.318706E-07,NaN,0.01141005,-5.855254E-07,NaN,-0.7533311,2.442053E-05,-0.1601566,1.348266E-07,NaN,NaN,0.2317879,1.536667E-10,2.150551E-07,-1.096225E-07,6.627194E-09,-2.622604E-08
900.9868,-0.2207875,3.976977E-09,NaN,-0.4619177,-1.318707E-07,NaN,0.009548889,-5.855239E-07,NaN,-0.7585396,2.442091E-05,-0.1676673,1.348262E-07,NaN,NaN,0.2340434,1.490101E-10,2.397911E-07,-1.096226E-07,9.01138E-09,-2.861022E-08
901.0025,-0.2202351,3.97759E-09,NaN,-0.4636574,-1.318707E-07,NaN,0.007513471,-5.855224E-07,NaN,-0.7636787,2.442129E-05,-0.1750252,1.348258E-07,NaN,NaN,0.2362547,1.536667E-10,2.654211E-07,-1.096228E-07,-5.253629E-10,-2.622604E-08
901.0181,-0.2202351,3.97759E-09,NaN,-0.4636574,-1.318707E-07,NaN,0.007513471,-5.855224E-07,NaN,-0.7636787,2.442129E-05,-0.1750252,1.348258E-07,NaN,NaN,0.2362547,1.536667E-10,2.654211E-07,-1.096228E-07,-5.253629E-10,-2.622604E-08
901.0334,-0.2196497,3.978203E-09,NaN,-0.4654996,-1.318708E-07,NaN,0.005524508,-5.851056E-07,NaN,-0.7692482,2.442167E-05,-0.1828969,1.344102E-07,NaN,NaN,0.2387366,1.490101E-10,2.833025E-07,-1.096229E-07,-1.717456E-09,-2.861022E-08
901.0496,-0.2190463,3.978817E-09,NaN,-0.4673963,-1.318708E-07,NaN,0.00338287,-5.846969E-07,NaN,-0.7748382,2.442205E-05,-0.1908965,1.340026E-07,NaN,NaN,0.24117,1.443535E-10,3.062502E-07,-1.096231E-07,-6.485827E-09,-2.622604E-08
901.0656,-0.2184344,3.979431E-09,NaN,-0.4693182,-1.318708E-07,NaN,0.001037171,-5.842962E-07,NaN,-0.7803822,2.442243E-05,-0.1988023,1.33603E-07,NaN,NaN,0.2435557,1.396969E-10,3.327743E-07,-1.096233E-07,-8.870012E-09,-2.861022E-08
901.0826,-0.2178198,3.980044E-09,NaN,-0.4712468,-1.318709E-07,NaN,-0.00147729,-5.839032E-07,NaN,-0.785851,2.44228E-05,-0.2065448,1.332112E-07,NaN,NaN,0.2458947,1.443535E-10,3.578083E-07,-1.096234E-07,-8.870012E-09,-2.622604E-08
901.0978,-0.2178198,3.980044E-09,NaN,-0.4712468,-1.318709E-07,NaN,-0.00147729,-5.839032E-07,NaN,-0.785851,2.44228E-05,-0.2065448,1.332112E-07,NaN,NaN,0.2458947,1.443535E-10,3.578083E-07,-1.096234E-07,-8.870012E-09,-2.622604E-08
901.1124,-0.2171727,3.980658E-09,NaN,-0.4732756,-1.318709E-07,NaN,-0.003961583,-5.835179E-07,NaN,-0.7917414,2.442318E-05,-0.2147925,1.32827E-07,NaN,NaN,0.2485017,1.490101E-10,3.753916E-07,-1.096236E-07,-1.840676E-08,-2.861022E-08
901.1287,-0.2165083,3.981272E-09,NaN,-0.4753568,-1.31871E-07,NaN,-0.006598802,-5.8314E-07,NaN,-0.7976458,2.442356E-05,-0.2231599,1.324502E-07,NaN,NaN,0.2510579,1.443535E-10,3.980414E-07,-1.096237E-07,-2.198303E-08,-2.622604E-08
901.145,-0.2158361,3.981885E-09,NaN,-0.4774608,-1.31871E-07,NaN,-0.009435412,-5.827694E-07,NaN,-0.8034985,2.442394E-05,-0.2314231,1.320808E-07,NaN,NaN,0.2535639,1.396969E-10,4.239694E-07,-1.096239E-07,-2.198303E-08,-2.861022E-08
901.1602,-0.2151619,3.982499E-09,NaN,-0.4795694,-1.318711E-07,NaN,-0.0124334,-5.824061E-07,NaN,-0.8092709,2.442432E-05,-0.2395128,1.317186E-07,NaN,NaN,0.2560208,1.350403E-10,4.513876E-07,-1.09624E-07,-2.317513E-08,-2.622604E-08
901.1768,-0.2151619,3.982499E-09,NaN,-0.4795694,-1.318711E-07,NaN,-0.0124334,-5.824061E-07,NaN,-0.8092709,2.442432E-05,-0.2395128,1.317186E-07,NaN,NaN,0.2560208,1.350403E-10,4.513876E-07,-1.09624E-07,-2.317513E-08,-2.622604E-08
901.1912,-0.2144558,3.983113E-09,NaN,-0.4817759,-1.318711E-07,NaN,-0.01541666,-5.820526E-07,NaN,-0.8154565,2.442471E-05,-0.2481004,1.313662E-07,NaN,NaN,0.2587434,1.303837E-10,4.707591E-07,-1.096242E-07,-2.198303E-08,-2.861022E-08
901.208,-0.2137332,3.983727E-09,NaN,-0.4840327,-1.318711E-07,NaN,-0.01855162,-5.817059E-07,NaN,-0.8216503,2.442508E-05,-0.2567994,1.310207E-07,NaN,NaN,0.2614129,1.350403E-10,4.975811E-07,-1.096244E-07,-1.721466E-08,-2.622604E-08
901.2235,-0.2130034,3.98434E-09,NaN,-0.4863102,-1.318712E-07,NaN,-0.02187948,-5.81366E-07,NaN,-0.8277874,2.442546E-05,-0.265384,1.306819E-07,NaN,NaN,0.2640301,1.303837E-10,5.202309E-07,-1.096245E-07,-1.840676E-08,-2.861022E-08
901.2394,-0.2130034,3.98434E-09,NaN,-0.4863102,-1.318712E-07,NaN,-0.02187948,-5.81366E-07,NaN,-0.8277874,2.442546E-05,-0.265384,1.306819E-07,NaN,NaN,0.2640301,1.303837E-10,5.202309E-07,-1.096245E-07,-1.840676E-08,-2.861022E-08
901.2543,-0.2122387,3.984955E-09,NaN,-0.4886948,-1.318712E-07,NaN,-0.02524967,-5.810327E-07,NaN,-0.8343425,2.442583E-05,-0.27447,1.303497E-07,NaN,NaN,0.2669097,1.350403E-10,5.366222E-07,-1.096247E-07,-1.721466E-08,-2.622604E-08
901.2708,-0.2114559,3.985569E-09,NaN,-0.4911344,-1.318713E-07,NaN,-0.02880433,-5.807058E-07,NaN,-0.8409054,2.442622E-05,-0.2836521,1.30024E-07,NaN,NaN,0.2697333,1.303837E-10,5.631462E-07,-1.096248E-07,-1.840676E-08,-2.861022E-08
901.2864,-0.2106652,3.986183E-09,NaN,-0.4935967,-1.318713E-07,NaN,-0.03256787,-5.803852E-07,NaN,-0.8474083,2.442659E-05,-0.2927002,1.297045E-07,NaN,NaN,0.2725014,1.350403E-10,5.942896E-07,-1.09625E-07,-2.198304E-08,-2.622604E-08
901.3027,-0.209873,3.986797E-09,NaN,-0.496062,-1.318714E-07,NaN,-0.03648856,-5.800708E-07,NaN,-0.8538218,2.442697E-05,-0.3015479,1.293913E-07,NaN,NaN,0.2752153,1.303837E-10,6.227509E-07,-1.096251E-07,-2.079094E-08,-2.861022E-08
901.3182,-0.209873,3.986797E-09,NaN,-0.496062,-1.318714E-07,NaN,-0.03648856,-5.800708E-07,NaN,-0.8538218,2.442697E-05,-0.3015479,1.293913E-07,NaN,NaN,0.2752153,1.303837E-10,6.227509E-07,-1.096251E-07,-2.079094E-08,-2.861022E-08
901.3337,-0.2090497,3.987411E-09,NaN,-0.4986227,-1.318714E-07,NaN,-0.04042778,-5.797626E-07,NaN,-0.8606322,2.442734E-05,-0.3108746,1.290842E-07,NaN,NaN,0.2781898,1.350403E-10,6.410793E-07,-1.096253E-07,-2.198304E-08,-2.622604E-08
901.3498,-0.2082107,3.988025E-09,NaN,-0.5012303,-1.318714E-07,NaN,-0.04451796,-5.794602E-07,NaN,-0.8674394,2.442773E-05,-0.3202916,1.28783E-07,NaN,NaN,0.2811062,1.303837E-10,6.690935E-07,-1.096254E-07,-2.198304E-08,-2.861022E-08
901.3658,-0.2073656,3.98864E-09,NaN,-0.503855,-1.318715E-07,NaN,-0.04878858,-5.791637E-07,NaN,-0.8741801,2.44281E-05,-0.3295708,1.284876E-07,NaN,NaN,0.2839655,1.350403E-10,6.982997E-07,-1.096256E-07,-2.317513E-08,-2.622604E-08
901.3815,-0.2065205,3.989254E-09,NaN,-0.5064784,-1.318715E-07,NaN,-0.05319367,-5.78873E-07,NaN,-0.8808267,2.442848E-05,-0.3386463,1.28198E-07,NaN,NaN,0.2867687,1.303837E-10,7.242278E-07,-1.096257E-07,-2.317513E-08,-2.861022E-08
901.3973,-0.2065205,3.989254E-09,NaN,-0.5064784,-1.318715E-07,NaN,-0.05319367,-5.78873E-07,NaN,-0.8808267,2.442848E-05,-0.3386463,1.28198E-07,NaN,NaN,0.2867687,1.303837E-10,7.242278E-07,-1.096257E-07,-2.317513E-08,-2.861022E-08
901.4125,-0.2056451,3.989868E-09,NaN,-0.5091938,-1.318716E-07,NaN,-0.05762549,-5.785878E-07,NaN,-0.8878618,2.442885E-05,-0.3482001,1.27914E-07,NaN,NaN,0.2898307,1.350403E-10,7.455365E-07,-1.096259E-07,-2.436722E-08,-2.622604E-08
901.4289,-0.2047549,3.990482E-09,NaN,-0.5119534,-1.318716E-07,NaN,-0.0622006,-5.783082E-07,NaN,-0.89489,2.442924E-05,-0.3578379,1.276356E-07,NaN,NaN,0.2928329,1.303837E-10,7.711665E-07,-1.09626E-07,-2.079094E-08,-2.861022E-08
901.4448,-0.2038594,3.991096E-09,NaN,-0.5147277,-1.318717E-07,NaN,-0.06694381,-5.780369E-07,NaN,-0.9018485,2.442961E-05,-0.3673297,1.273653E-07,NaN,NaN,0.2957764,1.350403E-10,7.988826E-07,-1.096262E-07,-2.91356E-08,-2.622604E-08
901.4604,-0.2029644,3.991711E-09,NaN,-0.5174985,-1.318717E-07,NaN,-0.07180756,-5.777707E-07,NaN,-0.9087103,2.442999E-05,-0.3766102,1.271003E-07,NaN,NaN,0.2986621,1.303837E-10,8.250342E-07,-1.096263E-07,-2.91356E-08,-2.861022E-08
901.4764,-0.2029644,3.991711E-09,NaN,-0.5174985,-1.318717E-07,NaN,-0.07180756,-5.777707E-07,NaN,-0.9087103,2.442999E-05,-0.3766102,1.271003E-07,NaN,NaN,0.2986621,1.303837E-10,8.250342E-07,-1.096263E-07,-2.91356E-08,-2.861022E-08
901.491,-0.2020398,3.992325E-09,NaN,-0.5203594,-1.318717E-07,NaN,-0.07671092,-5.775097E-07,NaN,-0.9159535,2.443037E-05,-0.3863662,1.268404E-07,NaN,NaN,0.301805,1.257271E-10,8.406059E-07,-1.096265E-07,-2.675141E-08,-2.622604E-08
901.5077,-0.2011009,3.992939E-09,NaN,-0.5232626,-1.318718E-07,NaN,-0.08175147,-5.772537E-07,NaN,-0.9231868,2.443075E-05,-0.3961977,1.265856E-07,NaN,NaN,0.3048865,1.210705E-10,8.663104E-07,-1.096266E-07,-2.198304E-08,-2.861022E-08
901.5232,-0.2001573,3.993553E-09,NaN,-0.5261786,-1.318718E-07,NaN,-0.08694776,-5.770027E-07,NaN,-0.930348,2.443113E-05,-0.4058737,1.263357E-07,NaN,NaN,0.3079076,1.257271E-10,8.9425E-07,-1.096268E-07,-1.602257E-08,-2.622604E-08
901.5395,-0.2001573,3.993553E-09,NaN,-0.5261786,-1.318718E-07,NaN,-0.08694776,-5.770027E-07,NaN,-0.930348,2.443113E-05,-0.4058737,1.263357E-07,NaN,NaN,0.3079076,1.257271E-10,8.9425E-07,-1.096268E-07,-1.602257E-08,-2.622604E-08
901.5542,-0.1992149,3.994168E-09,NaN,-0.5290895,-1.318719E-07,NaN,-0.09225023,-5.767565E-07,NaN,-0.9374105,2.44315E-05,-0.4153311,1.260906E-07,NaN,NaN,0.3108695,1.303837E-10,9.19284E-07,-1.096269E-07,-1.483048E-08,-2.861022E-08
901.5708,-0.1982431,3.994783E-09,NaN,-0.5320886,-1.318719E-07,NaN,-0.09760508,-5.76515E-07,NaN,-0.9448474,2.443187E-05,-0.4252615,1.258503E-07,NaN,NaN,0.314087,1.350403E-10,9.361223E-07,-1.096271E-07,-1.006211E-08,-2.622604E-08
901.5882,-0.1972577,3.995397E-09,NaN,-0.5351284,-1.31872E-07,NaN,-0.1030903,-5.762782E-07,NaN,-0.9522721,2.443225E-05,-0.4352585,1.256146E-07,NaN,NaN,0.3172418,1.396969E-10,9.624229E-07,-1.096272E-07,-6.485831E-09,-2.861022E-08
901.6024,-0.196268,3.996012E-09,NaN,-0.5381793,-1.31872E-07,NaN,-0.1087181,-5.760459E-07,NaN,-0.959623,2.443262E-05,-0.4450908,1.253835E-07,NaN,NaN,0.3203347,1.443535E-10,9.878294E-07,-1.096274E-07,-1.12542E-08,-2.622604E-08
901.6182,-0.196268,3.996012E-09,NaN,-0.5381793,-1.31872E-07,NaN,-0.1087181,-5.760459E-07,NaN,-0.959623,2.443262E-05,-0.4450908,1.253835E-07,NaN,NaN,0.3203347,1.443535E-10,9.878294E-07,-1.096274E-07,-1.12542E-08,-2.622604E-08
901.6334,-0.1952801,3.996627E-09,NaN,-0.5412235,-1.31872E-07,NaN,-0.114437,-5.758041E-07,NaN,-0.9668735,2.443299E-05,-0.4546975,1.251428E-07,NaN,NaN,0.3233669,1.490101E-10,1.012174E-06,-1.096275E-07,-1.602257E-08,-2.861022E-08
901.65,-0.1942632,3.997241E-09,NaN,-0.5443543,-1.318721E-07,NaN,-0.120221,-5.755641E-07,NaN,-0.9744915,2.443336E-05,-0.4647756,1.24904E-07,NaN,NaN,0.3266534,1.536667E-10,1.02714E-06,-1.096277E-07,-1.661862E-08,-2.622604E-08
901.6658,-0.1932331,3.997856E-09,NaN,-0.5475242,-1.318721E-07,NaN,-0.126128,-5.753259E-07,NaN,-0.9820958,2.443374E-05,-0.4749108,1.246669E-07,NaN,NaN,0.3298757,1.583233E-10,1.051257E-06,-1.096279E-07,-1.006211E-08,-2.861022E-08
901.6814,-0.1921993,3.99847E-09,NaN,-0.5507036,-1.318721E-07,NaN,-0.1321637,-5.750923E-07,NaN,-0.9896249,2.443411E-05,-0.4848723,1.244345E-07,NaN,NaN,0.333035,1.629799E-10,1.07793E-06,-1.096281E-07,-1.423443E-08,-2.622604E-08
901.6976,-0.1921993,3.99847E-09,NaN,-0.5507036,-1.318721E-07,NaN,-0.1321637,-5.750923E-07,NaN,-0.9896249,2.443411E-05,-0.4848723,1.244345E-07,NaN,NaN,0.333035,1.629799E-10,1.07793E-06,-1.096281E-07,-1.423443E-08,-2.622604E-08
901.7125,-0.1911678,3.999085E-09,NaN,-0.5538746,-1.318722E-07,NaN,-0.1382751,-5.748632E-07,NaN,-0.9970523,2.443448E-05,-0.4946018,1.242065E-07,NaN,NaN,0.3361322,1.676365E-10,1.104957E-06,-1.096283E-07,-1.423443E-08,-2.861022E-08
901.7287,-0.1901076,3.9997E-09,NaN,-0.5571308,-1.318722E-07,NaN,-0.1444643,-5.746385E-07,NaN,-1.00484,2.443486E-05,-0.5048018,1.23983E-07,NaN,NaN,0.3394823,1.722932E-10,1.11766E-06,-1.096285E-07,-1.304234E-08,-2.622604E-08
901.7445,-0.1890347,4.000314E-09,NaN,-0.5604244,-1.318723E-07,NaN,-0.1507689,-5.744182E-07,NaN,-1.012614,2.443523E-05,-0.5150489,1.237637E-07,NaN,NaN,0.3427671,1.769498E-10,1.140124E-06,-1.096286E-07,-7.677924E-09,-2.861022E-08
901.7601,-0.1879587,4.000929E-09,NaN,-0.5637262,-1.318723E-07,NaN,-0.1571874,-5.74202E-07,NaN,-1.020311,2.44356E-05,-0.5251136,1.235488E-07,NaN,NaN,0.3459876,1.816064E-10,1.166723E-06,-1.096288E-07,-8.273971E-09,-2.622604E-08
901.7763,-0.1879587,4.000929E-09,NaN,-0.5637262,-1.318723E-07,NaN,-0.1571874,-5.74202E-07,NaN,-1.020311,2.44356E-05,-0.5251136,1.235488E-07,NaN,NaN,0.3459876,1.816064E-10,1.166723E-06,-1.096288E-07,-8.273971E-09,-2.622604E-08
901.7911,-0.1868853,4.001544E-09,NaN,-0.567018,-1.318723E-07,NaN,-0.1636662,-5.739901E-07,NaN,-1.027906,2.443598E-05,-0.5349405,1.233379E-07,NaN,NaN,0.3491448,1.769498E-10,1.188702E-06,-1.09629E-07,-1.065816E-08,-2.861022E-08
901.808,-0.1857837,4.002158E-09,NaN,-0.5703936,-1.318724E-07,NaN,-0.1702359,-5.737822E-07,NaN,-1.035855,2.443636E-05,-0.5452374,1.231312E-07,NaN,NaN,0.3525538,1.816064E-10,1.201293E-06,-1.096292E-07,-1.363839E-08,-2.622604E-08
901.8234,-0.1846697,4.002773E-09,NaN,-0.5738052,-1.318724E-07,NaN,-0.1769126,-5.735783E-07,NaN,-1.043788,2.443675E-05,-0.5555711,1.229284E-07,NaN,NaN,0.3558962,1.769498E-10,1.223645E-06,-1.096294E-07,-8.870018E-09,-2.861022E-08
901.8393,-0.1846697,4.002773E-09,NaN,-0.5738052,-1.318724E-07,NaN,-0.1769126,-5.735783E-07,NaN,-1.043788,2.443675E-05,-0.5555711,1.229284E-07,NaN,NaN,0.3558962,1.769498E-10,1.223645E-06,-1.096294E-07,-8.870018E-09,-2.861022E-08
901.8542,-0.1835531,4.003387E-09,NaN,-0.5772235,-1.318725E-07,NaN,-0.1836886,-5.733812E-07,NaN,-1.051645,2.443712E-05,-0.5657139,1.227324E-07,NaN,NaN,0.3591732,1.816064E-10,1.248008E-06,-1.096296E-07,-7.677925E-09,-2.622604E-08
901.8705,-0.1824397,4.004002E-09,NaN,-0.5806304,-1.318725E-07,NaN,-0.190509,-5.731878E-07,NaN,-1.059398,2.44375E-05,-0.575614,1.225402E-07,NaN,NaN,0.3623859,1.86263E-10,1.268274E-06,-1.096297E-07,-5.889786E-09,-2.861022E-08
901.8868,-0.1812983,4.004617E-09,NaN,-0.5841197,-1.318726E-07,NaN,-0.1974338,-5.729981E-07,NaN,-1.0675,2.443787E-05,-0.5859841,1.223517E-07,NaN,NaN,0.3658492,1.909196E-10,1.278407E-06,-1.096299E-07,-2.313507E-09,-2.622604E-08
901.9025,-0.180145,4.005231E-09,NaN,-0.5876437,-1.318726E-07,NaN,-0.2044571,-5.728122E-07,NaN,-1.075585,2.443824E-05,-0.5963798,1.221668E-07,NaN,NaN,0.3692449,1.909196E-10,1.300759E-06,-1.096301E-07,-2.909553E-09,-2.861022E-08
901.9183,-0.180145,4.005231E-09,NaN,-0.5876437,-1.318726E-07,NaN,-0.2044571,-5.728122E-07,NaN,-1.075585,2.443824E-05,-0.5963798,1.221668E-07,NaN,NaN,0.3692449,1.909196E-10,1.300759E-06,-1.096301E-07,-2.909553E-09,-2.861022E-08
901.9333,-0.1789895,4.005846E-09,NaN,-0.5911729,-1.318726E-07,NaN,-0.2115644,-5.726297E-07,NaN,-1.083594,2.443861E-05,-0.6065769,1.219855E-07,NaN,NaN,0.3725741,1.955762E-10,1.323408E-06,-1.096303E-07,-2.61153E-09,-2.622604E-08
901.9498,-0.1778376,4.00646E-09,NaN,-0.5946894,-1.318727E-07,NaN,-0.2187007,-5.724507E-07,NaN,-1.091498,2.443898E-05,-0.6165273,1.218077E-07,NaN,NaN,0.375838,1.955762E-10,1.340545E-06,-1.096304E-07,-4.697693E-09,-2.861022E-08
901.9654,-0.1766581,4.007075E-09,NaN,-0.598287,-1.318727E-07,NaN,-0.2259552,-5.722752E-07,NaN,-1.099745,2.443935E-05,-0.6269475,1.216333E-07,NaN,NaN,0.3793515,2.002328E-10,1.351124E-06,-1.096306E-07,9.647483E-10,-2.622604E-08
901.9811,-0.175467,4.00769E-09,NaN,-0.6019179,-1.318728E-07,NaN,-0.2332996,-5.72103E-07,NaN,-1.107976,2.443972E-05,-0.637382,1.214623E-07,NaN,NaN,0.3827964,2.048894E-10,1.368559E-06,-1.096308E-07,-2.273446E-10,-2.861022E-08
901.9969,-0.175467,4.00769E-09,NaN,-0.6019179,-1.318728E-07,NaN,-0.2332996,-5.72103E-07,NaN,-1.107976,2.443972E-05,-0.637382,1.214623E-07,NaN,NaN,0.3827964,2.048894E-10,1.368559E-06,-1.096308E-07,-2.273446E-10,-2.861022E-08
902.012,-0.1742742,4.008304E-09,NaN,-0.6055527,-1.318728E-07,NaN,-0.2407124,-5.719342E-07,NaN,-1.11613,2.444009E-05,-0.6476108,1.212946E-07,NaN,NaN,0.3861738,2.09546E-10,1.387036E-06,-1.09631E-07,1.262771E-09,-2.622604E-08
902.0291,-0.1730855,4.008919E-09,NaN,-0.6091737,-1.318729E-07,NaN,-0.2481389,-5.717685E-07,NaN,-1.124179,2.444046E-05,-0.6575899,1.211301E-07,NaN,NaN,0.389485,2.09546E-10,1.405067E-06,-1.096312E-07,1.858818E-09,-2.861022E-08
902.0443,-0.1718693,4.009534E-09,NaN,-0.6128743,-1.318729E-07,NaN,-0.2556982,-5.716089E-07,NaN,-1.132563,2.444083E-05,-0.6680385,1.209716E-07,NaN,NaN,0.3930449,2.142026E-10,1.412517E-06,-1.096313E-07,3.348934E-09,-2.622604E-08
902.0597,-0.1718693,4.009534E-09,NaN,-0.6128743,-1.318729E-07,NaN,-0.2556982,-5.716089E-07,NaN,-1.132563,2.444083E-05,-0.6680385,1.209716E-07,NaN,NaN,0.3930449,2.142026E-10,1.412517E-06,-1.096313E-07,3.348934E-09,-2.622604E-08
902.0748,-0.1706421,4.010148E-09,NaN,-0.616607,-1.318729E-07,NaN,-0.2633381,-5.714523E-07,NaN,-1.140934,2.44412E-05,-0.6784899,1.208162E-07,NaN,NaN,0.3965352,2.142026E-10,1.428312E-06,-1.096315E-07,4.093992E-09,-2.861022E-08
902.0922,-0.1694135,4.010763E-09,NaN,-0.6203424,-1.31873E-07,NaN,-0.2710311,-5.712987E-07,NaN,-1.149227,2.444157E-05,-0.6887294,1.206637E-07,NaN,NaN,0.3999572,2.142026E-10,1.443511E-06,-1.096317E-07,1.11376E-09,-2.622604E-08
902.1068,-0.1681894,4.011377E-09,NaN,-0.6240627,-1.31873E-07,NaN,-0.2787227,-5.71148E-07,NaN,-1.157415,2.444195E-05,-0.6987173,1.205142E-07,NaN,NaN,0.4033121,2.142026E-10,1.45573E-06,-1.096319E-07,-5.293739E-09,-2.861022E-08
902.1224,-0.1669382,4.011992E-09,NaN,-0.6278616,-1.318731E-07,NaN,-0.2865622,-5.710002E-07,NaN,-1.165932,2.444232E-05,-0.709174,1.203675E-07,NaN,NaN,0.4069149,2.142026E-10,1.459307E-06,-1.09632E-07,-6.932867E-09,-2.622604E-08
902.1383,-0.1669382,4.011992E-09,NaN,-0.6278616,-1.318731E-07,NaN,-0.2865622,-5.710002E-07,NaN,-1.165932,2.444232E-05,-0.709174,1.203675E-07,NaN,NaN,0.4069149,2.142026E-10,1.459307E-06,-1.09632E-07,-6.932867E-09,-2.622604E-08
902.153,-0.1656762,4.012607E-09,NaN,-0.6316912,-1.318731E-07,NaN,-0.294473,-5.708553E-07,NaN,-1.174436,2.444269E-05,-0.7196217,1.202237E-07,NaN,NaN,0.4104473,2.142026E-10,1.473314E-06,-1.096322E-07,-1.013662E-08,-2.861022E-08
902.1697,-0.1644133,4.013221E-09,NaN,-0.6355224,-1.318732E-07,NaN,-0.3024213,-5.70713E-07,NaN,-1.182863,2.444306E-05,-0.7298526,1.200826E-07,NaN,NaN,0.4139106,2.142026E-10,1.484639E-06,-1.096324E-07,-1.155223E-08,-2.622604E-08
902.1853,-0.1631553,4.013836E-09,NaN,-0.6393372,-1.318732E-07,NaN,-0.3103537,-5.705735E-07,NaN,-1.191184,2.444344E-05,-0.7398311,1.199442E-07,NaN,NaN,0.4173059,2.142026E-10,1.497156E-06,-1.096326E-07,-7.75243E-09,-2.861022E-08
902.2008,-0.1618703,4.014451E-09,NaN,-0.6432295,-1.318732E-07,NaN,-0.3184498,-5.704367E-07,NaN,-1.199829,2.444381E-05,-0.7502769,1.198085E-07,NaN,NaN,0.4209483,2.142026E-10,1.499838E-06,-1.096327E-07,-5.982917E-09,-2.622604E-08
902.2163,-0.1618703,4.014451E-09,NaN,-0.6432295,-1.318732E-07,NaN,-0.3184498,-5.704367E-07,NaN,-1.199829,2.444381E-05,-0.7502769,1.198085E-07,NaN,NaN,0.4209483,2.142026E-10,1.499838E-06,-1.096327E-07,-5.982917E-09,-2.622604E-08
902.2314,-0.160575,4.015065E-09,NaN,-0.6471515,-1.318733E-07,NaN,-0.3266073,-5.703024E-07,NaN,-1.208461,2.444418E-05,-0.760702,1.196754E-07,NaN,NaN,0.4245196,2.142026E-10,1.512355E-06,-1.096329E-07,-2.974745E-09,-2.861022E-08
902.248,-0.1592792,4.01568E-09,NaN,-0.6510738,-1.318733E-07,NaN,-0.3347871,-5.701735E-07,NaN,-1.217017,2.444455E-05,-0.7709069,1.195477E-07,NaN,NaN,0.4280208,2.188592E-10,1.521891E-06,-1.096331E-07,-1.037594E-09,-2.622604E-08
902.2645,-0.1579887,4.016294E-09,NaN,-0.6549786,-1.318734E-07,NaN,-0.3429369,-5.7005E-07,NaN,-1.225467,2.444492E-05,-0.7808597,1.194252E-07,NaN,NaN,0.4314534,2.188592E-10,1.52964E-06,-1.096332E-07,2.017144E-09,-2.861022E-08
902.2794,-0.1579887,4.016294E-09,NaN,-0.6549786,-1.318734E-07,NaN,-0.3429369,-5.7005E-07,NaN,-1.225467,2.444492E-05,-0.7808597,1.194252E-07,NaN,NaN,0.4314534,2.188592E-10,1.52964E-06,-1.096332E-07,2.017144E-09,-2.861022E-08
902.2946,-0.1566715,4.016909E-09,NaN,-0.6589599,-1.318734E-07,NaN,-0.3512667,-5.699287E-07,NaN,-1.234233,2.444529E-05,-0.7912768,1.193051E-07,NaN,NaN,0.4351324,2.188592E-10,1.531428E-06,-1.096334E-07,-8.885823E-10,-2.622604E-08
902.311,-0.1553442,4.017524E-09,NaN,-0.6629696,-1.318734E-07,NaN,-0.3596479,-5.698097E-07,NaN,-1.24299,2.444566E-05,-0.8016624,1.191873E-07,NaN,NaN,0.4387394,2.188592E-10,1.535303E-06,-1.096336E-07,-3.42178E-09,-2.861022E-08
902.3265,-0.1540168,4.018138E-09,NaN,-0.6669787,-1.318735E-07,NaN,-0.3680361,-5.69693E-07,NaN,-1.25167,2.444603E-05,-0.8118258,1.190717E-07,NaN,NaN,0.4422758,2.188592E-10,1.540369E-06,-1.096337E-07,-6.103988E-09,-2.622604E-08
902.3426,-0.1526952,4.018753E-09,NaN,-0.6709693,-1.318735E-07,NaN,-0.3763812,-5.695786E-07,NaN,-1.260243,2.444639E-05,-0.821739,1.189583E-07,NaN,NaN,0.4457428,2.188592E-10,1.546329E-06,-1.096339E-07,-7.743116E-09,-2.861022E-08
902.3582,-0.1526952,4.018753E-09,NaN,-0.6709693,-1.318735E-07,NaN,-0.3763812,-5.695786E-07,NaN,-1.260243,2.444639E-05,-0.821739,1.189583E-07,NaN,NaN,0.4457428,2.188592E-10,1.546329E-06,-1.096339E-07,-7.743116E-09,-2.861022E-08
902.3735,-0.1513469,4.019368E-09,NaN,-0.6750352,-1.318736E-07,NaN,-0.384923,-5.694662E-07,NaN,-1.269127,2.444677E-05,-0.8321117,1.188471E-07,NaN,NaN,0.4494556,2.09546E-10,1.544541E-06,-1.096341E-07,-2.378699E-09,-2.622604E-08
902.3896,-0.149989,4.019982E-09,NaN,-0.6791285,-1.318736E-07,NaN,-0.3935057,-5.69356E-07,NaN,-1.278003,2.444714E-05,-0.8424432,1.187381E-07,NaN,NaN,0.4530958,2.09546E-10,1.544243E-06,-1.096343E-07,-5.905593E-10,-2.861022E-08
902.4058,-0.1486313,4.020597E-09,NaN,-0.6832201,-1.318737E-07,NaN,-0.4020807,-5.692479E-07,NaN,-1.286803,2.44475E-05,-0.8525523,1.186311E-07,NaN,NaN,0.4566647,2.09546E-10,1.547223E-06,-1.096344E-07,-4.166838E-09,-2.622604E-08
902.4212,-0.1472798,4.021211E-09,NaN,-0.6872923,-1.318737E-07,NaN,-0.4106001,-5.691418E-07,NaN,-1.295495,2.444787E-05,-0.8624139,1.185261E-07,NaN,NaN,0.4601636,2.09546E-10,1.542455E-06,-1.096346E-07,-3.272768E-09,-2.861022E-08
902.437,-0.1472798,4.021211E-09,NaN,-0.6872923,-1.318737E-07,NaN,-0.4106001,-5.691418E-07,NaN,-1.295495,2.444787E-05,-0.8624139,1.185261E-07,NaN,NaN,0.4601636,2.09546E-10,1.542455E-06,-1.096346E-07,-3.272768E-09,-2.861022E-08
902.4518,-0.1459018,4.021826E-09,NaN,-0.6914387,-1.318737E-07,NaN,-0.4193333,-5.690378E-07,NaN,-1.304493,2.444824E-05,-0.8727286,1.184232E-07,NaN,NaN,0.4639076,2.09546E-10,1.535302E-06,-1.096347E-07,-1.186606E-09,-2.622604E-08
902.4684,-0.1445145,4.02244E-09,NaN,-0.6956117,-1.318738E-07,NaN,-0.4280968,-5.689356E-07,NaN,-1.313484,2.444861E-05,-0.8829935,1.183222E-07,NaN,NaN,0.4675784,2.09546E-10,1.534408E-06,-1.096349E-07,2.389673E-09,-2.861022E-08
902.484,-0.1431278,4.023054E-09,NaN,-0.6997818,-1.318738E-07,NaN,-0.4368382,-5.688354E-07,NaN,-1.322398,2.444897E-05,-0.8930377,1.182231E-07,NaN,NaN,0.4711774,2.09546E-10,1.531726E-06,-1.096351E-07,1.19758E-09,-2.622604E-08
902.5001,-0.1417476,4.023668E-09,NaN,-0.7039316,-1.318739E-07,NaN,-0.4455123,-5.687399E-07,NaN,-1.331205,2.444934E-05,-0.9028385,1.181287E-07,NaN,NaN,0.4747058,2.09546E-10,1.527852E-06,-1.096352E-07,2.687696E-09,-2.861022E-08
902.5158,-0.1417476,4.023668E-09,NaN,-0.7039316,-1.318739E-07,NaN,-0.4455123,-5.687399E-07,NaN,-1.331205,2.444934E-05,-0.9028385,1.181287E-07,NaN,NaN,0.4747058,2.09546E-10,1.527852E-06,-1.096352E-07,2.687696E-09,-2.861022E-08
902.5308,-0.1403411,4.024282E-09,NaN,-0.7081547,-1.318739E-07,NaN,-0.4544175,-5.686462E-07,NaN,-1.340312,2.444971E-05,-0.9130834,1.180362E-07,NaN,NaN,0.4784787,2.09546E-10,1.513249E-06,-1.096354E-07,2.09165E-09,-2.622604E-08
902.5472,-0.1389256,4.024896E-09,NaN,-0.7124034,-1.318739E-07,NaN,-0.4633421,-5.685542E-07,NaN,-1.349413,2.445008E-05,-0.923272,1.179453E-07,NaN,NaN,0.4821779,2.09546E-10,1.51146E-06,-1.096356E-07,5.071882E-09,-2.861022E-08
902.5629,-0.1375111,4.025511E-09,NaN,-0.7166483,-1.31874E-07,NaN,-0.4722311,-5.68464E-07,NaN,-1.358439,2.445044E-05,-0.9332432,1.178563E-07,NaN,NaN,0.4858047,2.09546E-10,1.502222E-06,-1.096357E-07,5.667928E-09,-2.622604E-08
902.5789,-0.1375111,4.025511E-09,NaN,-0.7166483,-1.31874E-07,NaN,-0.4722311,-5.68464E-07,NaN,-1.358439,2.445044E-05,-0.9332432,1.178563E-07,NaN,NaN,0.4858047,2.09546E-10,1.502222E-06,-1.096357E-07,5.667928E-09,-2.622604E-08
902.5939,-0.1360671,4.026125E-09,NaN,-0.7209765,-1.31874E-07,NaN,-0.4813853,-5.683755E-07,NaN,-1.367774,2.445081E-05,-0.9436453,1.177689E-07,NaN,NaN,0.4896741,2.09546E-10,1.490003E-06,-1.096359E-07,6.263974E-09,-2.861022E-08
902.6114,-0.1346124,4.026739E-09,NaN,-0.7253355,-1.31874E-07,NaN,-0.4905601,-5.682887E-07,NaN,-1.377112,2.445118E-05,-0.9539798,1.176832E-07,NaN,NaN,0.4934678,2.09546E-10,1.48136E-06,-1.096361E-07,1.103235E-08,-2.622604E-08
902.6257,-0.1331581,4.027353E-09,NaN,-0.7296936,-1.31874E-07,NaN,-0.4996933,-5.682036E-07,NaN,-1.386375,2.445155E-05,-0.9640938,1.175992E-07,NaN,NaN,0.4971873,2.09546E-10,1.467651E-06,-1.096362E-07,9.244206E-09,-2.861022E-08
902.6416,-0.1317105,4.027967E-09,NaN,-0.7340315,-1.318741E-07,NaN,-0.5087413,-5.6812E-07,NaN,-1.395529,2.445191E-05,-0.9739679,1.175167E-07,NaN,NaN,0.5008338,2.09546E-10,1.45573E-06,-1.096364E-07,8.64816E-09,-2.622604E-08
902.6573,-0.1317105,4.027967E-09,NaN,-0.7340315,-1.318741E-07,NaN,-0.5087413,-5.6812E-07,NaN,-1.395529,2.445191E-05,-0.9739679,1.175167E-07,NaN,NaN,0.5008338,2.09546E-10,1.45573E-06,-1.096364E-07,8.64816E-09,-2.622604E-08
902.6724,-0.1302366,4.028581E-09,NaN,-0.7384421,-1.318741E-07,NaN,-0.5180501,-5.68038E-07,NaN,-1.404971,2.445228E-05,-0.9842578,1.174358E-07,NaN,NaN,0.5047227,2.09546E-10,1.431888E-06,-1.096365E-07,1.401258E-08,-2.861022E-08
902.6885,-0.1287541,4.029195E-09,NaN,-0.7428768,-1.318741E-07,NaN,-0.5273582,-5.679575E-07,NaN,-1.41441,2.445265E-05,-0.9944801,1.173565E-07,NaN,NaN,0.5085354,2.09546E-10,1.416987E-06,-1.096367E-07,1.222444E-08,-2.622604E-08
902.7047,-0.1272734,4.029808E-09,NaN,-0.7473061,-1.318742E-07,NaN,-0.5366074,-5.678785E-07,NaN,-1.42377,2.445302E-05,-1.00449,1.172786E-07,NaN,NaN,0.5122736,2.09546E-10,1.400894E-06,-1.096369E-07,1.580072E-08,-2.861022E-08
902.7198,-0.1272734,4.029808E-09,NaN,-0.7473061,-1.318742E-07,NaN,-0.5366074,-5.678785E-07,NaN,-1.42377,2.445302E-05,-1.00449,1.172786E-07,NaN,NaN,0.5122736,2.09546E-10,1.400894E-06,-1.096369E-07,1.580072E-08,-2.861022E-08
902.7349,-0.1258004,4.030422E-09,NaN,-0.7517122,-1.318742E-07,NaN,-0.5457597,-5.67801E-07,NaN,-1.433019,2.445338E-05,-1.014269,1.172022E-07,NaN,NaN,0.5159384,2.09546E-10,1.383608E-06,-1.09637E-07,1.81849E-08,-2.622604E-08
902.7512,-0.1243015,4.031036E-09,NaN,-0.7561888,-1.318742E-07,NaN,-0.5551884,-5.677277E-07,NaN,-1.442549,2.445375E-05,-1.024447,1.171301E-07,NaN,NaN,0.5198452,2.09546E-10,1.35917E-06,-1.096372E-07,1.758886E-08,-2.861022E-08
902.7675,-0.1227946,4.03165E-09,NaN,-0.7606879,-1.318742E-07,NaN,-0.5646053,-5.676558E-07,NaN,-1.452078,2.445412E-05,-1.034558,1.170593E-07,NaN,NaN,0.5236757,2.09546E-10,1.335925E-06,-1.096373E-07,1.878095E-08,-2.622604E-08
902.783,-0.1212898,4.032263E-09,NaN,-0.7651803,-1.318743E-07,NaN,-0.5739517,-5.675852E-07,NaN,-1.461528,2.445449E-05,-1.044466,1.169899E-07,NaN,NaN,0.5274311,2.09546E-10,1.315063E-06,-1.096375E-07,1.81849E-08,-2.861022E-08
902.7989,-0.1212898,4.032263E-09,NaN,-0.7651803,-1.318743E-07,NaN,-0.5739517,-5.675852E-07,NaN,-1.461528,2.445449E-05,-1.044466,1.169899E-07,NaN,NaN,0.5274311,2.09546E-10,1.315063E-06,-1.096375E-07,1.81849E-08,-2.861022E-08
902.8137,-0.1197932,4.032877E-09,NaN,-0.7696484,-1.318743E-07,NaN,-0.5831925,-5.675159E-07,NaN,-1.470865,2.445485E-05,-1.05415,1.169218E-07,NaN,NaN,0.531113,2.09546E-10,1.293009E-06,-1.096376E-07,1.341653E-08,-2.622604E-08
902.8306,-0.1182708,4.033491E-09,NaN,-0.7741861,-1.318743E-07,NaN,-0.5927252,-5.674479E-07,NaN,-1.480479,2.445522E-05,-1.064214,1.168549E-07,NaN,NaN,0.5350364,2.09546E-10,1.265591E-06,-1.096378E-07,1.282049E-08,-2.861022E-08
902.8462,-0.1167406,4.034105E-09,NaN,-0.7787454,-1.318744E-07,NaN,-0.6022362,-5.673812E-07,NaN,-1.490094,2.445559E-05,-1.074214,1.167893E-07,NaN,NaN,0.5388832,2.09546E-10,1.238173E-06,-1.09638E-07,1.282049E-08,-2.622604E-08
902.8618,-0.115213,4.034718E-09,NaN,-0.7832972,-1.318744E-07,NaN,-0.6116664,-5.673157E-07,NaN,-1.49963,2.445596E-05,-1.084021,1.167249E-07,NaN,NaN,0.5426546,2.09546E-10,1.213139E-06,-1.096381E-07,1.401258E-08,-2.861022E-08
902.8779,-0.115213,4.034718E-09,NaN,-0.7832972,-1.318744E-07,NaN,-0.6116664,-5.673157E-07,NaN,-1.49963,2.445596E-05,-1.084021,1.167249E-07,NaN,NaN,0.5426546,2.09546E-10,1.213139E-06,-1.096381E-07,1.401258E-08,-2.861022E-08
902.8927,-0.1136938,4.035332E-09,NaN,-0.7878238,-1.318744E-07,NaN,-0.6209832,-5.672514E-07,NaN,-1.509052,2.445633E-05,-1.093613,1.166617E-07,NaN,NaN,0.5463522,2.048894E-10,1.187509E-06,-1.096383E-07,1.162839E-08,-2.622604E-08
902.9094,-0.1135738,4.035946E-09,NaN,-0.7884493,-1.318744E-07,NaN,-0.614064,-5.671882E-07,NaN,-1.503513,2.44567E-05,-1.081684,1.165997E-07,NaN,NaN,0.538366,2.002328E-10,1.420563E-06,-1.096384E-07,-3.868815E-09,-2.861022E-08
902.9247,-0.114267,4.03656E-09,NaN,-0.7866924,-1.318745E-07,NaN,-0.6035581,-5.671263E-07,NaN,-1.492436,2.445707E-05,-1.063216,1.165389E-07,NaN,NaN,0.5305315,2.002328E-10,1.446193E-06,-1.096386E-07,2.09165E-09,-2.622604E-08
902.9405,-0.1154407,4.037173E-09,NaN,-0.7834762,-1.318745E-07,NaN,-0.5915858,-5.670655E-07,NaN,-1.478811,2.445744E-05,-1.043051,1.164792E-07,NaN,NaN,0.5228488,2.002328E-10,1.445597E-06,-1.096387E-07,5.667928E-09,-2.861022E-08
902.9561,-0.1154407,4.037173E-09,NaN,-0.7834762,-1.318745E-07,NaN,-0.5915858,-5.670655E-07,NaN,-1.478811,2.445744E-05,-1.043051,1.164792E-07,NaN,NaN,0.5228488,2.002328E-10,1.445597E-06,-1.096387E-07,5.667928E-09,-2.861022E-08
902.9712,-0.1168856,4.037787E-09,NaN,-0.7793834,-1.318745E-07,NaN,-0.5791581,-5.670086E-07,NaN,-1.464078,2.445781E-05,-1.022447,1.164234E-07,NaN,NaN,0.5153161,1.955762E-10,1.440233E-06,-1.096389E-07,8.995569E-10,-2.622604E-08
902.9875,-0.1184389,4.038401E-09,NaN,-0.7748803,-1.318746E-07,NaN,-0.5671312,-5.669527E-07,NaN,-1.449338,2.445818E-05,-1.002445,1.163687E-07,NaN,NaN,0.5082445,1.909196E-10,1.42414E-06,-1.09639E-07,-1.484629E-09,-2.861022E-08
903.0032,-0.1200447,4.039014E-09,NaN,-0.7701481,-1.318746E-07,NaN,-0.5553612,-5.668978E-07,NaN,-1.434673,2.445856E-05,-0.982748,1.16315E-07,NaN,NaN,0.5013116,1.86263E-10,1.405066E-06,-1.096392E-07,-1.484629E-09,-2.622604E-08
903.019,-0.1200447,4.039014E-09,NaN,-0.7701481,-1.318746E-07,NaN,-0.5553612,-5.668978E-07,NaN,-1.434673,2.445856E-05,-0.982748,1.16315E-07,NaN,NaN,0.5013116,1.86263E-10,1.405066E-06,-1.096392E-07,-1.484629E-09,-2.622604E-08
903.0341,-0.1216712,4.039628E-09,NaN,-0.7652977,-1.318746E-07,NaN,-0.5438709,-5.66844E-07,NaN,-1.420161,2.445893E-05,-0.963292,1.162622E-07,NaN,NaN,0.4945146,1.816064E-10,1.385397E-06,-1.096393E-07,-6.253E-09,-2.861022E-08
903.0503,-0.1233008,4.040242E-09,NaN,-0.7603968,-1.318746E-07,NaN,-0.5326596,-5.667911E-07,NaN,-1.40584,2.44593E-05,-0.9440796,1.162105E-07,NaN,NaN,0.4878507,1.769497E-10,1.361555E-06,-1.096395E-07,-5.060907E-09,-2.622604E-08
903.0662,-0.1248866,4.040856E-09,NaN,-0.7555913,-1.318747E-07,NaN,-0.52209,-5.667392E-07,NaN,-1.392139,2.445967E-05,-0.9257966,1.161597E-07,NaN,NaN,0.4816313,1.722931E-10,1.332348E-06,-1.096396E-07,-2.676722E-09,-2.861022E-08
903.0817,-0.1264398,4.041469E-09,NaN,-0.7508645,-1.318747E-07,NaN,-0.5118678,-5.666882E-07,NaN,-1.378799,2.446005E-05,-0.9079472,1.161099E-07,NaN,NaN,0.4755339,1.676365E-10,1.307315E-06,-1.096398E-07,-2.925358E-10,-2.622604E-08
903.0978,-0.1264398,4.041469E-09,NaN,-0.7508645,-1.318747E-07,NaN,-0.5118678,-5.666882E-07,NaN,-1.378799,2.446005E-05,-0.9079472,1.161099E-07,NaN,NaN,0.4755339,1.676365E-10,1.307315E-06,-1.096398E-07,-2.925358E-10,-2.622604E-08
903.1125,-0.1279667,4.042083E-09,NaN,-0.7462062,-1.318747E-07,NaN,-0.5019367,-5.666382E-07,NaN,-1.365744,2.446041E-05,-0.8903899,1.160609E-07,NaN,NaN,0.4695562,1.676365E-10,1.282877E-06,-1.096399E-07,8.995571E-10,-2.861022E-08
903.1304,-0.1294712,4.042697E-09,NaN,-0.74161,-1.318748E-07,NaN,-0.4922611,-5.66589E-07,NaN,-1.352934,2.446079E-05,-0.8730975,1.160129E-07,NaN,NaN,0.4636956,1.629799E-10,1.258439E-06,-1.096401E-07,2.09165E-09,-2.622604E-08
903.1448,-0.1309187,4.043311E-09,NaN,-0.7371761,-1.318748E-07,NaN,-0.4831513,-5.665407E-07,NaN,-1.340769,2.446115E-05,-0.856774,1.159657E-07,NaN,NaN,0.4582635,1.629799E-10,1.22506E-06,-1.096402E-07,8.995571E-10,-2.861022E-08
903.1603,-0.1323267,4.043924E-09,NaN,-0.7328603,-1.318748E-07,NaN,-0.4743565,-5.664933E-07,NaN,-1.328955,2.446153E-05,-0.8408889,1.159194E-07,NaN,NaN,0.4529382,1.583233E-10,1.19794E-06,-1.096404E-07,-2.925358E-10,-2.622604E-08
903.176,-0.1323267,4.043924E-09,NaN,-0.7328603,-1.318748E-07,NaN,-0.4743565,-5.664933E-07,NaN,-1.328955,2.446153E-05,-0.8408889,1.159194E-07,NaN,NaN,0.4529382,1.583233E-10,1.19794E-06,-1.096404E-07,-2.925358E-10,-2.622604E-08
903.1907,-0.1337053,4.044538E-09,NaN,-0.7286353,-1.318748E-07,NaN,-0.4658217,-5.664468E-07,NaN,-1.317411,2.44619E-05,-0.8252822,1.15874E-07,NaN,NaN,0.4477173,1.583233E-10,1.170522E-06,-1.096405E-07,-1.484629E-09,-2.861022E-08
903.2072,-0.1350604,4.045152E-09,NaN,-0.724484,-1.318749E-07,NaN,-0.4575081,-5.66401E-07,NaN,-1.306094,2.446227E-05,-0.8099245,1.158294E-07,NaN,NaN,0.4425988,1.536667E-10,1.141018E-06,-1.096407E-07,2.09165E-09,-2.622604E-08
903.2228,-0.1363589,4.045766E-09,NaN,-0.7205006,-1.318749E-07,NaN,-0.4496879,-5.663589E-07,NaN,-1.295407,2.446264E-05,-0.7955409,1.157885E-07,NaN,NaN,0.4378943,1.536667E-10,1.107639E-06,-1.096408E-07,4.475836E-09,-2.861022E-08
903.2388,-0.1363589,4.045766E-09,NaN,-0.7205006,-1.318749E-07,NaN,-0.4496879,-5.663589E-07,NaN,-1.295407,2.446264E-05,-0.7955409,1.157885E-07,NaN,NaN,0.4378943,1.536667E-10,1.107639E-06,-1.096408E-07,4.475836E-09,-2.861022E-08
903.2536,-0.1376185,4.046379E-09,NaN,-0.7166368,-1.318749E-07,NaN,-0.4421542,-5.663176E-07,NaN,-1.285044,2.446301E-05,-0.7815874,1.157482E-07,NaN,NaN,0.4332823,1.490101E-10,1.081711E-06,-1.09641E-07,3.035106E-10,-2.622604E-08
903.2703,-0.1388496,4.046993E-09,NaN,-0.7128628,-1.31875E-07,NaN,-0.4348555,-5.66277E-07,NaN,-1.274926,2.446338E-05,-0.7678899,1.157088E-07,NaN,NaN,0.4287607,1.443535E-10,1.054591E-06,-1.096411E-07,-1.484629E-09,-2.861022E-08
903.2859,-0.1400584,4.047607E-09,NaN,-0.7091604,-1.31875E-07,NaN,-0.4277497,-5.662371E-07,NaN,-1.265013,2.446375E-05,-0.7544174,1.1567E-07,NaN,NaN,0.4243277,1.396969E-10,1.025385E-06,-1.096413E-07,-2.080675E-09,-2.622604E-08
903.3025,-0.141212,4.04822E-09,NaN,-0.7056225,-1.31875E-07,NaN,-0.4210734,-5.661979E-07,NaN,-1.255714,2.446413E-05,-0.7419092,1.156319E-07,NaN,NaN,0.4202954,1.350403E-10,9.931982E-07,-1.096414E-07,-2.925359E-10,-2.861022E-08
903.3171,-0.141212,4.04822E-09,NaN,-0.7056225,-1.31875E-07,NaN,-0.4210734,-5.661979E-07,NaN,-1.255714,2.446413E-05,-0.7419092,1.156319E-07,NaN,NaN,0.4202954,1.350403E-10,9.931982E-07,-1.096414E-07,-2.925359E-10,-2.861022E-08
903.3321,-0.1423281,4.048834E-09,NaN,-0.7022004,-1.31875E-07,NaN,-0.4146591,-5.661594E-07,NaN,-1.246711,2.446449E-05,-0.7298182,1.155945E-07,NaN,NaN,0.4163423,1.350403E-10,9.669722E-07,-1.096416E-07,8.99557E-10,-2.622604E-08
903.3485,-0.143417,4.049448E-09,NaN,-0.6988642,-1.318751E-07,NaN,-0.408459,-5.661215E-07,NaN,-1.23793,2.446487E-05,-0.7179577,1.155578E-07,NaN,NaN,0.4124668,1.303837E-10,9.422362E-07,-1.096417E-07,-1.484629E-09,-2.861022E-08
903.3642,-0.1444849,4.050062E-09,NaN,-0.6955951,-1.318751E-07,NaN,-0.4024282,-5.660843E-07,NaN,-1.229332,2.446523E-05,-0.7062948,1.155218E-07,NaN,NaN,0.4086672,1.303837E-10,9.183944E-07,-1.096418E-07,2.09165E-09,-2.622604E-08
903.3804,-0.1454992,4.050675E-09,NaN,-0.6924861,-1.318751E-07,NaN,-0.3967712,-5.660478E-07,NaN,-1.221331,2.446561E-05,-0.6955773,1.154864E-07,NaN,NaN,0.4052559,1.257271E-10,8.87102E-07,-1.09642E-07,-8.885821E-10,-2.861022E-08
903.3954,-0.1454992,4.050675E-09,NaN,-0.6924861,-1.318751E-07,NaN,-0.3967712,-5.660478E-07,NaN,-1.221331,2.446561E-05,-0.6955773,1.154864E-07,NaN,NaN,0.4052559,1.257271E-10,8.87102E-07,-1.09642E-07,-8.885821E-10,-2.861022E-08
903.4106,-0.1464774,4.051289E-09,NaN,-0.6894886,-1.318752E-07,NaN,-0.3913545,-5.660119E-07,NaN,-1.213602,2.446598E-05,-0.6852609,1.154516E-07,NaN,NaN,0.4019117,1.257271E-10,8.653463E-07,-1.096421E-07,4.475836E-09,-2.622604E-08
903.4268,-0.1474297,4.051903E-09,NaN,-0.6865725,-1.318752E-07,NaN,-0.3861344,-5.659766E-07,NaN,-1.206073,2.446635E-05,-0.6751485,1.154175E-07,NaN,NaN,0.3986331,1.210704E-10,8.456768E-07,-1.096423E-07,4.475836E-09,-2.861022E-08
903.4426,-0.1483622,4.052516E-09,NaN,-0.6837191,-1.318752E-07,NaN,-0.3810638,-5.663574E-07,NaN,-1.198704,2.446672E-05,-0.6652048,1.157994E-07,NaN,NaN,0.3954187,1.210704E-10,8.239211E-07,-1.096424E-07,8.648161E-09,-2.622604E-08
903.4579,-0.1483622,4.052516E-09,NaN,-0.6837191,-1.318752E-07,NaN,-0.3810638,-5.663574E-07,NaN,-1.198704,2.446672E-05,-0.6652048,1.157994E-07,NaN,NaN,0.3954187,1.210704E-10,8.239211E-07,-1.096424E-07,8.648161E-09,-2.622604E-08
903.4731,-0.1492428,4.053129E-09,NaN,-0.6810213,-1.318753E-07,NaN,-0.3763189,-5.667307E-07,NaN,-1.191919,2.446708E-05,-0.6561828,1.161738E-07,NaN,NaN,0.3925811,1.210704E-10,7.96801E-07,-1.096425E-07,1.073432E-08,-2.861022E-08
903.4891,-0.1500885,4.053743E-09,NaN,-0.6784305,-1.318753E-07,NaN,-0.3717954,-5.670966E-07,NaN,-1.185382,2.446745E-05,-0.6475433,1.165409E-07,NaN,NaN,0.3897994,1.257271E-10,7.792176E-07,-1.096427E-07,6.263976E-09,-2.622604E-08
903.5052,-0.1509097,4.054356E-09,NaN,-0.6759168,-1.318754E-07,NaN,-0.3674535,-5.674553E-07,NaN,-1.179024,2.446781E-05,-0.6390812,1.169007E-07,NaN,NaN,0.3870723,1.257271E-10,7.619323E-07,-1.096428E-07,4.475836E-09,-2.861022E-08
903.5206,-0.1517124,4.054969E-09,NaN,-0.6734614,-1.318754E-07,NaN,-0.3632445,-5.678069E-07,NaN,-1.172807,2.446818E-05,-0.6307588,1.172534E-07,NaN,NaN,0.3843986,1.303837E-10,7.436038E-07,-1.09643E-07,2.687697E-09,-2.622604E-08
903.5364,-0.1517124,4.054969E-09,NaN,-0.6734614,-1.318754E-07,NaN,-0.3632445,-5.678069E-07,NaN,-1.172807,2.446818E-05,-0.6307588,1.172534E-07,NaN,NaN,0.3843986,1.303837E-10,7.436038E-07,-1.09643E-07,2.687697E-09,-2.622604E-08
903.5512,-0.1524646,4.055583E-09,NaN,-0.6711572,-1.318754E-07,NaN,-0.3593205,-5.681515E-07,NaN,-1.167158,2.446855E-05,-0.6233316,1.175992E-07,NaN,NaN,0.3820911,1.303837E-10,7.181229E-07,-1.096431E-07,6.263975E-09,-2.861022E-08
903.5677,-0.1531833,4.056196E-09,NaN,-0.6689559,-1.318755E-07,NaN,-0.3556011,-5.684893E-07,NaN,-1.161737,2.446891E-05,-0.616267,1.179381E-07,NaN,NaN,0.3798291,1.303837E-10,7.025512E-07,-1.096433E-07,1.162839E-08,-2.622604E-08
903.5832,-0.1538786,4.056809E-09,NaN,-0.6668273,-1.318755E-07,NaN,-0.3520508,-5.688205E-07,NaN,-1.156475,2.446928E-05,-0.6093537,1.182704E-07,NaN,NaN,0.3776115,1.303837E-10,6.861599E-07,-1.096434E-07,1.43106E-08,-2.861022E-08
903.5989,-0.1538786,4.056809E-09,NaN,-0.6668273,-1.318755E-07,NaN,-0.3520508,-5.688205E-07,NaN,-1.156475,2.446928E-05,-0.6093537,1.182704E-07,NaN,NaN,0.3776115,1.303837E-10,6.861599E-07,-1.096434E-07,1.43106E-08,-2.861022E-08
903.6141,-0.1545211,4.057422E-09,NaN,-0.6648573,-1.318756E-07,NaN,-0.3487878,-5.691451E-07,NaN,-1.151785,2.446965E-05,-0.6033081,1.185961E-07,NaN,NaN,0.3757512,1.303837E-10,6.637337E-07,-1.096435E-07,1.311851E-08,-2.622604E-08
903.632,-0.1551291,4.058035E-09,NaN,-0.6629933,-1.318747E-07,NaN,-0.3457324,-5.669222E-07,NaN,-1.147315,2.447001E-05,-0.597598,1.163652E-07,NaN,NaN,0.3739276,1.350403E-10,6.513657E-07,-1.096446E-07,1.371456E-08,-2.861022E-08
903.6462,-0.1557135,4.058648E-09,NaN,-0.6612027,-1.318736E-07,NaN,-0.3428426,-5.646992E-07,NaN,-1.142993,2.447038E-05,-0.5920107,1.141315E-07,NaN,NaN,0.3721398,1.303837E-10,6.412329E-07,-1.096456E-07,1.267147E-08,-2.622604E-08
903.6616,-0.1562811,4.05926E-09,NaN,-0.6594651,-1.318725E-07,NaN,-0.3400637,-5.624763E-07,NaN,-1.138781,2.447076E-05,-0.5865076,1.118995E-07,NaN,NaN,0.3703871,1.210704E-10,6.30355E-07,-1.096467E-07,1.192642E-08,-2.861022E-08
903.6772,-0.1562811,4.05926E-09,NaN,-0.6594651,-1.318725E-07,NaN,-0.3400637,-5.624763E-07,NaN,-1.138781,2.447076E-05,-0.5865076,1.118995E-07,NaN,NaN,0.3703871,1.210704E-10,6.30355E-07,-1.096467E-07,1.192642E-08,-2.861022E-08
903.6924,-0.1568004,4.059872E-09,NaN,-0.6578723,-1.318714E-07,NaN,-0.3375133,-5.602534E-07,NaN,-1.135111,2.447113E-05,-0.5818463,1.096728E-07,NaN,NaN,0.3689825,1.210704E-10,6.135912E-07,-1.096478E-07,1.058531E-08,-2.622604E-08
903.7086,-0.1572883,4.060485E-09,NaN,-0.6563754,-1.318703E-07,NaN,-0.3351426,-5.580305E-07,NaN,-1.131633,2.44715E-05,-0.5775062,1.074536E-07,NaN,NaN,0.3676057,1.117572E-10,6.046878E-07,-1.09649E-07,1.29695E-08,-2.861022E-08
903.724,-0.1577551,4.061097E-09,NaN,-0.6549442,-1.318693E-07,NaN,-0.332921,-5.558076E-07,NaN,-1.128281,2.447187E-05,-0.5732692,1.052438E-07,NaN,NaN,0.3662559,1.164138E-10,5.967529E-07,-1.096501E-07,1.580072E-08,-2.622604E-08
903.74,-0.1582069,4.06171E-09,NaN,-0.6535598,-1.318682E-07,NaN,-0.3307972,-5.535846E-07,NaN,-1.125021,2.447224E-05,-0.5690931,1.030447E-07,NaN,NaN,0.3649327,1.210704E-10,5.877377E-07,-1.096513E-07,1.624775E-08,-2.861022E-08
903.7555,-0.1582069,4.06171E-09,NaN,-0.6535598,-1.318682E-07,NaN,-0.3307972,-5.535846E-07,NaN,-1.125021,2.447224E-05,-0.5690931,1.030447E-07,NaN,NaN,0.3649327,1.210704E-10,5.877377E-07,-1.096513E-07,1.624775E-08,-2.861022E-08
903.7706,-0.1586121,4.062322E-09,NaN,-0.6523147,-1.318672E-07,NaN,-0.3288779,-5.513617E-07,NaN,-1.122287,2.447261E-05,-0.5657338,1.008572E-07,NaN,NaN,0.3639491,1.210704E-10,5.712906E-07,-1.096524E-07,1.81849E-08,-2.622604E-08
903.7867,-0.1589873,4.062934E-09,NaN,-0.6511609,-1.318663E-07,NaN,-0.3271273,-5.491388E-07,NaN,-1.119728,2.447298E-05,-0.5626751,9.868182E-08,NaN,NaN,0.3629851,1.210704E-10,5.650321E-07,-1.096536E-07,1.714182E-08,-2.861022E-08
903.8023,-0.1593426,4.063547E-09,NaN,-0.6500683,-1.318653E-07,NaN,-0.3255179,-5.469159E-07,NaN,-1.117279,2.447335E-05,-0.5596964,9.651914E-08,NaN,NaN,0.36204,1.210704E-10,5.578982E-07,-1.096549E-07,1.460862E-08,-2.622604E-08
903.8181,-0.1593426,4.063547E-09,NaN,-0.6500683,-1.318653E-07,NaN,-0.3255179,-5.469159E-07,NaN,-1.117279,2.447335E-05,-0.5596964,9.651914E-08,NaN,NaN,0.36204,1.210704E-10,5.578982E-07,-1.096549E-07,1.460862E-08,-2.622604E-08
903.8333,-0.1596843,4.064159E-09,NaN,-0.6490184,-1.318645E-07,NaN,-0.3239977,-5.44693E-07,NaN,-1.114906,2.447373E-05,-0.5567543,9.436942E-08,NaN,NaN,0.3611135,1.210704E-10,5.507643E-07,-1.096561E-07,1.669479E-08,-2.861022E-08
903.8497,-0.1599806,4.064772E-09,NaN,-0.6481038,-1.318636E-07,NaN,-0.322664,-5.4247E-07,NaN,-1.113047,2.447409E-05,-0.5546039,9.223287E-08,NaN,NaN,0.3605189,1.25727E-10,5.38564E-07,-1.096574E-07,1.323027E-08,-2.622604E-08
903.8651,-0.1602481,4.065385E-09,NaN,-0.6472767,-1.318635E-07,NaN,-0.3214903,-5.432175E-07,NaN,-1.111347,2.447448E-05,-0.5527335,9.304966E-08,NaN,NaN,0.3599363,1.210704E-10,5.368597E-07,-1.096577E-07,1.114411E-08,-2.622604E-08
903.8809,-0.1604969,4.066E-09,NaN,-0.646507,-1.318636E-07,NaN,-0.3204508,-5.44002E-07,NaN,-1.109741,2.447486E-05,-0.5509207,9.388992E-08,NaN,NaN,0.3593652,1.210704E-10,5.340564E-07,-1.096579E-07,1.092059E-08,-2.622604E-08
903.897,-0.1604969,4.066E-09,NaN,-0.646507,-1.318636E-07,NaN,-0.3204508,-5.44002E-07,NaN,-1.109741,2.447486E-05,-0.5509207,9.388992E-08,NaN,NaN,0.3593652,1.210704E-10,5.340564E-07,-1.096579E-07,1.092059E-08,-2.622604E-08
903.9114,-0.1607332,4.066614E-09,NaN,-0.6457762,-1.318636E-07,NaN,-0.3194934,-5.447838E-07,NaN,-1.108198,2.447524E-05,-0.5491216,9.471648E-08,NaN,NaN,0.3588052,1.210704E-10,5.315139E-07,-1.096581E-07,1.101372E-08,-2.622604E-08
903.928,-0.1609253,4.067227E-09,NaN,-0.6451771,-1.318628E-07,NaN,-0.3187086,-5.428944E-07,NaN,-1.107156,2.447564E-05,-0.5480906,9.286274E-08,NaN,NaN,0.35857,1.071006E-10,5.207943E-07,-1.096591E-07,1.164702E-08,-2.861022E-08
903.9435,-0.1610897,4.067841E-09,NaN,-0.6446619,-1.318627E-07,NaN,-0.3180767,-5.43701E-07,NaN,-1.106258,2.447602E-05,-0.5473192,9.369816E-08,NaN,NaN,0.3583398,1.117572E-10,5.221448E-07,-1.096593E-07,1.554461E-08,-2.861022E-08
903.959,-0.1610897,4.067841E-09,NaN,-0.6446619,-1.318627E-07,NaN,-0.3180767,-5.43701E-07,NaN,-1.106258,2.447602E-05,-0.5473192,9.369816E-08,NaN,NaN,0.3583398,1.117572E-10,5.221448E-07,-1.096593E-07,1.554461E-08,-2.861022E-08
903.9744,-0.1612364,4.068455E-09,NaN,-0.6442006,-1.318627E-07,NaN,-0.3175728,-5.445222E-07,NaN,-1.105441,2.44764E-05,-0.5465843,9.454256E-08,NaN,NaN,0.358114,1.071006E-10,5.221634E-07,-1.096595E-07,1.538628E-08,-2.861022E-08
903.9904,-0.1613717,4.06907E-09,NaN,-0.6437747,-1.318627E-07,NaN,-0.3171445,-5.453283E-07,NaN,-1.104673,2.447679E-05,-0.5458418,9.536755E-08,NaN,NaN,0.3578928,1.071006E-10,5.220423E-07,-1.096596E-07,1.367265E-08,-2.861022E-08
904.0065,-0.1614639,4.069683E-09,NaN,-0.643477,-1.318619E-07,NaN,-0.3168792,-5.434612E-07,NaN,-1.104393,2.447717E-05,-0.5458452,9.351409E-08,NaN,NaN,0.3579895,1.071006E-10,5.149177E-07,-1.096606E-07,1.346776E-08,-2.622604E-08
904.0219,-0.1615295,4.070297E-09,NaN,-0.6432596,-1.318618E-07,NaN,-0.3167605,-5.442781E-07,NaN,-1.104245,2.447755E-05,-0.5460884,9.434224E-08,NaN,NaN,0.3580848,1.02444E-10,5.179445E-07,-1.096608E-07,1.384028E-08,-2.622604E-08
904.0378,-0.1615295,4.070297E-09,NaN,-0.6432596,-1.318618E-07,NaN,-0.3167605,-5.442781E-07,NaN,-1.104245,2.447755E-05,-0.5460884,9.434224E-08,NaN,NaN,0.3580848,1.02444E-10,5.179445E-07,-1.096608E-07,1.384028E-08,-2.622604E-08
904.0526,-0.1615784,4.070912E-09,NaN,-0.6430929,-1.318618E-07,NaN,-0.3167644,-5.451034E-07,NaN,-1.104165,2.447793E-05,-0.5463481,9.51767E-08,NaN,NaN,0.3581782,1.02444E-10,5.206826E-07,-1.09661E-07,1.069241E-08,-2.622604E-08
904.0688,-0.1616169,4.071526E-09,NaN,-0.6429581,-1.318609E-07,NaN,-0.3168378,-5.432561E-07,NaN,-1.104121,2.447833E-05,-0.5465801,9.333461E-08,NaN,NaN,0.3582698,9.313075E-11,5.217443E-07,-1.09662E-07,1.177275E-08,-2.861022E-08
904.0847,-0.1616142,4.07214E-09,NaN,-0.6429482,-1.318608E-07,NaN,-0.3170678,-5.440889E-07,NaN,-1.104552,2.44787E-05,-0.5475377,9.417183E-08,NaN,NaN,0.3586733,1.02444E-10,5.154859E-07,-1.096622E-07,1.344913E-08,-2.861022E-08
904.1005,-0.1615862,4.072755E-09,NaN,-0.6430147,-1.318608E-07,NaN,-0.3174392,-5.449285E-07,NaN,-1.105103,2.447908E-05,-0.5487154,9.501517E-08,NaN,NaN,0.3590693,1.02444E-10,5.217443E-07,-1.096623E-07,1.531177E-08,-2.861022E-08
904.1161,-0.1615862,4.072755E-09,NaN,-0.6430147,-1.318608E-07,NaN,-0.3174392,-5.449285E-07,NaN,-1.105103,2.447908E-05,-0.5487154,9.501517E-08,NaN,NaN,0.3590693,1.02444E-10,5.217443E-07,-1.096623E-07,1.531177E-08,-2.861022E-08
904.1312,-0.1615428,4.073369E-09,NaN,-0.6431282,-1.3186E-07,NaN,-0.3179277,-5.430934E-07,NaN,-1.10571,2.447946E-05,-0.5498908,9.318057E-08,NaN,NaN,0.3594575,1.071006E-10,5.247618E-07,-1.096633E-07,1.676464E-08,-2.622604E-08
904.149,-0.1614902,4.073983E-09,NaN,-0.6432701,-1.318598E-07,NaN,-0.3184803,-5.439358E-07,NaN,-1.106342,2.447983E-05,-0.5510199,9.402353E-08,NaN,NaN,0.3598381,1.164138E-10,5.299213E-07,-1.096635E-07,1.844102E-08,-2.622604E-08
904.1634,-0.1613967,4.074598E-09,NaN,-0.6435335,-1.318598E-07,NaN,-0.3191864,-5.447812E-07,NaN,-1.107438,2.448021E-05,-0.5528557,9.486968E-08,NaN,NaN,0.360525,1.164138E-10,5.26196E-07,-1.096636E-07,2.194279E-08,-2.622604E-08
904.1788,-0.1613967,4.074598E-09,NaN,-0.6435335,-1.318598E-07,NaN,-0.3191864,-5.447812E-07,NaN,-1.107438,2.448021E-05,-0.5528557,9.486968E-08,NaN,NaN,0.360525,1.164138E-10,5.26196E-07,-1.096636E-07,2.194279E-08,-2.622604E-08
904.1939,-0.1612787,4.075212E-09,NaN,-0.6438707,-1.31859E-07,NaN,-0.3200293,-5.429536E-07,NaN,-1.108642,2.44806E-05,-0.5548933,9.303989E-08,NaN,NaN,0.3611988,1.117572E-10,5.335907E-07,-1.096646E-07,1.940959E-08,-2.861022E-08
904.2103,-0.1611461,4.075826E-09,NaN,-0.6442519,-1.318589E-07,NaN,-0.3209842,-5.438035E-07,NaN,-1.109891,2.448097E-05,-0.5569105,9.388833E-08,NaN,NaN,0.3618594,1.210704E-10,5.414138E-07,-1.096648E-07,2.175653E-08,-2.861022E-08
904.2259,-0.1610053,4.076441E-09,NaN,-0.6446584,-1.318589E-07,NaN,-0.3219976,-5.44656E-07,NaN,-1.111154,2.448135E-05,-0.5588641,9.473985E-08,NaN,NaN,0.3625071,1.210704E-10,5.480449E-07,-1.096649E-07,2.488577E-08,-2.861022E-08
904.242,-0.1608247,4.077056E-09,NaN,-0.6451834,-1.318589E-07,NaN,-0.3231639,-5.454856E-07,NaN,-1.112869,2.448173E-05,-0.5615069,9.5569E-08,NaN,NaN,0.3634558,1.25727E-10,5.459587E-07,-1.09665E-07,2.39917E-08,-2.861022E-08
904.2576,-0.1608247,4.077056E-09,NaN,-0.6451834,-1.318589E-07,NaN,-0.3231639,-5.454856E-07,NaN,-1.112869,2.448173E-05,-0.5615069,9.5569E-08,NaN,NaN,0.3634558,1.25727E-10,5.459587E-07,-1.09665E-07,2.39917E-08,-2.861022E-08
904.2727,-0.1606205,4.077671E-09,NaN,-0.645779,-1.318581E-07,NaN,-0.3244627,-5.436415E-07,NaN,-1.114682,2.448211E-05,-0.5643333,9.3722E-08,NaN,NaN,0.3643862,1.303836E-10,5.541916E-07,-1.09666E-07,2.389857E-08,-2.622604E-08
904.2889,-0.160403,4.078285E-09,NaN,-0.6464154,-1.31858E-07,NaN,-0.325868,-5.444785E-07,NaN,-1.11653,2.448249E-05,-0.5671223,9.455702E-08,NaN,NaN,0.3652984,1.303836E-10,5.633931E-07,-1.096662E-07,2.212906E-08,-2.622604E-08
904.3047,-0.1601782,4.0789E-09,NaN,-0.6470742,-1.318582E-07,NaN,-0.3273264,-5.451856E-07,NaN,-1.118381,2.448287E-05,-0.5698319,9.526274E-08,NaN,NaN,0.3661928,1.303836E-10,5.677889E-07,-1.096659E-07,2.292999E-08,-2.622604E-08
904.3203,-0.1599146,4.079515E-09,NaN,-0.6478482,-1.318571E-07,NaN,-0.3289391,-5.440664E-07,NaN,-1.120674,2.448325E-05,-0.5732144,9.407684E-08,NaN,NaN,0.3673833,1.350403E-10,5.674164E-07,-1.096665E-07,1.857606E-08,-2.861022E-08
904.3361,-0.1599146,4.079515E-09,NaN,-0.6478482,-1.318571E-07,NaN,-0.3289391,-5.440664E-07,NaN,-1.120674,2.448325E-05,-0.5732144,9.407684E-08,NaN,NaN,0.3673833,1.350403E-10,5.674164E-07,-1.096665E-07,1.857606E-08,-2.861022E-08
904.3509,-0.1596286,4.08013E-09,NaN,-0.6486899,-1.31857E-07,NaN,-0.3306802,-5.448967E-07,NaN,-1.123055,2.448363E-05,-0.576763,9.4854E-08,NaN,NaN,0.3685508,1.303836E-10,5.777727E-07,-1.096661E-07,2.105804E-08,-2.861022E-08
904.3676,-0.1593301,4.080744E-09,NaN,-0.6495693,-1.318557E-07,NaN,-0.3325223,-5.439022E-07,NaN,-1.125461,2.448401E-05,-0.5802583,9.374481E-08,NaN,NaN,0.3696955,1.303836E-10,5.852978E-07,-1.096666E-07,1.907781E-08,-2.622604E-08
904.3831,-0.1590255,4.081359E-09,NaN,-0.6504682,-1.318555E-07,NaN,-0.3344117,-5.448168E-07,NaN,-1.127862,2.448439E-05,-0.5836592,9.456792E-08,NaN,NaN,0.3708178,1.303836E-10,5.934189E-07,-1.096661E-07,1.837001E-08,-2.622604E-08
904.399,-0.1590255,4.081359E-09,NaN,-0.6504682,-1.318555E-07,NaN,-0.3344117,-5.448168E-07,NaN,-1.127862,2.448439E-05,-0.5836592,9.456792E-08,NaN,NaN,0.3708178,1.303836E-10,5.934189E-07,-1.096661E-07,1.837001E-08,-2.622604E-08
904.4139,-0.1586831,4.081973E-09,NaN,-0.6514794,-1.318542E-07,NaN,-0.3364588,-5.439036E-07,NaN,-1.130693,2.448477E-05,-0.5877183,9.350546E-08,NaN,NaN,0.3722317,1.303836E-10,5.940149E-07,-1.096665E-07,2.084732E-08,-2.861022E-08
904.4302,-0.1583192,4.082588E-09,NaN,-0.6525553,-1.31854E-07,NaN,-0.3386303,-5.448675E-07,NaN,-1.133604,2.448515E-05,-0.5919264,9.435013E-08,NaN,NaN,0.3736183,1.303836E-10,6.057869E-07,-1.09666E-07,2.196491E-08,-2.861022E-08
904.4462,-0.1579439,4.083202E-09,NaN,-0.6536661,-1.318526E-07,NaN,-0.3408968,-5.44003E-07,NaN,-1.136531,2.448553E-05,-0.5960661,9.331211E-08,NaN,NaN,0.3749777,1.350403E-10,6.165902E-07,-1.096664E-07,1.753182E-08,-2.622604E-08
904.4619,-0.1575633,4.083817E-09,NaN,-0.6547934,-1.318523E-07,NaN,-0.3432045,-5.449955E-07,NaN,-1.139444,2.448591E-05,-0.600098,9.416614E-08,NaN,NaN,0.3763105,1.350403E-10,6.260524E-07,-1.096659E-07,1.484961E-08,-2.622604E-08
904.4778,-0.1575633,4.083817E-09,NaN,-0.6547934,-1.318523E-07,NaN,-0.3432045,-5.449955E-07,NaN,-1.139444,2.448591E-05,-0.600098,9.416614E-08,NaN,NaN,0.3763105,1.350403E-10,6.260524E-07,-1.096659E-07,1.484961E-08,-2.622604E-08
904.4927,-0.1571458,4.084432E-09,NaN,-0.6560304,-1.318509E-07,NaN,-0.3456749,-5.441615E-07,NaN,-1.142778,2.448629E-05,-0.6047743,9.314221E-08,NaN,NaN,0.3779308,1.350403E-10,6.270209E-07,-1.096663E-07,1.388103E-08,-2.861022E-08
904.5094,-0.1567078,4.085047E-09,NaN,-0.6573293,-1.318507E-07,NaN,-0.3482655,-5.451734E-07,NaN,-1.146183,2.448667E-05,-0.6095829,9.400234E-08,NaN,NaN,0.3795198,1.350403E-10,6.387929E-07,-1.096657E-07,1.388103E-08,-2.861022E-08
904.5249,-0.1562593,4.085662E-09,NaN,-0.6586603,-1.318493E-07,NaN,-0.3509445,-5.443586E-07,NaN,-1.149596,2.448705E-05,-0.6143091,9.298658E-08,NaN,NaN,0.3810776,1.350403E-10,6.504158E-07,-1.096661E-07,1.388103E-08,-2.622604E-08
904.5407,-0.1558066,4.086278E-09,NaN,-0.6600052,-1.31849E-07,NaN,-0.3536585,-5.45385E-07,NaN,-1.152987,2.448742E-05,-0.618915,9.385251E-08,NaN,NaN,0.3826048,1.396969E-10,6.599525E-07,-1.096656E-07,9.48519E-09,-2.622604E-08
904.5563,-0.1558066,4.086278E-09,NaN,-0.6600052,-1.31849E-07,NaN,-0.3536585,-5.45385E-07,NaN,-1.152987,2.448742E-05,-0.618915,9.385251E-08,NaN,NaN,0.3826048,1.396969E-10,6.599525E-07,-1.096656E-07,9.48519E-09,-2.622604E-08
904.5715,-0.1553176,4.086892E-09,NaN,-0.661457,-1.318485E-07,NaN,-0.3565414,-5.470953E-07,NaN,-1.156789,2.44878E-05,-0.6241525,9.543471E-08,NaN,NaN,0.3844159,1.350403E-10,6.612936E-07,-1.096628E-07,1.142234E-08,-2.861022E-08
904.5876,-0.154809,4.087505E-09,NaN,-0.6629681,-1.318473E-07,NaN,-0.3595402,-5.490472E-07,NaN,-1.160655,2.448817E-05,-0.6295061,9.728424E-08,NaN,NaN,0.3861918,1.25727E-10,6.724695E-07,-1.096595E-07,9.261672E-09,-2.622604E-08
904.6033,-0.1542908,4.088118E-09,NaN,-0.6645088,-1.318456E-07,NaN,-0.3626203,-5.511672E-07,NaN,-1.164523,2.448854E-05,-0.6347641,9.93227E-08,NaN,NaN,0.3879328,1.164138E-10,6.811122E-07,-1.096558E-07,9.261672E-09,-2.861022E-08
904.6191,-0.1542908,4.088118E-09,NaN,-0.6645088,-1.318456E-07,NaN,-0.3626203,-5.511672E-07,NaN,-1.164523,2.448854E-05,-0.6347641,9.93227E-08,NaN,NaN,0.3879328,1.164138E-10,6.811122E-07,-1.096558E-07,9.261672E-09,-2.861022E-08
904.6343,-0.1537336,4.088732E-09,NaN,-0.6661653,-1.318437E-07,NaN,-0.3659079,-5.533236E-07,NaN,-1.168807,2.44889E-05,-0.6406362,1.014141E-07,NaN,NaN,0.3899535,1.117572E-10,6.857315E-07,-1.09652E-07,4.344289E-09,-2.622604E-08
904.6505,-0.1531552,4.089345E-09,NaN,-0.6678854,-1.318417E-07,NaN,-0.3693244,-5.554764E-07,NaN,-1.173157,2.448925E-05,-0.6465991,1.03515E-07,NaN,NaN,0.3919349,1.071006E-10,6.986955E-07,-1.096481E-07,6.728475E-09,-2.861022E-08
904.6675,-0.1525668,4.089958E-09,NaN,-0.6696369,-1.318396E-07,NaN,-0.3728234,-5.576027E-07,NaN,-1.177505,2.448961E-05,-0.6524466,1.056001E-07,NaN,NaN,0.3938774,9.778735E-11,7.091264E-07,-1.096441E-07,4.046266E-09,-2.622604E-08
904.6818,-0.151975,4.090571E-09,NaN,-0.6713998,-1.318374E-07,NaN,-0.3763471,-5.596937E-07,NaN,-1.181818,2.448995E-05,-0.6581471,1.076584E-07,NaN,NaN,0.3957819,8.847412E-11,7.203022E-07,-1.096401E-07,2.705162E-09,-2.861022E-08
904.6976,-0.151975,4.090571E-09,NaN,-0.6713998,-1.318374E-07,NaN,-0.3763471,-5.596937E-07,NaN,-1.181818,2.448995E-05,-0.6581471,1.076584E-07,NaN,NaN,0.3957819,8.847412E-11,7.203022E-07,-1.096401E-07,2.705162E-09,-2.861022E-08
904.7126,-0.151348,4.091183E-09,NaN,-0.6732662,-1.318352E-07,NaN,-0.3800546,-5.617431E-07,NaN,-1.186524,2.449029E-05,-0.6644524,1.096819E-07,NaN,NaN,0.3979627,8.381751E-11,7.208983E-07,-1.096362E-07,4.493301E-09,-2.622604E-08
904.7288,-0.1507028,4.091796E-09,NaN,-0.6751879,-1.31833E-07,NaN,-0.3838686,-5.637474E-07,NaN,-1.191281,2.449063E-05,-0.6708406,1.116656E-07,NaN,NaN,0.4001011,7.916089E-11,7.30882E-07,-1.096322E-07,4.195278E-09,-2.861022E-08
904.7447,-0.1500494,4.092408E-09,NaN,-0.6771348,-1.318308E-07,NaN,-0.387749,-5.657084E-07,NaN,-1.196026,2.449096E-05,-0.6771075,1.136105E-07,NaN,NaN,0.4021976,7.450428E-11,7.42952E-07,-1.096282E-07,5.536382E-09,-2.622604E-08
904.7603,-0.1493942,4.09302E-09,NaN,-0.6790884,-1.318285E-07,NaN,-0.3916434,-5.676222E-07,NaN,-1.200729,2.44913E-05,-0.6832212,1.155116E-07,NaN,NaN,0.404253,6.519105E-11,7.526378E-07,-1.096242E-07,5.685394E-09,-2.861022E-08
904.776,-0.1493942,4.09302E-09,NaN,-0.6790884,-1.318285E-07,NaN,-0.3916434,-5.676222E-07,NaN,-1.200729,2.44913E-05,-0.6832212,1.155116E-07,NaN,NaN,0.404253,6.519105E-11,7.526378E-07,-1.096242E-07,5.685394E-09,-2.861022E-08
904.7906,-0.1487049,4.093632E-09,NaN,-0.6811419,-1.318263E-07,NaN,-0.3957299,-5.69493E-07,NaN,-1.205813,2.449165E-05,-0.6899303,1.173725E-07,NaN,NaN,0.4065818,5.587783E-11,7.547239E-07,-1.096203E-07,2.705162E-09,-2.622604E-08
904.807,-0.1479983,4.094244E-09,NaN,-0.6832473,-1.318241E-07,NaN,-0.3999168,-5.713195E-07,NaN,-1.210943,2.4492E-05,-0.6967078,1.191913E-07,NaN,NaN,0.4088652,4.656461E-11,7.669429E-07,-1.096163E-07,3.301208E-09,-2.861022E-08
904.8225,-0.1472846,4.094855E-09,NaN,-0.6853752,-1.318219E-07,NaN,-0.4041611,-5.731029E-07,NaN,-1.216056,2.449235E-05,-0.7033542,1.209688E-07,NaN,NaN,0.411104,3.725138E-11,7.775227E-07,-1.096124E-07,3.209761E-10,-2.622604E-08
904.8385,-0.1472846,4.094855E-09,NaN,-0.6853752,-1.318219E-07,NaN,-0.4041611,-5.731029E-07,NaN,-1.216056,2.449235E-05,-0.7033542,1.209688E-07,NaN,NaN,0.411104,3.725138E-11,7.775227E-07,-1.096124E-07,3.209761E-10,-2.622604E-08
904.8532,-0.1465698,4.095467E-09,NaN,-0.6875073,-1.318197E-07,NaN,-0.4084112,-5.748443E-07,NaN,-1.22112,2.44927E-05,-0.7098397,1.227058E-07,NaN,NaN,0.4132988,2.793816E-11,7.846753E-07,-1.096085E-07,-3.255302E-09,-2.861022E-08
904.8698,-0.1458215,4.096078E-09,NaN,-0.689737,-1.318175E-07,NaN,-0.4128639,-5.765449E-07,NaN,-1.226558,2.449305E-05,-0.7169101,1.24403E-07,NaN,NaN,0.4157643,1.396832E-11,7.879535E-07,-1.096045E-07,-5.639488E-09,-2.622604E-08
904.8854,-0.1450568,4.096689E-09,NaN,-0.6920163,-1.318153E-07,NaN,-0.4174107,-5.782056E-07,NaN,-1.232037,2.44934E-05,-0.7240344,1.260613E-07,NaN,NaN,0.4181817,4.655093E-12,7.957021E-07,-1.096007E-07,-7.72565E-09,-2.861022E-08
904.9011,-0.1442855,4.0973E-09,NaN,-0.6943159,-1.318131E-07,NaN,-0.4220055,-5.798274E-07,NaN,-1.237494,2.449375E-05,-0.7310184,1.276814E-07,NaN,NaN,0.4205518,-4.658132E-12,8.034507E-07,-1.095968E-07,-9.51379E-09,-2.622604E-08
904.9165,-0.1442855,4.0973E-09,NaN,-0.6943159,-1.318131E-07,NaN,-0.4220055,-5.798274E-07,NaN,-1.237494,2.449375E-05,-0.7310184,1.276814E-07,NaN,NaN,0.4205518,-4.658132E-12,8.034507E-07,-1.095968E-07,-9.51379E-09,-2.622604E-08
904.9316,-0.143514,4.09791E-09,NaN,-0.6966174,-1.318109E-07,NaN,-0.4265977,-5.814113E-07,NaN,-1.242898,2.449409E-05,-0.7378348,1.292641E-07,NaN,NaN,0.4228755,-4.658132E-12,8.088152E-07,-1.095929E-07,-8.321697E-09,-2.861022E-08
904.9479,-0.1427096,4.098521E-09,NaN,-0.6990144,-1.318088E-07,NaN,-0.4314038,-5.829551E-07,NaN,-1.248666,2.449444E-05,-0.7452256,1.308073E-07,NaN,NaN,0.4254673,-1.397136E-11,8.088152E-07,-1.095891E-07,-1.159995E-08,-2.622604E-08
904.9637,-0.1418892,4.099132E-09,NaN,-0.7014591,-1.318066E-07,NaN,-0.436297,-5.844626E-07,NaN,-1.254473,2.449479E-05,-0.7526561,1.323146E-07,NaN,NaN,0.4280085,-2.328458E-11,8.19544E-07,-1.095852E-07,-1.249402E-08,-2.861022E-08
