JMolnar6/NonAnthroHands_User_Study/HandsLoggerWithURDF/tempdata/files/Reachy_PID0_JointMotion_gesture_9_2.csv
Time,r_shoulder,r_shoulder_x,r_upper_arm,r_forearm,r_wrist,r_wrist2hand,
544.8416,-0.01418015,-0.8960487,-1.556167,-2.074343,0.36492,-0.09335228
544.856,-0.01418015,-0.8960487,-1.556167,-2.074343,0.36492,-0.09335228
544.87,-0.01417885,-0.8961633,-1.556221,-2.074803,0.3651351,-0.09333272
544.8851,-0.01417755,-0.8962766,-1.556275,-2.075256,0.3653457,-0.09331354
544.8998,-0.01417755,-0.8962766,-1.556275,-2.075256,0.3653457,-0.09331354
544.9138,-0.01417626,-0.8963885,-1.556329,-2.075703,0.3655519,-0.09329474
544.9291,-0.01417498,-0.8964991,-1.556382,-2.076144,0.3657539,-0.09327631
544.9435,-0.0141737,-0.8966084,-1.556436,-2.076578,0.3659518,-0.09325823
544.9579,-0.0141737,-0.8966084,-1.556436,-2.076578,0.3659518,-0.09325823
544.9721,-0.01417242,-0.8967163,-1.556489,-2.077006,0.3661456,-0.09324051
544.9874,-0.01417115,-0.896823,-1.556542,-2.077428,0.3663354,-0.09322313
545.002,-0.01416989,-0.8969284,-1.556594,-2.077844,0.3665213,-0.09320609
545.0165,-0.01416989,-0.8969284,-1.556594,-2.077844,0.3665213,-0.09320609
545.0325,-0.01416863,-0.8970325,-1.556646,-2.078254,0.3667034,-0.09318939
545.0467,-0.01416738,-0.8971354,-1.556698,-2.078658,0.3668817,-0.09317301
545.0613,-0.01416613,-0.8972371,-1.55675,-2.079057,0.3670563,-0.09315696
545.0746,-0.01416613,-0.8972371,-1.55675,-2.079057,0.3670563,-0.09315696
545.0887,-0.01416489,-0.8973375,-1.556801,-2.079449,0.3672274,-0.09314121
545.1039,-0.01416365,-0.8974367,-1.556852,-2.079836,0.3673949,-0.09312578
545.1183,-0.01416365,-0.8974367,-1.556852,-2.079836,0.3673949,-0.09312578
545.1323,-0.01416242,-0.8975348,-1.556903,-2.080218,0.3675589,-0.09311064
545.1476,-0.0141612,-0.8976317,-1.556953,-2.080594,0.3677195,-0.09309579
545.162,-0.01415998,-0.8977274,-1.557004,-2.080965,0.3678769,-0.09308124
545.1766,-0.01415998,-0.8977274,-1.557004,-2.080965,0.3678769,-0.09308124
545.1906,-0.01415876,-0.897822,-1.557053,-2.081331,0.3680309,-0.09306698
545.2059,-0.01415755,-0.8979155,-1.557103,-2.081691,0.3681818,-0.09305298
545.2207,-0.01415635,-0.8980078,-1.557152,-2.082046,0.3683296,-0.09303927
545.2353,-0.01415635,-0.8980078,-1.557152,-2.082046,0.3683296,-0.09303927
545.2492,-0.01415515,-0.8980991,-1.557201,-2.082396,0.3684743,-0.09302582
545.2645,-0.01415396,-0.8981892,-1.55725,-2.082741,0.368616,-0.09301263
545.2791,-0.01415396,-0.8981892,-1.55725,-2.082741,0.368616,-0.09301263
545.2928,-0.01415277,-0.8982784,-1.557298,-2.083082,0.3687547,-0.0929997
545.3084,-0.01415159,-0.8983664,-1.557346,-2.083417,0.3688906,-0.09298702
545.3229,-0.01415041,-0.8984534,-1.557393,-2.083748,0.3690237,-0.0929746
545.3395,-0.01415041,-0.8984534,-1.557393,-2.083748,0.3690237,-0.0929746
545.3534,-0.01414924,-0.8985393,-1.557441,-2.084074,0.3691539,-0.09296241
545.3677,-0.01414807,-0.8986242,-1.557487,-2.084395,0.3692815,-0.09295046
545.3813,-0.01414691,-0.898708,-1.557534,-2.084712,0.3694065,-0.09293874
545.3959,-0.01414691,-0.898708,-1.557534,-2.084712,0.3694065,-0.09293874
545.4096,-0.01414575,-0.898791,-1.55758,-2.085024,0.3695288,-0.09292725
545.4249,-0.01414459,-0.8988729,-1.557626,-2.085332,0.3696486,-0.09291598
545.4396,-0.01414459,-0.8988729,-1.557626,-2.085332,0.3696486,-0.09291598
545.4535,-0.01414343,-0.8989538,-1.557672,-2.085636,0.3697659,-0.09290494
545.4688,-0.01414228,-0.8990337,-1.557717,-2.085935,0.3698807,-0.09289411
545.4834,-0.01414113,-0.8991127,-1.557762,-2.08623,0.3699932,-0.0928835
545.498,-0.01414113,-0.8991127,-1.557762,-2.08623,0.3699932,-0.0928835
545.512,-0.01413999,-0.8991908,-1.557807,-2.08652,0.3701033,-0.09287309
545.5276,-0.01413885,-0.8992679,-1.557851,-2.086807,0.3702111,-0.09286288
545.5421,-0.01413771,-0.8993441,-1.557895,-2.08709,0.3703167,-0.09285288
545.5566,-0.01413771,-0.8993441,-1.557895,-2.08709,0.3703167,-0.09285288
545.5706,-0.01413657,-0.8994194,-1.557938,-2.087368,0.37042,-0.09284306
545.5861,-0.01413544,-0.8994938,-1.557981,-2.087643,0.3705212,-0.09283344
545.6008,-0.01413431,-0.8995673,-1.558024,-2.087913,0.3706203,-0.09282401
545.6153,-0.01413431,-0.8995673,-1.558024,-2.087913,0.3706203,-0.09282401
545.6322,-0.01413319,-0.89964,-1.558067,-2.08818,0.3707173,-0.09281476
545.6456,-0.01413206,-0.8997117,-1.558109,-2.088443,0.3708123,-0.09280569
545.6599,-0.01413206,-0.8997117,-1.558109,-2.088443,0.3708123,-0.09280569
545.6732,-0.01413095,-0.8997827,-1.558151,-2.088702,0.3709053,-0.0927968
545.688,-0.01412983,-0.8998527,-1.558192,-2.088958,0.3709963,-0.09278808
545.7026,-0.01412872,-0.8999219,-1.558233,-2.08921,0.3710854,-0.09277952
545.7172,-0.01412872,-0.8999219,-1.558233,-2.08921,0.3710854,-0.09277952
545.7311,-0.01412761,-0.8999903,-1.558274,-2.089458,0.3711726,-0.09277114
545.7464,-0.0141265,-0.9000579,-1.558315,-2.089703,0.3712581,-0.09276292
545.761,-0.0141254,-0.9001247,-1.558355,-2.089945,0.3713417,-0.09275486
545.7756,-0.0141254,-0.9001247,-1.558355,-2.089945,0.3713417,-0.09275486
545.7897,-0.0141243,-0.9001907,-1.558395,-2.090183,0.3714235,-0.09274696
545.805,-0.0141232,-0.9002559,-1.558434,-2.090417,0.3715037,-0.09273921
545.8197,-0.0141232,-0.9002559,-1.558434,-2.090417,0.3715037,-0.09273921
545.8337,-0.01412211,-0.9003203,-1.558473,-2.090649,0.3715821,-0.09273161
545.8501,-0.0141209,-0.9004532,-1.558003,-2.091469,0.3730304,-0.09259492
545.8642,-0.0141196,-0.9006279,-1.557625,-2.092571,0.3746904,-0.09246133
545.8781,-0.0141196,-0.9006279,-1.557625,-2.092571,0.3746904,-0.09246133
545.8922,-0.01411817,-0.9008275,-1.557365,-2.093801,0.3763123,-0.09233026
545.9077,-0.0141166,-0.9010416,-1.557173,-2.095082,0.3778783,-0.09220167
545.9244,-0.0141151,-0.9011944,-1.557527,-2.095785,0.3780331,-0.09220478
545.938,-0.0141151,-0.9011944,-1.557527,-2.095785,0.3780331,-0.09220478
545.9518,-0.01411376,-0.9013087,-1.557808,-2.096201,0.3779333,-0.09220739
545.9662,-0.01411252,-0.9013987,-1.55798,-2.096477,0.3778364,-0.09221002
545.9805,-0.01411135,-0.9014733,-1.558092,-2.096683,0.3777641,-0.09221268
545.9951,-0.01411135,-0.9014733,-1.558092,-2.096683,0.3777641,-0.09221268
546.0089,-0.01411037,-0.9014706,-1.558687,-2.096261,0.3763433,-0.09234458
546.0242,-0.01410951,-0.9014203,-1.559176,-2.095535,0.3747114,-0.09247351
546.0387,-0.01410951,-0.9014203,-1.559176,-2.095535,0.3747114,-0.09247351
546.0528,-0.01410873,-0.9013408,-1.559538,-2.094668,0.3731187,-0.09260001
546.0684,-0.01410811,-0.9011744,-1.560338,-2.093149,0.3702164,-0.09285337
546.085,-0.01410763,-0.9009551,-1.561003,-2.091321,0.3671432,-0.09310143
546.0976,-0.01410763,-0.9009551,-1.561003,-2.091321,0.3671432,-0.09310143
546.1113,-0.01410723,-0.900704,-1.561524,-2.08936,0.3641427,-0.09334476
546.1267,-0.01410689,-0.9004346,-1.561961,-2.08735,0.3612283,-0.09358342
546.1413,-0.0141067,-0.9000856,-1.562855,-2.084739,0.3570115,-0.09394673
546.1559,-0.0141067,-0.9000856,-1.562855,-2.084739,0.3570115,-0.09394673
546.1699,-0.01410664,-0.8996892,-1.56362,-2.081854,0.3526492,-0.09430256
546.1851,-0.01410666,-0.8992652,-1.564241,-2.078859,0.3483833,-0.09465155
546.1999,-0.01410666,-0.8992652,-1.564241,-2.078859,0.3483833,-0.09465155
546.2137,-0.01410685,-0.8987569,-1.565273,-2.075244,0.3428414,-0.09512306
546.231,-0.01410718,-0.8981987,-1.566146,-2.071352,0.3371959,-0.09558505
546.2444,-0.0141076,-0.8976123,-1.566861,-2.067358,0.3316782,-0.09603812
546.2579,-0.0141076,-0.8976123,-1.566861,-2.067358,0.3316782,-0.09603812
546.2729,-0.01410809,-0.8970112,-1.567479,-2.063345,0.3262954,-0.09648243
546.2872,-0.01410872,-0.8963342,-1.568525,-2.058764,0.319629,-0.09704736
546.3015,-0.01410949,-0.8956136,-1.569415,-2.05394,0.3128885,-0.09760096
546.3162,-0.01410949,-0.8956136,-1.569415,-2.05394,0.3128885,-0.09760096
546.33,-0.01411034,-0.8948692,-1.570151,-2.049036,0.3062976,-0.09814384
546.3452,-0.01411125,-0.8941135,-1.570791,-2.044131,0.2998605,-0.09867619
546.3599,-0.01411125,-0.8941135,-1.570791,-2.044131,0.2998605,-0.09867619
546.3737,-0.01411232,-0.8932849,-1.571681,-2.038666,0.2919784,-0.09932714
546.3891,-0.01411351,-0.892415,-1.572042,-2.032954,0.2838533,-0.09996475
546.4036,-0.0141148,-0.8915235,-1.571905,-2.027172,0.2758903,-0.10059
546.418,-0.0141148,-0.8915235,-1.571905,-2.027172,0.2758903,-0.10059
546.4324,-0.01411626,-0.8905535,-1.571982,-2.020823,0.266785,-0.1013325
546.4476,-0.01411806,-0.8895392,-1.571801,-2.014248,0.2577151,-0.1020605
546.4623,-0.01412018,-0.8885022,-1.571484,-2.00762,0.2489222,-0.1027744
546.4767,-0.01412018,-0.8885022,-1.571484,-2.00762,0.2489222,-0.1027744
546.4908,-0.01412255,-0.8874558,-1.571195,-2.001022,0.2404136,-0.1034746
546.5062,-0.01412531,-0.8863391,-1.571447,-1.993906,0.2306715,-0.1042905
546.5206,-0.01412846,-0.8851839,-1.571545,-1.986586,0.2208746,-0.1050901
546.5372,-0.01412846,-0.8851839,-1.571545,-1.986586,0.2208746,-0.1050901
546.5501,-0.01413193,-0.8840101,-1.571459,-1.979221,0.211269,-0.1058742
546.5645,-0.01413567,-0.8828302,-1.571286,-1.971892,0.2019088,-0.1066431
546.579,-0.01413567,-0.8828302,-1.571286,-1.971892,0.2019088,-0.1066431
546.5928,-0.01413978,-0.8815824,-1.571518,-1.964058,0.1912981,-0.1075262
546.608,-0.01414428,-0.8802984,-1.571536,-1.956033,0.1807084,-0.108392
546.6226,-0.01414909,-0.8789977,-1.57138,-1.947976,0.1703636,-0.1092409
546.6373,-0.01414909,-0.8789977,-1.57138,-1.947976,0.1703636,-0.1092409
546.6513,-0.01415434,-0.8776233,-1.571551,-1.939388,0.1587825,-0.1102026
546.6666,-0.01416,-0.8762095,-1.571498,-1.930604,0.1472932,-0.1111454
546.681,-0.01416601,-0.8747777,-1.571301,-1.921791,0.1360886,-0.1120698
546.6957,-0.01416601,-0.8747777,-1.571301,-1.921791,0.1360886,-0.1120698
546.7098,-0.01417229,-0.8733413,-1.571089,-1.913033,0.1251801,-0.1129762
546.7253,-0.01417895,-0.8718392,-1.571275,-1.90379,0.1130028,-0.1139943
546.7397,-0.01417895,-0.8718392,-1.571275,-1.90379,0.1130028,-0.1139943
546.7537,-0.014186,-0.8703032,-1.571278,-1.894378,0.1009359,-0.1149923
546.7689,-0.01419334,-0.8687531,-1.571144,-1.884953,0.08914296,-0.1159709
546.7838,-0.01420093,-0.8672014,-1.570977,-1.875593,0.07763918,-0.1169304
546.7986,-0.01420093,-0.8672014,-1.570977,-1.875593,0.07763918,-0.1169304
546.8121,-0.01420634,-0.8664871,-1.567279,-1.873251,0.08504367,-0.1163193
546.8295,-0.01420903,-0.8662928,-1.565281,-1.874307,0.09299123,-0.1157202
546.8429,-0.01420955,-0.8664186,-1.564171,-1.877045,0.100452,-0.1151329
546.8566,-0.01420955,-0.8664186,-1.564171,-1.877045,0.100452,-0.1151329
546.8715,-0.0142093,-0.866672,-1.563729,-1.880028,0.106053,-0.1146864
546.8859,-0.01420874,-0.8670031,-1.563338,-1.883126,0.1114319,-0.1142486
546.9003,-0.01420804,-0.8673807,-1.562959,-1.886266,0.1166991,-0.1138194
546.9147,-0.01420804,-0.8673807,-1.562959,-1.886266,0.1166991,-0.1138194
546.9287,-0.01420726,-0.8677852,-1.562587,-1.889408,0.1218617,-0.1133986
546.944,-0.01420656,-0.8681352,-1.562538,-1.891954,0.1253707,-0.1131154
546.9585,-0.01420656,-0.8681352,-1.562538,-1.891954,0.1253707,-0.1131154
546.9723,-0.01420593,-0.8684499,-1.562389,-1.894195,0.128756,-0.1128378
546.9877,-0.01420534,-0.8687416,-1.562187,-1.89627,0.1320964,-0.1125656
547.0022,-0.01420478,-0.8690177,-1.561967,-1.898248,0.135382,-0.1122988
547.017,-0.01420478,-0.8690177,-1.561967,-1.898248,0.135382,-0.1122988
547.0309,-0.01420438,-0.8692135,-1.562067,-1.899586,0.1370595,-0.1121666
547.0461,-0.01420409,-0.869359,-1.562056,-1.900603,0.1386462,-0.1120369
547.0606,-0.01420387,-0.8694728,-1.561985,-1.901454,0.1402257,-0.1119098
547.0754,-0.01420387,-0.8694728,-1.561985,-1.901454,0.1402257,-0.1119098
547.0894,-0.01420383,-0.8694971,-1.562218,-1.901637,0.1402401,-0.1119146
547.105,-0.01420393,-0.869468,-1.562328,-1.901493,0.1401985,-0.1119192
547.1191,-0.01420393,-0.869468,-1.562328,-1.901493,0.1401985,-0.1119192
547.1353,-0.01420411,-0.8694059,-1.562368,-1.901188,0.1401842,-0.1119238
547.1493,-0.01420434,-0.8693238,-1.56238,-1.900806,0.1401837,-0.1119282
547.164,-0.01420474,-0.8691604,-1.562706,-1.899808,0.1386422,-0.112062
547.1773,-0.01420474,-0.8691604,-1.562706,-1.899808,0.1386422,-0.112062
547.1914,-0.01420526,-0.8689476,-1.562909,-1.898518,0.1370743,-0.1121931
547.2065,-0.01420586,-0.8687051,-1.563041,-1.897093,0.1355632,-0.1123217
547.2209,-0.01420651,-0.8684455,-1.56314,-1.895611,0.1340953,-0.1124477
547.2357,-0.01420651,-0.8684455,-1.56314,-1.895611,0.1340953,-0.1124477
547.2496,-0.01420733,-0.8681071,-1.563545,-1.893532,0.1311128,-0.1127007
547.2651,-0.01420827,-0.8677216,-1.563822,-1.891178,0.1281373,-0.1129486
547.2795,-0.01420827,-0.8677216,-1.563822,-1.891178,0.1281373,-0.1129486
547.2933,-0.0142093,-0.8673088,-1.564023,-1.888706,0.1252466,-0.1131918
547.3088,-0.01421051,-0.8668116,-1.564502,-1.885614,0.1208739,-0.1135595
547.3236,-0.01421187,-0.8662646,-1.564841,-1.882243,0.1165447,-0.11392
547.3381,-0.01421187,-0.8662646,-1.564841,-1.882243,0.1165447,-0.11392
547.3521,-0.0142135,-0.8656893,-1.565098,-1.878759,0.1123286,-0.1142735
547.3674,-0.01421534,-0.8650991,-1.565315,-1.875243,0.1082097,-0.1146201
547.3823,-0.01421758,-0.8644331,-1.565805,-1.87116,0.1026206,-0.1150893
547.3968,-0.01421758,-0.8644331,-1.565805,-1.87116,0.1026206,-0.1150893
547.4106,-0.01422019,-0.8637231,-1.566161,-1.86683,0.09710609,-0.1155492
547.428,-0.01422311,-0.8629892,-1.566437,-1.86241,0.09172633,-0.1160002
547.4417,-0.01422628,-0.862244,-1.566671,-1.857977,0.08646575,-0.1164423
547.4553,-0.01422628,-0.862244,-1.566671,-1.857977,0.08646575,-0.1164423
547.4691,-0.01422985,-0.8614256,-1.567158,-1.852993,0.0797517,-0.1170052
547.4844,-0.01423379,-0.8605659,-1.56751,-1.847777,0.07314593,-0.117557
547.4989,-0.01423379,-0.8605659,-1.56751,-1.847777,0.07314593,-0.117557
547.5128,-0.01423805,-0.8596844,-1.567783,-1.842485,0.06669547,-0.118098
547.5281,-0.01424277,-0.8587241,-1.568275,-1.836617,0.05881765,-0.1187578
547.5427,-0.01424791,-0.8577195,-1.568626,-1.830512,0.05108307,-0.1194047
547.5573,-0.01424791,-0.8577195,-1.568626,-1.830512,0.05108307,-0.1194047
547.5712,-0.01425339,-0.8566921,-1.568896,-1.824334,0.04352646,-0.120039
547.5867,-0.01425912,-0.8556551,-1.569121,-1.818164,0.03613188,-0.1206608
547.6011,-0.01426527,-0.8545476,-1.569549,-1.811467,0.02731982,-0.1213998
547.6157,-0.01426527,-0.8545476,-1.569549,-1.811467,0.02731982,-0.1213998
547.6297,-0.01427179,-0.8534015,-1.569847,-1.804564,0.01867882,-0.1221243
547.645,-0.01427861,-0.8522367,-1.570072,-1.797607,0.01023102,-0.1228347
547.6596,-0.01427861,-0.8522367,-1.570072,-1.797607,0.01023102,-0.1228347
547.6735,-0.01428589,-0.8509963,-1.570462,-1.790101,0.0003911154,-0.1236605
547.6888,-0.01429358,-0.8497148,-1.570632,-1.782381,-0.009295966,-0.1244702
547.7037,-0.0143016,-0.8484135,-1.570628,-1.774613,-0.01879036,-0.125264
547.7181,-0.0143016,-0.8484135,-1.570628,-1.774613,-0.01879036,-0.125264
547.7341,-0.01430986,-0.847106,-1.570536,-1.766875,-0.02806636,-0.1260422
547.7487,-0.01431787,-0.8458009,-1.570435,-1.75921,-0.03712527,-0.1268043
547.7617,-0.01432576,-0.844503,-1.570363,-1.751634,-0.04598223,-0.1275515
547.7764,-0.01432576,-0.844503,-1.570363,-1.751634,-0.04598223,-0.1275515
547.7905,-0.01433356,-0.8432154,-1.570325,-1.744157,-0.05465276,-0.128284
547.8056,-0.01434132,-0.84194,-1.570309,-1.736783,-0.06314756,-0.1290021
547.8202,-0.01434887,-0.8407471,-1.570159,-1.730085,-0.06991137,-0.1295768
547.8351,-0.01434887,-0.8407471,-1.570159,-1.730085,-0.06991137,-0.1295768
547.8489,-0.01435615,-0.8396103,-1.57011,-1.723765,-0.07653412,-0.1301403
547.8643,-0.01436322,-0.8385134,-1.570089,-1.717678,-0.08303523,-0.1306927
547.8787,-0.01436322,-0.8385134,-1.570089,-1.717678,-0.08303523,-0.1306927
547.8927,-0.0143699,-0.8375153,-1.569957,-1.712324,-0.08785377,-0.131105
547.9081,-0.01437622,-0.8365825,-1.569884,-1.707367,-0.09258462,-0.1315092
547.9228,-0.01438221,-0.8356944,-1.569834,-1.702644,-0.0972279,-0.1319055
547.9373,-0.01438221,-0.8356944,-1.569834,-1.702644,-0.0972279,-0.1319055
547.9514,-0.01438795,-0.8348377,-1.569791,-1.698072,-0.101781,-0.1322941
547.9669,-0.01439331,-0.8340735,-1.56965,-1.694182,-0.1046938,-0.1325457
547.9822,-0.0143983,-0.8333699,-1.569557,-1.690652,-0.1075546,-0.1327924
547.9961,-0.0143983,-0.8333699,-1.569557,-1.690652,-0.1075546,-0.1327924
548.0098,-0.01440297,-0.8327067,-1.569483,-1.687328,-0.110363,-0.1330343
548.0261,-0.01440739,-0.8320716,-1.569417,-1.68413,-0.1131173,-0.1332714
548.0407,-0.01441143,-0.8315259,-1.569269,-1.681592,-0.1142714,-0.1333746
548.0542,-0.01441143,-0.8315259,-1.569269,-1.681592,-0.1142714,-0.1333746
548.0682,-0.0144151,-0.8310377,-1.569162,-1.679394,-0.1154072,-0.1334758
548.0834,-0.01441847,-0.8305873,-1.569073,-1.677382,-0.1165236,-0.133575
548.0978,-0.01441847,-0.8305873,-1.569073,-1.677382,-0.1165236,-0.133575
548.1119,-0.01442139,-0.8302315,-1.568913,-1.676049,-0.1160752,-0.133543
548.1287,-0.01442389,-0.8299357,-1.568793,-1.675058,-0.1156393,-0.1335116
548.1417,-0.01442606,-0.8296782,-1.568689,-1.674245,-0.1152145,-0.1334808
548.1564,-0.01442606,-0.8296782,-1.568689,-1.674245,-0.1152145,-0.1334808
548.1703,-0.01442795,-0.8294456,-1.568594,-1.673526,-0.1147989,-0.1334506
548.1857,-0.01442946,-0.8292986,-1.568428,-1.673433,-0.1128485,-0.1332918
548.2004,-0.01443059,-0.8292052,-1.568296,-1.673646,-0.1109391,-0.1331361
548.215,-0.01443059,-0.8292052,-1.568296,-1.673646,-0.1109391,-0.1331361
548.2289,-0.01443152,-0.8291451,-1.568179,-1.674009,-0.109069,-0.1329834
548.2441,-0.01443233,-0.829106,-1.568069,-1.674445,-0.1072362,-0.1328337
548.2589,-0.01443233,-0.829106,-1.568069,-1.674445,-0.1072362,-0.1328337
548.2727,-0.01443297,-0.8291477,-1.567887,-1.675488,-0.103895,-0.1325577
548.2881,-0.01443348,-0.8292391,-1.567737,-1.676819,-0.1006215,-0.1322871
548.3026,-0.01443391,-0.8293607,-1.567601,-1.678284,-0.09741375,-0.1320217
548.3192,-0.01443391,-0.8293607,-1.567601,-1.678284,-0.09741375,-0.1320217
548.3333,-0.01443417,-0.8295697,-1.567391,-1.680377,-0.09272274,-0.1316323
548.3472,-0.0144343,-0.8298317,-1.567214,-1.682761,-0.08812565,-0.1312505
548.3607,-0.01443435,-0.8301253,-1.56705,-1.685273,-0.08361993,-0.1308762
548.3752,-0.01443435,-0.8301253,-1.56705,-1.685273,-0.08361993,-0.1308762
548.3895,-0.01443434,-0.830437,-1.566893,-1.687831,-0.07920238,-0.1305093
548.4045,-0.01443417,-0.8308278,-1.566648,-1.690967,-0.07332015,-0.1300202
548.419,-0.01443417,-0.8308278,-1.566648,-1.690967,-0.07332015,-0.1300202
548.433,-0.01443388,-0.8312657,-1.566436,-1.69436,-0.06755497,-0.1295407
548.4483,-0.01443351,-0.8317307,-1.566239,-1.697857,-0.06190402,-0.1290706
548.4629,-0.01443309,-0.8322102,-1.566047,-1.701381,-0.05636339,-0.1286098
548.4772,-0.01443309,-0.8322102,-1.566047,-1.701381,-0.05636339,-0.1286098
548.4914,-0.01443251,-0.832766,-1.565752,-1.705467,-0.04937422,-0.1280286
548.507,-0.01443181,-0.8333663,-1.565495,-1.709795,-0.04252383,-0.1274589
548.5214,-0.01443103,-0.8339913,-1.565254,-1.714212,-0.0358093,-0.1269003
548.5361,-0.01443103,-0.8339913,-1.565254,-1.714212,-0.0358093,-0.1269003
548.55,-0.01443007,-0.8346981,-1.564898,-1.719216,-0.02766492,-0.1262233
548.5652,-0.01442899,-0.8354523,-1.564586,-1.724468,-0.01968178,-0.1255597
548.5798,-0.01442899,-0.8354523,-1.564586,-1.724468,-0.01968178,-0.1255597
548.5939,-0.01442781,-0.8362322,-1.56429,-1.729806,-0.01185706,-0.124909
548.609,-0.01442655,-0.8370246,-1.564,-1.73515,-0.004184882,-0.1242711
548.6248,-0.01442496,-0.8378903,-1.56357,-1.741032,0.004906339,-0.1235164
548.6392,-0.01442496,-0.8378903,-1.56357,-1.741032,0.004906339,-0.1235164
548.6531,-0.01442305,-0.8387975,-1.563189,-1.747132,0.01381878,-0.1227765
548.6674,-0.01442085,-0.8397262,-1.562827,-1.753296,0.02255337,-0.1220511
548.6819,-0.01441843,-0.840664,-1.562472,-1.75945,0.03111718,-0.12134
548.6964,-0.01441843,-0.840664,-1.562472,-1.75945,0.03111718,-0.12134
548.7102,-0.01441796,-0.8407717,-1.564162,-1.758663,0.02062855,-0.1221943
548.7257,-0.01441885,-0.8403684,-1.565037,-1.754515,0.01041057,-0.1230319
548.7401,-0.01442076,-0.8396515,-1.565523,-1.748734,0.0005257493,-0.123853
548.7548,-0.01442076,-0.8396515,-1.565523,-1.748734,0.0005257493,-0.123853
548.7687,-0.01442366,-0.8388135,-1.565669,-1.742755,-0.007533168,-0.1245287
548.7841,-0.01442735,-0.8379046,-1.565801,-1.736707,-0.01541429,-0.1251911
548.7986,-0.01442735,-0.8379046,-1.565801,-1.736707,-0.01541429,-0.1251911
548.8127,-0.01443163,-0.8369558,-1.56592,-1.730663,-0.02313645,-0.1258405
548.8279,-0.01443636,-0.8359869,-1.566024,-1.724661,-0.03070275,-0.1264772
548.8425,-0.01444122,-0.835079,-1.565985,-1.719292,-0.0365531,-0.1269721
548.8571,-0.01444122,-0.835079,-1.565985,-1.719292,-0.0365531,-0.1269721
548.8712,-0.01444607,-0.8342129,-1.565999,-1.71427,-0.04229522,-0.1274573
548.8864,-0.01445086,-0.8333765,-1.566032,-1.709455,-0.04793007,-0.127933
548.9011,-0.01445559,-0.8325621,-1.566069,-1.704778,-0.05345522,-0.1283993
548.9157,-0.01445559,-0.8325621,-1.566069,-1.704778,-0.05345522,-0.1283993
548.9318,-0.01446007,-0.8318343,-1.565995,-1.700776,-0.05731392,-0.1287272
548.9457,-0.01446428,-0.8311631,-1.565971,-1.697132,-0.06110423,-0.1290487
548.9603,-0.01446824,-0.8305299,-1.565966,-1.693694,-0.06482504,-0.1293638
548.9738,-0.01446824,-0.8305299,-1.565966,-1.693694,-0.06482504,-0.1293638
548.9877,-0.01447182,-0.8299923,-1.565871,-1.690955,-0.06692071,-0.1295435
549.0027,-0.01447502,-0.8295161,-1.565824,-1.688578,-0.06898265,-0.1297196
549.0173,-0.01447502,-0.8295161,-1.565824,-1.688578,-0.06898265,-0.1297196
549.0315,-0.01447791,-0.8290799,-1.565796,-1.686399,-0.07100875,-0.1298923
549.0466,-0.01448055,-0.8286703,-1.565776,-1.684335,-0.07299675,-0.1300616
549.0613,-0.01448283,-0.8283483,-1.565672,-1.682916,-0.07339566,-0.1300983
549.0759,-0.01448283,-0.8283483,-1.565672,-1.682916,-0.07339566,-0.1300983
549.0898,-0.01448475,-0.8280818,-1.565608,-1.681823,-0.07379261,-0.1301343
549.105,-0.01448637,-0.8278508,-1.565562,-1.6809,-0.07418551,-0.1301695
549.1196,-0.01448637,-0.8278508,-1.565562,-1.6809,-0.07418551,-0.1301695
549.1338,-0.01448757,-0.8277119,-1.565438,-1.680642,-0.0730226,-0.1300748
549.1489,-0.01448849,-0.8276306,-1.565354,-1.68071,-0.07188796,-0.1299819
549.1635,-0.01448925,-0.8275852,-1.565287,-1.680941,-0.07077897,-0.1298908
549.1779,-0.01448925,-0.8275852,-1.565287,-1.680941,-0.07077897,-0.1298908
549.1921,-0.01448994,-0.827562,-1.565228,-1.681251,-0.06969304,-0.1298015
549.2077,-0.01449047,-0.8276205,-1.565087,-1.682174,-0.0670787,-0.1295846
549.222,-0.01449087,-0.8277291,-1.564982,-1.683388,-0.06452013,-0.129372
549.2375,-0.01449087,-0.8277291,-1.564982,-1.683388,-0.06452013,-0.129372
549.2516,-0.01449121,-0.8278681,-1.564893,-1.684738,-0.06201459,-0.1291636
549.266,-0.01449149,-0.8280253,-1.56481,-1.686146,-0.05955917,-0.1289592
549.2802,-0.01449162,-0.8282623,-1.564641,-1.688148,-0.05559975,-0.1286296
549.2948,-0.01449162,-0.8282623,-1.564641,-1.688148,-0.05559975,-0.1286296
549.3085,-0.01449164,-0.8285474,-1.564507,-1.690422,-0.05172209,-0.1283063
549.3237,-0.01449158,-0.8288611,-1.564389,-1.692817,-0.04792315,-0.1279894
549.3384,-0.01449158,-0.8288611,-1.564389,-1.692817,-0.04792315,-0.1279894
549.3524,-0.01449136,-0.8292601,-1.564179,-1.695827,-0.04264425,-0.1275494
549.3676,-0.014491,-0.8297101,-1.564008,-1.699115,-0.03747287,-0.1271181
549.3823,-0.01449057,-0.8301896,-1.563853,-1.702518,-0.03240547,-0.1266951
549.3969,-0.01449057,-0.8301896,-1.563853,-1.702518,-0.03240547,-0.1266951
549.4105,-0.01449008,-0.830685,-1.563704,-1.705955,-0.02743774,-0.1262805
549.4261,-0.01448944,-0.8312574,-1.563446,-1.709957,-0.02100678,-0.1257447
549.4407,-0.01448868,-0.8318747,-1.563229,-1.714205,-0.01470547,-0.1252193
549.4553,-0.01448868,-0.8318747,-1.563229,-1.714205,-0.01470547,-0.1252193
549.4691,-0.01448784,-0.832517,-1.563028,-1.718545,-0.008530474,-0.1247043
549.4846,-0.01448694,-0.8331718,-1.562833,-1.7229,-0.002476666,-0.1241993
549.4994,-0.01448694,-0.8331718,-1.562833,-1.7229,-0.002476666,-0.1241993
549.513,-0.0144859,-0.8339007,-1.562511,-1.727806,0.005025198,-0.123575
549.5305,-0.01448474,-0.8346721,-1.562236,-1.732942,0.01237682,-0.1229628
549.5438,-0.01448348,-0.8354661,-1.561979,-1.738157,0.01958078,-0.1223627
549.5584,-0.01448348,-0.8354661,-1.561979,-1.738157,0.01958078,-0.1223627
549.5725,-0.01448188,-0.83634,-1.561582,-1.743949,0.02821372,-0.121645
549.5865,-0.01447993,-0.8372592,-1.561238,-1.749978,0.0366748,-0.1209414
549.6011,-0.01447768,-0.8382022,-1.560915,-1.756082,0.04496557,-0.1202516
549.6168,-0.01447768,-0.8382022,-1.560915,-1.756082,0.04496557,-0.1202516
549.6293,-0.01447519,-0.8391557,-1.5606,-1.762182,0.05309347,-0.1195754
549.6447,-0.01447227,-0.8401114,-1.560288,-1.768236,0.06106482,-0.1189122
549.6595,-0.01447227,-0.8401114,-1.560288,-1.768236,0.06106482,-0.1189122
549.6732,-0.01446907,-0.8410644,-1.559977,-1.774225,0.06888151,-0.1182622
549.6884,-0.01446568,-0.8420113,-1.559668,-1.78014,0.07654664,-0.1176248
549.703,-0.01446218,-0.8429502,-1.559359,-1.785977,0.08406305,-0.117
549.7179,-0.01446218,-0.8429502,-1.559359,-1.785977,0.08406305,-0.117
549.7319,-0.01445881,-0.8438107,-1.559254,-1.791156,0.08985361,-0.1165167
549.7473,-0.01445564,-0.844619,-1.559079,-1.795981,0.09553044,-0.116043
549.7618,-0.01445265,-0.8453913,-1.558874,-1.800596,0.1011081,-0.1155785
549.7763,-0.01445265,-0.8453913,-1.558874,-1.800596,0.1011081,-0.1155785
549.7905,-0.01445002,-0.8460688,-1.558877,-1.804496,0.1050011,-0.1152525
549.8057,-0.01444775,-0.8466847,-1.558798,-1.808022,0.1088161,-0.1149328
549.8202,-0.01444577,-0.8472598,-1.558684,-1.811335,0.1125706,-0.1146194
549.8372,-0.01444577,-0.8472598,-1.558684,-1.811335,0.1125706,-0.1146194
549.8508,-0.01444403,-0.8478072,-1.558556,-1.814519,0.1162575,-0.1143122
549.8641,-0.01444266,-0.8482656,-1.55866,-1.817038,0.1182941,-0.1141403
549.8784,-0.01444266,-0.8482656,-1.55866,-1.817038,0.1182941,-0.1141403
549.8923,-0.01444157,-0.8486672,-1.558675,-1.819215,0.1202845,-0.1139718
549.9075,-0.01444062,-0.8490319,-1.55865,-1.821208,0.1222514,-0.1138066
549.9223,-0.01443976,-0.8493721,-1.55861,-1.823094,0.1241863,-0.1136446
549.9366,-0.01443976,-0.8493721,-1.55861,-1.823094,0.1241863,-0.1136446
549.9506,-0.01443905,-0.8496264,-1.558809,-1.824335,0.1245064,-0.1136151
549.9659,-0.01443847,-0.8498266,-1.558913,-1.825253,0.1248117,-0.1135862
549.9804,-0.01443796,-0.8499924,-1.558971,-1.826006,0.1251281,-0.1135579
549.9956,-0.01443796,-0.8499924,-1.558971,-1.826006,0.1251281,-0.1135579
550.0089,-0.01443762,-0.850067,-1.559258,-1.826092,0.123867,-0.1136594
550.0242,-0.01443741,-0.850085,-1.559438,-1.825854,0.1226239,-0.1137589
550.0388,-0.01443741,-0.850085,-1.559438,-1.825854,0.1226239,-0.1137589
550.053,-0.0144373,-0.8500696,-1.559567,-1.825456,0.1214243,-0.1138565
550.0682,-0.01443723,-0.8500338,-1.559673,-1.824981,0.1202568,-0.1139521
550.0829,-0.01443732,-0.8499162,-1.560014,-1.823893,0.1175374,-0.1141752
550.0973,-0.01443732,-0.8499162,-1.560014,-1.823893,0.1175374,-0.1141752
550.1112,-0.01443754,-0.8497487,-1.560249,-1.822515,0.1148642,-0.1143939
550.1265,-0.01443783,-0.849551,-1.56043,-1.821004,0.1122627,-0.1146084
550.1432,-0.01443816,-0.8493357,-1.560586,-1.819438,0.1097209,-0.1148187
550.1568,-0.01443816,-0.8493357,-1.560586,-1.819438,0.1097209,-0.1148187
550.1719,-0.01443866,-0.8490412,-1.560967,-1.817277,0.1056545,-0.1151541
550.1851,-0.01443928,-0.848699,-1.561239,-1.814844,0.101664,-0.115483
550.1996,-0.01443928,-0.848699,-1.561239,-1.814844,0.101664,-0.115483
550.2133,-0.01443997,-0.8483291,-1.561455,-1.812294,0.0977711,-0.1158054
550.2286,-0.01444085,-0.8478743,-1.561874,-1.809128,0.0923851,-0.1162508
550.2434,-0.01444185,-0.8473691,-1.562177,-1.805685,0.08710641,-0.1166875
550.2578,-0.01444185,-0.8473691,-1.562177,-1.805685,0.08710641,-0.1166875
550.272,-0.01444294,-0.8468352,-1.562419,-1.802129,0.08195168,-0.1171157
550.2874,-0.01444408,-0.8462859,-1.562629,-1.798544,0.07690809,-0.1175354
550.3019,-0.01444542,-0.8456603,-1.563035,-1.794393,0.07039048,-0.1180763
550.3165,-0.01444542,-0.8456603,-1.563035,-1.794393,0.07039048,-0.1180763
550.3307,-0.01444708,-0.8449903,-1.563331,-1.789998,0.0640058,-0.1186066
550.3457,-0.01444902,-0.844296,-1.563568,-1.785514,0.0577655,-0.1191265
550.3603,-0.01445119,-0.8435898,-1.563772,-1.781018,0.05165748,-0.1196362
550.3751,-0.01445119,-0.8435898,-1.563772,-1.781018,0.05165748,-0.1196362
550.3889,-0.01445373,-0.8428102,-1.564151,-1.775973,0.04409828,-0.1202652
550.4043,-0.01445665,-0.8419886,-1.564423,-1.770699,0.03669747,-0.1208819
550.4187,-0.01445665,-0.8419886,-1.564423,-1.770699,0.03669747,-0.1208819
550.4351,-0.01445987,-0.8411449,-1.564638,-1.765349,0.02946004,-0.1214866
550.4492,-0.01446353,-0.840222,-1.564997,-1.759426,0.02080025,-0.1222087
550.4637,-0.0144676,-0.8392543,-1.565249,-1.753266,0.01232573,-0.1229167
550.477,-0.0144676,-0.8392543,-1.565249,-1.753266,0.01232573,-0.1229167
550.4911,-0.01447202,-0.8382634,-1.565444,-1.747035,0.004035817,-0.1236108
550.5065,-0.01447669,-0.8372625,-1.565604,-1.740812,-0.004080967,-0.1242912
550.5208,-0.01448176,-0.8361907,-1.565889,-1.734064,-0.01360011,-0.1250877
550.5352,-0.01448176,-0.8361907,-1.565889,-1.734064,-0.01360011,-0.1250877
550.5493,-0.01448721,-0.8350799,-1.566081,-1.72711,-0.02291544,-0.1258686
550.5647,-0.01449296,-0.83395,-1.56622,-1.720105,-0.03203174,-0.1266342
550.579,-0.01449296,-0.83395,-1.56622,-1.720105,-0.03203174,-0.1266342
550.5931,-0.01449643,-0.8336449,-1.564823,-1.720002,-0.02220862,-0.1258325
550.6086,-0.01449714,-0.8338487,-1.564083,-1.72324,-0.01266383,-0.1250466
550.6232,-0.01449659,-0.8343655,-1.563602,-1.728118,-0.003378076,-0.1242762
550.6376,-0.01449659,-0.8343655,-1.563602,-1.728118,-0.003378076,-0.1242762
550.6517,-0.01449542,-0.8350734,-1.56322,-1.733783,0.005699518,-0.1235209
550.6672,-0.014494,-0.8358265,-1.563016,-1.739233,0.0130225,-0.1229098
550.6815,-0.01449227,-0.8366043,-1.562775,-1.744553,0.02020411,-0.1223107
550.6963,-0.01449227,-0.8366043,-1.562775,-1.744553,0.02020411,-0.1223107
550.71,-0.01449031,-0.8373938,-1.56252,-1.749773,0.02725171,-0.1217234
550.7256,-0.01448817,-0.8381869,-1.562258,-1.75491,0.03416505,-0.1211476
550.7421,-0.01448613,-0.8389094,-1.562161,-1.759395,0.03937143,-0.1207124
550.7554,-0.01448613,-0.8389094,-1.562161,-1.759395,0.03937143,-0.1207124
550.7693,-0.01448427,-0.8395852,-1.562005,-1.763533,0.04448073,-0.1202858
550.7838,-0.01448255,-0.840229,-1.561825,-1.76747,0.04949943,-0.1198676
550.7982,-0.01448255,-0.840229,-1.561825,-1.76747,0.04949943,-0.1198676
550.812,-0.0144812,-0.8407809,-1.561817,-1.770703,0.05284775,-0.1195869
550.8271,-0.01448013,-0.8412735,-1.56174,-1.773571,0.05613511,-0.1193118
550.8416,-0.0144792,-0.8417274,-1.561635,-1.776237,0.05936899,-0.1190421
550.8562,-0.0144792,-0.8417274,-1.561635,-1.776237,0.05936899,-0.1190421
550.8702,-0.01447835,-0.8421553,-1.56152,-1.778781,0.06254408,-0.1187776
550.8856,-0.01447768,-0.842496,-1.561594,-1.780671,0.06408098,-0.1186478
550.9001,-0.01447712,-0.8427814,-1.561595,-1.78223,0.06559032,-0.1185205
550.9149,-0.01447712,-0.8427814,-1.561595,-1.78223,0.06559032,-0.1185205
550.9288,-0.01447664,-0.8430312,-1.561563,-1.783612,0.06708208,-0.1183956
550.9443,-0.01447621,-0.8432581,-1.561519,-1.784895,0.06854965,-0.1182733
550.9587,-0.01447621,-0.8432581,-1.561519,-1.784895,0.06854965,-0.1182733
550.9726,-0.01447595,-0.8434004,-1.561671,-1.785545,0.06841215,-0.1182827
550.988,-0.0144758,-0.8434898,-1.561741,-1.785881,0.06827968,-0.1182919
551.0025,-0.01447573,-0.8435463,-1.561776,-1.786059,0.06816304,-0.118301
551.0173,-0.01447573,-0.8435463,-1.561776,-1.786059,0.06816304,-0.118301
551.0316,-0.01447586,-0.8435145,-1.561995,-1.785579,0.06647617,-0.1184392
551.0485,-0.01447613,-0.8434284,-1.562126,-1.784784,0.06482693,-0.1185748
551.0619,-0.01447647,-0.8433091,-1.562214,-1.783837,0.06322473,-0.1187077
551.0753,-0.01447647,-0.8433091,-1.562214,-1.783837,0.06322473,-0.1187077
551.0892,-0.01447686,-0.8431699,-1.562285,-1.782821,0.0616605,-0.118838
551.1047,-0.01447743,-0.8429497,-1.562542,-1.781202,0.05855231,-0.1190952
551.1191,-0.01447743,-0.8429497,-1.562542,-1.781202,0.05855231,-0.1190952
551.1329,-0.01447813,-0.8426806,-1.562711,-1.779301,0.0555101,-0.1193473
551.1483,-0.0144789,-0.8423823,-1.562837,-1.777274,0.05254218,-0.1195944
551.1626,-0.01447972,-0.8420675,-1.562942,-1.775199,0.04963929,-0.1198367
551.1771,-0.01447972,-0.8420675,-1.562942,-1.775199,0.04963929,-0.1198367
551.1912,-0.01448071,-0.8416745,-1.563224,-1.772539,0.04522025,-0.1202037
551.2065,-0.01448183,-0.841235,-1.563416,-1.769614,0.04089541,-0.1205635
551.221,-0.01448303,-0.8407689,-1.563563,-1.766579,0.0366701,-0.1209162
551.236,-0.01448303,-0.8407689,-1.563563,-1.766579,0.0366701,-0.1209162
551.2499,-0.01448458,-0.840219,-1.563865,-1.762936,0.03095996,-0.1213914
551.2653,-0.01448652,-0.8396198,-1.564073,-1.759022,0.02537332,-0.1218573
551.2798,-0.01448652,-0.8396198,-1.564073,-1.759022,0.02537332,-0.1218573
551.2949,-0.01448878,-0.838993,-1.564233,-1.755004,0.01991173,-0.1223141
551.3088,-0.01449129,-0.8383518,-1.564368,-1.750961,0.01456522,-0.1227619
551.3238,-0.01449422,-0.8376355,-1.564647,-1.746361,0.007756638,-0.1233303
551.3381,-0.01449422,-0.8376355,-1.564647,-1.746361,0.007756638,-0.1233303
551.3545,-0.01449754,-0.8368758,-1.564838,-1.741523,0.001094548,-0.1238876
551.3685,-0.01450118,-0.8360928,-1.564984,-1.736601,-0.005422586,-0.124434
551.3821,-0.01450506,-0.835299,-1.565104,-1.731674,-0.01180401,-0.1249697
551.3967,-0.01450506,-0.835299,-1.565104,-1.731674,-0.01180401,-0.1249697
551.4104,-0.01450934,-0.8344327,-1.565347,-1.726205,-0.0196217,-0.1256242
551.4257,-0.01451401,-0.8335255,-1.565507,-1.720512,-0.02727121,-0.126266
551.4401,-0.01451898,-0.8325973,-1.565625,-1.714749,-0.03475734,-0.1268951
551.455,-0.01451898,-0.8325973,-1.565625,-1.714749,-0.03475734,-0.1268951
551.4689,-0.01452441,-0.8315907,-1.565837,-1.708419,-0.04364991,-0.1276413
551.4843,-0.01453027,-0.8305404,-1.565969,-1.701859,-0.0523512,-0.1283728
551.4987,-0.01453027,-0.8305404,-1.565969,-1.701859,-0.0523512,-0.1283728
551.5128,-0.01453646,-0.8294678,-1.566058,-1.695231,-0.06086852,-0.1290901
551.5283,-0.01454289,-0.8283862,-1.56612,-1.688617,-0.06921039,-0.1297932
551.5429,-0.0145491,-0.8273042,-1.566164,-1.682058,-0.07738227,-0.1304817
551.5576,-0.0145491,-0.8273042,-1.566164,-1.682058,-0.07738227,-0.1304817
551.5715,-0.01455518,-0.8262269,-1.566194,-1.675572,-0.08538868,-0.1311567
551.587,-0.01456119,-0.8251573,-1.566211,-1.669169,-0.09323347,-0.1318184
551.6014,-0.01456717,-0.8240973,-1.566218,-1.662853,-0.1009202,-0.1324672
551.6161,-0.01456717,-0.8240973,-1.566218,-1.662853,-0.1009202,-0.1324672
551.6299,-0.01457294,-0.8231171,-1.566149,-1.657199,-0.1069098,-0.132974
551.6464,-0.01457845,-0.8221907,-1.566111,-1.651908,-0.1127848,-0.1334708
551.6609,-0.01458375,-0.8213016,-1.566083,-1.646836,-0.1185451,-0.1339579
551.6746,-0.01458375,-0.8213016,-1.566083,-1.646836,-0.1185451,-0.1339579
551.6887,-0.01458867,-0.8205087,-1.566008,-1.642483,-0.1226548,-0.1343062
551.7037,-0.01459322,-0.8197789,-1.565962,-1.638513,-0.1266861,-0.1346476
551.7181,-0.01459322,-0.8197789,-1.565962,-1.638513,-0.1266861,-0.1346476
551.7322,-0.01459746,-0.8190911,-1.565927,-1.634762,-0.1306388,-0.1349824
551.7475,-0.01460146,-0.8184325,-1.565896,-1.631149,-0.1345135,-0.1353106
551.7621,-0.01460508,-0.8178639,-1.565831,-1.628204,-0.1367804,-0.1355031
551.7767,-0.01460508,-0.8178639,-1.565831,-1.628204,-0.1367804,-0.1355031
551.7908,-0.01460833,-0.8173537,-1.565787,-1.625606,-0.139003,-0.1356918
551.806,-0.01461128,-0.8168816,-1.565751,-1.623201,-0.1411819,-0.1358769
551.8209,-0.01461399,-0.8164352,-1.565719,-1.62091,-0.1433176,-0.1360583
551.8355,-0.01461399,-0.8164352,-1.565719,-1.62091,-0.1433176,-0.1360583
551.8494,-0.01461633,-0.816076,-1.565663,-1.619265,-0.1438833,-0.1361069
551.8647,-0.0146183,-0.8157721,-1.565622,-1.617949,-0.1444366,-0.1361545
551.8793,-0.0146183,-0.8157721,-1.565622,-1.617949,-0.1444366,-0.1361545
551.893,-0.01461997,-0.8155038,-1.565587,-1.616805,-0.1449784,-0.1362013
551.909,-0.01462121,-0.815328,-1.565534,-1.61633,-0.1439824,-0.1361178
551.9232,-0.01462212,-0.81521,-1.565492,-1.616184,-0.1430037,-0.136036
551.9383,-0.01462212,-0.81521,-1.565492,-1.616184,-0.1430037,-0.136036
551.9525,-0.01462286,-0.8151282,-1.565455,-1.616204,-0.1420429,-0.1359558
551.9669,-0.01462352,-0.8150691,-1.56542,-1.616306,-0.1411002,-0.1358772
551.9816,-0.01462401,-0.8150921,-1.565365,-1.617024,-0.1386484,-0.1356709
551.9963,-0.01462401,-0.8150921,-1.565365,-1.617024,-0.1386484,-0.1356709
552.0097,-0.01462437,-0.8151657,-1.565318,-1.618037,-0.1362419,-0.1354685
552.025,-0.01462466,-0.8152701,-1.565274,-1.619188,-0.133881,-0.1352702
552.0396,-0.01462466,-0.8152701,-1.565274,-1.619188,-0.133881,-0.1352702
552.0538,-0.01462477,-0.8154624,-1.565207,-1.620974,-0.1300367,-0.1349465
552.0692,-0.01462475,-0.815708,-1.565146,-1.623056,-0.1262644,-0.1346291
552.0838,-0.01462465,-0.8159855,-1.565088,-1.625271,-0.1225639,-0.1343179
552.0983,-0.01462465,-0.8159855,-1.565088,-1.625271,-0.1225639,-0.1343179
552.112,-0.0146245,-0.8162814,-1.56503,-1.627535,-0.1189344,-0.1340128
552.1276,-0.01462418,-0.8166566,-1.564938,-1.630383,-0.1138427,-0.1335845
552.1423,-0.01462374,-0.8170791,-1.564855,-1.633492,-0.1088478,-0.1331645
552.1568,-0.01462374,-0.8170791,-1.564855,-1.633492,-0.1088478,-0.1331645
552.1709,-0.01462323,-0.8175288,-1.564773,-1.63671,-0.1039485,-0.1327527
552.1868,-0.01462266,-0.8179935,-1.56469,-1.639959,-0.09914328,-0.132349
552.2012,-0.01462194,-0.8185344,-1.564561,-1.643772,-0.09289335,-0.1318239
552.2154,-0.01462194,-0.8185344,-1.564561,-1.643772,-0.09289335,-0.1318239
552.2328,-0.01462109,-0.81912,-1.564443,-1.647833,-0.08676343,-0.1313092
552.2457,-0.01462016,-0.8197306,-1.564327,-1.651987,-0.08075137,-0.1308044
552.2592,-0.01462016,-0.8197306,-1.564327,-1.651987,-0.08075137,-0.1308044
552.2731,-0.01461906,-0.8204231,-1.564153,-1.65673,-0.07331276,-0.1301803
552.2883,-0.01461776,-0.8211631,-1.563992,-1.661726,-0.06601764,-0.1295685
552.3028,-0.01461622,-0.8219291,-1.563834,-1.666811,-0.05886299,-0.1289686
552.3173,-0.01461622,-0.8219291,-1.563834,-1.666811,-0.05886299,-0.1289686
552.3314,-0.01461446,-0.8227077,-1.563676,-1.671905,-0.05184567,-0.1283804
552.3466,-0.01461236,-0.8235599,-1.563437,-1.67754,-0.04341312,-0.1276745
552.3612,-0.0146099,-0.8244537,-1.563218,-1.683396,-0.03514463,-0.1269824
552.3759,-0.0146099,-0.8244537,-1.563218,-1.683396,-0.03514463,-0.1269824
552.3902,-0.01460715,-0.8253691,-1.563004,-1.68932,-0.02703618,-0.1263039
552.4054,-0.01460418,-0.8262937,-1.56279,-1.695236,-0.01908359,-0.1256386
552.42,-0.01460418,-0.8262937,-1.56279,-1.695236,-0.01908359,-0.1256386
552.434,-0.01460086,-0.8272892,-1.562472,-1.70168,-0.009724979,-0.1248571
552.4493,-0.01459718,-0.828324,-1.562182,-1.708331,-0.0005495688,-0.124091
552.4641,-0.01459323,-0.8293784,-1.561901,-1.715039,0.008447049,-0.1233398
552.4783,-0.01459323,-0.8293784,-1.561901,-1.715039,0.008447049,-0.1233398
552.4924,-0.01459145,-0.8296087,-1.563101,-1.714842,-0.001515357,-0.124155
552.5079,-0.01459159,-0.829331,-1.563719,-1.711298,-0.01118483,-0.1249541
552.5234,-0.01459272,-0.8287411,-1.564062,-1.706122,-0.02058006,-0.1257375
552.538,-0.01459272,-0.8287411,-1.564062,-1.706122,-0.02058006,-0.1257375
552.552,-0.01459467,-0.827961,-1.564272,-1.700168,-0.02975022,-0.1265056
552.5663,-0.01459731,-0.8271363,-1.564307,-1.694437,-0.03716088,-0.1271292
552.5808,-0.01460043,-0.8262879,-1.56436,-1.688846,-0.0444255,-0.1277407
552.5955,-0.01460043,-0.8262879,-1.56436,-1.688846,-0.0444255,-0.1277407
552.6092,-0.01460391,-0.8254286,-1.564416,-1.68336,-0.05154746,-0.1283401
552.6246,-0.01460763,-0.8245664,-1.564467,-1.677963,-0.05852778,-0.1289278
552.6393,-0.01460763,-0.8245664,-1.564467,-1.677963,-0.05852778,-0.1289278
552.6535,-0.01461134,-0.8237756,-1.564429,-1.673221,-0.06381801,-0.1293746
552.6687,-0.01461494,-0.8230323,-1.564428,-1.668832,-0.06901027,-0.1298127
552.6835,-0.01461842,-0.8223218,-1.564441,-1.664649,-0.07410326,-0.1302422
552.6982,-0.01461842,-0.8223218,-1.564441,-1.664649,-0.07410326,-0.1302422
552.712,-0.0146216,-0.8217039,-1.564388,-1.661172,-0.07755072,-0.1305339
552.7275,-0.01462447,-0.8211459,-1.564371,-1.658065,-0.08093601,-0.13082
552.7422,-0.01462706,-0.8206275,-1.564369,-1.655166,-0.08425744,-0.1311004
552.757,-0.01462706,-0.8206275,-1.564369,-1.655166,-0.08425744,-0.1311004
552.7714,-0.01462945,-0.8201357,-1.564371,-1.652391,-0.08751433,-0.1313753
552.7862,-0.01463149,-0.819732,-1.564318,-1.650272,-0.08916579,-0.1315156
552.803,-0.01463319,-0.8193843,-1.564293,-1.648489,-0.09078849,-0.131653
552.8163,-0.01463319,-0.8193843,-1.564293,-1.648489,-0.09078849,-0.131653
552.8304,-0.0146346,-0.8190728,-1.56428,-1.646886,-0.09238114,-0.1317878
552.8444,-0.0146358,-0.818785,-1.564272,-1.645385,-0.09394314,-0.13192
552.8591,-0.0146358,-0.818785,-1.564272,-1.645385,-0.09394314,-0.13192
552.8729,-0.01463673,-0.8185825,-1.564216,-1.64452,-0.09393556,-0.1319202
552.888,-0.01463749,-0.8184334,-1.564183,-1.643971,-0.09393057,-0.1319205
552.9028,-0.01463815,-0.8183181,-1.56416,-1.643583,-0.09392689,-0.1319208
552.9173,-0.01463815,-0.8183181,-1.56416,-1.643583,-0.09392689,-0.1319208
552.9315,-0.01463865,-0.8182933,-1.564093,-1.643853,-0.09238505,-0.1317917
552.9467,-0.014639,-0.8183231,-1.564048,-1.644442,-0.09087521,-0.1316652
552.9611,-0.01463928,-0.8183863,-1.564012,-1.645186,-0.08939579,-0.1315411
552.976,-0.01463928,-0.8183863,-1.564012,-1.645186,-0.08939579,-0.1315411
552.99,-0.01463951,-0.8184699,-1.56398,-1.646003,-0.08794554,-0.1314195
553.0055,-0.01463959,-0.818635,-1.563899,-1.647423,-0.08498377,-0.1311709
553.0198,-0.01463959,-0.818635,-1.563899,-1.647423,-0.08498377,-0.1311709
553.0344,-0.01463955,-0.8188497,-1.563837,-1.649127,-0.08208133,-0.1309273
553.0493,-0.01463943,-0.8190941,-1.563784,-1.650961,-0.07923622,-0.1306884
553.0641,-0.01463927,-0.8193555,-1.563733,-1.652846,-0.0764467,-0.1304541
553.0784,-0.01463927,-0.8193555,-1.563733,-1.652846,-0.0764467,-0.1304541
553.0945,-0.01463895,-0.8196958,-1.563625,-1.655316,-0.07216875,-0.1300952
553.109,-0.01463852,-0.820083,-1.563538,-1.658054,-0.06797586,-0.1297433
553.1227,-0.01463802,-0.8204976,-1.563459,-1.660904,-0.06386539,-0.1293982
553.1368,-0.01463802,-0.8204976,-1.563459,-1.660904,-0.06386539,-0.1293982
553.1508,-0.01463734,-0.8209965,-1.563315,-1.664364,-0.05828897,-0.1289306
553.1661,-0.01463654,-0.8215452,-1.563194,-1.668096,-0.05282302,-0.1284722
553.1808,-0.01463566,-0.8221221,-1.563081,-1.671935,-0.04746418,-0.1280228
553.1953,-0.01463566,-0.8221221,-1.563081,-1.671935,-0.04746418,-0.1280228
553.209,-0.01463472,-0.8227139,-1.56297,-1.675802,-0.04220936,-0.1275821
553.2245,-0.01463363,-0.8233814,-1.562777,-1.680229,-0.03550442,-0.1270208
553.2388,-0.01463363,-0.8233814,-1.562777,-1.680229,-0.03550442,-0.1270208
553.2529,-0.01463241,-0.8240928,-1.56261,-1.684894,-0.02893243,-0.1264705
553.2683,-0.01463096,-0.824828,-1.562452,-1.689646,-0.02248947,-0.1259309
553.2829,-0.01462932,-0.8255746,-1.562296,-1.694406,-0.01617153,-0.1254019
553.2977,-0.01462932,-0.8255746,-1.562296,-1.694406,-0.01617153,-0.1254019
553.3117,-0.01462736,-0.8263943,-1.562039,-1.699711,-0.008416967,-0.124754
553.3269,-0.01462507,-0.8272552,-1.561814,-1.705241,-0.0008165245,-0.1241188
553.3414,-0.0146225,-0.8281379,-1.561601,-1.710844,0.006634171,-0.123496
553.3563,-0.0146225,-0.8281379,-1.561601,-1.710844,0.006634171,-0.123496
553.3713,-0.01461949,-0.82903,-1.56139,-1.716444,0.01394151,-0.1228853
553.3876,-0.01461619,-0.8299241,-1.56118,-1.722003,0.02110765,-0.1222866
553.4009,-0.01461269,-0.8308153,-1.56097,-1.727502,0.02813555,-0.1216997
553.4144,-0.01461269,-0.8308153,-1.56097,-1.727502,0.02813555,-0.1216997
553.4285,-0.01460907,-0.8317007,-1.560759,-1.732932,0.03502787,-0.1211243
553.4437,-0.01460537,-0.8325787,-1.560547,-1.73829,0.04178713,-0.1205601
553.4584,-0.01460537,-0.8325787,-1.560547,-1.73829,0.04178713,-0.1205601
553.472,-0.01460163,-0.833448,-1.560335,-1.743573,0.04841578,-0.120007
553.4875,-0.01459786,-0.8343081,-1.560123,-1.748782,0.05491621,-0.1194648
553.5021,-0.01459408,-0.8351588,-1.559912,-1.753916,0.06129075,-0.1189332
553.5168,-0.01459408,-0.8351588,-1.559912,-1.753916,0.06129075,-0.1189332
553.5308,-0.0145903,-0.8359997,-1.559701,-1.758977,0.06754171,-0.1184121
553.546,-0.01458652,-0.8368309,-1.559491,-1.763965,0.07367135,-0.1179011
553.5607,-0.01458275,-0.8376524,-1.559282,-1.768881,0.07968189,-0.1174002
553.5754,-0.01458275,-0.8376524,-1.559282,-1.768881,0.07968189,-0.1174002
553.5896,-0.01457899,-0.8384641,-1.559075,-1.773726,0.08557552,-0.1169091
553.6049,-0.01457524,-0.8392662,-1.558869,-1.778501,0.09135439,-0.1164276
553.6194,-0.01457524,-0.8392662,-1.558869,-1.778501,0.09135439,-0.1164276
553.6335,-0.0145715,-0.8400589,-1.558664,-1.783208,0.09702062,-0.1159556
553.6489,-0.01456778,-0.840842,-1.558461,-1.787847,0.1025763,-0.1154929
553.6635,-0.01456407,-0.8416159,-1.558261,-1.792419,0.1080234,-0.1150392
553.6791,-0.01456407,-0.8416159,-1.558261,-1.792419,0.1080234,-0.1150392
553.6929,-0.01456038,-0.8423805,-1.558062,-1.796925,0.1133641,-0.1145945
553.7074,-0.0145567,-0.843136,-1.557866,-1.801367,0.1186002,-0.1141584
553.722,-0.01455303,-0.8438824,-1.557672,-1.805744,0.1237338,-0.1137309
553.7366,-0.01455303,-0.8438824,-1.557672,-1.805744,0.1237338,-0.1137309
553.7505,-0.01454938,-0.8446199,-1.557481,-1.810059,0.1287666,-0.1133118
553.7658,-0.01454575,-0.8453487,-1.557292,-1.814312,0.1337007,-0.112901
553.7805,-0.01454213,-0.8460687,-1.557106,-1.818503,0.1385379,-0.1124982
553.7952,-0.01454213,-0.8460687,-1.557106,-1.818503,0.1385379,-0.1124982
553.8091,-0.01453852,-0.8467801,-1.556923,-1.822634,0.14328,-0.1121033
553.8245,-0.01453494,-0.847483,-1.556743,-1.826706,0.1479288,-0.1117161
553.8391,-0.01453494,-0.847483,-1.556743,-1.826706,0.1479288,-0.1117161
553.8532,-0.01453137,-0.8481776,-1.556566,-1.83072,0.152486,-0.1113366
553.8687,-0.01452781,-0.8488638,-1.556393,-1.834676,0.1569534,-0.1109645
553.8835,-0.01452427,-0.8495418,-1.556222,-1.838575,0.1613326,-0.1105997
553.8981,-0.01452427,-0.8495418,-1.556222,-1.838575,0.1613326,-0.1105997
553.9119,-0.01452075,-0.8502118,-1.556055,-1.842418,0.1656254,-0.110242
553.9274,-0.01451724,-0.8508738,-1.555891,-1.846205,0.1698335,-0.1098914
553.9418,-0.01451375,-0.8515278,-1.55573,-1.849939,0.1739583,-0.1095476
553.9576,-0.01451375,-0.8515278,-1.55573,-1.849939,0.1739583,-0.1095476
553.9716,-0.01451027,-0.852174,-1.555573,-1.853619,0.1780015,-0.1092106
553.9862,-0.01450681,-0.8528126,-1.555419,-1.857246,0.1819647,-0.1088803
554.0005,-0.01450337,-0.8534435,-1.555269,-1.860821,0.1858494,-0.1085563
554.015,-0.01450337,-0.8534435,-1.555269,-1.860821,0.1858494,-0.1085563
554.029,-0.01449994,-0.8540668,-1.555122,-1.864345,0.189657,-0.1082388
554.0443,-0.01449653,-0.8546827,-1.554979,-1.867818,0.1933892,-0.1079275
554.059,-0.01449653,-0.8546827,-1.554979,-1.867818,0.1933892,-0.1079275
554.0751,-0.01449314,-0.8552913,-1.554839,-1.871242,0.1970473,-0.1076223
554.0884,-0.01448976,-0.8558926,-1.554703,-1.874616,0.2006327,-0.1073231
554.1031,-0.0144864,-0.8564867,-1.55457,-1.877942,0.204147,-0.1070297
554.1178,-0.0144864,-0.8564867,-1.55457,-1.877942,0.204147,-0.1070297
554.1321,-0.01448306,-0.8570737,-1.554441,-1.88122,0.2075913,-0.1067421
554.1474,-0.01447974,-0.8576537,-1.554316,-1.884452,0.2109672,-0.1064602
554.1621,-0.01447643,-0.8582268,-1.554194,-1.887637,0.2142759,-0.1061838
554.1766,-0.01447643,-0.8582268,-1.554194,-1.887637,0.2142759,-0.1061838
554.1908,-0.01447313,-0.8587931,-1.554076,-1.890776,0.2175187,-0.1059128
554.206,-0.01446986,-0.8593525,-1.553962,-1.89387,0.220697,-0.1056471
554.2228,-0.0144666,-0.8599053,-1.553851,-1.89692,0.2238119,-0.1053866
554.2363,-0.0144666,-0.8599053,-1.553851,-1.89692,0.2238119,-0.1053866
554.2502,-0.01446336,-0.8604515,-1.553744,-1.899926,0.2268647,-0.1051313
554.2648,-0.01446014,-0.8609912,-1.55364,-1.902889,0.2298567,-0.1048809
554.2791,-0.01446014,-0.8609912,-1.55364,-1.902889,0.2298567,-0.1048809
554.2928,-0.01445693,-0.8615244,-1.55354,-1.905809,0.232789,-0.1046355
554.3085,-0.01445374,-0.8620512,-1.553443,-1.908688,0.2356627,-0.1043949
554.3226,-0.01445056,-0.8625718,-1.55335,-1.911525,0.2384791,-0.104159
554.3372,-0.01445056,-0.8625718,-1.55335,-1.911525,0.2384791,-0.104159
554.3511,-0.01444741,-0.8630862,-1.55326,-1.914322,0.2412392,-0.1039277
554.3666,-0.01444427,-0.8635944,-1.553174,-1.917078,0.2439442,-0.103701
554.3811,-0.01444115,-0.8640965,-1.553091,-1.919795,0.2465951,-0.1034787
554.3958,-0.01444115,-0.8640965,-1.553091,-1.919795,0.2465951,-0.1034787
554.4094,-0.01443804,-0.8645926,-1.553012,-1.922473,0.2491931,-0.1032607
554.4249,-0.01443496,-0.8650829,-1.552936,-1.925112,0.2517391,-0.1030471
554.4395,-0.01443496,-0.8650829,-1.552936,-1.925112,0.2517391,-0.1030471
554.4534,-0.01443189,-0.8655672,-1.552863,-1.927714,0.2542341,-0.1028376
554.4687,-0.01442883,-0.8660458,-1.552793,-1.930278,0.2566792,-0.1026323
554.4835,-0.0144258,-0.8665186,-1.552727,-1.932805,0.2590754,-0.1024309
554.4979,-0.0144258,-0.8665186,-1.552727,-1.932805,0.2590754,-0.1024309
554.5115,-0.01442278,-0.8669859,-1.552664,-1.935296,0.2614236,-0.1022336
554.5292,-0.01441978,-0.8674475,-1.552604,-1.937752,0.2637249,-0.10204
554.5426,-0.0144168,-0.8679036,-1.552547,-1.940172,0.26598,-0.1018503
554.5562,-0.0144168,-0.8679036,-1.552547,-1.940172,0.26598,-0.1018503
554.5702,-0.01441383,-0.8683543,-1.552494,-1.942557,0.2681899,-0.1016643
554.5855,-0.01441088,-0.8687996,-1.552443,-1.944908,0.2703556,-0.101482
554.6,-0.01440795,-0.8692396,-1.552396,-1.947226,0.2724778,-0.1013032
554.6144,-0.01440795,-0.8692396,-1.552396,-1.947226,0.2724778,-0.1013032
554.6282,-0.01440503,-0.8696744,-1.552351,-1.94951,0.2745575,-0.1011279
554.6434,-0.01440214,-0.8701039,-1.552309,-1.951761,0.2765955,-0.1009561
554.658,-0.01440214,-0.8701039,-1.552309,-1.951761,0.2765955,-0.1009561
554.6721,-0.01439925,-0.8705283,-1.552271,-1.95398,0.2785926,-0.1007876
554.6873,-0.01439639,-0.8709476,-1.552235,-1.956167,0.2805497,-0.1006225
554.7018,-0.01439355,-0.8713619,-1.552201,-1.958323,0.2824675,-0.1004606
554.7166,-0.01439355,-0.8713619,-1.552201,-1.958323,0.2824675,-0.1004606
554.7306,-0.01439072,-0.8717713,-1.552171,-1.960448,0.2843468,-0.1003018
554.7457,-0.0143879,-0.8721758,-1.552143,-1.962542,0.2861883,-0.1001462
554.7601,-0.01438511,-0.8725754,-1.552118,-1.964606,0.287993,-0.0999936
554.775,-0.01438511,-0.8725754,-1.552118,-1.964606,0.287993,-0.0999936
