JMolnar6/NonAnthroHands_User_Study/HandsLoggerWithURDF/tempdata/files/Reachy_JointMotion_gesture_7_35.csv
Time,r_shoulder,r_shoulder_x,r_upper_arm,r_forearm,r_wrist,r_wrist2hand,
638.6995,-0.09768689,0.000504307,NaN,-0.3271227,0.000422092,NaN,0.4548274,-14.37499,NaN,-2.170312,-1.464417,-0.3695348,14.11123,NaN,NaN,-0.05912321,0.822284,3.963943E-07,1.034458,-5.43825E-09,1.381187
638.716,-0.09731936,0.0005040221,NaN,-0.3271203,0.0004223803,NaN,0.4548128,-14.37474,NaN,-2.170479,-1.462903,-0.3693414,14.10955,NaN,NaN,-0.05835588,0.8224884,3.909553E-07,1.032217,-5.43825E-09,1.375561
638.7293,-0.09649314,0.0005039048,NaN,-0.3271171,0.0004225289,NaN,0.454717,-14.37619,NaN,-2.170761,-1.467605,-0.3691976,14.1148,NaN,NaN,-0.05760363,0.8211831,3.852556E-07,1.039176,-3.054064E-09,1.385273
638.7443,-0.09538177,0.0005041761,NaN,-0.3271136,0.0004231294,NaN,0.454605,-14.37614,NaN,-2.171049,-1.465904,-0.3690836,14.11295,NaN,NaN,-0.05686621,0.8211902,3.79854E-07,1.036675,-5.43825E-09,1.386125
638.7593,-0.09538177,0.0005041761,NaN,-0.3271136,0.0004231294,NaN,0.454605,-14.37614,NaN,-2.171049,-1.465904,-0.3690836,14.11295,NaN,NaN,-0.05686621,0.8211902,3.79854E-07,1.036675,-5.43825E-09,1.386125
638.7734,-0.09409562,0.0005048636,NaN,-0.32711,0.0004234602,NaN,0.4545043,-14.37668,NaN,-2.171308,-1.471953,-0.36898,14.11951,NaN,NaN,-0.05614329,0.8208019,3.727014E-07,1.045564,-5.43825E-09,1.391312
638.7893,-0.09343319,0.0005046022,NaN,-0.3271089,0.0004235134,NaN,0.4545833,-14.37521,NaN,-2.171143,-1.462733,-0.3689098,14.10943,NaN,NaN,-0.05543496,0.8221058,3.588992E-07,1.031998,-4.246157E-09,1.380044
638.8041,-0.09316596,0.000504384,NaN,-0.3271087,0.0004237213,NaN,0.4547591,-14.37519,NaN,-2.170829,-1.465062,-0.3687897,14.11193,NaN,NaN,-0.05474049,0.8221893,3.454882E-07,1.03542,-5.43825E-09,1.379048
638.8192,-0.09316596,0.000504384,NaN,-0.3271087,0.0004237213,NaN,0.4547591,-14.37519,NaN,-2.170829,-1.465062,-0.3687897,14.11193,NaN,NaN,-0.05474049,0.8221893,3.454882E-07,1.03542,-5.43825E-09,1.379048
638.8334,-0.09314854,0.0005049297,NaN,-0.3271087,0.0004234707,NaN,0.4549634,-14.37515,NaN,-2.170481,-1.476882,-0.3686395,14.12464,NaN,NaN,-0.05405957,0.8225264,3.321516E-07,1.05278,-4.246157E-09,1.383501
638.849,-0.09328729,0.0005047713,NaN,-0.3271087,0.0004232363,NaN,0.4551649,-14.37511,NaN,-2.170141,-1.466793,-0.3684794,14.11377,NaN,NaN,-0.05339196,0.8224311,3.202307E-07,1.037953,5.222143E-10,1.379663
638.8649,-0.09425201,0.0005048803,NaN,-0.3271104,0.0004238362,NaN,0.4555164,-14.37532,NaN,-2.169435,-1.463286,-0.3683499,14.11001,NaN,NaN,-0.05273781,0.8221436,3.029826E-07,1.032806,-6.698786E-10,1.379753
638.8788,-0.09425201,0.0005048803,NaN,-0.3271104,0.0004238362,NaN,0.4555164,-14.37532,NaN,-2.169435,-1.463286,-0.3683499,14.11001,NaN,NaN,-0.05273781,0.8221436,3.029826E-07,1.032806,-6.698786E-10,1.379753
638.8933,-0.09573242,0.0005051917,NaN,-0.3271127,0.0004234887,NaN,0.4559347,-14.37671,NaN,-2.168635,-1.476584,-0.3681753,14.1245,NaN,NaN,-0.05209643,0.8211315,2.841327E-07,1.05239,-6.698786E-10,1.391975
638.9086,-0.09753111,0.0005056827,NaN,-0.3271149,0.0004246593,NaN,0.4563567,-14.37585,NaN,-2.167846,-1.46346,-0.3679772,14.11031,NaN,NaN,-0.05146755,0.8218321,2.699207E-07,1.033113,-1.861971E-09,1.385929
638.9235,-0.09952253,0.0005058863,NaN,-0.3271166,0.0004253762,NaN,0.4567572,-14.37605,NaN,-2.167102,-1.462758,-0.3677748,14.10958,NaN,NaN,-0.05085095,0.8216207,2.558391E-07,1.032091,5.290586E-09,1.38454
638.9384,-0.09952253,0.0005058863,NaN,-0.3271166,0.0004253762,NaN,0.4567572,-14.37605,NaN,-2.167102,-1.462758,-0.3677748,14.10958,NaN,NaN,-0.05085095,0.8216207,2.558391E-07,1.032091,5.290586E-09,1.38454
638.9527,-0.1023552,0.0005051296,NaN,-0.3271202,0.0004252121,NaN,0.4572941,-14.37592,NaN,-2.166019,-1.462042,-0.3676048,14.10879,NaN,NaN,-0.05024679,0.8217427,2.357225E-07,1.031035,5.222143E-10,1.384413
638.9683,-0.1057052,0.0005040616,NaN,-0.3271241,0.0004249598,NaN,0.4578865,-14.37579,NaN,-2.164865,-1.46174,-0.3673923,14.10844,NaN,NaN,-0.04965442,0.8218718,2.160716E-07,1.030588,6.482678E-09,1.381757
638.9835,-0.1093668,0.0005034183,NaN,-0.3271273,0.0004243825,NaN,0.4584733,-14.37743,NaN,-2.163742,-1.471323,-0.3671587,14.11897,NaN,NaN,-0.04907357,0.8205138,1.970354E-07,1.044725,8.866865E-09,1.392118
638.9984,-0.1093668,0.0005034183,NaN,-0.3271273,0.0004243825,NaN,0.4584733,-14.37743,NaN,-2.163742,-1.471323,-0.3671587,14.11897,NaN,NaN,-0.04907357,0.8205138,1.970354E-07,1.044725,8.866865E-09,1.392118
639.0128,-0.1139373,0.0005032756,NaN,-0.327132,0.0004250841,NaN,0.4591945,-14.37621,NaN,-2.162291,-1.462398,-0.3669488,14.10925,NaN,NaN,-0.04850443,0.8215724,1.712936E-07,1.031604,8.866865E-09,1.3862
639.0284,-0.1190606,0.000503237,NaN,-0.3271363,0.0004256805,NaN,0.4599617,-14.37626,NaN,-2.160788,-1.462293,-0.3666951,14.10913,NaN,NaN,-0.04794637,0.8215181,1.476939E-07,1.03145,8.866865E-09,1.38605
639.0438,-0.1245101,0.0005037686,NaN,-0.3271393,0.0004254282,NaN,0.4607129,-14.37622,NaN,-2.159334,-1.476835,-0.3664218,14.12475,NaN,NaN,-0.04739916,0.8219626,1.255843E-07,1.052791,1.482733E-08,1.389481
639.0585,-0.1245101,0.0005037686,NaN,-0.3271393,0.0004254282,NaN,0.4607129,-14.37622,NaN,-2.159334,-1.476835,-0.3664218,14.12475,NaN,NaN,-0.04739916,0.8219626,1.255843E-07,1.052791,1.482733E-08,1.389481
639.0739,-0.1301421,0.0005033574,NaN,-0.3271407,0.0004252412,NaN,0.4614257,-14.37656,NaN,-2.157957,-1.462976,-0.3661481,14.10987,NaN,NaN,-0.04686262,0.8214464,1.053746E-07,1.03244,1.482733E-08,1.387334
639.0884,-0.1365935,0.0005039603,NaN,-0.3271432,0.0004255191,NaN,0.4622622,-14.37624,NaN,-2.156272,-1.470457,-0.3659049,14.11787,NaN,NaN,-0.04633692,0.8219752,7.950247E-08,1.043414,1.482733E-08,1.388863
639.1031,-0.1435335,0.0005040261,NaN,-0.3271446,0.0004258069,NaN,0.4631404,-14.37647,NaN,-2.154541,-1.463762,-0.3656211,14.1107,NaN,NaN,-0.04582145,0.8216124,5.385385E-08,1.033595,1.601942E-08,1.383225
639.118,-0.1435335,0.0005040261,NaN,-0.3271446,0.0004258069,NaN,0.4631404,-14.37647,NaN,-2.154541,-1.463762,-0.3656211,14.1107,NaN,NaN,-0.04582145,0.8216124,5.385385E-08,1.033595,1.601942E-08,1.383225
639.1336,-0.1507516,0.0005040604,NaN,-0.327145,0.0004259225,NaN,0.4640007,-14.37789,NaN,-2.152863,-1.467608,-0.3653196,14.11502,NaN,NaN,-0.04531599,0.8203053,3.109232E-08,1.039297,1.601942E-08,1.392351
639.1479,-0.1581146,0.0005041979,NaN,-0.3271448,0.0004260905,NaN,0.4648212,-14.37796,NaN,-2.151265,-1.468383,-0.3650187,14.11586,NaN,NaN,-0.04482039,0.8202459,9.783664E-09,1.040439,1.244314E-08,1.393274
639.1629,-0.1662661,0.0005045531,NaN,-0.3271454,0.0004268914,NaN,0.4657648,-14.3776,NaN,-2.149363,-1.464061,-0.3647447,14.11118,NaN,NaN,-0.04433481,0.8205099,-1.554831E-08,1.034094,1.363524E-08,1.391796
639.1779,-0.1662661,0.0005045531,NaN,-0.3271454,0.0004268914,NaN,0.4657648,-14.3776,NaN,-2.149363,-1.464061,-0.3647447,14.11118,NaN,NaN,-0.04433481,0.8205099,-1.554831E-08,1.034094,1.363524E-08,1.391796
639.1923,-0.1748795,0.0005048407,NaN,-0.3271453,0.0004264079,NaN,0.4667467,-14.37777,NaN,-2.147421,-1.47775,-0.3644306,14.12588,NaN,NaN,-0.04385866,0.8206966,-4.140183E-08,1.054171,1.005896E-08,1.393778
639.2079,-0.1837474,0.00050491,NaN,-0.3271444,0.0004265699,NaN,0.467707,-14.37743,NaN,-2.145537,-1.466947,-0.3640999,14.11424,NaN,NaN,-0.04339176,0.820907,-6.542994E-08,1.038317,8.866865E-09,1.390198
639.223,-0.1927382,0.0005049846,NaN,-0.327143,0.0004262399,NaN,0.4686243,-14.37876,NaN,-2.14374,-1.472962,-0.3637707,14.12086,NaN,NaN,-0.04293395,0.8197185,-8.79307E-08,1.047183,1.244314E-08,1.397808
639.2379,-0.1927382,0.0005049846,NaN,-0.327143,0.0004262399,NaN,0.4686243,-14.37876,NaN,-2.14374,-1.472962,-0.3637707,14.12086,NaN,NaN,-0.04293395,0.8197185,-8.79307E-08,1.047183,1.244314E-08,1.397808
639.252,-0.202497,0.000504797,NaN,-0.3271424,0.0004262067,NaN,0.4696622,-14.37748,NaN,-2.141646,-1.465899,-0.3634657,14.11314,NaN,NaN,-0.04248541,0.8208683,-1.128156E-07,1.036801,1.482733E-08,1.388908
639.2686,-0.212698,0.0005044758,NaN,-0.327141,0.0004253378,NaN,0.470734,-14.37926,NaN,-2.139518,-1.475557,-0.3631213,14.12374,NaN,NaN,-0.04204557,0.8193331,-1.382966E-07,1.051028,2.078779E-08,1.399388
639.2825,-0.2231344,0.0005042813,NaN,-0.3271387,0.0004254332,NaN,0.4717799,-14.37851,NaN,-2.137456,-1.465758,-0.362762,14.11316,NaN,NaN,-0.04161426,0.8199444,-1.609464E-07,1.03666,2.436407E-08,1.392146
639.2974,-0.2231344,0.0005042813,NaN,-0.3271387,0.0004254332,NaN,0.4717799,-14.37851,NaN,-2.137456,-1.465758,-0.362762,14.11316,NaN,NaN,-0.04161426,0.8199444,-1.609464E-07,1.03666,2.436407E-08,1.392146
639.3115,-0.2344034,0.0005039582,NaN,-0.327137,0.00042562,NaN,0.4729457,-14.37901,NaN,-2.135103,-1.464002,-0.3624183,14.11134,NaN,NaN,-0.04119166,0.8194075,-1.902272E-07,1.034101,2.317198E-08,1.392883
639.3271,-0.246149,0.0005041198,NaN,-0.3271342,0.0004263002,NaN,0.4741367,-14.37987,NaN,-2.132731,-1.46345,-0.3620349,14.11085,NaN,NaN,-0.04077724,0.8185392,-2.159317E-07,1.033321,1.482733E-08,1.402177
639.3422,-0.2581451,0.0005037956,NaN,-0.3271295,0.0004265076,NaN,0.4752929,-14.37963,NaN,-2.130441,-1.462554,-0.3616385,14.10986,NaN,NaN,-0.04037085,0.8187572,-2.370913E-07,1.031999,8.866864E-09,1.396796
639.3571,-0.2581451,0.0005037956,NaN,-0.3271295,0.0004265076,NaN,0.4752929,-14.37963,NaN,-2.130441,-1.462554,-0.3616385,14.10986,NaN,NaN,-0.04037085,0.8187572,-2.370913E-07,1.031999,8.866864E-09,1.396796
639.3712,-0.2702484,0.0005038162,NaN,-0.3271227,0.0004259743,NaN,0.4763944,-14.38096,NaN,-2.128258,-1.474248,-0.361247,14.12253,NaN,NaN,-0.03997236,0.8177482,-2.594431E-07,1.049162,4.098492E-09,1.407367
639.387,-0.2830968,0.0005042107,NaN,-0.3271168,0.0004266336,NaN,0.4776075,-14.38106,NaN,-2.1258,-1.465951,-0.3608765,14.11368,NaN,NaN,-0.03958194,0.8175331,-2.863397E-07,1.037031,1.005896E-08,1.407982
639.4021,-0.29636,0.0005045102,NaN,-0.3271092,0.0004261457,NaN,0.4788432,-14.38103,NaN,-2.123326,-1.476519,-0.3604694,14.12494,NaN,NaN,-0.03919907,0.8178082,-3.142049E-07,1.052476,1.244314E-08,1.408758
639.4167,-0.29636,0.0005045102,NaN,-0.3271092,0.0004261457,NaN,0.4788432,-14.38103,NaN,-2.123326,-1.476519,-0.3604694,14.12494,NaN,NaN,-0.03919907,0.8178082,-3.142049E-07,1.052476,1.244314E-08,1.408758
639.4312,-0.3098284,0.0005047426,NaN,-0.3270993,0.0004265318,NaN,0.4800432,-14.37929,NaN,-2.120934,-1.467031,-0.3600512,14.11462,NaN,NaN,-0.03882361,0.8194155,-3.407289E-07,1.038566,1.005896E-08,1.396199
639.4469,-0.3233695,0.0005041532,NaN,-0.3270874,0.0004262709,NaN,0.4811885,-14.37932,NaN,-2.118651,-1.463999,-0.359639,14.11137,NaN,NaN,-0.03845545,0.8193167,-3.630807E-07,1.034126,1.95957E-08,1.395265
639.4618,-0.3376279,0.000503476,NaN,-0.3270763,0.0004258637,NaN,0.4824459,-14.38012,NaN,-2.116093,-1.466119,-0.3592442,14.11374,NaN,NaN,-0.03809473,0.8185748,-3.891577E-07,1.037259,2.197988E-08,1.398916
639.4777,-0.3376279,0.000503476,NaN,-0.3270763,0.0004258637,NaN,0.4824459,-14.38012,NaN,-2.116093,-1.466119,-0.3592442,14.11374,NaN,NaN,-0.03809473,0.8185748,-3.891577E-07,1.037259,2.197988E-08,1.398916
639.4921,-0.3522775,0.0005032488,NaN,-0.3270635,0.0004262103,NaN,0.4837231,-14.38016,NaN,-2.113523,-1.463414,-0.3588137,14.11085,NaN,NaN,-0.03774099,0.818467,-4.161288E-07,1.033301,2.674826E-08,1.401142
639.5063,-0.367112,0.0005035024,NaN,-0.3270484,0.0004256224,NaN,0.4849623,-14.38099,NaN,-2.111039,-1.476917,-0.3583739,14.12538,NaN,NaN,-0.03739409,0.8179888,-4.375865E-07,1.053086,3.151663E-08,1.408498
639.5211,-0.3820003,0.0005032569,NaN,-0.3270311,0.0004254143,NaN,0.4861447,-14.38025,NaN,-2.108667,-1.465017,-0.3579417,14.11259,NaN,NaN,-0.03705393,0.8185864,-4.594912E-07,1.035668,3.151663E-08,1.398793
639.5359,-0.3820003,0.0005032569,NaN,-0.3270311,0.0004254143,NaN,0.4861447,-14.38025,NaN,-2.108667,-1.465017,-0.3579417,14.11259,NaN,NaN,-0.03705393,0.8185864,-4.594912E-07,1.035668,3.151663E-08,1.398793
639.5501,-0.3975885,0.0005029405,NaN,-0.3270148,0.0004240071,NaN,0.4874378,-14.38105,NaN,-2.106026,-1.480057,-0.3575236,14.12875,NaN,NaN,-0.03672065,0.8181542,-4.836311E-07,1.057693,3.509291E-08,1.4018
639.5659,-0.4135515,0.0005035283,NaN,-0.3269967,0.000423049,NaN,0.488747,-14.38087,NaN,-2.103377,-1.480446,-0.3570716,14.12913,NaN,NaN,-0.0363938,0.818349,-5.061318E-07,1.058252,3.270872E-08,1.4008
639.5807,-0.4296834,0.0005041323,NaN,-0.3269762,0.0004228573,NaN,0.4900151,-14.38002,NaN,-2.100818,-1.473681,-0.3566126,14.1218,NaN,NaN,-0.03607327,0.819145,-5.289306E-07,1.048329,3.270872E-08,1.394576
639.5958,-0.4296834,0.0005041323,NaN,-0.3269762,0.0004228573,NaN,0.4900151,-14.38002,NaN,-2.100818,-1.473681,-0.3566126,14.1218,NaN,NaN,-0.03607327,0.819145,-5.289306E-07,1.048329,3.270872E-08,1.394576
639.6116,-0.446582,0.0005042686,NaN,-0.326956,0.000423011,NaN,0.4913927,-14.37996,NaN,-2.097995,-1.46571,-0.3561606,14.11324,NaN,NaN,-0.03575921,0.8190864,-5.536665E-07,1.036645,3.032453E-08,1.390855
639.6259,-0.463892,0.000504612,NaN,-0.3269332,0.0004223275,NaN,0.4927781,-14.38052,NaN,-2.095178,-1.478583,-0.3556757,14.12707,NaN,NaN,-0.03545119,0.8188439,-5.764653E-07,1.055503,2.794035E-08,1.398259
639.641,-0.4813881,0.0005050946,NaN,-0.3269075,0.0004228168,NaN,0.494114,-14.38115,NaN,-2.092464,-1.468921,-0.355187,14.11678,NaN,NaN,-0.03514912,0.8181106,-5.971779E-07,1.041359,2.197988E-08,1.399906
639.6559,-0.4813881,0.0005050946,NaN,-0.3269075,0.0004228168,NaN,0.494114,-14.38115,NaN,-2.092464,-1.468921,-0.355187,14.11678,NaN,NaN,-0.03514912,0.8181106,-5.971779E-07,1.041359,2.197988E-08,1.399906
639.6701,-0.4989278,0.000505047,NaN,-0.3268791,0.0004228081,NaN,0.4953837,-14.37941,NaN,-2.089882,-1.467546,-0.3547103,14.11509,NaN,NaN,-0.0348529,0.8198118,-6.158043E-07,1.039288,2.197988E-08,1.388863
639.687,-0.5171497,0.0005056047,NaN,-0.3268515,0.0004224945,NaN,0.4967573,-14.38106,NaN,-2.087048,-1.477155,-0.3542439,14.12558,NaN,NaN,-0.03456267,0.8183768,-6.381561E-07,1.053415,1.84036E-08,1.40063
639.7007,-0.5357243,0.000505719,NaN,-0.3268217,0.0004224125,NaN,0.4981371,-14.37968,NaN,-2.084221,-1.468488,-0.3537482,14.11616,NaN,NaN,-0.03427803,0.8196378,-6.581236E-07,1.040704,1.482733E-08,1.390934
639.7156,-0.5357243,0.000505719,NaN,-0.3268217,0.0004224125,NaN,0.4981371,-14.37968,NaN,-2.084221,-1.468488,-0.3537482,14.11616,NaN,NaN,-0.03427803,0.8196378,-6.581236E-07,1.040704,1.482733E-08,1.390934
639.7298,-0.5544427,0.0005060677,NaN,-0.3267892,0.0004231416,NaN,0.499468,-14.3808,NaN,-2.081497,-1.464659,-0.3532505,14.11219,NaN,NaN,-0.03399888,0.8184499,-6.774951E-07,1.035124,1.601942E-08,1.397595
639.7454,-0.573173,0.0005065762,NaN,-0.3267546,0.0004235654,NaN,0.5007341,-14.38201,NaN,-2.078903,-1.469184,-0.3527657,14.11717,NaN,NaN,-0.03372514,0.8173625,-6.947805E-07,1.041783,1.363523E-08,1.405499
639.7604,-0.5925606,0.0005067591,NaN,-0.3267209,0.0004241623,NaN,0.5021051,-14.3811,NaN,-2.076057,-1.463609,-0.3522877,14.11111,NaN,NaN,-0.03345693,0.8181556,-7.1445E-07,1.033606,8.866862E-09,1.397497
639.7755,-0.5925606,0.0005067591,NaN,-0.3267209,0.0004241623,NaN,0.5021051,-14.3811,NaN,-2.076057,-1.463609,-0.3522877,14.11111,NaN,NaN,-0.03345693,0.8181556,-7.1445E-07,1.033606,8.866862E-09,1.397497
639.7897,-0.6122803,0.0005064206,NaN,-0.3266852,0.0004243906,NaN,0.5034806,-14.38073,NaN,-2.07322,-1.462716,-0.3517818,14.1101,NaN,NaN,-0.03319387,0.8185114,-7.320334E-07,1.032284,1.125105E-08,1.390185
639.8057,-0.6321261,0.0005064422,NaN,-0.326647,0.0004250043,NaN,0.5048062,-14.38151,NaN,-2.070487,-1.462506,-0.351276,14.10997,NaN,NaN,-0.03293589,0.8177248,-7.496167E-07,1.032005,5.290584E-09,1.395547
639.8204,-0.651968,0.000506638,NaN,-0.3266067,0.0004248795,NaN,0.5060661,-14.38302,NaN,-2.067885,-1.472651,-0.3507845,14.12099,NaN,NaN,-0.03268291,0.816501,-7.639218E-07,1.046891,4.098491E-09,1.406818
639.8356,-0.651968,0.000506638,NaN,-0.3266067,0.0004248795,NaN,0.5060661,-14.38302,NaN,-2.067885,-1.472651,-0.3507845,14.12099,NaN,NaN,-0.03268291,0.816501,-7.639218E-07,1.046891,4.098491E-09,1.406818
639.8498,-0.6724524,0.0005061707,NaN,-0.3265676,0.0004246374,NaN,0.5074303,-14.38114,NaN,-2.065036,-1.464995,-0.3502968,14.11262,NaN,NaN,-0.03243503,0.8182516,-7.806111E-07,1.035666,5.290584E-09,1.393658
639.8653,-0.6932552,0.0005062104,NaN,-0.3265264,0.0004250687,NaN,0.5087963,-14.38201,NaN,-2.062198,-1.464868,-0.3497835,14.11259,NaN,NaN,-0.03219191,0.8173864,-7.978965E-07,1.035511,6.482677E-09,1.398722
639.8815,-0.7141708,0.000506226,NaN,-0.3264827,0.0004251944,NaN,0.5101104,-14.38222,NaN,-2.059467,-1.467862,-0.3492726,14.11581,NaN,NaN,-0.03195347,0.8172539,-8.119035E-07,1.039893,8.866863E-09,1.399765
639.8954,-0.7141708,0.000506226,NaN,-0.3264827,0.0004251944,NaN,0.5101104,-14.38222,NaN,-2.059467,-1.467862,-0.3492726,14.11581,NaN,NaN,-0.03195347,0.8172539,-8.119035E-07,1.039893,8.866863E-09,1.399765
639.9095,-0.7352907,0.0005066622,NaN,-0.3264378,0.0004247088,NaN,0.5114093,-14.38115,NaN,-2.056756,-1.477792,-0.3487723,14.12625,NaN,NaN,-0.03171971,0.8185294,-8.238245E-07,1.054368,8.866863E-09,1.398182
639.925,-0.7564505,0.0005067046,NaN,-0.3263912,0.000424645,NaN,0.5126605,-14.37997,NaN,-2.054146,-1.467251,-0.3482784,14.11485,NaN,NaN,-0.03149048,0.819574,-8.366395E-07,1.038921,6.482677E-09,1.38766
639.9399,-0.7564505,0.0005067046,NaN,-0.3263912,0.000424645,NaN,0.5126605,-14.37997,NaN,-2.054146,-1.467251,-0.3482784,14.11485,NaN,NaN,-0.03149048,0.819574,-8.366395E-07,1.038921,6.482677E-09,1.38766
639.9542,-0.7775468,0.0005070543,NaN,-0.3263434,0.0004239412,NaN,0.5138517,-14.38145,NaN,-2.051659,-1.478356,-0.3477997,14.12692,NaN,NaN,-0.03126569,0.8183532,-8.479643E-07,1.055232,6.482677E-09,1.399423
639.9696,-0.7985147,0.000507165,NaN,-0.3262952,0.0004240065,NaN,0.5149829,-14.38002,NaN,-2.049298,-1.467101,-0.3473389,14.11474,NaN,NaN,-0.03104527,0.8196721,-8.551169E-07,1.038739,8.866863E-09,1.388763
639.9849,-0.8193141,0.0005073338,NaN,-0.3262472,0.0004232324,NaN,0.5160582,-14.38136,NaN,-2.047054,-1.478022,-0.3468961,14.1266,NaN,NaN,-0.03082914,0.818591,-8.625674E-07,1.054783,8.866863E-09,1.398608
639.9995,-0.8193141,0.0005073338,NaN,-0.3262472,0.0004232324,NaN,0.5160582,-14.38136,NaN,-2.047054,-1.478022,-0.3468961,14.1266,NaN,NaN,-0.03082914,0.818591,-8.625674E-07,1.054783,8.866863E-09,1.398608
640.014,-0.8399205,0.0005069998,NaN,-0.3261999,0.000422844,NaN,0.5170823,-14.37982,NaN,-2.04492,-1.466802,-0.34647,14.11445,NaN,NaN,-0.03061721,0.8200119,-8.69422E-07,1.038336,8.866863E-09,1.387229
640.0294,-0.8603194,0.0005062977,NaN,-0.3261537,0.0004221469,NaN,0.5180594,-14.37995,NaN,-2.042887,-1.468256,-0.3460596,14.11601,NaN,NaN,-0.03040941,0.8199385,-8.768725E-07,1.040469,1.714306E-09,1.388005
640.0445,-0.8805023,0.0005056823,NaN,-0.326109,0.0004220209,NaN,0.5189926,-14.38022,NaN,-2.04095,-1.464477,-0.3456639,14.11199,NaN,NaN,-0.03020566,0.8195953,-8.807468E-07,1.034936,6.482677E-09,1.388203
640.0596,-0.8805023,0.0005056823,NaN,-0.326109,0.0004220209,NaN,0.5189926,-14.38022,NaN,-2.04095,-1.464477,-0.3456639,14.11199,NaN,NaN,-0.03020566,0.8195953,-8.807468E-07,1.034936,6.482677E-09,1.388203
640.075,-0.9004652,0.0005056863,NaN,-0.3260658,0.0004214211,NaN,0.5198846,-14.38163,NaN,-2.039104,-1.475851,-0.345282,14.12435,NaN,NaN,-0.03000587,0.8184895,-8.849191E-07,1.051645,8.866863E-09,1.39901
640.0904,-0.9202061,0.000505659,NaN,-0.3260244,0.0004216054,NaN,0.5207376,-14.38014,NaN,-2.037344,-1.465988,-0.3449133,14.11364,NaN,NaN,-0.02980998,0.8198514,-8.870053E-07,1.037181,4.098491E-09,1.388622
640.1041,-0.939725,0.0005050357,NaN,-0.3259847,0.000421444,NaN,0.5215532,-14.37965,NaN,-2.035667,-1.463701,-0.3445575,14.11112,NaN,NaN,-0.02961791,0.8202942,-8.887934E-07,1.033812,4.098491E-09,1.383477
640.1189,-0.939725,0.0005050357,NaN,-0.3259847,0.000421444,NaN,0.5215532,-14.37965,NaN,-2.035667,-1.463701,-0.3445575,14.11112,NaN,NaN,-0.02961791,0.8202942,-8.887934E-07,1.033812,4.098491E-09,1.383477
640.1332,-0.9590226,0.0005045547,NaN,-0.3259468,0.0004217325,NaN,0.5223328,-14.37988,NaN,-2.03407,-1.462808,-0.344214,14.11019,NaN,NaN,-0.02942958,0.8200471,-8.929657E-07,1.032509,1.714306E-09,1.384743
640.1486,-0.9781005,0.0005047368,NaN,-0.3259107,0.0004215212,NaN,0.5230778,-14.38141,NaN,-2.032551,-1.474472,-0.3438826,14.12289,NaN,NaN,-0.02924492,0.8188409,-8.935618E-07,1.04966,-5.438252E-09,1.397611
640.1635,-0.9969603,0.0005043202,NaN,-0.3258764,0.0004214226,NaN,0.5237893,-14.38007,NaN,-2.031108,-1.46391,-0.3435631,14.11144,NaN,NaN,-0.02906386,0.8200308,-8.95946E-07,1.03417,-7.822438E-09,1.387203
640.1785,-0.9969603,0.0005043202,NaN,-0.3258764,0.0004214226,NaN,0.5237893,-14.38007,NaN,-2.031108,-1.46391,-0.3435631,14.11144,NaN,NaN,-0.02906386,0.8200308,-8.95946E-07,1.03417,-7.822438E-09,1.387203
640.1928,-1.015604,0.0005038622,NaN,-0.3258438,0.0004212584,NaN,0.5244684,-14.37996,NaN,-2.029738,-1.466605,-0.343255,14.11432,NaN,NaN,-0.02888633,0.8202108,-8.953499E-07,1.038119,-5.438252E-09,1.386429
640.2087,-1.034034,0.000504202,NaN,-0.3258129,0.0004206437,NaN,0.525116,-14.3803,NaN,-2.02844,-1.477817,-0.3429584,14.12638,NaN,NaN,-0.02871227,0.820134,-8.935618E-07,1.054568,-7.822438E-09,1.393076
640.2234,-1.052253,0.0005040644,NaN,-0.3257836,0.0004204719,NaN,0.5257331,-14.37998,NaN,-2.027213,-1.466056,-0.3426728,14.11373,NaN,NaN,-0.02854159,0.8203083,-8.923697E-07,1.037324,-5.438252E-09,1.387279
640.2383,-1.052253,0.0005040644,NaN,-0.3257836,0.0004204719,NaN,0.5257331,-14.37998,NaN,-2.027213,-1.466056,-0.3426728,14.11373,NaN,NaN,-0.02854159,0.8203083,-8.923697E-07,1.037324,-5.438252E-09,1.387279
640.2528,-1.070263,0.0005047451,NaN,-0.325756,0.0004199368,NaN,0.5263205,-14.3802,NaN,-2.026053,-1.478814,-0.3423981,14.12743,NaN,NaN,-0.02837425,0.8203872,-8.905815E-07,1.056033,-3.054066E-09,1.391503
640.2683,-1.088066,0.0005051813,NaN,-0.3257299,0.0004189037,NaN,0.5268791,-14.38017,NaN,-2.02496,-1.480401,-0.3421341,14.12913,NaN,NaN,-0.02821017,0.8204302,-8.870052E-07,1.058359,-3.054066E-09,1.38919
640.2835,-1.105664,0.0005048962,NaN,-0.3257053,0.0004171263,NaN,0.5274097,-14.37962,NaN,-2.023932,-1.471516,-0.3418805,14.11952,NaN,NaN,-0.0280493,0.8208979,-8.893894E-07,1.045311,-3.054066E-09,1.376031
640.2991,-1.105664,0.0005048962,NaN,-0.3257053,0.0004171263,NaN,0.5274097,-14.37962,NaN,-2.023932,-1.471516,-0.3418805,14.11952,NaN,NaN,-0.0280493,0.8208979,-8.893894E-07,1.045311,-3.054066E-09,1.376031
640.3136,-1.12306,0.0005044109,NaN,-0.3256823,0.0004162577,NaN,0.5279132,-14.37941,NaN,-2.022968,-1.466054,-0.3416372,14.11362,NaN,NaN,-0.02789157,0.8210102,-8.876013E-07,1.037284,4.098491E-09,1.378655
640.3281,-1.140256,0.0005043171,NaN,-0.3256606,0.0004153907,NaN,0.5283903,-14.38089,NaN,-2.022066,-1.474464,-0.341404,14.12282,NaN,NaN,-0.02773691,0.8197344,-8.852171E-07,1.049665,1.714305E-09,1.388673
640.3428,-1.157255,0.000504214,NaN,-0.3256404,0.0004154267,NaN,0.5288417,-14.3799,NaN,-2.021224,-1.465497,-0.3411805,14.11309,NaN,NaN,-0.02758528,0.8205902,-8.864092E-07,1.036498,6.482677E-09,1.382077
640.3577,-1.157255,0.000504214,NaN,-0.3256404,0.0004154267,NaN,0.5288417,-14.3799,NaN,-2.021224,-1.465497,-0.3411805,14.11309,NaN,NaN,-0.02758528,0.8205902,-8.864092E-07,1.036498,6.482677E-09,1.382077
640.3716,-1.174058,0.0005041291,NaN,-0.3256214,0.0004154431,NaN,0.5292681,-14.38072,NaN,-2.020441,-1.467827,-0.3409667,14.11569,NaN,NaN,-0.0274366,0.8198363,-8.84025E-07,1.039935,1.714305E-09,1.386151
640.3873,-1.190669,0.0005036996,NaN,-0.3256038,0.0004153835,NaN,0.5296704,-14.38003,NaN,-2.019716,-1.465497,-0.3407624,14.11309,NaN,NaN,-0.02729082,0.8204771,-8.816409E-07,1.036495,4.098491E-09,1.380999
640.4022,-1.207088,0.0005033293,NaN,-0.3255875,0.0004150506,NaN,0.530049,-14.38151,NaN,-2.019046,-1.470615,-0.3405673,14.11876,NaN,NaN,-0.0271479,0.8191301,-8.786606E-07,1.044045,1.714305E-09,1.389857
640.4172,-1.207088,0.0005033293,NaN,-0.3255875,0.0004150506,NaN,0.530049,-14.38151,NaN,-2.019046,-1.470615,-0.3405673,14.11876,NaN,NaN,-0.0271479,0.8191301,-8.786606E-07,1.044045,1.714305E-09,1.389857
640.4314,-1.223319,0.0005032992,NaN,-0.3255724,0.0004156329,NaN,0.5304048,-14.38048,NaN,-2.018432,-1.464208,-0.3403812,14.11178,NaN,NaN,-0.02700776,0.8200316,-8.738922E-07,1.034632,4.098491E-09,1.384192
640.4471,-1.239363,0.0005030027,NaN,-0.3255584,0.0004158072,NaN,0.5307384,-14.38063,NaN,-2.017871,-1.465588,-0.3402039,14.11327,NaN,NaN,-0.02687037,0.8199179,-8.667397E-07,1.036656,-6.698806E-10,1.382449
640.4623,-1.255223,0.0005025661,NaN,-0.3255456,0.0004161634,NaN,0.5310503,-14.38071,NaN,-2.017362,-1.463001,-0.3400354,14.1105,NaN,NaN,-0.02673565,0.819775,-8.607792E-07,1.032865,6.482677E-09,1.382324
640.4773,-1.255223,0.0005025661,NaN,-0.3255456,0.0004161634,NaN,0.5310503,-14.38071,NaN,-2.017362,-1.463001,-0.3400354,14.1105,NaN,NaN,-0.02673565,0.819775,-8.607792E-07,1.032865,6.482677E-09,1.382324
640.4915,-1.2709,0.0005022204,NaN,-0.325534,0.0004166186,NaN,0.5313412,-14.38091,NaN,-2.016904,-1.462443,-0.3398753,14.10992,NaN,NaN,-0.02660357,0.8195565,-8.548187E-07,1.032051,4.098491E-09,1.38338
640.5081,-1.286176,0.0005026535,NaN,-0.3255226,0.000416419,NaN,0.5315607,-14.3821,NaN,-2.016609,-1.476245,-0.3397329,14.12485,NaN,NaN,-0.02647404,0.818756,-8.482622E-07,1.052311,1.714305E-09,1.394382
640.5219,-1.301137,0.0005026684,NaN,-0.3255126,0.0004166148,NaN,0.5317446,-14.38056,NaN,-2.016396,-1.465605,-0.3396094,14.1133,NaN,NaN,-0.02634706,0.8201549,-8.446859E-07,1.036706,1.714305E-09,1.383109
640.5366,-1.301137,0.0005026684,NaN,-0.3255126,0.0004166148,NaN,0.5317446,-14.38056,NaN,-2.016396,-1.465605,-0.3396094,14.1133,NaN,NaN,-0.02634706,0.8201549,-8.446859E-07,1.036706,1.714305E-09,1.383109
640.5521,-1.315835,0.0005032915,NaN,-0.3255042,0.0004163006,NaN,0.5319098,-14.38062,NaN,-2.016232,-1.478109,-0.3394961,14.1267,NaN,NaN,-0.02622256,0.8203981,-8.375334E-07,1.055031,-6.698806E-10,1.387136
640.5662,-1.330308,0.000503321,NaN,-0.3254974,0.0004163402,NaN,0.5320616,-14.38064,NaN,-2.016104,-1.466377,-0.3393895,14.11411,NaN,NaN,-0.02610051,0.8202597,-8.291887E-07,1.037825,-3.054066E-09,1.383903
640.5812,-1.34385,0.0005033776,NaN,-0.3254896,0.0004168695,NaN,0.5320333,-14.38133,NaN,-2.016384,-1.463275,-0.3393203,14.11086,NaN,NaN,-0.02598073,0.8195137,-8.190559E-07,1.033295,-3.054066E-09,1.387014
640.5963,-1.34385,0.0005033776,NaN,-0.3254896,0.0004168695,NaN,0.5320333,-14.38133,NaN,-2.016384,-1.463275,-0.3393203,14.11086,NaN,NaN,-0.02598073,0.8195137,-8.190559E-07,1.033295,-3.054066E-09,1.387014
640.6103,-1.356751,0.0005026705,NaN,-0.3254839,0.0004167272,NaN,0.5319406,-14.38084,NaN,-2.016807,-1.46277,-0.3392914,14.11024,NaN,NaN,-0.02586335,0.8199922,-8.101152E-07,1.032531,-5.438252E-09,1.385368
640.626,-1.369194,0.0005021879,NaN,-0.325481,0.0004170391,NaN,0.5318367,-14.381,NaN,-2.017268,-1.46289,-0.339276,14.11038,NaN,NaN,-0.02574828,0.8198496,-8.005785E-07,1.032708,-1.020662E-08,1.386438
640.6407,-1.381297,0.0005013578,NaN,-0.3254798,0.0004170769,NaN,0.5317373,-14.38105,NaN,-2.017733,-1.462175,-0.3392627,14.10962,NaN,NaN,-0.02563548,0.8197858,-7.904457E-07,1.031659,-5.438252E-09,1.385659
640.6558,-1.381297,0.0005013578,NaN,-0.3254798,0.0004170769,NaN,0.5317373,-14.38105,NaN,-2.017733,-1.462175,-0.3392627,14.10962,NaN,NaN,-0.02563548,0.8197858,-7.904457E-07,1.031659,-5.438252E-09,1.385659
640.6699,-1.392407,0.0005003705,NaN,-0.3254783,0.0004170226,NaN,0.5314757,-14.38102,NaN,-2.018569,-1.462238,-0.3392806,14.10967,NaN,NaN,-0.02552478,0.8198217,-7.791209E-07,1.031746,-3.054066E-09,1.385179
640.6857,-1.402847,0.0004997143,NaN,-0.3254783,0.0004174087,NaN,0.5311655,-14.38136,NaN,-2.019514,-1.462053,-0.3393328,14.10951,NaN,NaN,-0.02541629,0.8194734,-7.654118E-07,1.031485,-1.020662E-08,1.387282
640.7003,-1.412822,0.0004999568,NaN,-0.3254794,0.0004174492,NaN,0.5308572,-14.38305,NaN,-2.020468,-1.472366,-0.3393932,14.12077,NaN,NaN,-0.02530995,0.8180798,-7.522988E-07,1.046653,-1.259081E-08,1.401394
640.7163,-1.412822,0.0004999568,NaN,-0.3254794,0.0004174492,NaN,0.5308572,-14.38305,NaN,-2.020468,-1.472366,-0.3393932,14.12077,NaN,NaN,-0.02530995,0.8180798,-7.522988E-07,1.046653,-1.259081E-08,1.401394
640.7305,-1.421733,0.0005004554,NaN,-0.3254803,0.0004186362,NaN,0.5303957,-14.38184,NaN,-2.021777,-1.462654,-0.339483,14.11026,NaN,NaN,-0.02520559,0.819129,-7.391857E-07,1.032417,-1.735918E-08,1.392198
640.745,-1.42994,0.0005006675,NaN,-0.3254823,0.0004193254,NaN,0.529897,-14.38235,NaN,-2.023171,-1.462623,-0.3396037,14.11029,NaN,NaN,-0.02510332,0.8186303,-7.278609E-07,1.032391,-1.4975E-08,1.393932
640.7597,-1.42994,0.0005006675,NaN,-0.3254823,0.0004193254,NaN,0.529897,-14.38235,NaN,-2.023171,-1.462623,-0.3396037,14.11029,NaN,NaN,-0.02510332,0.8186303,-7.278609E-07,1.032391,-1.4975E-08,1.393932
640.7739,-1.437668,0.0005009754,NaN,-0.3254856,0.0004195768,NaN,0.5294108,-14.38384,NaN,-2.02455,-1.469,-0.3397291,14.1173,NaN,NaN,-0.02500307,0.8173246,-7.147478E-07,1.041779,-2.212755E-08,1.404638
640.7894,-1.445063,0.0005010488,NaN,-0.3254908,0.0004200054,NaN,0.528949,-14.38225,NaN,-2.025888,-1.464217,-0.3398497,14.112,NaN,NaN,-0.0249048,0.8188096,-7.04019E-07,1.034743,-1.4975E-08,1.394318
640.8041,-1.451489,0.0005011874,NaN,-0.3254954,0.0004206213,NaN,0.5283414,-14.38288,NaN,-2.027558,-1.463061,-0.3399934,14.11085,NaN,NaN,-0.02480834,0.8181614,-6.879258E-07,1.033075,-1.974337E-08,1.398095
640.8189,-1.451489,0.0005011874,NaN,-0.3254954,0.0004206213,NaN,0.5283414,-14.38288,NaN,-2.027558,-1.463061,-0.3399934,14.11085,NaN,NaN,-0.02480834,0.8181614,-6.879258E-07,1.033075,-1.974337E-08,1.398095
640.8335,-1.457279,0.0005013518,NaN,-0.3255017,0.0004213042,NaN,0.5276987,-14.38314,NaN,-2.029304,-1.462234,-0.340167,14.11,NaN,NaN,-0.02471382,0.8178783,-6.724285E-07,1.031875,-1.974337E-08,1.400282
640.8488,-1.462645,0.000501252,NaN,-0.3255101,0.0004216198,NaN,0.5270703,-14.3835,NaN,-2.031028,-1.464033,-0.3403451,14.11196,NaN,NaN,-0.02462117,0.8175728,-6.599116E-07,1.034518,-2.451174E-08,1.398205
640.8636,-1.467721,0.00050089,NaN,-0.3255205,0.000421905,NaN,0.5264683,-14.38325,NaN,-2.032703,-1.462275,-0.3405174,14.11005,NaN,NaN,-0.02453035,0.8177785,-6.467985E-07,1.031939,-2.451174E-08,1.395567
640.8787,-1.467721,0.00050089,NaN,-0.3255205,0.000421905,NaN,0.5264683,-14.38325,NaN,-2.032703,-1.462275,-0.3405174,14.11005,NaN,NaN,-0.02453035,0.8177785,-6.467985E-07,1.031939,-2.451174E-08,1.395567
640.893,-1.471866,0.0005012609,NaN,-0.3255302,0.0004216026,NaN,0.525723,-14.38291,NaN,-2.034703,-1.475643,-0.34071,14.12425,NaN,NaN,-0.02444118,0.8184745,-6.295132E-07,1.051468,-2.689592E-08,1.402398
640.9087,-1.475408,0.0005015347,NaN,-0.3255408,0.0004220342,NaN,0.5249448,-14.38302,NaN,-2.03677,-1.467202,-0.3409322,14.11524,NaN,NaN,-0.02435381,0.8182507,-6.14016E-07,1.039117,-2.689592E-08,1.401041
640.9234,-1.478555,0.00050171,NaN,-0.3255528,0.0004224137,NaN,0.524184,-14.38393,NaN,-2.038807,-1.466359,-0.341158,14.11445,NaN,NaN,-0.02426817,0.817336,-5.991148E-07,1.037911,-2.451174E-08,1.401821
640.9392,-1.478555,0.00050171,NaN,-0.3255528,0.0004224137,NaN,0.524184,-14.38393,NaN,-2.038807,-1.466359,-0.341158,14.11445,NaN,NaN,-0.02426817,0.817336,-5.991148E-07,1.037911,-2.451174E-08,1.401821
640.9534,-1.480712,0.0005021652,NaN,-0.3255636,0.0004220271,NaN,0.523284,-14.38352,NaN,-2.041162,-1.477641,-0.3414032,14.12641,NaN,NaN,-0.02418409,0.8180071,-5.812334E-07,1.054382,-1.974337E-08,1.405674
640.9677,-1.482239,0.0005025961,NaN,-0.3255748,0.0004227498,NaN,0.5223588,-14.3828,NaN,-2.043567,-1.466444,-0.3416764,14.11438,NaN,NaN,-0.02410171,0.8185912,-5.63948E-07,1.03799,-2.212755E-08,1.399968
640.9827,-1.483361,0.0005030035,NaN,-0.3255867,0.0004235314,NaN,0.5214588,-14.38319,NaN,-2.045925,-1.464572,-0.3419507,14.11242,NaN,NaN,-0.02402096,0.8181592,-5.490469E-07,1.035263,-2.212755E-08,1.401698
640.9972,-1.483361,0.0005030035,NaN,-0.3255867,0.0004235314,NaN,0.5214588,-14.38319,NaN,-2.045925,-1.464572,-0.3419507,14.11242,NaN,NaN,-0.02402096,0.8181592,-5.490469E-07,1.035263,-2.212755E-08,1.401698
641.0113,-1.484224,0.0005033151,NaN,-0.3255994,0.0004241067,NaN,0.5205961,-14.38388,NaN,-2.048207,-1.465143,-0.3422156,14.11311,NaN,NaN,-0.02394181,0.8174862,-5.311655E-07,1.036122,-1.735918E-08,1.404217
641.0283,-1.484195,0.0005033648,NaN,-0.3256103,0.000424152,NaN,0.5195996,-14.38368,NaN,-2.05079,-1.468629,-0.3424929,14.1168,NaN,NaN,-0.02386406,0.8177674,-5.12688E-07,1.041209,-1.735918E-08,1.400182
641.0417,-1.483604,0.000503001,NaN,-0.3256205,0.0004241824,NaN,0.5185773,-14.38282,NaN,-2.053416,-1.464119,-0.3427979,14.11188,NaN,NaN,-0.02378789,0.8185239,-4.948066E-07,1.034589,-1.735918E-08,1.394689
641.0565,-1.483604,0.000503001,NaN,-0.3256205,0.0004241824,NaN,0.5185773,-14.38282,NaN,-2.053416,-1.464119,-0.3427979,14.11188,NaN,NaN,-0.02378789,0.8185239,-4.948066E-07,1.034589,-1.735918E-08,1.394689
641.0705,-1.482661,0.0005030472,NaN,-0.3256307,0.0004233724,NaN,0.5175798,-14.3836,NaN,-2.055992,-1.478395,-0.3431044,14.12722,NaN,NaN,-0.02371323,0.8181095,-4.769252E-07,1.055503,-1.4975E-08,1.402876
641.0862,-1.481502,0.0005027259,NaN,-0.3256408,0.0004231485,NaN,0.5166199,-14.38196,NaN,-2.058488,-1.465481,-0.3434016,14.11326,NaN,NaN,-0.02364004,0.8196162,-4.596399E-07,1.036588,-1.259081E-08,1.390031
641.101,-1.479483,0.0005020927,NaN,-0.3256486,0.0004229175,NaN,0.5155268,-14.3821,NaN,-2.061282,-1.464046,-0.3437078,14.11174,NaN,NaN,-0.02356813,0.8194562,-4.387782E-07,1.034491,-1.259081E-08,1.389956
641.1161,-1.479483,0.0005020927,NaN,-0.3256486,0.0004229175,NaN,0.5155268,-14.3821,NaN,-2.061282,-1.464046,-0.3437078,14.11174,NaN,NaN,-0.02356813,0.8194562,-4.387782E-07,1.034491,-1.259081E-08,1.389956
641.1302,-1.476932,0.000501643,NaN,-0.3256551,0.0004231454,NaN,0.5144079,-14.38266,NaN,-2.064116,-1.46295,-0.3440423,14.11064,NaN,NaN,-0.02349768,0.8188896,-4.203008E-07,1.032905,-1.020662E-08,1.39274
641.1458,-1.474056,0.0005007308,NaN,-0.3256608,0.0004225544,NaN,0.5133154,-14.3829,NaN,-2.066892,-1.467691,-0.3443785,14.11573,NaN,NaN,-0.02342864,0.8187863,-4.030155E-07,1.039854,-1.974337E-08,1.395991
641.1607,-1.470988,0.000499582,NaN,-0.325666,0.0004220622,NaN,0.5122627,-14.38237,NaN,-2.069582,-1.463555,-0.3447047,14.11124,NaN,NaN,-0.02336095,0.8192241,-3.833459E-07,1.033783,-2.212755E-08,1.391176
641.1767,-1.470988,0.000499582,NaN,-0.325666,0.0004220622,NaN,0.5122627,-14.38237,NaN,-2.069582,-1.463555,-0.3447047,14.11124,NaN,NaN,-0.02336095,0.8192241,-3.833459E-07,1.033783,-2.212755E-08,1.391176
641.1899,-1.467084,0.0004991672,NaN,-0.3256685,0.0004210139,NaN,0.5110793,-14.38287,NaN,-2.072564,-1.477593,-0.3450356,14.12632,NaN,NaN,-0.02329442,0.8190995,-3.624843E-07,1.054355,-1.974337E-08,1.398925
641.2052,-1.46267,0.0004990457,NaN,-0.3256699,0.0004210299,NaN,0.5098711,-14.38223,NaN,-2.075578,-1.467179,-0.345395,14.11511,NaN,NaN,-0.02322925,0.819618,-3.45199E-07,1.039092,-1.735918E-08,1.391681
641.2198,-1.46267,0.0004990457,NaN,-0.3256699,0.0004210299,NaN,0.5098711,-14.38223,NaN,-2.075578,-1.467179,-0.345395,14.11511,NaN,NaN,-0.02322925,0.819618,-3.45199E-07,1.039092,-1.735918E-08,1.391681
641.2341,-1.457954,0.0004984922,NaN,-0.3256708,0.0004204717,NaN,0.508691,-14.38292,NaN,-2.078528,-1.469255,-0.3457563,14.11741,NaN,NaN,-0.02316538,0.8189867,-3.243373E-07,1.042154,-1.735918E-08,1.395623
641.2496,-1.45234,0.0004980779,NaN,-0.3256702,0.0004204529,NaN,0.5073833,-14.38235,NaN,-2.081765,-1.465461,-0.3461218,14.11328,NaN,NaN,-0.02310258,0.8194823,-3.028797E-07,1.036581,-1.4975E-08,1.391785
641.2643,-1.446183,0.0004985239,NaN,-0.3256685,0.0004199905,NaN,0.506057,-14.3826,NaN,-2.085019,-1.477518,-0.3465151,14.12621,NaN,NaN,-0.02304106,0.8195251,-2.796339E-07,1.054247,-1.4975E-08,1.397689
641.2792,-1.446183,0.0004985239,NaN,-0.3256685,0.0004199905,NaN,0.506057,-14.3826,NaN,-2.085019,-1.477518,-0.3465151,14.12621,NaN,NaN,-0.02304106,0.8195251,-2.796339E-07,1.054247,-1.4975E-08,1.397689
641.2935,-1.439712,0.0004986897,NaN,-0.325666,0.0004203675,NaN,0.5047658,-14.38245,NaN,-2.088193,-1.46489,-0.3469082,14.11267,NaN,NaN,-0.02298078,0.8195297,-2.593683E-07,1.035742,-1.259081E-08,1.392789
641.309,-1.43307,0.0004984366,NaN,-0.325663,0.0004205647,NaN,0.5035234,-14.38276,NaN,-2.091259,-1.463322,-0.3472888,14.11102,NaN,NaN,-0.02292169,0.8191826,-2.379106E-07,1.033451,-1.020663E-08,1.392336
641.324,-1.425619,0.0004976497,NaN,-0.3256572,0.0004203944,NaN,0.5021583,-14.38228,NaN,-2.094598,-1.462509,-0.3476641,14.11007,NaN,NaN,-0.02286355,0.819644,-2.104925E-07,1.032238,-5.438255E-09,1.390122
641.3386,-1.425619,0.0004976497,NaN,-0.3256572,0.0004203944,NaN,0.5021583,-14.38228,NaN,-2.094598,-1.462509,-0.3476641,14.11007,NaN,NaN,-0.02286355,0.819644,-2.104925E-07,1.032238,-5.438255E-09,1.390122
641.3529,-1.417692,0.0004973348,NaN,-0.3256494,0.0004209129,NaN,0.5007721,-14.38273,NaN,-2.097951,-1.461985,-0.3480672,14.10956,NaN,NaN,-0.0228066,0.8191843,-1.860546E-07,1.031484,-7.822441E-09,1.393187
641.3684,-1.409497,0.0004977086,NaN,-0.3256401,0.000421087,NaN,0.4994187,-14.38445,NaN,-2.101223,-1.471031,-0.3484716,14.11946,NaN,NaN,-0.02275079,0.8177255,-1.640009E-07,1.044792,-7.822441E-09,1.406992
641.3831,-1.401169,0.0004976015,NaN,-0.3256297,0.0004211933,NaN,0.4981133,-14.38281,NaN,-2.104388,-1.464836,-0.348864,14.11266,NaN,NaN,-0.02269608,0.8192422,-1.419471E-07,1.035691,-1.4975E-08,1.393834
641.3992,-1.401169,0.0004976015,NaN,-0.3256297,0.0004211933,NaN,0.4981133,-14.38281,NaN,-2.104388,-1.464836,-0.348864,14.11266,NaN,NaN,-0.02269608,0.8192422,-1.419471E-07,1.035691,-1.4975E-08,1.393834
641.4134,-1.392064,0.0004974796,NaN,-0.3256163,0.0004216119,NaN,0.4966854,-14.38276,NaN,-2.107823,-1.462938,-0.3492469,14.11061,NaN,NaN,-0.02264222,0.819248,-1.163171E-07,1.032908,-1.020663E-08,1.393411
641.4279,-1.382507,0.0004971884,NaN,-0.3256006,0.0004219506,NaN,0.4952349,-14.38321,NaN,-2.111271,-1.462599,-0.3496586,14.11031,NaN,NaN,-0.02258947,0.8187931,-9.009111E-08,1.032428,-1.4975E-08,1.394277
641.4427,-1.372707,0.0004963184,NaN,-0.3255831,0.000421711,NaN,0.4938173,-14.38237,NaN,-2.114634,-1.462782,-0.3500726,14.11038,NaN,NaN,-0.02253778,0.8196295,-6.446111E-08,1.032661,-1.4975E-08,1.390779
641.4576,-1.372707,0.0004963184,NaN,-0.3255831,0.000421711,NaN,0.4938173,-14.38237,NaN,-2.114634,-1.462782,-0.3500726,14.11038,NaN,NaN,-0.02253778,0.8196295,-6.446111E-08,1.032661,-1.4975E-08,1.390779
641.4716,-1.362067,0.0004963506,NaN,-0.325562,0.0004210101,NaN,0.4922794,-14.38318,NaN,-2.118265,-1.476794,-0.3504769,14.12549,NaN,NaN,-0.02248687,0.8192036,-3.763902E-08,1.053217,-1.974337E-08,1.401073
641.4883,-1.350942,0.000496153,NaN,-0.3255379,0.0004208859,NaN,0.4907239,-14.38234,NaN,-2.121896,-1.46591,-0.3509098,14.11375,NaN,NaN,-0.022437,0.8198968,-1.320112E-08,1.03726,-1.974337E-08,1.39267
641.5019,-1.33956,0.0004961848,NaN,-0.3255116,0.0004198888,NaN,0.4892075,-14.38341,NaN,-2.125427,-1.479402,-0.351344,14.12833,NaN,NaN,-0.02238815,0.8191517,1.302493E-08,1.057063,-1.974337E-08,1.398565
641.5167,-1.33956,0.0004961848,NaN,-0.3255116,0.0004198888,NaN,0.4892075,-14.38341,NaN,-2.125427,-1.479402,-0.351344,14.12833,NaN,NaN,-0.02238815,0.8191517,1.302493E-08,1.057063,-1.974337E-08,1.398565
641.531,-1.328063,0.0004965481,NaN,-0.3254837,0.0004202039,NaN,0.487746,-14.38211,NaN,-2.128834,-1.469178,-0.3517648,14.11725,NaN,NaN,-0.02234027,0.8203364,3.746283E-08,1.042068,-1.974337E-08,1.389195
641.5464,-1.315814,0.0004968088,NaN,-0.3254526,0.0004208314,NaN,0.4861695,-14.38244,NaN,-2.132497,-1.464797,-0.3521653,14.11258,NaN,NaN,-0.02229306,0.8199219,6.786119E-08,1.035654,-1.735919E-08,1.390632
641.5615,-1.303143,0.0004970939,NaN,-0.3254187,0.0004211214,NaN,0.4845723,-14.38358,NaN,-2.136158,-1.468571,-0.3525942,14.11677,NaN,NaN,-0.02224682,0.8188928,9.349119E-08,1.041223,-1.259081E-08,1.395938
641.5765,-1.303143,0.0004970939,NaN,-0.3254187,0.0004211214,NaN,0.4845723,-14.38358,NaN,-2.136158,-1.468571,-0.3525942,14.11677,NaN,NaN,-0.02224682,0.8188928,9.349119E-08,1.041223,-1.259081E-08,1.395938
641.5908,-1.290259,0.0004968081,NaN,-0.3253826,0.0004211957,NaN,0.4830109,-14.38209,NaN,-2.139721,-1.464095,-0.3530261,14.1118,NaN,NaN,-0.02220152,0.8202839,1.191212E-07,1.034627,-7.822443E-09,1.385413
641.6061,-1.277296,0.0004963305,NaN,-0.3253451,0.0004212452,NaN,0.4815027,-14.38243,NaN,-2.143159,-1.4639,-0.3534459,14.11163,NaN,NaN,-0.02215712,0.8199431,1.465393E-07,1.034353,-1.020663E-08,1.385933
641.6221,-1.263609,0.0004967797,NaN,-0.3253046,0.0004210639,NaN,0.4798797,-14.38387,NaN,-2.146855,-1.475335,-0.3538409,14.12406,NaN,NaN,-0.0221133,0.8188071,1.787258E-07,1.051161,-1.4975E-08,1.400755
641.6362,-1.263609,0.0004967797,NaN,-0.3253046,0.0004210639,NaN,0.4798797,-14.38387,NaN,-2.146855,-1.475335,-0.3538409,14.12406,NaN,NaN,-0.0221133,0.8188071,1.787258E-07,1.051161,-1.4975E-08,1.400755
641.65,-1.249524,0.0004969255,NaN,-0.3252612,0.0004213745,NaN,0.4782336,-14.3823,NaN,-2.150548,-1.46584,-0.3542652,14.11373,NaN,NaN,-0.02207038,0.820244,2.097202E-07,1.037232,-1.4975E-08,1.388901
641.6655,-1.235248,0.0004967192,NaN,-0.3252158,0.0004205533,NaN,0.4766225,-14.38279,NaN,-2.154141,-1.47654,-0.3546942,14.12526,NaN,NaN,-0.02202834,0.8200091,2.377344E-07,1.052933,-1.259082E-08,1.392631
641.6803,-1.220911,0.0004964331,NaN,-0.3251689,0.0004205031,NaN,0.475065,-14.38249,NaN,-2.157606,-1.465791,-0.3551119,14.11371,NaN,NaN,-0.02198715,0.8201695,2.633644E-07,1.037171,-1.259082E-08,1.387588
641.6954,-1.220911,0.0004964331,NaN,-0.3251689,0.0004205031,NaN,0.475065,-14.38249,NaN,-2.157606,-1.465791,-0.3551119,14.11371,NaN,NaN,-0.02198715,0.8201695,2.633644E-07,1.037171,-1.259082E-08,1.387588
641.7094,-1.205868,0.0004965954,NaN,-0.3251192,0.000419569,NaN,0.4733948,-14.38351,NaN,-2.161327,-1.480083,-0.3554995,14.12915,NaN,NaN,-0.02194644,0.8194941,2.949549E-07,1.058149,-1.020663E-08,1.398693
641.725,-1.190443,0.0004963052,NaN,-0.3250666,0.0004191847,NaN,0.4717003,-14.38241,NaN,-2.165042,-1.466386,-0.3559171,14.11436,NaN,NaN,-0.02190658,0.8204769,3.265453E-07,1.038066,-1.020663E-08,1.390851
641.7401,-1.174843,0.0004966211,NaN,-0.3250118,0.0004194614,NaN,0.4700404,-14.38345,NaN,-2.168654,-1.468104,-0.3563407,14.11633,NaN,NaN,-0.02186754,0.8194948,3.569437E-07,1.040617,-6.698873E-10,1.397186
641.7548,-1.174843,0.0004966211,NaN,-0.3250118,0.0004194614,NaN,0.4700404,-14.38345,NaN,-2.168654,-1.468104,-0.3563407,14.11633,NaN,NaN,-0.02186754,0.8194948,3.569437E-07,1.040617,-6.698873E-10,1.397186
641.7692,-1.158471,0.0004962644,NaN,-0.3249533,0.0004193638,NaN,0.4682687,-14.38211,NaN,-2.172519,-1.464226,-0.3567359,14.11201,NaN,NaN,-0.02182895,0.8207473,3.909184E-07,1.034895,-3.054073E-09,1.388333
641.7848,-1.14168,0.0004957494,NaN,-0.3248914,0.0004194621,NaN,0.466477,-14.38223,NaN,-2.176366,-1.462809,-0.3571618,14.1105,NaN,NaN,-0.02179116,0.8206006,4.213167E-07,1.032821,-3.054073E-09,1.388371
641.7997,-1.14168,0.0004957494,NaN,-0.3248914,0.0004194621,NaN,0.466477,-14.38223,NaN,-2.176366,-1.462809,-0.3571618,14.1105,NaN,NaN,-0.02179116,0.8206006,4.213167E-07,1.032821,-3.054073E-09,1.388371
641.8138,-1.124697,0.0004960194,NaN,-0.3248266,0.0004190927,NaN,0.4647256,-14.3836,NaN,-2.180096,-1.475702,-0.3575934,14.12451,NaN,NaN,-0.02175415,0.8195831,4.558874E-07,1.051779,-5.438259E-09,1.400595
641.8303,-1.107664,0.0004962265,NaN,-0.3247601,0.0004197993,NaN,0.4630343,-14.38256,NaN,-2.183682,-1.463442,-0.3580135,14.11126,NaN,NaN,-0.0217179,0.82046,4.839016E-07,1.033796,-6.698873E-10,1.390926
641.8443,-1.089943,0.0004958674,NaN,-0.3246906,0.0004200406,NaN,0.4612164,-14.38234,NaN,-2.186918,-1.462478,-0.3584418,14.11019,NaN,NaN,-0.02168134,0.8206615,5.309893E-07,1.032372,1.714298E-09,1.387629
641.859,-1.089943,0.0004958674,NaN,-0.3246906,0.0004200406,NaN,0.4612164,-14.38234,NaN,-2.186918,-1.462478,-0.3584418,14.11019,NaN,NaN,-0.02168134,0.8206615,5.309893E-07,1.032372,1.714298E-09,1.387629
641.8732,-1.071864,0.0004962225,NaN,-0.324618,0.0004197222,NaN,0.4593377,-14.38204,NaN,-2.188691,-1.475515,-0.3589911,14.12413,NaN,NaN,-0.02164445,0.8213156,5.995346E-07,1.051476,8.866856E-09,1.392287
641.8885,-1.053634,0.000496539,NaN,-0.324543,0.000419152,NaN,0.4574892,-14.38428,NaN,-2.189042,-1.476317,-0.3595832,14.12523,NaN,NaN,-0.02160812,0.8190907,6.69272E-07,1.052696,6.48267E-09,1.40332
641.9034,-1.035386,0.0004968391,NaN,-0.3244667,0.0004196234,NaN,0.4557131,-14.3822,NaN,-2.188534,-1.466913,-0.3601523,14.11494,NaN,NaN,-0.02157286,0.8210424,7.306648E-07,1.038883,1.125104E-08,1.388373
641.9182,-1.035386,0.0004968391,NaN,-0.3244667,0.0004196234,NaN,0.4557131,-14.3822,NaN,-2.188534,-1.466913,-0.3601523,14.11494,NaN,NaN,-0.02157286,0.8210424,7.306648E-07,1.038883,1.125104E-08,1.388373
641.9323,-1.016476,0.0004971967,NaN,-0.3243878,0.00042006,NaN,0.4538519,-14.38379,NaN,-2.188149,-1.467596,-0.3606493,14.11587,NaN,NaN,-0.02153842,0.8194831,7.872892E-07,1.039935,1.363523E-08,1.397734
641.948,-0.9972272,0.0004972215,NaN,-0.324306,0.0004205739,NaN,0.4519775,-14.38258,NaN,-2.18786,-1.462637,-0.361162,14.1104,NaN,NaN,-0.02150496,0.820573,8.343769E-07,1.032633,1.125104E-08,1.390036
641.9642,-0.9778469,0.0004970889,NaN,-0.324222,0.0004210379,NaN,0.4501472,-14.38281,NaN,-2.187645,-1.462044,-0.3616792,14.10979,NaN,NaN,-0.02147235,0.8203299,8.808685E-07,1.03177,8.866856E-09,1.391353
641.9778,-0.9778469,0.0004970889,NaN,-0.324222,0.0004210379,NaN,0.4501472,-14.38281,NaN,-2.187645,-1.462044,-0.3616792,14.10979,NaN,NaN,-0.02147235,0.8203299,8.808685E-07,1.03177,8.866856E-09,1.391353
641.9924,-0.9577369,0.0004968554,NaN,-0.3241345,0.0004214701,NaN,0.448218,-14.38303,NaN,-2.187873,-1.461746,-0.3621652,14.10949,NaN,NaN,-0.02144015,0.8201061,9.279561E-07,1.03134,1.363523E-08,1.39202
642.0078,-0.9372521,0.0004970309,NaN,-0.3240434,0.0004209795,NaN,0.4462732,-14.383,NaN,-2.188112,-1.476051,-0.3626978,14.12481,NaN,NaN,-0.02140853,0.8205261,9.762359E-07,1.052301,1.84036E-08,1.39642
642.0228,-0.9166173,0.0004973175,NaN,-0.3239495,0.0004218576,NaN,0.4443771,-14.38304,NaN,-2.188184,-1.463353,-0.3632503,14.11118,NaN,NaN,-0.02137755,0.8203236,1.0269E-06,1.033676,1.601941E-08,1.393387
642.0373,-0.9166173,0.0004973175,NaN,-0.3239495,0.0004218576,NaN,0.4443771,-14.38304,NaN,-2.188184,-1.463353,-0.3632503,14.11118,NaN,NaN,-0.02137755,0.8203236,1.0269E-06,1.033676,1.601941E-08,1.393387
642.0536,-0.8959744,0.0004972586,NaN,-0.3238541,0.0004222867,NaN,0.4425547,-14.38299,NaN,-2.188086,-1.462855,-0.3637964,14.11063,NaN,NaN,-0.02134726,0.8203512,1.073392E-06,1.032941,1.601941E-08,1.392109
642.0671,-0.874685,0.000497644,NaN,-0.3237559,0.0004219701,NaN,0.4406438,-14.3828,NaN,-2.188281,-1.475785,-0.3643026,14.12447,NaN,NaN,-0.02131732,0.8208674,1.124652E-06,1.051887,1.601941E-08,1.395718
642.0821,-0.8530781,0.00049763,NaN,-0.3236547,0.000422306,NaN,0.4387201,-14.38296,NaN,-2.188433,-1.463301,-0.3648472,14.11107,NaN,NaN,-0.02128797,0.8205425,1.171739E-06,1.033571,1.84036E-08,1.391062
642.0969,-0.8530781,0.00049763,NaN,-0.3236547,0.000422306,NaN,0.4387201,-14.38296,NaN,-2.188433,-1.463301,-0.3648472,14.11107,NaN,NaN,-0.02128797,0.8205425,1.171739E-06,1.033571,1.84036E-08,1.391062
642.1109,-0.8313619,0.0004977434,NaN,-0.3235513,0.0004227041,NaN,0.4368446,-14.38421,NaN,-2.188427,-1.465011,-0.3654063,14.11306,NaN,NaN,-0.02125926,0.8193319,1.217039E-06,1.036119,1.363523E-08,1.399192
642.1265,-0.8096679,0.0004977823,NaN,-0.3234469,0.0004219545,NaN,0.435041,-14.38453,NaN,-2.188285,-1.477823,-0.3659567,14.1268,NaN,NaN,-0.02123122,0.8193192,1.259954E-06,1.054887,1.125104E-08,1.403469
642.1415,-0.7873508,0.0004981144,NaN,-0.3233403,0.000422759,NaN,0.433147,-14.38289,NaN,-2.188471,-1.465339,-0.3664681,14.11325,NaN,NaN,-0.02120349,0.8208094,1.306446E-06,1.036569,1.363523E-08,1.39142
642.1563,-0.7873508,0.0004981144,NaN,-0.3233403,0.000422759,NaN,0.433147,-14.38289,NaN,-2.188471,-1.465339,-0.3664681,14.11325,NaN,NaN,-0.02120349,0.8208094,1.306446E-06,1.036569,1.363523E-08,1.39142
642.1703,-0.7647353,0.0004978825,NaN,-0.323231,0.0004230197,NaN,0.4312392,-14.38275,NaN,-2.188632,-1.463776,-0.3670184,14.11155,NaN,NaN,-0.02117631,0.8209139,1.355322E-06,1.034269,1.125104E-08,1.389231
642.1861,-0.7420267,0.0004976377,NaN,-0.3231199,0.0004233721,NaN,0.4293789,-14.38357,NaN,-2.18864,-1.463575,-0.3675839,14.11144,NaN,NaN,-0.02114971,0.8200935,1.400621E-06,1.034002,8.866856E-09,1.393067
642.2009,-0.7193547,0.0004978634,NaN,-0.323008,0.0004236536,NaN,0.4275903,-14.38491,NaN,-2.188508,-1.468458,-0.3681411,14.11684,NaN,NaN,-0.02112374,0.8188832,1.444729E-06,1.041207,1.125104E-08,1.403653
642.216,-0.7193547,0.0004978634,NaN,-0.323008,0.0004236536,NaN,0.4275903,-14.38491,NaN,-2.188508,-1.468458,-0.3681411,14.11684,NaN,NaN,-0.02112374,0.8188832,1.444729E-06,1.041207,1.125104E-08,1.403653
642.2302,-0.6960728,0.000497511,NaN,-0.3228941,0.0004237017,NaN,0.4257112,-14.38309,NaN,-2.188698,-1.463339,-0.3686608,14.11114,NaN,NaN,-0.02109804,0.8205862,1.486452E-06,1.033659,8.866856E-09,1.391157
642.2458,-0.6725048,0.0004971718,NaN,-0.3227778,0.000423993,NaN,0.423819,-14.38373,NaN,-2.188859,-1.462856,-0.3692192,14.1107,NaN,NaN,-0.02107284,0.8199379,1.530559E-06,1.032972,4.098484E-09,1.39363
642.2607,-0.6488556,0.0004971398,NaN,-0.3226597,0.0004245271,NaN,0.421975,-14.38459,NaN,-2.188862,-1.463076,-0.3697921,14.11105,NaN,NaN,-0.02104819,0.8190892,1.573475E-06,1.033327,6.48267E-09,1.400582
642.2768,-0.6488556,0.0004971398,NaN,-0.3226597,0.0004245271,NaN,0.421975,-14.38459,NaN,-2.188862,-1.463076,-0.3697921,14.11105,NaN,NaN,-0.02104819,0.8190892,1.573475E-06,1.033327,6.48267E-09,1.400582
642.29,-0.6246986,0.0004969159,NaN,-0.3225393,0.0004248678,NaN,0.4200765,-14.38442,NaN,-2.189024,-1.462797,-0.3703432,14.11072,NaN,NaN,-0.02102385,0.8192477,1.619668E-06,1.032911,4.098484E-09,1.398199
642.3055,-0.6003234,0.0004961154,NaN,-0.3224163,0.0004247117,NaN,0.4181902,-14.38395,NaN,-2.189096,-1.462229,-0.3709204,14.11004,NaN,NaN,-0.02100002,0.8197049,1.66616E-06,1.03206,-3.054073E-09,1.393659
642.3201,-0.5759128,0.0004956535,NaN,-0.3222919,0.0004249976,NaN,0.4163629,-14.38457,NaN,-2.18902,-1.46296,-0.3715013,14.11091,NaN,NaN,-0.02097675,0.8191007,1.706989E-06,1.033155,-3.054073E-09,1.398821
642.335,-0.5759128,0.0004956535,NaN,-0.3222919,0.0004249976,NaN,0.4163629,-14.38457,NaN,-2.18902,-1.46296,-0.3715013,14.11091,NaN,NaN,-0.02097675,0.8191007,1.706989E-06,1.033155,-3.054073E-09,1.398821
642.3491,-0.5515822,0.0004955837,NaN,-0.3221671,0.0004256066,NaN,0.4146111,-14.38471,NaN,-2.188838,-1.462284,-0.3720677,14.11019,NaN,NaN,-0.02095406,0.8189446,1.744838E-06,1.032169,-5.438259E-09,1.401633
642.365,-0.5274037,0.0004955955,NaN,-0.3220434,0.0004261867,NaN,0.4129351,-14.38485,NaN,-2.188621,-1.461768,-0.3726124,14.10966,NaN,NaN,-0.02093196,0.818787,1.779111E-06,1.031418,-7.822445E-09,1.402467
642.3798,-0.5274037,0.0004955955,NaN,-0.3220434,0.0004261867,NaN,0.4129351,-14.38485,NaN,-2.188621,-1.461768,-0.3726124,14.10966,NaN,NaN,-0.02093196,0.818787,1.779111E-06,1.031418,-7.822445E-09,1.402467
642.3944,-0.5034221,0.0004957484,NaN,-0.3219218,0.0004258216,NaN,0.4113293,-14.386,NaN,-2.188423,-1.474606,-0.3731351,14.12353,NaN,NaN,-0.02091042,0.8179901,1.810105E-06,1.050249,-1.020663E-08,1.410298
642.4099,-0.4796647,0.0004958602,NaN,-0.3218032,0.0004247902,NaN,0.409787,-14.38433,NaN,-2.188267,-1.479132,-0.3736385,14.12817,NaN,NaN,-0.0208894,0.8197116,1.837523E-06,1.056837,-1.259082E-08,1.401047
642.425,-0.4561478,0.0004957849,NaN,-0.3216882,0.0004239346,NaN,0.4083027,-14.38531,NaN,-2.18815,-1.473567,-0.3741256,14.12229,NaN,NaN,-0.02086886,0.8186787,1.866133E-06,1.048682,-1.020663E-08,1.392243
642.4412,-0.4328809,0.0004957565,NaN,-0.3215774,0.0004234527,NaN,0.4068721,-14.38441,NaN,-2.188061,-1.470206,-0.374599,14.11857,NaN,NaN,-0.02084878,0.8195273,1.893551E-06,1.043728,-5.438259E-09,1.401991
642.4548,-0.4328809,0.0004957565,NaN,-0.3215774,0.0004234527,NaN,0.4068721,-14.38441,NaN,-2.188061,-1.470206,-0.374599,14.11857,NaN,NaN,-0.02084878,0.8195273,1.893551E-06,1.043728,-5.438259E-09,1.401991
642.4709,-0.4098685,0.0004956924,NaN,-0.3214709,0.0004234274,NaN,0.4054921,-14.38452,NaN,-2.187984,-1.466556,-0.37506,14.11465,NaN,NaN,-0.02082914,0.8193456,1.918884E-06,1.038374,-3.054073E-09,1.401043
642.4847,-0.3871128,0.0004953496,NaN,-0.3213691,0.0004235996,NaN,0.4041603,-14.38419,NaN,-2.18791,-1.462398,-0.3755091,14.11014,NaN,NaN,-0.02080992,0.8195761,1.942427E-06,1.032263,-5.438259E-09,1.39064
642.4995,-0.3871128,0.0004953496,NaN,-0.3213691,0.0004235996,NaN,0.4041603,-14.38419,NaN,-2.18791,-1.462398,-0.3755091,14.11014,NaN,NaN,-0.02080992,0.8195761,1.942427E-06,1.032263,-5.438259E-09,1.39064
642.5139,-0.3646138,0.0004952715,NaN,-0.3212719,0.0004227917,NaN,0.402875,-14.38471,NaN,-2.187832,-1.477387,-0.3759466,14.12624,NaN,NaN,-0.02079114,0.8194683,1.961203E-06,1.054229,-3.054073E-09,1.400317
642.5292,-0.3423707,0.0004949701,NaN,-0.3211794,0.0004229116,NaN,0.4016346,-14.3839,NaN,-2.187751,-1.463074,-0.3763726,14.11082,NaN,NaN,-0.02077277,0.8201115,1.982959E-06,1.033239,-5.438259E-09,1.390316
642.5443,-0.3203816,0.0004951378,NaN,-0.3210915,0.0004222074,NaN,0.4004379,-14.38397,NaN,-2.187668,-1.477654,-0.3767871,14.12643,NaN,NaN,-0.02075482,0.8204241,1.998158E-06,1.054593,-6.698873E-10,1.395928
642.5593,-0.3203816,0.0004951378,NaN,-0.3210915,0.0004222074,NaN,0.4004379,-14.38397,NaN,-2.187668,-1.477654,-0.3767871,14.12643,NaN,NaN,-0.02075482,0.8204241,1.998158E-06,1.054593,-6.698873E-10,1.395928
642.5737,-0.2986445,0.0004954787,NaN,-0.3210083,0.0004218467,NaN,0.3992836,-14.38594,NaN,-2.187586,-1.474131,-0.3771903,14.12283,NaN,NaN,-0.02073727,0.8184221,2.016933E-06,1.049445,-5.438259E-09,1.403272
642.5895,-0.2835306,0.0004958511,NaN,-0.3209502,0.0004226528,NaN,0.3996319,-14.38505,NaN,-2.184027,-1.463898,-0.377681,14.11178,NaN,NaN,-0.02072333,0.8191606,1.9767E-06,1.034439,-5.438259E-09,1.400419
642.6042,-0.2726464,0.000495922,NaN,-0.3209257,0.0004228463,NaN,0.4007456,-14.38476,NaN,-2.180714,-1.466906,-0.3776218,14.11494,NaN,NaN,-0.02071088,0.8195245,1.908453E-06,1.038821,-3.054073E-09,1.392243
642.6193,-0.2726464,0.000495922,NaN,-0.3209257,0.0004228463,NaN,0.4007456,-14.38476,NaN,-2.180714,-1.466906,-0.3776218,14.11494,NaN,NaN,-0.02071088,0.8195245,1.908453E-06,1.038821,-3.054073E-09,1.392243
642.6337,-0.2644696,0.0004952979,NaN,-0.3209282,0.0004226225,NaN,0.4020118,-14.38436,NaN,-2.178627,-1.463589,-0.377295,14.11132,NaN,NaN,-0.02069853,0.819847,1.843633E-06,1.033942,-5.438259E-09,1.388444
642.6495,-0.2580308,0.0004952255,NaN,-0.3209488,0.0004217762,NaN,0.403168,-14.38545,NaN,-2.17737,-1.477111,-0.3769459,14.12594,NaN,NaN,-0.02068566,0.8191207,1.792224E-06,1.053787,4.098484E-09,1.400052
642.6644,-0.2527128,0.0004955304,NaN,-0.3209823,0.0004222166,NaN,0.4041725,-14.3842,NaN,-2.176668,-1.467399,-0.3766385,14.11539,NaN,NaN,-0.0206727,0.820227,1.747371E-06,1.039533,4.098484E-09,1.387531
642.6795,-0.2527128,0.0004955304,NaN,-0.3209823,0.0004222166,NaN,0.4041725,-14.3842,NaN,-2.176668,-1.467399,-0.3766385,14.11539,NaN,NaN,-0.0206727,0.820227,1.747371E-06,1.039533,4.098484E-09,1.387531
642.6937,-0.2481224,0.0004953442,NaN,-0.3210246,0.0004223629,NaN,0.4050467,-14.38454,NaN,-2.176331,-1.464284,-0.3763794,14.11208,NaN,NaN,-0.02065983,0.8198153,1.706393E-06,1.03497,6.48267E-09,1.389954
642.7094,-0.2440091,0.0004959454,NaN,-0.3210726,0.000422051,NaN,0.4058232,-14.38471,NaN,-2.176228,-1.477124,-0.3761598,14.12585,NaN,NaN,-0.02064712,0.8199662,1.66914E-06,1.053784,4.098484E-09,1.394506
642.7242,-0.2402133,0.0004955444,NaN,-0.3211241,0.0004215839,NaN,0.4065301,-14.38524,NaN,-2.176274,-1.464701,-0.3759689,14.11258,NaN,NaN,-0.02063462,0.8192911,1.633824E-06,1.035581,4.098484E-09,1.393253
642.7391,-0.2402133,0.0004955444,NaN,-0.3211241,0.0004215839,NaN,0.4065301,-14.38524,NaN,-2.176274,-1.464701,-0.3759689,14.11258,NaN,NaN,-0.02063462,0.8192911,1.633824E-06,1.035581,4.098484E-09,1.393253
642.7535,-0.2366712,0.0004957679,NaN,-0.3337822,0.0004213357,NaN,0.4062484,-14.38513,NaN,-2.179515,-1.47151,-0.3796339,14.11986,NaN,NaN,-0.02063116,0.8195609,1.480938E-06,1.045554,6.48267E-09,1.392645
642.769,-0.233383,0.0004956099,NaN,-0.3540642,0.0004213188,NaN,0.4066665,-14.38492,NaN,-2.183583,-1.464422,-0.3830403,14.11225,NaN,NaN,-0.0206264,0.81965,1.35711E-06,1.035171,6.48267E-09,1.390851
642.7841,-0.2303059,0.0004949057,NaN,-0.3789122,0.0004210763,NaN,0.4074809,-14.38487,NaN,-2.187049,-1.462624,-0.3858837,14.11032,NaN,NaN,-0.02061933,0.8196517,1.274036E-06,1.032538,1.125104E-08,1.390599
642.799,-0.2303059,0.0004949057,NaN,-0.3789122,0.0004210763,NaN,0.4074809,-14.38487,NaN,-2.187049,-1.462624,-0.3858837,14.11032,NaN,NaN,-0.02061933,0.8196517,1.274036E-06,1.032538,1.125104E-08,1.390599
642.8135,-0.227388,0.0004938184,NaN,-0.405689,0.000420674,NaN,0.4084457,-14.3848,NaN,-2.188519,-1.46163,-0.3881519,14.10924,NaN,NaN,-0.02060944,0.8196992,1.243265E-06,1.031082,8.866856E-09,1.389579
642.829,-0.2245845,0.000493656,NaN,-0.4335294,0.000419858,NaN,0.4093852,-14.38478,NaN,-2.188386,-1.475941,-0.3901598,14.12456,NaN,NaN,-0.02059918,0.8201185,1.215549E-06,1.052046,6.48267E-09,1.394994
642.8442,-0.2218642,0.0004937751,NaN,-0.4618975,0.0004201854,NaN,0.4103018,-14.38465,NaN,-2.18747,-1.46598,-0.3919587,14.11386,NaN,NaN,-0.02058941,0.8201028,1.1815E-06,1.03744,8.866856E-09,1.389564
642.859,-0.2218642,0.0004937751,NaN,-0.4618975,0.0004201854,NaN,0.4103018,-14.38465,NaN,-2.18747,-1.46598,-0.3919587,14.11386,NaN,NaN,-0.02058941,0.8201028,1.1815E-06,1.03744,8.866856E-09,1.389564
642.8753,-0.2192063,0.0004939708,NaN,-0.4904612,0.0004202387,NaN,0.4111994,-14.38616,NaN,-2.186467,-1.470136,-0.3935785,14.11851,NaN,NaN,-0.02058031,0.8186951,1.140372E-06,1.043581,6.48267E-09,1.40064
642.8887,-0.2165934,0.0004942167,NaN,-0.5182531,0.0004207583,NaN,0.4121308,-14.38572,NaN,-2.185564,-1.465738,-0.3948188,14.11375,NaN,NaN,-0.02057116,0.8190404,1.09999E-06,1.037132,4.098484E-09,1.396777
642.9037,-0.2140148,0.0004947016,NaN,-0.5454458,0.0004212539,NaN,0.4129782,-14.38584,NaN,-2.185047,-1.468103,-0.3959773,14.11629,NaN,NaN,-0.02056249,0.818968,1.052157E-06,1.040596,2.906391E-09,1.398149
642.9197,-0.2140148,0.0004947016,NaN,-0.5454458,0.0004212539,NaN,0.4129782,-14.38584,NaN,-2.185047,-1.468103,-0.3959773,14.11629,NaN,NaN,-0.02056249,0.818968,1.052157E-06,1.040596,2.906391E-09,1.398149
642.9329,-0.211465,0.0004954781,NaN,-0.5721465,0.0004210066,NaN,0.4137534,-14.38542,NaN,-2.184899,-1.478864,-0.3971126,14.12773,NaN,NaN,-0.02055414,0.8196087,1.001941E-06,1.056334,4.098484E-09,1.398066
642.9484,-0.2089418,0.0004960323,NaN,-0.5984228,0.0004212428,NaN,0.414478,-14.38435,NaN,-2.18497,-1.472011,-0.3982342,14.12027,NaN,NaN,-0.0205459,0.8206044,9.533628E-07,1.046275,6.48267E-09,1.390236
642.9634,-0.2064394,0.0004962547,NaN,-0.6235556,0.0004216888,NaN,0.4152306,-14.38454,NaN,-2.184915,-1.466436,-0.3990977,14.11431,NaN,NaN,-0.02053715,0.8203242,9.18494E-07,1.038102,6.48267E-09,1.390232
642.9781,-0.2064394,0.0004962547,NaN,-0.6235556,0.0004216888,NaN,0.4152306,-14.38454,NaN,-2.184915,-1.466436,-0.3990977,14.11431,NaN,NaN,-0.02053715,0.8203242,9.18494E-07,1.038102,6.48267E-09,1.390232
642.9929,-0.2039555,0.0004959744,NaN,-0.6478727,0.0004218577,NaN,0.4159185,-14.38438,NaN,-2.184843,-1.463919,-0.3999473,14.11158,NaN,NaN,-0.02052865,0.8204308,8.830293E-07,1.034405,4.098484E-09,1.385831
643.0082,-0.2014901,0.0004958108,NaN,-0.671578,0.0004223098,NaN,0.4165653,-14.38452,NaN,-2.184799,-1.462874,-0.4008007,14.11047,NaN,NaN,-0.02052042,0.8202721,8.475645E-07,1.032876,2.906391E-09,1.389534
643.0233,-0.1990444,0.0004956974,NaN,-0.6947991,0.0004222218,NaN,0.4171925,-14.38587,NaN,-2.184783,-1.470002,-0.4016451,14.11829,NaN,NaN,-0.02051239,0.8191188,8.100135E-07,1.043375,4.098484E-09,1.395194
643.0381,-0.1990444,0.0004956974,NaN,-0.6947991,0.0004222218,NaN,0.4171925,-14.38587,NaN,-2.184783,-1.470002,-0.4016451,14.11829,NaN,NaN,-0.02051239,0.8191188,8.100135E-07,1.043375,4.098484E-09,1.395194
643.0528,-0.1966141,0.0004953691,NaN,-0.7168543,0.0004223728,NaN,0.4178711,-14.38436,NaN,-2.184587,-1.464111,-0.4022287,14.1118,NaN,NaN,-0.02050394,0.8205091,7.796152E-07,1.034706,-6.698873E-10,1.388133
643.068,-0.1941979,0.0004949759,NaN,-0.738095,0.0004226697,NaN,0.4184994,-14.38457,NaN,-2.184408,-1.462784,-0.4027973,14.1104,NaN,NaN,-0.02049582,0.8202726,7.483227E-07,1.032767,4.098484E-09,1.387903
643.0842,-0.1917971,0.0004950756,NaN,-0.7587396,0.0004220571,NaN,0.4190936,-14.38517,NaN,-2.184316,-1.477564,-0.4033733,14.12632,NaN,NaN,-0.020488,0.8200783,7.137521E-07,1.054453,6.48267E-09,1.396462
643.098,-0.1917971,0.0004950756,NaN,-0.7587396,0.0004220571,NaN,0.4190936,-14.38517,NaN,-2.184316,-1.477564,-0.4033733,14.12632,NaN,NaN,-0.020488,0.8200783,7.137521E-07,1.054453,6.48267E-09,1.396462
643.1123,-0.1894075,0.0004952847,NaN,-0.7781625,0.0004226028,NaN,0.4197309,-14.38429,NaN,-2.184109,-1.465799,-0.4037076,14.11361,NaN,NaN,-0.02047983,0.8208078,6.887181E-07,1.037191,2.906391E-09,1.388933
643.1277,-0.1870283,0.0004954804,NaN,-0.79675,0.0004231652,NaN,0.420314,-14.38499,NaN,-2.18396,-1.464472,-0.4040436,14.11227,NaN,NaN,-0.02047198,0.8200825,6.601079E-07,1.035266,1.714298E-09,1.391587
643.1428,-0.1846611,0.0004955198,NaN,-0.8147417,0.0004236211,NaN,0.4208622,-14.38516,NaN,-2.183912,-1.463227,-0.4044009,14.11095,NaN,NaN,-0.02046442,0.8198858,6.303056E-07,1.033445,2.906391E-09,1.391171
643.1578,-0.1846611,0.0004955198,NaN,-0.8147417,0.0004236211,NaN,0.4208622,-14.38516,NaN,-2.183912,-1.463227,-0.4044009,14.11095,NaN,NaN,-0.02046442,0.8198858,6.303056E-07,1.033445,2.906391E-09,1.391171
643.1719,-0.1823084,0.00049548,NaN,-0.8322867,0.0004228356,NaN,0.4213948,-14.3856,NaN,-2.183934,-1.477729,-0.4047678,14.12654,NaN,NaN,-0.02045704,0.8198246,5.993112E-07,1.05471,5.222056E-10,1.394949
643.1878,-0.1799659,0.000495796,NaN,-0.8487164,0.0004231725,NaN,0.4219803,-14.38662,NaN,-2.183787,-1.468843,-0.4048935,14.11712,NaN,NaN,-0.02044921,0.8187064,5.778535E-07,1.0417,-6.698873E-10,1.402109
643.2025,-0.1776323,0.0004959809,NaN,-0.8643909,0.000423643,NaN,0.4225168,-14.38492,NaN,-2.18365,-1.465356,-0.4050218,14.11317,NaN,NaN,-0.02044169,0.8203185,5.546077E-07,1.036543,-1.86198E-09,1.392322
643.2175,-0.1776323,0.0004959809,NaN,-0.8643909,0.000423643,NaN,0.4225168,-14.38492,NaN,-2.18365,-1.465356,-0.4050218,14.11317,NaN,NaN,-0.02044169,0.8203185,5.546077E-07,1.036543,-1.86198E-09,1.392322
643.2322,-0.1753093,0.0004959889,NaN,-0.8795332,0.0004241381,NaN,0.4230216,-14.38527,NaN,-2.183586,-1.462966,-0.4051731,14.11065,NaN,NaN,-0.02043446,0.8199153,5.307659E-07,1.033051,-1.86198E-09,1.391516
643.2477,-0.1729995,0.0004961505,NaN,-0.8942817,0.0004235322,NaN,0.4235129,-14.38578,NaN,-2.183587,-1.477376,-0.4053364,14.12615,NaN,NaN,-0.02042742,0.8197856,5.06924E-07,1.054184,-1.86198E-09,1.397526
643.2629,-0.1706982,0.0004962009,NaN,-0.9079607,0.0004237283,NaN,0.4240576,-14.38493,NaN,-2.183424,-1.466275,-0.4052627,14.11416,NaN,NaN,-0.02041995,0.820506,4.902348E-07,1.037902,5.222056E-10,1.391887
643.2786,-0.1706982,0.0004962009,NaN,-0.9079607,0.0004237283,NaN,0.4240576,-14.38493,NaN,-2.183424,-1.466275,-0.4052627,14.11416,NaN,NaN,-0.02041995,0.820506,4.902348E-07,1.037902,5.222056E-10,1.391887
643.293,-0.1684037,0.0004963617,NaN,-0.9209267,0.0004242465,NaN,0.4245531,-14.385,NaN,-2.183281,-1.464424,-0.4051971,14.11218,NaN,NaN,-0.02041278,0.820391,4.705652E-07,1.03519,1.118252E-09,1.39299
643.3074,-0.1661179,0.0004962989,NaN,-0.9333996,0.0004240173,NaN,0.4250166,-14.38595,NaN,-2.183221,-1.471143,-0.4051603,14.11951,NaN,NaN,-0.0204059,0.8196194,4.491075E-07,1.045074,5.222056E-10,1.394831
643.3224,-0.1638438,0.0004961247,NaN,-0.9455155,0.0004241615,NaN,0.4254669,-14.38488,NaN,-2.18323,-1.465263,-0.4051416,14.11308,NaN,NaN,-0.0203992,0.8205814,4.258617E-07,1.036432,-6.698873E-10,1.390954
643.3372,-0.1638438,0.0004961247,NaN,-0.9455155,0.0004241615,NaN,0.4254669,-14.38488,NaN,-2.18323,-1.465263,-0.4051416,14.11308,NaN,NaN,-0.0203992,0.8205814,4.258617E-07,1.036432,-6.698873E-10,1.390954
643.3513,-0.1615766,0.0004961423,NaN,-0.9565973,0.0004233716,NaN,0.4259704,-14.38517,NaN,-2.183075,-1.477731,-0.4048926,14.12649,NaN,NaN,-0.02039206,0.8206025,4.145369E-07,1.054725,-1.86198E-09,1.394236
643.3669,-0.1593142,0.0004957433,NaN,-0.9670007,0.0004230976,NaN,0.4264244,-14.38425,NaN,-2.18294,-1.465267,-0.4046578,14.11301,NaN,NaN,-0.02038523,0.8213759,3.978475E-07,1.036428,-1.265934E-09,1.387056
643.382,-0.1570589,0.0004947947,NaN,-0.9769448,0.0004223703,NaN,0.4268468,-14.38529,NaN,-2.182886,-1.465667,-0.4044577,14.11357,NaN,NaN,-0.02037868,0.8203548,3.805622E-07,1.037049,5.222056E-10,1.393036
643.3985,-0.1570589,0.0004947947,NaN,-0.9769448,0.0004223703,NaN,0.4268468,-14.38529,NaN,-2.182886,-1.465667,-0.4044577,14.11357,NaN,NaN,-0.02037868,0.8203548,3.805622E-07,1.037049,5.222056E-10,1.393036
643.4113,-0.1548062,0.0004934407,NaN,-0.9858029,0.0004214588,NaN,0.4273133,-14.3847,NaN,-2.182705,-1.463959,-0.4040437,14.11166,NaN,NaN,-0.02037176,0.8208944,3.668531E-07,1.034522,1.118252E-09,1.390086
643.427,-0.1525545,0.0004927902,NaN,-0.9939623,0.0004216288,NaN,0.4277267,-14.38515,NaN,-2.182577,-1.462678,-0.4036569,14.11033,NaN,NaN,-0.02036516,0.8204145,3.531441E-07,1.032657,1.714298E-09,1.393007
643.4421,-0.1503071,0.0004928852,NaN,-1.001661,0.0004218855,NaN,0.4281078,-14.3865,NaN,-2.182547,-1.468015,-0.403315,14.11623,NaN,NaN,-0.02035883,0.819218,3.364547E-07,1.04053,3.502438E-09,1.402604
643.4572,-0.1503071,0.0004928852,NaN,-1.001661,0.0004218855,NaN,0.4281078,-14.3865,NaN,-2.182547,-1.468015,-0.403315,14.11623,NaN,NaN,-0.02035883,0.819218,3.364547E-07,1.04053,3.502438E-09,1.402604
643.4713,-0.1480682,0.000493174,NaN,-1.009045,0.0004215007,NaN,0.4284771,-14.38679,NaN,-2.182587,-1.475847,-0.4030044,14.12464,NaN,NaN,-0.02035266,0.8190944,3.155931E-07,1.052006,3.502438E-09,1.404569
643.4871,-0.1458336,0.0004933319,NaN,-1.015444,0.0004219936,NaN,0.428901,-14.38511,NaN,-2.182455,-1.464615,-0.4024762,14.11244,NaN,NaN,-0.02034605,0.8206213,3.066524E-07,1.035526,3.800461E-09,1.392298
643.502,-0.143601,0.000493338,NaN,-1.021217,0.0004221823,NaN,0.4292765,-14.38619,NaN,-2.182334,-1.466802,-0.4019732,14.11492,NaN,NaN,-0.02033974,0.8196034,2.941354E-07,1.03877,4.694531E-09,1.397246
643.5168,-0.143601,0.000493338,NaN,-1.021217,0.0004221823,NaN,0.4292765,-14.38619,NaN,-2.182334,-1.466802,-0.4019732,14.11492,NaN,NaN,-0.02033974,0.8196034,2.941354E-07,1.03877,4.694531E-09,1.397246
643.5311,-0.1413734,0.0004941338,NaN,-1.026585,0.0004224845,NaN,0.4296221,-14.38688,NaN,-2.182289,-1.472676,-0.4015146,14.12129,NaN,NaN,-0.0203337,0.8190574,2.774461E-07,1.047393,3.204415E-09,1.405134
643.5466,-0.1391551,0.0004951078,NaN,-1.031684,0.0004222195,NaN,0.4299572,-14.38576,NaN,-2.182308,-1.480185,-0.4010879,14.12918,NaN,NaN,-0.02032783,0.8202949,2.649292E-07,1.058362,1.714299E-09,1.398541
643.5618,-0.1369417,0.0004958253,NaN,-1.035835,0.0004225342,NaN,0.4303471,-14.38494,NaN,-2.182161,-1.472834,-0.4004458,14.1212,NaN,NaN,-0.02032152,0.8210437,2.589687E-07,1.047567,1.714299E-09,1.392842
643.5767,-0.1369417,0.0004958253,NaN,-1.035835,0.0004225342,NaN,0.4303471,-14.38494,NaN,-2.182161,-1.472834,-0.4004458,14.1212,NaN,NaN,-0.02032152,0.8210437,2.589687E-07,1.047567,1.714299E-09,1.392842
643.591,-0.1347306,0.0004959371,NaN,-1.039395,0.0004228682,NaN,0.4306886,-14.38488,NaN,-2.182034,-1.465684,-0.3998322,14.11351,NaN,NaN,-0.02031551,0.8209972,2.49432E-07,1.03707,-2.458026E-09,1.389835
643.6067,-0.1325248,0.0004958615,NaN,-1.042581,0.000423266,NaN,0.4309999,-14.38533,NaN,-2.181989,-1.463646,-0.3992667,14.11137,NaN,NaN,-0.02030976,0.8205132,2.36915E-07,1.034093,-1.265933E-09,1.390474
643.6218,-0.1303287,0.0004956642,NaN,-1.045527,0.0004236644,NaN,0.4313005,-14.3854,NaN,-2.181994,-1.462502,-0.3987383,14.11014,NaN,NaN,-0.02030416,0.8204235,2.285703E-07,1.032415,-3.054073E-09,1.392279
643.6369,-0.1303287,0.0004956642,NaN,-1.045527,0.0004236644,NaN,0.4313005,-14.3854,NaN,-2.181994,-1.462502,-0.3987383,14.11014,NaN,NaN,-0.02030416,0.8204235,2.285703E-07,1.032415,-3.054073E-09,1.392279
643.6509,-0.1281382,0.0004958569,NaN,-1.047552,0.0004231198,NaN,0.4316568,-14.38639,NaN,-2.181834,-1.476944,-0.3979976,14.12576,NaN,NaN,-0.02029814,0.819829,2.24398E-07,1.053622,-4.544189E-09,1.399752
643.6666,-0.1259504,0.0004960868,NaN,-1.049013,0.0004233955,NaN,0.4319628,-14.38498,NaN,-2.181642,-1.467941,-0.3972937,14.11595,NaN,NaN,-0.02029234,0.8211229,2.178415E-07,1.040401,-3.054073E-09,1.392207
643.6828,-0.1237685,0.0004962338,NaN,-1.050125,0.0004237638,NaN,0.4322385,-14.38517,NaN,-2.181465,-1.466401,-0.3966444,14.11432,NaN,NaN,-0.02028677,0.8209108,2.11285E-07,1.038146,-2.160003E-09,1.394719
643.6967,-0.1237685,0.0004962338,NaN,-1.050125,0.0004237638,NaN,0.4322385,-14.38517,NaN,-2.181465,-1.466401,-0.3966444,14.11432,NaN,NaN,-0.02028677,0.8209108,2.11285E-07,1.038146,-2.160003E-09,1.394719
643.7109,-0.1215887,0.0004960717,NaN,-1.050261,0.0004241788,NaN,0.4325603,-14.38537,NaN,-2.181115,-1.462713,-0.3957992,14.11038,NaN,NaN,-0.02028083,0.8206223,2.10689E-07,1.032742,-1.265933E-09,1.389797
643.7267,-0.1194091,0.0004963753,NaN,-1.049811,0.0004245274,NaN,0.4328286,-14.38672,NaN,-2.180738,-1.468116,-0.3950038,14.11635,NaN,NaN,-0.02027515,0.8194319,2.089008E-07,1.040715,-3.054073E-09,1.402154
643.7415,-0.1172478,0.0004967503,NaN,-1.049005,0.0004247611,NaN,0.4330773,-14.38691,NaN,-2.180378,-1.470072,-0.3942662,14.11846,NaN,NaN,-0.02026969,0.8192807,2.047285E-07,1.043583,-1.86198E-09,1.401638
643.7562,-0.1172478,0.0004967503,NaN,-1.049005,0.0004247611,NaN,0.4330773,-14.38691,NaN,-2.180378,-1.470072,-0.3942662,14.11846,NaN,NaN,-0.02026969,0.8192807,2.047285E-07,1.043583,-1.86198E-09,1.401638
643.7705,-0.115116,0.0004971823,NaN,-1.047988,0.000424648,NaN,0.4333296,-14.38711,NaN,-2.180043,-1.47451,-0.3935683,14.12322,NaN,NaN,-0.02026441,0.8191662,2.005562E-07,1.050087,-3.650119E-09,1.402653
643.7864,-0.1130086,0.0004976609,NaN,-1.046086,0.0004255391,NaN,0.4336462,-14.38533,NaN,-2.179534,-1.465045,-0.3926633,14.11289,NaN,NaN,-0.02025871,0.8208001,2.005562E-07,1.036187,-2.309014E-09,1.389443
643.8012,-0.1109439,0.0004982383,NaN,-1.043658,0.0004264338,NaN,0.4339343,-14.38543,NaN,-2.178989,-1.465083,-0.3917959,14.11294,NaN,NaN,-0.02025322,0.8206983,1.993641E-07,1.036245,-2.458026E-09,1.389838
643.8164,-0.1109439,0.0004982383,NaN,-1.043658,0.0004264338,NaN,0.4339343,-14.38543,NaN,-2.178989,-1.465083,-0.3917959,14.11294,NaN,NaN,-0.02025322,0.8206983,1.993641E-07,1.036245,-2.458026E-09,1.389838
643.8308,-0.1089248,0.0004986163,NaN,-1.040922,0.0004260527,NaN,0.4342083,-14.38559,NaN,-2.178458,-1.477898,-0.3909832,14.1267,NaN,NaN,-0.02024796,0.8208457,1.98768E-07,1.055044,-3.650119E-09,1.395075
643.8467,-0.1069483,0.0004987272,NaN,-1.038012,0.0004264754,NaN,0.4344817,-14.38565,NaN,-2.177956,-1.465223,-0.3902111,14.1131,NaN,NaN,-0.02024285,0.8206377,1.945957E-07,1.036447,-4.097154E-09,1.392268
643.8617,-0.1050016,0.0004988479,NaN,-1.034247,0.0004267883,NaN,0.4348116,-14.38652,NaN,-2.177283,-1.466489,-0.389238,14.11456,NaN,NaN,-0.02023735,0.8198053,1.98768E-07,1.038329,-3.79913E-09,1.396574
643.8788,-0.1050016,0.0004988479,NaN,-1.034247,0.0004267883,NaN,0.4348116,-14.38652,NaN,-2.177283,-1.466489,-0.389238,14.11456,NaN,NaN,-0.02023735,0.8198053,1.98768E-07,1.038329,-3.79913E-09,1.396574
643.8911,-0.1030979,0.0004996433,NaN,-1.029981,0.0004264761,NaN,0.4351064,-14.38583,NaN,-2.176578,-1.479093,-0.3883075,14.12796,NaN,NaN,-0.02023207,0.8207751,2.029404E-07,1.056769,-3.948142E-09,1.394579
643.9066,-0.1012375,0.0004999713,NaN,-1.025429,0.0004268764,NaN,0.4353821,-14.38547,NaN,-2.175893,-1.46665,-0.3874358,14.11455,NaN,NaN,-0.020227,0.8210141,2.035364E-07,1.038504,-3.352095E-09,1.386576
643.9214,-0.09941627,0.000499808,NaN,-1.020725,0.0004271853,NaN,0.4356536,-14.38529,NaN,-2.175241,-1.462587,-0.3866087,14.11015,NaN,NaN,-0.0202221,0.821098,2.017483E-07,1.032526,-3.501107E-09,1.386109
643.9363,-0.09941627,0.000499808,NaN,-1.020725,0.0004271853,NaN,0.4356536,-14.38529,NaN,-2.175241,-1.462587,-0.3866087,14.11015,NaN,NaN,-0.0202221,0.821098,2.017483E-07,1.032526,-3.501107E-09,1.386109
643.9506,-0.09762133,0.0005000894,NaN,-1.015185,0.0004268099,NaN,0.4359775,-14.3867,NaN,-2.174422,-1.475724,-0.3855874,14.12443,NaN,NaN,-0.02021682,0.8200489,2.071127E-07,1.051847,-4.6932E-09,1.397885
643.9663,-0.09586486,0.0005001415,NaN,-1.009163,0.0004271595,NaN,0.4362641,-14.386,NaN,-2.173576,-1.464103,-0.3846124,14.11188,NaN,NaN,-0.02021175,0.8206033,2.11881E-07,1.034791,-2.160003E-09,1.389093
643.9814,-0.09414705,0.0005007183,NaN,-1.002874,0.0004267052,NaN,0.4365301,-14.38638,NaN,-2.172753,-1.478943,-0.3836995,14.12783,NaN,NaN,-0.02020691,0.820607,2.154573E-07,1.056557,-3.501107E-09,1.396815
643.9964,-0.09414705,0.0005007183,NaN,-1.002874,0.0004267052,NaN,0.4365301,-14.38638,NaN,-2.172753,-1.478943,-0.3836995,14.12783,NaN,NaN,-0.02020691,0.820607,2.154573E-07,1.056557,-3.501107E-09,1.396815
644.0108,-0.09245604,0.0005008989,NaN,-0.9956878,0.000427173,NaN,0.4368406,-14.38634,NaN,-2.171769,-1.464392,-0.3826095,14.1122,NaN,NaN,-0.02020172,0.8205065,2.220138E-07,1.035207,-3.054072E-09,1.391186
644.0266,-0.09080313,0.000501415,NaN,-0.9879882,0.0004266959,NaN,0.4371116,-14.38614,NaN,-2.170765,-1.47877,-0.3815764,14.12757,NaN,NaN,-0.02019677,0.8210756,2.279743E-07,1.056268,-3.79913E-09,1.396192
644.0417,-0.0891877,0.0005015357,NaN,-0.9800093,0.0004256508,NaN,0.4373618,-14.38685,NaN,-2.169794,-1.478274,-0.380612,14.1271,NaN,NaN,-0.02019205,0.8203649,2.339347E-07,1.055542,-4.097153E-09,1.397493
644.0566,-0.0891877,0.0005015357,NaN,-0.9800093,0.0004256508,NaN,0.4373618,-14.38685,NaN,-2.169794,-1.478274,-0.380612,14.1271,NaN,NaN,-0.02019205,0.8203649,2.339347E-07,1.055542,-4.097153E-09,1.397493
644.0719,-0.0876054,0.0005019287,NaN,-0.9718943,0.0004255876,NaN,0.4376067,-14.38583,NaN,-2.168868,-1.471715,-0.3797001,14.11994,NaN,NaN,-0.02018749,0.8213115,2.387031E-07,1.045897,-6.183316E-09,1.389829
644.0866,-0.08604383,0.0005020552,NaN,-0.9629689,0.0004259362,NaN,0.4379,-14.38582,NaN,-2.167785,-1.465558,-0.3786075,14.11331,NaN,NaN,-0.02018257,0.8212242,2.482398E-07,1.036852,-3.79913E-09,1.388523
644.1015,-0.08451366,0.0005021832,NaN,-0.9535897,0.0004264968,NaN,0.4381546,-14.38649,NaN,-2.166685,-1.463637,-0.3775688,14.11132,NaN,NaN,-0.02017787,0.8205118,2.50624E-07,1.034051,-1.712968E-09,1.39218
644.1164,-0.08451366,0.0005021832,NaN,-0.9535897,0.0004264968,NaN,0.4381546,-14.38649,NaN,-2.166685,-1.463637,-0.3775688,14.11132,NaN,NaN,-0.02017787,0.8205118,2.50624E-07,1.034051,-1.712968E-09,1.39218
644.1307,-0.0830149,0.0005025386,NaN,-0.9439741,0.0004260571,NaN,0.4383878,-14.38668,NaN,-2.165617,-1.477457,-0.3765976,14.12615,NaN,NaN,-0.0201734,0.8206892,2.583726E-07,1.054314,-3.501107E-09,1.396462
644.1463,-0.08154418,0.000501968,NaN,-0.9342554,0.0004254732,NaN,0.4386146,-14.386,NaN,-2.164594,-1.466204,-0.3756791,14.11399,NaN,NaN,-0.02016909,0.8212293,2.62545E-07,1.037792,-1.414944E-09,1.390688
644.1614,-0.08009035,0.0005011305,NaN,-0.9237533,0.0004247773,NaN,0.438887,-14.3856,NaN,-2.163415,-1.466944,-0.3745854,14.11474,NaN,NaN,-0.02016443,0.8216496,2.744659E-07,1.038869,-1.414944E-09,1.386107
644.1765,-0.08009035,0.0005011305,NaN,-0.9237533,0.0004247773,NaN,0.438887,-14.3856,NaN,-2.163415,-1.466944,-0.3745854,14.11474,NaN,NaN,-0.02016443,0.8216496,2.744659E-07,1.038869,-1.414944E-09,1.386107
644.1909,-0.07866368,0.0005016321,NaN,-0.9128198,0.0004242435,NaN,0.43912,-14.38543,NaN,-2.162221,-1.476232,-0.3735478,14.1247,NaN,NaN,-0.02015999,0.8220295,2.834066E-07,1.0525,-1.414944E-09,1.390197
644.2064,-0.07726452,0.0005023014,NaN,-0.9016701,0.0004233984,NaN,0.4393312,-14.38659,NaN,-2.161061,-1.480684,-0.3725787,14.12961,NaN,NaN,-0.02015576,0.8209241,2.911552E-07,1.059065,7.517165E-11,1.396576
644.2216,-0.07589006,0.0005029909,NaN,-0.8904359,0.0004235843,NaN,0.4395357,-14.38574,NaN,-2.159948,-1.472612,-0.3716635,14.12085,NaN,NaN,-0.0201517,0.8216988,2.941354E-07,1.047207,-8.18898E-10,1.390803
644.2367,-0.07589006,0.0005029909,NaN,-0.8904359,0.0004235843,NaN,0.4395357,-14.38574,NaN,-2.159948,-1.472612,-0.3716635,14.12085,NaN,NaN,-0.0201517,0.8216988,2.941354E-07,1.047207,-8.18898E-10,1.390803
644.251,-0.07453706,0.0005033684,NaN,-0.8791981,0.0004241876,NaN,0.4397397,-14.3859,NaN,-2.158882,-1.46628,-0.3707905,14.11405,NaN,NaN,-0.02014776,0.8214349,3.00692E-07,1.037911,-2.309014E-09,1.391248
644.2675,-0.0732028,0.0005034537,NaN,-0.8680059,0.0004246518,NaN,0.4399443,-14.3864,NaN,-2.157858,-1.464263,-0.3699526,14.11194,NaN,NaN,-0.02014392,0.8208945,3.018841E-07,1.034966,-2.228515E-10,1.38984
644.2815,-0.07188524,0.0005035537,NaN,-0.8568894,0.0004252286,NaN,0.4401492,-14.38692,NaN,-2.156871,-1.463107,-0.3691456,14.11077,NaN,NaN,-0.02014019,0.8203505,3.054603E-07,1.033287,-1.414944E-09,1.394366
644.2964,-0.07188524,0.0005035537,NaN,-0.8568894,0.0004252286,NaN,0.4401492,-14.38692,NaN,-2.156871,-1.463107,-0.3691456,14.11077,NaN,NaN,-0.02014019,0.8203505,3.054603E-07,1.033287,-1.414944E-09,1.394366
644.3109,-0.07058963,0.0005035355,NaN,-0.8466287,0.000425749,NaN,0.4403113,-14.38699,NaN,-2.156117,-1.462013,-0.3685747,14.10959,NaN,NaN,-0.02013702,0.8202537,3.00692E-07,1.031684,-8.188979E-10,1.395612
644.3264,-0.0693038,0.0005039981,NaN,-0.8369337,0.0004254317,NaN,0.4405121,-14.38674,NaN,-2.155447,-1.476629,-0.3680076,14.12522,NaN,NaN,-0.02013382,0.8209062,2.977117E-07,1.053094,3.731949E-10,1.395674
644.3413,-0.06802457,0.0005035562,NaN,-0.8276259,0.0004249377,NaN,0.440733,-14.38588,NaN,-2.154804,-1.466264,-0.3674279,14.11399,NaN,NaN,-0.02013061,0.8216245,2.989038E-07,1.037871,-2.228515E-10,1.387813
644.3577,-0.06802457,0.0005035562,NaN,-0.8276259,0.0004249377,NaN,0.440733,-14.38588,NaN,-2.154804,-1.466264,-0.3674279,14.11399,NaN,NaN,-0.02013061,0.8216245,2.989038E-07,1.037871,-2.228515E-10,1.387813
644.3705,-0.06675219,0.0005031143,NaN,-0.8185951,0.0004248952,NaN,0.4409578,-14.38594,NaN,-2.154167,-1.464051,-0.3668465,14.11162,NaN,NaN,-0.02012742,0.8215069,2.983078E-07,1.034623,-1.712968E-09,1.386936
644.3864,-0.06549428,0.0005033692,NaN,-0.8105346,0.0004241848,NaN,0.4411387,-14.38629,NaN,-2.153734,-1.478048,-0.3664771,14.1267,NaN,NaN,-0.02012473,0.8215088,2.911552E-07,1.05518,-1.116921E-09,1.395059
644.4012,-0.06424213,0.000503359,NaN,-0.8031017,0.0004244183,NaN,0.4413547,-14.38611,NaN,-2.15336,-1.464334,-0.3660972,14.11193,NaN,NaN,-0.020122,0.8215364,2.88771E-07,1.035041,-2.309014E-09,1.388271
644.4164,-0.06424213,0.000503359,NaN,-0.8031017,0.0004244183,NaN,0.4413547,-14.38611,NaN,-2.15336,-1.464334,-0.3660972,14.11193,NaN,NaN,-0.020122,0.8215364,2.88771E-07,1.035041,-2.309014E-09,1.388271
644.4308,-0.06299433,0.000503187,NaN,-0.7960847,0.0004247953,NaN,0.4415876,-14.38641,NaN,-2.152993,-1.46264,-0.3656944,14.11014,NaN,NaN,-0.02011924,0.8211867,2.875789E-07,1.032559,-2.309014E-09,1.389518
644.4464,-0.0617521,0.0005033746,NaN,-0.7893528,0.0004254525,NaN,0.4418223,-14.38747,NaN,-2.152618,-1.463668,-0.3652815,14.11137,NaN,NaN,-0.02011649,0.8201629,2.857908E-07,1.034103,-2.90506E-09,1.3985
644.4626,-0.0605234,0.0005028282,NaN,-0.7835865,0.0004250646,NaN,0.4420121,-14.38685,NaN,-2.152433,-1.467612,-0.3650718,14.11551,NaN,NaN,-0.02011422,0.8208809,2.780422E-07,1.039855,7.517187E-11,1.394234
644.4766,-0.0605234,0.0005028282,NaN,-0.7835865,0.0004250646,NaN,0.4420121,-14.38685,NaN,-2.152433,-1.467612,-0.3650718,14.11551,NaN,NaN,-0.02011422,0.8208809,2.780422E-07,1.039855,7.517187E-11,1.394234
644.4908,-0.05930077,0.0005027233,NaN,-0.7784356,0.0004256029,NaN,0.4422362,-14.38638,NaN,-2.152299,-1.463737,-0.3648454,14.11128,NaN,NaN,-0.0201119,0.8212586,2.714856E-07,1.034153,-1.116921E-09,1.391431
644.5063,-0.05808307,0.0005019166,NaN,-0.7736838,0.0004254533,NaN,0.4424764,-14.38593,NaN,-2.152162,-1.462533,-0.3645908,14.10992,NaN,NaN,-0.02010953,0.8216693,2.661212E-07,1.032366,1.267265E-09,1.384936
644.5212,-0.05687144,0.0005013667,NaN,-0.7691972,0.000425787,NaN,0.4427182,-14.38617,NaN,-2.152009,-1.46229,-0.3643209,14.10968,NaN,NaN,-0.02010716,0.8214194,2.63737E-07,1.032016,7.517187E-11,1.386385
644.5363,-0.05687144,0.0005013667,NaN,-0.7691972,0.000425787,NaN,0.4427182,-14.38617,NaN,-2.152009,-1.46229,-0.3643209,14.10968,NaN,NaN,-0.02010716,0.8214194,2.63737E-07,1.032016,7.517187E-11,1.386385
644.5504,-0.05567358,0.0005009281,NaN,-0.7656542,0.0004258039,NaN,0.4429151,-14.38753,NaN,-2.152041,-1.46715,-0.3642484,14.11508,NaN,NaN,-0.02010527,0.8202059,2.530082E-07,1.039199,-2.309014E-09,1.394857
644.5665,-0.0544826,0.0005005033,NaN,-0.7627042,0.0004262159,NaN,0.4431462,-14.38672,NaN,-2.152117,-1.462342,-0.3641548,14.10982,NaN,NaN,-0.02010331,0.8209011,2.476438E-07,1.032124,-2.90506E-09,1.388849
644.5812,-0.05329728,0.0005004688,NaN,-0.76013,0.0004267099,NaN,0.4433934,-14.38771,NaN,-2.152184,-1.464116,-0.3640286,14.11185,NaN,NaN,-0.02010129,0.8199599,2.416833E-07,1.034762,-1.712967E-09,1.396756
644.5964,-0.05329728,0.0005004688,NaN,-0.76013,0.0004267099,NaN,0.4433934,-14.38771,NaN,-2.152184,-1.464116,-0.3640286,14.11185,NaN,NaN,-0.02010129,0.8199599,2.416833E-07,1.034762,-1.712967E-09,1.396756
644.6108,-0.05212444,0.0005004146,NaN,-0.7585592,0.0004272584,NaN,0.4436014,-14.38698,NaN,-2.152431,-1.461965,-0.3640858,14.10944,NaN,NaN,-0.02009971,0.8206244,2.297624E-07,1.031582,-2.309014E-09,1.391473
644.6265,-0.05095751,0.0005006388,NaN,-0.7576094,0.0004281135,NaN,0.4438445,-14.38728,NaN,-2.152712,-1.461479,-0.3641126,14.10895,NaN,NaN,-0.02009804,0.8203128,2.190336E-07,1.030878,-2.309014E-09,1.395701
644.6416,-0.04979546,0.000500987,NaN,-0.757044,0.0004281196,NaN,0.4441033,-14.38888,NaN,-2.152975,-1.472346,-0.3641,14.12081,NaN,NaN,-0.0200963,0.8190258,2.12477E-07,1.04687,-2.90506E-09,1.406096
644.6577,-0.04979546,0.000500987,NaN,-0.757044,0.0004281196,NaN,0.4441033,-14.38888,NaN,-2.152975,-1.472346,-0.3641,14.12081,NaN,NaN,-0.0200963,0.8190258,2.12477E-07,1.04687,-2.90506E-09,1.406096
644.6707,-0.04863935,0.0005010407,NaN,-0.7567166,0.000428551,NaN,0.4443628,-14.38729,NaN,-2.153208,-1.464171,-0.3640627,14.11188,NaN,NaN,-0.02009454,0.820466,2.053245E-07,1.034861,-1.116921E-09,1.394875
644.6865,-0.04749659,0.000500995,NaN,-0.7572945,0.0004289843,NaN,0.4445766,-14.3877,NaN,-2.153611,-1.463062,-0.3642139,14.11074,NaN,NaN,-0.02009323,0.820041,1.922115E-07,1.03325,7.517198E-11,1.396507
644.7013,-0.04636716,0.0005011784,NaN,-0.7584274,0.0004290824,NaN,0.4448267,-14.38932,NaN,-2.154045,-1.469699,-0.3643371,14.11807,NaN,NaN,-0.02009184,0.8185994,1.835688E-07,1.043037,-5.208745E-10,1.407474
644.7162,-0.04636716,0.0005011784,NaN,-0.7584274,0.0004290824,NaN,0.4448267,-14.38932,NaN,-2.154045,-1.469699,-0.3643371,14.11807,NaN,NaN,-0.02009184,0.8185994,1.835688E-07,1.043037,-5.208745E-10,1.407474
644.7304,-0.04525283,0.0005017968,NaN,-0.7598951,0.000428668,NaN,0.4450969,-14.38784,NaN,-2.154456,-1.47849,-0.3644194,14.12727,NaN,NaN,-0.02009038,0.8202459,1.743301E-07,1.05586,-1.712967E-09,1.403152
644.7463,-0.04415378,0.0005020581,NaN,-0.7615617,0.0004286143,NaN,0.4453714,-14.38738,NaN,-2.154834,-1.470311,-0.3644739,14.11844,NaN,NaN,-0.02008889,0.8206111,1.665815E-07,1.043857,-2.90506E-09,1.393598
644.7615,-0.04307546,0.0005021488,NaN,-0.7641044,0.0004288174,NaN,0.4456009,-14.38731,NaN,-2.15538,-1.466578,-0.3647167,14.11442,NaN,NaN,-0.02008785,0.8206126,1.525744E-07,1.038377,-2.90506E-09,1.397683
644.7764,-0.04307546,0.0005021488,NaN,-0.7641044,0.0004288174,NaN,0.4456009,-14.38731,NaN,-2.15538,-1.466578,-0.3647167,14.11442,NaN,NaN,-0.02008785,0.8206126,1.525744E-07,1.038377,-2.90506E-09,1.397683
644.7906,-0.04201696,0.0005025942,NaN,-0.767173,0.0004284487,NaN,0.4458688,-14.38874,NaN,-2.155953,-1.476743,-0.3649278,14.1255,NaN,NaN,-0.02008672,0.8194188,1.418456E-07,1.053329,-2.309014E-09,1.406879
644.8063,-0.04097647,0.0005027582,NaN,-0.7705503,0.0004286813,NaN,0.4461567,-14.38742,NaN,-2.156502,-1.46667,-0.3650952,14.11457,NaN,NaN,-0.0200855,0.8206133,1.308187E-07,1.038547,-2.90506E-09,1.396903
644.8214,-0.03995215,0.0005028827,NaN,-0.774102,0.0004291429,NaN,0.4464479,-14.38812,NaN,-2.157013,-1.464533,-0.3652323,14.11236,NaN,NaN,-0.02008425,0.8198782,1.197918E-07,1.035432,-4.6932E-09,1.40005
644.838,-0.03995215,0.0005028827,NaN,-0.774102,0.0004291429,NaN,0.4464479,-14.38812,NaN,-2.157013,-1.464533,-0.3652323,14.11236,NaN,NaN,-0.02008425,0.8198782,1.197918E-07,1.035432,-4.6932E-09,1.40005
644.8527,-0.03894842,0.0005031088,NaN,-0.7785068,0.0004298603,NaN,0.4466925,-14.38851,NaN,-2.157693,-1.462951,-0.3655574,14.1107,NaN,NaN,-0.02008345,0.8194486,1.051887E-07,1.033124,-4.6932E-09,1.404035
644.8663,-0.03796337,0.0005034524,NaN,-0.7834151,0.000430306,NaN,0.4469749,-14.38967,NaN,-2.158395,-1.466963,-0.365849,14.11515,NaN,NaN,-0.02008256,0.8184053,9.147964E-08,1.03904,-5.885292E-09,1.410469
644.881,-0.03699481,0.0005042304,NaN,-0.7886108,0.0004301435,NaN,0.4472769,-14.38966,NaN,-2.15907,-1.4775,-0.3660944,14.12639,NaN,NaN,-0.02008156,0.8186541,8.283697E-08,1.054452,-5.885292E-09,1.412675
644.8961,-0.03699481,0.0005042304,NaN,-0.7886108,0.0004301435,NaN,0.4472769,-14.38966,NaN,-2.15907,-1.4775,-0.3660944,14.12639,NaN,NaN,-0.02008156,0.8186541,8.283697E-08,1.054452,-5.885292E-09,1.412675
644.9105,-0.03604689,0.0005047414,NaN,-0.7947213,0.0004294044,NaN,0.4475383,-14.38956,NaN,-2.159909,-1.479589,-0.3665164,14.1286,NaN,NaN,-0.02008099,0.8187705,6.823383E-08,1.057504,-5.885292E-09,1.408564
644.9259,-0.03511707,0.0005046666,NaN,-0.8013663,0.0004286987,NaN,0.4478392,-14.38834,NaN,-2.160763,-1.471651,-0.3668968,14.11997,NaN,NaN,-0.02008031,0.8199049,5.392872E-08,1.045856,-2.90506E-09,1.400997
644.9409,-0.03420283,0.0005044655,NaN,-0.8083098,0.0004286197,NaN,0.4481595,-14.38798,NaN,-2.161581,-1.464899,-0.3672251,14.11268,NaN,NaN,-0.02007952,0.8201479,4.290186E-08,1.035945,-4.097153E-09,1.395165
644.956,-0.03420283,0.0005044655,NaN,-0.8083098,0.0004286197,NaN,0.4481595,-14.38798,NaN,-2.161581,-1.464899,-0.3672251,14.11268,NaN,NaN,-0.02007952,0.8201479,4.290186E-08,1.035945,-4.097153E-09,1.395165
644.9702,-0.03330211,0.0005047882,NaN,-0.8154057,0.0004279302,NaN,0.4484824,-14.3886,NaN,-2.162352,-1.47752,-0.3675162,14.12627,NaN,NaN,-0.02007867,0.8198462,3.247104E-08,1.054458,-6.481339E-09,1.403658
644.9858,-0.0324197,0.0005042964,NaN,-0.8233252,0.0004274237,NaN,0.4487554,-14.38774,NaN,-2.163281,-1.46487,-0.3679944,14.11262,NaN,NaN,-0.02007828,0.8205522,1.607977E-08,1.0359,-5.885292E-09,1.397826
645.0008,-0.03155305,0.0005045868,NaN,-0.8317153,0.0004266881,NaN,0.4490659,-14.38747,NaN,-2.164226,-1.475763,-0.3684349,14.12426,NaN,NaN,-0.02007778,0.8211025,8.805809E-10,1.05186,-6.481339E-09,1.398975
645.0159,-0.03155305,0.0005045868,NaN,-0.8317153,0.0004266881,NaN,0.4490659,-14.38747,NaN,-2.164226,-1.475763,-0.3684349,14.12426,NaN,NaN,-0.02007778,0.8211025,8.805809E-10,1.05186,-6.481339E-09,1.398975
645.0301,-0.03069988,0.0005043419,NaN,-0.8403571,0.0004262615,NaN,0.4493962,-14.38793,NaN,-2.165136,-1.466218,-0.3688239,14.11405,NaN,NaN,-0.02007717,0.8205069,-1.253046E-08,1.037857,-7.077385E-09,1.400008
645.0467,-0.02985843,0.0005045225,NaN,-0.8491149,0.0004251112,NaN,0.4497299,-14.38883,NaN,-2.165998,-1.480199,-0.369175,14.12914,NaN,NaN,-0.02007651,0.8199314,-2.474941E-08,1.05838,-6.481339E-09,1.404524
645.0611,-0.0290341,0.0005049171,NaN,-0.8586666,0.0004250486,NaN,0.4500131,-14.3877,NaN,-2.16702,-1.471368,-0.3697153,14.11955,NaN,NaN,-0.0200763,0.8209828,-4.263081E-08,1.045414,-6.779362E-09,1.396256
645.0758,-0.0290341,0.0005049171,NaN,-0.8586666,0.0004250486,NaN,0.4500131,-14.3877,NaN,-2.16702,-1.471368,-0.3697153,14.11955,NaN,NaN,-0.0200763,0.8209828,-4.263081E-08,1.045414,-6.779362E-09,1.396256
645.0898,-0.02822409,0.0005053223,NaN,-0.8686635,0.0004257956,NaN,0.4503346,-14.38817,NaN,-2.168055,-1.465206,-0.3702168,14.11298,NaN,NaN,-0.02007598,0.8204188,-5.574383E-08,1.036382,-7.375408E-09,1.398748
645.1053,-0.02742617,0.0005060346,NaN,-0.8788894,0.0004257438,NaN,0.450677,-14.38775,NaN,-2.169054,-1.475389,-0.3706648,14.12384,NaN,NaN,-0.02007554,0.8210894,-6.766476E-08,1.051295,-9.163547E-09,1.397027
645.1201,-0.02663874,0.0005062365,NaN,-0.8892103,0.0004261148,NaN,0.4510235,-14.38802,NaN,-2.170004,-1.466341,-0.3710726,14.11414,NaN,NaN,-0.02007505,0.8207028,-8.018174E-08,1.038019,-8.865524E-09,1.396392
645.1353,-0.02663874,0.0005062365,NaN,-0.8892103,0.0004261148,NaN,0.4510235,-14.38802,NaN,-2.170004,-1.466341,-0.3710726,14.11414,NaN,NaN,-0.02007505,0.8207028,-8.018174E-08,1.038019,-8.865524E-09,1.396392
645.1495,-0.02586768,0.0005066704,NaN,-0.9003052,0.0004269999,NaN,0.4513182,-14.38873,NaN,-2.171111,-1.464212,-0.3716716,14.11194,NaN,NaN,-0.02007501,0.8199412,-9.567894E-08,1.034916,-7.971455E-09,1.403581
645.1654,-0.02510985,0.0005072844,NaN,-0.9118264,0.0004267919,NaN,0.4516518,-14.38966,NaN,-2.17223,-1.477589,-0.3722305,14.12638,NaN,NaN,-0.02007485,0.8193595,-1.099841E-07,1.054548,-9.163547E-09,1.40804
645.1803,-0.02436299,0.0005078227,NaN,-0.9235583,0.0004262419,NaN,0.4520071,-14.3902,NaN,-2.173311,-1.478882,-0.3727337,14.12781,NaN,NaN,-0.02007458,0.8188226,-1.236931E-07,1.056445,-8.5675E-09,1.410182
645.1951,-0.02436299,0.0005078227,NaN,-0.9235583,0.0004262419,NaN,0.4520071,-14.3902,NaN,-2.173311,-1.478882,-0.3727337,14.12781,NaN,NaN,-0.02007458,0.8188226,-1.236931E-07,1.056445,-8.5675E-09,1.410182
645.2096,-0.02363288,0.0005083134,NaN,-0.9361289,0.0004262363,NaN,0.4523168,-14.38843,NaN,-2.174545,-1.472992,-0.3734177,14.12132,NaN,NaN,-0.02007473,0.8205172,-1.421706E-07,1.04779,-8.269478E-09,1.397604
645.2252,-0.02291566,0.000508439,NaN,-0.9491594,0.0004263812,NaN,0.4526677,-14.38845,NaN,-2.175784,-1.467532,-0.3740538,14.11545,NaN,NaN,-0.02007474,0.8204079,-1.582638E-07,1.039779,-8.269478E-09,1.397667
645.2401,-0.02220879,0.0005083778,NaN,-0.9624144,0.0004267738,NaN,0.4530406,-14.38925,NaN,-2.176977,-1.46409,-0.3746282,14.11185,NaN,NaN,-0.02007462,0.8195368,-1.719729E-07,1.034754,-4.693199E-09,1.399704
645.2563,-0.02220879,0.0005083778,NaN,-0.9624144,0.0004267738,NaN,0.4530406,-14.38925,NaN,-2.176977,-1.46409,-0.3746282,14.11185,NaN,NaN,-0.02007462,0.8195368,-1.719729E-07,1.034754,-4.693199E-09,1.399704
645.2695,-0.02151072,0.0005084247,NaN,-0.9757483,0.0004268342,NaN,0.4534177,-14.39062,NaN,-2.178112,-1.469557,-0.375156,14.11787,NaN,NaN,-0.02007443,0.8183224,-1.815096E-07,1.042807,-7.375408E-09,1.408127
645.2853,-0.02082826,0.0005078272,NaN,-0.9898326,0.0004266601,NaN,0.4537391,-14.38865,NaN,-2.179397,-1.464087,-0.3758776,14.11179,NaN,NaN,-0.02007469,0.820174,-1.976029E-07,1.034747,-8.418489E-09,1.395337
645.2999,-0.02082826,0.0005078272,NaN,-0.9898326,0.0004266601,NaN,0.4537391,-14.38865,NaN,-2.179397,-1.464087,-0.3758776,14.11179,NaN,NaN,-0.02007469,0.820174,-1.976029E-07,1.034747,-8.418489E-09,1.395337
645.3156,-0.02015726,0.0005066674,NaN,-1.004316,0.0004260672,NaN,0.4540997,-14.38899,NaN,-2.180688,-1.463815,-0.3765562,14.11154,NaN,NaN,-0.02007484,0.8198261,-2.11908E-07,1.03436,-6.63035E-09,1.399798
645.3298,-0.01949533,0.0005060417,NaN,-1.01898,0.0004257845,NaN,0.4544828,-14.39019,NaN,-2.181934,-1.467737,-0.3771743,14.11589,NaN,NaN,-0.02007485,0.8187332,-2.25021E-07,1.04015,-6.183315E-09,1.406266
645.3448,-0.01884112,0.0005056398,NaN,-1.03369,0.0004261164,NaN,0.4548712,-14.38914,NaN,-2.183123,-1.463506,-0.3777454,14.11123,NaN,NaN,-0.02007479,0.819691,-2.357499E-07,1.033924,-6.779361E-09,1.400887
645.36,-0.01820217,0.000506055,NaN,-1.049123,0.0004257636,NaN,0.455187,-14.38978,NaN,-2.184071,-1.477369,-0.3785485,14.12615,NaN,NaN,-0.02007473,0.8194121,-2.452866E-07,1.054253,-6.108809E-09,1.40723
645.3749,-0.01820217,0.000506055,NaN,-1.049123,0.0004257636,NaN,0.455187,-14.38978,NaN,-2.184071,-1.477369,-0.3785485,14.12615,NaN,NaN,-0.02007473,0.8194121,-2.452866E-07,1.054253,-6.108809E-09,1.40723
645.3891,-0.01757373,0.0005064811,NaN,-1.064934,0.0004267827,NaN,0.4555395,-14.38966,NaN,-2.184501,-1.463793,-0.3793291,14.1116,NaN,NaN,-0.02007427,0.8193811,-2.464787E-07,1.034362,-5.065728E-09,1.404848
645.4048,-0.01695332,0.0005067324,NaN,-1.080906,0.0004274739,NaN,0.455926,-14.39018,NaN,-2.184489,-1.463513,-0.3800414,14.11137,NaN,NaN,-0.02007366,0.8188512,-2.458826E-07,1.03397,-5.251992E-09,1.405169
645.4198,-0.01695332,0.0005067324,NaN,-1.080906,0.0004274739,NaN,0.455926,-14.39018,NaN,-2.184489,-1.463513,-0.3800414,14.11137,NaN,NaN,-0.02007366,0.8188512,-2.458826E-07,1.03397,-5.251992E-09,1.405169
645.4342,-0.01634844,0.0005070384,NaN,-1.097667,0.0004281381,NaN,0.4562785,-14.39042,NaN,-2.184455,-1.464219,-0.3809167,14.11215,NaN,NaN,-0.02007361,0.8186324,-2.548233E-07,1.035012,-7.249679E-09,1.408442
645.4507,-0.01575338,0.0005076336,NaN,-1.11484,0.0004279417,NaN,0.4566835,-14.38938,NaN,-2.184364,-1.476692,-0.3817202,14.12533,NaN,NaN,-0.02007348,0.8199779,-2.607838E-07,1.053225,-7.342811E-09,1.405437
645.4648,-0.01516551,0.0005080272,NaN,-1.13219,0.0004287791,NaN,0.4571177,-14.38958,NaN,-2.184238,-1.464831,-0.3824391,14.11263,NaN,NaN,-0.02007324,0.8196324,-2.679363E-07,1.03584,-7.119294E-09,1.405073
645.4796,-0.01516551,0.0005080272,NaN,-1.13219,0.0004287791,NaN,0.4571177,-14.38958,NaN,-2.184238,-1.464831,-0.3824391,14.11263,NaN,NaN,-0.02007324,0.8196324,-2.679363E-07,1.03584,-7.119294E-09,1.405073
645.4939,-0.0145837,0.00050838,NaN,-1.149572,0.0004295575,NaN,0.4575596,-14.38963,NaN,-2.184114,-1.463879,-0.3830919,14.11161,NaN,NaN,-0.02007296,0.8195548,-2.738968E-07,1.034445,-6.672259E-09,1.404989
645.5095,-0.01401674,0.0005086893,NaN,-1.167656,0.0004295373,NaN,0.4579448,-14.39105,NaN,-2.184225,-1.472797,-0.3839281,14.12134,NaN,NaN,-0.02007318,0.8183717,-2.810494E-07,1.047559,-8.60941E-09,1.411614
645.5244,-0.01345832,0.0005086045,NaN,-1.186094,0.0004297731,NaN,0.4583657,-14.39003,NaN,-2.184349,-1.464562,-0.3847162,14.11242,NaN,NaN,-0.02007318,0.8192474,-2.828375E-07,1.035486,-9.801503E-09,1.402718
645.5392,-0.01345832,0.0005086045,NaN,-1.186094,0.0004297731,NaN,0.4583657,-14.39003,NaN,-2.184349,-1.464562,-0.3847162,14.11242,NaN,NaN,-0.02007318,0.8192474,-2.828375E-07,1.035486,-9.801503E-09,1.402718
645.5535,-0.01290591,0.0005088433,NaN,-1.204666,0.000429338,NaN,0.4588072,-14.39167,NaN,-2.184395,-1.476059,-0.3854371,14.12493,NaN,NaN,-0.02007297,0.817906,-2.870098E-07,1.052374,-9.50348E-09,1.415595
645.5691,-0.01235864,0.0005097204,NaN,-1.223239,0.000429069,NaN,0.4592547,-14.38958,NaN,-2.18436,-1.478529,-0.3861003,14.12733,NaN,NaN,-0.02007267,0.820024,-2.882019E-07,1.055947,-9.205457E-09,1.404568
645.5842,-0.01182602,0.0005101304,NaN,-1.242491,0.0004286963,NaN,0.4596477,-14.3894,NaN,-2.184488,-1.47472,-0.3869486,14.12322,NaN,NaN,-0.02007286,0.8201632,-2.953545E-07,1.050356,-7.417317E-09,1.399976
645.5992,-0.01182602,0.0005101304,NaN,-1.242491,0.0004286963,NaN,0.4596477,-14.3894,NaN,-2.184488,-1.47472,-0.3869486,14.12322,NaN,NaN,-0.02007286,0.8201632,-2.953545E-07,1.050356,-7.417317E-09,1.399976
645.6136,-0.01130078,0.0005102825,NaN,-1.262076,0.0004289415,NaN,0.4600786,-14.38943,NaN,-2.18459,-1.465935,-0.387747,14.11379,NaN,NaN,-0.02007284,0.820012,-3.01911E-07,1.037473,-8.013364E-09,1.399068
645.6293,-0.0107804,0.0005101299,NaN,-1.281779,0.0004289226,NaN,0.4605319,-14.3895,NaN,-2.184604,-1.466611,-0.3884751,14.11451,NaN,NaN,-0.02007264,0.8199648,-3.042952E-07,1.038461,-7.715341E-09,1.395854
645.6443,-0.01026424,0.0005104622,NaN,-1.301466,0.0004283415,NaN,0.4609922,-14.39096,NaN,-2.184543,-1.477805,-0.3891428,14.12669,NaN,NaN,-0.02007236,0.8187674,-3.054873E-07,1.05491,-6.523249E-09,1.410988
645.6593,-0.01026424,0.0005104622,NaN,-1.301466,0.0004283415,NaN,0.4609922,-14.39096,NaN,-2.184543,-1.477805,-0.3891428,14.12669,NaN,NaN,-0.02007236,0.8187674,-3.054873E-07,1.05491,-6.523249E-09,1.410988
645.6735,-0.009762409,0.0005107796,NaN,-1.321811,0.0004272928,NaN,0.461399,-14.38968,NaN,-2.184657,-1.479991,-0.3899916,14.12888,NaN,NaN,-0.02007256,0.8200666,-3.120438E-07,1.058088,-7.715341E-09,1.401925
645.6888,-0.00926664,0.0005108085,NaN,-1.342471,0.0004263704,NaN,0.4618421,-14.38999,NaN,-2.184757,-1.474838,-0.3907901,14.12336,NaN,NaN,-0.02007256,0.8196975,-3.180043E-07,1.050522,-1.069557E-08,1.394668
645.7037,-0.008774562,0.0005108036,NaN,-1.363234,0.0004262227,NaN,0.4623061,-14.38951,NaN,-2.184774,-1.467491,-0.3915187,14.11541,NaN,NaN,-0.02007237,0.8200654,-3.203884E-07,1.03973,-1.248371E-08,1.397235
645.7187,-0.008774562,0.0005108036,NaN,-1.363234,0.0004262227,NaN,0.4623061,-14.38951,NaN,-2.184774,-1.467491,-0.3915187,14.11541,NaN,NaN,-0.02007237,0.8200654,-3.203884E-07,1.03973,-1.248371E-08,1.397235
645.7331,-0.008110149,0.0005112088,NaN,-1.371361,0.0004264741,NaN,0.4636599,-14.3892,NaN,-2.181224,-1.469585,-0.3883191,14.11759,NaN,NaN,-0.02006352,0.8204141,-2.148882E-07,1.042775,-1.129162E-08,1.399307
645.7487,-0.007381964,0.0005115174,NaN,-1.371657,0.0004260875,NaN,0.4642622,-14.39121,NaN,-2.177653,-1.476082,-0.385307,14.12479,NaN,NaN,-0.02005776,0.8185295,-1.61244E-07,1.052348,-1.009953E-08,1.406054
645.7638,-0.006594881,0.0005117728,NaN,-1.367159,0.0004263531,NaN,0.4643112,-14.38992,NaN,-2.174537,-1.469291,-0.3830012,14.11737,NaN,NaN,-0.02005372,0.8197156,-1.260773E-07,1.042374,-1.069557E-08,1.396265
645.7786,-0.006594881,0.0005117728,NaN,-1.367159,0.0004263531,NaN,0.4643112,-14.38992,NaN,-2.174537,-1.469291,-0.3830012,14.11737,NaN,NaN,-0.02005372,0.8197156,-1.260773E-07,1.042374,-1.069557E-08,1.396265
645.7944,-0.005834653,0.0005116417,NaN,-1.359752,0.000426659,NaN,0.4642032,-14.38993,NaN,-2.171926,-1.46475,-0.3811833,14.1125,NaN,NaN,-0.02005069,0.8196148,-1.040236E-07,1.035715,-1.069557E-08,1.395487
645.809,-0.005130694,0.0005114849,NaN,-1.350603,0.000425806,NaN,0.4641121,-14.39077,NaN,-2.169737,-1.478344,-0.3796466,14.12715,NaN,NaN,-0.0200481,0.8191146,-8.077777E-08,1.055651,-1.188767E-08,1.400323
645.824,-0.00448003,0.0005115016,NaN,-1.34043,0.0004259438,NaN,0.4640795,-14.3898,NaN,-2.167866,-1.468088,-0.378273,14.11606,NaN,NaN,-0.02004572,0.8199564,-6.349242E-08,1.040609,-1.307976E-08,1.395671
645.8387,-0.00448003,0.0005115016,NaN,-1.34043,0.0004259438,NaN,0.4640795,-14.3898,NaN,-2.167866,-1.468088,-0.378273,14.11606,NaN,NaN,-0.02004572,0.8199564,-6.349242E-08,1.040609,-1.307976E-08,1.395671
645.8541,-0.003870365,0.000511926,NaN,-1.329672,0.0004268448,NaN,0.4640988,-14.38999,NaN,-2.166222,-1.464651,-0.3770028,14.11239,NaN,NaN,-0.02004343,0.8196943,-4.501498E-08,1.035573,-1.307976E-08,1.396893
645.8687,-0.003289828,0.0005122347,NaN,-1.318603,0.0004274979,NaN,0.4641534,-14.39098,NaN,-2.16474,-1.465033,-0.3758059,14.11292,NaN,NaN,-0.02004121,0.8187253,-2.892173E-08,1.036163,-1.248371E-08,1.402128
645.8837,-0.002729533,0.0005128034,NaN,-1.307389,0.0004272657,NaN,0.4642365,-14.39097,NaN,-2.163373,-1.477549,-0.3746753,14.12628,NaN,NaN,-0.02003909,0.8190372,-1.402057E-08,1.054475,-1.307976E-08,1.404727
645.8985,-0.002729533,0.0005128034,NaN,-1.307389,0.0004272657,NaN,0.4642365,-14.39097,NaN,-2.163373,-1.477549,-0.3746753,14.12628,NaN,NaN,-0.02003909,0.8190372,-1.402057E-08,1.054475,-1.307976E-08,1.404727
645.913,-0.002183469,0.0005131371,NaN,-1.296136,0.0004280698,NaN,0.4643394,-14.39038,NaN,-2.162091,-1.464713,-0.3735911,14.11248,NaN,NaN,-0.02003703,0.8194847,-3.115002E-10,1.035665,-1.009953E-08,1.398568
645.9285,-0.001647761,0.0005130056,NaN,-1.284907,0.0004284392,NaN,0.4644521,-14.38986,NaN,-2.160873,-1.463472,-0.3725463,14.11107,NaN,NaN,-0.02003502,0.8199789,1.578175E-08,1.033825,-1.248371E-08,1.39329
645.9435,-0.001119973,0.0005122724,NaN,-1.273742,0.000428339,NaN,0.4645682,-14.38958,NaN,-2.159704,-1.462853,-0.3715377,14.11036,NaN,NaN,-0.02003307,0.820251,2.949082E-08,1.032905,-1.248371E-08,1.392919
645.9586,-0.001119973,0.0005122724,NaN,-1.273742,0.000428339,NaN,0.4645682,-14.38958,NaN,-2.159704,-1.462853,-0.3715377,14.11036,NaN,NaN,-0.02003307,0.820251,2.949082E-08,1.032905,-1.248371E-08,1.392919
645.9728,-0.0005985688,0.0005125048,NaN,-1.262664,0.0004277929,NaN,0.4639618,-14.38954,NaN,-2.158495,-1.476659,-0.3696612,14.12515,NaN,NaN,-0.02002845,0.8206658,8.432709E-08,1.053135,-1.367581E-08,1.398107
645.9885,-8.263695E-05,0.0005132352,NaN,-1.251689,0.0004272029,NaN,0.4625283,-14.39001,NaN,-2.157307,-1.479791,-0.3679515,14.12855,NaN,NaN,-0.02002434,0.8202291,1.314148E-07,1.057737,-1.307976E-08,1.40067
646.0035,0.0004283843,0.000513786,NaN,-1.240825,0.0004270603,NaN,0.4606444,-14.3893,NaN,-2.156168,-1.474172,-0.3664839,14.12244,NaN,NaN,-0.02002092,0.8208798,1.713499E-07,1.04948,-1.367581E-08,1.394923
646.0187,0.0004283843,0.000513786,NaN,-1.240825,0.0004270603,NaN,0.4606444,-14.3893,NaN,-2.156168,-1.474172,-0.3664839,14.12244,NaN,NaN,-0.02002092,0.8208798,1.713499E-07,1.04948,-1.367581E-08,1.394923
646.033,0.0009348578,0.000514272,NaN,-1.230076,0.0004278855,NaN,0.4578306,-14.38908,NaN,-2.154999,-1.465367,-0.3642712,14.11295,NaN,NaN,-0.02001522,0.8209648,2.452596E-07,1.036551,-1.248371E-08,1.392844
646.0496,0.001436969,0.000514508,NaN,-1.219445,0.0004285692,NaN,0.454114,-14.38971,NaN,-2.153863,-1.46323,-0.362295,14.11073,NaN,NaN,-0.02001025,0.8202751,3.090366E-07,1.033435,-1.307976E-08,1.393572
646.0636,0.001934827,0.0005142015,NaN,-1.208933,0.0004288551,NaN,0.4499336,-14.38893,NaN,-2.152785,-1.462608,-0.3605958,14.10995,NaN,NaN,-0.02000607,0.8210351,3.608926E-07,1.032491,-1.367581E-08,1.385894
