JMolnar6/NonAnthroHands_User_Study/HandsLoggerWithURDF/tempdata/files/Reachy_PID0_JointMotion_gesture_1_2.csv
Time,r_shoulder,r_shoulder_x,r_upper_arm,r_forearm,r_wrist,r_wrist2hand,
48.02206,-0.1275815,-3.406965E-08,NaN,-0.3265917,-1.329403E-07,NaN,0.4647658,7.047109E-08,NaN,-0.486607,8.699199E-07,-0.3845021,-1.955336E-08,NaN,NaN,-0.01996899,3.725271E-11,1.305096E-07,-1.126221E-07,1.523294E-08,-2.622604E-08
48.03711,-0.1275815,-3.406965E-08,NaN,-0.3265917,-1.329403E-07,NaN,0.4647658,7.047109E-08,NaN,-0.486607,8.699199E-07,-0.3845021,-1.955336E-08,NaN,NaN,-0.01996899,3.725271E-11,1.305096E-07,-1.126221E-07,1.523294E-08,-2.622604E-08
48.05049,-0.1268695,-3.407165E-08,NaN,-0.3265924,-1.329575E-07,NaN,0.4643278,7.046137E-08,NaN,-0.4869572,8.706976E-07,-0.3841342,-1.954069E-08,NaN,NaN,-0.01996932,3.725271E-11,1.287215E-07,-1.126349E-07,1.523294E-08,-2.861022E-08
48.06582,-0.1257033,-3.407364E-08,NaN,-0.3265927,-1.329745E-07,NaN,0.4637386,7.045134E-08,NaN,-0.4874267,8.714753E-07,-0.3836448,-1.952773E-08,NaN,NaN,-0.01996975,3.725271E-11,1.278274E-07,-1.126476E-07,1.523294E-08,-2.622604E-08
48.08042,-0.1242561,-3.407562E-08,NaN,-0.3265929,-1.329915E-07,NaN,0.4631449,7.044103E-08,NaN,-0.4879006,8.722529E-07,-0.383154,-1.951447E-08,NaN,NaN,-0.01997019,3.725271E-11,1.269334E-07,-1.126603E-07,1.284875E-08,-2.861022E-08
48.09517,-0.1242561,-3.407562E-08,NaN,-0.3265929,-1.329915E-07,NaN,0.4631449,7.044103E-08,NaN,-0.4879006,8.722529E-07,-0.383154,-1.951447E-08,NaN,NaN,-0.01997019,3.725271E-11,1.269334E-07,-1.126603E-07,1.284875E-08,-2.861022E-08
48.10926,-0.1233662,-3.407758E-08,NaN,-0.3265946,-1.330085E-07,NaN,0.4631237,7.043042E-08,NaN,-0.4879311,8.730213E-07,-0.3831318,-1.950092E-08,NaN,NaN,-0.01997018,4.656593E-11,1.260393E-07,-1.126729E-07,1.046457E-08,-2.622604E-08
48.12538,-0.1228309,-3.407953E-08,NaN,-0.3265972,-1.33026E-07,NaN,0.4633041,7.030097E-08,NaN,-0.4878022,8.73799E-07,-0.383274,-1.934657E-08,NaN,NaN,-0.01997002,5.587916E-11,1.264863E-07,-1.126864E-07,3.312011E-09,-2.861022E-08
48.14014,-0.1225209,-3.408147E-08,NaN,-0.3266001,-1.33044E-07,NaN,0.4635342,7.017152E-08,NaN,-0.4876326,8.745859E-07,-0.3834562,-1.917645E-08,NaN,NaN,-0.01996983,6.053577E-11,1.263373E-07,-1.127002E-07,5.696196E-09,-2.622604E-08
48.15342,-0.1225209,-3.408147E-08,NaN,-0.3266001,-1.33044E-07,NaN,0.4635342,7.017152E-08,NaN,-0.4876326,8.745859E-07,-0.3834562,-1.917645E-08,NaN,NaN,-0.01996983,6.053577E-11,1.263373E-07,-1.127002E-07,5.696196E-09,-2.622604E-08
48.16757,-0.122354,-3.40834E-08,NaN,-0.3266031,-1.330621E-07,NaN,0.4637581,7.004208E-08,NaN,-0.4874673,8.753728E-07,-0.3836323,-1.899512E-08,NaN,NaN,-0.01996966,6.984899E-11,1.267843E-07,-1.127141E-07,3.312011E-09,-2.861022E-08
48.18272,-0.1230043,-3.408531E-08,NaN,-0.3266085,-1.330804E-07,NaN,0.4644895,6.991263E-08,NaN,-0.486912,8.761691E-07,-0.3842214,-1.880593E-08,NaN,NaN,-0.01996909,7.450561E-11,1.285725E-07,-1.127281E-07,5.696196E-09,-2.622604E-08
48.1972,-0.1230043,-3.408531E-08,NaN,-0.3266085,-1.330804E-07,NaN,0.4644895,6.991263E-08,NaN,-0.486912,8.761691E-07,-0.3842214,-1.880593E-08,NaN,NaN,-0.01996909,7.450561E-11,1.285725E-07,-1.127281E-07,5.696196E-09,-2.622604E-08
48.21106,-0.1241662,-3.408722E-08,NaN,-0.3266148,-1.330987E-07,NaN,0.465349,6.978318E-08,NaN,-0.486258,8.7697E-07,-0.3849128,-1.861132E-08,NaN,NaN,-0.01996843,7.916223E-11,1.319997E-07,-1.127421E-07,8.080383E-09,-2.861022E-08
48.22779,-0.1256452,-3.408911E-08,NaN,-0.3266212,-1.33117E-07,NaN,0.4661943,6.965374E-08,NaN,-0.4856169,8.777756E-07,-0.3855901,-1.841311E-08,NaN,NaN,-0.01996779,8.381884E-11,1.336388E-07,-1.127561E-07,3.312011E-09,-2.622604E-08
48.24126,-0.1273175,-3.409099E-08,NaN,-0.3266274,-1.331353E-07,NaN,0.4669824,6.952429E-08,NaN,-0.4850233,8.785812E-07,-0.3862183,-1.821259E-08,NaN,NaN,-0.0199672,8.847546E-11,1.342349E-07,-1.1277E-07,3.312011E-09,-2.861022E-08
48.25576,-0.1273175,-3.409099E-08,NaN,-0.3266274,-1.331353E-07,NaN,0.4669824,6.952429E-08,NaN,-0.4850233,8.785812E-07,-0.3862183,-1.821259E-08,NaN,NaN,-0.0199672,8.847546E-11,1.342349E-07,-1.1277E-07,3.312011E-09,-2.861022E-08
48.26964,-0.1298326,-3.409286E-08,NaN,-0.3266357,-1.331535E-07,NaN,0.4682447,6.939484E-08,NaN,-0.4840729,8.793868E-07,-0.3872325,-1.801075E-08,NaN,NaN,-0.01996624,9.313207E-11,1.35725E-07,-1.127839E-07,3.312011E-09,-2.622604E-08
48.28507,-0.1328676,-3.409471E-08,NaN,-0.3266443,-1.331717E-07,NaN,0.4696072,6.92654E-08,NaN,-0.4830496,8.801924E-07,-0.3883259,-1.780829E-08,NaN,NaN,-0.01996521,9.778869E-11,1.393013E-07,-1.127978E-07,9.278254E-10,-2.861022E-08
48.29971,-0.1328676,-3.409471E-08,NaN,-0.3266443,-1.331717E-07,NaN,0.4696072,6.92654E-08,NaN,-0.4830496,8.801924E-07,-0.3883259,-1.780829E-08,NaN,NaN,-0.01996521,9.778869E-11,1.393013E-07,-1.127978E-07,9.278254E-10,-2.861022E-08
48.3138,-0.136217,-3.409655E-08,NaN,-0.3266524,-1.331898E-07,NaN,0.4709333,6.913595E-08,NaN,-0.4820598,8.80998E-07,-0.3893868,-1.760572E-08,NaN,NaN,-0.01996421,1.024453E-10,1.400464E-07,-1.128116E-07,-3.840546E-09,-2.622604E-08
48.3292,-0.1404783,-3.409839E-08,NaN,-0.3266622,-1.332079E-07,NaN,0.4727258,6.90065E-08,NaN,-0.4807264,8.818035E-07,-0.390828,-1.740343E-08,NaN,NaN,-0.01996285,1.071019E-10,1.425796E-07,-1.128254E-07,-8.608918E-09,-2.861022E-08
48.34415,-0.1452957,-3.410021E-08,NaN,-0.3266715,-1.332259E-07,NaN,0.474598,6.887706E-08,NaN,-0.4793407,8.826091E-07,-0.3923316,-1.720169E-08,NaN,NaN,-0.01996143,1.117585E-10,1.460068E-07,-1.128391E-07,-8.608918E-09,-2.622604E-08
48.35861,-0.1452957,-3.410021E-08,NaN,-0.3266715,-1.332259E-07,NaN,0.474598,6.887706E-08,NaN,-0.4793407,8.826091E-07,-0.3923316,-1.720169E-08,NaN,NaN,-0.01996143,1.117585E-10,1.460068E-07,-1.128391E-07,-8.608918E-09,-2.622604E-08
48.37255,-0.1504426,-3.410202E-08,NaN,-0.3266796,-1.332438E-07,NaN,0.4764119,6.874761E-08,NaN,-0.478009,8.834147E-07,-0.393785,-1.70007E-08,NaN,NaN,-0.01996006,1.164151E-10,1.48242E-07,-1.128528E-07,-8.608918E-09,-2.861022E-08
48.38779,-0.1557754,-3.410381E-08,NaN,-0.3266862,-1.332617E-07,NaN,0.4781311,6.861816E-08,NaN,-0.4767598,8.842203E-07,-0.3951592,-1.680059E-08,NaN,NaN,-0.01995877,1.210718E-10,1.504771E-07,-1.128664E-07,-1.09931E-08,-2.622604E-08
48.40454,-0.161931,-3.41056E-08,NaN,-0.3266939,-1.332795E-07,NaN,0.4803092,6.848872E-08,NaN,-0.4751853,8.850259E-07,-0.3969105,-1.660149E-08,NaN,NaN,-0.01995709,1.257284E-10,1.547985E-07,-1.1288E-07,-1.09931E-08,-2.861022E-08
48.418,-0.161931,-3.41056E-08,NaN,-0.3266939,-1.332795E-07,NaN,0.4803092,6.848872E-08,NaN,-0.4751853,8.850259E-07,-0.3969105,-1.660149E-08,NaN,NaN,-0.01995709,1.257284E-10,1.547985E-07,-1.1288E-07,-1.09931E-08,-2.861022E-08
48.43198,-0.1685785,-3.410737E-08,NaN,-0.3267007,-1.332973E-07,NaN,0.4825662,6.835927E-08,NaN,-0.4735641,8.858315E-07,-0.3987252,-1.640346E-08,NaN,NaN,-0.01995536,1.30385E-10,1.600139E-07,-1.128936E-07,-8.608918E-09,-2.622604E-08
48.44647,-0.1755076,-3.410913E-08,NaN,-0.3267057,-1.33315E-07,NaN,0.4847656,6.822982E-08,NaN,-0.4719989,8.866371E-07,-0.4004914,-1.620655E-08,NaN,NaN,-0.01995368,1.350416E-10,1.638882E-07,-1.129071E-07,-8.608918E-09,-2.861022E-08
48.46102,-0.1825848,-3.411088E-08,NaN,-0.3267089,-1.333327E-07,NaN,0.4868701,6.810038E-08,NaN,-0.4705179,8.874426E-07,-0.4021795,-1.601079E-08,NaN,NaN,-0.01995206,1.396982E-10,1.673155E-07,-1.129205E-07,-8.608918E-09,-2.622604E-08
48.47563,-0.1825848,-3.411088E-08,NaN,-0.3267089,-1.333327E-07,NaN,0.4868701,6.810038E-08,NaN,-0.4705179,8.874426E-07,-0.4021795,-1.601079E-08,NaN,NaN,-0.01995206,1.396982E-10,1.673155E-07,-1.129205E-07,-8.608918E-09,-2.622604E-08
48.4896,-0.1904538,-3.411262E-08,NaN,-0.3267129,-1.333503E-07,NaN,0.4894447,6.797093E-08,NaN,-0.4687164,8.882482E-07,-0.4042572,-1.581622E-08,NaN,NaN,-0.01995004,1.443548E-10,1.698487E-07,-1.129339E-07,-6.224732E-09,-2.861022E-08
48.50467,-0.1987879,-3.411435E-08,NaN,-0.3267155,-1.333678E-07,NaN,0.492099,6.784148E-08,NaN,-0.4668723,8.890538E-07,-0.4064004,-1.562285E-08,NaN,NaN,-0.01994797,1.490114E-10,1.726799E-07,-1.129473E-07,-6.224732E-09,-2.622604E-08
48.51934,-0.1987879,-3.411435E-08,NaN,-0.3267155,-1.333678E-07,NaN,0.492099,6.784148E-08,NaN,-0.4668723,8.890538E-07,-0.4064004,-1.562285E-08,NaN,NaN,-0.01994797,1.490114E-10,1.726799E-07,-1.129473E-07,-6.224732E-09,-2.622604E-08
48.53347,-0.2073797,-3.411606E-08,NaN,-0.3267168,-1.333853E-07,NaN,0.4946936,6.771204E-08,NaN,-0.4650894,8.898547E-07,-0.4084947,-1.543069E-08,NaN,NaN,-0.01994594,1.583246E-10,1.771502E-07,-1.129606E-07,-6.224732E-09,-2.861022E-08
48.54893,-0.2168259,-3.411777E-08,NaN,-0.3267185,-1.334027E-07,NaN,0.4977652,6.758259E-08,NaN,-0.4629931,8.906557E-07,-0.4109861,-1.523974E-08,NaN,NaN,-0.0199435,1.676379E-10,1.813225E-07,-1.129738E-07,-1.09931E-08,-2.622604E-08
48.56372,-0.2267699,-3.411946E-08,NaN,-0.3267192,-1.334201E-07,NaN,0.5009055,6.745314E-08,NaN,-0.4608706,8.914566E-07,-0.413535,-1.505001E-08,NaN,NaN,-0.019941,1.769511E-10,1.838557E-07,-1.129871E-07,-1.09931E-08,-2.861022E-08
48.57853,-0.2267699,-3.411946E-08,NaN,-0.3267192,-1.334201E-07,NaN,0.5009055,6.745314E-08,NaN,-0.4608706,8.914566E-07,-0.413535,-1.505001E-08,NaN,NaN,-0.019941,1.769511E-10,1.838557E-07,-1.129871E-07,-1.09931E-08,-2.861022E-08
48.59229,-0.2369854,-3.412115E-08,NaN,-0.3267189,-1.334374E-07,NaN,0.5039706,6.73237E-08,NaN,-0.4588265,8.922575E-07,-0.4160226,-1.486149E-08,NaN,NaN,-0.01993856,1.862643E-10,1.86687E-07,-1.130002E-07,-1.576148E-08,-2.622604E-08
48.60777,-0.2473289,-3.412282E-08,NaN,-0.3267179,-1.334547E-07,NaN,0.5069224,6.719425E-08,NaN,-0.4568883,8.930584E-07,-0.4184186,-1.467418E-08,NaN,NaN,-0.01993619,1.955776E-10,1.917534E-07,-1.130133E-07,-1.814566E-08,-2.861022E-08
48.62224,-0.2584379,-3.412448E-08,NaN,-0.3267176,-1.334719E-07,NaN,0.5103552,6.70648E-08,NaN,-0.4546527,8.938687E-07,-0.4212195,-1.448808E-08,NaN,NaN,-0.01993337,1.955776E-10,1.963727E-07,-1.130264E-07,-2.052985E-08,-2.622604E-08
48.63701,-0.2584379,-3.412448E-08,NaN,-0.3267176,-1.334719E-07,NaN,0.5103552,6.70648E-08,NaN,-0.4546527,8.938687E-07,-0.4212195,-1.448808E-08,NaN,NaN,-0.01993337,1.955776E-10,1.963727E-07,-1.130264E-07,-2.052985E-08,-2.622604E-08
48.65085,-0.2699818,-3.412612E-08,NaN,-0.3267164,-1.33489E-07,NaN,0.5138615,6.693536E-08,NaN,-0.4523939,8.946743E-07,-0.4240839,-1.430318E-08,NaN,NaN,-0.0199305,2.002342E-10,2.011411E-07,-1.130395E-07,-2.291403E-08,-2.861022E-08
48.66616,-0.281751,-3.412776E-08,NaN,-0.3267142,-1.335061E-07,NaN,0.5172968,6.680591E-08,NaN,-0.4502133,8.954798E-07,-0.4268916,-1.411947E-08,NaN,NaN,-0.01992767,2.048908E-10,2.097838E-07,-1.130525E-07,-2.052985E-08,-2.622604E-08
48.68219,-0.2936126,-3.412939E-08,NaN,-0.3267114,-1.335231E-07,NaN,0.5206212,6.667646E-08,NaN,-0.4481382,8.962854E-07,-0.4296108,-1.393695E-08,NaN,NaN,-0.01992491,2.095474E-10,2.149992E-07,-1.130654E-07,-1.814566E-08,-2.861022E-08
48.69656,-0.2936126,-3.412939E-08,NaN,-0.3267114,-1.335231E-07,NaN,0.5206212,6.667646E-08,NaN,-0.4481382,8.962854E-07,-0.4296108,-1.393695E-08,NaN,NaN,-0.01992491,2.095474E-10,2.149992E-07,-1.130654E-07,-1.814566E-08,-2.861022E-08
48.71107,-0.3062108,-3.413101E-08,NaN,-0.3267093,-1.335401E-07,NaN,0.5244479,6.654702E-08,NaN,-0.4457697,8.97091E-07,-0.432757,-1.375562E-08,NaN,NaN,-0.01992166,2.14204E-10,2.199166E-07,-1.130783E-07,-1.337729E-08,-2.622604E-08
48.72487,-0.3192196,-3.413261E-08,NaN,-0.3267062,-1.335571E-07,NaN,0.5283537,6.641757E-08,NaN,-0.4433811,8.978966E-07,-0.4359728,-1.357546E-08,NaN,NaN,-0.01991836,2.188606E-10,2.237909E-07,-1.130912E-07,-1.814566E-08,-2.861022E-08
48.73962,-0.3192196,-3.413261E-08,NaN,-0.3267062,-1.335571E-07,NaN,0.5283537,6.641757E-08,NaN,-0.4433811,8.978966E-07,-0.4359728,-1.357546E-08,NaN,NaN,-0.01991836,2.188606E-10,2.237909E-07,-1.130912E-07,-1.814566E-08,-2.861022E-08
48.75316,-0.3324322,-3.413421E-08,NaN,-0.3267014,-1.335739E-07,NaN,0.5321871,6.628812E-08,NaN,-0.4410736,8.987022E-07,-0.4391313,-1.339647E-08,NaN,NaN,-0.0199151,2.235172E-10,2.275162E-07,-1.13104E-07,-1.814566E-08,-2.622604E-08
48.76865,-0.3464458,-3.413579E-08,NaN,-0.3266972,-1.335907E-07,NaN,0.5365395,6.615868E-08,NaN,-0.4384803,8.995078E-07,-0.4427332,-1.321864E-08,NaN,NaN,-0.01991135,2.281738E-10,2.318375E-07,-1.131167E-07,-2.052985E-08,-2.861022E-08
48.78304,-0.3609046,-3.413736E-08,NaN,-0.3266909,-1.336075E-07,NaN,0.5409616,6.602923E-08,NaN,-0.4358816,9.003134E-07,-0.4463968,-1.304197E-08,NaN,NaN,-0.01990753,2.328304E-10,2.397351E-07,-1.131295E-07,-2.052985E-08,-2.622604E-08
48.79779,-0.3609046,-3.413736E-08,NaN,-0.3266909,-1.336075E-07,NaN,0.5409616,6.602923E-08,NaN,-0.4358816,9.003134E-07,-0.4463968,-1.304197E-08,NaN,NaN,-0.01990753,2.328304E-10,2.397351E-07,-1.131295E-07,-2.052985E-08,-2.622604E-08
48.81178,-0.3755827,-3.413892E-08,NaN,-0.3266817,-1.336242E-07,NaN,0.5452969,6.589978E-08,NaN,-0.4333802,9.011189E-07,-0.449991,-1.286644E-08,NaN,NaN,-0.01990378,2.374871E-10,2.449505E-07,-1.131422E-07,-2.052985E-08,-2.861022E-08
48.82707,-0.3903372,-3.414047E-08,NaN,-0.3266701,-1.336409E-07,NaN,0.5495043,6.577034E-08,NaN,-0.4310028,9.019338E-07,-0.4534827,-1.269206E-08,NaN,NaN,-0.01990012,2.328304E-10,2.521031E-07,-1.131548E-07,-2.052985E-08,-2.622604E-08
48.84181,-0.4058061,-3.414201E-08,NaN,-0.326659,-1.336575E-07,NaN,0.5542447,6.564089E-08,NaN,-0.4283556,9.027441E-07,-0.4574353,-1.25188E-08,NaN,NaN,-0.01989589,2.328304E-10,2.620868E-07,-1.131674E-07,-2.529822E-08,-2.861022E-08
48.85645,-0.4058061,-3.414201E-08,NaN,-0.326659,-1.336575E-07,NaN,0.5542447,6.564089E-08,NaN,-0.4283556,9.027441E-07,-0.4574353,-1.25188E-08,NaN,NaN,-0.01989589,2.328304E-10,2.620868E-07,-1.131674E-07,-2.529822E-08,-2.861022E-08
48.87077,-0.4216596,-3.414354E-08,NaN,-0.3266459,-1.33674E-07,NaN,0.5590643,6.551144E-08,NaN,-0.4257056,9.035543E-07,-0.4614601,-1.234667E-08,NaN,NaN,-0.01989159,2.328304E-10,2.661102E-07,-1.1318E-07,-2.052985E-08,-2.622604E-08
48.88581,-0.4376885,-3.414505E-08,NaN,-0.3266302,-1.336905E-07,NaN,0.5638035,6.5382E-08,NaN,-0.4231514,9.043646E-07,-0.4654222,-1.217566E-08,NaN,NaN,-0.01988734,2.328304E-10,2.711766E-07,-1.131925E-07,-2.052985E-08,-2.861022E-08
48.90039,-0.4537605,-3.414656E-08,NaN,-0.3266122,-1.337069E-07,NaN,0.5684189,6.525255E-08,NaN,-0.42072,9.051748E-07,-0.4692862,-1.200576E-08,NaN,NaN,-0.01988316,2.328304E-10,2.798192E-07,-1.132049E-07,-1.814566E-08,-2.622604E-08
48.91508,-0.4537605,-3.414656E-08,NaN,-0.3266122,-1.337069E-07,NaN,0.5684189,6.525255E-08,NaN,-0.42072,9.051748E-07,-0.4692862,-1.200576E-08,NaN,NaN,-0.01988316,2.328304E-10,2.798192E-07,-1.132049E-07,-1.814566E-08,-2.622604E-08
48.92919,-0.4705204,-3.414806E-08,NaN,-0.326595,-1.337233E-07,NaN,0.5735987,6.51231E-08,NaN,-0.418023,9.059851E-07,-0.473643,-1.183696E-08,NaN,NaN,-0.01987837,2.328304E-10,2.865248E-07,-1.132174E-07,-2.291403E-08,-2.861022E-08
48.94447,-0.4876429,-3.414954E-08,NaN,-0.3265758,-1.337396E-07,NaN,0.5788668,6.499366E-08,NaN,-0.4153255,9.067953E-07,-0.4780814,-1.166926E-08,NaN,NaN,-0.01987351,2.328304E-10,2.950184E-07,-1.132297E-07,-2.291403E-08,-2.622604E-08
48.95884,-0.4876429,-3.414954E-08,NaN,-0.3265758,-1.337396E-07,NaN,0.5788668,6.499366E-08,NaN,-0.4153255,9.067953E-07,-0.4780814,-1.166926E-08,NaN,NaN,-0.01987351,2.328304E-10,2.950184E-07,-1.132297E-07,-2.291403E-08,-2.622604E-08
48.97515,-0.5049214,-3.415101E-08,NaN,-0.326554,-1.337559E-07,NaN,0.5840557,6.486421E-08,NaN,-0.4127263,9.076056E-07,-0.4824587,-1.150265E-08,NaN,NaN,-0.01986871,2.328304E-10,3.006809E-07,-1.132421E-07,-2.76824E-08,-2.861022E-08
48.98946,-0.522954,-3.415248E-08,NaN,-0.3265325,-1.337721E-07,NaN,0.5898332,6.473476E-08,NaN,-0.4098694,9.084158E-07,-0.4873519,-1.133712E-08,NaN,NaN,-0.01986326,2.328304E-10,3.060453E-07,-1.132544E-07,-3.721915E-08,-2.622604E-08
49.00263,-0.5413852,-3.415394E-08,NaN,-0.3265082,-1.337883E-07,NaN,0.5956931,6.460532E-08,NaN,-0.4070268,9.092261E-07,-0.4923218,-1.117266E-08,NaN,NaN,-0.01985775,2.328304E-10,3.088765E-07,-1.132666E-07,-3.721915E-08,-2.861022E-08
49.01731,-0.5413852,-3.415394E-08,NaN,-0.3265082,-1.337883E-07,NaN,0.5956931,6.460532E-08,NaN,-0.4070268,9.092261E-07,-0.4923218,-1.117266E-08,NaN,NaN,-0.01985775,2.328304E-10,3.088765E-07,-1.132666E-07,-3.721915E-08,-2.861022E-08
49.03158,-0.5599898,-3.415538E-08,NaN,-0.3264808,-1.338044E-07,NaN,0.6014605,6.447587E-08,NaN,-0.404298,9.100363E-07,-0.4972191,-1.100928E-08,NaN,NaN,-0.0198523,2.328304E-10,3.139429E-07,-1.132789E-07,-3.483496E-08,-2.622604E-08
49.04649,-0.5786254,-3.415682E-08,NaN,-0.3264507,-1.338199E-07,NaN,0.6070896,6.459114E-08,NaN,-0.401709,9.108466E-07,-0.5020065,-1.109681E-08,NaN,NaN,-0.01984693,2.281738E-10,3.187113E-07,-1.132903E-07,-3.721915E-08,-2.861022E-08
49.06111,-0.5979306,-3.415824E-08,NaN,-0.3264213,-1.33835E-07,NaN,0.613331,6.469268E-08,NaN,-0.3988793,9.116382E-07,-0.5073371,-1.117559E-08,NaN,NaN,-0.01984083,2.281738E-10,3.27652E-07,-1.133014E-07,-4.198752E-08,-2.622604E-08
49.07575,-0.5979306,-3.415824E-08,NaN,-0.3264213,-1.33835E-07,NaN,0.613331,6.469268E-08,NaN,-0.3988793,9.116382E-07,-0.5073371,-1.117559E-08,NaN,NaN,-0.01984083,2.281738E-10,3.27652E-07,-1.133014E-07,-4.198752E-08,-2.622604E-08
49.08973,-0.6175759,-3.415966E-08,NaN,-0.3263896,-1.338497E-07,NaN,0.6196672,6.478438E-08,NaN,-0.3960659,9.124251E-07,-0.512758,-1.124849E-08,NaN,NaN,-0.01983465,2.281738E-10,3.343575E-07,-1.133122E-07,-3.721915E-08,-2.861022E-08
49.10497,-0.6373528,-3.416106E-08,NaN,-0.326355,-1.338642E-07,NaN,0.6259186,6.486884E-08,NaN,-0.3933644,9.132028E-07,-0.5181141,-1.131734E-08,NaN,NaN,-0.01982853,2.328304E-10,3.383808E-07,-1.13323E-07,-3.960333E-08,-2.622604E-08
49.1196,-0.6373528,-3.416106E-08,NaN,-0.326355,-1.338642E-07,NaN,0.6259186,6.486884E-08,NaN,-0.3933644,9.132028E-07,-0.5181141,-1.131734E-08,NaN,NaN,-0.01982853,2.328304E-10,3.383808E-07,-1.13323E-07,-3.960333E-08,-2.622604E-08
49.13533,-0.6578577,-3.416245E-08,NaN,-0.3263207,-1.338786E-07,NaN,0.6328167,6.494779E-08,NaN,-0.3904277,9.139851E-07,-0.5240464,-1.138323E-08,NaN,NaN,-0.01982165,2.281738E-10,3.458314E-07,-1.133336E-07,-4.675589E-08,-2.861022E-08
49.14895,-0.6787344,-3.416384E-08,NaN,-0.3262834,-1.338929E-07,NaN,0.6398085,6.50218E-08,NaN,-0.3875197,9.147581E-07,-0.5300681,-1.14462E-08,NaN,NaN,-0.01981468,2.328304E-10,3.528349E-07,-1.133442E-07,-4.914008E-08,-2.622604E-08
49.16348,-0.6997573,-3.416521E-08,NaN,-0.3262428,-1.339071E-07,NaN,0.6467046,6.509202E-08,NaN,-0.3847372,9.155358E-07,-0.5360153,-1.150701E-08,NaN,NaN,-0.0198078,2.328304E-10,3.558152E-07,-1.133547E-07,-4.437171E-08,-2.861022E-08
49.17825,-0.6997573,-3.416521E-08,NaN,-0.3262428,-1.339071E-07,NaN,0.6467046,6.509202E-08,NaN,-0.3847372,9.155358E-07,-0.5360153,-1.150701E-08,NaN,NaN,-0.0198078,2.328304E-10,3.558152E-07,-1.133547E-07,-4.437171E-08,-2.861022E-08
49.19238,-0.7207841,-3.416658E-08,NaN,-0.3261996,-1.339213E-07,NaN,0.653455,6.51588E-08,NaN,-0.3821051,9.162995E-07,-0.5418471,-1.156569E-08,NaN,NaN,-0.01980099,2.468003E-10,3.604345E-07,-1.133652E-07,-5.152426E-08,-2.622604E-08
49.20776,-0.7419461,-3.416793E-08,NaN,-0.3261555,-1.339354E-07,NaN,0.6603094,6.52228E-08,NaN,-0.3795092,9.170772E-07,-0.5477852,-1.162263E-08,NaN,NaN,-0.01979396,2.468003E-10,3.593915E-07,-1.133756E-07,-5.867682E-08,-2.861022E-08
49.22195,-0.7631045,-3.416927E-08,NaN,-0.3261102,-1.339494E-07,NaN,0.6671035,6.528426E-08,NaN,-0.3770166,9.178455E-07,-0.5536844,-1.167787E-08,NaN,NaN,-0.01978692,2.561135E-10,3.66842E-07,-1.13386E-07,-5.390845E-08,-2.622604E-08
49.23674,-0.7631045,-3.416927E-08,NaN,-0.3261102,-1.339494E-07,NaN,0.6671035,6.528426E-08,NaN,-0.3770166,9.178455E-07,-0.5536844,-1.167787E-08,NaN,NaN,-0.01978692,2.561135E-10,3.66842E-07,-1.13386E-07,-5.390845E-08,-2.622604E-08
49.25049,-0.784172,-3.417061E-08,NaN,-0.3260642,-1.339634E-07,NaN,0.6737868,6.534338E-08,NaN,-0.3746465,9.186232E-07,-0.5595012,-1.173142E-08,NaN,NaN,-0.01977994,2.561135E-10,3.684812E-07,-1.133964E-07,-5.271636E-08,-2.861022E-08
49.26687,-0.8050941,-3.417193E-08,NaN,-0.3260181,-1.339774E-07,NaN,0.6803505,6.540031E-08,NaN,-0.3723987,9.193915E-07,-0.5652288,-1.178334E-08,NaN,NaN,-0.019773,2.654267E-10,3.681832E-07,-1.134067E-07,-5.271636E-08,-2.622604E-08
49.28155,-0.8258373,-3.417325E-08,NaN,-0.3259724,-1.339913E-07,NaN,0.6867988,6.545486E-08,NaN,-0.3702662,9.201692E-07,-0.5708712,-1.183329E-08,NaN,NaN,-0.01976611,2.654267E-10,3.738456E-07,-1.13417E-07,-4.794799E-08,-2.861022E-08
49.29548,-0.8258373,-3.417325E-08,NaN,-0.3259724,-1.339913E-07,NaN,0.6867988,6.545486E-08,NaN,-0.3702662,9.201692E-07,-0.5708712,-1.183329E-08,NaN,NaN,-0.01976611,2.654267E-10,3.738456E-07,-1.13417E-07,-4.794799E-08,-2.861022E-08
49.30928,-0.8463811,-3.417455E-08,NaN,-0.3259276,-1.340052E-07,NaN,0.6931379,6.550749E-08,NaN,-0.368241,9.209376E-07,-0.5764343,-1.188166E-08,NaN,NaN,-0.01975927,2.747399E-10,3.771238E-07,-1.134272E-07,-4.55638E-08,-2.622604E-08
49.32446,-0.8667136,-3.417585E-08,NaN,-0.325884,-1.34019E-07,NaN,0.6993734,6.55583E-08,NaN,-0.3663157,9.217152E-07,-0.5819227,-1.192849E-08,NaN,NaN,-0.01975247,2.747399E-10,3.79508E-07,-1.134375E-07,-4.317961E-08,-2.861022E-08
49.33896,-0.8667136,-3.417585E-08,NaN,-0.325884,-1.34019E-07,NaN,0.6993734,6.55583E-08,NaN,-0.3663157,9.217152E-07,-0.5819227,-1.192849E-08,NaN,NaN,-0.01975247,2.747399E-10,3.79508E-07,-1.134375E-07,-4.317961E-08,-2.861022E-08
49.3528,-0.8868283,-3.417713E-08,NaN,-0.3258418,-1.340328E-07,NaN,0.7055089,6.560738E-08,NaN,-0.3644841,9.224836E-07,-0.5873394,-1.197381E-08,NaN,NaN,-0.01974574,2.840531E-10,3.856175E-07,-1.134477E-07,-4.794799E-08,-2.622604E-08
49.36805,-0.9067219,-3.417841E-08,NaN,-0.3258013,-1.340465E-07,NaN,0.7115466,6.56548E-08,NaN,-0.3627414,9.232613E-07,-0.5926858,-1.201764E-08,NaN,NaN,-0.01973908,2.840531E-10,3.903858E-07,-1.134578E-07,-4.675589E-08,-2.861022E-08
49.38269,-0.9263933,-3.417968E-08,NaN,-0.3257624,-1.340602E-07,NaN,0.7174873,6.570063E-08,NaN,-0.3610832,9.240296E-07,-0.597962,-1.206002E-08,NaN,NaN,-0.01973251,2.933664E-10,3.967934E-07,-1.134679E-07,-4.437171E-08,-2.622604E-08
49.3975,-0.9263933,-3.417968E-08,NaN,-0.3257624,-1.340602E-07,NaN,0.7174873,6.570063E-08,NaN,-0.3610832,9.240296E-07,-0.597962,-1.206002E-08,NaN,NaN,-0.01973251,2.933664E-10,3.967934E-07,-1.134679E-07,-4.437171E-08,-2.622604E-08
49.41136,-0.9458427,-3.418094E-08,NaN,-0.3257253,-1.340739E-07,NaN,0.7233309,6.574491E-08,NaN,-0.3595064,9.248073E-07,-0.6031675,-1.210097E-08,NaN,NaN,-0.01972601,2.933664E-10,3.970914E-07,-1.13478E-07,-4.437171E-08,-2.861022E-08
49.42677,-0.9650713,-3.418218E-08,NaN,-0.3256899,-1.340875E-07,NaN,0.7290768,6.578771E-08,NaN,-0.3580079,9.255756E-07,-0.6083012,-1.214053E-08,NaN,NaN,-0.0197196,3.026796E-10,3.960483E-07,-1.134881E-07,-4.198752E-08,-2.622604E-08
49.44168,-0.9840806,-3.418342E-08,NaN,-0.3256563,-1.341011E-07,NaN,0.734724,6.582906E-08,NaN,-0.3565853,9.263533E-07,-0.6133615,-1.217871E-08,NaN,NaN,-0.0197133,3.026796E-10,3.988795E-07,-1.134981E-07,-4.198752E-08,-2.861022E-08
49.45592,-0.9840806,-3.418342E-08,NaN,-0.3256563,-1.341011E-07,NaN,0.734724,6.582906E-08,NaN,-0.3565853,9.263533E-07,-0.6133615,-1.217871E-08,NaN,NaN,-0.0197133,3.026796E-10,3.988795E-07,-1.134981E-07,-4.198752E-08,-2.861022E-08
49.46994,-1.002872,-3.418465E-08,NaN,-0.3256243,-1.341146E-07,NaN,0.7402712,6.586902E-08,NaN,-0.3552362,9.271217E-07,-0.6183468,-1.221555E-08,NaN,NaN,-0.0197071,3.119928E-10,3.956013E-07,-1.135081E-07,-3.721915E-08,-2.622604E-08
49.4851,-1.021449,-3.418587E-08,NaN,-0.325594,-1.341281E-07,NaN,0.7457171,6.590761E-08,NaN,-0.3539585,9.278994E-07,-0.6232552,-1.225107E-08,NaN,NaN,-0.019701,3.119928E-10,4.020088E-07,-1.135181E-07,-3.364287E-08,-2.861022E-08
49.50016,-1.039813,-3.418708E-08,NaN,-0.3255654,-1.341415E-07,NaN,0.7510604,6.594487E-08,NaN,-0.35275,9.286677E-07,-0.6280851,-1.22853E-08,NaN,NaN,-0.01969503,3.21306E-10,4.055851E-07,-1.13528E-07,-3.483496E-08,-2.622604E-08
49.51461,-1.039813,-3.418708E-08,NaN,-0.3255654,-1.341415E-07,NaN,0.7510604,6.594487E-08,NaN,-0.35275,9.286677E-07,-0.6280851,-1.22853E-08,NaN,NaN,-0.01969503,3.21306E-10,4.055851E-07,-1.13528E-07,-3.483496E-08,-2.622604E-08
49.52866,-1.057966,-3.418828E-08,NaN,-0.3255384,-1.341549E-07,NaN,0.7562995,6.598083E-08,NaN,-0.351609,9.294454E-07,-0.6328345,-1.231827E-08,NaN,NaN,-0.01968918,3.21306E-10,4.070752E-07,-1.135379E-07,-3.125868E-08,-2.861022E-08
49.54394,-1.075911,-3.418948E-08,NaN,-0.3255129,-1.341683E-07,NaN,0.7614331,6.601552E-08,NaN,-0.3505335,9.302137E-07,-0.6375017,-1.234999E-08,NaN,NaN,-0.01968346,3.306192E-10,4.085653E-07,-1.135477E-07,-3.006659E-08,-2.622604E-08
49.55941,-1.075911,-3.418948E-08,NaN,-0.3255129,-1.341683E-07,NaN,0.7614331,6.601552E-08,NaN,-0.3505335,9.302137E-07,-0.6375017,-1.234999E-08,NaN,NaN,-0.01968346,3.306192E-10,4.085653E-07,-1.135477E-07,-3.006659E-08,-2.622604E-08
49.57352,-1.093649,-3.419066E-08,NaN,-0.3254889,-1.341816E-07,NaN,0.7664599,6.604898E-08,NaN,-0.3495216,9.309914E-07,-0.642085,-1.238049E-08,NaN,NaN,-0.01967787,3.306192E-10,4.079693E-07,-1.135576E-07,-2.649031E-08,-2.861022E-08
49.58764,-1.111184,-3.419183E-08,NaN,-0.3254664,-1.341949E-07,NaN,0.7713786,6.608158E-08,NaN,-0.3485717,9.317598E-07,-0.6465827,-1.241015E-08,NaN,NaN,-0.01967241,3.399324E-10,4.081183E-07,-1.135674E-07,-3.006659E-08,-2.622604E-08
49.60339,-1.128518,-3.4193E-08,NaN,-0.3254454,-1.342081E-07,NaN,0.776188,6.611299E-08,NaN,-0.3476819,9.325374E-07,-0.6509931,-1.243863E-08,NaN,NaN,-0.0196671,3.399324E-10,4.097574E-07,-1.135771E-07,-2.88745E-08,-2.861022E-08
49.61684,-1.128518,-3.4193E-08,NaN,-0.3254454,-1.342081E-07,NaN,0.776188,6.611299E-08,NaN,-0.3476819,9.325374E-07,-0.6509931,-1.243863E-08,NaN,NaN,-0.0196671,3.399324E-10,4.097574E-07,-1.135771E-07,-2.88745E-08,-2.861022E-08
49.63044,-1.145652,-3.419415E-08,NaN,-0.3254257,-1.342213E-07,NaN,0.7808868,6.614323E-08,NaN,-0.3468507,9.333058E-07,-0.6553149,-1.246595E-08,NaN,NaN,-0.01966193,3.492457E-10,4.130357E-07,-1.135869E-07,-2.88745E-08,-2.622604E-08
49.64606,-1.162589,-3.41953E-08,NaN,-0.3254073,-1.342344E-07,NaN,0.7854741,6.617233E-08,NaN,-0.3460762,9.340835E-07,-0.6595466,-1.249215E-08,NaN,NaN,-0.0196569,3.492457E-10,4.140787E-07,-1.135966E-07,-2.589427E-08,-2.861022E-08
49.66056,-1.179332,-3.419644E-08,NaN,-0.3253902,-1.342476E-07,NaN,0.7899489,6.620032E-08,NaN,-0.3453568,9.348518E-07,-0.6636868,-1.251723E-08,NaN,NaN,-0.01965203,3.585589E-10,4.116945E-07,-1.136063E-07,-2.410613E-08,-2.622604E-08
49.67535,-1.179332,-3.419644E-08,NaN,-0.3253902,-1.342476E-07,NaN,0.7899489,6.620032E-08,NaN,-0.3453568,9.348518E-07,-0.6636868,-1.251723E-08,NaN,NaN,-0.01965203,3.585589E-10,4.116945E-07,-1.136063E-07,-2.410613E-08,-2.622604E-08
49.68924,-1.195882,-3.419757E-08,NaN,-0.3253745,-1.342606E-07,NaN,0.7943103,6.622722E-08,NaN,-0.344691,9.356295E-07,-0.6677344,-1.254123E-08,NaN,NaN,-0.0196473,3.585589E-10,4.106515E-07,-1.136159E-07,-2.291403E-08,-2.861022E-08
49.70434,-1.212243,-3.419868E-08,NaN,-0.3253599,-1.342737E-07,NaN,0.7985576,6.625268E-08,NaN,-0.3440772,9.363978E-07,-0.6716882,-1.25638E-08,NaN,NaN,-0.01964272,3.678721E-10,4.097574E-07,-1.136255E-07,-2.410613E-08,-2.622604E-08
49.71912,-1.212243,-3.419868E-08,NaN,-0.3253599,-1.342737E-07,NaN,0.7985576,6.625268E-08,NaN,-0.3440772,9.363978E-07,-0.6716882,-1.25638E-08,NaN,NaN,-0.01964272,3.678721E-10,4.097574E-07,-1.136255E-07,-2.410613E-08,-2.622604E-08
49.73316,-1.228415,-3.41998E-08,NaN,-0.3253465,-1.342867E-07,NaN,0.8026901,6.627746E-08,NaN,-0.3435137,9.371755E-07,-0.6755471,-1.258569E-08,NaN,NaN,-0.01963829,3.678721E-10,4.102044E-07,-1.136351E-07,-2.231799E-08,-2.861022E-08
49.74833,-1.244401,-3.42009E-08,NaN,-0.3253343,-1.343006E-07,NaN,0.8067071,6.622617E-08,NaN,-0.3429992,9.379671E-07,-0.6793101,-1.25146E-08,NaN,NaN,-0.01963403,3.632155E-10,4.106515E-07,-1.13646E-07,-2.172194E-08,-2.622604E-08
49.763,-1.260204,-3.420199E-08,NaN,-0.3253231,-1.343153E-07,NaN,0.8106083,6.617488E-08,NaN,-0.342532,9.387634E-07,-0.6829766,-1.243129E-08,NaN,NaN,-0.01962991,3.585589E-10,4.146748E-07,-1.13656E-07,-2.231799E-08,-2.861022E-08
49.77772,-1.260204,-3.420199E-08,NaN,-0.3253231,-1.343153E-07,NaN,0.8106083,6.617488E-08,NaN,-0.342532,9.387634E-07,-0.6829766,-1.243129E-08,NaN,NaN,-0.01962991,3.585589E-10,4.146748E-07,-1.13656E-07,-2.231799E-08,-2.861022E-08
49.79169,-1.275604,-3.420308E-08,NaN,-0.3253123,-1.343301E-07,NaN,0.8140743,6.61236E-08,NaN,-0.3422077,9.39569E-07,-0.6862558,-1.23392E-08,NaN,NaN,-0.01962636,3.492457E-10,4.154199E-07,-1.136659E-07,-2.112589E-08,-2.622604E-08
49.80689,-1.290687,-3.420415E-08,NaN,-0.3253029,-1.343448E-07,NaN,0.8173349,6.607231E-08,NaN,-0.3419563,9.403699E-07,-0.6893582,-1.224086E-08,NaN,NaN,-0.01962301,3.492457E-10,4.17506E-07,-1.136758E-07,-2.231799E-08,-2.861022E-08
49.82159,-1.305507,-3.420522E-08,NaN,-0.3252951,-1.343595E-07,NaN,0.8204728,6.602102E-08,NaN,-0.3417481,9.411848E-07,-0.6923584,-1.213814E-08,NaN,NaN,-0.01961979,3.352758E-10,4.16761E-07,-1.136856E-07,-2.172194E-08,-2.622604E-08
49.8362,-1.305507,-3.420522E-08,NaN,-0.3252951,-1.343595E-07,NaN,0.8204728,6.602102E-08,NaN,-0.3417481,9.411848E-07,-0.6923584,-1.213814E-08,NaN,NaN,-0.01961979,3.352758E-10,4.16761E-07,-1.136856E-07,-2.172194E-08,-2.622604E-08
49.85189,-1.320099,-3.420628E-08,NaN,-0.3252888,-1.343742E-07,NaN,0.8235127,6.596974E-08,NaN,-0.3415718,9.419904E-07,-0.6952782,-1.20324E-08,NaN,NaN,-0.01961668,3.306192E-10,4.096084E-07,-1.136955E-07,-2.052985E-08,-2.861022E-08
49.86618,-1.33376,-3.420732E-08,NaN,-0.3252816,-1.343888E-07,NaN,0.8253949,6.591845E-08,NaN,-0.3417392,9.428006E-07,-0.697151,-1.192463E-08,NaN,NaN,-0.01961507,3.21306E-10,4.070752E-07,-1.137053E-07,-1.99338E-08,-2.622604E-08
49.87976,-1.33376,-3.420732E-08,NaN,-0.3252816,-1.343888E-07,NaN,0.8253949,6.591845E-08,NaN,-0.3417392,9.428006E-07,-0.697151,-1.192463E-08,NaN,NaN,-0.01961507,3.21306E-10,4.070752E-07,-1.137053E-07,-1.99338E-08,-2.622604E-08
49.89362,-1.346777,-3.420837E-08,NaN,-0.3252765,-1.344034E-07,NaN,0.8268878,6.586716E-08,NaN,-0.3420278,9.436062E-07,-0.6986825,-1.181557E-08,NaN,NaN,-0.01961374,3.166494E-10,4.024559E-07,-1.137151E-07,-1.918874E-08,-2.861022E-08
49.9092,-1.359336,-3.42094E-08,NaN,-0.3252743,-1.344179E-07,NaN,0.8282651,6.581588E-08,NaN,-0.342346,9.444165E-07,-0.7001213,-1.170576E-08,NaN,NaN,-0.01961241,3.073362E-10,4.026049E-07,-1.137248E-07,-1.918874E-08,-2.622604E-08
49.92348,-1.371553,-3.421042E-08,NaN,-0.3252737,-1.344324E-07,NaN,0.829606,6.576459E-08,NaN,-0.3426614,9.452267E-07,-0.7015368,-1.159559E-08,NaN,NaN,-0.01961113,3.026796E-10,3.964954E-07,-1.137345E-07,-1.86672E-08,-2.861022E-08
49.93808,-1.371553,-3.421042E-08,NaN,-0.3252737,-1.344324E-07,NaN,0.829606,6.576459E-08,NaN,-0.3426614,9.452267E-07,-0.7015368,-1.159559E-08,NaN,NaN,-0.01961113,3.026796E-10,3.964954E-07,-1.137345E-07,-1.86672E-08,-2.861022E-08
49.95178,-1.382777,-3.421143E-08,NaN,-0.3252729,-1.344469E-07,NaN,0.8298572,6.57133E-08,NaN,-0.3432816,9.460463E-07,-0.7019665,-1.148535E-08,NaN,NaN,-0.01961127,2.933664E-10,3.924721E-07,-1.137442E-07,-1.736335E-08,-2.622604E-08
49.96713,-1.393328,-3.421244E-08,NaN,-0.3252735,-1.344613E-07,NaN,0.8297823,6.566201E-08,NaN,-0.3439887,9.468658E-07,-0.7021106,-1.137524E-08,NaN,NaN,-0.01961169,2.887098E-10,3.90833E-07,-1.137538E-07,-1.698151E-08,-2.861022E-08
49.98162,-1.403413,-3.421344E-08,NaN,-0.3252753,-1.344746E-07,NaN,0.829646,6.577456E-08,NaN,-0.3446964,9.476714E-07,-0.7022094,-1.144015E-08,NaN,NaN,-0.01961214,2.933664E-10,3.905349E-07,-1.137636E-07,-1.560315E-08,-2.622604E-08
49.99639,-1.403413,-3.421344E-08,NaN,-0.3252753,-1.344746E-07,NaN,0.829646,6.577456E-08,NaN,-0.3446964,9.476714E-07,-0.7022094,-1.144015E-08,NaN,NaN,-0.01961214,2.933664E-10,3.905349E-07,-1.137636E-07,-1.560315E-08,-2.622604E-08
50.0104,-1.412434,-3.421442E-08,NaN,-0.3252768,-1.344875E-07,NaN,0.8284627,6.587085E-08,NaN,-0.3456919,9.484817E-07,-0.7013612,-1.149776E-08,NaN,NaN,-0.01961392,2.887098E-10,3.820413E-07,-1.137731E-07,-1.500711E-08,-2.861022E-08
50.02574,-1.420749,-3.42154E-08,NaN,-0.3252795,-1.345001E-07,NaN,0.8270093,6.595519E-08,NaN,-0.3467522,9.492779E-07,-0.700278,-1.155059E-08,NaN,NaN,-0.01961589,2.98023E-10,3.795081E-07,-1.137824E-07,-1.500711E-08,-2.622604E-08
50.04016,-1.428584,-3.421637E-08,NaN,-0.3252844,-1.345126E-07,NaN,0.8255506,6.603013E-08,NaN,-0.3477924,9.500835E-07,-0.6992,-1.159975E-08,NaN,NaN,-0.0196178,2.98023E-10,3.777199E-07,-1.137916E-07,-1.411304E-08,-2.861022E-08
50.05613,-1.428584,-3.421637E-08,NaN,-0.3252844,-1.345126E-07,NaN,0.8255506,6.603013E-08,NaN,-0.3477924,9.500835E-07,-0.6992,-1.159975E-08,NaN,NaN,-0.0196178,2.98023E-10,3.777199E-07,-1.137916E-07,-1.411304E-08,-2.861022E-08
50.06876,-1.436084,-3.421734E-08,NaN,-0.3252919,-1.34525E-07,NaN,0.8241535,6.609756E-08,NaN,-0.3487884,9.508844E-07,-0.6981856,-1.164598E-08,NaN,NaN,-0.01961963,3.026796E-10,3.772729E-07,-1.138007E-07,-1.515612E-08,-2.622604E-08
50.08455,-1.442615,-3.421829E-08,NaN,-0.3252992,-1.345372E-07,NaN,0.821772,6.615913E-08,NaN,-0.3500547,9.5169E-07,-0.6962785,-1.169003E-08,NaN,NaN,-0.0196227,3.026796E-10,3.683322E-07,-1.138098E-07,-1.426205E-08,-2.861022E-08
50.09876,-1.442615,-3.421829E-08,NaN,-0.3252992,-1.345372E-07,NaN,0.821772,6.615913E-08,NaN,-0.3500547,9.5169E-07,-0.6962785,-1.169003E-08,NaN,NaN,-0.0196227,3.026796E-10,3.683322E-07,-1.138098E-07,-1.426205E-08,-2.861022E-08
50.11249,-1.448508,-3.421924E-08,NaN,-0.3253084,-1.345495E-07,NaN,0.8191489,6.621597E-08,NaN,-0.3513782,9.52491E-07,-0.6941597,-1.173228E-08,NaN,NaN,-0.01962595,3.073362E-10,3.646069E-07,-1.138188E-07,-1.426205E-08,-2.622604E-08
50.12797,-1.453976,-3.422018E-08,NaN,-0.3253198,-1.345616E-07,NaN,0.8165396,6.626906E-08,NaN,-0.3526768,9.532919E-07,-0.692061,-1.177311E-08,NaN,NaN,-0.01962909,3.119928E-10,3.595405E-07,-1.138277E-07,-1.277193E-08,-2.861022E-08
50.14318,-1.459153,-3.42211E-08,NaN,-0.3253334,-1.345737E-07,NaN,0.8140103,6.631888E-08,NaN,-0.3539264,9.540928E-07,-0.6900405,-1.181256E-08,NaN,NaN,-0.01963213,3.166494E-10,3.538781E-07,-1.138367E-07,-1.336798E-08,-2.622604E-08
50.15815,-1.459153,-3.42211E-08,NaN,-0.3253334,-1.345737E-07,NaN,0.8140103,6.631888E-08,NaN,-0.3539264,9.540928E-07,-0.6900405,-1.181256E-08,NaN,NaN,-0.01963213,3.166494E-10,3.538781E-07,-1.138367E-07,-1.336798E-08,-2.622604E-08
50.17201,-1.463398,-3.422202E-08,NaN,-0.3253463,-1.345858E-07,NaN,0.8105397,6.636547E-08,NaN,-0.3554442,9.548937E-07,-0.6871661,-1.185029E-08,NaN,NaN,-0.01963631,3.21306E-10,3.494077E-07,-1.138456E-07,-1.306996E-08,-2.861022E-08
50.18632,-1.467038,-3.422294E-08,NaN,-0.3253602,-1.345978E-07,NaN,0.806858,6.640989E-08,NaN,-0.3570145,9.556946E-07,-0.6841062,-1.188704E-08,NaN,NaN,-0.01964063,3.259626E-10,3.430002E-07,-1.138544E-07,-1.247391E-08,-2.622604E-08
50.20072,-1.470282,-3.422384E-08,NaN,-0.3253754,-1.346098E-07,NaN,0.8032182,6.645203E-08,NaN,-0.358554,9.564956E-07,-0.6810902,-1.192248E-08,NaN,NaN,-0.0196448,3.306192E-10,3.364437E-07,-1.138633E-07,-1.187786E-08,-2.861022E-08
50.21526,-1.470282,-3.422384E-08,NaN,-0.3253754,-1.346098E-07,NaN,0.8032182,6.645203E-08,NaN,-0.358554,9.564956E-07,-0.6810902,-1.192248E-08,NaN,NaN,-0.0196448,3.306192E-10,3.364437E-07,-1.138633E-07,-1.187786E-08,-2.861022E-08
50.22919,-1.472537,-3.422473E-08,NaN,-0.3253894,-1.346217E-07,NaN,0.7986867,6.649211E-08,NaN,-0.3603596,9.572965E-07,-0.6772673,-1.195663E-08,NaN,NaN,-0.01965002,3.352758E-10,3.322714E-07,-1.138721E-07,-1.247391E-08,-2.622604E-08
50.24431,-1.474158,-3.422562E-08,NaN,-0.3254039,-1.346336E-07,NaN,0.7939996,6.653032E-08,NaN,-0.3622055,9.580974E-07,-0.6733094,-1.198951E-08,NaN,NaN,-0.01965529,3.399324E-10,3.286951E-07,-1.138809E-07,-1.247391E-08,-2.861022E-08
50.25903,-1.474158,-3.422562E-08,NaN,-0.3254039,-1.346336E-07,NaN,0.7939996,6.653032E-08,NaN,-0.3622055,9.580974E-07,-0.6733094,-1.198951E-08,NaN,NaN,-0.01965529,3.399324E-10,3.286951E-07,-1.138809E-07,-1.247391E-08,-2.861022E-08
50.27276,-1.475374,-3.42265E-08,NaN,-0.325419,-1.346455E-07,NaN,0.7894069,6.656679E-08,NaN,-0.3640062,9.589077E-07,-0.6694432,-1.202116E-08,NaN,NaN,-0.01966036,3.352758E-10,3.248208E-07,-1.138896E-07,-1.247391E-08,-2.622604E-08
50.28802,-1.476331,-3.422737E-08,NaN,-0.3254349,-1.346583E-07,NaN,0.7849699,6.664083E-08,NaN,-0.365738,9.597179E-07,-0.6657225,-1.209077E-08,NaN,NaN,-0.01966522,3.306192E-10,3.206484E-07,-1.138981E-07,-1.247391E-08,-2.861022E-08
50.30264,-1.476392,-3.422823E-08,NaN,-0.3254489,-1.346714E-07,NaN,0.7797162,6.671807E-08,NaN,-0.3677289,9.605282E-07,-0.6612635,-1.216391E-08,NaN,NaN,-0.01967103,3.259626E-10,3.131979E-07,-1.139069E-07,-1.247391E-08,-2.622604E-08
50.31727,-1.476392,-3.422823E-08,NaN,-0.3254489,-1.346714E-07,NaN,0.7797162,6.671807E-08,NaN,-0.3677289,9.605282E-07,-0.6612635,-1.216391E-08,NaN,NaN,-0.01967103,3.259626E-10,3.131979E-07,-1.139069E-07,-1.247391E-08,-2.622604E-08
50.33139,-1.47589,-3.422909E-08,NaN,-0.3254623,-1.346847E-07,NaN,0.7743359,6.67961E-08,NaN,-0.3697577,9.613384E-07,-0.6566947,-1.223811E-08,NaN,NaN,-0.01967686,3.21306E-10,3.058963E-07,-1.139157E-07,-1.068577E-08,-2.861022E-08
50.34656,-1.475036,-3.422993E-08,NaN,-0.3254756,-1.346981E-07,NaN,0.7690662,6.68736E-08,NaN,-0.3717408,9.621486E-07,-0.6522306,-1.231198E-08,NaN,NaN,-0.0196825,3.166494E-10,2.978497E-07,-1.139245E-07,-1.247391E-08,-2.622604E-08
50.36102,-1.473963,-3.423077E-08,NaN,-0.3254889,-1.347115E-07,NaN,0.7639672,6.694994E-08,NaN,-0.3736542,9.629589E-07,-0.6479245,-1.238485E-08,NaN,NaN,-0.01968789,3.119928E-10,2.88909E-07,-1.139334E-07,-1.068577E-08,-2.861022E-08
50.37584,-1.473963,-3.423077E-08,NaN,-0.3254889,-1.347115E-07,NaN,0.7639672,6.694994E-08,NaN,-0.3736542,9.629589E-07,-0.6479245,-1.238485E-08,NaN,NaN,-0.01968789,3.119928E-10,2.88909E-07,-1.139334E-07,-1.068577E-08,-2.861022E-08
50.38977,-1.47203,-3.42316E-08,NaN,-0.3254997,-1.347248E-07,NaN,0.7581041,6.702482E-08,NaN,-0.3758313,9.637691E-07,-0.6429297,-1.245641E-08,NaN,NaN,-0.01969414,3.073362E-10,2.804153E-07,-1.139423E-07,-1.247391E-08,-2.622604E-08
50.40495,-1.469563,-3.423242E-08,NaN,-0.3255093,-1.347382E-07,NaN,0.7521433,6.709796E-08,NaN,-0.378046,9.645794E-07,-0.6378508,-1.252634E-08,NaN,NaN,-0.01970039,3.026796E-10,2.725177E-07,-1.139512E-07,-1.187786E-08,-2.861022E-08
50.41971,-1.469563,-3.423242E-08,NaN,-0.3255093,-1.347382E-07,NaN,0.7521433,6.709796E-08,NaN,-0.378046,9.645794E-07,-0.6378508,-1.252634E-08,NaN,NaN,-0.01970039,3.026796E-10,2.725177E-07,-1.139512E-07,-1.187786E-08,-2.861022E-08
50.43362,-1.466771,-3.423324E-08,NaN,-0.3255181,-1.347516E-07,NaN,0.746316,6.716942E-08,NaN,-0.380212,9.653896E-07,-0.6328966,-1.259467E-08,NaN,NaN,-0.01970641,2.98023E-10,2.687924E-07,-1.1396E-07,-1.008973E-08,-2.622604E-08
50.45098,-1.463058,-3.423404E-08,NaN,-0.3255239,-1.347649E-07,NaN,0.7397792,6.72389E-08,NaN,-0.3826435,9.661999E-07,-0.6273057,-1.266108E-08,NaN,NaN,-0.01971318,2.933664E-10,2.620869E-07,-1.139689E-07,-1.306996E-08,-2.861022E-08
50.46439,-1.458781,-3.423484E-08,NaN,-0.3255278,-1.347781E-07,NaN,0.733197,6.73068E-08,NaN,-0.385102,9.670101E-07,-0.6216789,-1.272598E-08,NaN,NaN,-0.0197199,2.887098E-10,2.562754E-07,-1.139777E-07,-1.128182E-08,-2.622604E-08
50.47922,-1.458781,-3.423484E-08,NaN,-0.3255278,-1.347781E-07,NaN,0.733197,6.73068E-08,NaN,-0.385102,9.670101E-07,-0.6216789,-1.272598E-08,NaN,NaN,-0.0197199,2.887098E-10,2.562754E-07,-1.139777E-07,-1.128182E-08,-2.622604E-08
50.49304,-1.454167,-3.423563E-08,NaN,-0.3255304,-1.347914E-07,NaN,0.7267956,6.737281E-08,NaN,-0.3874988,9.678204E-07,-0.6162194,-1.278902E-08,NaN,NaN,-0.01972636,2.840531E-10,2.50315E-07,-1.139865E-07,-1.008973E-08,-2.861022E-08
50.50724,-1.44936,-3.423641E-08,NaN,-0.3255322,-1.348046E-07,NaN,0.7206283,6.743662E-08,NaN,-0.3898094,9.686306E-07,-0.6109745,-1.284991E-08,NaN,NaN,-0.0197325,2.793965E-10,2.443545E-07,-1.139952E-07,-1.128182E-08,-2.622604E-08
50.52306,-1.443724,-3.423719E-08,NaN,-0.3255323,-1.348178E-07,NaN,0.7138268,6.749865E-08,NaN,-0.3923821,9.694409E-07,-0.6051639,-1.290903E-08,NaN,NaN,-0.01973929,2.747399E-10,2.366059E-07,-1.140039E-07,-1.187786E-08,-2.861022E-08
50.53605,-1.443724,-3.423719E-08,NaN,-0.3255323,-1.348178E-07,NaN,0.7138268,6.749865E-08,NaN,-0.3923821,9.694409E-07,-0.6051639,-1.290903E-08,NaN,NaN,-0.01973929,2.747399E-10,2.366059E-07,-1.140039E-07,-1.187786E-08,-2.861022E-08
50.54983,-1.437589,-3.423796E-08,NaN,-0.3255314,-1.348309E-07,NaN,0.7070023,6.755891E-08,NaN,-0.3949822,9.702511E-07,-0.5993373,-1.296643E-08,NaN,NaN,-0.01974602,2.700833E-10,2.285593E-07,-1.140126E-07,-9.493679E-09,-2.622604E-08
50.56532,-1.431167,-3.423872E-08,NaN,-0.3255297,-1.348439E-07,NaN,0.7003657,6.761747E-08,NaN,-0.3975214,9.710614E-07,-0.5936838,-1.302213E-08,NaN,NaN,-0.01975248,2.654267E-10,2.215557E-07,-1.140213E-07,-8.897632E-09,-2.861022E-08
50.57972,-1.431167,-3.423872E-08,NaN,-0.3255297,-1.348439E-07,NaN,0.7003657,6.761747E-08,NaN,-0.3975214,9.710614E-07,-0.5936838,-1.302213E-08,NaN,NaN,-0.01975248,2.654267E-10,2.215557E-07,-1.140213E-07,-8.897632E-09,-2.861022E-08
50.59379,-1.423863,-3.423947E-08,NaN,-0.325525,-1.34857E-07,NaN,0.6931384,6.767434E-08,NaN,-0.4003273,9.718716E-07,-0.5875064,-1.307616E-08,NaN,NaN,-0.01975952,2.607701E-10,2.147012E-07,-1.140299E-07,-1.128182E-08,-2.622604E-08
50.6091,-1.416035,-3.424021E-08,NaN,-0.3255182,-1.3487E-07,NaN,0.6859292,6.772993E-08,NaN,-0.4031521,9.726818E-07,-0.5813504,-1.312892E-08,NaN,NaN,-0.01976646,2.561135E-10,2.059095E-07,-1.140386E-07,-1.008973E-08,-2.861022E-08
50.62374,-1.407909,-3.424094E-08,NaN,-0.3255097,-1.348825E-07,NaN,0.6789453,6.763023E-08,NaN,-0.4059044,9.734968E-07,-0.5754007,-1.301278E-08,NaN,NaN,-0.01977311,2.468003E-10,2.005451E-07,-1.140466E-07,-1.187786E-08,-2.622604E-08
50.63843,-1.407909,-3.424094E-08,NaN,-0.3255097,-1.348825E-07,NaN,0.6789453,6.763023E-08,NaN,-0.4059044,9.734968E-07,-0.5754007,-1.301278E-08,NaN,NaN,-0.01977311,2.468003E-10,2.005451E-07,-1.140466E-07,-1.187786E-08,-2.622604E-08
50.65236,-1.399631,-3.424167E-08,NaN,-0.3255001,-1.348948E-07,NaN,0.6722335,6.753054E-08,NaN,-0.4085594,9.743117E-07,-0.5696983,-1.28869E-08,NaN,NaN,-0.01977941,2.374871E-10,1.951807E-07,-1.140545E-07,-1.247391E-08,-2.861022E-08
50.66786,-1.390562,-3.424239E-08,NaN,-0.3254874,-1.349068E-07,NaN,0.6649955,6.743084E-08,NaN,-0.4114785,9.751172E-07,-0.5635328,-1.275414E-08,NaN,NaN,-0.01978622,2.328304E-10,1.889222E-07,-1.140622E-07,-1.3666E-08,-2.622604E-08
50.68218,-1.381035,-3.424311E-08,NaN,-0.3254723,-1.349187E-07,NaN,0.6577886,6.733114E-08,NaN,-0.4144177,9.759228E-07,-0.5574003,-1.261658E-08,NaN,NaN,-0.01979294,2.281738E-10,1.823657E-07,-1.140698E-07,-1.3666E-08,-2.861022E-08
50.69685,-1.381035,-3.424311E-08,NaN,-0.3254723,-1.349187E-07,NaN,0.6577886,6.733114E-08,NaN,-0.4144177,9.759228E-07,-0.5574003,-1.261658E-08,NaN,NaN,-0.01979294,2.281738E-10,1.823657E-07,-1.140698E-07,-1.3666E-08,-2.861022E-08
