JMolnar6/NonAnthroHands_User_Study/HandsLoggerWithURDF/tempdata/files/Reachy_PID0_JointMotion_gesture_3_16.csv
Time,r_shoulder,r_shoulder_x,r_upper_arm,r_forearm,r_wrist,r_wrist2hand,
198.6372,0.04500105,-2.59036E-08,NaN,-0.3269993,-1.371484E-07,NaN,0.4649721,3.984562E-08,NaN,-0.6673533,6.339912E-06,-0.3687211,-1.60197E-08,NaN,NaN,-0.0199559,-1.39699E-10,9.280757E-07,-1.148515E-07,-4.593868E-09,-2.622604E-08
198.6515,0.04500106,-2.59025E-08,NaN,-0.3269993,-1.371489E-07,NaN,0.4651399,3.98787E-08,NaN,-0.6662008,6.340602E-06,-0.3689912,-1.60505E-08,NaN,NaN,-0.01995797,-1.39699E-10,8.916424E-07,-1.148532E-07,-6.978053E-09,-2.861022E-08
198.6673,0.04500107,-2.590139E-08,NaN,-0.3269993,-1.371493E-07,NaN,0.4652869,3.991128E-08,NaN,-0.6657838,6.341286E-06,-0.3692633,-1.60808E-08,NaN,NaN,-0.01995917,-1.350424E-10,8.679496E-07,-1.148549E-07,-6.978053E-09,-2.622604E-08
198.682,0.04500108,-2.590029E-08,NaN,-0.3269993,-1.371498E-07,NaN,0.4653974,3.994266E-08,NaN,-0.6657176,6.341976E-06,-0.3694982,-1.61099E-08,NaN,NaN,-0.01996003,-1.350424E-10,8.474605E-07,-1.148566E-07,2.55869E-09,-2.861022E-08
198.6957,0.04500108,-2.590029E-08,NaN,-0.3269993,-1.371498E-07,NaN,0.4653974,3.994266E-08,NaN,-0.6657176,6.341976E-06,-0.3694982,-1.61099E-08,NaN,NaN,-0.01996003,-1.350424E-10,8.474605E-07,-1.148566E-07,2.55869E-09,-2.861022E-08
198.7098,0.04500109,-2.589919E-08,NaN,-0.3269993,-1.371503E-07,NaN,0.4654847,3.997286E-08,NaN,-0.6658181,6.34266E-06,-0.3697015,-1.613782E-08,NaN,NaN,-0.01996074,-1.303858E-10,8.298771E-07,-1.148583E-07,-2.209682E-09,-2.622604E-08
198.7252,0.04500109,-2.589808E-08,NaN,-0.3269993,-1.371507E-07,NaN,0.4654571,4.000191E-08,NaN,-0.6647645,6.343349E-06,-0.3697193,-1.616459E-08,NaN,NaN,-0.01995933,-1.303858E-10,8.405314E-07,-1.1486E-07,-4.593868E-09,-2.861022E-08
198.7399,0.04500109,-2.589808E-08,NaN,-0.3269993,-1.371507E-07,NaN,0.4654571,4.000191E-08,NaN,-0.6647645,6.343349E-06,-0.3697193,-1.616459E-08,NaN,NaN,-0.01995933,-1.303858E-10,8.405314E-07,-1.1486E-07,-4.593868E-09,-2.861022E-08
198.754,0.04500108,-2.589698E-08,NaN,-0.3269993,-1.371512E-07,NaN,0.4654461,4.002984E-08,NaN,-0.6630489,6.344034E-06,-0.3697233,-1.619023E-08,NaN,NaN,-0.01995878,-1.257292E-10,8.41351E-07,-1.148617E-07,-9.362239E-09,-2.622604E-08
198.7695,0.04500108,-2.589587E-08,NaN,-0.3269993,-1.371516E-07,NaN,0.4654705,4.005665E-08,NaN,-0.6610345,6.344723E-06,-0.3697573,-1.621476E-08,NaN,NaN,-0.01995854,-1.257292E-10,8.367316E-07,-1.148633E-07,-9.362239E-09,-2.861022E-08
198.7843,0.04500108,-2.589477E-08,NaN,-0.3269993,-1.371521E-07,NaN,0.4655177,4.008238E-08,NaN,-0.6588953,6.345413E-06,-0.3698183,-1.623821E-08,NaN,NaN,-0.01995843,-1.257292E-10,8.312182E-07,-1.14865E-07,-9.362239E-09,-2.622604E-08
198.799,0.04500108,-2.589477E-08,NaN,-0.3269993,-1.371521E-07,NaN,0.4655177,4.008238E-08,NaN,-0.6588953,6.345413E-06,-0.3698183,-1.623821E-08,NaN,NaN,-0.01995843,-1.257292E-10,8.312182E-07,-1.14865E-07,-9.362239E-09,-2.622604E-08
198.8154,0.04500107,-2.589366E-08,NaN,-0.3269993,-1.371526E-07,NaN,0.46547,4.010704E-08,NaN,-0.6554824,6.346102E-06,-0.36973,-1.626059E-08,NaN,NaN,-0.01995628,-1.257292E-10,8.537189E-07,-1.148667E-07,-1.413061E-08,-2.861022E-08
198.8287,0.04500106,-2.589256E-08,NaN,-0.3269993,-1.37153E-07,NaN,0.4654452,4.013066E-08,NaN,-0.6513701,6.346786E-06,-0.3696474,-1.628193E-08,NaN,NaN,-0.01995505,-1.210726E-10,8.639262E-07,-1.148683E-07,-1.889898E-08,-2.622604E-08
198.8434,0.04500105,-2.589145E-08,NaN,-0.3269993,-1.371535E-07,NaN,0.4654565,4.015326E-08,NaN,-0.6469613,6.347476E-06,-0.3696058,-1.630225E-08,NaN,NaN,-0.01995418,-1.210726E-10,8.686201E-07,-1.1487E-07,-1.889898E-08,-2.861022E-08
198.8584,0.04500105,-2.589145E-08,NaN,-0.3269993,-1.371535E-07,NaN,0.4654565,4.015326E-08,NaN,-0.6469613,6.347476E-06,-0.3696058,-1.630225E-08,NaN,NaN,-0.01995418,-1.210726E-10,8.686201E-07,-1.1487E-07,-1.889898E-08,-2.861022E-08
198.872,0.04500103,-2.589035E-08,NaN,-0.3269993,-1.371539E-07,NaN,0.465382,4.017485E-08,NaN,-0.6412163,6.34816E-06,-0.3694296,-1.632156E-08,NaN,NaN,-0.01995129,-1.16416E-10,8.990185E-07,-1.148716E-07,-1.413061E-08,-2.622604E-08
198.8875,0.04500102,-2.588924E-08,NaN,-0.3269993,-1.371544E-07,NaN,0.4653351,4.019617E-08,NaN,-0.6347616,6.34885E-06,-0.3692692,-1.63406E-08,NaN,NaN,-0.01994938,-1.16416E-10,9.161548E-07,-1.148733E-07,-1.174642E-08,-2.861022E-08
198.9021,0.045001,-2.588813E-08,NaN,-0.3269993,-1.371548E-07,NaN,0.4653272,4.021651E-08,NaN,-0.6280248,6.349534E-06,-0.3691569,-1.635865E-08,NaN,NaN,-0.01994786,-1.117593E-10,9.285973E-07,-1.148749E-07,-4.593867E-09,-2.622604E-08
198.9187,0.045001,-2.588813E-08,NaN,-0.3269993,-1.371548E-07,NaN,0.4653272,4.021651E-08,NaN,-0.6280248,6.349534E-06,-0.3691569,-1.635865E-08,NaN,NaN,-0.01994786,-1.117593E-10,9.285973E-07,-1.148749E-07,-4.593867E-09,-2.622604E-08
198.9317,0.04500099,-2.588703E-08,NaN,-0.3269993,-1.371553E-07,NaN,0.4653437,4.023589E-08,NaN,-0.6212098,6.350223E-06,-0.3690833,-1.637576E-08,NaN,NaN,-0.0199465,-1.117593E-10,9.37836E-07,-1.148765E-07,-6.978053E-09,-2.861022E-08
198.9463,0.04500097,-2.588592E-08,NaN,-0.3269992,-1.371557E-07,NaN,0.4652569,4.025433E-08,NaN,-0.6131821,6.350913E-06,-0.3688627,-1.639192E-08,NaN,NaN,-0.01994284,-1.117593E-10,9.744183E-07,-1.148782E-07,-9.362239E-09,-2.622604E-08
198.9612,0.04500096,-2.588481E-08,NaN,-0.3269992,-1.371562E-07,NaN,0.465189,4.027185E-08,NaN,-0.6045218,6.351602E-06,-0.3686486,-1.640715E-08,NaN,NaN,-0.0199402,-1.117593E-10,9.972916E-07,-1.148798E-07,-4.593868E-09,-2.861022E-08
198.9757,0.04500096,-2.588481E-08,NaN,-0.3269992,-1.371562E-07,NaN,0.465189,4.027185E-08,NaN,-0.6045218,6.351602E-06,-0.3686486,-1.640715E-08,NaN,NaN,-0.0199402,-1.117593E-10,9.972916E-07,-1.148798E-07,-4.593868E-09,-2.861022E-08
198.9895,0.04500094,-2.588371E-08,NaN,-0.3269992,-1.371566E-07,NaN,0.4651583,4.028776E-08,NaN,-0.595634,6.352292E-06,-0.368479,-1.642078E-08,NaN,NaN,-0.01993795,-1.117593E-10,1.015769E-06,-1.148814E-07,-4.593868E-09,-2.622604E-08
199.005,0.04500092,-2.58826E-08,NaN,-0.3269992,-1.371571E-07,NaN,0.4651532,4.030279E-08,NaN,-0.5867119,6.352981E-06,-0.368348,-1.643354E-08,NaN,NaN,-0.01993586,-1.117593E-10,1.03149E-06,-1.14883E-07,-4.593868E-09,-2.861022E-08
199.0199,0.04500092,-2.58826E-08,NaN,-0.3269992,-1.371571E-07,NaN,0.4651532,4.030279E-08,NaN,-0.5867119,6.352981E-06,-0.368348,-1.643354E-08,NaN,NaN,-0.01993586,-1.117593E-10,1.03149E-06,-1.14883E-07,-4.593868E-09,-2.861022E-08
199.0339,0.04500091,-2.588149E-08,NaN,-0.3269992,-1.371575E-07,NaN,0.4651472,4.031698E-08,NaN,-0.577702,6.353665E-06,-0.3682225,-1.644544E-08,NaN,NaN,-0.0199335,-1.071027E-10,1.048775E-06,-1.148846E-07,-6.978053E-09,-2.622604E-08
199.0493,0.04500089,-2.588039E-08,NaN,-0.3269992,-1.37158E-07,NaN,0.4651488,4.033032E-08,NaN,-0.5687101,6.354355E-06,-0.3681127,-1.645651E-08,NaN,NaN,-0.01993128,-1.071027E-10,1.063229E-06,-1.148862E-07,-6.978053E-09,-2.861022E-08
199.0642,0.04500088,-2.587928E-08,NaN,-0.3269992,-1.371584E-07,NaN,0.4651577,4.034355E-08,NaN,-0.5598007,6.355039E-06,-0.3680185,-1.646746E-08,NaN,NaN,-0.01992911,-1.071027E-10,1.075448E-06,-1.148878E-07,-9.362239E-09,-2.622604E-08
199.0788,0.04500088,-2.587928E-08,NaN,-0.3269992,-1.371584E-07,NaN,0.4651577,4.034355E-08,NaN,-0.5598007,6.355039E-06,-0.3680185,-1.646746E-08,NaN,NaN,-0.01992911,-1.071027E-10,1.075448E-06,-1.148878E-07,-9.362239E-09,-2.622604E-08
199.0929,0.04500087,-2.587817E-08,NaN,-0.3269992,-1.371593E-07,NaN,0.4651717,4.043887E-08,NaN,-0.5510039,6.355729E-06,-0.3679367,-1.65605E-08,NaN,NaN,-0.01992694,-1.117593E-10,1.087369E-06,-1.148869E-07,-1.413061E-08,-2.861022E-08
199.1083,0.04500085,-2.587707E-08,NaN,-0.3269992,-1.371598E-07,NaN,0.4651893,4.04777E-08,NaN,-0.5423328,6.356418E-06,-0.3678645,-1.659705E-08,NaN,NaN,-0.01992475,-1.16416E-10,1.098769E-06,-1.148855E-07,-1.174642E-08,-2.622604E-08
199.1227,0.04500084,-2.587596E-08,NaN,-0.3269992,-1.3716E-07,NaN,0.4652099,4.048783E-08,NaN,-0.5337926,6.357102E-06,-0.3678001,-1.66049E-08,NaN,NaN,-0.01992254,-1.16416E-10,1.108901E-06,-1.14884E-07,-1.174642E-08,-2.861022E-08
199.1377,0.04500084,-2.587596E-08,NaN,-0.3269992,-1.3716E-07,NaN,0.4652099,4.048783E-08,NaN,-0.5337926,6.357102E-06,-0.3678001,-1.66049E-08,NaN,NaN,-0.01992254,-1.16416E-10,1.108901E-06,-1.14884E-07,-1.174642E-08,-2.861022E-08
199.1515,0.04500083,-2.587485E-08,NaN,-0.3269992,-1.3716E-07,NaN,0.4652334,4.048176E-08,NaN,-0.5253847,6.357787E-06,-0.3677426,-1.659654E-08,NaN,NaN,-0.01992029,-1.16416E-10,1.117544E-06,-1.148823E-07,-1.413061E-08,-2.622604E-08
199.167,0.04500082,-2.587375E-08,NaN,-0.3269992,-1.371599E-07,NaN,0.46526,4.046685E-08,NaN,-0.5171086,6.358471E-06,-0.3676915,-1.657934E-08,NaN,NaN,-0.01991802,-1.16416E-10,1.127006E-06,-1.148806E-07,-1.651479E-08,-2.861022E-08
199.1825,0.04500081,-2.587264E-08,NaN,-0.3269992,-1.371598E-07,NaN,0.4652899,4.044747E-08,NaN,-0.5089632,6.359161E-06,-0.3676464,-1.655768E-08,NaN,NaN,-0.01991571,-1.210726E-10,1.136692E-06,-1.148789E-07,-1.651479E-08,-2.622604E-08
199.1965,0.04500081,-2.587264E-08,NaN,-0.3269992,-1.371598E-07,NaN,0.4652899,4.044747E-08,NaN,-0.5089632,6.359161E-06,-0.3676464,-1.655768E-08,NaN,NaN,-0.01991571,-1.210726E-10,1.136692E-06,-1.148789E-07,-1.651479E-08,-2.622604E-08
199.2104,0.0450008,-2.587153E-08,NaN,-0.3269992,-1.371596E-07,NaN,0.4653234,4.042583E-08,NaN,-0.5009466,6.359845E-06,-0.3676072,-1.653374E-08,NaN,NaN,-0.01991337,-1.210726E-10,1.144143E-06,-1.148771E-07,-1.651479E-08,-2.861022E-08
199.2259,0.04500079,-2.587043E-08,NaN,-0.3269992,-1.371594E-07,NaN,0.4653607,4.040408E-08,NaN,-0.4930571,6.360534E-06,-0.367574,-1.650969E-08,NaN,NaN,-0.01991099,-1.257292E-10,1.151444E-06,-1.148753E-07,-1.651479E-08,-2.622604E-08
199.2405,0.04500078,-2.586932E-08,NaN,-0.3269992,-1.371592E-07,NaN,0.4654019,4.038221E-08,NaN,-0.4852927,6.361219E-06,-0.3675465,-1.648553E-08,NaN,NaN,-0.01990858,-1.257292E-10,1.159044E-06,-1.148736E-07,-1.413061E-08,-2.861022E-08
199.255,0.04500078,-2.586932E-08,NaN,-0.3269992,-1.371592E-07,NaN,0.4654019,4.038221E-08,NaN,-0.4852927,6.361219E-06,-0.3675465,-1.648553E-08,NaN,NaN,-0.01990858,-1.257292E-10,1.159044E-06,-1.148736E-07,-1.413061E-08,-2.861022E-08
199.2691,0.04500077,-2.586821E-08,NaN,-0.3269992,-1.37159E-07,NaN,0.4654471,4.036093E-08,NaN,-0.4776515,6.361903E-06,-0.3675249,-1.646195E-08,NaN,NaN,-0.01990612,-1.257292E-10,1.1656E-06,-1.148718E-07,-1.651479E-08,-2.622604E-08
199.2859,0.04500075,-2.586711E-08,NaN,-0.3269992,-1.371588E-07,NaN,0.4654964,4.034023E-08,NaN,-0.4701316,6.362588E-06,-0.3675089,-1.643895E-08,NaN,NaN,-0.01990362,-1.257292E-10,1.170667E-06,-1.1487E-07,-2.128317E-08,-2.861022E-08
199.2993,0.04500075,-2.586711E-08,NaN,-0.3269992,-1.371588E-07,NaN,0.4654964,4.034023E-08,NaN,-0.4701316,6.362588E-06,-0.3675089,-1.643895E-08,NaN,NaN,-0.01990362,-1.257292E-10,1.170667E-06,-1.1487E-07,-2.128317E-08,-2.861022E-08
199.3135,0.04500074,-2.5866E-08,NaN,-0.3269992,-1.371586E-07,NaN,0.4655498,4.03208E-08,NaN,-0.462731,6.363277E-06,-0.3674987,-1.641722E-08,NaN,NaN,-0.01990108,-1.303858E-10,1.175286E-06,-1.148683E-07,-2.128317E-08,-2.622604E-08
199.3289,0.04500073,-2.586489E-08,NaN,-0.3269992,-1.371584E-07,NaN,0.4656075,4.030191E-08,NaN,-0.4554478,6.363961E-06,-0.3674942,-1.639603E-08,NaN,NaN,-0.0198985,-1.303858E-10,1.180501E-06,-1.148665E-07,-1.889898E-08,-2.861022E-08
199.3439,0.04500072,-2.586378E-08,NaN,-0.3269992,-1.371582E-07,NaN,0.4656694,4.028355E-08,NaN,-0.4482803,6.364651E-06,-0.3674952,-1.637537E-08,NaN,NaN,-0.01989587,-1.350424E-10,1.184972E-06,-1.148648E-07,-1.889898E-08,-2.622604E-08
199.3584,0.04500072,-2.586378E-08,NaN,-0.3269992,-1.371582E-07,NaN,0.4656694,4.028355E-08,NaN,-0.4482803,6.364651E-06,-0.3674952,-1.637537E-08,NaN,NaN,-0.01989587,-1.350424E-10,1.184972E-06,-1.148648E-07,-1.889898E-08,-2.622604E-08
199.373,0.04500071,-2.586268E-08,NaN,-0.3269992,-1.37158E-07,NaN,0.4657356,4.026642E-08,NaN,-0.4412265,6.365335E-06,-0.3675019,-1.635593E-08,NaN,NaN,-0.01989319,-1.350424E-10,1.188548E-06,-1.14863E-07,-1.889898E-08,-2.861022E-08
199.388,0.0450007,-2.586157E-08,NaN,-0.3269992,-1.371577E-07,NaN,0.465806,4.025048E-08,NaN,-0.4342847,6.36602E-06,-0.367514,-1.633769E-08,NaN,NaN,-0.01989046,-1.350424E-10,1.193764E-06,-1.148613E-07,-2.128317E-08,-2.622604E-08
199.4026,0.04500069,-2.586046E-08,NaN,-0.3269992,-1.371575E-07,NaN,0.4658808,4.023573E-08,NaN,-0.4274531,6.366704E-06,-0.3675317,-1.632063E-08,NaN,NaN,-0.01988769,-1.350424E-10,1.197638E-06,-1.148596E-07,-1.889898E-08,-2.861022E-08
199.4172,0.04500069,-2.586046E-08,NaN,-0.3269992,-1.371575E-07,NaN,0.4658808,4.023573E-08,NaN,-0.4274531,6.366704E-06,-0.3675317,-1.632063E-08,NaN,NaN,-0.01988769,-1.350424E-10,1.197638E-06,-1.148596E-07,-1.889898E-08,-2.861022E-08
199.4335,0.04500068,-2.585935E-08,NaN,-0.3269992,-1.371573E-07,NaN,0.4659599,4.022212E-08,NaN,-0.42073,6.367393E-06,-0.3675548,-1.630473E-08,NaN,NaN,-0.01988487,-1.39699E-10,1.201065E-06,-1.148579E-07,-9.362239E-09,-2.622604E-08
199.4477,0.04500066,-2.585824E-08,NaN,-0.3269992,-1.371571E-07,NaN,0.4660433,4.020965E-08,NaN,-0.4141136,6.368078E-06,-0.3675833,-1.628995E-08,NaN,NaN,-0.01988199,-1.39699E-10,1.204045E-06,-1.148561E-07,-9.362239E-09,-2.861022E-08
199.4616,0.04500065,-2.585713E-08,NaN,-0.3269992,-1.371569E-07,NaN,0.4661311,4.019828E-08,NaN,-0.4076023,6.368767E-06,-0.3676172,-1.627629E-08,NaN,NaN,-0.01987906,-1.443556E-10,1.205982E-06,-1.148544E-07,-6.978053E-09,-2.622604E-08
199.4763,0.04500065,-2.585713E-08,NaN,-0.3269992,-1.371569E-07,NaN,0.4661311,4.019828E-08,NaN,-0.4076023,6.368767E-06,-0.3676172,-1.627629E-08,NaN,NaN,-0.01987906,-1.443556E-10,1.205982E-06,-1.148544E-07,-6.978053E-09,-2.622604E-08
199.4901,0.04500065,-2.585602E-08,NaN,-0.3269992,-1.371567E-07,NaN,0.4662233,4.018729E-08,NaN,-0.4011943,6.369452E-06,-0.3676564,-1.6263E-08,NaN,NaN,-0.01987607,-1.443556E-10,1.207026E-06,-1.148527E-07,-9.362239E-09,-2.861022E-08
199.5056,0.04500064,-2.585492E-08,NaN,-0.3269992,-1.371565E-07,NaN,0.4663198,4.017739E-08,NaN,-0.3948882,6.370136E-06,-0.3677009,-1.625079E-08,NaN,NaN,-0.01987303,-1.443556E-10,1.208218E-06,-1.14851E-07,-1.413061E-08,-2.622604E-08
199.5202,0.04500063,-2.585381E-08,NaN,-0.3269992,-1.371562E-07,NaN,0.4664208,4.016854E-08,NaN,-0.3886821,6.37082E-06,-0.3677506,-1.623964E-08,NaN,NaN,-0.01986993,-1.443556E-10,1.209112E-06,-1.148493E-07,-1.65148E-08,-2.861022E-08
199.535,0.04500063,-2.585381E-08,NaN,-0.3269992,-1.371562E-07,NaN,0.4664208,4.016854E-08,NaN,-0.3886821,6.37082E-06,-0.3677506,-1.623964E-08,NaN,NaN,-0.01986993,-1.443556E-10,1.209112E-06,-1.148493E-07,-1.65148E-08,-2.861022E-08
199.5491,0.04500062,-2.58527E-08,NaN,-0.3269992,-1.37156E-07,NaN,0.4665262,4.016073E-08,NaN,-0.3825746,6.37151E-06,-0.3678057,-1.622953E-08,NaN,NaN,-0.01986677,-1.490122E-10,1.209112E-06,-1.148477E-07,-1.889898E-08,-2.622604E-08
199.5645,0.04500062,-2.585159E-08,NaN,-0.3269992,-1.371558E-07,NaN,0.4666359,4.015394E-08,NaN,-0.3765642,6.372194E-06,-0.3678659,-1.622043E-08,NaN,NaN,-0.01986354,-1.490122E-10,1.210006E-06,-1.14846E-07,-1.65148E-08,-2.861022E-08
199.5795,0.04500062,-2.585159E-08,NaN,-0.3269992,-1.371558E-07,NaN,0.4666359,4.015394E-08,NaN,-0.3765642,6.372194E-06,-0.3678659,-1.622043E-08,NaN,NaN,-0.01986354,-1.490122E-10,1.210006E-06,-1.14846E-07,-1.65148E-08,-2.861022E-08
199.5934,0.04500061,-2.585048E-08,NaN,-0.3269992,-1.371556E-07,NaN,0.4667502,4.014814E-08,NaN,-0.3706492,6.372878E-06,-0.3679312,-1.621234E-08,NaN,NaN,-0.01986026,-1.490122E-10,1.210304E-06,-1.148443E-07,-9.362239E-09,-2.622604E-08
199.6089,0.0450006,-2.584937E-08,NaN,-0.3269992,-1.371554E-07,NaN,0.4668689,4.014262E-08,NaN,-0.3648281,6.373563E-06,-0.3680018,-1.620451E-08,NaN,NaN,-0.01985691,-1.490122E-10,1.210304E-06,-1.148426E-07,-9.362239E-09,-2.861022E-08
199.6234,0.04500059,-2.584827E-08,NaN,-0.3269992,-1.371552E-07,NaN,0.466992,4.013807E-08,NaN,-0.3590995,6.374252E-06,-0.3680774,-1.619766E-08,NaN,NaN,-0.01985349,-1.536688E-10,1.2109E-06,-1.14841E-07,-1.413061E-08,-2.622604E-08
199.6381,0.04500059,-2.584827E-08,NaN,-0.3269992,-1.371552E-07,NaN,0.466992,4.013807E-08,NaN,-0.3590995,6.374252E-06,-0.3680774,-1.619766E-08,NaN,NaN,-0.01985349,-1.536688E-10,1.2109E-06,-1.14841E-07,-1.413061E-08,-2.622604E-08
199.652,0.04500059,-2.584716E-08,NaN,-0.3269992,-1.37155E-07,NaN,0.4671197,4.013447E-08,NaN,-0.3534619,6.374937E-06,-0.3681581,-1.619176E-08,NaN,NaN,-0.01985,-1.536688E-10,1.2109E-06,-1.148393E-07,-1.65148E-08,-2.861022E-08
199.6674,0.04500058,-2.584605E-08,NaN,-0.3269992,-1.371548E-07,NaN,0.4672518,4.01311E-08,NaN,-0.3479138,6.375626E-06,-0.3682439,-1.618609E-08,NaN,NaN,-0.01984645,-1.583254E-10,1.210304E-06,-1.148377E-07,-1.889898E-08,-2.622604E-08
199.6842,0.04500057,-2.584494E-08,NaN,-0.3269992,-1.371545E-07,NaN,0.4673885,4.012866E-08,NaN,-0.3424539,6.37631E-06,-0.3683348,-1.618134E-08,NaN,NaN,-0.01984282,-1.583254E-10,1.208814E-06,-1.14836E-07,-9.362239E-09,-2.861022E-08
199.6979,0.04500057,-2.584494E-08,NaN,-0.3269992,-1.371545E-07,NaN,0.4673885,4.012866E-08,NaN,-0.3424539,6.37631E-06,-0.3683348,-1.618134E-08,NaN,NaN,-0.01984282,-1.583254E-10,1.208814E-06,-1.14836E-07,-9.362239E-09,-2.861022E-08
199.7119,0.04500056,-2.584383E-08,NaN,-0.3269992,-1.371543E-07,NaN,0.4675296,4.012713E-08,NaN,-0.3370807,6.376995E-06,-0.3684306,-1.617751E-08,NaN,NaN,-0.01983912,-1.583254E-10,1.206578E-06,-1.148344E-07,-9.362239E-09,-2.622604E-08
199.7261,0.04500056,-2.584272E-08,NaN,-0.3269992,-1.371541E-07,NaN,0.4676753,4.01265E-08,NaN,-0.3317929,6.377679E-06,-0.3685315,-1.617458E-08,NaN,NaN,-0.01983534,-1.583254E-10,1.203747E-06,-1.148328E-07,-1.413061E-08,-2.861022E-08
199.741,0.04500055,-2.584162E-08,NaN,-0.3269992,-1.371539E-07,NaN,0.4678256,4.012674E-08,NaN,-0.326589,6.378369E-06,-0.3686374,-1.617252E-08,NaN,NaN,-0.01983149,-1.62982E-10,1.201363E-06,-1.148311E-07,-1.174642E-08,-2.622604E-08
199.7571,0.04500055,-2.584162E-08,NaN,-0.3269992,-1.371539E-07,NaN,0.4678256,4.012674E-08,NaN,-0.326589,6.378369E-06,-0.3686374,-1.617252E-08,NaN,NaN,-0.01983149,-1.62982E-10,1.201363E-06,-1.148311E-07,-1.174642E-08,-2.622604E-08
199.7697,0.04500054,-2.58405E-08,NaN,-0.3269992,-1.371537E-07,NaN,0.4679804,4.012785E-08,NaN,-0.3214679,6.379053E-06,-0.3687482,-1.617131E-08,NaN,NaN,-0.01982756,-1.62982E-10,1.19883E-06,-1.148295E-07,-1.413061E-08,-2.861022E-08
199.7849,0.04500053,-2.583939E-08,NaN,-0.3269992,-1.371535E-07,NaN,0.4681398,4.012909E-08,NaN,-0.3164281,6.379742E-06,-0.368864,-1.617025E-08,NaN,NaN,-0.01982355,-1.676387E-10,1.196595E-06,-1.148279E-07,-1.651479E-08,-2.622604E-08
199.7998,0.04500053,-2.583939E-08,NaN,-0.3269992,-1.371535E-07,NaN,0.4681398,4.012909E-08,NaN,-0.3164281,6.379742E-06,-0.368864,-1.617025E-08,NaN,NaN,-0.01982355,-1.676387E-10,1.196595E-06,-1.148279E-07,-1.651479E-08,-2.622604E-08
199.8138,0.04500053,-2.583828E-08,NaN,-0.3269992,-1.371533E-07,NaN,0.4683038,4.013117E-08,NaN,-0.3114684,6.380427E-06,-0.3689847,-1.617003E-08,NaN,NaN,-0.01981945,-1.676387E-10,1.194061E-06,-1.148263E-07,-1.651479E-08,-2.861022E-08
199.8295,0.04500052,-2.583717E-08,NaN,-0.3269992,-1.371531E-07,NaN,0.4684724,4.013407E-08,NaN,-0.3065875,6.381116E-06,-0.3691103,-1.617063E-08,NaN,NaN,-0.01981527,-1.722953E-10,1.190783E-06,-1.148247E-07,-1.174642E-08,-2.622604E-08
199.844,0.04500051,-2.583606E-08,NaN,-0.3269992,-1.371528E-07,NaN,0.4686455,4.013778E-08,NaN,-0.3017842,6.381801E-06,-0.3692408,-1.617204E-08,NaN,NaN,-0.019811,-1.722953E-10,1.189591E-06,-1.148231E-07,-1.174642E-08,-2.861022E-08
199.8587,0.04500051,-2.583606E-08,NaN,-0.3269992,-1.371528E-07,NaN,0.4686455,4.013778E-08,NaN,-0.3017842,6.381801E-06,-0.3692408,-1.617204E-08,NaN,NaN,-0.019811,-1.722953E-10,1.189591E-06,-1.148231E-07,-1.174642E-08,-2.861022E-08
199.8727,0.0450005,-2.583495E-08,NaN,-0.3269992,-1.371526E-07,NaN,0.4688233,4.014579E-08,NaN,-0.2970572,6.382485E-06,-0.3693762,-1.617774E-08,NaN,NaN,-0.01980664,-1.722953E-10,1.187356E-06,-1.148216E-07,-9.362237E-09,-2.622604E-08
199.8881,0.0450005,-2.583384E-08,NaN,-0.3269992,-1.37152E-07,NaN,0.4690058,4.008215E-08,NaN,-0.2924053,6.383165E-06,-0.3695165,-1.61118E-08,NaN,NaN,-0.01980219,-1.676387E-10,1.184972E-06,-1.148209E-07,-1.413061E-08,-2.861022E-08
199.9028,0.04500049,-2.583273E-08,NaN,-0.3269992,-1.371514E-07,NaN,0.4691928,4.002976E-08,NaN,-0.2878273,6.383849E-06,-0.3696617,-1.60571E-08,NaN,NaN,-0.01979765,-1.676387E-10,1.181842E-06,-1.148204E-07,-2.128317E-08,-2.622604E-08
199.9175,0.04500049,-2.583273E-08,NaN,-0.3269992,-1.371514E-07,NaN,0.4691928,4.002976E-08,NaN,-0.2878273,6.383849E-06,-0.3696617,-1.60571E-08,NaN,NaN,-0.01979765,-1.676387E-10,1.181842E-06,-1.148204E-07,-2.128317E-08,-2.622604E-08
199.9314,0.04500048,-2.583162E-08,NaN,-0.3269992,-1.371509E-07,NaN,0.4693846,3.998278E-08,NaN,-0.2833221,6.384529E-06,-0.3698116,-1.60078E-08,NaN,NaN,-0.01979301,-1.62982E-10,1.17767E-06,-1.148198E-07,-1.413061E-08,-2.861022E-08
199.9488,0.04500047,-2.583051E-08,NaN,-0.3269992,-1.371504E-07,NaN,0.4695809,3.993968E-08,NaN,-0.2788885,6.385214E-06,-0.3699664,-1.59624E-08,NaN,NaN,-0.01978828,-1.62982E-10,1.173349E-06,-1.148193E-07,-1.174642E-08,-2.622604E-08
199.9625,0.04500047,-2.58294E-08,NaN,-0.3269992,-1.371499E-07,NaN,0.469782,3.9899E-08,NaN,-0.2745253,6.385893E-06,-0.370126,-1.59194E-08,NaN,NaN,-0.01978344,-1.583254E-10,1.170368E-06,-1.148188E-07,-9.362237E-09,-2.861022E-08
199.9765,0.04500047,-2.58294E-08,NaN,-0.3269992,-1.371499E-07,NaN,0.469782,3.9899E-08,NaN,-0.2745253,6.385893E-06,-0.370126,-1.59194E-08,NaN,NaN,-0.01978344,-1.583254E-10,1.170368E-06,-1.148188E-07,-9.362237E-09,-2.861022E-08
199.99,0.04500046,-2.582829E-08,NaN,-0.3269992,-1.371494E-07,NaN,0.4699877,3.986068E-08,NaN,-0.2702315,6.386578E-06,-0.3702905,-1.587877E-08,NaN,NaN,-0.01977851,-1.583254E-10,1.16709E-06,-1.148183E-07,-1.174642E-08,-2.622604E-08
200.0058,0.04500045,-2.582718E-08,NaN,-0.3269992,-1.371489E-07,NaN,0.4701981,3.982398E-08,NaN,-0.2660059,6.387258E-06,-0.3704597,-1.583976E-08,NaN,NaN,-0.01977346,-1.536688E-10,1.163663E-06,-1.148178E-07,-1.174642E-08,-2.861022E-08
200.0203,0.04500045,-2.582607E-08,NaN,-0.3269992,-1.371484E-07,NaN,0.4704132,3.978886E-08,NaN,-0.2618475,6.387942E-06,-0.3706337,-1.580233E-08,NaN,NaN,-0.01976831,-1.536688E-10,1.158597E-06,-1.148174E-07,-9.362237E-09,-2.622604E-08
200.0351,0.04500045,-2.582607E-08,NaN,-0.3269992,-1.371484E-07,NaN,0.4704132,3.978886E-08,NaN,-0.2618475,6.387942E-06,-0.3706337,-1.580233E-08,NaN,NaN,-0.01976831,-1.536688E-10,1.158597E-06,-1.148174E-07,-9.362237E-09,-2.622604E-08
200.0492,0.04500044,-2.582496E-08,NaN,-0.3269992,-1.37148E-07,NaN,0.470633,3.975459E-08,NaN,-0.2577552,6.388622E-06,-0.3708124,-1.576574E-08,NaN,NaN,-0.01976305,-1.490122E-10,1.154126E-06,-1.148169E-07,-4.593866E-09,-2.861022E-08
200.0646,0.04500043,-2.582385E-08,NaN,-0.3269992,-1.371475E-07,NaN,0.4708575,3.972185E-08,NaN,-0.2537279,6.389306E-06,-0.370996,-1.57307E-08,NaN,NaN,-0.01975768,-1.490122E-10,1.148762E-06,-1.148164E-07,-6.978051E-09,-2.622604E-08
200.0794,0.04500043,-2.582385E-08,NaN,-0.3269992,-1.371475E-07,NaN,0.4708575,3.972185E-08,NaN,-0.2537279,6.389306E-06,-0.370996,-1.57307E-08,NaN,NaN,-0.01975768,-1.490122E-10,1.148762E-06,-1.148164E-07,-6.978051E-09,-2.622604E-08
200.0938,0.04500042,-2.582274E-08,NaN,-0.3269992,-1.37147E-07,NaN,0.4710867,3.968992E-08,NaN,-0.2497646,6.389986E-06,-0.3711842,-1.569645E-08,NaN,NaN,-0.0197522,-1.443556E-10,1.144291E-06,-1.148159E-07,-6.978051E-09,-2.861022E-08
200.109,0.04500042,-2.582163E-08,NaN,-0.3269992,-1.371466E-07,NaN,0.4713207,3.965806E-08,NaN,-0.2458644,6.39067E-06,-0.3713772,-1.566228E-08,NaN,NaN,-0.0197466,-1.443556E-10,1.139225E-06,-1.148155E-07,-1.651479E-08,-2.622604E-08
200.1237,0.04500041,-2.582052E-08,NaN,-0.3269992,-1.371461E-07,NaN,0.4715593,3.962769E-08,NaN,-0.2420261,6.391355E-06,-0.3715749,-1.56296E-08,NaN,NaN,-0.01974087,-1.443556E-10,1.134457E-06,-1.14815E-07,-1.889898E-08,-2.861022E-08
200.1384,0.04500041,-2.582052E-08,NaN,-0.3269992,-1.371461E-07,NaN,0.4715593,3.962769E-08,NaN,-0.2420261,6.391355E-06,-0.3715749,-1.56296E-08,NaN,NaN,-0.01974087,-1.443556E-10,1.134457E-06,-1.14815E-07,-1.889898E-08,-2.861022E-08
200.1524,0.0450004,-2.581941E-08,NaN,-0.3269992,-1.371457E-07,NaN,0.4718026,3.959807E-08,NaN,-0.2382489,6.392044E-06,-0.3717774,-1.559768E-08,NaN,NaN,-0.01973503,-1.490122E-10,1.13088E-06,-1.148145E-07,-1.651479E-08,-2.622604E-08
200.168,0.04500039,-2.58183E-08,NaN,-0.3269992,-1.371452E-07,NaN,0.4720506,3.95692E-08,NaN,-0.2345317,6.392724E-06,-0.3719845,-1.556649E-08,NaN,NaN,-0.01972906,-1.443556E-10,1.124622E-06,-1.14814E-07,-1.651479E-08,-2.861022E-08
200.1825,0.04500039,-2.581719E-08,NaN,-0.3269992,-1.371448E-07,NaN,0.4723034,3.954177E-08,NaN,-0.2308736,6.393414E-06,-0.3721963,-1.553674E-08,NaN,NaN,-0.01972296,-1.490122E-10,1.119854E-06,-1.148136E-07,-1.889898E-08,-2.622604E-08
200.1973,0.04500039,-2.581719E-08,NaN,-0.3269992,-1.371448E-07,NaN,0.4723034,3.954177E-08,NaN,-0.2308736,6.393414E-06,-0.3721963,-1.553674E-08,NaN,NaN,-0.01972296,-1.490122E-10,1.119854E-06,-1.148136E-07,-1.889898E-08,-2.622604E-08
200.2133,0.04500038,-2.581608E-08,NaN,-0.3269992,-1.371443E-07,NaN,0.4725609,3.951503E-08,NaN,-0.2272736,6.394089E-06,-0.3724127,-1.550769E-08,NaN,NaN,-0.01971673,-1.39699E-10,1.114489E-06,-1.148131E-07,-1.651479E-08,-2.861022E-08
200.2281,0.04500037,-2.581497E-08,NaN,-0.3269992,-1.371438E-07,NaN,0.472823,3.948897E-08,NaN,-0.2237309,6.394778E-06,-0.3726338,-1.547932E-08,NaN,NaN,-0.01971038,-1.443556E-10,1.109423E-06,-1.148127E-07,-1.651479E-08,-2.622604E-08
200.2414,0.04500036,-2.581386E-08,NaN,-0.3269992,-1.371434E-07,NaN,0.4730899,3.946359E-08,NaN,-0.2202445,6.395458E-06,-0.3728596,-1.545162E-08,NaN,NaN,-0.01970388,-1.39699E-10,1.104952E-06,-1.148122E-07,-1.413061E-08,-2.861022E-08
200.2558,0.04500036,-2.581386E-08,NaN,-0.3269992,-1.371434E-07,NaN,0.4730899,3.946359E-08,NaN,-0.2202445,6.395458E-06,-0.3728596,-1.545162E-08,NaN,NaN,-0.01970388,-1.39699E-10,1.104952E-06,-1.148122E-07,-1.413061E-08,-2.861022E-08
200.2702,0.04500036,-2.581274E-08,NaN,-0.3269992,-1.371429E-07,NaN,0.4733614,3.943957E-08,NaN,-0.2168136,6.396147E-06,-0.37309,-1.542529E-08,NaN,NaN,-0.01969725,-1.443556E-10,1.099886E-06,-1.148117E-07,-1.651479E-08,-2.622604E-08
200.2854,0.04500035,-2.581163E-08,NaN,-0.3269992,-1.371425E-07,NaN,0.4736377,3.941618E-08,NaN,-0.2134372,6.396832E-06,-0.3733249,-1.539959E-08,NaN,NaN,-0.01969047,-1.443556E-10,1.095714E-06,-1.148113E-07,-1.174642E-08,-2.861022E-08
200.3002,0.04500035,-2.581052E-08,NaN,-0.3269992,-1.37142E-07,NaN,0.4739186,3.939341E-08,NaN,-0.2101145,6.397512E-06,-0.3735645,-1.537451E-08,NaN,NaN,-0.01968355,-1.39699E-10,1.090051E-06,-1.148108E-07,-1.174642E-08,-2.622604E-08
200.3148,0.04500035,-2.581052E-08,NaN,-0.3269992,-1.37142E-07,NaN,0.4739186,3.939341E-08,NaN,-0.2101145,6.397512E-06,-0.3735645,-1.537451E-08,NaN,NaN,-0.01968355,-1.39699E-10,1.090051E-06,-1.148108E-07,-1.174642E-08,-2.622604E-08
200.3293,0.04500034,-2.580941E-08,NaN,-0.3269992,-1.371416E-07,NaN,0.4742042,3.937124E-08,NaN,-0.2068446,6.398192E-06,-0.3738086,-1.535003E-08,NaN,NaN,-0.01967649,-1.350424E-10,1.084985E-06,-1.148104E-07,-6.978052E-09,-2.861022E-08
200.3448,0.04500034,-2.58083E-08,NaN,-0.3269992,-1.371412E-07,NaN,0.4744943,3.935038E-08,NaN,-0.2036267,6.398871E-06,-0.3740572,-1.532685E-08,NaN,NaN,-0.01966927,-1.303858E-10,1.079621E-06,-1.148099E-07,-4.593866E-09,-2.622604E-08
200.3594,0.04500034,-2.58083E-08,NaN,-0.3269992,-1.371412E-07,NaN,0.4744943,3.935038E-08,NaN,-0.2036267,6.398871E-06,-0.3740572,-1.532685E-08,NaN,NaN,-0.01966927,-1.303858E-10,1.079621E-06,-1.148099E-07,-4.593866E-09,-2.622604E-08
200.3734,0.04500034,-2.580719E-08,NaN,-0.3269992,-1.371407E-07,NaN,0.4747892,3.932938E-08,NaN,-0.20046,6.399551E-06,-0.3743103,-1.530353E-08,NaN,NaN,-0.0196619,-1.257292E-10,1.07366E-06,-1.148095E-07,-9.362237E-09,-2.861022E-08
200.3887,0.04500033,-2.580608E-08,NaN,-0.3269992,-1.371403E-07,NaN,0.4750886,3.930895E-08,NaN,-0.1973437,6.400236E-06,-0.374568,-1.528079E-08,NaN,NaN,-0.01965438,-1.257292E-10,1.0677E-06,-1.14809E-07,-1.174642E-08,-2.622604E-08
200.4036,0.04500033,-2.580497E-08,NaN,-0.3269992,-1.371398E-07,NaN,0.4753927,3.928978E-08,NaN,-0.1942769,6.400915E-06,-0.37483,-1.525931E-08,NaN,NaN,-0.01964669,-1.210726E-10,1.061441E-06,-1.148086E-07,-4.593865E-09,-2.861022E-08
200.4189,0.04500033,-2.580497E-08,NaN,-0.3269992,-1.371398E-07,NaN,0.4753927,3.928978E-08,NaN,-0.1942769,6.400915E-06,-0.37483,-1.525931E-08,NaN,NaN,-0.01964669,-1.210726E-10,1.061441E-06,-1.148086E-07,-4.593865E-09,-2.861022E-08
200.4327,0.04500033,-2.580386E-08,NaN,-0.3269992,-1.371394E-07,NaN,0.4757013,3.927115E-08,NaN,-0.1912589,6.4016E-06,-0.3750966,-1.523837E-08,NaN,NaN,-0.01963885,-1.210726E-10,1.056375E-06,-1.148081E-07,-4.593865E-09,-2.622604E-08
200.4478,0.04500032,-2.580275E-08,NaN,-0.3269992,-1.37139E-07,NaN,0.4760144,3.925305E-08,NaN,-0.1882889,6.40228E-06,-0.3753675,-1.521795E-08,NaN,NaN,-0.01963084,-1.164159E-10,1.049222E-06,-1.148077E-07,-1.174642E-08,-2.861022E-08
200.4636,0.04500032,-2.580164E-08,NaN,-0.3269992,-1.371385E-07,NaN,0.4763321,3.923546E-08,NaN,-0.1853661,6.402964E-06,-0.3756428,-1.519805E-08,NaN,NaN,-0.01962266,-1.164159E-10,1.042964E-06,-1.148072E-07,-1.174642E-08,-2.622604E-08
200.4774,0.04500032,-2.580164E-08,NaN,-0.3269992,-1.371385E-07,NaN,0.4763321,3.923546E-08,NaN,-0.1853661,6.402964E-06,-0.3756428,-1.519805E-08,NaN,NaN,-0.01962266,-1.164159E-10,1.042964E-06,-1.148072E-07,-1.174642E-08,-2.622604E-08
200.4914,0.04500031,-2.580052E-08,NaN,-0.3269992,-1.371381E-07,NaN,0.4767072,3.921908E-08,NaN,-0.1826334,6.403649E-06,-0.3759779,-1.517936E-08,NaN,NaN,-0.01961767,-1.164159E-10,1.032831E-06,-1.148068E-07,-9.362237E-09,-2.861022E-08
200.5068,0.04500031,-2.579941E-08,NaN,-0.3269992,-1.371376E-07,NaN,0.4770887,3.920319E-08,NaN,-0.1800297,6.404333E-06,-0.376321,-1.516115E-08,NaN,NaN,-0.01961116,-1.164159E-10,1.025082E-06,-1.148064E-07,-1.174642E-08,-2.622604E-08
200.5212,0.04500031,-2.57983E-08,NaN,-0.3269992,-1.371372E-07,NaN,0.477465,3.918776E-08,NaN,-0.1775082,6.405017E-06,-0.3766593,-1.514341E-08,NaN,NaN,-0.01960393,-1.164159E-10,1.017036E-06,-1.148059E-07,-1.413061E-08,-2.861022E-08
200.5363,0.04500031,-2.57983E-08,NaN,-0.3269992,-1.371372E-07,NaN,0.477465,3.918776E-08,NaN,-0.1775082,6.405017E-06,-0.3766593,-1.514341E-08,NaN,NaN,-0.01960393,-1.164159E-10,1.017036E-06,-1.148059E-07,-1.413061E-08,-2.861022E-08
200.5501,0.0450003,-2.579719E-08,NaN,-0.3269992,-1.371368E-07,NaN,0.4778363,3.91728E-08,NaN,-0.1750462,6.405702E-06,-0.3769926,-1.512614E-08,NaN,NaN,-0.0195963,-1.164159E-10,1.010479E-06,-1.148055E-07,-4.593865E-09,-2.622604E-08
200.5656,0.04500031,-2.579608E-08,NaN,-0.3269992,-1.371364E-07,NaN,0.4786844,3.9159E-08,NaN,-0.1738515,6.406386E-06,-0.3778239,-1.511002E-08,NaN,NaN,-0.0196203,-1.164159E-10,9.741203E-07,-1.148051E-07,-2.209679E-09,-2.861022E-08
200.5803,0.04500032,-2.579496E-08,NaN,-0.3269992,-1.371359E-07,NaN,0.47954,3.914563E-08,NaN,-0.1734097,6.407066E-06,-0.378676,-1.509433E-08,NaN,NaN,-0.01963116,-1.117593E-10,9.496824E-07,-1.148046E-07,2.558692E-09,-2.622604E-08
200.5952,0.04500032,-2.579496E-08,NaN,-0.3269992,-1.371359E-07,NaN,0.47954,3.914563E-08,NaN,-0.1734097,6.407066E-06,-0.378676,-1.509433E-08,NaN,NaN,-0.01963116,-1.117593E-10,9.496824E-07,-1.148046E-07,2.558692E-09,-2.622604E-08
200.6096,0.04500032,-2.579385E-08,NaN,-0.3269992,-1.371355E-07,NaN,0.480304,3.913268E-08,NaN,-0.1733237,6.40775E-06,-0.3794414,-1.507907E-08,NaN,NaN,-0.0196364,-1.117593E-10,9.30609E-07,-1.148042E-07,-2.209679E-09,-2.861022E-08
200.6246,0.04500033,-2.579274E-08,NaN,-0.3269992,-1.371351E-07,NaN,0.4809836,3.911943E-08,NaN,-0.1734053,6.40843E-06,-0.3801235,-1.50635E-08,NaN,NaN,-0.01963923,-1.071027E-10,9.139197E-07,-1.148038E-07,-4.593865E-09,-2.622604E-08
200.6395,0.04500033,-2.579274E-08,NaN,-0.3269992,-1.371351E-07,NaN,0.4809836,3.911943E-08,NaN,-0.1734053,6.40843E-06,-0.3801235,-1.50635E-08,NaN,NaN,-0.01963923,-1.071027E-10,9.139197E-07,-1.148038E-07,-4.593865E-09,-2.622604E-08
