JMolnar6/NonAnthroHands_User_Study/HandsLoggerWithURDF/tempdata/files/Reachy_JointMotion_gesture_10_48.csv
Time,r_shoulder,r_shoulder_x,r_upper_arm,r_forearm,r_wrist,r_wrist2hand,
714.5029,-0.2637727,-2.158339E-09,NaN,-0.5876805,-1.325351E-07,NaN,-0.2888091,-5.839582E-07,NaN,-0.9714705,2.071048E-05,0.4163117,5.150897E-08,NaN,NaN,-0.4874355,-9.313255E-11,1.115602E-06,-1.104009E-07,-8.048424E-09,-2.622604E-08
714.5193,-0.2637727,-2.158339E-09,NaN,-0.5876805,-1.325351E-07,NaN,-0.2888091,-5.839582E-07,NaN,-0.9714705,2.071048E-05,0.4163117,5.150897E-08,NaN,NaN,-0.4874355,-9.313255E-11,1.115602E-06,-1.104009E-07,-8.048424E-09,-2.622604E-08
714.5338,-0.2591509,-2.157612E-09,NaN,-0.5875449,-1.325356E-07,NaN,-0.2901954,-5.839374E-07,NaN,-0.9697866,2.071093E-05,0.4184305,5.148952E-08,NaN,NaN,-0.4873194,-9.313255E-11,1.102489E-06,-1.104004E-07,-6.856332E-09,-2.861022E-08
714.55,-0.2543723,-2.156884E-09,NaN,-0.5874027,-1.325361E-07,NaN,-0.2916527,-5.83914E-07,NaN,-0.9680629,2.071138E-05,0.4205377,5.146757E-08,NaN,NaN,-0.4872056,-9.313255E-11,1.0858E-06,-1.103999E-07,-7.452378E-09,-2.622604E-08
714.5659,-0.2495191,-2.156156E-09,NaN,-0.5872574,-1.325366E-07,NaN,-0.293112,-5.83891E-07,NaN,-0.9663056,2.071184E-05,0.4226234,5.144597E-08,NaN,NaN,-0.487094,-9.778917E-11,1.064342E-06,-1.103993E-07,-4.472146E-09,-2.861022E-08
714.5815,-0.2446423,-2.155429E-09,NaN,-0.5871109,-1.325371E-07,NaN,-0.2945447,-5.838683E-07,NaN,-0.9645272,2.071229E-05,0.4246825,5.142473E-08,NaN,NaN,-0.4869846,-9.778917E-11,1.048845E-06,-1.103988E-07,-9.836564E-09,-2.622604E-08
714.5972,-0.2446423,-2.155429E-09,NaN,-0.5871109,-1.325371E-07,NaN,-0.2945447,-5.838683E-07,NaN,-0.9645272,2.071229E-05,0.4246825,5.142473E-08,NaN,NaN,-0.4869846,-9.778917E-11,1.048845E-06,-1.103988E-07,-9.836564E-09,-2.622604E-08
714.6122,-0.240115,-2.154701E-09,NaN,-0.5869782,-1.325376E-07,NaN,-0.29532,-5.83846E-07,NaN,-0.9626908,2.071275E-05,0.4259827,5.140385E-08,NaN,NaN,-0.4869232,-1.024458E-10,1.020234E-06,-1.103983E-07,-9.836564E-09,-2.861022E-08
714.6287,-0.2358228,-2.153973E-09,NaN,-0.5868545,-1.325381E-07,NaN,-0.2959617,-5.838241E-07,NaN,-0.9609109,2.07132E-05,0.4272365,5.138332E-08,NaN,NaN,-0.4868631,-1.024458E-10,9.999688E-07,-1.103978E-07,-9.836564E-09,-2.622604E-08
714.6447,-0.2316945,-2.153245E-09,NaN,-0.586737,-1.325387E-07,NaN,-0.2965408,-5.838025E-07,NaN,-0.959187,2.071365E-05,0.4284546,5.136312E-08,NaN,NaN,-0.4868042,-1.024458E-10,9.773191E-07,-1.103973E-07,-6.856332E-09,-2.861022E-08
714.6605,-0.2276856,-2.152517E-09,NaN,-0.5866238,-1.325392E-07,NaN,-0.297088,-5.837784E-07,NaN,-0.9575106,2.071409E-05,0.4296428,5.134043E-08,NaN,NaN,-0.4867464,-9.313256E-11,9.606298E-07,-1.103968E-07,-8.644471E-09,-2.622604E-08
714.6766,-0.2276856,-2.152517E-09,NaN,-0.5866238,-1.325392E-07,NaN,-0.297088,-5.837784E-07,NaN,-0.9575106,2.071409E-05,0.4296428,5.134043E-08,NaN,NaN,-0.4867464,-9.313256E-11,9.606298E-07,-1.103968E-07,-8.644471E-09,-2.622604E-08
714.6916,-0.22411,-2.151789E-09,NaN,-0.5865276,-1.325397E-07,NaN,-0.2969938,-5.837547E-07,NaN,-0.955824,2.071454E-05,0.4300794,5.131811E-08,NaN,NaN,-0.4867357,-9.313256E-11,9.332117E-07,-1.103962E-07,-1.341284E-08,-2.861022E-08
714.7078,-0.2208167,-2.15106E-09,NaN,-0.5864421,-1.325402E-07,NaN,-0.2967913,-5.837313E-07,NaN,-0.954226,2.071498E-05,0.4304764,5.129618E-08,NaN,NaN,-0.4867252,-8.381933E-11,9.093698E-07,-1.103957E-07,-1.400889E-08,-2.622604E-08
714.7237,-0.2177119,-2.150332E-09,NaN,-0.5863635,-1.325407E-07,NaN,-0.2965521,-5.837084E-07,NaN,-0.9527043,2.071544E-05,0.4308487,5.12746E-08,NaN,NaN,-0.4867148,-8.381933E-11,8.891042E-07,-1.103952E-07,-1.222075E-08,-2.861022E-08
714.7397,-0.2177119,-2.150332E-09,NaN,-0.5863635,-1.325407E-07,NaN,-0.2965521,-5.837084E-07,NaN,-0.9527043,2.071544E-05,0.4308487,5.12746E-08,NaN,NaN,-0.4867148,-8.381933E-11,8.891042E-07,-1.103952E-07,-1.222075E-08,-2.861022E-08
714.7547,-0.2150786,-2.149604E-09,NaN,-0.5863032,-1.325412E-07,NaN,-0.2956814,-5.836857E-07,NaN,-0.951194,2.071588E-05,0.4304798,5.125339E-08,NaN,NaN,-0.4867506,-7.450611E-11,8.640703E-07,-1.103947E-07,-1.520098E-08,-2.622604E-08
714.7712,-0.2127469,-2.148876E-09,NaN,-0.5862543,-1.325417E-07,NaN,-0.29472,-5.836606E-07,NaN,-0.9497871,2.071633E-05,0.4300811,5.12297E-08,NaN,NaN,-0.4867857,-7.450611E-11,8.438047E-07,-1.103942E-07,-1.877726E-08,-2.861022E-08
714.787,-0.2106112,-2.148147E-09,NaN,-0.5862125,-1.325422E-07,NaN,-0.293741,-5.836359E-07,NaN,-0.9484661,2.071678E-05,0.4296698,5.120642E-08,NaN,NaN,-0.4868201,-7.450611E-11,8.235391E-07,-1.103937E-07,-1.937331E-08,-2.622604E-08
714.8045,-0.2086055,-2.147419E-09,NaN,-0.5861751,-1.325427E-07,NaN,-0.2927732,-5.836116E-07,NaN,-0.9472104,2.071723E-05,0.4292546,5.118352E-08,NaN,NaN,-0.4868538,-7.450611E-11,8.056577E-07,-1.103932E-07,-2.116145E-08,-2.861022E-08
714.8188,-0.2086055,-2.147419E-09,NaN,-0.5861751,-1.325427E-07,NaN,-0.2927732,-5.836116E-07,NaN,-0.9472104,2.071723E-05,0.4292546,5.118352E-08,NaN,NaN,-0.4868538,-7.450611E-11,8.056577E-07,-1.103932E-07,-2.116145E-08,-2.861022E-08
714.8337,-0.2070306,-2.146691E-09,NaN,-0.5861543,-1.325431E-07,NaN,-0.2911997,-5.835876E-07,NaN,-0.945955,2.071768E-05,0.4281172,5.116101E-08,NaN,NaN,-0.4869327,-7.450611E-11,7.782396E-07,-1.103927E-07,-1.639307E-08,-2.622604E-08
714.8502,-0.2057276,-2.145962E-09,NaN,-0.5861435,-1.325436E-07,NaN,-0.2895548,-5.835641E-07,NaN,-0.9447942,2.071814E-05,0.4269657,5.113893E-08,NaN,NaN,-0.4870101,-7.916272E-11,7.57974E-07,-1.103922E-07,-1.520098E-08,-2.861022E-08
714.8659,-0.2045976,-2.145234E-09,NaN,-0.5861388,-1.325441E-07,NaN,-0.2879078,-5.83541E-07,NaN,-0.9437123,2.071859E-05,0.4258166,5.111723E-08,NaN,NaN,-0.487086,-8.381934E-11,7.389005E-07,-1.103918E-07,-1.639307E-08,-2.622604E-08
714.8816,-0.2035792,-2.144505E-09,NaN,-0.5861378,-1.325446E-07,NaN,-0.2862855,-5.835154E-07,NaN,-0.9426908,2.071904E-05,0.424678,5.109305E-08,NaN,NaN,-0.4871603,-7.916272E-11,7.234033E-07,-1.103913E-07,-1.400889E-08,-2.861022E-08
714.8978,-0.2035792,-2.144505E-09,NaN,-0.5861378,-1.325446E-07,NaN,-0.2862855,-5.835154E-07,NaN,-0.9426908,2.071904E-05,0.424678,5.109305E-08,NaN,NaN,-0.4871603,-7.916272E-11,7.234033E-07,-1.103913E-07,-1.400889E-08,-2.861022E-08
714.9129,-0.2029756,-2.143776E-09,NaN,-0.5861519,-1.325451E-07,NaN,-0.2840681,-5.834902E-07,NaN,-0.9416656,2.07195E-05,0.4228301,5.106929E-08,NaN,NaN,-0.4872791,-8.381934E-11,6.983693E-07,-1.103908E-07,-1.400889E-08,-2.622604E-08
714.9291,-0.2026297,-2.143048E-09,NaN,-0.5861749,-1.325456E-07,NaN,-0.2817926,-5.834655E-07,NaN,-0.940732,2.071996E-05,0.4209806,5.104592E-08,NaN,NaN,-0.4873956,-8.847596E-11,6.8168E-07,-1.103903E-07,-1.520098E-08,-2.861022E-08
714.9448,-0.202444,-2.142319E-09,NaN,-0.5862031,-1.32546E-07,NaN,-0.2795281,-5.834411E-07,NaN,-0.9398749,2.07204E-05,0.4191464,5.102295E-08,NaN,NaN,-0.4875097,-8.381934E-11,6.649908E-07,-1.103898E-07,-1.639308E-08,-2.622604E-08
714.9608,-0.2023575,-2.14159E-09,NaN,-0.5862342,-1.325465E-07,NaN,-0.277301,-5.834171E-07,NaN,-0.9390761,2.072086E-05,0.417335,5.100036E-08,NaN,NaN,-0.4876216,-8.847596E-11,6.471093E-07,-1.103893E-07,-1.639308E-08,-2.861022E-08
714.9764,-0.2023575,-2.14159E-09,NaN,-0.5862342,-1.325465E-07,NaN,-0.277301,-5.834171E-07,NaN,-0.9390761,2.072086E-05,0.417335,5.100036E-08,NaN,NaN,-0.4876216,-8.847596E-11,6.471093E-07,-1.103893E-07,-1.639308E-08,-2.861022E-08
714.9919,-0.2026732,-2.140861E-09,NaN,-0.5862805,-1.32547E-07,NaN,-0.2744891,-5.833934E-07,NaN,-0.9382713,2.072131E-05,0.4148243,5.097815E-08,NaN,NaN,-0.4877772,-8.381934E-11,6.244596E-07,-1.103888E-07,-1.639308E-08,-2.622604E-08
715.0081,-0.2032348,-2.140132E-09,NaN,-0.5863355,-1.325475E-07,NaN,-0.2716327,-5.833674E-07,NaN,-0.9375564,2.072176E-05,0.412324,5.095349E-08,NaN,NaN,-0.4879298,-8.847596E-11,6.04194E-07,-1.103884E-07,-1.758517E-08,-2.861022E-08
715.0239,-0.203945,-2.139402E-09,NaN,-0.5863953,-1.32548E-07,NaN,-0.2688001,-5.833417E-07,NaN,-0.9369162,2.072222E-05,0.4098506,5.092924E-08,NaN,NaN,-0.4880793,-9.778918E-11,5.886968E-07,-1.103879E-07,-1.877726E-08,-2.622604E-08
715.0399,-0.203945,-2.139402E-09,NaN,-0.5863953,-1.32548E-07,NaN,-0.2688001,-5.833417E-07,NaN,-0.9369162,2.072222E-05,0.4098506,5.092924E-08,NaN,NaN,-0.4880793,-9.778918E-11,5.886968E-07,-1.103879E-07,-1.877726E-08,-2.622604E-08
715.0546,-0.2047432,-2.138673E-09,NaN,-0.5864576,-1.325484E-07,NaN,-0.2660172,-5.833165E-07,NaN,-0.9363325,2.072268E-05,0.4074116,5.090541E-08,NaN,NaN,-0.4882259,-1.024458E-10,5.720075E-07,-1.103874E-07,-1.758517E-08,-2.861022E-08
715.0714,-0.2059337,-2.137944E-09,NaN,-0.5865344,-1.325489E-07,NaN,-0.2626587,-5.832916E-07,NaN,-0.9357402,2.072314E-05,0.4042812,5.088199E-08,NaN,NaN,-0.4884155,-1.071024E-10,5.481656E-07,-1.103869E-07,-1.937331E-08,-2.622604E-08
715.087,-0.2073598,-2.137215E-09,NaN,-0.5866194,-1.325494E-07,NaN,-0.2592687,-5.832672E-07,NaN,-0.9352357,2.072358E-05,0.4011727,5.085895E-08,NaN,NaN,-0.4886014,-1.024458E-10,5.302842E-07,-1.103865E-07,-2.116145E-08,-2.861022E-08
715.1031,-0.2089242,-2.136485E-09,NaN,-0.5867085,-1.325498E-07,NaN,-0.2559146,-5.832431E-07,NaN,-0.9348043,2.072403E-05,0.3981021,5.083631E-08,NaN,NaN,-0.4887836,-9.778918E-11,5.124028E-07,-1.10386E-07,-1.877726E-08,-2.622604E-08
715.1186,-0.2089242,-2.136485E-09,NaN,-0.5867085,-1.325498E-07,NaN,-0.2559146,-5.832431E-07,NaN,-0.9348043,2.072403E-05,0.3981021,5.083631E-08,NaN,NaN,-0.4887836,-9.778918E-11,5.124028E-07,-1.10386E-07,-1.877726E-08,-2.622604E-08
715.1338,-0.2105666,-2.135756E-09,NaN,-0.5867994,-1.325503E-07,NaN,-0.2526217,-5.832194E-07,NaN,-0.9344277,2.072449E-05,0.3950765,5.081404E-08,NaN,NaN,-0.4889622,-1.024458E-10,4.945214E-07,-1.103855E-07,-1.818122E-08,-2.861022E-08
715.1503,-0.2125911,-2.135026E-09,NaN,-0.5869046,-1.325508E-07,NaN,-0.2487621,-5.831933E-07,NaN,-0.9340402,2.072494E-05,0.3913657,5.078933E-08,NaN,NaN,-0.4891832,-9.778918E-11,4.694875E-07,-1.103851E-07,-1.102866E-08,-2.622604E-08
715.1661,-0.2148413,-2.134297E-09,NaN,-0.5870172,-1.325512E-07,NaN,-0.2448836,-5.831676E-07,NaN,-0.9337386,2.072538E-05,0.3876878,5.076503E-08,NaN,NaN,-0.4893998,-9.313256E-11,4.480298E-07,-1.103846E-07,-1.043261E-08,-2.861022E-08
715.1816,-0.2172199,-2.133567E-09,NaN,-0.5871333,-1.325517E-07,NaN,-0.2410524,-5.831423E-07,NaN,-0.9335082,2.072583E-05,0.3840582,5.074115E-08,NaN,NaN,-0.4896122,-8.847595E-11,4.337247E-07,-1.103841E-07,-8.048426E-09,-2.622604E-08
715.1975,-0.2172199,-2.133567E-09,NaN,-0.5871333,-1.325517E-07,NaN,-0.2410524,-5.831423E-07,NaN,-0.9335082,2.072583E-05,0.3840582,5.074115E-08,NaN,NaN,-0.4896122,-8.847595E-11,4.337247E-07,-1.103841E-07,-8.048426E-09,-2.622604E-08
715.2126,-0.2196667,-2.132838E-09,NaN,-0.5872508,-1.325521E-07,NaN,-0.2372935,-5.831174E-07,NaN,-0.9333311,2.072629E-05,0.3804836,5.071766E-08,NaN,NaN,-0.4898203,-9.313256E-11,4.218038E-07,-1.103837E-07,-8.048426E-09,-2.861022E-08
715.2294,-0.222486,-2.132108E-09,NaN,-0.587382,-1.325526E-07,NaN,-0.2329758,-5.830929E-07,NaN,-0.9331405,2.072674E-05,0.3762282,5.069458E-08,NaN,NaN,-0.4900703,-9.778918E-11,3.99154E-07,-1.103832E-07,-8.644473E-09,-2.622604E-08
715.2449,-0.2255214,-2.131378E-09,NaN,-0.5875201,-1.325531E-07,NaN,-0.2286512,-5.830688E-07,NaN,-0.9330339,2.072719E-05,0.3720165,5.067188E-08,NaN,NaN,-0.4903153,-9.313256E-11,3.824647E-07,-1.103828E-07,-7.45238E-09,-2.861022E-08
715.2609,-0.2286758,-2.130649E-09,NaN,-0.5876612,-1.325535E-07,NaN,-0.2243848,-5.830423E-07,NaN,-0.9329968,2.072764E-05,0.3678629,5.064673E-08,NaN,NaN,-0.4905554,-8.847595E-11,3.693517E-07,-1.103823E-07,-3.280055E-09,-2.622604E-08
715.2765,-0.2286758,-2.130649E-09,NaN,-0.5876612,-1.325535E-07,NaN,-0.2243848,-5.830423E-07,NaN,-0.9329968,2.072764E-05,0.3678629,5.064673E-08,NaN,NaN,-0.4905554,-8.847595E-11,3.693517E-07,-1.103823E-07,-3.280055E-09,-2.622604E-08
715.2917,-0.231889,-2.129919E-09,NaN,-0.5878032,-1.32554E-07,NaN,-0.2202008,-5.830161E-07,NaN,-0.9330113,2.07281E-05,0.3637738,5.062201E-08,NaN,NaN,-0.4907909,-9.313256E-11,3.490861E-07,-1.103819E-07,2.084363E-09,-2.861022E-08
715.3096,-0.2354656,-2.129189E-09,NaN,-0.5879585,-1.325544E-07,NaN,-0.2154654,-5.829904E-07,NaN,-0.93301,2.072855E-05,0.3590068,5.059771E-08,NaN,NaN,-0.4910675,-9.778918E-11,3.240521E-07,-1.103814E-07,6.852734E-09,-2.622604E-08
715.3238,-0.2392493,-2.128459E-09,NaN,-0.5881202,-1.325549E-07,NaN,-0.2107347,-5.829651E-07,NaN,-0.9330906,2.072901E-05,0.3542941,5.057382E-08,NaN,NaN,-0.4913387,-1.024458E-10,3.061707E-07,-1.10381E-07,6.852734E-09,-2.861022E-08
715.3396,-0.2392493,-2.128459E-09,NaN,-0.5881202,-1.325549E-07,NaN,-0.2107347,-5.829651E-07,NaN,-0.9330906,2.072901E-05,0.3542941,5.057382E-08,NaN,NaN,-0.4913387,-1.024458E-10,3.061707E-07,-1.10381E-07,6.852734E-09,-2.861022E-08
715.3546,-0.2431429,-2.127729E-09,NaN,-0.5882844,-1.325553E-07,NaN,-0.2060723,-5.829402E-07,NaN,-0.933239,2.072947E-05,0.3496488,5.055033E-08,NaN,NaN,-0.4916046,-1.071024E-10,2.859051E-07,-1.103805E-07,1.042901E-08,-2.622604E-08
715.3714,-0.2470864,-2.126999E-09,NaN,-0.5884491,-1.325558E-07,NaN,-0.2015018,-5.829157E-07,NaN,-0.9334373,2.072991E-05,0.3450769,5.052724E-08,NaN,NaN,-0.4918652,-1.024458E-10,2.727921E-07,-1.103801E-07,1.221715E-08,-2.861022E-08
715.3872,-0.2513847,-2.126269E-09,NaN,-0.5886267,-1.325562E-07,NaN,-0.1963868,-5.828888E-07,NaN,-0.9336177,2.073037E-05,0.3398289,5.050171E-08,NaN,NaN,-0.4921665,-1.071024E-10,2.501424E-07,-1.103796E-07,1.162111E-08,-2.622604E-08
715.4028,-0.2558814,-2.125538E-09,NaN,-0.5888104,-1.325567E-07,NaN,-0.1912872,-5.828623E-07,NaN,-0.9338779,2.073083E-05,0.3346453,5.047662E-08,NaN,NaN,-0.4924619,-1.11759E-10,2.274926E-07,-1.103792E-07,1.221715E-08,-2.861022E-08
715.4186,-0.2558814,-2.125538E-09,NaN,-0.5888104,-1.325567E-07,NaN,-0.1912872,-5.828623E-07,NaN,-0.9338779,2.073083E-05,0.3346453,5.047662E-08,NaN,NaN,-0.4924619,-1.11759E-10,2.274926E-07,-1.103792E-07,1.221715E-08,-2.861022E-08
715.4338,-0.2604795,-2.124808E-09,NaN,-0.5889962,-1.325571E-07,NaN,-0.1862655,-5.828362E-07,NaN,-0.9342043,2.073128E-05,0.329538,5.045195E-08,NaN,NaN,-0.4927514,-1.164156E-10,2.131875E-07,-1.103787E-07,8.640874E-09,-2.622604E-08
715.4501,-0.265119,-2.124078E-09,NaN,-0.589182,-1.325575E-07,NaN,-0.1813445,-5.828105E-07,NaN,-0.9345791,2.073174E-05,0.3245127,5.04277E-08,NaN,NaN,-0.4930352,-1.210722E-10,1.929219E-07,-1.103783E-07,1.340925E-08,-2.861022E-08
715.4661,-0.2701051,-2.123347E-09,NaN,-0.5893804,-1.32558E-07,NaN,-0.1758853,-5.827853E-07,NaN,-0.9349337,2.07322E-05,0.3188119,5.040386E-08,NaN,NaN,-0.4933593,-1.257289E-10,1.655038E-07,-1.103779E-07,1.460134E-08,-2.622604E-08
715.4816,-0.2752813,-2.122617E-09,NaN,-0.5895845,-1.325584E-07,NaN,-0.1704518,-5.827604E-07,NaN,-0.9353663,2.073264E-05,0.3131853,5.038042E-08,NaN,NaN,-0.4936769,-1.210722E-10,1.440461E-07,-1.103774E-07,1.400529E-08,-2.861022E-08
715.498,-0.2752813,-2.122617E-09,NaN,-0.5895845,-1.325584E-07,NaN,-0.1704518,-5.827604E-07,NaN,-0.9353663,2.073264E-05,0.3131853,5.038042E-08,NaN,NaN,-0.4936769,-1.210722E-10,1.440461E-07,-1.103774E-07,1.400529E-08,-2.861022E-08
715.5128,-0.2805507,-2.121886E-09,NaN,-0.5897902,-1.325589E-07,NaN,-0.1651051,-5.82736E-07,NaN,-0.9358635,2.073309E-05,0.3076436,5.035738E-08,NaN,NaN,-0.4939883,-1.164156E-10,1.249726E-07,-1.10377E-07,1.221715E-08,-2.622604E-08
715.5289,-0.2858536,-2.121155E-09,NaN,-0.5899957,-1.325593E-07,NaN,-0.1598673,-5.827091E-07,NaN,-0.9364077,2.073354E-05,0.3021919,5.03319E-08,NaN,NaN,-0.4942936,-1.11759E-10,1.04707E-07,-1.103766E-07,1.340924E-08,-2.861022E-08
715.5447,-0.2914951,-2.120425E-09,NaN,-0.5902135,-1.325597E-07,NaN,-0.1540972,-5.826826E-07,NaN,-0.9369297,2.073399E-05,0.2960646,5.030684E-08,NaN,NaN,-0.4946386,-1.164156E-10,8.086518E-08,-1.103761E-07,1.579343E-08,-2.622604E-08
715.5606,-0.2973189,-2.119694E-09,NaN,-0.5904365,-1.325602E-07,NaN,-0.1483623,-5.826566E-07,NaN,-0.937528,2.073444E-05,0.2900209,5.028222E-08,NaN,NaN,-0.4949768,-1.11759E-10,6.05996E-08,-1.103757E-07,1.28132E-08,-2.861022E-08
715.5765,-0.2973189,-2.119694E-09,NaN,-0.5904365,-1.325602E-07,NaN,-0.1483623,-5.826566E-07,NaN,-0.937528,2.073444E-05,0.2900209,5.028222E-08,NaN,NaN,-0.4949768,-1.11759E-10,6.05996E-08,-1.103757E-07,1.28132E-08,-2.861022E-08
715.5917,-0.3032282,-2.118963E-09,NaN,-0.5906609,-1.325606E-07,NaN,-0.1427224,-5.826309E-07,NaN,-0.9381892,2.073489E-05,0.2840702,5.025802E-08,NaN,NaN,-0.4953084,-1.071024E-10,4.033402E-08,-1.103753E-07,1.579343E-08,-2.622604E-08
715.6083,-0.3091633,-2.118232E-09,NaN,-0.5908847,-1.32561E-07,NaN,-0.1371991,-5.826057E-07,NaN,-0.9388963,2.073534E-05,0.2782172,5.023422E-08,NaN,NaN,-0.4956334,-1.024458E-10,1.887634E-08,-1.103749E-07,1.519738E-08,-2.861022E-08
715.624,-0.3154296,-2.117501E-09,NaN,-0.5911206,-1.325614E-07,NaN,-0.1311488,-5.825809E-07,NaN,-0.9395792,2.073579E-05,0.2716878,5.021083E-08,NaN,NaN,-0.4959978,-1.071024E-10,-9.733885E-09,-1.103745E-07,1.162111E-08,-2.622604E-08
715.6397,-0.3154296,-2.117501E-09,NaN,-0.5911206,-1.325614E-07,NaN,-0.1311488,-5.825809E-07,NaN,-0.9395792,2.073579E-05,0.2716878,5.021083E-08,NaN,NaN,-0.4959978,-1.071024E-10,-9.733885E-09,-1.103745E-07,1.162111E-08,-2.622604E-08
715.6545,-0.3218707,-2.11677E-09,NaN,-0.5913614,-1.325619E-07,NaN,-0.1251427,-5.825565E-07,NaN,-0.9403368,2.073625E-05,0.265251,5.018783E-08,NaN,NaN,-0.4963549,-1.11759E-10,-3.238365E-08,-1.10374E-07,1.519738E-08,-2.861022E-08
715.6711,-0.3283899,-2.116039E-09,NaN,-0.5916033,-1.325623E-07,NaN,-0.1192393,-5.825297E-07,NaN,-0.941156,2.07367E-05,0.258915,5.01624E-08,NaN,NaN,-0.4967051,-1.071024E-10,-5.384132E-08,-1.103736E-07,9.832966E-09,-2.622604E-08
715.6868,-0.3349276,-2.115307E-09,NaN,-0.5918443,-1.325627E-07,NaN,-0.1134594,-5.825032E-07,NaN,-0.9420199,2.073715E-05,0.2526841,5.013739E-08,NaN,NaN,-0.4970483,-1.11759E-10,-7.529899E-08,-1.103732E-07,9.23692E-09,-2.861022E-08
715.703,-0.3417894,-2.114576E-09,NaN,-0.592097,-1.325631E-07,NaN,-0.1071575,-5.824772E-07,NaN,-0.9428581,2.073761E-05,0.2457751,5.011282E-08,NaN,NaN,-0.4974305,-1.164156E-10,-1.039092E-07,-1.103728E-07,7.44878E-09,-2.622604E-08
715.7186,-0.3417894,-2.114576E-09,NaN,-0.592097,-1.325631E-07,NaN,-0.1071575,-5.824772E-07,NaN,-0.9428581,2.073761E-05,0.2457751,5.011282E-08,NaN,NaN,-0.4974305,-1.164156E-10,-1.039092E-07,-1.103728E-07,7.44878E-09,-2.622604E-08
715.734,-0.348819,-2.113845E-09,NaN,-0.5923545,-1.325636E-07,NaN,-0.100908,-5.824517E-07,NaN,-0.9437694,2.073806E-05,0.2389673,5.008865E-08,NaN,NaN,-0.4978051,-1.11759E-10,-1.301353E-07,-1.103724E-07,8.640873E-09,-2.861022E-08
715.7502,-0.3559196,-2.113114E-09,NaN,-0.5926127,-1.32564E-07,NaN,-0.0947683,-5.824265E-07,NaN,-0.9447411,2.073851E-05,0.232268,5.006489E-08,NaN,NaN,-0.4981724,-1.164156E-10,-1.563613E-07,-1.103719E-07,5.064594E-09,-2.622604E-08
715.7662,-0.3630317,-2.112382E-09,NaN,-0.5928698,-1.325644E-07,NaN,-0.0887584,-5.824017E-07,NaN,-0.9457564,2.073897E-05,0.2256806,5.004154E-08,NaN,NaN,-0.4985324,-1.210722E-10,-1.802032E-07,-1.103715E-07,4.468548E-09,-2.861022E-08
715.7822,-0.3704611,-2.111651E-09,NaN,-0.5931385,-1.325647E-07,NaN,-0.08223114,-5.82522E-07,NaN,-0.9467447,2.073942E-05,0.2184131,5.016332E-08,NaN,NaN,-0.4989311,-1.210722E-10,-2.147738E-07,-1.10373E-07,7.150756E-09,-2.622604E-08
715.7979,-0.3704611,-2.111651E-09,NaN,-0.5931385,-1.325647E-07,NaN,-0.08223114,-5.82522E-07,NaN,-0.9467447,2.073942E-05,0.2184131,5.016332E-08,NaN,NaN,-0.4989311,-1.210722E-10,-2.147738E-07,-1.10373E-07,7.150756E-09,-2.622604E-08
715.816,-0.3780515,-2.11092E-09,NaN,-0.5934115,-1.325653E-07,NaN,-0.07576396,-5.82488E-07,NaN,-0.9478047,2.073987E-05,0.211255,5.013073E-08,NaN,NaN,-0.499322,-1.210722E-10,-2.445762E-07,-1.103747E-07,5.064594E-09,-2.861022E-08
715.8314,-0.3857063,-2.110189E-09,NaN,-0.5936851,-1.325662E-07,NaN,-0.06941292,-5.823758E-07,NaN,-0.9489241,2.074032E-05,0.2042125,5.001996E-08,NaN,NaN,-0.4997051,-1.210722E-10,-2.660339E-07,-1.103766E-07,7.44878E-09,-2.622604E-08
715.8455,-0.3933659,-2.109458E-09,NaN,-0.5939573,-1.325673E-07,NaN,-0.06319746,-5.822208E-07,NaN,-0.9500861,2.074077E-05,0.1972887,4.986627E-08,NaN,NaN,-0.5000806,-1.11759E-10,-2.910678E-07,-1.103787E-07,8.640873E-09,-2.861022E-08
715.8612,-0.4013366,-2.108727E-09,NaN,-0.594241,-1.325684E-07,NaN,-0.05646885,-5.820461E-07,NaN,-0.9512203,2.074121E-05,0.1896821,4.969304E-08,NaN,NaN,-0.5004945,-1.024458E-10,-3.232543E-07,-1.103807E-07,1.013099E-08,-2.622604E-08
715.8771,-0.4013366,-2.108727E-09,NaN,-0.594241,-1.325684E-07,NaN,-0.05646885,-5.820461E-07,NaN,-0.9512203,2.074121E-05,0.1896821,4.969304E-08,NaN,NaN,-0.5004945,-1.024458E-10,-3.232543E-07,-1.103807E-07,1.013099E-08,-2.622604E-08
715.8922,-0.4094617,-2.107995E-09,NaN,-0.5945287,-1.325696E-07,NaN,-0.0498073,-5.818608E-07,NaN,-0.9524248,2.074165E-05,0.1821926,4.950908E-08,NaN,NaN,-0.5009002,-9.313258E-11,-3.560369E-07,-1.103828E-07,9.23692E-09,-2.861022E-08
715.9085,-0.4176448,-2.107264E-09,NaN,-0.5948167,-1.325708E-07,NaN,-0.04326776,-5.816733E-07,NaN,-0.9536877,2.074209E-05,0.1748259,4.932303E-08,NaN,NaN,-0.5012979,-8.381935E-11,-3.864353E-07,-1.10385E-07,1.251517E-08,-2.622604E-08
715.9242,-0.4258264,-2.106533E-09,NaN,-0.5951031,-1.325721E-07,NaN,-0.036869,-5.814866E-07,NaN,-0.9549925,2.074254E-05,0.1675841,4.913776E-08,NaN,NaN,-0.5016877,-8.381935E-11,-4.156415E-07,-1.103871E-07,1.460134E-08,-2.861022E-08
715.9401,-0.4343128,-2.105802E-09,NaN,-0.5954009,-1.325733E-07,NaN,-0.02996091,-5.813007E-07,NaN,-0.9562688,2.074299E-05,0.1596563,4.895323E-08,NaN,NaN,-0.5021156,-7.450613E-11,-4.531925E-07,-1.103892E-07,1.817762E-08,-2.622604E-08
715.9561,-0.4343128,-2.105802E-09,NaN,-0.5954009,-1.325733E-07,NaN,-0.02996091,-5.813007E-07,NaN,-0.9562688,2.074299E-05,0.1596563,4.895323E-08,NaN,NaN,-0.5021156,-7.450613E-11,-4.531925E-07,-1.103892E-07,1.817762E-08,-2.622604E-08
715.9714,-0.4429477,-2.105071E-09,NaN,-0.5957024,-1.325746E-07,NaN,-0.02312627,-5.811211E-07,NaN,-0.9576144,2.074344E-05,0.1518533,4.877507E-08,NaN,NaN,-0.502535,-7.450613E-11,-4.889553E-07,-1.103913E-07,1.877366E-08,-2.861022E-08
715.9876,-0.4516344,-2.104339E-09,NaN,-0.596004,-1.325758E-07,NaN,-0.01641898,-5.80945E-07,NaN,-0.9590175,2.074388E-05,0.1441796,4.860034E-08,NaN,NaN,-0.5029462,-6.519291E-11,-5.187576E-07,-1.103934E-07,1.996576E-08,-2.622604E-08
716.0034,-0.4603136,-2.103608E-09,NaN,-0.5963039,-1.32577E-07,NaN,-0.009857139,-5.807751E-07,NaN,-0.9604619,2.074432E-05,0.1366371,4.843178E-08,NaN,NaN,-0.5033492,-5.587968E-11,-5.479639E-07,-1.103955E-07,2.294599E-08,-2.861022E-08
716.0192,-0.4603136,-2.103608E-09,NaN,-0.5963039,-1.32577E-07,NaN,-0.009857139,-5.807751E-07,NaN,-0.9604619,2.074432E-05,0.1366371,4.843178E-08,NaN,NaN,-0.5033492,-5.587968E-11,-5.479639E-07,-1.103955E-07,2.294599E-08,-2.861022E-08
716.0344,-0.4692919,-2.102877E-09,NaN,-0.5966148,-1.325783E-07,NaN,-0.002789367,-5.806112E-07,NaN,-0.9618775,2.074477E-05,0.1284049,4.82693E-08,NaN,NaN,-0.5037901,-5.122307E-11,-5.867068E-07,-1.103976E-07,2.711831E-08,-2.622604E-08
716.0509,-0.4784127,-2.102146E-09,NaN,-0.5969294,-1.325795E-07,NaN,0.004199091,-5.804532E-07,NaN,-0.9633613,2.074523E-05,0.1203047,4.811274E-08,NaN,NaN,-0.5042223,-5.122307E-11,-6.27834E-07,-1.103997E-07,2.44361E-08,-2.861022E-08
716.067,-0.4875796,-2.101415E-09,NaN,-0.5972439,-1.325808E-07,NaN,0.01105536,-5.803011E-07,NaN,-0.9649019,2.074569E-05,0.1123405,4.7962E-08,NaN,NaN,-0.5046459,-5.587968E-11,-6.588284E-07,-1.104018E-07,1.817762E-08,-2.622604E-08
716.0828,-0.4967332,-2.100683E-09,NaN,-0.5975565,-1.32582E-07,NaN,0.01776201,-5.801547E-07,NaN,-0.9664835,2.074614E-05,0.1045133,4.781697E-08,NaN,NaN,-0.5050611,-5.122307E-11,-6.91611E-07,-1.104039E-07,1.862465E-08,-2.861022E-08
716.0995,-0.4967332,-2.100683E-09,NaN,-0.5975565,-1.32582E-07,NaN,0.01776201,-5.801547E-07,NaN,-0.9664835,2.074614E-05,0.1045133,4.781697E-08,NaN,NaN,-0.5050611,-5.122307E-11,-6.91611E-07,-1.104039E-07,1.862465E-08,-2.861022E-08
716.1137,-0.5061803,-2.099952E-09,NaN,-0.59788,-1.325832E-07,NaN,0.02497156,-5.80011E-07,NaN,-0.9680361,2.074659E-05,0.09599216,4.76747E-08,NaN,NaN,-0.505514,-4.656646E-11,-7.321422E-07,-1.104059E-07,1.698552E-08,-2.622604E-08
716.1303,-0.5157645,-2.09922E-09,NaN,-0.598207,-1.325844E-07,NaN,0.03209644,-5.798729E-07,NaN,-0.9696562,2.074704E-05,0.08761025,4.753797E-08,NaN,NaN,-0.5059578,-4.190985E-11,-7.708852E-07,-1.10408E-07,1.80286E-08,-2.861022E-08
716.1462,-0.5253891,-2.098489E-09,NaN,-0.5985336,-1.325857E-07,NaN,0.03908478,-5.797402E-07,NaN,-0.9713326,2.074749E-05,0.0793706,4.740667E-08,NaN,NaN,-0.506393,-3.725324E-11,-8.096281E-07,-1.1041E-07,1.907169E-08,-2.622604E-08
716.1627,-0.534995,-2.097757E-09,NaN,-0.5988582,-1.325869E-07,NaN,0.04591977,-5.796128E-07,NaN,-0.9730494,2.074795E-05,0.07127374,4.728069E-08,NaN,NaN,-0.5068195,-4.190985E-11,-8.418147E-07,-1.104121E-07,1.996576E-08,-2.861022E-08
716.1783,-0.534995,-2.097757E-09,NaN,-0.5988582,-1.325869E-07,NaN,0.04591977,-5.796128E-07,NaN,-0.9730494,2.074795E-05,0.07127374,4.728069E-08,NaN,NaN,-0.5068195,-4.190985E-11,-8.418147E-07,-1.104121E-07,1.996576E-08,-2.861022E-08
716.1934,-0.5448892,-2.097025E-09,NaN,-0.5991936,-1.325881E-07,NaN,0.05325502,-5.794907E-07,NaN,-0.9747378,2.074841E-05,0.06247839,4.715993E-08,NaN,NaN,-0.5072834,-4.656646E-11,-8.894984E-07,-1.104141E-07,2.100884E-08,-2.622604E-08
716.2098,-0.5549151,-2.096294E-09,NaN,-0.5995322,-1.325893E-07,NaN,0.06050068,-5.793736E-07,NaN,-0.9764929,2.074886E-05,0.05382925,4.704428E-08,NaN,NaN,-0.5077381,-4.190985E-11,-9.312216E-07,-1.104162E-07,1.80286E-08,-2.861022E-08
716.2256,-0.5649762,-2.095562E-09,NaN,-0.5998704,-1.325905E-07,NaN,0.06760589,-5.792616E-07,NaN,-0.9783038,2.074932E-05,0.04532854,4.693365E-08,NaN,NaN,-0.5081838,-4.656646E-11,-9.669844E-07,-1.104182E-07,1.66875E-08,-2.622604E-08
716.2413,-0.5750132,-2.09483E-09,NaN,-0.6002064,-1.325917E-07,NaN,0.07455445,-5.791545E-07,NaN,-0.980155,2.074978E-05,0.03697625,4.682793E-08,NaN,NaN,-0.5086208,-4.190985E-11,-1.003939E-06,-1.104202E-07,1.348375E-08,-2.861022E-08
716.2571,-0.5750132,-2.09483E-09,NaN,-0.6002064,-1.325917E-07,NaN,0.07455445,-5.791545E-07,NaN,-0.980155,2.074978E-05,0.03697625,4.682793E-08,NaN,NaN,-0.5086208,-4.190985E-11,-1.003939E-06,-1.104202E-07,1.348375E-08,-2.861022E-08
716.2723,-0.5853336,-2.094098E-09,NaN,-0.600553,-1.325929E-07,NaN,0.08200093,-5.790523E-07,NaN,-0.9819784,2.075024E-05,0.02792056,4.672704E-08,NaN,NaN,-0.509095,-5.122307E-11,-1.050431E-06,-1.104222E-07,1.549541E-08,-2.622604E-08
716.2886,-0.5957806,-2.093366E-09,NaN,-0.6009028,-1.325941E-07,NaN,0.08935336,-5.789547E-07,NaN,-0.983868,2.075069E-05,0.01901797,4.663087E-08,NaN,NaN,-0.5095598,-4.656646E-11,-1.095731E-06,-1.104243E-07,1.418224E-08,-2.861022E-08
716.3046,-0.6062578,-2.092634E-09,NaN,-0.6012519,-1.325953E-07,NaN,0.09656185,-5.788618E-07,NaN,-0.985813,2.075115E-05,0.01026985,4.653933E-08,NaN,NaN,-0.5100154,-5.122307E-11,-1.140434E-06,-1.104263E-07,1.358619E-08,-2.622604E-08
716.3201,-0.616706,-2.091902E-09,NaN,-0.6015987,-1.325965E-07,NaN,0.1036108,-5.787734E-07,NaN,-0.9877979,2.07516E-05,0.001675586,4.645233E-08,NaN,NaN,-0.510462,-4.656646E-11,-1.179177E-06,-1.104283E-07,1.768401E-08,-2.861022E-08
716.3376,-0.616706,-2.091902E-09,NaN,-0.6015987,-1.325965E-07,NaN,0.1036108,-5.787734E-07,NaN,-0.9877979,2.07516E-05,0.001675586,4.645233E-08,NaN,NaN,-0.510462,-4.656646E-11,-1.179177E-06,-1.104283E-07,1.768401E-08,-2.861022E-08
716.3509,-0.6274327,-2.091169E-09,NaN,-0.6019561,-1.325977E-07,NaN,0.1111556,-5.786895E-07,NaN,-0.9897562,2.075206E-05,-0.007627306,4.63698E-08,NaN,NaN,-0.5109457,-5.122307E-11,-1.229841E-06,-1.104302E-07,1.932314E-08,-2.622604E-08
716.3677,-0.6382812,-2.090437E-09,NaN,-0.6023164,-1.325988E-07,NaN,0.1186024,-5.7861E-07,NaN,-0.9917805,2.075252E-05,-0.01677035,4.629162E-08,NaN,NaN,-0.5114198,-5.587969E-11,-1.278717E-06,-1.104322E-07,1.738599E-08,-2.861022E-08
716.3831,-0.6491551,-2.089705E-09,NaN,-0.6026759,-1.326E-07,NaN,0.1259021,-5.785347E-07,NaN,-0.9938597,2.075298E-05,-0.02575302,4.621773E-08,NaN,NaN,-0.5118845,-5.122307E-11,-1.3264E-06,-1.104342E-07,2.036622E-08,-2.622604E-08
716.3992,-0.6491551,-2.089705E-09,NaN,-0.6026759,-1.326E-07,NaN,0.1259021,-5.785347E-07,NaN,-0.9938597,2.075298E-05,-0.02575302,4.621773E-08,NaN,NaN,-0.5118845,-5.122307E-11,-1.3264E-06,-1.104342E-07,2.036622E-08,-2.622604E-08
716.4142,-0.6603391,-2.088972E-09,NaN,-0.6030467,-1.326012E-07,NaN,0.133697,-5.784636E-07,NaN,-0.9959267,2.075344E-05,-0.03544532,4.614803E-08,NaN,NaN,-0.5123859,-5.587969E-11,-1.384813E-06,-1.104362E-07,2.424052E-08,-2.861022E-08
716.4308,-0.6716621,-2.088239E-09,NaN,-0.6034204,-1.326024E-07,NaN,0.1413865,-5.783938E-07,NaN,-0.9980696,2.075389E-05,-0.0449694,4.607962E-08,NaN,NaN,-0.5128774,-5.122307E-11,-1.436669E-06,-1.104381E-07,2.245238E-08,-2.622604E-08
716.4465,-0.6830188,-2.087507E-09,NaN,-0.6037931,-1.326035E-07,NaN,0.148921,-5.783281E-07,NaN,-1.000275,2.075434E-05,-0.05432533,4.60153E-08,NaN,NaN,-0.5133592,-4.656646E-11,-1.484353E-06,-1.104401E-07,2.304843E-08,-2.861022E-08
716.4622,-0.6943446,-2.086774E-09,NaN,-0.6041632,-1.326047E-07,NaN,0.156286,-5.782665E-07,NaN,-1.002524,2.07548E-05,-0.06351476,4.595499E-08,NaN,NaN,-0.5138316,-5.122307E-11,-1.533229E-06,-1.10442E-07,2.051523E-08,-2.622604E-08
716.4778,-0.6943446,-2.086774E-09,NaN,-0.6041632,-1.326047E-07,NaN,0.156286,-5.782665E-07,NaN,-1.002524,2.07548E-05,-0.06351476,4.595499E-08,NaN,NaN,-0.5138316,-5.122307E-11,-1.533229E-06,-1.10442E-07,2.051523E-08,-2.622604E-08
716.4932,-0.7059443,-2.086041E-09,NaN,-0.6045436,-1.326059E-07,NaN,0.1641388,-5.782087E-07,NaN,-1.004753,2.075525E-05,-0.07341954,4.589861E-08,NaN,NaN,-0.5143405,-4.656646E-11,-1.591641E-06,-1.10444E-07,2.081326E-08,-2.861022E-08
716.5094,-0.7176588,-2.085308E-09,NaN,-0.6049266,-1.32607E-07,NaN,0.1718826,-5.781548E-07,NaN,-1.00705,2.075572E-05,-0.08314957,4.584608E-08,NaN,NaN,-0.5148393,-5.587969E-11,-1.644093E-06,-1.104459E-07,1.962116E-08,-2.622604E-08
716.5253,-0.7293903,-2.084575E-09,NaN,-0.6053084,-1.326082E-07,NaN,0.1794704,-5.781047E-07,NaN,-1.009402,2.075617E-05,-0.09270591,4.579733E-08,NaN,NaN,-0.5153283,-5.122308E-11,-1.695353E-06,-1.104478E-07,2.021721E-08,-2.861022E-08
716.5412,-0.7410791,-2.083842E-09,NaN,-0.6056874,-1.326093E-07,NaN,0.1868886,-5.780582E-07,NaN,-1.011795,2.075662E-05,-0.1020908,4.575228E-08,NaN,NaN,-0.5158077,-4.656647E-11,-1.744229E-06,-1.104497E-07,1.932314E-08,-2.622604E-08
716.5571,-0.7410791,-2.083842E-09,NaN,-0.6056874,-1.326093E-07,NaN,0.1868886,-5.780582E-07,NaN,-1.011795,2.075662E-05,-0.1020908,4.575228E-08,NaN,NaN,-0.5158077,-4.656647E-11,-1.744229E-06,-1.104497E-07,1.932314E-08,-2.622604E-08
716.5724,-0.7530329,-2.083109E-09,NaN,-0.6060768,-1.326105E-07,NaN,0.194795,-5.780154E-07,NaN,-1.014168,2.075707E-05,-0.1121974,4.571087E-08,NaN,NaN,-0.5163236,-4.190985E-11,-1.805622E-06,-1.104517E-07,2.230337E-08,-2.861022E-08
716.5885,-0.7650944,-2.082376E-09,NaN,-0.6064686,-1.326116E-07,NaN,0.2025906,-5.779762E-07,NaN,-1.016605,2.075752E-05,-0.1221229,4.567301E-08,NaN,NaN,-0.5168293,-3.725324E-11,-1.862246E-06,-1.104536E-07,2.14093E-08,-2.622604E-08
716.6044,-0.7771671,-2.081642E-09,NaN,-0.6068591,-1.326127E-07,NaN,0.2102291,-5.779405E-07,NaN,-1.019098,2.075797E-05,-0.1318692,4.563865E-08,NaN,NaN,-0.517325,-3.259663E-11,-1.921255E-06,-1.104555E-07,2.558163E-08,-2.861022E-08
716.6202,-0.7891918,-2.080909E-09,NaN,-0.6072469,-1.326139E-07,NaN,0.217697,-5.779053E-07,NaN,-1.02163,2.075842E-05,-0.1414392,4.560489E-08,NaN,NaN,-0.517811,-2.794002E-11,-1.975495E-06,-1.104574E-07,3.333023E-08,-2.622604E-08
716.6362,-0.7891918,-2.080909E-09,NaN,-0.6072469,-1.326139E-07,NaN,0.217697,-5.779053E-07,NaN,-1.02163,2.075842E-05,-0.1414392,4.560489E-08,NaN,NaN,-0.517811,-2.794002E-11,-1.975495E-06,-1.104574E-07,3.333023E-08,-2.622604E-08
716.6514,-0.801477,-2.080176E-09,NaN,-0.6076449,-1.32615E-07,NaN,0.2256526,-5.778736E-07,NaN,-1.024144,2.075888E-05,-0.1517373,4.557453E-08,NaN,NaN,-0.5183334,-3.259663E-11,-2.040464E-06,-1.104593E-07,3.154209E-08,-2.861022E-08
716.668,-0.8138657,-2.079442E-09,NaN,-0.6080452,-1.326162E-07,NaN,0.233495,-5.778452E-07,NaN,-1.026722,2.075934E-05,-0.1618479,4.554753E-08,NaN,NaN,-0.5188454,-3.725324E-11,-2.101857E-06,-1.104611E-07,3.094605E-08,-2.622604E-08
716.6838,-0.8262613,-2.078709E-09,NaN,-0.6084443,-1.326169E-07,NaN,0.2411788,-5.784278E-07,NaN,-1.029355,2.075979E-05,-0.1717738,4.613142E-08,NaN,NaN,-0.5193474,-4.190985E-11,-2.158481E-06,-1.104605E-07,3.392628E-08,-2.622604E-08
716.6995,-0.8262613,-2.078709E-09,NaN,-0.6084443,-1.326169E-07,NaN,0.2411788,-5.784278E-07,NaN,-1.029355,2.075979E-05,-0.1717738,4.613142E-08,NaN,NaN,-0.5193474,-4.190985E-11,-2.158481E-06,-1.104605E-07,3.392628E-08,-2.622604E-08
716.7147,-0.8386048,-2.077977E-09,NaN,-0.6088404,-1.326168E-07,NaN,0.248691,-5.792913E-07,NaN,-1.032028,2.076024E-05,-0.1815186,4.699636E-08,NaN,NaN,-0.5198395,-4.190985E-11,-2.215106E-06,-1.104592E-07,3.92907E-08,-2.622604E-08
716.7311,-0.8512051,-2.077244E-09,NaN,-0.6092467,-1.326163E-07,NaN,0.2566901,-5.802954E-07,NaN,-1.034684,2.076067E-05,-0.1919979,4.800181E-08,NaN,NaN,-0.5203679,-3.725324E-11,-2.278883E-06,-1.104575E-07,4.286698E-08,-2.622604E-08
716.7472,-0.8639051,-2.076511E-09,NaN,-0.6096553,-1.326154E-07,NaN,0.2645738,-5.813725E-07,NaN,-1.037406,2.07611E-05,-0.2022834,4.908032E-08,NaN,NaN,-0.5208859,-3.259663E-11,-2.346236E-06,-1.104557E-07,4.405907E-08,-2.622604E-08
716.7637,-0.8766082,-2.075779E-09,NaN,-0.6100625,-1.326144E-07,NaN,0.2722975,-5.82479E-07,NaN,-1.040181,2.076153E-05,-0.2123788,5.018825E-08,NaN,NaN,-0.5213937,-2.794002E-11,-2.405841E-06,-1.104537E-07,4.942348E-08,-2.622604E-08
716.7789,-0.8766082,-2.075779E-09,NaN,-0.6100625,-1.326144E-07,NaN,0.2722975,-5.82479E-07,NaN,-1.040181,2.076153E-05,-0.2123788,5.018825E-08,NaN,NaN,-0.5213937,-2.794002E-11,-2.405841E-06,-1.104537E-07,4.942348E-08,-2.622604E-08
716.794,-0.8892555,-2.075047E-09,NaN,-0.6104667,-1.326133E-07,NaN,0.2798486,-5.835918E-07,NaN,-1.042996,2.076197E-05,-0.2222882,5.130251E-08,NaN,NaN,-0.5218916,-3.259663E-11,-2.464849E-06,-1.104517E-07,5.359581E-08,-2.622604E-08
716.8102,-0.9021562,-2.074314E-09,NaN,-0.610881,-1.326121E-07,NaN,0.2878858,-5.846996E-07,NaN,-1.045798,2.076239E-05,-0.2329387,5.241174E-08,NaN,NaN,-0.5224257,-2.32834E-11,-2.538163E-06,-1.104497E-07,5.240372E-08,-2.622604E-08
716.8275,-0.9151528,-2.073582E-09,NaN,-0.6112974,-1.326108E-07,NaN,0.2958057,-5.857941E-07,NaN,-1.048665,2.076282E-05,-0.243389,5.35076E-08,NaN,NaN,-0.5229492,-2.32834E-11,-2.608497E-06,-1.104476E-07,5.538395E-08,-2.622604E-08
716.8417,-0.9281492,-2.07285E-09,NaN,-0.6117124,-1.326096E-07,NaN,0.3035644,-5.868697E-07,NaN,-1.051586,2.076325E-05,-0.2536438,5.458471E-08,NaN,NaN,-0.5234624,-2.32834E-11,-2.668697E-06,-1.104455E-07,5.776814E-08,-2.622604E-08
716.8575,-0.9281492,-2.07285E-09,NaN,-0.6117124,-1.326096E-07,NaN,0.3035644,-5.868697E-07,NaN,-1.051586,2.076325E-05,-0.2536438,5.458471E-08,NaN,NaN,-0.5234624,-2.32834E-11,-2.668697E-06,-1.104455E-07,5.776814E-08,-2.622604E-08
716.8726,-0.9410861,-2.072118E-09,NaN,-0.6121243,-1.326083E-07,NaN,0.3111497,-5.87927E-07,NaN,-1.054545,2.076369E-05,-0.2637077,5.564346E-08,NaN,NaN,-0.5239657,-2.32834E-11,-2.728898E-06,-1.104435E-07,4.942349E-08,-2.622604E-08
716.8893,-0.9542731,-2.071386E-09,NaN,-0.6125462,-1.326071E-07,NaN,0.3192203,-5.889635E-07,NaN,-1.057495,2.076411E-05,-0.2745195,5.668139E-08,NaN,NaN,-0.524505,-1.397018E-11,-2.797443E-06,-1.104414E-07,4.882744E-08,-2.622604E-08
716.9052,-0.9675527,-2.070654E-09,NaN,-0.6129703,-1.326058E-07,NaN,0.3271719,-5.899768E-07,NaN,-1.06051,2.076454E-05,-0.2851245,5.769615E-08,NaN,NaN,-0.5250337,-1.397018E-11,-2.864796E-06,-1.104393E-07,5.419186E-08,-2.622604E-08
716.9208,-0.9808286,-2.069922E-09,NaN,-0.6133928,-1.326046E-07,NaN,0.3349614,-5.909701E-07,NaN,-1.063579,2.076498E-05,-0.2955288,5.869095E-08,NaN,NaN,-0.525552,-1.397018E-11,-2.93215E-06,-1.104373E-07,4.882744E-08,-2.622604E-08
716.9366,-0.9808286,-2.069922E-09,NaN,-0.6133928,-1.326046E-07,NaN,0.3349614,-5.909701E-07,NaN,-1.063579,2.076498E-05,-0.2955288,5.869095E-08,NaN,NaN,-0.525552,-1.397018E-11,-2.93215E-06,-1.104373E-07,4.882744E-08,-2.622604E-08
716.9514,-0.9940417,-2.06919E-09,NaN,-0.6138121,-1.326033E-07,NaN,0.3425768,-5.91941E-07,NaN,-1.066685,2.07654E-05,-0.3057374,5.966337E-08,NaN,NaN,-0.5260603,-4.656954E-12,-2.991158E-06,-1.104352E-07,4.644325E-08,-2.622604E-08
716.968,-1.007502,-2.068458E-09,NaN,-0.6142414,-1.326021E-07,NaN,0.3506766,-5.9289E-07,NaN,-1.069786,2.076583E-05,-0.3167004,6.061384E-08,NaN,NaN,-0.5266045,-4.656954E-12,-3.065068E-06,-1.104332E-07,4.70393E-08,-2.622604E-08
716.9833,-1.021051,-2.067727E-09,NaN,-0.6146728,-1.326008E-07,NaN,0.358656,-5.938176E-07,NaN,-1.072952,2.076627E-05,-0.3274503,6.154279E-08,NaN,NaN,-0.5271381,-4.656954E-12,-3.135402E-06,-1.104312E-07,5.061558E-08,-2.622604E-08
716.9993,-1.021051,-2.067727E-09,NaN,-0.6146728,-1.326008E-07,NaN,0.358656,-5.938176E-07,NaN,-1.072952,2.076627E-05,-0.3274503,6.154279E-08,NaN,NaN,-0.5271381,-4.656954E-12,-3.135402E-06,-1.104312E-07,5.061558E-08,-2.622604E-08
717.0144,-1.034594,-2.066995E-09,NaN,-0.6151024,-1.325996E-07,NaN,0.3664724,-5.947239E-07,NaN,-1.076171,2.076671E-05,-0.337994,6.245065E-08,NaN,NaN,-0.5276611,-9.313566E-12,-3.202159E-06,-1.104291E-07,4.584721E-08,-2.622604E-08
717.0308,-1.04807,-2.066264E-09,NaN,-0.6155288,-1.325984E-07,NaN,0.3741142,-5.956097E-07,NaN,-1.079427,2.076713E-05,-0.3483374,6.333783E-08,NaN,NaN,-0.528174,-3.408732E-16,-3.263552E-06,-1.104271E-07,4.227093E-08,-2.622604E-08
717.0466,-1.06179,-2.065532E-09,NaN,-0.6159652,-1.325971E-07,NaN,0.3822394,-5.964751E-07,NaN,-1.082682,2.076756E-05,-0.3594415,6.420473E-08,NaN,NaN,-0.5287229,-3.408732E-16,-3.339548E-06,-1.104251E-07,3.750256E-08,-2.622604E-08
717.0622,-1.075597,-2.064801E-09,NaN,-0.6164036,-1.325959E-07,NaN,0.390243,-5.973206E-07,NaN,-1.086001,2.0768E-05,-0.3703263,6.505176E-08,NaN,NaN,-0.529261,-3.408732E-16,-3.412861E-06,-1.104231E-07,3.750256E-08,-2.622604E-08
717.078,-1.075597,-2.064801E-09,NaN,-0.6164036,-1.325959E-07,NaN,0.390243,-5.973206E-07,NaN,-1.086001,2.0768E-05,-0.3703263,6.505176E-08,NaN,NaN,-0.529261,-3.408732E-16,-3.412861E-06,-1.104231E-07,3.750256E-08,-2.622604E-08
717.0934,-1.089394,-2.06407E-09,NaN,-0.6168401,-1.325947E-07,NaN,0.398083,-5.981467E-07,NaN,-1.089372,2.076843E-05,-0.3809994,6.587931E-08,NaN,NaN,-0.5297886,-3.408732E-16,-3.479618E-06,-1.104211E-07,3.988675E-08,-2.622604E-08
717.1097,-1.103122,-2.063339E-09,NaN,-0.6172734,-1.325935E-07,NaN,0.4057479,-5.989536E-07,NaN,-1.09278,2.076886E-05,-0.3914674,6.668774E-08,NaN,NaN,-0.5303058,-3.408732E-16,-3.545482E-06,-1.104191E-07,3.511838E-08,-2.622604E-08
717.1256,-1.11709,-2.062608E-09,NaN,-0.6177166,-1.325922E-07,NaN,0.4138948,-5.997447E-07,NaN,-1.096191,2.076928E-05,-0.4027024,6.748026E-08,NaN,NaN,-0.530859,9.312885E-12,-3.622372E-06,-1.104171E-07,2.796582E-08,-2.622604E-08
717.1414,-1.131142,-2.061877E-09,NaN,-0.6181617,-1.32591E-07,NaN,0.4219193,-6.005173E-07,NaN,-1.099666,2.076972E-05,-0.4137118,6.825437E-08,NaN,NaN,-0.5314013,9.312885E-12,-3.696877E-06,-1.104151E-07,2.200535E-08,-2.622604E-08
717.157,-1.131142,-2.061877E-09,NaN,-0.6181617,-1.32591E-07,NaN,0.4219193,-6.005173E-07,NaN,-1.099666,2.076972E-05,-0.4137118,6.825437E-08,NaN,NaN,-0.5314013,9.312885E-12,-3.696877E-06,-1.104151E-07,2.200535E-08,-2.622604E-08
717.172,-1.145181,-2.061146E-09,NaN,-0.6186049,-1.325898E-07,NaN,0.4297796,-6.012719E-07,NaN,-1.103191,2.077015E-05,-0.424504,6.901042E-08,NaN,NaN,-0.531933,9.312885E-12,-3.761847E-06,-1.104131E-07,2.200535E-08,-2.622604E-08
717.1884,-1.159148,-2.060415E-09,NaN,-0.6190447,-1.325886E-07,NaN,0.4374644,-6.020088E-07,NaN,-1.106753,2.077059E-05,-0.4350863,6.974876E-08,NaN,NaN,-0.5324543,4.656272E-12,-3.827412E-06,-1.104112E-07,2.081326E-08,-2.622604E-08
717.204,-1.161587,-2.059684E-09,NaN,-0.6190341,-1.325874E-07,NaN,0.4233615,-6.027283E-07,NaN,-1.110862,2.077102E-05,-0.4132276,7.046975E-08,NaN,NaN,-0.5314439,4.656272E-12,-3.382761E-06,-1.104092E-07,3.511838E-08,-2.622604E-08
717.22,-1.15697,-2.058953E-09,NaN,-0.6187973,-1.325862E-07,NaN,0.4074559,-6.034308E-07,NaN,-1.113612,2.077145E-05,-0.3924497,7.117372E-08,NaN,NaN,-0.530459,4.656272E-12,-3.011424E-06,-1.104072E-07,2.796582E-08,-2.622604E-08
717.2354,-1.15697,-2.058953E-09,NaN,-0.6187973,-1.325862E-07,NaN,0.4074559,-6.034308E-07,NaN,-1.113612,2.077145E-05,-0.3924497,7.117372E-08,NaN,NaN,-0.530459,4.656272E-12,-3.011424E-06,-1.104072E-07,2.796582E-08,-2.622604E-08
717.2501,-1.148056,-2.058221E-09,NaN,-0.6184295,-1.325854E-07,NaN,0.3912464,-6.040838E-07,NaN,-1.11508,2.077189E-05,-0.3725767,7.18282E-08,NaN,NaN,-0.5294963,9.312885E-12,-2.715487E-06,-1.104078E-07,2.796582E-08,-2.861022E-08
717.2668,-1.136557,-2.057489E-09,NaN,-0.6179837,-1.325854E-07,NaN,0.3752864,-6.044358E-07,NaN,-1.11552,2.077233E-05,-0.353433,7.218163E-08,NaN,NaN,-0.5285538,9.312885E-12,-2.471108E-06,-1.104091E-07,2.677372E-08,-2.622604E-08
717.2825,-1.123881,-2.056757E-09,NaN,-0.6175048,-1.325859E-07,NaN,0.3603871,-6.046226E-07,NaN,-1.115175,2.077276E-05,-0.3358535,7.236986E-08,NaN,NaN,-0.5276765,9.312885E-12,-2.275903E-06,-1.104106E-07,2.915791E-08,-2.861022E-08
717.2979,-1.123881,-2.056757E-09,NaN,-0.6175048,-1.325859E-07,NaN,0.3603871,-6.046226E-07,NaN,-1.115175,2.077276E-05,-0.3358535,7.236986E-08,NaN,NaN,-0.5276765,9.312885E-12,-2.275903E-06,-1.104106E-07,2.915791E-08,-2.861022E-08
717.3127,-1.110543,-2.056024E-09,NaN,-0.6170069,-1.325867E-07,NaN,0.3459965,-6.047152E-07,NaN,-1.114335,2.07732E-05,-0.3187543,7.246394E-08,NaN,NaN,-0.5268167,9.312885E-12,-2.097387E-06,-1.104124E-07,2.915791E-08,-2.622604E-08
717.3307,-1.096864,-2.055292E-09,NaN,-0.6164992,-1.325876E-07,NaN,0.3320352,-6.047523E-07,NaN,-1.113171,2.077364E-05,-0.3020886,7.250244E-08,NaN,NaN,-0.5259739,9.312885E-12,-1.93705E-06,-1.104143E-07,3.392628E-08,-2.861022E-08
717.3449,-1.08304,-2.05456E-09,NaN,-0.6159877,-1.325887E-07,NaN,0.3184465,-6.047603E-07,NaN,-1.111798,2.077408E-05,-0.2858243,7.251189E-08,NaN,NaN,-0.5251477,9.312885E-12,-1.787741E-06,-1.104162E-07,3.273419E-08,-2.622604E-08
717.361,-1.069537,-2.053828E-09,NaN,-0.6154902,-1.325898E-07,NaN,0.3058255,-6.047512E-07,NaN,-1.110259,2.077452E-05,-0.2708789,7.250414E-08,NaN,NaN,-0.5243838,9.312885E-12,-1.660783E-06,-1.104182E-07,3.392628E-08,-2.861022E-08
717.3765,-1.069537,-2.053828E-09,NaN,-0.6154902,-1.325898E-07,NaN,0.3058255,-6.047512E-07,NaN,-1.110259,2.077452E-05,-0.2708789,7.250414E-08,NaN,NaN,-0.5243838,9.312885E-12,-1.660783E-06,-1.104182E-07,3.392628E-08,-2.861022E-08
717.3915,-1.056292,-2.053096E-09,NaN,-0.615004,-1.32591E-07,NaN,0.2935799,-6.047337E-07,NaN,-1.108678,2.077496E-05,-0.2562542,7.248803E-08,NaN,NaN,-0.5236349,9.312885E-12,-1.536507E-06,-1.104202E-07,3.750256E-08,-2.622604E-08
717.408,-1.043266,-2.052364E-09,NaN,-0.6145275,-1.325922E-07,NaN,0.2816336,-6.047136E-07,NaN,-1.107085,2.07754E-05,-0.2419452,7.246935E-08,NaN,NaN,-0.5229006,4.656272E-12,-1.417E-06,-1.104222E-07,2.677372E-08,-2.861022E-08
717.4235,-1.030434,-2.051632E-09,NaN,-0.6140595,-1.325933E-07,NaN,0.2699502,-6.04691E-07,NaN,-1.10549,2.077583E-05,-0.2279461,7.244815E-08,NaN,NaN,-0.5221808,1.39695E-11,-1.305539E-06,-1.104242E-07,2.319744E-08,-2.622604E-08
717.4394,-1.030434,-2.051632E-09,NaN,-0.6140595,-1.325933E-07,NaN,0.2699502,-6.04691E-07,NaN,-1.10549,2.077583E-05,-0.2279461,7.244815E-08,NaN,NaN,-0.5221808,1.39695E-11,-1.305539E-06,-1.104242E-07,2.319744E-08,-2.622604E-08
717.454,-1.018125,-2.0509E-09,NaN,-0.6136131,-1.325945E-07,NaN,0.2591419,-6.046688E-07,NaN,-1.10386,2.077627E-05,-0.2151755,7.242733E-08,NaN,NaN,-0.5215212,1.39695E-11,-1.210172E-06,-1.104262E-07,2.677372E-08,-2.861022E-08
717.4706,-1.006191,-2.050168E-09,NaN,-0.6131825,-1.325957E-07,NaN,0.2486394,-6.046498E-07,NaN,-1.102276,2.07767E-05,-0.2026639,7.240968E-08,NaN,NaN,-0.5208743,1.39695E-11,-1.115997E-06,-1.104282E-07,2.438954E-08,-2.622604E-08
717.4861,-0.9945422,-2.049436E-09,NaN,-0.6127642,-1.325969E-07,NaN,0.2383781,-6.046338E-07,NaN,-1.100735,2.077714E-05,-0.1904125,7.239516E-08,NaN,NaN,-0.5202401,1.39695E-11,-1.023609E-06,-1.104302E-07,2.319744E-08,-2.861022E-08
717.502,-0.9831205,-2.048704E-09,NaN,-0.6123558,-1.325981E-07,NaN,0.2283304,-6.046182E-07,NaN,-1.099228,2.077758E-05,-0.1784194,7.238086E-08,NaN,NaN,-0.5196184,1.39695E-11,-9.306262E-07,-1.104321E-07,1.604489E-08,-2.622604E-08
717.5176,-0.9831205,-2.048704E-09,NaN,-0.6123558,-1.325981E-07,NaN,0.2283304,-6.046182E-07,NaN,-1.099228,2.077758E-05,-0.1784194,7.238086E-08,NaN,NaN,-0.5196184,1.39695E-11,-9.306262E-07,-1.104321E-07,1.604489E-08,-2.622604E-08
717.5326,-0.9722356,-2.047972E-09,NaN,-0.6119693,-1.325993E-07,NaN,0.2191116,-6.046055E-07,NaN,-1.097702,2.077802E-05,-0.1675926,7.236963E-08,NaN,NaN,-0.5190548,1.39695E-11,-8.573126E-07,-1.104341E-07,2.200535E-08,-2.861022E-08
717.549,-0.9617285,-2.047241E-09,NaN,-0.6115986,-1.326005E-07,NaN,0.2101606,-6.045959E-07,NaN,-1.096236,2.077845E-05,-0.1569808,7.236139E-08,NaN,NaN,-0.5185022,2.328272E-11,-7.839989E-07,-1.104361E-07,2.438954E-08,-2.622604E-08
717.5648,-0.9515007,-2.046509E-09,NaN,-0.6112397,-1.326017E-07,NaN,0.2014153,-6.045892E-07,NaN,-1.09482,2.077889E-05,-0.1465863,7.235608E-08,NaN,NaN,-0.5179604,2.328272E-11,-7.100891E-07,-1.10438E-07,2.200535E-08,-2.861022E-08
717.5802,-0.9414905,-2.045777E-09,NaN,-0.6108901,-1.326028E-07,NaN,0.1928498,-6.045854E-07,NaN,-1.093444,2.077932E-05,-0.1364078,7.235365E-08,NaN,NaN,-0.5174293,3.259595E-11,-6.361794E-07,-1.1044E-07,2.081326E-08,-2.622604E-08
717.5963,-0.9414905,-2.045777E-09,NaN,-0.6108901,-1.326028E-07,NaN,0.1928498,-6.045854E-07,NaN,-1.093444,2.077932E-05,-0.1364078,7.235365E-08,NaN,NaN,-0.5174293,3.259595E-11,-6.361794E-07,-1.1044E-07,2.081326E-08,-2.622604E-08
717.611,-0.9320045,-2.045046E-09,NaN,-0.6105617,-1.32604E-07,NaN,0.185079,-6.045844E-07,NaN,-1.092049,2.077975E-05,-0.1273429,7.235404E-08,NaN,NaN,-0.5169545,4.190917E-11,-5.813431E-07,-1.104419E-07,1.962116E-08,-2.861022E-08
717.6277,-0.9228823,-2.044314E-09,NaN,-0.6102483,-1.326052E-07,NaN,0.1775458,-6.045862E-07,NaN,-1.090715,2.078017E-05,-0.1184551,7.235721E-08,NaN,NaN,-0.5164889,5.122239E-11,-5.223345E-07,-1.104439E-07,1.485279E-08,-2.622604E-08
717.6432,-0.9140246,-2.043583E-09,NaN,-0.6099459,-1.326063E-07,NaN,0.1701888,-6.045907E-07,NaN,-1.089434,2.078061E-05,-0.1097469,7.236309E-08,NaN,NaN,-0.5160323,5.122239E-11,-4.651141E-07,-1.104458E-07,1.842907E-08,-2.861022E-08
717.6588,-0.9140246,-2.043583E-09,NaN,-0.6099459,-1.326063E-07,NaN,0.1701888,-6.045907E-07,NaN,-1.089434,2.078061E-05,-0.1097469,7.236309E-08,NaN,NaN,-0.5160323,5.122239E-11,-4.651141E-07,-1.104458E-07,1.842907E-08,-2.861022E-08
717.6737,-0.9057141,-2.042851E-09,NaN,-0.6096655,-1.326075E-07,NaN,0.1636069,-6.04595E-07,NaN,-1.088145,2.078105E-05,-0.1021107,7.236881E-08,NaN,NaN,-0.5156307,5.122239E-11,-4.239868E-07,-1.104477E-07,2.319744E-08,-2.622604E-08
717.6904,-0.8977764,-2.04212E-09,NaN,-0.6094003,-1.326087E-07,NaN,0.1572395,-6.04602E-07,NaN,-1.086928,2.078148E-05,-0.09462066,7.237718E-08,NaN,NaN,-0.5152368,6.053562E-11,-3.774952E-07,-1.104497E-07,2.319744E-08,-2.861022E-08
717.7059,-0.8901031,-2.041389E-09,NaN,-0.6091459,-1.326098E-07,NaN,0.1510235,-6.046116E-07,NaN,-1.085772,2.078191E-05,-0.08727986,7.238817E-08,NaN,NaN,-0.5148506,6.984884E-11,-3.315996E-07,-1.104516E-07,2.736977E-08,-2.622604E-08
717.7213,-0.8826268,-2.040658E-09,NaN,-0.6088994,-1.32611E-07,NaN,0.1449339,-6.046238E-07,NaN,-1.084661,2.078235E-05,-0.08008813,7.240171E-08,NaN,NaN,-0.514472,6.984884E-11,-2.868962E-07,-1.104535E-07,2.736977E-08,-2.861022E-08
717.7371,-0.8826268,-2.040658E-09,NaN,-0.6088994,-1.32611E-07,NaN,0.1449339,-6.046238E-07,NaN,-1.084661,2.078235E-05,-0.08008813,7.240171E-08,NaN,NaN,-0.514472,6.984884E-11,-2.868962E-07,-1.104535E-07,2.736977E-08,-2.861022E-08
717.7522,-0.8756502,-2.039926E-09,NaN,-0.6086729,-1.326121E-07,NaN,0.1395842,-6.046384E-07,NaN,-1.083533,2.078279E-05,-0.07392857,7.241776E-08,NaN,NaN,-0.5141467,6.984884E-11,-2.547096E-07,-1.104554E-07,2.319744E-08,-2.622604E-08
717.7687,-0.8690112,-2.039195E-09,NaN,-0.6084598,-1.326133E-07,NaN,0.1344223,-6.046556E-07,NaN,-1.082469,2.078323E-05,-0.06788554,7.243627E-08,NaN,NaN,-0.5138276,6.984884E-11,-2.219271E-07,-1.104573E-07,1.783302E-08,-2.861022E-08
717.7841,-0.8626093,-2.038464E-09,NaN,-0.6082561,-1.326144E-07,NaN,0.1293873,-6.046751E-07,NaN,-1.081462,2.078365E-05,-0.06196181,7.245719E-08,NaN,NaN,-0.5135148,7.916207E-11,-1.891445E-07,-1.104592E-07,2.14093E-08,-2.622604E-08
717.7999,-0.8626093,-2.038464E-09,NaN,-0.6082561,-1.326144E-07,NaN,0.1293873,-6.046751E-07,NaN,-1.081462,2.078365E-05,-0.06196181,7.245719E-08,NaN,NaN,-0.5135148,7.916207E-11,-1.891445E-07,-1.104592E-07,2.14093E-08,-2.622604E-08
717.8146,-0.8563819,-2.037733E-09,NaN,-0.6080592,-1.326156E-07,NaN,0.1244553,-6.04697E-07,NaN,-1.080497,2.078409E-05,-0.05615732,7.248047E-08,NaN,NaN,-0.5132082,7.916207E-11,-1.551699E-07,-1.104611E-07,1.902512E-08,-2.861022E-08
717.8325,-0.8506345,-2.037002E-09,NaN,-0.6078814,-1.326167E-07,NaN,0.1202396,-6.047212E-07,NaN,-1.079511,2.078452E-05,-0.05134878,7.250608E-08,NaN,NaN,-0.5129533,8.847529E-11,-1.366925E-07,-1.104629E-07,1.842907E-08,-2.622604E-08
717.8469,-0.8452072,-2.036271E-09,NaN,-0.607716,-1.326178E-07,NaN,0.1161894,-6.047449E-07,NaN,-1.07859,2.078496E-05,-0.04662952,7.253112E-08,NaN,NaN,-0.5127034,8.847529E-11,-1.146387E-07,-1.104648E-07,1.664093E-08,-2.861022E-08
717.8625,-0.8400009,-2.03554E-09,NaN,-0.6075592,-1.32619E-07,NaN,0.112244,-6.047708E-07,NaN,-1.077725,2.078539E-05,-0.04200238,7.255845E-08,NaN,NaN,-0.5124584,9.31319E-11,-9.258503E-08,-1.104667E-07,1.485279E-08,-2.622604E-08
717.8782,-0.8400009,-2.03554E-09,NaN,-0.6075592,-1.32619E-07,NaN,0.112244,-6.047708E-07,NaN,-1.077725,2.078539E-05,-0.04200238,7.255845E-08,NaN,NaN,-0.5124584,9.31319E-11,-9.258503E-08,-1.104667E-07,1.485279E-08,-2.622604E-08
717.8934,-0.8349537,-2.03481E-09,NaN,-0.6074085,-1.326201E-07,NaN,0.1083796,-6.04799E-07,NaN,-1.076902,2.078583E-05,-0.03746752,7.258802E-08,NaN,NaN,-0.5122181,9.778852E-11,-6.993526E-08,-1.104685E-07,1.604488E-08,-2.861022E-08
717.9096,-0.8303716,-2.034079E-09,NaN,-0.6072759,-1.326212E-07,NaN,0.1052096,-6.048294E-07,NaN,-1.076057,2.078627E-05,-0.03389664,7.261978E-08,NaN,NaN,-0.5120285,9.31319E-11,-5.920642E-08,-1.104704E-07,5.316049E-09,-2.622604E-08
717.925,-0.8260953,-2.033348E-09,NaN,-0.6071551,-1.326223E-07,NaN,0.1021839,-6.048619E-07,NaN,-1.075279,2.078671E-05,-0.03039044,7.265369E-08,NaN,NaN,-0.5118424,8.847529E-11,-4.60934E-08,-1.104722E-07,-4.836886E-11,-2.861022E-08
717.9411,-0.822026,-2.032617E-09,NaN,-0.6070422,-1.326234E-07,NaN,0.09924217,-6.048965E-07,NaN,-1.074557,2.078714E-05,-0.02695184,7.268971E-08,NaN,NaN,-0.51166,9.31319E-11,-3.119224E-08,-1.104741E-07,1.73977E-09,-2.622604E-08
717.9565,-0.822026,-2.032617E-09,NaN,-0.6070422,-1.326234E-07,NaN,0.09924217,-6.048965E-07,NaN,-1.074557,2.078714E-05,-0.02695184,7.268971E-08,NaN,NaN,-0.51166,9.31319E-11,-3.119224E-08,-1.104741E-07,1.73977E-09,-2.622604E-08
717.9715,-0.8181021,-2.031887E-09,NaN,-0.6069345,-1.326245E-07,NaN,0.09636115,-6.049332E-07,NaN,-1.073879,2.078758E-05,-0.02358123,7.272779E-08,NaN,NaN,-0.5114811,9.778852E-11,-1.450294E-08,-1.104759E-07,4.123956E-09,-2.861022E-08
717.9879,-0.8146297,-2.031157E-09,NaN,-0.6068444,-1.326258E-07,NaN,0.09415424,-6.052404E-07,NaN,-1.073179,2.078802E-05,-0.02114671,7.303633E-08,NaN,NaN,-0.5113516,9.778852E-11,-1.39069E-08,-1.104759E-07,7.700235E-09,-2.622604E-08
718.0038,-0.8114498,-2.030427E-09,NaN,-0.6067654,-1.326267E-07,NaN,0.09207191,-6.056968E-07,NaN,-1.072546,2.078848E-05,-0.01875465,7.349412E-08,NaN,NaN,-0.5112246,8.84753E-11,-7.946432E-09,-1.104755E-07,4.123956E-09,-2.622604E-08
718.019,-0.8114498,-2.030427E-09,NaN,-0.6067654,-1.326267E-07,NaN,0.09207191,-6.056968E-07,NaN,-1.072546,2.078848E-05,-0.01875465,7.349412E-08,NaN,NaN,-0.5112246,8.84753E-11,-7.946432E-09,-1.104755E-07,4.123956E-09,-2.622604E-08
718.0342,-0.8084638,-2.029697E-09,NaN,-0.6066935,-1.326273E-07,NaN,0.09005433,-6.062261E-07,NaN,-1.071971,2.078893E-05,-0.01640802,7.40248E-08,NaN,NaN,-0.5111,8.381868E-11,3.982183E-10,-1.10475E-07,7.104188E-09,-2.622604E-08
718.0502,-0.8056102,-2.028967E-09,NaN,-0.6066263,-1.326277E-07,NaN,0.08807859,-6.067901E-07,NaN,-1.07144,2.078939E-05,-0.01410745,7.459022E-08,NaN,NaN,-0.5109779,7.450546E-11,8.742869E-09,-1.104744E-07,7.700235E-09,-2.622604E-08
718.0662,-0.8031952,-2.028236E-09,NaN,-0.606576,-1.326281E-07,NaN,0.08675851,-6.073712E-07,NaN,-1.070887,2.078986E-05,-0.01271862,7.517272E-08,NaN,NaN,-0.510904,6.053562E-11,3.378451E-09,-1.104737E-07,1.127651E-08,-2.622604E-08
718.0817,-0.8010602,-2.027506E-09,NaN,-0.6065362,-1.326284E-07,NaN,0.0855447,-6.079549E-07,NaN,-1.070402,2.079032E-05,-0.01135205,7.575786E-08,NaN,NaN,-0.5108314,4.656578E-11,-1.978278E-10,-1.10473E-07,1.127651E-08,-2.622604E-08
718.0975,-0.8010602,-2.027506E-09,NaN,-0.6065362,-1.326284E-07,NaN,0.0855447,-6.079549E-07,NaN,-1.070402,2.079032E-05,-0.01135205,7.575786E-08,NaN,NaN,-0.5108314,4.656578E-11,-1.978278E-10,-1.10473E-07,1.127651E-08,-2.622604E-08
718.1125,-0.7991065,-2.026776E-09,NaN,-0.6065029,-1.326287E-07,NaN,0.08437778,-6.085356E-07,NaN,-1.069976,2.079079E-05,-0.01001078,7.633993E-08,NaN,NaN,-0.5107602,3.259594E-11,2.782404E-09,-1.104723E-07,8.296282E-09,-2.622604E-08
718.129,-0.797273,-2.026045E-09,NaN,-0.6064736,-1.32629E-07,NaN,0.08323525,-6.091104E-07,NaN,-1.069595,2.079124E-05,-0.008695665,7.691617E-08,NaN,NaN,-0.5106905,3.259594E-11,7.550776E-09,-1.104715E-07,2.931864E-09,-2.622604E-08
718.1445,-0.7958658,-2.025314E-09,NaN,-0.6064607,-1.326292E-07,NaN,0.08273157,-6.096767E-07,NaN,-1.069192,2.079171E-05,-0.008271106,7.748386E-08,NaN,NaN,-0.510668,1.86261E-11,-2.582014E-09,-1.104708E-07,-6.444145E-10,-2.622604E-08
718.1604,-0.7947267,-2.024584E-09,NaN,-0.6064577,-1.326295E-07,NaN,0.08231716,-6.102318E-07,NaN,-1.068858,2.079217E-05,-0.00785034,7.804035E-08,NaN,NaN,-0.5106458,4.656262E-12,-1.033062E-08,-1.1047E-07,-6.444145E-10,-2.622604E-08
718.1759,-0.7947267,-2.024584E-09,NaN,-0.6064577,-1.326295E-07,NaN,0.08231716,-6.102318E-07,NaN,-1.068858,2.079217E-05,-0.00785034,7.804035E-08,NaN,NaN,-0.5106458,4.656262E-12,-1.033062E-08,-1.1047E-07,-6.444145E-10,-2.622604E-08
718.1909,-0.7937572,-2.023853E-09,NaN,-0.6064597,-1.326297E-07,NaN,0.0819331,-6.107759E-07,NaN,-1.068584,2.079262E-05,-0.007436521,7.858586E-08,NaN,NaN,-0.5106241,4.656262E-12,-1.39069E-08,-1.104693E-07,2.335818E-09,-2.622604E-08
718.2073,-0.7928962,-2.023122E-09,NaN,-0.6064647,-1.3263E-07,NaN,0.08155731,-6.113092E-07,NaN,-1.068354,2.079309E-05,-0.007030724,7.91206E-08,NaN,NaN,-0.5106027,-9.313576E-12,-1.748317E-08,-1.104685E-07,5.31605E-09,-2.622604E-08
718.2231,-0.7924499,-2.02239E-09,NaN,-0.6064852,-1.326302E-07,NaN,0.08180501,-6.11832E-07,NaN,-1.068103,2.079355E-05,-0.007497122,7.964479E-08,NaN,NaN,-0.5106276,-2.328341E-11,-3.238434E-08,-1.104678E-07,7.104189E-09,-2.622604E-08
718.239,-0.7924499,-2.02239E-09,NaN,-0.6064852,-1.326302E-07,NaN,0.08180501,-6.11832E-07,NaN,-1.068103,2.079355E-05,-0.007497122,7.964479E-08,NaN,NaN,-0.5106276,-2.328341E-11,-3.238434E-08,-1.104678E-07,7.104189E-09,-2.622604E-08
718.2539,-0.7922601,-2.021659E-09,NaN,-0.6065148,-1.326304E-07,NaN,0.08212607,-6.123445E-07,NaN,-1.067921,2.079401E-05,-0.007950365,8.015864E-08,NaN,NaN,-0.5106519,-3.259664E-11,-4.549736E-08,-1.104671E-07,2.335818E-09,-2.622604E-08
718.2703,-0.7922285,-2.020928E-09,NaN,-0.6065496,-1.326307E-07,NaN,0.08246212,-6.128467E-07,NaN,-1.067799,2.079447E-05,-0.008393747,8.066233E-08,NaN,NaN,-0.5106758,-4.190986E-11,-5.563015E-08,-1.104663E-07,3.527911E-09,-2.622604E-08
718.2861,-0.7922931,-2.020196E-09,NaN,-0.6065874,-1.326309E-07,NaN,0.08279112,-6.133391E-07,NaN,-1.067723,2.079493E-05,-0.008828593,8.115608E-08,NaN,NaN,-0.5106992,-5.122309E-11,-6.576294E-08,-1.104656E-07,5.912097E-09,-2.622604E-08
718.3019,-0.7927607,-2.019465E-09,NaN,-0.6066403,-1.326311E-07,NaN,0.08372946,-6.138188E-07,NaN,-1.067626,2.07954E-05,-0.01011981,8.163725E-08,NaN,NaN,-0.5107679,-6.519293E-11,-8.722061E-08,-1.104649E-07,5.31605E-09,-2.622604E-08
718.3176,-0.7927607,-2.019465E-09,NaN,-0.6066403,-1.326311E-07,NaN,0.08372946,-6.138188E-07,NaN,-1.067626,2.07954E-05,-0.01011981,8.163725E-08,NaN,NaN,-0.5107679,-6.519293E-11,-8.722061E-08,-1.104649E-07,5.31605E-09,-2.622604E-08
718.3342,-0.7934734,-2.018733E-09,NaN,-0.606702,-1.326314E-07,NaN,0.08472636,-6.139753E-07,NaN,-1.067599,2.079585E-05,-0.01138223,8.179516E-08,NaN,NaN,-0.5108352,-6.519293E-11,-1.033139E-07,-1.104641E-07,5.912097E-09,-2.622604E-08
718.3494,-0.7943331,-2.018002E-09,NaN,-0.6067684,-1.326316E-07,NaN,0.08572401,-6.141287E-07,NaN,-1.067632,2.079631E-05,-0.01261933,8.194991E-08,NaN,NaN,-0.5109012,-6.984954E-11,-1.170229E-07,-1.104634E-07,4.720004E-09,-2.622604E-08
718.3652,-0.795279,-2.017271E-09,NaN,-0.606837,-1.326318E-07,NaN,0.08670121,-6.142789E-07,NaN,-1.067709,2.079676E-05,-0.01383266,8.210156E-08,NaN,NaN,-0.5109658,-6.519293E-11,-1.283478E-07,-1.104627E-07,3.527911E-09,-2.622604E-08
718.381,-0.7966179,-2.016539E-09,NaN,-0.6069204,-1.32632E-07,NaN,0.08827499,-6.144233E-07,NaN,-1.067766,2.079721E-05,-0.01588879,8.224734E-08,NaN,NaN,-0.5110751,-6.984954E-11,-1.492094E-07,-1.104619E-07,4.720004E-09,-2.622604E-08
718.3967,-0.7966179,-2.016539E-09,NaN,-0.6069204,-1.32632E-07,NaN,0.08827499,-6.144233E-07,NaN,-1.067766,2.079721E-05,-0.01588879,8.224734E-08,NaN,NaN,-0.5110751,-6.984954E-11,-1.492094E-07,-1.104619E-07,4.720004E-09,-2.622604E-08
718.4115,-0.7981916,-2.015807E-09,NaN,-0.6070117,-1.326323E-07,NaN,0.08989351,-6.145647E-07,NaN,-1.067893,2.079767E-05,-0.01790163,8.239019E-08,NaN,NaN,-0.5111821,-7.450616E-11,-1.68879E-07,-1.104612E-07,6.508143E-09,-2.622604E-08
718.4282,-0.799902,-2.015076E-09,NaN,-0.6071071,-1.326325E-07,NaN,0.09149953,-6.147033E-07,NaN,-1.06808,2.079812E-05,-0.01987487,8.253018E-08,NaN,NaN,-0.511287,-6.984954E-11,-1.885485E-07,-1.104605E-07,1.739772E-09,-2.622604E-08
718.4437,-0.8016884,-2.014344E-09,NaN,-0.6072042,-1.326327E-07,NaN,0.09307232,-6.148391E-07,NaN,-1.068311,2.079857E-05,-0.02181034,8.266735E-08,NaN,NaN,-0.5113898,-7.450616E-11,-2.034497E-07,-1.104598E-07,2.931865E-09,-2.622604E-08
718.4597,-0.8016884,-2.014344E-09,NaN,-0.6072042,-1.326327E-07,NaN,0.09307232,-6.148391E-07,NaN,-1.068311,2.079857E-05,-0.02181034,8.266735E-08,NaN,NaN,-0.5113898,-7.450616E-11,-2.034497E-07,-1.104598E-07,2.931865E-09,-2.622604E-08
718.4745,-0.8038577,-2.013612E-09,NaN,-0.6073154,-1.326329E-07,NaN,0.09522989,-6.149692E-07,NaN,-1.068523,2.079903E-05,-0.02457708,8.279894E-08,NaN,NaN,-0.5115364,-7.916277E-11,-2.302718E-07,-1.104591E-07,-6.444139E-10,-2.622604E-08
718.4913,-0.8062518,-2.01288E-09,NaN,-0.607434,-1.326332E-07,NaN,0.09741932,-6.150968E-07,NaN,-1.068804,2.079949E-05,-0.02728703,8.292788E-08,NaN,NaN,-0.5116801,-8.381939E-11,-2.541136E-07,-1.104584E-07,4.123958E-09,-2.622604E-08
718.507,-0.8087727,-2.012148E-09,NaN,-0.607556,-1.326334E-07,NaN,0.09958397,-6.152217E-07,NaN,-1.069145,2.079994E-05,-0.02994415,8.305422E-08,NaN,NaN,-0.511821,-8.8476E-11,-2.743792E-07,-1.104576E-07,1.739772E-09,-2.622604E-08
718.5228,-0.8113599,-2.011416E-09,NaN,-0.6076792,-1.326336E-07,NaN,0.1017036,-6.153413E-07,NaN,-1.069531,2.080039E-05,-0.03255053,8.317519E-08,NaN,NaN,-0.511959,-8.381939E-11,-2.922606E-07,-1.104569E-07,-1.836507E-09,-2.622604E-08
718.5388,-0.8113599,-2.011416E-09,NaN,-0.6076792,-1.326336E-07,NaN,0.1017036,-6.153413E-07,NaN,-1.069531,2.080039E-05,-0.03255053,8.317519E-08,NaN,NaN,-0.511959,-8.381939E-11,-2.922606E-07,-1.104569E-07,-1.836507E-09,-2.622604E-08
718.5535,-0.8143203,-2.010685E-09,NaN,-0.6078161,-1.326326E-07,NaN,0.1043972,-6.149571E-07,NaN,-1.069896,2.080084E-05,-0.03597851,8.268299E-08,NaN,NaN,-0.5121402,-8.381939E-11,-3.22659E-07,-1.104582E-07,-6.604878E-09,-2.861022E-08
718.5704,-0.817496,-2.009953E-09,NaN,-0.6079598,-1.326328E-07,NaN,0.1071107,-6.151151E-07,NaN,-1.070332,2.08013E-05,-0.03933706,8.27546E-08,NaN,NaN,-0.5123178,-8.381939E-11,-3.476929E-07,-1.104577E-07,-5.412786E-09,-2.622604E-08
718.5859,-0.820789,-2.009221E-09,NaN,-0.6081064,-1.326331E-07,NaN,0.109788,-6.152937E-07,NaN,-1.070827,2.080175E-05,-0.04263045,8.286428E-08,NaN,NaN,-0.5124918,-8.381939E-11,-3.697467E-07,-1.10457E-07,-7.200925E-09,-2.622604E-08
718.6019,-0.8241389,-2.008488E-09,NaN,-0.6082538,-1.326333E-07,NaN,0.1124095,-6.154644E-07,NaN,-1.071366,2.08022E-05,-0.04586108,8.298023E-08,NaN,NaN,-0.5126625,-7.450617E-11,-3.923964E-07,-1.104563E-07,-4.220693E-09,-2.622604E-08
718.6177,-0.8241389,-2.008488E-09,NaN,-0.6082538,-1.326333E-07,NaN,0.1124095,-6.154644E-07,NaN,-1.071366,2.08022E-05,-0.04586108,8.298023E-08,NaN,NaN,-0.5126625,-7.450617E-11,-3.923964E-07,-1.104563E-07,-4.220693E-09,-2.622604E-08
718.6326,-0.827853,-2.007756E-09,NaN,-0.6084144,-1.326336E-07,NaN,0.115595,-6.156244E-07,NaN,-1.071886,2.080266E-05,-0.04990528,8.309666E-08,NaN,NaN,-0.5128756,-7.450617E-11,-4.275632E-07,-1.104556E-07,-2.432554E-09,-2.622604E-08
718.649,-0.8317733,-2.007024E-09,NaN,-0.6085814,-1.326326E-07,NaN,0.1187893,-6.152804E-07,NaN,-1.072475,2.080312E-05,-0.05386817,8.260839E-08,NaN,NaN,-0.5130845,-6.984955E-11,-4.543853E-07,-1.104569E-07,-5.412786E-09,-2.861022E-08
718.6646,-0.8358019,-2.006292E-09,NaN,-0.6087508,-1.326328E-07,NaN,0.1219369,-6.154656E-07,NaN,-1.073123,2.080358E-05,-0.05775439,8.26783E-08,NaN,NaN,-0.5132892,-6.984955E-11,-4.800153E-07,-1.104564E-07,-1.836507E-09,-2.622604E-08
718.6805,-0.8398786,-2.005559E-09,NaN,-0.6089205,-1.326331E-07,NaN,0.1250185,-6.156685E-07,NaN,-1.073816,2.080404E-05,-0.06156664,8.278914E-08,NaN,NaN,-0.51349,-6.984955E-11,-5.044532E-07,-1.104557E-07,-3.0286E-09,-2.622604E-08
718.6966,-0.8398786,-2.005559E-09,NaN,-0.6089205,-1.326331E-07,NaN,0.1250185,-6.156685E-07,NaN,-1.073816,2.080404E-05,-0.06156664,8.278914E-08,NaN,NaN,-0.51349,-6.984955E-11,-5.044532E-07,-1.104557E-07,-3.0286E-09,-2.622604E-08
718.7112,-0.8443107,-2.004827E-09,NaN,-0.6091031,-1.326333E-07,NaN,0.1286552,-6.158589E-07,NaN,-1.074489,2.08045E-05,-0.06618596,8.290622E-08,NaN,NaN,-0.5137326,-6.984955E-11,-5.443883E-07,-1.10455E-07,-3.624646E-09,-2.622604E-08
718.7279,-0.8489404,-2.004094E-09,NaN,-0.6092917,-1.326336E-07,NaN,0.1322903,-6.160349E-07,NaN,-1.075232,2.080496E-05,-0.07071275,8.302376E-08,NaN,NaN,-0.5139704,-6.519293E-11,-5.765748E-07,-1.104544E-07,-3.624646E-09,-2.622604E-08
718.7434,-0.8536699,-2.003361E-09,NaN,-0.6094822,-1.326338E-07,NaN,0.1358689,-6.161965E-07,NaN,-1.076033,2.080542E-05,-0.07515205,8.313892E-08,NaN,NaN,-0.5142035,-6.984955E-11,-6.05185E-07,-1.104537E-07,1.739771E-09,-2.622604E-08
718.7596,-0.8536699,-2.003361E-09,NaN,-0.6094822,-1.326338E-07,NaN,0.1358689,-6.161965E-07,NaN,-1.076033,2.080542E-05,-0.07515205,8.313892E-08,NaN,NaN,-0.5142035,-6.984955E-11,-6.05185E-07,-1.104537E-07,1.739771E-09,-2.622604E-08
718.7741,-0.8587837,-2.002629E-09,NaN,-0.6096864,-1.326328E-07,NaN,0.1399984,-6.158538E-07,NaN,-1.076828,2.080588E-05,-0.08038995,8.264968E-08,NaN,NaN,-0.514478,-6.519293E-11,-6.451201E-07,-1.104549E-07,-3.0286E-09,-2.861022E-08
718.7904,-0.8641096,-2.001896E-09,NaN,-0.6098967,-1.32633E-07,NaN,0.1441154,-6.160396E-07,NaN,-1.077703,2.080634E-05,-0.08552323,8.271839E-08,NaN,NaN,-0.5147469,-6.519293E-11,-6.802869E-07,-1.104544E-07,-4.816739E-09,-2.622604E-08
718.8065,-0.8695409,-2.001163E-09,NaN,-0.6101088,-1.326333E-07,NaN,0.1481641,-6.1624E-07,NaN,-1.078643,2.08068E-05,-0.09055745,8.282524E-08,NaN,NaN,-0.5150105,-6.519293E-11,-7.130694E-07,-1.104538E-07,-4.220693E-09,-2.622604E-08
718.8218,-0.8750122,-2.000429E-09,NaN,-0.6103206,-1.326335E-07,NaN,0.1521258,-6.164276E-07,NaN,-1.079631,2.080726E-05,-0.09549604,8.29384E-08,NaN,NaN,-0.515269,-6.519293E-11,-7.434678E-07,-1.104531E-07,-2.432554E-09,-2.622604E-08
718.8392,-0.8750122,-2.000429E-09,NaN,-0.6103206,-1.326335E-07,NaN,0.1521258,-6.164276E-07,NaN,-1.079631,2.080726E-05,-0.09549604,8.29384E-08,NaN,NaN,-0.515269,-6.519293E-11,-7.434678E-07,-1.104531E-07,-2.432554E-09,-2.622604E-08
718.8528,-0.8808277,-1.999696E-09,NaN,-0.6105447,-1.326337E-07,NaN,0.156624,-6.166006E-07,NaN,-1.080605,2.080771E-05,-0.1012302,8.305209E-08,NaN,NaN,-0.5155683,-6.053632E-11,-7.875752E-07,-1.104524E-07,-8.393018E-09,-2.622604E-08
718.8693,-0.8868275,-1.998963E-09,NaN,-0.610774,-1.32634E-07,NaN,0.1610996,-6.167592E-07,NaN,-1.081649,2.080816E-05,-0.1068501,8.316349E-08,NaN,NaN,-0.5158616,-5.587971E-11,-8.287024E-07,-1.104517E-07,-8.393018E-09,-2.622604E-08
718.8849,-0.8929127,-1.99823E-09,NaN,-0.6110045,-1.32633E-07,NaN,0.1654994,-6.16414E-07,NaN,-1.082753,2.080862E-05,-0.1123615,8.267134E-08,NaN,NaN,-0.5161491,-5.12231E-11,-8.632731E-07,-1.10453E-07,-8.989065E-09,-2.861022E-08
718.9012,-0.8990225,-1.997496E-09,NaN,-0.6112342,-1.326332E-07,NaN,0.1698059,-6.165965E-07,NaN,-1.083901,2.080908E-05,-0.1177682,8.273639E-08,NaN,NaN,-0.516431,-5.12231E-11,-8.990359E-07,-1.104525E-07,-6.008833E-09,-2.622604E-08
718.9164,-0.8990225,-1.997496E-09,NaN,-0.6112342,-1.326332E-07,NaN,0.1698059,-6.165965E-07,NaN,-1.083901,2.080908E-05,-0.1177682,8.273639E-08,NaN,NaN,-0.516431,-5.12231E-11,-8.990359E-07,-1.104525E-07,-6.008833E-09,-2.622604E-08
718.9315,-0.9054644,-1.996763E-09,NaN,-0.611476,-1.326334E-07,NaN,0.1746432,-6.167935E-07,NaN,-1.085032,2.080954E-05,-0.1239678,8.283965E-08,NaN,NaN,-0.5167533,-5.12231E-11,-9.473157E-07,-1.104519E-07,-7.796972E-09,-2.622604E-08
718.9481,-0.9120802,-1.996029E-09,NaN,-0.6117225,-1.326337E-07,NaN,0.1794505,-6.169778E-07,NaN,-1.086232,2.081001E-05,-0.1300436,8.294928E-08,NaN,NaN,-0.5170691,-5.587971E-11,-9.908271E-07,-1.104512E-07,-1.018116E-08,-2.622604E-08
718.9639,-0.9187722,-1.995295E-09,NaN,-0.61197,-1.326339E-07,NaN,0.1841751,-6.171476E-07,NaN,-1.087489,2.081046E-05,-0.1360019,8.305953E-08,NaN,NaN,-0.5173787,-5.12231E-11,-1.030762E-06,-1.104505E-07,-7.796972E-09,-2.622604E-08
718.9797,-0.9187722,-1.995295E-09,NaN,-0.61197,-1.326339E-07,NaN,0.1841751,-6.171476E-07,NaN,-1.087489,2.081046E-05,-0.1360019,8.305953E-08,NaN,NaN,-0.5173787,-5.12231E-11,-1.030762E-06,-1.104505E-07,-7.796972E-09,-2.622604E-08
718.9948,-0.9254804,-1.994561E-09,NaN,-0.6122165,-1.326342E-07,NaN,0.1887997,-6.173057E-07,NaN,-1.08879,2.081091E-05,-0.1418468,8.317038E-08,NaN,NaN,-0.5176822,-4.656648E-11,-1.067121E-06,-1.104498E-07,-3.0286E-09,-2.622604E-08
719.0107,-0.9325131,-1.993827E-09,NaN,-0.6124747,-1.326332E-07,NaN,0.1939492,-6.169578E-07,NaN,-1.090074,2.081137E-05,-0.1484829,8.267569E-08,NaN,NaN,-0.5180257,-4.190987E-11,-1.115401E-06,-1.104511E-07,5.476781E-10,-2.861022E-08
719.0269,-0.939712,-1.993093E-09,NaN,-0.6127375,-1.326334E-07,NaN,0.1990613,-6.171369E-07,NaN,-1.091426,2.081183E-05,-0.154986,8.273742E-08,NaN,NaN,-0.5183623,-4.190987E-11,-1.158912E-06,-1.104506E-07,-3.0286E-09,-2.622604E-08
719.0424,-0.94698,-1.992359E-09,NaN,-0.6130009,-1.326336E-07,NaN,0.2040838,-6.173305E-07,NaN,-1.092835,2.081229E-05,-0.1613629,8.283742E-08,NaN,NaN,-0.5186924,-4.190987E-11,-1.198251E-06,-1.1045E-07,-1.836508E-09,-2.622604E-08
