JMolnar6/NonAnthroHands_User_Study/HandsLoggerWithURDF/tempdata/files/Reachy_JointMotion_gesture_2_8.csv
Time,r_shoulder,r_shoulder_x,r_upper_arm,r_forearm,r_wrist,r_wrist2hand,
97.307,0.04453227,-3.096886E-08,NaN,-1.899983,-1.382041E-07,NaN,0.4857731,4.445263E-08,NaN,-2.177854,3.281755E-06,-0.3512843,-1.255093E-08,NaN,NaN,-0.01996372,1.350413E-10,5.482425E-07,-1.158947E-07,5.924351E-09,-2.861022E-08
97.32337,0.04452689,-3.096763E-08,NaN,-1.901035,-1.38204E-07,NaN,0.4857106,4.444647E-08,NaN,-2.178054,3.282504E-06,-0.3514847,-1.254229E-08,NaN,NaN,-0.01996416,1.303847E-10,5.42282E-07,-1.158952E-07,4.732258E-09,-2.622604E-08
97.33811,0.04452689,-3.096763E-08,NaN,-1.901035,-1.38204E-07,NaN,0.4857106,4.444647E-08,NaN,-2.178054,3.282504E-06,-0.3514847,-1.254229E-08,NaN,NaN,-0.01996416,1.303847E-10,5.42282E-07,-1.158952E-07,4.732258E-09,-2.622604E-08
97.35335,0.04451915,-3.09664E-08,NaN,-1.902549,-1.382039E-07,NaN,0.4856919,4.444054E-08,NaN,-2.178314,3.283249E-06,-0.3516684,-1.253387E-08,NaN,NaN,-0.01996449,1.303847E-10,5.363215E-07,-1.158957E-07,5.924351E-09,-2.861022E-08
97.3693,0.04451155,-3.096517E-08,NaN,-1.904343,-1.382038E-07,NaN,0.4856999,4.443483E-08,NaN,-2.178574,3.283994E-06,-0.351814,-1.252568E-08,NaN,NaN,-0.01996472,1.303847E-10,5.29169E-07,-1.158963E-07,4.732258E-09,-2.622604E-08
97.38506,0.04450497,-3.096394E-08,NaN,-1.9063,-1.382037E-07,NaN,0.4857165,4.442935E-08,NaN,-2.178812,3.28473E-06,-0.3519324,-1.251772E-08,NaN,NaN,-0.01996489,1.396979E-10,5.232085E-07,-1.158968E-07,4.732258E-09,-2.861022E-08
97.40063,0.04450672,-3.096271E-08,NaN,-1.907588,-1.382036E-07,NaN,0.4857848,4.442338E-08,NaN,-2.178805,3.28548E-06,-0.3518103,-1.250927E-08,NaN,NaN,-0.01996455,1.350413E-10,5.29169E-07,-1.158973E-07,7.116444E-09,-2.622604E-08
97.4166,0.04450672,-3.096271E-08,NaN,-1.907588,-1.382036E-07,NaN,0.4857848,4.442338E-08,NaN,-2.178805,3.28548E-06,-0.3518103,-1.250927E-08,NaN,NaN,-0.01996455,1.350413E-10,5.29169E-07,-1.158973E-07,7.116444E-09,-2.622604E-08
97.43156,0.04451152,-3.096148E-08,NaN,-1.908458,-1.382035E-07,NaN,0.4858066,4.441764E-08,NaN,-2.178718,3.286225E-06,-0.3516944,-1.250104E-08,NaN,NaN,-0.01996429,1.350413E-10,5.339373E-07,-1.158978E-07,2.348072E-09,-2.861022E-08
97.44783,0.04451727,-3.096025E-08,NaN,-1.909065,-1.382034E-07,NaN,0.4857984,4.441212E-08,NaN,-2.178617,3.28697E-06,-0.3516101,-1.249304E-08,NaN,NaN,-0.01996413,1.350413E-10,5.375136E-07,-1.158984E-07,1.15598E-09,-2.622604E-08
97.46359,0.04452298,-3.095903E-08,NaN,-1.909508,-1.382033E-07,NaN,0.4857788,4.440682E-08,NaN,-2.178524,3.287715E-06,-0.3515483,-1.248527E-08,NaN,NaN,-0.01996404,1.350413E-10,5.375136E-07,-1.158989E-07,3.540165E-09,-2.861022E-08
97.48249,0.04453811,-3.09578E-08,NaN,-1.909086,-1.382032E-07,NaN,0.485806,4.440174E-08,NaN,-2.178221,3.28846E-06,-0.3512776,-1.24777E-08,NaN,NaN,-0.0199635,1.350413E-10,5.434741E-07,-1.158994E-07,4.732258E-09,-2.622604E-08
97.49659,0.04453811,-3.09578E-08,NaN,-1.909086,-1.382032E-07,NaN,0.485806,4.440174E-08,NaN,-2.178221,3.28846E-06,-0.3512776,-1.24777E-08,NaN,NaN,-0.0199635,1.350413E-10,5.434741E-07,-1.158994E-07,4.732258E-09,-2.622604E-08
97.50951,0.04455623,-3.095657E-08,NaN,-1.908134,-1.382031E-07,NaN,0.4857897,4.439687E-08,NaN,-2.17787,3.289205E-06,-0.3510322,-1.247035E-08,NaN,NaN,-0.01996307,1.350413E-10,5.482425E-07,-1.158999E-07,7.116444E-09,-2.861022E-08
97.52599,0.04457441,-3.095534E-08,NaN,-1.906858,-1.38203E-07,NaN,0.4857485,4.439221E-08,NaN,-2.177531,3.28995E-06,-0.3508302,-1.246321E-08,NaN,NaN,-0.01996276,1.350413E-10,5.494346E-07,-1.159005E-07,9.50063E-09,-2.622604E-08
97.54182,0.04459154,-3.095411E-08,NaN,-1.905388,-1.382029E-07,NaN,0.4857004,4.438775E-08,NaN,-2.177218,3.290686E-06,-0.3506588,-1.245626E-08,NaN,NaN,-0.01996252,1.443546E-10,5.553951E-07,-1.15901E-07,3.540165E-09,-2.861022E-08
97.55785,0.04459154,-3.095411E-08,NaN,-1.905388,-1.382029E-07,NaN,0.4857004,4.438775E-08,NaN,-2.177218,3.290686E-06,-0.3506588,-1.245626E-08,NaN,NaN,-0.01996252,1.443546E-10,5.553951E-07,-1.15901E-07,3.540165E-09,-2.861022E-08
97.57256,0.04461724,-3.095288E-08,NaN,-1.903044,-1.382028E-07,NaN,0.4857017,4.438278E-08,NaN,-2.17671,3.291431E-06,-0.3502856,-1.244881E-08,NaN,NaN,-0.01996184,1.443546E-10,5.625477E-07,-1.159015E-07,5.924351E-09,-2.622604E-08
97.58914,0.04464461,-3.095165E-08,NaN,-1.900171,-1.382027E-07,NaN,0.4856623,4.437802E-08,NaN,-2.176165,3.292167E-06,-0.3499431,-1.244157E-08,NaN,NaN,-0.01996128,1.536678E-10,5.66124E-07,-1.15902E-07,1.069272E-08,-2.861022E-08
97.60447,0.04467085,-3.095042E-08,NaN,-1.896985,-1.382026E-07,NaN,0.4855999,4.437346E-08,NaN,-2.175641,3.292917E-06,-0.3496485,-1.243454E-08,NaN,NaN,-0.01996084,1.490112E-10,5.685081E-07,-1.159025E-07,1.546109E-08,-2.622604E-08
97.62033,0.04469509,-3.094919E-08,NaN,-1.89362,-1.382025E-07,NaN,0.485532,4.436911E-08,NaN,-2.175151,3.293662E-06,-0.3493884,-1.24277E-08,NaN,NaN,-0.01996048,1.490112E-10,5.756607E-07,-1.15903E-07,1.4269E-08,-2.861022E-08
97.6358,0.04469509,-3.094919E-08,NaN,-1.89362,-1.382025E-07,NaN,0.485532,4.436911E-08,NaN,-2.175151,3.293662E-06,-0.3493884,-1.24277E-08,NaN,NaN,-0.01996048,1.490112E-10,5.756607E-07,-1.15903E-07,1.4269E-08,-2.861022E-08
97.65068,0.04472733,-3.094796E-08,NaN,-1.889398,-1.382024E-07,NaN,0.4855133,4.436494E-08,NaN,-2.174471,3.294416E-06,-0.3489322,-1.242105E-08,NaN,NaN,-0.01995969,1.443546E-10,5.851974E-07,-1.159035E-07,1.546109E-08,-2.622604E-08
97.6676,0.04476021,-3.094673E-08,NaN,-1.884667,-1.382023E-07,NaN,0.4854548,4.436096E-08,NaN,-2.173759,3.295166E-06,-0.3485107,-1.241459E-08,NaN,NaN,-0.01995903,1.443546E-10,5.947342E-07,-1.159041E-07,1.307691E-08,-2.861022E-08
97.68307,0.04479104,-3.09455E-08,NaN,-1.879644,-1.382022E-07,NaN,0.4853744,4.435718E-08,NaN,-2.173073,3.295911E-06,-0.3481404,-1.240833E-08,NaN,NaN,-0.01995849,1.490112E-10,6.042709E-07,-1.159046E-07,1.069272E-08,-2.622604E-08
97.69888,0.04479104,-3.09455E-08,NaN,-1.879644,-1.382022E-07,NaN,0.4853744,4.435718E-08,NaN,-2.173073,3.295911E-06,-0.3481404,-1.240833E-08,NaN,NaN,-0.01995849,1.490112E-10,6.042709E-07,-1.159046E-07,1.069272E-08,-2.622604E-08
97.71383,0.04482928,-3.094427E-08,NaN,-1.873701,-1.382021E-07,NaN,0.4853348,4.435569E-08,NaN,-2.172202,3.29667E-06,-0.3475906,-1.240436E-08,NaN,NaN,-0.01995758,1.443546E-10,6.138076E-07,-1.159051E-07,1.307691E-08,-2.861022E-08
97.72979,0.04486689,-3.094305E-08,NaN,-1.867219,-1.38202E-07,NaN,0.4852544,4.435434E-08,NaN,-2.17131,3.297429E-06,-0.3470862,-1.240053E-08,NaN,NaN,-0.01995681,1.443546E-10,6.209602E-07,-1.159056E-07,1.307691E-08,-2.622604E-08
97.74578,0.04490129,-3.094182E-08,NaN,-1.860434,-1.382019E-07,NaN,0.485153,4.435313E-08,NaN,-2.170452,3.298193E-06,-0.3466398,-1.239684E-08,NaN,NaN,-0.01995618,1.443546E-10,6.269207E-07,-1.159061E-07,1.188482E-08,-2.861022E-08
97.76102,0.04493218,-3.094059E-08,NaN,-1.853492,-1.382019E-07,NaN,0.485048,4.435136E-08,NaN,-2.169641,3.298952E-06,-0.3462359,-1.239258E-08,NaN,NaN,-0.01995564,1.490112E-10,6.31689E-07,-1.159066E-07,1.4269E-08,-2.622604E-08
97.77716,0.04493218,-3.094059E-08,NaN,-1.853492,-1.382019E-07,NaN,0.485048,4.435136E-08,NaN,-2.169641,3.298952E-06,-0.3462359,-1.239258E-08,NaN,NaN,-0.01995564,1.490112E-10,6.31689E-07,-1.159066E-07,1.4269E-08,-2.622604E-08
97.79209,0.04497029,-3.093936E-08,NaN,-1.845724,-1.382018E-07,NaN,0.4849905,4.434973E-08,NaN,-2.168653,3.299715E-06,-0.3456486,-1.238847E-08,NaN,NaN,-0.0199547,1.490112E-10,6.424179E-07,-1.15907E-07,1.188482E-08,-2.861022E-08
97.80853,0.04500731,-3.093813E-08,NaN,-1.837482,-1.382017E-07,NaN,0.4848956,4.434824E-08,NaN,-2.167643,3.300474E-06,-0.3451038,-1.23845E-08,NaN,NaN,-0.0199539,1.536678E-10,6.543388E-07,-1.159075E-07,1.069272E-08,-2.622604E-08
97.82414,0.0450408,-3.09369E-08,NaN,-1.828985,-1.382016E-07,NaN,0.4847811,4.43469E-08,NaN,-2.166667,3.301247E-06,-0.3446159,-1.238068E-08,NaN,NaN,-0.01995323,1.443546E-10,6.638755E-07,-1.15908E-07,8.308538E-09,-2.861022E-08
97.83964,0.0450408,-3.09369E-08,NaN,-1.828985,-1.382016E-07,NaN,0.4847811,4.43469E-08,NaN,-2.166667,3.301247E-06,-0.3446159,-1.238068E-08,NaN,NaN,-0.01995323,1.443546E-10,6.638755E-07,-1.15908E-07,8.308538E-09,-2.861022E-08
97.85464,0.04507067,-3.093567E-08,NaN,-1.820369,-1.382015E-07,NaN,0.4846633,4.434569E-08,NaN,-2.165739,3.302006E-06,-0.3441709,-1.237699E-08,NaN,NaN,-0.01995265,1.490112E-10,6.710281E-07,-1.159085E-07,8.308538E-09,-2.622604E-08
97.87078,0.04510796,-3.093444E-08,NaN,-1.810957,-1.382014E-07,NaN,0.4845904,4.434462E-08,NaN,-2.164634,3.30277E-06,-0.3435477,-1.237345E-08,NaN,NaN,-0.01995168,1.490112E-10,6.841411E-07,-1.15909E-07,7.116445E-09,-2.861022E-08
97.8865,0.04514367,-3.093321E-08,NaN,-1.801098,-1.382013E-07,NaN,0.4844808,4.434369E-08,NaN,-2.163508,3.303529E-06,-0.3429694,-1.237003E-08,NaN,NaN,-0.01995085,1.536678E-10,6.936779E-07,-1.159095E-07,7.116445E-09,-2.622604E-08
97.90187,0.0451754,-3.093198E-08,NaN,-1.791008,-1.382013E-07,NaN,0.4843525,4.434218E-08,NaN,-2.162419,3.304293E-06,-0.3424495,-1.236604E-08,NaN,NaN,-0.01995016,1.536678E-10,7.032146E-07,-1.1591E-07,-3.6112E-11,-2.861022E-08
97.91778,0.0451754,-3.093198E-08,NaN,-1.791008,-1.382013E-07,NaN,0.4843525,4.434218E-08,NaN,-2.162419,3.304293E-06,-0.3424495,-1.236604E-08,NaN,NaN,-0.01995016,1.536678E-10,7.032146E-07,-1.1591E-07,-3.6112E-11,-2.861022E-08
97.93285,0.04520327,-3.093075E-08,NaN,-1.78082,-1.382012E-07,NaN,0.4842214,4.451359E-08,NaN,-2.16138,3.305057E-06,-0.341974,-1.253497E-08,NaN,NaN,-0.01994956,1.536678E-10,7.103671E-07,-1.159105E-07,4.732259E-09,-2.622604E-08
97.94958,0.04523868,-3.092952E-08,NaN,-1.769857,-1.382011E-07,NaN,0.484133,4.468179E-08,NaN,-2.160166,3.305816E-06,-0.3413266,-1.270069E-08,NaN,NaN,-0.01994859,1.583244E-10,7.234802E-07,-1.15911E-07,9.500631E-09,-2.861022E-08
97.96484,0.04527194,-3.092828E-08,NaN,-1.758466,-1.38201E-07,NaN,0.484009,4.484685E-08,NaN,-2.158935,3.306575E-06,-0.3407267,-1.286327E-08,NaN,NaN,-0.01994776,1.62981E-10,7.365932E-07,-1.159114E-07,8.308539E-09,-2.622604E-08
97.98201,0.04530077,-3.092705E-08,NaN,-1.746864,-1.382009E-07,NaN,0.4838676,4.500883E-08,NaN,-2.157742,3.307334E-06,-0.3401866,-1.302277E-08,NaN,NaN,-0.01994707,1.676376E-10,7.449379E-07,-1.159119E-07,7.116446E-09,-2.861022E-08
97.99627,0.04530077,-3.092705E-08,NaN,-1.746864,-1.382009E-07,NaN,0.4838676,4.500883E-08,NaN,-2.157742,3.307334E-06,-0.3401866,-1.302277E-08,NaN,NaN,-0.01994707,1.676376E-10,7.449379E-07,-1.159119E-07,7.116446E-09,-2.861022E-08
98.01115,0.04532551,-3.092582E-08,NaN,-1.735183,-1.382008E-07,NaN,0.4837241,4.516778E-08,NaN,-2.156602,3.308093E-06,-0.3396924,-1.317924E-08,NaN,NaN,-0.01994647,1.722942E-10,7.520904E-07,-1.159124E-07,3.540167E-09,-2.622604E-08
98.02757,0.04535794,-3.092459E-08,NaN,-1.722744,-1.382007E-07,NaN,0.483621,4.532306E-08,NaN,-2.15529,3.308852E-06,-0.3390325,-1.333204E-08,NaN,NaN,-0.01994551,1.769508E-10,7.640114E-07,-1.159129E-07,1.155982E-09,-2.861022E-08
98.04396,0.04538767,-3.092335E-08,NaN,-1.709896,-1.382006E-07,NaN,0.4834836,4.547475E-08,NaN,-2.153964,3.309611E-06,-0.3384225,-1.348125E-08,NaN,NaN,-0.01994471,1.816074E-10,7.771244E-07,-1.159133E-07,-1.228204E-09,-2.622604E-08
98.05925,0.04538767,-3.092335E-08,NaN,-1.709896,-1.382006E-07,NaN,0.4834836,4.547475E-08,NaN,-2.153964,3.309611E-06,-0.3384225,-1.348125E-08,NaN,NaN,-0.01994471,1.816074E-10,7.771244E-07,-1.159133E-07,-1.228204E-09,-2.622604E-08
98.07408,0.04541258,-3.092212E-08,NaN,-1.696854,-1.382005E-07,NaN,0.4833302,4.560486E-08,NaN,-2.152679,3.310369E-06,-0.3378735,-1.360888E-08,NaN,NaN,-0.01994404,1.769508E-10,7.830849E-07,-1.159138E-07,-3.61239E-09,-2.861022E-08
98.09074,0.04543487,-3.092089E-08,NaN,-1.683751,-1.382004E-07,NaN,0.4831741,4.573259E-08,NaN,-2.151449,3.311128E-06,-0.3373719,-1.373413E-08,NaN,NaN,-0.01994347,1.676376E-10,7.902374E-07,-1.159143E-07,-4.804483E-09,-2.622604E-08
98.10625,0.04546341,-3.091965E-08,NaN,-1.669906,-1.382004E-07,NaN,0.4830574,4.585798E-08,NaN,-2.15005,3.311869E-06,-0.3367104,-1.385704E-08,NaN,NaN,-0.01994256,1.722942E-10,8.033505E-07,-1.159148E-07,-8.380761E-09,-2.861022E-08
98.12173,0.04548969,-3.091842E-08,NaN,-1.65567,-1.382003E-07,NaN,0.4829068,4.598108E-08,NaN,-2.148639,3.312623E-06,-0.3361012,-1.397766E-08,NaN,NaN,-0.01994179,1.62981E-10,8.128872E-07,-1.159152E-07,-7.188668E-09,-2.622604E-08
98.1373,0.04548969,-3.091842E-08,NaN,-1.65567,-1.382003E-07,NaN,0.4829068,4.598108E-08,NaN,-2.148639,3.312623E-06,-0.3361012,-1.397766E-08,NaN,NaN,-0.01994179,1.62981E-10,8.128872E-07,-1.159152E-07,-7.188668E-09,-2.622604E-08
98.15268,0.04551427,-3.091719E-08,NaN,-1.641256,-1.382002E-07,NaN,0.4827382,4.610193E-08,NaN,-2.147272,3.313364E-06,-0.3355542,-1.409603E-08,NaN,NaN,-0.01994117,1.676376E-10,8.188477E-07,-1.159157E-07,-5.996576E-09,-2.861022E-08
98.16866,0.04553726,-3.091596E-08,NaN,-1.626798,-1.382001E-07,NaN,0.4825666,4.622058E-08,NaN,-2.145961,3.314113E-06,-0.3350555,-1.421219E-08,NaN,NaN,-0.01994063,1.62981E-10,8.271924E-07,-1.159162E-07,-5.996576E-09,-2.622604E-08
98.18445,0.04556454,-3.091472E-08,NaN,-1.611614,-1.382E-07,NaN,0.4824346,4.633636E-08,NaN,-2.144485,3.314854E-06,-0.3344031,-1.432549E-08,NaN,NaN,-0.01993977,1.676376E-10,8.379212E-07,-1.159166E-07,-5.996576E-09,-2.861022E-08
98.20055,0.04559154,-3.091349E-08,NaN,-1.596055,-1.381999E-07,NaN,0.4822675,4.645003E-08,NaN,-2.143,3.315603E-06,-0.3338047,-1.443669E-08,NaN,NaN,-0.01993906,1.62981E-10,8.486501E-07,-1.159171E-07,-8.380761E-09,-2.622604E-08
98.21587,0.04559154,-3.091349E-08,NaN,-1.596055,-1.381999E-07,NaN,0.4822675,4.645003E-08,NaN,-2.143,3.315603E-06,-0.3338047,-1.443669E-08,NaN,NaN,-0.01993906,1.62981E-10,8.486501E-07,-1.159171E-07,-8.380761E-09,-2.622604E-08
98.23074,0.04561709,-3.091226E-08,NaN,-1.580335,-1.381999E-07,NaN,0.4820834,4.656094E-08,NaN,-2.14156,3.316344E-06,-0.3332689,-1.454511E-08,NaN,NaN,-0.0199385,1.676376E-10,8.546106E-07,-1.159176E-07,-8.380761E-09,-2.861022E-08
98.2469,0.04564158,-3.091102E-08,NaN,-1.564586,-1.381998E-07,NaN,0.4818966,4.666982E-08,NaN,-2.140178,3.317093E-06,-0.3327821,-1.465151E-08,NaN,NaN,-0.01993802,1.62981E-10,8.593789E-07,-1.15918E-07,-3.611067E-11,-2.622604E-08
98.26257,0.04567042,-3.090979E-08,NaN,-1.548127,-1.381997E-07,NaN,0.4817473,4.677673E-08,NaN,-2.138635,3.317833E-06,-0.3321478,-1.475594E-08,NaN,NaN,-0.01993723,1.676376E-10,8.701078E-07,-1.159185E-07,-3.612389E-09,-2.861022E-08
98.2784,0.04567042,-3.090979E-08,NaN,-1.548127,-1.381997E-07,NaN,0.4817473,4.677673E-08,NaN,-2.138635,3.317833E-06,-0.3321478,-1.475594E-08,NaN,NaN,-0.01993723,1.676376E-10,8.701078E-07,-1.159185E-07,-3.612389E-09,-2.861022E-08
98.29333,0.04569858,-3.090856E-08,NaN,-1.531308,-1.381996E-07,NaN,0.4815642,4.688171E-08,NaN,-2.137084,3.318583E-06,-0.3315686,-1.485844E-08,NaN,NaN,-0.0199366,1.62981E-10,8.760683E-07,-1.159189E-07,-3.611067E-11,-2.622604E-08
98.31286,0.04572551,-3.090733E-08,NaN,-1.514343,-1.381995E-07,NaN,0.4813648,4.698479E-08,NaN,-2.13558,3.319323E-06,-0.3310522,-1.495905E-08,NaN,NaN,-0.0199361,1.676376E-10,8.784525E-07,-1.159194E-07,-3.611067E-11,-2.861022E-08
98.32565,0.04575137,-3.090609E-08,NaN,-1.497364,-1.381994E-07,NaN,0.4811636,4.708603E-08,NaN,-2.134138,3.320073E-06,-0.3305846,-1.50578E-08,NaN,NaN,-0.01993569,1.62981E-10,8.832208E-07,-1.159198E-07,1.155982E-09,-2.622604E-08
98.34126,0.04578153,-3.090486E-08,NaN,-1.479691,-1.381993E-07,NaN,0.4809973,4.718473E-08,NaN,-2.132535,3.320813E-06,-0.3299759,-1.515402E-08,NaN,NaN,-0.01993498,1.676376E-10,8.903734E-07,-1.159203E-07,1.155982E-09,-2.861022E-08
98.35693,0.04578153,-3.090486E-08,NaN,-1.479691,-1.381993E-07,NaN,0.4809973,4.718473E-08,NaN,-2.132535,3.320813E-06,-0.3299759,-1.515402E-08,NaN,NaN,-0.01993498,1.676376E-10,8.903734E-07,-1.159203E-07,1.155982E-09,-2.861022E-08
98.37164,0.04581092,-3.090363E-08,NaN,-1.461671,-1.381993E-07,NaN,0.4807982,4.728166E-08,NaN,-2.130927,3.321563E-06,-0.3294232,-1.524848E-08,NaN,NaN,-0.01993443,1.62981E-10,8.98718E-07,-1.159207E-07,-3.612389E-09,-2.622604E-08
98.38817,0.045839,-3.09024E-08,NaN,-1.443519,-1.381992E-07,NaN,0.4805838,4.737686E-08,NaN,-2.129369,3.322303E-06,-0.3289329,-1.534119E-08,NaN,NaN,-0.01993401,1.676376E-10,9.046785E-07,-1.159212E-07,-1.228204E-09,-2.861022E-08
98.40368,0.04586596,-3.090116E-08,NaN,-1.425367,-1.381991E-07,NaN,0.4803681,4.747035E-08,NaN,-2.127873,3.323053E-06,-0.3284914,-1.543221E-08,NaN,NaN,-0.01993368,1.62981E-10,9.094469E-07,-1.159216E-07,-4.804482E-09,-2.622604E-08
98.41986,0.04586596,-3.090116E-08,NaN,-1.425367,-1.381991E-07,NaN,0.4803681,4.747035E-08,NaN,-2.127873,3.323053E-06,-0.3284914,-1.543221E-08,NaN,NaN,-0.01993368,1.62981E-10,9.094469E-07,-1.159216E-07,-4.804482E-09,-2.622604E-08
98.4346,0.04589198,-3.089993E-08,NaN,-1.407297,-1.38199E-07,NaN,0.4801564,4.756219E-08,NaN,-2.126439,3.323793E-06,-0.3280882,-1.552156E-08,NaN,NaN,-0.01993342,1.676376E-10,9.10639E-07,-1.159221E-07,-2.420296E-09,-2.861022E-08
98.45094,0.04591721,-3.08987E-08,NaN,-1.389356,-1.381989E-07,NaN,0.4799501,4.765238E-08,NaN,-2.125061,3.324543E-06,-0.3277171,-1.560928E-08,NaN,NaN,-0.01993321,1.62981E-10,9.142153E-07,-1.159225E-07,-3.611067E-11,-2.622604E-08
98.4679,0.04594175,-3.089746E-08,NaN,-1.371575,-1.381988E-07,NaN,0.4797488,4.774096E-08,NaN,-2.123732,3.325283E-06,-0.3273741,-1.569538E-08,NaN,NaN,-0.01993304,1.676376E-10,9.142153E-07,-1.15923E-07,2.348075E-09,-2.861022E-08
98.48245,0.04596565,-3.089623E-08,NaN,-1.353972,-1.381987E-07,NaN,0.4795518,4.782798E-08,NaN,-2.122447,3.326033E-06,-0.3270569,-1.577992E-08,NaN,NaN,-0.01993291,1.62981E-10,9.165995E-07,-1.159234E-07,2.348075E-09,-2.622604E-08
98.49783,0.04596565,-3.089623E-08,NaN,-1.353972,-1.381987E-07,NaN,0.4795518,4.782798E-08,NaN,-2.122447,3.326033E-06,-0.3270569,-1.577992E-08,NaN,NaN,-0.01993291,1.62981E-10,9.165995E-07,-1.159234E-07,2.348075E-09,-2.622604E-08
98.51302,0.04598393,-3.0895E-08,NaN,-1.337317,-1.381987E-07,NaN,0.4793321,4.791275E-08,NaN,-2.121421,3.326783E-06,-0.326932,-1.586221E-08,NaN,NaN,-0.01993315,1.583244E-10,9.10639E-07,-1.159238E-07,1.155982E-09,-2.861022E-08
98.52912,0.04600168,-3.089377E-08,NaN,-1.321319,-1.381986E-07,NaN,0.4791511,4.799602E-08,NaN,-2.120492,3.327532E-06,-0.3268057,-1.594301E-08,NaN,NaN,-0.01993333,1.536678E-10,9.046785E-07,-1.159243E-07,4.732261E-09,-2.622604E-08
98.54523,0.04601953,-3.089253E-08,NaN,-1.305795,-1.381985E-07,NaN,0.4789905,4.807783E-08,NaN,-2.119597,3.328273E-06,-0.326669,-1.602234E-08,NaN,NaN,-0.01993345,1.583244E-10,9.022943E-07,-1.159247E-07,3.540168E-09,-2.861022E-08
98.56037,0.04603741,-3.08913E-08,NaN,-1.290631,-1.381984E-07,NaN,0.4788367,4.81582E-08,NaN,-2.118716,3.329027E-06,-0.3265316,-1.610022E-08,NaN,NaN,-0.01993356,1.490111E-10,8.993141E-07,-1.159252E-07,5.924353E-09,-2.622604E-08
98.57657,0.04603741,-3.08913E-08,NaN,-1.290631,-1.381984E-07,NaN,0.4788367,4.81582E-08,NaN,-2.118716,3.329027E-06,-0.3265316,-1.610022E-08,NaN,NaN,-0.01993356,1.490111E-10,8.993141E-07,-1.159252E-07,5.924353E-09,-2.622604E-08
98.59137,0.04605024,-3.089007E-08,NaN,-1.276519,-1.381983E-07,NaN,0.4786591,4.823716E-08,NaN,-2.118064,3.329777E-06,-0.3265654,-1.61767E-08,NaN,NaN,-0.019934,1.443545E-10,8.903734E-07,-1.159256E-07,4.732261E-09,-2.861022E-08
98.6077,0.04606285,-3.088883E-08,NaN,-1.263114,-1.381982E-07,NaN,0.4785156,4.831402E-08,NaN,-2.117484,3.330517E-06,-0.3265857,-1.625109E-08,NaN,NaN,-0.01993437,1.396979E-10,8.862011E-07,-1.15926E-07,5.328307E-09,-2.622604E-08
98.62337,0.04607579,-3.08876E-08,NaN,-1.250205,-1.381981E-07,NaN,0.4783884,4.838955E-08,NaN,-2.116917,3.331253E-06,-0.3265871,-1.632413E-08,NaN,NaN,-0.01993467,1.396979E-10,8.808367E-07,-1.159265E-07,5.924353E-09,-2.861022E-08
98.63881,0.04607579,-3.08876E-08,NaN,-1.250205,-1.381981E-07,NaN,0.4783884,4.838955E-08,NaN,-2.116917,3.331253E-06,-0.3265871,-1.632413E-08,NaN,NaN,-0.01993467,1.396979E-10,8.808367E-07,-1.159265E-07,5.924353E-09,-2.861022E-08
98.65393,0.0460841,-3.088637E-08,NaN,-1.238419,-1.381981E-07,NaN,0.478241,4.846375E-08,NaN,-2.116567,3.331989E-06,-0.326744,-1.639586E-08,NaN,NaN,-0.01993528,1.350413E-10,8.695118E-07,-1.159269E-07,5.328307E-09,-2.622604E-08
98.67015,0.04609242,-3.088514E-08,NaN,-1.227376,-1.38198E-07,NaN,0.4781268,4.853667E-08,NaN,-2.116274,3.33272E-06,-0.3268777,-1.646629E-08,NaN,NaN,-0.01993578,1.303847E-10,8.58783E-07,-1.159273E-07,5.924353E-09,-2.861022E-08
98.6861,0.04610125,-3.08839E-08,NaN,-1.21684,-1.381979E-07,NaN,0.4780273,4.860761E-08,NaN,-2.115981,3.333451E-06,-0.3269855,-1.653476E-08,NaN,NaN,-0.01993622,1.257281E-10,8.504383E-07,-1.159277E-07,4.136214E-09,-2.622604E-08
98.70148,0.04611042,-3.088267E-08,NaN,-1.206663,-1.381978E-07,NaN,0.4779301,4.867732E-08,NaN,-2.115676,3.334177E-06,-0.3270795,-1.660199E-08,NaN,NaN,-0.01993662,1.257281E-10,8.46862E-07,-1.159282E-07,4.73226E-09,-2.861022E-08
98.7173,0.04611042,-3.088267E-08,NaN,-1.206663,-1.381978E-07,NaN,0.4779301,4.867732E-08,NaN,-2.115676,3.334177E-06,-0.3270795,-1.660199E-08,NaN,NaN,-0.01993662,1.257281E-10,8.46862E-07,-1.159282E-07,4.73226E-09,-2.861022E-08
98.73241,0.046115,-3.088144E-08,NaN,-1.197514,-1.381977E-07,NaN,0.4778072,4.874583E-08,NaN,-2.115576,3.334904E-06,-0.3273304,-1.666802E-08,NaN,NaN,-0.01993734,1.257281E-10,8.355372E-07,-1.159286E-07,2.944121E-09,-2.622604E-08
98.74856,0.04611954,-3.088021E-08,NaN,-1.189039,-1.381976E-07,NaN,0.4777153,4.881315E-08,NaN,-2.115529,3.335625E-06,-0.3275581,-1.673286E-08,NaN,NaN,-0.01993797,1.303847E-10,8.248083E-07,-1.15929E-07,4.136214E-09,-2.861022E-08
98.76427,0.04612458,-3.087898E-08,NaN,-1.181015,-1.381975E-07,NaN,0.4776374,4.887931E-08,NaN,-2.115479,3.336361E-06,-0.3277582,-1.679655E-08,NaN,NaN,-0.01993852,1.210715E-10,8.152716E-07,-1.159294E-07,4.136214E-09,-2.622604E-08
98.7798,0.04612458,-3.087898E-08,NaN,-1.181015,-1.381975E-07,NaN,0.4776374,4.887931E-08,NaN,-2.115479,3.336361E-06,-0.3277582,-1.679655E-08,NaN,NaN,-0.01993852,1.210715E-10,8.152716E-07,-1.159294E-07,4.136214E-09,-2.622604E-08
98.79503,0.04612999,-3.087775E-08,NaN,-1.173307,-1.381975E-07,NaN,0.477562,4.894435E-08,NaN,-2.115414,3.337083E-06,-0.3279418,-1.685911E-08,NaN,NaN,-0.01993904,1.303847E-10,8.08119E-07,-1.159299E-07,3.540168E-09,-2.861022E-08
98.81144,0.04613094,-3.087652E-08,NaN,-1.166588,-1.381974E-07,NaN,0.4774614,4.900827E-08,NaN,-2.115551,3.337818E-06,-0.3282789,-1.692055E-08,NaN,NaN,-0.01993986,1.257281E-10,7.926218E-07,-1.159303E-07,5.924353E-09,-2.622604E-08
98.82713,0.04613189,-3.087529E-08,NaN,-1.160509,-1.381973E-07,NaN,0.4773918,4.90711E-08,NaN,-2.115736,3.338545E-06,-0.32859,-1.69809E-08,NaN,NaN,-0.01994059,1.303847E-10,7.812969E-07,-1.159307E-07,7.116446E-09,-2.861022E-08
98.84359,0.04613338,-3.087406E-08,NaN,-1.154851,-1.381972E-07,NaN,0.4773363,4.913286E-08,NaN,-2.115915,3.339285E-06,-0.3288703,-1.704018E-08,NaN,NaN,-0.01994123,1.210715E-10,7.717602E-07,-1.159311E-07,5.924353E-09,-2.622604E-08
98.85836,0.04613338,-3.087406E-08,NaN,-1.154851,-1.381972E-07,NaN,0.4773363,4.913286E-08,NaN,-2.115915,3.339285E-06,-0.3288703,-1.704018E-08,NaN,NaN,-0.01994123,1.210715E-10,7.717602E-07,-1.159311E-07,5.924353E-09,-2.622604E-08
98.87296,0.04613529,-3.087283E-08,NaN,-1.149478,-1.381971E-07,NaN,0.4772834,4.919286E-08,NaN,-2.116072,3.340012E-06,-0.3291309,-1.709771E-08,NaN,NaN,-0.01994183,1.257281E-10,7.640116E-07,-1.159315E-07,4.732261E-09,-2.861022E-08
98.88962,0.04613287,-3.08716E-08,NaN,-1.145067,-1.38197E-07,NaN,0.477205,4.925185E-08,NaN,-2.116427,3.340743E-06,-0.3295427,-1.715422E-08,NaN,NaN,-0.01994274,1.257281E-10,7.508986E-07,-1.159319E-07,3.540168E-09,-2.622604E-08
98.90501,0.04613048,-3.087037E-08,NaN,-1.141268,-1.38197E-07,NaN,0.4771576,4.930985E-08,NaN,-2.116825,3.341474E-06,-0.3299255,-1.720974E-08,NaN,NaN,-0.01994354,1.257281E-10,7.377855E-07,-1.159324E-07,3.540168E-09,-2.861022E-08
98.92105,0.04612868,-3.086914E-08,NaN,-1.137863,-1.381969E-07,NaN,0.4771244,4.936687E-08,NaN,-2.117212,3.342214E-06,-0.3302748,-1.726428E-08,NaN,NaN,-0.01994426,1.164149E-10,7.294408E-07,-1.159328E-07,4.136214E-09,-2.622604E-08
98.9366,0.04612868,-3.086914E-08,NaN,-1.137863,-1.381969E-07,NaN,0.4771244,4.936687E-08,NaN,-2.117212,3.342214E-06,-0.3302748,-1.726428E-08,NaN,NaN,-0.01994426,1.164149E-10,7.294408E-07,-1.159328E-07,4.136214E-09,-2.622604E-08
98.95175,0.04612736,-3.086791E-08,NaN,-1.134717,-1.381968E-07,NaN,0.4770938,4.942294E-08,NaN,-2.117573,3.342941E-06,-0.3306016,-1.731788E-08,NaN,NaN,-0.01994493,1.210715E-10,7.199041E-07,-1.159332E-07,3.540168E-09,-2.861022E-08
98.9692,0.04611801,-3.086668E-08,NaN,-1.132506,-1.381967E-07,NaN,0.4770401,4.947807E-08,NaN,-2.118124,3.343681E-06,-0.3310779,-1.737053E-08,NaN,NaN,-0.0199459,1.117582E-10,7.061951E-07,-1.159336E-07,5.599361E-10,-2.622604E-08
98.98367,0.04610541,-3.086545E-08,NaN,-1.130882,-1.381966E-07,NaN,0.4770194,4.953158E-08,NaN,-2.118713,3.344407E-06,-0.3315223,-1.742156E-08,NaN,NaN,-0.01994677,1.164149E-10,6.9189E-07,-1.15934E-07,1.752029E-09,-2.861022E-08
98.99903,0.04610541,-3.086545E-08,NaN,-1.130882,-1.381966E-07,NaN,0.4770194,4.953158E-08,NaN,-2.118713,3.344407E-06,-0.3315223,-1.742156E-08,NaN,NaN,-0.01994677,1.164149E-10,6.9189E-07,-1.15934E-07,1.752029E-09,-2.861022E-08
99.01417,0.04609201,-3.086422E-08,NaN,-1.129627,-1.381965E-07,NaN,0.4770129,4.95842E-08,NaN,-2.119286,3.345148E-06,-0.3319303,-1.74717E-08,NaN,NaN,-0.01994754,1.071016E-10,6.79373E-07,-1.159344E-07,2.944122E-09,-2.622604E-08
99.03029,0.04607891,-3.0863E-08,NaN,-1.128605,-1.381965E-07,NaN,0.4770083,4.963525E-08,NaN,-2.119829,3.345874E-06,-0.3323134,-1.752028E-08,NaN,NaN,-0.01994826,1.117583E-10,6.728165E-07,-1.159348E-07,-1.228203E-09,-2.861022E-08
99.04649,0.0460574,-3.086177E-08,NaN,-1.128494,-1.381964E-07,NaN,0.4769795,4.968546E-08,NaN,-2.120557,3.346614E-06,-0.3328458,-1.756801E-08,NaN,NaN,-0.01994929,1.02445E-10,6.555312E-07,-1.159352E-07,-3.611045E-11,-2.622604E-08
99.06201,0.04603326,-3.086054E-08,NaN,-1.128944,-1.381963E-07,NaN,0.476983,4.973485E-08,NaN,-2.121319,3.347345E-06,-0.3333444,-1.761492E-08,NaN,NaN,-0.01995021,1.02445E-10,6.436102E-07,-1.159356E-07,-1.82425E-09,-2.861022E-08
99.0783,0.04603326,-3.086054E-08,NaN,-1.128944,-1.381963E-07,NaN,0.476983,4.973485E-08,NaN,-2.121319,3.347345E-06,-0.3333444,-1.761492E-08,NaN,NaN,-0.01995021,1.02445E-10,6.436102E-07,-1.159356E-07,-1.82425E-09,-2.861022E-08
99.0928,0.04600913,-3.085931E-08,NaN,-1.129739,-1.381962E-07,NaN,0.4770003,4.978343E-08,NaN,-2.122061,3.348076E-06,-0.3338046,-1.766102E-08,NaN,NaN,-0.01995103,1.02445E-10,6.328814E-07,-1.15936E-07,-3.016343E-09,-2.622604E-08
99.10898,0.04598604,-3.085808E-08,NaN,-1.130743,-1.381962E-07,NaN,0.4770193,4.983123E-08,NaN,-2.122767,3.348803E-06,-0.3342377,-1.770634E-08,NaN,NaN,-0.01995179,1.071016E-10,6.227486E-07,-1.159364E-07,-5.400528E-09,-2.861022E-08
99.12453,0.04595517,-3.085685E-08,NaN,-1.132633,-1.381961E-07,NaN,0.4770128,4.987824E-08,NaN,-2.123656,3.349534E-06,-0.3348209,-1.775088E-08,NaN,NaN,-0.01995287,1.071016E-10,6.078474E-07,-1.159368E-07,-4.208435E-09,-2.622604E-08
99.14043,0.04592264,-3.085562E-08,NaN,-1.135061,-1.38196E-07,NaN,0.4770385,4.99245E-08,NaN,-2.124574,3.35026E-06,-0.3353689,-1.779466E-08,NaN,NaN,-0.01995383,1.117583E-10,5.947344E-07,-1.159372E-07,-4.208435E-09,-2.861022E-08
99.15621,0.04592264,-3.085562E-08,NaN,-1.135061,-1.38196E-07,NaN,0.4770385,4.99245E-08,NaN,-2.124574,3.35026E-06,-0.3353689,-1.779466E-08,NaN,NaN,-0.01995383,1.117583E-10,5.947344E-07,-1.159372E-07,-4.208435E-09,-2.861022E-08
99.17101,0.04589106,-3.085439E-08,NaN,-1.13781,-1.38196E-07,NaN,0.4770782,4.997001E-08,NaN,-2.125467,3.351001E-06,-0.3358762,-1.783769E-08,NaN,NaN,-0.01995469,1.02445E-10,5.840055E-07,-1.159376E-07,-4.804482E-09,-2.622604E-08
99.18748,0.04586128,-3.085316E-08,NaN,-1.140744,-1.381959E-07,NaN,0.4771197,5.001479E-08,NaN,-2.126322,3.351727E-06,-0.3363544,-1.788E-08,NaN,NaN,-0.01995549,1.071017E-10,5.738727E-07,-1.15938E-07,-4.208435E-09,-2.861022E-08
