JMolnar6/NonAnthroHands_User_Study/HandsLoggerWithURDF/tempdata/files/Reachy_PID0_JointMotion_gesture_7_36.csv
Time,r_shoulder,r_shoulder_x,r_upper_arm,r_forearm,r_wrist,r_wrist2hand,
477.791,0.04495975,-1.209964E-08,NaN,-0.3270985,-1.346536E-07,NaN,0.454495,-2.049621E-08,NaN,-0.7010685,1.469296E-05,-0.3576613,4.627229E-08,NaN,NaN,-0.05799371,1.303842E-10,1.900776E-06,-1.129449E-07,-6.939747E-10,-2.622604E-08
477.8055,0.04495992,-1.209876E-08,NaN,-0.3270981,-1.346533E-07,NaN,0.4547431,-2.058054E-08,NaN,-0.7002368,1.46935E-05,-0.3580326,4.63584E-08,NaN,NaN,-0.05724902,1.257276E-10,1.8557E-06,-1.129438E-07,-5.462346E-09,-2.861022E-08
477.82,0.04495992,-1.209876E-08,NaN,-0.3270981,-1.346533E-07,NaN,0.4547431,-2.058054E-08,NaN,-0.7002368,1.46935E-05,-0.3580326,4.63584E-08,NaN,NaN,-0.05724902,1.257276E-10,1.8557E-06,-1.129438E-07,-5.462346E-09,-2.861022E-08
477.834,0.04496008,-1.209788E-08,NaN,-0.3270977,-1.34653E-07,NaN,0.4549505,-2.066313E-08,NaN,-0.69976,1.469404E-05,-0.35836,4.644275E-08,NaN,NaN,-0.05651866,1.303842E-10,1.817851E-06,-1.129428E-07,-1.26149E-08,-2.622604E-08
477.8495,0.04496024,-1.2097E-08,NaN,-0.3270973,-1.346528E-07,NaN,0.4551342,-2.074118E-08,NaN,-0.6994538,1.469458E-05,-0.3586532,4.652257E-08,NaN,NaN,-0.05580252,1.257276E-10,1.781418E-06,-1.129418E-07,-1.738328E-08,-2.861022E-08
477.8654,0.04496039,-1.209612E-08,NaN,-0.3270969,-1.346525E-07,NaN,0.4551986,-2.081761E-08,NaN,-0.6979988,1.469513E-05,-0.3587442,4.660076E-08,NaN,NaN,-0.05509859,1.21071E-10,1.777394E-06,-1.129408E-07,-1.26149E-08,-2.622604E-08
477.8799,0.04496039,-1.209612E-08,NaN,-0.3270969,-1.346525E-07,NaN,0.4551986,-2.081761E-08,NaN,-0.6979988,1.469513E-05,-0.3587442,4.660076E-08,NaN,NaN,-0.05509859,1.21071E-10,1.777394E-06,-1.129408E-07,-1.26149E-08,-2.622604E-08
477.8936,0.04496054,-1.209524E-08,NaN,-0.3270965,-1.346522E-07,NaN,0.4552878,-2.089244E-08,NaN,-0.695886,1.469567E-05,-0.3588286,4.667736E-08,NaN,NaN,-0.05440919,1.164144E-10,1.761823E-06,-1.129398E-07,-1.26149E-08,-2.861022E-08
477.9079,0.04496069,-1.209435E-08,NaN,-0.3270961,-1.34652E-07,NaN,0.455416,-2.096288E-08,NaN,-0.6934782,1.469621E-05,-0.3589495,4.674958E-08,NaN,NaN,-0.05373358,1.21071E-10,1.742302E-06,-1.129387E-07,-7.846532E-09,-2.622604E-08
477.9226,0.04496083,-1.209347E-08,NaN,-0.3270957,-1.346517E-07,NaN,0.455567,-2.103186E-08,NaN,-0.6909489,1.469674E-05,-0.3591,4.682032E-08,NaN,NaN,-0.0530713,1.257276E-10,1.720546E-06,-1.129377E-07,-5.462347E-09,-2.861022E-08
477.9388,0.04496083,-1.209347E-08,NaN,-0.3270957,-1.346517E-07,NaN,0.455567,-2.103186E-08,NaN,-0.6909489,1.469674E-05,-0.3591,4.682032E-08,NaN,NaN,-0.0530713,1.257276E-10,1.720546E-06,-1.129377E-07,-5.462347E-09,-2.861022E-08
477.9511,0.04496097,-1.209259E-08,NaN,-0.3270954,-1.346514E-07,NaN,0.4556171,-2.109939E-08,NaN,-0.6871507,1.469728E-05,-0.3590868,4.688961E-08,NaN,NaN,-0.05242022,1.303842E-10,1.729115E-06,-1.129367E-07,-3.078161E-09,-2.622604E-08
477.9665,0.04496111,-1.209171E-08,NaN,-0.327095,-1.346511E-07,NaN,0.4556951,-2.116267E-08,NaN,-0.6826569,1.469782E-05,-0.3590851,4.695467E-08,NaN,NaN,-0.05178268,1.350408E-10,1.72457E-06,-1.129357E-07,-5.462347E-09,-2.861022E-08
477.9811,0.04496125,-1.209083E-08,NaN,-0.3270946,-1.346509E-07,NaN,0.4558111,-2.122462E-08,NaN,-0.6778702,1.469835E-05,-0.3591291,4.701839E-08,NaN,NaN,-0.05115793,1.396974E-10,1.715257E-06,-1.129347E-07,-5.462347E-09,-2.622604E-08
477.9959,0.04496125,-1.209083E-08,NaN,-0.3270946,-1.346509E-07,NaN,0.4558111,-2.122462E-08,NaN,-0.6778702,1.469835E-05,-0.3591291,4.701839E-08,NaN,NaN,-0.05115793,1.396974E-10,1.715257E-06,-1.129347E-07,-5.462347E-09,-2.622604E-08
478.0099,0.04496138,-1.208995E-08,NaN,-0.3270942,-1.346506E-07,NaN,0.4558362,-2.128526E-08,NaN,-0.6717517,1.46989E-05,-0.3590271,4.70808E-08,NaN,NaN,-0.05054364,1.350408E-10,1.734628E-06,-1.129337E-07,-7.846532E-09,-2.861022E-08
478.0251,0.04496151,-1.208907E-08,NaN,-0.3270938,-1.346504E-07,NaN,0.4558932,-2.13418E-08,NaN,-0.6649272,1.469944E-05,-0.3589464,4.71391E-08,NaN,NaN,-0.04994221,1.303842E-10,1.739694E-06,-1.129328E-07,-5.462347E-09,-2.622604E-08
478.0397,0.04496151,-1.208907E-08,NaN,-0.3270938,-1.346504E-07,NaN,0.4558932,-2.13418E-08,NaN,-0.6649272,1.469944E-05,-0.3589464,4.71391E-08,NaN,NaN,-0.04994221,1.303842E-10,1.739694E-06,-1.129328E-07,-5.462347E-09,-2.622604E-08
478.0539,0.04496165,-1.208819E-08,NaN,-0.3270935,-1.346501E-07,NaN,0.4559903,-2.139713E-08,NaN,-0.6578239,1.469999E-05,-0.358918,4.71962E-08,NaN,NaN,-0.04935288,1.257276E-10,1.738875E-06,-1.129318E-07,-5.462347E-09,-2.861022E-08
478.0692,0.04496178,-1.208731E-08,NaN,-0.3270931,-1.346499E-07,NaN,0.4561101,-2.145128E-08,NaN,-0.6506457,1.470053E-05,-0.3589294,4.725212E-08,NaN,NaN,-0.04877521,1.21071E-10,1.735522E-06,-1.129308E-07,-5.462347E-09,-2.622604E-08
478.084,0.04496191,-1.208642E-08,NaN,-0.3270927,-1.346496E-07,NaN,0.4561215,-2.150428E-08,NaN,-0.6422592,1.470107E-05,-0.3587824,4.730688E-08,NaN,NaN,-0.04820682,1.257276E-10,1.761003E-06,-1.129298E-07,-3.078161E-09,-2.861022E-08
478.0988,0.04496191,-1.208642E-08,NaN,-0.3270927,-1.346496E-07,NaN,0.4561215,-2.150428E-08,NaN,-0.6422592,1.470107E-05,-0.3587824,4.730688E-08,NaN,NaN,-0.04820682,1.257276E-10,1.761003E-06,-1.129298E-07,-3.078161E-09,-2.861022E-08
478.1125,0.04496203,-1.208554E-08,NaN,-0.3270924,-1.346493E-07,NaN,0.4561552,-2.155332E-08,NaN,-0.6332437,1.47016E-05,-0.3586458,4.735769E-08,NaN,NaN,-0.04765042,1.303842E-10,1.774265E-06,-1.129288E-07,-3.078161E-09,-2.622604E-08
478.128,0.04496216,-1.208466E-08,NaN,-0.327092,-1.346491E-07,NaN,0.4562273,-2.160131E-08,NaN,-0.6240041,1.470215E-05,-0.3585571,4.740744E-08,NaN,NaN,-0.04710523,1.257276E-10,1.780524E-06,-1.129279E-07,-6.939751E-10,-2.861022E-08
478.1436,0.04496229,-1.208378E-08,NaN,-0.3270917,-1.346488E-07,NaN,0.4563236,-2.164825E-08,NaN,-0.6147333,1.470269E-05,-0.3585079,4.745616E-08,NaN,NaN,-0.04657082,1.21071E-10,1.784696E-06,-1.129269E-07,1.690211E-09,-2.622604E-08
478.1584,0.04496229,-1.208378E-08,NaN,-0.3270917,-1.346488E-07,NaN,0.4563236,-2.164825E-08,NaN,-0.6147333,1.470269E-05,-0.3585079,4.745616E-08,NaN,NaN,-0.04657082,1.21071E-10,1.784696E-06,-1.129269E-07,1.690211E-09,-2.622604E-08
478.1722,0.04496242,-1.20829E-08,NaN,-0.3270913,-1.346486E-07,NaN,0.4564164,-2.169137E-08,NaN,-0.605378,1.470324E-05,-0.3584626,4.750104E-08,NaN,NaN,-0.04604661,1.164144E-10,1.791327E-06,-1.129259E-07,1.690211E-09,-2.861022E-08
478.1864,0.04496255,-1.208202E-08,NaN,-0.3270909,-1.346483E-07,NaN,0.4565152,-2.173354E-08,NaN,-0.596044,1.470377E-05,-0.3584325,4.754498E-08,NaN,NaN,-0.04553277,1.21071E-10,1.79468E-06,-1.12925E-07,-6.939751E-10,-2.622604E-08
478.2012,0.04496268,-1.208114E-08,NaN,-0.3270906,-1.346481E-07,NaN,0.4566197,-2.177479E-08,NaN,-0.5867959,1.470431E-05,-0.3584173,4.7588E-08,NaN,NaN,-0.045029,1.257276E-10,1.795648E-06,-1.12924E-07,4.074396E-09,-2.861022E-08
478.2157,0.04496268,-1.208114E-08,NaN,-0.3270906,-1.346481E-07,NaN,0.4566197,-2.177479E-08,NaN,-0.5867959,1.470431E-05,-0.3584173,4.7588E-08,NaN,NaN,-0.045029,1.257276E-10,1.795648E-06,-1.12924E-07,4.074396E-09,-2.861022E-08
478.2298,0.04496281,-1.208026E-08,NaN,-0.3270902,-1.346478E-07,NaN,0.4567276,-2.181231E-08,NaN,-0.5776637,1.470485E-05,-0.3584136,4.762729E-08,NaN,NaN,-0.04453507,1.21071E-10,1.796915E-06,-1.129231E-07,8.842768E-09,-2.622604E-08
478.245,0.04496294,-1.207938E-08,NaN,-0.3270899,-1.346475E-07,NaN,0.4568376,-2.184901E-08,NaN,-0.5686604,1.47054E-05,-0.3584186,4.766575E-08,NaN,NaN,-0.04405078,1.164144E-10,1.797362E-06,-1.129221E-07,8.842768E-09,-2.861022E-08
478.2596,0.04496294,-1.207938E-08,NaN,-0.3270899,-1.346475E-07,NaN,0.4568376,-2.184901E-08,NaN,-0.5686604,1.47054E-05,-0.3584186,4.766575E-08,NaN,NaN,-0.04405078,1.164144E-10,1.797362E-06,-1.129221E-07,8.842768E-09,-2.861022E-08
478.2735,0.04496307,-1.207849E-08,NaN,-0.3270895,-1.346473E-07,NaN,0.4569491,-2.188489E-08,NaN,-0.5597914,1.470594E-05,-0.3584306,4.77034E-08,NaN,NaN,-0.04357592,1.117578E-10,1.797138E-06,-1.129212E-07,1.122695E-08,-2.622604E-08
478.2888,0.0449632,-1.207761E-08,NaN,-0.3270892,-1.34647E-07,NaN,0.4570621,-2.191997E-08,NaN,-0.5510581,1.470648E-05,-0.3584485,4.774025E-08,NaN,NaN,-0.0431103,1.164144E-10,1.796244E-06,-1.129202E-07,1.122695E-08,-2.861022E-08
478.3036,0.04496332,-1.207673E-08,NaN,-0.3270888,-1.346468E-07,NaN,0.4571769,-2.195145E-08,NaN,-0.54246,1.470701E-05,-0.358472,4.777349E-08,NaN,NaN,-0.04265375,1.21071E-10,1.79535E-06,-1.129193E-07,1.599533E-08,-2.622604E-08
478.3183,0.04496332,-1.207673E-08,NaN,-0.3270888,-1.346468E-07,NaN,0.4571769,-2.195145E-08,NaN,-0.54246,1.470701E-05,-0.358472,4.777349E-08,NaN,NaN,-0.04265375,1.21071E-10,1.79535E-06,-1.129193E-07,1.599533E-08,-2.622604E-08
478.3323,0.04496345,-1.207585E-08,NaN,-0.3270884,-1.346465E-07,NaN,0.4572937,-2.19935E-08,NaN,-0.5339958,1.470756E-05,-0.3585007,4.781731E-08,NaN,NaN,-0.04220608,1.164144E-10,1.794084E-06,-1.129183E-07,1.122695E-08,-2.861022E-08
478.3479,0.04496358,-1.207497E-08,NaN,-0.3270881,-1.346467E-07,NaN,0.4574129,-2.18683E-08,NaN,-0.5256638,1.47081E-05,-0.3585346,4.769387E-08,NaN,NaN,-0.04176712,1.117578E-10,1.791699E-06,-1.129164E-07,8.842768E-09,-2.622604E-08
478.3624,0.0449637,-1.207408E-08,NaN,-0.3270877,-1.346468E-07,NaN,0.4575346,-2.176519E-08,NaN,-0.5174621,1.470865E-05,-0.3585736,4.759253E-08,NaN,NaN,-0.04133669,1.071012E-10,1.789464E-06,-1.129145E-07,6.458583E-09,-2.861022E-08
478.3772,0.0449637,-1.207408E-08,NaN,-0.3270877,-1.346468E-07,NaN,0.4575346,-2.176519E-08,NaN,-0.5174621,1.470865E-05,-0.3585736,4.759253E-08,NaN,NaN,-0.04133669,1.071012E-10,1.789464E-06,-1.129145E-07,6.458583E-09,-2.861022E-08
478.391,0.04496383,-1.20732E-08,NaN,-0.3270874,-1.346469E-07,NaN,0.457659,-2.167247E-08,NaN,-0.5093889,1.470919E-05,-0.3586176,4.750157E-08,NaN,NaN,-0.04091462,1.024446E-10,1.785888E-06,-1.129125E-07,6.458583E-09,-2.622604E-08
478.4075,0.04496396,-1.207232E-08,NaN,-0.327087,-1.346469E-07,NaN,0.4577861,-2.158428E-08,NaN,-0.501442,1.470974E-05,-0.3586666,4.741514E-08,NaN,NaN,-0.04050075,9.778794E-11,1.780822E-06,-1.129105E-07,8.842768E-09,-2.861022E-08
478.4222,0.04496408,-1.207144E-08,NaN,-0.3270867,-1.34647E-07,NaN,0.4579162,-2.150055E-08,NaN,-0.4936197,1.471028E-05,-0.3587206,4.733317E-08,NaN,NaN,-0.04009492,9.313132E-11,1.776798E-06,-1.129085E-07,8.842768E-09,-2.622604E-08
478.4367,0.04496408,-1.207144E-08,NaN,-0.3270867,-1.34647E-07,NaN,0.4579162,-2.150055E-08,NaN,-0.4936197,1.471028E-05,-0.3587206,4.733317E-08,NaN,NaN,-0.04009492,9.313132E-11,1.776798E-06,-1.129085E-07,8.842768E-09,-2.622604E-08
478.4508,0.04496421,-1.207056E-08,NaN,-0.3270863,-1.34647E-07,NaN,0.4580492,-2.141837E-08,NaN,-0.4859199,1.471083E-05,-0.3587795,4.725275E-08,NaN,NaN,-0.03969696,8.847471E-11,1.772924E-06,-1.129065E-07,6.458583E-09,-2.861022E-08
478.4649,0.04496434,-1.206968E-08,NaN,-0.327086,-1.34647E-07,NaN,0.4581852,-2.133772E-08,NaN,-0.4783409,1.471137E-05,-0.3588432,4.717386E-08,NaN,NaN,-0.03930672,8.381809E-11,1.76905E-06,-1.129046E-07,8.842768E-09,-2.622604E-08
478.4798,0.04496434,-1.206968E-08,NaN,-0.327086,-1.34647E-07,NaN,0.4581852,-2.133772E-08,NaN,-0.4783409,1.471137E-05,-0.3588432,4.717386E-08,NaN,NaN,-0.03930672,8.381809E-11,1.76905E-06,-1.129046E-07,8.842768E-09,-2.622604E-08
478.4934,0.04496446,-1.206879E-08,NaN,-0.3270856,-1.34647E-07,NaN,0.4583242,-2.125572E-08,NaN,-0.4708806,1.471192E-05,-0.3589118,4.709362E-08,NaN,NaN,-0.03892405,7.916148E-11,1.765175E-06,-1.129026E-07,8.842768E-09,-2.861022E-08
478.5089,0.04496459,-1.206791E-08,NaN,-0.3270853,-1.34647E-07,NaN,0.4584664,-2.117524E-08,NaN,-0.4635373,1.471246E-05,-0.3589852,4.70149E-08,NaN,NaN,-0.03854879,7.450486E-11,1.75996E-06,-1.129006E-07,6.458583E-09,-2.622604E-08
478.5247,0.04496471,-1.206703E-08,NaN,-0.327085,-1.346471E-07,NaN,0.4586116,-2.109342E-08,NaN,-0.4563091,1.471301E-05,-0.3590633,4.693484E-08,NaN,NaN,-0.03818079,6.984825E-11,1.755192E-06,-1.128987E-07,4.074397E-09,-2.861022E-08
478.5407,0.04496483,-1.206615E-08,NaN,-0.3270847,-1.346471E-07,NaN,0.4587601,-2.101311E-08,NaN,-0.4491943,1.471355E-05,-0.3591461,4.685629E-08,NaN,NaN,-0.03781993,6.984825E-11,1.749678E-06,-1.128967E-07,-6.939747E-10,-2.622604E-08
478.5528,0.04496483,-1.206615E-08,NaN,-0.3270847,-1.346471E-07,NaN,0.4587601,-2.101311E-08,NaN,-0.4491943,1.471355E-05,-0.3591461,4.685629E-08,NaN,NaN,-0.03781993,6.984825E-11,1.749678E-06,-1.128967E-07,-6.939747E-10,-2.622604E-08
478.567,0.04496495,-1.206527E-08,NaN,-0.3270843,-1.346471E-07,NaN,0.4589117,-2.093146E-08,NaN,-0.442191,1.471409E-05,-0.3592335,4.67764E-08,NaN,NaN,-0.03746604,7.450486E-11,1.744314E-06,-1.128948E-07,-5.462346E-09,-2.861022E-08
478.5825,0.04496508,-1.206438E-08,NaN,-0.327084,-1.346471E-07,NaN,0.4590665,-2.085132E-08,NaN,-0.4352976,1.471464E-05,-0.3593256,4.669802E-08,NaN,NaN,-0.037119,6.984825E-11,1.738353E-06,-1.128928E-07,-7.846532E-09,-2.622604E-08
478.5972,0.04496508,-1.206438E-08,NaN,-0.327084,-1.346471E-07,NaN,0.4590665,-2.085132E-08,NaN,-0.4352976,1.471464E-05,-0.3593256,4.669802E-08,NaN,NaN,-0.037119,6.984825E-11,1.738353E-06,-1.128928E-07,-7.846532E-09,-2.622604E-08
478.6113,0.0449652,-1.20635E-08,NaN,-0.3270837,-1.346471E-07,NaN,0.4592246,-2.076983E-08,NaN,-0.4285124,1.471519E-05,-0.3594222,4.661829E-08,NaN,NaN,-0.03677865,6.519163E-11,1.731946E-06,-1.128909E-07,-7.846532E-09,-2.861022E-08
478.6264,0.04496532,-1.206262E-08,NaN,-0.3270833,-1.346471E-07,NaN,0.4593859,-2.068985E-08,NaN,-0.4218335,1.471574E-05,-0.3595234,4.654007E-08,NaN,NaN,-0.03644489,6.053501E-11,1.725389E-06,-1.12889E-07,-1.023072E-08,-2.622604E-08
478.6412,0.04496545,-1.206173E-08,NaN,-0.327083,-1.346471E-07,NaN,0.4595506,-2.060852E-08,NaN,-0.4152595,1.471629E-05,-0.359629,4.64605E-08,NaN,NaN,-0.03611756,5.58784E-11,1.718833E-06,-1.12887E-07,-1.023072E-08,-2.861022E-08
478.6557,0.04496545,-1.206173E-08,NaN,-0.327083,-1.346471E-07,NaN,0.4595506,-2.060852E-08,NaN,-0.4152595,1.471629E-05,-0.359629,4.64605E-08,NaN,NaN,-0.03611756,5.58784E-11,1.718833E-06,-1.12887E-07,-1.023072E-08,-2.861022E-08
478.6699,0.04496557,-1.206085E-08,NaN,-0.3270827,-1.346471E-07,NaN,0.4597185,-2.052869E-08,NaN,-0.4087887,1.471684E-05,-0.3597392,4.638243E-08,NaN,NaN,-0.03579655,5.122179E-11,1.712425E-06,-1.128851E-07,-1.023072E-08,-2.622604E-08
478.6853,0.04496569,-1.205997E-08,NaN,-0.3270824,-1.346471E-07,NaN,0.4598899,-2.04475E-08,NaN,-0.4024194,1.471739E-05,-0.3598538,4.6303E-08,NaN,NaN,-0.03548172,4.656518E-11,1.704975E-06,-1.128832E-07,-1.023072E-08,-2.861022E-08
478.7009,0.04496581,-1.205909E-08,NaN,-0.327082,-1.346471E-07,NaN,0.4600646,-2.036499E-08,NaN,-0.3961501,1.471793E-05,-0.3599728,4.622225E-08,NaN,NaN,-0.03517295,5.122179E-11,1.697524E-06,-1.128813E-07,1.690211E-09,-2.622604E-08
478.7146,0.04496581,-1.205909E-08,NaN,-0.327082,-1.346471E-07,NaN,0.4600646,-2.036499E-08,NaN,-0.3961501,1.471793E-05,-0.3599728,4.622225E-08,NaN,NaN,-0.03517295,5.122179E-11,1.697524E-06,-1.128813E-07,1.690211E-09,-2.622604E-08
478.7288,0.04496593,-1.20582E-08,NaN,-0.3270817,-1.346471E-07,NaN,0.4602427,-2.028401E-08,NaN,-0.3899791,1.471848E-05,-0.3600962,4.614303E-08,NaN,NaN,-0.03487013,4.656518E-11,1.689626E-06,-1.128794E-07,-6.939751E-10,-2.861022E-08
478.7441,0.04496605,-1.205732E-08,NaN,-0.3270814,-1.346471E-07,NaN,0.4604242,-2.020169E-08,NaN,-0.3839051,1.471903E-05,-0.3602239,4.606247E-08,NaN,NaN,-0.03457312,4.190857E-11,1.681431E-06,-1.128776E-07,1.690211E-09,-2.622604E-08
478.7583,0.04496605,-1.205732E-08,NaN,-0.3270814,-1.346471E-07,NaN,0.4604242,-2.020169E-08,NaN,-0.3839051,1.471903E-05,-0.3602239,4.606247E-08,NaN,NaN,-0.03457312,4.190857E-11,1.681431E-06,-1.128776E-07,1.690211E-09,-2.622604E-08
478.7724,0.04496617,-1.205644E-08,NaN,-0.3270811,-1.346471E-07,NaN,0.4606093,-2.01209E-08,NaN,-0.3779264,1.471958E-05,-0.3603561,4.598344E-08,NaN,NaN,-0.03428182,3.725195E-11,1.672937E-06,-1.128757E-07,4.074396E-09,-2.861022E-08
478.7878,0.04496629,-1.205555E-08,NaN,-0.3270807,-1.346471E-07,NaN,0.4607978,-2.003878E-08,NaN,-0.3720416,1.472013E-05,-0.3604925,4.590307E-08,NaN,NaN,-0.03399611,3.259534E-11,1.665039E-06,-1.128738E-07,4.074396E-09,-2.622604E-08
478.8024,0.04496641,-1.205467E-08,NaN,-0.3270804,-1.346471E-07,NaN,0.4609898,-1.995817E-08,NaN,-0.3662492,1.472067E-05,-0.3606332,4.582422E-08,NaN,NaN,-0.03371587,2.793873E-11,1.655652E-06,-1.128719E-07,1.690211E-09,-2.861022E-08
478.8174,0.04496641,-1.205467E-08,NaN,-0.3270804,-1.346471E-07,NaN,0.4609898,-1.995817E-08,NaN,-0.3662492,1.472067E-05,-0.3606332,4.582422E-08,NaN,NaN,-0.03371587,2.793873E-11,1.655652E-06,-1.128719E-07,1.690211E-09,-2.861022E-08
478.8312,0.04496653,-1.205379E-08,NaN,-0.3270801,-1.346471E-07,NaN,0.4611853,-1.987622E-08,NaN,-0.3605478,1.472122E-05,-0.3607782,4.574403E-08,NaN,NaN,-0.03344101,2.328212E-11,1.645817E-06,-1.128701E-07,4.074396E-09,-2.622604E-08
478.8468,0.04496665,-1.20529E-08,NaN,-0.3270797,-1.346471E-07,NaN,0.4613844,-1.979579E-08,NaN,-0.354936,1.472177E-05,-0.3609275,4.566536E-08,NaN,NaN,-0.0331714,1.862551E-11,1.637323E-06,-1.128682E-07,1.690211E-09,-2.861022E-08
478.8613,0.04496677,-1.205202E-08,NaN,-0.3270794,-1.346467E-07,NaN,0.4615871,-1.93227E-08,NaN,-0.3494123,1.472232E-05,-0.361081,4.519404E-08,NaN,NaN,-0.03290695,1.862551E-11,1.628532E-06,-1.128688E-07,-3.078161E-09,-2.622604E-08
478.8764,0.04496677,-1.205202E-08,NaN,-0.3270794,-1.346467E-07,NaN,0.4615871,-1.93227E-08,NaN,-0.3494123,1.472232E-05,-0.361081,4.519404E-08,NaN,NaN,-0.03290695,1.862551E-11,1.628532E-06,-1.128688E-07,-3.078161E-09,-2.622604E-08
478.8914,0.04496689,-1.205114E-08,NaN,-0.3270791,-1.346467E-07,NaN,0.4617934,-1.873473E-08,NaN,-0.3439754,1.472286E-05,-0.3612387,4.460783E-08,NaN,NaN,-0.03264754,1.862551E-11,1.618548E-06,-1.128698E-07,-3.078161E-09,-2.861022E-08
478.9056,0.04496701,-1.205026E-08,NaN,-0.3270788,-1.34647E-07,NaN,0.4620033,-1.809617E-08,NaN,-0.3386239,1.472341E-05,-0.3614007,4.397102E-08,NaN,NaN,-0.03239308,1.862551E-11,1.609458E-06,-1.128709E-07,4.074396E-09,-2.622604E-08
478.9202,0.04496712,-1.204937E-08,NaN,-0.3270785,-1.346474E-07,NaN,0.4622169,-1.743336E-08,NaN,-0.3333565,1.472395E-05,-0.3615668,4.330996E-08,NaN,NaN,-0.03214347,1.862551E-11,1.599623E-06,-1.128722E-07,8.842768E-09,-2.861022E-08
478.935,0.04496712,-1.204937E-08,NaN,-0.3270785,-1.346474E-07,NaN,0.4622169,-1.743336E-08,NaN,-0.3333565,1.472395E-05,-0.3615668,4.330996E-08,NaN,NaN,-0.03214347,1.862551E-11,1.599623E-06,-1.128722E-07,8.842768E-09,-2.861022E-08
478.9489,0.04496724,-1.204849E-08,NaN,-0.3270782,-1.34648E-07,NaN,0.4624342,-1.676089E-08,NaN,-0.3281718,1.47245E-05,-0.3617372,4.263923E-08,NaN,NaN,-0.0318986,1.862551E-11,1.590236E-06,-1.128736E-07,8.842768E-09,-2.622604E-08
478.9654,0.04496735,-1.20476E-08,NaN,-0.3270779,-1.346486E-07,NaN,0.4626552,-1.60902E-08,NaN,-0.3230686,1.472504E-05,-0.3619117,4.197029E-08,NaN,NaN,-0.03165839,1.862551E-11,1.580848E-06,-1.128749E-07,1.122695E-08,-2.861022E-08
478.9798,0.04496735,-1.20476E-08,NaN,-0.3270779,-1.346486E-07,NaN,0.4626552,-1.60902E-08,NaN,-0.3230686,1.472504E-05,-0.3619117,4.197029E-08,NaN,NaN,-0.03165839,1.862551E-11,1.580848E-06,-1.128749E-07,1.122695E-08,-2.861022E-08
478.9927,0.04496747,-1.204672E-08,NaN,-0.3270776,-1.346492E-07,NaN,0.4628799,-1.542692E-08,NaN,-0.3180457,1.472559E-05,-0.3620904,4.130875E-08,NaN,NaN,-0.03142273,1.862551E-11,1.573248E-06,-1.128763E-07,8.842768E-09,-2.622604E-08
479.0081,0.04496758,-1.204584E-08,NaN,-0.3270773,-1.346499E-07,NaN,0.4631084,-1.477371E-08,NaN,-0.3131017,1.472614E-05,-0.3622732,4.065728E-08,NaN,NaN,-0.03119154,1.396889E-11,1.562818E-06,-1.128777E-07,8.842768E-09,-2.861022E-08
479.0226,0.0449677,-1.204495E-08,NaN,-0.327077,-1.346506E-07,NaN,0.4633406,-1.41332E-08,NaN,-0.3082354,1.472668E-05,-0.3624602,4.001851E-08,NaN,NaN,-0.03096472,1.396889E-11,1.554026E-06,-1.128791E-07,4.074397E-09,-2.622604E-08
479.0374,0.0449677,-1.204495E-08,NaN,-0.327077,-1.346506E-07,NaN,0.4633406,-1.41332E-08,NaN,-0.3082354,1.472668E-05,-0.3624602,4.001851E-08,NaN,NaN,-0.03096472,1.396889E-11,1.554026E-06,-1.128791E-07,4.074397E-09,-2.622604E-08
479.0515,0.04496782,-1.204407E-08,NaN,-0.3270767,-1.346512E-07,NaN,0.4635766,-1.35023E-08,NaN,-0.3034457,1.472723E-05,-0.3626513,3.938935E-08,NaN,NaN,-0.03074218,1.396889E-11,1.544191E-06,-1.128805E-07,-3.07816E-09,-2.861022E-08
479.0667,0.04496793,-1.204319E-08,NaN,-0.3270764,-1.346519E-07,NaN,0.4638165,-1.326762E-08,NaN,-0.2987312,1.472776E-05,-0.3628466,3.91564E-08,NaN,NaN,-0.03052384,2.793873E-11,1.535548E-06,-1.128819E-07,1.690211E-09,-2.622604E-08
479.0815,0.04496805,-1.20423E-08,NaN,-0.3270761,-1.346526E-07,NaN,0.4640602,-1.304027E-08,NaN,-0.2940908,1.47283E-05,-0.363046,3.893079E-08,NaN,NaN,-0.03030961,4.190857E-11,1.526757E-06,-1.128833E-07,-3.07816E-09,-2.861022E-08
479.0962,0.04496805,-1.20423E-08,NaN,-0.3270761,-1.346526E-07,NaN,0.4640602,-1.304027E-08,NaN,-0.2940908,1.47283E-05,-0.363046,3.893079E-08,NaN,NaN,-0.03030961,4.190857E-11,1.526757E-06,-1.128833E-07,-3.07816E-09,-2.861022E-08
479.1102,0.04496816,-1.204142E-08,NaN,-0.3270758,-1.346533E-07,NaN,0.4643078,-1.281727E-08,NaN,-0.2895235,1.472884E-05,-0.3632496,3.870952E-08,NaN,NaN,-0.0300994,6.053502E-11,1.517369E-06,-1.128847E-07,-5.462346E-09,-2.622604E-08
479.1257,0.04496828,-1.204054E-08,NaN,-0.3270755,-1.34654E-07,NaN,0.4645593,-1.259854E-08,NaN,-0.2850279,1.472939E-05,-0.3634572,3.849252E-08,NaN,NaN,-0.02989314,6.519164E-11,1.506938E-06,-1.128861E-07,-3.07816E-09,-2.861022E-08
479.1402,0.04496839,-1.203966E-08,NaN,-0.3270752,-1.346546E-07,NaN,0.4648146,-1.238682E-08,NaN,-0.2806031,1.472993E-05,-0.363669,3.828253E-08,NaN,NaN,-0.02969073,7.916148E-11,1.497104E-06,-1.128875E-07,-3.07816E-09,-2.622604E-08
479.155,0.04496839,-1.203966E-08,NaN,-0.3270752,-1.346546E-07,NaN,0.4648146,-1.238682E-08,NaN,-0.2806031,1.472993E-05,-0.363669,3.828253E-08,NaN,NaN,-0.02969073,7.916148E-11,1.497104E-06,-1.128875E-07,-3.07816E-09,-2.622604E-08
479.1693,0.0449685,-1.203877E-08,NaN,-0.3270749,-1.346553E-07,NaN,0.4650739,-1.217915E-08,NaN,-0.2762478,1.473049E-05,-0.3638849,3.807659E-08,NaN,NaN,-0.02949211,8.381809E-11,1.48861E-06,-1.128888E-07,1.690211E-09,-2.861022E-08
479.1846,0.04496861,-1.203789E-08,NaN,-0.3270746,-1.34656E-07,NaN,0.4653371,-1.197827E-08,NaN,-0.2719611,1.473103E-05,-0.3641049,3.787744E-08,NaN,NaN,-0.0292972,9.778793E-11,1.478179E-06,-1.128902E-07,1.690211E-09,-2.622604E-08
479.1995,0.04496861,-1.203789E-08,NaN,-0.3270746,-1.34656E-07,NaN,0.4653371,-1.197827E-08,NaN,-0.2719611,1.473103E-05,-0.3641049,3.787744E-08,NaN,NaN,-0.0292972,9.778793E-11,1.478179E-06,-1.128902E-07,1.690211E-09,-2.622604E-08
479.2132,0.04496872,-1.2037E-08,NaN,-0.3270743,-1.346566E-07,NaN,0.4656043,-1.178122E-08,NaN,-0.2677417,1.473158E-05,-0.364329,3.768213E-08,NaN,NaN,-0.02910591,1.024445E-10,1.468791E-06,-1.128916E-07,-5.462346E-09,-2.861022E-08
479.2297,0.04496884,-1.203612E-08,NaN,-0.327074,-1.346573E-07,NaN,0.4658754,-1.159076E-08,NaN,-0.2635888,1.473213E-05,-0.3645572,3.74934E-08,NaN,NaN,-0.02891817,1.117578E-10,1.458063E-06,-1.12893E-07,-1.26149E-08,-2.622604E-08
479.2442,0.04496895,-1.203524E-08,NaN,-0.3270737,-1.34658E-07,NaN,0.4661506,-1.140393E-08,NaN,-0.2595012,1.473268E-05,-0.3647895,3.730829E-08,NaN,NaN,-0.0287339,1.21071E-10,1.448526E-06,-1.128943E-07,-7.846531E-09,-2.861022E-08
479.2579,0.04496895,-1.203524E-08,NaN,-0.3270737,-1.34658E-07,NaN,0.4661506,-1.140393E-08,NaN,-0.2595012,1.473268E-05,-0.3647895,3.730829E-08,NaN,NaN,-0.0287339,1.21071E-10,1.448526E-06,-1.128943E-07,-7.846531E-09,-2.861022E-08
479.2719,0.04496906,-1.203435E-08,NaN,-0.3270734,-1.346586E-07,NaN,0.4664297,-1.122065E-08,NaN,-0.2554779,1.473323E-05,-0.3650259,3.712675E-08,NaN,NaN,-0.02855304,1.303842E-10,1.438393E-06,-1.128957E-07,-1.499909E-08,-2.622604E-08
479.2871,0.04496917,-1.203347E-08,NaN,-0.3270731,-1.346593E-07,NaN,0.4667129,-1.104369E-08,NaN,-0.251518,1.473378E-05,-0.3652664,3.695152E-08,NaN,NaN,-0.02837552,1.396975E-10,1.427664E-06,-1.12897E-07,-1.499909E-08,-2.861022E-08
479.3019,0.04496928,-1.203259E-08,NaN,-0.3270728,-1.3466E-07,NaN,0.4670001,-1.08701E-08,NaN,-0.2476203,1.473433E-05,-0.365511,3.677965E-08,NaN,NaN,-0.02820126,1.490107E-10,1.418425E-06,-1.128984E-07,-1.738327E-08,-2.622604E-08
479.3167,0.04496928,-1.203259E-08,NaN,-0.3270728,-1.3466E-07,NaN,0.4670001,-1.08701E-08,NaN,-0.2476203,1.473433E-05,-0.365511,3.677965E-08,NaN,NaN,-0.02820126,1.490107E-10,1.418425E-06,-1.128984E-07,-1.738327E-08,-2.622604E-08
479.3305,0.04496939,-1.20317E-08,NaN,-0.3270725,-1.346606E-07,NaN,0.4672914,-1.070263E-08,NaN,-0.243784,1.473488E-05,-0.3657597,3.661391E-08,NaN,NaN,-0.02803019,1.536673E-10,1.407995E-06,-1.128997E-07,-1.26149E-08,-2.861022E-08
479.346,0.0449695,-1.203082E-08,NaN,-0.3270722,-1.346613E-07,NaN,0.4675867,-1.053834E-08,NaN,-0.2400081,1.473543E-05,-0.3660124,3.645135E-08,NaN,NaN,-0.02786225,1.629805E-10,1.397862E-06,-1.12901E-07,-1.023072E-08,-2.622604E-08
479.3604,0.04496961,-1.202993E-08,NaN,-0.3270719,-1.346619E-07,NaN,0.4678861,-1.037999E-08,NaN,-0.2362916,1.473599E-05,-0.3662692,3.629473E-08,NaN,NaN,-0.02769737,1.676371E-10,1.388921E-06,-1.129024E-07,-7.846531E-09,-2.861022E-08
479.3766,0.04496961,-1.202993E-08,NaN,-0.3270719,-1.346619E-07,NaN,0.4678861,-1.037999E-08,NaN,-0.2362916,1.473599E-05,-0.3662692,3.629473E-08,NaN,NaN,-0.02769737,1.676371E-10,1.388921E-06,-1.129024E-07,-7.846531E-09,-2.861022E-08
479.3892,0.04496972,-1.202905E-08,NaN,-0.3270716,-1.346626E-07,NaN,0.4681895,-1.022464E-08,NaN,-0.2326336,1.473654E-05,-0.3665301,3.614111E-08,NaN,NaN,-0.02753549,1.769504E-10,1.378788E-06,-1.129037E-07,-1.26149E-08,-2.622604E-08
479.4046,0.04496983,-1.202816E-08,NaN,-0.3270713,-1.346632E-07,NaN,0.468497,-1.007505E-08,NaN,-0.2290332,1.473709E-05,-0.3667951,3.599325E-08,NaN,NaN,-0.02737653,1.81607E-10,1.36806E-06,-1.12905E-07,-1.499909E-08,-2.861022E-08
479.4193,0.04496983,-1.202816E-08,NaN,-0.3270713,-1.346632E-07,NaN,0.468497,-1.007505E-08,NaN,-0.2290332,1.473709E-05,-0.3667951,3.599325E-08,NaN,NaN,-0.02737653,1.81607E-10,1.36806E-06,-1.12905E-07,-1.499909E-08,-2.861022E-08
479.4333,0.04496993,-1.202728E-08,NaN,-0.327071,-1.346639E-07,NaN,0.4688087,-9.928298E-09,NaN,-0.2254895,1.473764E-05,-0.3670641,3.584822E-08,NaN,NaN,-0.02722045,1.909202E-10,1.358225E-06,-1.129063E-07,-1.26149E-08,-2.622604E-08
479.449,0.04497004,-1.202639E-08,NaN,-0.3270707,-1.346645E-07,NaN,0.4691243,-9.784314E-09,NaN,-0.2220016,1.473819E-05,-0.3673372,3.570596E-08,NaN,NaN,-0.02706717,1.955768E-10,1.349582E-06,-1.129077E-07,-1.26149E-08,-2.861022E-08
479.4637,0.04497015,-1.202551E-08,NaN,-0.3270705,-1.346652E-07,NaN,0.4694442,-9.645873E-09,NaN,-0.2185686,1.473874E-05,-0.3676143,3.556925E-08,NaN,NaN,-0.02691664,2.0489E-10,1.338853E-06,-1.12909E-07,-1.499909E-08,-2.622604E-08
479.4783,0.04497015,-1.202551E-08,NaN,-0.3270705,-1.346652E-07,NaN,0.4694442,-9.645873E-09,NaN,-0.2185686,1.473874E-05,-0.3676143,3.556925E-08,NaN,NaN,-0.02691664,2.0489E-10,1.338853E-06,-1.12909E-07,-1.499909E-08,-2.622604E-08
479.4941,0.04497026,-1.202463E-08,NaN,-0.3270702,-1.346658E-07,NaN,0.469768,-9.510043E-09,NaN,-0.2151897,1.47393E-05,-0.3678954,3.543515E-08,NaN,NaN,-0.0267688,2.095467E-10,1.329018E-06,-1.129103E-07,-1.26149E-08,-2.861022E-08
479.5083,0.04497037,-1.202374E-08,NaN,-0.3270699,-1.346664E-07,NaN,0.470096,-9.379595E-09,NaN,-0.211864,1.473985E-05,-0.3681806,3.530643E-08,NaN,NaN,-0.02662359,2.142033E-10,1.319482E-06,-1.129116E-07,-1.738328E-08,-2.622604E-08
479.5221,0.04497048,-1.202286E-08,NaN,-0.3270697,-1.346671E-07,NaN,0.4704281,-9.251599E-09,NaN,-0.2085907,1.474041E-05,-0.3684698,3.518016E-08,NaN,NaN,-0.02648095,2.188599E-10,1.309349E-06,-1.129129E-07,-1.976746E-08,-2.861022E-08
479.5367,0.04497048,-1.202286E-08,NaN,-0.3270697,-1.346671E-07,NaN,0.4704281,-9.251599E-09,NaN,-0.2085907,1.474041E-05,-0.3684698,3.518016E-08,NaN,NaN,-0.02648095,2.188599E-10,1.309349E-06,-1.129129E-07,-1.976746E-08,-2.861022E-08
479.5508,0.04497058,-1.202197E-08,NaN,-0.3270694,-1.346677E-07,NaN,0.4707643,-9.126008E-09,NaN,-0.2053689,1.474096E-05,-0.368763,3.50563E-08,NaN,NaN,-0.02634082,2.235165E-10,1.30011E-06,-1.129142E-07,-2.453583E-08,-2.622604E-08
479.566,0.04497069,-1.202109E-08,NaN,-0.3270691,-1.346684E-07,NaN,0.4711046,-9.005599E-09,NaN,-0.2021978,1.474151E-05,-0.3690602,3.493761E-08,NaN,NaN,-0.02620316,2.281731E-10,1.289679E-06,-1.129155E-07,-3.168839E-08,-2.861022E-08
479.5806,0.04497079,-1.20202E-08,NaN,-0.3270689,-1.34669E-07,NaN,0.4714489,-8.887446E-09,NaN,-0.1990768,1.474206E-05,-0.3693613,3.482119E-08,NaN,NaN,-0.0260679,2.374863E-10,1.280143E-06,-1.129167E-07,-2.215165E-08,-2.622604E-08
479.5953,0.04497079,-1.20202E-08,NaN,-0.3270689,-1.34669E-07,NaN,0.4714489,-8.887446E-09,NaN,-0.1990768,1.474206E-05,-0.3693613,3.482119E-08,NaN,NaN,-0.0260679,2.374863E-10,1.280143E-06,-1.129167E-07,-2.215165E-08,-2.622604E-08
479.6094,0.0449709,-1.201931E-08,NaN,-0.3270686,-1.346696E-07,NaN,0.4717973,-8.774331E-09,NaN,-0.1960049,1.474262E-05,-0.3696664,3.47098E-08,NaN,NaN,-0.025935,2.421429E-10,1.270308E-06,-1.12918E-07,-2.215165E-08,-2.861022E-08
479.6248,0.044971,-1.201843E-08,NaN,-0.3270683,-1.346702E-07,NaN,0.4721993,-8.66333E-09,NaN,-0.1931251,1.474317E-05,-0.3700277,3.460053E-08,NaN,NaN,-0.02580734,2.514561E-10,1.257195E-06,-1.129193E-07,-1.26149E-08,-2.622604E-08
479.6395,0.044971,-1.201843E-08,NaN,-0.3270683,-1.346702E-07,NaN,0.4721993,-8.66333E-09,NaN,-0.1931251,1.474317E-05,-0.3700277,3.460053E-08,NaN,NaN,-0.02580734,2.514561E-10,1.257195E-06,-1.129193E-07,-1.26149E-08,-2.622604E-08
479.6538,0.0449711,-1.201754E-08,NaN,-0.3270681,-1.346709E-07,NaN,0.4726075,-8.557223E-09,NaN,-0.190376,1.474372E-05,-0.3703968,3.449615E-08,NaN,NaN,-0.02568076,2.561127E-10,1.245572E-06,-1.129206E-07,-1.499909E-08,-2.861022E-08
479.6694,0.04497121,-1.201666E-08,NaN,-0.3270678,-1.346715E-07,NaN,0.4730106,-8.453092E-09,NaN,-0.187711,1.474427E-05,-0.3707613,3.439374E-08,NaN,NaN,-0.0255559,2.65426E-10,1.234843E-06,-1.129218E-07,-1.976746E-08,-2.622604E-08
479.6839,0.04497131,-1.201577E-08,NaN,-0.3270675,-1.346721E-07,NaN,0.4734089,-8.350899E-09,NaN,-0.1851073,1.474482E-05,-0.371121,3.429328E-08,NaN,NaN,-0.025433,2.700826E-10,1.22471E-06,-1.129231E-07,-1.499909E-08,-2.861022E-08
479.6989,0.04497131,-1.201577E-08,NaN,-0.3270675,-1.346721E-07,NaN,0.4734089,-8.350899E-09,NaN,-0.1851073,1.474482E-05,-0.371121,3.429328E-08,NaN,NaN,-0.025433,2.700826E-10,1.22471E-06,-1.129231E-07,-1.499909E-08,-2.861022E-08
479.7129,0.04497143,-1.201489E-08,NaN,-0.3270673,-1.346727E-07,NaN,0.4742528,-8.25343E-09,NaN,-0.1837737,1.474537E-05,-0.3719485,3.419753E-08,NaN,NaN,-0.02534016,2.793958E-10,1.185073E-06,-1.129243E-07,-1.738328E-08,-2.622604E-08
479.7284,0.04497154,-1.2014E-08,NaN,-0.327067,-1.346734E-07,NaN,0.4751075,-8.157766E-09,NaN,-0.1831931,1.474593E-05,-0.3728005,3.41036E-08,NaN,NaN,-0.02523798,2.840524E-10,1.157059E-06,-1.129256E-07,-1.738328E-08,-2.861022E-08
479.743,0.04497166,-1.201311E-08,NaN,-0.3270667,-1.34674E-07,NaN,0.475876,-8.066699E-09,NaN,-0.1829699,1.474648E-05,-0.3735717,3.401426E-08,NaN,NaN,-0.02513306,2.933656E-10,1.135303E-06,-1.129268E-07,-1.738328E-08,-2.622604E-08
479.7585,0.04497166,-1.201311E-08,NaN,-0.3270667,-1.34674E-07,NaN,0.475876,-8.066699E-09,NaN,-0.1829699,1.474648E-05,-0.3735717,3.401426E-08,NaN,NaN,-0.02513306,2.933656E-10,1.135303E-06,-1.129268E-07,-1.738328E-08,-2.622604E-08
479.7727,0.04497178,-1.201223E-08,NaN,-0.3270665,-1.346746E-07,NaN,0.4770207,-7.977314E-09,NaN,-0.1841358,1.474704E-05,-0.3747424,3.39266E-08,NaN,NaN,-0.0250571,2.88709E-10,1.087918E-06,-1.129281E-07,-1.738328E-08,-2.861022E-08
479.7872,0.04497189,-1.201134E-08,NaN,-0.3270662,-1.346752E-07,NaN,0.4781073,-7.889574E-09,NaN,-0.1860909,1.474759E-05,-0.3758685,3.384058E-08,NaN,NaN,-0.02497009,2.980222E-10,1.050665E-06,-1.129293E-07,-1.976746E-08,-2.622604E-08
479.8017,0.04497201,-1.201046E-08,NaN,-0.3270659,-1.346758E-07,NaN,0.479062,-7.806275E-09,NaN,-0.1883993,1.474814E-05,-0.3768674,3.375901E-08,NaN,NaN,-0.02487944,3.026788E-10,1.020862E-06,-1.129306E-07,-2.453583E-08,-2.861022E-08
479.8164,0.04497201,-1.201046E-08,NaN,-0.3270659,-1.346758E-07,NaN,0.479062,-7.806275E-09,NaN,-0.1883993,1.474814E-05,-0.3768674,3.375901E-08,NaN,NaN,-0.02487944,3.026788E-10,1.020862E-06,-1.129306E-07,-2.453583E-08,-2.861022E-08
479.8304,0.04497213,-1.200957E-08,NaN,-0.3270656,-1.346764E-07,NaN,0.479907,-7.724505E-09,NaN,-0.1908542,1.474869E-05,-0.377757,3.367896E-08,NaN,NaN,-0.02478823,3.11992E-10,9.931463E-07,-1.129318E-07,-2.453583E-08,-2.622604E-08
479.8461,0.04497225,-1.200868E-08,NaN,-0.3270654,-1.34677E-07,NaN,0.4811157,-7.938842E-09,NaN,-0.1945787,1.474925E-05,-0.3790319,3.389502E-08,NaN,NaN,-0.02472501,3.11992E-10,9.403961E-07,-1.129315E-07,-1.976746E-08,-2.861022E-08
479.8618,0.04497237,-1.20078E-08,NaN,-0.3270652,-1.346773E-07,NaN,0.4822607,-8.25035E-09,NaN,-0.199014,1.474978E-05,-0.3802565,3.420826E-08,NaN,NaN,-0.02465101,3.259619E-10,9.007591E-07,-1.12931E-07,-2.692002E-08,-2.622604E-08
479.8754,0.04497237,-1.20078E-08,NaN,-0.3270652,-1.346773E-07,NaN,0.4822607,-8.25035E-09,NaN,-0.199014,1.474978E-05,-0.3802565,3.420826E-08,NaN,NaN,-0.02465101,3.259619E-10,9.007591E-07,-1.12931E-07,-2.692002E-08,-2.622604E-08
479.8894,0.04497249,-1.200691E-08,NaN,-0.3270649,-1.346773E-07,NaN,0.4832695,-8.609198E-09,NaN,-0.203745,1.475033E-05,-0.3813501,3.456884E-08,NaN,NaN,-0.02457318,3.306185E-10,8.661884E-07,-1.129302E-07,-2.930421E-08,-2.861022E-08
479.9053,0.04497261,-1.200602E-08,NaN,-0.3270647,-1.346771E-07,NaN,0.4841621,-8.991905E-09,NaN,-0.2085756,1.475087E-05,-0.3823287,3.495328E-08,NaN,NaN,-0.02449435,3.352751E-10,8.363861E-07,-1.129294E-07,-3.168839E-08,-2.622604E-08
479.9199,0.04497261,-1.200602E-08,NaN,-0.3270647,-1.346771E-07,NaN,0.4841621,-8.991905E-09,NaN,-0.2085756,1.475087E-05,-0.3823287,3.495328E-08,NaN,NaN,-0.02449435,3.352751E-10,8.363861E-07,-1.129294E-07,-3.168839E-08,-2.622604E-08
479.9341,0.04497273,-1.200514E-08,NaN,-0.3270645,-1.346769E-07,NaN,0.4853741,-9.383907E-09,NaN,-0.2146363,1.475142E-05,-0.3836511,3.534702E-08,NaN,NaN,-0.02443928,3.399317E-10,7.740992E-07,-1.129285E-07,-2.930421E-08,-2.861022E-08
479.9495,0.04497286,-1.200425E-08,NaN,-0.3270642,-1.346766E-07,NaN,0.4865082,-9.779388E-09,NaN,-0.2213674,1.475195E-05,-0.3849114,3.574424E-08,NaN,NaN,-0.02437421,3.585582E-10,7.282036E-07,-1.129276E-07,-2.692002E-08,-2.622604E-08
479.9643,0.04497298,-1.200336E-08,NaN,-0.327064,-1.346763E-07,NaN,0.4874978,-1.017264E-08,NaN,-0.2283564,1.475249E-05,-0.3860345,3.613924E-08,NaN,NaN,-0.02430532,3.632148E-10,6.855863E-07,-1.129266E-07,-2.930421E-08,-2.861022E-08
479.979,0.04497298,-1.200336E-08,NaN,-0.327064,-1.346763E-07,NaN,0.4874978,-1.017264E-08,NaN,-0.2283564,1.475249E-05,-0.3860345,3.613924E-08,NaN,NaN,-0.02430532,3.632148E-10,6.855863E-07,-1.129266E-07,-2.930421E-08,-2.861022E-08
479.993,0.04497309,-1.200248E-08,NaN,-0.3270637,-1.34676E-07,NaN,0.4879254,-1.056089E-08,NaN,-0.2339667,1.475302E-05,-0.3865677,3.652923E-08,NaN,NaN,-0.0242114,3.818412E-10,6.832021E-07,-1.129257E-07,-2.930421E-08,-2.622604E-08
480.0095,0.04497319,-1.200159E-08,NaN,-0.3270635,-1.346757E-07,NaN,0.4882682,-1.09414E-08,NaN,-0.2387179,1.475357E-05,-0.3869969,3.691149E-08,NaN,NaN,-0.02412796,3.864978E-10,6.697911E-07,-1.129248E-07,-2.930421E-08,-2.861022E-08
480.024,0.0449733,-1.200071E-08,NaN,-0.3270633,-1.346754E-07,NaN,0.4886366,-1.131435E-08,NaN,-0.2430272,1.475411E-05,-0.387443,3.728619E-08,NaN,NaN,-0.02404942,3.911544E-10,6.507176E-07,-1.129238E-07,-2.930421E-08,-2.622604E-08
480.0378,0.0449733,-1.200071E-08,NaN,-0.3270633,-1.346754E-07,NaN,0.4886366,-1.131435E-08,NaN,-0.2430272,1.475411E-05,-0.387443,3.728619E-08,NaN,NaN,-0.02404942,3.911544E-10,6.507176E-07,-1.129238E-07,-2.930421E-08,-2.622604E-08
480.0519,0.04497341,-1.199982E-08,NaN,-0.327063,-1.34675E-07,NaN,0.4890338,-1.167986E-08,NaN,-0.2470929,1.475465E-05,-0.3879153,3.765346E-08,NaN,NaN,-0.02397357,4.004677E-10,6.30154E-07,-1.129229E-07,-3.168839E-08,-2.861022E-08
480.0673,0.04497352,-1.199893E-08,NaN,-0.3270628,-1.346747E-07,NaN,0.4894428,-1.20381E-08,NaN,-0.2510101,1.47552E-05,-0.3884,3.801345E-08,NaN,NaN,-0.02389953,4.051243E-10,6.086963E-07,-1.129219E-07,-3.168839E-08,-2.622604E-08
480.0821,0.04497363,-1.199805E-08,NaN,-0.3270625,-1.346744E-07,NaN,0.4898489,-1.23892E-08,NaN,-0.2548247,1.475574E-05,-0.3888836,3.83663E-08,NaN,NaN,-0.02382695,4.097809E-10,5.857485E-07,-1.12921E-07,-3.407258E-08,-2.861022E-08
480.097,0.04497363,-1.199805E-08,NaN,-0.3270625,-1.346744E-07,NaN,0.4898489,-1.23892E-08,NaN,-0.2548247,1.475574E-05,-0.3888836,3.83663E-08,NaN,NaN,-0.02382695,4.097809E-10,5.857485E-07,-1.12921E-07,-3.407258E-08,-2.861022E-08
480.111,0.04497373,-1.199716E-08,NaN,-0.3270623,-1.34674E-07,NaN,0.4902427,-1.273331E-08,NaN,-0.2585591,1.475629E-05,-0.3893573,3.871216E-08,NaN,NaN,-0.02375566,4.144375E-10,5.654829E-07,-1.129201E-07,-3.645676E-08,-2.622604E-08
480.1265,0.04497384,-1.199627E-08,NaN,-0.3270621,-1.346737E-07,NaN,0.4906192,-1.306773E-08,NaN,-0.2622248,1.475683E-05,-0.3898161,3.904834E-08,NaN,NaN,-0.0236856,4.190941E-10,5.455154E-07,-1.129191E-07,-3.645676E-08,-2.861022E-08
480.1411,0.04497384,-1.199539E-08,NaN,-0.3270618,-1.346733E-07,NaN,0.4909761,-1.339548E-08,NaN,-0.2658274,1.475738E-05,-0.3902578,3.937784E-08,NaN,NaN,-0.02361672,4.237507E-10,5.270379E-07,-1.129182E-07,-3.645676E-08,-2.622604E-08
480.1559,0.04497384,-1.199539E-08,NaN,-0.3270618,-1.346733E-07,NaN,0.4909761,-1.339548E-08,NaN,-0.2658274,1.475738E-05,-0.3902578,3.937784E-08,NaN,NaN,-0.02361672,4.237507E-10,5.270379E-07,-1.129182E-07,-3.645676E-08,-2.622604E-08
480.1701,0.04497381,-1.19945E-08,NaN,-0.3270616,-1.34673E-07,NaN,0.4913126,-1.37167E-08,NaN,-0.2693705,1.475792E-05,-0.3906813,3.970082E-08,NaN,NaN,-0.02354902,4.284073E-10,5.079644E-07,-1.129173E-07,-3.407258E-08,-2.861022E-08
480.1856,0.04497376,-1.199361E-08,NaN,-0.3270614,-1.346727E-07,NaN,0.4916287,-1.402868E-08,NaN,-0.2728561,1.475847E-05,-0.3910864,4.001455E-08,NaN,NaN,-0.02348247,4.330639E-10,4.88891E-07,-1.129164E-07,-3.407258E-08,-2.622604E-08
480.2003,0.04497372,-1.199273E-08,NaN,-0.3270611,-1.346723E-07,NaN,0.4919249,-1.433444E-08,NaN,-0.2762856,1.475901E-05,-0.3914735,4.032206E-08,NaN,NaN,-0.02341705,4.377205E-10,4.719037E-07,-1.129155E-07,-3.645676E-08,-2.861022E-08
480.2154,0.04497372,-1.199273E-08,NaN,-0.3270611,-1.346723E-07,NaN,0.4919249,-1.433444E-08,NaN,-0.2762856,1.475901E-05,-0.3914735,4.032206E-08,NaN,NaN,-0.02341705,4.377205E-10,4.719037E-07,-1.129155E-07,-3.645676E-08,-2.861022E-08
480.2294,0.04424626,-1.199184E-08,NaN,-0.3270622,-1.34672E-07,NaN,0.4931104,-1.463409E-08,NaN,-0.2792565,1.475956E-05,-0.3925992,4.062347E-08,NaN,NaN,-0.02335163,4.423771E-10,4.549163E-07,-1.129145E-07,-3.645676E-08,-2.622604E-08
480.2447,0.04306414,-1.199095E-08,NaN,-0.3270636,-1.346717E-07,NaN,0.4945445,-1.492775E-08,NaN,-0.2820569,1.47601E-05,-0.3939019,4.091888E-08,NaN,NaN,-0.02328715,4.470337E-10,4.397172E-07,-1.129136E-07,-3.645676E-08,-2.861022E-08
480.2604,0.04160088,-1.199007E-08,NaN,-0.3270648,-1.346714E-07,NaN,0.4959857,-1.521272E-08,NaN,-0.284801,1.476065E-05,-0.3951803,4.120561E-08,NaN,NaN,-0.02322384,4.516904E-10,4.230278E-07,-1.129127E-07,-3.407258E-08,-2.622604E-08
480.2741,0.04160088,-1.199007E-08,NaN,-0.3270648,-1.346714E-07,NaN,0.4959857,-1.521272E-08,NaN,-0.284801,1.476065E-05,-0.3951803,4.120561E-08,NaN,NaN,-0.02322384,4.516904E-10,4.230278E-07,-1.129127E-07,-3.407258E-08,-2.622604E-08
480.2883,0.03923854,-1.198918E-08,NaN,-0.327068,-1.34671E-07,NaN,0.4982481,-1.549199E-08,NaN,-0.2871246,1.476119E-05,-0.3971202,4.148663E-08,NaN,NaN,-0.02316065,4.56347E-10,4.090207E-07,-1.129118E-07,-3.645676E-08,-2.861022E-08
480.3034,0.0363204,-1.198829E-08,NaN,-0.3270715,-1.346707E-07,NaN,0.5006863,-1.576567E-08,NaN,-0.2893223,1.476173E-05,-0.3991654,4.176207E-08,NaN,NaN,-0.02309847,4.610036E-10,3.970998E-07,-1.129109E-07,-3.168839E-08,-2.622604E-08
480.3182,0.0363204,-1.198829E-08,NaN,-0.3270715,-1.346707E-07,NaN,0.5006863,-1.576567E-08,NaN,-0.2893223,1.476173E-05,-0.3991654,4.176207E-08,NaN,NaN,-0.02309847,4.610036E-10,3.970998E-07,-1.129109E-07,-3.168839E-08,-2.622604E-08
480.3337,0.03306476,-1.198741E-08,NaN,-0.3270745,-1.346704E-07,NaN,0.5030668,-1.603105E-08,NaN,-0.2915043,1.476228E-05,-0.4011273,4.202921E-08,NaN,NaN,-0.0230375,4.610036E-10,3.824967E-07,-1.1291E-07,-3.407258E-08,-2.861022E-08
480.3485,0.02961042,-1.198652E-08,NaN,-0.3270767,-1.3467E-07,NaN,0.5053202,-1.629112E-08,NaN,-0.2937027,1.476281E-05,-0.4029596,4.229103E-08,NaN,NaN,-0.02297777,4.749734E-10,3.699797E-07,-1.129091E-07,-3.645677E-08,-2.622604E-08
480.3627,0.02531724,-1.198563E-08,NaN,-0.3270805,-1.346697E-07,NaN,0.5083206,-1.654598E-08,NaN,-0.295518,1.476335E-05,-0.4054021,4.254765E-08,NaN,NaN,-0.02291814,4.749734E-10,3.586548E-07,-1.129082E-07,-3.884096E-08,-2.861022E-08
480.3774,0.02531724,-1.198563E-08,NaN,-0.3270805,-1.346697E-07,NaN,0.5083206,-1.654598E-08,NaN,-0.295518,1.476335E-05,-0.4054021,4.254765E-08,NaN,NaN,-0.02291814,4.749734E-10,3.586548E-07,-1.129082E-07,-3.884096E-08,-2.861022E-08
480.3914,0.02051428,-1.198474E-08,NaN,-0.3270839,-1.346694E-07,NaN,0.5114614,-1.679573E-08,NaN,-0.2972274,1.476389E-05,-0.4079313,4.279915E-08,NaN,NaN,-0.02285948,4.749734E-10,3.491181E-07,-1.129073E-07,-3.884096E-08,-2.622604E-08
480.407,0.01541071,-1.198386E-08,NaN,-0.3270863,-1.346691E-07,NaN,0.5145245,-1.703765E-08,NaN,-0.2989342,1.476442E-05,-0.4103703,4.304283E-08,NaN,NaN,-0.02280198,4.7963E-10,3.383893E-07,-1.129065E-07,-4.599351E-08,-2.861022E-08
480.4216,0.01013939,-1.198297E-08,NaN,-0.3270876,-1.346687E-07,NaN,0.5174458,-1.727474E-08,NaN,-0.300668,1.476496E-05,-0.4126757,4.328167E-08,NaN,NaN,-0.02274564,4.7963E-10,3.279584E-07,-1.129056E-07,-4.360933E-08,-2.622604E-08
480.4366,0.01013939,-1.198297E-08,NaN,-0.3270876,-1.346687E-07,NaN,0.5174458,-1.727474E-08,NaN,-0.300668,1.476496E-05,-0.4126757,4.328167E-08,NaN,NaN,-0.02274564,4.7963E-10,3.279584E-07,-1.129056E-07,-4.360933E-08,-2.622604E-08
480.4506,0.004056339,-1.198208E-08,NaN,-0.3270899,-1.346684E-07,NaN,0.5210972,-1.750706E-08,NaN,-0.302031,1.476551E-05,-0.4155867,4.351574E-08,NaN,NaN,-0.02268937,4.703168E-10,3.163355E-07,-1.129047E-07,-4.122514E-08,-2.861022E-08
480.4663,-0.002511913,-1.19812E-08,NaN,-0.3270914,-1.346681E-07,NaN,0.5248752,-1.773471E-08,NaN,-0.3032986,1.476605E-05,-0.418581,4.374515E-08,NaN,NaN,-0.022634,4.703168E-10,3.056067E-07,-1.129038E-07,-4.122514E-08,-2.622604E-08
480.4808,-0.009357886,-1.198031E-08,NaN,-0.3270921,-1.346678E-07,NaN,0.5285649,-1.795496E-08,NaN,-0.3045741,1.476659E-05,-0.4214835,4.396716E-08,NaN,NaN,-0.02257972,4.703168E-10,2.990502E-07,-1.12903E-07,-4.360933E-08,-2.861022E-08
480.4968,-0.009357886,-1.198031E-08,NaN,-0.3270921,-1.346678E-07,NaN,0.5285649,-1.795496E-08,NaN,-0.3045741,1.476659E-05,-0.4214835,4.396716E-08,NaN,NaN,-0.02257972,4.703168E-10,2.990502E-07,-1.12903E-07,-4.360933E-08,-2.861022E-08
480.5107,-0.01707818,-1.197942E-08,NaN,-0.3270935,-1.346674E-07,NaN,0.5329821,-1.817079E-08,NaN,-0.3054902,1.476713E-05,-0.4249891,4.418474E-08,NaN,NaN,-0.02252547,4.703168E-10,2.901095E-07,-1.129021E-07,-4.599351E-08,-2.622604E-08
480.5249,-0.02531615,-1.197854E-08,NaN,-0.327094,-1.346671E-07,NaN,0.5375062,-1.838227E-08,NaN,-0.3063304,1.476768E-05,-0.4285623,4.439798E-08,NaN,NaN,-0.02247211,4.610036E-10,2.844471E-07,-1.129012E-07,-4.83777E-08,-2.861022E-08
480.5397,-0.02531615,-1.197854E-08,NaN,-0.327094,-1.346671E-07,NaN,0.5375062,-1.838227E-08,NaN,-0.3063304,1.476768E-05,-0.4285623,4.439798E-08,NaN,NaN,-0.02247211,4.610036E-10,2.844471E-07,-1.129012E-07,-4.83777E-08,-2.861022E-08
480.5536,-0.03384526,-1.197765E-08,NaN,-0.3270938,-1.346668E-07,NaN,0.5419183,-1.858668E-08,NaN,-0.3071984,1.476822E-05,-0.4320254,4.460414E-08,NaN,NaN,-0.02241981,4.610036E-10,2.747613E-07,-1.129004E-07,-4.83777E-08,-2.622604E-08
480.5691,-0.04252179,-1.197676E-08,NaN,-0.3270928,-1.346665E-07,NaN,0.5461564,-1.878696E-08,NaN,-0.308122,1.476877E-05,-0.4353359,4.480617E-08,NaN,NaN,-0.02236857,4.516904E-10,2.676088E-07,-1.128995E-07,-4.599351E-08,-2.861022E-08
480.584,-0.051983,-1.197587E-08,NaN,-0.3270927,-1.346662E-07,NaN,0.5511057,-1.89832E-08,NaN,-0.3087072,1.476931E-05,-0.4392512,4.500417E-08,NaN,NaN,-0.02231726,4.516904E-10,2.629894E-07,-1.128986E-07,-4.599351E-08,-2.622604E-08
480.5988,-0.051983,-1.197587E-08,NaN,-0.3270927,-1.346662E-07,NaN,0.5511057,-1.89832E-08,NaN,-0.3087072,1.476931E-05,-0.4392512,4.500417E-08,NaN,NaN,-0.02231726,4.516904E-10,2.629894E-07,-1.128986E-07,-4.599351E-08,-2.622604E-08
480.6128,-0.06189819,-1.197499E-08,NaN,-0.3270918,-1.346659E-07,NaN,0.5561581,-1.917549E-08,NaN,-0.3092234,1.476986E-05,-0.4432418,4.519822E-08,NaN,NaN,-0.02226676,4.423771E-10,2.555388E-07,-1.128978E-07,-4.83777E-08,-2.861022E-08
480.6283,-0.0720574,-1.19741E-08,NaN,-0.3270899,-1.346656E-07,NaN,0.5610982,-1.936107E-08,NaN,-0.3097709,1.47704E-05,-0.4471301,4.538555E-08,NaN,NaN,-0.02221724,4.423771E-10,2.515155E-07,-1.128969E-07,-4.83777E-08,-2.622604E-08
480.643,-0.08232755,-1.197321E-08,NaN,-0.3270875,-1.346652E-07,NaN,0.5658641,-1.95429E-08,NaN,-0.3103772,1.477095E-05,-0.4508717,4.556914E-08,NaN,NaN,-0.02216872,4.330639E-10,2.45257E-07,-1.128961E-07,-4.83777E-08,-2.861022E-08
480.6581,-0.08232755,-1.197321E-08,NaN,-0.3270875,-1.346652E-07,NaN,0.5658641,-1.95429E-08,NaN,-0.3103772,1.477095E-05,-0.4508717,4.556914E-08,NaN,NaN,-0.02216872,4.330639E-10,2.45257E-07,-1.128961E-07,-4.83777E-08,-2.861022E-08
480.672,-0.09335278,-1.197232E-08,NaN,-0.3270859,-1.346649E-07,NaN,0.5713553,-1.972106E-08,NaN,-0.3106538,1.477149E-05,-0.4552397,4.574905E-08,NaN,NaN,-0.02212001,4.330639E-10,2.398926E-07,-1.128952E-07,-4.83777E-08,-2.622604E-08
480.6876,-0.1048068,-1.197144E-08,NaN,-0.3270833,-1.346646E-07,NaN,0.5769501,-1.989561E-08,NaN,-0.3108682,1.477204E-05,-0.4596899,4.592535E-08,NaN,NaN,-0.02207204,4.237507E-10,2.361673E-07,-1.128944E-07,-4.83777E-08,-2.861022E-08
480.7023,-0.1164825,-1.197055E-08,NaN,-0.3270797,-1.346643E-07,NaN,0.5824286,-2.006381E-08,NaN,-0.3111204,1.477258E-05,-0.4640385,4.60953E-08,NaN,NaN,-0.02202501,4.237507E-10,2.343792E-07,-1.128936E-07,-4.83777E-08,-2.622604E-08
480.7171,-0.1164825,-1.197055E-08,NaN,-0.3270797,-1.346643E-07,NaN,0.5824286,-2.006381E-08,NaN,-0.3111204,1.477258E-05,-0.4640385,4.60953E-08,NaN,NaN,-0.02202501,4.237507E-10,2.343792E-07,-1.128936E-07,-4.83777E-08,-2.622604E-08
480.7311,-0.128977,-1.196966E-08,NaN,-0.3270766,-1.34664E-07,NaN,0.5886494,-2.02286E-08,NaN,-0.3110542,1.477313E-05,-0.4690289,4.626184E-08,NaN,NaN,-0.02197772,4.190941E-10,2.309519E-07,-1.128927E-07,-5.076189E-08,-2.861022E-08
480.7478,-0.1419342,-1.196878E-08,NaN,-0.327072,-1.346637E-07,NaN,0.5949607,-2.039004E-08,NaN,-0.3109436,1.477366E-05,-0.4740903,4.642504E-08,NaN,NaN,-0.02193115,4.237507E-10,2.235013E-07,-1.128919E-07,-5.076189E-08,-2.622604E-08
480.7615,-0.1551281,-1.196789E-08,NaN,-0.3270649,-1.346634E-07,NaN,0.6011354,-2.054821E-08,NaN,-0.3108887,1.477421E-05,-0.4790325,4.658497E-08,NaN,NaN,-0.02188551,4.190941E-10,2.182859E-07,-1.128911E-07,-5.314607E-08,-2.861022E-08
480.7763,-0.1551281,-1.196789E-08,NaN,-0.3270649,-1.346634E-07,NaN,0.6011354,-2.054821E-08,NaN,-0.3108887,1.477421E-05,-0.4790325,4.658497E-08,NaN,NaN,-0.02188551,4.190941E-10,2.182859E-07,-1.128911E-07,-5.314607E-08,-2.861022E-08
480.7901,-0.1684156,-1.1967E-08,NaN,-0.3270555,-1.346631E-07,NaN,0.6071112,-2.070034E-08,NaN,-0.3109163,1.477474E-05,-0.4838105,4.673885E-08,NaN,NaN,-0.02184079,4.237507E-10,2.159017E-07,-1.128902E-07,-5.314607E-08,-2.622604E-08
480.8056,-0.1824345,-1.196611E-08,NaN,-0.3270468,-1.346627E-07,NaN,0.6138343,-2.084938E-08,NaN,-0.3106466,1.477529E-05,-0.4892493,4.688965E-08,NaN,NaN,-0.02179566,4.190941E-10,2.178389E-07,-1.128894E-07,-5.314607E-08,-2.861022E-08
480.8216,-0.1968547,-1.196523E-08,NaN,-0.3270361,-1.346624E-07,NaN,0.6206526,-2.099822E-08,NaN,-0.3103382,1.477582E-05,-0.4947715,4.704023E-08,NaN,NaN,-0.02175116,4.237507E-10,2.182859E-07,-1.128886E-07,-5.314607E-08,-2.622604E-08
480.8351,-0.1968547,-1.196523E-08,NaN,-0.3270361,-1.346624E-07,NaN,0.6206526,-2.099822E-08,NaN,-0.3103382,1.477582E-05,-0.4947715,4.704023E-08,NaN,NaN,-0.02175116,4.237507E-10,2.182859E-07,-1.128886E-07,-5.314607E-08,-2.622604E-08
480.8494,-0.2114669,-1.196434E-08,NaN,-0.327023,-1.346621E-07,NaN,0.6273388,-2.114402E-08,NaN,-0.3100873,1.477637E-05,-0.5001842,4.71878E-08,NaN,NaN,-0.02170752,4.190941E-10,2.1918E-07,-1.128878E-07,-4.122515E-08,-2.861022E-08
480.8647,-0.2261385,-1.196345E-08,NaN,-0.3270078,-1.346618E-07,NaN,0.6338289,-2.128403E-08,NaN,-0.3099204,1.47769E-05,-0.5054389,4.732956E-08,NaN,NaN,-0.02166475,4.237507E-10,2.209681E-07,-1.12887E-07,-3.645678E-08,-2.622604E-08
480.8798,-0.2261385,-1.196345E-08,NaN,-0.3270078,-1.346618E-07,NaN,0.6338289,-2.128403E-08,NaN,-0.3099204,1.47769E-05,-0.5054389,4.732956E-08,NaN,NaN,-0.02166475,4.237507E-10,2.209681E-07,-1.12887E-07,-3.645678E-08,-2.622604E-08
480.8938,-0.2415143,-1.196256E-08,NaN,-0.3269933,-1.346615E-07,NaN,0.6410977,-2.142119E-08,NaN,-0.3094657,1.477745E-05,-0.5113908,4.746847E-08,NaN,NaN,-0.02162142,4.190941E-10,2.235013E-07,-1.128862E-07,-3.16884E-08,-2.861022E-08
480.9091,-0.2572686,-1.196168E-08,NaN,-0.326977,-1.346612E-07,NaN,0.6484683,-2.155555E-08,NaN,-0.308978,1.477798E-05,-0.5174367,4.760458E-08,NaN,NaN,-0.02157868,4.237507E-10,2.221602E-07,-1.128853E-07,-2.692003E-08,-2.622604E-08
480.9238,-0.2731948,-1.196079E-08,NaN,-0.3269583,-1.346609E-07,NaN,0.6557053,-2.168716E-08,NaN,-0.308553,1.477852E-05,-0.5233743,4.773795E-08,NaN,NaN,-0.02153677,4.284073E-10,2.179879E-07,-1.128845E-07,-2.692003E-08,-2.861022E-08
480.9387,-0.2731948,-1.196079E-08,NaN,-0.3269583,-1.346609E-07,NaN,0.6557053,-2.168716E-08,NaN,-0.308553,1.477852E-05,-0.5233743,4.773795E-08,NaN,NaN,-0.02153677,4.284073E-10,2.179879E-07,-1.128845E-07,-2.692003E-08,-2.861022E-08
480.953,-0.2898907,-1.19599E-08,NaN,-0.3269398,-1.346606E-07,NaN,0.6637488,-2.181326E-08,NaN,-0.3078522,1.477905E-05,-0.5300345,4.78658E-08,NaN,NaN,-0.02149422,4.330639E-10,2.273756E-07,-1.128837E-07,-2.692003E-08,-2.622604E-08
480.9682,-0.3070007,-1.195902E-08,NaN,-0.3269188,-1.346603E-07,NaN,0.6718849,-2.193678E-08,NaN,-0.3071356,1.47796E-05,-0.53678,4.799108E-08,NaN,NaN,-0.02145226,4.237507E-10,2.305049E-07,-1.128829E-07,-2.215166E-08,-2.861022E-08
480.9839,-0.3242993,-1.195813E-08,NaN,-0.3268947,-1.3466E-07,NaN,0.6798697,-2.205776E-08,NaN,-0.3064993,1.478014E-05,-0.5434014,4.811382E-08,NaN,NaN,-0.02141112,4.237507E-10,2.306539E-07,-1.128821E-07,-2.930422E-08,-2.622604E-08
480.9977,-0.3242993,-1.195813E-08,NaN,-0.3268947,-1.3466E-07,NaN,0.6798697,-2.205776E-08,NaN,-0.3064993,1.478014E-05,-0.5434014,4.811382E-08,NaN,NaN,-0.02141112,4.237507E-10,2.306539E-07,-1.128821E-07,-2.930422E-08,-2.622604E-08
481.0119,-0.341644,-1.195724E-08,NaN,-0.326868,-1.346597E-07,NaN,0.6876372,-2.217626E-08,NaN,-0.3059683,1.478069E-05,-0.549848,4.823407E-08,NaN,NaN,-0.02137077,4.190941E-10,2.337831E-07,-1.128813E-07,-2.453585E-08,-2.861022E-08
481.0271,-0.3596731,-1.195635E-08,NaN,-0.326842,-1.346594E-07,NaN,0.6962305,-2.22895E-08,NaN,-0.3051838,1.478122E-05,-0.5570476,4.834907E-08,NaN,NaN,-0.0213296,4.237507E-10,2.387005E-07,-1.128806E-07,-2.692004E-08,-2.622604E-08
481.0415,-0.3780573,-1.195547E-08,NaN,-0.3268137,-1.346591E-07,NaN,0.7049258,-2.240041E-08,NaN,-0.3043889,1.478176E-05,-0.564348,4.846173E-08,NaN,NaN,-0.02128894,4.284073E-10,2.44214E-07,-1.128798E-07,-3.168841E-08,-2.861022E-08
481.0563,-0.3780573,-1.195547E-08,NaN,-0.3268137,-1.346591E-07,NaN,0.7049258,-2.240041E-08,NaN,-0.3043889,1.478176E-05,-0.564348,4.846173E-08,NaN,NaN,-0.02128894,4.284073E-10,2.44214E-07,-1.128798E-07,-3.168841E-08,-2.861022E-08
481.0704,-0.3965875,-1.195458E-08,NaN,-0.3267828,-1.346588E-07,NaN,0.7134748,-2.250903E-08,NaN,-0.303675,1.47823E-05,-0.5715327,4.857211E-08,NaN,NaN,-0.02124906,4.330639E-10,2.419788E-07,-1.12879E-07,-2.930422E-08,-2.622604E-08
481.0859,-0.415132,-1.195369E-08,NaN,-0.3267496,-1.346585E-07,NaN,0.7218083,-2.261542E-08,NaN,-0.303067,1.478285E-05,-0.5785465,4.868025E-08,NaN,NaN,-0.02120994,4.237507E-10,2.4481E-07,-1.128782E-07,-2.453585E-08,-2.861022E-08
481.1007,-0.4343358,-1.19528E-08,NaN,-0.3267174,-1.346582E-07,NaN,0.7310106,-2.271679E-08,NaN,-0.3022165,1.478339E-05,-0.5863601,4.878337E-08,NaN,NaN,-0.02116986,4.237507E-10,2.480883E-07,-1.128774E-07,-2.453585E-08,-2.622604E-08
481.1153,-0.4343358,-1.19528E-08,NaN,-0.3267174,-1.346582E-07,NaN,0.7310106,-2.271679E-08,NaN,-0.3022165,1.478339E-05,-0.5863601,4.878337E-08,NaN,NaN,-0.02116986,4.237507E-10,2.480883E-07,-1.128774E-07,-2.453585E-08,-2.622604E-08
481.1296,-0.4538739,-1.195192E-08,NaN,-0.3266831,-1.346579E-07,NaN,0.7403232,-2.281605E-08,NaN,-0.3013611,1.478393E-05,-0.5942854,4.888439E-08,NaN,NaN,-0.02113025,4.190941E-10,2.491313E-07,-1.128766E-07,-2.453585E-08,-2.861022E-08
481.145,-0.4735402,-1.195103E-08,NaN,-0.3266463,-1.346576E-07,NaN,0.7494863,-2.291326E-08,NaN,-0.300591,1.478447E-05,-0.6020934,4.898336E-08,NaN,NaN,-0.02109143,4.237507E-10,2.516645E-07,-1.128759E-07,-2.930422E-08,-2.622604E-08
481.1597,-0.4735402,-1.195103E-08,NaN,-0.3266463,-1.346576E-07,NaN,0.7494863,-2.291326E-08,NaN,-0.300591,1.478447E-05,-0.6020934,4.898336E-08,NaN,NaN,-0.02109143,4.237507E-10,2.516645E-07,-1.128759E-07,-2.930422E-08,-2.622604E-08
481.1739,-0.493933,-1.195014E-08,NaN,-0.3266097,-1.346573E-07,NaN,0.7595528,-2.300846E-08,NaN,-0.2995924,1.478501E-05,-0.6107332,4.908031E-08,NaN,NaN,-0.02105156,4.190941E-10,2.616483E-07,-1.128751E-07,-2.930422E-08,-2.861022E-08
481.1893,-0.5146971,-1.194925E-08,NaN,-0.3265703,-1.34657E-07,NaN,0.7697199,-2.309885E-08,NaN,-0.2986062,1.478555E-05,-0.6194749,4.917245E-08,NaN,NaN,-0.02101221,4.237507E-10,2.685028E-07,-1.128743E-07,-2.453585E-08,-2.622604E-08
481.2042,-0.5356075,-1.194837E-08,NaN,-0.3265277,-1.346567E-07,NaN,0.7797164,-2.318736E-08,NaN,-0.297722,1.478609E-05,-0.6280797,4.926272E-08,NaN,NaN,-0.02097366,4.190941E-10,2.690989E-07,-1.128736E-07,-2.453585E-08,-2.861022E-08
481.2188,-0.5356075,-1.194837E-08,NaN,-0.3265277,-1.346567E-07,NaN,0.7797164,-2.318736E-08,NaN,-0.297722,1.478609E-05,-0.6280797,4.926272E-08,NaN,NaN,-0.02097366,4.190941E-10,2.690989E-07,-1.128736E-07,-2.453585E-08,-2.861022E-08
481.235,-0.5565223,-1.194748E-08,NaN,-0.3264825,-1.346564E-07,NaN,0.7894698,-2.289365E-08,NaN,-0.2969635,1.478663E-05,-0.6364886,4.897075E-08,NaN,NaN,-0.02093585,4.237507E-10,2.796787E-07,-1.128728E-07,-2.692004E-08,-2.622604E-08
481.2485,-0.5780804,-1.194659E-08,NaN,-0.3264382,-1.346561E-07,NaN,0.8001533,-2.260556E-08,NaN,-0.2960011,1.478717E-05,-0.6457654,4.868443E-08,NaN,NaN,-0.02089682,4.190941E-10,2.895135E-07,-1.12872E-07,-2.930422E-08,-2.861022E-08
481.2632,-0.5999526,-1.19457E-08,NaN,-0.3263915,-1.346558E-07,NaN,0.8109459,-2.2323E-08,NaN,-0.2950568,1.478772E-05,-0.6551578,4.840362E-08,NaN,NaN,-0.02085826,4.097809E-10,2.980071E-07,-1.128713E-07,-2.692004E-08,-2.622604E-08
481.2778,-0.5999526,-1.19457E-08,NaN,-0.3263915,-1.346558E-07,NaN,0.8109459,-2.2323E-08,NaN,-0.2950568,1.478772E-05,-0.6551578,4.840362E-08,NaN,NaN,-0.02085826,4.097809E-10,2.980071E-07,-1.128713E-07,-2.692004E-08,-2.622604E-08
481.2915,-0.6219306,-1.194481E-08,NaN,-0.3263421,-1.346556E-07,NaN,0.8215686,-2.204303E-08,NaN,-0.2942148,1.478826E-05,-0.6644164,4.81254E-08,NaN,NaN,-0.02082048,4.144375E-10,3.09332E-07,-1.128705E-07,-2.692004E-08,-2.861022E-08
481.3084,-0.643883,-1.194393E-08,NaN,-0.3262906,-1.346553E-07,NaN,0.8319442,-2.176843E-08,NaN,-0.2934982,1.478879E-05,-0.6734769,4.785255E-08,NaN,NaN,-0.02078348,4.190941E-10,3.109712E-07,-1.128698E-07,-3.168841E-08,-2.622604E-08
481.322,-0.6659483,-1.194304E-08,NaN,-0.3262387,-1.34655E-07,NaN,0.8424385,-2.149909E-08,NaN,-0.2928098,1.478934E-05,-0.6826757,4.758497E-08,NaN,NaN,-0.02074656,4.144375E-10,3.175277E-07,-1.12869E-07,-3.40726E-08,-2.861022E-08
481.3365,-0.6659483,-1.194304E-08,NaN,-0.3262387,-1.34655E-07,NaN,0.8424385,-2.149909E-08,NaN,-0.2928098,1.478934E-05,-0.6826757,4.758497E-08,NaN,NaN,-0.02074656,4.144375E-10,3.175277E-07,-1.12869E-07,-3.40726E-08,-2.861022E-08
481.3507,-0.6879921,-1.194215E-08,NaN,-0.326186,-1.346547E-07,NaN,0.8527973,-2.12349E-08,NaN,-0.2922072,1.478987E-05,-0.6917801,4.732253E-08,NaN,NaN,-0.02071029,4.190941E-10,3.269154E-07,-1.128683E-07,-3.645678E-08,-2.622604E-08
481.3664,-0.7099301,-1.194126E-08,NaN,-0.3261328,-1.346544E-07,NaN,0.8629404,-2.097295E-08,NaN,-0.2917076,1.479042E-05,-0.700719,4.706233E-08,NaN,NaN,-0.02067473,4.144375E-10,3.34813E-07,-1.128675E-07,-3.40726E-08,-2.861022E-08
481.3812,-0.7317098,-1.194037E-08,NaN,-0.3260798,-1.346541E-07,NaN,0.8728505,-2.0716E-08,NaN,-0.2913108,1.479095E-05,-0.7094781,4.680714E-08,NaN,NaN,-0.0206399,4.190941E-10,3.397304E-07,-1.128668E-07,-3.645678E-08,-2.622604E-08
481.3957,-0.7317098,-1.194037E-08,NaN,-0.3260798,-1.346541E-07,NaN,0.8728505,-2.0716E-08,NaN,-0.2913108,1.479095E-05,-0.7094781,4.680714E-08,NaN,NaN,-0.0206399,4.190941E-10,3.397304E-07,-1.128668E-07,-3.645678E-08,-2.622604E-08
481.4097,-0.7532987,-1.193948E-08,NaN,-0.3260274,-1.346539E-07,NaN,0.8825294,-2.046398E-08,NaN,-0.2910104,1.479149E-05,-0.71806,4.655687E-08,NaN,NaN,-0.02060579,4.237507E-10,3.47628E-07,-1.12866E-07,-3.40726E-08,-2.861022E-08
481.4252,-0.7746774,-1.19386E-08,NaN,-0.3259762,-1.346536E-07,NaN,0.8919834,-2.021679E-08,NaN,-0.290799,1.479202E-05,-0.7264706,4.631144E-08,NaN,NaN,-0.0205724,4.284073E-10,3.510553E-07,-1.128653E-07,-2.930422E-08,-2.622604E-08
481.44,-0.7746774,-1.19386E-08,NaN,-0.3259762,-1.346536E-07,NaN,0.8919834,-2.021679E-08,NaN,-0.290799,1.479202E-05,-0.7264706,4.631144E-08,NaN,NaN,-0.0205724,4.284073E-10,3.510553E-07,-1.128653E-07,-2.930422E-08,-2.622604E-08
481.4542,-0.7958345,-1.193771E-08,NaN,-0.3259264,-1.346533E-07,NaN,0.9012176,-1.997151E-08,NaN,-0.2906695,1.479256E-05,-0.7347141,4.60679E-08,NaN,NaN,-0.02053973,4.330639E-10,3.614861E-07,-1.128646E-07,-3.168841E-08,-2.861022E-08
481.4694,-0.8167638,-1.193682E-08,NaN,-0.3258783,-1.34653E-07,NaN,0.9102351,-1.97309E-08,NaN,-0.2906159,1.479311E-05,-0.7427927,4.582905E-08,NaN,NaN,-0.02050781,4.237507E-10,3.686387E-07,-1.128638E-07,-2.930423E-08,-2.622604E-08
481.4853,-0.8374622,-1.193593E-08,NaN,-0.3258319,-1.346527E-07,NaN,0.9190375,-1.949489E-08,NaN,-0.2906332,1.479365E-05,-0.7507067,4.55948E-08,NaN,NaN,-0.02047664,4.237507E-10,3.756422E-07,-1.128631E-07,-2.930423E-08,-2.861022E-08
481.499,-0.8374622,-1.193593E-08,NaN,-0.3258319,-1.346527E-07,NaN,0.9190375,-1.949489E-08,NaN,-0.2906332,1.479365E-05,-0.7507067,4.55948E-08,NaN,NaN,-0.02047664,4.237507E-10,3.756422E-07,-1.128631E-07,-2.930423E-08,-2.861022E-08
481.513,-0.8579291,-1.193504E-08,NaN,-0.3257875,-1.346524E-07,NaN,0.927625,-1.926338E-08,NaN,-0.2907172,1.479419E-05,-0.7584553,4.536504E-08,NaN,NaN,-0.02044623,4.284073E-10,3.836888E-07,-1.128624E-07,-2.930423E-08,-2.622604E-08
481.5285,-0.8781648,-1.193416E-08,NaN,-0.325745,-1.346522E-07,NaN,0.9359967,-1.903347E-08,NaN,-0.2908643,1.479473E-05,-0.7660365,4.513688E-08,NaN,NaN,-0.02041658,4.190941E-10,3.880102E-07,-1.128617E-07,-2.930423E-08,-2.861022E-08
481.5431,-0.8981706,-1.193327E-08,NaN,-0.3257044,-1.346519E-07,NaN,0.9441514,-1.880793E-08,NaN,-0.2910714,1.479528E-05,-0.7734481,4.49131E-08,NaN,NaN,-0.0203877,4.190941E-10,3.939706E-07,-1.128609E-07,-3.168841E-08,-2.622604E-08
481.5574,-0.8981706,-1.193327E-08,NaN,-0.3257044,-1.346519E-07,NaN,0.9441514,-1.880793E-08,NaN,-0.2910714,1.479528E-05,-0.7734481,4.49131E-08,NaN,NaN,-0.0203877,4.190941E-10,3.939706E-07,-1.128609E-07,-3.168841E-08,-2.622604E-08
481.5716,-0.9179481,-1.193238E-08,NaN,-0.3256657,-1.346516E-07,NaN,0.9520878,-1.85867E-08,NaN,-0.2913356,1.479582E-05,-0.7806877,4.469362E-08,NaN,NaN,-0.02035959,4.144375E-10,4.030603E-07,-1.128602E-07,-3.168841E-08,-2.861022E-08
481.5869,-0.9374995,-1.193149E-08,NaN,-0.3256289,-1.346513E-07,NaN,0.9598044,-1.836968E-08,NaN,-0.2916542,1.479637E-05,-0.7877529,4.447835E-08,NaN,NaN,-0.02033225,4.051243E-10,4.035074E-07,-1.128595E-07,-3.168841E-08,-2.622604E-08
481.6017,-0.9568269,-1.19306E-08,NaN,-0.325594,-1.34651E-07,NaN,0.9672996,-1.815678E-08,NaN,-0.2920249,1.47969E-05,-0.7946413,4.426721E-08,NaN,NaN,-0.02030567,4.097809E-10,4.049975E-07,-1.128588E-07,-2.930423E-08,-2.861022E-08
481.6166,-0.9568269,-1.19306E-08,NaN,-0.325594,-1.34651E-07,NaN,0.9672996,-1.815678E-08,NaN,-0.2920249,1.47969E-05,-0.7946413,4.426721E-08,NaN,NaN,-0.02030567,4.097809E-10,4.049975E-07,-1.128588E-07,-2.930423E-08,-2.861022E-08
481.6305,-0.9759327,-1.192971E-08,NaN,-0.3255608,-1.346507E-07,NaN,0.9745724,-1.794512E-08,NaN,-0.2924452,1.479744E-05,-0.8013505,4.405729E-08,NaN,NaN,-0.02027985,4.144375E-10,4.072327E-07,-1.128581E-07,-2.572795E-08,-2.622604E-08
481.6462,-0.9948192,-1.192883E-08,NaN,-0.3255294,-1.346505E-07,NaN,0.9816214,-1.773748E-08,NaN,-0.2929128,1.479798E-05,-0.8078785,4.385141E-08,NaN,NaN,-0.02025477,4.190941E-10,4.161734E-07,-1.128574E-07,-2.811213E-08,-2.861022E-08
481.6606,-1.013489,-1.192794E-08,NaN,-0.3254997,-1.346502E-07,NaN,0.9884461,-1.753379E-08,NaN,-0.2934257,1.479851E-05,-0.8142238,4.364947E-08,NaN,NaN,-0.02023045,4.237507E-10,4.215378E-07,-1.128567E-07,-3.28805E-08,-2.622604E-08
481.6755,-1.013489,-1.192794E-08,NaN,-0.3254997,-1.346502E-07,NaN,0.9884461,-1.753379E-08,NaN,-0.2934257,1.479851E-05,-0.8142238,4.364947E-08,NaN,NaN,-0.02023045,4.237507E-10,4.215378E-07,-1.128567E-07,-3.28805E-08,-2.622604E-08
481.6896,-1.031944,-1.192705E-08,NaN,-0.3254717,-1.346499E-07,NaN,0.9950457,-1.733397E-08,NaN,-0.2939816,1.479905E-05,-0.8203849,4.34514E-08,NaN,NaN,-0.02020685,4.284073E-10,4.23922E-07,-1.12856E-07,-3.526469E-08,-2.861022E-08
481.7051,-1.050188,-1.192616E-08,NaN,-0.3254452,-1.346497E-07,NaN,1.00142,-1.713512E-08,NaN,-0.2945784,1.47996E-05,-0.8263602,4.32543E-08,NaN,NaN,-0.02018398,4.190941E-10,4.267532E-07,-1.128553E-07,-3.28805E-08,-2.622604E-08
481.7196,-1.050188,-1.192616E-08,NaN,-0.3254452,-1.346497E-07,NaN,1.00142,-1.713512E-08,NaN,-0.2945784,1.47996E-05,-0.8263602,4.32543E-08,NaN,NaN,-0.02018398,4.190941E-10,4.267532E-07,-1.128553E-07,-3.28805E-08,-2.622604E-08
481.7357,-1.068222,-1.192527E-08,NaN,-0.3254204,-1.346494E-07,NaN,1.007568,-1.694004E-08,NaN,-0.2952141,1.480014E-05,-0.8321488,4.306098E-08,NaN,NaN,-0.02016182,4.190941E-10,4.258592E-07,-1.128546E-07,-3.40726E-08,-2.861022E-08
481.7502,-1.086049,-1.192439E-08,NaN,-0.325397,-1.346491E-07,NaN,1.013491,-1.674866E-08,NaN,-0.2958867,1.480067E-05,-0.8377503,4.287136E-08,NaN,NaN,-0.02014036,4.237507E-10,4.279453E-07,-1.128539E-07,-3.764887E-08,-2.622604E-08
481.7639,-1.103671,-1.19235E-08,NaN,-0.3253752,-1.346488E-07,NaN,1.019189,-1.656091E-08,NaN,-0.2965944,1.480122E-05,-0.843164,4.268536E-08,NaN,NaN,-0.02011959,4.144375E-10,4.294354E-07,-1.128532E-07,-3.884097E-08,-2.861022E-08
481.7786,-1.103671,-1.19235E-08,NaN,-0.3253752,-1.346488E-07,NaN,1.019189,-1.656091E-08,NaN,-0.2965944,1.480122E-05,-0.843164,4.268536E-08,NaN,NaN,-0.02011959,4.144375E-10,4.294354E-07,-1.128532E-07,-3.884097E-08,-2.861022E-08
481.7936,-1.12109,-1.192261E-08,NaN,-0.3253547,-1.346486E-07,NaN,1.024662,-1.637672E-08,NaN,-0.2973351,1.480176E-05,-0.8483899,4.250292E-08,NaN,NaN,-0.0200995,4.190941E-10,4.310746E-07,-1.128525E-07,-3.526469E-08,-2.622604E-08
481.8078,-1.13831,-1.192172E-08,NaN,-0.3253357,-1.346483E-07,NaN,1.029912,-1.619319E-08,NaN,-0.2981071,1.48023E-05,-0.8534278,4.232114E-08,NaN,NaN,-0.02008006,4.144375E-10,4.339058E-07,-1.128518E-07,-3.645678E-08,-2.861022E-08
481.8222,-1.155331,-1.192083E-08,NaN,-0.325318,-1.34648E-07,NaN,1.034939,-1.601314E-08,NaN,-0.2989085,1.480284E-05,-0.8582782,4.214284E-08,NaN,NaN,-0.02006129,4.190941E-10,4.388232E-07,-1.128511E-07,-3.526469E-08,-2.622604E-08
481.8371,-1.155331,-1.192083E-08,NaN,-0.325318,-1.34648E-07,NaN,1.034939,-1.601314E-08,NaN,-0.2989085,1.480284E-05,-0.8582782,4.214284E-08,NaN,NaN,-0.02006129,4.190941E-10,4.388232E-07,-1.128511E-07,-3.526469E-08,-2.622604E-08
481.8511,-1.172157,-1.191995E-08,NaN,-0.3253016,-1.346478E-07,NaN,1.039746,-1.583649E-08,NaN,-0.2997377,1.480338E-05,-0.8629416,4.196795E-08,NaN,NaN,-0.02004315,4.144375E-10,4.406113E-07,-1.128504E-07,-3.764887E-08,-2.861022E-08
481.8666,-1.18879,-1.191906E-08,NaN,-0.3252864,-1.346475E-07,NaN,1.044333,-1.566318E-08,NaN,-0.3005929,1.480392E-05,-0.8674186,4.179639E-08,NaN,NaN,-0.02002564,4.190941E-10,4.453797E-07,-1.128497E-07,-3.764887E-08,-2.622604E-08
481.8814,-1.205231,-1.191817E-08,NaN,-0.3252725,-1.346472E-07,NaN,1.048702,-1.549033E-08,NaN,-0.3014725,1.480446E-05,-0.8717102,4.162529E-08,NaN,NaN,-0.02000873,4.144375E-10,4.434426E-07,-1.128491E-07,-3.645678E-08,-2.861022E-08
481.8962,-1.205231,-1.191817E-08,NaN,-0.3252725,-1.346472E-07,NaN,1.048702,-1.549033E-08,NaN,-0.3014725,1.480446E-05,-0.8717102,4.162529E-08,NaN,NaN,-0.02000873,4.144375E-10,4.434426E-07,-1.128491E-07,-3.645678E-08,-2.861022E-08
481.9103,-1.221263,-1.191728E-08,NaN,-0.3252591,-1.34647E-07,NaN,1.052437,-1.532073E-08,NaN,-0.3024461,1.4805E-05,-0.8754287,4.145745E-08,NaN,NaN,-0.01999306,4.190941E-10,4.421015E-07,-1.128484E-07,-3.526469E-08,-2.622604E-08
481.9254,-1.23697,-1.191639E-08,NaN,-0.325247,-1.346467E-07,NaN,1.055846,-1.515434E-08,NaN,-0.3034624,1.480554E-05,-0.878862,4.129281E-08,NaN,NaN,-0.01997802,4.144375E-10,4.415054E-07,-1.128477E-07,-3.586074E-08,-2.861022E-08
481.9403,-1.252407,-1.19155E-08,NaN,-0.3252368,-1.346464E-07,NaN,1.05904,-1.499109E-08,NaN,-0.3044979,1.480608E-05,-0.8821126,4.11313E-08,NaN,NaN,-0.01996348,4.190941E-10,4.406113E-07,-1.12847E-07,-3.28805E-08,-2.622604E-08
481.9548,-1.252407,-1.19155E-08,NaN,-0.3252368,-1.346464E-07,NaN,1.05904,-1.499109E-08,NaN,-0.3044979,1.480608E-05,-0.8821126,4.11313E-08,NaN,NaN,-0.01996348,4.190941E-10,4.406113E-07,-1.12847E-07,-3.28805E-08,-2.622604E-08
481.9692,-1.267609,-1.191462E-08,NaN,-0.3252282,-1.346461E-07,NaN,1.062054,-1.483091E-08,NaN,-0.3055433,1.480663E-05,-0.8852114,4.097288E-08,NaN,NaN,-0.01994941,4.097809E-10,4.377801E-07,-1.128464E-07,-3.049632E-08,-2.861022E-08
481.9845,-1.281873,-1.191373E-08,NaN,-0.3252189,-1.346459E-07,NaN,1.063526,-1.467092E-08,NaN,-0.306825,1.480716E-05,-0.8868889,4.081465E-08,NaN,NaN,-0.01993787,4.144375E-10,4.342038E-07,-1.128457E-07,-2.930422E-08,-2.622604E-08
482.0001,-1.295487,-1.191284E-08,NaN,-0.3252118,-1.346456E-07,NaN,1.06446,-1.451395E-08,NaN,-0.3081827,1.480771E-05,-0.888085,4.065943E-08,NaN,NaN,-0.019927,4.097809E-10,4.349489E-07,-1.128451E-07,-2.751608E-08,-2.861022E-08
482.0151,-1.295487,-1.191284E-08,NaN,-0.3252118,-1.346456E-07,NaN,1.06446,-1.451395E-08,NaN,-0.3081827,1.480771E-05,-0.888085,4.065943E-08,NaN,NaN,-0.019927,4.097809E-10,4.349489E-07,-1.128451E-07,-2.751608E-08,-2.861022E-08
482.029,-1.308635,-1.191195E-08,NaN,-0.3252077,-1.346453E-07,NaN,1.06521,-1.435997E-08,NaN,-0.3095464,1.480825E-05,-0.8891297,4.05072E-08,NaN,NaN,-0.01991638,4.144375E-10,4.350979E-07,-1.128444E-07,-2.51319E-08,-2.622604E-08
482.0431,-1.321435,-1.191106E-08,NaN,-0.3252061,-1.346451E-07,NaN,1.065881,-1.420888E-08,NaN,-0.3108904,1.480879E-05,-0.8901172,4.035787E-08,NaN,NaN,-0.01990603,4.144375E-10,4.337568E-07,-1.128437E-07,-2.334376E-08,-2.861022E-08
482.0578,-1.321435,-1.191106E-08,NaN,-0.3252061,-1.346451E-07,NaN,1.065881,-1.420888E-08,NaN,-0.3108904,1.480879E-05,-0.8901172,4.035787E-08,NaN,NaN,-0.01990603,4.144375E-10,4.337568E-07,-1.128437E-07,-2.334376E-08,-2.861022E-08
482.0717,-1.333235,-1.191018E-08,NaN,-0.3252046,-1.346448E-07,NaN,1.065139,-1.406064E-08,NaN,-0.3124374,1.480932E-05,-0.8898011,4.021138E-08,NaN,NaN,-0.01989793,4.190941E-10,4.272003E-07,-1.128431E-07,-2.095957E-08,-2.622604E-08
482.0869,-1.344356,-1.190929E-08,NaN,-0.3252046,-1.346446E-07,NaN,1.063963,-1.391235E-08,NaN,-0.3140311,1.480986E-05,-0.8890975,4.006484E-08,NaN,NaN,-0.01989037,4.190941E-10,4.2422E-07,-1.128424E-07,-2.12576E-08,-2.861022E-08
482.1017,-1.355004,-1.19084E-08,NaN,-0.325206,-1.346443E-07,NaN,1.06269,-1.376685E-08,NaN,-0.3156061,1.48104E-05,-0.8883191,3.992109E-08,NaN,NaN,-0.01988298,4.237507E-10,4.23624E-07,-1.128418E-07,-2.00655E-08,-2.622604E-08
482.1165,-1.355004,-1.19084E-08,NaN,-0.325206,-1.346443E-07,NaN,1.06269,-1.376685E-08,NaN,-0.3156061,1.48104E-05,-0.8883191,3.992109E-08,NaN,NaN,-0.01988298,4.237507E-10,4.23624E-07,-1.128418E-07,-2.00655E-08,-2.622604E-08
482.1306,-1.364582,-1.190751E-08,NaN,-0.3252072,-1.346441E-07,NaN,1.060086,-1.362408E-08,NaN,-0.3173715,1.481094E-05,-0.886312,3.978007E-08,NaN,NaN,-0.01987762,4.237507E-10,4.207927E-07,-1.128411E-07,-1.887341E-08,-2.861022E-08
482.146,-1.373446,-1.190662E-08,NaN,-0.3252096,-1.346438E-07,NaN,1.057135,-1.348398E-08,NaN,-0.3191664,1.481147E-05,-0.8839958,3.964172E-08,NaN,NaN,-0.01987265,4.284073E-10,4.182595E-07,-1.128405E-07,-1.857539E-08,-2.622604E-08
482.1606,-1.381825,-1.190573E-08,NaN,-0.3252139,-1.346436E-07,NaN,1.054168,-1.334651E-08,NaN,-0.3209264,1.481201E-05,-0.8816781,3.9506E-08,NaN,NaN,-0.01986773,4.284073E-10,4.179615E-07,-1.128398E-07,-1.991649E-08,-2.861022E-08
482.1753,-1.381825,-1.190573E-08,NaN,-0.3252139,-1.346436E-07,NaN,1.054168,-1.334651E-08,NaN,-0.3209264,1.481201E-05,-0.8816781,3.9506E-08,NaN,NaN,-0.01986773,4.284073E-10,4.179615E-07,-1.128398E-07,-1.991649E-08,-2.861022E-08
482.1895,-1.389864,-1.190485E-08,NaN,-0.3252206,-1.346433E-07,NaN,1.051267,-1.320882E-08,NaN,-0.3226328,1.481255E-05,-0.8794338,3.937006E-08,NaN,NaN,-0.01986281,4.284073E-10,4.11852E-07,-1.128392E-07,-1.917143E-08,-2.622604E-08
482.2047,-1.396926,-1.190396E-08,NaN,-0.3252271,-1.34643E-07,NaN,1.047139,-1.307655E-08,NaN,-0.3245188,1.481309E-05,-0.8760516,3.923953E-08,NaN,NaN,-0.01985976,4.237507E-10,4.061896E-07,-1.128385E-07,-1.842638E-08,-2.861022E-08
482.2195,-1.396926,-1.190396E-08,NaN,-0.3252271,-1.34643E-07,NaN,1.047139,-1.307655E-08,NaN,-0.3245188,1.481309E-05,-0.8760516,3.923953E-08,NaN,NaN,-0.01985976,4.237507E-10,4.061896E-07,-1.128385E-07,-1.842638E-08,-2.861022E-08
482.2334,-1.403345,-1.190307E-08,NaN,-0.3252356,-1.346428E-07,NaN,1.04271,-1.294674E-08,NaN,-0.3264302,1.481363E-05,-0.8724002,3.911148E-08,NaN,NaN,-0.01985703,4.237507E-10,3.996331E-07,-1.128379E-07,-1.701077E-08,-2.622604E-08
482.249,-1.409333,-1.190218E-08,NaN,-0.3252466,-1.346425E-07,NaN,1.038298,-1.281935E-08,NaN,-0.3283044,1.481416E-05,-0.8687736,3.898584E-08,NaN,NaN,-0.01985426,4.237507E-10,3.941196E-07,-1.128373E-07,-1.678725E-08,-2.861022E-08
482.2656,-1.415023,-1.190129E-08,NaN,-0.3252598,-1.346423E-07,NaN,1.033984,-1.269434E-08,NaN,-0.3301225,1.48147E-05,-0.8652453,3.886258E-08,NaN,NaN,-0.0198514,4.237507E-10,3.880102E-07,-1.128366E-07,-1.630296E-08,-2.622604E-08
482.2813,-1.419776,-1.190041E-08,NaN,-0.3252726,-1.34642E-07,NaN,1.028513,-1.256883E-08,NaN,-0.3321239,1.481524E-05,-0.860644,3.873881E-08,NaN,NaN,-0.01985025,4.144375E-10,3.819007E-07,-1.12836E-07,-1.644266E-08,-2.861022E-08
482.2928,-1.419776,-1.190041E-08,NaN,-0.3252726,-1.34642E-07,NaN,1.028513,-1.256883E-08,NaN,-0.3321239,1.481524E-05,-0.860644,3.873881E-08,NaN,NaN,-0.01985025,4.144375E-10,3.819007E-07,-1.12836E-07,-1.644266E-08,-2.861022E-08
482.3068,-1.423918,-1.189952E-08,NaN,-0.3252864,-1.346418E-07,NaN,1.022789,-1.244566E-08,NaN,-0.3341495,1.481578E-05,-0.8558142,3.861739E-08,NaN,NaN,-0.01984936,4.144375E-10,3.748972E-07,-1.128354E-07,-1.545546E-08,-2.622604E-08
482.3223,-1.427659,-1.189863E-08,NaN,-0.3253019,-1.346415E-07,NaN,1.017122,-1.232478E-08,NaN,-0.3361351,1.481632E-05,-0.8510441,3.849826E-08,NaN,NaN,-0.01984836,4.051243E-10,3.678936E-07,-1.128348E-07,-1.579073E-08,-2.861022E-08
482.3367,-1.427659,-1.189863E-08,NaN,-0.3253019,-1.346415E-07,NaN,1.017122,-1.232478E-08,NaN,-0.3361351,1.481632E-05,-0.8510441,3.849826E-08,NaN,NaN,-0.01984836,4.051243E-10,3.678936E-07,-1.128348E-07,-1.579073E-08,-2.861022E-08
482.3507,-1.430404,-1.189774E-08,NaN,-0.3253164,-1.346413E-07,NaN,1.010373,-1.220615E-08,NaN,-0.338308,1.481686E-05,-0.8452694,3.838137E-08,NaN,NaN,-0.01984887,4.051243E-10,3.59549E-07,-1.128341E-07,-1.459864E-08,-2.622604E-08
482.366,-1.43251,-1.189685E-08,NaN,-0.3253314,-1.34641E-07,NaN,1.003445,-1.208972E-08,NaN,-0.3404979,1.48174E-05,-0.8393341,3.826669E-08,NaN,NaN,-0.01984953,3.958111E-10,3.529925E-07,-1.128335E-07,-1.452414E-08,-2.861022E-08
482.3807,-1.434206,-1.189596E-08,NaN,-0.3253474,-1.346412E-07,NaN,0.996642,-1.181476E-08,NaN,-0.3426383,1.481794E-05,-0.8335205,3.799347E-08,NaN,NaN,-0.01985,3.958111E-10,3.446478E-07,-1.12832E-07,-1.370457E-08,-2.622604E-08
482.3953,-1.434206,-1.189596E-08,NaN,-0.3253474,-1.346412E-07,NaN,0.996642,-1.181476E-08,NaN,-0.3426383,1.481794E-05,-0.8335205,3.799347E-08,NaN,NaN,-0.01985,3.958111E-10,3.446478E-07,-1.12832E-07,-1.370457E-08,-2.622604E-08
482.4095,-1.435637,-1.189508E-08,NaN,-0.3253643,-1.346413E-07,NaN,0.9900361,-1.156762E-08,NaN,-0.3447099,1.481849E-05,-0.8278946,3.774807E-08,NaN,NaN,-0.01985024,3.818412E-10,3.382403E-07,-1.128303E-07,-1.295951E-08,-2.861022E-08
482.4245,-1.436166,-1.189419E-08,NaN,-0.3253795,-1.346414E-07,NaN,0.9824465,-1.133365E-08,NaN,-0.3469698,1.481902E-05,-0.8213559,3.751585E-08,NaN,NaN,-0.01985188,3.818412E-10,3.33621E-07,-1.128287E-07,-1.310852E-08,-2.622604E-08
482.4393,-1.436166,-1.189419E-08,NaN,-0.3253795,-1.346414E-07,NaN,0.9824465,-1.133365E-08,NaN,-0.3469698,1.481902E-05,-0.8213559,3.751585E-08,NaN,NaN,-0.01985188,3.818412E-10,3.33621E-07,-1.128287E-07,-1.310852E-08,-2.622604E-08
482.4532,-1.436127,-1.18933E-08,NaN,-0.3253942,-1.346415E-07,NaN,0.9747164,-1.110979E-08,NaN,-0.3492484,1.481957E-05,-0.8146901,3.729373E-08,NaN,NaN,-0.01985364,3.678714E-10,3.279585E-07,-1.12827E-07,-1.28105E-08,-2.861022E-08
482.4686,-1.43573,-1.189241E-08,NaN,-0.3254089,-1.346415E-07,NaN,0.967132,-1.089019E-08,NaN,-0.3514791,1.482011E-05,-0.8081632,3.707587E-08,NaN,NaN,-0.01985518,3.678714E-10,3.21551E-07,-1.128253E-07,-1.236347E-08,-2.622604E-08
482.4833,-1.435111,-1.189152E-08,NaN,-0.3254237,-1.346415E-07,NaN,0.9597635,-1.067759E-08,NaN,-0.3536421,1.482065E-05,-0.80184,3.686501E-08,NaN,NaN,-0.01985648,3.539016E-10,3.161866E-07,-1.128237E-07,-1.221446E-08,-2.861022E-08
482.498,-1.435111,-1.189152E-08,NaN,-0.3254237,-1.346415E-07,NaN,0.9597635,-1.067759E-08,NaN,-0.3536421,1.482065E-05,-0.80184,3.686501E-08,NaN,NaN,-0.01985648,3.539016E-10,3.161866E-07,-1.128237E-07,-1.221446E-08,-2.861022E-08
482.512,-1.433625,-1.189064E-08,NaN,-0.3254363,-1.346415E-07,NaN,0.9514813,-1.046904E-08,NaN,-0.3560053,1.482118E-05,-0.7946701,3.66582E-08,NaN,NaN,-0.01985905,3.539016E-10,3.093321E-07,-1.12822E-07,-1.206544E-08,-2.622604E-08
482.5272,-1.4316,-1.188975E-08,NaN,-0.3254476,-1.346416E-07,NaN,0.9430957,-1.026162E-08,NaN,-0.3583901,1.482173E-05,-0.7874064,3.645253E-08,NaN,NaN,-0.01986169,3.399317E-10,2.997953E-07,-1.128203E-07,-1.221446E-08,-2.861022E-08
482.544,-1.429245,-1.188886E-08,NaN,-0.3254583,-1.346416E-07,NaN,0.9348844,-1.005815E-08,NaN,-0.3607268,1.482227E-05,-0.7803068,3.62508E-08,NaN,NaN,-0.0198641,3.306185E-10,2.918977E-07,-1.128187E-07,-1.161841E-08,-2.622604E-08
482.5574,-1.429245,-1.188886E-08,NaN,-0.3254583,-1.346416E-07,NaN,0.9348844,-1.005815E-08,NaN,-0.3607268,1.482227E-05,-0.7803068,3.62508E-08,NaN,NaN,-0.0198641,3.306185E-10,2.918977E-07,-1.128187E-07,-1.161841E-08,-2.622604E-08
482.5717,-1.425964,-1.188797E-08,NaN,-0.3254661,-1.346416E-07,NaN,0.9258305,-9.858544E-09,NaN,-0.3632714,1.482281E-05,-0.7724276,3.605294E-08,NaN,NaN,-0.01986764,3.213053E-10,2.82808E-07,-1.12817E-07,-1.102236E-08,-2.861022E-08
482.5858,-1.422114,-1.188708E-08,NaN,-0.3254721,-1.346416E-07,NaN,0.9167387,-9.659908E-09,NaN,-0.3658323,1.482334E-05,-0.7645149,3.585604E-08,NaN,NaN,-0.01987118,3.119921E-10,2.732713E-07,-1.128153E-07,-1.221446E-08,-2.622604E-08
482.6003,-1.417921,-1.188619E-08,NaN,-0.3254769,-1.346416E-07,NaN,0.9078788,-9.465045E-09,NaN,-0.3683359,1.482388E-05,-0.7568191,3.566292E-08,NaN,NaN,-0.01987442,3.026789E-10,2.647776E-07,-1.128137E-07,-1.072434E-08,-2.861022E-08
482.615,-1.417921,-1.188619E-08,NaN,-0.3254769,-1.346416E-07,NaN,0.9078788,-9.465045E-09,NaN,-0.3683359,1.482388E-05,-0.7568191,3.566292E-08,NaN,NaN,-0.01987442,3.026789E-10,2.647776E-07,-1.128137E-07,-1.072434E-08,-2.861022E-08
482.6287,-1.413532,-1.188531E-08,NaN,-0.3254809,-1.346416E-07,NaN,0.8993115,-9.271056E-09,NaN,-0.3707613,1.482441E-05,-0.7493969,3.547068E-08,NaN,NaN,-0.01987732,3.026789E-10,2.594132E-07,-1.128121E-07,-1.161841E-08,-2.622604E-08
482.644,-1.408308,-1.188442E-08,NaN,-0.3254823,-1.346416E-07,NaN,0.8899917,-9.080749E-09,NaN,-0.3733989,1.482494E-05,-0.7412813,3.528211E-08,NaN,NaN,-0.01988124,2.933657E-10,2.513665E-07,-1.128104E-07,-1.191643E-08,-2.861022E-08
482.6585,-1.408308,-1.188442E-08,NaN,-0.3254823,-1.346416E-07,NaN,0.8899917,-9.080749E-09,NaN,-0.3733989,1.482494E-05,-0.7412813,3.528211E-08,NaN,NaN,-0.01988124,2.933657E-10,2.513665E-07,-1.128104E-07,-1.191643E-08,-2.861022E-08
482.6726,-1.402582,-1.188353E-08,NaN,-0.3254827,-1.346417E-07,NaN,0.8806605,-8.891227E-09,NaN,-0.376056,1.482548E-05,-0.7331571,3.509433E-08,NaN,NaN,-0.01988515,2.840524E-10,2.431709E-07,-1.128088E-07,-1.221445E-08,-2.622604E-08
482.6877,-1.396563,-1.188264E-08,NaN,-0.3254826,-1.346417E-07,NaN,0.8715692,-8.705298E-09,NaN,-0.3786584,1.482601E-05,-0.7252569,3.491015E-08,NaN,NaN,-0.01988875,2.747392E-10,2.378065E-07,-1.128072E-07,-1.28105E-08,-2.861022E-08
482.7025,-1.390385,-1.188175E-08,NaN,-0.3254823,-1.346417E-07,NaN,0.8627761,-8.520071E-09,NaN,-0.3811838,1.482655E-05,-0.7176349,3.472667E-08,NaN,NaN,-0.01989203,2.65426E-10,2.30952E-07,-1.128056E-07,-1.266149E-08,-2.622604E-08
482.7173,-1.390385,-1.188175E-08,NaN,-0.3254823,-1.346417E-07,NaN,0.8627761,-8.520071E-09,NaN,-0.3811838,1.482655E-05,-0.7176349,3.472667E-08,NaN,NaN,-0.01989203,2.65426E-10,2.30952E-07,-1.128056E-07,-1.266149E-08,-2.622604E-08
482.7312,-1.383405,-1.188087E-08,NaN,-0.3254794,-1.346417E-07,NaN,0.8532909,-8.338353E-09,NaN,-0.3839342,1.482709E-05,-0.7093781,3.454669E-08,NaN,NaN,-0.01989622,2.467996E-10,2.229053E-07,-1.128039E-07,-1.266149E-08,-2.861022E-08
482.7466,-1.37595,-1.187998E-08,NaN,-0.3254746,-1.346417E-07,NaN,0.8438187,-8.157252E-09,NaN,-0.3867064,1.482761E-05,-0.7011352,3.436734E-08,NaN,NaN,-0.01990039,2.421429E-10,2.151567E-07,-1.128023E-07,-1.340655E-08,-2.622604E-08
482.7624,-1.368227,-1.187909E-08,NaN,-0.3254684,-1.346417E-07,NaN,0.8346008,-7.979582E-09,NaN,-0.3894224,1.482815E-05,-0.6931286,3.419142E-08,NaN,NaN,-0.01990427,2.281731E-10,2.074081E-07,-1.128007E-07,-1.132039E-08,-2.861022E-08
482.7757,-1.368227,-1.187909E-08,NaN,-0.3254684,-1.346417E-07,NaN,0.8346008,-7.979582E-09,NaN,-0.3894224,1.482815E-05,-0.6931286,3.419142E-08,NaN,NaN,-0.01990427,2.281731E-10,2.074081E-07,-1.128007E-07,-1.132039E-08,-2.861022E-08
482.7898,-1.359639,-1.18782E-08,NaN,-0.3254589,-1.346417E-07,NaN,0.8247531,-7.802448E-09,NaN,-0.3923709,1.482867E-05,-0.6845465,3.401603E-08,NaN,NaN,-0.01990897,2.235165E-10,1.990635E-07,-1.127991E-07,-1.042632E-08,-2.622604E-08
482.8051,-1.350544,-1.187731E-08,NaN,-0.3254468,-1.346417E-07,NaN,0.8149717,-7.628667E-09,NaN,-0.3953346,1.482921E-05,-0.6760271,3.384399E-08,NaN,NaN,-0.01991359,2.142033E-10,1.916129E-07,-1.127976E-07,-9.830269E-09,-2.861022E-08
482.8195,-1.350544,-1.187731E-08,NaN,-0.3254468,-1.346417E-07,NaN,0.8149717,-7.628667E-09,NaN,-0.3953346,1.482921E-05,-0.6760271,3.384399E-08,NaN,NaN,-0.01991359,2.142033E-10,1.916129E-07,-1.127976E-07,-9.830269E-09,-2.861022E-08
482.8357,-1.341168,-1.187642E-08,NaN,-0.3254327,-1.346417E-07,NaN,0.8054894,-7.455348E-09,NaN,-0.3982315,1.482974E-05,-0.6677846,3.367241E-08,NaN,NaN,-0.01991787,2.0489E-10,1.841623E-07,-1.12796E-07,-8.638176E-09,-2.622604E-08
482.85,-1.331653,-1.187554E-08,NaN,-0.3254172,-1.346417E-07,NaN,0.7963551,-7.28531E-09,NaN,-0.4010389,1.483027E-05,-0.6598653,3.350412E-08,NaN,NaN,-0.01992178,1.955768E-10,1.776058E-07,-1.127944E-07,-8.489165E-09,-2.861022E-08
482.8638,-1.321364,-1.187465E-08,NaN,-0.3253986,-1.346417E-07,NaN,0.7866656,-7.11848E-09,NaN,-0.404081,1.48308E-05,-0.6514434,3.333903E-08,NaN,NaN,-0.01992641,1.862636E-10,1.680691E-07,-1.127928E-07,-7.595095E-09,-2.622604E-08
482.8782,-1.321364,-1.187465E-08,NaN,-0.3253986,-1.346417E-07,NaN,0.7866656,-7.11848E-09,NaN,-0.404081,1.48308E-05,-0.6514434,3.333903E-08,NaN,NaN,-0.01992641,1.862636E-10,1.680691E-07,-1.127928E-07,-7.595095E-09,-2.622604E-08
482.892,-1.310631,-1.187376E-08,NaN,-0.3253773,-1.346417E-07,NaN,0.7770547,-6.951978E-09,NaN,-0.4071401,1.483133E-05,-0.6430963,3.317428E-08,NaN,NaN,-0.01993096,1.722937E-10,1.588303E-07,-1.127913E-07,-7.893118E-09,-2.861022E-08
482.9072,-1.299662,-1.187287E-08,NaN,-0.3253541,-1.346417E-07,NaN,0.7677372,-6.78862E-09,NaN,-0.4101337,1.483186E-05,-0.6350207,3.301266E-08,NaN,NaN,-0.01993519,1.676371E-10,1.504857E-07,-1.127897E-07,-7.222566E-09,-2.622604E-08
482.9217,-1.288592,-1.187198E-08,NaN,-0.3253295,-1.346417E-07,NaN,0.7587605,-6.625517E-09,NaN,-0.413038,1.483239E-05,-0.6272609,3.285131E-08,NaN,NaN,-0.01993908,1.583239E-10,1.424391E-07,-1.127882E-07,-7.520589E-09,-2.861022E-08
482.9364,-1.288592,-1.187198E-08,NaN,-0.3253295,-1.346417E-07,NaN,0.7587605,-6.625517E-09,NaN,-0.413038,1.483239E-05,-0.6272609,3.285131E-08,NaN,NaN,-0.01993908,1.583239E-10,1.424391E-07,-1.127882E-07,-7.520589E-09,-2.861022E-08
482.9503,-1.276776,-1.18711E-08,NaN,-0.3253019,-1.346417E-07,NaN,0.7492752,-6.465493E-09,NaN,-0.416188,1.483292E-05,-0.6190446,3.269303E-08,NaN,NaN,-0.0199436,1.536673E-10,1.355845E-07,-1.127866E-07,-6.253991E-09,-2.622604E-08
482.9659,-1.264541,-1.187021E-08,NaN,-0.3252715,-1.346417E-07,NaN,0.7398806,-6.30566E-09,NaN,-0.4193565,1.483345E-05,-0.6109142,3.253494E-08,NaN,NaN,-0.01994806,1.443541E-10,1.28432E-07,-1.127851E-07,-6.179485E-09,-2.861022E-08
482.9803,-1.252093,-1.186932E-08,NaN,-0.3252391,-1.346417E-07,NaN,0.7307811,-6.148841E-09,NaN,-0.4224572,1.483398E-05,-0.6030558,3.237987E-08,NaN,NaN,-0.01995221,1.396974E-10,1.194913E-07,-1.127835E-07,-5.359921E-09,-2.622604E-08
482.9948,-1.252093,-1.186932E-08,NaN,-0.3252391,-1.346417E-07,NaN,0.7307811,-6.148841E-09,NaN,-0.4224572,1.483398E-05,-0.6030558,3.237987E-08,NaN,NaN,-0.01995221,1.396974E-10,1.194913E-07,-1.127835E-07,-5.359921E-09,-2.622604E-08
483.0089,-1.238835,-1.186844E-08,NaN,-0.325203,-1.346417E-07,NaN,0.7212231,-5.992152E-09,NaN,-0.4258093,1.483451E-05,-0.5947883,3.222492E-08,NaN,NaN,-0.01995694,1.303842E-10,1.117427E-07,-1.12782E-07,-6.06889E-09,-2.861022E-08
483.0241,-1.225123,-1.186755E-08,NaN,-0.3251635,-1.346407E-07,NaN,0.7117956,-6.381783E-09,NaN,-0.4291708,1.483502E-05,-0.5866424,3.261631E-08,NaN,NaN,-0.01996154,1.396974E-10,1.084644E-07,-1.127824E-07,-7.111971E-09,-2.861022E-08
483.0389,-1.225123,-1.186755E-08,NaN,-0.3251635,-1.346407E-07,NaN,0.7117956,-6.381783E-09,NaN,-0.4291708,1.483502E-05,-0.5866424,3.261631E-08,NaN,NaN,-0.01996154,1.396974E-10,1.084644E-07,-1.127824E-07,-7.111971E-09,-2.861022E-08
483.0529,-1.211183,-1.186666E-08,NaN,-0.3251215,-1.346396E-07,NaN,0.7026948,-6.735479E-09,NaN,-0.4324523,1.483554E-05,-0.5787964,3.297176E-08,NaN,NaN,-0.01996582,1.443541E-10,1.004178E-07,-1.12783E-07,-6.96296E-09,-2.861022E-08
483.0683,-1.197158,-1.186578E-08,NaN,-0.3250778,-1.346386E-07,NaN,0.6939598,-7.068032E-09,NaN,-0.435629,1.483605E-05,-0.5712869,3.330608E-08,NaN,NaN,-0.01996973,1.536673E-10,9.445733E-08,-1.127836E-07,-7.111971E-09,-2.861022E-08
483.083,-1.18241,-1.186489E-08,NaN,-0.3250308,-1.346377E-07,NaN,0.6848229,-7.388321E-09,NaN,-0.4390563,1.483656E-05,-0.5634242,3.362813E-08,NaN,NaN,-0.01997412,1.629805E-10,8.492059E-08,-1.127842E-07,-7.335489E-09,-2.861022E-08
483.0977,-1.18241,-1.186489E-08,NaN,-0.3250308,-1.346377E-07,NaN,0.6848229,-7.388321E-09,NaN,-0.4390563,1.483656E-05,-0.5634242,3.362813E-08,NaN,NaN,-0.01997412,1.629805E-10,8.492059E-08,-1.127842E-07,-7.335489E-09,-2.861022E-08
483.1116,-1.167269,-1.1864E-08,NaN,-0.3249809,-1.346367E-07,NaN,0.6758167,-7.699406E-09,NaN,-0.4424938,1.483707E-05,-0.5556841,3.394099E-08,NaN,NaN,-0.01997842,1.722937E-10,7.508582E-08,-1.127848E-07,-5.398338E-09,-2.861022E-08
483.1292,-1.151944,-1.186312E-08,NaN,-0.3249286,-1.346358E-07,NaN,0.6671214,-8.001465E-09,NaN,-0.4458518,1.483758E-05,-0.5482286,3.424481E-08,NaN,NaN,-0.01998242,1.81607E-10,6.793326E-08,-1.127854E-07,-6.59043E-09,-2.861022E-08
483.1426,-1.136567,-1.186223E-08,NaN,-0.3248749,-1.34635E-07,NaN,0.6587746,-8.204383E-09,NaN,-0.4491049,1.48381E-05,-0.5410923,3.44495E-08,NaN,NaN,-0.01998609,1.862636E-10,6.58471E-08,-1.127857E-07,-6.143396E-09,-2.622604E-08
483.1563,-1.136567,-1.186223E-08,NaN,-0.3248749,-1.34635E-07,NaN,0.6587746,-8.204383E-09,NaN,-0.4491049,1.48381E-05,-0.5410923,3.44495E-08,NaN,NaN,-0.01998609,1.862636E-10,6.58471E-08,-1.127857E-07,-6.143396E-09,-2.622604E-08
483.1701,-1.120494,-1.186135E-08,NaN,-0.3248182,-1.346342E-07,NaN,0.6500575,-8.408853E-09,NaN,-0.4526171,1.483861E-05,-0.5336347,3.465574E-08,NaN,NaN,-0.01999019,1.955768E-10,5.660839E-08,-1.127861E-07,-7.037465E-09,-2.861022E-08
483.1856,-1.104051,-1.186046E-08,NaN,-0.3247587,-1.346334E-07,NaN,0.6414717,-8.612028E-09,NaN,-0.45614,1.483913E-05,-0.5262995,3.486069E-08,NaN,NaN,-0.01999419,2.002334E-10,5.03499E-08,-1.127864E-07,-7.633512E-09,-2.622604E-08
483.2,-1.104051,-1.186046E-08,NaN,-0.3247587,-1.346334E-07,NaN,0.6414717,-8.612028E-09,NaN,-0.45614,1.483913E-05,-0.5262995,3.486069E-08,NaN,NaN,-0.01999419,2.002334E-10,5.03499E-08,-1.127864E-07,-7.633512E-09,-2.622604E-08
483.2141,-1.087444,-1.185958E-08,NaN,-0.3246969,-1.346325E-07,NaN,0.6331885,-8.811109E-09,NaN,-0.4595807,1.483964E-05,-0.5192394,3.506154E-08,NaN,NaN,-0.01999791,2.095467E-10,4.409141E-08,-1.127868E-07,-7.931535E-09,-2.861022E-08
483.2296,-1.070075,-1.18587E-08,NaN,-0.3246315,-1.346317E-07,NaN,0.6245721,-9.006179E-09,NaN,-0.4632836,1.484016E-05,-0.5118923,3.525838E-08,NaN,NaN,-0.02000203,2.142033E-10,4.111117E-08,-1.127871E-07,-7.931535E-09,-2.622604E-08
483.2454,-1.052299,-1.185781E-08,NaN,-0.3245625,-1.346309E-07,NaN,0.6161151,-9.200143E-09,NaN,-0.4669867,1.484067E-05,-0.5046914,3.545411E-08,NaN,NaN,-0.02000601,2.235165E-10,3.515071E-08,-1.127874E-07,-8.229557E-09,-2.861022E-08
483.2586,-1.052299,-1.185781E-08,NaN,-0.3245625,-1.346309E-07,NaN,0.6161151,-9.200143E-09,NaN,-0.4669867,1.484067E-05,-0.5046914,3.545411E-08,NaN,NaN,-0.02000601,2.235165E-10,3.515071E-08,-1.127874E-07,-8.229557E-09,-2.861022E-08
483.2726,-1.034342,-1.185693E-08,NaN,-0.3244907,-1.346301E-07,NaN,0.6079815,-9.390198E-09,NaN,-0.470594,1.484119E-05,-0.4977828,3.564594E-08,NaN,NaN,-0.02000971,2.281731E-10,2.740211E-08,-1.127878E-07,-6.739441E-09,-2.622604E-08
483.2878,-1.016346,-1.185605E-08,NaN,-0.3244172,-1.346292E-07,NaN,0.6002021,-9.579243E-09,NaN,-0.4740797,1.48417E-05,-0.4911948,3.583676E-08,NaN,NaN,-0.02001308,2.328297E-10,2.382583E-08,-1.127881E-07,-6.739441E-09,-2.861022E-08
483.3026,-0.9976734,-1.185516E-08,NaN,-0.3243407,-1.346284E-07,NaN,0.5921295,-9.764475E-09,NaN,-0.4778242,1.484222E-05,-0.4843597,3.602376E-08,NaN,NaN,-0.02001678,2.374863E-10,1.965351E-08,-1.127884E-07,-6.739441E-09,-2.622604E-08
483.3173,-0.9976734,-1.185516E-08,NaN,-0.3243407,-1.346284E-07,NaN,0.5921295,-9.764475E-09,NaN,-0.4778242,1.484222E-05,-0.4843597,3.602376E-08,NaN,NaN,-0.02001678,2.374863E-10,1.965351E-08,-1.127884E-07,-6.739441E-09,-2.622604E-08
483.3313,-0.9786528,-1.185428E-08,NaN,-0.3242611,-1.346276E-07,NaN,0.5842079,-9.945969E-09,NaN,-0.4815694,1.484273E-05,-0.4776633,3.620702E-08,NaN,NaN,-0.02002037,2.421429E-10,1.011676E-08,-1.127887E-07,-4.951302E-09,-2.861022E-08
483.3469,-0.959493,-1.18534E-08,NaN,-0.3241793,-1.346268E-07,NaN,0.5765877,-1.01238E-08,NaN,-0.4852197,1.484324E-05,-0.4712377,3.638662E-08,NaN,NaN,-0.0200237,2.467996E-10,5.944437E-09,-1.127891E-07,-3.163163E-09,-2.622604E-08
483.3611,-0.940326,-1.185251E-08,NaN,-0.3240961,-1.34626E-07,NaN,0.5692989,-1.029803E-08,NaN,-0.4887488,1.484376E-05,-0.46511,3.656263E-08,NaN,NaN,-0.02002676,2.514562E-10,8.780425E-10,-1.127894E-07,-1.97107E-09,-2.861022E-08
483.3764,-0.940326,-1.185251E-08,NaN,-0.3240961,-1.34626E-07,NaN,0.5692989,-1.029803E-08,NaN,-0.4887488,1.484376E-05,-0.46511,3.656263E-08,NaN,NaN,-0.02002676,2.514562E-10,8.780425E-10,-1.127894E-07,-1.97107E-09,-2.861022E-08
483.3901,-0.9205067,-1.185163E-08,NaN,-0.3240105,-1.346252E-07,NaN,0.5617355,-1.046875E-08,NaN,-0.4925436,1.484427E-05,-0.4587539,3.673511E-08,NaN,NaN,-0.02003009,2.561128E-10,-3.890329E-09,-1.127897E-07,-1.97107E-09,-2.622604E-08
483.4063,-0.9003601,-1.185075E-08,NaN,-0.323922,-1.346244E-07,NaN,0.5543161,-1.063601E-08,NaN,-0.4963394,1.484478E-05,-0.4525288,3.690414E-08,NaN,NaN,-0.02003333,2.607694E-10,-1.372509E-08,-1.1279E-07,-2.567116E-09,-2.861022E-08
483.4211,-0.880092,-1.184986E-08,NaN,-0.3238314,-1.346235E-07,NaN,0.5471838,-1.079988E-08,NaN,-0.5000379,1.48453E-05,-0.4465591,3.706979E-08,NaN,NaN,-0.02003633,2.607694E-10,-2.117568E-08,-1.127903E-07,-4.355256E-09,-2.622604E-08
483.4347,-0.880092,-1.184986E-08,NaN,-0.3238314,-1.346235E-07,NaN,0.5471838,-1.079988E-08,NaN,-0.5000379,1.48453E-05,-0.4465591,3.706979E-08,NaN,NaN,-0.02003633,2.607694E-10,-2.117568E-08,-1.127903E-07,-4.355256E-09,-2.622604E-08
483.4491,-0.8591045,-1.184898E-08,NaN,-0.3237374,-1.346228E-07,NaN,0.5398028,-1.096044E-08,NaN,-0.5040036,1.484581E-05,-0.4403841,3.723211E-08,NaN,NaN,-0.02003959,2.65426E-10,-2.981835E-08,-1.127906E-07,-1.97107E-09,-2.861022E-08
483.4639,-0.8377524,-1.18481E-08,NaN,-0.3236399,-1.34622E-07,NaN,0.5325851,-1.111773E-08,NaN,-0.5079589,1.484633E-05,-0.4343551,3.739118E-08,NaN,NaN,-0.02004273,2.65426E-10,-3.786498E-08,-1.12791E-07,1.009162E-09,-2.622604E-08
483.4787,-0.8377524,-1.18481E-08,NaN,-0.3236399,-1.34622E-07,NaN,0.5325851,-1.111773E-08,NaN,-0.5079589,1.484633E-05,-0.4343551,3.739118E-08,NaN,NaN,-0.02004273,2.65426E-10,-3.786498E-08,-1.12791E-07,1.009162E-09,-2.622604E-08
483.4924,-0.8162603,-1.184722E-08,NaN,-0.3235396,-1.346212E-07,NaN,0.525668,-1.127467E-08,NaN,-0.5118032,1.484684E-05,-0.428591,3.754989E-08,NaN,NaN,-0.02004564,2.700826E-10,-4.501753E-08,-1.127913E-07,2.797302E-09,-2.861022E-08
483.5077,-0.79477,-1.184634E-08,NaN,-0.3234378,-1.346204E-07,NaN,0.5190766,-1.142842E-08,NaN,-0.51551,1.484736E-05,-0.4231146,3.770541E-08,NaN,NaN,-0.02004828,2.607694E-10,-4.889183E-08,-1.127916E-07,1.605209E-09,-2.622604E-08
483.5225,-0.772643,-1.184545E-08,NaN,-0.3233334,-1.346196E-07,NaN,0.5122633,-1.157905E-08,NaN,-0.5194789,1.484788E-05,-0.4174598,3.785781E-08,NaN,NaN,-0.02005113,2.65426E-10,-5.515032E-08,-1.127919E-07,4.131158E-10,-2.861022E-08
483.5371,-0.772643,-1.184545E-08,NaN,-0.3233334,-1.346196E-07,NaN,0.5122633,-1.157905E-08,NaN,-0.5194789,1.484788E-05,-0.4174598,3.785781E-08,NaN,NaN,-0.02005113,2.65426E-10,-5.515032E-08,-1.127919E-07,4.131158E-10,-2.861022E-08
483.5513,-0.7502083,-1.184457E-08,NaN,-0.3232261,-1.346188E-07,NaN,0.5056001,-1.172662E-08,NaN,-0.5234385,1.484839E-05,-0.4119386,3.800715E-08,NaN,NaN,-0.02005389,2.65426E-10,-6.468706E-08,-1.127922E-07,-7.789771E-10,-2.622604E-08
483.5667,-0.7276739,-1.184369E-08,NaN,-0.3231167,-1.34618E-07,NaN,0.4992135,-1.187119E-08,NaN,-0.5272892,1.484891E-05,-0.406659,3.815349E-08,NaN,NaN,-0.02005643,2.700826E-10,-7.481985E-08,-1.127925E-07,-7.789771E-10,-2.861022E-08
483.5814,-0.7051711,-1.184281E-08,NaN,-0.3230064,-1.346172E-07,NaN,0.493128,-1.201282E-08,NaN,-0.5310039,1.484942E-05,-0.4016427,3.82969E-08,NaN,NaN,-0.02005875,2.700826E-10,-8.137636E-08,-1.127928E-07,-4.355256E-09,-2.622604E-08
483.5963,-0.7051711,-1.184281E-08,NaN,-0.3230064,-1.346172E-07,NaN,0.493128,-1.201282E-08,NaN,-0.5310039,1.484942E-05,-0.4016427,3.82969E-08,NaN,NaN,-0.02005875,2.700826E-10,-8.137636E-08,-1.127928E-07,-4.355256E-09,-2.622604E-08
483.6103,-0.6820547,-1.184193E-08,NaN,-0.322894,-1.346164E-07,NaN,0.4868298,-1.215157E-08,NaN,-0.5349868,1.484993E-05,-0.3964573,3.843741E-08,NaN,NaN,-0.02006126,2.747392E-10,-9.270124E-08,-1.127931E-07,-4.355256E-09,-2.861022E-08
483.6257,-0.6586491,-1.184104E-08,NaN,-0.3227792,-1.346157E-07,NaN,0.4806708,-1.228748E-08,NaN,-0.5389612,1.485045E-05,-0.3913941,3.85751E-08,NaN,NaN,-0.02006368,2.747392E-10,-1.010459E-07,-1.127934E-07,-3.163163E-09,-2.622604E-08
483.6404,-0.6351597,-1.184016E-08,NaN,-0.3226625,-1.346149E-07,NaN,0.4747721,-1.242063E-08,NaN,-0.5428253,1.485096E-05,-0.3865551,3.871002E-08,NaN,NaN,-0.02006594,2.793958E-10,-1.090925E-07,-1.127937E-07,-5.547348E-09,-2.861022E-08
483.6548,-0.6351597,-1.184016E-08,NaN,-0.3226625,-1.346149E-07,NaN,0.4747721,-1.242063E-08,NaN,-0.5428253,1.485096E-05,-0.3865551,3.871002E-08,NaN,NaN,-0.02006594,2.793958E-10,-1.090925E-07,-1.127937E-07,-5.547348E-09,-2.861022E-08
483.6712,-0.6111602,-1.183928E-08,NaN,-0.3225435,-1.346141E-07,NaN,0.4687916,-1.255105E-08,NaN,-0.5468621,1.485148E-05,-0.3816563,3.884221E-08,NaN,NaN,-0.02006826,2.793958E-10,-1.159471E-07,-1.12794E-07,-1.031572E-08,-2.622604E-08
483.6853,-0.5869404,-1.18384E-08,NaN,-0.3224219,-1.346133E-07,NaN,0.4629922,-1.267881E-08,NaN,-0.550851,1.485199E-05,-0.3769136,3.897174E-08,NaN,NaN,-0.02007047,2.840524E-10,-1.225036E-07,-1.127943E-07,-1.3892E-08,-2.861022E-08
483.699,-0.5869404,-1.18384E-08,NaN,-0.3224219,-1.346133E-07,NaN,0.4629922,-1.267881E-08,NaN,-0.550851,1.485199E-05,-0.3769136,3.897174E-08,NaN,NaN,-0.02007047,2.840524E-10,-1.225036E-07,-1.127943E-07,-1.3892E-08,-2.861022E-08
483.7132,-0.5626833,-1.183752E-08,NaN,-0.3222989,-1.346126E-07,NaN,0.4574578,-1.280396E-08,NaN,-0.554715,1.485251E-05,-0.3723976,3.909867E-08,NaN,NaN,-0.02007249,2.840524E-10,-1.314443E-07,-1.127946E-07,-1.150781E-08,-2.622604E-08
483.7304,-0.5385044,-1.183664E-08,NaN,-0.3221756,-1.346118E-07,NaN,0.452199,-1.292655E-08,NaN,-0.5584364,1.485302E-05,-0.3681177,3.922302E-08,NaN,NaN,-0.02007431,2.933656E-10,-1.377028E-07,-1.127949E-07,-1.269991E-08,-2.861022E-08
483.743,-0.5144757,-1.183576E-08,NaN,-0.3220533,-1.34611E-07,NaN,0.4472003,-1.304664E-08,NaN,-0.5620192,1.485353E-05,-0.3640612,3.934488E-08,NaN,NaN,-0.02007594,2.980222E-10,-1.415771E-07,-1.127952E-07,-1.3892E-08,-2.622604E-08
483.7574,-0.5144757,-1.183576E-08,NaN,-0.3220533,-1.34611E-07,NaN,0.4472003,-1.304664E-08,NaN,-0.5620192,1.485353E-05,-0.3640612,3.934488E-08,NaN,NaN,-0.02007594,2.980222E-10,-1.415771E-07,-1.127952E-07,-1.3892E-08,-2.622604E-08
483.7714,-0.4906422,-1.183488E-08,NaN,-0.3219332,-1.346103E-07,NaN,0.44244,-1.316427E-08,NaN,-0.565474,1.485403E-05,-0.3602094,3.946428E-08,NaN,NaN,-0.02007741,3.073355E-10,-1.478356E-07,-1.127955E-07,-1.269991E-08,-2.861022E-08
483.787,-0.4670313,-1.1834E-08,NaN,-0.3218161,-1.346095E-07,NaN,0.4378974,-1.327949E-08,NaN,-0.5688117,1.485454E-05,-0.3565441,3.958127E-08,NaN,NaN,-0.02007873,3.166487E-10,-1.552861E-07,-1.127958E-07,-1.746828E-08,-2.622604E-08
483.8016,-0.4436592,-1.183312E-08,NaN,-0.3217025,-1.346088E-07,NaN,0.4335549,-1.339234E-08,NaN,-0.5720416,1.485505E-05,-0.3530498,3.969589E-08,NaN,NaN,-0.02007992,3.259619E-10,-1.633328E-07,-1.127961E-07,-2.104456E-08,-2.861022E-08
483.8163,-0.4436592,-1.183312E-08,NaN,-0.3217025,-1.346088E-07,NaN,0.4335549,-1.339234E-08,NaN,-0.5720416,1.485505E-05,-0.3530498,3.969589E-08,NaN,NaN,-0.02007992,3.259619E-10,-1.633328E-07,-1.127961E-07,-2.104456E-08,-2.861022E-08
483.8304,-0.4205354,-1.183224E-08,NaN,-0.3215931,-1.34608E-07,NaN,0.4293984,-1.350287E-08,NaN,-0.5751708,1.485556E-05,-0.3497134,3.98082E-08,NaN,NaN,-0.020081,3.306185E-10,-1.689952E-07,-1.127964E-07,-2.581293E-08,-2.622604E-08
483.8459,-0.3976647,-1.183136E-08,NaN,-0.3214881,-1.346073E-07,NaN,0.4254164,-1.361114E-08,NaN,-0.578205,1.485607E-05,-0.3465244,3.991823E-08,NaN,NaN,-0.02008199,3.399317E-10,-1.719754E-07,-1.127967E-07,-2.819711E-08,-2.861022E-08
483.8606,-0.375049,-1.183048E-08,NaN,-0.3213877,-1.34607E-07,NaN,0.4215992,-1.356218E-08,NaN,-0.5811486,1.48566E-05,-0.3434737,3.987104E-08,NaN,NaN,-0.02008287,3.352751E-10,-1.764458E-07,-1.127979E-07,-3.05813E-08,-2.622604E-08
483.8753,-0.375049,-1.183048E-08,NaN,-0.3213877,-1.34607E-07,NaN,0.4215992,-1.356218E-08,NaN,-0.5811486,1.48566E-05,-0.3434737,3.987104E-08,NaN,NaN,-0.02008287,3.352751E-10,-1.764458E-07,-1.127979E-07,-3.05813E-08,-2.622604E-08
483.8896,-0.3526884,-1.18296E-08,NaN,-0.321292,-1.346071E-07,NaN,0.4179389,-1.340977E-08,NaN,-0.5840047,1.485712E-05,-0.3405539,3.972039E-08,NaN,NaN,-0.02008368,3.352751E-10,-1.818102E-07,-1.127995E-07,-2.581293E-08,-2.861022E-08
483.9049,-0.3305821,-1.182872E-08,NaN,-0.3212009,-1.346074E-07,NaN,0.4144284,-1.320386E-08,NaN,-0.5867762,1.485765E-05,-0.3377584,3.951623E-08,NaN,NaN,-0.0200844,3.306185E-10,-1.865786E-07,-1.127997E-07,-2.342874E-08,-2.622604E-08
483.9196,-0.3305821,-1.182872E-08,NaN,-0.3212009,-1.346074E-07,NaN,0.4144284,-1.320386E-08,NaN,-0.5867762,1.485765E-05,-0.3377584,3.951623E-08,NaN,NaN,-0.0200844,3.306185E-10,-1.865786E-07,-1.127997E-07,-2.342874E-08,-2.622604E-08
483.9358,-0.3087284,-1.182784E-08,NaN,-0.3211145,-1.346076E-07,NaN,0.4110613,-1.306955E-08,NaN,-0.5894654,1.485818E-05,-0.3350813,3.938367E-08,NaN,NaN,-0.02008504,3.306185E-10,-1.904529E-07,-1.128012E-07,-3.05813E-08,-2.861022E-08
483.9502,-0.2871252,-1.182696E-08,NaN,-0.3210327,-1.34608E-07,NaN,0.407832,-1.287293E-08,NaN,-0.5920742,1.485872E-05,-0.3325174,3.91888E-08,NaN,NaN,-0.02008561,3.213053E-10,-1.946252E-07,-1.128015E-07,-2.581293E-08,-2.622604E-08
483.9639,-0.2721437,-1.182608E-08,NaN,-0.320976,-1.346081E-07,NaN,0.4082881,-1.274489E-08,NaN,-0.5909349,1.485925E-05,-0.3329048,3.906251E-08,NaN,NaN,-0.02008369,3.259619E-10,-1.868766E-07,-1.12803E-07,-2.104456E-08,-2.861022E-08
483.9785,-0.2721437,-1.182608E-08,NaN,-0.320976,-1.346081E-07,NaN,0.4082881,-1.274489E-08,NaN,-0.5909349,1.485925E-05,-0.3329048,3.906251E-08,NaN,NaN,-0.02008369,3.259619E-10,-1.868766E-07,-1.12803E-07,-2.104456E-08,-2.861022E-08
483.9922,-0.2613905,-1.18252E-08,NaN,-0.3209528,-1.346085E-07,NaN,0.4098231,-1.255442E-08,NaN,-0.5886683,1.485978E-05,-0.3342062,3.887378E-08,NaN,NaN,-0.02008098,3.166487E-10,-1.749556E-07,-1.128032E-07,-2.581293E-08,-2.622604E-08
484.0074,-0.2533431,-1.182432E-08,NaN,-0.320956,-1.346087E-07,NaN,0.4114165,-1.243524E-08,NaN,-0.5862995,1.48603E-05,-0.3355878,3.875634E-08,NaN,NaN,-0.02007824,3.213053E-10,-1.606505E-07,-1.128047E-07,-2.581293E-08,-2.861022E-08
484.0224,-0.2470323,-1.182344E-08,NaN,-0.320977,-1.346091E-07,NaN,0.4127451,-1.225345E-08,NaN,-0.5841681,1.486084E-05,-0.3367675,3.857629E-08,NaN,NaN,-0.02007575,3.166487E-10,-1.517098E-07,-1.128049E-07,-2.342874E-08,-2.622604E-08
484.037,-0.2470323,-1.182344E-08,NaN,-0.320977,-1.346091E-07,NaN,0.4127451,-1.225345E-08,NaN,-0.5841681,1.486084E-05,-0.3367675,3.857629E-08,NaN,NaN,-0.02007575,3.166487E-10,-1.517098E-07,-1.128049E-07,-2.342874E-08,-2.622604E-08
484.0509,-0.2418409,-1.182256E-08,NaN,-0.3210109,-1.346092E-07,NaN,0.4137664,-1.213996E-08,NaN,-0.5823379,1.486136E-05,-0.3376961,3.846453E-08,NaN,NaN,-0.02007354,3.259619E-10,-1.439612E-07,-1.128064E-07,-2.819711E-08,-2.861022E-08
484.0665,-0.2373756,-1.182168E-08,NaN,-0.3210534,-1.346096E-07,NaN,0.4145301,-1.196375E-08,NaN,-0.5807742,1.486189E-05,-0.3384062,3.829006E-08,NaN,NaN,-0.02007157,3.166487E-10,-1.359146E-07,-1.128066E-07,-3.05813E-08,-2.622604E-08
484.0812,-0.233386,-1.182081E-08,NaN,-0.3211015,-1.346098E-07,NaN,0.4151042,-1.185854E-08,NaN,-0.5794184,1.486241E-05,-0.33895,3.818659E-08,NaN,NaN,-0.02006979,3.213053E-10,-1.292091E-07,-1.128081E-07,-3.296549E-08,-2.861022E-08
484.0961,-0.233386,-1.182081E-08,NaN,-0.3211015,-1.346098E-07,NaN,0.4151042,-1.185854E-08,NaN,-0.5794184,1.486241E-05,-0.33895,3.818659E-08,NaN,NaN,-0.02006979,3.213053E-10,-1.292091E-07,-1.128081E-07,-3.296549E-08,-2.861022E-08
484.1102,-0.2297125,-1.181993E-08,NaN,-0.3211531,-1.346101E-07,NaN,0.4181232,-1.169045E-08,NaN,-0.5781975,1.486294E-05,-0.3428831,3.802024E-08,NaN,NaN,-0.02007362,3.166487E-10,-1.686971E-07,-1.128083E-07,-3.296549E-08,-2.622604E-08
484.1253,-0.2262532,-1.181905E-08,NaN,-0.3212068,-1.346103E-07,NaN,0.4217792,-1.159039E-08,NaN,-0.5770593,1.486348E-05,-0.348271,3.792191E-08,NaN,NaN,-0.02007353,3.166487E-10,-1.743596E-07,-1.128098E-07,-3.773386E-08,-2.861022E-08
484.1401,-0.2229432,-1.181817E-08,NaN,-0.3212616,-1.346107E-07,NaN,0.4252789,-1.142734E-08,NaN,-0.5759808,1.486401E-05,-0.354051,3.77606E-08,NaN,NaN,-0.02007217,3.073355E-10,-1.713794E-07,-1.1281E-07,-4.011805E-08,-2.622604E-08
484.1548,-0.2229432,-1.181817E-08,NaN,-0.3212616,-1.346107E-07,NaN,0.4252789,-1.142734E-08,NaN,-0.5759808,1.486401E-05,-0.354051,3.77606E-08,NaN,NaN,-0.02007217,3.073355E-10,-1.713794E-07,-1.1281E-07,-4.011805E-08,-2.622604E-08
484.1691,-0.219741,-1.181729E-08,NaN,-0.321317,-1.346108E-07,NaN,0.428443,-1.133505E-08,NaN,-0.5749494,1.486453E-05,-0.3598395,3.767004E-08,NaN,NaN,-0.02007048,3.073355E-10,-1.648229E-07,-1.1281E-07,-3.534968E-08,-2.861022E-08
484.1844,-0.21662,-1.181641E-08,NaN,-0.3213724,-1.346108E-07,NaN,0.4301805,-1.127828E-08,NaN,-0.5739633,1.486506E-05,-0.3640106,3.761501E-08,NaN,NaN,-0.0200663,3.073355E-10,-1.369577E-07,-1.128113E-07,-3.296549E-08,-2.622604E-08
