JMolnar6/NonAnthroHands_User_Study/HandsLoggerWithURDF/tempdata/files/Reachy_PID0_JointMotion_gesture_7_5.csv
Time,r_shoulder,r_shoulder_x,r_upper_arm,r_forearm,r_wrist,r_wrist2hand,
384.5855,-0.1029972,-0.327423,0.4630534,-2.133804,-0.3542457,-0.01712234
384.6022,-0.1032958,-0.3274199,0.4630992,-2.133964,-0.3543195,-0.01717894
384.6148,-0.1032958,-0.3274199,0.4630992,-2.133964,-0.3543195,-0.01717894
384.6294,-0.1035909,-0.3274167,0.4631443,-2.134122,-0.3543918,-0.01723444
384.6445,-0.1038826,-0.3274136,0.4631885,-2.134279,-0.3544627,-0.01728884
384.6591,-0.1038826,-0.3274136,0.4631885,-2.134279,-0.3544627,-0.01728884
384.6731,-0.104171,-0.3274106,0.463232,-2.134434,-0.3545322,-0.01734217
384.6885,-0.104456,-0.3274076,0.4632746,-2.134588,-0.3546004,-0.01739446
384.7043,-0.1047378,-0.3274046,0.4633165,-2.13474,-0.3546672,-0.01744572
384.7191,-0.1047378,-0.3274046,0.4633165,-2.13474,-0.3546672,-0.01744572
384.732,-0.1050163,-0.3274017,0.4633577,-2.134892,-0.3547327,-0.01749597
384.7473,-0.1052916,-0.3273987,0.4633981,-2.135041,-0.3547969,-0.01754525
384.7619,-0.1055637,-0.3273959,0.4634378,-2.13519,-0.3548599,-0.01759355
384.7764,-0.1055637,-0.3273959,0.4634378,-2.13519,-0.3548599,-0.01759355
384.7948,-0.1058327,-0.327393,0.4634768,-2.135337,-0.3549217,-0.01764091
384.8055,-0.1060986,-0.3273902,0.463515,-2.135482,-0.3549822,-0.01768733
384.8203,-0.1063614,-0.3273874,0.4635526,-2.135627,-0.3550415,-0.01773285
384.835,-0.1063614,-0.3273874,0.4635526,-2.135627,-0.3550415,-0.01773285
384.8494,-0.1066213,-0.3273846,0.4635895,-2.13577,-0.3550997,-0.01777747
384.8648,-0.1068781,-0.3273818,0.4636257,-2.135911,-0.3551567,-0.01782122
384.8792,-0.1068781,-0.3273818,0.4636257,-2.135911,-0.3551567,-0.01782122
384.8936,-0.1071319,-0.3273791,0.4636613,-2.136052,-0.3552127,-0.01786411
384.9088,-0.1073829,-0.3273765,0.4636962,-2.136191,-0.3552675,-0.01790616
384.9235,-0.1076309,-0.3273738,0.4637304,-2.136328,-0.3553213,-0.01794738
384.9378,-0.1076309,-0.3273738,0.4637304,-2.136328,-0.3553213,-0.01794738
384.9523,-0.1078761,-0.3273712,0.463764,-2.136465,-0.355374,-0.01798779
384.9686,-0.1081185,-0.3273685,0.463797,-2.1366,-0.3554257,-0.01802741
384.9833,-0.108358,-0.3273659,0.4638294,-2.136734,-0.3554764,-0.01806625
384.997,-0.108358,-0.3273659,0.4638294,-2.136734,-0.3554764,-0.01806625
385.0111,-0.1085948,-0.3273634,0.4638612,-2.136867,-0.3555261,-0.01810433
385.0262,-0.1088289,-0.3273608,0.4638924,-2.136998,-0.3555748,-0.01814166
385.0409,-0.1090603,-0.3273583,0.463923,-2.137129,-0.3556226,-0.01817826
385.0553,-0.1090603,-0.3273583,0.463923,-2.137129,-0.3556226,-0.01817826
385.0692,-0.109289,-0.3273559,0.4639531,-2.137258,-0.3556694,-0.01821414
385.0845,-0.1095151,-0.3273534,0.4639826,-2.137385,-0.3557154,-0.01824932
385.0994,-0.1095151,-0.3273534,0.4639826,-2.137385,-0.3557154,-0.01824932
385.1133,-0.1097386,-0.327351,0.4640115,-2.137512,-0.3557604,-0.0182838
385.1287,-0.1099595,-0.3273486,0.4640399,-2.137637,-0.3558046,-0.01831762
385.1433,-0.1101779,-0.3273462,0.4640677,-2.137762,-0.3558479,-0.01835076
385.1577,-0.1101779,-0.3273462,0.4640677,-2.137762,-0.3558479,-0.01835076
385.1717,-0.1103937,-0.3273439,0.464095,-2.137885,-0.3558903,-0.01838326
385.1872,-0.1106071,-0.3273415,0.4641218,-2.138006,-0.355932,-0.01841512
385.2018,-0.110818,-0.3273392,0.4641481,-2.138127,-0.3559728,-0.01844634
385.2164,-0.110818,-0.3273392,0.4641481,-2.138127,-0.3559728,-0.01844634
385.2302,-0.1110265,-0.327337,0.4641739,-2.138247,-0.3560128,-0.01847696
385.2479,-0.1112325,-0.3273347,0.4641992,-2.138365,-0.3560521,-0.01850698
385.2613,-0.1114362,-0.3273325,0.464224,-2.138482,-0.3560906,-0.01853641
385.2758,-0.1114362,-0.3273325,0.464224,-2.138482,-0.3560906,-0.01853641
385.2896,-0.1116376,-0.3273303,0.4642483,-2.138598,-0.3561283,-0.01856526
385.3038,-0.1118366,-0.3273281,0.4642721,-2.138713,-0.3561653,-0.01859354
385.3185,-0.1118366,-0.3273281,0.4642721,-2.138713,-0.3561653,-0.01859354
385.3321,-0.1120334,-0.3273259,0.4642955,-2.138827,-0.3562016,-0.01862127
385.3473,-0.1122278,-0.3273238,0.4643185,-2.138939,-0.3562373,-0.01864845
385.3618,-0.1124201,-0.3273216,0.464341,-2.139051,-0.3562722,-0.01867511
385.3764,-0.1124201,-0.3273216,0.464341,-2.139051,-0.3562722,-0.01867511
385.3903,-0.1126101,-0.3273196,0.464363,-2.139161,-0.3563064,-0.01870124
385.4055,-0.1127979,-0.3273175,0.4643846,-2.139271,-0.35634,-0.01872685
385.4201,-0.1129836,-0.3273154,0.4644058,-2.139379,-0.3563729,-0.01875196
385.4348,-0.1129836,-0.3273154,0.4644058,-2.139379,-0.3563729,-0.01875196
385.4489,-0.1131671,-0.3273134,0.4644266,-2.139486,-0.3564052,-0.01877658
385.4641,-0.1133485,-0.3273114,0.464447,-2.139592,-0.3564369,-0.01880072
385.4787,-0.1133485,-0.3273114,0.464447,-2.139592,-0.3564369,-0.01880072
385.4927,-0.1135279,-0.3273094,0.4644669,-2.139697,-0.356468,-0.01882438
385.508,-0.1137051,-0.3273074,0.4644865,-2.139802,-0.3564984,-0.01884758
385.5229,-0.1138804,-0.3273055,0.4645056,-2.139904,-0.3565283,-0.01887032
385.5371,-0.1138804,-0.3273055,0.4645056,-2.139904,-0.3565283,-0.01887032
385.551,-0.1140536,-0.3273036,0.4645244,-2.140007,-0.3565576,-0.01889262
385.5683,-0.1142248,-0.3273017,0.4645428,-2.140108,-0.3565863,-0.01891448
385.582,-0.114394,-0.3272998,0.4645608,-2.140208,-0.3566145,-0.01893591
385.5958,-0.114394,-0.3272998,0.4645608,-2.140208,-0.3566145,-0.01893591
385.6105,-0.113834,-0.3272955,0.464408,-2.140692,-0.3566401,-0.01895664
385.6247,-0.1128176,-0.3272902,0.4641831,-2.141289,-0.356713,-0.01897702
385.6389,-0.1128176,-0.3272902,0.4641831,-2.141289,-0.356713,-0.01897702
385.653,-0.1115181,-0.3272844,0.4639502,-2.141891,-0.3568057,-0.01899705
385.6685,-0.1100461,-0.3272786,0.463733,-2.142461,-0.3569002,-0.01901671
385.6833,-0.1091999,-0.3272751,0.4637066,-2.142606,-0.3569928,-0.01903628
385.6972,-0.1091999,-0.3272751,0.4637066,-2.142606,-0.3569928,-0.01903628
385.7114,-0.1087511,-0.327273,0.4637706,-2.142601,-0.3570313,-0.01905542
385.7267,-0.1085541,-0.3272715,0.4638568,-2.142559,-0.3570437,-0.01907413
385.7411,-0.1085165,-0.3272702,0.463938,-2.142523,-0.357049,-0.01909245
385.7557,-0.1085165,-0.3272702,0.463938,-2.142523,-0.357049,-0.01909245
385.7696,-0.1093066,-0.3272705,0.4641778,-2.14212,-0.3570575,-0.01911068
385.7849,-0.1106141,-0.3272711,0.4644784,-2.141621,-0.3570202,-0.0191285
385.7997,-0.1106141,-0.3272711,0.4644784,-2.141621,-0.3570202,-0.0191285
385.8134,-0.1122418,-0.3272715,0.4647777,-2.141132,-0.3569649,-0.01914591
385.8288,-0.1147923,-0.3272738,0.4652249,-2.140299,-0.3569115,-0.01916323
385.8434,-0.1179129,-0.3272762,0.465719,-2.139399,-0.356815,-0.01918013
385.8579,-0.1179129,-0.3272762,0.465719,-2.139399,-0.356815,-0.01918013
385.874,-0.1213791,-0.3272781,0.466199,-2.138533,-0.3567038,-0.01919664
385.8881,-0.1250481,-0.327279,0.4666453,-2.137732,-0.3565954,-0.01921279
385.9018,-0.1295577,-0.3272814,0.4672281,-2.13661,-0.3564969,-0.01922888
385.9163,-0.1295577,-0.3272814,0.4672281,-2.13661,-0.3564969,-0.01922888
385.9302,-0.1345773,-0.3272834,0.4678535,-2.135431,-0.3563583,-0.01924459
385.9454,-0.1398967,-0.3272843,0.4684629,-2.134293,-0.3562063,-0.01925992
385.9598,-0.1398967,-0.3272843,0.4684629,-2.134293,-0.3562063,-0.01925992
385.9737,-0.1461107,-0.3272862,0.4692076,-2.132839,-0.3560579,-0.01927518
385.9889,-0.1528616,-0.3272871,0.4699875,-2.131341,-0.3558695,-0.01929007
386.0034,-0.1599218,-0.3272871,0.4707424,-2.129901,-0.3556702,-0.01930458
386.018,-0.1599218,-0.3272871,0.4707424,-2.129901,-0.3556702,-0.01930458
386.032,-0.1671471,-0.3272864,0.4714541,-2.128546,-0.3554767,-0.01931879
386.0474,-0.1751743,-0.3272866,0.4722937,-2.126889,-0.355292,-0.01933294
386.062,-0.1836722,-0.3272861,0.4731661,-2.125193,-0.35507,-0.01934674
386.0765,-0.1836722,-0.3272861,0.4731661,-2.125193,-0.35507,-0.01934674
386.09,-0.1924308,-0.3272848,0.4740132,-2.123556,-0.354838,-0.0193602
386.1055,-0.2013166,-0.3272829,0.4748166,-2.122006,-0.354612,-0.01937336
386.1204,-0.2109734,-0.3272818,0.4757471,-2.120158,-0.3543928,-0.01938648
386.1348,-0.2109734,-0.3272818,0.4757471,-2.120158,-0.3543928,-0.01938648
386.1487,-0.2210749,-0.32728,0.4767077,-2.118275,-0.3541369,-0.01939926
386.1642,-0.2314137,-0.3272772,0.4776401,-2.116456,-0.3538721,-0.01941172
386.1808,-0.2418585,-0.3272729,0.4785264,-2.114729,-0.3536139,-0.01942389
386.1943,-0.2418585,-0.3272729,0.4785264,-2.114729,-0.3536139,-0.01942389
386.208,-0.2530545,-0.3272699,0.479537,-2.11271,-0.3533614,-0.01943604
386.2221,-0.2646762,-0.3272656,0.4805737,-2.110663,-0.3530732,-0.01944785
386.2366,-0.2646762,-0.3272656,0.4805737,-2.110663,-0.3530732,-0.01944785
386.2509,-0.2765168,-0.3272594,0.4815789,-2.108686,-0.3527775,-0.01945937
386.2658,-0.2891738,-0.3272538,0.4827061,-2.106423,-0.3524816,-0.01947085
386.2802,-0.3022913,-0.3272462,0.4838507,-2.104146,-0.3521515,-0.019482
386.295,-0.3022913,-0.3272462,0.4838507,-2.104146,-0.3521515,-0.019482
386.3086,-0.3156435,-0.327236,0.484955,-2.101955,-0.3518166,-0.01949286
386.324,-0.3290871,-0.3272235,0.4860025,-2.099875,-0.3514925,-0.01950347
386.3386,-0.3290871,-0.3272235,0.4860025,-2.099875,-0.3514925,-0.01950347
386.3548,-0.3432604,-0.3272117,0.4871654,-2.097524,-0.3511724,-0.01951404
386.3681,-0.3578331,-0.3271981,0.488344,-2.095163,-0.3508209,-0.01952432
386.3825,-0.3725958,-0.3271819,0.4894823,-2.092886,-0.350466,-0.01953432
386.3972,-0.3725958,-0.3271819,0.4894823,-2.092886,-0.350466,-0.01953432
386.4113,-0.3881446,-0.3271661,0.4907359,-2.09034,-0.3501092,-0.01954428
386.4265,-0.4041225,-0.3271478,0.491998,-2.087794,-0.349722,-0.01955395
386.441,-0.4203033,-0.3271265,0.4932125,-2.085346,-0.3493341,-0.01956336
386.4557,-0.4203033,-0.3271265,0.4932125,-2.085346,-0.3493341,-0.01956336
386.4698,-0.4365437,-0.3271028,0.4943642,-2.083022,-0.34896,-0.01957254
386.4871,-0.4534819,-0.3270797,0.4956262,-2.08044,-0.3485869,-0.01958169
386.5005,-0.4707879,-0.3270545,0.4968959,-2.077859,-0.3481862,-0.01959057
386.5142,-0.4707879,-0.3270545,0.4968959,-2.077859,-0.3481862,-0.01959057
386.5281,-0.4882527,-0.3270266,0.4981191,-2.075375,-0.347786,-0.01959921
386.5432,-0.505744,-0.3269966,0.4992809,-2.073014,-0.3474,-0.01960763
386.5577,-0.505744,-0.3269966,0.4992809,-2.073014,-0.3474,-0.01960763
386.5715,-0.523907,-0.3269676,0.5005534,-2.070396,-0.3470121,-0.01961602
386.5869,-0.5424163,-0.3269365,0.5018321,-2.06778,-0.346598,-0.01962416
386.6013,-0.5610657,-0.326903,0.5030631,-2.065262,-0.346186,-0.01963207
386.6159,-0.5610657,-0.326903,0.5030631,-2.065262,-0.346186,-0.01963207
386.6304,-0.5804533,-0.3268697,0.5044029,-2.06249,-0.3457674,-0.01963995
386.6451,-0.6002238,-0.3268338,0.5057411,-2.059732,-0.3453249,-0.01964757
386.6597,-0.6002238,-0.3268338,0.5057411,-2.059732,-0.3453249,-0.01964757
386.6734,-0.6201521,-0.3267946,0.5070242,-2.057086,-0.3448876,-0.01965497
386.6886,-0.6400961,-0.326753,0.5082387,-2.054579,-0.3444682,-0.01966219
386.7037,-0.6606946,-0.3267122,0.5095577,-2.051828,-0.3440447,-0.01966938
386.7182,-0.6606946,-0.3267122,0.5095577,-2.051828,-0.3440447,-0.01966938
386.7321,-0.6816183,-0.3266691,0.5108747,-2.049093,-0.3435999,-0.01967634
386.7474,-0.7026587,-0.3266234,0.5121382,-2.046467,-0.3431614,-0.01968309
386.7619,-0.7236843,-0.3265755,0.513335,-2.043977,-0.3427412,-0.01968968
386.7766,-0.7236843,-0.3265755,0.513335,-2.043977,-0.3427412,-0.01968968
386.7937,-0.7448334,-0.3265271,0.5145186,-2.041507,-0.3423333,-0.01969614
386.8076,-0.7659716,-0.326478,0.51566,-2.03913,-0.3419332,-0.01970243
386.821,-0.7870144,-0.3264283,0.516748,-2.036867,-0.3415481,-0.01970857
386.8348,-0.7870144,-0.3264283,0.516748,-2.036867,-0.3415481,-0.01970857
386.8487,-0.807909,-0.3263787,0.5177819,-2.034719,-0.3411804,-0.01971455
386.8638,-0.8286231,-0.3263296,0.5187652,-2.032682,-0.3408296,-0.01972039
386.8781,-0.8286231,-0.3263296,0.5187652,-2.032682,-0.3408296,-0.01972039
386.892,-0.8491369,-0.3262816,0.5197014,-2.030747,-0.3404949,-0.0197261
386.9073,-0.869439,-0.3262349,0.5205942,-2.02891,-0.3401751,-0.01973167
386.9219,-0.889523,-0.3261898,0.5214462,-2.027164,-0.3398693,-0.01973711
386.9362,-0.889523,-0.3261898,0.5214462,-2.027164,-0.3398693,-0.01973711
386.9502,-0.909386,-0.3261463,0.5222597,-2.025505,-0.3395768,-0.01974243
386.9653,-0.9290268,-0.3261046,0.5230365,-2.023929,-0.3392969,-0.01974763
386.98,-0.9290268,-0.3261046,0.5230365,-2.023929,-0.3392969,-0.01974763
386.994,-0.9484459,-0.3260646,0.5237782,-2.022434,-0.3390293,-0.0197527
387.0092,-0.9676444,-0.3260265,0.5244861,-2.021016,-0.3387734,-0.01975766
387.0236,-0.9866238,-0.3259901,0.5251614,-2.019674,-0.3385291,-0.01976251
387.0383,-0.9866238,-0.3259901,0.5251614,-2.019674,-0.3385291,-0.01976251
387.0522,-1.005386,-0.3259555,0.5258051,-2.018405,-0.3382958,-0.01976725
387.0675,-1.023934,-0.3259226,0.5264181,-2.017207,-0.3380734,-0.01977187
387.0818,-1.042268,-0.3258915,0.5270016,-2.016079,-0.3378616,-0.0197764
387.0968,-1.042268,-0.3258915,0.5270016,-2.016079,-0.3378616,-0.0197764
387.1105,-1.060393,-0.3258619,0.5275562,-2.015019,-0.3376601,-0.01978082
387.1278,-1.078309,-0.325834,0.5280828,-2.014025,-0.3374687,-0.01978514
387.1412,-1.096019,-0.3258076,0.5285823,-2.013096,-0.3372871,-0.01978936
387.1547,-1.096019,-0.3258076,0.5285823,-2.013096,-0.3372871,-0.01978936
387.1687,-1.113526,-0.3257828,0.5290555,-2.01223,-0.337115,-0.0197935
387.1838,-1.130832,-0.3257594,0.529503,-2.011425,-0.3369524,-0.01979754
387.1984,-1.130832,-0.3257594,0.529503,-2.011425,-0.3369524,-0.01979754
387.2122,-1.147939,-0.3257374,0.5299256,-2.010681,-0.3367989,-0.01980149
387.2273,-1.16485,-0.3257168,0.530324,-2.009995,-0.3366542,-0.01980535
387.2417,-1.181566,-0.3256976,0.5306989,-2.009366,-0.3365183,-0.01980913
387.2562,-1.181566,-0.3256976,0.5306989,-2.009366,-0.3365183,-0.01980913
387.2701,-1.19809,-0.3256796,0.531051,-2.008792,-0.3363909,-0.01981283
387.2854,-1.214424,-0.3256629,0.5313809,-2.008273,-0.3362716,-0.01981645
387.2998,-1.214424,-0.3256629,0.5313809,-2.008273,-0.3362716,-0.01981645
387.3137,-1.23057,-0.3256475,0.5316892,-2.007807,-0.3361605,-0.01981998
387.3292,-1.246531,-0.3256332,0.5319766,-2.007392,-0.3360572,-0.01982344
387.3434,-1.262309,-0.32562,0.5322435,-2.007028,-0.3359615,-0.01982683
387.3577,-1.262309,-0.32562,0.5322435,-2.007028,-0.3359615,-0.01982683
387.3719,-1.277684,-0.3256072,0.5324398,-2.006827,-0.3358843,-0.01983012
387.3872,-1.292742,-0.3255958,0.5326016,-2.006706,-0.3358244,-0.01983335
387.4018,-1.307537,-0.325586,0.5327455,-2.006634,-0.3357734,-0.01983652
387.4161,-1.307537,-0.325586,0.5327455,-2.006634,-0.3357734,-0.01983652
387.4302,-1.321377,-0.3255754,0.5327087,-2.006973,-0.3357646,-0.01983955
387.4454,-1.334559,-0.3255671,0.5326103,-2.007454,-0.3357934,-0.01984255
387.462,-1.347271,-0.3255619,0.5325023,-2.007973,-0.3358331,-0.01984551
387.4754,-1.347271,-0.3255619,0.5325023,-2.007973,-0.3358331,-0.01984551
387.489,-1.359636,-0.3255594,0.5323995,-2.008494,-0.3358737,-0.01984842
387.5034,-1.371001,-0.3255571,0.5321352,-2.009386,-0.3359488,-0.01985118
387.518,-1.371001,-0.3255571,0.5321352,-2.009386,-0.3359488,-0.01985118
387.5317,-1.381691,-0.3255563,0.5318244,-2.010386,-0.3360553,-0.01985393
387.5467,-1.391911,-0.3255569,0.5315163,-2.011395,-0.3361678,-0.01985664
387.5612,-1.401793,-0.3255584,0.5312234,-2.012382,-0.3362769,-0.01985929
387.5757,-1.401793,-0.3255584,0.5312234,-2.012382,-0.3362769,-0.01985929
387.5894,-1.410693,-0.3255593,0.5307768,-2.013721,-0.3364167,-0.01986181
387.6046,-1.418938,-0.3255613,0.5302906,-2.015151,-0.3365856,-0.01986432
387.6188,-1.418938,-0.3255613,0.5302906,-2.015151,-0.3365856,-0.01986432
387.6327,-1.426737,-0.3255643,0.5298133,-2.016574,-0.3367584,-0.01986679
387.6481,-1.433493,-0.3255668,0.5291886,-2.018337,-0.3369603,-0.01986913
387.6622,-1.439567,-0.3255708,0.528533,-2.020172,-0.3371893,-0.01987146
387.6766,-1.439567,-0.3255708,0.528533,-2.020172,-0.3371893,-0.01987146
387.6904,-1.445185,-0.3255771,0.5278955,-2.021981,-0.3374197,-0.01987377
387.7056,-1.450493,-0.3255858,0.5272871,-2.023735,-0.3376419,-0.01987603
387.7202,-1.454856,-0.3255939,0.526537,-2.025811,-0.3378871,-0.01987815
387.7346,-1.454856,-0.3255939,0.526537,-2.025811,-0.3378871,-0.01987815
387.7487,-1.458605,-0.3256031,0.525757,-2.02795,-0.3381588,-0.01988027
387.7637,-1.461954,-0.3256139,0.5249957,-2.030057,-0.3384314,-0.01988237
387.7781,-1.461954,-0.3256139,0.5249957,-2.030057,-0.3384314,-0.01988237
387.792,-1.464307,-0.3256236,0.5240958,-2.03248,-0.3387263,-0.01988432
387.8071,-1.466026,-0.3256339,0.5231724,-2.034953,-0.3390465,-0.01988627
387.8235,-1.467337,-0.3256451,0.522275,-2.037377,-0.3393655,-0.01988821
387.8369,-1.467337,-0.3256451,0.522275,-2.037377,-0.3393655,-0.01988821
387.851,-1.468386,-0.325657,0.5214148,-2.039725,-0.3396737,-0.01989011
387.8653,-1.468538,-0.3256673,0.52042,-2.042374,-0.3399976,-0.01989185
387.8795,-1.468538,-0.3256673,0.52042,-2.042374,-0.3399976,-0.01989185
387.8934,-1.468126,-0.325677,0.5194011,-2.045066,-0.340347,-0.0198936
387.9084,-1.467362,-0.3256867,0.5184076,-2.047706,-0.3406958,-0.01989534
387.9228,-1.466379,-0.3256965,0.5174516,-2.050267,-0.3410338,-0.01989705
387.9372,-1.466379,-0.3256965,0.5174516,-2.050267,-0.3410338,-0.01989705
387.951,-1.464534,-0.3257039,0.5163617,-2.053126,-0.3413843,-0.01989858
387.9662,-1.462154,-0.3257101,0.5152473,-2.056024,-0.3417608,-0.01990013
387.9806,-1.459448,-0.3257156,0.5141597,-2.058863,-0.342137,-0.01990167
387.995,-1.459448,-0.3257156,0.5141597,-2.058863,-0.342137,-0.01990167
388.009,-1.45582,-0.3257183,0.5129417,-2.061996,-0.3425243,-0.01990304
388.024,-1.451627,-0.3257197,0.5117055,-2.065152,-0.3429368,-0.01990442
388.0385,-1.451627,-0.3257197,0.5117055,-2.065152,-0.3429368,-0.01990442
388.0521,-1.447097,-0.3257206,0.510503,-2.068235,-0.3433473,-0.0199058
388.0674,-1.442372,-0.3257214,0.5093467,-2.071218,-0.3437445,-0.01990715
388.082,-1.436817,-0.3257206,0.508064,-2.074479,-0.3441449,-0.01990831
388.0963,-1.436817,-0.3257206,0.508064,-2.074479,-0.3441449,-0.01990831
388.1102,-1.430764,-0.3257189,0.5067611,-2.07776,-0.344571,-0.0199095
388.1254,-1.424421,-0.3257164,0.50549,-2.080967,-0.344996,-0.01991068
388.1398,-1.424421,-0.3257164,0.50549,-2.080967,-0.344996,-0.01991068
388.1536,-1.417196,-0.3257111,0.5040941,-2.08445,-0.3454235,-0.01991166
388.1688,-1.409445,-0.3257035,0.5026823,-2.087943,-0.3458765,-0.01991267
388.1855,-1.401397,-0.3256943,0.5013083,-2.091347,-0.3463273,-0.01991368
388.2,-1.401397,-0.3256943,0.5013083,-2.091347,-0.3463273,-0.01991368
388.2137,-1.393194,-0.3256841,0.4999854,-2.094636,-0.3467636,-0.01991468
388.2269,-1.384201,-0.3256707,0.4985415,-2.098191,-0.3471933,-0.01991545
388.2411,-1.374748,-0.325655,0.4970784,-2.101753,-0.347649,-0.01991625
388.2556,-1.374748,-0.325655,0.4970784,-2.101753,-0.347649,-0.01991625
388.2696,-1.365045,-0.3256375,0.4956503,-2.105226,-0.3481042,-0.01991706
388.2845,-1.355227,-0.3256187,0.494272,-2.108585,-0.3485459,-0.01991786
388.299,-1.355227,-0.3256187,0.494272,-2.108585,-0.3485459,-0.01991786
388.3128,-1.344647,-0.3255969,0.4927728,-2.11221,-0.3489764,-0.01991842
388.3281,-1.333634,-0.3255726,0.4912524,-2.11584,-0.3494343,-0.01991901
388.3423,-1.322394,-0.3255462,0.4897667,-2.119379,-0.3498929,-0.01991961
388.3567,-1.322394,-0.3255462,0.4897667,-2.119379,-0.3498929,-0.01991961
388.3709,-1.310331,-0.3255163,0.4881619,-2.123181,-0.3503403,-0.01991997
388.3859,-1.297799,-0.3254831,0.4865409,-2.126977,-0.3508149,-0.01992036
388.4004,-1.285026,-0.3254476,0.4849603,-2.130668,-0.3512894,-0.01992078
388.415,-1.285026,-0.3254476,0.4849603,-2.130668,-0.3512894,-0.01992078
388.4289,-1.272154,-0.3254104,0.4834362,-2.134227,-0.3517492,-0.0199212
388.4442,-1.258546,-0.32537,0.4817986,-2.138038,-0.3521868,-0.01992134
388.4586,-1.258546,-0.32537,0.4817986,-2.138038,-0.3521868,-0.01992134
388.4724,-1.244532,-0.3253266,0.480141,-2.141842,-0.3526515,-0.01992152
388.4877,-1.230321,-0.325281,0.4785205,-2.145542,-0.3531182,-0.01992172
388.5022,-1.216045,-0.325234,0.4769545,-2.149112,-0.3535716,-0.01992193
388.52,-1.216045,-0.325234,0.4769545,-2.149112,-0.3535716,-0.01992193
388.532,-1.201061,-0.325184,0.4752751,-2.152936,-0.3539981,-0.01992184
388.5479,-1.185694,-0.3251311,0.4735732,-2.156751,-0.354453,-0.0199218
388.5612,-1.170149,-0.3250761,0.4719071,-2.160461,-0.3549116,-0.01992179
388.5759,-1.170149,-0.3250761,0.4719071,-2.160461,-0.3549116,-0.01992179
388.5887,-1.153831,-0.3250173,0.4701284,-2.164423,-0.3553446,-0.01992147
388.6036,-1.137095,-0.324955,0.4683313,-2.168366,-0.3558067,-0.01992121
388.6182,-1.137095,-0.324955,0.4683313,-2.168366,-0.3558067,-0.01992121
388.6323,-1.120165,-0.32489,0.4665755,-2.17219,-0.3562722,-0.019921
388.6471,-1.103184,-0.3248232,0.46488,-2.17587,-0.3567244,-0.0199208
388.6619,-1.085514,-0.3247533,0.4630789,-2.179793,-0.3571388,-0.01992027
388.6761,-1.085514,-0.3247533,0.4630789,-2.179793,-0.3571388,-0.01992027
388.6899,-1.067485,-0.3246804,0.4612557,-2.183695,-0.3575813,-0.01991978
388.705,-1.049306,-0.3246052,0.459447,-2.186884,-0.3580796,-0.01991869
388.7195,-1.049306,-0.3246052,0.459447,-2.186884,-0.3580796,-0.01991869
388.7334,-1.03038,-0.3245262,0.4574934,-2.188886,-0.3586346,-0.01991621
388.7485,-1.011064,-0.3244435,0.4555106,-2.189478,-0.3592626,-0.01991352
388.7633,-0.9915827,-0.324358,0.4535818,-2.189103,-0.3598908,-0.01991119
388.7777,-0.9915827,-0.324358,0.4535818,-2.189103,-0.3598908,-0.01991119
388.792,-0.9720795,-0.3242708,0.451736,-2.188347,-0.3604778,-0.01990942
388.8071,-0.9519162,-0.3241807,0.4498073,-2.188029,-0.360995,-0.01990778
388.8214,-0.931422,-0.3240876,0.4478658,-2.187927,-0.3615367,-0.01990634
388.8361,-0.931422,-0.3240876,0.4478658,-2.187927,-0.3615367,-0.01990634
388.8501,-0.9108055,-0.3239922,0.4459698,-2.187885,-0.3620909,-0.01990501
388.8656,-0.8901984,-0.3238957,0.4441421,-2.187825,-0.3626408,-0.01990378
388.8819,-0.8689556,-0.3237967,0.442221,-2.188119,-0.3631567,-0.01990226
388.8956,-0.8689556,-0.3237967,0.442221,-2.188119,-0.3631567,-0.01990226
388.9092,-0.8474019,-0.3236951,0.4402839,-2.188362,-0.3637163,-0.01990071
388.9234,-0.8257428,-0.3235915,0.4383933,-2.188411,-0.3642936,-0.01989922
388.9379,-0.8257428,-0.3235915,0.4383933,-2.188411,-0.3642936,-0.01989922
388.9518,-0.8033804,-0.3234846,0.4364082,-2.188678,-0.3648434,-0.01989749
388.9669,-0.7806692,-0.3233742,0.4344142,-2.188831,-0.3654336,-0.01989581
388.9814,-0.7578336,-0.323261,0.4324746,-2.188787,-0.3660358,-0.01989425
388.9959,-0.7578336,-0.323261,0.4324746,-2.188787,-0.3660358,-0.01989425
389.0097,-0.7350153,-0.3231465,0.4306129,-2.188598,-0.3666252,-0.01989285
389.0252,-0.7115757,-0.3230295,0.4286653,-2.188748,-0.3671738,-0.01989128
389.0395,-0.7115757,-0.3230295,0.4286653,-2.188748,-0.3671738,-0.01989128
389.0534,-0.6878436,-0.3229098,0.426708,-2.188889,-0.367759,-0.01988973
389.0687,-0.6640266,-0.3227881,0.4248014,-2.188889,-0.3683577,-0.01988829
389.0834,-0.640256,-0.3226655,0.4229691,-2.188757,-0.368947,-0.01988696
389.0979,-0.640256,-0.3226655,0.4229691,-2.188757,-0.368947,-0.01988696
389.1121,-0.6160584,-0.3225418,0.4210874,-2.188857,-0.3695034,-0.01988552
389.1275,-0.5916936,-0.3224166,0.4192145,-2.188931,-0.3700835,-0.01988412
389.1417,-0.5673257,-0.3222907,0.4173957,-2.188892,-0.3706691,-0.01988283
389.1563,-0.5673257,-0.3222907,0.4173957,-2.188892,-0.3706691,-0.01988283
389.1702,-0.5430576,-0.3221653,0.4156476,-2.188754,-0.3712429,-0.01988166
389.1856,-0.518954,-0.3220415,0.4139719,-2.188569,-0.3717971,-0.01988062
389.2023,-0.4950548,-0.3219202,0.412364,-2.188388,-0.3723305,-0.01987972
389.2159,-0.4950548,-0.3219202,0.412364,-2.188388,-0.3723305,-0.01987972
389.2298,-0.4713843,-0.3218022,0.4108182,-2.188236,-0.3728451,-0.01987893
389.2441,-0.4479567,-0.3216881,0.4093296,-2.188117,-0.3733433,-0.01987824
389.2586,-0.4479567,-0.3216881,0.4093296,-2.188117,-0.3733433,-0.01987824
389.2724,-0.42478,-0.3215782,0.4078941,-2.188024,-0.3738274,-0.01987761
389.2876,-0.4018584,-0.3214728,0.4065087,-2.187944,-0.3742988,-0.01987705
389.3021,-0.3791933,-0.321372,0.4051713,-2.187868,-0.3747582,-0.01987654
389.3168,-0.3791933,-0.321372,0.4051713,-2.187868,-0.3747582,-0.01987654
389.3307,-0.3567845,-0.3212759,0.4038801,-2.187791,-0.3752057,-0.01987609
389.3461,-0.3346307,-0.3211845,0.4026337,-2.187711,-0.3756416,-0.01987569
389.3607,-0.3127303,-0.3210978,0.4014308,-2.18763,-0.3760659,-0.01987536
389.3754,-0.3127303,-0.3210978,0.4014308,-2.18763,-0.3760659,-0.01987536
389.3894,-0.2974547,-0.3210362,0.4017322,-2.184074,-0.3765782,-0.01987829
389.4049,-0.2864106,-0.3210086,0.4028006,-2.180763,-0.3765392,-0.01988235
389.4194,-0.2864106,-0.3210086,0.4028006,-2.180763,-0.3765392,-0.01988235
389.4336,-0.2780755,-0.3210095,0.4040227,-2.178693,-0.3762313,-0.01988621
389.4491,-0.2714803,-0.3210284,0.4051353,-2.177461,-0.3759007,-0.01988924
389.4637,-0.2660076,-0.3210603,0.4060968,-2.176786,-0.3756118,-0.01989187
389.478,-0.2660076,-0.3210603,0.4060968,-2.176786,-0.3756118,-0.01989187
389.4944,-0.2612643,-0.3211009,0.4069286,-2.176476,-0.3753712,-0.01989428
389.5085,-0.2569999,-0.3211472,0.4076634,-2.176401,-0.3751698,-0.01989655
389.5222,-0.2530547,-0.3211971,0.4083294,-2.176475,-0.3749969,-0.01989873
389.5367,-0.2530547,-0.3211971,0.4083294,-2.176475,-0.3749969,-0.01989873
389.5507,-0.2493649,-0.3338536,0.40801,-2.179755,-0.3786714,-0.01990964
389.5658,-0.2459343,-0.3541299,0.4083901,-2.183861,-0.3820867,-0.01991896
389.5804,-0.2427208,-0.378967,0.4091613,-2.187262,-0.3849496,-0.01992557
389.595,-0.2427208,-0.378967,0.4091613,-2.187262,-0.3849496,-0.01992557
389.6091,-0.2396717,-0.4057285,0.410086,-2.188638,-0.3872344,-0.01992919
389.6245,-0.2367413,-0.4335503,0.4109884,-2.188433,-0.389254,-0.01993222
389.6388,-0.2367413,-0.4335503,0.4109884,-2.188433,-0.389254,-0.01993222
389.653,-0.2338974,-0.4618976,0.4118684,-2.18748,-0.391062,-0.01993551
389.6685,-0.2311184,-0.4904389,0.4127283,-2.186471,-0.3926906,-0.0199392
389.6832,-0.2283866,-0.5182074,0.4136202,-2.185577,-0.3939419,-0.0199426
389.6976,-0.2283866,-0.5182074,0.4136202,-2.185577,-0.3939419,-0.0199426
389.7119,-0.2256906,-0.5453761,0.4144269,-2.185073,-0.3951133,-0.01994622
389.7273,-0.2230248,-0.5720527,0.4151606,-2.184935,-0.3962628,-0.01994991
389.7418,-0.2203867,-0.5983047,0.4158438,-2.185011,-0.3973994,-0.01995349
389.7573,-0.2203867,-0.5983047,0.4158438,-2.185011,-0.3973994,-0.01995349
389.7724,-0.2177705,-0.6234134,0.4165549,-2.184954,-0.3982788,-0.01995633
389.7867,-0.2151736,-0.6477066,0.4172017,-2.18488,-0.3991443,-0.01995919
389.8006,-0.2125961,-0.6713883,0.4178077,-2.184833,-0.4000136,-0.0199621
389.8151,-0.2125961,-0.6713883,0.4178077,-2.184833,-0.4000136,-0.0199621
389.8293,-0.2100339,-0.6938242,0.4184546,-2.184623,-0.4006335,-0.01996442
389.8448,-0.2074857,-0.715395,0.4190473,-2.184446,-0.401245,-0.01996689
389.8588,-0.2074857,-0.715395,0.4190473,-2.184446,-0.401245,-0.01996689
389.8728,-0.2049529,-0.7363373,0.4196049,-2.184365,-0.4018678,-0.01996945
389.8882,-0.2024374,-0.7567983,0.420146,-2.184361,-0.4024912,-0.01997201
389.9028,-0.1999353,-0.7761087,0.4207394,-2.184199,-0.4028652,-0.01997394
389.9172,-0.1999353,-0.7761087,0.4207394,-2.184199,-0.4028652,-0.01997394
389.9314,-0.1974452,-0.7946281,0.4212833,-2.184054,-0.4032345,-0.01997597
389.9467,-0.1949687,-0.8125792,0.4217947,-2.183987,-0.4036199,-0.0199781
389.9615,-0.1925079,-0.8301008,0.4222917,-2.183985,-0.4040108,-0.01998024
389.9763,-0.1925079,-0.8301008,0.4222917,-2.183985,-0.4040108,-0.01998024
389.9901,-0.1900585,-0.8465177,0.422842,-2.183819,-0.4041583,-0.01998176
390.0054,-0.1876186,-0.8621864,0.4233431,-2.183671,-0.4043072,-0.01998341
390.0201,-0.1851901,-0.8773274,0.4238123,-2.183605,-0.4044784,-0.01998517
390.0348,-0.1851901,-0.8773274,0.4238123,-2.183605,-0.4044784,-0.01998517
390.0508,-0.1827685,-0.8913156,0.4243258,-2.183414,-0.4044231,-0.01998638
390.065,-0.1803524,-0.9045388,0.4247865,-2.183276,-0.4043831,-0.01998776
390.079,-0.1803524,-0.9045388,0.4247865,-2.183276,-0.4043831,-0.01998776
390.0925,-0.1779443,-0.917236,0.4252144,-2.183236,-0.4043767,-0.01998924
390.1076,-0.1755476,-0.9295553,0.4256293,-2.183266,-0.4043912,-0.01999074
390.1225,-0.173158,-0.9408268,0.4260984,-2.183125,-0.4041772,-0.01999164
390.1368,-0.173158,-0.9408268,0.4260984,-2.183125,-0.4041772,-0.01999164
390.1508,-0.1707733,-0.9514111,0.4265192,-2.182997,-0.4039779,-0.01999267
390.166,-0.1683961,-0.9615299,0.4269097,-2.182942,-0.4038129,-0.01999384
390.1805,-0.1660298,-0.9713203,0.4272886,-2.182953,-0.4036703,-0.01999503
390.1955,-0.1660298,-0.9713203,0.4272886,-2.182953,-0.4036703,-0.01999503
390.2093,-0.1636699,-0.9801051,0.427722,-2.182799,-0.4033025,-0.01999563
390.2245,-0.1613138,-0.9882408,0.4281067,-2.182665,-0.4029536,-0.0199964
390.239,-0.1613138,-0.9882408,0.4281067,-2.182665,-0.4029536,-0.0199964
390.2533,-0.1589642,-0.9959464,0.4284607,-2.182613,-0.4026438,-0.01999729
390.2687,-0.1566169,-1.002595,0.4288597,-2.182436,-0.4021249,-0.01999768
390.2833,-0.1542699,-1.008573,0.4292061,-2.182311,-0.4016377,-0.01999824
390.298,-0.1542699,-1.008573,0.4292061,-2.182311,-0.4016377,-0.01999824
390.312,-0.1519266,-1.014119,0.4295213,-2.182286,-0.4011993,-0.01999895
390.3275,-0.1495919,-1.019378,0.4298262,-2.18233,-0.4007959,-0.01999967
390.3441,-0.147262,-1.023679,0.4301867,-2.182201,-0.400179,-0.01999982
390.3576,-0.147262,-1.023679,0.4301867,-2.182201,-0.400179,-0.01999982
390.3716,-0.1449344,-1.027381,0.4304998,-2.182083,-0.3995911,-0.02000014
390.3858,-0.1426121,-1.030705,0.430784,-2.182041,-0.399051,-0.0200006
390.4005,-0.1403,-1.033785,0.4310593,-2.182064,-0.3985458,-0.0200011
390.415,-0.1403,-1.033785,0.4310593,-2.182064,-0.3985458,-0.0200011
390.4291,-0.137994,-1.035943,0.4313906,-2.181917,-0.3978289,-0.02000105
390.4444,-0.1356912,-1.037534,0.4316726,-2.181749,-0.3971477,-0.02000112
390.459,-0.1356912,-1.037534,0.4316726,-2.181749,-0.3971477,-0.02000112
390.4729,-0.1333948,-1.038775,0.4319248,-2.181597,-0.3965208,-0.02000129
390.4883,-0.1311012,-1.039039,0.4322238,-2.181272,-0.3956975,-0.02000099
390.503,-0.1288082,-1.03872,0.4324694,-2.180923,-0.3949249,-0.02000083
390.5176,-0.1288082,-1.03872,0.4324694,-2.180923,-0.3949249,-0.02000083
390.5317,-0.1265301,-1.038042,0.4326937,-2.180589,-0.3942089,-0.02000079
390.547,-0.1242803,-1.037152,0.4329219,-2.180281,-0.3935324,-0.02000081
390.5619,-0.1220551,-1.035375,0.4332154,-2.179798,-0.3926482,-0.02000032
390.5765,-0.1220551,-1.035375,0.4332154,-2.179798,-0.3926482,-0.02000032
390.5917,-0.1198739,-1.033071,0.4334818,-2.179278,-0.3918008,-0.01999993
390.6059,-0.1177401,-1.030459,0.4337356,-2.178771,-0.3910073,-0.01999967
390.6215,-0.1156508,-1.027672,0.4339899,-2.178292,-0.3902537,-0.01999946
390.6362,-0.1156508,-1.027672,0.4339899,-2.178292,-0.3902537,-0.01999946
390.6502,-0.1135931,-1.024029,0.434302,-2.177642,-0.3892981,-0.01999877
390.6646,-0.1115806,-1.019884,0.4345799,-2.176959,-0.3883843,-0.01999819
390.6791,-0.1115806,-1.019884,0.4345799,-2.176959,-0.3883843,-0.01999819
390.693,-0.1096137,-1.015453,0.4348398,-2.176295,-0.3875287,-0.01999774
390.7086,-0.1076798,-1.010105,0.435148,-2.175465,-0.3864889,-0.01999685
390.7229,-0.105791,-1.004227,0.435419,-2.174611,-0.3855018,-0.0199961
390.7375,-0.105791,-1.004227,0.435419,-2.174611,-0.3855018,-0.0199961
390.7516,-0.1039466,-0.9980505,0.4356709,-2.173785,-0.3845803,-0.0199955
390.7669,-0.1021415,-0.99172,0.4359188,-2.173,-0.3837081,-0.01999498
390.7815,-0.1003625,-0.9845605,0.4362185,-2.172055,-0.382648,-0.019994
390.7967,-0.1003625,-0.9845605,0.4362185,-2.172055,-0.382648,-0.019994
390.8104,-0.09862082,-0.9769293,0.4364809,-2.171088,-0.3816382,-0.01999316
390.8257,-0.09691637,-0.969044,0.4367229,-2.170149,-0.3806933,-0.01999246
390.8404,-0.0952452,-0.9610375,0.4369594,-2.169252,-0.3797985,-0.01999185
390.8551,-0.0952452,-0.9610375,0.4369594,-2.169252,-0.3797985,-0.01999185
390.8692,-0.0935953,-0.9522293,0.4372446,-2.168195,-0.3787211,-0.01999079
390.8845,-0.09197775,-0.9429722,0.4374914,-2.167119,-0.3776965,-0.01998988
390.9012,-0.09039273,-0.9334815,0.4377171,-2.166074,-0.3767385,-0.01998911
390.9149,-0.09039273,-0.9334815,0.4377171,-2.166074,-0.3767385,-0.01998911
390.9281,-0.08882952,-0.9231268,0.4379835,-2.164873,-0.3756149,-0.01998795
390.9429,-0.08729828,-0.9122914,0.4382097,-2.16366,-0.3745538,-0.01998695
390.9575,-0.08729828,-0.9122914,0.4382097,-2.16366,-0.3745538,-0.01998695
390.9715,-0.08579856,-0.9012092,0.438415,-2.162485,-0.3735651,-0.01998612
390.9868,-0.08432668,-0.8900236,0.4386148,-2.161362,-0.3726325,-0.01998537
391.0015,-0.08287871,-0.8788223,0.4388151,-2.160288,-0.3717435,-0.0199847
391.016,-0.08287871,-0.8788223,0.4388151,-2.160288,-0.3717435,-0.0199847
391.0302,-0.08145139,-0.867659,0.4390168,-2.159259,-0.3708903,-0.01998406
391.0456,-0.08004231,-0.8565665,0.4392194,-2.158267,-0.3700687,-0.01998347
391.0602,-0.0786498,-0.8455646,0.4394221,-2.157309,-0.3692757,-0.01998292
391.0747,-0.0786498,-0.8455646,0.4394221,-2.157309,-0.3692757,-0.01998292
391.0887,-0.07727932,-0.8354269,0.4395814,-2.15658,-0.3687177,-0.01998284
391.1041,-0.07591882,-0.8258594,0.4397795,-2.155933,-0.3681626,-0.01998269
391.1189,-0.07591882,-0.8258594,0.4397795,-2.155933,-0.3681626,-0.01998269
391.1332,-0.07456527,-0.8166812,0.4399978,-2.155312,-0.367594,-0.01998246
391.1483,-0.0732254,-0.8085424,0.4401782,-2.154896,-0.3672292,-0.01998264
391.1629,-0.07189018,-0.8010731,0.4403957,-2.154537,-0.3668485,-0.01998272
391.1797,-0.07189018,-0.8010731,0.4403957,-2.154537,-0.3668485,-0.01998272
391.1928,-0.07055847,-0.7940454,0.4406302,-2.154181,-0.366442,-0.0199827
391.2069,-0.06923188,-0.7873183,0.4408662,-2.153814,-0.3660238,-0.01998263
391.2215,-0.06791876,-0.7815663,0.4410565,-2.153635,-0.365809,-0.019983
391.2361,-0.06791876,-0.7815663,0.4410565,-2.153635,-0.365809,-0.019983
391.2501,-0.06661162,-0.776435,0.4412808,-2.153504,-0.3655771,-0.01998326
391.2654,-0.06530951,-0.7717057,0.4415213,-2.15337,-0.3653165,-0.01998342
391.28,-0.0640138,-0.7672431,0.4417634,-2.153219,-0.3650403,-0.01998353
391.2947,-0.0640138,-0.7672431,0.4417634,-2.153219,-0.3650403,-0.01998353
391.3086,-0.06273233,-0.763725,0.4419602,-2.153251,-0.3649626,-0.01998408
391.3239,-0.06145807,-0.7607998,0.4421912,-2.153327,-0.3648637,-0.0199845
391.3387,-0.06145807,-0.7607998,0.4421912,-2.153327,-0.3648637,-0.0199845
391.3526,-0.06018988,-0.7582502,0.4424388,-2.153394,-0.364732,-0.01998483
391.3682,-0.05893464,-0.7567034,0.4426466,-2.15364,-0.3647848,-0.01998554
391.3827,-0.05768565,-0.7557771,0.4428898,-2.15392,-0.3648071,-0.01998612
391.3975,-0.05768565,-0.7557771,0.4428898,-2.15392,-0.3648071,-0.01998612
391.4116,-0.05644192,-0.7552344,0.4431489,-2.154181,-0.3647899,-0.01998659
391.4268,-0.0552046,-0.7549291,0.4434088,-2.154412,-0.3647477,-0.01998698
391.4413,-0.05398122,-0.7555285,0.4436226,-2.154814,-0.3648952,-0.0199878
391.457,-0.05398122,-0.7555285,0.4436226,-2.154814,-0.3648952,-0.0199878
391.4711,-0.05277223,-0.7566821,0.4438734,-2.155245,-0.3650147,-0.0199885
391.4854,-0.0515795,-0.7581699,0.4441447,-2.155653,-0.3650929,-0.01998907
391.4999,-0.0515795,-0.7581699,0.4441447,-2.155653,-0.3650929,-0.01998907
391.5139,-0.05040907,-0.7606176,0.444378,-2.156229,-0.3653494,-0.01999003
391.5291,-0.04926046,-0.7636425,0.4446521,-2.156826,-0.3655677,-0.01999084
391.5437,-0.04813179,-0.7670076,0.4449464,-2.157391,-0.3657386,-0.01999153
391.5582,-0.04813179,-0.7670076,0.4449464,-2.157391,-0.3657386,-0.01999153
391.5724,-0.04702106,-0.7705665,0.4452436,-2.157915,-0.3658771,-0.01999214
391.5878,-0.04593245,-0.77499,0.445493,-2.158603,-0.3662034,-0.01999317
391.6023,-0.04486413,-0.7799241,0.4457799,-2.159312,-0.3664955,-0.01999406
391.6171,-0.04486413,-0.7799241,0.4457799,-2.159312,-0.3664955,-0.01999406
391.6313,-0.04381379,-0.7851493,0.4460862,-2.159992,-0.3667408,-0.01999483
391.6467,-0.04277935,-0.79053,0.4463956,-2.160631,-0.366953,-0.01999552
391.6614,-0.04176525,-0.7967438,0.4466564,-2.161433,-0.3673539,-0.01999663
391.676,-0.04176525,-0.7967438,0.4466564,-2.161433,-0.3673539,-0.01999663
391.6898,-0.04076944,-0.803441,0.4469553,-2.162255,-0.3677194,-0.0199976
391.7054,-0.03978963,-0.8104053,0.4472742,-2.163045,-0.3680358,-0.01999844
391.7199,-0.03978963,-0.8104053,0.4472742,-2.163045,-0.3680358,-0.01999844
391.7361,-0.03883022,-0.818264,0.4475508,-2.163996,-0.36853,-0.01999967
391.7502,-0.03788855,-0.8266369,0.4478676,-2.164958,-0.3689806,-0.02000075
391.764,-0.03696208,-0.835288,0.4482045,-2.165882,-0.3693763,-0.02000168
391.7787,-0.03696208,-0.835288,0.4482045,-2.165882,-0.3693763,-0.02000168
391.7924,-0.0360488,-0.8440714,0.4485444,-2.166754,-0.369732,-0.02000253
391.8076,-0.03515379,-0.8536587,0.4488326,-2.167782,-0.3702769,-0.0200038
391.8221,-0.03427438,-0.8636968,0.4491589,-2.168823,-0.3707823,-0.02000493
391.8371,-0.03427438,-0.8636968,0.4491589,-2.168823,-0.3707823,-0.02000493
391.8509,-0.03340826,-0.8739671,0.4495058,-2.169825,-0.3712336,-0.02000592
391.8663,-0.0325537,-0.8843341,0.4498567,-2.170777,-0.3716442,-0.02000681
391.881,-0.03171641,-0.8954759,0.4501551,-2.171885,-0.3722466,-0.02000814
391.8957,-0.03171641,-0.8954759,0.4501551,-2.171885,-0.3722466,-0.02000814
391.9097,-0.03089344,-0.907044,0.4504926,-2.173004,-0.3728088,-0.02000932
391.925,-0.0300825,-0.9188224,0.4508518,-2.174084,-0.3733148,-0.02001036
391.9398,-0.0300825,-0.9188224,0.4508518,-2.174084,-0.3733148,-0.02001036
391.9538,-0.02928924,-0.9314392,0.451165,-2.175317,-0.3740023,-0.0200118
391.9692,-0.02850998,-0.944515,0.4515197,-2.176555,-0.3746417,-0.02001308
391.9842,-0.02774215,-0.9578146,0.4518966,-2.177746,-0.3752189,-0.0200142
391.9983,-0.02774215,-0.9578146,0.4518966,-2.177746,-0.3752189,-0.0200142
392.0146,-0.02698408,-0.9711922,0.4522778,-2.178878,-0.3757493,-0.02001522
392.028,-0.02624245,-0.9853196,0.4526028,-2.18016,-0.3764741,-0.02001669
392.0424,-0.02551332,-0.9998451,0.4529672,-2.181448,-0.3771558,-0.020018
392.0571,-0.02551332,-0.9998451,0.4529672,-2.181448,-0.3771558,-0.020018
392.071,-0.02479425,-1.014551,0.4533544,-2.18269,-0.3777766,-0.02001915
392.0862,-0.02408381,-1.029301,0.4537377,-2.18364,-0.3783706,-0.02001992
392.101,-0.02338939,-1.044774,0.4540557,-2.184288,-0.3791875,-0.02002083
392.1156,-0.02338939,-1.044774,0.4540557,-2.184288,-0.3791875,-0.02002083
392.1297,-0.02270648,-1.060624,0.4544185,-2.184499,-0.3799665,-0.02002146
392.1451,-0.02203257,-1.076633,0.4548175,-2.184389,-0.3806688,-0.02002199
392.1597,-0.02203257,-1.076633,0.4548175,-2.184389,-0.3806688,-0.02002199
392.1737,-0.02137501,-1.093432,0.4551805,-2.184347,-0.3815331,-0.02002305
392.1897,-0.02072834,-1.110642,0.455593,-2.184295,-0.3823284,-0.02002397
392.2043,-0.02008987,-1.128028,0.456032,-2.184215,-0.3830431,-0.02002474
392.2188,-0.02008987,-1.128028,0.456032,-2.184215,-0.3830431,-0.02002474
392.233,-0.01945833,-1.145444,0.4564776,-2.184124,-0.3836942,-0.02002543
392.2485,-0.01884236,-1.163562,0.4568662,-2.184248,-0.3845303,-0.0200266
392.263,-0.01823591,-1.182033,0.4572913,-2.184371,-0.385318,-0.02002753
392.2787,-0.01823591,-1.182033,0.4572913,-2.184371,-0.385318,-0.02002753
392.2927,-0.01763638,-1.200639,0.4577377,-2.184411,-0.3860379,-0.02002824
392.307,-0.0170428,-1.219244,0.4581906,-2.184367,-0.3866994,-0.02002883
392.3217,-0.01646453,-1.238527,0.458589,-2.18449,-0.3875458,-0.0200299
392.3362,-0.01646453,-1.238527,0.458589,-2.18449,-0.3875458,-0.0200299
392.3503,-0.01589455,-1.258142,0.4590257,-2.18459,-0.3883418,-0.02003075
392.3657,-0.01533031,-1.277875,0.4594849,-2.184603,-0.3890674,-0.02003141
392.3806,-0.01477102,-1.297592,0.4599511,-2.184543,-0.3897327,-0.02003195
392.3955,-0.01477102,-1.297592,0.4599511,-2.184543,-0.3897327,-0.02003195
392.4093,-0.01422667,-1.317966,0.4603636,-2.184658,-0.3905791,-0.02003297
392.425,-0.01368925,-1.338654,0.4608126,-2.184757,-0.3913753,-0.02003377
392.4398,-0.01368925,-1.338654,0.4608126,-2.184757,-0.3913753,-0.02003377
392.4538,-0.01315631,-1.359445,0.4612828,-2.184774,-0.3921014,-0.02003437
392.4692,-0.012452,-1.367599,0.4626436,-2.181232,-0.3888974,-0.02002628
392.484,-0.011679,-1.367926,0.4632478,-2.177673,-0.3858832,-0.02002127
392.4987,-0.011679,-1.367926,0.4632478,-2.177673,-0.3858832,-0.02002127
392.5131,-0.01084148,-1.363464,0.463295,-2.174571,-0.3835778,-0.02001797
392.5294,-0.01002971,-1.356097,0.4631864,-2.171973,-0.3817606,-0.02001567
392.543,-0.009275544,-1.346992,0.4630972,-2.169797,-0.3802237,-0.0200138
392.5578,-0.009275544,-1.346992,0.4630972,-2.169797,-0.3802237,-0.0200138
392.5718,-0.008576522,-1.336865,0.4630685,-2.167937,-0.3788491,-0.0200121
392.5872,-0.00792014,-1.326156,0.4630927,-2.166305,-0.3775772,-0.0200105
392.6018,-0.007294177,-1.315135,0.4631527,-2.164833,-0.3763781,-0.02000895
392.6169,-0.007294177,-1.315135,0.4631527,-2.164833,-0.3763781,-0.02000895
392.6308,-0.006689436,-1.30397,0.4632412,-2.163477,-0.3752452,-0.02000748
392.6463,-0.006099684,-1.292766,0.4633496,-2.162205,-0.3741584,-0.02000605
392.663,-0.005520899,-1.281585,0.4634678,-2.160995,-0.3731109,-0.02000467
392.6759,-0.005520899,-1.281585,0.4634678,-2.160995,-0.3731109,-0.02000467
392.6899,-0.004950524,-1.270468,0.4628693,-2.159754,-0.3711981,-0.02000059
392.7058,-0.004387006,-1.259438,0.4614465,-2.158539,-0.3694523,-0.01999702
392.7204,-0.003829382,-1.24851,0.4595737,-2.157377,-0.3679496,-0.01999413
392.7352,-0.003829382,-1.24851,0.4595737,-2.157377,-0.3679496,-0.01999413
392.7492,-0.003277061,-1.237691,0.4575,-2.156268,-0.3666067,-0.01999166
392.7659,-0.002729665,-1.226988,0.4546222,-2.155126,-0.3644588,-0.01998672
392.7806,-0.002187001,-1.216401,0.4508991,-2.154012,-0.3625163,-0.01998239
392.7946,-0.002187001,-1.216401,0.4508991,-2.154012,-0.3625163,-0.01998239
392.8083,-0.001648953,-1.205933,0.4467374,-2.152952,-0.360836,-0.01997881
392.8235,-0.001115459,-1.195583,0.4423987,-2.151947,-0.3593266,-0.01997569
392.8384,-0.001115459,-1.195583,0.4423987,-2.151947,-0.3593266,-0.01997569
392.8525,-0.000586463,-1.185351,0.4372753,-2.150912,-0.3570192,-0.01997015
392.8683,-6.197329E-05,-1.175237,0.431333,-2.149907,-0.3549305,-0.01996526
392.8828,0.0004580027,-1.165239,0.4249837,-2.148959,-0.353112,-0.01996114
392.8974,0.0004580027,-1.165239,0.4249837,-2.148959,-0.353112,-0.01996114
392.9118,0.0009734763,-1.155355,0.4177456,-2.147989,-0.3505645,-0.01995483
392.9274,0.001484418,-1.145586,0.4096582,-2.147058,-0.3482793,-0.01994929
392.942,0.00199081,-1.13593,0.4011694,-2.146191,-0.346287,-0.0199446
392.9568,0.00199081,-1.13593,0.4011694,-2.146191,-0.346287,-0.0199446
392.9709,0.002492635,-1.126385,0.3925557,-2.145385,-0.3444854,-0.01994041
392.9865,0.002989901,-1.116951,0.3832007,-2.144555,-0.3418992,-0.0199339
393.0009,0.00348258,-1.107626,0.3730795,-2.143764,-0.3395554,-0.01992812
393.0168,0.00348258,-1.107626,0.3730795,-2.143764,-0.3395554,-0.01992812
393.0309,0.003970653,-1.098409,0.362612,-2.143034,-0.3374965,-0.01992314
393.0453,0.004454111,-1.089299,0.3520602,-2.142363,-0.3356266,-0.01991868
393.0602,0.004932965,-1.080295,0.3407938,-2.14167,-0.3329729,-0.01991194
393.0746,0.004932965,-1.080295,0.3407938,-2.14167,-0.3329729,-0.01991194
393.0885,0.005407193,-1.071395,0.3287889,-2.141016,-0.3305696,-0.01990595
393.1042,0.005876786,-1.062598,0.3164672,-2.140423,-0.3284559,-0.01990076
393.1189,0.005876786,-1.062598,0.3164672,-2.140423,-0.3284559,-0.01990076
393.1331,0.006341758,-1.053903,0.3033279,-2.139814,-0.3256257,-0.01989354
393.1488,0.006802094,-1.04531,0.2894193,-2.139252,-0.3230859,-0.01988716
393.1634,0.00725779,-1.036816,0.2751976,-2.138755,-0.320856,-0.01988164
393.178,0.00725779,-1.036816,0.2751976,-2.138755,-0.320856,-0.01988164
393.1923,0.007708848,-1.028422,0.2609383,-2.13832,-0.3188304,-0.01987668
393.2079,0.008155293,-1.020125,0.2460059,-2.137867,-0.3160317,-0.01986957
393.2225,0.008597116,-1.011924,0.2303832,-2.137457,-0.3135004,-0.01986323
393.2372,0.008597116,-1.011924,0.2303832,-2.137457,-0.3135004,-0.01986323
393.2536,0.009034321,-1.003819,0.2144976,-2.137109,-0.3112693,-0.01985773
393.2679,0.009466917,-0.9958089,0.1986105,-2.136819,-0.3092396,-0.01985277
393.2816,0.009894934,-0.9878919,0.1820756,-2.13651,-0.3064362,-0.01984572
393.2963,0.009894934,-0.9878919,0.1820756,-2.13651,-0.3064362,-0.01984572
393.3102,0.01031837,-0.9800672,0.1648749,-2.136244,-0.3039049,-0.01983944
393.3257,0.01073724,-0.9723338,0.1474366,-2.136037,-0.3016764,-0.01983399
393.3403,0.01115155,-0.9646908,0.1300213,-2.135886,-0.2996515,-0.01982909
393.3551,0.01115155,-0.9646908,0.1300213,-2.135886,-0.2996515,-0.01982909
393.3692,0.01156135,-0.957137,0.1119789,-2.135717,-0.296855,-0.01982215
393.3846,0.01196663,-0.9496716,0.09329248,-2.135589,-0.294335,-0.01981599
393.3993,0.01196663,-0.9496716,0.09329248,-2.135589,-0.294335,-0.01981599
393.4135,0.01236741,-0.9422935,0.07439145,-2.135519,-0.2921206,-0.01981065
393.4289,0.01276374,-0.9350016,0.05476041,-2.135435,-0.2892009,-0.0198035
393.4437,0.01315562,-0.9277951,0.03445291,-2.135397,-0.2865938,-0.01979721
393.4583,0.01315562,-0.9277951,0.03445291,-2.135397,-0.2865938,-0.01979721
393.4724,0.01354307,-0.920673,0.01393107,-2.135418,-0.2843108,-0.01979179
393.488,0.01392611,-0.9136344,-0.006530849,-2.135494,-0.282244,-0.01978695
393.5037,0.0143048,-0.9066781,-0.02758112,-2.135552,-0.279414,-0.01978019
393.5183,0.0143048,-0.9066781,-0.02758112,-2.135552,-0.279414,-0.01978019
393.5324,0.01467914,-0.8998035,-0.04923372,-2.135651,-0.2768703,-0.01977422
393.5467,0.01504916,-0.8930095,-0.07105685,-2.135804,-0.2746396,-0.01976906
393.5614,0.01541489,-0.8862953,-0.09278993,-2.136007,-0.2726209,-0.01976447
393.576,0.01541489,-0.8862953,-0.09278993,-2.136007,-0.2726209,-0.01976447
393.5897,0.01577635,-0.8796598,-0.1143107,-2.136253,-0.2707489,-0.01976025
393.6051,0.01613359,-0.8731022,-0.1355667,-2.136537,-0.2689914,-0.01975634
393.62,0.01613359,-0.8731022,-0.1355667,-2.136537,-0.2689914,-0.01975634
393.6339,0.01648663,-0.8666217,-0.1565374,-2.136855,-0.2673323,-0.01975269
393.6494,0.01683551,-0.8602174,-0.1772162,-2.137203,-0.265763,-0.01974928
393.6643,0.01718025,-0.8538883,-0.1976023,-2.137579,-0.2642786,-0.01974609
393.6787,0.01718025,-0.8538883,-0.1976023,-2.137579,-0.2642786,-0.01974609
393.6927,0.0175209,-0.8476337,-0.2176979,-2.137981,-0.2628754,-0.01974311
393.7081,0.01785748,-0.8414527,-0.2375059,-2.138406,-0.2615505,-0.01974033
393.7231,0.01819005,-0.8353444,-0.2570299,-2.138853,-0.2603014,-0.01973774
393.7377,0.01819005,-0.8353444,-0.2570299,-2.138853,-0.2603014,-0.01973774
393.7517,0.01851862,-0.829308,-0.2762733,-2.139321,-0.2591258,-0.01973533
393.7691,0.01884324,-0.8233426,-0.29524,-2.139807,-0.2580213,-0.01973312
393.7829,0.01916394,-0.8174475,-0.3139336,-2.140311,-0.2569859,-0.01973107
393.7965,0.01916394,-0.8174475,-0.3139336,-2.140311,-0.2569859,-0.01973107
393.8104,0.01948076,-0.811622,-0.3323579,-2.14083,-0.2560174,-0.01972918
393.8258,0.01979374,-0.805865,-0.3505165,-2.141364,-0.2551138,-0.01972746
393.84,0.02010292,-0.800176,-0.3684129,-2.141911,-0.2542732,-0.01972588
393.8548,0.02010292,-0.800176,-0.3684129,-2.141911,-0.2542732,-0.01972588
393.8687,0.02040832,-0.794554,-0.3860509,-2.14247,-0.2534935,-0.01972445
393.8841,0.02071,-0.7889984,-0.4034339,-2.143039,-0.252773,-0.01972317
393.8987,0.02071,-0.7889984,-0.4034339,-2.143039,-0.252773,-0.01972317
393.9131,0.02100799,-0.7835083,-0.4205656,-2.143618,-0.2521098,-0.01972201
393.9281,0.02130233,-0.778083,-0.4374494,-2.144205,-0.2515021,-0.01972099
393.9429,0.02159305,-0.7727218,-0.4540887,-2.1448,-0.2509483,-0.01972009
393.9574,0.02159305,-0.7727218,-0.4540887,-2.1448,-0.2509483,-0.01972009
393.9713,0.02188019,-0.7674238,-0.470487,-2.145401,-0.2504466,-0.01971931
393.9871,0.0221638,-0.7621884,-0.4866476,-2.146007,-0.2499955,-0.01971864
394.0014,0.0224439,-0.7570149,-0.502574,-2.146618,-0.2495933,-0.01971808
394.0162,0.0224439,-0.7570149,-0.502574,-2.146618,-0.2495933,-0.01971808
394.0302,0.02272055,-0.7519026,-0.5182693,-2.147232,-0.2492385,-0.01971763
394.0476,0.02299377,-0.7468507,-0.5337369,-2.14785,-0.2489296,-0.01971727
394.0612,0.0232636,-0.7418585,-0.5489801,-2.148469,-0.2486652,-0.01971701
394.0746,0.0232636,-0.7418585,-0.5489801,-2.148469,-0.2486652,-0.01971701
394.0886,0.02353009,-0.7369253,-0.5640019,-2.149089,-0.2484438,-0.01971685
394.1039,0.02379327,-0.7320505,-0.5788056,-2.14971,-0.248264,-0.01971678
394.1186,0.02379327,-0.7320505,-0.5788056,-2.14971,-0.248264,-0.01971678
394.1323,0.02405317,-0.7272334,-0.5933943,-2.150331,-0.2481245,-0.01971679
394.1475,0.02430984,-0.7224732,-0.607771,-2.150951,-0.248024,-0.01971689
394.1622,0.02456331,-0.7177694,-0.6219387,-2.151569,-0.2479611,-0.01971706
394.1766,0.02456331,-0.7177694,-0.6219387,-2.151569,-0.2479611,-0.01971706
394.1906,0.02481363,-0.7131212,-0.6359005,-2.152186,-0.2479347,-0.01971732
394.2062,0.02506082,-0.7085281,-0.6496593,-2.1528,-0.2479436,-0.01971764
394.2212,0.02530492,-0.7039894,-0.6632181,-2.153411,-0.2479865,-0.01971803
394.2419,0.02554597,-0.6995044,-0.6765797,-2.154018,-0.2480623,-0.01971849
394.2505,0.02554597,-0.6995044,-0.6765797,-2.154018,-0.2480623,-0.01971849
394.2646,0.02578401,-0.6950726,-0.6897469,-2.154622,-0.2481698,-0.01971902
394.2799,0.02578401,-0.6950726,-0.6897469,-2.154622,-0.2481698,-0.01971902
394.294,0.02601907,-0.6906933,-0.7027226,-2.155221,-0.2483081,-0.0197196
394.3096,0.02625119,-0.6863658,-0.7155095,-2.155816,-0.2484759,-0.01972025
394.3262,0.0264804,-0.6820897,-0.7281104,-2.156405,-0.2486723,-0.01972094
394.3395,0.0264804,-0.6820897,-0.7281104,-2.156405,-0.2486723,-0.01972094
394.3532,0.02670674,-0.6778642,-0.740528,-2.156989,-0.2488963,-0.0197217
394.3677,0.02693024,-0.6736888,-0.7527648,-2.157567,-0.2491469,-0.0197225
394.3823,0.02715095,-0.6695629,-0.7648236,-2.158139,-0.249423,-0.01972336
394.3968,0.02715095,-0.6695629,-0.7648236,-2.158139,-0.249423,-0.01972336
394.4106,0.02736888,-0.665486,-0.7767068,-2.158704,-0.2497239,-0.01972426
394.4258,0.02758408,-0.6614574,-0.7884171,-2.159263,-0.2500485,-0.0197252
394.4403,0.02779658,-0.6574765,-0.7999569,-2.159815,-0.250396,-0.01972619
394.455,0.02779658,-0.6574765,-0.7999569,-2.159815,-0.250396,-0.01972619
394.4689,0.02800641,-0.653543,-0.8113287,-2.16036,-0.2507655,-0.01972723
394.4842,0.0282136,-0.6496561,-0.822535,-2.160897,-0.2511562,-0.0197283
394.4989,0.0282136,-0.6496561,-0.822535,-2.160897,-0.2511562,-0.0197283
394.5128,0.0284182,-0.6458153,-0.8335781,-2.161427,-0.2515672,-0.01972941
394.5285,0.02862023,-0.6420201,-0.8444605,-2.16195,-0.2519978,-0.01973055
394.5428,0.02881972,-0.63827,-0.8551844,-2.162464,-0.2524472,-0.01973173
394.5572,0.02881972,-0.63827,-0.8551844,-2.162464,-0.2524472,-0.01973173
394.5712,0.0290167,-0.6345643,-0.8657522,-2.162971,-0.2529145,-0.01973294
394.5866,0.02921121,-0.6309027,-0.876166,-2.163469,-0.2533992,-0.01973419
394.6012,0.02940328,-0.6272845,-0.8864283,-2.16396,-0.2539004,-0.01973546
394.6156,0.02940328,-0.6272845,-0.8864283,-2.16396,-0.2539004,-0.01973546
394.6317,0.02959294,-0.6237093,-0.8965411,-2.164442,-0.2544174,-0.01973677
394.6458,0.02978021,-0.6201766,-0.9065067,-2.164915,-0.2549497,-0.0197381
394.6603,0.02996513,-0.6166857,-0.9163271,-2.16538,-0.2554964,-0.01973945
394.6737,0.02996513,-0.6166857,-0.9163271,-2.16538,-0.2554964,-0.01973945
394.6875,0.03014774,-0.6132364,-0.9260045,-2.165837,-0.2560571,-0.01974083
394.7026,0.03032804,-0.6098281,-0.935541,-2.166285,-0.2566309,-0.01974223
394.717,0.03032804,-0.6098281,-0.935541,-2.166285,-0.2566309,-0.01974223
394.7325,0.03050609,-0.6064603,-0.9449387,-2.166725,-0.2572174,-0.01974365
394.7463,0.0306819,-0.6031324,-0.9541994,-2.167156,-0.2578159,-0.01974509
394.7607,0.0308555,-0.5998442,-0.9633252,-2.167578,-0.2584259,-0.01974656
394.7751,0.0308555,-0.5998442,-0.9633252,-2.167578,-0.2584259,-0.01974656
394.7892,0.03102693,-0.5965949,-0.9723181,-2.167992,-0.2590467,-0.01974804
394.8044,0.03119621,-0.5933843,-0.9811801,-2.168397,-0.2596779,-0.01974955
394.819,0.03119621,-0.5933843,-0.9811801,-2.168397,-0.2596779,-0.01974955
394.8329,0.03136336,-0.5902119,-0.9899129,-2.168793,-0.2603189,-0.01975106
394.8483,0.03152842,-0.5870772,-0.9985186,-2.169181,-0.2609692,-0.0197526
394.8629,0.03169141,-0.5839798,-1.006999,-2.16956,-0.2616282,-0.01975415
394.8772,0.03169141,-0.5839798,-1.006999,-2.16956,-0.2616282,-0.01975415
394.8912,0.03185235,-0.5809191,-1.015356,-2.16993,-0.2622956,-0.01975571
394.9064,0.03201128,-0.5778949,-1.023591,-2.170292,-0.2629707,-0.01975729
394.9212,0.03216821,-0.5749066,-1.031705,-2.170645,-0.2636532,-0.01975888
394.9357,0.03216821,-0.5749066,-1.031705,-2.170645,-0.2636532,-0.01975888
394.9525,0.03232319,-0.5719539,-1.039702,-2.17099,-0.2643427,-0.01976048
394.9666,0.03247622,-0.5690363,-1.047583,-2.171327,-0.2650385,-0.01976209
394.98,0.03262733,-0.5661534,-1.055348,-2.171655,-0.2657405,-0.01976371
394.9937,0.03262733,-0.5661534,-1.055348,-2.171655,-0.2657405,-0.01976371
395.0084,0.03277656,-0.5633048,-1.063,-2.171974,-0.266448,-0.01976534
395.0225,0.03292391,-0.5604901,-1.070541,-2.172286,-0.2671608,-0.01976699
395.0369,0.03292391,-0.5604901,-1.070541,-2.172286,-0.2671608,-0.01976699
395.0509,0.03306943,-0.5577088,-1.077972,-2.172589,-0.2678784,-0.01976864
395.0662,0.03321312,-0.5549607,-1.085294,-2.172884,-0.2686005,-0.01977029
395.0806,0.03335502,-0.5522452,-1.09251,-2.173171,-0.2693266,-0.01977196
395.0953,0.03335502,-0.5522452,-1.09251,-2.173171,-0.2693266,-0.01977196
395.1093,0.03349515,-0.549562,-1.09962,-2.17345,-0.2700565,-0.01977363
395.1244,0.03363353,-0.5469108,-1.106627,-2.173721,-0.2707899,-0.0197753
395.139,0.03363353,-0.5469108,-1.106627,-2.173721,-0.2707899,-0.0197753
395.153,0.03377017,-0.5442911,-1.113532,-2.173985,-0.2715262,-0.01977699
395.1681,0.03390512,-0.5417026,-1.120336,-2.17424,-0.2722653,-0.01977867
395.1828,0.03403838,-0.5391449,-1.12704,-2.174488,-0.2730069,-0.01978036
395.1974,0.03403838,-0.5391449,-1.12704,-2.174488,-0.2730069,-0.01978036
395.2113,0.03416998,-0.5366177,-1.133647,-2.174728,-0.2737505,-0.01978205
395.2265,0.03429994,-0.5341205,-1.140158,-2.174961,-0.274496,-0.01978374
395.2412,0.03442827,-0.531653,-1.146573,-2.175186,-0.275243,-0.01978544
395.2556,0.03442827,-0.531653,-1.146573,-2.175186,-0.275243,-0.01978544
395.2694,0.03455501,-0.529215,-1.152895,-2.175405,-0.2759913,-0.01978714
395.2867,0.03468017,-0.5268059,-1.159125,-2.175615,-0.2767406,-0.01978884
395.3,0.03480377,-0.5244256,-1.165263,-2.175819,-0.2774906,-0.01979055
395.3146,0.03480377,-0.5244256,-1.165263,-2.175819,-0.2774906,-0.01979055
395.3286,0.03492583,-0.5220735,-1.171313,-2.176016,-0.278241,-0.01979225
395.3428,0.03504638,-0.5197495,-1.177273,-2.176205,-0.2789918,-0.01979395
395.3569,0.03504638,-0.5197495,-1.177273,-2.176205,-0.2789918,-0.01979395
395.3709,0.03516543,-0.5174531,-1.183147,-2.176388,-0.2797425,-0.01979565
395.3861,0.03528299,-0.5151841,-1.188935,-2.176564,-0.280493,-0.01979735
395.4009,0.0353991,-0.5129421,-1.194639,-2.176734,-0.2812431,-0.01979906
395.4154,0.0353991,-0.5129421,-1.194639,-2.176734,-0.2812431,-0.01979906
395.4293,0.03551376,-0.5107268,-1.200259,-2.176897,-0.2819926,-0.01980076
395.4446,0.035627,-0.5085379,-1.205797,-2.177054,-0.2827411,-0.01980245
395.459,0.035627,-0.5085379,-1.205797,-2.177054,-0.2827411,-0.01980245
395.4731,0.03573884,-0.506375,-1.211253,-2.177204,-0.2834892,-0.01980415
395.4884,0.03584928,-0.5042379,-1.21663,-2.177348,-0.284236,-0.01980585
395.5029,0.03595836,-0.5021263,-1.221928,-2.177486,-0.2849812,-0.01980754
395.5174,0.03595836,-0.5021263,-1.221928,-2.177486,-0.2849812,-0.01980754
395.5314,0.03606609,-0.5000399,-1.227148,-2.177618,-0.2857247,-0.01980923
395.5469,0.03617248,-0.4979782,-1.231587,-2.17781,-0.2873638,-0.01981318
395.5612,0.03627754,-0.4959412,-1.235129,-2.178011,-0.2888776,-0.01981679
395.5761,0.03627754,-0.4959412,-1.235129,-2.178011,-0.2888776,-0.01981679
395.5897,0.0363813,-0.4939283,-1.238145,-2.1782,-0.2901785,-0.01981987
395.6069,0.03648378,-0.4919395,-1.240888,-2.178371,-0.2913459,-0.01982262
395.6204,0.036585,-0.4899744,-1.242785,-2.178595,-0.293337,-0.01982748
395.635,0.036585,-0.4899744,-1.242785,-2.178595,-0.293337,-0.01982748
395.6489,0.03668495,-0.4880327,-1.243776,-2.178823,-0.2951654,-0.0198319
395.663,0.03678367,-0.4861141,-1.244258,-2.179035,-0.2967571,-0.01983573
395.6774,0.03678367,-0.4861141,-1.244258,-2.179035,-0.2967571,-0.01983573
395.6913,0.03688116,-0.4842184,-1.243792,-2.179294,-0.2990945,-0.01984151
395.7065,0.03697746,-0.4823452,-1.242393,-2.179554,-0.3012245,-0.01984674
395.721,0.03707256,-0.4804944,-1.240492,-2.179795,-0.303091,-0.0198513
395.7357,0.03707256,-0.4804944,-1.240492,-2.179795,-0.303091,-0.0198513
395.7495,0.03716649,-0.4786656,-1.238364,-2.180011,-0.3047886,-0.01985544
395.7648,0.03725927,-0.4768586,-1.235453,-2.180277,-0.3072807,-0.0198617
395.7794,0.03725927,-0.4768586,-1.235453,-2.180277,-0.3072807,-0.0198617
395.7934,0.0373509,-0.4750731,-1.231702,-2.180547,-0.3095889,-0.01986747
395.8086,0.0374414,-0.473309,-1.227506,-2.180798,-0.3116391,-0.01987257
395.8232,0.03753079,-0.4715658,-1.223126,-2.181025,-0.3135174,-0.01987724
395.8379,0.03753079,-0.4715658,-1.223126,-2.181025,-0.3135174,-0.01987724
395.8519,0.03761909,-0.4698434,-1.218002,-2.181302,-0.3161829,-0.01988406
395.8673,0.03770629,-0.4681415,-1.212071,-2.181584,-0.3186586,-0.01989037
395.8817,0.03779243,-0.4664599,-1.205727,-2.181846,-0.3208686,-0.01989599
395.8966,0.03779243,-0.4664599,-1.205727,-2.181846,-0.3208686,-0.01989599
395.9127,0.03787751,-0.4647984,-1.198536,-2.182156,-0.3237923,-0.0199036
395.9266,0.03796155,-0.4631566,-1.190511,-2.182425,-0.3264886,-0.01991054
395.9409,0.03804455,-0.4615344,-1.182077,-2.182555,-0.3289019,-0.01991664
395.9545,0.03804455,-0.4615344,-1.182077,-2.182555,-0.3289019,-0.01991664
395.9684,0.03812654,-0.4599316,-1.173506,-2.182557,-0.3311211,-0.01992223
395.9838,0.03820753,-0.4583478,-1.164246,-2.182562,-0.3341035,-0.01993003
395.9981,0.03820753,-0.4583478,-1.164246,-2.182562,-0.3341035,-0.01993003
396.0122,0.03828753,-0.4567829,-1.154236,-2.18255,-0.33688,-0.01993728
396.0274,0.03836655,-0.4552367,-1.143865,-2.182513,-0.3393737,-0.01994379
396.0418,0.0384446,-0.4537089,-1.133394,-2.182462,-0.3416695,-0.01994981
396.0566,0.0384446,-0.4537089,-1.133394,-2.182462,-0.3416695,-0.01994981
396.0706,0.03852171,-0.4521993,-1.122267,-2.182488,-0.3447251,-0.01995806
396.0857,0.03859788,-0.4507076,-1.11042,-2.182526,-0.3475733,-0.01996572
396.1006,0.03867311,-0.4492338,-1.09824,-2.182531,-0.350136,-0.01997258
396.1152,0.03867311,-0.4492338,-1.09824,-2.182531,-0.350136,-0.01997258
396.1292,0.03874744,-0.4477775,-1.085298,-2.182581,-0.3533892,-0.01998151
396.1445,0.03882086,-0.4463385,-1.071602,-2.182614,-0.3563953,-0.01998971
396.1589,0.03882086,-0.4463385,-1.071602,-2.182614,-0.3563953,-0.01998971
396.1728,0.03889338,-0.4449168,-1.057571,-2.182601,-0.3590926,-0.01999706
396.1887,0.03896503,-0.4435119,-1.043479,-2.182554,-0.361573,-0.02000384
396.2029,0.03903581,-0.4421238,-1.028779,-2.182575,-0.3647966,-0.02001292
396.2194,0.03903581,-0.4421238,-1.028779,-2.182575,-0.3647966,-0.02001292
396.2333,0.03910573,-0.4407522,-1.013409,-2.182605,-0.367801,-0.02002134
396.2475,0.03917481,-0.439397,-0.9977533,-2.182601,-0.3705082,-0.02002892
396.261,0.03924305,-0.4380579,-0.982071,-2.182565,-0.3730015,-0.02003592
396.2754,0.03924305,-0.4380579,-0.982071,-2.182565,-0.3730015,-0.02003592
396.2892,0.03931046,-0.4367348,-0.9658087,-2.182596,-0.3762369,-0.02004525
396.3045,0.03937706,-0.4354275,-0.948902,-2.182631,-0.3792517,-0.0200539
396.3192,0.03937706,-0.4354275,-0.948902,-2.182631,-0.3792517,-0.0200539
396.3331,0.03944286,-0.4341357,-0.9317328,-2.182627,-0.3819665,-0.02006168
396.3483,0.03950786,-0.4328593,-0.9138753,-2.18267,-0.3853549,-0.02007161
396.3631,0.03957208,-0.4315982,-0.8953356,-2.182699,-0.3884845,-0.02008074
396.3774,0.03957208,-0.4315982,-0.8953356,-2.182699,-0.3884845,-0.02008074
396.3914,0.03963553,-0.430352,-0.8765286,-2.182682,-0.3912923,-0.02008893
396.407,0.03969821,-0.4291207,-0.8577263,-2.182629,-0.3938694,-0.02009649
396.4214,0.03976015,-0.4279041,-0.8390732,-2.182564,-0.3962745,-0.02010362
396.4361,0.03976015,-0.4279041,-0.8390732,-2.182564,-0.3962745,-0.02010362
396.4501,0.03982134,-0.426702,-0.8206328,-2.182506,-0.3985561,-0.02011044
396.4655,0.0398818,-0.4255142,-0.8024277,-2.182465,-0.4007351,-0.02011701
396.4798,0.0398818,-0.4255142,-0.8024277,-2.182465,-0.4007351,-0.02011701
396.4941,0.03994153,-0.4243405,-0.784465,-2.182438,-0.4028215,-0.02012334
396.5093,0.04000055,-0.4231809,-0.7667458,-2.18242,-0.4048209,-0.02012945
396.5258,0.04005885,-0.422035,-0.7492686,-2.182406,-0.4067371,-0.02013532
396.5393,0.04005885,-0.422035,-0.7492686,-2.182406,-0.4067371,-0.02013532
396.5532,0.04011647,-0.4209028,-0.7320309,-2.18239,-0.4085725,-0.02014098
396.5675,0.0401733,-0.4197842,-0.7154675,-2.171726,-0.4113068,-0.02013185
396.582,0.04022944,-0.418679,-0.6989127,-2.155026,-0.4138418,-0.0201287
396.5967,0.04022944,-0.418679,-0.6989127,-2.155026,-0.4138418,-0.0201287
396.6104,0.04028491,-0.4175869,-0.6823457,-2.135604,-0.4160485,-0.02012793
396.6257,0.04033976,-0.4165078,-0.6658253,-2.115042,-0.4179916,-0.02012819
396.6404,0.04039397,-0.4154415,-0.6494254,-2.092854,-0.4198264,-0.02012733
396.655,0.04039397,-0.4154415,-0.6494254,-2.092854,-0.4198264,-0.02012733
396.6689,0.04044758,-0.4143878,-0.6330926,-2.06994,-0.4214465,-0.02012727
396.6842,0.04050058,-0.4133467,-0.6168433,-2.046853,-0.4228587,-0.0201275
396.6989,0.04050058,-0.4133467,-0.6168433,-2.046853,-0.4228587,-0.0201275
396.7132,0.04055297,-0.4123179,-0.6007266,-2.022615,-0.4241729,-0.02012639
396.7286,0.04060477,-0.4113014,-0.5847014,-1.997891,-0.4252751,-0.02012583
396.7431,0.040656,-0.4102969,-0.5687886,-1.973123,-0.426177,-0.02012547
396.7574,0.040656,-0.4102969,-0.5687886,-1.973123,-0.426177,-0.02012547
396.7716,0.04070665,-0.4093044,-0.5530061,-1.94852,-0.4268956,-0.02012513
396.7872,0.04075672,-0.4083237,-0.5373856,-1.922939,-0.4275151,-0.02012353
396.8027,0.04080623,-0.4073546,-0.5219033,-1.896964,-0.4279403,-0.02012236
396.8183,0.04080623,-0.4073546,-0.5219033,-1.896964,-0.4279403,-0.02012236
396.8322,0.04085518,-0.406397,-0.506577,-1.871001,-0.4281901,-0.02012132
396.8465,0.04090359,-0.4054508,-0.4914187,-1.845242,-0.428281,-0.02012032
396.8601,0.04095145,-0.4045158,-0.4764462,-1.818532,-0.4282733,-0.0201182
396.8744,0.04095145,-0.4045158,-0.4764462,-1.818532,-0.4282733,-0.0201182
396.8882,0.04099876,-0.4035919,-0.4616503,-1.791455,-0.4281042,-0.02011647
396.9038,0.04104555,-0.402679,-0.4470415,-1.764413,-0.4277932,-0.02011491
396.9184,0.04104555,-0.402679,-0.4470415,-1.764413,-0.4277932,-0.02011491
396.9325,0.04109181,-0.4017769,-0.4326271,-1.737451,-0.4273582,-0.02011329
396.9477,0.04113755,-0.4008856,-0.4184107,-1.710719,-0.4268053,-0.02011175
396.9624,0.04118278,-0.4000049,-0.4043964,-1.684304,-0.4261454,-0.02011024
396.9772,0.04118278,-0.4000049,-0.4043964,-1.684304,-0.4261454,-0.02011024
396.9911,0.04122749,-0.3991346,-0.3905869,-1.658243,-0.425388,-0.02010874
397.0066,0.04127168,-0.3982746,-0.3769843,-1.632551,-0.4245416,-0.02010727
397.021,0.04131537,-0.3974249,-0.3635898,-1.607234,-0.4236135,-0.02010582
397.0359,0.04131537,-0.3974249,-0.3635898,-1.607234,-0.4236135,-0.02010582
397.0498,0.04135855,-0.3965853,-0.3504044,-1.582291,-0.4226107,-0.02010444
397.0654,0.04140122,-0.3957558,-0.3374286,-1.557721,-0.4215391,-0.02010313
397.0799,0.04140122,-0.3957558,-0.3374286,-1.557721,-0.4215391,-0.02010313
397.0938,0.04144339,-0.3949361,-0.3246624,-1.533518,-0.4204044,-0.02010186
397.1105,0.04148506,-0.3941261,-0.3121057,-1.509679,-0.4192118,-0.0201006
397.1248,0.04152622,-0.3933258,-0.299758,-1.486199,-0.4179659,-0.02009933
397.1382,0.04152622,-0.3933258,-0.299758,-1.486199,-0.4179659,-0.02009933
397.1522,0.04156689,-0.3925351,-0.2876186,-1.463074,-0.4166708,-0.02009804
397.1675,0.04160706,-0.3917538,-0.2756868,-1.440299,-0.4153305,-0.02009677
397.182,0.04164673,-0.3909818,-0.2639616,-1.417869,-0.4139482,-0.02009553
397.1967,0.04164673,-0.3909818,-0.2639616,-1.417869,-0.4139482,-0.02009553
397.2107,0.04168592,-0.3902191,-0.2524421,-1.39578,-0.4125272,-0.02009432
397.2263,0.04172461,-0.3894654,-0.2411272,-1.374027,-0.4110702,-0.02009315
397.2407,0.04176282,-0.3887208,-0.2300158,-1.352605,-0.4095799,-0.02009203
397.2553,0.04176282,-0.3887208,-0.2300158,-1.352605,-0.4095799,-0.02009203
397.2694,0.04180055,-0.3879851,-0.2191067,-1.331509,-0.408059,-0.02009093
397.2849,0.0418378,-0.3872582,-0.2083989,-1.310737,-0.40651,-0.02008988
397.2996,0.0418378,-0.3872582,-0.2083989,-1.310737,-0.40651,-0.02008988
397.3137,0.04187457,-0.38654,-0.1978908,-1.290281,-0.4049357,-0.02008887
397.3291,0.04191087,-0.3858303,-0.1875811,-1.270139,-0.403339,-0.02008789
397.3435,0.04194671,-0.3851292,-0.1774682,-1.250306,-0.4017233,-0.02008695
397.3581,0.04194671,-0.3851292,-0.1774682,-1.250306,-0.4017233,-0.02008695
397.3724,0.04198208,-0.3844365,-0.1675501,-1.230777,-0.4000918,-0.02008602
397.3886,0.042017,-0.383752,-0.1578251,-1.211549,-0.3984483,-0.02008512
397.4032,0.04205147,-0.3830758,-0.1482908,-1.192616,-0.3967963,-0.02008425
397.4168,0.04205147,-0.3830758,-0.1482908,-1.192616,-0.3967963,-0.02008425
397.4311,0.04208549,-0.3824077,-0.1389449,-1.173975,-0.3951396,-0.02008338
397.4461,0.04211906,-0.3817475,-0.129785,-1.155621,-0.3934817,-0.02008251
397.4608,0.0421522,-0.3810953,-0.1208085,-1.13755,-0.3918263,-0.02008166
397.4755,0.0421522,-0.3810953,-0.1208085,-1.13755,-0.3918263,-0.02008166
397.4894,0.04218491,-0.3804509,-0.1120126,-1.119759,-0.3901766,-0.0200808
397.505,0.0422172,-0.3798142,-0.1033945,-1.102243,-0.3885359,-0.02007995
397.5199,0.0422172,-0.3798142,-0.1033945,-1.102243,-0.3885359,-0.02007995
397.5338,0.04224906,-0.3791851,-0.09495156,-1.084998,-0.386907,-0.0200791
397.5493,0.04228051,-0.3785636,-0.08668075,-1.06802,-0.3852926,-0.02007824
397.5643,0.04231155,-0.3779495,-0.07857924,-1.051305,-0.3836953,-0.02007737
397.5789,0.04231155,-0.3779495,-0.07857924,-1.051305,-0.3836953,-0.02007737
397.593,0.04234218,-0.3773428,-0.07064413,-1.03485,-0.3821174,-0.0200765
397.6084,0.04237241,-0.3767434,-0.06287252,-1.01865,-0.3805608,-0.02007561
397.6229,0.04240225,-0.3761511,-0.05526153,-1.002702,-0.3790274,-0.02007471
397.6397,0.04240225,-0.3761511,-0.05526153,-1.002702,-0.3790274,-0.02007471
397.6538,0.0424317,-0.3755659,-0.04780827,-0.9870021,-0.377519,-0.0200738
397.6672,0.04246077,-0.3749878,-0.04050989,-0.9715463,-0.3760369,-0.02007288
397.6817,0.04248947,-0.3744166,-0.03336355,-0.9563311,-0.3745824,-0.02007195
397.6965,0.04248947,-0.3744166,-0.03336355,-0.9563311,-0.3745824,-0.02007195
397.7104,0.04251778,-0.3738522,-0.02636643,-0.941353,-0.3731568,-0.02007101
397.726,0.04254574,-0.3732945,-0.01951576,-0.9266083,-0.3717611,-0.02007005
397.7407,0.04257333,-0.3727436,-0.01280878,-0.9120936,-0.3703961,-0.02006908
397.7554,0.04257333,-0.3727436,-0.01280878,-0.9120936,-0.3703961,-0.02006908
397.7697,0.04260056,-0.3721992,-0.006242753,-0.8978053,-0.3690625,-0.02006809
397.7853,0.04262744,-0.3716614,0.0001850049,-0.88374,-0.367761,-0.02006708
397.8,0.04262744,-0.3716614,0.0001850049,-0.88374,-0.367761,-0.02006708
397.814,0.04265397,-0.37113,0.006477159,-0.8698944,-0.3664921,-0.02006607
397.8293,0.04268016,-0.3706051,0.01263633,-0.8562651,-0.3652562,-0.02006503
397.8443,0.04270601,-0.3700863,0.01866513,-0.8428488,-0.3640537,-0.02006397
397.8592,0.04270601,-0.3700863,0.01866513,-0.8428488,-0.3640537,-0.02006397
397.8729,0.04273153,-0.3695738,0.02456611,-0.8296422,-0.3628848,-0.0200629
397.8904,0.04275672,-0.3690675,0.03034179,-0.8166422,-0.3617497,-0.02006182
397.904,0.04278159,-0.3685671,0.03599467,-0.8038456,-0.3606485,-0.02006071
397.9176,0.04278159,-0.3685671,0.03599467,-0.8038456,-0.3606485,-0.02006071
397.9319,0.04280613,-0.3680728,0.04152719,-0.7912493,-0.3595812,-0.02005959
397.9471,0.04283037,-0.3675844,0.04694178,-0.7788502,-0.3585478,-0.02005845
397.9619,0.04285429,-0.3671018,0.05224082,-0.7666453,-0.3575482,-0.02005729
397.9765,0.04285429,-0.3671018,0.05224082,-0.7666453,-0.3575482,-0.02005729
397.9909,0.04287791,-0.3666251,0.05742667,-0.7546315,-0.3565823,-0.02005611
398.0062,0.04290122,-0.366154,0.06250163,-0.742806,-0.3556499,-0.02005492
398.0209,0.04292424,-0.3656886,0.06746799,-0.7311658,-0.3547508,-0.02005369
398.0358,0.04292424,-0.3656886,0.06746799,-0.7311658,-0.3547508,-0.02005369
398.0498,0.04294696,-0.3652287,0.07232801,-0.719708,-0.3538847,-0.02005245
398.0654,0.04296939,-0.3647744,0.07708388,-0.70843,-0.3530514,-0.02005118
398.0803,0.04299154,-0.3643255,0.08173779,-0.6973288,-0.3522505,-0.02004989
398.0948,0.04299154,-0.3643255,0.08173779,-0.6973288,-0.3522505,-0.02004989
398.1089,0.04301341,-0.3638819,0.08629187,-0.6864018,-0.3514816,-0.02004858
398.1244,0.043035,-0.3634437,0.09074824,-0.6756462,-0.3507445,-0.02004725
398.141,0.04305631,-0.3630107,0.09510897,-0.6650594,-0.3500386,-0.0200459
398.1557,0.04305631,-0.3630107,0.09510897,-0.6650594,-0.3500386,-0.0200459
398.1687,0.04307736,-0.3625829,0.09937611,-0.6546388,-0.3493637,-0.02004452
398.1832,0.04309814,-0.3621602,0.1035517,-0.6443817,-0.3487192,-0.02004312
398.1977,0.04309814,-0.3621602,0.1035517,-0.6443817,-0.3487192,-0.02004312
398.2119,0.04311866,-0.3617426,0.1076376,-0.6342857,-0.3481047,-0.02004168
398.2273,0.04313891,-0.36133,0.1116359,-0.6243482,-0.3475197,-0.02004023
398.2419,0.04315892,-0.3609223,0.1155484,-0.6145668,-0.3469637,-0.02003874
398.2567,0.04315892,-0.3609223,0.1155484,-0.6145668,-0.3469637,-0.02003874
398.2707,0.04317867,-0.3605195,0.1193771,-0.604939,-0.3464363,-0.02003723
398.2862,0.04319817,-0.3601215,0.1231238,-0.5954625,-0.345937,-0.02003569
398.301,0.04321743,-0.3597283,0.1267902,-0.5861349,-0.3454652,-0.02003412
398.3158,0.04321743,-0.3597283,0.1267902,-0.5861349,-0.3454652,-0.02003412
398.33,0.04323645,-0.3593397,0.1303782,-0.5769538,-0.3450205,-0.02003252
398.3454,0.04325522,-0.3589559,0.1338896,-0.567917,-0.3446023,-0.02003089
398.3602,0.04327377,-0.3585766,0.1373261,-0.5590222,-0.3442101,-0.02002922
398.3749,0.04327377,-0.3585766,0.1373261,-0.5590222,-0.3442101,-0.02002922
398.391,0.04329208,-0.3582018,0.1406893,-0.5502673,-0.3438434,-0.02002752
398.4053,0.04331016,-0.3578315,0.1439958,-0.5417945,-0.3435224,-0.02002611
398.4188,0.04331016,-0.3578315,0.1439958,-0.5417945,-0.3435224,-0.02002611
398.4331,0.04332802,-0.3574657,0.1472311,-0.5335392,-0.3432267,-0.02002454
398.4482,0.04334565,-0.3571042,0.1503939,-0.5254542,-0.3429503,-0.02002288
398.463,0.04336307,-0.3567471,0.1534872,-0.5175159,-0.342693,-0.02002116
398.4777,0.04336307,-0.3567471,0.1534872,-0.5175159,-0.342693,-0.02002116
398.4916,0.04338028,-0.3563942,0.1566499,-0.5109398,-0.3426377,-0.02002247
398.5071,0.04339729,-0.3560455,0.1597399,-0.5051886,-0.3426126,-0.02002249
398.5218,0.04341409,-0.3557011,0.1627308,-0.4998746,-0.3425681,-0.02002198
398.5367,0.04341409,-0.3557011,0.1627308,-0.4998746,-0.3425681,-0.02002198
398.5508,0.04343069,-0.3553607,0.1657773,-0.496039,-0.3426918,-0.02002455
398.5663,0.0434471,-0.3550244,0.1687452,-0.4930613,-0.3428178,-0.02002565
398.581,0.0434633,-0.3546921,0.1716168,-0.4905138,-0.3429045,-0.02002616
398.5958,0.0434633,-0.3546921,0.1716168,-0.4905138,-0.3429045,-0.02002616
398.6098,0.0434793,-0.3543638,0.1744111,-0.4881909,-0.3429593,-0.02002641
398.6253,0.04349513,-0.3540394,0.1772934,-0.4872212,-0.3431866,-0.02003003
398.6397,0.04349513,-0.3540394,0.1772934,-0.4872212,-0.3431866,-0.02003003
398.656,0.04351076,-0.3537189,0.1801217,-0.4870267,-0.3434171,-0.02003213
398.6702,0.0435262,-0.3534022,0.1828726,-0.4872003,-0.3436068,-0.02003359
398.6839,0.04354145,-0.3530893,0.185562,-0.4875468,-0.3437609,-0.02003478
398.6986,0.04354145,-0.3530893,0.185562,-0.4875468,-0.3437609,-0.02003478
398.7126,0.04355653,-0.3527801,0.1883539,-0.4892002,-0.3440834,-0.02003933
398.7282,0.04357143,-0.3524747,0.1911026,-0.4915853,-0.3444025,-0.02004229
398.7426,0.04358615,-0.3521728,0.1937845,-0.4942968,-0.3446742,-0.02004457
398.7572,0.04358615,-0.3521728,0.1937845,-0.4942968,-0.3446742,-0.02004457
398.7715,0.04360083,-0.3518746,0.1976689,-0.5078319,-0.3465506,-0.02007626
398.7869,0.04361537,-0.3515801,0.2013525,-0.5274845,-0.3484147,-0.02009426
398.8017,0.04362972,-0.351289,0.204601,-0.5498709,-0.3498524,-0.02010631
398.8165,0.04362972,-0.351289,0.204601,-0.5498709,-0.3498524,-0.02010631
398.8307,0.04364387,-0.3510014,0.2075575,-0.5733703,-0.3509128,-0.02011547
398.8461,0.04365784,-0.3507172,0.2103778,-0.5972059,-0.3517115,-0.02012296
398.8611,0.04367164,-0.3504364,0.2131619,-0.6210064,-0.3523389,-0.02012931
398.8756,0.04367164,-0.3504364,0.2131619,-0.6210064,-0.3523389,-0.02012931
398.8894,0.04368527,-0.3501589,0.2159616,-0.6445954,-0.3528528,-0.02013478
398.907,0.04369874,-0.3498847,0.2187989,-0.6678908,-0.3532882,-0.02013952
398.921,0.04371206,-0.3496138,0.2242399,-0.6908368,-0.3575169,-0.02014793
398.9343,0.04371206,-0.3496138,0.2242399,-0.6908368,-0.3575169,-0.02014793
398.9482,0.04372524,-0.3493462,0.2300781,-0.7134127,-0.3631536,-0.02015238
398.9637,0.04373828,-0.3490817,0.2355602,-0.7356303,-0.3690831,-0.02015553
398.9783,0.04373828,-0.3490817,0.2355602,-0.7356303,-0.3690831,-0.02015553
398.9923,0.04375119,-0.3488203,0.2395094,-0.7575122,-0.373169,-0.02015669
399.0076,0.04376396,-0.348562,0.2430219,-0.7790691,-0.3765139,-0.02015898
399.0223,0.04377661,-0.3483068,0.246481,-0.8003004,-0.3796228,-0.02016129
399.0371,0.04377661,-0.3483068,0.246481,-0.8003004,-0.3796228,-0.02016129
399.0511,0.04378912,-0.3480546,0.2499541,-0.8212047,-0.3826457,-0.02016334
399.0667,0.04380152,-0.3478054,0.2523624,-0.8417922,-0.383643,-0.02016397
399.0813,0.04381379,-0.3475591,0.2547757,-0.8620709,-0.384052,-0.02016555
399.0961,0.04381379,-0.3475591,0.2547757,-0.8620709,-0.384052,-0.02016555
399.1103,0.04382594,-0.3473157,0.2574008,-0.882035,-0.3843853,-0.02016697
399.1256,0.04383796,-0.3470752,0.2601802,-0.9016823,-0.3847409,-0.02016807
399.1404,0.04384988,-0.3468375,0.2620159,-0.9210247,-0.3829568,-0.02016816
399.1547,0.04384988,-0.3468375,0.2620159,-0.9210247,-0.3829568,-0.02016816
399.171,0.04386168,-0.3466026,0.2640075,-0.9400729,-0.3807439,-0.02016903
399.1852,0.04387335,-0.3463706,0.2662615,-0.9588199,-0.3785672,-0.02016967
399.1987,0.04387335,-0.3463706,0.2662615,-0.9588199,-0.3785672,-0.02016967
399.2129,0.04388493,-0.3461412,0.2677024,-0.9772724,-0.3741805,-0.02016958
399.2281,0.04389638,-0.3459146,0.2694189,-0.9954412,-0.3695232,-0.02017005
399.2426,0.04390773,-0.3456906,0.2714272,-1.013317,-0.3649906,-0.02017022
399.2573,0.04390773,-0.3456906,0.2714272,-1.013317,-0.3649906,-0.02017022
399.2715,0.04391897,-0.3454693,0.2736036,-1.030901,-0.3605917,-0.02017012
399.2869,0.0439301,-0.3452506,0.2749727,-1.048203,-0.3538537,-0.02016971
399.3015,0.04394113,-0.3450345,0.2766467,-1.065237,-0.3470166,-0.02016963
399.3162,0.04394113,-0.3450345,0.2766467,-1.065237,-0.3470166,-0.02016963
399.3302,0.04395205,-0.3448209,0.2785753,-1.081994,-0.3403667,-0.02016927
399.3459,0.04396286,-0.3446098,0.2806424,-1.098475,-0.3338854,-0.02016868
399.3606,0.04397358,-0.3444012,0.2819895,-1.114689,-0.3249904,-0.02016806
399.3751,0.04397358,-0.3444012,0.2819895,-1.114689,-0.3249904,-0.02016806
399.3891,0.04398419,-0.3441951,0.2836677,-1.130651,-0.3161692,-0.02016753
399.4045,0.0439947,-0.3439914,0.2855657,-1.146351,-0.3075821,-0.02016672
399.4191,0.0439947,-0.3439914,0.2855657,-1.146351,-0.3075821,-0.02016672
399.4353,0.04400512,-0.3437901,0.2868681,-1.161795,-0.2965887,-0.02016597
399.4494,0.04401543,-0.3435912,0.2885213,-1.176994,-0.2857943,-0.02016514
399.4632,0.04402565,-0.3433947,0.2903785,-1.191942,-0.2752738,-0.02016404
399.4777,0.04402565,-0.3433947,0.2903785,-1.191942,-0.2752738,-0.02016404
399.4916,0.04403576,-0.3432005,0.2923441,-1.206641,-0.2649938,-0.02016276
399.5069,0.04404579,-0.3430085,0.2937782,-1.221098,-0.252303,-0.02016166
399.5213,0.04405572,-0.3428188,0.2955152,-1.235325,-0.2399007,-0.02016037
399.536,0.04405572,-0.3428188,0.2955152,-1.235325,-0.2399007,-0.02016037
399.5499,0.04406555,-0.3426314,0.2974119,-1.249318,-0.2277941,-0.02015885
399.5655,0.04407528,-0.3424461,0.299394,-1.26308,-0.2159559,-0.02015719
399.5801,0.04408493,-0.3422631,0.3009435,-1.276613,-0.2017503,-0.0201557
399.5947,0.04408493,-0.3422631,0.3009435,-1.276613,-0.2017503,-0.0201557
399.6087,0.04409448,-0.3420822,0.3027493,-1.289932,-0.1878835,-0.02015399
399.6241,0.04410394,-0.3419034,0.3046824,-1.303032,-0.1743317,-0.0201521
399.6389,0.04410394,-0.3419034,0.3046824,-1.303032,-0.1743317,-0.0201521
399.6528,0.04411331,-0.3417268,0.3062757,-1.315913,-0.1584726,-0.02015033
399.6682,0.04412259,-0.3415522,0.3081006,-1.32859,-0.1429847,-0.02014834
399.683,0.04413178,-0.3413797,0.3100381,-1.34106,-0.1278378,-0.02014621
399.6975,0.04413178,-0.3413797,0.3100381,-1.34106,-0.1278378,-0.02014621
399.7135,0.04414088,-0.3412092,0.3120345,-1.353326,-0.1130121,-0.020144
399.7278,0.04414989,-0.3410408,0.3137465,-1.365388,-0.09592514,-0.02014185
399.7422,0.04415882,-0.3408743,0.3156345,-1.377259,-0.07921769,-0.02013957
399.756,0.04415882,-0.3408743,0.3156345,-1.377259,-0.07921769,-0.02013957
399.7699,0.04416765,-0.3407098,0.3176061,-1.38894,-0.06286402,-0.02013721
399.785,0.0441764,-0.3405473,0.31962,-1.400434,-0.04684877,-0.0201348
399.7998,0.0441764,-0.3405473,0.31962,-1.400434,-0.04684877,-0.0201348
399.8138,0.04418506,-0.3403866,0.3214148,-1.411737,-0.02861564,-0.02013244
399.8291,0.04419364,-0.3402279,0.3233447,-1.422865,-0.01076962,-0.02013001
399.8437,0.04420213,-0.3400711,0.3253372,-1.433818,0.006708857,-0.02012756
399.8583,0.04420213,-0.3400711,0.3253372,-1.433818,0.006708857,-0.02012756
399.8723,0.04421054,-0.339916,0.3271673,-1.44459,0.02636438,-0.02012512
399.8879,0.04421886,-0.3397628,0.3291125,-1.455196,0.04561321,-0.02012269
399.9026,0.0442271,-0.3396115,0.3311102,-1.465639,0.06447171,-0.02012027
399.917,0.0442271,-0.3396115,0.3311102,-1.465639,0.06447171,-0.02012027
399.9312,0.04423526,-0.3394619,0.3331326,-1.475922,0.08295131,-0.02011788
399.9466,0.04424333,-0.3393141,0.3350334,-1.486038,0.103581,-0.02011553
399.961,0.04425132,-0.339168,0.337013,-1.496002,0.1237945,-0.02011323
399.9757,0.04425132,-0.339168,0.337013,-1.496002,0.1237945,-0.02011323
399.9896,0.04425923,-0.3390237,0.3390272,-1.505818,0.1436042,-0.02011099
400.006,0.04426705,-0.3388811,0.341056,-1.515486,0.1630201,-0.02010884
400.0206,0.04427481,-0.3387402,0.3430109,-1.525003,0.1845634,-0.02010674
400.0341,0.04427481,-0.3387402,0.3430109,-1.525003,0.1845634,-0.02010674
400.048,0.04428247,-0.3386009,0.3450166,-1.534382,0.2056788,-0.02010474
400.0633,0.04429006,-0.3384633,0.3470431,-1.543624,0.2263765,-0.02010286
400.0777,0.04429006,-0.3384633,0.3470431,-1.543624,0.2263765,-0.02010286
400.0918,0.04429757,-0.3383273,0.349035,-1.552724,0.2491758,-0.02010106
400.107,0.044305,-0.338193,0.3510617,-1.561695,0.2715258,-0.02009941
400.1217,0.04431235,-0.3380602,0.3531015,-1.57054,0.2934361,-0.0200979
400.1363,0.04431235,-0.3380602,0.3531015,-1.57054,0.2934361,-0.0200979
400.1504,0.04431962,-0.337929,0.3551445,-1.579262,0.3149158,-0.02009652
400.1659,0.04432682,-0.3377994,0.3571916,-1.587855,0.3384836,-0.02009527
400.1803,0.04433394,-0.3376713,0.3592482,-1.596331,0.3615898,-0.02009418
400.1953,0.04433394,-0.3376713,0.3592482,-1.596331,0.3615898,-0.02009418
400.209,0.04434098,-0.3375447,0.3613057,-1.604691,0.3842437,-0.02009324
400.2246,0.04434795,-0.3374197,0.3633599,-1.612938,0.4064543,-0.02009245
400.2397,0.04434795,-0.3374197,0.3633599,-1.612938,0.4064543,-0.02009245
400.253,0.04435483,-0.3372961,0.3654083,-1.621076,0.4282307,-0.02009181
400.2684,0.04436164,-0.337174,0.3674493,-1.629104,0.4495816,-0.02009131
400.2851,0.04436837,-0.3370533,0.3694816,-1.637027,0.4705158,-0.02009094
400.2987,0.04436837,-0.3370533,0.3694816,-1.637027,0.4705158,-0.02009094
400.3127,0.04437502,-0.3369341,0.3714188,-1.644846,0.4885249,-0.02009061
400.327,0.0443816,-0.3368164,0.3733638,-1.652562,0.506184,-0.02009042
400.3417,0.0443881,-0.3367,0.3753046,-1.660175,0.5234997,-0.02009034
400.3559,0.0443881,-0.3367,0.3753046,-1.660175,0.5234997,-0.02009034
400.37,0.04439453,-0.336585,0.3772354,-1.667686,0.5404785,-0.02009036
400.3853,0.04440087,-0.3364714,0.3790236,-1.675095,0.554603,-0.02009033
400.4001,0.04440715,-0.3363592,0.3808338,-1.682404,0.5684562,-0.02009041
400.4146,0.04440715,-0.3363592,0.3808338,-1.682404,0.5684562,-0.02009041
400.4287,0.04441336,-0.3362482,0.3826441,-1.689613,0.5820419,-0.02009058
400.4441,0.04441949,-0.3361387,0.3844447,-1.696723,0.5953643,-0.02009082
400.4588,0.04441949,-0.3361387,0.3844447,-1.696723,0.5953643,-0.02009082
400.4738,0.04442555,-0.3360304,0.3860574,-1.703732,0.6058947,-0.02009092
400.4875,0.04443153,-0.3359234,0.3877072,-1.710643,0.6162275,-0.02009114
400.502,0.04443745,-0.3358177,0.389363,-1.717457,0.626363,-0.02009142
400.5168,0.04443745,-0.3358177,0.389363,-1.717457,0.626363,-0.02009142
400.5303,0.04444329,-0.3357133,0.3908046,-1.724172,0.6337611,-0.0200915
400.5453,0.04444906,-0.3356101,0.3922981,-1.730788,0.6410257,-0.0200917
400.5593,0.04444906,-0.3356101,0.3922981,-1.730788,0.6410257,-0.0200917
400.573,0.04445476,-0.3355082,0.393804,-1.73731,0.6481541,-0.02009195
400.5883,0.0444604,-0.3354074,0.3953046,-1.743739,0.6551463,-0.02009225
400.6024,0.04446597,-0.3353079,0.396543,-1.750069,0.6594493,-0.02009226
400.6188,0.04446597,-0.3353079,0.396543,-1.750069,0.6594493,-0.02009226
400.6328,0.04447147,-0.3352096,0.3978475,-1.756302,0.6636825,-0.02009239
400.6469,0.0444769,-0.3351125,0.3991713,-1.762444,0.66784,-0.02009257
400.6617,0.04448227,-0.3350165,0.400493,-1.768496,0.6719198,-0.02009279
400.675,0.04448227,-0.3350165,0.400493,-1.768496,0.6719198,-0.02009279
400.6888,0.04448757,-0.3349216,0.4015124,-1.774451,0.6733542,-0.02009266
400.7041,0.0444928,-0.3348279,0.4026157,-1.780313,0.6747779,-0.02009265
400.7187,0.0444928,-0.3348279,0.4026157,-1.780313,0.6747779,-0.02009265
400.7326,0.04449797,-0.3347353,0.4037471,-1.786086,0.6761828,-0.0200927
400.748,0.04450307,-0.3346439,0.4045597,-1.791765,0.6749876,-0.02009239
400.7628,0.04450811,-0.3345535,0.4054755,-1.797351,0.6738359,-0.0200922
400.7773,0.04450811,-0.3345535,0.4054755,-1.797351,0.6738359,-0.0200922
400.7911,0.04451309,-0.3344642,0.4064294,-1.802852,0.6727178,-0.02009208
400.8064,0.04451801,-0.3343759,0.4073918,-1.808271,0.6716263,-0.02009197
400.821,0.04452286,-0.3342888,0.407988,-1.813597,0.6679698,-0.02009146
400.8357,0.04452286,-0.3342888,0.407988,-1.813597,0.6679698,-0.02009146
400.8498,0.04452765,-0.3342026,0.4087008,-1.818833,0.6644053,-0.02009106
400.8651,0.04453239,-0.3341176,0.4094599,-1.823987,0.6609236,-0.02009073
400.8797,0.04453239,-0.3341176,0.4094599,-1.823987,0.6609236,-0.02009073
400.8936,0.04453705,-0.3340335,0.4098426,-1.829052,0.6549203,-0.02008998
400.9112,0.04454166,-0.3339505,0.4103628,-1.83403,0.6490564,-0.02008935
400.9256,0.04454622,-0.3338684,0.4109411,-1.838929,0.6433232,-0.0200888
400.9392,0.04454622,-0.3338684,0.4109411,-1.838929,0.6433232,-0.0200888
400.9532,0.04455072,-0.3337873,0.4115402,-1.843752,0.6377093,-0.02008827
400.9678,0.04455515,-0.3337072,0.4117169,-1.84849,0.6296052,-0.02008729
400.9824,0.04455953,-0.333628,0.4120428,-1.853142,0.6216784,-0.02008641
400.9969,0.04455953,-0.333628,0.4120428,-1.853142,0.6216784,-0.02008641
401.0111,0.04456386,-0.3335498,0.4124351,-1.85772,0.6139255,-0.02008562
401.0266,0.04456813,-0.3334725,0.4128543,-1.862227,0.6063329,-0.02008485
401.0423,0.04457234,-0.3333962,0.4128217,-1.866652,0.596285,-0.02008363
401.0558,0.04457234,-0.3333962,0.4128217,-1.866652,0.596285,-0.02008363
401.0696,0.0445765,-0.3333208,0.4129554,-1.870994,0.5864488,-0.02008249
401.0852,0.04458061,-0.3332463,0.4131672,-1.875267,0.5768278,-0.02008145
401.0998,0.04458061,-0.3332463,0.4131672,-1.875267,0.5768278,-0.02008145
401.1141,0.04458465,-0.3331727,0.4129283,-1.879462,0.5647961,-0.02008
401.1291,0.04458865,-0.3331,0.4128782,-1.883577,0.5530139,-0.02007861
401.1453,0.0445926,-0.3330281,0.4129198,-1.887627,0.5414895,-0.02007734
401.1595,0.0445926,-0.3330281,0.4129198,-1.887627,0.5414895,-0.02007734
401.1756,0.0445965,-0.3329571,0.413004,-1.891613,0.5302036,-0.02007611
401.1904,0.04460034,-0.332887,0.4125943,-1.895528,0.5165348,-0.02007446
401.2043,0.04460413,-0.3328177,0.4123804,-1.899365,0.5031387,-0.02007285
401.218,0.04460413,-0.3328177,0.4123804,-1.899365,0.5031387,-0.02007285
401.2321,0.04460788,-0.3327493,0.4122661,-1.903141,0.4900351,-0.02007136
401.2474,0.04461158,-0.3326816,0.4122003,-1.906858,0.4772032,-0.02006993
401.2621,0.04461522,-0.3326148,0.4116178,-1.910509,0.4620208,-0.02006811
401.277,0.04461522,-0.3326148,0.4116178,-1.910509,0.4620208,-0.02006811
401.2909,0.04461882,-0.3325488,0.4112456,-1.914087,0.4471336,-0.02006631
401.3062,0.04462238,-0.3324836,0.4109841,-1.917607,0.4325722,-0.02006465
401.3207,0.04462589,-0.3324191,0.4107783,-1.921074,0.4183137,-0.02006307
401.3355,0.04462589,-0.3324191,0.4107783,-1.921074,0.4183137,-0.02006307
401.3496,0.04462934,-0.3323554,0.410036,-1.92448,0.4017367,-0.02006115
401.3652,0.04463276,-0.3322925,0.4095172,-1.927818,0.3854741,-0.02005924
401.3795,0.04463276,-0.3322925,0.4095172,-1.927818,0.3854741,-0.02005924
401.3936,0.04463613,-0.3322304,0.4091201,-1.931103,0.3695684,-0.02005747
401.4089,0.04463945,-0.332169,0.4082002,-1.934334,0.3513897,-0.02005548
401.4234,0.04464272,-0.3321083,0.4075257,-1.937499,0.3335544,-0.0200535
401.4378,0.04464272,-0.3321083,0.4075257,-1.937499,0.3335544,-0.0200535
401.454,0.04464596,-0.3320484,0.4069869,-1.940616,0.3161118,-0.02005168
401.4683,0.04464916,-0.3319891,0.4065189,-1.943689,0.2990341,-0.02004997
401.4822,0.04465231,-0.3319306,0.4054857,-1.946715,0.2797032,-0.02004808
401.4967,0.04465231,-0.3319306,0.4054857,-1.946715,0.2797032,-0.02004808
401.5108,0.04465541,-0.3318728,0.4046977,-1.94968,0.2607255,-0.02004619
401.526,0.04465848,-0.3318157,0.4040506,-1.952601,0.242165,-0.02004448
401.5404,0.04466151,-0.3317593,0.4034782,-1.955482,0.223993,-0.02004289
401.5553,0.04466151,-0.3317593,0.4034782,-1.955482,0.223993,-0.02004289
401.5692,0.04466453,-0.3317035,0.4044065,-1.958326,0.2122023,-0.0200418
401.5846,0.04466751,-0.3316483,0.4048559,-1.961161,0.2007572,-0.02004094
401.5993,0.04466751,-0.3316483,0.4048559,-1.961161,0.2007572,-0.02004094
401.6133,0.04467045,-0.3315938,0.4050498,-1.96396,0.1894494,-0.02003993
401.6286,0.04467335,-0.33154,0.4051388,-1.966716,0.1783239,-0.02003887
401.6431,0.04467621,-0.3314869,0.405189,-1.969427,0.1674019,-0.02003781
401.6577,0.04467621,-0.3314869,0.405189,-1.969427,0.1674019,-0.02003781
401.6718,0.04467903,-0.3314343,0.4052282,-1.972097,0.1566905,-0.02003679
401.687,0.04468182,-0.3313824,0.4052682,-1.974725,0.1461902,-0.02003579
401.7017,0.04468461,-0.3313311,0.4039474,-1.968129,0.1352718,-0.0350344
401.7163,0.04468461,-0.3313311,0.4039474,-1.968129,0.1352718,-0.0350344
401.7303,0.0446874,-0.3312805,0.4033592,-1.964701,0.1248795,-0.04973909
401.7466,0.04469016,-0.3312305,0.4030897,-1.962856,0.1148426,-0.06415553
401.7612,0.04469289,-0.331181,0.4029704,-1.961818,0.1050807,-0.07828936
401.7749,0.04469289,-0.331181,0.4029704,-1.961818,0.1050807,-0.07828936
401.7888,0.04469557,-0.3311321,0.403151,-1.963253,0.09565459,-0.08882064
401.8041,0.04469821,-0.3310839,0.4032663,-1.964213,0.08639929,-0.09914545
401.8186,0.04469821,-0.3310839,0.4032663,-1.964213,0.08639929,-0.09914545
401.8326,0.04470082,-0.3310362,0.4033737,-1.964959,0.07733097,-0.1092678
401.8482,0.04470338,-0.330989,0.4036558,-1.967678,0.06852624,-0.1158585
401.8628,0.04470591,-0.3309424,0.4038645,-1.969653,0.05987348,-0.1223199
401.8773,0.04470591,-0.3309424,0.4038645,-1.969653,0.05987348,-0.1223199
401.8914,0.0447084,-0.3308964,0.404056,-1.971271,0.05138928,-0.1286547
401.9067,0.04471086,-0.3308509,0.4042524,-1.97272,0.04308013,-0.1348653
401.9216,0.04471327,-0.330806,0.4045506,-1.976151,0.03498308,-0.1376208
401.9361,0.04471327,-0.330806,0.4045506,-1.976151,0.03498308,-0.1376208
401.9499,0.04471566,-0.3307616,0.4047996,-1.978827,0.02703092,-0.1403223
401.9653,0.04471801,-0.3307177,0.4050356,-1.981125,0.01923253,-0.1429709
401.98,0.04472033,-0.3306744,0.4052729,-1.983232,0.01159095,-0.1455675
401.9948,0.04472033,-0.3306744,0.4052729,-1.983232,0.01159095,-0.1455675
402.0084,0.04472261,-0.3306315,0.4055399,-1.9873,0.004110278,-0.1447799
402.0259,0.04472486,-0.3305892,0.40578,-1.990585,-0.003231944,-0.1440078
402.0393,0.04472486,-0.3305892,0.40578,-1.990585,-0.003231944,-0.1440078
402.0535,0.04472707,-0.3305474,0.4060128,-1.993468,-0.01043259,-0.1432509
402.0681,0.04472925,-0.3305061,0.4062231,-1.998197,-0.01751,-0.1391755
402.0824,0.04473139,-0.3304653,0.4064221,-2.002076,-0.02445325,-0.13518
402.097,0.04473139,-0.3304653,0.4064221,-2.002076,-0.02445325,-0.13518
402.1111,0.0447335,-0.3304249,0.4066184,-2.005508,-0.03126291,-0.1312629
402.1264,0.04473559,-0.3303851,0.4068145,-2.008692,-0.03794112,-0.1274227
402.1411,0.04473763,-0.3303457,0.4069296,-2.013784,-0.04453991,-0.1203244
402.156,0.04473763,-0.3303457,0.4069296,-2.013784,-0.04453991,-0.1203244
402.1697,0.04473965,-0.3303068,0.4070577,-2.018046,-0.05100564,-0.1133653
402.1853,0.04474163,-0.3302684,0.4071921,-2.021862,-0.05734418,-0.1065428
402.1996,0.04474163,-0.3302684,0.4071921,-2.021862,-0.05734418,-0.1065428
402.2138,0.04474358,-0.3302304,0.4072055,-2.027478,-0.06363363,-0.09652067
402.2292,0.0447455,-0.3301929,0.4072507,-2.032202,-0.06978872,-0.08669512
402.2437,0.04474738,-0.3301559,0.4073099,-2.036441,-0.07581978,-0.07706225
402.2581,0.04474738,-0.3301559,0.4073099,-2.036441,-0.07581978,-0.07706225
402.272,0.04474924,-0.3301193,0.4073741,-2.040392,-0.08173438,-0.06761827
402.2875,0.04475106,-0.3300831,0.407262,-2.046208,-0.08764179,-0.05502621
402.3041,0.04475285,-0.3300474,0.4072051,-2.051159,-0.09341169,-0.04268109
402.3179,0.04475285,-0.3300474,0.4072051,-2.051159,-0.09341169,-0.04268109
402.3318,0.04475462,-0.3300121,0.4071725,-2.055629,-0.09905962,-0.03057803
402.3463,0.04475636,-0.3299772,0.4071499,-2.059806,-0.104596,-0.01871229
402.3607,0.04475806,-0.3299428,0.4069015,-2.065834,-0.1101635,-0.003745992
402.3753,0.04475806,-0.3299428,0.4069015,-2.065834,-0.1101635,-0.003745992
402.3892,0.04475974,-0.3299087,0.4067331,-2.070986,-0.1155869,0.01092687
402.4046,0.04476138,-0.3298751,0.4066007,-2.075645,-0.1208882,0.025312
402.4193,0.04476138,-0.3298751,0.4066007,-2.075645,-0.1208882,0.025312
402.4334,0.044763,-0.3298419,0.4064207,-2.080484,-0.1261192,0.04020717
402.4486,0.0447646,-0.3298091,0.406271,-2.08494,-0.1312361,0.05481028
402.4634,0.04476617,-0.3297766,0.406136,-2.089143,-0.1362485,0.06912705
402.4779,0.04476617,-0.3297766,0.406136,-2.089143,-0.1362485,0.06912705
402.4919,0.04476771,-0.3297446,0.4060089,-2.093158,-0.1411621,0.0831631
402.5073,0.04476923,-0.329713,0.4058873,-2.097021,-0.1459797,0.09692393
402.5219,0.04477074,-0.3296818,0.4057705,-2.100749,-0.1507035,0.110415
402.5364,0.04477074,-0.3296818,0.4057705,-2.100749,-0.1507035,0.110415
402.5504,0.04477222,-0.3296509,0.4056588,-2.104351,-0.1553349,0.1236414
402.566,0.04477367,-0.3296204,0.4055523,-2.107835,-0.159875,0.1366086
402.5825,0.04477511,-0.3295903,0.4055375,-2.110722,-0.164272,0.1485294
402.5961,0.04477511,-0.3295903,0.4055375,-2.110722,-0.164272,0.1485294
402.6099,0.04477653,-0.3295605,0.4054965,-2.113668,-0.1685983,0.1602164
402.6245,0.04477792,-0.3295311,0.4054479,-2.116594,-0.172846,0.1716743
402.639,0.04477792,-0.3295311,0.4054479,-2.116594,-0.172846,0.1716743
402.6531,0.0447793,-0.3295021,0.4057919,-2.117427,-0.1767671,0.1795743
402.6684,0.04478068,-0.3294734,0.4059896,-2.1189,-0.1806914,0.1873193
402.6829,0.04478203,-0.3294451,0.4061272,-2.120649,-0.1845749,0.1949125
402.6977,0.04478203,-0.3294451,0.4061272,-2.120649,-0.1845749,0.1949125
402.7118,0.04478336,-0.3294171,0.4062431,-2.1225,-0.1883966,0.2023568
402.7273,0.04478469,-0.3293894,0.4067815,-2.122341,-0.1918802,0.2063219
402.7418,0.044786,-0.3293621,0.4071537,-2.122873,-0.1953861,0.2102092
402.7567,0.044786,-0.3293621,0.4071537,-2.122873,-0.1953861,0.2102092
402.7702,0.0447873,-0.3293351,0.4074565,-2.123722,-0.198864,0.2140203
402.7858,0.04478857,-0.3293084,0.4077326,-2.124708,-0.2022901,0.2177567
402.8005,0.04478984,-0.3292821,0.4084595,-2.123721,-0.2053677,0.2180865
402.815,0.04478984,-0.3292821,0.4084595,-2.123721,-0.2053677,0.2180865
402.829,0.0447911,-0.3292561,0.4090027,-2.123453,-0.2084844,0.2184098
402.8444,0.04479235,-0.3292303,0.4094675,-2.123531,-0.2115853,0.2187268
402.861,0.04479358,-0.3292049,0.4098998,-2.123773,-0.2146445,0.2190376
402.8746,0.04479358,-0.3292049,0.4098998,-2.123773,-0.2146445,0.2190376
402.8885,0.0447948,-0.3291798,0.4108061,-2.122074,-0.2173481,0.2160091
402.9028,0.04479602,-0.329155,0.4115123,-2.121117,-0.2201066,0.2130398
402.9174,0.04479602,-0.329155,0.4115123,-2.121117,-0.2201066,0.2130398
402.9314,0.04479722,-0.3291305,0.4121308,-2.120531,-0.2228609,0.2101289
402.9467,0.04479842,-0.3291063,0.413215,-2.118119,-0.2252714,0.2039417
402.9613,0.04479961,-0.3290824,0.4140776,-2.116516,-0.2277547,0.1978758
402.976,0.04479961,-0.3290824,0.4140776,-2.116516,-0.2277547,0.1978758
402.99,0.04480079,-0.3290588,0.4148411,-2.115325,-0.2302459,0.1919289
403.0053,0.04480195,-0.3290354,0.4155589,-2.114355,-0.232714,0.1860986
403.0201,0.04480312,-0.3290123,0.4167784,-2.111502,-0.2348237,0.1770493
403.0347,0.04480312,-0.3290123,0.4167784,-2.111502,-0.2348237,0.1770493
403.0486,0.04480427,-0.3289895,0.4177708,-2.109435,-0.2370131,0.1681775
403.0639,0.04480541,-0.328967,0.418659,-2.10778,-0.2392175,0.1594796
403.0784,0.04480541,-0.328967,0.418659,-2.10778,-0.2392175,0.1594796
403.0926,0.04480656,-0.3289447,0.4200341,-2.10435,-0.2410793,0.1476191
403.1075,0.04480769,-0.3289227,0.4211619,-2.101765,-0.2430363,0.1359911
403.1224,0.04480882,-0.328901,0.4221743,-2.099632,-0.2450192,0.1245911
403.1368,0.04480882,-0.328901,0.4221743,-2.099632,-0.2450192,0.1245911
403.1528,0.04480994,-0.3288795,0.423129,-2.097757,-0.2469943,0.1134146
403.1692,0.04481106,-0.3288583,0.4246022,-2.094043,-0.2486147,0.09912413
403.1808,0.04481217,-0.3288373,0.425826,-2.091148,-0.250333,0.08511379
403.1956,0.04481217,-0.3288373,0.425826,-2.091148,-0.250333,0.08511379
403.2093,0.04481327,-0.3288166,0.4269306,-2.0887,-0.2520824,0.07137815
403.2245,0.04481436,-0.3287961,0.4279733,-2.086516,-0.2538295,0.05791184
403.2405,0.04408751,-0.3287782,0.4271847,-2.09111,-0.2566808,0.05638348
403.2543,0.04408751,-0.3287782,0.4271847,-2.09111,-0.2566808,0.05638348
403.2682,0.04290574,-0.3287616,0.427221,-2.093256,-0.2590431,0.05488529
403.2834,0.04144274,-0.3287455,0.4275938,-2.094261,-0.2611501,0.05341658
403.2983,0.04144274,-0.3287455,0.4275938,-2.094261,-0.2611501,0.05341658
403.3122,0.03980896,-0.3287296,0.4280902,-2.094745,-0.2631269,0.05197668
403.3276,0.03807458,-0.3287137,0.4286244,-2.094998,-0.265029,0.05056501
403.342,0.03628417,-0.3286979,0.429164,-2.095157,-0.2668802,0.04918101
403.357,0.03628417,-0.3286979,0.429164,-2.095157,-0.2668802,0.04918101
403.3707,0.03446603,-0.3286819,0.4296979,-2.095283,-0.2686903,0.04782414
403.386,0.03263805,-0.3286661,0.4302231,-2.095401,-0.2704635,0.04649387
403.4007,0.03081154,-0.3286502,0.4307394,-2.095523,-0.2722015,0.04518968
403.4151,0.03081154,-0.3286502,0.4307394,-2.095523,-0.2722015,0.04518968
403.4315,0.0289936,-0.3286345,0.4312474,-2.095654,-0.2739053,0.04391106
403.4455,0.02718867,-0.3286188,0.4317477,-2.095794,-0.2755756,0.04265751
403.459,0.02718867,-0.3286188,0.4317477,-2.095794,-0.2755756,0.04265751
403.4732,0.02539947,-0.3286033,0.432241,-2.095943,-0.2772128,0.04142854
403.4884,0.02362767,-0.3285879,0.4327276,-2.096101,-0.2788174,0.04022366
403.5031,0.02187423,-0.3285726,0.4332079,-2.096267,-0.2803902,0.03904241
403.5176,0.02187423,-0.3285726,0.4332079,-2.096267,-0.2803902,0.03904241
403.5379,0.02013969,-0.3285575,0.4336821,-2.096441,-0.2819316,0.03788432
403.548,0.0184243,-0.3285426,0.4341502,-2.096622,-0.2834422,0.03674895
403.563,0.01672813,-0.3285277,0.4346125,-2.09681,-0.2849227,0.03563583
403.5778,0.01672813,-0.3285277,0.4346125,-2.09681,-0.2849227,0.03563583
403.5919,0.01505117,-0.3285131,0.4350691,-2.097005,-0.2863735,0.03454455
403.6073,0.01339331,-0.3284986,0.4355198,-2.097205,-0.2877954,0.03347466
403.6222,0.0117544,-0.3284842,0.435965,-2.097412,-0.2891889,0.03242575
403.6366,0.0117544,-0.3284842,0.435965,-2.097412,-0.2891889,0.03242575
403.6509,0.01013429,-0.32847,0.4364045,-2.097624,-0.2905545,0.03139741
403.6663,0.008532781,-0.3284559,0.4368385,-2.097841,-0.2918929,0.03038923
403.6831,0.006949683,-0.328442,0.4372669,-2.098064,-0.2932045,0.02940082
403.6967,0.006949683,-0.328442,0.4372669,-2.098064,-0.2932045,0.02940082
403.7095,0.005384796,-0.3284282,0.43769,-2.098291,-0.2944899,0.0284318
403.725,0.003837919,-0.3284146,0.4381076,-2.098523,-0.2957497,0.02748177
