JMolnar6/NonAnthroHands_User_Study/HandsLoggerWithURDF/tempdata/files/Reachy_JointMotion_gesture_3_12.csv
Time,r_shoulder,r_shoulder_x,r_upper_arm,r_forearm,r_wrist,r_wrist2hand,
296.1269,0.04502218,0.0005916854,NaN,-0.3270719,0.0003377558,NaN,0.3098319,-14.16078,NaN,-2.146974,-1.460591,-0.3561052,14.15447,NaN,NaN,-0.020001,0.8054951,-1.15143E-07,1.021675,4.55E-10,1.459262
296.1425,0.0450221,0.0005911714,NaN,-0.3270716,0.0003376597,NaN,0.3103801,-14.16009,NaN,-2.147053,-1.457462,-0.3570306,14.15112,NaN,NaN,-0.02000374,0.8062104,-1.591014E-07,1.017161,4.55E-10,1.454924
296.1567,0.0450221,0.0005911714,NaN,-0.3270716,0.0003376597,NaN,0.3103801,-14.16009,NaN,-2.147053,-1.457462,-0.3570306,14.15112,NaN,NaN,-0.02000374,0.8062104,-1.591014E-07,1.017161,4.55E-10,1.454924
296.171,0.04502203,0.0005910554,NaN,-0.3270714,0.0003372248,NaN,0.3117642,-14.16174,NaN,-2.147154,-1.467226,-0.3578044,14.16145,NaN,NaN,-0.02000599,0.8044031,-1.944544E-07,1.031221,4.031278E-09,1.46821
296.1869,0.04502196,0.0005909231,NaN,-0.3270711,0.0003365399,NaN,0.3135917,-14.16094,NaN,-2.147245,-1.468313,-0.3583658,14.16248,NaN,NaN,-0.02000761,0.8051401,-2.194138E-07,1.032798,2.839186E-09,1.46119
296.2019,0.04502189,0.0005905402,NaN,-0.3270708,0.0003364046,NaN,0.3156115,-14.16067,NaN,-2.147323,-1.457518,-0.3588016,14.1512,NaN,NaN,-0.02000887,0.8056319,-2.395397E-07,1.017213,1.647093E-09,1.459911
296.2169,0.04502189,0.0005905402,NaN,-0.3270708,0.0003364046,NaN,0.3156115,-14.16067,NaN,-2.147323,-1.457518,-0.3588016,14.1512,NaN,NaN,-0.02000887,0.8056319,-2.395397E-07,1.017213,1.647093E-09,1.459911
296.2311,0.04502182,0.0005897536,NaN,-0.3270706,0.0003361392,NaN,0.3169546,-14.1608,NaN,-2.147309,-1.457009,-0.3582651,14.15067,NaN,NaN,-0.02000724,0.8054602,-2.123451E-07,1.016465,2.839186E-09,1.458501
296.2467,0.04502175,0.000589056,NaN,-0.3270703,0.0003356353,NaN,0.3174777,-14.16144,NaN,-2.147266,-1.463697,-0.3578439,14.15768,NaN,NaN,-0.020006,0.8046991,-1.932157E-07,1.026099,5.223371E-09,1.463635
296.2616,0.04502169,0.0005882682,NaN,-0.32707,0.0003355617,NaN,0.3175485,-14.1601,NaN,-2.147227,-1.456396,-0.3576134,14.14996,NaN,NaN,-0.02000533,0.8061522,-1.844613E-07,1.0156,6.415464E-09,1.454498
296.2766,0.04502169,0.0005882682,NaN,-0.32707,0.0003355617,NaN,0.3175485,-14.1601,NaN,-2.147227,-1.456396,-0.3576134,14.14996,NaN,NaN,-0.02000533,0.8061522,-1.844613E-07,1.0156,6.415464E-09,1.454498
296.2924,0.04502162,0.0005874517,NaN,-0.3270698,0.0003348274,NaN,0.316662,-14.16073,NaN,-2.147118,-1.467483,-0.3565869,14.16157,NaN,NaN,-0.02000229,0.8053525,-1.364796E-07,1.031597,4.031278E-09,1.45945
296.3065,0.04502156,0.0005872325,NaN,-0.3270695,0.0003341932,NaN,0.3148504,-14.16142,NaN,-2.147,-1.468989,-0.3557652,14.16317,NaN,NaN,-0.0199999,0.8045958,-9.758753E-08,1.033737,2.839185E-09,1.468198
296.3214,0.0450215,0.0005862571,NaN,-0.3270692,0.0003324641,NaN,0.3125601,-14.16047,NaN,-2.146897,-1.457327,-0.3551809,14.15096,NaN,NaN,-0.01999821,0.805805,-7.121248E-08,1.016948,4.031278E-09,1.458351
296.3363,0.0450215,0.0005862571,NaN,-0.3270692,0.0003324641,NaN,0.3125601,-14.16047,NaN,-2.146897,-1.457327,-0.3551809,14.15096,NaN,NaN,-0.01999821,0.805805,-7.121248E-08,1.016948,4.031278E-09,1.458351
296.3506,0.04502143,0.0005863341,NaN,-0.327069,0.0003321093,NaN,0.3100661,-14.16078,NaN,-2.146812,-1.459531,-0.3547338,14.15328,NaN,NaN,-0.01999693,0.8054478,-5.005283E-08,1.020118,5.223371E-09,1.462038
296.3662,0.04502137,0.0005860461,NaN,-0.3270687,0.0003319299,NaN,0.3067554,-14.16002,NaN,-2.146663,-1.457018,-0.3534516,14.15058,NaN,NaN,-0.01999316,0.806216,9.402807E-09,1.016504,9.991743E-09,1.455758
296.3812,0.04502131,0.0005862498,NaN,-0.3270684,0.0003315808,NaN,0.3026013,-14.16116,NaN,-2.146505,-1.466757,-0.3523603,14.16084,NaN,NaN,-0.01999,0.8049454,6.051378E-08,1.030547,9.991743E-09,1.465906
296.3963,0.04502131,0.0005862498,NaN,-0.3270684,0.0003315808,NaN,0.3026013,-14.16116,NaN,-2.146505,-1.466757,-0.3523603,14.16084,NaN,NaN,-0.01999,0.8049454,6.051378E-08,1.030547,9.991743E-09,1.465906
296.4105,0.04502125,0.0005863191,NaN,-0.3270682,0.0003314177,NaN,0.2980226,-14.16047,NaN,-2.146363,-1.462913,-0.3515055,14.15677,NaN,NaN,-0.01998754,0.8056855,1.000019E-07,1.025014,8.79965E-09,1.460327
296.4263,0.04502119,0.0005864942,NaN,-0.3270679,0.0003310464,NaN,0.2932816,-14.16136,NaN,-2.14624,-1.467567,-0.3507933,14.16167,NaN,NaN,-0.01998549,0.8046905,1.321884E-07,1.031699,7.607557E-09,1.465486
296.4412,0.04502114,0.000587301,NaN,-0.3270676,0.0003320004,NaN,0.2877578,-14.16056,NaN,-2.146053,-1.457101,-0.3492537,14.15071,NaN,NaN,-0.019981,0.8057134,2.069922E-07,1.016622,4.031278E-09,1.461822
296.4562,0.04502114,0.000587301,NaN,-0.3270676,0.0003320004,NaN,0.2877578,-14.16056,NaN,-2.146053,-1.457101,-0.3492537,14.15071,NaN,NaN,-0.019981,0.8057134,2.069922E-07,1.016622,4.031278E-09,1.461822
296.4705,0.04502108,0.0005874028,NaN,-0.3270673,0.0003324376,NaN,0.2814224,-14.16007,NaN,-2.14586,-1.455067,-0.3479152,14.14853,NaN,NaN,-0.01997715,0.8062036,2.68385E-07,1.013686,8.79965E-09,1.454202
296.4861,0.04502102,0.0005868438,NaN,-0.3270671,0.0003325096,NaN,0.2746937,-14.16008,NaN,-2.145684,-1.45666,-0.3468228,14.15018,NaN,NaN,-0.01997402,0.8061523,3.212841E-07,1.015979,7.607557E-09,1.455081
296.5008,0.04502096,0.0005860431,NaN,-0.3270668,0.0003327537,NaN,0.2678333,-14.16003,NaN,-2.145529,-1.45423,-0.3458823,14.14762,NaN,NaN,-0.01997133,0.8062128,3.659875E-07,1.012464,2.839186E-09,1.45334
296.516,0.04502096,0.0005860431,NaN,-0.3270668,0.0003327537,NaN,0.2678333,-14.16003,NaN,-2.145529,-1.45423,-0.3458823,14.14762,NaN,NaN,-0.01997133,0.8062128,3.659875E-07,1.012464,2.839186E-09,1.45334
296.53,0.0450209,0.0005859401,NaN,-0.3270665,0.0003325883,NaN,0.260218,-14.16051,NaN,-2.145311,-1.464922,-0.3441233,14.15881,NaN,NaN,-0.01996625,0.8055975,4.503281E-07,1.027895,-7.370928E-10,1.460984
296.5457,0.04502085,0.0005861231,NaN,-0.3270663,0.0003331099,NaN,0.2518197,-14.1599,NaN,-2.14509,-1.456953,-0.3425758,14.15043,NaN,NaN,-0.01996183,0.8063377,5.218537E-07,1.016394,-7.370928E-10,1.454393
296.5606,0.04502079,0.0005861484,NaN,-0.327066,0.0003336726,NaN,0.2430571,-14.16026,NaN,-2.144889,-1.453892,-0.3412834,14.14725,NaN,NaN,-0.01995816,0.8059757,5.833955E-07,1.01195,2.839186E-09,1.454725
296.5757,0.04502079,0.0005861484,NaN,-0.327066,0.0003336726,NaN,0.2430571,-14.16026,NaN,-2.144889,-1.453892,-0.3412834,14.14725,NaN,NaN,-0.01995816,0.8059757,5.833955E-07,1.01195,2.839186E-09,1.454725
296.5901,0.04502074,0.0005859115,NaN,-0.3270658,0.000334133,NaN,0.2334392,-14.16042,NaN,-2.144631,-1.453001,-0.3392437,14.14632,NaN,NaN,-0.01995234,0.8057822,6.811471E-07,1.010646,1.647093E-09,1.454762
296.6057,0.04502069,0.0005849128,NaN,-0.3270655,0.0003332032,NaN,0.2230087,-14.16104,NaN,-2.144376,-1.464038,-0.3374568,14.15786,NaN,NaN,-0.01994729,0.8050421,7.665308E-07,1.026566,4.031278E-09,1.465416
296.6208,0.04502064,0.0005851733,NaN,-0.3270653,0.0003339289,NaN,0.2122178,-14.16043,NaN,-2.144144,-1.455153,-0.3359484,14.14855,NaN,NaN,-0.01994305,0.8058052,8.390994E-07,1.013757,2.839186E-09,1.456468
296.6356,0.04502064,0.0005851733,NaN,-0.3270653,0.0003339289,NaN,0.2122178,-14.16043,NaN,-2.144144,-1.455153,-0.3359484,14.14855,NaN,NaN,-0.01994305,0.8058052,8.390994E-07,1.013757,2.839186E-09,1.456468
296.6499,0.04502058,0.0005846342,NaN,-0.3270651,0.0003337437,NaN,0.201342,-14.16097,NaN,-2.143936,-1.460178,-0.3346152,14.15383,NaN,NaN,-0.01993932,0.8051841,9.007902E-07,1.020997,-3.121279E-09,1.461109
296.6656,0.04502053,0.0005838891,NaN,-0.3270648,0.0003338951,NaN,0.1897589,-14.1603,NaN,-2.143671,-1.454848,-0.3324822,14.14821,NaN,NaN,-0.0199333,0.8059231,1.004949E-06,1.013317,-1.929186E-09,1.454917
296.6803,0.04502048,0.0005836317,NaN,-0.3270645,0.0003336148,NaN,0.1774445,-14.16128,NaN,-2.143407,-1.465883,-0.330581,14.1598,NaN,NaN,-0.019928,0.804812,1.098231E-06,1.029233,4.031278E-09,1.465419
296.6964,0.04502048,0.0005836317,NaN,-0.3270645,0.0003336148,NaN,0.1774445,-14.16128,NaN,-2.143407,-1.465883,-0.330581,14.1598,NaN,NaN,-0.019928,0.804812,1.098231E-06,1.029233,4.031278E-09,1.465419
296.7095,0.04502042,0.0005836886,NaN,-0.3270643,0.0003340563,NaN,0.1648204,-14.1604,NaN,-2.143165,-1.45833,-0.3289519,14.15186,NaN,NaN,-0.01992349,0.8058289,1.176313E-06,1.018355,4.031278E-09,1.45593
296.7251,0.04502037,0.000583787,NaN,-0.3270641,0.0003339664,NaN,0.1521481,-14.162,NaN,-2.142946,-1.46584,-0.3274986,14.15982,NaN,NaN,-0.01991947,0.8041106,1.245454E-06,1.029157,5.223371E-09,1.469822
296.7403,0.04502032,0.0005837119,NaN,-0.3270638,0.0003343724,NaN,0.1387958,-14.16022,NaN,-2.142671,-1.456652,-0.3252487,14.15011,NaN,NaN,-0.01991322,0.8060576,1.357064E-06,1.01596,6.415464E-09,1.455972
296.7563,0.04502032,0.0005837119,NaN,-0.3270638,0.0003343724,NaN,0.1387958,-14.16022,NaN,-2.142671,-1.456652,-0.3252487,14.15011,NaN,NaN,-0.01991322,0.8060576,1.357064E-06,1.01596,6.415464E-09,1.455972
296.7694,0.04502027,0.0005841653,NaN,-0.3270636,0.000334255,NaN,0.1247379,-14.16095,NaN,-2.142399,-1.467409,-0.3232377,14.16138,NaN,NaN,-0.0199077,0.8051803,1.454815E-06,1.031471,4.031278E-09,1.46484
296.7853,0.04502023,0.0005845308,NaN,-0.3270634,0.0003348495,NaN,0.1103962,-14.16032,NaN,-2.14215,-1.456894,-0.3215047,14.15037,NaN,NaN,-0.01990298,0.806033,1.537815E-06,1.01631,5.223371E-09,1.456076
296.7999,0.04502023,0.0005845308,NaN,-0.3270634,0.0003348495,NaN,0.1103962,-14.16032,NaN,-2.14215,-1.456894,-0.3215047,14.15037,NaN,NaN,-0.01990298,0.806033,1.537815E-06,1.01631,5.223371E-09,1.456076
296.8144,0.04502018,0.0005851681,NaN,-0.3270631,0.0003348496,NaN,0.09527135,-14.16082,NaN,-2.14185,-1.465821,-0.3190441,14.1597,NaN,NaN,-0.01989624,0.805409,1.656875E-06,1.029184,9.991743E-09,1.464099
296.83,0.04502013,0.0005855775,NaN,-0.3270629,0.0003352695,NaN,0.07940884,-14.1609,NaN,-2.141559,-1.458178,-0.3168617,14.15173,NaN,NaN,-0.01989034,0.8054674,1.76312E-06,1.018134,1.237593E-08,1.460094
296.8449,0.04502008,0.0005860656,NaN,-0.3270626,0.0003353052,NaN,0.06326373,-14.16204,NaN,-2.141294,-1.46507,-0.3149785,14.15899,NaN,NaN,-0.01988528,0.8042074,1.853272E-06,1.028044,9.991743E-09,1.468949
296.8598,0.04502008,0.0005860656,NaN,-0.3270626,0.0003353052,NaN,0.06326373,-14.16204,NaN,-2.141294,-1.46507,-0.3149785,14.15899,NaN,NaN,-0.01988528,0.8042074,1.853272E-06,1.028044,9.991743E-09,1.468949
296.8742,0.04502003,0.000586007,NaN,-0.3270624,0.0003355915,NaN,0.0471108,-14.16046,NaN,-2.141054,-1.456131,-0.3132896,14.14955,NaN,NaN,-0.01988078,0.8059462,1.936719E-06,1.015196,8.79965E-09,1.456992
296.8898,0.04501999,0.0005863367,NaN,-0.3270622,0.0003354007,NaN,0.03031795,-14.16154,NaN,-2.140763,-1.467293,-0.310818,14.16127,NaN,NaN,-0.01987415,0.8047204,2.059355E-06,1.031287,1.237593E-08,1.468576
296.9049,0.04501994,0.0005864392,NaN,-0.3270619,0.0003356547,NaN,0.01286432,-14.16108,NaN,-2.140478,-1.458463,-0.3086019,14.15204,NaN,NaN,-0.01986828,0.805364,2.166942E-06,1.018559,1.476011E-08,1.461145
296.9196,0.04501994,0.0005864392,NaN,-0.3270619,0.0003356547,NaN,0.01286432,-14.16108,NaN,-2.140478,-1.458463,-0.3086019,14.15204,NaN,NaN,-0.01986828,0.805364,2.166942E-06,1.018559,1.476011E-08,1.461145
296.9337,0.0450199,0.0005862445,NaN,-0.3270617,0.0003359014,NaN,-0.004825052,-14.16049,NaN,-2.140218,-1.457289,-0.3066764,14.15074,NaN,NaN,-0.01986323,0.8059535,2.259478E-06,1.016867,1.833639E-08,1.456458
296.9495,0.04501985,0.0005857151,NaN,-0.3270614,0.0003360068,NaN,-0.02248937,-14.16091,NaN,-2.139982,-1.457534,-0.3049436,14.15103,NaN,NaN,-0.01985871,0.8055181,2.344862E-06,1.017205,1.595221E-08,1.459081
296.9644,0.04501981,0.0005849937,NaN,-0.3270612,0.0003361249,NaN,-0.04077031,-14.16065,NaN,-2.139695,-1.456249,-0.3024292,14.14965,NaN,NaN,-0.01985213,0.8057799,2.469734E-06,1.015351,1.237593E-08,1.457493
296.9793,0.04501981,0.0005849937,NaN,-0.3270612,0.0003361249,NaN,-0.04077031,-14.16065,NaN,-2.139695,-1.456249,-0.3024292,14.14965,NaN,NaN,-0.01985213,0.8057799,2.469734E-06,1.015351,1.237593E-08,1.457493
296.9937,0.04501976,0.0005843617,NaN,-0.327061,0.0003361895,NaN,-0.05968992,-14.16132,NaN,-2.139417,-1.459087,-0.3001752,14.15267,NaN,NaN,-0.0198463,0.8050625,2.580598E-06,1.019432,1.833639E-08,1.461739
297.0095,0.04501972,0.0005840679,NaN,-0.3270607,0.000335786,NaN,-0.07882295,-14.16131,NaN,-2.139163,-1.467189,-0.2982156,14.16108,NaN,NaN,-0.01984129,0.8049369,2.677456E-06,1.031117,1.833639E-08,1.463846
297.0244,0.04501967,0.0005840283,NaN,-0.3270605,0.0003356283,NaN,-0.0979092,-14.16218,NaN,-2.138932,-1.464005,-0.2964521,14.15782,NaN,NaN,-0.01983681,0.8041168,2.76269E-06,1.026484,1.356802E-08,1.468574
297.0393,0.04501967,0.0005840283,NaN,-0.3270605,0.0003356283,NaN,-0.0979092,-14.16218,NaN,-2.138932,-1.464005,-0.2964521,14.15782,NaN,NaN,-0.01983681,0.8041168,2.76269E-06,1.026484,1.356802E-08,1.468574
297.0536,0.04501963,0.0005838715,NaN,-0.3270603,0.0003359113,NaN,-0.1175941,-14.16063,NaN,-2.138653,-1.456684,-0.2939101,14.15007,NaN,NaN,-0.01983032,0.8057818,2.888009E-06,1.015967,7.607558E-09,1.458503
297.0693,0.04501959,0.0005840206,NaN,-0.32706,0.0003356889,NaN,-0.1378985,-14.16149,NaN,-2.138382,-1.466941,-0.291634,14.16082,NaN,NaN,-0.01982459,0.8047725,3.003344E-06,1.03075,5.223372E-09,1.466392
297.0843,0.04501954,0.0005846065,NaN,-0.3270598,0.0003364949,NaN,-0.1583957,-14.16105,NaN,-2.138137,-1.4565,-0.289656,14.1499,NaN,NaN,-0.01981967,0.8054304,3.101096E-06,1.015691,1.647094E-09,1.460094
297.0999,0.04501954,0.0005846065,NaN,-0.3270598,0.0003364949,NaN,-0.1583957,-14.16105,NaN,-2.138137,-1.4565,-0.289656,14.1499,NaN,NaN,-0.01981967,0.8054304,3.101096E-06,1.015691,1.647094E-09,1.460094
297.1145,0.0450195,0.0005848756,NaN,-0.3270595,0.0003363036,NaN,-0.1788263,-14.16134,NaN,-2.137915,-1.466382,-0.2878767,14.1602,NaN,NaN,-0.01981529,0.8049892,3.190503E-06,1.029939,2.839187E-09,1.461746
297.1288,0.04501945,0.0005843162,NaN,-0.3270593,0.0003361326,NaN,-0.1990669,-14.1609,NaN,-2.137713,-1.457151,-0.2862324,14.15054,NaN,NaN,-0.01981128,0.8055877,3.275141E-06,1.016625,4.031279E-09,1.46014
297.1437,0.04501941,0.0005839919,NaN,-0.3270591,0.0003358535,NaN,-0.2190643,-14.16234,NaN,-2.137527,-1.463832,-0.2846905,14.15762,NaN,NaN,-0.01980756,0.8040385,3.355459E-06,1.026232,7.607558E-09,1.468425
297.1587,0.04501941,0.0005839919,NaN,-0.3270591,0.0003358535,NaN,-0.2190643,-14.16234,NaN,-2.137527,-1.463832,-0.2846905,14.15762,NaN,NaN,-0.01980756,0.8040385,3.355459E-06,1.026232,7.607558E-09,1.468425
297.1731,0.04501936,0.0005840054,NaN,-0.3270588,0.000336346,NaN,-0.2387975,-14.16116,NaN,-2.137355,-1.456475,-0.2832351,14.14987,NaN,NaN,-0.01980408,0.8053216,3.433839E-06,1.015652,7.607558E-09,1.460442
297.189,0.04501932,0.0005836814,NaN,-0.3270586,0.0003361396,NaN,-0.2582594,-14.16206,NaN,-2.137194,-1.463467,-0.2818581,14.15722,NaN,NaN,-0.01980081,0.8043157,3.506556E-06,1.025717,5.223372E-09,1.466274
297.2039,0.04501927,0.0005839334,NaN,-0.3270583,0.0003367499,NaN,-0.2774494,-14.16174,NaN,-2.137045,-1.456386,-0.2805546,14.14982,NaN,NaN,-0.01979774,0.8047485,3.576443E-06,1.01551,5.223372E-09,1.46387
297.2203,0.04501923,0.0005835698,NaN,-0.3270581,0.000336705,NaN,-0.296369,-14.16157,NaN,-2.136907,-1.459811,-0.2793216,14.15335,NaN,NaN,-0.01979488,0.8048593,3.642902E-06,1.020446,1.647094E-09,1.463942
297.2337,0.04501923,0.0005835698,NaN,-0.3270581,0.000336705,NaN,-0.296369,-14.16157,NaN,-2.136907,-1.459811,-0.2793216,14.15335,NaN,NaN,-0.01979488,0.8048593,3.642902E-06,1.020446,1.647094E-09,1.463942
297.2479,0.04501918,0.000583517,NaN,-0.3270579,0.0003370603,NaN,-0.315021,-14.1623,NaN,-2.136778,-1.457942,-0.2781564,14.15146,NaN,NaN,-0.01979219,0.8041512,3.707275E-06,1.017727,-5.505464E-09,1.466439
297.2638,0.04501914,0.0005831056,NaN,-0.3270576,0.0003373819,NaN,-0.3334085,-14.16154,NaN,-2.136659,-1.454667,-0.2770569,14.14797,NaN,NaN,-0.01978968,0.8049435,3.763899E-06,1.013018,-3.121278E-09,1.460111
297.2785,0.04501914,0.0005831056,NaN,-0.3270576,0.0003373819,NaN,-0.3334085,-14.16154,NaN,-2.136659,-1.454667,-0.2770569,14.14797,NaN,NaN,-0.01978968,0.8049435,3.763899E-06,1.013018,-3.121278E-09,1.460111
297.293,0.04501909,0.0005824331,NaN,-0.3270574,0.0003376948,NaN,-0.3515351,-14.16136,NaN,-2.136549,-1.45356,-0.2760209,14.1468,NaN,NaN,-0.01978734,0.8051189,3.816053E-06,1.011419,4.550007E-10,1.458268
297.3085,0.04501905,0.0005813703,NaN,-0.3270572,0.0003372441,NaN,-0.3694039,-14.16211,NaN,-2.136448,-1.46323,-0.2750467,14.15693,NaN,NaN,-0.01978517,0.8042781,3.867463E-06,1.025359,-6.697556E-09,1.465985
297.3236,0.045019,0.0005810799,NaN,-0.3270569,0.000337734,NaN,-0.3870185,-14.16132,NaN,-2.136355,-1.457157,-0.2741322,14.15054,NaN,NaN,-0.01978314,0.8051684,3.915146E-06,1.016625,-1.027384E-08,1.45856
297.3386,0.045019,0.0005810799,NaN,-0.3270569,0.000337734,NaN,-0.3870185,-14.16132,NaN,-2.136355,-1.457157,-0.2741322,14.15054,NaN,NaN,-0.01978314,0.8051684,3.915146E-06,1.016625,-1.027384E-08,1.45856
297.3528,0.04501896,0.0005805615,NaN,-0.3270567,0.0003381015,NaN,-0.4043821,-14.16145,NaN,-2.136271,-1.454226,-0.2732757,14.1475,NaN,NaN,-0.01978127,0.8050753,3.960595E-06,1.012391,-7.88965E-09,1.459461
297.3683,0.04501892,0.0005799343,NaN,-0.3270565,0.0003376555,NaN,-0.4214983,-14.1626,NaN,-2.136195,-1.465601,-0.2724754,14.15945,NaN,NaN,-0.01977955,0.8038082,4.003808E-06,1.028785,-6.697557E-09,1.467503
297.3833,0.04501887,0.0005796321,NaN,-0.3270563,0.0003381513,NaN,-0.4383702,-14.16175,NaN,-2.136127,-1.455003,-0.2717296,14.14837,NaN,NaN,-0.01977797,0.8048705,4.04732E-06,1.013538,-4.313371E-09,1.461306
297.3985,0.04501887,0.0005796321,NaN,-0.3270563,0.0003381513,NaN,-0.4383702,-14.16175,NaN,-2.136127,-1.455003,-0.2717296,14.14837,NaN,NaN,-0.01977797,0.8048705,4.04732E-06,1.013538,-4.313371E-09,1.461306
297.413,0.04501883,0.0005798465,NaN,-0.3270561,0.0003380498,NaN,-0.4550011,-14.16295,NaN,-2.136066,-1.466255,-0.2710366,14.16018,NaN,NaN,-0.01977652,0.8035417,4.083529E-06,1.029744,-4.313371E-09,1.473123
297.4284,0.04501878,0.0005800532,NaN,-0.3270558,0.0003385966,NaN,-0.4713944,-14.16182,NaN,-2.136013,-1.45622,-0.2703948,14.14967,NaN,NaN,-0.0197752,0.8048784,4.11959E-06,1.015321,-4.313371E-09,1.462137
297.4435,0.04501874,0.0005803684,NaN,-0.3270556,0.0003386586,NaN,-0.4875532,-14.16336,NaN,-2.135966,-1.463678,-0.2698025,14.15757,NaN,NaN,-0.019774,0.8032453,4.151628E-06,1.026046,-1.929186E-09,1.47381
297.4584,0.04501874,0.0005803684,NaN,-0.3270556,0.0003386586,NaN,-0.4875532,-14.16336,NaN,-2.135966,-1.463678,-0.2698025,14.15757,NaN,NaN,-0.019774,0.8032453,4.151628E-06,1.026046,-1.929186E-09,1.47381
297.4728,0.04501869,0.0005810318,NaN,-0.3270554,0.0003385954,NaN,-0.5034806,-14.16291,NaN,-2.135927,-1.468038,-0.2692584,14.16203,NaN,NaN,-0.01977292,0.8036007,4.182175E-06,1.032331,4.55E-10,1.47305
297.4886,0.04501864,0.0005817649,NaN,-0.3270552,0.0003394003,NaN,-0.5191799,-14.16165,NaN,-2.135894,-1.457497,-0.2687607,14.15099,NaN,NaN,-0.01977196,0.8051014,4.207805E-06,1.017186,-1.929186E-09,1.463223
297.5055,0.04501859,0.0005822787,NaN,-0.327055,0.0003395244,NaN,-0.5346541,-14.16306,NaN,-2.135868,-1.464155,-0.2683081,14.15804,NaN,NaN,-0.0197711,0.8036031,4.232392E-06,1.02676,-4.313371E-09,1.471637
297.5182,0.04501859,0.0005822787,NaN,-0.327055,0.0003395244,NaN,-0.5346541,-14.16306,NaN,-2.135868,-1.464155,-0.2683081,14.15804,NaN,NaN,-0.0197711,0.8036031,4.232392E-06,1.02676,-4.313371E-09,1.471637
297.5323,0.04501854,0.0005827342,NaN,-0.3270548,0.0003401403,NaN,-0.5499063,-14.16196,NaN,-2.135847,-1.456452,-0.2678992,14.14995,NaN,NaN,-0.01977036,0.8048475,4.255787E-06,1.015691,-4.313371E-09,1.463999
297.5479,0.04501849,0.0005830397,NaN,-0.3270546,0.000339983,NaN,-0.5649395,-14.16305,NaN,-2.135833,-1.466635,-0.2675324,14.16063,NaN,NaN,-0.01976972,0.8036255,4.278138E-06,1.030355,-1.929186E-09,1.472121
297.5633,0.04501845,0.0005838483,NaN,-0.3270544,0.0003399818,NaN,-0.5797567,-14.16254,NaN,-2.135825,-1.467916,-0.2672066,14.16191,NaN,NaN,-0.01976917,0.8040893,4.296169E-06,1.032209,4.55E-10,1.471049
297.5778,0.04501845,0.0005838483,NaN,-0.3270544,0.0003399818,NaN,-0.5797567,-14.16254,NaN,-2.135825,-1.467916,-0.2672066,14.16191,NaN,NaN,-0.01976917,0.8040893,4.296169E-06,1.032209,4.55E-10,1.471049
297.5922,0.0450184,0.000584395,NaN,-0.3270542,0.0003403247,NaN,-0.5943609,-14.16185,NaN,-2.135822,-1.461646,-0.2669204,14.15532,NaN,NaN,-0.01976872,0.8049056,4.311517E-06,1.023187,7.607557E-09,1.466431
297.608,0.04501835,0.0005844187,NaN,-0.327054,0.0003405293,NaN,-0.6087551,-14.16158,NaN,-2.135824,-1.458765,-0.2666724,14.15229,NaN,NaN,-0.01976836,0.8052111,4.32612E-06,1.019032,1.237593E-08,1.460769
297.623,0.0450183,0.000584097,NaN,-0.3270538,0.000340106,NaN,-0.622942,-14.16261,NaN,-2.135832,-1.465635,-0.2664615,14.15953,NaN,NaN,-0.01976808,0.8040646,4.338786E-06,1.028918,1.237593E-08,1.467271
297.6379,0.0450183,0.000584097,NaN,-0.3270538,0.000340106,NaN,-0.622942,-14.16261,NaN,-2.135832,-1.465635,-0.2664615,14.15953,NaN,NaN,-0.01976808,0.8040646,4.338786E-06,1.028918,1.237593E-08,1.467271
297.6522,0.04501825,0.0005842397,NaN,-0.3270535,0.0003396971,NaN,-0.6369246,-14.16329,NaN,-2.135845,-1.468256,-0.2662863,14.16229,NaN,NaN,-0.0197679,0.8033273,4.35175E-06,1.032668,9.991743E-09,1.473581
297.6679,0.0450182,0.0005844437,NaN,-0.3270533,0.0003401148,NaN,-0.6507056,-14.16188,NaN,-2.135863,-1.457,-0.2661458,14.1505,NaN,NaN,-0.01976779,0.8049923,4.36084E-06,1.016504,1.476011E-08,1.461609
297.6839,0.04501816,0.0005847374,NaN,-0.3270531,0.0003401785,NaN,-0.6642879,-14.16331,NaN,-2.135886,-1.463186,-0.2660388,14.15706,NaN,NaN,-0.01976775,0.8034838,4.369929E-06,1.025394,1.237593E-08,1.471284
297.6987,0.04501816,0.0005847374,NaN,-0.3270531,0.0003401785,NaN,-0.6642879,-14.16331,NaN,-2.135886,-1.463186,-0.2660388,14.15706,NaN,NaN,-0.01976775,0.8034838,4.369929E-06,1.025394,1.237593E-08,1.471284
297.7131,0.04501811,0.0005850977,NaN,-0.3270529,0.0003406621,NaN,-0.6776742,-14.16271,NaN,-2.135913,-1.45779,-0.2659641,14.1514,NaN,NaN,-0.01976779,0.8041882,4.377678E-06,1.017634,1.476011E-08,1.466938
297.7275,0.04501806,0.0005849539,NaN,-0.3270527,0.0003405531,NaN,-0.6908673,-14.16235,NaN,-2.135945,-1.462291,-0.2659207,14.15603,NaN,NaN,-0.0197679,0.8044756,4.381701E-06,1.024126,1.952849E-08,1.465438
297.7424,0.04501801,0.0005847701,NaN,-0.3270525,0.0003399583,NaN,-0.7038698,-14.16337,NaN,-2.135981,-1.468637,-0.2659074,14.1627,NaN,NaN,-0.01976809,0.8033332,4.384383E-06,1.033243,2.429686E-08,1.472328
297.7574,0.04501801,0.0005847701,NaN,-0.3270525,0.0003399583,NaN,-0.7038698,-14.16337,NaN,-2.135981,-1.468637,-0.2659074,14.1627,NaN,NaN,-0.01976809,0.8033332,4.384383E-06,1.033243,2.429686E-08,1.472328
297.7716,0.04501796,0.0005852933,NaN,-0.3270523,0.0003396603,NaN,-0.7166843,-14.16294,NaN,-2.136021,-1.468834,-0.2659233,14.16286,NaN,NaN,-0.01976833,0.8037499,4.38632E-06,1.033538,2.429686E-08,1.470344
297.7873,0.04501791,0.0005856851,NaN,-0.3270521,0.0003400913,NaN,-0.7293135,-14.16146,NaN,-2.136065,-1.457457,-0.2659673,14.15093,NaN,NaN,-0.01976863,0.8054938,4.388034E-06,1.017195,2.906523E-08,1.457867
297.8022,0.04501786,0.0005857194,NaN,-0.3270519,0.000340463,NaN,-0.74176,-14.16193,NaN,-2.136113,-1.455249,-0.2660385,14.14866,NaN,NaN,-0.019769,0.8050437,4.38632E-06,1.013985,3.144941E-08,1.458294
297.8174,0.04501786,0.0005857194,NaN,-0.3270519,0.000340463,NaN,-0.74176,-14.16193,NaN,-2.136113,-1.455249,-0.2660385,14.14866,NaN,NaN,-0.019769,0.8050437,4.38632E-06,1.013985,3.144941E-08,1.458294
297.8315,0.04501782,0.0005853516,NaN,-0.3270517,0.0003402505,NaN,-0.7540263,-14.16192,NaN,-2.136164,-1.462092,-0.2661358,14.15576,NaN,NaN,-0.01976943,0.8049547,4.38416E-06,1.023847,3.144941E-08,1.461594
297.8472,0.04501777,0.0005855468,NaN,-0.3270515,0.0003400553,NaN,-0.766115,-14.16327,NaN,-2.136219,-1.46648,-0.2662584,14.16042,NaN,NaN,-0.01976991,0.8035178,4.380434E-06,1.030133,3.621778E-08,1.470122
297.8622,0.04501772,0.0005859566,NaN,-0.3270513,0.0003397244,NaN,-0.7780284,-14.163,NaN,-2.136278,-1.46842,-0.2664054,14.16239,NaN,NaN,-0.01977044,0.8037301,4.376187E-06,1.032925,3.621778E-08,1.469442
297.8773,0.04501772,0.0005859566,NaN,-0.3270513,0.0003397244,NaN,-0.7780284,-14.163,NaN,-2.136278,-1.46842,-0.2664054,14.16239,NaN,NaN,-0.01977044,0.8037301,4.376187E-06,1.032925,3.621778E-08,1.469442
297.8913,0.04501767,0.0005863053,NaN,-0.327051,0.000340196,NaN,-0.7897692,-14.16157,NaN,-2.136339,-1.457035,-0.2665758,14.15046,NaN,NaN,-0.01977102,0.8054144,4.371791E-06,1.016566,3.38336E-08,1.456754
297.9079,0.04501762,0.0005866136,NaN,-0.3270508,0.0003399439,NaN,-0.8013397,-14.16223,NaN,-2.136405,-1.466757,-0.2667689,14.16062,NaN,NaN,-0.01977166,0.8046143,4.363298E-06,1.030575,2.906523E-08,1.462184
297.922,0.04501757,0.0005869752,NaN,-0.3270506,0.0003403557,NaN,-0.8127424,-14.16177,NaN,-2.136473,-1.459158,-0.2669837,14.15266,NaN,NaN,-0.01977234,0.8052188,4.354282E-06,1.019618,2.906523E-08,1.460497
297.9369,0.04501757,0.0005869752,NaN,-0.3270506,0.0003403557,NaN,-0.8127424,-14.16177,NaN,-2.136473,-1.459158,-0.2669837,14.15266,NaN,NaN,-0.01977234,0.8052188,4.354282E-06,1.019618,2.906523E-08,1.460497
297.951,0.04501753,0.000587186,NaN,-0.3270504,0.0003408973,NaN,-0.8239794,-14.16197,NaN,-2.136544,-1.455062,-0.2672195,14.1484,NaN,NaN,-0.01977306,0.8050634,4.344969E-06,1.013691,2.668104E-08,1.459166
297.9666,0.04501748,0.0005871708,NaN,-0.3270502,0.0003405824,NaN,-0.8350533,-14.16273,NaN,-2.136618,-1.466534,-0.2674755,14.16039,NaN,NaN,-0.01977382,0.8041616,4.334613E-06,1.030221,2.668104E-08,1.465609
297.9816,0.04501743,0.0005868424,NaN,-0.32705,0.0003407292,NaN,-0.8459662,-14.16132,NaN,-2.136694,-1.456479,-0.2677509,14.14982,NaN,NaN,-0.01977462,0.8057695,4.323064E-06,1.015764,2.429686E-08,1.455734
297.9966,0.04501743,0.0005868424,NaN,-0.32705,0.0003407292,NaN,-0.8459662,-14.16132,NaN,-2.136694,-1.456479,-0.2677509,14.14982,NaN,NaN,-0.01977462,0.8057695,4.323064E-06,1.015764,2.429686E-08,1.455734
298.011,0.04501738,0.000586417,NaN,-0.3270498,0.0003406211,NaN,-0.8567205,-14.16218,NaN,-2.136773,-1.461191,-0.2680449,14.15479,NaN,NaN,-0.01977547,0.8048369,4.311888E-06,1.022539,2.668104E-08,1.460975
298.0266,0.04501733,0.0005868591,NaN,-0.3270496,0.0003409286,NaN,-0.8673185,-14.16266,NaN,-2.136855,-1.461991,-0.2683569,14.15565,NaN,NaN,-0.01977635,0.8043277,4.298478E-06,1.023672,2.668104E-08,1.466127
298.0415,0.04501728,0.0005872134,NaN,-0.3270494,0.000340624,NaN,-0.8777622,-14.1623,NaN,-2.136939,-1.46829,-0.2686861,14.16214,NaN,NaN,-0.01977727,0.8045545,4.284098E-06,1.032753,2.429686E-08,1.464691
298.0566,0.04501728,0.0005872134,NaN,-0.3270494,0.000340624,NaN,-0.8777622,-14.1623,NaN,-2.136939,-1.46829,-0.2686861,14.16214,NaN,NaN,-0.01977727,0.8045545,4.284098E-06,1.032753,2.429686E-08,1.464691
298.0708,0.04501723,0.000587508,NaN,-0.3270492,0.0003410657,NaN,-0.888054,-14.16138,NaN,-2.137026,-1.457464,-0.2690318,14.15081,NaN,NaN,-0.01977822,0.8057151,4.268526E-06,1.017168,2.906523E-08,1.456808
298.0865,0.04501719,0.0005875598,NaN,-0.327049,0.0003407538,NaN,-0.8981959,-14.16293,NaN,-2.137115,-1.467067,-0.2693934,14.16094,NaN,NaN,-0.0197792,0.8040244,4.251241E-06,1.030991,3.38336E-08,1.46724
298.1023,0.04501714,0.0005874602,NaN,-0.3270487,0.0003406691,NaN,-0.90819,-14.16221,NaN,-2.137205,-1.46159,-0.2697701,14.15519,NaN,NaN,-0.01978022,0.8048592,4.234179E-06,1.023116,3.621778E-08,1.460619
298.1172,0.04501714,0.0005874602,NaN,-0.3270487,0.0003406691,NaN,-0.90819,-14.16221,NaN,-2.137205,-1.46159,-0.2697701,14.15519,NaN,NaN,-0.01978022,0.8048592,4.234179E-06,1.023116,3.621778E-08,1.460619
298.1304,0.04501709,0.0005868773,NaN,-0.3270485,0.0003399453,NaN,-0.9180385,-14.16202,NaN,-2.137298,-1.467239,-0.2701615,14.16103,NaN,NaN,-0.01978127,0.8049314,4.216521E-06,1.031262,3.621778E-08,1.461488
298.147,0.04501704,0.0005867448,NaN,-0.3270483,0.0003400149,NaN,-0.9277436,-14.16134,NaN,-2.137393,-1.461094,-0.2705669,14.15457,NaN,NaN,-0.01978234,0.8057415,4.196628E-06,1.022414,3.621778E-08,1.455707
298.1607,0.04501699,0.0005867421,NaN,-0.3270481,0.0003397182,NaN,-0.937307,-14.16277,NaN,-2.13749,-1.466856,-0.2709856,14.16069,NaN,NaN,-0.01978344,0.8042241,4.178896E-06,1.030693,4.098615E-08,1.466289
298.1756,0.04501699,0.0005867421,NaN,-0.3270481,0.0003397182,NaN,-0.937307,-14.16277,NaN,-2.13749,-1.466856,-0.2709856,14.16069,NaN,NaN,-0.01978344,0.8042241,4.178896E-06,1.030693,4.098615E-08,1.466289
298.1899,0.04501694,0.0005862872,NaN,-0.3270479,0.000339141,NaN,-0.946731,-14.16206,NaN,-2.137589,-1.464817,-0.2714171,14.1585,NaN,NaN,-0.01978457,0.8049595,4.158556E-06,1.027768,3.621778E-08,1.461404
298.2056,0.0450169,0.0005856404,NaN,-0.3270477,0.0003386755,NaN,-0.9560174,-14.16147,NaN,-2.137689,-1.462141,-0.2718608,14.15565,NaN,NaN,-0.01978572,0.8055959,4.137471E-06,1.023918,3.38336E-08,1.458415
298.2208,0.04501685,0.0005852728,NaN,-0.3270475,0.0003387094,NaN,-0.9651683,-14.16213,NaN,-2.137791,-1.45948,-0.2723162,14.15293,NaN,NaN,-0.0197869,0.8049795,4.117056E-06,1.020053,3.38336E-08,1.459533
298.2357,0.04501685,0.0005852728,NaN,-0.3270475,0.0003387094,NaN,-0.9651683,-14.16213,NaN,-2.137791,-1.45948,-0.2723162,14.15293,NaN,NaN,-0.0197869,0.8049795,4.117056E-06,1.020053,3.38336E-08,1.459533
298.2498,0.0450168,0.000585451,NaN,-0.3270473,0.0003386733,NaN,-0.9741855,-14.16282,NaN,-2.137895,-1.465018,-0.2727828,14.15874,NaN,NaN,-0.0197881,0.8041952,4.095002E-06,1.02802,3.38336E-08,1.465814
298.2653,0.04501675,0.000585689,NaN,-0.3270471,0.0003383561,NaN,-0.9830711,-14.16302,NaN,-2.138,-1.467844,-0.27326,14.16168,NaN,NaN,-0.01978931,0.8039337,4.072948E-06,1.032082,3.621778E-08,1.467759
298.2803,0.0450167,0.0005862701,NaN,-0.327047,0.0003388337,NaN,-0.9918268,-14.1613,NaN,-2.138106,-1.46102,-0.2737473,14.15445,NaN,NaN,-0.01979055,0.8057964,4.050894E-06,1.022304,4.575453E-08,1.455142
298.2951,0.0450167,0.0005862701,NaN,-0.327047,0.0003388337,NaN,-0.9918268,-14.1613,NaN,-2.138106,-1.46102,-0.2737473,14.15445,NaN,NaN,-0.01979055,0.8057964,4.050894E-06,1.022304,4.575453E-08,1.455142
298.3116,0.04501665,0.0005866492,NaN,-0.3270468,0.0003386955,NaN,-1.000454,-14.16266,NaN,-2.138214,-1.467414,-0.2742442,14.16123,NaN,NaN,-0.01979181,0.8043348,4.027425E-06,1.031503,4.337034E-08,1.466218
298.325,0.04501661,0.0005868332,NaN,-0.3270466,0.0003385834,NaN,-1.008956,-14.16228,NaN,-2.138323,-1.463755,-0.2747503,14.15738,NaN,NaN,-0.01979309,0.8047816,4.002391E-06,1.026231,4.098615E-08,1.46178
298.3399,0.04501661,0.0005868332,NaN,-0.3270466,0.0003385834,NaN,-1.008956,-14.16228,NaN,-2.138323,-1.463755,-0.2747503,14.15738,NaN,NaN,-0.01979309,0.8047816,4.002391E-06,1.026231,4.098615E-08,1.46178
298.3543,0.04501656,0.0005874025,NaN,-0.3270464,0.0003392129,NaN,-1.017333,-14.1617,NaN,-2.138434,-1.457651,-0.275265,14.15097,NaN,NaN,-0.01979438,0.8054702,3.978773E-06,1.017437,3.621778E-08,1.457319
298.3696,0.04501651,0.0005872363,NaN,-0.3270462,0.0003391322,NaN,-1.025588,-14.16178,NaN,-2.138545,-1.460583,-0.275788,14.15402,NaN,NaN,-0.01979569,0.8053374,3.956049E-06,1.021663,3.383359E-08,1.458867
298.3847,0.04501646,0.0005870822,NaN,-0.3270461,0.0003395346,NaN,-1.033722,-14.16144,NaN,-2.138658,-1.455848,-0.2763189,14.14905,NaN,NaN,-0.01979701,0.80575,3.931089E-06,1.014833,3.621778E-08,1.455558
298.3994,0.04501646,0.0005870822,NaN,-0.3270461,0.0003395346,NaN,-1.033722,-14.16144,NaN,-2.138658,-1.455848,-0.2763189,14.14905,NaN,NaN,-0.01979701,0.80575,3.931089E-06,1.014833,3.621778E-08,1.455558
298.4137,0.04501641,0.0005865741,NaN,-0.3270459,0.0003397857,NaN,-1.041736,-14.16147,NaN,-2.138772,-1.455599,-0.2768571,14.14878,NaN,NaN,-0.01979835,0.8057118,3.905012E-06,1.014469,3.383359E-08,1.453734
298.4295,0.04501636,0.0005859027,NaN,-0.3270457,0.0003393913,NaN,-1.049634,-14.16295,NaN,-2.138886,-1.464669,-0.2774023,14.15837,NaN,NaN,-0.01979969,0.8041371,3.878861E-06,1.027538,3.860196E-08,1.463718
298.4447,0.04501631,0.0005851414,NaN,-0.3270455,0.0003393418,NaN,-1.057415,-14.16189,NaN,-2.139002,-1.457331,-0.2779541,14.15066,NaN,NaN,-0.01980105,0.8053392,3.85189E-06,1.016992,3.621778E-08,1.457556
298.4595,0.04501631,0.0005851414,NaN,-0.3270455,0.0003393418,NaN,-1.057415,-14.16189,NaN,-2.139002,-1.457331,-0.2779541,14.15066,NaN,NaN,-0.01980105,0.8053392,3.85189E-06,1.016992,3.621778E-08,1.457556
298.4735,0.04501627,0.0005846379,NaN,-0.3270454,0.0003396023,NaN,-1.065083,-14.16189,NaN,-2.139118,-1.456626,-0.2785121,14.14992,NaN,NaN,-0.01980243,0.8053472,3.823578E-06,1.015973,3.383359E-08,1.455989
298.4894,0.04501622,0.0005837415,NaN,-0.3270452,0.000339685,NaN,-1.072638,-14.16124,NaN,-2.139236,-1.454558,-0.2790759,14.1477,NaN,NaN,-0.01980381,0.8060114,3.795563E-06,1.012999,3.383359E-08,1.45241
298.5043,0.04501617,0.0005833494,NaN,-0.327045,0.0003402753,NaN,-1.080083,-14.16154,NaN,-2.139354,-1.453487,-0.2796451,14.1466,NaN,NaN,-0.01980521,0.805719,3.768741E-06,1.011447,3.383359E-08,1.454119
298.5201,0.04501612,0.0005832197,NaN,-0.3270448,0.0003409053,NaN,-1.087418,-14.16199,NaN,-2.139472,-1.453116,-0.2802195,14.14626,NaN,NaN,-0.01980661,0.8052703,3.740727E-06,1.010902,3.14494E-08,1.456553
298.5341,0.04501612,0.0005832197,NaN,-0.3270448,0.0003409053,NaN,-1.087418,-14.16199,NaN,-2.139472,-1.453116,-0.2802195,14.14626,NaN,NaN,-0.01980661,0.8052703,3.740727E-06,1.010902,3.14494E-08,1.456553
298.5482,0.04501607,0.0005831724,NaN,-0.3270446,0.0003407315,NaN,-1.094646,-14.16325,NaN,-2.139592,-1.465611,-0.2807986,14.15939,NaN,NaN,-0.01980803,0.8038985,3.712713E-06,1.028918,2.906522E-08,1.468825
298.5635,0.04501602,0.0005826482,NaN,-0.3270445,0.0003407681,NaN,-1.101767,-14.16259,NaN,-2.139712,-1.455394,-0.2813822,14.14872,NaN,NaN,-0.01980945,0.8047752,3.683059E-06,1.014213,3.383359E-08,1.462145
298.5784,0.04501602,0.0005826482,NaN,-0.3270445,0.0003407681,NaN,-1.101767,-14.16259,NaN,-2.139712,-1.455394,-0.2813822,14.14872,NaN,NaN,-0.01980945,0.8047752,3.683059E-06,1.014213,3.383359E-08,1.462145
298.5928,0.04501598,0.0005824919,NaN,-0.3270443,0.0003408265,NaN,-1.108784,-14.1623,NaN,-2.139833,-1.460931,-0.2819698,14.15445,NaN,NaN,-0.01981088,0.8049856,3.653108E-06,1.022206,3.383359E-08,1.460879
298.6097,0.04501593,0.0005824101,NaN,-0.3270441,0.0003413189,NaN,-1.115698,-14.16263,NaN,-2.139954,-1.455045,-0.2825613,14.14836,NaN,NaN,-0.01981231,0.8047506,3.624051E-06,1.013709,3.14494E-08,1.461575
298.6233,0.04501588,0.0005814828,NaN,-0.3270439,0.0003404207,NaN,-1.122511,-14.16337,NaN,-2.140075,-1.456113,-0.2831563,14.14954,NaN,NaN,-0.01981376,0.8040007,3.595441E-06,1.015239,3.383359E-08,1.461622
298.6385,0.04501588,0.0005814828,NaN,-0.3270439,0.0003404207,NaN,-1.122511,-14.16337,NaN,-2.140075,-1.456113,-0.2831563,14.14954,NaN,NaN,-0.01981376,0.8040007,3.595441E-06,1.015239,3.383359E-08,1.461622
298.6528,0.04501583,0.000580646,NaN,-0.3270437,0.0003402502,NaN,-1.129223,-14.16317,NaN,-2.140198,-1.454594,-0.2837545,14.14794,NaN,NaN,-0.0198152,0.8042052,3.565936E-06,1.013054,3.383359E-08,1.461243
298.6682,0.04501578,0.0005793328,NaN,-0.3270436,0.0003392622,NaN,-1.135837,-14.16344,NaN,-2.14032,-1.466429,-0.2843556,14.16026,NaN,NaN,-0.01981666,0.8038086,3.53673E-06,1.030113,3.383359E-08,1.469044
298.6833,0.04501573,0.0005790256,NaN,-0.3270434,0.0003386756,NaN,-1.142354,-14.16433,NaN,-2.140443,-1.46788,-0.2849594,14.16183,NaN,NaN,-0.01981812,0.8028772,3.508418E-06,1.032173,3.14494E-08,1.474686
298.6983,0.04501573,0.0005790256,NaN,-0.3270434,0.0003386756,NaN,-1.142354,-14.16433,NaN,-2.140443,-1.46788,-0.2849594,14.16183,NaN,NaN,-0.01981812,0.8028772,3.508418E-06,1.032173,3.14494E-08,1.474686
298.7123,0.04501569,0.000578636,NaN,-0.3270432,0.0003384608,NaN,-1.148774,-14.16308,NaN,-2.140566,-1.46057,-0.2855655,14.15415,NaN,NaN,-0.01981958,0.8042825,3.480404E-06,1.021688,3.383359E-08,1.465588
298.7289,0.04501564,0.0005791908,NaN,-0.327043,0.0003390772,NaN,-1.155101,-14.16292,NaN,-2.14069,-1.458616,-0.2861738,14.15209,NaN,NaN,-0.01982105,0.8044685,3.450303E-06,1.018872,3.14494E-08,1.464528
298.743,0.04501559,0.0005795055,NaN,-0.3270428,0.0003396712,NaN,-1.161334,-14.1633,NaN,-2.140814,-1.45454,-0.2867839,14.14789,NaN,NaN,-0.01982252,0.8041459,3.421246E-06,1.012984,3.14494E-08,1.464213
298.7577,0.04501559,0.0005795055,NaN,-0.3270428,0.0003396712,NaN,-1.161334,-14.1633,NaN,-2.140814,-1.45454,-0.2867839,14.14789,NaN,NaN,-0.01982252,0.8041459,3.421246E-06,1.012984,3.14494E-08,1.464213
298.7719,0.04501554,0.0005797046,NaN,-0.3270427,0.0003395028,NaN,-1.167476,-14.16259,NaN,-2.140938,-1.464756,-0.2873957,14.15841,NaN,NaN,-0.01982399,0.8047396,3.391295E-06,1.027718,2.668103E-08,1.4627
298.7875,0.04501549,0.00058011,NaN,-0.3270425,0.0003392638,NaN,-1.173527,-14.16445,NaN,-2.141062,-1.467636,-0.2880089,14.16156,NaN,NaN,-0.01982546,0.8027844,3.3603E-06,1.031815,2.668103E-08,1.474607
298.8024,0.04501544,0.0005805706,NaN,-0.3270423,0.0003397653,NaN,-1.179489,-14.16299,NaN,-2.141186,-1.458555,-0.2886232,14.15203,NaN,NaN,-0.01982694,0.8044217,3.329455E-06,1.018791,2.429685E-08,1.464019
298.8173,0.04501544,0.0005805706,NaN,-0.3270423,0.0003397653,NaN,-1.179489,-14.16299,NaN,-2.141186,-1.458555,-0.2886232,14.15203,NaN,NaN,-0.01982694,0.8044217,3.329455E-06,1.018791,2.429685E-08,1.464019
298.8316,0.04501539,0.000581271,NaN,-0.3270421,0.0003397791,NaN,-1.185363,-14.16368,NaN,-2.141311,-1.466132,-0.2892386,14.15996,NaN,NaN,-0.01982841,0.8035975,3.29846E-06,1.029698,2.191266E-08,1.470714
298.8474,0.04501535,0.0005816524,NaN,-0.327042,0.000339369,NaN,-1.191151,-14.16356,NaN,-2.141435,-1.467728,-0.2898546,14.16159,NaN,NaN,-0.01982989,0.8036454,3.267615E-06,1.031994,2.429685E-08,1.467059
298.8623,0.0450153,0.0005812735,NaN,-0.3270418,0.0003390328,NaN,-1.196854,-14.16385,NaN,-2.14156,-1.457906,-0.2904713,14.1514,NaN,NaN,-0.01983137,0.8035498,3.238111E-06,1.017823,2.429685E-08,1.467361
298.8771,0.0450153,0.0005812735,NaN,-0.3270418,0.0003390328,NaN,-1.196854,-14.16385,NaN,-2.14156,-1.457906,-0.2904713,14.1514,NaN,NaN,-0.01983137,0.8035498,3.238111E-06,1.017823,2.429685E-08,1.467361
298.8914,0.04501525,0.0005807168,NaN,-0.3270416,0.0003388747,NaN,-1.202472,-14.16249,NaN,-2.141685,-1.456422,-0.2910882,14.14972,NaN,NaN,-0.01983285,0.8048957,3.207712E-06,1.015708,2.191266E-08,1.460279
298.9072,0.0450152,0.0005799955,NaN,-0.3270414,0.0003388976,NaN,-1.208008,-14.16276,NaN,-2.141809,-1.454599,-0.2917053,14.14784,NaN,NaN,-0.01983433,0.8046254,3.177165E-06,1.013068,2.429685E-08,1.458976
298.922,0.04501515,0.0005797206,NaN,-0.3270412,0.0003393568,NaN,-1.213462,-14.16334,NaN,-2.141934,-1.454034,-0.2923224,14.1473,NaN,NaN,-0.01983581,0.8040325,3.147064E-06,1.012239,2.429685E-08,1.46214
298.9378,0.04501515,0.0005797206,NaN,-0.3270412,0.0003393568,NaN,-1.213462,-14.16334,NaN,-2.141934,-1.454034,-0.2923224,14.1473,NaN,NaN,-0.01983581,0.8040325,3.147064E-06,1.012239,2.429685E-08,1.46214
298.952,0.0450151,0.0005792646,NaN,-0.3270411,0.0003390425,NaN,-1.218836,-14.16444,NaN,-2.142059,-1.464172,-0.2929393,14.15793,NaN,NaN,-0.01983728,0.8028161,3.117262E-06,1.026831,2.429685E-08,1.470797
298.9666,0.04501506,0.0005792204,NaN,-0.3270409,0.0003396456,NaN,-1.224131,-14.16345,NaN,-2.142184,-1.454979,-0.2935558,14.14832,NaN,NaN,-0.01983875,0.8039743,3.087311E-06,1.013624,2.191266E-08,1.463327
298.9812,0.04501501,0.000579609,NaN,-0.3270407,0.0003396077,NaN,-1.229347,-14.16423,NaN,-2.142308,-1.465121,-0.2941718,14.15891,NaN,NaN,-0.01984023,0.8030713,3.056615E-06,1.028223,1.952848E-08,1.47248
298.9962,0.04501501,0.000579609,NaN,-0.3270407,0.0003396077,NaN,-1.229347,-14.16423,NaN,-2.142308,-1.465121,-0.2941718,14.15891,NaN,NaN,-0.01984023,0.8030713,3.056615E-06,1.028223,1.952848E-08,1.47248
299.0104,0.04501496,0.0005799254,NaN,-0.3270405,0.0003401463,NaN,-1.234487,-14.16331,NaN,-2.142432,-1.455828,-0.294787,14.14919,NaN,NaN,-0.0198417,0.8041652,3.026216E-06,1.014864,1.714429E-08,1.462292
299.0261,0.04501491,0.0005803028,NaN,-0.3270403,0.0003400073,NaN,-1.23955,-14.16456,NaN,-2.142557,-1.466756,-0.2954014,14.16065,NaN,NaN,-0.01984317,0.8027729,2.996116E-06,1.030583,1.952848E-08,1.474916
299.0409,0.04501486,0.0005805597,NaN,-0.3270402,0.0003395349,NaN,-1.244539,-14.16314,NaN,-2.142681,-1.467875,-0.2960147,14.16167,NaN,NaN,-0.01984463,0.8041373,2.966015E-06,1.032234,1.714429E-08,1.463755
299.0562,0.04501486,0.0005805597,NaN,-0.3270402,0.0003395349,NaN,-1.244539,-14.16314,NaN,-2.142681,-1.467875,-0.2960147,14.16167,NaN,NaN,-0.01984463,0.8041373,2.966015E-06,1.032234,1.714429E-08,1.463755
299.0703,0.04501481,0.0005811682,NaN,-0.32704,0.000339994,NaN,-1.249454,-14.16305,NaN,-2.142805,-1.460488,-0.2966275,14.15398,NaN,NaN,-0.0198461,0.8043826,2.936511E-06,1.02158,9.991734E-09,1.463251
299.0894,0.04501477,0.0005814645,NaN,-0.3270398,0.0003397106,NaN,-1.254296,-14.16471,NaN,-2.142928,-1.467536,-0.2972388,14.16144,NaN,NaN,-0.01984756,0.8025968,2.90656E-06,1.031692,-1.929195E-09,1.473163
299.1023,0.04501472,0.0005817608,NaN,-0.3270396,0.0003401997,NaN,-1.259066,-14.16302,NaN,-2.143052,-1.456905,-0.2978486,14.15028,NaN,NaN,-0.01984902,0.8045049,2.876013E-06,1.016442,4.549912E-10,1.46073
299.1158,0.04501472,0.0005817608,NaN,-0.3270396,0.0003401997,NaN,-1.259066,-14.16302,NaN,-2.143052,-1.456905,-0.2978486,14.15028,NaN,NaN,-0.01984902,0.8045049,2.876013E-06,1.016442,4.549912E-10,1.46073
299.13,0.04501467,0.0005812321,NaN,-0.3270395,0.0003401626,NaN,-1.263004,-14.16337,NaN,-2.143244,-1.457077,-0.2993662,14.15048,NaN,NaN,-0.01985287,0.8041416,2.80106E-06,1.016674,2.839177E-09,1.463562
299.1466,0.04501462,0.0005807788,NaN,-0.3270393,0.0003395386,NaN,-1.266032,-14.16414,NaN,-2.143451,-1.467816,-0.3007206,14.16169,NaN,NaN,-0.01985626,0.8032277,2.734452E-06,1.032132,5.223363E-09,1.469237
299.1604,0.04501458,0.0005801527,NaN,-0.3270391,0.0003385452,NaN,-1.268553,-14.16247,NaN,-2.143651,-1.468772,-0.3018593,14.16253,NaN,NaN,-0.01985909,0.8048362,2.679615E-06,1.033555,9.991734E-09,1.462757
299.1754,0.04501458,0.0005801527,NaN,-0.3270391,0.0003385452,NaN,-1.268553,-14.16247,NaN,-2.143651,-1.468772,-0.3018593,14.16253,NaN,NaN,-0.01985909,0.8048362,2.679615E-06,1.033555,9.991734E-09,1.462757
299.1894,0.04501453,0.0005791094,NaN,-0.327039,0.0003366596,NaN,-1.270821,-14.16326,NaN,-2.143839,-1.457969,-0.3028717,14.15135,NaN,NaN,-0.01986159,0.8042852,2.629622E-06,1.017939,9.991734E-09,1.462746
299.2054,0.04501448,0.0005783273,NaN,-0.3270388,0.0003357777,NaN,-1.272199,-14.16313,NaN,-2.144087,-1.457178,-0.3047266,14.1505,NaN,NaN,-0.01986634,0.8044042,2.539098E-06,1.016797,7.607548E-09,1.460469
299.2202,0.04501443,0.0005782204,NaN,-0.3270387,0.0003358937,NaN,-1.272664,-14.16397,NaN,-2.144345,-1.456095,-0.3063843,14.14945,NaN,NaN,-0.01987055,0.8035653,2.457812E-06,1.015214,2.839177E-09,1.466256
299.2351,0.04501443,0.0005782204,NaN,-0.3270387,0.0003358937,NaN,-1.272664,-14.16397,NaN,-2.144345,-1.456095,-0.3063843,14.14945,NaN,NaN,-0.01987055,0.8035653,2.457812E-06,1.015214,2.839177E-09,1.466256
299.2491,0.04501437,0.0005782728,NaN,-0.3270385,0.0003354582,NaN,-1.272641,-14.16487,NaN,-2.144591,-1.466981,-0.3078048,14.16082,NaN,NaN,-0.01987414,0.8025203,2.389639E-06,1.030876,1.237592E-08,1.473109
299.2649,0.04501432,0.0005786276,NaN,-0.3270384,0.0003359492,NaN,-1.272393,-14.16411,NaN,-2.144822,-1.457469,-0.3090833,14.1509,NaN,NaN,-0.01987735,0.8034796,2.327054E-06,1.017209,5.223363E-09,1.465691
299.28,0.04501432,0.0005786276,NaN,-0.3270384,0.0003359492,NaN,-1.272393,-14.16411,NaN,-2.144822,-1.457469,-0.3090833,14.1509,NaN,NaN,-0.01987735,0.8034796,2.327054E-06,1.017209,5.223363E-09,1.465691
299.2942,0.04501427,0.0005788825,NaN,-0.3270382,0.0003361784,NaN,-1.27129,-14.16474,NaN,-2.145111,-1.460181,-0.3111908,14.15376,NaN,NaN,-0.01988282,0.8027996,2.22431E-06,1.021094,1.237592E-08,1.468914
299.3099,0.04501422,0.0005792989,NaN,-0.3270381,0.0003360067,NaN,-1.269309,-14.16455,NaN,-2.14541,-1.46731,-0.3130915,14.1611,NaN,NaN,-0.01988771,0.8028564,2.132817E-06,1.031353,7.607548E-09,1.472317
299.3249,0.04501417,0.0005796928,NaN,-0.3270379,0.0003357242,NaN,-1.266874,-14.16502,NaN,-2.145695,-1.467593,-0.3147444,14.16142,NaN,NaN,-0.01989195,0.8023543,2.053841E-06,1.031737,7.607548E-09,1.472492
299.3397,0.04501417,0.0005796928,NaN,-0.3270379,0.0003357242,NaN,-1.266874,-14.16502,NaN,-2.145695,-1.467593,-0.3147444,14.16142,NaN,NaN,-0.01989195,0.8023543,2.053841E-06,1.031737,7.607548E-09,1.472492
299.3561,0.04501412,0.0005803206,NaN,-0.3270378,0.0003355717,NaN,-1.263492,-14.16492,NaN,-2.146034,-1.467981,-0.3171532,14.1618,NaN,NaN,-0.01989827,0.8024293,1.93683E-06,1.032292,7.607548E-09,1.472135
299.3695,0.04501407,0.0005807448,NaN,-0.3270376,0.0003360239,NaN,-1.259209,-14.16355,NaN,-2.14638,-1.458319,-0.3193155,14.15168,NaN,NaN,-0.01990392,0.804005,1.833788E-06,1.018432,5.223363E-09,1.46158
299.3845,0.04501402,0.000580729,NaN,-0.3270375,0.0003356145,NaN,-1.25448,-14.16369,NaN,-2.146709,-1.467411,-0.3212065,14.16112,NaN,NaN,-0.01990884,0.8037316,1.743869E-06,1.031529,5.223363E-09,1.462829
299.3993,0.04501402,0.000580729,NaN,-0.3270375,0.0003356145,NaN,-1.25448,-14.16369,NaN,-2.146709,-1.467411,-0.3212065,14.16112,NaN,NaN,-0.01990884,0.8037316,1.743869E-06,1.031529,5.223363E-09,1.462829
299.4135,0.04501396,0.0005808068,NaN,-0.3270373,0.0003360935,NaN,-1.249581,-14.16396,NaN,-2.147017,-1.45666,-0.3229291,14.14998,NaN,NaN,-0.01991332,0.8037011,1.66208E-06,1.016028,5.223363E-09,1.463577
299.429,0.04501392,0.0005800787,NaN,-0.3270372,0.0003359051,NaN,-1.243894,-14.16434,NaN,-2.147381,-1.459425,-0.3254576,14.15287,NaN,NaN,-0.01992007,0.8032768,1.539047E-06,1.019999,2.839177E-09,1.466063
299.444,0.04501386,0.0005797015,NaN,-0.327037,0.0003354011,NaN,-1.237394,-14.16494,NaN,-2.147753,-1.467972,-0.3277629,14.16178,NaN,NaN,-0.01992619,0.8025362,1.428927E-06,1.03229,2.839177E-09,1.471869
299.4588,0.04501386,0.0005797015,NaN,-0.327037,0.0003354011,NaN,-1.237394,-14.16494,NaN,-2.147753,-1.467972,-0.3277629,14.16178,NaN,NaN,-0.01992619,0.8025362,1.428927E-06,1.03229,2.839177E-09,1.471869
299.4733,0.04501381,0.0005801526,NaN,-0.3270369,0.0003357067,NaN,-1.230503,-14.16515,NaN,-2.14811,-1.462696,-0.3298024,14.15632,NaN,NaN,-0.0199316,0.8024465,1.330785E-06,1.024687,4.549912E-10,1.471315
299.489,0.04501376,0.0005803638,NaN,-0.3270367,0.0003355535,NaN,-1.223482,-14.16469,NaN,-2.148446,-1.465443,-0.3316712,14.15911,NaN,NaN,-0.01993656,0.8028415,1.242272E-06,1.028646,-1.929195E-09,1.467931
299.5045,0.04501371,0.0005804566,NaN,-0.3270366,0.0003349995,NaN,-1.215711,-14.1639,NaN,-2.148838,-1.469137,-0.3343398,14.16286,NaN,NaN,-0.01994381,0.803539,1.115202E-06,1.033985,-1.929195E-09,1.463582
299.5189,0.04501371,0.0005804566,NaN,-0.3270366,0.0003349995,NaN,-1.215711,-14.1639,NaN,-2.148838,-1.469137,-0.3343398,14.16286,NaN,NaN,-0.01994381,0.803539,1.115202E-06,1.033985,-1.929195E-09,1.463582
299.5334,0.04501366,0.0005804378,NaN,-0.3270364,0.0003349828,NaN,-1.20716,-14.16372,NaN,-2.14924,-1.460592,-0.3367811,14.15398,NaN,NaN,-0.01995041,0.8039231,9.990474E-07,1.021679,-4.31338E-09,1.463091
299.5487,0.04501361,0.000580108,NaN,-0.3270363,0.0003351473,NaN,-1.198248,-14.16387,NaN,-2.149625,-1.456573,-0.3389501,14.14981,NaN,NaN,-0.01995627,0.8038461,8.970489E-07,1.015879,-6.697566E-09,1.460283
299.5648,0.04501355,0.0005798138,NaN,-0.3270361,0.000334684,NaN,-1.189234,-14.16449,NaN,-2.149987,-1.466726,-0.3409411,14.1604,NaN,NaN,-0.01996165,0.8030951,8.029481E-07,1.030494,-1.146594E-08,1.464874
299.5787,0.04501355,0.0005798138,NaN,-0.3270361,0.000334684,NaN,-1.189234,-14.16449,NaN,-2.149987,-1.466726,-0.3409411,14.1604,NaN,NaN,-0.01996165,0.8030951,8.029481E-07,1.030494,-1.146594E-08,1.464874
299.5927,0.04501351,0.0005793861,NaN,-0.327036,0.0003340899,NaN,-1.179503,-14.16521,NaN,-2.150406,-1.465901,-0.3437241,14.15958,NaN,NaN,-0.01996936,0.8023826,6.708493E-07,1.029276,-9.081752E-09,1.469292
299.6084,0.04501345,0.0005792954,NaN,-0.3270358,0.0003335208,NaN,-1.169021,-14.16396,NaN,-2.150834,-1.467124,-0.3462757,14.16073,NaN,NaN,-0.0199764,0.80358,5.50895E-07,1.031067,-6.697567E-09,1.462612
