JMolnar6/NonAnthroHands_User_Study/HandsLoggerWithURDF/tempdata/files/Reachy_PID0_JointMotion_gesture_8_39.csv
Time,r_shoulder,r_shoulder_x,r_upper_arm,r_forearm,r_wrist,r_wrist2hand,
545.8661,0.04488466,-9.207575E-09,NaN,-0.3295138,-1.340634E-07,NaN,0.3317556,1.839382E-09,NaN,-0.5165495,1.644067E-05,-0.3533821,1.19454E-08,NaN,NaN,-0.02005101,-2.887109E-10,-4.229912E-07,-1.117555E-07,-1.964293E-08,-2.622604E-08
545.8833,0.04488513,-9.206756E-09,NaN,-0.329486,-1.340629E-07,NaN,0.3333435,1.89799E-09,NaN,-0.5178053,1.644116E-05,-0.3538254,1.188849E-08,NaN,NaN,-0.02005363,-2.840543E-10,-4.440019E-07,-1.117542E-07,-1.964293E-08,-2.861022E-08
545.8952,0.04488513,-9.206756E-09,NaN,-0.329486,-1.340629E-07,NaN,0.3333435,1.89799E-09,NaN,-0.5178053,1.644116E-05,-0.3538254,1.188849E-08,NaN,NaN,-0.02005363,-2.840543E-10,-4.440019E-07,-1.117542E-07,-1.964293E-08,-2.861022E-08
545.9092,0.04488559,-9.205937E-09,NaN,-0.3294587,-1.340624E-07,NaN,0.3349043,1.955559E-09,NaN,-0.5197583,1.644165E-05,-0.3542772,1.183261E-08,NaN,NaN,-0.02005485,-2.840543E-10,-4.532406E-07,-1.117529E-07,-1.964293E-08,-2.622604E-08
545.9246,0.04488605,-9.205118E-09,NaN,-0.3294317,-1.34062E-07,NaN,0.3364083,2.014941E-09,NaN,-0.5220248,1.644215E-05,-0.3546875,1.177493E-08,NaN,NaN,-0.0200555,-2.840543E-10,-4.592011E-07,-1.117515E-07,-2.202712E-08,-2.861022E-08
545.9393,0.04488605,-9.205118E-09,NaN,-0.3294317,-1.34062E-07,NaN,0.3364083,2.014941E-09,NaN,-0.5220248,1.644215E-05,-0.3546875,1.177493E-08,NaN,NaN,-0.0200555,-2.840543E-10,-4.592011E-07,-1.117515E-07,-2.202712E-08,-2.861022E-08
545.9534,0.04488649,-9.2043E-09,NaN,-0.3294049,-1.340615E-07,NaN,0.3377282,2.073267E-09,NaN,-0.5231916,1.644264E-05,-0.3548715,1.171829E-08,NaN,NaN,-0.0200527,-2.887109E-10,-4.371473E-07,-1.117502E-07,-1.964293E-08,-2.622604E-08
545.9688,0.04488693,-9.203481E-09,NaN,-0.3293785,-1.34061E-07,NaN,0.3390302,2.130564E-09,NaN,-0.5237024,1.644313E-05,-0.3550169,1.166269E-08,NaN,NaN,-0.02005117,-2.840543E-10,-4.229912E-07,-1.117489E-07,-2.202712E-08,-2.861022E-08
545.9834,0.04488737,-9.202662E-09,NaN,-0.3293524,-1.340606E-07,NaN,0.3403533,2.189675E-09,NaN,-0.5238991,1.644363E-05,-0.3551824,1.160527E-08,NaN,NaN,-0.02005015,-2.840543E-10,-4.144976E-07,-1.117476E-07,-2.44113E-08,-2.622604E-08
545.9984,0.04488737,-9.202662E-09,NaN,-0.3293524,-1.340606E-07,NaN,0.3403533,2.189675E-09,NaN,-0.5238991,1.644363E-05,-0.3551824,1.160527E-08,NaN,NaN,-0.02005015,-2.840543E-10,-4.144976E-07,-1.117476E-07,-2.44113E-08,-2.622604E-08
546.0125,0.04488781,-9.201843E-09,NaN,-0.3293266,-1.340601E-07,NaN,0.3416922,2.247738E-09,NaN,-0.5239453,1.644412E-05,-0.3553725,1.15489E-08,NaN,NaN,-0.02004932,-2.840543E-10,-4.080901E-07,-1.117463E-07,-2.679549E-08,-2.861022E-08
546.0273,0.04488824,-9.201024E-09,NaN,-0.3293011,-1.340596E-07,NaN,0.3428974,2.307603E-09,NaN,-0.5226901,1.644462E-05,-0.3553936,1.149073E-08,NaN,NaN,-0.02004539,-2.887109E-10,-3.744134E-07,-1.11745E-07,-2.679549E-08,-2.622604E-08
546.043,0.04488866,-9.200205E-09,NaN,-0.329276,-1.340591E-07,NaN,0.3441098,2.366406E-09,NaN,-0.5207031,1.644511E-05,-0.3554135,1.143362E-08,NaN,NaN,-0.02004285,-2.840543E-10,-3.525087E-07,-1.117437E-07,-2.679549E-08,-2.861022E-08
546.0566,0.04488866,-9.200205E-09,NaN,-0.329276,-1.340591E-07,NaN,0.3441098,2.366406E-09,NaN,-0.5207031,1.644511E-05,-0.3554135,1.143362E-08,NaN,NaN,-0.02004285,-2.840543E-10,-3.525087E-07,-1.117437E-07,-2.679549E-08,-2.861022E-08
546.0707,0.04488909,-9.199387E-09,NaN,-0.3292511,-1.340587E-07,NaN,0.3453535,2.425807E-09,NaN,-0.5183864,1.64456E-05,-0.3554768,1.137591E-08,NaN,NaN,-0.02004088,-2.887109E-10,-3.356704E-07,-1.117424E-07,-2.679549E-08,-2.622604E-08
546.0861,0.04488952,-9.198569E-09,NaN,-0.3292265,-1.340582E-07,NaN,0.3466156,2.486978E-09,NaN,-0.5159323,1.644609E-05,-0.3555794,1.131642E-08,NaN,NaN,-0.02003916,-2.887109E-10,-3.210673E-07,-1.117411E-07,-3.156386E-08,-2.861022E-08
546.1008,0.04488993,-9.197751E-09,NaN,-0.3292022,-1.340578E-07,NaN,0.3477403,2.544235E-09,NaN,-0.5122037,1.644658E-05,-0.3555205,1.126086E-08,NaN,NaN,-0.02003425,-2.933675E-10,-2.805362E-07,-1.117398E-07,-3.633223E-08,-2.622604E-08
546.1153,0.04488993,-9.197751E-09,NaN,-0.3292022,-1.340578E-07,NaN,0.3477403,2.544235E-09,NaN,-0.5122037,1.644658E-05,-0.3555205,1.126086E-08,NaN,NaN,-0.02003425,-2.933675E-10,-2.805362E-07,-1.117398E-07,-3.633223E-08,-2.622604E-08
546.1292,0.04489034,-9.196933E-09,NaN,-0.3291782,-1.340573E-07,NaN,0.3488676,2.603304E-09,NaN,-0.5077763,1.644707E-05,-0.3554654,1.120347E-08,NaN,NaN,-0.02003078,-2.933675E-10,-2.517769E-07,-1.117385E-07,-3.394804E-08,-2.861022E-08
546.1445,0.04489076,-9.196115E-09,NaN,-0.3291545,-1.340568E-07,NaN,0.3500229,2.661328E-09,NaN,-0.503055,1.644756E-05,-0.3554581,1.114713E-08,NaN,NaN,-0.02002791,-2.980241E-10,-2.279351E-07,-1.117372E-07,-3.394804E-08,-2.622604E-08
546.1592,0.04489076,-9.196115E-09,NaN,-0.3291545,-1.340568E-07,NaN,0.3500229,2.661328E-09,NaN,-0.503055,1.644756E-05,-0.3554581,1.114713E-08,NaN,NaN,-0.02002791,-2.980241E-10,-2.279351E-07,-1.117372E-07,-3.394804E-08,-2.622604E-08
546.1732,0.04489116,-9.195297E-09,NaN,-0.3291311,-1.340564E-07,NaN,0.3510494,2.721153E-09,NaN,-0.4970037,1.644805E-05,-0.3553026,1.108899E-08,NaN,NaN,-0.02002181,-2.980241E-10,-1.784632E-07,-1.11736E-07,-3.633223E-08,-2.861022E-08
546.1887,0.04489156,-9.194479E-09,NaN,-0.3291079,-1.340559E-07,NaN,0.352084,2.779914E-09,NaN,-0.4902465,1.644855E-05,-0.3551627,1.103192E-08,NaN,NaN,-0.02001726,-3.026807E-10,-1.432965E-07,-1.117347E-07,-3.156386E-08,-2.622604E-08
546.2032,0.04489197,-9.193661E-09,NaN,-0.3290851,-1.340555E-07,NaN,0.3531499,2.837636E-09,NaN,-0.483211,1.644904E-05,-0.3550802,1.097588E-08,NaN,NaN,-0.02001334,-3.026807E-10,-1.130471E-07,-1.117334E-07,-3.156386E-08,-2.861022E-08
546.2181,0.04489197,-9.193661E-09,NaN,-0.3290851,-1.340555E-07,NaN,0.3531499,2.837636E-09,NaN,-0.483211,1.644904E-05,-0.3550802,1.097588E-08,NaN,NaN,-0.02001334,-3.026807E-10,-1.130471E-07,-1.117334E-07,-3.156386E-08,-2.861022E-08
546.2321,0.04489237,-9.192843E-09,NaN,-0.3290625,-1.34055E-07,NaN,0.3542331,2.897161E-09,NaN,-0.4761015,1.644953E-05,-0.3550485,1.091804E-08,NaN,NaN,-0.02000967,-3.073374E-10,-8.592701E-08,-1.117322E-07,-3.633223E-08,-2.622604E-08
546.2477,0.04489278,-9.192025E-09,NaN,-0.3290401,-1.340546E-07,NaN,0.3552995,2.955633E-09,NaN,-0.4688705,1.645001E-05,-0.3550301,1.086125E-08,NaN,NaN,-0.02000563,-2.980241E-10,-5.731678E-08,-1.117309E-07,-3.156386E-08,-2.861022E-08
546.2623,0.04489318,-9.191208E-09,NaN,-0.3290181,-1.340531E-07,NaN,0.3563571,1.55305E-09,NaN,-0.4616265,1.64505E-05,-0.3550345,1.212328E-08,NaN,NaN,-0.02000181,-3.026807E-10,-3.123975E-08,-1.117278E-07,-2.917967E-08,-2.861022E-08
546.2785,0.04489318,-9.191208E-09,NaN,-0.3290181,-1.340531E-07,NaN,0.3563571,1.55305E-09,NaN,-0.4616265,1.64505E-05,-0.3550345,1.212328E-08,NaN,NaN,-0.02000181,-3.026807E-10,-3.123975E-08,-1.117278E-07,-2.917967E-08,-2.861022E-08
546.2909,0.04489358,-9.190391E-09,NaN,-0.3289964,-1.340507E-07,NaN,0.3574044,1.504661E-10,NaN,-0.4544358,1.645097E-05,-0.3550608,1.327936E-08,NaN,NaN,-0.01999808,-2.980241E-10,-5.31173E-09,-1.11724E-07,-2.917967E-08,-2.861022E-08
546.3073,0.04489398,-9.189574E-09,NaN,-0.3289748,-1.340478E-07,NaN,0.3584381,-1.252117E-09,NaN,-0.4473295,1.645145E-05,-0.3551046,1.435616E-08,NaN,NaN,-0.01999436,-2.980241E-10,2.002024E-08,-1.1172E-07,-3.156386E-08,-2.861022E-08
546.3213,0.04489438,-9.188756E-09,NaN,-0.3289536,-1.340446E-07,NaN,0.3594559,-2.654701E-09,NaN,-0.4403214,1.645193E-05,-0.3551623,1.537325E-08,NaN,NaN,-0.01999063,-2.980241E-10,4.177594E-08,-1.117158E-07,-3.156386E-08,-2.861022E-08
546.3358,0.04489438,-9.188756E-09,NaN,-0.3289536,-1.340446E-07,NaN,0.3594559,-2.654701E-09,NaN,-0.4403214,1.645193E-05,-0.3551623,1.537325E-08,NaN,NaN,-0.01999063,-2.980241E-10,4.177594E-08,-1.117158E-07,-3.156386E-08,-2.861022E-08
546.3497,0.04489478,-9.187939E-09,NaN,-0.3289326,-1.340412E-07,NaN,0.3604569,-4.057284E-09,NaN,-0.4334173,1.645241E-05,-0.3552315,1.634502E-08,NaN,NaN,-0.01998688,-2.980241E-10,6.353163E-08,-1.117115E-07,-3.633223E-08,-2.861022E-08
546.3649,0.04489518,-9.187122E-09,NaN,-0.3289119,-1.340378E-07,NaN,0.3614408,-5.459868E-09,NaN,-0.4266193,1.64529E-05,-0.3553106,1.728205E-08,NaN,NaN,-0.01998311,-3.026807E-10,8.647942E-08,-1.117072E-07,-3.156386E-08,-2.861022E-08
546.3796,0.04489518,-9.187122E-09,NaN,-0.3289119,-1.340378E-07,NaN,0.3614408,-5.459868E-09,NaN,-0.4266193,1.64529E-05,-0.3553106,1.728205E-08,NaN,NaN,-0.01998311,-3.026807E-10,8.647942E-08,-1.117072E-07,-3.156386E-08,-2.861022E-08
546.3934,0.04489557,-9.186306E-09,NaN,-0.3288914,-1.340344E-07,NaN,0.362408,-6.862451E-09,NaN,-0.4199273,1.645338E-05,-0.3553988,1.819211E-08,NaN,NaN,-0.01997931,-3.073374E-10,1.077881E-07,-1.117029E-07,-2.44113E-08,-2.861022E-08
546.4088,0.04489597,-9.18549E-09,NaN,-0.3288712,-1.340309E-07,NaN,0.3633589,-8.265035E-09,NaN,-0.4133404,1.645387E-05,-0.3554955,1.908093E-08,NaN,NaN,-0.01997548,-3.11994E-10,1.295438E-07,-1.116985E-07,-2.679548E-08,-2.861022E-08
546.4234,0.04489636,-9.184673E-09,NaN,-0.3288512,-1.340275E-07,NaN,0.3642944,-9.667619E-09,NaN,-0.4068575,1.645435E-05,-0.3556005,1.995272E-08,NaN,NaN,-0.01997161,-3.166506E-10,1.492133E-07,-1.116942E-07,-2.679548E-08,-2.861022E-08
546.4382,0.04489636,-9.184673E-09,NaN,-0.3288512,-1.340275E-07,NaN,0.3642944,-9.667619E-09,NaN,-0.4068575,1.645435E-05,-0.3556005,1.995272E-08,NaN,NaN,-0.01997161,-3.166506E-10,1.492133E-07,-1.116942E-07,-2.679548E-08,-2.861022E-08
546.4521,0.04489675,-9.183857E-09,NaN,-0.3288314,-1.34024E-07,NaN,0.3652148,-1.10702E-08,NaN,-0.4004769,1.645483E-05,-0.3557135,2.081057E-08,NaN,NaN,-0.01996771,-3.166506E-10,1.676907E-07,-1.116899E-07,-2.917967E-08,-2.861022E-08
546.4675,0.04489714,-9.183041E-09,NaN,-0.3288119,-1.340205E-07,NaN,0.3661208,-1.247279E-08,NaN,-0.3941973,1.645532E-05,-0.3558344,2.165678E-08,NaN,NaN,-0.01996377,-3.259638E-10,1.867642E-07,-1.116856E-07,-2.917967E-08,-2.861022E-08
546.4823,0.04489753,-9.182225E-09,NaN,-0.3287927,-1.340171E-07,NaN,0.367013,-1.387537E-08,NaN,-0.3880171,1.64558E-05,-0.355963,2.249304E-08,NaN,NaN,-0.01995979,-3.259638E-10,2.046456E-07,-1.116813E-07,-2.679548E-08,-2.861022E-08
546.4968,0.04489753,-9.182225E-09,NaN,-0.3287927,-1.340171E-07,NaN,0.367013,-1.387537E-08,NaN,-0.3880171,1.64558E-05,-0.355963,2.249304E-08,NaN,NaN,-0.01995979,-3.259638E-10,2.046456E-07,-1.116813E-07,-2.679548E-08,-2.861022E-08
546.5107,0.04489791,-9.181409E-09,NaN,-0.3287736,-1.340136E-07,NaN,0.3678919,-1.527795E-08,NaN,-0.3819346,1.645627E-05,-0.3560991,2.332059E-08,NaN,NaN,-0.01995577,-3.213072E-10,2.22378E-07,-1.11677E-07,-2.44113E-08,-2.861022E-08
546.5261,0.0448983,-9.180592E-09,NaN,-0.3287548,-1.340102E-07,NaN,0.3687579,-1.668054E-08,NaN,-0.3759484,1.645675E-05,-0.3562426,2.414036E-08,NaN,NaN,-0.01995171,-3.166506E-10,2.399613E-07,-1.116727E-07,-2.44113E-08,-2.861022E-08
546.5408,0.04489868,-9.179776E-09,NaN,-0.3287363,-1.340067E-07,NaN,0.3696115,-1.808312E-08,NaN,-0.370057,1.645724E-05,-0.3563934,2.495304E-08,NaN,NaN,-0.01994759,-3.259638E-10,2.554585E-07,-1.116684E-07,-2.202711E-08,-2.861022E-08
546.5554,0.04489868,-9.179776E-09,NaN,-0.3287363,-1.340067E-07,NaN,0.3696115,-1.808312E-08,NaN,-0.370057,1.645724E-05,-0.3563934,2.495304E-08,NaN,NaN,-0.01994759,-3.259638E-10,2.554585E-07,-1.116684E-07,-2.202711E-08,-2.861022E-08
546.5693,0.04489907,-9.17896E-09,NaN,-0.3287179,-1.340033E-07,NaN,0.3704531,-1.94857E-08,NaN,-0.3642588,1.645773E-05,-0.3565514,2.575915E-08,NaN,NaN,-0.01994343,-3.35277E-10,2.715518E-07,-1.116641E-07,-2.202711E-08,-2.861022E-08
546.5867,0.04489945,-9.178144E-09,NaN,-0.3286998,-1.339998E-07,NaN,0.3712831,-2.088828E-08,NaN,-0.3585524,1.645821E-05,-0.3567165,2.655907E-08,NaN,NaN,-0.01993922,-3.306204E-10,2.87198E-07,-1.116599E-07,-1.725874E-08,-2.861022E-08
546.6005,0.04489983,-9.177327E-09,NaN,-0.3286819,-1.339964E-07,NaN,0.3721021,-2.229087E-08,NaN,-0.3529363,1.64587E-05,-0.3568884,2.735309E-08,NaN,NaN,-0.01993496,-3.35277E-10,3.029932E-07,-1.116556E-07,-1.487456E-08,-2.861022E-08
546.6141,0.04489983,-9.177327E-09,NaN,-0.3286819,-1.339964E-07,NaN,0.3721021,-2.229087E-08,NaN,-0.3529363,1.64587E-05,-0.3568884,2.735309E-08,NaN,NaN,-0.01993496,-3.35277E-10,3.029932E-07,-1.116556E-07,-1.487456E-08,-2.861022E-08
546.6279,0.0449002,-9.176512E-09,NaN,-0.3286642,-1.33993E-07,NaN,0.3729102,-2.369345E-08,NaN,-0.3474092,1.645918E-05,-0.3570672,2.814145E-08,NaN,NaN,-0.01993064,-3.399336E-10,3.170003E-07,-1.116514E-07,-1.964293E-08,-2.861022E-08
546.6433,0.04490058,-9.175697E-09,NaN,-0.3286467,-1.339895E-07,NaN,0.373708,-2.509603E-08,NaN,-0.3419695,1.645966E-05,-0.3572526,2.892431E-08,NaN,NaN,-0.01992626,-3.445902E-10,3.299643E-07,-1.116471E-07,-1.725874E-08,-2.861022E-08
546.6576,0.04490058,-9.175697E-09,NaN,-0.3286467,-1.339895E-07,NaN,0.373708,-2.509603E-08,NaN,-0.3419695,1.645966E-05,-0.3572526,2.892431E-08,NaN,NaN,-0.01992626,-3.445902E-10,3.299643E-07,-1.116471E-07,-1.725874E-08,-2.861022E-08
546.6714,0.04490095,-9.174881E-09,NaN,-0.3286294,-1.339861E-07,NaN,0.3744957,-2.649862E-08,NaN,-0.3366159,1.646014E-05,-0.3574446,2.970182E-08,NaN,NaN,-0.01992183,-3.445902E-10,3.442694E-07,-1.116429E-07,-1.964293E-08,-2.861022E-08
546.6869,0.04490133,-9.174066E-09,NaN,-0.3286123,-1.339827E-07,NaN,0.3752738,-2.79012E-08,NaN,-0.331347,1.646063E-05,-0.3576431,3.047407E-08,NaN,NaN,-0.01991734,-3.492468E-10,3.573824E-07,-1.116386E-07,-1.725874E-08,-2.861022E-08
546.7014,0.0449017,-9.173251E-09,NaN,-0.3285955,-1.339792E-07,NaN,0.3760425,-2.930378E-08,NaN,-0.3261616,1.646111E-05,-0.3578479,3.124115E-08,NaN,NaN,-0.01991278,-3.539034E-10,3.701975E-07,-1.116344E-07,-1.725874E-08,-2.861022E-08
546.7162,0.0449017,-9.173251E-09,NaN,-0.3285955,-1.339792E-07,NaN,0.3760425,-2.930378E-08,NaN,-0.3261616,1.646111E-05,-0.3578479,3.124115E-08,NaN,NaN,-0.01991278,-3.539034E-10,3.701975E-07,-1.116344E-07,-1.725874E-08,-2.861022E-08
546.7301,0.04490207,-9.172435E-09,NaN,-0.3285788,-1.339758E-07,NaN,0.3768023,-3.070637E-08,NaN,-0.3210583,1.64616E-05,-0.358059,3.200315E-08,NaN,NaN,-0.01990816,-3.5856E-10,3.834595E-07,-1.116302E-07,-1.964293E-08,-2.861022E-08
546.7456,0.04490244,-9.17162E-09,NaN,-0.3285623,-1.339723E-07,NaN,0.3775534,-3.210895E-08,NaN,-0.3160357,1.646208E-05,-0.3582762,3.276012E-08,NaN,NaN,-0.01990347,-3.632167E-10,3.955294E-07,-1.116259E-07,-1.725874E-08,-2.861022E-08
546.7614,0.04490281,-9.170805E-09,NaN,-0.3285461,-1.339689E-07,NaN,0.3782963,-3.351153E-08,NaN,-0.3110927,1.646256E-05,-0.3584994,3.351212E-08,NaN,NaN,-0.01989871,-3.632167E-10,4.075993E-07,-1.116217E-07,-1.487456E-08,-2.861022E-08
546.775,0.04490281,-9.170805E-09,NaN,-0.3285461,-1.339689E-07,NaN,0.3782963,-3.351153E-08,NaN,-0.3110927,1.646256E-05,-0.3584994,3.351212E-08,NaN,NaN,-0.01989871,-3.632167E-10,4.075993E-07,-1.116217E-07,-1.487456E-08,-2.861022E-08
546.7888,0.04490317,-9.169989E-09,NaN,-0.32853,-1.339655E-07,NaN,0.3790311,-3.491412E-08,NaN,-0.3062279,1.646304E-05,-0.3587286,3.425919E-08,NaN,NaN,-0.01989388,-3.5856E-10,4.177321E-07,-1.116175E-07,-1.487456E-08,-2.861022E-08
546.804,0.04490354,-9.169174E-09,NaN,-0.3285142,-1.33962E-07,NaN,0.3797582,-3.63167E-08,NaN,-0.3014401,1.646352E-05,-0.3589637,3.500138E-08,NaN,NaN,-0.01988897,-3.539034E-10,4.280139E-07,-1.116133E-07,-1.487456E-08,-2.861022E-08
546.8187,0.04490354,-9.169174E-09,NaN,-0.3285142,-1.33962E-07,NaN,0.3797582,-3.63167E-08,NaN,-0.3014401,1.646352E-05,-0.3589637,3.500138E-08,NaN,NaN,-0.01988897,-3.539034E-10,4.280139E-07,-1.116133E-07,-1.487456E-08,-2.861022E-08
546.8327,0.0449039,-9.168359E-09,NaN,-0.3284985,-1.339586E-07,NaN,0.3804779,-3.771928E-08,NaN,-0.2967282,1.646399E-05,-0.3592045,3.573873E-08,NaN,NaN,-0.01988398,-3.492468E-10,4.381467E-07,-1.116091E-07,-1.010619E-08,-2.861022E-08
546.8482,0.04490426,-9.167543E-09,NaN,-0.328483,-1.339551E-07,NaN,0.3811906,-3.912186E-08,NaN,-0.2920908,1.646447E-05,-0.359451,3.647127E-08,NaN,NaN,-0.01987892,-3.492468E-10,4.482795E-07,-1.116049E-07,-1.487456E-08,-2.861022E-08
546.8624,0.04490462,-9.166729E-09,NaN,-0.3284677,-1.339517E-07,NaN,0.3818964,-4.052445E-08,NaN,-0.2875268,1.646495E-05,-0.3597031,3.719904E-08,NaN,NaN,-0.01987377,-3.492468E-10,4.575183E-07,-1.116007E-07,-1.725874E-08,-2.861022E-08
546.8781,0.04490462,-9.166729E-09,NaN,-0.3284677,-1.339517E-07,NaN,0.3818964,-4.052445E-08,NaN,-0.2875268,1.646495E-05,-0.3597031,3.719904E-08,NaN,NaN,-0.01987377,-3.492468E-10,4.575183E-07,-1.116007E-07,-1.725874E-08,-2.861022E-08
546.892,0.04490498,-9.165914E-09,NaN,-0.3284526,-1.339483E-07,NaN,0.3825958,-4.192703E-08,NaN,-0.2830352,1.646543E-05,-0.3599608,3.792209E-08,NaN,NaN,-0.01986855,-3.492468E-10,4.66459E-07,-1.115965E-07,-2.202712E-08,-2.861022E-08
546.9065,0.04490534,-9.1651E-09,NaN,-0.3284377,-1.339448E-07,NaN,0.3832889,-4.332961E-08,NaN,-0.2786146,1.646592E-05,-0.3602238,3.864043E-08,NaN,NaN,-0.01986323,-3.5856E-10,4.759957E-07,-1.115923E-07,-1.964293E-08,-2.861022E-08
546.921,0.0449057,-9.164285E-09,NaN,-0.3284229,-1.339425E-07,NaN,0.383976,-4.370507E-08,NaN,-0.274264,1.646641E-05,-0.3604923,3.846886E-08,NaN,NaN,-0.01985782,-3.5856E-10,4.852344E-07,-1.115901E-07,-1.487456E-08,-2.622604E-08
546.9355,0.0449057,-9.164285E-09,NaN,-0.3284229,-1.339425E-07,NaN,0.383976,-4.370507E-08,NaN,-0.274264,1.646641E-05,-0.3604923,3.846886E-08,NaN,NaN,-0.01985782,-3.5856E-10,4.852344E-07,-1.115901E-07,-1.487456E-08,-2.622604E-08
546.9495,0.04490605,-9.163472E-09,NaN,-0.3284084,-1.33941E-07,NaN,0.3846574,-4.373436E-08,NaN,-0.2699823,1.64669E-05,-0.360766,3.806088E-08,NaN,NaN,-0.01985233,-3.5856E-10,4.935791E-07,-1.115884E-07,-1.249037E-08,-2.861022E-08
546.9646,0.0449064,-9.162658E-09,NaN,-0.328394,-1.339401E-07,NaN,0.3853333,-4.354278E-08,NaN,-0.2657684,1.646739E-05,-0.3610449,3.751982E-08,NaN,NaN,-0.01984674,-3.5856E-10,5.019238E-07,-1.115871E-07,-1.487456E-08,-2.622604E-08
546.9795,0.0449064,-9.162658E-09,NaN,-0.328394,-1.339401E-07,NaN,0.3853333,-4.354278E-08,NaN,-0.2657684,1.646739E-05,-0.3610449,3.751982E-08,NaN,NaN,-0.01984674,-3.5856E-10,5.019238E-07,-1.115871E-07,-1.487456E-08,-2.622604E-08
546.9932,0.04490676,-9.161845E-09,NaN,-0.3283797,-1.339395E-07,NaN,0.3860041,-4.321254E-08,NaN,-0.2616212,1.646787E-05,-0.361329,3.691034E-08,NaN,NaN,-0.01984105,-3.492468E-10,5.090763E-07,-1.115861E-07,-1.487456E-08,-2.861022E-08
547.0085,0.04490711,-9.161031E-09,NaN,-0.3283657,-1.339392E-07,NaN,0.3866698,-4.278721E-08,NaN,-0.2575397,1.646837E-05,-0.3616183,3.626196E-08,NaN,NaN,-0.01983526,-3.492468E-10,5.159308E-07,-1.115851E-07,-1.249037E-08,-2.622604E-08
547.0231,0.04490746,-9.160217E-09,NaN,-0.3283518,-1.339389E-07,NaN,0.3873309,-4.230137E-08,NaN,-0.2535228,1.646886E-05,-0.3619125,3.559802E-08,NaN,NaN,-0.01982937,-3.445902E-10,5.227853E-07,-1.115842E-07,-1.487456E-08,-2.861022E-08
547.0378,0.04490746,-9.160217E-09,NaN,-0.3283518,-1.339389E-07,NaN,0.3873309,-4.230137E-08,NaN,-0.2535228,1.646886E-05,-0.3619125,3.559802E-08,NaN,NaN,-0.01982937,-3.445902E-10,5.227853E-07,-1.115842E-07,-1.487456E-08,-2.861022E-08
547.0519,0.04490781,-9.159404E-09,NaN,-0.328338,-1.339387E-07,NaN,0.3879875,-4.177559E-08,NaN,-0.2495696,1.646935E-05,-0.3622116,3.493009E-08,NaN,NaN,-0.01982337,-3.445902E-10,5.296399E-07,-1.115834E-07,-1.010619E-08,-2.622604E-08
547.0673,0.04490815,-9.15859E-09,NaN,-0.3283245,-1.339386E-07,NaN,0.3886397,-4.12256E-08,NaN,-0.2456789,1.646984E-05,-0.3625157,3.426672E-08,NaN,NaN,-0.01981727,-3.445902E-10,5.364944E-07,-1.115826E-07,-7.722001E-09,-2.861022E-08
547.0819,0.0449085,-9.157777E-09,NaN,-0.3283111,-1.339384E-07,NaN,0.389288,-4.065706E-08,NaN,-0.2418498,1.647033E-05,-0.3628246,3.360781E-08,NaN,NaN,-0.01981105,-3.445902E-10,5.421568E-07,-1.115819E-07,-5.694436E-10,-2.622604E-08
547.0967,0.0449085,-9.157777E-09,NaN,-0.3283111,-1.339384E-07,NaN,0.389288,-4.065706E-08,NaN,-0.2418498,1.647033E-05,-0.3628246,3.360781E-08,NaN,NaN,-0.01981105,-3.445902E-10,5.421568E-07,-1.115819E-07,-5.694436E-10,-2.622604E-08
547.1107,0.04490885,-9.156963E-09,NaN,-0.3282978,-1.339383E-07,NaN,0.3899324,-4.008012E-08,NaN,-0.2380814,1.647082E-05,-0.3631383,3.295893E-08,NaN,NaN,-0.01980473,-3.35277E-10,5.478193E-07,-1.115811E-07,-5.694436E-10,-2.861022E-08
547.1262,0.04490919,-9.15615E-09,NaN,-0.3282847,-1.339382E-07,NaN,0.3905732,-3.94983E-08,NaN,-0.2343726,1.647131E-05,-0.3634568,3.231988E-08,NaN,NaN,-0.01979828,-3.306204E-10,5.534818E-07,-1.115804E-07,1.814742E-09,-2.622604E-08
547.1405,0.04490953,-9.155336E-09,NaN,-0.3282718,-1.339381E-07,NaN,0.3912106,-3.891433E-08,NaN,-0.2307226,1.647179E-05,-0.3637799,3.169046E-08,NaN,NaN,-0.01979172,-3.259638E-10,5.582501E-07,-1.115796E-07,-5.694436E-10,-2.861022E-08
547.1573,0.04490953,-9.155336E-09,NaN,-0.3282718,-1.339381E-07,NaN,0.3912106,-3.891433E-08,NaN,-0.2307226,1.647179E-05,-0.3637799,3.169046E-08,NaN,NaN,-0.01979172,-3.259638E-10,5.582501E-07,-1.115796E-07,-5.694436E-10,-2.861022E-08
547.1703,0.04490987,-9.154522E-09,NaN,-0.328259,-1.33938E-07,NaN,0.3918447,-3.833319E-08,NaN,-0.2271304,1.647228E-05,-0.3641076,3.10733E-08,NaN,NaN,-0.01978503,-3.259638E-10,5.642106E-07,-1.115789E-07,-2.953629E-09,-2.622604E-08
547.1845,0.04491021,-9.153709E-09,NaN,-0.3282464,-1.339379E-07,NaN,0.3924757,-3.77537E-08,NaN,-0.2235951,1.647278E-05,-0.3644399,3.046534E-08,NaN,NaN,-0.01977822,-3.259638E-10,5.68979E-07,-1.115781E-07,-5.694436E-10,-2.861022E-08
547.1993,0.04491021,-9.153709E-09,NaN,-0.3282464,-1.339379E-07,NaN,0.3924757,-3.77537E-08,NaN,-0.2235951,1.647278E-05,-0.3644399,3.046534E-08,NaN,NaN,-0.01977822,-3.259638E-10,5.68979E-07,-1.115781E-07,-5.694436E-10,-2.861022E-08
547.2133,0.04491055,-9.152895E-09,NaN,-0.328234,-1.339378E-07,NaN,0.3931039,-3.718002E-08,NaN,-0.2201158,1.647328E-05,-0.3647767,2.986922E-08,NaN,NaN,-0.01977128,-3.259638E-10,5.722572E-07,-1.115774E-07,1.814742E-09,-2.622604E-08
547.2298,0.04491089,-9.152082E-09,NaN,-0.3282216,-1.339377E-07,NaN,0.3937294,-3.661312E-08,NaN,-0.2166915,1.647377E-05,-0.3651179,2.928471E-08,NaN,NaN,-0.01976421,-3.259638E-10,5.761315E-07,-1.115767E-07,1.814742E-09,-2.861022E-08
547.2429,0.04491122,-9.151268E-09,NaN,-0.3282095,-1.339376E-07,NaN,0.3943524,-3.605374E-08,NaN,-0.2133215,1.647427E-05,-0.3654636,2.871157E-08,NaN,NaN,-0.01975701,-3.259638E-10,5.797078E-07,-1.115759E-07,-2.953629E-09,-2.622604E-08
547.2576,0.04491122,-9.151268E-09,NaN,-0.3282095,-1.339376E-07,NaN,0.3943524,-3.605374E-08,NaN,-0.2133215,1.647427E-05,-0.3654636,2.871157E-08,NaN,NaN,-0.01975701,-3.259638E-10,5.797078E-07,-1.115759E-07,-2.953629E-09,-2.622604E-08
547.2718,0.04491156,-9.150455E-09,NaN,-0.3281975,-1.339375E-07,NaN,0.394973,-3.549961E-08,NaN,-0.2100049,1.647476E-05,-0.3658136,2.814677E-08,NaN,NaN,-0.01974967,-3.259638E-10,5.838801E-07,-1.115752E-07,-2.953629E-09,-2.861022E-08
547.2872,0.04491189,-9.149641E-09,NaN,-0.3281856,-1.339374E-07,NaN,0.3955914,-3.4954E-08,NaN,-0.2067408,1.647525E-05,-0.3661679,2.759297E-08,NaN,NaN,-0.01974219,-3.306204E-10,5.859663E-07,-1.115745E-07,-5.694436E-10,-2.622604E-08
547.3018,0.04491222,-9.148827E-09,NaN,-0.3281738,-1.339373E-07,NaN,0.3962078,-3.441719E-08,NaN,-0.2035284,1.647573E-05,-0.3665265,2.704994E-08,NaN,NaN,-0.01973457,-3.213072E-10,5.895426E-07,-1.115738E-07,4.198928E-09,-2.861022E-08
547.3167,0.04491222,-9.148827E-09,NaN,-0.3281738,-1.339373E-07,NaN,0.3962078,-3.441719E-08,NaN,-0.2035284,1.647573E-05,-0.3665265,2.704994E-08,NaN,NaN,-0.01973457,-3.213072E-10,5.895426E-07,-1.115738E-07,4.198928E-09,-2.861022E-08
547.3306,0.04491255,-9.148014E-09,NaN,-0.3281623,-1.339372E-07,NaN,0.3968222,-3.388654E-08,NaN,-0.2003669,1.647623E-05,-0.3668893,2.651465E-08,NaN,NaN,-0.0197268,-3.259638E-10,5.919268E-07,-1.115731E-07,1.814742E-09,-2.622604E-08
547.3462,0.04491288,-9.1472E-09,NaN,-0.3281508,-1.339371E-07,NaN,0.3974349,-3.336504E-08,NaN,-0.1972555,1.647671E-05,-0.3672563,2.598978E-08,NaN,NaN,-0.01971888,-3.166506E-10,5.955031E-07,-1.115723E-07,4.198928E-09,-2.861022E-08
547.3607,0.04491321,-9.146387E-09,NaN,-0.3281395,-1.33937E-07,NaN,0.398046,-3.285274E-08,NaN,-0.1941933,1.64772E-05,-0.3676273,2.547512E-08,NaN,NaN,-0.01971081,-3.213072E-10,5.987814E-07,-1.115716E-07,4.198928E-09,-2.622604E-08
547.3751,0.04491321,-9.146387E-09,NaN,-0.3281395,-1.33937E-07,NaN,0.398046,-3.285274E-08,NaN,-0.1941933,1.64772E-05,-0.3676273,2.547512E-08,NaN,NaN,-0.01971081,-3.213072E-10,5.987814E-07,-1.115716E-07,4.198928E-09,-2.622604E-08
547.3893,0.04491353,-9.145573E-09,NaN,-0.3281283,-1.339369E-07,NaN,0.3986556,-3.234965E-08,NaN,-0.1911797,1.647768E-05,-0.3680024,2.497048E-08,NaN,NaN,-0.01970258,-3.11994E-10,6.011655E-07,-1.115709E-07,8.9673E-09,-2.861022E-08
547.4048,0.04491386,-9.14476E-09,NaN,-0.3281172,-1.339368E-07,NaN,0.3992638,-3.18529E-08,NaN,-0.1882138,1.647817E-05,-0.3683816,2.447282E-08,NaN,NaN,-0.01969419,-3.166506E-10,6.032517E-07,-1.115702E-07,8.9673E-09,-2.622604E-08
547.4194,0.04491386,-9.14476E-09,NaN,-0.3281172,-1.339368E-07,NaN,0.3992638,-3.18529E-08,NaN,-0.1882138,1.647817E-05,-0.3683816,2.447282E-08,NaN,NaN,-0.01969419,-3.166506E-10,6.032517E-07,-1.115702E-07,8.9673E-09,-2.622604E-08
547.4354,0.04491418,-9.143946E-09,NaN,-0.3281063,-1.339367E-07,NaN,0.3998708,-3.136531E-08,NaN,-0.1852949,1.647866E-05,-0.3687646,2.398484E-08,NaN,NaN,-0.01968564,-3.166506E-10,6.044438E-07,-1.115695E-07,1.135149E-08,-2.861022E-08
547.4501,0.04491451,-9.143132E-09,NaN,-0.3280955,-1.339366E-07,NaN,0.4004766,-3.088679E-08,NaN,-0.1824222,1.647916E-05,-0.3691516,2.350635E-08,NaN,NaN,-0.01967692,-3.213072E-10,6.074241E-07,-1.115688E-07,1.373567E-08,-2.622604E-08
547.4635,0.04491483,-9.142319E-09,NaN,-0.3280849,-1.339365E-07,NaN,0.4010814,-3.041724E-08,NaN,-0.1795951,1.647966E-05,-0.3695424,2.303716E-08,NaN,NaN,-0.01966803,-3.213072E-10,6.095102E-07,-1.115681E-07,1.373567E-08,-2.861022E-08
547.4778,0.04491483,-9.142319E-09,NaN,-0.3280849,-1.339365E-07,NaN,0.4010814,-3.041724E-08,NaN,-0.1795951,1.647966E-05,-0.3695424,2.303716E-08,NaN,NaN,-0.01966803,-3.213072E-10,6.095102E-07,-1.115681E-07,1.373567E-08,-2.861022E-08
547.4919,0.04491515,-9.141505E-09,NaN,-0.3280743,-1.339364E-07,NaN,0.4016852,-2.995654E-08,NaN,-0.1768127,1.648016E-05,-0.369937,2.257709E-08,NaN,NaN,-0.01965897,-3.259638E-10,6.118944E-07,-1.115674E-07,1.373567E-08,-2.622604E-08
547.507,0.04491547,-9.140692E-09,NaN,-0.3280639,-1.339363E-07,NaN,0.4022882,-2.950174E-08,NaN,-0.1740744,1.648065E-05,-0.3703353,2.212313E-08,NaN,NaN,-0.01964973,-3.166506E-10,6.136825E-07,-1.115667E-07,1.611986E-08,-2.861022E-08
547.5216,0.04491578,-9.139878E-09,NaN,-0.3280536,-1.339362E-07,NaN,0.4028904,-2.905559E-08,NaN,-0.1713795,1.648115E-05,-0.3707373,2.167799E-08,NaN,NaN,-0.01964032,-3.213072E-10,6.160667E-07,-1.11566E-07,1.611986E-08,-2.622604E-08
547.5363,0.04491578,-9.139878E-09,NaN,-0.3280536,-1.339362E-07,NaN,0.4028904,-2.905559E-08,NaN,-0.1713795,1.648115E-05,-0.3707373,2.167799E-08,NaN,NaN,-0.01964032,-3.213072E-10,6.160667E-07,-1.11566E-07,1.611986E-08,-2.622604E-08
547.5502,0.0449161,-9.139065E-09,NaN,-0.3280435,-1.339362E-07,NaN,0.403492,-2.861796E-08,NaN,-0.1687273,1.648165E-05,-0.3711428,2.12415E-08,NaN,NaN,-0.01963072,-3.213072E-10,6.181529E-07,-1.115653E-07,8.967298E-09,-2.861022E-08
547.5658,0.04491642,-9.138251E-09,NaN,-0.3280334,-1.339361E-07,NaN,0.4040929,-2.818869E-08,NaN,-0.1661171,1.648215E-05,-0.371552,2.081348E-08,NaN,NaN,-0.01962095,-3.259638E-10,6.196429E-07,-1.115646E-07,6.583112E-09,-2.622604E-08
547.5804,0.04491673,-9.137437E-09,NaN,-0.3280235,-1.33936E-07,NaN,0.4046933,-2.776482E-08,NaN,-0.1635483,1.648265E-05,-0.3719646,2.039095E-08,NaN,NaN,-0.01961098,-3.259638E-10,6.20239E-07,-1.11564E-07,-5.694449E-10,-2.861022E-08
547.5948,0.04491673,-9.137437E-09,NaN,-0.3280235,-1.33936E-07,NaN,0.4046933,-2.776482E-08,NaN,-0.1635483,1.648265E-05,-0.3719646,2.039095E-08,NaN,NaN,-0.01961098,-3.259638E-10,6.20239E-07,-1.11564E-07,-5.694449E-10,-2.861022E-08
547.6089,0.04491704,-9.136624E-09,NaN,-0.3280137,-1.339359E-07,NaN,0.4052933,-2.734908E-08,NaN,-0.1610202,1.648315E-05,-0.3723806,1.997662E-08,NaN,NaN,-0.01960081,-3.306204E-10,6.196429E-07,-1.115633E-07,-1.010619E-08,-2.622604E-08
547.6244,0.04491736,-9.13581E-09,NaN,-0.328004,-1.339358E-07,NaN,0.4058928,-2.694133E-08,NaN,-0.1585322,1.648365E-05,-0.3727999,1.957034E-08,NaN,NaN,-0.01959046,-3.306204E-10,6.20239E-07,-1.115626E-07,-1.249037E-08,-2.861022E-08
547.6389,0.04491736,-9.13581E-09,NaN,-0.328004,-1.339358E-07,NaN,0.4058928,-2.694133E-08,NaN,-0.1585322,1.648365E-05,-0.3727999,1.957034E-08,NaN,NaN,-0.01959046,-3.306204E-10,6.20239E-07,-1.115626E-07,-1.249037E-08,-2.861022E-08
547.6528,0.04491767,-9.134997E-09,NaN,-0.3279944,-1.339357E-07,NaN,0.4064919,-2.654142E-08,NaN,-0.1560836,1.648415E-05,-0.3732225,1.917194E-08,NaN,NaN,-0.01957991,-3.35277E-10,6.19941E-07,-1.115619E-07,-1.249037E-08,-2.622604E-08
547.6683,0.04491797,-9.134183E-09,NaN,-0.327985,-1.339356E-07,NaN,0.4070906,-2.614638E-08,NaN,-0.1536737,1.648464E-05,-0.3736483,1.877844E-08,NaN,NaN,-0.01956915,-3.259638E-10,6.19941E-07,-1.115612E-07,-1.010619E-08,-2.861022E-08
547.6832,0.04491828,-9.13337E-09,NaN,-0.3279757,-1.339356E-07,NaN,0.4076891,-2.575894E-08,NaN,-0.1513021,1.648514E-05,-0.3740772,1.839258E-08,NaN,NaN,-0.0195582,-3.259638E-10,6.217291E-07,-1.115606E-07,-1.249037E-08,-2.622604E-08
547.6977,0.04491828,-9.13337E-09,NaN,-0.3279757,-1.339356E-07,NaN,0.4076891,-2.575894E-08,NaN,-0.1513021,1.648514E-05,-0.3740772,1.839258E-08,NaN,NaN,-0.0195582,-3.259638E-10,6.217291E-07,-1.115606E-07,-1.249037E-08,-2.622604E-08
547.7141,0.04491859,-9.132556E-09,NaN,-0.3279664,-1.339355E-07,NaN,0.4083525,-2.537896E-08,NaN,-0.1491109,1.648565E-05,-0.3745766,1.80142E-08,NaN,NaN,-0.01955182,-3.306204E-10,6.19941E-07,-1.115599E-07,-1.487456E-08,-2.861022E-08
547.7281,0.0449189,-9.131742E-09,NaN,-0.3279573,-1.339354E-07,NaN,0.4090158,-2.50063E-08,NaN,-0.1470407,1.648616E-05,-0.3750805,1.764316E-08,NaN,NaN,-0.01954333,-3.399336E-10,6.184509E-07,-1.115592E-07,-1.249037E-08,-2.622604E-08
547.7417,0.04491921,-9.130927E-09,NaN,-0.3279483,-1.339353E-07,NaN,0.4096668,-2.464081E-08,NaN,-0.1450442,1.648666E-05,-0.3755756,1.727931E-08,NaN,NaN,-0.01953384,-3.35277E-10,6.169608E-07,-1.115586E-07,-1.010619E-08,-2.861022E-08
547.7562,0.04491921,-9.130927E-09,NaN,-0.3279483,-1.339353E-07,NaN,0.4096668,-2.464081E-08,NaN,-0.1450442,1.648666E-05,-0.3755756,1.727931E-08,NaN,NaN,-0.01953384,-3.35277E-10,6.169608E-07,-1.115586E-07,-1.010619E-08,-2.861022E-08
547.7701,0.04491951,-9.130113E-09,NaN,-0.3279394,-1.339352E-07,NaN,0.4103063,-2.427955E-08,NaN,-0.1430987,1.648717E-05,-0.3760623,1.691969E-08,NaN,NaN,-0.01952384,-3.399336E-10,6.160667E-07,-1.115579E-07,-1.249037E-08,-2.622604E-08
547.7855,0.04491983,-9.129298E-09,NaN,-0.3279306,-1.339351E-07,NaN,0.4115278,-2.392807E-08,NaN,-0.1424057,1.648768E-05,-0.3771524,1.656986E-08,NaN,NaN,-0.0195588,-3.445902E-10,5.847743E-07,-1.115572E-07,-1.725875E-08,-2.861022E-08
547.8002,0.04492014,-9.128484E-09,NaN,-0.3279219,-1.33935E-07,NaN,0.4127298,-2.358336E-08,NaN,-0.1424634,1.648819E-05,-0.3782372,1.622682E-08,NaN,NaN,-0.01957513,-3.492468E-10,5.654028E-07,-1.115566E-07,-1.249037E-08,-2.622604E-08
547.8147,0.04492014,-9.128484E-09,NaN,-0.3279219,-1.33935E-07,NaN,0.4127298,-2.358336E-08,NaN,-0.1424634,1.648819E-05,-0.3782372,1.622682E-08,NaN,NaN,-0.01957513,-3.492468E-10,5.654028E-07,-1.115566E-07,-1.249037E-08,-2.622604E-08
547.8287,0.04492045,-9.127669E-09,NaN,-0.3279133,-1.33935E-07,NaN,0.4138108,-2.324529E-08,NaN,-0.1428705,1.648868E-05,-0.3792075,1.589041E-08,NaN,NaN,-0.01958352,-3.445902E-10,5.534819E-07,-1.115559E-07,-2.953631E-09,-2.861022E-08
547.8441,0.04492075,-9.126855E-09,NaN,-0.3279049,-1.339349E-07,NaN,0.4147867,-2.290808E-08,NaN,-0.1434374,1.648919E-05,-0.3800748,1.555487E-08,NaN,NaN,-0.01958849,-3.492468E-10,5.436471E-07,-1.115553E-07,-2.953631E-09,-2.622604E-08
547.8587,0.04492075,-9.126855E-09,NaN,-0.3279049,-1.339349E-07,NaN,0.4147867,-2.290808E-08,NaN,-0.1434374,1.648919E-05,-0.3800748,1.555487E-08,NaN,NaN,-0.01958849,-3.492468E-10,5.436471E-07,-1.115553E-07,-2.953631E-09,-2.622604E-08
547.8727,0.04492107,-9.12604E-09,NaN,-0.3278965,-1.339348E-07,NaN,0.4162842,-2.257736E-08,NaN,-0.1452872,1.648969E-05,-0.3814831,1.522582E-08,NaN,NaN,-0.01963788,-3.445902E-10,5.046061E-07,-1.115546E-07,-5.337817E-09,-2.861022E-08
547.8881,0.04492138,-9.125226E-09,NaN,-0.3278883,-1.339347E-07,NaN,0.4177004,-2.225583E-08,NaN,-0.1478818,1.64902E-05,-0.3828218,1.490597E-08,NaN,NaN,-0.01966701,-3.539034E-10,4.804662E-07,-1.11554E-07,-5.337817E-09,-2.622604E-08
547.9027,0.04492169,-9.124411E-09,NaN,-0.3278801,-1.339346E-07,NaN,0.4189572,-2.194048E-08,NaN,-0.1508017,1.649071E-05,-0.3840046,1.459231E-08,NaN,NaN,-0.01968728,-3.5856E-10,4.596046E-07,-1.115533E-07,-7.722003E-09,-2.861022E-08
547.9175,0.04492169,-9.124411E-09,NaN,-0.3278801,-1.339346E-07,NaN,0.4189572,-2.194048E-08,NaN,-0.1508017,1.649071E-05,-0.3840046,1.459231E-08,NaN,NaN,-0.01968728,-3.5856E-10,4.596046E-07,-1.115533E-07,-7.722003E-09,-2.861022E-08
547.9316,0.04492201,-9.123597E-09,NaN,-0.327872,-1.339345E-07,NaN,0.4206536,-2.162838E-08,NaN,-0.1550641,1.649122E-05,-0.3856465,1.428188E-08,NaN,NaN,-0.01974632,-3.678733E-10,4.125169E-07,-1.115527E-07,-5.337817E-09,-2.622604E-08
547.9473,0.04492233,-9.122783E-09,NaN,-0.3278641,-1.339344E-07,NaN,0.422215,-2.132228E-08,NaN,-0.1600773,1.649172E-05,-0.387164,1.397747E-08,NaN,NaN,-0.01978419,-3.632167E-10,3.809265E-07,-1.115521E-07,-1.010619E-08,-2.861022E-08
547.9617,0.04492264,-9.121968E-09,NaN,-0.3278562,-1.339344E-07,NaN,0.4235833,-2.102206E-08,NaN,-0.1653987,1.649223E-05,-0.3884905,1.367893E-08,NaN,NaN,-0.01981235,-3.678733E-10,3.535083E-07,-1.115514E-07,-1.249037E-08,-2.622604E-08
547.9761,0.04492264,-9.121968E-09,NaN,-0.3278562,-1.339344E-07,NaN,0.4235833,-2.102206E-08,NaN,-0.1653987,1.649223E-05,-0.3884905,1.367893E-08,NaN,NaN,-0.01981235,-3.678733E-10,3.535083E-07,-1.115514E-07,-1.249037E-08,-2.622604E-08
547.9922,0.04492295,-9.121154E-09,NaN,-0.3278484,-1.339343E-07,NaN,0.4247971,-2.072762E-08,NaN,-0.1708202,1.649273E-05,-0.3896606,1.338617E-08,NaN,NaN,-0.01983552,-3.632167E-10,3.311566E-07,-1.115508E-07,-1.249037E-08,-2.861022E-08
548.0067,0.04492327,-9.120339E-09,NaN,-0.3278407,-1.339342E-07,NaN,0.4264063,-2.043883E-08,NaN,-0.1774628,1.649324E-05,-0.3912434,1.309907E-08,NaN,NaN,-0.01989099,-3.678733E-10,2.837709E-07,-1.115502E-07,-1.725875E-08,-2.622604E-08
548.0203,0.04492358,-9.119524E-09,NaN,-0.3278331,-1.339341E-07,NaN,0.4278957,-2.015275E-08,NaN,-0.1847745,1.649373E-05,-0.3927161,1.281469E-08,NaN,NaN,-0.0199282,-3.5856E-10,2.435377E-07,-1.115495E-07,-1.725875E-08,-2.861022E-08
548.0347,0.04492358,-9.119524E-09,NaN,-0.3278331,-1.339341E-07,NaN,0.4278957,-2.015275E-08,NaN,-0.1847745,1.649373E-05,-0.3927161,1.281469E-08,NaN,NaN,-0.0199282,-3.5856E-10,2.435377E-07,-1.115495E-07,-1.725875E-08,-2.861022E-08
548.0488,0.0449239,-9.118708E-09,NaN,-0.3278257,-1.339344E-07,NaN,0.4292028,-1.96917E-08,NaN,-0.1923377,1.649424E-05,-0.3940074,1.235532E-08,NaN,NaN,-0.01995663,-3.678733E-10,2.119473E-07,-1.11548E-07,-1.487456E-08,-2.622604E-08
548.064,0.04492421,-9.117893E-09,NaN,-0.3278183,-1.339347E-07,NaN,0.4303583,-1.926495E-08,NaN,-0.199956,1.649474E-05,-0.395144,1.193025E-08,NaN,NaN,-0.01998016,-3.678733E-10,1.82741E-07,-1.115463E-07,-1.487456E-08,-2.861022E-08
548.0786,0.04492421,-9.117893E-09,NaN,-0.3278183,-1.339347E-07,NaN,0.4303583,-1.926495E-08,NaN,-0.199956,1.649474E-05,-0.395144,1.193025E-08,NaN,NaN,-0.01998016,-3.678733E-10,1.82741E-07,-1.115463E-07,-1.487456E-08,-2.861022E-08
548.0926,0.0449245,-9.117078E-09,NaN,-0.3278109,-1.33935E-07,NaN,0.4308875,-1.885773E-08,NaN,-0.2060976,1.649526E-05,-0.3956203,1.152472E-08,NaN,NaN,-0.01996868,-3.771865E-10,1.904896E-07,-1.115447E-07,-1.010619E-08,-2.622604E-08
548.1078,0.04492479,-9.116262E-09,NaN,-0.3278037,-1.339352E-07,NaN,0.4313512,-1.846402E-08,NaN,-0.2113248,1.649576E-05,-0.396006,1.113269E-08,NaN,NaN,-0.01996937,-3.771865E-10,1.845291E-07,-1.11543E-07,-7.722003E-09,-2.861022E-08
548.1224,0.04492508,-9.115447E-09,NaN,-0.3277965,-1.339354E-07,NaN,0.4318583,-1.808073E-08,NaN,-0.2160815,1.649627E-05,-0.3964204,1.075109E-08,NaN,NaN,-0.01997445,-3.864997E-10,1.735023E-07,-1.115413E-07,-5.337817E-09,-2.622604E-08
548.1371,0.04492508,-9.115447E-09,NaN,-0.3277965,-1.339354E-07,NaN,0.4318583,-1.808073E-08,NaN,-0.2160815,1.649627E-05,-0.3964204,1.075109E-08,NaN,NaN,-0.01997445,-3.864997E-10,1.735023E-07,-1.115413E-07,-5.337817E-09,-2.622604E-08
548.1511,0.04492538,-9.114632E-09,NaN,-0.3277895,-1.339356E-07,NaN,0.4324049,-1.770484E-08,NaN,-0.2205782,1.649677E-05,-0.3968655,1.037689E-08,NaN,NaN,-0.01998094,-3.864997E-10,1.591972E-07,-1.115396E-07,-2.953631E-09,-2.861022E-08
548.1664,0.04492567,-9.113816E-09,NaN,-0.3277825,-1.339358E-07,NaN,0.4329689,-1.73362E-08,NaN,-0.2249155,1.649728E-05,-0.3973223,1.000994E-08,NaN,NaN,-0.01998767,-3.864997E-10,1.469782E-07,-1.115379E-07,1.81474E-09,-2.622604E-08
548.1813,0.04492596,-9.113001E-09,NaN,-0.3277756,-1.339359E-07,NaN,0.4335324,-1.697468E-08,NaN,-0.2291419,1.649778E-05,-0.3977743,9.650102E-09,NaN,NaN,-0.01999421,-3.864997E-10,1.338652E-07,-1.115362E-07,4.198926E-09,-2.861022E-08
548.1971,0.04492596,-9.113001E-09,NaN,-0.3277756,-1.339359E-07,NaN,0.4335324,-1.697468E-08,NaN,-0.2291419,1.649778E-05,-0.3977743,9.650102E-09,NaN,NaN,-0.01999421,-3.864997E-10,1.338652E-07,-1.115362E-07,4.198926E-09,-2.861022E-08
548.2098,0.04492625,-9.112186E-09,NaN,-0.3277688,-1.339361E-07,NaN,0.4340846,-1.66173E-08,NaN,-0.2332811,1.649829E-05,-0.3982114,9.294412E-09,NaN,NaN,-0.02000039,-3.958129E-10,1.213482E-07,-1.115346E-07,4.198926E-09,-2.622604E-08
548.2253,0.04492643,-9.11137E-09,NaN,-0.327762,-1.339363E-07,NaN,0.4346198,-1.626682E-08,NaN,-0.237345,1.649879E-05,-0.3986281,8.945613E-09,NaN,NaN,-0.02000617,-3.958129E-10,1.076392E-07,-1.115329E-07,8.967298E-09,-2.861022E-08
548.2399,0.04492643,-9.11137E-09,NaN,-0.327762,-1.339363E-07,NaN,0.4346198,-1.626682E-08,NaN,-0.237345,1.649879E-05,-0.3986281,8.945613E-09,NaN,NaN,-0.02000617,-3.958129E-10,1.076392E-07,-1.115329E-07,8.967298E-09,-2.861022E-08
548.2539,0.04492658,-9.110555E-09,NaN,-0.3277554,-1.339364E-07,NaN,0.4351355,-1.592027E-08,NaN,-0.2413399,1.649931E-05,-0.399022,8.600749E-09,NaN,NaN,-0.02001153,-4.051261E-10,9.54202E-08,-1.115312E-07,8.967298E-09,-2.622604E-08
548.2712,0.04492671,-9.109739E-09,NaN,-0.3277488,-1.339366E-07,NaN,0.4356309,-1.558039E-08,NaN,-0.2452694,1.649981E-05,-0.3993922,8.262562E-09,NaN,NaN,-0.02001649,-4.051261E-10,8.498939E-08,-1.115296E-07,6.583112E-09,-2.861022E-08
548.2851,0.04492684,-9.108923E-09,NaN,-0.3277423,-1.339368E-07,NaN,0.4361062,-1.524424E-08,NaN,-0.2491355,1.650032E-05,-0.399739,7.928101E-09,NaN,NaN,-0.02002108,-4.144393E-10,7.187636E-08,-1.115279E-07,1.814741E-09,-2.622604E-08
548.2988,0.04492684,-9.108923E-09,NaN,-0.3277423,-1.339368E-07,NaN,0.4361062,-1.524424E-08,NaN,-0.2491355,1.650032E-05,-0.399739,7.928101E-09,NaN,NaN,-0.02002108,-4.144393E-10,7.187636E-08,-1.115279E-07,1.814741E-09,-2.622604E-08
548.3137,0.04419957,-9.108106E-09,NaN,-0.3277383,-1.33937E-07,NaN,0.4374861,-1.491457E-08,NaN,-0.2525264,1.650082E-05,-0.4008209,7.600116E-09,NaN,NaN,-0.02002458,-4.144393E-10,6.025346E-08,-1.115263E-07,1.814741E-09,-2.861022E-08
548.328,0.04301767,-9.10729E-09,NaN,-0.3277353,-1.339371E-07,NaN,0.4391268,-1.458842E-08,NaN,-0.2557381,1.650134E-05,-0.402076,7.275654E-09,NaN,NaN,-0.02002768,-4.237526E-10,4.833253E-08,-1.115247E-07,6.583112E-09,-2.622604E-08
548.3433,0.04155465,-9.106474E-09,NaN,-0.3277327,-1.339373E-07,NaN,0.4407834,-1.426856E-08,NaN,-0.2588876,1.650184E-05,-0.4033034,6.957473E-09,NaN,NaN,-0.02003055,-4.237526E-10,3.968985E-08,-1.11523E-07,6.583112E-09,-2.861022E-08
548.3569,0.04155465,-9.106474E-09,NaN,-0.3277327,-1.339373E-07,NaN,0.4407834,-1.426856E-08,NaN,-0.2588876,1.650184E-05,-0.4033034,6.957473E-09,NaN,NaN,-0.02003055,-4.237526E-10,3.968985E-08,-1.11523E-07,6.583112E-09,-2.861022E-08
548.371,0.0391925,-9.105658E-09,NaN,-0.3277318,-1.339374E-07,NaN,0.4432754,-1.395202E-08,NaN,-0.2616008,1.650234E-05,-0.4051832,6.642625E-09,NaN,NaN,-0.02003252,-4.237526E-10,2.776893E-08,-1.115214E-07,8.967298E-09,-2.622604E-08
548.3864,0.03627452,-9.104841E-09,NaN,-0.3277311,-1.339376E-07,NaN,0.4459581,-1.364158E-08,NaN,-0.2641807,1.650284E-05,-0.407165,6.333871E-09,NaN,NaN,-0.02003422,-4.237526E-10,1.763614E-08,-1.115198E-07,4.198927E-09,-2.861022E-08
548.401,0.03301907,-9.104025E-09,NaN,-0.3277301,-1.339377E-07,NaN,0.4485956,-1.333429E-08,NaN,-0.2667404,1.650334E-05,-0.409063,6.028265E-09,NaN,NaN,-0.02003578,-4.237526E-10,5.715208E-09,-1.115182E-07,8.967298E-09,-2.622604E-08
548.4156,0.03301907,-9.104025E-09,NaN,-0.3277301,-1.339377E-07,NaN,0.4485956,-1.333429E-08,NaN,-0.2667404,1.650334E-05,-0.409063,6.028265E-09,NaN,NaN,-0.02003578,-4.237526E-10,5.715208E-09,-1.115182E-07,8.967298E-09,-2.622604E-08
548.4297,0.02956494,-9.103209E-09,NaN,-0.3277287,-1.339379E-07,NaN,0.4511147,-1.303291E-08,NaN,-0.2693122,1.650385E-05,-0.4108312,5.728571E-09,NaN,NaN,-0.02003721,-4.237526E-10,-4.715605E-09,-1.115166E-07,4.198927E-09,-2.861022E-08
548.445,0.02527189,-9.102393E-09,NaN,-0.3277284,-1.339381E-07,NaN,0.4543899,-1.27345E-08,NaN,-0.271486,1.650436E-05,-0.413199,5.431847E-09,NaN,NaN,-0.02003782,-4.330658E-10,-1.75306E-08,-1.11515E-07,4.198927E-09,-2.622604E-08
548.4597,0.02527189,-9.102393E-09,NaN,-0.3277284,-1.339381E-07,NaN,0.4543899,-1.27345E-08,NaN,-0.271486,1.650436E-05,-0.413199,5.431847E-09,NaN,NaN,-0.02003782,-4.330658E-10,-1.75306E-08,-1.11515E-07,4.198927E-09,-2.622604E-08
548.4736,0.02046902,-9.101576E-09,NaN,-0.3277277,-1.339382E-07,NaN,0.457819,-1.244182E-08,NaN,-0.2735471,1.650486E-05,-0.4156524,5.140858E-09,NaN,NaN,-0.0200382,-4.330658E-10,-2.498118E-08,-1.115134E-07,4.198927E-09,-2.861022E-08
548.4894,0.01536556,-9.10076E-09,NaN,-0.3277266,-1.339384E-07,NaN,0.4611822,-1.215195E-08,NaN,-0.2756017,1.650537E-05,-0.4180178,4.852667E-09,NaN,NaN,-0.02003849,-4.42379E-10,-3.511397E-08,-1.115118E-07,6.583112E-09,-2.622604E-08
548.5037,0.01009437,-9.099944E-09,NaN,-0.327725,-1.339385E-07,NaN,0.4644119,-1.186481E-08,NaN,-0.2776795,1.650587E-05,-0.4202515,4.567217E-09,NaN,NaN,-0.0200387,-4.377224E-10,-4.256455E-08,-1.115102E-07,6.583112E-09,-2.861022E-08
548.5184,0.01009437,-9.099944E-09,NaN,-0.327725,-1.339385E-07,NaN,0.4644119,-1.186481E-08,NaN,-0.2776795,1.650587E-05,-0.4202515,4.567217E-09,NaN,NaN,-0.0200387,-4.377224E-10,-4.256455E-08,-1.115102E-07,6.583112E-09,-2.861022E-08
548.5324,0.00401134,-9.099128E-09,NaN,-0.3277243,-1.339387E-07,NaN,0.4683783,-1.15832E-08,NaN,-0.279372,1.650638E-05,-0.423081,4.287287E-09,NaN,NaN,-0.02003811,-4.42379E-10,-5.001514E-08,-1.115086E-07,1.135148E-08,-2.622604E-08
548.5498,-0.002556919,-9.098311E-09,NaN,-0.3277232,-1.339388E-07,NaN,0.472484,-1.130416E-08,NaN,-0.280963,1.650689E-05,-0.4259948,4.00994E-09,NaN,NaN,-0.02003733,-4.470356E-10,-5.776374E-08,-1.11507E-07,1.135148E-08,-2.861022E-08
548.5632,-0.009402901,-9.097493E-09,NaN,-0.3277214,-1.33939E-07,NaN,0.4765111,-1.103049E-08,NaN,-0.2825579,1.650739E-05,-0.4288191,3.737949E-09,NaN,NaN,-0.0200365,-4.516922E-10,-6.640641E-08,-1.115055E-07,1.373567E-08,-2.622604E-08
548.577,-0.009402901,-9.097493E-09,NaN,-0.3277214,-1.33939E-07,NaN,0.4765111,-1.103049E-08,NaN,-0.2825579,1.650739E-05,-0.4288191,3.737949E-09,NaN,NaN,-0.0200365,-4.516922E-10,-6.640641E-08,-1.115055E-07,1.373567E-08,-2.622604E-08
548.5908,-0.0171233,-9.096676E-09,NaN,-0.3277203,-1.339392E-07,NaN,0.4812755,-1.075924E-08,NaN,-0.2837797,1.650789E-05,-0.4322401,3.468386E-09,NaN,NaN,-0.02003489,-4.470356E-10,-7.206886E-08,-1.115039E-07,1.611985E-08,-2.861022E-08
548.6062,-0.02536141,-9.095859E-09,NaN,-0.3277186,-1.339393E-07,NaN,0.4861603,-1.049319E-08,NaN,-0.2849198,1.65084E-05,-0.4357313,3.204025E-09,NaN,NaN,-0.02003313,-4.516922E-10,-7.743328E-08,-1.115024E-07,1.135148E-08,-2.622604E-08
548.6206,-0.03389066,-9.095042E-09,NaN,-0.3277159,-1.339395E-07,NaN,0.4909438,-1.022942E-08,NaN,-0.2860845,1.65089E-05,-0.4391168,2.941943E-09,NaN,NaN,-0.02003135,-4.470356E-10,-8.577793E-08,-1.115008E-07,1.135148E-08,-2.861022E-08
548.6353,-0.03389066,-9.095042E-09,NaN,-0.3277159,-1.339395E-07,NaN,0.4909438,-1.022942E-08,NaN,-0.2860845,1.65089E-05,-0.4391168,2.941943E-09,NaN,NaN,-0.02003135,-4.470356E-10,-8.577793E-08,-1.115008E-07,1.135148E-08,-2.861022E-08
548.6495,-0.0425673,-9.094225E-09,NaN,-0.327712,-1.339396E-07,NaN,0.4955582,-9.970713E-09,NaN,-0.2873018,1.650941E-05,-0.4423523,2.684922E-09,NaN,NaN,-0.02002954,-4.516922E-10,-9.352653E-08,-1.114993E-07,1.373567E-08,-2.622604E-08
548.6649,-0.05202869,-9.093408E-09,NaN,-0.3277092,-1.339398E-07,NaN,0.5008923,-9.714189E-09,NaN,-0.2881674,1.650991E-05,-0.4461889,2.430084E-09,NaN,NaN,-0.02002692,-4.563488E-10,-9.918897E-08,-1.114977E-07,1.611985E-08,-2.861022E-08
548.6807,-0.06194407,-9.092591E-09,NaN,-0.3277055,-1.339399E-07,NaN,0.5063396,-9.462584E-09,NaN,-0.2889586,1.651042E-05,-0.4501037,2.180163E-09,NaN,NaN,-0.02002415,-4.610054E-10,-1.048514E-07,-1.114962E-07,1.135148E-08,-2.622604E-08
548.694,-0.06194407,-9.092591E-09,NaN,-0.3277055,-1.339399E-07,NaN,0.5063396,-9.462584E-09,NaN,-0.2889586,1.651042E-05,-0.4501037,2.180163E-09,NaN,NaN,-0.02002415,-4.610054E-10,-1.048514E-07,-1.114962E-07,1.135148E-08,-2.622604E-08
548.7078,-0.07210346,-9.091774E-09,NaN,-0.3277,-1.339401E-07,NaN,0.5116813,-9.21297E-09,NaN,-0.2897777,1.651093E-05,-0.4539196,1.932234E-09,NaN,NaN,-0.02002138,-4.656621E-10,-1.111099E-07,-1.114947E-07,1.611985E-08,-2.861022E-08
548.7233,-0.08237374,-9.090956E-09,NaN,-0.3276928,-1.339402E-07,NaN,0.5168521,-8.968136E-09,NaN,-0.2906528,1.651144E-05,-0.4575918,1.689083E-09,NaN,NaN,-0.02001862,-4.703187E-10,-1.179644E-07,-1.114932E-07,1.373567E-08,-2.622604E-08
548.7382,-0.08237374,-9.090956E-09,NaN,-0.3276928,-1.339402E-07,NaN,0.5168521,-8.968136E-09,NaN,-0.2906528,1.651144E-05,-0.4575918,1.689083E-09,NaN,NaN,-0.02001862,-4.703187E-10,-1.179644E-07,-1.114932E-07,1.373567E-08,-2.622604E-08
548.7523,-0.09339912,-9.090139E-09,NaN,-0.3276867,-1.339404E-07,NaN,0.5227561,-8.725167E-09,NaN,-0.2911854,1.651193E-05,-0.4618889,1.447796E-09,NaN,NaN,-0.02001499,-4.656621E-10,-1.203486E-07,-1.114916E-07,1.373567E-08,-2.861022E-08
548.7676,-0.1048533,-9.089322E-09,NaN,-0.3276792,-1.339405E-07,NaN,0.528773,-8.486848E-09,NaN,-0.2916507,1.651245E-05,-0.4662721,1.21116E-09,NaN,NaN,-0.02001122,-4.749753E-10,-1.212427E-07,-1.114901E-07,1.611985E-08,-2.622604E-08
548.7823,-0.1165291,-9.088505E-09,NaN,-0.3276698,-1.339406E-07,NaN,0.5346801,-8.250261E-09,NaN,-0.2921508,1.651294E-05,-0.4705588,9.762547E-10,NaN,NaN,-0.02000748,-4.656621E-10,-1.269051E-07,-1.114886E-07,1.611985E-08,-2.861022E-08
548.7972,-0.1165291,-9.088505E-09,NaN,-0.3276698,-1.339406E-07,NaN,0.5346801,-8.250261E-09,NaN,-0.2921508,1.651294E-05,-0.4705588,9.762547E-10,NaN,NaN,-0.02000748,-4.656621E-10,-1.269051E-07,-1.114886E-07,1.611985E-08,-2.861022E-08
548.8111,-0.1290237,-9.087688E-09,NaN,-0.327661,-1.339408E-07,NaN,0.5413401,-8.018201E-09,NaN,-0.2923202,1.651345E-05,-0.4754881,7.458769E-10,NaN,NaN,-0.02000286,-4.703187E-10,-1.316735E-07,-1.114871E-07,1.135148E-08,-2.622604E-08
548.8273,-0.141981,-9.086871E-09,NaN,-0.3276502,-1.339409E-07,NaN,0.5481021,-7.787747E-09,NaN,-0.2924406,1.651395E-05,-0.4804949,5.171044E-10,NaN,NaN,-0.01999813,-4.656621E-10,-1.37336E-07,-1.114856E-07,6.583111E-09,-2.861022E-08
548.8419,-0.155175,-9.086054E-09,NaN,-0.3276368,-1.339411E-07,NaN,0.5547366,-7.561701E-09,NaN,-0.292615,1.651446E-05,-0.4853911,2.927394E-10,NaN,NaN,-0.01999344,-4.749753E-10,-1.37336E-07,-1.114841E-07,-5.694463E-10,-2.622604E-08
548.8555,-0.155175,-9.086054E-09,NaN,-0.3276368,-1.339411E-07,NaN,0.5547366,-7.561701E-09,NaN,-0.292615,1.651446E-05,-0.4853911,2.927394E-10,NaN,NaN,-0.01999344,-4.749753E-10,-1.37336E-07,-1.114841E-07,-5.694463E-10,-2.622604E-08
548.8696,-0.1684625,-9.085237E-09,NaN,-0.3276212,-1.339412E-07,NaN,0.5611774,-7.337036E-09,NaN,-0.2928703,1.651497E-05,-0.4901308,6.975576E-11,NaN,NaN,-0.01998878,-4.796319E-10,-1.413593E-07,-1.114827E-07,-5.694463E-10,-2.861022E-08
548.8849,-0.1824814,-9.084419E-09,NaN,-0.3276063,-1.339414E-07,NaN,0.568375,-7.11666E-09,NaN,-0.2928163,1.651548E-05,-0.4955342,-1.489402E-10,NaN,NaN,-0.01998312,-4.889451E-10,-1.412103E-07,-1.114812E-07,-5.694463E-10,-2.622604E-08
548.8996,-0.1824814,-9.084419E-09,NaN,-0.3276063,-1.339414E-07,NaN,0.568375,-7.11666E-09,NaN,-0.2928163,1.651548E-05,-0.4955342,-1.489402E-10,NaN,NaN,-0.01998312,-4.889451E-10,-1.412103E-07,-1.114812E-07,-5.694463E-10,-2.622604E-08
548.9135,-0.1969017,-9.083602E-09,NaN,-0.3275895,-1.339415E-07,NaN,0.5756778,-6.897667E-09,NaN,-0.2927193,1.651599E-05,-0.5010289,-3.662526E-10,NaN,NaN,-0.01997735,-4.982583E-10,-1.403162E-07,-1.114797E-07,-5.337818E-09,-2.861022E-08
548.9288,-0.2115138,-9.082785E-09,NaN,-0.3275704,-1.339416E-07,NaN,0.5828554,-6.682852E-09,NaN,-0.2926783,1.651651E-05,-0.5064225,-5.793875E-10,NaN,NaN,-0.01997163,-5.075715E-10,-1.401672E-07,-1.114782E-07,-5.337818E-09,-2.622604E-08
548.9434,-0.2261854,-9.081968E-09,NaN,-0.3275491,-1.339418E-07,NaN,0.5898405,-6.469308E-09,NaN,-0.29272,1.651702E-05,-0.5116658,-7.912521E-10,NaN,NaN,-0.01996594,-5.168848E-10,-1.422533E-07,-1.114768E-07,-5.337818E-09,-2.861022E-08
548.9583,-0.2261854,-9.081968E-09,NaN,-0.3275491,-1.339418E-07,NaN,0.5898405,-6.469308E-09,NaN,-0.29272,1.651702E-05,-0.5116658,-7.912521E-10,NaN,NaN,-0.01996594,-5.168848E-10,-1.422533E-07,-1.114768E-07,-5.337818E-09,-2.861022E-08
548.9722,-0.2415613,-9.08115E-09,NaN,-0.3275288,-1.339419E-07,NaN,0.5976152,-6.259834E-09,NaN,-0.2924621,1.651753E-05,-0.5176123,-9.990477E-10,NaN,NaN,-0.01995918,-5.26198E-10,-1.395711E-07,-1.114753E-07,-5.337818E-09,-2.622604E-08
548.9876,-0.2573156,-9.080332E-09,NaN,-0.3275066,-1.339421E-07,NaN,0.6055013,-6.051592E-09,NaN,-0.2921675,1.651804E-05,-0.5236615,-1.205611E-09,NaN,NaN,-0.01995232,-5.355112E-10,-1.403162E-07,-1.114739E-07,-5.337818E-09,-2.861022E-08
549.0026,-0.2732418,-9.079514E-09,NaN,-0.3274821,-1.339422E-07,NaN,0.6132601,-5.847318E-09,NaN,-0.2919343,1.651856E-05,-0.5296113,-1.408206E-09,NaN,NaN,-0.01994552,-5.448244E-10,-1.415083E-07,-1.114724E-07,-1.249037E-08,-2.622604E-08
549.0173,-0.2732418,-9.079514E-09,NaN,-0.3274821,-1.339422E-07,NaN,0.6132601,-5.847318E-09,NaN,-0.2919343,1.651856E-05,-0.5296113,-1.408206E-09,NaN,NaN,-0.01994552,-5.448244E-10,-1.415083E-07,-1.114724E-07,-1.249037E-08,-2.622604E-08
549.0315,-0.2899378,-9.078696E-09,NaN,-0.3274579,-1.339424E-07,NaN,0.6218408,-5.644109E-09,NaN,-0.291414,1.651907E-05,-0.5362939,-1.609736E-09,NaN,NaN,-0.01993761,-5.541376E-10,-1.422533E-07,-1.11471E-07,-1.249037E-08,-2.861022E-08
549.0468,-0.3070479,-9.077878E-09,NaN,-0.3274312,-1.339425E-07,NaN,0.630526,-5.444767E-09,NaN,-0.2908749,1.651958E-05,-0.5430727,-1.807398E-09,NaN,NaN,-0.01992962,-5.634508E-10,-1.364419E-07,-1.114696E-07,-1.487456E-08,-2.622604E-08
549.0617,-0.3243465,-9.07706E-09,NaN,-0.3274015,-1.339426E-07,NaN,0.6390675,-5.249218E-09,NaN,-0.2904154,1.65201E-05,-0.5497378,-2.001266E-09,NaN,NaN,-0.01992171,-5.727641E-10,-1.324186E-07,-1.114681E-07,-1.964293E-08,-2.861022E-08
549.0759,-0.3243465,-9.07706E-09,NaN,-0.3274015,-1.339426E-07,NaN,0.6390675,-5.249218E-09,NaN,-0.2904154,1.65201E-05,-0.5497378,-2.001266E-09,NaN,NaN,-0.01992171,-5.727641E-10,-1.324186E-07,-1.114681E-07,-1.964293E-08,-2.861022E-08
549.0922,-0.3416912,-9.076242E-09,NaN,-0.3273694,-1.339428E-07,NaN,0.6473954,-5.054562E-09,NaN,-0.2900611,1.652061E-05,-0.5562373,-2.194241E-09,NaN,NaN,-0.01991387,-5.820773E-10,-1.319715E-07,-1.114667E-07,-2.44113E-08,-2.622604E-08
549.1055,-0.3597204,-9.075424E-09,NaN,-0.327338,-1.339429E-07,NaN,0.6565655,-4.863606E-09,NaN,-0.2894424,1.652112E-05,-0.5635034,-2.383516E-09,NaN,NaN,-0.01990476,-5.913905E-10,-1.322696E-07,-1.114653E-07,-2.679549E-08,-2.861022E-08
549.1202,-0.3781046,-9.074605E-09,NaN,-0.3273044,-1.33943E-07,NaN,0.6658483,-4.673454E-09,NaN,-0.2888107,1.652164E-05,-0.570882,-2.571987E-09,NaN,NaN,-0.01989554,-6.007037E-10,-1.231799E-07,-1.114639E-07,-2.44113E-08,-2.622604E-08
549.135,-0.3781046,-9.074605E-09,NaN,-0.3273044,-1.33943E-07,NaN,0.6658483,-4.673454E-09,NaN,-0.2888107,1.652164E-05,-0.570882,-2.571987E-09,NaN,NaN,-0.01989554,-6.007037E-10,-1.231799E-07,-1.114639E-07,-2.44113E-08,-2.622604E-08
549.1489,-0.3966349,-9.073786E-09,NaN,-0.3272681,-1.339432E-07,NaN,0.6749907,-4.486913E-09,NaN,-0.2882595,1.652215E-05,-0.578155,-2.756845E-09,NaN,NaN,-0.01988644,-6.100169E-10,-1.239249E-07,-1.114625E-07,-1.964293E-08,-2.861022E-08
549.1655,-0.4151793,-9.072967E-09,NaN,-0.3272297,-1.339433E-07,NaN,0.6839204,-4.301088E-09,NaN,-0.2878142,1.652266E-05,-0.5852662,-2.940987E-09,NaN,NaN,-0.01987742,-6.193301E-10,-1.137921E-07,-1.114611E-07,-1.964293E-08,-2.622604E-08
549.1788,-0.4151793,-9.072967E-09,NaN,-0.3272297,-1.339433E-07,NaN,0.6839204,-4.301088E-09,NaN,-0.2878142,1.652266E-05,-0.5852662,-2.940987E-09,NaN,NaN,-0.01987742,-6.193301E-10,-1.137921E-07,-1.114611E-07,-1.964293E-08,-2.622604E-08
549.1927,-0.4343832,-9.072148E-09,NaN,-0.3271924,-1.339434E-07,NaN,0.6937383,-4.118793E-09,NaN,-0.2871164,1.652317E-05,-0.5931948,-3.121602E-09,NaN,NaN,-0.01986702,-6.286434E-10,-1.11706E-07,-1.114597E-07,-1.487456E-08,-2.861022E-08
549.2081,-0.4539214,-9.071329E-09,NaN,-0.327153,-1.339435E-07,NaN,0.7036774,-3.937129E-09,NaN,-0.2864114,1.652369E-05,-0.6012478,-3.301583E-09,NaN,NaN,-0.01985656,-6.379566E-10,-1.108119E-07,-1.114583E-07,-1.249037E-08,-2.622604E-08
549.2229,-0.4735878,-9.070511E-09,NaN,-0.3271111,-1.339437E-07,NaN,0.7134724,-3.758913E-09,NaN,-0.2857917,1.65242E-05,-0.6091937,-3.478117E-09,NaN,NaN,-0.01984625,-6.472698E-10,-1.100668E-07,-1.114569E-07,-7.722003E-09,-2.861022E-08
549.2376,-0.4735878,-9.070511E-09,NaN,-0.3271111,-1.339437E-07,NaN,0.7134724,-3.758913E-09,NaN,-0.2857917,1.65242E-05,-0.6091937,-3.478117E-09,NaN,NaN,-0.01984625,-6.472698E-10,-1.100668E-07,-1.114569E-07,-7.722003E-09,-2.861022E-08
549.2518,-0.4939806,-9.069692E-09,NaN,-0.3270696,-1.339438E-07,NaN,0.7241956,-3.581246E-09,NaN,-0.2849342,1.652471E-05,-0.6179938,-3.654103E-09,NaN,NaN,-0.01983452,-6.56583E-10,-1.076827E-07,-1.114555E-07,-1.010619E-08,-2.622604E-08
549.2672,-0.5147448,-9.068873E-09,NaN,-0.3270252,-1.339439E-07,NaN,0.7350321,-3.406946E-09,NaN,-0.2840874,1.652523E-05,-0.6269103,-3.82672E-09,NaN,NaN,-0.01982278,-6.658962E-10,-1.045534E-07,-1.114541E-07,-1.249037E-08,-2.861022E-08
549.2819,-0.5356553,-9.068054E-09,NaN,-0.3269778,-1.339441E-07,NaN,0.745705,-3.235953E-09,NaN,-0.2833436,1.652574E-05,-0.6357012,-3.996032E-09,NaN,NaN,-0.01981124,-6.752094E-10,-9.829493E-08,-1.114527E-07,-1.010619E-08,-2.622604E-08
549.2968,-0.5356553,-9.068054E-09,NaN,-0.3269778,-1.339441E-07,NaN,0.745705,-3.235953E-09,NaN,-0.2833436,1.652574E-05,-0.6357012,-3.996032E-09,NaN,NaN,-0.01981124,-6.752094E-10,-9.829493E-08,-1.114527E-07,-1.010619E-08,-2.622604E-08
549.3107,-0.5565701,-9.067234E-09,NaN,-0.3269278,-1.339442E-07,NaN,0.7561375,-3.065368E-09,NaN,-0.2827266,1.652625E-05,-0.644306,-4.164936E-09,NaN,NaN,-0.01979983,-6.845227E-10,-9.740086E-08,-1.114514E-07,-1.249037E-08,-2.861022E-08
549.3262,-0.5781282,-9.066414E-09,NaN,-0.3268787,-1.339443E-07,NaN,0.7675268,-2.898016E-09,NaN,-0.2818972,1.652676E-05,-0.6538051,-4.330607E-09,NaN,NaN,-0.01978683,-6.891793E-10,-9.203644E-08,-1.1145E-07,-1.964293E-08,-2.622604E-08
549.3406,-0.6000005,-9.065594E-09,NaN,-0.3268273,-1.339444E-07,NaN,0.7790372,-2.731003E-09,NaN,-0.2810847,1.652727E-05,-0.6634346,-4.495938E-09,NaN,NaN,-0.01977381,-6.938359E-10,-9.069533E-08,-1.114487E-07,-1.725875E-08,-2.861022E-08
549.3564,-0.6000005,-9.065594E-09,NaN,-0.3268273,-1.339444E-07,NaN,0.7790372,-2.731003E-09,NaN,-0.2810847,1.652727E-05,-0.6634346,-4.495938E-09,NaN,NaN,-0.01977381,-6.938359E-10,-9.069533E-08,-1.114487E-07,-1.725875E-08,-2.861022E-08
549.3705,-0.6219786,-9.064775E-09,NaN,-0.3267733,-1.339446E-07,NaN,0.7903829,-2.567148E-09,NaN,-0.2803757,1.652777E-05,-0.6729411,-4.658111E-09,NaN,NaN,-0.01976105,-6.984925E-10,-8.726806E-08,-1.114473E-07,-1.725875E-08,-2.622604E-08
549.3848,-0.643931,-9.063955E-09,NaN,-0.3267173,-1.339447E-07,NaN,0.8014826,-2.403564E-09,NaN,-0.2797936,1.652828E-05,-0.6822578,-4.820012E-09,NaN,NaN,-0.01974847,-7.031491E-10,-7.788033E-08,-1.11446E-07,-2.44113E-08,-2.861022E-08
549.3995,-0.643931,-9.063955E-09,NaN,-0.3267173,-1.339447E-07,NaN,0.8014826,-2.403564E-09,NaN,-0.2797936,1.652828E-05,-0.6822578,-4.820012E-09,NaN,NaN,-0.01974847,-7.031491E-10,-7.788033E-08,-1.11446E-07,-2.44113E-08,-2.861022E-08
549.4135,-0.6659963,-9.063135E-09,NaN,-0.3266608,-1.339448E-07,NaN,0.8127093,-2.245898E-09,NaN,-0.2792384,1.652878E-05,-0.691727,-4.975996E-09,NaN,NaN,-0.0197355,-7.031491E-10,-7.266492E-08,-1.114446E-07,-1.964293E-08,-2.622604E-08
549.4285,-0.6880401,-9.062315E-09,NaN,-0.3266036,-1.33945E-07,NaN,0.8238013,-2.08838E-09,NaN,-0.2787697,1.65293E-05,-0.7011101,-5.131831E-09,NaN,NaN,-0.01972263,-7.124623E-10,-6.640644E-08,-1.114433E-07,-1.964293E-08,-2.861022E-08
549.4432,-0.709978,-9.061496E-09,NaN,-0.326546,-1.339451E-07,NaN,0.8346751,-1.933837E-09,NaN,-0.278405,1.65298E-05,-0.7103332,-5.284691E-09,NaN,NaN,-0.01970997,-7.124623E-10,-6.46183E-08,-1.114419E-07,-1.725875E-08,-2.622604E-08
549.4579,-0.709978,-9.061496E-09,NaN,-0.326546,-1.339451E-07,NaN,0.8346751,-1.933837E-09,NaN,-0.278405,1.65298E-05,-0.7103332,-5.284691E-09,NaN,NaN,-0.01970997,-7.124623E-10,-6.46183E-08,-1.114419E-07,-1.725875E-08,-2.622604E-08
549.472,-0.7317576,-9.060676E-09,NaN,-0.3264886,-1.339452E-07,NaN,0.845311,-1.782209E-09,NaN,-0.2781443,1.653031E-05,-0.7193804,-5.434637E-09,NaN,NaN,-0.01969752,-7.217755E-10,-5.761475E-08,-1.114406E-07,-1.487456E-08,-2.861022E-08
549.4875,-0.7533465,-9.059856E-09,NaN,-0.3264319,-1.339453E-07,NaN,0.8557094,-1.630613E-09,NaN,-0.2779811,1.653082E-05,-0.728253,-5.58455E-09,NaN,NaN,-0.01968528,-7.310887E-10,-4.897208E-08,-1.114393E-07,-1.249038E-08,-2.622604E-08
549.5024,-0.7747251,-9.059036E-09,NaN,-0.3263763,-1.339455E-07,NaN,0.8658751,-1.481876E-09,NaN,-0.2779076,1.653134E-05,-0.7369556,-5.731605E-09,NaN,NaN,-0.01967328,-7.40402E-10,-4.01804E-08,-1.11438E-07,-1.010619E-08,-2.861022E-08
549.517,-0.7747251,-9.059036E-09,NaN,-0.3263763,-1.339455E-07,NaN,0.8658751,-1.481876E-09,NaN,-0.2779076,1.653134E-05,-0.7369556,-5.731605E-09,NaN,NaN,-0.01967328,-7.40402E-10,-4.01804E-08,-1.11438E-07,-1.010619E-08,-2.861022E-08
549.5316,-0.795882,-9.058216E-09,NaN,-0.3263223,-1.339456E-07,NaN,0.8758124,-1.333112E-09,NaN,-0.2779169,1.653185E-05,-0.7454913,-5.878686E-09,NaN,NaN,-0.01966155,-7.497152E-10,-3.37729E-08,-1.114367E-07,-1.249038E-08,-2.622604E-08
549.5466,-0.8168112,-9.057395E-09,NaN,-0.32627,-1.339457E-07,NaN,0.8855236,-1.187149E-09,NaN,-0.2780027,1.653236E-05,-0.7538614,-6.022967E-09,NaN,NaN,-0.01965009,-7.590284E-10,-2.825947E-08,-1.114354E-07,-1.249038E-08,-2.861022E-08
549.5612,-0.8375096,-9.056574E-09,NaN,-0.3262195,-1.339458E-07,NaN,0.8950096,-1.041108E-09,NaN,-0.27816,1.653288E-05,-0.7620652,-6.167326E-09,NaN,NaN,-0.01963894,-7.683416E-10,-1.753063E-08,-1.114341E-07,-7.722005E-09,-2.622604E-08
549.5759,-0.8375096,-9.056574E-09,NaN,-0.3262195,-1.339458E-07,NaN,0.8950096,-1.041108E-09,NaN,-0.27816,1.653288E-05,-0.7620652,-6.167326E-09,NaN,NaN,-0.01963894,-7.683416E-10,-1.753063E-08,-1.114341E-07,-7.722005E-09,-2.622604E-08
549.59,-0.8579763,-9.055753E-09,NaN,-0.326171,-1.339459E-07,NaN,0.9042696,-8.97814E-10,NaN,-0.2783846,1.653339E-05,-0.770101,-6.308939E-09,NaN,NaN,-0.01962813,-7.776548E-10,-1.008005E-08,-1.114328E-07,-7.722005E-09,-2.861022E-08
549.6053,-0.8782119,-9.054933E-09,NaN,-0.3261243,-1.33946E-07,NaN,0.9133022,-7.572175E-10,NaN,-0.2786728,1.653389E-05,-0.7779657,-6.447854E-09,NaN,NaN,-0.01961765,-7.776548E-10,-5.162668E-09,-1.114315E-07,-1.487456E-08,-2.622604E-08
549.6211,-0.8982174,-9.054112E-09,NaN,-0.3260797,-1.339461E-07,NaN,0.9221059,-6.164362E-10,NaN,-0.2790214,1.65344E-05,-0.7856567,-6.586954E-09,NaN,NaN,-0.01960753,-7.86968E-10,6.013203E-09,-1.114302E-07,-8.914098E-09,-2.861022E-08
549.636,-0.8982174,-9.054112E-09,NaN,-0.3260797,-1.339461E-07,NaN,0.9221059,-6.164362E-10,NaN,-0.2790214,1.65344E-05,-0.7856567,-6.586954E-09,NaN,NaN,-0.01960753,-7.86968E-10,6.013203E-09,-1.114302E-07,-8.914098E-09,-2.861022E-08
549.6489,-0.9179948,-9.053291E-09,NaN,-0.326037,-1.339463E-07,NaN,0.9306786,-4.641953E-10,NaN,-0.2794275,1.653492E-05,-0.7931706,-6.737514E-09,NaN,NaN,-0.01959778,-7.962813E-10,3.480006E-09,-1.114289E-07,-7.722005E-09,-2.622604E-08
549.6642,-0.937546,-9.052471E-09,NaN,-0.3259962,-1.33946E-07,NaN,0.9390185,-5.037555E-10,NaN,-0.2798884,1.653542E-05,-0.8005044,-6.696269E-09,NaN,NaN,-0.01958839,-7.916247E-10,4.970122E-09,-1.114286E-07,-4.145726E-09,-2.861022E-08
549.6787,-0.937546,-9.052471E-09,NaN,-0.3259962,-1.33946E-07,NaN,0.9390185,-5.037555E-10,NaN,-0.2798884,1.653542E-05,-0.8005044,-6.696269E-09,NaN,NaN,-0.01958839,-7.916247E-10,4.970122E-09,-1.114286E-07,-4.145726E-09,-2.861022E-08
549.6927,-0.9568732,-9.05165E-09,NaN,-0.3259574,-1.339457E-07,NaN,0.9471238,-5.170438E-10,NaN,-0.2804016,1.653591E-05,-0.8076551,-6.681295E-09,NaN,NaN,-0.01957937,-7.86968E-10,8.546401E-09,-1.114284E-07,-4.145726E-09,-2.622604E-08
549.708,-0.9759788,-9.050829E-09,NaN,-0.3259203,-1.339455E-07,NaN,0.9549927,-5.186803E-10,NaN,-0.2809647,1.653642E-05,-0.8146198,-6.677972E-09,NaN,NaN,-0.01957073,-7.86968E-10,1.018553E-08,-1.114281E-07,-1.761541E-09,-2.861022E-08
549.7227,-0.9948652,-9.050009E-09,NaN,-0.3258851,-1.339453E-07,NaN,0.9626238,-5.117045E-10,NaN,-0.2815753,1.653692E-05,-0.8213961,-6.683262E-09,NaN,NaN,-0.01956247,-7.86968E-10,1.212268E-08,-1.114279E-07,-6.529912E-09,-2.622604E-08
549.7375,-0.9948652,-9.050009E-09,NaN,-0.3258851,-1.339453E-07,NaN,0.9626238,-5.117045E-10,NaN,-0.2815753,1.653692E-05,-0.8213961,-6.683262E-09,NaN,NaN,-0.01956247,-7.86968E-10,1.212268E-08,-1.114279E-07,-6.529912E-09,-2.622604E-08
549.7515,-1.013535,-9.049188E-09,NaN,-0.3258516,-1.339451E-07,NaN,0.9700161,-5.019292E-10,NaN,-0.2822311,1.653742E-05,-0.8279816,-6.691351E-09,NaN,NaN,-0.01955457,-7.823114E-10,1.88282E-08,-1.114277E-07,-1.010619E-08,-2.861022E-08
549.7672,-1.03199,-9.048367E-09,NaN,-0.3258198,-1.33945E-07,NaN,0.9771687,-4.894077E-10,NaN,-0.28293,1.653792E-05,-0.8343747,-6.702186E-09,NaN,NaN,-0.01954705,-7.823114E-10,2.27025E-08,-1.114275E-07,-1.010619E-08,-2.622604E-08
549.7818,-1.050233,-9.047547E-09,NaN,-0.3257896,-1.339448E-07,NaN,0.9840813,-4.770204E-10,NaN,-0.2836698,1.653842E-05,-0.8405737,-6.712885E-09,NaN,NaN,-0.01953991,-7.823114E-10,2.568274E-08,-1.114273E-07,-1.368247E-08,-2.861022E-08
549.7966,-1.050233,-9.047547E-09,NaN,-0.3257896,-1.339448E-07,NaN,0.9840813,-4.770204E-10,NaN,-0.2836698,1.653842E-05,-0.8405737,-6.712885E-09,NaN,NaN,-0.01953991,-7.823114E-10,2.568274E-08,-1.114273E-07,-1.368247E-08,-2.861022E-08
549.8106,-1.068267,-9.046726E-09,NaN,-0.325761,-1.339447E-07,NaN,0.9907534,-4.619347E-10,NaN,-0.2844484,1.653892E-05,-0.8465773,-6.726284E-09,NaN,NaN,-0.01953314,-7.823114E-10,2.493768E-08,-1.114272E-07,-1.368247E-08,-2.622604E-08
549.826,-1.086094,-9.045905E-09,NaN,-0.325734,-1.339445E-07,NaN,0.9971852,-4.470303E-10,NaN,-0.2852637,1.653942E-05,-0.8523845,-6.7395E-09,NaN,NaN,-0.01952672,-7.776548E-10,2.493768E-08,-1.11427E-07,-1.010619E-08,-2.861022E-08
549.8409,-1.103715,-9.045085E-09,NaN,-0.3257086,-1.339444E-07,NaN,1.003377,-4.323045E-10,NaN,-0.2861138,1.653992E-05,-0.8579947,-6.752539E-09,NaN,NaN,-0.01952066,-7.729982E-10,2.77689E-08,-1.114268E-07,-7.722004E-09,-2.622604E-08
549.8552,-1.103715,-9.045085E-09,NaN,-0.3257086,-1.339444E-07,NaN,1.003377,-4.323045E-10,NaN,-0.2861138,1.653992E-05,-0.8579947,-6.752539E-09,NaN,NaN,-0.01952066,-7.729982E-10,2.77689E-08,-1.114268E-07,-7.722004E-09,-2.622604E-08
549.8694,-1.121135,-9.044264E-09,NaN,-0.3256845,-1.339442E-07,NaN,1.009329,-4.177491E-10,NaN,-0.2869966,1.654042E-05,-0.8634074,-6.765407E-09,NaN,NaN,-0.01951495,-7.729982E-10,3.238826E-08,-1.114266E-07,-6.529912E-09,-2.861022E-08
549.8857,-1.138354,-9.043443E-09,NaN,-0.3256619,-1.339441E-07,NaN,1.015043,-4.033666E-10,NaN,-0.2879104,1.654092E-05,-0.8686227,-6.778103E-09,NaN,NaN,-0.01950959,-7.729982E-10,3.253727E-08,-1.114265E-07,-6.529912E-09,-2.622604E-08
549.8994,-1.138354,-9.043443E-09,NaN,-0.3256619,-1.339441E-07,NaN,1.015043,-4.033666E-10,NaN,-0.2879104,1.654092E-05,-0.8686227,-6.778103E-09,NaN,NaN,-0.01950959,-7.729982E-10,3.253727E-08,-1.114265E-07,-6.529912E-09,-2.622604E-08
549.9134,-1.155375,-9.042623E-09,NaN,-0.3256407,-1.33944E-07,NaN,1.020519,-3.891484E-10,NaN,-0.2888531,1.654142E-05,-0.8736405,-6.790633E-09,NaN,NaN,-0.01950455,-7.683416E-10,3.92428E-08,-1.114263E-07,-4.145726E-09,-2.861022E-08
549.9286,-1.172201,-9.041802E-09,NaN,-0.3256208,-1.339438E-07,NaN,1.025759,-3.750927E-10,NaN,-0.2898231,1.654192E-05,-0.8784615,-6.803001E-09,NaN,NaN,-0.01949985,-7.63685E-10,4.579931E-08,-1.114261E-07,-4.145726E-09,-2.622604E-08
549.9432,-1.188833,-9.040981E-09,NaN,-0.3256022,-1.339437E-07,NaN,1.030765,-3.611962E-10,NaN,-0.2908185,1.654242E-05,-0.8830862,-6.81521E-09,NaN,NaN,-0.01949547,-7.590284E-10,4.728942E-08,-1.114259E-07,-2.953633E-09,-2.861022E-08
549.9578,-1.188833,-9.040981E-09,NaN,-0.3256022,-1.339437E-07,NaN,1.030765,-3.611962E-10,NaN,-0.2908185,1.654242E-05,-0.8830862,-6.81521E-09,NaN,NaN,-0.01949547,-7.590284E-10,4.728942E-08,-1.114259E-07,-2.953633E-09,-2.861022E-08
549.9718,-1.205275,-9.040161E-09,NaN,-0.3255849,-1.339435E-07,NaN,1.035538,-3.474571E-10,NaN,-0.2918377,1.654292E-05,-0.8875155,-6.827262E-09,NaN,NaN,-0.0194914,-7.543718E-10,5.444198E-08,-1.114257E-07,-3.54968E-09,-2.622604E-08
549.9872,-1.221306,-9.03934E-09,NaN,-0.3255681,-1.339434E-07,NaN,1.039652,-3.310481E-10,NaN,-0.2929515,1.654342E-05,-0.8913519,-6.841984E-09,NaN,NaN,-0.01948822,-7.543718E-10,5.786925E-08,-1.114256E-07,-4.145726E-09,-2.861022E-08
550.002,-1.237013,-9.038519E-09,NaN,-0.3255527,-1.339432E-07,NaN,1.043421,-3.148432E-10,NaN,-0.2941072,1.654392E-05,-0.8948904,-6.856502E-09,NaN,NaN,-0.01948535,-7.543718E-10,6.36807E-08,-1.114254E-07,-5.933865E-09,-2.622604E-08
550.0168,-1.237013,-9.038519E-09,NaN,-0.3255527,-1.339432E-07,NaN,1.043421,-3.148432E-10,NaN,-0.2941072,1.654392E-05,-0.8948904,-6.856502E-09,NaN,NaN,-0.01948535,-7.543718E-10,6.36807E-08,-1.114254E-07,-5.933865E-09,-2.622604E-08
550.0308,-1.252449,-9.037698E-09,NaN,-0.3255391,-1.339431E-07,NaN,1.04696,-2.98839E-10,NaN,-0.2952812,1.654442E-05,-0.8982359,-6.870819E-09,NaN,NaN,-0.01948271,-7.543718E-10,6.36807E-08,-1.114252E-07,-5.933865E-09,-2.861022E-08
550.0463,-1.267652,-9.036876E-09,NaN,-0.3255273,-1.33943E-07,NaN,1.050303,-2.830314E-10,NaN,-0.2964638,1.654493E-05,-0.9014202,-6.88494E-09,NaN,NaN,-0.01948028,-7.543718E-10,6.859808E-08,-1.114251E-07,-2.953633E-09,-2.622604E-08
550.0608,-1.281915,-9.036055E-09,NaN,-0.3255146,-1.339428E-07,NaN,1.052057,-2.674199E-10,NaN,-0.2978853,1.654542E-05,-0.9031426,-6.898865E-09,NaN,NaN,-0.01947994,-7.497152E-10,7.142931E-08,-1.114249E-07,-3.54968E-09,-2.861022E-08
550.0755,-1.281915,-9.036055E-09,NaN,-0.3255146,-1.339428E-07,NaN,1.052057,-2.674199E-10,NaN,-0.2978853,1.654542E-05,-0.9031426,-6.898865E-09,NaN,NaN,-0.01947994,-7.497152E-10,7.142931E-08,-1.114249E-07,-3.54968E-09,-2.861022E-08
550.0897,-1.295529,-9.035233E-09,NaN,-0.3255043,-1.339427E-07,NaN,1.053246,-2.519983E-10,NaN,-0.299382,1.654592E-05,-0.9043661,-6.912602E-09,NaN,NaN,-0.01947995,-7.450586E-10,6.889611E-08,-1.114247E-07,-2.953633E-09,-2.622604E-08
550.1051,-1.308676,-9.034411E-09,NaN,-0.325497,-1.339425E-07,NaN,1.054236,-2.367659E-10,NaN,-0.3008827,1.654642E-05,-0.9054283,-6.92615E-09,NaN,NaN,-0.01947999,-7.450586E-10,6.487279E-08,-1.114245E-07,6.226453E-10,-2.861022E-08
550.1229,-1.321476,-9.03359E-09,NaN,-0.3254927,-1.339424E-07,NaN,1.055135,-2.217166E-10,NaN,-0.302362,1.654693E-05,-0.906426,-6.939516E-09,NaN,NaN,-0.01948004,-7.450586E-10,6.517082E-08,-1.114244E-07,2.659883E-11,-2.622604E-08
550.1366,-1.321476,-9.03359E-09,NaN,-0.3254927,-1.339424E-07,NaN,1.055135,-2.217166E-10,NaN,-0.302362,1.654693E-05,-0.906426,-6.939516E-09,NaN,NaN,-0.01948004,-7.450586E-10,6.517082E-08,-1.114244E-07,2.659883E-11,-2.622604E-08
550.1505,-1.333275,-9.032768E-09,NaN,-0.3254885,-1.339423E-07,NaN,1.054577,-2.068578E-10,NaN,-0.3040457,1.654743E-05,-0.9060839,-6.952691E-09,NaN,NaN,-0.01948197,-7.450586E-10,6.830006E-08,-1.114242E-07,2.659883E-11,-2.861022E-08
550.1647,-1.344396,-9.031947E-09,NaN,-0.3254869,-1.339421E-07,NaN,1.053564,-1.921751E-10,NaN,-0.3057753,1.654793E-05,-0.9053407,-6.96569E-09,NaN,NaN,-0.01948415,-7.40402E-10,6.7555E-08,-1.11424E-07,9.206685E-10,-2.622604E-08
550.1784,-1.344396,-9.031947E-09,NaN,-0.3254869,-1.339421E-07,NaN,1.053564,-1.921751E-10,NaN,-0.3057753,1.654793E-05,-0.9053407,-6.96569E-09,NaN,NaN,-0.01948415,-7.40402E-10,6.7555E-08,-1.11424E-07,9.206685E-10,-2.622604E-08
550.1921,-1.355044,-9.031125E-09,NaN,-0.325487,-1.33942E-07,NaN,1.052442,-1.776636E-10,NaN,-0.307484,1.654843E-05,-0.9045154,-6.978517E-09,NaN,NaN,-0.01948628,-7.40402E-10,6.680994E-08,-1.114239E-07,1.814738E-09,-2.861022E-08
550.2075,-1.364621,-9.030304E-09,NaN,-0.3254871,-1.339418E-07,NaN,1.049949,-1.633203E-10,NaN,-0.3093838,1.654893E-05,-0.9024289,-6.991175E-09,NaN,NaN,-0.01949009,-7.40402E-10,6.457476E-08,-1.114237E-07,2.112761E-09,-2.622604E-08
550.2219,-1.373486,-9.029482E-09,NaN,-0.3254884,-1.339417E-07,NaN,1.04709,-1.491412E-10,NaN,-0.3113112,1.654943E-05,-0.9000211,-7.003669E-09,NaN,NaN,-0.01949405,-7.357454E-10,6.38297E-08,-1.114235E-07,3.304854E-09,-2.861022E-08
550.2366,-1.373486,-9.029482E-09,NaN,-0.3254884,-1.339417E-07,NaN,1.04709,-1.491412E-10,NaN,-0.3113112,1.654943E-05,-0.9000211,-7.003669E-09,NaN,NaN,-0.01949405,-7.357454E-10,6.38297E-08,-1.114235E-07,3.304854E-09,-2.861022E-08
550.2507,-1.381864,-9.02866E-09,NaN,-0.325491,-1.339415E-07,NaN,1.044205,-1.351254E-10,NaN,-0.3132006,1.654993E-05,-0.8976055,-7.016001E-09,NaN,NaN,-0.01949787,-7.310887E-10,6.666092E-08,-1.114234E-07,2.708808E-09,-2.622604E-08
550.2661,-1.389902,-9.027839E-09,NaN,-0.3254953,-1.339414E-07,NaN,1.041379,-1.212698E-10,NaN,-0.3150336,1.655043E-05,-0.8952592,-7.028173E-09,NaN,NaN,-0.01950153,-7.310887E-10,6.680994E-08,-1.114232E-07,2.85782E-09,-2.861022E-08
550.2809,-1.396964,-9.027017E-09,NaN,-0.325499,-1.339413E-07,NaN,1.037293,-1.04742E-10,NaN,-0.3170469,1.655093E-05,-0.8917485,-7.043017E-09,NaN,NaN,-0.01950673,-7.264321E-10,6.487279E-08,-1.114231E-07,2.261773E-09,-2.622604E-08
550.2952,-1.396964,-9.027017E-09,NaN,-0.325499,-1.339413E-07,NaN,1.037293,-1.04742E-10,NaN,-0.3170469,1.655093E-05,-0.8917485,-7.043017E-09,NaN,NaN,-0.01950673,-7.264321E-10,6.487279E-08,-1.114231E-07,2.261773E-09,-2.622604E-08
550.3094,-1.403383,-9.026196E-09,NaN,-0.3255045,-1.339411E-07,NaN,1.032893,-8.842621E-11,NaN,-0.3190838,1.655143E-05,-0.8879594,-7.057649E-09,NaN,NaN,-0.01951203,-7.264321E-10,6.24886E-08,-1.114229E-07,1.740232E-09,-2.861022E-08
550.3248,-1.40937,-9.025374E-09,NaN,-0.3255124,-1.33941E-07,NaN,1.028504,-7.231167E-11,NaN,-0.3210812,1.655193E-05,-0.884192,-7.072079E-09,NaN,NaN,-0.01951711,-7.264321E-10,6.144552E-08,-1.114227E-07,1.293198E-09,-2.622604E-08
550.3397,-1.40937,-9.025374E-09,NaN,-0.3255124,-1.33941E-07,NaN,1.028504,-7.231167E-11,NaN,-0.3210812,1.655193E-05,-0.884192,-7.072079E-09,NaN,NaN,-0.01951711,-7.264321E-10,6.144552E-08,-1.114227E-07,1.293198E-09,-2.622604E-08
550.3536,-1.414332,-9.024553E-09,NaN,-0.3255201,-1.339409E-07,NaN,1.022921,-5.639608E-11,NaN,-0.3232617,1.655243E-05,-0.8793232,-7.086311E-09,NaN,NaN,-0.01952356,-7.264321E-10,5.935935E-08,-1.114226E-07,1.255945E-09,-2.861022E-08
550.3689,-1.418629,-9.023731E-09,NaN,-0.3255295,-1.339407E-07,NaN,1.017098,-4.06766E-11,NaN,-0.3254584,1.655294E-05,-0.8742414,-7.100347E-09,NaN,NaN,-0.01953001,-7.264321E-10,5.652813E-08,-1.114224E-07,9.39295E-10,-2.622604E-08
550.3837,-1.42249,-9.02291E-09,NaN,-0.3255408,-1.339406E-07,NaN,1.011353,-2.515039E-11,NaN,-0.327606,1.655343E-05,-0.8692428,-7.114189E-09,NaN,NaN,-0.01953618,-7.217755E-10,5.295185E-08,-1.114222E-07,8.834156E-10,-2.861022E-08
550.3981,-1.42249,-9.02291E-09,NaN,-0.3255408,-1.339406E-07,NaN,1.011353,-2.515039E-11,NaN,-0.327606,1.655343E-05,-0.8692428,-7.114189E-09,NaN,NaN,-0.01953618,-7.217755E-10,5.295185E-08,-1.114222E-07,8.834156E-10,-2.861022E-08
550.412,-1.426059,-9.022088E-09,NaN,-0.325554,-1.339405E-07,NaN,1.005765,-9.811763E-12,NaN,-0.3296856,1.655394E-05,-0.8643975,-7.127844E-09,NaN,NaN,-0.01954205,-7.217755E-10,5.056767E-08,-1.114221E-07,1.255945E-09,-2.622604E-08
550.4284,-1.428703,-9.021266E-09,NaN,-0.3255661,-1.339403E-07,NaN,0.999087,5.335303E-12,NaN,-0.331948,1.655444E-05,-0.8585442,-7.141308E-09,NaN,NaN,-0.01954917,-7.264321E-10,4.609732E-08,-1.114219E-07,1.777485E-09,-2.861022E-08
550.4432,-1.430753,-9.020445E-09,NaN,-0.3255788,-1.339402E-07,NaN,0.9922088,2.030161E-11,NaN,-0.3342278,1.655493E-05,-0.8525124,-7.154591E-09,NaN,NaN,-0.0195563,-7.171189E-10,4.475622E-08,-1.114218E-07,1.032427E-09,-2.622604E-08
550.4565,-1.430753,-9.020445E-09,NaN,-0.3255788,-1.339402E-07,NaN,0.9922088,2.030161E-11,NaN,-0.3342278,1.655493E-05,-0.8525124,-7.154591E-09,NaN,NaN,-0.0195563,-7.171189E-10,4.475622E-08,-1.114218E-07,1.032427E-09,-2.622604E-08
550.4706,-1.43242,-9.019623E-09,NaN,-0.3255922,-1.339401E-07,NaN,0.9854344,3.508772E-11,NaN,-0.3364599,1.655542E-05,-0.8465836,-7.167694E-09,NaN,NaN,-0.01956312,-7.171189E-10,4.416017E-08,-1.114216E-07,1.181439E-09,-2.861022E-08
550.4859,-1.433841,-9.018802E-09,NaN,-0.3256065,-1.3394E-07,NaN,0.9788401,4.969818E-11,NaN,-0.338625,1.65559E-05,-0.8408276,-7.180622E-09,NaN,NaN,-0.01956961,-7.078057E-10,4.117994E-08,-1.114214E-07,1.33045E-09,-2.622604E-08
550.5003,-1.434371,-9.01798E-09,NaN,-0.325619,-1.339398E-07,NaN,0.971233,6.413584E-11,NaN,-0.3409832,1.65564E-05,-0.8341346,-7.193377E-09,NaN,NaN,-0.01957723,-7.078057E-10,3.700761E-08,-1.114213E-07,1.032427E-09,-2.861022E-08
550.515,-1.434371,-9.01798E-09,NaN,-0.325619,-1.339398E-07,NaN,0.971233,6.413584E-11,NaN,-0.3409832,1.65564E-05,-0.8341346,-7.193377E-09,NaN,NaN,-0.01957723,-7.078057E-10,3.700761E-08,-1.114213E-07,1.032427E-09,-2.861022E-08
550.5289,-1.43434,-9.017159E-09,NaN,-0.325631,-1.339397E-07,NaN,0.963471,7.840297E-11,NaN,-0.343361,1.655688E-05,-0.8273031,-7.205962E-09,NaN,NaN,-0.01958483,-6.984925E-10,3.372936E-08,-1.114211E-07,5.853924E-10,-2.622604E-08
550.5443,-1.433956,-9.016337E-09,NaN,-0.325643,-1.339396E-07,NaN,0.9558477,9.250468E-11,NaN,-0.3456906,1.655737E-05,-0.8206052,-7.218382E-09,NaN,NaN,-0.01959209,-6.984925E-10,3.060011E-08,-1.11421E-07,1.383576E-10,-2.861022E-08
550.5588,-1.433956,-9.016337E-09,NaN,-0.325643,-1.339396E-07,NaN,0.9558477,9.250468E-11,NaN,-0.3456906,1.655737E-05,-0.8206052,-7.218382E-09,NaN,NaN,-0.01959209,-6.984925E-10,3.060011E-08,-1.11421E-07,1.383576E-10,-2.861022E-08
550.573,-1.432624,-9.015515E-09,NaN,-0.3256528,-1.339395E-07,NaN,0.9472875,1.064433E-10,NaN,-0.3482206,1.655786E-05,-0.8130418,-7.230638E-09,NaN,NaN,-0.01960037,-6.891793E-10,2.79179E-08,-1.114208E-07,-3.086773E-10,-2.622604E-08
550.5883,-1.430699,-9.014695E-09,NaN,-0.3256614,-1.339393E-07,NaN,0.9386419,1.202227E-10,NaN,-0.3507649,1.655835E-05,-0.8054038,-7.242735E-09,NaN,NaN,-0.01960855,-6.891793E-10,2.747087E-08,-1.114207E-07,-4.576889E-10,-2.861022E-08
550.6027,-1.428411,-9.013874E-09,NaN,-0.3256695,-1.339392E-07,NaN,0.9301977,1.338446E-10,NaN,-0.3532521,1.655884E-05,-0.7979566,-7.254676E-09,NaN,NaN,-0.01961635,-6.798661E-10,2.612977E-08,-1.114205E-07,1.383576E-10,-2.622604E-08
550.6189,-1.428411,-9.013874E-09,NaN,-0.3256695,-1.339392E-07,NaN,0.9301977,1.338446E-10,NaN,-0.3532521,1.655884E-05,-0.7979566,-7.254676E-09,NaN,NaN,-0.01961635,-6.798661E-10,2.612977E-08,-1.114205E-07,1.383576E-10,-2.622604E-08
550.6318,-1.425904,-9.013053E-09,NaN,-0.3256772,-1.339391E-07,NaN,0.9220216,1.473142E-10,NaN,-0.3556622,1.655933E-05,-0.7907615,-7.266464E-09,NaN,NaN,-0.01962374,-6.798661E-10,2.329854E-08,-1.114204E-07,-4.576889E-10,-2.861022E-08
550.647,-1.422541,-9.012233E-09,NaN,-0.3256823,-1.339389E-07,NaN,0.9130076,1.634629E-10,NaN,-0.3582765,1.655981E-05,-0.7827939,-7.280931E-09,NaN,NaN,-0.01963205,-6.705528E-10,1.897721E-08,-1.114202E-07,1.383576E-10,-2.622604E-08
550.6615,-1.418653,-9.011412E-09,NaN,-0.3256857,-1.339388E-07,NaN,0.9039399,1.794069E-10,NaN,-0.3609082,1.656031E-05,-0.7747803,-7.295193E-09,NaN,NaN,-0.01964027,-6.705528E-10,1.480488E-08,-1.114201E-07,1.33045E-09,-2.861022E-08
550.6761,-1.418653,-9.011412E-09,NaN,-0.3256857,-1.339388E-07,NaN,0.9039399,1.794069E-10,NaN,-0.3609082,1.656031E-05,-0.7747803,-7.295193E-09,NaN,NaN,-0.01964027,-6.705528E-10,1.480488E-08,-1.114201E-07,1.33045E-09,-2.861022E-08
550.69,-1.414452,-9.010591E-09,NaN,-0.3256879,-1.339387E-07,NaN,0.8950866,1.951502E-10,NaN,-0.3634852,1.656079E-05,-0.7669681,-7.309255E-09,NaN,NaN,-0.01964812,-6.612396E-10,1.227169E-08,-1.114199E-07,1.032427E-09,-2.622604E-08
550.7074,-1.410071,-9.009771E-09,NaN,-0.3256895,-1.339386E-07,NaN,0.8865123,2.106992E-10,NaN,-0.3659864,1.656128E-05,-0.7594168,-7.323123E-09,NaN,NaN,-0.01965557,-6.612396E-10,1.078157E-08,-1.114198E-07,7.34404E-10,-2.861022E-08
550.721,-1.404867,-9.00895E-09,NaN,-0.3256895,-1.339384E-07,NaN,0.8771696,2.260589E-10,NaN,-0.3687058,1.656177E-05,-0.7511599,-7.3368E-09,NaN,NaN,-0.01966384,-6.519264E-10,7.056279E-09,-1.114196E-07,1.032427E-09,-2.622604E-08
550.7346,-1.404867,-9.00895E-09,NaN,-0.3256895,-1.339384E-07,NaN,0.8771696,2.260589E-10,NaN,-0.3687058,1.656177E-05,-0.7511599,-7.3368E-09,NaN,NaN,-0.01966384,-6.519264E-10,7.056279E-09,-1.114196E-07,1.032427E-09,-2.622604E-08
550.7487,-1.399167,-9.008129E-09,NaN,-0.3256885,-1.339383E-07,NaN,0.8678054,2.412309E-10,NaN,-0.3714462,1.656226E-05,-0.7428862,-7.35029E-09,NaN,NaN,-0.019672,-6.519264E-10,3.778024E-09,-1.114195E-07,2.873692E-10,-2.861022E-08
550.764,-1.393179,-9.007309E-09,NaN,-0.3256867,-1.339382E-07,NaN,0.8586762,2.562222E-10,NaN,-0.3741314,1.656274E-05,-0.7348322,-7.3636E-09,NaN,NaN,-0.0196798,-6.426132E-10,2.138896E-09,-1.114193E-07,1.383576E-10,-2.622604E-08
550.7784,-1.393179,-9.007309E-09,NaN,-0.3256867,-1.339382E-07,NaN,0.8586762,2.562222E-10,NaN,-0.3741314,1.656274E-05,-0.7348322,-7.3636E-09,NaN,NaN,-0.0196798,-6.426132E-10,2.138896E-09,-1.114193E-07,1.383576E-10,-2.622604E-08
550.7924,-1.386307,-9.006488E-09,NaN,-0.325682,-1.33938E-07,NaN,0.8488448,2.710299E-10,NaN,-0.3770421,1.656324E-05,-0.7261354,-7.376726E-09,NaN,NaN,-0.01968833,-6.426132E-10,-9.903478E-10,-1.114192E-07,1.479462E-09,-2.861022E-08
550.8076,-1.378907,-9.005667E-09,NaN,-0.3256752,-1.339379E-07,NaN,0.83905,2.856632E-10,NaN,-0.3799674,1.656372E-05,-0.7174751,-7.389677E-09,NaN,NaN,-0.01969671,-6.333E-10,-3.97058E-09,-1.11419E-07,4.363808E-10,-2.622604E-08
550.8222,-1.371207,-9.004847E-09,NaN,-0.3256668,-1.339378E-07,NaN,0.8295398,3.001236E-10,NaN,-0.3828275,1.656421E-05,-0.7090797,-7.402456E-09,NaN,NaN,-0.01970468,-6.333E-10,-5.758719E-09,-1.114189E-07,-1.596656E-10,-2.861022E-08
550.8369,-1.371207,-9.004847E-09,NaN,-0.3256668,-1.339378E-07,NaN,0.8295398,3.001236E-10,NaN,-0.3828275,1.656421E-05,-0.7090797,-7.402456E-09,NaN,NaN,-0.01970468,-6.333E-10,-5.758719E-09,-1.114189E-07,-1.596656E-10,-2.861022E-08
550.8507,-1.363349,-9.004026E-09,NaN,-0.3256573,-1.339377E-07,NaN,0.8203686,3.14414E-10,NaN,-0.3856001,1.65647E-05,-0.7009994,-7.415065E-09,NaN,NaN,-0.01971223,-6.239868E-10,-5.013661E-09,-1.114187E-07,-1.065401E-11,-2.622604E-08
550.8661,-1.354697,-9.003205E-09,NaN,-0.3256449,-1.339375E-07,NaN,0.8105791,3.285356E-10,NaN,-0.3886017,1.656519E-05,-0.6923571,-7.427506E-09,NaN,NaN,-0.01972043,-6.239868E-10,-7.993894E-09,-1.114186E-07,-6.067005E-10,-2.861022E-08
550.8808,-1.345582,-9.002385E-09,NaN,-0.32563,-1.339374E-07,NaN,0.8008439,3.424981E-10,NaN,-0.3916201,1.656567E-05,-0.6837681,-7.439786E-09,NaN,NaN,-0.01972849,-6.146735E-10,-1.097413E-08,-1.114184E-07,-9.047237E-10,-2.622604E-08
550.8953,-1.345582,-9.002385E-09,NaN,-0.32563,-1.339374E-07,NaN,0.8008439,3.424981E-10,NaN,-0.3916201,1.656567E-05,-0.6837681,-7.439786E-09,NaN,NaN,-0.01972849,-6.146735E-10,-1.097413E-08,-1.114184E-07,-9.047237E-10,-2.622604E-08
550.9094,-1.336213,-9.001565E-09,NaN,-0.3256134,-1.339373E-07,NaN,0.7913924,3.562962E-10,NaN,-0.394575,1.656617E-05,-0.6754424,-7.451901E-09,NaN,NaN,-0.01973617,-6.146735E-10,-1.484843E-08,-1.114183E-07,-1.065403E-11,-2.861022E-08
550.9246,-1.326725,-9.000745E-09,NaN,-0.3255956,-1.339371E-07,NaN,0.7822769,3.699409E-10,NaN,-0.3974431,1.656665E-05,-0.6674281,-7.463863E-09,NaN,NaN,-0.01974344,-6.053603E-10,-1.857372E-08,-1.114181E-07,5.853924E-10,-2.622604E-08
550.9395,-1.326725,-9.000745E-09,NaN,-0.3255956,-1.339371E-07,NaN,0.7822769,3.699409E-10,NaN,-0.3974431,1.656665E-05,-0.6674281,-7.463863E-09,NaN,NaN,-0.01974344,-6.053603E-10,-1.857372E-08,-1.114181E-07,5.853924E-10,-2.622604E-08
550.9533,-1.316472,-8.999925E-09,NaN,-0.3255748,-1.33937E-07,NaN,0.7725968,3.834298E-10,NaN,-0.400552,1.656714E-05,-0.6589045,-7.47567E-09,NaN,NaN,-0.01975129,-6.053603E-10,-2.155395E-08,-1.11418E-07,1.33045E-09,-2.861022E-08
550.9688,-1.305782,-8.999105E-09,NaN,-0.3255515,-1.339369E-07,NaN,0.7629881,3.96771E-10,NaN,-0.4036798,1.656763E-05,-0.6504497,-7.48733E-09,NaN,NaN,-0.01975902,-5.960471E-10,-2.274605E-08,-1.114179E-07,1.777485E-09,-2.622604E-08
550.9833,-1.294861,-8.998286E-09,NaN,-0.3255262,-1.339368E-07,NaN,0.7536691,4.099638E-10,NaN,-0.4067423,1.656812E-05,-0.6422626,-7.498842E-09,NaN,NaN,-0.01976638,-6.007037E-10,-2.662035E-08,-1.114177E-07,1.851991E-09,-2.861022E-08
551.0002,-1.28384,-8.997466E-09,NaN,-0.3254997,-1.339366E-07,NaN,0.7446898,4.230133E-10,NaN,-0.4097149,1.656861E-05,-0.6343894,-7.510209E-09,NaN,NaN,-0.01977336,-5.913905E-10,-2.870651E-08,-1.114176E-07,1.851991E-09,-2.622604E-08
551.0139,-1.28384,-8.997466E-09,NaN,-0.3254997,-1.339366E-07,NaN,0.7446898,4.230133E-10,NaN,-0.4097149,1.656861E-05,-0.6343894,-7.510209E-09,NaN,NaN,-0.01977336,-5.913905E-10,-2.870651E-08,-1.114176E-07,1.851991E-09,-2.622604E-08
551.0278,-1.272076,-8.996646E-09,NaN,-0.3254701,-1.339365E-07,NaN,0.7352026,4.387442E-10,NaN,-0.4129362,1.65691E-05,-0.626062,-7.524259E-09,NaN,NaN,-0.01978085,-5.913905E-10,-3.302785E-08,-1.114174E-07,1.479462E-09,-2.861022E-08
551.0418,-1.259892,-8.995826E-09,NaN,-0.3254379,-1.339364E-07,NaN,0.7258057,4.514572E-10,NaN,-0.4161756,1.656959E-05,-0.6178206,-7.535289E-09,NaN,NaN,-0.01978821,-5.820773E-10,-3.585907E-08,-1.114173E-07,-1.065392E-11,-2.622604E-08
551.0566,-1.259892,-8.995826E-09,NaN,-0.3254379,-1.339364E-07,NaN,0.7258057,4.514572E-10,NaN,-0.4161756,1.656959E-05,-0.6178206,-7.535289E-09,NaN,NaN,-0.01978821,-5.820773E-10,-3.585907E-08,-1.114173E-07,-1.065392E-11,-2.622604E-08
551.0705,-1.247495,-8.995007E-09,NaN,-0.3254037,-1.339363E-07,NaN,0.7167047,4.639883E-10,NaN,-0.4193459,1.657008E-05,-0.6098514,-7.546138E-09,NaN,NaN,-0.01979523,-5.820773E-10,-3.839227E-08,-1.114171E-07,-2.155449E-10,-2.861022E-08
551.0861,-1.234289,-8.994187E-09,NaN,-0.3253658,-1.339361E-07,NaN,0.7071477,4.763893E-10,NaN,-0.4227695,1.657058E-05,-0.6014773,-7.556856E-09,NaN,NaN,-0.0198027,-5.867339E-10,-4.01804E-08,-1.11417E-07,4.876036E-10,-2.622604E-08
551.102,-1.220628,-8.993367E-09,NaN,-0.3253245,-1.33936E-07,NaN,0.697722,4.886623E-10,NaN,-0.4262016,1.657108E-05,-0.5932258,-7.567447E-09,NaN,NaN,-0.01981001,-5.913905E-10,-4.330965E-08,-1.114169E-07,-4.809718E-10,-2.861022E-08
551.1152,-1.220628,-8.993367E-09,NaN,-0.3253245,-1.33936E-07,NaN,0.697722,4.886623E-10,NaN,-0.4262016,1.657108E-05,-0.5932258,-7.567447E-09,NaN,NaN,-0.01981001,-5.913905E-10,-4.330965E-08,-1.114169E-07,-4.809718E-10,-2.861022E-08
551.1294,-1.206739,-8.992547E-09,NaN,-0.3252808,-1.339359E-07,NaN,0.6886241,5.008115E-10,NaN,-0.4295519,1.657156E-05,-0.5852748,-7.577913E-09,NaN,NaN,-0.01981695,-5.820773E-10,-4.539581E-08,-1.114167E-07,-1.375041E-09,-2.622604E-08
551.1446,-1.192765,-8.991727E-09,NaN,-0.3252354,-1.339358E-07,NaN,0.6798939,5.128344E-10,NaN,-0.4327954,1.657205E-05,-0.5776609,-7.588253E-09,NaN,NaN,-0.0198235,-5.820773E-10,-4.509779E-08,-1.114166E-07,-1.673065E-09,-2.861022E-08
551.1592,-1.192765,-8.991727E-09,NaN,-0.3252354,-1.339358E-07,NaN,0.6798939,5.128344E-10,NaN,-0.4327954,1.657205E-05,-0.5776609,-7.588253E-09,NaN,NaN,-0.0198235,-5.820773E-10,-4.509779E-08,-1.114166E-07,-1.673065E-09,-2.861022E-08
551.1732,-1.178067,-8.990908E-09,NaN,-0.3251868,-1.339357E-07,NaN,0.6707665,5.24738E-10,NaN,-0.4362911,1.657254E-05,-0.5696996,-7.598472E-09,NaN,NaN,-0.01983044,-5.727641E-10,-4.748198E-08,-1.114164E-07,-2.120099E-09,-2.622604E-08
551.1888,-1.162975,-8.990088E-09,NaN,-0.3251352,-1.339356E-07,NaN,0.6617711,5.365217E-10,NaN,-0.439796,1.657303E-05,-0.5618623,-7.608572E-09,NaN,NaN,-0.01983723,-5.774207E-10,-5.225035E-08,-1.114163E-07,-7.78995E-10,-2.861022E-08
551.2031,-1.147699,-8.989268E-09,NaN,-0.3250813,-1.339354E-07,NaN,0.6530881,5.481888E-10,NaN,-0.4432196,1.657353E-05,-0.5543102,-7.618555E-09,NaN,NaN,-0.01984369,-5.820773E-10,-5.493256E-08,-1.114162E-07,-3.319602E-10,-2.622604E-08
551.218,-1.147699,-8.989268E-09,NaN,-0.3250813,-1.339354E-07,NaN,0.6530881,5.481888E-10,NaN,-0.4432196,1.657353E-05,-0.5543102,-7.618555E-09,NaN,NaN,-0.01984369,-5.820773E-10,-5.493256E-08,-1.114162E-07,-3.319602E-10,-2.622604E-08
551.232,-1.131643,-8.988448E-09,NaN,-0.3250236,-1.339353E-07,NaN,0.6440426,5.597439E-10,NaN,-0.446902,1.657403E-05,-0.5464438,-7.628426E-09,NaN,NaN,-0.01985049,-5.820773E-10,-5.612465E-08,-1.11416E-07,1.009144E-09,-2.861022E-08
551.2474,-1.115163,-8.987628E-09,NaN,-0.3249623,-1.339352E-07,NaN,0.6351555,5.71187E-10,NaN,-0.4505856,1.657452E-05,-0.538724,-7.638184E-09,NaN,NaN,-0.01985712,-5.867339E-10,-5.94029E-08,-1.114159E-07,1.009144E-09,-2.622604E-08
551.2618,-1.098486,-8.986809E-09,NaN,-0.3248983,-1.339351E-07,NaN,0.626601,5.82512E-10,NaN,-0.4541761,1.657502E-05,-0.5313061,-7.647825E-09,NaN,NaN,-0.01986342,-5.913905E-10,-6.357523E-08,-1.114158E-07,1.307167E-09,-2.861022E-08
551.2786,-1.098486,-8.986809E-09,NaN,-0.3248983,-1.339351E-07,NaN,0.626601,5.82512E-10,NaN,-0.4541761,1.657502E-05,-0.5313061,-7.647825E-09,NaN,NaN,-0.01986342,-5.913905E-10,-6.357523E-08,-1.114158E-07,1.307167E-09,-2.861022E-08
551.2914,-1.081755,-8.985989E-09,NaN,-0.3248325,-1.33935E-07,NaN,0.6184127,5.937306E-10,NaN,-0.457648,1.657551E-05,-0.5242207,-7.657359E-09,NaN,NaN,-0.01986936,-5.820773E-10,-6.417127E-08,-1.114156E-07,1.903214E-09,-2.622604E-08
551.306,-1.064331,-8.985169E-09,NaN,-0.3247637,-1.339349E-07,NaN,0.6099057,6.04839E-10,NaN,-0.4613773,1.6576E-05,-0.5168644,-7.666784E-09,NaN,NaN,-0.01987557,-5.820773E-10,-6.625744E-08,-1.114155E-07,2.49926E-09,-2.861022E-08
551.3205,-1.046545,-8.984349E-09,NaN,-0.3246917,-1.339348E-07,NaN,0.6015496,6.15845E-10,NaN,-0.4651091,1.657648E-05,-0.5096477,-7.676107E-09,NaN,NaN,-0.01988164,-5.727641E-10,-6.83436E-08,-1.114154E-07,1.903214E-09,-2.622604E-08
551.3351,-1.046545,-8.984349E-09,NaN,-0.3246917,-1.339348E-07,NaN,0.6015496,6.15845E-10,NaN,-0.4651091,1.657648E-05,-0.5096477,-7.676107E-09,NaN,NaN,-0.01988164,-5.727641E-10,-6.83436E-08,-1.114154E-07,1.903214E-09,-2.622604E-08
551.3492,-1.028605,-8.983529E-09,NaN,-0.3246174,-1.339346E-07,NaN,0.5935042,6.267475E-10,NaN,-0.4687492,1.657698E-05,-0.5027115,-7.685327E-09,NaN,NaN,-0.01988741,-5.774207E-10,-7.22179E-08,-1.114152E-07,4.883446E-09,-2.861022E-08
551.3645,-1.010644,-8.98271E-09,NaN,-0.3245419,-1.339345E-07,NaN,0.5858023,6.375518E-10,NaN,-0.4722713,1.657748E-05,-0.4960852,-7.694448E-09,NaN,NaN,-0.01989286,-5.820773E-10,-7.758232E-08,-1.114151E-07,6.075539E-09,-2.622604E-08
551.3793,-1.010644,-8.98271E-09,NaN,-0.3245419,-1.339345E-07,NaN,0.5858023,6.375518E-10,NaN,-0.4722713,1.657748E-05,-0.4960852,-7.694448E-09,NaN,NaN,-0.01989286,-5.820773E-10,-7.758232E-08,-1.114151E-07,6.075539E-09,-2.622604E-08
551.3929,-0.9920165,-8.98189E-09,NaN,-0.3244636,-1.339344E-07,NaN,0.5778043,6.482605E-10,NaN,-0.4760582,1.657797E-05,-0.4892105,-7.703473E-09,NaN,NaN,-0.01989856,-5.820773E-10,-8.205267E-08,-1.11415E-07,4.883447E-09,-2.861022E-08
551.4083,-0.973048,-8.98107E-09,NaN,-0.3243825,-1.339343E-07,NaN,0.5699517,6.588749E-10,NaN,-0.4798481,1.657846E-05,-0.4824693,-7.712403E-09,NaN,NaN,-0.01990413,-5.727641E-10,-8.384081E-08,-1.114148E-07,6.075539E-09,-2.622604E-08
551.4228,-0.9539443,-8.980251E-09,NaN,-0.3242992,-1.339342E-07,NaN,0.5623963,6.722194E-10,NaN,-0.4835438,1.657895E-05,-0.4759939,-7.724064E-09,NaN,NaN,-0.01990944,-5.727641E-10,-8.711906E-08,-1.114147E-07,5.479493E-09,-2.861022E-08
551.4377,-0.9539443,-8.980251E-09,NaN,-0.3242992,-1.339342E-07,NaN,0.5623963,6.722194E-10,NaN,-0.4835438,1.657895E-05,-0.4759939,-7.724064E-09,NaN,NaN,-0.01990944,-5.727641E-10,-8.711906E-08,-1.114147E-07,5.479493E-09,-2.861022E-08
551.4518,-0.9341076,-8.979432E-09,NaN,-0.3242125,-1.339341E-07,NaN,0.5545736,6.854173E-10,NaN,-0.4875061,1.657945E-05,-0.4692964,-7.735578E-09,NaN,NaN,-0.01991496,-5.774207E-10,-9.337755E-08,-1.114146E-07,6.671586E-09,-2.622604E-08
551.467,-0.913893,-8.978613E-09,NaN,-0.3241221,-1.33934E-07,NaN,0.5469175,6.984737E-10,NaN,-0.4914603,1.657994E-05,-0.4627494,-7.746951E-09,NaN,NaN,-0.01992033,-5.774207E-10,-1.008281E-07,-1.114145E-07,7.267632E-09,-2.861022E-08
551.4818,-0.8935252,-8.977794E-09,NaN,-0.324029,-1.339339E-07,NaN,0.5395737,7.113863E-10,NaN,-0.4953063,1.658042E-05,-0.4564793,-7.75818E-09,NaN,NaN,-0.01992543,-5.681074E-10,-1.035103E-07,-1.114143E-07,7.863679E-09,-2.622604E-08
551.4966,-0.8935252,-8.977794E-09,NaN,-0.324029,-1.339339E-07,NaN,0.5395737,7.113863E-10,NaN,-0.4953063,1.658042E-05,-0.4564793,-7.75818E-09,NaN,NaN,-0.01992543,-5.681074E-10,-1.035103E-07,-1.114143E-07,7.863679E-09,-2.622604E-08
551.5104,-0.8731464,-8.976975E-09,NaN,-0.3239344,-1.339337E-07,NaN,0.5325695,7.241607E-10,NaN,-0.4990179,1.658092E-05,-0.4505105,-7.769271E-09,NaN,NaN,-0.01993023,-5.681074E-10,-1.055965E-07,-1.114142E-07,4.883447E-09,-2.861022E-08
551.5258,-0.852118,-8.976156E-09,NaN,-0.323837,-1.339336E-07,NaN,0.5253294,7.367976E-10,NaN,-0.5029915,1.65814E-05,-0.4443506,-7.780225E-09,NaN,NaN,-0.01993521,-5.634508E-10,-1.106629E-07,-1.114141E-07,1.024786E-08,-2.622604E-08
551.5403,-0.8307691,-8.975337E-09,NaN,-0.3237367,-1.339335E-07,NaN,0.5182438,7.493008E-10,NaN,-0.5069577,1.658189E-05,-0.4383298,-7.791045E-09,NaN,NaN,-0.01994005,-5.681074E-10,-1.172194E-07,-1.114139E-07,9.651818E-09,-2.861022E-08
551.5561,-0.8307691,-8.975337E-09,NaN,-0.3237367,-1.339335E-07,NaN,0.5182438,7.493008E-10,NaN,-0.5069577,1.658189E-05,-0.4383298,-7.791045E-09,NaN,NaN,-0.01994005,-5.681074E-10,-1.172194E-07,-1.114139E-07,9.651818E-09,-2.861022E-08
551.5705,-0.809308,-8.974518E-09,NaN,-0.3236342,-1.339334E-07,NaN,0.5114466,7.616734E-10,NaN,-0.5108176,1.658238E-05,-0.4325625,-7.801734E-09,NaN,NaN,-0.01994466,-5.634508E-10,-1.237759E-07,-1.114138E-07,8.459725E-09,-2.622604E-08
551.5845,-0.7878661,-8.973699E-09,NaN,-0.3235307,-1.339333E-07,NaN,0.5049643,7.739146E-10,NaN,-0.5145443,1.658287E-05,-0.427072,-7.812292E-09,NaN,NaN,-0.019949,-5.681074E-10,-1.264581E-07,-1.114137E-07,8.459725E-09,-2.861022E-08
551.5991,-0.7878661,-8.973699E-09,NaN,-0.3235307,-1.339333E-07,NaN,0.5049643,7.739146E-10,NaN,-0.5145443,1.658287E-05,-0.427072,-7.812292E-09,NaN,NaN,-0.019949,-5.681074E-10,-1.264581E-07,-1.114137E-07,8.459725E-09,-2.861022E-08
551.6132,-0.7657983,-8.97288E-09,NaN,-0.323425,-1.339332E-07,NaN,0.4982578,7.860331E-10,NaN,-0.5185392,1.658336E-05,-0.4214022,-7.822726E-09,NaN,NaN,-0.0199535,-5.634508E-10,-1.276502E-07,-1.114136E-07,7.267633E-09,-2.622604E-08
551.6281,-0.7434293,-8.972061E-09,NaN,-0.3233166,-1.339331E-07,NaN,0.4916956,7.980293E-10,NaN,-0.5225273,1.658385E-05,-0.4158607,-7.833039E-09,NaN,NaN,-0.01995788,-5.681074E-10,-1.330146E-07,-1.114134E-07,6.07554E-09,-2.861022E-08
551.6428,-0.7209644,-8.971242E-09,NaN,-0.3232064,-1.339329E-07,NaN,0.4854053,8.099033E-10,NaN,-0.5264075,1.658433E-05,-0.4105551,-7.843229E-09,NaN,NaN,-0.01996206,-5.634508E-10,-1.37485E-07,-1.114133E-07,7.267633E-09,-2.622604E-08
551.6575,-0.7209644,-8.971242E-09,NaN,-0.3232064,-1.339329E-07,NaN,0.4854053,8.099033E-10,NaN,-0.5264075,1.658433E-05,-0.4105551,-7.843229E-09,NaN,NaN,-0.01996206,-5.634508E-10,-1.37485E-07,-1.114133E-07,7.267633E-09,-2.622604E-08
551.6717,-0.6978055,-8.970424E-09,NaN,-0.3230931,-1.339328E-07,NaN,0.4789101,8.21658E-10,NaN,-0.5305566,1.658483E-05,-0.4050871,-7.853301E-09,NaN,NaN,-0.01996637,-5.681074E-10,-1.404652E-07,-1.114132E-07,1.32281E-08,-2.861022E-08
551.6871,-0.6743072,-8.969605E-09,NaN,-0.3229763,-1.339327E-07,NaN,0.4725738,8.332972E-10,NaN,-0.5346874,1.658531E-05,-0.3997575,-7.863258E-09,NaN,NaN,-0.01997056,-5.634508E-10,-1.464257E-07,-1.114131E-07,1.2036E-08,-2.622604E-08
551.7017,-0.6506936,-8.968786E-09,NaN,-0.3228569,-1.339326E-07,NaN,0.4665192,8.448182E-10,NaN,-0.5386965,1.65858E-05,-0.3946698,-7.873097E-09,NaN,NaN,-0.01997452,-5.681074E-10,-1.488099E-07,-1.114129E-07,1.2036E-08,-2.861022E-08
551.7166,-0.6506936,-8.968786E-09,NaN,-0.3228569,-1.339326E-07,NaN,0.4665192,8.448182E-10,NaN,-0.5386965,1.65858E-05,-0.3946698,-7.873097E-09,NaN,NaN,-0.01997452,-5.681074E-10,-1.488099E-07,-1.114129E-07,1.2036E-08,-2.861022E-08
551.7306,-0.6271063,-8.967967E-09,NaN,-0.3227363,-1.339325E-07,NaN,0.4607688,8.562306E-10,NaN,-0.5425571,1.658629E-05,-0.3898437,-7.882828E-09,NaN,NaN,-0.01997826,-5.634508E-10,-1.556644E-07,-1.114128E-07,8.459725E-09,-2.622604E-08
551.7461,-0.6030787,-8.967148E-09,NaN,-0.322614,-1.339324E-07,NaN,0.4549461,8.675311E-10,NaN,-0.5465842,1.658678E-05,-0.3849683,-7.892446E-09,NaN,NaN,-0.01998202,-5.681074E-10,-1.601347E-07,-1.114127E-07,4.883447E-09,-2.861022E-08
551.7607,-0.5788748,-8.966329E-09,NaN,-0.3224899,-1.339323E-07,NaN,0.4492963,8.787236E-10,NaN,-0.5505667,1.658726E-05,-0.3802422,-7.901956E-09,NaN,NaN,-0.01998566,-5.634508E-10,-1.643071E-07,-1.114126E-07,1.2036E-08,-2.622604E-08
551.7753,-0.5788748,-8.966329E-09,NaN,-0.3224899,-1.339323E-07,NaN,0.4492963,8.787236E-10,NaN,-0.5505667,1.658726E-05,-0.3802422,-7.901956E-09,NaN,NaN,-0.01998566,-5.634508E-10,-1.643071E-07,-1.114126E-07,1.2036E-08,-2.622604E-08
551.7894,-0.5546613,-8.96551E-09,NaN,-0.3223651,-1.339321E-07,NaN,0.4439002,8.898114E-10,NaN,-0.5544298,1.658775E-05,-0.3757322,-7.911362E-09,NaN,NaN,-0.0199891,-5.587942E-10,-1.714596E-07,-1.114125E-07,1.442019E-08,-2.861022E-08
551.8047,-0.5305431,-8.964691E-09,NaN,-0.3222405,-1.33932E-07,NaN,0.4387698,9.007931E-10,NaN,-0.558155,1.658823E-05,-0.3714485,-7.920662E-09,NaN,NaN,-0.01999233,-5.541376E-10,-1.76526E-07,-1.114123E-07,1.442019E-08,-2.622604E-08
551.8208,-0.5065858,-8.963873E-09,NaN,-0.3221174,-1.339319E-07,NaN,0.4338923,9.11674E-10,NaN,-0.5617454,1.658872E-05,-0.3673803,-7.929862E-09,NaN,NaN,-0.01999537,-5.587942E-10,-1.809964E-07,-1.114122E-07,1.680437E-08,-2.861022E-08
551.8351,-0.5065858,-8.963873E-09,NaN,-0.3221174,-1.339319E-07,NaN,0.4338923,9.11674E-10,NaN,-0.5617454,1.658872E-05,-0.3673803,-7.929862E-09,NaN,NaN,-0.01999537,-5.587942E-10,-1.809964E-07,-1.114122E-07,1.680437E-08,-2.861022E-08
551.8484,-0.4828301,-8.963055E-09,NaN,-0.3219967,-1.339318E-07,NaN,0.4292482,9.224578E-10,NaN,-0.5652103,1.658921E-05,-0.3635108,-7.938966E-09,NaN,NaN,-0.01999824,-5.541376E-10,-1.836786E-07,-1.114121E-07,1.680437E-08,-2.622604E-08
551.8635,-0.4593006,-8.962237E-09,NaN,-0.3218793,-1.339317E-07,NaN,0.4248186,9.359661E-10,NaN,-0.5685597,1.65897E-05,-0.3598235,-7.950794E-09,NaN,NaN,-0.02000095,-5.587942E-10,-1.863608E-07,-1.11412E-07,1.561228E-08,-2.861022E-08
551.8782,-0.4593006,-8.962237E-09,NaN,-0.3218793,-1.339317E-07,NaN,0.4248186,9.359661E-10,NaN,-0.5685597,1.65897E-05,-0.3598235,-7.950794E-09,NaN,NaN,-0.02000095,-5.587942E-10,-1.863608E-07,-1.11412E-07,1.561228E-08,-2.861022E-08
551.8921,-0.4360121,-8.961419E-09,NaN,-0.3217657,-1.339316E-07,NaN,0.4205871,9.492652E-10,NaN,-0.571802,1.659018E-05,-0.3563039,-7.962412E-09,NaN,NaN,-0.02000352,-5.49481E-10,-1.908311E-07,-1.114119E-07,1.442019E-08,-2.622604E-08
551.9074,-0.4129726,-8.960601E-09,NaN,-0.3216563,-1.339315E-07,NaN,0.4165404,9.624199E-10,NaN,-0.5749439,1.659068E-05,-0.3529398,-7.973886E-09,NaN,NaN,-0.02000595,-5.49481E-10,-1.935134E-07,-1.114117E-07,1.442019E-08,-2.861022E-08
551.9222,-0.3901865,-8.959783E-09,NaN,-0.3215514,-1.339314E-07,NaN,0.4126673,9.75432E-10,NaN,-0.5779908,1.659117E-05,-0.3497212,-7.985216E-09,NaN,NaN,-0.02000827,-5.355112E-10,-1.932153E-07,-1.114116E-07,8.459724E-09,-2.622604E-08
551.9371,-0.3901865,-8.959783E-09,NaN,-0.3215514,-1.339314E-07,NaN,0.4126673,9.75432E-10,NaN,-0.5779908,1.659117E-05,-0.3497212,-7.985216E-09,NaN,NaN,-0.02000827,-5.355112E-10,-1.932153E-07,-1.114116E-07,8.459724E-09,-2.622604E-08
551.9509,-0.3676552,-8.958965E-09,NaN,-0.3214512,-1.339312E-07,NaN,0.4089586,9.883024E-10,NaN,-0.5809467,1.659166E-05,-0.3466396,-7.996405E-09,NaN,NaN,-0.02001048,-5.308546E-10,-1.967916E-07,-1.114115E-07,1.084391E-08,-2.861022E-08
551.9666,-0.3453785,-8.958147E-09,NaN,-0.3213556,-1.339311E-07,NaN,0.4054065,1.001034E-09,NaN,-0.5838149,1.659215E-05,-0.3436878,-8.007456E-09,NaN,NaN,-0.02001257,-5.26198E-10,-1.991758E-07,-1.114114E-07,3.691353E-09,-2.622604E-08
551.9811,-0.3233556,-8.957329E-09,NaN,-0.3212647,-1.33931E-07,NaN,0.4020039,1.01363E-09,NaN,-0.5865979,1.659265E-05,-0.3408593,-8.01837E-09,NaN,NaN,-0.02001458,-5.26198E-10,-2.030501E-07,-1.114113E-07,1.307168E-09,-2.861022E-08
551.9959,-0.3233556,-8.957329E-09,NaN,-0.3212647,-1.33931E-07,NaN,0.4020039,1.01363E-09,NaN,-0.5865979,1.659265E-05,-0.3408593,-8.01837E-09,NaN,NaN,-0.02001458,-5.26198E-10,-2.030501E-07,-1.114113E-07,1.307168E-09,-2.861022E-08
552.0099,-0.3015844,-8.956511E-09,NaN,-0.3211785,-1.339309E-07,NaN,0.3987445,1.026097E-09,NaN,-0.5892982,1.659314E-05,-0.3381484,-8.029154E-09,NaN,NaN,-0.02001648,-5.215414E-10,-2.105007E-07,-1.114111E-07,6.075539E-09,-2.622604E-08
552.0254,-0.2800628,-8.955693E-09,NaN,-0.3210969,-1.339308E-07,NaN,0.3956227,1.038434E-09,NaN,-0.5919176,1.659364E-05,-0.33555,-8.039809E-09,NaN,NaN,-0.0200183,-5.215414E-10,-2.131829E-07,-1.11411E-07,6.075539E-09,-2.861022E-08
552.0414,-0.2651623,-8.954875E-09,NaN,-0.3210404,-1.339307E-07,NaN,0.3961487,1.050645E-09,NaN,-0.5907708,1.659413E-05,-0.3358444,-8.050337E-09,NaN,NaN,-0.02001779,-5.075715E-10,-2.036461E-07,-1.114109E-07,8.459725E-09,-2.622604E-08
552.0549,-0.2651623,-8.954875E-09,NaN,-0.3210404,-1.339307E-07,NaN,0.3961487,1.050645E-09,NaN,-0.5907708,1.659413E-05,-0.3358444,-8.050337E-09,NaN,NaN,-0.02001779,-5.075715E-10,-2.036461E-07,-1.114109E-07,8.459725E-09,-2.622604E-08
552.0689,-0.2544892,-8.954057E-09,NaN,-0.3210172,-1.339306E-07,NaN,0.3977584,1.062731E-09,NaN,-0.5884919,1.659463E-05,-0.3370468,-8.060741E-09,NaN,NaN,-0.02001649,-5.075715E-10,-1.941094E-07,-1.114108E-07,8.459725E-09,-2.861022E-08
552.0854,-0.246521,-8.953239E-09,NaN,-0.3210204,-1.339305E-07,NaN,0.3994387,1.074698E-09,NaN,-0.5861108,1.659513E-05,-0.3383379,-8.071024E-09,NaN,NaN,-0.02001514,-4.982583E-10,-1.833805E-07,-1.114107E-07,8.459725E-09,-2.622604E-08
552.0992,-0.246521,-8.953239E-09,NaN,-0.3210204,-1.339305E-07,NaN,0.3994387,1.074698E-09,NaN,-0.5861108,1.659513E-05,-0.3383379,-8.071024E-09,NaN,NaN,-0.02001514,-4.982583E-10,-1.833805E-07,-1.114107E-07,8.459725E-09,-2.622604E-08
552.1133,-0.2402886,-8.952421E-09,NaN,-0.3210413,-1.339304E-07,NaN,0.4008642,1.086547E-09,NaN,-0.5839687,1.659563E-05,-0.3394372,-8.081189E-09,NaN,NaN,-0.02001397,-4.982583E-10,-1.723537E-07,-1.114106E-07,6.07554E-09,-2.861022E-08
552.1284,-0.2351747,-8.951603E-09,NaN,-0.321075,-1.339294E-07,NaN,0.4019883,-3.775024E-10,NaN,-0.5821294,1.659614E-05,-0.3402933,-6.730706E-09,NaN,NaN,-0.02001304,-5.029149E-10,-1.63264E-07,-1.114121E-07,8.459725E-09,-2.622604E-08
552.1431,-0.2307861,-8.950786E-09,NaN,-0.3211173,-1.339283E-07,NaN,0.4028577,-1.841552E-09,NaN,-0.5805582,1.659663E-05,-0.3409368,-5.466434E-09,NaN,NaN,-0.02001232,-4.936017E-10,-1.556644E-07,-1.114138E-07,1.084391E-08,-2.861022E-08
552.1577,-0.2307861,-8.950786E-09,NaN,-0.3211173,-1.339283E-07,NaN,0.4028577,-1.841552E-09,NaN,-0.5805582,1.659663E-05,-0.3409368,-5.466434E-09,NaN,NaN,-0.02001232,-4.936017E-10,-1.556644E-07,-1.114138E-07,1.084391E-08,-2.861022E-08
552.1717,-0.2268723,-8.949969E-09,NaN,-0.321165,-1.339273E-07,NaN,0.4035384,-3.305601E-09,NaN,-0.579196,1.659714E-05,-0.3414182,-4.267245E-09,NaN,NaN,-0.02001175,-5.029149E-10,-1.50598E-07,-1.114157E-07,1.084391E-08,-2.622604E-08
552.1874,-0.2232736,-8.949152E-09,NaN,-0.3212163,-1.339264E-07,NaN,0.4066632,-4.76965E-09,NaN,-0.5779694,1.659763E-05,-0.3452898,-3.117613E-09,NaN,NaN,-0.02001679,-4.936017E-10,-1.917252E-07,-1.114175E-07,1.561228E-08,-2.861022E-08
552.2021,-0.2198884,-8.948335E-09,NaN,-0.3212695,-1.339255E-07,NaN,0.4104249,-6.2337E-09,NaN,-0.576826,1.659814E-05,-0.3506182,-2.006122E-09,NaN,NaN,-0.02001787,-4.936017E-10,-1.972386E-07,-1.114194E-07,1.799647E-08,-2.622604E-08
