JMolnar6/NonAnthroHands_User_Study/HandsLoggerWithURDF/tempdata/files/Reachy_PID0_JointMotion_gesture_9_5.csv
Time,r_shoulder,r_shoulder_x,r_upper_arm,r_forearm,r_wrist,r_wrist2hand,
581.0477,-0.01417137,-0.8968376,-1.556554,-2.077499,0.3663766,-0.09321936
581.0618,-0.0141701,-0.8969428,-1.556607,-2.077914,0.3665617,-0.0932024
581.0765,-0.0141701,-0.8969428,-1.556607,-2.077914,0.3665617,-0.0932024
581.0903,-0.01416884,-0.8970467,-1.556659,-2.078323,0.3667429,-0.09318577
581.1057,-0.01416759,-0.8971494,-1.55671,-2.078726,0.3669204,-0.09316946
581.1201,-0.01416634,-0.897251,-1.556762,-2.079123,0.3670942,-0.09315347
581.1369,-0.01416634,-0.897251,-1.556762,-2.079123,0.3670942,-0.09315347
581.1507,-0.0141651,-0.8973513,-1.556813,-2.079515,0.3672644,-0.09313779
581.165,-0.01416386,-0.8974503,-1.556864,-2.079901,0.3674312,-0.09312242
581.1784,-0.01416386,-0.8974503,-1.556864,-2.079901,0.3674312,-0.09312242
581.1923,-0.01416263,-0.8975483,-1.556915,-2.080282,0.3675945,-0.09310735
581.2075,-0.0141614,-0.897645,-1.556965,-2.080657,0.3677544,-0.09309258
581.2219,-0.01416018,-0.8977406,-1.557015,-2.081027,0.367911,-0.09307808
581.2365,-0.01416018,-0.8977406,-1.557015,-2.081027,0.367911,-0.09307808
581.2503,-0.01415896,-0.897835,-1.557065,-2.081392,0.3680643,-0.09306388
581.2657,-0.01415775,-0.8979284,-1.557115,-2.081751,0.3682145,-0.09304994
581.2798,-0.01415775,-0.8979284,-1.557115,-2.081751,0.3682145,-0.09304994
581.2937,-0.01415654,-0.8980206,-1.557164,-2.082106,0.3683616,-0.09303629
581.3089,-0.01415534,-0.8981116,-1.557212,-2.082455,0.3685056,-0.0930229
581.3248,-0.01415415,-0.8982016,-1.557261,-2.082799,0.3686467,-0.09300977
581.3381,-0.01415415,-0.8982016,-1.557261,-2.082799,0.3686467,-0.09300977
581.352,-0.01415296,-0.8982906,-1.557309,-2.083139,0.3687848,-0.0929969
581.3674,-0.01415178,-0.8983784,-1.557357,-2.083473,0.36892,-0.09298427
581.382,-0.0141506,-0.8984653,-1.557404,-2.083803,0.3690525,-0.0929719
581.3965,-0.0141506,-0.8984653,-1.557404,-2.083803,0.3690525,-0.0929719
581.4105,-0.01414943,-0.898551,-1.557452,-2.084129,0.3691822,-0.09295976
581.4259,-0.01414826,-0.8986358,-1.557498,-2.084449,0.3693092,-0.09294786
581.4402,-0.01414709,-0.8987195,-1.557545,-2.084765,0.3694335,-0.0929362
581.457,-0.01414709,-0.8987195,-1.557545,-2.084765,0.3694335,-0.0929362
581.4709,-0.01414593,-0.8988023,-1.557591,-2.085077,0.3695553,-0.09292476
581.4853,-0.01414477,-0.8988841,-1.557637,-2.085384,0.3696745,-0.09291355
581.4988,-0.01414477,-0.8988841,-1.557637,-2.085384,0.3696745,-0.09291355
581.5125,-0.01414362,-0.8989648,-1.557683,-2.085686,0.3697913,-0.09290255
581.5278,-0.01414246,-0.8990446,-1.557728,-2.085985,0.3699056,-0.09289177
581.5436,-0.01414131,-0.8991235,-1.557773,-2.086279,0.3700175,-0.0928812
581.5566,-0.01414131,-0.8991235,-1.557773,-2.086279,0.3700175,-0.0928812
581.5706,-0.01414017,-0.8992014,-1.557817,-2.086569,0.3701271,-0.09287083
581.5859,-0.01413903,-0.8992784,-1.557861,-2.086855,0.3702345,-0.09286067
581.6003,-0.01413789,-0.8993545,-1.557905,-2.087137,0.3703395,-0.0928507
581.6149,-0.01413789,-0.8993545,-1.557905,-2.087137,0.3703395,-0.0928507
581.6289,-0.01413675,-0.8994296,-1.557948,-2.087415,0.3704424,-0.09284093
581.6442,-0.01413562,-0.8995039,-1.557992,-2.087688,0.3705432,-0.09283135
581.6588,-0.01413562,-0.8995039,-1.557992,-2.087688,0.3705432,-0.09283135
581.6728,-0.01413449,-0.8995773,-1.558034,-2.087959,0.3706418,-0.09282196
581.6883,-0.01413336,-0.8996498,-1.558077,-2.088225,0.3707383,-0.09281275
581.7027,-0.01413224,-0.8997214,-1.558119,-2.088487,0.3708329,-0.09280372
581.7172,-0.01413224,-0.8997214,-1.558119,-2.088487,0.3708329,-0.09280372
581.7313,-0.01413112,-0.8997923,-1.558161,-2.088746,0.3709254,-0.09279487
581.7466,-0.01413,-0.8998622,-1.558202,-2.089001,0.371016,-0.09278619
581.7631,-0.01412889,-0.8999314,-1.558243,-2.089252,0.3711047,-0.09277767
581.7763,-0.01412889,-0.8999314,-1.558243,-2.089252,0.3711047,-0.09277767
581.7905,-0.01412778,-0.8999997,-1.558284,-2.0895,0.3711915,-0.09276932
581.8048,-0.01412667,-0.9000672,-1.558324,-2.089745,0.3712766,-0.09276114
581.8192,-0.01412667,-0.9000672,-1.558324,-2.089745,0.3712766,-0.09276114
581.8332,-0.01412557,-0.9001338,-1.558364,-2.089985,0.3713598,-0.09275312
581.8481,-0.01412447,-0.9001997,-1.558404,-2.090223,0.3714413,-0.09274525
581.8627,-0.01412337,-0.9002647,-1.558443,-2.090457,0.371521,-0.09273753
581.8771,-0.01412337,-0.9002647,-1.558443,-2.090457,0.371521,-0.09273753
581.8909,-0.01412228,-0.9003291,-1.558482,-2.090688,0.3715991,-0.09272997
581.9062,-0.01412119,-0.9003926,-1.558521,-2.090915,0.3716756,-0.09272255
581.9208,-0.0141201,-0.9004554,-1.558559,-2.09114,0.3717504,-0.09271528
581.9354,-0.0141201,-0.9004554,-1.558559,-2.09114,0.3717504,-0.09271528
581.9492,-0.01411901,-0.9005174,-1.558597,-2.091361,0.3718236,-0.09270815
581.9645,-0.01411793,-0.9005787,-1.558635,-2.091578,0.3718953,-0.09270116
581.979,-0.01411793,-0.9005787,-1.558635,-2.091578,0.3718953,-0.09270116
581.993,-0.01411685,-0.9006392,-1.558672,-2.091793,0.3719655,-0.0926943
582.0084,-0.01411578,-0.9006991,-1.558709,-2.092005,0.3720342,-0.09268758
582.0229,-0.01411471,-0.9007582,-1.558746,-2.092214,0.3721015,-0.09268099
582.0375,-0.01411471,-0.9007582,-1.558746,-2.092214,0.3721015,-0.09268099
582.0523,-0.01411352,-0.9008859,-1.558272,-2.093013,0.3735367,-0.09254529
582.0668,-0.01411224,-0.9010554,-1.55789,-2.094093,0.3751855,-0.09241266
582.081,-0.01411087,-0.9012499,-1.557626,-2.095301,0.3767969,-0.09228254
582.0977,-0.01411087,-0.9012499,-1.557626,-2.095301,0.3767969,-0.09228254
582.1116,-0.01410936,-0.9014589,-1.55743,-2.096561,0.3783527,-0.09215488
582.1252,-0.01410792,-0.9016067,-1.557782,-2.097244,0.3784994,-0.09215891
582.1392,-0.01410792,-0.9016067,-1.557782,-2.097244,0.3784994,-0.09215891
582.1536,-0.01410664,-0.9017161,-1.558061,-2.097639,0.37839,-0.0921624
582.1682,-0.01410544,-0.9018012,-1.558232,-2.097894,0.3782834,-0.0921659
582.1827,-0.01410431,-0.901871,-1.558342,-2.098081,0.3782014,-0.09216943
582.1973,-0.01410431,-0.901871,-1.558342,-2.098081,0.3782014,-0.09216943
582.211,-0.01410335,-0.9018636,-1.558936,-2.097639,0.376773,-0.09230217
582.2263,-0.01410251,-0.9018087,-1.559425,-2.096893,0.3751324,-0.09243193
582.2408,-0.01410175,-0.9017246,-1.559786,-2.096007,0.3735308,-0.09255923
582.2554,-0.01410175,-0.9017246,-1.559786,-2.096007,0.3735308,-0.09255923
582.2692,-0.01410115,-0.9015536,-1.560585,-2.094469,0.3706214,-0.09281339
582.2844,-0.01410069,-0.9013297,-1.56125,-2.092623,0.3675401,-0.09306223
582.2993,-0.01410069,-0.9013297,-1.56125,-2.092623,0.3675401,-0.09306223
582.3129,-0.01410031,-0.9010742,-1.561771,-2.090643,0.3645312,-0.09330631
582.3281,-0.01409999,-0.9008003,-1.562206,-2.088614,0.3616087,-0.09354573
582.3427,-0.01409983,-0.900447,-1.563101,-2.085986,0.3573856,-0.09390976
582.3572,-0.01409983,-0.900447,-1.563101,-2.085986,0.3573856,-0.09390976
582.3713,-0.01409979,-0.9000463,-1.563865,-2.083083,0.3530159,-0.09426633
582.3866,-0.01409983,-0.8996181,-1.564486,-2.08007,0.3487425,-0.09461602
582.401,-0.01409992,-0.8991748,-1.565019,-2.077029,0.3445781,-0.09495897
582.4176,-0.01409992,-0.8991748,-1.565019,-2.077029,0.3445781,-0.09495897
582.4316,-0.01410018,-0.8986549,-1.565997,-2.073406,0.3391224,-0.09542452
582.4457,-0.01410055,-0.8980901,-1.566833,-2.069525,0.333555,-0.09588064
582.4592,-0.01410055,-0.8980901,-1.566833,-2.069525,0.333555,-0.09588064
582.4731,-0.01410101,-0.8975001,-1.567519,-2.06555,0.3281107,-0.09632794
582.4883,-0.01410165,-0.8968279,-1.568601,-2.060971,0.3213976,-0.09689584
582.5027,-0.01410242,-0.8961079,-1.569512,-2.056132,0.3146166,-0.09745238
582.5171,-0.01410242,-0.8961079,-1.569512,-2.056132,0.3146166,-0.09745238
582.5313,-0.01410328,-0.8953617,-1.570261,-2.051204,0.307989,-0.09799815
582.5462,-0.0141042,-0.8946027,-1.570896,-2.046271,0.3015035,-0.09853332
582.5607,-0.01410528,-0.8937699,-1.571766,-2.040774,0.2935649,-0.099187
582.5753,-0.01410528,-0.8937699,-1.571766,-2.040774,0.2935649,-0.099187
582.5893,-0.01410649,-0.8928952,-1.572092,-2.035031,0.2853917,-0.0998273
582.6045,-0.01410779,-0.8919986,-1.571923,-2.029218,0.2773943,-0.1004552
582.6191,-0.01410779,-0.8919986,-1.571923,-2.029218,0.2773943,-0.1004552
582.6329,-0.01410929,-0.8910232,-1.571983,-2.022839,0.268266,-0.1012004
582.6483,-0.01411115,-0.8900036,-1.571798,-2.016236,0.2591735,-0.1019309
582.6627,-0.01411332,-0.8889612,-1.571486,-2.009579,0.2503557,-0.1026474
582.6774,-0.01411332,-0.8889612,-1.571486,-2.009579,0.2503557,-0.1026474
582.6913,-0.01411574,-0.8879095,-1.571203,-2.002952,0.2418195,-0.1033501
582.7068,-0.01411856,-0.8867874,-1.571461,-1.995809,0.2320503,-0.1041684
582.7211,-0.01412177,-0.8856269,-1.571563,-1.98846,0.2222233,-0.1049704
582.7379,-0.01412177,-0.8856269,-1.571563,-1.98846,0.2222233,-0.1049704
582.7518,-0.0141253,-0.8844478,-1.571476,-1.981067,0.2125876,-0.1057568
582.7659,-0.01412909,-0.8832626,-1.5713,-1.973712,0.2031987,-0.1065279
582.7794,-0.01412909,-0.8832626,-1.5713,-1.973712,0.2031987,-0.1065279
582.7933,-0.01413326,-0.8820097,-1.571531,-1.965851,0.1925626,-0.1074134
582.8085,-0.01413781,-0.8807206,-1.571549,-1.957799,0.1819465,-0.1082813
582.8229,-0.01414268,-0.8794148,-1.571391,-1.949717,0.1715757,-0.1091324
582.8375,-0.01414268,-0.8794148,-1.571391,-1.949717,0.1715757,-0.1091324
582.8516,-0.01414798,-0.8780354,-1.571563,-1.941103,0.1599707,-0.1100962
582.8668,-0.0141537,-0.8766167,-1.57151,-1.932293,0.148456,-0.1110411
582.8812,-0.01415977,-0.8751801,-1.571312,-1.923456,0.1372264,-0.1119675
582.8958,-0.01415977,-0.8751801,-1.571312,-1.923456,0.1372264,-0.1119675
582.9097,-0.0141661,-0.8737388,-1.571099,-1.914674,0.1262938,-0.112876
582.9252,-0.01417282,-0.8722319,-1.571285,-1.905407,0.1140944,-0.113896
582.9396,-0.01417282,-0.8722319,-1.571285,-1.905407,0.1140944,-0.113896
582.9538,-0.01417992,-0.8706912,-1.571288,-1.895971,0.1020041,-0.1148959
582.9689,-0.01418732,-0.8691365,-1.571154,-1.886523,0.09018821,-0.1158764
582.9837,-0.01419496,-0.8675802,-1.570986,-1.877141,0.07866224,-0.1168377
582.9982,-0.01419496,-0.8675802,-1.570986,-1.877141,0.07866224,-0.1168377
583.012,-0.01420042,-0.8668614,-1.567266,-1.874776,0.0860367,-0.1162284
583.0275,-0.01420316,-0.8666627,-1.565255,-1.875811,0.09397021,-0.1156312
583.0418,-0.01420371,-0.866784,-1.564138,-1.878529,0.1014147,-0.1150456
583.0576,-0.01420371,-0.866784,-1.564138,-1.878529,0.1014147,-0.1150456
583.0715,-0.01420348,-0.8670331,-1.563695,-1.881491,0.1069986,-0.1146008
583.0857,-0.01420295,-0.8673599,-1.563304,-1.884569,0.1123589,-0.1141647
583.1003,-0.01420226,-0.8677331,-1.562924,-1.887689,0.1176076,-0.1137371
583.1147,-0.01420226,-0.8677331,-1.562924,-1.887689,0.1176076,-0.1137371
583.1285,-0.01420149,-0.8681334,-1.562552,-1.890811,0.1227522,-0.113318
583.1437,-0.01420081,-0.8684793,-1.562505,-1.893337,0.1262442,-0.1130364
583.1582,-0.01420081,-0.8684793,-1.562505,-1.893337,0.1262442,-0.1130364
583.1722,-0.0142002,-0.8687899,-1.562357,-1.895558,0.1296117,-0.1127603
583.1877,-0.01419963,-0.8690775,-1.562156,-1.897614,0.1329349,-0.1124896
583.202,-0.01419909,-0.8693495,-1.561936,-1.899574,0.1362036,-0.1122243
583.2166,-0.01419909,-0.8693495,-1.561936,-1.899574,0.1362036,-0.1122243
583.2304,-0.0141987,-0.8695415,-1.562038,-1.900892,0.1378654,-0.1120935
583.2457,-0.01419843,-0.869683,-1.562029,-1.901891,0.1394357,-0.1119653
583.2603,-0.01419822,-0.8697929,-1.561959,-1.902724,0.1409992,-0.1118396
583.2751,-0.01419822,-0.8697929,-1.561959,-1.902724,0.1409992,-0.1118396
583.2889,-0.0141982,-0.8698134,-1.562195,-1.902889,0.1409988,-0.1118457
583.3043,-0.01419832,-0.8697805,-1.562307,-1.902728,0.1409418,-0.1118517
583.3187,-0.01419832,-0.8697805,-1.562307,-1.902728,0.1409418,-0.1118517
583.3328,-0.01419852,-0.8697147,-1.562349,-1.902406,0.1409124,-0.1118576
583.348,-0.01419876,-0.8696289,-1.562361,-1.902006,0.1408972,-0.1118634
583.3669,-0.01419918,-0.8694618,-1.562691,-1.900991,0.1393421,-0.1119984
583.3782,-0.01419918,-0.8694618,-1.562691,-1.900991,0.1393421,-0.1119984
583.392,-0.01419972,-0.8692454,-1.562896,-1.899684,0.1377599,-0.1121308
583.4061,-0.01420034,-0.8689994,-1.56303,-1.898243,0.1362349,-0.1122606
583.4205,-0.01420101,-0.8687363,-1.56313,-1.896744,0.1347534,-0.1123878
583.4352,-0.01420101,-0.8687363,-1.56313,-1.896744,0.1347534,-0.1123878
583.449,-0.01420184,-0.8683944,-1.563538,-1.89465,0.1317584,-0.1126419
583.4644,-0.0142028,-0.8680055,-1.563817,-1.89228,0.1287697,-0.112891
583.4788,-0.0142028,-0.8680055,-1.563817,-1.89228,0.1287697,-0.112891
583.4951,-0.01420384,-0.8675893,-1.564021,-1.889792,0.1258661,-0.1131353
583.5079,-0.01420507,-0.8670888,-1.564502,-1.886684,0.1214814,-0.1135042
583.5223,-0.01420647,-0.8665385,-1.564843,-1.883298,0.1171398,-0.1138658
583.5367,-0.01420647,-0.8665385,-1.564843,-1.883298,0.1171398,-0.1138658
583.5507,-0.01420815,-0.8659599,-1.565103,-1.879799,0.1129116,-0.1142203
583.5662,-0.01421004,-0.8653665,-1.565321,-1.876269,0.1087809,-0.1145679
583.5808,-0.01421232,-0.8646972,-1.565815,-1.872171,0.1031806,-0.1150381
583.5957,-0.01421232,-0.8646972,-1.565815,-1.872171,0.1031806,-0.1150381
583.6094,-0.01421498,-0.863984,-1.566172,-1.867827,0.09765459,-0.1154991
583.6249,-0.01421796,-0.8632471,-1.56645,-1.863392,0.09226359,-0.115951
583.6393,-0.01421796,-0.8632471,-1.56645,-1.863392,0.09226359,-0.115951
583.6535,-0.01422139,-0.8624294,-1.566971,-1.858369,0.08543026,-0.1165235
583.6708,-0.01422527,-0.8615656,-1.567347,-1.853095,0.07870731,-0.1170847
583.6842,-0.01422948,-0.8606771,-1.56764,-1.847736,0.07214375,-0.117635
583.6989,-0.01422948,-0.8606771,-1.56764,-1.847736,0.07214375,-0.117635
583.7126,-0.01423396,-0.8597774,-1.567888,-1.842373,0.06572314,-0.1181745
583.7269,-0.01423886,-0.8588055,-1.568367,-1.836471,0.05786887,-0.1188328
583.7413,-0.01424414,-0.8577933,-1.568711,-1.830349,0.05015493,-0.1194782
583.7558,-0.01424414,-0.8577933,-1.568711,-1.830349,0.05015493,-0.1194782
583.7697,-0.01424973,-0.8567609,-1.568977,-1.824164,0.04261751,-0.120111
583.7851,-0.01425556,-0.8557205,-1.569199,-1.817992,0.03524129,-0.1207314
583.7997,-0.01425556,-0.8557205,-1.569199,-1.817992,0.03524129,-0.1207314
583.8134,-0.01426177,-0.8546106,-1.569624,-1.811296,0.02644708,-0.1214691
583.8287,-0.01426836,-0.8534628,-1.56992,-1.804394,0.01782354,-0.1221922
583.8433,-0.01427524,-0.8522966,-1.570142,-1.79744,0.009392768,-0.1229013
583.8579,-0.01427524,-0.8522966,-1.570142,-1.79744,0.009392768,-0.1229013
583.8721,-0.01428257,-0.8510551,-1.570531,-1.789936,-0.0004303856,-0.1237258
583.8875,-0.0142903,-0.8497726,-1.570671,-1.782219,-0.01011518,-0.1245342
583.9019,-0.01429837,-0.8484705,-1.570637,-1.774454,-0.01959674,-0.1253268
583.9166,-0.01429837,-0.8484705,-1.570637,-1.774454,-0.01959674,-0.1253268
583.9304,-0.01430667,-0.8471622,-1.570528,-1.766719,-0.02885399,-0.1261038
583.9457,-0.01431472,-0.8458564,-1.570423,-1.759057,-0.03789306,-0.1268647
583.9601,-0.01432264,-0.8445578,-1.570354,-1.751484,-0.04673173,-0.1276106
583.9769,-0.01432264,-0.8445578,-1.570354,-1.751484,-0.04673173,-0.1276106
583.9908,-0.01433049,-0.8432696,-1.570321,-1.74401,-0.05538607,-0.1283419
584.0051,-0.01433829,-0.8419935,-1.570309,-1.736638,-0.06386627,-0.1290589
584.0187,-0.01433829,-0.8419935,-1.570309,-1.736638,-0.06386627,-0.1290589
584.0323,-0.01434586,-0.8407999,-1.570161,-1.729942,-0.07061636,-0.1296325
584.0475,-0.01435319,-0.8396626,-1.570111,-1.723625,-0.07722539,-0.1301949
584.062,-0.01436029,-0.838565,-1.570091,-1.71754,-0.08371287,-0.1307462
584.0765,-0.01436029,-0.838565,-1.570091,-1.71754,-0.08371287,-0.1307462
584.0905,-0.01436701,-0.8375662,-1.569959,-1.712189,-0.08851809,-0.1311575
584.1058,-0.01437335,-0.8366328,-1.569885,-1.707235,-0.09323582,-0.1315607
584.1205,-0.01437938,-0.8357441,-1.569835,-1.702514,-0.09786622,-0.131956
584.1349,-0.01437938,-0.8357441,-1.569835,-1.702514,-0.09786622,-0.131956
584.1489,-0.01438516,-0.8348868,-1.569792,-1.697944,-0.1024067,-0.1323435
584.1641,-0.01439055,-0.834122,-1.569651,-1.694056,-0.1053072,-0.1325942
584.1785,-0.01439055,-0.834122,-1.569651,-1.694056,-0.1053072,-0.1325942
584.1927,-0.01439557,-0.8334178,-1.569557,-1.690528,-0.1081559,-0.1328399
584.2079,-0.01440027,-0.8327541,-1.569483,-1.687206,-0.1109525,-0.1330809
584.2226,-0.01440473,-0.8321184,-1.569417,-1.684011,-0.1136951,-0.1333171
584.2374,-0.01440473,-0.8321184,-1.569417,-1.684011,-0.1136951,-0.1333171
584.2511,-0.0144088,-0.8315721,-1.569269,-1.681475,-0.1148379,-0.1334194
584.2665,-0.01441251,-0.8310834,-1.569162,-1.679279,-0.1159626,-0.1335197
584.2811,-0.0144159,-0.8306324,-1.569073,-1.677268,-0.1170681,-0.133618
584.2972,-0.0144159,-0.8306324,-1.569073,-1.677268,-0.1170681,-0.133618
584.3115,-0.01441885,-0.8302761,-1.568914,-1.675938,-0.116609,-0.1335852
584.3246,-0.01442139,-0.8299798,-1.568793,-1.674949,-0.1161627,-0.133553
584.339,-0.01442139,-0.8299798,-1.568793,-1.674949,-0.1161627,-0.133553
584.3529,-0.01442358,-0.8297218,-1.56869,-1.674137,-0.1157276,-0.1335214
584.3682,-0.01442551,-0.8294886,-1.568594,-1.67342,-0.115302,-0.1334904
584.3828,-0.01442704,-0.8293411,-1.568429,-1.673329,-0.1133418,-0.1333308
584.3972,-0.01442704,-0.8293411,-1.568429,-1.673329,-0.1133418,-0.1333308
584.4109,-0.0144282,-0.8292471,-1.568297,-1.673544,-0.1114227,-0.1331743
584.4263,-0.01442914,-0.8291866,-1.568179,-1.673909,-0.1095432,-0.1330209
584.4407,-0.01442997,-0.8291469,-1.568069,-1.674346,-0.1077011,-0.1328705
584.4554,-0.01442997,-0.8291469,-1.568069,-1.674346,-0.1077011,-0.1328705
584.4693,-0.01443061,-0.8291881,-1.567887,-1.675392,-0.1043509,-0.1325937
584.4847,-0.01443113,-0.8292789,-1.567737,-1.676724,-0.1010685,-0.1323224
584.4991,-0.01443113,-0.8292789,-1.567737,-1.676724,-0.1010685,-0.1323224
584.5132,-0.01443157,-0.8294001,-1.567601,-1.67819,-0.09785204,-0.1320564
584.5285,-0.01443184,-0.8296086,-1.567391,-1.680285,-0.09315255,-0.1316663
584.5433,-0.01443198,-0.8298702,-1.567214,-1.682671,-0.08854711,-0.1312838
584.5573,-0.01443198,-0.8298702,-1.567214,-1.682671,-0.08854711,-0.1312838
584.5717,-0.01443203,-0.8301632,-1.56705,-1.685185,-0.08403318,-0.1309089
584.587,-0.01443204,-0.8304745,-1.566893,-1.687744,-0.07960757,-0.1305413
584.6037,-0.01443187,-0.8308648,-1.566648,-1.690881,-0.0737175,-0.1300516
584.6171,-0.01443187,-0.8308648,-1.566648,-1.690881,-0.0737175,-0.1300516
584.6321,-0.01443159,-0.8313023,-1.566437,-1.694276,-0.0679446,-0.1295715
584.6453,-0.01443123,-0.8317668,-1.566239,-1.697775,-0.06228608,-0.1291008
584.6597,-0.01443123,-0.8317668,-1.566239,-1.697775,-0.06228608,-0.1291008
584.6737,-0.01443069,-0.8323152,-1.565946,-1.701873,-0.05518332,-0.12851
584.6887,-0.01443002,-0.832913,-1.565689,-1.706233,-0.04822142,-0.1279308
584.7033,-0.01442927,-0.8335385,-1.565447,-1.710692,-0.04139721,-0.127363
584.7178,-0.01442927,-0.8335385,-1.565447,-1.710692,-0.04139721,-0.127363
584.7318,-0.01442846,-0.8341784,-1.565211,-1.715169,-0.03470593,-0.1268063
584.747,-0.01442748,-0.8348935,-1.564857,-1.720196,-0.02658306,-0.1261312
584.7615,-0.01442639,-0.8356519,-1.564544,-1.725453,-0.01862069,-0.1254693
584.7761,-0.01442639,-0.8356519,-1.564544,-1.725453,-0.01862069,-0.1254693
584.7902,-0.01442521,-0.8364335,-1.564247,-1.730787,-0.01081629,-0.1248204
584.8054,-0.01442395,-0.837226,-1.563957,-1.736122,-0.003164048,-0.1241843
584.8203,-0.01442237,-0.838091,-1.563526,-1.741993,0.005907832,-0.1234313
584.8348,-0.01442237,-0.838091,-1.563526,-1.741993,0.005907832,-0.1234313
584.8487,-0.01442047,-0.8389968,-1.563144,-1.748081,0.01480132,-0.1226931
584.8641,-0.01441828,-0.8399237,-1.562781,-1.754233,0.02351719,-0.1219693
584.8785,-0.01441828,-0.8399237,-1.562781,-1.754233,0.02351719,-0.1219693
584.8923,-0.01441791,-0.8400281,-1.564397,-1.753484,0.01319029,-0.1228113
584.9076,-0.01441884,-0.8396261,-1.565228,-1.749393,0.003135331,-0.1236368
584.9242,-0.0144208,-0.8389132,-1.565686,-1.743679,-0.006596801,-0.1244461
584.9378,-0.0144208,-0.8389132,-1.565686,-1.743679,-0.006596801,-0.1244461
584.9517,-0.01442394,-0.8380117,-1.565969,-1.737196,-0.0160791,-0.1252395
584.9662,-0.01442791,-0.8370672,-1.566019,-1.730945,-0.02377959,-0.125888
584.9802,-0.01443245,-0.8361003,-1.566094,-1.724842,-0.03132436,-0.1265237
584.9947,-0.01443245,-0.8361003,-1.566094,-1.724842,-0.03132436,-0.1265237
585.0084,-0.01443739,-0.8351239,-1.566171,-1.718852,-0.03872204,-0.127147
585.0237,-0.0144426,-0.834146,-1.566243,-1.712959,-0.04597269,-0.1277581
585.0383,-0.0144426,-0.834146,-1.566243,-1.712959,-0.04597269,-0.1277581
585.0522,-0.0144478,-0.8332409,-1.56619,-1.707728,-0.05151859,-0.1282279
585.0677,-0.0144529,-0.8323848,-1.566186,-1.702856,-0.05696253,-0.1286885
585.082,-0.01445787,-0.8315626,-1.566201,-1.698198,-0.06230433,-0.12914
585.0965,-0.01445787,-0.8315626,-1.566201,-1.698198,-0.06230433,-0.12914
585.1105,-0.01446255,-0.8308345,-1.566119,-1.694253,-0.06598727,-0.1294533
585.1257,-0.0144669,-0.8301677,-1.566087,-1.690684,-0.06960557,-0.1297606
585.1406,-0.01447097,-0.8295416,-1.566074,-1.687329,-0.07315751,-0.1300618
585.1552,-0.01447097,-0.8295416,-1.566074,-1.687329,-0.07315751,-0.1300618
585.169,-0.01447481,-0.8289435,-1.566069,-1.684104,-0.07664106,-0.1303571
585.1846,-0.01447831,-0.8284346,-1.565978,-1.681543,-0.07850616,-0.1305173
585.199,-0.01447831,-0.8284346,-1.565978,-1.681543,-0.07850616,-0.1305173
585.2127,-0.01448145,-0.8279831,-1.565928,-1.679322,-0.08034063,-0.1306743
585.2302,-0.01448429,-0.8275691,-1.565895,-1.677289,-0.08214274,-0.1308283
585.2437,-0.01448691,-0.8271799,-1.56587,-1.675363,-0.08391075,-0.1309793
585.2583,-0.01448691,-0.8271799,-1.56587,-1.675363,-0.08391075,-0.1309793
585.2724,-0.01448917,-0.8268772,-1.565769,-1.674079,-0.08409715,-0.1309979
585.2863,-0.01449107,-0.8266292,-1.565704,-1.673117,-0.08428481,-0.1310163
585.3009,-0.01449269,-0.826416,-1.565655,-1.672322,-0.0844718,-0.1310342
585.3154,-0.01449269,-0.826416,-1.565655,-1.672322,-0.0844718,-0.1310342
585.3293,-0.01449389,-0.8262947,-1.565537,-1.67219,-0.08310984,-0.1309225
585.3444,-0.01449481,-0.8262305,-1.565455,-1.672382,-0.08177904,-0.130813
585.3593,-0.01449481,-0.8262305,-1.565455,-1.672382,-0.08177904,-0.130813
585.3731,-0.01449556,-0.8262019,-1.565387,-1.672734,-0.08047696,-0.1307057
585.3885,-0.01449625,-0.8261954,-1.565327,-1.673165,-0.07920137,-0.1306004
585.4049,-0.01449677,-0.8262702,-1.565193,-1.674206,-0.07640386,-0.1303679
585.4175,-0.01449677,-0.8262702,-1.565193,-1.674206,-0.07640386,-0.1303679
585.4315,-0.01449717,-0.826395,-1.565091,-1.675536,-0.07366479,-0.1301399
585.4467,-0.01449749,-0.8265499,-1.565003,-1.677001,-0.07098158,-0.1299164
585.4611,-0.01449777,-0.8267229,-1.56492,-1.678522,-0.0683516,-0.1296973
585.476,-0.01449777,-0.8267229,-1.56492,-1.678522,-0.0683516,-0.1296973
585.49,-0.0144979,-0.8269754,-1.564758,-1.680635,-0.06422356,-0.1293532
585.5052,-0.01449791,-0.8272759,-1.564629,-1.683019,-0.06017977,-0.1290158
585.52,-0.01449791,-0.8272759,-1.564629,-1.683019,-0.06017977,-0.1290158
585.5359,-0.01449785,-0.8276047,-1.564513,-1.685521,-0.05621722,-0.128685
585.55,-0.01449762,-0.8280188,-1.564312,-1.688638,-0.05078007,-0.1282314
585.5646,-0.01449726,-0.8284836,-1.564146,-1.692031,-0.04545274,-0.1277866
585.578,-0.01449726,-0.8284836,-1.564146,-1.692031,-0.04545274,-0.1277866
585.592,-0.01449681,-0.8289777,-1.563994,-1.695537,-0.04023166,-0.1273506
585.6073,-0.01449632,-0.8294876,-1.563847,-1.699075,-0.03511284,-0.1269231
585.6216,-0.01449567,-0.8300743,-1.563598,-1.703178,-0.02853576,-0.1263747
585.6364,-0.01449567,-0.8300743,-1.563598,-1.703178,-0.02853576,-0.1263747
585.6502,-0.0144949,-0.8307058,-1.563386,-1.707524,-0.02209061,-0.125837
585.6655,-0.01449405,-0.831362,-1.563189,-1.711961,-0.01577382,-0.1253099
585.6799,-0.01449405,-0.831362,-1.563189,-1.711961,-0.01577382,-0.1253099
585.6938,-0.01449303,-0.8320999,-1.562878,-1.716985,-0.008018084,-0.1246637
585.709,-0.01449189,-0.8328849,-1.56261,-1.722257,-0.0004172944,-0.1240303
585.7236,-0.01449065,-0.8336954,-1.562358,-1.727615,0.007032152,-0.1234092
585.7384,-0.01449065,-0.8336954,-1.562358,-1.727615,0.007032152,-0.1234092
585.7521,-0.01448923,-0.834518,-1.562111,-1.732979,0.01433604,-0.1228003
585.7678,-0.01448751,-0.8354138,-1.561725,-1.738882,0.02306747,-0.1220741
585.7823,-0.01448545,-0.8363506,-1.561387,-1.745003,0.03162579,-0.121362
585.797,-0.01448545,-0.8363506,-1.561387,-1.745003,0.03162579,-0.121362
585.8109,-0.01448311,-0.8373085,-1.561068,-1.751189,0.04001286,-0.120664
585.8262,-0.01448056,-0.8382753,-1.560756,-1.757364,0.04823568,-0.1199796
585.8408,-0.01447758,-0.8392432,-1.560447,-1.763491,0.05630039,-0.1193086
585.8562,-0.01447758,-0.8392432,-1.560447,-1.763491,0.05630039,-0.1193086
585.8702,-0.01447432,-0.8402075,-1.560138,-1.76955,0.06420887,-0.1186507
585.8845,-0.01447089,-0.8411652,-1.559831,-1.775533,0.07196419,-0.1180058
585.8989,-0.01447089,-0.8411652,-1.559831,-1.775533,0.07196419,-0.1180058
585.913,-0.01446756,-0.8420454,-1.559713,-1.78086,0.07799041,-0.1175028
585.9278,-0.01446439,-0.8428736,-1.55953,-1.785831,0.08390058,-0.1170097
585.9423,-0.0144614,-0.8436662,-1.55932,-1.790591,0.08970618,-0.1165262
585.9569,-0.0144614,-0.8436662,-1.55932,-1.790591,0.08970618,-0.1165262
585.9709,-0.01445854,-0.8444332,-1.5591,-1.795212,0.09540299,-0.1160523
585.9863,-0.014456,-0.8451116,-1.55909,-1.799153,0.09940983,-0.115717
586.0007,-0.01445378,-0.8457324,-1.559004,-1.802736,0.1033367,-0.1153882
586.0153,-0.01445378,-0.8457324,-1.559004,-1.802736,0.1033367,-0.1153882
586.0292,-0.01445184,-0.8463148,-1.558884,-1.806116,0.1071998,-0.1150659
586.0446,-0.0144501,-0.8468708,-1.558752,-1.809369,0.1109928,-0.1147499
586.0592,-0.0144501,-0.8468708,-1.558752,-1.809369,0.1109928,-0.1147499
586.0732,-0.01444873,-0.8473389,-1.558846,-1.811959,0.113133,-0.1145694
586.0884,-0.01444763,-0.8477505,-1.558854,-1.814208,0.1152265,-0.1143925
586.1031,-0.01444668,-0.8481255,-1.558823,-1.816272,0.117294,-0.114219
586.1176,-0.01444668,-0.8481255,-1.558823,-1.816272,0.117294,-0.114219
586.1318,-0.01444593,-0.8484069,-1.559014,-1.817651,0.1177471,-0.1141783
586.1469,-0.01444531,-0.8486292,-1.559108,-1.818687,0.118187,-0.1141383
586.1635,-0.01444478,-0.8488141,-1.559157,-1.819546,0.1186352,-0.1140992
586.1769,-0.01444478,-0.8488141,-1.559157,-1.819546,0.1186352,-0.1140992
586.191,-0.0144443,-0.848975,-1.559188,-1.820309,0.1190821,-0.1140608
586.2052,-0.01444398,-0.8490512,-1.559453,-1.820441,0.1179438,-0.1141524
586.2196,-0.01444398,-0.8490512,-1.559453,-1.820441,0.1179438,-0.1141524
586.2336,-0.01444378,-0.8490747,-1.559618,-1.820266,0.1168213,-0.1142423
586.2487,-0.01444366,-0.8490673,-1.559735,-1.819939,0.1157385,-0.1143304
586.2632,-0.01444359,-0.8490408,-1.55983,-1.819539,0.1146848,-0.1144168
586.2776,-0.01444359,-0.8490408,-1.55983,-1.819539,0.1146848,-0.1144168
586.2916,-0.01444368,-0.8489335,-1.560156,-1.818527,0.1120761,-0.1146308
586.307,-0.01444388,-0.8487766,-1.560378,-1.817226,0.1095134,-0.1148406
586.3215,-0.01444416,-0.84859,-1.560548,-1.815791,0.1070194,-0.1150463
586.3361,-0.01444416,-0.84859,-1.560548,-1.815791,0.1070194,-0.1150463
586.3501,-0.01444462,-0.8483164,-1.560929,-1.813723,0.1030036,-0.1153772
586.3654,-0.01444521,-0.8479905,-1.561198,-1.811362,0.09906597,-0.1157017
586.3799,-0.01444521,-0.8479905,-1.561198,-1.811362,0.09906597,-0.1157017
586.3943,-0.01444588,-0.8476337,-1.56141,-1.808873,0.09522526,-0.1160199
586.4094,-0.0144466,-0.8472595,-1.561594,-1.806338,0.09146924,-0.1163318
586.4238,-0.01444749,-0.8468068,-1.561986,-1.803222,0.08621261,-0.1167669
586.4384,-0.01444749,-0.8468068,-1.561986,-1.803222,0.08621261,-0.1167669
586.4526,-0.0144485,-0.8463078,-1.562269,-1.799846,0.08106071,-0.1171935
586.469,-0.01444959,-0.8457824,-1.562496,-1.796366,0.07602871,-0.1176118
586.4834,-0.01445073,-0.8452431,-1.562694,-1.792859,0.07110472,-0.1180218
586.4969,-0.01445073,-0.8452431,-1.562694,-1.792859,0.07110472,-0.1180218
586.5109,-0.01445206,-0.8446283,-1.563081,-1.788789,0.06470413,-0.1185531
586.5261,-0.01445371,-0.8439696,-1.563361,-1.784474,0.05843545,-0.1190741
586.5403,-0.01445564,-0.8432869,-1.563586,-1.78007,0.05230812,-0.1195848
586.5552,-0.01445564,-0.8432869,-1.563586,-1.78007,0.05230812,-0.1195848
586.5691,-0.014458,-0.8425231,-1.563973,-1.775078,0.04473366,-0.1202148
586.5846,-0.01446076,-0.8417126,-1.564249,-1.769836,0.03731975,-0.1208326
586.5992,-0.01446076,-0.8417126,-1.564249,-1.769836,0.03731975,-0.1208326
586.613,-0.01446387,-0.8408769,-1.564468,-1.764508,0.03007007,-0.1214382
586.6285,-0.01446724,-0.8400295,-1.564653,-1.759177,0.02297275,-0.1220319
586.6431,-0.014471,-0.8391092,-1.564986,-1.753307,0.01444777,-0.1227433
586.6581,-0.014471,-0.8391092,-1.564986,-1.753307,0.01444777,-0.1227433
586.6718,-0.01447515,-0.8381482,-1.565219,-1.747217,0.006104554,-0.1234408
586.6872,-0.01447961,-0.8371664,-1.565399,-1.741064,-0.002058028,-0.1241246
586.702,-0.0144843,-0.836176,-1.565546,-1.734923,-0.01005066,-0.124795
586.7166,-0.0144843,-0.836176,-1.565546,-1.734923,-0.01005066,-0.124795
586.7304,-0.01448937,-0.8351155,-1.565814,-1.728258,-0.01944704,-0.1255817
586.7478,-0.01449481,-0.8340165,-1.565991,-1.721387,-0.02864206,-0.1263528
586.7612,-0.01450055,-0.8328987,-1.566119,-1.714464,-0.03764119,-0.1271089
586.7758,-0.01450055,-0.8328987,-1.566119,-1.714464,-0.03764119,-0.1271089
586.7889,-0.014504,-0.8326058,-1.564784,-1.714442,-0.02772318,-0.126298
586.8041,-0.01450467,-0.8328217,-1.564075,-1.71776,-0.01808395,-0.125503
586.8186,-0.01450467,-0.8328217,-1.564075,-1.71776,-0.01808395,-0.125503
586.8326,-0.0145041,-0.8333507,-1.563612,-1.722716,-0.008699499,-0.1247236
586.8478,-0.01450292,-0.8340705,-1.563241,-1.728459,0.0004775897,-0.1239595
586.8624,-0.01450146,-0.8348356,-1.563038,-1.733986,0.00790075,-0.1233399
586.8769,-0.01450146,-0.8348356,-1.563038,-1.733986,0.00790075,-0.1233399
586.891,-0.01449969,-0.8356252,-1.562801,-1.739381,0.01518134,-0.1227323
586.9063,-0.01449768,-0.8364263,-1.562549,-1.744676,0.0223259,-0.1221367
586.9208,-0.01449549,-0.837231,-1.562292,-1.749885,0.02933432,-0.1215528
586.9357,-0.01449549,-0.837231,-1.562292,-1.749885,0.02933432,-0.1215528
586.9495,-0.01449341,-0.8379649,-1.562192,-1.754443,0.034635,-0.1211097
586.9648,-0.01449149,-0.8386519,-1.562036,-1.758652,0.03983732,-0.1206753
586.9794,-0.01449149,-0.8386519,-1.562036,-1.758652,0.03983732,-0.1206753
586.9933,-0.01448973,-0.8393068,-1.561857,-1.762659,0.04494683,-0.1202494
587.0087,-0.01448833,-0.8398697,-1.561845,-1.765961,0.04838474,-0.1199613
587.0234,-0.01448723,-0.8403732,-1.561766,-1.768897,0.05176061,-0.1196788
587.0375,-0.01448723,-0.8403732,-1.561766,-1.768897,0.05176061,-0.1196788
587.054,-0.01448627,-0.8408379,-1.56166,-1.77163,0.05508078,-0.1194019
587.0674,-0.0144854,-0.8412765,-1.561544,-1.774241,0.05834028,-0.1191304
587.0821,-0.01448471,-0.8416277,-1.561613,-1.776196,0.05996033,-0.1189936
587.0963,-0.01448471,-0.8416277,-1.561613,-1.776196,0.05996033,-0.1189936
587.1101,-0.01448415,-0.8419234,-1.56161,-1.777819,0.06155202,-0.1188595
587.1254,-0.01448365,-0.8421835,-1.561576,-1.779264,0.06312402,-0.1187281
587.1398,-0.01448365,-0.8421835,-1.561576,-1.779264,0.06312402,-0.1187281
587.1539,-0.01448335,-0.8423511,-1.561723,-1.780035,0.06309217,-0.1187286
587.1691,-0.01448317,-0.8424609,-1.561789,-1.780472,0.06306558,-0.1187291
587.1838,-0.01448308,-0.8425345,-1.561819,-1.780739,0.06305261,-0.1187296
587.1983,-0.01448308,-0.8425345,-1.561819,-1.780739,0.06305261,-0.1187296
587.2121,-0.01448304,-0.8425854,-1.561833,-1.780919,0.06304552,-0.11873
587.2275,-0.01448318,-0.8425546,-1.562037,-1.780477,0.06146311,-0.1188599
587.2421,-0.01448344,-0.8424733,-1.562156,-1.779736,0.05991594,-0.1189872
587.2568,-0.01448344,-0.8424733,-1.562156,-1.779736,0.05991594,-0.1189872
587.271,-0.01448378,-0.8423613,-1.562238,-1.778852,0.05841262,-0.119112
587.2861,-0.01448417,-0.8422309,-1.562302,-1.777903,0.05694479,-0.1192344
587.3007,-0.01448472,-0.8420203,-1.562549,-1.776352,0.05393126,-0.1194838
587.3153,-0.01448472,-0.8420203,-1.562549,-1.776352,0.05393126,-0.1194838
587.3292,-0.01448541,-0.8417612,-1.562709,-1.77452,0.05098268,-0.1197283
587.3467,-0.01448616,-0.8414733,-1.562828,-1.772562,0.04810594,-0.119968
587.3603,-0.01448697,-0.8411689,-1.562927,-1.770554,0.04529213,-0.120203
587.3745,-0.01448697,-0.8411689,-1.562927,-1.770554,0.04529213,-0.120203
587.3887,-0.01448795,-0.8407863,-1.563198,-1.767961,0.04096078,-0.1205627
587.4028,-0.01448905,-0.8403573,-1.563382,-1.765102,0.03672257,-0.1209155
587.4173,-0.01448905,-0.8403573,-1.563382,-1.765102,0.03672257,-0.1209155
587.4312,-0.01449024,-0.8399015,-1.563523,-1.762132,0.03258163,-0.1212613
587.4478,-0.01449176,-0.8393618,-1.563814,-1.758553,0.02695454,-0.1217298
587.4608,-0.01449366,-0.8387729,-1.564014,-1.754704,0.02144976,-0.122189
587.4753,-0.01449366,-0.8387729,-1.564014,-1.754704,0.02144976,-0.122189
587.4893,-0.01449589,-0.8381562,-1.564168,-1.750747,0.01606784,-0.1226393
587.5046,-0.01449836,-0.837525,-1.564296,-1.746766,0.01079915,-0.1230807
587.5192,-0.01449836,-0.837525,-1.564296,-1.746766,0.01079915,-0.1230807
587.5331,-0.01450125,-0.8368185,-1.564565,-1.742226,0.004067526,-0.1236429
587.5483,-0.01450453,-0.8360686,-1.564749,-1.737448,-0.00251892,-0.1241941
587.5628,-0.01450813,-0.8352953,-1.564889,-1.732586,-0.008962404,-0.1247344
587.5774,-0.01450813,-0.8352953,-1.564889,-1.732586,-0.008962404,-0.1247344
587.5916,-0.0145122,-0.8344416,-1.565144,-1.727143,-0.01683882,-0.1253936
587.607,-0.01451671,-0.8335422,-1.565313,-1.721456,-0.02454473,-0.1260399
587.6215,-0.01452155,-0.8326187,-1.565438,-1.71569,-0.03208555,-0.1266734
587.6361,-0.01452155,-0.8326187,-1.565438,-1.71569,-0.03208555,-0.1266734
587.6532,-0.01452666,-0.8316843,-1.565535,-1.709925,-0.03947023,-0.1272946
587.6666,-0.01453218,-0.8306781,-1.56573,-1.703627,-0.04826419,-0.128033
587.6808,-0.01453809,-0.8296321,-1.565851,-1.697117,-0.05687001,-0.1287568
587.6944,-0.01453809,-0.8296321,-1.565851,-1.697117,-0.05687001,-0.1287568
587.7083,-0.0145443,-0.8285662,-1.565932,-1.690548,-0.06529472,-0.1294665
587.7235,-0.01455074,-0.8274928,-1.565987,-1.683996,-0.07354628,-0.1301623
587.7379,-0.01455074,-0.8274928,-1.565987,-1.683996,-0.07354628,-0.1301623
587.7518,-0.01455694,-0.8264199,-1.566025,-1.677501,-0.08162992,-0.1308435
587.767,-0.014563,-0.8253521,-1.566049,-1.671079,-0.08955002,-0.1315114
587.7816,-0.01456898,-0.8242924,-1.566062,-1.66474,-0.09731036,-0.1321662
587.7962,-0.01456898,-0.8242924,-1.566062,-1.66474,-0.09731036,-0.1321662
587.8101,-0.01457473,-0.8233115,-1.565997,-1.65906,-0.1033712,-0.1326789
587.8254,-0.01458022,-0.8223838,-1.565963,-1.653743,-0.1093162,-0.1331815
587.8401,-0.01458548,-0.821493,-1.56594,-1.648644,-0.1151453,-0.1336742
587.8546,-0.01458548,-0.821493,-1.56594,-1.648644,-0.1151453,-0.1336742
587.8685,-0.01459057,-0.8206289,-1.565919,-1.643691,-0.120859,-0.1341573
587.8841,-0.01459533,-0.8198546,-1.565849,-1.63942,-0.1249234,-0.1345017
587.8986,-0.01459533,-0.8198546,-1.565849,-1.63942,-0.1249234,-0.1345017
587.9124,-0.01459974,-0.8191391,-1.565806,-1.635513,-0.1289097,-0.1348393
587.9279,-0.01460388,-0.818463,-1.565772,-1.631816,-0.1328181,-0.1351703
587.9425,-0.01460779,-0.8178144,-1.565742,-1.62825,-0.1366494,-0.1354948
587.9592,-0.01460779,-0.8178144,-1.565742,-1.62825,-0.1366494,-0.1354948
587.973,-0.01461134,-0.8172549,-1.565681,-1.625349,-0.1388745,-0.1356837
587.9873,-0.01461452,-0.8167529,-1.565639,-1.622795,-0.1410558,-0.1358689
588.0008,-0.01461741,-0.8162887,-1.565605,-1.620431,-0.1431941,-0.1360505
588.0154,-0.01461741,-0.8162887,-1.565605,-1.620431,-0.1431941,-0.1360505
588.0295,-0.01461987,-0.815919,-1.56555,-1.618753,-0.1437623,-0.1360993
588.0444,-0.01462192,-0.8156095,-1.56551,-1.617423,-0.144318,-0.1361471
588.0591,-0.01462192,-0.8156095,-1.56551,-1.617423,-0.144318,-0.1361471
588.0731,-0.01462363,-0.8153384,-1.565477,-1.616275,-0.1448621,-0.1361939
588.0883,-0.01462509,-0.8150923,-1.565446,-1.615227,-0.1453951,-0.1362398
588.1031,-0.01462616,-0.814932,-1.565398,-1.614811,-0.1443909,-0.1361557
588.1177,-0.01462616,-0.814932,-1.565398,-1.614811,-0.1443909,-0.1361557
588.1317,-0.014627,-0.8148253,-1.565359,-1.614706,-0.1434041,-0.1360731
588.1469,-0.01462771,-0.8147522,-1.565325,-1.614757,-0.1424354,-0.1359922
588.1615,-0.01462835,-0.8147002,-1.565292,-1.614885,-0.1414849,-0.1359128
588.1762,-0.01462835,-0.8147002,-1.565292,-1.614885,-0.1414849,-0.1359128
588.1902,-0.01462881,-0.8147293,-1.565241,-1.615626,-0.1390258,-0.1357058
588.2055,-0.01462916,-0.8148081,-1.565197,-1.61666,-0.1366121,-0.1355028
588.2202,-0.01462943,-0.8149174,-1.565155,-1.617831,-0.134244,-0.1353037
588.235,-0.01462943,-0.8149174,-1.565155,-1.617831,-0.134244,-0.1353037
588.251,-0.01462953,-0.8151143,-1.565092,-1.619637,-0.1303929,-0.1349794
588.265,-0.0146295,-0.8153644,-1.565035,-1.621738,-0.1266139,-0.1346613
588.2797,-0.0146295,-0.8153644,-1.565035,-1.621738,-0.1266139,-0.1346613
588.2925,-0.01462938,-0.8156461,-1.564979,-1.623971,-0.1229068,-0.1343495
588.3082,-0.01462922,-0.8159462,-1.564924,-1.626255,-0.1192708,-0.1340438
588.3224,-0.01462889,-0.8163254,-1.564836,-1.62912,-0.1141729,-0.1336149
588.337,-0.01462889,-0.8163254,-1.564836,-1.62912,-0.1141729,-0.1336149
588.3508,-0.01462844,-0.8167519,-1.564755,-1.632247,-0.1091718,-0.1331943
588.3661,-0.01462791,-0.8172056,-1.564676,-1.635483,-0.1042665,-0.1327819
588.3806,-0.01462733,-0.8176741,-1.564596,-1.638748,-0.09945527,-0.1323776
588.3962,-0.01462733,-0.8176741,-1.564596,-1.638748,-0.09945527,-0.1323776
588.4092,-0.01462659,-0.8182189,-1.564471,-1.642579,-0.09319976,-0.131852
588.4245,-0.01462573,-0.8188083,-1.564355,-1.646656,-0.08706426,-0.1313367
588.4393,-0.01462573,-0.8188083,-1.564355,-1.646656,-0.08706426,-0.1313367
588.4534,-0.01462479,-0.8194227,-1.564242,-1.650827,-0.08104665,-0.1308314
588.4688,-0.01462367,-0.8201189,-1.564072,-1.655587,-0.07360286,-0.1302068
588.4839,-0.01462234,-0.8208625,-1.563914,-1.660599,-0.06630258,-0.1295944
588.4976,-0.01462234,-0.8208625,-1.563914,-1.660599,-0.06630258,-0.1295944
588.5118,-0.01462075,-0.8216321,-1.563759,-1.665699,-0.05914276,-0.128994
588.527,-0.01461896,-0.8224143,-1.563603,-1.670809,-0.05212034,-0.1284053
588.5416,-0.01461681,-0.82327,-1.563368,-1.676459,-0.04368307,-0.1276989
588.5573,-0.01461681,-0.82327,-1.563368,-1.676459,-0.04368307,-0.1276989
588.5714,-0.01461431,-0.8241672,-1.563152,-1.68233,-0.03540984,-0.1270064
588.5854,-0.01461152,-0.825086,-1.562941,-1.688269,-0.02729666,-0.1263274
588.6,-0.01460851,-0.826014,-1.562729,-1.6942,-0.0193394,-0.1256617
588.6145,-0.01460851,-0.826014,-1.562729,-1.6942,-0.0193394,-0.1256617
588.6281,-0.01460514,-0.8270129,-1.562415,-1.700658,-0.009976436,-0.1248797
588.6432,-0.01460142,-0.828051,-1.562127,-1.707324,-0.0007967008,-0.1241131
588.6579,-0.01460142,-0.828051,-1.562127,-1.707324,-0.0007967008,-0.1241131
588.6719,-0.01459743,-0.8291086,-1.561849,-1.714046,0.00820425,-0.1233615
588.6871,-0.0145956,-0.8293421,-1.563039,-1.713862,-0.001751219,-0.1241762
588.7017,-0.01459573,-0.8290676,-1.563653,-1.710332,-0.01141384,-0.124975
588.7162,-0.01459573,-0.8290676,-1.563653,-1.710332,-0.01141384,-0.124975
588.7301,-0.01459684,-0.8284808,-1.563993,-1.70517,-0.02080327,-0.125758
588.7454,-0.01459877,-0.8277038,-1.564202,-1.699229,-0.02996814,-0.1265256
588.7599,-0.01459877,-0.8277038,-1.564202,-1.699229,-0.02996814,-0.1265256
588.7739,-0.01460138,-0.8268822,-1.564238,-1.693511,-0.03737403,-0.1271489
588.7892,-0.01460447,-0.8260369,-1.564291,-1.687933,-0.04463403,-0.1277599
588.8039,-0.01460792,-0.8251805,-1.564346,-1.682459,-0.05175143,-0.128359
588.8184,-0.01460792,-0.8251805,-1.564346,-1.682459,-0.05175143,-0.128359
588.8325,-0.01461143,-0.8243906,-1.56431,-1.677648,-0.05717495,-0.128817
588.8477,-0.01461488,-0.8236451,-1.564314,-1.673193,-0.06249861,-0.129266
588.8644,-0.01461824,-0.8229305,-1.564332,-1.668946,-0.06772083,-0.1297062
588.8779,-0.01461824,-0.8229305,-1.564332,-1.668946,-0.06772083,-0.1297062
588.8917,-0.01462152,-0.822238,-1.564355,-1.664833,-0.07284088,-0.1301378
588.9063,-0.01462454,-0.8216317,-1.564307,-1.66139,-0.07631373,-0.1304316
588.9205,-0.01462729,-0.8210812,-1.564293,-1.658299,-0.07972355,-0.1307196
588.9351,-0.01462729,-0.8210812,-1.564293,-1.658299,-0.07972355,-0.1307196
588.949,-0.01462978,-0.8205676,-1.564292,-1.655406,-0.08306888,-0.131002
588.9643,-0.01463209,-0.8200791,-1.564297,-1.652632,-0.08634916,-0.1312789
588.979,-0.01463209,-0.8200791,-1.564297,-1.652632,-0.08634916,-0.1312789
588.9927,-0.01463407,-0.8196777,-1.564245,-1.650512,-0.08802334,-0.131421
589.008,-0.01463572,-0.8193316,-1.564221,-1.648727,-0.08966836,-0.1315603
589.0225,-0.01463709,-0.8190213,-1.564209,-1.64712,-0.09128293,-0.131697
589.0369,-0.01463709,-0.8190213,-1.564209,-1.64712,-0.09128293,-0.131697
589.0509,-0.01463808,-0.8188038,-1.564151,-1.646189,-0.09132668,-0.1317016
589.0663,-0.01463888,-0.8186446,-1.564117,-1.645594,-0.09137245,-0.1317061
589.0808,-0.01463955,-0.818522,-1.564095,-1.645171,-0.09141874,-0.1317106
589.0952,-0.01463955,-0.818522,-1.564095,-1.645171,-0.09141874,-0.1317106
589.1093,-0.01464017,-0.8184226,-1.564078,-1.644838,-0.09146461,-0.1317149
589.125,-0.01464062,-0.8184072,-1.564012,-1.645126,-0.08997051,-0.1315899
589.1393,-0.01464062,-0.8184072,-1.564012,-1.645126,-0.08997051,-0.1315899
589.1533,-0.01464096,-0.8184422,-1.563969,-1.645715,-0.08850759,-0.1314673
589.1707,-0.01464122,-0.8185081,-1.563934,-1.64645,-0.08707424,-0.1313471
589.1843,-0.01464143,-0.8185928,-1.563903,-1.647253,-0.08566921,-0.1312293
589.198,-0.01464143,-0.8185928,-1.563903,-1.647253,-0.08566921,-0.1312293
589.2117,-0.01464149,-0.8187581,-1.563821,-1.648658,-0.08275127,-0.1309845
589.2268,-0.01464144,-0.8189723,-1.56376,-1.650345,-0.07989201,-0.1307445
589.2414,-0.01464132,-0.8192158,-1.563707,-1.652161,-0.07708936,-0.1305092
589.2559,-0.01464132,-0.8192158,-1.563707,-1.652161,-0.07708936,-0.1305092
589.2698,-0.01464103,-0.8195455,-1.5636,-1.654601,-0.07279903,-0.1301491
589.285,-0.01464061,-0.819927,-1.563513,-1.657328,-0.06859402,-0.1297961
589.2997,-0.01464061,-0.819927,-1.563513,-1.657328,-0.06859402,-0.1297961
589.3135,-0.01464011,-0.8203387,-1.563435,-1.660177,-0.06447165,-0.1294501
589.3288,-0.01463955,-0.8207672,-1.563359,-1.663069,-0.06042952,-0.1291108
589.3433,-0.01463884,-0.8212734,-1.563215,-1.666534,-0.05491895,-0.1286488
589.358,-0.01463884,-0.8212734,-1.563215,-1.666534,-0.05491895,-0.1286488
589.3719,-0.01463802,-0.8218254,-1.563093,-1.670252,-0.04951776,-0.1281959
589.3873,-0.01463712,-0.8224031,-1.56298,-1.67407,-0.0442226,-0.1277519
589.4021,-0.01463616,-0.8229941,-1.562869,-1.677911,-0.03903033,-0.1273166
589.4167,-0.01463616,-0.8229941,-1.562869,-1.677911,-0.03903033,-0.1273166
589.4307,-0.01463506,-0.82366,-1.562674,-1.682309,-0.03238596,-0.1267604
589.446,-0.0146338,-0.824369,-1.562506,-1.686946,-0.02587369,-0.1262152
589.4604,-0.01463233,-0.8251016,-1.562348,-1.691667,-0.01948949,-0.1256807
589.4762,-0.01463233,-0.8251016,-1.562348,-1.691667,-0.01948949,-0.1256807
589.4902,-0.01463048,-0.8259146,-1.562094,-1.696972,-0.01167156,-0.1250273
589.506,-0.01462827,-0.8267736,-1.561871,-1.702521,-0.00400898,-0.1243867
589.5193,-0.01462827,-0.8267736,-1.561871,-1.702521,-0.00400898,-0.1243867
589.5336,-0.01462575,-0.8276573,-1.56166,-1.708152,0.003502816,-0.1237586
589.5483,-0.014623,-0.8285521,-1.561451,-1.713785,0.01086885,-0.1231429
589.5638,-0.01461984,-0.82945,-1.561242,-1.719379,0.01809403,-0.1225392
589.5773,-0.01461984,-0.82945,-1.561242,-1.719379,0.01809403,-0.1225392
589.5914,-0.01461643,-0.8303456,-1.561033,-1.724914,0.02517991,-0.1219473
589.6068,-0.01461285,-0.8312359,-1.560823,-1.730381,0.03212916,-0.121367
589.6213,-0.01460916,-0.832119,-1.560612,-1.735774,0.03894433,-0.1207981
589.6361,-0.01460916,-0.832119,-1.560612,-1.735774,0.03894433,-0.1207981
589.6501,-0.01460542,-0.8329936,-1.560401,-1.741094,0.04562788,-0.1202403
589.6655,-0.01460163,-0.833859,-1.56019,-1.746338,0.05218221,-0.1196935
589.6801,-0.01459784,-0.8347148,-1.559979,-1.751507,0.05860968,-0.1191574
589.6949,-0.01459784,-0.8347148,-1.559979,-1.751507,0.05860968,-0.1191574
589.7089,-0.01459403,-0.835561,-1.559768,-1.756602,0.06491259,-0.1186319
589.7245,-0.01459023,-0.8363974,-1.559559,-1.761624,0.07109325,-0.1181166
589.7389,-0.01459023,-0.8363974,-1.559559,-1.761624,0.07109325,-0.1181166
589.755,-0.01458643,-0.837224,-1.55935,-1.766574,0.07715388,-0.1176115
589.7694,-0.01458264,-0.8380408,-1.559142,-1.771452,0.08309668,-0.1171162
589.783,-0.01457886,-0.838848,-1.558936,-1.77626,0.08892381,-0.1166307
589.7972,-0.01457886,-0.838848,-1.558936,-1.77626,0.08892381,-0.1166307
589.8113,-0.0145751,-0.8396456,-1.558731,-1.780999,0.09463742,-0.1161547
589.8266,-0.01457135,-0.8404337,-1.558529,-1.785669,0.1002396,-0.1156881
589.8411,-0.01456761,-0.8412123,-1.558328,-1.790273,0.1057324,-0.1152306
589.8558,-0.01456761,-0.8412123,-1.558328,-1.790273,0.1057324,-0.1152306
589.8696,-0.01456389,-0.8419817,-1.558129,-1.79481,0.1111178,-0.1147821
589.8849,-0.01456018,-0.8427419,-1.557932,-1.799281,0.1163979,-0.1143423
589.8997,-0.01456018,-0.8427419,-1.557932,-1.799281,0.1163979,-0.1143423
589.9135,-0.01455649,-0.843493,-1.557738,-1.803689,0.1215746,-0.1139113
589.9289,-0.01455281,-0.8442352,-1.557546,-1.808033,0.1266499,-0.1134886
589.9435,-0.01454915,-0.8449686,-1.557356,-1.812314,0.1316256,-0.1130743
589.9581,-0.01454915,-0.8449686,-1.557356,-1.812314,0.1316256,-0.1130743
589.9723,-0.0145455,-0.8456931,-1.55717,-1.816534,0.1365035,-0.1126681
589.9877,-0.01454187,-0.846409,-1.556986,-1.820694,0.1412856,-0.1122699
590.0023,-0.01453826,-0.8471164,-1.556805,-1.824793,0.1459737,-0.1118794
590.0168,-0.01453826,-0.8471164,-1.556805,-1.824793,0.1459737,-0.1118794
590.0308,-0.01453466,-0.8478153,-1.556627,-1.828834,0.1505694,-0.1114967
590.047,-0.01453108,-0.8485059,-1.556453,-1.832817,0.1550746,-0.1111214
590.0615,-0.01452751,-0.8491882,-1.556281,-1.836742,0.1594909,-0.1107536
590.0754,-0.01452751,-0.8491882,-1.556281,-1.836742,0.1594909,-0.1107536
590.0894,-0.01452396,-0.8498624,-1.556113,-1.840611,0.1638201,-0.1103929
590.1045,-0.01452043,-0.8505285,-1.555948,-1.844425,0.1680638,-0.1100393
590.1188,-0.01452043,-0.8505285,-1.555948,-1.844425,0.1680638,-0.1100393
590.1326,-0.01451691,-0.8511867,-1.555786,-1.848184,0.1722237,-0.1096927
590.1479,-0.01451341,-0.851837,-1.555628,-1.851889,0.1763013,-0.1093528
590.1622,-0.01450992,-0.8524795,-1.555473,-1.855541,0.1802981,-0.1090196
590.1768,-0.01450992,-0.8524795,-1.555473,-1.855541,0.1802981,-0.1090196
590.1907,-0.01450646,-0.8531144,-1.555321,-1.859141,0.1842159,-0.108693
590.2061,-0.014503,-0.8537416,-1.555173,-1.862688,0.1880559,-0.1083728
590.2206,-0.01449957,-0.8543614,-1.555029,-1.866185,0.1918199,-0.1080588
590.2355,-0.01449957,-0.8543614,-1.555029,-1.866185,0.1918199,-0.1080588
590.2495,-0.01449615,-0.8549738,-1.554888,-1.869632,0.1955092,-0.107751
590.265,-0.01449275,-0.8555789,-1.55475,-1.873029,0.1991252,-0.1074493
590.2792,-0.01449275,-0.8555789,-1.55475,-1.873029,0.1991252,-0.1074493
590.2932,-0.01448937,-0.8561767,-1.554617,-1.876378,0.2026694,-0.1071535
590.309,-0.014486,-0.8567675,-1.554487,-1.879678,0.2061432,-0.1068634
590.3234,-0.01448265,-0.8573511,-1.55436,-1.882932,0.2095479,-0.1065791
590.3374,-0.01448265,-0.8573511,-1.55436,-1.882932,0.2095479,-0.1065791
590.3538,-0.01447932,-0.8579278,-1.554237,-1.886138,0.2128849,-0.1063004
590.3682,-0.014476,-0.8584976,-1.554118,-1.889299,0.2161554,-0.1060271
590.3816,-0.0144727,-0.8590606,-1.554002,-1.892414,0.2193609,-0.1057592
590.3964,-0.0144727,-0.8590606,-1.554002,-1.892414,0.2193609,-0.1057592
590.4101,-0.01446942,-0.8596169,-1.55389,-1.895485,0.2225025,-0.1054965
590.4255,-0.01446616,-0.8601665,-1.553781,-1.898511,0.2255814,-0.105239
590.4401,-0.01446291,-0.8607096,-1.553676,-1.901494,0.228599,-0.1049865
590.4547,-0.01446291,-0.8607096,-1.553676,-1.901494,0.228599,-0.1049865
590.4689,-0.01445968,-0.8612462,-1.553575,-1.904435,0.2315564,-0.104739
590.4843,-0.01445647,-0.8617764,-1.553477,-1.907333,0.2344548,-0.1044964
590.4985,-0.01445647,-0.8617764,-1.553477,-1.907333,0.2344548,-0.1044964
590.5123,-0.01445327,-0.8623002,-1.553382,-1.910189,0.2372953,-0.1042585
590.528,-0.01445009,-0.8628178,-1.553291,-1.913005,0.2400791,-0.1040253
590.5423,-0.01444693,-0.8633292,-1.553204,-1.91578,0.2428073,-0.1037966
590.5573,-0.01444693,-0.8633292,-1.553204,-1.91578,0.2428073,-0.1037966
590.5715,-0.01444379,-0.8638346,-1.55312,-1.918516,0.245481,-0.1035724
590.5865,-0.01444066,-0.8643338,-1.553039,-1.921212,0.2481012,-0.1033527
590.6017,-0.01443755,-0.8648271,-1.552962,-1.923869,0.2506691,-0.1031372
590.6158,-0.01443755,-0.8648271,-1.552962,-1.923869,0.2506691,-0.1031372
590.6329,-0.01443446,-0.8653145,-1.552888,-1.926488,0.2531855,-0.102926
590.6461,-0.01443139,-0.8657961,-1.552817,-1.92907,0.2556517,-0.1027189
590.6608,-0.01442833,-0.866272,-1.55275,-1.931615,0.2580685,-0.1025159
590.6744,-0.01442833,-0.866272,-1.55275,-1.931615,0.2580685,-0.1025159
590.6882,-0.01442529,-0.8667421,-1.552685,-1.934123,0.2604369,-0.1023168
590.7034,-0.01442227,-0.8672067,-1.552624,-1.936595,0.2627579,-0.1021217
590.7178,-0.01442227,-0.8672067,-1.552624,-1.936595,0.2627579,-0.1021217
590.7318,-0.01441926,-0.8676657,-1.552566,-1.939032,0.2650324,-0.1019303
590.7469,-0.01441628,-0.8681192,-1.552511,-1.941433,0.2672614,-0.1017428
590.7613,-0.01441331,-0.8685673,-1.55246,-1.9438,0.2694456,-0.1015589
590.7761,-0.01441331,-0.8685673,-1.55246,-1.9438,0.2694456,-0.1015589
590.7901,-0.01441036,-0.8690101,-1.552411,-1.946134,0.2715861,-0.1013786
590.8054,-0.01440742,-0.8694476,-1.552365,-1.948433,0.2736838,-0.1012019
590.82,-0.0144045,-0.8698798,-1.552322,-1.9507,0.2757393,-0.1010286
590.8347,-0.0144045,-0.8698798,-1.552322,-1.9507,0.2757393,-0.1010286
590.8487,-0.0144016,-0.8703069,-1.552282,-1.952934,0.2777536,-0.1008587
590.8643,-0.01439872,-0.8707289,-1.552245,-1.955136,0.2797275,-0.1006922
590.8785,-0.01439872,-0.8707289,-1.552245,-1.955136,0.2797275,-0.1006922
590.8925,-0.01439585,-0.8711458,-1.552211,-1.957307,0.2816619,-0.1005289
590.908,-0.01439301,-0.8715578,-1.552179,-1.959446,0.2835574,-0.1003688
590.9226,-0.01439017,-0.8719649,-1.552151,-1.961554,0.2854148,-0.1002118
590.9391,-0.01439017,-0.8719649,-1.552151,-1.961554,0.2854148,-0.1002118
590.9531,-0.01438736,-0.8723671,-1.552124,-1.963633,0.287235,-0.100058
590.9664,-0.01438456,-0.8727645,-1.552101,-1.965681,0.2890186,-0.09990712
590.9807,-0.01438178,-0.8731571,-1.55208,-1.9677,0.2907664,-0.09975922
590.9955,-0.01438178,-0.8731571,-1.55208,-1.9677,0.2907664,-0.09975922
