JMolnar6/NonAnthroHands_User_Study/HandsLoggerWithURDF/tempdata/files/Reachy_PID0_JointMotion_gesture_7_35.csv
Time,r_shoulder,r_shoulder_x,r_upper_arm,r_forearm,r_wrist,r_wrist2hand,
452.4243,-0.09804698,-1.321411E-08,NaN,-0.3271259,-1.345826E-07,NaN,0.4549784,-1.918103E-08,NaN,-2.170095,1.401392E-05,-0.3693808,4.804797E-08,NaN,NaN,-0.05836253,6.705509E-10,-1.590821E-08,-1.127661E-07,-1.784432E-08,-2.622604E-08
452.44,-0.09767529,-1.321324E-08,NaN,-0.3271236,-1.345825E-07,NaN,0.454962,-1.926267E-08,NaN,-2.170263,1.401444E-05,-0.3691896,4.813145E-08,NaN,NaN,-0.05761012,6.705509E-10,-1.348677E-08,-1.127656E-07,-1.665223E-08,-2.861022E-08
452.4536,-0.09767529,-1.321324E-08,NaN,-0.3271236,-1.345825E-07,NaN,0.454962,-1.926267E-08,NaN,-2.170263,1.401444E-05,-0.3691896,4.813145E-08,NaN,NaN,-0.05761012,6.705509E-10,-1.348677E-08,-1.127656E-07,-1.665223E-08,-2.861022E-08
452.4676,-0.09684498,-1.321237E-08,NaN,-0.3271203,-1.345824E-07,NaN,0.4548645,-1.934261E-08,NaN,-2.170546,1.401495E-05,-0.369048,4.821323E-08,NaN,NaN,-0.0568725,6.705509E-10,-9.724231E-09,-1.127652E-07,-1.784432E-08,-2.622604E-08
452.4831,-0.09572955,-1.32115E-08,NaN,-0.3271168,-1.345824E-07,NaN,0.4547508,-1.942088E-08,NaN,-2.170835,1.401548E-05,-0.3689361,4.829334E-08,NaN,NaN,-0.05614941,6.612377E-10,-7.693948E-09,-1.127647E-07,-1.784432E-08,-2.861022E-08
452.4988,-0.09572955,-1.32115E-08,NaN,-0.3271168,-1.345824E-07,NaN,0.4547508,-1.942088E-08,NaN,-2.170835,1.401548E-05,-0.3689361,4.829334E-08,NaN,NaN,-0.05614941,6.612377E-10,-7.693948E-09,-1.127647E-07,-1.784432E-08,-2.861022E-08
452.513,-0.0951677,-1.321063E-08,NaN,-0.3271156,-1.345823E-07,NaN,0.45481,-1.949751E-08,NaN,-2.170708,1.4016E-05,-0.3688666,4.837181E-08,NaN,NaN,-0.05544094,6.612377E-10,-1.439947E-08,-1.127642E-07,-1.903641E-08,-2.622604E-08
452.5272,-0.0949565,-1.320976E-08,NaN,-0.3271153,-1.345822E-07,NaN,0.4549671,-1.956971E-08,NaN,-2.17043,1.401652E-05,-0.36875,4.844586E-08,NaN,NaN,-0.05474633,6.565811E-10,-2.134714E-08,-1.127637E-07,-1.784432E-08,-2.861022E-08
452.5417,-0.09496576,-1.320889E-08,NaN,-0.3271152,-1.345822E-07,NaN,0.4551556,-1.964039E-08,NaN,-2.170112,1.401703E-05,-0.3686035,4.851838E-08,NaN,NaN,-0.05406529,6.612377E-10,-2.727035E-08,-1.127632E-07,-1.665223E-08,-2.622604E-08
452.5565,-0.09496576,-1.320889E-08,NaN,-0.3271152,-1.345822E-07,NaN,0.4551556,-1.964039E-08,NaN,-2.170112,1.401703E-05,-0.3686035,4.851838E-08,NaN,NaN,-0.05406529,6.612377E-10,-2.727035E-08,-1.127632E-07,-1.665223E-08,-2.622604E-08
452.5704,-0.09511368,-1.320802E-08,NaN,-0.3271151,-1.345821E-07,NaN,0.4553449,-1.970959E-08,NaN,-2.169796,1.401754E-05,-0.3684468,4.858943E-08,NaN,NaN,-0.05339756,6.658943E-10,-3.218773E-08,-1.127627E-07,-1.546013E-08,-2.861022E-08
452.5858,-0.09607653,-1.320716E-08,NaN,-0.3271168,-1.34582E-07,NaN,0.4556867,-1.977734E-08,NaN,-2.169109,1.401805E-05,-0.3683196,4.865901E-08,NaN,NaN,-0.0527433,6.705509E-10,-4.382926E-08,-1.127622E-07,-8.307575E-09,-2.622604E-08
452.6003,-0.09754813,-1.320629E-08,NaN,-0.3271189,-1.345819E-07,NaN,0.4560973,-1.984365E-08,NaN,-2.168325,1.401858E-05,-0.3681468,4.872717E-08,NaN,NaN,-0.05210181,6.612377E-10,-5.414832E-08,-1.127618E-07,-9.499668E-09,-2.861022E-08
452.6152,-0.09754813,-1.320629E-08,NaN,-0.3271189,-1.345819E-07,NaN,0.4560973,-1.984365E-08,NaN,-2.168325,1.401858E-05,-0.3681468,4.872717E-08,NaN,NaN,-0.05210181,6.612377E-10,-5.414832E-08,-1.127618E-07,-9.499668E-09,-2.861022E-08
452.6295,-0.09933367,-1.320542E-08,NaN,-0.327121,-1.345819E-07,NaN,0.4565128,-1.990856E-08,NaN,-2.16755,1.40191E-05,-0.36795,4.879393E-08,NaN,NaN,-0.05147281,6.612377E-10,-6.295863E-08,-1.127613E-07,-8.307575E-09,-2.622604E-08
452.6446,-0.1013093,-1.320455E-08,NaN,-0.3271226,-1.345818E-07,NaN,0.4569077,-1.99721E-08,NaN,-2.166818,1.401962E-05,-0.3677486,4.885931E-08,NaN,NaN,-0.05085611,6.565811E-10,-7.22346E-08,-1.127608E-07,-8.307575E-09,-2.861022E-08
452.6594,-0.1013093,-1.320455E-08,NaN,-0.3271226,-1.345818E-07,NaN,0.4569077,-1.99721E-08,NaN,-2.166818,1.401962E-05,-0.3677486,4.885931E-08,NaN,NaN,-0.05085611,6.565811E-10,-7.22346E-08,-1.127608E-07,-8.307575E-09,-2.861022E-08
452.6732,-0.1041245,-1.320368E-08,NaN,-0.3271261,-1.345817E-07,NaN,0.4574396,-2.003429E-08,NaN,-2.165746,1.402013E-05,-0.3675794,4.892334E-08,NaN,NaN,-0.05025185,6.612377E-10,-8.903566E-08,-1.127603E-07,-1.069176E-08,-2.622604E-08
452.6887,-0.1074562,-1.320281E-08,NaN,-0.3271298,-1.345817E-07,NaN,0.4580274,-2.009233E-08,NaN,-2.164602,1.402065E-05,-0.3673675,4.898323E-08,NaN,NaN,-0.04965937,6.565811E-10,-1.048123E-07,-1.127599E-07,-9.499668E-09,-2.861022E-08
452.7036,-0.1110989,-1.320194E-08,NaN,-0.3271329,-1.345816E-07,NaN,0.4586098,-2.014914E-08,NaN,-2.163488,1.402116E-05,-0.3671345,4.904188E-08,NaN,NaN,-0.04907842,6.612377E-10,-1.190429E-07,-1.127594E-07,-9.499668E-09,-2.622604E-08
452.7227,-0.114922,-1.320107E-08,NaN,-0.3271352,-1.345815E-07,NaN,0.4591635,-2.020473E-08,NaN,-2.162432,1.402169E-05,-0.3668989,4.909931E-08,NaN,NaN,-0.04850882,6.565811E-10,-1.317461E-07,-1.127589E-07,-1.069176E-08,-2.861022E-08
452.7344,-0.114922,-1.320107E-08,NaN,-0.3271352,-1.345815E-07,NaN,0.4591635,-2.020473E-08,NaN,-2.162432,1.402169E-05,-0.3668989,4.909931E-08,NaN,NaN,-0.04850882,6.565811E-10,-1.317461E-07,-1.127589E-07,-1.069176E-08,-2.861022E-08
452.7471,-0.1195709,-1.32002E-08,NaN,-0.327139,-1.345814E-07,NaN,0.4598483,-2.025913E-08,NaN,-2.161051,1.402221E-05,-0.3666944,4.915555E-08,NaN,NaN,-0.04795072,6.472679E-10,-1.505216E-07,-1.127585E-07,-1.426804E-08,-2.622604E-08
452.7635,-0.1247198,-1.319934E-08,NaN,-0.3271425,-1.345814E-07,NaN,0.4605823,-2.031236E-08,NaN,-2.159611,1.402273E-05,-0.3664481,4.921063E-08,NaN,NaN,-0.04740348,6.426112E-10,-1.690921E-07,-1.12758E-07,-1.665222E-08,-2.861022E-08
452.7782,-0.1247198,-1.319934E-08,NaN,-0.3271425,-1.345814E-07,NaN,0.4605823,-2.031236E-08,NaN,-2.159611,1.402273E-05,-0.3664481,4.921063E-08,NaN,NaN,-0.04740348,6.426112E-10,-1.690921E-07,-1.12758E-07,-1.665222E-08,-2.861022E-08
452.791,-0.1301619,-1.319847E-08,NaN,-0.3271447,-1.345813E-07,NaN,0.4613052,-2.036445E-08,NaN,-2.158212,1.402325E-05,-0.3661821,4.926456E-08,NaN,NaN,-0.0468669,6.472679E-10,-1.848501E-07,-1.127575E-07,-1.426804E-08,-2.622604E-08
452.8068,-0.1364937,-1.31976E-08,NaN,-0.3271481,-1.345812E-07,NaN,0.4621583,-2.041542E-08,NaN,-2.156495,1.402376E-05,-0.3659379,4.931736E-08,NaN,NaN,-0.04634113,6.519245E-10,-2.065499E-07,-1.127571E-07,-1.426804E-08,-2.861022E-08
452.821,-0.1433589,-1.319673E-08,NaN,-0.3271503,-1.345812E-07,NaN,0.4630519,-2.046246E-08,NaN,-2.154737,1.402427E-05,-0.3656506,4.936626E-08,NaN,NaN,-0.04582559,6.565811E-10,-2.254744E-07,-1.127566E-07,-1.784432E-08,-2.622604E-08
452.8355,-0.1433589,-1.319673E-08,NaN,-0.3271503,-1.345812E-07,NaN,0.4630519,-2.046246E-08,NaN,-2.154737,1.402427E-05,-0.3656506,4.936626E-08,NaN,NaN,-0.04582559,6.565811E-10,-2.254744E-07,-1.127566E-07,-1.784432E-08,-2.622604E-08
452.8496,-0.1505308,-1.319586E-08,NaN,-0.327151,-1.345811E-07,NaN,0.4639243,-2.050849E-08,NaN,-2.153036,1.402479E-05,-0.3653452,4.941413E-08,NaN,NaN,-0.04532006,6.519245E-10,-2.431323E-07,-1.127562E-07,-1.665222E-08,-2.861022E-08
452.865,-0.1578655,-1.319499E-08,NaN,-0.3271509,-1.34581E-07,NaN,0.4647537,-2.055351E-08,NaN,-2.151421,1.40253E-05,-0.3650412,4.946099E-08,NaN,NaN,-0.04482438,6.565811E-10,-2.591883E-07,-1.127557E-07,-1.546013E-08,-2.622604E-08
452.8799,-0.1578655,-1.319499E-08,NaN,-0.3271509,-1.34581E-07,NaN,0.4647537,-2.055351E-08,NaN,-2.151421,1.40253E-05,-0.3650412,4.946099E-08,NaN,NaN,-0.04482438,6.565811E-10,-2.591883E-07,-1.127557E-07,-1.546013E-08,-2.622604E-08
452.8936,-0.1660004,-1.319412E-08,NaN,-0.3271515,-1.345809E-07,NaN,0.4657037,-2.059755E-08,NaN,-2.149506,1.402582E-05,-0.364765,4.950687E-08,NaN,NaN,-0.04433872,6.519245E-10,-2.829556E-07,-1.127552E-07,-1.784432E-08,-2.861022E-08
452.909,-0.1746044,-1.319326E-08,NaN,-0.3271515,-1.345809E-07,NaN,0.4666902,-2.064062E-08,NaN,-2.147555,1.402634E-05,-0.3644493,4.955179E-08,NaN,NaN,-0.0438625,6.565811E-10,-3.047113E-07,-1.127548E-07,-1.546013E-08,-2.622604E-08
452.9236,-0.1834675,-1.319239E-08,NaN,-0.3271506,-1.345808E-07,NaN,0.467654,-2.068275E-08,NaN,-2.145664,1.402685E-05,-0.3641174,4.959576E-08,NaN,NaN,-0.04339553,6.612377E-10,-3.231143E-07,-1.127543E-07,-1.903641E-08,-2.861022E-08
452.9383,-0.1834675,-1.319239E-08,NaN,-0.3271506,-1.345808E-07,NaN,0.467654,-2.068275E-08,NaN,-2.145664,1.402685E-05,-0.3641174,4.959576E-08,NaN,NaN,-0.04339553,6.612377E-10,-3.231143E-07,-1.127543E-07,-1.903641E-08,-2.861022E-08
452.9524,-0.1931848,-1.319152E-08,NaN,-0.3271504,-1.345807E-07,NaN,0.4687398,-2.072396E-08,NaN,-2.143476,1.402736E-05,-0.3638038,4.96388E-08,NaN,NaN,-0.04293798,6.658943E-10,-3.470679E-07,-1.127539E-07,-2.02285E-08,-2.622604E-08
452.9678,-0.2033987,-1.319065E-08,NaN,-0.3271492,-1.345807E-07,NaN,0.4698551,-2.076425E-08,NaN,-2.141264,1.402787E-05,-0.3634495,4.968094E-08,NaN,NaN,-0.0424893,6.705509E-10,-3.692333E-07,-1.127534E-07,-2.14206E-08,-2.861022E-08
452.9825,-0.2138821,-1.318978E-08,NaN,-0.327147,-1.345806E-07,NaN,0.470939,-2.080083E-08,NaN,-2.139127,1.402838E-05,-0.3630809,4.971936E-08,NaN,NaN,-0.04204931,6.752075E-10,-3.900205E-07,-1.12753E-07,-2.14206E-08,-2.622604E-08
452.9974,-0.2138821,-1.318978E-08,NaN,-0.327147,-1.345806E-07,NaN,0.470939,-2.080083E-08,NaN,-2.139127,1.402838E-05,-0.3630809,4.971936E-08,NaN,NaN,-0.04204931,6.752075E-10,-3.900205E-07,-1.12753E-07,-2.14206E-08,-2.622604E-08
453.0114,-0.2244912,-1.318891E-08,NaN,-0.3271437,-1.345805E-07,NaN,0.4719716,-2.083659E-08,NaN,-2.137093,1.40289E-05,-0.362716,4.975697E-08,NaN,NaN,-0.0416179,6.752075E-10,-4.085724E-07,-1.127526E-07,-2.380478E-08,-2.861022E-08
453.0278,-0.2358632,-1.318805E-08,NaN,-0.3271414,-1.345803E-07,NaN,0.4731182,-2.07856E-08,NaN,-2.134775,1.402943E-05,-0.3623746,4.970781E-08,NaN,NaN,-0.04119521,6.705509E-10,-4.315202E-07,-1.127538E-07,-2.499688E-08,-2.622604E-08
453.0423,-0.2476674,-1.318718E-08,NaN,-0.3271381,-1.345806E-07,NaN,0.4742916,-2.063685E-08,NaN,-2.132437,1.402995E-05,-0.3619955,4.956091E-08,NaN,NaN,-0.04078071,6.705509E-10,-4.524564E-07,-1.127554E-07,-2.618897E-08,-2.861022E-08
453.056,-0.2476674,-1.318718E-08,NaN,-0.3271381,-1.345806E-07,NaN,0.4742916,-2.063685E-08,NaN,-2.132437,1.402995E-05,-0.3619955,4.956091E-08,NaN,NaN,-0.04078071,6.705509E-10,-4.524564E-07,-1.127554E-07,-2.618897E-08,-2.861022E-08
453.0701,-0.2596939,-1.318631E-08,NaN,-0.3271328,-1.34581E-07,NaN,0.4754335,-2.043737E-08,NaN,-2.130173,1.403048E-05,-0.3616031,4.936327E-08,NaN,NaN,-0.04037424,6.705509E-10,-4.724984E-07,-1.127572E-07,-2.857315E-08,-2.622604E-08
453.0853,-0.2718099,-1.318545E-08,NaN,-0.3271256,-1.345816E-07,NaN,0.4765238,-2.021071E-08,NaN,-2.128013,1.403101E-05,-0.361215,4.913843E-08,NaN,NaN,-0.03997568,6.705509E-10,-4.891877E-07,-1.127591E-07,-2.499688E-08,-2.861022E-08
453.1,-0.2846597,-1.318458E-08,NaN,-0.3271193,-1.345823E-07,NaN,0.4777283,-1.99743E-08,NaN,-2.125571,1.403153E-05,-0.360847,4.890386E-08,NaN,NaN,-0.03958518,6.705509E-10,-5.105709E-07,-1.12761E-07,-2.380478E-08,-2.622604E-08
453.1146,-0.2846597,-1.318458E-08,NaN,-0.3271193,-1.345823E-07,NaN,0.4777283,-1.99743E-08,NaN,-2.125571,1.403153E-05,-0.360847,4.890386E-08,NaN,NaN,-0.03958518,6.705509E-10,-5.105709E-07,-1.12761E-07,-2.380478E-08,-2.622604E-08
453.1288,-0.2979173,-1.318371E-08,NaN,-0.3271115,-1.345831E-07,NaN,0.4789571,-1.973117E-08,NaN,-2.123112,1.403206E-05,-0.3604418,4.866255E-08,NaN,NaN,-0.03920225,6.705509E-10,-5.31805E-07,-1.127629E-07,-2.499688E-08,-2.861022E-08
453.1441,-0.3113756,-1.318285E-08,NaN,-0.3271015,-1.345838E-07,NaN,0.4801514,-1.948989E-08,NaN,-2.120732,1.403259E-05,-0.3600251,4.84231E-08,NaN,NaN,-0.03882673,6.705509E-10,-5.525922E-07,-1.127649E-07,-2.380478E-08,-2.622604E-08
453.1588,-0.3113756,-1.318285E-08,NaN,-0.3271015,-1.345838E-07,NaN,0.4801514,-1.948989E-08,NaN,-2.120732,1.403259E-05,-0.3600251,4.84231E-08,NaN,NaN,-0.03882673,6.705509E-10,-5.525922E-07,-1.127649E-07,-2.380478E-08,-2.622604E-08
453.173,-0.3256322,-1.318198E-08,NaN,-0.3270919,-1.345846E-07,NaN,0.4814595,-1.925043E-08,NaN,-2.118075,1.403311E-05,-0.3596202,4.818547E-08,NaN,NaN,-0.03845878,6.705509E-10,-5.740498E-07,-1.127668E-07,-2.976525E-08,-2.861022E-08
453.1884,-0.3403311,-1.318111E-08,NaN,-0.32708,-1.345854E-07,NaN,0.4827835,-1.901558E-08,NaN,-2.115414,1.403365E-05,-0.3591784,4.795243E-08,NaN,NaN,-0.03809794,6.612377E-10,-5.946134E-07,-1.127688E-07,-2.857315E-08,-2.622604E-08
453.203,-0.3552465,-1.318025E-08,NaN,-0.3270653,-1.345862E-07,NaN,0.4840644,-1.878524E-08,NaN,-2.112847,1.403418E-05,-0.3587278,4.772391E-08,NaN,NaN,-0.03774408,6.612377E-10,-6.126438E-07,-1.127708E-07,-2.857315E-08,-2.861022E-08
453.2192,-0.3552465,-1.318025E-08,NaN,-0.3270653,-1.345862E-07,NaN,0.4840644,-1.878524E-08,NaN,-2.112847,1.403418E-05,-0.3587278,4.772391E-08,NaN,NaN,-0.03774408,6.612377E-10,-6.126438E-07,-1.127708E-07,-2.857315E-08,-2.861022E-08
453.232,-0.3702354,-1.317938E-08,NaN,-0.3270482,-1.34587E-07,NaN,0.4852839,-1.855931E-08,NaN,-2.1104,1.40347E-05,-0.3582856,4.74998E-08,NaN,NaN,-0.03739709,6.612377E-10,-6.285881E-07,-1.127727E-07,-2.976525E-08,-2.622604E-08
453.2478,-0.3859362,-1.317851E-08,NaN,-0.3270318,-1.345878E-07,NaN,0.4866104,-1.834055E-08,NaN,-2.107692,1.403524E-05,-0.3578594,4.728286E-08,NaN,NaN,-0.03705711,6.519245E-10,-6.478106E-07,-1.127747E-07,-3.095734E-08,-2.861022E-08
453.2621,-0.4020187,-1.317764E-08,NaN,-0.3270133,-1.345886E-07,NaN,0.4879507,-1.812598E-08,NaN,-2.10498,1.403576E-05,-0.3573998,4.70701E-08,NaN,NaN,-0.03672369,6.519245E-10,-6.66437E-07,-1.127766E-07,-3.214943E-08,-2.622604E-08
453.2769,-0.4020187,-1.317764E-08,NaN,-0.3270133,-1.345886E-07,NaN,0.4879507,-1.812598E-08,NaN,-2.10498,1.403576E-05,-0.3573998,4.70701E-08,NaN,NaN,-0.03672369,6.519245E-10,-6.66437E-07,-1.127766E-07,-3.214943E-08,-2.622604E-08
453.2929,-0.418274,-1.317678E-08,NaN,-0.3269922,-1.345894E-07,NaN,0.4892479,-1.791834E-08,NaN,-2.102362,1.403629E-05,-0.3569334,4.686428E-08,NaN,NaN,-0.03639672,6.519245E-10,-6.846165E-07,-1.127785E-07,-3.81099E-08,-2.861022E-08
453.3063,-0.4345697,-1.317591E-08,NaN,-0.3269689,-1.345902E-07,NaN,0.4904845,-1.771468E-08,NaN,-2.099865,1.403682E-05,-0.3564765,4.666244E-08,NaN,NaN,-0.03607609,6.519245E-10,-7.016038E-07,-1.127805E-07,-3.095734E-08,-2.622604E-08
453.3211,-0.4515508,-1.317504E-08,NaN,-0.3269466,-1.34591E-07,NaN,0.4918289,-1.751774E-08,NaN,-2.097106,1.403734E-05,-0.3560317,4.646731E-08,NaN,NaN,-0.03576194,6.519245E-10,-7.214223E-07,-1.127824E-07,-3.095734E-08,-2.861022E-08
453.3358,-0.4515508,-1.317504E-08,NaN,-0.3269466,-1.34591E-07,NaN,0.4918289,-1.751774E-08,NaN,-2.097106,1.403734E-05,-0.3560317,4.646731E-08,NaN,NaN,-0.03576194,6.519245E-10,-7.214223E-07,-1.127824E-07,-3.095734E-08,-2.861022E-08
453.3497,-0.4688918,-1.317417E-08,NaN,-0.3269223,-1.345918E-07,NaN,0.4931849,-1.732456E-08,NaN,-2.094346,1.403787E-05,-0.3555549,4.627595E-08,NaN,NaN,-0.03545385,6.519245E-10,-7.387077E-07,-1.127843E-07,-3.214943E-08,-2.622604E-08
453.365,-0.4863864,-1.317331E-08,NaN,-0.3268955,-1.345926E-07,NaN,0.4944961,-1.71379E-08,NaN,-2.091682,1.40384E-05,-0.3550733,4.60911E-08,NaN,NaN,-0.03515171,6.519245E-10,-7.5495E-07,-1.127862E-07,-2.499687E-08,-2.861022E-08
453.3797,-0.4863864,-1.317331E-08,NaN,-0.3268955,-1.345926E-07,NaN,0.4944961,-1.71379E-08,NaN,-2.091682,1.40384E-05,-0.3550733,4.60911E-08,NaN,NaN,-0.03515171,6.519245E-10,-7.5495E-07,-1.127862E-07,-2.499687E-08,-2.861022E-08
453.3938,-0.5046325,-1.317244E-08,NaN,-0.326869,-1.345933E-07,NaN,0.4959141,-1.695763E-08,NaN,-2.088761,1.403892E-05,-0.3545969,4.591264E-08,NaN,NaN,-0.03485566,6.519245E-10,-7.725333E-07,-1.127881E-07,-2.02285E-08,-2.622604E-08
453.4092,-0.5232747,-1.317157E-08,NaN,-0.3268398,-1.345941E-07,NaN,0.4973359,-1.678079E-08,NaN,-2.085851,1.403945E-05,-0.3540898,4.573761E-08,NaN,NaN,-0.0345653,6.519245E-10,-7.901167E-07,-1.1279E-07,-1.784432E-08,-2.861022E-08
453.4237,-0.5420877,-1.31707E-08,NaN,-0.3268076,-1.345949E-07,NaN,0.4987047,-1.661015E-08,NaN,-2.083051,1.403998E-05,-0.353581,4.556879E-08,NaN,NaN,-0.03428055,6.519245E-10,-8.06806E-07,-1.127919E-07,-1.784432E-08,-2.622604E-08
453.4387,-0.5420877,-1.31707E-08,NaN,-0.3268076,-1.345949E-07,NaN,0.4987047,-1.661015E-08,NaN,-2.083051,1.403998E-05,-0.353581,4.556879E-08,NaN,NaN,-0.03428055,6.519245E-10,-8.06806E-07,-1.127919E-07,-1.784432E-08,-2.622604E-08
453.4527,-0.5609294,-1.316983E-08,NaN,-0.3267727,-1.345957E-07,NaN,0.500005,-1.644277E-08,NaN,-2.080386,1.40405E-05,-0.353086,4.540322E-08,NaN,NaN,-0.03400132,6.519245E-10,-8.211111E-07,-1.127938E-07,-1.665222E-08,-2.861022E-08
453.4681,-0.5804382,-1.316897E-08,NaN,-0.3267387,-1.345965E-07,NaN,0.501407,-1.62814E-08,NaN,-2.077477,1.404103E-05,-0.3525991,4.524366E-08,NaN,NaN,-0.03372772,6.519245E-10,-8.389925E-07,-1.127957E-07,-1.665222E-08,-2.622604E-08
453.4829,-0.6002848,-1.31681E-08,NaN,-0.3267023,-1.345972E-07,NaN,0.5028116,-1.612592E-08,NaN,-2.074579,1.404156E-05,-0.3520849,4.508999E-08,NaN,NaN,-0.03345938,6.519245E-10,-8.562778E-07,-1.127975E-07,-1.903641E-08,-2.861022E-08
453.4976,-0.6002848,-1.31681E-08,NaN,-0.3267023,-1.345972E-07,NaN,0.5028116,-1.612592E-08,NaN,-2.074579,1.404156E-05,-0.3520849,4.508999E-08,NaN,NaN,-0.03345938,6.519245E-10,-8.562778E-07,-1.127975E-07,-1.903641E-08,-2.861022E-08
453.5117,-0.6202606,-1.316723E-08,NaN,-0.3266633,-1.34598E-07,NaN,0.5041644,-1.597339E-08,NaN,-2.07179,1.404208E-05,-0.3515711,4.493927E-08,NaN,NaN,-0.03319621,6.519245E-10,-8.705829E-07,-1.127994E-07,-1.903641E-08,-2.622604E-08
453.527,-0.6402339,-1.316637E-08,NaN,-0.3266222,-1.345988E-07,NaN,0.5054502,-1.582658E-08,NaN,-2.069134,1.404261E-05,-0.3510717,4.479427E-08,NaN,NaN,-0.03293815,6.519245E-10,-8.83696E-07,-1.128012E-07,-1.784431E-08,-2.861022E-08
453.5439,-0.66085,-1.31655E-08,NaN,-0.3265821,-1.345995E-07,NaN,0.506839,-1.568255E-08,NaN,-2.066233,1.404314E-05,-0.3505768,4.465205E-08,NaN,NaN,-0.03268529,6.519245E-10,-8.991932E-07,-1.128031E-07,-1.546013E-08,-2.622604E-08
453.5574,-0.66085,-1.31655E-08,NaN,-0.3265821,-1.345995E-07,NaN,0.506839,-1.568255E-08,NaN,-2.066233,1.404314E-05,-0.3505768,4.465205E-08,NaN,NaN,-0.03268529,6.519245E-10,-8.991932E-07,-1.128031E-07,-1.546013E-08,-2.622604E-08
453.5715,-0.6817841,-1.316463E-08,NaN,-0.32654,-1.346003E-07,NaN,0.508229,-1.554407E-08,NaN,-2.063345,1.404366E-05,-0.3500564,4.451539E-08,NaN,NaN,-0.03243728,6.519245E-10,-9.140944E-07,-1.128049E-07,-9.499665E-09,-2.861022E-08
453.5858,-0.7028303,-1.316377E-08,NaN,-0.3264953,-1.346011E-07,NaN,0.5095663,-1.540821E-08,NaN,-2.060566,1.404419E-05,-0.3495383,4.438134E-08,NaN,NaN,-0.03219406,6.519245E-10,-9.260153E-07,-1.128068E-07,-5.923386E-09,-2.622604E-08
453.6004,-0.7238587,-1.31629E-08,NaN,-0.3264486,-1.346018E-07,NaN,0.5108362,-1.527774E-08,NaN,-2.057923,1.404472E-05,-0.349036,4.425268E-08,NaN,NaN,-0.03195555,6.519245E-10,-9.349559E-07,-1.128086E-07,-9.499665E-09,-2.861022E-08
453.6151,-0.7238587,-1.31629E-08,NaN,-0.3264486,-1.346018E-07,NaN,0.5108362,-1.527774E-08,NaN,-2.057923,1.404472E-05,-0.349036,4.425268E-08,NaN,NaN,-0.03195555,6.519245E-10,-9.349559E-07,-1.128086E-07,-9.499665E-09,-2.861022E-08
453.6291,-0.7450087,-1.316203E-08,NaN,-0.3264016,-1.346026E-07,NaN,0.5120908,-1.515256E-08,NaN,-2.0553,1.404524E-05,-0.3485479,4.412931E-08,NaN,NaN,-0.03172172,6.519245E-10,-9.433006E-07,-1.128104E-07,-1.188385E-08,-2.622604E-08
453.6443,-0.7661467,-1.316116E-08,NaN,-0.3263537,-1.346033E-07,NaN,0.5133025,-1.502973E-08,NaN,-2.052771,1.404577E-05,-0.3480661,4.40083E-08,NaN,NaN,-0.03149243,6.519245E-10,-9.528374E-07,-1.128123E-07,-1.426804E-08,-2.861022E-08
453.6588,-0.7661467,-1.316116E-08,NaN,-0.3263537,-1.346033E-07,NaN,0.5133025,-1.502973E-08,NaN,-2.052771,1.404577E-05,-0.3480661,4.40083E-08,NaN,NaN,-0.03149243,6.519245E-10,-9.528374E-07,-1.128123E-07,-1.426804E-08,-2.861022E-08
453.6728,-0.7871886,-1.31603E-08,NaN,-0.3263053,-1.346041E-07,NaN,0.5144594,-1.491204E-08,NaN,-2.050356,1.40463E-05,-0.347598,4.389242E-08,NaN,NaN,-0.03126759,6.519245E-10,-9.605859E-07,-1.128141E-07,-1.426804E-08,-2.622604E-08
453.6882,-0.8080819,-1.315943E-08,NaN,-0.326257,-1.346048E-07,NaN,0.5155606,-1.479656E-08,NaN,-2.048058,1.404682E-05,-0.3471467,4.377875E-08,NaN,NaN,-0.03104711,6.519245E-10,-9.671425E-07,-1.128159E-07,-1.426804E-08,-2.861022E-08
453.7043,-0.8287943,-1.315856E-08,NaN,-0.3262092,-1.346056E-07,NaN,0.5166093,-1.468608E-08,NaN,-2.045871,1.404735E-05,-0.3467121,4.367007E-08,NaN,NaN,-0.03083093,6.519245E-10,-9.731029E-07,-1.128177E-07,-1.188385E-08,-2.622604E-08
453.7177,-0.8287943,-1.315856E-08,NaN,-0.3262092,-1.346056E-07,NaN,0.5166093,-1.468608E-08,NaN,-2.045871,1.404735E-05,-0.3467121,4.367007E-08,NaN,NaN,-0.03083093,6.519245E-10,-9.731029E-07,-1.128177E-07,-1.188385E-08,-2.622604E-08
453.7316,-0.8493063,-1.315769E-08,NaN,-0.3261625,-1.346064E-07,NaN,0.5176093,-1.457766E-08,NaN,-2.043789,1.404788E-05,-0.3462935,4.356346E-08,NaN,NaN,-0.03061895,6.519245E-10,-9.766792E-07,-1.128195E-07,-9.499665E-09,-2.861022E-08
453.7471,-0.8696066,-1.315682E-08,NaN,-0.3261171,-1.346071E-07,NaN,0.518564,-1.447409E-08,NaN,-2.041805,1.40484E-05,-0.3458899,4.346171E-08,NaN,NaN,-0.0304111,6.519245E-10,-9.820436E-07,-1.128213E-07,-1.188385E-08,-2.622604E-08
453.762,-0.8896887,-1.315596E-08,NaN,-0.3260732,-1.346078E-07,NaN,0.5194764,-1.437246E-08,NaN,-2.039913,1.404893E-05,-0.3455005,4.336189E-08,NaN,NaN,-0.0302073,6.519245E-10,-9.844279E-07,-1.128231E-07,-1.188385E-08,-2.861022E-08
453.7765,-0.8896887,-1.315596E-08,NaN,-0.3260732,-1.346078E-07,NaN,0.5194764,-1.437246E-08,NaN,-2.039913,1.404893E-05,-0.3455005,4.336189E-08,NaN,NaN,-0.0302073,6.519245E-10,-9.844279E-07,-1.128231E-07,-1.188385E-08,-2.861022E-08
453.7903,-0.9095497,-1.315509E-08,NaN,-0.326031,-1.346086E-07,NaN,0.5203486,-1.427555E-08,NaN,-2.03811,1.404946E-05,-0.3451247,4.326678E-08,NaN,NaN,-0.03000748,6.519245E-10,-9.86216E-07,-1.128248E-07,-9.499665E-09,-2.622604E-08
453.8056,-0.9291885,-1.315422E-08,NaN,-0.3259905,-1.346093E-07,NaN,0.5211826,-1.418049E-08,NaN,-2.036392,1.404999E-05,-0.3447618,4.317353E-08,NaN,NaN,-0.02981154,6.472679E-10,-9.86514E-07,-1.128266E-07,-9.499665E-09,-2.861022E-08
453.8213,-0.9486057,-1.315335E-08,NaN,-0.3259518,-1.346101E-07,NaN,0.52198,-1.409002E-08,NaN,-2.034755,1.405052E-05,-0.3444116,4.308487E-08,NaN,NaN,-0.02961943,6.426112E-10,-9.877061E-07,-1.128284E-07,-1.188385E-08,-2.622604E-08
453.8361,-0.9486057,-1.315335E-08,NaN,-0.3259518,-1.346101E-07,NaN,0.52198,-1.409002E-08,NaN,-2.034755,1.405052E-05,-0.3444116,4.308487E-08,NaN,NaN,-0.02961943,6.426112E-10,-9.877061E-07,-1.128284E-07,-1.188385E-08,-2.622604E-08
453.8503,-0.9678022,-1.315249E-08,NaN,-0.3259149,-1.346108E-07,NaN,0.5227421,-1.400405E-08,NaN,-2.033198,1.405105E-05,-0.3440736,4.300071E-08,NaN,NaN,-0.02943106,6.379546E-10,-9.877061E-07,-1.128301E-07,-1.426804E-08,-2.861022E-08
453.8643,-0.9867797,-1.315162E-08,NaN,-0.3258798,-1.346115E-07,NaN,0.5234701,-1.391966E-08,NaN,-2.031717,1.405158E-05,-0.3437476,4.291814E-08,NaN,NaN,-0.02924636,6.33298E-10,-9.86514E-07,-1.128319E-07,-9.499664E-09,-2.622604E-08
453.879,-0.9867797,-1.315162E-08,NaN,-0.3258798,-1.346115E-07,NaN,0.5234701,-1.391966E-08,NaN,-2.031717,1.405158E-05,-0.3437476,4.291814E-08,NaN,NaN,-0.02924636,6.33298E-10,-9.86514E-07,-1.128319E-07,-9.499664E-09,-2.622604E-08
453.8927,-1.00554,-1.315075E-08,NaN,-0.3258464,-1.346123E-07,NaN,0.5241652,-1.383966E-08,NaN,-2.03031,1.405211E-05,-0.3434332,4.283995E-08,NaN,NaN,-0.02906526,6.286414E-10,-9.847258E-07,-1.128336E-07,-9.499664E-09,-2.861022E-08
453.908,-1.024086,-1.314988E-08,NaN,-0.3258147,-1.34613E-07,NaN,0.5248283,-1.376113E-08,NaN,-2.028976,1.405264E-05,-0.3431304,4.276323E-08,NaN,NaN,-0.0288877,6.239848E-10,-9.841298E-07,-1.128354E-07,-7.115478E-09,-2.622604E-08
453.9224,-1.042419,-1.314901E-08,NaN,-0.3257847,-1.346137E-07,NaN,0.5254604,-1.368686E-08,NaN,-2.027714,1.405317E-05,-0.3428387,4.269077E-08,NaN,NaN,-0.0287136,6.239848E-10,-9.835337E-07,-1.128371E-07,-4.731293E-09,-2.861022E-08
453.937,-1.042419,-1.314901E-08,NaN,-0.3257847,-1.346137E-07,NaN,0.5254604,-1.368686E-08,NaN,-2.027714,1.405317E-05,-0.3428387,4.269077E-08,NaN,NaN,-0.0287136,6.239848E-10,-9.835337E-07,-1.128371E-07,-4.731293E-09,-2.861022E-08
453.951,-1.060541,-1.314815E-08,NaN,-0.3257564,-1.346144E-07,NaN,0.5260624,-1.361396E-08,NaN,-2.02652,1.405371E-05,-0.342558,4.261967E-08,NaN,NaN,-0.02854289,6.239848E-10,-9.829376E-07,-1.128388E-07,-2.347107E-09,-2.622604E-08
453.9664,-1.078456,-1.314728E-08,NaN,-0.3257296,-1.346152E-07,NaN,0.5266352,-1.354521E-08,NaN,-2.025394,1.405425E-05,-0.3422881,4.255273E-08,NaN,NaN,-0.02837552,6.193282E-10,-9.805534E-07,-1.128405E-07,-9.499664E-09,-2.861022E-08
453.9814,-1.096164,-1.314641E-08,NaN,-0.3257044,-1.346159E-07,NaN,0.5271796,-1.34777E-08,NaN,-2.024334,1.40548E-05,-0.3420288,4.248704E-08,NaN,NaN,-0.02821141,6.193282E-10,-9.781692E-07,-1.128423E-07,-1.426804E-08,-2.622604E-08
453.9958,-1.096164,-1.314641E-08,NaN,-0.3257044,-1.346159E-07,NaN,0.5271796,-1.34777E-08,NaN,-2.024334,1.40548E-05,-0.3420288,4.248704E-08,NaN,NaN,-0.02821141,6.193282E-10,-9.781692E-07,-1.128423E-07,-1.426804E-08,-2.622604E-08
454.0097,-1.11367,-1.314554E-08,NaN,-0.3256807,-1.346166E-07,NaN,0.5276964,-1.341425E-08,NaN,-2.023338,1.405534E-05,-0.3417799,4.24254E-08,NaN,NaN,-0.0280505,6.193282E-10,-9.757849E-07,-1.12844E-07,-1.426804E-08,-2.861022E-08
454.0249,-1.130974,-1.314468E-08,NaN,-0.3256584,-1.346173E-07,NaN,0.5281865,-1.335194E-08,NaN,-2.022405,1.405589E-05,-0.3415411,4.23649E-08,NaN,NaN,-0.02789274,6.193282E-10,-9.716126E-07,-1.128457E-07,-1.188385E-08,-2.622604E-08
454.0397,-1.130974,-1.314468E-08,NaN,-0.3256584,-1.346173E-07,NaN,0.5281865,-1.335194E-08,NaN,-2.022405,1.405589E-05,-0.3415411,4.23649E-08,NaN,NaN,-0.02789274,6.193282E-10,-9.716126E-07,-1.128457E-07,-1.188385E-08,-2.622604E-08
454.0538,-1.148079,-1.314381E-08,NaN,-0.3256375,-1.34618E-07,NaN,0.5286505,-1.329358E-08,NaN,-2.021533,1.405643E-05,-0.3413122,4.230835E-08,NaN,NaN,-0.02773805,6.193282E-10,-9.674403E-07,-1.128474E-07,-1.188385E-08,-2.861022E-08
454.0691,-1.164988,-1.314294E-08,NaN,-0.3256181,-1.346187E-07,NaN,0.5290893,-1.323627E-08,NaN,-2.020721,1.405698E-05,-0.3410931,4.225284E-08,NaN,NaN,-0.02758638,6.193282E-10,-9.656521E-07,-1.128491E-07,-9.499665E-09,-2.622604E-08
454.0838,-1.181702,-1.314207E-08,NaN,-0.3255999,-1.346195E-07,NaN,0.5295034,-1.318281E-08,NaN,-2.019967,1.405752E-05,-0.3408835,4.220118E-08,NaN,NaN,-0.02743768,6.193282E-10,-9.608838E-07,-1.128508E-07,-1.188385E-08,-2.861022E-08
454.0981,-1.181702,-1.314207E-08,NaN,-0.3255999,-1.346195E-07,NaN,0.5295034,-1.318281E-08,NaN,-2.019967,1.405752E-05,-0.3408835,4.220118E-08,NaN,NaN,-0.02743768,6.193282E-10,-9.608838E-07,-1.128508E-07,-1.188385E-08,-2.861022E-08
454.1142,-1.198225,-1.31412E-08,NaN,-0.325583,-1.346202E-07,NaN,0.5298936,-1.313029E-08,NaN,-2.01927,1.405808E-05,-0.3406833,4.215048E-08,NaN,NaN,-0.02729188,6.10015E-10,-9.549233E-07,-1.128524E-07,-1.188385E-08,-2.622604E-08
454.1286,-1.214557,-1.314033E-08,NaN,-0.3255674,-1.346209E-07,NaN,0.5302607,-1.308153E-08,NaN,-2.018628,1.405862E-05,-0.3404922,4.210352E-08,NaN,NaN,-0.02714893,6.10015E-10,-9.50751E-07,-1.128541E-07,-7.115479E-09,-2.861022E-08
454.1419,-1.230702,-1.313946E-08,NaN,-0.3255529,-1.346216E-07,NaN,0.5306051,-1.303645E-08,NaN,-2.018041,1.405917E-05,-0.3403101,4.206025E-08,NaN,NaN,-0.02700877,6.10015E-10,-9.465787E-07,-1.128558E-07,-9.499665E-09,-2.622604E-08
454.1564,-1.230702,-1.313946E-08,NaN,-0.3255529,-1.346216E-07,NaN,0.5306051,-1.303645E-08,NaN,-2.018041,1.405917E-05,-0.3403101,4.206025E-08,NaN,NaN,-0.02700877,6.10015E-10,-9.465787E-07,-1.128558E-07,-9.499665E-09,-2.622604E-08
454.1704,-1.246661,-1.31386E-08,NaN,-0.3255397,-1.346223E-07,NaN,0.5309277,-1.299216E-08,NaN,-2.017506,1.405971E-05,-0.3401368,4.201776E-08,NaN,NaN,-0.02687135,6.10015E-10,-9.394261E-07,-1.128575E-07,-1.188385E-08,-2.861022E-08
454.1867,-1.262437,-1.313773E-08,NaN,-0.3255275,-1.34623E-07,NaN,0.5312289,-1.295146E-08,NaN,-2.017023,1.406026E-05,-0.339972,4.197887E-08,NaN,NaN,-0.02673661,6.10015E-10,-9.334656E-07,-1.128591E-07,-1.426804E-08,-2.622604E-08
454.2003,-1.277811,-1.313686E-08,NaN,-0.3255158,-1.346237E-07,NaN,0.5314584,-1.291146E-08,NaN,-2.016704,1.40608E-05,-0.339825,4.194068E-08,NaN,NaN,-0.02660448,6.10015E-10,-9.281012E-07,-1.128608E-07,-2.142059E-08,-2.861022E-08
454.2146,-1.277811,-1.313686E-08,NaN,-0.3255158,-1.346237E-07,NaN,0.5314584,-1.291146E-08,NaN,-2.016704,1.40608E-05,-0.339825,4.194068E-08,NaN,NaN,-0.02660448,6.10015E-10,-9.281012E-07,-1.128608E-07,-2.142059E-08,-2.861022E-08
454.2285,-1.292867,-1.313599E-08,NaN,-0.3255053,-1.346244E-07,NaN,0.531652,-1.287497E-08,NaN,-2.016467,1.406135E-05,-0.339697,4.1906E-08,NaN,NaN,-0.02647494,6.10015E-10,-9.197565E-07,-1.128624E-07,-2.380478E-08,-2.622604E-08
454.2437,-1.307661,-1.313512E-08,NaN,-0.3254966,-1.346251E-07,NaN,0.5318266,-1.283909E-08,NaN,-2.016279,1.406189E-05,-0.3395793,4.187193E-08,NaN,NaN,-0.02634795,6.10015E-10,-9.12604E-07,-1.128641E-07,-2.380478E-08,-2.861022E-08
454.2583,-1.307661,-1.313512E-08,NaN,-0.3254966,-1.346251E-07,NaN,0.5318266,-1.283909E-08,NaN,-2.016279,1.406189E-05,-0.3395793,4.187193E-08,NaN,NaN,-0.02634795,6.10015E-10,-9.12604E-07,-1.128641E-07,-2.380478E-08,-2.861022E-08
454.2721,-1.321499,-1.313425E-08,NaN,-0.325487,-1.346258E-07,NaN,0.5318198,-1.280665E-08,NaN,-2.016503,1.406244E-05,-0.3395,4.184129E-08,NaN,NaN,-0.02622333,6.10015E-10,-9.018751E-07,-1.128657E-07,-3.095733E-08,-2.622604E-08
454.2875,-1.33468,-1.313338E-08,NaN,-0.3254797,-1.346265E-07,NaN,0.5317485,-1.277474E-08,NaN,-2.016871,1.406298E-05,-0.3394613,4.181119E-08,NaN,NaN,-0.0261012,6.10015E-10,-8.923384E-07,-1.128673E-07,-3.095733E-08,-2.861022E-08
454.3021,-1.347391,-1.313251E-08,NaN,-0.3254754,-1.346271E-07,NaN,0.5316663,-1.274619E-08,NaN,-2.017278,1.406352E-05,-0.3394361,4.178444E-08,NaN,NaN,-0.02598148,6.10015E-10,-8.816095E-07,-1.12869E-07,-2.857315E-08,-2.622604E-08
454.3167,-1.347391,-1.313251E-08,NaN,-0.3254754,-1.346271E-07,NaN,0.5316663,-1.274619E-08,NaN,-2.017278,1.406352E-05,-0.3394361,4.178444E-08,NaN,NaN,-0.02598148,6.10015E-10,-8.816095E-07,-1.12869E-07,-2.857315E-08,-2.622604E-08
454.3309,-1.359754,-1.313164E-08,NaN,-0.3254735,-1.346278E-07,NaN,0.5315886,-1.271809E-08,NaN,-2.017688,1.406407E-05,-0.3394132,4.175815E-08,NaN,NaN,-0.02586411,6.10015E-10,-8.720728E-07,-1.128706E-07,-2.142059E-08,-2.861022E-08
454.3458,-1.371118,-1.313077E-08,NaN,-0.3254716,-1.346285E-07,NaN,0.5313487,-1.269327E-08,NaN,-2.01847,1.406461E-05,-0.3394213,4.173514E-08,NaN,NaN,-0.02574894,6.10015E-10,-8.607479E-07,-1.128722E-07,-2.142059E-08,-2.622604E-08
454.3603,-1.381807,-1.31299E-08,NaN,-0.3254712,-1.346292E-07,NaN,0.5310601,-1.267167E-08,NaN,-2.019361,1.406516E-05,-0.3394639,4.171534E-08,NaN,NaN,-0.02563607,6.10015E-10,-8.48231E-07,-1.128738E-07,-2.380478E-08,-2.861022E-08
454.3748,-1.381807,-1.31299E-08,NaN,-0.3254712,-1.346292E-07,NaN,0.5310601,-1.267167E-08,NaN,-2.019361,1.406516E-05,-0.3394639,4.171534E-08,NaN,NaN,-0.02563607,6.10015E-10,-8.48231E-07,-1.128738E-07,-2.380478E-08,-2.861022E-08
454.3889,-1.392025,-1.312903E-08,NaN,-0.3254721,-1.346299E-07,NaN,0.5307729,-1.265321E-08,NaN,-2.020262,1.40657E-05,-0.3395148,4.169869E-08,NaN,NaN,-0.02552542,6.10015E-10,-8.375021E-07,-1.128754E-07,-2.618896E-08,-2.622604E-08
454.4042,-1.401906,-1.312816E-08,NaN,-0.3254739,-1.346306E-07,NaN,0.5305004,-1.263502E-08,NaN,-2.021143,1.406625E-05,-0.339564,4.168231E-08,NaN,NaN,-0.02541695,6.10015E-10,-8.249851E-07,-1.12877E-07,-3.095733E-08,-2.861022E-08
454.4207,-1.410805,-1.312729E-08,NaN,-0.3254752,-1.346312E-07,NaN,0.5300739,-1.261991E-08,NaN,-2.022376,1.40668E-05,-0.3396405,4.1669E-08,NaN,NaN,-0.0253105,6.007018E-10,-8.1068E-07,-1.128786E-07,-3.095733E-08,-2.622604E-08
454.4341,-1.410805,-1.312729E-08,NaN,-0.3254752,-1.346312E-07,NaN,0.5300739,-1.261991E-08,NaN,-2.022376,1.40668E-05,-0.3396405,4.1669E-08,NaN,NaN,-0.0253105,6.007018E-10,-8.1068E-07,-1.128786E-07,-3.095733E-08,-2.622604E-08
454.4482,-1.419048,-1.312642E-08,NaN,-0.3254775,-1.346319E-07,NaN,0.5296057,-1.260504E-08,NaN,-2.023701,1.406735E-05,-0.3397491,4.165594E-08,NaN,NaN,-0.02520618,6.007018E-10,-7.981631E-07,-1.128802E-07,-3.095733E-08,-2.861022E-08
454.4621,-1.426845,-1.312555E-08,NaN,-0.3254809,-1.346326E-07,NaN,0.5291455,-1.259319E-08,NaN,-2.025021,1.406789E-05,-0.339864,4.164589E-08,NaN,NaN,-0.02510392,6.007018E-10,-7.83858E-07,-1.128818E-07,-4.049408E-08,-2.622604E-08
454.4767,-1.426845,-1.312555E-08,NaN,-0.3254809,-1.346326E-07,NaN,0.5291455,-1.259319E-08,NaN,-2.025021,1.406789E-05,-0.339864,4.164589E-08,NaN,NaN,-0.02510392,6.007018E-10,-7.83858E-07,-1.128818E-07,-4.049408E-08,-2.622604E-08
454.4904,-1.433601,-1.312468E-08,NaN,-0.3254838,-1.346333E-07,NaN,0.5285374,-1.258147E-08,NaN,-2.026682,1.406844E-05,-0.340005,4.163598E-08,NaN,NaN,-0.02500356,6.007018E-10,-7.647845E-07,-1.128833E-07,-4.526245E-08,-2.861022E-08
454.5056,-1.439673,-1.312381E-08,NaN,-0.3254886,-1.346339E-07,NaN,0.5278966,-1.257271E-08,NaN,-2.028416,1.406898E-05,-0.3401763,4.162903E-08,NaN,NaN,-0.02490522,6.007018E-10,-7.474991E-07,-1.128849E-07,-4.764664E-08,-2.622604E-08
454.52,-1.44529,-1.312293E-08,NaN,-0.3254959,-1.346346E-07,NaN,0.5272729,-1.256402E-08,NaN,-2.030124,1.406953E-05,-0.3403511,4.162214E-08,NaN,NaN,-0.02480883,6.007018E-10,-7.314059E-07,-1.128865E-07,-4.764664E-08,-2.861022E-08
454.5345,-1.44529,-1.312293E-08,NaN,-0.3254959,-1.346346E-07,NaN,0.5272729,-1.256402E-08,NaN,-2.030124,1.406953E-05,-0.3403511,4.162214E-08,NaN,NaN,-0.02480883,6.007018E-10,-7.314059E-07,-1.128865E-07,-4.764664E-08,-2.861022E-08
454.5484,-1.450596,-1.312206E-08,NaN,-0.3255054,-1.346353E-07,NaN,0.526678,-1.25554E-08,NaN,-2.03178,1.407007E-05,-0.3405194,4.161533E-08,NaN,NaN,-0.02471433,6.007018E-10,-7.171008E-07,-1.12888E-07,-4.764664E-08,-2.622604E-08
454.5637,-1.454958,-1.312119E-08,NaN,-0.3255144,-1.346359E-07,NaN,0.5259415,-1.254968E-08,NaN,-2.033757,1.407062E-05,-0.3407075,4.161141E-08,NaN,NaN,-0.02462156,6.007018E-10,-6.986233E-07,-1.128896E-07,-4.764664E-08,-2.861022E-08
454.5781,-1.454958,-1.312119E-08,NaN,-0.3255144,-1.346359E-07,NaN,0.5259415,-1.254968E-08,NaN,-2.033757,1.407062E-05,-0.3407075,4.161141E-08,NaN,NaN,-0.02462156,6.007018E-10,-6.986233E-07,-1.128896E-07,-4.764664E-08,-2.861022E-08
454.5919,-1.458706,-1.312032E-08,NaN,-0.3255246,-1.346366E-07,NaN,0.5251733,-1.254398E-08,NaN,-2.0358,1.407117E-05,-0.3409248,4.160751E-08,NaN,NaN,-0.02453066,5.913885E-10,-6.81338E-07,-1.128911E-07,-5.003082E-08,-2.622604E-08
454.6071,-1.462054,-1.311945E-08,NaN,-0.3255363,-1.346372E-07,NaN,0.5244231,-1.254111E-08,NaN,-2.037811,1.407171E-05,-0.3411452,4.160645E-08,NaN,NaN,-0.02444156,5.913885E-10,-6.664368E-07,-1.128927E-07,-5.241501E-08,-2.861022E-08
454.6217,-1.465135,-1.311858E-08,NaN,-0.3255495,-1.346379E-07,NaN,0.5237031,-1.25382E-08,NaN,-2.039763,1.407226E-05,-0.3413587,4.160534E-08,NaN,NaN,-0.02435422,5.913885E-10,-6.485554E-07,-1.128942E-07,-5.718338E-08,-2.622604E-08
454.6363,-1.465135,-1.311858E-08,NaN,-0.3255495,-1.346379E-07,NaN,0.5237031,-1.25382E-08,NaN,-2.039763,1.407226E-05,-0.3413587,4.160534E-08,NaN,NaN,-0.02435422,5.913885E-10,-6.485554E-07,-1.128942E-07,-5.718338E-08,-2.622604E-08
454.6503,-1.467307,-1.311771E-08,NaN,-0.3255613,-1.346387E-07,NaN,0.5228431,-1.218907E-08,NaN,-2.042031,1.40728E-05,-0.3415893,4.125801E-08,NaN,NaN,-0.02426846,5.867319E-10,-6.300779E-07,-1.12894E-07,-6.195175E-08,-2.861022E-08
454.6669,-1.468898,-1.311683E-08,NaN,-0.3255733,-1.34639E-07,NaN,0.521953,-1.195094E-08,NaN,-2.044357,1.407335E-05,-0.3418489,4.102169E-08,NaN,NaN,-0.02418443,5.727621E-10,-6.145807E-07,-1.128935E-07,-6.433594E-08,-2.622604E-08
454.68,-1.468898,-1.311683E-08,NaN,-0.3255733,-1.34639E-07,NaN,0.521953,-1.195094E-08,NaN,-2.044357,1.407335E-05,-0.3418489,4.102169E-08,NaN,NaN,-0.02418443,5.727621E-10,-6.145807E-07,-1.128935E-07,-6.433594E-08,-2.622604E-08
454.6937,-1.470117,-1.311596E-08,NaN,-0.3255858,-1.346391E-07,NaN,0.5210832,-1.177091E-08,NaN,-2.046643,1.407389E-05,-0.3421113,4.084345E-08,NaN,NaN,-0.02410206,5.634489E-10,-5.990835E-07,-1.128928E-07,-6.672012E-08,-2.861022E-08
454.7093,-1.470369,-1.311509E-08,NaN,-0.3255966,-1.346391E-07,NaN,0.5200775,-1.162527E-08,NaN,-2.049239,1.407443E-05,-0.3423898,4.069963E-08,NaN,NaN,-0.02402118,5.587923E-10,-5.782218E-07,-1.12892E-07,-6.672012E-08,-2.622604E-08
454.7235,-1.470012,-1.311422E-08,NaN,-0.3256069,-1.34639E-07,NaN,0.519049,-1.149926E-08,NaN,-2.051876,1.407496E-05,-0.3426961,4.057543E-08,NaN,NaN,-0.02394194,5.541357E-10,-5.597444E-07,-1.128912E-07,-6.195175E-08,-2.861022E-08
454.738,-1.470012,-1.311422E-08,NaN,-0.3256069,-1.34639E-07,NaN,0.519049,-1.149926E-08,NaN,-2.051876,1.407496E-05,-0.3426961,4.057543E-08,NaN,NaN,-0.02394194,5.541357E-10,-5.597444E-07,-1.128912E-07,-6.195175E-08,-2.861022E-08
454.755,-1.469275,-1.311335E-08,NaN,-0.3256172,-1.346388E-07,NaN,0.5180487,-1.138687E-08,NaN,-2.054457,1.407549E-05,-0.3430027,4.046485E-08,NaN,NaN,-0.02386427,5.494791E-10,-5.42459E-07,-1.128903E-07,-5.2415E-08,-2.622604E-08
454.7691,-1.4683,-1.311247E-08,NaN,-0.3256276,-1.346386E-07,NaN,0.5170888,-1.128218E-08,NaN,-2.056954,1.407602E-05,-0.3432991,4.036198E-08,NaN,NaN,-0.02378812,5.448225E-10,-5.239816E-07,-1.128894E-07,-5.2415E-08,-2.861022E-08
454.7828,-1.466453,-1.31116E-08,NaN,-0.3256357,-1.346384E-07,NaN,0.5159975,-1.118223E-08,NaN,-2.059745,1.407655E-05,-0.3436041,4.026385E-08,NaN,NaN,-0.02371332,5.401659E-10,-5.031199E-07,-1.128885E-07,-5.003082E-08,-2.622604E-08
454.7961,-1.466453,-1.31116E-08,NaN,-0.3256357,-1.346384E-07,NaN,0.5159975,-1.118223E-08,NaN,-2.059745,1.407655E-05,-0.3436041,4.026385E-08,NaN,NaN,-0.02371332,5.401659E-10,-5.031199E-07,-1.128885E-07,-5.003082E-08,-2.622604E-08
454.8098,-1.464064,-1.311073E-08,NaN,-0.3256426,-1.346382E-07,NaN,0.5148819,-1.108411E-08,NaN,-2.062572,1.407709E-05,-0.3439367,4.016754E-08,NaN,NaN,-0.02364003,5.355092E-10,-4.828543E-07,-1.128876E-07,-5.2415E-08,-2.861022E-08
454.8249,-1.461344,-1.310986E-08,NaN,-0.3256488,-1.34638E-07,NaN,0.5137935,-1.098777E-08,NaN,-2.06534,1.407762E-05,-0.3442706,4.007302E-08,NaN,NaN,-0.02356821,5.308526E-10,-4.637808E-07,-1.128867E-07,-5.003082E-08,-2.622604E-08
454.8393,-1.461344,-1.310986E-08,NaN,-0.3256488,-1.34638E-07,NaN,0.5137935,-1.098777E-08,NaN,-2.06534,1.407762E-05,-0.3442706,4.007302E-08,NaN,NaN,-0.02356821,5.308526E-10,-4.637808E-07,-1.128867E-07,-5.003082E-08,-2.622604E-08
454.8531,-1.457699,-1.310899E-08,NaN,-0.3256522,-1.346378E-07,NaN,0.5125756,-1.039107E-08,NaN,-2.0684,1.407815E-05,-0.3446127,3.946096E-08,NaN,NaN,-0.02349763,5.215394E-10,-4.387469E-07,-1.128851E-07,-4.526245E-08,-2.861022E-08
454.8683,-1.453488,-1.310811E-08,NaN,-0.325654,-1.346375E-07,NaN,0.5113389,-9.79437E-09,NaN,-2.071484,1.407868E-05,-0.3449819,3.883771E-08,NaN,NaN,-0.02342849,5.168828E-10,-4.172892E-07,-1.128835E-07,-4.526245E-08,-2.622604E-08
454.8828,-1.448938,-1.310724E-08,NaN,-0.3256552,-1.346371E-07,NaN,0.5101355,-9.197672E-09,NaN,-2.074494,1.407921E-05,-0.3453509,3.820737E-08,NaN,NaN,-0.02336073,5.122262E-10,-3.964276E-07,-1.128817E-07,-4.526245E-08,-2.861022E-08
454.8973,-1.448938,-1.310724E-08,NaN,-0.3256552,-1.346371E-07,NaN,0.5101355,-9.197672E-09,NaN,-2.074494,1.407921E-05,-0.3453509,3.820737E-08,NaN,NaN,-0.02336073,5.122262E-10,-3.964276E-07,-1.128817E-07,-4.526245E-08,-2.861022E-08
454.9111,-1.444193,-1.310637E-08,NaN,-0.3256561,-1.346366E-07,NaN,0.5089786,-8.600974E-09,NaN,-2.077404,1.407975E-05,-0.3457079,3.757295E-08,NaN,NaN,-0.0232943,5.02913E-10,-3.755659E-07,-1.1288E-07,-4.049408E-08,-2.622604E-08
454.9266,-1.438619,-1.31055E-08,NaN,-0.3256558,-1.346362E-07,NaN,0.5076961,-8.004276E-09,NaN,-2.080594,1.408029E-05,-0.3460655,3.693663E-08,NaN,NaN,-0.02322899,4.889432E-10,-3.511281E-07,-1.128783E-07,-4.049408E-08,-2.861022E-08
454.9407,-1.432545,-1.310462E-08,NaN,-0.3256546,-1.346357E-07,NaN,0.5063922,-7.407579E-09,NaN,-2.083804,1.408082E-05,-0.3464504,3.630004E-08,NaN,NaN,-0.02316501,4.796299E-10,-3.302664E-07,-1.128766E-07,-4.049408E-08,-2.622604E-08
454.9554,-1.432545,-1.310462E-08,NaN,-0.3256546,-1.346357E-07,NaN,0.5063922,-7.407579E-09,NaN,-2.083804,1.408082E-05,-0.3464504,3.630004E-08,NaN,NaN,-0.02316501,4.796299E-10,-3.302664E-07,-1.128766E-07,-4.049408E-08,-2.622604E-08
454.9692,-1.426182,-1.310375E-08,NaN,-0.3256527,-1.346353E-07,NaN,0.5051197,-6.810881E-09,NaN,-2.08694,1.408136E-05,-0.3468362,3.566434E-08,NaN,NaN,-0.02310231,4.749733E-10,-3.076167E-07,-1.128749E-07,-4.049408E-08,-2.861022E-08
454.9846,-1.419665,-1.310288E-08,NaN,-0.3256503,-1.346348E-07,NaN,0.503893,-6.214183E-09,NaN,-2.089975,1.408189E-05,-0.3472105,3.503039E-08,NaN,NaN,-0.02304085,4.656601E-10,-2.873511E-07,-1.128732E-07,-4.287826E-08,-2.622604E-08
454.9992,-1.419665,-1.310288E-08,NaN,-0.3256503,-1.346348E-07,NaN,0.503893,-6.214183E-09,NaN,-2.089975,1.408189E-05,-0.3472105,3.503039E-08,NaN,NaN,-0.02304085,4.656601E-10,-2.873511E-07,-1.128732E-07,-4.287826E-08,-2.622604E-08
455.0134,-1.41235,-1.310201E-08,NaN,-0.3256453,-1.346344E-07,NaN,0.5025409,-5.617485E-09,NaN,-2.093287,1.408242E-05,-0.3475809,3.439881E-08,NaN,NaN,-0.02298039,4.656601E-10,-2.617211E-07,-1.128715E-07,-4.049408E-08,-2.861022E-08
455.0285,-1.404562,-1.310114E-08,NaN,-0.3256383,-1.34634E-07,NaN,0.5011663,-5.020787E-09,NaN,-2.096617,1.408295E-05,-0.3479795,3.377004E-08,NaN,NaN,-0.02292116,4.610035E-10,-2.35495E-07,-1.128698E-07,-3.572571E-08,-2.622604E-08
455.0472,-1.396511,-1.310026E-08,NaN,-0.3256298,-1.346335E-07,NaN,0.4998234,-4.42409E-09,NaN,-2.099869,1.408348E-05,-0.3483799,3.314442E-08,NaN,NaN,-0.02286312,4.516903E-10,-2.116532E-07,-1.128682E-07,-3.334152E-08,-2.861022E-08
455.0573,-1.396511,-1.310026E-08,NaN,-0.3256298,-1.346335E-07,NaN,0.4998234,-4.42409E-09,NaN,-2.099869,1.408348E-05,-0.3483799,3.314442E-08,NaN,NaN,-0.02286312,4.516903E-10,-2.116532E-07,-1.128682E-07,-3.334152E-08,-2.861022E-08
455.0714,-1.387599,-1.309939E-08,NaN,-0.3256179,-1.346331E-07,NaN,0.4983578,-3.827392E-09,NaN,-2.103395,1.408401E-05,-0.348776,3.252216E-08,NaN,NaN,-0.02280601,4.470337E-10,-1.83639E-07,-1.128666E-07,-3.572571E-08,-2.622604E-08
455.0866,-1.378184,-1.309852E-08,NaN,-0.3256034,-1.346327E-07,NaN,0.4968748,-3.230694E-09,NaN,-2.106925,1.408453E-05,-0.3492001,3.190344E-08,NaN,NaN,-0.02275007,4.423771E-10,-1.568169E-07,-1.128649E-07,-3.810989E-08,-2.861022E-08
455.1031,-1.36849,-1.309765E-08,NaN,-0.3255868,-1.346324E-07,NaN,0.4954299,-2.633996E-09,NaN,-2.110363,1.408505E-05,-0.3496246,3.128836E-08,NaN,NaN,-0.02269525,4.423771E-10,-1.32975E-07,-1.128633E-07,-4.526245E-08,-2.622604E-08
455.1169,-1.36849,-1.309765E-08,NaN,-0.3255868,-1.346324E-07,NaN,0.4954299,-2.633996E-09,NaN,-2.110363,1.408505E-05,-0.3496246,3.128836E-08,NaN,NaN,-0.02269525,4.423771E-10,-1.32975E-07,-1.128633E-07,-4.526245E-08,-2.622604E-08
455.1319,-1.358662,-1.309677E-08,NaN,-0.3255689,-1.34632E-07,NaN,0.494038,-2.037298E-09,NaN,-2.11368,1.408557E-05,-0.3500358,3.067699E-08,NaN,NaN,-0.02264152,4.423771E-10,-1.097292E-07,-1.128617E-07,-5.003082E-08,-2.861022E-08
455.145,-1.348063,-1.30959E-08,NaN,-0.3255478,-1.346319E-07,NaN,0.4925284,-1.707101E-09,NaN,-2.11726,1.408609E-05,-0.3504326,3.033574E-08,NaN,NaN,-0.0225886,4.470337E-10,-8.111899E-08,-1.128598E-07,-5.241501E-08,-2.622604E-08
455.1591,-1.348063,-1.30959E-08,NaN,-0.3255478,-1.346319E-07,NaN,0.4925284,-1.707101E-09,NaN,-2.11726,1.408609E-05,-0.3504326,3.033574E-08,NaN,NaN,-0.0225886,4.470337E-10,-8.111899E-08,-1.128598E-07,-5.241501E-08,-2.622604E-08
455.173,-1.337024,-1.309503E-08,NaN,-0.325524,-1.346319E-07,NaN,0.4909984,-1.38375E-09,NaN,-2.120842,1.408662E-05,-0.3508574,3.000392E-08,NaN,NaN,-0.02253676,4.516903E-10,-5.42969E-08,-1.128579E-07,-5.479919E-08,-2.861022E-08
455.1882,-1.325753,-1.309416E-08,NaN,-0.3254982,-1.346319E-07,NaN,0.4895036,-1.059108E-09,NaN,-2.124332,1.408715E-05,-0.3512842,2.967286E-08,NaN,NaN,-0.02248597,4.563469E-10,-2.807086E-08,-1.12856E-07,-5.241501E-08,-2.622604E-08
455.2029,-1.314383,-1.309329E-08,NaN,-0.3254711,-1.34632E-07,NaN,0.4880603,-7.363951E-10,NaN,-2.127703,1.408768E-05,-0.3516988,2.934538E-08,NaN,NaN,-0.02243619,4.563469E-10,-4.825047E-09,-1.128541E-07,-4.764664E-08,-2.861022E-08
455.2176,-1.314383,-1.309329E-08,NaN,-0.3254711,-1.34632E-07,NaN,0.4880603,-7.363951E-10,NaN,-2.127703,1.408768E-05,-0.3516988,2.934538E-08,NaN,NaN,-0.02243619,4.563469E-10,-4.825047E-09,-1.128541E-07,-4.764664E-08,-2.861022E-08
455.2313,-1.302272,-1.309241E-08,NaN,-0.3254409,-1.34632E-07,NaN,0.4864994,-4.158699E-10,NaN,-2.131336,1.408822E-05,-0.3520945,2.90214E-08,NaN,NaN,-0.02238712,4.516903E-10,2.795751E-08,-1.128522E-07,-5.241501E-08,-2.622604E-08
455.2468,-1.289744,-1.309154E-08,NaN,-0.325408,-1.34632E-07,NaN,0.4849161,-9.772805E-11,NaN,-2.13497,1.408876E-05,-0.3525192,2.870086E-08,NaN,NaN,-0.02233906,4.470337E-10,5.537564E-08,-1.128503E-07,-5.241501E-08,-2.861022E-08
455.2611,-1.277007,-1.309067E-08,NaN,-0.325373,-1.34632E-07,NaN,0.4833674,2.150619E-10,NaN,-2.138509,1.408929E-05,-0.3529473,2.838652E-08,NaN,NaN,-0.02229197,4.516903E-10,8.279378E-08,-1.128485E-07,-5.241501E-08,-2.622604E-08
455.2757,-1.277007,-1.309067E-08,NaN,-0.325373,-1.34632E-07,NaN,0.4833674,2.150619E-10,NaN,-2.138509,1.408929E-05,-0.3529473,2.838652E-08,NaN,NaN,-0.02229197,4.516903E-10,8.279378E-08,-1.128485E-07,-5.241501E-08,-2.622604E-08
455.2896,-1.263463,-1.30898E-08,NaN,-0.3253343,-1.346321E-07,NaN,0.4817025,5.252826E-10,NaN,-2.142308,1.408983E-05,-0.3533572,2.807542E-08,NaN,NaN,-0.02224554,4.563469E-10,1.149803E-07,-1.128466E-07,-5.003082E-08,-2.861022E-08
455.305,-1.249469,-1.308892E-08,NaN,-0.3252923,-1.346321E-07,NaN,0.4800197,8.300321E-10,NaN,-2.146096,1.409037E-05,-0.3537964,2.777033E-08,NaN,NaN,-0.02220006,4.516903E-10,1.447826E-07,-1.128448E-07,-4.526245E-08,-2.622604E-08
455.3197,-1.249469,-1.308892E-08,NaN,-0.3252923,-1.346321E-07,NaN,0.4800197,8.300321E-10,NaN,-2.146096,1.409037E-05,-0.3537964,2.777033E-08,NaN,NaN,-0.02220006,4.516903E-10,1.447826E-07,-1.128448E-07,-4.526245E-08,-2.622604E-08
455.3335,-1.23525,-1.308805E-08,NaN,-0.3252477,-1.346321E-07,NaN,0.4783772,1.132154E-09,NaN,-2.149776,1.409091E-05,-0.3542383,2.74683E-08,NaN,NaN,-0.02215552,4.470337E-10,1.745849E-07,-1.128429E-07,-5.003082E-08,-2.861022E-08
455.349,-1.220949,-1.308718E-08,NaN,-0.3252014,-1.346322E-07,NaN,0.4767927,1.42879E-09,NaN,-2.153321,1.409145E-05,-0.3546672,2.71721E-08,NaN,NaN,-0.02211186,4.423771E-10,2.01407E-07,-1.128411E-07,-5.003082E-08,-2.622604E-08
455.3636,-1.205928,-1.308631E-08,NaN,-0.3251519,-1.346322E-07,NaN,0.4750982,1.722813E-09,NaN,-2.157114,1.409199E-05,-0.3550663,2.687879E-08,NaN,NaN,-0.02206875,4.377205E-10,2.371698E-07,-1.128392E-07,-4.764663E-08,-2.861022E-08
455.3784,-1.205928,-1.308631E-08,NaN,-0.3251519,-1.346322E-07,NaN,0.4750982,1.722813E-09,NaN,-2.157114,1.409199E-05,-0.3550663,2.687879E-08,NaN,NaN,-0.02206875,4.377205E-10,2.371698E-07,-1.128392E-07,-4.764663E-08,-2.861022E-08
455.392,-1.190518,-1.308544E-08,NaN,-0.3250994,-1.346322E-07,NaN,0.4733823,2.011399E-09,NaN,-2.160897,1.409253E-05,-0.3554941,2.659114E-08,NaN,NaN,-0.02202652,4.330639E-10,2.6578E-07,-1.128374E-07,-4.526245E-08,-2.622604E-08
455.4093,-1.174926,-1.308456E-08,NaN,-0.3250445,-1.346322E-07,NaN,0.471703,2.297443E-09,NaN,-2.164572,1.409307E-05,-0.3559265,2.630621E-08,NaN,NaN,-0.02198517,4.284073E-10,2.943902E-07,-1.128356E-07,-4.526245E-08,-2.861022E-08
455.4228,-1.159286,-1.308369E-08,NaN,-0.3249883,-1.346323E-07,NaN,0.4700795,2.580959E-09,NaN,-2.168114,1.40936E-05,-0.3563476,2.602395E-08,NaN,NaN,-0.02194464,4.330639E-10,3.235965E-07,-1.128338E-07,-4.526245E-08,-2.622604E-08
455.4366,-1.159286,-1.308369E-08,NaN,-0.3249883,-1.346323E-07,NaN,0.4700795,2.580959E-09,NaN,-2.168114,1.40936E-05,-0.3563476,2.602395E-08,NaN,NaN,-0.02194464,4.330639E-10,3.235965E-07,-1.128338E-07,-4.526245E-08,-2.622604E-08
455.4505,-1.142954,-1.308282E-08,NaN,-0.3249291,-1.346323E-07,NaN,0.468346,2.859146E-09,NaN,-2.171908,1.409414E-05,-0.3567344,2.574713E-08,NaN,NaN,-0.02190457,4.284073E-10,3.581672E-07,-1.12832E-07,-4.526245E-08,-2.861022E-08
455.466,-1.126253,-1.308194E-08,NaN,-0.324867,-1.346323E-07,NaN,0.4665885,3.134917E-09,NaN,-2.175689,1.409469E-05,-0.3571509,2.547281E-08,NaN,NaN,-0.02186533,4.237506E-10,3.903537E-07,-1.128302E-07,-4.764663E-08,-2.622604E-08
455.4803,-1.109391,-1.308107E-08,NaN,-0.3248028,-1.346324E-07,NaN,0.4648663,3.405476E-09,NaN,-2.179363,1.409523E-05,-0.357574,2.520378E-08,NaN,NaN,-0.0218269,4.284073E-10,4.1956E-07,-1.128284E-07,-3.810989E-08,-2.861022E-08
455.495,-1.109391,-1.308107E-08,NaN,-0.3248028,-1.346324E-07,NaN,0.4648663,3.405476E-09,NaN,-2.179363,1.409523E-05,-0.357574,2.520378E-08,NaN,NaN,-0.0218269,4.284073E-10,4.1956E-07,-1.128284E-07,-3.810989E-08,-2.861022E-08
455.5092,-1.091771,-1.30802E-08,NaN,-0.3247349,-1.346324E-07,NaN,0.4630342,3.673737E-09,NaN,-2.183287,1.409577E-05,-0.3579653,2.493711E-08,NaN,NaN,-0.0217889,4.330639E-10,4.571109E-07,-1.128266E-07,-3.57257E-08,-2.622604E-08
455.5242,-1.073746,-1.307933E-08,NaN,-0.3246633,-1.346324E-07,NaN,0.4611651,3.93691E-09,NaN,-2.186737,1.409631E-05,-0.3584246,2.467557E-08,NaN,NaN,-0.02175118,4.377205E-10,5.024104E-07,-1.128248E-07,-3.334151E-08,-2.861022E-08
455.5389,-1.073746,-1.307933E-08,NaN,-0.3246633,-1.346324E-07,NaN,0.4611651,3.93691E-09,NaN,-2.186737,1.409631E-05,-0.3584246,2.467557E-08,NaN,NaN,-0.02175118,4.377205E-10,5.024104E-07,-1.128248E-07,-3.334151E-08,-2.861022E-08
455.5529,-1.055544,-1.307845E-08,NaN,-0.324589,-1.346324E-07,NaN,0.4592944,4.198489E-09,NaN,-2.188609,1.409687E-05,-0.3589899,2.441566E-08,NaN,NaN,-0.02171303,4.330639E-10,5.673795E-07,-1.12823E-07,-2.857314E-08,-2.622604E-08
455.5686,-1.037305,-1.307758E-08,NaN,-0.3245129,-1.346325E-07,NaN,0.4574772,4.455097E-09,NaN,-2.188986,1.409742E-05,-0.3595831,2.416075E-08,NaN,NaN,-0.02167541,4.284073E-10,6.365209E-07,-1.128213E-07,-2.857314E-08,-2.861022E-08
455.5835,-1.018392,-1.307671E-08,NaN,-0.3244339,-1.346325E-07,NaN,0.4555723,4.709654E-09,NaN,-2.188855,1.409797E-05,-0.360121,2.390792E-08,NaN,NaN,-0.02163849,4.330639E-10,7.050662E-07,-1.128195E-07,-2.618896E-08,-2.622604E-08
455.5977,-1.018392,-1.307671E-08,NaN,-0.3244339,-1.346325E-07,NaN,0.4555723,4.709654E-09,NaN,-2.188855,1.409797E-05,-0.360121,2.390792E-08,NaN,NaN,-0.02163849,4.330639E-10,7.050662E-07,-1.128195E-07,-2.618896E-08,-2.622604E-08
455.6131,-0.9991342,-1.307583E-08,NaN,-0.3243518,-1.346325E-07,NaN,0.4536597,4.959366E-09,NaN,-2.188427,1.409851E-05,-0.3606687,2.365995E-08,NaN,NaN,-0.02160269,4.377205E-10,7.616906E-07,-1.128178E-07,-2.857314E-08,-2.861022E-08
455.6272,-0.9797398,-1.307496E-08,NaN,-0.3242673,-1.346326E-07,NaN,0.4517981,5.207151E-09,NaN,-2.18794,1.409906E-05,-0.3612063,2.341393E-08,NaN,NaN,-0.02156797,4.330639E-10,8.123546E-07,-1.12816E-07,-2.380477E-08,-2.622604E-08
455.6418,-0.9603409,-1.307409E-08,NaN,-0.3241817,-1.346326E-07,NaN,0.4500075,5.45022E-09,NaN,-2.187544,1.409962E-05,-0.3617221,2.317263E-08,NaN,NaN,-0.02153421,4.284073E-10,8.570581E-07,-1.128143E-07,-2.857314E-08,-2.861022E-08
455.6564,-0.9603409,-1.307409E-08,NaN,-0.3241817,-1.346326E-07,NaN,0.4500075,5.45022E-09,NaN,-2.187544,1.409962E-05,-0.3617221,2.317263E-08,NaN,NaN,-0.02153421,4.284073E-10,8.570581E-07,-1.128143E-07,-2.857314E-08,-2.861022E-08
455.6704,-0.9402923,-1.307321E-08,NaN,-0.3240935,-1.346326E-07,NaN,0.4481229,5.688665E-09,NaN,-2.187678,1.410017E-05,-0.3621938,2.293596E-08,NaN,NaN,-0.02150091,4.237506E-10,9.07126E-07,-1.128125E-07,-2.618896E-08,-2.622604E-08
455.6877,-0.9199191,-1.307234E-08,NaN,-0.3240025,-1.346326E-07,NaN,0.446219,5.925397E-09,NaN,-2.187906,1.410073E-05,-0.3627092,2.270102E-08,NaN,NaN,-0.02146822,4.19094E-10,9.560018E-07,-1.128108E-07,-2.618896E-08,-2.861022E-08
455.7013,-0.8994269,-1.307146E-08,NaN,-0.3239094,-1.346327E-07,NaN,0.4443577,6.16045E-09,NaN,-2.188015,1.410128E-05,-0.3632465,2.246776E-08,NaN,NaN,-0.02143616,4.144374E-10,1.004878E-06,-1.128091E-07,-3.334151E-08,-2.622604E-08
455.715,-0.8994269,-1.307146E-08,NaN,-0.3239094,-1.346327E-07,NaN,0.4443577,6.16045E-09,NaN,-2.188015,1.410128E-05,-0.3632465,2.246776E-08,NaN,NaN,-0.02143616,4.144374E-10,1.004878E-06,-1.128091E-07,-3.334151E-08,-2.622604E-08
455.7291,-0.8782179,-1.307059E-08,NaN,-0.3238129,-1.346327E-07,NaN,0.4423992,6.391033E-09,NaN,-2.188355,1.410183E-05,-0.3637597,2.223897E-08,NaN,NaN,-0.02140442,4.097808E-10,1.057926E-06,-1.128074E-07,-3.810989E-08,-2.861022E-08
455.7441,-0.8566468,-1.306972E-08,NaN,-0.3237128,-1.346327E-07,NaN,0.440429,6.617228E-09,NaN,-2.188563,1.410239E-05,-0.3643174,2.201458E-08,NaN,NaN,-0.02137327,4.051242E-10,1.109782E-06,-1.128057E-07,-3.57257E-08,-2.622604E-08
455.7586,-0.8566468,-1.306972E-08,NaN,-0.3237128,-1.346327E-07,NaN,0.440429,6.617228E-09,NaN,-2.188563,1.410239E-05,-0.3643174,2.201458E-08,NaN,NaN,-0.02137327,4.051242E-10,1.109782E-06,-1.128057E-07,-3.57257E-08,-2.622604E-08
455.7728,-0.8349382,-1.306884E-08,NaN,-0.32361,-1.346328E-07,NaN,0.4385113,6.841948E-09,NaN,-2.188546,1.410294E-05,-0.3648896,2.179166E-08,NaN,NaN,-0.0213428,4.004676E-10,1.159254E-06,-1.12804E-07,-3.810989E-08,-2.861022E-08
455.7882,-0.813234,-1.306797E-08,NaN,-0.3235056,-1.346328E-07,NaN,0.4366702,7.062399E-09,NaN,-2.188364,1.41035E-05,-0.3654504,2.157302E-08,NaN,NaN,-0.02131307,3.95811E-10,1.202765E-06,-1.128023E-07,-4.526244E-08,-2.622604E-08
455.8029,-0.7908955,-1.306709E-08,NaN,-0.3233987,-1.346328E-07,NaN,0.4347423,7.281485E-09,NaN,-2.188507,1.410405E-05,-0.3659691,2.135575E-08,NaN,NaN,-0.02128371,3.911544E-10,1.254025E-06,-1.128006E-07,-4.287826E-08,-2.861022E-08
455.8176,-0.7908955,-1.306709E-08,NaN,-0.3233987,-1.346328E-07,NaN,0.4347423,7.281485E-09,NaN,-2.188507,1.410405E-05,-0.3659691,2.135575E-08,NaN,NaN,-0.02128371,3.911544E-10,1.254025E-06,-1.128006E-07,-4.287826E-08,-2.861022E-08
455.8316,-0.7682516,-1.306622E-08,NaN,-0.3232888,-1.346328E-07,NaN,0.4328033,7.496411E-09,NaN,-2.18864,1.410461E-05,-0.3665247,2.114263E-08,NaN,NaN,-0.02125495,3.818412E-10,1.299921E-06,-1.127989E-07,-4.049407E-08,-2.622604E-08
455.8474,-0.7455105,-1.306534E-08,NaN,-0.3231769,-1.346329E-07,NaN,0.4309134,7.710083E-09,NaN,-2.188637,1.410516E-05,-0.3670946,2.093077E-08,NaN,NaN,-0.02122681,3.818412E-10,1.347604E-06,-1.127972E-07,-3.810988E-08,-2.861022E-08
455.8617,-0.7228032,-1.306447E-08,NaN,-0.323064,-1.346329E-07,NaN,0.4290965,7.919695E-09,NaN,-2.188504,1.410572E-05,-0.367656,2.072298E-08,NaN,NaN,-0.02119933,3.72528E-10,1.388136E-06,-1.127955E-07,-3.810988E-08,-2.622604E-08
455.8766,-0.7228032,-1.306447E-08,NaN,-0.323064,-1.346329E-07,NaN,0.4290965,7.919695E-09,NaN,-2.188504,1.410572E-05,-0.367656,2.072298E-08,NaN,NaN,-0.02119933,3.72528E-10,1.388136E-06,-1.127955E-07,-3.810988E-08,-2.622604E-08
455.8904,-0.6994847,-1.306359E-08,NaN,-0.3229491,-1.346329E-07,NaN,0.4271899,8.128158E-09,NaN,-2.188699,1.410627E-05,-0.3681799,2.051633E-08,NaN,NaN,-0.02117214,3.632147E-10,1.436415E-06,-1.127939E-07,-3.334151E-08,-2.861022E-08
455.9059,-0.6758794,-1.306272E-08,NaN,-0.3228316,-1.34633E-07,NaN,0.4252708,8.332666E-09,NaN,-2.188865,1.410682E-05,-0.3687426,2.031364E-08,NaN,NaN,-0.02114548,3.632147E-10,1.483503E-06,-1.127922E-07,-3.095732E-08,-2.622604E-08
455.9202,-0.6521924,-1.306184E-08,NaN,-0.3227124,-1.34633E-07,NaN,0.4234005,8.536123E-09,NaN,-2.188872,1.410738E-05,-0.36932,2.0112E-08,NaN,NaN,-0.0211194,3.539015E-10,1.525226E-06,-1.127906E-07,-2.618895E-08,-2.861022E-08
455.9352,-0.6521924,-1.306184E-08,NaN,-0.3227124,-1.34633E-07,NaN,0.4234005,8.536123E-09,NaN,-2.188872,1.410738E-05,-0.36932,2.0112E-08,NaN,NaN,-0.0211194,3.539015E-10,1.525226E-06,-1.127906E-07,-2.618895E-08,-2.861022E-08
455.9491,-0.6279975,-1.306096E-08,NaN,-0.3225907,-1.34633E-07,NaN,0.4214764,8.735721E-09,NaN,-2.189035,1.410793E-05,-0.3698755,1.991421E-08,NaN,NaN,-0.02109364,3.539015E-10,1.572314E-06,-1.127889E-07,-2.142058E-08,-2.622604E-08
455.9665,-0.6035846,-1.306009E-08,NaN,-0.3224665,-1.34633E-07,NaN,0.4195648,8.934366E-09,NaN,-2.189107,1.410849E-05,-0.370457,1.971739E-08,NaN,NaN,-0.02106844,3.445883E-10,1.617911E-06,-1.127873E-07,-1.90364E-08,-2.861022E-08
455.9801,-0.5791366,-1.305921E-08,NaN,-0.3223408,-1.34633E-07,NaN,0.4177129,9.129248E-09,NaN,-2.189029,1.410904E-05,-0.3710424,1.952432E-08,NaN,NaN,-0.02104382,3.445883E-10,1.660529E-06,-1.127856E-07,-2.142058E-08,-2.622604E-08
455.9936,-0.5791366,-1.305921E-08,NaN,-0.3223408,-1.34633E-07,NaN,0.4177129,9.129248E-09,NaN,-2.189029,1.410904E-05,-0.3710424,1.952432E-08,NaN,NaN,-0.02104382,3.445883E-10,1.660529E-06,-1.127856E-07,-2.142058E-08,-2.622604E-08
456.0075,-0.5547689,-1.305834E-08,NaN,-0.3222148,-1.346331E-07,NaN,0.4159369,9.323264E-09,NaN,-2.188847,1.41096E-05,-0.3716133,1.933213E-08,NaN,NaN,-0.02101981,3.352751E-10,1.700762E-06,-1.12784E-07,-2.142058E-08,-2.861022E-08
456.0228,-0.5305536,-1.305746E-08,NaN,-0.3220899,-1.346331E-07,NaN,0.4142371,9.513607E-09,NaN,-2.18863,1.411015E-05,-0.3721624,1.91436E-08,NaN,NaN,-0.02099641,3.352751E-10,1.737419E-06,-1.127824E-07,-1.90364E-08,-2.622604E-08
456.0374,-0.5305536,-1.305746E-08,NaN,-0.3220899,-1.346331E-07,NaN,0.4142371,9.513607E-09,NaN,-2.18863,1.411015E-05,-0.3721624,1.91436E-08,NaN,NaN,-0.02099641,3.352751E-10,1.737419E-06,-1.127824E-07,-1.90364E-08,-2.622604E-08
456.0514,-0.5065355,-1.305658E-08,NaN,-0.3219671,-1.346331E-07,NaN,0.4126078,9.700353E-09,NaN,-2.188431,1.41107E-05,-0.3726896,1.895868E-08,NaN,NaN,-0.02097359,3.259619E-10,1.771989E-06,-1.127808E-07,-1.90364E-08,-2.861022E-08
456.0668,-0.4827421,-1.305571E-08,NaN,-0.3218473,-1.346331E-07,NaN,0.4110426,9.886397E-09,NaN,-2.188275,1.411125E-05,-0.3731975,1.877445E-08,NaN,NaN,-0.02095132,3.259619E-10,1.802686E-06,-1.127791E-07,-2.142058E-08,-2.622604E-08
456.0815,-0.4591897,-1.305483E-08,NaN,-0.3217311,-1.346331E-07,NaN,0.4095357,1.00661E-08,NaN,-2.188159,1.411181E-05,-0.3736893,1.859657E-08,NaN,NaN,-0.02092956,3.166487E-10,1.829508E-06,-1.127775E-07,-2.142058E-08,-2.861022E-08
456.1008,-0.4358875,-1.305395E-08,NaN,-0.3216191,-1.346331E-07,NaN,0.4080829,1.024524E-08,NaN,-2.188069,1.411236E-05,-0.3741673,1.841925E-08,NaN,NaN,-0.02090827,3.166487E-10,1.855436E-06,-1.127759E-07,-1.665221E-08,-2.622604E-08
456.1108,-0.4358875,-1.305395E-08,NaN,-0.3216191,-1.346331E-07,NaN,0.4080829,1.024524E-08,NaN,-2.188069,1.411236E-05,-0.3741673,1.841925E-08,NaN,NaN,-0.02090827,3.166487E-10,1.855436E-06,-1.127759E-07,-1.665221E-08,-2.622604E-08
456.1248,-0.4128404,-1.305307E-08,NaN,-0.3215115,-1.346331E-07,NaN,0.4066811,1.052528E-08,NaN,-2.187993,1.411292E-05,-0.3746328,1.814103E-08,NaN,NaN,-0.02088745,3.073354E-10,1.880172E-06,-1.127746E-07,-9.499654E-09,-2.861022E-08
456.1404,-0.3900503,-1.30522E-08,NaN,-0.3214085,-1.346327E-07,NaN,0.4053279,1.056039E-08,NaN,-2.187918,1.411347E-05,-0.3750866,1.810774E-08,NaN,NaN,-0.02086708,3.073354E-10,1.903418E-06,-1.12774E-07,-7.115469E-09,-2.622604E-08
456.1552,-0.3900503,-1.30522E-08,NaN,-0.3214085,-1.346327E-07,NaN,0.4053279,1.056039E-08,NaN,-2.187918,1.411347E-05,-0.3750866,1.810774E-08,NaN,NaN,-0.02086708,3.073354E-10,1.903418E-06,-1.12774E-07,-7.115469E-09,-2.622604E-08
456.1694,-0.3675174,-1.305132E-08,NaN,-0.3213103,-1.346324E-07,NaN,0.4040215,1.060904E-08,NaN,-2.18784,1.411402E-05,-0.3755288,1.806092E-08,NaN,NaN,-0.02084716,3.073354E-10,1.925471E-06,-1.127734E-07,-9.499654E-09,-2.861022E-08
456.1846,-0.3452406,-1.305044E-08,NaN,-0.3212167,-1.346321E-07,NaN,0.4027604,1.066532E-08,NaN,-2.187759,1.411457E-05,-0.3759594,1.800646E-08,NaN,NaN,-0.02082768,3.073354E-10,1.946333E-06,-1.127729E-07,-1.188384E-08,-2.622604E-08
456.1993,-0.3452406,-1.305044E-08,NaN,-0.3212167,-1.346321E-07,NaN,0.4027604,1.066532E-08,NaN,-2.187759,1.411457E-05,-0.3759594,1.800646E-08,NaN,NaN,-0.02082768,3.073354E-10,1.946333E-06,-1.127729E-07,-1.188384E-08,-2.622604E-08
456.2135,-0.3232183,-1.304956E-08,NaN,-0.3211279,-1.346318E-07,NaN,0.4015433,1.072628E-08,NaN,-2.187676,1.411512E-05,-0.3763785,1.794734E-08,NaN,NaN,-0.02080865,3.073354E-10,1.963767E-06,-1.127724E-07,-9.499654E-09,-2.861022E-08
456.2307,-0.3014484,-1.304869E-08,NaN,-0.3210437,-1.346314E-07,NaN,0.400369,1.08071E-08,NaN,-2.187594,1.411567E-05,-0.3767864,1.786835E-08,NaN,NaN,-0.02079004,3.073354E-10,1.979712E-06,-1.127736E-07,-4.731283E-09,-2.622604E-08
456.2443,-0.2863021,-1.304781E-08,NaN,-0.3209846,-1.346315E-07,NaN,0.4006971,1.099075E-08,NaN,-2.184036,1.411622E-05,-0.3772841,1.768652E-08,NaN,NaN,-0.02077506,3.073354E-10,1.940522E-06,-1.127751E-07,3.708855E-11,-2.861022E-08
456.2579,-0.2863021,-1.304781E-08,NaN,-0.3209846,-1.346315E-07,NaN,0.4006971,1.099075E-08,NaN,-2.184036,1.411622E-05,-0.3772841,1.768652E-08,NaN,NaN,-0.02077506,3.073354E-10,1.940522E-06,-1.127751E-07,3.708855E-11,-2.861022E-08
456.2718,-0.275386,-1.304693E-08,NaN,-0.3209592,-1.346318E-07,NaN,0.4017912,1.122449E-08,NaN,-2.180725,1.411677E-05,-0.377232,1.745461E-08,NaN,NaN,-0.02076158,3.073354E-10,1.87138E-06,-1.127769E-07,-2.347097E-09,-2.622604E-08
456.2871,-0.2671776,-1.304605E-08,NaN,-0.3209613,-1.346322E-07,NaN,0.4030386,1.148192E-08,NaN,-2.178642,1.411732E-05,-0.3769118,1.7199E-08,NaN,NaN,-0.02074823,3.073354E-10,1.804325E-06,-1.127787E-07,3.708855E-11,-2.861022E-08
456.3016,-0.2607076,-1.304518E-08,NaN,-0.3209814,-1.346327E-07,NaN,0.4041764,1.175134E-08,NaN,-2.177391,1.411786E-05,-0.3765687,1.693139E-08,NaN,NaN,-0.02073437,3.073354E-10,1.753065E-06,-1.127806E-07,-7.115469E-09,-2.622604E-08
456.3166,-0.2607076,-1.304518E-08,NaN,-0.3209814,-1.346327E-07,NaN,0.4041764,1.175134E-08,NaN,-2.177391,1.411786E-05,-0.3765687,1.693139E-08,NaN,NaN,-0.02073437,3.073354E-10,1.753065E-06,-1.127806E-07,-7.115469E-09,-2.622604E-08
456.3305,-0.2553587,-1.30443E-08,NaN,-0.3210144,-1.346333E-07,NaN,0.4051627,1.202688E-08,NaN,-2.176695,1.411841E-05,-0.3762673,1.665767E-08,NaN,NaN,-0.02072044,3.073354E-10,1.708212E-06,-1.127825E-07,-4.731283E-09,-2.861022E-08
456.346,-0.2507379,-1.304342E-08,NaN,-0.3210562,-1.346339E-07,NaN,0.4060192,1.230278E-08,NaN,-2.176364,1.411896E-05,-0.376014,1.638358E-08,NaN,NaN,-0.02070662,3.073354E-10,1.667532E-06,-1.127844E-07,-7.115469E-09,-2.622604E-08
456.3605,-0.2465945,-1.304254E-08,NaN,-0.3211037,-1.346345E-07,NaN,0.406778,1.257338E-08,NaN,-2.176267,1.411951E-05,-0.3758,1.611479E-08,NaN,NaN,-0.02069299,3.073354E-10,1.631918E-06,-1.127863E-07,-2.347097E-09,-2.861022E-08
456.3753,-0.2465945,-1.304254E-08,NaN,-0.3211037,-1.346345E-07,NaN,0.406778,1.257338E-08,NaN,-2.176267,1.411951E-05,-0.3758,1.611479E-08,NaN,NaN,-0.02069299,3.073354E-10,1.631918E-06,-1.127863E-07,-2.347097E-09,-2.861022E-08
456.3895,-0.242807,-1.304167E-08,NaN,-0.3337591,-1.346351E-07,NaN,0.4065275,1.283879E-08,NaN,-2.179424,1.412005E-05,-0.3794507,1.585118E-08,NaN,NaN,-0.0206884,3.166487E-10,1.475158E-06,-1.127882E-07,7.189646E-09,-2.622604E-08
456.4049,-0.2393449,-1.304079E-08,NaN,-0.3540324,-1.346358E-07,NaN,0.4069649,1.309913E-08,NaN,-2.18344,1.41206E-05,-0.3828456,1.559266E-08,NaN,NaN,-0.02068252,3.166487E-10,1.34902E-06,-1.127901E-07,7.189646E-09,-2.861022E-08
456.4197,-0.2393449,-1.304079E-08,NaN,-0.3540324,-1.346358E-07,NaN,0.4069649,1.309913E-08,NaN,-2.18344,1.41206E-05,-0.3828456,1.559266E-08,NaN,NaN,-0.02068252,3.166487E-10,1.34902E-06,-1.127901E-07,7.189646E-09,-2.861022E-08
456.4335,-0.2361406,-1.303991E-08,NaN,-0.3788667,-1.346364E-07,NaN,0.4077913,1.335448E-08,NaN,-2.186929,1.412115E-05,-0.3856758,1.533911E-08,NaN,NaN,-0.0206744,3.166487E-10,1.264977E-06,-1.12792E-07,9.573832E-09,-2.622604E-08
456.4489,-0.2331274,-1.303903E-08,NaN,-0.4063822,-1.346371E-07,NaN,0.4086964,1.360495E-08,NaN,-2.188637,1.41217E-05,-0.3881777,1.509044E-08,NaN,NaN,-0.02066403,3.166487E-10,1.223254E-06,-1.127939E-07,7.189646E-09,-2.861022E-08
456.4637,-0.2302492,-1.303815E-08,NaN,-0.4346642,-1.346377E-07,NaN,0.4096743,1.384781E-08,NaN,-2.188537,1.412225E-05,-0.3901749,1.484938E-08,NaN,NaN,-0.02065253,3.166487E-10,1.197326E-06,-1.127958E-07,9.573832E-09,-2.622604E-08
456.4784,-0.2302492,-1.303815E-08,NaN,-0.4346642,-1.346377E-07,NaN,0.4096743,1.384781E-08,NaN,-2.188537,1.412225E-05,-0.3901749,1.484938E-08,NaN,NaN,-0.02065253,3.166487E-10,1.197326E-06,-1.127958E-07,9.573832E-09,-2.622604E-08
456.492,-0.2274648,-1.303728E-08,NaN,-0.4632913,-1.346383E-07,NaN,0.410611,1.408603E-08,NaN,-2.187559,1.41228E-05,-0.3919407,1.461296E-08,NaN,NaN,-0.02064153,3.166487E-10,1.168865E-06,-1.127977E-07,1.195802E-08,-2.861022E-08
456.5083,-0.2247483,-1.30364E-08,NaN,-0.4920017,-1.34639E-07,NaN,0.4115105,1.431688E-08,NaN,-2.186484,1.412335E-05,-0.3935359,1.438391E-08,NaN,NaN,-0.02063132,3.166487E-10,1.127887E-06,-1.127996E-07,1.43422E-08,-2.622604E-08
456.523,-0.2220832,-1.303552E-08,NaN,-0.520633,-1.346396E-07,NaN,0.4123721,1.454051E-08,NaN,-2.185725,1.41239E-05,-0.3950027,1.416209E-08,NaN,NaN,-0.02062171,3.166487E-10,1.080352E-06,-1.128015E-07,1.076592E-08,-2.861022E-08
456.5368,-0.2220832,-1.303552E-08,NaN,-0.520633,-1.346396E-07,NaN,0.4123721,1.454051E-08,NaN,-2.185725,1.41239E-05,-0.3950027,1.416209E-08,NaN,NaN,-0.02062171,3.166487E-10,1.080352E-06,-1.128015E-07,1.076592E-08,-2.861022E-08
456.5507,-0.2194558,-1.303464E-08,NaN,-0.5483232,-1.346402E-07,NaN,0.4132522,1.475987E-08,NaN,-2.185176,1.412445E-05,-0.3961404,1.394452E-08,NaN,NaN,-0.02061188,3.166487E-10,1.039821E-06,-1.128034E-07,1.43422E-08,-2.622604E-08
456.5659,-0.2168579,-1.303376E-08,NaN,-0.5753102,-1.346408E-07,NaN,0.4140432,1.497224E-08,NaN,-2.184942,1.4125E-05,-0.3972327,1.373395E-08,NaN,NaN,-0.0206024,3.166487E-10,9.894547E-07,-1.128052E-07,1.43422E-08,-2.861022E-08
456.5838,-0.2142859,-1.303288E-08,NaN,-0.6017421,-1.346415E-07,NaN,0.4147657,1.518056E-08,NaN,-2.184944,1.412555E-05,-0.3983217,1.352743E-08,NaN,NaN,-0.02059315,3.166487E-10,9.426651E-07,-1.128071E-07,1.43422E-08,-2.622604E-08
456.5968,-0.2142859,-1.303288E-08,NaN,-0.6017421,-1.346415E-07,NaN,0.4147657,1.518056E-08,NaN,-2.184944,1.412555E-05,-0.3983217,1.352743E-08,NaN,NaN,-0.02059315,3.166487E-10,9.426651E-07,-1.128071E-07,1.43422E-08,-2.622604E-08
456.6096,-0.2117342,-1.3032E-08,NaN,-0.6269501,-1.346421E-07,NaN,0.415507,1.53821E-08,NaN,-2.184858,1.41261E-05,-0.399163,1.332768E-08,NaN,NaN,-0.02058347,3.166487E-10,9.048161E-07,-1.12809E-07,1.195802E-08,-2.861022E-08
456.6248,-0.2092001,-1.303112E-08,NaN,-0.6512927,-1.346427E-07,NaN,0.4161795,1.557982E-08,NaN,-2.184791,1.412664E-05,-0.3999982,1.313176E-08,NaN,NaN,-0.02057407,3.166487E-10,8.684573E-07,-1.128108E-07,8.381738E-09,-2.622604E-08
456.6397,-0.2092001,-1.303112E-08,NaN,-0.6512927,-1.346427E-07,NaN,0.4161795,1.557982E-08,NaN,-2.184791,1.412664E-05,-0.3999982,1.313176E-08,NaN,NaN,-0.02057407,3.166487E-10,8.684573E-07,-1.128108E-07,8.381738E-09,-2.622604E-08
456.6534,-0.2066842,-1.303024E-08,NaN,-0.6749929,-1.346433E-07,NaN,0.4168091,1.577096E-08,NaN,-2.184767,1.412719E-05,-0.4008432,1.294242E-08,NaN,NaN,-0.02056495,3.166487E-10,8.294163E-07,-1.128126E-07,1.315011E-08,-2.861022E-08
456.669,-0.2041877,-1.302937E-08,NaN,-0.6981902,-1.34644E-07,NaN,0.4174187,1.595849E-08,NaN,-2.184773,1.412774E-05,-0.4016832,1.275669E-08,NaN,NaN,-0.02055604,3.166487E-10,7.939515E-07,-1.128145E-07,1.672639E-08,-2.622604E-08
456.6838,-0.2017065,-1.302849E-08,NaN,-0.7202102,-1.346446E-07,NaN,0.41808,1.613963E-08,NaN,-2.184593,1.412829E-05,-0.4022651,1.257735E-08,NaN,NaN,-0.02054673,3.166487E-10,7.656393E-07,-1.128163E-07,1.43422E-08,-2.861022E-08
456.6985,-0.2017065,-1.302849E-08,NaN,-0.7202102,-1.346446E-07,NaN,0.41808,1.613963E-08,NaN,-2.184593,1.412829E-05,-0.4022651,1.257735E-08,NaN,NaN,-0.02054673,3.166487E-10,7.656393E-07,-1.128163E-07,1.43422E-08,-2.861022E-08
456.7124,-0.1992395,-1.302761E-08,NaN,-0.7414091,-1.346452E-07,NaN,0.4186917,1.631452E-08,NaN,-2.184421,1.412884E-05,-0.4028333,1.240425E-08,NaN,NaN,-0.02053776,3.166487E-10,7.376251E-07,-1.128181E-07,1.55343E-08,-2.622604E-08
456.7279,-0.1967879,-1.302673E-08,NaN,-0.7620081,-1.346458E-07,NaN,0.4192702,1.648329E-08,NaN,-2.184329,1.412939E-05,-0.4034095,1.223729E-08,NaN,NaN,-0.02052911,3.166487E-10,7.057366E-07,-1.1282E-07,1.315011E-08,-2.861022E-08
456.7426,-0.1943535,-1.302585E-08,NaN,-0.782145,-1.346464E-07,NaN,0.419833,1.664604E-08,NaN,-2.184312,1.412994E-05,-0.403984,1.207633E-08,NaN,NaN,-0.02052068,3.166487E-10,6.7206E-07,-1.128218E-07,1.076593E-08,-2.622604E-08
456.7572,-0.1943535,-1.302585E-08,NaN,-0.782145,-1.346464E-07,NaN,0.419833,1.664604E-08,NaN,-2.184312,1.412994E-05,-0.403984,1.207633E-08,NaN,NaN,-0.02052068,3.166487E-10,6.7206E-07,-1.128218E-07,1.076593E-08,-2.622604E-08
456.7734,-0.191932,-1.302497E-08,NaN,-0.8011447,-1.34647E-07,NaN,0.4204481,1.680573E-08,NaN,-2.184139,1.413049E-05,-0.4043081,1.191844E-08,NaN,NaN,-0.02051184,3.166487E-10,6.482182E-07,-1.128236E-07,1.43422E-08,-2.861022E-08
456.7875,-0.189522,-1.302409E-08,NaN,-0.8193629,-1.346476E-07,NaN,0.4210131,1.695959E-08,NaN,-2.183989,1.413104E-05,-0.4046273,1.176637E-08,NaN,NaN,-0.02050332,3.166487E-10,6.219922E-07,-1.128254E-07,1.672639E-08,-2.622604E-08
456.8013,-0.187125,-1.302321E-08,NaN,-0.8370203,-1.346482E-07,NaN,0.4215451,1.711052E-08,NaN,-2.183921,1.413159E-05,-0.4049634,1.161724E-08,NaN,NaN,-0.02049511,3.166487E-10,5.94574E-07,-1.128272E-07,1.43422E-08,-2.861022E-08
456.8159,-0.187125,-1.302321E-08,NaN,-0.8370203,-1.346482E-07,NaN,0.4215451,1.711052E-08,NaN,-2.183921,1.413159E-05,-0.4049634,1.161724E-08,NaN,NaN,-0.02049511,3.166487E-10,5.94574E-07,-1.128272E-07,1.43422E-08,-2.861022E-08
456.8298,-0.1847367,-1.302233E-08,NaN,-0.8534923,-1.346489E-07,NaN,0.4221208,1.72558E-08,NaN,-2.183728,1.413214E-05,-0.4050667,1.147376E-08,NaN,NaN,-0.02048653,3.166487E-10,5.731164E-07,-1.128289E-07,1.315011E-08,-2.622604E-08
456.8451,-0.1823558,-1.302145E-08,NaN,-0.8691664,-1.346495E-07,NaN,0.4226433,1.739835E-08,NaN,-2.183587,1.413269E-05,-0.4051796,1.133301E-08,NaN,NaN,-0.0204783,3.166487E-10,5.498705E-07,-1.128307E-07,1.315011E-08,-2.861022E-08
456.8597,-0.1823558,-1.302145E-08,NaN,-0.8691664,-1.346495E-07,NaN,0.4226433,1.739835E-08,NaN,-2.183587,1.413269E-05,-0.4051796,1.133301E-08,NaN,NaN,-0.0204783,3.166487E-10,5.498705E-07,-1.128307E-07,1.315011E-08,-2.861022E-08
456.8737,-0.1799846,-1.302057E-08,NaN,-0.8842823,-1.346506E-07,NaN,0.4231321,1.787662E-08,NaN,-2.183543,1.413324E-05,-0.4053207,1.085653E-08,NaN,NaN,-0.02047037,3.11992E-10,5.230485E-07,-1.128298E-07,1.255406E-08,-2.861022E-08
456.8892,-0.177626,-1.301969E-08,NaN,-0.8989887,-1.346513E-07,NaN,0.4236069,1.822161E-08,NaN,-2.183568,1.413379E-05,-0.4054779,1.051333E-08,NaN,NaN,-0.02046263,3.11992E-10,4.992066E-07,-1.128285E-07,1.43422E-08,-2.861022E-08
456.9039,-0.1752755,-1.301881E-08,NaN,-0.9126163,-1.346517E-07,NaN,0.4241353,1.849513E-08,NaN,-2.183423,1.413434E-05,-0.4054007,1.02416E-08,NaN,NaN,-0.02045447,3.11992E-10,4.819213E-07,-1.12827E-07,1.315011E-08,-2.861022E-08
456.9187,-0.1752755,-1.301881E-08,NaN,-0.9126163,-1.346517E-07,NaN,0.4241353,1.849513E-08,NaN,-2.183423,1.413434E-05,-0.4054007,1.02416E-08,NaN,NaN,-0.02045447,3.11992E-10,4.819213E-07,-1.12827E-07,1.315011E-08,-2.861022E-08
456.9326,-0.1729314,-1.301793E-08,NaN,-0.9255257,-1.346519E-07,NaN,0.4246151,1.87296E-08,NaN,-2.18329,1.41349E-05,-0.405333,1.000893E-08,NaN,NaN,-0.02044662,3.026788E-10,4.628478E-07,-1.128254E-07,1.791848E-08,-2.861022E-08
456.9485,-0.1705959,-1.301705E-08,NaN,-0.9379393,-1.346521E-07,NaN,0.4250637,1.893705E-08,NaN,-2.183231,1.413545E-05,-0.4052947,9.80329E-09,NaN,NaN,-0.02043908,3.026788E-10,4.413901E-07,-1.128238E-07,1.911058E-08,-2.861022E-08
456.9628,-0.168272,-1.301617E-08,NaN,-0.9499947,-1.346521E-07,NaN,0.4254999,1.912928E-08,NaN,-2.183238,1.413601E-05,-0.4052746,9.612867E-09,NaN,NaN,-0.02043173,2.933656E-10,4.193364E-07,-1.128221E-07,2.030267E-08,-2.861022E-08
456.9775,-0.168272,-1.301617E-08,NaN,-0.9499947,-1.346521E-07,NaN,0.4254999,1.912928E-08,NaN,-2.183238,1.413601E-05,-0.4052746,9.612867E-09,NaN,NaN,-0.02043173,2.933656E-10,4.193364E-07,-1.128221E-07,2.030267E-08,-2.861022E-08
456.9914,-0.1659551,-1.301529E-08,NaN,-0.9610156,-1.346521E-07,NaN,0.4259898,1.931223E-08,NaN,-2.18308,1.413656E-05,-0.4050241,9.431721E-09,NaN,NaN,-0.02042395,2.933656E-10,4.038392E-07,-1.128203E-07,1.911058E-08,-2.861022E-08
457.0069,-0.163643,-1.301441E-08,NaN,-0.9713584,-1.346521E-07,NaN,0.4264306,1.948891E-08,NaN,-2.182943,1.41371E-05,-0.404788,9.256859E-09,NaN,NaN,-0.02041649,2.933656E-10,3.877459E-07,-1.128186E-07,1.732244E-08,-2.861022E-08
457.0215,-0.1613379,-1.301353E-08,NaN,-0.9812425,-1.346521E-07,NaN,0.4268401,1.966225E-08,NaN,-2.182888,1.413766E-05,-0.4045866,9.085328E-09,NaN,NaN,-0.02040933,2.840524E-10,3.692685E-07,-1.128169E-07,1.672639E-08,-2.861022E-08
457.0384,-0.1613379,-1.301353E-08,NaN,-0.9812425,-1.346521E-07,NaN,0.4268401,1.966225E-08,NaN,-2.182888,1.413766E-05,-0.4045866,9.085328E-09,NaN,NaN,-0.02040933,2.840524E-10,3.692685E-07,-1.128169E-07,1.672639E-08,-2.861022E-08
457.0513,-0.1590354,-1.301265E-08,NaN,-0.9900416,-1.346521E-07,NaN,0.4272937,1.983232E-08,NaN,-2.182706,1.413821E-05,-0.4041714,8.917073E-09,NaN,NaN,-0.02040181,2.840524E-10,3.579436E-07,-1.128151E-07,1.732244E-08,-2.861022E-08
457.067,-0.1567339,-1.301177E-08,NaN,-0.998143,-1.346521E-07,NaN,0.4276945,1.999918E-08,NaN,-2.182579,1.413876E-05,-0.4037837,8.75203E-09,NaN,NaN,-0.02039462,2.840524E-10,3.430424E-07,-1.128134E-07,1.613034E-08,-2.861022E-08
457.0803,-0.1544366,-1.301089E-08,NaN,-1.005785,-1.346521E-07,NaN,0.428063,2.016289E-08,NaN,-2.182549,1.41393E-05,-0.403441,8.590137E-09,NaN,NaN,-0.02038772,2.840524E-10,3.24565E-07,-1.128117E-07,1.43422E-08,-2.861022E-08
457.0948,-0.1544366,-1.301089E-08,NaN,-1.005785,-1.346521E-07,NaN,0.428063,2.016289E-08,NaN,-2.182549,1.41393E-05,-0.403441,8.590137E-09,NaN,NaN,-0.02038772,2.840524E-10,3.24565E-07,-1.128117E-07,1.43422E-08,-2.861022E-08
457.1089,-0.1521478,-1.301001E-08,NaN,-1.013113,-1.34652E-07,NaN,0.42842,2.032634E-08,NaN,-2.18259,1.413985E-05,-0.4031299,8.428505E-09,NaN,NaN,-0.02038099,2.840524E-10,3.060876E-07,-1.1281E-07,1.55343E-08,-2.861022E-08
457.1241,-0.1498635,-1.300913E-08,NaN,-1.019457,-1.34652E-07,NaN,0.4288318,2.048671E-08,NaN,-2.182458,1.41404E-05,-0.4026012,8.269954E-09,NaN,NaN,-0.02037383,2.747392E-10,2.971469E-07,-1.128082E-07,1.344814E-08,-2.861022E-08
457.1388,-0.1498635,-1.300913E-08,NaN,-1.019457,-1.34652E-07,NaN,0.4288318,2.048671E-08,NaN,-2.182458,1.41404E-05,-0.4026012,8.269954E-09,NaN,NaN,-0.02037383,2.747392E-10,2.971469E-07,-1.128082E-07,1.344814E-08,-2.861022E-08
457.153,-0.1475812,-1.300825E-08,NaN,-1.025177,-1.34652E-07,NaN,0.4291955,2.064405E-08,NaN,-2.182337,1.414095E-05,-0.4020979,8.114426E-09,NaN,NaN,-0.02036698,2.747392E-10,2.86418E-07,-1.128065E-07,1.136197E-08,-2.861022E-08
457.1685,-0.1453039,-1.300737E-08,NaN,-1.030493,-1.346519E-07,NaN,0.4295292,2.080126E-08,NaN,-2.182292,1.414149E-05,-0.4016391,7.959035E-09,NaN,NaN,-0.02036041,2.747392E-10,2.73305E-07,-1.128048E-07,1.493825E-08,-2.861022E-08
457.1831,-0.143036,-1.300649E-08,NaN,-1.035541,-1.346519E-07,NaN,0.4298528,2.095551E-08,NaN,-2.182312,1.414204E-05,-0.4012122,7.806604E-09,NaN,NaN,-0.02035402,2.747392E-10,2.584039E-07,-1.128031E-07,1.493825E-08,-2.861022E-08
457.1979,-0.143036,-1.300649E-08,NaN,-1.035541,-1.346519E-07,NaN,0.4298528,2.095551E-08,NaN,-2.182312,1.414204E-05,-0.4012122,7.806604E-09,NaN,NaN,-0.02035402,2.747392E-10,2.584039E-07,-1.128031E-07,1.493825E-08,-2.861022E-08
457.2121,-0.1407732,-1.300561E-08,NaN,-1.039642,-1.346519E-07,NaN,0.4302315,2.110968E-08,NaN,-2.182164,1.414258E-05,-0.40057,7.654252E-09,NaN,NaN,-0.0203472,2.747392E-10,2.512513E-07,-1.128015E-07,1.493825E-08,-2.861022E-08
457.2274,-0.1385127,-1.300473E-08,NaN,-1.043153,-1.346519E-07,NaN,0.4305618,2.126095E-08,NaN,-2.182038,1.414312E-05,-0.3999564,7.504802E-09,NaN,NaN,-0.02034069,2.747392E-10,2.429067E-07,-1.127998E-07,1.255407E-08,-2.861022E-08
457.2422,-0.1362576,-1.300385E-08,NaN,-1.046291,-1.346518E-07,NaN,0.4308621,2.141221E-08,NaN,-2.181994,1.414367E-05,-0.399391,7.355368E-09,NaN,NaN,-0.02033446,2.747392E-10,2.34562E-07,-1.127981E-07,1.344814E-08,-2.861022E-08
457.2568,-0.1362576,-1.300385E-08,NaN,-1.046291,-1.346518E-07,NaN,0.4308621,2.141221E-08,NaN,-2.181994,1.414367E-05,-0.399391,7.355368E-09,NaN,NaN,-0.02033446,2.747392E-10,2.34562E-07,-1.127981E-07,1.344814E-08,-2.861022E-08
457.2708,-0.1340039,-1.300297E-08,NaN,-1.048428,-1.346518E-07,NaN,0.4312071,2.156062E-08,NaN,-2.181805,1.414421E-05,-0.3986273,7.208779E-09,NaN,NaN,-0.02032784,2.747392E-10,2.309857E-07,-1.127964E-07,1.464023E-08,-2.861022E-08
457.2861,-0.1317496,-1.300209E-08,NaN,-1.049951,-1.346518E-07,NaN,0.431498,2.170906E-08,NaN,-2.181599,1.414476E-05,-0.3979095,7.062154E-09,NaN,NaN,-0.02032147,2.747392E-10,2.226411E-07,-1.127948E-07,1.672639E-08,-2.861022E-08
457.3029,-0.1294987,-1.300121E-08,NaN,-1.051096,-1.346517E-07,NaN,0.4317582,2.185472E-08,NaN,-2.181417,1.414531E-05,-0.3972512,6.918315E-09,NaN,NaN,-0.02031535,2.65426E-10,2.166806E-07,-1.127931E-07,1.672639E-08,-2.861022E-08
457.3167,-0.1294987,-1.300121E-08,NaN,-1.051096,-1.346517E-07,NaN,0.4317582,2.185472E-08,NaN,-2.181417,1.414531E-05,-0.3972512,6.918315E-09,NaN,NaN,-0.02031535,2.65426E-10,2.166806E-07,-1.127931E-07,1.672639E-08,-2.861022E-08
457.3304,-0.1272567,-1.300033E-08,NaN,-1.052008,-1.346517E-07,NaN,0.4320108,2.200047E-08,NaN,-2.181265,1.414586E-05,-0.3966341,6.774384E-09,NaN,NaN,-0.02030941,2.65426E-10,2.113162E-07,-1.127915E-07,1.315011E-08,-2.861022E-08
457.345,-0.1250204,-1.299944E-08,NaN,-1.052014,-1.346517E-07,NaN,0.4323217,2.214349E-08,NaN,-2.180939,1.41464E-05,-0.3958085,6.633187E-09,NaN,NaN,-0.02030307,2.65426E-10,2.095281E-07,-1.127898E-07,1.225604E-08,-2.861022E-08
457.3593,-0.1250204,-1.299944E-08,NaN,-1.052014,-1.346517E-07,NaN,0.4323217,2.214349E-08,NaN,-2.180939,1.41464E-05,-0.3958085,6.633187E-09,NaN,NaN,-0.02030307,2.65426E-10,2.095281E-07,-1.127898E-07,1.225604E-08,-2.861022E-08
457.3734,-0.1227871,-1.299856E-08,NaN,-1.051474,-1.346517E-07,NaN,0.4325841,2.228665E-08,NaN,-2.180583,1.414695E-05,-0.3950239,6.491848E-09,NaN,NaN,-0.02029696,2.65426E-10,2.053558E-07,-1.127882E-07,1.255407E-08,-2.861022E-08
457.3888,-0.1205778,-1.299768E-08,NaN,-1.050606,-1.346516E-07,NaN,0.4328298,2.242712E-08,NaN,-2.180238,1.41475E-05,-0.3942936,6.353193E-09,NaN,NaN,-0.02029109,2.561127E-10,1.987993E-07,-1.127865E-07,1.285209E-08,-2.861022E-08
457.4036,-0.1184011,-1.29968E-08,NaN,-1.049545,-1.346516E-07,NaN,0.4330794,2.256779E-08,NaN,-2.179916,1.414805E-05,-0.3936006,6.214345E-09,NaN,NaN,-0.02028539,2.561127E-10,1.922428E-07,-1.127849E-07,1.255407E-08,-2.861022E-08
457.4183,-0.1184011,-1.29968E-08,NaN,-1.049545,-1.346516E-07,NaN,0.4330794,2.256779E-08,NaN,-2.179916,1.414805E-05,-0.3936006,6.214345E-09,NaN,NaN,-0.02028539,2.561127E-10,1.922428E-07,-1.127849E-07,1.255407E-08,-2.861022E-08
457.4323,-0.1162506,-1.299592E-08,NaN,-1.047609,-1.346516E-07,NaN,0.4333924,2.270582E-08,NaN,-2.179418,1.414859E-05,-0.3926995,6.078133E-09,NaN,NaN,-0.02027929,2.561127E-10,1.934348E-07,-1.127833E-07,1.404418E-08,-2.861022E-08
457.4481,-0.1141441,-1.299504E-08,NaN,-1.045154,-1.346515E-07,NaN,0.4336762,2.284409E-08,NaN,-2.178882,1.414914E-05,-0.3918355,5.94168E-09,NaN,NaN,-0.02027342,2.467995E-10,1.946269E-07,-1.127817E-07,1.508726E-08,-2.861022E-08
457.4626,-0.1120843,-1.299416E-08,NaN,-1.042396,-1.346515E-07,NaN,0.4339456,2.297977E-08,NaN,-2.178359,1.414969E-05,-0.3910257,5.807816E-09,NaN,NaN,-0.02026776,2.467995E-10,1.910507E-07,-1.127801E-07,1.464023E-08,-2.861022E-08
457.4777,-0.1120843,-1.299416E-08,NaN,-1.042396,-1.346515E-07,NaN,0.4339456,2.297977E-08,NaN,-2.178359,1.414969E-05,-0.3910257,5.807816E-09,NaN,NaN,-0.02026776,2.467995E-10,1.910507E-07,-1.127801E-07,1.464023E-08,-2.861022E-08
457.4913,-0.1100596,-1.299327E-08,NaN,-1.038705,-1.346515E-07,NaN,0.4342671,2.311292E-08,NaN,-2.177666,1.415023E-05,-0.3900256,5.676492E-09,NaN,NaN,-0.02026175,2.467995E-10,1.940309E-07,-1.127785E-07,1.523627E-08,-2.861022E-08
457.5066,-0.1080833,-1.299239E-08,NaN,-1.034466,-1.346515E-07,NaN,0.4345536,2.32464E-08,NaN,-2.176944,1.415078E-05,-0.3890746,5.544828E-09,NaN,NaN,-0.02025598,2.467995E-10,1.946269E-07,-1.127769E-07,1.68754E-08,-2.861022E-08
457.5213,-0.106155,-1.299151E-08,NaN,-1.029912,-1.346514E-07,NaN,0.4348225,2.337739E-08,NaN,-2.176247,1.415133E-05,-0.3881862,5.415657E-09,NaN,NaN,-0.02025046,2.374863E-10,1.946269E-07,-1.127753E-07,1.538529E-08,-2.861022E-08
457.5361,-0.106155,-1.299151E-08,NaN,-1.029912,-1.346514E-07,NaN,0.4348225,2.337739E-08,NaN,-2.176247,1.415133E-05,-0.3881862,5.415657E-09,NaN,NaN,-0.02025046,2.374863E-10,1.946269E-07,-1.127753E-07,1.538529E-08,-2.861022E-08
457.5512,-0.1042694,-1.299063E-08,NaN,-1.025188,-1.346514E-07,NaN,0.4350885,2.350876E-08,NaN,-2.175586,1.415188E-05,-0.3873444,5.286107E-09,NaN,NaN,-0.0202451,2.374863E-10,1.95819E-07,-1.127737E-07,1.404418E-08,-2.861022E-08
457.5666,-0.1024127,-1.298975E-08,NaN,-1.019618,-1.346514E-07,NaN,0.4354082,2.363767E-08,NaN,-2.174762,1.415242E-05,-0.3863092,5.159013E-09,NaN,NaN,-0.02023937,2.374863E-10,2.011834E-07,-1.127721E-07,1.240505E-08,-2.861022E-08
457.5813,-0.1005969,-1.298886E-08,NaN,-1.013561,-1.346513E-07,NaN,0.4356914,2.376701E-08,NaN,-2.173912,1.415297E-05,-0.3853213,5.031497E-09,NaN,NaN,-0.02023386,2.374863E-10,2.059518E-07,-1.127705E-07,1.136197E-08,-2.861022E-08
457.5947,-0.1005969,-1.298886E-08,NaN,-1.013561,-1.346513E-07,NaN,0.4356914,2.376701E-08,NaN,-2.173912,1.415297E-05,-0.3853213,5.031497E-09,NaN,NaN,-0.02023386,2.374863E-10,2.059518E-07,-1.127705E-07,1.136197E-08,-2.861022E-08
457.6087,-0.09882178,-1.298798E-08,NaN,-1.007233,-1.346513E-07,NaN,0.4359546,2.389392E-08,NaN,-2.173087,1.415351E-05,-0.384396,4.906409E-09,NaN,NaN,-0.02022859,2.374863E-10,2.107202E-07,-1.12769E-07,7.636682E-09,-2.861022E-08
457.6239,-0.09708302,-1.29871E-08,NaN,-1.000767,-1.346513E-07,NaN,0.4362128,2.402128E-08,NaN,-2.1723,1.415406E-05,-0.3835187,4.780863E-09,NaN,NaN,-0.02022348,2.374863E-10,2.119123E-07,-1.127674E-07,9.126799E-09,-2.861022E-08
457.6387,-0.09708302,-1.29871E-08,NaN,-1.000767,-1.346513E-07,NaN,0.4362128,2.402128E-08,NaN,-2.1723,1.415406E-05,-0.3835187,4.780863E-09,NaN,NaN,-0.02022348,2.374863E-10,2.119123E-07,-1.127674E-07,9.126799E-09,-2.861022E-08
457.6527,-0.0953679,-1.298622E-08,NaN,-0.9934843,-1.346513E-07,NaN,0.4365212,2.414627E-08,NaN,-2.171351,1.41546E-05,-0.3824534,4.657692E-09,NaN,NaN,-0.02021801,2.374863E-10,2.20853E-07,-1.127658E-07,1.002087E-08,-2.861022E-08
457.6683,-0.09368818,-1.298534E-08,NaN,-0.9857364,-1.346512E-07,NaN,0.4367917,2.427176E-08,NaN,-2.170379,1.415515E-05,-0.3814382,4.534023E-09,NaN,NaN,-0.02021276,2.374863E-10,2.268134E-07,-1.127643E-07,9.126799E-09,-2.861022E-08
457.6828,-0.09204399,-1.298445E-08,NaN,-0.9777392,-1.346512E-07,NaN,0.4370411,2.439491E-08,NaN,-2.169435,1.415569E-05,-0.3804877,4.412692E-09,NaN,NaN,-0.02020775,2.374863E-10,2.303897E-07,-1.127627E-07,7.934706E-09,-2.861022E-08
457.6975,-0.09204399,-1.298445E-08,NaN,-0.9777392,-1.346512E-07,NaN,0.4370411,2.439491E-08,NaN,-2.169435,1.415569E-05,-0.3804877,4.412692E-09,NaN,NaN,-0.02020775,2.374863E-10,2.303897E-07,-1.127627E-07,7.934706E-09,-2.861022E-08
457.7117,-0.09042387,-1.298357E-08,NaN,-0.9688624,-1.346512E-07,NaN,0.437333,2.451294E-08,NaN,-2.168332,1.415624E-05,-0.3793663,4.29648E-09,NaN,NaN,-0.0202024,2.374863E-10,2.417146E-07,-1.127612E-07,6.44459E-09,-2.861022E-08
457.7272,-0.0888387,-1.298269E-08,NaN,-0.9594895,-1.346511E-07,NaN,0.4375849,2.46316E-08,NaN,-2.167213,1.415678E-05,-0.378305,4.179636E-09,NaN,NaN,-0.0201973,2.374863E-10,2.47675E-07,-1.127597E-07,1.091494E-08,-2.861022E-08
457.7417,-0.08728789,-1.298181E-08,NaN,-0.9498548,-1.346511E-07,NaN,0.4378159,2.474806E-08,NaN,-2.166131,1.415733E-05,-0.3773146,4.064996E-09,NaN,NaN,-0.02019244,2.374863E-10,2.548276E-07,-1.127581E-07,1.180901E-08,-2.861022E-08
457.7563,-0.08728789,-1.298181E-08,NaN,-0.9498548,-1.346511E-07,NaN,0.4378159,2.474806E-08,NaN,-2.166131,1.415733E-05,-0.3773146,4.064996E-09,NaN,NaN,-0.02019244,2.374863E-10,2.548276E-07,-1.127581E-07,1.180901E-08,-2.861022E-08
457.7704,-0.08576739,-1.298092E-08,NaN,-0.9401013,-1.34651E-07,NaN,0.4380413,2.486518E-08,NaN,-2.165097,1.415787E-05,-0.376379,3.949691E-09,NaN,NaN,-0.02018775,2.374863E-10,2.59596E-07,-1.127566E-07,1.329912E-08,-2.861022E-08
457.7859,-0.08426539,-1.298004E-08,NaN,-0.9295549,-1.34651E-07,NaN,0.4383132,2.498013E-08,NaN,-2.16391,1.415842E-05,-0.3752689,3.836561E-09,NaN,NaN,-0.02018272,2.374863E-10,2.655564E-07,-1.127551E-07,1.449122E-08,-2.861022E-08
457.8006,-0.08279211,-1.297916E-08,NaN,-0.9185717,-1.34651E-07,NaN,0.4385463,2.510423E-08,NaN,-2.162709,1.415896E-05,-0.3742156,3.714281E-09,NaN,NaN,-0.02017791,2.328297E-10,2.739011E-07,-1.127536E-07,1.627935E-08,-2.861022E-08
457.8152,-0.08279211,-1.297916E-08,NaN,-0.9185717,-1.34651E-07,NaN,0.4385463,2.510423E-08,NaN,-2.162709,1.415896E-05,-0.3742156,3.714281E-09,NaN,NaN,-0.02017791,2.328297E-10,2.739011E-07,-1.127536E-07,1.627935E-08,-2.861022E-08
457.8313,-0.08134762,-1.297827E-08,NaN,-0.9073692,-1.346505E-07,NaN,0.438758,2.506817E-08,NaN,-2.161543,1.41595E-05,-0.3732317,3.752163E-09,NaN,NaN,-0.02017333,2.328297E-10,2.792655E-07,-1.12753E-07,1.717342E-08,-2.861022E-08
457.846,-0.07992882,-1.297739E-08,NaN,-0.8960805,-1.346501E-07,NaN,0.4389634,2.505267E-08,NaN,-2.160425,1.416004E-05,-0.3723023,3.769486E-09,NaN,NaN,-0.02016892,2.328297E-10,2.86418E-07,-1.127526E-07,1.68754E-08,-2.861022E-08
457.8593,-0.07992882,-1.297739E-08,NaN,-0.8960805,-1.346501E-07,NaN,0.4389634,2.505267E-08,NaN,-2.160425,1.416004E-05,-0.3723023,3.769486E-09,NaN,NaN,-0.02016892,2.328297E-10,2.86418E-07,-1.127526E-07,1.68754E-08,-2.861022E-08
457.8733,-0.07853223,-1.297651E-08,NaN,-0.8847871,-1.346498E-07,NaN,0.4391684,2.504889E-08,NaN,-2.159355,1.416058E-05,-0.3714154,3.775099E-09,NaN,NaN,-0.02016463,2.328297E-10,2.905904E-07,-1.127521E-07,1.866354E-08,-2.861022E-08
457.8885,-0.07715499,-1.297563E-08,NaN,-0.873539,-1.346494E-07,NaN,0.4393742,2.505093E-08,NaN,-2.158327,1.416112E-05,-0.370564,3.774879E-09,NaN,NaN,-0.02016046,2.328297E-10,2.911864E-07,-1.127517E-07,1.836552E-08,-2.861022E-08
457.9032,-0.07579495,-1.297474E-08,NaN,-0.8623666,-1.346491E-07,NaN,0.4395805,2.505588E-08,NaN,-2.157336,1.416166E-05,-0.3697439,3.771757E-09,NaN,NaN,-0.02015641,2.328297E-10,2.923785E-07,-1.127513E-07,2.134575E-08,-2.861022E-08
457.9181,-0.07579495,-1.297474E-08,NaN,-0.8623666,-1.346491E-07,NaN,0.4395805,2.505588E-08,NaN,-2.157336,1.416166E-05,-0.3697439,3.771757E-09,NaN,NaN,-0.02015641,2.328297E-10,2.923785E-07,-1.127513E-07,2.134575E-08,-2.861022E-08
457.9321,-0.07445737,-1.297386E-08,NaN,-0.8520499,-1.346488E-07,NaN,0.4397437,2.506368E-08,NaN,-2.156578,1.41622E-05,-0.3691607,3.765787E-09,NaN,NaN,-0.02015291,2.328297E-10,2.876102E-07,-1.127509E-07,2.104773E-08,-2.861022E-08
457.9475,-0.07312971,-1.297298E-08,NaN,-0.8422989,-1.346485E-07,NaN,0.4399457,2.507427E-08,NaN,-2.155905,1.416274E-05,-0.3685816,3.757023E-09,NaN,NaN,-0.0201494,2.328297E-10,2.876102E-07,-1.127504E-07,1.955761E-08,-2.861022E-08
457.9621,-0.07180876,-1.297209E-08,NaN,-0.8329352,-1.346482E-07,NaN,0.4401679,2.508477E-08,NaN,-2.155258,1.416328E-05,-0.3679901,3.748346E-09,NaN,NaN,-0.02014587,2.328297E-10,2.876102E-07,-1.1275E-07,1.985563E-08,-2.861022E-08
457.9769,-0.07180876,-1.297209E-08,NaN,-0.8329352,-1.346482E-07,NaN,0.4401679,2.508477E-08,NaN,-2.155258,1.416328E-05,-0.3679901,3.748346E-09,NaN,NaN,-0.02014587,2.328297E-10,2.876102E-07,-1.1275E-07,1.985563E-08,-2.861022E-08
457.9908,-0.07049482,-1.297121E-08,NaN,-0.8238485,-1.346479E-07,NaN,0.4403941,2.509519E-08,NaN,-2.154618,1.416382E-05,-0.3673971,3.739748E-09,NaN,NaN,-0.02014238,2.328297E-10,2.870141E-07,-1.127496E-07,2.015365E-08,-2.861022E-08
458.0065,-0.06919562,-1.297033E-08,NaN,-0.8157325,-1.346476E-07,NaN,0.4405762,2.510553E-08,NaN,-2.154181,1.416436E-05,-0.3670168,3.731234E-09,NaN,NaN,-0.02013939,2.328297E-10,2.780734E-07,-1.127492E-07,1.896156E-08,-2.861022E-08
458.021,-0.06790222,-1.296945E-08,NaN,-0.8082441,-1.346473E-07,NaN,0.4407935,2.511861E-08,NaN,-2.153804,1.41649E-05,-0.3666262,3.719973E-09,NaN,NaN,-0.02013638,2.328297E-10,2.756892E-07,-1.127488E-07,2.07497E-08,-2.861022E-08
458.0372,-0.06790222,-1.296945E-08,NaN,-0.8082441,-1.346473E-07,NaN,0.4407935,2.511861E-08,NaN,-2.153804,1.41649E-05,-0.3666262,3.719973E-09,NaN,NaN,-0.02013638,2.328297E-10,2.756892E-07,-1.127488E-07,2.07497E-08,-2.861022E-08
458.0499,-0.06661323,-1.296856E-08,NaN,-0.8011718,-1.34647E-07,NaN,0.4410278,2.513156E-08,NaN,-2.153433,1.416545E-05,-0.3662129,3.708845E-09,NaN,NaN,-0.02013333,2.235165E-10,2.73305E-07,-1.127484E-07,2.015365E-08,-2.861022E-08
458.0652,-0.06532993,-1.296768E-08,NaN,-0.7943847,-1.346467E-07,NaN,0.441264,2.514438E-08,NaN,-2.153054,1.416599E-05,-0.3657897,3.697845E-09,NaN,NaN,-0.02013029,2.235165E-10,2.709209E-07,-1.12748E-07,2.134575E-08,-2.861022E-08
458.0802,-0.06406044,-1.29668E-08,NaN,-0.7885636,-1.346464E-07,NaN,0.4414552,2.515708E-08,NaN,-2.152866,1.416653E-05,-0.3655702,3.686974E-09,NaN,NaN,-0.02012775,2.235165E-10,2.649604E-07,-1.127476E-07,2.015365E-08,-2.861022E-08
458.0956,-0.06406044,-1.29668E-08,NaN,-0.7885636,-1.346464E-07,NaN,0.4414552,2.515708E-08,NaN,-2.152866,1.416653E-05,-0.3655702,3.686974E-09,NaN,NaN,-0.02012775,2.235165E-10,2.649604E-07,-1.127476E-07,2.015365E-08,-2.861022E-08
458.1096,-0.0627971,-1.296591E-08,NaN,-0.7833581,-1.346461E-07,NaN,0.4416807,2.516965E-08,NaN,-2.152728,1.416707E-05,-0.3653343,3.676228E-09,NaN,NaN,-0.02012517,2.235165E-10,2.59596E-07,-1.127473E-07,2.134575E-08,-2.861022E-08
458.1238,-0.06153877,-1.296503E-08,NaN,-0.7785518,-1.346459E-07,NaN,0.4419225,2.518209E-08,NaN,-2.152587,1.416761E-05,-0.3650702,3.665606E-09,NaN,NaN,-0.02012254,2.235165E-10,2.554236E-07,-1.127469E-07,2.015365E-08,-2.861022E-08
458.1386,-0.06153877,-1.296503E-08,NaN,-0.7785518,-1.346459E-07,NaN,0.4419225,2.518209E-08,NaN,-2.152587,1.416761E-05,-0.3650702,3.665606E-09,NaN,NaN,-0.02012254,2.235165E-10,2.554236E-07,-1.127469E-07,2.015365E-08,-2.861022E-08
458.1525,-0.06029271,-1.296415E-08,NaN,-0.7747726,-1.346456E-07,NaN,0.442125,2.519442E-08,NaN,-2.152632,1.416816E-05,-0.3649944,3.655103E-09,NaN,NaN,-0.02012036,2.142032E-10,2.458869E-07,-1.127465E-07,1.836552E-08,-2.861022E-08
458.168,-0.05905186,-1.296327E-08,NaN,-0.7716381,-1.346453E-07,NaN,0.4423626,2.520662E-08,NaN,-2.152716,1.41687E-05,-0.364892,3.64472E-09,NaN,NaN,-0.02011811,2.142032E-10,2.381383E-07,-1.127461E-07,2.07497E-08,-2.861022E-08
458.1826,-0.05781535,-1.296238E-08,NaN,-0.7689118,-1.34645E-07,NaN,0.4426159,2.522149E-08,NaN,-2.152787,1.416924E-05,-0.3647542,3.631673E-09,NaN,NaN,-0.02011579,2.142032E-10,2.309857E-07,-1.127457E-07,2.194179E-08,-2.861022E-08
458.1972,-0.05781535,-1.296238E-08,NaN,-0.7689118,-1.34645E-07,NaN,0.4426159,2.522149E-08,NaN,-2.152787,1.416924E-05,-0.3647542,3.631673E-09,NaN,NaN,-0.02011579,2.142032E-10,2.309857E-07,-1.127457E-07,2.194179E-08,-2.861022E-08
458.2112,-0.05658456,-1.29615E-08,NaN,-0.7664472,-1.346447E-07,NaN,0.4428698,2.523619E-08,NaN,-2.152833,1.416978E-05,-0.3645955,3.618794E-09,NaN,NaN,-0.02011348,2.142032E-10,2.274095E-07,-1.127453E-07,1.896156E-08,-2.861022E-08
458.2265,-0.05536734,-1.296061E-08,NaN,-0.7649156,-1.346444E-07,NaN,0.4430779,2.525073E-08,NaN,-2.153055,1.417032E-05,-0.3646302,3.606077E-09,NaN,NaN,-0.02011163,2.142032E-10,2.154885E-07,-1.127449E-07,1.717342E-08,-2.861022E-08
458.2409,-0.05415717,-1.295973E-08,NaN,-0.7639617,-1.346442E-07,NaN,0.4433196,2.526511E-08,NaN,-2.153314,1.417086E-05,-0.3646397,3.593524E-09,NaN,NaN,-0.02010972,2.142032E-10,2.065478E-07,-1.127446E-07,1.478924E-08,-2.861022E-08
458.2559,-0.05415717,-1.295973E-08,NaN,-0.7639617,-1.346442E-07,NaN,0.4433196,2.526511E-08,NaN,-2.153314,1.417086E-05,-0.3646397,3.593524E-09,NaN,NaN,-0.02010972,2.142032E-10,2.065478E-07,-1.127446E-07,1.478924E-08,-2.861022E-08
458.2701,-0.05295292,-1.295885E-08,NaN,-0.7633654,-1.346439E-07,NaN,0.4435773,2.527932E-08,NaN,-2.153559,1.41714E-05,-0.3646129,3.581129E-09,NaN,NaN,-0.02010775,2.142032E-10,1.96415E-07,-1.127442E-07,1.30011E-08,-2.861022E-08
458.2853,-0.05175554,-1.295796E-08,NaN,-0.7629909,-1.346436E-07,NaN,0.4438364,2.529338E-08,NaN,-2.153776,1.417194E-05,-0.3645629,3.568889E-09,NaN,NaN,-0.02010576,2.142032E-10,1.886664E-07,-1.127438E-07,1.359714E-08,-2.861022E-08
458.3001,-0.0505724,-1.295708E-08,NaN,-0.7635112,-1.346433E-07,NaN,0.4440503,2.530729E-08,NaN,-2.154166,1.417248E-05,-0.3647029,3.556803E-09,NaN,NaN,-0.02010423,2.142032E-10,1.770435E-07,-1.127434E-07,1.30011E-08,-2.861022E-08
458.3149,-0.0505724,-1.295708E-08,NaN,-0.7635112,-1.346433E-07,NaN,0.4440503,2.530729E-08,NaN,-2.154166,1.417248E-05,-0.3647029,3.556803E-09,NaN,NaN,-0.02010423,2.142032E-10,1.770435E-07,-1.127434E-07,1.30011E-08,-2.861022E-08
458.3287,-0.04940284,-1.29562E-08,NaN,-0.7645807,-1.34643E-07,NaN,0.4443009,2.532105E-08,NaN,-2.154588,1.417302E-05,-0.3648157,3.544864E-09,NaN,NaN,-0.02010263,2.142032E-10,1.660167E-07,-1.12743E-07,1.30011E-08,-2.861022E-08
458.3439,-0.04824882,-1.295531E-08,NaN,-0.7659818,-1.346427E-07,NaN,0.4445721,2.533749E-08,NaN,-2.154989,1.417356E-05,-0.364888,3.530246E-09,NaN,NaN,-0.02010095,2.142032E-10,1.57374E-07,-1.127427E-07,1.30011E-08,-2.861022E-08
458.3584,-0.04824882,-1.295531E-08,NaN,-0.7659818,-1.346427E-07,NaN,0.4445721,2.533749E-08,NaN,-2.154989,1.417356E-05,-0.364888,3.530246E-09,NaN,NaN,-0.02010095,2.142032E-10,1.57374E-07,-1.127427E-07,1.30011E-08,-2.861022E-08
458.3747,-0.04711654,-1.295443E-08,NaN,-0.7683416,-1.346424E-07,NaN,0.4448058,2.535373E-08,NaN,-2.155559,1.41741E-05,-0.3651384,3.515828E-09,NaN,NaN,-0.0200997,2.142032E-10,1.44559E-07,-1.127423E-07,1.240505E-08,-2.861022E-08
458.3886,-0.04600547,-1.295354E-08,NaN,-0.7712783,-1.346422E-07,NaN,0.4450802,2.51825E-08,NaN,-2.15615,1.417464E-05,-0.3653509,3.688886E-09,NaN,NaN,-0.02009835,2.235165E-10,1.332341E-07,-1.127419E-07,8.828771E-09,-2.622604E-08
458.4024,-0.04491379,-1.295266E-08,NaN,-0.7745556,-1.346419E-07,NaN,0.4453747,2.501477E-08,NaN,-2.156711,1.417517E-05,-0.3655163,3.858445E-09,NaN,NaN,-0.02009691,2.281731E-10,1.201211E-07,-1.127415E-07,7.636679E-09,-2.861022E-08
458.417,-0.04491379,-1.295266E-08,NaN,-0.7745556,-1.346419E-07,NaN,0.4453747,2.501477E-08,NaN,-2.156711,1.417517E-05,-0.3655163,3.858445E-09,NaN,NaN,-0.02009691,2.281731E-10,1.201211E-07,-1.127415E-07,7.636679E-09,-2.861022E-08
458.431,-0.04383951,-1.295178E-08,NaN,-0.7780272,-1.346416E-07,NaN,0.445672,2.485047E-08,NaN,-2.157231,1.417571E-05,-0.3656497,4.024573E-09,NaN,NaN,-0.02009544,2.328297E-10,1.126705E-07,-1.127412E-07,7.636679E-09,-2.622604E-08
458.4467,-0.04278693,-1.295089E-08,NaN,-0.7823642,-1.346413E-07,NaN,0.445922,2.468954E-08,NaN,-2.157916,1.417624E-05,-0.3659704,4.187336E-09,NaN,NaN,-0.02009442,2.374863E-10,9.538518E-08,-1.127408E-07,8.232726E-09,-2.861022E-08
458.461,-0.04175416,-1.295001E-08,NaN,-0.7872128,-1.346411E-07,NaN,0.4462092,2.453191E-08,NaN,-2.158622,1.417678E-05,-0.3662571,4.346798E-09,NaN,NaN,-0.02009331,2.421429E-10,8.555041E-08,-1.127404E-07,7.636679E-09,-2.622604E-08
458.4757,-0.04175416,-1.295001E-08,NaN,-0.7872128,-1.346411E-07,NaN,0.4462092,2.453191E-08,NaN,-2.158622,1.417678E-05,-0.3662571,4.346798E-09,NaN,NaN,-0.02009331,2.421429E-10,8.555041E-08,-1.127404E-07,7.636679E-09,-2.622604E-08
458.4897,-0.04073889,-1.294913E-08,NaN,-0.7923535,-1.346408E-07,NaN,0.4465158,2.437751E-08,NaN,-2.159298,1.417731E-05,-0.3664972,4.503029E-09,NaN,NaN,-0.02009212,2.467995E-10,7.422553E-08,-1.127401E-07,7.040633E-09,-2.861022E-08
458.505,-0.03973904,-1.294824E-08,NaN,-0.7976506,-1.346405E-07,NaN,0.4468254,2.422345E-08,NaN,-2.159934,1.417785E-05,-0.3667045,4.658917E-09,NaN,NaN,-0.02009088,2.514561E-10,6.468878E-08,-1.127397E-07,5.252493E-09,-2.622604E-08
458.521,-0.03875916,-1.294736E-08,NaN,-0.8037819,-1.346403E-07,NaN,0.4470867,2.407539E-08,NaN,-2.160734,1.417839E-05,-0.3671001,4.808816E-09,NaN,NaN,-0.0200901,2.561127E-10,4.859553E-08,-1.127394E-07,4.656447E-09,-2.861022E-08
458.5345,-0.03875916,-1.294736E-08,NaN,-0.8037819,-1.346403E-07,NaN,0.4470867,2.407539E-08,NaN,-2.160734,1.417839E-05,-0.3671001,4.808816E-09,NaN,NaN,-0.0200901,2.561127E-10,4.859553E-08,-1.127394E-07,4.656447E-09,-2.861022E-08
458.5486,-0.03779711,-1.294647E-08,NaN,-0.8103978,-1.3464E-07,NaN,0.4473858,2.393037E-08,NaN,-2.161554,1.417892E-05,-0.3674604,4.955665E-09,NaN,NaN,-0.02008922,2.607694E-10,3.66746E-08,-1.12739E-07,4.656447E-09,-2.622604E-08
458.564,-0.03685061,-1.294559E-08,NaN,-0.8172816,-1.346397E-07,NaN,0.4477049,2.378835E-08,NaN,-2.162343,1.417946E-05,-0.3677719,5.09953E-09,NaN,NaN,-0.02008826,2.65426E-10,2.534972E-08,-1.127386E-07,3.464354E-09,-2.861022E-08
458.5787,-0.03685061,-1.294559E-08,NaN,-0.8172816,-1.346397E-07,NaN,0.4477049,2.378835E-08,NaN,-2.162343,1.417946E-05,-0.3677719,5.09953E-09,NaN,NaN,-0.02008826,2.65426E-10,2.534972E-08,-1.127386E-07,3.464354E-09,-2.861022E-08
458.5925,-0.03592413,-1.294471E-08,NaN,-0.825061,-1.346394E-07,NaN,0.447982,2.364924E-08,NaN,-2.163293,1.417999E-05,-0.3682608,5.240468E-09,NaN,NaN,-0.0200877,2.700826E-10,8.362397E-09,-1.127383E-07,5.252493E-09,-2.622604E-08
458.608,-0.03501491,-1.294382E-08,NaN,-0.8333557,-1.346392E-07,NaN,0.4482989,2.351301E-08,NaN,-2.164254,1.418053E-05,-0.3687063,5.378534E-09,NaN,NaN,-0.02008704,2.747392E-10,-4.154578E-09,-1.127379E-07,4.656447E-09,-2.861022E-08
458.6225,-0.03412043,-1.294294E-08,NaN,-0.8419297,-1.346389E-07,NaN,0.4486359,2.337959E-08,NaN,-2.165177,1.418106E-05,-0.3690971,5.513789E-09,NaN,NaN,-0.02008626,2.793958E-10,-1.72676E-08,-1.127376E-07,8.232726E-09,-2.622604E-08
458.6392,-0.03412043,-1.294294E-08,NaN,-0.8419297,-1.346389E-07,NaN,0.4486359,2.337959E-08,NaN,-2.165177,1.418106E-05,-0.3690971,5.513789E-09,NaN,NaN,-0.02008626,2.793958E-10,-1.72676E-08,-1.127376E-07,8.232726E-09,-2.622604E-08
458.6533,-0.03323868,-1.294206E-08,NaN,-0.850637,-1.346386E-07,NaN,0.4489757,2.324893E-08,NaN,-2.166049,1.41816E-05,-0.3694482,5.646284E-09,NaN,NaN,-0.02008543,2.840524E-10,-2.799644E-08,-1.127372E-07,8.232726E-09,-2.861022E-08
458.6675,-0.03237487,-1.294117E-08,NaN,-0.8601491,-1.346384E-07,NaN,0.4492643,2.312098E-08,NaN,-2.167077,1.418214E-05,-0.3699879,5.776075E-09,NaN,NaN,-0.02008505,2.88709E-10,-4.528178E-08,-1.127368E-07,6.74261E-09,-2.622604E-08
458.6812,-0.03152621,-1.294029E-08,NaN,-0.8701132,-1.346381E-07,NaN,0.4495907,2.299568E-08,NaN,-2.168118,1.418267E-05,-0.3704884,5.903214E-09,NaN,NaN,-0.02008457,2.933656E-10,-5.899085E-08,-1.127365E-07,7.338656E-09,-2.861022E-08
458.6959,-0.03152621,-1.294029E-08,NaN,-0.8701132,-1.346381E-07,NaN,0.4495907,2.299568E-08,NaN,-2.168118,1.418267E-05,-0.3704884,5.903214E-09,NaN,NaN,-0.02008457,2.933656E-10,-5.899085E-08,-1.127365E-07,7.338656E-09,-2.861022E-08
458.7096,-0.03069039,-1.29394E-08,NaN,-0.8803104,-1.346378E-07,NaN,0.4499376,2.28758E-08,NaN,-2.16912,1.418321E-05,-0.370935,6.024924E-09,NaN,NaN,-0.02008398,2.980222E-10,-7.210387E-08,-1.127361E-07,5.550516E-09,-2.622604E-08
458.7249,-0.02986571,-1.293852E-08,NaN,-0.8906053,-1.346376E-07,NaN,0.4502884,2.275842E-08,NaN,-2.170073,1.418374E-05,-0.3713413,6.144142E-09,NaN,NaN,-0.02008332,3.026788E-10,-8.342876E-08,-1.127358E-07,3.166331E-09,-2.861022E-08
458.7397,-0.02986571,-1.293852E-08,NaN,-0.8906053,-1.346376E-07,NaN,0.4502884,2.275842E-08,NaN,-2.170073,1.418374E-05,-0.3713413,6.144142E-09,NaN,NaN,-0.02008332,3.026788E-10,-8.342876E-08,-1.127358E-07,3.166331E-09,-2.861022E-08
458.7536,-0.02905799,-1.293764E-08,NaN,-0.901676,-1.346373E-07,NaN,0.4505869,2.264349E-08,NaN,-2.171181,1.418428E-05,-0.3719387,6.260914E-09,NaN,NaN,-0.02008313,3.073354E-10,-9.892597E-08,-1.127354E-07,2.272261E-09,-2.622604E-08
458.7691,-0.02826414,-1.293675E-08,NaN,-0.913174,-1.34637E-07,NaN,0.4509244,2.253089E-08,NaN,-2.172302,1.418481E-05,-0.3724961,6.375344E-09,NaN,NaN,-0.02008283,3.11992E-10,-1.138271E-07,-1.127351E-07,2.272261E-09,-2.861022E-08
458.7838,-0.02748188,-1.293587E-08,NaN,-0.9248832,-1.346367E-07,NaN,0.4512835,2.242065E-08,NaN,-2.173383,1.418535E-05,-0.3729976,6.487423E-09,NaN,NaN,-0.0200824,3.166487E-10,-1.257481E-07,-1.127347E-07,3.762377E-09,-2.622604E-08
458.7989,-0.02748188,-1.293587E-08,NaN,-0.9248832,-1.346367E-07,NaN,0.4512835,2.242065E-08,NaN,-2.173383,1.418535E-05,-0.3729976,6.487423E-09,NaN,NaN,-0.0200824,3.166487E-10,-1.257481E-07,-1.127347E-07,3.762377E-09,-2.622604E-08
458.813,-0.02671696,-1.293499E-08,NaN,-0.9374318,-1.346365E-07,NaN,0.4515968,2.231271E-08,NaN,-2.174618,1.418589E-05,-0.3736803,6.597195E-09,NaN,NaN,-0.02008241,3.213053E-10,-1.442255E-07,-1.127344E-07,3.464354E-09,-2.861022E-08
458.8281,-0.02596558,-1.29341E-08,NaN,-0.9504405,-1.346362E-07,NaN,0.4519515,2.220703E-08,NaN,-2.175858,1.418642E-05,-0.3743148,6.704711E-09,NaN,NaN,-0.02008229,3.259619E-10,-1.597227E-07,-1.127341E-07,2.868307E-09,-2.622604E-08
