JMolnar6/NonAnthroHands_User_Study/HandsLoggerWithURDF/tempdata/files/Reachy_JointMotion_gesture_10_48.csv
Time,r_shoulder,r_shoulder_x,r_upper_arm,r_forearm,r_wrist,r_wrist2hand,
936.0641,-0.2565677,0.000575605,NaN,-0.5874746,0.0006984406,NaN,-0.2889844,-14.71759,NaN,-0.9678376,-1.471323,0.4179854,14.1023,NaN,NaN,-0.4873578,0.8187281,1.040837E-06,1.052955,4.214044E-09,1.320338
936.0782,-0.2565677,0.000575605,NaN,-0.5874746,0.0006984406,NaN,-0.2889844,-14.71759,NaN,-0.9678376,-1.471323,0.4179854,14.1023,NaN,NaN,-0.4873578,0.8187281,1.040837E-06,1.052955,4.214044E-09,1.320338
936.0925,-0.2518201,0.0005753557,NaN,-0.5873335,0.0006983681,NaN,-0.2904582,-14.71734,NaN,-0.9661392,-1.472956,0.4201047,14.10401,NaN,NaN,-0.4872432,0.8190278,1.02534E-06,1.055336,7.194276E-09,1.318475
936.1081,-0.2469976,0.0005759327,NaN,-0.5871892,0.000697898,NaN,-0.2919336,-14.71804,NaN,-0.9644068,-1.482901,0.4222024,14.11474,NaN,NaN,-0.4871309,0.8186588,1.009843E-06,1.069928,7.194276E-09,1.324899
936.1231,-0.2421511,0.0005760411,NaN,-0.5870437,0.0006980643,NaN,-0.2933821,-14.71738,NaN,-0.9626531,-1.471387,0.4242731,14.10236,NaN,NaN,-0.4870208,0.8190558,9.943456E-07,1.05306,6.002184E-09,1.318131
936.1382,-0.2421511,0.0005760411,NaN,-0.5870437,0.0006980643,NaN,-0.2933821,-14.71738,NaN,-0.9626531,-1.471387,0.4242731,14.10236,NaN,NaN,-0.4870208,0.8190558,9.943456E-07,1.05306,6.002184E-09,1.318131
936.1525,-0.2376537,0.0005766883,NaN,-0.5869119,0.000697678,NaN,-0.2941722,-14.7175,NaN,-0.9608409,-1.482587,0.4255849,14.11435,NaN,NaN,-0.4869587,0.8193299,9.681195E-07,1.069459,2.425905E-09,1.322706
936.1679,-0.2333911,0.0005761902,NaN,-0.5867892,0.0006971328,NaN,-0.2948285,-14.71823,NaN,-0.959085,-1.470606,0.4268496,14.10161,NaN,NaN,-0.4868979,0.8183325,9.466618E-07,1.05194,3.021952E-09,1.322252
936.1832,-0.229292,0.0005761224,NaN,-0.5866726,0.0006970224,NaN,-0.2954219,-14.71715,NaN,-0.9573848,-1.473369,0.4280783,14.10442,NaN,NaN,-0.4868383,0.8195028,9.311646E-07,1.05593,-2.938513E-09,1.317216
936.198,-0.229292,0.0005761224,NaN,-0.5866726,0.0006970224,NaN,-0.2954219,-14.71715,NaN,-0.9573848,-1.473369,0.4280783,14.10442,NaN,NaN,-0.4868383,0.8195028,9.311646E-07,1.05593,-2.938513E-09,1.317216
936.2164,-0.2256537,0.0005767265,NaN,-0.586574,0.000696458,NaN,-0.2953606,-14.71748,NaN,-0.9556832,-1.482953,0.4285506,14.11472,NaN,NaN,-0.4868258,0.8194874,9.061307E-07,1.069986,-2.342466E-09,1.322459
936.2278,-0.222315,0.0005767031,NaN,-0.5864868,0.0006954845,NaN,-0.2951862,-14.71822,NaN,-0.9540771,-1.479038,0.4289804,14.11062,NaN,NaN,-0.4868135,0.8186589,8.822888E-07,1.064281,6.377658E-10,1.324627
936.2426,-0.2191754,0.0005758451,NaN,-0.586407,0.0006946881,NaN,-0.2949738,-14.71725,NaN,-0.9525523,-1.471847,0.4293835,14.10282,NaN,NaN,-0.4868014,0.8194231,8.644074E-07,1.053724,6.377658E-10,1.318227
936.2574,-0.2191754,0.0005758451,NaN,-0.586407,0.0006946881,NaN,-0.2949738,-14.71725,NaN,-0.9525523,-1.471847,0.4293835,14.10282,NaN,NaN,-0.4868014,0.8194231,8.644074E-07,1.053724,6.377658E-10,1.318227
936.2718,-0.2161723,0.0005746575,NaN,-0.5863321,0.0006940591,NaN,-0.2947538,-14.71701,NaN,-0.9510906,-1.470265,0.4297681,14.1011,NaN,NaN,-0.4867896,0.8196123,8.453339E-07,1.051398,3.021952E-09,1.315665
936.2875,-0.2136086,0.0005737718,NaN,-0.5862743,0.000693235,NaN,-0.2939125,-14.71809,NaN,-0.9496282,-1.475046,0.4294155,14.10637,NaN,NaN,-0.4868239,0.8187004,8.191079E-07,1.058459,3.617998E-09,1.32206
936.3024,-0.2113263,0.0005731972,NaN,-0.5862269,0.0006933339,NaN,-0.2929832,-14.71785,NaN,-0.9482599,-1.469875,0.4290353,14.10081,NaN,NaN,-0.4868576,0.8187853,7.988423E-07,1.050884,6.002184E-09,1.320553
936.3173,-0.2113263,0.0005731972,NaN,-0.5862269,0.0006933339,NaN,-0.2929832,-14.71785,NaN,-0.9482599,-1.469875,0.4290353,14.10081,NaN,NaN,-0.4868576,0.8187853,7.988423E-07,1.050884,6.002184E-09,1.320553
936.332,-0.2092274,0.000572173,NaN,-0.5861862,0.0006924077,NaN,-0.2920359,-14.71836,NaN,-0.9469709,-1.474481,0.4286438,14.1058,NaN,NaN,-0.4868906,0.8184413,7.809609E-07,1.057651,6.59823E-09,1.324891
936.3475,-0.2072507,0.0005715077,NaN,-0.5861497,0.0006925642,NaN,-0.2910983,-14.71795,NaN,-0.945743,-1.469103,0.4282489,14.1,NaN,NaN,-0.4869229,0.8186696,7.642716E-07,1.049766,9.578462E-09,1.321099
936.3625,-0.2056997,0.0005715856,NaN,-0.5861295,0.0006920052,NaN,-0.2895527,-14.71794,NaN,-0.9445123,-1.481435,0.4271319,14.11317,NaN,NaN,-0.4870005,0.8191343,7.380456E-07,1.067805,4.214045E-09,1.324898
936.3773,-0.2056997,0.0005715856,NaN,-0.5861295,0.0006920052,NaN,-0.2895527,-14.71794,NaN,-0.9445123,-1.481435,0.4271319,14.11317,NaN,NaN,-0.4870005,0.8191343,7.380456E-07,1.067805,4.214045E-09,1.324898
936.3917,-0.2044175,0.0005714484,NaN,-0.5861193,0.0006917241,NaN,-0.2879342,-14.71867,NaN,-0.9433741,-1.473686,0.4260005,14.10496,NaN,NaN,-0.4870766,0.8182101,7.189722E-07,1.056485,-1.150373E-09,1.324436
936.4084,-0.2033062,0.0005719742,NaN,-0.5861151,0.0006911125,NaN,-0.2863126,-14.71789,NaN,-0.9423136,-1.482657,0.4248713,14.11443,NaN,NaN,-0.4871511,0.8192764,6.975145E-07,1.069563,1.233813E-09,1.323037
936.4232,-0.2023051,0.0005724269,NaN,-0.5861145,0.0006914663,NaN,-0.2847147,-14.71944,NaN,-0.9413125,-1.474356,0.4237523,14.10571,NaN,NaN,-0.4872242,0.8175322,6.832094E-07,1.057456,4.171974E-11,1.329013
936.4371,-0.2023051,0.0005724269,NaN,-0.5861145,0.0006914663,NaN,-0.2847147,-14.71944,NaN,-0.9413125,-1.474356,0.4237523,14.10571,NaN,NaN,-0.4872242,0.8175322,6.832094E-07,1.057456,4.171974E-11,1.329013
936.4514,-0.2017179,0.0005721885,NaN,-0.586129,0.0006919286,NaN,-0.2825202,-14.71777,NaN,-0.9403069,-1.469223,0.4219236,14.10001,NaN,NaN,-0.4873418,0.8190333,6.593676E-07,1.049875,3.021952E-09,1.3184
936.4669,-0.2013879,0.000572097,NaN,-0.5861523,0.0006911251,NaN,-0.2802671,-14.71859,NaN,-0.9393923,-1.481887,0.4200928,14.11366,NaN,NaN,-0.487457,0.8186816,6.402941E-07,1.06845,2.425905E-09,1.324408
936.4819,-0.2012175,0.0005712255,NaN,-0.5861809,0.0006905986,NaN,-0.2780246,-14.71836,NaN,-0.9385538,-1.471013,0.4182768,14.10201,NaN,NaN,-0.48757,0.8186381,6.25989E-07,1.052525,3.021952E-09,1.323182
936.4968,-0.2012175,0.0005712255,NaN,-0.5861809,0.0006905986,NaN,-0.2780246,-14.71836,NaN,-0.9385538,-1.471013,0.4182768,14.10201,NaN,NaN,-0.48757,0.8186381,6.25989E-07,1.052525,3.021952E-09,1.323182
936.5114,-0.2014869,0.000570208,NaN,-0.5862259,0.0006907216,NaN,-0.2751884,-14.71839,NaN,-0.9377243,-1.468787,0.415757,14.09963,NaN,NaN,-0.4877266,0.8185309,6.021472E-07,1.049268,3.617998E-09,1.32254
936.5271,-0.2020253,0.0005702355,NaN,-0.5862805,0.0006902984,NaN,-0.2723063,-14.71825,NaN,-0.9369953,-1.481272,0.4132444,14.11294,NaN,NaN,-0.4878802,0.8191296,5.830737E-07,1.067518,6.002184E-09,1.326221
936.5419,-0.2027267,0.0005705157,NaN,-0.5863403,0.0006901467,NaN,-0.2694495,-14.7198,NaN,-0.9363484,-1.477495,0.410757,14.10907,NaN,NaN,-0.4880307,0.8174782,5.675765E-07,1.06204,4.810091E-09,1.332503
936.5568,-0.2027267,0.0005705157,NaN,-0.5863403,0.0006901467,NaN,-0.2694495,-14.7198,NaN,-0.9363484,-1.477495,0.410757,14.10907,NaN,NaN,-0.4880307,0.8174782,5.675765E-07,1.06204,4.810091E-09,1.332503
936.5711,-0.2035251,0.0005702771,NaN,-0.5864028,0.0006906668,NaN,-0.2666448,-14.71845,NaN,-0.9357629,-1.469862,0.4083032,14.10076,NaN,NaN,-0.4881783,0.8185875,5.496951E-07,1.050827,6.59823E-09,1.323228
936.5869,-0.2047212,0.0005706899,NaN,-0.5864802,0.0006907033,NaN,-0.2632667,-14.71971,NaN,-0.9351719,-1.479581,0.4051581,14.1113,NaN,NaN,-0.4883688,0.8176798,5.246611E-07,1.065107,4.171952E-11,1.333393
936.6017,-0.2061562,0.0005704819,NaN,-0.5865657,0.0006892182,NaN,-0.2598586,-14.71867,NaN,-0.9346706,-1.485129,0.4020345,14.11709,NaN,NaN,-0.4885556,0.818853,5.055876E-07,1.073175,1.829859E-09,1.332022
936.6176,-0.2061562,0.0005704819,NaN,-0.5865657,0.0006892182,NaN,-0.2598586,-14.71867,NaN,-0.9346706,-1.485129,0.4020345,14.11709,NaN,NaN,-0.4885556,0.818853,5.055876E-07,1.073175,1.829859E-09,1.332022
936.632,-0.2077316,0.0005695592,NaN,-0.5866554,0.0006881283,NaN,-0.2564879,-14.71766,NaN,-0.9342435,-1.474934,0.3989488,14.10608,NaN,NaN,-0.4887387,0.8196367,4.900904E-07,1.05822,-1.150373E-09,1.32503
936.6466,-0.2093861,0.0005692209,NaN,-0.586747,0.0006883026,NaN,-0.2531796,-14.71838,NaN,-0.933872,-1.470061,0.3959083,14.10095,NaN,NaN,-0.4889182,0.8187668,4.72209E-07,1.051116,-2.342466E-09,1.327043
936.6617,-0.2114234,0.0005691548,NaN,-0.5868527,0.000689045,NaN,-0.2493052,-14.71856,NaN,-0.9334899,-1.468725,0.3921831,14.09955,NaN,NaN,-0.4891401,0.8185325,4.45983E-07,1.049175,6.377658E-10,1.329051
936.6764,-0.2114234,0.0005691548,NaN,-0.5868527,0.000689045,NaN,-0.2493052,-14.71856,NaN,-0.9334899,-1.468725,0.3921831,14.09955,NaN,NaN,-0.4891401,0.8185325,4.45983E-07,1.049175,6.377658E-10,1.329051
936.6906,-0.2136868,0.000569493,NaN,-0.5869659,0.0006903543,NaN,-0.2454124,-14.71841,NaN,-0.933194,-1.468759,0.3884909,14.09957,NaN,NaN,-0.4893576,0.8186684,4.269095E-07,1.049219,3.021952E-09,1.331576
936.7062,-0.2160787,0.0005687883,NaN,-0.5870827,0.0006904735,NaN,-0.2415675,-14.71838,NaN,-0.9329695,-1.467992,0.384847,14.09874,NaN,NaN,-0.4895708,0.8186598,4.102202E-07,1.048098,4.171952E-11,1.327163
936.7213,-0.2185388,0.0005677528,NaN,-0.5872008,0.0006897001,NaN,-0.2377953,-14.71914,NaN,-0.9327983,-1.473569,0.3812585,14.10481,NaN,NaN,-0.4897797,0.8181134,3.935309E-07,1.0563,1.829859E-09,1.333416
936.7364,-0.2185388,0.0005677528,NaN,-0.5872008,0.0006897001,NaN,-0.2377953,-14.71914,NaN,-0.9327983,-1.473569,0.3812585,14.10481,NaN,NaN,-0.4897797,0.8181134,3.935309E-07,1.0563,1.829859E-09,1.333416
936.7507,-0.2213714,0.0005667242,NaN,-0.5873325,0.0006894461,NaN,-0.2334646,-14.71845,NaN,-0.9326136,-1.467901,0.3769896,14.09867,NaN,NaN,-0.4900305,0.8186113,3.708811E-07,1.047982,1.829859E-09,1.327499
936.7663,-0.22442,0.0005664055,NaN,-0.5874712,0.000688576,NaN,-0.2291273,-14.71933,NaN,-0.9325129,-1.480938,0.3727645,14.11272,NaN,NaN,-0.4902763,0.8182287,3.506155E-07,1.067099,3.617998E-09,1.335765
936.7813,-0.2275875,0.0005660853,NaN,-0.5876129,0.0006888157,NaN,-0.2248484,-14.71909,NaN,-0.9324816,-1.469288,0.3685977,14.10025,NaN,NaN,-0.4905172,0.8181598,3.363104E-07,1.05005,4.171952E-11,1.331493
936.7965,-0.2275875,0.0005660853,NaN,-0.5876129,0.0006888157,NaN,-0.2248484,-14.71909,NaN,-0.9324816,-1.469288,0.3685977,14.10025,NaN,NaN,-0.4905172,0.8181598,3.363104E-07,1.05005,4.171952E-11,1.331493
936.8105,-0.2311555,0.0005655098,NaN,-0.5877691,0.00068749,NaN,-0.2200122,-14.71855,NaN,-0.9324496,-1.481998,0.3637514,14.11373,NaN,NaN,-0.4907993,0.8191609,3.136606E-07,1.0686,-4.130606E-09,1.332678
936.8273,-0.2349534,0.0005645389,NaN,-0.5879323,0.0006871833,NaN,-0.2151808,-14.71831,NaN,-0.9325108,-1.469511,0.3589574,14.10034,NaN,NaN,-0.4910758,0.8190802,2.93395E-07,1.05031,-2.342466E-09,1.328432
936.8409,-0.2388752,0.0005642021,NaN,-0.5880985,0.0006860553,NaN,-0.2104209,-14.71882,NaN,-0.9326472,-1.48295,0.3542304,14.11477,NaN,NaN,-0.4913468,0.8190545,2.80282E-07,1.070001,-3.534559E-09,1.330267
936.8559,-0.2388752,0.0005642021,NaN,-0.5880985,0.0006860553,NaN,-0.2104209,-14.71882,NaN,-0.9326472,-1.48295,0.3542304,14.11477,NaN,NaN,-0.4913468,0.8190545,2.80282E-07,1.070001,-3.534559E-09,1.330267
936.8701,-0.2428553,0.0005636836,NaN,-0.5882652,0.0006860929,NaN,-0.2057568,-14.71814,NaN,-0.9328386,-1.471642,0.3495771,14.10259,NaN,NaN,-0.4916125,0.81945,2.67169E-07,1.053419,-4.726652E-09,1.327576
936.8873,-0.2471952,0.0005630144,NaN,-0.5884449,0.0006859991,NaN,-0.2005521,-14.71905,NaN,-0.9330152,-1.471683,0.3442502,14.10275,NaN,NaN,-0.4919188,0.8185335,2.433272E-07,1.053519,-7.110838E-09,1.331851
936.9007,-0.2517363,0.0005631972,NaN,-0.5886306,0.0006854449,NaN,-0.1953655,-14.71912,NaN,-0.933274,-1.482296,0.3389882,14.11408,NaN,NaN,-0.4922191,0.8188125,2.266379E-07,1.069041,-7.110838E-09,1.33514
936.916,-0.2517363,0.0005631972,NaN,-0.5886306,0.0006854449,NaN,-0.1953655,-14.71912,NaN,-0.933274,-1.482296,0.3389882,14.11408,NaN,NaN,-0.4922191,0.8188125,2.266379E-07,1.069041,-7.110838E-09,1.33514
936.9302,-0.2563805,0.0005624749,NaN,-0.5888183,0.0006848544,NaN,-0.1902595,-14.71917,NaN,-0.9336001,-1.470632,0.3338034,14.10161,NaN,NaN,-0.4925134,0.81848,2.051802E-07,1.051969,-5.918745E-09,1.332609
936.946,-0.2610669,0.0005618017,NaN,-0.5890061,0.0006844736,NaN,-0.1852566,-14.71903,NaN,-0.9339755,-1.474703,0.3287017,14.10595,NaN,NaN,-0.4928019,0.8187591,1.872988E-07,1.05792,-5.322698E-09,1.333021
936.9609,-0.2661,0.0005611796,NaN,-0.5892065,0.0006845173,NaN,-0.1797177,-14.71956,NaN,-0.9343312,-1.469629,0.3229271,14.10059,NaN,NaN,-0.4931306,0.8180699,1.622648E-07,1.050524,-6.514791E-09,1.33309
936.9757,-0.2661,0.0005611796,NaN,-0.5892065,0.0006845173,NaN,-0.1797177,-14.71956,NaN,-0.9343312,-1.469629,0.3229271,14.10059,NaN,NaN,-0.4931306,0.8180699,1.622648E-07,1.050524,-6.514791E-09,1.33309
936.9899,-0.2713232,0.0005619079,NaN,-0.5894125,0.0006845702,NaN,-0.174206,-14.71978,NaN,-0.9347654,-1.481807,0.3172276,14.11362,NaN,NaN,-0.4934527,0.8182924,1.38423E-07,1.068341,-1.247526E-08,1.338625
937.0054,-0.2766394,0.0005625334,NaN,-0.5896201,0.0006839977,NaN,-0.1687828,-14.72067,NaN,-0.9352643,-1.483621,0.3116139,14.11566,NaN,NaN,-0.4937685,0.8174427,1.193495E-07,1.071028,-1.426339E-08,1.339915
937.0214,-0.2819886,0.0005632378,NaN,-0.5898274,0.0006835246,NaN,-0.1634701,-14.71832,NaN,-0.9358104,-1.483933,0.3060912,14.11574,NaN,NaN,-0.4940781,0.8197905,1.014681E-07,1.071416,-1.783967E-08,1.329798
937.0355,-0.2819886,0.0005632378,NaN,-0.5898274,0.0006835246,NaN,-0.1634701,-14.71832,NaN,-0.9358104,-1.483933,0.3060912,14.11574,NaN,NaN,-0.4940781,0.8197905,1.014681E-07,1.071416,-1.783967E-08,1.329798
937.0497,-0.2876761,0.0005638237,NaN,-0.5900471,0.0006845049,NaN,-0.1576267,-14.7188,NaN,-0.9363343,-1.472531,0.2998954,14.10358,NaN,NaN,-0.4944274,0.8190594,7.643417E-08,1.054732,-1.545549E-08,1.331789
937.065,-0.2935454,0.0005642864,NaN,-0.5902719,0.0006840742,NaN,-0.1518199,-14.71852,NaN,-0.9369347,-1.482408,0.2937839,14.11411,NaN,NaN,-0.4947698,0.8196692,5.736068E-08,1.069179,-1.664758E-08,1.327502
937.08,-0.2994997,0.0005648322,NaN,-0.5904981,0.0006845751,NaN,-0.1461093,-14.72069,NaN,-0.9375981,-1.475547,0.2877664,14.10701,NaN,NaN,-0.4951054,0.8173432,3.709511E-08,1.059205,-1.664758E-08,1.338001
937.095,-0.2994997,0.0005648322,NaN,-0.5904981,0.0006845751,NaN,-0.1461093,-14.72069,NaN,-0.9375981,-1.475547,0.2877664,14.10701,NaN,NaN,-0.4951054,0.8173432,3.709511E-08,1.059205,-1.664758E-08,1.338001
937.1092,-0.3058214,0.0005651536,NaN,-0.5907373,0.0006856925,NaN,-0.1398687,-14.71947,NaN,-0.9382522,-1.469194,0.2810746,14.10008,NaN,NaN,-0.4954802,0.8183622,8.484877E-09,1.049872,-1.664758E-08,1.331277
937.125,-0.3123401,0.0005656144,NaN,-0.5909818,0.0006858479,NaN,-0.1336748,-14.71997,NaN,-0.938992,-1.480472,0.274475,14.11219,NaN,NaN,-0.4958476,0.8182789,-1.297279E-08,1.066392,-1.42634E-08,1.33133
937.14,-0.3189499,0.0005655199,NaN,-0.5912276,0.0006863508,NaN,-0.1275886,-14.71943,NaN,-0.939801,-1.46903,0.2679774,14.09991,NaN,NaN,-0.4962077,0.8185244,-3.681465E-08,1.049639,-1.783967E-08,1.323869
937.155,-0.3189499,0.0005655199,NaN,-0.5912276,0.0006863508,NaN,-0.1275886,-14.71943,NaN,-0.939801,-1.46903,0.2679774,14.09991,NaN,NaN,-0.4962077,0.8185244,-3.681465E-08,1.049639,-1.783967E-08,1.323869
937.1691,-0.3255859,0.0005655353,NaN,-0.5914725,0.0006856598,NaN,-0.1216314,-14.72038,NaN,-0.9406596,-1.481413,0.2615863,14.11327,NaN,NaN,-0.4965608,0.8180441,-6.18486E-08,1.067801,-1.42634E-08,1.330744
937.1849,-0.3325503,0.000565087,NaN,-0.5917292,0.0006854266,NaN,-0.115158,-14.71952,NaN,-0.9414958,-1.469743,0.2545224,14.10071,NaN,NaN,-0.4969526,0.8186178,-9.403511E-08,1.050706,-1.30713E-08,1.324905
937.1999,-0.3325503,0.000565087,NaN,-0.5917292,0.0006854266,NaN,-0.115158,-14.71952,NaN,-0.9414958,-1.469743,0.2545224,14.10071,NaN,NaN,-0.4969526,0.8186178,-9.403511E-08,1.050706,-1.30713E-08,1.324905
937.2141,-0.3396845,0.0005644767,NaN,-0.5919905,0.0006855255,NaN,-0.1087413,-14.72036,NaN,-0.9424073,-1.467674,0.2475611,14.09861,NaN,NaN,-0.4973367,0.8177063,-1.17877E-07,1.047718,-1.009107E-08,1.327786
937.2308,-0.3468907,0.0005645372,NaN,-0.5922524,0.0006859244,NaN,-0.1024384,-14.72174,NaN,-0.9433804,-1.473552,0.2407102,14.10506,NaN,NaN,-0.4977133,0.8165637,-1.429109E-07,1.056375,-9.495024E-09,1.337996
937.2448,-0.3541084,0.0005650647,NaN,-0.5925132,0.0006856683,NaN,-0.09626915,-14.72141,NaN,-0.944398,-1.48175,0.2339734,14.11373,NaN,NaN,-0.4980823,0.8171549,-1.655607E-07,1.068323,-1.30713E-08,1.338984
937.2596,-0.3541084,0.0005650647,NaN,-0.5925132,0.0006856683,NaN,-0.09626915,-14.72141,NaN,-0.944398,-1.48175,0.2339734,14.11373,NaN,NaN,-0.4980823,0.8171549,-1.655607E-07,1.068323,-1.30713E-08,1.338984
937.2737,-0.361643,0.0005651937,NaN,-0.5927855,0.0006862564,NaN,-0.08958649,-14.72071,NaN,-0.9453891,-1.469022,0.2265614,14.10008,NaN,NaN,-0.4984899,0.8175449,-2.013235E-07,1.049699,-1.187921E-08,1.33008
937.2895,-0.3693378,0.0005643017,NaN,-0.5930621,0.0006857816,NaN,-0.08296689,-14.72116,NaN,-0.9464523,-1.4676,0.2192604,14.09861,NaN,NaN,-0.4988894,0.8170491,-2.299337E-07,1.047637,-1.187921E-08,1.331735
937.3045,-0.377096,0.0005629207,NaN,-0.5933391,0.0006849521,NaN,-0.07646646,-14.72085,NaN,-0.947575,-1.467515,0.212077,14.09847,NaN,NaN,-0.4992811,0.8173494,-2.549677E-07,1.04749,-1.396537E-08,1.33299
937.3196,-0.377096,0.0005629207,NaN,-0.5933391,0.0006849521,NaN,-0.07646646,-14.72085,NaN,-0.947575,-1.467515,0.212077,14.09847,NaN,NaN,-0.4992811,0.8173494,-2.549677E-07,1.04749,-1.396537E-08,1.33299
937.3343,-0.3852006,0.0005615129,NaN,-0.5936285,0.000684489,NaN,-0.06945275,-14.72091,NaN,-0.9486841,-1.466902,0.2042166,14.09781,NaN,NaN,-0.4997107,0.8172638,-2.883463E-07,1.046592,-1.396537E-08,1.33282
937.3513,-0.3934809,0.0005597776,NaN,-0.5939221,0.0006839393,NaN,-0.06251089,-14.72083,NaN,-0.9498746,-1.4665,0.1964746,14.09736,NaN,NaN,-0.5001319,0.8173291,-3.181486E-07,1.045995,-1.277328E-08,1.332417
937.3647,-0.4018315,0.0005579656,NaN,-0.5942162,0.0006834331,NaN,-0.05569815,-14.72077,NaN,-0.9511309,-1.466353,0.1888579,14.09719,NaN,NaN,-0.5005447,0.8173775,-3.479509E-07,1.045773,-1.038909E-08,1.332332
937.3798,-0.4018315,0.0005579656,NaN,-0.5942162,0.0006834331,NaN,-0.05569815,-14.72077,NaN,-0.9511309,-1.466353,0.1888579,14.09719,NaN,NaN,-0.5005447,0.8173775,-3.479509E-07,1.045773,-1.038909E-08,1.332332
937.3941,-0.4101873,0.0005571255,NaN,-0.5945086,0.0006825794,NaN,-0.0490337,-14.72212,NaN,-0.9524341,-1.478316,0.1813692,14.11013,NaN,NaN,-0.5009494,0.8165094,-3.759651E-07,1.063321,-1.575351E-08,1.344975
937.4096,-0.4188514,0.0005567481,NaN,-0.5948122,0.0006813707,NaN,-0.04186738,-14.72214,NaN,-0.9537118,-1.481434,0.1732023,14.11344,NaN,NaN,-0.5013919,0.8165581,-4.117279E-07,1.067869,-1.724363E-08,1.343219
937.4255,-0.4276651,0.0005568133,NaN,-0.5951195,0.0006811513,NaN,-0.0347805,-14.7208,NaN,-0.955061,-1.475102,0.1651627,14.10653,NaN,NaN,-0.5018257,0.8177222,-4.534511E-07,1.05857,-1.664758E-08,1.34014
937.4393,-0.4276651,0.0005568133,NaN,-0.5951195,0.0006811513,NaN,-0.0347805,-14.7208,NaN,-0.955061,-1.475102,0.1651627,14.10653,NaN,NaN,-0.5018257,0.8177222,-4.534511E-07,1.05857,-1.664758E-08,1.34014
937.4537,-0.4365306,0.0005563362,NaN,-0.5954268,0.0006810353,NaN,-0.0278268,-14.72063,NaN,-0.9564689,-1.468247,0.1572555,14.0992,NaN,NaN,-0.5022509,0.8176686,-4.868297E-07,1.048543,-1.128316E-08,1.336335
937.4692,-0.4453879,0.0005553861,NaN,-0.5957322,0.0006805189,NaN,-0.02102412,-14.72062,NaN,-0.9579191,-1.472075,0.1494827,14.10328,NaN,NaN,-0.5026676,0.8178124,-5.178241E-07,1.054141,-1.217723E-08,1.337658
937.4841,-0.4545428,0.0005555442,NaN,-0.5960487,0.0006798892,NaN,-0.01372106,-14.72088,NaN,-0.9593405,-1.481447,0.1410275,14.11331,NaN,NaN,-0.5031219,0.8178558,-5.559711E-07,1.067856,-1.158119E-08,1.342944
937.4991,-0.4545428,0.0005555442,NaN,-0.5960487,0.0006798892,NaN,-0.01372106,-14.72088,NaN,-0.9593405,-1.481447,0.1410275,14.11331,NaN,NaN,-0.5031219,0.8178558,-5.559711E-07,1.067856,-1.158119E-08,1.342944
937.5134,-0.4638387,0.0005558197,NaN,-0.5963686,0.0006812457,NaN,-0.006501879,-14.72157,NaN,-0.9608307,-1.467402,0.132707,14.09841,NaN,NaN,-0.5035672,0.8168077,-5.875615E-07,1.047348,-5.918746E-09,1.34428
937.5291,-0.4731788,0.0005551295,NaN,-0.5966884,0.0006814943,NaN,0.0005804696,-14.72086,NaN,-0.9623779,-1.467958,0.1245251,14.0989,NaN,NaN,-0.5040038,0.8175188,-6.18556E-07,1.048123,-6.514793E-09,1.337872
937.5442,-0.4825038,0.0005546678,NaN,-0.5970061,0.0006812302,NaN,0.00750855,-14.72268,NaN,-0.963966,-1.474746,0.1164834,14.1064,NaN,NaN,-0.5044317,0.8159542,-6.543188E-07,1.058146,-2.044445E-09,1.348137
937.5594,-0.4825038,0.0005546678,NaN,-0.5970061,0.0006812302,NaN,0.00750855,-14.72268,NaN,-0.963966,-1.474746,0.1164834,14.1064,NaN,NaN,-0.5044317,0.8159542,-6.543188E-07,1.058146,-2.044445E-09,1.348137
937.5733,-0.4921204,0.0005540519,NaN,-0.5973348,0.0006812969,NaN,0.01493479,-14.72118,NaN,-0.965525,-1.468359,0.1077546,14.09942,NaN,NaN,-0.5048969,0.8172426,-6.95446E-07,1.048763,-1.895433E-09,1.339438
937.5889,-0.5018721,0.0005539195,NaN,-0.5976669,0.0006805679,NaN,0.02227232,-14.72221,NaN,-0.9671517,-1.480732,0.09916724,14.11275,NaN,NaN,-0.5053529,0.8166661,-7.329969E-07,1.066894,-4.130607E-09,1.346677
937.6038,-0.5116622,0.0005536792,NaN,-0.5979985,0.0006806881,NaN,0.02946913,-14.72099,NaN,-0.9688346,-1.470267,0.09072482,14.10146,NaN,NaN,-0.5057999,0.817619,-7.711439E-07,1.05157,-2.193456E-09,1.339771
937.6188,-0.5116622,0.0005536792,NaN,-0.5979985,0.0006806881,NaN,0.02946913,-14.72099,NaN,-0.9688346,-1.470267,0.09072482,14.10146,NaN,NaN,-0.5057999,0.817619,-7.711439E-07,1.05157,-2.193456E-09,1.339771
937.6343,-0.5217749,0.0005537709,NaN,-0.5983417,0.0006813465,NaN,0.03716382,-14.72177,NaN,-0.9705022,-1.470353,0.08159327,14.10166,NaN,NaN,-0.5062839,0.8168316,-8.122711E-07,1.051736,-9.94206E-09,1.344167
937.6487,-0.5320393,0.0005541902,NaN,-0.5986883,0.0006809176,NaN,0.04476203,-14.72137,NaN,-0.9722473,-1.482369,0.07261096,14.11439,NaN,NaN,-0.5067583,0.8176543,-8.575706E-07,1.069257,-1.158119E-08,1.341952
937.6636,-0.5423502,0.0005541395,NaN,-0.5990344,0.0006810778,NaN,0.05221091,-14.7207,NaN,-0.9740555,-1.470309,0.06378095,14.10145,NaN,NaN,-0.5072234,0.8180407,-8.951216E-07,1.051605,-1.158119E-08,1.333526
937.6786,-0.5423502,0.0005541395,NaN,-0.5990344,0.0006810778,NaN,0.05221091,-14.7207,NaN,-0.9740555,-1.470309,0.06378095,14.10145,NaN,NaN,-0.5072234,0.8180407,-8.951216E-07,1.051605,-1.158119E-08,1.333526
937.6929,-0.5526428,0.0005542332,NaN,-0.5993781,0.0006803636,NaN,0.05949409,-14.72179,NaN,-0.9759087,-1.480779,0.05510367,14.11276,NaN,NaN,-0.5076792,0.8173326,-9.350567E-07,1.066964,-1.329482E-08,1.340598
937.7083,-0.563221,0.0005546405,NaN,-0.5997325,0.0006797638,NaN,0.06726645,-14.72227,NaN,-0.9777368,-1.480238,0.0457329,14.11223,NaN,NaN,-0.5081719,0.8168363,-9.857206E-07,1.06619,-9.793048E-09,1.341813
937.7234,-0.5739261,0.0005547699,NaN,-0.6000897,0.0006798776,NaN,0.07493731,-14.72062,NaN,-0.9796334,-1.470731,0.0365187,14.10191,NaN,NaN,-0.5086548,0.8182483,-1.029232E-06,1.052242,-1.355559E-08,1.330967
937.7384,-0.5739261,0.0005547699,NaN,-0.6000897,0.0006798776,NaN,0.07493731,-14.72062,NaN,-0.9796334,-1.470731,0.0365187,14.10191,NaN,NaN,-0.5086548,0.8182483,-1.029232E-06,1.052242,-1.355559E-08,1.330967
937.7527,-0.5846604,0.0005546813,NaN,-0.6004462,0.0006801163,NaN,0.08245698,-14.72139,NaN,-0.9815868,-1.46931,0.02746288,14.10049,NaN,NaN,-0.5091282,0.8174334,-1.071551E-06,1.0502,-1.42634E-08,1.333002
937.7682,-0.595364,0.0005555201,NaN,-0.6008002,0.0006801066,NaN,0.08981012,-14.7218,NaN,-0.9835809,-1.481858,0.0185651,14.11391,NaN,NaN,-0.5095922,0.8174812,-1.112082E-06,1.068548,-1.296886E-08,1.339546
937.7834,-0.6063438,0.0005560977,NaN,-0.6011646,0.0006794502,NaN,0.09765242,-14.72263,NaN,-0.9855482,-1.482981,0.008967893,14.11519,NaN,NaN,-0.510093,0.8166667,-1.16215E-06,1.070215,-9.560218E-09,1.341197
937.7983,-0.6063438,0.0005560977,NaN,-0.6011646,0.0006794502,NaN,0.09765242,-14.72263,NaN,-0.9855482,-1.482981,0.008967893,14.11519,NaN,NaN,-0.510093,0.8166667,-1.16215E-06,1.070215,-9.560218E-09,1.341197
937.8137,-0.6174429,0.0005560545,NaN,-0.601532,0.0006796789,NaN,0.1053907,-14.72149,NaN,-0.987582,-1.470156,-0.000466221,14.10141,NaN,NaN,-0.5105838,0.8174983,-1.208046E-06,1.051446,-1.473837E-08,1.330391
937.829,-0.6285647,0.0005564615,NaN,-0.6018984,0.0006802155,NaN,0.1129759,-14.72107,NaN,-0.9896711,-1.473946,-0.009736325,14.10539,NaN,NaN,-0.511065,0.8180434,-1.250961E-06,1.056963,-1.943224E-08,1.329541
937.8428,-0.63965,0.0005570714,NaN,-0.6022623,0.0006802197,NaN,0.120393,-14.72264,NaN,-0.9918001,-1.480241,-0.0188434,14.11231,NaN,NaN,-0.5115367,0.8166732,-1.295069E-06,1.066243,-1.697354E-08,1.339897
937.8577,-0.63965,0.0005570714,NaN,-0.6022623,0.0006802197,NaN,0.120393,-14.72264,NaN,-0.9918001,-1.480241,-0.0188434,14.11231,NaN,NaN,-0.5115367,0.8166732,-1.295069E-06,1.066243,-1.697354E-08,1.339897
937.8718,-0.6510065,0.0005573371,NaN,-0.6026366,0.0006810959,NaN,0.1282984,-14.7217,NaN,-0.9939033,-1.469333,-0.02865612,14.10058,NaN,NaN,-0.512045,0.8173338,-1.349905E-06,1.05028,-1.622849E-08,1.331722
937.8873,-0.6624774,0.0005577177,NaN,-0.6030136,0.000681452,NaN,0.1360967,-14.72294,NaN,-0.9960725,-1.475442,-0.03829932,14.10726,NaN,NaN,-0.5125431,0.8163158,-1.398781E-06,1.059269,-1.578145E-08,1.339023
937.9023,-0.6739663,0.0005575814,NaN,-0.6033896,0.0006817249,NaN,0.1437398,-14.72189,NaN,-0.9982965,-1.46929,-0.04777298,14.10058,NaN,NaN,-0.5130315,0.8171656,-1.444676E-06,1.050246,-1.086407E-08,1.330359
937.9172,-0.6739663,0.0005575814,NaN,-0.6033896,0.0006817249,NaN,0.1437398,-14.72189,NaN,-0.9982965,-1.46929,-0.04777298,14.10058,NaN,NaN,-0.5130315,0.8171656,-1.444676E-06,1.050246,-1.086407E-08,1.330359
937.9316,-0.6857581,0.0005573076,NaN,-0.6037766,0.0006821874,NaN,0.151871,-14.72208,NaN,-1.000509,-1.467921,-0.05795379,14.09915,NaN,NaN,-0.5135561,0.8169191,-1.501897E-06,1.048255,-1.458936E-08,1.332271
937.9475,-0.6976816,0.0005572665,NaN,-0.6041663,0.0006831746,NaN,0.1598882,-14.72265,NaN,-1.002798,-1.467312,-0.06795683,14.09858,NaN,NaN,-0.5140703,0.8163247,-1.562693E-06,1.047396,-1.369529E-08,1.337026
937.9625,-0.7096317,0.0005572415,NaN,-0.6045549,0.0006841377,NaN,0.1677428,-14.72299,NaN,-1.005149,-1.467163,-0.07778272,14.09846,NaN,NaN,-0.5145744,0.8159777,-1.616934E-06,1.047197,-1.071506E-08,1.33775
937.9771,-0.7096317,0.0005572415,NaN,-0.6045549,0.0006841377,NaN,0.1677428,-14.72299,NaN,-1.005149,-1.467163,-0.07778272,14.09846,NaN,NaN,-0.5145744,0.8159777,-1.616934E-06,1.047197,-1.071506E-08,1.33775
937.9916,-0.7215438,0.0005573806,NaN,-0.6049406,0.0006850533,NaN,0.1754207,-14.72358,NaN,-1.007544,-1.469056,-0.08743353,14.10055,NaN,NaN,-0.5150686,0.8154571,-1.669982E-06,1.049989,-1.13111E-08,1.341693
938.0073,-0.7337229,0.0005584173,NaN,-0.6053365,0.0006855954,NaN,0.1835803,-14.72318,NaN,-1.00992,-1.48109,-0.09779818,14.11326,NaN,NaN,-0.5155989,0.8162837,-1.734355E-06,1.06751,-1.667552E-08,1.343239
938.0221,-0.7460098,0.0005589814,NaN,-0.6057347,0.0006869701,NaN,0.1916231,-14.7225,NaN,-1.012364,-1.4699,-0.1079789,14.10128,NaN,NaN,-0.5161188,0.8166963,-1.789787E-06,1.051152,-1.667552E-08,1.337661
938.0381,-0.7460098,0.0005589814,NaN,-0.6057347,0.0006869701,NaN,0.1916231,-14.7225,NaN,-1.012364,-1.4699,-0.1079789,14.10128,NaN,NaN,-0.5161188,0.8166963,-1.789787E-06,1.051152,-1.667552E-08,1.337661
938.0523,-0.758307,0.0005594831,NaN,-0.6061316,0.0006873621,NaN,0.199503,-14.72361,NaN,-1.014864,-1.477285,-0.1179773,14.10929,NaN,NaN,-0.5166284,0.8158566,-1.847008E-06,1.061991,-1.518541E-08,1.342545
938.0668,-0.7705547,0.0005600307,NaN,-0.6065255,0.0006868943,NaN,0.2072068,-14.72328,NaN,-1.017404,-1.482552,-0.127796,14.11484,NaN,NaN,-0.5171281,0.8163269,-1.901844E-06,1.069659,-1.607948E-08,1.341988
938.0814,-0.7830608,0.0005599914,NaN,-0.6069295,0.0006866546,NaN,0.2153932,-14.72207,NaN,-1.019926,-1.475923,-0.1383357,14.10764,NaN,NaN,-0.5176638,0.8173721,-1.969197E-06,1.059938,-1.876168E-08,1.334533
938.0966,-0.7830608,0.0005599914,NaN,-0.6069295,0.0006866546,NaN,0.2153932,-14.72207,NaN,-1.019926,-1.475923,-0.1383357,14.10764,NaN,NaN,-0.5176638,0.8173721,-1.969197E-06,1.059938,-1.876168E-08,1.334533
938.1108,-0.7956682,0.0005597919,NaN,-0.6073359,0.0006867332,NaN,0.2234616,-14.72213,NaN,-1.022513,-1.472703,-0.1486852,14.10421,NaN,NaN,-0.5181889,0.8172066,-2.029398E-06,1.055235,-1.846366E-08,1.333097
938.1264,-0.8082802,0.0005600321,NaN,-0.6077409,0.0006877562,NaN,0.2313667,-14.72304,NaN,-1.025155,-1.469356,-0.1588473,14.10076,NaN,NaN,-0.5187037,0.8161861,-2.089002E-06,1.050389,-1.995378E-08,1.33883
938.1414,-0.8208377,0.0005602881,NaN,-0.6081429,0.000688498,NaN,0.2390953,-14.72366,NaN,-1.027837,-1.471296,-0.1688251,14.10291,NaN,NaN,-0.5192084,0.815631,-2.149799E-06,1.05325,-1.756959E-08,1.339916
938.1564,-0.8208377,0.0005602881,NaN,-0.6081429,0.000688498,NaN,0.2390953,-14.72366,NaN,-1.027837,-1.471296,-0.1688251,14.10291,NaN,NaN,-0.5192084,0.815631,-2.149799E-06,1.05325,-1.756959E-08,1.339916
938.1708,-0.8336496,0.0005598119,NaN,-0.608555,0.0006882219,NaN,0.2473065,-14.72297,NaN,-1.030502,-1.471762,-0.1795308,14.1033,NaN,NaN,-0.5197492,0.816334,-2.220133E-06,1.053895,-9.820988E-09,1.338054
938.1865,-0.8465586,0.000559878,NaN,-0.6089693,0.0006873863,NaN,0.2553981,-14.72386,NaN,-1.033233,-1.481452,-0.1900403,14.11372,NaN,NaN,-0.5202792,0.8157696,-2.28689E-06,1.06808,-1.101308E-08,1.344108
938.2012,-0.8594683,0.0005591166,NaN,-0.6093821,0.0006865716,NaN,0.2633252,-14.72307,NaN,-1.036018,-1.471823,-0.200357,14.1034,NaN,NaN,-0.5207989,0.8163146,-2.346494E-06,1.054004,-8.628895E-09,1.338875
938.2163,-0.8594683,0.0005591166,NaN,-0.6093821,0.0006865716,NaN,0.2633252,-14.72307,NaN,-1.036018,-1.471823,-0.200357,14.1034,NaN,NaN,-0.5207989,0.8163146,-2.346494E-06,1.054004,-8.628895E-09,1.338875
938.2304,-0.8726646,0.0005584093,NaN,-0.6098056,0.0006862112,NaN,0.2717346,-14.72294,NaN,-1.038801,-1.4747,-0.2114023,14.10644,NaN,NaN,-0.5213543,0.8165377,-2.419808E-06,1.058199,-1.101308E-08,1.338237
938.247,-0.885976,0.0005588919,NaN,-0.6102313,0.0006858258,NaN,0.2800182,-14.72368,NaN,-1.041661,-1.482293,-0.2222423,14.11462,NaN,NaN,-0.5218987,0.8160286,-2.485373E-06,1.06932,-1.51854E-08,1.345082
938.261,-0.8992973,0.0005589971,NaN,-0.6106553,0.0006862335,NaN,0.288131,-14.72272,NaN,-1.044581,-1.469884,-0.2328814,14.10132,NaN,NaN,-0.5224325,0.8166968,-2.553322E-06,1.051182,-7.436801E-09,1.335864
938.2759,-0.8992973,0.0005589971,NaN,-0.6106553,0.0006862335,NaN,0.288131,-14.72272,NaN,-1.044581,-1.469884,-0.2328814,14.10132,NaN,NaN,-0.5224325,0.8166968,-2.553322E-06,1.051182,-7.436801E-09,1.335864
938.2916,-0.9125642,0.0005592305,NaN,-0.6110761,0.0006855838,NaN,0.2960608,-14.72385,NaN,-1.047545,-1.481618,-0.2433243,14.11395,NaN,NaN,-0.5229558,0.8159871,-2.615311E-06,1.068367,-9.820987E-09,1.342585
938.306,-0.9260824,0.0005591969,NaN,-0.6115067,0.0006858863,NaN,0.3044678,-14.72298,NaN,-1.050502,-1.469529,-0.2545042,14.101,NaN,NaN,-0.5235149,0.8165681,-2.689817E-06,1.050697,-6.840755E-09,1.334077
938.3206,-0.9396927,0.0005590999,NaN,-0.6119393,0.0006861122,NaN,0.3127477,-14.72362,NaN,-1.053527,-1.470803,-0.2654733,14.10244,NaN,NaN,-0.5240629,0.8159763,-2.758362E-06,1.052588,-3.860523E-09,1.336501
938.3358,-0.9396927,0.0005590999,NaN,-0.6119393,0.0006861122,NaN,0.3127477,-14.72362,NaN,-1.053527,-1.470803,-0.2654733,14.10244,NaN,NaN,-0.5240629,0.8159763,-2.758362E-06,1.052588,-3.860523E-09,1.336501
938.35,-0.9532973,0.0005598136,NaN,-0.61237,0.0006859828,NaN,0.3208578,-14.72291,NaN,-1.056607,-1.481471,-0.2762372,14.11367,NaN,NaN,-0.5246001,0.8170509,-2.824524E-06,1.06811,-2.66843E-09,1.338403
938.366,-0.9668367,0.0005600442,NaN,-0.6127975,0.0006865866,NaN,0.3287864,-14.7229,NaN,-1.059728,-1.46983,-0.2868007,14.10126,NaN,NaN,-0.5251269,0.816785,-2.887108E-06,1.051103,-8.802904E-10,1.334006
938.3809,-0.9806198,0.0005599509,NaN,-0.6132349,0.0006866821,NaN,0.3371934,-14.7232,NaN,-1.062841,-1.471366,-0.2981088,14.10293,NaN,NaN,-0.5256894,0.8165356,-2.961614E-06,1.053358,3.118025E-10,1.334049
938.3961,-0.9806198,0.0005599509,NaN,-0.6132349,0.0006866821,NaN,0.3371934,-14.7232,NaN,-1.062841,-1.471366,-0.2981088,14.10293,NaN,NaN,-0.5256894,0.8165356,-2.961614E-06,1.053358,3.118025E-10,1.334049
938.4101,-0.994489,0.0005602348,NaN,-0.6136742,0.0006875133,NaN,0.3454733,-14.72363,NaN,-1.066021,-1.470429,-0.3092002,14.10199,NaN,NaN,-0.5262407,0.816065,-3.031948E-06,1.052009,-4.456569E-09,1.3389
938.4257,-1.008348,0.000559939,NaN,-0.6141117,0.0006882469,NaN,0.3535836,-14.72289,NaN,-1.069255,-1.468125,-0.3200813,14.09943,NaN,NaN,-0.5267813,0.8167214,-3.099897E-06,1.048607,-4.456569E-09,1.333164
938.4415,-1.022137,0.0005598554,NaN,-0.6145458,0.0006888183,NaN,0.361513,-14.72372,NaN,-1.072527,-1.47116,-0.3307576,14.10277,NaN,NaN,-0.5273113,0.8160016,-3.166654E-06,1.053082,-7.436801E-09,1.337935
938.4557,-1.022137,0.0005598554,NaN,-0.6145458,0.0006888183,NaN,0.361513,-14.72372,NaN,-1.072527,-1.47116,-0.3307576,14.10277,NaN,NaN,-0.5273113,0.8160016,-3.166654E-06,1.053082,-7.436801E-09,1.337935
938.4698,-1.036166,0.0005601621,NaN,-0.6149899,0.000688415,NaN,0.3699207,-14.72377,NaN,-1.075797,-1.48154,-0.3421859,14.1138,NaN,NaN,-0.527877,0.8162997,-3.247716E-06,1.068226,-2.054982E-08,1.341067
938.4855,-1.050278,0.0005596227,NaN,-0.6154359,0.0006881523,NaN,0.3782007,-14.72283,NaN,-1.079133,-1.469432,-0.3533914,14.10081,NaN,NaN,-0.5284315,0.8169429,-3.320434E-06,1.050517,-2.293401E-08,1.334918
938.5005,-1.064377,0.0005596014,NaN,-0.61588,0.0006884609,NaN,0.386311,-14.7224,NaN,-1.082521,-1.471041,-0.3643814,14.10247,NaN,NaN,-0.5289752,0.8174154,-3.392556E-06,1.05285,-1.935773E-08,1.331707
938.5154,-1.064377,0.0005596014,NaN,-0.61588,0.0006884609,NaN,0.386311,-14.7224,NaN,-1.082521,-1.471041,-0.3643814,14.10247,NaN,NaN,-0.5289752,0.8174154,-3.392556E-06,1.05285,-1.935773E-08,1.331707
938.5298,-1.078748,0.0005598158,NaN,-0.6163344,0.0006878448,NaN,0.3948986,-14.72393,NaN,-1.085922,-1.480554,-0.3761224,14.11282,NaN,NaN,-0.5295543,0.8162214,-3.475704E-06,1.066831,-1.816564E-08,1.340762
938.5456,-1.093221,0.0005596026,NaN,-0.6167907,0.0006881446,NaN,0.4033532,-14.72272,NaN,-1.089398,-1.470689,-0.3876308,14.10218,NaN,NaN,-0.530122,0.8171685,-3.555574E-06,1.052389,-1.697354E-08,1.33336
938.5606,-1.10769,0.0005590707,NaN,-0.6172449,0.0006882381,NaN,0.4116324,-14.72295,NaN,-1.092933,-1.469612,-0.3989149,14.10106,NaN,NaN,-0.5306786,0.8168907,-3.628888E-06,1.050827,-1.816564E-08,1.332147
938.5754,-1.10769,0.0005590707,NaN,-0.6172449,0.0006882381,NaN,0.4116324,-14.72295,NaN,-1.092933,-1.469612,-0.3989149,14.10106,NaN,NaN,-0.5306786,0.8168907,-3.628888E-06,1.050827,-1.816564E-08,1.332147
938.5896,-1.12209,0.0005593462,NaN,-0.6176955,0.0006877418,NaN,0.4197253,-14.7227,NaN,-1.09651,-1.481391,-0.4099819,14.11356,NaN,NaN,-0.5312243,0.8175498,-3.701606E-06,1.068012,-1.339726E-08,1.336524
938.6055,-1.124969,0.0005596584,NaN,-0.6176913,0.0006885859,NaN,0.4059536,-14.72275,NaN,-1.100747,-1.470765,-0.3887865,14.10224,NaN,NaN,-0.5302388,0.81723,-3.24414E-06,1.052482,-1.697354E-08,1.333836
938.6204,-1.120792,0.0005592565,NaN,-0.6174643,0.0006889774,NaN,0.3903927,-14.72262,NaN,-1.103627,-1.468565,-0.3686276,14.09987,NaN,NaN,-0.5292782,0.8172724,-2.888301E-06,1.049262,-1.578145E-08,1.330893
938.6352,-1.120792,0.0005592565,NaN,-0.6174643,0.0006889774,NaN,0.3903927,-14.72262,NaN,-1.103627,-1.468565,-0.3686276,14.09987,NaN,NaN,-0.5292782,0.8172724,-2.888301E-06,1.049262,-1.578145E-08,1.330893
938.6505,-1.112317,0.0005590804,NaN,-0.6171093,0.0006897979,NaN,0.3745286,-14.72317,NaN,-1.105217,-1.467773,-0.3493305,14.0991,NaN,NaN,-0.528339,0.8166902,-2.601602E-06,1.048133,-2.054982E-08,1.334022
938.6652,-1.101253,0.0005590954,NaN,-0.6166784,0.0006897039,NaN,0.3589127,-14.72438,NaN,-1.105766,-1.476877,-0.3307322,14.10895,NaN,NaN,-0.5274196,0.8158261,-2.368548E-06,1.061487,-1.220517E-08,1.342114
938.6801,-1.089005,0.0005596885,NaN,-0.6162158,0.0006893044,NaN,0.3443564,-14.72379,NaN,-1.105518,-1.482179,-0.3136694,14.11451,NaN,NaN,-0.5265648,0.8165525,-2.180793E-06,1.069196,-1.220517E-08,1.342316
938.6951,-1.089005,0.0005596885,NaN,-0.6162158,0.0006893044,NaN,0.3443564,-14.72379,NaN,-1.105518,-1.482179,-0.3136694,14.11451,NaN,NaN,-0.5265648,0.8165525,-2.180793E-06,1.069196,-1.220517E-08,1.342316
938.7092,-1.076091,0.0005598399,NaN,-0.6157349,0.0006896344,NaN,0.3303043,-14.72268,NaN,-1.104768,-1.473064,-0.2970695,14.10467,NaN,NaN,-0.525727,0.8174276,-2.010622E-06,1.055845,-1.458936E-08,1.334286
938.726,-1.06283,0.0005598963,NaN,-0.6152446,0.0006889189,NaN,0.3166764,-14.72344,NaN,-1.103688,-1.479486,-0.2808881,14.11161,NaN,NaN,-0.5249057,0.8168724,-1.859524E-06,1.065263,-1.816563E-08,1.339411
938.7401,-1.049418,0.0005591767,NaN,-0.6147507,0.0006883924,NaN,0.3034158,-14.72242,NaN,-1.102394,-1.470501,-0.2650945,14.10192,NaN,NaN,-0.5241006,0.8176299,-1.715877E-06,1.0521,-1.339726E-08,1.331424
938.7552,-1.049418,0.0005591767,NaN,-0.6147507,0.0006883924,NaN,0.3034158,-14.72242,NaN,-1.102394,-1.470501,-0.2650945,14.10192,NaN,NaN,-0.5241006,0.8176299,-1.715877E-06,1.0521,-1.339726E-08,1.331424
938.7705,-1.036322,0.0005593978,NaN,-0.6142707,0.0006877159,NaN,0.2911188,-14.72355,NaN,-1.10093,-1.481398,-0.2506014,14.11368,NaN,NaN,-0.5233574,0.8168765,-1.59786E-06,1.068078,-9.820984E-09,1.340803
938.7851,-1.02348,0.0005587654,NaN,-0.613802,0.0006871606,NaN,0.2791909,-14.7226,NaN,-1.09942,-1.470016,-0.2364186,14.10145,NaN,NaN,-0.5226287,0.8175306,-1.482823E-06,1.05142,-7.436798E-09,1.333936
938.8,-1.010851,0.0005587278,NaN,-0.6133426,0.0006870016,NaN,0.267556,-14.72229,NaN,-1.097896,-1.474168,-0.2225412,14.10583,NaN,NaN,-0.5219142,0.8179868,-1.368978E-06,1.057475,-9.820984E-09,1.3319
938.8151,-1.010851,0.0005587278,NaN,-0.6133426,0.0006870016,NaN,0.267556,-14.72229,NaN,-1.097896,-1.474168,-0.2225412,14.10583,NaN,NaN,-0.5219142,0.8179868,-1.368978E-06,1.057475,-9.820984E-09,1.3319
938.8292,-0.9987556,0.0005580951,NaN,-0.6129054,0.0006868182,NaN,0.2568111,-14.72244,NaN,-1.09633,-1.468756,-0.2098867,14.10008,NaN,NaN,-0.5212598,0.8176536,-1.275399E-06,1.049573,-8.628891E-09,1.330512
938.8459,-0.9870423,0.0005573485,NaN,-0.6124843,0.0006865868,NaN,0.2463752,-14.7228,NaN,-1.094808,-1.468669,-0.1974887,14.10004,NaN,NaN,-0.5206181,0.8172899,-1.183012E-06,1.049468,-5.052613E-09,1.331425
938.8598,-0.9870423,0.0005573485,NaN,-0.6124843,0.0006865868,NaN,0.2463752,-14.7228,NaN,-1.094808,-1.468669,-0.1974887,14.10004,NaN,NaN,-0.5206181,0.8172899,-1.183012E-06,1.049468,-5.052613E-09,1.331425
938.8739,-0.975616,0.0005569015,NaN,-0.6120755,0.0006870532,NaN,0.236181,-14.72295,NaN,-1.093329,-1.467475,-0.185348,14.09879,NaN,NaN,-0.519989,0.8170896,-1.090028E-06,1.047733,-8.628891E-09,1.331988
938.8896,-0.9644177,0.0005560774,NaN,-0.6116766,0.0006872751,NaN,0.2261994,-14.72287,NaN,-1.091884,-1.466881,-0.1734628,14.09814,NaN,NaN,-0.5193722,0.8171434,-9.982373E-07,1.046861,-6.244706E-09,1.330389
938.9047,-0.9537553,0.0005565058,NaN,-0.6112996,0.0006871874,NaN,0.2170479,-14.72299,NaN,-1.090419,-1.480457,-0.1627394,14.11261,NaN,NaN,-0.5188135,0.8175429,-9.261157E-07,1.066695,-3.86052E-09,1.33582
938.9196,-0.9537553,0.0005565058,NaN,-0.6112996,0.0006871874,NaN,0.2170479,-14.72299,NaN,-1.090419,-1.480457,-0.1627394,14.11261,NaN,NaN,-0.5188135,0.8175429,-9.261157E-07,1.066695,-3.86052E-09,1.33582
938.934,-0.9434693,0.0005570754,NaN,-0.6109384,0.0006865599,NaN,0.2081621,-14.72374,NaN,-1.089014,-1.483277,-0.1522292,14.11571,NaN,NaN,-0.5182656,0.8168552,-8.516099E-07,1.070845,-3.86052E-09,1.338701
938.95,-0.9334607,0.0005573219,NaN,-0.6105888,0.0006865615,NaN,0.1994801,-14.72211,NaN,-1.087659,-1.472676,-0.141934,14.10423,NaN,NaN,-0.5177284,0.8182504,-7.806804E-07,1.055308,9.078516E-10,1.32836
938.9648,-0.9236676,0.0005577252,NaN,-0.6102483,0.0006867737,NaN,0.1909763,-14.72224,NaN,-1.086344,-1.474058,-0.1318524,14.10573,NaN,NaN,-0.5172018,0.8181592,-7.085587E-07,1.057341,3.292037E-09,1.32791
938.9799,-0.9236676,0.0005577252,NaN,-0.6102483,0.0006867737,NaN,0.1909763,-14.72224,NaN,-1.086344,-1.474058,-0.1318524,14.10573,NaN,NaN,-0.5172018,0.8181592,-7.085587E-07,1.057341,3.292037E-09,1.32791
938.9942,-0.9143961,0.0005583676,NaN,-0.609929,0.0006868223,NaN,0.1832681,-14.72426,NaN,-1.085009,-1.478701,-0.1228804,14.11095,NaN,NaN,-0.5167315,0.8162954,-6.507422E-07,1.064227,1.503898E-09,1.339318
939.0098,-0.9054862,0.0005596677,NaN,-0.6096246,0.000687186,NaN,0.1757955,-14.72288,NaN,-1.083734,-1.482695,-0.1140842,14.11503,NaN,NaN,-0.5162703,0.8177635,-5.935217E-07,1.070008,3.118051E-10,1.331901
939.0246,-0.8968382,0.0005603883,NaN,-0.6093309,0.0006880348,NaN,0.1684974,-14.72224,NaN,-1.082512,-1.474301,-0.1054657,14.106,NaN,NaN,-0.5158181,0.8182061,-5.374934E-07,1.057714,3.292037E-09,1.326645
939.0406,-0.8883902,0.0005607439,NaN,-0.6090454,0.0006892269,NaN,0.1613487,-14.72319,NaN,-1.08133,-1.467977,-0.097024,14.09937,NaN,NaN,-0.5153747,0.8170655,-4.814651E-07,1.04851,-2.668427E-09,1.329669
939.0547,-0.8883902,0.0005607439,NaN,-0.6090454,0.0006892269,NaN,0.1613487,-14.72319,NaN,-1.08133,-1.467977,-0.097024,14.09937,NaN,NaN,-0.5153747,0.8170655,-4.814651E-07,1.04851,-2.668427E-09,1.329669
939.0688,-0.880448,0.0005612888,NaN,-0.6087803,0.0006906958,NaN,0.1549659,-14.72375,NaN,-1.080127,-1.468511,-0.089646,14.10001,NaN,NaN,-0.514986,0.8165244,-4.415299E-07,1.049319,-8.802875E-10,1.33698
939.0844,-0.8728516,0.0005610146,NaN,-0.6085292,0.0006914381,NaN,0.1487919,-14.72297,NaN,-1.078985,-1.466914,-0.08241043,14.0982,NaN,NaN,-0.5146047,0.8172347,-3.980186E-07,1.046946,9.078518E-10,1.324184
939.0995,-0.8728516,0.0005610146,NaN,-0.6085292,0.0006914381,NaN,0.1487919,-14.72297,NaN,-1.078985,-1.466914,-0.08241043,14.0982,NaN,NaN,-0.5146047,0.8172347,-3.980186E-07,1.046946,9.078518E-10,1.324184
939.1139,-0.8655017,0.0005613809,NaN,-0.6082879,0.0006914294,NaN,0.1427659,-14.7241,NaN,-1.077897,-1.479462,-0.07531938,14.11172,NaN,NaN,-0.514231,0.8166034,-3.545072E-07,1.065335,-2.842411E-10,1.335668
939.1295,-0.8586809,0.0005617896,NaN,-0.6080678,0.0006908337,NaN,0.1374885,-14.72461,NaN,-1.0768,-1.481323,-0.06925549,14.11376,NaN,NaN,-0.5139104,0.8161361,-3.258969E-07,1.068071,9.252502E-09,1.337704
939.1448,-0.8522152,0.0005616715,NaN,-0.6078618,0.0006907443,NaN,0.1323986,-14.72294,NaN,-1.075775,-1.474619,-0.06330631,14.10643,NaN,NaN,-0.5135959,0.8176315,-2.960946E-07,1.058226,3.888084E-09,1.327358
939.1595,-0.8522152,0.0005616715,NaN,-0.6078618,0.0006907443,NaN,0.1323986,-14.72294,NaN,-1.075775,-1.474619,-0.06330631,14.10643,NaN,NaN,-0.5135959,0.8176315,-2.960946E-07,1.058226,3.888084E-09,1.327358
939.1739,-0.8459965,0.0005615539,NaN,-0.6076656,0.0006915056,NaN,0.1274336,-14.72334,NaN,-1.074812,-1.467276,-0.05747442,14.09865,NaN,NaN,-0.5132877,0.8170013,-2.645041E-07,1.047511,3.292038E-09,1.327043
939.1896,-0.8399575,0.0005613557,NaN,-0.6074764,0.0006923279,NaN,0.122569,-14.72356,NaN,-1.073895,-1.466518,-0.05175968,14.09787,NaN,NaN,-0.5129854,0.8167509,-2.305295E-07,1.046414,3.888084E-09,1.32788
939.2046,-0.8344007,0.0005613675,NaN,-0.6073062,0.0006917713,NaN,0.1184205,-14.72367,NaN,-1.07296,-1.480226,-0.04703735,14.11247,NaN,NaN,-0.5127349,0.8171677,-2.1086E-07,1.066427,2.099945E-09,1.331273
939.2193,-0.8344007,0.0005613675,NaN,-0.6073062,0.0006917713,NaN,0.1184205,-14.72367,NaN,-1.07296,-1.480226,-0.04703735,14.11247,NaN,NaN,-0.5127349,0.8171677,-2.1086E-07,1.066427,2.099945E-09,1.331273
939.2357,-0.8291646,0.0005616617,NaN,-0.6071486,0.0006931324,NaN,0.1144348,-14.72336,NaN,-1.07209,-1.468186,-0.04240323,14.09959,NaN,NaN,-0.5124893,0.8171645,-1.888062E-07,1.048822,2.695991E-09,1.32821
939.2505,-0.824149,0.0005619326,NaN,-0.6069995,0.0006940648,NaN,0.1105516,-14.72396,NaN,-1.071278,-1.469588,-0.03785967,14.10117,NaN,NaN,-0.5122485,0.816601,-1.673486E-07,1.050902,-4.456566E-09,1.330376
939.2643,-0.8192912,0.0005613381,NaN,-0.6068563,0.0006939959,NaN,0.1067477,-14.72373,NaN,-1.070508,-1.468325,-0.03340667,14.09978,NaN,NaN,-0.5120123,0.816777,-1.441028E-07,1.049044,-2.842411E-10,1.330316
939.2791,-0.8192912,0.0005613381,NaN,-0.6068563,0.0006939959,NaN,0.1067477,-14.72373,NaN,-1.070508,-1.468325,-0.03340667,14.09978,NaN,NaN,-0.5120123,0.816777,-1.441028E-07,1.049044,-2.842411E-10,1.330316
939.2934,-0.8148969,0.000561198,NaN,-0.6067312,0.0006933131,NaN,0.1036386,-14.72483,NaN,-1.069717,-1.479157,-0.02991449,14.11146,NaN,NaN,-0.5118266,0.8160747,-1.3397E-07,1.064917,1.503898E-09,1.33691
939.309,-0.8108066,0.0005611776,NaN,-0.6066179,0.000693802,NaN,0.1006716,-14.72359,NaN,-1.068992,-1.46977,-0.02648613,14.10133,NaN,NaN,-0.5116445,0.8170524,-1.21453E-07,1.05117,-5.052613E-09,1.329311
939.3239,-0.8069213,0.0005613146,NaN,-0.6065122,0.0006943524,NaN,0.09778702,-14.72426,NaN,-1.068323,-1.470872,-0.02312402,14.10259,NaN,NaN,-0.511466,0.8164207,-1.047637E-07,1.052812,-3.264473E-09,1.332265
939.3387,-0.8069213,0.0005613146,NaN,-0.6065122,0.0006943524,NaN,0.09778702,-14.72426,NaN,-1.068323,-1.470872,-0.02312402,14.10259,NaN,NaN,-0.511466,0.8164207,-1.047637E-07,1.052812,-3.264473E-09,1.332265
939.3535,-0.8035237,0.000561548,NaN,-0.6064255,0.0006952381,NaN,0.09558515,-14.72423,NaN,-1.067646,-1.46939,-0.02069677,14.10101,NaN,NaN,-0.5113367,0.816386,-1.041676E-07,1.050647,-8.802874E-10,1.33233
939.3687,-0.8004405,0.0005612646,NaN,-0.6063507,0.0006955412,NaN,0.09350789,-14.72366,NaN,-1.067045,-1.469411,-0.01831221,14.10094,NaN,NaN,-0.51121,0.816949,-9.761113E-08,1.050646,-8.802874E-10,1.326846
939.3837,-0.7975642,0.0005617181,NaN,-0.6062835,0.0006952091,NaN,0.09149378,-14.72288,NaN,-1.066509,-1.479698,-0.01597305,14.11178,NaN,NaN,-0.5110856,0.8180857,-8.807439E-08,1.065626,-2.668427E-09,1.326439
939.3987,-0.7975642,0.0005617181,NaN,-0.6062835,0.0006952091,NaN,0.09149378,-14.72288,NaN,-1.066509,-1.479698,-0.01597305,14.11178,NaN,NaN,-0.5110856,0.8180857,-8.807439E-08,1.065626,-2.668427E-09,1.326439
939.413,-0.7948278,0.0005625434,NaN,-0.6062213,0.0006947682,NaN,0.08951967,-14.72327,NaN,-1.066022,-1.482602,-0.01367982,14.11492,NaN,NaN,-0.5109637,0.817759,-8.151788E-08,1.069887,-2.07238E-09,1.328995
939.4287,-0.7925339,0.0005627937,NaN,-0.6061761,0.0006948505,NaN,0.08820181,-14.72317,NaN,-1.065516,-1.47564,-0.01229779,14.10748,NaN,NaN,-0.5108901,0.81769,-8.270997E-08,1.059702,-7.436798E-09,1.325807
939.4446,-0.7905219,0.0005627899,NaN,-0.6061414,0.0006953429,NaN,0.08698843,-14.72351,NaN,-1.06508,-1.468959,-0.01093848,14.10039,NaN,NaN,-0.5108178,0.8171369,-8.211392E-08,1.049947,-7.436798E-09,1.325391
939.4586,-0.7905219,0.0005627899,NaN,-0.6061414,0.0006953429,NaN,0.08698843,-14.72351,NaN,-1.06508,-1.468959,-0.01093848,14.10039,NaN,NaN,-0.5108178,0.8171369,-8.211392E-08,1.049947,-7.436798E-09,1.325391
939.4727,-0.7886919,0.0005631777,NaN,-0.6061131,0.0006949052,NaN,0.08582076,-14.72411,NaN,-1.064703,-1.481304,-0.009604509,14.11361,NaN,NaN,-0.510747,0.8169961,-8.032578E-08,1.068002,-5.648659E-09,1.330973
939.4883,-0.7869819,0.0005625269,NaN,-0.6060889,0.0006943353,NaN,0.08467665,-14.72373,NaN,-1.064372,-1.469044,-0.00829657,14.1005,NaN,NaN,-0.5106775,0.8170696,-7.79416E-08,1.050076,-2.668427E-09,1.32735
939.5031,-0.7856975,0.0005624418,NaN,-0.6060811,0.0006941303,NaN,0.08417288,-14.72304,NaN,-1.064019,-1.473903,-0.007878668,14.10558,NaN,NaN,-0.5106552,0.8179225,-8.68823E-08,1.057141,-2.668427E-09,1.326438
939.5181,-0.7856975,0.0005624418,NaN,-0.6060811,0.0006941303,NaN,0.08417288,-14.72304,NaN,-1.064019,-1.473903,-0.007878668,14.10558,NaN,NaN,-0.5106552,0.8179225,-8.68823E-08,1.057141,-2.668427E-09,1.326438
939.5324,-0.7846802,0.0005623733,NaN,-0.6060823,0.0006939585,NaN,0.08375739,-14.72385,NaN,-1.063735,-1.473056,-0.007464983,14.10478,NaN,NaN,-0.5106332,0.8170846,-9.284276E-08,1.055942,-5.648659E-09,1.325686
939.5483,-0.7838314,0.0005613962,NaN,-0.6060887,0.0006931839,NaN,0.08337164,-14.72393,NaN,-1.06351,-1.46815,-0.007058276,14.09957,NaN,NaN,-0.5106117,0.8168377,-9.522694E-08,1.048784,-9.820984E-09,1.324865
939.563,-0.7830898,0.0005610774,NaN,-0.6060982,0.0006918794,NaN,0.08299373,-14.72281,NaN,-1.06333,-1.48012,-0.006659473,14.11215,NaN,NaN,-0.5105906,0.8184006,-9.820717E-08,1.0662,-8.032845E-09,1.324258
939.5782,-0.7830898,0.0005610774,NaN,-0.6060982,0.0006918794,NaN,0.08299373,-14.72281,NaN,-1.06333,-1.48012,-0.006659473,14.11215,NaN,NaN,-0.5105906,0.8184006,-9.820717E-08,1.0662,-8.032845E-09,1.324258
939.5923,-0.7827616,0.0005612229,NaN,-0.6061233,0.0006912486,NaN,0.08324096,-14.72469,NaN,-1.063128,-1.47722,-0.007132375,14.10927,NaN,NaN,-0.5106157,0.8164304,-1.119162E-07,1.062031,-1.637749E-08,1.333007
939.6079,-0.7826885,0.0005611161,NaN,-0.6061575,0.0006913109,NaN,0.08356076,-14.72338,NaN,-1.062995,-1.469005,-0.007592531,14.10037,NaN,NaN,-0.5106403,0.8174785,-1.232411E-07,1.049988,-1.458936E-08,1.323523
939.6228,-0.7827712,0.0005608809,NaN,-0.606197,0.0006916326,NaN,0.08389464,-14.72368,NaN,-1.062922,-1.467872,-0.008042879,14.0992,NaN,NaN,-0.5106643,0.8171275,-1.3397E-07,1.048347,-1.876168E-08,1.325172
939.6387,-0.7827712,0.0005608809,NaN,-0.606197,0.0006916326,NaN,0.08389464,-14.72368,NaN,-1.062922,-1.467872,-0.008042879,14.0992,NaN,NaN,-0.5106643,0.8171275,-1.3397E-07,1.048347,-1.876168E-08,1.325172
939.6531,-0.7832935,0.0005597967,NaN,-0.606253,0.0006908725,NaN,0.08484567,-14.72456,NaN,-1.062841,-1.468497,-0.009348568,14.09999,NaN,NaN,-0.5107337,0.8162591,-1.518514E-07,1.049309,-1.101308E-08,1.329801
939.6676,-0.7840829,0.0005595363,NaN,-0.6063185,0.0006911747,NaN,0.08585496,-14.72462,NaN,-1.062839,-1.470339,-0.01062571,14.10195,NaN,NaN,-0.5108016,0.8162588,-1.691367E-07,1.051999,-1.041703E-08,1.332073
939.6825,-0.7850327,0.000559123,NaN,-0.606389,0.0006915495,NaN,0.08686306,-14.72387,NaN,-1.062904,-1.467373,-0.01187749,14.09869,NaN,NaN,-0.5108682,0.8168883,-1.810576E-07,1.047632,-6.840751E-09,1.325842
939.6975,-0.7850327,0.000559123,NaN,-0.606389,0.0006915495,NaN,0.08686306,-14.72387,NaN,-1.062904,-1.467373,-0.01187749,14.09869,NaN,NaN,-0.5108682,0.8168883,-1.810576E-07,1.047632,-6.840751E-09,1.325842
939.7119,-0.7860763,0.0005594736,NaN,-0.6064621,0.0006921547,NaN,0.08784857,-14.72526,NaN,-1.063018,-1.47382,-0.01310535,14.10575,NaN,NaN,-0.5109335,0.8157523,-1.917865E-07,1.05712,-3.264472E-09,1.336527
939.7288,-0.7875171,0.000559453,NaN,-0.6065499,0.0006917547,NaN,0.08943064,-14.72501,NaN,-1.063115,-1.476459,-0.01517539,14.10852,NaN,NaN,-0.5110433,0.8160759,-2.144362E-07,1.060958,-3.264472E-09,1.33474
939.7422,-0.7891948,0.0005589886,NaN,-0.6066457,0.0006919552,NaN,0.09105552,-14.72378,NaN,-1.063284,-1.469383,-0.01720245,14.10084,NaN,NaN,-0.511151,0.8170848,-2.364899E-07,1.050582,-8.802867E-10,1.326499
939.7576,-0.7891948,0.0005589886,NaN,-0.6066457,0.0006919552,NaN,0.09105552,-14.72378,NaN,-1.063284,-1.469383,-0.01720245,14.10084,NaN,NaN,-0.511151,0.8170848,-2.364899E-07,1.050582,-8.802867E-10,1.326499
939.7717,-0.7910101,0.0005587144,NaN,-0.6067455,0.0006918018,NaN,0.09266653,-14.72501,NaN,-1.063513,-1.473795,-0.01918987,14.10571,NaN,NaN,-0.5112565,0.8160152,-2.543713E-07,1.05709,9.078526E-10,1.334222
939.7874,-0.7929014,0.000558591,NaN,-0.6068469,0.0006923547,NaN,0.09424331,-14.72447,NaN,-1.063787,-1.469095,-0.02113931,14.10064,NaN,NaN,-0.5113599,0.8163986,-2.656962E-07,1.050208,-1.476333E-09,1.329983
939.8026,-0.7951751,0.0005581899,NaN,-0.6069625,0.0006926552,NaN,0.09640589,-14.72461,NaN,-1.064042,-1.467777,-0.02391941,14.09925,NaN,NaN,-0.5115071,0.8162027,-2.919223E-07,1.048292,9.078526E-10,1.329062
939.8174,-0.7951751,0.0005581899,NaN,-0.6069625,0.0006926552,NaN,0.09640589,-14.72461,NaN,-1.064042,-1.467777,-0.02391941,14.09925,NaN,NaN,-0.5115071,0.8162027,-2.919223E-07,1.048292,9.078526E-10,1.329062
939.8317,-0.7976729,0.0005574594,NaN,-0.6070853,0.0006929275,NaN,0.09859926,-14.72472,NaN,-1.064366,-1.466919,-0.02664298,14.09835,NaN,NaN,-0.5116513,0.8160564,-3.151681E-07,1.047045,9.078526E-10,1.328991
939.8486,-0.8002965,0.0005576108,NaN,-0.6072115,0.0006925239,NaN,0.1007671,-14.7243,NaN,-1.06475,-1.47963,-0.02931366,14.11179,NaN,NaN,-0.5117927,0.8169593,-3.342416E-07,1.06556,-8.802867E-10,1.331492
939.8623,-0.8029853,0.0005571775,NaN,-0.6073388,0.0006925577,NaN,0.1028894,-14.7247,NaN,-1.065179,-1.469237,-0.0319334,14.10077,NaN,NaN,-0.5119313,0.8162755,-3.52719E-07,1.050393,2.695992E-09,1.331884
939.8774,-0.8029853,0.0005571775,NaN,-0.6073388,0.0006925577,NaN,0.1028894,-14.7247,NaN,-1.065179,-1.469237,-0.0319334,14.10077,NaN,NaN,-0.5119313,0.8162755,-3.52719E-07,1.050393,2.695992E-09,1.331884
939.8914,-0.8060462,0.0005565723,NaN,-0.6074798,0.0006926948,NaN,0.1055869,-14.72506,NaN,-1.065587,-1.466913,-0.03537416,14.09834,NaN,NaN,-0.512113,0.8158208,-3.831174E-07,1.047017,3.118061E-10,1.330256
939.9069,-0.8093212,0.0005572124,NaN,-0.6076274,0.0006926747,NaN,0.1083034,-14.72429,NaN,-1.066064,-1.479369,-0.03874575,14.11144,NaN,NaN,-0.5122911,0.8170598,-4.075553E-07,1.065134,1.503899E-09,1.330421
939.922,-0.8127124,0.0005573413,NaN,-0.6077779,0.0006927359,NaN,0.1109832,-14.72583,NaN,-1.066601,-1.471247,-0.04205211,14.10297,NaN,NaN,-0.5124657,0.8152944,-4.308011E-07,1.053325,-2.842403E-10,1.336047
939.9369,-0.8127124,0.0005573413,NaN,-0.6077779,0.0006927359,NaN,0.1109832,-14.72583,NaN,-1.066601,-1.471247,-0.04205211,14.10297,NaN,NaN,-0.5124657,0.8152944,-4.308011E-07,1.053325,-2.842403E-10,1.336047
939.9514,-0.8165039,0.0005571012,NaN,-0.6079428,0.000693045,NaN,0.114233,-14.72525,NaN,-1.067131,-1.466817,-0.04616903,14.09818,NaN,NaN,-0.5126827,0.8157136,-4.647757E-07,1.046834,-2.07238E-09,1.331054
939.9672,-0.8205233,0.0005570893,NaN,-0.6081145,0.0006939142,NaN,0.1174899,-14.72593,NaN,-1.067739,-1.466903,-0.05020386,14.09836,NaN,NaN,-0.5128953,0.8150284,-4.957701E-07,1.046993,-2.668426E-09,1.335448
939.9821,-0.8246639,0.0005572364,NaN,-0.608289,0.0006939077,NaN,0.1206971,-14.72713,NaN,-1.068414,-1.475973,-0.05416097,14.10814,NaN,NaN,-0.5131038,0.8141848,-5.214001E-07,1.060272,-2.668426E-09,1.343727
939.997,-0.8246639,0.0005572364,NaN,-0.608289,0.0006939077,NaN,0.1206971,-14.72713,NaN,-1.068414,-1.475973,-0.05416097,14.10814,NaN,NaN,-0.5131038,0.8141848,-5.214001E-07,1.060272,-2.668426E-09,1.343727
940.0112,-0.82886,0.0005580541,NaN,-0.6084638,0.0006942804,NaN,0.123835,-14.72723,NaN,-1.069138,-1.479125,-0.05804299,14.11148,NaN,NaN,-0.5133081,0.81416,-5.45838E-07,1.064863,5.676224E-09,1.347026
940.027,-0.8334156,0.0005584626,NaN,-0.6086516,0.000694882,NaN,0.1275268,-14.72541,NaN,-1.069845,-1.472261,-0.06272979,14.10399,NaN,NaN,-0.5135543,0.8157864,-5.810048E-07,1.054796,9.078529E-10,1.336178
940.0428,-0.8381705,0.0005588387,NaN,-0.6088452,0.0006945049,NaN,0.1312141,-14.72738,NaN,-1.070624,-1.479834,-0.06732354,14.11229,NaN,NaN,-0.5137956,0.8140783,-6.119992E-07,1.065933,2.099946E-09,1.347163
940.0567,-0.8381705,0.0005588387,NaN,-0.6088452,0.0006945049,NaN,0.1312141,-14.72738,NaN,-1.070624,-1.479834,-0.06732354,14.11229,NaN,NaN,-0.5137956,0.8140783,-6.119992E-07,1.065933,2.099946E-09,1.347163
940.071,-0.8430259,0.0005580184,NaN,-0.6090407,0.0006936087,NaN,0.1348428,-14.72598,NaN,-1.071462,-1.470003,-0.07182888,14.10171,NaN,NaN,-0.5140321,0.8152226,-6.406094E-07,1.051565,2.695992E-09,1.337151
940.0865,-0.8479205,0.0005582835,NaN,-0.6092361,0.0006935375,NaN,0.1383942,-14.72564,NaN,-1.072345,-1.475411,-0.07624871,14.1074,NaN,NaN,-0.514264,0.8157519,-6.674315E-07,1.059434,-5.648658E-09,1.333417
940.1017,-0.8531618,0.0005586108,NaN,-0.609444,0.0006931988,NaN,0.1424925,-14.72741,NaN,-1.073209,-1.477164,-0.08146838,14.10949,NaN,NaN,-0.5145372,0.8140473,-7.037903E-07,1.062071,-5.648658E-09,1.34528
940.1169,-0.8531618,0.0005586108,NaN,-0.609444,0.0006931988,NaN,0.1424925,-14.72741,NaN,-1.073209,-1.477164,-0.08146838,14.10949,NaN,NaN,-0.5145372,0.8140473,-7.037903E-07,1.062071,-5.648658E-09,1.34528
940.1309,-0.8585913,0.0005588715,NaN,-0.6096573,0.0006938059,NaN,0.1465775,-14.72657,NaN,-1.074142,-1.469798,-0.08658443,14.10159,NaN,NaN,-0.514805,0.814678,-7.389571E-07,1.051316,-6.244704E-09,1.33854
940.1468,-0.8641112,0.0005585554,NaN,-0.6098722,0.0006942392,NaN,0.1505956,-14.72657,NaN,-1.075134,-1.468214,-0.09160195,14.09991,NaN,NaN,-0.5150675,0.8146179,-7.699515E-07,1.04901,-8.62889E-09,1.337377
940.1617,-0.8696615,0.0005586728,NaN,-0.6100866,0.0006944588,NaN,0.1545285,-14.72779,NaN,-1.076168,-1.474347,-0.09652419,14.10658,NaN,NaN,-0.5153248,0.8136364,-8.009459E-07,1.058008,-1.160912E-08,1.34596
940.1768,-0.8696615,0.0005586728,NaN,-0.6100866,0.0006944588,NaN,0.1545285,-14.72779,NaN,-1.076168,-1.474347,-0.09652419,14.10658,NaN,NaN,-0.5153248,0.8136364,-8.009459E-07,1.058008,-1.160912E-08,1.34596
940.1929,-0.8755499,0.0005586775,NaN,-0.6103132,0.0006951467,NaN,0.159001,-14.72664,NaN,-1.077185,-1.468406,-0.1022425,14.10015,NaN,NaN,-0.5156229,0.8145947,-8.408811E-07,1.049313,-1.458935E-08,1.338406
940.2067,-0.8816183,0.0005585945,NaN,-0.6105449,0.0006949404,NaN,0.1634515,-14.72753,NaN,-1.078269,-1.474968,-0.1078471,14.10723,NaN,NaN,-0.5159152,0.8139476,-8.796241E-07,1.058919,-2.2934E-08,1.343217
940.2214,-0.8877692,0.0005584724,NaN,-0.6107777,0.0006953256,NaN,0.167827,-14.72704,NaN,-1.079412,-1.468872,-0.1133436,14.10071,NaN,NaN,-0.5162016,0.8142562,-9.159829E-07,1.050024,-2.174191E-08,1.340114
940.2374,-0.8877692,0.0005584724,NaN,-0.6107777,0.0006953256,NaN,0.167827,-14.72704,NaN,-1.079412,-1.468872,-0.1133436,14.10071,NaN,NaN,-0.5162016,0.8142562,-9.159829E-07,1.050024,-2.174191E-08,1.340114
940.2519,-0.8942876,0.0005591319,NaN,-0.6110236,0.0006952356,NaN,0.1727386,-14.72726,NaN,-1.080549,-1.481009,-0.1196292,14.11359,NaN,NaN,-0.5165284,0.8144735,-9.630705E-07,1.067706,-2.174191E-08,1.345783
940.2664,-0.9010012,0.0005602846,NaN,-0.6112747,0.0006953346,NaN,0.1776183,-14.7275,NaN,-1.081765,-1.483345,-0.1257896,14.11609,NaN,NaN,-0.5168486,0.8142931,-1.00539E-06,1.071118,-2.2934E-08,1.347313
940.2813,-0.9078036,0.0005612639,NaN,-0.6115268,0.0006959596,NaN,0.182412,-14.72842,NaN,-1.083045,-1.478138,-0.1318312,14.11067,NaN,NaN,-0.5171624,0.8132595,-1.045921E-06,1.06356,-2.889447E-08,1.349204
940.2963,-0.9078036,0.0005612639,NaN,-0.6115268,0.0006959596,NaN,0.182412,-14.72842,NaN,-1.083045,-1.478138,-0.1318312,14.11067,NaN,NaN,-0.5171624,0.8132595,-1.045921E-06,1.06356,-2.889447E-08,1.349204
940.3107,-0.9146293,0.0005614088,NaN,-0.6117779,0.0006966714,NaN,0.1871023,-14.72697,NaN,-1.084372,-1.469772,-0.1377579,14.10164,NaN,NaN,-0.5174702,0.8144841,-1.084068E-06,1.051329,-3.18747E-08,1.339545
940.3263,-0.9217833,0.0005616705,NaN,-0.6120408,0.0006973479,NaN,0.1923159,-14.72788,NaN,-1.085686,-1.471665,-0.1444731,14.10376,NaN,NaN,-0.5178178,0.8136485,-1.135328E-06,1.054129,-2.710633E-08,1.344173
940.3412,-0.9291055,0.0005619467,NaN,-0.612308,0.0006984624,NaN,0.1974891,-14.72759,NaN,-1.08707,-1.468502,-0.1510546,14.10037,NaN,NaN,-0.5181585,0.8138307,-1.180031E-06,1.049508,-2.114586E-08,1.3422
940.3562,-0.9291055,0.0005619467,NaN,-0.612308,0.0006984624,NaN,0.1974891,-14.72759,NaN,-1.08707,-1.468502,-0.1510546,14.10037,NaN,NaN,-0.5181585,0.8138307,-1.180031E-06,1.049508,-2.114586E-08,1.3422
940.3705,-0.9364972,0.0005622473,NaN,-0.6125759,0.000699026,NaN,0.2025703,-14.72863,NaN,-1.088512,-1.472991,-0.1575089,14.10526,NaN,NaN,-0.5184925,0.8129657,-1.221755E-06,1.056094,-1.995377E-08,1.347956
940.3863,-0.9438978,0.0005616247,NaN,-0.6128424,0.0006989496,NaN,0.207543,-14.7274,NaN,-1.089997,-1.468493,-0.1638403,14.10034,NaN,NaN,-0.51882,0.8140397,-1.26169E-06,1.049494,-2.114586E-08,1.341685
940.4013,-0.9516152,0.000561137,NaN,-0.6131205,0.0006989229,NaN,0.2130346,-14.72715,NaN,-1.091467,-1.470267,-0.1709598,14.10218,NaN,NaN,-0.519187,0.8143528,-1.311162E-06,1.052063,-2.233796E-08,1.34008
940.4164,-0.9516152,0.000561137,NaN,-0.6131205,0.0006989229,NaN,0.2130346,-14.72715,NaN,-1.091467,-1.470267,-0.1709598,14.10218,NaN,NaN,-0.519187,0.8143528,-1.311162E-06,1.052063,-2.233796E-08,1.34008
940.4306,-0.9594913,0.0005612103,NaN,-0.6134027,0.0006993938,NaN,0.2184797,-14.7284,NaN,-1.093005,-1.472204,-0.1779367,14.1044,NaN,NaN,-0.5195466,0.8131737,-1.357653E-06,1.054947,-2.710633E-08,1.347297
940.4473,-0.9674284,0.0005607603,NaN,-0.6136852,0.0006996888,NaN,0.2238272,-14.72722,NaN,-1.094599,-1.468329,-0.1847783,14.10014,NaN,NaN,-0.5198992,0.8142185,-1.402953E-06,1.049255,-2.114586E-08,1.3393
940.4612,-0.9753667,0.0005598167,NaN,-0.6139662,0.0006997017,NaN,0.2290608,-14.72707,NaN,-1.096236,-1.467423,-0.1914893,14.09916,NaN,NaN,-0.520245,0.8143314,-1.442292E-06,1.047928,-2.114586E-08,1.338217
940.476,-0.9753667,0.0005598167,NaN,-0.6139662,0.0006997017,NaN,0.2290608,-14.72707,NaN,-1.096236,-1.467423,-0.1914893,14.09916,NaN,NaN,-0.520245,0.8143314,-1.442292E-06,1.047928,-2.114586E-08,1.338217
940.4901,-0.9836149,0.000558917,NaN,-0.6142585,0.0006995583,NaN,0.2348084,-14.72742,NaN,-1.097858,-1.468428,-0.1989885,14.10027,NaN,NaN,-0.5206298,0.8140153,-1.497724E-06,1.049411,-2.591424E-08,1.339818
940.5057,-0.992015,0.0005578537,NaN,-0.6145548,0.0006993623,NaN,0.2405033,-14.72714,NaN,-1.099548,-1.467506,-0.2063367,14.09926,NaN,NaN,-0.5210071,0.8142535,-1.548388E-06,1.048053,-2.114587E-08,1.338339
940.5209,-1.00047,0.0005579579,NaN,-0.6148511,0.0006990104,NaN,0.246095,-14.72782,NaN,-1.101294,-1.479558,-0.2135416,14.11211,NaN,NaN,-0.5213768,0.814034,-1.595476E-06,1.065636,-2.233796E-08,1.346462
940.5357,-1.00047,0.0005579579,NaN,-0.6148511,0.0006990104,NaN,0.246095,-14.72782,NaN,-1.101294,-1.479558,-0.2135416,14.11211,NaN,NaN,-0.5213768,0.814034,-1.595476E-06,1.065636,-2.233796E-08,1.346462
940.5499,-1.009265,0.0005579411,NaN,-0.6151595,0.0006993701,NaN,0.2521985,-14.72686,NaN,-1.10304,-1.470066,-0.2215297,14.10194,NaN,NaN,-0.5217854,0.8147416,-1.655677E-06,1.05178,-2.114587E-08,1.338297
940.5657,-1.018227,0.0005579605,NaN,-0.6154719,0.0006991699,NaN,0.2582408,-14.72809,NaN,-1.104863,-1.47495,-0.2293558,14.10729,NaN,NaN,-0.5221857,0.8136827,-1.709917E-06,1.058957,-1.995377E-08,1.345957
940.5806,-1.027252,0.0005580433,NaN,-0.6157843,0.0006996147,NaN,0.2641707,-14.72741,NaN,-1.106748,-1.469859,-0.2370286,14.10181,NaN,NaN,-0.5225782,0.8142007,-1.758197E-06,1.051516,-1.995377E-08,1.341065
940.5957,-1.027252,0.0005580433,NaN,-0.6157843,0.0006996147,NaN,0.2641707,-14.72741,NaN,-1.106748,-1.469859,-0.2370286,14.10181,NaN,NaN,-0.5225782,0.8142007,-1.758197E-06,1.051516,-1.995377E-08,1.341065
940.6099,-1.036273,0.0005583139,NaN,-0.6160947,0.0007004286,NaN,0.2699725,-14.72689,NaN,-1.108679,-1.47021,-0.2445542,14.1021,NaN,NaN,-0.522963,0.8147241,-1.804688E-06,1.052,-1.399331E-08,1.337567
