JMolnar6/NonAnthroHands_User_Study/HandsLoggerWithURDF/tempdata/files/Reachy_JointMotion_gesture_5_25.csv
Time,r_shoulder,r_shoulder_x,r_upper_arm,r_forearm,r_wrist,r_wrist2hand,
266.3791,0.04500328,-2.150064E-08,NaN,-0.3270013,-1.36245E-07,NaN,0.4673062,-2.337783E-08,NaN,-2.147776,9.004338E-06,-0.5314612,-6.44204E-09,NaN,NaN,-0.0200209,-2.23518E-10,-3.66774E-07,-1.139931E-07,1.242965E-08,-2.622604E-08
266.3955,0.04500327,-2.14996E-08,NaN,-0.3270013,-1.362457E-07,NaN,0.4663544,-2.306955E-08,NaN,-2.147801,9.004966E-06,-0.5336009,-6.748196E-09,NaN,NaN,-0.02002009,-2.23518E-10,-3.566412E-07,-1.139955E-07,1.242965E-08,-2.861022E-08
266.4117,0.04500327,-2.149857E-08,NaN,-0.3270013,-1.362464E-07,NaN,0.4655331,-2.27686E-08,NaN,-2.147843,9.00559E-06,-0.5361052,-7.047022E-09,NaN,NaN,-0.02002065,-2.23518E-10,-3.628997E-07,-1.139978E-07,1.004546E-08,-2.622604E-08
266.429,0.04500327,-2.149754E-08,NaN,-0.3270013,-1.362471E-07,NaN,0.464918,-2.247484E-08,NaN,-2.147887,9.006214E-06,-0.5385518,-7.338661E-09,NaN,NaN,-0.02002116,-2.281746E-10,-3.715424E-07,-1.140001E-07,1.123755E-08,-2.861022E-08
266.4453,0.04500326,-2.14965E-08,NaN,-0.3270013,-1.362478E-07,NaN,0.4644294,-2.218813E-08,NaN,-2.147926,9.006829E-06,-0.5409081,-7.62325E-09,NaN,NaN,-0.02002151,-2.281746E-10,-3.760127E-07,-1.140024E-07,1.123755E-08,-2.622604E-08
266.4641,0.04500327,-2.149547E-08,NaN,-0.3270013,-1.362484E-07,NaN,0.4649152,-2.190832E-08,NaN,-2.147934,9.007448E-06,-0.5409375,-7.900931E-09,NaN,NaN,-0.02002259,-2.328312E-10,-3.888277E-07,-1.140047E-07,1.362174E-08,-2.861022E-08
266.4791,0.04500327,-2.149547E-08,NaN,-0.3270013,-1.362484E-07,NaN,0.4649152,-2.190832E-08,NaN,-2.147934,9.007448E-06,-0.5409375,-7.900931E-09,NaN,NaN,-0.02002259,-2.328312E-10,-3.888277E-07,-1.140047E-07,1.362174E-08,-2.861022E-08
266.4949,0.04500327,-2.149443E-08,NaN,-0.3270013,-1.362491E-07,NaN,0.46531,-2.163529E-08,NaN,-2.14792,9.008063E-06,-0.5405448,-8.171838E-09,NaN,NaN,-0.02002223,-2.328312E-10,-3.846554E-07,-1.14007E-07,1.600593E-08,-2.622604E-08
266.5121,0.04500327,-2.14934E-08,NaN,-0.3270013,-1.362498E-07,NaN,0.4655223,-2.136891E-08,NaN,-2.147902,9.008678E-06,-0.5401616,-8.436103E-09,NaN,NaN,-0.02002191,-2.328312E-10,-3.79589E-07,-1.140092E-07,1.600593E-08,-2.861022E-08
266.532,0.04500328,-2.149237E-08,NaN,-0.3270012,-1.362504E-07,NaN,0.466531,-2.110762E-08,NaN,-2.147861,9.009302E-06,-0.537571,-8.695272E-09,NaN,NaN,-0.02002255,-2.421444E-10,-3.873376E-07,-1.140115E-07,1.600593E-08,-2.622604E-08
266.549,0.04500329,-2.149133E-08,NaN,-0.3270012,-1.362511E-07,NaN,0.4673556,-2.085273E-08,NaN,-2.147804,9.009917E-06,-0.5346487,-8.94803E-09,NaN,NaN,-0.0200219,-2.421444E-10,-3.79291E-07,-1.140138E-07,1.362174E-08,-2.861022E-08
266.5653,0.04500329,-2.14903E-08,NaN,-0.3270012,-1.362518E-07,NaN,0.4679483,-2.060414E-08,NaN,-2.147749,9.010527E-06,-0.5318047,-9.194503E-09,NaN,NaN,-0.02002135,-2.374878E-10,-3.733306E-07,-1.14016E-07,1.242965E-08,-2.622604E-08
266.5819,0.04500329,-2.148927E-08,NaN,-0.3270012,-1.362525E-07,NaN,0.4684022,-2.036171E-08,NaN,-2.147702,9.011127E-06,-0.5290651,-9.434814E-09,NaN,NaN,-0.02002097,-2.23518E-10,-3.688602E-07,-1.140183E-07,1.004546E-08,-2.861022E-08
266.5986,0.04500329,-2.148927E-08,NaN,-0.3270012,-1.362525E-07,NaN,0.4684022,-2.036171E-08,NaN,-2.147702,9.011127E-06,-0.5290651,-9.434814E-09,NaN,NaN,-0.02002097,-2.23518E-10,-3.688602E-07,-1.140183E-07,1.004546E-08,-2.861022E-08
266.6154,0.04500331,-2.148823E-08,NaN,-0.3270012,-1.362531E-07,NaN,0.4696878,-2.012531E-08,NaN,-2.147635,9.011737E-06,-0.5241525,-9.669082E-09,NaN,NaN,-0.02002151,-2.188614E-10,-3.751187E-07,-1.140205E-07,1.123755E-08,-2.622604E-08
266.6325,0.04500331,-2.14872E-08,NaN,-0.3270012,-1.362538E-07,NaN,0.4708017,-1.989485E-08,NaN,-2.147553,9.012357E-06,-0.5189446,-9.897426E-09,NaN,NaN,-0.02002072,-2.23518E-10,-3.670721E-07,-1.140227E-07,1.123755E-08,-2.861022E-08
266.6492,0.04500332,-2.148616E-08,NaN,-0.3270012,-1.362544E-07,NaN,0.4716834,-1.967019E-08,NaN,-2.147472,9.012972E-06,-0.5138549,-1.011996E-08,NaN,NaN,-0.02002002,-2.23518E-10,-3.590254E-07,-1.14025E-07,1.242965E-08,-2.622604E-08
266.6659,0.04500333,-2.148513E-08,NaN,-0.3270012,-1.362551E-07,NaN,0.4733266,-1.944981E-08,NaN,-2.147372,9.013591E-06,-0.5066517,-1.033822E-08,NaN,NaN,-0.02002027,-2.281746E-10,-3.617076E-07,-1.140272E-07,1.362174E-08,-2.861022E-08
266.6827,0.04500334,-2.14841E-08,NaN,-0.3270012,-1.362557E-07,NaN,0.4747539,-1.923504E-08,NaN,-2.147259,9.014206E-06,-0.4992136,-1.055087E-08,NaN,NaN,-0.02001926,-2.281746E-10,-3.497867E-07,-1.140294E-07,1.481383E-08,-2.622604E-08
266.6997,0.04500334,-2.14841E-08,NaN,-0.3270012,-1.362557E-07,NaN,0.4747539,-1.923504E-08,NaN,-2.147259,9.014206E-06,-0.4992136,-1.055087E-08,NaN,NaN,-0.02001926,-2.281746E-10,-3.497867E-07,-1.140294E-07,1.481383E-08,-2.622604E-08
266.7162,0.04500335,-2.148306E-08,NaN,-0.3270012,-1.362564E-07,NaN,0.4759229,-1.902577E-08,NaN,-2.147148,9.014821E-06,-0.4919459,-1.075802E-08,NaN,NaN,-0.02001838,-2.281746E-10,-3.378658E-07,-1.140316E-07,1.481383E-08,-2.861022E-08
266.7334,0.04500337,-2.148203E-08,NaN,-0.3270011,-1.362571E-07,NaN,0.4778358,-1.882189E-08,NaN,-2.147022,9.015435E-06,-0.4826069,-1.095977E-08,NaN,NaN,-0.02001844,-2.281746E-10,-3.41144E-07,-1.140338E-07,1.362174E-08,-2.622604E-08
266.7505,0.04500338,-2.1481E-08,NaN,-0.3270011,-1.362577E-07,NaN,0.4795166,-1.862329E-08,NaN,-2.146883,9.01605E-06,-0.4730797,-1.115625E-08,NaN,NaN,-0.02001727,-2.281746E-10,-3.265409E-07,-1.14036E-07,1.600593E-08,-2.861022E-08
266.7686,0.04500339,-2.147997E-08,NaN,-0.3270011,-1.362584E-07,NaN,0.4809267,-1.842989E-08,NaN,-2.146749,9.016665E-06,-0.4637659,-1.134753E-08,NaN,NaN,-0.02001622,-2.281746E-10,-3.137259E-07,-1.140381E-07,1.600593E-08,-2.622604E-08
266.7855,0.0450034,-2.147893E-08,NaN,-0.3270011,-1.36259E-07,NaN,0.4821639,-1.824156E-08,NaN,-2.146625,9.017284E-06,-0.4546855,-1.153374E-08,NaN,NaN,-0.02001535,-2.328312E-10,-3.013579E-07,-1.140403E-07,1.362174E-08,-2.861022E-08
266.8022,0.04500341,-2.14779E-08,NaN,-0.327001,-1.362597E-07,NaN,0.484201,-1.805679E-08,NaN,-2.146488,9.017899E-06,-0.4435435,-1.171638E-08,NaN,NaN,-0.02001533,-2.328312E-10,-2.986757E-07,-1.140425E-07,1.481383E-08,-2.622604E-08
266.8189,0.04500341,-2.14779E-08,NaN,-0.327001,-1.362597E-07,NaN,0.484201,-1.805679E-08,NaN,-2.146488,9.017899E-06,-0.4435435,-1.171638E-08,NaN,NaN,-0.02001533,-2.328312E-10,-2.986757E-07,-1.140425E-07,1.481383E-08,-2.622604E-08
266.8351,0.04500343,-2.147687E-08,NaN,-0.327001,-1.362603E-07,NaN,0.4860259,-1.787694E-08,NaN,-2.146336,9.018514E-06,-0.4322391,-1.189412E-08,NaN,NaN,-0.02001408,-2.328312E-10,-2.806453E-07,-1.140446E-07,1.004546E-08,-2.861022E-08
266.8529,0.04500344,-2.147584E-08,NaN,-0.327001,-1.362609E-07,NaN,0.4875863,-1.770191E-08,NaN,-2.146189,9.019138E-06,-0.4211776,-1.206703E-08,NaN,NaN,-0.02001293,-2.421444E-10,-2.647011E-07,-1.140468E-07,1.123755E-08,-2.622604E-08
266.8696,0.04500346,-2.147481E-08,NaN,-0.3270009,-1.362616E-07,NaN,0.4898794,-1.753159E-08,NaN,-2.146029,9.019753E-06,-0.4081045,-1.223523E-08,NaN,NaN,-0.02001266,-2.421444E-10,-2.599327E-07,-1.140489E-07,1.004546E-08,-2.861022E-08
266.8863,0.04500347,-2.147377E-08,NaN,-0.3270009,-1.362622E-07,NaN,0.4919181,-1.736593E-08,NaN,-2.145858,9.020363E-06,-0.3949243,-1.239877E-08,NaN,NaN,-0.02001126,-2.374878E-10,-2.398162E-07,-1.14051E-07,8.853369E-09,-2.622604E-08
266.9026,0.04500349,-2.147274E-08,NaN,-0.3270009,-1.362629E-07,NaN,0.493669,-1.72034E-08,NaN,-2.145694,9.020963E-06,-0.382033,-1.255918E-08,NaN,NaN,-0.02000999,-2.23518E-10,-2.224563E-07,-1.140532E-07,6.469183E-09,-2.861022E-08
266.9197,0.04500349,-2.147274E-08,NaN,-0.3270009,-1.362629E-07,NaN,0.493669,-1.72034E-08,NaN,-2.145694,9.020963E-06,-0.382033,-1.255918E-08,NaN,NaN,-0.02000999,-2.23518E-10,-2.224563E-07,-1.140532E-07,6.469183E-09,-2.861022E-08
266.936,0.0450035,-2.147171E-08,NaN,-0.3270009,-1.362635E-07,NaN,0.4952321,-1.704535E-08,NaN,-2.145544,9.021574E-06,-0.3694462,-1.271511E-08,NaN,NaN,-0.0200089,-2.188614E-10,-2.058415E-07,-1.140553E-07,5.27709E-09,-2.622604E-08
266.9535,0.04500352,-2.147068E-08,NaN,-0.3270008,-1.362641E-07,NaN,0.4975804,-1.689168E-08,NaN,-2.145384,9.022179E-06,-0.3548527,-1.286666E-08,NaN,NaN,-0.02000857,-2.095481E-10,-2.013712E-07,-1.140574E-07,2.892904E-09,-2.861022E-08
266.9701,0.04500354,-2.146965E-08,NaN,-0.3270008,-1.362648E-07,NaN,0.499693,-1.674232E-08,NaN,-2.145214,9.022794E-06,-0.3401753,-1.301391E-08,NaN,NaN,-0.02000717,-2.095481E-10,-1.790567E-07,-1.140595E-07,5.27709E-09,-2.622604E-08
266.9882,0.04500356,-2.146861E-08,NaN,-0.3270008,-1.362654E-07,NaN,0.501525,-1.659717E-08,NaN,-2.145052,9.023409E-06,-0.3258121,-1.315694E-08,NaN,NaN,-0.02000589,-2.095481E-10,-1.594244E-07,-1.140616E-07,6.469183E-09,-2.861022E-08
267.0035,0.04500357,-2.146758E-08,NaN,-0.3270007,-1.36266E-07,NaN,0.5031704,-1.645615E-08,NaN,-2.144903,9.024024E-06,-0.3117801,-1.329583E-08,NaN,NaN,-0.02000478,-2.095481E-10,-1.409283E-07,-1.140637E-07,5.27709E-09,-2.622604E-08
267.0205,0.04500359,-2.146655E-08,NaN,-0.3270007,-1.362666E-07,NaN,0.505599,-1.631778E-08,NaN,-2.144748,9.024629E-06,-0.29576,-1.343209E-08,NaN,NaN,-0.02000435,-2.002349E-10,-1.324906E-07,-1.140657E-07,4.084997E-09,-2.861022E-08
267.0374,0.04500359,-2.146655E-08,NaN,-0.3270007,-1.362666E-07,NaN,0.505599,-1.631778E-08,NaN,-2.144748,9.024629E-06,-0.29576,-1.343209E-08,NaN,NaN,-0.02000435,-2.002349E-10,-1.324906E-07,-1.140657E-07,4.084997E-09,-2.861022E-08
267.0533,0.04500361,-2.146552E-08,NaN,-0.3270007,-1.362673E-07,NaN,0.5077832,-1.61834E-08,NaN,-2.144586,9.025244E-06,-0.27969,-1.356434E-08,NaN,NaN,-0.02000299,-2.002349E-10,-1.09133E-07,-1.140678E-07,6.469183E-09,-2.622604E-08
267.0706,0.04500363,-2.146449E-08,NaN,-0.3270006,-1.362679E-07,NaN,0.5096819,-1.605296E-08,NaN,-2.144432,9.025864E-06,-0.2639644,-1.369267E-08,NaN,NaN,-0.02000177,-2.048915E-10,-8.514211E-08,-1.140699E-07,6.469183E-09,-2.861022E-08
267.0876,0.04500365,-2.146345E-08,NaN,-0.3270006,-1.362685E-07,NaN,0.5122969,-1.592636E-08,NaN,-2.144274,9.026478E-06,-0.2462975,-1.381715E-08,NaN,NaN,-0.02000121,-2.048915E-10,-7.676021E-08,-1.14072E-07,6.469183E-09,-2.622604E-08
267.1043,0.04500367,-2.146242E-08,NaN,-0.3270006,-1.362691E-07,NaN,0.5146276,-1.580352E-08,NaN,-2.144113,9.027098E-06,-0.2286318,-1.393787E-08,NaN,NaN,-0.0199999,-2.095481E-10,-4.896954E-08,-1.14074E-07,7.661276E-09,-2.861022E-08
267.1213,0.04500369,-2.146139E-08,NaN,-0.3270006,-1.362702E-07,NaN,0.5166531,-1.558729E-08,NaN,-2.143965,9.027713E-06,-0.211351,-1.415199E-08,NaN,NaN,-0.01999876,-2.095481E-10,-2.550022E-08,-1.140751E-07,1.123755E-08,-2.622604E-08
267.138,0.04500369,-2.146139E-08,NaN,-0.3270006,-1.362702E-07,NaN,0.5166531,-1.558729E-08,NaN,-2.143965,9.027713E-06,-0.211351,-1.415199E-08,NaN,NaN,-0.01999876,-2.095481E-10,-2.550022E-08,-1.140751E-07,1.123755E-08,-2.622604E-08
267.1539,0.04500371,-2.146036E-08,NaN,-0.3270005,-1.362712E-07,NaN,0.5184776,-1.539066E-08,NaN,-2.143833,9.028332E-06,-0.1944634,-1.43465E-08,NaN,NaN,-0.0199978,-2.142047E-10,-3.297485E-09,-1.140761E-07,1.242965E-08,-2.861022E-08
267.1715,0.04500374,-2.145932E-08,NaN,-0.3270005,-1.362721E-07,NaN,0.5210745,-1.519776E-08,NaN,-2.143704,9.02896E-06,-0.1756321,-1.453729E-08,NaN,NaN,-0.01999734,-2.281746E-10,7.133328E-09,-1.140772E-07,1.123755E-08,-2.622604E-08
267.1883,0.04500376,-2.145829E-08,NaN,-0.3270005,-1.362726E-07,NaN,0.5234095,-1.511407E-08,NaN,-2.143573,9.02958E-06,-0.1568178,-1.461887E-08,NaN,NaN,-0.01999631,-2.328312E-10,3.678664E-08,-1.140791E-07,1.481383E-08,-2.861022E-08
267.2053,0.04500378,-2.145726E-08,NaN,-0.3270004,-1.362731E-07,NaN,0.5254496,-1.502204E-08,NaN,-2.143455,9.030195E-06,-0.1384071,-1.470878E-08,NaN,NaN,-0.01999545,-2.328312E-10,6.375774E-08,-1.140811E-07,1.839011E-08,-2.622604E-08
267.222,0.0450038,-2.145623E-08,NaN,-0.3270004,-1.362737E-07,NaN,0.5272934,-1.492888E-08,NaN,-2.143355,9.030809E-06,-0.1204096,-1.479981E-08,NaN,NaN,-0.01999476,-2.328312E-10,8.923872E-08,-1.14083E-07,1.958221E-08,-2.861022E-08
267.239,0.0450038,-2.145623E-08,NaN,-0.3270004,-1.362737E-07,NaN,0.5272934,-1.492888E-08,NaN,-2.143355,9.030809E-06,-0.1204096,-1.479981E-08,NaN,NaN,-0.01999476,-2.328312E-10,8.923872E-08,-1.14083E-07,1.958221E-08,-2.861022E-08
267.2557,0.04500383,-2.14552E-08,NaN,-0.3270004,-1.362743E-07,NaN,0.5299105,-1.483603E-08,NaN,-2.14326,9.031433E-06,-0.1004835,-1.489055E-08,NaN,NaN,-0.01999443,-2.421444E-10,1.023517E-07,-1.14085E-07,1.481383E-08,-2.622604E-08
267.273,0.04500385,-2.145417E-08,NaN,-0.3270003,-1.362749E-07,NaN,0.5322623,-1.474347E-08,NaN,-2.143168,9.032048E-06,-0.08060038,-1.498099E-08,NaN,NaN,-0.01999379,-2.421444E-10,1.363264E-07,-1.14087E-07,1.600593E-08,-2.861022E-08
267.2901,0.04500387,-2.145314E-08,NaN,-0.3270003,-1.362755E-07,NaN,0.5343184,-1.465262E-08,NaN,-2.14309,9.032658E-06,-0.06114391,-1.506972E-08,NaN,NaN,-0.01999331,-2.374878E-10,1.655327E-07,-1.14089E-07,1.481383E-08,-2.622604E-08
267.3065,0.0450039,-2.145211E-08,NaN,-0.3270003,-1.362761E-07,NaN,0.5370835,-1.456485E-08,NaN,-2.14302,9.033278E-06,-0.03980544,-1.515538E-08,NaN,NaN,-0.01999313,-2.421444E-10,1.813279E-07,-1.14091E-07,1.242965E-08,-2.861022E-08
267.3236,0.04500393,-2.145108E-08,NaN,-0.3270003,-1.362767E-07,NaN,0.5395491,-1.447867E-08,NaN,-2.142957,9.033897E-06,-0.01855441,-1.523944E-08,NaN,NaN,-0.01999286,-2.46801E-10,2.185808E-07,-1.14093E-07,1.242965E-08,-2.622604E-08
267.3407,0.04500395,-2.145005E-08,NaN,-0.3270002,-1.362773E-07,NaN,0.5417029,-1.439548E-08,NaN,-2.142911,9.034507E-06,0.002235077,-1.532052E-08,NaN,NaN,-0.01999275,-2.421444E-10,2.531515E-07,-1.14095E-07,1.362174E-08,-2.861022E-08
267.3577,0.04500395,-2.145005E-08,NaN,-0.3270002,-1.362773E-07,NaN,0.5417029,-1.439548E-08,NaN,-2.142911,9.034507E-06,0.002235077,-1.532052E-08,NaN,NaN,-0.01999275,-2.421444E-10,2.531515E-07,-1.14095E-07,1.362174E-08,-2.861022E-08
267.3737,0.04500398,-2.144902E-08,NaN,-0.3270002,-1.362778E-07,NaN,0.5445573,-1.43152E-08,NaN,-2.142878,9.035118E-06,0.02487828,-1.539868E-08,NaN,NaN,-0.01999282,-2.374878E-10,2.71927E-07,-1.14097E-07,1.719802E-08,-2.622604E-08
267.3912,0.04500401,-2.144799E-08,NaN,-0.3270002,-1.362784E-07,NaN,0.5471068,-1.423638E-08,NaN,-2.142855,9.035728E-06,0.04740524,-1.547539E-08,NaN,NaN,-0.01999302,-2.328312E-10,3.064976E-07,-1.140989E-07,1.839011E-08,-2.861022E-08
267.4079,0.04500403,-2.144696E-08,NaN,-0.3270001,-1.362784E-07,NaN,0.5493416,-1.452861E-08,NaN,-2.142851,9.036338E-06,0.06944415,-1.518103E-08,NaN,NaN,-0.01999339,-2.328312E-10,3.380881E-07,-1.140987E-07,1.839011E-08,-2.622604E-08
267.4251,0.04500405,-2.144593E-08,NaN,-0.3270001,-1.362776E-07,NaN,0.5513694,-1.482993E-08,NaN,-2.142867,9.036939E-06,0.09099358,-1.487758E-08,NaN,NaN,-0.01999388,-2.281746E-10,3.717647E-07,-1.140978E-07,1.362174E-08,-2.861022E-08
267.4419,0.04500408,-2.14449E-08,NaN,-0.3270001,-1.362762E-07,NaN,0.5541626,-1.512706E-08,NaN,-2.142901,9.037539E-06,0.1144026,-1.457832E-08,NaN,NaN,-0.01999437,-2.23518E-10,3.920303E-07,-1.140965E-07,1.242965E-08,-2.622604E-08
267.4588,0.04500408,-2.14449E-08,NaN,-0.3270001,-1.362762E-07,NaN,0.5541626,-1.512706E-08,NaN,-2.142901,9.037539E-06,0.1144026,-1.457832E-08,NaN,NaN,-0.01999437,-2.23518E-10,3.920303E-07,-1.140965E-07,1.242965E-08,-2.622604E-08
267.4746,0.04500411,-2.144387E-08,NaN,-0.3270001,-1.362746E-07,NaN,0.5566837,-1.541933E-08,NaN,-2.142947,9.038149E-06,0.1376945,-1.42839E-08,NaN,NaN,-0.01999526,-2.281746E-10,4.325615E-07,-1.14095E-07,1.004546E-08,-2.861022E-08
267.4924,0.04500414,-2.144284E-08,NaN,-0.327,-1.362727E-07,NaN,0.5589056,-1.570638E-08,NaN,-2.143012,9.038749E-06,0.1604901,-1.399469E-08,NaN,NaN,-0.0199963,-2.23518E-10,4.695164E-07,-1.140934E-07,8.85337E-09,-2.622604E-08
267.5166,0.04500417,-2.14418E-08,NaN,-0.327,-1.362708E-07,NaN,0.5618324,-1.598806E-08,NaN,-2.143096,9.03936E-06,0.1850977,-1.371084E-08,NaN,NaN,-0.01999717,-2.281746E-10,4.90974E-07,-1.140918E-07,6.469185E-09,-2.861022E-08
267.5257,0.0450042,-2.144077E-08,NaN,-0.327,-1.362688E-07,NaN,0.5644599,-1.626435E-08,NaN,-2.143196,9.03996E-06,0.209553,-1.343238E-08,NaN,NaN,-0.01999867,-2.23518E-10,5.309091E-07,-1.140901E-07,7.661278E-09,-2.622604E-08
267.5421,0.04500423,-2.143974E-08,NaN,-0.3269999,-1.362668E-07,NaN,0.566775,-1.653528E-08,NaN,-2.143314,9.04057E-06,0.2334833,-1.315928E-08,NaN,NaN,-0.02000026,-2.281746E-10,5.690561E-07,-1.140884E-07,6.469185E-09,-2.861022E-08
267.5592,0.04500423,-2.143974E-08,NaN,-0.3269999,-1.362668E-07,NaN,0.566775,-1.653528E-08,NaN,-2.143314,9.04057E-06,0.2334833,-1.315928E-08,NaN,NaN,-0.02000026,-2.281746E-10,5.690561E-07,-1.140884E-07,6.469185E-09,-2.861022E-08
267.5751,0.04500426,-2.143872E-08,NaN,-0.3269999,-1.362648E-07,NaN,0.5688838,-1.680088E-08,NaN,-2.143452,9.04117E-06,0.2568865,-1.28915E-08,NaN,NaN,-0.02000191,-2.23518E-10,6.036268E-07,-1.140867E-07,6.469185E-09,-2.622604E-08
267.5931,0.04500429,-2.143769E-08,NaN,-0.3269999,-1.362627E-07,NaN,0.571757,-1.706125E-08,NaN,-2.143612,9.041781E-06,0.282101,-1.262894E-08,NaN,NaN,-0.02000321,-2.281746E-10,6.244885E-07,-1.14085E-07,4.084999E-09,-2.861022E-08
267.6092,0.04500432,-2.143666E-08,NaN,-0.3269998,-1.362607E-07,NaN,0.5743662,-1.731648E-08,NaN,-2.143789,9.042381E-06,0.3071694,-1.237152E-08,NaN,NaN,-0.0200054,-2.23518E-10,6.620394E-07,-1.140833E-07,4.084999E-09,-2.622604E-08
267.6268,0.04500435,-2.143563E-08,NaN,-0.3269998,-1.362587E-07,NaN,0.5766786,-1.756661E-08,NaN,-2.143984,9.042991E-06,0.3317093,-1.21192E-08,NaN,NaN,-0.02000765,-2.281746E-10,6.989943E-07,-1.140816E-07,4.084999E-09,-2.861022E-08
267.6429,0.04500437,-2.14346E-08,NaN,-0.3269998,-1.362566E-07,NaN,0.5787914,-1.78118E-08,NaN,-2.144195,9.043591E-06,0.3557133,-1.187182E-08,NaN,NaN,-0.02000988,-2.23518E-10,7.299886E-07,-1.140799E-07,2.892907E-09,-2.622604E-08
267.6603,0.0450044,-2.143357E-08,NaN,-0.3269998,-1.362546E-07,NaN,0.5807678,-1.805209E-08,NaN,-2.144422,9.044202E-06,0.3792121,-1.162934E-08,NaN,NaN,-0.02001213,-2.281746E-10,7.591949E-07,-1.140782E-07,5.087208E-10,-2.861022E-08
267.6767,0.0450044,-2.143357E-08,NaN,-0.3269998,-1.362546E-07,NaN,0.5807678,-1.805209E-08,NaN,-2.144422,9.044202E-06,0.3792121,-1.162934E-08,NaN,NaN,-0.02001213,-2.281746E-10,7.591949E-07,-1.140782E-07,5.087208E-10,-2.861022E-08
267.6929,0.04500442,-2.143254E-08,NaN,-0.3269997,-1.362526E-07,NaN,0.5826399,-1.828762E-08,NaN,-2.144663,9.044802E-06,0.4022295,-1.139161E-08,NaN,NaN,-0.02001442,-2.23518E-10,7.872091E-07,-1.140766E-07,-1.875465E-09,-2.622604E-08
267.71,0.04500445,-2.143152E-08,NaN,-0.3269997,-1.362506E-07,NaN,0.5844237,-1.851846E-08,NaN,-2.144917,9.045412E-06,0.4247819,-1.115858E-08,NaN,NaN,-0.02001674,-2.281746E-10,8.158193E-07,-1.140749E-07,-3.067558E-09,-2.861022E-08
267.7294,0.04500446,-2.143049E-08,NaN,-0.3269997,-1.362486E-07,NaN,0.5852243,-1.874468E-08,NaN,-2.145173,9.046013E-06,0.4445984,-1.093015E-08,NaN,NaN,-0.02001973,-2.23518E-10,8.545623E-07,-1.140732E-07,-6.643837E-09,-2.622604E-08
267.7463,0.04500448,-2.142946E-08,NaN,-0.3269997,-1.362466E-07,NaN,0.5860931,-1.896639E-08,NaN,-2.145432,9.046623E-06,0.4636328,-1.070625E-08,NaN,NaN,-0.02002159,-2.281746E-10,8.730398E-07,-1.140715E-07,-9.028023E-09,-2.861022E-08
267.7629,0.04500449,-2.142843E-08,NaN,-0.3269996,-1.362446E-07,NaN,0.5870938,-1.918371E-08,NaN,-2.145698,9.047223E-06,0.4823028,-1.048673E-08,NaN,NaN,-0.02002351,-2.23518E-10,8.909212E-07,-1.140699E-07,-1.498849E-08,-2.622604E-08
267.7797,0.04500449,-2.142843E-08,NaN,-0.3269996,-1.362446E-07,NaN,0.5870938,-1.918371E-08,NaN,-2.145698,9.047223E-06,0.4823028,-1.048673E-08,NaN,NaN,-0.02002351,-2.23518E-10,8.909212E-07,-1.140699E-07,-1.498849E-08,-2.622604E-08
267.7959,0.04500451,-2.14274E-08,NaN,-0.3269996,-1.362426E-07,NaN,0.5881448,-1.939668E-08,NaN,-2.145973,9.047833E-06,0.5006426,-1.027156E-08,NaN,NaN,-0.02002558,-2.281746E-10,9.070144E-07,-1.140682E-07,-1.618058E-08,-2.861022E-08
267.814,0.04500452,-2.142637E-08,NaN,-0.3269996,-1.362406E-07,NaN,0.5882879,-1.96054E-08,NaN,-2.146243,9.048434E-06,0.5163717,-1.006065E-08,NaN,NaN,-0.02002843,-2.23518E-10,9.39797E-07,-1.140666E-07,-1.975686E-08,-2.622604E-08
267.8308,0.04500454,-2.142535E-08,NaN,-0.3269996,-1.362386E-07,NaN,0.588534,-1.980997E-08,NaN,-2.146507,9.049044E-06,0.5314044,-9.853876E-09,NaN,NaN,-0.02003006,-2.281746E-10,9.505258E-07,-1.140649E-07,-1.856477E-08,-2.861022E-08
267.8475,0.04500455,-2.142432E-08,NaN,-0.3269996,-1.362366E-07,NaN,0.5889384,-2.001049E-08,NaN,-2.146774,9.049644E-06,0.546155,-9.651158E-09,NaN,NaN,-0.02003174,-2.23518E-10,9.618507E-07,-1.140633E-07,-1.618058E-08,-2.622604E-08
267.8644,0.04500456,-2.142329E-08,NaN,-0.3269996,-1.362347E-07,NaN,0.5894152,-2.0207E-08,NaN,-2.147045,9.050254E-06,0.5606557,-9.452454E-09,NaN,NaN,-0.02003356,-2.281746E-10,9.743676E-07,-1.140616E-07,-1.37964E-08,-2.861022E-08
267.8825,0.04500457,-2.142226E-08,NaN,-0.3269996,-1.362327E-07,NaN,0.5890033,-2.039957E-08,NaN,-2.147307,9.050855E-06,0.5726354,-9.257684E-09,NaN,NaN,-0.02003619,-2.23518E-10,9.982094E-07,-1.1406E-07,-1.37964E-08,-2.622604E-08
267.8995,0.04500457,-2.142226E-08,NaN,-0.3269996,-1.362327E-07,NaN,0.5890033,-2.039957E-08,NaN,-2.147307,9.050855E-06,0.5726354,-9.257684E-09,NaN,NaN,-0.02003619,-2.23518E-10,9.982094E-07,-1.1406E-07,-1.37964E-08,-2.622604E-08
267.9158,0.04500457,-2.142123E-08,NaN,-0.3269996,-1.362308E-07,NaN,0.5887044,-2.058832E-08,NaN,-2.147557,9.051465E-06,0.5839859,-9.066735E-09,NaN,NaN,-0.02003753,-2.281746E-10,1.006554E-06,-1.140584E-07,-1.618058E-08,-2.861022E-08
267.9329,0.04500458,-2.142021E-08,NaN,-0.3269996,-1.362288E-07,NaN,0.5885786,-2.077328E-08,NaN,-2.147805,9.052065E-06,0.5951244,-8.879569E-09,NaN,NaN,-0.02003892,-2.23518E-10,1.013707E-06,-1.140568E-07,-1.26043E-08,-2.622604E-08
267.9503,0.04500458,-2.141918E-08,NaN,-0.3269996,-1.362269E-07,NaN,0.5876392,-2.095454E-08,NaN,-2.148041,9.052676E-06,0.6038333,-8.69611E-09,NaN,NaN,-0.0200412,-2.281746E-10,1.033972E-06,-1.140552E-07,-1.26043E-08,-2.861022E-08
267.9673,0.04500458,-2.141815E-08,NaN,-0.3269996,-1.362249E-07,NaN,0.586854,-2.11322E-08,NaN,-2.148261,9.053276E-06,0.6119864,-8.516253E-09,NaN,NaN,-0.02004224,-2.23518E-10,1.036356E-06,-1.140535E-07,-9.028023E-09,-2.622604E-08
267.9846,0.04500459,-2.141713E-08,NaN,-0.3269996,-1.36223E-07,NaN,0.5862697,-2.130629E-08,NaN,-2.148478,9.053876E-06,0.6199962,-8.339961E-09,NaN,NaN,-0.02004334,-2.188613E-10,1.036356E-06,-1.140519E-07,-7.83593E-09,-2.861022E-08
268.0012,0.04500459,-2.14161E-08,NaN,-0.3269996,-1.362211E-07,NaN,0.5857944,-2.147689E-08,NaN,-2.148698,9.054476E-06,0.6278929,-8.167164E-09,NaN,NaN,-0.02004457,-2.142047E-10,1.039933E-06,-1.140503E-07,-6.833729E-10,-2.622604E-08
268.0186,0.04500459,-2.14161E-08,NaN,-0.3269996,-1.362211E-07,NaN,0.5857944,-2.147689E-08,NaN,-2.148698,9.054476E-06,0.6278929,-8.167164E-09,NaN,NaN,-0.02004457,-2.142047E-10,1.039933E-06,-1.140503E-07,-6.833729E-10,-2.622604E-08
268.0349,0.04500459,-2.141507E-08,NaN,-0.3269996,-1.362191E-07,NaN,0.5844628,-2.164406E-08,NaN,-2.148905,9.055077E-06,0.6334163,-7.997793E-09,NaN,NaN,-0.02004666,-2.095481E-10,1.054238E-06,-1.140488E-07,5.0872E-10,-2.861022E-08
268.0542,0.04500459,-2.141405E-08,NaN,-0.3269996,-1.362172E-07,NaN,0.5832656,-2.180791E-08,NaN,-2.149092,9.055677E-06,0.6384289,-7.831746E-09,NaN,NaN,-0.02004744,-2.048915E-10,1.053046E-06,-1.140472E-07,2.892906E-09,-2.622604E-08
268.0698,0.04500459,-2.141302E-08,NaN,-0.3269996,-1.362153E-07,NaN,0.5822684,-2.196846E-08,NaN,-2.149274,9.056277E-06,0.6433511,-7.668993E-09,NaN,NaN,-0.02004826,-2.002349E-10,1.051854E-06,-1.140456E-07,4.084999E-09,-2.861022E-08
268.0871,0.04500458,-2.1412E-08,NaN,-0.3269996,-1.362134E-07,NaN,0.5804857,-2.212579E-08,NaN,-2.149441,9.056877E-06,0.6459774,-7.509469E-09,NaN,NaN,-0.02005001,-1.955783E-10,1.063775E-06,-1.14044E-07,5.0872E-10,-2.622604E-08
268.105,0.04500458,-2.141097E-08,NaN,-0.3269996,-1.362115E-07,NaN,0.5788789,-2.227998E-08,NaN,-2.149587,9.057483E-06,0.6481602,-7.353076E-09,NaN,NaN,-0.02005049,-1.955783E-10,1.059006E-06,-1.140424E-07,-6.833729E-10,-2.861022E-08
268.1225,0.04500457,-2.140995E-08,NaN,-0.3269996,-1.362096E-07,NaN,0.5774993,-2.243107E-08,NaN,-2.149729,9.058083E-06,0.6503146,-7.199788E-09,NaN,NaN,-0.02005105,-1.909217E-10,1.054238E-06,-1.140409E-07,1.700813E-09,-2.622604E-08
268.1394,0.04500457,-2.140995E-08,NaN,-0.3269996,-1.362096E-07,NaN,0.5774993,-2.243107E-08,NaN,-2.149729,9.058083E-06,0.6503146,-7.199788E-09,NaN,NaN,-0.02005105,-1.909217E-10,1.054238E-06,-1.140409E-07,1.700813E-09,-2.622604E-08
268.1557,0.04500456,-2.140892E-08,NaN,-0.3269996,-1.362077E-07,NaN,0.5753536,-2.257911E-08,NaN,-2.149856,9.058684E-06,0.6502331,-7.049543E-09,NaN,NaN,-0.02005254,-1.862651E-10,1.066159E-06,-1.140393E-07,-3.067559E-09,-2.861022E-08
268.1733,0.04500455,-2.14079E-08,NaN,-0.3269996,-1.362059E-07,NaN,0.5733985,-2.272421E-08,NaN,-2.149962,9.059284E-06,0.6497616,-6.902247E-09,NaN,NaN,-0.02005278,-1.816085E-10,1.060198E-06,-1.140378E-07,-3.067559E-09,-2.622604E-08
268.1909,0.04500455,-2.140687E-08,NaN,-0.3269996,-1.36204E-07,NaN,0.5716845,-2.286638E-08,NaN,-2.150063,9.059884E-06,0.6493139,-6.757878E-09,NaN,NaN,-0.02005309,-1.769519E-10,1.05543E-06,-1.140362E-07,-4.259651E-09,-2.861022E-08
268.2077,0.04500454,-2.140585E-08,NaN,-0.3269996,-1.362021E-07,NaN,0.57012,-2.300568E-08,NaN,-2.150167,9.060484E-06,0.6489198,-6.616377E-09,NaN,NaN,-0.02005355,-1.722953E-10,1.051854E-06,-1.140347E-07,-6.833727E-10,-2.622604E-08
268.2248,0.04500453,-2.140482E-08,NaN,-0.3269997,-1.362003E-07,NaN,0.567737,-2.31422E-08,NaN,-2.150259,9.06109E-06,0.6463231,-6.477654E-09,NaN,NaN,-0.02005488,-1.722953E-10,1.060198E-06,-1.140331E-07,-1.875466E-09,-2.861022E-08
268.2417,0.04500452,-2.14038E-08,NaN,-0.3269997,-1.361984E-07,NaN,0.565523,-2.327597E-08,NaN,-2.150326,9.06169E-06,0.6433704,-6.341689E-09,NaN,NaN,-0.02005492,-1.676387E-10,1.053046E-06,-1.140316E-07,-6.833727E-10,-2.622604E-08
268.2591,0.04500452,-2.14038E-08,NaN,-0.3269997,-1.361984E-07,NaN,0.565523,-2.327597E-08,NaN,-2.150326,9.06169E-06,0.6433704,-6.341689E-09,NaN,NaN,-0.02005492,-1.676387E-10,1.053046E-06,-1.140316E-07,-6.833727E-10,-2.622604E-08
268.2754,0.04500451,-2.140277E-08,NaN,-0.3269997,-1.361966E-07,NaN,0.5635459,-2.340703E-08,NaN,-2.150388,9.062296E-06,0.6404824,-6.208428E-09,NaN,NaN,-0.02005501,-1.676387E-10,1.048277E-06,-1.140301E-07,-3.067558E-09,-2.861022E-08
268.2932,0.0450045,-2.140175E-08,NaN,-0.3269997,-1.361947E-07,NaN,0.5608191,-2.353547E-08,NaN,-2.150435,9.062902E-06,0.6354542,-6.077784E-09,NaN,NaN,-0.02005603,-1.676387E-10,1.053046E-06,-1.140285E-07,-3.067558E-09,-2.622604E-08
268.3098,0.04500448,-2.140072E-08,NaN,-0.3269997,-1.361929E-07,NaN,0.5583039,-2.366131E-08,NaN,-2.150458,9.063508E-06,0.6301311,-5.949738E-09,NaN,NaN,-0.0200558,-1.676387E-10,1.044701E-06,-1.14027E-07,-7.83593E-09,-2.861022E-08
268.3271,0.04500447,-2.13997E-08,NaN,-0.3269997,-1.36191E-07,NaN,0.5560521,-2.378461E-08,NaN,-2.150477,9.064113E-06,0.6249268,-5.824242E-09,NaN,NaN,-0.02005564,-1.676387E-10,1.037548E-06,-1.140255E-07,-7.83593E-09,-2.622604E-08
268.3439,0.04500446,-2.139868E-08,NaN,-0.3269997,-1.361892E-07,NaN,0.5539716,-2.390544E-08,NaN,-2.1505,9.064714E-06,0.6198695,-5.701209E-09,NaN,NaN,-0.02005563,-1.62982E-10,1.029204E-06,-1.14024E-07,-5.451744E-09,-2.861022E-08
268.3612,0.04500444,-2.139766E-08,NaN,-0.3269998,-1.361874E-07,NaN,0.5510932,-2.402386E-08,NaN,-2.150512,9.065314E-06,0.6126972,-5.580591E-09,NaN,NaN,-0.0200565,-1.583254E-10,1.033376E-06,-1.140225E-07,-9.028023E-09,-2.622604E-08
268.378,0.04500444,-2.139766E-08,NaN,-0.3269998,-1.361874E-07,NaN,0.5510932,-2.402386E-08,NaN,-2.150512,9.065314E-06,0.6126972,-5.580591E-09,NaN,NaN,-0.0200565,-1.583254E-10,1.033376E-06,-1.140225E-07,-9.028023E-09,-2.622604E-08
268.3943,0.04500443,-2.139663E-08,NaN,-0.3269998,-1.361856E-07,NaN,0.5484079,-2.413988E-08,NaN,-2.1505,9.06592E-06,0.6052611,-5.462376E-09,NaN,NaN,-0.02005608,-1.583254E-10,1.019667E-06,-1.14021E-07,-6.643837E-09,-2.861022E-08
268.4124,0.04500441,-2.139561E-08,NaN,-0.3269998,-1.361838E-07,NaN,0.5459817,-2.425353E-08,NaN,-2.150482,9.06652E-06,0.5979793,-5.346518E-09,NaN,NaN,-0.0200557,-1.536688E-10,1.008938E-06,-1.140195E-07,-1.022012E-08,-2.622604E-08
268.4296,0.04500439,-2.139459E-08,NaN,-0.3269998,-1.36182E-07,NaN,0.542825,-2.436492E-08,NaN,-2.150452,9.067126E-06,0.5886372,-5.232934E-09,NaN,NaN,-0.02005626,-1.536688E-10,1.008342E-06,-1.14018E-07,-6.643837E-09,-2.861022E-08
268.4464,0.04500438,-2.139356E-08,NaN,-0.3269999,-1.361802E-07,NaN,0.5399045,-2.447404E-08,NaN,-2.150399,9.067731E-06,0.5790895,-5.121615E-09,NaN,NaN,-0.02005558,-1.536688E-10,9.916529E-07,-1.140165E-07,-9.028023E-09,-2.622604E-08
268.4632,0.04500436,-2.139254E-08,NaN,-0.3269999,-1.361784E-07,NaN,0.5372684,-2.458097E-08,NaN,-2.150342,9.068337E-06,0.5697459,-5.012482E-09,NaN,NaN,-0.02005498,-1.536688E-10,9.743675E-07,-1.14015E-07,-7.83593E-09,-2.861022E-08
268.4804,0.04500435,-2.139152E-08,NaN,-0.3269999,-1.361766E-07,NaN,0.5348225,-2.468572E-08,NaN,-2.150291,9.068943E-06,0.5606313,-4.905527E-09,NaN,NaN,-0.02005452,-1.536688E-10,9.630426E-07,-1.140136E-07,-9.028023E-09,-2.622604E-08
268.4977,0.04500435,-2.139152E-08,NaN,-0.3269999,-1.361766E-07,NaN,0.5348225,-2.468572E-08,NaN,-2.150291,9.068943E-06,0.5606313,-4.905527E-09,NaN,NaN,-0.02005452,-1.536688E-10,9.630426E-07,-1.140136E-07,-9.028023E-09,-2.622604E-08
268.5137,0.04500432,-2.139049E-08,NaN,-0.327,-1.361748E-07,NaN,0.5315952,-2.478834E-08,NaN,-2.150233,9.069548E-06,0.5494714,-4.800707E-09,NaN,NaN,-0.02005492,-1.536688E-10,9.630426E-07,-1.140121E-07,-9.028023E-09,-2.861022E-08
268.5312,0.0450043,-2.138947E-08,NaN,-0.327,-1.36173E-07,NaN,0.5285856,-2.48889E-08,NaN,-2.15015,9.070154E-06,0.538133,-4.697945E-09,NaN,NaN,-0.02005405,-1.536688E-10,9.457572E-07,-1.140106E-07,-5.451744E-09,-2.622604E-08
268.5485,0.04500429,-2.138845E-08,NaN,-0.327,-1.361713E-07,NaN,0.5258545,-2.498741E-08,NaN,-2.150064,9.07076E-06,0.5270289,-4.597237E-09,NaN,NaN,-0.02005325,-1.536688E-10,9.278758E-07,-1.140092E-07,-7.835929E-09,-2.861022E-08
268.5652,0.04500427,-2.138742E-08,NaN,-0.3270001,-1.361695E-07,NaN,0.5224081,-2.508391E-08,NaN,-2.14997,9.071366E-06,0.5139285,-4.498541E-09,NaN,NaN,-0.02005333,-1.536688E-10,9.225114E-07,-1.140077E-07,-5.451744E-09,-2.622604E-08
268.5839,0.04500424,-2.13864E-08,NaN,-0.3270001,-1.361677E-07,NaN,0.5192221,-2.517846E-08,NaN,-2.149853,9.071966E-06,0.5007049,-4.401783E-09,NaN,NaN,-0.02005222,-1.490122E-10,9.022458E-07,-1.140063E-07,-7.835929E-09,-2.861022E-08
268.5991,0.04500424,-2.13864E-08,NaN,-0.3270001,-1.361677E-07,NaN,0.5192221,-2.517846E-08,NaN,-2.149853,9.071966E-06,0.5007049,-4.401783E-09,NaN,NaN,-0.02005222,-1.490122E-10,9.022458E-07,-1.140063E-07,-7.835929E-09,-2.861022E-08
268.6155,0.04500423,-2.138538E-08,NaN,-0.3270001,-1.36166E-07,NaN,0.5163381,-2.527108E-08,NaN,-2.149736,9.072572E-06,0.4877619,-4.306961E-09,NaN,NaN,-0.0200512,-1.490122E-10,8.825763E-07,-1.140048E-07,-9.028022E-09,-2.622604E-08
268.6331,0.0450042,-2.138435E-08,NaN,-0.3270001,-1.361642E-07,NaN,0.5127527,-2.536181E-08,NaN,-2.149614,9.073163E-06,0.4728559,-4.214036E-09,NaN,NaN,-0.02005105,-1.39699E-10,8.748277E-07,-1.140034E-07,-9.028022E-09,-2.861022E-08
268.6504,0.04500418,-2.138333E-08,NaN,-0.3270002,-1.361625E-07,NaN,0.5094422,-2.545071E-08,NaN,-2.149471,9.073763E-06,0.4578685,-4.122936E-09,NaN,NaN,-0.02004975,-1.443556E-10,8.509858E-07,-1.14002E-07,-5.451743E-09,-2.622604E-08
268.6675,0.04500416,-2.138231E-08,NaN,-0.3270002,-1.361607E-07,NaN,0.5064433,-2.553778E-08,NaN,-2.149329,9.074359E-06,0.4431993,-4.03366E-09,NaN,NaN,-0.02004855,-1.443556E-10,8.295282E-07,-1.140005E-07,-4.25965E-09,-2.861022E-08
268.6846,0.04500414,-2.138129E-08,NaN,-0.3270002,-1.36159E-07,NaN,0.5036566,-2.562307E-08,NaN,-2.149197,9.074955E-06,0.428866,-3.946173E-09,NaN,NaN,-0.02004751,-1.443556E-10,8.122428E-07,-1.139991E-07,-3.067558E-09,-2.622604E-08
268.7015,0.04500411,-2.138027E-08,NaN,-0.3270003,-1.361573E-07,NaN,0.5001073,-2.570664E-08,NaN,-2.149065,9.07555E-06,0.4125687,-3.860404E-09,NaN,NaN,-0.02004721,-1.443556E-10,8.038982E-07,-1.139977E-07,4.085E-09,-2.861022E-08
268.7189,0.04500411,-2.138027E-08,NaN,-0.3270003,-1.361573E-07,NaN,0.5001073,-2.570664E-08,NaN,-2.149065,9.07555E-06,0.4125687,-3.860404E-09,NaN,NaN,-0.02004721,-1.443556E-10,8.038982E-07,-1.139977E-07,4.085E-09,-2.861022E-08
268.7355,0.04500409,-2.137925E-08,NaN,-0.3270003,-1.361555E-07,NaN,0.4968104,-2.578849E-08,NaN,-2.148913,9.076146E-06,0.39621,-3.776355E-09,NaN,NaN,-0.02004581,-1.443556E-10,7.788642E-07,-1.139963E-07,5.277093E-09,-2.622604E-08
268.7533,0.04500407,-2.137822E-08,NaN,-0.3270003,-1.361538E-07,NaN,0.4938154,-2.586868E-08,NaN,-2.148762,9.076742E-06,0.3801922,-3.693956E-09,NaN,NaN,-0.02004449,-1.443556E-10,7.550224E-07,-1.139949E-07,4.085E-09,-2.861022E-08
268.7699,0.04500404,-2.13772E-08,NaN,-0.3270003,-1.361521E-07,NaN,0.4901215,-2.594723E-08,NaN,-2.148612,9.077337E-06,0.3622535,-3.613212E-09,NaN,NaN,-0.02004393,-1.443556E-10,7.436975E-07,-1.139934E-07,4.085E-09,-2.622604E-08
268.7869,0.04500402,-2.137618E-08,NaN,-0.3270004,-1.361504E-07,NaN,0.4867202,-2.602415E-08,NaN,-2.148444,9.077933E-06,0.3443044,-3.534088E-09,NaN,NaN,-0.0200424,-1.443556E-10,7.168754E-07,-1.13992E-07,-1.875464E-09,-2.861022E-08
