JMolnar6/NonAnthroHands_User_Study/HandsLoggerWithURDF/tempdata/files/Reachy_PID0_JointMotion_gesture_12_5.csv
Time,r_shoulder,r_shoulder_x,r_upper_arm,r_forearm,r_wrist,r_wrist2hand,
771.6901,-0.4358579,-0.4457439,0.1435364,-0.5770909,0.09199593,0.1484691
771.7075,-0.4345239,-0.4446456,0.1437378,-0.5765491,0.09203898,0.1485558
771.7208,-0.4332055,-0.4435602,0.1439418,-0.5760131,0.09207612,0.1486409
771.7346,-0.4332055,-0.4435602,0.1439418,-0.5760131,0.09207612,0.1486409
771.7484,-0.4319026,-0.4424876,0.1441483,-0.575483,0.09210747,0.1487243
771.7637,-0.4306149,-0.4414276,0.1443571,-0.5749586,0.09213321,0.1488061
771.7784,-0.4306149,-0.4414276,0.1443571,-0.5749586,0.09213321,0.1488061
771.7924,-0.4293424,-0.4403801,0.1445682,-0.5744398,0.09215347,0.1488862
771.8079,-0.4280846,-0.4393448,0.1447814,-0.5739267,0.09216839,0.1489648
771.8226,-0.4268416,-0.4383218,0.1449967,-0.5734192,0.09217811,0.1490418
771.8374,-0.4268416,-0.4383218,0.1449967,-0.5734192,0.09217811,0.1490418
771.8512,-0.4256132,-0.4373108,0.1452139,-0.5729171,0.09218276,0.1491173
771.8667,-0.4243991,-0.4363116,0.145433,-0.5724205,0.09218249,0.1491913
771.881,-0.4231992,-0.4353243,0.1456538,-0.5719294,0.09217743,0.1492639
771.8959,-0.4231992,-0.4353243,0.1456538,-0.5719294,0.09217743,0.1492639
771.9099,-0.4220134,-0.4343485,0.1458762,-0.5714436,0.09216769,0.1493351
771.9253,-0.4208414,-0.4333842,0.1461001,-0.570963,0.09215342,0.1494048
771.9399,-0.4208414,-0.4333842,0.1461001,-0.570963,0.09215342,0.1494048
771.9537,-0.4196832,-0.4324313,0.1463256,-0.5704877,0.09213471,0.1494732
771.969,-0.4185384,-0.4314897,0.1465524,-0.5700176,0.0921117,0.1495402
771.9857,-0.4174071,-0.4305591,0.1467804,-0.5695527,0.0920845,0.1496059
771.9993,-0.4174071,-0.4305591,0.1467804,-0.5695527,0.0920845,0.1496059
772.0133,-0.4162889,-0.4296395,0.1470097,-0.5690928,0.09205324,0.1496703
772.0276,-0.4151839,-0.4287307,0.1472401,-0.568638,0.09201802,0.1497335
772.0421,-0.4140917,-0.4278327,0.1474715,-0.5681881,0.09197897,0.1497954
772.0568,-0.4140917,-0.4278327,0.1474715,-0.5681881,0.09197897,0.1497954
772.0708,-0.4130124,-0.4269452,0.1477039,-0.5677432,0.09193617,0.1498561
772.0861,-0.4119456,-0.4260682,0.1479371,-0.5673031,0.09188975,0.1499156
772.1006,-0.4108913,-0.4252016,0.1481712,-0.5668679,0.0918398,0.1499739
772.1154,-0.4108913,-0.4252016,0.1481712,-0.5668679,0.0918398,0.1499739
772.1294,-0.4098493,-0.4243451,0.148406,-0.5664374,0.09178643,0.1500311
772.1449,-0.4088194,-0.4234988,0.1486414,-0.5660117,0.09172975,0.1500871
772.1594,-0.4088194,-0.4234988,0.1486414,-0.5660117,0.09172975,0.1500871
772.1733,-0.4078016,-0.4226625,0.1488775,-0.5655907,0.09166983,0.1501421
772.1888,-0.4067957,-0.4218361,0.149114,-0.5651743,0.09160679,0.1501959
772.2034,-0.4058015,-0.4210194,0.1493511,-0.5647625,0.09154072,0.1502488
772.218,-0.4058015,-0.4210194,0.1493511,-0.5647625,0.09154072,0.1502488
772.2318,-0.404819,-0.4202124,0.1495885,-0.5643552,0.09147169,0.1503005
772.2471,-0.4038478,-0.4194148,0.1498263,-0.5639524,0.09139982,0.1503513
772.2639,-0.4028881,-0.4186268,0.1500643,-0.5635541,0.09132518,0.150401
772.2773,-0.4028881,-0.4186268,0.1500643,-0.5635541,0.09132518,0.150401
772.2913,-0.4019395,-0.417848,0.1503026,-0.5631602,0.09124786,0.1504498
772.3058,-0.401002,-0.4170784,0.150541,-0.5627706,0.09116796,0.1504976
772.3202,-0.4000755,-0.416318,0.1507796,-0.5623853,0.09108554,0.1505445
772.3347,-0.4000755,-0.416318,0.1507796,-0.5623853,0.09108554,0.1505445
772.3487,-0.3991597,-0.4155665,0.1510182,-0.5620043,0.09100069,0.1505904
772.3641,-0.3982546,-0.4148239,0.1512568,-0.5616276,0.09091349,0.1506355
772.3788,-0.3982546,-0.4148239,0.1512568,-0.5616276,0.09091349,0.1506355
772.3927,-0.3973601,-0.4140901,0.1514954,-0.561255,0.09082402,0.1506796
772.4081,-0.396476,-0.413365,0.1517338,-0.5608865,0.09073234,0.1507229
772.4229,-0.3956023,-0.4126484,0.1519722,-0.5605221,0.09063856,0.1507653
772.4376,-0.3956023,-0.4126484,0.1519722,-0.5605221,0.09063856,0.1507653
772.4517,-0.3947387,-0.4119403,0.1522103,-0.5601618,0.09054271,0.1508069
772.4672,-0.3938852,-0.4112406,0.1524482,-0.5598055,0.09044489,0.1508477
772.4817,-0.3930416,-0.4105492,0.1526858,-0.5594531,0.09034517,0.1508877
772.4962,-0.3930416,-0.4105492,0.1526858,-0.5594531,0.09034517,0.1508877
772.5103,-0.3922079,-0.409866,0.1529231,-0.5591047,0.09024361,0.1509269
772.5256,-0.3913839,-0.4091909,0.15316,-0.5587601,0.09014027,0.1509653
772.5422,-0.3905695,-0.4085237,0.1533966,-0.5584194,0.09003522,0.151003
772.556,-0.3905695,-0.4085237,0.1533966,-0.5584194,0.09003522,0.151003
772.5703,-0.3897646,-0.4078645,0.1536327,-0.5580825,0.08992852,0.1510399
772.584,-0.388969,-0.407213,0.1538683,-0.5577493,0.08982024,0.1510761
772.5986,-0.388969,-0.407213,0.1538683,-0.5577493,0.08982024,0.1510761
772.6125,-0.3881828,-0.4065693,0.1541034,-0.5574198,0.08971044,0.1511116
772.6279,-0.3874057,-0.4059332,0.1543379,-0.5570941,0.08959918,0.1511464
772.6426,-0.3866376,-0.4053046,0.1545719,-0.556772,0.08948652,0.1511804
772.6574,-0.3866376,-0.4053046,0.1545719,-0.556772,0.08948652,0.1511804
772.6713,-0.3858785,-0.4046835,0.1548053,-0.5564535,0.08937252,0.1512139
772.6868,-0.3851283,-0.4040698,0.155038,-0.5561385,0.08925722,0.1512466
772.7014,-0.3843868,-0.4034633,0.15527,-0.5558271,0.08914068,0.1512788
772.7168,-0.3843868,-0.4034633,0.15527,-0.5558271,0.08914068,0.1512788
772.7301,-0.3834443,-0.4026646,0.1549457,-0.555265,0.08969534,0.1510287
772.7454,-0.3823812,-0.4017519,0.154503,-0.5546891,0.09048823,0.1507838
772.76,-0.3812478,-0.4007734,0.154095,-0.5540979,0.09133165,0.1505437
772.7748,-0.3812478,-0.4007734,0.154095,-0.5540979,0.09133165,0.1505437
772.7889,-0.3802851,-0.3999584,0.1543146,-0.5537498,0.09148583,0.1505898
772.8044,-0.3794325,-0.3992472,0.154719,-0.5534136,0.09136622,0.1506348
772.8207,-0.3786519,-0.3986027,0.1551412,-0.553095,0.09115902,0.1506789
772.834,-0.3786519,-0.3986027,0.1551412,-0.553095,0.09115902,0.1506789
772.8482,-0.3779194,-0.398002,0.1555317,-0.5527925,0.09093467,0.1507221
772.8625,-0.3774292,-0.3976302,0.1564409,-0.5527571,0.09004309,0.151046
772.8771,-0.3774292,-0.3976302,0.1564409,-0.5527571,0.09004309,0.151046
772.8909,-0.377092,-0.3974005,0.1574356,-0.5527492,0.08892405,0.1513633
772.9064,-0.3768517,-0.3972592,0.1583709,-0.5527676,0.0877638,0.1516744
772.921,-0.3766729,-0.397173,0.1592182,-0.5528061,0.08662641,0.1519794
772.9357,-0.3766729,-0.397173,0.1592182,-0.5528061,0.08662641,0.1519794
772.9495,-0.3767411,-0.3973191,0.1605405,-0.5531134,0.08485743,0.1525599
772.9649,-0.3769636,-0.3976077,0.161918,-0.5534466,0.08288838,0.1531289
772.9797,-0.3769636,-0.3976077,0.161918,-0.5534466,0.08288838,0.1531289
772.9937,-0.3772816,-0.3979828,0.163213,-0.5538031,0.08090159,0.1536868
773.0104,-0.377867,-0.3986087,0.1649551,-0.5544308,0.07828693,0.1545152
773.0236,-0.3786167,-0.3993858,0.1667182,-0.5550852,0.07549183,0.1553273
773.0378,-0.3786167,-0.3993858,0.1667182,-0.5550852,0.07549183,0.1553273
773.052,-0.3794655,-0.4002519,0.1683676,-0.5557622,0.07270239,0.1561234
773.0674,-0.3803724,-0.4011686,0.1698844,-0.5564532,0.06997908,0.1569039
773.0823,-0.381521,-0.4023115,0.1718352,-0.5574065,0.06666532,0.1579507
773.0969,-0.381521,-0.4023115,0.1718352,-0.5574065,0.06666532,0.1579507
773.1127,-0.3828148,-0.4035875,0.1738082,-0.5583776,0.0631878,0.1589769
773.1268,-0.3841934,-0.4049388,0.1756687,-0.5593633,0.05972732,0.1599829
773.1405,-0.3856187,-0.4063299,0.1773956,-0.5603561,0.0563432,0.1609693
773.1553,-0.3856187,-0.4063299,0.1773956,-0.5603561,0.0563432,0.1609693
773.1689,-0.3872766,-0.4079383,0.1795476,-0.5616059,0.05238233,0.1622179
773.1841,-0.3890715,-0.4096716,0.1817157,-0.5628681,0.04826804,0.1634419
773.1987,-0.3890715,-0.4096716,0.1817157,-0.5628681,0.04826804,0.1634419
773.2126,-0.3909436,-0.4114729,0.1837635,-0.5641396,0.04418233,0.1646419
773.2281,-0.3930655,-0.4135067,0.1862091,-0.5656708,0.03952214,0.1661
773.2427,-0.3953327,-0.4156721,0.1886406,-0.5672151,0.03472321,0.1675294
773.2573,-0.3953327,-0.4156721,0.1886406,-0.5672151,0.03472321,0.1675294
773.2714,-0.3976799,-0.4179073,0.1909245,-0.5687678,0.02997206,0.1689308
773.2869,-0.4000664,-0.4201744,0.1930437,-0.5703208,0.02532808,0.1703048
773.3015,-0.4026779,-0.4226501,0.1955489,-0.5721252,0.02014454,0.1719335
773.3162,-0.4026779,-0.4226501,0.1955489,-0.5721252,0.02014454,0.1719335
773.33,-0.4054165,-0.4252402,0.1980457,-0.5739342,0.01483352,0.1735301
773.3453,-0.4082218,-0.4278874,0.2003996,-0.5757443,0.009577326,0.1750956
773.3598,-0.4082218,-0.4278874,0.2003996,-0.5757443,0.009577326,0.1750956
773.3738,-0.4112673,-0.4307564,0.2031163,-0.5778078,0.003781023,0.1769119
773.3892,-0.4144472,-0.4337455,0.2057993,-0.5798762,-0.002131689,0.1786926
773.406,-0.4176961,-0.436793,0.2083154,-0.5819446,-0.007973285,0.1804384
773.4194,-0.4176961,-0.436793,0.2083154,-0.5819446,-0.007973285,0.1804384
773.4332,-0.4209734,-0.4398617,0.2106493,-0.5840051,-0.01368453,0.1821501
773.4476,-0.4244665,-0.4431284,0.2133363,-0.5863108,-0.01990248,0.1841097
773.4621,-0.4280764,-0.4464988,0.2159987,-0.5886133,-0.02622865,0.186031
773.4767,-0.4280764,-0.4464988,0.2159987,-0.5886133,-0.02622865,0.186031
773.4907,-0.4317425,-0.4499155,0.218502,-0.5909089,-0.03247918,0.1879147
773.5062,-0.4354276,-0.4533443,0.2208275,-0.5931907,-0.03859492,0.1897615
773.5209,-0.4393215,-0.4569642,0.2234971,-0.5957136,-0.04520541,0.1918537
773.5355,-0.4393215,-0.4569642,0.2234971,-0.5957136,-0.04520541,0.1918537
773.5494,-0.4433261,-0.4606813,0.2261415,-0.5982291,-0.0519199,0.1939049
773.5647,-0.447381,-0.4644391,0.228624,-0.6007334,-0.05855257,0.195916
773.5795,-0.447381,-0.4644391,0.228624,-0.6007334,-0.05855257,0.195916
773.5936,-0.4516632,-0.4684034,0.2314221,-0.6034823,-0.06567904,0.1981691
773.6088,-0.4560648,-0.472472,0.2341679,-0.606225,-0.07289876,0.2003782
773.6235,-0.4605202,-0.4765835,0.2367282,-0.6089565,-0.08002105,0.2025441
773.6382,-0.4605202,-0.4765835,0.2367282,-0.6089565,-0.08002105,0.2025441
773.6521,-0.4649895,-0.4807016,0.2390889,-0.6116692,-0.08698577,0.2046676
773.6675,-0.4696634,-0.4850042,0.2417558,-0.6146194,-0.09441058,0.2070309
773.684,-0.4744408,-0.4893959,0.2443829,-0.6175565,-0.1019226,0.209348
773.6977,-0.4744408,-0.4893959,0.2443829,-0.6175565,-0.1019226,0.209348
773.7119,-0.4792605,-0.4938198,0.2468351,-0.6204762,-0.1093349,0.2116198
773.7263,-0.4840854,-0.4982423,0.2490953,-0.6233721,-0.1165874,0.2138471
773.7408,-0.4891095,-0.5028431,0.2516539,-0.626502,-0.124289,0.2163122
773.7556,-0.4891095,-0.5028431,0.2516539,-0.626502,-0.124289,0.2163122
773.7696,-0.4942317,-0.5075275,0.2541748,-0.6296152,-0.1320758,0.2187291
773.7849,-0.4993911,-0.5122392,0.2565214,-0.6327077,-0.1397591,0.2210987
773.7996,-0.4993911,-0.5122392,0.2565214,-0.6327077,-0.1397591,0.2210987
773.8138,-0.5047683,-0.5171447,0.2591382,-0.6360376,-0.1478918,0.2237033
773.8292,-0.5102525,-0.5221408,0.2616926,-0.6393527,-0.1561007,0.2262571
773.8438,-0.5157776,-0.5271665,0.2640513,-0.6426475,-0.1641921,0.2287608
773.8583,-0.5157776,-0.5271665,0.2640513,-0.6426475,-0.1641921,0.2287608
773.8724,-0.5213038,-0.5321862,0.2662022,-0.6459147,-0.1721047,0.2312156
773.8879,-0.5270262,-0.5373787,0.2686168,-0.6494128,-0.1804336,0.2339035
773.9025,-0.5328406,-0.5426475,0.2709846,-0.65289,-0.1888344,0.236539
773.917,-0.5328406,-0.5426475,0.2709846,-0.65289,-0.1888344,0.236539
773.9313,-0.538685,-0.547936,0.2731712,-0.6563417,-0.1971176,0.2391229
773.9483,-0.5445226,-0.5532114,0.2751606,-0.6597616,-0.2052218,0.2416561
773.962,-0.5505521,-0.5586542,0.2774075,-0.6634092,-0.2137327,0.244421
773.9767,-0.5505521,-0.5586542,0.2774075,-0.6634092,-0.2137327,0.244421
773.9897,-0.5566688,-0.5641685,0.2796126,-0.6670334,-0.2223151,0.2471319
774.0051,-0.562811,-0.5696982,0.2816398,-0.6706294,-0.2307779,0.2497898
774.0195,-0.562811,-0.5696982,0.2816398,-0.6706294,-0.2307779,0.2497898
774.0336,-0.5691639,-0.5754105,0.2838975,-0.6744566,-0.2396496,0.2526769
774.0489,-0.575613,-0.5812012,0.2860904,-0.6782627,-0.248585,0.2555076
774.0636,-0.582091,-0.5870095,0.2880866,-0.6820416,-0.257388,0.2582829
774.0783,-0.582091,-0.5870095,0.2880866,-0.6820416,-0.257388,0.2582829
774.0925,-0.5885583,-0.5928007,0.289875,-0.6857862,-0.2659961,0.2610039
774.108,-0.5952157,-0.5987545,0.2918904,-0.689756,-0.2749807,0.2639526
774.1227,-0.6019551,-0.6047733,0.2938597,-0.6937,-0.284026,0.2668439
774.1375,-0.6019551,-0.6047733,0.2938597,-0.6937,-0.284026,0.2668439
774.1514,-0.6087131,-0.6108006,0.2956491,-0.6976122,-0.2929403,0.2696785
774.1668,-0.6154531,-0.6168044,0.297244,-0.7014866,-0.3016613,0.2724576
774.1813,-0.6223797,-0.6229661,0.2990615,-0.7055833,-0.3107505,0.2754633
774.196,-0.6223797,-0.6229661,0.2990615,-0.7055833,-0.3107505,0.2754633
774.2099,-0.6293839,-0.6291884,0.3008396,-0.7096524,-0.3199012,0.2784104
774.2273,-0.6364026,-0.6354154,0.3024435,-0.713688,-0.3289202,0.2812998
774.2408,-0.6433994,-0.6416155,0.3038574,-0.7176841,-0.337744,0.2841326
774.2547,-0.6433994,-0.6416155,0.3038574,-0.7176841,-0.337744,0.2841326
774.2685,-0.6505817,-0.6479708,0.3054847,-0.7219009,-0.3469255,0.2871909
774.2837,-0.6578385,-0.6543834,0.3070762,-0.7260895,-0.356167,0.2901895
774.2982,-0.6578385,-0.6543834,0.3070762,-0.7260895,-0.356167,0.2901895
774.3123,-0.6651064,-0.6607976,0.3084972,-0.7302436,-0.365275,0.2931295
774.3277,-0.6725789,-0.667382,0.3101056,-0.7346219,-0.3747447,0.2962929
774.3423,-0.6801347,-0.6740302,0.3116568,-0.7389757,-0.3842674,0.2993946
774.3571,-0.6801347,-0.6740302,0.3116568,-0.7389757,-0.3842674,0.2993946
774.3711,-0.6877043,-0.6806821,0.3130213,-0.7432967,-0.3936449,0.3024356
774.3864,-0.6952487,-0.687304,0.3141894,-0.747578,-0.4028133,0.3054169
774.4012,-0.7029783,-0.6940775,0.3155451,-0.7520778,-0.4123123,0.3086208
774.4158,-0.7029783,-0.6940775,0.3155451,-0.7520778,-0.4123123,0.3086208
774.4297,-0.7107775,-0.7009025,0.3168642,-0.7565495,-0.4218617,0.3117621
774.4451,-0.7185811,-0.707723,0.3180154,-0.760985,-0.4312687,0.314842
774.4598,-0.7185811,-0.707723,0.3180154,-0.760985,-0.4312687,0.314842
774.4738,-0.7265872,-0.7147081,0.3193345,-0.7656417,-0.4410148,0.3181424
774.489,-0.73467,-0.7217502,0.3205997,-0.7702736,-0.4508066,0.3213786
774.5059,-0.7427592,-0.7287893,0.3216835,-0.774871,-0.4604462,0.3245513
774.5192,-0.7427592,-0.7287893,0.3216835,-0.774871,-0.4604462,0.3245513
774.5331,-0.7508157,-0.7357924,0.3225775,-0.7794263,-0.4698695,0.3276618
774.5477,-0.7590556,-0.7429419,0.323642,-0.7841969,-0.479603,0.3309922
774.5624,-0.7673588,-0.7501365,0.3246744,-0.7889395,-0.4893802,0.3342577
774.5766,-0.7673588,-0.7501365,0.3246744,-0.7889395,-0.4893802,0.3342577
774.5906,-0.775659,-0.7573204,0.3255452,-0.7936443,-0.499009,0.3374593
774.606,-0.7839199,-0.7644633,0.3262416,-0.7983045,-0.5084253,0.340598
774.6205,-0.7923623,-0.7717491,0.3271073,-0.8031772,-0.5181471,0.3439562
774.6356,-0.7923623,-0.7717491,0.3271073,-0.8031772,-0.5181471,0.3439562
774.6492,-0.8008645,-0.7790766,0.3279485,-0.808022,-0.527914,0.3472489
774.6708,-0.8093596,-0.7863903,0.3286353,-0.8128285,-0.5375332,0.350477
774.6793,-0.8093596,-0.7863903,0.3286353,-0.8128285,-0.5375332,0.350477
774.6933,-0.8180549,-0.7938609,0.3294675,-0.8178515,-0.5474649,0.3539228
774.7086,-0.8268169,-0.8013787,0.3302556,-0.8228514,-0.5574353,0.3573014
774.7234,-0.8355738,-0.8088845,0.3308754,-0.8278154,-0.5672473,0.3606137
774.738,-0.8355738,-0.8088845,0.3308754,-0.8278154,-0.5672473,0.3606137
774.7516,-0.8442869,-0.8163466,0.3313197,-0.8327353,-0.5768368,0.363861
774.7671,-0.8531823,-0.8239488,0.3319134,-0.8378659,-0.5867108,0.3673255
774.7836,-0.8621319,-0.8315874,0.3324842,-0.842971,-0.5966213,0.3707224
774.7974,-0.8621319,-0.8315874,0.3324842,-0.842971,-0.5966213,0.3707224
774.8113,-0.8710675,-0.8392072,0.3329063,-0.8480375,-0.6063774,0.3740528
774.8256,-0.8799532,-0.846779,0.3331683,-0.8530576,-0.6159154,0.3773179
774.8403,-0.8890202,-0.8544881,0.333579,-0.8582858,-0.6257348,0.3807998
774.8548,-0.8890202,-0.8544881,0.333579,-0.8582858,-0.6257348,0.3807998
774.8687,-0.8981379,-0.8622306,0.333974,-0.8634892,-0.6355919,0.3842137
774.884,-0.9072377,-0.8699517,0.3342273,-0.8686539,-0.6452954,0.3875608
774.8986,-0.9072377,-0.8699517,0.3342273,-0.8686539,-0.6452954,0.3875608
774.9125,-0.9165367,-0.8778234,0.3346061,-0.8740313,-0.6552885,0.3911231
774.928,-0.9258925,-0.8857336,0.3349499,-0.8793892,-0.6653125,0.394616
774.9427,-0.9352311,-0.8936238,0.335139,-0.8847111,-0.6751729,0.3980404
774.9573,-0.9352311,-0.8936238,0.335139,-0.8847111,-0.6751729,0.3980404
774.9712,-0.944515,-0.9014637,0.3351682,-0.8899872,-0.6848066,0.4013976
774.9866,-0.9539815,-0.9094387,0.3353288,-0.8954698,-0.6947042,0.4049699
775.001,-0.9634928,-0.9174424,0.335475,-0.9009307,-0.7046307,0.4084724
775.0156,-0.9634928,-0.9174424,0.335475,-0.9009307,-0.7046307,0.4084724
775.0308,-0.9729788,-0.9254202,0.3354856,-0.9063529,-0.7143978,0.4119064
775.045,-0.9824044,-0.9333442,0.3353512,-0.911727,-0.7239435,0.415273
775.0594,-0.9824044,-0.9333442,0.3353512,-0.911727,-0.7239435,0.415273
775.0732,-0.9920124,-0.9414013,0.3353478,-0.9173049,-0.7337516,0.4188544
775.0906,-1.001662,-0.9494846,0.3353361,-0.9228625,-0.7435893,0.422366
775.1042,-1.011282,-0.9575398,0.3351955,-0.9283811,-0.7532691,0.4258088
775.1176,-1.011282,-0.9575398,0.3351955,-0.9283811,-0.7532691,0.4258088
775.1317,-1.021102,-0.9657405,0.3351631,-0.934109,-0.7632197,0.429465
775.1469,-1.030968,-0.9739719,0.3351034,-0.9398221,-0.7731931,0.4330498
775.1613,-1.040804,-0.9821764,0.3349029,-0.945499,-0.7829988,0.4365644
775.176,-1.040804,-0.9821764,0.3349029,-0.945499,-0.7829988,0.4365644
775.1899,-1.050575,-0.9903254,0.3345586,-0.951128,-0.7925763,0.4400101
775.2053,-1.06053,-0.998606,0.3343299,-0.9569591,-0.8024019,0.4436691
775.2197,-1.06053,-0.998606,0.3343299,-0.9569591,-0.8024019,0.4436691
775.2336,-1.07052,-1.006909,0.3340935,-0.9627734,-0.8122484,0.4472567
775.249,-1.080474,-1.015179,0.3337344,-0.9685487,-0.8219322,0.450774
775.2638,-1.090356,-1.023392,0.3332458,-0.9742734,-0.8313936,0.4542223
775.2782,-1.090356,-1.023392,0.3332458,-0.9742734,-0.8313936,0.4542223
775.2922,-1.100424,-1.031735,0.3328722,-0.9801979,-0.8411029,0.457884
775.3075,-1.110523,-1.040097,0.3324959,-0.9861069,-0.8508337,0.4614742
775.322,-1.120582,-1.048427,0.3320033,-0.9919766,-0.8604034,0.464994
775.3367,-1.120582,-1.048427,0.3320033,-0.9919766,-0.8604034,0.464994
775.3506,-1.130842,-1.056898,0.3316031,-0.9980518,-0.8702296,0.4687259
775.3656,-1.141137,-1.065393,0.3311819,-1.004117,-0.8800702,0.4723848
775.3803,-1.15139,-1.073855,0.3306338,-1.010146,-0.8897412,0.4759721
775.3969,-1.15139,-1.073855,0.3306338,-1.010146,-0.8897412,0.4759721
775.4109,-1.161567,-1.082259,0.3299582,-1.016123,-0.8991854,0.479489
775.4243,-1.171932,-1.090791,0.3293834,-1.022298,-0.908866,0.483218
775.4387,-1.171932,-1.090791,0.3293834,-1.022298,-0.908866,0.483218
775.4523,-1.182322,-1.099341,0.328806,-1.028462,-0.9185598,0.4868742
775.4677,-1.192663,-1.107854,0.3281187,-1.034585,-0.9280896,0.4904587
775.4821,-1.202925,-1.116305,0.3273172,-1.040654,-0.937399,0.493973
775.4968,-1.202925,-1.116305,0.3273172,-1.040654,-0.937399,0.493973
775.5106,-1.202772,-1.117245,0.3193889,-1.037095,-0.9292636,0.4870188
775.5261,-1.197319,-1.114155,0.3075956,-1.031531,-0.9114349,0.4801927
775.5406,-1.189043,-1.108707,0.2964268,-1.024985,-0.8906534,0.473497
775.5553,-1.189043,-1.108707,0.2964268,-1.024985,-0.8906534,0.473497
775.5692,-1.179765,-1.102189,0.2875737,-1.017887,-0.8701538,0.4667512
775.5848,-1.170112,-1.095137,0.2803796,-1.010514,-0.8505227,0.4601376
775.5997,-1.170112,-1.095137,0.2803796,-1.010514,-0.8505227,0.4601376
775.613,-1.160368,-1.087833,0.2742411,-1.002995,-0.8317438,0.4536537
775.6284,-1.150657,-1.080424,0.2687168,-0.995437,-0.8136446,0.4472969
775.6431,-1.14132,-1.073159,0.2641219,-0.9879441,-0.7965174,0.4408848
775.6575,-1.14132,-1.073159,0.2641219,-0.9879441,-0.7965174,0.4408848
775.6719,-1.132215,-1.065985,0.2598438,-0.9806277,-0.7799625,0.4345987
775.6888,-1.123275,-1.058881,0.2556861,-0.9734672,-0.7637956,0.4284358
775.7034,-1.114467,-1.051839,0.2515825,-0.9664527,-0.7479298,0.4223938
775.7169,-1.114467,-1.051839,0.2515825,-0.9664527,-0.7479298,0.4223938
775.731,-1.10606,-1.045028,0.2481037,-0.9595928,-0.7327908,0.41629
775.745,-1.097893,-1.038358,0.24479,-0.9529613,-0.7180689,0.4103062
775.7594,-1.097893,-1.038358,0.24479,-0.9529613,-0.7180689,0.4103062
775.7733,-1.089888,-1.031786,0.2415216,-0.9465079,-0.7036388,0.4044397
775.7889,-1.082293,-1.025464,0.2388576,-0.9402122,-0.6899195,0.398508
775.8035,-1.074941,-1.019295,0.2363419,-0.9341462,-0.6765938,0.3926929
775.8177,-1.074941,-1.019295,0.2363419,-0.9341462,-0.6765938,0.3926929
775.832,-1.06775,-1.013231,0.2338556,-0.9282544,-0.6635349,0.3869918
775.8474,-1.06068,-1.007247,0.2313722,-0.9225066,-0.6506927,0.3814025
775.8619,-1.053992,-1.001504,0.2294843,-0.9168817,-0.6385299,0.3757425
775.8766,-1.053992,-1.001504,0.2294843,-0.9168817,-0.6385299,0.3757425
775.8906,-1.047533,-0.9959103,0.2277478,-0.9114665,-0.6267383,0.3701937
775.906,-1.041226,-0.9904205,0.2260405,-0.9062101,-0.6151931,0.3647538
775.9205,-1.035032,-0.9850095,0.2243323,-0.9010838,-0.6038445,0.3594206
775.9354,-1.035032,-0.9850095,0.2243323,-0.9010838,-0.6038445,0.3594206
775.949,-1.029209,-0.979837,0.2232145,-0.8960598,-0.5931626,0.3540117
775.9644,-1.023609,-0.974815,0.2222448,-0.8912337,-0.5828341,0.348709
775.9788,-1.023609,-0.974815,0.2222448,-0.8912337,-0.5828341,0.348709
775.9951,-1.018155,-0.9698963,0.2212971,-0.886556,-0.5727313,0.3435105
776.0093,-1.013086,-0.9652284,0.2209304,-0.8819827,-0.5632955,0.3382337
776.0227,-1.008244,-0.9607182,0.2206962,-0.8776088,-0.5541971,0.3330606
776.0372,-1.008244,-0.9607182,0.2206962,-0.8776088,-0.5541971,0.3330606
776.0514,-1.00355,-0.9563148,0.2204667,-0.8733813,-0.5453025,0.3279891
776.0664,-0.9989596,-0.9519903,0.2202116,-0.8692703,-0.5365603,0.3230169
776.0809,-0.9947241,-0.9479018,0.2205256,-0.8652364,-0.5284539,0.3179621
776.0955,-0.9947241,-0.9479018,0.2205256,-0.8652364,-0.5284539,0.3179621
776.1094,-0.9907013,-0.9439632,0.2209722,-0.8613851,-0.5206636,0.3130067
776.1248,-0.9868146,-0.9401265,0.2214217,-0.8576674,-0.5130582,0.3081486
776.1394,-0.9868146,-0.9401265,0.2214217,-0.8576674,-0.5130582,0.3081486
776.1534,-0.9832958,-0.9365373,0.2224344,-0.8540313,-0.5060908,0.3032055
776.1686,-0.9799954,-0.9331044,0.2235649,-0.8505799,-0.4994245,0.2983598
776.1831,-0.976832,-0.9297763,0.2246813,-0.8472615,-0.4929225,0.2936091
776.1977,-0.976832,-0.9297763,0.2246813,-0.8472615,-0.4929225,0.2936091
776.2118,-0.9737606,-0.9265233,0.2257515,-0.8440464,-0.486533,0.2889516
776.2271,-0.9710278,-0.923501,0.2273734,-0.8408892,-0.4807514,0.2842053
776.2418,-0.9684963,-0.9206252,0.2291124,-0.8379016,-0.4752508,0.2795523
776.2565,-0.9684963,-0.9206252,0.2291124,-0.8379016,-0.4752508,0.2795523
776.2703,-0.9660899,-0.9178475,0.2308356,-0.8350354,-0.469897,0.2749907
776.2875,-0.9637659,-0.9151394,0.2325082,-0.832263,-0.4646389,0.2705185
776.3021,-0.9617703,-0.9126571,0.2347285,-0.8295385,-0.459978,0.2659539
776.3154,-0.9617703,-0.9126571,0.2347285,-0.8295385,-0.459978,0.2659539
776.3296,-0.959969,-0.9103181,0.2370605,-0.8269765,-0.4555824,0.2614792
776.3437,-0.9582865,-0.9080738,0.2393684,-0.8245295,-0.4513154,0.2570923
776.3585,-0.9582865,-0.9080738,0.2393684,-0.8245295,-0.4513154,0.2570923
776.3723,-0.9569491,-0.9060686,0.2422164,-0.8221403,-0.4476472,0.2526113
776.3876,-0.9558139,-0.9042137,0.245159,-0.8199186,-0.4442286,0.2482186
776.4022,-0.9547997,-0.9024569,0.2480588,-0.8178133,-0.4409181,0.2439121
776.4166,-0.9547997,-0.9024569,0.2480588,-0.8178133,-0.4409181,0.2439121
776.4305,-0.9538597,-0.9007666,0.2508823,-0.8157952,-0.437664,0.23969
776.446,-0.9532354,-0.8992965,0.2542346,-0.8138161,-0.4349803,0.2353707
776.4604,-0.9527954,-0.8979651,0.2576797,-0.8119916,-0.4325278,0.2311364
776.4752,-0.9527954,-0.8979651,0.2576797,-0.8119916,-0.4325278,0.2311364
776.4892,-0.9524636,-0.8967233,0.2610802,-0.8102735,-0.4301681,0.2269852
776.5045,-0.952196,-0.8955414,0.2644005,-0.8086344,-0.4278502,0.2229155
776.5189,-0.952196,-0.8955414,0.2644005,-0.8086344,-0.4278502,0.2229155
776.5328,-0.9522299,-0.8945736,0.2682439,-0.8070304,-0.4260933,0.2187455
776.5482,-0.952442,-0.8937405,0.2721761,-0.8055745,-0.4245543,0.2146576
776.5629,-0.9527568,-0.8929945,0.276057,-0.8042194,-0.4230933,0.21065
776.5775,-0.9527568,-0.8929945,0.276057,-0.8042194,-0.4230933,0.21065
776.5936,-0.953397,-0.8924785,0.280459,-0.8029097,-0.422198,0.2065409
776.6077,-0.9542245,-0.8921066,0.2849306,-0.8017553,-0.4215056,0.2025128
776.6223,-0.9551576,-0.8918248,0.2893305,-0.8007042,-0.42087,0.1985638
776.6366,-0.9551576,-0.8918248,0.2893305,-0.8007042,-0.42087,0.1985638
776.6499,-0.9561481,-0.8915994,0.2936248,-0.7997273,-0.42024,0.1946922
776.665,-0.9574346,-0.8915821,0.2984295,-0.7987805,-0.4201491,0.1907165
776.6797,-0.9574346,-0.8915821,0.2984295,-0.7987805,-0.4201491,0.1907165
776.6936,-0.9588893,-0.8916906,0.3033004,-0.7979766,-0.4202415,0.1868191
776.7094,-0.960435,-0.8918753,0.3080969,-0.7972671,-0.4203761,0.1829983
776.7241,-0.9620253,-0.8921054,0.3127836,-0.7966253,-0.4205032,0.1792524
776.7386,-0.9620253,-0.8921054,0.3127836,-0.7966253,-0.4205032,0.1792524
776.7525,-0.9639004,-0.8925346,0.3179802,-0.7960108,-0.4211637,0.1753999
776.7679,-0.9659309,-0.8930818,0.3232332,-0.7955365,-0.4219932,0.1716233
776.7823,-0.9680404,-0.8936975,0.3284018,-0.795153,-0.4228486,0.1679209
776.7973,-0.9680404,-0.8936975,0.3284018,-0.795153,-0.4228486,0.1679209
776.8112,-0.9704519,-0.8945242,0.3340741,-0.7948112,-0.4242397,0.164111
776.8266,-0.9730247,-0.8954731,0.3397825,-0.7946167,-0.4257827,0.1603763
776.841,-0.9756765,-0.8964905,0.3453864,-0.7945157,-0.4273315,0.1567149
776.8557,-0.9756765,-0.8964905,0.3453864,-0.7945157,-0.4273315,0.1567149
776.8728,-0.9783599,-0.897544,0.3508554,-0.7944786,-0.4288393,0.1531253
776.8859,-0.981315,-0.8987869,0.3568226,-0.7944697,-0.4308626,0.149426
776.9004,-0.9844101,-0.9001361,0.3628233,-0.794597,-0.433023,0.1457997
776.9141,-0.9844101,-0.9001361,0.3628233,-0.794597,-0.433023,0.1457997
776.928,-0.9875688,-0.9015417,0.3687178,-0.7948095,-0.4351776,0.1422446
776.9431,-0.9907472,-0.9029743,0.3744754,-0.7950788,-0.4372813,0.1387593
776.9577,-0.9907472,-0.9029743,0.3744754,-0.7950788,-0.4372813,0.1387593
776.972,-0.9941887,-0.9045889,0.3807334,-0.7953748,-0.439898,0.1351621
776.9871,-0.9977617,-0.9063028,0.3870176,-0.7958032,-0.4426393,0.131636
777.0018,-1.00139,-0.9080668,0.3931879,-0.7963125,-0.4453617,0.1281791
777.0161,-1.00139,-0.9080668,0.3931879,-0.7963125,-0.4453617,0.1281791
777.0306,-1.005301,-0.9100248,0.3998514,-0.7968642,-0.4485981,0.12461
777.0457,-1.009349,-0.9120862,0.4065199,-0.7975553,-0.451942,0.1211112
777.0615,-1.013455,-0.9141982,0.4130549,-0.7983298,-0.4552475,0.1176812
777.0751,-1.013455,-0.9141982,0.4130549,-0.7983298,-0.4552475,0.1176812
777.0889,-1.01757,-0.9163297,0.4194305,-0.799157,-0.4584726,0.1143185
777.1047,-1.021941,-0.9186357,0.4262978,-0.8000149,-0.462197,0.1108416
777.1189,-1.021941,-0.9186357,0.4262978,-0.8000149,-0.462197,0.1108416
777.1328,-1.02643,-0.9210312,0.4331689,-0.8010013,-0.466017,0.1074333
777.1483,-1.030964,-0.9234671,0.4399061,-0.8020626,-0.4697895,0.104092
777.1648,-1.035497,-0.925915,0.4464827,-0.8031699,-0.4734739,0.1008162
777.1785,-1.035497,-0.925915,0.4464827,-0.8031699,-0.4734739,0.1008162
777.1922,-1.040279,-0.9285314,0.4535546,-0.8043079,-0.4776569,0.09742457
777.2067,-1.045173,-0.9312316,0.4606232,-0.8055708,-0.4819242,0.09409989
777.221,-1.050104,-0.9339669,0.467551,-0.8069041,-0.4861324,0.09084052
777.2356,-1.050104,-0.9339669,0.467551,-0.8069041,-0.4861324,0.09084052
777.2502,-1.055302,-0.9368825,0.4749652,-0.8082848,-0.4908387,0.08746498
777.265,-1.06062,-0.9398861,0.4823545,-0.8097969,-0.4956113,0.0841561
777.2792,-1.06062,-0.9398861,0.4823545,-0.8097969,-0.4956113,0.0841561
777.2932,-1.065975,-0.9429253,0.4895839,-0.8113814,-0.5003062,0.08091222
777.3084,-1.071323,-0.9459707,0.4966324,-0.8130076,-0.5048869,0.07773196
777.3232,-1.076914,-0.9491784,0.5041696,-0.8146704,-0.5099555,0.07443394
777.3376,-1.076914,-0.9491784,0.5041696,-0.8146704,-0.5099555,0.07443394
777.3516,-1.082607,-0.9524617,0.5116821,-0.8164539,-0.5150813,0.07120107
777.3672,-1.088326,-0.9557719,0.5190356,-0.8183016,-0.5201225,0.06803172
777.3816,-1.094029,-0.9590819,0.5262083,-0.8201841,-0.5250435,0.06492453
777.3962,-1.094029,-0.9590819,0.5262083,-0.8201841,-0.5250435,0.06492453
777.4101,-1.099969,-0.9625493,0.5338739,-0.8221046,-0.5304533,0.06169814
777.4257,-1.106007,-0.9660876,0.5415083,-0.8241422,-0.53591,0.05853552
777.4401,-1.112064,-0.9696484,0.5489776,-0.8262392,-0.5412716,0.05543503
777.4547,-1.112064,-0.9696484,0.5489776,-0.8262392,-0.5412716,0.05543503
777.4706,-1.118378,-0.9733781,0.5569293,-0.8283913,-0.5471197,0.05221523
777.4846,-1.124795,-0.9771826,0.5648277,-0.8306662,-0.5529961,0.04905907
777.4991,-1.124795,-0.9771826,0.5648277,-0.8306662,-0.5529961,0.04905907
777.5131,-1.131233,-0.9810102,0.5725429,-0.8330019,-0.5587599,0.0459649
777.5275,-1.137649,-0.9848326,0.5800595,-0.8353674,-0.5643805,0.04293142
777.5419,-1.144298,-0.9888075,0.5880643,-0.8377785,-0.5704824,0.03977728
777.5563,-1.144298,-0.9888075,0.5880643,-0.8377785,-0.5704824,0.03977728
777.5705,-1.151035,-0.9928461,0.5960172,-0.8403018,-0.5766056,0.03668549
777.5856,-1.157783,-0.9969001,0.6037892,-0.8428775,-0.582611,0.03365444
777.6003,-1.1645,-1.000944,0.6113638,-0.8454763,-0.5884693,0.03068284
777.615,-1.1645,-1.000944,0.6113638,-0.8454763,-0.5884693,0.03068284
777.6286,-1.171447,-1.005136,0.6194314,-0.8481233,-0.5948111,0.02758937
777.644,-1.178476,-1.009387,0.6274409,-0.8508784,-0.6011644,0.02455708
777.6588,-1.178476,-1.009387,0.6274409,-0.8508784,-0.6011644,0.02455708
777.6729,-1.185512,-1.013651,0.6352646,-0.853681,-0.6073912,0.02158436
777.688,-1.192795,-1.018073,0.6435692,-0.8565488,-0.6140972,0.01848981
777.7024,-1.200168,-1.022559,0.6517936,-0.8595295,-0.6207957,0.01545646
777.7169,-1.200168,-1.022559,0.6517936,-0.8595295,-0.6207957,0.01545646
777.7309,-1.207547,-1.027058,0.6598154,-0.8625583,-0.6273514,0.01248268
777.7463,-1.214889,-1.031541,0.667625,-0.8656043,-0.6337407,0.009567207
777.7609,-1.222458,-1.036169,0.6759239,-0.8687069,-0.6406088,0.006528777
777.7774,-1.222458,-1.036169,0.6759239,-0.8687069,-0.6406088,0.006528777
777.7915,-1.230102,-1.040851,0.6841454,-0.8719121,-0.6474642,0.003550438
777.8054,-1.237743,-1.045538,0.6921677,-0.8751571,-0.6541734,0.0006306015
777.819,-1.237743,-1.045538,0.6921677,-0.8751571,-0.6541734,0.0006306015
777.8328,-1.245627,-1.050379,0.7006691,-0.8784744,-0.661358,-0.002412084
777.848,-1.253591,-1.055276,0.7090727,-0.8818979,-0.668512,-0.005394602
777.8625,-1.261552,-1.060179,0.7172622,-0.8853607,-0.675505,-0.008318556
777.8773,-1.261552,-1.060179,0.7172622,-0.8853607,-0.675505,-0.008318556
777.891,-1.269468,-1.065062,0.7252318,-0.8888323,-0.6823186,-0.01118519
777.9064,-1.277607,-1.070084,0.7336911,-0.8923682,-0.6896108,-0.01417571
777.9208,-1.285812,-1.075154,0.7420563,-0.8959998,-0.6968681,-0.01710709
777.9356,-1.285812,-1.075154,0.7420563,-0.8959998,-0.6968681,-0.01710709
777.9495,-1.294005,-1.080223,0.7502118,-0.8996626,-0.7039624,-0.01998091
777.9646,-1.302147,-1.085269,0.7581509,-0.9033273,-0.7108763,-0.02279839
777.9792,-1.302147,-1.085269,0.7581509,-0.9033273,-0.7108763,-0.02279839
777.9931,-1.310509,-1.090451,0.7665847,-0.9070603,-0.7182735,-0.0257407
778.0084,-1.318934,-1.095677,0.7749191,-0.9108844,-0.7256266,-0.02862483
778.0231,-1.327343,-1.1009,0.7830415,-0.9147343,-0.7328108,-0.03145233
778.0375,-1.327343,-1.1009,0.7830415,-0.9147343,-0.7328108,-0.03145233
778.0515,-1.33599,-1.10627,0.7916443,-0.9186684,-0.740472,-0.03440445
778.067,-1.344705,-1.111687,0.8001268,-0.9226964,-0.7480704,-0.03729821
778.0812,-1.353402,-1.117102,0.8083833,-0.9267492,-0.7554864,-0.04013516
778.0975,-1.353402,-1.117102,0.8083833,-0.9267492,-0.7554864,-0.04013516
778.1118,-1.362043,-1.122489,0.8164136,-0.9307966,-0.7627095,-0.0429165
778.1261,-1.370904,-1.12801,0.8249357,-0.9349214,-0.7704169,-0.04582336
778.1393,-1.370904,-1.12801,0.8249357,-0.9349214,-0.7704169,-0.04582336
778.1532,-1.37982,-1.13357,0.8333416,-0.9391302,-0.7780574,-0.04867276
778.1684,-1.388711,-1.139123,0.841527,-0.9433556,-0.7855151,-0.05146623
778.1828,-1.397539,-1.144645,0.8494907,-0.9475693,-0.7927806,-0.05420493
778.1974,-1.397539,-1.144645,0.8494907,-0.9475693,-0.7927806,-0.05420493
778.2113,-1.406587,-1.150299,0.8579507,-0.9518647,-0.8005363,-0.05706996
778.2266,-1.415685,-1.15599,0.8662897,-0.9562392,-0.808216,-0.05987838
778.2411,-1.424755,-1.161671,0.8744077,-0.9606249,-0.8157089,-0.06263167
778.2557,-1.424755,-1.161671,0.8744077,-0.9606249,-0.8157089,-0.06263167
778.2698,-1.434061,-1.167493,0.883007,-0.9651073,-0.8236852,-0.06551097
778.2849,-1.443421,-1.173354,0.8914657,-0.9696702,-0.8315672,-0.06833339
778.2993,-1.443421,-1.173354,0.8914657,-0.9696702,-0.8315672,-0.06833339
778.3134,-1.452753,-1.179206,0.8996913,-0.9742424,-0.8392513,-0.07110044
778.3287,-1.462017,-1.185025,0.9076881,-0.9787949,-0.8467349,-0.07381324
778.3432,-1.471499,-1.190973,0.9161777,-0.9834383,-0.8547122,-0.07665282
778.3576,-1.471499,-1.190973,0.9161777,-0.9834383,-0.8547122,-0.07665282
778.3719,-1.481026,-1.196954,0.9245313,-0.9881526,-0.8625911,-0.07943635
778.3871,-1.490516,-1.202921,0.9326585,-0.9928687,-0.8702732,-0.08216524
778.4013,-1.499933,-1.208852,0.9405622,-0.9975589,-0.8777567,-0.08484065
778.4229,-1.509569,-1.214912,0.9489621,-1.002345,-0.8857408,-0.08764355
778.4313,-1.509569,-1.214912,0.9489621,-1.002345,-0.8857408,-0.08764355
778.4454,-1.519245,-1.221002,0.9572224,-1.007196,-0.8936172,-0.09039112
778.4596,-1.519245,-1.221002,0.9572224,-1.007196,-0.8936172,-0.09039112
778.4733,-1.528882,-1.227077,0.9652573,-1.012044,-0.9012948,-0.09308478
778.4886,-1.538751,-1.233288,0.9737728,-1.017002,-0.9094663,-0.09590555
778.5031,-1.548665,-1.239532,0.982131,-1.022025,-0.9175131,-0.09867068
778.5175,-1.548665,-1.239532,0.982131,-1.022025,-0.9175131,-0.09867068
778.5317,-1.558539,-1.245761,0.9902537,-1.027042,-0.9253523,-0.1013816
778.547,-1.568334,-1.251953,0.9981481,-1.032025,-0.932988,-0.1040393
778.5616,-1.578348,-1.258271,1.006533,-1.037112,-0.9411293,-0.1068248
778.5762,-1.578348,-1.258271,1.006533,-1.037112,-0.9411293,-0.1068248
778.5903,-1.588395,-1.264616,1.014766,-1.042256,-0.9491412,-0.1095554
778.6058,-1.598397,-1.270943,1.022772,-1.047387,-0.9569482,-0.1122325
778.6201,-1.608316,-1.27723,1.030555,-1.052478,-0.9645546,-0.114857
778.6348,-1.608316,-1.27723,1.030555,-1.052478,-0.9645546,-0.114857
778.6487,-1.618453,-1.283643,1.038831,-1.057679,-0.9726731,-0.11761
778.6639,-1.628622,-1.290081,1.046953,-1.062932,-0.9806535,-0.1203087
778.6784,-1.628622,-1.290081,1.046953,-1.062932,-0.9806535,-0.1203087
778.6923,-1.63874,-1.2965,1.054849,-1.068166,-0.9884291,-0.1229545
778.7088,-1.636876,-1.295986,1.034168,-1.066669,-0.9670073,-0.1175325
778.7249,-1.627761,-1.291406,1.010022,-1.060763,-0.9431757,-0.1122304
778.7375,-1.627761,-1.291406,1.010022,-1.060763,-0.9431757,-0.1122304
778.7518,-1.615164,-1.284633,0.986679,-1.053376,-0.9200928,-0.1070349
778.7659,-1.601201,-1.276873,0.9650026,-1.04561,-0.8980446,-0.101941
778.7805,-1.586819,-1.268711,0.944807,-1.037825,-0.8768927,-0.09694629
778.7958,-1.586819,-1.268711,0.944807,-1.037825,-0.8768927,-0.09694629
778.8091,-1.572392,-1.260403,0.9257023,-1.030129,-0.8564524,-0.09204889
778.8243,-1.558054,-1.252054,0.9073729,-1.022555,-0.8365817,-0.0872472
778.8391,-1.558054,-1.252054,0.9073729,-1.022555,-0.8365817,-0.0872472
778.8531,-1.543851,-1.243712,0.8896161,-1.01512,-0.8171883,-0.08253951
778.8685,-1.529797,-1.235397,0.8723144,-1.007829,-0.798216,-0.07792407
778.8849,-1.515893,-1.227117,0.8554027,-1.000686,-0.7796311,-0.07339913
778.8972,-1.515893,-1.227117,0.8554027,-1.000686,-0.7796311,-0.07339913
778.9113,-1.502139,-1.218879,0.8388456,-0.9936915,-0.7614129,-0.06896296
778.9268,-1.488533,-1.210684,0.822623,-0.986844,-0.7435479,-0.06461382
778.9412,-1.475073,-1.202534,0.8067229,-0.9801413,-0.7260263,-0.06035001
778.956,-1.475073,-1.202534,0.8067229,-0.9801413,-0.7260263,-0.06035001
778.9695,-1.461758,-1.19443,0.7911371,-0.9735806,-0.7088401,-0.05616986
778.9849,-1.448585,-1.186373,0.7758594,-0.9671584,-0.6919826,-0.05207173
778.9994,-1.448585,-1.186373,0.7758594,-0.9671584,-0.6919826,-0.05207173
779.0132,-1.435554,-1.178363,0.7608842,-0.9608715,-0.6754473,-0.048054
779.0307,-1.422663,-1.170401,0.7462066,-0.9547162,-0.6592285,-0.04411511
779.0441,-1.40991,-1.162486,0.7318218,-0.9486893,-0.6433203,-0.04025351
779.0588,-1.40991,-1.162486,0.7318218,-0.9486893,-0.6433203,-0.04025351
779.0718,-1.397295,-1.15462,0.7177251,-0.9427873,-0.627717,-0.03646766
779.087,-1.384817,-1.146802,0.7039117,-0.9370069,-0.6124131,-0.0327561
779.1014,-1.372473,-1.139033,0.6903772,-0.9313449,-0.5974033,-0.02911735
779.116,-1.372473,-1.139033,0.6903772,-0.9313449,-0.5974033,-0.02911735
779.1302,-1.360263,-1.131313,0.6771168,-0.9257981,-0.5826822,-0.02554999
779.1455,-1.348187,-1.123643,0.6641262,-0.9203634,-0.5682446,-0.02205263
779.1602,-1.336242,-1.116022,0.6514006,-0.9150378,-0.5540855,-0.01862387
779.1749,-1.336242,-1.116022,0.6514006,-0.9150378,-0.5540855,-0.01862387
779.1889,-1.324427,-1.108451,0.6389363,-0.9098186,-0.5402005,-0.01526237
779.2042,-1.312742,-1.100931,0.626729,-0.9047033,-0.5265849,-0.01196681
779.2189,-1.312742,-1.100931,0.626729,-0.9047033,-0.5265849,-0.01196681
779.2327,-1.301185,-1.09346,0.6147743,-0.899689,-0.513234,-0.008735887
779.2479,-1.289755,-1.086041,0.6030679,-0.894773,-0.500143,-0.005568343
779.2625,-1.278451,-1.078672,0.5916054,-0.8899526,-0.4873072,-0.002462931
779.2772,-1.278451,-1.078672,0.5916054,-0.8899526,-0.4873072,-0.002462931
779.291,-1.267272,-1.071354,0.5803828,-0.8852252,-0.474722,0.000581577
779.3064,-1.256217,-1.064087,0.5693957,-0.8805882,-0.462383,0.003566376
779.3234,-1.245285,-1.056872,0.5586402,-0.8760391,-0.4502856,0.006492637
779.3365,-1.245285,-1.056872,0.5586402,-0.8760391,-0.4502856,0.006492637
779.3505,-1.234474,-1.049708,0.548112,-0.8715757,-0.4384256,0.009361511
779.3648,-1.223784,-1.042596,0.5378073,-0.8671955,-0.4267986,0.01217413
779.3795,-1.223784,-1.042596,0.5378073,-0.8671955,-0.4267986,0.01217413
779.3934,-1.213213,-1.035537,0.5277219,-0.8628961,-0.4154005,0.01493159
779.4088,-1.202761,-1.028529,0.5178521,-0.8586755,-0.4042272,0.01763498
779.4235,-1.192425,-1.021573,0.5081939,-0.8545315,-0.3932745,0.02028537
779.438,-1.192425,-1.021573,0.5081939,-0.8545315,-0.3932745,0.02028537
779.4523,-1.182206,-1.01467,0.4987435,-0.850462,-0.3825384,0.0228838
779.4676,-1.172102,-1.007819,0.4894971,-0.8464649,-0.3720151,0.02543128
779.4821,-1.162113,-1.001021,0.480451,-0.8425383,-0.3617007,0.02792881
779.4969,-1.162113,-1.001021,0.480451,-0.8425383,-0.3617007,0.02792881
779.5108,-1.152236,-0.9942756,0.4716015,-0.8386803,-0.3515914,0.03037738
779.5264,-1.142471,-0.9875829,0.4629451,-0.8348891,-0.3416835,0.03277795
779.541,-1.132817,-0.9809429,0.4544782,-0.8311629,-0.3319732,0.03513147
779.5555,-1.132817,-0.9809429,0.4544782,-0.8311629,-0.3319732,0.03513147
779.5693,-1.123272,-0.9743558,0.4461972,-0.8274999,-0.322457,0.03743886
779.5847,-1.113837,-0.9678215,0.4380986,-0.8238984,-0.3131314,0.03970101
779.6014,-1.104509,-0.9613402,0.4301792,-0.8203568,-0.3039928,0.04191884
779.6149,-1.104509,-0.9613402,0.4301792,-0.8203568,-0.3039928,0.04191884
779.629,-1.095288,-0.9549119,0.4224355,-0.8168737,-0.2950378,0.04409319
779.6434,-1.086173,-0.9485365,0.4148642,-0.8134473,-0.2862631,0.04622493
779.6581,-1.086173,-0.9485365,0.4148642,-0.8134473,-0.2862631,0.04622493
779.6718,-1.077162,-0.942214,0.407462,-0.8100762,-0.2776653,0.0483149
779.6871,-1.068254,-0.9359444,0.4002258,-0.8067591,-0.2692412,0.05036391
779.7017,-1.05945,-0.9297277,0.3931524,-0.8034945,-0.2609876,0.05237276
779.7164,-1.05945,-0.9297277,0.3931524,-0.8034945,-0.2609876,0.05237276
779.7304,-1.050746,-0.9235638,0.3862387,-0.8002811,-0.2529012,0.05434226
779.7456,-1.042144,-0.9174527,0.3794816,-0.7971176,-0.2449791,0.05627317
779.7602,-1.03364,-0.9113943,0.3728781,-0.7940027,-0.2372182,0.05816624
779.7748,-1.03364,-0.9113943,0.3728781,-0.7940027,-0.2372182,0.05816624
779.7886,-1.025236,-0.9053885,0.3664253,-0.7909352,-0.2296155,0.06002222
779.8042,-1.016928,-0.8994353,0.3601202,-0.787914,-0.222168,0.06184183
779.8185,-1.016928,-0.8994353,0.3601202,-0.787914,-0.222168,0.06184183
779.8326,-1.008718,-0.8935346,0.3539599,-0.7849379,-0.2148729,0.0636258
779.8477,-1.000602,-0.8876862,0.3479417,-0.7820057,-0.2077273,0.06537482
779.8622,-0.9925816,-0.88189,0.3420628,-0.7791166,-0.2007284,0.06708958
779.8768,-0.9925816,-0.88189,0.3420628,-0.7791166,-0.2007284,0.06708958
779.8905,-0.9846544,-0.8761459,0.3363204,-0.7762693,-0.1938734,0.06877075
779.908,-0.9768196,-0.8704537,0.3307119,-0.773463,-0.1871597,0.07041898
779.9214,-0.9690765,-0.8648133,0.3252346,-0.7706966,-0.1805846,0.07203493
779.9352,-0.9690765,-0.8648133,0.3252346,-0.7706966,-0.1805846,0.07203493
779.949,-0.9614239,-0.8592246,0.3198858,-0.7679692,-0.1741455,0.07361922
779.9642,-0.9538609,-0.8536873,0.3146632,-0.7652799,-0.1678398,0.07517248
779.9788,-0.9538609,-0.8536873,0.3146632,-0.7652799,-0.1678398,0.07517248
779.9927,-0.9463867,-0.8482013,0.3095642,-0.762628,-0.161665,0.07669532
780.008,-0.9390001,-0.8427663,0.3045862,-0.7600123,-0.1556186,0.07818834
780.0227,-0.9317003,-0.8373823,0.2997269,-0.7574323,-0.1496983,0.07965211
780.0372,-0.9317003,-0.8373823,0.2997269,-0.7574323,-0.1496983,0.07965211
780.0511,-0.9244864,-0.832049,0.294984,-0.754887,-0.1439015,0.08108722
780.0664,-0.9173574,-0.8267661,0.2903549,-0.7523758,-0.138226,0.08249421
780.0809,-0.9103124,-0.8215336,0.2858376,-0.749898,-0.1326695,0.08387367
780.0956,-0.9103124,-0.8215336,0.2858376,-0.749898,-0.1326695,0.08387367
780.1094,-0.9033504,-0.816351,0.2814296,-0.7474526,-0.1272296,0.0852261
780.1249,-0.8964705,-0.8112183,0.2771288,-0.7450392,-0.1219042,0.08655204
780.1394,-0.8964705,-0.8112183,0.2771288,-0.7450392,-0.1219042,0.08655204
780.1532,-0.8896719,-0.8061351,0.272933,-0.7426569,-0.116691,0.08785201
780.1683,-0.8829536,-0.8011011,0.2688401,-0.7403053,-0.1115879,0.08912653
780.1829,-0.8763148,-0.7961163,0.264848,-0.7379836,-0.1065929,0.09037609
780.1974,-0.8763148,-0.7961163,0.264848,-0.7379836,-0.1065929,0.09037609
780.2133,-0.8697544,-0.7911803,0.2609546,-0.7356913,-0.1017037,0.09160117
780.2275,-0.8632718,-0.7862927,0.2571578,-0.7334277,-0.0969185,0.09280226
