JMolnar6/NonAnthroHands_User_Study/HandsLoggerWithURDF/tempdata/files/Reachy_JointMotion_gesture_4_18.csv
Time,r_shoulder,r_shoulder_x,r_upper_arm,r_forearm,r_wrist,r_wrist2hand,
203.9482,0.04500177,-2.484824E-08,NaN,-0.3269988,-1.369213E-07,NaN,0.472078,3.365538E-08,NaN,-0.5188556,6.981084E-06,-0.384645,-2.840026E-08,NaN,NaN,-0.01997232,-5.587989E-11,1.355974E-07,-1.146567E-07,-9.842928E-09,-2.622604E-08
203.9651,0.04500178,-2.484714E-08,NaN,-0.3269988,-1.369219E-07,NaN,0.4722104,3.384266E-08,NaN,-0.5200609,6.981778E-06,-0.3848249,-2.858529E-08,NaN,NaN,-0.01997598,-6.519311E-11,1.086263E-07,-1.146559E-07,-7.458743E-09,-2.622604E-08
203.9814,0.04500179,-2.484603E-08,NaN,-0.3269988,-1.369224E-07,NaN,0.4723317,3.402641E-08,NaN,-0.521965,6.982467E-06,-0.3850193,-2.876678E-08,NaN,NaN,-0.01997802,-6.984973E-11,9.134092E-08,-1.146551E-07,-9.842928E-09,-2.622604E-08
204.0002,0.0450018,-2.484493E-08,NaN,-0.3269988,-1.36923E-07,NaN,0.4724084,3.42067E-08,NaN,-0.5241829,6.983157E-06,-0.385175,-2.894482E-08,NaN,NaN,-0.01997939,-7.450635E-11,8.031405E-08,-1.146543E-07,-7.458743E-09,-2.622604E-08
204.0157,0.0450018,-2.484493E-08,NaN,-0.3269988,-1.36923E-07,NaN,0.4724084,3.42067E-08,NaN,-0.5241829,6.983157E-06,-0.385175,-2.894482E-08,NaN,NaN,-0.01997939,-7.450635E-11,8.031405E-08,-1.146543E-07,-7.458743E-09,-2.622604E-08
204.0318,0.0450018,-2.484382E-08,NaN,-0.3269988,-1.369235E-07,NaN,0.4723026,3.43836E-08,NaN,-0.5252973,6.983846E-06,-0.3850936,-2.911947E-08,NaN,NaN,-0.01997681,-7.916296E-11,1.014737E-07,-1.146535E-07,-9.842928E-09,-2.622604E-08
204.0493,0.04500179,-2.484272E-08,NaN,-0.3269988,-1.369241E-07,NaN,0.4721883,3.455718E-08,NaN,-0.5257556,6.984531E-06,-0.3849718,-2.929079E-08,NaN,NaN,-0.01997569,-7.916296E-11,1.102654E-07,-1.146528E-07,-1.699549E-08,-2.622604E-08
204.0663,0.04500179,-2.484161E-08,NaN,-0.3269988,-1.369246E-07,NaN,0.4721075,3.472891E-08,NaN,-0.525901,6.985215E-06,-0.3848712,-2.946028E-08,NaN,NaN,-0.01997514,-7.916296E-11,1.141397E-07,-1.14652E-07,-2.176386E-08,-2.622604E-08
204.0833,0.04500179,-2.484051E-08,NaN,-0.3269988,-1.369252E-07,NaN,0.4720558,3.489743E-08,NaN,-0.5258973,6.985904E-06,-0.3847972,-2.962654E-08,NaN,NaN,-0.01997483,-8.381958E-11,1.163749E-07,-1.146512E-07,-2.176386E-08,-2.622604E-08
204.1005,0.04500178,-2.48394E-08,NaN,-0.3269988,-1.369257E-07,NaN,0.4718746,3.506278E-08,NaN,-0.5245897,6.986589E-06,-0.384544,-2.978964E-08,NaN,NaN,-0.01997098,-8.381958E-11,1.455811E-07,-1.146504E-07,-2.176386E-08,-2.622604E-08
204.1171,0.04500178,-2.48394E-08,NaN,-0.3269988,-1.369257E-07,NaN,0.4718746,3.506278E-08,NaN,-0.5245897,6.986589E-06,-0.384544,-2.978964E-08,NaN,NaN,-0.01997098,-8.381958E-11,1.455811E-07,-1.146504E-07,-2.176386E-08,-2.622604E-08
204.1333,0.04500177,-2.48383E-08,NaN,-0.3269988,-1.369263E-07,NaN,0.4717129,3.522504E-08,NaN,-0.5225509,6.987273E-06,-0.3842877,-2.994965E-08,NaN,NaN,-0.01996873,-8.381958E-11,1.645056E-07,-1.146496E-07,-2.176386E-08,-2.622604E-08
204.1512,0.04500176,-2.483719E-08,NaN,-0.3269988,-1.369268E-07,NaN,0.4715984,3.538427E-08,NaN,-0.5201842,6.987957E-06,-0.384076,-3.010662E-08,NaN,NaN,-0.01996714,-8.381958E-11,1.773206E-07,-1.146489E-07,-2.653223E-08,-2.622604E-08
204.168,0.04500174,-2.483609E-08,NaN,-0.3269988,-1.369274E-07,NaN,0.47137,3.554194E-08,NaN,-0.5164489,6.988642E-06,-0.3837054,-3.026203E-08,NaN,NaN,-0.01996211,-8.381958E-11,2.163617E-07,-1.146481E-07,-2.414804E-08,-2.622604E-08
204.185,0.04500173,-2.483498E-08,NaN,-0.3269988,-1.369279E-07,NaN,0.4711705,3.570368E-08,NaN,-0.5119717,6.989326E-06,-0.3833467,-3.042152E-08,NaN,NaN,-0.01995879,-8.381958E-11,2.421407E-07,-1.146474E-07,-2.176386E-08,-2.622604E-08
204.2022,0.04500171,-2.483388E-08,NaN,-0.3269988,-1.369284E-07,NaN,0.4710234,3.586521E-08,NaN,-0.5071817,6.990011E-06,-0.3830432,-3.05808E-08,NaN,NaN,-0.01995616,-8.381958E-11,2.627042E-07,-1.146467E-07,-2.176386E-08,-2.622604E-08
204.219,0.04500171,-2.483388E-08,NaN,-0.3269988,-1.369284E-07,NaN,0.4710234,3.586521E-08,NaN,-0.5071817,6.990011E-06,-0.3830432,-3.05808E-08,NaN,NaN,-0.01995616,-8.381958E-11,2.627042E-07,-1.146467E-07,-2.176386E-08,-2.622604E-08
204.2355,0.04500169,-2.483277E-08,NaN,-0.3269987,-1.369289E-07,NaN,0.4707618,3.602513E-08,NaN,-0.5010504,6.990695E-06,-0.3825856,-3.073847E-08,NaN,NaN,-0.01994993,-8.381958E-11,3.093449E-07,-1.14646E-07,-2.176386E-08,-2.622604E-08
204.2529,0.04500167,-2.483167E-08,NaN,-0.3269987,-1.369295E-07,NaN,0.4705283,3.618206E-08,NaN,-0.4942098,6.991379E-06,-0.3821432,-3.089314E-08,NaN,NaN,-0.01994546,-8.381958E-11,3.433195E-07,-1.146454E-07,-1.937967E-08,-2.622604E-08
204.2699,0.04500165,-2.483056E-08,NaN,-0.3269987,-1.3693E-07,NaN,0.4703481,3.633605E-08,NaN,-0.4870914,6.992064E-06,-0.3817595,-3.104489E-08,NaN,NaN,-0.01994171,-8.381958E-11,3.698436E-07,-1.146447E-07,-1.937967E-08,-2.622604E-08
204.287,0.04500163,-2.482946E-08,NaN,-0.3269987,-1.369306E-07,NaN,0.4702081,3.648859E-08,NaN,-0.4799004,6.992748E-06,-0.3814281,-3.119517E-08,NaN,NaN,-0.01993823,-8.381958E-11,3.939835E-07,-1.14644E-07,-1.46113E-08,-2.622604E-08
204.304,0.04500162,-2.482835E-08,NaN,-0.3269987,-1.369311E-07,NaN,0.4700734,3.663828E-08,NaN,-0.4725893,6.993433E-06,-0.3811099,-3.13426E-08,NaN,NaN,-0.01993436,-8.381958E-11,4.197625E-07,-1.146434E-07,-1.46113E-08,-2.622604E-08
204.3211,0.0450016,-2.482725E-08,NaN,-0.3269987,-1.369316E-07,NaN,0.4699529,3.678377E-08,NaN,-0.465267,6.994117E-06,-0.3808153,-3.148584E-08,NaN,NaN,-0.01993074,-8.381958E-11,4.416672E-07,-1.146427E-07,-9.842928E-09,-2.622604E-08
204.3385,0.0450016,-2.482725E-08,NaN,-0.3269987,-1.369316E-07,NaN,0.4699529,3.678377E-08,NaN,-0.465267,6.994117E-06,-0.3808153,-3.148584E-08,NaN,NaN,-0.01993074,-8.381958E-11,4.416672E-07,-1.146427E-07,-9.842928E-09,-2.622604E-08
204.3546,0.04500159,-2.482614E-08,NaN,-0.3269987,-1.369322E-07,NaN,0.4698454,3.692655E-08,NaN,-0.4579998,6.994801E-06,-0.3805435,-3.162637E-08,NaN,NaN,-0.0199272,-8.381958E-11,4.625288E-07,-1.14642E-07,-9.842928E-09,-2.622604E-08
204.3723,0.04500157,-2.482503E-08,NaN,-0.3269987,-1.369327E-07,NaN,0.4697476,3.706667E-08,NaN,-0.4508187,6.995486E-06,-0.3802904,-3.176424E-08,NaN,NaN,-0.01992369,-8.381958E-11,4.826454E-07,-1.146414E-07,-9.842928E-09,-2.622604E-08
204.3893,0.04500156,-2.482393E-08,NaN,-0.3269987,-1.369332E-07,NaN,0.4696572,3.720561E-08,NaN,-0.4437376,6.99617E-06,-0.3800523,-3.190092E-08,NaN,NaN,-0.01992017,-8.381958E-11,5.023149E-07,-1.146407E-07,-9.842928E-09,-2.622604E-08
204.4062,0.04500154,-2.482282E-08,NaN,-0.3269987,-1.369337E-07,NaN,0.4695728,3.734197E-08,NaN,-0.4367623,6.996855E-06,-0.3798268,-3.203503E-08,NaN,NaN,-0.01991664,-8.381958E-11,5.203453E-07,-1.146401E-07,-9.842928E-09,-2.622604E-08
204.4233,0.04500153,-2.482171E-08,NaN,-0.3269987,-1.369343E-07,NaN,0.4694941,3.74758E-08,NaN,-0.4298945,6.997544E-06,-0.3796126,-3.216661E-08,NaN,NaN,-0.01991307,-8.847619E-11,5.385247E-07,-1.146394E-07,-7.458743E-09,-2.622604E-08
204.4403,0.04500152,-2.482061E-08,NaN,-0.3269987,-1.369348E-07,NaN,0.4694209,3.760715E-08,NaN,-0.4231343,6.998228E-06,-0.3794088,-3.229571E-08,NaN,NaN,-0.01990946,-8.847619E-11,5.558101E-07,-1.146388E-07,-5.074557E-09,-2.622604E-08
204.4572,0.04500152,-2.482061E-08,NaN,-0.3269987,-1.369348E-07,NaN,0.4694209,3.760715E-08,NaN,-0.4231343,6.998228E-06,-0.3794088,-3.229571E-08,NaN,NaN,-0.01990946,-8.847619E-11,5.558101E-07,-1.146388E-07,-5.074557E-09,-2.622604E-08
204.4733,0.04500151,-2.48195E-08,NaN,-0.3269987,-1.369353E-07,NaN,0.4693534,3.773608E-08,NaN,-0.4164807,6.998913E-06,-0.3792149,-3.242238E-08,NaN,NaN,-0.01990583,-8.847619E-11,5.704132E-07,-1.146381E-07,-3.061857E-10,-2.622604E-08
204.4916,0.0450015,-2.481839E-08,NaN,-0.3269987,-1.369359E-07,NaN,0.4692918,3.786262E-08,NaN,-0.4099326,6.999602E-06,-0.3790307,-3.254667E-08,NaN,NaN,-0.01990215,-9.313281E-11,5.871025E-07,-1.146375E-07,2.078E-09,-2.622604E-08
204.5082,0.04500148,-2.481729E-08,NaN,-0.3269987,-1.369364E-07,NaN,0.4692364,3.798683E-08,NaN,-0.4034882,7.000287E-06,-0.378856,-3.266862E-08,NaN,NaN,-0.01989844,-9.313281E-11,6.020036E-07,-1.146369E-07,-3.061857E-10,-2.622604E-08
204.5275,0.04500147,-2.481618E-08,NaN,-0.3269987,-1.369369E-07,NaN,0.4691872,3.811016E-08,NaN,-0.3971462,7.000971E-06,-0.3786907,-3.278969E-08,NaN,NaN,-0.01989469,-9.313281E-11,6.161598E-07,-1.146362E-07,-9.842928E-09,-2.622604E-08
204.5425,0.04500146,-2.481507E-08,NaN,-0.3269987,-1.369374E-07,NaN,0.4691443,3.823121E-08,NaN,-0.3909048,7.001655E-06,-0.3785346,-3.29085E-08,NaN,NaN,-0.01989089,-9.313281E-11,6.286767E-07,-1.146356E-07,-1.46113E-08,-2.622604E-08
204.5595,0.04500146,-2.481507E-08,NaN,-0.3269987,-1.369374E-07,NaN,0.4691443,3.823121E-08,NaN,-0.3909048,7.001655E-06,-0.3785346,-3.29085E-08,NaN,NaN,-0.01989089,-9.313281E-11,6.286767E-07,-1.146356E-07,-1.46113E-08,-2.622604E-08
204.576,0.04500145,-2.481397E-08,NaN,-0.3269987,-1.369379E-07,NaN,0.4691079,3.835004E-08,NaN,-0.3847626,7.00234E-06,-0.3783877,-3.302507E-08,NaN,NaN,-0.01988705,-9.313281E-11,6.416407E-07,-1.14635E-07,-2.176386E-08,-2.622604E-08
204.5934,0.04500144,-2.481286E-08,NaN,-0.3269987,-1.369384E-07,NaN,0.4690779,3.846669E-08,NaN,-0.378718,7.003024E-06,-0.3782498,-3.313946E-08,NaN,NaN,-0.01988316,-9.313281E-11,6.540087E-07,-1.146343E-07,-2.176386E-08,-2.622604E-08
204.6105,0.04500143,-2.481175E-08,NaN,-0.3269987,-1.369389E-07,NaN,0.4690545,3.85812E-08,NaN,-0.3727694,7.003709E-06,-0.3781208,-3.325172E-08,NaN,NaN,-0.01987922,-9.313281E-11,6.659296E-07,-1.146337E-07,-2.891641E-08,-2.622604E-08
204.6275,0.04500142,-2.481065E-08,NaN,-0.3269987,-1.369394E-07,NaN,0.4690376,3.86936E-08,NaN,-0.3669153,7.004393E-06,-0.3780007,-3.336187E-08,NaN,NaN,-0.01987523,-9.313281E-11,6.781486E-07,-1.146331E-07,-2.653223E-08,-2.622604E-08
204.645,0.04500141,-2.480954E-08,NaN,-0.3269987,-1.369399E-07,NaN,0.4690273,3.880536E-08,NaN,-0.3611543,7.005077E-06,-0.3778894,-3.347137E-08,NaN,NaN,-0.01987119,-9.313281E-11,6.891755E-07,-1.146325E-07,-2.414804E-08,-2.622604E-08
204.6613,0.0450014,-2.480843E-08,NaN,-0.3269987,-1.369404E-07,NaN,0.4690234,3.891508E-08,NaN,-0.3554847,7.005762E-06,-0.3777867,-3.357883E-08,NaN,NaN,-0.01986709,-9.313281E-11,6.999043E-07,-1.146319E-07,-1.937967E-08,-2.622604E-08
204.6786,0.0450014,-2.480843E-08,NaN,-0.3269987,-1.369404E-07,NaN,0.4690234,3.891508E-08,NaN,-0.3554847,7.005762E-06,-0.3777867,-3.357883E-08,NaN,NaN,-0.01986709,-9.313281E-11,6.999043E-07,-1.146319E-07,-1.937967E-08,-2.622604E-08
204.6945,0.04500138,-2.480733E-08,NaN,-0.3269987,-1.369409E-07,NaN,0.4690261,3.902279E-08,NaN,-0.3499052,7.006446E-06,-0.3776926,-3.368429E-08,NaN,NaN,-0.01986294,-9.313281E-11,7.100371E-07,-1.146312E-07,-1.222712E-08,-2.622604E-08
204.7124,0.04500137,-2.480622E-08,NaN,-0.3269987,-1.369414E-07,NaN,0.4690354,3.912853E-08,NaN,-0.3444144,7.007131E-06,-0.377607,-3.378778E-08,NaN,NaN,-0.01985872,-9.313281E-11,7.194249E-07,-1.146306E-07,-1.222712E-08,-2.622604E-08
204.7293,0.04500136,-2.480511E-08,NaN,-0.3269987,-1.369419E-07,NaN,0.4690511,3.923234E-08,NaN,-0.3390108,7.007815E-06,-0.3775297,-3.388934E-08,NaN,NaN,-0.01985445,-9.313281E-11,7.270244E-07,-1.1463E-07,-9.84293E-09,-2.622604E-08
204.7462,0.04500135,-2.4804E-08,NaN,-0.3269987,-1.369424E-07,NaN,0.4690734,3.933425E-08,NaN,-0.3336931,7.008499E-06,-0.3774608,-3.398899E-08,NaN,NaN,-0.01985011,-9.313281E-11,7.361141E-07,-1.146294E-07,-9.84293E-09,-2.622604E-08
204.7628,0.04500134,-2.480289E-08,NaN,-0.3269987,-1.369429E-07,NaN,0.4691021,3.94343E-08,NaN,-0.3284598,7.009179E-06,-0.3774,-3.408679E-08,NaN,NaN,-0.0198457,-8.847619E-11,7.452039E-07,-1.146288E-07,-1.222712E-08,-2.622604E-08
204.78,0.04500134,-2.480289E-08,NaN,-0.3269987,-1.369429E-07,NaN,0.4691021,3.94343E-08,NaN,-0.3284598,7.009179E-06,-0.3774,-3.408679E-08,NaN,NaN,-0.0198457,-8.847619E-11,7.452039E-07,-1.146288E-07,-1.222712E-08,-2.622604E-08
204.7962,0.04500133,-2.480178E-08,NaN,-0.3269987,-1.369434E-07,NaN,0.4691373,3.953395E-08,NaN,-0.3233097,7.009859E-06,-0.3773474,-3.418419E-08,NaN,NaN,-0.01984123,-8.381958E-11,7.526544E-07,-1.146282E-07,-9.84293E-09,-2.622604E-08
204.8144,0.04500132,-2.480068E-08,NaN,-0.3269987,-1.369439E-07,NaN,0.4691789,3.963179E-08,NaN,-0.3182415,7.010539E-06,-0.3773028,-3.427977E-08,NaN,NaN,-0.01983669,-7.916296E-11,7.59807E-07,-1.146276E-07,-7.458745E-09,-2.622604E-08
204.8308,0.04500131,-2.479957E-08,NaN,-0.3269987,-1.369444E-07,NaN,0.469227,3.972785E-08,NaN,-0.3132538,7.011219E-06,-0.3772662,-3.437358E-08,NaN,NaN,-0.01983208,-7.450635E-11,7.668106E-07,-1.14627E-07,-5.074559E-09,-2.622604E-08
204.8481,0.04500129,-2.479846E-08,NaN,-0.3269987,-1.369449E-07,NaN,0.4692815,3.982218E-08,NaN,-0.3083453,7.011899E-06,-0.3772375,-3.446566E-08,NaN,NaN,-0.01982739,-6.984973E-11,7.735161E-07,-1.146264E-07,-2.690373E-09,-2.622604E-08
204.8649,0.04500128,-2.479735E-08,NaN,-0.3269987,-1.36945E-07,NaN,0.4693424,3.942707E-08,NaN,-0.3035148,7.012578E-06,-0.3772166,-3.406829E-08,NaN,NaN,-0.01982263,-6.519311E-11,7.802216E-07,-1.146265E-07,-7.458745E-09,-2.622604E-08
204.882,0.04500127,-2.479624E-08,NaN,-0.3269987,-1.369451E-07,NaN,0.4694096,3.904268E-08,NaN,-0.2987611,7.013258E-06,-0.3772034,-3.368164E-08,NaN,NaN,-0.01981779,-6.05365E-11,7.85437E-07,-1.146266E-07,-1.46113E-08,-2.622604E-08
204.8989,0.04500127,-2.479624E-08,NaN,-0.3269987,-1.369451E-07,NaN,0.4694096,3.904268E-08,NaN,-0.2987611,7.013258E-06,-0.3772034,-3.368164E-08,NaN,NaN,-0.01981779,-6.05365E-11,7.85437E-07,-1.146266E-07,-1.46113E-08,-2.622604E-08
204.9154,0.04500126,-2.479513E-08,NaN,-0.3269987,-1.369452E-07,NaN,0.4694833,3.866596E-08,NaN,-0.294083,7.013938E-06,-0.377198,-3.330267E-08,NaN,NaN,-0.01981287,-5.587989E-11,7.908014E-07,-1.146267E-07,-1.222712E-08,-2.622604E-08
204.933,0.04500125,-2.479402E-08,NaN,-0.3269987,-1.369453E-07,NaN,0.4695633,3.829818E-08,NaN,-0.2894791,7.014618E-06,-0.3772001,-3.293263E-08,NaN,NaN,-0.01980786,-5.122328E-11,7.964639E-07,-1.146268E-07,-1.222712E-08,-2.622604E-08
204.9499,0.04500124,-2.479292E-08,NaN,-0.3269987,-1.369454E-07,NaN,0.4696496,3.793776E-08,NaN,-0.2849485,7.015298E-06,-0.3772097,-3.256996E-08,NaN,NaN,-0.01980277,-4.656666E-11,8.007852E-07,-1.146269E-07,-9.842932E-09,-2.622604E-08
204.9671,0.04500123,-2.479181E-08,NaN,-0.3269987,-1.369455E-07,NaN,0.4697423,3.758456E-08,NaN,-0.2804898,7.015969E-06,-0.3772268,-3.221449E-08,NaN,NaN,-0.01979759,-3.259682E-11,8.051066E-07,-1.14627E-07,-2.690375E-09,-2.622604E-08
204.9841,0.04500122,-2.47907E-08,NaN,-0.3269987,-1.369456E-07,NaN,0.4698412,3.723842E-08,NaN,-0.276102,7.016648E-06,-0.3772514,-3.18661E-08,NaN,NaN,-0.01979233,-2.794021E-11,8.088319E-07,-1.146271E-07,-3.061889E-10,-2.622604E-08
205.0008,0.04500121,-2.478959E-08,NaN,-0.3269987,-1.369457E-07,NaN,0.4699465,3.689921E-08,NaN,-0.2717839,7.017324E-06,-0.3772832,-3.152464E-08,NaN,NaN,-0.01978697,-1.862699E-11,8.133022E-07,-1.146272E-07,-2.690375E-09,-2.622604E-08
205.0179,0.04500121,-2.478959E-08,NaN,-0.3269987,-1.369457E-07,NaN,0.4699465,3.689921E-08,NaN,-0.2717839,7.017324E-06,-0.3772832,-3.152464E-08,NaN,NaN,-0.01978697,-1.862699E-11,8.133022E-07,-1.146272E-07,-2.690375E-09,-2.622604E-08
205.0345,0.04500119,-2.478848E-08,NaN,-0.3269987,-1.369458E-07,NaN,0.470058,3.65668E-08,NaN,-0.2675344,7.017999E-06,-0.3773223,-3.118998E-08,NaN,NaN,-0.01978151,-9.313762E-12,8.165805E-07,-1.146273E-07,-2.690375E-09,-2.622604E-08
205.052,0.04500118,-2.478737E-08,NaN,-0.3269987,-1.36946E-07,NaN,0.4701758,3.624106E-08,NaN,-0.2633525,7.018683E-06,-0.3773687,-3.086198E-08,NaN,NaN,-0.01977596,-9.313762E-12,8.194117E-07,-1.146274E-07,-5.07456E-09,-2.622604E-08
205.0705,0.04500118,-2.478627E-08,NaN,-0.3269987,-1.369461E-07,NaN,0.4702998,3.592185E-08,NaN,-0.2592371,7.019359E-06,-0.3774222,-3.054052E-08,NaN,NaN,-0.0197703,-5.360296E-16,8.222429E-07,-1.146275E-07,-9.842932E-09,-2.622604E-08
205.0859,0.04500117,-2.478516E-08,NaN,-0.3269987,-1.369462E-07,NaN,0.47043,3.560905E-08,NaN,-0.255187,7.020043E-06,-0.3774828,-3.022546E-08,NaN,NaN,-0.01976455,-5.360296E-16,8.249251E-07,-1.146276E-07,-9.842932E-09,-2.622604E-08
205.1028,0.04500116,-2.478405E-08,NaN,-0.3269987,-1.369463E-07,NaN,0.4705664,3.530253E-08,NaN,-0.2512013,7.020718E-06,-0.3775504,-2.991668E-08,NaN,NaN,-0.01975868,9.31269E-12,8.270113E-07,-1.146277E-07,-7.458747E-09,-2.622604E-08
205.1199,0.04500116,-2.478405E-08,NaN,-0.3269987,-1.369463E-07,NaN,0.4705664,3.530253E-08,NaN,-0.2512013,7.020718E-06,-0.3775504,-2.991668E-08,NaN,NaN,-0.01975868,9.31269E-12,8.270113E-07,-1.146277E-07,-7.458747E-09,-2.622604E-08
205.1364,0.04500115,-2.478294E-08,NaN,-0.3269987,-1.369464E-07,NaN,0.470709,3.500216E-08,NaN,-0.247279,7.021403E-06,-0.377625,-2.961406E-08,NaN,NaN,-0.01975271,9.31269E-12,8.287994E-07,-1.146278E-07,-5.074561E-09,-2.622604E-08
205.1541,0.04500115,-2.478183E-08,NaN,-0.3269987,-1.369465E-07,NaN,0.4708578,3.470783E-08,NaN,-0.243419,7.022083E-06,-0.3777066,-2.931747E-08,NaN,NaN,-0.01974663,1.39693E-11,8.296935E-07,-1.146279E-07,-5.074561E-09,-2.622604E-08
205.1702,0.04500114,-2.478072E-08,NaN,-0.3269987,-1.369466E-07,NaN,0.4710127,3.441942E-08,NaN,-0.2396204,7.022762E-06,-0.377795,-2.902681E-08,NaN,NaN,-0.01974044,1.862592E-11,8.296935E-07,-1.14628E-07,-9.842932E-09,-2.622604E-08
205.1872,0.04500113,-2.477961E-08,NaN,-0.3269987,-1.369468E-07,NaN,0.4711736,3.413681E-08,NaN,-0.2358821,7.023442E-06,-0.3778903,-2.874194E-08,NaN,NaN,-0.01973413,2.328253E-11,8.317796E-07,-1.146282E-07,-7.458747E-09,-2.622604E-08
205.2039,0.04500112,-2.477851E-08,NaN,-0.3269987,-1.369469E-07,NaN,0.4713407,3.385989E-08,NaN,-0.2322032,7.024122E-06,-0.3779923,-2.846277E-08,NaN,NaN,-0.0197277,2.793914E-11,8.338658E-07,-1.146283E-07,-9.842932E-09,-2.622604E-08
205.2207,0.04500112,-2.47774E-08,NaN,-0.3269987,-1.36947E-07,NaN,0.4715139,3.358852E-08,NaN,-0.2285829,7.024802E-06,-0.378101,-2.818914E-08,NaN,NaN,-0.01972114,3.259575E-11,8.344618E-07,-1.146284E-07,-1.222712E-08,-2.622604E-08
205.2373,0.04500112,-2.47774E-08,NaN,-0.3269987,-1.36947E-07,NaN,0.4715139,3.358852E-08,NaN,-0.2285829,7.024802E-06,-0.378101,-2.818914E-08,NaN,NaN,-0.01972114,3.259575E-11,8.344618E-07,-1.146284E-07,-1.222712E-08,-2.622604E-08
205.2533,0.04500111,-2.477629E-08,NaN,-0.3269987,-1.369471E-07,NaN,0.4716931,3.332261E-08,NaN,-0.2250201,7.025482E-06,-0.3782164,-2.792098E-08,NaN,NaN,-0.01971447,3.725236E-11,8.350579E-07,-1.146285E-07,-9.842932E-09,-2.622604E-08
205.2708,0.0450011,-2.477518E-08,NaN,-0.3269987,-1.369472E-07,NaN,0.4718783,3.306207E-08,NaN,-0.2215139,7.026162E-06,-0.3783383,-2.765818E-08,NaN,NaN,-0.01970766,4.190898E-11,8.350579E-07,-1.146286E-07,-7.458747E-09,-2.622604E-08
205.2877,0.04500109,-2.477407E-08,NaN,-0.3269987,-1.369473E-07,NaN,0.4720696,3.280678E-08,NaN,-0.2180634,7.026842E-06,-0.3784668,-2.740064E-08,NaN,NaN,-0.01970073,4.656559E-11,8.350579E-07,-1.146287E-07,-7.458747E-09,-2.622604E-08
205.3048,0.04500109,-2.477296E-08,NaN,-0.3269987,-1.369474E-07,NaN,0.4722668,3.255665E-08,NaN,-0.2146678,7.027521E-06,-0.3786018,-2.714825E-08,NaN,NaN,-0.01969367,5.12222E-11,8.350579E-07,-1.146288E-07,-9.842932E-09,-2.622604E-08
205.3214,0.04500108,-2.477186E-08,NaN,-0.3269987,-1.369475E-07,NaN,0.4724699,3.231156E-08,NaN,-0.2113262,7.028201E-06,-0.3787432,-2.690091E-08,NaN,NaN,-0.01968646,5.587881E-11,8.347599E-07,-1.146289E-07,-1.699549E-08,-2.622604E-08
205.3381,0.04500108,-2.477186E-08,NaN,-0.3269987,-1.369475E-07,NaN,0.4724699,3.231156E-08,NaN,-0.2113262,7.028201E-06,-0.3787432,-2.690091E-08,NaN,NaN,-0.01968646,5.587881E-11,8.347599E-07,-1.146289E-07,-1.699549E-08,-2.622604E-08
205.3543,0.04500107,-2.477075E-08,NaN,-0.3269987,-1.369477E-07,NaN,0.472679,3.207143E-08,NaN,-0.2080377,7.028881E-06,-0.378891,-2.665852E-08,NaN,NaN,-0.01967912,6.053542E-11,8.344618E-07,-1.14629E-07,-1.937967E-08,-2.622604E-08
205.3719,0.04500106,-2.476964E-08,NaN,-0.3269987,-1.369478E-07,NaN,0.4728939,3.183616E-08,NaN,-0.2048015,7.029561E-06,-0.3790451,-2.6421E-08,NaN,NaN,-0.01967164,6.519204E-11,8.350579E-07,-1.146291E-07,-1.699549E-08,-2.622604E-08
205.3892,0.04500106,-2.476853E-08,NaN,-0.3269987,-1.369479E-07,NaN,0.4731147,3.160564E-08,NaN,-0.2016167,7.030241E-06,-0.3792055,-2.618822E-08,NaN,NaN,-0.019664,6.984865E-11,8.344618E-07,-1.146292E-07,-1.937967E-08,-2.622604E-08
205.4053,0.04500105,-2.476742E-08,NaN,-0.3269987,-1.36948E-07,NaN,0.4733413,3.137979E-08,NaN,-0.1984826,7.030921E-06,-0.3793721,-2.596012E-08,NaN,NaN,-0.01965623,7.450527E-11,8.335678E-07,-1.146293E-07,-1.937967E-08,-2.622604E-08
205.4224,0.04500104,-2.476631E-08,NaN,-0.3269987,-1.369481E-07,NaN,0.4735736,3.115711E-08,NaN,-0.1953983,7.0316E-06,-0.3795448,-2.573518E-08,NaN,NaN,-0.01964829,7.916189E-11,8.323756E-07,-1.146294E-07,-1.699549E-08,-2.622604E-08
205.4391,0.04500104,-2.476631E-08,NaN,-0.3269987,-1.369481E-07,NaN,0.4735736,3.115711E-08,NaN,-0.1953983,7.0316E-06,-0.3795448,-2.573518E-08,NaN,NaN,-0.01964829,7.916189E-11,8.323756E-07,-1.146294E-07,-1.699549E-08,-2.622604E-08
205.4552,0.04500103,-2.47652E-08,NaN,-0.3269987,-1.369482E-07,NaN,0.4738117,3.093893E-08,NaN,-0.192363,7.03228E-06,-0.3797236,-2.551475E-08,NaN,NaN,-0.01964021,8.38185E-11,8.305875E-07,-1.146295E-07,-1.222712E-08,-2.622604E-08
205.4724,0.04500103,-2.476409E-08,NaN,-0.3269987,-1.369483E-07,NaN,0.4740554,3.072519E-08,NaN,-0.189376,7.03296E-06,-0.3799084,-2.529876E-08,NaN,NaN,-0.01963197,8.847512E-11,8.285014E-07,-1.146296E-07,-7.458747E-09,-2.622604E-08
205.4893,0.04500102,-2.476298E-08,NaN,-0.3269987,-1.369485E-07,NaN,0.4743048,3.051577E-08,NaN,-0.1864365,7.03364E-06,-0.3800992,-2.508709E-08,NaN,NaN,-0.01962357,9.313173E-11,8.264152E-07,-1.146297E-07,-2.690375E-09,-2.622604E-08
205.5061,0.04500101,-2.476187E-08,NaN,-0.3269987,-1.369486E-07,NaN,0.4745598,3.030921E-08,NaN,-0.1835437,7.03432E-06,-0.3802959,-2.487827E-08,NaN,NaN,-0.019615,9.778835E-11,8.252231E-07,-1.146298E-07,-2.690375E-09,-2.622604E-08
205.5233,0.045001,-2.476076E-08,NaN,-0.3269987,-1.369487E-07,NaN,0.4748204,3.010683E-08,NaN,-0.1806969,7.035E-06,-0.3804984,-2.467364E-08,NaN,NaN,-0.01960626,1.02445E-10,8.24329E-07,-1.146299E-07,-3.061893E-10,-2.622604E-08
205.54,0.045001,-2.475965E-08,NaN,-0.3269987,-1.369488E-07,NaN,0.4750865,2.990857E-08,NaN,-0.1778954,7.035684E-06,-0.3807067,-2.447313E-08,NaN,NaN,-0.01959735,1.02445E-10,8.216468E-07,-1.1463E-07,2.077996E-09,-2.622604E-08
205.5568,0.045001,-2.475965E-08,NaN,-0.3269987,-1.369488E-07,NaN,0.4750865,2.990857E-08,NaN,-0.1778954,7.035684E-06,-0.3807067,-2.447313E-08,NaN,NaN,-0.01959735,1.02445E-10,8.216468E-07,-1.1463E-07,2.077996E-09,-2.622604E-08
205.5725,0.04500099,-2.475854E-08,NaN,-0.3269987,-1.369489E-07,NaN,0.475358,2.971435E-08,NaN,-0.1751384,7.036359E-06,-0.3809207,-2.427665E-08,NaN,NaN,-0.01958827,1.117582E-10,8.204547E-07,-1.146301E-07,-2.690375E-09,-2.622604E-08
205.5918,0.04500098,-2.475743E-08,NaN,-0.3269987,-1.36949E-07,NaN,0.4756349,2.952408E-08,NaN,-0.1724253,7.037044E-06,-0.3811404,-2.408413E-08,NaN,NaN,-0.01957902,1.117582E-10,8.192625E-07,-1.146302E-07,-2.690375E-09,-2.622604E-08
205.6073,0.04500097,-2.475632E-08,NaN,-0.3269987,-1.369491E-07,NaN,0.4759172,2.933768E-08,NaN,-0.1697553,7.037728E-06,-0.3813656,-2.389548E-08,NaN,NaN,-0.01956958,1.117582E-10,8.171764E-07,-1.146303E-07,2.077996E-09,-2.622604E-08
205.6241,0.04500097,-2.475521E-08,NaN,-0.3269987,-1.369492E-07,NaN,0.4762047,2.91551E-08,NaN,-0.1671278,7.038413E-06,-0.3815962,-2.371064E-08,NaN,NaN,-0.01955996,1.117582E-10,8.150902E-07,-1.146304E-07,-2.690375E-09,-2.622604E-08
205.6405,0.04500096,-2.47541E-08,NaN,-0.3269987,-1.369493E-07,NaN,0.4764975,2.897623E-08,NaN,-0.1645421,7.039088E-06,-0.3818323,-2.352952E-08,NaN,NaN,-0.01955016,1.210714E-10,8.12706E-07,-1.146305E-07,-2.690375E-09,-2.622604E-08
205.6575,0.04500096,-2.47541E-08,NaN,-0.3269987,-1.369493E-07,NaN,0.4764975,2.897623E-08,NaN,-0.1645421,7.039088E-06,-0.3818323,-2.352952E-08,NaN,NaN,-0.01955016,1.210714E-10,8.12706E-07,-1.146305E-07,-2.690375E-09,-2.622604E-08
205.6732,0.04500095,-2.475299E-08,NaN,-0.3269987,-1.369494E-07,NaN,0.4767954,2.880102E-08,NaN,-0.1619975,7.039772E-06,-0.3820737,-2.335206E-08,NaN,NaN,-0.01954018,1.210714E-10,8.109179E-07,-1.146306E-07,-2.690375E-09,-2.622604E-08
205.6912,0.04500094,-2.475188E-08,NaN,-0.3269987,-1.369495E-07,NaN,0.4771604,2.86294E-08,NaN,-0.1596365,7.040448E-06,-0.3823847,-2.317818E-08,NaN,NaN,-0.01953441,1.303846E-10,8.049574E-07,-1.146307E-07,-2.690375E-09,-2.622604E-08
205.7077,0.04500094,-2.475077E-08,NaN,-0.3269987,-1.369496E-07,NaN,0.4775314,2.846128E-08,NaN,-0.1573992,7.041132E-06,-0.3827035,-2.300782E-08,NaN,NaN,-0.01952668,1.303846E-10,8.013811E-07,-1.146308E-07,-7.458747E-09,-2.622604E-08
205.7247,0.04500093,-2.474966E-08,NaN,-0.3269987,-1.369497E-07,NaN,0.477896,2.829661E-08,NaN,-0.1552382,7.041816E-06,-0.3830166,-2.284089E-08,NaN,NaN,-0.01951803,1.303846E-10,7.981029E-07,-1.146309E-07,-5.074561E-09,-2.622604E-08
205.7413,0.04500092,-2.474855E-08,NaN,-0.3269987,-1.369498E-07,NaN,0.4782549,2.813532E-08,NaN,-0.1531311,7.042501E-06,-0.3833241,-2.267735E-08,NaN,NaN,-0.01950891,1.303846E-10,7.942286E-07,-1.14631E-07,-7.458747E-09,-2.622604E-08
205.7585,0.04500092,-2.474855E-08,NaN,-0.3269987,-1.369498E-07,NaN,0.4782549,2.813532E-08,NaN,-0.1531311,7.042501E-06,-0.3833241,-2.267735E-08,NaN,NaN,-0.01950891,1.303846E-10,7.942286E-07,-1.14631E-07,-7.458747E-09,-2.622604E-08
205.7743,0.04500093,-2.474744E-08,NaN,-0.3269987,-1.369499E-07,NaN,0.4791711,2.797733E-08,NaN,-0.1522818,7.043176E-06,-0.3842089,-2.251711E-08,NaN,NaN,-0.01954113,1.396979E-10,7.61744E-07,-1.14631E-07,-7.458747E-09,-2.622604E-08
205.7921,0.04500093,-2.474633E-08,NaN,-0.3269987,-1.3695E-07,NaN,0.480082,2.782259E-08,NaN,-0.1521843,7.04386E-06,-0.3851009,-2.236011E-08,NaN,NaN,-0.0195562,1.396979E-10,7.408824E-07,-1.146311E-07,-7.458747E-09,-2.622604E-08
205.8088,0.04500093,-2.474522E-08,NaN,-0.3269987,-1.369501E-07,NaN,0.4808851,2.767103E-08,NaN,-0.152438,7.044536E-06,-0.38589,-2.22063E-08,NaN,NaN,-0.01956393,1.490111E-10,7.262793E-07,-1.146312E-07,-1.222712E-08,-2.622604E-08
205.8261,0.04500094,-2.474411E-08,NaN,-0.3269987,-1.369502E-07,NaN,0.4821588,2.752259E-08,NaN,-0.1540689,7.04522E-06,-0.3871706,-2.205561E-08,NaN,NaN,-0.01961097,1.490111E-10,6.872382E-07,-1.146313E-07,-1.222712E-08,-2.622604E-08
205.8428,0.04500096,-2.4743E-08,NaN,-0.3269987,-1.369503E-07,NaN,0.4833432,2.737721E-08,NaN,-0.1564877,7.045905E-06,-0.3883743,-2.190798E-08,NaN,NaN,-0.01963857,1.490111E-10,6.550517E-07,-1.146314E-07,-1.46113E-08,-2.622604E-08
205.8597,0.04500096,-2.4743E-08,NaN,-0.3269987,-1.369503E-07,NaN,0.4833432,2.737721E-08,NaN,-0.1564877,7.045905E-06,-0.3883743,-2.190798E-08,NaN,NaN,-0.01963857,1.490111E-10,6.550517E-07,-1.146314E-07,-1.46113E-08,-2.622604E-08
205.8758,0.04500096,-2.474189E-08,NaN,-0.3269987,-1.369504E-07,NaN,0.4843659,2.723482E-08,NaN,-0.1592536,7.04658E-06,-0.3894204,-2.176333E-08,NaN,NaN,-0.01965767,1.583243E-10,6.32402E-07,-1.146315E-07,-9.842933E-09,-2.622604E-08
205.8932,0.04500098,-2.474078E-08,NaN,-0.3269987,-1.369505E-07,NaN,0.485804,2.709537E-08,NaN,-0.1633756,7.047264E-06,-0.3909027,-2.162163E-08,NaN,NaN,-0.01971279,1.583243E-10,5.802479E-07,-1.146316E-07,-1.222712E-08,-2.622604E-08
205.9099,0.045001,-2.473967E-08,NaN,-0.3269987,-1.369506E-07,NaN,0.4871176,2.69588E-08,NaN,-0.1682535,7.047949E-06,-0.3922731,-2.14828E-08,NaN,NaN,-0.01974821,1.583243E-10,5.42697E-07,-1.146317E-07,-5.074562E-09,-2.622604E-08
205.927,0.04500101,-2.473856E-08,NaN,-0.3269987,-1.369507E-07,NaN,0.4882469,2.682505E-08,NaN,-0.1734432,7.048633E-06,-0.3934636,-2.13468E-08,NaN,NaN,-0.01977462,1.583243E-10,5.111065E-07,-1.146318E-07,-7.458747E-09,-2.622604E-08
205.9436,0.04500102,-2.473745E-08,NaN,-0.3269987,-1.369508E-07,NaN,0.4892277,2.669408E-08,NaN,-0.1787355,7.049308E-06,-0.3945065,-2.121357E-08,NaN,NaN,-0.01979642,1.676376E-10,4.836884E-07,-1.146319E-07,-2.690376E-09,-2.622604E-08
205.9607,0.04500104,-2.473634E-08,NaN,-0.3269987,-1.369509E-07,NaN,0.4905895,2.65644E-08,NaN,-0.1852526,7.049993E-06,-0.3959523,-2.108165E-08,NaN,NaN,-0.01984869,1.676376E-10,4.26766E-07,-1.14632E-07,-2.690376E-09,-2.622604E-08
