JMolnar6/NonAnthroHands_User_Study/HandsLoggerWithURDF/tempdata/files/Reachy_JointMotion_gesture_7_33.csv
Time,r_shoulder,r_shoulder_x,r_upper_arm,r_forearm,r_wrist,r_wrist2hand,
587.2866,-0.09768407,0.0004805677,NaN,-0.3272406,0.0003849822,NaN,0.4561947,-14.30467,NaN,-2.169149,-1.463565,-0.3668514,14.10721,NaN,NaN,-0.05466193,0.8172517,9.566706E-06,1.027722,-3.167091E-08,1.397672
587.3006,-0.09685362,0.0004805673,NaN,-0.3272363,0.0003852706,NaN,0.4560774,-14.30527,NaN,-2.169435,-1.463487,-0.366751,14.10721,NaN,NaN,-0.05398212,0.8166488,9.381411E-06,1.02763,-3.047882E-08,1.406003
587.3157,-0.09685362,0.0004805673,NaN,-0.3272363,0.0003852706,NaN,0.4560774,-14.30527,NaN,-2.169435,-1.463487,-0.366751,14.10721,NaN,NaN,-0.05398212,0.8166488,9.381411E-06,1.02763,-3.047882E-08,1.406003
587.3298,-0.09573807,0.0004805197,NaN,-0.3272316,0.0003845975,NaN,0.4559445,-14.30489,NaN,-2.169728,-1.476067,-0.3666794,14.12053,NaN,NaN,-0.05331572,0.8174036,9.198946E-06,1.045977,-3.167091E-08,1.406476
587.3455,-0.09444778,0.0004799876,NaN,-0.3272268,0.0003841033,NaN,0.4558235,-14.30444,NaN,-2.169992,-1.466077,-0.366617,14.10982,NaN,NaN,-0.05266241,0.8176842,9.020002E-06,1.031362,-3.047882E-08,1.401088
587.3604,-0.09378127,0.0004804937,NaN,-0.3272243,0.000384134,NaN,0.4558834,-14.3042,NaN,-2.169832,-1.472394,-0.3665851,14.11653,NaN,NaN,-0.05202233,0.8180956,8.837146E-06,1.040594,-3.167091E-08,1.400629
587.3763,-0.09378127,0.0004804937,NaN,-0.3272243,0.000384134,NaN,0.4558834,-14.3042,NaN,-2.169832,-1.472394,-0.3665851,14.11653,NaN,NaN,-0.05202233,0.8180956,8.837146E-06,1.040594,-3.167091E-08,1.400629
587.3906,-0.09351003,0.0004806847,NaN,-0.3272232,0.0003844508,NaN,0.4560401,-14.30436,NaN,-2.169524,-1.465309,-0.3665024,14.10899,NaN,NaN,-0.05139475,0.8177916,8.65755E-06,1.030242,-2.571044E-08,1.399637
587.4051,-0.09348865,0.0004812316,NaN,-0.3272226,0.0003842411,NaN,0.4562249,-14.30444,NaN,-2.169181,-1.476604,-0.3663895,14.12105,NaN,NaN,-0.05077942,0.8180339,8.48153E-06,1.046759,-2.690254E-08,1.404989
587.4197,-0.09348865,0.0004812316,NaN,-0.3272226,0.0003842411,NaN,0.4562249,-14.30444,NaN,-2.169181,-1.476604,-0.3663895,14.12105,NaN,NaN,-0.05077942,0.8180339,8.48153E-06,1.046759,-2.690254E-08,1.404989
587.4343,-0.09435179,0.0004814906,NaN,-0.3272236,0.0003846388,NaN,0.4565699,-14.30388,NaN,-2.168461,-1.465544,-0.366295,14.10918,NaN,NaN,-0.0501765,0.8184036,8.301449E-06,1.030572,-2.690254E-08,1.396252
587.4513,-0.09576789,0.0004809591,NaN,-0.327225,0.000383583,NaN,0.4569821,-14.30457,NaN,-2.167647,-1.463062,-0.3661515,14.10662,NaN,NaN,-0.04958533,0.817642,8.12582E-06,1.026968,-2.809463E-08,1.397636
587.4648,-0.09752597,0.000480859,NaN,-0.3272261,0.0003824289,NaN,0.4573957,-14.30557,NaN,-2.166847,-1.476153,-0.3659838,14.12071,NaN,NaN,-0.04900567,0.8170533,7.955538E-06,1.046141,-2.690254E-08,1.408161
587.4798,-0.09752597,0.000480859,NaN,-0.3272261,0.0003824289,NaN,0.4573957,-14.30557,NaN,-2.166847,-1.476153,-0.3659838,14.12071,NaN,NaN,-0.04900567,0.8170533,7.955538E-06,1.046141,-2.690254E-08,1.408161
587.4943,-0.09949187,0.0004809443,NaN,-0.3272268,0.0003824697,NaN,0.4577855,-14.30433,NaN,-2.166096,-1.465237,-0.3658119,14.10893,NaN,NaN,-0.04843733,0.8180971,7.789408E-06,1.030159,-3.167091E-08,1.399437
587.5098,-0.1023086,0.0004810857,NaN,-0.3272293,0.0003829259,NaN,0.4583105,-14.30442,NaN,-2.16501,-1.463214,-0.3656712,14.10677,NaN,NaN,-0.04788049,0.817944,7.620355E-06,1.027197,-2.809463E-08,1.401286
587.5249,-0.1056489,0.0004813251,NaN,-0.3272319,0.0003833697,NaN,0.4588894,-14.30423,NaN,-2.163856,-1.465201,-0.365488,14.10885,NaN,NaN,-0.04733449,0.8181903,7.455138E-06,1.030089,-2.928672E-08,1.400588
587.5399,-0.1056489,0.0004813251,NaN,-0.3272319,0.0003833697,NaN,0.4588894,-14.30423,NaN,-2.163856,-1.465201,-0.365488,14.10885,NaN,NaN,-0.04733449,0.8181903,7.455138E-06,1.030089,-2.928672E-08,1.400588
587.5541,-0.1093046,0.0004815352,NaN,-0.327234,0.0003839295,NaN,0.4594617,-14.30497,NaN,-2.162733,-1.4635,-0.3652839,14.10713,NaN,NaN,-0.04679912,0.8173907,7.294783E-06,1.02763,-2.571044E-08,1.401807
587.5709,-0.1131433,0.0004813373,NaN,-0.3272351,0.0003842309,NaN,0.4600044,-14.30445,NaN,-2.161671,-1.462646,-0.3650775,14.10614,NaN,NaN,-0.04627419,0.8178738,7.137799E-06,1.026357,-2.571044E-08,1.396684
587.5845,-0.1178096,0.0004813935,NaN,-0.3272378,0.0003847734,NaN,0.4606784,-14.30502,NaN,-2.160286,-1.462783,-0.3649008,14.10636,NaN,NaN,-0.04575988,0.8172924,6.97912E-06,1.026582,-2.928672E-08,1.401853
587.5992,-0.1178096,0.0004813935,NaN,-0.3272378,0.0003847734,NaN,0.4606784,-14.30502,NaN,-2.160286,-1.462783,-0.3649008,14.10636,NaN,NaN,-0.04575988,0.8172924,6.97912E-06,1.026582,-2.928672E-08,1.401853
587.6135,-0.1229769,0.0004809347,NaN,-0.32724,0.0003848101,NaN,0.4614013,-14.30376,NaN,-2.158843,-1.462877,-0.3646819,14.10627,NaN,NaN,-0.04525559,0.8185461,6.823087E-06,1.026661,-3.405509E-08,1.397291
587.6293,-0.1284377,0.0004811615,NaN,-0.3272411,0.0003854068,NaN,0.4621126,-14.30476,NaN,-2.15744,-1.4641,-0.3644432,14.10771,NaN,NaN,-0.0447611,0.8175793,6.671411E-06,1.028495,-3.524719E-08,1.404457
587.6443,-0.1340603,0.0004812307,NaN,-0.3272414,0.000385873,NaN,0.4627897,-14.30435,NaN,-2.156107,-1.462844,-0.3642035,14.10631,NaN,NaN,-0.04427624,0.8179417,6.52376E-06,1.026639,-3.405509E-08,1.399718
587.6594,-0.1340603,0.0004812307,NaN,-0.3272414,0.000385873,NaN,0.4627897,-14.30435,NaN,-2.156107,-1.462844,-0.3642035,14.10631,NaN,NaN,-0.04427624,0.8179417,6.52376E-06,1.026639,-3.405509E-08,1.399718
587.6736,-0.1404895,0.0004815022,NaN,-0.3272427,0.0003856813,NaN,0.4635947,-14.30577,NaN,-2.15446,-1.474094,-0.3639911,14.11851,NaN,NaN,-0.04380121,0.8168726,6.372364E-06,1.043149,-3.2863E-08,1.412627
587.6894,-0.1473992,0.0004818789,NaN,-0.3272433,0.0003860682,NaN,0.4644434,-14.30567,NaN,-2.152764,-1.468338,-0.3637372,14.11236,NaN,NaN,-0.04333542,0.8168554,6.223315E-06,1.034737,-3.167091E-08,1.409361
587.7042,-0.1545822,0.000481543,NaN,-0.3272432,0.0003860704,NaN,0.4652756,-14.30433,NaN,-2.151117,-1.463462,-0.3634652,14.10699,NaN,NaN,-0.04287867,0.8180594,6.081232E-06,1.027564,-2.809463E-08,1.401387
587.7189,-0.1545822,0.000481543,NaN,-0.3272432,0.0003860704,NaN,0.4652756,-14.30433,NaN,-2.151117,-1.463462,-0.3634652,14.10699,NaN,NaN,-0.04287867,0.8180594,6.081232E-06,1.027564,-2.809463E-08,1.401387
587.7335,-0.1626353,0.0004810562,NaN,-0.3272438,0.0003859305,NaN,0.466235,-14.30426,NaN,-2.149163,-1.465738,-0.3632115,14.10941,NaN,NaN,-0.04243116,0.8181924,5.935499E-06,1.030891,-2.928673E-08,1.401191
587.7491,-0.1712021,0.0004804985,NaN,-0.3272436,0.0003859724,NaN,0.4672294,-14.30413,NaN,-2.147175,-1.463116,-0.3629157,14.10658,NaN,NaN,-0.04199234,0.8182465,5.795056E-06,1.02705,-2.928673E-08,1.398042
587.7639,-0.1800561,0.0004799434,NaN,-0.3272425,0.0003857944,NaN,0.4681975,-14.30435,NaN,-2.145254,-1.466385,-0.3626038,14.1101,NaN,NaN,-0.04156202,0.8181203,5.656698E-06,1.03184,-2.571045E-08,1.401389
587.7797,-0.1800561,0.0004799434,NaN,-0.3272425,0.0003857944,NaN,0.4681975,-14.30435,NaN,-2.145254,-1.466385,-0.3626038,14.1101,NaN,NaN,-0.04156202,0.8181203,5.656698E-06,1.03184,-2.571045E-08,1.401389
587.7941,-0.1890536,0.0004798168,NaN,-0.3272407,0.0003862713,NaN,0.4691186,-14.30474,NaN,-2.143428,-1.463339,-0.3622944,14.1069,NaN,NaN,-0.04114008,0.8176396,5.522886E-06,1.0274,-2.928673E-08,1.402905
587.8086,-0.1988321,0.0004800325,NaN,-0.3272398,0.0003869763,NaN,0.4701577,-14.30485,NaN,-2.141309,-1.462589,-0.3620091,14.1061,NaN,NaN,-0.04072669,0.8175102,5.387956E-06,1.026308,-3.047882E-08,1.405497
587.8234,-0.2090609,0.0004801779,NaN,-0.327238,0.0003874819,NaN,0.4712283,-14.30533,NaN,-2.139162,-1.462886,-0.3616848,14.10648,NaN,NaN,-0.04032131,0.8170301,5.254665E-06,1.026762,-2.928673E-08,1.404619
587.8382,-0.2090609,0.0004801779,NaN,-0.327238,0.0003874819,NaN,0.4712283,-14.30533,NaN,-2.139162,-1.462886,-0.3616848,14.10648,NaN,NaN,-0.04032131,0.8170301,5.254665E-06,1.026762,-2.928673E-08,1.404619
587.8525,-0.21953,0.0004800451,NaN,-0.3272353,0.000387837,NaN,0.4722717,-14.30497,NaN,-2.137084,-1.462286,-0.3613461,14.10579,NaN,NaN,-0.03992379,0.8173642,5.124876E-06,1.025868,-2.690254E-08,1.400731
587.868,-0.2301065,0.0004796715,NaN,-0.3272311,0.0003880517,NaN,0.4732675,-14.30503,NaN,-2.1351,-1.462204,-0.3610102,14.1057,NaN,NaN,-0.039534,0.8173062,4.99911E-06,1.025749,-2.690254E-08,1.400852
587.8831,-0.2414345,0.0004794891,NaN,-0.3272282,0.0003884687,NaN,0.4743809,-14.30518,NaN,-2.132829,-1.462387,-0.3606954,14.10591,NaN,NaN,-0.03915212,0.8171518,4.871258E-06,1.026022,-2.332626E-08,1.401957
587.898,-0.2414345,0.0004794891,NaN,-0.3272282,0.0003884687,NaN,0.4743809,-14.30518,NaN,-2.132829,-1.462387,-0.3606954,14.10591,NaN,NaN,-0.03915212,0.8171518,4.871258E-06,1.026022,-2.332626E-08,1.401957
587.9124,-0.2531877,0.000479087,NaN,-0.327224,0.0003887277,NaN,0.4755231,-14.30523,NaN,-2.130533,-1.461903,-0.3603419,14.1054,NaN,NaN,-0.03877763,0.8170865,4.745641E-06,1.025316,-2.332626E-08,1.400996
587.9293,-0.2651592,0.0004794934,NaN,-0.3272179,0.0003896589,NaN,0.4766352,-14.3054,NaN,-2.128309,-1.462078,-0.359975,14.1056,NaN,NaN,-0.03841041,0.8169115,4.623825E-06,1.025577,-2.213417E-08,1.404279
587.943,-0.2772177,0.0004797691,NaN,-0.3272099,0.0003903636,NaN,0.477697,-14.30582,NaN,-2.126185,-1.461553,-0.3596123,14.10509,NaN,NaN,-0.03805031,0.8164721,4.507074E-06,1.024828,-2.809463E-08,1.405805
587.9583,-0.2772177,0.0004797691,NaN,-0.3272099,0.0003903636,NaN,0.477697,-14.30582,NaN,-2.126185,-1.461553,-0.3596123,14.10509,NaN,NaN,-0.03805031,0.8164721,4.507074E-06,1.024828,-2.809463E-08,1.405805
587.9722,-0.2900088,0.0004797124,NaN,-0.3272029,0.0003906113,NaN,0.4788744,-14.3056,NaN,-2.12378,-1.464108,-0.3592678,14.10777,NaN,NaN,-0.03769752,0.8167679,4.386896E-06,1.028546,-2.332626E-08,1.403263
587.989,-0.303207,0.0004799492,NaN,-0.3271943,0.0003901416,NaN,0.4800766,-14.30684,NaN,-2.121355,-1.476099,-0.3588859,14.1207,NaN,NaN,-0.03735155,0.815883,4.270593E-06,1.046107,-1.855789E-08,1.414175
588.0025,-0.316606,0.0004803694,NaN,-0.3271836,0.0003908169,NaN,0.4812447,-14.30553,NaN,-2.119008,-1.465436,-0.3584927,14.10921,NaN,NaN,-0.03701227,0.8170024,4.158387E-06,1.030514,-1.617371E-08,1.404109
588.0175,-0.316606,0.0004803694,NaN,-0.3271836,0.0003908169,NaN,0.4812447,-14.30553,NaN,-2.119008,-1.465436,-0.3584927,14.10921,NaN,NaN,-0.03701227,0.8170024,4.158387E-06,1.030514,-1.617371E-08,1.404109
588.0316,-0.3308033,0.0004802122,NaN,-0.3271733,0.0003908938,NaN,0.4825276,-14.30557,NaN,-2.116385,-1.46514,-0.3581099,14.1089,NaN,NaN,-0.03667985,0.8169578,4.04499E-06,1.030084,-1.855789E-08,1.404469
588.0471,-0.3454433,0.0004801383,NaN,-0.3271608,0.0003907654,NaN,0.4838265,-14.30532,NaN,-2.113755,-1.469249,-0.3576903,14.11324,NaN,NaN,-0.03635385,0.8173248,3.932486E-06,1.036075,-1.140533E-08,1.401858
588.0621,-0.3603003,0.0004804947,NaN,-0.3271455,0.0003914669,NaN,0.4850826,-14.30572,NaN,-2.11122,-1.464574,-0.3572621,14.1083,NaN,NaN,-0.03603414,0.8167943,3.823856E-06,1.029257,-1.140533E-08,1.405446
588.077,-0.3603003,0.0004804947,NaN,-0.3271455,0.0003914669,NaN,0.4850826,-14.30572,NaN,-2.11122,-1.464574,-0.3572621,14.1083,NaN,NaN,-0.03603414,0.8167943,3.823856E-06,1.029257,-1.140533E-08,1.405446
588.0913,-0.3752315,0.0004807314,NaN,-0.3271278,0.0003920107,NaN,0.4862778,-14.30609,NaN,-2.108805,-1.463535,-0.3568425,14.10724,NaN,NaN,-0.03572063,0.8163865,3.718654E-06,1.027756,-7.829055E-09,1.405344
588.1072,-0.390875,0.000480939,NaN,-0.3271107,0.0003924046,NaN,0.487581,-14.30673,NaN,-2.106126,-1.464895,-0.3564375,14.10877,NaN,NaN,-0.03541348,0.8157846,3.614197E-06,1.029767,-9.021147E-09,1.407916
588.1221,-0.4069009,0.0004811616,NaN,-0.3270916,0.0003921352,NaN,0.4888979,-14.30727,NaN,-2.103445,-1.473268,-0.355999,14.11773,NaN,NaN,-0.03511225,0.8154808,3.513167E-06,1.042002,-1.378952E-08,1.412214
588.137,-0.4069009,0.0004811616,NaN,-0.3270916,0.0003921352,NaN,0.4888979,-14.30727,NaN,-2.103445,-1.473268,-0.355999,14.11773,NaN,NaN,-0.03511225,0.8154808,3.513167E-06,1.042002,-1.378952E-08,1.412214
588.1513,-0.4231002,0.0004822044,NaN,-0.3270699,0.0003921106,NaN,0.4901722,-14.3071,NaN,-2.100857,-1.477828,-0.3555541,14.12255,NaN,NaN,-0.03481684,0.815732,3.413628E-06,1.048648,-1.61737E-08,1.411204
588.1671,-0.4393405,0.0004826997,NaN,-0.3270461,0.0003920987,NaN,0.4913862,-14.30569,NaN,-2.098388,-1.471346,-0.3551186,14.11549,NaN,NaN,-0.03452715,0.8170263,3.318111E-06,1.039155,-1.498161E-08,1.404821
588.1819,-0.4562669,0.0004829146,NaN,-0.3270232,0.0003922678,NaN,0.4927088,-14.30584,NaN,-2.095658,-1.467025,-0.3546941,14.1109,NaN,NaN,-0.03424334,0.8167849,3.21723E-06,1.032846,-2.094207E-08,1.401129
588.1978,-0.4562669,0.0004829146,NaN,-0.3270232,0.0003922678,NaN,0.4927088,-14.30584,NaN,-2.095658,-1.467025,-0.3546941,14.1109,NaN,NaN,-0.03424334,0.8167849,3.21723E-06,1.032846,-2.094207E-08,1.401129
588.2111,-0.4735537,0.0004834966,NaN,-0.3269984,0.0003919858,NaN,0.4940431,-14.30693,NaN,-2.092927,-1.476975,-0.3542375,14.12163,NaN,NaN,-0.03396498,0.8159548,3.124098E-06,1.047417,-1.498161E-08,1.409851
588.2266,-0.4909948,0.000483319,NaN,-0.326971,0.0003917754,NaN,0.4953329,-14.30637,NaN,-2.090291,-1.464501,-0.3537764,14.1083,NaN,NaN,-0.033692,0.8163134,3.032903E-06,1.029197,-1.73658E-08,1.40218
588.2418,-0.5084597,0.0004833225,NaN,-0.3269416,0.0003913441,NaN,0.496561,-14.30568,NaN,-2.087778,-1.471585,-0.3533262,14.11575,NaN,NaN,-0.03342431,0.8172016,2.943049E-06,1.039519,-1.61737E-08,1.401182
588.2566,-0.5084597,0.0004833225,NaN,-0.3269416,0.0003913441,NaN,0.496561,-14.30568,NaN,-2.087778,-1.471585,-0.3533262,14.11575,NaN,NaN,-0.03342431,0.8172016,2.943049E-06,1.039519,-1.61737E-08,1.401182
588.2708,-0.5265948,0.0004832132,NaN,-0.3269132,0.0003913909,NaN,0.4978968,-14.30582,NaN,-2.085007,-1.46471,-0.352884,14.10845,NaN,NaN,-0.03316205,0.8169099,2.85245E-06,1.029486,-1.378952E-08,1.399218
588.2864,-0.5450752,0.0004839437,NaN,-0.3268829,0.0003911521,NaN,0.4992411,-14.30592,NaN,-2.082239,-1.477218,-0.3524117,14.12179,NaN,NaN,-0.03290482,0.8171669,2.764831E-06,1.047763,-1.259742E-08,1.404114
588.3013,-0.5636953,0.0004842652,NaN,-0.32685,0.0003913604,NaN,0.5005384,-14.30546,NaN,-2.07957,-1.466661,-0.3519372,14.11049,NaN,NaN,-0.03265255,0.8174538,2.681682E-06,1.03233,-1.378952E-08,1.399038
588.3163,-0.5636953,0.0004842652,NaN,-0.32685,0.0003913604,NaN,0.5005384,-14.30546,NaN,-2.07957,-1.466661,-0.3519372,14.11049,NaN,NaN,-0.03265255,0.8174538,2.681682E-06,1.03233,-1.378952E-08,1.399038
588.3309,-0.5830534,0.000484311,NaN,-0.3268175,0.000391702,NaN,0.5019418,-14.30578,NaN,-2.076647,-1.463526,-0.3514645,14.10718,NaN,NaN,-0.03240536,0.817058,2.594362E-06,1.02776,-1.855789E-08,1.39845
588.3464,-0.6027944,0.0004841506,NaN,-0.3267823,0.0003914142,NaN,0.5033456,-14.30622,NaN,-2.07374,-1.47038,-0.3509636,14.11454,NaN,NaN,-0.03216292,0.8168247,2.510319E-06,1.03779,-2.690254E-08,1.40204
588.3616,-0.6226935,0.0004847861,NaN,-0.3267439,0.0003911144,NaN,0.5046946,-14.30674,NaN,-2.070946,-1.477443,-0.3504637,14.12212,NaN,NaN,-0.03192515,0.816478,2.431045E-06,1.048121,-2.094207E-08,1.408279
588.3769,-0.6226935,0.0004847861,NaN,-0.3267439,0.0003911144,NaN,0.5046946,-14.30674,NaN,-2.070946,-1.477443,-0.3504637,14.12212,NaN,NaN,-0.03192515,0.816478,2.431045E-06,1.048121,-2.094207E-08,1.408279
588.393,-0.6426084,0.0004853164,NaN,-0.326703,0.0003913382,NaN,0.5059738,-14.30573,NaN,-2.06829,-1.470843,-0.3499793,14.11497,NaN,NaN,-0.03169198,0.8173791,2.353559E-06,1.038458,-2.332626E-08,1.400669
588.4076,-0.663178,0.0004860136,NaN,-0.3266629,0.0003911633,NaN,0.5073544,-14.30616,NaN,-2.065394,-1.477122,-0.3494994,14.12171,NaN,NaN,-0.03146352,0.8170937,2.274285E-06,1.047646,-1.974998E-08,1.405676
588.4213,-0.6840732,0.0004860062,NaN,-0.3266206,0.0003911042,NaN,0.5087345,-14.30553,NaN,-2.062513,-1.465218,-0.3489945,14.10895,NaN,NaN,-0.03123944,0.8175351,2.200077E-06,1.030233,-1.736579E-08,1.39778
588.4361,-0.6840732,0.0004860062,NaN,-0.3266206,0.0003911042,NaN,0.5087345,-14.30553,NaN,-2.062513,-1.465218,-0.3489945,14.10895,NaN,NaN,-0.03123944,0.8175351,2.200077E-06,1.030233,-1.736579E-08,1.39778
588.4503,-0.7050853,0.0004862115,NaN,-0.3265756,0.0003909297,NaN,0.5100611,-14.30556,NaN,-2.059744,-1.471116,-0.3484924,14.11525,NaN,NaN,-0.03101968,0.8176669,2.125273E-06,1.038863,-1.61737E-08,1.401774
588.4659,-0.726083,0.0004865298,NaN,-0.3265284,0.0003913692,NaN,0.5113198,-14.30645,NaN,-2.057111,-1.46614,-0.3480066,14.11006,NaN,NaN,-0.03080418,0.8166732,2.05494E-06,1.031626,-1.61737E-08,1.402543
588.481,-0.7472045,0.0004864214,NaN,-0.3264808,0.0003916544,NaN,0.5125632,-14.30535,NaN,-2.0545,-1.463121,-0.3475347,14.1067,NaN,NaN,-0.0305929,0.8176787,1.986394E-06,1.027179,-2.571044E-08,1.393852
588.4958,-0.7472045,0.0004864214,NaN,-0.3264808,0.0003916544,NaN,0.5125632,-14.30535,NaN,-2.0545,-1.463121,-0.3475347,14.1067,NaN,NaN,-0.0305929,0.8176787,1.986394E-06,1.027179,-2.571044E-08,1.393852
588.5101,-0.7683154,0.000486385,NaN,-0.3264323,0.0003919887,NaN,0.5137635,-14.30588,NaN,-2.051983,-1.464282,-0.3470691,14.10802,NaN,NaN,-0.03038572,0.8171842,1.919041E-06,1.028904,-2.809463E-08,1.397528
588.5258,-0.7893311,0.0004856914,NaN,-0.3263834,0.0003917889,NaN,0.514909,-14.30448,NaN,-2.049581,-1.462932,-0.3466174,14.10639,NaN,NaN,-0.03018255,0.8185347,1.857648E-06,1.026877,-2.094207E-08,1.391508
588.5408,-0.8101991,0.0004851987,NaN,-0.3263344,0.0003920601,NaN,0.5159991,-14.30473,NaN,-2.047295,-1.462152,-0.3461823,14.10559,NaN,NaN,-0.02998332,0.8182546,1.798043E-06,1.02575,-2.094207E-08,1.392862
588.5558,-0.8101991,0.0004851987,NaN,-0.3263344,0.0003920601,NaN,0.5159991,-14.30473,NaN,-2.047295,-1.462152,-0.3461823,14.10559,NaN,NaN,-0.02998332,0.8182546,1.798043E-06,1.02575,-2.094207E-08,1.392862
588.5699,-0.8308868,0.0004846466,NaN,-0.3262861,0.0003922339,NaN,0.5170368,-14.30478,NaN,-2.04512,-1.46256,-0.3457638,14.10603,NaN,NaN,-0.02978798,0.8182142,1.738737E-06,1.026351,-1.61737E-08,1.391858
588.5856,-0.8513746,0.0004841471,NaN,-0.3262387,0.0003925024,NaN,0.518026,-14.3049,NaN,-2.043051,-1.4623,-0.3453611,14.10577,NaN,NaN,-0.02959643,0.8180866,1.68092E-06,1.025978,-1.140533E-08,1.392142
588.6016,-0.871651,0.0004837805,NaN,-0.3261927,0.0003929008,NaN,0.5189701,-14.3051,NaN,-2.041079,-1.462115,-0.3449733,14.1056,NaN,NaN,-0.02940862,0.8178738,1.62668E-06,1.025717,-1.140533E-08,1.39329
588.6154,-0.871651,0.0004837805,NaN,-0.3261927,0.0003929008,NaN,0.5189701,-14.3051,NaN,-2.041079,-1.462115,-0.3449733,14.1056,NaN,NaN,-0.02940862,0.8178738,1.62668E-06,1.025717,-1.140533E-08,1.39329
588.6296,-0.8917096,0.0004838548,NaN,-0.3261482,0.0003924242,NaN,0.5198721,-14.30579,NaN,-2.0392,-1.476428,-0.3445996,14.12096,NaN,NaN,-0.02922446,0.817633,1.573036E-06,1.046672,-2.094207E-08,1.402915
588.6451,-0.9115474,0.0004842443,NaN,-0.3261053,0.0003932759,NaN,0.5207343,-14.30508,NaN,-2.037409,-1.463784,-0.3442392,14.10738,NaN,NaN,-0.02904388,0.8181223,1.520584E-06,1.028168,-2.809463E-08,1.394338
588.66,-0.9311634,0.0004844468,NaN,-0.3260642,0.0003938152,NaN,0.5215584,-14.30538,NaN,-2.035702,-1.463265,-0.3438916,14.10686,NaN,NaN,-0.02886683,0.8177904,1.470218E-06,1.027419,-2.809463E-08,1.394892
588.6749,-0.9311634,0.0004844468,NaN,-0.3260642,0.0003938152,NaN,0.5215584,-14.30538,NaN,-2.035702,-1.463265,-0.3438916,14.10686,NaN,NaN,-0.02886683,0.8177904,1.470218E-06,1.027419,-2.809463E-08,1.394892
588.6891,-0.9505579,0.0004848629,NaN,-0.3260249,0.0003946009,NaN,0.5223461,-14.30608,NaN,-2.034077,-1.462758,-0.3435564,14.10641,NaN,NaN,-0.02869322,0.8170715,1.418958E-06,1.026706,-2.571044E-08,1.400865
588.7048,-0.969732,0.000485145,NaN,-0.3259873,0.0003952603,NaN,0.5230988,-14.30618,NaN,-2.032531,-1.462216,-0.3432333,14.10584,NaN,NaN,-0.028523,0.8169476,1.372466E-06,1.025917,-2.571044E-08,1.401566
588.7198,-0.969732,0.000485145,NaN,-0.3259873,0.0003952603,NaN,0.5230988,-14.30618,NaN,-2.032531,-1.462216,-0.3432333,14.10584,NaN,NaN,-0.028523,0.8169476,1.372466E-06,1.025917,-2.571044E-08,1.401566
588.7341,-0.9886875,0.0004852999,NaN,-0.3259515,0.000395801,NaN,0.5238177,-14.30624,NaN,-2.031062,-1.461981,-0.3429219,14.10559,NaN,NaN,-0.02835609,0.8168747,1.328359E-06,1.025575,-2.332626E-08,1.400092
588.7497,-1.007426,0.0004851222,NaN,-0.3259175,0.0003960998,NaN,0.5245037,-14.30559,NaN,-2.029667,-1.462023,-0.3426221,14.10554,NaN,NaN,-0.02819244,0.8175132,1.283655E-06,1.025604,-2.332626E-08,1.393575
588.7647,-1.02595,0.0004848529,NaN,-0.3258852,0.0003964385,NaN,0.525158,-14.30572,NaN,-2.028344,-1.461819,-0.3423335,14.10533,NaN,NaN,-0.02803197,0.817367,1.241336E-06,1.025311,-2.332626E-08,1.394093
588.7797,-1.02595,0.0004848529,NaN,-0.3258852,0.0003964385,NaN,0.525158,-14.30572,NaN,-2.028344,-1.461819,-0.3423335,14.10533,NaN,NaN,-0.02803197,0.817367,1.241336E-06,1.025311,-2.332626E-08,1.394093
588.7939,-1.044262,0.0004841097,NaN,-0.3258546,0.0003963436,NaN,0.5257815,-14.30556,NaN,-2.027092,-1.461843,-0.342056,14.10533,NaN,NaN,-0.02787463,0.8175253,1.199017E-06,1.025337,-2.332626E-08,1.393386
588.8105,-1.062363,0.0004840242,NaN,-0.3258257,0.00039663,NaN,0.5263751,-14.3067,NaN,-2.02591,-1.465531,-0.3417892,14.10942,NaN,NaN,-0.02772037,0.8164952,1.159678E-06,1.030779,-2.571044E-08,1.401394
588.8243,-1.080256,0.0004842569,NaN,-0.3257983,0.0003961239,NaN,0.5269397,-14.30676,NaN,-2.024794,-1.476594,-0.341533,14.12119,NaN,NaN,-0.02756911,0.8167431,1.123915E-06,1.046929,-2.571044E-08,1.405808
588.8391,-1.080256,0.0004842569,NaN,-0.3257983,0.0003961239,NaN,0.5269397,-14.30676,NaN,-2.024794,-1.476594,-0.341533,14.12119,NaN,NaN,-0.02756911,0.8167431,1.123915E-06,1.046929,-2.571044E-08,1.405808
588.8532,-1.097944,0.0004845041,NaN,-0.3257724,0.0003967447,NaN,0.5274761,-14.30572,NaN,-2.023745,-1.462892,-0.3412873,14.10648,NaN,NaN,-0.0274208,0.8175452,1.08696E-06,1.02689,-2.094207E-08,1.394828
588.8685,-1.115429,0.0004847327,NaN,-0.3257481,0.0003970581,NaN,0.5279851,-14.30675,NaN,-2.022759,-1.466424,-0.3410516,14.11037,NaN,NaN,-0.02727539,0.8166168,1.050601E-06,1.032091,-1.855789E-08,1.400909
588.8849,-1.132713,0.0004846399,NaN,-0.3257252,0.0003973828,NaN,0.5284675,-14.30571,NaN,-2.021836,-1.462431,-0.340826,14.10598,NaN,NaN,-0.02713281,0.8175357,1.017819E-06,1.026217,-2.094207E-08,1.392797
588.8984,-1.132713,0.0004846399,NaN,-0.3257252,0.0003973828,NaN,0.5284675,-14.30571,NaN,-2.021836,-1.462431,-0.340826,14.10598,NaN,NaN,-0.02713281,0.8175357,1.017819E-06,1.026217,-2.094207E-08,1.392797
588.9127,-1.149799,0.0004848598,NaN,-0.3257037,0.0003974761,NaN,0.528924,-14.30715,NaN,-2.020974,-1.46942,-0.3406101,14.11362,NaN,NaN,-0.02699301,0.8163179,9.83248E-07,1.036492,-2.094207E-08,1.404242
588.9283,-1.166688,0.0004853938,NaN,-0.3256837,0.0003970376,NaN,0.5293555,-14.30644,NaN,-2.020172,-1.478168,-0.3404037,14.12283,NaN,NaN,-0.02685595,0.8172318,9.480813E-07,1.049234,-2.332626E-08,1.404886
588.9432,-1.183383,0.0004860826,NaN,-0.3256649,0.0003976593,NaN,0.5297625,-14.30529,NaN,-2.019428,-1.468811,-0.3402067,14.11272,NaN,NaN,-0.02672156,0.8182309,9.164908E-07,1.035533,-2.809463E-08,1.39635
588.9581,-1.183383,0.0004860826,NaN,-0.3256649,0.0003976593,NaN,0.5297625,-14.30529,NaN,-2.019428,-1.468811,-0.3402067,14.11272,NaN,NaN,-0.02672156,0.8182309,9.164908E-07,1.035533,-2.809463E-08,1.39635
588.9724,-1.199886,0.0004862945,NaN,-0.3256474,0.0003981408,NaN,0.5301458,-14.30516,NaN,-2.01874,-1.463728,-0.3400188,14.10727,NaN,NaN,-0.02658979,0.8182368,8.849004E-07,1.028093,-2.809463E-08,1.391951
588.988,-1.2162,0.0004865407,NaN,-0.3256312,0.0003987315,NaN,0.5305061,-14.30567,NaN,-2.018108,-1.462934,-0.3398398,14.10649,NaN,NaN,-0.02646059,0.8177175,8.533099E-07,1.026952,-2.332626E-08,1.395985
589.0026,-1.232326,0.0004866394,NaN,-0.3256162,0.0003989092,NaN,0.5308439,-14.30632,NaN,-2.01753,-1.466873,-0.3396697,14.11077,NaN,NaN,-0.02633392,0.817192,8.223155E-07,1.032737,-2.094207E-08,1.397197
589.0195,-1.232326,0.0004866394,NaN,-0.3256162,0.0003989092,NaN,0.5308439,-14.30632,NaN,-2.01753,-1.466873,-0.3396697,14.11077,NaN,NaN,-0.02633392,0.817192,8.223155E-07,1.032737,-2.094207E-08,1.397197
589.0327,-1.248266,0.0004864194,NaN,-0.3256023,0.0003990132,NaN,0.5311599,-14.30481,NaN,-2.017005,-1.463839,-0.3395081,14.10733,NaN,NaN,-0.02620973,0.8186142,7.948974E-07,1.028244,-2.332626E-08,1.390416
589.0471,-1.264024,0.0004861897,NaN,-0.3255896,0.0003981839,NaN,0.5314548,-14.30406,NaN,-2.016531,-1.47623,-0.3393549,14.12046,NaN,NaN,-0.02608796,0.8197221,7.680753E-07,1.046341,-1.855789E-08,1.390492
589.062,-1.2796,0.0004859638,NaN,-0.3255779,0.0003982513,NaN,0.5317291,-14.30492,NaN,-2.016106,-1.464161,-0.3392099,14.10763,NaN,NaN,-0.02596856,0.8186581,7.406572E-07,1.02868,-1.61737E-08,1.391799
589.0767,-1.2796,0.0004859638,NaN,-0.3255779,0.0003982513,NaN,0.5317291,-14.30492,NaN,-2.016106,-1.464161,-0.3392099,14.10763,NaN,NaN,-0.02596856,0.8186581,7.406572E-07,1.02868,-1.61737E-08,1.391799
589.0908,-1.294776,0.0004860388,NaN,-0.3255666,0.0003976281,NaN,0.5319325,-14.30646,NaN,-2.015845,-1.476384,-0.3390824,14.12089,NaN,NaN,-0.02585147,0.8174863,7.144312E-07,1.046625,-1.140533E-08,1.403686
589.1065,-1.309638,0.0004862935,NaN,-0.3255567,0.0003980992,NaN,0.5321007,-14.30502,NaN,-2.015664,-1.464961,-0.3389735,14.10855,NaN,NaN,-0.02573668,0.818737,6.911853E-07,1.029891,-9.021145E-09,1.392539
589.1212,-1.324239,0.0004863144,NaN,-0.3255483,0.0003984649,NaN,0.5322505,-14.30529,NaN,-2.015531,-1.463614,-0.3388745,14.10714,NaN,NaN,-0.02562414,0.8184325,6.661514E-07,1.02793,-4.252773E-09,1.39207
589.1359,-1.324239,0.0004863144,NaN,-0.3255483,0.0003984649,NaN,0.5322505,-14.30529,NaN,-2.015531,-1.463614,-0.3388745,14.10714,NaN,NaN,-0.02562414,0.8184325,6.661514E-07,1.02793,-4.252773E-09,1.39207
589.1502,-1.337887,0.0004860448,NaN,-0.3255391,0.0003986546,NaN,0.5322195,-14.30494,NaN,-2.015809,-1.462917,-0.338814,14.10634,NaN,NaN,-0.02551371,0.8187712,6.464819E-07,1.026893,-6.636959E-09,1.389796
589.1657,-1.350879,0.0004867679,NaN,-0.325532,0.0003984807,NaN,0.5321251,-14.30499,NaN,-2.01623,-1.476268,-0.3387935,14.1206,NaN,NaN,-0.02540548,0.8191341,6.280044E-07,1.04643,-1.140533E-08,1.394239
589.1805,-1.363404,0.0004874374,NaN,-0.325528,0.000398842,NaN,0.5320202,-14.30683,NaN,-2.016687,-1.470644,-0.338786,14.11479,NaN,NaN,-0.02529939,0.8172032,6.10123E-07,1.038237,-1.61737E-08,1.403616
589.1955,-1.363404,0.0004874374,NaN,-0.325528,0.000398842,NaN,0.5320202,-14.30683,NaN,-2.016687,-1.470644,-0.338786,14.11479,NaN,NaN,-0.02529939,0.8172032,6.10123E-07,1.038237,-1.61737E-08,1.403616
589.2095,-1.375583,0.0004878531,NaN,-0.3255262,0.0003986809,NaN,0.5319206,-14.30674,NaN,-2.017147,-1.474137,-0.3387804,14.11849,NaN,NaN,-0.02519538,0.8173574,5.940298E-07,1.043335,-2.332626E-08,1.404066
589.2253,-1.386765,0.0004885408,NaN,-0.3255244,0.0003996488,NaN,0.5316592,-14.30481,NaN,-2.017977,-1.464912,-0.3388059,14.10842,NaN,NaN,-0.02509331,0.8190929,5.797247E-07,1.029797,-2.332626E-08,1.389819
589.2401,-1.397274,0.0004883899,NaN,-0.325524,0.0003997989,NaN,0.5313499,-14.30541,NaN,-2.018916,-1.463727,-0.3388653,14.10723,NaN,NaN,-0.02499328,0.8184653,5.660156E-07,1.028086,-1.61737E-08,1.393483
589.2557,-1.397274,0.0004883899,NaN,-0.325524,0.0003997989,NaN,0.5313499,-14.30541,NaN,-2.018916,-1.463727,-0.3388653,14.10723,NaN,NaN,-0.02499328,0.8184653,5.660156E-07,1.028086,-1.61737E-08,1.393483
589.2698,-1.407315,0.000488392,NaN,-0.325525,0.0004001109,NaN,0.5310426,-14.30568,NaN,-2.019863,-1.464714,-0.3389325,14.10832,NaN,NaN,-0.02489523,0.8182187,5.487303E-07,1.029541,-1.140533E-08,1.394806
589.2842,-1.417019,0.0004889988,NaN,-0.3255268,0.0004006034,NaN,0.5307505,-14.30614,NaN,-2.020789,-1.468526,-0.3389977,14.11244,NaN,NaN,-0.02479911,0.8178658,5.350212E-07,1.035134,-1.140533E-08,1.399227
589.299,-1.417019,0.0004889988,NaN,-0.3255268,0.0004006034,NaN,0.5307505,-14.30614,NaN,-2.020789,-1.468526,-0.3389977,14.11244,NaN,NaN,-0.02479911,0.8178658,5.350212E-07,1.035134,-1.140533E-08,1.399227
589.313,-1.425744,0.0004895852,NaN,-0.3255281,0.0004001925,NaN,0.5303048,-14.30537,NaN,-2.022066,-1.478742,-0.3390902,14.12323,NaN,NaN,-0.02470476,0.8188784,5.219082E-07,1.050042,-1.378952E-08,1.398565
589.3286,-1.433816,0.0004896336,NaN,-0.3255303,0.0004000344,NaN,0.529818,-14.30392,NaN,-2.023434,-1.467553,-0.3392144,14.11111,NaN,NaN,-0.02461231,0.8201483,5.117754E-07,1.03363,-1.378952E-08,1.387914
589.3433,-1.441443,0.0004900292,NaN,-0.3255337,0.0004005904,NaN,0.5293397,-14.30415,NaN,-2.024796,-1.465379,-0.3393444,14.1088,NaN,NaN,-0.02452169,0.8198776,5.004505E-07,1.030452,-1.378952E-08,1.388734
589.3596,-1.441443,0.0004900292,NaN,-0.3255337,0.0004005904,NaN,0.5293397,-14.30415,NaN,-2.024796,-1.465379,-0.3393444,14.1088,NaN,NaN,-0.02452169,0.8198776,5.004505E-07,1.030452,-1.378952E-08,1.388734
589.3724,-1.448031,0.0004903131,NaN,-0.3255366,0.0004001662,NaN,0.5287139,-14.30536,NaN,-2.026497,-1.476345,-0.3395005,14.12071,NaN,NaN,-0.02443274,0.8189821,4.915099E-07,1.04657,-1.855789E-08,1.398501
589.3879,-1.453937,0.0004905586,NaN,-0.3255412,0.0004004196,NaN,0.528056,-14.30442,NaN,-2.02827,-1.467066,-0.3396864,14.11068,NaN,NaN,-0.02434558,0.8197671,4.813771E-07,1.032961,-1.61737E-08,1.38979
589.4024,-1.45939,0.0004900832,NaN,-0.3255483,0.0004002202,NaN,0.5274157,-14.30385,NaN,-2.030018,-1.463985,-0.3398754,14.10729,NaN,NaN,-0.02426016,0.8202538,4.718403E-07,1.028423,-9.021145E-09,1.387827
589.4174,-1.45939,0.0004900832,NaN,-0.3255483,0.0004002202,NaN,0.5274157,-14.30385,NaN,-2.030018,-1.463985,-0.3398754,14.10729,NaN,NaN,-0.02426016,0.8202538,4.718403E-07,1.028423,-9.021145E-09,1.387827
589.4316,-1.464534,0.0004894201,NaN,-0.3255576,0.000400093,NaN,0.5268046,-14.30387,NaN,-2.031711,-1.462765,-0.3400576,14.10598,NaN,NaN,-0.02417641,0.8202022,4.623036E-07,1.026633,-1.140533E-08,1.386914
589.4471,-1.468735,0.0004893972,NaN,-0.3255663,0.0004006746,NaN,0.5260522,-14.30403,NaN,-2.033725,-1.462343,-0.3402595,14.10554,NaN,NaN,-0.02409418,0.820026,4.575352E-07,1.026018,-9.021145E-09,1.389333
589.4619,-1.472325,0.0004893648,NaN,-0.3255761,0.0004011626,NaN,0.5252686,-14.30419,NaN,-2.035803,-1.462045,-0.3404902,14.10524,NaN,NaN,-0.02401362,0.8198606,4.509787E-07,1.025586,-1.868588E-09,1.389066
589.4767,-1.472325,0.0004893648,NaN,-0.3255761,0.0004011626,NaN,0.5252686,-14.30419,NaN,-2.035803,-1.462045,-0.3404902,14.10524,NaN,NaN,-0.02401362,0.8198606,4.509787E-07,1.025586,-1.868588E-09,1.389066
589.4928,-1.475516,0.0004891452,NaN,-0.3255874,0.0004015596,NaN,0.5245034,-14.30436,NaN,-2.037849,-1.461445,-0.3407237,14.10461,NaN,NaN,-0.02393465,0.8196669,4.462104E-07,1.024713,2.899784E-09,1.38852
589.5063,-1.478442,0.0004887241,NaN,-0.3256001,0.0004006927,NaN,0.5237688,-14.30437,NaN,-2.039835,-1.476628,-0.34095,14.12086,NaN,NaN,-0.02385724,0.8201543,4.402499E-07,1.046948,7.668156E-09,1.394177
589.5211,-1.480461,0.0004885601,NaN,-0.3256114,0.0003999199,NaN,0.5228944,-14.30607,NaN,-2.042136,-1.474958,-0.3411932,14.11926,NaN,NaN,-0.02378122,0.818404,4.366736E-07,1.044541,7.668156E-09,1.401993
589.5356,-1.480461,0.0004885601,NaN,-0.3256114,0.0003999199,NaN,0.5228944,-14.30607,NaN,-2.042136,-1.474958,-0.3411932,14.11926,NaN,NaN,-0.02378122,0.818404,4.366736E-07,1.044541,7.668156E-09,1.401993
589.5497,-1.4819,0.0004888771,NaN,-0.3256228,0.0004004505,NaN,0.5219904,-14.30426,NaN,-2.044493,-1.466052,-0.3414652,14.10953,NaN,NaN,-0.02370673,0.8200185,4.336934E-07,1.031462,7.668156E-09,1.388265
589.5651,-1.48297,0.0004888342,NaN,-0.3256347,0.0004007652,NaN,0.5211071,-14.30445,NaN,-2.046811,-1.463934,-0.3417396,14.10728,NaN,NaN,-0.02363373,0.8197557,4.307131E-07,1.028366,1.482071E-08,1.389635
589.5798,-1.48297,0.0004888342,NaN,-0.3256347,0.0004007652,NaN,0.5211071,-14.30445,NaN,-2.046811,-1.463934,-0.3417396,14.10728,NaN,NaN,-0.02363373,0.8197557,4.307131E-07,1.028366,1.482071E-08,1.389635
589.5942,-1.483074,0.0004887814,NaN,-0.3256448,0.0004004436,NaN,0.520088,-14.30601,NaN,-2.049438,-1.472089,-0.34203,14.11622,NaN,NaN,-0.02356203,0.8184408,4.307131E-07,1.040381,1.482071E-08,1.398892
589.6095,-1.482571,0.0004891452,NaN,-0.3256544,0.0004011113,NaN,0.5190466,-14.30454,NaN,-2.052104,-1.465089,-0.3423478,14.10856,NaN,NaN,-0.02349178,0.8197455,4.307131E-07,1.030094,1.72049E-08,1.387643
589.6245,-1.481689,0.0004892612,NaN,-0.325664,0.0004014624,NaN,0.5180337,-14.30518,NaN,-2.054714,-1.464717,-0.3426658,14.10825,NaN,NaN,-0.02342293,0.8190968,4.283289E-07,1.029577,1.482071E-08,1.391009
589.6391,-1.481689,0.0004892612,NaN,-0.325664,0.0004014624,NaN,0.5180337,-14.30518,NaN,-2.054714,-1.464717,-0.3426658,14.10825,NaN,NaN,-0.02342293,0.8190968,4.283289E-07,1.029577,1.482071E-08,1.391009
589.6533,-1.480571,0.0004888538,NaN,-0.3256736,0.000401407,NaN,0.5170614,-14.30479,NaN,-2.057239,-1.463609,-0.3429731,14.10701,NaN,NaN,-0.02335544,0.8194504,4.277329E-07,1.027939,1.243653E-08,1.389773
589.6688,-1.478583,0.0004885513,NaN,-0.3256809,0.0004016635,NaN,0.515958,-14.3049,NaN,-2.060057,-1.462937,-0.343289,14.1063,NaN,NaN,-0.02328911,0.8193126,4.325013E-07,1.026961,1.482071E-08,1.389772
589.6835,-1.476054,0.0004884745,NaN,-0.325687,0.0004009646,NaN,0.5148307,-14.30541,NaN,-2.062911,-1.477056,-0.3436323,14.12147,NaN,NaN,-0.02322414,0.8192384,4.348854E-07,1.047655,1.243653E-08,1.39602
589.6985,-1.476054,0.0004884745,NaN,-0.325687,0.0004009646,NaN,0.5148307,-14.30541,NaN,-2.062911,-1.477056,-0.3436323,14.12147,NaN,NaN,-0.02322414,0.8192384,4.348854E-07,1.047655,1.243653E-08,1.39602
589.7126,-1.473196,0.0004886672,NaN,-0.3256923,0.0004013691,NaN,0.5137308,-14.3048,NaN,-2.065705,-1.465852,-0.3439764,14.10941,NaN,NaN,-0.02316046,0.8196456,4.354815E-07,1.031229,1.243653E-08,1.390103
589.7289,-1.470143,0.0004886434,NaN,-0.3256971,0.0004016867,NaN,0.5126716,-14.30485,NaN,-2.068412,-1.464064,-0.3443103,14.10749,NaN,NaN,-0.02309804,0.8195322,4.360776E-07,1.028608,1.482071E-08,1.389641
589.7427,-1.466252,0.0004887326,NaN,-0.3256993,0.0004022059,NaN,0.511482,-14.30501,NaN,-2.07141,-1.462886,-0.3446487,14.10624,NaN,NaN,-0.02303668,0.8193184,4.390578E-07,1.026887,1.482071E-08,1.390541
589.7576,-1.466252,0.0004887326,NaN,-0.3256993,0.0004022059,NaN,0.511482,-14.30501,NaN,-2.07141,-1.462886,-0.3446487,14.10624,NaN,NaN,-0.02303668,0.8193184,4.390578E-07,1.026887,1.482071E-08,1.390541
589.7715,-1.46185,0.0004881207,NaN,-0.3257005,0.0004020746,NaN,0.5102682,-14.30499,NaN,-2.074439,-1.462329,-0.3450156,14.10564,NaN,NaN,-0.02297656,0.8193106,4.444222E-07,1.026069,1.72049E-08,1.391035
589.787,-1.457144,0.0004871764,NaN,-0.3257013,0.0004017298,NaN,0.5090828,-14.30484,NaN,-2.077403,-1.462296,-0.3453838,14.10558,NaN,NaN,-0.02291765,0.8194494,4.468064E-07,1.026013,1.72049E-08,1.390076
589.8016,-1.452268,0.0004862555,NaN,-0.3257019,0.0004014539,NaN,0.5079401,-14.30466,NaN,-2.080274,-1.462924,-0.3457414,14.10622,NaN,NaN,-0.0228599,0.8196461,4.527669E-07,1.026921,1.005234E-08,1.388149
589.8163,-1.452268,0.0004862555,NaN,-0.3257019,0.0004014539,NaN,0.5079401,-14.30466,NaN,-2.080274,-1.462924,-0.3457414,14.10622,NaN,NaN,-0.0228599,0.8196461,4.527669E-07,1.026921,1.005234E-08,1.388149
589.8326,-1.446576,0.0004855206,NaN,-0.3257011,0.0004014486,NaN,0.506669,-14.30495,NaN,-2.08343,-1.462514,-0.3460996,14.10581,NaN,NaN,-0.02280309,0.8193314,4.623036E-07,1.026334,1.005234E-08,1.388885
589.8461,-1.440396,0.0004852687,NaN,-0.3256992,0.0004017061,NaN,0.5053743,-14.30594,NaN,-2.086611,-1.465095,-0.3464862,14.10871,NaN,NaN,-0.02274745,0.8184168,4.700522E-07,1.030155,1.482071E-08,1.395453
589.8611,-1.433933,0.0004849783,NaN,-0.3256965,0.0004020248,NaN,0.5041096,-14.30497,NaN,-2.089721,-1.46263,-0.3468744,14.10594,NaN,NaN,-0.02269292,0.8193007,4.772048E-07,1.026508,1.72049E-08,1.389243
589.8758,-1.433933,0.0004849783,NaN,-0.3256965,0.0004020248,NaN,0.5041096,-14.30497,NaN,-2.089721,-1.46263,-0.3468744,14.10594,NaN,NaN,-0.02269292,0.8193007,4.772048E-07,1.026508,1.72049E-08,1.389243
589.8902,-1.426593,0.0004846705,NaN,-0.3256909,0.0004023509,NaN,0.5027198,-14.30496,NaN,-2.093111,-1.462457,-0.3472621,14.10575,NaN,NaN,-0.02263927,0.8192961,4.897217E-07,1.026253,1.482071E-08,1.389281
589.9055,-1.41873,0.0004843143,NaN,-0.3256831,0.0004026843,NaN,0.5013121,-14.30507,NaN,-2.096511,-1.461946,-0.3476777,14.10521,NaN,NaN,-0.02258673,0.8191625,4.998545E-07,1.025508,1.958908E-08,1.389393
589.9203,-1.410572,0.0004839993,NaN,-0.3256736,0.0004030498,NaN,0.499941,-14.30528,NaN,-2.099825,-1.461772,-0.3480933,14.10505,NaN,NaN,-0.02253524,0.8189421,5.099873E-07,1.025262,1.72049E-08,1.389877
589.9354,-1.410572,0.0004839993,NaN,-0.3256736,0.0004030498,NaN,0.499941,-14.30528,NaN,-2.099825,-1.461772,-0.3480933,14.10505,NaN,NaN,-0.02253524,0.8189421,5.099873E-07,1.025262,1.72049E-08,1.389877
589.9492,-1.402262,0.0004838368,NaN,-0.325663,0.0004033427,NaN,0.498621,-14.30598,NaN,-2.103025,-1.464238,-0.3484959,14.10778,NaN,NaN,-0.02248476,0.8183196,5.18928E-07,1.028902,1.72049E-08,1.394166
589.9658,-1.393164,0.0004836392,NaN,-0.3256494,0.0004035632,NaN,0.4971808,-14.30498,NaN,-2.106492,-1.464079,-0.3488884,14.10746,NaN,NaN,-0.02243506,0.8193038,5.32041E-07,1.028626,1.482071E-08,1.39018
589.9796,-1.393164,0.0004836392,NaN,-0.3256494,0.0004035632,NaN,0.4971808,-14.30498,NaN,-2.106492,-1.464079,-0.3488884,14.10746,NaN,NaN,-0.02243506,0.8193038,5.32041E-07,1.028626,1.482071E-08,1.39018
589.9938,-1.383607,0.0004828731,NaN,-0.3256333,0.0004033455,NaN,0.4957198,-14.30558,NaN,-2.109967,-1.462157,-0.3493087,14.10549,NaN,NaN,-0.02238637,0.8186486,5.44558E-07,1.02584,1.958908E-08,1.39347
590.009,-1.373802,0.0004827538,NaN,-0.3256154,0.0004038787,NaN,0.4942931,-14.3057,NaN,-2.113355,-1.461979,-0.3497305,14.10531,NaN,NaN,-0.02233867,0.8185116,5.534987E-07,1.025586,1.72049E-08,1.395613
590.0238,-1.363882,0.0004832198,NaN,-0.3255963,0.0004037913,NaN,0.4929162,-14.3071,NaN,-2.116629,-1.474123,-0.3501402,14.11848,NaN,NaN,-0.02229192,0.8175048,5.642275E-07,1.043415,1.72049E-08,1.405502
590.0385,-1.363882,0.0004832198,NaN,-0.3255963,0.0004037913,NaN,0.4929162,-14.3071,NaN,-2.116629,-1.474123,-0.3501402,14.11848,NaN,NaN,-0.02229192,0.8175048,5.642275E-07,1.043415,1.72049E-08,1.405502
590.0526,-1.353203,0.0004837357,NaN,-0.3255742,0.0004043519,NaN,0.4914193,-14.30718,NaN,-2.12017,-1.467069,-0.3505353,14.11096,NaN,NaN,-0.02224583,0.8172852,5.791287E-07,1.033107,1.482071E-08,1.403836
590.0682,-1.342092,0.0004836123,NaN,-0.3255495,0.0004044753,NaN,0.4898999,-14.30553,NaN,-2.123717,-1.463361,-0.3509593,14.10679,NaN,NaN,-0.02220069,0.8188293,5.95222E-07,1.027628,7.668156E-09,1.393848
590.083,-1.330754,0.0004834661,NaN,-0.3255228,0.0004043213,NaN,0.4884144,-14.30645,NaN,-2.127174,-1.467753,-0.3513861,14.11161,NaN,NaN,-0.02215648,0.8180456,6.107192E-07,1.034096,5.28397E-09,1.398432
590.0978,-1.330754,0.0004834661,NaN,-0.3255228,0.0004043213,NaN,0.4884144,-14.30645,NaN,-2.127174,-1.467753,-0.3513861,14.11161,NaN,NaN,-0.02215648,0.8180456,6.107192E-07,1.034096,5.28397E-09,1.398432
590.112,-1.318594,0.0004831386,NaN,-0.3254924,0.0004042904,NaN,0.4868107,-14.3055,NaN,-2.130895,-1.463903,-0.3517987,14.10738,NaN,NaN,-0.02211288,0.8188865,6.280046E-07,1.028432,5.28397E-09,1.393627
590.1275,-1.305968,0.0004824937,NaN,-0.3254589,0.000403069,NaN,0.4851893,-14.30503,NaN,-2.13461,-1.47776,-0.3522402,14.12212,NaN,NaN,-0.02207017,0.8197666,6.446938E-07,1.048692,7.668156E-09,1.396984
590.1426,-1.293101,0.0004814841,NaN,-0.3254229,0.0004021816,NaN,0.4836076,-14.30577,NaN,-2.138221,-1.465836,-0.3526836,14.10943,NaN,NaN,-0.02202835,0.8188434,6.584029E-07,1.03124,5.28397E-09,1.395721
590.1575,-1.293101,0.0004814841,NaN,-0.3254229,0.0004021816,NaN,0.4836076,-14.30577,NaN,-2.138221,-1.465836,-0.3526836,14.10943,NaN,NaN,-0.02202835,0.8188434,6.584029E-07,1.03124,5.28397E-09,1.395721
590.1716,-1.280136,0.0004809284,NaN,-0.3253853,0.0004015164,NaN,0.4820826,-14.30564,NaN,-2.141702,-1.469688,-0.3531137,14.11354,NaN,NaN,-0.02198735,0.8190705,6.709199E-07,1.036882,5.28397E-09,1.395105
590.1891,-1.266436,0.0004802258,NaN,-0.3253445,0.0004009419,NaN,0.4804451,-14.30609,NaN,-2.145435,-1.465789,-0.3535183,14.10943,NaN,NaN,-0.02194688,0.8185313,6.899933E-07,1.031196,5.28397E-09,1.397552
590.2021,-1.252331,0.0004803614,NaN,-0.3253007,0.000400697,NaN,0.4787865,-14.30738,NaN,-2.149162,-1.470909,-0.3539515,14.11508,NaN,NaN,-0.02190723,0.8173857,7.084708E-07,1.038745,5.28397E-09,1.405384
590.2166,-1.252331,0.0004803614,NaN,-0.3253007,0.000400697,NaN,0.4787865,-14.30738,NaN,-2.149162,-1.470909,-0.3539515,14.11508,NaN,NaN,-0.02190723,0.8173857,7.084708E-07,1.038745,5.28397E-09,1.405384
590.2308,-1.23803,0.0004800539,NaN,-0.3252547,0.0004003681,NaN,0.4771643,-14.30591,NaN,-2.152786,-1.46521,-0.3543885,14.10883,NaN,NaN,-0.0218684,0.8187194,7.269483E-07,1.030374,7.668156E-09,1.396282
590.2463,-1.223666,0.0004791336,NaN,-0.3252072,0.0003996732,NaN,0.4755966,-14.30604,NaN,-2.15628,-1.464108,-0.3548136,14.10767,NaN,NaN,-0.02183035,0.8185591,7.436375E-07,1.028773,1.005234E-08,1.395804
590.2612,-1.208594,0.0004787834,NaN,-0.3251568,0.0003997845,NaN,0.4739166,-14.30634,NaN,-2.160029,-1.463301,-0.3552088,14.10685,NaN,NaN,-0.02179273,0.8182393,7.639031E-07,1.027609,7.668156E-09,1.397668
590.2759,-1.208594,0.0004787834,NaN,-0.3251568,0.0003997845,NaN,0.4739166,-14.30634,NaN,-2.160029,-1.463301,-0.3552088,14.10685,NaN,NaN,-0.02179273,0.8182393,7.639031E-07,1.027609,7.668156E-09,1.397668
590.2901,-1.19314,0.0004778494,NaN,-0.3251035,0.0003993415,NaN,0.4722131,-14.30618,NaN,-2.16377,-1.462763,-0.3556336,14.10626,NaN,NaN,-0.0217559,0.8183847,7.841687E-07,1.026819,1.005234E-08,1.397185
590.3068,-1.177511,0.0004772432,NaN,-0.325048,0.0003994574,NaN,0.4705446,-14.30633,NaN,-2.167408,-1.462138,-0.3560638,14.10561,NaN,NaN,-0.02171982,0.8182091,8.068185E-07,1.025914,5.28397E-09,1.397596
590.3207,-1.161836,0.000477445,NaN,-0.3249912,0.0003992353,NaN,0.468931,-14.30775,NaN,-2.170913,-1.473503,-0.3564833,14.11794,NaN,NaN,-0.02168447,0.8171603,8.246999E-07,1.0426,1.005234E-08,1.408457
590.3353,-1.161836,0.000477445,NaN,-0.3249912,0.0003992353,NaN,0.468931,-14.30775,NaN,-2.170913,-1.473503,-0.3564833,14.11794,NaN,NaN,-0.02168447,0.8171603,8.246999E-07,1.0426,1.005234E-08,1.408457
590.3495,-1.14547,0.0004775836,NaN,-0.3249315,0.0003992431,NaN,0.4672073,-14.30618,NaN,-2.174671,-1.467733,-0.3568678,14.1116,NaN,NaN,-0.02164948,0.8185973,8.485417E-07,1.034124,7.668156E-09,1.398082
590.3652,-1.128739,0.0004777258,NaN,-0.324869,0.0003996849,NaN,0.4654586,-14.30622,NaN,-2.178419,-1.463546,-0.3572823,14.10713,NaN,NaN,-0.02161521,0.8184488,8.711915E-07,1.028001,5.28397E-09,1.396596
590.3799,-1.128739,0.0004777258,NaN,-0.324869,0.0003996849,NaN,0.4654586,-14.30622,NaN,-2.178419,-1.463546,-0.3572823,14.10713,NaN,NaN,-0.02161521,0.8184488,8.711915E-07,1.028001,5.28397E-09,1.396596
590.3945,-1.111847,0.0004778554,NaN,-0.3248044,0.0003996442,NaN,0.4637446,-14.30735,NaN,-2.18206,-1.469536,-0.3577039,14.11369,NaN,NaN,-0.02158166,0.817511,8.926492E-07,1.036815,1.005234E-08,1.402404
590.4097,-1.094198,0.0004783035,NaN,-0.3247361,0.0004000286,NaN,0.4619205,-14.30754,NaN,-2.185944,-1.468228,-0.3580935,14.11231,NaN,NaN,-0.02154842,0.817282,9.188752E-07,1.03491,7.668156E-09,1.405908
590.4255,-1.076145,0.0004787297,NaN,-0.3246642,0.0004007229,NaN,0.4600227,-14.30695,NaN,-2.188398,-1.463739,-0.3586309,14.10745,NaN,NaN,-0.02151433,0.8177605,9.737114E-07,1.028331,2.899784E-09,1.401125
590.4393,-1.076145,0.0004787297,NaN,-0.3246642,0.0004007229,NaN,0.4600227,-14.30695,NaN,-2.188398,-1.463739,-0.3586309,14.10745,NaN,NaN,-0.02151433,0.8177605,9.737114E-07,1.028331,2.899784E-09,1.401125
590.4534,-1.057914,0.0004791322,NaN,-0.3245895,0.0004012336,NaN,0.4581473,-14.30763,NaN,-2.189192,-1.465218,-0.3592357,14.10912,NaN,NaN,-0.02148047,0.8171216,1.035104E-06,1.030521,5.155987E-10,1.404678
590.4686,-1.039648,0.0004793555,NaN,-0.3245131,0.0004017137,NaN,0.4563442,-14.30688,NaN,-2.188848,-1.463389,-0.3598278,14.10706,NaN,NaN,-0.02144752,0.8178193,1.093517E-06,1.027818,5.155987E-10,1.40067
590.4835,-1.020708,0.0004799643,NaN,-0.3244337,0.0004026748,NaN,0.4544598,-14.30725,NaN,-2.188432,-1.462578,-0.3603461,14.10624,NaN,NaN,-0.02141535,0.8174183,1.147161E-06,1.02665,2.899784E-09,1.405912
590.4982,-1.020708,0.0004799643,NaN,-0.3244337,0.0004026748,NaN,0.4544598,-14.30725,NaN,-2.188432,-1.462578,-0.3603461,14.10624,NaN,NaN,-0.02141535,0.8174183,1.147161E-06,1.02665,2.899784E-09,1.405912
590.5123,-1.001423,0.0004802627,NaN,-0.3243513,0.0004032427,NaN,0.4525664,-14.30776,NaN,-2.188031,-1.462646,-0.3608738,14.10638,NaN,NaN,-0.0213842,0.8169147,1.190672E-06,1.026771,5.28397E-09,1.403553
590.5279,-0.9820025,0.0004805315,NaN,-0.3242666,0.0004036305,NaN,0.4507205,-14.30831,NaN,-2.187706,-1.46489,-0.3613997,14.10884,NaN,NaN,-0.02135393,0.8164327,1.2318E-06,1.030071,2.899784E-09,1.406556
590.5427,-0.9625775,0.0004813172,NaN,-0.3241806,0.0004035406,NaN,0.4489427,-14.30711,NaN,-2.187478,-1.475074,-0.3619126,14.1195,NaN,NaN,-0.02132442,0.8179131,1.26935E-06,1.044886,5.155987E-10,1.405731
590.5579,-0.9625775,0.0004813172,NaN,-0.3241806,0.0004035406,NaN,0.4489427,-14.30711,NaN,-2.187478,-1.475074,-0.3619126,14.1195,NaN,NaN,-0.02132442,0.8179131,1.26935E-06,1.044886,5.155987E-10,1.405731
590.5718,-0.9425031,0.0004815324,NaN,-0.3240921,0.0004037088,NaN,0.4470694,-14.3064,NaN,-2.187719,-1.464698,-0.3623878,14.10835,NaN,NaN,-0.02129522,0.8184243,1.310478E-06,1.029695,-1.868587E-09,1.397247
590.5873,-0.9221044,0.000481314,NaN,-0.3240009,0.0004033306,NaN,0.4451768,-14.30682,NaN,-2.187987,-1.468392,-0.3629088,14.11234,NaN,NaN,-0.02126652,0.8181042,1.351009E-06,1.035112,5.155987E-10,1.400548
590.6022,-0.9015871,0.0004816177,NaN,-0.3239075,0.0004026999,NaN,0.4433274,-14.30777,NaN,-2.188088,-1.476749,-0.3634511,14.12137,NaN,NaN,-0.02123838,0.817365,1.393924E-06,1.047366,-1.868587E-09,1.408699
590.6172,-0.9015871,0.0004816177,NaN,-0.3239075,0.0004026999,NaN,0.4433274,-14.30777,NaN,-2.188088,-1.476749,-0.3634511,14.12137,NaN,NaN,-0.02123838,0.817365,1.393924E-06,1.047366,-1.868587E-09,1.408699
590.6313,-0.8803533,0.0004812852,NaN,-0.3238107,0.0004021001,NaN,0.4413812,-14.30639,NaN,-2.188402,-1.466701,-0.363968,14.1105,NaN,NaN,-0.02121049,0.8185809,1.441012E-06,1.032644,2.899784E-09,1.398265
590.6478,-0.8587576,0.0004808269,NaN,-0.3237104,0.0004013668,NaN,0.4394237,-14.30664,NaN,-2.188585,-1.469168,-0.3645277,14.11317,NaN,NaN,-0.02118314,0.8183925,1.485119E-06,1.03627,7.668156E-09,1.400227
590.6619,-0.8370247,0.0004804956,NaN,-0.3236072,0.00040077,NaN,0.4375188,-14.30702,NaN,-2.188551,-1.469249,-0.3651009,14.11331,NaN,NaN,-0.02115641,0.8180177,1.52565E-06,1.036406,1.005234E-08,1.400461
590.6768,-0.8370247,0.0004804956,NaN,-0.3236072,0.00040077,NaN,0.4375188,-14.30702,NaN,-2.188551,-1.469249,-0.3651009,14.11331,NaN,NaN,-0.02115641,0.8180177,1.52565E-06,1.036406,1.005234E-08,1.400461
590.6908,-0.8152965,0.0004802934,NaN,-0.3235026,0.0004002341,NaN,0.4356904,-14.30723,NaN,-2.188363,-1.470073,-0.3656622,14.11421,NaN,NaN,-0.02113034,0.8178267,1.564989E-06,1.037621,7.668156E-09,1.40158
590.7062,-0.7929342,0.0004803428,NaN,-0.3233954,0.0004002778,NaN,0.433775,-14.30708,NaN,-2.188508,-1.466069,-0.3661816,14.10992,NaN,NaN,-0.02110457,0.8178852,1.60254E-06,1.031765,1.482071E-08,1.400317
590.7209,-0.770267,0.0004808648,NaN,-0.3232853,0.000399696,NaN,0.4318481,-14.30752,NaN,-2.188645,-1.478761,-0.366738,14.12352,NaN,NaN,-0.02107933,0.8177918,1.641879E-06,1.050339,1.72049E-08,1.408452
590.7357,-0.770267,0.0004808648,NaN,-0.3232853,0.000399696,NaN,0.4318481,-14.30752,NaN,-2.188645,-1.478761,-0.366738,14.12352,NaN,NaN,-0.02107933,0.8177918,1.641879E-06,1.050339,1.72049E-08,1.408452
590.7499,-0.7475026,0.0004809207,NaN,-0.323173,0.0003994911,NaN,0.4299702,-14.30622,NaN,-2.188645,-1.466825,-0.3673088,14.11064,NaN,NaN,-0.02105463,0.8189127,1.67943E-06,1.032859,1.482071E-08,1.396467
590.7655,-0.7247725,0.0004809713,NaN,-0.3230599,0.000399522,NaN,0.4281651,-14.30651,NaN,-2.188515,-1.465998,-0.367871,14.10979,NaN,NaN,-0.02103052,0.8186193,1.718769E-06,1.031661,1.243653E-08,1.396212
590.7839,-0.7014313,0.000480794,NaN,-0.3229447,0.0003995367,NaN,0.4262701,-14.30612,NaN,-2.188711,-1.464331,-0.3683959,14.10795,NaN,NaN,-0.02100664,0.8189721,1.761685E-06,1.029206,1.958909E-08,1.394004
590.7972,-0.7014313,0.000480794,NaN,-0.3229447,0.0003995367,NaN,0.4262701,-14.30612,NaN,-2.188711,-1.464331,-0.3683959,14.10795,NaN,NaN,-0.02100664,0.8189721,1.761685E-06,1.029206,1.958909E-08,1.394004
590.8096,-0.6778035,0.0004806681,NaN,-0.322827,0.0003997821,NaN,0.4243627,-14.30674,NaN,-2.188876,-1.463548,-0.3689595,14.1072,NaN,NaN,-0.02098323,0.8183331,1.802812E-06,1.028087,1.958909E-08,1.396201
590.8251,-0.6540944,0.0004807276,NaN,-0.3227075,0.0003991019,NaN,0.4225038,-14.30754,NaN,-2.188882,-1.476906,-0.3695377,14.12156,NaN,NaN,-0.02096033,0.8179519,1.841257E-06,1.047659,1.72049E-08,1.404263
590.8401,-0.6304333,0.0004806934,NaN,-0.3225874,0.0003992268,NaN,0.4207178,-14.30646,NaN,-2.188745,-1.464127,-0.3701068,14.1078,NaN,NaN,-0.02093798,0.8188242,1.873145E-06,1.028944,2.674164E-08,1.395227
590.8549,-0.6304333,0.0004806934,NaN,-0.3225874,0.0003992268,NaN,0.4207178,-14.30646,NaN,-2.188745,-1.464127,-0.3701068,14.1078,NaN,NaN,-0.02093798,0.8188242,1.873145E-06,1.028944,2.674164E-08,1.395227
590.871,-0.6063458,0.0004805381,NaN,-0.3224661,0.0003993244,NaN,0.4188813,-14.30655,NaN,-2.188837,-1.464294,-0.3706432,14.10799,NaN,NaN,-0.02091593,0.8187448,1.911888E-06,1.02919,2.674164E-08,1.394361
590.8845,-0.5820911,0.0004809323,NaN,-0.3223434,0.0004000713,NaN,0.4170526,-14.30722,NaN,-2.188907,-1.463201,-0.3712032,14.1069,NaN,NaN,-0.02089433,0.81805,1.947055E-06,1.027614,2.674164E-08,1.39923
590.8994,-0.5820911,0.0004809323,NaN,-0.3223434,0.0004000713,NaN,0.4170526,-14.30722,NaN,-2.188907,-1.463201,-0.3712032,14.1069,NaN,NaN,-0.02089433,0.81805,1.947055E-06,1.027614,2.674164E-08,1.39923
590.9135,-0.5578327,0.0004805923,NaN,-0.3222201,0.0004000553,NaN,0.4152769,-14.30688,NaN,-2.188865,-1.462929,-0.371769,14.10655,NaN,NaN,-0.02087324,0.8183919,1.980434E-06,1.027198,2.435746E-08,1.396538
590.929,-0.5336734,0.0004799781,NaN,-0.3220973,0.0003999858,NaN,0.413571,-14.30676,NaN,-2.188726,-1.46216,-0.3723234,14.10571,NaN,NaN,-0.02085266,0.8184823,2.012322E-06,1.026066,2.674164E-08,1.393635
590.9438,-0.5096776,0.0004801345,NaN,-0.3219761,0.0004005304,NaN,0.4119365,-14.3076,NaN,-2.188543,-1.463462,-0.3728587,14.10721,NaN,NaN,-0.02083259,0.8176891,2.039144E-06,1.028007,2.912583E-08,1.401073
590.9587,-0.5096776,0.0004801345,NaN,-0.3219761,0.0004005304,NaN,0.4119365,-14.3076,NaN,-2.188543,-1.463462,-0.3728587,14.10721,NaN,NaN,-0.02083259,0.8176891,2.039144E-06,1.028007,2.912583E-08,1.401073
590.9729,-0.4858852,0.0004804031,NaN,-0.3218573,0.0004009707,NaN,0.410369,-14.30774,NaN,-2.188363,-1.464853,-0.3733736,14.1087,NaN,NaN,-0.02081304,0.8175924,2.06537E-06,1.030043,3.151002E-08,1.400975
590.9887,-0.4623202,0.0004804256,NaN,-0.3217418,0.0004013624,NaN,0.4088629,-14.30675,NaN,-2.188212,-1.462584,-0.3738699,14.10614,NaN,NaN,-0.02079396,0.8185137,2.08802E-06,1.026684,2.912583E-08,1.394417
591.0034,-0.4389971,0.0004807603,NaN,-0.32163,0.0004010122,NaN,0.4074131,-14.30801,NaN,-2.188094,-1.475371,-0.3743503,14.11997,NaN,NaN,-0.02077532,0.817652,2.11067E-06,1.045445,2.674165E-08,1.407094
591.0184,-0.4389971,0.0004807603,NaN,-0.32163,0.0004010122,NaN,0.4074131,-14.30801,NaN,-2.188094,-1.475371,-0.3743503,14.11997,NaN,NaN,-0.02077532,0.817652,2.11067E-06,1.045445,2.674165E-08,1.407094
591.0325,-0.4159238,0.0004803003,NaN,-0.3215225,0.000400488,NaN,0.4060158,-14.30676,NaN,-2.188001,-1.46556,-0.3748169,14.10936,NaN,NaN,-0.02075711,0.8187245,2.129148E-06,1.031069,2.435746E-08,1.396175
591.0479,-0.3931044,0.000480684,NaN,-0.3214194,0.0004004877,NaN,0.4046679,-14.30673,NaN,-2.187921,-1.470796,-0.3752711,14.11495,NaN,NaN,-0.0207393,0.8188985,2.146433E-06,1.038735,2.674165E-08,1.393148
591.0629,-0.3705402,0.0004807965,NaN,-0.3213208,0.0004006508,NaN,0.4033672,-14.30684,NaN,-2.187845,-1.464714,-0.3757134,14.10847,NaN,NaN,-0.02072189,0.8186541,2.165805E-06,1.029841,2.674165E-08,1.395493
591.0779,-0.3705402,0.0004807965,NaN,-0.3213208,0.0004006508,NaN,0.4033672,-14.30684,NaN,-2.187845,-1.464714,-0.3757134,14.10847,NaN,NaN,-0.02072189,0.8186541,2.165805E-06,1.029841,2.674165E-08,1.395493
591.0941,-0.3482311,0.000480516,NaN,-0.3212269,0.0004001374,NaN,0.4021122,-14.30733,NaN,-2.187768,-1.470131,-0.3761443,14.11432,NaN,NaN,-0.02070487,0.8183146,2.18309E-06,1.03779,2.674165E-08,1.400357
591.1075,-0.326176,0.0004801793,NaN,-0.3211376,0.0003999803,NaN,0.4009012,-14.3068,NaN,-2.187689,-1.465132,-0.3765637,14.10892,NaN,NaN,-0.02068824,0.8187271,2.196352E-06,1.030463,2.197327E-08,1.396049
591.1224,-0.3043731,0.0004801048,NaN,-0.3210529,0.0004003327,NaN,0.3997331,-14.30708,NaN,-2.187608,-1.463599,-0.3769718,14.10732,NaN,NaN,-0.02067199,0.8184096,2.209018E-06,1.028232,2.197327E-08,1.397021
591.1369,-0.3043731,0.0004801048,NaN,-0.3210529,0.0004003327,NaN,0.3997331,-14.30708,NaN,-2.187608,-1.463599,-0.3769718,14.10732,NaN,NaN,-0.02067199,0.8184096,2.209018E-06,1.028232,2.197327E-08,1.397021
591.1511,-0.2891938,0.0004804438,NaN,-0.3209933,0.0003998825,NaN,0.4000681,-14.30729,NaN,-2.18405,-1.476673,-0.3774681,14.1213,NaN,NaN,-0.02065932,0.8185941,2.16491E-06,1.047367,1.72049E-08,1.402998
591.1666,-0.2782448,0.0004807583,NaN,-0.3209675,0.0003990922,NaN,0.401169,-14.30862,NaN,-2.180736,-1.47765,-0.3774142,14.12249,NaN,NaN,-0.02064811,0.8172814,2.094726E-06,1.048829,1.482072E-08,1.408583
591.1816,-0.2700038,0.0004810947,NaN,-0.3209693,0.0003990261,NaN,0.4024231,-14.30689,NaN,-2.178657,-1.46938,-0.3770921,14.11348,NaN,NaN,-0.02063698,0.8188717,2.023051E-06,1.036704,1.72049E-08,1.39618
591.1964,-0.2700038,0.0004810947,NaN,-0.3209693,0.0003990261,NaN,0.4024231,-14.30689,NaN,-2.178657,-1.46938,-0.3770921,14.11348,NaN,NaN,-0.02063698,0.8188717,2.023051E-06,1.036704,1.72049E-08,1.39618
591.2107,-0.2635014,0.0004813623,NaN,-0.3209891,0.0003988904,NaN,0.4035674,-14.30701,NaN,-2.177411,-1.471222,-0.3767473,14.11547,NaN,NaN,-0.0206253,0.8188073,1.967023E-06,1.039409,1.72049E-08,1.395865
591.2264,-0.2581206,0.000482091,NaN,-0.3210219,0.0003990347,NaN,0.4045602,-14.30867,NaN,-2.176721,-1.473469,-0.3764443,14.11807,NaN,NaN,-0.02061352,0.8172054,1.920382E-06,1.042753,1.958909E-08,1.407766
591.2414,-0.2534681,0.0004821708,NaN,-0.3210634,0.0003989478,NaN,0.405423,-14.30699,NaN,-2.176396,-1.46692,-0.3761895,14.11089,NaN,NaN,-0.02060179,0.8187513,1.87702E-06,1.033137,2.197327E-08,1.396642
591.2564,-0.2534681,0.0004821708,NaN,-0.3210634,0.0003989478,NaN,0.405423,-14.30699,NaN,-2.176396,-1.46692,-0.3761895,14.11089,NaN,NaN,-0.02060179,0.8187513,1.87702E-06,1.033137,2.197327E-08,1.396642
591.272,-0.2492933,0.0004821447,NaN,-0.3211106,0.0003991563,NaN,0.4061882,-14.30743,NaN,-2.176306,-1.464165,-0.3759741,14.10801,NaN,NaN,-0.02059022,0.8182415,1.834999E-06,1.029128,2.435746E-08,1.396425
591.2861,-0.2454368,0.0004821255,NaN,-0.3211614,0.0003994852,NaN,0.4068841,-14.3076,NaN,-2.176364,-1.463679,-0.3757874,14.10752,NaN,NaN,-0.02057882,0.8180613,1.797299E-06,1.028428,2.674165E-08,1.397282
591.3022,-0.2418346,0.0004817484,NaN,-0.3338188,0.0003991232,NaN,0.4065912,-14.30762,NaN,-2.179619,-1.468308,-0.3794568,14.11246,NaN,NaN,-0.02057644,0.818189,1.641731E-06,1.035199,3.627839E-08,1.400841
591.3161,-0.2418346,0.0004817484,NaN,-0.3338188,0.0003991232,NaN,0.4065912,-14.30762,NaN,-2.179619,-1.468308,-0.3794568,14.11246,NaN,NaN,-0.02057644,0.818189,1.641731E-06,1.035199,3.627839E-08,1.400841
591.3303,-0.2384885,0.0004819556,NaN,-0.3540984,0.0003993905,NaN,0.4069983,-14.30866,NaN,-2.1837,-1.467314,-0.3828676,14.11153,NaN,NaN,-0.02057274,0.8171263,1.511718E-06,1.033786,3.151002E-08,1.405386
591.3458,-0.2353559,0.000481503,NaN,-0.3789418,0.0003992037,NaN,0.4078001,-14.30679,NaN,-2.187136,-1.463848,-0.385719,14.10759,NaN,NaN,-0.02056666,0.818895,1.425813E-06,1.028653,3.151002E-08,1.395358
591.3606,-0.2323873,0.0004813902,NaN,-0.406467,0.0003995152,NaN,0.4086916,-14.30685,NaN,-2.188751,-1.463829,-0.3882341,14.10758,NaN,NaN,-0.02055834,0.8188362,1.381556E-06,1.02863,3.151002E-08,1.395701
591.3757,-0.2323873,0.0004813902,NaN,-0.406467,0.0003995152,NaN,0.4086916,-14.30685,NaN,-2.188751,-1.463829,-0.3882341,14.10758,NaN,NaN,-0.02055834,0.8188362,1.381556E-06,1.02863,3.151002E-08,1.395701
591.3899,-0.2295375,0.0004816256,NaN,-0.4347575,0.0004001783,NaN,0.4096645,-14.30719,NaN,-2.188568,-1.462667,-0.3902356,14.10638,NaN,NaN,-0.02054888,0.8184571,1.35317E-06,1.026946,2.674165E-08,1.397918
591.4055,-0.2267721,0.0004815948,NaN,-0.4633915,0.0003995446,NaN,0.410601,-14.30773,NaN,-2.187541,-1.476235,-0.3919998,14.12094,NaN,NaN,-0.02053993,0.8183329,1.318226E-06,1.046818,2.435746E-08,1.403357
591.4206,-0.2240692,0.0004813482,NaN,-0.4921071,0.0003995699,NaN,0.4115018,-14.30689,NaN,-2.18645,-1.463548,-0.3935909,14.10729,NaN,NaN,-0.02053173,0.8189461,1.275758E-06,1.028235,1.482072E-08,1.396513
591.4354,-0.2240692,0.0004813482,NaN,-0.4921071,0.0003995699,NaN,0.4115018,-14.30689,NaN,-2.18645,-1.463548,-0.3935909,14.10729,NaN,NaN,-0.02053173,0.8189461,1.275758E-06,1.028235,1.482072E-08,1.396513
591.45,-0.221411,0.0004813767,NaN,-0.5199805,0.000400026,NaN,0.4124269,-14.30732,NaN,-2.185507,-1.46258,-0.3948109,14.10631,NaN,NaN,-0.02052353,0.8184806,1.231055E-06,1.026836,1.005235E-08,1.397267
591.4655,-0.2187867,0.0004811,NaN,-0.5472111,0.000400209,NaN,0.4132632,-14.30709,NaN,-2.184991,-1.462526,-0.3959562,14.10621,NaN,NaN,-0.02051582,0.8186954,1.182179E-06,1.026745,1.362862E-08,1.395858
591.4806,-0.2161912,0.0004806636,NaN,-0.5739228,0.0004003008,NaN,0.4140246,-14.30694,NaN,-2.184865,-1.462512,-0.397084,14.10617,NaN,NaN,-0.02050839,0.8188308,1.130621E-06,1.026716,1.601281E-08,1.394204
591.4954,-0.2161912,0.0004806636,NaN,-0.5739228,0.0004003008,NaN,0.4140246,-14.30694,NaN,-2.184865,-1.462512,-0.397084,14.10617,NaN,NaN,-0.02050839,0.8188308,1.130621E-06,1.026716,1.601281E-08,1.394204
591.5117,-0.2136221,0.0004811274,NaN,-0.6001933,0.0004000169,NaN,0.4147343,-14.30679,NaN,-2.184961,-1.475567,-0.3982024,14.12009,NaN,NaN,-0.02050105,0.8193802,1.082043E-06,1.045811,1.601281E-08,1.399039
591.5255,-0.2110739,0.0004814265,NaN,-0.6253103,0.0004005296,NaN,0.4154717,-14.307,NaN,-2.184923,-1.463879,-0.3990655,14.1076,NaN,NaN,-0.02049317,0.8189609,1.042704E-06,1.028697,1.601281E-08,1.395743
591.5402,-0.2085443,0.0004819905,NaN,-0.6496055,0.0004002346,NaN,0.4161451,-14.3072,NaN,-2.184859,-1.47751,-0.3999161,14.12219,NaN,NaN,-0.02048552,0.8191543,1.005749E-06,1.04865,1.601281E-08,1.401438
591.555,-0.2085443,0.0004819905,NaN,-0.6496055,0.0004002346,NaN,0.4161451,-14.3072,NaN,-2.184859,-1.47751,-0.3999161,14.12219,NaN,NaN,-0.02048552,0.8191543,1.005749E-06,1.04865,1.601281E-08,1.401438
591.569,-0.2060333,0.0004823146,NaN,-0.6732851,0.0004007723,NaN,0.4167778,-14.30722,NaN,-2.184816,-1.464524,-0.400771,14.10829,NaN,NaN,-0.02047812,0.8189269,9.696882E-07,1.029629,7.66816E-09,1.397155
591.5848,-0.2035422,0.0004828347,NaN,-0.6964784,0.0004003995,NaN,0.4173919,-14.308,NaN,-2.184797,-1.478351,-0.401617,14.12316,NaN,NaN,-0.02047091,0.8185513,9.327334E-07,1.049891,5.283975E-09,1.406481
591.5999,-0.2035422,0.0004828347,NaN,-0.6964784,0.0004003995,NaN,0.4173919,-14.308,NaN,-2.184797,-1.478351,-0.401617,14.12316,NaN,NaN,-0.02047091,0.8185513,9.327334E-07,1.049891,5.283975E-09,1.406481
591.6141,-0.2010669,0.0004830254,NaN,-0.7185046,0.0004006044,NaN,0.4180577,-14.3077,NaN,-2.184597,-1.465633,-0.4022021,14.10953,NaN,NaN,-0.02046327,0.8186715,9.01441E-07,1.031267,1.707696E-09,1.399813
591.6299,-0.1986059,0.0004834275,NaN,-0.7397159,0.0003999897,NaN,0.4186736,-14.30741,NaN,-2.184416,-1.478022,-0.4027721,14.12271,NaN,NaN,-0.02045594,0.8193088,8.689564E-07,1.049374,-6.764898E-10,1.399811
591.6448,-0.1961604,0.000483624,NaN,-0.760331,0.0004001395,NaN,0.4192556,-14.30764,NaN,-2.184322,-1.465263,-0.4033495,14.10906,NaN,NaN,-0.0204489,0.8188869,8.340877E-07,1.030684,-4.252768E-09,1.399542
591.6599,-0.1961604,0.000483624,NaN,-0.760331,0.0004001395,NaN,0.4192556,-14.30764,NaN,-2.184322,-1.465263,-0.4033495,14.10906,NaN,NaN,-0.0204489,0.8188869,8.340877E-07,1.030684,-4.252768E-09,1.399542
591.6744,-0.1937263,0.0004845566,NaN,-0.7797245,0.0003999273,NaN,0.4198806,-14.30731,NaN,-2.184115,-1.477722,-0.4036855,14.12232,NaN,NaN,-0.02044149,0.8195553,8.066696E-07,1.048894,-7.829047E-09,1.400383
591.6899,-0.1913027,0.0004849773,NaN,-0.7982829,0.0004003381,NaN,0.4204516,-14.30674,NaN,-2.183967,-1.465928,-0.4040233,14.10961,NaN,NaN,-0.02043439,0.8199509,7.762712E-07,1.031593,-7.829047E-09,1.392434
591.7048,-0.1888914,0.0004849424,NaN,-0.816246,0.0004004968,NaN,0.4209877,-14.30696,NaN,-2.183919,-1.464573,-0.4043825,14.10817,NaN,NaN,-0.02042756,0.8196964,7.428926E-07,1.029606,-6.636954E-09,1.391064
591.72,-0.1888914,0.0004849424,NaN,-0.816246,0.0004004968,NaN,0.4209877,-14.30696,NaN,-2.183919,-1.464573,-0.4043825,14.10817,NaN,NaN,-0.02042756,0.8196964,7.428926E-07,1.029606,-6.636954E-09,1.391064
591.7354,-0.1864948,0.0004848307,NaN,-0.8337629,0.0004007956,NaN,0.4215084,-14.30707,NaN,-2.183942,-1.463166,-0.4047514,14.10666,NaN,NaN,-0.0204209,0.8195551,7.113021E-07,1.027541,-5.444861E-09,1.390953
591.7495,-0.1841085,0.0004848908,NaN,-0.8501648,0.0004002547,NaN,0.422082,-14.30861,NaN,-2.183794,-1.475635,-0.4048792,14.12021,NaN,NaN,-0.02041378,0.8184133,6.880563E-07,1.045861,-6.636954E-09,1.404594
591.7645,-0.1817313,0.0004846404,NaN,-0.8658122,0.0004000026,NaN,0.4226068,-14.30704,NaN,-2.183657,-1.466302,-0.4050097,14.11004,NaN,NaN,-0.02040695,0.8198105,6.624263E-07,1.032158,-3.060675E-09,1.393167
591.7792,-0.1817313,0.0004846404,NaN,-0.8658122,0.0004000026,NaN,0.4226068,-14.30704,NaN,-2.183657,-1.466302,-0.4050097,14.11004,NaN,NaN,-0.02040695,0.8198105,6.624263E-07,1.032158,-3.060675E-09,1.393167
591.7938,-0.1793648,0.0004851941,NaN,-0.880928,0.000399433,NaN,0.4230999,-14.30706,NaN,-2.183593,-1.478368,-0.4051633,14.12295,NaN,NaN,-0.0204004,0.8201149,6.350081E-07,1.049827,1.11165E-09,1.397071
591.8094,-0.1770117,0.0004858148,NaN,-0.8956504,0.0003987419,NaN,0.4235797,-14.30699,NaN,-2.183594,-1.47911,-0.405329,14.12372,NaN,NaN,-0.02039403,0.8201908,6.087821E-07,1.050906,-3.060675E-09,1.394724
591.8245,-0.1746673,0.0004857753,NaN,-0.909304,0.00039806,NaN,0.4241131,-14.30676,NaN,-2.18343,-1.470332,-0.4052577,14.11427,NaN,NaN,-0.02038721,0.8202921,5.897086E-07,1.038021,-1.868583E-09,1.385314
591.8394,-0.1746673,0.0004857753,NaN,-0.909304,0.00039806,NaN,0.4241131,-14.30676,NaN,-2.18343,-1.470332,-0.4052577,14.11427,NaN,NaN,-0.02038721,0.8202921,5.897086E-07,1.038021,-1.868583E-09,1.385314
591.8538,-0.1723298,0.000486146,NaN,-0.9222451,0.0003982305,NaN,0.4245973,-14.30664,NaN,-2.183288,-1.468314,-0.4051946,14.11207,NaN,NaN,-0.02038069,0.8203645,5.68847E-07,1.035047,-3.656722E-09,1.390782
591.8694,-0.1700011,0.0004863243,NaN,-0.9346938,0.000398434,NaN,0.4250496,-14.30655,NaN,-2.183228,-1.46625,-0.4051604,14.10983,NaN,NaN,-0.02037445,0.8204075,5.43813E-07,1.03201,-8.044343E-11,1.38771
591.8845,-0.1676843,0.0004869372,NaN,-0.9467861,0.0003980417,NaN,0.4254889,-14.30752,NaN,-2.183236,-1.478554,-0.4051442,14.12314,NaN,NaN,-0.02036836,0.8197758,5.187791E-07,1.050079,2.899789E-09,1.396981
591.8994,-0.1676843,0.0004869372,NaN,-0.9467861,0.0003980417,NaN,0.4254889,-14.30752,NaN,-2.183236,-1.478554,-0.4051442,14.12314,NaN,NaN,-0.02036836,0.8197758,5.187791E-07,1.050079,2.899789E-09,1.396981
591.9146,-0.1653746,0.0004872012,NaN,-0.9578448,0.0003973937,NaN,0.4259815,-14.30703,NaN,-2.183081,-1.475056,-0.4048978,14.11933,NaN,NaN,-0.02036184,0.8202094,5.032819E-07,1.044938,1.707696E-09,1.393211
591.9291,-0.1630697,0.0004872169,NaN,-0.9682257,0.000397265,NaN,0.4264248,-14.30648,NaN,-2.182946,-1.466576,-0.4046657,14.11016,NaN,NaN,-0.0203556,0.8206037,4.871886E-07,1.032489,1.111649E-09,1.386001
591.9442,-0.160772,0.000487679,NaN,-0.9781479,0.0003970949,NaN,0.4268365,-14.3081,NaN,-2.182892,-1.473899,-0.4044683,14.11822,NaN,NaN,-0.02034964,0.8191898,4.66923E-07,1.043284,2.899789E-09,1.398966
591.959,-0.160772,0.000487679,NaN,-0.9781479,0.0003970949,NaN,0.4268365,-14.3081,NaN,-2.182892,-1.473899,-0.4044683,14.11822,NaN,NaN,-0.02034964,0.8191898,4.66923E-07,1.043284,2.899789E-09,1.398966
591.9732,-0.1584771,0.0004876281,NaN,-0.9869848,0.0003970993,NaN,0.4272924,-14.30621,NaN,-2.182711,-1.464914,-0.4040571,14.10838,NaN,NaN,-0.02034329,0.8209093,4.532139E-07,1.030073,4.687928E-09,1.383496
591.989,-0.1561832,0.0004875259,NaN,-0.9951236,0.0003971791,NaN,0.4276954,-14.30669,NaN,-2.182583,-1.465749,-0.4036731,14.10933,NaN,NaN,-0.02033725,0.8204556,4.383128E-07,1.031314,2.899788E-09,1.385693
592.0038,-0.1538935,0.0004871838,NaN,-1.002802,0.0003961024,NaN,0.4280661,-14.30577,NaN,-2.182553,-1.478825,-0.4033341,14.12323,NaN,NaN,-0.02033147,0.8217479,4.192393E-07,1.050445,5.156027E-10,1.386993
592.019,-0.1538935,0.0004871838,NaN,-1.002802,0.0003961024,NaN,0.4280661,-14.30577,NaN,-2.182553,-1.478825,-0.4033341,14.12323,NaN,NaN,-0.02033147,0.8217479,4.192393E-07,1.050445,5.156027E-10,1.386993
592.0333,-0.1516124,0.0004871364,NaN,-1.010167,0.0003948048,NaN,0.4284253,-14.30703,NaN,-2.182593,-1.480967,-0.4030263,14.12566,NaN,NaN,-0.02032585,0.8205026,4.019539E-07,1.053619,-3.060676E-09,1.392546
592.049,-0.1493358,0.0004873526,NaN,-1.016547,0.0003943716,NaN,0.4288392,-14.30612,NaN,-2.182461,-1.472041,-0.402501,14.11598,NaN,NaN,-0.02031977,0.8212806,3.90629E-07,1.040505,-5.742885E-09,1.383616
592.064,-0.1470613,0.0004876969,NaN,-1.022302,0.0003947832,NaN,0.429205,-14.30595,NaN,-2.18234,-1.46672,-0.4020009,14.11023,NaN,NaN,-0.02031398,0.8213258,3.804962E-07,1.032685,-6.934978E-09,1.383045
592.0792,-0.1470613,0.0004876969,NaN,-1.022302,0.0003947832,NaN,0.429205,-14.30595,NaN,-2.18234,-1.46672,-0.4020009,14.11023,NaN,NaN,-0.02031398,0.8213258,3.804962E-07,1.032685,-6.934978E-09,1.383045
592.0933,-0.1447919,0.000488104,NaN,-1.027653,0.0003955806,NaN,0.4295408,-14.30655,NaN,-2.182295,-1.463456,-0.4015452,14.10679,NaN,NaN,-0.02030845,0.8206447,3.638069E-07,1.027914,-6.040908E-09,1.386301
592.1099,-0.1425318,0.0004881011,NaN,-1.032735,0.0003959765,NaN,0.4298665,-14.3065,NaN,-2.182315,-1.462942,-0.4011213,14.10622,NaN,NaN,-0.02030309,0.8206694,3.477137E-07,1.027153,-4.550792E-09,1.380461
592.124,-0.140277,0.0004885427,NaN,-1.03687,0.0003959301,NaN,0.4302472,-14.30822,NaN,-2.182167,-1.473676,-0.4004821,14.11797,NaN,NaN,-0.02029727,0.819289,3.399651E-07,1.042966,-3.060676E-09,1.39462
592.1387,-0.140277,0.0004885427,NaN,-1.03687,0.0003959301,NaN,0.4302472,-14.30822,NaN,-2.182167,-1.473676,-0.4004821,14.11797,NaN,NaN,-0.02029727,0.819289,3.399651E-07,1.042966,-3.060676E-09,1.39462
592.153,-0.1380244,0.0004883689,NaN,-1.040414,0.0003958493,NaN,0.4305795,-14.3067,NaN,-2.182041,-1.465169,-0.3998713,14.10868,NaN,NaN,-0.02029174,0.8206365,3.304283E-07,1.030464,-3.954746E-09,1.385131
592.1685,-0.1357772,0.0004887313,NaN,-1.043585,0.0003952505,NaN,0.4308818,-14.30705,NaN,-2.181998,-1.477877,-0.3993085,14.12235,NaN,NaN,-0.02028647,0.8206521,3.185074E-07,1.049109,-2.166606E-09,1.390229
592.1837,-0.1335399,0.0004883358,NaN,-1.046516,0.0003947525,NaN,0.4311736,-14.30716,NaN,-2.182006,-1.465966,-0.3987828,14.10958,NaN,NaN,-0.02028134,0.8203599,3.053944E-07,1.031639,-3.784671E-10,1.386521
592.1986,-0.1335399,0.0004883358,NaN,-1.046516,0.0003947525,NaN,0.4311736,-14.30716,NaN,-2.182006,-1.465966,-0.3987828,14.10958,NaN,NaN,-0.02028134,0.8203599,3.053944E-07,1.031639,-3.784671E-10,1.386521
592.2147,-0.1313084,0.0004876731,NaN,-1.048527,0.0003941742,NaN,0.4315214,-14.3071,NaN,-2.18185,-1.466777,-0.3980448,14.11044,NaN,NaN,-0.02027577,0.8204543,3.00626E-07,1.032828,-1.57056E-09,1.385981
592.2288,-0.1290797,0.0004874511,NaN,-1.049974,0.0003942759,NaN,0.431819,-14.30805,NaN,-2.181663,-1.46547,-0.3973436,14.10916,NaN,NaN,-0.02027042,0.8194703,2.922814E-07,1.030951,-6.764904E-10,1.390411
592.2438,-0.126857,0.0004874865,NaN,-1.051074,0.0003939227,NaN,0.4320863,-14.30941,NaN,-2.18149,-1.473298,-0.3966971,14.11772,NaN,NaN,-0.02026529,0.8183362,2.845328E-07,1.042472,-1.57056E-09,1.398382
592.2589,-0.126857,0.0004874865,NaN,-1.051074,0.0003939227,NaN,0.4320863,-14.30941,NaN,-2.18149,-1.473298,-0.3966971,14.11772,NaN,NaN,-0.02026529,0.8183362,2.845328E-07,1.042472,-1.57056E-09,1.398382
592.2732,-0.1246366,0.0004870711,NaN,-1.051197,0.0003936561,NaN,0.4324,-14.3087,NaN,-2.181144,-1.465194,-0.3958546,14.10898,NaN,NaN,-0.02025978,0.818884,2.821486E-07,1.030598,-2.46463E-09,1.392633
592.2889,-0.1224164,0.0004868999,NaN,-1.050735,0.0003935861,NaN,0.4326603,-14.30852,NaN,-2.180771,-1.467437,-0.3950618,14.11136,NaN,NaN,-0.02025451,0.8191355,2.791683E-07,1.033879,-3.954746E-09,1.391509
592.3047,-0.1202153,0.0004860865,NaN,-1.049917,0.0003931503,NaN,0.4329016,-14.30902,NaN,-2.180415,-1.463813,-0.3943267,14.10755,NaN,NaN,-0.02024947,0.8185387,2.732079E-07,1.028597,-4.252769E-09,1.392931
592.3187,-0.1202153,0.0004860865,NaN,-1.049917,0.0003931503,NaN,0.4329016,-14.30902,NaN,-2.180415,-1.463813,-0.3943267,14.10755,NaN,NaN,-0.02024947,0.8185387,2.732079E-07,1.028597,-4.252769E-09,1.392931
592.333,-0.1180444,0.0004849233,NaN,-1.048889,0.0003925711,NaN,0.433147,-14.30845,NaN,-2.180084,-1.462956,-0.3936312,14.10656,NaN,NaN,-0.02024459,0.8190838,2.642672E-07,1.027323,-1.272537E-09,1.391563
592.3486,-0.1158987,0.00048502,NaN,-1.046977,0.0003920686,NaN,0.4334571,-14.3098,NaN,-2.179579,-1.474849,-0.3927284,14.11946,NaN,NaN,-0.02023929,0.8181059,2.642672E-07,1.044793,-2.46463E-09,1.403418
592.3636,-0.1137965,0.0004845395,NaN,-1.044539,0.0003915719,NaN,0.4337391,-14.30859,NaN,-2.179038,-1.465541,-0.3918631,14.10939,NaN,NaN,-0.02023419,0.8191392,2.636711E-07,1.031151,-4.401781E-09,1.394239
592.3787,-0.1137965,0.0004845395,NaN,-1.044539,0.0003915719,NaN,0.4337391,-14.30859,NaN,-2.179038,-1.465541,-0.3918631,14.10939,NaN,NaN,-0.02023419,0.8191392,2.636711E-07,1.031151,-4.401781E-09,1.394239
592.3932,-0.1117408,0.0004840662,NaN,-1.041794,0.0003911562,NaN,0.4340075,-14.3086,NaN,-2.178511,-1.467255,-0.3910522,14.11123,NaN,NaN,-0.02022931,0.8191787,2.583067E-07,1.03367,-5.593874E-09,1.394664
592.4089,-0.1097285,0.0004839552,NaN,-1.038874,0.0003914604,NaN,0.4342756,-14.30876,NaN,-2.178012,-1.464196,-0.390282,14.10798,NaN,NaN,-0.02022458,0.8189492,2.553265E-07,1.029202,-6.934978E-09,1.394804
592.424,-0.1077466,0.0004835354,NaN,-1.035101,0.000391097,NaN,0.4346004,-14.30901,NaN,-2.177343,-1.469249,-0.3893106,14.11342,NaN,NaN,-0.02021944,0.8188477,2.571146E-07,1.036614,-6.636955E-09,1.397064
592.4388,-0.1077466,0.0004835354,NaN,-1.035101,0.000391097,NaN,0.4346004,-14.30901,NaN,-2.177343,-1.469249,-0.3893106,14.11342,NaN,NaN,-0.02021944,0.8188477,2.571146E-07,1.036614,-6.636955E-09,1.397064
592.4531,-0.1058085,0.0004828179,NaN,-1.030826,0.0003906438,NaN,0.4348904,-14.30854,NaN,-2.176642,-1.466231,-0.3883816,14.11014,NaN,NaN,-0.02021451,0.8192487,2.577107E-07,1.032184,-7.08399E-09,1.393754
592.469,-0.1039146,0.0004826771,NaN,-1.026267,0.0003910876,NaN,0.4351617,-14.30897,NaN,-2.17596,-1.463859,-0.3875114,14.10766,NaN,NaN,-0.0202098,0.818751,2.594988E-07,1.028731,-6.18992E-09,1.395506
592.4838,-0.1020605,0.000482452,NaN,-1.021554,0.0003914229,NaN,0.4354289,-14.30879,NaN,-2.175311,-1.463043,-0.3866858,14.10676,NaN,NaN,-0.02020524,0.8189027,2.606909E-07,1.027531,-5.891897E-09,1.39268
592.5001,-0.1002333,0.0004817991,NaN,-1.016007,0.0003913954,NaN,0.4357489,-14.30811,NaN,-2.174496,-1.462518,-0.3856657,14.1061,NaN,NaN,-0.02020029,0.8195634,2.642672E-07,1.026735,-5.593873E-09,1.39082
592.514,-0.1002333,0.0004817991,NaN,-1.016007,0.0003913954,NaN,0.4357489,-14.30811,NaN,-2.174496,-1.462518,-0.3856657,14.1061,NaN,NaN,-0.02020029,0.8195634,2.642672E-07,1.026735,-5.593873E-09,1.39082
592.5282,-0.0984453,0.0004807495,NaN,-1.009978,0.0003910644,NaN,0.4360318,-14.30817,NaN,-2.173653,-1.462273,-0.384692,14.10585,NaN,NaN,-0.02019555,0.8194985,2.678435E-07,1.02638,-5.29585E-09,1.391798
592.5439,-0.09669661,0.0004801803,NaN,-1.003682,0.0003907495,NaN,0.4362943,-14.3097,NaN,-2.172833,-1.468666,-0.3837801,14.1129,NaN,NaN,-0.02019102,0.8181787,2.678435E-07,1.035811,-4.103757E-09,1.401281
592.5587,-0.09669661,0.0004801803,NaN,-1.003682,0.0003907495,NaN,0.4362943,-14.3097,NaN,-2.172833,-1.468666,-0.3837801,14.1129,NaN,NaN,-0.02019102,0.8181787,2.678435E-07,1.035811,-4.103757E-09,1.401281
592.5732,-0.09497531,0.0004799671,NaN,-0.996489,0.0003904506,NaN,0.4366016,-14.30988,NaN,-2.171852,-1.470926,-0.3826911,14.11534,NaN,NaN,-0.02018615,0.8180524,2.74996E-07,1.039124,-6.785966E-09,1.403098
592.5888,-0.0932928,0.0004797759,NaN,-0.988783,0.0003906624,NaN,0.4368697,-14.30829,NaN,-2.170852,-1.463859,-0.3816588,14.10759,NaN,NaN,-0.02018151,0.8194733,2.797644E-07,1.028737,-6.785966E-09,1.393259
592.604,-0.0916484,0.0004800171,NaN,-0.9807979,0.0003909582,NaN,0.4371173,-14.30972,NaN,-2.169883,-1.467664,-0.3806951,14.11185,NaN,NaN,-0.02017709,0.8181634,2.827446E-07,1.034369,-7.08399E-09,1.401012
592.6188,-0.0916484,0.0004800171,NaN,-0.9807979,0.0003909582,NaN,0.4371173,-14.30972,NaN,-2.169883,-1.467664,-0.3806951,14.11185,NaN,NaN,-0.02017709,0.8181634,2.827446E-07,1.034369,-7.08399E-09,1.401012
592.6332,-0.0900377,0.0004802522,NaN,-0.972677,0.0003915609,NaN,0.4373597,-14.30903,NaN,-2.16896,-1.463232,-0.3797838,14.10703,NaN,NaN,-0.02017284,0.8187276,2.839367E-07,1.02786,-5.891897E-09,1.395694
592.649,-0.08844817,0.0004807467,NaN,-0.9637458,0.0003914575,NaN,0.4376507,-14.31047,NaN,-2.167881,-1.475072,-0.3786918,14.11987,NaN,NaN,-0.02016821,0.8176517,2.922814E-07,1.045245,-5.593873E-09,1.40761
592.6641,-0.08689062,0.0004812722,NaN,-0.9543609,0.0003923667,NaN,0.4379033,-14.30921,NaN,-2.166783,-1.46418,-0.3776536,14.10811,NaN,NaN,-0.02016379,0.8187159,2.994339E-07,1.02929,-4.103757E-09,1.397815
592.6807,-0.085365,0.0004815397,NaN,-0.9447399,0.0003929315,NaN,0.4381346,-14.30927,NaN,-2.165718,-1.463836,-0.3766828,14.10774,NaN,NaN,-0.0201596,0.8186466,3.036062E-07,1.028788,-1.719572E-09,1.397359
592.6951,-0.085365,0.0004815397,NaN,-0.9447399,0.0003929315,NaN,0.4381346,-14.30927,NaN,-2.165718,-1.463836,-0.3766828,14.10774,NaN,NaN,-0.0201596,0.8186466,3.036062E-07,1.028788,-1.719572E-09,1.397359
592.7084,-0.08386789,0.0004817104,NaN,-0.9350158,0.0003934833,NaN,0.4383596,-14.30949,NaN,-2.164698,-1.462833,-0.3757647,14.1067,NaN,NaN,-0.02015556,0.8184055,3.083746E-07,1.027329,-2.315618E-09,1.39849
592.7241,-0.08238804,0.0004818426,NaN,-0.9245084,0.0003938351,NaN,0.4386305,-14.31005,NaN,-2.163522,-1.464631,-0.3746712,14.10869,NaN,NaN,-0.02015116,0.8178959,3.143351E-07,1.029985,-1.421548E-09,1.400146
592.7386,-0.08238804,0.0004818426,NaN,-0.9245084,0.0003938351,NaN,0.4386305,-14.31005,NaN,-2.163522,-1.464631,-0.3746712,14.10869,NaN,NaN,-0.02015116,0.8178959,3.143351E-07,1.029985,-1.421548E-09,1.400146
592.7531,-0.08093585,0.0004820198,NaN,-0.9135697,0.000394173,NaN,0.4388621,-14.31028,NaN,-2.162331,-1.4655,-0.3736336,14.10964,NaN,NaN,-0.02014698,0.8176947,3.208916E-07,1.031263,-2.613641E-09,1.401854
592.7686,-0.07951163,0.0004827733,NaN,-0.902415,0.0003943369,NaN,0.4390721,-14.31114,NaN,-2.161173,-1.473421,-0.3726646,14.1182,NaN,NaN,-0.02014301,0.8170604,3.244679E-07,1.042875,-2.613641E-09,1.411702
592.7837,-0.0781125,0.000483302,NaN,-0.8911759,0.0003951764,NaN,0.4392756,-14.30963,NaN,-2.160063,-1.463624,-0.3717495,14.10758,NaN,NaN,-0.02013921,0.8183708,3.292362E-07,1.02852,-2.315618E-09,1.400084
592.799,-0.0781125,0.000483302,NaN,-0.8911759,0.0003951764,NaN,0.4392756,-14.30963,NaN,-2.160063,-1.463624,-0.3717495,14.10758,NaN,NaN,-0.02013921,0.8183708,3.292362E-07,1.02852,-2.315618E-09,1.400084
592.8133,-0.07673518,0.000483556,NaN,-0.8799331,0.0003957598,NaN,0.4394786,-14.30989,NaN,-2.159,-1.462869,-0.3708765,14.10681,NaN,NaN,-0.02013552,0.8180944,3.334086E-07,1.027429,-4.40178E-09,1.39958
592.8289,-0.07537691,0.0004836809,NaN,-0.8687359,0.0003961866,NaN,0.4396824,-14.3098,NaN,-2.157979,-1.463483,-0.3700385,14.10745,NaN,NaN,-0.02013193,0.8182073,3.363888E-07,1.028322,-5.593873E-09,1.401103
592.844,-0.07403559,0.0004839733,NaN,-0.8576145,0.0003961377,NaN,0.4398866,-14.31137,NaN,-2.156995,-1.472449,-0.3692314,14.11723,NaN,NaN,-0.02012843,0.8169116,3.405611E-07,1.041503,-5.891896E-09,1.410119
592.8591,-0.07403559,0.0004839733,NaN,-0.8576145,0.0003961377,NaN,0.4398866,-14.31137,NaN,-2.156995,-1.472449,-0.3692314,14.11723,NaN,NaN,-0.02012843,0.8169116,3.405611E-07,1.041503,-5.891896E-09,1.410119
592.8733,-0.0727165,0.0004843616,NaN,-0.8473488,0.0003969159,NaN,0.4400479,-14.31012,NaN,-2.156243,-1.463693,-0.3686604,14.10775,NaN,NaN,-0.02012549,0.8179814,3.375809E-07,1.028678,-3.209687E-09,1.400386
592.8899,-0.07140731,0.0004847868,NaN,-0.8376486,0.0003976612,NaN,0.4402481,-14.31063,NaN,-2.155575,-1.463264,-0.3680933,14.10736,NaN,NaN,-0.02012253,0.8174633,3.322165E-07,1.028073,-1.123525E-09,1.403147
592.9037,-0.07010484,0.0004843476,NaN,-0.8283356,0.0003968016,NaN,0.4404684,-14.31069,NaN,-2.154934,-1.462522,-0.3675136,14.10658,NaN,NaN,-0.02011954,0.8173766,3.310244E-07,1.026994,-2.294552E-10,1.402372
592.9187,-0.07010484,0.0004843476,NaN,-0.8283356,0.0003968016,NaN,0.4404684,-14.31069,NaN,-2.154934,-1.462522,-0.3675136,14.10658,NaN,NaN,-0.02011954,0.8173766,3.310244E-07,1.026994,-2.294552E-10,1.402372
592.9329,-0.06880934,0.0004836837,NaN,-0.8192994,0.0003963245,NaN,0.4406928,-14.31035,NaN,-2.154299,-1.462012,-0.366932,14.10599,NaN,NaN,-0.02011657,0.8176976,3.304283E-07,1.026234,2.154731E-09,1.398767
592.9486,-0.06752849,0.0004836588,NaN,-0.8112335,0.0003954098,NaN,0.4408731,-14.31075,NaN,-2.153868,-1.47618,-0.3665625,14.12115,NaN,NaN,-0.0201141,0.8177406,3.220837E-07,1.04696,3.346823E-09,1.406434
592.9636,-0.06625346,0.0004841754,NaN,-0.8037949,0.0003949444,NaN,0.4410887,-14.31216,NaN,-2.153497,-1.475297,-0.3661825,14.12035,NaN,NaN,-0.02011158,0.8163057,3.191034E-07,1.045701,2.750777E-09,1.414322
592.9784,-0.06625346,0.0004841754,NaN,-0.8037949,0.0003949444,NaN,0.4410887,-14.31216,NaN,-2.153497,-1.475297,-0.3661825,14.12035,NaN,NaN,-0.02011158,0.8163057,3.191034E-07,1.045701,2.750777E-09,1.414322
592.993,-0.06498287,0.0004845038,NaN,-0.7967721,0.0003949418,NaN,0.4413212,-14.31037,NaN,-2.153131,-1.46863,-0.3657797,14.11305,NaN,NaN,-0.02010902,0.8179607,3.155272E-07,1.035918,3.346823E-09,1.404176
593.0085,-0.06371796,0.0004848193,NaN,-0.7900342,0.000395418,NaN,0.4415556,-14.31108,NaN,-2.152757,-1.464688,-0.3653667,14.10892,NaN,NaN,-0.02010648,0.8171524,3.125469E-07,1.030174,3.346823E-09,1.405456
593.0237,-0.06246675,0.0004849835,NaN,-0.7842618,0.0003959765,NaN,0.4417452,-14.3107,NaN,-2.152575,-1.461993,-0.3651569,14.10598,NaN,NaN,-0.02010441,0.8174401,3.00626E-07,1.026215,4.538916E-09,1.402665
593.0387,-0.06246675,0.0004849835,NaN,-0.7842618,0.0003959765,NaN,0.4417452,-14.3107,NaN,-2.152575,-1.461993,-0.3651569,14.10598,NaN,NaN,-0.02010441,0.8174401,3.00626E-07,1.026215,4.538916E-09,1.402665
593.0529,-0.06122169,0.0004856228,NaN,-0.7791048,0.0003958212,NaN,0.441969,-14.31053,NaN,-2.152442,-1.47562,-0.3649305,14.12047,NaN,NaN,-0.02010228,0.8180255,2.946655E-07,1.046114,3.94287E-09,1.408584
593.0684,-0.05998164,0.0004859826,NaN,-0.7743467,0.000396088,NaN,0.4422092,-14.3106,NaN,-2.152307,-1.468417,-0.3646757,14.11278,NaN,NaN,-0.02010011,0.8178072,2.893011E-07,1.035577,6.923102E-09,1.40586
593.0845,-0.05874781,0.0004860953,NaN,-0.7698536,0.0003964958,NaN,0.4424508,-14.31014,NaN,-2.152155,-1.464095,-0.3644057,14.1081,NaN,NaN,-0.02009793,0.8181517,2.863209E-07,1.029238,5.134962E-09,1.40045
593.0985,-0.05874781,0.0004860953,NaN,-0.7698536,0.0003964958,NaN,0.4424508,-14.31014,NaN,-2.152155,-1.464095,-0.3644057,14.1081,NaN,NaN,-0.02009793,0.8181517,2.863209E-07,1.029238,5.134962E-09,1.40045
593.1127,-0.05752789,0.0004861724,NaN,-0.7663042,0.0003966131,NaN,0.4426476,-14.3112,NaN,-2.152188,-1.468117,-0.3643332,14.11253,NaN,NaN,-0.02009622,0.8172095,2.744E-07,1.03516,6.923102E-09,1.406235
593.1284,-0.05631495,0.0004856467,NaN,-0.7633476,0.0003964041,NaN,0.4428786,-14.3105,NaN,-2.152265,-1.463923,-0.3642395,14.10796,NaN,NaN,-0.02009444,0.8177944,2.666513E-07,1.029003,8.115195E-09,1.403173
593.1446,-0.05510778,0.0004857151,NaN,-0.7607668,0.0003968511,NaN,0.4431259,-14.31052,NaN,-2.152334,-1.463927,-0.3641133,14.10796,NaN,NaN,-0.0200926,0.817767,2.577106E-07,1.029009,6.327055E-09,1.403186
593.1582,-0.05510778,0.0004857151,NaN,-0.7607668,0.0003968511,NaN,0.4431259,-14.31052,NaN,-2.152334,-1.463927,-0.3641133,14.10796,NaN,NaN,-0.0200926,0.817767,2.577106E-07,1.029009,6.327055E-09,1.403186
593.1725,-0.05391321,0.0004856511,NaN,-0.7591892,0.000397182,NaN,0.4433338,-14.31012,NaN,-2.152582,-1.463328,-0.3641706,14.10726,NaN,NaN,-0.02009119,0.8181403,2.457897E-07,1.028114,5.134963E-09,1.399846
593.1881,-0.05272464,0.0004852919,NaN,-0.7582325,0.0003973411,NaN,0.4435769,-14.31001,NaN,-2.152864,-1.462765,-0.3641973,14.10664,NaN,NaN,-0.02008969,0.8182271,2.350609E-07,1.027286,5.134963E-09,1.399294
593.2031,-0.05154104,0.0004849973,NaN,-0.7576603,0.0003976975,NaN,0.4438357,-14.31014,NaN,-2.153128,-1.462299,-0.3641848,14.10616,NaN,NaN,-0.02008811,0.8180768,2.258222E-07,1.026609,6.327055E-09,1.400345
593.2181,-0.05154104,0.0004849973,NaN,-0.7576603,0.0003976975,NaN,0.4438357,-14.31014,NaN,-2.153128,-1.462299,-0.3641848,14.10616,NaN,NaN,-0.02008811,0.8180768,2.258222E-07,1.026609,6.327055E-09,1.400345
593.2326,-0.05036348,0.0004844113,NaN,-0.7573259,0.000397793,NaN,0.4440953,-14.30975,NaN,-2.153362,-1.461998,-0.3641474,14.10577,NaN,NaN,-0.02008652,0.8184494,2.180736E-07,1.02615,8.711242E-09,1.396739
593.2487,-0.04919944,0.0004848021,NaN,-0.7578967,0.0003974526,NaN,0.4443091,-14.31003,NaN,-2.153766,-1.476145,-0.3642987,14.12091,NaN,NaN,-0.02008538,0.818611,2.028744E-07,1.046855,9.307288E-09,1.404659
593.2631,-0.04804887,0.0004850837,NaN,-0.7590224,0.0003976385,NaN,0.4445593,-14.31101,NaN,-2.154201,-1.467295,-0.364422,14.11156,NaN,NaN,-0.02008415,0.8174809,1.912515E-07,1.033925,9.903335E-09,1.405112
593.2781,-0.04804887,0.0004850837,NaN,-0.7590224,0.0003976385,NaN,0.4445593,-14.31101,NaN,-2.154201,-1.467295,-0.364422,14.11156,NaN,NaN,-0.02008415,0.8174809,1.912515E-07,1.033925,9.903335E-09,1.405112
593.2936,-0.04691363,0.0004852967,NaN,-0.760483,0.0003979659,NaN,0.4448297,-14.31104,NaN,-2.154613,-1.466066,-0.3645043,14.11024,NaN,NaN,-0.02008284,0.817409,1.817147E-07,1.032123,1.049938E-08,1.404692
593.308,-0.04579395,0.0004854087,NaN,-0.7621423,0.0003976573,NaN,0.4451044,-14.31156,NaN,-2.15499,-1.472672,-0.3645588,14.11734,NaN,NaN,-0.0200815,0.8170579,1.709859E-07,1.041792,1.228752E-08,1.410372
593.3229,-0.0446953,0.0004860449,NaN,-0.7646778,0.0003987444,NaN,0.4453342,-14.30987,NaN,-2.155538,-1.463482,-0.3648017,14.10733,NaN,NaN,-0.02008061,0.8185475,1.572768E-07,1.028311,1.049938E-08,1.397354
593.3376,-0.0446953,0.0004860449,NaN,-0.7646778,0.0003987444,NaN,0.4453342,-14.30987,NaN,-2.155538,-1.463482,-0.3648017,14.10733,NaN,NaN,-0.02008061,0.8185475,1.572768E-07,1.028311,1.049938E-08,1.397354
593.3521,-0.04361682,0.0004863509,NaN,-0.7677391,0.0003992056,NaN,0.4456025,-14.31074,NaN,-2.156111,-1.465229,-0.3650129,14.10931,NaN,NaN,-0.02007962,0.8177289,1.450579E-07,1.030903,1.049938E-08,1.402602
593.3675,-0.04255668,0.0004866105,NaN,-0.7711092,0.0003998123,NaN,0.4458908,-14.31027,NaN,-2.15666,-1.462954,-0.3651803,14.10682,NaN,NaN,-0.02007854,0.8181207,1.352231E-07,1.027555,1.228752E-08,1.400056
593.3825,-0.04151303,0.0004870444,NaN,-0.7746536,0.000399816,NaN,0.4461825,-14.31184,NaN,-2.157171,-1.472692,-0.3653173,14.11742,NaN,NaN,-0.02007743,0.8168589,1.259844E-07,1.041861,8.711242E-09,1.411617
593.3976,-0.04151303,0.0004870444,NaN,-0.7746536,0.000399816,NaN,0.4461825,-14.31184,NaN,-2.157171,-1.472692,-0.3653173,14.11742,NaN,NaN,-0.02007743,0.8168589,1.259844E-07,1.041861,8.711242E-09,1.411617
593.4117,-0.04049027,0.000487794,NaN,-0.7790511,0.0003994919,NaN,0.4464276,-14.31083,NaN,-2.157851,-1.478698,-0.3656425,14.12369,NaN,NaN,-0.02007678,0.817969,1.110832E-07,1.050603,8.115196E-09,1.40873
593.4276,-0.03948654,0.0004884473,NaN,-0.7839522,0.0003996948,NaN,0.4467105,-14.31018,NaN,-2.158553,-1.472482,-0.3659342,14.11697,NaN,NaN,-0.02007602,0.8185259,9.975832E-08,1.041494,6.327056E-09,1.404266
593.4427,-0.03849961,0.0004886356,NaN,-0.7891405,0.0003999608,NaN,0.4470131,-14.30959,NaN,-2.159228,-1.465362,-0.3661796,14.10928,NaN,NaN,-0.02007516,0.8189644,8.724135E-08,1.031055,6.327056E-09,1.398339
593.4577,-0.03849961,0.0004886356,NaN,-0.7891405,0.0003999608,NaN,0.4470131,-14.30959,NaN,-2.159228,-1.465362,-0.3661796,14.10928,NaN,NaN,-0.02007516,0.8189644,8.724135E-08,1.031055,6.327056E-09,1.398339
593.472,-0.03753363,0.000488134,NaN,-0.7952437,0.0003997577,NaN,0.447275,-14.31,NaN,-2.160067,-1.463656,-0.3666019,14.10751,NaN,NaN,-0.02007472,0.8185114,7.144612E-08,1.028574,5.73101E-09,1.400293
593.4885,-0.03658609,0.0004876726,NaN,-0.8018814,0.0003987269,NaN,0.4475765,-14.31025,NaN,-2.16092,-1.476498,-0.3669824,14.12126,NaN,NaN,-0.02007416,0.8186347,5.773705E-08,1.047371,5.134964E-09,1.403978
593.5024,-0.03565444,0.0004872911,NaN,-0.8088175,0.000398397,NaN,0.4478975,-14.30968,NaN,-2.161738,-1.466901,-0.3673107,14.11093,NaN,NaN,-0.02007349,0.8190361,4.641216E-08,1.033311,4.538917E-09,1.399874
593.5174,-0.03565444,0.0004872911,NaN,-0.8088175,0.000398397,NaN,0.4478975,-14.30968,NaN,-2.161738,-1.466901,-0.3673107,14.11093,NaN,NaN,-0.02007349,0.8190361,4.641216E-08,1.033311,4.538917E-09,1.399874
593.5314,-0.0347366,0.0004872132,NaN,-0.815906,0.0003985124,NaN,0.4482211,-14.31099,NaN,-2.162508,-1.466419,-0.3676018,14.11058,NaN,NaN,-0.02007277,0.8177211,3.538531E-08,1.032652,2.750778E-09,1.405638
593.5472,-0.03383733,0.0004872436,NaN,-0.8238181,0.0003989492,NaN,0.4484948,-14.31046,NaN,-2.163437,-1.463433,-0.3680803,14.10732,NaN,NaN,-0.02007249,0.8181661,2.137821E-08,1.028265,2.154732E-09,1.401628
593.5621,-0.03295411,0.0004875948,NaN,-0.8322009,0.0003987071,NaN,0.4488059,-14.31163,NaN,-2.164381,-1.47542,-0.3685209,14.12027,NaN,NaN,-0.0200721,0.8173555,6.179029E-09,1.045843,2.154732E-09,1.413066
593.5769,-0.03295411,0.0004875948,NaN,-0.8322009,0.0003987071,NaN,0.4488059,-14.31163,NaN,-2.164381,-1.47542,-0.3685209,14.12027,NaN,NaN,-0.0200721,0.8173555,6.179029E-09,1.045843,2.154732E-09,1.413066
593.5913,-0.03208465,0.0004876078,NaN,-0.8408353,0.0003987977,NaN,0.4491369,-14.31019,NaN,-2.16529,-1.465495,-0.36891,14.10952,NaN,NaN,-0.02007161,0.8186239,-5.145854E-09,1.0313,3.346824E-09,1.402392
593.6083,-0.03122718,0.0004880284,NaN,-0.8495857,0.0003982474,NaN,0.4494714,-14.31135,NaN,-2.166151,-1.478572,-0.3692611,14.12363,NaN,NaN,-0.02007106,0.8178414,-1.617271E-08,1.050475,3.346824E-09,1.412863
593.6223,-0.03038705,0.0004882662,NaN,-0.8591301,0.0003977393,NaN,0.4497553,-14.31075,NaN,-2.167171,-1.473418,-0.3698016,14.11806,NaN,NaN,-0.02007096,0.8183836,-3.40541E-08,1.042926,4.836941E-09,1.406369
593.637,-0.03038705,0.0004882662,NaN,-0.8591301,0.0003977393,NaN,0.4497553,-14.31075,NaN,-2.167171,-1.473418,-0.3698016,14.11806,NaN,NaN,-0.02007096,0.8183836,-3.40541E-08,1.042926,4.836941E-09,1.406369
593.6513,-0.02956151,0.0004888727,NaN,-0.8691196,0.0003976883,NaN,0.4500775,-14.31176,NaN,-2.168206,-1.473357,-0.3703034,14.11811,NaN,NaN,-0.02007075,0.8173845,-5.133945E-08,1.042863,4.836941E-09,1.412283
593.6669,-0.02874832,0.0004893953,NaN,-0.8793382,0.0003981805,NaN,0.4504207,-14.3101,NaN,-2.169204,-1.46762,-0.3707515,14.11179,NaN,NaN,-0.02007042,0.8189412,-6.206828E-08,1.034429,6.923103E-09,1.400955
593.6819,-0.02794586,0.0004897634,NaN,-0.8896518,0.00039875,NaN,0.450768,-14.31029,NaN,-2.170153,-1.46507,-0.3711594,14.10908,NaN,NaN,-0.02007003,0.8186921,-7.220107E-08,1.030701,7.221126E-09,1.401324
593.6968,-0.02794586,0.0004897634,NaN,-0.8896518,0.00039875,NaN,0.450768,-14.31029,NaN,-2.170153,-1.46507,-0.3711594,14.10908,NaN,NaN,-0.02007003,0.8186921,-7.220107E-08,1.030701,7.221126E-09,1.401324
593.7111,-0.02715999,0.0004892304,NaN,-0.9007394,0.0003986016,NaN,0.4510634,-14.31043,NaN,-2.171258,-1.463441,-0.3717586,14.10736,NaN,NaN,-0.0200701,0.8185147,-8.948641E-08,1.028321,6.327057E-09,1.401784
593.7267,-0.0263876,0.0004891042,NaN,-0.9122533,0.0003990673,NaN,0.4513978,-14.31053,NaN,-2.172376,-1.462976,-0.3723177,14.10686,NaN,NaN,-0.02007004,0.8184112,-1.037915E-07,1.027643,7.817173E-09,1.402597
593.7416,-0.02562642,0.0004893537,NaN,-0.9239778,0.000398923,NaN,0.4517539,-14.31199,NaN,-2.173455,-1.473923,-0.372821,14.11875,NaN,NaN,-0.02006987,0.8172909,-1.163085E-07,1.043718,7.817173E-09,1.413382
593.7565,-0.02562642,0.0004893537,NaN,-0.9239778,0.000398923,NaN,0.4517539,-14.31199,NaN,-2.173455,-1.473923,-0.372821,14.11875,NaN,NaN,-0.02006987,0.8172909,-1.163085E-07,1.043718,7.817173E-09,1.413382
593.7708,-0.02488223,0.0004892767,NaN,-0.9365411,0.0003990319,NaN,0.4520643,-14.31044,NaN,-2.174688,-1.465466,-0.3735054,14.10955,NaN,NaN,-0.02007011,0.8186711,-1.329978E-07,1.031314,8.711242E-09,1.402724
593.7863,-0.02415118,0.000489069,NaN,-0.9495643,0.000398979,NaN,0.4524161,-14.3113,NaN,-2.175926,-1.466902,-0.3741417,14.11119,NaN,NaN,-0.02007022,0.8178576,-1.502832E-07,1.033447,8.115196E-09,1.405796
593.8015,-0.02343074,0.0004888453,NaN,-0.9628121,0.0003991992,NaN,0.4527898,-14.31075,NaN,-2.177118,-1.46377,-0.3747163,14.10777,NaN,NaN,-0.0200702,0.818323,-1.628001E-07,1.028845,6.62508E-09,1.403002
593.8163,-0.02343074,0.0004888453,NaN,-0.9628121,0.0003991992,NaN,0.4527898,-14.31075,NaN,-2.177118,-1.46377,-0.3747163,14.10777,NaN,NaN,-0.0200702,0.818323,-1.628001E-07,1.028845,6.62508E-09,1.403002
593.8307,-0.02271932,0.0004884611,NaN,-0.9761387,0.0003990795,NaN,0.4531678,-14.31097,NaN,-2.178251,-1.466615,-0.3752442,14.11083,NaN,NaN,-0.02007009,0.8181921,-1.765092E-07,1.033014,6.923103E-09,1.40416
593.8463,-0.0220237,0.0004886783,NaN,-0.9902157,0.0003997897,NaN,0.45349,-14.31107,NaN,-2.179534,-1.463119,-0.375966,14.10711,NaN,NaN,-0.02007045,0.8179983,-1.943906E-07,1.027902,5.581998E-09,1.40623
593.8615,-0.0213398,0.0004883322,NaN,-1.004692,0.0003999451,NaN,0.4538514,-14.31078,NaN,-2.180823,-1.462594,-0.3766449,14.1065,NaN,NaN,-0.02007068,0.8182674,-2.075036E-07,1.02712,5.432987E-09,1.401705
593.8763,-0.0213398,0.0004883322,NaN,-1.004692,0.0003999451,NaN,0.4538514,-14.31078,NaN,-2.180823,-1.462594,-0.3766449,14.1065,NaN,NaN,-0.02007068,0.8182674,-2.075036E-07,1.02712,5.432987E-09,1.401705
593.8928,-0.02066518,0.0004879831,NaN,-1.019349,0.0004002148,NaN,0.4542354,-14.31064,NaN,-2.182068,-1.462657,-0.3772632,14.10654,NaN,NaN,-0.02007077,0.8184112,-2.218087E-07,1.027204,6.774092E-09,1.402048
593.9063,-0.01999849,0.0004879023,NaN,-1.034051,0.0004007073,NaN,0.4546243,-14.31133,NaN,-2.183245,-1.462626,-0.3778353,14.1066,NaN,NaN,-0.02007078,0.817723,-2.331336E-07,1.027187,6.476068E-09,1.40579
593.9215,-0.01934725,0.0004881554,NaN,-1.049477,0.0004013557,NaN,0.4549394,-14.3121,NaN,-2.184144,-1.462999,-0.3786423,14.10709,NaN,NaN,-0.02007075,0.8169655,-2.396901E-07,1.027763,3.495836E-09,1.411372
593.9359,-0.01934725,0.0004881554,NaN,-1.049477,0.0004013557,NaN,0.4549394,-14.3121,NaN,-2.184144,-1.462999,-0.3786423,14.10709,NaN,NaN,-0.02007075,0.8169655,-2.396901E-07,1.027763,3.495836E-09,1.411372
593.9502,-0.01870674,0.0004884084,NaN,-1.065281,0.0004018274,NaN,0.4552929,-14.31178,NaN,-2.184523,-1.464535,-0.3794241,14.10868,NaN,NaN,-0.02007036,0.8173217,-2.396901E-07,1.029991,5.901097E-10,1.4106
593.9658,-0.0180745,0.0004878638,NaN,-1.081245,0.0004017258,NaN,0.4556817,-14.31154,NaN,-2.18448,-1.462409,-0.3801352,14.10638,NaN,NaN,-0.02006983,0.8174968,-2.37902E-07,1.026876,8.136272E-10,1.406623
593.9808,-0.01744927,0.0004873917,NaN,-1.097238,0.0004017792,NaN,0.4560916,-14.31153,NaN,-2.184227,-1.463635,-0.380774,14.10768,NaN,NaN,-0.02006936,0.8175302,-2.38498E-07,1.028669,1.186156E-09,1.406881
593.9958,-0.01744927,0.0004873917,NaN,-1.097238,0.0004017792,NaN,0.4560916,-14.31153,NaN,-2.184227,-1.463635,-0.380774,14.10768,NaN,NaN,-0.02006936,0.8175302,-2.38498E-07,1.028669,1.186156E-09,1.406881
594.0103,-0.01683928,0.0004872617,NaN,-1.113937,0.0004022687,NaN,0.456456,-14.3122,NaN,-2.184156,-1.462369,-0.3815847,14.10642,NaN,NaN,-0.0200695,0.8168107,-2.474387E-07,1.026849,-4.318956E-11,1.410417
594.0261,-0.01623903,0.000487528,NaN,-1.130998,0.0004019179,NaN,0.4568638,-14.31325,NaN,-2.184143,-1.475634,-0.3823373,14.12068,NaN,NaN,-0.02006952,0.8161595,-2.551874E-07,1.046266,-2.66707E-10,1.422065
594.041,-0.015646,0.0004878536,NaN,-1.148205,0.0004024489,NaN,0.4572946,-14.31199,NaN,-2.184124,-1.465917,-0.3830186,14.11021,NaN,NaN,-0.02006938,0.8172375,-2.587636E-07,1.032053,3.131623E-11,1.412436
594.0562,-0.015646,0.0004878536,NaN,-1.148205,0.0004024489,NaN,0.4572946,-14.31199,NaN,-2.184124,-1.465917,-0.3830186,14.11021,NaN,NaN,-0.02006938,0.8172375,-2.587636E-07,1.032053,3.131623E-11,1.412436
594.0718,-0.01506833,0.0004881186,NaN,-1.166187,0.0004027919,NaN,0.4576762,-14.31192,NaN,-2.18429,-1.467085,-0.3838769,14.11144,NaN,NaN,-0.02006967,0.8173366,-2.659162E-07,1.033758,-2.650893E-09,1.412029
594.0872,-0.01449954,0.0004884361,NaN,-1.184567,0.0004032722,NaN,0.4580973,-14.31282,NaN,-2.184423,-1.46585,-0.3846813,14.11024,NaN,NaN,-0.02006972,0.8163968,-2.718766E-07,1.031988,-5.333102E-09,1.416357
594.101,-0.01393699,0.0004886129,NaN,-1.20311,0.0004037815,NaN,0.458541,-14.31223,NaN,-2.184451,-1.463422,-0.3854136,14.10757,NaN,NaN,-0.02006956,0.816908,-2.76645E-07,1.028422,-5.18409E-09,1.413226
594.1161,-0.01393699,0.0004886129,NaN,-1.20311,0.0004037815,NaN,0.458541,-14.31223,NaN,-2.184451,-1.463422,-0.3854136,14.10757,NaN,NaN,-0.02006956,0.816908,-2.76645E-07,1.028422,-5.18409E-09,1.413226
594.1302,-0.01337973,0.0004890095,NaN,-1.22167,0.0004045427,NaN,0.4589917,-14.31249,NaN,-2.184389,-1.462794,-0.3860843,14.10694,NaN,NaN,-0.02006933,0.8166311,-2.814134E-07,1.027517,-3.693974E-09,1.415145
594.1459,-0.01283724,0.0004891922,NaN,-1.240919,0.0004040599,NaN,0.4593879,-14.31328,NaN,-2.184495,-1.47611,-0.3869374,14.12121,NaN,NaN,-0.02006959,0.8162394,-2.903541E-07,1.046992,-1.905835E-09,1.418526
594.1609,-0.0123023,0.0004892139,NaN,-1.260508,0.000404165,NaN,0.4598219,-14.31211,NaN,-2.184586,-1.465942,-0.3877389,14.11026,NaN,NaN,-0.02006965,0.8172396,-2.957185E-07,1.032122,-1.309788E-09,1.408354
594.1759,-0.0123023,0.0004892139,NaN,-1.260508,0.000404165,NaN,0.4598219,-14.31211,NaN,-2.184586,-1.465942,-0.3877389,14.11026,NaN,NaN,-0.02006965,0.8172396,-2.957185E-07,1.032122,-1.309788E-09,1.408354
594.1904,-0.0117724,0.000489343,NaN,-1.280219,0.0004033882,NaN,0.4602778,-14.31217,NaN,-2.184597,-1.47818,-0.3884695,14.1233,NaN,NaN,-0.02006952,0.8175147,-2.986988E-07,1.050002,-1.309788E-09,1.408508
594.2059,-0.01124686,0.0004889224,NaN,-1.299918,0.0004028162,NaN,0.4607401,-14.3119,NaN,-2.184538,-1.466701,-0.3891396,14.11102,NaN,NaN,-0.02006931,0.8176079,-3.046592E-07,1.033209,-2.203858E-09,1.401854
594.221,-0.01073578,0.0004892581,NaN,-1.320274,0.00040269,NaN,0.4611485,-14.31151,NaN,-2.184656,-1.471009,-0.389991,14.11556,NaN,NaN,-0.02006958,0.8181163,-3.112157E-07,1.039493,-1.309788E-09,1.40338
594.2362,-0.01073578,0.0004892581,NaN,-1.320274,0.00040269,NaN,0.4611485,-14.31151,NaN,-2.184656,-1.471009,-0.389991,14.11556,NaN,NaN,-0.02006958,0.8181163,-3.112157E-07,1.039493,-1.309788E-09,1.40338
594.2505,-0.01023094,0.0004891751,NaN,-1.340948,0.0004025908,NaN,0.4615929,-14.31142,NaN,-2.184758,-1.465491,-0.3907922,14.10965,NaN,NaN,-0.02006965,0.8180889,-3.14792E-07,1.03142,-3.693974E-09,1.398136
594.2662,-0.009729967,0.0004891217,NaN,-1.361724,0.0004028632,NaN,0.4620582,-14.31188,NaN,-2.184776,-1.463737,-0.3915235,14.10784,NaN,NaN,-0.02006953,0.8175828,-3.171762E-07,1.028873,-6.078159E-09,1.401007
594.2822,-0.009232432,0.0004893243,NaN,-1.38247,0.0004022281,NaN,0.4625295,-14.31241,NaN,-2.18472,-1.47731,-0.3921945,14.12238,NaN,NaN,-0.02006931,0.817452,-3.195604E-07,1.048731,-4.886067E-09,1.408204
594.2964,-0.009232432,0.0004893243,NaN,-1.38247,0.0004022281,NaN,0.4625295,-14.31241,NaN,-2.18472,-1.47731,-0.3921945,14.12238,NaN,NaN,-0.02006931,0.817452,-3.195604E-07,1.048731,-4.886067E-09,1.408204
594.3106,-0.008561378,0.0004896763,NaN,-1.3905,0.0004024608,NaN,0.4638818,-14.31287,NaN,-2.181132,-1.468167,-0.3889483,14.11267,NaN,NaN,-0.0200605,0.8168523,-2.128681E-07,1.035374,-2.501881E-09,1.407265
594.3264,-0.007825368,0.0004904654,NaN,-1.39065,0.0004022324,NaN,0.4644769,-14.31208,NaN,-2.177527,-1.478194,-0.3859013,14.12323,NaN,NaN,-0.02005477,0.817882,-1.562436E-07,1.049985,-3.097927E-09,1.407678
594.3412,-0.007028195,0.0004904139,NaN,-1.385976,0.0004019465,NaN,0.4645168,-14.31136,NaN,-2.174382,-1.466652,-0.3835667,14.11083,NaN,NaN,-0.02005077,0.8184397,-1.198848E-07,1.033087,-6.078159E-09,1.400165
594.3566,-0.007028195,0.0004904139,NaN,-1.385976,0.0004019465,NaN,0.4645168,-14.31136,NaN,-2.174382,-1.466652,-0.3835667,14.11083,NaN,NaN,-0.02005077,0.8184397,-1.198848E-07,1.033087,-6.078159E-09,1.400165
594.3707,-0.006261104,0.0004906741,NaN,-1.378378,0.00040174,NaN,0.4644034,-14.31096,NaN,-2.171747,-1.470953,-0.3817232,14.11537,NaN,NaN,-0.02004777,0.8189604,-9.604296E-08,1.039367,-4.886067E-09,1.399317
594.3864,-0.005552864,0.0004907135,NaN,-1.36903,0.0004018433,NaN,0.4643095,-14.31129,NaN,-2.169538,-1.465145,-0.3801619,14.1092,NaN,NaN,-0.02004522,0.8185104,-7.875762E-08,1.030878,-7.137415E-10,1.39893
594.4017,-0.004899466,0.0004912296,NaN,-1.358653,0.000401629,NaN,0.4642756,-14.31258,NaN,-2.16765,-1.475436,-0.3787648,14.12036,NaN,NaN,-0.02004288,0.8175201,-6.385645E-08,1.045987,2.862537E-09,1.409437
594.4168,-0.004899466,0.0004912296,NaN,-1.358653,0.000401629,NaN,0.4642756,-14.31258,NaN,-2.16765,-1.475436,-0.3787648,14.12036,NaN,NaN,-0.02004288,0.8175201,-6.385645E-08,1.045987,2.862537E-09,1.409437
594.4313,-0.004287838,0.0004918774,NaN,-1.347691,0.0004020998,NaN,0.464294,-14.31263,NaN,-2.165991,-1.469628,-0.377472,14.11417,NaN,NaN,-0.02004063,0.8173729,-4.895529E-08,1.037497,4.05463E-09,1.408217
594.447,-0.003705661,0.0004923117,NaN,-1.336417,0.0004027156,NaN,0.4643551,-14.31186,NaN,-2.164496,-1.465125,-0.3762627,14.10927,NaN,NaN,-0.02003847,0.8180352,-3.524622E-08,1.03089,6.438816E-09,1.401777
594.4631,-0.003143822,0.0004928051,NaN,-1.325,0.0004024025,NaN,0.4644457,-14.31216,NaN,-2.163117,-1.477316,-0.37511,14.12231,NaN,NaN,-0.02003638,0.8180822,-1.915297E-08,1.048727,5.842769E-09,1.408025
594.4773,-0.003143822,0.0004928051,NaN,-1.325,0.0004024025,NaN,0.4644457,-14.31216,NaN,-2.163117,-1.477316,-0.37511,14.12231,NaN,NaN,-0.02003638,0.8180822,-1.915297E-08,1.048727,5.842769E-09,1.408025
594.4919,-0.002596208,0.0004932649,NaN,-1.313544,0.0004016504,NaN,0.4645522,-14.31281,NaN,-2.161823,-1.479594,-0.3740035,14.1248,NaN,NaN,-0.02003435,0.817461,-6.635996E-09,1.052071,9.419048E-09,1.409476
594.5072,-0.002058899,0.0004935545,NaN,-1.302114,0.0004017513,NaN,0.4646657,-14.31234,NaN,-2.160593,-1.467958,-0.3729379,14.11234,NaN,NaN,-0.02003237,0.8177741,9.457257E-09,1.035053,7.034862E-09,1.40528
594.5224,-0.00152942,0.0004941712,NaN,-1.29075,0.0004024421,NaN,0.4640607,-14.31239,NaN,-2.159331,-1.465767,-0.3710083,14.11001,NaN,NaN,-0.0200277,0.8176656,6.429353E-08,1.031855,8.226955E-09,1.404906
594.5372,-0.00152942,0.0004941712,NaN,-1.29075,0.0004024421,NaN,0.4640607,-14.31239,NaN,-2.159331,-1.465767,-0.3710083,14.11001,NaN,NaN,-0.0200277,0.8176656,6.429353E-08,1.031855,8.226955E-09,1.404906
594.553,-0.001006268,0.0004943339,NaN,-1.279476,0.0004028446,NaN,0.4626304,-14.31186,NaN,-2.158096,-1.463947,-0.3692471,14.108,NaN,NaN,-0.02002355,0.8181446,1.113812E-07,1.029174,7.630908E-09,1.401069
594.5674,-0.000488515,0.0004945492,NaN,-1.268306,0.0004033683,NaN,0.46075,-14.31262,NaN,-2.156915,-1.46374,-0.3677299,14.10788,NaN,NaN,-0.02002011,0.8173748,1.495282E-07,1.028907,1.061114E-08,1.405057
594.5828,2.440618E-05,0.0004943984,NaN,-1.257249,0.0004036493,NaN,0.4586687,-14.31238,NaN,-2.155788,-1.462876,-0.3663731,14.10692,NaN,NaN,-0.0200171,0.8175803,1.811186E-07,1.027635,1.359137E-08,1.401394
594.5979,2.440618E-05,0.0004943984,NaN,-1.257249,0.0004036493,NaN,0.4586687,-14.31238,NaN,-2.155788,-1.462876,-0.3663731,14.10692,NaN,NaN,-0.0200171,0.8175803,1.811186E-07,1.027635,1.359137E-08,1.401394
594.6125,0.0005328599,0.000494505,NaN,-1.24631,0.0004030341,NaN,0.4557823,-14.31272,NaN,-2.154629,-1.476547,-0.3642118,14.12154,NaN,NaN,-0.02001162,0.8176563,2.49664E-07,1.047631,1.299533E-08,1.409127
594.6281,0.00103703,0.0004947978,NaN,-1.235491,0.0004032969,NaN,0.4520504,-14.31348,NaN,-2.153499,-1.46768,-0.362257,14.11216,NaN,NaN,-0.02000678,0.816734,3.104607E-07,1.034682,1.120719E-08,1.409984
594.6444,0.001537024,0.0004949979,NaN,-1.224793,0.0004038331,NaN,0.4478801,-14.31292,NaN,-2.152423,-1.463324,-0.3605649,14.10744,NaN,NaN,-0.02000269,0.8171713,3.623167E-07,1.028295,1.061114E-08,1.405555
594.6584,0.001537024,0.0004949979,NaN,-1.224793,0.0004038331,NaN,0.4478801,-14.31292,NaN,-2.152423,-1.463324,-0.3605649,14.10744,NaN,NaN,-0.02000269,0.8171713,3.623167E-07,1.028295,1.061114E-08,1.405555
