JMolnar6/NonAnthroHands_User_Study/HandsLoggerWithURDF/tempdata/files/Reachy_PID0_JointMotion_gesture_10_5.csv
Time,r_shoulder,r_shoulder_x,r_upper_arm,r_forearm,r_wrist,r_wrist2hand,
653.0973,-0.1062206,-0.5837989,-0.2920795,-0.8971373,0.4521212,-0.4858818
653.1113,-0.1038343,-0.5837324,-0.2924191,-0.8962278,0.4529369,-0.4858425
653.1265,-0.1014765,-0.5836669,-0.2927465,-0.8953277,0.4537383,-0.4858039
653.1412,-0.09914714,-0.5836022,-0.293062,-0.8944368,0.4545256,-0.4857661
653.1559,-0.09914714,-0.5836022,-0.293062,-0.8944368,0.4545256,-0.4857661
653.1699,-0.09684573,-0.5835384,-0.2933657,-0.893555,0.4552993,-0.485729
653.1855,-0.09457197,-0.5834755,-0.2936579,-0.8926823,0.4560593,-0.4856927
653.2003,-0.09232553,-0.5834135,-0.2939389,-0.8918185,0.4568062,-0.4856571
653.2148,-0.09232553,-0.5834135,-0.2939389,-0.8918185,0.4568062,-0.4856571
653.2289,-0.09010608,-0.5833523,-0.2942089,-0.8909637,0.4575399,-0.4856222
653.2462,-0.08791329,-0.583292,-0.2944682,-0.8901178,0.4582609,-0.485588
653.2599,-0.08791329,-0.583292,-0.2944682,-0.8901178,0.4582609,-0.485588
653.2741,-0.08574684,-0.5832325,-0.2947169,-0.8892807,0.4589693,-0.4855544
653.2882,-0.08360642,-0.5831738,-0.2949554,-0.8884522,0.4596654,-0.4855216
653.3029,-0.08149172,-0.5831159,-0.2951838,-0.8876324,0.4603493,-0.4854893
653.3173,-0.08149172,-0.5831159,-0.2951838,-0.8876324,0.4603493,-0.4854893
653.3315,-0.07940241,-0.5830588,-0.2954024,-0.8868212,0.4610213,-0.4854578
653.3467,-0.0773382,-0.5830026,-0.2956114,-0.8860185,0.4616816,-0.4854268
653.3612,-0.07529879,-0.5829471,-0.2958111,-0.8852241,0.4623305,-0.4853965
653.3761,-0.07529879,-0.5829471,-0.2958111,-0.8852241,0.4623305,-0.4853965
653.3903,-0.07328388,-0.5828923,-0.2960015,-0.8844381,0.4629681,-0.4853668
653.4055,-0.07129318,-0.5828383,-0.296183,-0.8836604,0.4635946,-0.4853376
653.4203,-0.06932638,-0.582785,-0.2963556,-0.8828909,0.4642102,-0.4853091
653.435,-0.06932638,-0.582785,-0.2963556,-0.8828909,0.4642102,-0.4853091
653.4488,-0.06738321,-0.5827325,-0.2965197,-0.8821295,0.4648151,-0.4852811
653.4643,-0.06546338,-0.5826807,-0.2966754,-0.8813762,0.4654095,-0.4852536
653.4789,-0.06546338,-0.5826807,-0.2966754,-0.8813762,0.4654095,-0.4852536
653.493,-0.06356661,-0.5826296,-0.296823,-0.8806309,0.4659937,-0.4852268
653.5085,-0.06169263,-0.5825793,-0.2969625,-0.8798935,0.4665677,-0.4852004
653.5243,-0.05984115,-0.5825295,-0.2970942,-0.879164,0.4671318,-0.4851746
653.5389,-0.05984115,-0.5825295,-0.2970942,-0.879164,0.4671318,-0.4851746
653.552,-0.05801192,-0.5824805,-0.2972183,-0.8784422,0.4676861,-0.4851492
653.5674,-0.05620465,-0.5824322,-0.2973349,-0.8777282,0.4682308,-0.4851244
653.5818,-0.0544191,-0.5823845,-0.2974442,-0.8770217,0.468766,-0.4851001
653.5964,-0.0544191,-0.5823845,-0.2974442,-0.8770217,0.468766,-0.4851001
653.6105,-0.05265499,-0.5823375,-0.2975464,-0.8763229,0.469292,-0.4850762
653.6258,-0.05091207,-0.5822911,-0.2976417,-0.8756315,0.469809,-0.4850529
653.6404,-0.04919008,-0.5822454,-0.2977301,-0.8749476,0.470317,-0.48503
653.6552,-0.04919008,-0.5822454,-0.2977301,-0.8749476,0.470317,-0.48503
653.6692,-0.04748878,-0.5822003,-0.297812,-0.874271,0.4708162,-0.4850076
653.6846,-0.04580791,-0.5821558,-0.2978874,-0.8736018,0.4713068,-0.4849856
653.6993,-0.04580791,-0.5821558,-0.2978874,-0.8736018,0.4713068,-0.4849856
653.7134,-0.04414723,-0.582112,-0.2979564,-0.8729398,0.4717889,-0.484964
653.7287,-0.04250649,-0.5820687,-0.2980193,-0.8722849,0.4722628,-0.4849429
653.7435,-0.04088546,-0.582026,-0.2980762,-0.8716371,0.4727284,-0.4849222
653.7583,-0.04088546,-0.582026,-0.2980762,-0.8716371,0.4727284,-0.4849222
653.7722,-0.0392839,-0.5819839,-0.2981272,-0.8709964,0.473186,-0.4849019
653.7889,-0.03770157,-0.5819424,-0.2981725,-0.8703626,0.4736357,-0.484882
653.8034,-0.03613824,-0.5819015,-0.2982122,-0.8697357,0.4740777,-0.4848625
653.817,-0.03613824,-0.5819015,-0.2982122,-0.8697357,0.4740777,-0.4848625
653.831,-0.03459369,-0.5818611,-0.2982465,-0.8691156,0.4745121,-0.4848434
653.8464,-0.0330677,-0.5818213,-0.2982754,-0.8685023,0.474939,-0.4848247
653.8608,-0.03156002,-0.581782,-0.2982992,-0.8678957,0.4753585,-0.4848063
653.8756,-0.03156002,-0.581782,-0.2982992,-0.8678957,0.4753585,-0.4848063
653.8895,-0.03007046,-0.5817433,-0.2983179,-0.8672957,0.4757708,-0.4847884
653.9048,-0.02859878,-0.5817051,-0.2983317,-0.8667023,0.476176,-0.4847707
653.9196,-0.02859878,-0.5817051,-0.2983317,-0.8667023,0.476176,-0.4847707
653.9336,-0.02714477,-0.5816674,-0.2983407,-0.8661153,0.4765743,-0.4847535
653.949,-0.02570823,-0.5816303,-0.298345,-0.8655348,0.4769657,-0.4847366
653.9636,-0.02428894,-0.5815936,-0.2983448,-0.8649608,0.4773503,-0.48472
653.9781,-0.02428894,-0.5815936,-0.2983448,-0.8649608,0.4773503,-0.48472
653.9926,-0.0228867,-0.5815575,-0.2983401,-0.8643931,0.4777284,-0.4847037
654.0078,-0.02150129,-0.5815219,-0.2983311,-0.8638316,0.4780999,-0.4846878
654.0225,-0.02013252,-0.5814867,-0.2983179,-0.8632762,0.4784651,-0.4846722
654.0374,-0.02013252,-0.5814867,-0.2983179,-0.8632762,0.4784651,-0.4846722
654.0532,-0.01878018,-0.581452,-0.2983006,-0.862727,0.478824,-0.4846569
654.0678,-0.01744409,-0.5814178,-0.2982793,-0.8621839,0.4791767,-0.4846419
654.0811,-0.01612404,-0.5813841,-0.2982541,-0.8616468,0.4795233,-0.4846272
654.0959,-0.01612404,-0.5813841,-0.2982541,-0.8616468,0.4795233,-0.4846272
654.1099,-0.01481985,-0.5813508,-0.2982251,-0.8611157,0.479864,-0.4846129
654.1258,-0.01319029,-0.5813044,-0.2988328,-0.860638,0.4808696,-0.4845528
654.1397,-0.01319029,-0.5813044,-0.2988328,-0.860638,0.4808696,-0.4845528
654.1537,-0.01136805,-0.5812504,-0.2995476,-0.8601075,0.4819222,-0.4844939
654.1689,-0.009435611,-0.5811921,-0.3002833,-0.8595318,0.4829808,-0.4844361
654.1835,-0.007444177,-0.5811316,-0.3010093,-0.8589239,0.4840348,-0.4843794
654.1983,-0.007444177,-0.5811316,-0.3010093,-0.8589239,0.4840348,-0.4843794
654.2121,-0.005766498,-0.5810838,-0.3010739,-0.8582487,0.4844108,-0.4843699
654.2277,-0.004289337,-0.5810437,-0.3010014,-0.857621,0.4847177,-0.4843607
654.2421,-0.00294217,-0.5810084,-0.3008794,-0.8570397,0.4849962,-0.4843516
654.2568,-0.00294217,-0.5810084,-0.3008794,-0.8570397,0.4849962,-0.4843516
654.2711,-0.002022031,-0.5809899,-0.3001012,-0.856448,0.4845908,-0.4843887
654.2864,-0.001368689,-0.5809814,-0.2992077,-0.8559428,0.484117,-0.4844251
654.3012,-0.0008824111,-0.580979,-0.2982918,-0.8555089,0.483622,-0.4844608
654.3156,-0.0008824111,-0.580979,-0.2982918,-0.8555089,0.483622,-0.4844608
654.3317,-0.000501102,-0.5809795,-0.2973861,-0.8551277,0.4831192,-0.4844958
654.3459,-0.0005259687,-0.5809948,-0.2958622,-0.8547364,0.4819502,-0.484576
654.3597,-0.0005259687,-0.5809948,-0.2958622,-0.8547364,0.4819502,-0.484576
654.3735,-0.0008005929,-0.581019,-0.2942502,-0.8544298,0.4807285,-0.4846547
654.389,-0.001227608,-0.5810481,-0.2926371,-0.854192,0.4795004,-0.4847319
654.4034,-0.001746426,-0.58108,-0.2910518,-0.8540043,0.4782785,-0.4848075
654.4177,-0.001746426,-0.58108,-0.2910518,-0.8540043,0.4782785,-0.4848075
654.4318,-0.002660352,-0.5811269,-0.2888621,-0.8538034,0.4764017,-0.4849275
654.447,-0.003813147,-0.5811824,-0.2865999,-0.8536852,0.4744856,-0.4850453
654.4616,-0.005107629,-0.5812423,-0.2843511,-0.8536341,0.4725755,-0.4851607
654.4763,-0.005107629,-0.5812423,-0.2843511,-0.8536341,0.4725755,-0.4851607
654.4903,-0.006824397,-0.5813182,-0.2815006,-0.8535833,0.4700128,-0.4853198
654.5057,-0.008793066,-0.5814028,-0.2785911,-0.8536247,0.4674194,-0.4854757
654.5204,-0.01090772,-0.5814918,-0.2757107,-0.8537394,0.4648419,-0.4856286
654.5353,-0.01090772,-0.5814918,-0.2757107,-0.8537394,0.4648419,-0.4856286
654.5491,-0.01310256,-0.5815827,-0.272888,-0.8539061,0.4622932,-0.4857785
654.5647,-0.01567784,-0.5816879,-0.2694854,-0.8540587,0.4591034,-0.4859713
654.5791,-0.01567784,-0.5816879,-0.2694854,-0.8540587,0.4591034,-0.4859713
654.5931,-0.01847535,-0.5818005,-0.266042,-0.8542929,0.4558999,-0.4861604
654.6085,-0.02139683,-0.5819166,-0.2626403,-0.8545925,0.4527254,-0.4863457
654.6242,-0.0243813,-0.5820339,-0.2593071,-0.8549384,0.4495914,-0.4865273
654.6378,-0.0243813,-0.5820339,-0.2593071,-0.8549384,0.4495914,-0.4865273
654.6522,-0.02773212,-0.5821648,-0.2554008,-0.8552654,0.4458196,-0.4867513
654.6675,-0.03129296,-0.5823026,-0.2514667,-0.8556705,0.4420472,-0.4869709
654.6818,-0.03496678,-0.5824433,-0.2475854,-0.8561384,0.4383146,-0.4871862
654.6964,-0.03496678,-0.5824433,-0.2475854,-0.8561384,0.4383146,-0.4871862
654.7106,-0.0390346,-0.5825984,-0.243131,-0.8566,0.4339412,-0.4874431
654.7258,-0.04332614,-0.5827605,-0.2386618,-0.857149,0.4295764,-0.4876949
654.7405,-0.04773577,-0.5829253,-0.2342594,-0.8577666,0.4252601,-0.4879418
654.755,-0.04773577,-0.5829253,-0.2342594,-0.8577666,0.4252601,-0.4879418
654.7691,-0.05219804,-0.5830906,-0.2299503,-0.8584319,0.4210036,-0.4881838
654.7847,-0.05701376,-0.5832689,-0.2250857,-0.8590764,0.4161113,-0.4884669
654.7993,-0.05701376,-0.5832689,-0.2250857,-0.8590764,0.4161113,-0.4884669
654.8131,-0.06202484,-0.5834531,-0.2202229,-0.8597973,0.4112442,-0.4887444
654.8286,-0.06713331,-0.5836394,-0.2154372,-0.860579,0.4064372,-0.4890165
654.8433,-0.07227853,-0.5838256,-0.210753,-0.8614027,0.4017001,-0.4892831
654.858,-0.07227853,-0.5838256,-0.210753,-0.8614027,0.4017001,-0.4892831
654.8723,-0.07776444,-0.5840245,-0.2055171,-0.8622008,0.3963251,-0.4895903
654.8894,-0.08343481,-0.5842288,-0.2002949,-0.8630719,0.3909887,-0.4898916
654.9031,-0.08919287,-0.5844348,-0.1951587,-0.8640012,0.3857219,-0.4901868
654.9168,-0.08919287,-0.5844348,-0.1951587,-0.8640012,0.3857219,-0.4901868
654.9308,-0.09532019,-0.5846541,-0.1894699,-0.8649176,0.3798119,-0.4905221
654.9462,-0.1016466,-0.584879,-0.1838072,-0.8659162,0.3739501,-0.4908507
654.9604,-0.1080667,-0.5851054,-0.1782433,-0.8669789,0.3681661,-0.4911729
654.9765,-0.1080667,-0.5851054,-0.1782433,-0.8669789,0.3681661,-0.4911729
654.9891,-0.1145153,-0.5853313,-0.1728021,-0.8680854,0.3624691,-0.4914886
655.0043,-0.1212939,-0.5855693,-0.1668229,-0.8691651,0.3561299,-0.4918439
655.0189,-0.1212939,-0.5855693,-0.1668229,-0.8691651,0.3561299,-0.4918439
655.0329,-0.1282444,-0.585812,-0.1608841,-0.8703163,0.3498545,-0.4921922
655.0483,-0.1352691,-0.5860557,-0.1550521,-0.871524,0.3436672,-0.4925337
655.063,-0.1423076,-0.5862985,-0.1493487,-0.8727703,0.3375759,-0.4928683
655.0774,-0.1423076,-0.5862985,-0.1493487,-0.8727703,0.3375759,-0.4928683
655.0914,-0.1496644,-0.586553,-0.1431097,-0.8739854,0.3308378,-0.4932422
655.1068,-0.1571835,-0.5868121,-0.1369209,-0.8752686,0.3241758,-0.4936087
655.1213,-0.1647681,-0.5870718,-0.1308457,-0.8766063,0.3176105,-0.4939679
655.136,-0.1647681,-0.5870718,-0.1308457,-0.8766063,0.3176105,-0.4939679
655.15,-0.1727004,-0.5873441,-0.1242342,-0.8779257,0.3103931,-0.4943658
655.1654,-0.1808103,-0.587621,-0.1176842,-0.8793226,0.3032611,-0.4947558
655.1807,-0.1889926,-0.5878985,-0.1112591,-0.8807803,0.2962338,-0.4951381
655.1957,-0.1889926,-0.5878985,-0.1112591,-0.8807803,0.2962338,-0.4951381
655.2095,-0.1971823,-0.5881746,-0.1049802,-0.8822788,0.2893182,-0.4955128
655.2238,-0.2056815,-0.5884621,-0.09817783,-0.8837461,0.2817494,-0.4959259
655.2383,-0.2056815,-0.5884621,-0.09817783,-0.8837461,0.2817494,-0.4959259
655.2521,-0.2143321,-0.5887535,-0.09144785,-0.8852807,0.2742793,-0.4963309
655.2676,-0.2230366,-0.5890451,-0.08484845,-0.8868689,0.266923,-0.4967277
655.2819,-0.2317349,-0.5893351,-0.07839902,-0.8884932,0.259686,-0.4971167
655.2966,-0.2317349,-0.5893351,-0.07839902,-0.8884932,0.259686,-0.4971167
655.3106,-0.240732,-0.5896363,-0.0714279,-0.8900827,0.2517907,-0.4975438
655.3259,-0.2498718,-0.5899412,-0.06453591,-0.8917366,0.2440043,-0.4979625
655.3405,-0.2590578,-0.5902461,-0.05777929,-0.8934423,0.2363392,-0.4983728
655.3551,-0.2590578,-0.5902461,-0.05777929,-0.8934423,0.2363392,-0.4983728
655.3692,-0.2685729,-0.5905629,-0.05050102,-0.8951266,0.2280114,-0.4988208
655.3845,-0.2782467,-0.5908835,-0.04331132,-0.8968849,0.2198008,-0.4992599
655.399,-0.2782467,-0.5908835,-0.04331132,-0.8968849,0.2198008,-0.4992599
655.413,-0.2879741,-0.591204,-0.036267,-0.8987014,0.2117193,-0.4996903
655.4285,-0.2976905,-0.5915225,-0.02938648,-0.9005573,0.2037714,-0.5001122
655.4432,-0.3076986,-0.5918518,-0.02199529,-0.9023802,0.1951584,-0.5005715
655.4576,-0.3076986,-0.5918518,-0.02199529,-0.9023802,0.1951584,-0.5005715
655.4739,-0.3178403,-0.5921845,-0.01470015,-0.9042675,0.186673,-0.5010217
655.4882,-0.328018,-0.5925167,-0.007553622,-0.9062065,0.1783243,-0.5014629
655.5018,-0.3381717,-0.5928467,-0.000572694,-0.9081805,0.1701156,-0.5018954
655.5165,-0.3381717,-0.5928467,-0.000572694,-0.9081805,0.1701156,-0.5018954
655.5302,-0.3486075,-0.5931875,0.006917835,-0.9101188,0.1612362,-0.5023652
655.5455,-0.3591688,-0.5935315,0.01430834,-0.9121192,0.1524924,-0.5028256
655.56,-0.3591688,-0.5935315,0.01430834,-0.9121192,0.1524924,-0.5028256
655.5739,-0.3697594,-0.5938749,0.02154741,-0.9141698,0.1438918,-0.5032768
655.5894,-0.3806626,-0.5942296,0.02929571,-0.9161986,0.1346169,-0.5037649
655.6039,-0.3917082,-0.5945876,0.03693612,-0.9182992,0.1254854,-0.5042434
655.6185,-0.3917082,-0.5945876,0.03693612,-0.9182992,0.1254854,-0.5042434
655.6324,-0.4027909,-0.5949449,0.04441644,-0.9204571,0.1165045,-0.5047123
655.6478,-0.4138464,-0.5952997,0.05172066,-0.9226539,0.1076765,-0.505172
655.6624,-0.4251781,-0.595665,0.05952524,-0.9248186,0.09817,-0.5056684
655.677,-0.4251781,-0.595665,0.05952524,-0.9248186,0.09817,-0.5056684
655.691,-0.4366276,-0.596033,0.06721726,-0.9270465,0.08881505,-0.506155
655.7065,-0.4480975,-0.5964001,0.07474791,-0.9293254,0.07961704,-0.5066319
655.721,-0.4595281,-0.5967647,0.08210234,-0.9316394,0.07057734,-0.5070993
655.7358,-0.4595281,-0.5967647,0.08210234,-0.9316394,0.07057734,-0.5070993
655.7495,-0.4712258,-0.5971397,0.08995711,-0.9339197,0.06085262,-0.5076033
655.7667,-0.4830342,-0.5975173,0.09769725,-0.9362612,0.05128621,-0.5080974
655.7802,-0.4948569,-0.597894,0.1052747,-0.9386528,0.04188244,-0.5085817
655.7938,-0.4948569,-0.597894,0.1052747,-0.9386528,0.04188244,-0.5085817
655.808,-0.5069781,-0.5982816,0.1133522,-0.9410249,0.03179073,-0.5091022
655.823,-0.5192271,-0.598672,0.1213081,-0.9434683,0.02186516,-0.5096123
655.8376,-0.5192271,-0.598672,0.1213081,-0.9434683,0.02186516,-0.5096123
655.8515,-0.531499,-0.5990612,0.1290938,-0.9459687,0.01210962,-0.5101125
655.8668,-0.5437294,-0.5994475,0.1366954,-0.9485088,0.002524352,-0.5106027
655.8812,-0.5562223,-0.599844,0.1447901,-0.9510208,-0.00775488,-0.5111291
655.8957,-0.5562223,-0.599844,0.1447901,-0.9510208,-0.00775488,-0.5111291
655.9102,-0.5688193,-0.6002429,0.1527605,-0.9535959,-0.01786113,-0.511645
655.9249,-0.581423,-0.6006404,0.1605609,-0.9562224,-0.02779186,-0.5121508
655.9396,-0.581423,-0.6006404,0.1605609,-0.9562224,-0.02779186,-0.5121508
655.9534,-0.5943173,-0.6010486,0.1688551,-0.9588335,-0.03841918,-0.5126924
655.9689,-0.607331,-0.6014593,0.1770194,-0.9615165,-0.04886548,-0.5132233
655.9834,-0.6203588,-0.6018685,0.1850074,-0.9642572,-0.05912885,-0.5137437
655.998,-0.6203588,-0.6018685,0.1850074,-0.9642572,-0.05912885,-0.5137437
656.0121,-0.6333362,-0.6022746,0.1928063,-0.9670383,-0.06921038,-0.5142539
656.0275,-0.6465678,-0.6026907,0.2010939,-0.9697957,-0.07999561,-0.5147999
656.0425,-0.6598948,-0.6031089,0.2092502,-0.9726169,-0.09059356,-0.5153351
656.059,-0.6598948,-0.6031089,0.2092502,-0.9726169,-0.09059356,-0.5153351
656.0731,-0.6732199,-0.6035255,0.2172313,-0.9754899,-0.1010035,-0.5158598
656.0864,-0.6864833,-0.603939,0.2250252,-0.9783995,-0.1112274,-0.5163742
656.1011,-0.699993,-0.6043625,0.2333094,-0.9812857,-0.1221627,-0.5169243
656.1154,-0.699993,-0.6043625,0.2333094,-0.9812857,-0.1221627,-0.5169243
656.1293,-0.7135918,-0.6047882,0.2414622,-0.9842342,-0.1329047,-0.5174636
656.1445,-0.7271835,-0.6052122,0.2494402,-0.9872336,-0.1434538,-0.5179923
656.159,-0.7271835,-0.6052122,0.2494402,-0.9872336,-0.1434538,-0.5179923
656.173,-0.7410534,-0.6056467,0.257908,-0.9902246,-0.1547161,-0.5185565
656.1882,-0.7550305,-0.6060833,0.2662387,-0.993288,-0.1657765,-0.5191095
656.2028,-0.7690096,-0.6065181,0.2743884,-0.9964094,-0.1766362,-0.5196517
656.2172,-0.7690096,-0.6065181,0.2743884,-0.9964094,-0.1766362,-0.5196517
656.2312,-0.7829267,-0.6069495,0.2823459,-0.9995719,-0.1872983,-0.5201832
656.2467,-0.7970871,-0.6073908,0.2907889,-1.00272,-0.1986821,-0.5207502
656.2613,-0.8113319,-0.6078338,0.2990942,-1.005933,-0.2098583,-0.5213061
656.2758,-0.8113319,-0.6078338,0.2990942,-1.005933,-0.2098583,-0.5213061
656.2898,-0.8255635,-0.608275,0.3072203,-1.009198,-0.2208294,-0.5218511
656.3054,-0.8397225,-0.6087128,0.3151566,-1.0125,-0.231599,-0.5223854
656.3201,-0.8541175,-0.6091605,0.3235801,-1.01579,-0.2430984,-0.5229552
656.3347,-0.8541175,-0.6091605,0.3235801,-1.01579,-0.2430984,-0.5229552
656.3516,-0.8685912,-0.60961,0.3318664,-1.019143,-0.2543845,-0.5235137
656.3656,-0.8830473,-0.6100576,0.3399746,-1.022547,-0.2654606,-0.5240614
656.3792,-0.8830473,-0.6100576,0.3399746,-1.022547,-0.2654606,-0.5240614
656.3923,-0.8977718,-0.6105155,0.3485692,-1.025953,-0.2772672,-0.5246443
656.4073,-0.9125934,-0.6109753,0.3570213,-1.029433,-0.2888513,-0.5252156
656.4219,-0.9274068,-0.6114329,0.3652896,-1.03297,-0.3002172,-0.5257758
656.4363,-0.9274068,-0.6114329,0.3652896,-1.03297,-0.3002172,-0.5257758
656.4503,-0.9421481,-0.6118869,0.3733641,-1.036549,-0.3113701,-0.5263251
656.4658,-0.9571234,-0.6123506,0.3819213,-1.040125,-0.3232629,-0.5269096
656.4799,-0.9571234,-0.6123506,0.3819213,-1.040125,-0.3232629,-0.5269096
656.494,-0.9721734,-0.6128159,0.3903362,-1.043767,-0.3349281,-0.5274827
656.5091,-0.9872006,-0.613279,0.3985697,-1.047461,-0.346371,-0.5280445
656.5237,-1.002146,-0.6137385,0.4066121,-1.051192,-0.3575973,-0.5285954
656.5386,-1.002146,-0.6137385,0.4066121,-1.051192,-0.3575973,-0.5285954
656.5524,-1.017318,-0.6142079,0.4151385,-1.054922,-0.3695715,-0.5291815
656.5676,-1.032559,-0.6146787,0.4235239,-1.058717,-0.3813125,-0.5297562
656.5822,-1.047774,-0.6151475,0.4317292,-1.062562,-0.3928266,-0.5303196
656.597,-1.047774,-0.6151475,0.4317292,-1.062562,-0.3928266,-0.5303196
656.6109,-1.0515,-0.6151594,0.4175608,-1.067112,-0.372173,-0.5293528
656.6262,-1.048187,-0.6149538,0.4017465,-1.070314,-0.3524486,-0.5284103
656.6408,-1.040578,-0.6146246,0.3857001,-1.072224,-0.3335321,-0.5274885
656.6577,-1.040578,-0.6146246,0.3857001,-1.072224,-0.3335321,-0.5274885
656.6716,-1.030377,-0.6142229,0.3699404,-1.073091,-0.3152885,-0.526586
656.6859,-1.018985,-0.6137915,0.355276,-1.073156,-0.2985614,-0.5257478
656.6991,-1.018985,-0.6137915,0.355276,-1.073156,-0.2985614,-0.5257478
656.713,-1.006917,-0.6133432,0.3411251,-1.072715,-0.2822906,-0.5249261
656.7285,-0.9944927,-0.6128861,0.327405,-1.07194,-0.2664306,-0.5241206
656.7427,-0.9819076,-0.6124256,0.3140566,-1.070949,-0.2509504,-0.5233309
656.7574,-0.9819076,-0.6124256,0.3140566,-1.070949,-0.2509504,-0.5233309
656.7712,-0.9696278,-0.6119789,0.3016877,-1.069782,-0.2367581,-0.5226029
656.7866,-0.9575909,-0.6115432,0.2896867,-1.068568,-0.2228717,-0.521889
656.8011,-0.9457577,-0.6111166,0.2779786,-1.067335,-0.2092838,-0.521189
656.8156,-0.9457577,-0.6111166,0.2779786,-1.067335,-0.2092838,-0.521189
656.8296,-0.9344486,-0.6107116,0.2671729,-1.066057,-0.1969071,-0.5205488
656.8448,-0.9235115,-0.6103224,0.2566734,-1.06482,-0.1847829,-0.5199211
656.8596,-0.9235115,-0.6103224,0.2566734,-1.06482,-0.1847829,-0.5199211
656.8737,-0.912852,-0.6099449,0.2464142,-1.063624,-0.1729099,-0.5193056
656.8887,-0.9024113,-0.6095768,0.2363671,-1.062458,-0.1612853,-0.5187022
656.9036,-0.8924971,-0.6092302,0.2271614,-1.061271,-0.1508113,-0.5181566
656.9183,-0.8924971,-0.6092302,0.2271614,-1.061271,-0.1508113,-0.5181566
656.9324,-0.8829502,-0.6088988,0.2182182,-1.06014,-0.1405473,-0.5176216
656.9476,-0.8736718,-0.6085786,0.2094773,-1.059058,-0.1304929,-0.517097
656.9641,-0.8646002,-0.6082669,0.2009139,-1.058012,-0.120646,-0.5165827
656.9778,-0.8646002,-0.6082669,0.2009139,-1.058012,-0.120646,-0.5165827
656.9917,-0.8560413,-0.6079761,0.1931566,-1.056944,-0.1118987,-0.5161244
657.0058,-0.8478352,-0.6076995,0.1856319,-1.055935,-0.1033245,-0.515675
657.0215,-0.8398827,-0.6074333,0.1782801,-1.054976,-0.09492354,-0.5152344
657.0352,-0.8398827,-0.6074333,0.1782801,-1.054976,-0.09492354,-0.5152344
657.049,-0.8324664,-0.6071886,0.171714,-1.054007,-0.08758201,-0.5148483
657.0641,-0.825412,-0.6069584,0.1653573,-1.053107,-0.08038354,-0.5144697
657.0786,-0.825412,-0.6069584,0.1653573,-1.053107,-0.08038354,-0.5144697
657.0927,-0.8186116,-0.6067384,0.1591486,-1.052266,-0.07332863,-0.5140985
657.1079,-0.8119977,-0.6065258,0.1530638,-1.051467,-0.06641617,-0.5137345
657.1226,-0.8058728,-0.6063325,0.1477294,-1.050648,-0.06052421,-0.5134236
657.1373,-0.8058728,-0.6063325,0.1477294,-1.050648,-0.06052421,-0.5134236
657.1512,-0.8000753,-0.6061522,0.1425777,-1.049892,-0.05474626,-0.5131186
657.1663,-0.7945048,-0.6059808,0.1375498,-1.04919,-0.04908272,-0.5128196
657.181,-0.7890989,-0.6058156,0.1326225,-1.048528,-0.04353264,-0.5125265
657.1957,-0.7890989,-0.6058156,0.1326225,-1.048528,-0.04353264,-0.5125265
657.2098,-0.7841629,-0.605669,0.1284215,-1.047842,-0.03896795,-0.512285
657.2253,-0.7795372,-0.6055343,0.1243812,-1.047218,-0.03449068,-0.5120481
657.2397,-0.7795372,-0.6055343,0.1243812,-1.047218,-0.03449068,-0.5120481
657.2557,-0.7751229,-0.6054077,0.1204426,-1.046649,-0.03010132,-0.5118158
657.2698,-0.7712024,-0.6053004,0.1172162,-1.046068,-0.02666897,-0.511634
657.2844,-0.7676026,-0.6052053,0.1141316,-1.04556,-0.02330127,-0.5114556
657.2979,-0.7676026,-0.6052053,0.1141316,-1.04556,-0.02330127,-0.5114556
657.3119,-0.7642156,-0.6051182,0.1111281,-1.045115,-0.01999904,-0.5112807
657.3271,-0.7609747,-0.6050363,0.1081827,-1.044716,-0.01676192,-0.5111092
657.3415,-0.7581823,-0.6049717,0.1059209,-1.044295,-0.01445484,-0.5109869
657.3561,-0.7581823,-0.6049717,0.1059209,-1.044295,-0.01445484,-0.5109869
657.3701,-0.7556775,-0.6049179,0.1037793,-1.043942,-0.01219061,-0.5108669
657.3853,-0.7533606,-0.604871,0.1017,-1.043645,-0.009970091,-0.5107492
657.4,-0.7533606,-0.604871,0.1017,-1.043645,-0.009970091,-0.5107492
657.4138,-0.7515137,-0.6048421,0.1002934,-1.043339,-0.008657015,-0.5106797
657.4291,-0.7499633,-0.6048241,0.09899081,-1.043108,-0.00736744,-0.5106115
657.4436,-0.7486019,-0.6048129,0.09773245,-1.042941,-0.006102457,-0.5105446
657.4582,-0.7486019,-0.6048129,0.09773245,-1.042941,-0.006102457,-0.5105446
657.4722,-0.7473627,-0.6048058,0.09649621,-1.042822,-0.004862175,-0.510479
657.4878,-0.7465484,-0.6048141,0.09590793,-1.042683,-0.004508748,-0.5104605
657.5021,-0.7459983,-0.6048316,0.09540507,-1.042611,-0.004160488,-0.5104423
657.5167,-0.7459983,-0.6048316,0.09540507,-1.042611,-0.004160488,-0.5104423
657.5308,-0.7456129,-0.6048543,0.09493048,-1.042598,-0.0038186,-0.5104244
657.546,-0.7453303,-0.6048802,0.09446293,-1.042629,-0.003483427,-0.5104069
657.5628,-0.7454553,-0.6049215,0.09462817,-1.042637,-0.004017028,-0.5104356
657.5762,-0.7454553,-0.6049215,0.09462817,-1.042637,-0.004017028,-0.5104356
657.5903,-0.7458297,-0.6049716,0.0948637,-1.042712,-0.004538851,-0.5104636
657.6046,-0.7463555,-0.6050267,0.09511266,-1.042845,-0.005050326,-0.510491
657.619,-0.7463555,-0.6050267,0.09511266,-1.042845,-0.005050326,-0.510491
657.6331,-0.7473158,-0.605098,0.09598652,-1.042968,-0.006414564,-0.5105637
657.6482,-0.7485383,-0.6051784,0.09691636,-1.043169,-0.007751269,-0.510635
657.6628,-0.749916,-0.6052635,0.09784383,-1.043434,-0.009062143,-0.5107048
657.6773,-0.749916,-0.6052635,0.09784383,-1.043434,-0.009062143,-0.5107048
657.6912,-0.7513824,-0.6053508,0.09874804,-1.043746,-0.01034806,-0.5107732
657.7067,-0.7532409,-0.6054526,0.1002563,-1.04404,-0.01247358,-0.5108861
657.7211,-0.7553312,-0.605562,0.1018052,-1.044403,-0.01455708,-0.5109968
657.736,-0.7553312,-0.605562,0.1018052,-1.044403,-0.01455708,-0.5109968
657.7498,-0.7575541,-0.6056752,0.1033391,-1.044824,-0.01660051,-0.5111052
657.7653,-0.7598482,-0.6057897,0.1048381,-1.04529,-0.01860503,-0.5112115
657.78,-0.7598482,-0.6057897,0.1048381,-1.04529,-0.01860503,-0.5112115
657.7939,-0.7625197,-0.605918,0.10693,-1.045734,-0.02143784,-0.5113615
657.8092,-0.7654102,-0.6060534,0.1090506,-1.046245,-0.02421507,-0.5115086
657.8242,-0.7684219,-0.6061919,0.1111445,-1.046814,-0.02693905,-0.5116527
657.8384,-0.7684219,-0.6061919,0.1111445,-1.046814,-0.02693905,-0.5116527
657.8548,-0.7718385,-0.6063449,0.1138253,-1.047374,-0.03047997,-0.5118399
657.8691,-0.7754875,-0.6065052,0.1165223,-1.048011,-0.03395187,-0.5120233
657.8823,-0.7792624,-0.6066683,0.1191789,-1.048713,-0.0373574,-0.512203
657.8966,-0.7792624,-0.6066683,0.1191789,-1.048713,-0.0373574,-0.512203
657.9108,-0.7830972,-0.606832,0.1217758,-1.049463,-0.04069839,-0.5123792
657.9262,-0.7872956,-0.6070089,0.1249422,-1.050194,-0.04484895,-0.5125979
657.9406,-0.7916976,-0.6071918,0.1281125,-1.050995,-0.04891873,-0.5128121
657.9552,-0.7916976,-0.6071918,0.1281125,-1.050995,-0.04891873,-0.5128121
657.9691,-0.7962043,-0.6073769,0.1312327,-1.051854,-0.05291073,-0.5130221
657.9847,-0.8007546,-0.607562,0.1342844,-1.052756,-0.05682708,-0.5132279
657.9992,-0.8007546,-0.607562,0.1342844,-1.052756,-0.05682708,-0.5132279
658.0129,-0.8056554,-0.6077598,0.1378976,-1.053637,-0.06154679,-0.5134757
658.0314,-0.8107484,-0.6079631,0.1415051,-1.054586,-0.06617451,-0.5137184
658.0429,-0.815936,-0.6081682,0.1450536,-1.055592,-0.07071373,-0.5139564
658.0576,-0.815936,-0.6081682,0.1450536,-1.055592,-0.07071373,-0.5139564
658.0718,-0.8215025,-0.6083868,0.1491591,-1.05659,-0.07604816,-0.5142355
658.0871,-0.8272756,-0.608611,0.1532483,-1.057665,-0.08127856,-0.5145091
658.1015,-0.833149,-0.6088368,0.1572664,-1.058804,-0.08640894,-0.5147773
658.1159,-0.833149,-0.6088368,0.1572664,-1.058804,-0.08640894,-0.5147773
658.1298,-0.8390569,-0.6090621,0.1611955,-1.059989,-0.0914422,-0.5150402
658.1475,-0.8453038,-0.6092996,0.1656674,-1.061158,-0.09726766,-0.5153438
658.1608,-0.8517298,-0.6095419,0.1701129,-1.062395,-0.1029793,-0.5156415
658.1754,-0.8517298,-0.6095419,0.1701129,-1.062395,-0.1029793,-0.5156415
658.1893,-0.8582361,-0.6097852,0.1744802,-1.06369,-0.1085817,-0.5159332
658.2036,-0.8647619,-0.6100276,0.1787522,-1.065028,-0.1140779,-0.5162191
658.2181,-0.8647619,-0.6100276,0.1787522,-1.065028,-0.1140779,-0.5162191
658.2319,-0.8716148,-0.6102818,0.1835611,-1.066346,-0.1203639,-0.5165454
658.2471,-0.8786365,-0.6105406,0.1883365,-1.067732,-0.1265266,-0.5168652
658.2618,-0.8857296,-0.6108001,0.1930268,-1.069173,-0.132571,-0.5171787
658.2765,-0.8857296,-0.6108001,0.1930268,-1.069173,-0.132571,-0.5171787
658.2904,-0.8931791,-0.6110722,0.1982508,-1.070609,-0.1393991,-0.517532
658.3057,-0.9008126,-0.6113489,0.2034318,-1.072122,-0.1460927,-0.5178782
658.3204,-0.9085239,-0.6116263,0.2085174,-1.073697,-0.1526575,-0.5182176
658.335,-0.9085239,-0.6116263,0.2085174,-1.073697,-0.1526575,-0.5182176
658.3489,-0.9162477,-0.6119022,0.2134909,-1.075318,-0.1590975,-0.5185504
658.3644,-0.9242891,-0.6121896,0.2189862,-1.076925,-0.1663219,-0.5189226
658.379,-0.9242891,-0.6121896,0.2189862,-1.076925,-0.1663219,-0.5189226
658.3932,-0.932488,-0.6124809,0.2244307,-1.0786,-0.1734035,-0.5192873
658.4083,-0.9407459,-0.6127724,0.2297748,-1.080332,-0.1803485,-0.5196449
658.423,-0.9490024,-0.6130622,0.2350024,-1.082105,-0.1871613,-0.5199955
658.4396,-0.9490024,-0.6130622,0.2350024,-1.082105,-0.1871613,-0.5199955
658.454,-0.9575655,-0.6133633,0.2407477,-1.083864,-0.194759,-0.5203851
658.4681,-0.9662771,-0.6136681,0.246437,-1.085688,-0.2022054,-0.520767
658.4813,-0.9750397,-0.6139728,0.2520208,-1.087568,-0.2095075,-0.5211414
658.4958,-0.9750397,-0.6139728,0.2520208,-1.087568,-0.2095075,-0.5211414
658.5098,-0.9841391,-0.6142895,0.2581199,-1.089447,-0.2175898,-0.5215544
658.5251,-0.9934028,-0.6146101,0.2641546,-1.091402,-0.22551,-0.5219592
658.5397,-0.9934028,-0.6146101,0.2641546,-1.091402,-0.22551,-0.5219592
658.5538,-1.002725,-0.6149305,0.2700747,-1.093418,-0.2332759,-0.5223561
658.5691,-1.01204,-0.6152488,0.2758647,-1.095478,-0.240893,-0.5227452
658.5839,-1.021654,-0.615578,0.2821601,-1.09753,-0.2492937,-0.5231727
658.5984,-1.021654,-0.615578,0.2821601,-1.09753,-0.2492937,-0.5231727
658.6126,-1.031406,-0.6159105,0.2883853,-1.09965,-0.2575252,-0.5235916
658.6281,-1.041199,-0.6162425,0.2944925,-1.101825,-0.2655959,-0.5240024
658.6426,-1.050972,-0.6165723,0.3004669,-1.10404,-0.2735114,-0.5244051
658.6573,-1.050972,-0.6165723,0.3004669,-1.10404,-0.2735114,-0.5244051
658.6716,-1.061034,-0.6169128,0.306944,-1.106248,-0.2822131,-0.5248459
658.687,-1.071227,-0.6172566,0.3133471,-1.108521,-0.290738,-0.525278
658.7014,-1.081453,-0.6175997,0.3196287,-1.110847,-0.2990952,-0.5257016
658.7181,-1.081453,-0.6175997,0.3196287,-1.110847,-0.2990952,-0.5257016
658.7324,-1.091998,-0.6179542,0.3264109,-1.11318,-0.3082346,-0.5261629
658.7454,-1.102691,-0.6183119,0.3331121,-1.115588,-0.3171864,-0.5266151
658.7599,-1.102691,-0.6183119,0.3331121,-1.115588,-0.3171864,-0.5266151
658.7738,-1.113425,-0.6186689,0.3396836,-1.118055,-0.3259607,-0.5270585
658.7891,-1.124135,-0.6190233,0.3461114,-1.120565,-0.3345646,-0.5274931
658.8038,-1.135127,-0.6193883,0.353031,-1.123075,-0.3439561,-0.5279654
658.8183,-1.135127,-0.6193883,0.353031,-1.123075,-0.3439561,-0.5279654
658.8323,-1.146242,-0.619756,0.3598654,-1.125653,-0.353154,-0.5284282
658.8475,-1.157381,-0.6201227,0.3665682,-1.128283,-0.3621687,-0.528882
658.8621,-1.168483,-0.6204867,0.3731257,-1.130952,-0.3710074,-0.5293269
658.8768,-1.168483,-0.6204867,0.3731257,-1.130952,-0.3710074,-0.5293269
658.8907,-1.17986,-0.6208612,0.380173,-1.133622,-0.3806376,-0.5298092
658.906,-1.191351,-0.6212384,0.3871328,-1.136357,-0.3900673,-0.5302819
658.921,-1.202859,-0.6216145,0.3939587,-1.139144,-0.3993075,-0.5307453
658.9354,-1.202859,-0.6216145,0.3939587,-1.139144,-0.3993075,-0.5307453
658.9494,-1.214673,-0.6220016,0.4012725,-1.141946,-0.4093347,-0.5312458
658.9647,-1.226618,-0.6223915,0.4084926,-1.144823,-0.4191508,-0.5317364
658.9793,-1.226618,-0.6223915,0.4084926,-1.144823,-0.4191508,-0.5317364
658.9933,-1.23859,-0.6227801,0.4155717,-1.147756,-0.4287676,-0.5322174
659.0107,-1.250523,-0.6231657,0.4224963,-1.15073,-0.4381936,-0.5326889
659.0259,-1.251631,-0.6231388,0.4096138,-1.154207,-0.4171286,-0.5317194
659.0385,-1.251631,-0.6231388,0.4096138,-1.154207,-0.4171286,-0.5317194
659.052,-1.24612,-0.6228877,0.3948095,-1.156391,-0.3972011,-0.5307745
659.0671,-1.236588,-0.6225042,0.3796182,-1.157373,-0.3781786,-0.5298511
659.0825,-1.224644,-0.6220414,0.3646136,-1.157396,-0.3598593,-0.5289471
659.0961,-1.224644,-0.6220414,0.3646136,-1.157396,-0.3598593,-0.5289471
659.11,-1.211284,-0.6215311,0.3499804,-1.156714,-0.3421161,-0.5280616
659.1255,-1.197123,-0.6209932,0.3357518,-1.155536,-0.3248685,-0.5271939
659.14,-1.18254,-0.6204403,0.3219093,-1.154025,-0.3080648,-0.5263434
659.1547,-1.18254,-0.6204403,0.3219093,-1.154025,-0.3080648,-0.5263434
659.1686,-1.167766,-0.6198807,0.3084222,-1.152295,-0.2916703,-0.5255098
659.1844,-1.152946,-0.6193196,0.2952616,-1.150423,-0.2756609,-0.5246927
659.1987,-1.152946,-0.6193196,0.2952616,-1.150423,-0.2756609,-0.5246927
659.2127,-1.138166,-0.6187606,0.2824039,-1.148463,-0.2600189,-0.5238916
659.2281,-1.123479,-0.6182057,0.269831,-1.146448,-0.2447306,-0.5231065
659.2427,-1.108917,-0.6176564,0.2575288,-1.1444,-0.2297843,-0.5223367
659.2576,-1.108917,-0.6176564,0.2575288,-1.1444,-0.2297843,-0.5223367
659.2714,-1.094498,-0.6171134,0.2454865,-1.142333,-0.2151702,-0.5215822
659.2891,-1.080233,-0.6165771,0.2336951,-1.140255,-0.2008793,-0.5208426
659.3026,-1.066129,-0.616048,0.2221474,-1.138172,-0.1869032,-0.5201175
659.3171,-1.066129,-0.616048,0.2221474,-1.138172,-0.1869032,-0.5201175
659.3302,-1.052187,-0.6155262,0.2108369,-1.136085,-0.1732339,-0.5194067
659.3453,-1.038409,-0.6150116,0.199758,-1.133997,-0.1598639,-0.5187099
659.3599,-1.038409,-0.6150116,0.199758,-1.133997,-0.1598639,-0.5187099
659.3738,-1.024795,-0.6145042,0.1889054,-1.131909,-0.1467858,-0.5180268
659.3892,-1.011343,-0.6140041,0.178274,-1.12982,-0.1339925,-0.5173572
659.4041,-0.9980536,-0.6135111,0.1678593,-1.127732,-0.1214773,-0.5167007
659.4185,-0.9980536,-0.6135111,0.1678593,-1.127732,-0.1214773,-0.5167007
659.4326,-0.9849235,-0.6130251,0.1576565,-1.125644,-0.1092333,-0.5160571
659.4479,-0.9719518,-0.6125461,0.1476615,-1.123555,-0.09725401,-0.5154262
659.4626,-0.9591365,-0.612074,0.1378698,-1.121467,-0.08553313,-0.5148077
659.4774,-0.9591365,-0.612074,0.1378698,-1.121467,-0.08553313,-0.5148077
659.4915,-0.9464758,-0.6116086,0.1282773,-1.119378,-0.07406448,-0.5142013
659.5071,-0.933968,-0.6111499,0.11888,-1.117288,-0.06284199,-0.5136069
659.5215,-0.9216112,-0.6106978,0.109674,-1.115198,-0.0518598,-0.5130241
659.5364,-0.9216112,-0.6106978,0.109674,-1.115198,-0.0518598,-0.5130241
659.5504,-0.9094036,-0.6102522,0.1006552,-1.113108,-0.0411122,-0.5124527
659.5677,-0.8973435,-0.609813,0.09182003,-1.111017,-0.0305936,-0.5118926
659.5812,-0.8854289,-0.60938,0.08316469,-1.108925,-0.0202986,-0.5113434
659.595,-0.8854289,-0.60938,0.08316469,-1.108925,-0.0202986,-0.5113434
659.6088,-0.8736582,-0.6089532,0.07468557,-1.106833,-0.01022188,-0.510805
659.6241,-0.8620296,-0.6085326,0.06637913,-1.10474,-0.0003583031,-0.5102772
659.6387,-0.8620296,-0.6085326,0.06637913,-1.10474,-0.0003583031,-0.5102772
659.6525,-0.8505414,-0.608118,0.05824189,-1.102647,0.009297154,-0.5097597
659.668,-0.8391918,-0.6077093,0.05027046,-1.100554,0.01874939,-0.5092524
659.6824,-0.8279793,-0.6073064,0.04246151,-1.09846,0.02800315,-0.508755
659.6971,-0.8279793,-0.6073064,0.04246151,-1.09846,0.02800315,-0.508755
659.7111,-0.816902,-0.6069093,0.03481178,-1.096367,0.03706309,-0.5082673
659.7264,-0.8059585,-0.6065179,0.02731809,-1.094274,0.04593372,-0.5077893
659.7413,-0.7951471,-0.6061321,0.01997732,-1.092182,0.05461946,-0.5073205
659.7559,-0.7951471,-0.6061321,0.01997732,-1.092182,0.05461946,-0.5073205
659.77,-0.7844661,-0.6057518,0.01278642,-1.09009,0.06312458,-0.506861
659.7855,-0.773914,-0.6053768,0.005742388,-1.087999,0.07145328,-0.5064104
659.8002,-0.7634892,-0.6050073,-0.001157689,-1.08591,0.07960962,-0.5059687
659.8148,-0.7634892,-0.6050073,-0.001157689,-1.08591,0.07960962,-0.5059687
659.8286,-0.7531902,-0.604643,-0.007916674,-1.083822,0.08759757,-0.5055356
659.846,-0.7430153,-0.6042839,-0.01453738,-1.081736,0.095421,-0.505111
659.8599,-0.7430153,-0.6042839,-0.01453738,-1.081736,0.095421,-0.505111
659.8737,-0.7329633,-0.6039299,-0.02102255,-1.079652,0.1030837,-0.5046948
659.888,-0.7230325,-0.6035809,-0.02737488,-1.07757,0.1105893,-0.5042866
659.9026,-0.7132215,-0.6032369,-0.03359699,-1.075491,0.1179414,-0.5038865
659.917,-0.7132215,-0.6032369,-0.03359699,-1.075491,0.1179414,-0.5038865
659.9311,-0.7035288,-0.6028978,-0.03969146,-1.073414,0.1251434,-0.5034942
659.9462,-0.6939529,-0.6025636,-0.04566082,-1.071341,0.1321989,-0.5031096
659.9608,-0.6844926,-0.602234,-0.05150754,-1.069271,0.139111,-0.5027325
659.9755,-0.6844926,-0.602234,-0.05150754,-1.069271,0.139111,-0.5027325
659.9894,-0.6751463,-0.6019092,-0.05723404,-1.067205,0.1458831,-0.5023627
660.0048,-0.6659127,-0.6015889,-0.06284268,-1.065143,0.1525182,-0.5020002
660.0193,-0.6659127,-0.6015889,-0.06284268,-1.065143,0.1525182,-0.5020002
660.0334,-0.6567905,-0.6012732,-0.06833579,-1.063085,0.1590194,-0.5016448
660.0485,-0.6477782,-0.600962,-0.07371565,-1.061032,0.1653898,-0.5012963
660.0634,-0.6388746,-0.6006553,-0.07898447,-1.058984,0.1716322,-0.5009547
660.0779,-0.6388746,-0.6006553,-0.07898447,-1.058984,0.1716322,-0.5009547
660.0919,-0.6300783,-0.6003528,-0.08414444,-1.056941,0.1777494,-0.5006198
660.1073,-0.621388,-0.6000547,-0.0891977,-1.054903,0.1837444,-0.5002914
660.1219,-0.6128024,-0.5997607,-0.09414633,-1.052871,0.1896196,-0.4999695
660.1387,-0.6128024,-0.5997607,-0.09414633,-1.052871,0.1896196,-0.4999695
660.1526,-0.6043204,-0.5994709,-0.0989924,-1.050845,0.1953778,-0.4996538
660.1662,-0.5959406,-0.5991852,-0.1037379,-1.048825,0.2010216,-0.4993443
660.1804,-0.5876617,-0.5989036,-0.1083848,-1.046812,0.2065535,-0.4990408
660.1951,-0.5876617,-0.5989036,-0.1083848,-1.046812,0.2065535,-0.4990408
660.2087,-0.5794827,-0.598626,-0.112935,-1.044806,0.2119758,-0.4987434
660.2239,-0.5714021,-0.5983523,-0.1173905,-1.042806,0.217291,-0.4984517
660.2386,-0.5714021,-0.5983523,-0.1173905,-1.042806,0.217291,-0.4984517
660.2527,-0.5634189,-0.5980824,-0.121753,-1.040814,0.2225015,-0.4981657
660.2681,-0.5555319,-0.5978163,-0.1260243,-1.038829,0.2276094,-0.4978853
660.2826,-0.5477399,-0.597554,-0.1302064,-1.036852,0.232617,-0.4976104
660.2972,-0.5477399,-0.597554,-0.1302064,-1.036852,0.232617,-0.4976104
660.3113,-0.5400418,-0.5972954,-0.1343008,-1.034883,0.2375264,-0.4973409
660.3271,-0.5324364,-0.5970405,-0.1383093,-1.032922,0.2423399,-0.4970767
660.3414,-0.5249227,-0.5967891,-0.1422335,-1.03097,0.2470593,-0.4968176
660.3561,-0.5249227,-0.5967891,-0.1422335,-1.03097,0.2470593,-0.4968176
660.3701,-0.5174994,-0.5965413,-0.1460752,-1.029026,0.2516868,-0.4965636
660.3858,-0.5101656,-0.596297,-0.1498359,-1.027091,0.2562242,-0.4963146
660.4003,-0.5029202,-0.5960562,-0.1535171,-1.025164,0.2606735,-0.4960704
660.4168,-0.5029202,-0.5960562,-0.1535171,-1.025164,0.2606735,-0.4960704
660.4308,-0.4957619,-0.5958187,-0.1571205,-1.023247,0.2650366,-0.4958311
660.4442,-0.4886899,-0.5955846,-0.1606475,-1.02134,0.2693153,-0.4955964
660.4586,-0.4886899,-0.5955846,-0.1606475,-1.02134,0.2693153,-0.4955964
660.4726,-0.481703,-0.5953537,-0.1640996,-1.019442,0.2735114,-0.4953663
660.488,-0.4748003,-0.5951262,-0.1674783,-1.017553,0.2776265,-0.4951407
660.5034,-0.4679807,-0.5949018,-0.1707849,-1.015675,0.2816624,-0.4949195
660.5162,-0.4679807,-0.5949018,-0.1707849,-1.015675,0.2816624,-0.4949195
660.5295,-0.4612432,-0.5946805,-0.1740209,-1.013806,0.2856208,-0.4947027
660.5437,-0.4545868,-0.5944625,-0.1771877,-1.011948,0.2895033,-0.4944901
660.5574,-0.4545868,-0.5944625,-0.1771877,-1.011948,0.2895033,-0.4944901
660.5706,-0.4480105,-0.5942474,-0.1802865,-1.0101,0.2933114,-0.4942816
660.5852,-0.4415135,-0.5940354,-0.1833188,-1.008263,0.2970467,-0.4940773
660.5992,-0.4415135,-0.5940354,-0.1833188,-1.008263,0.2970467,-0.4940773
660.6125,-0.4350946,-0.5938264,-0.1862857,-1.006436,0.3007107,-0.4938769
660.6277,-0.428753,-0.5936202,-0.1891885,-1.004619,0.3043049,-0.4936805
660.6417,-0.4224878,-0.593417,-0.1920286,-1.002814,0.3078306,-0.4934879
