JMolnar6/NonAnthroHands_User_Study/HandsLoggerWithURDF/tempdata/files/Reachy_JointMotion_gesture_7_32.csv
Time,r_shoulder,r_shoulder_x,r_upper_arm,r_forearm,r_wrist,r_wrist2hand,
362.7191,-0.09769392,-1.672291E-08,NaN,-0.327234,-1.35337E-07,NaN,0.4565989,-1.23957E-08,NaN,-2.168916,1.189362E-05,-0.3666828,1.474462E-08,NaN,NaN,-0.05536522,3.725181E-11,-1.982585E-07,-1.136064E-07,-3.876994E-10,-2.861022E-08
362.7349,-0.09732629,-1.672196E-08,NaN,-0.3272308,-1.353355E-07,NaN,0.4565562,-1.238439E-08,NaN,-2.169087,1.189418E-05,-0.3665386,1.473532E-08,NaN,NaN,-0.05467157,4.190842E-11,-1.91404E-07,-1.136037E-07,4.380672E-09,-2.622604E-08
362.7505,-0.09649996,-1.672102E-08,NaN,-0.3272266,-1.35334E-07,NaN,0.4564331,-1.237175E-08,NaN,-2.169373,1.189474E-05,-0.3664435,1.472469E-08,NaN,NaN,-0.05399157,5.122165E-11,-1.859464E-07,-1.136011E-07,3.188579E-09,-2.861022E-08
362.7663,-0.09538848,-1.672007E-08,NaN,-0.327222,-1.353326E-07,NaN,0.4562945,-1.23564E-08,NaN,-2.169666,1.189531E-05,-0.3663771,1.471134E-08,NaN,NaN,-0.05332497,5.587826E-11,-1.801722E-07,-1.135985E-07,-3.876997E-10,-2.622604E-08
362.7821,-0.09410223,-1.671913E-08,NaN,-0.3272173,-1.353311E-07,NaN,0.456168,-1.233979E-08,NaN,-2.16993,1.189587E-05,-0.3663199,1.469673E-08,NaN,NaN,-0.05267148,6.053488E-11,-1.759254E-07,-1.135958E-07,-2.771885E-09,-2.861022E-08
362.7987,-0.09410223,-1.671913E-08,NaN,-0.3272173,-1.353311E-07,NaN,0.456168,-1.233979E-08,NaN,-2.16993,1.189587E-05,-0.3663199,1.469673E-08,NaN,NaN,-0.05267148,6.053488E-11,-1.759254E-07,-1.135958E-07,-2.771885E-09,-2.861022E-08
362.8138,-0.09343969,-1.671819E-08,NaN,-0.327215,-1.353296E-07,NaN,0.4562224,-1.232195E-08,NaN,-2.169769,1.189643E-05,-0.366293,1.46809E-08,NaN,NaN,-0.05203121,6.519149E-11,-1.782165E-07,-1.135932E-07,8.043932E-10,-2.622604E-08
362.8305,-0.09317239,-1.671724E-08,NaN,-0.327214,-1.353281E-07,NaN,0.4563736,-1.23015E-08,NaN,-2.169461,1.1897E-05,-0.3662154,1.466246E-08,NaN,NaN,-0.05140346,6.984811E-11,-1.815692E-07,-1.135906E-07,8.043932E-10,-2.861022E-08
362.8456,-0.09315488,-1.67163E-08,NaN,-0.3272134,-1.353267E-07,NaN,0.4565531,-1.227989E-08,NaN,-2.169119,1.189756E-05,-0.3661074,1.464286E-08,NaN,NaN,-0.05078796,7.450472E-11,-1.839348E-07,-1.13588E-07,5.572764E-09,-2.622604E-08
362.8618,-0.09329356,-1.671536E-08,NaN,-0.327213,-1.353252E-07,NaN,0.45673,-1.225719E-08,NaN,-2.168786,1.189813E-05,-0.3659891,1.462216E-08,NaN,NaN,-0.05018449,7.450472E-11,-1.844377E-07,-1.135855E-07,5.572764E-09,-2.861022E-08
362.8773,-0.09329356,-1.671536E-08,NaN,-0.327213,-1.353252E-07,NaN,0.45673,-1.225719E-08,NaN,-2.168786,1.189813E-05,-0.3659891,1.462216E-08,NaN,NaN,-0.05018449,7.450472E-11,-1.844377E-07,-1.135855E-07,5.572764E-09,-2.861022E-08
362.8927,-0.09425823,-1.671441E-08,NaN,-0.327214,-1.353237E-07,NaN,0.4570579,-1.223338E-08,NaN,-2.168085,1.189869E-05,-0.3658989,1.460036E-08,NaN,NaN,-0.04959321,7.450472E-11,-1.942725E-07,-1.135829E-07,1.996486E-09,-2.622604E-08
362.91,-0.0957386,-1.671347E-08,NaN,-0.3272154,-1.353223E-07,NaN,0.4574526,-1.220849E-08,NaN,-2.167292,1.189925E-05,-0.3657629,1.457747E-08,NaN,NaN,-0.04901347,7.916134E-11,-2.013505E-07,-1.135803E-07,5.572764E-09,-2.861022E-08
362.926,-0.09753725,-1.671253E-08,NaN,-0.3272165,-1.353208E-07,NaN,0.4578508,-1.218111E-08,NaN,-2.16651,1.189981E-05,-0.3656032,1.455211E-08,NaN,NaN,-0.04844501,8.381795E-11,-2.072924E-07,-1.135778E-07,1.996486E-09,-2.622604E-08
362.9418,-0.09952863,-1.671159E-08,NaN,-0.3272171,-1.353194E-07,NaN,0.4582277,-1.215273E-08,NaN,-2.165772,1.190037E-05,-0.3654389,1.452572E-08,NaN,NaN,-0.04788766,8.847457E-11,-2.135136E-07,-1.135752E-07,8.04393E-10,-2.861022E-08
362.9575,-0.09952863,-1.671159E-08,NaN,-0.3272171,-1.353194E-07,NaN,0.4582277,-1.215273E-08,NaN,-2.165772,1.190037E-05,-0.3654389,1.452572E-08,NaN,NaN,-0.04788766,8.847457E-11,-2.135136E-07,-1.135752E-07,8.04393E-10,-2.861022E-08
362.9727,-0.1023612,-1.671064E-08,NaN,-0.3272196,-1.35318E-07,NaN,0.458742,-1.212334E-08,NaN,-2.164696,1.190092E-05,-0.365305,1.449835E-08,NaN,NaN,-0.04734158,9.313118E-11,-2.259188E-07,-1.135727E-07,8.04393E-10,-2.622604E-08
362.9904,-0.1057113,-1.67097E-08,NaN,-0.3272223,-1.353165E-07,NaN,0.4593116,-1.209157E-08,NaN,-2.16355,1.190148E-05,-0.365128,1.446858E-08,NaN,NaN,-0.04680614,9.77878E-11,-2.377093E-07,-1.135702E-07,-3.876999E-10,-2.861022E-08
363.0048,-0.1093728,-1.670876E-08,NaN,-0.3272244,-1.353151E-07,NaN,0.4598757,-1.205886E-08,NaN,-2.162434,1.190204E-05,-0.3649298,1.443787E-08,NaN,NaN,-0.04628112,1.024444E-10,-2.481774E-07,-1.135676E-07,-1.579793E-09,-2.622604E-08
363.0208,-0.113215,-1.670781E-08,NaN,-0.3272256,-1.353137E-07,NaN,0.4604109,-1.202524E-08,NaN,-2.161377,1.19026E-05,-0.364729,1.440626E-08,NaN,NaN,-0.04576635,1.07101E-10,-2.56075E-07,-1.135651E-07,-3.876999E-10,-2.861022E-08
363.0367,-0.113215,-1.670781E-08,NaN,-0.3272256,-1.353137E-07,NaN,0.4604109,-1.202524E-08,NaN,-2.161377,1.19026E-05,-0.364729,1.440626E-08,NaN,NaN,-0.04576635,1.07101E-10,-2.56075E-07,-1.135651E-07,-3.876999E-10,-2.861022E-08
363.0517,-0.1178831,-1.670687E-08,NaN,-0.3272283,-1.353122E-07,NaN,0.4610779,-1.198932E-08,NaN,-2.159996,1.190316E-05,-0.3645574,1.437234E-08,NaN,NaN,-0.04526199,1.117576E-10,-2.71386E-07,-1.135626E-07,8.04393E-10,-2.622604E-08
363.0681,-0.1230512,-1.670593E-08,NaN,-0.3272307,-1.353108E-07,NaN,0.4617941,-1.195255E-08,NaN,-2.158556,1.190372E-05,-0.3643434,1.433758E-08,NaN,NaN,-0.04476745,1.164143E-10,-2.859891E-07,-1.135601E-07,8.04393E-10,-2.861022E-08
363.084,-0.1285123,-1.670498E-08,NaN,-0.3272319,-1.353094E-07,NaN,0.462499,-1.191495E-08,NaN,-2.157156,1.190427E-05,-0.3641096,1.430198E-08,NaN,NaN,-0.04428253,1.210709E-10,-2.97463E-07,-1.135576E-07,3.188579E-09,-2.622604E-08
363.0994,-0.1285123,-1.670498E-08,NaN,-0.3272319,-1.353094E-07,NaN,0.462499,-1.191495E-08,NaN,-2.157156,1.190427E-05,-0.3641096,1.430198E-08,NaN,NaN,-0.04428253,1.210709E-10,-2.97463E-07,-1.135576E-07,3.188579E-09,-2.622604E-08
363.1146,-0.1341348,-1.670404E-08,NaN,-0.3272322,-1.35308E-07,NaN,0.4631699,-1.187512E-08,NaN,-2.155826,1.190483E-05,-0.3638747,1.426416E-08,NaN,NaN,-0.04380706,1.257275E-10,-3.086761E-07,-1.135552E-07,4.380672E-09,-2.861022E-08
363.1312,-0.1405635,-1.67031E-08,NaN,-0.3272335,-1.353066E-07,NaN,0.4639689,-1.183451E-08,NaN,-2.154182,1.190539E-05,-0.3636668,1.422556E-08,NaN,NaN,-0.04334123,1.303841E-10,-3.265575E-07,-1.135527E-07,9.149043E-09,-2.622604E-08
363.1471,-0.1474726,-1.670215E-08,NaN,-0.3272342,-1.353052E-07,NaN,0.4648117,-1.179315E-08,NaN,-2.152488,1.190596E-05,-0.3634173,1.41862E-08,NaN,NaN,-0.04288445,1.257275E-10,-3.428371E-07,-1.135502E-07,1.272532E-08,-2.861022E-08
363.1629,-0.1546549,-1.670121E-08,NaN,-0.3272341,-1.353038E-07,NaN,0.465638,-1.175104E-08,NaN,-2.150844,1.190652E-05,-0.3631498,1.41461E-08,NaN,NaN,-0.04243654,1.303841E-10,-3.55205E-07,-1.135478E-07,1.272532E-08,-2.622604E-08
363.1786,-0.1546549,-1.670121E-08,NaN,-0.3272341,-1.353038E-07,NaN,0.465638,-1.175104E-08,NaN,-2.150844,1.190652E-05,-0.3631498,1.41461E-08,NaN,NaN,-0.04243654,1.303841E-10,-3.55205E-07,-1.135478E-07,1.272532E-08,-2.622604E-08
363.1936,-0.161979,-1.670027E-08,NaN,-0.3272335,-1.353024E-07,NaN,0.4664259,-1.170679E-08,NaN,-2.149278,1.190708E-05,-0.3628824,1.410386E-08,NaN,NaN,-0.04199735,1.350407E-10,-3.691376E-07,-1.135453E-07,7.956951E-09,-2.861022E-08
363.2098,-0.1700899,-1.669932E-08,NaN,-0.3272338,-1.35301E-07,NaN,0.4673385,-1.166186E-08,NaN,-2.147406,1.190763E-05,-0.3626396,1.406093E-08,NaN,NaN,-0.04156708,1.396973E-10,-3.892542E-07,-1.135429E-07,7.956951E-09,-2.622604E-08
363.2262,-0.1786619,-1.669838E-08,NaN,-0.3272334,-1.352996E-07,NaN,0.46829,-1.161626E-08,NaN,-2.145494,1.19082E-05,-0.3623562,1.401733E-08,NaN,NaN,-0.04114515,1.350407E-10,-4.068376E-07,-1.135405E-07,7.956951E-09,-2.861022E-08
363.2411,-0.1874878,-1.669744E-08,NaN,-0.3272322,-1.352982E-07,NaN,0.4692203,-1.156858E-08,NaN,-2.143638,1.190876E-05,-0.3620564,1.397166E-08,NaN,NaN,-0.04073141,1.396973E-10,-4.197271E-07,-1.135381E-07,5.572765E-09,-2.622604E-08
363.257,-0.1874878,-1.669744E-08,NaN,-0.3272322,-1.352982E-07,NaN,0.4692203,-1.156858E-08,NaN,-2.143638,1.190876E-05,-0.3620564,1.397166E-08,NaN,NaN,-0.04073141,1.396973E-10,-4.197271E-07,-1.135381E-07,5.572765E-09,-2.622604E-08
363.272,-0.1964367,-1.669649E-08,NaN,-0.3272304,-1.352969E-07,NaN,0.4701079,-1.152028E-08,NaN,-2.141869,1.190932E-05,-0.3617581,1.392537E-08,NaN,NaN,-0.04032573,1.443539E-10,-4.3474E-07,-1.135357E-07,6.764858E-09,-2.861022E-08
363.2887,-0.2061536,-1.669555E-08,NaN,-0.3272295,-1.352955E-07,NaN,0.4711175,-1.147137E-08,NaN,-2.139802,1.190988E-05,-0.3614819,1.387847E-08,NaN,NaN,-0.03992828,1.490105E-10,-4.553036E-07,-1.135333E-07,5.572765E-09,-2.622604E-08
363.3043,-0.216313,-1.669461E-08,NaN,-0.3272278,-1.352941E-07,NaN,0.4721609,-1.142188E-08,NaN,-2.137702,1.191044E-05,-0.3611661,1.383098E-08,NaN,NaN,-0.03953853,1.536671E-10,-4.73334E-07,-1.135309E-07,5.572765E-09,-2.861022E-08
363.3199,-0.216313,-1.669461E-08,NaN,-0.3272278,-1.352941E-07,NaN,0.4721609,-1.142188E-08,NaN,-2.137702,1.191044E-05,-0.3611661,1.383098E-08,NaN,NaN,-0.03953853,1.536671E-10,-4.73334E-07,-1.135309E-07,5.572765E-09,-2.861022E-08
363.335,-0.2267082,-1.669367E-08,NaN,-0.3272252,-1.352928E-07,NaN,0.4731787,-1.137038E-08,NaN,-2.135666,1.191101E-05,-0.3608357,1.378149E-08,NaN,NaN,-0.03915633,1.490105E-10,-4.883841E-07,-1.135285E-07,7.956951E-09,-2.622604E-08
363.3516,-0.2372081,-1.669273E-08,NaN,-0.3272213,-1.352914E-07,NaN,0.4741503,-1.131834E-08,NaN,-2.133723,1.191156E-05,-0.3605078,1.373146E-08,NaN,NaN,-0.03878157,1.536671E-10,-5.046264E-07,-1.135261E-07,7.956951E-09,-2.861022E-08
363.3673,-0.2484581,-1.669178E-08,NaN,-0.3272186,-1.3529E-07,NaN,0.4752408,-1.126577E-08,NaN,-2.131491,1.191212E-05,-0.3602,1.368089E-08,NaN,NaN,-0.03841442,1.583237E-10,-5.235509E-07,-1.135237E-07,8.043934E-10,-2.622604E-08
363.3837,-0.260133,-1.669084E-08,NaN,-0.3272147,-1.352887E-07,NaN,0.4763607,-1.121267E-08,NaN,-2.129232,1.191268E-05,-0.3598536,1.36298E-08,NaN,NaN,-0.03805437,1.629804E-10,-5.413577E-07,-1.135214E-07,-3.876994E-10,-2.861022E-08
363.3988,-0.260133,-1.669084E-08,NaN,-0.3272147,-1.352887E-07,NaN,0.4763607,-1.121267E-08,NaN,-2.129232,1.191268E-05,-0.3598536,1.36298E-08,NaN,NaN,-0.03805437,1.629804E-10,-5.413577E-07,-1.135214E-07,-3.876994E-10,-2.861022E-08
363.414,-0.2720261,-1.66899E-08,NaN,-0.3272089,-1.352873E-07,NaN,0.477451,-1.115765E-08,NaN,-2.127044,1.191325E-05,-0.3594938,1.357679E-08,NaN,NaN,-0.03770129,1.583237E-10,-5.581215E-07,-1.13519E-07,-3.876994E-10,-2.622604E-08
363.4305,-0.2840065,-1.668896E-08,NaN,-0.3272013,-1.35286E-07,NaN,0.4784915,-1.152787E-08,NaN,-2.124955,1.191381E-05,-0.3591383,1.394901E-08,NaN,NaN,-0.03735508,1.583237E-10,-5.739168E-07,-1.135167E-07,1.996486E-09,-2.861022E-08
363.446,-0.2967201,-1.668802E-08,NaN,-0.3271946,-1.352847E-07,NaN,0.4796485,-1.188791E-08,NaN,-2.122584,1.191436E-05,-0.3588003,1.431106E-08,NaN,NaN,-0.0370159,1.583237E-10,-5.922452E-07,-1.135144E-07,6.764858E-09,-2.622604E-08
363.4616,-0.3098415,-1.668708E-08,NaN,-0.3271864,-1.352833E-07,NaN,0.4808303,-1.223939E-08,NaN,-2.120192,1.191492E-05,-0.358425,1.466455E-08,NaN,NaN,-0.03668326,1.490105E-10,-6.112442E-07,-1.13512E-07,7.956951E-09,-2.861022E-08
363.4773,-0.3098415,-1.668708E-08,NaN,-0.3271864,-1.352833E-07,NaN,0.4808303,-1.223939E-08,NaN,-2.120192,1.191492E-05,-0.358425,1.466455E-08,NaN,NaN,-0.03668326,1.490105E-10,-6.112442E-07,-1.13512E-07,7.956951E-09,-2.861022E-08
363.4939,-0.3231644,-1.668614E-08,NaN,-0.3271761,-1.35282E-07,NaN,0.4819786,-1.258248E-08,NaN,-2.117878,1.191547E-05,-0.3580387,1.500963E-08,NaN,NaN,-0.03635706,1.443539E-10,-6.286785E-07,-1.135097E-07,4.380672E-09,-2.622604E-08
363.509,-0.3365582,-1.668519E-08,NaN,-0.3271638,-1.352807E-07,NaN,0.4830739,-1.291733E-08,NaN,-2.115669,1.191603E-05,-0.3576582,1.534649E-08,NaN,NaN,-0.0360372,1.396973E-10,-6.435797E-07,-1.135074E-07,5.572764E-09,-2.861022E-08
363.5247,-0.3506687,-1.668425E-08,NaN,-0.3271524,-1.352793E-07,NaN,0.4842835,-1.324269E-08,NaN,-2.113184,1.191658E-05,-0.3572927,1.567386E-08,NaN,NaN,-0.03572383,1.350407E-10,-6.626532E-07,-1.135051E-07,1.034114E-08,-2.622604E-08
363.5405,-0.3651709,-1.668331E-08,NaN,-0.3271393,-1.35278E-07,NaN,0.4855137,-1.356018E-08,NaN,-2.110685,1.191714E-05,-0.3568915,1.599335E-08,NaN,NaN,-0.03541651,1.303841E-10,-6.793425E-07,-1.135028E-07,9.149043E-09,-2.861022E-08
363.5563,-0.3651709,-1.668331E-08,NaN,-0.3271393,-1.35278E-07,NaN,0.4855137,-1.356018E-08,NaN,-2.110685,1.191714E-05,-0.3568915,1.599335E-08,NaN,NaN,-0.03541651,1.303841E-10,-6.793425E-07,-1.135028E-07,9.149043E-09,-2.861022E-08
363.5709,-0.3798586,-1.668237E-08,NaN,-0.3271239,-1.352767E-07,NaN,0.4867067,-1.386993E-08,NaN,-2.108269,1.191769E-05,-0.3564814,1.63051E-08,NaN,NaN,-0.03511512,1.257275E-10,-6.946906E-07,-1.135005E-07,4.380672E-09,-2.622604E-08
363.5874,-0.3946015,-1.668143E-08,NaN,-0.3271065,-1.352754E-07,NaN,0.487844,-1.41721E-08,NaN,-2.105964,1.191824E-05,-0.3560789,1.660928E-08,NaN,NaN,-0.03481958,1.210709E-10,-7.103368E-07,-1.134983E-07,4.380672E-09,-2.861022E-08
363.6031,-0.4100454,-1.668049E-08,NaN,-0.32709,-1.352741E-07,NaN,0.4890935,-1.446684E-08,NaN,-2.103388,1.19188E-05,-0.3556887,1.690603E-08,NaN,NaN,-0.03453005,1.164142E-10,-7.273242E-07,-1.13496E-07,6.764858E-09,-2.622604E-08
363.6192,-0.4100454,-1.668049E-08,NaN,-0.32709,-1.352741E-07,NaN,0.4890935,-1.446684E-08,NaN,-2.103388,1.19188E-05,-0.3556887,1.690603E-08,NaN,NaN,-0.03453005,1.164142E-10,-7.273242E-07,-1.13496E-07,6.764858E-09,-2.622604E-08
363.6341,-0.4258657,-1.667954E-08,NaN,-0.3270718,-1.352728E-07,NaN,0.4903597,-1.475289E-08,NaN,-2.100804,1.191936E-05,-0.3552645,1.719409E-08,NaN,NaN,-0.03424609,1.024444E-10,-7.438645E-07,-1.134937E-07,6.764858E-09,-2.861022E-08
363.6507,-0.4418563,-1.667861E-08,NaN,-0.3270511,-1.352715E-07,NaN,0.4915853,-1.503182E-08,NaN,-2.098309,1.191991E-05,-0.3548339,1.747502E-08,NaN,NaN,-0.03396761,1.024444E-10,-7.601067E-07,-1.134915E-07,6.764858E-09,-2.622604E-08
363.6664,-0.4578869,-1.667767E-08,NaN,-0.3270284,-1.352702E-07,NaN,0.4927526,-1.530378E-08,NaN,-2.095929,1.192047E-05,-0.3544125,1.774899E-08,NaN,NaN,-0.03369453,9.313118E-11,-7.753059E-07,-1.134892E-07,1.034114E-08,-2.861022E-08
363.6823,-0.4746037,-1.667673E-08,NaN,-0.3270066,-1.352685E-07,NaN,0.4940305,-1.569709E-08,NaN,-2.093285,1.192102E-05,-0.3540007,1.814431E-08,NaN,NaN,-0.03342699,9.313118E-11,-7.908031E-07,-1.134879E-07,1.272532E-08,-2.622604E-08
363.6981,-0.4746037,-1.667673E-08,NaN,-0.3270066,-1.352685E-07,NaN,0.4940305,-1.569709E-08,NaN,-2.093285,1.192102E-05,-0.3540007,1.814431E-08,NaN,NaN,-0.03342699,9.313118E-11,-7.908031E-07,-1.134879E-07,1.272532E-08,-2.622604E-08
363.7128,-0.4916822,-1.667579E-08,NaN,-0.326983,-1.352668E-07,NaN,0.4953212,-1.606287E-08,NaN,-2.090637,1.192157E-05,-0.3535571,1.85121E-08,NaN,NaN,-0.0331646,9.313118E-11,-8.071944E-07,-1.134867E-07,1.272532E-08,-2.861022E-08
363.7295,-0.5089164,-1.667485E-08,NaN,-0.3269569,-1.352652E-07,NaN,0.4965684,-1.641152E-08,NaN,-2.088082,1.192212E-05,-0.3531091,1.886276E-08,NaN,NaN,-0.03290727,9.313118E-11,-8.194133E-07,-1.134855E-07,1.272532E-08,-2.622604E-08
363.7451,-0.5261763,-1.667391E-08,NaN,-0.3269288,-1.352636E-07,NaN,0.4977552,-1.67476E-08,NaN,-2.085648,1.192268E-05,-0.3526722,1.920085E-08,NaN,NaN,-0.03265493,8.381796E-11,-8.316323E-07,-1.134844E-07,9.149042E-09,-2.861022E-08
363.7612,-0.5441082,-1.667297E-08,NaN,-0.3269016,-1.352621E-07,NaN,0.4990509,-1.707417E-08,NaN,-2.082955,1.192322E-05,-0.3522421,1.952944E-08,NaN,NaN,-0.0324077,8.381796E-11,-8.474275E-07,-1.134832E-07,1.391741E-08,-2.622604E-08
363.777,-0.5441082,-1.667297E-08,NaN,-0.3269016,-1.352621E-07,NaN,0.4990509,-1.707417E-08,NaN,-2.082955,1.192322E-05,-0.3522421,1.952944E-08,NaN,NaN,-0.0324077,8.381796E-11,-8.474275E-07,-1.134832E-07,1.391741E-08,-2.622604E-08
363.7918,-0.5623877,-1.667203E-08,NaN,-0.3268726,-1.352605E-07,NaN,0.5003559,-1.739143E-08,NaN,-2.080262,1.192377E-05,-0.3517823,1.984871E-08,NaN,NaN,-0.03216522,8.381796E-11,-8.617326E-07,-1.134821E-07,1.63016E-08,-2.861022E-08
363.808,-0.5808091,-1.667109E-08,NaN,-0.326841,-1.35259E-07,NaN,0.5016147,-1.769955E-08,NaN,-2.077667,1.192432E-05,-0.3513206,2.015884E-08,NaN,NaN,-0.03192741,8.381796E-11,-8.724615E-07,-1.13481E-07,1.391741E-08,-2.622604E-08
363.8237,-0.5992424,-1.667015E-08,NaN,-0.3268074,-1.352575E-07,NaN,0.5028112,-1.800012E-08,NaN,-2.075197,1.192487E-05,-0.3508716,2.046142E-08,NaN,NaN,-0.03169421,8.381796E-11,-8.819982E-07,-1.134799E-07,1.749369E-08,-2.861022E-08
363.8395,-0.5992424,-1.667015E-08,NaN,-0.3268074,-1.352575E-07,NaN,0.5028112,-1.800012E-08,NaN,-2.075197,1.192487E-05,-0.3508716,2.046142E-08,NaN,NaN,-0.03169421,8.381796E-11,-8.819982E-07,-1.134799E-07,1.749369E-08,-2.861022E-08
363.8546,-0.6183342,-1.666921E-08,NaN,-0.3267749,-1.352559E-07,NaN,0.5041153,-1.82933E-08,NaN,-2.072473,1.192542E-05,-0.3504268,2.075661E-08,NaN,NaN,-0.03146574,8.381796E-11,-8.930251E-07,-1.134788E-07,1.868579E-08,-2.622604E-08
363.871,-0.6377602,-1.666827E-08,NaN,-0.3267404,-1.352544E-07,NaN,0.5054253,-1.858063E-08,NaN,-2.069753,1.192597E-05,-0.3499545,2.104595E-08,NaN,NaN,-0.03124164,8.381796E-11,-9.0435E-07,-1.134776E-07,2.941462E-08,-2.861022E-08
363.8871,-0.6573148,-1.666733E-08,NaN,-0.3267033,-1.352529E-07,NaN,0.5066867,-1.886082E-08,NaN,-2.067135,1.192652E-05,-0.3494826,2.132816E-08,NaN,NaN,-0.03102186,8.381796E-11,-9.147808E-07,-1.134765E-07,2.703044E-08,-2.622604E-08
363.9027,-0.6768683,-1.666639E-08,NaN,-0.3266643,-1.352514E-07,NaN,0.5078844,-1.913401E-08,NaN,-2.064646,1.192707E-05,-0.349025,2.160336E-08,NaN,NaN,-0.03080634,8.381796E-11,-9.222314E-07,-1.134754E-07,3.179881E-08,-2.861022E-08
363.9187,-0.6768683,-1.666639E-08,NaN,-0.3266643,-1.352514E-07,NaN,0.5078844,-1.913401E-08,NaN,-2.064646,1.192707E-05,-0.349025,2.160336E-08,NaN,NaN,-0.03080634,8.381796E-11,-9.222314E-07,-1.134754E-07,3.179881E-08,-2.861022E-08
363.9336,-0.6970674,-1.666545E-08,NaN,-0.3266264,-1.352499E-07,NaN,0.5091883,-1.940033E-08,NaN,-2.061906,1.192762E-05,-0.3485691,2.187169E-08,NaN,NaN,-0.03059518,8.381796E-11,-9.341523E-07,-1.134743E-07,3.4183E-08,-2.622604E-08
363.9502,-0.7175878,-1.666451E-08,NaN,-0.3265865,-1.352484E-07,NaN,0.5104951,-1.966134E-08,NaN,-2.059176,1.192817E-05,-0.348088,2.213472E-08,NaN,NaN,-0.03038806,8.381796E-11,-9.463712E-07,-1.134732E-07,3.4183E-08,-2.861022E-08
363.9659,-0.7382242,-1.666357E-08,NaN,-0.3265441,-1.352469E-07,NaN,0.5117513,-1.991572E-08,NaN,-2.056551,1.192872E-05,-0.3476095,2.239111E-08,NaN,NaN,-0.03018493,8.381796E-11,-9.55908E-07,-1.134722E-07,3.179881E-08,-2.622604E-08
363.9818,-0.7588471,-1.666263E-08,NaN,-0.3264997,-1.352454E-07,NaN,0.5129423,-2.016361E-08,NaN,-2.054058,1.192927E-05,-0.3471469,2.264101E-08,NaN,NaN,-0.02998574,8.381796E-11,-9.636566E-07,-1.134711E-07,2.464625E-08,-2.861022E-08
363.9989,-0.7588471,-1.666263E-08,NaN,-0.3264997,-1.352454E-07,NaN,0.5129423,-2.016361E-08,NaN,-2.054058,1.192927E-05,-0.3471469,2.264101E-08,NaN,NaN,-0.02998574,8.381796E-11,-9.636566E-07,-1.134711E-07,2.464625E-08,-2.861022E-08
364.0123,-0.7795959,-1.66617E-08,NaN,-0.3264548,-1.352439E-07,NaN,0.5141205,-2.040654E-08,NaN,-2.051582,1.192982E-05,-0.3466974,2.288596E-08,NaN,NaN,-0.02979046,8.381796E-11,-9.722993E-07,-1.1347E-07,2.226207E-08,-2.622604E-08
364.0291,-0.8003371,-1.666076E-08,NaN,-0.3264092,-1.352425E-07,NaN,0.5152577,-2.064321E-08,NaN,-2.049196,1.193037E-05,-0.3462542,2.312463E-08,NaN,NaN,-0.02959895,8.381796E-11,-9.800478E-07,-1.134689E-07,2.464625E-08,-2.861022E-08
364.0445,-0.8209865,-1.665982E-08,NaN,-0.326363,-1.35241E-07,NaN,0.5163421,-2.087513E-08,NaN,-2.046921,1.193092E-05,-0.3458245,2.335857E-08,NaN,NaN,-0.02941116,8.381796E-11,-9.839222E-07,-1.134678E-07,2.464625E-08,-2.622604E-08
364.0602,-0.8414918,-1.665888E-08,NaN,-0.3263168,-1.352395E-07,NaN,0.5173729,-2.110101E-08,NaN,-2.04476,1.193146E-05,-0.3454112,2.358646E-08,NaN,NaN,-0.02922702,8.381796E-11,-9.860083E-07,-1.134668E-07,2.464625E-08,-2.861022E-08
364.0761,-0.8414918,-1.665888E-08,NaN,-0.3263168,-1.352395E-07,NaN,0.5173729,-2.110101E-08,NaN,-2.04476,1.193146E-05,-0.3454112,2.358646E-08,NaN,NaN,-0.02922702,8.381796E-11,-9.860083E-07,-1.134668E-07,2.464625E-08,-2.861022E-08
364.0911,-0.8618207,-1.665794E-08,NaN,-0.3262711,-1.352381E-07,NaN,0.5183532,-2.132094E-08,NaN,-2.042708,1.193201E-05,-0.3450142,2.380841E-08,NaN,NaN,-0.02904646,8.381796E-11,-9.907767E-07,-1.134657E-07,2.703044E-08,-2.622604E-08
364.1076,-0.8819535,-1.665701E-08,NaN,-0.3262264,-1.352366E-07,NaN,0.5192868,-2.153647E-08,NaN,-2.040757,1.193257E-05,-0.3446328,2.402595E-08,NaN,NaN,-0.02886941,7.450474E-11,-9.937569E-07,-1.134646E-07,2.703044E-08,-2.861022E-08
364.1233,-0.9018789,-1.665607E-08,NaN,-0.3261829,-1.352351E-07,NaN,0.5201769,-2.174627E-08,NaN,-2.038901,1.193312E-05,-0.3442659,2.423775E-08,NaN,NaN,-0.0286958,7.450474E-11,-9.964391E-07,-1.134636E-07,2.226206E-08,-2.622604E-08
364.1392,-0.9018789,-1.665607E-08,NaN,-0.3261829,-1.352351E-07,NaN,0.5201769,-2.174627E-08,NaN,-2.038901,1.193312E-05,-0.3442659,2.423775E-08,NaN,NaN,-0.0286958,7.450474E-11,-9.964391E-07,-1.134636E-07,2.226206E-08,-2.622604E-08
364.1543,-0.9215904,-1.665513E-08,NaN,-0.3261408,-1.352337E-07,NaN,0.5210264,-2.195044E-08,NaN,-2.037135,1.193367E-05,-0.3439128,2.444394E-08,NaN,NaN,-0.02852558,7.450474E-11,-9.979292E-07,-1.134625E-07,2.226206E-08,-2.861022E-08
364.1703,-0.9410851,-1.665419E-08,NaN,-0.3261004,-1.352322E-07,NaN,0.5218376,-2.215051E-08,NaN,-2.035455,1.193422E-05,-0.3435727,2.464603E-08,NaN,NaN,-0.02835868,7.450474E-11,-9.979292E-07,-1.134615E-07,1.987788E-08,-2.622604E-08
364.186,-0.9603619,-1.665325E-08,NaN,-0.3260616,-1.352308E-07,NaN,0.5226122,-2.234516E-08,NaN,-2.033856,1.193478E-05,-0.3432452,2.484269E-08,NaN,NaN,-0.02819502,6.519151E-11,-9.991213E-07,-1.134604E-07,1.749369E-08,-2.861022E-08
364.2018,-0.9794211,-1.665232E-08,NaN,-0.3260245,-1.352294E-07,NaN,0.5233518,-2.253589E-08,NaN,-2.032337,1.193533E-05,-0.3429297,2.503544E-08,NaN,NaN,-0.02803455,6.519151E-11,-9.973331E-07,-1.134594E-07,1.272532E-08,-2.622604E-08
364.2177,-0.9794211,-1.665232E-08,NaN,-0.3260245,-1.352294E-07,NaN,0.5233518,-2.253589E-08,NaN,-2.032337,1.193533E-05,-0.3429297,2.503544E-08,NaN,NaN,-0.02803455,6.519151E-11,-9.973331E-07,-1.134594E-07,1.272532E-08,-2.622604E-08
364.2328,-0.9982637,-1.665138E-08,NaN,-0.3259892,-1.352279E-07,NaN,0.5240578,-2.272138E-08,NaN,-2.030894,1.193588E-05,-0.342626,2.522293E-08,NaN,NaN,-0.02787721,6.05349E-11,-9.949489E-07,-1.134583E-07,1.749369E-08,-2.861022E-08
364.249,-1.016891,-1.665044E-08,NaN,-0.3259555,-1.352265E-07,NaN,0.5247312,-2.290172E-08,NaN,-2.029525,1.193643E-05,-0.3423337,2.540529E-08,NaN,NaN,-0.02772293,6.519151E-11,-9.937568E-07,-1.134573E-07,1.510951E-08,-2.622604E-08
364.265,-1.035306,-1.66495E-08,NaN,-0.3259236,-1.352251E-07,NaN,0.5253732,-2.307844E-08,NaN,-2.028228,1.193698E-05,-0.3420526,2.558401E-08,NaN,NaN,-0.02757166,6.05349E-11,-9.931607E-07,-1.134562E-07,1.510951E-08,-2.861022E-08
364.2803,-1.05351,-1.664857E-08,NaN,-0.3258932,-1.352237E-07,NaN,0.5259846,-2.325017E-08,NaN,-2.027001,1.193753E-05,-0.3417824,2.575776E-08,NaN,NaN,-0.02742334,6.519151E-11,-9.872002E-07,-1.134552E-07,1.272532E-08,-2.622604E-08
364.2963,-1.05351,-1.664857E-08,NaN,-0.3258932,-1.352237E-07,NaN,0.5259846,-2.325017E-08,NaN,-2.027001,1.193753E-05,-0.3417824,2.575776E-08,NaN,NaN,-0.02742334,6.519151E-11,-9.872002E-07,-1.134552E-07,1.272532E-08,-2.622604E-08
364.3109,-1.071505,-1.664763E-08,NaN,-0.3258645,-1.352223E-07,NaN,0.5265664,-2.341704E-08,NaN,-2.025843,1.193808E-05,-0.3415229,2.592664E-08,NaN,NaN,-0.02727791,6.05349E-11,-9.818358E-07,-1.134542E-07,7.956952E-09,-2.861022E-08
364.3275,-1.089293,-1.664669E-08,NaN,-0.3258373,-1.352208E-07,NaN,0.5271196,-2.358053E-08,NaN,-2.024752,1.193862E-05,-0.3412739,2.609215E-08,NaN,NaN,-0.02713532,6.519151E-11,-9.764714E-07,-1.134532E-07,7.956952E-09,-2.622604E-08
364.343,-1.106877,-1.664576E-08,NaN,-0.3258117,-1.352194E-07,NaN,0.5276448,-2.373932E-08,NaN,-2.023726,1.193917E-05,-0.3410352,2.625295E-08,NaN,NaN,-0.0269955,6.984813E-11,-9.71703E-07,-1.134521E-07,1.034114E-08,-2.861022E-08
364.3591,-1.106877,-1.664576E-08,NaN,-0.3258117,-1.352194E-07,NaN,0.5276448,-2.373932E-08,NaN,-2.023726,1.193917E-05,-0.3410352,2.625295E-08,NaN,NaN,-0.0269955,6.984813E-11,-9.71703E-07,-1.134521E-07,1.034114E-08,-2.861022E-08
364.374,-1.124259,-1.664482E-08,NaN,-0.3257876,-1.35218E-07,NaN,0.528143,-2.38949E-08,NaN,-2.022763,1.193972E-05,-0.3408065,2.641054E-08,NaN,NaN,-0.02685842,6.984813E-11,-9.699148E-07,-1.134511E-07,5.572766E-09,-2.622604E-08
364.3904,-1.141442,-1.664389E-08,NaN,-0.3257649,-1.352166E-07,NaN,0.5286149,-2.404593E-08,NaN,-2.021863,1.194027E-05,-0.3405876,2.656358E-08,NaN,NaN,-0.02672401,6.519151E-11,-9.657425E-07,-1.134501E-07,8.043948E-10,-2.861022E-08
364.4058,-1.158427,-1.664295E-08,NaN,-0.3257436,-1.352152E-07,NaN,0.5290612,-2.419248E-08,NaN,-2.021022,1.194083E-05,-0.3403784,2.671215E-08,NaN,NaN,-0.02659222,6.05349E-11,-9.609741E-07,-1.134491E-07,-6.348162E-09,-2.622604E-08
364.4217,-1.175217,-1.664201E-08,NaN,-0.3257236,-1.352139E-07,NaN,0.5294827,-2.433607E-08,NaN,-2.020241,1.194138E-05,-0.3401786,2.685775E-08,NaN,NaN,-0.02646301,6.05349E-11,-9.562058E-07,-1.134481E-07,-8.732348E-09,-2.861022E-08
364.4373,-1.175217,-1.664201E-08,NaN,-0.3257236,-1.352139E-07,NaN,0.5294827,-2.433607E-08,NaN,-2.020241,1.194138E-05,-0.3401786,2.685775E-08,NaN,NaN,-0.02646301,6.05349E-11,-9.562058E-07,-1.134481E-07,-8.732348E-09,-2.861022E-08
364.4522,-1.191814,-1.664108E-08,NaN,-0.3257049,-1.352125E-07,NaN,0.52988,-2.447534E-08,NaN,-2.019518,1.194192E-05,-0.3399881,2.699903E-08,NaN,NaN,-0.02633631,6.05349E-11,-9.502453E-07,-1.134471E-07,-1.111653E-08,-2.622604E-08
364.4688,-1.20822,-1.664014E-08,NaN,-0.3256876,-1.352111E-07,NaN,0.5302538,-2.461178E-08,NaN,-2.01885,1.194247E-05,-0.3398066,2.713748E-08,NaN,NaN,-0.02621209,6.05349E-11,-9.442848E-07,-1.134461E-07,-1.111653E-08,-2.861022E-08
364.4847,-1.224438,-1.663921E-08,NaN,-0.3256714,-1.352097E-07,NaN,0.5306049,-2.474403E-08,NaN,-2.018238,1.194302E-05,-0.3396339,2.727175E-08,NaN,NaN,-0.02609029,6.05349E-11,-9.383243E-07,-1.134451E-07,-6.348162E-09,-2.622604E-08
364.5005,-1.240469,-1.663827E-08,NaN,-0.3256565,-1.352084E-07,NaN,0.5309338,-2.487219E-08,NaN,-2.017679,1.194357E-05,-0.3394699,2.740192E-08,NaN,NaN,-0.02597088,6.05349E-11,-9.311718E-07,-1.134441E-07,-6.348162E-09,-2.861022E-08
364.5236,-1.256316,-1.663733E-08,NaN,-0.3256427,-1.35207E-07,NaN,0.5312412,-2.499774E-08,NaN,-2.017172,1.194412E-05,-0.3393143,2.752948E-08,NaN,NaN,-0.02585379,6.05349E-11,-9.228271E-07,-1.134431E-07,-8.732348E-09,-2.622604E-08
364.5318,-1.256316,-1.663733E-08,NaN,-0.3256427,-1.35207E-07,NaN,0.5312412,-2.499774E-08,NaN,-2.017172,1.194412E-05,-0.3393143,2.752948E-08,NaN,NaN,-0.02585379,6.05349E-11,-9.228271E-07,-1.134431E-07,-8.732348E-09,-2.622604E-08
364.5471,-1.271981,-1.66364E-08,NaN,-0.32563,-1.352056E-07,NaN,0.5315276,-2.511932E-08,NaN,-2.016716,1.194467E-05,-0.3391669,2.765307E-08,NaN,NaN,-0.02573899,6.05349E-11,-9.144824E-07,-1.134421E-07,-1.579791E-09,-2.861022E-08
364.5634,-1.287466,-1.663546E-08,NaN,-0.3256184,-1.352043E-07,NaN,0.5317938,-2.523842E-08,NaN,-2.016309,1.194522E-05,-0.3390276,2.777418E-08,NaN,NaN,-0.02562644,6.05349E-11,-9.067338E-07,-1.134411E-07,-1.579791E-09,-2.622604E-08
364.5793,-1.287466,-1.663546E-08,NaN,-0.3256184,-1.352043E-07,NaN,0.5317938,-2.523842E-08,NaN,-2.016309,1.194522E-05,-0.3390276,2.777418E-08,NaN,NaN,-0.02562644,6.05349E-11,-9.067338E-07,-1.134411E-07,-1.579791E-09,-2.622604E-08
364.5945,-1.302773,-1.663452E-08,NaN,-0.3256079,-1.352029E-07,NaN,0.5320401,-2.535367E-08,NaN,-2.015951,1.194577E-05,-0.3388963,2.789145E-08,NaN,NaN,-0.02551608,6.05349E-11,-9.001773E-07,-1.134401E-07,-3.963977E-09,-2.861022E-08
364.6108,-1.317904,-1.663359E-08,NaN,-0.3255984,-1.352016E-07,NaN,0.5322673,-2.546516E-08,NaN,-2.01564,1.194632E-05,-0.3387726,2.800495E-08,NaN,NaN,-0.02540788,6.05349E-11,-8.930248E-07,-1.134391E-07,-3.963977E-09,-2.622604E-08
364.6269,-1.33264,-1.663266E-08,NaN,-0.3255891,-1.352002E-07,NaN,0.5324248,-2.557442E-08,NaN,-2.015488,1.194687E-05,-0.3386662,2.811622E-08,NaN,NaN,-0.02530176,6.05349E-11,-8.846801E-07,-1.134382E-07,-6.348162E-09,-2.861022E-08
364.6423,-1.347066,-1.663172E-08,NaN,-0.325581,-1.351989E-07,NaN,0.5325485,-2.568001E-08,NaN,-2.015414,1.194742E-05,-0.3385777,2.822383E-08,NaN,NaN,-0.02519773,5.587828E-11,-8.775276E-07,-1.134372E-07,-1.579791E-09,-2.622604E-08
364.6584,-1.347066,-1.663172E-08,NaN,-0.325581,-1.351989E-07,NaN,0.5325485,-2.568001E-08,NaN,-2.015414,1.194742E-05,-0.3385777,2.822383E-08,NaN,NaN,-0.02519773,5.587828E-11,-8.775276E-07,-1.134372E-07,-1.579791E-09,-2.622604E-08
364.6732,-1.361237,-1.663079E-08,NaN,-0.3255745,-1.351975E-07,NaN,0.5326552,-2.578345E-08,NaN,-2.015386,1.194797E-05,-0.3384987,2.832927E-08,NaN,NaN,-0.02509574,5.587828E-11,-8.679908E-07,-1.134362E-07,-6.348162E-09,-2.861022E-08
364.6898,-1.375188,-1.662985E-08,NaN,-0.3255694,-1.351962E-07,NaN,0.5327501,-2.588335E-08,NaN,-2.01539,1.194852E-05,-0.3384258,2.843118E-08,NaN,NaN,-0.02499574,5.587828E-11,-8.590501E-07,-1.134353E-07,-3.963977E-09,-2.622604E-08
364.7064,-1.388215,-1.662892E-08,NaN,-0.3255633,-1.351949E-07,NaN,0.5326664,-2.598119E-08,NaN,-2.015799,1.194907E-05,-0.3383899,2.853104E-08,NaN,NaN,-0.02489761,5.587828E-11,-8.495134E-07,-1.134343E-07,-6.348162E-09,-2.861022E-08
364.7219,-1.400605,-1.662798E-08,NaN,-0.325559,-1.351935E-07,NaN,0.5325202,-2.607561E-08,NaN,-2.016348,1.194961E-05,-0.3383935,2.862747E-08,NaN,NaN,-0.02480144,6.519151E-11,-8.346123E-07,-1.134333E-07,-8.732348E-09,-2.622604E-08
364.7377,-1.400605,-1.662798E-08,NaN,-0.325559,-1.351935E-07,NaN,0.5325202,-2.607561E-08,NaN,-2.016348,1.194961E-05,-0.3383935,2.862747E-08,NaN,NaN,-0.02480144,6.519151E-11,-8.346123E-07,-1.134333E-07,-8.732348E-09,-2.622604E-08
364.7525,-1.412544,-1.662705E-08,NaN,-0.325557,-1.351922E-07,NaN,0.5323642,-2.616667E-08,NaN,-2.016932,1.195016E-05,-0.3384096,2.872054E-08,NaN,NaN,-0.02470718,6.519151E-11,-8.268636E-07,-1.134324E-07,-1.111653E-08,-2.861022E-08
364.769,-1.424148,-1.662612E-08,NaN,-0.3255564,-1.351909E-07,NaN,0.5322142,-2.625585E-08,NaN,-2.017515,1.195071E-05,-0.338427,2.881174E-08,NaN,NaN,-0.02461476,6.519151E-11,-8.155388E-07,-1.134314E-07,-1.58849E-08,-2.622604E-08
364.7846,-1.434766,-1.662518E-08,NaN,-0.3255554,-1.351896E-07,NaN,0.5319032,-2.634177E-08,NaN,-2.018467,1.195126E-05,-0.3384753,2.889967E-08,NaN,NaN,-0.02452405,6.519151E-11,-8.012337E-07,-1.134305E-07,-1.111653E-08,-2.861022E-08
364.8003,-1.444719,-1.662425E-08,NaN,-0.3255556,-1.351883E-07,NaN,0.5315452,-2.642592E-08,NaN,-2.019525,1.195181E-05,-0.3385572,2.898583E-08,NaN,NaN,-0.02443517,6.519151E-11,-7.899088E-07,-1.134295E-07,-8.732346E-09,-2.622604E-08
364.8163,-1.444719,-1.662425E-08,NaN,-0.3255556,-1.351883E-07,NaN,0.5315452,-2.642592E-08,NaN,-2.019525,1.195181E-05,-0.3385572,2.898583E-08,NaN,NaN,-0.02443517,6.519151E-11,-7.899088E-07,-1.134295E-07,-8.732346E-09,-2.622604E-08
364.8312,-1.454212,-1.662331E-08,NaN,-0.3255571,-1.35187E-07,NaN,0.5311903,-2.65069E-08,NaN,-2.020589,1.195236E-05,-0.3386465,2.906883E-08,NaN,NaN,-0.02434805,6.519151E-11,-7.773918E-07,-1.134286E-07,-8.732346E-09,-2.861022E-08
364.8474,-1.463376,-1.662238E-08,NaN,-0.3255593,-1.351857E-07,NaN,0.5308518,-2.658621E-08,NaN,-2.021629,1.195291E-05,-0.3387333,2.915014E-08,NaN,NaN,-0.02426264,6.519151E-11,-7.66067E-07,-1.134276E-07,-8.732346E-09,-2.622604E-08
364.8631,-1.471566,-1.662144E-08,NaN,-0.325561,-1.351844E-07,NaN,0.5303608,-2.666245E-08,NaN,-2.023016,1.195346E-05,-0.338847,2.92284E-08,NaN,NaN,-0.02417879,6.519151E-11,-7.517619E-07,-1.134267E-07,-6.348161E-09,-2.861022E-08
364.8786,-1.471566,-1.662144E-08,NaN,-0.325561,-1.351844E-07,NaN,0.5303608,-2.666245E-08,NaN,-2.023016,1.195346E-05,-0.338847,2.92284E-08,NaN,NaN,-0.02417879,6.519151E-11,-7.517619E-07,-1.134267E-07,-6.348161E-09,-2.861022E-08
364.8938,-1.47911,-1.662051E-08,NaN,-0.3255635,-1.351831E-07,NaN,0.5298298,-2.673569E-08,NaN,-2.024492,1.195401E-05,-0.3389918,2.930365E-08,NaN,NaN,-0.02409663,6.519151E-11,-7.374568E-07,-1.134258E-07,-8.732346E-09,-2.622604E-08
364.9099,-1.486216,-1.661958E-08,NaN,-0.3255676,-1.351818E-07,NaN,0.5293083,-2.680739E-08,NaN,-2.025959,1.195455E-05,-0.3391423,2.937737E-08,NaN,NaN,-0.02401611,6.519151E-11,-7.255359E-07,-1.134248E-07,-6.348161E-09,-2.861022E-08
364.9257,-1.493016,-1.661864E-08,NaN,-0.3255737,-1.351805E-07,NaN,0.528809,-2.687619E-08,NaN,-2.027387,1.19551E-05,-0.3392886,2.944818E-08,NaN,NaN,-0.02393717,6.519151E-11,-7.13615E-07,-1.134239E-07,-6.348161E-09,-2.622604E-08
364.9417,-1.498868,-1.661771E-08,NaN,-0.3255792,-1.351792E-07,NaN,0.5281625,-2.694354E-08,NaN,-2.02915,1.195565E-05,-0.339458,2.951754E-08,NaN,NaN,-0.02385966,6.519151E-11,-6.981177E-07,-1.13423E-07,-8.732346E-09,-2.861022E-08
364.9575,-1.498868,-1.661771E-08,NaN,-0.3255792,-1.351792E-07,NaN,0.5281625,-2.694354E-08,NaN,-2.02915,1.195565E-05,-0.339458,2.951754E-08,NaN,NaN,-0.02385966,6.519151E-11,-6.981177E-07,-1.13423E-07,-8.732346E-09,-2.861022E-08
364.9723,-1.504098,-1.661678E-08,NaN,-0.3255861,-1.35178E-07,NaN,0.5274804,-2.700806E-08,NaN,-2.030989,1.19562E-05,-0.3396577,2.958408E-08,NaN,NaN,-0.02378372,6.519151E-11,-6.814284E-07,-1.134221E-07,-6.348161E-09,-2.622604E-08
364.9887,-1.508916,-1.661585E-08,NaN,-0.3255948,-1.351767E-07,NaN,0.5268126,-2.707122E-08,NaN,-2.032807,1.195675E-05,-0.3398615,2.964925E-08,NaN,NaN,-0.02370929,6.519151E-11,-6.671233E-07,-1.134211E-07,-6.348161E-09,-2.861022E-08
365.0039,-1.513454,-1.661491E-08,NaN,-0.3256055,-1.351754E-07,NaN,0.5261716,-2.713164E-08,NaN,-2.034574,1.19573E-05,-0.3400593,2.971168E-08,NaN,NaN,-0.02363633,6.519151E-11,-6.528182E-07,-1.134202E-07,-6.348161E-09,-2.622604E-08
365.0211,-1.517069,-1.661398E-08,NaN,-0.3256151,-1.351741E-07,NaN,0.5253876,-2.719077E-08,NaN,-2.036665,1.195785E-05,-0.3402768,2.977283E-08,NaN,NaN,-0.02356467,6.519151E-11,-6.349368E-07,-1.134193E-07,-3.963975E-09,-2.861022E-08
365.0353,-1.517069,-1.661398E-08,NaN,-0.3256151,-1.351741E-07,NaN,0.5253876,-2.719077E-08,NaN,-2.036665,1.195785E-05,-0.3402768,2.977283E-08,NaN,NaN,-0.02356467,6.519151E-11,-6.349368E-07,-1.134193E-07,-3.963975E-09,-2.861022E-08
365.0504,-1.520088,-1.661305E-08,NaN,-0.3256255,-1.351729E-07,NaN,0.5245715,-2.724724E-08,NaN,-2.038821,1.19584E-05,-0.3405236,2.983131E-08,NaN,NaN,-0.02349447,6.519151E-11,-6.182476E-07,-1.134184E-07,-1.111653E-08,-2.622604E-08
365.0668,-1.522719,-1.661212E-08,NaN,-0.325637,-1.351716E-07,NaN,0.5237734,-2.73011E-08,NaN,-2.040944,1.195895E-05,-0.3407735,2.988718E-08,NaN,NaN,-0.02342566,6.519151E-11,-6.027503E-07,-1.134175E-07,-8.732346E-09,-2.861022E-08
365.0828,-1.525095,-1.661118E-08,NaN,-0.3256496,-1.351704E-07,NaN,0.5230062,-2.73538E-08,NaN,-2.043007,1.19595E-05,-0.3410161,2.994189E-08,NaN,NaN,-0.02335821,6.519151E-11,-5.866571E-07,-1.134166E-07,-1.350072E-08,-2.622604E-08
365.0984,-1.525095,-1.661118E-08,NaN,-0.3256496,-1.351704E-07,NaN,0.5230062,-2.73538E-08,NaN,-2.043007,1.19595E-05,-0.3410161,2.994189E-08,NaN,NaN,-0.02335821,6.519151E-11,-5.866571E-07,-1.134166E-07,-1.350072E-08,-2.622604E-08
365.1132,-1.526574,-1.661025E-08,NaN,-0.3256606,-1.351691E-07,NaN,0.5220996,-2.740396E-08,NaN,-2.045383,1.196005E-05,-0.3412747,2.999407E-08,NaN,NaN,-0.02329195,6.519151E-11,-5.699678E-07,-1.134157E-07,-1.58849E-08,-2.861022E-08
365.1295,-1.52748,-1.660932E-08,NaN,-0.3256716,-1.351679E-07,NaN,0.5211635,-2.745308E-08,NaN,-2.047815,1.19606E-05,-0.3415621,3.004521E-08,NaN,NaN,-0.02322703,6.519151E-11,-5.526824E-07,-1.134148E-07,-1.58849E-08,-2.622604E-08
365.1449,-1.528023,-1.660839E-08,NaN,-0.3256828,-1.351666E-07,NaN,0.5202488,-2.749974E-08,NaN,-2.050205,1.196115E-05,-0.3418518,3.009388E-08,NaN,NaN,-0.02316342,6.519151E-11,-5.353971E-07,-1.134139E-07,-1.58849E-08,-2.861022E-08
365.1608,-1.528335,-1.660745E-08,NaN,-0.3256944,-1.351654E-07,NaN,0.5193685,-2.754538E-08,NaN,-2.052525,1.19617E-05,-0.3421332,3.014153E-08,NaN,NaN,-0.02310105,6.519151E-11,-5.204959E-07,-1.13413E-07,-1.58849E-08,-2.622604E-08
365.1765,-1.528335,-1.660745E-08,NaN,-0.3256944,-1.351654E-07,NaN,0.5193685,-2.754538E-08,NaN,-2.052525,1.19617E-05,-0.3421332,3.014153E-08,NaN,NaN,-0.02310105,6.519151E-11,-5.204959E-07,-1.13413E-07,-1.58849E-08,-2.622604E-08
365.1915,-1.527774,-1.660652E-08,NaN,-0.325704,-1.351642E-07,NaN,0.5183524,-2.758862E-08,NaN,-2.055148,1.196225E-05,-0.3424265,3.018679E-08,NaN,NaN,-0.02303976,6.519151E-11,-5.002303E-07,-1.134121E-07,-1.826909E-08,-2.861022E-08
365.2081,-1.526666,-1.660559E-08,NaN,-0.3257127,-1.351629E-07,NaN,0.517309,-2.763092E-08,NaN,-2.057818,1.196279E-05,-0.3427482,3.02311E-08,NaN,NaN,-0.02297972,6.519151E-11,-4.811569E-07,-1.134112E-07,-1.350072E-08,-2.622604E-08
365.2237,-1.525219,-1.660466E-08,NaN,-0.325721,-1.351617E-07,NaN,0.5162898,-2.767089E-08,NaN,-2.060436,1.196334E-05,-0.3430717,3.027307E-08,NaN,NaN,-0.02292089,6.519151E-11,-4.626794E-07,-1.134104E-07,-1.826909E-08,-2.861022E-08
365.2393,-1.525219,-1.660466E-08,NaN,-0.325721,-1.351617E-07,NaN,0.5162898,-2.767089E-08,NaN,-2.060436,1.196334E-05,-0.3430717,3.027307E-08,NaN,NaN,-0.02292089,6.519151E-11,-4.626794E-07,-1.134104E-07,-1.826909E-08,-2.861022E-08
365.2542,-1.522835,-1.660372E-08,NaN,-0.3257268,-1.351605E-07,NaN,0.5151383,-2.770997E-08,NaN,-2.063354,1.196389E-05,-0.3434062,3.031417E-08,NaN,NaN,-0.02286305,6.519151E-11,-4.412217E-07,-1.134095E-07,-2.303746E-08,-2.622604E-08
365.2703,-1.519873,-1.660279E-08,NaN,-0.3257312,-1.351593E-07,NaN,0.5139661,-2.774678E-08,NaN,-2.066302,1.196444E-05,-0.343768,3.0353E-08,NaN,NaN,-0.0228064,6.519151E-11,-4.215522E-07,-1.134086E-07,-1.826909E-08,-2.861022E-08
365.2861,-1.516559,-1.660186E-08,NaN,-0.3257346,-1.35158E-07,NaN,0.5128255,-2.778277E-08,NaN,-2.069182,1.196498E-05,-0.3441297,3.0391E-08,NaN,NaN,-0.02275088,7.450474E-11,-4.030748E-07,-1.134077E-07,-1.826909E-08,-2.622604E-08
365.302,-1.513038,-1.660093E-08,NaN,-0.3257374,-1.351568E-07,NaN,0.5117294,-2.781655E-08,NaN,-2.071968,1.196553E-05,-0.3444796,3.04268E-08,NaN,NaN,-0.02269646,7.450474E-11,-3.834053E-07,-1.134068E-07,-1.588491E-08,-2.861022E-08
365.3182,-1.513038,-1.660093E-08,NaN,-0.3257374,-1.351568E-07,NaN,0.5117294,-2.781655E-08,NaN,-2.071968,1.196553E-05,-0.3444796,3.04268E-08,NaN,NaN,-0.02269646,7.450474E-11,-3.834053E-07,-1.134068E-07,-1.588491E-08,-2.861022E-08
365.3329,-1.508672,-1.66E-08,NaN,-0.3257385,-1.351556E-07,NaN,0.5105057,-2.784957E-08,NaN,-2.075038,1.196609E-05,-0.3448324,3.046183E-08,NaN,NaN,-0.02264293,6.984812E-11,-3.601594E-07,-1.13406E-07,-1.350072E-08,-2.622604E-08
365.3493,-1.503794,-1.659907E-08,NaN,-0.3257388,-1.351544E-07,NaN,0.5092595,-2.788044E-08,NaN,-2.078135,1.196663E-05,-0.3452129,3.049471E-08,NaN,NaN,-0.0225905,7.450474E-11,-3.375097E-07,-1.134051E-07,-1.826909E-08,-2.861022E-08
365.365,-1.498614,-1.659814E-08,NaN,-0.3257388,-1.351532E-07,NaN,0.5080435,-2.79106E-08,NaN,-2.081162,1.196718E-05,-0.3455942,3.052689E-08,NaN,NaN,-0.02253913,7.916135E-11,-3.196283E-07,-1.134043E-07,-8.732348E-09,-2.622604E-08
365.3802,-1.493265,-1.659721E-08,NaN,-0.3257388,-1.35152E-07,NaN,0.5068715,-2.793867E-08,NaN,-2.084093,1.196773E-05,-0.3459644,3.055698E-08,NaN,NaN,-0.02248876,7.450474E-11,-2.987667E-07,-1.134034E-07,-8.732348E-09,-2.861022E-08
365.3961,-1.493265,-1.659721E-08,NaN,-0.3257388,-1.35152E-07,NaN,0.5068715,-2.793867E-08,NaN,-2.084093,1.196773E-05,-0.3459644,3.055698E-08,NaN,NaN,-0.02248876,7.450474E-11,-2.987667E-07,-1.134034E-07,-8.732348E-09,-2.861022E-08
365.4109,-1.487105,-1.659627E-08,NaN,-0.3257366,-1.351513E-07,NaN,0.5055724,-2.752968E-08,NaN,-2.087305,1.196828E-05,-0.3463332,3.014999E-08,NaN,NaN,-0.02243919,7.916135E-11,-2.755208E-07,-1.134049E-07,-8.732348E-09,-2.622604E-08
365.4276,-1.48046,-1.659534E-08,NaN,-0.325733,-1.351514E-07,NaN,0.5042502,-2.696375E-08,NaN,-2.09054,1.196883E-05,-0.3467304,2.958607E-08,NaN,NaN,-0.02239064,8.381797E-11,-2.51679E-07,-1.134071E-07,-8.732348E-09,-2.861022E-08
365.4431,-1.473538,-1.659441E-08,NaN,-0.3257283,-1.351519E-07,NaN,0.5029586,-2.632005E-08,NaN,-2.093701,1.196939E-05,-0.347129,2.894435E-08,NaN,NaN,-0.02234307,8.847458E-11,-2.290292E-07,-1.134096E-07,-6.348162E-09,-2.622604E-08
365.4592,-1.473538,-1.659441E-08,NaN,-0.3257283,-1.351519E-07,NaN,0.5029586,-2.632005E-08,NaN,-2.093701,1.196939E-05,-0.347129,2.894435E-08,NaN,NaN,-0.02234307,8.847458E-11,-2.290292E-07,-1.134096E-07,-6.348162E-09,-2.622604E-08
365.4738,-1.46647,-1.659348E-08,NaN,-0.3257228,-1.351527E-07,NaN,0.5017127,-2.562685E-08,NaN,-2.096761,1.196994E-05,-0.3475163,2.825312E-08,NaN,NaN,-0.02229645,9.31312E-11,-2.087636E-07,-1.134123E-07,-8.732348E-09,-2.861022E-08
365.4903,-1.458612,-1.659255E-08,NaN,-0.3257146,-1.351538E-07,NaN,0.5003419,-2.491612E-08,NaN,-2.100098,1.197049E-05,-0.3478974,2.754437E-08,NaN,NaN,-0.02225052,1.07101E-10,-1.825376E-07,-1.134152E-07,-3.963977E-09,-2.622604E-08
365.5057,-1.45029,-1.659162E-08,NaN,-0.3257041,-1.351549E-07,NaN,0.4989478,-2.420229E-08,NaN,-2.103451,1.197104E-05,-0.3483072,2.68325E-08,NaN,NaN,-0.02220554,1.117577E-10,-1.604839E-07,-1.134181E-07,-3.963977E-09,-2.861022E-08
365.5214,-1.441711,-1.659069E-08,NaN,-0.3256921,-1.351561E-07,NaN,0.4975855,-2.349247E-08,NaN,-2.106726,1.197159E-05,-0.348719,2.612463E-08,NaN,NaN,-0.02216147,1.257275E-10,-1.384302E-07,-1.134211E-07,-6.348162E-09,-2.622604E-08
365.5387,-1.441711,-1.659069E-08,NaN,-0.3256921,-1.351561E-07,NaN,0.4975855,-2.349247E-08,NaN,-2.106726,1.197159E-05,-0.348719,2.612463E-08,NaN,NaN,-0.02216147,1.257275E-10,-1.384302E-07,-1.134211E-07,-6.348162E-09,-2.622604E-08
365.5524,-1.433006,-1.658976E-08,NaN,-0.3256791,-1.351573E-07,NaN,0.4962707,-2.27922E-08,NaN,-2.109892,1.197215E-05,-0.3491193,2.542631E-08,NaN,NaN,-0.02211828,1.303841E-10,-1.145883E-07,-1.13424E-07,-3.963977E-09,-2.861022E-08
365.5688,-1.423531,-1.658883E-08,NaN,-0.325663,-1.351585E-07,NaN,0.4948336,-2.210412E-08,NaN,-2.113331,1.19727E-05,-0.3495083,2.474018E-08,NaN,NaN,-0.02207569,1.443539E-10,-8.836226E-08,-1.13427E-07,-1.579791E-09,-2.622604E-08
365.5847,-1.41361,-1.65879E-08,NaN,-0.3256446,-1.351598E-07,NaN,0.493373,-2.142941E-08,NaN,-2.116782,1.197326E-05,-0.3499264,2.406741E-08,NaN,NaN,-0.02203399,1.490105E-10,-6.332831E-08,-1.134299E-07,-3.963977E-09,-2.861022E-08
365.6005,-1.40345,-1.658697E-08,NaN,-0.3256243,-1.35161E-07,NaN,0.4919452,-2.076778E-08,NaN,-2.120148,1.197381E-05,-0.3503471,2.340771E-08,NaN,NaN,-0.02199314,1.629804E-10,-4.00825E-08,-1.134329E-07,-1.579791E-09,-2.622604E-08
365.6164,-1.40345,-1.658697E-08,NaN,-0.3256243,-1.35161E-07,NaN,0.4919452,-2.076778E-08,NaN,-2.120148,1.197381E-05,-0.3503471,2.340771E-08,NaN,NaN,-0.02199314,1.629804E-10,-4.00825E-08,-1.134329E-07,-1.579791E-09,-2.622604E-08
365.6315,-1.393183,-1.658604E-08,NaN,-0.3256028,-1.351623E-07,NaN,0.4905667,-2.012039E-08,NaN,-2.123401,1.197437E-05,-0.3507563,2.276227E-08,NaN,NaN,-0.0219531,1.769502E-10,-1.683669E-08,-1.134359E-07,-1.579791E-09,-2.861022E-08
365.6477,-1.382163,-1.65851E-08,NaN,-0.3255783,-1.351635E-07,NaN,0.4890683,-1.948698E-08,NaN,-2.126921,1.197492E-05,-0.3511488,2.213078E-08,NaN,NaN,-0.02191359,1.909201E-10,1.296564E-08,-1.134388E-07,-3.963977E-09,-2.622604E-08
365.6636,-1.370715,-1.658417E-08,NaN,-0.3255512,-1.351648E-07,NaN,0.4875463,-1.886866E-08,NaN,-2.130449,1.197548E-05,-0.3515708,2.15144E-08,NaN,NaN,-0.0218749,1.955767E-10,3.919168E-08,-1.134417E-07,-3.963977E-09,-2.861022E-08
365.6795,-1.370715,-1.658417E-08,NaN,-0.3255512,-1.351648E-07,NaN,0.4875463,-1.886866E-08,NaN,-2.130449,1.197548E-05,-0.3515708,2.15144E-08,NaN,NaN,-0.0218749,1.955767E-10,3.919168E-08,-1.134417E-07,-3.963977E-09,-2.861022E-08
365.6945,-1.359047,-1.658324E-08,NaN,-0.3255222,-1.35166E-07,NaN,0.4860576,-1.826374E-08,NaN,-2.133886,1.197604E-05,-0.3519963,2.091141E-08,NaN,NaN,-0.021837,2.048899E-10,6.303354E-08,-1.134446E-07,-1.579791E-09,-2.622604E-08
365.7108,-1.347289,-1.658231E-08,NaN,-0.3254918,-1.351673E-07,NaN,0.4846198,-1.767336E-08,NaN,-2.137205,1.19766E-05,-0.3524104,2.032296E-08,NaN,NaN,-0.02179985,2.142031E-10,8.68754E-08,-1.134476E-07,-3.963977E-09,-2.861022E-08
365.7267,-1.334795,-1.658139E-08,NaN,-0.3254585,-1.351685E-07,NaN,0.4830647,-1.709582E-08,NaN,-2.140788,1.197716E-05,-0.3528025,1.974736E-08,NaN,NaN,-0.02176316,2.235164E-10,1.172738E-07,-1.134505E-07,-1.579791E-09,-2.622604E-08
365.7421,-1.32189,-1.658046E-08,NaN,-0.3254224,-1.351697E-07,NaN,0.4814854,-1.653229E-08,NaN,-2.144373,1.197772E-05,-0.3532243,1.918576E-08,NaN,NaN,-0.02172723,2.328296E-10,1.45884E-07,-1.134534E-07,-3.963977E-09,-2.861022E-08
365.7578,-1.32189,-1.658046E-08,NaN,-0.3254224,-1.351697E-07,NaN,0.4814854,-1.653229E-08,NaN,-2.144373,1.197772E-05,-0.3532243,1.918576E-08,NaN,NaN,-0.02172723,2.328296E-10,1.45884E-07,-1.134534E-07,-3.963977E-09,-2.861022E-08
365.7726,-1.308781,-1.657953E-08,NaN,-0.3253843,-1.35171E-07,NaN,0.4799399,-1.598108E-08,NaN,-2.147864,1.197829E-05,-0.3536507,1.863648E-08,NaN,NaN,-0.02169204,2.328296E-10,1.733021E-07,-1.134562E-07,-1.579791E-09,-2.622604E-08
365.7893,-1.295599,-1.65786E-08,NaN,-0.3253449,-1.351722E-07,NaN,0.4784467,-1.544336E-08,NaN,-2.151232,1.197885E-05,-0.354066,1.810068E-08,NaN,NaN,-0.02165756,2.421428E-10,1.989321E-07,-1.134591E-07,8.043948E-10,-2.861022E-08
365.8049,-1.281698,-1.657767E-08,NaN,-0.3253025,-1.351734E-07,NaN,0.4768386,-1.491744E-08,NaN,-2.15486,1.197941E-05,-0.3544539,1.75767E-08,NaN,NaN,-0.02162345,2.421428E-10,2.293305E-07,-1.13462E-07,3.188581E-09,-2.622604E-08
365.8207,-1.267402,-1.657674E-08,NaN,-0.3252574,-1.351746E-07,NaN,0.4752058,-1.440452E-08,NaN,-2.158486,1.197998E-05,-0.354872,1.70657E-08,NaN,NaN,-0.02159005,2.467994E-10,2.61517E-07,-1.134648E-07,8.043948E-10,-2.861022E-08
365.8364,-1.267402,-1.657674E-08,NaN,-0.3252574,-1.351746E-07,NaN,0.4752058,-1.440452E-08,NaN,-2.158486,1.197998E-05,-0.354872,1.70657E-08,NaN,NaN,-0.02159005,2.467994E-10,2.61517E-07,-1.134648E-07,8.043948E-10,-2.861022E-08
365.8515,-1.252918,-1.657581E-08,NaN,-0.3252101,-1.351759E-07,NaN,0.4736069,-1.390293E-08,NaN,-2.162013,1.198054E-05,-0.3552957,1.656603E-08,NaN,NaN,-0.02155735,2.51456E-10,2.877431E-07,-1.134677E-07,-1.579791E-09,-2.622604E-08
365.8676,-1.238377,-1.657488E-08,NaN,-0.3251615,-1.351771E-07,NaN,0.4720615,-1.341389E-08,NaN,-2.165413,1.198111E-05,-0.3557088,1.607892E-08,NaN,NaN,-0.02152531,2.561126E-10,3.145651E-07,-1.134705E-07,-8.732348E-09,-2.861022E-08
365.8835,-1.223132,-1.657395E-08,NaN,-0.3251099,-1.351783E-07,NaN,0.4704038,-1.29357E-08,NaN,-2.16907,1.198167E-05,-0.3560893,1.560266E-08,NaN,NaN,-0.02149357,2.607692E-10,3.491358E-07,-1.134733E-07,-1.588491E-08,-2.622604E-08
365.8991,-1.223132,-1.657395E-08,NaN,-0.3251099,-1.351783E-07,NaN,0.4704038,-1.29357E-08,NaN,-2.16907,1.198167E-05,-0.3560893,1.560266E-08,NaN,NaN,-0.02149357,2.607692E-10,3.491358E-07,-1.134733E-07,-1.588491E-08,-2.622604E-08
365.9141,-1.207508,-1.657302E-08,NaN,-0.3250556,-1.351795E-07,NaN,0.4687206,-1.246957E-08,NaN,-2.172722,1.198223E-05,-0.3565003,1.513846E-08,NaN,NaN,-0.02146249,2.654258E-10,3.807263E-07,-1.134762E-07,-1.588491E-08,-2.861022E-08
365.9306,-1.191712,-1.657209E-08,NaN,-0.3249991,-1.351807E-07,NaN,0.4670713,-1.201385E-08,NaN,-2.17627,1.19828E-05,-0.3569182,1.468467E-08,NaN,NaN,-0.02143207,2.700825E-10,4.093365E-07,-1.13479E-07,-1.350072E-08,-2.622604E-08
365.9462,-1.175873,-1.657117E-08,NaN,-0.3249413,-1.351819E-07,NaN,0.4654764,-1.157115E-08,NaN,-2.179689,1.198336E-05,-0.3573262,1.42439E-08,NaN,NaN,-0.02140226,2.747391E-10,4.355626E-07,-1.134818E-07,-1.111654E-08,-2.861022E-08
365.9623,-1.159345,-1.657024E-08,NaN,-0.3248807,-1.351831E-07,NaN,0.4637719,-1.11384E-08,NaN,-2.183361,1.198393E-05,-0.3576965,1.381308E-08,NaN,NaN,-0.02137269,2.793957E-10,4.695372E-07,-1.134845E-07,-1.588491E-08,-2.622604E-08
365.9776,-1.159345,-1.657024E-08,NaN,-0.3248807,-1.351831E-07,NaN,0.4637719,-1.11384E-08,NaN,-2.183361,1.198393E-05,-0.3576965,1.381308E-08,NaN,NaN,-0.02137269,2.793957E-10,4.695372E-07,-1.134845E-07,-1.588491E-08,-2.622604E-08
365.9925,-1.142454,-1.656931E-08,NaN,-0.3248173,-1.351843E-07,NaN,0.4620231,-1.071682E-08,NaN,-2.186546,1.198449E-05,-0.3581371,1.339343E-08,NaN,NaN,-0.02134321,2.840523E-10,5.094723E-07,-1.134873E-07,-1.350072E-08,-2.861022E-08
366.0088,-1.125404,-1.656838E-08,NaN,-0.3247517,-1.351855E-07,NaN,0.4602699,-1.030477E-08,NaN,-2.188252,1.198505E-05,-0.3586773,1.298331E-08,NaN,NaN,-0.02131325,2.887089E-10,5.702691E-07,-1.134901E-07,-8.732351E-09,-2.622604E-08
366.0246,-1.108326,-1.656745E-08,NaN,-0.3246849,-1.351866E-07,NaN,0.458566,-9.90207E-09,NaN,-2.188574,1.198562E-05,-0.3592423,1.258253E-08,NaN,NaN,-0.0212837,2.933655E-10,6.370263E-07,-1.134928E-07,-1.111654E-08,-2.861022E-08
366.0415,-1.090575,-1.656652E-08,NaN,-0.3246153,-1.351878E-07,NaN,0.4567692,-9.509944E-09,NaN,-2.188465,1.198618E-05,-0.3597533,1.219234E-08,NaN,NaN,-0.02125468,2.980221E-10,7.008032E-07,-1.134956E-07,-1.111654E-08,-2.622604E-08
366.0562,-1.090575,-1.656652E-08,NaN,-0.3246153,-1.351878E-07,NaN,0.4567692,-9.509944E-09,NaN,-2.188465,1.198618E-05,-0.3597533,1.219234E-08,NaN,NaN,-0.02125468,2.980221E-10,7.008032E-07,-1.134956E-07,-1.111654E-08,-2.622604E-08
366.0709,-1.072473,-1.656559E-08,NaN,-0.3245429,-1.35189E-07,NaN,0.4549595,-9.126773E-09,NaN,-2.188091,1.198674E-05,-0.3602769,1.181109E-08,NaN,NaN,-0.02122659,3.026787E-10,7.556395E-07,-1.134983E-07,-1.350072E-08,-2.861022E-08
366.0874,-1.054227,-1.656466E-08,NaN,-0.3244684,-1.351902E-07,NaN,0.4531964,-8.753796E-09,NaN,-2.187654,1.198731E-05,-0.3607931,1.144005E-08,NaN,NaN,-0.02119939,3.073353E-10,8.051114E-07,-1.135011E-07,-1.350072E-08,-2.622604E-08
366.1031,-1.035967,-1.656373E-08,NaN,-0.3243927,-1.351914E-07,NaN,0.4515005,-8.389399E-09,NaN,-2.18729,1.198787E-05,-0.3612893,1.107758E-08,NaN,NaN,-0.02117299,3.119919E-10,8.52199E-07,-1.135038E-07,-2.065328E-08,-2.861022E-08
366.1187,-1.035967,-1.656373E-08,NaN,-0.3243927,-1.351914E-07,NaN,0.4515005,-8.389399E-09,NaN,-2.18729,1.198787E-05,-0.3612893,1.107758E-08,NaN,NaN,-0.02117299,3.119919E-10,8.52199E-07,-1.135038E-07,-2.065328E-08,-2.861022E-08
366.1335,-1.017046,-1.65628E-08,NaN,-0.3243144,-1.351925E-07,NaN,0.4497073,-8.033414E-09,NaN,-2.187438,1.198844E-05,-0.3617425,1.072352E-08,NaN,NaN,-0.02114688,3.166485E-10,8.974986E-07,-1.135065E-07,-2.303747E-08,-2.622604E-08
366.1501,-0.9977885,-1.656188E-08,NaN,-0.3242334,-1.351937E-07,NaN,0.4478919,-7.687088E-09,NaN,-2.187667,1.1989E-05,-0.3622395,1.037912E-08,NaN,NaN,-0.02112125,3.213051E-10,9.445862E-07,-1.135092E-07,-2.542165E-08,-2.861022E-08
366.1657,-0.9784005,-1.656095E-08,NaN,-0.3241502,-1.351949E-07,NaN,0.4461166,-7.348822E-09,NaN,-2.187773,1.198956E-05,-0.3627585,1.004278E-08,NaN,NaN,-0.02109612,3.259618E-10,9.898857E-07,-1.135119E-07,-2.542165E-08,-2.622604E-08
366.1815,-0.9590112,-1.656002E-08,NaN,-0.324066,-1.35196E-07,NaN,0.444407,-7.019868E-09,NaN,-2.187721,1.199013E-05,-0.3632745,9.715759E-09,NaN,NaN,-0.02107154,3.306184E-10,1.034589E-06,-1.135146E-07,-3.019002E-08,-2.861022E-08
366.1972,-0.9590112,-1.656002E-08,NaN,-0.324066,-1.35196E-07,NaN,0.444407,-7.019868E-09,NaN,-2.187721,1.199013E-05,-0.3632745,9.715759E-09,NaN,NaN,-0.02107154,3.306184E-10,1.034589E-06,-1.135146E-07,-3.019002E-08,-2.861022E-08
366.2121,-0.9389744,-1.655909E-08,NaN,-0.3239793,-1.351972E-07,NaN,0.4426023,-6.698632E-09,NaN,-2.187956,1.199069E-05,-0.3637535,9.396451E-09,NaN,NaN,-0.02104716,3.35275E-10,1.079889E-06,-1.135172E-07,-2.780584E-08,-2.622604E-08
366.2285,-0.9186144,-1.655816E-08,NaN,-0.3238899,-1.351983E-07,NaN,0.4407796,-6.386375E-09,NaN,-2.188132,1.199126E-05,-0.364273,9.086121E-09,NaN,NaN,-0.02102325,3.399316E-10,1.125188E-06,-1.135199E-07,-2.780584E-08,-2.861022E-08
366.2439,-0.8981361,-1.655723E-08,NaN,-0.3237984,-1.351995E-07,NaN,0.4390007,-6.081507E-09,NaN,-2.188136,1.199182E-05,-0.3648081,8.783181E-09,NaN,NaN,-0.02099988,3.445882E-10,1.1687E-06,-1.135226E-07,-3.495839E-08,-2.622604E-08
366.2597,-0.8981361,-1.655723E-08,NaN,-0.3237984,-1.351995E-07,NaN,0.4390007,-6.081507E-09,NaN,-2.188136,1.199182E-05,-0.3648081,8.783181E-09,NaN,NaN,-0.02099988,3.445882E-10,1.1687E-06,-1.135226E-07,-3.495839E-08,-2.622604E-08
366.2745,-0.8769414,-1.65563E-08,NaN,-0.3237036,-1.352006E-07,NaN,0.4371246,-5.783885E-09,NaN,-2.188386,1.199238E-05,-0.3653149,8.487487E-09,NaN,NaN,-0.0209767,3.492448E-10,1.216383E-06,-1.135252E-07,-3.257421E-08,-2.861022E-08
366.2911,-0.8553849,-1.655537E-08,NaN,-0.3236051,-1.352018E-07,NaN,0.4352362,-5.494779E-09,NaN,-2.188544,1.199295E-05,-0.3658628,8.200309E-09,NaN,NaN,-0.02095398,3.539014E-10,1.265259E-06,-1.135278E-07,-2.542165E-08,-2.622604E-08
366.3067,-0.8336909,-1.655443E-08,NaN,-0.3235039,-1.352029E-07,NaN,0.4333991,-5.21261E-09,NaN,-2.188514,1.199351E-05,-0.3664241,7.920066E-09,NaN,NaN,-0.0209318,3.58558E-10,1.30877E-06,-1.135305E-07,-2.542165E-08,-2.861022E-08
366.3224,-0.8120012,-1.65535E-08,NaN,-0.3234012,-1.35204E-07,NaN,0.431637,-4.938653E-09,NaN,-2.18834,1.199408E-05,-0.3669741,7.648036E-09,NaN,NaN,-0.02091017,3.632146E-10,1.352282E-06,-1.135331E-07,-2.303746E-08,-2.622604E-08
366.3384,-0.8120012,-1.65535E-08,NaN,-0.3234012,-1.35204E-07,NaN,0.431637,-4.938653E-09,NaN,-2.18834,1.199408E-05,-0.3669741,7.648036E-09,NaN,NaN,-0.02091017,3.632146E-10,1.352282E-06,-1.135331E-07,-2.303746E-08,-2.622604E-08
366.3536,-0.7896771,-1.655257E-08,NaN,-0.323296,-1.352052E-07,NaN,0.4297864,-4.671334E-09,NaN,-2.188501,1.199464E-05,-0.3674837,7.382645E-09,NaN,NaN,-0.02088874,3.678712E-10,1.395793E-06,-1.135357E-07,-1.826909E-08,-2.861022E-08
366.3695,-0.7670477,-1.655164E-08,NaN,-0.3231878,-1.352063E-07,NaN,0.4279233,-4.410561E-09,NaN,-2.188648,1.19952E-05,-0.3680307,7.123799E-09,NaN,NaN,-0.02086774,3.725278E-10,1.439901E-06,-1.135383E-07,-1.826909E-08,-2.622604E-08
366.3852,-0.7443208,-1.655071E-08,NaN,-0.3230774,-1.352074E-07,NaN,0.4261084,-4.157584E-09,NaN,-2.188651,1.199577E-05,-0.368592,6.872748E-09,NaN,NaN,-0.02084722,3.771845E-10,1.48222E-06,-1.135409E-07,-1.111653E-08,-2.861022E-08
366.4009,-0.7216277,-1.654978E-08,NaN,-0.3229662,-1.352086E-07,NaN,0.4243653,-3.910835E-09,NaN,-2.18852,1.199634E-05,-0.3691444,6.627924E-09,NaN,NaN,-0.02082719,3.771845E-10,1.521559E-06,-1.135435E-07,-1.350072E-08,-2.622604E-08
366.4169,-0.7216277,-1.654978E-08,NaN,-0.3229662,-1.352086E-07,NaN,0.4243653,-3.910835E-09,NaN,-2.18852,1.199634E-05,-0.3691444,6.627924E-09,NaN,NaN,-0.02082719,3.771845E-10,1.521559E-06,-1.135435E-07,-1.350072E-08,-2.622604E-08
366.432,-0.6983231,-1.654885E-08,NaN,-0.3228529,-1.352097E-07,NaN,0.4225312,-3.670192E-09,NaN,-2.188714,1.19969E-05,-0.36966,6.389206E-09,NaN,NaN,-0.02080731,3.771845E-10,1.565666E-06,-1.13546E-07,-1.111653E-08,-2.861022E-08
366.4485,-0.6747316,-1.654793E-08,NaN,-0.322737,-1.352108E-07,NaN,0.4206838,-3.436948E-09,NaN,-2.188877,1.199746E-05,-0.3702141,6.157886E-09,NaN,NaN,-0.02078782,3.864977E-10,1.606198E-06,-1.135486E-07,-1.350072E-08,-2.622604E-08
366.4645,-0.6510583,-1.6547E-08,NaN,-0.3226193,-1.352119E-07,NaN,0.4188843,-3.209546E-09,NaN,-2.188881,1.199802E-05,-0.3707824,5.932407E-09,NaN,NaN,-0.02076876,3.958109E-10,1.646431E-06,-1.135512E-07,-1.350072E-08,-2.861022E-08
366.4799,-0.6510583,-1.6547E-08,NaN,-0.3226193,-1.352119E-07,NaN,0.4188843,-3.209546E-09,NaN,-2.188881,1.199802E-05,-0.3707824,5.932407E-09,NaN,NaN,-0.02076876,3.958109E-10,1.646431E-06,-1.135512E-07,-1.350072E-08,-2.861022E-08
366.4951,-0.6274326,-1.654607E-08,NaN,-0.322501,-1.35213E-07,NaN,0.4171567,-2.987871E-09,NaN,-2.188743,1.199859E-05,-0.3713413,5.712655E-09,NaN,NaN,-0.02075019,3.958109E-10,1.68577E-06,-1.135537E-07,-1.826909E-08,-2.622604E-08
366.5113,-0.6033801,-1.654514E-08,NaN,-0.3223815,-1.352141E-07,NaN,0.4153775,-2.773222E-09,NaN,-2.188836,1.199915E-05,-0.371868,5.499929E-09,NaN,NaN,-0.02073183,4.051241E-10,1.724811E-06,-1.135563E-07,-1.350072E-08,-2.861022E-08
366.5273,-0.5791599,-1.654421E-08,NaN,-0.3222605,-1.352152E-07,NaN,0.4136054,-2.564052E-09,NaN,-2.188905,1.199972E-05,-0.3724182,5.292681E-09,NaN,NaN,-0.02071386,4.051241E-10,1.76266E-06,-1.135588E-07,-1.111653E-08,-2.622604E-08
366.543,-0.5549356,-1.654328E-08,NaN,-0.322139,-1.352163E-07,NaN,0.4118854,-2.360249E-09,NaN,-2.188864,1.200028E-05,-0.3729739,5.090801E-09,NaN,NaN,-0.02069632,4.051241E-10,1.796932E-06,-1.135613E-07,-6.348162E-09,-2.861022E-08
366.5604,-0.5308101,-1.654235E-08,NaN,-0.3220178,-1.352174E-07,NaN,0.4102344,-2.163123E-09,NaN,-2.188725,1.200085E-05,-0.3735181,4.895597E-09,NaN,NaN,-0.02067922,4.051241E-10,1.833589E-06,-1.135638E-07,-3.963976E-09,-2.622604E-08
366.5746,-0.5308101,-1.654235E-08,NaN,-0.3220178,-1.352174E-07,NaN,0.4102344,-2.163123E-09,NaN,-2.188725,1.200085E-05,-0.3735181,4.895597E-09,NaN,NaN,-0.02067922,4.051241E-10,1.833589E-06,-1.135638E-07,-3.963976E-09,-2.622604E-08
366.5897,-0.5068477,-1.654142E-08,NaN,-0.3218983,-1.352185E-07,NaN,0.408654,-1.971131E-09,NaN,-2.188542,1.200141E-05,-0.374043,4.705527E-09,NaN,NaN,-0.02066258,4.144373E-10,1.86369E-06,-1.135663E-07,-1.579791E-09,-2.861022E-08
366.6061,-0.4830882,-1.654049E-08,NaN,-0.3217811,-1.352196E-07,NaN,0.4071397,-1.784175E-09,NaN,-2.188362,1.200198E-05,-0.3745473,4.520491E-09,NaN,NaN,-0.02064637,4.190939E-10,1.891704E-06,-1.135688E-07,8.043952E-10,-2.622604E-08
366.6218,-0.4595558,-1.653956E-08,NaN,-0.3216672,-1.352207E-07,NaN,0.405686,-1.603565E-09,NaN,-2.18821,1.200255E-05,-0.375033,4.341802E-09,NaN,NaN,-0.02063058,4.190939E-10,1.91495E-06,-1.135713E-07,-1.579791E-09,-2.861022E-08
366.6376,-0.4595558,-1.653956E-08,NaN,-0.3216672,-1.352207E-07,NaN,0.405686,-1.603565E-09,NaN,-2.18821,1.200255E-05,-0.375033,4.341802E-09,NaN,NaN,-0.02063058,4.190939E-10,1.91495E-06,-1.135713E-07,-1.579791E-09,-2.861022E-08
366.6528,-0.4362649,-1.653863E-08,NaN,-0.321557,-1.352218E-07,NaN,0.4042878,-1.427761E-09,NaN,-2.188092,1.200313E-05,-0.3755026,4.167918E-09,NaN,NaN,-0.02061516,4.144373E-10,1.939387E-06,-1.135738E-07,3.188581E-09,-2.622604E-08
366.6694,-0.4132234,-1.65377E-08,NaN,-0.3214509,-1.352229E-07,NaN,0.4029412,-1.256671E-09,NaN,-2.187999,1.20037E-05,-0.3759583,3.998748E-09,NaN,NaN,-0.0206001,4.190939E-10,1.960845E-06,-1.135763E-07,-1.579791E-09,-2.861022E-08
366.6854,-0.3904353,-1.653677E-08,NaN,-0.3213493,-1.35224E-07,NaN,0.4016433,-1.091615E-09,NaN,-2.187919,1.200427E-05,-0.3764015,3.835613E-09,NaN,NaN,-0.02058538,4.237505E-10,1.981707E-06,-1.135787E-07,8.043952E-10,-2.622604E-08
366.7009,-0.3679022,-1.653584E-08,NaN,-0.3212522,-1.35225E-07,NaN,0.4003919,-9.310625E-10,NaN,-2.187843,1.200484E-05,-0.3768329,3.676981E-09,NaN,NaN,-0.02057101,4.284071E-10,2.001078E-06,-1.135812E-07,3.188581E-09,-2.861022E-08
366.7168,-0.3679022,-1.653584E-08,NaN,-0.3212522,-1.35225E-07,NaN,0.4003919,-9.310625E-10,NaN,-2.187843,1.200484E-05,-0.3768329,3.676981E-09,NaN,NaN,-0.02057101,4.284071E-10,2.001078E-06,-1.135812E-07,3.188581E-09,-2.861022E-08
366.7319,-0.3456239,-1.653491E-08,NaN,-0.3211598,-1.352265E-07,NaN,0.3991852,-6.453243E-10,NaN,-2.187766,1.200541E-05,-0.3772528,3.393159E-09,NaN,NaN,-0.02055697,4.237505E-10,2.019258E-06,-1.135827E-07,5.572767E-09,-2.622604E-08
366.7485,-0.3235991,-1.653398E-08,NaN,-0.3210719,-1.35228E-07,NaN,0.398022,-3.8477E-10,NaN,-2.187686,1.200599E-05,-0.3776611,3.134518E-09,NaN,NaN,-0.02054325,4.190939E-10,2.039076E-06,-1.135841E-07,3.188581E-09,-2.861022E-08
366.7642,-0.3018261,-1.653305E-08,NaN,-0.3209885,-1.352294E-07,NaN,0.3969008,-1.390456E-10,NaN,-2.187605,1.200657E-05,-0.3780582,2.890707E-09,NaN,NaN,-0.02052985,4.144373E-10,2.053679E-06,-1.135855E-07,3.188581E-09,-2.622604E-08
366.7799,-0.3018261,-1.653305E-08,NaN,-0.3209885,-1.352294E-07,NaN,0.3969008,-1.390456E-10,NaN,-2.187605,1.200657E-05,-0.3780582,2.890707E-09,NaN,NaN,-0.02052985,4.144373E-10,2.053679E-06,-1.135855E-07,3.188581E-09,-2.622604E-08
366.7953,-0.2803027,-1.653211E-08,NaN,-0.3209097,-1.352303E-07,NaN,0.3958206,-3.464579E-11,NaN,-2.187524,1.200714E-05,-0.378444,2.788222E-09,NaN,NaN,-0.02051677,4.190939E-10,2.06709E-06,-1.135878E-07,3.188581E-09,-2.861022E-08
366.8115,-0.2590265,-1.653118E-08,NaN,-0.3208352,-1.352313E-07,NaN,0.3947802,8.19338E-11,NaN,-2.187444,1.20077E-05,-0.3788189,2.673559E-09,NaN,NaN,-0.02050399,4.237505E-10,2.081395E-06,-1.135901E-07,-1.579791E-09,-2.622604E-08
366.8275,-0.2443682,-1.653025E-08,NaN,-0.3207856,-1.352323E-07,NaN,0.3952421,2.020053E-10,NaN,-2.183881,1.200827E-05,-0.3792715,2.555405E-09,NaN,NaN,-0.02049472,4.284071E-10,2.037586E-06,-1.135925E-07,8.043952E-10,-2.861022E-08
366.8432,-0.2339345,-1.652932E-08,NaN,-0.3207688,-1.352333E-07,NaN,0.3964657,3.226833E-10,NaN,-2.180565,1.200884E-05,-0.3791739,2.436644E-09,NaN,NaN,-0.02048687,4.330638E-10,1.966358E-06,-1.135949E-07,3.188581E-09,-2.622604E-08
366.8587,-0.2339345,-1.652932E-08,NaN,-0.3207688,-1.352333E-07,NaN,0.3964657,3.226833E-10,NaN,-2.180565,1.200884E-05,-0.3791739,2.436644E-09,NaN,NaN,-0.02048687,4.330638E-10,1.966358E-06,-1.135949E-07,3.188581E-09,-2.622604E-08
366.8737,-0.226203,-1.652839E-08,NaN,-0.3207755,-1.352344E-07,NaN,0.397837,4.411331E-10,NaN,-2.178423,1.200941E-05,-0.3788136,2.320112E-09,NaN,NaN,-0.02047896,4.377204E-10,1.899601E-06,-1.135973E-07,5.572767E-09,-2.861022E-08
366.8903,-0.2202044,-1.652746E-08,NaN,-0.3208005,-1.352354E-07,NaN,0.3990954,5.574046E-10,NaN,-2.17709,1.200999E-05,-0.3784336,2.205759E-09,NaN,NaN,-0.02047046,4.330638E-10,1.845361E-06,-1.135997E-07,8.043952E-10,-2.622604E-08
366.9063,-0.2153215,-1.652653E-08,NaN,-0.3208383,-1.352364E-07,NaN,0.4002004,6.701279E-10,NaN,-2.176303,1.201056E-05,-0.3780959,2.094954E-09,NaN,NaN,-0.0204618,4.377204E-10,1.797528E-06,-1.136021E-07,7.956952E-09,-2.861022E-08
366.9219,-0.2111612,-1.65256E-08,NaN,-0.3208846,-1.352375E-07,NaN,0.4011734,7.779593E-10,NaN,-2.175877,1.201112E-05,-0.3778069,1.989042E-09,NaN,NaN,-0.02045314,4.42377E-10,1.753719E-06,-1.136044E-07,7.956952E-09,-2.622604E-08
366.9379,-0.2111612,-1.65256E-08,NaN,-0.3208846,-1.352375E-07,NaN,0.4011734,7.779593E-10,NaN,-2.175877,1.201112E-05,-0.3778069,1.989042E-09,NaN,NaN,-0.02045314,4.42377E-10,1.753719E-06,-1.136044E-07,7.956952E-09,-2.622604E-08
366.953,-0.2074731,-1.652467E-08,NaN,-0.3209364,-1.352385E-07,NaN,0.4020469,8.823994E-10,NaN,-2.175686,1.20117E-05,-0.3775579,1.88652E-09,NaN,NaN,-0.02044457,4.377204E-10,1.713635E-06,-1.136068E-07,5.572767E-09,-2.861022E-08
366.9694,-0.2040976,-1.652374E-08,NaN,-0.3209916,-1.352395E-07,NaN,0.4028489,9.83529E-10,NaN,-2.175646,1.201228E-05,-0.3773381,1.787309E-09,NaN,NaN,-0.02043611,4.330638E-10,1.676829E-06,-1.136092E-07,7.956952E-09,-2.622604E-08
366.9852,-0.2009709,-1.652281E-08,NaN,-0.3336532,-1.352406E-07,NaN,0.4026656,1.081408E-09,NaN,-2.178775,1.201286E-05,-0.3809676,1.691348E-09,NaN,NaN,-0.02043663,4.284071E-10,1.522155E-06,-1.136115E-07,1.272532E-08,-2.861022E-08
367.001,-0.1980831,-1.652188E-08,NaN,-0.3539507,-1.352416E-07,NaN,0.4031802,1.176101E-09,NaN,-2.182737,1.201343E-05,-0.3843375,1.598573E-09,NaN,NaN,-0.02043576,4.237505E-10,1.397358E-06,-1.136139E-07,1.034114E-08,-2.622604E-08
367.0174,-0.1980831,-1.652188E-08,NaN,-0.3539507,-1.352416E-07,NaN,0.4031802,1.176101E-09,NaN,-2.182737,1.201343E-05,-0.3843375,1.598573E-09,NaN,NaN,-0.02043576,4.237505E-10,1.397358E-06,-1.136139E-07,1.034114E-08,-2.622604E-08
367.0321,-0.1953897,-1.652094E-08,NaN,-0.3788283,-1.352426E-07,NaN,0.4041017,1.267671E-09,NaN,-2.186415,1.201401E-05,-0.3871185,1.508921E-09,NaN,NaN,-0.02043287,4.190939E-10,1.300202E-06,-1.136162E-07,7.956952E-09,-2.861022E-08
367.0484,-0.1928432,-1.652001E-08,NaN,-0.4064021,-1.352437E-07,NaN,0.405098,1.354767E-09,NaN,-2.188359,1.201458E-05,-0.389583,1.423742E-09,NaN,NaN,-0.02042744,4.237505E-10,1.256393E-06,-1.136185E-07,7.956952E-09,-2.622604E-08
367.0656,-0.1904011,-1.651908E-08,NaN,-0.4347524,-1.352447E-07,NaN,0.4061644,1.438888E-09,NaN,-2.188427,1.201516E-05,-0.3915557,1.341538E-09,NaN,NaN,-0.02042066,4.190939E-10,1.225175E-06,-1.136208E-07,1.034114E-08,-2.861022E-08
367.0798,-0.1904011,-1.651908E-08,NaN,-0.4347524,-1.352447E-07,NaN,0.4061644,1.438888E-09,NaN,-2.188427,1.201516E-05,-0.3915557,1.341538E-09,NaN,NaN,-0.02042066,4.190939E-10,1.225175E-06,-1.136208E-07,1.034114E-08,-2.861022E-08
367.095,-0.1880329,-1.651815E-08,NaN,-0.4634537,-1.352457E-07,NaN,0.4071932,1.520093E-09,NaN,-2.187523,1.201574E-05,-0.3933015,1.26225E-09,NaN,NaN,-0.02041425,4.144373E-10,1.192169E-06,-1.136231E-07,5.572766E-09,-2.622604E-08
367.1112,-0.1857187,-1.651722E-08,NaN,-0.4922415,-1.352467E-07,NaN,0.4081911,1.598442E-09,NaN,-2.186449,1.201631E-05,-0.3948747,1.185819E-09,NaN,NaN,-0.02040853,4.097807E-10,1.148732E-06,-1.136254E-07,1.996488E-09,-2.861022E-08
367.1273,-0.1834463,-1.651629E-08,NaN,-0.5209522,-1.352477E-07,NaN,0.4091574,1.672576E-09,NaN,-2.185658,1.201689E-05,-0.3963145,1.113604E-09,NaN,NaN,-0.02040333,4.051241E-10,1.099558E-06,-1.136277E-07,3.188581E-09,-2.622604E-08
367.1432,-0.1812041,-1.651536E-08,NaN,-0.5487227,-1.352487E-07,NaN,0.4101467,1.743989E-09,NaN,-2.185075,1.201746E-05,-0.3974199,1.044109E-09,NaN,NaN,-0.02039785,4.097807E-10,1.055748E-06,-1.1363E-07,1.153323E-08,-2.861022E-08
367.159,-0.1812041,-1.651536E-08,NaN,-0.5487227,-1.352487E-07,NaN,0.4101467,1.743989E-09,NaN,-2.185075,1.201746E-05,-0.3974199,1.044109E-09,NaN,NaN,-0.02039785,4.097807E-10,1.055748E-06,-1.1363E-07,1.153323E-08,-2.861022E-08
367.1742,-0.1789862,-1.651443E-08,NaN,-0.5757901,-1.352497E-07,NaN,0.4110493,1.812734E-09,NaN,-2.184818,1.201804E-05,-0.3984762,9.772823E-10,NaN,NaN,-0.02039264,4.051241E-10,1.009406E-06,-1.136323E-07,1.391742E-08,-2.622604E-08
367.1905,-0.1767901,-1.65135E-08,NaN,-0.6023019,-1.352507E-07,NaN,0.4118843,1.878866E-09,NaN,-2.184811,1.201861E-05,-0.3995274,9.130685E-10,NaN,NaN,-0.02038758,4.004675E-10,9.629141E-07,-1.136346E-07,1.510951E-08,-2.861022E-08
367.2063,-0.1746149,-1.651257E-08,NaN,-0.628351,-1.352517E-07,NaN,0.412677,1.942436E-09,NaN,-2.184919,1.201918E-05,-0.4005714,8.514173E-10,NaN,NaN,-0.02038256,4.051241E-10,9.188067E-07,-1.136368E-07,1.034114E-08,-2.622604E-08
367.2222,-0.1724559,-1.651164E-08,NaN,-0.6532344,-1.352527E-07,NaN,0.413506,2.002076E-09,NaN,-2.184841,1.201976E-05,-0.4013571,7.936939E-10,NaN,NaN,-0.02037697,4.004675E-10,8.857261E-07,-1.136391E-07,1.153323E-08,-2.861022E-08
367.238,-0.1724559,-1.651164E-08,NaN,-0.6532344,-1.352527E-07,NaN,0.413506,2.002076E-09,NaN,-2.184841,1.201976E-05,-0.4013571,7.936939E-10,NaN,NaN,-0.02037697,4.004675E-10,8.857261E-07,-1.136391E-07,1.153323E-08,-2.861022E-08
367.2532,-0.1703118,-1.65107E-08,NaN,-0.677289,-1.352537E-07,NaN,0.414277,2.059281E-09,NaN,-2.184729,1.202034E-05,-0.4021261,7.384046E-10,NaN,NaN,-0.02037159,3.958109E-10,8.502613E-07,-1.136413E-07,1.510951E-08,-2.622604E-08
367.2698,-0.1681835,-1.650977E-08,NaN,-0.7007248,-1.352547E-07,NaN,0.4150109,2.114099E-09,NaN,-2.184652,1.202092E-05,-0.4028969,6.855021E-10,NaN,NaN,-0.02036644,3.911543E-10,8.153926E-07,-1.136436E-07,1.510951E-08,-2.861022E-08
367.2858,-0.166072,-1.650884E-08,NaN,-0.7236733,-1.352557E-07,NaN,0.415727,2.166575E-09,NaN,-2.184621,1.202148E-05,-0.403658,6.349422E-10,NaN,NaN,-0.02036144,3.958109E-10,7.760535E-07,-1.136458E-07,1.63016E-08,-2.622604E-08
367.3013,-0.163973,-1.650791E-08,NaN,-0.7454556,-1.352567E-07,NaN,0.4164944,2.216754E-09,NaN,-2.184427,1.202205E-05,-0.4041594,5.866787E-10,NaN,NaN,-0.02035596,4.004675E-10,7.444631E-07,-1.13648E-07,1.391742E-08,-2.861022E-08
367.3171,-0.163973,-1.650791E-08,NaN,-0.7454556,-1.352567E-07,NaN,0.4164944,2.216754E-09,NaN,-2.184427,1.202205E-05,-0.4041594,5.866787E-10,NaN,NaN,-0.02035596,4.004675E-10,7.444631E-07,-1.13648E-07,1.391742E-08,-2.861022E-08
367.332,-0.1618859,-1.650697E-08,NaN,-0.7664237,-1.352577E-07,NaN,0.4172111,2.26327E-09,NaN,-2.184257,1.202262E-05,-0.4046471,5.420788E-10,NaN,NaN,-0.02035074,4.051241E-10,7.134687E-07,-1.136502E-07,1.153323E-08,-2.622604E-08
367.3486,-0.1598121,-1.650604E-08,NaN,-0.786797,-1.352587E-07,NaN,0.4178934,2.307604E-09,NaN,-2.184175,1.202319E-05,-0.405144,4.996599E-10,NaN,NaN,-0.02034576,4.097807E-10,6.812822E-07,-1.136524E-07,1.034114E-08,-2.861022E-08
367.3645,-0.1577531,-1.650511E-08,NaN,-0.8067123,-1.352596E-07,NaN,0.4185587,2.349801E-09,NaN,-2.184169,1.202377E-05,-0.4056408,4.593784E-10,NaN,NaN,-0.02034091,4.051241E-10,6.461154E-07,-1.136547E-07,7.956954E-09,-2.622604E-08
367.3803,-0.1557042,-1.650418E-08,NaN,-0.825494,-1.352606E-07,NaN,0.4192749,2.389905E-09,NaN,-2.184005,1.202434E-05,-0.4058886,4.211893E-10,NaN,NaN,-0.02033557,4.004675E-10,6.222736E-07,-1.136568E-07,6.764862E-09,-2.861022E-08
367.3962,-0.1557042,-1.650418E-08,NaN,-0.825494,-1.352606E-07,NaN,0.4192749,2.389905E-09,NaN,-2.184005,1.202434E-05,-0.4058886,4.211893E-10,NaN,NaN,-0.02033557,4.004675E-10,6.222736E-07,-1.136568E-07,6.764862E-09,-2.861022E-08
367.4111,-0.1536648,-1.650324E-08,NaN,-0.8434965,-1.352616E-07,NaN,0.4199405,2.427956E-09,NaN,-2.183861,1.202492E-05,-0.4061327,3.850539E-10,NaN,NaN,-0.02033048,3.958109E-10,5.990278E-07,-1.13659E-07,7.956954E-09,-2.622604E-08
367.4275,-0.1516365,-1.650231E-08,NaN,-0.86094,-1.352626E-07,NaN,0.4205724,2.463995E-09,NaN,-2.183795,1.202549E-05,-0.4063944,3.509302E-10,NaN,NaN,-0.02032563,4.004675E-10,5.728018E-07,-1.136612E-07,7.956954E-09,-2.861022E-08
367.4433,-0.1496213,-1.650138E-08,NaN,-0.8779619,-1.352635E-07,NaN,0.4211886,2.49806E-09,NaN,-2.183797,1.202607E-05,-0.4066634,3.187813E-10,NaN,NaN,-0.02032091,3.958109E-10,5.441916E-07,-1.136634E-07,7.360908E-09,-2.622604E-08
367.4593,-0.1496213,-1.650138E-08,NaN,-0.8779619,-1.352635E-07,NaN,0.4211886,2.49806E-09,NaN,-2.183797,1.202607E-05,-0.4066634,3.187813E-10,NaN,NaN,-0.02032091,3.958109E-10,5.441916E-07,-1.136634E-07,7.360908E-09,-2.622604E-08
367.4742,-0.1476139,-1.650045E-08,NaN,-0.8938863,-1.352645E-07,NaN,0.4218563,2.528779E-09,NaN,-2.183635,1.202664E-05,-0.406691,2.899776E-10,NaN,NaN,-0.0203157,3.911543E-10,5.24522E-07,-1.136656E-07,7.360908E-09,-2.861022E-08
367.491,-0.1456136,-1.649951E-08,NaN,-0.909068,-1.352655E-07,NaN,0.4224738,2.557629E-09,NaN,-2.183492,1.202722E-05,-0.4067218,2.630423E-10,NaN,NaN,-0.02031075,3.864977E-10,5.024683E-07,-1.136677E-07,5.572768E-09,-2.622604E-08
367.5067,-0.1436224,-1.649858E-08,NaN,-0.923727,-1.352665E-07,NaN,0.4230582,2.667764E-09,NaN,-2.183429,1.20278E-05,-0.4067769,1.548204E-10,NaN,NaN,-0.02030604,3.771845E-10,4.780304E-07,-1.136682E-07,5.572768E-09,-2.861022E-08
367.5225,-0.1416424,-1.649765E-08,NaN,-0.9380001,-1.352672E-07,NaN,0.4236277,2.68994E-09,NaN,-2.183435,1.202837E-05,-0.4068458,1.345637E-10,NaN,NaN,-0.02030146,3.678712E-10,4.553806E-07,-1.136683E-07,4.976722E-09,-2.622604E-08
367.5386,-0.1416424,-1.649765E-08,NaN,-0.9380001,-1.352672E-07,NaN,0.4236277,2.68994E-09,NaN,-2.183435,1.202837E-05,-0.4068458,1.345637E-10,NaN,NaN,-0.02030146,3.678712E-10,4.553806E-07,-1.136683E-07,4.976722E-09,-2.622604E-08
367.5537,-0.1396683,-1.649672E-08,NaN,-0.9512107,-1.352676E-07,NaN,0.4242488,2.665328E-09,NaN,-2.183278,1.202894E-05,-0.4066802,1.611005E-10,NaN,NaN,-0.02029639,3.632146E-10,4.410755E-07,-1.136682E-07,3.784629E-09,-2.861022E-08
367.5699,-0.1376993,-1.649578E-08,NaN,-0.9637138,-1.352679E-07,NaN,0.4248195,2.614565E-09,NaN,-2.18314,1.202951E-05,-0.4065244,2.137927E-10,NaN,NaN,-0.02029159,3.58558E-10,4.2081E-07,-1.136681E-07,4.976722E-09,-2.622604E-08
367.5889,-0.1357373,-1.649485E-08,NaN,-0.9757288,-1.35268E-07,NaN,0.4253574,2.549432E-09,NaN,-2.183083,1.203007E-05,-0.4063992,2.808582E-10,NaN,NaN,-0.02028702,3.58558E-10,4.029285E-07,-1.136679E-07,2.592536E-09,-2.861022E-08
367.6036,-0.1337852,-1.649392E-08,NaN,-0.9873917,-1.352682E-07,NaN,0.425881,2.477259E-09,NaN,-2.183094,1.203064E-05,-0.4062937,3.549667E-10,NaN,NaN,-0.02028258,3.539014E-10,3.808748E-07,-1.136677E-07,2.592536E-09,-2.622604E-08
367.6182,-0.1337852,-1.649392E-08,NaN,-0.9873917,-1.352682E-07,NaN,0.425881,2.477259E-09,NaN,-2.183094,1.203064E-05,-0.4062937,3.549667E-10,NaN,NaN,-0.02028258,3.539014E-10,3.808748E-07,-1.136677E-07,2.592536E-09,-2.622604E-08
367.6329,-0.1318374,-1.649298E-08,NaN,-0.9980255,-1.352683E-07,NaN,0.4264562,2.400996E-09,NaN,-2.182941,1.203121E-05,-0.4059601,4.331684E-10,NaN,NaN,-0.02027766,3.539014E-10,3.689539E-07,-1.136674E-07,1.99649E-09,-2.861022E-08
367.6493,-0.1298928,-1.649205E-08,NaN,-1.007985,-1.352684E-07,NaN,0.4269811,2.323543E-09,NaN,-2.182807,1.203177E-05,-0.4056422,5.125622E-10,NaN,NaN,-0.020273,3.492448E-10,3.57033E-07,-1.136672E-07,1.99649E-09,-2.622604E-08
367.6649,-0.1279538,-1.649112E-08,NaN,-1.017489,-1.352684E-07,NaN,0.4274734,2.246332E-09,NaN,-2.182755,1.203234E-05,-0.4053606,5.917167E-10,NaN,NaN,-0.02026858,3.492448E-10,3.379595E-07,-1.136669E-07,1.698467E-09,-2.861022E-08
367.6805,-0.1260235,-1.649019E-08,NaN,-1.026673,-1.352685E-07,NaN,0.427952,2.17482E-09,NaN,-2.18277,1.203291E-05,-0.4051039,6.651731E-10,NaN,NaN,-0.02026429,3.445882E-10,3.200781E-07,-1.136666E-07,2.083509E-10,-2.622604E-08
367.6967,-0.1260235,-1.649019E-08,NaN,-1.026673,-1.352685E-07,NaN,0.427952,2.17482E-09,NaN,-2.18277,1.203291E-05,-0.4051039,6.651731E-10,NaN,NaN,-0.02026429,3.445882E-10,3.200781E-07,-1.136666E-07,2.083509E-10,-2.622604E-08
367.7117,-0.1240964,-1.648926E-08,NaN,-1.034859,-1.352685E-07,NaN,0.4284824,2.104844E-09,NaN,-2.182621,1.203348E-05,-0.4046247,7.370948E-10,NaN,NaN,-0.02025952,3.399316E-10,3.105414E-07,-1.136664E-07,-6.857188E-10,-2.861022E-08
367.7284,-0.1221712,-1.648833E-08,NaN,-1.042401,-1.352686E-07,NaN,0.4289625,2.034958E-09,NaN,-2.182491,1.203404E-05,-0.4041667,8.089267E-10,NaN,NaN,-0.02025502,3.35275E-10,2.974284E-07,-1.136661E-07,-1.877812E-09,-2.622604E-08
367.744,-0.1202505,-1.64874E-08,NaN,-1.049519,-1.352686E-07,NaN,0.4294104,1.966574E-09,NaN,-2.182442,1.203461E-05,-0.4037498,8.792585E-10,NaN,NaN,-0.02025075,3.306184E-10,2.837193E-07,-1.136658E-07,-2.175835E-09,-2.861022E-08
367.7601,-0.1183378,-1.648647E-08,NaN,-1.056347,-1.352687E-07,NaN,0.4298453,1.89966E-09,NaN,-2.182462,1.203518E-05,-0.4033626,9.481198E-10,NaN,NaN,-0.02024661,3.259618E-10,2.688181E-07,-1.136655E-07,-1.281765E-09,-2.622604E-08
367.7758,-0.1183378,-1.648647E-08,NaN,-1.056347,-1.352687E-07,NaN,0.4298453,1.89966E-09,NaN,-2.182462,1.203518E-05,-0.4033626,9.481198E-10,NaN,NaN,-0.02024661,3.259618E-10,2.688181E-07,-1.136655E-07,-1.281765E-09,-2.622604E-08
367.7907,-0.1164278,-1.648553E-08,NaN,-1.062207,-1.352688E-07,NaN,0.4303322,1.834189E-09,NaN,-2.182316,1.203575E-05,-0.4027579,1.015538E-09,NaN,NaN,-0.02024199,3.213051E-10,2.634537E-07,-1.136653E-07,-2.771881E-09,-2.861022E-08
367.8071,-0.1145189,-1.64846E-08,NaN,-1.067452,-1.352688E-07,NaN,0.430769,1.771545E-09,NaN,-2.182189,1.203632E-05,-0.4021792,1.080131E-09,NaN,NaN,-0.02023764,3.166485E-10,2.521288E-07,-1.13665E-07,-6.857186E-10,-2.622604E-08
367.8231,-0.1126138,-1.648367E-08,NaN,-1.072301,-1.352689E-07,NaN,0.431174,1.710258E-09,NaN,-2.182144,1.203689E-05,-0.401646,1.143365E-09,NaN,NaN,-0.02023352,3.119919E-10,2.396118E-07,-1.136647E-07,-3.876954E-10,-2.861022E-08
367.839,-0.1126138,-1.648367E-08,NaN,-1.072301,-1.352689E-07,NaN,0.431174,1.710258E-09,NaN,-2.182144,1.203689E-05,-0.401646,1.143365E-09,NaN,NaN,-0.02023352,3.119919E-10,2.396118E-07,-1.136647E-07,-3.876954E-10,-2.861022E-08
367.854,-0.110708,-1.648274E-08,NaN,-1.076126,-1.352689E-07,NaN,0.4316218,1.650303E-09,NaN,-2.18197,1.203745E-05,-0.4009111,1.205267E-09,NaN,NaN,-0.02022898,3.119919E-10,2.318632E-07,-1.136645E-07,3.573626E-10,-2.622604E-08
367.8704,-0.1088002,-1.648181E-08,NaN,-1.079314,-1.35269E-07,NaN,0.4320152,1.591652E-09,NaN,-2.181825,1.203802E-05,-0.4002164,1.265867E-09,NaN,NaN,-0.02022469,3.073353E-10,2.241146E-07,-1.136642E-07,-6.857186E-10,-2.861022E-08
367.8865,-0.1068942,-1.648088E-08,NaN,-1.082101,-1.35269E-07,NaN,0.432375,1.534276E-09,NaN,-2.181721,1.203858E-05,-0.3995801,1.325191E-09,NaN,NaN,-0.02022059,3.073353E-10,2.169621E-07,-1.136639E-07,5.933937E-11,-2.622604E-08
367.9019,-0.1049948,-1.647995E-08,NaN,-1.084633,-1.352691E-07,NaN,0.4327243,1.478154E-09,NaN,-2.181654,1.203915E-05,-0.398984,1.383261E-09,NaN,NaN,-0.02021662,3.026787E-10,2.080214E-07,-1.136637E-07,-8.967224E-11,-2.861022E-08
367.9176,-0.1049948,-1.647995E-08,NaN,-1.084633,-1.352691E-07,NaN,0.4327243,1.478154E-09,NaN,-2.181654,1.203915E-05,-0.398984,1.383261E-09,NaN,NaN,-0.02021662,3.026787E-10,2.080214E-07,-1.136637E-07,-8.967224E-11,-2.861022E-08
367.9329,-0.1030977,-1.647902E-08,NaN,-1.086237,-1.352691E-07,NaN,0.4331288,1.423261E-09,NaN,-2.181416,1.203972E-05,-0.3981783,1.440101E-09,NaN,NaN,-0.02021221,2.980221E-10,2.068293E-07,-1.136634E-07,-2.386839E-10,-2.622604E-08
367.9496,-0.1012011,-1.647809E-08,NaN,-1.087272,-1.352692E-07,NaN,0.4334831,1.369576E-09,NaN,-2.181145,1.204028E-05,-0.3974111,1.495733E-09,NaN,NaN,-0.02020799,2.980221E-10,2.062332E-07,-1.136632E-07,9.53409E-10,-2.861022E-08
367.9653,-0.09930838,-1.647716E-08,NaN,-1.087958,-1.352692E-07,NaN,0.4338064,1.318483E-09,NaN,-2.18089,1.204085E-05,-0.3967,1.548773E-09,NaN,NaN,-0.02020397,2.933655E-10,1.984846E-07,-1.136629E-07,1.698467E-09,-2.622604E-08
367.9811,-0.09742422,-1.647623E-08,NaN,-1.08843,-1.352693E-07,NaN,0.4341204,1.268522E-09,NaN,-2.18066,1.204142E-05,-0.3960291,1.600681E-09,NaN,NaN,-0.02020008,2.887089E-10,1.931202E-07,-1.136626E-07,1.99649E-09,-2.861022E-08
367.9971,-0.09742422,-1.647623E-08,NaN,-1.08843,-1.352693E-07,NaN,0.4341204,1.268522E-09,NaN,-2.18066,1.204142E-05,-0.3960291,1.600681E-09,NaN,NaN,-0.02020008,2.887089E-10,1.931202E-07,-1.136626E-07,1.99649E-09,-2.861022E-08
368.0119,-0.09554422,-1.64753E-08,NaN,-1.088021,-1.352693E-07,NaN,0.4344878,1.21967E-09,NaN,-2.180258,1.204199E-05,-0.395156,1.65148E-09,NaN,NaN,-0.02019578,2.840523E-10,1.943123E-07,-1.136624E-07,8.789033E-10,-2.622604E-08
368.0285,-0.09367804,-1.647436E-08,NaN,-1.087069,-1.352694E-07,NaN,0.4348153,1.171905E-09,NaN,-2.179819,1.204256E-05,-0.394317,1.701192E-09,NaN,NaN,-0.02019166,2.793957E-10,1.931202E-07,-1.136621E-07,3.114077E-09,-2.861022E-08
368.0441,-0.09184017,-1.647343E-08,NaN,-1.085792,-1.352694E-07,NaN,0.4351256,1.125204E-09,NaN,-2.17939,1.204313E-05,-0.3935318,1.749839E-09,NaN,NaN,-0.02018773,2.747391E-10,1.919281E-07,-1.136619E-07,2.816054E-09,-2.622604E-08
368.0602,-0.09003458,-1.64725E-08,NaN,-1.084325,-1.352694E-07,NaN,0.435436,1.079549E-09,NaN,-2.178986,1.204369E-05,-0.3927854,1.797439E-09,NaN,NaN,-0.02018393,2.700825E-10,1.895439E-07,-1.136616E-07,3.263089E-09,-2.861022E-08
368.076,-0.09003458,-1.64725E-08,NaN,-1.084325,-1.352694E-07,NaN,0.435436,1.079549E-09,NaN,-2.178986,1.204369E-05,-0.3927854,1.797439E-09,NaN,NaN,-0.02018393,2.700825E-10,1.895439E-07,-1.136616E-07,3.263089E-09,-2.861022E-08
368.0912,-0.08825212,-1.647157E-08,NaN,-1.081987,-1.352695E-07,NaN,0.4358046,1.034921E-09,NaN,-2.178406,1.204426E-05,-0.3918345,1.844013E-09,NaN,NaN,-0.0201797,2.654258E-10,1.913321E-07,-1.136614E-07,5.498263E-09,-2.622604E-08
368.1079,-0.08650814,-1.647064E-08,NaN,-1.079132,-1.352695E-07,NaN,0.4361395,9.912959E-10,NaN,-2.177792,1.204483E-05,-0.390923,1.889584E-09,NaN,NaN,-0.02017566,2.561126E-10,1.9014E-07,-1.136611E-07,7.50992E-09,-2.861022E-08
368.1249,-0.08480448,-1.646971E-08,NaN,-1.075976,-1.3527E-07,NaN,0.4364559,1.079669E-09,NaN,-2.177194,1.204541E-05,-0.3900681,1.803152E-09,NaN,NaN,-0.02017181,2.467994E-10,1.919281E-07,-1.136599E-07,3.4121E-09,-2.622604E-08
368.1393,-0.08480448,-1.646971E-08,NaN,-1.075976,-1.3527E-07,NaN,0.4364559,1.079669E-09,NaN,-2.177194,1.204541E-05,-0.3900681,1.803152E-09,NaN,NaN,-0.02017181,2.467994E-10,1.919281E-07,-1.136599E-07,3.4121E-09,-2.622604E-08
368.1544,-0.08313795,-1.646878E-08,NaN,-1.07265,-1.352704E-07,NaN,0.4367683,1.148127E-09,NaN,-2.176626,1.204598E-05,-0.3892557,1.736633E-09,NaN,NaN,-0.02016809,2.374862E-10,1.913321E-07,-1.136587E-07,4.902216E-09,-2.861022E-08
368.1712,-0.08149566,-1.646785E-08,NaN,-1.068475,-1.352708E-07,NaN,0.4371333,1.206917E-09,NaN,-2.175889,1.204655E-05,-0.3882459,1.679781E-09,NaN,NaN,-0.02016396,2.28173E-10,1.961004E-07,-1.136574E-07,6.392332E-09,-2.622604E-08
368.187,-0.07989015,-1.646691E-08,NaN,-1.063802,-1.352712E-07,NaN,0.4374605,1.260454E-09,NaN,-2.175122,1.204713E-05,-0.3872803,1.628179E-09,NaN,NaN,-0.02016002,2.188597E-10,2.008688E-07,-1.13656E-07,5.051228E-09,-2.861022E-08
368.2027,-0.07832195,-1.646598E-08,NaN,-1.058848,-1.352715E-07,NaN,0.4377664,1.311664E-09,NaN,-2.174376,1.20477E-05,-0.3863751,1.578903E-09,NaN,NaN,-0.02015628,2.095465E-10,1.984846E-07,-1.136547E-07,7.733437E-09,-2.622604E-08
368.2189,-0.07832195,-1.646598E-08,NaN,-1.058848,-1.352715E-07,NaN,0.4377664,1.311664E-09,NaN,-2.174376,1.20477E-05,-0.3863751,1.578903E-09,NaN,NaN,-0.02015628,2.095465E-10,1.984846E-07,-1.136547E-07,7.733437E-09,-2.622604E-08
368.2338,-0.0767874,-1.646505E-08,NaN,-1.053743,-1.352718E-07,NaN,0.438066,1.36059E-09,NaN,-2.173665,1.204827E-05,-0.385516,1.531911E-09,NaN,NaN,-0.02015268,2.002333E-10,2.020609E-07,-1.136534E-07,6.466838E-09,-2.861022E-08
368.2503,-0.07527375,-1.646412E-08,NaN,-1.047807,-1.352721E-07,NaN,0.4384151,1.408646E-09,NaN,-2.172788,1.204884E-05,-0.3844661,1.485788E-09,NaN,NaN,-0.02014867,1.955767E-10,2.104056E-07,-1.136521E-07,5.572768E-09,-2.622604E-08
368.2661,-0.07379287,-1.646318E-08,NaN,-1.041391,-1.352724E-07,NaN,0.438725,1.4573E-09,NaN,-2.171886,1.204941E-05,-0.383464,1.439068E-09,NaN,NaN,-0.02014486,1.955767E-10,2.139818E-07,-1.136508E-07,6.913873E-09,-2.861022E-08
368.2817,-0.07234518,-1.646225E-08,NaN,-1.034713,-1.352727E-07,NaN,0.4390127,1.505129E-09,NaN,-2.171009,1.204997E-05,-0.3825251,1.393173E-09,NaN,NaN,-0.02014125,1.955767E-10,2.169621E-07,-1.136495E-07,5.051228E-09,-2.622604E-08
368.2978,-0.07234518,-1.646225E-08,NaN,-1.034713,-1.352727E-07,NaN,0.4390127,1.505129E-09,NaN,-2.171009,1.204997E-05,-0.3825251,1.393173E-09,NaN,NaN,-0.02014125,1.955767E-10,2.169621E-07,-1.136495E-07,5.051228E-09,-2.622604E-08
368.3128,-0.07092734,-1.646132E-08,NaN,-1.027902,-1.35273E-07,NaN,0.4392934,1.552146E-09,NaN,-2.17017,1.205054E-05,-0.381635,1.348088E-09,NaN,NaN,-0.02013777,1.909201E-10,2.187502E-07,-1.136482E-07,4.529687E-09,-2.861022E-08
368.3297,-0.06952715,-1.646039E-08,NaN,-1.020278,-1.352733E-07,NaN,0.4396211,1.599782E-09,NaN,-2.16917,1.205111E-05,-0.3805603,1.302385E-09,NaN,NaN,-0.02013391,1.862634E-10,2.276909E-07,-1.136469E-07,3.859135E-09,-2.622604E-08
368.3452,-0.06815594,-1.645945E-08,NaN,-1.012192,-1.352736E-07,NaN,0.4399089,1.64661E-09,NaN,-2.168147,1.205166E-05,-0.3795369,1.257489E-09,NaN,NaN,-0.02013025,1.909201E-10,2.324593E-07,-1.136456E-07,4.604193E-09,-2.861022E-08
368.3607,-0.06681419,-1.645852E-08,NaN,-1.003861,-1.352739E-07,NaN,0.4401741,1.69406E-09,NaN,-2.167153,1.205224E-05,-0.3785788,1.211971E-09,NaN,NaN,-0.02012678,1.816068E-10,2.354395E-07,-1.136443E-07,4.678699E-09,-2.622604E-08
368.3766,-0.06681419,-1.645852E-08,NaN,-1.003861,-1.352739E-07,NaN,0.4401741,1.69406E-09,NaN,-2.167153,1.205224E-05,-0.3785788,1.211971E-09,NaN,NaN,-0.02012678,1.816068E-10,2.354395E-07,-1.136443E-07,4.678699E-09,-2.622604E-08
368.392,-0.06549888,-1.645759E-08,NaN,-0.9954147,-1.352742E-07,NaN,0.4404319,1.74212E-09,NaN,-2.166201,1.20528E-05,-0.3776716,1.165843E-09,NaN,NaN,-0.02012345,1.862634E-10,2.396118E-07,-1.13643E-07,4.082653E-09,-2.861022E-08
368.4083,-0.06419849,-1.645666E-08,NaN,-0.9861731,-1.352745E-07,NaN,0.4407345,1.789364E-09,NaN,-2.16509,1.205337E-05,-0.3765863,1.120529E-09,NaN,NaN,-0.02011975,1.769502E-10,2.485525E-07,-1.136417E-07,2.294513E-09,-2.622604E-08
368.4243,-0.06292374,-1.645572E-08,NaN,-0.9764873,-1.352748E-07,NaN,0.4409969,1.837222E-09,NaN,-2.163961,1.205393E-05,-0.375555,1.074603E-09,NaN,NaN,-0.02011624,1.769502E-10,2.580893E-07,-1.136405E-07,8.043974E-10,-2.861022E-08
368.4406,-0.06167517,-1.645479E-08,NaN,-0.9665722,-1.352751E-07,NaN,0.4412365,1.884266E-09,NaN,-2.162863,1.205451E-05,-0.3745909,1.029491E-09,NaN,NaN,-0.02011293,1.67637E-10,2.646458E-07,-1.136392E-07,3.039571E-09,-2.622604E-08
368.456,-0.06167517,-1.645479E-08,NaN,-0.9665722,-1.352751E-07,NaN,0.4412365,1.884266E-09,NaN,-2.162863,1.205451E-05,-0.3745909,1.029491E-09,NaN,NaN,-0.02011293,1.67637E-10,2.646458E-07,-1.136392E-07,3.039571E-09,-2.622604E-08
368.4708,-0.06045007,-1.645386E-08,NaN,-0.9565597,-1.352754E-07,NaN,0.4414685,1.931928E-09,NaN,-2.161811,1.205507E-05,-0.3736794,9.837591E-10,NaN,NaN,-0.02010976,1.67637E-10,2.712023E-07,-1.136379E-07,1.99649E-09,-2.861022E-08
368.4875,-0.05923766,-1.645293E-08,NaN,-0.9457687,-1.352757E-07,NaN,0.4417433,1.978783E-09,NaN,-2.160603,1.205564E-05,-0.3725963,9.388357E-10,NaN,NaN,-0.02010622,1.583237E-10,2.819311E-07,-1.136367E-07,3.188583E-09,-2.622604E-08
368.503,-0.05804794,-1.645199E-08,NaN,-0.93455,-1.35276E-07,NaN,0.4419777,2.026259E-09,NaN,-2.159379,1.205621E-05,-0.3715696,8.932904E-10,NaN,NaN,-0.0201029,1.583237E-10,2.902758E-07,-1.136354E-07,5.572769E-09,-2.861022E-08
368.5191,-0.05804794,-1.645199E-08,NaN,-0.93455,-1.35276E-07,NaN,0.4419777,2.026259E-09,NaN,-2.159379,1.205621E-05,-0.3715696,8.932904E-10,NaN,NaN,-0.0201029,1.583237E-10,2.902758E-07,-1.136354E-07,5.572769E-09,-2.861022E-08
368.5343,-0.05688155,-1.645106E-08,NaN,-0.9231186,-1.352762E-07,NaN,0.4421895,2.074344E-09,NaN,-2.15819,1.205678E-05,-0.3706114,8.471353E-10,NaN,NaN,-0.02009976,1.490105E-10,2.962362E-07,-1.136342E-07,8.254978E-09,-2.622604E-08
368.5511,-0.05573608,-1.645013E-08,NaN,-0.9116061,-1.352765E-07,NaN,0.4423938,2.121613E-09,NaN,-2.15705,1.205734E-05,-0.3697072,8.01797E-10,NaN,NaN,-0.02009676,1.490105E-10,3.004086E-07,-1.136329E-07,1.123521E-08,-2.861022E-08
368.5669,-0.05460869,-1.64492E-08,NaN,-0.9000935,-1.352768E-07,NaN,0.4425966,2.169496E-09,NaN,-2.155958,1.205792E-05,-0.3688453,7.558437E-10,NaN,NaN,-0.02009387,1.396973E-10,3.045809E-07,-1.136317E-07,1.093719E-08,-2.622604E-08
368.5832,-0.05349696,-1.644826E-08,NaN,-0.8886302,-1.352771E-07,NaN,0.4427992,2.216566E-09,NaN,-2.154908,1.205848E-05,-0.3680188,7.107021E-10,NaN,NaN,-0.02009107,1.396973E-10,3.105414E-07,-1.136304E-07,8.553002E-09,-2.861022E-08
368.5982,-0.05349696,-1.644826E-08,NaN,-0.8886302,-1.352771E-07,NaN,0.4427992,2.216566E-09,NaN,-2.154908,1.205848E-05,-0.3680188,7.107021E-10,NaN,NaN,-0.02009107,1.396973E-10,3.105414E-07,-1.136304E-07,8.553002E-09,-2.861022E-08
368.6131,-0.0523991,-1.644733E-08,NaN,-0.8772462,-1.352774E-07,NaN,0.4430013,2.264254E-09,NaN,-2.153896,1.205905E-05,-0.3672235,6.649442E-10,NaN,NaN,-0.02008835,1.350407E-10,3.159058E-07,-1.136292E-07,9.149049E-09,-2.622604E-08
368.6312,-0.05131384,-1.64464E-08,NaN,-0.8659599,-1.352777E-07,NaN,0.4432022,2.311134E-09,NaN,-2.152917,1.205962E-05,-0.3664568,6.199953E-10,NaN,NaN,-0.0200857,1.303841E-10,3.1829E-07,-1.13628E-07,1.034114E-08,-2.861022E-08
368.6458,-0.05024712,-1.644547E-08,NaN,-0.855544,-1.352779E-07,NaN,0.443361,2.358635E-09,NaN,-2.15217,1.206019E-05,-0.3659203,5.744256E-10,NaN,NaN,-0.02008358,1.257275E-10,3.141176E-07,-1.136268E-07,9.149049E-09,-2.622604E-08
368.6615,-0.04918797,-1.644453E-08,NaN,-0.8457044,-1.352782E-07,NaN,0.4435571,2.406743E-09,NaN,-2.151506,1.206075E-05,-0.3653865,5.282483E-10,NaN,NaN,-0.02008141,1.210708E-10,3.135216E-07,-1.136256E-07,1.093719E-08,-2.861022E-08
368.6773,-0.04918797,-1.644453E-08,NaN,-0.8457044,-1.352782E-07,NaN,0.4435571,2.406743E-09,NaN,-2.151506,1.206075E-05,-0.3653865,5.282483E-10,NaN,NaN,-0.02008141,1.210708E-10,3.135216E-07,-1.136256E-07,1.093719E-08,-2.861022E-08
368.6926,-0.04813359,-1.64436E-08,NaN,-0.83626,-1.352785E-07,NaN,0.443772,2.454037E-09,NaN,-2.150867,1.206132E-05,-0.3648401,4.828855E-10,NaN,NaN,-0.02007921,1.164142E-10,3.129255E-07,-1.136243E-07,9.149049E-09,-2.622604E-08
368.7088,-0.04708424,-1.644267E-08,NaN,-0.8270985,-1.352788E-07,NaN,0.4439898,2.501944E-09,NaN,-2.150234,1.206189E-05,-0.3642918,4.369088E-10,NaN,NaN,-0.02007702,1.117576E-10,3.111374E-07,-1.136231E-07,1.123521E-08,-2.861022E-08
368.7247,-0.04604754,-1.644174E-08,NaN,-0.818912,-1.352791E-07,NaN,0.4441649,2.549038E-09,NaN,-2.149806,1.206246E-05,-0.3639511,3.917456E-10,NaN,NaN,-0.02007531,1.07101E-10,3.081571E-07,-1.136219E-07,9.149049E-09,-2.622604E-08
368.7406,-0.0450154,-1.64408E-08,NaN,-0.8113575,-1.352793E-07,NaN,0.4443743,2.596751E-09,NaN,-2.149438,1.206302E-05,-0.3635994,3.459639E-10,NaN,NaN,-0.02007353,1.117576E-10,3.081571E-07,-1.136207E-07,1.063916E-08,-2.861022E-08
368.7567,-0.0450154,-1.64408E-08,NaN,-0.8113575,-1.352793E-07,NaN,0.4443743,2.596751E-09,NaN,-2.149438,1.206302E-05,-0.3635994,3.459639E-10,NaN,NaN,-0.02007353,1.117576E-10,3.081571E-07,-1.136207E-07,1.063916E-08,-2.861022E-08
368.7716,-0.04398641,-1.643987E-08,NaN,-0.8042228,-1.352796E-07,NaN,0.4445994,2.643653E-09,NaN,-2.149076,1.206358E-05,-0.3632253,3.009928E-10,NaN,NaN,-0.0200717,1.164142E-10,3.057729E-07,-1.136195E-07,9.745095E-09,-2.622604E-08
368.7881,-0.04296157,-1.643894E-08,NaN,-0.7973766,-1.352799E-07,NaN,0.4448257,2.691175E-09,NaN,-2.148705,1.206414E-05,-0.3628414,2.55401E-10,NaN,NaN,-0.02006986,1.117576E-10,3.021967E-07,-1.136183E-07,1.212928E-08,-2.861022E-08
368.804,-0.04194869,-1.6438E-08,NaN,-0.7914989,-1.352801E-07,NaN,0.4450086,2.739305E-09,NaN,-2.148528,1.20647E-05,-0.3626564,2.092021E-10,NaN,NaN,-0.02006848,1.164142E-10,2.926599E-07,-1.136171E-07,1.36194E-08,-2.622604E-08
368.8197,-0.04194869,-1.6438E-08,NaN,-0.7914989,-1.352801E-07,NaN,0.4450086,2.739305E-09,NaN,-2.148528,1.20647E-05,-0.3626564,2.092021E-10,NaN,NaN,-0.02006848,1.164142E-10,2.926599E-07,-1.136171E-07,1.36194E-08,-2.622604E-08
368.8346,-0.04094078,-1.643707E-08,NaN,-0.7862398,-1.352804E-07,NaN,0.4452249,2.786615E-09,NaN,-2.1484,1.206527E-05,-0.3624545,1.638223E-10,NaN,NaN,-0.02006703,1.117576E-10,2.855074E-07,-1.13616E-07,1.123521E-08,-2.861022E-08
368.8511,-0.03993664,-1.643614E-08,NaN,-0.7813827,-1.352807E-07,NaN,0.4454564,2.834537E-09,NaN,-2.148271,1.206584E-05,-0.3622248,1.178308E-10,NaN,NaN,-0.02006552,1.07101E-10,2.80143E-07,-1.136148E-07,1.123521E-08,-2.622604E-08
368.8669,-0.03893719,-1.643521E-08,NaN,-0.7767934,-1.352809E-07,NaN,0.4456889,2.881649E-09,NaN,-2.148125,1.206641E-05,-0.3619802,7.264998E-11,NaN,NaN,-0.020064,1.024444E-10,2.765667E-07,-1.136136E-07,1.302335E-08,-2.861022E-08
368.8835,-0.03794993,-1.643427E-08,NaN,-0.7731502,-1.352812E-07,NaN,0.4458781,2.929378E-09,NaN,-2.148166,1.206698E-05,-0.3619289,2.68518E-11,NaN,NaN,-0.02006292,9.778777E-11,2.688181E-07,-1.136124E-07,1.183126E-08,-2.622604E-08
368.8988,-0.03794993,-1.643427E-08,NaN,-0.7731502,-1.352812E-07,NaN,0.4458781,2.929378E-09,NaN,-2.148166,1.206698E-05,-0.3619289,2.68518E-11,NaN,NaN,-0.02006292,9.778777E-11,2.688181E-07,-1.136124E-07,1.183126E-08,-2.622604E-08
368.9138,-0.03696841,-1.643334E-08,NaN,-0.7701026,-1.352815E-07,NaN,0.4461007,2.976298E-09,NaN,-2.148252,1.206754E-05,-0.3618563,-1.813692E-11,NaN,NaN,-0.02006176,9.313116E-11,2.622616E-07,-1.136113E-07,8.851027E-09,-2.861022E-08
368.9303,-0.03599139,-1.643241E-08,NaN,-0.7674335,-1.352818E-07,NaN,0.4463386,3.023837E-09,NaN,-2.148329,1.206811E-05,-0.3617516,-6.374581E-11,NaN,NaN,-0.02006053,8.847454E-11,2.55109E-07,-1.136101E-07,1.004312E-08,-2.622604E-08
368.946,-0.03501958,-1.643148E-08,NaN,-0.7650082,-1.35282E-07,NaN,0.4465776,3.070572E-09,NaN,-2.148384,1.206868E-05,-0.3616279,-1.085504E-10,NaN,NaN,-0.02005928,8.381792E-11,2.479565E-07,-1.13609E-07,1.123521E-08,-2.861022E-08
368.962,-0.03406017,-1.643054E-08,NaN,-0.7635049,-1.352823E-07,NaN,0.4467733,3.117884E-09,NaN,-2.148621,1.206925E-05,-0.3616936,-1.53933E-10,NaN,NaN,-0.02005847,7.916131E-11,2.372276E-07,-1.136078E-07,1.063917E-08,-2.622604E-08
368.9776,-0.03406017,-1.643054E-08,NaN,-0.7635049,-1.352823E-07,NaN,0.4467733,3.117884E-09,NaN,-2.148621,1.206925E-05,-0.3616936,-1.53933E-10,NaN,NaN,-0.02005847,7.916131E-11,2.372276E-07,-1.136078E-07,1.063917E-08,-2.622604E-08
368.993,-0.03310708,-1.642961E-08,NaN,-0.7625734,-1.352825E-07,NaN,0.4470025,3.164395E-09,NaN,-2.148897,1.206982E-05,-0.3617342,-1.985153E-10,NaN,NaN,-0.02005756,7.450469E-11,2.273928E-07,-1.136067E-07,1.004312E-08,-2.861022E-08
369.0094,-0.03215896,-1.642868E-08,NaN,-0.7619966,-1.352828E-07,NaN,0.4472474,3.211534E-09,NaN,-2.14916,1.207039E-05,-0.3617392,-2.437252E-10,NaN,NaN,-0.02005658,6.984808E-11,2.205383E-07,-1.136055E-07,9.447072E-09,-2.622604E-08
369.0257,-0.03121635,-1.642775E-08,NaN,-0.76164,-1.35283E-07,NaN,0.4474935,3.257876E-09,NaN,-2.149396,1.207095E-05,-0.3617215,-2.881386E-10,NaN,NaN,-0.02005557,7.450469E-11,2.121937E-07,-1.136044E-07,8.851025E-09,-2.861022E-08
369.0415,-0.0302862,-1.642681E-08,NaN,-0.7621782,-1.352833E-07,NaN,0.4476964,3.304847E-09,NaN,-2.149808,1.20715E-05,-0.3618892,-3.331819E-10,NaN,NaN,-0.02005498,7.916131E-11,1.987826E-07,-1.136032E-07,8.851025E-09,-2.622604E-08
369.0573,-0.0302862,-1.642681E-08,NaN,-0.7621782,-1.352833E-07,NaN,0.4476964,3.304847E-09,NaN,-2.149808,1.20715E-05,-0.3618892,-3.331819E-10,NaN,NaN,-0.02005498,7.916131E-11,1.987826E-07,-1.136032E-07,8.851025E-09,-2.622604E-08
369.0721,-0.02936732,-1.642588E-08,NaN,-0.7632657,-1.352836E-07,NaN,0.447935,3.352437E-09,NaN,-2.150253,1.207206E-05,-0.3620295,-3.788437E-10,NaN,NaN,-0.0200543,8.381792E-11,1.892459E-07,-1.136021E-07,7.658932E-09,-2.861022E-08
369.0887,-0.02846083,-1.642495E-08,NaN,-0.7646853,-1.352838E-07,NaN,0.4481927,3.399218E-09,NaN,-2.150678,1.207263E-05,-0.3621299,-4.236966E-10,NaN,NaN,-0.02005354,7.916131E-11,1.794111E-07,-1.13601E-07,6.46684E-09,-2.622604E-08
369.1046,-0.02756675,-1.642402E-08,NaN,-0.7663024,-1.352841E-07,NaN,0.448454,3.446623E-09,NaN,-2.15107,1.20732E-05,-0.3622033,-4.691747E-10,NaN,NaN,-0.02005274,7.450469E-11,1.728546E-07,-1.135999E-07,5.870793E-09,-2.861022E-08
369.1206,-0.02669061,-1.642308E-08,NaN,-0.7687953,-1.352843E-07,NaN,0.4486721,3.493227E-09,NaN,-2.151634,1.207377E-05,-0.3624613,-5.138514E-10,NaN,NaN,-0.02005236,6.984808E-11,1.594436E-07,-1.135987E-07,7.062886E-09,-2.622604E-08
369.1377,-0.02669061,-1.642308E-08,NaN,-0.7687953,-1.352843E-07,NaN,0.4486721,3.493227E-09,NaN,-2.151634,1.207377E-05,-0.3624613,-5.138514E-10,NaN,NaN,-0.02005236,6.984808E-11,1.594436E-07,-1.135987E-07,7.062886E-09,-2.622604E-08
369.1518,-0.02583097,-1.642215E-08,NaN,-0.7718146,-1.352846E-07,NaN,0.4489276,3.540456E-09,NaN,-2.152225,1.207434E-05,-0.3626878,-5.591522E-10,NaN,NaN,-0.02005188,6.519146E-11,1.472246E-07,-1.135976E-07,7.658933E-09,-2.861022E-08
369.1677,-0.02498604,-1.642122E-08,NaN,-0.7751437,-1.352848E-07,NaN,0.449202,3.586886E-09,NaN,-2.152793,1.207489E-05,-0.3628714,-6.036543E-10,NaN,NaN,-0.02005131,6.984808E-11,1.367938E-07,-1.135965E-07,8.25498E-09,-2.622604E-08
369.1835,-0.02415418,-1.642029E-08,NaN,-0.7786483,-1.352851E-07,NaN,0.4494793,3.633944E-09,NaN,-2.153324,1.207546E-05,-0.3630254,-6.487851E-10,NaN,NaN,-0.02005069,6.519146E-11,1.281511E-07,-1.135954E-07,8.25498E-09,-2.861022E-08
369.1994,-0.02415418,-1.642029E-08,NaN,-0.7786483,-1.352851E-07,NaN,0.4494793,3.633944E-09,NaN,-2.153324,1.207546E-05,-0.3630254,-6.487851E-10,NaN,NaN,-0.02005069,6.519146E-11,1.281511E-07,-1.135954E-07,8.25498E-09,-2.861022E-08
369.2141,-0.02334011,-1.641935E-08,NaN,-0.7830068,-1.352853E-07,NaN,0.4497118,3.680204E-09,NaN,-2.154025,1.207603E-05,-0.3633636,-6.931167E-10,NaN,NaN,-0.02005049,6.053485E-11,1.159322E-07,-1.135943E-07,7.062887E-09,-2.622604E-08
369.2308,-0.02254154,-1.641842E-08,NaN,-0.7878704,-1.352856E-07,NaN,0.4499811,3.727099E-09,NaN,-2.15475,1.207659E-05,-0.3636684,-7.380833E-10,NaN,NaN,-0.02005019,6.519146E-11,1.049053E-07,-1.135932E-07,6.466841E-09,-2.861022E-08
369.2466,-0.02175634,-1.641749E-08,NaN,-0.7930226,-1.352858E-07,NaN,0.4502692,3.773198E-09,NaN,-2.155448,1.207715E-05,-0.3639278,-7.82254E-10,NaN,NaN,-0.02004979,6.984808E-11,9.536857E-08,-1.135921E-07,4.678701E-09,-2.622604E-08
369.2625,-0.02098281,-1.641656E-08,NaN,-0.7983293,-1.352861E-07,NaN,0.4505602,3.819935E-09,NaN,-2.156106,1.207772E-05,-0.3641549,-8.270631E-10,NaN,NaN,-0.02004934,6.519146E-11,8.67259E-08,-1.13591E-07,4.678701E-09,-2.861022E-08
369.2783,-0.02098281,-1.641656E-08,NaN,-0.7983293,-1.352861E-07,NaN,0.4505602,3.819935E-09,NaN,-2.156106,1.207772E-05,-0.3641549,-8.270631E-10,NaN,NaN,-0.02004934,6.519146E-11,8.67259E-08,-1.13591E-07,4.678701E-09,-2.861022E-08
369.2934,-0.02022588,-1.641562E-08,NaN,-0.804469,-1.352863E-07,NaN,0.4508051,3.865881E-09,NaN,-2.15693,1.207829E-05,-0.3645665,-8.71082E-10,NaN,NaN,-0.02004931,6.053485E-11,7.331485E-08,-1.135899E-07,3.486609E-09,-2.622604E-08
369.3098,-0.01948296,-1.641469E-08,NaN,-0.8110933,-1.352866E-07,NaN,0.4510871,3.912467E-09,NaN,-2.157776,1.207885E-05,-0.3649428,-9.157405E-10,NaN,NaN,-0.02004918,5.587824E-11,5.99038E-08,-1.135889E-07,3.486609E-09,-2.861022E-08
369.3257,-0.01875191,-1.641376E-08,NaN,-0.8179859,-1.352868E-07,NaN,0.4513881,3.958267E-09,NaN,-2.158592,1.207942E-05,-0.3652712,-9.596128E-10,NaN,NaN,-0.02004893,5.122162E-11,4.887695E-08,-1.135878E-07,2.592539E-09,-2.622604E-08
369.3412,-0.01803113,-1.641282E-08,NaN,-0.8250127,-1.352871E-07,NaN,0.4516923,4.00471E-09,NaN,-2.159364,1.207999E-05,-0.3655649,-1.004127E-09,NaN,NaN,-0.02004863,4.656501E-11,3.963822E-08,-1.135867E-07,1.400446E-09,-2.861022E-08
369.3575,-0.01803113,-1.641282E-08,NaN,-0.8250127,-1.352871E-07,NaN,0.4516923,4.00471E-09,NaN,-2.159364,1.207999E-05,-0.3655649,-1.004127E-09,NaN,NaN,-0.02004863,4.656501E-11,3.963822E-08,-1.135867E-07,1.400446E-09,-2.861022E-08
369.3723,-0.01732594,-1.641189E-08,NaN,-0.8328525,-1.352873E-07,NaN,0.4519492,4.05037E-09,NaN,-2.1603,1.208056E-05,-0.3660438,-1.047858E-09,NaN,NaN,-0.02004875,4.19084E-11,2.533311E-08,-1.135856E-07,2.294516E-09,-2.622604E-08
369.3889,-0.01663345,-1.641096E-08,NaN,-0.8411573,-1.352875E-07,NaN,0.4522436,4.096675E-09,NaN,-2.161254,1.208113E-05,-0.3664858,-1.092234E-09,NaN,NaN,-0.02004875,3.725179E-11,1.341218E-08,-1.135846E-07,1.698469E-09,-2.861022E-08
369.4044,-0.01595153,-1.641003E-08,NaN,-0.8497108,-1.352878E-07,NaN,0.4525575,4.14079E-09,NaN,-2.162175,1.208169E-05,-0.3668774,-1.134418E-09,NaN,NaN,-0.02004865,3.725179E-11,2.99158E-10,-1.135835E-07,3.784632E-09,-2.622604E-08
369.42,-0.0152787,-1.640909E-08,NaN,-0.8583792,-1.35288E-07,NaN,0.452875,4.185576E-09,NaN,-2.16305,1.208226E-05,-0.367232,-1.177273E-09,NaN,NaN,-0.02004848,3.725179E-11,-8.641538E-09,-1.135825E-07,2.890562E-09,-2.861022E-08
369.4359,-0.0152787,-1.640909E-08,NaN,-0.8583792,-1.35288E-07,NaN,0.452875,4.185576E-09,NaN,-2.16305,1.208226E-05,-0.367232,-1.177273E-09,NaN,NaN,-0.02004848,3.725179E-11,-8.641538E-09,-1.135825E-07,2.890562E-09,-2.861022E-08
369.4509,-0.01462068,-1.640816E-08,NaN,-0.8678414,-1.352883E-07,NaN,0.4531439,4.229613E-09,NaN,-2.164085,1.208282E-05,-0.3677731,-1.219379E-09,NaN,NaN,-0.02004875,3.725179E-11,-2.503281E-08,-1.135814E-07,2.083531E-10,-2.622604E-08
369.4684,-0.01397428,-1.640723E-08,NaN,-0.8777496,-1.352885E-07,NaN,0.4534506,4.274327E-09,NaN,-2.165137,1.208339E-05,-0.3682757,-1.262162E-09,NaN,NaN,-0.02004889,2.793856E-11,-3.814583E-08,-1.135804E-07,-3.876933E-10,-2.861022E-08
369.4835,-0.01333733,-1.64063E-08,NaN,-0.887888,-1.352887E-07,NaN,0.4537776,4.318293E-09,NaN,-2.166152,1.208396E-05,-0.3687258,-1.304196E-09,NaN,NaN,-0.02004892,2.793856E-11,-5.18549E-08,-1.135793E-07,5.063763E-10,-2.622604E-08
369.4995,-0.01333733,-1.64063E-08,NaN,-0.887888,-1.352887E-07,NaN,0.4537776,4.318293E-09,NaN,-2.166152,1.208396E-05,-0.3687258,-1.304196E-09,NaN,NaN,-0.02004892,2.793856E-11,-5.18549E-08,-1.135793E-07,5.063763E-10,-2.622604E-08
369.5144,-0.01271543,-1.640536E-08,NaN,-0.8988845,-1.35289E-07,NaN,0.4540619,4.362936E-09,NaN,-2.167325,1.208452E-05,-0.3693523,-1.346907E-09,NaN,NaN,-0.02004935,2.793856E-11,-7.092839E-08,-1.135783E-07,1.996492E-09,-2.861022E-08
369.5307,-0.01210472,-1.640443E-08,NaN,-0.9103601,-1.352892E-07,NaN,0.454386,4.406831E-09,NaN,-2.168507,1.208508E-05,-0.3699327,-1.388869E-09,NaN,NaN,-0.02004964,2.793856E-11,-8.463746E-08,-1.135772E-07,2.890562E-09,-2.622604E-08
369.5462,-0.0115028,-1.64035E-08,NaN,-0.9220794,-1.352894E-07,NaN,0.4547306,4.451405E-09,NaN,-2.169644,1.208565E-05,-0.3704547,-1.431511E-09,NaN,NaN,-0.0200498,2.793856E-11,-9.775049E-08,-1.135762E-07,1.698469E-09,-2.861022E-08
369.5624,-0.01090826,-1.640257E-08,NaN,-0.9338962,-1.352897E-07,NaN,0.4550788,4.495233E-09,NaN,-2.170725,1.208621E-05,-0.3709331,-1.473406E-09,NaN,NaN,-0.02004989,2.793856E-11,-1.090754E-07,-1.135752E-07,8.043995E-10,-2.622604E-08
369.5782,-0.01090826,-1.640257E-08,NaN,-0.9338962,-1.352897E-07,NaN,0.4550788,4.495233E-09,NaN,-2.170725,1.208621E-05,-0.3709331,-1.473406E-09,NaN,NaN,-0.02004989,2.793856E-11,-1.090754E-07,-1.135752E-07,8.043995E-10,-2.622604E-08
369.5935,-0.01032768,-1.640163E-08,NaN,-0.9464819,-1.352899E-07,NaN,0.4553746,4.539741E-09,NaN,-2.17196,1.208678E-05,-0.3716002,-1.515982E-09,NaN,NaN,-0.02005041,2.793856E-11,-1.269568E-07,-1.135742E-07,1.996492E-09,-2.861022E-08
369.6097,-0.009756966,-1.64007E-08,NaN,-0.959485,-1.352901E-07,NaN,0.4557086,4.583502E-09,NaN,-2.173203,1.208734E-05,-0.3722258,-1.55781E-09,NaN,NaN,-0.02005081,2.793856E-11,-1.400698E-07,-1.135731E-07,5.934142E-11,-2.622604E-08
