JMolnar6/NonAnthroHands_User_Study/HandsLoggerWithURDF/tempdata/files/Reachy_PID0_JointMotion_gesture_3_13.csv
Time,r_shoulder,r_shoulder_x,r_upper_arm,r_forearm,r_wrist,r_wrist2hand,
154.4443,0.04505739,-2.838484E-08,NaN,-0.3271986,-1.374393E-07,NaN,0.2649415,5.436275E-08,NaN,-2.151378,4.837181E-06,-0.3696754,-1.612312E-08,NaN,NaN,-0.02004292,2.002336E-10,-7.048482E-07,-1.15136E-07,7.554207E-09,-2.622604E-08
154.4592,0.04505739,-2.838484E-08,NaN,-0.3271986,-1.374393E-07,NaN,0.2649415,5.436275E-08,NaN,-2.151378,4.837181E-06,-0.3696754,-1.612312E-08,NaN,NaN,-0.02004292,2.002336E-10,-7.048482E-07,-1.15136E-07,7.554207E-09,-2.622604E-08
154.4737,0.04505718,-2.83837E-08,NaN,-0.3271976,-1.374399E-07,NaN,0.2661676,5.446931E-08,NaN,-2.151411,4.837902E-06,-0.3704254,-1.622728E-08,NaN,NaN,-0.02004517,2.095468E-10,-7.400149E-07,-1.15139E-07,7.554207E-09,-2.861022E-08
154.4883,0.04505698,-2.838256E-08,NaN,-0.3271965,-1.374405E-07,NaN,0.2682155,5.457326E-08,NaN,-2.151466,4.838629E-06,-0.3710321,-1.632883E-08,NaN,NaN,-0.02004695,2.142034E-10,-7.673772E-07,-1.15142E-07,7.554207E-09,-2.622604E-08
154.5029,0.04505678,-2.838142E-08,NaN,-0.3271955,-1.374411E-07,NaN,0.2706987,5.467395E-08,NaN,-2.151512,4.83935E-06,-0.3714291,-1.642712E-08,NaN,NaN,-0.02004808,2.235167E-10,-7.871398E-07,-1.15145E-07,7.554207E-09,-2.861022E-08
154.519,0.04505678,-2.838142E-08,NaN,-0.3271955,-1.374411E-07,NaN,0.2706987,5.467395E-08,NaN,-2.151512,4.83935E-06,-0.3714291,-1.642712E-08,NaN,NaN,-0.02004808,2.235167E-10,-7.871398E-07,-1.15145E-07,7.554207E-09,-2.861022E-08
154.5336,0.04505657,-2.838028E-08,NaN,-0.3271944,-1.374422E-07,NaN,0.2733665,5.464371E-08,NaN,-2.151545,4.840086E-06,-0.3717014,-1.639448E-08,NaN,NaN,-0.02004885,2.188601E-10,-8.00346E-07,-1.151471E-07,7.554207E-09,-2.622604E-08
154.5479,0.04505638,-2.837915E-08,NaN,-0.3271934,-1.374431E-07,NaN,0.2753585,5.460651E-08,NaN,-2.151484,4.840822E-06,-0.3710039,-1.635488E-08,NaN,NaN,-0.02004668,2.142034E-10,-7.692025E-07,-1.151491E-07,7.554207E-09,-2.861022E-08
154.5616,0.04505618,-2.837801E-08,NaN,-0.3271924,-1.374441E-07,NaN,0.2765251,5.456528E-08,NaN,-2.151393,4.841558E-06,-0.3704169,-1.631126E-08,NaN,NaN,-0.0200449,2.095468E-10,-7.430324E-07,-1.15151E-07,5.170021E-09,-2.622604E-08
154.5761,0.04505618,-2.837801E-08,NaN,-0.3271924,-1.374441E-07,NaN,0.2765251,5.456528E-08,NaN,-2.151393,4.841558E-06,-0.3704169,-1.631126E-08,NaN,NaN,-0.0200449,2.095468E-10,-7.430324E-07,-1.15151E-07,5.170021E-09,-2.622604E-08
154.5899,0.04505599,-2.837687E-08,NaN,-0.3271914,-1.37445E-07,NaN,0.2772284,5.45222E-08,NaN,-2.151306,4.842289E-06,-0.3700216,-1.626579E-08,NaN,NaN,-0.02004371,2.095468E-10,-7.259333E-07,-1.151529E-07,7.554207E-09,-2.861022E-08
154.6051,0.04505579,-2.837573E-08,NaN,-0.3271904,-1.374459E-07,NaN,0.277709,5.447873E-08,NaN,-2.15123,4.843025E-06,-0.3697394,-1.621993E-08,NaN,NaN,-0.02004286,2.048902E-10,-7.125968E-07,-1.151548E-07,9.938393E-09,-2.622604E-08
154.6196,0.04505579,-2.837573E-08,NaN,-0.3271904,-1.374459E-07,NaN,0.277709,5.447873E-08,NaN,-2.15123,4.843025E-06,-0.3697394,-1.621993E-08,NaN,NaN,-0.02004286,2.048902E-10,-7.125968E-07,-1.151548E-07,9.938393E-09,-2.622604E-08
154.6335,0.0450556,-2.837459E-08,NaN,-0.3271894,-1.374467E-07,NaN,0.2773499,5.443486E-08,NaN,-2.151083,4.843761E-06,-0.3686084,-1.617367E-08,NaN,NaN,-0.02003942,2.002336E-10,-6.601074E-07,-1.151567E-07,8.746301E-09,-2.861022E-08
154.6489,0.04505541,-2.837345E-08,NaN,-0.3271884,-1.374476E-07,NaN,0.2761134,5.439131E-08,NaN,-2.150923,4.844496E-06,-0.3676499,-1.612773E-08,NaN,NaN,-0.02003656,1.95577E-10,-6.170431E-07,-1.151586E-07,9.938393E-09,-2.622604E-08
154.6635,0.04505522,-2.837231E-08,NaN,-0.3271875,-1.374485E-07,NaN,0.2744107,5.434736E-08,NaN,-2.150776,4.845228E-06,-0.366917,-1.608139E-08,NaN,NaN,-0.02003438,1.95577E-10,-5.83739E-07,-1.151604E-07,9.938393E-09,-2.861022E-08
154.6782,0.04505522,-2.837231E-08,NaN,-0.3271875,-1.374485E-07,NaN,0.2744107,5.434736E-08,NaN,-2.150776,4.845228E-06,-0.366917,-1.608139E-08,NaN,NaN,-0.02003438,1.95577E-10,-5.83739E-07,-1.151604E-07,9.938393E-09,-2.861022E-08
154.6923,0.04505504,-2.837117E-08,NaN,-0.3271865,-1.374493E-07,NaN,0.2717648,5.430373E-08,NaN,-2.150567,4.845959E-06,-0.3654131,-1.603537E-08,NaN,NaN,-0.02002985,1.95577E-10,-5.158642E-07,-1.151623E-07,1.470676E-08,-2.622604E-08
154.7076,0.04505485,-2.837003E-08,NaN,-0.3271856,-1.374502E-07,NaN,0.2682125,5.43236E-08,NaN,-2.150352,4.84669E-06,-0.3641274,-1.605284E-08,NaN,NaN,-0.02002604,1.95577E-10,-4.567811E-07,-1.151641E-07,1.351467E-08,-2.861022E-08
154.722,0.04505466,-2.836889E-08,NaN,-0.3271847,-1.37451E-07,NaN,0.2641997,5.434324E-08,NaN,-2.150158,4.847421E-06,-0.3630939,-1.607009E-08,NaN,NaN,-0.02002298,1.95577E-10,-4.082778E-07,-1.15166E-07,1.351467E-08,-2.622604E-08
154.737,0.04505466,-2.836889E-08,NaN,-0.3271847,-1.37451E-07,NaN,0.2641997,5.434324E-08,NaN,-2.150158,4.847421E-06,-0.3630939,-1.607009E-08,NaN,NaN,-0.02002298,1.95577E-10,-4.082778E-07,-1.15166E-07,1.351467E-08,-2.622604E-08
154.7506,0.04505448,-2.836775E-08,NaN,-0.3271838,-1.374518E-07,NaN,0.2600031,5.436196E-08,NaN,-2.149985,4.848152E-06,-0.3622125,-1.608642E-08,NaN,NaN,-0.02002037,1.95577E-10,-3.669271E-07,-1.151678E-07,9.938393E-09,-2.861022E-08
154.7661,0.04505429,-2.836661E-08,NaN,-0.3271829,-1.374527E-07,NaN,0.2550173,5.437907E-08,NaN,-2.149748,4.848884E-06,-0.3605109,-1.610114E-08,NaN,NaN,-0.0200153,1.95577E-10,-2.887705E-07,-1.151697E-07,8.746301E-09,-2.622604E-08
154.7807,0.04505411,-2.836547E-08,NaN,-0.327182,-1.374535E-07,NaN,0.249212,5.439531E-08,NaN,-2.149506,4.849615E-06,-0.3590087,-1.611499E-08,NaN,NaN,-0.02001086,1.95577E-10,-2.191821E-07,-1.151715E-07,7.554208E-09,-2.861022E-08
154.7953,0.04505411,-2.836547E-08,NaN,-0.327182,-1.374535E-07,NaN,0.249212,5.439531E-08,NaN,-2.149506,4.849615E-06,-0.3590087,-1.611499E-08,NaN,NaN,-0.02001086,1.95577E-10,-2.191821E-07,-1.151715E-07,7.554208E-09,-2.861022E-08
154.8094,0.04505393,-2.836432E-08,NaN,-0.3271811,-1.374544E-07,NaN,0.2430021,5.44107E-08,NaN,-2.149282,4.850346E-06,-0.357755,-1.612798E-08,NaN,NaN,-0.02000718,1.95577E-10,-1.612166E-07,-1.151733E-07,1.351467E-08,-2.622604E-08
154.8266,0.04505375,-2.836318E-08,NaN,-0.3271803,-1.374552E-07,NaN,0.2366499,5.436271E-08,NaN,-2.14908,4.851077E-06,-0.3566566,-1.60776E-08,NaN,NaN,-0.02000395,1.95577E-10,-1.126388E-07,-1.151751E-07,9.938393E-09,-2.861022E-08
154.8402,0.04505357,-2.836204E-08,NaN,-0.3271794,-1.37456E-07,NaN,0.2295409,5.431511E-08,NaN,-2.148816,4.851809E-06,-0.3547442,-1.602761E-08,NaN,NaN,-0.0199983,1.95577E-10,-2.412592E-08,-1.151769E-07,1.232258E-08,-2.622604E-08
154.8536,0.04505357,-2.836204E-08,NaN,-0.3271794,-1.37456E-07,NaN,0.2295409,5.431511E-08,NaN,-2.148816,4.851809E-06,-0.3547442,-1.602761E-08,NaN,NaN,-0.0199983,1.95577E-10,-2.412592E-08,-1.151769E-07,1.232258E-08,-2.622604E-08
154.8678,0.04505339,-2.83609E-08,NaN,-0.3271786,-1.374569E-07,NaN,0.2216429,5.42679E-08,NaN,-2.148547,4.85254E-06,-0.3530406,-1.597801E-08,NaN,NaN,-0.01999333,1.95577E-10,5.499925E-08,-1.151787E-07,1.232258E-08,-2.861022E-08
154.8829,0.04505321,-2.835976E-08,NaN,-0.3271777,-1.374577E-07,NaN,0.2133705,5.422107E-08,NaN,-2.148299,4.853271E-06,-0.3515941,-1.592879E-08,NaN,NaN,-0.01998912,1.95577E-10,1.199683E-07,-1.151805E-07,1.351467E-08,-2.622604E-08
154.8976,0.04505321,-2.835976E-08,NaN,-0.3271777,-1.374577E-07,NaN,0.2133705,5.422107E-08,NaN,-2.148299,4.853271E-06,-0.3515941,-1.592879E-08,NaN,NaN,-0.01998912,1.95577E-10,1.199683E-07,-1.151805E-07,1.351467E-08,-2.622604E-08
154.9114,0.04505304,-2.835861E-08,NaN,-0.3271769,-1.374585E-07,NaN,0.2042404,5.417461E-08,NaN,-2.147995,4.854011E-06,-0.3494047,-1.587993E-08,NaN,NaN,-0.01998272,1.862638E-10,2.224883E-07,-1.151823E-07,1.589886E-08,-2.861022E-08
154.9267,0.04505286,-2.835747E-08,NaN,-0.3271761,-1.374593E-07,NaN,0.1942913,5.412922E-08,NaN,-2.147693,4.854743E-06,-0.3474661,-1.583216E-08,NaN,NaN,-0.01997712,1.862638E-10,3.136834E-07,-1.151841E-07,1.351467E-08,-2.622604E-08
154.9414,0.04505268,-2.835633E-08,NaN,-0.3271753,-1.374602E-07,NaN,0.1839717,5.408417E-08,NaN,-2.147416,4.855474E-06,-0.345808,-1.578472E-08,NaN,NaN,-0.01997234,1.862638E-10,3.931066E-07,-1.151858E-07,9.938393E-09,-2.861022E-08
154.9558,0.04505268,-2.835633E-08,NaN,-0.3271753,-1.374602E-07,NaN,0.1839717,5.408417E-08,NaN,-2.147416,4.855474E-06,-0.345808,-1.578472E-08,NaN,NaN,-0.01997234,1.862638E-10,3.931066E-07,-1.151858E-07,9.938393E-09,-2.861022E-08
154.9701,0.04505251,-2.835518E-08,NaN,-0.3271745,-1.37461E-07,NaN,0.1735573,5.403946E-08,NaN,-2.147164,4.856205E-06,-0.3443284,-1.573762E-08,NaN,NaN,-0.01996808,1.862638E-10,4.62546E-07,-1.151876E-07,9.938393E-09,-2.622604E-08
154.987,0.04505234,-2.835404E-08,NaN,-0.3271737,-1.374623E-07,NaN,0.1624338,5.38195E-08,NaN,-2.146854,4.856945E-06,-0.3420529,-1.550778E-08,NaN,NaN,-0.01996151,1.722939E-10,5.684932E-07,-1.15187E-07,6.362114E-09,-2.861022E-08
154.9999,0.04505234,-2.835404E-08,NaN,-0.3271737,-1.374623E-07,NaN,0.1624338,5.38195E-08,NaN,-2.146854,4.856945E-06,-0.3420529,-1.550778E-08,NaN,NaN,-0.01996151,1.722939E-10,5.684932E-07,-1.15187E-07,6.362114E-09,-2.861022E-08
155.0138,0.04505217,-2.83529E-08,NaN,-0.327173,-1.374631E-07,NaN,0.1505731,5.359955E-08,NaN,-2.146545,4.857672E-06,-0.3400072,-1.52728E-08,NaN,NaN,-0.01995567,1.676373E-10,6.638606E-07,-1.151859E-07,3.977929E-09,-2.622604E-08
155.0295,0.045052,-2.835175E-08,NaN,-0.3271722,-1.374637E-07,NaN,0.1383935,5.337959E-08,NaN,-2.14626,4.858407E-06,-0.3382355,-1.503448E-08,NaN,NaN,-0.01995064,1.536675E-10,7.45966E-07,-1.151847E-07,5.170022E-09,-2.861022E-08
155.044,0.04505182,-2.835061E-08,NaN,-0.3271715,-1.374641E-07,NaN,0.1261563,5.315963E-08,NaN,-2.145998,4.859134E-06,-0.3366426,-1.479413E-08,NaN,NaN,-0.01994612,1.490109E-10,8.219619E-07,-1.151833E-07,6.362114E-09,-2.622604E-08
155.0589,0.04505182,-2.835061E-08,NaN,-0.3271715,-1.374641E-07,NaN,0.1261563,5.315963E-08,NaN,-2.145998,4.859134E-06,-0.3366426,-1.479413E-08,NaN,NaN,-0.01994612,1.490109E-10,8.219619E-07,-1.151833E-07,6.362114E-09,-2.622604E-08
155.0727,0.04505166,-2.834946E-08,NaN,-0.3271708,-1.374644E-07,NaN,0.1132373,5.293968E-08,NaN,-2.14568,4.859865E-06,-0.334257,-1.45527E-08,NaN,NaN,-0.01993935,1.35041E-10,9.349127E-07,-1.151819E-07,6.362114E-09,-2.861022E-08
155.088,0.04505149,-2.834832E-08,NaN,-0.3271701,-1.374646E-07,NaN,0.09960721,5.271972E-08,NaN,-2.145365,4.860587E-06,-0.3321082,-1.431092E-08,NaN,NaN,-0.0199333,1.303844E-10,1.037135E-06,-1.151804E-07,4.016503E-10,-2.622604E-08
155.1025,0.04505132,-2.834718E-08,NaN,-0.3271694,-1.374648E-07,NaN,0.08568437,5.249977E-08,NaN,-2.145074,4.861318E-06,-0.3302394,-1.406928E-08,NaN,NaN,-0.01992808,1.164146E-10,1.126542E-06,-1.151789E-07,4.016503E-10,-2.861022E-08
155.1192,0.04505132,-2.834718E-08,NaN,-0.3271694,-1.374648E-07,NaN,0.08568437,5.249977E-08,NaN,-2.145074,4.861318E-06,-0.3302394,-1.406928E-08,NaN,NaN,-0.01992808,1.164146E-10,1.126542E-06,-1.151789E-07,4.016503E-10,-2.861022E-08
155.1322,0.04505116,-2.834603E-08,NaN,-0.3271687,-1.374649E-07,NaN,0.07097583,5.227981E-08,NaN,-2.144731,4.86204E-06,-0.3276468,-1.382818E-08,NaN,NaN,-0.01992081,1.11758E-10,1.250519E-06,-1.151774E-07,-7.904426E-10,-2.622604E-08
155.1467,0.04505099,-2.834488E-08,NaN,-0.327168,-1.374651E-07,NaN,0.0555237,5.205986E-08,NaN,-2.144398,4.862771E-06,-0.325331,-1.358787E-08,NaN,NaN,-0.0199144,9.778815E-11,1.360192E-06,-1.15176E-07,1.593743E-09,-2.861022E-08
155.1612,0.04505083,-2.834374E-08,NaN,-0.3271674,-1.374652E-07,NaN,0.03978005,5.18399E-08,NaN,-2.144092,4.863492E-06,-0.3233164,-1.334856E-08,NaN,NaN,-0.01990885,9.313153E-11,1.456453E-06,-1.151745E-07,-7.904426E-10,-2.622604E-08
155.1758,0.04505083,-2.834374E-08,NaN,-0.3271674,-1.374652E-07,NaN,0.03978005,5.18399E-08,NaN,-2.144092,4.863492E-06,-0.3233164,-1.334856E-08,NaN,NaN,-0.01990885,9.313153E-11,1.456453E-06,-1.151745E-07,-7.904426E-10,-2.622604E-08
155.1895,0.04505067,-2.834259E-08,NaN,-0.3271667,-1.374653E-07,NaN,0.02401991,5.161995E-08,NaN,-2.143812,4.864219E-06,-0.321499,-1.311039E-08,NaN,NaN,-0.01990388,7.916169E-11,1.54586E-06,-1.15173E-07,4.016503E-10,-2.861022E-08
155.205,0.04505051,-2.834145E-08,NaN,-0.3271661,-1.374654E-07,NaN,0.007617902,5.139999E-08,NaN,-2.14348,4.864936E-06,-0.3189026,-1.287347E-08,NaN,NaN,-0.01989675,7.450508E-11,1.673563E-06,-1.151715E-07,4.016503E-10,-2.622604E-08
155.2196,0.04505051,-2.834145E-08,NaN,-0.3271661,-1.374654E-07,NaN,0.007617902,5.139999E-08,NaN,-2.14348,4.864936E-06,-0.3189026,-1.287347E-08,NaN,NaN,-0.01989675,7.450508E-11,1.673563E-06,-1.151715E-07,4.016503E-10,-2.622604E-08
155.2336,0.04505035,-2.83403E-08,NaN,-0.3271654,-1.374655E-07,NaN,-0.00945021,5.118003E-08,NaN,-2.143155,4.865653E-06,-0.31656,-1.263786E-08,NaN,NaN,-0.01989039,6.984846E-11,1.788302E-06,-1.1517E-07,1.593743E-09,-2.861022E-08
155.2491,0.04505019,-2.833916E-08,NaN,-0.3271648,-1.374656E-07,NaN,-0.02676231,5.096008E-08,NaN,-2.142855,4.86637E-06,-0.3145099,-1.240362E-08,NaN,NaN,-0.01988487,6.519184E-11,1.887544E-06,-1.151685E-07,1.593743E-09,-2.622604E-08
155.2636,0.04505002,-2.833801E-08,NaN,-0.3271641,-1.374657E-07,NaN,-0.0440575,5.074012E-08,NaN,-2.142581,4.867087E-06,-0.3126552,-1.217078E-08,NaN,NaN,-0.0198799,6.053523E-11,1.978143E-06,-1.15167E-07,4.016503E-10,-2.861022E-08
155.2786,0.04505002,-2.833801E-08,NaN,-0.3271641,-1.374657E-07,NaN,-0.0440575,5.074012E-08,NaN,-2.142581,4.867087E-06,-0.3126552,-1.217078E-08,NaN,NaN,-0.0198799,6.053523E-11,1.978143E-06,-1.15167E-07,4.016503E-10,-2.861022E-08
155.2926,0.04504987,-2.833686E-08,NaN,-0.3271635,-1.374658E-07,NaN,-0.06197114,5.052017E-08,NaN,-2.142255,4.867804E-06,-0.3100222,-1.193936E-08,NaN,NaN,-0.01987284,5.587862E-11,2.104505E-06,-1.151655E-07,4.016503E-10,-2.622604E-08
155.308,0.04504971,-2.833572E-08,NaN,-0.3271629,-1.374659E-07,NaN,-0.08052857,5.030021E-08,NaN,-2.141938,4.868522E-06,-0.3076482,-1.170938E-08,NaN,NaN,-0.01986654,5.122201E-11,2.221181E-06,-1.15164E-07,1.593743E-09,-2.861022E-08
155.3224,0.04504956,-2.833457E-08,NaN,-0.3271623,-1.37466E-07,NaN,-0.09930722,5.008026E-08,NaN,-2.141646,4.869234E-06,-0.3055705,-1.148084E-08,NaN,NaN,-0.01986108,4.656539E-11,2.323701E-06,-1.151625E-07,5.170022E-09,-2.622604E-08
155.3371,0.04504956,-2.833457E-08,NaN,-0.3271623,-1.37466E-07,NaN,-0.09930722,5.008026E-08,NaN,-2.141646,4.869234E-06,-0.3055705,-1.148084E-08,NaN,NaN,-0.01986108,4.656539E-11,2.323701E-06,-1.151625E-07,5.170022E-09,-2.622604E-08
155.3511,0.0450494,-2.833342E-08,NaN,-0.3271616,-1.374661E-07,NaN,-0.1188101,4.98603E-08,NaN,-2.141309,4.869956E-06,-0.302782,-1.125376E-08,NaN,NaN,-0.01985374,3.725217E-11,2.463772E-06,-1.15161E-07,5.170022E-09,-2.861022E-08
155.3663,0.04504925,-2.833228E-08,NaN,-0.327161,-1.374662E-07,NaN,-0.1389911,4.964035E-08,NaN,-2.140985,4.870677E-06,-0.3002904,-1.102812E-08,NaN,NaN,-0.01984727,2.793894E-11,2.586259E-06,-1.151595E-07,-1.982535E-09,-2.622604E-08
155.3811,0.04504909,-2.833113E-08,NaN,-0.3271604,-1.374663E-07,NaN,-0.1593943,4.942039E-08,NaN,-2.140689,4.87139E-06,-0.2981148,-1.080393E-08,NaN,NaN,-0.01984167,2.793894E-11,2.694442E-06,-1.151581E-07,1.593743E-09,-2.861022E-08
155.3978,0.04504909,-2.833113E-08,NaN,-0.3271604,-1.374663E-07,NaN,-0.1593943,4.942039E-08,NaN,-2.140689,4.87139E-06,-0.2981148,-1.080393E-08,NaN,NaN,-0.01984167,2.793894E-11,2.694442E-06,-1.151581E-07,1.593743E-09,-2.861022E-08
155.4109,0.04504894,-2.832998E-08,NaN,-0.3271598,-1.374663E-07,NaN,-0.1797453,4.920043E-08,NaN,-2.14042,4.872112E-06,-0.2961492,-1.058118E-08,NaN,NaN,-0.01983666,1.862572E-11,2.794578E-06,-1.151566E-07,-1.982535E-09,-2.622604E-08
155.4253,0.04504878,-2.832883E-08,NaN,-0.3271591,-1.374664E-07,NaN,-0.1999143,4.898048E-08,NaN,-2.140172,4.872819E-06,-0.2943251,-1.035987E-08,NaN,NaN,-0.01983205,2.328233E-11,2.886071E-06,-1.151551E-07,-7.942999E-09,-2.861022E-08
155.4396,0.04504878,-2.832883E-08,NaN,-0.3271591,-1.374664E-07,NaN,-0.1999143,4.898048E-08,NaN,-2.140172,4.872819E-06,-0.2943251,-1.035987E-08,NaN,NaN,-0.01983205,2.328233E-11,2.886071E-06,-1.151551E-07,-7.942999E-09,-2.861022E-08
155.4554,0.04504862,-2.832769E-08,NaN,-0.3271585,-1.374665E-07,NaN,-0.2198454,4.876052E-08,NaN,-2.139941,4.873536E-06,-0.2926086,-1.013998E-08,NaN,NaN,-0.01982774,1.862572E-11,2.970113E-06,-1.151536E-07,-9.135092E-09,-2.622604E-08
155.4688,0.04504847,-2.832654E-08,NaN,-0.3271579,-1.374665E-07,NaN,-0.239516,4.854057E-08,NaN,-2.139726,4.874244E-06,-0.2909831,-9.92152E-09,NaN,NaN,-0.0198237,2.328233E-11,3.050877E-06,-1.151522E-07,-9.135092E-09,-2.861022E-08
155.4833,0.04504832,-2.832539E-08,NaN,-0.3271573,-1.374666E-07,NaN,-0.2589183,4.832061E-08,NaN,-2.139524,4.874961E-06,-0.2894399,-9.704473E-09,NaN,NaN,-0.01981988,1.862572E-11,3.129556E-06,-1.151507E-07,-4.36672E-09,-2.622604E-08
155.4979,0.04504832,-2.832539E-08,NaN,-0.3271573,-1.374666E-07,NaN,-0.2589183,4.832061E-08,NaN,-2.139524,4.874961E-06,-0.2894399,-9.704473E-09,NaN,NaN,-0.01981988,1.862572E-11,3.129556E-06,-1.151507E-07,-4.36672E-09,-2.622604E-08
155.5118,0.04504816,-2.832424E-08,NaN,-0.3271568,-1.374666E-07,NaN,-0.278051,4.810066E-08,NaN,-2.139334,4.875669E-06,-0.287974,-9.488831E-09,NaN,NaN,-0.01981628,2.328233E-11,3.201826E-06,-1.151493E-07,-7.904417E-10,-2.861022E-08
155.5273,0.04504801,-2.832309E-08,NaN,-0.3271562,-1.374667E-07,NaN,-0.2969158,4.78807E-08,NaN,-2.139155,4.876376E-06,-0.2865821,-9.274587E-09,NaN,NaN,-0.01981289,3.259555E-11,3.273501E-06,-1.151478E-07,-1.982535E-09,-2.622604E-08
155.5417,0.04504786,-2.832195E-08,NaN,-0.3271556,-1.374667E-07,NaN,-0.3155152,4.766074E-08,NaN,-2.138987,4.877093E-06,-0.2852615,-9.061734E-09,NaN,NaN,-0.01980971,3.259555E-11,3.34145E-06,-1.151463E-07,-5.558813E-09,-2.861022E-08
155.5566,0.04504786,-2.832195E-08,NaN,-0.3271556,-1.374667E-07,NaN,-0.3155152,4.766074E-08,NaN,-2.138987,4.877093E-06,-0.2852615,-9.061734E-09,NaN,NaN,-0.01980971,3.259555E-11,3.34145E-06,-1.151463E-07,-5.558813E-09,-2.861022E-08
155.5702,0.0450477,-2.83208E-08,NaN,-0.327155,-1.374668E-07,NaN,-0.3338522,4.744079E-08,NaN,-2.138829,4.877801E-06,-0.2840099,-8.85026E-09,NaN,NaN,-0.01980671,4.190878E-11,3.404333E-06,-1.151449E-07,-1.151928E-08,-2.622604E-08
155.5856,0.04504755,-2.831965E-08,NaN,-0.3271544,-1.374668E-07,NaN,-0.3519302,4.722083E-08,NaN,-2.138681,4.878518E-06,-0.2828253,-8.640159E-09,NaN,NaN,-0.0198039,4.190878E-11,3.46513E-06,-1.151434E-07,-3.174627E-09,-2.861022E-08
155.6004,0.0450474,-2.83185E-08,NaN,-0.3271538,-1.374669E-07,NaN,-0.3697525,4.700088E-08,NaN,-2.138543,4.879235E-06,-0.2817055,-8.431421E-09,NaN,NaN,-0.01980126,4.190878E-11,3.522946E-06,-1.15142E-07,-3.174627E-09,-2.622604E-08
155.6149,0.0450474,-2.83185E-08,NaN,-0.3271538,-1.374669E-07,NaN,-0.3697525,4.700088E-08,NaN,-2.138543,4.879235E-06,-0.2817055,-8.431421E-09,NaN,NaN,-0.01980126,4.190878E-11,3.522946E-06,-1.15142E-07,-3.174627E-09,-2.622604E-08
155.6291,0.04504725,-2.831736E-08,NaN,-0.3271532,-1.374669E-07,NaN,-0.3873224,4.678092E-08,NaN,-2.138414,4.879952E-06,-0.2806486,-8.224038E-09,NaN,NaN,-0.0197988,4.190878E-11,3.575249E-06,-1.151405E-07,-5.558813E-09,-2.861022E-08
155.6445,0.04504709,-2.831621E-08,NaN,-0.3271526,-1.374669E-07,NaN,-0.4046431,4.656097E-08,NaN,-2.138295,4.880665E-06,-0.2796528,-8.018001E-09,NaN,NaN,-0.0197965,4.190878E-11,3.626211E-06,-1.151391E-07,-5.558813E-09,-2.622604E-08
155.659,0.04504709,-2.831621E-08,NaN,-0.3271526,-1.374669E-07,NaN,-0.4046431,4.656097E-08,NaN,-2.138295,4.880665E-06,-0.2796528,-8.018001E-09,NaN,NaN,-0.0197965,4.190878E-11,3.626211E-06,-1.151391E-07,-5.558813E-09,-2.622604E-08
155.6728,0.04504694,-2.831506E-08,NaN,-0.327152,-1.37467E-07,NaN,-0.4217181,4.634101E-08,NaN,-2.138184,4.881378E-06,-0.2787161,-7.813302E-09,NaN,NaN,-0.01979435,3.725216E-11,3.675683E-06,-1.151377E-07,-3.174627E-09,-2.861022E-08
155.6891,0.04504679,-2.831391E-08,NaN,-0.3271514,-1.37467E-07,NaN,-0.4385505,4.612106E-08,NaN,-2.138081,4.88209E-06,-0.2778369,-7.609931E-09,NaN,NaN,-0.01979236,3.259555E-11,3.720387E-06,-1.151362E-07,-5.558813E-09,-2.622604E-08
155.7028,0.04504663,-2.831276E-08,NaN,-0.3271508,-1.37467E-07,NaN,-0.4551436,4.59011E-08,NaN,-2.137987,4.882803E-06,-0.2770134,-7.407881E-09,NaN,NaN,-0.01979051,2.793894E-11,3.76509E-06,-1.151348E-07,-7.90441E-10,-2.861022E-08
155.7174,0.04504663,-2.831276E-08,NaN,-0.3271508,-1.37467E-07,NaN,-0.4551436,4.59011E-08,NaN,-2.137987,4.882803E-06,-0.2770134,-7.407881E-09,NaN,NaN,-0.01979051,2.793894E-11,3.76509E-06,-1.151348E-07,-7.90441E-10,-2.861022E-08
155.7314,0.04504649,-2.831161E-08,NaN,-0.3271502,-1.37467E-07,NaN,-0.4715005,4.568114E-08,NaN,-2.1379,4.883515E-06,-0.2762439,-7.207142E-09,NaN,NaN,-0.01978881,2.328233E-11,3.807559E-06,-1.151334E-07,-7.90441E-10,-2.622604E-08
155.7465,0.04504634,-2.831046E-08,NaN,-0.3271497,-1.37467E-07,NaN,-0.4876245,4.546119E-08,NaN,-2.137822,4.884228E-06,-0.2755266,-7.007707E-09,NaN,NaN,-0.01978724,1.862572E-11,3.841831E-06,-1.151319E-07,6.362116E-09,-2.861022E-08
155.7611,0.04504619,-2.830931E-08,NaN,-0.3271491,-1.374671E-07,NaN,-0.5035186,4.524123E-08,NaN,-2.13775,4.884941E-06,-0.2748602,-6.809566E-09,NaN,NaN,-0.0197858,1.39691E-11,3.877594E-06,-1.151305E-07,6.362116E-09,-2.622604E-08
155.7758,0.04504619,-2.830931E-08,NaN,-0.3271491,-1.374671E-07,NaN,-0.5035186,4.524123E-08,NaN,-2.13775,4.884941E-06,-0.2748602,-6.809566E-09,NaN,NaN,-0.0197858,1.39691E-11,3.877594E-06,-1.151305E-07,6.362116E-09,-2.622604E-08
155.7896,0.04504604,-2.830816E-08,NaN,-0.3271485,-1.374671E-07,NaN,-0.5191859,4.502128E-08,NaN,-2.137686,4.885653E-06,-0.2742428,-6.612712E-09,NaN,NaN,-0.01978448,9.31249E-12,3.911419E-06,-1.151291E-07,8.746301E-09,-2.861022E-08
155.805,0.04504589,-2.830702E-08,NaN,-0.327148,-1.374671E-07,NaN,-0.5346295,4.480132E-08,NaN,-2.13763,4.886366E-06,-0.2736731,-6.417136E-09,NaN,NaN,-0.01978329,4.655877E-12,3.942265E-06,-1.151277E-07,1.113049E-08,-2.622604E-08
155.8196,0.04504589,-2.830702E-08,NaN,-0.327148,-1.374671E-07,NaN,-0.5346295,4.480132E-08,NaN,-2.13763,4.886366E-06,-0.2736731,-6.417136E-09,NaN,NaN,-0.01978329,4.655877E-12,3.942265E-06,-1.151277E-07,1.113049E-08,-2.622604E-08
155.8337,0.04504574,-2.830587E-08,NaN,-0.3271474,-1.374671E-07,NaN,-0.5498524,4.458137E-08,NaN,-2.137579,4.887073E-06,-0.2731496,-6.22283E-09,NaN,NaN,-0.01978221,-7.355228E-16,3.972514E-06,-1.151262E-07,1.828304E-08,-2.861022E-08
155.849,0.04504559,-2.830472E-08,NaN,-0.3271468,-1.374671E-07,NaN,-0.5648575,4.436141E-08,NaN,-2.137536,4.887781E-06,-0.2726708,-6.029785E-09,NaN,NaN,-0.01978124,-4.657348E-12,3.997995E-06,-1.151248E-07,1.589886E-08,-2.622604E-08
155.8637,0.04504544,-2.830357E-08,NaN,-0.3271463,-1.374671E-07,NaN,-0.5796479,4.414145E-08,NaN,-2.137499,4.888489E-06,-0.2722352,-5.837993E-09,NaN,NaN,-0.01978039,-4.657348E-12,4.023476E-06,-1.151234E-07,1.828304E-08,-2.861022E-08
155.8784,0.04504544,-2.830357E-08,NaN,-0.3271463,-1.374671E-07,NaN,-0.5796479,4.414145E-08,NaN,-2.137499,4.888489E-06,-0.2722352,-5.837993E-09,NaN,NaN,-0.01978039,-4.657348E-12,4.023476E-06,-1.151234E-07,1.828304E-08,-2.861022E-08
155.8924,0.04504529,-2.830242E-08,NaN,-0.3271457,-1.374671E-07,NaN,-0.5942264,4.39215E-08,NaN,-2.137468,4.889196E-06,-0.2718416,-5.647447E-09,NaN,NaN,-0.01977963,-4.657348E-12,4.044636E-06,-1.15122E-07,1.828304E-08,-2.622604E-08
155.908,0.04504514,-2.830127E-08,NaN,-0.3271451,-1.374671E-07,NaN,-0.608596,4.370154E-08,NaN,-2.137443,4.889904E-06,-0.2714886,-5.458137E-09,NaN,NaN,-0.01977897,-4.657348E-12,4.064901E-06,-1.151206E-07,2.305142E-08,-2.861022E-08
155.9256,0.045045,-2.830012E-08,NaN,-0.3271446,-1.374671E-07,NaN,-0.6227594,4.348159E-08,NaN,-2.137423,4.890616E-06,-0.2711748,-5.270057E-09,NaN,NaN,-0.01977841,-9.313961E-12,4.082484E-06,-1.151192E-07,2.305142E-08,-2.622604E-08
155.939,0.045045,-2.830012E-08,NaN,-0.3271446,-1.374671E-07,NaN,-0.6227594,4.348159E-08,NaN,-2.137423,4.890616E-06,-0.2711748,-5.270057E-09,NaN,NaN,-0.01977841,-9.313961E-12,4.082484E-06,-1.151192E-07,2.305142E-08,-2.622604E-08
155.951,0.04504485,-2.829897E-08,NaN,-0.327144,-1.374671E-07,NaN,-0.6367195,4.326163E-08,NaN,-2.137409,4.891315E-06,-0.2708991,-5.083198E-09,NaN,NaN,-0.01977794,-7.355228E-16,4.09977E-06,-1.151178E-07,2.54356E-08,-2.861022E-08
155.9683,0.0450447,-2.829782E-08,NaN,-0.3271434,-1.37467E-07,NaN,-0.6504791,4.304168E-08,NaN,-2.137401,4.892022E-06,-0.2706601,-4.897553E-09,NaN,NaN,-0.01977756,-7.355228E-16,4.114075E-06,-1.151164E-07,2.54356E-08,-2.622604E-08
155.9819,0.04504456,-2.829667E-08,NaN,-0.3271429,-1.37467E-07,NaN,-0.664041,4.282172E-08,NaN,-2.137398,4.89273E-06,-0.2704567,-4.713112E-09,NaN,NaN,-0.01977727,-7.355228E-16,4.127039E-06,-1.15115E-07,2.54356E-08,-2.861022E-08
155.9957,0.04504456,-2.829667E-08,NaN,-0.3271429,-1.37467E-07,NaN,-0.664041,4.282172E-08,NaN,-2.137398,4.89273E-06,-0.2704567,-4.713112E-09,NaN,NaN,-0.01977727,-7.355228E-16,4.127039E-06,-1.15115E-07,2.54356E-08,-2.861022E-08
156.0099,0.04504441,-2.829552E-08,NaN,-0.3271423,-1.37467E-07,NaN,-0.6774078,4.260177E-08,NaN,-2.1374,4.893438E-06,-0.2702877,-4.529869E-09,NaN,NaN,-0.01977705,-7.355228E-16,4.139406E-06,-1.151136E-07,2.54356E-08,-2.622604E-08
156.025,0.04504427,-2.829437E-08,NaN,-0.3271418,-1.37467E-07,NaN,-0.6905823,4.238181E-08,NaN,-2.137407,4.894145E-06,-0.2701519,-4.347815E-09,NaN,NaN,-0.01977691,-7.355228E-16,4.148794E-06,-1.151122E-07,3.020397E-08,-2.861022E-08
156.0394,0.04504427,-2.829437E-08,NaN,-0.3271418,-1.37467E-07,NaN,-0.6905823,4.238181E-08,NaN,-2.137407,4.894145E-06,-0.2701519,-4.347815E-09,NaN,NaN,-0.01977691,-7.355228E-16,4.148794E-06,-1.151122E-07,3.020397E-08,-2.861022E-08
156.0532,0.04504412,-2.829322E-08,NaN,-0.3271413,-1.37467E-07,NaN,-0.703567,4.216185E-08,NaN,-2.137418,4.894853E-06,-0.2700483,-4.166944E-09,NaN,NaN,-0.01977685,-7.355228E-16,4.15699E-06,-1.151109E-07,2.781979E-08,-2.622604E-08
156.0685,0.04504398,-2.829207E-08,NaN,-0.3271407,-1.374669E-07,NaN,-0.7163647,4.19419E-08,NaN,-2.137434,4.89556E-06,-0.2699758,-3.987247E-09,NaN,NaN,-0.01977686,-7.355228E-16,4.163993E-06,-1.151095E-07,3.258816E-08,-2.861022E-08
156.0835,0.04504383,-2.829092E-08,NaN,-0.3271402,-1.374669E-07,NaN,-0.7289779,4.172194E-08,NaN,-2.137455,4.896268E-06,-0.2699333,-3.808716E-09,NaN,NaN,-0.01977693,4.655877E-12,4.166527E-06,-1.151081E-07,3.497235E-08,-2.622604E-08
156.0977,0.04504383,-2.829092E-08,NaN,-0.3271402,-1.374669E-07,NaN,-0.7289779,4.172194E-08,NaN,-2.137455,4.896268E-06,-0.2699333,-3.808716E-09,NaN,NaN,-0.01977693,4.655877E-12,4.166527E-06,-1.151081E-07,3.497235E-08,-2.622604E-08
156.1118,0.04504368,-2.828977E-08,NaN,-0.3271396,-1.374669E-07,NaN,-0.7414092,4.150199E-08,NaN,-2.137479,4.896975E-06,-0.2699198,-3.631345E-09,NaN,NaN,-0.01977708,9.31249E-12,4.170103E-06,-1.151067E-07,3.497235E-08,-2.861022E-08
156.1271,0.04504354,-2.828862E-08,NaN,-0.3271391,-1.374668E-07,NaN,-0.753661,4.128203E-08,NaN,-2.137508,4.897683E-06,-0.2699343,-3.455125E-09,NaN,NaN,-0.01977729,1.39691E-11,4.171146E-06,-1.151053E-07,3.020398E-08,-2.622604E-08
156.142,0.04504339,-2.828747E-08,NaN,-0.3271386,-1.374668E-07,NaN,-0.7657359,4.106208E-08,NaN,-2.137541,4.898396E-06,-0.2699758,-3.28005E-09,NaN,NaN,-0.01977756,1.39691E-11,4.171518E-06,-1.15104E-07,2.781979E-08,-2.861022E-08
156.1564,0.04504339,-2.828747E-08,NaN,-0.3271386,-1.374668E-07,NaN,-0.7657359,4.106208E-08,NaN,-2.137541,4.898396E-06,-0.2699758,-3.28005E-09,NaN,NaN,-0.01977756,1.39691E-11,4.171518E-06,-1.15104E-07,2.781979E-08,-2.861022E-08
156.1702,0.04504325,-2.828632E-08,NaN,-0.327138,-1.374667E-07,NaN,-0.7776363,4.084212E-08,NaN,-2.137578,4.899108E-06,-0.2700434,-3.106111E-09,NaN,NaN,-0.01977789,1.39691E-11,4.171295E-06,-1.151026E-07,3.020398E-08,-2.622604E-08
156.1855,0.0450431,-2.828517E-08,NaN,-0.3271375,-1.374667E-07,NaN,-0.7893647,4.062217E-08,NaN,-2.137618,4.899821E-06,-0.2701361,-2.933301E-09,NaN,NaN,-0.01977828,1.39691E-11,4.169283E-06,-1.151012E-07,3.497235E-08,-2.861022E-08
156.2003,0.04504296,-2.828402E-08,NaN,-0.327137,-1.374667E-07,NaN,-0.8009235,4.040221E-08,NaN,-2.137662,4.900533E-06,-0.2702532,-2.761614E-09,NaN,NaN,-0.01977872,1.39691E-11,4.16526E-06,-1.150999E-07,3.735654E-08,-2.622604E-08
156.2148,0.04504296,-2.828402E-08,NaN,-0.327137,-1.374667E-07,NaN,-0.8009235,4.040221E-08,NaN,-2.137662,4.900533E-06,-0.2702532,-2.761614E-09,NaN,NaN,-0.01977872,1.39691E-11,4.16526E-06,-1.150999E-07,3.735654E-08,-2.622604E-08
156.2292,0.04504282,-2.828287E-08,NaN,-0.3271364,-1.374666E-07,NaN,-0.812315,4.018225E-08,NaN,-2.137709,4.901246E-06,-0.2703936,-2.591041E-09,NaN,NaN,-0.01977921,1.39691E-11,4.162056E-06,-1.150985E-07,3.735654E-08,-2.861022E-08
156.2442,0.04504268,-2.828171E-08,NaN,-0.3271359,-1.374666E-07,NaN,-0.8235416,3.99623E-08,NaN,-2.13776,4.901959E-06,-0.2705566,-2.421575E-09,NaN,NaN,-0.01977975,1.39691E-11,4.158256E-06,-1.150972E-07,3.974072E-08,-2.622604E-08
156.26,0.04504268,-2.828171E-08,NaN,-0.3271359,-1.374666E-07,NaN,-0.8235416,3.99623E-08,NaN,-2.13776,4.901959E-06,-0.2705566,-2.421575E-09,NaN,NaN,-0.01977975,1.39691E-11,4.158256E-06,-1.150972E-07,3.974072E-08,-2.622604E-08
156.2739,0.04504254,-2.828056E-08,NaN,-0.3271354,-1.374665E-07,NaN,-0.8346056,3.974234E-08,NaN,-2.137814,4.902671E-06,-0.2707413,-2.25321E-09,NaN,NaN,-0.01978034,1.39691E-11,4.151476E-06,-1.150958E-07,3.735654E-08,-2.861022E-08
156.2881,0.0450424,-2.827941E-08,NaN,-0.3271348,-1.374664E-07,NaN,-0.8455092,3.952239E-08,NaN,-2.137871,4.903384E-06,-0.2709469,-2.085938E-09,NaN,NaN,-0.01978097,1.39691E-11,4.146485E-06,-1.150944E-07,3.735654E-08,-2.622604E-08
156.3027,0.04504225,-2.827826E-08,NaN,-0.3271343,-1.374664E-07,NaN,-0.8562548,3.930243E-08,NaN,-2.137931,4.904096E-06,-0.2711726,-1.919751E-09,NaN,NaN,-0.01978165,1.39691E-11,4.137916E-06,-1.150931E-07,3.497235E-08,-2.861022E-08
156.3173,0.04504225,-2.827826E-08,NaN,-0.3271343,-1.374664E-07,NaN,-0.8562548,3.930243E-08,NaN,-2.137931,4.904096E-06,-0.2711726,-1.919751E-09,NaN,NaN,-0.01978165,1.39691E-11,4.137916E-06,-1.150931E-07,3.497235E-08,-2.861022E-08
156.3311,0.04504211,-2.827711E-08,NaN,-0.3271338,-1.374663E-07,NaN,-0.8668444,3.908248E-08,NaN,-2.137994,4.904809E-06,-0.2714177,-1.754644E-09,NaN,NaN,-0.01978237,1.862572E-11,4.125623E-06,-1.150918E-07,3.974072E-08,-2.622604E-08
156.3465,0.04504197,-2.827596E-08,NaN,-0.3271333,-1.374663E-07,NaN,-0.8772804,3.886252E-08,NaN,-2.138059,4.905526E-06,-0.2716815,-1.590609E-09,NaN,NaN,-0.01978314,1.862572E-11,4.115937E-06,-1.150904E-07,3.735653E-08,-2.861022E-08
156.3609,0.04504183,-2.827481E-08,NaN,-0.3271328,-1.374662E-07,NaN,-0.8875649,3.864256E-08,NaN,-2.138127,4.906239E-06,-0.2719632,-1.427639E-09,NaN,NaN,-0.01978394,2.328233E-11,4.10193E-06,-1.150891E-07,3.974072E-08,-2.622604E-08
156.376,0.04504183,-2.827481E-08,NaN,-0.3271328,-1.374662E-07,NaN,-0.8875649,3.864256E-08,NaN,-2.138127,4.906239E-06,-0.2719632,-1.427639E-09,NaN,NaN,-0.01978394,2.328233E-11,4.10193E-06,-1.150891E-07,3.974072E-08,-2.622604E-08
156.3909,0.04504169,-2.827366E-08,NaN,-0.3271323,-1.374661E-07,NaN,-0.8977,3.842261E-08,NaN,-2.138198,4.906951E-06,-0.2722621,-1.265727E-09,NaN,NaN,-0.01978477,2.793894E-11,4.089785E-06,-1.150877E-07,3.974072E-08,-2.861022E-08
156.4051,0.04504155,-2.827251E-08,NaN,-0.3271317,-1.374661E-07,NaN,-0.9076878,3.820265E-08,NaN,-2.138271,4.907664E-06,-0.2725776,-1.104866E-09,NaN,NaN,-0.01978565,3.259555E-11,4.07466E-06,-1.150864E-07,3.974072E-08,-2.622604E-08
156.4205,0.0450414,-2.827136E-08,NaN,-0.3271312,-1.37466E-07,NaN,-0.9175305,3.79827E-08,NaN,-2.138347,4.908376E-06,-0.2729089,-9.450494E-10,NaN,NaN,-0.01978655,3.725216E-11,4.057747E-06,-1.150851E-07,3.258816E-08,-2.861022E-08
156.4343,0.0450414,-2.827136E-08,NaN,-0.3271312,-1.37466E-07,NaN,-0.9175305,3.79827E-08,NaN,-2.138347,4.908376E-06,-0.2729089,-9.450494E-10,NaN,NaN,-0.01978655,3.725216E-11,4.057747E-06,-1.150851E-07,3.258816E-08,-2.861022E-08
156.4484,0.04504127,-2.82702E-08,NaN,-0.3271307,-1.374659E-07,NaN,-0.9272301,3.776274E-08,NaN,-2.138425,4.909094E-06,-0.2732555,-7.862705E-10,NaN,NaN,-0.01978749,3.725216E-11,4.040164E-06,-1.150837E-07,3.497235E-08,-2.622604E-08
156.4637,0.04504113,-2.826905E-08,NaN,-0.3271302,-1.374658E-07,NaN,-0.9367885,3.754279E-08,NaN,-2.138505,4.909806E-06,-0.2736167,-6.285225E-10,NaN,NaN,-0.01978845,3.725216E-11,4.023698E-06,-1.150824E-07,3.497235E-08,-2.861022E-08
156.4784,0.04504113,-2.826905E-08,NaN,-0.3271302,-1.374658E-07,NaN,-0.9367885,3.754279E-08,NaN,-2.138505,4.909806E-06,-0.2736167,-6.285225E-10,NaN,NaN,-0.01978845,3.725216E-11,4.023698E-06,-1.150824E-07,3.497235E-08,-2.861022E-08
156.4925,0.04504099,-2.82679E-08,NaN,-0.3271297,-1.374658E-07,NaN,-0.9462078,3.732283E-08,NaN,-2.138587,4.910519E-06,-0.2739919,-4.717987E-10,NaN,NaN,-0.01978945,3.259555E-11,4.00686E-06,-1.150811E-07,3.974072E-08,-2.622604E-08
156.5083,0.04504085,-2.826675E-08,NaN,-0.3271292,-1.374657E-07,NaN,-0.95549,3.710288E-08,NaN,-2.138671,4.911226E-06,-0.2743806,-3.160924E-10,NaN,NaN,-0.01979048,3.259555E-11,3.989277E-06,-1.150798E-07,4.212491E-08,-2.861022E-08
156.5226,0.04504072,-2.82656E-08,NaN,-0.3271287,-1.374656E-07,NaN,-0.964637,3.688292E-08,NaN,-2.138757,4.911934E-06,-0.274782,-1.613971E-10,NaN,NaN,-0.01979153,3.259555E-11,3.97065E-06,-1.150785E-07,3.974072E-08,-2.622604E-08
156.5392,0.04504072,-2.82656E-08,NaN,-0.3271287,-1.374656E-07,NaN,-0.964637,3.688292E-08,NaN,-2.138757,4.911934E-06,-0.274782,-1.613971E-10,NaN,NaN,-0.01979153,3.259555E-11,3.97065E-06,-1.150785E-07,3.974072E-08,-2.622604E-08
156.5531,0.04504058,-2.826444E-08,NaN,-0.3271282,-1.374655E-07,NaN,-0.9736507,3.666296E-08,NaN,-2.138845,4.912642E-06,-0.2751958,-7.706072E-12,NaN,NaN,-0.0197926,3.259555E-11,3.950459E-06,-1.150771E-07,4.450909E-08,-2.861022E-08
156.5666,0.04504044,-2.826329E-08,NaN,-0.3271277,-1.374654E-07,NaN,-0.982533,3.644301E-08,NaN,-2.138935,4.913349E-06,-0.2756213,1.449871E-10,NaN,NaN,-0.0197937,3.259555E-11,3.931907E-06,-1.150758E-07,4.927746E-08,-2.622604E-08
156.5811,0.0450403,-2.826214E-08,NaN,-0.3271272,-1.374653E-07,NaN,-0.9912859,3.622305E-08,NaN,-2.139026,4.914057E-06,-0.276058,2.966888E-10,NaN,NaN,-0.01979483,3.259555E-11,3.910077E-06,-1.150745E-07,4.689327E-08,-2.861022E-08
156.5958,0.0450403,-2.826214E-08,NaN,-0.3271272,-1.374653E-07,NaN,-0.9912859,3.622305E-08,NaN,-2.139026,4.914057E-06,-0.276058,2.966888E-10,NaN,NaN,-0.01979483,3.259555E-11,3.910077E-06,-1.150745E-07,4.689327E-08,-2.861022E-08
156.6098,0.04504016,-2.826098E-08,NaN,-0.3271267,-1.374653E-07,NaN,-0.999911,3.60031E-08,NaN,-2.139119,4.914764E-06,-0.2765055,4.474056E-10,NaN,NaN,-0.01979597,3.259555E-11,3.888992E-06,-1.150732E-07,4.927746E-08,-2.622604E-08
156.6249,0.04504003,-2.825983E-08,NaN,-0.3271262,-1.374652E-07,NaN,-1.00841,3.578314E-08,NaN,-2.139214,4.915472E-06,-0.2769631,5.971439E-10,NaN,NaN,-0.01979713,3.259555E-11,3.868577E-06,-1.150719E-07,4.927746E-08,-2.861022E-08
156.6394,0.04504003,-2.825983E-08,NaN,-0.3271262,-1.374652E-07,NaN,-1.00841,3.578314E-08,NaN,-2.139214,4.915472E-06,-0.2769631,5.971439E-10,NaN,NaN,-0.01979713,3.259555E-11,3.868577E-06,-1.150719E-07,4.927746E-08,-2.861022E-08
156.6533,0.04503989,-2.825868E-08,NaN,-0.3271257,-1.374651E-07,NaN,-1.016786,3.556319E-08,NaN,-2.13931,4.916179E-06,-0.2774305,7.4591E-10,NaN,NaN,-0.01979832,3.259555E-11,3.845927E-06,-1.150706E-07,5.404583E-08,-2.622604E-08
156.6687,0.04503975,-2.825753E-08,NaN,-0.3271252,-1.37465E-07,NaN,-1.025038,3.534323E-08,NaN,-2.139408,4.916887E-06,-0.2779071,8.937102E-10,NaN,NaN,-0.01979953,3.259555E-11,3.823874E-06,-1.150693E-07,5.166164E-08,-2.861022E-08
156.6836,0.04503962,-2.825637E-08,NaN,-0.3271247,-1.374649E-07,NaN,-1.033171,3.512327E-08,NaN,-2.139506,4.9176E-06,-0.2783925,1.040551E-09,NaN,NaN,-0.01980075,2.793894E-11,3.802118E-06,-1.15068E-07,5.166164E-08,-2.622604E-08
156.6979,0.04503962,-2.825637E-08,NaN,-0.3271247,-1.374649E-07,NaN,-1.033171,3.512327E-08,NaN,-2.139506,4.9176E-06,-0.2783925,1.040551E-09,NaN,NaN,-0.01980075,2.793894E-11,3.802118E-06,-1.15068E-07,5.166164E-08,-2.622604E-08
156.7118,0.04503949,-2.825522E-08,NaN,-0.3271243,-1.374648E-07,NaN,-1.041184,3.490332E-08,NaN,-2.139606,4.918307E-06,-0.2788862,1.186438E-09,NaN,NaN,-0.01980199,2.793894E-11,3.778127E-06,-1.150667E-07,5.404583E-08,-2.861022E-08
156.7274,0.04503935,-2.825407E-08,NaN,-0.3271238,-1.374647E-07,NaN,-1.049081,3.468336E-08,NaN,-2.139708,4.919015E-06,-0.2793879,1.331378E-09,NaN,NaN,-0.01980325,2.793894E-11,3.75503E-06,-1.150655E-07,5.643002E-08,-2.622604E-08
156.7423,0.04503922,-2.825291E-08,NaN,-0.3271233,-1.374646E-07,NaN,-1.056862,3.446341E-08,NaN,-2.13981,4.919722E-06,-0.2798971,1.475377E-09,NaN,NaN,-0.01980452,2.793894E-11,3.73089E-06,-1.150642E-07,5.404583E-08,-2.861022E-08
156.7566,0.04503922,-2.825291E-08,NaN,-0.3271233,-1.374646E-07,NaN,-1.056862,3.446341E-08,NaN,-2.13981,4.919722E-06,-0.2798971,1.475377E-09,NaN,NaN,-0.01980452,2.793894E-11,3.73089E-06,-1.150642E-07,5.404583E-08,-2.861022E-08
156.7705,0.04503908,-2.825176E-08,NaN,-0.3271228,-1.374645E-07,NaN,-1.064529,3.424345E-08,NaN,-2.139914,4.920435E-06,-0.2804134,1.618441E-09,NaN,NaN,-0.01980581,2.328233E-11,3.705409E-06,-1.150629E-07,5.404583E-08,-2.622604E-08
156.7857,0.04503895,-2.825061E-08,NaN,-0.3271224,-1.374644E-07,NaN,-1.072084,3.40235E-08,NaN,-2.140018,4.921148E-06,-0.2809364,1.760577E-09,NaN,NaN,-0.01980711,1.862572E-11,3.681418E-06,-1.150616E-07,5.404583E-08,-2.861022E-08
156.8003,0.04503882,-2.824946E-08,NaN,-0.3271219,-1.374642E-07,NaN,-1.079528,3.380354E-08,NaN,-2.140124,4.92186E-06,-0.2814657,1.901789E-09,NaN,NaN,-0.01980842,1.39691E-11,3.656086E-06,-1.150603E-07,4.450909E-08,-2.622604E-08
156.815,0.04503882,-2.824946E-08,NaN,-0.3271219,-1.374642E-07,NaN,-1.079528,3.380354E-08,NaN,-2.140124,4.92186E-06,-0.2814657,1.901789E-09,NaN,NaN,-0.01980842,1.39691E-11,3.656086E-06,-1.150603E-07,4.450909E-08,-2.622604E-08
156.8309,0.04503868,-2.82483E-08,NaN,-0.3271214,-1.374641E-07,NaN,-1.086864,3.358359E-08,NaN,-2.140231,4.922573E-06,-0.2820009,2.042085E-09,NaN,NaN,-0.01980975,9.31249E-12,3.630307E-06,-1.150591E-07,3.974072E-08,-2.861022E-08
156.8454,0.04503855,-2.824715E-08,NaN,-0.3271209,-1.37464E-07,NaN,-1.094092,3.336363E-08,NaN,-2.140338,4.923285E-06,-0.2825418,2.181469E-09,NaN,NaN,-0.01981108,4.655877E-12,3.604529E-06,-1.150578E-07,3.735653E-08,-2.622604E-08
156.8589,0.04503855,-2.824715E-08,NaN,-0.3271209,-1.37464E-07,NaN,-1.094092,3.336363E-08,NaN,-2.140338,4.923285E-06,-0.2825418,2.181469E-09,NaN,NaN,-0.01981108,4.655877E-12,3.604529E-06,-1.150578E-07,3.735653E-08,-2.622604E-08
156.8728,0.04503841,-2.8246E-08,NaN,-0.3271205,-1.374639E-07,NaN,-1.101214,3.314367E-08,NaN,-2.140446,4.923993E-06,-0.2830879,2.319949E-09,NaN,NaN,-0.01981243,4.655877E-12,3.5786E-06,-1.150565E-07,3.974072E-08,-2.861022E-08
156.8879,0.04503828,-2.824484E-08,NaN,-0.32712,-1.374638E-07,NaN,-1.108232,3.292372E-08,NaN,-2.140555,4.924701E-06,-0.2836389,2.45753E-09,NaN,NaN,-0.01981378,4.655877E-12,3.550288E-06,-1.150553E-07,3.974072E-08,-2.622604E-08
156.9024,0.04503815,-2.824369E-08,NaN,-0.3271195,-1.374637E-07,NaN,-1.115147,3.270376E-08,NaN,-2.140665,4.925408E-06,-0.2841945,2.594217E-09,NaN,NaN,-0.01981515,4.655877E-12,3.52436E-06,-1.15054E-07,3.735653E-08,-2.861022E-08
156.9169,0.04503815,-2.824369E-08,NaN,-0.3271195,-1.374637E-07,NaN,-1.115147,3.270376E-08,NaN,-2.140665,4.925408E-06,-0.2841945,2.594217E-09,NaN,NaN,-0.01981515,4.655877E-12,3.52436E-06,-1.15054E-07,3.735653E-08,-2.861022E-08
156.9309,0.04503802,-2.824254E-08,NaN,-0.327119,-1.374636E-07,NaN,-1.12196,3.248381E-08,NaN,-2.140775,4.926116E-06,-0.2847543,2.730017E-09,NaN,NaN,-0.01981652,4.655877E-12,3.497538E-06,-1.150527E-07,4.21249E-08,-2.622604E-08
156.9462,0.04503789,-2.824139E-08,NaN,-0.3271185,-1.374634E-07,NaN,-1.128674,3.226385E-08,NaN,-2.140886,4.926823E-06,-0.2853181,2.864935E-09,NaN,NaN,-0.01981789,4.655877E-12,3.470865E-06,-1.150515E-07,3.974071E-08,-2.861022E-08
156.9609,0.04503776,-2.824023E-08,NaN,-0.3271181,-1.374633E-07,NaN,-1.135289,3.20439E-08,NaN,-2.140998,4.927531E-06,-0.2858855,2.998977E-09,NaN,NaN,-0.01981928,9.31249E-12,3.442702E-06,-1.150502E-07,3.974071E-08,-2.622604E-08
156.9756,0.04503776,-2.824023E-08,NaN,-0.3271181,-1.374633E-07,NaN,-1.135289,3.20439E-08,NaN,-2.140998,4.927531E-06,-0.2858855,2.998977E-09,NaN,NaN,-0.01981928,9.31249E-12,3.442702E-06,-1.150502E-07,3.974071E-08,-2.622604E-08
156.9896,0.04503763,-2.823908E-08,NaN,-0.3271176,-1.374632E-07,NaN,-1.141807,3.182394E-08,NaN,-2.14111,4.928238E-06,-0.2864563,3.132149E-09,NaN,NaN,-0.01982067,1.39691E-11,3.415582E-06,-1.15049E-07,3.735652E-08,-2.861022E-08
157.005,0.0450375,-2.823793E-08,NaN,-0.3271172,-1.37463E-07,NaN,-1.148229,3.160399E-08,NaN,-2.141223,4.928946E-06,-0.2870302,3.264456E-09,NaN,NaN,-0.01982206,1.862572E-11,3.38727E-06,-1.150477E-07,3.497234E-08,-2.622604E-08
157.0194,0.0450375,-2.823793E-08,NaN,-0.3271172,-1.37463E-07,NaN,-1.148229,3.160399E-08,NaN,-2.141223,4.928946E-06,-0.2870302,3.264456E-09,NaN,NaN,-0.01982206,1.862572E-11,3.38727E-06,-1.150477E-07,3.497234E-08,-2.622604E-08
157.0335,0.04503737,-2.823677E-08,NaN,-0.3271167,-1.374629E-07,NaN,-1.154557,3.138403E-08,NaN,-2.141336,4.929659E-06,-0.287607,3.395905E-09,NaN,NaN,-0.01982347,1.862572E-11,3.36E-06,-1.150465E-07,3.020397E-08,-2.861022E-08
157.0487,0.04503724,-2.823562E-08,NaN,-0.3271163,-1.374628E-07,NaN,-1.160793,3.116407E-08,NaN,-2.14145,4.930376E-06,-0.2881862,3.5265E-09,NaN,NaN,-0.01982488,1.39691E-11,3.331688E-06,-1.150453E-07,2.781978E-08,-2.622604E-08
157.0636,0.04503711,-2.823447E-08,NaN,-0.3271158,-1.374627E-07,NaN,-1.166936,3.094412E-08,NaN,-2.141564,4.931088E-06,-0.2887677,3.656247E-09,NaN,NaN,-0.01982629,1.39691E-11,3.302929E-06,-1.15044E-07,2.781978E-08,-2.861022E-08
157.0784,0.04503711,-2.823447E-08,NaN,-0.3271158,-1.374627E-07,NaN,-1.166936,3.094412E-08,NaN,-2.141564,4.931088E-06,-0.2887677,3.656247E-09,NaN,NaN,-0.01982629,1.39691E-11,3.302929E-06,-1.15044E-07,2.781978E-08,-2.861022E-08
157.0923,0.04503698,-2.823331E-08,NaN,-0.3271154,-1.374625E-07,NaN,-1.17299,3.072416E-08,NaN,-2.141678,4.931806E-06,-0.2893513,3.785151E-09,NaN,NaN,-0.01982771,9.31249E-12,3.273723E-06,-1.150428E-07,2.54356E-08,-2.622604E-08
157.1078,0.04503684,-2.823216E-08,NaN,-0.3271149,-1.37462E-07,NaN,-1.178954,3.050421E-08,NaN,-2.141793,4.932518E-06,-0.2899367,3.913223E-09,NaN,NaN,-0.01982913,9.31249E-12,3.244814E-06,-1.150425E-07,2.54356E-08,-2.861022E-08
157.1232,0.04503672,-2.8231E-08,NaN,-0.3271145,-1.374615E-07,NaN,-1.184831,3.028425E-08,NaN,-2.141908,4.933221E-06,-0.2905236,4.040464E-09,NaN,NaN,-0.01983055,1.862572E-11,3.216055E-06,-1.150423E-07,3.020397E-08,-2.622604E-08
157.1369,0.04503672,-2.8231E-08,NaN,-0.3271145,-1.374615E-07,NaN,-1.184831,3.028425E-08,NaN,-2.141908,4.933221E-06,-0.2905236,4.040464E-09,NaN,NaN,-0.01983055,1.862572E-11,3.216055E-06,-1.150423E-07,3.020397E-08,-2.622604E-08
157.1508,0.04503659,-2.822985E-08,NaN,-0.327114,-1.37461E-07,NaN,-1.190621,3.00643E-08,NaN,-2.142023,4.933929E-06,-0.2911119,4.166878E-09,NaN,NaN,-0.01983197,2.328233E-11,3.187594E-06,-1.150421E-07,3.258815E-08,-2.861022E-08
157.1661,0.04503646,-2.822869E-08,NaN,-0.3271136,-1.374605E-07,NaN,-1.196326,2.984434E-08,NaN,-2.142138,4.934641E-06,-0.2917014,4.292473E-09,NaN,NaN,-0.0198334,2.328233E-11,3.160325E-06,-1.150419E-07,3.020397E-08,-2.622604E-08
157.1806,0.04503634,-2.822754E-08,NaN,-0.3271132,-1.374601E-07,NaN,-1.201947,2.962439E-08,NaN,-2.142254,4.935344E-06,-0.2922917,4.417252E-09,NaN,NaN,-0.01983482,3.259555E-11,3.131268E-06,-1.150418E-07,3.258815E-08,-2.861022E-08
157.1952,0.04503634,-2.822754E-08,NaN,-0.3271132,-1.374601E-07,NaN,-1.201947,2.962439E-08,NaN,-2.142254,4.935344E-06,-0.2922917,4.417252E-09,NaN,NaN,-0.01983482,3.259555E-11,3.131268E-06,-1.150418E-07,3.258815E-08,-2.861022E-08
157.2094,0.04503621,-2.822638E-08,NaN,-0.3271127,-1.374597E-07,NaN,-1.207486,2.940443E-08,NaN,-2.14237,4.936061E-06,-0.2928828,4.541221E-09,NaN,NaN,-0.01983625,2.793894E-11,3.103105E-06,-1.150416E-07,3.258815E-08,-2.622604E-08
157.2244,0.04503608,-2.822523E-08,NaN,-0.3271123,-1.374593E-07,NaN,-1.212943,2.918448E-08,NaN,-2.142485,4.936765E-06,-0.2934744,4.664385E-09,NaN,NaN,-0.01983768,3.725217E-11,3.0736E-06,-1.150415E-07,2.781978E-08,-2.861022E-08
157.2392,0.04503608,-2.822523E-08,NaN,-0.3271123,-1.374593E-07,NaN,-1.212943,2.918448E-08,NaN,-2.142485,4.936765E-06,-0.2934744,4.664385E-09,NaN,NaN,-0.01983768,3.725217E-11,3.0736E-06,-1.150415E-07,2.781978E-08,-2.861022E-08
157.253,0.04503596,-2.822408E-08,NaN,-0.3271118,-1.374589E-07,NaN,-1.218319,2.896453E-08,NaN,-2.142601,4.937482E-06,-0.2940663,4.786749E-09,NaN,NaN,-0.01983911,3.259555E-11,3.045288E-06,-1.150413E-07,2.54356E-08,-2.622604E-08
157.2684,0.04503583,-2.822292E-08,NaN,-0.3271114,-1.374585E-07,NaN,-1.223617,2.874457E-08,NaN,-2.142717,4.938185E-06,-0.2946584,4.908319E-09,NaN,NaN,-0.01984054,4.190878E-11,3.01638E-06,-1.150412E-07,2.305141E-08,-2.861022E-08
157.2832,0.0450357,-2.822177E-08,NaN,-0.3271109,-1.374581E-07,NaN,-1.228836,2.852462E-08,NaN,-2.142833,4.938897E-06,-0.2952505,5.029099E-09,NaN,NaN,-0.01984197,4.656539E-11,2.988068E-06,-1.15041E-07,2.066723E-08,-2.622604E-08
157.2977,0.0450357,-2.822177E-08,NaN,-0.3271109,-1.374581E-07,NaN,-1.228836,2.852462E-08,NaN,-2.142833,4.938897E-06,-0.2952505,5.029099E-09,NaN,NaN,-0.01984197,4.656539E-11,2.988068E-06,-1.15041E-07,2.066723E-08,-2.622604E-08
157.313,0.04503558,-2.822061E-08,NaN,-0.3271105,-1.374577E-07,NaN,-1.233979,2.830466E-08,NaN,-2.14295,4.939614E-06,-0.2958423,5.149095E-09,NaN,NaN,-0.0198434,4.656539E-11,2.959756E-06,-1.150409E-07,2.54356E-08,-2.861022E-08
157.3273,0.04503545,-2.821946E-08,NaN,-0.32711,-1.374573E-07,NaN,-1.239045,2.808471E-08,NaN,-2.143066,4.940336E-06,-0.2964343,5.268312E-09,NaN,NaN,-0.01984482,4.190878E-11,2.930102E-06,-1.150407E-07,2.781979E-08,-2.622604E-08
157.342,0.04503533,-2.82183E-08,NaN,-0.3271096,-1.374569E-07,NaN,-1.244036,2.786476E-08,NaN,-2.143182,4.941049E-06,-0.2970257,5.386755E-09,NaN,NaN,-0.01984625,4.656539E-11,2.902088E-06,-1.150406E-07,2.305141E-08,-2.861022E-08
157.3564,0.04503533,-2.82183E-08,NaN,-0.3271096,-1.374569E-07,NaN,-1.244036,2.786476E-08,NaN,-2.143182,4.941049E-06,-0.2970257,5.386755E-09,NaN,NaN,-0.01984625,4.656539E-11,2.902088E-06,-1.150406E-07,2.305141E-08,-2.861022E-08
157.3703,0.04503521,-2.821715E-08,NaN,-0.3271092,-1.374565E-07,NaN,-1.248954,2.76448E-08,NaN,-2.143298,4.94177E-06,-0.2976163,5.504429E-09,NaN,NaN,-0.01984767,4.190878E-11,2.87318E-06,-1.150404E-07,2.066723E-08,-2.622604E-08
157.3858,0.04503508,-2.821599E-08,NaN,-0.3271088,-1.374561E-07,NaN,-1.253798,2.742485E-08,NaN,-2.143414,4.942483E-06,-0.298206,5.621339E-09,NaN,NaN,-0.01984909,4.656539E-11,2.84457E-06,-1.150403E-07,2.066723E-08,-2.861022E-08
157.4014,0.04503496,-2.821484E-08,NaN,-0.3271084,-1.374557E-07,NaN,-1.25781,2.720489E-08,NaN,-2.143599,4.943205E-06,-0.299704,5.73749E-09,NaN,NaN,-0.01985291,4.190878E-11,2.770809E-06,-1.150401E-07,2.066723E-08,-2.622604E-08
157.4161,0.04503496,-2.821484E-08,NaN,-0.3271084,-1.374557E-07,NaN,-1.25781,2.720489E-08,NaN,-2.143599,4.943205E-06,-0.299704,5.73749E-09,NaN,NaN,-0.01985291,4.190878E-11,2.770809E-06,-1.150401E-07,2.066723E-08,-2.622604E-08
157.43,0.04503483,-2.821368E-08,NaN,-0.3271079,-1.374552E-07,NaN,-1.260912,2.698494E-08,NaN,-2.143799,4.943917E-06,-0.3010399,5.852887E-09,NaN,NaN,-0.01985627,4.656539E-11,2.706436E-06,-1.1504E-07,2.54356E-08,-2.861022E-08
157.4442,0.04503471,-2.821253E-08,NaN,-0.3271075,-1.374548E-07,NaN,-1.263506,2.676499E-08,NaN,-2.143991,4.944639E-06,-0.3021606,5.967534E-09,NaN,NaN,-0.01985906,4.190878E-11,2.652047E-06,-1.150398E-07,2.54356E-08,-2.622604E-08
157.4589,0.04503471,-2.821253E-08,NaN,-0.3271075,-1.374548E-07,NaN,-1.263506,2.676499E-08,NaN,-2.143991,4.944639E-06,-0.3021606,5.967534E-09,NaN,NaN,-0.01985906,4.190878E-11,2.652047E-06,-1.150398E-07,2.54356E-08,-2.622604E-08
157.4727,0.04503458,-2.821137E-08,NaN,-0.3271071,-1.374544E-07,NaN,-1.265085,2.654503E-08,NaN,-2.144242,4.945352E-06,-0.3040645,6.081437E-09,NaN,NaN,-0.01986395,4.656539E-11,2.558691E-06,-1.150397E-07,3.020397E-08,-2.861022E-08
157.488,0.04503446,-2.821022E-08,NaN,-0.3271067,-1.37454E-07,NaN,-1.265695,2.632508E-08,NaN,-2.1445,4.946073E-06,-0.3057423,6.194601E-09,NaN,NaN,-0.01986822,4.190878E-11,2.477628E-06,-1.150395E-07,3.258816E-08,-2.622604E-08
157.5024,0.04503433,-2.820906E-08,NaN,-0.3271063,-1.374536E-07,NaN,-1.265791,2.610513E-08,NaN,-2.144744,4.946781E-06,-0.3071698,6.30703E-09,NaN,NaN,-0.01987183,4.656539E-11,2.408189E-06,-1.150394E-07,2.781979E-08,-2.861022E-08
157.5171,0.04503433,-2.820906E-08,NaN,-0.3271063,-1.374536E-07,NaN,-1.265791,2.610513E-08,NaN,-2.144744,4.946781E-06,-0.3071698,6.30703E-09,NaN,NaN,-0.01987183,4.656539E-11,2.408189E-06,-1.150394E-07,2.781979E-08,-2.861022E-08
157.5311,0.0450342,-2.820791E-08,NaN,-0.3271058,-1.374532E-07,NaN,-1.265651,2.588517E-08,NaN,-2.144972,4.947498E-06,-0.3084498,6.418728E-09,NaN,NaN,-0.01987506,3.725217E-11,2.347467E-06,-1.150392E-07,2.781979E-08,-2.622604E-08
157.5465,0.04503408,-2.820675E-08,NaN,-0.3271054,-1.374528E-07,NaN,-1.26465,2.566522E-08,NaN,-2.145257,4.948206E-06,-0.3105566,6.529702E-09,NaN,NaN,-0.01988053,3.725217E-11,2.246884E-06,-1.150391E-07,3.020397E-08,-2.861022E-08
157.5611,0.04503395,-2.820559E-08,NaN,-0.327105,-1.374524E-07,NaN,-1.262767,2.544526E-08,NaN,-2.145551,4.948923E-06,-0.3124557,6.639955E-09,NaN,NaN,-0.01988543,2.793894E-11,2.155391E-06,-1.150389E-07,3.258816E-08,-2.622604E-08
157.5759,0.04503395,-2.820559E-08,NaN,-0.327105,-1.374524E-07,NaN,-1.262767,2.544526E-08,NaN,-2.145551,4.948923E-06,-0.3124557,6.639955E-09,NaN,NaN,-0.01988543,2.793894E-11,2.155391E-06,-1.150389E-07,3.258816E-08,-2.622604E-08
157.5897,0.04503383,-2.820444E-08,NaN,-0.3271046,-1.374519E-07,NaN,-1.260428,2.522531E-08,NaN,-2.145832,4.94963E-06,-0.3141069,6.749492E-09,NaN,NaN,-0.01988967,2.793894E-11,2.075446E-06,-1.150387E-07,3.497235E-08,-2.861022E-08
157.605,0.0450337,-2.820328E-08,NaN,-0.3271042,-1.374515E-07,NaN,-1.257895,2.500536E-08,NaN,-2.146095,4.950347E-06,-0.3156058,6.858318E-09,NaN,NaN,-0.01989351,1.862572E-11,2.003287E-06,-1.150386E-07,3.497235E-08,-2.622604E-08
157.6197,0.0450337,-2.820328E-08,NaN,-0.3271042,-1.374515E-07,NaN,-1.257895,2.500536E-08,NaN,-2.146095,4.950347E-06,-0.3156058,6.858318E-09,NaN,NaN,-0.01989351,1.862572E-11,2.003287E-06,-1.150386E-07,3.497235E-08,-2.622604E-08
157.6337,0.04503358,-2.820213E-08,NaN,-0.3271038,-1.374511E-07,NaN,-1.254542,2.47854E-08,NaN,-2.146416,4.951055E-06,-0.3179233,6.966437E-09,NaN,NaN,-0.01989962,1.862572E-11,1.892311E-06,-1.150384E-07,3.020398E-08,-2.861022E-08
157.649,0.04503345,-2.820097E-08,NaN,-0.3271033,-1.374507E-07,NaN,-1.250345,2.456545E-08,NaN,-2.146747,4.951772E-06,-0.3200266,7.073854E-09,NaN,NaN,-0.01990513,9.31249E-12,1.791709E-06,-1.150383E-07,2.781979E-08,-2.622604E-08
157.6637,0.04503333,-2.819981E-08,NaN,-0.3271029,-1.374503E-07,NaN,-1.245724,2.434549E-08,NaN,-2.147063,4.95248E-06,-0.3218733,7.180574E-09,NaN,NaN,-0.01990995,9.31249E-12,1.702703E-06,-1.150381E-07,3.258817E-08,-2.861022E-08
157.6783,0.04503333,-2.819981E-08,NaN,-0.3271029,-1.374503E-07,NaN,-1.245724,2.434549E-08,NaN,-2.147063,4.95248E-06,-0.3218733,7.180574E-09,NaN,NaN,-0.01990995,9.31249E-12,1.702703E-06,-1.150381E-07,3.258817E-08,-2.861022E-08
157.6942,0.04503321,-2.819866E-08,NaN,-0.3271025,-1.374499E-07,NaN,-1.24019,2.412554E-08,NaN,-2.147433,4.953192E-06,-0.3244663,7.286602E-09,NaN,NaN,-0.01991687,-7.355228E-16,1.577212E-06,-1.150379E-07,3.497235E-08,-2.622604E-08
157.7086,0.04503308,-2.81975E-08,NaN,-0.3271021,-1.374495E-07,NaN,-1.233787,2.390559E-08,NaN,-2.147809,4.953895E-06,-0.3268064,7.39194E-09,NaN,NaN,-0.01992309,-7.355228E-16,1.467195E-06,-1.150378E-07,3.974072E-08,-2.861022E-08
157.7221,0.04503295,-2.819634E-08,NaN,-0.3271017,-1.374491E-07,NaN,-1.226968,2.368563E-08,NaN,-2.148166,4.954608E-06,-0.3288669,7.496594E-09,NaN,NaN,-0.01992855,-9.313961E-12,1.369368E-06,-1.150376E-07,3.735654E-08,-2.622604E-08
157.7366,0.04503295,-2.819634E-08,NaN,-0.3271017,-1.374491E-07,NaN,-1.226968,2.368563E-08,NaN,-2.148166,4.954608E-06,-0.3288669,7.496594E-09,NaN,NaN,-0.01992855,-9.313961E-12,1.369368E-06,-1.150376E-07,3.735654E-08,-2.622604E-08
157.7507,0.04503283,-2.819519E-08,NaN,-0.3271013,-1.374487E-07,NaN,-1.220007,2.346568E-08,NaN,-2.148501,4.955311E-06,-0.3307507,7.60057E-09,NaN,NaN,-0.01993355,-9.313961E-12,1.278583E-06,-1.150374E-07,3.258817E-08,-2.861022E-08
157.7671,0.04503271,-2.819403E-08,NaN,-0.3271009,-1.374482E-07,NaN,-1.212292,2.324573E-08,NaN,-2.148893,4.956024E-06,-0.3334317,7.70387E-09,NaN,NaN,-0.01994083,-1.862719E-11,1.149353E-06,-1.150373E-07,3.735654E-08,-2.622604E-08
157.7805,0.04503259,-2.819287E-08,NaN,-0.3271005,-1.374478E-07,NaN,-1.203794,2.302577E-08,NaN,-2.149293,4.956727E-06,-0.3358842,7.806499E-09,NaN,NaN,-0.01994746,-1.862719E-11,1.03588E-06,-1.150371E-07,3.974072E-08,-2.861022E-08
157.795,0.04503259,-2.819287E-08,NaN,-0.3271005,-1.374478E-07,NaN,-1.203794,2.302577E-08,NaN,-2.149293,4.956727E-06,-0.3358842,7.806499E-09,NaN,NaN,-0.01994746,-1.862719E-11,1.03588E-06,-1.150371E-07,3.974072E-08,-2.861022E-08
157.8091,0.04503246,-2.819172E-08,NaN,-0.3271002,-1.374474E-07,NaN,-1.194932,2.280582E-08,NaN,-2.149675,4.957439E-06,-0.3380637,7.908461E-09,NaN,NaN,-0.01995335,-2.794041E-11,9.33435E-07,-1.150369E-07,3.974072E-08,-2.622604E-08
157.8242,0.04503234,-2.819056E-08,NaN,-0.3270998,-1.37447E-07,NaN,-1.185969,2.258586E-08,NaN,-2.150035,4.958142E-06,-0.340065,8.009763E-09,NaN,NaN,-0.01995876,-2.794041E-11,8.386636E-07,-1.150368E-07,3.735654E-08,-2.861022E-08
157.839,0.04503234,-2.819056E-08,NaN,-0.3270998,-1.37447E-07,NaN,-1.185969,2.258586E-08,NaN,-2.150035,4.958142E-06,-0.340065,8.009763E-09,NaN,NaN,-0.01995876,-2.794041E-11,8.386636E-07,-1.150368E-07,3.735654E-08,-2.861022E-08
157.8528,0.04503222,-2.81894E-08,NaN,-0.3270994,-1.37447E-07,NaN,-1.176286,2.236591E-08,NaN,-2.150451,4.958855E-06,-0.3428581,8.110402E-09,NaN,NaN,-0.01996649,-3.725364E-11,7.069373E-07,-1.150357E-07,4.212491E-08,-2.622604E-08
157.8686,0.0450321,-2.818825E-08,NaN,-0.327099,-1.37447E-07,NaN,-1.165853,2.214596E-08,NaN,-2.150877,4.959567E-06,-0.3454197,8.210387E-09,NaN,NaN,-0.01997356,-4.656686E-11,5.861634E-07,-1.150345E-07,3.974072E-08,-2.861022E-08
157.8828,0.04503198,-2.818709E-08,NaN,-0.3270986,-1.374469E-07,NaN,-1.155084,2.1926E-08,NaN,-2.151285,4.96028E-06,-0.3477026,8.309723E-09,NaN,NaN,-0.01997985,-5.588009E-11,4.785026E-07,-1.150333E-07,3.735653E-08,-2.622604E-08
157.8975,0.04503198,-2.818709E-08,NaN,-0.3270986,-1.374469E-07,NaN,-1.155084,2.1926E-08,NaN,-2.151285,4.96028E-06,-0.3477026,8.309723E-09,NaN,NaN,-0.01997985,-5.588009E-11,4.785026E-07,-1.150333E-07,3.735653E-08,-2.622604E-08
157.9116,0.04503186,-2.818594E-08,NaN,-0.3270982,-1.374468E-07,NaN,-1.143499,2.170605E-08,NaN,-2.151746,4.960993E-06,-0.3507065,8.408414E-09,NaN,NaN,-0.01998829,-6.05367E-11,3.402943E-07,-1.150321E-07,3.735653E-08,-2.861022E-08
