JMolnar6/NonAnthroHands_User_Study/HandsLoggerWithURDF/tempdata/files/Reachy_PID0_JointMotion_gesture_5_23.csv
Time,r_shoulder,r_shoulder_x,r_upper_arm,r_forearm,r_wrist,r_wrist2hand,
266.6574,0.04500327,-2.219457E-08,NaN,-0.3270013,-1.364255E-07,NaN,0.4648467,3.908462E-09,NaN,-2.148018,8.58445E-06,-0.5312276,-3.518239E-08,NaN,NaN,-0.02002303,-4.749748E-10,-3.91395E-07,-1.139159E-07,9.375952E-09,-2.622604E-08
266.6722,0.04500326,-2.219353E-08,NaN,-0.3270013,-1.364252E-07,NaN,0.4639292,3.969432E-09,NaN,-2.148041,8.585074E-06,-0.5333769,-3.524116E-08,NaN,NaN,-0.02002219,-4.84288E-10,-3.824543E-07,-1.139143E-07,1.056804E-08,-2.861022E-08
266.6867,0.04500326,-2.219248E-08,NaN,-0.3270013,-1.36425E-07,NaN,0.4631414,4.030759E-09,NaN,-2.148081,8.585698E-06,-0.5358911,-3.53003E-08,NaN,NaN,-0.02002273,-4.936012E-10,-3.878188E-07,-1.139126E-07,9.375952E-09,-2.622604E-08
266.7014,0.04500325,-2.219143E-08,NaN,-0.3270013,-1.364247E-07,NaN,0.4625595,4.091025E-09,NaN,-2.148122,8.586318E-06,-0.5383474,-3.535838E-08,NaN,NaN,-0.02002321,-4.982578E-10,-3.925871E-07,-1.13911E-07,1.295223E-08,-2.861022E-08
266.7162,0.04500325,-2.219143E-08,NaN,-0.3270013,-1.364247E-07,NaN,0.4625595,4.091025E-09,NaN,-2.148122,8.586318E-06,-0.5383474,-3.535838E-08,NaN,NaN,-0.02002321,-4.982578E-10,-3.925871E-07,-1.13911E-07,1.295223E-08,-2.861022E-08
266.7303,0.04500325,-2.219039E-08,NaN,-0.3270013,-1.364245E-07,NaN,0.4621036,4.151659E-09,NaN,-2.148159,8.586941E-06,-0.5407131,-3.541682E-08,NaN,NaN,-0.02002354,-5.07571E-10,-3.961634E-07,-1.139094E-07,8.183859E-09,-2.622604E-08
266.7456,0.04500325,-2.218934E-08,NaN,-0.3270013,-1.364243E-07,NaN,0.462622,4.211244E-09,NaN,-2.148165,8.587561E-06,-0.5407522,-3.547422E-08,NaN,NaN,-0.02002459,-5.122276E-10,-4.068922E-07,-1.139077E-07,1.176014E-08,-2.861022E-08
266.7615,0.04500326,-2.21883E-08,NaN,-0.3270013,-1.36424E-07,NaN,0.4630492,4.271211E-09,NaN,-2.148149,8.58818E-06,-0.5403684,-3.5532E-08,NaN,NaN,-0.02002421,-5.168843E-10,-4.021239E-07,-1.139061E-07,1.295223E-08,-2.622604E-08
266.776,0.04500326,-2.21883E-08,NaN,-0.3270013,-1.36424E-07,NaN,0.4630492,4.271211E-09,NaN,-2.148149,8.58818E-06,-0.5403684,-3.5532E-08,NaN,NaN,-0.02002421,-5.168843E-10,-4.021239E-07,-1.139061E-07,1.295223E-08,-2.622604E-08
266.7898,0.04500326,-2.218725E-08,NaN,-0.3270013,-1.364238E-07,NaN,0.4632935,4.331556E-09,NaN,-2.148128,8.5888E-06,-0.5399938,-3.559015E-08,NaN,NaN,-0.02002386,-5.215409E-10,-3.970575E-07,-1.139045E-07,1.056804E-08,-2.861022E-08
266.8043,0.04500326,-2.218621E-08,NaN,-0.3270013,-1.364235E-07,NaN,0.4634275,4.390854E-09,NaN,-2.148111,8.589419E-06,-0.5396657,-3.564726E-08,NaN,NaN,-0.02002367,-5.261975E-10,-3.937792E-07,-1.139029E-07,6.991765E-09,-2.622604E-08
266.8212,0.04500327,-2.218516E-08,NaN,-0.3270013,-1.364233E-07,NaN,0.4644127,4.450539E-09,NaN,-2.148072,8.590034E-06,-0.5371156,-3.570476E-08,NaN,NaN,-0.02002438,-5.261975E-10,-4.03018E-07,-1.139013E-07,8.183858E-09,-2.861022E-08
266.8336,0.04500327,-2.218516E-08,NaN,-0.3270013,-1.364233E-07,NaN,0.4644127,4.450539E-09,NaN,-2.148072,8.590034E-06,-0.5371156,-3.570476E-08,NaN,NaN,-0.02002438,-5.261975E-10,-4.03018E-07,-1.139013E-07,8.183858E-09,-2.861022E-08
266.8476,0.04500328,-2.218412E-08,NaN,-0.3270013,-1.364231E-07,NaN,0.4652425,4.509194E-09,NaN,-2.148017,8.590653E-06,-0.5342201,-3.576123E-08,NaN,NaN,-0.02002374,-5.308541E-10,-3.955674E-07,-1.138997E-07,9.375951E-09,-2.622604E-08
266.863,0.04500328,-2.218307E-08,NaN,-0.3270013,-1.364228E-07,NaN,0.4658536,4.56825E-09,NaN,-2.147962,8.591268E-06,-0.5313956,-3.581809E-08,NaN,NaN,-0.02002319,-5.308541E-10,-3.881168E-07,-1.138981E-07,1.056804E-08,-2.861022E-08
266.8777,0.04500328,-2.218307E-08,NaN,-0.3270013,-1.364228E-07,NaN,0.4658536,4.56825E-09,NaN,-2.147962,8.591268E-06,-0.5313956,-3.581809E-08,NaN,NaN,-0.02002319,-5.308541E-10,-3.881168E-07,-1.138981E-07,1.056804E-08,-2.861022E-08
266.8916,0.04500329,-2.218203E-08,NaN,-0.3270012,-1.364226E-07,NaN,0.4672379,4.627696E-09,NaN,-2.147887,8.591887E-06,-0.5264161,-3.587535E-08,NaN,NaN,-0.02002362,-5.355107E-10,-3.928852E-07,-1.138966E-07,8.183857E-09,-2.622604E-08
266.9072,0.0450033,-2.218098E-08,NaN,-0.3270012,-1.364223E-07,NaN,0.4684198,4.686111E-09,NaN,-2.147798,8.592502E-06,-0.5211551,-3.593158E-08,NaN,NaN,-0.02002277,-5.355107E-10,-3.836464E-07,-1.13895E-07,1.176014E-08,-2.861022E-08
266.9219,0.04500331,-2.217994E-08,NaN,-0.3270012,-1.364221E-07,NaN,0.4693549,4.744934E-09,NaN,-2.147711,8.593121E-06,-0.5160201,-3.598821E-08,NaN,NaN,-0.02002202,-5.401673E-10,-3.758978E-07,-1.138934E-07,1.533641E-08,-2.622604E-08
266.9366,0.04500331,-2.217994E-08,NaN,-0.3270012,-1.364221E-07,NaN,0.4693549,4.744934E-09,NaN,-2.147711,8.593121E-06,-0.5160201,-3.598821E-08,NaN,NaN,-0.02002202,-5.401673E-10,-3.758978E-07,-1.138934E-07,1.533641E-08,-2.622604E-08
266.9505,0.04500331,-2.21789E-08,NaN,-0.3270012,-1.364218E-07,NaN,0.4701378,4.802741E-09,NaN,-2.147633,8.593736E-06,-0.5110351,-3.604383E-08,NaN,NaN,-0.02002146,-5.401673E-10,-3.684472E-07,-1.138919E-07,1.414432E-08,-2.861022E-08
266.9662,0.04500332,-2.217785E-08,NaN,-0.3270012,-1.364216E-07,NaN,0.4717405,4.860966E-09,NaN,-2.147537,8.594356E-06,-0.5039186,-3.609987E-08,NaN,NaN,-0.02002179,-5.448239E-10,-3.726196E-07,-1.138903E-07,1.533641E-08,-2.622604E-08
266.9808,0.04500334,-2.217681E-08,NaN,-0.3270012,-1.364214E-07,NaN,0.4731572,4.918187E-09,NaN,-2.147426,8.59497E-06,-0.4965523,-3.61549E-08,NaN,NaN,-0.02002081,-5.448239E-10,-3.598046E-07,-1.138888E-07,1.77206E-08,-2.861022E-08
266.9955,0.04500334,-2.217681E-08,NaN,-0.3270012,-1.364214E-07,NaN,0.4731572,4.918187E-09,NaN,-2.147426,8.59497E-06,-0.4965523,-3.61549E-08,NaN,NaN,-0.02002081,-5.448239E-10,-3.598046E-07,-1.138888E-07,1.77206E-08,-2.861022E-08
267.0095,0.04500334,-2.217576E-08,NaN,-0.3270012,-1.364211E-07,NaN,0.4743298,4.975837E-09,NaN,-2.147317,8.595585E-06,-0.4893478,-3.621036E-08,NaN,NaN,-0.02001992,-5.448239E-10,-3.505658E-07,-1.138872E-07,1.77206E-08,-2.622604E-08
267.0267,0.04500335,-2.217472E-08,NaN,-0.3270012,-1.364209E-07,NaN,0.4753465,5.032495E-09,NaN,-2.147216,8.5962E-06,-0.482331,-3.626483E-08,NaN,NaN,-0.0200192,-5.448239E-10,-3.419232E-07,-1.138857E-07,2.010479E-08,-2.861022E-08
267.0405,0.04500337,-2.217367E-08,NaN,-0.3270012,-1.364206E-07,NaN,0.4771759,5.089595E-09,NaN,-2.147099,8.596819E-06,-0.4732158,-3.631974E-08,NaN,NaN,-0.02001934,-5.494805E-10,-3.441583E-07,-1.138841E-07,2.010479E-08,-2.622604E-08
267.0541,0.04500337,-2.217367E-08,NaN,-0.3270012,-1.364206E-07,NaN,0.4771759,5.089595E-09,NaN,-2.147099,8.596819E-06,-0.4732158,-3.631974E-08,NaN,NaN,-0.02001934,-5.494805E-10,-3.441583E-07,-1.138841E-07,2.010479E-08,-2.622604E-08
267.0681,0.04500338,-2.217263E-08,NaN,-0.3270011,-1.364204E-07,NaN,0.4788074,5.145712E-09,NaN,-2.146967,8.597434E-06,-0.4638934,-3.637367E-08,NaN,NaN,-0.02001822,-5.494805E-10,-3.294062E-07,-1.138826E-07,1.652851E-08,-2.861022E-08
267.0832,0.04500339,-2.217158E-08,NaN,-0.3270011,-1.364202E-07,NaN,0.4801851,5.202279E-09,NaN,-2.146837,8.598054E-06,-0.4547728,-3.642805E-08,NaN,NaN,-0.02001718,-5.541371E-10,-3.162932E-07,-1.138811E-07,1.77206E-08,-2.622604E-08
267.0981,0.04500339,-2.217158E-08,NaN,-0.3270011,-1.364202E-07,NaN,0.4801851,5.202279E-09,NaN,-2.146837,8.598054E-06,-0.4547728,-3.642805E-08,NaN,NaN,-0.02001718,-5.541371E-10,-3.162932E-07,-1.138811E-07,1.77206E-08,-2.622604E-08
267.1122,0.04500341,-2.217054E-08,NaN,-0.3270011,-1.364199E-07,NaN,0.4823045,5.257875E-09,NaN,-2.146692,8.598669E-06,-0.4436079,-3.648146E-08,NaN,NaN,-0.02001706,-5.541371E-10,-3.151011E-07,-1.138796E-07,1.891269E-08,-2.861022E-08
267.1274,0.04500342,-2.216949E-08,NaN,-0.327001,-1.364197E-07,NaN,0.4841819,5.313933E-09,NaN,-2.146535,8.599288E-06,-0.4322937,-3.653533E-08,NaN,NaN,-0.02001575,-5.587937E-10,-2.967727E-07,-1.138781E-07,1.77206E-08,-2.622604E-08
267.142,0.04500343,-2.216845E-08,NaN,-0.327001,-1.364194E-07,NaN,0.4857805,5.369031E-09,NaN,-2.146383,8.599903E-06,-0.4212294,-3.658824E-08,NaN,NaN,-0.02001456,-5.587937E-10,-2.820205E-07,-1.138766E-07,2.010479E-08,-2.861022E-08
267.1566,0.04500343,-2.216845E-08,NaN,-0.327001,-1.364194E-07,NaN,0.4857805,5.369031E-09,NaN,-2.146383,8.599903E-06,-0.4212294,-3.658824E-08,NaN,NaN,-0.02001456,-5.587937E-10,-2.820205E-07,-1.138766E-07,2.010479E-08,-2.861022E-08
267.1705,0.04500344,-2.216741E-08,NaN,-0.327001,-1.364192E-07,NaN,0.4871989,5.424598E-09,NaN,-2.146243,8.600522E-06,-0.4104331,-3.664162E-08,NaN,NaN,-0.02001355,-5.634503E-10,-2.678644E-07,-1.138751E-07,2.010479E-08,-2.622604E-08
267.1862,0.04500346,-2.216637E-08,NaN,-0.3270009,-1.364189E-07,NaN,0.48941,5.479217E-09,NaN,-2.146091,8.601137E-06,-0.3976017,-3.669405E-08,NaN,NaN,-0.02001334,-5.634503E-10,-2.656292E-07,-1.138736E-07,2.129688E-08,-2.861022E-08
267.2006,0.04500348,-2.216532E-08,NaN,-0.3270009,-1.364187E-07,NaN,0.4913969,5.534313E-09,NaN,-2.145927,8.601756E-06,-0.3846462,-3.674696E-08,NaN,NaN,-0.02001198,-5.68107E-10,-2.461087E-07,-1.138721E-07,1.891269E-08,-2.622604E-08
267.2154,0.04500348,-2.216532E-08,NaN,-0.3270009,-1.364187E-07,NaN,0.4913969,5.534313E-09,NaN,-2.145927,8.601756E-06,-0.3846462,-3.674696E-08,NaN,NaN,-0.02001198,-5.68107E-10,-2.461087E-07,-1.138721E-07,1.891269E-08,-2.622604E-08
267.2296,0.04500349,-2.216428E-08,NaN,-0.3270009,-1.364185E-07,NaN,0.493111,5.589882E-09,NaN,-2.145769,8.602371E-06,-0.3719687,-3.680034E-08,NaN,NaN,-0.02001074,-5.68107E-10,-2.271098E-07,-1.138706E-07,1.652851E-08,-2.861022E-08
267.2449,0.04500351,-2.216324E-08,NaN,-0.3270009,-1.364182E-07,NaN,0.4946447,5.644502E-09,NaN,-2.145623,8.60299E-06,-0.3595884,-3.685277E-08,NaN,NaN,-0.02000965,-5.727636E-10,-2.103459E-07,-1.138691E-07,1.891269E-08,-2.622604E-08
267.2597,0.04500351,-2.216324E-08,NaN,-0.3270009,-1.364182E-07,NaN,0.4946447,5.644502E-09,NaN,-2.145623,8.60299E-06,-0.3595884,-3.685277E-08,NaN,NaN,-0.02000965,-5.727636E-10,-2.103459E-07,-1.138691E-07,1.891269E-08,-2.622604E-08
267.2737,0.04500353,-2.21622E-08,NaN,-0.3270008,-1.36418E-07,NaN,0.4969679,5.698187E-09,NaN,-2.145468,8.603605E-06,-0.3451946,-3.690427E-08,NaN,NaN,-0.02000931,-5.727636E-10,-2.046835E-07,-1.138676E-07,2.129688E-08,-2.861022E-08
267.2917,0.04500354,-2.216115E-08,NaN,-0.3270008,-1.364177E-07,NaN,0.499057,5.750956E-09,NaN,-2.145302,8.604225E-06,-0.3307131,-3.695485E-08,NaN,NaN,-0.02000791,-5.774202E-10,-1.828161E-07,-1.138662E-07,2.129688E-08,-2.622604E-08
267.305,0.04500356,-2.216011E-08,NaN,-0.3270008,-1.364175E-07,NaN,0.5008671,5.804243E-09,NaN,-2.145143,8.604839E-06,-0.3165421,-3.700595E-08,NaN,NaN,-0.02000665,-5.774202E-10,-1.62923E-07,-1.138647E-07,1.77206E-08,-2.861022E-08
267.3181,0.04500356,-2.216011E-08,NaN,-0.3270008,-1.364175E-07,NaN,0.5008671,5.804243E-09,NaN,-2.145143,8.604839E-06,-0.3165421,-3.700595E-08,NaN,NaN,-0.02000665,-5.774202E-10,-1.62923E-07,-1.138647E-07,1.77206E-08,-2.861022E-08
267.3322,0.04500358,-2.215907E-08,NaN,-0.3270007,-1.364167E-07,NaN,0.5033985,5.779037E-09,NaN,-2.144978,8.60544E-06,-0.3004057,-3.697855E-08,NaN,NaN,-0.02000612,-5.634503E-10,-1.555283E-07,-1.13864E-07,1.533641E-08,-2.622604E-08
267.3474,0.0450036,-2.215803E-08,NaN,-0.3270007,-1.364159E-07,NaN,0.5056548,5.755892E-09,NaN,-2.144806,8.60605E-06,-0.2842346,-3.695321E-08,NaN,NaN,-0.02000469,-5.587937E-10,-1.321894E-07,-1.138634E-07,1.414432E-08,-2.861022E-08
267.3619,0.04500362,-2.215699E-08,NaN,-0.3270007,-1.364151E-07,NaN,0.5076107,5.733366E-09,NaN,-2.144644,8.606656E-06,-0.2684165,-3.692849E-08,NaN,NaN,-0.02000342,-5.494805E-10,-1.077887E-07,-1.138627E-07,1.414432E-08,-2.622604E-08
267.3768,0.04500362,-2.215699E-08,NaN,-0.3270007,-1.364151E-07,NaN,0.5076107,5.733366E-09,NaN,-2.144644,8.606656E-06,-0.2684165,-3.692849E-08,NaN,NaN,-0.02000342,-5.494805E-10,-1.077887E-07,-1.138627E-07,1.414432E-08,-2.622604E-08
267.3905,0.04500363,-2.215594E-08,NaN,-0.3270006,-1.364143E-07,NaN,0.5093694,5.711439E-09,NaN,-2.144498,8.607266E-06,-0.252962,-3.690437E-08,NaN,NaN,-0.02000233,-5.448239E-10,-8.696433E-08,-1.13862E-07,1.533641E-08,-2.861022E-08
267.4059,0.04500366,-2.21549E-08,NaN,-0.3270006,-1.364134E-07,NaN,0.5119044,5.690102E-09,NaN,-2.14435,8.607872E-06,-0.2355418,-3.688083E-08,NaN,NaN,-0.02000184,-5.355107E-10,-7.414933E-08,-1.138614E-07,1.652851E-08,-2.622604E-08
267.4207,0.04500368,-2.215386E-08,NaN,-0.3270006,-1.364126E-07,NaN,0.514185,5.66793E-09,NaN,-2.144198,8.608482E-06,-0.2181054,-3.685646E-08,NaN,NaN,-0.02000059,-5.308541E-10,-4.643317E-08,-1.138607E-07,1.176014E-08,-2.861022E-08
267.4354,0.04500368,-2.215386E-08,NaN,-0.3270006,-1.364126E-07,NaN,0.514185,5.66793E-09,NaN,-2.144198,8.608482E-06,-0.2181054,-3.685646E-08,NaN,NaN,-0.02000059,-5.308541E-10,-4.643317E-08,-1.138607E-07,1.176014E-08,-2.861022E-08
267.4495,0.0450037,-2.215282E-08,NaN,-0.3270006,-1.364118E-07,NaN,0.5161746,5.646352E-09,NaN,-2.144057,8.609088E-06,-0.2010431,-3.683268E-08,NaN,NaN,-0.01999949,-5.215409E-10,-2.154823E-08,-1.1386E-07,1.176014E-08,-2.622604E-08
267.465,0.04500372,-2.215178E-08,NaN,-0.3270005,-1.36411E-07,NaN,0.5179704,5.625358E-09,NaN,-2.143932,8.609698E-06,-0.1843667,-3.680949E-08,NaN,NaN,-0.01999856,-5.168843E-10,6.544969E-10,-1.138594E-07,1.176014E-08,-2.861022E-08
267.4798,0.04500372,-2.215178E-08,NaN,-0.3270005,-1.36411E-07,NaN,0.5179704,5.625358E-09,NaN,-2.143932,8.609698E-06,-0.1843667,-3.680949E-08,NaN,NaN,-0.01999856,-5.168843E-10,6.544969E-10,-1.138594E-07,1.176014E-08,-2.861022E-08
267.4937,0.04500374,-2.215074E-08,NaN,-0.3270005,-1.364102E-07,NaN,0.5205426,5.604934E-09,NaN,-2.143808,8.610304E-06,-0.1657404,-3.678686E-08,NaN,NaN,-0.01999811,-5.07571E-10,1.242641E-08,-1.138587E-07,1.056804E-08,-2.622604E-08
267.5092,0.04500376,-2.21497E-08,NaN,-0.3270005,-1.364093E-07,NaN,0.5228548,5.586479E-09,NaN,-2.143683,8.610914E-06,-0.147127,-3.67662E-08,NaN,NaN,-0.01999712,-5.029144E-10,4.163269E-08,-1.138581E-07,1.176014E-08,-2.861022E-08
267.5236,0.04500378,-2.214866E-08,NaN,-0.3270004,-1.364085E-07,NaN,0.5248739,5.568545E-09,NaN,-2.143571,8.61152E-06,-0.1289131,-3.674607E-08,NaN,NaN,-0.01999629,-4.936012E-10,6.964687E-08,-1.138574E-07,1.176014E-08,-2.622604E-08
267.5385,0.04500378,-2.214866E-08,NaN,-0.3270004,-1.364085E-07,NaN,0.5248739,5.568545E-09,NaN,-2.143571,8.61152E-06,-0.1289131,-3.674607E-08,NaN,NaN,-0.01999629,-4.936012E-10,6.964687E-08,-1.138574E-07,1.176014E-08,-2.622604E-08
267.5524,0.04500381,-2.214762E-08,NaN,-0.3270004,-1.364077E-07,NaN,0.5276039,5.551118E-09,NaN,-2.143464,8.61213E-06,-0.108796,-3.672644E-08,NaN,NaN,-0.01999588,-4.889446E-10,8.737926E-08,-1.138567E-07,9.375951E-09,-2.861022E-08
267.5696,0.04500383,-2.214658E-08,NaN,-0.3270004,-1.364069E-07,NaN,0.530038,5.534189E-09,NaN,-2.143359,8.612736E-06,-0.08873852,-3.670731E-08,NaN,NaN,-0.01999516,-4.796314E-10,1.210559E-07,-1.138561E-07,1.056804E-08,-2.622604E-08
267.5832,0.04500385,-2.214554E-08,NaN,-0.3270003,-1.364061E-07,NaN,0.5321616,5.519164E-09,NaN,-2.14327,8.613346E-06,-0.06911756,-3.669008E-08,NaN,NaN,-0.01999461,-4.749748E-10,1.508582E-07,-1.138555E-07,9.375951E-09,-2.861022E-08
267.5968,0.04500385,-2.214554E-08,NaN,-0.3270003,-1.364061E-07,NaN,0.5321616,5.519164E-09,NaN,-2.14327,8.613346E-06,-0.06911756,-3.669008E-08,NaN,NaN,-0.01999461,-4.749748E-10,1.508582E-07,-1.138555E-07,9.375951E-09,-2.861022E-08
267.611,0.04500388,-2.21445E-08,NaN,-0.3270003,-1.364053E-07,NaN,0.5340813,5.504591E-09,NaN,-2.1432,8.613952E-06,-0.04993714,-3.66733E-08,NaN,NaN,-0.01999422,-4.656616E-10,1.770842E-07,-1.138548E-07,9.375951E-09,-2.622604E-08
267.6263,0.0450039,-2.214346E-08,NaN,-0.3270003,-1.364045E-07,NaN,0.53677,5.490462E-09,NaN,-2.14314,8.614562E-06,-0.02884991,-3.665697E-08,NaN,NaN,-0.01999409,-4.61005E-10,1.946676E-07,-1.138542E-07,8.183858E-09,-2.861022E-08
267.6411,0.04500393,-2.214242E-08,NaN,-0.3270003,-1.364037E-07,NaN,0.5391888,5.476765E-09,NaN,-2.143086,8.615168E-06,-0.007832048,-3.664107E-08,NaN,NaN,-0.01999388,-4.516917E-10,2.277482E-07,-1.138535E-07,8.183858E-09,-2.622604E-08
267.6555,0.04500393,-2.214242E-08,NaN,-0.3270003,-1.364037E-07,NaN,0.5391888,5.476765E-09,NaN,-2.143086,8.615168E-06,-0.007832048,-3.664107E-08,NaN,NaN,-0.01999388,-4.516917E-10,2.277482E-07,-1.138535E-07,8.183858E-09,-2.622604E-08
267.6697,0.04500395,-2.214138E-08,NaN,-0.3270002,-1.364029E-07,NaN,0.5413097,5.464905E-09,NaN,-2.143048,8.615778E-06,0.01273531,-3.6627E-08,NaN,NaN,-0.01999383,-4.470351E-10,2.599347E-07,-1.138529E-07,9.375951E-09,-2.861022E-08
267.6851,0.04500397,-2.214034E-08,NaN,-0.3270002,-1.364021E-07,NaN,0.5432327,5.453437E-09,NaN,-2.143029,8.616388E-06,0.03284579,-3.661333E-08,NaN,NaN,-0.01999392,-4.423785E-10,2.89737E-07,-1.138523E-07,9.375951E-09,-2.622604E-08
267.6998,0.04500397,-2.214034E-08,NaN,-0.3270002,-1.364021E-07,NaN,0.5432327,5.453437E-09,NaN,-2.143029,8.616388E-06,0.03284579,-3.661333E-08,NaN,NaN,-0.01999392,-4.423785E-10,2.89737E-07,-1.138523E-07,9.375951E-09,-2.622604E-08
267.7139,0.045004,-2.21393E-08,NaN,-0.3270002,-1.364013E-07,NaN,0.5459269,5.442351E-09,NaN,-2.143024,8.616998E-06,0.05484672,-3.660004E-08,NaN,NaN,-0.01999411,-4.377219E-10,3.094066E-07,-1.138516E-07,1.056804E-08,-2.861022E-08
267.7296,0.04500403,-2.213826E-08,NaN,-0.3270001,-1.364005E-07,NaN,0.5483522,5.433053E-09,NaN,-2.143027,8.617609E-06,0.07675913,-3.658853E-08,NaN,NaN,-0.01999451,-4.330653E-10,3.481496E-07,-1.13851E-07,9.375951E-09,-2.622604E-08
267.7442,0.04500405,-2.213722E-08,NaN,-0.3270001,-1.363997E-07,NaN,0.550481,5.424094E-09,NaN,-2.143048,8.618219E-06,0.0982029,-3.657737E-08,NaN,NaN,-0.01999506,-4.284087E-10,3.836143E-07,-1.138504E-07,1.056804E-08,-2.861022E-08
267.7603,0.04500407,-2.213618E-08,NaN,-0.3270001,-1.363989E-07,NaN,0.5524127,5.415466E-09,NaN,-2.143087,8.618829E-06,0.1191722,-3.656654E-08,NaN,NaN,-0.01999571,-4.237521E-10,4.134167E-07,-1.138497E-07,9.375951E-09,-2.622604E-08
267.7737,0.04500407,-2.213618E-08,NaN,-0.3270001,-1.363989E-07,NaN,0.5524127,5.415466E-09,NaN,-2.143087,8.618829E-06,0.1191722,-3.656654E-08,NaN,NaN,-0.01999571,-4.237521E-10,4.134167E-07,-1.138497E-07,9.375951E-09,-2.622604E-08
267.7877,0.0450041,-2.213515E-08,NaN,-0.3270001,-1.363981E-07,NaN,0.5551161,5.407167E-09,NaN,-2.143143,8.61944E-06,0.1420125,-3.655604E-08,NaN,NaN,-0.01999629,-4.190955E-10,4.324902E-07,-1.138491E-07,6.991765E-09,-2.861022E-08
267.8031,0.04500413,-2.213411E-08,NaN,-0.327,-1.363974E-07,NaN,0.5575532,5.4006E-09,NaN,-2.143211,8.62005E-06,0.1647485,-3.654727E-08,NaN,NaN,-0.01999737,-4.144389E-10,4.68849E-07,-1.138485E-07,6.991765E-09,-2.622604E-08
267.8176,0.04500413,-2.213411E-08,NaN,-0.327,-1.363974E-07,NaN,0.5575532,5.4006E-09,NaN,-2.143211,8.62005E-06,0.1647485,-3.654727E-08,NaN,NaN,-0.01999737,-4.144389E-10,4.68849E-07,-1.138485E-07,6.991765E-09,-2.622604E-08
267.8336,0.04500416,-2.213307E-08,NaN,-0.327,-1.363966E-07,NaN,0.5596952,5.39432E-09,NaN,-2.143296,8.62066E-06,0.187,-3.653878E-08,NaN,NaN,-0.01999856,-4.097823E-10,5.034197E-07,-1.138479E-07,5.799672E-09,-2.861022E-08
267.8481,0.04500419,-2.213203E-08,NaN,-0.327,-1.363958E-07,NaN,0.5625455,5.388323E-09,NaN,-2.143401,8.62127E-06,0.2110723,-3.653058E-08,NaN,NaN,-0.01999953,-4.051257E-10,5.254734E-07,-1.138472E-07,4.607579E-09,-2.622604E-08
267.8618,0.04500422,-2.213099E-08,NaN,-0.3269999,-1.36395E-07,NaN,0.5651012,5.382597E-09,NaN,-2.14352,8.621881E-06,0.2350045,-3.652266E-08,NaN,NaN,-0.02000117,-4.00469E-10,5.660046E-07,-1.138466E-07,5.799672E-09,-2.861022E-08
267.8763,0.04500422,-2.213099E-08,NaN,-0.3269999,-1.36395E-07,NaN,0.5651012,5.382597E-09,NaN,-2.14352,8.621881E-06,0.2350045,-3.652266E-08,NaN,NaN,-0.02000117,-4.00469E-10,5.660046E-07,-1.138466E-07,5.799672E-09,-2.861022E-08
267.8902,0.04500424,-2.212995E-08,NaN,-0.3269999,-1.363943E-07,NaN,0.5673478,5.378558E-09,NaN,-2.143657,8.622491E-06,0.2584227,-3.651641E-08,NaN,NaN,-0.0200029,-3.958124E-10,5.987872E-07,-1.13846E-07,6.991765E-09,-2.622604E-08
267.9055,0.04500427,-2.212892E-08,NaN,-0.3269999,-1.363935E-07,NaN,0.5693908,5.374753E-09,NaN,-2.143811,8.62311E-06,0.2813243,-3.651041E-08,NaN,NaN,-0.02000465,-4.00469E-10,6.309737E-07,-1.138454E-07,1.176014E-08,-2.861022E-08
267.9203,0.0450043,-2.212788E-08,NaN,-0.3269998,-1.363927E-07,NaN,0.5722007,5.371182E-09,NaN,-2.143988,8.623725E-06,0.3060441,-3.650463E-08,NaN,NaN,-0.02000601,-4.00469E-10,6.512392E-07,-1.138448E-07,9.375951E-09,-2.622604E-08
267.9351,0.0450043,-2.212788E-08,NaN,-0.3269998,-1.363927E-07,NaN,0.5722007,5.371182E-09,NaN,-2.143988,8.623725E-06,0.3060441,-3.650463E-08,NaN,NaN,-0.02000601,-4.00469E-10,6.512392E-07,-1.138448E-07,9.375951E-09,-2.622604E-08
267.9491,0.04500433,-2.212684E-08,NaN,-0.3269998,-1.36392E-07,NaN,0.574751,5.36784E-09,NaN,-2.14418,8.624344E-06,0.3306299,-3.649909E-08,NaN,NaN,-0.0200083,-4.051257E-10,6.881941E-07,-1.138442E-07,5.799672E-09,-2.861022E-08
267.9645,0.04500436,-2.21258E-08,NaN,-0.3269998,-1.363912E-07,NaN,0.5770072,5.366136E-09,NaN,-2.144389,8.624959E-06,0.3546977,-3.649518E-08,NaN,NaN,-0.02001062,-4.051257E-10,7.209767E-07,-1.138436E-07,5.799672E-09,-2.622604E-08
267.9795,0.04500436,-2.21258E-08,NaN,-0.3269998,-1.363912E-07,NaN,0.5770072,5.366136E-09,NaN,-2.144389,8.624959E-06,0.3546977,-3.649518E-08,NaN,NaN,-0.02001062,-4.051257E-10,7.209767E-07,-1.138436E-07,5.799672E-09,-2.622604E-08
267.9935,0.04500439,-2.212477E-08,NaN,-0.3269998,-1.363904E-07,NaN,0.5790659,5.364624E-09,NaN,-2.144613,8.625574E-06,0.3782393,-3.649146E-08,NaN,NaN,-0.02001291,-4.051257E-10,7.531632E-07,-1.13843E-07,4.607579E-09,-2.861022E-08
268.009,0.04500441,-2.212373E-08,NaN,-0.3269997,-1.363897E-07,NaN,0.5809899,5.363268E-09,NaN,-2.144851,8.626184E-06,0.4012849,-3.64879E-08,NaN,NaN,-0.0200152,-4.00469E-10,7.823695E-07,-1.138424E-07,5.799672E-09,-2.622604E-08
268.0233,0.04500443,-2.212269E-08,NaN,-0.3269997,-1.363889E-07,NaN,0.5828115,5.362095E-09,NaN,-2.145102,8.626795E-06,0.4238582,-3.648453E-08,NaN,NaN,-0.02001751,-3.958124E-10,8.079995E-07,-1.138418E-07,8.183857E-09,-2.861022E-08
268.0382,0.04500443,-2.212269E-08,NaN,-0.3269997,-1.363889E-07,NaN,0.5828115,5.362095E-09,NaN,-2.145102,8.626795E-06,0.4238582,-3.648453E-08,NaN,NaN,-0.02001751,-3.958124E-10,8.079995E-07,-1.138418E-07,8.183857E-09,-2.861022E-08
268.0521,0.04500446,-2.212165E-08,NaN,-0.3269997,-1.363882E-07,NaN,0.5845465,5.361106E-09,NaN,-2.145364,8.6274E-06,0.4459755,-3.648134E-08,NaN,NaN,-0.02001985,-3.864992E-10,8.342255E-07,-1.138412E-07,9.37595E-09,-2.622604E-08
268.0678,0.04500447,-2.212062E-08,NaN,-0.3269997,-1.363874E-07,NaN,0.5853,5.360293E-09,NaN,-2.145626,8.628015E-06,0.4653695,-3.647832E-08,NaN,NaN,-0.02002286,-3.864992E-10,8.723725E-07,-1.138406E-07,9.37595E-09,-2.861022E-08
268.082,0.04500449,-2.211958E-08,NaN,-0.3269996,-1.363867E-07,NaN,0.586121,5.359651E-09,NaN,-2.14589,8.628625E-06,0.4839872,-3.647547E-08,NaN,NaN,-0.0200247,-3.818426E-10,8.884657E-07,-1.1384E-07,1.056804E-08,-2.622604E-08
268.0977,0.04500449,-2.211958E-08,NaN,-0.3269996,-1.363867E-07,NaN,0.586121,5.359651E-09,NaN,-2.14589,8.628625E-06,0.4839872,-3.647547E-08,NaN,NaN,-0.0200247,-3.818426E-10,8.884657E-07,-1.1384E-07,1.056804E-08,-2.622604E-08
268.1118,0.04500451,-2.211854E-08,NaN,-0.3269996,-1.363859E-07,NaN,0.587075,5.359184E-09,NaN,-2.146159,8.62924E-06,0.5022479,-3.64728E-08,NaN,NaN,-0.0200266,-3.818426E-10,9.027708E-07,-1.138394E-07,1.056804E-08,-2.861022E-08
268.1263,0.04500452,-2.21175E-08,NaN,-0.3269996,-1.363852E-07,NaN,0.588081,5.360296E-09,NaN,-2.146436,8.629851E-06,0.5201866,-3.647171E-08,NaN,NaN,-0.02002863,-3.77186E-10,9.230364E-07,-1.138388E-07,8.183857E-09,-2.622604E-08
268.141,0.04500453,-2.211647E-08,NaN,-0.3269996,-1.363845E-07,NaN,0.5881809,5.361545E-09,NaN,-2.146708,8.630465E-06,0.5355268,-3.647076E-08,NaN,NaN,-0.02003146,-3.77186E-10,9.486664E-07,-1.138382E-07,9.37595E-09,-2.861022E-08
268.1552,0.04500453,-2.211647E-08,NaN,-0.3269996,-1.363845E-07,NaN,0.5881809,5.361545E-09,NaN,-2.146708,8.630465E-06,0.5355268,-3.647076E-08,NaN,NaN,-0.02003146,-3.77186E-10,9.486664E-07,-1.138382E-07,9.37595E-09,-2.861022E-08
268.1695,0.04500454,-2.211543E-08,NaN,-0.3269996,-1.363837E-07,NaN,0.588383,5.362927E-09,NaN,-2.146972,8.631076E-06,0.5501757,-3.646993E-08,NaN,NaN,-0.02003304,-3.725294E-10,9.611833E-07,-1.138376E-07,6.991764E-09,-2.622604E-08
268.1847,0.04500455,-2.211439E-08,NaN,-0.3269996,-1.363835E-07,NaN,0.5887445,5.673213E-09,NaN,-2.147238,8.6317E-06,0.5645491,-3.677802E-08,NaN,NaN,-0.02003468,-3.818426E-10,9.719122E-07,-1.138363E-07,9.37595E-09,-2.861022E-08
268.1994,0.04500455,-2.211439E-08,NaN,-0.3269996,-1.363835E-07,NaN,0.5887445,5.673213E-09,NaN,-2.147238,8.6317E-06,0.5645491,-3.677802E-08,NaN,NaN,-0.02003468,-3.818426E-10,9.719122E-07,-1.138363E-07,9.37595E-09,-2.861022E-08
268.215,0.04500456,-2.211335E-08,NaN,-0.3269996,-1.363834E-07,NaN,0.5882777,5.977556E-09,NaN,-2.147495,8.632328E-06,0.5764227,-3.708017E-08,NaN,NaN,-0.02003719,-3.958124E-10,9.945619E-07,-1.138349E-07,6.991764E-09,-2.622604E-08
268.2289,0.04500457,-2.211232E-08,NaN,-0.3269996,-1.363832E-07,NaN,0.5879545,6.277482E-09,NaN,-2.147739,8.632943E-06,0.5876822,-3.73779E-08,NaN,NaN,-0.02003847,-3.958124E-10,1.001715E-06,-1.138335E-07,6.991764E-09,-2.861022E-08
268.244,0.04500457,-2.211128E-08,NaN,-0.3269996,-1.363831E-07,NaN,0.5878189,6.573076E-09,NaN,-2.147983,8.633567E-06,0.5987386,-3.76713E-08,NaN,NaN,-0.02003981,-4.051257E-10,1.010059E-06,-1.138322E-07,5.799671E-09,-2.622604E-08
268.2586,0.04500457,-2.211128E-08,NaN,-0.3269996,-1.363831E-07,NaN,0.5878189,6.573076E-09,NaN,-2.147983,8.633567E-06,0.5987386,-3.76713E-08,NaN,NaN,-0.02003981,-4.051257E-10,1.010059E-06,-1.138322E-07,5.799671E-09,-2.622604E-08
268.2725,0.04500458,-2.211024E-08,NaN,-0.3269996,-1.36383E-07,NaN,0.5877786,6.864425E-09,NaN,-2.148231,8.634182E-06,0.6096218,-3.796046E-08,NaN,NaN,-0.0200413,-4.051257E-10,1.020788E-06,-1.138308E-07,1.031299E-09,-2.861022E-08
268.2881,0.04500458,-2.210921E-08,NaN,-0.3269996,-1.363829E-07,NaN,0.5868683,7.15161E-09,NaN,-2.148466,8.63481E-06,0.6180683,-3.824545E-08,NaN,NaN,-0.02004362,-4.190955E-10,1.038669E-06,-1.138295E-07,2.223392E-09,-2.622604E-08
268.3027,0.04500458,-2.210817E-08,NaN,-0.3269996,-1.363827E-07,NaN,0.5860816,7.433274E-09,NaN,-2.148685,8.635425E-06,0.6259493,-3.852493E-08,NaN,NaN,-0.02004465,-4.190955E-10,1.042246E-06,-1.138281E-07,2.223392E-09,-2.861022E-08
268.3173,0.04500458,-2.210817E-08,NaN,-0.3269996,-1.363827E-07,NaN,0.5860816,7.433274E-09,NaN,-2.148685,8.635425E-06,0.6259493,-3.852493E-08,NaN,NaN,-0.02004465,-4.190955E-10,1.042246E-06,-1.138281E-07,2.223392E-09,-2.861022E-08
268.3313,0.04500459,-2.210714E-08,NaN,-0.3269996,-1.363826E-07,NaN,0.5854823,7.71097E-09,NaN,-2.1489,8.636049E-06,0.6336843,-3.880043E-08,NaN,NaN,-0.02004571,-4.284087E-10,1.045822E-06,-1.138268E-07,5.799671E-09,-2.622604E-08
268.3467,0.04500459,-2.21061E-08,NaN,-0.3269996,-1.363825E-07,NaN,0.5849869,7.983362E-09,NaN,-2.149116,8.636664E-06,0.6413084,-3.907064E-08,NaN,NaN,-0.0200469,-4.284087E-10,1.052974E-06,-1.138255E-07,4.607578E-09,-2.861022E-08
268.3624,0.04500459,-2.210506E-08,NaN,-0.3269996,-1.363823E-07,NaN,0.5836335,8.251963E-09,NaN,-2.149318,8.637287E-06,0.6465662,-3.933705E-08,NaN,NaN,-0.02004893,-4.377219E-10,1.068472E-06,-1.138242E-07,4.607578E-09,-2.622604E-08
268.3773,0.04500459,-2.210506E-08,NaN,-0.3269996,-1.363823E-07,NaN,0.5836335,8.251963E-09,NaN,-2.149318,8.637287E-06,0.6465662,-3.933705E-08,NaN,NaN,-0.02004893,-4.377219E-10,1.068472E-06,-1.138242E-07,4.607578E-09,-2.622604E-08
268.3911,0.04500459,-2.210403E-08,NaN,-0.3269996,-1.363822E-07,NaN,0.5824124,8.515439E-09,NaN,-2.149501,8.637902E-06,0.6513157,-3.959834E-08,NaN,NaN,-0.02004966,-4.377219E-10,1.066087E-06,-1.138228E-07,5.799671E-09,-2.861022E-08
268.4054,0.04500459,-2.210299E-08,NaN,-0.3269996,-1.363821E-07,NaN,0.5813915,8.775302E-09,NaN,-2.149678,8.638526E-06,0.6559789,-3.985601E-08,NaN,NaN,-0.02005043,-4.470351E-10,1.066087E-06,-1.138215E-07,9.37595E-09,-2.622604E-08
268.42,0.04500459,-2.210299E-08,NaN,-0.3269996,-1.363821E-07,NaN,0.5813915,8.775302E-09,NaN,-2.149678,8.638526E-06,0.6559789,-3.985601E-08,NaN,NaN,-0.02005043,-4.470351E-10,1.066087E-06,-1.138215E-07,9.37595E-09,-2.622604E-08
268.4341,0.04500458,-2.210196E-08,NaN,-0.3269996,-1.36382E-07,NaN,0.579586,9.030209E-09,NaN,-2.14984,8.63915E-06,0.6583541,-4.010873E-08,NaN,NaN,-0.02005212,-4.563483E-10,1.078008E-06,-1.138202E-07,1.295223E-08,-2.861022E-08
268.4496,0.04500458,-2.210092E-08,NaN,-0.3269996,-1.363818E-07,NaN,0.5779557,9.281671E-09,NaN,-2.14998,8.639774E-06,0.6602888,-4.0358E-08,NaN,NaN,-0.02005256,-4.656616E-10,1.07324E-06,-1.138189E-07,1.176014E-08,-2.622604E-08
268.4641,0.04500457,-2.209989E-08,NaN,-0.3269996,-1.363817E-07,NaN,0.5765535,9.528344E-09,NaN,-2.150116,8.640398E-06,0.6621991,-4.060249E-08,NaN,NaN,-0.02005306,-4.749748E-10,1.070856E-06,-1.138176E-07,9.375951E-09,-2.861022E-08
268.479,0.04500457,-2.209989E-08,NaN,-0.3269996,-1.363817E-07,NaN,0.5765535,9.528344E-09,NaN,-2.150116,8.640398E-06,0.6621991,-4.060249E-08,NaN,NaN,-0.02005306,-4.749748E-10,1.070856E-06,-1.138176E-07,9.375951E-09,-2.861022E-08
268.493,0.04500457,-2.209885E-08,NaN,-0.3269996,-1.363816E-07,NaN,0.575289,9.771735E-09,NaN,-2.150255,8.641022E-06,0.6641163,-4.084369E-08,NaN,NaN,-0.02005371,-4.84288E-10,1.069664E-06,-1.138163E-07,1.056804E-08,-2.622604E-08
268.5085,0.04500456,-2.209782E-08,NaN,-0.3269996,-1.363814E-07,NaN,0.5731955,1.001049E-08,NaN,-2.15038,8.641641E-06,0.6637881,-4.108026E-08,NaN,NaN,-0.02005523,-4.889446E-10,1.080393E-06,-1.13815E-07,9.375951E-09,-2.861022E-08
268.523,0.04500455,-2.209678E-08,NaN,-0.3269996,-1.363813E-07,NaN,0.5712581,1.024471E-08,NaN,-2.150481,8.642265E-06,0.6630576,-4.131229E-08,NaN,NaN,-0.02005544,-4.982578E-10,1.07324E-06,-1.138137E-07,8.183858E-09,-2.622604E-08
268.5378,0.04500455,-2.209678E-08,NaN,-0.3269996,-1.363813E-07,NaN,0.5712581,1.024471E-08,NaN,-2.150481,8.642265E-06,0.6630576,-4.131229E-08,NaN,NaN,-0.02005544,-4.982578E-10,1.07324E-06,-1.138137E-07,8.183858E-09,-2.622604E-08
268.5518,0.04500454,-2.209574E-08,NaN,-0.3269996,-1.363812E-07,NaN,0.5695466,1.047589E-08,NaN,-2.150577,8.642875E-06,0.6623472,-4.154128E-08,NaN,NaN,-0.02005571,-4.936012E-10,1.067279E-06,-1.138124E-07,4.607579E-09,-2.861022E-08
268.5676,0.04500454,-2.209471E-08,NaN,-0.3269996,-1.363811E-07,NaN,0.5679786,1.070267E-08,NaN,-2.150674,8.643499E-06,0.6616917,-4.176588E-08,NaN,NaN,-0.0200561,-5.029144E-10,1.064895E-06,-1.138112E-07,5.799672E-09,-2.622604E-08
268.5822,0.04500453,-2.209367E-08,NaN,-0.3269996,-1.363809E-07,NaN,0.5655899,1.092656E-08,NaN,-2.150758,8.64411E-06,0.6588405,-4.198759E-08,NaN,NaN,-0.02005738,-4.982578E-10,1.070856E-06,-1.138099E-07,2.223393E-09,-2.861022E-08
268.5969,0.04500453,-2.209367E-08,NaN,-0.3269996,-1.363809E-07,NaN,0.5655899,1.092656E-08,NaN,-2.150758,8.64411E-06,0.6588405,-4.198759E-08,NaN,NaN,-0.02005738,-4.982578E-10,1.070856E-06,-1.138099E-07,2.223393E-09,-2.861022E-08
268.6108,0.04500452,-2.209264E-08,NaN,-0.3269996,-1.363808E-07,NaN,0.5633678,1.11462E-08,NaN,-2.150817,8.644733E-06,0.6556352,-4.220504E-08,NaN,NaN,-0.02005735,-5.07571E-10,1.061319E-06,-1.138086E-07,2.223393E-09,-2.622604E-08
268.6271,0.04500451,-2.20916E-08,NaN,-0.3269996,-1.363807E-07,NaN,0.5613829,1.136309E-08,NaN,-2.150871,8.645344E-06,0.6524983,-4.241975E-08,NaN,NaN,-0.02005738,-5.029144E-10,1.051782E-06,-1.138074E-07,2.223393E-09,-2.861022E-08
268.6418,0.0450045,-2.209057E-08,NaN,-0.3269996,-1.363805E-07,NaN,0.5595527,1.157445E-08,NaN,-2.150926,8.645968E-06,0.649464,-4.262892E-08,NaN,NaN,-0.02005753,-5.122276E-10,1.04463E-06,-1.138061E-07,-1.352885E-09,-2.622604E-08
268.6554,0.0450045,-2.209057E-08,NaN,-0.3269996,-1.363805E-07,NaN,0.5595527,1.157445E-08,NaN,-2.150926,8.645968E-06,0.649464,-4.262892E-08,NaN,NaN,-0.02005753,-5.122276E-10,1.04463E-06,-1.138061E-07,-1.352885E-09,-2.622604E-08
268.6693,0.04500449,-2.208953E-08,NaN,-0.3269997,-1.363804E-07,NaN,0.5569121,1.178322E-08,NaN,-2.150969,8.646587E-06,0.6442791,-4.283551E-08,NaN,NaN,-0.02005857,-5.168843E-10,1.048206E-06,-1.138049E-07,-3.737071E-09,-2.861022E-08
268.686,0.04500447,-2.208849E-08,NaN,-0.3269997,-1.363803E-07,NaN,0.5544502,1.198804E-08,NaN,-2.150987,8.647206E-06,0.6387868,-4.303815E-08,NaN,NaN,-0.02005831,-5.168843E-10,1.039861E-06,-1.138036E-07,-4.929164E-09,-2.622604E-08
268.6994,0.04500447,-2.208849E-08,NaN,-0.3269997,-1.363803E-07,NaN,0.5544502,1.198804E-08,NaN,-2.150987,8.647206E-06,0.6387868,-4.303815E-08,NaN,NaN,-0.02005831,-5.168843E-10,1.039861E-06,-1.138036E-07,-4.929164E-09,-2.622604E-08
268.7134,0.04500446,-2.208746E-08,NaN,-0.3269997,-1.363802E-07,NaN,0.5522365,1.21904E-08,NaN,-2.150999,8.64783E-06,0.6334084,-4.323832E-08,NaN,NaN,-0.0200581,-5.215409E-10,1.02794E-06,-1.138024E-07,-6.121256E-09,-2.861022E-08
268.729,0.04500444,-2.208642E-08,NaN,-0.3269997,-1.363801E-07,NaN,0.5492836,1.238893E-08,NaN,-2.150997,8.64845E-06,0.625939,-4.343466E-08,NaN,NaN,-0.02005883,-5.215409E-10,1.030324E-06,-1.138011E-07,-7.313349E-09,-2.622604E-08
268.7437,0.04500443,-2.208539E-08,NaN,-0.3269998,-1.3638E-07,NaN,0.546554,1.258371E-08,NaN,-2.150972,8.649074E-06,0.6182224,-4.362725E-08,NaN,NaN,-0.02005831,-5.261975E-10,1.014827E-06,-1.137999E-07,-7.313349E-09,-2.861022E-08
268.7582,0.04500443,-2.208539E-08,NaN,-0.3269998,-1.3638E-07,NaN,0.546554,1.258371E-08,NaN,-2.150972,8.649074E-06,0.6182224,-4.362725E-08,NaN,NaN,-0.02005831,-5.261975E-10,1.014827E-06,-1.137999E-07,-7.313349E-09,-2.861022E-08
268.7723,0.04500441,-2.208435E-08,NaN,-0.3269998,-1.363798E-07,NaN,0.5440992,1.277622E-08,NaN,-2.150943,8.649693E-06,0.6106717,-4.381758E-08,NaN,NaN,-0.02005786,-5.261975E-10,1.000522E-06,-1.137987E-07,-9.697535E-09,-2.622604E-08
268.7879,0.0450044,-2.208332E-08,NaN,-0.3269998,-1.363793E-07,NaN,0.5418267,1.23629E-08,NaN,-2.150919,8.650312E-06,0.6033143,-4.340207E-08,NaN,NaN,-0.02005757,-5.261975E-10,9.891972E-07,-1.137981E-07,-7.313349E-09,-2.861022E-08
268.8028,0.04500438,-2.208228E-08,NaN,-0.3269998,-1.363788E-07,NaN,0.5387657,1.196065E-08,NaN,-2.150885,8.650923E-06,0.5938856,-4.299763E-08,NaN,NaN,-0.02005816,-5.168843E-10,9.903894E-07,-1.137976E-07,-7.313349E-09,-2.622604E-08
268.8174,0.04500438,-2.208228E-08,NaN,-0.3269998,-1.363788E-07,NaN,0.5387657,1.196065E-08,NaN,-2.150885,8.650923E-06,0.5938856,-4.299763E-08,NaN,NaN,-0.02005816,-5.168843E-10,9.903894E-07,-1.137976E-07,-7.313349E-09,-2.622604E-08
268.8314,0.04500436,-2.208125E-08,NaN,-0.3269999,-1.363783E-07,NaN,0.5359097,1.156779E-08,NaN,-2.150827,8.651542E-06,0.5842386,-4.260258E-08,NaN,NaN,-0.02005745,-5.168843E-10,9.742961E-07,-1.13797E-07,-6.121256E-09,-2.861022E-08
268.847,0.04500435,-2.208021E-08,NaN,-0.3269999,-1.363778E-07,NaN,0.5333233,1.118419E-08,NaN,-2.150765,8.652152E-06,0.5747901,-4.221679E-08,NaN,NaN,-0.0200568,-5.07571E-10,9.576067E-07,-1.137965E-07,-6.121256E-09,-2.622604E-08
268.8613,0.04500433,-2.207917E-08,NaN,-0.3269999,-1.363773E-07,NaN,0.5309208,1.080966E-08,NaN,-2.150707,8.652772E-06,0.5655692,-4.184008E-08,NaN,NaN,-0.02005629,-5.07571E-10,9.468779E-07,-1.13796E-07,-4.929164E-09,-2.861022E-08
268.8783,0.04500433,-2.207917E-08,NaN,-0.3269999,-1.363773E-07,NaN,0.5309208,1.080966E-08,NaN,-2.150707,8.652772E-06,0.5655692,-4.184008E-08,NaN,NaN,-0.02005629,-5.07571E-10,9.468779E-07,-1.13796E-07,-4.929164E-09,-2.861022E-08
268.8922,0.04500431,-2.207814E-08,NaN,-0.327,-1.363769E-07,NaN,0.5277338,1.044261E-08,NaN,-2.150642,8.653382E-06,0.5543055,-4.147084E-08,NaN,NaN,-0.02005664,-4.982578E-10,9.450898E-07,-1.137955E-07,-3.737071E-09,-2.622604E-08
268.9054,0.04500429,-2.20771E-08,NaN,-0.327,-1.363764E-07,NaN,0.5247624,1.00829E-08,NaN,-2.150552,8.654001E-06,0.5428634,-4.110895E-08,NaN,NaN,-0.02005571,-4.982578E-10,9.254202E-07,-1.13795E-07,-2.544978E-09,-2.861022E-08
268.9201,0.04500427,-2.207607E-08,NaN,-0.327,-1.363759E-07,NaN,0.5220689,9.731801E-09,NaN,-2.150459,8.654612E-06,0.531657,-4.075567E-08,NaN,NaN,-0.02005484,-4.889446E-10,9.117112E-07,-1.137944E-07,-1.607925E-10,-2.622604E-08
268.9348,0.04500427,-2.207607E-08,NaN,-0.327,-1.363759E-07,NaN,0.5220689,9.731801E-09,NaN,-2.150459,8.654612E-06,0.531657,-4.075567E-08,NaN,NaN,-0.02005484,-4.889446E-10,9.117112E-07,-1.137944E-07,-1.607925E-10,-2.622604E-08
268.9488,0.04500425,-2.207504E-08,NaN,-0.3270001,-1.363754E-07,NaN,0.5186598,9.387721E-09,NaN,-2.150357,8.655231E-06,0.5184579,-4.04094E-08,NaN,NaN,-0.02005487,-4.889446E-10,9.081349E-07,-1.137939E-07,-1.352885E-09,-2.861022E-08
268.964,0.04500423,-2.2074E-08,NaN,-0.3270001,-1.36375E-07,NaN,0.5155102,9.050529E-09,NaN,-2.150234,8.655841E-06,0.5051363,-4.007002E-08,NaN,NaN,-0.02005371,-4.796314E-10,8.860812E-07,-1.137934E-07,1.0313E-09,-2.622604E-08
268.9789,0.04500423,-2.2074E-08,NaN,-0.3270001,-1.36375E-07,NaN,0.5155102,9.050529E-09,NaN,-2.150234,8.655841E-06,0.5051363,-4.007002E-08,NaN,NaN,-0.02005371,-4.796314E-10,8.860812E-07,-1.137934E-07,1.0313E-09,-2.622604E-08
268.9929,0.04500421,-2.207297E-08,NaN,-0.3270001,-1.363745E-07,NaN,0.5126626,8.720088E-09,NaN,-2.150109,8.656461E-06,0.4920968,-3.97374E-08,NaN,NaN,-0.02005263,-4.796314E-10,8.676037E-07,-1.137929E-07,-3.737071E-09,-2.861022E-08
269.0083,0.04500419,-2.207194E-08,NaN,-0.3270001,-1.36374E-07,NaN,0.5100201,8.397683E-09,NaN,-2.149992,8.657071E-06,0.4793602,-3.941281E-08,NaN,NaN,-0.02005171,-4.703182E-10,8.532986E-07,-1.137924E-07,-3.737071E-09,-2.622604E-08
269.0229,0.04500417,-2.20709E-08,NaN,-0.3270002,-1.363736E-07,NaN,0.5066088,8.081741E-09,NaN,-2.149873,8.657695E-06,0.4646369,-3.909468E-08,NaN,NaN,-0.02005158,-4.749748E-10,8.491263E-07,-1.137919E-07,-2.544978E-09,-2.861022E-08
269.0378,0.04500417,-2.20709E-08,NaN,-0.3270002,-1.363736E-07,NaN,0.5066088,8.081741E-09,NaN,-2.149873,8.657695E-06,0.4646369,-3.909468E-08,NaN,NaN,-0.02005158,-4.749748E-10,8.491263E-07,-1.137919E-07,-2.544978E-09,-2.861022E-08
269.0519,0.04500415,-2.206987E-08,NaN,-0.3270002,-1.363731E-07,NaN,0.5034378,7.772136E-09,NaN,-2.149732,8.658305E-06,0.4498146,-3.87829E-08,NaN,NaN,-0.02005027,-4.656616E-10,8.246884E-07,-1.137914E-07,2.223393E-09,-2.622604E-08
269.0673,0.04500413,-2.206883E-08,NaN,-0.3270002,-1.363726E-07,NaN,0.5005614,7.46874E-09,NaN,-2.14959,8.658924E-06,0.4353001,-3.847732E-08,NaN,NaN,-0.02004903,-4.656616E-10,8.026347E-07,-1.137909E-07,6.991765E-09,-2.861022E-08
