JMolnar6/NonAnthroHands_User_Study/HandsLoggerWithURDF/tempdata/files/Reachy_PID0_JointMotion_gesture_7_1.csv
Time,r_shoulder,r_shoulder_x,r_upper_arm,r_forearm,r_wrist,r_wrist2hand,
296.9726,-0.1032973,-0.3274246,0.4630897,-2.133598,-0.3541733,-0.01675456
296.9868,-0.1035924,-0.3274214,0.4631351,-2.13376,-0.3542481,-0.01681837
297.0012,-0.1038841,-0.3274183,0.4631797,-2.133921,-0.3543215,-0.01688094
297.0147,-0.1038841,-0.3274183,0.4631797,-2.133921,-0.3543215,-0.01688094
297.0289,-0.1041724,-0.3274152,0.4632235,-2.13408,-0.3543934,-0.01694228
297.0441,-0.1044575,-0.3274121,0.4632665,-2.134237,-0.3544639,-0.01700241
297.0585,-0.1044575,-0.3274121,0.4632665,-2.134237,-0.3544639,-0.01700241
297.0724,-0.1047392,-0.3274091,0.4633088,-2.134393,-0.354533,-0.01706136
297.0878,-0.1050177,-0.3274061,0.4633502,-2.134548,-0.3546008,-0.01711916
297.104,-0.105293,-0.3274031,0.4633909,-2.134701,-0.3546673,-0.01717582
297.1172,-0.105293,-0.3274031,0.4633909,-2.134701,-0.3546673,-0.01717582
297.131,-0.1055651,-0.3274001,0.4634309,-2.134853,-0.3547325,-0.01723137
297.1465,-0.1058341,-0.3273972,0.4634702,-2.135004,-0.3547964,-0.01728583
297.1611,-0.1060999,-0.3273943,0.4635087,-2.135153,-0.3548591,-0.01733922
297.1758,-0.1060999,-0.3273943,0.4635087,-2.135153,-0.3548591,-0.01733922
297.1898,-0.1063628,-0.3273915,0.4635466,-2.135301,-0.3549206,-0.01739156
297.2049,-0.1066226,-0.3273886,0.4635837,-2.135447,-0.3549808,-0.01744287
297.2197,-0.1066226,-0.3273886,0.4635837,-2.135447,-0.3549808,-0.01744287
297.2336,-0.1068794,-0.3273858,0.4636202,-2.135592,-0.3550399,-0.01749318
297.2488,-0.1071332,-0.3273831,0.463656,-2.135736,-0.3550978,-0.0175425
297.2658,-0.1073841,-0.3273803,0.4636911,-2.135879,-0.3551546,-0.01759085
297.2794,-0.1073841,-0.3273803,0.4636911,-2.135879,-0.3551546,-0.01759085
297.2932,-0.1076322,-0.3273776,0.4637256,-2.13602,-0.3552103,-0.01763825
297.3075,-0.1078773,-0.3273749,0.4637595,-2.136159,-0.355265,-0.01768473
297.322,-0.1081197,-0.3273723,0.4637927,-2.136298,-0.3553185,-0.01773029
297.3365,-0.1081197,-0.3273723,0.4637927,-2.136298,-0.3553185,-0.01773029
297.3504,-0.1083592,-0.3273697,0.4638253,-2.136435,-0.355371,-0.01777496
297.3659,-0.108596,-0.3273671,0.4638573,-2.136571,-0.3554225,-0.01781875
297.3804,-0.1088301,-0.3273645,0.4638887,-2.136706,-0.355473,-0.01786168
297.3952,-0.1088301,-0.3273645,0.4638887,-2.136706,-0.355473,-0.01786168
297.4093,-0.1090615,-0.327362,0.4639196,-2.136839,-0.3555225,-0.01790377
297.4245,-0.1092902,-0.3273594,0.4639498,-2.136971,-0.3555711,-0.01794503
297.439,-0.1092902,-0.3273594,0.4639498,-2.136971,-0.3555711,-0.01794503
297.4532,-0.1095162,-0.3273569,0.4639794,-2.137102,-0.3556187,-0.01798549
297.4686,-0.1097397,-0.3273545,0.4640085,-2.137232,-0.3556654,-0.01802514
297.4833,-0.1099606,-0.327352,0.4640371,-2.137361,-0.3557112,-0.01806403
297.4977,-0.1099606,-0.327352,0.4640371,-2.137361,-0.3557112,-0.01806403
297.512,-0.110179,-0.3273496,0.4640651,-2.137488,-0.3557561,-0.01810214
297.5273,-0.1103948,-0.3273472,0.4640926,-2.137614,-0.3558002,-0.01813951
297.5417,-0.1106081,-0.3273449,0.4641195,-2.137738,-0.3558433,-0.01817615
297.5573,-0.1106081,-0.3273449,0.4641195,-2.137738,-0.3558433,-0.01817615
297.5712,-0.110819,-0.3273425,0.464146,-2.137862,-0.3558857,-0.01821207
297.5858,-0.1110275,-0.3273402,0.4641719,-2.137984,-0.3559272,-0.01824728
297.6004,-0.1112336,-0.3273379,0.4641973,-2.138105,-0.355968,-0.0182818
297.6147,-0.1112336,-0.3273379,0.4641973,-2.138105,-0.355968,-0.0182818
297.6287,-0.1114373,-0.3273356,0.4642223,-2.138226,-0.3560079,-0.01831565
297.644,-0.1116386,-0.3273334,0.4642467,-2.138345,-0.3560471,-0.01834883
297.6588,-0.1116386,-0.3273334,0.4642467,-2.138345,-0.3560471,-0.01834883
297.6726,-0.1118376,-0.3273312,0.4642707,-2.138462,-0.3560855,-0.01838136
297.688,-0.1120344,-0.327329,0.4642942,-2.138579,-0.3561231,-0.01841325
297.7027,-0.1122288,-0.3273268,0.4643172,-2.138694,-0.3561601,-0.01844451
297.7176,-0.1122288,-0.3273268,0.4643172,-2.138694,-0.3561601,-0.01844451
297.7316,-0.1124211,-0.3273246,0.4643398,-2.138809,-0.3561963,-0.01847516
297.7469,-0.1126111,-0.3273225,0.4643619,-2.138922,-0.3562319,-0.01850521
297.7614,-0.1127989,-0.3273204,0.4643837,-2.139034,-0.3562668,-0.01853467
297.7763,-0.1127989,-0.3273204,0.4643837,-2.139034,-0.3562668,-0.01853467
297.7903,-0.1129846,-0.3273183,0.4644049,-2.139145,-0.356301,-0.01856356
297.8055,-0.1131681,-0.3273163,0.4644258,-2.139255,-0.3563345,-0.01859187
297.8199,-0.1131681,-0.3273163,0.4644258,-2.139255,-0.3563345,-0.01859187
297.8362,-0.1133495,-0.3273142,0.4644462,-2.139364,-0.3563674,-0.01861963
297.8503,-0.1135288,-0.3273122,0.4644663,-2.139472,-0.3563996,-0.01864685
297.8641,-0.1137061,-0.3273102,0.4644859,-2.139579,-0.3564312,-0.01867352
297.8786,-0.1137061,-0.3273102,0.4644859,-2.139579,-0.3564312,-0.01867352
297.8925,-0.1138813,-0.3273082,0.4645052,-2.139684,-0.3564623,-0.01869968
297.9078,-0.1140545,-0.3273062,0.464524,-2.139789,-0.3564927,-0.01872532
297.9225,-0.1142257,-0.3273043,0.4645425,-2.139893,-0.3565226,-0.01875046
297.9371,-0.1142257,-0.3273043,0.4645425,-2.139893,-0.3565226,-0.01875046
297.9511,-0.1143949,-0.3273024,0.4645606,-2.139995,-0.3565518,-0.01877511
297.9665,-0.1145622,-0.3273005,0.4645783,-2.140097,-0.3565806,-0.01879927
297.981,-0.1147275,-0.3272986,0.4645957,-2.140197,-0.3566087,-0.01882296
297.9971,-0.1147275,-0.3272986,0.4645957,-2.140197,-0.3566087,-0.01882296
298.0101,-0.1141637,-0.3272943,0.4644423,-2.140682,-0.3566343,-0.0188459
298.0253,-0.1131434,-0.327289,0.4642166,-2.14128,-0.3567073,-0.01886846
298.0399,-0.1131434,-0.327289,0.4642166,-2.14128,-0.3567073,-0.01886846
298.054,-0.1118403,-0.3272833,0.4639831,-2.141882,-0.3568,-0.01889062
298.0694,-0.1110928,-0.3272798,0.4639359,-2.142066,-0.3568972,-0.01891265
298.0841,-0.1106982,-0.3272776,0.4639812,-2.142098,-0.3569415,-0.01893421
298.0985,-0.1106982,-0.3272776,0.4639812,-2.142098,-0.3569415,-0.01893421
298.1147,-0.1105272,-0.327276,0.4640522,-2.142087,-0.3569593,-0.01895529
298.1289,-0.1104977,-0.3272746,0.4641216,-2.142077,-0.3569691,-0.01897594
298.1426,-0.1112845,-0.3272749,0.464352,-2.141694,-0.356981,-0.01899646
298.1571,-0.1112845,-0.3272749,0.464352,-2.141694,-0.356981,-0.01899646
298.1709,-0.1125818,-0.3272754,0.4646449,-2.141213,-0.3569465,-0.01901651
298.1862,-0.1141947,-0.3272757,0.4649378,-2.140739,-0.3568935,-0.01903611
298.2008,-0.1159995,-0.3272758,0.4652086,-2.140305,-0.3568396,-0.0190553
298.2156,-0.1159995,-0.3272758,0.4652086,-2.140305,-0.3568396,-0.0190553
298.2301,-0.1186458,-0.3272777,0.4656253,-2.13953,-0.3567931,-0.01907437
298.245,-0.1218105,-0.3272797,0.4660927,-2.138682,-0.3567043,-0.019093
298.2597,-0.1218105,-0.3272797,0.4660927,-2.138682,-0.3567043,-0.019093
298.2737,-0.1252881,-0.3272811,0.4665507,-2.13786,-0.3566,-0.01911122
298.289,-0.1296763,-0.3272842,0.46715,-2.13671,-0.3564987,-0.01912931
298.3042,-0.134619,-0.3272867,0.46779,-2.135505,-0.3563559,-0.01914697
298.3186,-0.134619,-0.3272867,0.46779,-2.135505,-0.3563559,-0.01914697
298.3328,-0.1398898,-0.327288,0.4684104,-2.134346,-0.3562002,-0.01916422
298.3477,-0.145345,-0.3272884,0.4689923,-2.133263,-0.3560488,-0.01918109
298.3629,-0.1516217,-0.3272896,0.4697063,-2.131868,-0.3559068,-0.01919788
298.377,-0.1516217,-0.3272896,0.4697063,-2.131868,-0.3559068,-0.01919788
298.3929,-0.1583889,-0.3272901,0.4704579,-2.130426,-0.3557261,-0.01921426
298.407,-0.1654362,-0.32729,0.4711888,-2.129034,-0.3555339,-0.01923025
298.4205,-0.1726303,-0.3272892,0.47188,-2.12772,-0.3553464,-0.0192459
298.4353,-0.1726303,-0.3272892,0.47188,-2.12772,-0.3553464,-0.0192459
298.4492,-0.1806149,-0.3272894,0.4727021,-2.126099,-0.3551665,-0.01926147
298.4646,-0.1890634,-0.3272889,0.473559,-2.124436,-0.3549486,-0.01927666
298.479,-0.1890634,-0.3272889,0.473559,-2.124436,-0.3549486,-0.01927666
298.4932,-0.1977682,-0.3272876,0.4743918,-2.122829,-0.3547203,-0.01929148
298.5086,-0.2073261,-0.327287,0.4753534,-2.120922,-0.3544937,-0.01930622
298.5233,-0.2173806,-0.3272854,0.4763411,-2.118986,-0.3542299,-0.01932058
298.5377,-0.2173806,-0.3272854,0.4763411,-2.118986,-0.3542299,-0.01932058
298.5519,-0.2277054,-0.3272828,0.4772958,-2.117123,-0.3539582,-0.0193346
298.5674,-0.2381569,-0.3272788,0.4782002,-2.115359,-0.3536944,-0.01934829
298.5823,-0.2493726,-0.3272759,0.4792258,-2.113309,-0.3534376,-0.01936192
298.5968,-0.2493726,-0.3272759,0.4792258,-2.113309,-0.3534376,-0.01936192
298.611,-0.261022,-0.3272717,0.4802755,-2.111235,-0.353146,-0.0193752
298.6266,-0.2728955,-0.3272655,0.4812922,-2.109234,-0.3528471,-0.01938815
298.6411,-0.28486,-0.3272574,0.4822585,-2.107333,-0.3525567,-0.01940079
298.6556,-0.28486,-0.3272574,0.4822585,-2.107333,-0.3525567,-0.01940079
298.6716,-0.2975599,-0.3272502,0.4833456,-2.105149,-0.3522708,-0.01941339
298.6859,-0.3106693,-0.3272415,0.4844542,-2.102944,-0.351951,-0.01942565
298.6995,-0.3106693,-0.3272415,0.4844542,-2.102944,-0.351951,-0.01942565
298.7137,-0.3239812,-0.3272305,0.4855273,-2.100816,-0.3516256,-0.0194376
298.7288,-0.338093,-0.3272201,0.4867193,-2.098409,-0.351299,-0.01944948
298.7434,-0.3526487,-0.3272074,0.4879245,-2.095995,-0.3509399,-0.01946104
298.7579,-0.3526487,-0.3272074,0.4879245,-2.095995,-0.3509399,-0.01946104
298.7719,-0.3674226,-0.3271919,0.4890858,-2.093673,-0.3505781,-0.01947229
298.7875,-0.3822717,-0.327174,0.4901873,-2.091468,-0.3502285,-0.01948328
298.802,-0.3978342,-0.3271568,0.4914017,-2.088999,-0.3498814,-0.01949422
298.8166,-0.3978342,-0.3271568,0.4914017,-2.088999,-0.3498814,-0.01949422
298.8307,-0.4137801,-0.3271376,0.4926278,-2.086525,-0.3495047,-0.01950485
298.8462,-0.4299002,-0.3271158,0.4938106,-2.084142,-0.3491266,-0.0195152
298.8609,-0.4460624,-0.3270919,0.4949344,-2.081877,-0.3487611,-0.01952531
298.8789,-0.4460624,-0.3270919,0.4949344,-2.081877,-0.3487611,-0.01952531
298.8909,-0.4629115,-0.3270689,0.4961713,-2.079348,-0.3483955,-0.01953537
298.9048,-0.4801221,-0.3270439,0.4974181,-2.076816,-0.3480015,-0.01954513
298.9194,-0.4801221,-0.3270439,0.4974181,-2.076816,-0.3480015,-0.01954513
298.9333,-0.4974877,-0.3270165,0.4986199,-2.074377,-0.3476077,-0.01955464
298.9496,-0.5156063,-0.3269894,0.4999329,-2.071678,-0.3472086,-0.0195641
298.9645,-0.5341226,-0.3269596,0.5012478,-2.068989,-0.3467833,-0.01957327
298.9778,-0.5341226,-0.3269596,0.5012478,-2.068989,-0.3467833,-0.01957327
298.9918,-0.5528111,-0.3269268,0.5025101,-2.066406,-0.3463613,-0.01958219
299.007,-0.5715297,-0.3268915,0.5037057,-2.063958,-0.3459558,-0.0195909
299.0214,-0.5909169,-0.3268568,0.5050079,-2.061261,-0.3455477,-0.01959956
299.0361,-0.5909169,-0.3268568,0.5050079,-2.061261,-0.3455477,-0.01959956
299.05,-0.6106433,-0.32682,0.5063112,-2.058574,-0.3451162,-0.01960795
299.0653,-0.6305002,-0.3267805,0.5075633,-2.055994,-0.3446891,-0.01961612
299.08,-0.6305002,-0.3267805,0.5075633,-2.055994,-0.3446891,-0.01961612
299.0941,-0.6510842,-0.3267412,0.5089213,-2.053165,-0.3442545,-0.01962423
299.1094,-0.6720391,-0.3266991,0.5102741,-2.050356,-0.3437983,-0.01963208
299.1241,-0.6931393,-0.3266537,0.5115692,-2.047664,-0.3433495,-0.01963972
299.1384,-0.6931393,-0.3266537,0.5115692,-2.047664,-0.3433495,-0.01963972
299.1525,-0.7142424,-0.3266059,0.512794,-2.045115,-0.3429201,-0.01964717
299.1679,-0.7354798,-0.3265572,0.5140025,-2.042593,-0.3425041,-0.01965448
299.1825,-0.7567126,-0.3265074,0.5151667,-2.040166,-0.3420966,-0.0196616
299.1969,-0.7567126,-0.3265074,0.5151667,-2.040166,-0.3420966,-0.0196616
299.211,-0.7778536,-0.3264571,0.5162758,-2.037857,-0.3417047,-0.01966854
299.2263,-0.7988483,-0.3264066,0.5173296,-2.035666,-0.3413305,-0.01967533
299.243,-0.8196632,-0.3263567,0.5183316,-2.033587,-0.3409736,-0.01968195
299.2564,-0.8196632,-0.3263567,0.5183316,-2.033587,-0.3409736,-0.01968195
299.2704,-0.8402779,-0.3263077,0.5192859,-2.031613,-0.340633,-0.01968842
299.2846,-0.8606805,-0.3262601,0.520196,-2.029737,-0.3403075,-0.01969474
299.299,-0.8606805,-0.3262601,0.520196,-2.029737,-0.3403075,-0.01969474
299.3131,-0.8808643,-0.326214,0.5210646,-2.027953,-0.3399962,-0.01970091
299.3283,-0.9008262,-0.3261696,0.5218943,-2.026258,-0.3396984,-0.01970695
299.3429,-0.9205651,-0.326127,0.5226867,-2.024647,-0.3394133,-0.01971284
299.3577,-0.9205651,-0.326127,0.5226867,-2.024647,-0.3394133,-0.01971284
299.3715,-0.9400812,-0.3260862,0.5234436,-2.023117,-0.3391406,-0.01971861
299.3869,-0.9593756,-0.3260472,0.5241662,-2.021665,-0.3388797,-0.01972424
299.4014,-0.97845,-0.32601,0.5248557,-2.02029,-0.3386305,-0.01972975
299.416,-0.97845,-0.32601,0.5248557,-2.02029,-0.3386305,-0.01972975
299.4301,-0.9973062,-0.3259746,0.5255133,-2.018989,-0.3383925,-0.01973514
299.4456,-1.015947,-0.3259409,0.5261399,-2.01776,-0.3381655,-0.0197404
299.4602,-1.034373,-0.325909,0.5267364,-2.016602,-0.3379491,-0.01974555
299.4749,-1.034373,-0.325909,0.5267364,-2.016602,-0.3379491,-0.01974555
299.4887,-1.052588,-0.3258787,0.5273037,-2.015512,-0.3377432,-0.01975058
299.5042,-1.070594,-0.32585,0.5278427,-2.014489,-0.3375475,-0.01975551
299.5185,-1.070594,-0.32585,0.5278427,-2.014489,-0.3375475,-0.01975551
299.5348,-1.088393,-0.3258229,0.5283542,-2.013531,-0.3373616,-0.01976032
299.5487,-1.105988,-0.3257974,0.5288391,-2.012637,-0.3371855,-0.01976503
299.5623,-1.12338,-0.3257733,0.5292979,-2.011805,-0.3370189,-0.01976963
299.577,-1.12338,-0.3257733,0.5292979,-2.011805,-0.3370189,-0.01976963
299.5908,-1.140573,-0.3257507,0.5297315,-2.011034,-0.3368614,-0.01977413
299.606,-1.157568,-0.3257295,0.5301406,-2.010322,-0.336713,-0.01977854
299.6202,-1.174368,-0.3257096,0.530526,-2.009668,-0.3365733,-0.01978285
299.6351,-1.174368,-0.3257096,0.530526,-2.009668,-0.3365733,-0.01978285
299.6489,-1.190975,-0.3256911,0.5308882,-2.00907,-0.3364422,-0.01978707
299.6643,-1.207391,-0.3256738,0.5312279,-2.008527,-0.3363195,-0.01979119
299.6789,-1.207391,-0.3256738,0.5312279,-2.008527,-0.3363195,-0.01979119
299.6927,-1.223618,-0.3256578,0.5315458,-2.008038,-0.3362049,-0.01979523
299.7079,-1.239659,-0.3256429,0.5318424,-2.0076,-0.3360982,-0.01979918
299.7226,-1.255515,-0.3256293,0.5321184,-2.007214,-0.3359992,-0.01980304
299.7373,-1.255515,-0.3256293,0.5321184,-2.007214,-0.3359992,-0.01980304
299.7511,-1.270968,-0.325616,0.5323234,-2.00699,-0.3359188,-0.0198068
299.7664,-1.286103,-0.3256041,0.5324937,-2.006849,-0.3358558,-0.01981049
299.781,-1.300975,-0.3255938,0.5326458,-2.006756,-0.3358019,-0.01981411
299.7956,-1.300975,-0.3255938,0.5326458,-2.006756,-0.3358019,-0.01981411
299.8096,-1.315619,-0.3255852,0.532785,-2.0067,-0.3357537,-0.01981766
299.825,-1.32933,-0.3255756,0.5327443,-2.007052,-0.3357468,-0.01982105
299.8414,-1.342397,-0.3255682,0.5326414,-2.007547,-0.3357774,-0.01982441
299.8547,-1.342397,-0.3255682,0.5326414,-2.007547,-0.3357774,-0.01982441
299.8686,-1.355005,-0.3255636,0.5325282,-2.00808,-0.3358192,-0.01982773
299.8827,-1.367271,-0.3255615,0.5324197,-2.008616,-0.335862,-0.01983097
299.8974,-1.367271,-0.3255615,0.5324197,-2.008616,-0.335862,-0.01983097
299.9113,-1.378543,-0.3255595,0.5321491,-2.009524,-0.3359395,-0.01983407
299.9263,-1.389143,-0.3255588,0.5318319,-2.01054,-0.3360485,-0.01983715
299.9407,-1.399275,-0.3255595,0.5315173,-2.011566,-0.3361635,-0.01984019
299.9552,-1.399275,-0.3255595,0.5315173,-2.011566,-0.3361635,-0.01984019
299.9692,-1.408342,-0.3255599,0.5310495,-2.012946,-0.3363109,-0.01984308
299.9844,-1.416703,-0.3255615,0.5305464,-2.014411,-0.3364864,-0.01984596
299.9989,-1.416703,-0.3255615,0.5305464,-2.014411,-0.3364864,-0.01984596
300.0127,-1.424583,-0.3255643,0.5300564,-2.015862,-0.3366643,-0.01984879
300.028,-1.432128,-0.3255684,0.5295908,-2.01727,-0.3368359,-0.01985157
300.0424,-1.438704,-0.3255719,0.5289792,-2.019011,-0.3370337,-0.0198542
300.0571,-1.438704,-0.3255719,0.5289792,-2.019011,-0.3370337,-0.0198542
300.0708,-1.444641,-0.3255769,0.5283341,-2.020826,-0.3372591,-0.01985683
300.086,-1.450152,-0.3255841,0.5277038,-2.02262,-0.3374866,-0.01985942
300.1005,-1.455372,-0.3255933,0.5271,-2.024365,-0.3377071,-0.01986197
300.1153,-1.455372,-0.3255933,0.5271,-2.024365,-0.3377071,-0.01986197
300.1291,-1.459659,-0.3256019,0.5263525,-2.026435,-0.3379512,-0.01986436
300.1443,-1.463341,-0.3256114,0.5255737,-2.028572,-0.3382223,-0.01986675
300.1588,-1.463341,-0.3256114,0.5255737,-2.028572,-0.3382223,-0.01986675
300.175,-1.466627,-0.3256223,0.5248126,-2.030679,-0.3384949,-0.01986911
300.1889,-1.468922,-0.3256322,0.5239123,-2.033103,-0.3387898,-0.01987131
300.2033,-1.470584,-0.3256425,0.5229881,-2.035577,-0.3391102,-0.01987352
300.2167,-1.470584,-0.3256425,0.5229881,-2.035577,-0.3391102,-0.01987352
300.2309,-1.47184,-0.3256536,0.5220897,-2.038002,-0.3394297,-0.01987571
300.2458,-1.472836,-0.3256655,0.5212284,-2.040353,-0.3397384,-0.01987785
300.2603,-1.472937,-0.3256757,0.5202324,-2.043004,-0.3400626,-0.01987983
300.2747,-1.472937,-0.3256757,0.5202324,-2.043004,-0.3400626,-0.01987983
300.2884,-1.472474,-0.3256853,0.5192123,-2.045699,-0.3404125,-0.01988181
300.3034,-1.471659,-0.3256948,0.5182175,-2.048341,-0.3407617,-0.01988378
300.3182,-1.471659,-0.3256948,0.5182175,-2.048341,-0.3407617,-0.01988378
300.332,-1.469898,-0.325702,0.5170903,-2.051282,-0.3411257,-0.01988558
300.3471,-1.467549,-0.325708,0.5159441,-2.054254,-0.3415146,-0.01988738
300.3616,-1.46484,-0.3257133,0.5148296,-2.057158,-0.3419013,-0.01988917
300.3764,-1.46484,-0.3257133,0.5148296,-2.057158,-0.3419013,-0.01988917
300.3901,-1.461915,-0.3257181,0.5137588,-2.059969,-0.3422752,-0.01989093
300.4054,-1.458139,-0.3257203,0.5125594,-2.063065,-0.3426563,-0.0198925
300.4198,-1.458139,-0.3257203,0.5125594,-2.063065,-0.3426563,-0.0198925
300.4338,-1.453843,-0.3257216,0.5113388,-2.066188,-0.343063,-0.01989409
300.4491,-1.449239,-0.3257224,0.5101483,-2.069243,-0.3434687,-0.01989567
300.4636,-1.444459,-0.3257231,0.5090011,-2.072203,-0.3438621,-0.01989722
300.4778,-1.444459,-0.3257231,0.5090011,-2.072203,-0.3438621,-0.01989722
300.4916,-1.43886,-0.3257223,0.5077255,-2.075446,-0.3442593,-0.01989857
300.507,-1.432771,-0.3257205,0.5064278,-2.078713,-0.3446829,-0.01989994
300.5237,-1.426397,-0.3257179,0.505161,-2.081907,-0.345106,-0.01990131
300.5369,-1.426397,-0.3257179,0.505161,-2.081907,-0.345106,-0.01990131
300.5508,-1.419144,-0.3257124,0.5037687,-2.085379,-0.3455316,-0.01990247
300.565,-1.411368,-0.3257047,0.5023599,-2.088862,-0.3459831,-0.01990365
300.5793,-1.411368,-0.3257047,0.5023599,-2.088862,-0.3459831,-0.01990365
300.5935,-1.403295,-0.3256954,0.5009885,-2.092257,-0.3464326,-0.01990483
300.6085,-1.395069,-0.325685,0.4996681,-2.095537,-0.3468677,-0.019906
300.6231,-1.386053,-0.3256716,0.4982265,-2.099083,-0.3472959,-0.01990693
300.6374,-1.386053,-0.3256716,0.4982265,-2.099083,-0.3472959,-0.01990693
300.6513,-1.376579,-0.3256557,0.4967656,-2.102637,-0.3477503,-0.0199079
300.6665,-1.366855,-0.325638,0.4953395,-2.106103,-0.3482044,-0.01990886
300.681,-1.357015,-0.3256191,0.4939632,-2.109454,-0.348645,-0.01990982
300.6957,-1.357015,-0.3256191,0.4939632,-2.109454,-0.348645,-0.01990982
300.7095,-1.346415,-0.3255972,0.4924659,-2.113071,-0.3490742,-0.01991053
300.7247,-1.335381,-0.3255727,0.4909473,-2.116694,-0.3495308,-0.01991127
300.7392,-1.335381,-0.3255727,0.4909473,-2.116694,-0.3495308,-0.01991127
300.753,-1.324121,-0.3255462,0.4894633,-2.120225,-0.3499884,-0.01991202
300.7684,-1.312037,-0.3255161,0.4878603,-2.12402,-0.3504343,-0.01991251
300.7829,-1.299486,-0.3254828,0.4862408,-2.127809,-0.3509077,-0.01991305
300.7977,-1.299486,-0.3254828,0.4862408,-2.127809,-0.3509077,-0.01991305
300.8113,-1.286694,-0.3254471,0.4846618,-2.131492,-0.3513811,-0.0199136
300.8267,-1.273803,-0.3254097,0.4831392,-2.135044,-0.3518398,-0.01991415
300.8412,-1.260176,-0.3253692,0.4815031,-2.138848,-0.352276,-0.01991442
300.8603,-1.246143,-0.3253257,0.479847,-2.142645,-0.3527395,-0.01991472
300.8712,-1.246143,-0.3253257,0.479847,-2.142645,-0.3527395,-0.01991472
300.8851,-1.231913,-0.3252799,0.4782278,-2.146338,-0.353205,-0.01991506
300.8997,-1.231913,-0.3252799,0.4782278,-2.146338,-0.353205,-0.01991506
300.9133,-1.216891,-0.3252304,0.4764947,-2.150285,-0.3536492,-0.0199151
300.9283,-1.201434,-0.3251773,0.4747447,-2.154214,-0.3541216,-0.01991519
300.9428,-1.185768,-0.3251215,0.4730364,-2.158028,-0.3545959,-0.01991531
300.957,-1.185768,-0.3251215,0.4730364,-2.158028,-0.3545959,-0.01991531
300.9711,-1.170035,-0.325064,0.4713877,-2.161701,-0.355056,-0.01991544
300.9865,-1.153599,-0.3250033,0.4696309,-2.165618,-0.3554832,-0.01991525
301.0008,-1.136789,-0.3249395,0.4678531,-2.169519,-0.3559382,-0.01991511
301.0154,-1.136789,-0.3249395,0.4678531,-2.169519,-0.3559382,-0.01991511
301.0294,-1.119814,-0.3248734,0.4661128,-2.173307,-0.3563973,-0.019915
301.0447,-1.102806,-0.3248059,0.4644294,-2.176957,-0.3568443,-0.01991491
301.0594,-1.102806,-0.3248059,0.4644294,-2.176957,-0.3568443,-0.01991491
301.0731,-1.085121,-0.3247357,0.4626379,-2.180853,-0.3572539,-0.01991448
301.0884,-1.067085,-0.3246625,0.4608226,-2.184734,-0.3576925,-0.0199141
301.1029,-1.048902,-0.3245872,0.459006,-2.187526,-0.3582191,-0.01991269
301.1177,-1.048902,-0.3245872,0.459006,-2.187526,-0.3582191,-0.01991269
301.1317,-1.029975,-0.3245082,0.4570536,-2.189104,-0.358787,-0.0199102
301.147,-1.010661,-0.3244257,0.4550788,-2.189414,-0.3594121,-0.01990767
301.1614,-0.9911821,-0.3243403,0.45316,-2.188929,-0.3600303,-0.01990558
301.178,-0.9911821,-0.3243403,0.45316,-2.188929,-0.3600303,-0.01990558
301.192,-0.9716824,-0.3242533,0.4513234,-2.188186,-0.3606075,-0.01990403
301.2062,-0.9515228,-0.3241634,0.4494024,-2.187932,-0.3611183,-0.01990255
301.2196,-0.9515228,-0.3241634,0.4494024,-2.187932,-0.3611183,-0.01990255
301.2334,-0.9310328,-0.3240705,0.4474674,-2.187896,-0.3616573,-0.01990123
301.2488,-0.9104205,-0.3239754,0.4455772,-2.187897,-0.3622111,-0.0199
301.2633,-0.8898177,-0.3238791,0.4437553,-2.187853,-0.3627616,-0.01989884
301.2776,-0.8898177,-0.3238791,0.4437553,-2.187853,-0.3627616,-0.01989884
301.2917,-0.8685791,-0.3237805,0.4418401,-2.188143,-0.3632779,-0.01989741
301.3071,-0.8470297,-0.3236791,0.439909,-2.188376,-0.3638374,-0.01989594
301.3217,-0.825375,-0.3235758,0.4380245,-2.188415,-0.3644139,-0.01989455
301.3364,-0.825375,-0.3235758,0.4380245,-2.188415,-0.3644139,-0.01989455
301.3503,-0.8030168,-0.3234692,0.4360456,-2.188675,-0.3649626,-0.01989292
301.3657,-0.7803098,-0.323359,0.4340576,-2.188826,-0.3655517,-0.01989132
301.3802,-0.7574784,-0.3232461,0.4321238,-2.188782,-0.3661526,-0.01988986
301.395,-0.7574784,-0.3232461,0.4321238,-2.188782,-0.3661526,-0.01988986
301.4088,-0.7346643,-0.3231318,0.430268,-2.188595,-0.366741,-0.01988855
301.4245,-0.7112288,-0.3230152,0.428326,-2.188747,-0.3672885,-0.01988706
301.4387,-0.7112288,-0.3230152,0.428326,-2.188747,-0.3672885,-0.01988706
301.4526,-0.6875007,-0.3228957,0.4263743,-2.188889,-0.3678728,-0.0198856
301.468,-0.6636878,-0.3227742,0.4244731,-2.18889,-0.3684706,-0.01988424
301.4848,-0.6399211,-0.3226519,0.4226462,-2.188757,-0.3690589,-0.019883
301.4983,-0.6399211,-0.3226519,0.4226462,-2.188757,-0.3690589,-0.019883
301.5122,-0.6157275,-0.3225284,0.4207697,-2.188857,-0.3696144,-0.01988163
301.5264,-0.5913666,-0.3224034,0.4189021,-2.188931,-0.3701935,-0.01988031
301.5409,-0.5670024,-0.3222778,0.4170884,-2.188892,-0.3707781,-0.01987909
301.5554,-0.5670024,-0.3222778,0.4170884,-2.188892,-0.3707781,-0.01987909
301.5694,-0.5427381,-0.3221527,0.4153454,-2.188753,-0.3713509,-0.019878
301.5849,-0.5186383,-0.3220291,0.4136746,-2.188569,-0.3719042,-0.01987704
301.5993,-0.5186383,-0.3220291,0.4136746,-2.188569,-0.3719042,-0.01987704
301.6133,-0.4947428,-0.3219081,0.4120716,-2.188388,-0.3724366,-0.01987622
301.6287,-0.4710759,-0.3217903,0.4105307,-2.188235,-0.3729501,-0.0198755
301.6437,-0.4476519,-0.3216764,0.4090468,-2.188117,-0.3734473,-0.01987487
301.658,-0.4476519,-0.3216764,0.4090468,-2.188117,-0.3734473,-0.01987487
301.6722,-0.4244788,-0.3215667,0.407616,-2.188023,-0.3739304,-0.01987431
301.6873,-0.4015608,-0.3214615,0.4062352,-2.187943,-0.3744007,-0.01987381
301.7021,-0.3788991,-0.3213609,0.4049023,-2.187868,-0.374859,-0.01987336
301.7168,-0.3788991,-0.3213609,0.4049023,-2.187868,-0.374859,-0.01987336
301.7308,-0.3564937,-0.321265,0.4036156,-2.187791,-0.3753055,-0.01987297
301.7463,-0.3343433,-0.3211738,0.4023736,-2.187711,-0.3757404,-0.01987264
301.7631,-0.3124462,-0.3210873,0.401175,-2.18763,-0.3761636,-0.01987237
301.7821,-0.2908002,-0.3210053,0.4000186,-2.187549,-0.3765754,-0.01987215
301.79,-0.2908002,-0.3210053,0.4000186,-2.187549,-0.3765754,-0.01987215
301.8039,-0.2757764,-0.3209484,0.4003657,-2.183992,-0.3770725,-0.0198752
301.8191,-0.2757764,-0.3209484,0.4003657,-2.183992,-0.3770725,-0.0198752
301.8329,-0.2649813,-0.320925,0.4014782,-2.18068,-0.3770185,-0.01987938
301.8482,-0.2568926,-0.3209281,0.4027422,-2.178581,-0.3766978,-0.01988331
301.8629,-0.2505409,-0.3209492,0.4038956,-2.177306,-0.3763555,-0.01988643
301.8775,-0.2505409,-0.3209492,0.4038956,-2.177306,-0.3763555,-0.01988643
301.8915,-0.245309,-0.3209833,0.4048972,-2.176584,-0.3760551,-0.01988914
301.907,-0.2408038,-0.321026,0.4057684,-2.176226,-0.3758029,-0.01989164
301.9214,-0.2367747,-0.3210744,0.4065417,-2.176102,-0.3755901,-0.019894
301.9361,-0.2367747,-0.3210744,0.4065417,-2.176102,-0.3755901,-0.019894
301.95,-0.2331001,-0.3337308,0.4063105,-2.17923,-0.3792302,-0.01990506
301.9655,-0.2297469,-0.3540081,0.4067659,-2.183221,-0.3826133,-0.01991452
301.9801,-0.226647,-0.3788505,0.4076114,-2.186767,-0.3854274,-0.01992154
301.9949,-0.226647,-0.3788505,0.4076114,-2.186767,-0.3854274,-0.01992154
302.0086,-0.2237313,-0.4056228,0.4085934,-2.188365,-0.3876792,-0.01992542
302.024,-0.2209447,-0.4334611,0.4095404,-2.188341,-0.3896832,-0.01992857
302.0384,-0.2209447,-0.4334611,0.4095404,-2.188341,-0.3896832,-0.01992857
302.0548,-0.2182496,-0.4618294,0.4104598,-2.187485,-0.3914854,-0.01993193
302.0694,-0.2156214,-0.4903956,0.4113595,-2.1865,-0.3931109,-0.01993568
302.0825,-0.2130405,-0.5181918,0.4122935,-2.185587,-0.394357,-0.01993914
302.0972,-0.2130405,-0.5181918,0.4122935,-2.185587,-0.394357,-0.01993914
302.1113,-0.2104952,-0.54539,0.4131448,-2.185053,-0.3955199,-0.01994285
302.1266,-0.2079793,-0.5720971,0.4139245,-2.18489,-0.396658,-0.01994663
302.141,-0.20549,-0.5983804,0.4146538,-2.184953,-0.3977817,-0.01995031
302.1558,-0.20549,-0.5983804,0.4146538,-2.184953,-0.3977817,-0.01995031
302.1698,-0.2030216,-0.6235207,0.4154106,-2.184896,-0.3986476,-0.01995324
302.1852,-0.2005715,-0.6478456,0.4161027,-2.184827,-0.3994997,-0.01995619
302.2,-0.2005715,-0.6478456,0.4161027,-2.184827,-0.3994997,-0.01995619
302.2139,-0.1981399,-0.6715586,0.4167534,-2.184786,-0.4003558,-0.01995918
302.2293,-0.1957225,-0.6940256,0.4174446,-2.184581,-0.4009627,-0.01996158
302.244,-0.1933185,-0.715627,0.4180814,-2.184407,-0.4015612,-0.01996411
302.2586,-0.1933185,-0.715627,0.4180814,-2.184407,-0.4015612,-0.01996411
302.2724,-0.1909291,-0.736599,0.418683,-2.184327,-0.4021709,-0.01996674
302.2878,-0.1885562,-0.7570891,0.4192679,-2.184324,-0.402781,-0.01996936
302.3026,-0.1861957,-0.7764282,0.4199048,-2.184162,-0.4031416,-0.01997135
302.3178,-0.1861957,-0.7764282,0.4199048,-2.184162,-0.4031416,-0.01997135
302.3333,-0.1838466,-0.7949752,0.4204919,-2.184018,-0.4034972,-0.01997344
302.3476,-0.1815104,-0.8129532,0.4210462,-2.183951,-0.4038688,-0.01997563
302.3735,-0.1791892,-0.8305008,0.4215858,-2.18395,-0.4042459,-0.01997781
302.3784,-0.1791892,-0.8305008,0.4215858,-2.18395,-0.4042459,-0.01997781
302.3926,-0.1768785,-0.8469431,0.4221781,-2.183785,-0.4043796,-0.01997938
302.408,-0.1745768,-0.8626362,0.422721,-2.183638,-0.4045146,-0.01998108
302.4225,-0.172286,-0.8778005,0.4232316,-2.183573,-0.4046719,-0.01998288
302.4372,-0.172286,-0.8778005,0.4232316,-2.183573,-0.4046719,-0.01998288
302.4513,-0.1700014,-0.8918111,0.423786,-2.183382,-0.4046027,-0.01998414
302.4666,-0.167722,-0.9050553,0.4242874,-2.183245,-0.4045486,-0.01998555
302.4813,-0.1654503,-0.9177724,0.4247555,-2.183205,-0.4045282,-0.01998708
302.4971,-0.1654503,-0.9177724,0.4247555,-2.183205,-0.4045282,-0.01998708
302.5113,-0.1631895,-0.9301105,0.4252102,-2.183235,-0.4045287,-0.01998861
302.5288,-0.160935,-0.9413999,0.4257183,-2.183096,-0.4043008,-0.01998953
302.5423,-0.1586852,-0.9520007,0.4261779,-2.182967,-0.4040876,-0.0199906
302.556,-0.1586852,-0.9520007,0.4261779,-2.182967,-0.4040876,-0.0199906
302.57,-0.1564425,-0.9621349,0.4266066,-2.182913,-0.4039086,-0.01999179
302.5854,-0.1542102,-0.9719394,0.4270232,-2.182925,-0.4037523,-0.01999301
302.6001,-0.1519836,-0.9807376,0.4274935,-2.18277,-0.4033709,-0.01999365
302.6146,-0.1519836,-0.9807376,0.4274935,-2.18277,-0.4033709,-0.01999365
302.6288,-0.1497606,-0.9888853,0.4279149,-2.182637,-0.4030083,-0.01999444
302.6443,-0.1475436,-0.9966016,0.4283051,-2.182585,-0.4026849,-0.01999536
302.6591,-0.1475436,-0.9966016,0.4283051,-2.182585,-0.4026849,-0.01999536
302.6731,-0.1453285,-1.00326,0.4287395,-2.182408,-0.4021525,-0.01999577
302.6885,-0.1431136,-1.009246,0.4291212,-2.182284,-0.4016518,-0.01999636
302.7031,-0.1409022,-1.014799,0.429471,-2.182258,-0.4012,-0.01999708
302.7174,-0.1409022,-1.014799,0.429471,-2.182258,-0.4012,-0.01999708
302.7317,-0.138699,-1.020064,0.4298099,-2.182302,-0.4007833,-0.01999783
302.7478,-0.1364999,-1.024369,0.4302037,-2.182173,-0.4001533,-0.019998
302.7626,-0.1343028,-1.028075,0.4305496,-2.182056,-0.3995525,-0.01999833
302.7792,-0.1343028,-1.028075,0.4305496,-2.182056,-0.3995525,-0.01999833
302.7933,-0.1321108,-1.0314,0.4308662,-2.182014,-0.3989995,-0.01999881
302.8068,-0.1299284,-1.034482,0.4311726,-2.182027,-0.3984825,-0.01999932
302.8213,-0.1277513,-1.036639,0.4315347,-2.181875,-0.3977532,-0.01999929
302.8358,-0.1277513,-1.036639,0.4315347,-2.181875,-0.3977532,-0.01999929
302.8511,-0.1255771,-1.038229,0.4318469,-2.181692,-0.3970604,-0.01999936
302.8652,-0.1234089,-1.039469,0.4321287,-2.181524,-0.3964218,-0.01999954
302.8802,-0.1212512,-1.040491,0.4324019,-2.181379,-0.3958215,-0.01999978
302.8951,-0.1212512,-1.040491,0.4324019,-2.181379,-0.3958215,-0.01999978
302.9089,-0.1191,-1.040616,0.4327317,-2.181056,-0.3950113,-0.0199995
302.9244,-0.1169528,-1.040202,0.4330118,-2.180702,-0.3942421,-0.01999934
302.9391,-0.1169528,-1.040202,0.4330118,-2.180702,-0.3942421,-0.01999934
302.953,-0.1148251,-1.039461,0.4332713,-2.180358,-0.3935262,-0.0199993
302.9683,-0.1127183,-1.037764,0.4335864,-2.179839,-0.3926148,-0.01999878
302.9831,-0.1106532,-1.035497,0.4338713,-2.179285,-0.3917472,-0.0199984
302.9977,-0.1106532,-1.035497,0.4338713,-2.179285,-0.3917472,-0.0199984
303.0117,-0.108634,-1.032895,0.4341432,-2.178749,-0.3909373,-0.01999814
303.0274,-0.1066579,-1.030101,0.4344159,-2.178243,-0.3901694,-0.01999795
303.0439,-0.1047123,-1.026442,0.4347465,-2.177569,-0.3892009,-0.01999725
303.0575,-0.1047123,-1.026442,0.4347465,-2.177569,-0.3892009,-0.01999725
303.0716,-0.10281,-1.022274,0.4350425,-2.176864,-0.3882752,-0.01999668
303.0859,-0.1009514,-1.017817,0.4353199,-2.17618,-0.3874084,-0.01999624
303.1006,-0.0991321,-1.013202,0.4355932,-2.175529,-0.3865864,-0.01999587
303.1154,-0.0991321,-1.013202,0.4355932,-2.175529,-0.3865864,-0.01999587
303.1295,-0.09733928,-1.00775,0.4359193,-2.174712,-0.3855697,-0.01999503
303.145,-0.09558491,-1.001814,0.4362079,-2.173868,-0.3845994,-0.01999432
303.1598,-0.09558491,-1.001814,0.4362079,-2.173868,-0.3845994,-0.01999432
303.1737,-0.09386913,-0.9956098,0.4364759,-2.173047,-0.383691,-0.01999374
303.1892,-0.09218021,-0.9885067,0.4367884,-2.172065,-0.3826053,-0.01999274
303.2041,-0.09052924,-0.980889,0.4370613,-2.171063,-0.3815764,-0.01999189
303.2186,-0.09052924,-0.980889,0.4370613,-2.171063,-0.3815764,-0.01999189
303.2327,-0.08891564,-0.9729908,0.4373133,-2.170094,-0.3806159,-0.01999119
303.2481,-0.08733512,-0.9649555,0.4375598,-2.169169,-0.3797079,-0.01999058
303.2631,-0.08577539,-0.956109,0.4378549,-2.168088,-0.378619,-0.01998953
303.2775,-0.08577539,-0.956109,0.4378549,-2.168088,-0.378619,-0.01998953
303.2938,-0.08424696,-0.9468075,0.4381113,-2.166989,-0.3775838,-0.01998863
303.3081,-0.08274987,-0.9372688,0.4383461,-2.165922,-0.376616,-0.01998787
303.3218,-0.08128078,-0.9276261,0.4385744,-2.164901,-0.3757007,-0.0199872
303.3365,-0.08128078,-0.9276261,0.4385744,-2.164901,-0.3757007,-0.0199872
303.3512,-0.07982865,-0.9171991,0.4388484,-2.163724,-0.37461,-0.0199861
303.3661,-0.07840361,-0.9063399,0.4390829,-2.16253,-0.3735752,-0.01998516
303.3806,-0.07700603,-0.8952636,0.4392955,-2.161371,-0.3726088,-0.01998437
303.3956,-0.07700603,-0.8952636,0.4392955,-2.161371,-0.3726088,-0.01998437
303.4098,-0.07563314,-0.884102,0.4395014,-2.16026,-0.3716963,-0.01998367
303.4252,-0.07428172,-0.8729359,0.4397067,-2.159195,-0.3708259,-0.01998303
303.4397,-0.07428172,-0.8729359,0.4397067,-2.159195,-0.3708259,-0.01998303
303.4537,-0.07294908,-0.8618147,0.4399126,-2.158172,-0.3699905,-0.01998243
303.4693,-0.07163318,-0.8507686,0.4401188,-2.157186,-0.3691858,-0.01998188
303.4839,-0.07033926,-0.8405774,0.440282,-2.156432,-0.3686174,-0.01998181
303.4984,-0.07033926,-0.8405774,0.440282,-2.156432,-0.3686174,-0.01998181
303.513,-0.06905522,-0.8309513,0.440484,-2.155763,-0.3680528,-0.01998167
303.5284,-0.06777794,-0.8217118,0.4407062,-2.15512,-0.3674754,-0.01998144
303.5428,-0.06650762,-0.8127486,0.4409324,-2.154484,-0.3668962,-0.01998118
303.5583,-0.06650762,-0.8127486,0.4409324,-2.154484,-0.3668962,-0.01998118
303.5725,-0.06525181,-0.8047552,0.4411143,-2.154051,-0.366529,-0.01998137
303.5869,-0.06400189,-0.7973886,0.4413316,-2.153677,-0.3661512,-0.01998146
303.6015,-0.06275643,-0.7904373,0.4415657,-2.153311,-0.3657506,-0.01998146
303.6161,-0.06275643,-0.7904373,0.4415657,-2.153311,-0.3657506,-0.01998146
303.6304,-0.06152277,-0.7845322,0.4417605,-2.153136,-0.3655437,-0.01998186
303.6458,-0.06029345,-0.7792925,0.4419908,-2.153008,-0.3653147,-0.01998214
303.6606,-0.05906767,-0.7744826,0.4422368,-2.152873,-0.3650545,-0.01998232
303.6754,-0.05906767,-0.7744826,0.4422368,-2.152873,-0.3650545,-0.01998232
303.6895,-0.05784694,-0.7699569,0.4424835,-2.152718,-0.3647774,-0.01998244
303.7049,-0.05663927,-0.766387,0.4426843,-2.152746,-0.3646976,-0.01998299
303.7196,-0.05663927,-0.766387,0.4426843,-2.152746,-0.3646976,-0.01998299
303.7336,-0.05543797,-0.7634172,0.4429187,-2.152815,-0.3645963,-0.01998342
303.749,-0.054242,-0.760828,0.4431689,-2.152875,-0.3644623,-0.01998376
303.7638,-0.05305244,-0.7584831,0.4434205,-2.152913,-0.3643086,-0.01998403
303.7784,-0.05305244,-0.7584831,0.4434205,-2.152913,-0.3643086,-0.01998403
303.7927,-0.05187677,-0.7570599,0.4436267,-2.153129,-0.3643489,-0.01998473
303.8089,-0.0507085,-0.7562072,0.4438671,-2.153384,-0.3643644,-0.01998531
303.8235,-0.04954634,-0.7557077,0.4441238,-2.153626,-0.3643438,-0.01998577
303.8373,-0.04954634,-0.7557077,0.4441238,-2.153626,-0.3643438,-0.01998577
303.8515,-0.04839687,-0.756183,0.4443411,-2.154041,-0.3645023,-0.01998662
303.8669,-0.04725883,-0.7572579,0.4445957,-2.154484,-0.3646284,-0.01998733
303.8814,-0.04613497,-0.7586954,0.4448702,-2.154902,-0.3647108,-0.01998792
303.8961,-0.04613497,-0.7586954,0.4448702,-2.154902,-0.3647108,-0.01998792
303.9104,-0.04502599,-0.7603487,0.4451486,-2.155282,-0.3647639,-0.01998844
303.9258,-0.0439376,-0.7628887,0.4453813,-2.15583,-0.3650047,-0.01998938
303.9403,-0.04286907,-0.7659609,0.4456522,-2.156402,-0.3652134,-0.01999018
303.9552,-0.04286907,-0.7659609,0.4456522,-2.156402,-0.3652134,-0.01999018
303.9695,-0.04181863,-0.7693458,0.4459427,-2.156948,-0.365378,-0.01999086
303.9849,-0.04078449,-0.7729074,0.4462364,-2.157457,-0.3655121,-0.01999147
303.9996,-0.04078449,-0.7729074,0.4462364,-2.157457,-0.3655121,-0.01999147
304.0136,-0.03977105,-0.7773234,0.4464832,-2.158132,-0.3658345,-0.01999249
304.0289,-0.03877646,-0.7822438,0.4467677,-2.158831,-0.3661233,-0.01999338
304.0438,-0.03779848,-0.7874519,0.4470719,-2.159502,-0.3663659,-0.01999415
304.0596,-0.03779848,-0.7874519,0.4470719,-2.159502,-0.3663659,-0.01999415
304.0735,-0.03684128,-0.7935752,0.4473351,-2.160337,-0.3667856,-0.0199953
304.088,-0.03590234,-0.8002328,0.4476378,-2.161186,-0.3671635,-0.01999629
304.1026,-0.03497911,-0.8071889,0.4479601,-2.162,-0.3674892,-0.01999715
304.1173,-0.03497911,-0.8071889,0.4479601,-2.162,-0.3674892,-0.01999715
304.1313,-0.03406953,-0.8142973,0.448285,-2.162766,-0.3677778,-0.01999793
304.1469,-0.03317838,-0.8222293,0.4485597,-2.163692,-0.3682538,-0.01999912
304.1614,-0.03230312,-0.8306316,0.448872,-2.164632,-0.3686922,-0.02000018
304.1766,-0.03230312,-0.8306316,0.448872,-2.164632,-0.3686922,-0.02000018
304.1904,-0.03144147,-0.8392855,0.4492041,-2.165538,-0.3690789,-0.0200011
304.2058,-0.03059167,-0.8480552,0.4495396,-2.166396,-0.3694277,-0.02000194
304.2206,-0.02975908,-0.8576186,0.4498244,-2.167413,-0.3699661,-0.02000319
304.2353,-0.02975908,-0.8576186,0.4498244,-2.167413,-0.3699661,-0.02000319
304.2495,-0.02894094,-0.8676271,0.4501476,-2.168444,-0.3704658,-0.02000431
304.2648,-0.02813502,-0.8778645,0.4504917,-2.169439,-0.3709118,-0.02000529
304.2794,-0.02813502,-0.8778645,0.4504917,-2.169439,-0.3709118,-0.02000529
304.2936,-0.0273466,-0.8889584,0.4507913,-2.170589,-0.3715371,-0.02000667
304.311,-0.02657228,-0.9005294,0.4511318,-2.171746,-0.3721158,-0.02000788
304.3246,-0.02580955,-0.9123421,0.4514934,-2.172859,-0.372635,-0.02000895
304.3382,-0.02580955,-0.9123421,0.4514934,-2.172859,-0.372635,-0.02000895
304.3526,-0.02505674,-0.9242505,0.4518588,-2.173916,-0.3731097,-0.02000991
304.3679,-0.02432005,-0.9369261,0.45217,-2.175125,-0.3737761,-0.02001131
304.3824,-0.02359589,-0.9500171,0.45252,-2.176342,-0.3744006,-0.02001256
304.397,-0.02359589,-0.9500171,0.45252,-2.176342,-0.3744006,-0.02001256
304.4112,-0.02288192,-0.963305,0.4528917,-2.177516,-0.3749666,-0.02001366
304.4268,-0.02217668,-0.9766545,0.4532683,-2.178634,-0.3754876,-0.02001466
304.4415,-0.02148707,-0.9907438,0.4535894,-2.179905,-0.376204,-0.0200161
304.4562,-0.02148707,-0.9907438,0.4535894,-2.179905,-0.376204,-0.0200161
304.4706,-0.020809,-1.005226,0.4539505,-2.181185,-0.3768779,-0.0200174
304.4871,-0.02014009,-1.019884,0.4543344,-2.18242,-0.3774916,-0.02001855
304.5004,-0.01947899,-1.034585,0.4547186,-2.183462,-0.3780704,-0.02001942
304.5151,-0.01947899,-1.034585,0.4547186,-2.183462,-0.3780704,-0.02001942
304.5291,-0.01883325,-1.050009,0.4550341,-2.184215,-0.3788772,-0.02002035
304.5447,-0.01819814,-1.065809,0.4553916,-2.184499,-0.3796518,-0.02002096
304.5595,-0.01819814,-1.065809,0.4553916,-2.184499,-0.3796518,-0.02002096
304.5788,-0.01757119,-1.08177,0.4557848,-2.184419,-0.3803525,-0.02002144
304.5894,-0.01695988,-1.098519,0.4561428,-2.184378,-0.3812155,-0.02002246
304.6029,-0.01635852,-1.115681,0.4565512,-2.184311,-0.3820087,-0.02002336
304.6178,-0.01635852,-1.115681,0.4565512,-2.184311,-0.3820087,-0.02002336
304.6318,-0.01576448,-1.13302,0.456987,-2.184216,-0.3827201,-0.02002412
304.6472,-0.01517661,-1.150389,0.4574296,-2.184114,-0.3833672,-0.0200248
304.6618,-0.01460368,-1.168462,0.4578152,-2.184234,-0.3841989,-0.02002595
304.6766,-0.01460368,-1.168462,0.4578152,-2.184234,-0.3841989,-0.02002595
304.6905,-0.01403942,-1.186888,0.4582369,-2.184359,-0.3849826,-0.02002687
304.7059,-0.01348128,-1.205449,0.4586795,-2.184401,-0.3856988,-0.02002757
304.7204,-0.01292836,-1.224011,0.4591284,-2.184361,-0.3863571,-0.02002816
304.7352,-0.01292836,-1.224011,0.4591284,-2.184361,-0.3863571,-0.02002816
304.7491,-0.0123902,-1.243251,0.4595228,-2.184485,-0.3872003,-0.02002922
304.7647,-0.01185952,-1.262825,0.4599552,-2.184587,-0.3879936,-0.02003006
304.7792,-0.01185952,-1.262825,0.4599552,-2.184587,-0.3879936,-0.02003006
304.7932,-0.01133381,-1.282516,0.46041,-2.1846,-0.3887167,-0.02003069
304.8086,-0.01082248,-1.302948,0.4608185,-2.184748,-0.3896112,-0.02003174
304.823,-0.01031731,-1.323745,0.4612664,-2.184845,-0.3904476,-0.02003256
304.8395,-0.01031731,-1.323745,0.4612664,-2.184845,-0.3904476,-0.02003256
304.8538,-0.009815895,-1.344675,0.4617368,-2.18484,-0.391208,-0.02003318
304.8672,-0.009317855,-1.365594,0.4622138,-2.18476,-0.3919034,-0.02003369
304.8815,-0.008647514,-1.373805,0.4635732,-2.181158,-0.3886773,-0.0200256
304.8963,-0.008647514,-1.373805,0.4635732,-2.181158,-0.3886773,-0.0200256
304.9102,-0.007913287,-1.374142,0.4641755,-2.177557,-0.3856477,-0.02002058
304.9257,-0.007119549,-1.369658,0.4642224,-2.174423,-0.3833302,-0.02001727
304.9402,-0.006352381,-1.362249,0.4641123,-2.171802,-0.3815032,-0.02001496
304.9547,-0.006352381,-1.362249,0.4641123,-2.171802,-0.3815032,-0.02001496
304.9688,-0.005641892,-1.353088,0.4640202,-2.169607,-0.3799586,-0.02001308
304.9842,-0.004985212,-1.342897,0.4639875,-2.167732,-0.3785778,-0.02001138
304.9987,-0.004985212,-1.342897,0.4639875,-2.167732,-0.3785778,-0.02001138
305.0128,-0.004369945,-1.332118,0.4640073,-2.166086,-0.3773007,-0.02000977
305.0283,-0.003784094,-1.321025,0.4640702,-2.164604,-0.3761065,-0.02000825
305.0429,-0.003218675,-1.309786,0.4641628,-2.163238,-0.3749682,-0.02000677
305.0573,-0.003218675,-1.309786,0.4641628,-2.163238,-0.3749682,-0.02000677
305.0715,-0.002667614,-1.298508,0.4642714,-2.161957,-0.3738756,-0.02000533
305.0869,-0.002126996,-1.287253,0.4643872,-2.160738,-0.3728233,-0.02000394
305.1014,-0.001594339,-1.276063,0.4637846,-2.159488,-0.3709065,-0.01999985
305.116,-0.001594339,-1.276063,0.4637846,-2.159488,-0.3709065,-0.01999985
305.132,-0.001068132,-1.26496,0.462357,-2.158265,-0.3691576,-0.01999627
305.1459,-0.0005474426,-1.253959,0.4604791,-2.157095,-0.3676522,-0.01999338
305.1595,-0.0005474426,-1.253959,0.4604791,-2.157095,-0.3676522,-0.01999338
305.1735,-3.167632E-05,-1.24307,0.457673,-2.155898,-0.3654037,-0.01998818
305.1888,0.0004794949,-1.232296,0.4539644,-2.154736,-0.3633921,-0.01998371
305.2033,0.0009862696,-1.22164,0.4497915,-2.153633,-0.3616585,-0.01998001
305.2178,0.0009862696,-1.22164,0.4497915,-2.153633,-0.3616585,-0.01998001
305.2318,0.001488764,-1.211104,0.4454302,-2.152588,-0.3601037,-0.01997681
305.2472,0.001987064,-1.200687,0.4402806,-2.151516,-0.3577554,-0.01997118
305.2616,0.002481181,-1.190389,0.4343104,-2.150476,-0.3556276,-0.01996621
305.2764,0.002481181,-1.190389,0.4343104,-2.150476,-0.3556276,-0.01996621
305.2903,0.002971119,-1.180209,0.4279321,-2.149495,-0.3537717,-0.01996202
305.3056,0.003456875,-1.170146,0.4214081,-2.148571,-0.3520944,-0.01995831
305.3204,0.003938461,-1.160199,0.4141232,-2.14762,-0.3496253,-0.01995222
305.335,0.003938461,-1.160199,0.4141232,-2.14762,-0.3496253,-0.01995222
305.3492,0.004415845,-1.150367,0.4060469,-2.146705,-0.347387,-0.01994682
305.3643,0.00488901,-1.140649,0.3975945,-2.145849,-0.3454269,-0.01994221
305.3786,0.00488901,-1.140649,0.3975945,-2.145849,-0.3454269,-0.01994221
305.3928,0.005357957,-1.131044,0.3882777,-2.144975,-0.3427431,-0.01993546
305.408,0.005822656,-1.121549,0.378139,-2.144144,-0.3403326,-0.01992951
305.4244,0.006283089,-1.112165,0.3676293,-2.143378,-0.338222,-0.01992442
305.4378,0.006283089,-1.112165,0.3676293,-2.143378,-0.338222,-0.01992442
305.452,0.006739241,-1.10289,0.3570248,-2.142675,-0.3363078,-0.01991985
305.4662,0.007191123,-1.093723,0.3457021,-2.141951,-0.3336138,-0.01991302
305.4807,0.00763871,-1.084661,0.3336394,-2.141269,-0.3311723,-0.01990694
305.4953,0.00763871,-1.084661,0.3336394,-2.141269,-0.3311723,-0.01990694
305.5095,0.008081988,-1.075706,0.3212592,-2.140649,-0.3290219,-0.01990168
305.5245,0.00852095,-1.066854,0.3088236,-2.140089,-0.3270657,-0.01989694
305.5389,0.00852095,-1.066854,0.3088236,-2.140089,-0.3270657,-0.01989694
305.5529,0.008955612,-1.058105,0.295696,-2.139509,-0.32433,-0.01988999
305.5683,0.009385956,-1.049458,0.281855,-2.138972,-0.3218534,-0.0198838
305.5829,0.009811978,-1.040912,0.2677248,-2.138495,-0.3196718,-0.01987842
305.5979,0.009811978,-1.040912,0.2677248,-2.138495,-0.3196718,-0.01987842
305.6117,0.01023369,-1.032465,0.2527997,-2.138005,-0.3167776,-0.01987106
305.6268,0.0106511,-1.024117,0.2371302,-2.137564,-0.3141813,-0.01986456
305.6415,0.01106418,-1.015866,0.2211744,-2.137187,-0.3118998,-0.01985893
305.656,0.01106418,-1.015866,0.2211744,-2.137187,-0.3118998,-0.01985893
305.6698,0.01147295,-1.007711,0.2052074,-2.136873,-0.3098268,-0.01985387
305.6853,0.01187744,-0.999651,0.1885892,-2.136541,-0.3069839,-0.01984672
305.6997,0.01187744,-0.999651,0.1885892,-2.136541,-0.3069839,-0.01984672
305.7136,0.01227765,-0.9916855,0.1713043,-2.136254,-0.3044153,-0.01984036
305.731,0.01267356,-0.9838129,0.1537818,-2.136028,-0.3021511,-0.01983482
305.7459,0.01306521,-0.9760324,0.1362827,-2.135859,-0.3000918,-0.01982984
305.7585,0.01306521,-0.9760324,0.1362827,-2.135859,-0.3000918,-0.01982984
305.7721,0.01345262,-0.9683428,0.1181572,-2.135673,-0.2972621,-0.01982282
305.7875,0.0138358,-0.9607431,0.09938858,-2.13553,-0.29471,-0.01981659
305.802,0.01421475,-0.9532323,0.08040614,-2.135445,-0.2924646,-0.01981117
305.8166,0.01421475,-0.9532323,0.08040614,-2.135445,-0.2924646,-0.01981117
305.8307,0.01458951,-0.9458094,0.06069445,-2.135348,-0.2895149,-0.01980394
305.846,0.01496009,-0.9384735,0.04030716,-2.135298,-0.2868788,-0.01979759
305.8606,0.0153265,-0.9312235,0.01970642,-2.135309,-0.2845677,-0.01979211
305.8753,0.0153265,-0.9312235,0.01970642,-2.135309,-0.2845677,-0.01979211
305.8893,0.01568877,-0.9240584,-0.0008335002,-2.135375,-0.2824736,-0.0197872
305.9048,0.01604693,-0.9169774,-0.02196104,-2.135424,-0.2796173,-0.01978037
305.9192,0.01604693,-0.9169774,-0.02196104,-2.135424,-0.2796173,-0.01978037
305.9332,0.016401,-0.9099795,-0.04369009,-2.135515,-0.2770483,-0.01977435
305.9487,0.016751,-0.9030636,-0.06558871,-2.135662,-0.274793,-0.01976914
305.963,0.01709695,-0.8962289,-0.08739637,-2.135859,-0.2727505,-0.01976449
305.9779,0.01709695,-0.8962289,-0.08739637,-2.135859,-0.2727505,-0.01976449
305.9917,0.01743888,-0.8894745,-0.1089908,-2.136101,-0.2708554,-0.01976023
306.0069,0.01777681,-0.8827994,-0.1303196,-2.136381,-0.2690757,-0.01975627
306.0235,0.01811079,-0.8762028,-0.1513621,-2.136696,-0.267395,-0.01975258
306.037,0.01811079,-0.8762028,-0.1513621,-2.136696,-0.267395,-0.01975258
306.0511,0.01844083,-0.8696837,-0.1721118,-2.137042,-0.2658049,-0.01974913
306.0655,0.01876697,-0.8632414,-0.192568,-2.137417,-0.2643003,-0.01974589
306.08,0.01876697,-0.8632414,-0.192568,-2.137417,-0.2643003,-0.01974589
306.0939,0.01908924,-0.8568748,-0.2127327,-2.137818,-0.2628776,-0.01974287
306.1092,0.01940767,-0.8505831,-0.232609,-2.138243,-0.2615339,-0.01974005
306.1237,0.0197223,-0.8443655,-0.2522002,-2.138692,-0.2602666,-0.01973742
306.1381,0.0197223,-0.8443655,-0.2522002,-2.138692,-0.2602666,-0.01973742
306.1523,0.02003315,-0.8382211,-0.2715102,-2.139161,-0.2590733,-0.01973499
306.1677,0.02034026,-0.8321491,-0.2905424,-2.139649,-0.2579519,-0.01973273
306.1823,0.02064366,-0.8261486,-0.3093008,-2.140155,-0.2569,-0.01973064
306.1971,0.02064366,-0.8261486,-0.3093008,-2.140155,-0.2569,-0.01973064
306.211,0.0209434,-0.8202189,-0.3277888,-2.140677,-0.2559156,-0.01972874
306.2262,0.02123949,-0.8143591,-0.3460103,-2.141215,-0.2549966,-0.01972697
306.2407,0.02153198,-0.8085684,-0.3639689,-2.141766,-0.2541411,-0.01972537
306.2555,0.02153198,-0.8085684,-0.3639689,-2.141766,-0.2541411,-0.01972537
306.2691,0.02182091,-0.802846,-0.3816681,-2.142329,-0.2533471,-0.01972391
306.2844,0.0221063,-0.7971911,-0.3991115,-2.142903,-0.2526127,-0.0197226
306.299,0.0221063,-0.7971911,-0.3991115,-2.142903,-0.2526127,-0.0197226
306.3161,0.02238819,-0.791603,-0.4163027,-2.143487,-0.2519362,-0.01972142
306.3292,0.02266663,-0.7860808,-0.4332452,-2.14408,-0.2513156,-0.01972037
306.3438,0.02294164,-0.7806239,-0.4499425,-2.144681,-0.2507493,-0.01971944
306.3572,0.02294164,-0.7806239,-0.4499425,-2.144681,-0.2507493,-0.01971944
306.3711,0.02321325,-0.7752314,-0.4663979,-2.145288,-0.2502357,-0.01971864
306.3866,0.02348152,-0.7699026,-0.4826148,-2.145901,-0.249773,-0.01971795
306.4008,0.02374646,-0.7646368,-0.4985967,-2.146519,-0.2493597,-0.01971737
306.4156,0.02374646,-0.7646368,-0.4985967,-2.146519,-0.2493597,-0.01971737
306.4294,0.02400813,-0.7594333,-0.5143468,-2.147141,-0.2489942,-0.0197169
306.4448,0.02426654,-0.7542912,-0.5298685,-2.147765,-0.248675,-0.01971653
306.4593,0.02426654,-0.7542912,-0.5298685,-2.147765,-0.248675,-0.01971653
306.4732,0.02452175,-0.74921,-0.5451648,-2.148391,-0.2484006,-0.01971626
306.4884,0.02477378,-0.7441888,-0.5602391,-2.149019,-0.2481697,-0.01971608
306.5031,0.02502267,-0.7392271,-0.5750946,-2.149648,-0.2479807,-0.01971599
306.5176,0.02502267,-0.7392271,-0.5750946,-2.149648,-0.2479807,-0.01971599
306.5317,0.02526846,-0.7343241,-0.5897343,-2.150277,-0.2478324,-0.01971599
306.547,0.02551117,-0.7294791,-0.6041613,-2.150905,-0.2477234,-0.01971607
306.5616,0.02575086,-0.7246915,-0.6183786,-2.151532,-0.2476525,-0.01971623
306.5762,0.02575086,-0.7246915,-0.6183786,-2.151532,-0.2476525,-0.01971623
306.59,0.02598754,-0.7199606,-0.6323893,-2.152157,-0.2476184,-0.01971647
306.6051,0.02622126,-0.7152857,-0.6461964,-2.152779,-0.2476198,-0.01971678
306.6196,0.02622126,-0.7152857,-0.6461964,-2.152779,-0.2476198,-0.01971678
306.6358,0.02645206,-0.7106661,-0.6598027,-2.153399,-0.2476556,-0.01971716
306.6498,0.02667996,-0.7061013,-0.6732111,-2.154015,-0.2477245,-0.01971761
306.6638,0.02690499,-0.7015905,-0.6864246,-2.154627,-0.2478256,-0.01971813
306.6776,0.02690499,-0.7015905,-0.6864246,-2.154627,-0.2478256,-0.01971813
306.6918,0.0271272,-0.6971332,-0.6994458,-2.155235,-0.2479576,-0.0197187
306.7071,0.02734662,-0.6927288,-0.7122776,-2.155838,-0.2481196,-0.01971933
306.7216,0.02756329,-0.6883765,-0.7249227,-2.156436,-0.2483104,-0.01972003
306.736,0.02756329,-0.6883765,-0.7249227,-2.156436,-0.2483104,-0.01972003
306.7498,0.02777722,-0.6840758,-0.7373839,-2.157029,-0.248529,-0.01972076
306.765,0.02798846,-0.6798261,-0.7496638,-2.157615,-0.2487745,-0.01972156
306.7796,0.02798846,-0.6798261,-0.7496638,-2.157615,-0.2487745,-0.01972156
306.7936,0.02819704,-0.6756269,-0.7617649,-2.158196,-0.2490459,-0.01972241
306.8089,0.028403,-0.6714774,-0.77369,-2.15877,-0.2493422,-0.0197233
306.8235,0.02860636,-0.6673771,-0.7854415,-2.159338,-0.2496625,-0.01972424
306.8379,0.02860636,-0.6673771,-0.7854415,-2.159338,-0.2496625,-0.01972424
306.8519,0.02880716,-0.6633255,-0.797022,-2.159898,-0.250006,-0.01972523
306.867,0.02900542,-0.659322,-0.8084339,-2.160451,-0.2503717,-0.01972625
306.8814,0.02920119,-0.6553659,-0.8196797,-2.160997,-0.2507588,-0.01972732
306.8963,0.02920119,-0.6553659,-0.8196797,-2.160997,-0.2507588,-0.01972732
306.9102,0.02939449,-0.6514569,-0.8307618,-2.161536,-0.2511665,-0.01972842
306.9259,0.02958535,-0.6475942,-0.8416826,-2.162066,-0.2515939,-0.01972956
306.9397,0.02958535,-0.6475942,-0.8416826,-2.162066,-0.2515939,-0.01972956
306.9558,0.0297738,-0.6437774,-0.8524444,-2.162589,-0.2520404,-0.01973074
306.9697,0.02995987,-0.6400059,-0.8630495,-2.163104,-0.252505,-0.01973194
306.9845,0.0301436,-0.6362792,-0.8735003,-2.163611,-0.2529872,-0.01973318
306.9979,0.0301436,-0.6362792,-0.8735003,-2.163611,-0.2529872,-0.01973318
307.0117,0.03032501,-0.6325968,-0.8837989,-2.164109,-0.2534861,-0.01973446
307.027,0.03050413,-0.628958,-0.8939475,-2.164599,-0.2540011,-0.01973575
307.0414,0.03068099,-0.6253625,-0.9039484,-2.16508,-0.2545314,-0.01973708
307.0559,0.03068099,-0.6253625,-0.9039484,-2.16508,-0.2545314,-0.01973708
307.0697,0.03085561,-0.6218097,-0.9138037,-2.165553,-0.2550764,-0.01973843
307.0849,0.03102804,-0.6182991,-0.9235155,-2.166018,-0.2556355,-0.01973981
307.0994,0.03102804,-0.6182991,-0.9235155,-2.166018,-0.2556355,-0.01973981
307.1133,0.03119829,-0.6148303,-0.9330859,-2.166473,-0.2562079,-0.01974121
307.1285,0.03136639,-0.6114026,-0.942517,-2.16692,-0.2567932,-0.01974263
307.1432,0.03153237,-0.6080157,-0.9518107,-2.167359,-0.2573906,-0.01974407
307.1576,0.03153237,-0.6080157,-0.9518107,-2.167359,-0.2573906,-0.01974407
307.1715,0.03169626,-0.604669,-0.9609691,-2.167788,-0.2579997,-0.01974554
307.1868,0.03185808,-0.6013622,-0.9699941,-2.168209,-0.2586198,-0.01974702
307.2011,0.03201786,-0.5980946,-0.9788876,-2.168621,-0.2592504,-0.01974852
307.2156,0.03201786,-0.5980946,-0.9788876,-2.168621,-0.2592504,-0.01974852
307.2295,0.03217563,-0.5948659,-0.9876516,-2.169024,-0.2598909,-0.01975003
307.2448,0.03233141,-0.5916755,-0.9962881,-2.169418,-0.2605409,-0.01975157
307.2593,0.03233141,-0.5916755,-0.9962881,-2.169418,-0.2605409,-0.01975157
307.2728,0.03248522,-0.5885231,-1.004799,-2.169804,-0.2611998,-0.01975312
307.2902,0.0326371,-0.5854082,-1.013185,-2.170181,-0.2618672,-0.01975468
307.3046,0.03278707,-0.5823303,-1.02145,-2.170549,-0.2625424,-0.01975626
307.318,0.03278707,-0.5823303,-1.02145,-2.170549,-0.2625424,-0.01975626
307.3318,0.03293515,-0.579289,-1.029594,-2.170908,-0.2632252,-0.01975785
307.346,0.03308136,-0.5762839,-1.037619,-2.171259,-0.2639149,-0.01975945
307.3607,0.03322574,-0.5733145,-1.045528,-2.171602,-0.2646113,-0.01976107
307.375,0.03322574,-0.5733145,-1.045528,-2.171602,-0.2646113,-0.01976107
307.3888,0.0333683,-0.5703805,-1.053321,-2.171936,-0.2653138,-0.01976269
307.4038,0.03350906,-0.5674813,-1.061001,-2.172261,-0.2660221,-0.01976432
307.4183,0.03350906,-0.5674813,-1.061001,-2.172261,-0.2660221,-0.01976432
307.4323,0.03364806,-0.5646167,-1.068569,-2.172578,-0.2667356,-0.01976596
307.4475,0.03378531,-0.5617861,-1.076027,-2.172886,-0.2674541,-0.01976761
307.4621,0.03392084,-0.5589892,-1.083376,-2.173187,-0.2681772,-0.01976927
307.4766,0.03392084,-0.5589892,-1.083376,-2.173187,-0.2681772,-0.01976927
307.4906,0.03405466,-0.5562256,-1.090617,-2.173479,-0.2689045,-0.01977094
307.5059,0.0341868,-0.5534949,-1.097754,-2.173763,-0.2696356,-0.01977261
307.5202,0.03431728,-0.5507966,-1.104786,-2.174039,-0.2703702,-0.01977429
307.5349,0.03431728,-0.5507966,-1.104786,-2.174039,-0.2703702,-0.01977429
307.5487,0.03444613,-0.5481305,-1.111716,-2.174307,-0.2711079,-0.01977596
307.5639,0.03457336,-0.5454961,-1.118544,-2.174567,-0.2718485,-0.01977765
307.5786,0.03457336,-0.5454961,-1.118544,-2.174567,-0.2718485,-0.01977765
307.5924,0.034699,-0.5428931,-1.125273,-2.174819,-0.2725915,-0.01977934
307.6076,0.03482306,-0.540321,-1.131904,-2.175064,-0.2733368,-0.01978103
307.6219,0.03494556,-0.5377796,-1.138439,-2.175301,-0.2740839,-0.01978273
307.6385,0.03494556,-0.5377796,-1.138439,-2.175301,-0.2740839,-0.01978273
307.6523,0.03506653,-0.5352684,-1.144878,-2.17553,-0.2748327,-0.01978442
307.6663,0.03518599,-0.5327871,-1.151223,-2.175752,-0.2755828,-0.01978613
307.6799,0.03518599,-0.5327871,-1.151223,-2.175752,-0.2755828,-0.01978613
307.6937,0.03530395,-0.5303354,-1.157475,-2.175967,-0.276334,-0.01978783
307.709,0.03542044,-0.5279128,-1.163636,-2.176174,-0.2770859,-0.01978954
307.7235,0.03553547,-0.5255191,-1.169708,-2.176374,-0.2778384,-0.01979124
307.7377,0.03553547,-0.5255191,-1.169708,-2.176374,-0.2778384,-0.01979124
307.7518,0.03564906,-0.5231538,-1.175691,-2.176568,-0.2785912,-0.01979295
307.767,0.03576123,-0.5208168,-1.181586,-2.176754,-0.2793441,-0.01979465
307.7851,0.035872,-0.5185076,-1.187395,-2.176934,-0.2800968,-0.01979636
307.7976,0.035872,-0.5185076,-1.187395,-2.176934,-0.2800968,-0.01979636
307.8101,0.03598138,-0.5162259,-1.19312,-2.177106,-0.2808491,-0.01979807
307.8255,0.03608941,-0.5139713,-1.198761,-2.177272,-0.2816008,-0.01979977
307.84,0.03619608,-0.5117437,-1.204319,-2.177432,-0.2823517,-0.01980147
307.8546,0.03619608,-0.5117437,-1.204319,-2.177432,-0.2823517,-0.01980147
307.8685,0.03630142,-0.5095425,-1.209796,-2.177585,-0.2831021,-0.01980317
307.8837,0.03640545,-0.5073676,-1.215193,-2.177732,-0.2838512,-0.01980487
307.8982,0.03640545,-0.5073676,-1.215193,-2.177732,-0.2838512,-0.01980487
307.9121,0.03650818,-0.5052186,-1.22051,-2.177872,-0.2845989,-0.01980657
307.9275,0.03660963,-0.5030951,-1.225749,-2.178007,-0.2853449,-0.01980826
307.9418,0.03670982,-0.500997,-1.230208,-2.1782,-0.2869863,-0.01981222
307.9562,0.03670982,-0.500997,-1.230208,-2.1782,-0.2869863,-0.01981222
307.972,0.03680876,-0.4989239,-1.23377,-2.178404,-0.288503,-0.01981583
307.9866,0.03690646,-0.4968754,-1.236806,-2.178595,-0.2898067,-0.01981891
307.9999,0.03690646,-0.4968754,-1.236806,-2.178595,-0.2898067,-0.01981891
308.0137,0.03700295,-0.4948514,-1.238866,-2.178835,-0.2918736,-0.01982394
308.0289,0.03709824,-0.4928515,-1.23996,-2.179077,-0.2937458,-0.01982847
308.0434,0.03719233,-0.4908754,-1.240518,-2.1793,-0.2953664,-0.01983236
308.0578,0.03719233,-0.4908754,-1.240518,-2.1793,-0.2953664,-0.01983236
308.0718,0.03728526,-0.4889228,-1.240818,-2.179501,-0.2968296,-0.01983585
308.087,0.03737704,-0.4869936,-1.240298,-2.179752,-0.2990989,-0.01984145
308.1017,0.03746768,-0.4850872,-1.238905,-2.180006,-0.3011934,-0.01984659
308.1163,0.03746768,-0.4850872,-1.238905,-2.180006,-0.3011934,-0.01984659
308.1302,0.03755719,-0.4832036,-1.237033,-2.180242,-0.3030396,-0.01985109
308.1456,0.0376456,-0.4813425,-1.234946,-2.180456,-0.3047238,-0.0198552
308.1603,0.03773291,-0.4795035,-1.232081,-2.18072,-0.3072054,-0.01986142
308.1746,0.03773291,-0.4795035,-1.232081,-2.18072,-0.3072054,-0.01986142
308.1885,0.03781914,-0.4776865,-1.228377,-2.180989,-0.3095051,-0.01986717
308.2037,0.0379043,-0.4758911,-1.224227,-2.181238,-0.3115477,-0.01987225
308.2181,0.0379043,-0.4758911,-1.224227,-2.181238,-0.3115477,-0.01987225
308.2321,0.03798842,-0.474117,-1.219199,-2.181534,-0.3143134,-0.0198793
308.2473,0.03807149,-0.4723642,-1.213304,-2.181832,-0.3168553,-0.01988575
308.2618,0.03815353,-0.4706322,-1.206968,-2.182106,-0.3191151,-0.01989147
308.2764,0.03815353,-0.4706322,-1.206968,-2.182106,-0.3191151,-0.01989147
308.2932,0.03823457,-0.4689208,-1.200467,-2.182331,-0.3211888,-0.01989669
308.3064,0.03831461,-0.4672299,-1.193251,-2.182513,-0.3240425,-0.01990401
308.3207,0.03839366,-0.4655591,-1.185259,-2.182592,-0.3267024,-0.01991075
308.3343,0.03839366,-0.4655591,-1.185259,-2.182592,-0.3267024,-0.01991075
308.3481,0.03847174,-0.4639082,-1.176878,-2.182572,-0.3290879,-0.01991677
308.3634,0.03854886,-0.4622769,-1.168369,-2.182498,-0.3312817,-0.01992234
308.3779,0.03854886,-0.4622769,-1.168369,-2.182498,-0.3312817,-0.01992234
308.3918,0.03862503,-0.4606652,-1.159174,-2.18249,-0.3342409,-0.01993014
308.4071,0.03870027,-0.4590726,-1.149231,-2.1825,-0.3369969,-0.01993737
308.4215,0.03877459,-0.457499,-1.138928,-2.182493,-0.3394726,-0.01994385
308.4362,0.03877459,-0.457499,-1.138928,-2.182493,-0.3394726,-0.01994385
308.4501,0.03884799,-0.4559442,-1.127836,-2.18254,-0.3426454,-0.01995237
308.4655,0.0389205,-0.4544078,-1.115964,-2.182577,-0.3455762,-0.0199602
308.4799,0.0389205,-0.4544078,-1.115964,-2.182577,-0.3455762,-0.0199602
308.4938,0.03899212,-0.4528898,-1.103731,-2.18257,-0.3482042,-0.01996719
308.5091,0.03906286,-0.4513899,-1.091413,-2.182529,-0.3506213,-0.01997364
308.5236,0.03913274,-0.4499079,-1.078459,-2.182554,-0.353788,-0.01998235
308.5377,0.03913274,-0.4499079,-1.078459,-2.182554,-0.353788,-0.01998235
308.552,0.03920177,-0.4484435,-1.064811,-2.182583,-0.3567398,-0.01999044
308.5671,0.03926996,-0.4469965,-1.050853,-2.182579,-0.3593991,-0.0199977
308.5816,0.03933731,-0.4455669,-1.036845,-2.182544,-0.3618497,-0.02000442
308.5961,0.03933731,-0.4455669,-1.036845,-2.182544,-0.3618497,-0.02000442
308.6099,0.03940385,-0.4441542,-1.022232,-2.182575,-0.3650477,-0.02001343
308.6272,0.03946958,-0.4427584,-1.006951,-2.182609,-0.3680288,-0.02002179
308.6412,0.03953451,-0.4413792,-0.9913837,-2.182606,-0.3707139,-0.0200293
308.6555,0.03953451,-0.4413792,-0.9913837,-2.182606,-0.3707139,-0.0200293
308.6689,0.03959865,-0.4400164,-0.9751047,-2.182649,-0.3740776,-0.02003894
308.683,0.03966201,-0.4386699,-0.9581203,-2.182679,-0.3771856,-0.0200478
308.6975,0.03966201,-0.4386699,-0.9581203,-2.182679,-0.3771856,-0.0200478
308.7114,0.0397246,-0.4373395,-0.940847,-2.182663,-0.3799756,-0.02005575
308.7268,0.03978644,-0.4360249,-0.9235573,-2.182612,-0.382539,-0.02006309
308.7413,0.03984753,-0.4347259,-0.9057061,-2.182632,-0.385835,-0.02007279
308.7556,0.03984753,-0.4347259,-0.9057061,-2.182632,-0.385835,-0.02007279
308.7696,0.03990788,-0.4334425,-0.8872313,-2.182662,-0.3889048,-0.02008178
308.7849,0.0399675,-0.4321743,-0.8685151,-2.182656,-0.3916695,-0.02008986
308.7993,0.0399675,-0.4321743,-0.8685151,-2.182656,-0.3916695,-0.02008986
308.8134,0.0400264,-0.4309212,-0.8498216,-2.182616,-0.3942023,-0.02009731
308.8287,0.0400846,-0.4296831,-0.8312824,-2.18256,-0.3965783,-0.02010435
308.8434,0.0401421,-0.4284597,-0.8129531,-2.182508,-0.3988344,-0.0201111
308.8576,0.0401421,-0.4284597,-0.8129531,-2.182508,-0.3988344,-0.0201111
308.8716,0.0401989,-0.4272509,-0.7948558,-2.182467,-0.4009886,-0.0201176
308.8869,0.04025502,-0.4260565,-0.7769985,-2.182438,-0.4030505,-0.02012386
308.9013,0.04031047,-0.4248764,-0.7593827,-2.182419,-0.4050258,-0.0201299
308.9159,0.04031047,-0.4248764,-0.7593827,-2.182419,-0.4050258,-0.0201299
308.9297,0.04036525,-0.4237103,-0.7420072,-2.182402,-0.4069183,-0.02013571
308.945,0.04041937,-0.4225581,-0.7248697,-2.182386,-0.4087308,-0.02014131
308.9617,0.04047276,-0.4214197,-0.7084053,-2.17172,-0.4114431,-0.0201321
308.9749,0.04047276,-0.4214197,-0.7084053,-2.17172,-0.4114431,-0.0201321
308.9888,0.04052548,-0.4202949,-0.6919486,-2.155017,-0.4139566,-0.02012889
309.003,0.04057759,-0.4191835,-0.6754791,-2.135593,-0.4161427,-0.02012806
309.0173,0.04057759,-0.4191835,-0.6754791,-2.135593,-0.4161427,-0.02012806
309.0315,0.04062909,-0.4180853,-0.6590999,-2.11379,-0.4181738,-0.02012666
309.0468,0.04068001,-0.4170002,-0.6427711,-2.0909,-0.4199678,-0.02012638
309.0612,0.04073035,-0.4159279,-0.6265127,-2.067669,-0.4215417,-0.02012653
309.0756,0.04073035,-0.4159279,-0.6265127,-2.067669,-0.4215417,-0.02012653
309.0896,0.04078014,-0.4148684,-0.6103438,-2.044449,-0.4229172,-0.02012684
309.1048,0.04082935,-0.4138215,-0.5943096,-2.020166,-0.4242002,-0.02012576
309.1194,0.04082935,-0.4138215,-0.5943096,-2.020166,-0.4242002,-0.02012576
309.1335,0.04087801,-0.412787,-0.5783679,-1.995439,-0.4252744,-0.02012521
309.1487,0.04092613,-0.4117647,-0.5625394,-1.970687,-0.4261506,-0.02012482
309.1632,0.0409737,-0.4107547,-0.5468417,-1.946109,-0.4268457,-0.02012446
309.1779,0.0409737,-0.4107547,-0.5468417,-1.946109,-0.4268457,-0.02012446
309.1919,0.04102074,-0.4097566,-0.531306,-1.920556,-0.4274428,-0.02012284
309.2072,0.04106724,-0.4087704,-0.5159091,-1.894613,-0.4278475,-0.02012164
309.2215,0.04111322,-0.4077958,-0.5006685,-1.868682,-0.4280787,-0.02012059
309.236,0.04111322,-0.4077958,-0.5006685,-1.868682,-0.4280787,-0.02012059
309.2502,0.04115868,-0.4068329,-0.4856067,-1.841713,-0.4282056,-0.02011843
309.2674,0.04120363,-0.4058814,-0.4707123,-1.814335,-0.4281592,-0.0201167
309.2819,0.04124808,-0.4049412,-0.455998,-1.786976,-0.4279603,-0.02011515
309.2955,0.04124808,-0.4049412,-0.455998,-1.786976,-0.4279603,-0.02011515
309.3094,0.04129204,-0.4040122,-0.4414718,-1.759836,-0.4276244,-0.02011366
309.3237,0.0413355,-0.4030942,-0.4271398,-1.732863,-0.4271677,-0.02011208
309.3381,0.0413355,-0.4030942,-0.4271398,-1.732863,-0.4271677,-0.02011208
309.3521,0.04137847,-0.4021871,-0.4130058,-1.706161,-0.4265954,-0.02011055
309.3674,0.04142095,-0.4012908,-0.3990736,-1.679795,-0.4259184,-0.02010905
309.382,0.04146295,-0.4004052,-0.3853458,-1.653792,-0.4251457,-0.02010757
309.3965,0.04146295,-0.4004052,-0.3853458,-1.653792,-0.4251457,-0.02010757
309.4105,0.04150447,-0.3995301,-0.3718243,-1.628162,-0.4242856,-0.0201061
309.4259,0.04154551,-0.3986654,-0.3585106,-1.602909,-0.4233454,-0.02010467
309.4403,0.04158606,-0.397811,-0.3454053,-1.578029,-0.4223316,-0.02010331
309.4552,0.04158606,-0.397811,-0.3454053,-1.578029,-0.4223316,-0.02010331
309.4691,0.04162614,-0.3969667,-0.332509,-1.553522,-0.4212505,-0.020102
309.4843,0.04166575,-0.3961326,-0.3198216,-1.529381,-0.4201073,-0.02010074
309.4988,0.04166575,-0.3961326,-0.3198216,-1.529381,-0.4201073,-0.02010074
309.5128,0.04170488,-0.3953083,-0.3073429,-1.505604,-0.4189073,-0.02009948
309.5281,0.04174354,-0.3944939,-0.2950723,-1.482185,-0.4176549,-0.02009821
309.5429,0.04178172,-0.3936892,-0.2830094,-1.45912,-0.4163543,-0.02009692
309.5573,0.04178172,-0.3936892,-0.2830094,-1.45912,-0.4163543,-0.02009692
309.5731,0.04181944,-0.3928941,-0.2711531,-1.436405,-0.4150091,-0.02009565
309.5873,0.04185669,-0.3921086,-0.2595027,-1.414033,-0.4136228,-0.02009442
309.6019,0.04189348,-0.3913324,-0.248057,-1.392002,-0.4121983,-0.02009322
309.6157,0.04189348,-0.3913324,-0.248057,-1.392002,-0.4121983,-0.02009322
309.6295,0.04192981,-0.3905654,-0.2368151,-1.370306,-0.4107384,-0.02009207
309.645,0.04196567,-0.3898077,-0.2257758,-1.34894,-0.4092459,-0.02009097
309.6596,0.04196567,-0.3898077,-0.2257758,-1.34894,-0.4092459,-0.02009097
309.6734,0.04200108,-0.389059,-0.214938,-1.3279,-0.4077233,-0.02008989
309.6893,0.04203603,-0.3883193,-0.2043005,-1.307181,-0.4061732,-0.02008886
309.7032,0.04207054,-0.3875884,-0.1938619,-1.28678,-0.4045984,-0.02008786
309.7179,0.04207054,-0.3875884,-0.1938619,-1.28678,-0.4045984,-0.02008786
309.732,0.0421046,-0.3868662,-0.1836207,-1.266691,-0.4030019,-0.0200869
309.7475,0.04213822,-0.3861527,-0.1735753,-1.24691,-0.4013869,-0.02008596
309.7626,0.04217141,-0.3854478,-0.1637239,-1.227433,-0.3997569,-0.02008506
309.7768,0.04217141,-0.3854478,-0.1637239,-1.227433,-0.3997569,-0.02008506
309.7909,0.04220416,-0.3847513,-0.1540644,-1.208255,-0.3981155,-0.02008417
309.806,0.04223648,-0.3840631,-0.1445946,-1.189372,-0.3964663,-0.0200833
309.8219,0.04226838,-0.3833832,-0.1353123,-1.17078,-0.394813,-0.02008244
309.8354,0.04226838,-0.3833832,-0.1353123,-1.17078,-0.394813,-0.02008244
309.8493,0.04229987,-0.3827114,-0.1262148,-1.152475,-0.3931592,-0.02008158
309.8666,0.04233094,-0.3820477,-0.1172996,-1.134452,-0.3915085,-0.02008074
309.8802,0.0423616,-0.3813919,-0.1085639,-1.116708,-0.389864,-0.02007989
309.894,0.0423616,-0.3813919,-0.1085639,-1.116708,-0.389864,-0.02007989
309.9079,0.04239186,-0.380744,-0.1000051,-1.099239,-0.388229,-0.02007905
309.9231,0.04242172,-0.3801039,-0.09162021,-1.08204,-0.3866062,-0.02007819
309.9376,0.04242172,-0.3801039,-0.09162021,-1.08204,-0.3866062,-0.02007819
309.9517,0.0424512,-0.3794714,-0.08340643,-1.065107,-0.3849984,-0.02007733
309.967,0.04248028,-0.3788465,-0.07536089,-1.048437,-0.383408,-0.02007647
309.9818,0.04250898,-0.3782291,-0.0674807,-1.032025,-0.3818372,-0.0200756
309.9966,0.04250898,-0.3782291,-0.0674807,-1.032025,-0.3818372,-0.0200756
310.0105,0.04253731,-0.3776191,-0.05976296,-1.015869,-0.3802881,-0.02007473
310.0261,0.04256526,-0.3770163,-0.0522048,-0.9999633,-0.3787624,-0.02007383
310.0406,0.04259285,-0.3764209,-0.04480336,-0.9843051,-0.3772618,-0.02007293
310.0552,0.04259285,-0.3764209,-0.04480336,-0.9843051,-0.3772618,-0.02007293
310.0694,0.04262007,-0.3758325,-0.03755579,-0.9688906,-0.3757877,-0.02007202
310.0845,0.04264694,-0.3752512,-0.03045926,-0.9537161,-0.3743414,-0.02007109
310.0992,0.04264694,-0.3752512,-0.03045926,-0.9537161,-0.3743414,-0.02007109
310.1132,0.04267346,-0.3746769,-0.02351099,-0.938778,-0.372924,-0.02007015
310.1285,0.04269963,-0.3741094,-0.01670819,-0.9240727,-0.3715365,-0.02006919
310.1452,0.04272546,-0.3735487,-0.01004812,-0.9095968,-0.3701797,-0.02006822
310.1629,0.04275095,-0.3729948,-0.003528082,-0.8953468,-0.3688544,-0.02006724
310.1721,0.04275095,-0.3729948,-0.003528082,-0.8953468,-0.3688544,-0.02006724
310.1863,0.04277611,-0.3724475,0.002854616,-0.8813192,-0.3675612,-0.02006624
310.2015,0.04280094,-0.3719067,0.009102618,-0.8675106,-0.3663006,-0.02006522
310.2162,0.04280094,-0.3719067,0.009102618,-0.8675106,-0.3663006,-0.02006522
310.2302,0.04282545,-0.3713724,0.01521854,-0.8539178,-0.3650729,-0.02006419
310.2455,0.04284964,-0.3708445,0.02120495,-0.8405375,-0.3638786,-0.02006314
310.2602,0.04287352,-0.370323,0.0270644,-0.8273664,-0.3627177,-0.02006208
310.2751,0.04287352,-0.370323,0.0270644,-0.8273664,-0.3627177,-0.02006208
310.2888,0.04289708,-0.3698077,0.0327994,-0.8144013,-0.3615906,-0.02006099
310.3044,0.04292034,-0.3692985,0.03841244,-0.801639,-0.3604973,-0.02005989
310.319,0.04292034,-0.3692985,0.03841244,-0.801639,-0.3604973,-0.02005989
310.3328,0.0429433,-0.3687955,0.04390594,-0.7890765,-0.3594378,-0.02005877
310.3483,0.04296597,-0.3682985,0.04928231,-0.7767107,-0.358412,-0.02005764
310.3628,0.04298834,-0.3678074,0.05454392,-0.7645385,-0.3574199,-0.02005648
310.3773,0.04298834,-0.3678074,0.05454392,-0.7645385,-0.3574199,-0.02005648
310.3916,0.04301042,-0.3673222,0.05969312,-0.7525571,-0.3564614,-0.02005531
310.4067,0.04303222,-0.3668428,0.06473221,-0.7407634,-0.3555363,-0.02005411
310.4234,0.04305374,-0.3663692,0.06966344,-0.7291545,-0.3546443,-0.02005289
310.4367,0.04305374,-0.3663692,0.06966344,-0.7291545,-0.3546443,-0.02005289
310.4509,0.04307498,-0.3659012,0.07448906,-0.7177277,-0.3537852,-0.02005165
310.4654,0.04309595,-0.3654388,0.07921126,-0.70648,-0.3529586,-0.02005039
310.4796,0.04309595,-0.3654388,0.07921126,-0.70648,-0.3529586,-0.02005039
310.4937,0.04311665,-0.364982,0.0838322,-0.6954087,-0.3521644,-0.02004911
310.5089,0.04313709,-0.3645306,0.08835403,-0.6845111,-0.351402,-0.02004781
310.5235,0.04315726,-0.3640847,0.09277882,-0.6737846,-0.3506712,-0.02004648
310.538,0.04315726,-0.3640847,0.09277882,-0.6737846,-0.3506712,-0.02004648
310.552,0.04317718,-0.363644,0.09710866,-0.6632263,-0.3499715,-0.02004513
310.5677,0.04319685,-0.3632087,0.1013456,-0.6528338,-0.3493026,-0.02004375
310.5822,0.04321626,-0.3627785,0.1054915,-0.6426044,-0.3486639,-0.02004235
310.597,0.04321626,-0.3627785,0.1054915,-0.6426044,-0.3486639,-0.02004235
310.6109,0.04323542,-0.3623535,0.1095485,-0.6325356,-0.348055,-0.02004092
310.6264,0.04325435,-0.3619336,0.1135185,-0.6226249,-0.3474755,-0.02003946
310.6407,0.04327303,-0.3615187,0.1174033,-0.6128699,-0.3469249,-0.02003798
310.6554,0.04327303,-0.3615187,0.1174033,-0.6128699,-0.3469249,-0.02003798
310.6693,0.04329148,-0.3611088,0.1212048,-0.6032681,-0.3464026,-0.02003646
310.6846,0.04330969,-0.3607038,0.124925,-0.5938172,-0.3459083,-0.02003492
310.6992,0.04330969,-0.3607038,0.124925,-0.5938172,-0.3459083,-0.02003492
310.7155,0.04332767,-0.3603036,0.1285655,-0.5845148,-0.3454414,-0.02003335
310.7295,0.04334543,-0.3599082,0.1321281,-0.5753586,-0.3450013,-0.02003175
310.743,0.04336296,-0.3595175,0.1356147,-0.5663462,-0.3445876,-0.02003012
310.7575,0.04336296,-0.3595175,0.1356147,-0.5663462,-0.3445876,-0.02003012
310.7713,0.04338027,-0.3591315,0.1390269,-0.5574756,-0.3441998,-0.02002846
310.7869,0.04339737,-0.3587501,0.1423809,-0.5488889,-0.3438578,-0.02002707
310.8015,0.04341425,-0.3583733,0.1456627,-0.5405214,-0.3435414,-0.02002553
310.8159,0.04341425,-0.3583733,0.1456627,-0.5405214,-0.3435414,-0.02002553
310.8299,0.04343091,-0.358001,0.1488708,-0.5323261,-0.3432448,-0.0200239
310.8456,0.04344737,-0.3576331,0.1520085,-0.5242792,-0.3429675,-0.02002222
310.8601,0.04346364,-0.3572697,0.1552124,-0.5175962,-0.3428913,-0.02002348
310.8753,0.04346364,-0.3572697,0.1552124,-0.5175962,-0.3428913,-0.02002348
310.8886,0.04347971,-0.3569106,0.1583423,-0.5117398,-0.3428452,-0.02002349
310.9038,0.04349558,-0.3565557,0.1613724,-0.5063223,-0.3427801,-0.02002298
310.9185,0.04349558,-0.3565557,0.1613724,-0.5063223,-0.3427801,-0.02002298
310.9326,0.04351128,-0.3562052,0.1644555,-0.5023848,-0.3428824,-0.02002547
310.9479,0.04352678,-0.3558588,0.1674591,-0.4993068,-0.3429871,-0.02002654
310.9626,0.04354208,-0.3555165,0.1703662,-0.4966606,-0.3430534,-0.02002702
310.9771,0.04354208,-0.3555165,0.1703662,-0.4966606,-0.3430534,-0.02002702
310.9911,0.0435572,-0.3551784,0.1731957,-0.4942406,-0.3430885,-0.02002725
311.0075,0.04357215,-0.3548442,0.1761109,-0.4931753,-0.3432955,-0.02003077
311.0219,0.04358691,-0.3545141,0.1789712,-0.4928866,-0.3435061,-0.0200328
311.0356,0.04358691,-0.3545141,0.1789712,-0.4928866,-0.3435061,-0.0200328
311.0497,0.0436015,-0.3541879,0.181754,-0.4929675,-0.3436767,-0.02003422
311.0651,0.0436159,-0.3538657,0.1844751,-0.4932228,-0.3438127,-0.02003536
311.0795,0.0436159,-0.3538657,0.1844751,-0.4932228,-0.3438127,-0.02003536
311.0935,0.04363015,-0.3535472,0.1872965,-0.4947864,-0.3441163,-0.02003979
311.1088,0.04364422,-0.3532326,0.190074,-0.4970831,-0.3444171,-0.02004268
311.1234,0.04365813,-0.3529217,0.1927845,-0.4997077,-0.3446714,-0.02004489
311.1377,0.04365813,-0.3529217,0.1927845,-0.4997077,-0.3446714,-0.02004489
311.152,0.043672,-0.3526146,0.1966811,-0.5131574,-0.3465189,-0.02007585
311.1673,0.04368573,-0.3523111,0.2003755,-0.5327258,-0.3483535,-0.02009344
311.1821,0.04369929,-0.3520113,0.2036383,-0.5550293,-0.3497646,-0.02010522
311.1967,0.04369929,-0.3520113,0.2036383,-0.5550293,-0.3497646,-0.02010522
311.2107,0.04371267,-0.3517151,0.206613,-0.578447,-0.3508019,-0.02011419
311.2261,0.04372587,-0.3514224,0.2094548,-0.6022022,-0.3515806,-0.02012154
311.2405,0.0437389,-0.3511331,0.2122624,-0.6259235,-0.3521908,-0.02012778
311.2552,0.0437389,-0.3511331,0.2122624,-0.6259235,-0.3521908,-0.02012778
311.2692,0.04375178,-0.3508474,0.2150869,-0.6494346,-0.35269,-0.02013316
311.2864,0.04376451,-0.350565,0.2179493,-0.6726531,-0.353113,-0.02013783
311.3,0.04376451,-0.350565,0.2179493,-0.6726531,-0.353113,-0.02013783
311.3137,0.04377709,-0.350286,0.2234141,-0.6955234,-0.3573518,-0.02014611
311.3282,0.04378954,-0.3500103,0.2292639,-0.7180248,-0.3629988,-0.02015046
311.3427,0.04380186,-0.3497379,0.2347494,-0.7401692,-0.3689331,-0.02015355
311.3571,0.04380186,-0.3497379,0.2347494,-0.7401692,-0.3689331,-0.02015355
311.3712,0.04381406,-0.3494686,0.2386999,-0.7619792,-0.3730106,-0.02015468
311.3865,0.04382613,-0.3492026,0.2422192,-0.7834655,-0.3763473,-0.02015695
311.401,0.04383807,-0.3489397,0.2456889,-0.8046274,-0.3794509,-0.02015925
311.4157,0.04383807,-0.3489397,0.2456889,-0.8046274,-0.3794509,-0.02015925
311.4296,0.0438499,-0.34868,0.2491742,-0.8254632,-0.3824706,-0.02016128
311.4451,0.04386161,-0.3484232,0.2515968,-0.8459833,-0.383456,-0.02016192
311.4597,0.04386161,-0.3484232,0.2515968,-0.8459833,-0.383456,-0.02016192
311.4738,0.04387321,-0.3481696,0.2540296,-0.8661956,-0.3838584,-0.0201635
311.4889,0.04388469,-0.3479189,0.2566751,-0.8860942,-0.384189,-0.02016492
311.5035,0.04389606,-0.3476712,0.2594738,-0.9056771,-0.3845434,-0.02016602
311.5183,0.04389606,-0.3476712,0.2594738,-0.9056771,-0.3845434,-0.02016602
311.5322,0.04390732,-0.3474264,0.2613298,-0.9249559,-0.3827493,-0.02016614
311.5477,0.04391848,-0.3471845,0.2633452,-0.9439415,-0.3805331,-0.02016702
311.5622,0.04392952,-0.3469454,0.2656221,-0.9626268,-0.3783561,-0.02016767
311.5789,0.04392952,-0.3469454,0.2656221,-0.9626268,-0.3783561,-0.02016767
311.5928,0.04394046,-0.3467092,0.2670871,-0.9810185,-0.3739614,-0.02016761
311.607,0.0439513,-0.3464758,0.2688297,-0.9991274,-0.3693034,-0.0201681
311.6204,0.04396203,-0.3462451,0.2708618,-1.016945,-0.3647723,-0.02016829
311.6351,0.04396203,-0.3462451,0.2708618,-1.016945,-0.3647723,-0.02016829
311.6489,0.04397266,-0.3460172,0.2730592,-1.03447,-0.360375,-0.02016821
311.6645,0.04398319,-0.3457919,0.2744521,-1.051715,-0.3536319,-0.02016782
311.6788,0.04398319,-0.3457919,0.2744521,-1.051715,-0.3536319,-0.02016782
311.693,0.04399362,-0.3455693,0.2761509,-1.068693,-0.346797,-0.02016777
311.7082,0.04400395,-0.3453493,0.2781014,-1.085394,-0.3401503,-0.02016743
311.7229,0.04401419,-0.3451319,0.2801881,-1.101821,-0.3336721,-0.02016686
311.7374,0.04401419,-0.3451319,0.2801881,-1.101821,-0.3336721,-0.02016686
311.7517,0.04402433,-0.3449171,0.2815587,-1.117982,-0.3247759,-0.02016628
311.7669,0.04403437,-0.3447048,0.2832597,-1.133891,-0.3159595,-0.02016576
311.7816,0.04404432,-0.3444951,0.2851776,-1.149539,-0.3073772,-0.02016498
311.7962,0.04404432,-0.3444951,0.2851776,-1.149539,-0.3073772,-0.02016498
311.8101,0.04405418,-0.3442878,0.2865036,-1.164931,-0.2963859,-0.02016426
311.8255,0.04406394,-0.3440829,0.2881785,-1.18008,-0.2855979,-0.02016345
311.8406,0.04407362,-0.3438804,0.2900545,-1.194979,-0.2750833,-0.02016237
311.856,0.04407362,-0.3438804,0.2900545,-1.194979,-0.2750833,-0.02016237
311.8706,0.04408319,-0.3436804,0.292037,-1.20963,-0.2648089,-0.02016112
311.8848,0.04409269,-0.3434827,0.2934926,-1.224038,-0.2521236,-0.02016005
311.8984,0.04409269,-0.3434827,0.2934926,-1.224038,-0.2521236,-0.02016005
311.9123,0.04410209,-0.3432873,0.2952482,-1.238219,-0.2397285,-0.02015877
311.9277,0.0441114,-0.3430943,0.2971613,-1.252166,-0.2276284,-0.02015729
311.9421,0.04412062,-0.3429036,0.299158,-1.265882,-0.2157966,-0.02015565
311.9584,0.04412062,-0.3429036,0.299158,-1.265882,-0.2157966,-0.02015565
311.9706,0.04412976,-0.342715,0.3007265,-1.27937,-0.2015983,-0.02015418
311.9861,0.04413881,-0.3425287,0.3025482,-1.292645,-0.1877388,-0.02015248
312.0006,0.04414777,-0.3423446,0.3044953,-1.305702,-0.1741936,-0.02015062
312.0154,0.04414777,-0.3423446,0.3044953,-1.305702,-0.1741936,-0.02015062
312.0295,0.04415666,-0.3421627,0.306106,-1.318541,-0.1583422,-0.02014886
312.045,0.04416545,-0.3419829,0.3079454,-1.331176,-0.1428613,-0.02014689
312.0596,0.04416545,-0.3419829,0.3079454,-1.331176,-0.1428613,-0.02014689
312.0734,0.04417416,-0.3418053,0.3098955,-1.343605,-0.1277205,-0.02014479
312.0887,0.04418278,-0.3416297,0.3119032,-1.355831,-0.1129005,-0.0201426
312.1035,0.04419133,-0.3414563,0.3136299,-1.367853,-0.09582037,-0.02014047
312.1181,0.04419133,-0.3414563,0.3136299,-1.367853,-0.09582037,-0.02014047
312.1322,0.04419979,-0.3412848,0.31553,-1.379685,-0.0791187,-0.02013821
312.1475,0.04420816,-0.3411154,0.3175121,-1.391328,-0.06277016,-0.02013588
312.163,0.04421645,-0.340948,0.3195357,-1.402784,-0.04675958,-0.0201335
312.1778,0.04421645,-0.340948,0.3195357,-1.402784,-0.04675958,-0.0201335
312.1917,0.04422467,-0.3407826,0.3213429,-1.414051,-0.02853185,-0.02013115
312.2057,0.0442328,-0.3406191,0.3232832,-1.425142,-0.01069039,-0.02012874
312.2205,0.04424085,-0.3404576,0.3252847,-1.436059,0.006784039,-0.02012632
312.2349,0.04424085,-0.3404576,0.3252847,-1.436059,0.006784039,-0.02012632
312.249,0.04424883,-0.340298,0.3271263,-1.446796,0.02643508,-0.02012391
312.2644,0.04425672,-0.3401403,0.3290809,-1.457368,0.04568012,-0.02012149
312.2788,0.04425672,-0.3401403,0.3290809,-1.457368,0.04568012,-0.02012149
312.293,0.04426454,-0.3399844,0.331087,-1.467777,0.06453526,-0.0201191
312.3085,0.04427227,-0.3398304,0.3331169,-1.478026,0.0830118,-0.02011674
312.3233,0.04427993,-0.3396782,0.3350276,-1.48811,0.1036382,-0.02011441
312.3376,0.04427993,-0.3396782,0.3350276,-1.48811,0.1036382,-0.02011441
312.3516,0.04428751,-0.3395278,0.3370155,-1.498042,0.1238489,-0.02011213
312.367,0.04429501,-0.3393791,0.3390369,-1.507826,0.1436561,-0.02010992
312.3815,0.04430243,-0.3392323,0.3410724,-1.517463,0.1630697,-0.02010778
312.3962,0.04430243,-0.3392323,0.3410724,-1.517463,0.1630697,-0.02010778
312.4102,0.04430978,-0.3390872,0.3430361,-1.52695,0.1846106,-0.02010571
312.4255,0.04431706,-0.3389437,0.3450491,-1.536298,0.205724,-0.02010374
312.442,0.04432426,-0.3388021,0.347082,-1.54551,0.22642,-0.02010188
312.4555,0.04432426,-0.3388021,0.347082,-1.54551,0.22642,-0.02010188
312.4695,0.04433138,-0.338662,0.3490824,-1.554582,0.2492176,-0.02010011
312.4839,0.04433843,-0.3385237,0.351116,-1.563525,0.2715661,-0.02009848
312.4983,0.04433843,-0.3385237,0.351116,-1.563525,0.2715661,-0.02009848
312.5122,0.0443454,-0.338387,0.3531619,-1.572341,0.2934751,-0.02009698
312.5275,0.0443523,-0.3382519,0.3552105,-1.581035,0.3149537,-0.02009562
312.5423,0.04435914,-0.3381183,0.3572653,-1.589601,0.3385206,-0.0200944
312.5569,0.04435914,-0.3381183,0.3572653,-1.589601,0.3385206,-0.0200944
312.5707,0.04436589,-0.3379864,0.3593282,-1.59805,0.361626,-0.02009334
312.5861,0.04437257,-0.3378561,0.3613913,-1.606384,0.3842792,-0.02009243
312.6007,0.04437917,-0.3377273,0.3634506,-1.614606,0.4064892,-0.02009166
312.6155,0.04437917,-0.3377273,0.3634506,-1.614606,0.4064892,-0.02009166
312.6296,0.04438571,-0.3376001,0.3655038,-1.622717,0.4282651,-0.02009104
312.6452,0.04439217,-0.3374743,0.3675494,-1.630721,0.4496156,-0.02009056
312.6597,0.04439217,-0.3374743,0.3675494,-1.630721,0.4496156,-0.02009056
312.6734,0.04439856,-0.3373501,0.369586,-1.638618,0.4705495,-0.02009021
312.6888,0.04440486,-0.3372274,0.371525,-1.646414,0.4885581,-0.02008989
312.7034,0.0444111,-0.3371061,0.3734726,-1.654106,0.5062169,-0.02008972
312.7181,0.0444111,-0.3371061,0.3734726,-1.654106,0.5062169,-0.02008972
312.734,0.04441727,-0.3369863,0.3754161,-1.661695,0.5235323,-0.02008965
312.7483,0.04442337,-0.3368679,0.3773497,-1.669182,0.540511,-0.02008969
312.7618,0.04442939,-0.3367509,0.3791385,-1.676568,0.5546349,-0.02008967
312.7764,0.04442939,-0.3367509,0.3791385,-1.676568,0.5546349,-0.02008967
312.7903,0.04443534,-0.3366353,0.3809499,-1.683854,0.5684878,-0.02008977
312.8054,0.04444123,-0.3365211,0.3827618,-1.691041,0.5820733,-0.02008996
312.82,0.04444123,-0.3365211,0.3827618,-1.691041,0.5820733,-0.02008996
312.8341,0.04444703,-0.3364083,0.3843991,-1.698127,0.592864,-0.02009002
312.8493,0.04445278,-0.3362968,0.3860722,-1.705114,0.6034514,-0.0200902
312.864,0.04445846,-0.3361866,0.3877506,-1.712003,0.6138363,-0.02009045
312.8787,0.04445846,-0.3361866,0.3877506,-1.712003,0.6138363,-0.02009045
312.8927,0.04446407,-0.3360778,0.3894209,-1.718796,0.6240209,-0.02009075
312.9084,0.04446961,-0.3359703,0.3908685,-1.725489,0.6314659,-0.02009085
312.9229,0.04447509,-0.335864,0.3923661,-1.732084,0.6387761,-0.02009105
312.9373,0.04447509,-0.335864,0.3923661,-1.732084,0.6387761,-0.02009105
312.9512,0.0444805,-0.335759,0.393875,-1.738584,0.6459492,-0.02009131
312.9666,0.04448585,-0.3356553,0.3953782,-1.744992,0.6529853,-0.02009161
312.9812,0.04449112,-0.3355528,0.3966169,-1.751301,0.6573308,-0.02009163
312.9958,0.04449112,-0.3355528,0.3966169,-1.751301,0.6573308,-0.02009163
313.0098,0.04449634,-0.3354516,0.3979226,-1.757514,0.6616057,-0.02009177
313.0269,0.04450149,-0.3353515,0.3992476,-1.763636,0.6658043,-0.02009195
313.0404,0.04450658,-0.3352527,0.4005709,-1.769668,0.6699244,-0.02009217
313.054,0.04450658,-0.3352527,0.4005709,-1.769668,0.6699244,-0.02009217
313.0681,0.04451161,-0.335155,0.4015898,-1.775604,0.6713977,-0.02009205
313.0832,0.04451657,-0.3350585,0.4026935,-1.781446,0.6728598,-0.02009205
313.0977,0.04451657,-0.3350585,0.4026935,-1.781446,0.6728598,-0.02009205
313.1117,0.04452147,-0.3349632,0.4038256,-1.7872,0.6743025,-0.0200921
313.1273,0.0445263,-0.334869,0.4046371,-1.79286,0.6731437,-0.0200918
313.1416,0.04453108,-0.3347759,0.4055527,-1.798429,0.6720281,-0.02009162
313.1563,0.04453108,-0.3347759,0.4055527,-1.798429,0.6720281,-0.02009162
313.1703,0.0445358,-0.334684,0.4065067,-1.803912,0.6709454,-0.0200915
313.1859,0.04454046,-0.3345931,0.4074695,-1.809312,0.6698887,-0.0200914
313.2005,0.04454505,-0.3345034,0.4080642,-1.814621,0.666266,-0.02009089
313.2152,0.04454505,-0.3345034,0.4080642,-1.814621,0.666266,-0.02009089
313.2291,0.0445496,-0.3344147,0.4087763,-1.81984,0.6627345,-0.02009049
313.2446,0.04455408,-0.3343271,0.4095351,-1.824978,0.6592854,-0.02009016
313.2591,0.04455408,-0.3343271,0.4095351,-1.824978,0.6592854,-0.02009016
313.273,0.0445585,-0.3342405,0.4099158,-1.830027,0.6533138,-0.02008942
313.2883,0.04456287,-0.334155,0.4104349,-1.834988,0.6474809,-0.0200888
313.3027,0.04456718,-0.3340705,0.4110125,-1.839872,0.6417784,-0.02008826
313.3194,0.04456718,-0.3340705,0.4110125,-1.839872,0.6417784,-0.02008826
313.3323,0.04457144,-0.333987,0.411611,-1.844679,0.6361946,-0.02008773
313.3467,0.04457564,-0.3339045,0.4117856,-1.849402,0.6281199,-0.02008676
313.3645,0.04457979,-0.333823,0.41211,-1.854039,0.6202216,-0.02008589
313.3759,0.04457979,-0.333823,0.41211,-1.854039,0.6202216,-0.02008589
313.3897,0.04458388,-0.3337424,0.4125013,-1.858602,0.612497,-0.0200851
313.4049,0.04458793,-0.3336629,0.4129196,-1.863094,0.6049322,-0.02008433
313.4196,0.04458793,-0.3336629,0.4129196,-1.863094,0.6049322,-0.02008433
313.4334,0.04459191,-0.3335843,0.4128846,-1.867506,0.5949115,-0.02008312
313.4487,0.04459585,-0.3335066,0.4130166,-1.871834,0.5851016,-0.02008199
313.4636,0.04459974,-0.3334299,0.4132271,-1.876093,0.5755067,-0.02008095
313.4781,0.04459974,-0.3334299,0.4132271,-1.876093,0.5755067,-0.02008095
313.4923,0.04460357,-0.3333541,0.4129856,-1.880275,0.5635007,-0.0200795
313.5076,0.04460735,-0.3332792,0.4129335,-1.884377,0.5517433,-0.02007811
313.522,0.04461109,-0.3332052,0.4129736,-1.888413,0.5402433,-0.02007684
313.5366,0.04461109,-0.3332052,0.4129736,-1.888413,0.5402433,-0.02007684
313.5506,0.04461478,-0.3331321,0.4130564,-1.892386,0.5289817,-0.02007561
313.566,0.04461841,-0.3330599,0.412644,-1.896289,0.5153366,-0.02007398
313.5807,0.044622,-0.3329885,0.412428,-1.900114,0.5019636,-0.02007237
313.5952,0.044622,-0.3329885,0.412428,-1.900114,0.5019636,-0.02007237
313.6112,0.04462554,-0.332918,0.412312,-1.903877,0.4888827,-0.02007088
313.6254,0.04462904,-0.3328483,0.4122447,-1.907583,0.4760731,-0.02006945
313.639,0.04462904,-0.3328483,0.4122447,-1.907583,0.4760731,-0.02006945
313.653,0.04463248,-0.3327795,0.4116595,-1.911222,0.4609129,-0.02006764
313.6682,0.04463588,-0.3327115,0.411285,-1.914788,0.4460469,-0.02006585
313.6826,0.04463924,-0.3326444,0.4110218,-1.918297,0.4315065,-0.02006419
313.6973,0.04463924,-0.3326444,0.4110218,-1.918297,0.4315065,-0.02006419
313.7114,0.04464255,-0.332578,0.4102516,-1.921745,0.4146608,-0.02006224
313.7267,0.04464582,-0.3325124,0.4097143,-1.925124,0.3981401,-0.0200603
313.7412,0.04464905,-0.3324476,0.4093023,-1.92845,0.3819824,-0.02005852
313.7558,0.04464905,-0.3324476,0.4093023,-1.92845,0.3819824,-0.02005852
313.7698,0.04465223,-0.3323836,0.4089547,-1.931726,0.3661617,-0.02005683
313.7855,0.04465537,-0.3323204,0.4080578,-1.934949,0.3480576,-0.02005487
313.7999,0.04465537,-0.3323204,0.4080578,-1.934949,0.3480576,-0.02005487
313.8138,0.04465846,-0.332258,0.4073956,-1.938107,0.3302912,-0.0200529
313.8292,0.04466152,-0.3321962,0.4068647,-1.941215,0.3129147,-0.02005111
313.8439,0.04466454,-0.3321352,0.4064027,-1.94428,0.295901,-0.02004942
313.8582,0.04466454,-0.3321352,0.4064027,-1.94428,0.295901,-0.02004942
313.8723,0.04466752,-0.332075,0.4053734,-1.947297,0.276633,-0.02004754
313.8875,0.04467045,-0.3320155,0.4045892,-1.950253,0.2577161,-0.02004568
313.9043,0.04467335,-0.3319567,0.4039458,-1.953166,0.2392155,-0.02004398
313.9181,0.04467335,-0.3319567,0.4039458,-1.953166,0.2392155,-0.02004398
313.9318,0.04467624,-0.3318985,0.4048227,-1.956042,0.2271156,-0.02004285
313.946,0.04467909,-0.331841,0.4052358,-1.95891,0.2153667,-0.02004196
313.9605,0.0446819,-0.3317842,0.4054015,-1.961742,0.2037642,-0.02004092
313.975,0.0446819,-0.3317842,0.4054015,-1.961742,0.2037642,-0.02004092
313.989,0.04468467,-0.3317282,0.4054662,-1.964531,0.1923512,-0.02003982
314.0044,0.0446874,-0.3316728,0.4054939,-1.967275,0.181148,-0.02003873
314.019,0.0446874,-0.3316728,0.4054939,-1.967275,0.181148,-0.02003873
314.0327,0.0446901,-0.331618,0.4055117,-1.969976,0.1701612,-0.02003766
314.0481,0.04469277,-0.3315639,0.4055309,-1.972635,0.1593909,-0.02003663
314.0657,0.0446954,-0.3315105,0.4055563,-1.975254,0.1488348,-0.02003563
314.0786,0.0446954,-0.3315105,0.4055563,-1.975254,0.1488348,-0.02003563
314.0915,0.04469804,-0.3314577,0.4041983,-1.968652,0.13785,-0.03503424
314.1067,0.04470067,-0.3314056,0.4035855,-1.965218,0.1273982,-0.04973892
314.1212,0.04470328,-0.331354,0.4032971,-1.963366,0.1173057,-0.06415537
314.136,0.04470328,-0.331354,0.4032971,-1.963366,0.1173057,-0.06415537
314.15,0.04470585,-0.3313031,0.4034035,-1.964364,0.1075987,-0.07496374
314.1658,0.04470837,-0.3312528,0.4034618,-1.965074,0.09807541,-0.08556021
314.1799,0.04470837,-0.3312528,0.4034618,-1.965074,0.09807541,-0.08556021
314.1961,0.04471087,-0.3312031,0.4035198,-1.965664,0.08874754,-0.09594893
314.2101,0.04471333,-0.3311539,0.4035966,-1.966215,0.07961981,-0.106134
314.2248,0.04471575,-0.3311054,0.4038636,-1.968822,0.07076414,-0.1127861
314.2384,0.04471575,-0.3311054,0.4038636,-1.968822,0.07076414,-0.1127861
314.2523,0.04471813,-0.3310574,0.4040594,-1.970727,0.06206237,-0.1193078
314.2675,0.04472048,-0.33101,0.404239,-1.972296,0.05353046,-0.1257016
314.2821,0.0447228,-0.3309632,0.4044241,-1.973707,0.04517476,-0.1319701
314.297,0.0447228,-0.3309632,0.4044241,-1.973707,0.04517476,-0.1319701
314.3109,0.04472509,-0.3309169,0.4047159,-1.977106,0.03703449,-0.1347823
314.3263,0.04472733,-0.3308712,0.404957,-1.979751,0.02903925,-0.1375395
314.3408,0.04472955,-0.330826,0.4051848,-1.982022,0.02119838,-0.1402426
314.3554,0.04472955,-0.330826,0.4051848,-1.982022,0.02119838,-0.1402426
314.3694,0.04473173,-0.3307813,0.4054578,-1.986164,0.01353022,-0.1395594
314.3847,0.04473387,-0.3307372,0.4056936,-1.989481,0.005999922,-0.1388897
314.3994,0.04473387,-0.3307372,0.4056936,-1.989481,0.005999922,-0.1388897
314.4134,0.04473599,-0.3306937,0.4059184,-1.992375,-0.001386931,-0.1382331
314.4287,0.04473808,-0.3306506,0.4061419,-1.995044,-0.008629114,-0.1375894
314.4436,0.04474013,-0.3306081,0.4063489,-1.999646,-0.01574455,-0.133625
314.458,0.04474013,-0.3306081,0.4063489,-1.999646,-0.01574455,-0.133625
314.4717,0.04474215,-0.330566,0.4065436,-2.003439,-0.02272545,-0.1297384
314.4892,0.04474414,-0.3305245,0.4067352,-2.006808,-0.02957219,-0.125928
314.5026,0.0447461,-0.3304835,0.4069265,-2.009938,-0.0362867,-0.1221923
314.5163,0.0447461,-0.3304835,0.4069265,-2.009938,-0.0362867,-0.1221923
314.5302,0.04474803,-0.330443,0.4070405,-2.014983,-0.0429192,-0.1151966
314.5454,0.04474993,-0.3304029,0.4071662,-2.019201,-0.04941839,-0.1083381
314.5599,0.04474993,-0.3304029,0.4071662,-2.019201,-0.04941839,-0.1083381
314.5738,0.04475179,-0.3303633,0.4072977,-2.022975,-0.05578984,-0.1016141
314.5894,0.04475362,-0.3303242,0.4073114,-2.028551,-0.06210985,-0.09168862
314.6038,0.04475542,-0.3302856,0.4073555,-2.033238,-0.06829531,-0.08195782
314.6183,0.04475542,-0.3302856,0.4073555,-2.033238,-0.06829531,-0.08195782
314.6324,0.04475719,-0.3302475,0.4074131,-2.037439,-0.07435623,-0.07241783
314.6477,0.04475894,-0.3302098,0.4074756,-2.041354,-0.08030006,-0.06306492
314.6626,0.04476066,-0.3301725,0.4073649,-2.047135,-0.08623445,-0.05056214
314.6772,0.04476066,-0.3301725,0.4073649,-2.047135,-0.08623445,-0.05056214
314.691,0.04476234,-0.3301357,0.407308,-2.052052,-0.09203114,-0.03830453
314.7066,0.044764,-0.3300993,0.4072751,-2.056489,-0.09770546,-0.02628729
314.7209,0.04476563,-0.3300634,0.407252,-2.060633,-0.1032677,-0.01450568
314.7358,0.04476563,-0.3300634,0.407252,-2.060633,-0.1032677,-0.01450568
314.7496,0.04476723,-0.3300279,0.4070058,-2.06663,-0.1088589,0.0003781421
314.7649,0.0447688,-0.3299929,0.4068384,-2.071752,-0.114306,0.01497013
314.7816,0.04477034,-0.3299583,0.4067066,-2.076381,-0.1196306,0.029276
314.7952,0.04477034,-0.3299583,0.4067066,-2.076381,-0.1196306,0.029276
314.8091,0.04477185,-0.329924,0.4065275,-2.081192,-0.1248841,0.04409345
314.8232,0.04477335,-0.3298903,0.4063785,-2.08562,-0.1300231,0.05862036
314.8377,0.04477335,-0.3298903,0.4063785,-2.08562,-0.1300231,0.05862036
314.8516,0.04477482,-0.3298569,0.406244,-2.089795,-0.1350571,0.07286243
314.8672,0.04477627,-0.3298239,0.4061173,-2.093785,-0.1399917,0.08682524
314.8817,0.0447777,-0.3297913,0.4059962,-2.097622,-0.14483,0.1005143
314.8963,0.0447777,-0.3297913,0.4059962,-2.097622,-0.14483,0.1005143
314.9103,0.0447791,-0.3297591,0.40588,-2.101325,-0.1495738,0.1139349
314.9255,0.04478048,-0.3297273,0.4057687,-2.104903,-0.1542248,0.1270924
314.9401,0.04478184,-0.3296959,0.4056628,-2.108364,-0.158784,0.1399918
314.9549,0.04478184,-0.3296959,0.4056628,-2.108364,-0.158784,0.1399918
314.9688,0.04478319,-0.3296649,0.4056478,-2.111228,-0.1631999,0.1518463
314.9845,0.04478451,-0.3296342,0.405607,-2.114152,-0.1675447,0.1634683
314.999,0.04478451,-0.3296342,0.405607,-2.114152,-0.1675447,0.1634683
315.0129,0.04478581,-0.329604,0.4055587,-2.117056,-0.1718103,0.1748624
315.0283,0.04478711,-0.3295741,0.4059009,-2.117868,-0.1757502,0.1826999
315.0429,0.04478839,-0.3295445,0.4060976,-2.11932,-0.1796924,0.1903837
315.0575,0.04478839,-0.3295445,0.4060976,-2.11932,-0.1796924,0.1903837
315.0734,0.04478965,-0.3295154,0.4062347,-2.12105,-0.1835932,0.1979168
315.0876,0.0447909,-0.3294865,0.4063503,-2.122882,-0.1874316,0.2053022
315.1011,0.04479214,-0.329458,0.4068864,-2.122704,-0.1909329,0.2092095
315.1157,0.04479214,-0.329458,0.4068864,-2.122704,-0.1909329,0.2092095
315.1297,0.04479337,-0.3294299,0.4072572,-2.123217,-0.1944556,0.2130402
315.1448,0.04479458,-0.3294021,0.4075591,-2.124049,-0.1979498,0.2167958
315.1596,0.04479458,-0.3294021,0.4075591,-2.124049,-0.1979498,0.2167958
315.1734,0.04479579,-0.3293746,0.4082839,-2.122994,-0.2011113,0.2171445
315.1887,0.04479698,-0.3293475,0.4088219,-2.122701,-0.2043133,0.2174863
315.2033,0.04479816,-0.3293207,0.4092802,-2.122775,-0.2074991,0.2178214
315.218,0.04479816,-0.3293207,0.4092802,-2.122775,-0.2074991,0.2178214
315.232,0.04479933,-0.3292942,0.4097059,-2.123023,-0.210642,0.21815
315.2474,0.04480049,-0.329268,0.4105963,-2.121332,-0.2134337,0.2151388
315.2621,0.04480164,-0.3292422,0.4112908,-2.120388,-0.2162765,0.2121867
315.2768,0.04480164,-0.3292422,0.4112908,-2.120388,-0.2162765,0.2121867
315.2908,0.04480278,-0.3292166,0.4118997,-2.119814,-0.2191125,0.2092924
315.3058,0.04480391,-0.3291914,0.4124711,-2.119429,-0.2219143,0.2064549
315.3206,0.04480503,-0.3291664,0.4135273,-2.11713,-0.22436,0.2003398
315.3352,0.04480503,-0.3291664,0.4135273,-2.11713,-0.22436,0.2003398
315.349,0.04480615,-0.3291418,0.4143722,-2.115595,-0.2268711,0.1943446
315.3655,0.04480726,-0.3291174,0.4151225,-2.114453,-0.2293863,0.1884669
315.3802,0.04480835,-0.3290934,0.415829,-2.113519,-0.2318765,0.1827044
315.3941,0.04480835,-0.3290934,0.415829,-2.113519,-0.2318765,0.1827044
315.4078,0.04480944,-0.3290696,0.417036,-2.110698,-0.2340086,0.1737218
315.4229,0.04481052,-0.3290461,0.4180174,-2.108659,-0.2362189,0.1649152
315.4373,0.04481052,-0.3290461,0.4180174,-2.108659,-0.2362189,0.1649152
315.4515,0.0448116,-0.3290229,0.4188954,-2.107031,-0.2384435,0.1562813
315.4669,0.04481268,-0.329,0.4202588,-2.103625,-0.240326,0.1444835
315.4813,0.04481374,-0.3289773,0.4213761,-2.101064,-0.2423026,0.132917
315.4962,0.04481374,-0.3289773,0.4213761,-2.101064,-0.2423026,0.132917
315.5101,0.04481481,-0.328955,0.4223787,-2.098954,-0.2443043,0.1215773
315.5256,0.04481586,-0.3289328,0.423324,-2.097102,-0.2462975,0.1104599
315.5401,0.04481691,-0.3289109,0.4247864,-2.09341,-0.2479367,0.09622733
315.5547,0.04481691,-0.3289109,0.4247864,-2.09341,-0.2479367,0.09622733
315.5688,0.04481795,-0.3288893,0.4260006,-2.090537,-0.2496728,0.0822738
315.5843,0.04481899,-0.328868,0.4270961,-2.08811,-0.2514392,0.06859386
315.5988,0.04481899,-0.328868,0.4270961,-2.08811,-0.2514392,0.06859386
315.6143,0.04409207,-0.3288493,0.4263542,-2.092555,-0.2543138,0.06685606
315.6283,0.04291024,-0.3288318,0.4264199,-2.094595,-0.2567079,0.06515255
315.645,0.04144717,-0.3288149,0.4268143,-2.095516,-0.2588514,0.06348252
315.6585,0.04144717,-0.3288149,0.4268143,-2.095516,-0.2588514,0.06348252
315.6724,0.03981332,-0.3287982,0.4273288,-2.095927,-0.2608663,0.06184526
315.6867,0.03807888,-0.3287815,0.4278797,-2.096115,-0.2628068,0.0602401
315.7012,0.03628843,-0.3287648,0.4284353,-2.096212,-0.2646961,0.05866639
315.7158,0.03628843,-0.3287648,0.4284353,-2.096212,-0.2646961,0.05866639
315.7298,0.03447023,-0.3287481,0.4289847,-2.096279,-0.2665437,0.05712353
315.7451,0.03264219,-0.3287315,0.4295252,-2.09634,-0.2683538,0.05561092
315.7598,0.03264219,-0.3287315,0.4295252,-2.09634,-0.2683538,0.05561092
315.7736,0.03081563,-0.3287149,0.4300565,-2.096408,-0.2701281,0.05412797
315.7889,0.02899764,-0.3286984,0.4305792,-2.096486,-0.2718675,0.05267409
315.8038,0.02719265,-0.3286819,0.431094,-2.096575,-0.2735727,0.05124872
315.8185,0.02719265,-0.3286819,0.431094,-2.096575,-0.2735727,0.05124872
315.8328,0.02540341,-0.3286657,0.4316015,-2.096675,-0.2752441,0.0498513
315.8479,0.02363156,-0.3286495,0.4321022,-2.096785,-0.2768825,0.04848128
315.8643,0.02187807,-0.3286335,0.4325963,-2.096904,-0.2784883,0.04713812
315.8766,0.02187807,-0.3286335,0.4325963,-2.096904,-0.2784883,0.04713812
315.891,0.02014348,-0.3286177,0.433084,-2.097033,-0.2800622,0.04582131
315.9063,0.01842804,-0.328602,0.4335655,-2.09717,-0.2816047,0.04453031
315.9233,0.01673183,-0.3285865,0.4340409,-2.097316,-0.2831164,0.04326462
315.9365,0.01673183,-0.3285865,0.4340409,-2.097316,-0.2831164,0.04326462
315.9505,0.01505483,-0.3285711,0.4345103,-2.097469,-0.2845981,0.04202376
315.9649,0.01339692,-0.3285559,0.4349737,-2.09763,-0.2860501,0.04080722
315.9795,0.01339692,-0.3285559,0.4349737,-2.09763,-0.2860501,0.04080722
315.9936,0.01175797,-0.3285409,0.4354313,-2.097797,-0.2874732,0.03961454
316.0085,0.01013782,-0.328526,0.435883,-2.097972,-0.288868,0.03844525
316.0233,0.008536266,-0.3285113,0.436329,-2.098153,-0.2902349,0.03729889
316.0376,0.008536266,-0.3285113,0.436329,-2.098153,-0.2902349,0.03729889
316.0518,0.006953126,-0.3284967,0.4367692,-2.098341,-0.2915746,0.03617499
316.0671,0.005388197,-0.3284823,0.4372038,-2.098534,-0.2928877,0.03507315
316.0816,0.003841279,-0.3284681,0.4376327,-2.098734,-0.2941745,0.0339929
316.0963,0.003841279,-0.3284681,0.4376327,-2.098734,-0.2941745,0.0339929
316.1104,0.002312168,-0.328454,0.438056,-2.098939,-0.2954358,0.03293383
