JMolnar6/NonAnthroHands_User_Study/HandsLoggerWithURDF/tempdata/files/Reachy_JointMotion_gesture_12_60.csv
Time,r_shoulder,r_shoulder_x,r_upper_arm,r_forearm,r_wrist,r_wrist2hand,
865.7773,-0.7134665,2.872757E-09,NaN,-0.7189353,-1.319792E-07,NaN,0.07843708,-5.277872E-07,NaN,-0.6510877,2.375381E-05,0.09990622,8.470132E-08,NaN,NaN,0.1319093,2.933653E-10,-2.570942E-06,-1.098924E-07,1.896606E-08,-2.622604E-08
865.7927,-0.7086006,2.873399E-09,NaN,-0.7145554,-1.3198E-07,NaN,0.07770891,-5.278162E-07,NaN,-0.6496244,2.375422E-05,0.101642,8.473148E-08,NaN,NaN,0.1320402,2.933653E-10,-2.559021E-06,-1.098933E-07,1.837001E-08,-2.861022E-08
865.8084,-0.7036577,2.874041E-09,NaN,-0.7101049,-1.319809E-07,NaN,0.07691003,-5.278474E-07,NaN,-0.6481481,2.375462E-05,0.1035775,8.476383E-08,NaN,NaN,0.1321687,2.933653E-10,-2.550676E-06,-1.098943E-07,1.926408E-08,-2.622604E-08
865.8242,-0.6986966,2.874683E-09,NaN,-0.7056329,-1.319817E-07,NaN,0.07619171,-5.278778E-07,NaN,-0.6466588,2.375503E-05,0.105522,8.479549E-08,NaN,NaN,0.1322948,2.933653E-10,-2.542332E-06,-1.098952E-07,1.479373E-08,-2.861022E-08
865.8403,-0.6937505,2.875325E-09,NaN,-0.7011682,-1.319825E-07,NaN,0.07558156,-5.279105E-07,NaN,-0.645164,2.375543E-05,0.1074117,8.48293E-08,NaN,NaN,0.1324184,2.980219E-10,-2.536371E-06,-1.098961E-07,1.330362E-08,-2.622604E-08
865.856,-0.6937505,2.875325E-09,NaN,-0.7011682,-1.319825E-07,NaN,0.07558156,-5.279105E-07,NaN,-0.645164,2.375543E-05,0.1074117,8.48293E-08,NaN,NaN,0.1324184,2.980219E-10,-2.536371E-06,-1.098961E-07,1.330362E-08,-2.622604E-08
865.8713,-0.689072,2.875967E-09,NaN,-0.6969272,-1.319834E-07,NaN,0.07563062,-5.279424E-07,NaN,-0.6439238,2.375583E-05,0.1085593,8.486241E-08,NaN,NaN,0.1328212,2.980219E-10,-2.530411E-06,-1.09897E-07,1.419769E-08,-2.861022E-08
865.8874,-0.6845689,2.876609E-09,NaN,-0.6928347,-1.319842E-07,NaN,0.07585689,-5.279765E-07,NaN,-0.6427153,2.375624E-05,0.1094056,8.489764E-08,NaN,NaN,0.1332158,2.980219E-10,-2.514914E-06,-1.09898E-07,1.032339E-08,-2.622604E-08
865.903,-0.6801884,2.877252E-09,NaN,-0.6888466,-1.31985E-07,NaN,0.07609281,-5.280126E-07,NaN,-0.6415418,2.375665E-05,0.1101469,8.493495E-08,NaN,NaN,0.1336026,2.980219E-10,-2.500609E-06,-1.098989E-07,1.18135E-08,-2.861022E-08
865.9205,-0.6758999,2.877894E-09,NaN,-0.6849371,-1.319858E-07,NaN,0.0762979,-5.28048E-07,NaN,-0.6403982,2.375705E-05,0.1108533,8.497149E-08,NaN,NaN,0.1339818,2.980219E-10,-2.483919E-06,-1.098998E-07,1.151548E-08,-2.622604E-08
865.9349,-0.6758999,2.877894E-09,NaN,-0.6849371,-1.319858E-07,NaN,0.0762979,-5.28048E-07,NaN,-0.6403982,2.375705E-05,0.1108533,8.497149E-08,NaN,NaN,0.1339818,2.980219E-10,-2.483919E-06,-1.098998E-07,1.151548E-08,-2.622604E-08
865.9498,-0.6719179,2.878537E-09,NaN,-0.6812907,-1.319867E-07,NaN,0.07703625,-5.280854E-07,NaN,-0.6395307,2.375746E-05,0.1108734,8.501009E-08,NaN,NaN,0.1346352,2.980219E-10,-2.469614E-06,-1.099007E-07,1.151548E-08,-2.861022E-08
865.9665,-0.6681317,2.879179E-09,NaN,-0.6778148,-1.319875E-07,NaN,0.07785777,-5.28122E-07,NaN,-0.638706,2.375786E-05,0.1106484,8.504787E-08,NaN,NaN,0.1352755,2.980219E-10,-2.448156E-06,-1.099016E-07,7.343153E-09,-2.622604E-08
865.9823,-0.6644773,2.879822E-09,NaN,-0.6744546,-1.319883E-07,NaN,0.07862326,-5.281606E-07,NaN,-0.6379204,2.375827E-05,0.110365,8.508769E-08,NaN,NaN,0.1359032,2.980219E-10,-2.427891E-06,-1.099025E-07,6.747107E-09,-2.861022E-08
865.9979,-0.6644773,2.879822E-09,NaN,-0.6744546,-1.319883E-07,NaN,0.07862326,-5.281606E-07,NaN,-0.6379204,2.375827E-05,0.110365,8.508769E-08,NaN,NaN,0.1359032,2.980219E-10,-2.427891E-06,-1.099025E-07,6.747107E-09,-2.861022E-08
866.0129,-0.6609173,2.880465E-09,NaN,-0.6711774,-1.319891E-07,NaN,0.07931212,-5.281985E-07,NaN,-0.6371645,2.375867E-05,0.1100845,8.512669E-08,NaN,NaN,0.1365187,2.980219E-10,-2.404049E-06,-1.099035E-07,5.555014E-09,-2.622604E-08
866.0294,-0.6576604,2.881107E-09,NaN,-0.6681639,-1.319899E-07,NaN,0.08049981,-5.282383E-07,NaN,-0.6366819,2.375908E-05,0.1091499,8.516769E-08,NaN,NaN,0.1374035,2.980219E-10,-2.384975E-06,-1.099044E-07,5.256991E-09,-2.861022E-08
866.0452,-0.6545959,2.88175E-09,NaN,-0.6653198,-1.319907E-07,NaN,0.08174676,-5.282773E-07,NaN,-0.6362371,2.375948E-05,0.1079959,8.520784E-08,NaN,NaN,0.1382709,2.980219E-10,-2.361134E-06,-1.099053E-07,2.872805E-09,-2.622604E-08
866.061,-0.6516587,2.882393E-09,NaN,-0.662589,-1.319915E-07,NaN,0.08291889,-5.283155E-07,NaN,-0.6358259,2.375989E-05,0.1068057,8.524716E-08,NaN,NaN,0.1391212,2.980219E-10,-2.334908E-06,-1.099062E-07,1.680712E-09,-2.861022E-08
866.0768,-0.6516587,2.882393E-09,NaN,-0.662589,-1.319915E-07,NaN,0.08291889,-5.283155E-07,NaN,-0.6358259,2.375989E-05,0.1068057,8.524716E-08,NaN,NaN,0.1391212,2.980219E-10,-2.334908E-06,-1.099062E-07,1.680712E-09,-2.861022E-08
866.0917,-0.6488104,2.883037E-09,NaN,-0.6599378,-1.319923E-07,NaN,0.08399814,-5.283556E-07,NaN,-0.6354387,2.376029E-05,0.1056388,8.528848E-08,NaN,NaN,0.1399548,3.026785E-10,-2.308682E-06,-1.09907E-07,4.886194E-10,-2.622604E-08
866.1086,-0.6462579,2.88368E-09,NaN,-0.6575459,-1.319931E-07,NaN,0.08555849,-5.283977E-07,NaN,-0.6353191,2.376069E-05,0.1038384,8.533176E-08,NaN,NaN,0.1410536,3.073351E-10,-2.283648E-06,-1.099079E-07,1.680712E-09,-2.861022E-08
866.124,-0.6438919,2.884323E-09,NaN,-0.6553194,-1.319939E-07,NaN,0.08716486,-5.284389E-07,NaN,-0.6352308,2.37611E-05,0.1018363,8.537415E-08,NaN,NaN,0.1421307,3.073351E-10,-2.253845E-06,-1.099088E-07,-2.491613E-09,-2.622604E-08
866.1399,-0.6438919,2.884323E-09,NaN,-0.6553194,-1.319939E-07,NaN,0.08716486,-5.284389E-07,NaN,-0.6352308,2.37611E-05,0.1018363,8.537415E-08,NaN,NaN,0.1421307,3.073351E-10,-2.253845E-06,-1.099088E-07,-2.491613E-09,-2.622604E-08
866.1548,-0.6416473,2.884967E-09,NaN,-0.653202,-1.319947E-07,NaN,0.08868387,-5.284821E-07,NaN,-0.6351699,2.37615E-05,0.09981483,8.541848E-08,NaN,NaN,0.1431866,3.073351E-10,-2.225831E-06,-1.099097E-07,-3.087659E-09,-2.861022E-08
866.1712,-0.6394853,2.88561E-09,NaN,-0.6511595,-1.319955E-07,NaN,0.09009749,-5.285243E-07,NaN,-0.6351272,2.376189E-05,0.09783329,8.546189E-08,NaN,NaN,0.1442218,3.073351E-10,-2.196625E-06,-1.099106E-07,-3.087659E-09,-2.622604E-08
866.1871,-0.6376117,2.886254E-09,NaN,-0.6493712,-1.319963E-07,NaN,0.09197565,-5.285685E-07,NaN,-0.6353469,2.376228E-05,0.09523714,8.550723E-08,NaN,NaN,0.1455182,3.073351E-10,-2.166822E-06,-1.099115E-07,-3.087659E-09,-2.861022E-08
866.2027,-0.6359186,2.886897E-09,NaN,-0.6477439,-1.319971E-07,NaN,0.09388823,-5.286117E-07,NaN,-0.6355917,2.376267E-05,0.09245439,8.555164E-08,NaN,NaN,0.1467891,3.073351E-10,-2.13404E-06,-1.099124E-07,-7.259985E-09,-2.622604E-08
866.2186,-0.6359186,2.886897E-09,NaN,-0.6477439,-1.319971E-07,NaN,0.09388823,-5.286117E-07,NaN,-0.6355917,2.376267E-05,0.09245439,8.555164E-08,NaN,NaN,0.1467891,3.073351E-10,-2.13404E-06,-1.099124E-07,-7.259985E-09,-2.622604E-08
866.2336,-0.6343409,2.887541E-09,NaN,-0.646221,-1.319979E-07,NaN,0.09570197,-5.286569E-07,NaN,-0.635858,2.376305E-05,0.08966736,8.559795E-08,NaN,NaN,0.1480349,3.119917E-10,-2.100661E-06,-1.099132E-07,-7.856031E-09,-2.861022E-08
866.2499,-0.6328397,2.888184E-09,NaN,-0.6447681,-1.319986E-07,NaN,0.09739872,-5.287011E-07,NaN,-0.6361371,2.376343E-05,0.08693559,8.564331E-08,NaN,NaN,0.1492564,3.166483E-10,-2.068475E-06,-1.099141E-07,-5.471846E-09,-2.622604E-08
866.2656,-0.6316199,2.888828E-09,NaN,-0.6435641,-1.319994E-07,NaN,0.09954324,-5.287472E-07,NaN,-0.6366739,2.376382E-05,0.08360722,8.569057E-08,NaN,NaN,0.1507354,3.21305E-10,-2.033904E-06,-1.09915E-07,-4.279753E-09,-2.861022E-08
866.2814,-0.6305744,2.889471E-09,NaN,-0.6425164,-1.320002E-07,NaN,0.1017114,-5.287923E-07,NaN,-0.6372302,2.37642E-05,0.08010582,8.573684E-08,NaN,NaN,0.1521853,3.259616E-10,-1.999333E-06,-1.099158E-07,-5.471845E-09,-2.622604E-08
866.2973,-0.6305744,2.889471E-09,NaN,-0.6425164,-1.320002E-07,NaN,0.1017114,-5.287923E-07,NaN,-0.6372302,2.37642E-05,0.08010582,8.573684E-08,NaN,NaN,0.1521853,3.259616E-10,-1.999333E-06,-1.099158E-07,-5.471845E-09,-2.622604E-08
866.3124,-0.6296387,2.890115E-09,NaN,-0.6415684,-1.32001E-07,NaN,0.1037701,-5.288393E-07,NaN,-0.6378025,2.376458E-05,0.076614,8.578498E-08,NaN,NaN,0.1536067,3.306182E-10,-1.964762E-06,-1.099167E-07,-4.279753E-09,-2.861022E-08
866.3289,-0.6287736,2.890758E-09,NaN,-0.6406854,-1.320017E-07,NaN,0.1057009,-5.288853E-07,NaN,-0.6383827,2.376496E-05,0.07319158,8.583213E-08,NaN,NaN,0.1550002,3.352748E-10,-1.931384E-06,-1.099176E-07,-3.683706E-09,-2.622604E-08
866.3447,-0.6281831,2.891401E-09,NaN,-0.640046,-1.320025E-07,NaN,0.1080625,-5.289332E-07,NaN,-0.6392167,2.376534E-05,0.06919003,8.588115E-08,NaN,NaN,0.156648,3.399314E-10,-1.898601E-06,-1.099184E-07,-4.875799E-09,-2.861022E-08
866.3602,-0.6277612,2.892044E-09,NaN,-0.6395581,-1.320033E-07,NaN,0.110438,-5.2898E-07,NaN,-0.6400648,2.376573E-05,0.06502763,8.592914E-08,NaN,NaN,0.1582633,3.44588E-10,-1.864626E-06,-1.099193E-07,-2.491614E-09,-2.622604E-08
866.3759,-0.6277612,2.892044E-09,NaN,-0.6395581,-1.320033E-07,NaN,0.110438,-5.2898E-07,NaN,-0.6400648,2.376573E-05,0.06502763,8.592914E-08,NaN,NaN,0.1582633,3.44588E-10,-1.864626E-06,-1.099193E-07,-2.491614E-09,-2.622604E-08
866.3906,-0.6274436,2.892687E-09,NaN,-0.6391652,-1.32004E-07,NaN,0.1126939,-5.290259E-07,NaN,-0.6409241,2.376611E-05,0.06088751,8.597615E-08,NaN,NaN,0.1598469,3.492446E-10,-1.827076E-06,-1.099201E-07,-1.299521E-09,-2.861022E-08
866.4072,-0.6271907,2.89333E-09,NaN,-0.6388323,-1.320048E-07,NaN,0.1148122,-5.290736E-07,NaN,-0.6417865,2.376649E-05,0.0568299,8.602503E-08,NaN,NaN,0.1613994,3.539012E-10,-1.788929E-06,-1.09921E-07,4.886186E-10,-2.622604E-08
866.4243,-0.6272048,2.893973E-09,NaN,-0.6387376,-1.320049E-07,NaN,0.1173433,-5.266634E-07,NaN,-0.6429,2.376688E-05,0.05221038,8.367947E-08,NaN,NaN,0.1632031,3.585578E-10,-1.74959E-06,-1.09923E-07,2.872804E-09,-2.861022E-08
866.4388,-0.6272048,2.893973E-09,NaN,-0.6387376,-1.320049E-07,NaN,0.1173433,-5.266634E-07,NaN,-0.6429,2.376688E-05,0.05221038,8.367947E-08,NaN,NaN,0.1632031,3.585578E-10,-1.74959E-06,-1.09923E-07,2.872804E-09,-2.861022E-08
866.4535,-0.6273818,2.894616E-09,NaN,-0.638789,-1.320057E-07,NaN,0.1198789,-5.268458E-07,NaN,-0.6440226,2.376728E-05,0.0474417,8.391387E-08,NaN,NaN,0.1649713,3.539012E-10,-1.706674E-06,-1.099241E-07,5.25699E-09,-2.622604E-08
866.47,-0.6276574,2.895259E-09,NaN,-0.6389301,-1.320065E-07,NaN,0.1222862,-5.270874E-07,NaN,-0.6451516,2.376768E-05,0.04270704,8.419726E-08,NaN,NaN,0.1667048,3.492446E-10,-1.665547E-06,-1.09925E-07,3.468851E-09,-2.861022E-08
866.4856,-0.6279918,2.895902E-09,NaN,-0.6391258,-1.320073E-07,NaN,0.1245467,-5.273484E-07,NaN,-0.6462795,2.376808E-05,0.03806717,8.449201E-08,NaN,NaN,0.1684043,3.44588E-10,-1.625612E-06,-1.099258E-07,1.084665E-09,-2.622604E-08
866.5012,-0.6285883,2.896545E-09,NaN,-0.6395539,-1.320081E-07,NaN,0.1272039,-5.276187E-07,NaN,-0.6476546,2.376847E-05,0.03288186,8.478941E-08,NaN,NaN,0.170352,3.44588E-10,-1.589849E-06,-1.099267E-07,2.872804E-09,-2.861022E-08
866.5168,-0.6285883,2.896545E-09,NaN,-0.6395539,-1.320081E-07,NaN,0.1272039,-5.276187E-07,NaN,-0.6476546,2.376847E-05,0.03288186,8.478941E-08,NaN,NaN,0.170352,3.44588E-10,-1.589849E-06,-1.099267E-07,2.872804E-09,-2.861022E-08
866.5318,-0.6293414,2.897189E-09,NaN,-0.6401226,-1.320089E-07,NaN,0.1298568,-5.278882E-07,NaN,-0.6490352,2.376886E-05,0.02755771,8.508096E-08,NaN,NaN,0.1722615,3.492446E-10,-1.545742E-06,-1.099275E-07,4.064897E-09,-2.622604E-08
866.5483,-0.6301858,2.897832E-09,NaN,-0.6407746,-1.320096E-07,NaN,0.1323717,-5.281619E-07,NaN,-0.6504186,2.376925E-05,0.02227962,8.537241E-08,NaN,NaN,0.1741335,3.44588E-10,-1.500442E-06,-1.099283E-07,7.045129E-09,-2.861022E-08
866.5642,-0.6310818,2.898475E-09,NaN,-0.6414746,-1.320104E-07,NaN,0.1347308,-5.284359E-07,NaN,-0.6517974,2.376964E-05,0.01710847,8.566095E-08,NaN,NaN,0.1759688,3.492446E-10,-1.458719E-06,-1.099292E-07,5.25699E-09,-2.622604E-08
866.5801,-0.6322328,2.899118E-09,NaN,-0.6424006,-1.320112E-07,NaN,0.1374695,-5.287069E-07,NaN,-0.6534209,2.377004E-05,0.01140849,8.59438E-08,NaN,NaN,0.1780497,3.44588E-10,-1.418784E-06,-1.0993E-07,4.064897E-09,-2.861022E-08
866.5955,-0.6322328,2.899118E-09,NaN,-0.6424006,-1.320112E-07,NaN,0.1374695,-5.287069E-07,NaN,-0.6534209,2.377004E-05,0.01140849,8.59438E-08,NaN,NaN,0.1780497,3.44588E-10,-1.418784E-06,-1.0993E-07,4.064897E-09,-2.861022E-08
866.6102,-0.6335328,2.899762E-09,NaN,-0.64346,-1.320119E-07,NaN,0.1401955,-5.289774E-07,NaN,-0.6550464,2.377044E-05,0.005580048,8.622391E-08,NaN,NaN,0.1800898,3.44588E-10,-1.37408E-06,-1.099308E-07,-7.034746E-10,-2.622604E-08
866.6266,-0.6349167,2.900405E-09,NaN,-0.6445957,-1.32012E-07,NaN,0.1427754,-5.265764E-07,NaN,-0.6566711,2.377084E-05,-0.0001914189,8.389266E-08,NaN,NaN,0.1820898,3.44588E-10,-1.331165E-06,-1.099328E-07,4.064897E-09,-2.861022E-08
866.6425,-0.6363446,2.901048E-09,NaN,-0.6457724,-1.320128E-07,NaN,0.1451921,-5.267644E-07,NaN,-0.6582878,2.377123E-05,-0.005845133,8.413674E-08,NaN,NaN,0.1840507,3.492446E-10,-1.287654E-06,-1.099338E-07,4.660943E-09,-2.622604E-08
866.658,-0.6363446,2.901048E-09,NaN,-0.6457724,-1.320128E-07,NaN,0.1451921,-5.267644E-07,NaN,-0.6582878,2.377123E-05,-0.005845133,8.413674E-08,NaN,NaN,0.1840507,3.492446E-10,-1.287654E-06,-1.099338E-07,4.660943E-09,-2.622604E-08
866.6733,-0.6380211,2.901691E-09,NaN,-0.6471686,-1.320136E-07,NaN,0.1479723,-5.270123E-07,NaN,-0.6601468,2.377163E-05,-0.0120119,8.442964E-08,NaN,NaN,0.1862546,3.492446E-10,-1.248315E-06,-1.099347E-07,4.064897E-09,-2.861022E-08
866.6895,-0.6398394,2.902335E-09,NaN,-0.6486913,-1.320143E-07,NaN,0.1507326,-5.272773E-07,NaN,-0.6620044,2.377203E-05,-0.01829813,8.473089E-08,NaN,NaN,0.1884153,3.492446E-10,-1.203015E-06,-1.099355E-07,6.449083E-09,-2.622604E-08
866.7054,-0.6417342,2.902978E-09,NaN,-0.6502834,-1.320151E-07,NaN,0.1533402,-5.275518E-07,NaN,-0.6638578,2.377242E-05,-0.0245177,8.503467E-08,NaN,NaN,0.1905337,3.492446E-10,-1.154735E-06,-1.099363E-07,5.25699E-09,-2.861022E-08
866.7208,-0.6436664,2.903622E-09,NaN,-0.6519101,-1.320159E-07,NaN,0.1557787,-5.278317E-07,NaN,-0.6656998,2.37728E-05,-0.03060978,8.533812E-08,NaN,NaN,0.1926105,3.539012E-10,-1.11182E-06,-1.099371E-07,5.853036E-09,-2.622604E-08
866.7368,-0.6436664,2.903622E-09,NaN,-0.6519101,-1.320159E-07,NaN,0.1557787,-5.278317E-07,NaN,-0.6656998,2.37728E-05,-0.03060978,8.533812E-08,NaN,NaN,0.1926105,3.539012E-10,-1.11182E-06,-1.099371E-07,5.853036E-09,-2.622604E-08
866.7514,-0.6458411,2.904265E-09,NaN,-0.6537503,-1.320166E-07,NaN,0.1585647,-5.281128E-07,NaN,-0.6677819,2.37732E-05,-0.03719963,8.563842E-08,NaN,NaN,0.1949282,3.492446E-10,-1.068905E-06,-1.099379E-07,5.25699E-09,-2.861022E-08
866.7678,-0.6481509,2.904909E-09,NaN,-0.6557103,-1.320173E-07,NaN,0.1613253,-5.283945E-07,NaN,-0.6698595,2.377359E-05,-0.04390104,8.593563E-08,NaN,NaN,0.1972004,3.539012E-10,-1.024201E-06,-1.099387E-07,8.833268E-09,-2.622604E-08
866.7834,-0.6505308,2.905552E-09,NaN,-0.6577334,-1.320181E-07,NaN,0.1639276,-5.286732E-07,NaN,-0.6719296,2.377399E-05,-0.05052707,8.622699E-08,NaN,NaN,0.1994282,3.492446E-10,-9.771136E-07,-1.099395E-07,7.641176E-09,-2.861022E-08
866.7994,-0.6505308,2.905552E-09,NaN,-0.6577334,-1.320181E-07,NaN,0.1639276,-5.286732E-07,NaN,-0.6719296,2.377399E-05,-0.05052707,8.622699E-08,NaN,NaN,0.1994282,3.492446E-10,-9.771136E-07,-1.099395E-07,7.641176E-09,-2.861022E-08
866.8142,-0.6531711,2.906195E-09,NaN,-0.659985,-1.320182E-07,NaN,0.1668459,-5.262804E-07,NaN,-0.6742439,2.377439E-05,-0.05764957,8.390531E-08,NaN,NaN,0.2018937,3.492446E-10,-9.347943E-07,-1.099414E-07,1.002536E-08,-2.622604E-08
866.8315,-0.6559543,2.906839E-09,NaN,-0.6623629,-1.320189E-07,NaN,0.1697097,-5.264809E-07,NaN,-0.6765558,2.377478E-05,-0.0648713,8.416306E-08,NaN,NaN,0.204311,3.539012E-10,-8.847264E-07,-1.099424E-07,1.002536E-08,-2.861022E-08
866.8466,-0.6588095,2.907482E-09,NaN,-0.6648052,-1.320197E-07,NaN,0.1723909,-5.267412E-07,NaN,-0.6788605,2.377519E-05,-0.07200083,8.446936E-08,NaN,NaN,0.2066809,3.44588E-10,-8.400229E-07,-1.099433E-07,8.833269E-09,-2.622604E-08
866.862,-0.6616945,2.908126E-09,NaN,-0.6672747,-1.320204E-07,NaN,0.1748795,-5.270185E-07,NaN,-0.6811498,2.377558E-05,-0.07897756,8.478373E-08,NaN,NaN,0.2090043,3.44588E-10,-7.911471E-07,-1.099441E-07,8.237222E-09,-2.861022E-08
866.8776,-0.6616945,2.908126E-09,NaN,-0.6672747,-1.320204E-07,NaN,0.1748795,-5.270185E-07,NaN,-0.6811498,2.377558E-05,-0.07897756,8.478373E-08,NaN,NaN,0.2090043,3.44588E-10,-7.911471E-07,-1.099441E-07,8.237222E-09,-2.861022E-08
866.8926,-0.6648146,2.90877E-09,NaN,-0.6699492,-1.320212E-07,NaN,0.1776781,-5.273054E-07,NaN,-0.683676,2.377599E-05,-0.0864175,8.510038E-08,NaN,NaN,0.2115637,3.352748E-10,-7.476357E-07,-1.099449E-07,1.002536E-08,-2.622604E-08
866.9091,-0.6680593,2.909413E-09,NaN,-0.6727331,-1.320219E-07,NaN,0.1804357,-5.275945E-07,NaN,-0.6861926,2.377637E-05,-0.09394994,8.541362E-08,NaN,NaN,0.214073,3.399314E-10,-6.975678E-07,-1.099456E-07,1.032338E-08,-2.861022E-08
866.9246,-0.6713627,2.910057E-09,NaN,-0.6755691,-1.320226E-07,NaN,0.1830221,-5.278849E-07,NaN,-0.6886958,2.377676E-05,-0.1013877,8.572352E-08,NaN,NaN,0.2165332,3.44588E-10,-6.49288E-07,-1.099464E-07,9.429315E-09,-2.622604E-08
866.9417,-0.6746857,2.910701E-09,NaN,-0.678423,-1.320233E-07,NaN,0.1854238,-5.281756E-07,NaN,-0.6911787,2.377714E-05,-0.1086702,8.603014E-08,NaN,NaN,0.2189451,3.492446E-10,-6.057767E-07,-1.099472E-07,1.121745E-08,-2.861022E-08
866.9562,-0.6746857,2.910701E-09,NaN,-0.678423,-1.320233E-07,NaN,0.1854238,-5.281756E-07,NaN,-0.6911787,2.377714E-05,-0.1086702,8.603014E-08,NaN,NaN,0.2189451,3.492446E-10,-6.057767E-07,-1.099472E-07,1.121745E-08,-2.861022E-08
866.9714,-0.6782367,2.911344E-09,NaN,-0.6814744,-1.320242E-07,NaN,0.188128,-5.287267E-07,NaN,-0.6938953,2.377755E-05,-0.1164057,8.659415E-08,NaN,NaN,0.2215912,3.44588E-10,-5.622653E-07,-1.099461E-07,1.211152E-08,-2.861022E-08
866.9873,-0.6819055,2.911987E-09,NaN,-0.6846283,-1.320247E-07,NaN,0.1907931,-5.294469E-07,NaN,-0.6965988,2.377796E-05,-0.1242311,8.732484E-08,NaN,NaN,0.2241855,3.399314E-10,-5.139855E-07,-1.099446E-07,1.270757E-08,-2.861022E-08
867.003,-0.6856266,2.912629E-09,NaN,-0.6878281,-1.32025E-07,NaN,0.1932871,-5.302476E-07,NaN,-0.6992857,2.377837E-05,-0.1319572,8.813428E-08,NaN,NaN,0.2267291,3.306182E-10,-4.674939E-07,-1.099429E-07,1.68799E-08,-2.861022E-08
867.0186,-0.6856266,2.912629E-09,NaN,-0.6878281,-1.32025E-07,NaN,0.1932871,-5.302476E-07,NaN,-0.6992857,2.377837E-05,-0.1319572,8.813428E-08,NaN,NaN,0.2267291,3.306182E-10,-4.674939E-07,-1.099429E-07,1.68799E-08,-2.861022E-08
867.0337,-0.6893613,2.913273E-09,NaN,-0.6910402,-1.320251E-07,NaN,0.1955961,-5.310876E-07,NaN,-0.7019495,2.377879E-05,-0.1395227,8.898143E-08,NaN,NaN,0.2292227,3.21305E-10,-4.210023E-07,-1.099412E-07,1.658187E-08,-2.861022E-08
867.0502,-0.6933199,2.913916E-09,NaN,-0.6944448,-1.32025E-07,NaN,0.1981948,-5.319403E-07,NaN,-0.7048449,2.37792E-05,-0.1475281,8.984014E-08,NaN,NaN,0.2319489,3.119917E-10,-3.792791E-07,-1.099394E-07,1.330362E-08,-2.861022E-08
867.0659,-0.6973911,2.914559E-09,NaN,-0.6979465,-1.32025E-07,NaN,0.2007532,-5.32794E-07,NaN,-0.707725,2.377962E-05,-0.1556189,9.069891E-08,NaN,NaN,0.2346219,3.026785E-10,-3.26827E-07,-1.099376E-07,1.360164E-08,-2.861022E-08
867.0819,-0.7015091,2.915203E-09,NaN,-0.701489,-1.320249E-07,NaN,0.2031397,-5.336402E-07,NaN,-0.7105861,2.378003E-05,-0.1636053,9.154927E-08,NaN,NaN,0.2372424,2.933653E-10,-2.75567E-07,-1.099358E-07,1.300559E-08,-2.861022E-08
867.0977,-0.7015091,2.915203E-09,NaN,-0.701489,-1.320249E-07,NaN,0.2031397,-5.336402E-07,NaN,-0.7105861,2.378003E-05,-0.1636053,9.154927E-08,NaN,NaN,0.2372424,2.933653E-10,-2.75567E-07,-1.099358E-07,1.300559E-08,-2.861022E-08
867.1126,-0.7056357,2.915846E-09,NaN,-0.705039,-1.320248E-07,NaN,0.2053405,-5.344758E-07,NaN,-0.7134216,2.378045E-05,-0.1714252,9.238856E-08,NaN,NaN,0.2398116,2.840521E-10,-2.290754E-07,-1.099339E-07,1.121745E-08,-2.861022E-08
867.1291,-0.7099827,2.91649E-09,NaN,-0.7087772,-1.320246E-07,NaN,0.2078181,-5.352954E-07,NaN,-0.7164871,2.378086E-05,-0.1796718,9.321136E-08,NaN,NaN,0.2426118,2.747389E-10,-1.885442E-07,-1.099321E-07,9.429315E-09,-2.861022E-08
867.1448,-0.7144375,2.917134E-09,NaN,-0.7126076,-1.320245E-07,NaN,0.2102549,-5.360993E-07,NaN,-0.7195354,2.378127E-05,-0.1879998,9.401798E-08,NaN,NaN,0.2453573,2.654257E-10,-1.414565E-07,-1.099303E-07,8.237222E-09,-2.861022E-08
867.1607,-0.7189342,2.917778E-09,NaN,-0.7164738,-1.320244E-07,NaN,0.2125195,-5.368876E-07,NaN,-0.7225625,2.378169E-05,-0.1962182,9.480875E-08,NaN,NaN,0.2480491,2.561124E-10,-9.258072E-08,-1.099284E-07,6.747106E-09,-2.861022E-08
867.1765,-0.7189342,2.917778E-09,NaN,-0.7164738,-1.320244E-07,NaN,0.2125195,-5.368876E-07,NaN,-0.7225625,2.378169E-05,-0.1962182,9.480875E-08,NaN,NaN,0.2480491,2.561124E-10,-9.258072E-08,-1.099284E-07,6.747106E-09,-2.861022E-08
867.1913,-0.7234344,2.918422E-09,NaN,-0.7203431,-1.320243E-07,NaN,0.2145987,-5.376579E-07,NaN,-0.725562,2.37821E-05,-0.2042649,9.558115E-08,NaN,NaN,0.250688,2.467992E-10,-4.430096E-08,-1.099266E-07,5.25699E-09,-2.861022E-08
867.2083,-0.7281522,2.919067E-09,NaN,-0.7243964,-1.320241E-07,NaN,0.2169421,-5.384102E-07,NaN,-0.7287899,2.378252E-05,-0.2127255,9.633554E-08,NaN,NaN,0.2535565,2.37486E-10,-1.385615E-09,-1.099248E-07,8.237222E-09,-2.861022E-08
867.2234,-0.7329733,2.919711E-09,NaN,-0.7285373,-1.320238E-07,NaN,0.219245,-5.386734E-07,NaN,-0.731999,2.378293E-05,-0.2212637,9.660058E-08,NaN,NaN,0.2563691,2.328294E-10,4.391391E-08,-1.099248E-07,1.106844E-08,-2.622604E-08
867.2393,-0.7329733,2.919711E-09,NaN,-0.7285373,-1.320238E-07,NaN,0.219245,-5.386734E-07,NaN,-0.731999,2.378293E-05,-0.2212637,9.660058E-08,NaN,NaN,0.2563691,2.328294E-10,4.391391E-08,-1.099248E-07,1.106844E-08,-2.622604E-08
867.2542,-0.7378314,2.920356E-09,NaN,-0.7327095,-1.320239E-07,NaN,0.2213763,-5.387622E-07,NaN,-0.7351849,2.378333E-05,-0.2296879,9.669107E-08,NaN,NaN,0.2591265,2.235162E-10,9.040554E-08,-1.099252E-07,1.136647E-08,-2.861022E-08
867.2706,-0.7426884,2.921001E-09,NaN,-0.7368804,-1.320244E-07,NaN,0.2233231,-5.386207E-07,NaN,-0.7383413,2.378373E-05,-0.2379355,9.655115E-08,NaN,NaN,0.2618299,2.142029E-10,1.363011E-07,-1.099253E-07,1.285658E-08,-2.622604E-08
867.2866,-0.7477602,2.921645E-09,NaN,-0.7412314,-1.320251E-07,NaN,0.2255224,-5.384453E-07,NaN,-0.7417247,2.378413E-05,-0.2465846,9.637726E-08,NaN,NaN,0.2647616,2.048897E-10,1.780244E-07,-1.099255E-07,1.211152E-08,-2.861022E-08
867.3021,-0.7529311,2.92229E-09,NaN,-0.7456656,-1.320258E-07,NaN,0.227682,-5.382395E-07,NaN,-0.7450879,2.378452E-05,-0.2553079,9.617287E-08,NaN,NaN,0.2676361,1.955765E-10,2.233239E-07,-1.099258E-07,1.345263E-08,-2.622604E-08
867.3181,-0.7529311,2.92229E-09,NaN,-0.7456656,-1.320258E-07,NaN,0.227682,-5.382395E-07,NaN,-0.7450879,2.378452E-05,-0.2553079,9.617287E-08,NaN,NaN,0.2676361,1.955765E-10,2.233239E-07,-1.099258E-07,1.345263E-08,-2.622604E-08
867.333,-0.7581343,2.922935E-09,NaN,-0.7501267,-1.320264E-07,NaN,0.2296712,-5.38159E-07,NaN,-0.7484263,2.378491E-05,-0.2639132,9.609377E-08,NaN,NaN,0.2704543,1.909199E-10,2.692195E-07,-1.099265E-07,1.203702E-08,-2.861022E-08
867.3492,-0.7633319,2.92358E-09,NaN,-0.7545825,-1.32027E-07,NaN,0.2314776,-5.380547E-07,NaN,-0.7517335,2.378529E-05,-0.2723376,9.599079E-08,NaN,NaN,0.2732172,1.909199E-10,3.172012E-07,-1.099273E-07,1.002536E-08,-2.622604E-08
867.3649,-0.768742,2.924224E-09,NaN,-0.7592147,-1.320276E-07,NaN,0.2335252,-5.379411E-07,NaN,-0.7552662,2.378567E-05,-0.2811516,9.587849E-08,NaN,NaN,0.2762072,1.909199E-10,3.571363E-07,-1.099281E-07,1.043514E-08,-2.861022E-08
867.3805,-0.7742469,2.924869E-09,NaN,-0.7639258,-1.320283E-07,NaN,0.2355347,-5.378241E-07,NaN,-0.7587777,2.378605E-05,-0.2900366,9.576271E-08,NaN,NaN,0.2791389,1.909199E-10,4.04522E-07,-1.099289E-07,5.443253E-09,-2.622604E-08
867.3962,-0.7742469,2.924869E-09,NaN,-0.7639258,-1.320283E-07,NaN,0.2355347,-5.378241E-07,NaN,-0.7587777,2.378605E-05,-0.2900366,9.576271E-08,NaN,NaN,0.2791389,1.909199E-10,4.04522E-07,-1.099289E-07,5.443253E-09,-2.622604E-08
867.4111,-0.7797798,2.925514E-09,NaN,-0.7686597,-1.32029E-07,NaN,0.2373757,-5.377065E-07,NaN,-0.7622628,2.378644E-05,-0.2988002,9.564633E-08,NaN,NaN,0.2820131,1.909199E-10,4.510136E-07,-1.099297E-07,8.117313E-09,-2.861022E-08
867.4277,-0.7853026,2.926158E-09,NaN,-0.7733845,-1.320297E-07,NaN,0.2390361,-5.375883E-07,NaN,-0.7657152,2.378682E-05,-0.3073789,9.552936E-08,NaN,NaN,0.284831,1.909199E-10,4.963132E-07,-1.099305E-07,9.328033E-09,-2.622604E-08
867.4436,-0.7910358,2.926803E-09,NaN,-0.7782822,-1.320303E-07,NaN,0.240927,-5.374723E-07,NaN,-0.7693918,2.37872E-05,-0.3163356,9.541464E-08,NaN,NaN,0.2878748,1.909199E-10,5.383345E-07,-1.099313E-07,7.353629E-09,-2.861022E-08
867.4604,-0.79686,2.927447E-09,NaN,-0.7832547,-1.32031E-07,NaN,0.2427817,-5.373614E-07,NaN,-0.7730465,2.378758E-05,-0.3253607,9.530496E-08,NaN,NaN,0.2908593,1.909199E-10,5.821439E-07,-1.099321E-07,5.043949E-09,-2.622604E-08
867.4747,-0.79686,2.927447E-09,NaN,-0.7832547,-1.32031E-07,NaN,0.2427817,-5.373614E-07,NaN,-0.7730465,2.378758E-05,-0.3253607,9.530496E-08,NaN,NaN,0.2908593,1.909199E-10,5.821439E-07,-1.099321E-07,5.043949E-09,-2.622604E-08
867.4894,-0.8027077,2.928091E-09,NaN,-0.788246,-1.320317E-07,NaN,0.2444705,-5.372526E-07,NaN,-0.7766735,2.378798E-05,-0.334261,9.519737E-08,NaN,NaN,0.2937852,1.7695E-10,6.280394E-07,-1.099329E-07,5.341972E-09,-2.861022E-08
867.5058,-0.8085411,2.928736E-09,NaN,-0.7932245,-1.320324E-07,NaN,0.2459814,-5.371459E-07,NaN,-0.7802664,2.378836E-05,-0.342973,9.509185E-08,NaN,NaN,0.2966538,1.7695E-10,6.751271E-07,-1.099337E-07,6.9811E-09,-2.622604E-08
867.5215,-0.814583,2.92938E-09,NaN,-0.7983727,-1.320331E-07,NaN,0.2477128,-5.370441E-07,NaN,-0.7840822,2.378874E-05,-0.352052,9.499117E-08,NaN,NaN,0.2997472,1.7695E-10,7.12678E-07,-1.099345E-07,4.298891E-09,-2.861022E-08
867.5374,-0.814583,2.92938E-09,NaN,-0.7983727,-1.320331E-07,NaN,0.2477128,-5.370441E-07,NaN,-0.7840822,2.378874E-05,-0.352052,9.499117E-08,NaN,NaN,0.2997472,1.7695E-10,7.12678E-07,-1.099345E-07,4.298891E-09,-2.861022E-08
867.5522,-0.8207121,2.930024E-09,NaN,-0.8035918,-1.320337E-07,NaN,0.2494102,-5.369441E-07,NaN,-0.7878755,2.378912E-05,-0.3611967,9.489242E-08,NaN,NaN,0.3027803,1.7695E-10,7.535072E-07,-1.099353E-07,4.298891E-09,-2.622604E-08
867.5688,-0.8268604,2.930669E-09,NaN,-0.8088259,-1.320344E-07,NaN,0.2509445,-5.368489E-07,NaN,-0.7916402,2.378951E-05,-0.3702137,9.479839E-08,NaN,NaN,0.305754,1.7695E-10,7.952304E-07,-1.099361E-07,3.851856E-09,-2.861022E-08
867.5844,-0.8329903,2.931313E-09,NaN,-0.8140436,-1.320351E-07,NaN,0.2523042,-5.367555E-07,NaN,-0.7953696,2.378989E-05,-0.3790393,9.470615E-08,NaN,NaN,0.3086694,1.7695E-10,8.387418E-07,-1.099369E-07,3.25581E-09,-2.622604E-08
867.6001,-0.8393272,2.931957E-09,NaN,-0.819428,-1.320357E-07,NaN,0.2538748,-5.366639E-07,NaN,-0.7993205,2.379027E-05,-0.3882215,9.461568E-08,NaN,NaN,0.3118087,1.7695E-10,8.748026E-07,-1.099377E-07,-2.24456E-11,-2.861022E-08
867.6154,-0.8393272,2.931957E-09,NaN,-0.819428,-1.320357E-07,NaN,0.2538748,-5.366639E-07,NaN,-0.7993205,2.379027E-05,-0.3882215,9.461568E-08,NaN,NaN,0.3118087,1.7695E-10,8.748026E-07,-1.099377E-07,-2.24456E-11,-2.861022E-08
867.6308,-0.8457475,2.932601E-09,NaN,-0.8248795,-1.320364E-07,NaN,0.255414,-5.365768E-07,NaN,-0.8032488,2.379065E-05,-0.3974668,9.452976E-08,NaN,NaN,0.3148868,1.7695E-10,9.195061E-07,-1.099385E-07,-1.810585E-09,-2.622604E-08
867.6469,-0.8521827,2.933245E-09,NaN,-0.8303424,-1.320371E-07,NaN,0.2567933,-5.364914E-07,NaN,-0.8071475,2.379103E-05,-0.4065818,9.444548E-08,NaN,NaN,0.3179047,1.7695E-10,9.615273E-07,-1.099393E-07,-2.704655E-09,-2.861022E-08
867.6627,-0.8585954,2.93389E-09,NaN,-0.8357857,-1.320377E-07,NaN,0.2580017,-5.364104E-07,NaN,-0.8110099,2.379142E-05,-0.4155026,9.436562E-08,NaN,NaN,0.3208633,1.7695E-10,1.005635E-06,-1.099401E-07,2.36174E-09,-2.622604E-08
867.6784,-0.8585954,2.93389E-09,NaN,-0.8357857,-1.320377E-07,NaN,0.2580017,-5.364104E-07,NaN,-0.8110099,2.379142E-05,-0.4155026,9.436562E-08,NaN,NaN,0.3208633,1.7695E-10,1.005635E-06,-1.099401E-07,2.36174E-09,-2.622604E-08
867.6935,-0.8652139,2.934534E-09,NaN,-0.8413926,-1.320384E-07,NaN,0.259412,-5.363309E-07,NaN,-0.8150926,2.37918E-05,-0.42477,9.428729E-08,NaN,NaN,0.3240449,1.7695E-10,1.041099E-06,-1.099409E-07,3.25581E-09,-2.861022E-08
867.7098,-0.8719121,2.935177E-09,NaN,-0.8470631,-1.320391E-07,NaN,0.2607934,-5.362529E-07,NaN,-0.8191528,2.379218E-05,-0.4340981,9.421045E-08,NaN,NaN,0.3271646,1.7695E-10,1.081631E-06,-1.099417E-07,2.659764E-09,-2.622604E-08
867.7253,-0.8786212,2.935821E-09,NaN,-0.8527415,-1.320397E-07,NaN,0.2620187,-5.361792E-07,NaN,-0.8231827,2.379256E-05,-0.4432935,9.413789E-08,NaN,NaN,0.3302231,1.7695E-10,1.12395E-06,-1.099424E-07,3.25581E-09,-2.861022E-08
867.741,-0.8853036,2.936465E-09,NaN,-0.8583971,-1.320404E-07,NaN,0.2630769,-5.361068E-07,NaN,-0.8271753,2.379294E-05,-0.4522922,9.406662E-08,NaN,NaN,0.3332216,1.816066E-10,1.167461E-06,-1.099432E-07,3.553833E-09,-2.622604E-08
867.7568,-0.8853036,2.936465E-09,NaN,-0.8583971,-1.320404E-07,NaN,0.2630769,-5.361068E-07,NaN,-0.8271753,2.379294E-05,-0.4522922,9.406662E-08,NaN,NaN,0.3332216,1.816066E-10,1.167461E-06,-1.099432E-07,3.553833E-09,-2.622604E-08
867.7717,-0.8921908,2.937107E-09,NaN,-0.8642136,-1.32041E-07,NaN,0.2643283,-5.360385E-07,NaN,-0.831387,2.379332E-05,-0.4616281,9.399953E-08,NaN,NaN,0.3364424,1.816066E-10,1.201436E-06,-1.09944E-07,5.639996E-09,-2.861022E-08
867.7882,-0.8991541,2.93775E-09,NaN,-0.8700902,-1.320417E-07,NaN,0.2655538,-5.359715E-07,NaN,-0.8355765,2.37937E-05,-0.4710223,9.393371E-08,NaN,NaN,0.3396003,1.816066E-10,1.241669E-06,-1.099448E-07,6.236042E-09,-2.622604E-08
867.8038,-0.9061241,2.938393E-09,NaN,-0.8759714,-1.320423E-07,NaN,0.2666269,-5.359086E-07,NaN,-0.8397352,2.379408E-05,-0.4802817,9.387195E-08,NaN,NaN,0.3426964,1.816066E-10,1.284137E-06,-1.099455E-07,3.851856E-09,-2.861022E-08
867.8195,-0.9061241,2.938393E-09,NaN,-0.8759714,-1.320423E-07,NaN,0.2666269,-5.359086E-07,NaN,-0.8397352,2.379408E-05,-0.4802817,9.387195E-08,NaN,NaN,0.3426964,1.816066E-10,1.284137E-06,-1.099455E-07,3.851856E-09,-2.861022E-08
867.8348,-0.913317,2.939035E-09,NaN,-0.8820273,-1.320432E-07,NaN,0.267866,-5.35717E-07,NaN,-0.8441174,2.379447E-05,-0.4898829,9.368156E-08,NaN,NaN,0.3460129,1.816066E-10,1.318708E-06,-1.099458E-07,3.851856E-09,-2.622604E-08
867.8508,-0.9205927,2.939678E-09,NaN,-0.8881485,-1.32044E-07,NaN,0.2690577,-5.35549E-07,NaN,-0.8484821,2.379485E-05,-0.4995341,9.35146E-08,NaN,NaN,0.3492646,1.816066E-10,1.360133E-06,-1.099461E-07,3.25581E-09,-2.861022E-08
867.8666,-0.9278761,2.940321E-09,NaN,-0.8942756,-1.320448E-07,NaN,0.2700815,-5.353869E-07,NaN,-0.8528182,2.379523E-05,-0.5090383,9.33537E-08,NaN,NaN,0.3524526,1.816066E-10,1.401856E-06,-1.099463E-07,2.063717E-09,-2.622604E-08
867.8821,-0.9351275,2.940963E-09,NaN,-0.9003763,-1.320454E-07,NaN,0.2709334,-5.353662E-07,NaN,-0.8571171,2.37956E-05,-0.5183322,9.333417E-08,NaN,NaN,0.3555781,1.909199E-10,1.442835E-06,-1.099471E-07,8.716241E-10,-2.861022E-08
867.8978,-0.9351275,2.940963E-09,NaN,-0.9003763,-1.320454E-07,NaN,0.2709334,-5.353662E-07,NaN,-0.8571171,2.37956E-05,-0.5183322,9.333417E-08,NaN,NaN,0.3555781,1.909199E-10,1.442835E-06,-1.099471E-07,8.716241E-10,-2.861022E-08
867.9128,-0.9425825,2.941605E-09,NaN,-0.9066339,-1.32046E-07,NaN,0.2719562,-5.353318E-07,NaN,-0.8616334,2.379598E-05,-0.5279399,9.330088E-08,NaN,NaN,0.3589233,1.909199E-10,1.474127E-06,-1.099478E-07,8.716241E-10,-2.622604E-08
867.9292,-0.9501069,2.942248E-09,NaN,-0.9129451,-1.320466E-07,NaN,0.2729526,-5.352951E-07,NaN,-0.8661287,2.379637E-05,-0.537595,9.326537E-08,NaN,NaN,0.3622032,1.909199E-10,1.516297E-06,-1.099485E-07,2.659764E-09,-2.861022E-08
867.9449,-0.9576296,2.94289E-09,NaN,-0.9192544,-1.320472E-07,NaN,0.2737996,-5.352563E-07,NaN,-0.8705919,2.379675E-05,-0.5471063,9.32277E-08,NaN,NaN,0.3654189,1.909199E-10,1.558021E-06,-1.099493E-07,3.851857E-09,-2.622604E-08
867.9606,-0.9651137,2.943532E-09,NaN,-0.925532,-1.320479E-07,NaN,0.2744888,-5.352153E-07,NaN,-0.875015,2.379713E-05,-0.556411,9.318789E-08,NaN,NaN,0.3685715,1.909199E-10,1.596466E-06,-1.0995E-07,2.063717E-09,-2.861022E-08
867.9777,-0.9651137,2.943532E-09,NaN,-0.925532,-1.320479E-07,NaN,0.2744888,-5.352153E-07,NaN,-0.875015,2.379713E-05,-0.556411,9.318789E-08,NaN,NaN,0.3685715,1.909199E-10,1.596466E-06,-1.0995E-07,2.063717E-09,-2.861022E-08
867.991,-0.9727996,2.944174E-09,NaN,-0.9319629,-1.320485E-07,NaN,0.2753466,-5.35175E-07,NaN,-0.8796529,2.379751E-05,-0.5660251,9.314882E-08,NaN,NaN,0.3719432,1.909199E-10,1.628205E-06,-1.099508E-07,2.659764E-09,-2.622604E-08
868.0076,-0.9805506,2.944817E-09,NaN,-0.9384437,-1.320491E-07,NaN,0.276184,-5.351384E-07,NaN,-0.88427,2.379789E-05,-0.5756871,9.311329E-08,NaN,NaN,0.3752492,1.955765E-10,1.667991E-06,-1.099515E-07,8.716242E-10,-2.861022E-08
868.0228,-0.9882956,2.945459E-09,NaN,-0.9449191,-1.320497E-07,NaN,0.276878,-5.351023E-07,NaN,-0.8888541,2.379828E-05,-0.5852052,9.307841E-08,NaN,NaN,0.3784904,1.955765E-10,1.709491E-06,-1.099523E-07,-3.300701E-09,-2.622604E-08
868.0388,-0.9882956,2.945459E-09,NaN,-0.9449191,-1.320497E-07,NaN,0.276878,-5.351023E-07,NaN,-0.8888541,2.379828E-05,-0.5852052,9.307841E-08,NaN,NaN,0.3784904,1.955765E-10,1.709491E-06,-1.099523E-07,-3.300701E-09,-2.622604E-08
868.0535,-0.9959979,2.946101E-09,NaN,-0.9513602,-1.320504E-07,NaN,0.2774198,-5.350669E-07,NaN,-0.8933971,2.379866E-05,-0.5945162,9.304417E-08,NaN,NaN,0.3816681,2.002331E-10,1.747563E-06,-1.09953E-07,-3.896747E-09,-2.861022E-08
868.0702,-1.003902,2.946743E-09,NaN,-0.9579526,-1.32051E-07,NaN,0.2781234,-5.35035E-07,NaN,-0.8981538,2.379905E-05,-0.6041299,9.301338E-08,NaN,NaN,0.3850644,1.955765E-10,1.779825E-06,-1.099538E-07,-3.300701E-09,-2.622604E-08
868.0856,-1.011867,2.947385E-09,NaN,-0.9645917,-1.320516E-07,NaN,0.2788098,-5.350036E-07,NaN,-0.9028907,2.379944E-05,-0.6137894,9.298314E-08,NaN,NaN,0.3883944,2.002331E-10,1.817823E-06,-1.099545E-07,-5.08884E-09,-2.861022E-08
868.1014,-1.019823,2.948027E-09,NaN,-0.9712228,-1.320523E-07,NaN,0.2793573,-5.349727E-07,NaN,-0.9075946,2.379983E-05,-0.6233039,9.295346E-08,NaN,NaN,0.3916592,1.955765E-10,1.856789E-06,-1.099552E-07,-6.280933E-09,-2.622604E-08
868.1169,-1.019823,2.948027E-09,NaN,-0.9712228,-1.320523E-07,NaN,0.2793573,-5.349727E-07,NaN,-0.9075946,2.379983E-05,-0.6233039,9.295346E-08,NaN,NaN,0.3916592,1.955765E-10,1.856789E-06,-1.099552E-07,-6.280933E-09,-2.622604E-08
868.1323,-1.027732,2.948669E-09,NaN,-0.9778172,-1.320529E-07,NaN,0.2797576,-5.349452E-07,NaN,-0.9122565,2.380021E-05,-0.6326104,9.292713E-08,NaN,NaN,0.3948599,2.002331E-10,1.893185E-06,-1.09956E-07,-5.08884E-09,-2.861022E-08
868.1483,-1.035843,2.949311E-09,NaN,-0.984561,-1.320535E-07,NaN,0.2803129,-5.349182E-07,NaN,-0.9171311,2.38006E-05,-0.6422129,9.290127E-08,NaN,NaN,0.3982789,1.955765E-10,1.922689E-06,-1.099567E-07,-6.280933E-09,-2.622604E-08
868.1641,-1.044011,2.949953E-09,NaN,-0.9913489,-1.320541E-07,NaN,0.2808537,-5.348945E-07,NaN,-0.9219872,2.380098E-05,-0.6518591,9.28787E-08,NaN,NaN,0.4016311,2.002331E-10,1.958676E-06,-1.099574E-07,-3.896747E-09,-2.861022E-08
868.1796,-1.044011,2.949953E-09,NaN,-0.9913489,-1.320541E-07,NaN,0.2808537,-5.348945E-07,NaN,-0.9219872,2.380098E-05,-0.6518591,9.28787E-08,NaN,NaN,0.4016311,2.002331E-10,1.958676E-06,-1.099574E-07,-3.896747E-09,-2.861022E-08
868.1947,-1.052166,2.950594E-09,NaN,-0.998126,-1.320547E-07,NaN,0.2812602,-5.348712E-07,NaN,-0.9268101,2.380136E-05,-0.661359,9.285652E-08,NaN,NaN,0.4049177,2.048897E-10,1.994904E-06,-1.099582E-07,-2.704655E-09,-2.622604E-08
868.2109,-1.060271,2.951236E-09,NaN,-1.004864,-1.320553E-07,NaN,0.2815245,-5.348483E-07,NaN,-0.9315904,2.380175E-05,-0.6706502,9.283473E-08,NaN,NaN,0.4081398,2.095463E-10,2.027798E-06,-1.099589E-07,8.716241E-10,-2.861022E-08
868.2266,-1.068578,2.951878E-09,NaN,-1.011751,-1.320559E-07,NaN,0.2819371,-5.348285E-07,NaN,-0.9365823,2.380214E-05,-0.6802312,9.281614E-08,NaN,NaN,0.4115797,2.048897E-10,2.056668E-06,-1.099596E-07,-3.204688E-10,-2.622604E-08
868.2421,-1.076939,2.95252E-09,NaN,-1.018678,-1.320565E-07,NaN,0.282338,-5.348091E-07,NaN,-0.9415572,2.380252E-05,-0.6898536,9.279788E-08,NaN,NaN,0.4149524,2.095463E-10,2.089302E-06,-1.099604E-07,-3.896747E-09,-2.861022E-08
868.2577,-1.076939,2.95252E-09,NaN,-1.018678,-1.320565E-07,NaN,0.282338,-5.348091E-07,NaN,-0.9415572,2.380252E-05,-0.6898536,9.279788E-08,NaN,NaN,0.4149524,2.095463E-10,2.089302E-06,-1.099604E-07,-3.896747E-09,-2.861022E-08
868.2729,-1.085282,2.953162E-09,NaN,-1.025592,-1.320571E-07,NaN,0.2826089,-5.347928E-07,NaN,-0.9464987,2.380291E-05,-0.6993287,9.278275E-08,NaN,NaN,0.4182591,2.048897E-10,2.123872E-06,-1.099611E-07,-6.280933E-09,-2.622604E-08
868.2896,-1.093572,2.953804E-09,NaN,-1.032466,-1.320577E-07,NaN,0.2827427,-5.347767E-07,NaN,-0.9513969,2.380329E-05,-0.7085946,9.276786E-08,NaN,NaN,0.4215009,2.095463E-10,2.157847E-06,-1.099618E-07,-3.896747E-09,-2.861022E-08
868.3051,-1.102064,2.954446E-09,NaN,-1.039486,-1.320583E-07,NaN,0.2830184,-5.347609E-07,NaN,-0.9565055,2.380368E-05,-0.7181446,9.275323E-08,NaN,NaN,0.4249602,2.048897E-10,2.18236E-06,-1.099625E-07,-2.704655E-09,-2.622604E-08
868.3206,-1.110607,2.955088E-09,NaN,-1.046545,-1.320589E-07,NaN,0.2832848,-5.347482E-07,NaN,-0.9615989,2.380406E-05,-0.7277337,9.274165E-08,NaN,NaN,0.4283519,2.095463E-10,2.217824E-06,-1.099632E-07,-2.704655E-09,-2.861022E-08
868.3364,-1.110607,2.955088E-09,NaN,-1.046545,-1.320589E-07,NaN,0.2832848,-5.347482E-07,NaN,-0.9615989,2.380406E-05,-0.7277337,9.274165E-08,NaN,NaN,0.4283519,2.095463E-10,2.217824E-06,-1.099632E-07,-2.704655E-09,-2.861022E-08
868.3511,-1.119129,2.955729E-09,NaN,-1.053588,-1.320595E-07,NaN,0.2834256,-5.347358E-07,NaN,-0.9666585,2.380446E-05,-0.7371745,9.273035E-08,NaN,NaN,0.4316772,2.048897E-10,2.253699E-06,-1.099639E-07,8.716241E-10,-2.622604E-08
868.3675,-1.127593,2.956371E-09,NaN,-1.060589,-1.320601E-07,NaN,0.2834344,-5.347235E-07,NaN,-0.971674,2.380484E-05,-0.746406,9.271922E-08,NaN,NaN,0.4349372,2.095463E-10,2.289313E-06,-1.099646E-07,-1.512562E-09,-2.861022E-08
868.3831,-1.13626,2.957013E-09,NaN,-1.067734,-1.320607E-07,NaN,0.2835787,-5.347142E-07,NaN,-0.9768988,2.380523E-05,-0.7559164,9.271109E-08,NaN,NaN,0.4384144,2.048897E-10,2.309504E-06,-1.099653E-07,-3.204688E-10,-2.622604E-08
868.3989,-1.13626,2.957013E-09,NaN,-1.067734,-1.320607E-07,NaN,0.2835787,-5.347142E-07,NaN,-0.9768988,2.380523E-05,-0.7559164,9.271109E-08,NaN,NaN,0.4384144,2.048897E-10,2.309504E-06,-1.099653E-07,-3.204688E-10,-2.622604E-08
868.4138,-1.144974,2.957655E-09,NaN,-1.074916,-1.320613E-07,NaN,0.283716,-5.347051E-07,NaN,-0.98211,2.380561E-05,-0.7654635,9.270307E-08,NaN,NaN,0.4418236,2.095463E-10,2.341094E-06,-1.09966E-07,-3.204688E-10,-2.861022E-08
868.4302,-1.153664,2.958296E-09,NaN,-1.082081,-1.320619E-07,NaN,0.283732,-5.346988E-07,NaN,-0.9872872,2.380599E-05,-0.7748616,9.269798E-08,NaN,NaN,0.4451661,2.142029E-10,2.37194E-06,-1.099667E-07,4.447902E-09,-2.622604E-08
868.446,-1.162292,2.958938E-09,NaN,-1.089201,-1.320625E-07,NaN,0.2836211,-5.346926E-07,NaN,-0.9924192,2.380637E-05,-0.7840504,9.269295E-08,NaN,NaN,0.448443,2.188595E-10,2.403232E-06,-1.099674E-07,5.639995E-09,-2.861022E-08
868.4616,-1.171124,2.959579E-09,NaN,-1.096465,-1.320631E-07,NaN,0.2836395,-5.346893E-07,NaN,-0.9977597,2.380676E-05,-0.7935134,9.26908E-08,NaN,NaN,0.4519366,2.235161E-10,2.425659E-06,-1.099681E-07,6.832088E-09,-2.622604E-08
868.4772,-1.171124,2.959579E-09,NaN,-1.096465,-1.320631E-07,NaN,0.2836395,-5.346893E-07,NaN,-0.9977597,2.380676E-05,-0.7935134,9.26908E-08,NaN,NaN,0.4519366,2.235161E-10,2.425659E-06,-1.099681E-07,6.832088E-09,-2.622604E-08
868.4933,-1.18,2.960221E-09,NaN,-1.103764,-1.320636E-07,NaN,0.2836528,-5.34686E-07,NaN,-1.003088,2.380714E-05,-0.8030106,9.268864E-08,NaN,NaN,0.4553621,2.281727E-10,2.4571E-06,-1.099688E-07,3.255809E-09,-2.861022E-08
868.5085,-1.188847,2.960862E-09,NaN,-1.111042,-1.320642E-07,NaN,0.2835492,-5.346827E-07,NaN,-1.008382,2.380753E-05,-0.8123583,9.268648E-08,NaN,NaN,0.4587204,2.235161E-10,2.48869E-06,-1.099695E-07,8.02418E-09,-2.622604E-08
868.5237,-1.19763,2.961504E-09,NaN,-1.118276,-1.320648E-07,NaN,0.2833238,-5.346822E-07,NaN,-1.01363,2.380791E-05,-0.8214971,9.268714E-08,NaN,NaN,0.4620129,2.281727E-10,2.519238E-06,-1.099702E-07,6.832088E-09,-2.861022E-08
868.5395,-1.19763,2.961504E-09,NaN,-1.118276,-1.320648E-07,NaN,0.2833238,-5.346822E-07,NaN,-1.01363,2.380791E-05,-0.8214971,9.268714E-08,NaN,NaN,0.4620129,2.281727E-10,2.519238E-06,-1.099702E-07,6.832088E-09,-2.861022E-08
868.5544,-1.206617,2.962145E-09,NaN,-1.125652,-1.320654E-07,NaN,0.2832215,-5.346816E-07,NaN,-1.019085,2.380829E-05,-0.8309057,9.268773E-08,NaN,NaN,0.4655218,2.328293E-10,2.539354E-06,-1.099709E-07,2.063716E-09,-2.622604E-08
868.5707,-1.215645,2.962787E-09,NaN,-1.13306,-1.32066E-07,NaN,0.283116,-5.34681E-07,NaN,-1.024529,2.380868E-05,-0.8403463,9.268827E-08,NaN,NaN,0.4689623,2.374859E-10,2.569306E-06,-1.099716E-07,2.063716E-09,-2.861022E-08
868.5865,-1.22464,2.963428E-09,NaN,-1.140446,-1.320665E-07,NaN,0.2828978,-5.346832E-07,NaN,-1.029939,2.380907E-05,-0.8496368,9.269158E-08,NaN,NaN,0.4723353,2.328293E-10,2.59881E-06,-1.099723E-07,2.063716E-09,-2.622604E-08
868.602,-1.233567,2.96407E-09,NaN,-1.147786,-1.320671E-07,NaN,0.2825629,-5.346852E-07,NaN,-1.035302,2.380946E-05,-0.8587192,9.269478E-08,NaN,NaN,0.4756422,2.281727E-10,2.628463E-06,-1.09973E-07,-1.512562E-09,-2.861022E-08
868.6177,-1.233567,2.96407E-09,NaN,-1.147786,-1.320671E-07,NaN,0.2825629,-5.346852E-07,NaN,-1.035302,2.380946E-05,-0.8587192,9.269478E-08,NaN,NaN,0.4756422,2.281727E-10,2.628463E-06,-1.09973E-07,-1.512562E-09,-2.861022E-08
868.6324,-1.2427,2.964711E-09,NaN,-1.155268,-1.320677E-07,NaN,0.2823451,-5.3469E-07,NaN,-1.04087,2.380985E-05,-0.8680676,9.270069E-08,NaN,NaN,0.4791653,2.235161E-10,2.647984E-06,-1.099736E-07,-2.704655E-09,-2.622604E-08
868.6489,-1.251871,2.965353E-09,NaN,-1.16278,-1.320682E-07,NaN,0.2821256,-5.346946E-07,NaN,-1.04643,2.381023E-05,-0.8774454,9.270644E-08,NaN,NaN,0.4826196,2.281727E-10,2.676147E-06,-1.099743E-07,-1.512562E-09,-2.861022E-08
868.6647,-1.261004,2.965994E-09,NaN,-1.170269,-1.320688E-07,NaN,0.2817977,-5.34699E-07,NaN,-1.051954,2.381061E-05,-0.8866732,9.271202E-08,NaN,NaN,0.4860062,2.328293E-10,2.705651E-06,-1.09975E-07,-7.473027E-09,-2.622604E-08
868.6801,-1.270068,2.966636E-09,NaN,-1.177709,-1.320694E-07,NaN,0.2813582,-5.347061E-07,NaN,-1.05743,2.3811E-05,-0.8956939,9.272028E-08,NaN,NaN,0.4893264,2.374859E-10,2.733963E-06,-1.099756E-07,-5.088841E-09,-2.861022E-08
868.6962,-1.270068,2.966636E-09,NaN,-1.177709,-1.320694E-07,NaN,0.2813582,-5.347061E-07,NaN,-1.05743,2.3811E-05,-0.8956939,9.272028E-08,NaN,NaN,0.4893264,2.374859E-10,2.733963E-06,-1.099756E-07,-5.088841E-09,-2.861022E-08
868.7108,-1.279337,2.967277E-09,NaN,-1.185292,-1.320699E-07,NaN,0.2810296,-5.34713E-07,NaN,-1.063111,2.381138E-05,-0.9049768,9.272833E-08,NaN,NaN,0.4928626,2.421426E-10,2.753633E-06,-1.099763E-07,-6.280934E-09,-2.622604E-08
868.727,-1.288641,2.967918E-09,NaN,-1.192902,-1.320705E-07,NaN,0.2807009,-5.347197E-07,NaN,-1.068784,2.381176E-05,-0.914287,9.273617E-08,NaN,NaN,0.4963297,2.467992E-10,2.780604E-06,-1.09977E-07,-8.66512E-09,-2.861022E-08
868.7426,-1.297905,2.968559E-09,NaN,-1.200488,-1.320711E-07,NaN,0.280268,-5.347291E-07,NaN,-1.074421,2.381215E-05,-0.9234472,9.274665E-08,NaN,NaN,0.4997289,2.421426E-10,2.810257E-06,-1.099776E-07,-1.22414E-08,-2.622604E-08
868.7579,-1.297905,2.968559E-09,NaN,-1.200488,-1.320711E-07,NaN,0.280268,-5.347291E-07,NaN,-1.074421,2.381215E-05,-0.9234472,9.274665E-08,NaN,NaN,0.4997289,2.421426E-10,2.810257E-06,-1.099776E-07,-1.22414E-08,-2.622604E-08
868.773,-1.297062,2.969201E-09,NaN,-1.200585,-1.320716E-07,NaN,0.2732169,-5.347381E-07,NaN,-1.070082,2.381253E-05,-0.9150069,9.275686E-08,NaN,NaN,0.4926607,2.467992E-10,3.173399E-06,-1.099783E-07,-1.700977E-08,-2.861022E-08
868.7891,-1.29053,2.969842E-09,NaN,-1.196593,-1.320722E-07,NaN,0.2621073,-5.347497E-07,NaN,-1.063861,2.381292E-05,-0.8969086,9.276966E-08,NaN,NaN,0.4857233,2.421426E-10,3.156411E-06,-1.09979E-07,-1.939396E-08,-2.622604E-08
868.8048,-1.281069,2.970483E-09,NaN,-1.19029,-1.320727E-07,NaN,0.2516049,-5.347611E-07,NaN,-1.056713,2.381331E-05,-0.8759683,9.278216E-08,NaN,NaN,0.4789186,2.467992E-10,3.023791E-06,-1.099796E-07,-2.177814E-08,-2.861022E-08
868.8203,-1.270363,2.971124E-09,NaN,-1.182828,-1.320733E-07,NaN,0.2428635,-5.347721E-07,NaN,-1.048989,2.38137E-05,-0.8549713,9.279437E-08,NaN,NaN,0.4722461,2.421426E-10,2.884018E-06,-1.099803E-07,-1.700977E-08,-2.622604E-08
868.8363,-1.270363,2.971124E-09,NaN,-1.182828,-1.320733E-07,NaN,0.2428635,-5.347721E-07,NaN,-1.048989,2.38137E-05,-0.8549713,9.279437E-08,NaN,NaN,0.4722461,2.421426E-10,2.884018E-06,-1.099803E-07,-1.700977E-08,-2.622604E-08
868.8512,-1.259528,2.971765E-09,NaN,-1.175,-1.320738E-07,NaN,0.2362436,-5.347857E-07,NaN,-1.040961,2.381408E-05,-0.8351682,9.280911E-08,NaN,NaN,0.4655242,2.467992E-10,2.757954E-06,-1.099809E-07,-1.700977E-08,-2.861022E-08
868.8674,-1.248734,2.972406E-09,NaN,-1.167011,-1.320744E-07,NaN,0.2307585,-5.34799E-07,NaN,-1.032856,2.381446E-05,-0.8163401,9.282352E-08,NaN,NaN,0.4589342,2.514558E-10,2.663034E-06,-1.099816E-07,-1.700977E-08,-2.622604E-08
868.8827,-1.238042,2.973047E-09,NaN,-1.158965,-1.320749E-07,NaN,0.2258715,-5.348119E-07,NaN,-1.024756,2.381484E-05,-0.7982272,9.28376E-08,NaN,NaN,0.4524736,2.561124E-10,2.586107E-06,-1.099822E-07,-1.700977E-08,-2.861022E-08
868.8991,-1.238042,2.973047E-09,NaN,-1.158965,-1.320749E-07,NaN,0.2258715,-5.348119E-07,NaN,-1.024756,2.381484E-05,-0.7982272,9.28376E-08,NaN,NaN,0.4524736,2.561124E-10,2.586107E-06,-1.099822E-07,-1.700977E-08,-2.861022E-08
868.9135,-1.227468,2.973688E-09,NaN,-1.150915,-1.320755E-07,NaN,0.2212901,-5.348273E-07,NaN,-1.016722,2.381522E-05,-0.7806328,9.285418E-08,NaN,NaN,0.4461397,2.60769E-10,2.518679E-06,-1.099829E-07,-1.939396E-08,-2.622604E-08
868.9301,-1.217315,2.974329E-09,NaN,-1.14306,-1.32076E-07,NaN,0.2174567,-5.348423E-07,NaN,-1.008822,2.381561E-05,-0.7638839,9.287039E-08,NaN,NaN,0.43975,2.654256E-10,2.449766E-06,-1.099835E-07,-1.700977E-08,-2.861022E-08
868.9455,-1.207409,2.97497E-09,NaN,-1.135321,-1.320766E-07,NaN,0.2138328,-5.348599E-07,NaN,-1.001145,2.3816E-05,-0.7476274,9.288907E-08,NaN,NaN,0.4334857,2.60769E-10,2.386771E-06,-1.099842E-07,-1.700977E-08,-2.622604E-08
868.9614,-1.197673,2.975612E-09,NaN,-1.127664,-1.320771E-07,NaN,0.2102705,-5.34877E-07,NaN,-0.9936536,2.381638E-05,-0.731711,9.290733E-08,NaN,NaN,0.4273442,2.654256E-10,2.328359E-06,-1.099848E-07,-1.939396E-08,-2.861022E-08
868.9769,-1.197673,2.975612E-09,NaN,-1.127664,-1.320771E-07,NaN,0.2102705,-5.34877E-07,NaN,-0.9936536,2.381638E-05,-0.731711,9.290733E-08,NaN,NaN,0.4273442,2.654256E-10,2.328359E-06,-1.099848E-07,-1.939396E-08,-2.861022E-08
868.9919,-1.188071,2.976253E-09,NaN,-1.120074,-1.320777E-07,NaN,0.2067308,-5.348937E-07,NaN,-0.9863266,2.381677E-05,-0.7160693,9.292518E-08,NaN,NaN,0.4213231,2.60769E-10,2.268009E-06,-1.099855E-07,-1.700977E-08,-2.622604E-08
869.008,-1.178883,2.976894E-09,NaN,-1.112717,-1.320782E-07,NaN,0.2038015,-5.349128E-07,NaN,-0.9791659,2.381716E-05,-0.7011366,9.294547E-08,NaN,NaN,0.4152399,2.561124E-10,2.201326E-06,-1.099861E-07,-1.462559E-08,-2.861022E-08
869.0245,-1.169935,2.977535E-09,NaN,-1.1055,-1.320787E-07,NaN,0.2010225,-5.349315E-07,NaN,-0.9722452,2.381754E-05,-0.6866134,9.296531E-08,NaN,NaN,0.4092762,2.60769E-10,2.144106E-06,-1.099867E-07,-1.700977E-08,-2.622604E-08
869.039,-1.169935,2.977535E-09,NaN,-1.1055,-1.320787E-07,NaN,0.2010225,-5.349315E-07,NaN,-0.9722452,2.381754E-05,-0.6866134,9.296531E-08,NaN,NaN,0.4092762,2.60769E-10,2.144106E-06,-1.099867E-07,-1.700977E-08,-2.622604E-08
869.0538,-1.16115,2.978176E-09,NaN,-1.098379,-1.320793E-07,NaN,0.1982766,-5.349498E-07,NaN,-0.9655114,2.381793E-05,-0.6723775,9.298471E-08,NaN,NaN,0.4034294,2.654256E-10,2.087332E-06,-1.099874E-07,-1.939396E-08,-2.861022E-08
869.0699,-1.152491,2.978817E-09,NaN,-1.091332,-1.320798E-07,NaN,0.1955384,-5.349704E-07,NaN,-0.9589353,2.381832E-05,-0.6583796,9.300651E-08,NaN,NaN,0.3976972,2.60769E-10,2.02892E-06,-1.09988E-07,-2.177814E-08,-2.622604E-08
869.0858,-1.144234,2.979458E-09,NaN,-1.084524,-1.320803E-07,NaN,0.1934024,-5.349906E-07,NaN,-0.9525027,2.38187E-05,-0.6450716,9.302785E-08,NaN,NaN,0.3918972,2.654256E-10,1.966335E-06,-1.099886E-07,-2.416233E-08,-2.861022E-08
869.1015,-1.136213,2.980099E-09,NaN,-1.077861,-1.320809E-07,NaN,0.1914151,-5.350103E-07,NaN,-0.946297,2.381909E-05,-0.6321523,9.304872E-08,NaN,NaN,0.3862111,2.60769E-10,1.908518E-06,-1.099892E-07,-1.939395E-08,-2.622604E-08
869.1168,-1.136213,2.980099E-09,NaN,-1.077861,-1.320809E-07,NaN,0.1914151,-5.350103E-07,NaN,-0.946297,2.381909E-05,-0.6321523,9.304872E-08,NaN,NaN,0.3862111,2.60769E-10,1.908518E-06,-1.099892E-07,-1.939395E-08,-2.622604E-08
869.1318,-1.128349,2.98074E-09,NaN,-1.071296,-1.320814E-07,NaN,0.1894557,-5.350324E-07,NaN,-0.9402656,2.381947E-05,-0.6194983,9.307195E-08,NaN,NaN,0.3806365,2.654256E-10,1.853384E-06,-1.099899E-07,-1.939395E-08,-2.861022E-08
869.1478,-1.120605,2.981381E-09,NaN,-1.064809,-1.320819E-07,NaN,0.1874972,-5.35054E-07,NaN,-0.934379,2.381986E-05,-0.6070603,9.309469E-08,NaN,NaN,0.3751712,2.60769E-10,1.798399E-06,-1.099905E-07,-1.820186E-08,-2.622604E-08
869.1639,-1.113253,2.982022E-09,NaN,-1.058562,-1.320824E-07,NaN,0.1861338,-5.350751E-07,NaN,-0.9286132,2.382024E-05,-0.5952981,9.311693E-08,NaN,NaN,0.3696329,2.654256E-10,1.737453E-06,-1.099911E-07,-1.462558E-08,-2.861022E-08
869.1793,-1.113253,2.982022E-09,NaN,-1.058562,-1.320824E-07,NaN,0.1861338,-5.350751E-07,NaN,-0.9286132,2.382024E-05,-0.5952981,9.311693E-08,NaN,NaN,0.3696329,2.654256E-10,1.737453E-06,-1.099911E-07,-1.462558E-08,-2.861022E-08
869.1944,-1.106132,2.982662E-09,NaN,-1.052461,-1.32083E-07,NaN,0.1849163,-5.349507E-07,NaN,-0.9230615,2.382063E-05,-0.5839061,9.299374E-08,NaN,NaN,0.3642034,2.60769E-10,1.682319E-06,-1.099917E-07,-1.581768E-08,-2.622604E-08
869.2104,-1.099164,2.983302E-09,NaN,-1.046461,-1.320835E-07,NaN,0.1837203,-5.348315E-07,NaN,-0.9176723,2.382101E-05,-0.5727582,9.287572E-08,NaN,NaN,0.3588804,2.561124E-10,1.629867E-06,-1.099923E-07,-1.462558E-08,-2.861022E-08
869.2261,-1.09231,2.983943E-09,NaN,-1.04054,-1.32084E-07,NaN,0.1825168,-5.347146E-07,NaN,-0.9124165,2.382139E-05,-0.5618043,9.275997E-08,NaN,NaN,0.3536617,2.561124E-10,1.577117E-06,-1.099929E-07,-1.10493E-08,-2.622604E-08
869.2418,-1.085839,2.984583E-09,NaN,-1.034857,-1.320846E-07,NaN,0.1819003,-5.345999E-07,NaN,-0.9072621,2.382177E-05,-0.5515115,9.264642E-08,NaN,NaN,0.3483652,2.561124E-10,1.519002E-06,-1.099936E-07,-1.343349E-08,-2.861022E-08
869.2572,-1.085839,2.984583E-09,NaN,-1.034857,-1.320846E-07,NaN,0.1819003,-5.345999E-07,NaN,-0.9072621,2.382177E-05,-0.5515115,9.264642E-08,NaN,NaN,0.3483652,2.561124E-10,1.519002E-06,-1.099936E-07,-1.343349E-08,-2.861022E-08
869.2722,-1.079594,2.985223E-09,NaN,-1.029322,-1.320851E-07,NaN,0.1814255,-5.344902E-07,NaN,-0.9023104,2.382214E-05,-0.5415703,9.253787E-08,NaN,NaN,0.3431728,2.561124E-10,1.46953E-06,-1.099942E-07,-1.343349E-08,-2.622604E-08
869.2885,-1.073497,2.985863E-09,NaN,-1.02389,-1.320856E-07,NaN,0.1809647,-5.343825E-07,NaN,-0.8975108,2.382252E-05,-0.5318519,9.243139E-08,NaN,NaN,0.3380823,2.561124E-10,1.421251E-06,-1.099948E-07,-1.462558E-08,-2.861022E-08
869.3043,-1.067509,2.986503E-09,NaN,-1.018535,-1.320861E-07,NaN,0.1804874,-5.342769E-07,NaN,-0.8928347,2.382289E-05,-0.5223056,9.232694E-08,NaN,NaN,0.3330916,2.561124E-10,1.373269E-06,-1.099954E-07,-1.700977E-08,-2.622604E-08
869.3198,-1.067509,2.986503E-09,NaN,-1.018535,-1.320861E-07,NaN,0.1804874,-5.342769E-07,NaN,-0.8928347,2.382289E-05,-0.5223056,9.232694E-08,NaN,NaN,0.3330916,2.561124E-10,1.373269E-06,-1.099954E-07,-1.700977E-08,-2.622604E-08
869.3348,-1.061893,2.987143E-09,NaN,-1.013419,-1.320866E-07,NaN,0.1805886,-5.341761E-07,NaN,-0.8882436,2.382327E-05,-0.5134055,9.222731E-08,NaN,NaN,0.3280186,2.561124E-10,1.317539E-06,-1.09996E-07,-1.343349E-08,-2.861022E-08
869.3511,-1.056499,2.987782E-09,NaN,-1.008451,-1.320872E-07,NaN,0.1808262,-5.340772E-07,NaN,-0.8838451,2.382365E-05,-0.5048381,9.212957E-08,NaN,NaN,0.3230453,2.561124E-10,1.271643E-06,-1.099966E-07,-1.581768E-08,-2.622604E-08
869.3669,-1.051247,2.988422E-09,NaN,-1.003586,-1.320877E-07,NaN,0.1810699,-5.339802E-07,NaN,-0.8795897,2.382402E-05,-0.4964724,9.203369E-08,NaN,NaN,0.3181696,2.561124E-10,1.229324E-06,-1.099972E-07,-1.10493E-08,-2.861022E-08
869.3824,-1.046099,2.989062E-09,NaN,-0.9987977,-1.320882E-07,NaN,0.1812876,-5.338878E-07,NaN,-0.8754487,2.38244E-05,-0.4882575,9.194245E-08,NaN,NaN,0.3133895,2.561124E-10,1.184918E-06,-1.099977E-07,-1.22414E-08,-2.622604E-08
869.3981,-1.046099,2.989062E-09,NaN,-0.9987977,-1.320882E-07,NaN,0.1812876,-5.338878E-07,NaN,-0.8754487,2.38244E-05,-0.4882575,9.194245E-08,NaN,NaN,0.3133895,2.561124E-10,1.184918E-06,-1.099977E-07,-1.22414E-08,-2.622604E-08
869.4131,-1.041314,2.989701E-09,NaN,-0.9942455,-1.320887E-07,NaN,0.1820751,-5.337972E-07,NaN,-0.871379,2.382478E-05,-0.4806738,9.185295E-08,NaN,NaN,0.308523,2.561124E-10,1.13485E-06,-1.099983E-07,-1.10493E-08,-2.861022E-08
869.4297,-1.036745,2.990341E-09,NaN,-0.9898423,-1.320892E-07,NaN,0.182993,-5.337082E-07,NaN,-0.8674932,2.382515E-05,-0.4734041,9.176515E-08,NaN,NaN,0.3037522,2.561124E-10,1.094617E-06,-1.099989E-07,-1.22414E-08,-2.622604E-08
869.4454,-1.032313,2.99098E-09,NaN,-0.9855408,-1.320897E-07,NaN,0.1839085,-5.336237E-07,NaN,-0.8637423,2.382553E-05,-0.4663156,9.168184E-08,NaN,NaN,0.299075,2.561124E-10,1.053788E-06,-1.099995E-07,-1.22414E-08,-2.861022E-08
869.4609,-1.027979,2.991619E-09,NaN,-0.9813149,-1.320902E-07,NaN,0.1847884,-5.335902E-07,NaN,-0.860098,2.382591E-05,-0.4593568,9.164948E-08,NaN,NaN,0.2944896,2.561124E-10,1.013555E-06,-1.100001E-07,-1.22414E-08,-2.622604E-08
869.4767,-1.027979,2.991619E-09,NaN,-0.9813149,-1.320902E-07,NaN,0.1847884,-5.335902E-07,NaN,-0.860098,2.382591E-05,-0.4593568,9.164948E-08,NaN,NaN,0.2944896,2.561124E-10,1.013555E-06,-1.100001E-07,-1.22414E-08,-2.622604E-08
869.4915,-1.023998,2.992258E-09,NaN,-0.9773229,-1.320907E-07,NaN,0.1862294,-5.335601E-07,NaN,-0.8565134,2.38263E-05,-0.4530146,9.162053E-08,NaN,NaN,0.289814,2.514558E-10,9.697455E-07,-1.100007E-07,-1.462558E-08,-2.861022E-08
869.5081,-1.020228,2.992897E-09,NaN,-0.973479,-1.320912E-07,NaN,0.1877942,-5.335305E-07,NaN,-0.853105,2.382669E-05,-0.4469682,9.159208E-08,NaN,NaN,0.2852303,2.467992E-10,9.318966E-07,-1.100013E-07,-1.22414E-08,-2.622604E-08
869.5234,-1.01659,2.993536E-09,NaN,-0.9697356,-1.320918E-07,NaN,0.1893478,-5.335013E-07,NaN,-0.8498242,2.382707E-05,-0.4410828,9.156413E-08,NaN,NaN,0.2807366,2.467992E-10,8.958358E-07,-1.100018E-07,-9.857212E-09,-2.861022E-08
869.5428,-1.013043,2.994174E-09,NaN,-0.9660658,-1.320923E-07,NaN,0.1908562,-5.334728E-07,NaN,-0.8466431,2.382746E-05,-0.4353069,9.153668E-08,NaN,NaN,0.2763311,2.467992E-10,8.60669E-07,-1.100024E-07,-8.665119E-09,-2.622604E-08
869.5569,-1.013043,2.994174E-09,NaN,-0.9660658,-1.320923E-07,NaN,0.1908562,-5.334728E-07,NaN,-0.8466431,2.382746E-05,-0.4353069,9.153668E-08,NaN,NaN,0.2763311,2.467992E-10,8.60669E-07,-1.100024E-07,-8.665119E-09,-2.622604E-08
869.5699,-1.009841,2.994813E-09,NaN,-0.9626271,-1.320928E-07,NaN,0.1929172,-5.334475E-07,NaN,-0.8435121,2.382785E-05,-0.4301335,9.151253E-08,NaN,NaN,0.2718318,2.421426E-10,8.201379E-07,-1.10003E-07,-6.280934E-09,-2.861022E-08
869.5864,-1.006844,2.995452E-09,NaN,-0.9593351,-1.320933E-07,NaN,0.1950949,-5.334226E-07,NaN,-0.8405504,2.382824E-05,-0.425238,9.148879E-08,NaN,NaN,0.2674211,2.374859E-10,7.858652E-07,-1.100035E-07,-7.473027E-09,-2.622604E-08
869.6021,-1.003973,2.996091E-09,NaN,-0.9561419,-1.320938E-07,NaN,0.1972524,-5.333981E-07,NaN,-0.8377099,2.382863E-05,-0.420484,9.146545E-08,NaN,NaN,0.263097,2.374859E-10,7.545728E-07,-1.100041E-07,-5.088841E-09,-2.861022E-08
869.6176,-1.003973,2.996091E-09,NaN,-0.9561419,-1.320938E-07,NaN,0.1972524,-5.333981E-07,NaN,-0.8377099,2.382863E-05,-0.420484,9.146545E-08,NaN,NaN,0.263097,2.374859E-10,7.545728E-07,-1.100041E-07,-5.088841E-09,-2.861022E-08
869.6328,-1.001463,2.99673E-09,NaN,-0.9531927,-1.320943E-07,NaN,0.1999533,-5.333768E-07,NaN,-0.8349292,2.382902E-05,-0.4163327,9.144534E-08,NaN,NaN,0.2586776,2.328293E-10,7.19406E-07,-1.100047E-07,-3.896748E-09,-2.622604E-08
869.6489,-0.9991632,2.997369E-09,NaN,-0.9503973,-1.320948E-07,NaN,0.2027533,-5.333559E-07,NaN,-0.8323224,2.382941E-05,-0.4124431,9.142557E-08,NaN,NaN,0.2543451,2.328293E-10,6.893057E-07,-1.100053E-07,-5.08884E-09,-2.861022E-08
869.6646,-0.9969926,2.998008E-09,NaN,-0.9477038,-1.320953E-07,NaN,0.2055144,-5.333353E-07,NaN,-0.8298379,2.382979E-05,-0.4086741,9.140613E-08,NaN,NaN,0.2500978,2.328293E-10,6.615895E-07,-1.100058E-07,-3.896748E-09,-2.622604E-08
869.6802,-0.9949048,2.998647E-09,NaN,-0.9450821,-1.320958E-07,NaN,0.2082039,-5.333179E-07,NaN,-0.8274455,2.383018E-05,-0.4049739,9.138984E-08,NaN,NaN,0.2459337,2.281727E-10,6.326813E-07,-1.100064E-07,-2.704655E-09,-2.861022E-08
869.6968,-0.9949048,2.998647E-09,NaN,-0.9450821,-1.320958E-07,NaN,0.2082039,-5.333179E-07,NaN,-0.8274455,2.383018E-05,-0.4049739,9.138984E-08,NaN,NaN,0.2459337,2.281727E-10,6.326813E-07,-1.100064E-07,-2.704655E-09,-2.861022E-08
869.7114,-0.9931481,2.999286E-09,NaN,-0.942687,-1.320963E-07,NaN,0.2114256,-5.333007E-07,NaN,-0.8250926,2.383057E-05,-0.4018477,9.137381E-08,NaN,NaN,0.2416712,2.281727E-10,6.010908E-07,-1.100069E-07,-6.280934E-09,-2.622604E-08
869.7276,-0.9915853,2.999925E-09,NaN,-0.9404353,-1.320968E-07,NaN,0.2147456,-5.332838E-07,NaN,-0.8228995,2.383095E-05,-0.3989647,9.135803E-08,NaN,NaN,0.2374927,2.281727E-10,5.748648E-07,-1.100075E-07,2.063717E-09,-2.861022E-08
869.7431,-0.9901391,3.000564E-09,NaN,-0.9382784,-1.320973E-07,NaN,0.2180252,-5.332699E-07,NaN,-0.820818,2.383134E-05,-0.3961865,9.134533E-08,NaN,NaN,0.2333962,2.235161E-10,5.492348E-07,-1.10008E-07,2.063717E-09,-2.622604E-08
869.7588,-0.9901391,3.000564E-09,NaN,-0.9382784,-1.320973E-07,NaN,0.2180252,-5.332699E-07,NaN,-0.820818,2.383134E-05,-0.3961865,9.134533E-08,NaN,NaN,0.2333962,2.235161E-10,5.492348E-07,-1.10008E-07,2.063717E-09,-2.622604E-08
869.7738,-0.9887661,3.001203E-09,NaN,-0.9361873,-1.320977E-07,NaN,0.2212293,-5.332562E-07,NaN,-0.8188201,2.383173E-05,-0.3934623,9.133282E-08,NaN,NaN,0.22938,2.235161E-10,5.25393E-07,-1.100086E-07,3.25581E-09,-2.861022E-08
869.79,-0.9877145,3.001842E-09,NaN,-0.9343176,-1.320982E-07,NaN,0.2249625,-5.332428E-07,NaN,-0.8168545,2.383212E-05,-0.3913031,9.13205E-08,NaN,NaN,0.2252625,2.235161E-10,4.973788E-07,-1.100092E-07,8.716239E-10,-2.622604E-08
869.8057,-0.9868497,3.002481E-09,NaN,-0.9325876,-1.320987E-07,NaN,0.2287884,-5.332323E-07,NaN,-0.8150427,2.383251E-05,-0.3893726,9.131119E-08,NaN,NaN,0.2212261,2.188595E-10,4.765172E-07,-1.100097E-07,4.447902E-09,-2.861022E-08
869.8215,-0.9860955,3.00312E-09,NaN,-0.9309489,-1.320992E-07,NaN,0.2325659,-5.33222E-07,NaN,-0.8133368,2.383289E-05,-0.3875305,9.1302E-08,NaN,NaN,0.217269,2.188595E-10,4.568476E-07,-1.100102E-07,4.447902E-09,-2.622604E-08
869.8373,-0.9860955,3.00312E-09,NaN,-0.9309489,-1.320992E-07,NaN,0.2325659,-5.33222E-07,NaN,-0.8133368,2.383289E-05,-0.3875305,9.1302E-08,NaN,NaN,0.217269,2.188595E-10,4.568476E-07,-1.100102E-07,4.447902E-09,-2.622604E-08
869.8522,-0.9854082,3.003759E-09,NaN,-0.9293723,-1.320997E-07,NaN,0.2362592,-5.332117E-07,NaN,-0.8117093,2.383328E-05,-0.3857255,9.129293E-08,NaN,NaN,0.2133895,2.188595E-10,4.389662E-07,-1.100108E-07,2.063717E-09,-2.861022E-08
869.8686,-0.9850345,3.004399E-09,NaN,-0.928013,-1.321002E-07,NaN,0.2404758,-5.332016E-07,NaN,-0.81011,2.383367E-05,-0.3844753,9.128398E-08,NaN,NaN,0.209406,2.142029E-10,4.157204E-07,-1.100113E-07,3.25581E-09,-2.622604E-08
869.8839,-0.984842,3.005038E-09,NaN,-0.9267903,-1.321006E-07,NaN,0.2447771,-5.331945E-07,NaN,-0.8086599,2.383405E-05,-0.3834383,9.127798E-08,NaN,NaN,0.205501,2.142029E-10,3.97243E-07,-1.100119E-07,3.25581E-09,-2.861022E-08
869.8997,-0.984842,3.005038E-09,NaN,-0.9267903,-1.321006E-07,NaN,0.2447771,-5.331945E-07,NaN,-0.8086599,2.383405E-05,-0.3834383,9.127798E-08,NaN,NaN,0.205501,2.142029E-10,3.97243E-07,-1.100119E-07,3.25581E-09,-2.861022E-08
869.9147,-0.9847544,3.005677E-09,NaN,-0.9256557,-1.321011E-07,NaN,0.2490211,-5.331873E-07,NaN,-0.8073111,2.383445E-05,-0.3824728,9.127203E-08,NaN,NaN,0.2016726,2.095463E-10,3.781695E-07,-1.100124E-07,3.851856E-09,-2.622604E-08
869.9311,-0.9847277,3.006316E-09,NaN,-0.9245796,-1.321016E-07,NaN,0.2531714,-5.331803E-07,NaN,-0.806036,2.383483E-05,-0.381528,9.126614E-08,NaN,NaN,0.1979194,2.095463E-10,3.638644E-07,-1.10013E-07,5.639996E-09,-2.861022E-08
869.9471,-0.9850062,3.006955E-09,NaN,-0.9237167,-1.321021E-07,NaN,0.2578386,-5.331761E-07,NaN,-0.8047868,2.383522E-05,-0.3811278,9.126313E-08,NaN,NaN,0.1940597,2.095463E-10,3.424067E-07,-1.100135E-07,6.236042E-09,-2.622604E-08
869.963,-0.9854599,3.007594E-09,NaN,-0.9229897,-1.321026E-07,NaN,0.2625831,-5.33172E-07,NaN,-0.8036832,2.38356E-05,-0.3809274,9.126012E-08,NaN,NaN,0.190276,2.095463E-10,3.281016E-07,-1.10014E-07,8.024181E-09,-2.861022E-08
869.9783,-0.9854599,3.007594E-09,NaN,-0.9229897,-1.321026E-07,NaN,0.2625831,-5.33172E-07,NaN,-0.8036832,2.38356E-05,-0.3809274,9.126012E-08,NaN,NaN,0.190276,2.095463E-10,3.281016E-07,-1.10014E-07,8.024181E-09,-2.861022E-08
869.9931,-0.9860129,3.008233E-09,NaN,-0.9223499,-1.32103E-07,NaN,0.2672614,-5.331678E-07,NaN,-0.8026767,2.383599E-05,-0.3807832,9.125711E-08,NaN,NaN,0.1865667,2.048897E-10,3.120084E-07,-1.100146E-07,9.216274E-09,-2.622604E-08
870.0095,-0.986621,3.008872E-09,NaN,-0.9217669,-1.321035E-07,NaN,0.2718368,-5.331665E-07,NaN,-0.8017398,2.383638E-05,-0.3806438,9.125693E-08,NaN,NaN,0.1829301,2.048897E-10,3.006835E-07,-1.100151E-07,6.236042E-09,-2.861022E-08
870.0255,-0.9875287,3.009511E-09,NaN,-0.921394,-1.32104E-07,NaN,0.2769249,-5.331652E-07,NaN,-0.8008262,2.383676E-05,-0.3810402,9.125669E-08,NaN,NaN,0.1791848,2.048897E-10,2.851863E-07,-1.100156E-07,4.447902E-09,-2.622604E-08
870.0408,-0.9886069,3.01015E-09,NaN,-0.9211518,-1.321044E-07,NaN,0.2820809,-5.331638E-07,NaN,-0.8000541,2.383715E-05,-0.3816197,9.12564E-08,NaN,NaN,0.1755133,2.048897E-10,2.744574E-07,-1.100162E-07,3.851856E-09,-2.861022E-08
870.0564,-0.9886069,3.01015E-09,NaN,-0.9211518,-1.321044E-07,NaN,0.2820809,-5.331638E-07,NaN,-0.8000541,2.383715E-05,-0.3816197,9.12564E-08,NaN,NaN,0.1755133,2.048897E-10,2.744574E-07,-1.100162E-07,3.851856E-09,-2.861022E-08
870.0728,-0.9897794,3.010789E-09,NaN,-0.9209906,-1.321049E-07,NaN,0.2871611,-5.331651E-07,NaN,-0.7993748,2.383754E-05,-0.382238,9.125888E-08,NaN,NaN,0.1719139,2.048897E-10,2.625365E-07,-1.100167E-07,6.236042E-09,-2.622604E-08
870.0877,-0.9910012,3.011428E-09,NaN,-0.9208795,-1.321054E-07,NaN,0.2921293,-5.331663E-07,NaN,-0.7987607,2.383792E-05,-0.3828449,9.126126E-08,NaN,NaN,0.1683851,2.048897E-10,2.535958E-07,-1.100172E-07,3.25581E-09,-2.861022E-08
870.1039,-0.9925166,3.012067E-09,NaN,-0.9209697,-1.321058E-07,NaN,0.2976051,-5.331674E-07,NaN,-0.7981684,2.383831E-05,-0.3839775,9.126352E-08,NaN,NaN,0.1647455,2.048897E-10,2.404828E-07,-1.100177E-07,-3.204688E-10,-2.622604E-08
870.119,-0.9925166,3.012067E-09,NaN,-0.9209697,-1.321058E-07,NaN,0.2976051,-5.331674E-07,NaN,-0.7981684,2.383831E-05,-0.3839775,9.126352E-08,NaN,NaN,0.1647455,2.048897E-10,2.404828E-07,-1.100177E-07,-3.204688E-10,-2.622604E-08
870.1339,-0.994196,3.012706E-09,NaN,-0.9211833,-1.321063E-07,NaN,0.3031398,-5.331713E-07,NaN,-0.7977145,2.383869E-05,-0.3852782,9.126851E-08,NaN,NaN,0.1611776,2.048897E-10,2.339263E-07,-1.100183E-07,-9.165152E-10,-2.861022E-08
870.1501,-0.9959612,3.013344E-09,NaN,-0.9214706,-1.321068E-07,NaN,0.3085876,-5.33175E-07,NaN,-0.7973505,2.383908E-05,-0.3866011,9.127335E-08,NaN,NaN,0.1576798,2.048897E-10,2.273698E-07,-1.100188E-07,-9.165152E-10,-2.622604E-08
870.1661,-0.9977666,3.013983E-09,NaN,-0.921801,-1.321072E-07,NaN,0.3139131,-5.331785E-07,NaN,-0.7970487,2.383946E-05,-0.387897,9.127803E-08,NaN,NaN,0.1542506,2.048897E-10,2.184291E-07,-1.100193E-07,2.659764E-09,-2.861022E-08
870.1816,-0.9998562,3.014622E-09,NaN,-0.9223287,-1.321077E-07,NaN,0.3197426,-5.331818E-07,NaN,-0.7967691,2.383985E-05,-0.389713,9.128257E-08,NaN,NaN,0.1507086,2.048897E-10,2.082963E-07,-1.100198E-07,2.659764E-09,-2.622604E-08
870.1977,-0.9998562,3.014622E-09,NaN,-0.9223287,-1.321077E-07,NaN,0.3197426,-5.331818E-07,NaN,-0.7967691,2.383985E-05,-0.389713,9.128257E-08,NaN,NaN,0.1507086,2.048897E-10,2.082963E-07,-1.100198E-07,2.659764E-09,-2.622604E-08
870.2126,-1.002098,3.015261E-09,NaN,-0.9229724,-1.321081E-07,NaN,0.3256177,-5.331879E-07,NaN,-0.7966263,2.384024E-05,-0.3916795,9.128978E-08,NaN,NaN,0.1472365,2.048897E-10,1.993556E-07,-1.100203E-07,1.467671E-09,-2.861022E-08
870.2292,-1.004416,3.0159E-09,NaN,-0.9236826,-1.321086E-07,NaN,0.3313949,-5.331938E-07,NaN,-0.79657,2.384062E-05,-0.3936516,9.129678E-08,NaN,NaN,0.1438325,2.048897E-10,1.939912E-07,-1.100209E-07,1.467671E-09,-2.622604E-08
870.2448,-1.006764,3.016539E-09,NaN,-0.9244293,-1.32109E-07,NaN,0.3370411,-5.331995E-07,NaN,-0.7965723,2.384101E-05,-0.3955822,9.13036E-08,NaN,NaN,0.1404953,2.048897E-10,1.91011E-07,-1.100214E-07,2.755778E-10,-2.861022E-08
870.2603,-1.009389,3.017177E-09,NaN,-0.9253672,-1.321095E-07,NaN,0.3431888,-5.332078E-07,NaN,-0.7965968,2.384139E-05,-0.3980267,9.131305E-08,NaN,NaN,0.1370435,2.048897E-10,1.802821E-07,-1.100219E-07,4.447903E-09,-2.622604E-08
870.2758,-1.009389,3.017177E-09,NaN,-0.9253672,-1.321095E-07,NaN,0.3431888,-5.332078E-07,NaN,-0.7965968,2.384139E-05,-0.3980267,9.131305E-08,NaN,NaN,0.1370435,2.048897E-10,1.802821E-07,-1.100219E-07,4.447903E-09,-2.622604E-08
870.2908,-1.012158,3.017816E-09,NaN,-0.9264145,-1.321099E-07,NaN,0.3493721,-5.332158E-07,NaN,-0.7967554,2.384178E-05,-0.400607,9.132226E-08,NaN,NaN,0.1336598,2.048897E-10,1.78494E-07,-1.100224E-07,2.659764E-09,-2.861022E-08
870.3074,-1.014993,3.018455E-09,NaN,-0.9275219,-1.321104E-07,NaN,0.3554479,-5.332236E-07,NaN,-0.7969969,2.384216E-05,-0.4031779,9.133122E-08,NaN,NaN,0.1303426,2.048897E-10,1.725335E-07,-1.100229E-07,5.043949E-09,-2.622604E-08
870.3228,-1.017852,3.019094E-09,NaN,-0.9286597,-1.321109E-07,NaN,0.3613845,-5.332312E-07,NaN,-0.7972932,2.384255E-05,-0.4056939,9.133996E-08,NaN,NaN,0.1270904,2.048897E-10,1.713414E-07,-1.100234E-07,5.639996E-09,-2.861022E-08
870.3389,-1.017852,3.019094E-09,NaN,-0.9286597,-1.321109E-07,NaN,0.3613845,-5.332312E-07,NaN,-0.7972932,2.384255E-05,-0.4056939,9.133996E-08,NaN,NaN,0.1270904,2.048897E-10,1.713414E-07,-1.100234E-07,5.639996E-09,-2.861022E-08
870.3537,-1.020981,3.019733E-09,NaN,-0.9299833,-1.321113E-07,NaN,0.3678208,-5.332413E-07,NaN,-0.7976125,2.384293E-05,-0.4087186,9.135128E-08,NaN,NaN,0.123722,2.048897E-10,1.594205E-07,-1.100239E-07,5.043949E-09,-2.622604E-08
870.3701,-1.024246,3.020372E-09,NaN,-0.9314101,-1.321118E-07,NaN,0.3742826,-5.332512E-07,NaN,-0.7980631,2.384332E-05,-0.4118647,9.136232E-08,NaN,NaN,0.12042,2.048897E-10,1.570363E-07,-1.100244E-07,6.236042E-09,-2.861022E-08
870.3854,-1.02757,3.02101E-09,NaN,-0.9328909,-1.321122E-07,NaN,0.3806277,-5.332637E-07,NaN,-0.7985932,2.384371E-05,-0.4149872,9.137592E-08,NaN,NaN,0.1171828,2.048897E-10,1.558442E-07,-1.100249E-07,8.024181E-09,-2.622604E-08
870.401,-1.03091,3.021649E-09,NaN,-0.9343967,-1.321126E-07,NaN,0.3868258,-5.332786E-07,NaN,-0.7991745,2.384409E-05,-0.4180419,9.139202E-08,NaN,NaN,0.1140092,2.048897E-10,1.540561E-07,-1.100254E-07,3.851856E-09,-2.861022E-08
870.4171,-1.03091,3.021649E-09,NaN,-0.9343967,-1.321126E-07,NaN,0.3868258,-5.332786E-07,NaN,-0.7991745,2.384409E-05,-0.4180419,9.139202E-08,NaN,NaN,0.1140092,2.048897E-10,1.540561E-07,-1.100254E-07,3.851856E-09,-2.861022E-08
870.4316,-1.034515,3.022288E-09,NaN,-0.9360831,-1.321131E-07,NaN,0.393522,-5.332932E-07,NaN,-0.7997798,2.384448E-05,-0.4216007,9.140774E-08,NaN,NaN,0.1107178,2.048897E-10,1.480956E-07,-1.100259E-07,3.851856E-09,-2.622604E-08
870.4481,-1.038248,3.022927E-09,NaN,-0.9378671,-1.321135E-07,NaN,0.4002339,-5.333074E-07,NaN,-0.8005139,2.384486E-05,-0.4252672,9.14231E-08,NaN,NaN,0.1074913,2.048897E-10,1.451154E-07,-1.100264E-07,3.851856E-09,-2.861022E-08
870.4639,-1.042034,3.023566E-09,NaN,-0.9396996,-1.32114E-07,NaN,0.40682,-5.333213E-07,NaN,-0.801324,2.384525E-05,-0.4288962,9.14381E-08,NaN,NaN,0.1043282,2.002331E-10,1.474996E-07,-1.100269E-07,4.447902E-09,-2.622604E-08
870.4796,-1.042034,3.023566E-09,NaN,-0.9396996,-1.32114E-07,NaN,0.40682,-5.333213E-07,NaN,-0.801324,2.384525E-05,-0.4288962,9.14381E-08,NaN,NaN,0.1043282,2.002331E-10,1.474996E-07,-1.100269E-07,4.447902E-09,-2.622604E-08
870.4946,-1.046103,3.024204E-09,NaN,-0.9417247,-1.321144E-07,NaN,0.4138959,-5.333376E-07,NaN,-0.8021749,2.384564E-05,-0.4330294,9.145557E-08,NaN,NaN,0.101047,2.002331E-10,1.39751E-07,-1.100274E-07,2.063717E-09,-2.861022E-08
870.5109,-1.050308,3.024843E-09,NaN,-0.9438517,-1.321148E-07,NaN,0.4209654,-5.333535E-07,NaN,-0.8031616,2.384603E-05,-0.4372524,9.147264E-08,NaN,NaN,0.09783071,2.002331E-10,1.379629E-07,-1.100279E-07,3.25581E-09,-2.622604E-08
870.5262,-1.054566,3.025482E-09,NaN,-0.9460276,-1.321153E-07,NaN,0.4278894,-5.33369E-07,NaN,-0.804227,2.384641E-05,-0.4414187,9.148932E-08,NaN,NaN,0.09467755,2.002331E-10,1.391549E-07,-1.100284E-07,-3.20469E-10,-2.861022E-08
870.542,-1.058832,3.026121E-09,NaN,-0.9482217,-1.321157E-07,NaN,0.4346437,-5.33387E-07,NaN,-0.8053401,2.38468E-05,-0.4454886,9.150844E-08,NaN,NaN,0.09158622,2.002331E-10,1.39751E-07,-1.100289E-07,1.46767E-09,-2.622604E-08
870.5576,-1.058832,3.026121E-09,NaN,-0.9482217,-1.321157E-07,NaN,0.4346437,-5.33387E-07,NaN,-0.8053401,2.38468E-05,-0.4454886,9.150844E-08,NaN,NaN,0.09158622,2.002331E-10,1.39751E-07,-1.100289E-07,1.46767E-09,-2.622604E-08
870.5743,-1.063353,3.02676E-09,NaN,-0.9505892,-1.321161E-07,NaN,0.4418875,-5.334045E-07,NaN,-0.8064823,2.384718E-05,-0.4500501,9.152713E-08,NaN,NaN,0.08837545,2.002331E-10,1.337905E-07,-1.100294E-07,2.755774E-10,-2.861022E-08
870.5888,-1.067991,3.027398E-09,NaN,-0.9530448,-1.321166E-07,NaN,0.4491242,-5.33425E-07,NaN,-0.8077499,2.384757E-05,-0.4546904,9.154873E-08,NaN,NaN,0.08522808,2.002331E-10,1.349826E-07,-1.100298E-07,-9.165154E-10,-2.622604E-08
870.6049,-1.07267,3.028037E-09,NaN,-0.9555393,-1.32117E-07,NaN,0.4562155,-5.33445E-07,NaN,-0.8090878,2.384795E-05,-0.4592659,9.156986E-08,NaN,NaN,0.08214254,2.048897E-10,1.39751E-07,-1.100303E-07,-2.108608E-09,-2.861022E-08
870.6202,-1.077346,3.028676E-09,NaN,-0.9580446,-1.321174E-07,NaN,0.4631364,-5.334673E-07,NaN,-0.8104667,2.384834E-05,-0.4637381,9.159334E-08,NaN,NaN,0.07911751,2.048897E-10,1.39751E-07,-1.100308E-07,-2.704655E-09,-2.622604E-08
870.636,-1.077346,3.028676E-09,NaN,-0.9580446,-1.321174E-07,NaN,0.4631364,-5.334673E-07,NaN,-0.8104667,2.384834E-05,-0.4637381,9.159334E-08,NaN,NaN,0.07911751,2.048897E-10,1.39751E-07,-1.100308E-07,-2.704655E-09,-2.622604E-08
870.6508,-1.082272,3.029314E-09,NaN,-0.9607177,-1.321178E-07,NaN,0.4705506,-5.334891E-07,NaN,-0.8118757,2.384872E-05,-0.4687019,9.161631E-08,NaN,NaN,0.07597172,2.048897E-10,1.320024E-07,-1.100313E-07,-4.492794E-09,-2.861022E-08
870.6672,-1.087309,3.029953E-09,NaN,-0.9634731,-1.321183E-07,NaN,0.4779507,-5.335104E-07,NaN,-0.8134064,2.384911E-05,-0.4737336,9.163877E-08,NaN,NaN,0.07288808,2.048897E-10,1.290222E-07,-1.100318E-07,-8.069073E-09,-2.622604E-08
870.6831,-1.092379,3.030591E-09,NaN,-0.9662623,-1.321187E-07,NaN,0.4851987,-5.335312E-07,NaN,-0.815003,2.384949E-05,-0.4786895,9.166072E-08,NaN,NaN,0.06986503,2.048897E-10,1.308103E-07,-1.100322E-07,-7.473026E-09,-2.861022E-08
870.6989,-1.092379,3.030591E-09,NaN,-0.9662623,-1.321187E-07,NaN,0.4851987,-5.335312E-07,NaN,-0.815003,2.384949E-05,-0.4786895,9.166072E-08,NaN,NaN,0.06986503,2.048897E-10,1.308103E-07,-1.100322E-07,-7.473026E-09,-2.861022E-08
870.7136,-1.09744,3.03123E-09,NaN,-0.9690579,-1.321191E-07,NaN,0.4922709,-5.335544E-07,NaN,-0.8166366,2.384988E-05,-0.4835323,9.168502E-08,NaN,NaN,0.06690126,2.048897E-10,1.308103E-07,-1.100327E-07,-7.473026E-09,-2.622604E-08
870.7302,-1.102748,3.031869E-09,NaN,-0.9720172,-1.321196E-07,NaN,0.4998371,-5.33577E-07,NaN,-0.8183029,2.385026E-05,-0.488865,9.170878E-08,NaN,NaN,0.06381552,2.095463E-10,1.248498E-07,-1.100332E-07,-5.684886E-09,-2.861022E-08
870.7466,-1.10816,3.032507E-09,NaN,-0.9750544,-1.3212E-07,NaN,0.5073802,-5.335991E-07,NaN,-0.8200881,2.385065E-05,-0.4942535,9.173201E-08,NaN,NaN,0.06079077,2.095463E-10,1.281281E-07,-1.100337E-07,-3.896747E-09,-2.622604E-08
870.7613,-1.113601,3.033146E-09,NaN,-0.9781212,-1.321204E-07,NaN,0.5147638,-5.336235E-07,NaN,-0.8219354,2.385103E-05,-0.4995546,9.175756E-08,NaN,NaN,0.05782544,2.095463E-10,1.281281E-07,-1.100341E-07,-5.08884E-09,-2.861022E-08
870.7769,-1.113601,3.033146E-09,NaN,-0.9781212,-1.321204E-07,NaN,0.5147638,-5.336235E-07,NaN,-0.8219354,2.385103E-05,-0.4995546,9.175756E-08,NaN,NaN,0.05782544,2.095463E-10,1.281281E-07,-1.100341E-07,-5.08884E-09,-2.861022E-08
870.7917,-1.119028,3.033784E-09,NaN,-0.9811903,-1.321208E-07,NaN,0.521966,-5.336473E-07,NaN,-0.8238157,2.385142E-05,-0.5047331,9.178255E-08,NaN,NaN,0.05491827,2.095463E-10,1.308103E-07,-1.100346E-07,-6.876979E-09,-2.622604E-08
870.8082,-1.124698,3.034422E-09,NaN,-0.9844198,-1.321212E-07,NaN,0.5296627,-5.336706E-07,NaN,-0.8257319,2.38518E-05,-0.5103998,9.1807E-08,NaN,NaN,0.051888,2.142029E-10,1.251479E-07,-1.100351E-07,-5.684886E-09,-2.861022E-08
870.8236,-1.130467,3.035061E-09,NaN,-0.9877229,-1.321216E-07,NaN,0.5373275,-5.336934E-07,NaN,-0.8277642,2.385218E-05,-0.5161102,9.18309E-08,NaN,NaN,0.04891765,2.142029E-10,1.281281E-07,-1.100355E-07,-5.684886E-09,-2.622604E-08
870.8396,-1.130467,3.035061E-09,NaN,-0.9877229,-1.321216E-07,NaN,0.5373275,-5.336934E-07,NaN,-0.8277642,2.385218E-05,-0.5161102,9.18309E-08,NaN,NaN,0.04891765,2.142029E-10,1.281281E-07,-1.100355E-07,-5.684886E-09,-2.622604E-08
870.8546,-1.13626,3.035699E-09,NaN,-0.9910516,-1.321221E-07,NaN,0.5448256,-5.337184E-07,NaN,-0.8298546,2.385257E-05,-0.5217222,9.18571E-08,NaN,NaN,0.04600566,2.188595E-10,1.293202E-07,-1.10036E-07,-8.069073E-09,-2.861022E-08
870.871,-1.142034,3.036338E-09,NaN,-0.994379,-1.321225E-07,NaN,0.552137,-5.337429E-07,NaN,-0.831974,2.385295E-05,-0.5272025,9.188273E-08,NaN,NaN,0.04315078,2.188595E-10,1.320024E-07,-1.100365E-07,-1.045326E-08,-2.622604E-08
870.8862,-1.148048,3.036976E-09,NaN,-0.9978635,-1.321229E-07,NaN,0.5599438,-5.337669E-07,NaN,-0.8341329,2.385333E-05,-0.5331699,9.19078E-08,NaN,NaN,0.04017177,2.235161E-10,1.239558E-07,-1.100369E-07,-1.045326E-08,-2.861022E-08
870.9019,-1.154157,3.037614E-09,NaN,-1.001418,-1.321233E-07,NaN,0.5677097,-5.337902E-07,NaN,-0.8364049,2.385372E-05,-0.5391692,9.193232E-08,NaN,NaN,0.03725167,2.235161E-10,1.227637E-07,-1.100374E-07,-1.343349E-08,-2.622604E-08
870.9173,-1.154157,3.037614E-09,NaN,-1.001418,-1.321233E-07,NaN,0.5677097,-5.337902E-07,NaN,-0.8364049,2.385372E-05,-0.5391692,9.193232E-08,NaN,NaN,0.03725167,2.235161E-10,1.227637E-07,-1.100374E-07,-1.343349E-08,-2.622604E-08
870.9324,-1.160284,3.038253E-09,NaN,-1.004994,-1.321237E-07,NaN,0.5753024,-5.338159E-07,NaN,-0.8387311,2.385411E-05,-0.5450595,9.195913E-08,NaN,NaN,0.03438894,2.235161E-10,1.27532E-07,-1.100379E-07,-1.760582E-08,-2.861022E-08
870.9488,-1.166387,3.038891E-09,NaN,-1.008565,-1.321241E-07,NaN,0.5827036,-5.338409E-07,NaN,-0.8410823,2.385449E-05,-0.5508097,9.198536E-08,NaN,NaN,0.03158236,2.235161E-10,1.293202E-07,-1.100383E-07,-1.999E-08,-2.622604E-08
870.9647,-1.172728,3.03953E-09,NaN,-1.01229,-1.321245E-07,NaN,0.5906011,-5.338654E-07,NaN,-0.8434767,2.385488E-05,-0.5570463,9.201101E-08,NaN,NaN,0.0286507,2.235161E-10,1.2634E-07,-1.100388E-07,-1.999E-08,-2.861022E-08
870.9803,-1.179159,3.040168E-09,NaN,-1.016082,-1.321249E-07,NaN,0.5984492,-5.338922E-07,NaN,-0.8459812,2.385526E-05,-0.5633033,9.203892E-08,NaN,NaN,0.02577704,2.281727E-10,1.26936E-07,-1.100392E-07,-1.760582E-08,-2.622604E-08
870.9959,-1.179159,3.040168E-09,NaN,-1.016082,-1.321249E-07,NaN,0.5984492,-5.338922E-07,NaN,-0.8459812,2.385526E-05,-0.5633033,9.203892E-08,NaN,NaN,0.02577704,2.281727E-10,1.26936E-07,-1.100392E-07,-1.760582E-08,-2.622604E-08
871.0106,-1.185604,3.040806E-09,NaN,-1.019892,-1.321253E-07,NaN,0.6061177,-5.339184E-07,NaN,-0.8485358,2.385564E-05,-0.5694412,9.206624E-08,NaN,NaN,0.02295983,2.281727E-10,1.26638E-07,-1.100397E-07,-1.581768E-08,-2.861022E-08
871.0269,-1.19202,3.041445E-09,NaN,-1.023693,-1.321257E-07,NaN,0.6135905,-5.339439E-07,NaN,-0.8511112,2.385603E-05,-0.5754312,9.209295E-08,NaN,NaN,0.02019787,2.281727E-10,1.251478E-07,-1.100401E-07,-1.462558E-08,-2.622604E-08
871.0425,-1.198672,3.042083E-09,NaN,-1.027646,-1.321261E-07,NaN,0.6215608,-5.339689E-07,NaN,-0.8537339,2.385641E-05,-0.5819075,9.211909E-08,NaN,NaN,0.01730995,2.328293E-10,1.182933E-07,-1.100406E-07,-8.665119E-09,-2.861022E-08
871.058,-1.198672,3.042083E-09,NaN,-1.027646,-1.321261E-07,NaN,0.6215608,-5.339689E-07,NaN,-0.8537339,2.385641E-05,-0.5819075,9.211909E-08,NaN,NaN,0.01730995,2.328293E-10,1.182933E-07,-1.100406E-07,-8.665119E-09,-2.861022E-08
871.0745,-1.20541,3.042721E-09,NaN,-1.031662,-1.321265E-07,NaN,0.6294732,-5.339962E-07,NaN,-0.8564636,2.38568E-05,-0.5883929,9.214748E-08,NaN,NaN,0.01447918,2.328293E-10,1.171012E-07,-1.10041E-07,-7.473027E-09,-2.622604E-08
871.0891,-1.212156,3.04336E-09,NaN,-1.035692,-1.321269E-07,NaN,0.6372002,-5.340228E-07,NaN,-0.8592391,2.385718E-05,-0.5947496,9.217526E-08,NaN,NaN,0.01170402,2.328293E-10,1.203795E-07,-1.100415E-07,-7.473027E-09,-2.861022E-08
871.1049,-1.21887,3.043998E-09,NaN,-1.039711,-1.321273E-07,NaN,0.6447278,-5.340488E-07,NaN,-0.8620313,2.385757E-05,-0.6009514,9.220243E-08,NaN,NaN,0.008983281,2.328293E-10,1.215716E-07,-1.100419E-07,-5.088841E-09,-2.622604E-08
871.1205,-1.225816,3.044637E-09,NaN,-1.043879,-1.321277E-07,NaN,0.6527539,-5.340742E-07,NaN,-0.864875,2.385795E-05,-0.6076397,9.222902E-08,NaN,NaN,0.006135777,2.328293E-10,1.159091E-07,-1.100424E-07,-3.896748E-09,-2.861022E-08
871.1364,-1.225816,3.044637E-09,NaN,-1.043879,-1.321277E-07,NaN,0.6527539,-5.340742E-07,NaN,-0.864875,2.385795E-05,-0.6076397,9.222902E-08,NaN,NaN,0.006135777,2.328293E-10,1.159091E-07,-1.100424E-07,-3.896748E-09,-2.861022E-08
871.1509,-1.232845,3.045275E-09,NaN,-1.048106,-1.321281E-07,NaN,0.6607141,-5.341019E-07,NaN,-0.8678223,2.385834E-05,-0.6143259,9.225785E-08,NaN,NaN,0.003344623,2.328293E-10,1.156111E-07,-1.100428E-07,-3.204692E-10,-2.622604E-08
871.1674,-1.239878,3.045913E-09,NaN,-1.052345,-1.321285E-07,NaN,0.6684836,-5.34129E-07,NaN,-0.8708113,2.385873E-05,-0.6208746,9.228606E-08,NaN,NaN,0.0006082975,2.328293E-10,1.14419E-07,-1.100432E-07,2.063717E-09,-2.861022E-08
871.1828,-1.246874,3.046552E-09,NaN,-1.05657,-1.321289E-07,NaN,0.6760503,-5.341554E-07,NaN,-0.8738127,2.385911E-05,-0.6272619,9.231366E-08,NaN,NaN,-0.002074374,2.328293E-10,1.179953E-07,-1.100437E-07,2.063717E-09,-2.622604E-08
871.1988,-1.246874,3.046552E-09,NaN,-1.05657,-1.321289E-07,NaN,0.6760503,-5.341554E-07,NaN,-0.8738127,2.385911E-05,-0.6272619,9.231366E-08,NaN,NaN,-0.002074374,2.328293E-10,1.179953E-07,-1.100437E-07,2.063717E-09,-2.622604E-08
871.2135,-1.254102,3.04719E-09,NaN,-1.060941,-1.321293E-07,NaN,0.684117,-5.341813E-07,NaN,-0.8768699,2.385949E-05,-0.6341366,9.234066E-08,NaN,NaN,-0.004884548,2.374859E-10,1.111408E-07,-1.100441E-07,2.063717E-09,-2.861022E-08
871.2301,-1.261407,3.047828E-09,NaN,-1.065368,-1.321297E-07,NaN,0.6921097,-5.342093E-07,NaN,-0.8800275,2.385988E-05,-0.6409981,9.236989E-08,NaN,NaN,-0.007639103,2.374859E-10,1.108427E-07,-1.100446E-07,3.255809E-09,-2.622604E-08
871.2458,-1.268712,3.048466E-09,NaN,-1.069804,-1.321301E-07,NaN,0.6999068,-5.342368E-07,NaN,-0.8832222,2.386027E-05,-0.6477138,9.239858E-08,NaN,NaN,-0.01033955,2.328293E-10,1.150151E-07,-1.10045E-07,5.639995E-09,-2.861022E-08
871.262,-1.275976,3.049105E-09,NaN,-1.074223,-1.321305E-07,NaN,0.7074984,-5.342638E-07,NaN,-0.886425,2.386066E-05,-0.6542624,9.242665E-08,NaN,NaN,-0.01298705,2.281727E-10,1.171012E-07,-1.100454E-07,6.832088E-09,-2.622604E-08
871.2767,-1.275976,3.049105E-09,NaN,-1.074223,-1.321305E-07,NaN,0.7074984,-5.342638E-07,NaN,-0.886425,2.386066E-05,-0.6542624,9.242665E-08,NaN,NaN,-0.01298705,2.281727E-10,1.171012E-07,-1.100454E-07,6.832088E-09,-2.622604E-08
871.2911,-1.28347,3.049743E-09,NaN,-1.078786,-1.321309E-07,NaN,0.7155912,-5.342901E-07,NaN,-0.8896881,2.386105E-05,-0.6612996,9.24541E-08,NaN,NaN,-0.01576274,2.235161E-10,1.093526E-07,-1.100459E-07,6.832088E-09,-2.861022E-08
871.3085,-1.291038,3.050381E-09,NaN,-1.083402,-1.321312E-07,NaN,0.7236024,-5.343186E-07,NaN,-0.8930482,2.386144E-05,-0.668313,9.248378E-08,NaN,NaN,-0.0184835,2.188595E-10,1.060744E-07,-1.100463E-07,8.716237E-10,-2.622604E-08
871.3238,-1.298602,3.051019E-09,NaN,-1.088024,-1.321316E-07,NaN,0.7314137,-5.343466E-07,NaN,-0.8964408,2.386183E-05,-0.6751727,9.251282E-08,NaN,NaN,-0.02115081,2.142029E-10,1.081605E-07,-1.100467E-07,-1.512562E-09,-2.861022E-08
