JMolnar6/NonAnthroHands_User_Study/HandsLoggerWithURDF/tempdata/files/Reachy_PID0_JointMotion_gesture_1_4.csv
Time,r_shoulder,r_shoulder_x,r_upper_arm,r_forearm,r_wrist,r_wrist2hand,
64.39594,-0.1596207,-3.384798E-08,NaN,-0.326363,-1.381944E-07,NaN,0.4506677,6.196863E-08,NaN,-0.4949619,1.518483E-06,-0.3752222,-7.615226E-09,NaN,NaN,-0.01997994,2.328304E-10,1.010053E-07,-1.163495E-07,7.670607E-09,-2.622604E-08
64.41063,-0.1585427,-3.384683E-08,NaN,-0.3263654,-1.38196E-07,NaN,0.4503425,6.205404E-08,NaN,-0.495242,1.51927E-06,-0.3749349,-7.698024E-09,NaN,NaN,-0.01998019,2.328304E-10,1.023464E-07,-1.163483E-07,7.670607E-09,-2.861022E-08
64.42506,-0.1570136,-3.384569E-08,NaN,-0.3263667,-1.381976E-07,NaN,0.4498692,6.213796E-08,NaN,-0.4956425,1.520057E-06,-0.3745292,-7.779329E-09,NaN,NaN,-0.01998053,2.328304E-10,1.024955E-07,-1.163471E-07,2.902236E-09,-2.622604E-08
64.43984,-0.1570136,-3.384569E-08,NaN,-0.3263667,-1.381976E-07,NaN,0.4498692,6.213796E-08,NaN,-0.4956425,1.520057E-06,-0.3745292,-7.779329E-09,NaN,NaN,-0.01998053,2.328304E-10,1.024955E-07,-1.163471E-07,2.902236E-09,-2.622604E-08
64.45356,-0.1552069,-3.384454E-08,NaN,-0.3263676,-1.381992E-07,NaN,0.4493912,6.222042E-08,NaN,-0.4960479,1.520844E-06,-0.3741215,-7.859168E-09,NaN,NaN,-0.01998088,2.328304E-10,1.014524E-07,-1.163459E-07,5.1805E-10,-2.861022E-08
64.46988,-0.1532333,-3.384338E-08,NaN,-0.3263685,-1.382007E-07,NaN,0.4489546,6.230145E-08,NaN,-0.4964196,1.521631E-06,-0.3737494,-7.937572E-09,NaN,NaN,-0.01998118,2.328304E-10,1.013034E-07,-1.163448E-07,5.1805E-10,-2.622604E-08
64.48438,-0.151891,-3.384223E-08,NaN,-0.3263713,-1.382023E-07,NaN,0.4490805,6.238141E-08,NaN,-0.4963383,1.522418E-06,-0.3738337,-8.014919E-09,NaN,NaN,-0.01998107,2.328304E-10,1.014524E-07,-1.163436E-07,2.902236E-09,-2.861022E-08
64.49818,-0.151891,-3.384223E-08,NaN,-0.3263713,-1.382023E-07,NaN,0.4490805,6.238141E-08,NaN,-0.4963383,1.522418E-06,-0.3738337,-8.014919E-09,NaN,NaN,-0.01998107,2.328304E-10,1.014524E-07,-1.163436E-07,2.902236E-09,-2.861022E-08
64.51212,-0.1509515,-3.384108E-08,NaN,-0.3263753,-1.382039E-07,NaN,0.4493971,6.245999E-08,NaN,-0.4961011,1.523205E-06,-0.3740724,-8.090878E-09,NaN,NaN,-0.01998083,2.328304E-10,9.951523E-08,-1.163424E-07,5.1805E-10,-2.622604E-08
64.52747,-0.1502695,-3.383993E-08,NaN,-0.3263799,-1.382055E-07,NaN,0.4497541,6.25372E-08,NaN,-0.4958302,1.523992E-06,-0.3743429,-8.165475E-09,NaN,NaN,-0.01998056,2.328304E-10,9.951523E-08,-1.163413E-07,5.1805E-10,-2.861022E-08
64.54205,-0.1497523,-3.383878E-08,NaN,-0.3263848,-1.38207E-07,NaN,0.4500973,6.261273E-08,NaN,-0.4955706,1.524779E-06,-0.3746013,-8.238387E-09,NaN,NaN,-0.01998031,2.328304E-10,1.004093E-07,-1.163401E-07,5.1805E-10,-2.622604E-08
64.55688,-0.1497523,-3.383878E-08,NaN,-0.3263848,-1.38207E-07,NaN,0.4500973,6.261273E-08,NaN,-0.4955706,1.524779E-06,-0.3746013,-8.238387E-09,NaN,NaN,-0.01998031,2.328304E-10,1.004093E-07,-1.163401E-07,5.1805E-10,-2.622604E-08
64.57069,-0.1500676,-3.383763E-08,NaN,-0.3263921,-1.382086E-07,NaN,0.4509256,6.268696E-08,NaN,-0.4949241,1.525566E-06,-0.3752512,-8.309997E-09,NaN,NaN,-0.01997969,2.328304E-10,1.017504E-07,-1.16339E-07,5.286422E-09,-2.861022E-08
64.586,-0.1509054,-3.383647E-08,NaN,-0.3264004,-1.382101E-07,NaN,0.4518739,6.276027E-08,NaN,-0.4941825,1.526353E-06,-0.3759961,-8.380685E-09,NaN,NaN,-0.019979,2.328304E-10,1.038366E-07,-1.163378E-07,7.670607E-09,-2.622604E-08
64.60084,-0.1520685,-3.383532E-08,NaN,-0.3264089,-1.382117E-07,NaN,0.4528052,6.283232E-08,NaN,-0.4934572,1.527139E-06,-0.3767247,-8.450116E-09,NaN,NaN,-0.01997833,2.328304E-10,1.047306E-07,-1.163367E-07,7.670607E-09,-2.861022E-08
64.61541,-0.1520685,-3.383532E-08,NaN,-0.3264089,-1.382117E-07,NaN,0.4528052,6.283232E-08,NaN,-0.4934572,1.527139E-06,-0.3767247,-8.450116E-09,NaN,NaN,-0.01997833,2.328304E-10,1.047306E-07,-1.163367E-07,7.670607E-09,-2.861022E-08
64.62954,-0.1541596,-3.383416E-08,NaN,-0.3264197,-1.382132E-07,NaN,0.4541967,6.290313E-08,NaN,-0.492371,1.527926E-06,-0.3778245,-8.518313E-09,NaN,NaN,-0.01997731,2.328304E-10,1.087539E-07,-1.163356E-07,-4.250321E-09,-2.622604E-08
64.64502,-0.156826,-3.383301E-08,NaN,-0.326431,-1.382147E-07,NaN,0.4556761,6.297273E-08,NaN,-0.4912198,1.528713E-06,-0.3789926,-8.585298E-09,NaN,NaN,-0.01997623,2.328304E-10,1.123302E-07,-1.163344E-07,-1.866135E-09,-2.861022E-08
64.65961,-0.156826,-3.383301E-08,NaN,-0.326431,-1.382147E-07,NaN,0.4556761,6.297273E-08,NaN,-0.4912198,1.528713E-06,-0.3789926,-8.585298E-09,NaN,NaN,-0.01997623,2.328304E-10,1.123302E-07,-1.163344E-07,-1.866135E-09,-2.861022E-08
64.67506,-0.1598431,-3.383185E-08,NaN,-0.3264418,-1.382163E-07,NaN,0.4571089,6.30415E-08,NaN,-0.4901123,1.5295E-06,-0.38012,-8.65145E-09,NaN,NaN,-0.01997519,2.328304E-10,1.150124E-07,-1.163333E-07,-4.250321E-09,-2.622604E-08
64.68877,-0.1630683,-3.38307E-08,NaN,-0.3264519,-1.382178E-07,NaN,0.4584587,6.31091E-08,NaN,-0.4890781,1.530287E-06,-0.3811781,-8.716434E-09,NaN,NaN,-0.01997422,2.328304E-10,1.173966E-07,-1.163322E-07,-1.866135E-09,-2.861022E-08
64.70338,-0.1671392,-3.382954E-08,NaN,-0.3264636,-1.382193E-07,NaN,0.4602527,6.317555E-08,NaN,-0.4877065,1.531074E-06,-0.3825961,-8.780273E-09,NaN,NaN,-0.01997291,2.328304E-10,1.217179E-07,-1.163311E-07,-1.866135E-09,-2.622604E-08
64.7181,-0.1671392,-3.382954E-08,NaN,-0.3264636,-1.382193E-07,NaN,0.4602527,6.317555E-08,NaN,-0.4877065,1.531074E-06,-0.3825961,-8.780273E-09,NaN,NaN,-0.01997291,2.328304E-10,1.217179E-07,-1.163311E-07,-1.866135E-09,-2.622604E-08
64.73205,-0.171725,-3.382838E-08,NaN,-0.3264749,-1.382208E-07,NaN,0.4621284,6.324088E-08,NaN,-0.4862793,1.531861E-06,-0.3840788,-8.842989E-09,NaN,NaN,-0.01997153,2.328304E-10,1.261883E-07,-1.1633E-07,2.902236E-09,-2.861022E-08
64.74927,-0.1766158,-3.382722E-08,NaN,-0.3264852,-1.382223E-07,NaN,0.4639549,6.33051E-08,NaN,-0.4849003,1.532648E-06,-0.3855196,-8.904604E-09,NaN,NaN,-0.0199702,2.328304E-10,1.284235E-07,-1.163289E-07,2.902236E-09,-2.622604E-08
64.76283,-0.1816778,-3.382607E-08,NaN,-0.3264942,-1.382239E-07,NaN,0.4656959,6.336825E-08,NaN,-0.4835985,1.533435E-06,-0.3868899,-8.96514E-09,NaN,NaN,-0.01996893,2.328304E-10,1.321488E-07,-1.163278E-07,5.180505E-10,-2.861022E-08
64.77668,-0.1816778,-3.382607E-08,NaN,-0.3264942,-1.382239E-07,NaN,0.4656959,6.336825E-08,NaN,-0.4835985,1.533435E-06,-0.3868899,-8.96514E-09,NaN,NaN,-0.01996893,2.328304E-10,1.321488E-07,-1.163278E-07,5.180505E-10,-2.861022E-08
64.79072,-0.1875546,-3.382491E-08,NaN,-0.3265043,-1.382253E-07,NaN,0.4678879,6.343034E-08,NaN,-0.481965,1.534222E-06,-0.3886288,-9.024619E-09,NaN,NaN,-0.0199673,2.328304E-10,1.361721E-07,-1.163267E-07,5.286422E-09,-2.622604E-08
64.80611,-0.1939195,-3.382375E-08,NaN,-0.3265137,-1.382268E-07,NaN,0.4701605,6.349139E-08,NaN,-0.4802813,1.535009E-06,-0.3904326,-9.08306E-09,NaN,NaN,-0.01996561,2.328304E-10,1.378112E-07,-1.163256E-07,7.670607E-09,-2.861022E-08
64.8203,-0.2005647,-3.382259E-08,NaN,-0.3265214,-1.382283E-07,NaN,0.4723795,6.355143E-08,NaN,-0.4786516,1.535796E-06,-0.3921921,-9.140482E-09,NaN,NaN,-0.01996396,2.328304E-10,1.413875E-07,-1.163245E-07,1.005479E-08,-2.622604E-08
64.83501,-0.2005647,-3.382259E-08,NaN,-0.3265214,-1.382283E-07,NaN,0.4723795,6.355143E-08,NaN,-0.4786516,1.535796E-06,-0.3921921,-9.140482E-09,NaN,NaN,-0.01996396,2.328304E-10,1.413875E-07,-1.163245E-07,1.005479E-08,-2.622604E-08
64.84921,-0.2080867,-3.382143E-08,NaN,-0.3265298,-1.382298E-07,NaN,0.475054,6.361046E-08,NaN,-0.476698,1.536583E-06,-0.3943256,-9.196905E-09,NaN,NaN,-0.01996195,2.328304E-10,1.431756E-07,-1.163234E-07,5.286421E-09,-2.861022E-08
64.86448,-0.2161287,-3.382026E-08,NaN,-0.3265366,-1.382313E-07,NaN,0.477796,6.366887E-08,NaN,-0.4747103,1.53737E-06,-0.3965137,-9.252703E-09,NaN,NaN,-0.01995989,2.328304E-10,1.466029E-07,-1.163223E-07,2.902235E-09,-2.622604E-08
64.87919,-0.2161287,-3.382026E-08,NaN,-0.3265366,-1.382313E-07,NaN,0.477796,6.366887E-08,NaN,-0.4747103,1.53737E-06,-0.3965137,-9.252703E-09,NaN,NaN,-0.01995989,2.328304E-10,1.466029E-07,-1.163223E-07,2.902235E-09,-2.622604E-08
64.89328,-0.2244643,-3.38191E-08,NaN,-0.326541,-1.382328E-07,NaN,0.4804675,6.372632E-08,NaN,-0.4727944,1.538157E-06,-0.398644,-9.30754E-09,NaN,NaN,-0.01995788,2.328304E-10,1.518183E-07,-1.163212E-07,2.902235E-09,-2.861022E-08
64.90884,-0.2329495,-3.381794E-08,NaN,-0.3265432,-1.382342E-07,NaN,0.4830323,6.378282E-08,NaN,-0.4709778,1.538944E-06,-0.4006876,-9.361426E-09,NaN,NaN,-0.01995595,2.328304E-10,1.556926E-07,-1.163202E-07,7.670607E-09,-2.622604E-08
64.92313,-0.2422215,-3.381678E-08,NaN,-0.3265456,-1.382357E-07,NaN,0.4860536,6.383839E-08,NaN,-0.4688536,1.539731E-06,-0.4031101,-9.414386E-09,NaN,NaN,-0.01995362,2.328304E-10,1.592689E-07,-1.163191E-07,1.720735E-08,-2.861022E-08
64.93785,-0.2422215,-3.381678E-08,NaN,-0.3265456,-1.382357E-07,NaN,0.4860536,6.383839E-08,NaN,-0.4688536,1.539731E-06,-0.4031101,-9.414386E-09,NaN,NaN,-0.01995362,2.328304E-10,1.592689E-07,-1.163191E-07,1.720735E-08,-2.861022E-08
64.95161,-0.2519496,-3.381562E-08,NaN,-0.3265471,-1.382372E-07,NaN,0.4891469,6.389305E-08,NaN,-0.4666992,1.540517E-06,-0.4055932,-9.466433E-09,NaN,NaN,-0.01995124,2.328304E-10,1.635902E-07,-1.16318E-07,1.482316E-08,-2.622604E-08
64.96696,-0.2619239,-3.381445E-08,NaN,-0.3265476,-1.382386E-07,NaN,0.4921745,6.394682E-08,NaN,-0.464617,1.541304E-06,-0.4080243,-9.51759E-09,NaN,NaN,-0.0199489,2.328304E-10,1.664214E-07,-1.16317E-07,1.482316E-08,-2.861022E-08
64.9816,-0.2720113,-3.381329E-08,NaN,-0.3265474,-1.382401E-07,NaN,0.4950985,6.399972E-08,NaN,-0.462635,1.542091E-06,-0.4103729,-9.567874E-09,NaN,NaN,-0.01994662,2.328304E-10,1.695507E-07,-1.163159E-07,1.720735E-08,-2.622604E-08
64.99659,-0.2720113,-3.381329E-08,NaN,-0.3265474,-1.382401E-07,NaN,0.4950985,6.399972E-08,NaN,-0.462635,1.542091E-06,-0.4103729,-9.567874E-09,NaN,NaN,-0.01994662,2.328304E-10,1.695507E-07,-1.163159E-07,1.720735E-08,-2.622604E-08
65.01028,-0.2828558,-3.381212E-08,NaN,-0.326548,-1.382415E-07,NaN,0.4984964,6.405176E-08,NaN,-0.460349,1.542878E-06,-0.4131188,-9.6173E-09,NaN,NaN,-0.01994392,2.328304E-10,1.710408E-07,-1.163149E-07,1.720735E-08,-2.861022E-08
65.02761,-0.2941312,-3.381096E-08,NaN,-0.3265477,-1.382429E-07,NaN,0.50197,6.410296E-08,NaN,-0.4580361,1.543665E-06,-0.41593,-9.665886E-09,NaN,NaN,-0.01994116,2.328304E-10,1.74021E-07,-1.163138E-07,2.197572E-08,-2.622604E-08
65.0413,-0.3056303,-3.380979E-08,NaN,-0.3265465,-1.382444E-07,NaN,0.5053768,6.415333E-08,NaN,-0.4557992,1.544452E-06,-0.4186888,-9.713647E-09,NaN,NaN,-0.01993844,2.328304E-10,1.775973E-07,-1.163128E-07,1.959154E-08,-2.861022E-08
65.05467,-0.3056303,-3.380979E-08,NaN,-0.3265465,-1.382444E-07,NaN,0.5053768,6.415333E-08,NaN,-0.4557992,1.544452E-06,-0.4186888,-9.713647E-09,NaN,NaN,-0.01993844,2.328304E-10,1.775973E-07,-1.163128E-07,1.959154E-08,-2.861022E-08
65.0688,-0.3179502,-3.380863E-08,NaN,-0.3265459,-1.382458E-07,NaN,0.5092707,6.420325E-08,NaN,-0.4532655,1.545239E-06,-0.4218582,-9.760954E-09,NaN,NaN,-0.01993528,2.328304E-10,1.817696E-07,-1.163117E-07,2.435991E-08,-2.622604E-08
65.08397,-0.3307348,-3.380746E-08,NaN,-0.326544,-1.382472E-07,NaN,0.5132315,6.425237E-08,NaN,-0.4507205,1.546026E-06,-0.4250859,-9.807462E-09,NaN,NaN,-0.01993207,2.328304E-10,1.834087E-07,-1.163107E-07,1.959154E-08,-2.861022E-08
65.09865,-0.3307348,-3.380746E-08,NaN,-0.326544,-1.382472E-07,NaN,0.5132315,6.425237E-08,NaN,-0.4507205,1.546026E-06,-0.4250859,-9.807462E-09,NaN,NaN,-0.01993207,2.328304E-10,1.834087E-07,-1.163107E-07,1.959154E-08,-2.861022E-08
65.11263,-0.3437581,-3.380629E-08,NaN,-0.326541,-1.382487E-07,NaN,0.5171113,6.430071E-08,NaN,-0.4482679,1.546813E-06,-0.4282497,-9.853188E-09,NaN,NaN,-0.0199289,2.328304E-10,1.886241E-07,-1.163097E-07,2.197572E-08,-2.622604E-08
65.12801,-0.356877,-3.380512E-08,NaN,-0.3265366,-1.382501E-07,NaN,0.52087,6.434827E-08,NaN,-0.4459347,1.5476E-06,-0.4313174,-9.898145E-09,NaN,NaN,-0.0199258,2.328304E-10,1.969688E-07,-1.163087E-07,2.197572E-08,-2.861022E-08
65.14407,-0.3707293,-3.380395E-08,NaN,-0.3265332,-1.382515E-07,NaN,0.525127,6.439508E-08,NaN,-0.4433209,1.548387E-06,-0.4348103,-9.942347E-09,NaN,NaN,-0.01992223,2.328304E-10,2.020352E-07,-1.163076E-07,2.197572E-08,-2.622604E-08
65.15775,-0.3707293,-3.380395E-08,NaN,-0.3265332,-1.382515E-07,NaN,0.525127,6.439508E-08,NaN,-0.4433209,1.548387E-06,-0.4348103,-9.942347E-09,NaN,NaN,-0.01992223,2.328304E-10,2.020352E-07,-1.163076E-07,2.197572E-08,-2.622604E-08
65.17139,-0.3849849,-3.380278E-08,NaN,-0.3265282,-1.382529E-07,NaN,0.5294574,6.444115E-08,NaN,-0.4406978,1.549174E-06,-0.4383689,-9.985813E-09,NaN,NaN,-0.01991859,2.328304E-10,2.065055E-07,-1.163066E-07,2.197572E-08,-2.861022E-08
65.18687,-0.3994344,-3.380162E-08,NaN,-0.3265209,-1.382543E-07,NaN,0.5337109,6.448651E-08,NaN,-0.4381656,1.549961E-06,-0.4418676,-1.002855E-08,NaN,NaN,-0.01991501,2.328304E-10,2.069526E-07,-1.163056E-07,1.959154E-08,-2.622604E-08
65.20137,-0.4139453,-3.380045E-08,NaN,-0.3265114,-1.382557E-07,NaN,0.5378465,6.453115E-08,NaN,-0.4357517,1.550748E-06,-0.4452735,-1.007059E-08,NaN,NaN,-0.01991148,2.328304E-10,2.149992E-07,-1.163046E-07,1.720735E-08,-2.861022E-08
65.21621,-0.4139453,-3.380045E-08,NaN,-0.3265114,-1.382557E-07,NaN,0.5378465,6.453115E-08,NaN,-0.4357517,1.550748E-06,-0.4452735,-1.007059E-08,NaN,NaN,-0.01991148,2.328304E-10,2.149992E-07,-1.163046E-07,1.720735E-08,-2.861022E-08
65.23013,-0.4291622,-3.379928E-08,NaN,-0.3265027,-1.382571E-07,NaN,0.5425081,6.45751E-08,NaN,-0.4330609,1.551535E-06,-0.4491326,-1.011193E-08,NaN,NaN,-0.01990742,2.328304E-10,2.202146E-07,-1.163036E-07,1.482317E-08,-2.622604E-08
65.24547,-0.4447595,-3.379811E-08,NaN,-0.3264921,-1.382585E-07,NaN,0.5472512,6.461836E-08,NaN,-0.4303634,1.552322E-06,-0.4530658,-1.015258E-08,NaN,NaN,-0.01990329,2.328304E-10,2.25728E-07,-1.163026E-07,1.00548E-08,-2.861022E-08
65.26041,-0.4605305,-3.379694E-08,NaN,-0.326479,-1.382598E-07,NaN,0.5519184,6.466131E-08,NaN,-0.4277595,1.553109E-06,-0.4569406,-1.019292E-08,NaN,NaN,-0.01989922,2.328304E-10,2.294533E-07,-1.163016E-07,7.670611E-09,-2.622604E-08
65.27497,-0.4605305,-3.379694E-08,NaN,-0.326479,-1.382598E-07,NaN,0.5519184,6.466131E-08,NaN,-0.4277595,1.553109E-06,-0.4569406,-1.019292E-08,NaN,NaN,-0.01989922,2.328304E-10,2.294533E-07,-1.163016E-07,7.670611E-09,-2.622604E-08
65.28886,-0.477073,-3.379576E-08,NaN,-0.3264661,-1.382608E-07,NaN,0.5571329,6.469207E-08,NaN,-0.4248863,1.553886E-06,-0.4612891,-1.022106E-08,NaN,NaN,-0.01989459,2.421436E-10,2.333276E-07,-1.163031E-07,2.902239E-09,-2.861022E-08
65.3063,-0.4940313,-3.379459E-08,NaN,-0.3264506,-1.382622E-07,NaN,0.5624225,6.473584E-08,NaN,-0.4220211,1.554668E-06,-0.4657066,-1.026223E-08,NaN,NaN,-0.0198899,2.468002E-10,2.410762E-07,-1.163049E-07,5.286425E-09,-2.622604E-08
65.3195,-0.4940313,-3.379459E-08,NaN,-0.3264506,-1.382622E-07,NaN,0.5624225,6.473584E-08,NaN,-0.4220211,1.554668E-06,-0.4657066,-1.026223E-08,NaN,NaN,-0.0198899,2.468002E-10,2.410762E-07,-1.163049E-07,5.286425E-09,-2.622604E-08
65.33348,-0.51118,-3.379342E-08,NaN,-0.3264321,-1.382638E-07,NaN,0.5676233,6.478582E-08,NaN,-0.4192654,1.555446E-06,-0.4700547,-1.03096E-08,NaN,NaN,-0.01988526,2.561134E-10,2.449505E-07,-1.16307E-07,7.670611E-09,-2.861022E-08
65.34789,-0.5283766,-3.379225E-08,NaN,-0.3264109,-1.382656E-07,NaN,0.572692,6.483878E-08,NaN,-0.4166453,1.556228E-06,-0.4742984,-1.035996E-08,NaN,NaN,-0.0198807,2.6077E-10,2.515071E-07,-1.163091E-07,7.670611E-09,-2.622604E-08
65.3626,-0.5462593,-3.379107E-08,NaN,-0.3263903,-1.382675E-07,NaN,0.5783279,6.489328E-08,NaN,-0.4137723,1.557006E-06,-0.4790394,-1.041186E-08,NaN,NaN,-0.0198755,2.700833E-10,2.585106E-07,-1.163113E-07,7.670611E-09,-2.861022E-08
65.37713,-0.5462593,-3.379107E-08,NaN,-0.3263903,-1.382675E-07,NaN,0.5783279,6.489328E-08,NaN,-0.4137723,1.557006E-06,-0.4790394,-1.041186E-08,NaN,NaN,-0.0198755,2.700833E-10,2.585106E-07,-1.163113E-07,7.670611E-09,-2.861022E-08
65.39115,-0.5644987,-3.37899E-08,NaN,-0.3263674,-1.382695E-07,NaN,0.5840504,6.49479E-08,NaN,-0.4109094,1.557788E-06,-0.4838618,-1.046389E-08,NaN,NaN,-0.01987023,2.747399E-10,2.628319E-07,-1.163136E-07,5.286425E-09,-2.622604E-08
65.40665,-0.5828859,-3.378873E-08,NaN,-0.3263417,-1.382714E-07,NaN,0.5896913,6.500231E-08,NaN,-0.4081541,1.558566E-06,-0.4886221,-1.05157E-08,NaN,NaN,-0.01986501,2.840531E-10,2.699845E-07,-1.163158E-07,5.286425E-09,-2.861022E-08
65.42105,-0.601289,-3.378756E-08,NaN,-0.3263138,-1.382734E-07,NaN,0.5952045,6.505616E-08,NaN,-0.4055326,1.559348E-06,-0.4932826,-1.056696E-08,NaN,NaN,-0.01985986,2.887097E-10,2.728157E-07,-1.163181E-07,5.286425E-09,-2.622604E-08
65.43579,-0.601289,-3.378756E-08,NaN,-0.3263138,-1.382734E-07,NaN,0.5952045,6.505616E-08,NaN,-0.4055326,1.559348E-06,-0.4932826,-1.056696E-08,NaN,NaN,-0.01985986,2.887097E-10,2.728157E-07,-1.163181E-07,5.286425E-09,-2.622604E-08
65.44976,-0.620353,-3.378639E-08,NaN,-0.3262868,-1.382754E-07,NaN,0.6013228,6.510912E-08,NaN,-0.4026629,1.560126E-06,-0.4984786,-1.061732E-08,NaN,NaN,-0.01985402,2.980229E-10,2.783292E-07,-1.163203E-07,7.670611E-09,-2.861022E-08
65.46518,-0.639753,-3.378521E-08,NaN,-0.3262576,-1.382774E-07,NaN,0.6075386,6.51612E-08,NaN,-0.3998053,1.560917E-06,-0.503767,-1.066681E-08,NaN,NaN,-0.01984808,2.933663E-10,2.842896E-07,-1.163226E-07,7.670611E-09,-2.622604E-08
65.47974,-0.639753,-3.378521E-08,NaN,-0.3262576,-1.382774E-07,NaN,0.6075386,6.51612E-08,NaN,-0.3998053,1.560917E-06,-0.503767,-1.066681E-08,NaN,NaN,-0.01984808,2.933663E-10,2.842896E-07,-1.163226E-07,7.670611E-09,-2.622604E-08
65.49381,-0.6592828,-3.378404E-08,NaN,-0.3262258,-1.382794E-07,NaN,0.6136742,6.521206E-08,NaN,-0.3970572,1.561695E-06,-0.508995,-1.071509E-08,NaN,NaN,-0.01984221,3.026795E-10,2.88462E-07,-1.163248E-07,5.286425E-09,-2.861022E-08
65.50932,-0.6795406,-3.378286E-08,NaN,-0.3261942,-1.382814E-07,NaN,0.6204448,6.52621E-08,NaN,-0.3940693,1.562487E-06,-0.5147868,-1.076255E-08,NaN,NaN,-0.0198356,2.980229E-10,2.942734E-07,-1.163271E-07,7.670611E-09,-2.622604E-08
65.5238,-0.7001712,-3.378169E-08,NaN,-0.3261598,-1.382834E-07,NaN,0.6273086,6.531097E-08,NaN,-0.3911084,1.563269E-06,-0.5206674,-1.080883E-08,NaN,NaN,-0.01982891,3.073361E-10,2.969556E-07,-1.163293E-07,7.670611E-09,-2.861022E-08
65.53841,-0.7001712,-3.378169E-08,NaN,-0.3261598,-1.382834E-07,NaN,0.6273086,6.531097E-08,NaN,-0.3911084,1.563269E-06,-0.5206674,-1.080883E-08,NaN,NaN,-0.01982891,3.073361E-10,2.969556E-07,-1.163293E-07,7.670611E-09,-2.861022E-08
65.55218,-0.7209498,-3.378051E-08,NaN,-0.326122,-1.382854E-07,NaN,0.6340795,6.53587E-08,NaN,-0.3882723,1.564065E-06,-0.5264762,-1.085398E-08,NaN,NaN,-0.01982229,3.026795E-10,3.033631E-07,-1.163316E-07,2.902239E-09,-2.622604E-08
65.56766,-0.7417343,-3.377933E-08,NaN,-0.3260817,-1.382874E-07,NaN,0.6407081,6.540566E-08,NaN,-0.3855863,1.564847E-06,-0.5321729,-1.089836E-08,NaN,NaN,-0.01981576,3.119927E-10,3.102176E-07,-1.163338E-07,5.180536E-10,-2.861022E-08
65.58234,-0.7626564,-3.377816E-08,NaN,-0.3260404,-1.382894E-07,NaN,0.6474386,6.545152E-08,NaN,-0.3829355,1.565634E-06,-0.5379736,-1.094163E-08,NaN,NaN,-0.01980899,3.166493E-10,3.193074E-07,-1.16336E-07,-6.634504E-09,-2.622604E-08
65.59918,-0.7626564,-3.377816E-08,NaN,-0.3260404,-1.382894E-07,NaN,0.6474386,6.545152E-08,NaN,-0.3829355,1.565634E-06,-0.5379736,-1.094163E-08,NaN,NaN,-0.01980899,3.166493E-10,3.193074E-07,-1.16336E-07,-6.634504E-09,-2.622604E-08
65.61209,-0.7835773,-3.377698E-08,NaN,-0.325998,-1.382913E-07,NaN,0.6541102,6.549629E-08,NaN,-0.3803878,1.566417E-06,-0.5437367,-1.098382E-08,NaN,NaN,-0.01980222,3.259626E-10,3.28099E-07,-1.163382E-07,-7.826596E-09,-2.861022E-08
65.62637,-0.8044099,-3.377581E-08,NaN,-0.3259549,-1.382933E-07,NaN,0.6606735,6.554036E-08,NaN,-0.3779625,1.567213E-06,-0.5494199,-1.10253E-08,NaN,NaN,-0.0197955,3.21306E-10,3.355496E-07,-1.163404E-07,-5.442411E-09,-2.622604E-08
65.6412,-0.8250997,-3.377463E-08,NaN,-0.3259115,-1.382953E-07,NaN,0.6671198,6.558302E-08,NaN,-0.3756596,1.567995E-06,-0.5550163,-1.106538E-08,NaN,NaN,-0.01978882,3.306192E-10,3.431492E-07,-1.163426E-07,-1.021078E-08,-2.861022E-08
65.65561,-0.8250997,-3.377463E-08,NaN,-0.3259115,-1.382953E-07,NaN,0.6671198,6.558302E-08,NaN,-0.3756596,1.567995E-06,-0.5550163,-1.106538E-08,NaN,NaN,-0.01978882,3.306192E-10,3.431492E-07,-1.163426E-07,-1.021078E-08,-2.861022E-08
65.66962,-0.8456131,-3.377345E-08,NaN,-0.3258685,-1.382972E-07,NaN,0.6734531,6.562466E-08,NaN,-0.3734722,1.568791E-06,-0.5605299,-1.110444E-08,NaN,NaN,-0.01978219,3.259626E-10,3.432982E-07,-1.163448E-07,-6.634503E-09,-2.622604E-08
65.68494,-0.8659298,-3.377227E-08,NaN,-0.3258263,-1.382992E-07,NaN,0.6796798,6.566566E-08,NaN,-0.3713922,1.569574E-06,-0.5659665,-1.114286E-08,NaN,NaN,-0.0197756,3.352758E-10,3.471725E-07,-1.16347E-07,-6.634503E-09,-2.861022E-08
65.69958,-0.8659298,-3.377227E-08,NaN,-0.3258263,-1.382992E-07,NaN,0.6796798,6.566566E-08,NaN,-0.3713922,1.569574E-06,-0.5659665,-1.114286E-08,NaN,NaN,-0.0197756,3.352758E-10,3.471725E-07,-1.16347E-07,-6.634503E-09,-2.861022E-08
65.71378,-0.8860379,-3.377109E-08,NaN,-0.3257853,-1.383011E-07,NaN,0.6858053,6.570567E-08,NaN,-0.3694123,1.57037E-06,-0.5713308,-1.118028E-08,NaN,NaN,-0.01976905,3.306192E-10,3.508978E-07,-1.163491E-07,-9.018688E-09,-2.622604E-08
65.72925,-0.9059306,-3.376991E-08,NaN,-0.3257457,-1.38303E-07,NaN,0.6918334,6.574471E-08,NaN,-0.3675264,1.571162E-06,-0.5766258,-1.121674E-08,NaN,NaN,-0.01976256,3.259626E-10,3.53282E-07,-1.163513E-07,-7.826595E-09,-2.861022E-08
65.74412,-0.9256048,-3.376873E-08,NaN,-0.3257077,-1.38305E-07,NaN,0.6977662,6.57828E-08,NaN,-0.3657293,1.571948E-06,-0.5818527,-1.125225E-08,NaN,NaN,-0.01975613,3.21306E-10,3.595405E-07,-1.163535E-07,-7.826595E-09,-2.622604E-08
65.75861,-0.9256048,-3.376873E-08,NaN,-0.3257077,-1.38305E-07,NaN,0.6977662,6.57828E-08,NaN,-0.3657293,1.571948E-06,-0.5818527,-1.125225E-08,NaN,NaN,-0.01975613,3.21306E-10,3.595405E-07,-1.163535E-07,-7.826595E-09,-2.622604E-08
65.77262,-0.9450592,-3.376755E-08,NaN,-0.3256713,-1.383069E-07,NaN,0.7036046,6.582032E-08,NaN,-0.3640171,1.572726E-06,-0.587012,-1.128718E-08,NaN,NaN,-0.01974978,3.21306E-10,3.650539E-07,-1.163556E-07,-6.634503E-09,-2.861022E-08
65.78793,-0.9642943,-3.376637E-08,NaN,-0.3256365,-1.383088E-07,NaN,0.7093486,6.585691E-08,NaN,-0.3623864,1.573499E-06,-0.5921031,-1.132119E-08,NaN,NaN,-0.01974351,3.259626E-10,3.665441E-07,-1.163578E-07,-6.634503E-09,-2.622604E-08
65.80256,-0.9833108,-3.376519E-08,NaN,-0.3256035,-1.383107E-07,NaN,0.7149977,6.589259E-08,NaN,-0.3608342,1.574267E-06,-0.5971248,-1.13543E-08,NaN,NaN,-0.01973731,3.352758E-10,3.714615E-07,-1.163599E-07,-1.866131E-09,-2.861022E-08
65.81725,-0.9833108,-3.376519E-08,NaN,-0.3256035,-1.383107E-07,NaN,0.7149977,6.589259E-08,NaN,-0.3608342,1.574267E-06,-0.5971248,-1.13543E-08,NaN,NaN,-0.01973731,3.352758E-10,3.714615E-07,-1.163599E-07,-1.866131E-09,-2.861022E-08
65.83109,-1.002111,-3.3764E-08,NaN,-0.3255721,-1.383126E-07,NaN,0.720551,6.592774E-08,NaN,-0.3593582,1.575045E-06,-0.6020759,-1.138687E-08,NaN,NaN,-0.01973121,3.352758E-10,3.728026E-07,-1.16362E-07,-6.740384E-10,-2.622604E-08
65.84647,-1.020695,-3.376282E-08,NaN,-0.3255423,-1.383145E-07,NaN,0.7260073,6.596202E-08,NaN,-0.3579558,1.575813E-06,-0.6069548,-1.141857E-08,NaN,NaN,-0.01972521,3.44589E-10,3.745907E-07,-1.163642E-07,1.710147E-09,-2.861022E-08
65.8631,-1.039067,-3.376164E-08,NaN,-0.3255142,-1.383164E-07,NaN,0.7313653,6.599544E-08,NaN,-0.3566251,1.576591E-06,-0.6117596,-1.14494E-08,NaN,NaN,-0.0197193,3.44589E-10,3.771239E-07,-1.163663E-07,-6.740384E-10,-2.622604E-08
65.87706,-1.039067,-3.376164E-08,NaN,-0.3255142,-1.383164E-07,NaN,0.7313653,6.599544E-08,NaN,-0.3566251,1.576591E-06,-0.6117596,-1.14494E-08,NaN,NaN,-0.0197193,3.44589E-10,3.771239E-07,-1.163663E-07,-6.740384E-10,-2.622604E-08
65.89072,-1.057229,-3.376045E-08,NaN,-0.3254877,-1.383183E-07,NaN,0.7366237,6.602837E-08,NaN,-0.3553641,1.577359E-06,-0.6164888,-1.147975E-08,NaN,NaN,-0.01971351,3.539022E-10,3.768259E-07,-1.163684E-07,-3.058224E-09,-2.861022E-08
65.90491,-1.075182,-3.375927E-08,NaN,-0.3254627,-1.383202E-07,NaN,0.7417813,6.606047E-08,NaN,-0.3541707,1.578137E-06,-0.6211405,-1.150927E-08,NaN,NaN,-0.01970783,3.539022E-10,3.754848E-07,-1.163705E-07,-4.250317E-09,-2.622604E-08
65.91957,-1.075182,-3.375927E-08,NaN,-0.3254627,-1.383202E-07,NaN,0.7417813,6.606047E-08,NaN,-0.3541707,1.578137E-06,-0.6211405,-1.150927E-08,NaN,NaN,-0.01970783,3.539022E-10,3.754848E-07,-1.163705E-07,-4.250317E-09,-2.622604E-08
65.93354,-1.092928,-3.375809E-08,NaN,-0.3254392,-1.383221E-07,NaN,0.7468366,6.609175E-08,NaN,-0.3530431,1.578905E-06,-0.6257131,-1.153798E-08,NaN,NaN,-0.01970227,3.632154E-10,3.741437E-07,-1.163726E-07,-3.058224E-09,-2.861022E-08
65.94879,-1.110471,-3.37569E-08,NaN,-0.3254172,-1.383239E-07,NaN,0.7517884,6.612259E-08,NaN,-0.3519796,1.579687E-06,-0.6302048,-1.156623E-08,NaN,NaN,-0.01969683,3.632154E-10,3.750377E-07,-1.163747E-07,-2.462178E-09,-2.622604E-08
65.96345,-1.127813,-3.375572E-08,NaN,-0.3253966,-1.383258E-07,NaN,0.7566354,6.615264E-08,NaN,-0.3509783,1.580474E-06,-0.6346141,-1.15937E-08,NaN,NaN,-0.01969151,3.585588E-10,3.772729E-07,-1.163768E-07,-4.250317E-09,-2.861022E-08
65.97822,-1.127813,-3.375572E-08,NaN,-0.3253966,-1.383258E-07,NaN,0.7566354,6.615264E-08,NaN,-0.3509783,1.580474E-06,-0.6346141,-1.15937E-08,NaN,NaN,-0.01969151,3.585588E-10,3.772729E-07,-1.163768E-07,-4.250317E-09,-2.861022E-08
65.99216,-1.144955,-3.375454E-08,NaN,-0.3253774,-1.383276E-07,NaN,0.7613766,6.618226E-08,NaN,-0.3500376,1.581257E-06,-0.6389394,-1.162075E-08,NaN,NaN,-0.01968633,3.585588E-10,3.812962E-07,-1.163788E-07,-3.654271E-09,-2.622604E-08
66.0076,-1.161901,-3.375335E-08,NaN,-0.3253595,-1.383299E-07,NaN,0.7660108,6.622873E-08,NaN,-0.3491558,1.582048E-06,-0.6431793,-1.166464E-08,NaN,NaN,-0.01968128,3.492456E-10,3.77869E-07,-1.1638E-07,-4.846363E-09,-2.861022E-08
66.02213,-1.178651,-3.375217E-08,NaN,-0.3253429,-1.383322E-07,NaN,0.7705369,6.627168E-08,NaN,-0.3483312,1.58284E-06,-0.6473324,-1.170503E-08,NaN,NaN,-0.01967637,3.399324E-10,3.827863E-07,-1.16381E-07,-3.058224E-09,-2.622604E-08
66.03686,-1.178651,-3.375217E-08,NaN,-0.3253429,-1.383322E-07,NaN,0.7705369,6.627168E-08,NaN,-0.3483312,1.58284E-06,-0.6473324,-1.170503E-08,NaN,NaN,-0.01967637,3.399324E-10,3.827863E-07,-1.16381E-07,-3.058224E-09,-2.622604E-08
66.0508,-1.19521,-3.375098E-08,NaN,-0.3253276,-1.383339E-07,NaN,0.7749541,6.629497E-08,NaN,-0.3475621,1.583622E-06,-0.6513974,-1.172574E-08,NaN,NaN,-0.01967159,3.399324E-10,3.804022E-07,-1.16383E-07,-4.250317E-09,-2.861022E-08
66.06728,-1.211577,-3.374979E-08,NaN,-0.3253135,-1.383357E-07,NaN,0.7792616,6.631969E-08,NaN,-0.3468471,1.584404E-06,-0.6553731,-1.174788E-08,NaN,NaN,-0.01966695,3.399324E-10,3.823393E-07,-1.16385E-07,-5.442409E-09,-2.622604E-08
66.08055,-1.227757,-3.374861E-08,NaN,-0.3253005,-1.383374E-07,NaN,0.7834585,6.634478E-08,NaN,-0.3461844,1.585187E-06,-0.6592584,-1.177039E-08,NaN,NaN,-0.01966245,3.399324E-10,3.868096E-07,-1.16387E-07,-3.65427E-09,-2.861022E-08
66.09532,-1.227757,-3.374861E-08,NaN,-0.3253005,-1.383374E-07,NaN,0.7834585,6.634478E-08,NaN,-0.3461844,1.585187E-06,-0.6592584,-1.177039E-08,NaN,NaN,-0.01966245,3.399324E-10,3.868096E-07,-1.16387E-07,-3.65427E-09,-2.861022E-08
66.10925,-1.243751,-3.374742E-08,NaN,-0.3252887,-1.383392E-07,NaN,0.7875442,6.636953E-08,NaN,-0.3455727,1.585969E-06,-0.6630523,-1.179257E-08,NaN,NaN,-0.0196581,3.399324E-10,3.844254E-07,-1.16389E-07,-4.250316E-09,-2.622604E-08
66.1245,-1.259561,-3.374623E-08,NaN,-0.3252781,-1.38341E-07,NaN,0.7915182,6.639361E-08,NaN,-0.3450104,1.586751E-06,-0.6667538,-1.181408E-08,NaN,NaN,-0.0196539,3.399324E-10,3.826373E-07,-1.163911E-07,-4.250316E-09,-2.861022E-08
66.13893,-1.259561,-3.374623E-08,NaN,-0.3252781,-1.38341E-07,NaN,0.7915182,6.639361E-08,NaN,-0.3450104,1.586751E-06,-0.6667538,-1.181408E-08,NaN,NaN,-0.0196539,3.399324E-10,3.826373E-07,-1.163911E-07,-4.250316E-09,-2.861022E-08
66.15491,-1.27519,-3.374505E-08,NaN,-0.3252685,-1.383428E-07,NaN,0.7953799,6.641739E-08,NaN,-0.344496,1.587533E-06,-0.6703621,-1.183528E-08,NaN,NaN,-0.01964984,3.399324E-10,3.793591E-07,-1.163931E-07,-4.846362E-09,-2.622604E-08
66.16942,-1.290418,-3.374386E-08,NaN,-0.3252592,-1.383446E-07,NaN,0.7988155,6.644086E-08,NaN,-0.3441264,1.588316E-06,-0.6735923,-1.185617E-08,NaN,NaN,-0.01964633,3.399324E-10,3.780179E-07,-1.163951E-07,-5.144386E-09,-2.861022E-08
66.18266,-1.30533,-3.374267E-08,NaN,-0.3252512,-1.383465E-07,NaN,0.8020508,6.646368E-08,NaN,-0.3438306,1.589098E-06,-0.6766506,-1.187642E-08,NaN,NaN,-0.01964301,3.399324E-10,3.771239E-07,-1.163971E-07,-5.442409E-09,-2.622604E-08
66.19748,-1.30533,-3.374267E-08,NaN,-0.3252512,-1.383465E-07,NaN,0.8020508,6.646368E-08,NaN,-0.3438306,1.589098E-06,-0.6766506,-1.187642E-08,NaN,NaN,-0.01964301,3.399324E-10,3.771239E-07,-1.163971E-07,-5.442409E-09,-2.622604E-08
66.21157,-1.319981,-3.374148E-08,NaN,-0.3252448,-1.383482E-07,NaN,0.8051668,6.648623E-08,NaN,-0.3435787,1.58988E-06,-0.6796101,-1.189639E-08,NaN,NaN,-0.0196398,3.399324E-10,3.808492E-07,-1.163991E-07,-5.144386E-09,-2.861022E-08
66.22678,-1.334407,-3.374029E-08,NaN,-0.3252399,-1.3835E-07,NaN,0.808188,6.650815E-08,NaN,-0.3433591,1.590663E-06,-0.6824921,-1.191573E-08,NaN,NaN,-0.01963671,3.399324E-10,3.777199E-07,-1.164011E-07,-5.591421E-09,-2.622604E-08
66.24145,-1.347904,-3.37391E-08,NaN,-0.325234,-1.383518E-07,NaN,0.8100719,6.652981E-08,NaN,-0.3434888,1.591445E-06,-0.6843483,-1.193481E-08,NaN,NaN,-0.01963505,3.399324E-10,3.705674E-07,-1.164031E-07,-4.697351E-09,-2.861022E-08
66.25635,-1.347904,-3.37391E-08,NaN,-0.325234,-1.383518E-07,NaN,0.8100719,6.652981E-08,NaN,-0.3434888,1.591445E-06,-0.6843483,-1.193481E-08,NaN,NaN,-0.01963505,3.399324E-10,3.705674E-07,-1.164031E-07,-4.697351E-09,-2.861022E-08
66.26981,-1.360758,-3.37379E-08,NaN,-0.3252302,-1.383536E-07,NaN,0.8115739,6.655085E-08,NaN,-0.3437415,1.592227E-06,-0.6858707,-1.195328E-08,NaN,NaN,-0.01963365,3.399324E-10,3.690773E-07,-1.164051E-07,-5.144386E-09,-2.622604E-08
66.28527,-1.373156,-3.373671E-08,NaN,-0.3252287,-1.383554E-07,NaN,0.8129627,6.657131E-08,NaN,-0.3440242,1.593009E-06,-0.6873026,-1.197117E-08,NaN,NaN,-0.01963228,3.399324E-10,3.6565E-07,-1.164071E-07,-4.846362E-09,-2.861022E-08
66.2999,-1.373156,-3.373671E-08,NaN,-0.3252287,-1.383554E-07,NaN,0.8129627,6.657131E-08,NaN,-0.3440242,1.593009E-06,-0.6873026,-1.197117E-08,NaN,NaN,-0.01963228,3.399324E-10,3.6565E-07,-1.164071E-07,-4.846362E-09,-2.861022E-08
66.31393,-1.384486,-3.373552E-08,NaN,-0.3252275,-1.383571E-07,NaN,0.8132699,6.659153E-08,NaN,-0.3446236,1.593792E-06,-0.6877609,-1.198882E-08,NaN,NaN,-0.01963229,3.399324E-10,3.620737E-07,-1.164091E-07,-4.920868E-09,-2.622604E-08
66.32917,-1.395098,-3.373433E-08,NaN,-0.3252279,-1.383589E-07,NaN,0.8132674,6.661117E-08,NaN,-0.3453086,1.594574E-06,-0.6879513,-1.200589E-08,NaN,NaN,-0.01963255,3.399324E-10,3.614777E-07,-1.164111E-07,-5.665926E-09,-2.861022E-08
66.34373,-1.405213,-3.373314E-08,NaN,-0.3252296,-1.383607E-07,NaN,0.813219,6.663059E-08,NaN,-0.3459894,1.595356E-06,-0.688112,-1.202273E-08,NaN,NaN,-0.01963282,3.399324E-10,3.595405E-07,-1.16413E-07,-4.473834E-09,-2.622604E-08
66.35847,-1.405213,-3.373314E-08,NaN,-0.3252296,-1.383607E-07,NaN,0.813219,6.663059E-08,NaN,-0.3459894,1.595356E-06,-0.688112,-1.202273E-08,NaN,NaN,-0.01963282,3.399324E-10,3.595405E-07,-1.16413E-07,-4.473834E-09,-2.622604E-08
66.37227,-1.414974,-3.373195E-08,NaN,-0.3252324,-1.383624E-07,NaN,0.8131943,6.664945E-08,NaN,-0.3466393,1.596139E-06,-0.6883029,-1.203902E-08,NaN,NaN,-0.01963308,3.399324E-10,3.553682E-07,-1.16415E-07,-3.430753E-09,-2.861022E-08
66.38748,-1.423743,-3.373076E-08,NaN,-0.3252347,-1.383642E-07,NaN,0.8121547,6.666775E-08,NaN,-0.347576,1.596921E-06,-0.6875771,-1.205475E-08,NaN,NaN,-0.01963466,3.399324E-10,3.488117E-07,-1.164169E-07,-3.728776E-09,-2.622604E-08
66.40191,-1.431851,-3.372957E-08,NaN,-0.3252383,-1.383659E-07,NaN,0.8108405,6.668586E-08,NaN,-0.3485822,1.597703E-06,-0.6866121,-1.207029E-08,NaN,NaN,-0.01963645,3.399324E-10,3.450864E-07,-1.164189E-07,-2.536683E-09,-2.861022E-08
66.41662,-1.431851,-3.372957E-08,NaN,-0.3252383,-1.383659E-07,NaN,0.8108405,6.668586E-08,NaN,-0.3485822,1.597703E-06,-0.6866121,-1.207029E-08,NaN,NaN,-0.01963645,3.399324E-10,3.450864E-07,-1.164189E-07,-2.536683E-09,-2.861022E-08
66.43089,-1.43951,-3.372837E-08,NaN,-0.3252445,-1.383676E-07,NaN,0.8095077,6.670343E-08,NaN,-0.3495745,1.598485E-06,-0.6856393,-1.208528E-08,NaN,NaN,-0.01963818,3.399324E-10,3.395729E-07,-1.164208E-07,-2.834706E-09,-2.622604E-08
66.44794,-1.446854,-3.372718E-08,NaN,-0.3252532,-1.383694E-07,NaN,0.8082228,6.672082E-08,NaN,-0.3505278,1.599268E-06,-0.6847171,-1.21001E-08,NaN,NaN,-0.01963985,3.399324E-10,3.351026E-07,-1.164228E-07,-1.940637E-09,-2.861022E-08
66.46143,-1.453241,-3.372599E-08,NaN,-0.3252616,-1.383711E-07,NaN,0.8059605,6.673768E-08,NaN,-0.3517607,1.60005E-06,-0.6829107,-1.21144E-08,NaN,NaN,-0.01964274,3.399324E-10,3.301852E-07,-1.164247E-07,-1.34459E-09,-2.622604E-08
66.47507,-1.453241,-3.372599E-08,NaN,-0.3252616,-1.383711E-07,NaN,0.8059605,6.673768E-08,NaN,-0.3517607,1.60005E-06,-0.6829107,-1.21144E-08,NaN,NaN,-0.01964274,3.399324E-10,3.301852E-07,-1.164247E-07,-1.34459E-09,-2.622604E-08
66.48891,-1.459,-3.372479E-08,NaN,-0.3252718,-1.383733E-07,NaN,0.8034535,6.658444E-08,NaN,-0.3530556,1.600842E-06,-0.6808903,-1.195142E-08,NaN,NaN,-0.0196458,3.306192E-10,3.242248E-07,-1.164242E-07,-4.505205E-10,-2.622604E-08
66.50401,-1.464339,-3.37236E-08,NaN,-0.3252842,-1.38375E-07,NaN,0.8009554,6.64312E-08,NaN,-0.3543281,1.601633E-06,-0.6788852,-1.178347E-08,NaN,NaN,-0.01964876,3.21306E-10,3.230327E-07,-1.164233E-07,-1.642613E-09,-2.622604E-08
66.51852,-1.464339,-3.37236E-08,NaN,-0.3252842,-1.38375E-07,NaN,0.8009554,6.64312E-08,NaN,-0.3543281,1.601633E-06,-0.6788852,-1.178347E-08,NaN,NaN,-0.01964876,3.21306E-10,3.230327E-07,-1.164233E-07,-1.642613E-09,-2.622604E-08
66.53389,-1.468664,-3.37224E-08,NaN,-0.3252963,-1.383765E-07,NaN,0.7975234,6.627796E-08,NaN,-0.3558753,1.602425E-06,-0.6760368,-1.16122E-08,NaN,NaN,-0.01965285,3.119927E-10,3.169232E-07,-1.164222E-07,1.455259E-10,-2.622604E-08
66.54786,-1.472332,-3.372121E-08,NaN,-0.3253096,-1.383778E-07,NaN,0.7938995,6.612471E-08,NaN,-0.3574704,1.603216E-06,-0.6730224,-1.143878E-08,NaN,NaN,-0.01965703,3.026795E-10,3.124529E-07,-1.164211E-07,7.415724E-10,-2.622604E-08
66.56261,-1.475573,-3.372002E-08,NaN,-0.3253246,-1.38379E-07,NaN,0.790336,6.597147E-08,NaN,-0.3590273,1.604008E-06,-0.6700699,-1.12641E-08,NaN,NaN,-0.01966106,2.933663E-10,3.085786E-07,-1.164198E-07,4.435491E-10,-2.622604E-08
66.57719,-1.475573,-3.372002E-08,NaN,-0.3253246,-1.38379E-07,NaN,0.790336,6.597147E-08,NaN,-0.3590273,1.604008E-06,-0.6700699,-1.12641E-08,NaN,NaN,-0.01966106,2.933663E-10,3.085786E-07,-1.164198E-07,4.435491E-10,-2.622604E-08
66.59124,-1.47853,-3.371882E-08,NaN,-0.325341,-1.383802E-07,NaN,0.7868952,6.581823E-08,NaN,-0.3605219,1.604795E-06,-0.6672338,-1.10888E-08,NaN,NaN,-0.01966493,2.887097E-10,2.990418E-07,-1.164185E-07,1.455259E-10,-2.622604E-08
66.60672,-1.480569,-3.371763E-08,NaN,-0.3253563,-1.383813E-07,NaN,0.7825908,6.566498E-08,NaN,-0.3622816,1.605586E-06,-0.6636175,-1.091336E-08,NaN,NaN,-0.01966982,2.793965E-10,2.948695E-07,-1.164173E-07,1.455259E-10,-2.622604E-08
66.62124,-1.482021,-3.371643E-08,NaN,-0.3253717,-1.383823E-07,NaN,0.7781223,6.551174E-08,NaN,-0.3640857,1.606378E-06,-0.6598585,-1.07381E-08,NaN,NaN,-0.01967478,2.700833E-10,2.892071E-07,-1.164159E-07,-1.046567E-09,-2.622604E-08
66.63569,-1.482021,-3.371643E-08,NaN,-0.3253717,-1.383823E-07,NaN,0.7781223,6.551174E-08,NaN,-0.3640857,1.606378E-06,-0.6598585,-1.07381E-08,NaN,NaN,-0.01967478,2.700833E-10,2.892071E-07,-1.164159E-07,-1.046567E-09,-2.622604E-08
66.64977,-1.483098,-3.371523E-08,NaN,-0.3253877,-1.383834E-07,NaN,0.7737313,6.53585E-08,NaN,-0.3658501,1.60717E-06,-0.6561751,-1.056329E-08,NaN,NaN,-0.01967959,2.6077E-10,2.845877E-07,-1.164146E-07,-4.505205E-10,-2.622604E-08
66.66512,-1.483935,-3.371403E-08,NaN,-0.3254041,-1.383844E-07,NaN,0.7694798,6.520526E-08,NaN,-0.3675506,1.607966E-06,-0.6526218,-1.03891E-08,NaN,NaN,-0.01968419,2.514568E-10,2.774352E-07,-1.164133E-07,-1.046567E-09,-2.622604E-08
66.67989,-1.483935,-3.371403E-08,NaN,-0.3254041,-1.383844E-07,NaN,0.7694798,6.520526E-08,NaN,-0.3675506,1.607966E-06,-0.6526218,-1.03891E-08,NaN,NaN,-0.01968419,2.514568E-10,2.774352E-07,-1.164133E-07,-1.046567E-09,-2.622604E-08
66.69364,-1.483889,-3.371284E-08,NaN,-0.3254187,-1.383854E-07,NaN,0.7644161,6.505201E-08,NaN,-0.3695186,1.608753E-06,-0.6483362,-1.021567E-08,NaN,NaN,-0.01968972,2.468002E-10,2.719217E-07,-1.16412E-07,-1.046567E-09,-2.622604E-08
66.7092,-1.483289,-3.371164E-08,NaN,-0.3254325,-1.383865E-07,NaN,0.7592193,6.489877E-08,NaN,-0.371529,1.609535E-06,-0.6439352,-1.004309E-08,NaN,NaN,-0.0196953,2.421436E-10,2.671534E-07,-1.164107E-07,1.455259E-10,-2.622604E-08
66.72346,-1.482342,-3.371044E-08,NaN,-0.3254461,-1.383875E-07,NaN,0.7541255,6.474553E-08,NaN,-0.373496,1.610313E-06,-0.6396319,-9.871432E-09,NaN,NaN,-0.01970068,2.37487E-10,2.62236E-07,-1.164094E-07,1.455259E-10,-2.622604E-08
66.74036,-1.48118,-3.370925E-08,NaN,-0.3254596,-1.38388E-07,NaN,0.7491958,6.472747E-08,NaN,-0.3753944,1.611095E-06,-0.6354801,-9.838095E-09,NaN,NaN,-0.01970583,2.37487E-10,2.564245E-07,-1.164105E-07,-1.642613E-09,-2.861022E-08
66.75354,-1.48118,-3.370925E-08,NaN,-0.3254596,-1.38388E-07,NaN,0.7491958,6.472747E-08,NaN,-0.3753944,1.611095E-06,-0.6354801,-9.838095E-09,NaN,NaN,-0.01970583,2.37487E-10,2.564245E-07,-1.164105E-07,-1.642613E-09,-2.861022E-08
66.76745,-1.479161,-3.370804E-08,NaN,-0.3254707,-1.38389E-07,NaN,0.7435123,6.472072E-08,NaN,-0.3775619,1.611873E-06,-0.6306509,-9.818613E-09,NaN,NaN,-0.0197118,2.468002E-10,2.504641E-07,-1.16412E-07,1.455259E-10,-2.622604E-08
66.78162,-1.47661,-3.370684E-08,NaN,-0.3254804,-1.383903E-07,NaN,0.7377304,6.471932E-08,NaN,-0.3797684,1.61266E-06,-0.6257375,-9.806501E-09,NaN,NaN,-0.01971779,2.514568E-10,2.446526E-07,-1.164137E-07,1.455259E-10,-2.861022E-08
66.79623,-1.47661,-3.370684E-08,NaN,-0.3254804,-1.383903E-07,NaN,0.7377304,6.471932E-08,NaN,-0.3797684,1.61266E-06,-0.6257375,-9.806501E-09,NaN,NaN,-0.01971779,2.514568E-10,2.446526E-07,-1.164137E-07,1.455259E-10,-2.861022E-08
66.81052,-1.473736,-3.370564E-08,NaN,-0.3254893,-1.383917E-07,NaN,0.7320785,6.472076E-08,NaN,-0.3819264,1.613447E-06,-0.6209454,-9.79886E-09,NaN,NaN,-0.01972356,2.6077E-10,2.36159E-07,-1.164155E-07,2.529712E-09,-2.622604E-08
66.82564,-1.469941,-3.370444E-08,NaN,-0.3254952,-1.383936E-07,NaN,0.7257276,6.47236E-08,NaN,-0.384354,1.614243E-06,-0.615528,-9.793929E-09,NaN,NaN,-0.01973006,2.6077E-10,2.284104E-07,-1.16415E-07,4.913897E-09,-2.861022E-08
66.8402,-1.465585,-3.370324E-08,NaN,-0.3254992,-1.383952E-07,NaN,0.7193307,6.471353E-08,NaN,-0.3868094,1.615039E-06,-0.6100746,-9.777128E-09,NaN,NaN,-0.01973652,2.6077E-10,2.224499E-07,-1.16414E-07,4.913897E-09,-2.622604E-08
66.85463,-1.465585,-3.370324E-08,NaN,-0.3254992,-1.383952E-07,NaN,0.7193307,6.471353E-08,NaN,-0.3868094,1.615039E-06,-0.6100746,-9.777128E-09,NaN,NaN,-0.01973652,2.6077E-10,2.224499E-07,-1.16414E-07,4.913897E-09,-2.622604E-08
66.86865,-1.460892,-3.370204E-08,NaN,-0.3255018,-1.383965E-07,NaN,0.7131107,6.469616E-08,NaN,-0.3892027,1.615835E-06,-0.6047849,-9.753851E-09,NaN,NaN,-0.01974272,2.6077E-10,2.154463E-07,-1.164129E-07,6.10599E-09,-2.861022E-08
66.88393,-1.456007,-3.370084E-08,NaN,-0.3255036,-1.383977E-07,NaN,0.7071207,6.467524E-08,NaN,-0.3915091,1.616632E-06,-0.5997053,-9.727692E-09,NaN,NaN,-0.01974862,2.6077E-10,2.078468E-07,-1.164117E-07,4.913898E-09,-2.622604E-08
66.89865,-1.456007,-3.370084E-08,NaN,-0.3255036,-1.383977E-07,NaN,0.7071207,6.467524E-08,NaN,-0.3915091,1.616632E-06,-0.5997053,-9.727692E-09,NaN,NaN,-0.01974862,2.6077E-10,2.078468E-07,-1.164117E-07,4.913898E-09,-2.622604E-08
66.91257,-1.450295,-3.369964E-08,NaN,-0.3255037,-1.383988E-07,NaN,0.7005061,6.465235E-08,NaN,-0.394081,1.617428E-06,-0.5940706,-9.700086E-09,NaN,NaN,-0.01975515,2.6077E-10,2.002472E-07,-1.164104E-07,3.721805E-09,-2.861022E-08
66.92779,-1.444085,-3.369843E-08,NaN,-0.3255028,-1.383998E-07,NaN,0.6938679,6.462865E-08,NaN,-0.3966807,1.618224E-06,-0.5884199,-9.672104E-09,NaN,NaN,-0.01976162,2.6077E-10,1.941377E-07,-1.164091E-07,4.317851E-09,-2.622604E-08
66.94257,-1.437588,-3.369723E-08,NaN,-0.3255011,-1.384008E-07,NaN,0.687414,6.460459E-08,NaN,-0.3992189,1.61902E-06,-0.5829385,-9.644094E-09,NaN,NaN,-0.01976783,2.6077E-10,1.863891E-07,-1.164078E-07,3.125759E-09,-2.861022E-08
66.95722,-1.437588,-3.369723E-08,NaN,-0.3255011,-1.384008E-07,NaN,0.687414,6.460459E-08,NaN,-0.3992189,1.61902E-06,-0.5829385,-9.644094E-09,NaN,NaN,-0.01976783,2.6077E-10,1.863891E-07,-1.164078E-07,3.125759E-09,-2.861022E-08
66.97102,-1.43021,-3.369603E-08,NaN,-0.3254966,-1.384018E-07,NaN,0.680378,6.458058E-08,NaN,-0.4020267,1.619817E-06,-0.5769427,-9.6164E-09,NaN,NaN,-0.0197746,2.6077E-10,1.799816E-07,-1.164065E-07,-4.505201E-10,-2.622604E-08
66.98617,-1.422309,-3.369482E-08,NaN,-0.3254897,-1.384027E-07,NaN,0.6733589,6.455665E-08,NaN,-0.4048536,1.620613E-06,-0.5709674,-9.589015E-09,NaN,NaN,-0.01978128,2.6077E-10,1.737231E-07,-1.164052E-07,-4.505201E-10,-2.861022E-08
67.00201,-1.414111,-3.369362E-08,NaN,-0.3254812,-1.384036E-07,NaN,0.6665608,6.45332E-08,NaN,-0.4076073,1.621409E-06,-0.5651942,-9.562279E-09,NaN,NaN,-0.01978767,2.6077E-10,1.659745E-07,-1.164039E-07,-1.642613E-09,-2.622604E-08
67.01556,-1.414111,-3.369362E-08,NaN,-0.3254812,-1.384036E-07,NaN,0.6665608,6.45332E-08,NaN,-0.4076073,1.621409E-06,-0.5651942,-9.562279E-09,NaN,NaN,-0.01978767,2.6077E-10,1.659745E-07,-1.164039E-07,-1.642613E-09,-2.622604E-08
67.02932,-1.405761,-3.369241E-08,NaN,-0.3254716,-1.384046E-07,NaN,0.6600299,6.451026E-08,NaN,-0.4102626,1.622205E-06,-0.5596634,-9.536182E-09,NaN,NaN,-0.01979375,2.6077E-10,1.60014E-07,-1.164026E-07,-1.046567E-09,-2.861022E-08
67.04684,-1.396623,-3.369121E-08,NaN,-0.3254589,-1.384055E-07,NaN,0.6529805,6.448783E-08,NaN,-0.4131846,1.623002E-06,-0.5536778,-9.51071E-09,NaN,NaN,-0.0198003,2.6077E-10,1.509243E-07,-1.164013E-07,-1.642613E-09,-2.622604E-08
67.06024,-1.387026,-3.369E-08,NaN,-0.3254437,-1.384064E-07,NaN,0.6459607,6.446592E-08,NaN,-0.4161266,1.623798E-06,-0.5477239,-9.48585E-09,NaN,NaN,-0.01980676,2.6077E-10,1.433247E-07,-1.164E-07,-2.238659E-09,-2.861022E-08
67.07391,-1.387026,-3.369E-08,NaN,-0.3254437,-1.384064E-07,NaN,0.6459607,6.446592E-08,NaN,-0.4161266,1.623798E-06,-0.5477239,-9.48585E-09,NaN,NaN,-0.01980676,2.6077E-10,1.433247E-07,-1.164E-07,-2.238659E-09,-2.861022E-08
