JMolnar6/NonAnthroHands_User_Study/HandsLoggerWithURDF/tempdata/files/Reachy_PID0_JointMotion_gesture_7_4.csv
Time,r_shoulder,r_shoulder_x,r_upper_arm,r_forearm,r_wrist,r_wrist2hand,
362.6355,-0.1017688,-0.3274321,0.4628235,-2.133198,-0.3539343,-0.01691609
362.6504,-0.1020815,-0.3274289,0.4628733,-2.133363,-0.3540143,-0.01697675
362.6644,-0.1023906,-0.3274257,0.4629221,-2.133526,-0.3540927,-0.01703621
362.679,-0.1023906,-0.3274257,0.4629221,-2.133526,-0.3540927,-0.01703621
362.6927,-0.1026962,-0.3274225,0.4629701,-2.133688,-0.3541696,-0.0170945
362.7081,-0.1029982,-0.3274194,0.4630172,-2.133848,-0.354245,-0.01715165
362.7224,-0.1032968,-0.3274163,0.4630635,-2.134007,-0.3543189,-0.01720767
362.737,-0.1032968,-0.3274163,0.4630635,-2.134007,-0.3543189,-0.01720767
362.7509,-0.1035919,-0.3274132,0.463109,-2.134165,-0.3543914,-0.01726261
362.7663,-0.1038836,-0.3274102,0.4631537,-2.134321,-0.3544624,-0.01731646
362.781,-0.1041719,-0.3274072,0.4631976,-2.134476,-0.3545321,-0.01736925
362.7961,-0.1041719,-0.3274072,0.4631976,-2.134476,-0.3545321,-0.01736925
362.8096,-0.104457,-0.3274042,0.4632408,-2.134629,-0.3546004,-0.01742101
362.825,-0.1047387,-0.3274012,0.4632831,-2.134781,-0.3546673,-0.01747176
362.8393,-0.1047387,-0.3274012,0.4632831,-2.134781,-0.3546673,-0.01747176
362.8531,-0.1050172,-0.3273983,0.4633247,-2.134932,-0.3547329,-0.0175215
362.8685,-0.1052925,-0.3273954,0.4633656,-2.135081,-0.3547973,-0.01757027
362.8828,-0.1055646,-0.3273925,0.4634057,-2.135229,-0.3548603,-0.01761808
362.8977,-0.1055646,-0.3273925,0.4634057,-2.135229,-0.3548603,-0.01761808
362.9117,-0.1058336,-0.3273897,0.4634451,-2.135376,-0.3549222,-0.01766496
362.9289,-0.1060995,-0.3273869,0.4634838,-2.135521,-0.3549828,-0.01771092
362.9421,-0.1063623,-0.3273841,0.4635218,-2.135665,-0.3550422,-0.01775597
362.9566,-0.1063623,-0.3273841,0.4635218,-2.135665,-0.3550422,-0.01775597
362.9705,-0.1066221,-0.3273814,0.4635591,-2.135808,-0.3551005,-0.01780014
362.9859,-0.1068789,-0.3273787,0.4635957,-2.135949,-0.3551576,-0.01784344
362.9993,-0.1068789,-0.3273787,0.4635957,-2.135949,-0.3551576,-0.01784344
363.0131,-0.1071328,-0.327376,0.4636316,-2.136089,-0.3552136,-0.0178859
363.0283,-0.1073837,-0.3273734,0.4636669,-2.136227,-0.3552685,-0.01792751
363.043,-0.1076317,-0.3273707,0.4637016,-2.136365,-0.3553224,-0.01796831
363.0576,-0.1076317,-0.3273707,0.4637016,-2.136365,-0.3553224,-0.01796831
363.0714,-0.1078769,-0.3273681,0.4637356,-2.136501,-0.3553752,-0.01800831
363.0866,-0.1081193,-0.3273656,0.463769,-2.136636,-0.3554269,-0.01804753
363.1013,-0.1083588,-0.327363,0.4638017,-2.136769,-0.3554777,-0.01808598
363.1159,-0.1083588,-0.327363,0.4638017,-2.136769,-0.3554777,-0.01808598
363.13,-0.1085956,-0.3273605,0.4638339,-2.136901,-0.3555275,-0.01812367
363.1451,-0.1088297,-0.327358,0.4638655,-2.137033,-0.3555762,-0.01816062
363.1597,-0.1088297,-0.327358,0.4638655,-2.137033,-0.3555762,-0.01816062
363.1736,-0.1090611,-0.3273555,0.4638965,-2.137162,-0.3556241,-0.01819685
363.1889,-0.1092898,-0.3273531,0.4639269,-2.137291,-0.355671,-0.01823237
363.2038,-0.1095159,-0.3273507,0.4639567,-2.137418,-0.355717,-0.01826719
363.2179,-0.1095159,-0.3273507,0.4639567,-2.137418,-0.355717,-0.01826719
363.2342,-0.1097393,-0.3273483,0.463986,-2.137544,-0.3557621,-0.01830132
363.2483,-0.1099602,-0.3273459,0.4640147,-2.137669,-0.3558063,-0.01833479
363.2631,-0.1101786,-0.3273436,0.4640429,-2.137793,-0.3558496,-0.0183676
363.2765,-0.1101786,-0.3273436,0.4640429,-2.137793,-0.3558496,-0.0183676
363.2901,-0.1103944,-0.3273413,0.4640706,-2.137915,-0.3558921,-0.01839976
363.3054,-0.1106078,-0.327339,0.4640977,-2.138037,-0.3559338,-0.0184313
363.3199,-0.1106078,-0.327339,0.4640977,-2.138037,-0.3559338,-0.0184313
363.3338,-0.1108187,-0.3273367,0.4641243,-2.138157,-0.3559747,-0.01846221
363.349,-0.1110272,-0.3273345,0.4641504,-2.138276,-0.3560148,-0.01849252
363.3637,-0.1112332,-0.3273322,0.464176,-2.138394,-0.356054,-0.01852223
363.3783,-0.1112332,-0.3273322,0.464176,-2.138394,-0.356054,-0.01852223
363.3922,-0.1114369,-0.32733,0.4642011,-2.138511,-0.3560926,-0.01855136
363.4074,-0.1116383,-0.3273278,0.4642258,-2.138626,-0.3561304,-0.01857992
363.4219,-0.1118373,-0.3273257,0.4642499,-2.138741,-0.3561674,-0.01860792
363.4366,-0.1118373,-0.3273257,0.4642499,-2.138741,-0.3561674,-0.01860792
363.4507,-0.112034,-0.3273236,0.4642736,-2.138854,-0.3562037,-0.01863536
363.466,-0.1122285,-0.3273214,0.4642969,-2.138967,-0.3562393,-0.01866228
363.4806,-0.1124207,-0.3273194,0.4643196,-2.139078,-0.3562743,-0.01868866
363.4967,-0.1124207,-0.3273194,0.4643196,-2.139078,-0.3562743,-0.01868866
363.5092,-0.1126107,-0.3273173,0.464342,-2.139188,-0.3563085,-0.01871452
363.5246,-0.1127986,-0.3273152,0.4643639,-2.139297,-0.3563421,-0.01873988
363.5411,-0.1129842,-0.3273132,0.4643854,-2.139405,-0.3563751,-0.01876474
363.5545,-0.1129842,-0.3273132,0.4643854,-2.139405,-0.3563751,-0.01876474
363.5685,-0.1131677,-0.3273112,0.4644064,-2.139512,-0.3564074,-0.01878911
363.5826,-0.1133492,-0.3273092,0.4644271,-2.139617,-0.3564391,-0.018813
363.5971,-0.1133492,-0.3273092,0.4644271,-2.139617,-0.3564391,-0.018813
363.6109,-0.1135285,-0.3273073,0.4644473,-2.139722,-0.3564702,-0.01883642
363.626,-0.1137057,-0.3273053,0.4644671,-2.139826,-0.3565007,-0.01885938
363.6406,-0.113881,-0.3273034,0.4644865,-2.139929,-0.3565305,-0.0188819
363.656,-0.113881,-0.3273034,0.4644865,-2.139929,-0.3565305,-0.0188819
363.6693,-0.1133269,-0.3272991,0.4643351,-2.140416,-0.3565579,-0.01890369
363.6843,-0.1123163,-0.3272938,0.4641115,-2.141016,-0.3566326,-0.01892511
363.699,-0.1123163,-0.3272938,0.4641115,-2.141016,-0.3566326,-0.01892511
363.7128,-0.1110226,-0.327288,0.4638801,-2.14162,-0.356727,-0.01894616
363.7283,-0.1102846,-0.3272845,0.4638349,-2.141807,-0.3568257,-0.0189671
363.7427,-0.1098993,-0.3272822,0.4638821,-2.14184,-0.3568715,-0.01898759
363.7577,-0.1098993,-0.3272822,0.4638821,-2.14184,-0.3568715,-0.01898759
363.7713,-0.1097375,-0.3272806,0.463955,-2.141832,-0.3568908,-0.01900763
363.7867,-0.1097171,-0.3272792,0.4640262,-2.141824,-0.356902,-0.01902726
363.8013,-0.1105129,-0.3272794,0.4642585,-2.141443,-0.3569152,-0.01904677
363.8157,-0.1105129,-0.3272794,0.4642585,-2.141443,-0.3569152,-0.01904677
363.83,-0.111819,-0.3272798,0.4645531,-2.140965,-0.356882,-0.01906583
363.8452,-0.1134407,-0.3272801,0.4648477,-2.140492,-0.3568303,-0.01908447
363.8618,-0.1152542,-0.3272802,0.4651202,-2.14006,-0.3567777,-0.01910272
363.8752,-0.1152542,-0.3272802,0.4651202,-2.14006,-0.3567777,-0.01910272
363.8888,-0.1179091,-0.3272821,0.4655385,-2.139288,-0.3567325,-0.01912087
363.9031,-0.1210823,-0.3272841,0.4660075,-2.138441,-0.3566448,-0.01913859
363.9177,-0.1210823,-0.3272841,0.4660075,-2.138441,-0.3566448,-0.01913859
363.9315,-0.1245683,-0.3272855,0.466467,-2.137622,-0.3565417,-0.01915591
363.9467,-0.1289647,-0.3272884,0.4670678,-2.136473,-0.3564415,-0.01917313
363.9612,-0.1339156,-0.3272909,0.4677093,-2.135271,-0.3562998,-0.01918993
363.9758,-0.1339156,-0.3272909,0.4677093,-2.135271,-0.3562998,-0.01918993
363.9897,-0.1391946,-0.3272922,0.468331,-2.134114,-0.3561452,-0.01920634
364.0049,-0.1446578,-0.3272925,0.4689143,-2.133032,-0.355995,-0.01922239
364.0196,-0.1446578,-0.3272925,0.4689143,-2.133032,-0.355995,-0.01922239
364.0336,-0.1509424,-0.3272937,0.4696296,-2.131639,-0.3558539,-0.01923837
364.0487,-0.1577174,-0.3272942,0.4703826,-2.130199,-0.3556742,-0.01925395
364.0634,-0.1647725,-0.327294,0.4711147,-2.128809,-0.355483,-0.01926917
364.078,-0.1647725,-0.327294,0.4711147,-2.128809,-0.355483,-0.01926917
364.092,-0.1727025,-0.3272945,0.4719784,-2.127111,-0.3552945,-0.01928431
364.1071,-0.1811498,-0.3272942,0.4728722,-2.12538,-0.3550676,-0.01929907
364.1217,-0.189887,-0.327293,0.4737367,-2.123713,-0.3548314,-0.01931347
364.1363,-0.189887,-0.327293,0.4737367,-2.123713,-0.3548314,-0.01931347
364.1502,-0.19877,-0.3272912,0.4745541,-2.122139,-0.3546022,-0.01932754
364.1675,-0.2084358,-0.3272901,0.475496,-2.120272,-0.3543808,-0.01934156
364.1811,-0.2185535,-0.3272883,0.4764661,-2.118374,-0.3541234,-0.01935522
364.1956,-0.2185535,-0.3272883,0.4764661,-2.118374,-0.3541234,-0.01935522
364.2094,-0.2289131,-0.3272854,0.4774067,-2.116542,-0.3538575,-0.01936855
364.2235,-0.2393814,-0.3272811,0.4783002,-2.114804,-0.3535985,-0.01938157
364.238,-0.2393814,-0.3272811,0.4783002,-2.114804,-0.3535985,-0.01938157
364.252,-0.2506026,-0.3272779,0.4793175,-2.112775,-0.3533455,-0.01939455
364.2673,-0.2622504,-0.3272735,0.4803604,-2.110719,-0.353057,-0.01940718
364.2815,-0.2741176,-0.3272672,0.4813715,-2.108734,-0.3527609,-0.01941949
364.2961,-0.2741176,-0.3272672,0.4813715,-2.108734,-0.3527609,-0.01941949
364.3104,-0.2868014,-0.3272614,0.4825043,-2.106463,-0.3524649,-0.01943175
364.3254,-0.2999457,-0.3272536,0.4836544,-2.104179,-0.3521345,-0.01944367
364.3398,-0.2999457,-0.3272536,0.4836544,-2.104179,-0.3521345,-0.01944367
364.3537,-0.3133244,-0.3272433,0.484764,-2.10198,-0.3517994,-0.01945528
364.3691,-0.3267946,-0.3272306,0.4858165,-2.099894,-0.3514751,-0.01946662
364.3837,-0.340994,-0.3272186,0.4869844,-2.097536,-0.3511549,-0.01947792
364.3983,-0.340994,-0.3272186,0.4869844,-2.097536,-0.3511549,-0.01947792
364.4123,-0.3555927,-0.3272048,0.4881679,-2.095168,-0.3508032,-0.01948891
364.4275,-0.3703812,-0.3271885,0.489311,-2.092885,-0.3504481,-0.0194996
364.442,-0.3852271,-0.32717,0.4903976,-2.090714,-0.3501043,-0.01951005
364.4565,-0.3852271,-0.32717,0.4903976,-2.090714,-0.3501043,-0.01951005
364.4708,-0.4007752,-0.3271525,0.4915997,-2.088274,-0.3497619,-0.01952045
364.4879,-0.4166997,-0.3271331,0.4928151,-2.085826,-0.3493893,-0.01953056
364.5013,-0.4327942,-0.3271113,0.4939885,-2.083466,-0.3490148,-0.0195404
364.5161,-0.4327942,-0.3271113,0.4939885,-2.083466,-0.3490148,-0.0195404
364.5299,-0.4496564,-0.3270898,0.4952753,-2.08084,-0.3486365,-0.01955019
364.544,-0.4669307,-0.3270658,0.4965674,-2.078218,-0.3482297,-0.0195597
364.5584,-0.4669307,-0.3270658,0.4965674,-2.078218,-0.3482297,-0.0195597
364.5723,-0.4843917,-0.3270387,0.4978094,-2.0757,-0.3478242,-0.01956894
364.5875,-0.5018969,-0.3270092,0.4989868,-2.073309,-0.3474339,-0.01957796
364.602,-0.5200847,-0.3269804,0.5002725,-2.070666,-0.3470426,-0.01958694
364.6166,-0.5200847,-0.3269804,0.5002725,-2.070666,-0.3470426,-0.01958694
364.6307,-0.5386257,-0.3269493,0.5015627,-2.068029,-0.3466258,-0.01959565
364.6459,-0.5573108,-0.3269157,0.5028038,-2.065492,-0.3462115,-0.01960413
364.6604,-0.5760084,-0.3268798,0.5039817,-2.063084,-0.3458127,-0.01961239
364.6751,-0.5760084,-0.3268798,0.5039817,-2.063084,-0.3458127,-0.01961239
364.6889,-0.5953636,-0.326845,0.5052686,-2.060422,-0.3454102,-0.01962061
364.7046,-0.6150512,-0.3268082,0.5065584,-2.057767,-0.3449836,-0.01962859
364.719,-0.6150512,-0.3268082,0.5065584,-2.057767,-0.3449836,-0.01962859
364.7328,-0.6348653,-0.3267688,0.5077983,-2.055215,-0.3445611,-0.01963634
364.7482,-0.6554042,-0.3267298,0.5091451,-2.052413,-0.3441305,-0.01964404
364.7628,-0.6763126,-0.326688,0.5104873,-2.049629,-0.3436783,-0.0196515
364.7775,-0.6763126,-0.326688,0.5104873,-2.049629,-0.3436783,-0.0196515
364.7913,-0.6973657,-0.326643,0.5117723,-2.046962,-0.3432333,-0.01965876
364.8076,-0.7184215,-0.3265955,0.5129875,-2.044436,-0.3428076,-0.01966582
364.8221,-0.7396116,-0.3265472,0.5141869,-2.041935,-0.3423951,-0.01967275
364.8358,-0.7396116,-0.3265472,0.5141869,-2.041935,-0.3423951,-0.01967275
364.8496,-0.7607975,-0.3264979,0.5153422,-2.03953,-0.3419911,-0.01967951
364.865,-0.7818919,-0.3264479,0.5164428,-2.037242,-0.3416026,-0.0196861
364.8792,-0.7818919,-0.3264479,0.5164428,-2.037242,-0.3416026,-0.0196861
364.8931,-0.8028404,-0.3263979,0.5174884,-2.035072,-0.3412318,-0.01969253
364.9083,-0.8236096,-0.3263484,0.5184825,-2.033013,-0.3408782,-0.0196988
364.9228,-0.844179,-0.3262998,0.5194291,-2.031058,-0.3405408,-0.01970494
364.9373,-0.844179,-0.3262998,0.5194291,-2.031058,-0.3405408,-0.01970494
364.9512,-0.8645368,-0.3262526,0.5203318,-2.029201,-0.3402185,-0.01971093
364.9667,-0.8846764,-0.3262069,0.5211933,-2.027436,-0.3399102,-0.01971678
364.9811,-0.9045945,-0.3261629,0.522016,-2.025759,-0.3396154,-0.0197225
364.9958,-0.9045945,-0.3261629,0.522016,-2.025759,-0.3396154,-0.0197225
365.0098,-0.9242901,-0.3261206,0.5228017,-2.024166,-0.3393333,-0.01972809
365.0249,-0.9437634,-0.3260802,0.5235521,-2.022654,-0.3390635,-0.01973355
365.0396,-0.9437634,-0.3260802,0.5235521,-2.022654,-0.3390635,-0.01973355
365.0535,-0.9630156,-0.3260415,0.5242683,-2.021219,-0.3388055,-0.01973889
365.0688,-0.9820481,-0.3260047,0.5249518,-2.019861,-0.338559,-0.0197441
365.0833,-1.000863,-0.3259696,0.5256034,-2.018576,-0.3383237,-0.0197492
365.0978,-1.000863,-0.3259696,0.5256034,-2.018576,-0.3383237,-0.0197492
365.114,-1.019462,-0.3259362,0.5262241,-2.017363,-0.3380994,-0.01975419
365.1281,-1.037848,-0.3259046,0.5268151,-2.016221,-0.3378856,-0.01975906
365.1424,-1.056024,-0.3258746,0.5273769,-2.015146,-0.3376822,-0.01976382
365.1559,-1.056024,-0.3258746,0.5273769,-2.015146,-0.3376822,-0.01976382
365.1698,-1.07399,-0.3258462,0.5279107,-2.014138,-0.337489,-0.01976848
365.1852,-1.09175,-0.3258194,0.5284171,-2.013195,-0.3373056,-0.01977303
365.1994,-1.09175,-0.3258194,0.5284171,-2.013195,-0.3373056,-0.01977303
365.2133,-1.109306,-0.3257942,0.528897,-2.012316,-0.3371319,-0.01977749
365.2285,-1.12666,-0.3257703,0.5293511,-2.011498,-0.3369676,-0.01978184
365.243,-1.143815,-0.325748,0.52978,-2.01074,-0.3368124,-0.0197861
365.2576,-1.143815,-0.325748,0.52978,-2.01074,-0.3368124,-0.0197861
365.2715,-1.160773,-0.325727,0.5301847,-2.010042,-0.3366662,-0.01979027
365.2867,-1.177536,-0.3257074,0.5305657,-2.009401,-0.3365287,-0.01979435
365.3028,-1.194107,-0.325689,0.5309237,-2.008815,-0.3363997,-0.01979834
365.3159,-1.194107,-0.325689,0.5309237,-2.008815,-0.3363997,-0.01979834
365.33,-1.210487,-0.325672,0.5312593,-2.008285,-0.336279,-0.01980224
365.3454,-1.226678,-0.3256562,0.5315732,-2.007807,-0.3361664,-0.01980606
365.3597,-1.226678,-0.3256562,0.5315732,-2.007807,-0.3361664,-0.01980606
365.3734,-1.242684,-0.3256415,0.531866,-2.007382,-0.3360617,-0.01980979
365.3887,-1.258505,-0.325628,0.5321382,-2.007007,-0.3359646,-0.01981345
365.4032,-1.273924,-0.3256149,0.5323396,-2.006795,-0.3358862,-0.019817
365.4176,-1.273924,-0.3256149,0.5323396,-2.006795,-0.3358862,-0.019817
365.4318,-1.289025,-0.3256032,0.5325065,-2.006665,-0.335825,-0.01982049
365.4489,-1.303863,-0.3255931,0.5326552,-2.006583,-0.3357728,-0.01982391
365.4625,-1.318474,-0.3255847,0.5327912,-2.006537,-0.3357264,-0.01982726
365.4761,-1.318474,-0.3255847,0.5327912,-2.006537,-0.3357264,-0.01982726
365.4906,-1.332152,-0.3255753,0.5327474,-2.006899,-0.3357211,-0.01983047
365.5048,-1.345187,-0.325568,0.5326415,-2.007404,-0.3357534,-0.01983365
365.5193,-1.345187,-0.325568,0.5326415,-2.007404,-0.3357534,-0.01983365
365.5331,-1.357763,-0.3255636,0.5325254,-2.007947,-0.3357968,-0.01983678
365.5482,-1.369269,-0.3255596,0.5322461,-2.008868,-0.3358772,-0.01983978
365.5628,-1.380055,-0.3255581,0.5319229,-2.009895,-0.3359891,-0.01984275
365.5771,-1.380055,-0.3255581,0.5319229,-2.009895,-0.3359891,-0.01984275
365.5911,-1.390342,-0.3255583,0.5316056,-2.010926,-0.3361057,-0.01984568
365.6063,-1.400273,-0.3255596,0.5313063,-2.011929,-0.3362179,-0.01984855
365.6207,-1.40921,-0.3255605,0.5308554,-2.01328,-0.3363601,-0.01985128
365.6352,-1.40921,-0.3255605,0.5308554,-2.01328,-0.3363601,-0.01985128
365.649,-1.417484,-0.3255623,0.5303663,-2.014718,-0.3365308,-0.01985399
365.6643,-1.425307,-0.3255652,0.5298871,-2.016148,-0.3367048,-0.01985667
365.6787,-1.425307,-0.3255652,0.5298871,-2.016148,-0.3367048,-0.01985667
365.6928,-1.432085,-0.3255677,0.5292611,-2.017916,-0.3369078,-0.01985921
365.7079,-1.438178,-0.3255717,0.5286048,-2.019756,-0.3371377,-0.01986174
365.7223,-1.443814,-0.325578,0.5279667,-2.021568,-0.3373687,-0.01986424
365.7368,-1.443814,-0.325578,0.5279667,-2.021568,-0.3373687,-0.01986424
365.7516,-1.449139,-0.3255865,0.5273579,-2.023326,-0.3375915,-0.01986669
365.766,-1.453518,-0.3255946,0.5266075,-2.025404,-0.3378374,-0.01986899
365.7803,-1.457284,-0.3256038,0.5258274,-2.027546,-0.3381096,-0.01987129
365.7961,-1.457284,-0.3256038,0.5258274,-2.027546,-0.3381096,-0.01987129
365.8109,-1.460648,-0.3256145,0.5250661,-2.029655,-0.3383828,-0.01987356
365.825,-1.463745,-0.3256266,0.5243353,-2.031705,-0.3386475,-0.01987579
365.8387,-1.463745,-0.3256266,0.5243353,-2.031705,-0.3386475,-0.01987579
365.8524,-1.465933,-0.3256375,0.5234643,-2.034069,-0.3389323,-0.01987787
365.8673,-1.467541,-0.3256486,0.5225649,-2.03649,-0.3392437,-0.01987995
365.8816,-1.468775,-0.3256602,0.5216867,-2.038872,-0.3395557,-0.01988201
365.8961,-1.468775,-0.3256602,0.5216867,-2.038872,-0.3395557,-0.01988201
365.9101,-1.469043,-0.3256701,0.5206724,-2.041561,-0.3398866,-0.01988391
365.9253,-1.468701,-0.3256795,0.5196369,-2.04429,-0.3402426,-0.01988582
365.9394,-1.468701,-0.3256795,0.5196369,-2.04429,-0.3402426,-0.01988582
365.9532,-1.467979,-0.325689,0.5186303,-2.046962,-0.3405969,-0.01988771
365.9684,-1.467019,-0.3256985,0.5176641,-2.04955,-0.3409394,-0.01988956
365.9828,-1.465187,-0.3257058,0.5165662,-2.05243,-0.3412936,-0.01989125
365.9972,-1.465187,-0.3257058,0.5165662,-2.05243,-0.3412936,-0.01989125
366.0112,-1.462812,-0.3257119,0.5154455,-2.055346,-0.3416732,-0.01989294
366.0267,-1.460107,-0.3257174,0.5143526,-2.058202,-0.342052,-0.01989462
366.0408,-1.457204,-0.3257223,0.5133001,-2.06097,-0.3424192,-0.01989628
366.0555,-1.457204,-0.3257223,0.5133001,-2.06097,-0.3424192,-0.01989628
366.0692,-1.453462,-0.3257247,0.5121165,-2.064029,-0.3427943,-0.01989775
366.0845,-1.449207,-0.3257259,0.5109098,-2.067118,-0.3431958,-0.01989923
366.0989,-1.449207,-0.3257259,0.5109098,-2.067118,-0.3431958,-0.01989923
366.1128,-1.444647,-0.3257268,0.5097319,-2.070143,-0.343597,-0.01990071
366.1281,-1.439187,-0.3257262,0.5084261,-2.073453,-0.3440055,-0.01990199
366.1445,-1.433182,-0.3257244,0.507103,-2.07678,-0.3444394,-0.0199033
366.159,-1.433182,-0.3257244,0.507103,-2.07678,-0.3444394,-0.0199033
366.1729,-1.426861,-0.3257219,0.5058156,-2.080027,-0.3448712,-0.01990461
366.187,-1.420367,-0.3257189,0.5045769,-2.083165,-0.3452891,-0.01990589
366.2005,-1.413062,-0.3257131,0.5032145,-2.086576,-0.345705,-0.01990696
366.2148,-1.413062,-0.3257131,0.5032145,-2.086576,-0.345705,-0.01990696
366.2289,-1.40528,-0.3257053,0.5018322,-2.09,-0.3461469,-0.01990806
366.2437,-1.397228,-0.325696,0.5004835,-2.093343,-0.346588,-0.01990915
366.2582,-1.397228,-0.325696,0.5004835,-2.093343,-0.346588,-0.01990915
366.2722,-1.388313,-0.3256833,0.4990121,-2.096957,-0.3470271,-0.01991003
366.287,-1.378892,-0.3256679,0.4975251,-2.100574,-0.3474921,-0.01991094
366.3014,-1.369192,-0.3256505,0.4960771,-2.104096,-0.3479553,-0.01991186
366.3161,-1.369192,-0.3256505,0.4960771,-2.104096,-0.3479553,-0.01991186
366.33,-1.359358,-0.3256317,0.4946824,-2.107497,-0.3484038,-0.01991276
366.3452,-1.348751,-0.3256098,0.4931691,-2.111159,-0.3488405,-0.01991342
366.3598,-1.348751,-0.3256098,0.4931691,-2.111159,-0.3488405,-0.01991342
366.3734,-1.337704,-0.3255852,0.4916368,-2.114822,-0.3493036,-0.01991411
366.3887,-1.326425,-0.3255586,0.4901403,-2.118391,-0.3497668,-0.01991481
366.4033,-1.315049,-0.3255306,0.4886954,-2.12184,-0.3502164,-0.01991551
366.4178,-1.315049,-0.3255306,0.4886954,-2.12184,-0.3502164,-0.01991551
366.4318,-1.302929,-0.3254996,0.4871321,-2.12555,-0.3506496,-0.01991595
366.4469,-1.290394,-0.3254659,0.4855474,-2.129261,-0.3511104,-0.01991641
366.4614,-1.277649,-0.3254301,0.4839979,-2.132875,-0.3515729,-0.0199169
366.4762,-1.277649,-0.3254301,0.4839979,-2.132875,-0.3515729,-0.0199169
366.4898,-1.264098,-0.3253906,0.4823316,-2.136749,-0.3520192,-0.01991712
366.5061,-1.250097,-0.3253478,0.4806485,-2.14061,-0.3524934,-0.01991738
366.5206,-1.23587,-0.3253024,0.4790064,-2.144363,-0.3529685,-0.01991767
366.5341,-1.23587,-0.3253024,0.4790064,-2.144363,-0.3529685,-0.01991767
366.5481,-1.221562,-0.3252553,0.4774223,-2.147979,-0.3534291,-0.01991796
366.5634,-1.206534,-0.325205,0.4757271,-2.151843,-0.3538622,-0.01991796
366.5777,-1.206534,-0.325205,0.4757271,-2.151843,-0.3538622,-0.01991796
366.5914,-1.191116,-0.3251517,0.4740115,-2.155695,-0.3543229,-0.01991799
366.6066,-1.175518,-0.325096,0.4723331,-2.15944,-0.3547865,-0.01991806
366.621,-1.159871,-0.325039,0.4707105,-2.16305,-0.3552373,-0.01991814
366.6356,-1.159871,-0.325039,0.4707105,-2.16305,-0.3552373,-0.01991814
366.6495,-1.143531,-0.3249791,0.4689771,-2.16691,-0.355656,-0.0199179
366.6647,-1.126824,-0.3249163,0.4672204,-2.170758,-0.3561035,-0.0199177
366.6793,-1.126824,-0.3249163,0.4672204,-2.170758,-0.3561035,-0.0199177
366.6931,-1.109955,-0.3248513,0.4654996,-2.174497,-0.3565558,-0.01991754
366.7086,-1.092328,-0.3247826,0.4636682,-2.178485,-0.356978,-0.01991707
366.723,-1.074297,-0.3247103,0.4618174,-2.18245,-0.3574299,-0.01991665
366.7373,-1.074297,-0.3247103,0.4618174,-2.18245,-0.3574299,-0.01991665
366.7519,-1.056088,-0.3246353,0.4600022,-2.186144,-0.357899,-0.01991611
366.7674,-1.037843,-0.3245586,0.4581991,-2.188287,-0.3584668,-0.01991418
366.7822,-1.018924,-0.3244788,0.4562798,-2.189244,-0.3590426,-0.01991156
366.7964,-1.018924,-0.3244788,0.4562798,-2.189244,-0.3590426,-0.01991156
366.8126,-0.9996594,-0.324396,0.4543453,-2.189182,-0.359652,-0.01990915
366.8267,-0.9802589,-0.3243109,0.4524652,-2.188585,-0.3602465,-0.01990724
366.8414,-0.9608538,-0.3242246,0.4506623,-2.187896,-0.3608027,-0.01990583
366.8549,-0.9608538,-0.3242246,0.4506623,-2.187896,-0.3608027,-0.01990583
366.8693,-0.9407991,-0.3241357,0.4487696,-2.187757,-0.3612996,-0.01990443
366.8839,-0.9204199,-0.324044,0.4468592,-2.187824,-0.3618307,-0.01990311
366.8983,-0.9204199,-0.324044,0.4468592,-2.187824,-0.3618307,-0.01990311
366.9124,-0.8999218,-0.3239503,0.4449913,-2.187883,-0.3623804,-0.01990185
366.9276,-0.8787069,-0.3238532,0.4430248,-2.188246,-0.3629074,-0.01990028
366.9419,-0.8571301,-0.3237525,0.4410458,-2.188501,-0.363481,-0.0198987
366.9568,-0.8571301,-0.3237525,0.4410458,-2.188501,-0.363481,-0.0198987
366.9703,-0.8354157,-0.323649,0.4391187,-2.188527,-0.3640709,-0.01989718
366.9856,-0.8137057,-0.323544,0.4372682,-2.188368,-0.3646502,-0.01989582
367.0004,-0.7913616,-0.3234364,0.4353309,-2.188518,-0.3651877,-0.01989426
367.0149,-0.7913616,-0.3234364,0.4353309,-2.188518,-0.3651877,-0.01989426
367.0288,-0.7687122,-0.3233259,0.4333827,-2.188648,-0.3657616,-0.01989276
367.044,-0.7459656,-0.3232134,0.4314842,-2.188636,-0.3663488,-0.01989135
367.0584,-0.7459656,-0.3232134,0.4314842,-2.188636,-0.3663488,-0.01989135
367.0726,-0.7225253,-0.3230975,0.4294927,-2.188889,-0.3669085,-0.01988971
367.0877,-0.6987468,-0.322978,0.4274938,-2.189054,-0.3675086,-0.0198881
367.1024,-0.6748551,-0.3228559,0.4255505,-2.189027,-0.3681211,-0.01988659
367.1168,-0.6748551,-0.3228559,0.4255505,-2.189027,-0.3681211,-0.01988659
367.1328,-0.6509922,-0.3227323,0.4236862,-2.18885,-0.3687211,-0.01988525
367.147,-0.6266915,-0.3226071,0.4217763,-2.188912,-0.3692854,-0.01988381
367.1606,-0.6022173,-0.3224801,0.4198778,-2.188965,-0.3698715,-0.01988243
367.1752,-0.6022173,-0.3224801,0.4198778,-2.188965,-0.3698715,-0.01988243
367.189,-0.5777363,-0.3223522,0.418035,-2.188919,-0.3704623,-0.01988115
367.2042,-0.5533536,-0.3222247,0.4162643,-2.188782,-0.3710412,-0.01988
367.2188,-0.5533536,-0.3222247,0.4162643,-2.188782,-0.3710412,-0.01988
367.2327,-0.5291347,-0.3220986,0.4145668,-2.188602,-0.3716006,-0.01987898
367.2479,-0.5051202,-0.321975,0.4129379,-2.188425,-0.3721393,-0.0198781
367.2627,-0.481335,-0.3218546,0.4113719,-2.188275,-0.3726591,-0.01987731
367.2772,-0.481335,-0.3218546,0.4113719,-2.188275,-0.3726591,-0.01987731
367.2912,-0.4577935,-0.3217381,0.4098635,-2.188156,-0.3731625,-0.01987662
367.3065,-0.434504,-0.3216259,0.4084089,-2.188062,-0.3736517,-0.019876
367.3211,-0.4114706,-0.3215182,0.407005,-2.18798,-0.374128,-0.01987544
367.3359,-0.4114706,-0.3215182,0.407005,-2.18798,-0.374128,-0.01987544
367.3499,-0.3886949,-0.3214152,0.4056495,-2.187903,-0.3745921,-0.01987493
367.3694,-0.3661766,-0.3213169,0.4043407,-2.187825,-0.3750443,-0.01987449
367.3799,-0.3661766,-0.3213169,0.4043407,-2.187825,-0.3750443,-0.01987449
367.394,-0.3439147,-0.3212234,0.4030771,-2.187746,-0.3754848,-0.01987411
367.4092,-0.3219073,-0.3211346,0.4018574,-2.187664,-0.3759136,-0.01987379
367.426,-0.3001522,-0.3210505,0.4006804,-2.187582,-0.376331,-0.01987352
367.4395,-0.3001522,-0.3210505,0.4006804,-2.187582,-0.376331,-0.01987352
367.4548,-0.2850207,-0.3209915,0.4010072,-2.184026,-0.3768349,-0.01987652
367.4677,-0.2741192,-0.3209661,0.4021,-2.180715,-0.3767876,-0.01988065
367.4821,-0.2659252,-0.3209682,0.4033452,-2.178629,-0.3764729,-0.01988456
367.4967,-0.2659252,-0.3209682,0.4033452,-2.178629,-0.3764729,-0.01988456
367.5109,-0.2594696,-0.3209884,0.4044804,-2.177372,-0.3761359,-0.01988763
367.5261,-0.254135,-0.3210214,0.405464,-2.17667,-0.3758408,-0.01989031
367.5406,-0.2495282,-0.3210632,0.4063176,-2.176332,-0.3755939,-0.01989277
367.5555,-0.2495282,-0.3210632,0.4063176,-2.176332,-0.3755939,-0.01989277
367.5692,-0.2453987,-0.3211106,0.4070737,-2.17623,-0.3753863,-0.01989509
367.5846,-0.241625,-0.3337661,0.4068246,-2.179382,-0.3790329,-0.01990611
367.5993,-0.241625,-0.3337661,0.4068246,-2.179382,-0.3790329,-0.01990611
367.6134,-0.2381761,-0.3540397,0.4072625,-2.183396,-0.3824225,-0.01991554
367.6289,-0.2349845,-0.3788749,0.4080883,-2.186898,-0.3852484,-0.01992245
367.6434,-0.2319836,-0.4063917,0.4089911,-2.188623,-0.3877489,-0.01992681
367.6582,-0.2319836,-0.4063917,0.4089911,-2.188623,-0.3877489,-0.01992681
367.6722,-0.2291171,-0.4346753,0.4099656,-2.188534,-0.3897476,-0.01992975
367.6875,-0.2263442,-0.4633042,0.4108991,-2.187561,-0.3915159,-0.01993291
367.702,-0.2236389,-0.4920166,0.4117957,-2.186485,-0.3931135,-0.01993658
367.7178,-0.2236389,-0.4920166,0.4117957,-2.186485,-0.3931135,-0.01993658
367.7319,-0.2209813,-0.5198882,0.4127171,-2.185535,-0.3943403,-0.01994001
367.746,-0.2183593,-0.5471182,0.4135504,-2.185004,-0.3954913,-0.01994372
367.7607,-0.2157668,-0.5738301,0.4143094,-2.184865,-0.3966235,-0.0199475
367.7753,-0.2157668,-0.5738301,0.4143094,-2.184865,-0.3966235,-0.0199475
367.7891,-0.2132013,-0.6001016,0.4150167,-2.184954,-0.3977458,-0.01995115
367.8045,-0.210657,-0.6252199,0.4157515,-2.184914,-0.3986132,-0.01995404
367.8191,-0.210657,-0.6252199,0.4157515,-2.184914,-0.3986132,-0.01995404
367.8332,-0.2081313,-0.6495166,0.4164218,-2.184852,-0.3994681,-0.01995696
367.8486,-0.2056244,-0.673198,0.4170515,-2.184811,-0.4003276,-0.01995992
367.8632,-0.2031373,-0.6963931,0.4176623,-2.184794,-0.4011782,-0.01996285
367.8781,-0.2031373,-0.6963931,0.4176623,-2.184794,-0.4011782,-0.01996285
367.8919,-0.200666,-0.7184212,0.4183248,-2.184596,-0.4017685,-0.01996517
367.9076,-0.198209,-0.7396344,0.4189373,-2.184414,-0.4023437,-0.0199676
367.9218,-0.1957676,-0.7602513,0.4195161,-2.184321,-0.4029262,-0.01997013
367.9367,-0.1957676,-0.7602513,0.4195161,-2.184321,-0.4029262,-0.01997013
367.9507,-0.1933375,-0.7796467,0.420138,-2.184113,-0.4032674,-0.0199721
367.9663,-0.1909179,-0.798207,0.4207059,-2.183964,-0.4036105,-0.01997419
367.9807,-0.1885105,-0.8161719,0.421239,-2.183917,-0.4039748,-0.01997638
367.9965,-0.1885105,-0.8161719,0.421239,-2.183917,-0.4039748,-0.01997638
368.0103,-0.1861178,-0.8336905,0.4217567,-2.183939,-0.4043487,-0.01997856
368.0247,-0.1837355,-0.8500943,0.4223274,-2.183792,-0.4044818,-0.01998012
368.0392,-0.1837355,-0.8500943,0.4223274,-2.183792,-0.4044818,-0.01998012
368.0531,-0.1813622,-0.8657434,0.4228492,-2.183655,-0.4046176,-0.01998179
368.0683,-0.1789996,-0.8808608,0.4233395,-2.183591,-0.4047764,-0.01998358
368.0832,-0.1766504,-0.8955849,0.4238165,-2.183591,-0.404947,-0.01998537
368.0978,-0.1766504,-0.8955849,0.4238165,-2.183591,-0.404947,-0.01998537
368.1119,-0.1743099,-0.90924,0.424347,-2.183428,-0.4048811,-0.01998656
368.1271,-0.1719762,-0.9221827,0.4248285,-2.183285,-0.4048232,-0.01998789
368.1417,-0.1696514,-0.9346328,0.4252782,-2.183225,-0.4047941,-0.01998935
368.1563,-0.1696514,-0.9346328,0.4252782,-2.183225,-0.4047941,-0.01998935
368.1703,-0.167331,-0.9459648,0.4257719,-2.18304,-0.4045453,-0.01999027
368.1858,-0.1650135,-0.956566,0.4262127,-2.182908,-0.4043182,-0.01999135
368.2006,-0.1627018,-0.9666752,0.4266209,-2.182874,-0.4041307,-0.01999255
368.2152,-0.1627018,-0.9666752,0.4266209,-2.182874,-0.4041307,-0.01999255
368.2292,-0.1603996,-0.9764395,0.4270168,-2.182909,-0.4039697,-0.01999377
368.245,-0.1581027,-0.9851885,0.4274668,-2.182774,-0.4035861,-0.0199944
368.2613,-0.1558089,-0.9932823,0.4278685,-2.182649,-0.4032228,-0.01999517
368.275,-0.1558089,-0.9932823,0.4278685,-2.182649,-0.4032228,-0.01999517
368.2887,-0.153521,-1.000942,0.42824,-2.1826,-0.4028991,-0.01999608
368.303,-0.1512428,-1.008305,0.4286004,-2.182616,-0.4026029,-0.01999702
368.3179,-0.1512428,-1.008305,0.4286004,-2.182616,-0.4026029,-0.01999702
368.3316,-0.1489699,-1.014692,0.4290153,-2.182465,-0.4020868,-0.01999739
368.3469,-0.1466997,-1.02046,0.4293815,-2.182335,-0.4015948,-0.01999792
368.3618,-0.1444349,-1.025827,0.4297173,-2.182288,-0.4011465,-0.01999859
368.3764,-0.1444349,-1.025827,0.4297173,-2.182288,-0.4011465,-0.01999859
368.3907,-0.1421716,-1.030166,0.4300978,-2.182114,-0.4004943,-0.01999876
368.4058,-0.1399077,-1.033863,0.4304261,-2.181993,-0.3998784,-0.01999911
368.4204,-0.1376471,-1.037156,0.4307227,-2.181955,-0.3993173,-0.01999958
368.4354,-0.1376471,-1.037156,0.4307227,-2.181955,-0.3993173,-0.01999958
368.4494,-0.1353947,-1.040189,0.4310095,-2.181968,-0.3987955,-0.02000008
368.4649,-0.1331472,-1.042291,0.4313534,-2.181818,-0.3980626,-0.02000005
368.4795,-0.1331472,-1.042291,0.4313534,-2.181818,-0.3980626,-0.02000005
368.4937,-0.1309018,-1.043821,0.4316482,-2.181638,-0.3973669,-0.02000012
368.509,-0.128662,-1.044998,0.4319134,-2.181473,-0.3967258,-0.0200003
368.5236,-0.1264327,-1.045956,0.4321708,-2.181331,-0.3961231,-0.02000053
368.5389,-0.1264327,-1.045956,0.4321708,-2.181331,-0.3961231,-0.02000053
368.5531,-0.1242102,-1.046018,0.4324856,-2.181013,-0.3953108,-0.02000024
368.5675,-0.1219916,-1.045539,0.4327511,-2.180663,-0.3945391,-0.02000008
368.582,-0.1197952,-1.044736,0.4329981,-2.180323,-0.3938209,-0.02000003
368.5968,-0.1197952,-1.044736,0.4329981,-2.180323,-0.3938209,-0.02000003
368.6108,-0.1176218,-1.042977,0.4333018,-2.179807,-0.392907,-0.01999952
368.6261,-0.1154924,-1.04065,0.4335764,-2.179257,-0.3920368,-0.01999912
368.6407,-0.1134107,-1.03799,0.4338388,-2.178725,-0.3912241,-0.01999885
368.6553,-0.1134107,-1.03799,0.4338388,-2.178725,-0.3912241,-0.01999885
368.6692,-0.1113738,-1.035139,0.4341025,-2.178223,-0.3904534,-0.01999865
368.6848,-0.1093687,-1.031424,0.4344244,-2.177553,-0.389482,-0.01999795
368.6995,-0.1093687,-1.031424,0.4344244,-2.177553,-0.389482,-0.01999795
368.7134,-0.1074085,-1.027201,0.4347123,-2.176852,-0.3885534,-0.01999738
368.7289,-0.1054932,-1.02269,0.4349821,-2.176171,-0.3876837,-0.01999693
368.7437,-0.1036186,-1.018023,0.4352482,-2.175524,-0.3868587,-0.01999656
368.7581,-0.1036186,-1.018023,0.4352482,-2.175524,-0.3868587,-0.01999656
368.7722,-0.1017714,-1.012519,0.4355673,-2.174711,-0.3858391,-0.0199957
368.7876,-0.0999639,-1.006532,0.4358495,-2.173871,-0.3848659,-0.01999498
368.8043,-0.09819621,-1.000278,0.4361115,-2.173054,-0.3839546,-0.01999439
368.818,-0.09819621,-1.000278,0.4361115,-2.173054,-0.3839546,-0.01999439
368.8322,-0.09645634,-0.993126,0.4364184,-2.172075,-0.3828658,-0.01999338
368.8462,-0.09475566,-0.9854602,0.4366862,-2.171077,-0.3818339,-0.01999252
368.8611,-0.09309346,-0.9775148,0.4369335,-2.170112,-0.3808704,-0.01999181
368.8755,-0.09309346,-0.9775148,0.4369335,-2.170112,-0.3808704,-0.01999181
368.8893,-0.09146529,-0.969433,0.4371757,-2.169191,-0.3799593,-0.01999119
368.9049,-0.08985864,-0.9605406,0.4374667,-2.168113,-0.3788672,-0.01999013
368.9196,-0.08985864,-0.9605406,0.4374667,-2.168113,-0.3788672,-0.01999013
368.9335,-0.08828428,-0.951194,0.4377193,-2.167018,-0.377829,-0.01998921
368.9491,-0.08674215,-0.9416109,0.4379507,-2.165956,-0.376858,-0.01998845
368.9638,-0.08522881,-0.9319244,0.438176,-2.164938,-0.3759396,-0.01998777
368.9786,-0.08522881,-0.9319244,0.438176,-2.164938,-0.3759396,-0.01998777
368.9926,-0.08373303,-0.9214541,0.4384471,-2.163764,-0.3748457,-0.01998667
369.0079,-0.08226518,-0.9105522,0.4386791,-2.162575,-0.3738077,-0.01998572
369.0225,-0.08082556,-0.8994338,0.4388894,-2.161419,-0.3728381,-0.01998491
369.0376,-0.08082556,-0.8994338,0.4388894,-2.161419,-0.3728381,-0.01998491
369.0515,-0.07941129,-0.8882306,0.4390934,-2.160311,-0.3719224,-0.01998421
369.0689,-0.07801907,-0.8770234,0.4392969,-2.15925,-0.3710488,-0.01998356
369.0825,-0.0766461,-0.8658614,0.4395012,-2.158231,-0.3702102,-0.01998295
369.0963,-0.0766461,-0.8658614,0.4395012,-2.158231,-0.3702102,-0.01998295
369.1102,-0.0752903,-0.8547748,0.439706,-2.157248,-0.3694023,-0.01998239
369.1255,-0.0739569,-0.8445434,0.4398678,-2.156498,-0.3688308,-0.01998231
369.1399,-0.0739569,-0.8445434,0.4398678,-2.156498,-0.3688308,-0.01998231
369.1538,-0.07263355,-0.8348771,0.4400686,-2.155832,-0.3682631,-0.01998216
369.1692,-0.07131708,-0.8255975,0.4402895,-2.155192,-0.3676827,-0.01998192
369.1841,-0.07000773,-0.8165943,0.4405145,-2.154559,-0.3671004,-0.01998165
369.1987,-0.07000773,-0.8165943,0.4405145,-2.154559,-0.3671004,-0.01998165
369.2126,-0.06871314,-0.8085609,0.4406955,-2.154129,-0.3667304,-0.01998183
369.2284,-0.06742451,-0.8011544,0.4409117,-2.153759,-0.3663498,-0.0199819
369.243,-0.06614044,-0.7941633,0.4411449,-2.153395,-0.3659462,-0.01998189
369.2576,-0.06614044,-0.7941633,0.4411449,-2.153395,-0.3659462,-0.01998189
369.2717,-0.06486834,-0.7882186,0.4413389,-2.153223,-0.3657367,-0.01998228
369.2871,-0.06360062,-0.782939,0.4415684,-2.153096,-0.365505,-0.01998256
369.3018,-0.0623365,-0.7780895,0.4418136,-2.152964,-0.3652421,-0.01998272
369.3165,-0.0623365,-0.7780895,0.4418136,-2.152964,-0.3652421,-0.01998272
369.3306,-0.06107757,-0.7735242,0.4420596,-2.152812,-0.3649624,-0.01998284
369.3473,-0.05983195,-0.7699148,0.4422598,-2.152841,-0.3648801,-0.01998339
369.3606,-0.05859281,-0.7669057,0.4424937,-2.152913,-0.3647764,-0.01998382
369.3753,-0.05859281,-0.7669057,0.4424937,-2.152913,-0.3647764,-0.01998382
369.3892,-0.05735912,-0.7642772,0.4427435,-2.152975,-0.3646399,-0.01998414
369.4043,-0.05613203,-0.7618932,0.4429946,-2.153014,-0.3644838,-0.01998441
369.419,-0.05613203,-0.7618932,0.4429946,-2.153014,-0.3644838,-0.01998441
369.4332,-0.05491912,-0.7604312,0.4432005,-2.153233,-0.3645218,-0.01998511
369.4485,-0.05371374,-0.7595398,0.4434405,-2.153489,-0.3645352,-0.01998568
369.4631,-0.05251463,-0.7590017,0.4436969,-2.153733,-0.3645123,-0.01998614
369.4778,-0.05251463,-0.7590017,0.4436969,-2.153733,-0.3645123,-0.01998614
369.4918,-0.05132842,-0.7594382,0.443914,-2.154149,-0.3646686,-0.01998698
369.5071,-0.05015356,-0.7604745,0.4441682,-2.154593,-0.3647927,-0.01998769
369.5219,-0.0489931,-0.7618737,0.4444424,-2.155013,-0.3648732,-0.01998827
369.5365,-0.0489931,-0.7618737,0.4444424,-2.155013,-0.3648732,-0.01998827
369.5505,-0.04784791,-0.763489,0.4447206,-2.155394,-0.3649243,-0.01998879
369.5659,-0.0467238,-0.7659913,0.4449533,-2.155943,-0.3651633,-0.01998971
369.5807,-0.04562014,-0.769026,0.4452243,-2.156515,-0.3653701,-0.01999051
369.5953,-0.04562014,-0.769026,0.4452243,-2.156515,-0.3653701,-0.01999051
369.6113,-0.04453522,-0.7723736,0.4455152,-2.157062,-0.3655328,-0.01999119
369.6268,-0.04346716,-0.7758982,0.4458094,-2.157571,-0.3656649,-0.01999179
369.6393,-0.04346716,-0.7758982,0.4458094,-2.157571,-0.3656649,-0.01999179
369.6531,-0.04242038,-0.7802774,0.4460566,-2.158247,-0.3659856,-0.01999281
369.6684,-0.04139306,-0.7851614,0.4463417,-2.158946,-0.3662727,-0.01999369
369.6829,-0.04038297,-0.7903332,0.4466465,-2.159617,-0.3665135,-0.01999445
369.6975,-0.04038297,-0.7903332,0.4466465,-2.159617,-0.3665135,-0.01999445
369.7118,-0.03939422,-0.7964203,0.4469104,-2.160451,-0.3669315,-0.0199956
369.7272,-0.03842435,-0.8030421,0.4472139,-2.161301,-0.3673077,-0.01999659
369.7416,-0.03747078,-0.8099626,0.4475371,-2.162114,-0.3676318,-0.01999745
369.7562,-0.03747078,-0.8099626,0.4475371,-2.162114,-0.3676318,-0.01999745
369.7702,-0.03653139,-0.8170356,0.4478628,-2.16288,-0.3679186,-0.01999822
369.7858,-0.03561091,-0.8249324,0.4481385,-2.163804,-0.3683932,-0.01999941
369.8005,-0.03470686,-0.8332999,0.4484517,-2.164744,-0.36883,-0.02000046
369.8151,-0.03470686,-0.8332999,0.4484517,-2.164744,-0.36883,-0.02000046
369.8292,-0.03381693,-0.8419191,0.4487848,-2.165648,-0.3692152,-0.02000138
369.8447,-0.03293932,-0.8506545,0.4491214,-2.166505,-0.3695624,-0.02000221
369.8594,-0.03293932,-0.8506545,0.4491214,-2.166505,-0.3695624,-0.02000221
369.8732,-0.03207934,-0.8601839,0.4494071,-2.167521,-0.3700995,-0.02000346
369.8895,-0.03123431,-0.8701586,0.4497313,-2.168551,-0.3705977,-0.02000458
369.9044,-0.03040196,-0.8803623,0.4500765,-2.169545,-0.3710424,-0.02000555
369.9178,-0.03040196,-0.8803623,0.4500765,-2.169545,-0.3710424,-0.02000555
369.9319,-0.02958756,-0.891423,0.4503772,-2.170693,-0.3716666,-0.02000692
369.9471,-0.02878775,-0.902961,0.4507188,-2.171849,-0.3722439,-0.02000813
369.9617,-0.028,-0.9147407,0.4510816,-2.172961,-0.3727618,-0.02000919
369.9763,-0.028,-0.9147407,0.4510816,-2.172961,-0.3727618,-0.02000919
369.9905,-0.02722259,-0.9266165,0.4514482,-2.174016,-0.3732353,-0.02001015
370.0058,-0.02646168,-0.9392598,0.4517605,-2.175223,-0.3739006,-0.02001155
370.0204,-0.02571375,-0.9523186,0.4521116,-2.176438,-0.3745239,-0.0200128
370.0352,-0.02571375,-0.9523186,0.4521116,-2.176438,-0.3745239,-0.0200128
370.049,-0.02497642,-0.9655746,0.4524846,-2.17761,-0.3750888,-0.02001389
370.0646,-0.02424821,-0.9788925,0.4528624,-2.178726,-0.3756087,-0.0200149
370.0797,-0.02424821,-0.9788925,0.4528624,-2.178726,-0.3756087,-0.0200149
370.0933,-0.02353598,-0.9929504,0.4531847,-2.179996,-0.376324,-0.02001634
370.1087,-0.0228357,-1.007401,0.453547,-2.181273,-0.3769969,-0.02001763
370.1235,-0.02214498,-1.022028,0.4539322,-2.182507,-0.3776095,-0.02001877
370.1382,-0.02214498,-1.022028,0.4539322,-2.182507,-0.3776095,-0.02001877
370.1519,-0.02147061,-1.037461,0.4542619,-2.183721,-0.3784224,-0.02002013
370.1683,-0.02080772,-1.05332,0.454621,-2.18442,-0.3792194,-0.02002086
370.1823,-0.02015367,-1.069372,0.4550081,-2.184576,-0.3799571,-0.02002131
370.1968,-0.02015367,-1.069372,0.4550081,-2.184576,-0.3799571,-0.02002131
370.2108,-0.01950709,-1.085469,0.4554153,-2.18439,-0.380626,-0.02002173
370.2261,-0.01887599,-1.102284,0.4557793,-2.184298,-0.3814643,-0.02002275
370.2404,-0.01825502,-1.119467,0.4561898,-2.184229,-0.382239,-0.02002368
370.2554,-0.01825502,-1.119467,0.4561898,-2.184229,-0.382239,-0.02002368
370.2694,-0.01764165,-1.136799,0.4566256,-2.184158,-0.3829373,-0.02002446
370.2848,-0.01703475,-1.154145,0.4570673,-2.184085,-0.3835755,-0.02002514
370.2997,-0.01703475,-1.154145,0.4570673,-2.184085,-0.3835755,-0.02002514
370.3136,-0.0164431,-1.172184,0.457452,-2.184226,-0.3844011,-0.02002629
370.329,-0.01586048,-1.19057,0.4578732,-2.184361,-0.3851801,-0.0200272
370.3438,-0.01528435,-1.209087,0.4583161,-2.184405,-0.3858922,-0.02002789
370.3583,-0.01528435,-1.209087,0.4583161,-2.184405,-0.3858922,-0.02002789
370.3725,-0.01472344,-1.228365,0.4587117,-2.184571,-0.3867803,-0.02002899
370.3882,-0.01417051,-1.248026,0.4591485,-2.184673,-0.387611,-0.02002985
370.4027,-0.01362295,-1.267835,0.4596094,-2.184666,-0.3883657,-0.02003051
370.4194,-0.01362295,-1.267835,0.4596094,-2.184666,-0.3883657,-0.02003051
370.4334,-0.01308001,-1.287647,0.4600777,-2.184581,-0.3890553,-0.02003108
370.4468,-0.01255169,-1.308126,0.4604924,-2.184676,-0.3899231,-0.02003212
370.4613,-0.01202996,-1.328927,0.4609431,-2.184766,-0.3907387,-0.02003295
370.476,-0.01202996,-1.328927,0.4609431,-2.184766,-0.3907387,-0.02003295
370.4899,-0.01151241,-1.349833,0.4614142,-2.184781,-0.3914832,-0.02003358
370.5055,-0.01099858,-1.370711,0.461891,-2.184726,-0.392167,-0.02003411
370.5201,-0.01031233,-1.378872,0.4632493,-2.181147,-0.3889322,-0.02002601
370.5348,-0.01031233,-1.378872,0.4632493,-2.181147,-0.3889322,-0.02002601
370.5488,-0.00955989,-1.379153,0.4638488,-2.177555,-0.3858968,-0.02002097
370.5642,-0.008745094,-1.374613,0.463892,-2.174425,-0.3835745,-0.02001765
370.5791,-0.008745094,-1.374613,0.463892,-2.174425,-0.3835745,-0.02001765
370.5931,-0.007957747,-1.367147,0.4637805,-2.171804,-0.3817429,-0.02001533
370.6086,-0.007228462,-1.357932,0.4636887,-2.16961,-0.3801932,-0.02001344
370.623,-0.00655414,-1.347687,0.4636573,-2.167734,-0.3788071,-0.02001173
370.6377,-0.00655414,-1.347687,0.4636573,-2.167734,-0.3788071,-0.02001173
370.652,-0.005922035,-1.336855,0.4636789,-2.166088,-0.3775246,-0.02001012
370.6673,-0.005319878,-1.32571,0.4637436,-2.164605,-0.3763251,-0.02000859
370.6841,-0.004738508,-1.314421,0.463838,-2.163238,-0.3751816,-0.0200071
370.6978,-0.004738508,-1.314421,0.463838,-2.163238,-0.3751816,-0.0200071
370.7119,-0.004171744,-1.303093,0.4639484,-2.161955,-0.3740839,-0.02000565
370.726,-0.003615609,-1.291788,0.4640659,-2.160735,-0.3730268,-0.02000426
370.7405,-0.003067584,-1.280548,0.4634651,-2.159484,-0.3711052,-0.02000017
370.7552,-0.003067584,-1.280548,0.4634651,-2.159484,-0.3711052,-0.02000017
370.7691,-0.002526137,-1.269397,0.4620391,-2.15826,-0.3693516,-0.01999658
370.7844,-0.001990323,-1.258348,0.4601629,-2.157089,-0.3678417,-0.01999368
370.7991,-0.001990323,-1.258348,0.4601629,-2.157089,-0.3678417,-0.01999368
370.8131,-0.001459539,-1.247411,0.4573584,-2.15589,-0.3655888,-0.01998848
370.8285,-0.0009334537,-1.23659,0.4536515,-2.154727,-0.3635728,-0.01998399
370.8433,-0.0004118661,-1.225888,0.4494803,-2.153624,-0.3618349,-0.01998029
370.858,-0.0004118661,-1.225888,0.4494803,-2.153624,-0.3618349,-0.01998029
370.8719,0.0001053417,-1.215305,0.4451208,-2.152579,-0.3602761,-0.01997708
370.8873,0.0006182551,-1.204842,0.4399729,-2.151505,-0.3579237,-0.01997144
370.9021,0.001126886,-1.194499,0.4340044,-2.150466,-0.355792,-0.01996647
370.9167,0.001126886,-1.194499,0.4340044,-2.150466,-0.355792,-0.01996647
370.9309,0.001631238,-1.184274,0.4276278,-2.149484,-0.3539322,-0.01996227
370.9464,0.002131308,-1.174166,0.4211055,-2.14856,-0.3522512,-0.01995855
370.9619,0.002627107,-1.164175,0.4138224,-2.147609,-0.3497784,-0.01995246
370.9765,0.002627107,-1.164175,0.4138224,-2.147609,-0.3497784,-0.01995246
370.9904,0.003118603,-1.1543,0.4057478,-2.146693,-0.3475366,-0.01994706
371.0046,0.003605776,-1.144539,0.3972971,-2.145838,-0.3455729,-0.01994244
371.0193,0.003605776,-1.144539,0.3972971,-2.145838,-0.3455729,-0.01994244
371.0335,0.004088629,-1.13489,0.387982,-2.144963,-0.3428857,-0.01993567
371.0485,0.00456713,-1.125353,0.377845,-2.144133,-0.3404718,-0.01992972
371.0633,0.00504126,-1.115927,0.3673371,-2.143367,-0.338358,-0.01992461
371.0779,0.00504126,-1.115927,0.3673371,-2.143367,-0.338358,-0.01992461
371.0919,0.005511005,-1.10661,0.3567343,-2.142664,-0.3364406,-0.01992004
371.1074,0.005976372,-1.097401,0.3454134,-2.141941,-0.3337435,-0.01991321
371.1227,0.006437337,-1.0883,0.3333524,-2.14126,-0.3312989,-0.01990712
371.1366,0.006437337,-1.0883,0.3333524,-2.14126,-0.3312989,-0.01990712
371.1507,0.006893886,-1.079303,0.3209741,-2.14064,-0.3291456,-0.01990185
371.1662,0.007346012,-1.070411,0.3085401,-2.140082,-0.3271865,-0.01989711
371.1809,0.007793728,-1.061623,0.2954143,-2.139503,-0.3244479,-0.01989014
371.1955,0.007793728,-1.061623,0.2954143,-2.139503,-0.3244479,-0.01989014
371.2095,0.008237018,-1.052937,0.2815751,-2.138966,-0.3219685,-0.01988393
371.2248,0.008675875,-1.044351,0.2674468,-2.138491,-0.3197842,-0.01987856
371.2404,0.009110299,-1.035866,0.2532903,-2.138076,-0.3177971,-0.01987372
371.2541,0.009110299,-1.035866,0.2532903,-2.138076,-0.3177971,-0.01987372
371.2681,0.00954031,-1.02748,0.2384635,-2.137641,-0.315033,-0.01986671
371.2834,0.009965899,-1.019191,0.222947,-2.137249,-0.3125348,-0.01986048
371.298,0.009965899,-1.019191,0.222947,-2.137249,-0.3125348,-0.01986048
371.312,0.01038707,-1.010999,0.2071672,-2.136917,-0.3103354,-0.01985508
371.3273,0.01080384,-1.002902,0.1906142,-2.136572,-0.3074258,-0.01984774
371.3417,0.01121621,-0.9948997,0.1733399,-2.136275,-0.3048199,-0.01984127
371.3565,0.01121621,-0.9948997,0.1733399,-2.136275,-0.3048199,-0.01984127
371.3705,0.01162419,-0.9869909,0.1558045,-2.136042,-0.302532,-0.01983567
371.3857,0.01202778,-0.9791744,0.1382828,-2.135869,-0.3004551,-0.01983064
371.4006,0.01242702,-0.9714492,0.1201307,-2.135679,-0.2976107,-0.01982358
371.4151,0.01242702,-0.9714492,0.1201307,-2.135679,-0.2976107,-0.01982358
371.4294,0.01282191,-0.9638143,0.1013339,-2.135533,-0.2950453,-0.0198173
371.4448,0.01321247,-0.9562687,0.08232301,-2.135446,-0.2927873,-0.01981185
371.4595,0.01321247,-0.9562687,0.08232301,-2.135446,-0.2927873,-0.01981185
371.4733,0.01359873,-0.9488114,0.0625829,-2.135347,-0.2898256,-0.01980458
371.4886,0.01398068,-0.9414414,0.04216745,-2.135295,-0.2871779,-0.0197982
371.5032,0.01435837,-0.9341576,0.02153886,-2.135305,-0.2848555,-0.01979268
371.5188,0.01435837,-0.9341576,0.02153886,-2.135305,-0.2848555,-0.01979268
371.5329,0.01473179,-0.9269592,0.0009714216,-2.13537,-0.2827506,-0.01978774
371.5473,0.015101,-0.919845,-0.02018325,-2.135419,-0.2798837,-0.01978088
371.5618,0.015466,-0.9128144,-0.04193903,-2.135509,-0.2773044,-0.01977482
371.5765,0.015466,-0.9128144,-0.04193903,-2.135509,-0.2773044,-0.01977482
371.5902,0.01582682,-0.9058661,-0.06386404,-2.135656,-0.275039,-0.01976958
371.6055,0.01618348,-0.8989995,-0.08569773,-2.135853,-0.2729868,-0.01976491
371.6202,0.016536,-0.8922133,-0.1073178,-2.136095,-0.2710823,-0.01976062
371.6349,0.016536,-0.8922133,-0.1073178,-2.136095,-0.2710823,-0.01976062
371.6488,0.01688443,-0.8855069,-0.1286719,-2.136376,-0.2692934,-0.01975664
371.6642,0.01722878,-0.8788793,-0.1497394,-2.136692,-0.2676038,-0.01975292
371.6791,0.01722878,-0.8788793,-0.1497394,-2.136692,-0.2676038,-0.01975292
371.6929,0.01756909,-0.8723295,-0.1705137,-2.137039,-0.266005,-0.01974945
371.7082,0.01790539,-0.8658568,-0.1909941,-2.137415,-0.264492,-0.01974619
371.7227,0.01823771,-0.8594601,-0.2111827,-2.137817,-0.2630611,-0.01974315
371.7375,0.01823771,-0.8594601,-0.2111827,-2.137817,-0.2630611,-0.01974315
371.7513,0.01856609,-0.8531387,-0.2310824,-2.138244,-0.2617094,-0.01974031
371.7669,0.01889055,-0.8468916,-0.2506968,-2.138694,-0.2604343,-0.01973766
371.7813,0.01921113,-0.8407182,-0.2700295,-2.139165,-0.2592335,-0.01973521
371.7982,0.01921113,-0.8407182,-0.2700295,-2.139165,-0.2592335,-0.01973521
371.812,0.01952786,-0.8346174,-0.2890842,-2.139655,-0.2581047,-0.01973293
371.8252,0.01984078,-0.8285884,-0.3078647,-2.140163,-0.2570457,-0.01973083
371.8397,0.01984078,-0.8285884,-0.3078647,-2.140163,-0.2570457,-0.01973083
371.8536,0.02014993,-0.8226305,-0.3263745,-2.140688,-0.2560544,-0.0197289
371.8688,0.02045533,-0.8167428,-0.3446175,-2.141227,-0.2551287,-0.01972712
371.8836,0.02075703,-0.8109245,-0.3625972,-2.141781,-0.2542667,-0.0197255
371.8979,0.02075703,-0.8109245,-0.3625972,-2.141781,-0.2542667,-0.0197255
371.9119,0.02105506,-0.8051749,-0.3803172,-2.142347,-0.2534664,-0.01972403
371.9272,0.02134945,-0.799493,-0.3977811,-2.142923,-0.2527258,-0.01972269
371.9417,0.02164025,-0.7938782,-0.4149925,-2.14351,-0.2520433,-0.01972149
371.9563,0.02164025,-0.7938782,-0.4149925,-2.14351,-0.2520433,-0.01972149
371.9703,0.02192748,-0.7883297,-0.4319548,-2.144106,-0.251417,-0.01972044
371.9863,0.02221119,-0.7828466,-0.4486716,-2.144709,-0.2508451,-0.0197195
372.0004,0.02249141,-0.7774283,-0.4651462,-2.145319,-0.2503259,-0.01971868
372.015,0.02249141,-0.7774283,-0.4651462,-2.145319,-0.2503259,-0.01971868
372.029,0.02276818,-0.772074,-0.4813822,-2.145935,-0.249858,-0.01971797
372.0445,0.02304153,-0.766783,-0.4973827,-2.146556,-0.2494395,-0.01971739
372.0593,0.02304153,-0.766783,-0.4973827,-2.146556,-0.2494395,-0.01971739
372.0732,0.02331151,-0.7615545,-0.5131512,-2.14718,-0.249069,-0.0197169
372.0903,0.02357814,-0.7563878,-0.5286909,-2.147808,-0.2487449,-0.01971652
372.104,0.02384146,-0.7512822,-0.544005,-2.148437,-0.2484659,-0.01971624
372.1173,0.02384146,-0.7512822,-0.544005,-2.148437,-0.2484659,-0.01971624
372.1315,0.02410152,-0.7462369,-0.5590969,-2.149068,-0.2482304,-0.01971605
372.1469,0.02435835,-0.7412513,-0.5739695,-2.1497,-0.248037,-0.01971596
372.161,0.02461198,-0.7363247,-0.5886261,-2.150332,-0.2478845,-0.01971595
372.1754,0.02461198,-0.7363247,-0.5886261,-2.150332,-0.2478845,-0.01971595
372.1894,0.02486245,-0.7314563,-0.6030698,-2.150963,-0.2477713,-0.01971602
372.2047,0.0251098,-0.7266456,-0.6173036,-2.151593,-0.2476964,-0.01971617
372.219,0.0251098,-0.7266456,-0.6173036,-2.151593,-0.2476964,-0.01971617
372.233,0.02535405,-0.7218919,-0.6313305,-2.152221,-0.2476583,-0.01971639
372.2484,0.02559526,-0.7171944,-0.6451535,-2.152846,-0.247656,-0.01971669
372.263,0.02583345,-0.7125525,-0.6587754,-2.153469,-0.2476881,-0.01971706
372.2777,0.02583345,-0.7125525,-0.6587754,-2.153469,-0.2476881,-0.01971706
372.2915,0.02606866,-0.7079656,-0.6721993,-2.154088,-0.2477536,-0.01971751
372.307,0.02630093,-0.703433,-0.685428,-2.154703,-0.2478512,-0.01971801
372.3214,0.02653028,-0.6989542,-0.6984642,-2.155313,-0.24798,-0.01971858
372.3362,0.02653028,-0.6989542,-0.6984642,-2.155313,-0.24798,-0.01971858
372.3501,0.02675676,-0.6945283,-0.7113107,-2.15592,-0.2481387,-0.0197192
372.3654,0.02698039,-0.690155,-0.7239704,-2.15652,-0.2483265,-0.01971989
372.3799,0.02698039,-0.690155,-0.7239704,-2.15652,-0.2483265,-0.01971989
372.396,0.02720122,-0.6858335,-0.7364458,-2.157116,-0.2485421,-0.01972063
372.4099,0.02741927,-0.6815632,-0.7487397,-2.157705,-0.2487848,-0.01972141
372.4246,0.02763458,-0.6773435,-0.7608547,-2.158288,-0.2490533,-0.01972226
372.438,0.02763458,-0.6773435,-0.7608547,-2.158288,-0.2490533,-0.01972226
372.4521,0.02784719,-0.673174,-0.7727934,-2.158865,-0.249347,-0.01972314
372.4673,0.02805712,-0.6690538,-0.7845584,-2.159435,-0.2496647,-0.01972408
372.4816,0.02826441,-0.6649825,-0.7961521,-2.159998,-0.2500057,-0.01972506
372.4962,0.02826441,-0.6649825,-0.7961521,-2.159998,-0.2500057,-0.01972506
372.5099,0.0284691,-0.6609595,-0.807577,-2.160554,-0.250369,-0.01972609
372.5252,0.02867121,-0.6569843,-0.8188356,-2.161103,-0.2507538,-0.01972715
372.5396,0.02867121,-0.6569843,-0.8188356,-2.161103,-0.2507538,-0.01972715
372.5535,0.02887077,-0.6530562,-0.8299303,-2.161644,-0.2511593,-0.01972826
372.5688,0.02906782,-0.6491747,-0.8408635,-2.162177,-0.2515846,-0.01972939
372.5834,0.02926239,-0.6453394,-0.8516375,-2.162702,-0.252029,-0.01973057
372.5978,0.02926239,-0.6453394,-0.8516375,-2.162702,-0.252029,-0.01973057
372.612,0.02945451,-0.6415495,-0.8622547,-2.163219,-0.2524917,-0.01973177
372.6275,0.02964421,-0.6378046,-0.8727174,-2.163728,-0.252972,-0.01973301
372.6416,0.02983152,-0.6341042,-0.8830277,-2.164229,-0.2534691,-0.01973428
372.6563,0.02983152,-0.6341042,-0.8830277,-2.164229,-0.2534691,-0.01973428
372.67,0.03001647,-0.6304477,-0.8931878,-2.164721,-0.2539823,-0.01973557
372.6855,0.0301991,-0.6268347,-0.9032,-2.165205,-0.254511,-0.0197369
372.6999,0.0301991,-0.6268347,-0.9032,-2.165205,-0.254511,-0.0197369
372.7169,0.03037942,-0.6232646,-0.9130665,-2.165679,-0.2550544,-0.01973825
372.7301,0.03055747,-0.6197369,-0.9227893,-2.166146,-0.255612,-0.01973962
372.7444,0.03073328,-0.6162511,-0.9323705,-2.166604,-0.256183,-0.01974102
372.7579,0.03073328,-0.6162511,-0.9323705,-2.166604,-0.256183,-0.01974102
372.7717,0.03090687,-0.6128067,-0.9418122,-2.167053,-0.2567668,-0.01974244
372.7871,0.03107828,-0.6094032,-0.9511164,-2.167493,-0.257363,-0.01974388
372.8013,0.03124753,-0.6060402,-0.9602851,-2.167924,-0.2579708,-0.01974535
372.8157,0.03124753,-0.6060402,-0.9602851,-2.167924,-0.2579708,-0.01974535
372.8296,0.03141465,-0.6027171,-0.9693203,-2.168346,-0.2585897,-0.01974683
372.8449,0.03157967,-0.5994335,-0.9782239,-2.16876,-0.2592191,-0.01974832
372.8593,0.03157967,-0.5994335,-0.9782239,-2.16876,-0.2592191,-0.01974832
372.8731,0.03174261,-0.596189,-0.9869978,-2.169165,-0.2598585,-0.01974984
372.8883,0.03190351,-0.5929831,-0.995644,-2.169561,-0.2605075,-0.01975138
372.9028,0.03206237,-0.5898152,-1.004164,-2.169948,-0.2611654,-0.01975292
372.9173,0.03206237,-0.5898152,-1.004164,-2.169948,-0.2611654,-0.01975292
372.9312,0.03221924,-0.586685,-1.01256,-2.170326,-0.2618318,-0.01975449
372.9465,0.03237414,-0.5835921,-1.020834,-2.170696,-0.2625062,-0.01975606
372.9609,0.03252709,-0.5805359,-1.028988,-2.171057,-0.2631881,-0.01975765
372.9755,0.03252709,-0.5805359,-1.028988,-2.171057,-0.2631881,-0.01975765
372.9893,0.03267812,-0.577516,-1.037022,-2.17141,-0.263877,-0.01975925
373.0047,0.03282725,-0.5745321,-1.044939,-2.171753,-0.2645727,-0.01976087
373.0191,0.03282725,-0.5745321,-1.044939,-2.171753,-0.2645727,-0.01976087
373.0332,0.0329745,-0.5715836,-1.052742,-2.172089,-0.2652745,-0.01976249
373.0484,0.03311991,-0.5686703,-1.06043,-2.172415,-0.2659821,-0.01976412
373.0649,0.0332635,-0.5657915,-1.068006,-2.172734,-0.266695,-0.01976576
373.0788,0.0332635,-0.5657915,-1.068006,-2.172734,-0.266695,-0.01976576
373.0923,0.03340528,-0.5629471,-1.075472,-2.173043,-0.267413,-0.01976741
373.1069,0.03354528,-0.5601365,-1.082829,-2.173345,-0.2681355,-0.01976907
373.1211,0.03368353,-0.5573593,-1.090079,-2.173638,-0.2688623,-0.01977073
373.1354,0.03368353,-0.5573593,-1.090079,-2.173638,-0.2688623,-0.01977073
373.1492,0.03382004,-0.5546152,-1.097224,-2.173923,-0.2695929,-0.0197724
373.1644,0.03395485,-0.5519037,-1.104264,-2.1742,-0.2703271,-0.01977407
373.1791,0.03395485,-0.5519037,-1.104264,-2.1742,-0.2703271,-0.01977407
373.1929,0.03408796,-0.5492245,-1.111201,-2.174469,-0.2710644,-0.01977576
373.2081,0.03421941,-0.5465772,-1.118038,-2.17473,-0.2718046,-0.01977744
373.2225,0.03434921,-0.5439613,-1.124774,-2.174983,-0.2725474,-0.01977913
373.237,0.03434921,-0.5439613,-1.124774,-2.174983,-0.2725474,-0.01977913
373.2509,0.03447739,-0.5413767,-1.131413,-2.175229,-0.2732923,-0.01978083
373.266,0.03460396,-0.5388227,-1.137954,-2.175466,-0.2740392,-0.01978253
373.2805,0.03472895,-0.5362992,-1.1444,-2.175696,-0.2747878,-0.01978423
373.2953,0.03472895,-0.5362992,-1.1444,-2.175696,-0.2747878,-0.01978423
373.3091,0.03485238,-0.5338057,-1.150753,-2.175919,-0.2755377,-0.01978593
373.3243,0.03497426,-0.5313419,-1.157012,-2.176134,-0.2762887,-0.01978763
373.3388,0.03497426,-0.5313419,-1.157012,-2.176134,-0.2762887,-0.01978763
373.3528,0.03509463,-0.5289074,-1.16318,-2.176342,-0.2770405,-0.01978933
373.3682,0.03521349,-0.5265019,-1.169258,-2.176543,-0.2777929,-0.01979104
373.3824,0.03533086,-0.524125,-1.175248,-2.176737,-0.2785456,-0.01979274
373.399,0.03533086,-0.524125,-1.175248,-2.176737,-0.2785456,-0.01979274
373.4129,0.03544677,-0.5217765,-1.18115,-2.176924,-0.2792984,-0.01979445
373.4262,0.03556124,-0.5194559,-1.186966,-2.177104,-0.280051,-0.01979616
373.4405,0.03567428,-0.517163,-1.192697,-2.177277,-0.2808033,-0.01979786
373.455,0.03567428,-0.517163,-1.192697,-2.177277,-0.2808033,-0.01979786
373.4691,0.03578591,-0.5148973,-1.198344,-2.177443,-0.281555,-0.01979957
373.484,0.03589614,-0.5126587,-1.203909,-2.177603,-0.282306,-0.01980127
373.4983,0.03589614,-0.5126587,-1.203909,-2.177603,-0.282306,-0.01980127
373.5125,0.03600501,-0.5104467,-1.209392,-2.177756,-0.2830564,-0.01980297
373.5275,0.03611252,-0.508261,-1.214794,-2.177903,-0.2838056,-0.01980467
373.5422,0.03621869,-0.5061014,-1.220118,-2.178044,-0.2845533,-0.01980637
373.5564,0.03621869,-0.5061014,-1.220118,-2.178044,-0.2845533,-0.01980637
373.5705,0.03632354,-0.5039675,-1.225363,-2.178179,-0.2852994,-0.01980806
373.5858,0.03642709,-0.501859,-1.229828,-2.178373,-0.2869408,-0.01981202
373.6003,0.03652935,-0.4997756,-1.233396,-2.178576,-0.2884578,-0.01981563
373.6148,0.03652935,-0.4997756,-1.233396,-2.178576,-0.2884578,-0.01981563
373.6288,0.03663033,-0.4977171,-1.236437,-2.178767,-0.2897618,-0.01981871
373.6443,0.03673005,-0.495683,-1.239205,-2.178941,-0.2909322,-0.01982146
373.6587,0.03673005,-0.495683,-1.239205,-2.178941,-0.2909322,-0.01982146
373.6725,0.03682854,-0.4936732,-1.241127,-2.179166,-0.2929262,-0.01982632
373.6877,0.03692581,-0.4916874,-1.242143,-2.179396,-0.2947578,-0.01983075
373.7023,0.03702186,-0.4897252,-1.242649,-2.179609,-0.296353,-0.01983458
373.7169,0.03702186,-0.4897252,-1.242649,-2.179609,-0.296353,-0.01983458
373.7328,0.03711673,-0.4877864,-1.242209,-2.179869,-0.2986936,-0.01984036
373.7469,0.03721042,-0.4858707,-1.240835,-2.18013,-0.3008272,-0.01984559
373.7604,0.03730295,-0.4839778,-1.238957,-2.180372,-0.3026973,-0.01985016
373.775,0.03730295,-0.4839778,-1.238957,-2.180372,-0.3026973,-0.01985016
373.7888,0.03739433,-0.4821074,-1.236853,-2.180589,-0.3043985,-0.01985429
373.8039,0.03748459,-0.4802594,-1.233966,-2.180856,-0.3068939,-0.01986056
373.8182,0.03748459,-0.4802594,-1.233966,-2.180856,-0.3068939,-0.01986056
373.8321,0.03757373,-0.4784333,-1.230239,-2.181126,-0.3092058,-0.01986632
373.8474,0.03766176,-0.476629,-1.226066,-2.181377,-0.3112598,-0.01987143
373.8618,0.03774872,-0.4748463,-1.221709,-2.181605,-0.3131418,-0.0198761
373.8764,0.03774872,-0.4748463,-1.221709,-2.181605,-0.3131418,-0.0198761
373.8902,0.0378346,-0.4730847,-1.216608,-2.181882,-0.3158106,-0.01988293
373.9055,0.03791942,-0.4713442,-1.210701,-2.182164,-0.3182902,-0.01988924
373.9199,0.03791942,-0.4713442,-1.210701,-2.182164,-0.3182902,-0.01988924
373.9339,0.0380032,-0.4696244,-1.20438,-2.182381,-0.3205075,-0.01989482
373.9503,0.03808594,-0.4679251,-1.197216,-2.182548,-0.3234435,-0.01990233
373.9639,0.03816767,-0.466246,-1.189216,-2.182611,-0.3261524,-0.01990919
373.9783,0.03816767,-0.466246,-1.189216,-2.182611,-0.3261524,-0.01990919
373.9922,0.03824839,-0.4645869,-1.180801,-2.182579,-0.3285706,-0.01991529
374.0075,0.03832812,-0.4629477,-1.172248,-2.1825,-0.3307896,-0.01992093
374.0219,0.03840687,-0.4613279,-1.163003,-2.182491,-0.3337704,-0.01992878
374.0365,0.03840687,-0.4613279,-1.163003,-2.182491,-0.3337704,-0.01992878
374.0535,0.03848466,-0.4597275,-1.15301,-2.182503,-0.3365462,-0.01993606
374.0666,0.0385615,-0.4581461,-1.142656,-2.182497,-0.3390408,-0.01994259
374.0811,0.03863739,-0.4565836,-1.132203,-2.182471,-0.3413391,-0.01994861
374.0948,0.03863739,-0.4565836,-1.132203,-2.182471,-0.3413391,-0.01994861
374.1083,0.03871236,-0.4550397,-1.121092,-2.182509,-0.3443979,-0.01995686
374.1235,0.03878642,-0.4535141,-1.109262,-2.182548,-0.3472494,-0.0199645
374.138,0.03878642,-0.4535141,-1.109262,-2.182548,-0.3472494,-0.0199645
374.1518,0.03885956,-0.4520068,-1.097099,-2.182549,-0.3498152,-0.01997136
374.1673,0.03893182,-0.4505174,-1.084174,-2.182593,-0.3530712,-0.01998029
374.1815,0.03900319,-0.4490458,-1.070494,-2.182622,-0.3560798,-0.0199885
374.196,0.03900319,-0.4490458,-1.070494,-2.182622,-0.3560798,-0.0199885
374.2101,0.03907369,-0.4475917,-1.056479,-2.182608,-0.3587794,-0.01999585
374.2251,0.03914334,-0.4461549,-1.042403,-2.18256,-0.3612621,-0.02000264
374.2397,0.03914334,-0.4461549,-1.042403,-2.18256,-0.3612621,-0.02000264
374.2534,0.03921214,-0.4447353,-1.027717,-2.182582,-0.364488,-0.02001172
374.2688,0.03928011,-0.4433326,-1.012362,-2.182612,-0.3674947,-0.02002014
374.2833,0.03934725,-0.4419465,-0.9967216,-2.182609,-0.3702041,-0.02002772
374.2979,0.03934725,-0.4419465,-0.9967216,-2.182609,-0.3702041,-0.02002772
374.3121,0.03941357,-0.440577,-0.9803697,-2.182653,-0.3735913,-0.02003742
374.3275,0.03947909,-0.4392239,-0.9633132,-2.182685,-0.3767222,-0.02004634
374.3417,0.03954382,-0.4378868,-0.9459686,-2.18267,-0.3795344,-0.02005434
374.3563,0.03954382,-0.4378868,-0.9459686,-2.18267,-0.3795344,-0.02005434
374.3704,0.03960776,-0.4365657,-0.9286087,-2.18262,-0.3821193,-0.02006174
374.3875,0.03967094,-0.4352603,-0.910688,-2.18264,-0.3854363,-0.02007149
374.4009,0.03973335,-0.4339705,-0.8921448,-2.182669,-0.3885265,-0.02008053
374.4156,0.03973335,-0.4339705,-0.8921448,-2.182669,-0.3885265,-0.02008053
374.4295,0.039795,-0.432696,-0.873361,-2.182663,-0.3913109,-0.02008867
374.4435,0.03985592,-0.4314368,-0.8545935,-2.182623,-0.3938725,-0.02009619
374.4581,0.03985592,-0.4314368,-0.8545935,-2.182623,-0.3938725,-0.02009619
374.4718,0.0399161,-0.4301925,-0.8359798,-2.182568,-0.396266,-0.02010328
374.487,0.03997556,-0.4289631,-0.8175807,-2.182514,-0.398538,-0.02011007
374.5016,0.04003431,-0.4277483,-0.7994172,-2.182473,-0.4007083,-0.02011661
374.5161,0.04003431,-0.4277483,-0.7994172,-2.182473,-0.4007083,-0.02011661
374.5302,0.04009235,-0.426548,-0.7814959,-2.182445,-0.4027864,-0.02012292
374.5454,0.04014969,-0.425362,-0.7638175,-2.182425,-0.4047778,-0.020129
374.5598,0.04014969,-0.425362,-0.7638175,-2.182425,-0.4047778,-0.020129
374.5737,0.04020634,-0.4241901,-0.7463807,-2.182408,-0.406686,-0.02013485
374.5892,0.04026232,-0.4230322,-0.7291828,-2.182392,-0.4085138,-0.02014049
374.6037,0.04031753,-0.4218882,-0.7126586,-2.171728,-0.4112405,-0.02013135
374.6181,0.04031753,-0.4218882,-0.7126586,-2.171728,-0.4112405,-0.02013135
374.6324,0.04037206,-0.4207578,-0.6961429,-2.155029,-0.4137683,-0.02012818
374.6476,0.04042596,-0.4196409,-0.6796148,-2.135609,-0.4159682,-0.0201274
374.6622,0.04047924,-0.4185373,-0.6631333,-2.115048,-0.417905,-0.02012764
374.6768,0.04047924,-0.4185373,-0.6631333,-2.115048,-0.417905,-0.02012764
374.6907,0.0405319,-0.4174467,-0.6467721,-2.092862,-0.4197342,-0.02012676
374.707,0.04058397,-0.4163692,-0.630478,-2.069948,-0.4213492,-0.02012669
374.7215,0.04063545,-0.4153044,-0.6142671,-2.046862,-0.4227569,-0.02012691
374.7353,0.04063545,-0.4153044,-0.6142671,-2.046862,-0.4227569,-0.02012691
374.749,0.04068635,-0.4142523,-0.5981886,-2.022626,-0.4240672,-0.0201258
374.7644,0.04073666,-0.4132127,-0.5822014,-1.997903,-0.425166,-0.02012524
374.7787,0.04073666,-0.4132127,-0.5822014,-1.997903,-0.425166,-0.02012524
374.7927,0.04078642,-0.4121854,-0.5663264,-1.973136,-0.4260651,-0.02012486
374.8077,0.04083562,-0.4111703,-0.5505812,-1.948534,-0.4267813,-0.02012452
374.8222,0.04088425,-0.4101673,-0.5349977,-1.922953,-0.4273989,-0.02012292
374.837,0.04088425,-0.4101673,-0.5349977,-1.922953,-0.4273989,-0.02012292
374.851,0.04093234,-0.4091762,-0.5195521,-1.896979,-0.4278226,-0.02012172
374.8663,0.04097989,-0.4081968,-0.504262,-1.871017,-0.4280713,-0.0201207
374.8808,0.04102691,-0.4072291,-0.4891396,-1.845258,-0.4281616,-0.0201197
374.8958,0.04102691,-0.4072291,-0.4891396,-1.845258,-0.4281616,-0.0201197
374.9094,0.04107339,-0.4062729,-0.4742025,-1.81855,-0.4281535,-0.02011758
374.9247,0.04111935,-0.4053281,-0.4594414,-1.791473,-0.4279844,-0.02011584
374.9393,0.04111935,-0.4053281,-0.4594414,-1.791473,-0.4279844,-0.02011584
374.9534,0.0411648,-0.4043944,-0.4448672,-1.764432,-0.4276738,-0.02011428
374.9686,0.04120973,-0.4034719,-0.4304867,-1.73747,-0.4272394,-0.02011266
374.9834,0.04125416,-0.4025604,-0.416304,-1.710738,-0.4266873,-0.02011112
374.9979,0.04125416,-0.4025604,-0.416304,-1.710738,-0.4266873,-0.02011112
375.0139,0.04129808,-0.4016596,-0.4023228,-1.684323,-0.4260285,-0.02010961
375.0281,0.04134151,-0.4007696,-0.3885458,-1.658262,-0.4252725,-0.02010813
375.0417,0.04138444,-0.3998902,-0.3749753,-1.632571,-0.4244275,-0.02010665
375.0563,0.04138444,-0.3998902,-0.3749753,-1.632571,-0.4244275,-0.02010665
375.0701,0.04142687,-0.3990212,-0.3616124,-1.607254,-0.4235012,-0.02010521
375.0854,0.0414688,-0.3981625,-0.3484582,-1.582312,-0.4225001,-0.02010383
375.0999,0.0414688,-0.3981625,-0.3484582,-1.582312,-0.4225001,-0.02010383
375.1139,0.04151025,-0.3973141,-0.335513,-1.557741,-0.4214306,-0.02010251
375.1292,0.0415512,-0.3964758,-0.3227769,-1.533538,-0.420298,-0.02010124
375.1437,0.04159166,-0.3956475,-0.3102498,-1.509699,-0.4191077,-0.02009999
375.1613,0.04163164,-0.3948291,-0.2979313,-1.486219,-0.4178642,-0.02009872
375.1729,0.04163164,-0.3948291,-0.2979313,-1.486219,-0.4178642,-0.02009872
375.1873,0.04167113,-0.3940204,-0.2858205,-1.463094,-0.4165717,-0.02009742
375.2025,0.04171014,-0.3932213,-0.2739169,-1.440319,-0.415234,-0.02009615
375.2171,0.04171014,-0.3932213,-0.2739169,-1.440319,-0.415234,-0.02009615
375.2313,0.04174867,-0.3924319,-0.2622194,-1.417889,-0.4138545,-0.02009492
375.2466,0.04178671,-0.3916518,-0.2507271,-1.3958,-0.4124363,-0.02009372
375.2616,0.04182428,-0.3908811,-0.2394388,-1.374046,-0.4109822,-0.02009255
375.2762,0.04182428,-0.3908811,-0.2394388,-1.374046,-0.4109822,-0.02009255
375.2964,0.04186138,-0.3901196,-0.2283537,-1.352624,-0.4094949,-0.02009143
375.3061,0.041898,-0.3893672,-0.2174704,-1.331529,-0.4079771,-0.02009034
375.3199,0.041898,-0.3893672,-0.2174704,-1.331529,-0.4079771,-0.02009034
375.3344,0.04193416,-0.3886237,-0.2067877,-1.310755,-0.4064312,-0.0200893
375.3492,0.04196986,-0.3878892,-0.1963044,-1.2903,-0.4048601,-0.0200883
375.3641,0.0420051,-0.3871635,-0.186019,-1.270157,-0.4032668,-0.02008732
375.3787,0.0420051,-0.3871635,-0.186019,-1.270157,-0.4032668,-0.02008732
375.3928,0.04203988,-0.3864465,-0.1759299,-1.250324,-0.4016543,-0.02008638
375.4082,0.04207421,-0.385738,-0.1660352,-1.230795,-0.4000262,-0.02008547
375.4227,0.0421081,-0.385038,-0.1563331,-1.211566,-0.398386,-0.02008458
375.4375,0.0421081,-0.385038,-0.1563331,-1.211566,-0.398386,-0.02008458
375.4517,0.04214155,-0.3843465,-0.1468212,-1.192632,-0.3967373,-0.0200837
375.4671,0.04217456,-0.3836631,-0.1374973,-1.173991,-0.395084,-0.02008284
375.4818,0.04220714,-0.382988,-0.128359,-1.155637,-0.3934295,-0.02008199
375.4963,0.04220714,-0.382988,-0.128359,-1.155637,-0.3934295,-0.02008199
375.5103,0.04223929,-0.382321,-0.1194035,-1.137566,-0.3917773,-0.02008114
375.5257,0.04227103,-0.381662,-0.1106282,-1.119774,-0.3901309,-0.0200803
375.5403,0.04230235,-0.3810108,-0.1020304,-1.102257,-0.3884934,-0.02007945
375.555,0.04230235,-0.3810108,-0.1020304,-1.102257,-0.3884934,-0.02007945
375.571,0.04233326,-0.3803675,-0.09360727,-1.085012,-0.3868677,-0.0200786
375.5845,0.04236376,-0.3797318,-0.08535586,-1.068033,-0.3852565,-0.02007774
375.5988,0.04236376,-0.3797318,-0.08535586,-1.068033,-0.3852565,-0.02007774
375.613,0.04239387,-0.3791038,-0.07727335,-1.051318,-0.3836622,-0.02007688
375.6284,0.04242358,-0.3784833,-0.06935685,-1.034863,-0.3820872,-0.020076
375.6429,0.04245291,-0.3778703,-0.06160346,-1.018662,-0.3805335,-0.02007512
375.6576,0.04245291,-0.3778703,-0.06160346,-1.018662,-0.3805335,-0.02007512
375.6718,0.04248185,-0.3772646,-0.05401031,-1.002714,-0.379003,-0.02007424
375.6873,0.04251041,-0.3766661,-0.04657453,-0.9870131,-0.3774973,-0.02007334
375.702,0.0425386,-0.3760748,-0.03929325,-0.9715568,-0.3760178,-0.02007242
375.7169,0.0425386,-0.3760748,-0.03929325,-0.9715568,-0.3760178,-0.02007242
375.7309,0.04256642,-0.3754906,-0.03216366,-0.9563411,-0.374566,-0.02007149
375.7463,0.04259388,-0.3749134,-0.02518294,-0.9413624,-0.3731429,-0.02007055
375.7609,0.04262098,-0.3743431,-0.01834832,-0.9266172,-0.3717495,-0.0200696
375.7758,0.04262098,-0.3743431,-0.01834832,-0.9266172,-0.3717495,-0.0200696
375.7896,0.04264773,-0.3737797,-0.01165705,-0.9121019,-0.3703867,-0.02006863
375.8052,0.04267413,-0.3732229,-0.005106414,-0.8978131,-0.3690553,-0.02006765
375.8217,0.04270019,-0.3726729,0.001306282,-0.8837473,-0.3677559,-0.02006665
375.8355,0.04270019,-0.3726729,0.001306282,-0.8837473,-0.3677559,-0.02006665
375.8487,0.04272591,-0.3721295,0.00758369,-0.8699011,-0.3664889,-0.02006564
375.8641,0.04275129,-0.3715925,0.01372843,-0.8562713,-0.3652549,-0.02006461
375.8788,0.04275129,-0.3715925,0.01372843,-0.8562713,-0.3652549,-0.02006461
375.8928,0.04277635,-0.371062,0.0197431,-0.8428544,-0.3640542,-0.02006356
375.9083,0.04280108,-0.3705378,0.02563023,-0.8296474,-0.362887,-0.02006249
375.923,0.04282549,-0.37002,0.03139237,-0.8166468,-0.3617535,-0.02006141
375.9376,0.04282549,-0.37002,0.03139237,-0.8166468,-0.3617535,-0.02006141
375.9519,0.04284959,-0.3695083,0.03703198,-0.8038497,-0.3606537,-0.02006031
375.9673,0.04287337,-0.3690028,0.04255152,-0.7912529,-0.3595878,-0.0200592
375.982,0.04289685,-0.3685033,0.0479534,-0.7788532,-0.3585557,-0.02005807
375.9971,0.04289685,-0.3685033,0.0479534,-0.7788532,-0.3585557,-0.02005807
376.011,0.04292003,-0.3680097,0.05324,-0.7666478,-0.3575573,-0.02005691
376.0263,0.04294291,-0.3675222,0.05841366,-0.7546335,-0.3565924,-0.02005574
376.041,0.0429655,-0.3670404,0.0634767,-0.7428074,-0.3556611,-0.02005455
376.0557,0.0429655,-0.3670404,0.0634767,-0.7428074,-0.3556611,-0.02005455
376.072,0.04298779,-0.3665644,0.06843139,-0.7311668,-0.3547629,-0.02005333
376.0862,0.04300981,-0.3660941,0.07327998,-0.7197086,-0.3538976,-0.02005209
376.0999,0.04300981,-0.3660941,0.07327998,-0.7197086,-0.3538976,-0.02005209
376.1143,0.04303154,-0.3656294,0.07802466,-0.70843,-0.353065,-0.02005083
376.1308,0.04305299,-0.3651703,0.0826676,-0.6973283,-0.3522648,-0.02004955
376.1444,0.04307417,-0.3647166,0.08721096,-0.6864008,-0.3514965,-0.02004825
376.1587,0.04307417,-0.3647166,0.08721096,-0.6864008,-0.3514965,-0.02004825
376.1731,0.04309508,-0.3642685,0.09165683,-0.6756448,-0.3507599,-0.02004692
376.1885,0.04311572,-0.3638256,0.09600728,-0.6650575,-0.3500545,-0.02004557
376.2032,0.0431361,-0.3633881,0.1002644,-0.6546364,-0.3493799,-0.0200442
376.2182,0.0431361,-0.3633881,0.1002644,-0.6546364,-0.3493799,-0.0200442
376.2322,0.04315622,-0.3629558,0.1044301,-0.6443789,-0.3487357,-0.0200428
376.2477,0.04317609,-0.3625287,0.1085064,-0.6342825,-0.3481213,-0.02004137
376.2623,0.0431957,-0.3621067,0.1124952,-0.6243446,-0.3475365,-0.02003992
376.2771,0.0431957,-0.3621067,0.1124952,-0.6243446,-0.3475365,-0.02003992
376.2912,0.04321507,-0.3616897,0.1163985,-0.6145627,-0.3469806,-0.02003844
376.3065,0.04323419,-0.3612777,0.1202181,-0.6049346,-0.3464532,-0.02003693
376.3232,0.04325307,-0.3608707,0.1239559,-0.5954577,-0.3459538,-0.02003539
376.3369,0.04325307,-0.3608707,0.1239559,-0.5954577,-0.3459538,-0.02003539
376.35,0.04327171,-0.3604685,0.1276136,-0.5861297,-0.3454818,-0.02003383
376.3655,0.04329012,-0.3600712,0.1311932,-0.5769482,-0.3450369,-0.02003223
376.3803,0.0433083,-0.3596785,0.1346962,-0.567911,-0.3446185,-0.0200306
376.3951,0.0433083,-0.3596785,0.1346962,-0.567911,-0.3446185,-0.0200306
376.4091,0.04332624,-0.3592906,0.1381246,-0.5590159,-0.344226,-0.02002894
376.4246,0.04334396,-0.3589073,0.1414798,-0.5502605,-0.3438589,-0.02002725
376.4394,0.04334396,-0.3589073,0.1414798,-0.5502605,-0.3438589,-0.02002725
376.4534,0.04336147,-0.3585286,0.1447785,-0.5417874,-0.3435374,-0.02002584
376.469,0.04337875,-0.3581545,0.1480061,-0.5335317,-0.3432413,-0.02002427
376.4836,0.04339581,-0.3577848,0.1511614,-0.5254464,-0.3429644,-0.02002261
376.4983,0.04339581,-0.3577848,0.1511614,-0.5254464,-0.3429644,-0.02002261
376.5126,0.04341268,-0.3574195,0.1543805,-0.5187358,-0.342887,-0.02002388
376.528,0.04342934,-0.3570586,0.1575239,-0.5128571,-0.3428386,-0.02002388
376.5427,0.0434458,-0.356702,0.1605665,-0.5074199,-0.3427705,-0.02002338
376.5571,0.0434458,-0.356702,0.1605665,-0.5074199,-0.3427705,-0.02002338
376.5735,0.04346206,-0.3563497,0.1635223,-0.5022364,-0.3426844,-0.02002266
376.5869,0.04347812,-0.3560016,0.1665488,-0.4984433,-0.3427776,-0.02002511
376.6014,0.043494,-0.3556576,0.1695081,-0.4954659,-0.3428828,-0.02002616
376.6162,0.043494,-0.3556576,0.1695081,-0.4954659,-0.3428828,-0.02002616
376.6303,0.04350968,-0.3553178,0.1723778,-0.4928987,-0.3429556,-0.02002663
376.6457,0.04352516,-0.354982,0.1751738,-0.4905467,-0.3430005,-0.02002686
376.6604,0.04354047,-0.3546503,0.1780586,-0.4895437,-0.3432196,-0.02003043
376.675,0.04354047,-0.3546503,0.1780586,-0.4895437,-0.3432196,-0.02003043
376.689,0.04355559,-0.3543225,0.1808898,-0.4893141,-0.3434432,-0.02003249
376.7045,0.04357053,-0.3539986,0.1836438,-0.4894522,-0.3436268,-0.02003393
376.7194,0.04357053,-0.3539986,0.1836438,-0.4894522,-0.3436268,-0.02003393
376.7335,0.0435853,-0.3536786,0.1864817,-0.490991,-0.3439652,-0.02003856
376.7488,0.0435999,-0.3533624,0.1892638,-0.493307,-0.3442898,-0.02004156
376.7636,0.04361431,-0.3530499,0.1919721,-0.4959717,-0.3445605,-0.02004386
376.7782,0.04361431,-0.3530499,0.1919721,-0.4959717,-0.3445605,-0.02004386
376.7924,0.04362855,-0.3527412,0.1946257,-0.4987797,-0.3447859,-0.02004585
376.8075,0.04364276,-0.3524363,0.1984845,-0.512324,-0.346618,-0.02007684
376.8243,0.04365682,-0.352135,0.202153,-0.531944,-0.3484473,-0.02009444
376.838,0.04365682,-0.352135,0.202153,-0.531944,-0.3484473,-0.02009444
376.8521,0.04367071,-0.3518372,0.2053957,-0.5542783,-0.3498591,-0.02010623
376.8665,0.04368441,-0.3515431,0.2083525,-0.5777166,-0.3508999,-0.0201152
376.8811,0.04369793,-0.3512524,0.2111768,-0.6014875,-0.3516834,-0.02012254
376.8956,0.04369793,-0.3512524,0.2111768,-0.6014875,-0.3516834,-0.02012254
376.9096,0.04371127,-0.3509652,0.2139665,-0.625222,-0.3522988,-0.02012877
376.925,0.04372446,-0.3506815,0.2167724,-0.6487448,-0.3528033,-0.02013415
376.9397,0.04372446,-0.3506815,0.2167724,-0.6487448,-0.3528033,-0.02013415
376.9538,0.0437375,-0.3504011,0.2221802,-0.6719556,-0.3570015,-0.02014337
376.969,0.04375039,-0.350124,0.2280322,-0.6948122,-0.3626008,-0.02014848
376.9841,0.04376314,-0.3498503,0.2335631,-0.7173151,-0.3685107,-0.02015219
376.9987,0.04376314,-0.3498503,0.2335631,-0.7173151,-0.3685107,-0.02015219
377.0126,0.04377576,-0.3495798,0.2386701,-0.7394727,-0.3743854,-0.02015532
377.028,0.04378825,-0.3493124,0.2423298,-0.7613012,-0.3783349,-0.02015663
377.0426,0.04380061,-0.3490483,0.2456468,-0.7828075,-0.3815441,-0.02015906
377.0573,0.04380061,-0.3490483,0.2456468,-0.7828075,-0.3815441,-0.02015906
377.0711,0.04381285,-0.3487872,0.2489761,-0.8039886,-0.3845346,-0.02016147
377.0867,0.04382496,-0.3485293,0.2523584,-0.8248424,-0.3874539,-0.02016359
377.1022,0.04383696,-0.3482744,0.2546994,-0.8453792,-0.38835,-0.02016428
377.1158,0.04383696,-0.3482744,0.2546994,-0.8453792,-0.38835,-0.02016428
377.1302,0.04384883,-0.3480225,0.257061,-0.8656073,-0.3886673,-0.0201659
377.1455,0.04386059,-0.3477736,0.2596414,-0.8855209,-0.3889149,-0.02016735
377.1601,0.04387223,-0.3475276,0.2623789,-0.9051181,-0.3891881,-0.02016848
377.1751,0.04387223,-0.3475276,0.2623789,-0.9051181,-0.3891881,-0.02016848
377.1887,0.04388377,-0.3472846,0.2641765,-0.9244108,-0.3873162,-0.02016861
377.2042,0.04389518,-0.3470443,0.2661342,-0.94341,-0.3850217,-0.02016949
377.2188,0.04389518,-0.3470443,0.2661342,-0.94341,-0.3850217,-0.02016949
377.2328,0.04390649,-0.346807,0.268355,-0.9621085,-0.3827667,-0.02017015
377.2484,0.04391769,-0.3465724,0.2697653,-0.9805132,-0.3782966,-0.02017008
377.263,0.04392879,-0.3463406,0.271454,-0.9986349,-0.3735627,-0.02017057
377.2779,0.04392879,-0.3463406,0.271454,-0.9986349,-0.3735627,-0.02017057
377.2916,0.04393977,-0.3461116,0.2734336,-1.016465,-0.3689559,-0.02017076
377.3069,0.04395065,-0.3458852,0.2755803,-1.034002,-0.364484,-0.02017067
377.3216,0.04396144,-0.3456615,0.2769234,-1.051258,-0.3576686,-0.02017028
377.3363,0.04396144,-0.3456615,0.2769234,-1.051258,-0.3576686,-0.02017028
377.3505,0.04397211,-0.3454405,0.2785731,-1.068247,-0.350761,-0.02017022
377.3669,0.04398269,-0.3452221,0.280476,-1.08496,-0.3440423,-0.02016987
377.3805,0.04399316,-0.3450062,0.2825165,-1.101398,-0.3374931,-0.02016929
377.3954,0.04399316,-0.3450062,0.2825165,-1.101398,-0.3374931,-0.02016929
377.409,0.04400354,-0.3447929,0.2838416,-1.117569,-0.3285278,-0.02016869
377.4243,0.04401382,-0.3445821,0.2854981,-1.133488,-0.3196422,-0.02016816
377.4388,0.04401382,-0.3445821,0.2854981,-1.133488,-0.3196422,-0.02016816
377.4529,0.044024,-0.3443738,0.2873728,-1.149146,-0.3109918,-0.02016736
377.4681,0.04403409,-0.3441679,0.2886563,-1.164548,-0.2999339,-0.02016663
377.4829,0.04404408,-0.3439645,0.2902897,-1.179707,-0.2890796,-0.0201658
377.4976,0.04404408,-0.3439645,0.2902897,-1.179707,-0.2890796,-0.0201658
377.5116,0.04405398,-0.3437635,0.2921255,-1.194615,-0.2784998,-0.02016471
377.5272,0.04406378,-0.3435648,0.294069,-1.209274,-0.2681613,-0.02016343
377.5417,0.04407349,-0.3433685,0.2954859,-1.223692,-0.2554131,-0.02016235
377.5561,0.04407349,-0.3433685,0.2954859,-1.223692,-0.2554131,-0.02016235
377.5701,0.04408311,-0.3431745,0.297204,-1.23788,-0.2429558,-0.02016105
377.5856,0.04409264,-0.3429829,0.2990807,-1.251835,-0.2307946,-0.02015954
377.6002,0.04410207,-0.3427934,0.301042,-1.265559,-0.2189028,-0.02015788
377.615,0.04410207,-0.3427934,0.301042,-1.265559,-0.2189028,-0.02015788
377.6289,0.04411142,-0.3426062,0.3025754,-1.279055,-0.2046454,-0.02015639
377.6453,0.04412068,-0.3424212,0.3043631,-1.292337,-0.1907277,-0.02015467
377.6588,0.04412068,-0.3424212,0.3043631,-1.292337,-0.1907277,-0.02015467
377.6729,0.04412984,-0.3422384,0.3062771,-1.305401,-0.1771255,-0.02015279
377.6883,0.04413893,-0.3420578,0.3078551,-1.318247,-0.161218,-0.02015101
377.7029,0.04414793,-0.3418792,0.3096627,-1.330889,-0.145682,-0.02014902
377.7175,0.04414793,-0.3418792,0.3096627,-1.330889,-0.145682,-0.02014902
377.7315,0.04415683,-0.3417028,0.3115819,-1.343324,-0.1304872,-0.02014689
377.747,0.04416565,-0.3415285,0.3135596,-1.355556,-0.1156142,-0.02014466
377.7617,0.04417439,-0.3413562,0.3152565,-1.367584,-0.09848183,-0.02014251
377.7764,0.04417439,-0.3413562,0.3152565,-1.367584,-0.09848183,-0.02014251
377.7904,0.04418304,-0.341186,0.3171276,-1.379422,-0.08172897,-0.02014022
377.8058,0.04419161,-0.3410178,0.3190816,-1.39107,-0.06533022,-0.02013786
377.8205,0.04420009,-0.3408516,0.3210777,-1.402532,-0.04927038,-0.02013545
377.8351,0.04420009,-0.3408516,0.3210777,-1.402532,-0.04927038,-0.02013545
377.8493,0.04420849,-0.3406873,0.3228577,-1.413803,-0.03099418,-0.02013307
377.8644,0.0442168,-0.340525,0.3247714,-1.424899,-0.0131052,-0.02013064
377.8791,0.0442168,-0.340525,0.3247714,-1.424899,-0.0131052,-0.02013064
377.8931,0.04422503,-0.3403646,0.3267471,-1.435821,0.004415859,-0.02012819
377.9105,0.04423319,-0.3402061,0.3285631,-1.446563,0.02411275,-0.02012574
377.924,0.04424126,-0.3400494,0.3304929,-1.457139,0.04340274,-0.0201233
377.9375,0.04424126,-0.3400494,0.3304929,-1.457139,0.04340274,-0.0201233
377.9516,0.04424925,-0.3398947,0.3324746,-1.467553,0.06230199,-0.02012088
377.9668,0.04425715,-0.3397417,0.3344808,-1.477806,0.08082183,-0.02011848
377.9814,0.04426499,-0.3395906,0.336368,-1.487893,0.1014908,-0.02011612
377.996,0.04426499,-0.3395906,0.336368,-1.487893,0.1014908,-0.02011612
378.01,0.04427274,-0.3394412,0.338333,-1.497829,0.1217432,-0.02011381
378.0251,0.04428041,-0.3392937,0.340332,-1.507616,0.1415914,-0.02011157
378.0399,0.04428041,-0.3392937,0.340332,-1.507616,0.1415914,-0.02011157
378.054,0.044288,-0.3391478,0.3422558,-1.517249,0.1635588,-0.02010938
378.0692,0.04429552,-0.3390037,0.34424,-1.526739,0.1850889,-0.02010728
378.0842,0.04430295,-0.3388613,0.34625,-1.536091,0.2061926,-0.02010529
378.0985,0.04430295,-0.3388613,0.34625,-1.536091,0.2061926,-0.02010529
378.1126,0.04431031,-0.3387206,0.3482701,-1.545308,0.2268793,-0.02010341
378.1285,0.0443176,-0.3385815,0.3502534,-1.554384,0.249668,-0.02010161
378.1425,0.0443248,-0.3384441,0.3522686,-1.56333,0.2720078,-0.02009996
378.1573,0.0443248,-0.3384441,0.3522686,-1.56333,0.2720078,-0.02009996
378.1713,0.04433193,-0.3383084,0.3542958,-1.572151,0.2939082,-0.02009844
378.1886,0.04433898,-0.3381743,0.3563256,-1.580848,0.3153784,-0.02009705
378.2022,0.04434596,-0.3380417,0.3583615,-1.589419,0.3389371,-0.0200958
378.2166,0.04434596,-0.3380417,0.3583615,-1.589419,0.3389371,-0.0200958
378.23,0.04435287,-0.3379107,0.3604059,-1.597871,0.3620346,-0.02009472
378.2453,0.0443597,-0.3377813,0.362451,-1.606209,0.3846799,-0.02009378
378.2598,0.0443597,-0.3377813,0.362451,-1.606209,0.3846799,-0.02009378
378.2737,0.04436645,-0.3376534,0.3644925,-1.614434,0.4068823,-0.02009299
378.2889,0.04437313,-0.337527,0.3665283,-1.62255,0.4286506,-0.02009234
378.3037,0.04437973,-0.3374021,0.3685567,-1.630557,0.4499938,-0.02009184
378.3184,0.04437973,-0.3374021,0.3685567,-1.630557,0.4499938,-0.02009184
378.3355,0.04438626,-0.3372788,0.3705765,-1.638458,0.4709205,-0.02009148
378.3495,0.04439271,-0.3371569,0.3724991,-1.646257,0.4889221,-0.02009115
378.3627,0.04439909,-0.3370364,0.3744306,-1.653952,0.506574,-0.02009095
378.3771,0.04439909,-0.3370364,0.3744306,-1.653952,0.506574,-0.02009095
378.3917,0.0444054,-0.3369174,0.3763582,-1.661544,0.5238827,-0.02009086
378.4066,0.04441163,-0.3367999,0.3782762,-1.669034,0.5408548,-0.02009088
378.4211,0.04441779,-0.3366837,0.3800498,-1.676424,0.5549724,-0.02009084
378.4357,0.04441779,-0.3366837,0.3800498,-1.676424,0.5549724,-0.02009084
378.4498,0.04442387,-0.3365689,0.3818463,-1.683713,0.568819,-0.02009092
378.4672,0.04442989,-0.3364555,0.3836434,-1.690903,0.5823984,-0.02009109
378.4807,0.04443584,-0.3363434,0.3854311,-1.697994,0.5957148,-0.02009133
378.4947,0.04443584,-0.3363434,0.3854311,-1.697994,0.5957148,-0.02009133
378.5083,0.04444171,-0.3362327,0.3870293,-1.704985,0.6062388,-0.02009143
378.5237,0.04444752,-0.3361233,0.3886654,-1.711877,0.6165656,-0.02009164
378.5383,0.04444752,-0.3361233,0.3886654,-1.711877,0.6165656,-0.02009164
378.5523,0.04445325,-0.3360152,0.3903081,-1.718673,0.6266952,-0.02009191
378.5677,0.04445891,-0.3359084,0.3917349,-1.725369,0.6340872,-0.02009199
378.5822,0.04446451,-0.3358029,0.3932147,-1.731967,0.641346,-0.02009218
378.597,0.04446451,-0.3358029,0.3932147,-1.731967,0.641346,-0.02009218
378.6148,0.04447004,-0.3356987,0.3947074,-1.738472,0.6484688,-0.02009243
378.6262,0.04447551,-0.3355957,0.3961951,-1.744882,0.6554556,-0.02009272
378.6413,0.0444809,-0.3354939,0.3974189,-1.751195,0.6597529,-0.02009273
378.6555,0.0444809,-0.3354939,0.3974189,-1.751195,0.6597529,-0.02009273
378.6698,0.04448624,-0.3353934,0.39871,-1.757411,0.6639805,-0.02009285
378.6857,0.0444915,-0.335294,0.4000207,-1.763537,0.6681328,-0.02009303
378.6999,0.0444915,-0.335294,0.4000207,-1.763537,0.6681328,-0.02009303
378.714,0.0444967,-0.3351959,0.4010473,-1.769565,0.6696427,-0.02009289
378.7295,0.04450183,-0.3350989,0.4021589,-1.775499,0.6711405,-0.02009288
378.7462,0.04450691,-0.3350031,0.4032991,-1.781344,0.6726179,-0.02009292
378.7598,0.04450691,-0.3350031,0.4032991,-1.781344,0.6726179,-0.02009292
378.7733,0.04451192,-0.3349084,0.4044422,-1.787102,0.6740703,-0.02009298
378.7879,0.04451687,-0.3348149,0.4052535,-1.792765,0.6729189,-0.02009267
378.8026,0.04452175,-0.3347225,0.4061638,-1.798336,0.6718093,-0.02009248
378.8173,0.04452175,-0.3347225,0.4061638,-1.798336,0.6718093,-0.02009248
378.8312,0.04452657,-0.3346311,0.4071104,-1.803822,0.670732,-0.02009235
378.8467,0.04453134,-0.3345409,0.4080648,-1.809224,0.6696803,-0.02009223
378.8614,0.04453604,-0.3344518,0.408651,-1.814535,0.6660624,-0.02009171
378.8759,0.04453604,-0.3344518,0.408651,-1.814535,0.6660624,-0.02009171
378.8899,0.04454068,-0.3343637,0.4093544,-1.819755,0.6625357,-0.0200913
378.9055,0.04454527,-0.3342767,0.4101046,-1.824895,0.6590913,-0.02009095
378.9201,0.0445498,-0.3341907,0.4108688,-1.829955,0.6557199,-0.02009063
378.9348,0.0445498,-0.3341907,0.4108688,-1.829955,0.6557199,-0.02009063
378.9488,0.04455426,-0.3341058,0.4112313,-1.834927,0.649819,-0.02008988
378.9644,0.04455867,-0.3340218,0.4117294,-1.839812,0.6440534,-0.02008923
378.9791,0.04455867,-0.3340218,0.4117294,-1.839812,0.6440534,-0.02008923
378.9931,0.04456303,-0.3339389,0.4122852,-1.84462,0.6384171,-0.02008866
379.0103,0.04456732,-0.333857,0.4124337,-1.849343,0.6302952,-0.02008766
379.0235,0.04457157,-0.3337761,0.4127395,-1.85398,0.6223527,-0.02008677
379.038,0.04457157,-0.3337761,0.4127395,-1.85398,0.6223527,-0.02008677
379.0513,0.04457576,-0.3336961,0.4131158,-1.858544,0.6145856,-0.02008597
379.0664,0.0445799,-0.3336171,0.4135206,-1.863038,0.6069795,-0.0200852
379.0813,0.04458397,-0.3335391,0.4134731,-1.86745,0.5969186,-0.02008397
379.0959,0.04458397,-0.3335391,0.4134731,-1.86745,0.5969186,-0.02008397
379.1099,0.044588,-0.3334619,0.4135931,-1.87178,0.5870693,-0.02008283
379.1254,0.04459198,-0.3333857,0.4137918,-1.87604,0.5774359,-0.02008178
379.1398,0.04459198,-0.3333857,0.4137918,-1.87604,0.5774359,-0.02008178
379.1539,0.0445959,-0.3333105,0.4135388,-1.880224,0.565392,-0.02008032
379.1694,0.04459977,-0.3332361,0.4134754,-1.884327,0.5535975,-0.02007893
379.184,0.04460359,-0.3331626,0.4135044,-1.888365,0.5420612,-0.02007765
379.1987,0.04460359,-0.3331626,0.4135044,-1.888365,0.5420612,-0.02007765
379.2126,0.04460736,-0.33309,0.4135764,-1.89234,0.5307639,-0.02007642
379.2282,0.04461108,-0.3330183,0.4131533,-1.896243,0.5170839,-0.02007477
379.2428,0.04461475,-0.3329475,0.4129268,-1.900069,0.5036765,-0.02007314
379.2575,0.04461475,-0.3329475,0.4129268,-1.900069,0.5036765,-0.02007314
379.2716,0.04461838,-0.3328775,0.4128005,-1.903834,0.490562,-0.02007165
379.2887,0.04462196,-0.3328083,0.412723,-1.90754,0.4777195,-0.02007021
379.3026,0.04462548,-0.3327399,0.412128,-1.91118,0.4625269,-0.0200684
379.318,0.04462548,-0.3327399,0.412128,-1.91118,0.4625269,-0.0200684
379.3298,0.04462897,-0.3326724,0.4117437,-1.914748,0.4476292,-0.0200666
379.3456,0.04463241,-0.3326057,0.4114709,-1.918257,0.4330578,-0.02006494
379.3605,0.0446358,-0.3325398,0.4112541,-1.921714,0.4187894,-0.02006335
379.3748,0.0446358,-0.3325398,0.4112541,-1.921714,0.4187894,-0.02006335
379.3885,0.04463914,-0.3324746,0.4104999,-1.92511,0.4022031,-0.02006143
379.4039,0.04464244,-0.3324103,0.4099698,-1.928438,0.3859308,-0.02005952
379.4187,0.04464244,-0.3324103,0.4099698,-1.928438,0.3859308,-0.02005952
379.4333,0.0446457,-0.3323467,0.409562,-1.931713,0.3700159,-0.02005775
379.4484,0.04464892,-0.3322839,0.4086306,-1.934934,0.3518284,-0.02005575
379.4629,0.04465209,-0.3322219,0.4079452,-1.93809,0.333984,-0.02005376
379.4774,0.04465209,-0.3322219,0.4079452,-1.93809,0.333984,-0.02005376
379.4916,0.04465522,-0.3321606,0.407396,-1.941198,0.3165327,-0.02005195
379.5069,0.04465831,-0.3321,0.4069181,-1.944261,0.2994464,-0.02005023
379.5214,0.04466135,-0.3320402,0.4058742,-1.947278,0.2801076,-0.02004834
379.5363,0.04466135,-0.3320402,0.4058742,-1.947278,0.2801076,-0.02004834
379.55,0.04466436,-0.3319811,0.405076,-1.950234,0.2611215,-0.02004644
379.5674,0.04466733,-0.3319227,0.4044191,-1.953146,0.242553,-0.02004473
379.5813,0.04467026,-0.331865,0.4038375,-1.956019,0.2243732,-0.02004313
379.5948,0.04467026,-0.331865,0.4038375,-1.956019,0.2243732,-0.02004313
379.6087,0.04467318,-0.3318079,0.4047591,-1.958854,0.212574,-0.02004204
379.624,0.04467606,-0.3317516,0.4052017,-1.96168,0.2011221,-0.02004118
379.639,0.04467606,-0.3317516,0.4052017,-1.96168,0.2011221,-0.02004118
379.6527,0.0446789,-0.3316959,0.4053884,-1.964471,0.1898075,-0.02004017
379.6681,0.04468171,-0.3316408,0.4054701,-1.967219,0.1786751,-0.0200391
379.6826,0.04468447,-0.3315865,0.4055131,-1.969923,0.1677464,-0.02003804
379.697,0.04468447,-0.3315865,0.4055131,-1.969923,0.1677464,-0.02003804
379.7116,0.0446872,-0.3315327,0.4055452,-1.972585,0.1570283,-0.020037
379.727,0.04468989,-0.3314796,0.4055782,-1.975205,0.1465214,-0.02003601
379.7416,0.04469259,-0.3314272,0.404247,-1.968602,0.1355943,-0.03503462
379.7561,0.04469259,-0.3314272,0.404247,-1.968602,0.1355943,-0.03503462
379.7702,0.04469529,-0.3313754,0.4036504,-1.965167,0.1251945,-0.04973931
379.7855,0.04469796,-0.3313242,0.4033733,-1.963315,0.1151507,-0.06415576
379.8,0.04469796,-0.3313242,0.4033733,-1.963315,0.1151507,-0.06415576
379.8141,0.04470059,-0.3312737,0.4034843,-1.964314,0.1054882,-0.07496412
379.8291,0.04470318,-0.3312237,0.4035482,-1.965025,0.09600891,-0.08556058
379.846,0.04470573,-0.3311743,0.4036119,-1.965616,0.08672425,-0.09594931
379.8596,0.04470573,-0.3311743,0.4036119,-1.965616,0.08672425,-0.09594931
379.8735,0.04470825,-0.3311255,0.4036944,-1.966167,0.07763885,-0.1061344
379.888,0.04471073,-0.3310773,0.4039626,-1.968775,0.06882258,-0.1127864
379.9023,0.04471317,-0.3310297,0.4041612,-1.970682,0.06016011,-0.1193081
379.917,0.04471317,-0.3310297,0.4041612,-1.970682,0.06016011,-0.1193081
379.931,0.04471557,-0.3309826,0.4043442,-1.972252,0.05166703,-0.1257019
379.9464,0.04471795,-0.3309361,0.4045328,-1.973663,0.04334945,-0.1319704
379.9612,0.04472029,-0.3308901,0.4048243,-1.977063,0.03524467,-0.1347827
379.9757,0.04472029,-0.3308901,0.4048243,-1.977063,0.03524467,-0.1347827
379.9897,0.04472259,-0.3308447,0.4050666,-1.979709,0.0272849,-0.1375399
380.0052,0.04472486,-0.3307998,0.4052961,-1.981981,0.01947914,-0.140243
380.0197,0.04472486,-0.3307998,0.4052961,-1.981981,0.01947914,-0.140243
380.0342,0.04472709,-0.3307555,0.4055675,-1.986124,0.0118437,-0.1395598
380.0491,0.04472929,-0.3307117,0.4058033,-1.989441,0.004346228,-0.13889
380.0638,0.04473146,-0.3306684,0.4060287,-1.992337,-0.003008079,-0.1382334
380.0782,0.04473146,-0.3306684,0.4060287,-1.992337,-0.003008079,-0.1382334
380.0923,0.0447336,-0.3306257,0.4062532,-1.995006,-0.0102182,-0.1375897
380.1073,0.0447357,-0.3305834,0.4064577,-1.999608,-0.01730384,-0.1336253
380.1242,0.04473777,-0.3305417,0.4066515,-2.003402,-0.02425485,-0.1297387
380.1379,0.04473777,-0.3305417,0.4066515,-2.003402,-0.02425485,-0.1297387
380.1514,0.04473981,-0.3305004,0.4068429,-2.006772,-0.03107191,-0.1259283
380.1665,0.04474182,-0.3304597,0.4070342,-2.009902,-0.03775714,-0.1221926
380.1805,0.0447438,-0.3304194,0.4071451,-2.014948,-0.04436249,-0.1151969
380.195,0.0447438,-0.3304194,0.4071451,-2.014948,-0.04436249,-0.1151969
380.2089,0.04474574,-0.3303796,0.4072692,-2.019166,-0.05083438,-0.1083384
380.2243,0.04474766,-0.3303404,0.4073998,-2.022941,-0.05717869,-0.1016144
380.2389,0.04474766,-0.3303404,0.4073998,-2.022941,-0.05717869,-0.1016144
380.253,0.04474954,-0.3303015,0.4074098,-2.028518,-0.06347349,-0.09168894
380.2683,0.04475138,-0.3302632,0.4074518,-2.033205,-0.06963351,-0.08195814
380.283,0.0447532,-0.3302253,0.407508,-2.037406,-0.07566909,-0.07241815
380.298,0.0447532,-0.3302253,0.407508,-2.037406,-0.07566909,-0.07241815
380.312,0.04475499,-0.3301879,0.4075693,-2.041321,-0.08158788,-0.06306524
380.3273,0.04475675,-0.3301509,0.4074548,-2.047102,-0.08749913,-0.05056246
380.3417,0.04475848,-0.3301143,0.4073955,-2.05202,-0.09327247,-0.03830485
380.3563,0.04475848,-0.3301143,0.4073955,-2.05202,-0.09327247,-0.03830485
380.3703,0.04476018,-0.3300782,0.4073608,-2.056457,-0.09892352,-0.0262876
380.3857,0.04476186,-0.3300426,0.4073362,-2.060601,-0.1044627,-0.01450599
380.4002,0.04476349,-0.3300073,0.4070861,-2.066598,-0.1100328,0.0003778394
380.4167,0.04476349,-0.3300073,0.4070861,-2.066598,-0.1100328,0.0003778394
380.4307,0.0447651,-0.3299725,0.4069161,-2.07172,-0.1154584,0.01496983
380.4439,0.04476669,-0.3299381,0.4067823,-2.076349,-0.1207616,0.0292757
380.4584,0.04476669,-0.3299381,0.4067823,-2.076349,-0.1207616,0.0292757
380.4744,0.04476825,-0.3299042,0.406601,-2.08116,-0.1259943,0.04409316
380.4875,0.04476978,-0.3298706,0.4064502,-2.085588,-0.1311126,0.05862007
380.5014,0.0447713,-0.3298375,0.406314,-2.089764,-0.1361262,0.07286214
380.5162,0.0447713,-0.3298375,0.406314,-2.089764,-0.1361262,0.07286214
380.5298,0.04477278,-0.3298047,0.406186,-2.093754,-0.1410407,0.08682495
380.545,0.04477425,-0.3297724,0.4060636,-2.097591,-0.1458592,0.100514
380.5594,0.04477425,-0.3297724,0.4060636,-2.097591,-0.1458592,0.100514
380.5729,0.04477569,-0.3297404,0.4059461,-2.101294,-0.1505836,0.1139346
380.5882,0.04477711,-0.3297089,0.4058337,-2.104872,-0.1552154,0.1270921
380.6025,0.04477851,-0.3296777,0.4057268,-2.108333,-0.1597558,0.1399916
380.6171,0.04477851,-0.3296777,0.4057268,-2.108333,-0.1597558,0.1399916
380.6309,0.04477989,-0.3296469,0.4057114,-2.111197,-0.164153,0.151846
380.6461,0.04478125,-0.3296165,0.40567,-2.114121,-0.1684794,0.163468
380.6606,0.04478259,-0.3295864,0.4056211,-2.117026,-0.172727,0.1748622
380.6751,0.04478259,-0.3295864,0.4056211,-2.117026,-0.172727,0.1748622
380.6888,0.04478393,-0.3295567,0.4059646,-2.117838,-0.1766481,0.1826997
380.7041,0.04478525,-0.3295274,0.4061619,-2.119291,-0.1805723,0.1903834
380.7187,0.04478525,-0.3295274,0.4061619,-2.119291,-0.1805723,0.1903834
380.7325,0.04478655,-0.3294984,0.4062993,-2.121021,-0.1844556,0.1979166
380.7498,0.04478783,-0.3294698,0.4064149,-2.122853,-0.188277,0.205302
380.7644,0.0447891,-0.3294415,0.4069529,-2.122675,-0.1917603,0.2092093
380.7781,0.0447891,-0.3294415,0.4069529,-2.122675,-0.1917603,0.2092093
380.792,0.04479036,-0.3294136,0.4073247,-2.123189,-0.195266,0.21304
380.8062,0.04479161,-0.329386,0.4076273,-2.124021,-0.1987437,0.2167956
380.8206,0.04479284,-0.3293587,0.4079032,-2.12499,-0.2021696,0.2204775
380.8354,0.04479284,-0.3293587,0.4079032,-2.12499,-0.2021696,0.2204775
380.8494,0.04479406,-0.3293318,0.4086296,-2.123987,-0.205247,0.220754
380.8647,0.04479527,-0.3293051,0.4091724,-2.123703,-0.2083636,0.221025
380.8795,0.04479527,-0.3293051,0.4091724,-2.123703,-0.2083636,0.221025
380.8937,0.04479647,-0.3292788,0.4096369,-2.123766,-0.2114644,0.2212908
380.9089,0.04479767,-0.3292528,0.4105486,-2.121975,-0.2142252,0.218218
380.9233,0.04479885,-0.3292272,0.4112551,-2.12097,-0.2170438,0.2152055
380.938,0.04479885,-0.3292272,0.4112551,-2.12097,-0.2170438,0.2152055
380.952,0.04480002,-0.3292018,0.4118719,-2.120357,-0.2198588,0.212252
380.9676,0.04480118,-0.3291768,0.4124496,-2.119942,-0.2226413,0.2093565
380.9819,0.04480234,-0.329152,0.413513,-2.117619,-0.2250677,0.2031845
380.9964,0.04480234,-0.329152,0.413513,-2.117619,-0.2250677,0.2031845
381.0108,0.04480349,-0.3291275,0.414364,-2.116063,-0.2275606,0.1971335
381.0264,0.04480462,-0.3291034,0.4151198,-2.1149,-0.2300583,0.1912011
381.0427,0.04480574,-0.3290794,0.4158315,-2.113948,-0.2325316,0.185385
381.0563,0.04480574,-0.3290794,0.4158315,-2.113948,-0.2325316,0.185385
381.0702,0.04480686,-0.3290558,0.4170449,-2.111109,-0.2346464,0.1763498
381.0845,0.04480798,-0.3290325,0.4180319,-2.109052,-0.2368402,0.1674917
381.0991,0.04480798,-0.3290325,0.4180319,-2.109052,-0.2368402,0.1674917
381.1132,0.04480908,-0.3290095,0.418915,-2.107407,-0.2390488,0.1588073
381.1286,0.04481018,-0.3289867,0.4202846,-2.103986,-0.2409149,0.1469599
381.143,0.04481128,-0.3289642,0.4214073,-2.101409,-0.2428761,0.1353449
381.1573,0.04481128,-0.3289642,0.4214073,-2.101409,-0.2428761,0.1353449
381.1717,0.04481237,-0.328942,0.4224147,-2.099284,-0.2448628,0.1239575
381.1871,0.04481345,-0.32892,0.4233646,-2.097417,-0.2468416,0.1127935
381.2016,0.04481452,-0.3288983,0.4248327,-2.09371,-0.2484661,0.09851516
381.216,0.04481452,-0.3288983,0.4248327,-2.09371,-0.2484661,0.09851516
381.2302,0.0448156,-0.3288768,0.4260517,-2.090823,-0.2501882,0.08451676
381.2456,0.04481666,-0.3288556,0.4271516,-2.088383,-0.2519412,0.07079283
381.2601,0.04481771,-0.3288347,0.4281898,-2.086206,-0.2536917,0.057338
381.2759,0.04481771,-0.3288347,0.4281898,-2.086206,-0.2536917,0.057338
381.2885,0.04409081,-0.3288163,0.4273982,-2.090807,-0.2565451,0.0558209
381.3039,0.042909,-0.3287993,0.4274309,-2.092961,-0.2589099,0.05433375
381.3185,0.042909,-0.3287993,0.4274309,-2.092961,-0.2589099,0.05433375
381.3355,0.04144595,-0.3287828,0.4278,-2.093972,-0.2610196,0.05287585
381.3487,0.03981212,-0.3287664,0.4282925,-2.094462,-0.2629991,0.05144655
381.3635,0.0380777,-0.3287501,0.4288229,-2.094723,-0.2649039,0.05004528
381.3817,0.03628726,-0.3287338,0.4293588,-2.094888,-0.2667577,0.04867147
381.3917,0.03628726,-0.3287338,0.4293588,-2.094888,-0.2667577,0.04867147
381.4058,0.03446907,-0.3287175,0.4298891,-2.09502,-0.2685705,0.04732459
381.4208,0.03264105,-0.3287012,0.4304107,-2.095144,-0.2703462,0.04600411
381.4358,0.03264105,-0.3287012,0.4304107,-2.095144,-0.2703462,0.04600411
381.4498,0.0308145,-0.3286849,0.4309234,-2.095273,-0.2720868,0.04470953
381.4651,0.02899652,-0.3286688,0.4314279,-2.095409,-0.273793,0.04344032
381.4795,0.02899652,-0.3286688,0.4314279,-2.095409,-0.273793,0.04344032
381.4938,0.02719155,-0.3286527,0.4319248,-2.095555,-0.2754657,0.04219601
381.5093,0.02540232,-0.3286368,0.4324147,-2.09571,-0.2771052,0.04097608
381.524,0.02363048,-0.328621,0.4328981,-2.095873,-0.2787122,0.03978008
381.5384,0.02363048,-0.328621,0.4328981,-2.095873,-0.2787122,0.03978008
381.5523,0.02187701,-0.3286053,0.4333751,-2.096045,-0.2802872,0.03860753
381.5677,0.02014244,-0.3285898,0.4338461,-2.096224,-0.2818308,0.03745797
381.5822,0.01842701,-0.3285745,0.4343111,-2.09641,-0.2833436,0.03633095
381.5971,0.01842701,-0.3285745,0.4343111,-2.09641,-0.2833436,0.03633095
381.6141,0.01673081,-0.3285593,0.4347703,-2.096603,-0.2848262,0.03522603
381.6271,0.01505382,-0.3285442,0.4352238,-2.096802,-0.2862791,0.03414278
381.6418,0.01339592,-0.3285294,0.4356717,-2.097007,-0.287703,0.03308077
381.6556,0.01339592,-0.3285294,0.4356717,-2.097007,-0.287703,0.03308077
381.6695,0.01175698,-0.3285146,0.4361139,-2.097218,-0.2890985,0.03203958
381.6847,0.01013684,-0.3285001,0.4365506,-2.097435,-0.2904661,0.03101881
381.6993,0.01013684,-0.3285001,0.4365506,-2.097435,-0.2904661,0.03101881
381.7134,0.008535299,-0.3284856,0.4369818,-2.097657,-0.2918063,0.03001806
381.7289,0.006952169,-0.3284714,0.4374075,-2.097884,-0.2931198,0.02903693
381.7436,0.005387252,-0.3284572,0.4378278,-2.098116,-0.294407,0.02807504
381.758,0.005387252,-0.3284572,0.4378278,-2.098116,-0.294407,0.02807504
381.772,0.003840344,-0.3284433,0.4382427,-2.098352,-0.2956686,0.02713202
