JMolnar6/NonAnthroHands_User_Study/HandsLoggerWithURDF/tempdata/files/Reachy_JointMotion_gesture_9_44.csv
Time,r_shoulder,r_shoulder_x,r_upper_arm,r_forearm,r_wrist,r_wrist2hand,
645.3486,-0.01408889,-4.678828E-09,NaN,-0.9024503,-1.328181E-07,NaN,-1.560197,-3.598942E-07,NaN,-2.098785,1.917524E-05,0.3750412,4.321031E-08,NaN,NaN,-0.09240433,-9.313283E-11,-3.397759E-08,-1.104718E-07,-8.946513E-09,-2.622604E-08
645.3671,-0.01408778,-4.678121E-09,NaN,-0.9025578,-1.328173E-07,NaN,-1.559707,-3.598288E-07,NaN,-2.099489,1.917567E-05,0.376406,4.314649E-08,NaN,NaN,-0.09227402,-9.313283E-11,-3.911849E-08,-1.104709E-07,-1.13307E-08,-2.622604E-08
645.3803,-0.01408657,-4.677413E-09,NaN,-0.9027073,-1.328166E-07,NaN,-1.559305,-3.597645E-07,NaN,-2.100478,1.91761E-05,0.3779923,4.308385E-08,NaN,NaN,-0.09214669,-9.313283E-11,-3.323253E-08,-1.104701E-07,-1.13307E-08,-2.622604E-08
645.3959,-0.01408657,-4.677413E-09,NaN,-0.9027073,-1.328166E-07,NaN,-1.559305,-3.597645E-07,NaN,-2.100478,1.91761E-05,0.3779923,4.308385E-08,NaN,NaN,-0.09214669,-9.313283E-11,-3.323253E-08,-1.104701E-07,-1.13307E-08,-2.622604E-08
645.4108,-0.0140853,-4.676706E-09,NaN,-0.9028821,-1.328159E-07,NaN,-1.559023,-3.597015E-07,NaN,-2.101595,1.917653E-05,0.3795446,4.302237E-08,NaN,NaN,-0.09202176,-9.778944E-11,-2.77936E-08,-1.104692E-07,-1.13307E-08,-2.622604E-08
645.4274,-0.01408398,-4.675998E-09,NaN,-0.9030717,-1.328151E-07,NaN,-1.55881,-3.596367E-07,NaN,-2.102765,1.917696E-05,0.3810426,4.295921E-08,NaN,NaN,-0.09189919,-9.778944E-11,-2.421733E-08,-1.104684E-07,-1.13307E-08,-2.622604E-08
645.4432,-0.01408273,-4.675291E-09,NaN,-0.9032003,-1.328144E-07,NaN,-1.559149,-3.595731E-07,NaN,-2.103359,1.917739E-05,0.3811404,4.289722E-08,NaN,NaN,-0.09190822,-9.778944E-11,-1.706477E-08,-1.104675E-07,-6.562327E-09,-2.622604E-08
645.4595,-0.01408273,-4.675291E-09,NaN,-0.9032003,-1.328144E-07,NaN,-1.559149,-3.595731E-07,NaN,-2.103359,1.917739E-05,0.3811404,4.289722E-08,NaN,NaN,-0.09190822,-9.778944E-11,-1.706477E-08,-1.104675E-07,-6.562327E-09,-2.622604E-08
645.474,-0.01408156,-4.674583E-09,NaN,-0.9032906,-1.328137E-07,NaN,-1.55942,-3.595107E-07,NaN,-2.103667,1.917782E-05,0.3809768,4.283639E-08,NaN,NaN,-0.0919166,-9.778944E-11,-2.168413E-08,-1.104666E-07,-1.13307E-08,-2.622604E-08
645.4907,-0.01408048,-4.673876E-09,NaN,-0.903357,-1.32813E-07,NaN,-1.559582,-3.594466E-07,NaN,-2.103836,1.917825E-05,0.3808149,4.277385E-08,NaN,NaN,-0.09192489,-1.024461E-10,-2.578195E-08,-1.104658E-07,-1.609907E-08,-2.622604E-08
645.5062,-0.01407944,-4.673169E-09,NaN,-0.9034082,-1.328122E-07,NaN,-1.559682,-3.593836E-07,NaN,-2.103938,1.917869E-05,0.3806788,4.271248E-08,NaN,NaN,-0.09193311,-1.071027E-10,-2.838965E-08,-1.104649E-07,-1.848325E-08,-2.622604E-08
645.5219,-0.01407856,-4.672461E-09,NaN,-0.9033824,-1.328115E-07,NaN,-1.560269,-3.593189E-07,NaN,-2.103412,1.917912E-05,0.3792053,4.264942E-08,NaN,NaN,-0.09207047,-1.117593E-10,-2.511139E-08,-1.104641E-07,-1.609907E-08,-2.622604E-08
645.5376,-0.01407856,-4.672461E-09,NaN,-0.9033824,-1.328115E-07,NaN,-1.560269,-3.593189E-07,NaN,-2.103412,1.917912E-05,0.3792053,4.264942E-08,NaN,NaN,-0.09207047,-1.117593E-10,-2.511139E-08,-1.104641E-07,-1.609907E-08,-2.622604E-08
645.5526,-0.0140778,-4.671754E-09,NaN,-0.9033093,-1.328108E-07,NaN,-1.560752,-3.592554E-07,NaN,-2.102584,1.917955E-05,0.3775151,4.258753E-08,NaN,NaN,-0.09220473,-1.117593E-10,-3.353055E-08,-1.104633E-07,-1.371488E-08,-2.622604E-08
645.5695,-0.01407711,-4.671046E-09,NaN,-0.9032072,-1.328101E-07,NaN,-1.561107,-3.591931E-07,NaN,-2.101616,1.917998E-05,0.375863,4.252679E-08,NaN,NaN,-0.09233646,-1.164159E-10,-4.053409E-08,-1.104624E-07,-1.13307E-08,-2.622604E-08
645.5846,-0.01407647,-4.670339E-09,NaN,-0.9030879,-1.328094E-07,NaN,-1.561386,-3.591291E-07,NaN,-2.10059,1.918041E-05,0.3742687,4.246436E-08,NaN,NaN,-0.09246571,-1.164159E-10,-4.567499E-08,-1.104616E-07,-1.371488E-08,-2.622604E-08
645.6005,-0.01407598,-4.669631E-09,NaN,-0.902889,-1.328087E-07,NaN,-1.562141,-3.590662E-07,NaN,-2.09895,1.918084E-05,0.3713627,4.240307E-08,NaN,NaN,-0.09272175,-1.164159E-10,-4.411037E-08,-1.104607E-07,-8.946512E-09,-2.622604E-08
645.6163,-0.01407598,-4.669631E-09,NaN,-0.902889,-1.328087E-07,NaN,-1.562141,-3.590662E-07,NaN,-2.09895,1.918084E-05,0.3713627,4.240307E-08,NaN,NaN,-0.09272175,-1.164159E-10,-4.411037E-08,-1.104607E-07,-8.946512E-09,-2.622604E-08
645.6313,-0.01407561,-4.668924E-09,NaN,-0.9026419,-1.32808E-07,NaN,-1.562781,-3.590045E-07,NaN,-2.097023,1.918127E-05,0.3682722,4.234293E-08,NaN,NaN,-0.09297238,-1.210725E-10,-5.416866E-08,-1.104599E-07,-8.946512E-09,-2.622604E-08
645.6475,-0.01407532,-4.668216E-09,NaN,-0.9023662,-1.328072E-07,NaN,-1.563283,-3.58941E-07,NaN,-2.094971,1.918171E-05,0.3652489,4.228107E-08,NaN,NaN,-0.09321821,-1.257291E-10,-6.288583E-08,-1.104591E-07,-8.946512E-09,-2.622604E-08
645.6632,-0.01407508,-4.667509E-09,NaN,-0.902074,-1.328065E-07,NaN,-1.563702,-3.588787E-07,NaN,-2.092876,1.918214E-05,0.3623103,4.222036E-08,NaN,NaN,-0.09345933,-1.257291E-10,-7.003839E-08,-1.104583E-07,-6.562326E-09,-2.622604E-08
645.679,-0.01407508,-4.667509E-09,NaN,-0.902074,-1.328065E-07,NaN,-1.563702,-3.588787E-07,NaN,-2.092876,1.918214E-05,0.3623103,4.222036E-08,NaN,NaN,-0.09345933,-1.257291E-10,-7.003839E-08,-1.104583E-07,-6.562326E-09,-2.622604E-08
645.694,-0.01407499,-4.666801E-09,NaN,-0.9017038,-1.328059E-07,NaN,-1.564584,-3.588175E-07,NaN,-2.090185,1.918257E-05,0.3580766,4.216078E-08,NaN,NaN,-0.09382505,-1.257291E-10,-7.01874E-08,-1.104574E-07,-6.562326E-09,-2.622604E-08
645.7102,-0.01407503,-4.666093E-09,NaN,-0.901287,-1.328052E-07,NaN,-1.565338,-3.587546E-07,NaN,-2.087221,1.918299E-05,0.353692,4.209949E-08,NaN,NaN,-0.09418325,-1.257291E-10,-8.233185E-08,-1.104566E-07,-1.13307E-08,-2.622604E-08
645.7262,-0.01407515,-4.665385E-09,NaN,-0.9008433,-1.328049E-07,NaN,-1.565947,-3.589026E-07,NaN,-2.084149,1.918343E-05,0.3494025,4.2249E-08,NaN,NaN,-0.09453455,-1.164159E-10,-9.224112E-08,-1.104583E-07,-6.562327E-09,-2.622604E-08
645.7418,-0.01407532,-4.664678E-09,NaN,-0.900385,-1.328054E-07,NaN,-1.566467,-3.587803E-07,NaN,-2.081049,1.918388E-05,0.3452224,4.212837E-08,NaN,NaN,-0.09487907,-1.117593E-10,-1.001387E-07,-1.104607E-07,-8.946513E-09,-2.622604E-08
645.7578,-0.01407532,-4.664678E-09,NaN,-0.900385,-1.328054E-07,NaN,-1.566467,-3.587803E-07,NaN,-2.081049,1.918388E-05,0.3452224,4.212837E-08,NaN,NaN,-0.09487907,-1.117593E-10,-1.001387E-07,-1.104607E-07,-8.946513E-09,-2.622604E-08
645.7725,-0.01407565,-4.66397E-09,NaN,-0.8998504,-1.328064E-07,NaN,-1.567435,-3.58517E-07,NaN,-2.077369,1.918432E-05,0.3397568,4.186661E-08,NaN,NaN,-0.09534617,-9.778944E-11,-1.020759E-07,-1.104633E-07,-6.562327E-09,-2.622604E-08
645.7887,-0.01407611,-4.663262E-09,NaN,-0.8992712,-1.328077E-07,NaN,-1.568262,-3.581772E-07,NaN,-2.073432,1.918476E-05,0.3341756,4.152837E-08,NaN,NaN,-0.0958038,-8.38196E-11,-1.144438E-07,-1.104662E-07,-6.562327E-09,-2.622604E-08
645.8046,-0.01407664,-4.662553E-09,NaN,-0.898667,-1.328092E-07,NaN,-1.568938,-3.577962E-07,NaN,-2.069402,1.918522E-05,0.3287165,4.114887E-08,NaN,NaN,-0.09625259,-6.984976E-11,-1.243531E-07,-1.104692E-07,-4.178141E-09,-2.622604E-08
645.82,-0.01407723,-4.661845E-09,NaN,-0.8980501,-1.328108E-07,NaN,-1.569521,-3.573972E-07,NaN,-2.065358,1.918567E-05,0.3233894,4.075143E-08,NaN,NaN,-0.0966927,-6.053653E-11,-1.326233E-07,-1.104722E-07,-6.562327E-09,-2.622604E-08
645.8361,-0.01407723,-4.661845E-09,NaN,-0.8980501,-1.328108E-07,NaN,-1.569521,-3.573972E-07,NaN,-2.065358,1.918567E-05,0.3233894,4.075143E-08,NaN,NaN,-0.0966927,-6.053653E-11,-1.326233E-07,-1.104722E-07,-6.562327E-09,-2.622604E-08
645.8522,-0.01407798,-4.661137E-09,NaN,-0.8973588,-1.328124E-07,NaN,-1.570534,-3.569918E-07,NaN,-2.06075,1.918613E-05,0.31678,4.034765E-08,NaN,NaN,-0.09725351,-5.587992E-11,-1.35082E-07,-1.104753E-07,-4.178141E-09,-2.622604E-08
645.8672,-0.01407885,-4.660428E-09,NaN,-0.8966247,-1.328141E-07,NaN,-1.571307,-3.565887E-07,NaN,-2.055893,1.918659E-05,0.3100037,3.994609E-08,NaN,NaN,-0.09780289,-5.122331E-11,-1.524418E-07,-1.104783E-07,2.974416E-09,-2.622604E-08
645.8827,-0.01407981,-4.659719E-09,NaN,-0.8958675,-1.328157E-07,NaN,-1.571658,-3.561906E-07,NaN,-2.050942,1.918705E-05,0.303182,3.954951E-08,NaN,NaN,-0.09834126,-4.191009E-11,-1.797109E-07,-1.104814E-07,1.012697E-08,-2.622604E-08
645.8986,-0.01407981,-4.659719E-09,NaN,-0.8958675,-1.328157E-07,NaN,-1.571658,-3.561906E-07,NaN,-2.050942,1.918705E-05,0.303182,3.954951E-08,NaN,NaN,-0.09834126,-4.191009E-11,-1.797109E-07,-1.104814E-07,1.012697E-08,-2.622604E-08
645.9133,-0.01408094,-4.65901E-09,NaN,-0.8950301,-1.328174E-07,NaN,-1.572102,-3.558002E-07,NaN,-2.045396,1.918751E-05,0.2950637,3.916063E-08,NaN,NaN,-0.09899839,-3.725347E-11,-2.019882E-07,-1.104845E-07,1.251116E-08,-2.622604E-08
645.9298,-0.01408222,-4.658301E-09,NaN,-0.894147,-1.328191E-07,NaN,-1.572081,-3.554202E-07,NaN,-2.0396,1.918797E-05,0.2868643,3.878212E-08,NaN,NaN,-0.09964237,-3.259686E-11,-2.357393E-07,-1.104875E-07,1.727953E-08,-2.622604E-08
645.9457,-0.01408358,-4.657591E-09,NaN,-0.8932396,-1.328208E-07,NaN,-1.571738,-3.550503E-07,NaN,-2.033736,1.918843E-05,0.2789234,3.841376E-08,NaN,NaN,-0.100274,-2.794025E-11,-2.634555E-07,-1.104906E-07,1.727953E-08,-2.622604E-08
645.9614,-0.01408505,-4.656882E-09,NaN,-0.8923212,-1.328225E-07,NaN,-1.571329,-3.546904E-07,NaN,-2.027894,1.918889E-05,0.2713008,3.805536E-08,NaN,NaN,-0.1008937,-2.328364E-11,-2.796232E-07,-1.104936E-07,1.727953E-08,-2.622604E-08
645.9775,-0.01408505,-4.656882E-09,NaN,-0.8923212,-1.328225E-07,NaN,-1.571329,-3.546904E-07,NaN,-2.027894,1.918889E-05,0.2713008,3.805536E-08,NaN,NaN,-0.1008937,-2.328364E-11,-2.796232E-07,-1.104936E-07,1.727953E-08,-2.622604E-08
645.9926,-0.01408685,-4.656172E-09,NaN,-0.891331,-1.328242E-07,NaN,-1.571481,-3.543402E-07,NaN,-2.021527,1.918935E-05,0.2625124,3.770673E-08,NaN,NaN,-0.1016307,-1.862703E-11,-2.830505E-07,-1.104967E-07,1.966371E-08,-2.622604E-08
646.0088,-0.01408901,-4.655462E-09,NaN,-0.8903008,-1.328258E-07,NaN,-1.571534,-3.539997E-07,NaN,-2.014947,1.918981E-05,0.2536528,3.736766E-08,NaN,NaN,-0.102353,-1.397041E-11,-3.004103E-07,-1.104997E-07,1.489534E-08,-2.622604E-08
646.0247,-0.01409147,-4.654752E-09,NaN,-0.8892506,-1.328275E-07,NaN,-1.571444,-3.536685E-07,NaN,-2.008313,1.919027E-05,0.2449633,3.703796E-08,NaN,NaN,-0.1030613,-9.313801E-12,-3.168761E-07,-1.105027E-07,1.012697E-08,-2.622604E-08
646.0405,-0.0140942,-4.654041E-09,NaN,-0.8881927,-1.328292E-07,NaN,-1.571287,-3.533465E-07,NaN,-2.001705,1.919073E-05,0.2364934,3.671747E-08,NaN,NaN,-0.1037558,-4.657189E-12,-3.308087E-07,-1.105057E-07,1.012697E-08,-2.622604E-08
646.0563,-0.0140942,-4.654041E-09,NaN,-0.8881927,-1.328292E-07,NaN,-1.571287,-3.533465E-07,NaN,-2.001705,1.919073E-05,0.2364934,3.671747E-08,NaN,NaN,-0.1037558,-4.657189E-12,-3.308087E-07,-1.105057E-07,1.012697E-08,-2.622604E-08
646.0715,-0.0140973,-4.653331E-09,NaN,-0.8870655,-1.328308E-07,NaN,-1.571568,-3.530363E-07,NaN,-1.994578,1.919119E-05,0.2267746,3.640882E-08,NaN,NaN,-0.1045661,-5.759282E-16,-3.347575E-07,-1.105087E-07,5.3586E-09,-2.622604E-08
646.088,-0.01410078,-4.65262E-09,NaN,-0.8859006,-1.328325E-07,NaN,-1.571629,-3.527349E-07,NaN,-1.987248,1.919165E-05,0.2170144,3.610895E-08,NaN,NaN,-0.1053603,4.656037E-12,-3.532349E-07,-1.105117E-07,2.974414E-09,-2.622604E-08
646.1039,-0.01410458,-4.651909E-09,NaN,-0.8847177,-1.328341E-07,NaN,-1.571487,-3.524422E-07,NaN,-1.979874,1.919211E-05,0.2074692,3.58177E-08,NaN,NaN,-0.1061391,9.31265E-12,-3.694026E-07,-1.105147E-07,5.902283E-10,-2.622604E-08
646.1194,-0.01410458,-4.651909E-09,NaN,-0.8847177,-1.328341E-07,NaN,-1.571487,-3.524422E-07,NaN,-1.979874,1.919211E-05,0.2074692,3.58177E-08,NaN,NaN,-0.1061391,9.31265E-12,-3.694026E-07,-1.105147E-07,5.902283E-10,-2.622604E-08
646.1346,-0.01410863,-4.651198E-09,NaN,-0.8835289,-1.328358E-07,NaN,-1.571271,-3.521607E-07,NaN,-1.972541,1.919257E-05,0.1981882,3.553771E-08,NaN,NaN,-0.1069028,1.396926E-11,-3.80653E-07,-1.105176E-07,5.902283E-10,-2.622604E-08
646.1508,-0.01411305,-4.650487E-09,NaN,-0.8822725,-1.328374E-07,NaN,-1.571485,-3.518874E-07,NaN,-1.964702,1.919303E-05,0.1876651,3.526594E-08,NaN,NaN,-0.1077809,1.862588E-11,-3.834842E-07,-1.105206E-07,2.974414E-09,-2.622604E-08
646.1666,-0.01411786,-4.649775E-09,NaN,-0.8809801,-1.328391E-07,NaN,-1.571506,-3.516222E-07,NaN,-1.956673,1.919349E-05,0.1771599,3.500223E-08,NaN,NaN,-0.1086417,2.79391E-11,-3.961502E-07,-1.105235E-07,5.902283E-10,-2.622604E-08
646.1823,-0.01412297,-4.649063E-09,NaN,-0.8796712,-1.328407E-07,NaN,-1.571361,-3.513649E-07,NaN,-1.948613,1.919395E-05,0.1668926,3.474643E-08,NaN,NaN,-0.1094857,3.725233E-11,-4.074751E-07,-1.105265E-07,-1.793957E-09,-2.622604E-08
646.1982,-0.01412297,-4.649063E-09,NaN,-0.8796712,-1.328407E-07,NaN,-1.571361,-3.513649E-07,NaN,-1.948613,1.919395E-05,0.1668926,3.474643E-08,NaN,NaN,-0.1094857,3.725233E-11,-4.074751E-07,-1.105265E-07,-1.793957E-09,-2.622604E-08
646.2133,-0.01412833,-4.648351E-09,NaN,-0.8783579,-1.328423E-07,NaN,-1.571167,-3.511181E-07,NaN,-1.940601,1.91944E-05,0.1568951,3.450119E-08,NaN,NaN,-0.1103133,4.656555E-11,-4.132866E-07,-1.105294E-07,5.3586E-09,-2.622604E-08
646.2299,-0.01413406,-4.64764E-09,NaN,-0.8769786,-1.32844E-07,NaN,-1.571376,-3.508789E-07,NaN,-1.932094,1.919486E-05,0.1456324,3.42635E-08,NaN,NaN,-0.1112541,5.587877E-11,-4.106043E-07,-1.105323E-07,5.3586E-09,-2.622604E-08
646.2454,-0.01414015,-4.646927E-09,NaN,-0.8755646,-1.328456E-07,NaN,-1.571386,-3.506471E-07,NaN,-1.923407,1.919531E-05,0.1344347,3.403321E-08,NaN,NaN,-0.1121764,6.5192E-11,-4.221527E-07,-1.105352E-07,7.742786E-09,-2.622604E-08
646.2612,-0.01414655,-4.646215E-09,NaN,-0.8741357,-1.328472E-07,NaN,-1.571243,-3.504226E-07,NaN,-1.914699,1.919577E-05,0.1234942,3.381016E-08,NaN,NaN,-0.1130807,7.450522E-11,-4.282622E-07,-1.105381E-07,1.012697E-08,-2.622604E-08
646.2772,-0.01414655,-4.646215E-09,NaN,-0.8741357,-1.328472E-07,NaN,-1.571243,-3.504226E-07,NaN,-1.914699,1.919577E-05,0.1234942,3.381016E-08,NaN,NaN,-0.1130807,7.450522E-11,-4.282622E-07,-1.105381E-07,1.012697E-08,-2.622604E-08
646.2923,-0.01415318,-4.645503E-09,NaN,-0.8727039,-1.328488E-07,NaN,-1.57106,-3.50208E-07,NaN,-1.906047,1.919623E-05,0.112833,3.359704E-08,NaN,NaN,-0.1139674,8.381845E-11,-4.281132E-07,-1.10541E-07,1.012697E-08,-2.622604E-08
646.3088,-0.01416018,-4.64479E-09,NaN,-0.8712074,-1.328504E-07,NaN,-1.571244,-3.500002E-07,NaN,-1.89691,1.919668E-05,0.100893,3.339083E-08,NaN,NaN,-0.114966,9.313167E-11,-4.205881E-07,-1.105439E-07,1.012697E-08,-2.622604E-08
646.3246,-0.01416754,-4.644077E-09,NaN,-0.8696777,-1.32852E-07,NaN,-1.571235,-3.497993E-07,NaN,-1.887604,1.919714E-05,0.08907013,3.319139E-08,NaN,NaN,-0.1159451,1.024449E-10,-4.248722E-07,-1.105467E-07,2.974414E-09,-2.622604E-08
646.3404,-0.01417519,-4.643364E-09,NaN,-0.8681343,-1.328536E-07,NaN,-1.571094,-3.49605E-07,NaN,-1.878284,1.919761E-05,0.07752132,3.29986E-08,NaN,NaN,-0.1169051,1.024449E-10,-4.268094E-07,-1.105496E-07,-1.793957E-09,-2.622604E-08
646.3574,-0.01417519,-4.643364E-09,NaN,-0.8681343,-1.328536E-07,NaN,-1.571094,-3.49605E-07,NaN,-1.878284,1.919761E-05,0.07752132,3.29986E-08,NaN,NaN,-0.1169051,1.024449E-10,-4.268094E-07,-1.105496E-07,-1.793957E-09,-2.622604E-08
646.3712,-0.01418307,-4.642651E-09,NaN,-0.8665895,-1.328552E-07,NaN,-1.570926,-3.494172E-07,NaN,-1.869028,1.919806E-05,0.06625802,3.281232E-08,NaN,NaN,-0.1178462,1.117581E-10,-4.225066E-07,-1.105524E-07,5.3586E-09,-2.622604E-08
646.3876,-0.01418876,-4.641938E-09,NaN,-0.8658822,-1.328568E-07,NaN,-1.567326,-3.492387E-07,NaN,-1.866782,1.919852E-05,0.07392068,3.263526E-08,NaN,NaN,-0.1172172,1.210713E-10,-4.604301E-07,-1.105552E-07,2.974414E-09,-2.622604E-08
646.4033,-0.01419172,-4.641225E-09,NaN,-0.865695,-1.328584E-07,NaN,-1.565385,-3.490663E-07,NaN,-1.86793,1.919898E-05,0.08206136,3.24644E-08,NaN,NaN,-0.1166004,1.303846E-10,-4.249654E-07,-1.105581E-07,5.902283E-10,-2.622604E-08
646.4192,-0.01419172,-4.641225E-09,NaN,-0.865695,-1.328584E-07,NaN,-1.565385,-3.490663E-07,NaN,-1.86793,1.919898E-05,0.08206136,3.24644E-08,NaN,NaN,-0.1166004,1.303846E-10,-4.249654E-07,-1.105581E-07,5.902283E-10,-2.622604E-08
646.4342,-0.01419237,-4.640511E-09,NaN,-0.8658278,-1.3286E-07,NaN,-1.564297,-3.489E-07,NaN,-1.870758,1.919943E-05,0.08972393,3.229963E-08,NaN,NaN,-0.1159958,1.396978E-10,-4.070839E-07,-1.105609E-07,5.902283E-10,-2.622604E-08
646.4505,-0.01419207,-4.639797E-09,NaN,-0.8661575,-1.328615E-07,NaN,-1.563563,-3.487397E-07,NaN,-1.874408,1.919989E-05,0.09708699,3.214082E-08,NaN,NaN,-0.1154029,1.49011E-10,-3.961688E-07,-1.105637E-07,-1.793957E-09,-2.622604E-08
646.4666,-0.01419149,-4.639084E-09,NaN,-0.866538,-1.328631E-07,NaN,-1.563273,-3.485881E-07,NaN,-1.87787,1.920035E-05,0.1026872,3.199068E-08,NaN,NaN,-0.1149511,1.536676E-10,-3.846577E-07,-1.105665E-07,-1.793957E-09,-2.622604E-08
646.4822,-0.0141908,-4.63837E-09,NaN,-0.8669481,-1.328647E-07,NaN,-1.562944,-3.484421E-07,NaN,-1.881228,1.920081E-05,0.1081067,3.184621E-08,NaN,NaN,-0.1145081,1.583243E-10,-3.786227E-07,-1.105693E-07,-8.946515E-09,-2.622604E-08
646.498,-0.0141908,-4.63837E-09,NaN,-0.8669481,-1.328647E-07,NaN,-1.562944,-3.484421E-07,NaN,-1.881228,1.920081E-05,0.1081067,3.184621E-08,NaN,NaN,-0.1145081,1.583243E-10,-3.786227E-07,-1.105693E-07,-8.946515E-09,-2.622604E-08
646.513,-0.01419005,-4.637656E-09,NaN,-0.8673747,-1.328662E-07,NaN,-1.562591,-3.483017E-07,NaN,-1.884516,1.920127E-05,0.1134297,3.170732E-08,NaN,NaN,-0.1140738,1.629809E-10,-3.716192E-07,-1.105721E-07,-6.562329E-09,-2.622604E-08
646.5295,-0.01418926,-4.636941E-09,NaN,-0.8678094,-1.328678E-07,NaN,-1.562232,-3.481668E-07,NaN,-1.887749,1.920173E-05,0.1186535,3.157388E-08,NaN,NaN,-0.113648,1.676375E-10,-3.648392E-07,-1.105748E-07,-1.793957E-09,-2.622604E-08
646.5456,-0.01418858,-4.636227E-09,NaN,-0.868178,-1.328693E-07,NaN,-1.562188,-3.480372E-07,NaN,-1.890354,1.920219E-05,0.1222244,3.144578E-08,NaN,NaN,-0.11336,1.722941E-10,-3.545946E-07,-1.105776E-07,2.974414E-09,-2.622604E-08
646.5613,-0.01418799,-4.635512E-09,NaN,-0.8685041,-1.328709E-07,NaN,-1.562042,-3.479128E-07,NaN,-1.892638,1.920265E-05,0.1256725,3.132294E-08,NaN,NaN,-0.1130776,1.769507E-10,-3.497517E-07,-1.105803E-07,7.742786E-09,-2.622604E-08
646.5771,-0.01418799,-4.635512E-09,NaN,-0.8685041,-1.328709E-07,NaN,-1.562042,-3.479128E-07,NaN,-1.892638,1.920265E-05,0.1256725,3.132294E-08,NaN,NaN,-0.1130776,1.769507E-10,-3.497517E-07,-1.105803E-07,7.742786E-09,-2.622604E-08
646.5922,-0.01418746,-4.634797E-09,NaN,-0.8688025,-1.328724E-07,NaN,-1.561843,-3.477964E-07,NaN,-1.894748,1.920311E-05,0.1290748,3.120806E-08,NaN,NaN,-0.1128007,1.816073E-10,-3.43903E-07,-1.105831E-07,1.251116E-08,-2.622604E-08
646.6085,-0.01418696,-4.634082E-09,NaN,-0.8690825,-1.328739E-07,NaN,-1.561626,-3.47685E-07,NaN,-1.896756,1.920357E-05,0.1324211,3.109816E-08,NaN,NaN,-0.1125292,1.862639E-10,-3.377936E-07,-1.105858E-07,1.012697E-08,-2.622604E-08
646.6245,-0.01418661,-4.633367E-09,NaN,-0.8692804,-1.328755E-07,NaN,-1.561727,-3.475785E-07,NaN,-1.89812,1.920403E-05,0.1341575,3.099315E-08,NaN,NaN,-0.1123925,1.909205E-10,-3.290764E-07,-1.105885E-07,7.742786E-09,-2.622604E-08
646.64,-0.01418639,-4.632652E-09,NaN,-0.8694269,-1.32877E-07,NaN,-1.561717,-3.474768E-07,NaN,-1.899161,1.920449E-05,0.1358029,3.089294E-08,NaN,NaN,-0.1122584,1.955771E-10,-3.256119E-07,-1.105912E-07,1.012697E-08,-2.622604E-08
646.6559,-0.01418639,-4.632652E-09,NaN,-0.8694269,-1.32877E-07,NaN,-1.561717,-3.474768E-07,NaN,-1.899161,1.920449E-05,0.1358029,3.089294E-08,NaN,NaN,-0.1122584,1.955771E-10,-3.256119E-07,-1.105912E-07,1.012697E-08,-2.622604E-08
646.6708,-0.01418623,-4.631936E-09,NaN,-0.869541,-1.328785E-07,NaN,-1.561648,-3.473798E-07,NaN,-1.900036,1.920495E-05,0.1374398,3.079742E-08,NaN,NaN,-0.112127,2.002337E-10,-3.215141E-07,-1.105939E-07,1.012697E-08,-2.622604E-08
646.6875,-0.01418612,-4.63122E-09,NaN,-0.8696345,-1.3288E-07,NaN,-1.561555,-3.472874E-07,NaN,-1.900821,1.920541E-05,0.1390566,3.070652E-08,NaN,NaN,-0.1119981,2.048903E-10,-3.166712E-07,-1.105966E-07,1.489534E-08,-2.622604E-08
646.7032,-0.01418617,-4.630504E-09,NaN,-0.8696457,-1.328816E-07,NaN,-1.561782,-3.472024E-07,NaN,-1.900976,1.920587E-05,0.1391,3.062295E-08,NaN,NaN,-0.1120011,2.095469E-10,-3.090716E-07,-1.105993E-07,1.251116E-08,-2.622604E-08
646.7188,-0.01418617,-4.630504E-09,NaN,-0.8696457,-1.328816E-07,NaN,-1.561782,-3.472024E-07,NaN,-1.900976,1.920587E-05,0.1391,3.062295E-08,NaN,NaN,-0.1120011,2.095469E-10,-3.090716E-07,-1.105993E-07,1.251116E-08,-2.622604E-08
646.7336,-0.01418635,-4.629789E-09,NaN,-0.8696077,-1.328831E-07,NaN,-1.561892,-3.471217E-07,NaN,-1.900823,1.920633E-05,0.1390844,3.054375E-08,NaN,NaN,-0.1120041,2.142036E-10,-3.07507E-07,-1.10602E-07,1.012697E-08,-2.622604E-08
646.7497,-0.01418661,-4.629072E-09,NaN,-0.8695396,-1.328846E-07,NaN,-1.561936,-3.470453E-07,NaN,-1.900519,1.920679E-05,0.139094,3.046884E-08,NaN,NaN,-0.112007,2.188602E-10,-3.045267E-07,-1.106047E-07,1.012697E-08,-2.622604E-08
646.7657,-0.01418691,-4.628356E-09,NaN,-0.8694531,-1.328861E-07,NaN,-1.561952,-3.469731E-07,NaN,-1.900141,1.920725E-05,0.1391164,3.039813E-08,NaN,NaN,-0.1120098,2.235168E-10,-3.005034E-07,-1.106073E-07,5.3586E-09,-2.622604E-08
646.7813,-0.01418738,-4.62764E-09,NaN,-0.8692865,-1.328876E-07,NaN,-1.562282,-3.46905E-07,NaN,-1.899151,1.920771E-05,0.1375968,3.033154E-08,NaN,NaN,-0.112142,2.281734E-10,-2.940959E-07,-1.1061E-07,5.3586E-09,-2.622604E-08
646.797,-0.01418738,-4.62764E-09,NaN,-0.8692865,-1.328876E-07,NaN,-1.562282,-3.46905E-07,NaN,-1.899151,1.920771E-05,0.1375968,3.033154E-08,NaN,NaN,-0.112142,2.281734E-10,-2.940959E-07,-1.1061E-07,5.3586E-09,-2.622604E-08
646.8123,-0.01418797,-4.626923E-09,NaN,-0.869071,-1.328891E-07,NaN,-1.56249,-3.468409E-07,NaN,-1.89787,1.920817E-05,0.1360508,3.026899E-08,NaN,NaN,-0.1122715,2.3283E-10,-2.931273E-07,-1.106126E-07,5.3586E-09,-2.622604E-08
646.8289,-0.01418864,-4.626206E-09,NaN,-0.8688264,-1.328905E-07,NaN,-1.562626,-3.467808E-07,NaN,-1.896454,1.920863E-05,0.134561,3.02104E-08,NaN,NaN,-0.1123986,2.374866E-10,-2.908176E-07,-1.106152E-07,5.3586E-09,-2.622604E-08
646.8444,-0.01418936,-4.625489E-09,NaN,-0.868565,-1.32892E-07,NaN,-1.56273,-3.467275E-07,NaN,-1.894982,1.920909E-05,0.1331138,3.015851E-08,NaN,NaN,-0.1125231,2.421432E-10,-2.878374E-07,-1.106179E-07,5.902283E-10,-2.622604E-08
646.8616,-0.01419024,-4.624772E-09,NaN,-0.8682249,-1.328935E-07,NaN,-1.563139,-3.466779E-07,NaN,-1.892913,1.920955E-05,0.1301514,3.011041E-08,NaN,NaN,-0.1127746,2.467998E-10,-2.829945E-07,-1.106205E-07,2.974414E-09,-2.622604E-08
646.876,-0.01419024,-4.624772E-09,NaN,-0.8682249,-1.328935E-07,NaN,-1.563139,-3.466779E-07,NaN,-1.892913,1.920955E-05,0.1301514,3.011041E-08,NaN,NaN,-0.1127746,2.467998E-10,-2.829945E-07,-1.106205E-07,2.974414E-09,-2.622604E-08
646.8911,-0.01419125,-4.624055E-09,NaN,-0.8678379,-1.32895E-07,NaN,-1.56342,-3.466319E-07,NaN,-1.890569,1.921001E-05,0.1271959,3.006597E-08,NaN,NaN,-0.1130211,2.514564E-10,-2.822867E-07,-1.106231E-07,5.3586E-09,-2.622604E-08
646.9075,-0.01419233,-4.623337E-09,NaN,-0.8674236,-1.328964E-07,NaN,-1.563626,-3.465896E-07,NaN,-1.888106,1.921047E-05,0.1243248,3.002514E-08,NaN,NaN,-0.1132628,2.56113E-10,-2.798652E-07,-1.106257E-07,7.742786E-09,-2.622604E-08
646.9235,-0.01419347,-4.62262E-09,NaN,-0.8669943,-1.328979E-07,NaN,-1.563796,-3.465508E-07,NaN,-1.885602,1.921093E-05,0.1215237,2.998784E-08,NaN,NaN,-0.1134998,2.607697E-10,-2.775183E-07,-1.106282E-07,7.742786E-09,-2.622604E-08
646.9393,-0.01419347,-4.62262E-09,NaN,-0.8669943,-1.328979E-07,NaN,-1.563796,-3.465508E-07,NaN,-1.885602,1.921093E-05,0.1215237,2.998784E-08,NaN,NaN,-0.1134998,2.607697E-10,-2.775183E-07,-1.106282E-07,7.742786E-09,-2.622604E-08
646.954,-0.01419477,-4.621902E-09,NaN,-0.8664884,-1.328994E-07,NaN,-1.564256,-3.465155E-07,NaN,-1.882517,1.921139E-05,0.1172299,2.995401E-08,NaN,NaN,-0.1138615,2.654263E-10,-2.721911E-07,-1.106308E-07,1.489534E-08,-2.622604E-08
646.9705,-0.01419636,-4.621184E-09,NaN,-0.8659374,-1.329009E-07,NaN,-1.564585,-3.455134E-07,NaN,-1.879172,1.921186E-05,0.1129771,2.895343E-08,NaN,NaN,-0.1142162,2.700829E-10,-2.717069E-07,-1.106334E-07,1.251116E-08,-2.622604E-08
646.9862,-0.01419821,-4.620466E-09,NaN,-0.8653611,-1.329023E-07,NaN,-1.564836,-3.445281E-07,NaN,-1.875723,1.921232E-05,0.1088343,2.796958E-08,NaN,NaN,-0.1145638,2.747395E-10,-2.697697E-07,-1.10636E-07,7.742787E-09,-2.622604E-08
647.0021,-0.01420029,-4.619748E-09,NaN,-0.8647717,-1.329038E-07,NaN,-1.565048,-3.435648E-07,NaN,-1.872247,1.921278E-05,0.1047864,2.700777E-08,NaN,NaN,-0.1149047,2.793961E-10,-2.667895E-07,-1.106386E-07,7.742787E-09,-2.622604E-08
647.0177,-0.01420029,-4.619748E-09,NaN,-0.8647717,-1.329038E-07,NaN,-1.565048,-3.435648E-07,NaN,-1.872247,1.921278E-05,0.1047864,2.700777E-08,NaN,NaN,-0.1149047,2.793961E-10,-2.667895E-07,-1.106386E-07,7.742787E-09,-2.622604E-08
647.033,-0.01420274,-4.61903E-09,NaN,-0.8641076,-1.329053E-07,NaN,-1.565532,-3.426202E-07,NaN,-1.868205,1.921325E-05,0.09926533,2.606473E-08,NaN,NaN,-0.1153683,2.747395E-10,-2.622819E-07,-1.106412E-07,5.358601E-09,-2.622604E-08
647.0492,-0.01420558,-4.618311E-09,NaN,-0.8634003,-1.329068E-07,NaN,-1.565882,-3.416969E-07,NaN,-1.863917,1.921371E-05,0.09381937,2.514292E-08,NaN,NaN,-0.1158228,2.793961E-10,-2.617231E-07,-1.106438E-07,5.358601E-09,-2.622604E-08
647.0647,-0.01420872,-4.617593E-09,NaN,-0.8626696,-1.329083E-07,NaN,-1.566154,-3.407944E-07,NaN,-1.85954,1.921418E-05,0.08850639,2.424192E-08,NaN,NaN,-0.1162684,2.747395E-10,-2.596742E-07,-1.106464E-07,7.742787E-09,-2.622604E-08
647.0804,-0.0142121,-4.616874E-09,NaN,-0.8619277,-1.329098E-07,NaN,-1.566386,-3.399124E-07,NaN,-1.855149,1.921464E-05,0.08331104,2.336138E-08,NaN,NaN,-0.1167053,2.793961E-10,-2.561351E-07,-1.10649E-07,1.012697E-08,-2.622604E-08
647.0963,-0.0142121,-4.616874E-09,NaN,-0.8619277,-1.329098E-07,NaN,-1.566386,-3.399124E-07,NaN,-1.855149,1.921464E-05,0.08331104,2.336138E-08,NaN,NaN,-0.1167053,2.793961E-10,-2.561351E-07,-1.10649E-07,1.012697E-08,-2.622604E-08
647.1112,-0.01421587,-4.616155E-09,NaN,-0.8611128,-1.329112E-07,NaN,-1.566867,-3.390504E-07,NaN,-1.850207,1.92151E-05,0.07665998,2.250085E-08,NaN,NaN,-0.117263,2.840527E-10,-2.496159E-07,-1.106515E-07,1.012697E-08,-2.622604E-08
647.1276,-0.01422002,-4.615435E-09,NaN,-0.8602566,-1.329127E-07,NaN,-1.567214,-3.382079E-07,NaN,-1.845033,1.921556E-05,0.0701175,2.165991E-08,NaN,NaN,-0.1178098,2.887093E-10,-2.470827E-07,-1.106541E-07,1.489534E-08,-2.622604E-08
647.1436,-0.01422448,-4.614716E-09,NaN,-0.8593787,-1.329142E-07,NaN,-1.567485,-3.373847E-07,NaN,-1.839781,1.921602E-05,0.06372874,2.08382E-08,NaN,NaN,-0.1183458,2.933659E-10,-2.429662E-07,-1.106566E-07,1.489534E-08,-2.622604E-08
647.1593,-0.01422448,-4.614716E-09,NaN,-0.8593787,-1.329142E-07,NaN,-1.567485,-3.373847E-07,NaN,-1.839781,1.921602E-05,0.06372874,2.08382E-08,NaN,NaN,-0.1183458,2.933659E-10,-2.429662E-07,-1.106566E-07,1.489534E-08,-2.622604E-08
647.1743,-0.01422939,-4.613996E-09,NaN,-0.858422,-1.329156E-07,NaN,-1.567971,-3.365804E-07,NaN,-1.833954,1.921648E-05,0.05591063,2.003534E-08,NaN,NaN,-0.1190008,2.980225E-10,-2.357764E-07,-1.106591E-07,1.012697E-08,-2.622604E-08
647.1906,-0.01423473,-4.613277E-09,NaN,-0.8574209,-1.329171E-07,NaN,-1.568318,-3.357945E-07,NaN,-1.827889,1.921694E-05,0.0482358,1.925096E-08,NaN,NaN,-0.1196429,3.026791E-10,-2.307473E-07,-1.106617E-07,1.012697E-08,-2.622604E-08
647.2063,-0.0142404,-4.612557E-09,NaN,-0.856397,-1.329186E-07,NaN,-1.568586,-3.350267E-07,NaN,-1.82175,1.921741E-05,0.04073741,1.848468E-08,NaN,NaN,-0.1202725,2.980225E-10,-2.248101E-07,-1.106642E-07,1.251116E-08,-2.622604E-08
647.2227,-0.01424632,-4.611837E-09,NaN,-0.8553635,-1.3292E-07,NaN,-1.568809,-3.342795E-07,NaN,-1.815618,1.921787E-05,0.0333997,1.773899E-08,NaN,NaN,-0.1208897,3.026791E-10,-2.177786E-07,-1.106667E-07,1.251116E-08,-2.622604E-08
647.2376,-0.01424632,-4.611837E-09,NaN,-0.8553635,-1.3292E-07,NaN,-1.568809,-3.342795E-07,NaN,-1.815618,1.921787E-05,0.0333997,1.773899E-08,NaN,NaN,-0.1208897,3.026791E-10,-2.177786E-07,-1.106667E-07,1.251116E-08,-2.622604E-08
647.2527,-0.01425264,-4.611117E-09,NaN,-0.8542594,-1.329215E-07,NaN,-1.569232,-3.335525E-07,NaN,-1.80896,1.921833E-05,0.02464306,1.701349E-08,NaN,NaN,-0.1216243,3.073357E-10,-2.07236E-07,-1.106692E-07,1.251116E-08,-2.622604E-08
647.2695,-0.01425935,-4.610397E-09,NaN,-0.8531168,-1.329229E-07,NaN,-1.569527,-3.328425E-07,NaN,-1.802093,1.921879E-05,0.01605731,1.630494E-08,NaN,NaN,-0.1223444,3.119923E-10,-2.005492E-07,-1.106717E-07,1.489534E-08,-2.622604E-08
647.2849,-0.01426635,-4.609676E-09,NaN,-0.8519554,-1.329243E-07,NaN,-1.56975,-3.321491E-07,NaN,-1.795174,1.921925E-05,0.007663327,1.561303E-08,NaN,NaN,-0.1230504,3.16649E-10,-1.917202E-07,-1.106742E-07,1.966372E-08,-2.622604E-08
647.3007,-0.01427358,-4.608955E-09,NaN,-0.8507876,-1.329258E-07,NaN,-1.569931,-3.31472E-07,NaN,-1.788278,1.921971E-05,-0.000553119,1.493741E-08,NaN,NaN,-0.1237426,3.213056E-10,-1.819041E-07,-1.106767E-07,1.489534E-08,-2.622604E-08
647.3164,-0.01427358,-4.608955E-09,NaN,-0.8507876,-1.329258E-07,NaN,-1.569931,-3.31472E-07,NaN,-1.788278,1.921971E-05,-0.000553119,1.493741E-08,NaN,NaN,-0.1237426,3.213056E-10,-1.819041E-07,-1.106767E-07,1.489534E-08,-2.622604E-08
647.3317,-0.01428119,-4.608235E-09,NaN,-0.8495519,-1.329272E-07,NaN,-1.57028,-3.308109E-07,NaN,-1.780868,1.922018E-05,-0.01017073,1.427777E-08,NaN,NaN,-0.1245506,3.16649E-10,-1.691636E-07,-1.106791E-07,1.251116E-08,-2.622604E-08
647.3482,-0.01428916,-4.607514E-09,NaN,-0.8482797,-1.329286E-07,NaN,-1.57049,-3.301654E-07,NaN,-1.773264,1.922065E-05,-0.01960154,1.36338E-08,NaN,NaN,-0.1253428,3.119923E-10,-1.591053E-07,-1.106816E-07,1.012697E-08,-2.622604E-08
647.3651,-0.01429742,-4.606793E-09,NaN,-0.8469906,-1.3293E-07,NaN,-1.570552,-3.295353E-07,NaN,-1.765618,1.922112E-05,-0.02886707,1.300519E-08,NaN,NaN,-0.1261195,3.073357E-10,-1.513567E-07,-1.10684E-07,5.358602E-09,-2.622604E-08
647.3796,-0.01429742,-4.606793E-09,NaN,-0.8469906,-1.3293E-07,NaN,-1.570552,-3.295353E-07,NaN,-1.765618,1.922112E-05,-0.02886707,1.300519E-08,NaN,NaN,-0.1261195,3.073357E-10,-1.513567E-07,-1.10684E-07,5.358602E-09,-2.622604E-08
647.3947,-0.01430589,-4.606072E-09,NaN,-0.845697,-1.329315E-07,NaN,-1.570509,-3.289203E-07,NaN,-1.758007,1.922158E-05,-0.03793563,1.239164E-08,NaN,NaN,-0.126881,3.119923E-10,-1.442414E-07,-1.106865E-07,7.742788E-09,-2.622604E-08
647.4113,-0.01431409,-4.60535E-09,NaN,-0.8444068,-1.329329E-07,NaN,-1.570429,-3.2832E-07,NaN,-1.750468,1.922206E-05,-0.04679848,1.179285E-08,NaN,NaN,-0.1276267,3.073357E-10,-1.347047E-07,-1.106889E-07,5.358602E-09,-2.622604E-08
647.4271,-0.01432214,-4.604628E-09,NaN,-0.8431243,-1.329343E-07,NaN,-1.570357,-3.277342E-07,NaN,-1.743018,1.922252E-05,-0.05546345,1.120854E-08,NaN,NaN,-0.1283577,3.119923E-10,-1.231563E-07,-1.106913E-07,5.358602E-09,-2.622604E-08
647.4426,-0.0143301,-4.603907E-09,NaN,-0.8418524,-1.329357E-07,NaN,-1.570312,-3.271626E-07,NaN,-1.735666,1.922298E-05,-0.06394313,1.063842E-08,NaN,NaN,-0.1290744,3.16649E-10,-1.089257E-07,-1.106937E-07,7.742788E-09,-2.622604E-08
647.4589,-0.0143301,-4.603907E-09,NaN,-0.8418524,-1.329357E-07,NaN,-1.570312,-3.271626E-07,NaN,-1.735666,1.922298E-05,-0.06394313,1.063842E-08,NaN,NaN,-0.1290744,3.16649E-10,-1.089257E-07,-1.106937E-07,7.742788E-09,-2.622604E-08
647.4734,-0.01433801,-4.603185E-09,NaN,-0.8405928,-1.329371E-07,NaN,-1.570288,-3.266049E-07,NaN,-1.728415,1.922344E-05,-0.07224828,1.008221E-08,NaN,NaN,-0.129777,3.213056E-10,-9.588715E-08,-1.106962E-07,1.012697E-08,-2.622604E-08
647.4901,-0.01434569,-4.602462E-09,NaN,-0.8394156,-1.329385E-07,NaN,-1.570144,-3.260608E-07,NaN,-1.721838,1.92239E-05,-0.07882715,9.539647E-09,NaN,NaN,-0.1303365,3.259622E-10,-8.88836E-08,-1.106986E-07,1.012697E-08,-2.622604E-08
647.5057,-0.01435311,-4.60174E-09,NaN,-0.8382946,-1.329399E-07,NaN,-1.57009,-3.255302E-07,NaN,-1.715638,1.922436E-05,-0.08527326,9.010456E-09,NaN,NaN,-0.1308851,3.306188E-10,-7.912334E-08,-1.10701E-07,1.489534E-08,-2.622604E-08
647.5215,-0.01436031,-4.601019E-09,NaN,-0.8372132,-1.329404E-07,NaN,-1.570061,-3.244184E-07,NaN,-1.70967,1.922481E-05,-0.09159935,7.982264E-09,NaN,NaN,-0.1314229,3.352754E-10,-6.869253E-08,-1.107035E-07,1.489534E-08,-2.861022E-08
647.538,-0.01436031,-4.601019E-09,NaN,-0.8372132,-1.329404E-07,NaN,-1.570061,-3.244184E-07,NaN,-1.70967,1.922481E-05,-0.09159935,7.982264E-09,NaN,NaN,-0.1314229,3.352754E-10,-6.869253E-08,-1.107035E-07,1.489534E-08,-2.861022E-08
647.5523,-0.01436731,-4.600297E-09,NaN,-0.8361612,-1.329407E-07,NaN,-1.570038,-3.233067E-07,NaN,-1.70386,1.922526E-05,-0.09780195,7.015752E-09,NaN,NaN,-0.1319502,3.352754E-10,-5.923029E-08,-1.10706E-07,1.012697E-08,-2.622604E-08
647.5692,-0.01437398,-4.599575E-09,NaN,-0.8352013,-1.329408E-07,NaN,-1.569909,-3.221949E-07,NaN,-1.698744,1.922571E-05,-0.1023292,6.095911E-09,NaN,NaN,-0.1323378,3.352754E-10,-5.625006E-08,-1.107084E-07,5.358602E-09,-2.861022E-08
647.5846,-0.01438029,-4.598854E-09,NaN,-0.8343025,-1.329408E-07,NaN,-1.569829,-3.210832E-07,NaN,-1.694004,1.922615E-05,-0.106773,5.211711E-09,NaN,NaN,-0.1327179,3.39932E-10,-5.088564E-08,-1.107106E-07,7.742788E-09,-2.622604E-08
647.6006,-0.01438632,-4.598132E-09,NaN,-0.8334455,-1.329407E-07,NaN,-1.569769,-3.199714E-07,NaN,-1.689485,1.922661E-05,-0.1111331,4.35504E-09,NaN,NaN,-0.1330905,3.39932E-10,-4.425463E-08,-1.107128E-07,1.251116E-08,-2.861022E-08
647.6162,-0.01438632,-4.598132E-09,NaN,-0.8334455,-1.329407E-07,NaN,-1.569769,-3.199714E-07,NaN,-1.689485,1.922661E-05,-0.1111331,4.35504E-09,NaN,NaN,-0.1330905,3.39932E-10,-4.425463E-08,-1.107128E-07,1.251116E-08,-2.861022E-08
647.6314,-0.01439211,-4.59741E-09,NaN,-0.8326181,-1.329406E-07,NaN,-1.569715,-3.188597E-07,NaN,-1.685109,1.922705E-05,-0.1154082,3.519935E-09,NaN,NaN,-0.1334558,3.492452E-10,-3.859218E-08,-1.10715E-07,1.012697E-08,-2.622604E-08
647.6481,-0.01439753,-4.596689E-09,NaN,-0.8318819,-1.329404E-07,NaN,-1.569576,-3.177479E-07,NaN,-1.68141,1.92275E-05,-0.1180526,2.702004E-09,NaN,NaN,-0.1336846,3.539018E-10,-3.993329E-08,-1.107172E-07,1.489534E-08,-2.861022E-08
647.6637,-0.01440257,-4.595967E-09,NaN,-0.8312054,-1.329402E-07,NaN,-1.56948,-3.166362E-07,NaN,-1.678068,1.922795E-05,-0.1206495,1.898014E-09,NaN,NaN,-0.133909,3.539018E-10,-3.896471E-08,-1.107193E-07,1.489534E-08,-2.622604E-08
647.6795,-0.01440257,-4.595967E-09,NaN,-0.8312054,-1.329402E-07,NaN,-1.56948,-3.166362E-07,NaN,-1.678068,1.922795E-05,-0.1206495,1.898014E-09,NaN,NaN,-0.133909,3.539018E-10,-3.896471E-08,-1.107193E-07,1.489534E-08,-2.622604E-08
647.6945,-0.01440731,-4.595245E-09,NaN,-0.8305687,-1.329401E-07,NaN,-1.569401,-3.155245E-07,NaN,-1.674928,1.922841E-05,-0.1231981,1.105584E-09,NaN,NaN,-0.134129,3.585584E-10,-3.643151E-08,-1.107214E-07,1.966372E-08,-2.861022E-08
647.7107,-0.0144118,-4.594523E-09,NaN,-0.8299594,-1.329399E-07,NaN,-1.569329,-3.144127E-07,NaN,-1.671911,1.922886E-05,-0.1256973,3.229539E-10,NaN,NaN,-0.1343446,3.63215E-10,-3.449436E-08,-1.107235E-07,1.966372E-08,-2.622604E-08
647.7267,-0.01441591,-4.593801E-09,NaN,-0.829439,-1.329397E-07,NaN,-1.569188,-3.13301E-07,NaN,-1.669551,1.922931E-05,-0.1266057,-4.511758E-10,NaN,NaN,-0.1344268,3.678716E-10,-4.105087E-08,-1.107256E-07,1.966372E-08,-2.861022E-08
647.7424,-0.01441965,-4.593079E-09,NaN,-0.8289759,-1.329395E-07,NaN,-1.569082,-3.121892E-07,NaN,-1.667529,1.922976E-05,-0.1274994,-1.217769E-09,NaN,NaN,-0.1345074,3.725283E-10,-4.432913E-08,-1.107278E-07,1.251116E-08,-2.622604E-08
647.7585,-0.01441965,-4.593079E-09,NaN,-0.8289759,-1.329395E-07,NaN,-1.569082,-3.121892E-07,NaN,-1.667529,1.922976E-05,-0.1274994,-1.217769E-09,NaN,NaN,-0.1345074,3.725283E-10,-4.432913E-08,-1.107278E-07,1.251116E-08,-2.622604E-08
647.7734,-0.01442308,-4.592357E-09,NaN,-0.8285502,-1.329394E-07,NaN,-1.568992,-3.110775E-07,NaN,-1.665689,1.923021E-05,-0.1283776,-1.97754E-09,NaN,NaN,-0.1345863,3.771849E-10,-4.656431E-08,-1.107299E-07,1.012697E-08,-2.861022E-08
647.7901,-0.01442626,-4.591635E-09,NaN,-0.8281495,-1.329392E-07,NaN,-1.568909,-3.099657E-07,NaN,-1.663953,1.923066E-05,-0.1292391,-2.731025E-09,NaN,NaN,-0.1346638,3.864981E-10,-4.790541E-08,-1.10732E-07,1.489534E-08,-2.622604E-08
647.8058,-0.01442906,-4.590911E-09,NaN,-0.8278353,-1.329399E-07,NaN,-1.568765,-3.095923E-07,NaN,-1.662856,1.923114E-05,-0.1285444,-2.817472E-09,NaN,NaN,-0.1346104,3.678716E-10,-5.848523E-08,-1.107339E-07,1.251116E-08,-2.622604E-08
647.8216,-0.0144315,-4.590187E-09,NaN,-0.8275759,-1.32941E-07,NaN,-1.568652,-3.092184E-07,NaN,-1.662078,1.923161E-05,-0.1278655,-2.96154E-09,NaN,NaN,-0.1345581,3.585584E-10,-6.57868E-08,-1.107359E-07,1.012697E-08,-2.622604E-08
647.8373,-0.0144315,-4.590187E-09,NaN,-0.8275759,-1.32941E-07,NaN,-1.568652,-3.092184E-07,NaN,-1.662078,1.923161E-05,-0.1278655,-2.96154E-09,NaN,NaN,-0.1345581,3.585584E-10,-6.57868E-08,-1.107359E-07,1.012697E-08,-2.622604E-08
647.8525,-0.01443362,-4.589463E-09,NaN,-0.8273514,-1.329421E-07,NaN,-1.568553,-3.088534E-07,NaN,-1.661464,1.923209E-05,-0.1272013,-3.142353E-09,NaN,NaN,-0.1345069,3.539018E-10,-7.100221E-08,-1.10738E-07,5.358602E-09,-2.622604E-08
647.8705,-0.0144355,-4.588738E-09,NaN,-0.8271496,-1.329434E-07,NaN,-1.568461,-3.08503E-07,NaN,-1.660937,1.923256E-05,-0.1265506,-3.345092E-09,NaN,NaN,-0.1344566,3.492452E-10,-7.554706E-08,-1.107402E-07,2.974416E-09,-2.622604E-08
647.8849,-0.01443701,-4.588014E-09,NaN,-0.8270319,-1.329447E-07,NaN,-1.56831,-3.081745E-07,NaN,-1.661031,1.923303E-05,-0.1243737,-3.555214E-09,NaN,NaN,-0.134278,3.445886E-10,-8.940513E-08,-1.107424E-07,5.902301E-10,-2.622604E-08
647.9006,-0.01443815,-4.587288E-09,NaN,-0.8269666,-1.32946E-07,NaN,-1.568187,-3.07865E-07,NaN,-1.661425,1.92335E-05,-0.122241,-3.769761E-09,NaN,NaN,-0.134103,3.492452E-10,-9.953792E-08,-1.107446E-07,-1.793956E-09,-2.622604E-08
647.9163,-0.01443815,-4.587288E-09,NaN,-0.8269666,-1.32946E-07,NaN,-1.568187,-3.07865E-07,NaN,-1.661425,1.92335E-05,-0.122241,-3.769761E-09,NaN,NaN,-0.134103,3.492452E-10,-9.953792E-08,-1.107446E-07,-1.793956E-09,-2.622604E-08
647.9312,-0.01443908,-4.586563E-09,NaN,-0.826934,-1.329474E-07,NaN,-1.568076,-3.075782E-07,NaN,-1.661967,1.923398E-05,-0.1201509,-3.980173E-09,NaN,NaN,-0.1339314,3.39932E-10,-1.075845E-07,-1.107468E-07,-1.793956E-09,-2.622604E-08
647.9477,-0.0144399,-4.585837E-09,NaN,-0.8269217,-1.329487E-07,NaN,-1.567971,-3.073077E-07,NaN,-1.662578,1.923445E-05,-0.118102,-4.189366E-09,NaN,NaN,-0.1337631,3.39932E-10,-1.148116E-07,-1.10749E-07,2.974416E-09,-2.622604E-08
647.9637,-0.01444054,-4.585112E-09,NaN,-0.8269897,-1.329501E-07,NaN,-1.567805,-3.070559E-07,NaN,-1.663794,1.923493E-05,-0.1145527,-4.391712E-09,NaN,NaN,-0.1334689,3.352754E-10,-1.307559E-07,-1.107512E-07,-1.793956E-09,-2.622604E-08
647.9792,-0.01444054,-4.585112E-09,NaN,-0.8269897,-1.329501E-07,NaN,-1.567805,-3.070559E-07,NaN,-1.663794,1.923493E-05,-0.1145527,-4.391712E-09,NaN,NaN,-0.1334689,3.352754E-10,-1.307559E-07,-1.107512E-07,-1.793956E-09,-2.622604E-08
647.9943,-0.01444105,-4.584386E-09,NaN,-0.827107,-1.329515E-07,NaN,-1.567665,-3.068177E-07,NaN,-1.665295,1.923541E-05,-0.111074,-4.590173E-09,NaN,NaN,-0.1331804,3.352754E-10,-1.426768E-07,-1.107534E-07,-6.562327E-09,-2.622604E-08
648.0109,-0.01444148,-4.58366E-09,NaN,-0.8272542,-1.329528E-07,NaN,-1.567537,-3.065937E-07,NaN,-1.666927,1.923589E-05,-0.107664,-4.782E-09,NaN,NaN,-0.1328976,3.352754E-10,-1.5199E-07,-1.107556E-07,-4.178141E-09,-2.622604E-08
648.0267,-0.01444187,-4.582933E-09,NaN,-0.8274191,-1.329542E-07,NaN,-1.567413,-3.063824E-07,NaN,-1.668612,1.923638E-05,-0.1043206,-4.967326E-09,NaN,NaN,-0.1326203,3.306188E-10,-1.601111E-07,-1.107578E-07,-6.562327E-09,-2.622604E-08
648.0424,-0.0144421,-4.582206E-09,NaN,-0.8276635,-1.329555E-07,NaN,-1.567222,-3.061823E-07,NaN,-1.670885,1.923687E-05,-0.09949896,-5.146278E-09,NaN,NaN,-0.1322192,3.213055E-10,-1.753103E-07,-1.1076E-07,-1.793956E-09,-2.622604E-08
648.0583,-0.0144421,-4.582206E-09,NaN,-0.8276635,-1.329555E-07,NaN,-1.567222,-3.061823E-07,NaN,-1.670885,1.923687E-05,-0.09949896,-5.146278E-09,NaN,NaN,-0.1322192,3.213055E-10,-1.753103E-07,-1.1076E-07,-1.793956E-09,-2.622604E-08
648.0734,-0.01444221,-4.581479E-09,NaN,-0.827956,-1.329569E-07,NaN,-1.567058,-3.059924E-07,NaN,-1.673427,1.923735E-05,-0.09477267,-5.31898E-09,NaN,NaN,-0.1318259,3.166489E-10,-1.879018E-07,-1.107622E-07,-1.793956E-09,-2.622604E-08
648.0903,-0.01444224,-4.580752E-09,NaN,-0.8282768,-1.329582E-07,NaN,-1.566905,-3.05809E-07,NaN,-1.676084,1.923784E-05,-0.0901394,-5.488383E-09,NaN,NaN,-0.1314403,3.166489E-10,-1.982581E-07,-1.107643E-07,-4.178141E-09,-2.622604E-08
648.1058,-0.01444222,-4.580024E-09,NaN,-0.8286135,-1.329596E-07,NaN,-1.566756,-3.056341E-07,NaN,-1.67878,1.923832E-05,-0.08559637,-5.651722E-09,NaN,NaN,-0.1310623,3.119923E-10,-2.073478E-07,-1.107665E-07,2.974416E-09,-2.622604E-08
648.1215,-0.01444204,-4.579296E-09,NaN,-0.829028,-1.329609E-07,NaN,-1.566528,-3.054672E-07,NaN,-1.682049,1.923881E-05,-0.07959367,-5.809119E-09,NaN,NaN,-0.1305624,3.119923E-10,-2.22696E-07,-1.107686E-07,2.974416E-09,-2.622604E-08
648.1375,-0.01444204,-4.579296E-09,NaN,-0.829028,-1.329609E-07,NaN,-1.566528,-3.054672E-07,NaN,-1.682049,1.923881E-05,-0.07959367,-5.809119E-09,NaN,NaN,-0.1305624,3.119923E-10,-2.22696E-07,-1.107686E-07,2.974416E-09,-2.622604E-08
648.1524,-0.01444174,-4.578568E-09,NaN,-0.8294885,-1.329623E-07,NaN,-1.566329,-3.053077E-07,NaN,-1.685573,1.923929E-05,-0.07370959,-5.960689E-09,NaN,NaN,-0.1300723,3.119923E-10,-2.341699E-07,-1.107708E-07,5.358602E-09,-2.622604E-08
648.1688,-0.01444136,-4.57784E-09,NaN,-0.8299754,-1.329636E-07,NaN,-1.566142,-3.051552E-07,NaN,-1.689197,1.923978E-05,-0.06794126,-6.106549E-09,NaN,NaN,-0.1295918,3.119923E-10,-2.441164E-07,-1.107729E-07,5.358602E-09,-2.622604E-08
648.1846,-0.01444093,-4.577111E-09,NaN,-0.8304763,-1.329649E-07,NaN,-1.565959,-3.050094E-07,NaN,-1.692846,1.924027E-05,-0.06228511,-6.246796E-09,NaN,NaN,-0.1291207,3.073357E-10,-2.533179E-07,-1.107751E-07,5.358602E-09,-2.622604E-08
648.2003,-0.01444035,-4.576382E-09,NaN,-0.8310531,-1.329663E-07,NaN,-1.565682,-3.048698E-07,NaN,-1.697054,1.924075E-05,-0.05518491,-6.381556E-09,NaN,NaN,-0.1285296,3.073357E-10,-2.681818E-07,-1.107772E-07,7.742788E-09,-2.622604E-08
648.216,-0.01444035,-4.576382E-09,NaN,-0.8310531,-1.329663E-07,NaN,-1.565682,-3.048698E-07,NaN,-1.697054,1.924075E-05,-0.05518491,-6.381556E-09,NaN,NaN,-0.1285296,3.073357E-10,-2.681818E-07,-1.107772E-07,7.742788E-09,-2.622604E-08
648.2309,-0.01443964,-4.575653E-09,NaN,-0.831674,-1.329676E-07,NaN,-1.565438,-3.047363E-07,NaN,-1.701502,1.924124E-05,-0.04822508,-6.510931E-09,NaN,NaN,-0.12795,3.026791E-10,-2.768617E-07,-1.107793E-07,7.742788E-09,-2.622604E-08
648.2475,-0.01443885,-4.574924E-09,NaN,-0.8323193,-1.329689E-07,NaN,-1.565206,-3.046086E-07,NaN,-1.706039,1.924172E-05,-0.04140241,-6.635028E-09,NaN,NaN,-0.1273818,3.026791E-10,-2.847221E-07,-1.107814E-07,5.358602E-09,-2.622604E-08
648.2634,-0.01443801,-4.574194E-09,NaN,-0.8329769,-1.329702E-07,NaN,-1.56498,-3.044865E-07,NaN,-1.710586,1.924221E-05,-0.0347124,-6.753954E-09,NaN,NaN,-0.1268247,2.980225E-10,-2.915766E-07,-1.107835E-07,5.902305E-10,-2.622604E-08
648.2788,-0.01443801,-4.574194E-09,NaN,-0.8329769,-1.329702E-07,NaN,-1.56498,-3.044865E-07,NaN,-1.710586,1.924221E-05,-0.0347124,-6.753954E-09,NaN,NaN,-0.1268247,2.980225E-10,-2.915766E-07,-1.107835E-07,5.902305E-10,-2.622604E-08
648.2939,-0.01443701,-4.573464E-09,NaN,-0.8337083,-1.329715E-07,NaN,-1.564639,-3.043698E-07,NaN,-1.715681,1.92427E-05,-0.02659155,-6.867808E-09,NaN,NaN,-0.1261493,2.980225E-10,-3.019888E-07,-1.107856E-07,5.902305E-10,-2.622604E-08
648.3101,-0.01443589,-4.572734E-09,NaN,-0.8344821,-1.329728E-07,NaN,-1.564338,-3.042584E-07,NaN,-1.721003,1.924319E-05,-0.01863116,-6.976689E-09,NaN,NaN,-0.125487,2.933659E-10,-3.102403E-07,-1.107877E-07,5.902305E-10,-2.622604E-08
648.3259,-0.01443469,-4.572003E-09,NaN,-0.8352785,-1.329741E-07,NaN,-1.564052,-3.041492E-07,NaN,-1.7264,1.924367E-05,-0.01082829,-7.083522E-09,NaN,NaN,-0.1248378,2.933659E-10,-3.163032E-07,-1.107898E-07,1.012697E-08,-2.622604E-08
648.3416,-0.01443337,-4.571272E-09,NaN,-0.8360853,-1.329754E-07,NaN,-1.563772,-3.04045E-07,NaN,-1.731797,1.924416E-05,-0.003177345,-7.18552E-09,NaN,NaN,-0.1242013,2.887093E-10,-3.201961E-07,-1.107919E-07,7.742788E-09,-2.622604E-08
648.3594,-0.01443337,-4.571272E-09,NaN,-0.8360853,-1.329754E-07,NaN,-1.563772,-3.04045E-07,NaN,-1.731797,1.924416E-05,-0.003177345,-7.18552E-09,NaN,NaN,-0.1242013,2.887093E-10,-3.201961E-07,-1.107919E-07,7.742788E-09,-2.622604E-08
648.3724,-0.01443172,-4.570541E-09,NaN,-0.8369641,-1.329767E-07,NaN,-1.563354,-3.039457E-07,NaN,-1.737728,1.924465E-05,0.00589277,-7.282778E-09,NaN,NaN,-0.123448,2.840527E-10,-3.269971E-07,-1.107939E-07,5.902305E-10,-2.622604E-08
648.3886,-0.01442975,-4.56981E-09,NaN,-0.8378836,-1.32978E-07,NaN,-1.562983,-3.038512E-07,NaN,-1.743876,1.924514E-05,0.01478429,-7.375388E-09,NaN,NaN,-0.1227094,2.793961E-10,-3.316025E-07,-1.10796E-07,5.902305E-10,-2.622604E-08
648.4043,-0.0144275,-4.569078E-09,NaN,-0.8388239,-1.329793E-07,NaN,-1.562631,-3.037613E-07,NaN,-1.750086,1.924562E-05,0.02349868,-7.463444E-09,NaN,NaN,-0.1219854,2.793961E-10,-3.342847E-07,-1.10798E-07,5.902305E-10,-2.622604E-08
648.4199,-0.0144275,-4.569078E-09,NaN,-0.8388239,-1.329793E-07,NaN,-1.562631,-3.037613E-07,NaN,-1.750086,1.924562E-05,0.02349868,-7.463444E-09,NaN,NaN,-0.1219854,2.793961E-10,-3.342847E-07,-1.10798E-07,5.902305E-10,-2.622604E-08
648.435,-0.01442709,-4.568346E-09,NaN,-0.8389415,-1.329806E-07,NaN,-1.564205,-3.036759E-07,NaN,-1.749395,1.924611E-05,0.01317523,-7.547033E-09,NaN,NaN,-0.122827,2.747395E-10,-3.022193E-07,-1.108001E-07,5.358602E-09,-2.622604E-08
648.4512,-0.014428,-4.567614E-09,NaN,-0.8385525,-1.329819E-07,NaN,-1.565015,-3.03595E-07,NaN,-1.745361,1.92466E-05,0.003130661,-7.626243E-09,NaN,NaN,-0.1236522,2.700828E-10,-2.86126E-07,-1.108021E-07,5.902305E-10,-2.622604E-08
648.467,-0.01442993,-4.566882E-09,NaN,-0.8378525,-1.329831E-07,NaN,-1.565462,-3.029698E-07,NaN,-1.739703,1.924709E-05,-0.006595705,-8.249752E-09,NaN,NaN,-0.1244612,2.56113E-10,-2.689897E-07,-1.108041E-07,-4.178141E-09,-2.861022E-08
648.4828,-0.01443302,-4.56615E-09,NaN,-0.8369637,-1.329844E-07,NaN,-1.565738,-3.023597E-07,NaN,-1.733276,1.924756E-05,-0.01607429,-8.858284E-09,NaN,NaN,-0.1252543,2.56113E-10,-2.53865E-07,-1.108062E-07,2.974416E-09,-2.622604E-08
648.4991,-0.01443302,-4.56615E-09,NaN,-0.8369637,-1.329844E-07,NaN,-1.565738,-3.023597E-07,NaN,-1.733276,1.924756E-05,-0.01607429,-8.858284E-09,NaN,NaN,-0.1252543,2.56113E-10,-2.53865E-07,-1.108062E-07,2.974416E-09,-2.622604E-08
648.5139,-0.01443695,-4.565418E-09,NaN,-0.8360317,-1.329857E-07,NaN,-1.565788,-3.017642E-07,NaN,-1.727079,1.924803E-05,-0.02377253,-9.45213E-09,NaN,NaN,-0.1259025,2.467998E-10,-2.428754E-07,-1.108082E-07,2.974416E-09,-2.861022E-08
648.5302,-0.01444145,-4.564686E-09,NaN,-0.8350771,-1.32987E-07,NaN,-1.565861,-3.011832E-07,NaN,-1.72103,1.924849E-05,-0.03131574,-1.003158E-08,NaN,NaN,-0.126538,2.467998E-10,-2.316251E-07,-1.108102E-07,-1.793955E-09,-2.622604E-08
648.546,-0.01444634,-4.563955E-09,NaN,-0.8341129,-1.329882E-07,NaN,-1.565937,-3.006163E-07,NaN,-1.715093,1.924896E-05,-0.03871175,-1.059691E-08,NaN,NaN,-0.127161,2.421432E-10,-2.192199E-07,-1.108122E-07,5.902305E-10,-2.861022E-08
648.5618,-0.01445149,-4.563222E-09,NaN,-0.8331472,-1.329895E-07,NaN,-1.566008,-3.000632E-07,NaN,-1.709251,1.924941E-05,-0.04596072,-1.11484E-08,NaN,NaN,-0.1277718,2.421432E-10,-2.077087E-07,-1.108142E-07,5.902305E-10,-2.622604E-08
648.5778,-0.01445149,-4.563222E-09,NaN,-0.8331472,-1.329895E-07,NaN,-1.566008,-3.000632E-07,NaN,-1.709251,1.924941E-05,-0.04596072,-1.11484E-08,NaN,NaN,-0.1277718,2.421432E-10,-2.077087E-07,-1.108142E-07,5.902305E-10,-2.622604E-08
648.5928,-0.01445665,-4.56249E-09,NaN,-0.832254,-1.329907E-07,NaN,-1.565956,-2.99521E-07,NaN,-1.704072,1.924986E-05,-0.05150572,-1.168915E-08,NaN,NaN,-0.1282413,2.374866E-10,-2.016737E-07,-1.108162E-07,-1.793955E-09,-2.861022E-08
648.6094,-0.01446169,-4.561758E-09,NaN,-0.8314096,-1.32992E-07,NaN,-1.565954,-2.989921E-07,NaN,-1.699251,1.92503E-05,-0.05694884,-1.221654E-08,NaN,NaN,-0.1287016,2.421432E-10,-1.945957E-07,-1.108181E-07,5.902305E-10,-2.622604E-08
648.6251,-0.01446661,-4.561025E-09,NaN,-0.8305991,-1.329933E-07,NaN,-1.56597,-2.984763E-07,NaN,-1.694642,1.925074E-05,-0.06228959,-1.273083E-08,NaN,NaN,-0.1291529,2.421432E-10,-1.872941E-07,-1.108201E-07,5.902305E-10,-2.861022E-08
648.6408,-0.01447141,-4.560293E-09,NaN,-0.8298132,-1.329945E-07,NaN,-1.56599,-2.979733E-07,NaN,-1.690173,1.925118E-05,-0.06752619,-1.323227E-08,NaN,NaN,-0.1295953,2.421432E-10,-1.788005E-07,-1.108221E-07,2.974416E-09,-2.622604E-08
648.6566,-0.01447141,-4.560293E-09,NaN,-0.8298132,-1.329945E-07,NaN,-1.56599,-2.979733E-07,NaN,-1.690173,1.925118E-05,-0.06752619,-1.323227E-08,NaN,NaN,-0.1295953,2.421432E-10,-1.788005E-07,-1.108221E-07,2.974416E-09,-2.622604E-08
648.6716,-0.01447593,-4.559561E-09,NaN,-0.8291152,-1.329957E-07,NaN,-1.565915,-2.97483E-07,NaN,-1.686379,1.925163E-05,-0.07110673,-1.372113E-08,NaN,NaN,-0.1298997,2.3283E-10,-1.769378E-07,-1.108241E-07,5.358602E-09,-2.861022E-08
648.6879,-0.01448015,-4.558828E-09,NaN,-0.8284746,-1.32997E-07,NaN,-1.565884,-2.970049E-07,NaN,-1.682942,1.925207E-05,-0.07462355,-1.419765E-08,NaN,NaN,-0.1301982,2.374866E-10,-1.735106E-07,-1.10826E-07,7.742788E-09,-2.622604E-08
648.7038,-0.0144841,-4.558096E-09,NaN,-0.8278724,-1.329982E-07,NaN,-1.565871,-2.965362E-07,NaN,-1.679707,1.925251E-05,-0.07807518,-1.466488E-08,NaN,NaN,-0.1304908,2.374866E-10,-1.696363E-07,-1.10828E-07,7.742788E-09,-2.861022E-08
648.7197,-0.0144841,-4.558096E-09,NaN,-0.8278724,-1.329982E-07,NaN,-1.565871,-2.965362E-07,NaN,-1.679707,1.925251E-05,-0.07807518,-1.466488E-08,NaN,NaN,-0.1304908,2.374866E-10,-1.696363E-07,-1.10828E-07,7.742788E-09,-2.861022E-08
648.7347,-0.01448784,-4.557364E-09,NaN,-0.8272965,-1.329994E-07,NaN,-1.565864,-2.960794E-07,NaN,-1.676596,1.925295E-05,-0.08146008,-1.512021E-08,NaN,NaN,-0.1307777,2.421432E-10,-1.647189E-07,-1.108299E-07,5.358602E-09,-2.622604E-08
648.7509,-0.01449124,-4.556632E-09,NaN,-0.8268087,-1.330007E-07,NaN,-1.565778,-2.956342E-07,NaN,-1.674144,1.925339E-05,-0.08323067,-1.556384E-08,NaN,NaN,-0.1309297,2.421432E-10,-1.671776E-07,-1.108318E-07,7.742788E-09,-2.861022E-08
648.7667,-0.0144943,-4.5559E-09,NaN,-0.8263775,-1.330019E-07,NaN,-1.565731,-2.952006E-07,NaN,-1.672031,1.925383E-05,-0.08497191,-1.599602E-08,NaN,NaN,-0.1310786,2.467998E-10,-1.679226E-07,-1.108338E-07,2.974416E-09,-2.622604E-08
648.7822,-0.01449706,-4.555168E-09,NaN,-0.825983,-1.330031E-07,NaN,-1.565699,-2.947781E-07,NaN,-1.670102,1.925427E-05,-0.0866821,-1.641697E-08,NaN,NaN,-0.1312247,2.467998E-10,-1.674011E-07,-1.108357E-07,7.742788E-09,-2.861022E-08
648.798,-0.01449706,-4.555168E-09,NaN,-0.825983,-1.330031E-07,NaN,-1.565699,-2.947781E-07,NaN,-1.670102,1.925427E-05,-0.0866821,-1.641697E-08,NaN,NaN,-0.1312247,2.467998E-10,-1.674011E-07,-1.108357E-07,7.742788E-09,-2.861022E-08
648.8128,-0.0144996,-4.554436E-09,NaN,-0.8256132,-1.330043E-07,NaN,-1.565674,-2.943667E-07,NaN,-1.66828,1.925471E-05,-0.08835981,-1.682691E-08,NaN,NaN,-0.1313679,2.467998E-10,-1.66358E-07,-1.108376E-07,1.251116E-08,-2.622604E-08
648.8293,-0.01450179,-4.553705E-09,NaN,-0.8253294,-1.330055E-07,NaN,-1.565581,-2.939661E-07,NaN,-1.667097,1.925516E-05,-0.08845979,-1.722605E-08,NaN,NaN,-0.1313789,2.467998E-10,-1.726165E-07,-1.108395E-07,7.742788E-09,-2.861022E-08
648.8449,-0.01450362,-4.552973E-09,NaN,-0.8251,-1.330068E-07,NaN,-1.56552,-2.935732E-07,NaN,-1.666234,1.925559E-05,-0.08856212,-1.761744E-08,NaN,NaN,-0.1313898,2.514564E-10,-1.764163E-07,-1.108414E-07,1.012697E-08,-2.622604E-08
648.8621,-0.01450516,-4.552241E-09,NaN,-0.8249052,-1.33008E-07,NaN,-1.565474,-2.931908E-07,NaN,-1.665538,1.925604E-05,-0.08866496,-1.799839E-08,NaN,NaN,-0.1314004,2.514564E-10,-1.792475E-07,-1.108433E-07,1.012697E-08,-2.861022E-08
648.8766,-0.01450516,-4.552241E-09,NaN,-0.8249052,-1.33008E-07,NaN,-1.565474,-2.931908E-07,NaN,-1.665538,1.925604E-05,-0.08866496,-1.799839E-08,NaN,NaN,-0.1314004,2.514564E-10,-1.792475E-07,-1.108433E-07,1.012697E-08,-2.861022E-08
648.8917,-0.01450647,-4.551509E-09,NaN,-0.8247326,-1.330092E-07,NaN,-1.565435,-2.928186E-07,NaN,-1.66493,1.925647E-05,-0.08876674,-1.836912E-08,NaN,NaN,-0.1314109,2.56113E-10,-1.812592E-07,-1.108452E-07,1.251116E-08,-2.622604E-08
648.9078,-0.01450747,-4.550777E-09,NaN,-0.8246438,-1.330104E-07,NaN,-1.565329,-2.924564E-07,NaN,-1.664943,1.925693E-05,-0.08732264,-1.872981E-08,NaN,NaN,-0.1312918,2.467998E-10,-1.910194E-07,-1.108471E-07,1.489534E-08,-2.861022E-08
648.9236,-0.01450828,-4.550045E-09,NaN,-0.8246071,-1.330116E-07,NaN,-1.565255,-2.92104E-07,NaN,-1.66526,1.925736E-05,-0.08591032,-1.908068E-08,NaN,NaN,-0.131175,2.514564E-10,-1.977249E-07,-1.108489E-07,1.251116E-08,-2.622604E-08
648.9396,-0.01450828,-4.550045E-09,NaN,-0.8246071,-1.330116E-07,NaN,-1.565255,-2.92104E-07,NaN,-1.66526,1.925736E-05,-0.08591032,-1.908068E-08,NaN,NaN,-0.131175,2.514564E-10,-1.977249E-07,-1.108489E-07,1.251116E-08,-2.622604E-08
648.9545,-0.01450898,-4.549313E-09,NaN,-0.8246027,-1.330127E-07,NaN,-1.565193,-2.917613E-07,NaN,-1.665725,1.925781E-05,-0.08452769,-1.942191E-08,NaN,NaN,-0.1310606,2.514564E-10,-2.025678E-07,-1.108508E-07,1.251116E-08,-2.861022E-08
648.971,-0.01450962,-4.548582E-09,NaN,-0.8246167,-1.330139E-07,NaN,-1.565137,-2.914252E-07,NaN,-1.666262,1.925824E-05,-0.08317286,-1.975652E-08,NaN,NaN,-0.1309484,2.56113E-10,-2.068146E-07,-1.108527E-07,5.358601E-09,-2.622604E-08
648.9868,-0.01451011,-4.54785E-09,NaN,-0.8247113,-1.330151E-07,NaN,-1.565014,-2.910985E-07,NaN,-1.667405,1.92587E-05,-0.08029962,-2.008182E-08,NaN,NaN,-0.130709,2.467998E-10,-2.182885E-07,-1.108545E-07,2.974415E-09,-2.861022E-08
649.0026,-0.01451048,-4.547118E-09,NaN,-0.8248553,-1.330163E-07,NaN,-1.564919,-2.907808E-07,NaN,-1.668834,1.925914E-05,-0.07748567,-2.039797E-08,NaN,NaN,-0.1304744,2.467998E-10,-2.269312E-07,-1.108564E-07,-1.793956E-09,-2.622604E-08
649.0181,-0.01451048,-4.547118E-09,NaN,-0.8248553,-1.330163E-07,NaN,-1.564919,-2.907808E-07,NaN,-1.668834,1.925914E-05,-0.07748567,-2.039797E-08,NaN,NaN,-0.1304744,2.467998E-10,-2.269312E-07,-1.108564E-07,-1.793956E-09,-2.622604E-08
649.0333,-0.01451077,-4.546386E-09,NaN,-0.825029,-1.330175E-07,NaN,-1.564837,-2.904721E-07,NaN,-1.670395,1.925959E-05,-0.07472853,-2.070517E-08,NaN,NaN,-0.1302443,2.374866E-10,-2.333387E-07,-1.108582E-07,5.902296E-10,-2.861022E-08
649.0494,-0.01451102,-4.545654E-09,NaN,-0.8252203,-1.330187E-07,NaN,-1.56476,-2.901722E-07,NaN,-1.672011,1.926003E-05,-0.07202584,-2.100359E-08,NaN,NaN,-0.1300188,2.421432E-10,-2.393737E-07,-1.108601E-07,-1.793956E-09,-2.622604E-08
649.0657,-0.01451111,-4.544922E-09,NaN,-0.8254909,-1.330198E-07,NaN,-1.56461,-2.898781E-07,NaN,-1.674216,1.926048E-05,-0.06782831,-2.129623E-08,NaN,NaN,-0.1296684,2.3283E-10,-2.524122E-07,-1.108619E-07,5.902296E-10,-2.861022E-08
649.0809,-0.0145111,-4.54419E-09,NaN,-0.8258092,-1.33021E-07,NaN,-1.564489,-2.895925E-07,NaN,-1.676692,1.926092E-05,-0.06371583,-2.158036E-08,NaN,NaN,-0.1293248,2.374866E-10,-2.612039E-07,-1.108637E-07,-1.793956E-09,-2.622604E-08
649.0969,-0.0145111,-4.54419E-09,NaN,-0.8258092,-1.33021E-07,NaN,-1.564489,-2.895925E-07,NaN,-1.676692,1.926092E-05,-0.06371583,-2.158036E-08,NaN,NaN,-0.1293248,2.374866E-10,-2.612039E-07,-1.108637E-07,-1.793956E-09,-2.622604E-08
649.1117,-0.014511,-4.543458E-09,NaN,-0.8261556,-1.330222E-07,NaN,-1.564379,-2.893152E-07,NaN,-1.679284,1.926136E-05,-0.05968543,-2.185617E-08,NaN,NaN,-0.128988,2.374866E-10,-2.686172E-07,-1.108655E-07,5.358601E-09,-2.861022E-08
649.1281,-0.01451086,-4.542727E-09,NaN,-0.8265177,-1.330233E-07,NaN,-1.564275,-2.890461E-07,NaN,-1.681916,1.92618E-05,-0.0557341,-2.212381E-08,NaN,NaN,-0.1286577,2.421432E-10,-2.746522E-07,-1.108674E-07,1.012697E-08,-2.622604E-08
649.1437,-0.01451056,-4.541995E-09,NaN,-0.8269572,-1.330245E-07,NaN,-1.564086,-2.88785E-07,NaN,-1.685123,1.926225E-05,-0.05030797,-2.238345E-08,NaN,NaN,-0.1282046,2.3283E-10,-2.867966E-07,-1.108692E-07,1.012697E-08,-2.861022E-08
649.1597,-0.01451056,-4.541995E-09,NaN,-0.8269572,-1.330245E-07,NaN,-1.564086,-2.88785E-07,NaN,-1.685123,1.926225E-05,-0.05030797,-2.238345E-08,NaN,NaN,-0.1282046,2.3283E-10,-2.867966E-07,-1.108692E-07,1.012697E-08,-2.861022E-08
649.1745,-0.01451015,-4.541263E-09,NaN,-0.8274425,-1.330256E-07,NaN,-1.563929,-2.885317E-07,NaN,-1.688586,1.926269E-05,-0.044991,-2.263523E-08,NaN,NaN,-0.1277604,2.374866E-10,-2.955883E-07,-1.10871E-07,1.251116E-08,-2.622604E-08
649.1908,-0.01450966,-4.540531E-09,NaN,-0.8279539,-1.330268E-07,NaN,-1.563784,-2.882861E-07,NaN,-1.69215,1.926313E-05,-0.03977973,-2.287933E-08,NaN,NaN,-0.1273249,2.374866E-10,-3.027781E-07,-1.108728E-07,1.489534E-08,-2.861022E-08
649.2066,-0.01450912,-4.539799E-09,NaN,-0.8284791,-1.330279E-07,NaN,-1.563644,-2.880481E-07,NaN,-1.695741,1.926357E-05,-0.0346704,-2.311588E-08,NaN,NaN,-0.1268979,2.421432E-10,-3.085896E-07,-1.108745E-07,1.012697E-08,-2.622604E-08
649.2228,-0.01450843,-4.539067E-09,NaN,-0.8290797,-1.330291E-07,NaN,-1.563404,-2.878175E-07,NaN,-1.699893,1.926401E-05,-0.02810322,-2.334503E-08,NaN,NaN,-0.12635,2.421432E-10,-3.1984E-07,-1.108763E-07,7.742786E-09,-2.861022E-08
649.2381,-0.01450843,-4.539067E-09,NaN,-0.8290797,-1.330291E-07,NaN,-1.563404,-2.878175E-07,NaN,-1.699893,1.926401E-05,-0.02810322,-2.334503E-08,NaN,NaN,-0.12635,2.421432E-10,-3.1984E-07,-1.108763E-07,7.742786E-09,-2.861022E-08
649.253,-0.01450762,-4.538335E-09,NaN,-0.8297243,-1.330302E-07,NaN,-1.5632,-2.875913E-07,NaN,-1.704286,1.926445E-05,-0.02166769,-2.356975E-08,NaN,NaN,-0.1258128,2.467998E-10,-3.275886E-07,-1.108781E-07,1.012697E-08,-2.622604E-08
649.2693,-0.01450674,-4.537604E-09,NaN,-0.830393,-1.330313E-07,NaN,-1.56301,-2.873722E-07,NaN,-1.708768,1.926489E-05,-0.01536009,-2.378732E-08,NaN,NaN,-0.1252861,2.467998E-10,-3.327295E-07,-1.108799E-07,5.3586E-09,-2.861022E-08
649.2849,-0.0145058,-4.536872E-09,NaN,-0.8310736,-1.330325E-07,NaN,-1.562825,-2.871602E-07,NaN,-1.713263,1.926533E-05,-0.009175736,-2.399786E-08,NaN,NaN,-0.1247698,2.514564E-10,-3.369483E-07,-1.108816E-07,7.742786E-09,-2.622604E-08
649.3008,-0.01450471,-4.53614E-09,NaN,-0.8318278,-1.330336E-07,NaN,-1.562522,-2.86955E-07,NaN,-1.718306,1.926577E-05,-0.001548002,-2.420151E-08,NaN,NaN,-0.1241342,2.514564E-10,-3.458751E-07,-1.108834E-07,1.251116E-08,-2.861022E-08
649.3162,-0.01450471,-4.53614E-09,NaN,-0.8318278,-1.330336E-07,NaN,-1.562522,-2.86955E-07,NaN,-1.718306,1.926577E-05,-0.001548002,-2.420151E-08,NaN,NaN,-0.1241342,2.514564E-10,-3.458751E-07,-1.108834E-07,1.251116E-08,-2.861022E-08
649.3314,-0.01450351,-4.535408E-09,NaN,-0.8326241,-1.330347E-07,NaN,-1.56226,-2.867567E-07,NaN,-1.723578,1.926621E-05,0.00592733,-2.439841E-08,NaN,NaN,-0.1235112,2.56113E-10,-3.490091E-07,-1.108852E-07,1.251116E-08,-2.622604E-08
649.3478,-0.01450214,-4.534676E-09,NaN,-0.8334427,-1.330359E-07,NaN,-1.562014,-2.865621E-07,NaN,-1.728926,1.926665E-05,0.01325361,-2.459152E-08,NaN,NaN,-0.1229003,2.56113E-10,-3.528228E-07,-1.108869E-07,7.742786E-09,-2.861022E-08
649.3652,-0.01450059,-4.533944E-09,NaN,-0.8342716,-1.33037E-07,NaN,-1.561774,-2.86374E-07,NaN,-1.734274,1.926709E-05,0.02043661,-2.477809E-08,NaN,NaN,-0.1223014,2.607696E-10,-3.550859E-07,-1.108886E-07,1.012697E-08,-2.622604E-08
649.3793,-0.01450059,-4.533944E-09,NaN,-0.8342716,-1.33037E-07,NaN,-1.561774,-2.86374E-07,NaN,-1.734274,1.926709E-05,0.02043661,-2.477809E-08,NaN,NaN,-0.1223014,2.607696E-10,-3.550859E-07,-1.108886E-07,1.012697E-08,-2.622604E-08
649.3942,-0.01449872,-4.533212E-09,NaN,-0.8351722,-1.330381E-07,NaN,-1.561392,-2.861924E-07,NaN,-1.74016,1.926754E-05,0.02905019,-2.495824E-08,NaN,NaN,-0.1215849,2.514564E-10,-3.600219E-07,-1.108904E-07,1.012697E-08,-2.861022E-08
649.4106,-0.01449652,-4.532481E-09,NaN,-0.8361131,-1.330392E-07,NaN,-1.56106,-2.86017E-07,NaN,-1.746262,1.926798E-05,0.03749263,-2.51321E-08,NaN,NaN,-0.1208825,2.56113E-10,-3.595749E-07,-1.108921E-07,7.742786E-09,-2.622604E-08
649.4266,-0.01449405,-4.531749E-09,NaN,-0.8370746,-1.330403E-07,NaN,-1.560747,-2.85845E-07,NaN,-1.752428,1.926842E-05,0.04576579,-2.530262E-08,NaN,NaN,-0.1201938,2.56113E-10,-3.599661E-07,-1.108938E-07,7.742786E-09,-2.861022E-08
649.4423,-0.01449136,-4.531017E-09,NaN,-0.8380446,-1.330414E-07,NaN,-1.560442,-2.856791E-07,NaN,-1.758584,1.926886E-05,0.05387672,-2.546704E-08,NaN,NaN,-0.1195187,2.607696E-10,-3.582897E-07,-1.108955E-07,2.974414E-09,-2.622604E-08
649.4585,-0.01449136,-4.531017E-09,NaN,-0.8380446,-1.330414E-07,NaN,-1.560442,-2.856791E-07,NaN,-1.758584,1.926886E-05,0.05387672,-2.546704E-08,NaN,NaN,-0.1195187,2.607696E-10,-3.582897E-07,-1.108955E-07,2.974414E-09,-2.622604E-08
649.4734,-0.01448825,-4.530285E-09,NaN,-0.8390156,-1.330425E-07,NaN,-1.560138,-2.855192E-07,NaN,-1.764691,1.926931E-05,0.06183159,-2.562548E-08,NaN,NaN,-0.1188567,2.607696E-10,-3.565761E-07,-1.108973E-07,2.974414E-09,-2.861022E-08
649.4899,-0.01448487,-4.529553E-09,NaN,-0.8399828,-1.330436E-07,NaN,-1.559836,-2.853623E-07,NaN,-1.77073,1.926975E-05,0.06963226,-2.578089E-08,NaN,NaN,-0.1182077,2.654262E-10,-3.540056E-07,-1.10899E-07,-1.793957E-09,-2.622604E-08
649.5055,-0.01448131,-4.528821E-09,NaN,-0.8409434,-1.330447E-07,NaN,-1.559535,-2.852112E-07,NaN,-1.776694,1.92702E-05,0.07728177,-2.593049E-08,NaN,NaN,-0.1175715,2.607696E-10,-3.504293E-07,-1.109007E-07,-4.178143E-09,-2.861022E-08
649.5212,-0.01447765,-4.528089E-09,NaN,-0.8418955,-1.330458E-07,NaN,-1.559234,-2.850659E-07,NaN,-1.782578,1.927064E-05,0.08478297,-2.607439E-08,NaN,NaN,-0.1169477,2.654262E-10,-3.462198E-07,-1.109024E-07,-1.793957E-09,-2.622604E-08
649.5375,-0.01447765,-4.528089E-09,NaN,-0.8418955,-1.330458E-07,NaN,-1.559234,-2.850659E-07,NaN,-1.782578,1.927064E-05,0.08478297,-2.607439E-08,NaN,NaN,-0.1169477,2.654262E-10,-3.462198E-07,-1.109024E-07,-1.793957E-09,-2.622604E-08
649.5524,-0.01447412,-4.527358E-09,NaN,-0.8427689,-1.330469E-07,NaN,-1.559133,-2.84926E-07,NaN,-1.787804,1.92711E-05,0.09055851,-2.621272E-08,NaN,NaN,-0.1164654,2.607696E-10,-3.404456E-07,-1.109041E-07,-4.178143E-09,-2.861022E-08
649.5692,-0.0144708,-4.526626E-09,NaN,-0.8435898,-1.33048E-07,NaN,-1.558963,-2.847889E-07,NaN,-1.792676,1.927154E-05,0.09622166,-2.634841E-08,NaN,NaN,-0.1159927,2.654262E-10,-3.356772E-07,-1.109057E-07,5.902288E-10,-2.622604E-08
649.5845,-0.01446766,-4.525894E-09,NaN,-0.8443746,-1.330491E-07,NaN,-1.558764,-2.846571E-07,NaN,-1.797336,1.927199E-05,0.1017857,-2.647868E-08,NaN,NaN,-0.1155292,2.607696E-10,-3.312068E-07,-1.109074E-07,-4.178143E-09,-2.861022E-08
649.6004,-0.01446468,-4.525162E-09,NaN,-0.8451336,-1.330502E-07,NaN,-1.558554,-2.845307E-07,NaN,-1.801857,1.927243E-05,0.1072458,-2.660364E-08,NaN,NaN,-0.1150748,2.654262E-10,-3.256562E-07,-1.109091E-07,2.974414E-09,-2.622604E-08
649.6163,-0.01446468,-4.525162E-09,NaN,-0.8451336,-1.330502E-07,NaN,-1.558554,-2.845307E-07,NaN,-1.801857,1.927243E-05,0.1072458,-2.660364E-08,NaN,NaN,-0.1150748,2.654262E-10,-3.256562E-07,-1.109091E-07,2.974414E-09,-2.622604E-08
649.631,-0.01446202,-4.52443E-09,NaN,-0.845804,-1.330513E-07,NaN,-1.558563,-2.844095E-07,NaN,-1.8057,1.927288E-05,0.1110199,-2.672338E-08,NaN,NaN,-0.1147587,2.607696E-10,-3.196957E-07,-1.109108E-07,2.974414E-09,-2.861022E-08
649.6475,-0.01445969,-4.523698E-09,NaN,-0.8464167,-1.330523E-07,NaN,-1.558492,-2.842905E-07,NaN,-1.809187,1.927332E-05,0.1147171,-2.684086E-08,NaN,NaN,-0.1144487,2.654262E-10,-3.155979E-07,-1.109124E-07,7.742786E-09,-2.622604E-08
649.6632,-0.01445764,-4.522966E-09,NaN,-0.846991,-1.330534E-07,NaN,-1.558385,-2.841766E-07,NaN,-1.812471,1.927378E-05,0.1183557,-2.695327E-08,NaN,NaN,-0.1141448,2.607696E-10,-3.105315E-07,-1.109141E-07,5.3586E-09,-2.861022E-08
649.6791,-0.01445764,-4.522966E-09,NaN,-0.846991,-1.330534E-07,NaN,-1.558385,-2.841766E-07,NaN,-1.812471,1.927378E-05,0.1183557,-2.695327E-08,NaN,NaN,-0.1141448,2.607696E-10,-3.105315E-07,-1.109141E-07,5.3586E-09,-2.861022E-08
649.6942,-0.014456,-4.522235E-09,NaN,-0.8474698,-1.330551E-07,NaN,-1.558499,-2.838105E-07,NaN,-1.815053,1.927423E-05,0.120348,-2.731793E-08,NaN,NaN,-0.1139762,2.514564E-10,-3.058376E-07,-1.10913E-07,7.742786E-09,-2.622604E-08
649.7103,-0.01445476,-4.521504E-09,NaN,-0.8478875,-1.330562E-07,NaN,-1.558521,-2.836207E-07,NaN,-1.817276,1.927467E-05,0.1222973,-2.750626E-08,NaN,NaN,-0.1138109,2.421432E-10,-3.024849E-07,-1.109115E-07,1.012697E-08,-2.622604E-08
649.7262,-0.01445372,-4.520773E-09,NaN,-0.8482655,-1.330571E-07,NaN,-1.558502,-2.835248E-07,NaN,-1.819304,1.927512E-05,0.1242244,-2.76007E-08,NaN,NaN,-0.1136488,2.374866E-10,-2.987596E-07,-1.109097E-07,1.012697E-08,-2.622604E-08
649.7416,-0.01445279,-4.520042E-09,NaN,-0.8486175,-1.330579E-07,NaN,-1.558467,-2.834786E-07,NaN,-1.82122,1.927555E-05,0.1261206,-2.76454E-08,NaN,NaN,-0.11349,2.374866E-10,-2.950343E-07,-1.109079E-07,7.742786E-09,-2.622604E-08
649.7576,-0.01445279,-4.520042E-09,NaN,-0.8486175,-1.330579E-07,NaN,-1.558467,-2.834786E-07,NaN,-1.82122,1.927555E-05,0.1261206,-2.76454E-08,NaN,NaN,-0.11349,2.374866E-10,-2.950343E-07,-1.109079E-07,7.742786E-09,-2.622604E-08
649.7725,-0.01445204,-4.519311E-09,NaN,-0.8488824,-1.330585E-07,NaN,-1.558669,-2.834614E-07,NaN,-1.822488,1.927599E-05,0.1264021,-2.766108E-08,NaN,NaN,-0.1134635,2.374866E-10,-2.903404E-07,-1.10906E-07,2.974414E-09,-2.622604E-08
649.7891,-0.01445142,-4.51858E-09,NaN,-0.8490925,-1.33059E-07,NaN,-1.558776,-2.834614E-07,NaN,-1.823433,1.927643E-05,0.1266706,-2.765959E-08,NaN,NaN,-0.1134375,2.374866E-10,-2.885523E-07,-1.109041E-07,1.012697E-08,-2.622604E-08
649.8047,-0.01445086,-4.517849E-09,NaN,-0.8492677,-1.330595E-07,NaN,-1.558837,-2.834698E-07,NaN,-1.82421,1.927687E-05,0.1269508,-2.764972E-08,NaN,NaN,-0.1134121,2.374866E-10,-2.856465E-07,-1.109021E-07,5.3586E-09,-2.622604E-08
649.8205,-0.01445036,-4.517118E-09,NaN,-0.8494207,-1.3306E-07,NaN,-1.55888,-2.834807E-07,NaN,-1.824898,1.927731E-05,0.127233,-2.76373E-08,NaN,NaN,-0.1133872,2.374866E-10,-2.826663E-07,-1.109002E-07,7.742786E-09,-2.622604E-08
649.8365,-0.01445036,-4.517118E-09,NaN,-0.8494207,-1.3306E-07,NaN,-1.55888,-2.834807E-07,NaN,-1.824898,1.927731E-05,0.127233,-2.76373E-08,NaN,NaN,-0.1133872,2.374866E-10,-2.826663E-07,-1.109002E-07,7.742786E-09,-2.622604E-08
649.8515,-0.01445001,-4.516387E-09,NaN,-0.8494899,-1.330605E-07,NaN,-1.559162,-2.834941E-07,NaN,-1.824958,1.927775E-05,0.1259333,-2.762236E-08,NaN,NaN,-0.1134921,2.374866E-10,-2.79686E-07,-1.108982E-07,2.974414E-09,-2.622604E-08
649.8695,-0.01444978,-4.515656E-09,NaN,-0.8495071,-1.330609E-07,NaN,-1.559342,-2.835072E-07,NaN,-1.824714,1.927818E-05,0.1246512,-2.760777E-08,NaN,NaN,-0.1135949,2.374866E-10,-2.78643E-07,-1.108963E-07,2.974414E-09,-2.622604E-08
649.8835,-0.01444964,-4.514925E-09,NaN,-0.8494939,-1.330614E-07,NaN,-1.559473,-2.835199E-07,NaN,-1.824319,1.927862E-05,0.1234124,-2.759354E-08,NaN,NaN,-0.1136957,2.374866E-10,-2.764823E-07,-1.108943E-07,2.974414E-09,-2.622604E-08
649.8996,-0.01444964,-4.514925E-09,NaN,-0.8494939,-1.330614E-07,NaN,-1.559473,-2.835199E-07,NaN,-1.824319,1.927862E-05,0.1234124,-2.759354E-08,NaN,NaN,-0.1136957,2.374866E-10,-2.764823E-07,-1.108943E-07,2.974414E-09,-2.622604E-08
649.9146,-0.01444954,-4.514194E-09,NaN,-0.849462,-1.330618E-07,NaN,-1.559581,-2.835295E-07,NaN,-1.823852,1.927906E-05,0.1222062,-2.758247E-08,NaN,NaN,-0.1137945,2.374866E-10,-2.743961E-07,-1.108924E-07,-6.562328E-09,-2.622604E-08
649.9312,-0.0144496,-4.513463E-09,NaN,-0.8493493,-1.330622E-07,NaN,-1.559924,-2.835388E-07,NaN,-1.822775,1.92795E-05,0.1194481,-2.757168E-08,NaN,NaN,-0.1140207,2.374866E-10,-2.722355E-07,-1.108905E-07,-6.562328E-09,-2.622604E-08
649.9468,-0.01444977,-4.512732E-09,NaN,-0.8491874,-1.330627E-07,NaN,-1.56016,-2.83545E-07,NaN,-1.821409,1.927994E-05,0.1167377,-2.756398E-08,NaN,NaN,-0.1142424,2.374866E-10,-2.72161E-07,-1.108885E-07,-8.946515E-09,-2.622604E-08
649.9625,-0.01445003,-4.512001E-09,NaN,-0.8489957,-1.330631E-07,NaN,-1.560344,-2.835482E-07,NaN,-1.819911,1.928039E-05,0.1140995,-2.755933E-08,NaN,NaN,-0.1144599,2.281734E-10,-2.710434E-07,-1.108866E-07,-6.562329E-09,-2.622604E-08
649.9783,-0.01445003,-4.512001E-09,NaN,-0.8489957,-1.330631E-07,NaN,-1.560344,-2.835482E-07,NaN,-1.819911,1.928039E-05,0.1140995,-2.755933E-08,NaN,NaN,-0.1144599,2.281734E-10,-2.710434E-07,-1.108866E-07,-6.562329E-09,-2.622604E-08
649.9932,-0.01445033,-4.51127E-09,NaN,-0.8487866,-1.330636E-07,NaN,-1.560501,-2.835512E-07,NaN,-1.818357,1.928082E-05,0.1115218,-2.755483E-08,NaN,NaN,-0.114673,2.281734E-10,-2.692552E-07,-1.108847E-07,-1.793957E-09,-2.622604E-08
650.0098,-0.01445078,-4.51054E-09,NaN,-0.8484983,-1.33064E-07,NaN,-1.560884,-2.835512E-07,NaN,-1.81621,1.928127E-05,0.1074196,-2.75533E-08,NaN,NaN,-0.1150113,2.188601E-10,-2.664985E-07,-1.108828E-07,-8.946515E-09,-2.622604E-08
650.0257,-0.01445136,-4.509809E-09,NaN,-0.8481625,-1.330644E-07,NaN,-1.561157,-2.835484E-07,NaN,-1.81379,1.928171E-05,0.1033947,-2.755461E-08,NaN,NaN,-0.115343,2.188601E-10,-2.663868E-07,-1.108809E-07,-1.13307E-08,-2.622604E-08
650.0414,-0.01445202,-4.509078E-09,NaN,-0.8477988,-1.330649E-07,NaN,-1.561375,-2.835427E-07,NaN,-1.811253,1.928215E-05,0.09946794,-2.755878E-08,NaN,NaN,-0.1156681,2.188601E-10,-2.653437E-07,-1.10879E-07,-1.371489E-08,-2.622604E-08
650.0569,-0.01445202,-4.509078E-09,NaN,-0.8477988,-1.330649E-07,NaN,-1.561375,-2.835427E-07,NaN,-1.811253,1.928215E-05,0.09946794,-2.755878E-08,NaN,NaN,-0.1156681,2.188601E-10,-2.653437E-07,-1.10879E-07,-1.371489E-08,-2.622604E-08
650.0721,-0.01445272,-4.508347E-09,NaN,-0.8474195,-1.330653E-07,NaN,-1.561565,-2.83537E-07,NaN,-1.808676,1.928259E-05,0.09562743,-2.756293E-08,NaN,NaN,-0.115987,2.188601E-10,-2.63183E-07,-1.108771E-07,-1.371489E-08,-2.622604E-08
650.0886,-0.01445359,-4.507617E-09,NaN,-0.846963,-1.330657E-07,NaN,-1.561965,-2.835286E-07,NaN,-1.80552,1.928302E-05,0.0902878,-2.756989E-08,NaN,NaN,-0.1164288,2.188601E-10,-2.59793E-07,-1.108753E-07,-1.13307E-08,-2.622604E-08
650.1041,-0.01445458,-4.506886E-09,NaN,-0.846461,-1.330661E-07,NaN,-1.562255,-2.835174E-07,NaN,-1.802107,1.928346E-05,0.08505392,-2.757959E-08,NaN,NaN,-0.1168621,2.188601E-10,-2.583401E-07,-1.108734E-07,-1.13307E-08,-2.622604E-08
650.1235,-0.01445564,-4.506156E-09,NaN,-0.845933,-1.330666E-07,NaN,-1.562488,-2.835063E-07,NaN,-1.798592,1.92839E-05,0.07994186,-2.758916E-08,NaN,NaN,-0.1172868,2.188601E-10,-2.565892E-07,-1.108715E-07,-8.946515E-09,-2.622604E-08
650.1358,-0.01445564,-4.506156E-09,NaN,-0.845933,-1.330666E-07,NaN,-1.562488,-2.835063E-07,NaN,-1.798592,1.92839E-05,0.07994186,-2.758916E-08,NaN,NaN,-0.1172868,2.188601E-10,-2.565892E-07,-1.108715E-07,-8.946515E-09,-2.622604E-08
650.1498,-0.01445676,-4.505425E-09,NaN,-0.8453915,-1.33067E-07,NaN,-1.562691,-2.834925E-07,NaN,-1.795051,1.928434E-05,0.07493953,-2.760144E-08,NaN,NaN,-0.1177032,2.188601E-10,-2.542795E-07,-1.108697E-07,-6.562329E-09,-2.622604E-08
650.1669,-0.01445804,-4.504695E-09,NaN,-0.8447746,-1.330674E-07,NaN,-1.563086,-2.834761E-07,NaN,-1.790946,1.928478E-05,0.06846199,-2.761635E-08,NaN,NaN,-0.1182408,2.188601E-10,-2.488406E-07,-1.108678E-07,-4.178143E-09,-2.622604E-08
650.1825,-0.01445962,-4.503964E-09,NaN,-0.8441141,-1.330678E-07,NaN,-1.563373,-2.834599E-07,NaN,-1.786598,1.928522E-05,0.0621175,-2.763104E-08,NaN,NaN,-0.1187678,2.188601E-10,-2.464192E-07,-1.10866E-07,-4.178143E-09,-2.622604E-08
650.1982,-0.01445962,-4.503964E-09,NaN,-0.8441141,-1.330678E-07,NaN,-1.563373,-2.834599E-07,NaN,-1.786598,1.928522E-05,0.0621175,-2.763104E-08,NaN,NaN,-0.1187678,2.188601E-10,-2.464192E-07,-1.10866E-07,-4.178143E-09,-2.622604E-08
650.213,-0.01446147,-4.503234E-09,NaN,-0.8434295,-1.330682E-07,NaN,-1.563603,-2.834411E-07,NaN,-1.782161,1.928566E-05,0.05591615,-2.764832E-08,NaN,NaN,-0.1192846,2.188601E-10,-2.437928E-07,-1.108641E-07,-4.178143E-09,-2.622604E-08
650.2294,-0.01446354,-4.502503E-09,NaN,-0.8427332,-1.330687E-07,NaN,-1.563802,-2.834198E-07,NaN,-1.777712,1.92861E-05,0.04984608,-2.766815E-08,NaN,NaN,-0.1197912,2.095469E-10,-2.401048E-07,-1.108623E-07,-6.562329E-09,-2.622604E-08
650.2451,-0.01446599,-4.501773E-09,NaN,-0.8419635,-1.330691E-07,NaN,-1.56417,-2.833987E-07,NaN,-1.772714,1.928654E-05,0.04232414,-2.768765E-08,NaN,NaN,-0.1204172,2.095469E-10,-2.339581E-07,-1.108605E-07,-6.562329E-09,-2.622604E-08
650.2609,-0.0144688,-4.501042E-09,NaN,-0.8411518,-1.330695E-07,NaN,-1.564435,-2.833752E-07,NaN,-1.767485,1.928698E-05,0.0349605,-2.770966E-08,NaN,NaN,-0.1210309,2.095469E-10,-2.297671E-07,-1.108587E-07,-6.562329E-09,-2.622604E-08
650.2766,-0.0144688,-4.501042E-09,NaN,-0.8411518,-1.330695E-07,NaN,-1.564435,-2.833752E-07,NaN,-1.767485,1.928698E-05,0.0349605,-2.770966E-08,NaN,NaN,-0.1210309,2.095469E-10,-2.297671E-07,-1.108587E-07,-6.562329E-09,-2.622604E-08
650.2919,-0.01447192,-4.500312E-09,NaN,-0.840318,-1.330699E-07,NaN,-1.564644,-2.833352E-07,NaN,-1.76218,1.928743E-05,0.02775912,-2.774822E-08,NaN,NaN,-0.1216326,2.002337E-10,-2.242164E-07,-1.108569E-07,-6.562329E-09,-2.622604E-08
650.3082,-0.01447527,-4.499581E-09,NaN,-0.8394741,-1.330699E-07,NaN,-1.564821,-2.83513E-07,NaN,-1.756876,1.928787E-05,0.0207087,-2.756889E-08,NaN,NaN,-0.1222226,2.002337E-10,-2.181765E-07,-1.10856E-07,-4.178143E-09,-2.622604E-08
650.324,-0.01447901,-4.498851E-09,NaN,-0.8385586,-1.330699E-07,NaN,-1.565143,-2.83659E-07,NaN,-1.751036,1.92883E-05,0.01222989,-2.742134E-08,NaN,NaN,-0.1229303,2.002337E-10,-2.089611E-07,-1.108553E-07,-1.793957E-09,-2.622604E-08
650.3396,-0.01447901,-4.498851E-09,NaN,-0.8385586,-1.330699E-07,NaN,-1.565143,-2.83659E-07,NaN,-1.751036,1.92883E-05,0.01222989,-2.742134E-08,NaN,NaN,-0.1229303,2.002337E-10,-2.089611E-07,-1.108553E-07,-1.793957E-09,-2.622604E-08
650.3544,-0.01448311,-4.49812E-09,NaN,-0.837603,-1.3307E-07,NaN,-1.565368,-2.83788E-07,NaN,-1.744978,1.928874E-05,0.003932057,-2.729086E-08,NaN,NaN,-0.1236241,2.002337E-10,-1.998155E-07,-1.108545E-07,5.902283E-10,-2.622604E-08
650.3724,-0.01448752,-4.49739E-09,NaN,-0.8366268,-1.330701E-07,NaN,-1.56554,-2.839059E-07,NaN,-1.738856,1.928918E-05,-0.004186343,-2.717146E-08,NaN,NaN,-0.1243043,2.002337E-10,-1.898317E-07,-1.108538E-07,-4.178143E-09,-2.622604E-08
650.3868,-0.01449216,-4.496659E-09,NaN,-0.8356424,-1.330702E-07,NaN,-1.565681,-2.840158E-07,NaN,-1.732746,1.928962E-05,-0.01213581,-2.706011E-08,NaN,NaN,-0.1249712,2.002337E-10,-1.818037E-07,-1.108531E-07,-8.946515E-09,-2.622604E-08
650.4028,-0.01449717,-4.495929E-09,NaN,-0.834588,-1.330703E-07,NaN,-1.56594,-2.841205E-07,NaN,-1.726112,1.929006E-05,-0.02148944,-2.695382E-08,NaN,NaN,-0.1257543,2.002337E-10,-1.689515E-07,-1.108524E-07,-6.562329E-09,-2.622604E-08
650.4183,-0.01449717,-4.495929E-09,NaN,-0.834588,-1.330703E-07,NaN,-1.56594,-2.841205E-07,NaN,-1.726112,1.929006E-05,-0.02148944,-2.695382E-08,NaN,NaN,-0.1257543,2.002337E-10,-1.689515E-07,-1.108524E-07,-6.562329E-09,-2.622604E-08
650.4335,-0.01450255,-4.495198E-09,NaN,-0.8334951,-1.330705E-07,NaN,-1.56611,-2.842203E-07,NaN,-1.719272,1.92905E-05,-0.03064256,-2.68525E-08,NaN,NaN,-0.1265221,2.002337E-10,-1.563227E-07,-1.108517E-07,-8.946515E-09,-2.622604E-08
650.4498,-0.01450822,-4.494468E-09,NaN,-0.8323833,-1.330706E-07,NaN,-1.566232,-2.843152E-07,NaN,-1.712379,1.929093E-05,-0.03960089,-2.675606E-08,NaN,NaN,-0.1272749,2.002337E-10,-1.446626E-07,-1.10851E-07,-6.562329E-09,-2.622604E-08
650.4655,-0.01451412,-4.493738E-09,NaN,-0.8312649,-1.330707E-07,NaN,-1.566323,-2.844082E-07,NaN,-1.705509,1.929137E-05,-0.04837394,-2.666158E-08,NaN,NaN,-0.1280128,2.002337E-10,-1.314005E-07,-1.108503E-07,-4.178143E-09,-2.622604E-08
650.4813,-0.01451766,-4.493008E-09,NaN,-0.830979,-1.330709E-07,NaN,-1.565076,-2.844993E-07,NaN,-1.705576,1.929181E-05,-0.03827192,-2.6569E-08,NaN,NaN,-0.1271842,2.002337E-10,-1.831821E-07,-1.108496E-07,-2.325163E-08,-2.622604E-08
650.4973,-0.01451766,-4.493008E-09,NaN,-0.830979,-1.330709E-07,NaN,-1.565076,-2.844993E-07,NaN,-1.705576,1.929181E-05,-0.03827192,-2.6569E-08,NaN,NaN,-0.1271842,2.002337E-10,-1.831821E-07,-1.108496E-07,-2.325163E-08,-2.622604E-08
650.5123,-0.01451837,-4.492278E-09,NaN,-0.8312065,-1.33071E-07,NaN,-1.564409,-2.845856E-07,NaN,-1.709001,1.929225E-05,-0.02844815,-2.648113E-08,NaN,NaN,-0.1263719,2.002337E-10,-2.134175E-07,-1.108489E-07,-2.563582E-08,-2.622604E-08
650.5287,-0.0145178,-4.491548E-09,NaN,-0.8317499,-1.330712E-07,NaN,-1.563967,-2.846702E-07,NaN,-1.714073,1.929269E-05,-0.01887335,-2.639504E-08,NaN,NaN,-0.1255755,2.002337E-10,-2.343629E-07,-1.108483E-07,-2.086744E-08,-2.622604E-08
650.5444,-0.01451659,-4.490817E-09,NaN,-0.8324857,-1.330713E-07,NaN,-1.563607,-2.84753E-07,NaN,-1.719935,1.929313E-05,-0.009505372,-2.63107E-08,NaN,NaN,-0.1247947,2.002337E-10,-2.48817E-07,-1.108476E-07,-1.848326E-08,-2.622604E-08
650.5604,-0.01451507,-4.490087E-09,NaN,-0.8332678,-1.330714E-07,NaN,-1.563403,-2.848342E-07,NaN,-1.725582,1.929356E-05,-0.001890533,-2.622808E-08,NaN,NaN,-0.1241587,2.002337E-10,-2.5488E-07,-1.108469E-07,-8.946515E-09,-2.622604E-08
650.5757,-0.01451507,-4.490087E-09,NaN,-0.8332678,-1.330714E-07,NaN,-1.563403,-2.848342E-07,NaN,-1.725582,1.929356E-05,-0.001890533,-2.622808E-08,NaN,NaN,-0.1241587,2.002337E-10,-2.5488E-07,-1.108469E-07,-8.946515E-09,-2.622604E-08
650.5909,-0.01451323,-4.489357E-09,NaN,-0.8340749,-1.330716E-07,NaN,-1.563165,-2.849108E-07,NaN,-1.731096,1.9294E-05,0.005579021,-2.614997E-08,NaN,NaN,-0.1235351,2.002337E-10,-2.60405E-07,-1.108462E-07,-6.562329E-09,-2.622604E-08
650.6075,-0.01451113,-4.488627E-09,NaN,-0.8348938,-1.330717E-07,NaN,-1.562914,-2.849858E-07,NaN,-1.736509,1.929444E-05,0.0129087,-2.607345E-08,NaN,NaN,-0.1229237,2.002337E-10,-2.655808E-07,-1.108456E-07,-1.13307E-08,-2.622604E-08
650.6234,-0.01450884,-4.487897E-09,NaN,-0.8357164,-1.330718E-07,NaN,-1.562656,-2.850592E-07,NaN,-1.741836,1.929487E-05,0.02009873,-2.599849E-08,NaN,NaN,-0.1223244,2.048903E-10,-2.683283E-07,-1.108449E-07,-1.13307E-08,-2.622604E-08
650.6392,-0.01450884,-4.487897E-09,NaN,-0.8357164,-1.330718E-07,NaN,-1.562656,-2.850592E-07,NaN,-1.741836,1.929487E-05,0.02009873,-2.599849E-08,NaN,NaN,-0.1223244,2.048903E-10,-2.683283E-07,-1.108449E-07,-1.13307E-08,-2.622604E-08
650.654,-0.01450666,-4.487167E-09,NaN,-0.8364681,-1.33072E-07,NaN,-1.562548,-2.851311E-07,NaN,-1.746509,1.929531E-05,0.02557952,-2.592507E-08,NaN,NaN,-0.1218662,2.048903E-10,-2.687287E-07,-1.108442E-07,-1.609907E-08,-2.622604E-08
650.6707,-0.01450464,-4.486437E-09,NaN,-0.8371728,-1.330721E-07,NaN,-1.562387,-2.851988E-07,NaN,-1.750833,1.929575E-05,0.03095907,-2.585591E-08,NaN,NaN,-0.1214169,2.048903E-10,-2.696414E-07,-1.108436E-07,-1.609907E-08,-2.622604E-08
650.686,-0.01450277,-4.485707E-09,NaN,-0.8378453,-1.330722E-07,NaN,-1.562204,-2.85265E-07,NaN,-1.754952,1.929619E-05,0.03624174,-2.578817E-08,NaN,NaN,-0.1209765,2.048903E-10,-2.699022E-07,-1.108429E-07,-2.086744E-08,-2.622604E-08
650.7018,-0.01450104,-4.484977E-09,NaN,-0.8384948,-1.330723E-07,NaN,-1.562014,-2.853298E-07,NaN,-1.75894,1.929663E-05,0.04142486,-2.572182E-08,NaN,NaN,-0.1205447,2.048903E-10,-2.698836E-07,-1.108423E-07,-1.609907E-08,-2.622604E-08
650.7174,-0.01450104,-4.484977E-09,NaN,-0.8384948,-1.330723E-07,NaN,-1.562014,-2.853298E-07,NaN,-1.75894,1.929663E-05,0.04142486,-2.572182E-08,NaN,NaN,-0.1205447,2.048903E-10,-2.698836E-07,-1.108423E-07,-1.609907E-08,-2.622604E-08
650.7326,-0.01449963,-4.484247E-09,NaN,-0.839058,-1.330725E-07,NaN,-1.561993,-2.853933E-07,NaN,-1.762259,1.929707E-05,0.04493338,-2.565684E-08,NaN,NaN,-0.1202508,2.048903E-10,-2.671082E-07,-1.108416E-07,-1.13307E-08,-2.622604E-08
650.7491,-0.01449851,-4.483517E-09,NaN,-0.8395655,-1.330726E-07,NaN,-1.561909,-2.854526E-07,NaN,-1.765229,1.92975E-05,0.04837806,-2.559601E-08,NaN,NaN,-0.1199627,2.048903E-10,-2.665308E-07,-1.108409E-07,-1.13307E-08,-2.622604E-08
650.765,-0.01449753,-4.482787E-09,NaN,-0.8400361,-1.330727E-07,NaN,-1.561799,-2.855107E-07,NaN,-1.768004,1.929794E-05,0.05176499,-2.553645E-08,NaN,NaN,-0.1196802,2.048903E-10,-2.655809E-07,-1.108403E-07,-1.609907E-08,-2.622604E-08
650.7806,-0.01449663,-4.482058E-09,NaN,-0.840482,-1.330729E-07,NaN,-1.561681,-2.855675E-07,NaN,-1.770661,1.929838E-05,0.05508967,-2.547811E-08,NaN,NaN,-0.1194032,2.048903E-10,-2.64277E-07,-1.108397E-07,-2.086744E-08,-2.622604E-08
650.7965,-0.01449663,-4.482058E-09,NaN,-0.840482,-1.330729E-07,NaN,-1.561681,-2.855675E-07,NaN,-1.770661,1.929838E-05,0.05508967,-2.547811E-08,NaN,NaN,-0.1194032,2.048903E-10,-2.64277E-07,-1.108397E-07,-2.086744E-08,-2.622604E-08
650.8114,-0.01449592,-4.481328E-09,NaN,-0.8408412,-1.33073E-07,NaN,-1.561744,-2.856231E-07,NaN,-1.772665,1.929882E-05,0.05677392,-2.542098E-08,NaN,NaN,-0.1192611,2.048903E-10,-2.611478E-07,-1.10839E-07,-1.848326E-08,-2.622604E-08
650.8279,-0.01449532,-4.480599E-09,NaN,-0.8411454,-1.330731E-07,NaN,-1.561737,-2.856747E-07,NaN,-1.774337,1.929926E-05,0.05842911,-2.536785E-08,NaN,NaN,-0.1191217,2.048903E-10,-2.598067E-07,-1.108384E-07,-1.848326E-08,-2.622604E-08
650.8439,-0.01449479,-4.479869E-09,NaN,-0.8414142,-1.330732E-07,NaN,-1.561699,-2.857252E-07,NaN,-1.775831,1.92997E-05,0.060063,-2.531583E-08,NaN,NaN,-0.1189851,2.048903E-10,-2.584283E-07,-1.108377E-07,-2.086744E-08,-2.622604E-08
650.8597,-0.01449479,-4.479869E-09,NaN,-0.8414142,-1.330732E-07,NaN,-1.561699,-2.857252E-07,NaN,-1.775831,1.92997E-05,0.060063,-2.531583E-08,NaN,NaN,-0.1189851,2.048903E-10,-2.584283E-07,-1.108377E-07,-2.086744E-08,-2.622604E-08
650.8763,-0.01449446,-4.479139E-09,NaN,-0.8415907,-1.330734E-07,NaN,-1.561839,-2.857746E-07,NaN,-1.77665,1.930013E-05,0.06009195,-2.526489E-08,NaN,NaN,-0.1189806,2.048903E-10,-2.555226E-07,-1.108371E-07,-2.086744E-08,-2.622604E-08
650.8916,-0.01449425,-4.47841E-09,NaN,-0.8417094,-1.330735E-07,NaN,-1.5619,-2.85823E-07,NaN,-1.777135,1.930057E-05,0.06012554,-2.521502E-08,NaN,NaN,-0.1189762,2.048903E-10,-2.543305E-07,-1.108365E-07,-1.371489E-08,-2.622604E-08
650.9072,-0.01449413,-4.47768E-09,NaN,-0.8417919,-1.330736E-07,NaN,-1.561925,-2.858675E-07,NaN,-1.77745,1.930101E-05,0.06017118,-2.5169E-08,NaN,NaN,-0.1189718,2.048903E-10,-2.528031E-07,-1.108358E-07,-1.371489E-08,-2.622604E-08
650.9227,-0.01449405,-4.47695E-09,NaN,-0.8418517,-1.330738E-07,NaN,-1.561936,-2.859111E-07,NaN,-1.777677,1.930145E-05,0.06022136,-2.512396E-08,NaN,NaN,-0.1189675,2.048903E-10,-2.511267E-07,-1.108352E-07,-1.13307E-08,-2.622604E-08
650.9384,-0.01449405,-4.47695E-09,NaN,-0.8418517,-1.330738E-07,NaN,-1.561936,-2.859111E-07,NaN,-1.777677,1.930145E-05,0.06022136,-2.512396E-08,NaN,NaN,-0.1189675,2.048903E-10,-2.511267E-07,-1.108352E-07,-1.13307E-08,-2.622604E-08
650.9534,-0.01449416,-4.476221E-09,NaN,-0.8418295,-1.330739E-07,NaN,-1.562132,-2.859536E-07,NaN,-1.777281,1.930189E-05,0.05869528,-2.507986E-08,NaN,NaN,-0.1190927,2.048903E-10,-2.481093E-07,-1.108346E-07,-1.371489E-08,-2.622604E-08
650.9699,-0.0144944,-4.475491E-09,NaN,-0.8417569,-1.33074E-07,NaN,-1.562246,-2.859953E-07,NaN,-1.776586,1.930233E-05,0.05720392,-2.503669E-08,NaN,NaN,-0.1192155,2.048903E-10,-2.468054E-07,-1.108339E-07,-1.13307E-08,-2.622604E-08
650.9857,-0.0144947,-4.474761E-09,NaN,-0.8416534,-1.330741E-07,NaN,-1.562322,-2.860361E-07,NaN,-1.775747,1.930276E-05,0.05575494,-2.499442E-08,NaN,NaN,-0.1193358,2.048903E-10,-2.451663E-07,-1.108333E-07,-1.848326E-08,-2.622604E-08
651.0015,-0.01449506,-4.474032E-09,NaN,-0.8415314,-1.330743E-07,NaN,-1.562382,-2.860731E-07,NaN,-1.774842,1.93032E-05,0.05434021,-2.495588E-08,NaN,NaN,-0.1194538,2.048903E-10,-2.434527E-07,-1.108327E-07,-1.609907E-08,-2.622604E-08
651.0174,-0.01449506,-4.474032E-09,NaN,-0.8415314,-1.330743E-07,NaN,-1.562382,-2.860731E-07,NaN,-1.774842,1.93032E-05,0.05434021,-2.495588E-08,NaN,NaN,-0.1194538,2.048903E-10,-2.434527E-07,-1.108327E-07,-1.609907E-08,-2.622604E-08
651.0327,-0.01449559,-4.473302E-09,NaN,-0.8413292,-1.330744E-07,NaN,-1.562622,-2.861093E-07,NaN,-1.773335,1.930364E-05,0.05137891,-2.491815E-08,NaN,NaN,-0.1196989,2.048903E-10,-2.403234E-07,-1.108321E-07,-1.609907E-08,-2.622604E-08
651.049,-0.01449624,-4.472573E-09,NaN,-0.8410783,-1.330745E-07,NaN,-1.562776,-2.861447E-07,NaN,-1.771546,1.930408E-05,0.04848206,-2.488122E-08,NaN,NaN,-0.1199392,2.048903E-10,-2.384422E-07,-1.108315E-07,-1.609907E-08,-2.622604E-08
651.0646,-0.01449696,-4.471843E-09,NaN,-0.8407985,-1.330746E-07,NaN,-1.56289,-2.861793E-07,NaN,-1.769631,1.930452E-05,0.04565566,-2.484508E-08,NaN,NaN,-0.1201747,2.048903E-10,-2.35909E-07,-1.108308E-07,-2.325163E-08,-2.622604E-08
651.0804,-0.01449773,-4.471113E-09,NaN,-0.8405021,-1.330748E-07,NaN,-1.562985,-2.862104E-07,NaN,-1.767665,1.930496E-05,0.04289103,-2.481254E-08,NaN,NaN,-0.1204057,2.048903E-10,-2.334316E-07,-1.108302E-07,-2.325163E-08,-2.622604E-08
651.0963,-0.01449773,-4.471113E-09,NaN,-0.8405021,-1.330748E-07,NaN,-1.562985,-2.862104E-07,NaN,-1.767665,1.930496E-05,0.04289103,-2.481254E-08,NaN,NaN,-0.1204057,2.048903E-10,-2.334316E-07,-1.108302E-07,-2.325163E-08,-2.622604E-08
651.1115,-0.01449868,-4.470384E-09,NaN,-0.8401276,-1.330749E-07,NaN,-1.563249,-2.862407E-07,NaN,-1.765113,1.930539E-05,0.03860814,-2.478069E-08,NaN,NaN,-0.1207615,2.048903E-10,-2.284956E-07,-1.108296E-07,-2.325163E-08,-2.622604E-08
651.1279,-0.01449976,-4.469654E-09,NaN,-0.8397064,-1.33075E-07,NaN,-1.563427,-2.862703E-07,NaN,-1.762295,1.930583E-05,0.03441785,-2.474954E-08,NaN,NaN,-0.1211103,2.048903E-10,-2.251615E-07,-1.10829E-07,-2.325163E-08,-2.622604E-08
651.1437,-0.0145009,-4.468924E-09,NaN,-0.8392584,-1.330751E-07,NaN,-1.563563,-2.862993E-07,NaN,-1.759365,1.930627E-05,0.03032352,-2.471905E-08,NaN,NaN,-0.1214524,2.048903E-10,-2.223675E-07,-1.108284E-07,-2.325163E-08,-2.622604E-08
651.1599,-0.0145009,-4.468924E-09,NaN,-0.8392584,-1.330751E-07,NaN,-1.563563,-2.862993E-07,NaN,-1.759365,1.930627E-05,0.03032352,-2.471905E-08,NaN,NaN,-0.1214524,2.048903E-10,-2.223675E-07,-1.108284E-07,-2.325163E-08,-2.622604E-08
651.1744,-0.01450212,-4.468195E-09,NaN,-0.8387957,-1.330752E-07,NaN,-1.563677,-2.863248E-07,NaN,-1.7564,1.930671E-05,0.02631626,-2.469205E-08,NaN,NaN,-0.1217877,2.048903E-10,-2.192197E-07,-1.108278E-07,-2.086744E-08,-2.622604E-08
651.1906,-0.01450368,-4.467466E-09,NaN,-0.8382568,-1.330754E-07,NaN,-1.563945,-2.863497E-07,NaN,-1.752864,1.930715E-05,0.02081802,-2.466565E-08,NaN,NaN,-0.1222458,2.048903E-10,-2.136829E-07,-1.108272E-07,-2.086744E-08,-2.622604E-08
651.2066,-0.0145056,-4.466737E-09,NaN,-0.8376733,-1.330749E-07,NaN,-1.564129,-2.869953E-07,NaN,-1.749076,1.930758E-05,0.01543871,-2.401852E-08,NaN,NaN,-0.1226949,2.142035E-10,-2.094291E-07,-1.108259E-07,-2.563582E-08,-2.622604E-08
651.2224,-0.01450781,-4.466008E-09,NaN,-0.8370648,-1.330741E-07,NaN,-1.564269,-2.877579E-07,NaN,-1.745191,1.930801E-05,0.01017854,-2.325438E-08,NaN,NaN,-0.1231353,2.188601E-10,-2.04712E-07,-1.108243E-07,-3.040419E-08,-2.622604E-08
651.2383,-0.01450781,-4.466008E-09,NaN,-0.8370648,-1.330741E-07,NaN,-1.564269,-2.877579E-07,NaN,-1.745191,1.930801E-05,0.01017854,-2.325438E-08,NaN,NaN,-0.1231353,2.188601E-10,-2.04712E-07,-1.108243E-07,-3.040419E-08,-2.622604E-08
651.2534,-0.01451024,-4.46528E-09,NaN,-0.8364436,-1.33073E-07,NaN,-1.564387,-2.88576E-07,NaN,-1.741284,1.930844E-05,0.00502861,-2.243477E-08,NaN,NaN,-0.123567,2.235167E-10,-2.004558E-07,-1.108225E-07,-2.325163E-08,-2.622604E-08
651.27,-0.01451308,-4.464552E-09,NaN,-0.8357481,-1.330718E-07,NaN,-1.56464,-2.894174E-07,NaN,-1.736821,1.930888E-05,-0.001585666,-2.159181E-08,NaN,NaN,-0.1241197,2.281733E-10,-1.908259E-07,-1.108207E-07,-2.086744E-08,-2.622604E-08
651.2855,-0.01451631,-4.463824E-09,NaN,-0.8350098,-1.330705E-07,NaN,-1.564811,-2.902648E-07,NaN,-1.73212,1.930931E-05,-0.008056985,-2.074287E-08,NaN,NaN,-0.1246615,2.328299E-10,-1.834126E-07,-1.108188E-07,-2.086744E-08,-2.622604E-08
651.3019,-0.01451983,-4.463095E-09,NaN,-0.8342483,-1.330691E-07,NaN,-1.56494,-2.920884E-07,NaN,-1.727334,1.930974E-05,-0.0143883,-1.891772E-08,NaN,NaN,-0.1251927,2.374866E-10,-1.761483E-07,-1.108168E-07,-1.848326E-08,-2.622604E-08
651.317,-0.01451983,-4.463095E-09,NaN,-0.8342483,-1.330691E-07,NaN,-1.56494,-2.920884E-07,NaN,-1.727334,1.930974E-05,-0.0143883,-1.891772E-08,NaN,NaN,-0.1251927,2.374866E-10,-1.761483E-07,-1.108168E-07,-1.848326E-08,-2.622604E-08
651.3321,-0.0145236,-4.462367E-09,NaN,-0.833476,-1.330677E-07,NaN,-1.565045,-2.938903E-07,NaN,-1.72254,1.931018E-05,-0.02058818,-1.711432E-08,NaN,NaN,-0.1257135,2.421432E-10,-1.682879E-07,-1.108148E-07,-1.371489E-08,-2.622604E-08
651.3485,-0.01452777,-4.461639E-09,NaN,-0.8326312,-1.330663E-07,NaN,-1.565264,-2.956623E-07,NaN,-1.717203,1.931061E-05,-0.02822584,-1.53407E-08,NaN,NaN,-0.1263535,2.467998E-10,-1.568513E-07,-1.108128E-07,-1.371489E-08,-2.622604E-08
651.3642,-0.01453231,-4.46091E-09,NaN,-0.8317453,-1.330649E-07,NaN,-1.565407,-2.973996E-07,NaN,-1.71164,1.931104E-05,-0.03569913,-1.360192E-08,NaN,NaN,-0.1269809,2.514564E-10,-1.461597E-07,-1.108108E-07,-6.562331E-09,-2.622604E-08
651.3817,-0.01453716,-4.460182E-09,NaN,-0.8308381,-1.330634E-07,NaN,-1.56551,-2.991026E-07,NaN,-1.706005,1.931147E-05,-0.04301359,-1.189731E-08,NaN,NaN,-0.127596,2.56113E-10,-1.353191E-07,-1.108088E-07,-8.946516E-09,-2.622604E-08
651.3958,-0.01453716,-4.460182E-09,NaN,-0.8308381,-1.330634E-07,NaN,-1.56551,-2.991026E-07,NaN,-1.706005,1.931147E-05,-0.04301359,-1.189731E-08,NaN,NaN,-0.127596,2.56113E-10,-1.353191E-07,-1.108088E-07,-8.946516E-09,-2.622604E-08
651.4105,-0.01454224,-4.459454E-09,NaN,-0.8299218,-1.33062E-07,NaN,-1.565589,-3.007722E-07,NaN,-1.700375,1.931191E-05,-0.05017725,-1.022618E-08,NaN,NaN,-0.1281991,2.607696E-10,-1.253353E-07,-1.108068E-07,-1.13307E-08,-2.622604E-08
651.4273,-0.01454772,-4.458726E-09,NaN,-0.8289347,-1.330605E-07,NaN,-1.565757,-3.024061E-07,NaN,-1.694214,1.931234E-05,-0.05875192,-8.590714E-09,NaN,NaN,-0.1289197,2.654262E-10,-1.108812E-07,-1.108048E-07,-1.371489E-08,-2.622604E-08
651.4428,-0.01455357,-4.457998E-09,NaN,-0.8279082,-1.330591E-07,NaN,-1.565856,-3.040079E-07,NaN,-1.687839,1.931277E-05,-0.06714373,-6.987363E-09,NaN,NaN,-0.1296262,2.700828E-10,-9.635258E-08,-1.108028E-07,-1.13307E-08,-2.622604E-08
651.4589,-0.01455357,-4.457998E-09,NaN,-0.8279082,-1.330591E-07,NaN,-1.565856,-3.040079E-07,NaN,-1.687839,1.931277E-05,-0.06714373,-6.987363E-09,NaN,NaN,-0.1296262,2.700828E-10,-9.635258E-08,-1.108028E-07,-1.13307E-08,-2.622604E-08
651.4738,-0.01455972,-4.457271E-09,NaN,-0.8268621,-1.330576E-07,NaN,-1.565919,-3.055754E-07,NaN,-1.681404,1.931321E-05,-0.07535982,-5.418339E-09,NaN,NaN,-0.1303188,2.747394E-10,-8.301604E-08,-1.108008E-07,-6.56233E-09,-2.622604E-08
651.4906,-0.01456608,-4.456543E-09,NaN,-0.8258085,-1.330562E-07,NaN,-1.565959,-3.071092E-07,NaN,-1.674984,1.931364E-05,-0.08340754,-3.882966E-09,NaN,NaN,-0.1309978,2.79396E-10,-6.975401E-08,-1.107988E-07,-4.178144E-09,-2.622604E-08
651.5063,-0.0145722,-4.455815E-09,NaN,-0.8247554,-1.330548E-07,NaN,-1.565983,-3.0861E-07,NaN,-1.668619,1.931407E-05,-0.09129179,-2.380585E-09,NaN,NaN,-0.1316627,2.840526E-10,-5.708802E-08,-1.107969E-07,-1.793959E-09,-2.622604E-08
651.5218,-0.01457817,-4.455087E-09,NaN,-0.8237073,-1.330533E-07,NaN,-1.565994,-3.100784E-07,NaN,-1.662326,1.93145E-05,-0.09901677,-9.105525E-10,NaN,NaN,-0.1323145,2.887093E-10,-4.479456E-08,-1.107949E-07,5.90227E-10,-2.622604E-08
651.5375,-0.01457817,-4.455087E-09,NaN,-0.8237073,-1.330533E-07,NaN,-1.565994,-3.100784E-07,NaN,-1.662326,1.93145E-05,-0.09901677,-9.105525E-10,NaN,NaN,-0.1323145,2.887093E-10,-4.479456E-08,-1.107949E-07,5.90227E-10,-2.622604E-08
651.5523,-0.01458407,-4.45436E-09,NaN,-0.8226671,-1.330519E-07,NaN,-1.565995,-3.11518E-07,NaN,-1.656114,1.931494E-05,-0.1065861,5.305958E-10,NaN,NaN,-0.1329535,2.933659E-10,-3.153253E-08,-1.107929E-07,2.974413E-09,-2.622604E-08
651.569,-0.01458994,-4.453633E-09,NaN,-0.8216363,-1.330509E-07,NaN,-1.565987,-3.12248E-07,NaN,-1.649986,1.931538E-05,-0.1140033,1.262149E-09,NaN,NaN,-0.13358,2.980225E-10,-1.901556E-08,-1.107935E-07,2.974413E-09,-2.861022E-08
651.5849,-0.01459557,-4.452906E-09,NaN,-0.8206852,-1.330508E-07,NaN,-1.565918,-3.12688E-07,NaN,-1.644517,1.931583E-05,-0.1197336,1.703701E-09,NaN,NaN,-0.134065,2.887093E-10,-1.514125E-08,-1.107948E-07,-4.178144E-09,-2.622604E-08
651.6007,-0.01460095,-4.45218E-09,NaN,-0.8197876,-1.330511E-07,NaN,-1.565874,-3.129674E-07,NaN,-1.63941,1.931627E-05,-0.1253531,1.984655E-09,NaN,NaN,-0.1345404,2.887093E-10,-8.435731E-09,-1.107964E-07,-1.793959E-09,-2.861022E-08
651.6167,-0.01460095,-4.45218E-09,NaN,-0.8197876,-1.330511E-07,NaN,-1.565874,-3.129674E-07,NaN,-1.63941,1.931627E-05,-0.1253531,1.984655E-09,NaN,NaN,-0.1345404,2.887093E-10,-8.435731E-09,-1.107964E-07,-1.793959E-09,-2.861022E-08
651.632,-0.01460612,-4.451453E-09,NaN,-0.818927,-1.330517E-07,NaN,-1.56584,-3.131569E-07,NaN,-1.634518,1.931671E-05,-0.1308624,2.175673E-09,NaN,NaN,-0.1350065,2.887093E-10,-6.871277E-10,-1.107982E-07,5.90227E-10,-2.622604E-08
651.6481,-0.01461111,-4.450727E-09,NaN,-0.8180932,-1.330525E-07,NaN,-1.565808,-3.13292E-07,NaN,-1.62977,1.931715E-05,-0.1362624,2.312252E-09,NaN,NaN,-0.1354635,2.887093E-10,7.210487E-09,-1.108001E-07,2.974413E-09,-2.861022E-08
651.6639,-0.01461576,-4.45E-09,NaN,-0.8173488,-1.330534E-07,NaN,-1.565742,-3.133962E-07,NaN,-1.625701,1.931759E-05,-0.1400245,2.417957E-09,NaN,NaN,-0.1357822,2.887093E-10,5.124325E-09,-1.10802E-07,-1.793959E-09,-2.622604E-08
651.6796,-0.01461576,-4.45E-09,NaN,-0.8173488,-1.330534E-07,NaN,-1.565742,-3.133962E-07,NaN,-1.625701,1.931759E-05,-0.1400245,2.417957E-09,NaN,NaN,-0.1357822,2.887093E-10,5.124325E-09,-1.10802E-07,-1.793959E-09,-2.622604E-08
651.6949,-0.01462007,-4.449274E-09,NaN,-0.816663,-1.330544E-07,NaN,-1.565696,-3.134842E-07,NaN,-1.621994,1.931804E-05,-0.1437127,2.507472E-09,NaN,NaN,-0.1360947,2.887093E-10,6.912464E-09,-1.10804E-07,-1.793959E-09,-2.861022E-08
651.7113,-0.0146241,-4.448547E-09,NaN,-0.8160164,-1.330554E-07,NaN,-1.565658,-3.135619E-07,NaN,-1.618493,1.931848E-05,-0.1473281,2.586724E-09,NaN,NaN,-0.1364011,2.840526E-10,9.296651E-09,-1.10806E-07,-4.178144E-09,-2.622604E-08
651.727,-0.01462791,-4.447821E-09,NaN,-0.8153968,-1.330564E-07,NaN,-1.565624,-3.136352E-07,NaN,-1.615121,1.931893E-05,-0.1508718,2.661548E-09,NaN,NaN,-0.1367015,2.840526E-10,1.272392E-08,-1.108081E-07,-4.178144E-09,-2.861022E-08
651.7429,-0.01463136,-4.447094E-09,NaN,-0.8148661,-1.330574E-07,NaN,-1.565571,-3.137042E-07,NaN,-1.612411,1.931937E-05,-0.1528196,2.732013E-09,NaN,NaN,-0.1368667,2.79396E-10,4.826303E-09,-1.108101E-07,-6.56233E-09,-2.622604E-08
651.7586,-0.01463136,-4.447094E-09,NaN,-0.8148661,-1.330574E-07,NaN,-1.565571,-3.137042E-07,NaN,-1.612411,1.931937E-05,-0.1528196,2.732013E-09,NaN,NaN,-0.1368667,2.79396E-10,4.826303E-09,-1.108101E-07,-6.56233E-09,-2.622604E-08
651.7735,-0.01463444,-4.446368E-09,NaN,-0.8143926,-1.330585E-07,NaN,-1.565531,-3.137745E-07,NaN,-1.610045,1.931982E-05,-0.1547274,2.803852E-09,NaN,NaN,-0.1370287,2.79396E-10,8.029897E-10,-1.108121E-07,-8.946516E-09,-2.861022E-08
651.7899,-0.01463722,-4.445641E-09,NaN,-0.8139564,-1.330595E-07,NaN,-1.565498,-3.138434E-07,NaN,-1.607867,1.932026E-05,-0.1565968,2.874202E-09,NaN,NaN,-0.1371876,2.747394E-10,-1.283173E-09,-1.108141E-07,-1.371489E-08,-2.622604E-08
651.8055,-0.01463977,-4.444915E-09,NaN,-0.8135453,-1.330606E-07,NaN,-1.565467,-3.139136E-07,NaN,-1.605799,1.932071E-05,-0.1584288,2.945926E-09,NaN,NaN,-0.1373433,2.747394E-10,-2.922301E-09,-1.108161E-07,-1.371489E-08,-2.861022E-08
651.8215,-0.01464195,-4.444188E-09,NaN,-0.8132208,-1.330616E-07,NaN,-1.565426,-3.139824E-07,NaN,-1.604375,1.932115E-05,-0.1587015,3.01616E-09,NaN,NaN,-0.1373667,2.700828E-10,-1.558829E-08,-1.108181E-07,-8.946516E-09,-2.622604E-08
651.8372,-0.01464195,-4.444188E-09,NaN,-0.8132208,-1.330616E-07,NaN,-1.565426,-3.139824E-07,NaN,-1.604375,1.932115E-05,-0.1587015,3.01616E-09,NaN,NaN,-0.1373667,2.700828E-10,-1.558829E-08,-1.108181E-07,-8.946516E-09,-2.622604E-08
651.8521,-0.01464376,-4.443462E-09,NaN,-0.8129511,-1.330626E-07,NaN,-1.565394,-3.140525E-07,NaN,-1.603275,1.932159E-05,-0.1589658,3.087764E-09,NaN,NaN,-0.1373897,2.700828E-10,-2.378393E-08,-1.108201E-07,-1.13307E-08,-2.861022E-08
651.8688,-0.01464528,-4.442735E-09,NaN,-0.8127166,-1.330636E-07,NaN,-1.565365,-3.14124E-07,NaN,-1.602345,1.932205E-05,-0.1592234,3.160709E-09,NaN,NaN,-0.1374122,2.56113E-10,-3.019143E-08,-1.108221E-07,-6.56233E-09,-2.622604E-08
651.8854,-0.01464656,-4.442008E-09,NaN,-0.8125048,-1.330647E-07,NaN,-1.565339,-3.141967E-07,NaN,-1.601506,1.932249E-05,-0.159475,3.234968E-09,NaN,NaN,-0.1374343,2.56113E-10,-3.466177E-08,-1.108241E-07,-4.178144E-09,-2.861022E-08
651.9001,-0.01464751,-4.441281E-09,NaN,-0.8123772,-1.330657E-07,NaN,-1.565305,-3.142708E-07,NaN,-1.601294,1.932294E-05,-0.1581994,3.310515E-09,NaN,NaN,-0.1373267,2.514564E-10,-5.075503E-08,-1.108261E-07,-1.13307E-08,-2.622604E-08
651.9155,-0.01464751,-4.441281E-09,NaN,-0.8123772,-1.330657E-07,NaN,-1.565305,-3.142708E-07,NaN,-1.601294,1.932294E-05,-0.1581994,3.310515E-09,NaN,NaN,-0.1373267,2.514564E-10,-5.075503E-08,-1.108261E-07,-1.13307E-08,-2.622604E-08
651.9304,-0.01464826,-4.440554E-09,NaN,-0.8123021,-1.330667E-07,NaN,-1.565277,-3.143433E-07,NaN,-1.601388,1.932338E-05,-0.1569447,3.384496E-09,NaN,NaN,-0.1372212,2.514564E-10,-6.3272E-08,-1.108281E-07,-1.13307E-08,-2.861022E-08
651.9471,-0.01464891,-4.439827E-09,NaN,-0.8122599,-1.330677E-07,NaN,-1.565249,-3.144171E-07,NaN,-1.601634,1.932383E-05,-0.1557126,3.459773E-09,NaN,NaN,-0.1371178,2.467998E-10,-7.385183E-08,-1.1083E-07,-6.56233E-09,-2.622604E-08
651.9628,-0.0146495,-4.4391E-09,NaN,-0.812238,-1.330687E-07,NaN,-1.565223,-3.144921E-07,NaN,-1.601954,1.932427E-05,-0.1545035,3.536317E-09,NaN,NaN,-0.1370164,2.467998E-10,-8.234549E-08,-1.10832E-07,-4.178144E-09,-2.861022E-08
651.9789,-0.0146495,-4.4391E-09,NaN,-0.812238,-1.330687E-07,NaN,-1.565223,-3.144921E-07,NaN,-1.601954,1.932427E-05,-0.1545035,3.536317E-09,NaN,NaN,-0.1370164,2.467998E-10,-8.234549E-08,-1.10832E-07,-4.178144E-09,-2.861022E-08
651.9938,-0.01464992,-4.438373E-09,NaN,-0.8122967,-1.330697E-07,NaN,-1.565188,-3.145684E-07,NaN,-1.602884,1.932472E-05,-0.1517947,3.614106E-09,NaN,NaN,-0.1367877,2.421432E-10,-1.032071E-07,-1.108339E-07,-1.793959E-09,-2.622604E-08
652.01,-0.01465022,-4.437646E-09,NaN,-0.8124048,-1.330708E-07,NaN,-1.565155,-3.14646E-07,NaN,-1.604104,1.932516E-05,-0.1491346,3.693112E-09,NaN,NaN,-0.1365636,2.421432E-10,-1.187043E-07,-1.108359E-07,-1.793959E-09,-2.861022E-08
652.0262,-0.01465044,-4.436919E-09,NaN,-0.8125429,-1.330718E-07,NaN,-1.565123,-3.147247E-07,NaN,-1.605459,1.932561E-05,-0.1465241,3.773316E-09,NaN,NaN,-0.1363437,2.374866E-10,-1.313703E-07,-1.108378E-07,-1.793959E-09,-2.622604E-08
652.0417,-0.01465062,-4.436192E-09,NaN,-0.812699,-1.330728E-07,NaN,-1.56509,-3.148018E-07,NaN,-1.606872,1.932605E-05,-0.1439633,3.85186E-09,NaN,NaN,-0.1361282,2.374866E-10,-1.425462E-07,-1.108397E-07,-4.178144E-09,-2.861022E-08
652.0578,-0.01465062,-4.436192E-09,NaN,-0.812699,-1.330728E-07,NaN,-1.56509,-3.148018E-07,NaN,-1.606872,1.932605E-05,-0.1439633,3.85186E-09,NaN,NaN,-0.1361282,2.374866E-10,-1.425462E-07,-1.108397E-07,-4.178144E-09,-2.861022E-08
652.0728,-0.01465064,-4.435465E-09,NaN,-0.8129346,-1.330738E-07,NaN,-1.565043,-3.1488E-07,NaN,-1.608877,1.93265E-05,-0.1399268,3.931611E-09,NaN,NaN,-0.1357878,2.328299E-10,-1.641529E-07,-1.108417E-07,-1.793959E-09,-2.622604E-08
652.0894,-0.01465054,-4.434738E-09,NaN,-0.8132184,-1.330747E-07,NaN,-1.564997,-3.149595E-07,NaN,-1.611156,1.932694E-05,-0.1359647,4.012546E-09,NaN,NaN,-0.1354539,2.328299E-10,-1.811402E-07,-1.108436E-07,5.90227E-10,-2.861022E-08
652.1052,-0.01465036,-4.434011E-09,NaN,-0.8135306,-1.330757E-07,NaN,-1.564951,-3.150401E-07,NaN,-1.613554,1.932739E-05,-0.1320775,4.09464E-09,NaN,NaN,-0.1351266,2.281733E-10,-1.952963E-07,-1.108455E-07,-4.178144E-09,-2.622604E-08
652.1208,-0.01465014,-4.433284E-09,NaN,-0.8138589,-1.330767E-07,NaN,-1.564903,-3.151218E-07,NaN,-1.615994,1.932783E-05,-0.1282646,4.177867E-09,NaN,NaN,-0.1348056,2.281733E-10,-2.084838E-07,-1.108474E-07,-4.178144E-09,-2.861022E-08
652.1364,-0.01465014,-4.433284E-09,NaN,-0.8138589,-1.330767E-07,NaN,-1.564903,-3.151218E-07,NaN,-1.615994,1.932783E-05,-0.1282646,4.177867E-09,NaN,NaN,-0.1348056,2.281733E-10,-2.084838E-07,-1.108474E-07,-4.178144E-09,-2.861022E-08
652.1512,-0.01464975,-4.432557E-09,NaN,-0.814265,-1.330777E-07,NaN,-1.564832,-3.152047E-07,NaN,-1.619011,1.932827E-05,-0.1229964,4.262206E-09,NaN,NaN,-0.1343618,2.281733E-10,-2.30165E-07,-1.108493E-07,-1.793959E-09,-2.622604E-08
652.1678,-0.01464924,-4.431829E-09,NaN,-0.8147172,-1.330787E-07,NaN,-1.564763,-3.152858E-07,NaN,-1.622287,1.932871E-05,-0.117827,4.344811E-09,NaN,NaN,-0.1339266,2.281733E-10,-2.476739E-07,-1.108512E-07,5.90227E-10,-2.861022E-08
652.1835,-0.01464866,-4.431102E-09,NaN,-0.815196,-1.330797E-07,NaN,-1.564693,-3.15368E-07,NaN,-1.625668,1.932916E-05,-0.1127559,4.42854E-09,NaN,NaN,-0.1334999,2.235167E-10,-2.61532E-07,-1.108531E-07,2.974413E-09,-2.622604E-08
