JMolnar6/NonAnthroHands_User_Study/HandsLoggerWithURDF/tempdata/files/Reachy_PID0_JointMotion_gesture_2_12.csv
Time,r_shoulder,r_shoulder_x,r_upper_arm,r_forearm,r_wrist,r_wrist2hand,
146.2606,0.04526031,-2.885554E-08,NaN,-0.3382148,-1.377689E-07,NaN,0.2227829,5.195527E-08,NaN,-2.155564,4.556423E-06,-0.3789202,-1.471577E-08,NaN,NaN,-0.02007054,-5.913903E-10,-1.052957E-06,-1.153781E-07,-1.509557E-08,-2.861022E-08
146.276,0.04526031,-2.885554E-08,NaN,-0.3382148,-1.377689E-07,NaN,0.2227829,5.195527E-08,NaN,-2.155564,4.556423E-06,-0.3789202,-1.471577E-08,NaN,NaN,-0.02007054,-5.913903E-10,-1.052957E-06,-1.153781E-07,-1.509557E-08,-2.861022E-08
146.2888,0.04525894,-2.885437E-08,NaN,-0.3380823,-1.377681E-07,NaN,0.2246365,5.198606E-08,NaN,-2.155545,4.557113E-06,-0.3795672,-1.474413E-08,NaN,NaN,-0.02007254,-5.820771E-10,-1.083793E-06,-1.153758E-07,-1.509557E-08,-2.622604E-08
146.3065,0.04525758,-2.88532E-08,NaN,-0.3379513,-1.377673E-07,NaN,0.2272994,5.201711E-08,NaN,-2.15555,4.557811E-06,-0.3800775,-1.477275E-08,NaN,NaN,-0.02007407,-5.867337E-10,-1.108452E-06,-1.153735E-07,-1.390347E-08,-2.861022E-08
146.32,0.04525624,-2.885203E-08,NaN,-0.3378219,-1.377665E-07,NaN,0.2303901,5.204841E-08,NaN,-2.155547,4.558501E-06,-0.3803793,-1.480162E-08,NaN,NaN,-0.02007495,-5.820771E-10,-1.124098E-06,-1.153713E-07,-1.151929E-08,-2.622604E-08
146.3336,0.04525624,-2.885203E-08,NaN,-0.3378219,-1.377665E-07,NaN,0.2303901,5.204841E-08,NaN,-2.155547,4.558501E-06,-0.3803793,-1.480162E-08,NaN,NaN,-0.02007495,-5.820771E-10,-1.124098E-06,-1.153713E-07,-1.151929E-08,-2.622604E-08
146.3476,0.04525491,-2.885086E-08,NaN,-0.337694,-1.377657E-07,NaN,0.2329303,5.207996E-08,NaN,-2.155447,4.559199E-06,-0.3796531,-1.483073E-08,NaN,NaN,-0.02007267,-5.867337E-10,-1.090096E-06,-1.15369E-07,-1.032719E-08,-2.861022E-08
146.3642,0.0452536,-2.884969E-08,NaN,-0.3375677,-1.377649E-07,NaN,0.234697,5.211105E-08,NaN,-2.155313,4.559889E-06,-0.3790011,-1.485938E-08,NaN,NaN,-0.02007068,-5.820771E-10,-1.062759E-06,-1.153668E-07,-7.943008E-09,-2.622604E-08
146.3774,0.0452536,-2.884969E-08,NaN,-0.3375677,-1.377649E-07,NaN,0.234697,5.211105E-08,NaN,-2.155313,4.559889E-06,-0.3790011,-1.485938E-08,NaN,NaN,-0.02007068,-5.820771E-10,-1.062759E-06,-1.153668E-07,-7.943008E-09,-2.622604E-08
146.3913,0.04525229,-2.884852E-08,NaN,-0.3374429,-1.377641E-07,NaN,0.2360153,5.214238E-08,NaN,-2.15518,4.560578E-06,-0.3785262,-1.488828E-08,NaN,NaN,-0.02006925,-5.774205E-10,-1.043117E-06,-1.153645E-07,-7.943008E-09,-2.861022E-08
146.4067,0.045251,-2.884735E-08,NaN,-0.3373195,-1.377633E-07,NaN,0.2371107,5.217396E-08,NaN,-2.155058,4.561262E-06,-0.3781591,-1.491743E-08,NaN,NaN,-0.02006815,-5.681073E-10,-1.028198E-06,-1.153623E-07,-6.750915E-09,-2.622604E-08
146.4213,0.04524973,-2.884618E-08,NaN,-0.3371976,-1.377625E-07,NaN,0.2373689,5.220577E-08,NaN,-2.154863,4.561952E-06,-0.3769432,-1.494681E-08,NaN,NaN,-0.02006442,-5.634507E-10,-9.73026E-07,-1.153601E-07,-4.36673E-09,-2.861022E-08
146.4359,0.04524973,-2.884618E-08,NaN,-0.3371976,-1.377625E-07,NaN,0.2373689,5.220577E-08,NaN,-2.154863,4.561952E-06,-0.3769432,-1.494681E-08,NaN,NaN,-0.02006442,-5.634507E-10,-9.73026E-07,-1.153601E-07,-4.36673E-09,-2.861022E-08
146.4499,0.04524846,-2.884501E-08,NaN,-0.3370772,-1.377617E-07,NaN,0.2367448,5.223783E-08,NaN,-2.154653,4.562641E-06,-0.3758943,-1.497643E-08,NaN,NaN,-0.02006126,-5.587941E-10,-9.277264E-07,-1.153579E-07,-5.558823E-09,-2.622604E-08
146.4654,0.04524721,-2.884384E-08,NaN,-0.3369582,-1.377609E-07,NaN,0.2356446,5.227011E-08,NaN,-2.154459,4.563331E-06,-0.3750706,-1.500628E-08,NaN,NaN,-0.0200588,-5.541375E-10,-8.927832E-07,-1.153557E-07,-4.36673E-09,-2.861022E-08
146.48,0.04524597,-2.884267E-08,NaN,-0.3368407,-1.377602E-07,NaN,0.2343291,5.230192E-08,NaN,-2.154282,4.564015E-06,-0.3743824,-1.503566E-08,NaN,NaN,-0.02005674,-5.448242E-10,-8.631299E-07,-1.153535E-07,-7.943009E-09,-2.622604E-08
146.4947,0.04524597,-2.884267E-08,NaN,-0.3368407,-1.377602E-07,NaN,0.2343291,5.230192E-08,NaN,-2.154282,4.564015E-06,-0.3743824,-1.503566E-08,NaN,NaN,-0.02005674,-5.448242E-10,-8.631299E-07,-1.153535E-07,-7.943009E-09,-2.622604E-08
146.5089,0.04524475,-2.884149E-08,NaN,-0.3367245,-1.377594E-07,NaN,0.2321967,5.233396E-08,NaN,-2.154038,4.564704E-06,-0.3728634,-1.506526E-08,NaN,NaN,-0.02005212,-5.401676E-10,-7.957021E-07,-1.153513E-07,-1.982545E-09,-2.861022E-08
146.5241,0.04524354,-2.884032E-08,NaN,-0.3366097,-1.377586E-07,NaN,0.2292097,5.236623E-08,NaN,-2.153786,4.565394E-06,-0.371527,-1.50951E-08,NaN,NaN,-0.02004812,-5.35511E-10,-7.36917E-07,-1.153491E-07,2.785827E-09,-2.622604E-08
146.539,0.04524354,-2.884032E-08,NaN,-0.3366097,-1.377586E-07,NaN,0.2292097,5.236623E-08,NaN,-2.153786,4.565394E-06,-0.371527,-1.50951E-08,NaN,NaN,-0.02004812,-5.35511E-10,-7.36917E-07,-1.153491E-07,2.785827E-09,-2.622604E-08
146.5524,0.04524234,-2.883916E-08,NaN,-0.3364963,-1.377578E-07,NaN,0.2257773,5.239872E-08,NaN,-2.153551,4.566083E-06,-0.3704283,-1.512516E-08,NaN,NaN,-0.02004484,-5.308544E-10,-6.879667E-07,-1.153469E-07,3.977919E-09,-2.861022E-08
146.5679,0.04524116,-2.883799E-08,NaN,-0.3363843,-1.37757E-07,NaN,0.2214284,5.243144E-08,NaN,-2.153255,4.566763E-06,-0.3685723,-1.515544E-08,NaN,NaN,-0.02003925,-5.168846E-10,-6.034026E-07,-1.153448E-07,2.785826E-09,-2.622604E-08
146.5845,0.04524,-2.883682E-08,NaN,-0.3362736,-1.377562E-07,NaN,0.2161964,5.246437E-08,NaN,-2.152958,4.567457E-06,-0.3669426,-1.518595E-08,NaN,NaN,-0.0200344,-5.168846E-10,-5.295674E-07,-1.153426E-07,2.785826E-09,-2.861022E-08
146.5981,0.04524,-2.883682E-08,NaN,-0.3362736,-1.377562E-07,NaN,0.2161964,5.246437E-08,NaN,-2.152958,4.567457E-06,-0.3669426,-1.518595E-08,NaN,NaN,-0.0200344,-5.168846E-10,-5.295674E-07,-1.153426E-07,2.785826E-09,-2.861022E-08
146.612,0.04523884,-2.883565E-08,NaN,-0.3361642,-1.377555E-07,NaN,0.2105248,5.249752E-08,NaN,-2.152683,4.568141E-06,-0.3655763,-1.521667E-08,NaN,NaN,-0.02003035,-5.075714E-10,-4.706333E-07,-1.153405E-07,4.016407E-10,-2.622604E-08
146.6264,0.0452377,-2.883448E-08,NaN,-0.3360561,-1.377547E-07,NaN,0.2046899,5.253017E-08,NaN,-2.152433,4.568835E-06,-0.3643735,-1.524688E-08,NaN,NaN,-0.02002678,-5.075714E-10,-4.172126E-07,-1.153383E-07,3.977919E-09,-2.861022E-08
146.6412,0.04523657,-2.883331E-08,NaN,-0.3359493,-1.377539E-07,NaN,0.1980914,5.256233E-08,NaN,-2.15212,4.56952E-06,-0.3623624,-1.527661E-08,NaN,NaN,-0.02002078,-4.982582E-10,-3.271351E-07,-1.153362E-07,1.593734E-09,-2.622604E-08
146.6555,0.04523657,-2.883331E-08,NaN,-0.3359493,-1.377539E-07,NaN,0.1980914,5.256233E-08,NaN,-2.15212,4.56952E-06,-0.3623624,-1.527661E-08,NaN,NaN,-0.02002078,-4.982582E-10,-3.271351E-07,-1.153362E-07,1.593734E-09,-2.622604E-08
146.6695,0.04523546,-2.883214E-08,NaN,-0.3358438,-1.377532E-07,NaN,0.1906957,5.259472E-08,NaN,-2.151806,4.570214E-06,-0.3605582,-1.530657E-08,NaN,NaN,-0.02001544,-4.982582E-10,-2.460728E-07,-1.153341E-07,4.016407E-10,-2.861022E-08
146.6848,0.04523435,-2.883097E-08,NaN,-0.3357395,-1.377524E-07,NaN,0.1829156,5.262733E-08,NaN,-2.151512,4.570898E-06,-0.3590124,-1.533676E-08,NaN,NaN,-0.02001089,-4.889449E-10,-1.746962E-07,-1.15332E-07,-5.558824E-09,-2.622604E-08
146.6996,0.04523435,-2.883097E-08,NaN,-0.3357395,-1.377524E-07,NaN,0.1829156,5.262733E-08,NaN,-2.151512,4.570898E-06,-0.3590124,-1.533676E-08,NaN,NaN,-0.02001089,-4.889449E-10,-1.746962E-07,-1.15332E-07,-5.558824E-09,-2.622604E-08
146.7136,0.04523327,-2.88298E-08,NaN,-0.3356365,-1.377516E-07,NaN,0.1742743,5.266017E-08,NaN,-2.151163,4.571592E-06,-0.3567271,-1.536716E-08,NaN,NaN,-0.02000414,-4.889449E-10,-7.098413E-08,-1.153299E-07,-7.94301E-09,-2.861022E-08
146.7289,0.0452322,-2.882864E-08,NaN,-0.3355347,-1.377509E-07,NaN,0.1648075,5.269322E-08,NaN,-2.150816,4.572276E-06,-0.3546899,-1.539778E-08,NaN,NaN,-0.01999817,-4.796317E-10,2.110504E-08,-1.153278E-07,-1.982546E-09,-2.622604E-08
146.7436,0.04523114,-2.882747E-08,NaN,-0.3354342,-1.377501E-07,NaN,0.1549605,5.272577E-08,NaN,-2.150496,4.57297E-06,-0.3529344,-1.542791E-08,NaN,NaN,-0.01999305,-4.796317E-10,1.009753E-07,-1.153257E-07,-1.982546E-09,-2.861022E-08
146.7583,0.04523114,-2.882747E-08,NaN,-0.3354342,-1.377501E-07,NaN,0.1549605,5.272577E-08,NaN,-2.150496,4.57297E-06,-0.3529344,-1.542791E-08,NaN,NaN,-0.01999305,-4.796317E-10,1.009753E-07,-1.153257E-07,-1.982546E-09,-2.861022E-08
146.7725,0.04523009,-2.88263E-08,NaN,-0.3353348,-1.377494E-07,NaN,0.1450094,5.275855E-08,NaN,-2.150201,4.573655E-06,-0.3513595,-1.545826E-08,NaN,NaN,-0.01998847,-4.703185E-10,1.717558E-07,-1.153236E-07,1.593733E-09,-2.622604E-08
146.7875,0.04522906,-2.882513E-08,NaN,-0.3352366,-1.377486E-07,NaN,0.1343468,5.279155E-08,NaN,-2.149849,4.574349E-06,-0.3489917,-1.548882E-08,NaN,NaN,-0.01998155,-4.703185E-10,2.830674E-07,-1.153215E-07,3.977918E-09,-2.861022E-08
146.8021,0.04522805,-2.882396E-08,NaN,-0.3351396,-1.377479E-07,NaN,0.1229413,5.282475E-08,NaN,-2.149499,4.575033E-06,-0.3468511,-1.551959E-08,NaN,NaN,-0.01997536,-4.610053E-10,3.840973E-07,-1.153194E-07,-7.90453E-10,-2.622604E-08
146.8182,0.04522805,-2.882396E-08,NaN,-0.3351396,-1.377479E-07,NaN,0.1229413,5.282475E-08,NaN,-2.149499,4.575033E-06,-0.3468511,-1.551959E-08,NaN,NaN,-0.01997536,-4.610053E-10,3.840973E-07,-1.153194E-07,-7.90453E-10,-2.622604E-08
146.8309,0.04522705,-2.882279E-08,NaN,-0.3350438,-1.377471E-07,NaN,0.1112078,5.285817E-08,NaN,-2.149174,4.575727E-06,-0.3449853,-1.555058E-08,NaN,NaN,-0.01996999,-4.610053E-10,4.694809E-07,-1.153173E-07,-4.366732E-09,-2.861022E-08
146.8463,0.04522606,-2.882162E-08,NaN,-0.3349491,-1.377464E-07,NaN,0.09940796,5.289108E-08,NaN,-2.148873,4.576411E-06,-0.3433003,-1.558106E-08,NaN,NaN,-0.01996515,-4.516921E-10,5.462219E-07,-1.153153E-07,-5.558825E-09,-2.622604E-08
146.8607,0.04522508,-2.882046E-08,NaN,-0.3348556,-1.377456E-07,NaN,0.08692407,5.29242E-08,NaN,-2.148515,4.577105E-06,-0.3408254,-1.561176E-08,NaN,NaN,-0.01995802,-4.516921E-10,6.602158E-07,-1.153132E-07,-1.03272E-08,-2.861022E-08
146.8764,0.04522508,-2.882046E-08,NaN,-0.3348556,-1.377456E-07,NaN,0.08692407,5.29242E-08,NaN,-2.148515,4.577105E-06,-0.3408254,-1.561176E-08,NaN,NaN,-0.01995802,-4.516921E-10,6.602158E-07,-1.153132E-07,-1.03272E-08,-2.861022E-08
146.8903,0.04522413,-2.881929E-08,NaN,-0.3347632,-1.377449E-07,NaN,0.0737235,5.295754E-08,NaN,-2.148162,4.57779E-06,-0.3385849,-1.564267E-08,NaN,NaN,-0.01995163,-4.423789E-10,7.612457E-07,-1.153112E-07,-1.151929E-08,-2.622604E-08
146.9046,0.04522318,-2.881812E-08,NaN,-0.3346719,-1.377441E-07,NaN,0.06022168,5.299108E-08,NaN,-2.147832,4.578484E-06,-0.3366253,-1.567378E-08,NaN,NaN,-0.01994608,-4.423789E-10,8.493116E-07,-1.153091E-07,-4.366731E-09,-2.861022E-08
146.9191,0.04522318,-2.881812E-08,NaN,-0.3346719,-1.377441E-07,NaN,0.06022168,5.299108E-08,NaN,-2.147832,4.578484E-06,-0.3366253,-1.567378E-08,NaN,NaN,-0.01994608,-4.423789E-10,8.493116E-07,-1.153091E-07,-4.366731E-09,-2.861022E-08
146.9331,0.04522226,-2.881695E-08,NaN,-0.3345816,-1.377434E-07,NaN,0.0459314,5.302412E-08,NaN,-2.147452,4.579168E-06,-0.3339449,-1.570439E-08,NaN,NaN,-0.01993847,-4.330656E-10,9.735872E-07,-1.153071E-07,-3.174639E-09,-2.622604E-08
146.9485,0.04522134,-2.881579E-08,NaN,-0.3344925,-1.377426E-07,NaN,0.03089164,5.305737E-08,NaN,-2.147082,4.579862E-06,-0.3315392,-1.573521E-08,NaN,NaN,-0.01993171,-4.330656E-10,1.08475E-06,-1.153051E-07,-1.982546E-09,-2.861022E-08
146.9631,0.04522045,-2.881462E-08,NaN,-0.3344044,-1.377419E-07,NaN,0.01555184,5.309083E-08,NaN,-2.14674,4.580546E-06,-0.3294361,-1.576624E-08,NaN,NaN,-0.01992583,-4.237524E-10,1.185333E-06,-1.153031E-07,1.593733E-09,-2.622604E-08
146.9778,0.04522045,-2.881462E-08,NaN,-0.3344044,-1.377419E-07,NaN,0.01555184,5.309083E-08,NaN,-2.14674,4.580546E-06,-0.3294361,-1.576624E-08,NaN,NaN,-0.01992583,-4.237524E-10,1.185333E-06,-1.153031E-07,1.593733E-09,-2.622604E-08
146.9918,0.04521956,-2.881345E-08,NaN,-0.3343174,-1.377412E-07,NaN,0.0001872163,5.31245E-08,NaN,-2.146425,4.58124E-06,-0.3275321,-1.579747E-08,NaN,NaN,-0.01992054,-4.237524E-10,1.276677E-06,-1.153011E-07,-6.750917E-09,-2.861022E-08
147.0071,0.04521869,-2.881229E-08,NaN,-0.3342314,-1.377404E-07,NaN,-0.01582146,5.315836E-08,NaN,-2.146058,4.581925E-06,-0.3248517,-1.582891E-08,NaN,NaN,-0.01991307,-4.144392E-10,1.401251E-06,-1.152991E-07,-1.271138E-08,-2.622604E-08
147.0215,0.04521784,-2.881112E-08,NaN,-0.3341465,-1.377397E-07,NaN,-0.03250154,5.319171E-08,NaN,-2.1457,4.582619E-06,-0.322423,-1.585982E-08,NaN,NaN,-0.01990638,-4.144392E-10,1.51748E-06,-1.152971E-07,-1.390347E-08,-2.861022E-08
147.0363,0.04521784,-2.881112E-08,NaN,-0.3341465,-1.377397E-07,NaN,-0.03250154,5.319171E-08,NaN,-2.1457,4.582619E-06,-0.322423,-1.585982E-08,NaN,NaN,-0.01990638,-4.144392E-10,1.51748E-06,-1.152971E-07,-1.390347E-08,-2.861022E-08
147.0503,0.045217,-2.880995E-08,NaN,-0.3340625,-1.37739E-07,NaN,-0.04943352,5.322526E-08,NaN,-2.145367,4.583308E-06,-0.3202881,-1.589095E-08,NaN,NaN,-0.01990054,-4.097826E-10,1.614337E-06,-1.152951E-07,-9.135102E-09,-2.622604E-08
147.0656,0.04521618,-2.880878E-08,NaN,-0.3339796,-1.377383E-07,NaN,-0.06635641,5.325831E-08,NaN,-2.145061,4.583997E-06,-0.3183503,-1.592157E-08,NaN,NaN,-0.01989527,-4.05126E-10,1.707767E-06,-1.152931E-07,-4.366731E-09,-2.861022E-08
147.0802,0.04521537,-2.880762E-08,NaN,-0.3338977,-1.377375E-07,NaN,-0.08389983,5.329157E-08,NaN,-2.144703,4.584687E-06,-0.3156368,-1.59524E-08,NaN,NaN,-0.01988788,-4.004694E-10,1.838451E-06,-1.152911E-07,-4.366731E-09,-2.622604E-08
147.0947,0.04521537,-2.880762E-08,NaN,-0.3338977,-1.377375E-07,NaN,-0.08389983,5.329157E-08,NaN,-2.144703,4.584687E-06,-0.3156368,-1.59524E-08,NaN,NaN,-0.01988788,-4.004694E-10,1.838451E-06,-1.152911E-07,-4.366731E-09,-2.622604E-08
147.109,0.04521458,-2.880645E-08,NaN,-0.3338168,-1.377368E-07,NaN,-0.1020921,5.332433E-08,NaN,-2.144355,4.585376E-06,-0.3131805,-1.598273E-08,NaN,NaN,-0.01988126,-3.958128E-10,1.954083E-06,-1.152891E-07,1.593733E-09,-2.861022E-08
147.124,0.0452138,-2.880528E-08,NaN,-0.3337368,-1.377361E-07,NaN,-0.1205131,5.335732E-08,NaN,-2.144032,4.586066E-06,-0.3110216,-1.601329E-08,NaN,NaN,-0.01987549,-3.911562E-10,2.058392E-06,-1.152872E-07,-3.174638E-09,-2.622604E-08
147.1387,0.0452138,-2.880528E-08,NaN,-0.3337368,-1.377361E-07,NaN,-0.1205131,5.335732E-08,NaN,-2.144032,4.586066E-06,-0.3110216,-1.601329E-08,NaN,NaN,-0.01987549,-3.911562E-10,2.058392E-06,-1.152872E-07,-3.174638E-09,-2.622604E-08
147.1545,0.04521304,-2.880412E-08,NaN,-0.3336578,-1.377354E-07,NaN,-0.1396608,5.339051E-08,NaN,-2.143665,4.586755E-06,-0.3081543,-1.604405E-08,NaN,NaN,-0.01986782,-3.864996E-10,2.197419E-06,-1.152852E-07,-4.366731E-09,-2.861022E-08
147.1687,0.04521228,-2.880295E-08,NaN,-0.3335797,-1.377346E-07,NaN,-0.1594919,5.342391E-08,NaN,-2.143311,4.587444E-06,-0.3055826,-1.607502E-08,NaN,NaN,-0.01986103,-3.818429E-10,2.321695E-06,-1.152833E-07,-3.174638E-09,-2.622604E-08
147.1833,0.04521152,-2.880179E-08,NaN,-0.3335027,-1.377339E-07,NaN,-0.1795527,5.345681E-08,NaN,-2.142986,4.588134E-06,-0.303328,-1.610549E-08,NaN,NaN,-0.01985513,-3.771863E-10,2.431666E-06,-1.152813E-07,-1.271138E-08,-2.861022E-08
147.1971,0.04521152,-2.880179E-08,NaN,-0.3335027,-1.377339E-07,NaN,-0.1795527,5.345681E-08,NaN,-2.142986,4.588134E-06,-0.303328,-1.610549E-08,NaN,NaN,-0.01985513,-3.771863E-10,2.431666E-06,-1.152813E-07,-1.271138E-08,-2.861022E-08
147.211,0.04521077,-2.880062E-08,NaN,-0.3334265,-1.377332E-07,NaN,-0.1995685,5.348993E-08,NaN,-2.142689,4.588823E-06,-0.3012854,-1.613618E-08,NaN,NaN,-0.01984984,-3.725297E-10,2.530908E-06,-1.152794E-07,-1.628766E-08,-2.622604E-08
147.2264,0.04521003,-2.879946E-08,NaN,-0.3333512,-1.377325E-07,NaN,-0.2194091,5.352326E-08,NaN,-2.142415,4.589522E-06,-0.2993859,-1.616708E-08,NaN,NaN,-0.01984494,-3.771863E-10,2.627765E-06,-1.152775E-07,-1.986394E-08,-2.861022E-08
147.2409,0.0452093,-2.879829E-08,NaN,-0.3332769,-1.377318E-07,NaN,-0.2390178,5.355679E-08,NaN,-2.142159,4.59022E-06,-0.2975956,-1.619818E-08,NaN,NaN,-0.01984036,-3.818429E-10,2.717023E-06,-1.152756E-07,-1.867184E-08,-2.622604E-08
147.2553,0.0452093,-2.879829E-08,NaN,-0.3332769,-1.377318E-07,NaN,-0.2390178,5.355679E-08,NaN,-2.142159,4.59022E-06,-0.2975956,-1.619818E-08,NaN,NaN,-0.01984036,-3.818429E-10,2.717023E-06,-1.152756E-07,-1.867184E-08,-2.622604E-08
147.2693,0.04520857,-2.879713E-08,NaN,-0.3332034,-1.377311E-07,NaN,-0.2583717,5.358983E-08,NaN,-2.141918,4.59091E-06,-0.2958975,-1.622878E-08,NaN,NaN,-0.01983604,-3.771863E-10,2.802854E-06,-1.152737E-07,-1.271138E-08,-2.861022E-08
147.2868,0.04520784,-2.879596E-08,NaN,-0.3331308,-1.377304E-07,NaN,-0.2774631,5.362307E-08,NaN,-2.141692,4.591599E-06,-0.2942829,-1.625959E-08,NaN,NaN,-0.01983197,-3.725297E-10,2.882277E-06,-1.152717E-07,-1.986394E-08,-2.622604E-08
147.2996,0.04520784,-2.879596E-08,NaN,-0.3331308,-1.377304E-07,NaN,-0.2774631,5.362307E-08,NaN,-2.141692,4.591599E-06,-0.2942829,-1.625959E-08,NaN,NaN,-0.01983197,-3.725297E-10,2.882277E-06,-1.152717E-07,-1.986394E-08,-2.622604E-08
147.3134,0.04520713,-2.87948E-08,NaN,-0.3330592,-1.377297E-07,NaN,-0.2962904,5.365652E-08,NaN,-2.141478,4.592298E-06,-0.2927468,-1.629062E-08,NaN,NaN,-0.01982812,-3.771863E-10,2.959763E-06,-1.152698E-07,-1.986394E-08,-2.861022E-08
147.3289,0.04520642,-2.879363E-08,NaN,-0.3329884,-1.37729E-07,NaN,-0.3148549,5.369019E-08,NaN,-2.141276,4.592987E-06,-0.2912857,-1.632185E-08,NaN,NaN,-0.01982448,-3.725297E-10,3.034567E-06,-1.15268E-07,-2.344022E-08,-2.622604E-08
147.3438,0.0452057,-2.879247E-08,NaN,-0.3329184,-1.377283E-07,NaN,-0.3331594,5.372334E-08,NaN,-2.141086,4.593676E-06,-0.2898971,-1.635257E-08,NaN,NaN,-0.01982104,-3.678731E-10,3.103708E-06,-1.152661E-07,-2.344022E-08,-2.861022E-08
147.3582,0.0452057,-2.879247E-08,NaN,-0.3329184,-1.377283E-07,NaN,-0.3331594,5.372334E-08,NaN,-2.141086,4.593676E-06,-0.2898971,-1.635257E-08,NaN,NaN,-0.01982104,-3.678731E-10,3.103708E-06,-1.152661E-07,-2.344022E-08,-2.861022E-08
147.3723,0.045205,-2.87913E-08,NaN,-0.3328493,-1.377276E-07,NaN,-0.3512066,5.37567E-08,NaN,-2.140906,4.594366E-06,-0.2885785,-1.63835E-08,NaN,NaN,-0.01981781,-3.632165E-10,3.166889E-06,-1.152642E-07,-2.70165E-08,-2.622604E-08
147.3874,0.04520429,-2.879013E-08,NaN,-0.332781,-1.377269E-07,NaN,-0.3689997,5.379027E-08,NaN,-2.140737,4.595064E-06,-0.2873279,-1.641464E-08,NaN,NaN,-0.01981476,-3.678731E-10,3.230368E-06,-1.152623E-07,-3.178487E-08,-2.861022E-08
147.4021,0.04520359,-2.878897E-08,NaN,-0.3327135,-1.377262E-07,NaN,-0.3865421,5.382404E-08,NaN,-2.140578,4.595754E-06,-0.2861431,-1.644598E-08,NaN,NaN,-0.0198119,-3.632165E-10,3.290867E-06,-1.152605E-07,-3.178487E-08,-2.622604E-08
147.4167,0.04520359,-2.878897E-08,NaN,-0.3327135,-1.377262E-07,NaN,-0.3865421,5.382404E-08,NaN,-2.140578,4.595754E-06,-0.2861431,-1.644598E-08,NaN,NaN,-0.0198119,-3.632165E-10,3.290867E-06,-1.152605E-07,-3.178487E-08,-2.622604E-08
147.4306,0.04520288,-2.87878E-08,NaN,-0.3326469,-1.377255E-07,NaN,-0.4038369,5.385731E-08,NaN,-2.140428,4.596452E-06,-0.2850223,-1.647681E-08,NaN,NaN,-0.01980921,-3.678731E-10,3.344958E-06,-1.152586E-07,-2.463231E-08,-2.861022E-08
147.4472,0.04520218,-2.878664E-08,NaN,-0.332581,-1.377248E-07,NaN,-0.4208873,5.389078E-08,NaN,-2.140289,4.597141E-06,-0.2839635,-1.650785E-08,NaN,NaN,-0.0198067,-3.632165E-10,3.399198E-06,-1.152568E-07,-1.747975E-08,-2.622604E-08
147.4618,0.04520148,-2.878547E-08,NaN,-0.332516,-1.377241E-07,NaN,-0.4376966,5.392375E-08,NaN,-2.140158,4.59784E-06,-0.2829649,-1.65384E-08,NaN,NaN,-0.01980434,-3.678731E-10,3.449564E-06,-1.152549E-07,-1.509557E-08,-2.861022E-08
147.4756,0.04520148,-2.878547E-08,NaN,-0.332516,-1.377241E-07,NaN,-0.4376966,5.392375E-08,NaN,-2.140158,4.59784E-06,-0.2829649,-1.65384E-08,NaN,NaN,-0.01980434,-3.678731E-10,3.449564E-06,-1.152549E-07,-1.509557E-08,-2.861022E-08
147.4894,0.04520078,-2.878431E-08,NaN,-0.3324518,-1.377234E-07,NaN,-0.4542678,5.395623E-08,NaN,-2.140036,4.598529E-06,-0.2820247,-1.656845E-08,NaN,NaN,-0.01980214,-3.632165E-10,3.497695E-06,-1.152531E-07,-1.03272E-08,-2.622604E-08
147.5045,0.04520009,-2.878314E-08,NaN,-0.3323883,-1.377228E-07,NaN,-0.4706042,5.398893E-08,NaN,-2.139923,4.599219E-06,-0.281141,-1.659872E-08,NaN,NaN,-0.0198001,-3.585599E-10,3.544634E-06,-1.152512E-07,-1.03272E-08,-2.861022E-08
147.5192,0.04520009,-2.878314E-08,NaN,-0.3323883,-1.377228E-07,NaN,-0.4706042,5.398893E-08,NaN,-2.139923,4.599219E-06,-0.281141,-1.659872E-08,NaN,NaN,-0.0198001,-3.585599E-10,3.544634E-06,-1.152512E-07,-1.03272E-08,-2.861022E-08
147.5333,0.04519939,-2.878198E-08,NaN,-0.3323256,-1.377221E-07,NaN,-0.4867088,5.402185E-08,NaN,-2.139819,4.599908E-06,-0.2803123,-1.662921E-08,NaN,NaN,-0.0197982,-3.539033E-10,3.587996E-06,-1.152494E-07,-1.271138E-08,-2.622604E-08
147.5487,0.0451987,-2.878081E-08,NaN,-0.3322636,-1.377214E-07,NaN,-0.5025848,5.405428E-08,NaN,-2.139722,4.600602E-06,-0.2795368,-1.665921E-08,NaN,NaN,-0.01979644,-3.539033E-10,3.627484E-06,-1.152476E-07,-1.747975E-08,-2.861022E-08
147.5633,0.04519801,-2.877965E-08,NaN,-0.3322024,-1.377207E-07,NaN,-0.5182351,5.408694E-08,NaN,-2.139633,4.601291E-06,-0.278813,-1.668944E-08,NaN,NaN,-0.01979481,-3.492467E-10,3.668462E-06,-1.152458E-07,-1.271138E-08,-2.622604E-08
147.578,0.04519801,-2.877965E-08,NaN,-0.3322024,-1.377207E-07,NaN,-0.5182351,5.408694E-08,NaN,-2.139633,4.601291E-06,-0.278813,-1.668944E-08,NaN,NaN,-0.01979481,-3.492467E-10,3.668462E-06,-1.152458E-07,-1.271138E-08,-2.622604E-08
147.5923,0.04519732,-2.877848E-08,NaN,-0.3321419,-1.3772E-07,NaN,-0.5336627,5.411981E-08,NaN,-2.139552,4.601985E-06,-0.2781391,-1.671988E-08,NaN,NaN,-0.01979332,-3.492467E-10,3.704821E-06,-1.15244E-07,-1.03272E-08,-2.861022E-08
147.6077,0.04519664,-2.877732E-08,NaN,-0.3320822,-1.377193E-07,NaN,-0.5488707,5.41529E-08,NaN,-2.139479,4.602675E-06,-0.2775137,-1.675054E-08,NaN,NaN,-0.01979194,-3.445901E-10,3.737753E-06,-1.152422E-07,-7.94301E-09,-2.622604E-08
147.6221,0.04519596,-2.877615E-08,NaN,-0.3320232,-1.377187E-07,NaN,-0.563862,5.41855E-08,NaN,-2.139412,4.603369E-06,-0.2769354,-1.678071E-08,NaN,NaN,-0.01979069,-3.445901E-10,3.768449E-06,-1.152404E-07,-1.03272E-08,-2.861022E-08
147.6369,0.04519596,-2.877615E-08,NaN,-0.3320232,-1.377187E-07,NaN,-0.563862,5.41855E-08,NaN,-2.139412,4.603369E-06,-0.2769354,-1.678071E-08,NaN,NaN,-0.01979069,-3.445901E-10,3.768449E-06,-1.152404E-07,-1.03272E-08,-2.861022E-08
147.6507,0.04519527,-2.877499E-08,NaN,-0.3319649,-1.37718E-07,NaN,-0.5786395,5.422183E-08,NaN,-2.139352,4.604058E-06,-0.2764025,-1.68146E-08,NaN,NaN,-0.01978955,-3.399335E-10,3.796761E-06,-1.152387E-07,-1.03272E-08,-2.622604E-08
147.6664,0.0451946,-2.877383E-08,NaN,-0.3319073,-1.377169E-07,NaN,-0.593206,5.420715E-08,NaN,-2.139299,4.604752E-06,-0.2759138,-1.679749E-08,NaN,NaN,-0.01978853,-3.399335E-10,3.822689E-06,-1.152378E-07,-1.271138E-08,-2.861022E-08
147.6811,0.04519392,-2.877266E-08,NaN,-0.3318504,-1.377159E-07,NaN,-0.6075646,5.419922E-08,NaN,-2.139252,4.605432E-06,-0.2754678,-1.678713E-08,NaN,NaN,-0.01978762,-3.259636E-10,3.852044E-06,-1.152371E-07,-1.509557E-08,-2.622604E-08
147.6956,0.04519392,-2.877266E-08,NaN,-0.3318504,-1.377159E-07,NaN,-0.6075646,5.419922E-08,NaN,-2.139252,4.605432E-06,-0.2754678,-1.678713E-08,NaN,NaN,-0.01978762,-3.259636E-10,3.852044E-06,-1.152371E-07,-1.509557E-08,-2.622604E-08
147.7117,0.04519324,-2.87715E-08,NaN,-0.3317942,-1.377149E-07,NaN,-0.6217178,5.419511E-08,NaN,-2.139212,4.606121E-06,-0.2750631,-1.678058E-08,NaN,NaN,-0.0197868,-3.21307E-10,3.873353E-06,-1.152363E-07,-1.271138E-08,-2.861022E-08
147.726,0.04519257,-2.877034E-08,NaN,-0.3317387,-1.377139E-07,NaN,-0.6356686,5.419334E-08,NaN,-2.139177,4.606811E-06,-0.2746986,-1.677637E-08,NaN,NaN,-0.01978609,-3.166504E-10,3.894513E-06,-1.152356E-07,-1.03272E-08,-2.622604E-08
147.7398,0.04519257,-2.877034E-08,NaN,-0.3317387,-1.377139E-07,NaN,-0.6356686,5.419334E-08,NaN,-2.139177,4.606811E-06,-0.2746986,-1.677637E-08,NaN,NaN,-0.01978609,-3.166504E-10,3.894513E-06,-1.152356E-07,-1.03272E-08,-2.622604E-08
147.7547,0.0451919,-2.876917E-08,NaN,-0.3316838,-1.37713E-07,NaN,-0.6494196,5.419317E-08,NaN,-2.139149,4.607505E-06,-0.2743727,-1.677376E-08,NaN,NaN,-0.01978546,-3.166504E-10,3.915374E-06,-1.15235E-07,-1.03272E-08,-2.861022E-08
147.7688,0.04519123,-2.876801E-08,NaN,-0.3316296,-1.37712E-07,NaN,-0.6629736,5.419385E-08,NaN,-2.139126,4.608194E-06,-0.2740844,-1.677201E-08,NaN,NaN,-0.01978494,-3.119938E-10,3.933405E-06,-1.152343E-07,-1.03272E-08,-2.622604E-08
147.7834,0.04519056,-2.876685E-08,NaN,-0.331576,-1.377111E-07,NaN,-0.6763334,5.419539E-08,NaN,-2.139108,4.608888E-06,-0.2738325,-1.677111E-08,NaN,NaN,-0.0197845,-3.119938E-10,3.948753E-06,-1.152336E-07,-1.509557E-08,-2.861022E-08
147.7982,0.04519056,-2.876685E-08,NaN,-0.331576,-1.377111E-07,NaN,-0.6763334,5.419539E-08,NaN,-2.139108,4.608888E-06,-0.2738325,-1.677111E-08,NaN,NaN,-0.0197845,-3.119938E-10,3.948753E-06,-1.152336E-07,-1.509557E-08,-2.861022E-08
147.8122,0.04518989,-2.876568E-08,NaN,-0.3315231,-1.377102E-07,NaN,-0.6895014,5.425315E-08,NaN,-2.139096,4.609582E-06,-0.2736156,-1.682643E-08,NaN,NaN,-0.01978414,-3.073372E-10,3.963058E-06,-1.152329E-07,-1.509557E-08,-2.622604E-08
147.8276,0.04518923,-2.876452E-08,NaN,-0.3314708,-1.377093E-07,NaN,-0.7024804,5.430993E-08,NaN,-2.139089,4.610266E-06,-0.2734328,-1.688076E-08,NaN,NaN,-0.01978387,-2.887107E-10,3.974978E-06,-1.152323E-07,-1.747975E-08,-2.861022E-08
147.8423,0.04518857,-2.876336E-08,NaN,-0.3314192,-1.377084E-07,NaN,-0.715273,5.436644E-08,NaN,-2.139087,4.610969E-06,-0.2732827,-1.693483E-08,NaN,NaN,-0.01978367,-2.840541E-10,3.983919E-06,-1.152316E-07,-1.747975E-08,-2.622604E-08
147.8568,0.04518857,-2.876336E-08,NaN,-0.3314192,-1.377084E-07,NaN,-0.715273,5.436644E-08,NaN,-2.139087,4.610969E-06,-0.2732827,-1.693483E-08,NaN,NaN,-0.01978367,-2.840541E-10,3.983919E-06,-1.152316E-07,-1.747975E-08,-2.622604E-08
147.8708,0.04518791,-2.87622E-08,NaN,-0.3313682,-1.377074E-07,NaN,-0.7278817,5.4422E-08,NaN,-2.13909,4.611659E-06,-0.2731645,-1.698795E-08,NaN,NaN,-0.01978355,-2.654277E-10,3.993605E-06,-1.152309E-07,-1.747975E-08,-2.861022E-08
147.8864,0.04518725,-2.876104E-08,NaN,-0.3313178,-1.377066E-07,NaN,-0.7403091,5.447661E-08,NaN,-2.139097,4.612357E-06,-0.2730769,-1.704012E-08,NaN,NaN,-0.0197835,-2.561145E-10,3.999193E-06,-1.152303E-07,-1.986394E-08,-2.622604E-08
147.9009,0.04518659,-2.875987E-08,NaN,-0.331268,-1.377057E-07,NaN,-0.7525576,5.453101E-08,NaN,-2.139108,4.613051E-06,-0.273019,-1.709208E-08,NaN,NaN,-0.01978352,-2.421446E-10,4.004781E-06,-1.152296E-07,-1.747975E-08,-2.861022E-08
147.9154,0.04518659,-2.875987E-08,NaN,-0.331268,-1.377057E-07,NaN,-0.7525576,5.453101E-08,NaN,-2.139108,4.613051E-06,-0.273019,-1.709208E-08,NaN,NaN,-0.01978352,-2.421446E-10,4.004781E-06,-1.152296E-07,-1.747975E-08,-2.861022E-08
147.9296,0.04518594,-2.875871E-08,NaN,-0.3312188,-1.377048E-07,NaN,-0.7646298,5.458449E-08,NaN,-2.139124,4.613754E-06,-0.2729897,-1.714312E-08,NaN,NaN,-0.01978361,-2.37488E-10,4.00724E-06,-1.152289E-07,-1.747975E-08,-2.622604E-08
147.945,0.04518529,-2.875755E-08,NaN,-0.3311702,-1.377039E-07,NaN,-0.776528,5.463708E-08,NaN,-2.139144,4.614448E-06,-0.2729882,-1.719326E-08,NaN,NaN,-0.01978376,-2.235182E-10,4.009326E-06,-1.152283E-07,-1.509557E-08,-2.861022E-08
147.9596,0.04518529,-2.875755E-08,NaN,-0.3311702,-1.377039E-07,NaN,-0.776528,5.463708E-08,NaN,-2.139144,4.614448E-06,-0.2729882,-1.719326E-08,NaN,NaN,-0.01978376,-2.235182E-10,4.009326E-06,-1.152283E-07,-1.509557E-08,-2.861022E-08
147.9735,0.04518463,-2.875639E-08,NaN,-0.3311222,-1.37703E-07,NaN,-0.7882547,5.468948E-08,NaN,-2.139169,4.615151E-06,-0.2730133,-1.724323E-08,NaN,NaN,-0.01978398,-2.188616E-10,4.012455E-06,-1.152276E-07,-1.509557E-08,-2.622604E-08
147.991,0.04518399,-2.875523E-08,NaN,-0.3310747,-1.377021E-07,NaN,-0.7998122,5.474102E-08,NaN,-2.139196,4.615854E-06,-0.2730642,-1.729232E-08,NaN,NaN,-0.01978425,-2.14205E-10,4.01238E-06,-1.15227E-07,-1.032719E-08,-2.861022E-08
148.0042,0.04518334,-2.875407E-08,NaN,-0.3310279,-1.377012E-07,NaN,-0.8112029,5.479169E-08,NaN,-2.139228,4.616567E-06,-0.27314,-1.734054E-08,NaN,NaN,-0.01978458,-2.188616E-10,4.0094E-06,-1.152263E-07,-1.271138E-08,-2.622604E-08
148.0179,0.04518334,-2.875407E-08,NaN,-0.3310279,-1.377012E-07,NaN,-0.8112029,5.479169E-08,NaN,-2.139228,4.616567E-06,-0.27314,-1.734054E-08,NaN,NaN,-0.01978458,-2.188616E-10,4.0094E-06,-1.152263E-07,-1.271138E-08,-2.622604E-08
148.032,0.04518269,-2.87529E-08,NaN,-0.3309816,-1.377003E-07,NaN,-0.8224292,5.484222E-08,NaN,-2.139263,4.617265E-06,-0.2732399,-1.738864E-08,NaN,NaN,-0.01978496,-2.095484E-10,4.00791E-06,-1.152257E-07,-1.986394E-08,-2.861022E-08
148.0472,0.04518205,-2.875174E-08,NaN,-0.3309358,-1.376994E-07,NaN,-0.8334932,5.489192E-08,NaN,-2.139302,4.617973E-06,-0.2733628,-1.743589E-08,NaN,NaN,-0.01978539,-2.095484E-10,4.00262E-06,-1.152251E-07,-1.986394E-08,-2.622604E-08
148.0617,0.04518141,-2.875058E-08,NaN,-0.3308907,-1.376986E-07,NaN,-0.8443974,5.494079E-08,NaN,-2.139344,4.618671E-06,-0.2735081,-1.748231E-08,NaN,NaN,-0.01978588,-2.002351E-10,3.997181E-06,-1.152244E-07,-1.747975E-08,-2.861022E-08
148.0766,0.04518141,-2.875058E-08,NaN,-0.3308907,-1.376986E-07,NaN,-0.8443974,5.494079E-08,NaN,-2.139344,4.618671E-06,-0.2735081,-1.748231E-08,NaN,NaN,-0.01978588,-2.002351E-10,3.997181E-06,-1.152244E-07,-1.747975E-08,-2.861022E-08
148.0907,0.04518077,-2.874942E-08,NaN,-0.330846,-1.376977E-07,NaN,-0.8551438,5.498885E-08,NaN,-2.139389,4.619379E-06,-0.2736748,-1.752793E-08,NaN,NaN,-0.01978641,-2.002351E-10,3.992413E-06,-1.152238E-07,-1.986394E-08,-2.622604E-08
148.1058,0.04518013,-2.874826E-08,NaN,-0.3308019,-1.376968E-07,NaN,-0.8657348,5.503683E-08,NaN,-2.139438,4.620078E-06,-0.2738623,-1.757346E-08,NaN,NaN,-0.01978699,-1.909219E-10,3.987644E-06,-1.152231E-07,-1.986394E-08,-2.861022E-08
148.1203,0.04517949,-2.87471E-08,NaN,-0.3307583,-1.37696E-07,NaN,-0.8761724,5.508401E-08,NaN,-2.139489,4.620785E-06,-0.2740697,-1.76182E-08,NaN,NaN,-0.01978762,-1.909219E-10,3.98079E-06,-1.152225E-07,-1.986394E-08,-2.622604E-08
148.1349,0.04517949,-2.87471E-08,NaN,-0.3307583,-1.37696E-07,NaN,-0.8761724,5.508401E-08,NaN,-2.139489,4.620785E-06,-0.2740697,-1.76182E-08,NaN,NaN,-0.01978762,-1.909219E-10,3.98079E-06,-1.152225E-07,-1.986394E-08,-2.622604E-08
148.1489,0.04517886,-2.874593E-08,NaN,-0.3307153,-1.376951E-07,NaN,-0.8864589,5.513042E-08,NaN,-2.139543,4.621484E-06,-0.2742963,-1.766217E-08,NaN,NaN,-0.01978829,-1.816087E-10,3.970657E-06,-1.152219E-07,-1.986394E-08,-2.861022E-08
148.1644,0.04517823,-2.874477E-08,NaN,-0.3306728,-1.376942E-07,NaN,-0.8965963,5.517678E-08,NaN,-2.1396,4.622191E-06,-0.2745414,-1.770608E-08,NaN,NaN,-0.019789,-1.816087E-10,3.962238E-06,-1.152212E-07,-1.747975E-08,-2.622604E-08
148.1791,0.04517823,-2.874477E-08,NaN,-0.3306728,-1.376942E-07,NaN,-0.8965963,5.517678E-08,NaN,-2.1396,4.622191E-06,-0.2745414,-1.770608E-08,NaN,NaN,-0.019789,-1.816087E-10,3.962238E-06,-1.152212E-07,-1.747975E-08,-2.622604E-08
148.1928,0.0451776,-2.874361E-08,NaN,-0.3306307,-1.376934E-07,NaN,-0.9065868,5.522238E-08,NaN,-2.13966,4.62289E-06,-0.2748042,-1.774923E-08,NaN,NaN,-0.01978975,-1.722954E-10,3.949795E-06,-1.152206E-07,-1.986394E-08,-2.861022E-08
148.2097,0.04517697,-2.874245E-08,NaN,-0.3305892,-1.376925E-07,NaN,-0.9164324,5.526723E-08,NaN,-2.139722,4.623597E-06,-0.2750841,-1.779164E-08,NaN,NaN,-0.01979053,-1.722954E-10,3.937949E-06,-1.1522E-07,-1.747975E-08,-2.622604E-08
148.2228,0.04517634,-2.874129E-08,NaN,-0.3305482,-1.376917E-07,NaN,-0.9261352,5.531135E-08,NaN,-2.139786,4.624296E-06,-0.2753804,-1.783332E-08,NaN,NaN,-0.01979135,-1.629822E-10,3.925134E-06,-1.152194E-07,-1.747975E-08,-2.861022E-08
148.2375,0.04517634,-2.874129E-08,NaN,-0.3305482,-1.376917E-07,NaN,-0.9261352,5.531135E-08,NaN,-2.139786,4.624296E-06,-0.2753804,-1.783332E-08,NaN,NaN,-0.01979135,-1.629822E-10,3.925134E-06,-1.152194E-07,-1.747975E-08,-2.861022E-08
148.2516,0.04517572,-2.874012E-08,NaN,-0.3305077,-1.376908E-07,NaN,-0.9356971,5.535546E-08,NaN,-2.139853,4.625003E-06,-0.2756925,-1.787499E-08,NaN,NaN,-0.0197922,-1.629822E-10,3.910158E-06,-1.152187E-07,-1.986394E-08,-2.622604E-08
148.2668,0.04517509,-2.873896E-08,NaN,-0.3304677,-1.3769E-07,NaN,-0.9451202,5.533836E-08,NaN,-2.139923,4.625702E-06,-0.2760196,-1.785544E-08,NaN,NaN,-0.01979309,-1.583256E-10,3.89563E-06,-1.152181E-07,-1.509557E-08,-2.861022E-08
148.2824,0.04517447,-2.87378E-08,NaN,-0.3304281,-1.376891E-07,NaN,-0.9544063,5.532172E-08,NaN,-2.139994,4.626405E-06,-0.2763613,-1.783636E-08,NaN,NaN,-0.01979401,-1.629822E-10,3.881772E-06,-1.152175E-07,-1.986394E-08,-2.622604E-08
148.2972,0.04517447,-2.87378E-08,NaN,-0.3304281,-1.376891E-07,NaN,-0.9544063,5.532172E-08,NaN,-2.139994,4.626405E-06,-0.2763613,-1.783636E-08,NaN,NaN,-0.01979401,-1.629822E-10,3.881772E-06,-1.152175E-07,-1.986394E-08,-2.622604E-08
148.3112,0.04517385,-2.873664E-08,NaN,-0.3303891,-1.376883E-07,NaN,-0.9635575,5.530626E-08,NaN,-2.140068,4.627094E-06,-0.2767169,-1.781846E-08,NaN,NaN,-0.01979495,-1.583256E-10,3.8662E-06,-1.152169E-07,-2.224812E-08,-2.861022E-08
148.3256,0.04517324,-2.873548E-08,NaN,-0.3303505,-1.376874E-07,NaN,-0.9725757,5.529124E-08,NaN,-2.140143,4.627788E-06,-0.2770858,-1.7801E-08,NaN,NaN,-0.01979593,-1.629822E-10,3.84951E-06,-1.152163E-07,-1.986394E-08,-2.622604E-08
148.3401,0.04517262,-2.873432E-08,NaN,-0.3303123,-1.376866E-07,NaN,-0.9814627,5.527665E-08,NaN,-2.140221,4.628482E-06,-0.2774674,-1.778397E-08,NaN,NaN,-0.01979693,-1.676388E-10,3.833119E-06,-1.152157E-07,-2.224812E-08,-2.861022E-08
148.3545,0.04517262,-2.873432E-08,NaN,-0.3303123,-1.376866E-07,NaN,-0.9814627,5.527665E-08,NaN,-2.140221,4.628482E-06,-0.2774674,-1.778397E-08,NaN,NaN,-0.01979693,-1.676388E-10,3.833119E-06,-1.152157E-07,-2.224812E-08,-2.861022E-08
148.3687,0.04517201,-2.873315E-08,NaN,-0.3302746,-1.376862E-07,NaN,-0.9902204,5.531225E-08,NaN,-2.1403,4.629181E-06,-0.2778612,-1.781713E-08,NaN,NaN,-0.01979796,-1.76952E-10,3.814716E-06,-1.152141E-07,-2.224812E-08,-2.622604E-08
148.3838,0.04517139,-2.873199E-08,NaN,-0.3302374,-1.376857E-07,NaN,-0.9988506,5.534028E-08,NaN,-2.140381,4.629875E-06,-0.2782668,-1.784272E-08,NaN,NaN,-0.01979901,-1.816086E-10,3.796313E-06,-1.152125E-07,-1.509556E-08,-2.861022E-08
148.3988,0.04517139,-2.873199E-08,NaN,-0.3302374,-1.376857E-07,NaN,-0.9988506,5.534028E-08,NaN,-2.140381,4.629875E-06,-0.2782668,-1.784272E-08,NaN,NaN,-0.01979901,-1.816086E-10,3.796313E-06,-1.152125E-07,-1.509556E-08,-2.861022E-08
148.4127,0.04517078,-2.873083E-08,NaN,-0.3302006,-1.376852E-07,NaN,-1.007355,5.53651E-08,NaN,-2.140464,4.630569E-06,-0.2786834,-1.78651E-08,NaN,NaN,-0.01980009,-1.862653E-10,3.777612E-06,-1.152109E-07,-1.509556E-08,-2.622604E-08
148.4281,0.04517018,-2.872967E-08,NaN,-0.3301643,-1.376847E-07,NaN,-1.015736,5.538817E-08,NaN,-2.140548,4.631258E-06,-0.2791107,-1.788574E-08,NaN,NaN,-0.01980119,-1.862653E-10,3.756751E-06,-1.152092E-07,-1.271138E-08,-2.861022E-08
148.4432,0.04516957,-2.872851E-08,NaN,-0.3301284,-1.376842E-07,NaN,-1.023994,5.541022E-08,NaN,-2.140634,4.631952E-06,-0.2795482,-1.790536E-08,NaN,NaN,-0.01980231,-1.909219E-10,3.735293E-06,-1.152075E-07,-1.032719E-08,-2.622604E-08
148.4575,0.04516957,-2.872851E-08,NaN,-0.3301284,-1.376842E-07,NaN,-1.023994,5.541022E-08,NaN,-2.140634,4.631952E-06,-0.2795482,-1.790536E-08,NaN,NaN,-0.01980231,-1.909219E-10,3.735293E-06,-1.152075E-07,-1.032719E-08,-2.622604E-08
148.4717,0.04516897,-2.872735E-08,NaN,-0.3300929,-1.376836E-07,NaN,-1.032132,5.543128E-08,NaN,-2.140722,4.632641E-06,-0.2799954,-1.792398E-08,NaN,NaN,-0.01980345,-1.909219E-10,3.715028E-06,-1.152059E-07,-1.032719E-08,-2.861022E-08
148.4868,0.04516837,-2.872618E-08,NaN,-0.3300579,-1.37683E-07,NaN,-1.040152,5.545207E-08,NaN,-2.140811,4.633335E-06,-0.2804517,-1.794234E-08,NaN,NaN,-0.0198046,-1.955785E-10,3.69439E-06,-1.152042E-07,-1.509557E-08,-2.622604E-08
148.5014,0.04516777,-2.872502E-08,NaN,-0.3300233,-1.376825E-07,NaN,-1.048054,5.547259E-08,NaN,-2.140901,4.634025E-06,-0.2809169,-1.796042E-08,NaN,NaN,-0.01980578,-1.955785E-10,3.672485E-06,-1.152026E-07,-1.986394E-08,-2.861022E-08
148.5161,0.04516777,-2.872502E-08,NaN,-0.3300233,-1.376825E-07,NaN,-1.048054,5.547259E-08,NaN,-2.140901,4.634025E-06,-0.2809169,-1.796042E-08,NaN,NaN,-0.01980578,-1.955785E-10,3.672485E-06,-1.152026E-07,-1.986394E-08,-2.861022E-08
148.5302,0.04516717,-2.872386E-08,NaN,-0.329989,-1.376819E-07,NaN,-1.055841,5.549355E-08,NaN,-2.140992,4.634728E-06,-0.2813903,-1.797894E-08,NaN,NaN,-0.01980698,-2.095483E-10,3.649835E-06,-1.152009E-07,-1.509557E-08,-2.622604E-08
148.5477,0.04516657,-2.87227E-08,NaN,-0.3299553,-1.376814E-07,NaN,-1.063515,5.551423E-08,NaN,-2.141085,4.635422E-06,-0.2818717,-1.799719E-08,NaN,NaN,-0.01980819,-2.142049E-10,3.627632E-06,-1.151993E-07,-1.271138E-08,-2.861022E-08
148.561,0.04516597,-2.872154E-08,NaN,-0.3299219,-1.376808E-07,NaN,-1.071076,5.553536E-08,NaN,-2.141179,4.636116E-06,-0.2823606,-1.801589E-08,NaN,NaN,-0.01980942,-2.188615E-10,3.602896E-06,-1.151976E-07,-1.747975E-08,-2.622604E-08
148.5759,0.04516597,-2.872154E-08,NaN,-0.3299219,-1.376808E-07,NaN,-1.071076,5.553536E-08,NaN,-2.141179,4.636116E-06,-0.2823606,-1.801589E-08,NaN,NaN,-0.01980942,-2.188615E-10,3.602896E-06,-1.151976E-07,-1.747975E-08,-2.622604E-08
148.5886,0.04516538,-2.872038E-08,NaN,-0.3298889,-1.376803E-07,NaN,-1.078527,5.555621E-08,NaN,-2.141274,4.63681E-06,-0.2828566,-1.80343E-08,NaN,NaN,-0.01981066,-2.235181E-10,3.57816E-06,-1.15196E-07,-1.747975E-08,-2.861022E-08
148.604,0.04516479,-2.871922E-08,NaN,-0.3298563,-1.376797E-07,NaN,-1.085869,5.557749E-08,NaN,-2.14137,4.637503E-06,-0.2833593,-1.805315E-08,NaN,NaN,-0.01981191,-2.281747E-10,3.554914E-06,-1.151944E-07,-1.747975E-08,-2.622604E-08
148.6184,0.04516479,-2.871922E-08,NaN,-0.3298563,-1.376797E-07,NaN,-1.085869,5.557749E-08,NaN,-2.14137,4.637503E-06,-0.2833593,-1.805315E-08,NaN,NaN,-0.01981191,-2.281747E-10,3.554914E-06,-1.151944E-07,-1.747975E-08,-2.622604E-08
148.6324,0.0451642,-2.871806E-08,NaN,-0.3298241,-1.376792E-07,NaN,-1.093104,5.559921E-08,NaN,-2.141467,4.638197E-06,-0.2838683,-1.807243E-08,NaN,NaN,-0.01981318,-2.328314E-10,3.529583E-06,-1.151927E-07,-1.747975E-08,-2.861022E-08
148.6478,0.04516361,-2.87169E-08,NaN,-0.3297923,-1.376786E-07,NaN,-1.100233,5.563814E-08,NaN,-2.141565,4.638891E-06,-0.2843833,-1.810892E-08,NaN,NaN,-0.01981446,-2.328314E-10,3.504847E-06,-1.151911E-07,-1.747975E-08,-2.622604E-08
148.6624,0.04516303,-2.871574E-08,NaN,-0.3297609,-1.376781E-07,NaN,-1.107258,5.567644E-08,NaN,-2.141664,4.639581E-06,-0.2849039,-1.81448E-08,NaN,NaN,-0.01981575,-2.281748E-10,3.48026E-06,-1.151895E-07,-1.747975E-08,-2.861022E-08
148.6785,0.04516303,-2.871574E-08,NaN,-0.3297609,-1.376781E-07,NaN,-1.107258,5.567644E-08,NaN,-2.141664,4.639581E-06,-0.2849039,-1.81448E-08,NaN,NaN,-0.01981575,-2.281748E-10,3.48026E-06,-1.151895E-07,-1.747975E-08,-2.861022E-08
148.6912,0.04516244,-2.871458E-08,NaN,-0.3297298,-1.376775E-07,NaN,-1.11418,5.571485E-08,NaN,-2.141764,4.640279E-06,-0.2854297,-1.818077E-08,NaN,NaN,-0.01981705,-2.328314E-10,3.454481E-06,-1.151879E-07,-1.986394E-08,-2.622604E-08
148.7064,0.04516186,-2.871342E-08,NaN,-0.3296992,-1.37677E-07,NaN,-1.121,5.575334E-08,NaN,-2.141864,4.640964E-06,-0.2859605,-1.821683E-08,NaN,NaN,-0.01981836,-2.235181E-10,3.429596E-06,-1.151863E-07,-1.509557E-08,-2.861022E-08
148.721,0.04516128,-2.871226E-08,NaN,-0.3296688,-1.376764E-07,NaN,-1.127721,5.579123E-08,NaN,-2.141965,4.641662E-06,-0.2864959,-1.825228E-08,NaN,NaN,-0.01981969,-2.281747E-10,3.403221E-06,-1.151847E-07,-1.032719E-08,-2.622604E-08
148.7358,0.04516128,-2.871226E-08,NaN,-0.3296688,-1.376764E-07,NaN,-1.127721,5.579123E-08,NaN,-2.141965,4.641662E-06,-0.2864959,-1.825228E-08,NaN,NaN,-0.01981969,-2.281747E-10,3.403221E-06,-1.151847E-07,-1.032719E-08,-2.622604E-08
148.7497,0.0451607,-2.87111E-08,NaN,-0.3296389,-1.376759E-07,NaN,-1.134344,5.582921E-08,NaN,-2.142067,4.642356E-06,-0.2870356,-1.828783E-08,NaN,NaN,-0.01982101,-2.281747E-10,3.377144E-06,-1.151831E-07,-5.558823E-09,-2.861022E-08
148.7651,0.04516013,-2.870994E-08,NaN,-0.3296093,-1.376754E-07,NaN,-1.140869,5.586659E-08,NaN,-2.142169,4.643055E-06,-0.2875794,-1.832278E-08,NaN,NaN,-0.01982235,-2.328314E-10,3.352706E-06,-1.151815E-07,-5.558823E-09,-2.622604E-08
148.7796,0.04516013,-2.870994E-08,NaN,-0.3296093,-1.376754E-07,NaN,-1.140869,5.586659E-08,NaN,-2.142169,4.643055E-06,-0.2875794,-1.832278E-08,NaN,NaN,-0.01982235,-2.328314E-10,3.352706E-06,-1.151815E-07,-5.558823E-09,-2.622604E-08
148.7938,0.04515955,-2.870878E-08,NaN,-0.3295801,-1.376748E-07,NaN,-1.147299,5.590409E-08,NaN,-2.142273,4.643749E-06,-0.2881268,-1.835785E-08,NaN,NaN,-0.01982369,-2.328314E-10,3.328268E-06,-1.151799E-07,-3.174637E-09,-2.861022E-08
148.8097,0.04515898,-2.870762E-08,NaN,-0.3295512,-1.376743E-07,NaN,-1.153634,5.594168E-08,NaN,-2.142376,4.644447E-06,-0.2886776,-1.8393E-08,NaN,NaN,-0.01982505,-2.421446E-10,3.302191E-06,-1.151784E-07,-7.904513E-10,-2.622604E-08
148.8237,0.04515841,-2.870646E-08,NaN,-0.3295227,-1.376737E-07,NaN,-1.159877,5.597867E-08,NaN,-2.142481,4.645146E-06,-0.2892315,-1.842756E-08,NaN,NaN,-0.0198264,-2.514578E-10,3.276114E-06,-1.151768E-07,-5.558823E-09,-2.861022E-08
148.8393,0.04515841,-2.870646E-08,NaN,-0.3295227,-1.376737E-07,NaN,-1.159877,5.597867E-08,NaN,-2.142481,4.645146E-06,-0.2892315,-1.842756E-08,NaN,NaN,-0.0198264,-2.514578E-10,3.276114E-06,-1.151768E-07,-5.558823E-09,-2.861022E-08
148.854,0.04515784,-2.87053E-08,NaN,-0.3294945,-1.376732E-07,NaN,-1.166028,5.601579E-08,NaN,-2.142585,4.645839E-06,-0.2897884,-1.846225E-08,NaN,NaN,-0.01982776,-2.561144E-10,3.249888E-06,-1.151752E-07,-5.558823E-09,-2.622604E-08
148.8675,0.04515727,-2.870414E-08,NaN,-0.3294666,-1.376727E-07,NaN,-1.172089,5.605302E-08,NaN,-2.14269,4.646524E-06,-0.2903478,-1.849705E-08,NaN,NaN,-0.01982913,-2.514578E-10,3.223662E-06,-1.151737E-07,1.593734E-09,-2.861022E-08
148.8818,0.04515671,-2.870298E-08,NaN,-0.3294391,-1.376721E-07,NaN,-1.178061,5.608966E-08,NaN,-2.142796,4.647218E-06,-0.2909096,-1.853126E-08,NaN,NaN,-0.0198305,-2.561144E-10,3.196244E-06,-1.151721E-07,6.362106E-09,-2.622604E-08
148.8965,0.04515671,-2.870298E-08,NaN,-0.3294391,-1.376721E-07,NaN,-1.178061,5.608966E-08,NaN,-2.142796,4.647218E-06,-0.2909096,-1.853126E-08,NaN,NaN,-0.0198305,-2.561144E-10,3.196244E-06,-1.151721E-07,6.362106E-09,-2.622604E-08
148.9104,0.04515614,-2.870182E-08,NaN,-0.3294119,-1.376716E-07,NaN,-1.183945,5.612644E-08,NaN,-2.142902,4.647912E-06,-0.2914734,-1.85656E-08,NaN,NaN,-0.01983188,-2.60771E-10,3.16972E-06,-1.151706E-07,6.362106E-09,-2.861022E-08
148.9259,0.04515558,-2.870066E-08,NaN,-0.3293851,-1.376711E-07,NaN,-1.189743,5.616263E-08,NaN,-2.143008,4.648606E-06,-0.2920392,-1.859935E-08,NaN,NaN,-0.01983326,-2.654276E-10,3.141557E-06,-1.15169E-07,1.113048E-08,-2.622604E-08
148.9405,0.04515502,-2.869951E-08,NaN,-0.3293585,-1.376706E-07,NaN,-1.195456,5.619895E-08,NaN,-2.143115,4.6493E-06,-0.2926066,-1.863325E-08,NaN,NaN,-0.01983464,-2.700842E-10,3.113542E-06,-1.151675E-07,1.351466E-08,-2.861022E-08
148.9548,0.04515502,-2.869951E-08,NaN,-0.3293585,-1.376706E-07,NaN,-1.195456,5.619895E-08,NaN,-2.143115,4.6493E-06,-0.2926066,-1.863325E-08,NaN,NaN,-0.01983464,-2.700842E-10,3.113542E-06,-1.151675E-07,1.351466E-08,-2.861022E-08
148.969,0.04515446,-2.869835E-08,NaN,-0.3293323,-1.3767E-07,NaN,-1.201084,5.623541E-08,NaN,-2.143222,4.649994E-06,-0.2931755,-1.866728E-08,NaN,NaN,-0.01983602,-2.747408E-10,3.08672E-06,-1.15166E-07,1.589885E-08,-2.622604E-08
148.9843,0.04515391,-2.869719E-08,NaN,-0.3293064,-1.376695E-07,NaN,-1.20663,5.62713E-08,NaN,-2.143329,4.650678E-06,-0.2937455,-1.870073E-08,NaN,NaN,-0.01983741,-2.700842E-10,3.058706E-06,-1.151644E-07,1.351466E-08,-2.861022E-08
148.9989,0.04515391,-2.869719E-08,NaN,-0.3293064,-1.376695E-07,NaN,-1.20663,5.62713E-08,NaN,-2.143329,4.650678E-06,-0.2937455,-1.870073E-08,NaN,NaN,-0.01983741,-2.700842E-10,3.058706E-06,-1.151644E-07,1.351466E-08,-2.861022E-08
149.0129,0.04515335,-2.869603E-08,NaN,-0.3292808,-1.37669E-07,NaN,-1.212095,5.630733E-08,NaN,-2.143436,4.651376E-06,-0.2943165,-1.873433E-08,NaN,NaN,-0.01983879,-2.793974E-10,3.030692E-06,-1.151629E-07,1.351466E-08,-2.622604E-08
149.0287,0.0451528,-2.869487E-08,NaN,-0.3292556,-1.376685E-07,NaN,-1.217479,5.634279E-08,NaN,-2.143543,4.65207E-06,-0.2948884,-1.876736E-08,NaN,NaN,-0.01984018,-2.840541E-10,3.00238E-06,-1.151614E-07,1.113048E-08,-2.861022E-08
149.043,0.04515225,-2.869372E-08,NaN,-0.3292306,-1.376679E-07,NaN,-1.222784,5.63784E-08,NaN,-2.143651,4.652764E-06,-0.2954608,-1.880054E-08,NaN,NaN,-0.01984157,-2.887107E-10,2.974663E-06,-1.151599E-07,3.977921E-09,-2.622604E-08
149.0577,0.04515225,-2.869372E-08,NaN,-0.3292306,-1.376679E-07,NaN,-1.222784,5.63784E-08,NaN,-2.143651,4.652764E-06,-0.2954608,-1.880054E-08,NaN,NaN,-0.01984157,-2.887107E-10,2.974663E-06,-1.151599E-07,3.977921E-09,-2.622604E-08
149.0716,0.0451517,-2.869256E-08,NaN,-0.3292059,-1.376674E-07,NaN,-1.228011,5.641417E-08,NaN,-2.143759,4.653449E-06,-0.2960337,-1.883387E-08,NaN,NaN,-0.01984296,-2.840541E-10,2.947841E-06,-1.151584E-07,1.593735E-09,-2.861022E-08
149.087,0.04515116,-2.86914E-08,NaN,-0.3291815,-1.376669E-07,NaN,-1.233162,5.644937E-08,NaN,-2.143867,4.654143E-06,-0.2966068,-1.886663E-08,NaN,NaN,-0.01984436,-2.887107E-10,2.920274E-06,-1.151569E-07,1.593735E-09,-2.622604E-08
149.1015,0.04515061,-2.869024E-08,NaN,-0.3291574,-1.376664E-07,NaN,-1.238236,5.648472E-08,NaN,-2.143974,4.654827E-06,-0.29718,-1.889956E-08,NaN,NaN,-0.01984575,-2.840541E-10,2.892856E-06,-1.151554E-07,-7.904508E-10,-2.861022E-08
149.116,0.04515061,-2.869024E-08,NaN,-0.3291574,-1.376664E-07,NaN,-1.238236,5.648472E-08,NaN,-2.143974,4.654827E-06,-0.29718,-1.889956E-08,NaN,NaN,-0.01984575,-2.840541E-10,2.892856E-06,-1.151554E-07,-7.904508E-10,-2.861022E-08
149.1333,0.04515007,-2.868908E-08,NaN,-0.3291336,-1.376659E-07,NaN,-1.243235,5.651953E-08,NaN,-2.144082,4.655521E-06,-0.2977536,-1.893193E-08,NaN,NaN,-0.01984714,-2.887107E-10,2.864842E-06,-1.151539E-07,-7.904508E-10,-2.622604E-08
149.1466,0.04514953,-2.868792E-08,NaN,-0.3291101,-1.376654E-07,NaN,-1.24816,5.655449E-08,NaN,-2.14419,4.656215E-06,-0.2983269,-1.896446E-08,NaN,NaN,-0.01984853,-2.933673E-10,2.837871E-06,-1.151524E-07,3.977921E-09,-2.861022E-08
149.16,0.04514953,-2.868792E-08,NaN,-0.3291101,-1.376654E-07,NaN,-1.24816,5.655449E-08,NaN,-2.14419,4.656215E-06,-0.2983269,-1.896446E-08,NaN,NaN,-0.01984853,-2.933673E-10,2.837871E-06,-1.151524E-07,3.977921E-09,-2.861022E-08
149.1741,0.04514899,-2.868677E-08,NaN,-0.3290869,-1.376648E-07,NaN,-1.253013,5.658962E-08,NaN,-2.144298,4.656909E-06,-0.2988996,-1.899716E-08,NaN,NaN,-0.01984992,-2.980239E-10,2.811347E-06,-1.151509E-07,1.593735E-09,-2.622604E-08
149.1891,0.04514845,-2.868561E-08,NaN,-0.3290639,-1.376639E-07,NaN,-1.257794,5.657444E-08,NaN,-2.144406,4.657593E-06,-0.2994716,-1.897955E-08,NaN,NaN,-0.01985131,-2.933673E-10,2.783034E-06,-1.151504E-07,1.593735E-09,-2.861022E-08
149.2038,0.04514791,-2.868445E-08,NaN,-0.3290412,-1.37663E-07,NaN,-1.261745,5.656671E-08,NaN,-2.144583,4.658278E-06,-0.300952,-1.896938E-08,NaN,NaN,-0.0198551,-2.887107E-10,2.710913E-06,-1.151499E-07,-7.904508E-10,-2.622604E-08
149.2183,0.04514791,-2.868445E-08,NaN,-0.3290412,-1.37663E-07,NaN,-1.261745,5.656671E-08,NaN,-2.144583,4.658278E-06,-0.300952,-1.896938E-08,NaN,NaN,-0.0198551,-2.887107E-10,2.710913E-06,-1.151499E-07,-7.904508E-10,-2.622604E-08
149.2323,0.04514738,-2.868329E-08,NaN,-0.3290188,-1.376622E-07,NaN,-1.264787,5.656348E-08,NaN,-2.144776,4.658962E-06,-0.3022716,-1.896371E-08,NaN,NaN,-0.01985844,-2.840541E-10,2.646838E-06,-1.151495E-07,3.977921E-09,-2.861022E-08
149.2477,0.04514684,-2.868213E-08,NaN,-0.3289967,-1.376614E-07,NaN,-1.267322,5.656186E-08,NaN,-2.144961,4.659646E-06,-0.3033764,-1.895965E-08,NaN,NaN,-0.01986121,-2.793974E-10,2.594088E-06,-1.151491E-07,3.977921E-09,-2.622604E-08
149.2688,0.04514631,-2.868098E-08,NaN,-0.3289748,-1.376606E-07,NaN,-1.269603,5.656182E-08,NaN,-2.145134,4.660331E-06,-0.3043554,-1.895717E-08,NaN,NaN,-0.01986366,-2.747408E-10,2.546553E-06,-1.151487E-07,8.746293E-09,-2.861022E-08
149.2773,0.04514631,-2.868098E-08,NaN,-0.3289748,-1.376606E-07,NaN,-1.269603,5.656182E-08,NaN,-2.145134,4.660331E-06,-0.3043554,-1.895717E-08,NaN,NaN,-0.01986366,-2.747408E-10,2.546553E-06,-1.151487E-07,8.746293E-09,-2.861022E-08
149.2911,0.04514578,-2.867982E-08,NaN,-0.3289532,-1.376598E-07,NaN,-1.270996,5.656191E-08,NaN,-2.145368,4.661015E-06,-0.306177,-1.895482E-08,NaN,NaN,-0.01986836,-2.700842E-10,2.459381E-06,-1.151484E-07,1.113048E-08,-2.622604E-08
149.3068,0.04514525,-2.867866E-08,NaN,-0.3289318,-1.37659E-07,NaN,-1.271477,5.656285E-08,NaN,-2.145612,4.661695E-06,-0.3078037,-1.895332E-08,NaN,NaN,-0.01987253,-2.60771E-10,2.381523E-06,-1.15148E-07,1.351466E-08,-2.861022E-08
149.3211,0.04514472,-2.86775E-08,NaN,-0.3289107,-1.376583E-07,NaN,-1.271469,5.656461E-08,NaN,-2.145844,4.66238E-06,-0.3091938,-1.895264E-08,NaN,NaN,-0.01987606,-2.561144E-10,2.315212E-06,-1.151476E-07,6.362106E-09,-2.622604E-08
149.336,0.04514472,-2.86775E-08,NaN,-0.3289107,-1.376583E-07,NaN,-1.271469,5.656461E-08,NaN,-2.145844,4.66238E-06,-0.3091938,-1.895264E-08,NaN,NaN,-0.01987606,-2.561144E-10,2.315212E-06,-1.151476E-07,6.362106E-09,-2.622604E-08
149.3499,0.04514419,-2.867635E-08,NaN,-0.3288899,-1.376575E-07,NaN,-1.27048,5.656648E-08,NaN,-2.146132,4.663064E-06,-0.3113506,-1.895207E-08,NaN,NaN,-0.01988168,-2.514578E-10,2.210159E-06,-1.151472E-07,8.746292E-09,-2.861022E-08
149.3651,0.04514366,-2.867519E-08,NaN,-0.3288693,-1.376568E-07,NaN,-1.268555,5.656845E-08,NaN,-2.146426,4.663758E-06,-0.3132711,-1.895161E-08,NaN,NaN,-0.01988665,-2.561144E-10,2.117921E-06,-1.151469E-07,8.746292E-09,-2.622604E-08
149.3798,0.04514366,-2.867519E-08,NaN,-0.3288693,-1.376568E-07,NaN,-1.268555,5.656845E-08,NaN,-2.146426,4.663758E-06,-0.3132711,-1.895161E-08,NaN,NaN,-0.01988665,-2.561144E-10,2.117921E-06,-1.151469E-07,8.746292E-09,-2.622604E-08
149.3938,0.04514314,-2.867403E-08,NaN,-0.328849,-1.37656E-07,NaN,-1.266151,5.657053E-08,NaN,-2.146704,4.664452E-06,-0.3149301,-1.895124E-08,NaN,NaN,-0.01989093,-2.60771E-10,2.0382E-06,-1.151465E-07,1.351466E-08,-2.861022E-08
149.4113,0.04514261,-2.867288E-08,NaN,-0.3288288,-1.376552E-07,NaN,-1.263543,5.65734E-08,NaN,-2.146964,4.665141E-06,-0.3164305,-1.895168E-08,NaN,NaN,-0.0198948,-2.561144E-10,1.967047E-06,-1.151461E-07,1.113048E-08,-2.622604E-08
149.4249,0.04514209,-2.867172E-08,NaN,-0.328809,-1.376545E-07,NaN,-1.260114,5.657636E-08,NaN,-2.14728,4.665831E-06,-0.3187466,-1.89522E-08,NaN,NaN,-0.01990092,-2.514578E-10,1.855959E-06,-1.151458E-07,1.351466E-08,-2.861022E-08
149.4383,0.04514209,-2.867172E-08,NaN,-0.328809,-1.376545E-07,NaN,-1.260114,5.657636E-08,NaN,-2.14728,4.665831E-06,-0.3187466,-1.89522E-08,NaN,NaN,-0.01990092,-2.514578E-10,1.855959E-06,-1.151458E-07,1.351466E-08,-2.861022E-08
149.4524,0.04514157,-2.867056E-08,NaN,-0.3287893,-1.376538E-07,NaN,-1.255839,5.65794E-08,NaN,-2.147606,4.666525E-06,-0.3208481,-1.89528E-08,NaN,NaN,-0.01990644,-2.514578E-10,1.754966E-06,-1.151454E-07,1.351466E-08,-2.622604E-08
149.4674,0.04514105,-2.866941E-08,NaN,-0.3287699,-1.37653E-07,NaN,-1.251141,5.658253E-08,NaN,-2.147916,4.667218E-06,-0.3226925,-1.895348E-08,NaN,NaN,-0.01991127,-2.514578E-10,1.666285E-06,-1.151451E-07,1.828304E-08,-2.861022E-08
149.4822,0.04514053,-2.866825E-08,NaN,-0.3287508,-1.376523E-07,NaN,-1.246282,5.658573E-08,NaN,-2.148208,4.667912E-06,-0.324375,-1.895425E-08,NaN,NaN,-0.01991568,-2.514578E-10,1.58577E-06,-1.151447E-07,2.781978E-08,-2.622604E-08
149.4969,0.04514053,-2.866825E-08,NaN,-0.3287508,-1.376523E-07,NaN,-1.246282,5.658573E-08,NaN,-2.148208,4.667912E-06,-0.324375,-1.895425E-08,NaN,NaN,-0.01991568,-2.514578E-10,1.58577E-06,-1.151447E-07,2.781978E-08,-2.622604E-08
149.5107,0.04514002,-2.86671E-08,NaN,-0.3287318,-1.376515E-07,NaN,-1.240641,5.649558E-08,NaN,-2.148557,4.668611E-06,-0.3268661,-1.886166E-08,NaN,NaN,-0.01992236,-2.561144E-10,1.46659E-06,-1.151443E-07,3.020396E-08,-2.861022E-08
149.5261,0.0451395,-2.866594E-08,NaN,-0.3287131,-1.376508E-07,NaN,-1.234189,5.640736E-08,NaN,-2.148916,4.669314E-06,-0.3291373,-1.8771E-08,NaN,NaN,-0.01992844,-2.654276E-10,1.358361E-06,-1.15144E-07,2.781978E-08,-2.622604E-08
149.5408,0.04513899,-2.866478E-08,NaN,-0.3286946,-1.376501E-07,NaN,-1.227345,5.632103E-08,NaN,-2.149258,4.670008E-06,-0.3311439,-1.868224E-08,NaN,NaN,-0.01993379,-2.654276E-10,1.26508E-06,-1.151436E-07,2.781978E-08,-2.861022E-08
149.5552,0.04513899,-2.866478E-08,NaN,-0.3286946,-1.376501E-07,NaN,-1.227345,5.632103E-08,NaN,-2.149258,4.670008E-06,-0.3311439,-1.868224E-08,NaN,NaN,-0.01993379,-2.654276E-10,1.26508E-06,-1.151436E-07,2.781978E-08,-2.861022E-08
149.5694,0.04513848,-2.866363E-08,NaN,-0.3286764,-1.376493E-07,NaN,-1.219624,5.623586E-08,NaN,-2.149655,4.670702E-06,-0.3338872,-1.859462E-08,NaN,NaN,-0.01994125,-2.654276E-10,1.135887E-06,-1.151433E-07,2.543559E-08,-2.622604E-08
149.5847,0.04513797,-2.866247E-08,NaN,-0.3286583,-1.376486E-07,NaN,-1.211066,5.615252E-08,NaN,-2.150057,4.671396E-06,-0.3363726,-1.850884E-08,NaN,NaN,-0.01994799,-2.654276E-10,1.017758E-06,-1.151429E-07,2.305141E-08,-2.861022E-08
149.6007,0.04513746,-2.866131E-08,NaN,-0.3286405,-1.376479E-07,NaN,-1.202122,5.607097E-08,NaN,-2.150439,4.67209E-06,-0.338571,-1.842486E-08,NaN,NaN,-0.01995395,-2.654276E-10,9.124812E-07,-1.151426E-07,2.781978E-08,-2.622604E-08
149.6139,0.04513746,-2.866131E-08,NaN,-0.3286405,-1.376479E-07,NaN,-1.202122,5.607097E-08,NaN,-2.150439,4.67209E-06,-0.338571,-1.842486E-08,NaN,NaN,-0.01995395,-2.654276E-10,9.124812E-07,-1.151426E-07,2.781978E-08,-2.622604E-08
149.6279,0.04513695,-2.866016E-08,NaN,-0.3286228,-1.376471E-07,NaN,-1.193066,5.599189E-08,NaN,-2.150797,4.672784E-06,-0.3405846,-1.834334E-08,NaN,NaN,-0.01995941,-2.654276E-10,8.176353E-07,-1.151422E-07,2.543559E-08,-2.861022E-08
149.6433,0.04513645,-2.8659E-08,NaN,-0.3286054,-1.376464E-07,NaN,-1.183289,5.587911E-08,NaN,-2.151211,4.673473E-06,-0.3433866,-1.822812E-08,NaN,NaN,-0.01996718,-2.60771E-10,6.863561E-07,-1.151434E-07,2.781978E-08,-2.622604E-08
149.6579,0.04513645,-2.8659E-08,NaN,-0.3286054,-1.376464E-07,NaN,-1.183289,5.587911E-08,NaN,-2.151211,4.673473E-06,-0.3433866,-1.822812E-08,NaN,NaN,-0.01996718,-2.60771E-10,6.863561E-07,-1.151434E-07,2.781978E-08,-2.622604E-08
149.6717,0.04513595,-2.865784E-08,NaN,-0.3285882,-1.37646E-07,NaN,-1.172761,5.580022E-08,NaN,-2.151634,4.674162E-06,-0.3459564,-1.81468E-08,NaN,NaN,-0.01997428,-2.561144E-10,5.657312E-07,-1.15145E-07,3.020397E-08,-2.861022E-08
149.6867,0.04513544,-2.865669E-08,NaN,-0.3285711,-1.376459E-07,NaN,-1.161897,5.573986E-08,NaN,-2.152038,4.674852E-06,-0.3482466,-1.808401E-08,NaN,NaN,-0.01998061,-2.514578E-10,4.591134E-07,-1.151467E-07,3.020397E-08,-2.622604E-08
149.7034,0.04513494,-2.865553E-08,NaN,-0.3285543,-1.376459E-07,NaN,-1.150959,5.569065E-08,NaN,-2.152417,4.675546E-06,-0.3503515,-1.803238E-08,NaN,NaN,-0.01998644,-2.514578E-10,3.621813E-07,-1.151485E-07,2.54356E-08,-2.861022E-08
149.7171,0.04513494,-2.865553E-08,NaN,-0.3285543,-1.376459E-07,NaN,-1.150959,5.569065E-08,NaN,-2.152417,4.675546E-06,-0.3503515,-1.803238E-08,NaN,NaN,-0.01998644,-2.514578E-10,3.621813E-07,-1.151485E-07,2.54356E-08,-2.861022E-08
149.731,0.04513445,-2.865437E-08,NaN,-0.3285377,-1.37646E-07,NaN,-1.139336,5.564747E-08,NaN,-2.152854,4.676235E-06,-0.3532401,-1.798677E-08,NaN,NaN,-0.0199946,-2.468012E-10,2.243456E-07,-1.151503E-07,2.54356E-08,-2.622604E-08
