JMolnar6/NonAnthroHands_User_Study/HandsLoggerWithURDF/tempdata/files/Reachy_JointMotion_gesture_13_64.csv
Time,r_shoulder,r_shoulder_x,r_upper_arm,r_forearm,r_wrist,r_wrist2hand,
1152.025,-0.2194436,0.0007337496,NaN,-0.4636974,0.002522061,NaN,-0.3763182,-15.01046,NaN,-0.9561163,-1.476767,0.3702952,14.145,NaN,NaN,0.3319106,0.8044231,0.2772833,1.089006,-7.446516E-10,1.320663
1152.04,-0.2194436,0.0007337496,NaN,-0.4636974,0.002522061,NaN,-0.3763182,-15.01046,NaN,-0.9561163,-1.476767,0.3702952,14.145,NaN,NaN,0.3319106,0.8044231,0.2772833,1.089006,-7.446516E-10,1.320663
1152.055,-0.2199948,0.0007341839,NaN,-0.4620302,0.002523665,NaN,-0.3783843,-15.01022,NaN,-0.9570057,-1.471996,0.3770597,14.14001,NaN,NaN,0.3315968,0.8046913,0.2813237,1.082124,-1.057942E-08,1.319898
1152.07,-0.2205603,0.0007345925,NaN,-0.4603177,0.002526599,NaN,-0.380431,-15.01055,NaN,-0.9578612,-1.470227,0.384109,14.1382,NaN,NaN,0.3312269,0.804351,0.285472,1.079567,-1.683791E-08,1.322029
1152.085,-0.2211321,0.0007349799,NaN,-0.458585,0.002530841,NaN,-0.3824994,-15.01132,NaN,-0.9587283,-1.467001,0.3912641,14.13491,NaN,NaN,0.3308019,0.8035776,0.2897511,1.074907,-1.326163E-08,1.326065
1152.1,-0.2211321,0.0007349799,NaN,-0.458585,0.002530841,NaN,-0.3824994,-15.01132,NaN,-0.9587283,-1.467001,0.3912641,14.13491,NaN,NaN,0.3308019,0.8035776,0.2897511,1.074907,-1.326163E-08,1.326065
1152.114,-0.2217054,0.0007348822,NaN,-0.4568476,0.002533322,NaN,-0.3845803,-15.01155,NaN,-0.9595997,-1.46723,0.3984159,14.13516,NaN,NaN,0.3303163,0.8033378,0.2941015,1.075232,-1.653988E-08,1.323714
1152.13,-0.2222438,0.000734859,NaN,-0.4552197,0.002532134,NaN,-0.3865669,-15.01116,NaN,-0.9602802,-1.478386,0.4046991,14.14667,NaN,NaN,0.329515,0.8037439,0.2983225,1.091297,-1.41557E-08,1.324937
1152.145,-0.2227584,0.0007349721,NaN,-0.4536664,0.002534153,NaN,-0.3885399,-15.01229,NaN,-0.9609794,-1.46873,0.4105159,14.13674,NaN,NaN,0.3286797,0.8026831,0.3023972,1.077367,-1.922209E-08,1.329013
1152.16,-0.2232562,0.0007355162,NaN,-0.4521659,0.002534386,NaN,-0.390439,-15.01225,NaN,-0.9616408,-1.478193,0.416022,14.14653,NaN,NaN,0.3278094,0.8026986,0.3062744,1.090986,-1.385767E-08,1.331557
1152.175,-0.2232562,0.0007355162,NaN,-0.4521659,0.002534386,NaN,-0.390439,-15.01225,NaN,-0.9616408,-1.478193,0.416022,14.14653,NaN,NaN,0.3278094,0.8026986,0.3062744,1.090986,-1.385767E-08,1.331557
1152.19,-0.2237413,0.0007359088,NaN,-0.4507045,0.002535688,NaN,-0.3922695,-15.01265,NaN,-0.962266,-1.472592,0.4213204,14.14076,NaN,NaN,0.3269103,0.80233,0.310007,1.082916,-1.02814E-08,1.331275
1152.206,-0.2241833,0.0007369034,NaN,-0.4493783,0.002536854,NaN,-0.3939652,-15.01166,NaN,-0.9626888,-1.480756,0.4256618,14.1491,NaN,NaN,0.3257326,0.8032652,0.3134895,1.094665,-1.41557E-08,1.32797
1152.22,-0.2245969,0.0007373032,NaN,-0.4481413,0.002538946,NaN,-0.3955994,-15.01081,NaN,-0.9631276,-1.47064,0.4294883,14.13854,NaN,NaN,0.3245598,0.804225,0.3167447,1.080105,-9.685349E-09,1.321505
1152.237,-0.2245969,0.0007373032,NaN,-0.4481413,0.002538946,NaN,-0.3955994,-15.01081,NaN,-0.9631276,-1.47064,0.4294883,14.13854,NaN,NaN,0.3245598,0.804225,0.3167447,1.080105,-9.685349E-09,1.321505
1152.25,-0.224991,0.0007386086,NaN,-0.4469646,0.002541311,NaN,-0.3970716,-15.01121,NaN,-0.9635436,-1.47934,0.4329436,14.1476,NaN,NaN,0.3234222,0.8038073,0.3197214,1.092643,-4.916978E-09,1.325179
1152.266,-0.2253714,0.0007391531,NaN,-0.4458303,0.002544696,NaN,-0.398546,-15.01095,NaN,-0.9638259,-1.46914,0.4362711,14.13698,NaN,NaN,0.3222173,0.8041528,0.32261,1.077942,-3.128839E-09,1.322871
1152.282,-0.2257086,0.0007391027,NaN,-0.4448318,0.002545299,NaN,-0.3988464,-15.01081,NaN,-0.9644457,-1.468547,0.4377904,14.13634,NaN,NaN,0.32149,0.8042958,0.3246293,1.077085,-2.234769E-09,1.318668
1152.296,-0.2257086,0.0007391027,NaN,-0.4448318,0.002545299,NaN,-0.3988464,-15.01081,NaN,-0.9644457,-1.468547,0.4377904,14.13634,NaN,NaN,0.32149,0.8042958,0.3246293,1.077085,-2.234769E-09,1.318668
1152.31,-0.2260174,0.0007386437,NaN,-0.4439214,0.002544698,NaN,-0.3997317,-15.01182,NaN,-0.9644967,-1.470586,0.4393386,14.13856,NaN,NaN,0.3202082,0.8032799,0.3268152,1.080023,-6.705117E-09,1.323594
1152.326,-0.2263074,0.0007376559,NaN,-0.4430692,0.002541706,NaN,-0.4002485,-15.01114,NaN,-0.9650378,-1.470302,0.4403873,14.1382,NaN,NaN,0.3194312,0.8039451,0.3287106,1.079615,-7.89721E-09,1.321545
1152.341,-0.2265844,0.0007373843,NaN,-0.4422567,0.002542412,NaN,-0.4008841,-15.01102,NaN,-0.9652291,-1.469814,0.4414082,14.13767,NaN,NaN,0.318372,0.8040542,0.3304943,1.078909,-4.022908E-09,1.320198
1152.356,-0.2265844,0.0007373843,NaN,-0.4422567,0.002542412,NaN,-0.4008841,-15.01102,NaN,-0.9652291,-1.469814,0.4414082,14.13767,NaN,NaN,0.318372,0.8040542,0.3304943,1.078909,-4.022908E-09,1.320198
1152.37,-0.2268191,0.0007376556,NaN,-0.441577,0.002543625,NaN,-0.4004834,-15.01245,NaN,-0.9656755,-1.473339,0.4407499,14.14147,NaN,NaN,0.3176971,0.8026159,0.3315041,1.083986,-6.407094E-09,1.329466
1152.386,-0.2270265,0.0007378007,NaN,-0.440982,0.002546375,NaN,-0.400442,-15.01133,NaN,-0.9657335,-1.467291,0.4399482,14.13509,NaN,NaN,0.3166618,0.8037348,0.3325481,1.075284,-5.513024E-09,1.322197
1152.401,-0.2272159,0.0007381512,NaN,-0.440442,0.002546328,NaN,-0.4002458,-15.012,NaN,-0.9660726,-1.479257,0.4388461,14.14757,NaN,NaN,0.3159313,0.8030948,0.3334112,1.092526,-9.387326E-09,1.329026
1152.417,-0.2272159,0.0007381512,NaN,-0.440442,0.002546328,NaN,-0.4002458,-15.012,NaN,-0.9660726,-1.479257,0.4388461,14.14757,NaN,NaN,0.3159313,0.8030948,0.3334112,1.092526,-9.387326E-09,1.329026
1152.432,-0.2273604,0.0007374058,NaN,-0.4400429,0.002544773,NaN,-0.3991355,-15.01084,NaN,-0.9663327,-1.467761,0.4361212,14.13557,NaN,NaN,0.3153011,0.8043501,0.3334483,1.075989,-6.109071E-09,1.319752
1152.446,-0.2274761,0.0007365029,NaN,-0.4397324,0.002543765,NaN,-0.398264,-15.01084,NaN,-0.9663887,-1.466483,0.4331671,14.13423,NaN,NaN,0.3144983,0.8043428,0.3334631,1.074144,-1.486069E-10,1.317191
1152.461,-0.2275734,0.0007354611,NaN,-0.4394779,0.00253953,NaN,-0.3973364,-15.01087,NaN,-0.9665871,-1.478893,0.4300075,14.14713,NaN,NaN,0.3138791,0.8043535,0.3333238,1.092039,-3.724886E-09,1.321548
1152.476,-0.2275734,0.0007354611,NaN,-0.4394779,0.00253953,NaN,-0.3973364,-15.01087,NaN,-0.9665871,-1.478893,0.4300075,14.14713,NaN,NaN,0.3138791,0.8043535,0.3333238,1.092039,-3.724886E-09,1.321548
1152.491,-0.2276588,0.0007347269,NaN,-0.4392592,0.002539583,NaN,-0.3963547,-15.01077,NaN,-0.9667083,-1.468955,0.4267386,14.13679,NaN,NaN,0.3132573,0.8045286,0.3330159,1.077711,-1.042677E-09,1.316842
1152.507,-0.2277033,0.0007354242,NaN,-0.4391681,0.002540875,NaN,-0.3944723,-15.01138,NaN,-0.9669048,-1.479262,0.4219466,14.14756,NaN,NaN,0.3128552,0.8039188,0.3319834,1.092573,-7.003141E-09,1.32331
1152.522,-0.2277222,0.0007358952,NaN,-0.4391561,0.00254164,NaN,-0.3927728,-15.01248,NaN,-0.9668984,-1.474482,0.4169173,14.14268,NaN,NaN,0.3122861,0.8028527,0.3309032,1.085665,-1.147349E-08,1.328647
1152.537,-0.2277222,0.0007358952,NaN,-0.4391561,0.00254164,NaN,-0.3927728,-15.01248,NaN,-0.9668984,-1.474482,0.4169173,14.14268,NaN,NaN,0.3122861,0.8028527,0.3309032,1.085665,-1.147349E-08,1.328647
1152.551,-0.2277248,0.000735733,NaN,-0.4391924,0.002540729,NaN,-0.3910983,-15.01188,NaN,-0.9669913,-1.469328,0.4117837,14.13728,NaN,NaN,0.3118498,0.8034694,0.3297342,1.078247,-4.022908E-09,1.32334
1152.567,-0.227718,0.0007355117,NaN,-0.4392582,0.002537765,NaN,-0.3893828,-15.01153,NaN,-0.9670432,-1.478951,0.4065842,14.14722,NaN,NaN,0.3114381,0.8038045,0.3284249,1.09211,-3.724885E-09,1.32466
1152.582,-0.2276723,0.0007355578,NaN,-0.4394466,0.002537458,NaN,-0.3867881,-15.0109,NaN,-0.9671607,-1.474351,0.3999031,14.14239,NaN,NaN,0.311226,0.8044552,0.3264031,1.085484,2.235579E-09,1.316549
1152.597,-0.2276723,0.0007355578,NaN,-0.4394466,0.002537458,NaN,-0.3867881,-15.0109,NaN,-0.9671607,-1.474351,0.3999031,14.14239,NaN,NaN,0.311226,0.8044552,0.3264031,1.085484,2.235579E-09,1.316549
1152.612,-0.2276025,0.0007355646,NaN,-0.4397099,0.002534797,NaN,-0.3843269,-15.01069,NaN,-0.967117,-1.480323,0.3929681,14.14857,NaN,NaN,0.3108824,0.8046143,0.3243121,1.094096,3.427672E-09,1.322345
1152.627,-0.2275178,0.0007357702,NaN,-0.4400181,0.002533082,NaN,-0.3819312,-15.01266,NaN,-0.9671265,-1.478191,0.3859837,14.1465,NaN,NaN,0.3106234,0.8026506,0.3221575,1.090988,2.533602E-09,1.330533
1152.641,-0.2274242,0.0007362225,NaN,-0.4403527,0.002533436,NaN,-0.3795272,-15.01068,NaN,-0.9671116,-1.475669,0.3789868,14.14372,NaN,NaN,0.3103936,0.8046231,0.3198986,1.087381,4.321742E-09,1.31659
1152.657,-0.2274242,0.0007362225,NaN,-0.4403527,0.002533436,NaN,-0.3795272,-15.01068,NaN,-0.9671116,-1.475669,0.3789868,14.14372,NaN,NaN,0.3103936,0.8046231,0.3198986,1.087381,4.321742E-09,1.31659
1152.671,-0.2272924,0.0007364311,NaN,-0.4408066,0.002533023,NaN,-0.3762564,-15.01122,NaN,-0.9671683,-1.468644,0.370545,14.13646,NaN,NaN,0.3103445,0.8041135,0.3169459,1.077245,-1.486065E-10,1.321679
1152.687,-0.2271373,0.0007362291,NaN,-0.4413322,0.002532849,NaN,-0.3730799,-15.01068,NaN,-0.9670978,-1.471591,0.3618351,14.13946,NaN,NaN,0.3101877,0.8046457,0.3139059,1.08149,-7.446529E-10,1.317308
1152.702,-0.2269683,0.0007356923,NaN,-0.4418995,0.002532111,NaN,-0.3699939,-15.01165,NaN,-0.9670459,-1.470624,0.3531139,14.13855,NaN,NaN,0.3100769,0.8036721,0.3108177,1.080092,-1.936746E-09,1.322902
1152.717,-0.2269683,0.0007356923,NaN,-0.4418995,0.002532111,NaN,-0.3699939,-15.01165,NaN,-0.9670459,-1.470624,0.3531139,14.13855,NaN,NaN,0.3100769,0.8036721,0.3108177,1.080092,-1.936746E-09,1.322902
1152.732,-0.2267583,0.0007348807,NaN,-0.4425947,0.002528049,NaN,-0.3660531,-15.01082,NaN,-0.9670666,-1.479969,0.3429344,14.14816,NaN,NaN,0.3101324,0.8044681,0.30701,1.09356,5.215811E-09,1.321901
1152.748,-0.2265235,0.0007335529,NaN,-0.4433655,0.002524004,NaN,-0.3621633,-15.01155,NaN,-0.9669833,-1.467408,0.33245,14.13518,NaN,NaN,0.3100958,0.8038571,0.3030705,1.075442,6.109881E-09,1.322255
1152.762,-0.2262744,0.0007321125,NaN,-0.4441796,0.002520357,NaN,-0.3583779,-15.01122,NaN,-0.9668878,-1.468129,0.3219766,14.1359,NaN,NaN,0.3100702,0.8041771,0.2990839,1.076488,5.215811E-09,1.32097
1152.777,-0.2262744,0.0007321125,NaN,-0.4441796,0.002520357,NaN,-0.3583779,-15.01122,NaN,-0.9668878,-1.468129,0.3219766,14.1359,NaN,NaN,0.3100702,0.8041771,0.2990839,1.076488,5.215811E-09,1.32097
1152.793,-0.2260174,0.0007313831,NaN,-0.4450165,0.002516637,NaN,-0.3546661,-15.01186,NaN,-0.9667729,-1.479059,0.3116012,14.14732,NaN,NaN,0.3100531,0.8035389,0.2950698,1.092252,1.494165E-10,1.325793
1152.807,-0.2257234,0.0007311457,NaN,-0.4459685,0.002513172,NaN,-0.3496597,-15.01242,NaN,-0.9668676,-1.480486,0.2994905,14.14884,NaN,NaN,0.3104166,0.8029432,0.2900605,1.094299,-1.486067E-10,1.32904
1152.822,-0.2254077,0.0007315225,NaN,-0.446987,0.002514037,NaN,-0.3445329,-15.0109,NaN,-0.9669895,-1.472846,0.2869892,14.1408,NaN,NaN,0.3108289,0.8045002,0.2848194,1.083315,2.235579E-09,1.31867
1152.837,-0.2254077,0.0007315225,NaN,-0.446987,0.002514037,NaN,-0.3445329,-15.0109,NaN,-0.9669895,-1.472846,0.2869892,14.1408,NaN,NaN,0.3108289,0.8045002,0.2848194,1.083315,2.235579E-09,1.31867
1152.852,-0.2250798,0.0007307071,NaN,-0.4480419,0.002511863,NaN,-0.3396409,-15.01178,NaN,-0.9670621,-1.46755,0.274637,14.13537,NaN,NaN,0.311178,0.803615,0.2796347,1.075669,5.215811E-09,1.322856
1152.868,-0.2247457,0.0007296786,NaN,-0.4491146,0.002510156,NaN,-0.3349452,-15.01157,NaN,-0.9670824,-1.467194,0.2625141,14.13497,NaN,NaN,0.3114713,0.8037975,0.2745112,1.075151,1.937555E-09,1.320126
1152.883,-0.224376,0.0007281502,NaN,-0.4502979,0.002506494,NaN,-0.3300615,-15.01252,NaN,-0.9670307,-1.468421,0.2496042,14.13634,NaN,NaN,0.3116015,0.8028309,0.2691719,1.076919,-2.532793E-09,1.325589
1152.898,-0.224376,0.0007281502,NaN,-0.4502979,0.002506494,NaN,-0.3300615,-15.01252,NaN,-0.9670307,-1.468421,0.2496042,14.13634,NaN,NaN,0.3116015,0.8028309,0.2691719,1.076919,-2.532793E-09,1.325589
1152.912,-0.2239858,0.0007276653,NaN,-0.4515441,0.002503732,NaN,-0.3253984,-15.01204,NaN,-0.9668515,-1.479314,0.2366257,14.14757,NaN,NaN,0.3115551,0.8032947,0.2638247,1.092599,-3.724886E-09,1.326554
1152.928,-0.2235845,0.0007281173,NaN,-0.4528234,0.002501715,NaN,-0.3209642,-15.01174,NaN,-0.9665799,-1.480933,0.2238299,14.14921,NaN,NaN,0.3114031,0.8035544,0.2585168,1.094932,-4.916978E-09,1.325232
1152.943,-0.2231779,0.0007287194,NaN,-0.4541173,0.002502864,NaN,-0.3167188,-15.01145,NaN,-0.9662567,-1.475095,0.2112865,14.14312,NaN,NaN,0.3111934,0.8038876,0.2532784,1.086521,-3.128839E-09,1.32317
1152.958,-0.2231779,0.0007287194,NaN,-0.4541173,0.002502864,NaN,-0.3167188,-15.01145,NaN,-0.9662567,-1.475095,0.2112865,14.14312,NaN,NaN,0.3111934,0.8038876,0.2532784,1.086521,-3.128839E-09,1.32317
1152.974,-0.2227367,0.0007286623,NaN,-0.455519,0.002503533,NaN,-0.3126186,-15.01182,NaN,-0.9667702,-1.468319,0.1982862,14.13612,NaN,NaN,0.3115772,0.8035341,0.2483122,1.076747,4.474396E-10,1.319903
1152.988,-0.2222759,0.0007295255,NaN,-0.4569807,0.002504765,NaN,-0.3086409,-15.01247,NaN,-0.9673791,-1.47865,0.1851278,14.14688,NaN,NaN,0.3119515,0.8028869,0.2432965,1.091626,5.215811E-09,1.328545
1153.003,-0.2218048,0.0007295772,NaN,-0.4584728,0.002502021,NaN,-0.3045591,-15.01133,NaN,-0.9678789,-1.48165,0.1718653,14.14989,NaN,NaN,0.3122951,0.8039634,0.2381403,1.095957,1.639532E-09,1.323529
1153.018,-0.2218048,0.0007295772,NaN,-0.4584728,0.002502021,NaN,-0.3045591,-15.01133,NaN,-0.9678789,-1.48165,0.1718653,14.14989,NaN,NaN,0.3122951,0.8039634,0.2381403,1.095957,1.639532E-09,1.323529
1153.033,-0.2212961,0.0007287822,NaN,-0.4600815,0.002499799,NaN,-0.3008582,-15.01098,NaN,-0.9689052,-1.468244,0.1582778,14.13595,NaN,NaN,0.3129664,0.8044632,0.233428,1.076642,4.474394E-10,1.317077
1153.049,-0.2207664,0.0007288902,NaN,-0.4617547,0.002498229,NaN,-0.2975659,-15.01168,NaN,-0.9700883,-1.47998,0.1447566,14.1482,NaN,NaN,0.3136288,0.8037624,0.2288509,1.093557,-2.532793E-09,1.324046
1153.064,-0.2202258,0.00072879,NaN,-0.46346,0.002499277,NaN,-0.2946014,-15.01155,NaN,-0.9713477,-1.469477,0.1314997,14.13727,NaN,NaN,0.3142782,0.8039947,0.2243636,1.078414,1.043486E-09,1.320969
1153.079,-0.2202258,0.00072879,NaN,-0.46346,0.002499277,NaN,-0.2946014,-15.01155,NaN,-0.9713477,-1.469477,0.1314997,14.13727,NaN,NaN,0.3142782,0.8039947,0.2243636,1.078414,1.043486E-09,1.320969
1153.093,-0.2196808,0.0007290759,NaN,-0.4651774,0.002498403,NaN,-0.2918648,-15.01217,NaN,-0.9726554,-1.479397,0.1185388,14.14762,NaN,NaN,0.314915,0.8033638,0.2199643,1.092703,-1.486069E-10,1.327339
1153.109,-0.2191021,0.000728737,NaN,-0.4669992,0.002497109,NaN,-0.2891881,-15.0122,NaN,-0.9745039,-1.472183,0.1050383,14.14013,NaN,NaN,0.3158537,0.8033991,0.2156512,1.082304,4.023718E-09,1.326208
1153.124,-0.218505,0.0007286167,NaN,-0.4688769,0.002498871,NaN,-0.2868064,-15.01178,NaN,-0.9764967,-1.467876,0.09153993,14.1356,NaN,NaN,0.3167737,0.8038145,0.2114227,1.076092,5.215811E-09,1.322889
1153.139,-0.218505,0.0007286167,NaN,-0.4688769,0.002498871,NaN,-0.2868064,-15.01178,NaN,-0.9764967,-1.467876,0.09153993,14.1356,NaN,NaN,0.3167737,0.8038145,0.2114227,1.076092,5.215811E-09,1.322889
1153.156,-0.217899,0.0007292529,NaN,-0.4707806,0.002501603,NaN,-0.2846985,-15.01292,NaN,-0.9785394,-1.472504,0.07828543,14.14051,NaN,NaN,0.3176757,0.8026775,0.2072771,1.082755,5.811857E-09,1.331397
1153.169,-0.2172902,0.0007292308,NaN,-0.4726917,0.002502066,NaN,-0.2827943,-15.01229,NaN,-0.9805868,-1.47209,0.06532691,14.14001,NaN,NaN,0.3185601,0.803304,0.2032129,1.082155,9.388136E-09,1.326054
1153.184,-0.2166487,0.0007288049,NaN,-0.4747033,0.002502466,NaN,-0.2809534,-15.01176,NaN,-0.9831244,-1.46713,0.05184858,14.13481,NaN,NaN,0.3197415,0.8038372,0.1992283,1.075009,8.196043E-09,1.321319
1153.199,-0.2166487,0.0007288049,NaN,-0.4747033,0.002502466,NaN,-0.2809534,-15.01176,NaN,-0.9831244,-1.46713,0.05184858,14.13481,NaN,NaN,0.3197415,0.8038372,0.1992283,1.075009,8.196043E-09,1.321319
1153.214,-0.2159899,0.000729524,NaN,-0.4767677,0.002503688,NaN,-0.2793955,-15.01241,NaN,-0.9857478,-1.478743,0.03839602,14.14691,NaN,NaN,0.3208996,0.8032137,0.1953218,1.09174,5.811857E-09,1.327947
1153.231,-0.2153232,0.0007305414,NaN,-0.4788553,0.002504547,NaN,-0.2780929,-15.01243,NaN,-0.9883873,-1.481156,0.02519342,14.14941,NaN,NaN,0.322035,0.803156,0.1914919,1.09521,6.407904E-09,1.329381
1153.245,-0.2146543,0.0007307199,NaN,-0.4809477,0.002505729,NaN,-0.2769766,-15.01166,NaN,-0.9910101,-1.4679,0.01228732,14.1356,NaN,NaN,0.3231482,0.8040669,0.1877372,1.076127,9.984182E-09,1.320502
1153.26,-0.2146543,0.0007307199,NaN,-0.4809477,0.002505729,NaN,-0.2769766,-15.01166,NaN,-0.9910101,-1.4679,0.01228732,14.1356,NaN,NaN,0.3231482,0.8040669,0.1877372,1.076127,9.984182E-09,1.320502
1153.274,-0.2139536,0.0007307131,NaN,-0.4831383,0.00250639,NaN,-0.2759301,-15.01214,NaN,-0.9941044,-1.46888,-0.001132075,14.13665,NaN,NaN,0.3245539,0.8035765,0.184056,1.077533,1.773279E-08,1.325333
1153.29,-0.2132362,0.0007302269,NaN,-0.4853793,0.00250606,NaN,-0.2751519,-15.01175,NaN,-0.9972692,-1.4678,-0.01452664,14.13548,NaN,NaN,0.3259319,0.8039575,0.1804471,1.07597,1.952093E-08,1.320749
1153.305,-0.2125115,0.0007304092,NaN,-0.4876412,0.002509474,NaN,-0.2746145,-15.01181,NaN,-1.000438,-1.467568,-0.02767134,14.13523,NaN,NaN,0.3272829,0.8038899,0.1769089,1.075629,1.892488E-08,1.321341
1153.32,-0.2117855,0.0007313511,NaN,-0.4899058,0.00251115,NaN,-0.2742497,-15.0115,NaN,-1.00358,-1.478714,-0.04051963,14.14675,NaN,NaN,0.3286076,0.8042125,0.17344,1.091686,1.832883E-08,1.323091
1153.336,-0.2117855,0.0007313511,NaN,-0.4899058,0.00251115,NaN,-0.2742497,-15.0115,NaN,-1.00358,-1.478714,-0.04051963,14.14675,NaN,NaN,0.3286076,0.8042125,0.17344,1.091686,1.832883E-08,1.323091
1153.35,-0.2110281,0.0007317676,NaN,-0.4922665,0.002513364,NaN,-0.273964,-15.0126,NaN,-1.00718,-1.47002,-0.05387504,14.1378,NaN,NaN,0.3302205,0.8031824,0.1700392,1.079133,1.266639E-08,1.325973
1153.365,-0.2102547,0.0007317397,NaN,-0.4946755,0.002515236,NaN,-0.2739331,-15.01188,NaN,-1.010838,-1.466994,-0.06720546,14.13458,NaN,NaN,0.3318017,0.8038819,0.1667051,1.074771,1.207035E-08,1.321276
1153.38,-0.2094747,0.0007324205,NaN,-0.4971034,0.00251703,NaN,-0.2741286,-15.0129,NaN,-1.014492,-1.477635,-0.08028544,14.14573,NaN,NaN,0.3333519,0.8028811,0.1634364,1.090106,4.321742E-09,1.329993
1153.396,-0.2094747,0.0007324205,NaN,-0.4971034,0.00251703,NaN,-0.2741286,-15.0129,NaN,-1.014492,-1.477635,-0.08028544,14.14573,NaN,NaN,0.3333519,0.8028811,0.1634364,1.090106,4.321742E-09,1.329993
1153.41,-0.2086603,0.0007327048,NaN,-0.4996366,0.00251865,NaN,-0.2744584,-15.01136,NaN,-1.018605,-1.47156,-0.09386144,14.1393,NaN,NaN,0.3351859,0.8044515,0.1602317,1.081376,5.513835E-09,1.319574
1153.426,-0.2078284,0.0007326021,NaN,-0.5022229,0.002520385,NaN,-0.2750606,-15.01201,NaN,-1.022774,-1.467018,-0.1073952,14.13464,NaN,NaN,0.336984,0.8038207,0.1570899,1.074826,1.34151E-09,1.322965
1153.441,-0.2069892,0.0007325757,NaN,-0.5048302,0.002522988,NaN,-0.2758913,-15.01253,NaN,-1.026931,-1.46755,-0.1206635,14.13524,NaN,NaN,0.3387469,0.8033004,0.1540096,1.075593,1.34151E-09,1.325216
1153.456,-0.2069892,0.0007325757,NaN,-0.5048302,0.002522988,NaN,-0.2758913,-15.01253,NaN,-1.026931,-1.46755,-0.1206635,14.13524,NaN,NaN,0.3387469,0.8033004,0.1540096,1.075593,1.34151E-09,1.325216
1153.47,-0.206149,0.0007327146,NaN,-0.5074387,0.002521952,NaN,-0.2768755,-15.01186,NaN,-1.031045,-1.478567,-0.1336248,14.14658,NaN,NaN,0.3404752,0.8039812,0.1509898,1.091458,1.043486E-09,1.324347
1153.486,-0.2052781,0.0007322237,NaN,-0.5101407,0.002520752,NaN,-0.2779588,-15.01227,NaN,-1.035593,-1.470036,-0.1470768,14.13776,NaN,NaN,0.3424839,0.8036387,0.1480292,1.079156,-2.234769E-09,1.324157
1153.501,-0.2043922,0.0007319181,NaN,-0.512888,0.002522494,NaN,-0.2792744,-15.01257,NaN,-1.04018,-1.466448,-0.160496,14.13406,NaN,NaN,0.3444531,0.803326,0.1451267,1.073982,-1.486065E-10,1.32543
1153.517,-0.2043922,0.0007319181,NaN,-0.512888,0.002522494,NaN,-0.2792744,-15.01257,NaN,-1.04018,-1.466448,-0.160496,14.13406,NaN,NaN,0.3444531,0.803326,0.1451267,1.073982,-1.486065E-10,1.32543
1153.531,-0.2035007,0.0007326826,NaN,-0.5156507,0.002524042,NaN,-0.2807896,-15.01274,NaN,-1.044745,-1.478981,-0.1736579,14.14705,NaN,NaN,0.3463838,0.803187,0.142281,1.092029,2.533602E-09,1.329858
1153.547,-0.2026096,0.0007328379,NaN,-0.5184104,0.002526537,NaN,-0.2824371,-15.01233,NaN,-1.049258,-1.46814,-0.1865185,14.13577,NaN,NaN,0.3482767,0.8036881,0.1394912,1.076416,2.235579E-09,1.324187
1153.562,-0.2016887,0.0007334672,NaN,-0.5212604,0.002526604,NaN,-0.2841921,-15.01222,NaN,-1.054194,-1.47877,-0.1998695,14.14678,NaN,NaN,0.3504466,0.8037996,0.1367561,1.091728,-3.426862E-09,1.326767
1153.576,-0.2016887,0.0007334672,NaN,-0.5212604,0.002526604,NaN,-0.2841921,-15.01222,NaN,-1.054194,-1.47877,-0.1998695,14.14678,NaN,NaN,0.3504466,0.8037996,0.1367561,1.091728,-3.426862E-09,1.326767
1153.591,-0.2007535,0.0007342056,NaN,-0.5241531,0.002529288,NaN,-0.2861645,-15.01212,NaN,-1.059161,-1.474448,-0.2131877,14.14227,NaN,NaN,0.3525739,0.8039109,0.1340746,1.085493,-4.618955E-09,1.321998
1153.607,-0.1998136,0.0007344644,NaN,-0.5270587,0.002532211,NaN,-0.2883199,-15.01256,NaN,-1.064099,-1.46769,-0.2262484,14.13528,NaN,NaN,0.3546596,0.8034928,0.1314456,1.075743,-9.089304E-09,1.325071
1153.622,-0.1988747,0.0007348218,NaN,-0.5299593,0.00253175,NaN,-0.2905922,-15.01259,NaN,-1.06898,-1.478774,-0.2390088,14.14677,NaN,NaN,0.3567044,0.8034635,0.1288683,1.091705,-9.089304E-09,1.327896
1153.637,-0.1988747,0.0007348218,NaN,-0.5299593,0.00253175,NaN,-0.2905922,-15.01259,NaN,-1.06898,-1.478774,-0.2390088,14.14677,NaN,NaN,0.3567044,0.8034635,0.1288683,1.091705,-9.089304E-09,1.327896
1153.651,-0.1979065,0.0007349697,NaN,-0.5329484,0.002532425,NaN,-0.2929823,-15.01228,NaN,-1.074273,-1.47336,-0.2522572,14.14112,NaN,NaN,0.3590233,0.8037959,0.1263414,1.083903,-1.02814E-08,1.324561
1153.667,-0.1969245,0.0007355241,NaN,-0.5359783,0.002532262,NaN,-0.2955757,-15.01323,NaN,-1.079591,-1.480045,-0.2654707,14.14813,NaN,NaN,0.3612967,0.8028085,0.1238641,1.093524,-7.599187E-09,1.332415
1153.682,-0.1959384,0.000735247,NaN,-0.5390194,0.002532515,NaN,-0.2983357,-15.01234,NaN,-1.084874,-1.468179,-0.2784258,14.13575,NaN,NaN,0.3635255,0.8037943,0.1214354,1.076447,-9.685349E-09,1.323693
1153.698,-0.1959384,0.000735247,NaN,-0.5390194,0.002532515,NaN,-0.2983357,-15.01234,NaN,-1.084874,-1.468179,-0.2784258,14.13575,NaN,NaN,0.3635255,0.8037943,0.1214354,1.076447,-9.685349E-09,1.323693
1153.713,-0.1949198,0.0007359033,NaN,-0.5421584,0.002536858,NaN,-0.3012646,-15.01338,NaN,-1.090575,-1.471034,-0.2918587,14.1388,NaN,NaN,0.3660247,0.802746,0.1190543,1.080548,-1.326163E-08,1.331475
1153.727,-0.1938859,0.0007371266,NaN,-0.5453431,0.0025397,NaN,-0.3044093,-15.01215,NaN,-1.0963,-1.480077,-0.3052382,14.14802,NaN,NaN,0.368475,0.8039432,0.1167199,1.093559,-1.713593E-08,1.326061
1153.742,-0.1928471,0.0007379619,NaN,-0.5485415,0.00253985,NaN,-0.3077185,-15.01266,NaN,-1.101988,-1.48217,-0.3183449,14.15022,NaN,NaN,0.3708773,0.8033937,0.1144313,1.096561,-1.981814E-08,1.326837
1153.757,-0.1928471,0.0007379619,NaN,-0.5485415,0.00253985,NaN,-0.3077185,-15.01266,NaN,-1.101988,-1.48217,-0.3183449,14.15022,NaN,NaN,0.3708773,0.8033937,0.1144313,1.096561,-1.981814E-08,1.326837
1153.772,-0.1918096,0.0007385733,NaN,-0.5517339,0.002540491,NaN,-0.311121,-15.01183,NaN,-1.107609,-1.477085,-0.3311429,14.14487,NaN,NaN,0.3732325,0.8042638,0.1121876,1.089239,-2.011616E-08,1.320024
1153.788,-0.1907433,0.0007390383,NaN,-0.5550128,0.002542281,NaN,-0.3146624,-15.0118,NaN,-1.113624,-1.472026,-0.3444185,14.13959,NaN,NaN,0.3758555,0.8043218,0.1099878,1.081936,-1.713593E-08,1.320026
1153.803,-0.1896639,0.0007397056,NaN,-0.5583299,0.002546449,NaN,-0.318383,-15.01271,NaN,-1.119653,-1.467204,-0.3576475,14.13465,NaN,NaN,0.3784271,0.8034158,0.1078312,1.074971,-1.788099E-08,1.324575
1153.818,-0.1896639,0.0007397056,NaN,-0.5583299,0.002546449,NaN,-0.318383,-15.01271,NaN,-1.119653,-1.467204,-0.3576475,14.13465,NaN,NaN,0.3784271,0.8034158,0.1078312,1.074971,-1.788099E-08,1.324575
1153.832,-0.1885813,0.0007394553,NaN,-0.5616555,0.002546984,NaN,-0.3222404,-15.01285,NaN,-1.125636,-1.47054,-0.3706107,14.13811,NaN,NaN,0.3809484,0.8032715,0.1057169,1.079769,-1.952011E-08,1.322444
1153.848,-0.1875013,0.0007401831,NaN,-0.5649713,0.002546788,NaN,-0.3261707,-15.01281,NaN,-1.131548,-1.479552,-0.3832709,14.14744,NaN,NaN,0.3834202,0.8032905,0.103644,1.092743,-1.989264E-08,1.323617
1153.863,-0.1863931,0.0007400676,NaN,-0.5683707,0.002547115,NaN,-0.33025,-15.01302,NaN,-1.137843,-1.467554,-0.3964103,14.13501,NaN,NaN,0.3861575,0.8031926,0.1016117,1.075456,-1.244206E-08,1.321881
1153.879,-0.1863931,0.0007400676,NaN,-0.5683707,0.002547115,NaN,-0.33025,-15.01302,NaN,-1.137843,-1.467554,-0.3964103,14.13501,NaN,NaN,0.3861575,0.8031926,0.1016117,1.075456,-1.244206E-08,1.321881
1153.894,-0.1852726,0.0007398924,NaN,-0.571806,0.002547281,NaN,-0.3344937,-15.01376,NaN,-1.144148,-1.469797,-0.4094998,14.1374,NaN,NaN,0.3888412,0.8024551,0.09961937,1.078682,-1.348514E-08,1.327394
1153.908,-0.1841495,0.0007396285,NaN,-0.5752478,0.002545809,NaN,-0.338857,-15.01379,NaN,-1.150405,-1.475309,-0.422323,14.1431,NaN,NaN,0.3914724,0.802421,0.09766605,1.086608,-9.201059E-09,1.328784
1153.923,-0.1830296,0.0007393048,NaN,-0.578678,0.002542869,NaN,-0.3432771,-15.01285,NaN,-1.156587,-1.481573,-0.4348452,14.14949,NaN,NaN,0.394052,0.8033109,0.09575104,1.095628,-6.332586E-09,1.32491
1153.938,-0.1830296,0.0007393048,NaN,-0.578678,0.002542869,NaN,-0.3432771,-15.01285,NaN,-1.156587,-1.481573,-0.4348452,14.14949,NaN,NaN,0.394052,0.8033109,0.09575104,1.095628,-6.332586E-09,1.32491
1153.953,-0.1818819,0.0007387678,NaN,-0.5821903,0.002541242,NaN,-0.3478584,-15.01209,NaN,-1.163144,-1.472996,-0.4478456,14.14053,NaN,NaN,0.3968949,0.8041707,0.09387358,1.083284,-2.635235E-09,1.318187
1153.968,-0.1807224,0.0007378339,NaN,-0.585737,0.002539061,NaN,-0.35259,-15.01346,NaN,-1.169708,-1.471713,-0.4607913,14.13932,NaN,NaN,0.3996822,0.8028076,0.09203294,1.081422,-4.795904E-09,1.324287
1153.984,-0.1795607,0.0007375806,NaN,-0.5892887,0.002537037,NaN,-0.3574241,-15.01385,NaN,-1.176222,-1.48042,-0.4734701,14.14837,NaN,NaN,0.4024149,0.8024067,0.09022839,1.093951,-7.254595E-09,1.32862
1153.999,-0.1795607,0.0007375806,NaN,-0.5892887,0.002537037,NaN,-0.3574241,-15.01385,NaN,-1.176222,-1.48042,-0.4734701,14.14837,NaN,NaN,0.4024149,0.8024067,0.09022839,1.093951,-7.254595E-09,1.32862
1154.013,-0.178368,0.0007367878,NaN,-0.592932,0.002534696,NaN,-0.3624644,-15.0134,NaN,-1.183116,-1.468063,-0.4866157,14.13554,NaN,NaN,0.4054079,0.8029917,0.08845922,1.076175,-6.584043E-09,1.323242
1154.029,-0.1771619,0.0007365982,NaN,-0.5966148,0.002534845,NaN,-0.3676624,-15.01303,NaN,-1.190022,-1.473526,-0.4996871,14.14116,NaN,NaN,0.4083424,0.8033853,0.08672474,1.084042,-9.638781E-09,1.323056
1154.044,-0.1759529,0.0007364522,NaN,-0.6003053,0.002536897,NaN,-0.3729574,-15.01329,NaN,-1.196877,-1.468529,-0.5124791,14.136,NaN,NaN,0.4112193,0.8031415,0.08502427,1.076842,-9.936804E-09,1.324239
1154.059,-0.1759529,0.0007364522,NaN,-0.6003053,0.002536897,NaN,-0.3729574,-15.01329,NaN,-1.196877,-1.468529,-0.5124791,14.136,NaN,NaN,0.4112193,0.8031415,0.08502427,1.076842,-9.936804E-09,1.324239
1154.074,-0.1747473,0.0007371202,NaN,-0.6039837,0.00253824,NaN,-0.3782848,-15.01422,NaN,-1.203652,-1.478897,-0.5249652,14.14683,NaN,NaN,0.4140397,0.8022391,0.08335715,1.091774,-1.038384E-08,1.330221
1154.089,-0.1735141,0.0007370684,NaN,-0.6077428,0.002539752,NaN,-0.3837965,-15.01332,NaN,-1.210786,-1.468202,-0.5379207,14.13569,NaN,NaN,0.4171187,0.8032383,0.08172271,1.076398,-9.340758E-09,1.322988
1154.103,-0.1722698,0.0007383857,NaN,-0.6115342,0.002543233,NaN,-0.3894339,-15.01392,NaN,-1.217922,-1.479794,-0.5508052,14.14776,NaN,NaN,0.4201375,0.8026695,0.08012033,1.093092,-5.168432E-09,1.328298
1154.119,-0.1722698,0.0007383857,NaN,-0.6115342,0.002543233,NaN,-0.3894339,-15.01392,NaN,-1.217922,-1.479794,-0.5508052,14.14776,NaN,NaN,0.4201375,0.8026695,0.08012033,1.093092,-5.168432E-09,1.328298
1154.133,-0.1710241,0.0007388437,NaN,-0.6153282,0.002545949,NaN,-0.3951434,-15.01402,NaN,-1.225002,-1.470211,-0.5634168,14.13784,NaN,NaN,0.4230971,0.8026812,0.07854936,1.079295,-4.721397E-09,1.327076
1154.149,-0.169783,0.0007386411,NaN,-0.6191068,0.00254723,NaN,-0.4008669,-15.01327,NaN,-1.231998,-1.467536,-0.575729,14.13499,NaN,NaN,0.4259986,0.8034353,0.07700919,1.075443,-2.1882E-09,1.321414
1154.164,-0.1685149,0.0007382566,NaN,-0.6229634,0.002545185,NaN,-0.4067872,-15.01359,NaN,-1.239344,-1.479869,-0.5885105,14.14781,NaN,NaN,0.4291571,0.803155,0.07549922,1.093209,3.176218E-09,1.324909
1154.179,-0.1685149,0.0007382566,NaN,-0.6229634,0.002545185,NaN,-0.4067872,-15.01359,NaN,-1.239344,-1.479869,-0.5885105,14.14781,NaN,NaN,0.4291571,0.803155,0.07549922,1.093209,3.176218E-09,1.324909
1154.195,-0.1672362,0.0007378411,NaN,-0.6268503,0.002545057,NaN,-0.4128188,-15.01398,NaN,-1.246692,-1.47034,-0.6012153,14.13796,NaN,NaN,0.4322538,0.8028702,0.07401887,1.079482,1.984125E-09,1.327183
1154.209,-0.1659567,0.0007373568,NaN,-0.6307381,0.002544914,NaN,-0.4189055,-15.01349,NaN,-1.253982,-1.469901,-0.6136486,14.13746,NaN,NaN,0.4352898,0.8033562,0.07256754,1.07885,2.580171E-09,1.322434
1154.224,-0.1646824,0.0007370812,NaN,-0.634609,0.002543062,NaN,-0.4249916,-15.01413,NaN,-1.261186,-1.479774,-0.6257864,14.14775,NaN,NaN,0.4382662,0.8027167,0.07114466,1.093072,-4.000609E-10,1.327811
1154.239,-0.1646824,0.0007370812,NaN,-0.634609,0.002543062,NaN,-0.4249916,-15.01413,NaN,-1.261186,-1.479774,-0.6257864,14.14775,NaN,NaN,0.4382662,0.8027167,0.07114466,1.093072,-4.000609E-10,1.327811
1154.256,-0.1633812,0.0007366271,NaN,-0.6385567,0.002539013,NaN,-0.4312885,-15.01286,NaN,-1.268733,-1.482012,-0.6383907,14.14997,NaN,NaN,0.4414981,0.8039529,0.06974969,1.096312,-1.592154E-09,1.32344
1154.269,-0.1620699,0.0007361457,NaN,-0.6425334,0.002537959,NaN,-0.4376827,-15.01271,NaN,-1.276281,-1.471128,-0.6509123,14.13866,NaN,NaN,0.4446668,0.8042306,0.06838208,1.080629,-1.294131E-09,1.320816
1154.284,-0.1607583,0.0007359376,NaN,-0.6465098,0.002540024,NaN,-0.4441156,-15.01339,NaN,-1.283771,-1.467421,-0.6631642,14.13487,NaN,NaN,0.4477734,0.8035612,0.06704128,1.075281,-2.1882E-09,1.325192
1154.299,-0.1607583,0.0007359376,NaN,-0.6465098,0.002540024,NaN,-0.4441156,-15.01339,NaN,-1.283771,-1.467421,-0.6631642,14.13487,NaN,NaN,0.4477734,0.8035612,0.06704128,1.075281,-2.1882E-09,1.325192
1154.314,-0.1594167,0.0007370596,NaN,-0.6505727,0.002542477,NaN,-0.4507977,-15.0131,NaN,-1.291612,-1.478979,-0.6758692,14.14681,NaN,NaN,0.4511329,0.8038759,0.06572676,1.091926,-3.380293E-09,1.324133
1154.329,-0.1580634,0.0007374089,NaN,-0.6546698,0.002544051,NaN,-0.4575793,-15.01278,NaN,-1.29946,-1.47205,-0.6884745,14.13959,NaN,NaN,0.4544266,0.8042456,0.06443803,1.081942,-3.678316E-09,1.32136
1154.344,-0.1567089,0.0007367713,NaN,-0.6587694,0.002543584,NaN,-0.4643923,-15.01275,NaN,-1.30725,-1.467493,-0.7008025,14.13485,NaN,NaN,0.4576558,0.804285,0.06317456,1.075372,4.940088E-10,1.316505
1154.36,-0.1567089,0.0007367713,NaN,-0.6587694,0.002543584,NaN,-0.4643923,-15.01275,NaN,-1.30725,-1.467493,-0.7008025,14.13485,NaN,NaN,0.4576558,0.804285,0.06317456,1.075372,4.940088E-10,1.316505
1154.374,-0.1553597,0.0007361296,NaN,-0.662852,0.002544478,NaN,-0.4711818,-15.01384,NaN,-1.314952,-1.466399,-0.7128362,14.13382,NaN,NaN,0.4608217,0.8032007,0.06193587,1.073794,-1.29413E-09,1.321914
1154.389,-0.1539839,0.0007361093,NaN,-0.6670104,0.002544414,NaN,-0.4782078,-15.01472,NaN,-1.322982,-1.478173,-0.7253219,14.14611,NaN,NaN,0.4642393,0.8023641,0.06072147,1.090751,-4.274363E-09,1.33018
1154.404,-0.1525985,0.0007358912,NaN,-0.6711962,0.002546867,NaN,-0.4853062,-15.01376,NaN,-1.331012,-1.467316,-0.7377093,14.13479,NaN,NaN,0.46759,0.8034096,0.05953088,1.075138,-3.678316E-09,1.323033
1154.419,-0.1525985,0.0007358912,NaN,-0.6711962,0.002546867,NaN,-0.4853062,-15.01376,NaN,-1.331012,-1.467316,-0.7377093,14.13479,NaN,NaN,0.46759,0.8034096,0.05953088,1.075138,-3.678316E-09,1.323033
1154.434,-0.1512134,0.0007364959,NaN,-0.6753796,0.002547211,NaN,-0.4924144,-15.01372,NaN,-1.338981,-1.478984,-0.7498276,14.14687,NaN,NaN,0.4708751,0.8034876,0.05836363,1.091943,-5.466456E-09,1.32527
1154.45,-0.1498346,0.0007376194,NaN,-0.6795429,0.002547874,NaN,-0.4994838,-15.01395,NaN,-1.346857,-1.481354,-0.7616597,14.14934,NaN,NaN,0.4740958,0.8032327,0.05721927,1.095351,-1.294131E-09,1.326555
1154.465,-0.1484297,0.0007380975,NaN,-0.6837797,0.00254967,NaN,-0.506804,-15.01311,NaN,-1.355053,-1.471236,-0.7739375,14.13878,NaN,NaN,0.477567,0.8041828,0.05609735,1.08079,-3.678316E-09,1.320395
1154.479,-0.1484297,0.0007380975,NaN,-0.6837797,0.00254967,NaN,-0.506804,-15.01311,NaN,-1.355053,-1.471236,-0.7739375,14.13878,NaN,NaN,0.477567,0.8041828,0.05609735,1.08079,-3.678316E-09,1.320395
1154.494,-0.1470157,0.0007383986,NaN,-0.6880419,0.002551229,NaN,-0.5141823,-15.0135,NaN,-1.363251,-1.472877,-0.7861134,14.14051,NaN,NaN,0.4809704,0.8037905,0.05499743,1.08315,-3.08227E-09,1.323804
1154.509,-0.1456026,0.0007389738,NaN,-0.6923005,0.002552062,NaN,-0.5215551,-15.01495,NaN,-1.371386,-1.476749,-0.7980259,14.14466,NaN,NaN,0.4843071,0.8023249,0.05391907,1.088719,-3.08227E-09,1.33121
1154.524,-0.1441963,0.0007394381,NaN,-0.6965376,0.002554807,NaN,-0.5288767,-15.01335,NaN,-1.379426,-1.470963,-0.8096594,14.13852,NaN,NaN,0.4875784,0.8039423,0.05286186,1.080404,-4.274363E-09,1.322741
1154.539,-0.1441963,0.0007394381,NaN,-0.6965376,0.002554807,NaN,-0.5288767,-15.01335,NaN,-1.379426,-1.470963,-0.8096594,14.13852,NaN,NaN,0.4875784,0.8039423,0.05286186,1.080404,-4.274363E-09,1.322741
1154.554,-0.142764,0.000739824,NaN,-0.7008471,0.002556306,NaN,-0.5364645,-15.01471,NaN,-1.387781,-1.472397,-0.8217291,14.14014,NaN,NaN,0.4910993,0.802588,0.05182537,1.08247,-6.062503E-09,1.329756
1154.569,-0.1413229,0.000739783,NaN,-0.7051812,0.002557779,NaN,-0.5440966,-15.01346,NaN,-1.396139,-1.468699,-0.8336945,14.13619,NaN,NaN,0.4945514,0.8038343,0.05080922,1.077153,-6.062503E-09,1.321196
1154.585,-0.139883,0.0007406027,NaN,-0.7095105,0.002560533,NaN,-0.5517088,-15.01495,NaN,-1.404433,-1.476591,-0.8454035,14.14453,NaN,NaN,0.4979358,0.8023603,0.04981298,1.088534,-2.486224E-09,1.331467
1154.599,-0.139883,0.0007406027,NaN,-0.7095105,0.002560533,NaN,-0.5517088,-15.01495,NaN,-1.404433,-1.476591,-0.8454035,14.14453,NaN,NaN,0.4979358,0.8023603,0.04981298,1.088534,-2.486224E-09,1.331467
1154.614,-0.138414,0.0007413736,NaN,-0.713922,0.002560972,NaN,-0.5596179,-15.01427,NaN,-1.41305,-1.481431,-0.8575336,14.14949,NaN,NaN,0.5015677,0.8029936,0.04883627,1.095514,-1.890177E-09,1.32721
1154.629,-0.1369347,0.0007419801,NaN,-0.7183633,0.002562851,NaN,-0.5675696,-15.01355,NaN,-1.421677,-1.47624,-0.8695506,14.14406,NaN,NaN,0.5051285,0.8037746,0.04787872,1.088056,-1.02038E-10,1.322378
1154.646,-0.1354559,0.0007420004,NaN,-0.7228029,0.002564558,NaN,-0.5754938,-15.01351,NaN,-1.430242,-1.468104,-0.8813107,14.13562,NaN,NaN,0.5086195,0.8038712,0.04693995,1.076337,-1.294131E-09,1.320695
1154.661,-0.1339841,0.0007424838,NaN,-0.7272212,0.002564947,NaN,-0.5833479,-15.01419,NaN,-1.43871,-1.478962,-0.8927999,14.14696,NaN,NaN,0.5120422,0.8032147,0.04601958,1.091991,2.878194E-09,1.325248
1154.674,-0.1339841,0.0007424838,NaN,-0.7272212,0.002564947,NaN,-0.5833479,-15.01419,NaN,-1.43871,-1.478962,-0.8927999,14.14696,NaN,NaN,0.5120422,0.8032147,0.04601958,1.091991,2.878194E-09,1.325248
1154.688,-0.1324862,0.0007428753,NaN,-0.7317113,0.002566852,NaN,-0.5914938,-15.01338,NaN,-1.447479,-1.471481,-0.9046965,14.13912,NaN,NaN,0.5157115,0.8040658,0.04511726,1.081223,3.47424E-09,1.320513
1154.704,-0.1309801,0.0007429016,NaN,-0.7362245,0.002569695,NaN,-0.5996598,-15.01366,NaN,-1.456252,-1.467532,-0.9164839,14.13504,NaN,NaN,0.519309,0.8037797,0.04423263,1.075525,2.282148E-09,1.321981
1154.719,-0.1309801,0.0007429016,NaN,-0.7362245,0.002569695,NaN,-0.5996598,-15.01366,NaN,-1.456252,-1.467532,-0.9164839,14.13504,NaN,NaN,0.519309,0.8037797,0.04423263,1.075525,2.282148E-09,1.321981
1154.734,-0.129476,0.0007437844,NaN,-0.7407315,0.002571837,NaN,-0.6077811,-15.01422,NaN,-1.464957,-1.479563,-0.9280258,14.14757,NaN,NaN,0.5228361,0.803239,0.04336534,1.092858,-1.020382E-10,1.326532
1154.749,-0.1279797,0.000744342,NaN,-0.7452142,0.002573772,NaN,-0.6158203,-15.01337,NaN,-1.473563,-1.469836,-0.9393066,14.13741,NaN,NaN,0.5262941,0.804183,0.04251506,1.07886,1.090055E-09,1.319274
1154.764,-0.1264579,0.0007437835,NaN,-0.7497666,0.002573564,NaN,-0.624165,-15.0134,NaN,-1.482463,-1.466812,-0.9509783,14.13427,NaN,NaN,0.529998,0.8041539,0.04168145,1.074499,1.090055E-09,1.316189
1154.779,-0.1264579,0.0007437835,NaN,-0.7497666,0.002573564,NaN,-0.624165,-15.0134,NaN,-1.482463,-1.466812,-0.9509783,14.13427,NaN,NaN,0.529998,0.8041539,0.04168145,1.074499,1.090055E-09,1.316189
1154.793,-0.1249282,0.0007427447,NaN,-0.7543405,0.002572618,NaN,-0.6325169,-15.01365,NaN,-1.491367,-1.466181,-0.962545,14.13364,NaN,NaN,0.5336295,0.803908,0.04086419,1.07359,1.090055E-09,1.316771
1154.809,-0.123401,0.0007427859,NaN,-0.7589069,0.002572035,NaN,-0.640812,-15.01441,NaN,-1.500204,-1.478515,-0.9738772,14.14652,NaN,NaN,0.5371899,0.8031893,0.04006295,1.091368,5.858426E-09,1.325233
1154.824,-0.1218821,0.0007421712,NaN,-0.7634481,0.002571862,NaN,-0.6490158,-15.0137,NaN,-1.508938,-1.466759,-0.984958,14.13427,NaN,NaN,0.5406805,0.8040072,0.03927742,1.074446,7.050519E-09,1.31778
1154.84,-0.1203377,0.0007416735,NaN,-0.7680579,0.002570249,NaN,-0.6575384,-15.01519,NaN,-1.517962,-1.475239,-0.9964104,14.14323,NaN,NaN,0.5444164,0.802543,0.03850729,1.086672,3.474241E-09,1.327901
1154.854,-0.1203377,0.0007416735,NaN,-0.7680579,0.002570249,NaN,-0.6575384,-15.01519,NaN,-1.517962,-1.475239,-0.9964104,14.14323,NaN,NaN,0.5444164,0.802543,0.03850729,1.086672,3.474241E-09,1.327901
1154.868,-0.1187857,0.0007421608,NaN,-0.7726886,0.002569411,NaN,-0.6660568,-15.01412,NaN,-1.526992,-1.480841,-1.007764,14.14892,NaN,NaN,0.5480794,0.8035695,0.03775226,1.094741,-1.020379E-10,1.324242
1154.884,-0.1172365,0.0007420706,NaN,-0.7773108,0.002568704,NaN,-0.6745076,-15.01301,NaN,-1.535953,-1.472375,-1.018895,14.14005,NaN,NaN,0.5516706,0.8047768,0.03701203,1.082561,-4.870409E-09,1.316557
1154.899,-0.1172365,0.0007420706,NaN,-0.7773108,0.002568704,NaN,-0.6745076,-15.01301,NaN,-1.535953,-1.472375,-1.018895,14.14005,NaN,NaN,0.5516706,0.8047768,0.03701203,1.082561,-4.870409E-09,1.316557
1154.913,-0.1170772,0.0007419757,NaN,-0.7780415,0.002565837,NaN,-0.6665286,-15.01411,NaN,-1.529889,-1.480297,-1.007663,14.14839,NaN,NaN,0.5435806,0.8036596,0.03628638,1.093982,5.858426E-09,1.32241
1154.929,-0.1177261,0.0007422511,NaN,-0.7763962,0.002564238,NaN,-0.6548907,-15.01485,NaN,-1.518498,-1.479437,-0.9902239,14.14754,NaN,NaN,0.5356439,0.802917,0.03557491,1.092727,-1.202297E-08,1.32532
1154.944,-0.1188545,0.000742977,NaN,-0.7732943,0.002562323,NaN,-0.6418346,-15.01406,NaN,-1.504599,-1.480516,-0.9712763,14.14859,NaN,NaN,0.5278611,0.8036804,0.03487738,1.094285,-1.321506E-08,1.321773
1154.959,-0.1188545,0.000742977,NaN,-0.7732943,0.002562323,NaN,-0.6418346,-15.01406,NaN,-1.504599,-1.480516,-0.9712763,14.14859,NaN,NaN,0.5278611,0.8036804,0.03487738,1.094285,-1.321506E-08,1.321773
1154.973,-0.1202549,0.0007434122,NaN,-0.7693162,0.002561078,NaN,-0.628373,-15.01356,NaN,-1.489587,-1.477283,-0.9519448,14.14518,NaN,NaN,0.5202301,0.8042041,0.03419353,1.089629,-1.083087E-08,1.318228
1154.989,-0.1217655,0.0007431795,NaN,-0.7649273,0.002560698,NaN,-0.6153555,-15.01358,NaN,-1.47456,-1.467158,-0.9332343,14.13466,NaN,NaN,0.5130622,0.8042545,0.03352308,1.075027,-1.440715E-08,1.315156
1155.004,-0.1233301,0.0007432274,NaN,-0.7603082,0.002563535,NaN,-0.6026243,-15.01372,NaN,-1.459594,-1.466454,-0.9148,14.13393,NaN,NaN,0.5060347,0.8040993,0.03286579,1.074006,-1.559924E-08,1.318886
1155.019,-0.1233301,0.0007432274,NaN,-0.7603082,0.002563535,NaN,-0.6026243,-15.01372,NaN,-1.459594,-1.466454,-0.9148,14.13393,NaN,NaN,0.5060347,0.8040993,0.03286579,1.074006,-1.559924E-08,1.318886
1155.035,-0.1249168,0.0007428336,NaN,-0.7555698,0.00256522,NaN,-0.5901923,-15.0138,NaN,-1.444775,-1.465535,-0.8965777,14.13297,NaN,NaN,0.499145,0.8040091,0.03222137,1.072676,-1.798343E-08,1.315465
1155.049,-0.1265076,0.0007427895,NaN,-0.7507797,0.00256946,NaN,-0.5780546,-15.01437,NaN,-1.430142,-1.464697,-0.8785729,14.13215,NaN,NaN,0.4923903,0.8034266,0.03158959,1.071464,-1.917552E-08,1.319437
1155.064,-0.1280557,0.0007427187,NaN,-0.7460838,0.002572216,NaN,-0.5665783,-15.01532,NaN,-1.416133,-1.469139,-0.8614933,14.13685,NaN,NaN,0.4860817,0.8024951,0.0309702,1.077864,-2.394389E-08,1.324756
1155.079,-0.1280557,0.0007427187,NaN,-0.7460838,0.002572216,NaN,-0.5665783,-15.01532,NaN,-1.416133,-1.469139,-0.8614933,14.13685,NaN,NaN,0.4860817,0.8024951,0.0309702,1.077864,-2.394389E-08,1.324756
1155.093,-0.1295717,0.000742352,NaN,-0.7414654,0.002574971,NaN,-0.5554658,-15.01456,NaN,-1.402481,-1.464884,-0.8448159,14.13236,NaN,NaN,0.479897,0.803247,0.03036295,1.071736,-2.27518E-08,1.31999
1155.109,-0.1310621,0.0007424579,NaN,-0.7369145,0.002575695,NaN,-0.544656,-15.01518,NaN,-1.389115,-1.478592,-0.8284039,14.14663,NaN,NaN,0.4738335,0.802689,0.0297676,1.091478,-2.036762E-08,1.327896
1155.124,-0.1325305,0.0007420844,NaN,-0.7324244,0.002575871,NaN,-0.5341129,-15.01456,NaN,-1.375995,-1.473069,-0.8122345,14.14085,NaN,NaN,0.4678889,0.8033525,0.02918393,1.083534,-2.036762E-08,1.321992
1155.14,-0.1339425,0.0007419713,NaN,-0.7280957,0.00257733,NaN,-0.5241534,-15.01557,NaN,-1.363524,-1.470281,-0.7970316,14.13805,NaN,NaN,0.4623746,0.8023534,0.02861171,1.07951,-2.27518E-08,1.327024
1155.154,-0.1339425,0.0007419713,NaN,-0.7280957,0.00257733,NaN,-0.5241534,-15.01557,NaN,-1.363524,-1.470281,-0.7970316,14.13805,NaN,NaN,0.4623746,0.8023534,0.02861171,1.07951,-2.27518E-08,1.327024
1155.168,-0.1353154,0.0007415666,NaN,-0.7238839,0.002576707,NaN,-0.5145248,-15.01621,NaN,-1.351404,-1.475334,-0.7822382,14.14334,NaN,NaN,0.4569685,0.8017099,0.0280507,1.08678,-2.036762E-08,1.332265
1155.184,-0.1366593,0.0007416052,NaN,-0.7197618,0.002576447,NaN,-0.5051677,-15.01617,NaN,-1.339555,-1.478364,-0.7676989,14.14646,NaN,NaN,0.4516685,0.801724,0.02750069,1.091137,-1.798343E-08,1.333403
1155.199,-0.1366593,0.0007416052,NaN,-0.7197618,0.002576447,NaN,-0.5051677,-15.01617,NaN,-1.339555,-1.478364,-0.7676989,14.14646,NaN,NaN,0.4516685,0.801724,0.02750069,1.091137,-1.798343E-08,1.333403
1155.213,-0.1379435,0.0007410168,NaN,-0.715817,0.002576489,NaN,-0.4963526,-15.0151,NaN,-1.328363,-1.467489,-0.7541308,14.13513,NaN,NaN,0.4467861,0.8028922,0.02696146,1.075514,-1.559924E-08,1.323841
1155.23,-0.1391871,0.0007407563,NaN,-0.7119975,0.002574259,NaN,-0.4878519,-15.01426,NaN,-1.317509,-1.479172,-0.7409633,14.14713,NaN,NaN,0.4419996,0.8037393,0.02643281,1.092323,-1.798343E-08,1.323685
1155.244,-0.1404014,0.0007411001,NaN,-0.7082711,0.002571902,NaN,-0.4796034,-15.01503,NaN,-1.306911,-1.481178,-0.7280304,14.14926,NaN,NaN,0.437307,0.8029436,0.02591453,1.095197,-1.679134E-08,1.328937
1155.259,-0.1404014,0.0007411001,NaN,-0.7082711,0.002571902,NaN,-0.4796034,-15.01503,NaN,-1.306911,-1.481178,-0.7280304,14.14926,NaN,NaN,0.437307,0.8029436,0.02591453,1.095197,-1.679134E-08,1.328937
1155.273,-0.1415928,0.0007412362,NaN,-0.7046181,0.002570356,NaN,-0.4715633,-15.01441,NaN,-1.296526,-1.476039,-0.7153056,14.14388,NaN,NaN,0.4327064,0.8036139,0.0254064,1.087799,-9.638779E-09,1.325611
1155.289,-0.1427289,0.0007407163,NaN,-0.7011304,0.002569747,NaN,-0.463983,-15.01404,NaN,-1.286762,-1.466455,-0.7035441,14.13389,NaN,NaN,0.4285097,0.8040411,0.02490824,1.073987,-6.658547E-09,1.318201
1155.304,-0.1438276,0.0007408064,NaN,-0.6977589,0.002569243,NaN,-0.4566848,-15.01531,NaN,-1.2773,-1.477648,-0.6921734,14.14563,NaN,NaN,0.4243955,0.8028044,0.02441985,1.09012,-6.658547E-09,1.327689
1155.319,-0.1438276,0.0007408064,NaN,-0.6977589,0.002569243,NaN,-0.4566848,-15.01531,NaN,-1.2773,-1.477648,-0.6921734,14.14563,NaN,NaN,0.4243955,0.8028044,0.02441985,1.09012,-6.658547E-09,1.327689
1155.333,-0.144899,0.0007409709,NaN,-0.6944733,0.002571678,NaN,-0.4496139,-15.01398,NaN,-1.268065,-1.469194,-0.6810144,14.13675,NaN,NaN,0.420362,0.8041866,0.02394103,1.077954,-7.254593E-09,1.321833
1155.349,-0.1459495,0.0007406706,NaN,-0.6912547,0.002573662,NaN,-0.4427255,-15.01435,NaN,-1.259019,-1.465664,-0.6700382,14.1331,NaN,NaN,0.4164076,0.8038036,0.0234716,1.072857,-6.658547E-09,1.321954
1155.364,-0.1469467,0.000740635,NaN,-0.6881958,0.002574776,NaN,-0.4362389,-15.01544,NaN,-1.250577,-1.473053,-0.660009,14.14087,NaN,NaN,0.4128444,0.8027464,0.02301137,1.083503,-6.658547E-09,1.327717
1155.379,-0.1469467,0.000740635,NaN,-0.6881958,0.002574776,NaN,-0.4362389,-15.01544,NaN,-1.250577,-1.473053,-0.660009,14.14087,NaN,NaN,0.4128444,0.8027464,0.02301137,1.083503,-6.658547E-09,1.327717
1155.393,-0.1479079,0.0007412743,NaN,-0.685248,0.002575077,NaN,-0.4300124,-15.0148,NaN,-1.242411,-1.480091,-0.6503565,14.14809,NaN,NaN,0.4093513,0.8033522,0.02256018,1.093633,-2.486221E-09,1.327319
1155.409,-0.1488433,0.0007413217,NaN,-0.6823811,0.002577321,NaN,-0.4239949,-15.01446,NaN,-1.23445,-1.466044,-0.6408904,14.13349,NaN,NaN,0.4059268,0.8038347,0.02211782,1.073401,-6.980821E-10,1.323918
1155.425,-0.1497592,0.0007415726,NaN,-0.6795765,0.002580054,NaN,-0.418139,-15.01408,NaN,-1.226656,-1.469869,-0.6315796,14.13741,NaN,NaN,0.4025694,0.8042196,0.02168415,1.078907,-3.082268E-09,1.322527
1155.439,-0.1497592,0.0007415726,NaN,-0.6795765,0.002580054,NaN,-0.418139,-15.01408,NaN,-1.226656,-1.469869,-0.6315796,14.13741,NaN,NaN,0.4025694,0.8042196,0.02168415,1.078907,-3.082268E-09,1.322527
1155.453,-0.1506233,0.0007420263,NaN,-0.6769269,0.002580116,NaN,-0.4126348,-15.01472,NaN,-1.219451,-1.479486,-0.6231937,14.14746,NaN,NaN,0.3995915,0.8035779,0.02125897,1.092771,-1.020357E-10,1.32622
1155.469,-0.1514528,0.0007426344,NaN,-0.6743839,0.002581367,NaN,-0.4073713,-15.01439,NaN,-1.212499,-1.466714,-0.6151677,14.13417,NaN,NaN,0.3966723,0.8040096,0.02084213,1.07437,-6.0625E-09,1.32209
1155.484,-0.1522578,0.0007424642,NaN,-0.6719174,0.002580132,NaN,-0.4023011,-15.01591,NaN,-1.205731,-1.475391,-0.6073026,14.14333,NaN,NaN,0.3938104,0.8025085,0.02043347,1.086877,-4.27436E-09,1.332447
1155.499,-0.1522578,0.0007424642,NaN,-0.6719174,0.002580132,NaN,-0.4023011,-15.01591,NaN,-1.205731,-1.475391,-0.6073026,14.14333,NaN,NaN,0.3938104,0.8025085,0.02043347,1.086877,-4.27436E-09,1.332447
1155.513,-0.1530088,0.000742782,NaN,-0.6696134,0.002582523,NaN,-0.3975753,-15.01434,NaN,-1.199556,-1.472641,-0.6003355,14.14033,NaN,NaN,0.3913184,0.8040613,0.02003281,1.082926,-4.27436E-09,1.320161
1155.53,-0.1537242,0.000742903,NaN,-0.6674189,0.002584168,NaN,-0.393088,-15.01466,NaN,-1.193626,-1.46644,-0.5937042,14.13392,NaN,NaN,0.3888755,0.8037532,0.01964002,1.073986,-5.16843E-09,1.32278
1155.544,-0.154415,0.0007433364,NaN,-0.6653014,0.002585442,NaN,-0.3887871,-15.01604,NaN,-1.187868,-1.475063,-0.5872064,14.14301,NaN,NaN,0.3864805,0.8023945,0.01925493,1.086415,-1.023482E-08,1.332757
1155.559,-0.154415,0.0007433364,NaN,-0.6653014,0.002585442,NaN,-0.3887871,-15.01604,NaN,-1.187868,-1.475063,-0.5872064,14.14301,NaN,NaN,0.3864805,0.8023945,0.01925493,1.086415,-1.023482E-08,1.332757
1155.573,-0.155088,0.0007431871,NaN,-0.6632406,0.002586118,NaN,-0.3846185,-15.01456,NaN,-1.182243,-1.467541,-0.5808094,14.13508,NaN,NaN,0.3841325,0.8038891,0.01887738,1.075602,-9.042732E-09,1.323193
1155.589,-0.1557114,0.0007430272,NaN,-0.6613281,0.002584579,NaN,-0.3807303,-15.01537,NaN,-1.17718,-1.47918,-0.5752867,14.14724,NaN,NaN,0.3821443,0.8031006,0.01850724,1.092378,-9.638779E-09,1.330256
1155.604,-0.1563025,0.0007427985,NaN,-0.6595152,0.002583463,NaN,-0.377052,-15.01484,NaN,-1.172332,-1.475187,-0.5700867,14.14306,NaN,NaN,0.3801953,0.8036458,0.01814436,1.086632,-1.142692E-08,1.322578
1155.622,-0.1568713,0.0007423114,NaN,-0.6577714,0.002582569,NaN,-0.3735424,-15.0146,NaN,-1.167632,-1.472661,-0.5649998,14.14041,NaN,NaN,0.3782846,0.8038889,0.0177886,1.082992,-9.936802E-09,1.323495
1155.634,-0.1568713,0.0007423114,NaN,-0.6577714,0.002582569,NaN,-0.3735424,-15.0146,NaN,-1.167632,-1.472661,-0.5649998,14.14041,NaN,NaN,0.3782846,0.8038889,0.0177886,1.082992,-9.936802E-09,1.323495
1155.648,-0.1574241,0.00074158,NaN,-0.6560779,0.002582074,NaN,-0.3701497,-15.01504,NaN,-1.163046,-1.468587,-0.5599892,14.13622,NaN,NaN,0.3764114,0.8034534,0.01743981,1.077117,-1.083087E-08,1.32553
1155.664,-0.1579292,0.0007413753,NaN,-0.6545272,0.002582355,NaN,-0.3670061,-15.01586,NaN,-1.159006,-1.47387,-0.5558273,14.14177,NaN,NaN,0.3748887,0.8026308,0.01709785,1.084725,-9.936802E-09,1.331623
1155.679,-0.1579292,0.0007413753,NaN,-0.6545272,0.002582355,NaN,-0.3670061,-15.01586,NaN,-1.159006,-1.47387,-0.5558273,14.14177,NaN,NaN,0.3748887,0.8026308,0.01709785,1.084725,-9.936802E-09,1.331623
1155.693,-0.1584033,0.0007410801,NaN,-0.6530712,0.002580557,NaN,-0.3640586,-15.01601,NaN,-1.155162,-1.478807,-0.5519689,14.14689,NaN,NaN,0.3733961,0.8024507,0.01676261,1.091829,-8.446685E-09,1.332249
1155.709,-0.1588566,0.0007414254,NaN,-0.6516799,0.002581367,NaN,-0.3612695,-15.01466,NaN,-1.15145,-1.476849,-0.5482,14.14475,NaN,NaN,0.3719328,0.8038064,0.01643394,1.089026,-1.023482E-08,1.319178
1155.724,-0.1592951,0.0007410888,NaN,-0.6503345,0.002580024,NaN,-0.3585864,-15.01529,NaN,-1.147834,-1.473648,-0.5444824,14.14148,NaN,NaN,0.3704982,0.803195,0.01611171,1.084407,-1.63443E-08,1.327277
1155.739,-0.1592951,0.0007410888,NaN,-0.6503345,0.002580024,NaN,-0.3585864,-15.01529,NaN,-1.147834,-1.473648,-0.5444824,14.14148,NaN,NaN,0.3704982,0.803195,0.01611171,1.084407,-1.63443E-08,1.327277
1155.753,-0.1596873,0.0007412814,NaN,-0.6491278,0.002580256,NaN,-0.3561273,-15.01459,NaN,-1.14475,-1.472395,-0.5415874,14.14011,NaN,NaN,0.3694055,0.803892,0.0157958,1.082606,-1.604628E-08,1.322617
1155.769,-0.1600496,0.0007411527,NaN,-0.6480119,0.002577185,NaN,-0.3538529,-15.01499,NaN,-1.141846,-1.480005,-0.5389761,14.14805,NaN,NaN,0.3683345,0.8034697,0.01548609,1.093575,-1.589727E-08,1.326715
1155.784,-0.1603923,0.000741772,NaN,-0.6469567,0.00257777,NaN,-0.3517281,-15.01438,NaN,-1.139057,-1.476413,-0.5364318,14.14427,NaN,NaN,0.3672846,0.8040951,0.01518245,1.088407,-1.559924E-08,1.317896
1155.799,-0.1603923,0.000741772,NaN,-0.6469567,0.00257777,NaN,-0.3517281,-15.01438,NaN,-1.139057,-1.476413,-0.5364318,14.14427,NaN,NaN,0.3672846,0.8040951,0.01518245,1.088407,-1.559924E-08,1.317896
1155.814,-0.160686,0.0007419854,NaN,-0.6460482,0.002578225,NaN,-0.3498443,-15.01415,NaN,-1.136804,-1.469875,-0.5346828,14.13745,NaN,NaN,0.366569,0.8043638,0.01488476,1.078983,-1.515221E-08,1.319695
1155.829,-0.1609487,0.0007423813,NaN,-0.6452339,0.002577736,NaN,-0.3481534,-15.01577,NaN,-1.134725,-1.477741,-0.5331897,14.14578,NaN,NaN,0.3658678,0.8027304,0.01459292,1.090323,-1.619529E-08,1.330353
1155.844,-0.1611913,0.0007426516,NaN,-0.6444814,0.002578514,NaN,-0.3466122,-15.01442,NaN,-1.132752,-1.474449,-0.5317367,14.14224,NaN,NaN,0.3651804,0.8040778,0.0143068,1.08559,-1.619529E-08,1.320863
1155.859,-0.1611913,0.0007426516,NaN,-0.6444814,0.002578514,NaN,-0.3466122,-15.01442,NaN,-1.132752,-1.474449,-0.5317367,14.14224,NaN,NaN,0.3651804,0.8040778,0.0143068,1.08559,-1.619529E-08,1.320863
1155.873,-0.1614206,0.0007424843,NaN,-0.6437702,0.00257914,NaN,-0.3451626,-15.01435,NaN,-1.130849,-1.469643,-0.530287,14.13724,NaN,NaN,0.3645065,0.8041536,0.01402628,1.078659,-1.708936E-08,1.320819
1155.889,-0.1616054,0.0007419385,NaN,-0.6431921,0.002578872,NaN,-0.3439056,-15.01451,NaN,-1.129454,-1.46949,-0.5296109,14.13708,NaN,NaN,0.3641595,0.8039846,0.01375126,1.078434,-1.247E-08,1.321663
1155.904,-0.1617622,0.0007411628,NaN,-0.6426987,0.002578397,NaN,-0.3428156,-15.01478,NaN,-1.128209,-1.46702,-0.5291793,14.13454,NaN,NaN,0.3638197,0.8036934,0.01348164,1.074871,-1.299154E-08,1.3207
1155.919,-0.1617622,0.0007411628,NaN,-0.6426987,0.002578397,NaN,-0.3428156,-15.01478,NaN,-1.128209,-1.46702,-0.5291793,14.13454,NaN,NaN,0.3638197,0.8036934,0.01348164,1.074871,-1.299154E-08,1.3207
1155.933,-0.1619012,0.0007407643,NaN,-0.6422597,0.002575527,NaN,-0.3418605,-15.01448,NaN,-1.127052,-1.478028,-0.5287731,14.14592,NaN,NaN,0.3634865,0.8040083,0.01321731,1.090729,-1.440715E-08,1.322474
1155.949,-0.1620287,0.0007411158,NaN,-0.6418561,0.002576176,NaN,-0.3409864,-15.01618,NaN,-1.125948,-1.474514,-0.5283521,14.14241,NaN,NaN,0.3631599,0.8023059,0.01295816,1.085637,-1.157593E-08,1.330808
1155.964,-0.1621132,0.0007410463,NaN,-0.6415807,0.002576791,NaN,-0.3402922,-15.01464,NaN,-1.125338,-1.471147,-0.5286839,14.13877,NaN,NaN,0.3631535,0.8038313,0.01270409,1.080797,-1.090538E-08,1.321169
1155.979,-0.1621132,0.0007410463,NaN,-0.6415807,0.002576791,NaN,-0.3402922,-15.01464,NaN,-1.125338,-1.471147,-0.5286839,14.13877,NaN,NaN,0.3631535,0.8038313,0.01270409,1.080797,-1.090538E-08,1.321169
1155.993,-0.1621711,0.0007411429,NaN,-0.6413857,0.002578559,NaN,-0.3397574,-15.01583,NaN,-1.124864,-1.470431,-0.529242,14.13814,NaN,NaN,0.3631475,0.8026247,0.01245501,1.07976,-7.329099E-09,1.327702
1156.01,-0.1622124,0.000741409,NaN,-0.6412411,0.002577693,NaN,-0.3393508,-15.01482,NaN,-1.124463,-1.479511,-0.5298064,14.14743,NaN,NaN,0.3631417,0.8036059,0.01221081,1.092831,-7.180088E-09,1.324493
1156.024,-0.1622434,0.0007411925,NaN,-0.6411282,0.002577478,NaN,-0.3390185,-15.01565,NaN,-1.124104,-1.470327,-0.5303367,14.13797,NaN,NaN,0.3631359,0.802846,0.01197139,1.079587,-3.529303E-09,1.326191
1156.039,-0.1622434,0.0007411925,NaN,-0.6411282,0.002577478,NaN,-0.3390185,-15.01565,NaN,-1.124104,-1.470327,-0.5303367,14.13797,NaN,NaN,0.3631359,0.802846,0.01197139,1.079587,-3.529303E-09,1.326191
1156.053,-0.1622332,0.0007415854,NaN,-0.6411394,0.002576681,NaN,-0.3388583,-15.01488,NaN,-1.124225,-1.479555,-0.5315986,14.14745,NaN,NaN,0.3634441,0.8035891,0.01173667,1.09287,-3.976338E-09,1.324902
1156.069,-0.1621978,0.00074197,NaN,-0.6412271,0.002575184,NaN,-0.3388508,-15.01598,NaN,-1.12447,-1.480381,-0.5330686,14.14838,NaN,NaN,0.3637466,0.8024542,0.01150656,1.09404,-4.088097E-09,1.330199
1156.085,-0.1621471,0.0007420347,NaN,-0.6413616,0.002574294,NaN,-0.3389654,-15.01476,NaN,-1.124776,-1.474319,-0.5345267,14.142,NaN,NaN,0.3640431,0.8037069,0.01128096,1.085327,-3.417544E-09,1.322604
1156.099,-0.1621471,0.0007420347,NaN,-0.6413616,0.002574294,NaN,-0.3389654,-15.01476,NaN,-1.124776,-1.474319,-0.5345267,14.142,NaN,NaN,0.3640431,0.8037069,0.01128096,1.085327,-3.417544E-09,1.322604
1156.113,-0.1620519,0.0007418661,NaN,-0.6416289,0.002574322,NaN,-0.3392834,-15.01468,NaN,-1.125568,-1.471646,-0.536694,14.13921,NaN,NaN,0.3646477,0.8037791,0.01105977,1.08147,-2.150946E-09,1.32138
1156.129,-0.1619298,0.0007412395,NaN,-0.641977,0.002573025,NaN,-0.3397675,-15.0145,NaN,-1.126481,-1.467299,-0.5390419,14.13467,NaN,NaN,0.3652406,0.8039467,0.01084293,1.075204,-3.901832E-09,1.31825
1156.146,-0.1617919,0.0007406066,NaN,-0.6423734,0.002569464,NaN,-0.3403766,-15.01571,NaN,-1.127448,-1.478672,-0.5413536,14.1466,NaN,NaN,0.365822,0.802758,0.01063034,1.091599,-7.366352E-09,1.327548
1156.159,-0.1617919,0.0007406066,NaN,-0.6423734,0.002569464,NaN,-0.3403766,-15.01571,NaN,-1.127448,-1.478672,-0.5413536,14.1466,NaN,NaN,0.365822,0.802758,0.01063034,1.091599,-7.366352E-09,1.327548
1156.173,-0.1616448,0.0007405027,NaN,-0.6427978,0.00256991,NaN,-0.3410513,-15.01468,NaN,-1.128436,-1.473488,-0.5435922,14.14114,NaN,NaN,0.366392,0.8038142,0.01042192,1.084144,-9.936802E-09,1.318901
1156.189,-0.1614575,0.0007407305,NaN,-0.643342,0.002572129,NaN,-0.3418926,-15.01589,NaN,-1.129882,-1.471105,-0.5465239,14.13877,NaN,NaN,0.3672646,0.8026093,0.01021758,1.080698,-1.228373E-08,1.327529
1156.205,-0.1612465,0.0007406081,NaN,-0.6439577,0.002572009,NaN,-0.3428762,-15.01587,NaN,-1.131431,-1.473588,-0.5496269,14.14133,NaN,NaN,0.3681203,0.8026124,0.01001726,1.084268,-1.094263E-08,1.32656
1156.219,-0.1612465,0.0007406081,NaN,-0.6439577,0.002572009,NaN,-0.3428762,-15.01587,NaN,-1.131431,-1.473588,-0.5496269,14.14133,NaN,NaN,0.3681203,0.8026124,0.01001726,1.084268,-1.094263E-08,1.32656
1156.233,-0.1610219,0.0007399606,NaN,-0.6446147,0.002572237,NaN,-0.3439702,-15.01494,NaN,-1.133018,-1.466619,-0.5526836,14.13402,NaN,NaN,0.3689594,0.8035582,0.009820865,1.074241,-1.239549E-08,1.319805
1156.249,-0.16079,0.0007397547,NaN,-0.6452942,0.00257038,NaN,-0.3451202,-15.01486,NaN,-1.134614,-1.478569,-0.5556549,14.1464,NaN,NaN,0.369782,0.8036684,0.009628317,1.091455,-1.042109E-08,1.323049
1156.264,-0.1605194,0.0007392789,NaN,-0.646089,0.002569052,NaN,-0.3464358,-15.01593,NaN,-1.136655,-1.471386,-0.5593044,14.13903,NaN,NaN,0.3709022,0.8026462,0.009439539,1.081086,-1.228374E-08,1.326472
1156.279,-0.1605194,0.0007392789,NaN,-0.646089,0.002569052,NaN,-0.3464358,-15.01593,NaN,-1.136655,-1.471386,-0.5593044,14.13903,NaN,NaN,0.3709022,0.8026462,0.009439539,1.081086,-1.228374E-08,1.326472
1156.293,-0.1602263,0.0007396001,NaN,-0.6469513,0.002569827,NaN,-0.3478884,-15.01628,NaN,-1.138788,-1.474594,-0.5631091,14.14237,NaN,NaN,0.3720008,0.8022763,0.009254468,1.085696,-1.43699E-08,1.329431
1156.309,-0.159921,0.000739551,NaN,-0.6478513,0.002570977,NaN,-0.349445,-15.01536,NaN,-1.14095,-1.466615,-0.5668523,14.13403,NaN,NaN,0.3730779,0.8032232,0.009073031,1.074219,-1.191121E-08,1.321969
1156.324,-0.1596095,0.000739743,NaN,-0.6487704,0.002570987,NaN,-0.3510514,-15.0163,NaN,-1.143111,-1.478891,-0.570496,14.14684,NaN,NaN,0.3741338,0.8023138,0.008895148,1.091897,-1.235824E-08,1.331491
1156.339,-0.1596095,0.000739743,NaN,-0.6487704,0.002570987,NaN,-0.3510514,-15.0163,NaN,-1.143111,-1.478891,-0.570496,14.14684,NaN,NaN,0.3741338,0.8023138,0.008895148,1.091897,-1.235824E-08,1.331491
1156.353,-0.1592602,0.0007395929,NaN,-0.6498017,0.002570353,NaN,-0.3528259,-15.01632,NaN,-1.145706,-1.471371,-0.5748028,14.13905,NaN,NaN,0.3754828,0.8023652,0.008720747,1.081075,-1.369934E-08,1.32981
1156.369,-0.1588896,0.000738924,NaN,-0.6508974,0.002569538,NaN,-0.3547322,-15.01541,NaN,-1.148384,-1.468078,-0.5792483,14.13556,NaN,NaN,0.3768057,0.8032596,0.008549776,1.076339,-9.676032E-09,1.323329
1156.384,-0.1585077,0.0007386784,NaN,-0.6520279,0.002570293,NaN,-0.3567362,-15.01602,NaN,-1.151082,-1.469009,-0.583618,14.13658,NaN,NaN,0.3781027,0.8026555,0.008382156,1.077679,-7.21734E-09,1.328705
1156.4,-0.1585077,0.0007386784,NaN,-0.6520279,0.002570293,NaN,-0.3567362,-15.01602,NaN,-1.151082,-1.469009,-0.583618,14.13658,NaN,NaN,0.3781027,0.8026555,0.008382156,1.077679,-7.21734E-09,1.328705
1156.413,-0.1580852,0.0007386371,NaN,-0.6532792,0.002572612,NaN,-0.3589452,-15.0159,NaN,-1.15422,-1.467879,-0.5886312,14.13539,NaN,NaN,0.379688,0.8027638,0.008217818,1.07605,-7.366352E-09,1.327175
1156.428,-0.1576399,0.0007387015,NaN,-0.6545991,0.002574847,NaN,-0.3612994,-15.0163,NaN,-1.157441,-1.470633,-0.5937575,14.13828,NaN,NaN,0.3812425,0.8023568,0.008056711,1.080012,-6.32327E-09,1.329433
1156.443,-0.1571828,0.0007397313,NaN,-0.6559554,0.002577296,NaN,-0.363753,-15.01546,NaN,-1.160678,-1.480695,-0.5987867,14.14859,NaN,NaN,0.3827666,0.8031824,0.007898763,1.094489,-6.770305E-09,1.328055
1156.458,-0.1571828,0.0007397313,NaN,-0.6559554,0.002577296,NaN,-0.363753,-15.01546,NaN,-1.160678,-1.480695,-0.5987867,14.14859,NaN,NaN,0.3827666,0.8031824,0.007898763,1.094489,-6.770305E-09,1.328055
1156.473,-0.1567207,0.0007403317,NaN,-0.6573278,0.002576882,NaN,-0.366247,-15.01538,NaN,-1.163898,-1.482424,-0.6036863,14.15037,NaN,NaN,0.3842607,0.803243,0.007743909,1.09698,-7.515363E-09,1.327206
1156.489,-0.1562221,0.0007410052,NaN,-0.6588086,0.002578679,NaN,-0.3689182,-15.01524,NaN,-1.167532,-1.477692,-0.6092187,14.14545,NaN,NaN,0.3860394,0.8034384,0.007592087,1.090163,-6.472282E-09,1.328738
1156.504,-0.1557036,0.0007412235,NaN,-0.6603494,0.002581432,NaN,-0.3717117,-15.015,NaN,-1.171234,-1.467639,-0.6148565,14.13499,NaN,NaN,0.3877835,0.8037589,0.007443246,1.07568,-5.727224E-09,1.32203
1156.519,-0.1557036,0.0007412235,NaN,-0.6603494,0.002581432,NaN,-0.3717117,-15.015,NaN,-1.171234,-1.467639,-0.6148565,14.13499,NaN,NaN,0.3877835,0.8037589,0.007443246,1.07568,-5.727224E-09,1.32203
1156.533,-0.1551755,0.0007413528,NaN,-0.66192,0.002583563,NaN,-0.3745892,-15.0155,NaN,-1.174939,-1.468432,-0.6203905,14.13586,NaN,NaN,0.3894934,0.8032588,0.007297325,1.07682,-6.025247E-09,1.324543
1156.55,-0.1546439,0.0007414882,NaN,-0.6635019,0.002585407,NaN,-0.3774967,-15.01499,NaN,-1.178618,-1.470726,-0.625787,14.13818,NaN,NaN,0.3911698,0.8037574,0.007154262,1.08012,-5.28019E-09,1.324191
1156.564,-0.154077,0.0007421895,NaN,-0.6651881,0.002586508,NaN,-0.3805872,-15.01622,NaN,-1.182701,-1.478489,-0.6318055,14.14635,NaN,NaN,0.393127,0.8025098,0.007014,1.091304,-7.515363E-09,1.330847
1156.579,-0.154077,0.0007421895,NaN,-0.6651881,0.002586508,NaN,-0.3805872,-15.01622,NaN,-1.182701,-1.478489,-0.6318055,14.14635,NaN,NaN,0.393127,0.8025098,0.007014,1.091304,-7.515363E-09,1.330847
1156.594,-0.1534913,0.0007423909,NaN,-0.6669309,0.002588594,NaN,-0.3837942,-15.0158,NaN,-1.186844,-1.468833,-0.6379148,14.13631,NaN,NaN,0.3950462,0.8030029,0.006876496,1.077411,-5.429201E-09,1.324987
1156.608,-0.152897,0.0007422572,NaN,-0.6687006,0.002590564,NaN,-0.387077,-15.01515,NaN,-1.190983,-1.466977,-0.643909,14.13431,NaN,NaN,0.3969278,0.8036296,0.006741687,1.074734,-5.131178E-09,1.32457
1156.623,-0.1523002,0.0007426188,NaN,-0.6704788,0.002590562,NaN,-0.3903823,-15.01512,NaN,-1.195089,-1.478998,-0.6497561,14.14678,NaN,NaN,0.3987725,0.803682,0.006609519,1.092053,-4.535131E-09,1.324316
1156.638,-0.1523002,0.0007426188,NaN,-0.6704788,0.002590562,NaN,-0.3903823,-15.01512,NaN,-1.195089,-1.478998,-0.6497561,14.14678,NaN,NaN,0.3987725,0.803682,0.006609519,1.092053,-4.535131E-09,1.324316
1156.653,-0.1516688,0.0007427447,NaN,-0.6723588,0.00258845,NaN,-0.3938787,-15.01555,NaN,-1.199589,-1.480679,-0.6562138,14.14855,NaN,NaN,0.4008947,0.8032039,0.006479938,1.094467,-2.448969E-09,1.326929
1156.668,-0.1510194,0.0007419063,NaN,-0.6742928,0.002586713,NaN,-0.3974858,-15.01479,NaN,-1.204143,-1.468067,-0.6627473,14.13541,NaN,NaN,0.4029757,0.8040776,0.006352908,1.076314,-6.621294E-09,1.31946
1156.684,-0.1503622,0.0007420834,NaN,-0.6762512,0.002585564,NaN,-0.4011601,-15.01565,NaN,-1.208688,-1.478669,-0.6691551,14.1465,NaN,NaN,0.4050159,0.8032163,0.006228369,1.091594,-4.535131E-09,1.326943
1156.699,-0.1503622,0.0007420834,NaN,-0.6762512,0.002585564,NaN,-0.4011601,-15.01565,NaN,-1.208688,-1.478669,-0.6691551,14.1465,NaN,NaN,0.4050159,0.8032163,0.006228369,1.091594,-4.535131E-09,1.326943
1156.713,-0.1496674,0.0007415141,NaN,-0.6783204,0.002583425,NaN,-0.4050627,-15.01511,NaN,-1.213635,-1.471328,-0.6761557,14.13884,NaN,NaN,0.4073298,0.8037996,0.006106264,1.081026,-3.641062E-09,1.321652
1156.728,-0.1489533,0.0007416712,NaN,-0.6804481,0.002582848,NaN,-0.4090857,-15.01612,NaN,-1.218637,-1.478497,-0.6832085,14.14637,NaN,NaN,0.4095986,0.8027605,0.005986562,1.091347,-4.237108E-09,1.329074
1156.743,-0.1482307,0.00074161,NaN,-0.6826022,0.002583372,NaN,-0.413175,-15.01455,NaN,-1.223628,-1.471559,-0.6901183,14.13904,NaN,NaN,0.411823,0.8043715,0.005869203,1.081377,-3.045015E-09,1.318412
1156.759,-0.1482307,0.00074161,NaN,-0.6826022,0.002583372,NaN,-0.413175,-15.01455,NaN,-1.223628,-1.471559,-0.6901183,14.13904,NaN,NaN,0.411823,0.8043715,0.005869203,1.081377,-3.045015E-09,1.318412
1156.773,-0.1475064,0.0007412726,NaN,-0.6847627,0.002583867,NaN,-0.4172745,-15.01524,NaN,-1.228575,-1.467971,-0.6968594,14.13538,NaN,NaN,0.4140038,0.8036947,0.005754144,1.076201,-3.939085E-09,1.322174
1156.79,-0.1467484,0.0007420144,NaN,-0.687022,0.002585784,NaN,-0.4215822,-15.01583,NaN,-1.233898,-1.478554,-0.7041857,14.14641,NaN,NaN,0.4164555,0.8031169,0.005641335,1.091449,-8.11141E-09,1.327529
1156.803,-0.1459736,0.0007420352,NaN,-0.6893317,0.00258606,NaN,-0.4259882,-15.01461,NaN,-1.239265,-1.469841,-0.7115571,14.13728,NaN,NaN,0.4188595,0.8044124,0.005530748,1.078918,-1.04956E-08,1.320278
1156.818,-0.1459736,0.0007420352,NaN,-0.6893317,0.00258606,NaN,-0.4259882,-15.01461,NaN,-1.239265,-1.469841,-0.7115571,14.13728,NaN,NaN,0.4188595,0.8044124,0.005530748,1.078918,-1.04956E-08,1.320278
1156.832,-0.1451924,0.0007417512,NaN,-0.6916618,0.002585266,NaN,-0.4304441,-15.01532,NaN,-1.244611,-1.472034,-0.7187817,14.13963,NaN,NaN,0.4212163,0.8037057,0.005422326,1.082084,-1.377385E-08,1.32358
1156.848,-0.1444108,0.0007409509,NaN,-0.693994,0.002584463,NaN,-0.4348988,-15.0147,NaN,-1.249906,-1.468819,-0.7258335,14.13624,NaN,NaN,0.4235269,0.8043431,0.005316032,1.077456,-1.556199E-08,1.31918
1156.864,-0.1435964,0.0007401711,NaN,-0.6964216,0.002582266,NaN,-0.4395715,-15.01546,NaN,-1.255568,-1.470609,-0.7334607,14.13818,NaN,NaN,0.426106,0.8035924,0.005211814,1.080041,-1.317781E-08,1.323606
1156.878,-0.1435964,0.0007401711,NaN,-0.6964216,0.002582266,NaN,-0.4395715,-15.01546,NaN,-1.255568,-1.470609,-0.7334607,14.13818,NaN,NaN,0.426106,0.8035924,0.005211814,1.080041,-1.317781E-08,1.323606
1156.892,-0.1427662,0.0007401333,NaN,-0.6988965,0.002580257,NaN,-0.4443348,-15.01511,NaN,-1.261269,-1.480127,-0.7411201,14.14801,NaN,NaN,0.4286348,0.8039315,0.005109648,1.093758,-1.228374E-08,1.325168
1156.908,-0.1419304,0.0007395065,NaN,-0.7013894,0.002579272,NaN,-0.4491378,-15.01468,NaN,-1.266945,-1.468674,-0.7486255,14.13609,NaN,NaN,0.4311141,0.80447,0.005009485,1.077259,-1.317781E-08,1.319421
1156.923,-0.1410949,0.0007386368,NaN,-0.703882,0.002578591,NaN,-0.4539308,-15.01477,NaN,-1.272564,-1.467988,-0.755953,14.13538,NaN,NaN,0.4335447,0.8043739,0.004911283,1.076266,-1.228374E-08,1.319169
1156.938,-0.1410949,0.0007386368,NaN,-0.703882,0.002578591,NaN,-0.4539308,-15.01477,NaN,-1.272564,-1.467988,-0.755953,14.13538,NaN,NaN,0.4335447,0.8043739,0.004911283,1.076266,-1.228374E-08,1.319169
1156.953,-0.1402273,0.0007393026,NaN,-0.7064677,0.002579213,NaN,-0.4589534,-15.01476,NaN,-1.278542,-1.479344,-0.7638449,14.14717,NaN,NaN,0.4362414,0.8043884,0.004815,1.092639,-1.287978E-08,1.322324
1156.968,-0.1393445,0.0007399388,NaN,-0.7090989,0.00258186,NaN,-0.4640586,-15.01464,NaN,-1.284556,-1.472567,-0.7717561,14.14011,NaN,NaN,0.4388856,0.8045536,0.004720611,1.082865,-1.168769E-08,1.318338
1156.984,-0.1384566,0.0007405393,NaN,-0.7117459,0.002581493,NaN,-0.4691931,-15.01563,NaN,-1.290541,-1.479133,-0.7795072,14.14702,NaN,NaN,0.4414779,0.8035363,0.004628074,1.092329,-9.303504E-09,1.326027
1156.998,-0.1384566,0.0007405393,NaN,-0.7117459,0.002581493,NaN,-0.4691931,-15.01563,NaN,-1.290541,-1.479133,-0.7795072,14.14702,NaN,NaN,0.4414779,0.8035363,0.004628074,1.092329,-9.303504E-09,1.326027
1157.014,-0.1375335,0.0007409222,NaN,-0.7144953,0.002583756,NaN,-0.4745912,-15.01514,NaN,-1.296894,-1.468425,-0.7878055,14.13587,NaN,NaN,0.4443331,0.8041164,0.004537347,1.076905,-8.707457E-09,1.321266
1157.028,-0.1365938,0.0007410398,NaN,-0.7172948,0.002584731,NaN,-0.4800769,-15.01589,NaN,-1.303286,-1.470978,-0.7961035,14.13859,NaN,NaN,0.4471326,0.8033636,0.004448404,1.080581,-6.323271E-09,1.325869
1157.043,-0.1356485,0.0007407459,NaN,-0.7201124,0.002585156,NaN,-0.485588,-15.01548,NaN,-1.309649,-1.468499,-0.8042296,14.13597,NaN,NaN,0.4498773,0.8037593,0.004361201,1.077009,-7.515364E-09,1.322333
1157.058,-0.1356485,0.0007407459,NaN,-0.7201124,0.002585156,NaN,-0.485588,-15.01548,NaN,-1.309649,-1.468499,-0.8042296,14.13597,NaN,NaN,0.4498773,0.8037593,0.004361201,1.077009,-7.515364E-09,1.322333
1157.072,-0.1347041,0.0007407969,NaN,-0.7229283,0.002584849,NaN,-0.4910746,-15.01633,NaN,-1.315947,-1.477397,-0.8121645,14.14528,NaN,NaN,0.4525681,0.8029197,0.004275706,1.089829,-7.515364E-09,1.329096
1157.088,-0.1337281,0.0007410702,NaN,-0.7258352,0.002584336,NaN,-0.4968122,-15.01653,NaN,-1.322589,-1.478827,-0.820637,14.14677,NaN,NaN,0.45552,0.8027003,0.004191886,1.091882,-8.111411E-09,1.330342
1157.103,-0.132738,0.000741413,NaN,-0.7287844,0.002583959,NaN,-0.5026163,-15.01661,NaN,-1.329262,-1.477032,-0.8291031,14.14491,NaN,NaN,0.4584142,0.802631,0.004109713,1.089296,-1.228374E-08,1.329779
