JMolnar6/NonAnthroHands_User_Study/HandsLoggerWithURDF/tempdata/files/Reachy_JointMotion_gesture_5_22.csv
Time,r_shoulder,r_shoulder_x,r_upper_arm,r_forearm,r_wrist,r_wrist2hand,
239.5889,0.04500374,-2.291299E-08,NaN,-0.3270007,-1.366597E-07,NaN,0.4661798,-1.841565E-08,NaN,-2.147838,8.154749E-06,-0.5314504,-1.431284E-08,NaN,NaN,-0.02002199,-1.02446E-10,-3.585672E-07,-1.144773E-07,-2.571733E-08,-2.861022E-08
239.6081,0.04500373,-2.291191E-08,NaN,-0.3270007,-1.366599E-07,NaN,0.4652441,-1.789019E-08,NaN,-2.147862,8.155419E-06,-0.5335926,-1.483613E-08,NaN,NaN,-0.02002116,-1.02446E-10,-3.496265E-07,-1.144759E-07,-2.333315E-08,-2.622604E-08
239.6227,0.04500373,-2.291082E-08,NaN,-0.3270007,-1.3666E-07,NaN,0.4644386,-1.73805E-08,NaN,-2.147904,8.156089E-06,-0.5360996,-1.534364E-08,NaN,NaN,-0.02002171,-1.02446E-10,-3.56481E-07,-1.144745E-07,-2.214105E-08,-2.861022E-08
239.6395,0.04500373,-2.291082E-08,NaN,-0.3270007,-1.3666E-07,NaN,0.4644386,-1.73805E-08,NaN,-2.147904,8.156089E-06,-0.5360996,-1.534364E-08,NaN,NaN,-0.02002171,-1.02446E-10,-3.56481E-07,-1.144745E-07,-2.214105E-08,-2.861022E-08
239.656,0.04500372,-2.290973E-08,NaN,-0.3270007,-1.366601E-07,NaN,0.463839,-1.688347E-08,NaN,-2.147948,8.15676E-06,-0.5385488,-1.583849E-08,NaN,NaN,-0.02002221,-1.02446E-10,-3.624415E-07,-1.144731E-07,-2.094896E-08,-2.622604E-08
239.6734,0.04500372,-2.290864E-08,NaN,-0.3270007,-1.366601E-07,NaN,0.4633657,-1.639744E-08,NaN,-2.147987,8.15743E-06,-0.5409076,-1.632234E-08,NaN,NaN,-0.02002255,-1.02446E-10,-3.651237E-07,-1.144716E-07,-2.571733E-08,-2.861022E-08
239.6907,0.04500372,-2.290756E-08,NaN,-0.3270007,-1.366602E-07,NaN,0.4638667,-1.592079E-08,NaN,-2.147994,8.1581E-06,-0.5409395,-1.679682E-08,NaN,NaN,-0.02002361,-1.02446E-10,-3.782367E-07,-1.144702E-07,-2.214105E-08,-2.622604E-08
239.7073,0.04500372,-2.290647E-08,NaN,-0.3270007,-1.366602E-07,NaN,0.4642765,-1.545333E-08,NaN,-2.14798,8.15877E-06,-0.5405492,-1.72621E-08,NaN,NaN,-0.02002324,-1.02446E-10,-3.725743E-07,-1.144688E-07,-1.975687E-08,-2.861022E-08
239.7242,0.04500372,-2.290538E-08,NaN,-0.3270007,-1.366603E-07,NaN,0.4645036,-1.499489E-08,NaN,-2.147961,8.159441E-06,-0.5401681,-1.771836E-08,NaN,NaN,-0.0200229,-1.02446E-10,-3.681039E-07,-1.144673E-07,-1.975687E-08,-2.622604E-08
239.7412,0.04500372,-2.290429E-08,NaN,-0.3270007,-1.366603E-07,NaN,0.4646209,-1.454387E-08,NaN,-2.147946,8.160111E-06,-0.5398338,-1.81672E-08,NaN,NaN,-0.02002272,-1.02446E-10,-3.660178E-07,-1.144659E-07,-1.856477E-08,-2.861022E-08
239.7582,0.04500372,-2.290429E-08,NaN,-0.3270007,-1.366603E-07,NaN,0.4646209,-1.454387E-08,NaN,-2.147946,8.160111E-06,-0.5398338,-1.81672E-08,NaN,NaN,-0.02002272,-1.02446E-10,-3.660178E-07,-1.144659E-07,-1.856477E-08,-2.861022E-08
239.7744,0.04500373,-2.29032E-08,NaN,-0.3270007,-1.366604E-07,NaN,0.4655893,-1.410155E-08,NaN,-2.147909,8.160781E-06,-0.5372774,-1.860735E-08,NaN,NaN,-0.02002344,-1.02446E-10,-3.734684E-07,-1.144645E-07,-2.333314E-08,-2.622604E-08
239.792,0.04500373,-2.290212E-08,NaN,-0.3270007,-1.366604E-07,NaN,0.4664025,-1.366775E-08,NaN,-2.147856,8.161452E-06,-0.5343759,-1.903897E-08,NaN,NaN,-0.02002282,-1.02446E-10,-3.666138E-07,-1.144631E-07,-1.975686E-08,-2.861022E-08
239.8088,0.04500374,-2.290103E-08,NaN,-0.3270007,-1.366605E-07,NaN,0.4669972,-1.324089E-08,NaN,-2.147803,8.162122E-06,-0.5315456,-1.946365E-08,NaN,NaN,-0.02002228,-1.02446E-10,-3.597593E-07,-1.144617E-07,-1.975686E-08,-2.622604E-08
239.8259,0.04500375,-2.289994E-08,NaN,-0.3270007,-1.366605E-07,NaN,0.4683653,-1.282226E-08,NaN,-2.14773,8.162792E-06,-0.5265603,-1.988011E-08,NaN,NaN,-0.02002271,-1.02446E-10,-3.654218E-07,-1.144603E-07,-1.856477E-08,-2.861022E-08
239.8424,0.04500375,-2.289885E-08,NaN,-0.3270007,-1.366606E-07,NaN,0.4695311,-1.241027E-08,NaN,-2.147642,8.163463E-06,-0.5212938,-2.028992E-08,NaN,NaN,-0.02002187,-1.02446E-10,-3.537988E-07,-1.144589E-07,-1.737268E-08,-2.622604E-08
239.8596,0.04500375,-2.289885E-08,NaN,-0.3270007,-1.366606E-07,NaN,0.4695311,-1.241027E-08,NaN,-2.147642,8.163463E-06,-0.5212938,-2.028992E-08,NaN,NaN,-0.02002187,-1.02446E-10,-3.537988E-07,-1.144589E-07,-1.737268E-08,-2.622604E-08
239.8757,0.04500376,-2.289776E-08,NaN,-0.3270007,-1.366606E-07,NaN,0.4704502,-1.200621E-08,NaN,-2.147557,8.164133E-06,-0.5161535,-2.06918E-08,NaN,NaN,-0.02002114,-1.02446E-10,-3.463483E-07,-1.144575E-07,-1.260431E-08,-2.861022E-08
239.8933,0.04500377,-2.289667E-08,NaN,-0.3270007,-1.366606E-07,NaN,0.4721237,-1.160853E-08,NaN,-2.147455,8.164803E-06,-0.5089046,-2.10873E-08,NaN,NaN,-0.02002138,-1.02446E-10,-3.493285E-07,-1.144561E-07,-1.37964E-08,-2.622604E-08
239.9104,0.04500378,-2.289558E-08,NaN,-0.3270006,-1.366607E-07,NaN,0.4735782,-1.121851E-08,NaN,-2.14734,8.165473E-06,-0.5014228,-2.147515E-08,NaN,NaN,-0.02002036,-1.02446E-10,-3.371096E-07,-1.144547E-07,-1.260431E-08,-2.861022E-08
239.9273,0.04500378,-2.289449E-08,NaN,-0.3270006,-1.366607E-07,NaN,0.4747727,-1.083457E-08,NaN,-2.147228,8.166144E-06,-0.4941127,-2.185691E-08,NaN,NaN,-0.02001946,-1.02446E-10,-3.269768E-07,-1.144533E-07,-1.141221E-08,-2.622604E-08
239.9438,0.04500379,-2.28934E-08,NaN,-0.3270006,-1.366608E-07,NaN,0.4758039,-1.045801E-08,NaN,-2.147125,8.166814E-06,-0.4869961,-2.223129E-08,NaN,NaN,-0.02001873,-1.02446E-10,-3.189301E-07,-1.14452E-07,-1.022012E-08,-2.861022E-08
239.961,0.0450038,-2.289232E-08,NaN,-0.3270006,-1.366608E-07,NaN,0.4776439,-1.008869E-08,NaN,-2.147007,8.167489E-06,-0.4777853,-2.259844E-08,NaN,NaN,-0.02001888,-1.071026E-10,-3.217613E-07,-1.144506E-07,-7.835935E-09,-2.622604E-08
239.9778,0.0450038,-2.289232E-08,NaN,-0.3270006,-1.366608E-07,NaN,0.4776439,-1.008869E-08,NaN,-2.147007,8.167489E-06,-0.4777853,-2.259844E-08,NaN,NaN,-0.02001888,-1.071026E-10,-3.217613E-07,-1.144506E-07,-7.835935E-09,-2.622604E-08
239.9941,0.04500381,-2.289123E-08,NaN,-0.3270006,-1.366609E-07,NaN,0.4792846,-9.725039E-09,NaN,-2.146874,8.168159E-06,-0.4683695,-2.295991E-08,NaN,NaN,-0.02001776,-1.071026E-10,-3.065622E-07,-1.144492E-07,-6.643842E-09,-2.861022E-08
240.012,0.04500382,-2.289014E-08,NaN,-0.3270006,-1.366609E-07,NaN,0.4806705,-9.368374E-09,NaN,-2.146744,8.168829E-06,-0.4591575,-2.33144E-08,NaN,NaN,-0.02001672,-1.071026E-10,-2.933001E-07,-1.144479E-07,-5.451749E-09,-2.622604E-08
240.0289,0.04500384,-2.288905E-08,NaN,-0.3270006,-1.366609E-07,NaN,0.4827971,-9.017139E-09,NaN,-2.146599,8.1695E-06,-0.4479037,-2.366345E-08,NaN,NaN,-0.0200166,-1.071026E-10,-2.903199E-07,-1.144465E-07,-6.643842E-09,-2.861022E-08
240.0458,0.04500385,-2.288796E-08,NaN,-0.3270005,-1.36661E-07,NaN,0.4846816,-8.672642E-09,NaN,-2.146441,8.17017E-06,-0.436502,-2.400577E-08,NaN,NaN,-0.02001529,-1.071026E-10,-2.745247E-07,-1.144452E-07,-5.451749E-09,-2.622604E-08
240.0627,0.04500386,-2.288687E-08,NaN,-0.3270005,-1.36661E-07,NaN,0.4862868,-8.333341E-09,NaN,-2.146289,8.17084E-06,-0.4253519,-2.43429E-08,NaN,NaN,-0.02001411,-1.071026E-10,-2.606666E-07,-1.144438E-07,5.087148E-10,-2.861022E-08
240.08,0.04500386,-2.288687E-08,NaN,-0.3270005,-1.36661E-07,NaN,0.4862868,-8.333341E-09,NaN,-2.146289,8.17084E-06,-0.4253519,-2.43429E-08,NaN,NaN,-0.02001411,-1.071026E-10,-2.606666E-07,-1.144438E-07,5.087148E-10,-2.861022E-08
240.0961,0.04500388,-2.288578E-08,NaN,-0.3270005,-1.366611E-07,NaN,0.4886176,-8.000541E-09,NaN,-2.146125,8.171511E-06,-0.4121958,-2.467352E-08,NaN,NaN,-0.02001381,-1.071026E-10,-2.557492E-07,-1.144425E-07,5.087148E-10,-2.622604E-08
240.1135,0.04500389,-2.288469E-08,NaN,-0.3270004,-1.366611E-07,NaN,0.4906909,-7.674118E-09,NaN,-2.14595,8.172181E-06,-0.3989352,-2.499777E-08,NaN,NaN,-0.02001239,-1.071026E-10,-2.371227E-07,-1.144412E-07,-4.259657E-09,-2.861022E-08
240.1302,0.04500391,-2.28836E-08,NaN,-0.3270004,-1.366612E-07,NaN,0.4924744,-7.352533E-09,NaN,-2.145783,8.172856E-06,-0.3859654,-2.531718E-08,NaN,NaN,-0.0200111,-1.117592E-10,-2.193904E-07,-1.144398E-07,-5.451749E-09,-2.622604E-08
240.151,0.04500392,-2.288252E-08,NaN,-0.3270004,-1.366612E-07,NaN,0.4940687,-7.037104E-09,NaN,-2.145629,8.173526E-06,-0.373302,-2.563043E-08,NaN,NaN,-0.02000999,-1.117592E-10,-2.053833E-07,-1.144385E-07,-4.259657E-09,-2.861022E-08
240.1664,0.04500394,-2.288143E-08,NaN,-0.3270003,-1.366612E-07,NaN,0.4964471,-6.726298E-09,NaN,-2.145467,8.174196E-06,-0.3586341,-2.593906E-08,NaN,NaN,-0.02000964,-1.117592E-10,-2.003169E-07,-1.144372E-07,-1.875471E-09,-2.622604E-08
240.1815,0.04500395,-2.288034E-08,NaN,-0.3270003,-1.366613E-07,NaN,0.4985894,-6.421437E-09,NaN,-2.145294,8.174867E-06,-0.3438831,-2.624174E-08,NaN,NaN,-0.02000822,-1.117592E-10,-1.79567E-07,-1.144359E-07,-3.067564E-09,-2.861022E-08
240.198,0.04500395,-2.288034E-08,NaN,-0.3270003,-1.366613E-07,NaN,0.4985894,-6.421437E-09,NaN,-2.145294,8.174867E-06,-0.3438831,-2.624174E-08,NaN,NaN,-0.02000822,-1.117592E-10,-1.79567E-07,-1.144359E-07,-3.067564E-09,-2.861022E-08
240.2144,0.04500397,-2.287925E-08,NaN,-0.3270003,-1.366613E-07,NaN,0.5004501,-6.12099E-09,NaN,-2.145129,8.175542E-06,-0.3294477,-2.654001E-08,NaN,NaN,-0.02000692,-1.164158E-10,-1.580349E-07,-1.144346E-07,-4.259657E-09,-2.622604E-08
240.2321,0.04500399,-2.287816E-08,NaN,-0.3270003,-1.366614E-07,NaN,0.5030298,-5.826286E-09,NaN,-2.144956,8.176212E-06,-0.3130538,-2.683254E-08,NaN,NaN,-0.02000637,-1.164158E-10,-1.526332E-07,-1.144333E-07,-4.259657E-09,-2.861022E-08
240.2491,0.04500401,-2.287707E-08,NaN,-0.3270002,-1.366614E-07,NaN,0.5053329,-5.537212E-09,NaN,-2.144777,8.176882E-06,-0.2966292,-2.711944E-08,NaN,NaN,-0.02000491,-1.164158E-10,-1.274293E-07,-1.14432E-07,-3.067564E-09,-2.622604E-08
240.2659,0.04500402,-2.287598E-08,NaN,-0.3270002,-1.366615E-07,NaN,0.507334,-5.252244E-09,NaN,-2.144608,8.177552E-06,-0.280562,-2.740223E-08,NaN,NaN,-0.0200036,-1.164158E-10,-1.056363E-07,-1.144307E-07,-5.451749E-09,-2.861022E-08
240.2829,0.04500404,-2.287489E-08,NaN,-0.3270002,-1.366615E-07,NaN,0.5091358,-4.972714E-09,NaN,-2.144456,8.178223E-06,-0.2648634,-2.767959E-08,NaN,NaN,-0.02000248,-1.164158E-10,-8.406688E-08,-1.144294E-07,-6.643842E-09,-2.622604E-08
240.2999,0.04500404,-2.287489E-08,NaN,-0.3270002,-1.366615E-07,NaN,0.5091358,-4.972714E-09,NaN,-2.144456,8.178223E-06,-0.2648634,-2.767959E-08,NaN,NaN,-0.02000248,-1.164158E-10,-8.406688E-08,-1.144294E-07,-6.643842E-09,-2.622604E-08
240.3163,0.04500406,-2.28738E-08,NaN,-0.3270001,-1.366615E-07,NaN,0.5117117,-4.697102E-09,NaN,-2.144302,8.178893E-06,-0.247205,-2.795302E-08,NaN,NaN,-0.02000196,-1.164158E-10,-7.277925E-08,-1.144281E-07,-9.028028E-09,-2.861022E-08
240.3336,0.04500408,-2.287271E-08,NaN,-0.3270001,-1.366615E-07,NaN,0.5140321,-4.426747E-09,NaN,-2.144143,8.179563E-06,-0.2295343,-2.82212E-08,NaN,NaN,-0.02000066,-1.164158E-10,-4.461606E-08,-1.144268E-07,-1.260431E-08,-2.622604E-08
240.3507,0.0450041,-2.287162E-08,NaN,-0.3270001,-1.366616E-07,NaN,0.5160599,-4.16013E-09,NaN,-2.143995,8.180234E-06,-0.212242,-2.848564E-08,NaN,NaN,-0.01999952,-1.164158E-10,-2.055068E-08,-1.144255E-07,-1.141221E-08,-2.861022E-08
240.3675,0.04500412,-2.287053E-08,NaN,-0.3270001,-1.366616E-07,NaN,0.5187981,-3.898591E-09,NaN,-2.143847,8.180908E-06,-0.1930343,-2.8745E-08,NaN,NaN,-0.01999895,-1.210724E-10,-5.724027E-09,-1.144243E-07,-1.260431E-08,-2.622604E-08
240.3845,0.04500414,-2.286944E-08,NaN,-0.327,-1.366616E-07,NaN,0.5212436,-3.642028E-09,NaN,-2.143699,8.181579E-06,-0.1738628,-2.899939E-08,NaN,NaN,-0.01999779,-1.210724E-10,2.199213E-08,-1.14423E-07,-9.028028E-09,-2.861022E-08
240.4015,0.04500416,-2.286835E-08,NaN,-0.327,-1.366617E-07,NaN,0.5233784,-3.388934E-09,NaN,-2.143565,8.182249E-06,-0.155108,-2.925031E-08,NaN,NaN,-0.01999681,-1.210724E-10,5.045335E-08,-1.144217E-07,-1.022012E-08,-2.622604E-08
240.4189,0.04500416,-2.286835E-08,NaN,-0.327,-1.366617E-07,NaN,0.5233784,-3.388934E-09,NaN,-2.143565,8.182249E-06,-0.155108,-2.925031E-08,NaN,NaN,-0.01999681,-1.210724E-10,5.045335E-08,-1.144217E-07,-1.022012E-08,-2.622604E-08
240.4345,0.04500419,-2.286726E-08,NaN,-0.327,-1.366617E-07,NaN,0.5262139,-3.140652E-09,NaN,-2.143436,8.182919E-06,-0.134465,-2.949641E-08,NaN,NaN,-0.01999631,-1.210724E-10,6.788771E-08,-1.144205E-07,-7.835935E-09,-2.861022E-08
240.4521,0.04500421,-2.286617E-08,NaN,-0.3269999,-1.366617E-07,NaN,0.5287476,-2.895679E-09,NaN,-2.14331,8.18359E-06,-0.1138923,-2.973921E-08,NaN,NaN,-0.01999542,-1.210724E-10,1.000742E-07,-1.144192E-07,-6.643842E-09,-2.622604E-08
240.4688,0.04500423,-2.286508E-08,NaN,-0.3269999,-1.366613E-07,NaN,0.5309657,-2.949463E-09,NaN,-2.143201,8.184251E-06,-0.09376632,-2.968325E-08,NaN,NaN,-0.01999472,-1.117592E-10,1.319627E-07,-1.144205E-07,-4.259656E-09,-2.861022E-08
240.4861,0.04500425,-2.286399E-08,NaN,-0.3269999,-1.366612E-07,NaN,0.5329755,-2.93312E-09,NaN,-2.143113,8.184912E-06,-0.07409102,-2.969741E-08,NaN,NaN,-0.01999419,-1.02446E-10,1.599769E-07,-1.144222E-07,-6.833776E-10,-2.622604E-08
240.5029,0.04500428,-2.28629E-08,NaN,-0.3269998,-1.366615E-07,NaN,0.53575,-2.880369E-09,NaN,-2.143034,8.185578E-06,-0.05251935,-2.974799E-08,NaN,NaN,-0.01999397,-9.778935E-11,1.757721E-07,-1.144242E-07,5.087153E-10,-2.861022E-08
240.5197,0.04500428,-2.28629E-08,NaN,-0.3269998,-1.366615E-07,NaN,0.53575,-2.880369E-09,NaN,-2.143034,8.185578E-06,-0.05251935,-2.974799E-08,NaN,NaN,-0.01999397,-9.778935E-11,1.757721E-07,-1.144242E-07,5.087153E-10,-2.861022E-08
240.5358,0.0450043,-2.286181E-08,NaN,-0.3269998,-1.36662E-07,NaN,0.5382512,-2.808814E-09,NaN,-2.142961,8.186244E-06,-0.03102622,-2.981738E-08,NaN,NaN,-0.0199936,-9.313274E-11,2.12131E-07,-1.144262E-07,-6.833776E-10,-2.622604E-08
240.5538,0.04500433,-2.286072E-08,NaN,-0.3269998,-1.366625E-07,NaN,0.5404509,-2.72726E-09,NaN,-2.142905,8.186909E-06,-0.009992836,-2.989676E-08,NaN,NaN,-0.0199934,-8.847612E-11,2.437214E-07,-1.144282E-07,4.084994E-09,-2.861022E-08
240.5706,0.04500436,-2.285963E-08,NaN,-0.3269998,-1.366631E-07,NaN,0.5433545,-2.641532E-09,NaN,-2.142862,8.187575E-06,0.01289222,-2.998033E-08,NaN,NaN,-0.0199934,-8.381951E-11,2.601127E-07,-1.144304E-07,4.084994E-09,-2.622604E-08
240.5875,0.04500438,-2.285854E-08,NaN,-0.3269997,-1.366637E-07,NaN,0.5459533,-2.553111E-09,NaN,-2.142828,8.188241E-06,0.0356576,-3.006659E-08,NaN,NaN,-0.0199935,-7.916289E-11,2.979617E-07,-1.144325E-07,7.661273E-09,-2.861022E-08
240.6044,0.04500441,-2.285745E-08,NaN,-0.3269997,-1.366644E-07,NaN,0.5482364,-2.464866E-09,NaN,-2.142813,8.188907E-06,0.05793072,-3.015267E-08,NaN,NaN,-0.01999376,-7.450628E-11,3.304462E-07,-1.144346E-07,1.004546E-08,-2.622604E-08
240.6216,0.04500443,-2.285636E-08,NaN,-0.3269997,-1.36665E-07,NaN,0.550311,-2.378205E-09,NaN,-2.14282,8.189568E-06,0.07970995,-3.023718E-08,NaN,NaN,-0.01999416,-6.519305E-11,3.632288E-07,-1.144367E-07,7.661273E-09,-2.861022E-08
240.6386,0.04500443,-2.285636E-08,NaN,-0.3269997,-1.36665E-07,NaN,0.550311,-2.378205E-09,NaN,-2.14282,8.189568E-06,0.07970995,-3.023718E-08,NaN,NaN,-0.01999416,-6.519305E-11,3.632288E-07,-1.144367E-07,7.661273E-09,-2.861022E-08
240.6546,0.04500446,-2.285527E-08,NaN,-0.3269996,-1.366657E-07,NaN,0.5531493,-2.293091E-09,NaN,-2.142844,8.190234E-06,0.1033447,-3.032014E-08,NaN,NaN,-0.01999459,-6.053644E-11,3.840904E-07,-1.144389E-07,7.661273E-09,-2.622604E-08
240.6721,0.04500448,-2.285418E-08,NaN,-0.3269996,-1.366664E-07,NaN,0.5557138,-2.210905E-09,NaN,-2.142881,8.190899E-06,0.1268577,-3.040017E-08,NaN,NaN,-0.0199954,-5.587983E-11,4.246215E-07,-1.14441E-07,5.277087E-09,-2.861022E-08
240.6908,0.04500451,-2.285309E-08,NaN,-0.3269996,-1.36667E-07,NaN,0.5579773,-2.130178E-09,NaN,-2.142936,8.191565E-06,0.1498698,-3.047874E-08,NaN,NaN,-0.01999635,-5.122321E-11,4.591922E-07,-1.144431E-07,4.084994E-09,-2.622604E-08
240.7059,0.04500454,-2.2852E-08,NaN,-0.3269995,-1.366677E-07,NaN,0.5609442,-2.052293E-09,NaN,-2.143011,8.192231E-06,0.1746905,-3.055448E-08,NaN,NaN,-0.01999718,-4.65666E-11,4.81842E-07,-1.144452E-07,4.084994E-09,-2.861022E-08
240.7228,0.04500457,-2.285091E-08,NaN,-0.3269995,-1.366684E-07,NaN,0.5636098,-1.97578E-09,NaN,-2.143102,8.192897E-06,0.199354,-3.062884E-08,NaN,NaN,-0.01999859,-4.190999E-11,5.229692E-07,-1.144473E-07,6.469179E-09,-2.622604E-08
240.7395,0.04500457,-2.285091E-08,NaN,-0.3269995,-1.366684E-07,NaN,0.5636098,-1.97578E-09,NaN,-2.143102,8.192897E-06,0.199354,-3.062884E-08,NaN,NaN,-0.01999859,-4.190999E-11,5.229692E-07,-1.144473E-07,6.469179E-09,-2.622604E-08
240.7562,0.0450046,-2.284982E-08,NaN,-0.3269995,-1.36669E-07,NaN,0.5659616,-1.902023E-09,NaN,-2.143212,8.193571E-06,0.2234882,-3.070045E-08,NaN,NaN,-0.0200001,-4.65666E-11,5.611162E-07,-1.144494E-07,6.469179E-09,-2.861022E-08
240.7735,0.04500463,-2.284873E-08,NaN,-0.3269995,-1.366697E-07,NaN,0.5690098,-1.83097E-09,NaN,-2.143345,8.194233E-06,0.2494003,-3.076936E-08,NaN,NaN,-0.02000133,-4.190999E-11,5.837659E-07,-1.144515E-07,2.892901E-09,-2.622604E-08
240.7904,0.04500466,-2.284764E-08,NaN,-0.3269994,-1.366704E-07,NaN,0.5717571,-1.762571E-09,NaN,-2.143495,8.194889E-06,0.2751357,-3.083561E-08,NaN,NaN,-0.02000335,-3.259677E-11,6.225089E-07,-1.144536E-07,1.700808E-09,-2.861022E-08
240.8072,0.04500468,-2.284655E-08,NaN,-0.3269994,-1.36671E-07,NaN,0.5741896,-1.695357E-09,NaN,-2.143664,8.195555E-06,0.3003213,-3.090068E-08,NaN,NaN,-0.02000544,-3.259677E-11,6.594638E-07,-1.144557E-07,2.892901E-09,-2.622604E-08
240.8242,0.04500471,-2.284546E-08,NaN,-0.3269994,-1.366717E-07,NaN,0.576413,-1.630716E-09,NaN,-2.143852,8.196221E-06,0.3249548,-3.096317E-08,NaN,NaN,-0.02000754,-3.259677E-11,6.928424E-07,-1.144577E-07,2.892901E-09,-2.861022E-08
240.8409,0.04500474,-2.284437E-08,NaN,-0.3269993,-1.366724E-07,NaN,0.5784943,-1.568601E-09,NaN,-2.144058,8.196886E-06,0.3490692,-3.102313E-08,NaN,NaN,-0.02000968,-3.259677E-11,7.268171E-07,-1.144598E-07,2.892901E-09,-2.622604E-08
240.858,0.04500474,-2.284437E-08,NaN,-0.3269993,-1.366724E-07,NaN,0.5784943,-1.568601E-09,NaN,-2.144058,8.196886E-06,0.3490692,-3.102313E-08,NaN,NaN,-0.02000968,-3.259677E-11,7.268171E-07,-1.144598E-07,2.892901E-09,-2.622604E-08
240.8739,0.04500476,-2.284328E-08,NaN,-0.3269993,-1.36673E-07,NaN,0.580467,-1.507548E-09,NaN,-2.14428,8.197543E-06,0.3726893,-3.108204E-08,NaN,NaN,-0.02001187,-2.328354E-11,7.560233E-07,-1.144619E-07,1.700808E-09,-2.861022E-08
240.8917,0.04500478,-2.284219E-08,NaN,-0.3269993,-1.366737E-07,NaN,0.5823478,-1.448948E-09,NaN,-2.144518,8.198209E-06,0.3958321,-3.113849E-08,NaN,NaN,-0.02001412,-2.328354E-11,7.840375E-07,-1.144639E-07,-4.259656E-09,-2.622604E-08
240.9085,0.0450048,-2.28411E-08,NaN,-0.3269993,-1.366743E-07,NaN,0.5832422,-1.392754E-09,NaN,-2.14476,8.198875E-06,0.4162222,-3.119253E-08,NaN,NaN,-0.02001702,-2.328354E-11,8.215885E-07,-1.144659E-07,-5.451749E-09,-2.861022E-08
240.9254,0.04500481,-2.284001E-08,NaN,-0.3269992,-1.36675E-07,NaN,0.5842048,-1.338923E-09,NaN,-2.145007,8.199531E-06,0.435822,-3.124422E-08,NaN,NaN,-0.02001884,-1.397031E-11,8.394699E-07,-1.14468E-07,1.700808E-09,-2.622604E-08
240.9421,0.04500483,-2.283891E-08,NaN,-0.3269992,-1.366756E-07,NaN,0.585297,-1.285988E-09,NaN,-2.145264,8.200197E-06,0.4550473,-3.129501E-08,NaN,NaN,-0.02002075,-1.397031E-11,8.603315E-07,-1.1447E-07,-6.833778E-10,-2.861022E-08
240.9594,0.04500483,-2.283891E-08,NaN,-0.3269992,-1.366756E-07,NaN,0.585297,-1.285988E-09,NaN,-2.145264,8.200197E-06,0.4550473,-3.129501E-08,NaN,NaN,-0.02002075,-1.397031E-11,8.603315E-07,-1.1447E-07,-6.833778E-10,-2.861022E-08
240.9751,0.04500484,-2.283782E-08,NaN,-0.3269992,-1.366763E-07,NaN,0.585534,-1.235348E-09,NaN,-2.145519,8.200863E-06,0.4716529,-3.13435E-08,NaN,NaN,-0.02002347,-1.397031E-11,8.871536E-07,-1.14472E-07,5.087151E-10,-2.622604E-08
240.9928,0.04500485,-2.283673E-08,NaN,-0.3269992,-1.366769E-07,NaN,0.5859036,-1.186961E-09,NaN,-2.145772,8.201519E-06,0.4875631,-3.138974E-08,NaN,NaN,-0.02002507,-4.657089E-12,8.984784E-07,-1.14474E-07,4.084994E-09,-2.861022E-08
241.0093,0.04500486,-2.283564E-08,NaN,-0.3269992,-1.36678E-07,NaN,0.5864415,-1.052162E-09,NaN,-2.146029,8.202185E-06,0.5031824,-3.15224E-08,NaN,NaN,-0.02002677,-4.657089E-12,9.080152E-07,-1.144751E-07,6.469179E-09,-2.622604E-08
241.0268,0.04500487,-2.283455E-08,NaN,-0.3269992,-1.36679E-07,NaN,0.5870532,-9.325126E-10,NaN,-2.146294,8.202851E-06,0.5185379,-3.163991E-08,NaN,NaN,-0.02002861,-4.657089E-12,9.241085E-07,-1.144761E-07,7.661273E-09,-2.861022E-08
241.0432,0.04500488,-2.283346E-08,NaN,-0.3269992,-1.3668E-07,NaN,0.5867741,-8.150554E-10,NaN,-2.146551,8.203517E-06,0.531348,-3.175522E-08,NaN,NaN,-0.02003126,-4.657089E-12,9.521227E-07,-1.144771E-07,6.46918E-09,-2.622604E-08
241.0601,0.04500489,-2.283237E-08,NaN,-0.3269992,-1.366805E-07,NaN,0.5866102,-7.96812E-10,NaN,-2.146799,8.204173E-06,0.5435185,-3.177133E-08,NaN,NaN,-0.02003266,4.656137E-12,9.610634E-07,-1.14479E-07,8.853366E-09,-2.861022E-08
241.0767,0.04500489,-2.283237E-08,NaN,-0.3269992,-1.366805E-07,NaN,0.5866102,-7.96812E-10,NaN,-2.146799,8.204173E-06,0.5435185,-3.177133E-08,NaN,NaN,-0.02003266,4.656137E-12,9.610634E-07,-1.14479E-07,8.853366E-09,-2.861022E-08
241.093,0.04500489,-2.283128E-08,NaN,-0.3269992,-1.36681E-07,NaN,0.5866169,-7.703372E-10,NaN,-2.147046,8.20483E-06,0.5554631,-3.179565E-08,NaN,NaN,-0.02003411,1.396936E-11,9.69408E-07,-1.144809E-07,5.277087E-09,-2.622604E-08
241.1103,0.04500489,-2.283019E-08,NaN,-0.3269992,-1.366816E-07,NaN,0.5858058,-7.400061E-10,NaN,-2.147282,8.2055E-06,0.5649542,-3.182384E-08,NaN,NaN,-0.02003644,9.312749E-12,9.908657E-07,-1.144828E-07,2.892901E-09,-2.861022E-08
241.1273,0.0450049,-2.28291E-08,NaN,-0.3269992,-1.366822E-07,NaN,0.5851497,-7.087104E-10,NaN,-2.147505,8.206162E-06,0.5738795,-3.185299E-08,NaN,NaN,-0.02003754,1.396936E-11,9.938459E-07,-1.144848E-07,1.700809E-09,-2.622604E-08
241.1441,0.0450049,-2.282801E-08,NaN,-0.3269992,-1.366828E-07,NaN,0.5846915,-6.778803E-10,NaN,-2.147726,8.206832E-06,0.5826483,-3.188168E-08,NaN,NaN,-0.02003872,9.312749E-12,1.000999E-06,-1.144868E-07,2.892901E-09,-2.861022E-08
241.1608,0.0450049,-2.282692E-08,NaN,-0.3269992,-1.366834E-07,NaN,0.5843381,-6.475026E-10,NaN,-2.147949,8.207493E-06,0.591289,-3.190991E-08,NaN,NaN,-0.02004004,1.396936E-11,1.006363E-06,-1.144887E-07,5.277087E-09,-2.622604E-08
241.178,0.0450049,-2.282692E-08,NaN,-0.3269992,-1.366834E-07,NaN,0.5843381,-6.475026E-10,NaN,-2.147949,8.207493E-06,0.591289,-3.190991E-08,NaN,NaN,-0.02004004,1.396936E-11,1.006363E-06,-1.144887E-07,5.277087E-09,-2.622604E-08
241.1939,0.0450049,-2.282583E-08,NaN,-0.3269992,-1.366841E-07,NaN,0.583124,-6.175666E-10,NaN,-2.14816,8.208154E-06,0.5975337,-3.19377E-08,NaN,NaN,-0.02004219,1.862598E-11,1.022456E-06,-1.144907E-07,5.277087E-09,-2.861022E-08
241.2124,0.0450049,-2.282474E-08,NaN,-0.3269992,-1.366847E-07,NaN,0.5820451,-5.894768E-10,NaN,-2.148353,8.208815E-06,0.6032583,-3.196364E-08,NaN,NaN,-0.02004305,2.328259E-11,1.021264E-06,-1.144926E-07,4.084995E-09,-2.622604E-08
241.228,0.0450049,-2.282365E-08,NaN,-0.3269992,-1.366853E-07,NaN,0.5811635,-5.631969E-10,NaN,-2.148542,8.209486E-06,0.6088806,-3.198778E-08,NaN,NaN,-0.02004395,1.862598E-11,1.023648E-06,-1.144946E-07,4.084995E-09,-2.861022E-08
241.2446,0.04500489,-2.282255E-08,NaN,-0.3269992,-1.366859E-07,NaN,0.5794923,-5.3869E-10,NaN,-2.148716,8.210147E-06,0.612186,-3.201014E-08,NaN,NaN,-0.02004577,2.328259E-11,1.037953E-06,-1.144965E-07,2.892902E-09,-2.622604E-08
241.2616,0.04500489,-2.282146E-08,NaN,-0.3269992,-1.366866E-07,NaN,0.5779974,-5.145083E-10,NaN,-2.14887,8.210808E-06,0.6150395,-3.203218E-08,NaN,NaN,-0.02004633,2.79392E-11,1.033781E-06,-1.144984E-07,-6.833769E-10,-2.861022E-08
241.2783,0.04500489,-2.282146E-08,NaN,-0.3269992,-1.366866E-07,NaN,0.5779974,-5.145083E-10,NaN,-2.14887,8.210808E-06,0.6150395,-3.203218E-08,NaN,NaN,-0.02004633,2.79392E-11,1.033781E-06,-1.144984E-07,-6.833769E-10,-2.861022E-08
241.2943,0.04500489,-2.282037E-08,NaN,-0.3269992,-1.366872E-07,NaN,0.576727,-4.920585E-10,NaN,-2.14902,8.211469E-06,0.6178533,-3.205248E-08,NaN,NaN,-0.02004696,3.259581E-11,1.030205E-06,-1.145004E-07,-4.259656E-09,-2.622604E-08
241.3115,0.04500487,-2.281928E-08,NaN,-0.3269992,-1.366878E-07,NaN,0.5746862,-4.713078E-10,NaN,-2.149156,8.212131E-06,0.6184114,-3.207109E-08,NaN,NaN,-0.02004852,3.725242E-11,1.040934E-06,-1.145023E-07,-3.067563E-09,-2.861022E-08
241.3283,0.04500487,-2.281819E-08,NaN,-0.3269992,-1.366884E-07,NaN,0.5728362,-4.508089E-10,NaN,-2.149271,8.212792E-06,0.6185715,-3.208944E-08,NaN,NaN,-0.02004883,4.190904E-11,1.035569E-06,-1.145042E-07,-3.067563E-09,-2.622604E-08
241.3451,0.04500486,-2.28171E-08,NaN,-0.3269992,-1.36689E-07,NaN,0.5712243,-4.319688E-10,NaN,-2.149382,8.213462E-06,0.6187449,-3.210613E-08,NaN,NaN,-0.02004922,3.725242E-11,1.032589E-06,-1.145061E-07,-5.451748E-09,-2.861022E-08
241.362,0.04500486,-2.281601E-08,NaN,-0.3269992,-1.366896E-07,NaN,0.569758,-4.147571E-10,NaN,-2.149495,8.214123E-06,0.6189599,-3.21212E-08,NaN,NaN,-0.02004975,4.190904E-11,1.030205E-06,-1.14508E-07,-6.643841E-09,-2.622604E-08
241.3785,0.04500486,-2.281601E-08,NaN,-0.3269992,-1.366896E-07,NaN,0.569758,-4.147571E-10,NaN,-2.149495,8.214123E-06,0.6189599,-3.21212E-08,NaN,NaN,-0.02004975,4.190904E-11,1.030205E-06,-1.14508E-07,-6.643841E-09,-2.622604E-08
241.3945,0.04500484,-2.281492E-08,NaN,-0.3269993,-1.366902E-07,NaN,0.5674693,-3.977286E-10,NaN,-2.149596,8.214794E-06,0.6169537,-3.213608E-08,NaN,NaN,-0.02005114,3.725242E-11,1.040934E-06,-1.145099E-07,-1.141221E-08,-2.861022E-08
241.4119,0.04500483,-2.281383E-08,NaN,-0.3269993,-1.366908E-07,NaN,0.5653498,-3.822882E-10,NaN,-2.149673,8.215455E-06,0.6145842,-3.214938E-08,NaN,NaN,-0.02005124,4.190904E-11,1.031993E-06,-1.145118E-07,-9.028026E-09,-2.622604E-08
241.4289,0.04500482,-2.281274E-08,NaN,-0.3269993,-1.366914E-07,NaN,0.5634646,-3.684099E-10,NaN,-2.149745,8.216116E-06,0.6122698,-3.216111E-08,NaN,NaN,-0.02005139,4.656565E-11,1.024245E-06,-1.145136E-07,-9.028026E-09,-2.861022E-08
241.446,0.04500481,-2.281165E-08,NaN,-0.3269993,-1.366925E-07,NaN,0.5608258,-4.886727E-10,NaN,-2.149802,8.216791E-06,0.607798,-3.203871E-08,NaN,NaN,-0.02005247,3.259581E-11,1.029609E-06,-1.14513E-07,-9.028026E-09,-2.622604E-08
241.4634,0.04500479,-2.281056E-08,NaN,-0.3269993,-1.366932E-07,NaN,0.5583987,-6.753851E-10,NaN,-2.149837,8.217457E-06,0.6030247,-3.184985E-08,NaN,NaN,-0.0200523,2.79392E-11,1.018284E-06,-1.145119E-07,-1.141221E-08,-2.861022E-08
241.4795,0.04500479,-2.281056E-08,NaN,-0.3269993,-1.366932E-07,NaN,0.5583987,-6.753851E-10,NaN,-2.149837,8.217457E-06,0.6030247,-3.184985E-08,NaN,NaN,-0.0200523,2.79392E-11,1.018284E-06,-1.145119E-07,-1.141221E-08,-2.861022E-08
241.4956,0.04500478,-2.280947E-08,NaN,-0.3269993,-1.366936E-07,NaN,0.5562322,-8.93478E-10,NaN,-2.149866,8.218122E-06,0.598361,-3.162961E-08,NaN,NaN,-0.02005221,2.328258E-11,1.006363E-06,-1.145106E-07,-1.141221E-08,-2.622604E-08
241.5133,0.04500476,-2.280838E-08,NaN,-0.3269994,-1.366938E-07,NaN,0.5533294,-1.128279E-09,NaN,-2.149884,8.218788E-06,0.5915878,-3.139267E-08,NaN,NaN,-0.02005305,1.862597E-11,1.006959E-06,-1.145092E-07,-7.835933E-09,-2.861022E-08
241.5302,0.04500475,-2.280728E-08,NaN,-0.3269994,-1.366938E-07,NaN,0.5506536,-1.369609E-09,NaN,-2.149879,8.219458E-06,0.5845612,-3.114918E-08,NaN,NaN,-0.02005265,9.312747E-12,9.938461E-07,-1.145077E-07,-4.259654E-09,-2.622604E-08
241.5471,0.04500473,-2.280619E-08,NaN,-0.3269994,-1.366939E-07,NaN,0.548251,-1.613123E-09,NaN,-2.14987,8.22012E-06,0.5776899,-3.090351E-08,NaN,NaN,-0.02005233,9.312747E-12,9.837133E-07,-1.145062E-07,-3.067561E-09,-2.861022E-08
241.5637,0.04500472,-2.28051E-08,NaN,-0.3269995,-1.366939E-07,NaN,0.5460269,-1.854552E-09,NaN,-2.149865,8.22079E-06,0.5709991,-3.065993E-08,NaN,NaN,-0.02005216,-4.787837E-16,9.747727E-07,-1.145047E-07,-1.875468E-09,-2.622604E-08
241.581,0.0450047,-2.280401E-08,NaN,-0.3269995,-1.366938E-07,NaN,0.5430109,-2.093947E-09,NaN,-2.149852,8.221451E-06,0.5622162,-3.041837E-08,NaN,NaN,-0.02005285,-4.787837E-16,9.783489E-07,-1.145032E-07,-4.259654E-09,-2.861022E-08
241.5979,0.0450047,-2.280401E-08,NaN,-0.3269995,-1.366938E-07,NaN,0.5430109,-2.093947E-09,NaN,-2.149852,8.221451E-06,0.5622162,-3.041837E-08,NaN,NaN,-0.02005285,-4.787837E-16,9.783489E-07,-1.145032E-07,-4.259654E-09,-2.861022E-08
241.6142,0.04500468,-2.280292E-08,NaN,-0.3269995,-1.366938E-07,NaN,0.5402005,-2.328554E-09,NaN,-2.149814,8.222117E-06,0.5532076,-3.01816E-08,NaN,NaN,-0.02005226,-9.313704E-12,9.634477E-07,-1.145017E-07,-3.067561E-09,-2.622604E-08
241.6315,0.04500467,-2.280183E-08,NaN,-0.3269995,-1.366938E-07,NaN,0.5376573,-2.558443E-09,NaN,-2.149772,8.222783E-06,0.544387,-2.994955E-08,NaN,NaN,-0.02005172,-1.862693E-11,9.509308E-07,-1.145001E-07,-6.64384E-09,-2.861022E-08
241.6484,0.04500465,-2.280074E-08,NaN,-0.3269996,-1.366937E-07,NaN,0.5343887,-2.783706E-09,NaN,-2.14972,8.223448E-06,0.533527,-2.972212E-08,NaN,NaN,-0.02005209,-2.794016E-11,9.515268E-07,-1.144986E-07,-9.028025E-09,-2.622604E-08
241.6653,0.04500463,-2.279965E-08,NaN,-0.3269996,-1.366936E-07,NaN,0.5313684,-3.004437E-09,NaN,-2.149645,8.224105E-06,0.5224983,-2.949922E-08,NaN,NaN,-0.02005124,-2.794016E-11,9.354336E-07,-1.144971E-07,-6.64384E-09,-2.861022E-08
241.6824,0.04500461,-2.279856E-08,NaN,-0.3269996,-1.366936E-07,NaN,0.5286395,-3.219315E-09,NaN,-2.149567,8.224771E-06,0.5117059,-2.928218E-08,NaN,NaN,-0.02005048,-3.725338E-11,9.193403E-07,-1.144956E-07,-6.64384E-09,-2.622604E-08
241.6993,0.04500461,-2.279856E-08,NaN,-0.3269996,-1.366936E-07,NaN,0.5286395,-3.219315E-09,NaN,-2.149567,8.224771E-06,0.5117059,-2.928218E-08,NaN,NaN,-0.02005048,-3.725338E-11,9.193403E-07,-1.144956E-07,-6.64384E-09,-2.622604E-08
241.7153,0.04500458,-2.279747E-08,NaN,-0.3269997,-1.366935E-07,NaN,0.5252,-3.429864E-09,NaN,-2.149482,8.225427E-06,0.4989112,-2.906946E-08,NaN,NaN,-0.02005061,-3.725338E-11,9.139759E-07,-1.144941E-07,-7.835933E-09,-2.861022E-08
241.734,0.04500456,-2.279638E-08,NaN,-0.3269997,-1.366935E-07,NaN,0.5220238,-3.636172E-09,NaN,-2.149376,8.226093E-06,0.4859912,-2.886099E-08,NaN,NaN,-0.02004956,-4.65666E-11,8.949024E-07,-1.144926E-07,-6.64384E-09,-2.622604E-08
241.7497,0.04500454,-2.279529E-08,NaN,-0.3269997,-1.366934E-07,NaN,0.5191494,-3.836908E-09,NaN,-2.149269,8.22675E-06,0.4733474,-2.865809E-08,NaN,NaN,-0.0200486,-4.65666E-11,8.734448E-07,-1.144911E-07,-7.835933E-09,-2.861022E-08
241.7668,0.04500452,-2.27942E-08,NaN,-0.3269998,-1.366924E-07,NaN,0.5164785,-4.215219E-09,NaN,-2.14917,8.227406E-06,0.460999,-2.82776E-08,NaN,NaN,-0.0200478,-5.122322E-11,8.555634E-07,-1.144913E-07,-9.028025E-09,-2.622604E-08
241.7838,0.0450045,-2.279311E-08,NaN,-0.3269998,-1.366914E-07,NaN,0.5130374,-4.571904E-09,NaN,-2.149068,8.228059E-06,0.4466516,-2.791873E-08,NaN,NaN,-0.02004776,-5.587983E-11,8.525831E-07,-1.144916E-07,-1.022012E-08,-2.861022E-08
241.8002,0.04500448,-2.279202E-08,NaN,-0.3269998,-1.366904E-07,NaN,0.5098376,-4.917244E-09,NaN,-2.148946,8.228715E-06,0.4322011,-2.757121E-08,NaN,NaN,-0.02004657,-6.519305E-11,8.311255E-07,-1.14492E-07,-1.141221E-08,-2.622604E-08
241.8174,0.04500448,-2.279202E-08,NaN,-0.3269998,-1.366904E-07,NaN,0.5098376,-4.917244E-09,NaN,-2.148946,8.228715E-06,0.4322011,-2.757121E-08,NaN,NaN,-0.02004657,-6.519305E-11,8.311255E-07,-1.14492E-07,-1.141221E-08,-2.622604E-08
241.8332,0.04500446,-2.279092E-08,NaN,-0.3269998,-1.366894E-07,NaN,0.5069311,-5.252862E-09,NaN,-2.148821,8.229372E-06,0.418052,-2.72334E-08,NaN,NaN,-0.02004545,-7.450628E-11,8.132441E-07,-1.144924E-07,-1.498849E-08,-2.861022E-08
241.8509,0.04500443,-2.278983E-08,NaN,-0.3269999,-1.366885E-07,NaN,0.503319,-5.580358E-09,NaN,-2.148695,8.230028E-06,0.4019496,-2.690372E-08,NaN,NaN,-0.02004512,-8.38195E-11,8.054955E-07,-1.144927E-07,-1.856477E-08,-2.622604E-08
241.8678,0.04500441,-2.278874E-08,NaN,-0.3269999,-1.366876E-07,NaN,0.4999892,-5.899887E-09,NaN,-2.148549,8.230671E-06,0.3857967,-2.6582E-08,NaN,NaN,-0.02004374,-7.916288E-11,7.804615E-07,-1.144931E-07,-1.975686E-08,-2.861022E-08
241.8846,0.04500439,-2.278765E-08,NaN,-0.3269999,-1.366867E-07,NaN,0.4969741,-6.213019E-09,NaN,-2.148405,8.231328E-06,0.3699882,-2.626668E-08,NaN,NaN,-0.02004248,-8.847611E-11,7.572157E-07,-1.144935E-07,-2.094895E-08,-2.622604E-08
241.9016,0.04500437,-2.278656E-08,NaN,-0.327,-1.366858E-07,NaN,0.4941725,-6.519878E-09,NaN,-2.148272,8.231966E-06,0.3545388,-2.595763E-08,NaN,NaN,-0.02004136,-7.916288E-11,7.35758E-07,-1.144938E-07,-1.975686E-08,-2.861022E-08
241.9192,0.04500437,-2.278656E-08,NaN,-0.327,-1.366858E-07,NaN,0.4941725,-6.519878E-09,NaN,-2.148272,8.231966E-06,0.3545388,-2.595763E-08,NaN,NaN,-0.02004136,-7.916288E-11,7.35758E-07,-1.144938E-07,-1.975686E-08,-2.861022E-08
241.9351,0.04500434,-2.278547E-08,NaN,-0.327,-1.366853E-07,NaN,0.4906094,-6.505654E-09,NaN,-2.148141,8.232618E-06,0.337136,-2.596967E-08,NaN,NaN,-0.0200409,-7.916288E-11,7.268173E-07,-1.144951E-07,-2.094895E-08,-2.622604E-08
241.9528,0.04500432,-2.278438E-08,NaN,-0.327,-1.366853E-07,NaN,0.4873078,-6.435298E-09,NaN,-2.147994,8.233274E-06,0.3197021,-2.603784E-08,NaN,NaN,-0.02003949,-7.916288E-11,6.988031E-07,-1.144966E-07,-2.094895E-08,-2.861022E-08
241.9696,0.04500429,-2.278329E-08,NaN,-0.3270001,-1.366856E-07,NaN,0.4843115,-6.335227E-09,NaN,-2.14785,8.233936E-06,0.3026345,-2.613574E-08,NaN,NaN,-0.02003817,-7.916288E-11,6.719811E-07,-1.144983E-07,-1.618058E-08,-2.622604E-08
241.9868,0.04500426,-2.27822E-08,NaN,-0.3270001,-1.36686E-07,NaN,0.4806172,-6.220097E-09,NaN,-2.147709,8.234597E-06,0.283657,-2.62487E-08,NaN,NaN,-0.0200375,-7.916288E-11,6.57676E-07,-1.145001E-07,-1.498849E-08,-2.861022E-08
242.0037,0.04500424,-2.278111E-08,NaN,-0.3270001,-1.366865E-07,NaN,0.4772232,-6.09723E-09,NaN,-2.147555,8.235258E-06,0.264698,-2.63694E-08,NaN,NaN,-0.02003605,-7.916288E-11,6.254895E-07,-1.145019E-07,-1.26043E-08,-2.622604E-08
