JMolnar6/NonAnthroHands_User_Study/HandsLoggerWithURDF/tempdata/files/Reachy_JointMotion_gesture_5_24.csv
Time,r_shoulder,r_shoulder_x,r_upper_arm,r_forearm,r_wrist,r_wrist2hand,
432.2487,0.04500307,0.0005640414,NaN,-0.3270016,0.0003302708,NaN,0.4571863,-14.18326,NaN,-2.148467,-1.473231,-0.5268935,14.12842,NaN,NaN,-0.02002742,0.8031759,-4.169383E-07,1.033768,1.038668E-08,1.41089
432.264,0.04500306,0.0005639605,NaN,-0.3270016,0.0003303548,NaN,0.4563642,-14.18219,NaN,-2.148486,-1.465309,-0.5291469,14.12009,NaN,NaN,-0.02002655,0.8041354,-4.065075E-07,1.022345,1.157877E-08,1.402474
432.2784,0.04500306,0.0005639605,NaN,-0.3270016,0.0003303548,NaN,0.4563642,-14.18219,NaN,-2.148486,-1.465309,-0.5291469,14.12009,NaN,NaN,-0.02002655,0.8041354,-4.065075E-07,1.022345,1.157877E-08,1.402474
432.2927,0.04500306,0.0005634152,NaN,-0.3270016,0.0003299506,NaN,0.4556709,-14.18263,NaN,-2.148524,-1.468824,-0.5317631,14.12379,NaN,NaN,-0.02002706,0.8037416,-4.12766E-07,1.027422,1.396296E-08,1.406023
432.3083,0.04500306,0.0005637059,NaN,-0.3270016,0.0003306406,NaN,0.4551825,-14.18266,NaN,-2.148562,-1.462654,-0.5343192,14.11738,NaN,NaN,-0.02002751,0.8036054,-4.184284E-07,1.018531,9.194586E-09,1.40566
432.3253,0.04500306,0.0005633153,NaN,-0.3270016,0.000330763,NaN,0.4548193,-14.18214,NaN,-2.148596,-1.463805,-0.5367825,14.1185,NaN,NaN,-0.02002781,0.8041256,-4.231968E-07,1.020172,6.8104E-09,1.401
432.3381,0.04500306,0.0005633153,NaN,-0.3270016,0.000330763,NaN,0.4548193,-14.18214,NaN,-2.148596,-1.463805,-0.5367825,14.1185,NaN,NaN,-0.02002781,0.8041256,-4.231968E-07,1.020172,6.8104E-09,1.401
432.3524,0.04500306,0.0005625505,NaN,-0.3270016,0.000330488,NaN,0.4554298,-14.18257,NaN,-2.148599,-1.466873,-0.5369172,14.12173,NaN,NaN,-0.02002883,0.8037425,-4.363098E-07,1.024604,4.426214E-09,1.405438
432.3678,0.04500306,0.0005622925,NaN,-0.3270016,0.0003301145,NaN,0.4559479,-14.18328,NaN,-2.148581,-1.472234,-0.5366267,14.12738,NaN,NaN,-0.02002841,0.8030953,-4.318394E-07,1.032343,2.042028E-09,1.410225
432.3829,0.04500307,0.0005612894,NaN,-0.3270016,0.0003288225,NaN,0.4562821,-14.18307,NaN,-2.148557,-1.464063,-0.5363432,14.11888,NaN,NaN,-0.02002804,0.8032025,-4.270711E-07,1.020572,-3.918436E-09,1.403238
432.3978,0.04500307,0.0005612894,NaN,-0.3270016,0.0003288225,NaN,0.4562821,-14.18307,NaN,-2.148557,-1.464063,-0.5363432,14.11888,NaN,NaN,-0.02002804,0.8032025,-4.270711E-07,1.020572,-3.918436E-09,1.403238
432.4137,0.04500308,0.0005611792,NaN,-0.3270016,0.0003281862,NaN,0.4574116,-14.18353,NaN,-2.148512,-1.469982,-0.5338509,14.12506,NaN,NaN,-0.02002863,0.8028302,-4.333295E-07,1.029105,-5.110529E-09,1.411247
432.4278,0.04500308,0.0005608287,NaN,-0.3270016,0.0003279047,NaN,0.4583559,-14.18246,NaN,-2.14845,-1.464507,-0.5310239,14.11926,NaN,NaN,-0.02002793,0.803805,-4.249849E-07,1.021203,-3.918436E-09,1.402273
432.443,0.04500309,0.0005611447,NaN,-0.3270016,0.0003277437,NaN,0.4590666,-14.18385,NaN,-2.14839,-1.471523,-0.5282729,14.12671,NaN,NaN,-0.02002732,0.8025388,-4.178324E-07,1.031346,-5.110529E-09,1.412638
432.4578,0.04500309,0.0005611447,NaN,-0.3270016,0.0003277437,NaN,0.4590666,-14.18385,NaN,-2.14839,-1.471523,-0.5282729,14.12671,NaN,NaN,-0.02002732,0.8025388,-4.178324E-07,1.031346,-5.110529E-09,1.412638
432.472,0.04500309,0.0005614102,NaN,-0.3270016,0.0003280075,NaN,0.459637,-14.1833,NaN,-2.148337,-1.465728,-0.5256242,14.12064,NaN,NaN,-0.0200269,0.8030083,-4.112758E-07,1.022997,-5.110529E-09,1.406402
432.4878,0.0450031,0.000561574,NaN,-0.3270016,0.0003283738,NaN,0.4610383,-14.18346,NaN,-2.148265,-1.463969,-0.5208013,14.11883,NaN,NaN,-0.02002739,0.802809,-4.178324E-07,1.020464,-6.302622E-09,1.40689
432.5027,0.04500311,0.000561722,NaN,-0.3270015,0.0003284356,NaN,0.4622666,-14.18383,NaN,-2.148178,-1.468755,-0.5156804,14.12382,NaN,NaN,-0.02002655,0.8025143,-4.082956E-07,1.02736,-8.686808E-09,1.410659
432.5179,0.04500311,0.000561722,NaN,-0.3270015,0.0003284356,NaN,0.4622666,-14.18383,NaN,-2.148178,-1.468755,-0.5156804,14.12382,NaN,NaN,-0.02002655,0.8025143,-4.082956E-07,1.02736,-8.686808E-09,1.410659
432.5337,0.04500312,0.0005619156,NaN,-0.3270015,0.0003280954,NaN,0.4632614,-14.18362,NaN,-2.148092,-1.473727,-0.5106755,14.12894,NaN,NaN,-0.0200258,0.8027838,-4.00249E-07,1.03451,-6.302622E-09,1.412139
432.5473,0.04500312,0.0005622405,NaN,-0.3270015,0.0003285816,NaN,0.46411,-14.18301,NaN,-2.148013,-1.464185,-0.5058145,14.11898,NaN,NaN,-0.02002521,0.803306,-3.948846E-07,1.020763,-6.302622E-09,1.405437
432.562,0.04500313,0.0005629923,NaN,-0.3270015,0.0003286303,NaN,0.465781,-14.18316,NaN,-2.147916,-1.472669,-0.4988177,14.12778,NaN,NaN,-0.02002551,0.8033124,-3.996529E-07,1.032981,-6.302622E-09,1.409235
432.577,0.04500313,0.0005629923,NaN,-0.3270015,0.0003286303,NaN,0.465781,-14.18316,NaN,-2.147916,-1.472669,-0.4988177,14.12778,NaN,NaN,-0.02002551,0.8033124,-3.996529E-07,1.032981,-6.302622E-09,1.409235
432.5912,0.04500315,0.0005636211,NaN,-0.3270015,0.0003288004,NaN,0.4672666,-14.184,NaN,-2.147803,-1.470756,-0.4915679,14.12588,NaN,NaN,-0.0200245,0.8024552,-3.887751E-07,1.030234,-3.918436E-09,1.412962
432.607,0.04500315,0.0005639927,NaN,-0.3270015,0.0003287456,NaN,0.4685079,-14.18391,NaN,-2.147692,-1.471481,-0.484477,14.12661,NaN,NaN,-0.02002358,0.8025467,-3.792384E-07,1.031274,2.042028E-09,1.411407
432.6221,0.04500316,0.000563766,NaN,-0.3270015,0.0003279832,NaN,0.4695929,-14.18243,NaN,-2.147589,-1.474962,-0.4775714,14.13004,NaN,NaN,-0.02002283,0.8040504,-3.704467E-07,1.036258,4.426214E-09,1.406264
432.637,0.04500316,0.000563766,NaN,-0.3270015,0.0003279832,NaN,0.4695929,-14.18243,NaN,-2.147589,-1.474962,-0.4775714,14.13004,NaN,NaN,-0.02002283,0.8040504,-3.704467E-07,1.036258,4.426214E-09,1.406264
432.6512,0.04500318,0.0005629477,NaN,-0.3270015,0.0003274431,NaN,0.4714906,-14.18311,NaN,-2.14747,-1.464892,-0.4685649,14.11965,NaN,NaN,-0.02002295,0.8032978,-3.707447E-07,1.021748,4.426214E-09,1.405874
432.6668,0.04500319,0.000561593,NaN,-0.3270014,0.0003265878,NaN,0.4731898,-14.18251,NaN,-2.147335,-1.467481,-0.4593487,14.12226,NaN,NaN,-0.02002179,0.8039411,-3.545024E-07,1.025465,8.49935E-10,1.404268
432.6816,0.0450032,0.000560181,NaN,-0.3270014,0.0003260332,NaN,0.4746344,-14.18257,NaN,-2.147203,-1.463954,-0.450332,14.11861,NaN,NaN,-0.02002073,0.8038303,-3.406444E-07,1.020388,4.426214E-09,1.40465
432.6967,0.0450032,0.000560181,NaN,-0.3270014,0.0003260332,NaN,0.4746344,-14.18257,NaN,-2.147203,-1.463954,-0.450332,14.11861,NaN,NaN,-0.02002073,0.8038303,-3.406444E-07,1.020388,4.426214E-09,1.40465
432.7109,0.04500322,0.000559308,NaN,-0.3270014,0.0003253167,NaN,0.4768206,-14.18362,NaN,-2.147056,-1.472416,-0.4392691,14.12752,NaN,NaN,-0.02002057,0.8029385,-3.375151E-07,1.032611,2.042028E-09,1.414421
432.7265,0.04500323,0.0005589775,NaN,-0.3270013,0.000325423,NaN,0.4787642,-14.18249,NaN,-2.146896,-1.466603,-0.4280543,14.12138,NaN,NaN,-0.02001923,0.8039972,-3.199318E-07,1.024226,8.49935E-10,1.404677
432.7424,0.04500325,0.0005589238,NaN,-0.3270013,0.0003259069,NaN,0.4804284,-14.18291,NaN,-2.146742,-1.46318,-0.4170874,14.11787,NaN,NaN,-0.02001802,0.8035147,-3.045836E-07,1.019302,2.042028E-09,1.406422
432.7564,0.04500325,0.0005589238,NaN,-0.3270013,0.0003259069,NaN,0.4804284,-14.18291,NaN,-2.146742,-1.46318,-0.4170874,14.11787,NaN,NaN,-0.02001802,0.8035147,-3.045836E-07,1.019302,2.042028E-09,1.406422
432.7704,0.04500326,0.0005595023,NaN,-0.3270013,0.0003259121,NaN,0.4819117,-14.18276,NaN,-2.146599,-1.472136,-0.4063864,14.12713,NaN,NaN,-0.02001698,0.8038409,-2.908745E-07,1.032197,2.042028E-09,1.409142
432.7861,0.04500328,0.000560176,NaN,-0.3270012,0.0003266116,NaN,0.4841876,-14.183,NaN,-2.146445,-1.464551,-0.3936485,14.11928,NaN,NaN,-0.02001675,0.8035055,-2.878942E-07,1.02127,2.042028E-09,1.407648
432.8009,0.04500329,0.0005605895,NaN,-0.3270012,0.0003265271,NaN,0.4862387,-14.18321,NaN,-2.146279,-1.47205,-0.3807842,14.12708,NaN,NaN,-0.02001536,0.8034208,-2.670326E-07,1.032076,8.49935E-10,1.410827
432.8159,0.04500329,0.0005605895,NaN,-0.3270012,0.0003265271,NaN,0.4862387,-14.18321,NaN,-2.146279,-1.47205,-0.3807842,14.12708,NaN,NaN,-0.02001536,0.8034208,-2.670326E-07,1.032076,8.49935E-10,1.410827
432.8303,0.04500331,0.000561177,NaN,-0.3270012,0.0003268959,NaN,0.4880163,-14.18246,NaN,-2.146118,-1.468788,-0.3681958,14.1236,NaN,NaN,-0.02001408,0.8040996,-2.501198E-07,1.02736,2.042028E-09,1.403316
432.8459,0.04500332,0.0005608608,NaN,-0.3270012,0.0003269148,NaN,0.489613,-14.18299,NaN,-2.14597,-1.463791,-0.3559028,14.11846,NaN,NaN,-0.02001298,0.8034844,-2.337285E-07,1.020166,8.49935E-10,1.407282
432.8611,0.04500334,0.0005606088,NaN,-0.3270011,0.0003271419,NaN,0.491999,-14.18294,NaN,-2.145812,-1.464484,-0.3415947,14.11917,NaN,NaN,-0.0200126,0.8035248,-2.265015E-07,1.02116,2.042028E-09,1.406917
432.8772,0.04500334,0.0005606088,NaN,-0.3270011,0.0003271419,NaN,0.491999,-14.18294,NaN,-2.145812,-1.464484,-0.3415947,14.11917,NaN,NaN,-0.0200126,0.8035248,-2.265015E-07,1.02116,2.042028E-09,1.406917
432.8901,0.04500336,0.0005600649,NaN,-0.3270011,0.0003273169,NaN,0.4941504,-14.18278,NaN,-2.145644,-1.463189,-0.3271967,14.1178,NaN,NaN,-0.02001118,0.8036496,-2.041125E-07,1.019288,3.234121E-09,1.404884
432.9059,0.04500337,0.0005601984,NaN,-0.3270011,0.0003278815,NaN,0.4960221,-14.18329,NaN,-2.145483,-1.46331,-0.3131073,14.11798,NaN,NaN,-0.02000988,0.8031218,-1.855233E-07,1.019476,8.49935E-10,1.409201
432.9207,0.04500339,0.0005601506,NaN,-0.327001,0.0003282549,NaN,0.4977081,-14.18311,NaN,-2.145335,-1.462612,-0.2993435,14.11723,NaN,NaN,-0.02000876,0.803275,-1.671762E-07,1.018463,8.49935E-10,1.406165
432.9356,0.04500339,0.0005601506,NaN,-0.327001,0.0003282549,NaN,0.4977081,-14.18311,NaN,-2.145335,-1.462612,-0.2993435,14.11723,NaN,NaN,-0.02000876,0.803275,-1.671762E-07,1.018463,8.49935E-10,1.406165
432.9508,0.04500341,0.0005601914,NaN,-0.327001,0.0003282395,NaN,0.5001786,-14.18393,NaN,-2.145181,-1.469296,-0.2835855,14.12425,NaN,NaN,-0.02000829,0.8025782,-1.604381E-07,1.02811,4.426214E-09,1.413177
432.9654,0.04500343,0.0005605847,NaN,-0.327001,0.0003286622,NaN,0.502405,-14.18366,NaN,-2.145019,-1.465721,-0.2677725,14.12051,NaN,NaN,-0.02000693,0.8027881,-1.347336E-07,1.022957,6.810399E-09,1.41138
432.9803,0.04500345,0.0005610569,NaN,-0.3270009,0.0003288318,NaN,0.5043462,-14.18412,NaN,-2.144866,-1.469559,-0.2522988,14.12453,NaN,NaN,-0.02000569,0.8023867,-1.119348E-07,1.02849,5.618307E-09,1.415444
432.9952,0.04500345,0.0005610569,NaN,-0.3270009,0.0003288318,NaN,0.5043462,-14.18412,NaN,-2.144866,-1.469559,-0.2522988,14.12453,NaN,NaN,-0.02000569,0.8023867,-1.119348E-07,1.02849,5.618307E-09,1.415444
433.0096,0.04500347,0.0005617348,NaN,-0.3270009,0.0003287991,NaN,0.5070047,-14.18311,NaN,-2.14471,-1.473345,-0.2348785,14.12833,NaN,NaN,-0.0200051,0.8034225,-9.993939E-08,1.033918,4.426214E-09,1.412062
433.0251,0.0450035,0.0005618765,NaN,-0.3270009,0.0003289307,NaN,0.5093792,-14.18259,NaN,-2.144551,-1.46497,-0.2174544,14.11958,NaN,NaN,-0.02000379,0.8038613,-7.110565E-08,1.021846,2.042028E-09,1.408311
433.0401,0.04500351,0.0005619723,NaN,-0.3270009,0.0003292492,NaN,0.5114487,-14.18273,NaN,-2.144403,-1.463735,-0.2004105,14.11831,NaN,NaN,-0.02000264,0.8036959,-4.532664E-08,1.02007,8.499355E-10,1.408119
433.0554,0.04500351,0.0005619723,NaN,-0.3270009,0.0003292492,NaN,0.5114487,-14.18273,NaN,-2.144403,-1.463735,-0.2004105,14.11831,NaN,NaN,-0.02000264,0.8036959,-4.532664E-08,1.02007,8.499355E-10,1.408119
433.0694,0.04500353,0.0005620611,NaN,-0.3270008,0.0003292086,NaN,0.5133177,-14.18394,NaN,-2.144272,-1.469779,-0.1837549,14.12473,NaN,NaN,-0.02000167,0.8025972,-2.088873E-08,1.028809,2.042028E-09,1.416218
433.0852,0.04500356,0.0005615834,NaN,-0.3270008,0.0003290704,NaN,0.51596,-14.18281,NaN,-2.144143,-1.465628,-0.1651509,14.1203,NaN,NaN,-0.02000118,0.80367,-8.520769E-09,1.022814,-3.421574E-10,1.409508
433.1001,0.04500358,0.0005614454,NaN,-0.3270008,0.0003294621,NaN,0.5183407,-14.18304,NaN,-2.144013,-1.463229,-0.1465591,14.11784,NaN,NaN,-0.02000015,0.803397,2.262266E-08,1.019366,2.042028E-09,1.409684
433.1153,0.04500358,0.0005614454,NaN,-0.3270008,0.0003294621,NaN,0.5183407,-14.18304,NaN,-2.144013,-1.463229,-0.1465591,14.11784,NaN,NaN,-0.02000015,0.803397,2.262266E-08,1.019366,2.042028E-09,1.409684
433.1293,0.0450036,0.0005618521,NaN,-0.3270007,0.0003294101,NaN,0.5204268,-14.18335,NaN,-2.143896,-1.471927,-0.1283664,14.12689,NaN,NaN,-0.01999928,0.8032528,5.033882E-08,1.031901,8.499355E-10,1.415453
433.146,0.04500362,0.0005620601,NaN,-0.3270007,0.0003290001,NaN,0.5223167,-14.18342,NaN,-2.143797,-1.473576,-0.1105824,14.1286,NaN,NaN,-0.01999857,0.8031868,7.432969E-08,1.034279,-1.53425E-09,1.4139
433.1599,0.04500362,0.0005620601,NaN,-0.3270007,0.0003290001,NaN,0.5223167,-14.18342,NaN,-2.143797,-1.473576,-0.1105824,14.1286,NaN,NaN,-0.01999857,0.8031868,7.432969E-08,1.034279,-1.53425E-09,1.4139
433.1742,0.04500365,0.0005619235,NaN,-0.3270007,0.0003287136,NaN,0.5249807,-14.18326,NaN,-2.143703,-1.46811,-0.0908658,14.12291,NaN,NaN,-0.01999822,0.803274,8.714469E-08,1.026403,-2.726343E-09,1.413434
433.1897,0.04500367,0.000561077,NaN,-0.3270006,0.0003272156,NaN,0.5273798,-14.18298,NaN,-2.14361,-1.465673,-0.07118754,14.12035,NaN,NaN,-0.01999758,0.8035149,1.190332E-07,1.022889,-1.53425E-09,1.410206
433.2047,0.04500369,0.0005608631,NaN,-0.3270006,0.0003269485,NaN,0.5294831,-14.18336,NaN,-2.143533,-1.464386,-0.05193161,14.11906,NaN,NaN,-0.01999709,0.803102,1.467493E-07,1.021044,-3.421574E-10,1.412393
433.2195,0.04500369,0.0005608631,NaN,-0.3270006,0.0003269485,NaN,0.5294831,-14.18336,NaN,-2.143533,-1.464386,-0.05193161,14.11906,NaN,NaN,-0.01999709,0.803102,1.467493E-07,1.021044,-3.421574E-10,1.412393
433.2341,0.04500372,0.0005609274,NaN,-0.3270006,0.0003271417,NaN,0.5322961,-14.18292,NaN,-2.143464,-1.464617,-0.03079023,14.11924,NaN,NaN,-0.01999688,0.803539,1.634386E-07,1.021365,-2.726343E-09,1.4103
433.2496,0.04500375,0.0005606147,NaN,-0.3270006,0.0003274268,NaN,0.5348098,-14.18291,NaN,-2.143401,-1.461864,-0.009731654,14.11638,NaN,NaN,-0.01999661,0.8034904,1.997975E-07,1.0174,-7.494714E-09,1.407618
433.2646,0.04500377,0.000560233,NaN,-0.3270005,0.0003276057,NaN,0.5370117,-14.18294,NaN,-2.143355,-1.464243,0.01086949,14.11884,NaN,NaN,-0.0199965,0.8035008,2.266195E-07,1.020827,-7.494714E-09,1.408597
433.2796,0.04500377,0.000560233,NaN,-0.3270005,0.0003276057,NaN,0.5370117,-14.18294,NaN,-2.143355,-1.464243,0.01086949,14.11884,NaN,NaN,-0.0199965,0.8035008,2.266195E-07,1.020827,-7.494714E-09,1.408597
433.2939,0.04500379,0.0005596227,NaN,-0.3270005,0.0003277236,NaN,0.5390089,-14.18234,NaN,-2.143328,-1.463091,0.03101035,14.11757,NaN,NaN,-0.01999652,0.8040686,2.57912E-07,1.019153,-1.107099E-08,1.406155
433.3098,0.04500382,0.0005587515,NaN,-0.3270005,0.0003272069,NaN,0.5417742,-14.18302,NaN,-2.143315,-1.46991,0.05303934,14.12473,NaN,NaN,-0.01999665,0.8035185,2.737072E-07,1.029,-6.302622E-09,1.41222
433.3245,0.04500385,0.0005587944,NaN,-0.3270004,0.0003272819,NaN,0.5442686,-14.1839,NaN,-2.143312,-1.469832,0.07497942,14.12474,NaN,NaN,-0.01999699,0.8026209,3.076819E-07,1.028901,-8.686808E-09,1.417742
433.3407,0.04500388,0.0005588214,NaN,-0.3270004,0.0003269193,NaN,0.5464647,-14.1833,NaN,-2.143325,-1.472864,0.09645037,14.12781,NaN,NaN,-0.01999747,0.8032416,3.386763E-07,1.033251,-6.302622E-09,1.413252
433.3554,0.04500388,0.0005588214,NaN,-0.3270004,0.0003269193,NaN,0.5464647,-14.1833,NaN,-2.143325,-1.472864,0.09645037,14.12781,NaN,NaN,-0.01999747,0.8032416,3.386763E-07,1.033251,-6.302622E-09,1.413252
433.3685,0.0450039,0.0005589132,NaN,-0.3270004,0.0003271466,NaN,0.5484623,-14.18261,NaN,-2.143358,-1.466115,0.1174463,14.12073,NaN,NaN,-0.01999806,0.803845,3.714588E-07,1.023519,-6.302622E-09,1.409208
433.3841,0.04500393,0.0005593329,NaN,-0.3270003,0.0003270695,NaN,0.5512305,-14.18327,NaN,-2.143407,-1.472362,0.1403123,14.12728,NaN,NaN,-0.01999859,0.8032825,3.911284E-07,1.032532,-9.8789E-09,1.41593
433.399,0.04500393,0.0005593329,NaN,-0.3270003,0.0003270695,NaN,0.5512305,-14.18327,NaN,-2.143407,-1.472362,0.1403123,14.12728,NaN,NaN,-0.01999859,0.8032825,3.911284E-07,1.032532,-9.8789E-09,1.41593
433.4135,0.04500396,0.0005600018,NaN,-0.3270003,0.000327047,NaN,0.5537314,-14.18338,NaN,-2.143468,-1.473369,0.1630741,14.12832,NaN,NaN,-0.0199996,0.8031673,4.280832E-07,1.033978,-1.107099E-08,1.416675
433.4289,0.04500398,0.000560134,NaN,-0.3270003,0.0003273365,NaN,0.5559359,-14.18236,NaN,-2.143546,-1.463105,0.185351,14.11757,NaN,NaN,-0.02000072,0.8040664,4.63846E-07,1.01918,-1.107099E-08,1.409812
433.4441,0.04500401,0.0005604663,NaN,-0.3270003,0.0003275936,NaN,0.557943,-14.18271,NaN,-2.143643,-1.466922,0.2071369,14.12157,NaN,NaN,-0.02000191,0.8037804,4.960325E-07,1.02469,-9.8789E-09,1.411409
433.4594,0.04500401,0.0005604663,NaN,-0.3270003,0.0003275936,NaN,0.557943,-14.18271,NaN,-2.143643,-1.466922,0.2071369,14.12157,NaN,NaN,-0.02000191,0.8037804,4.960325E-07,1.02469,-9.8789E-09,1.411409
433.4736,0.04500404,0.00056041,NaN,-0.3270002,0.0003273741,NaN,0.560721,-14.18293,NaN,-2.143759,-1.470046,0.2307713,14.12483,NaN,NaN,-0.02000285,0.8035939,5.15702E-07,1.029196,-8.686808E-09,1.412245
433.489,0.04500407,0.0005602232,NaN,-0.3270002,0.0003276602,NaN,0.5632365,-14.18204,NaN,-2.143889,-1.462772,0.2542897,14.11718,NaN,NaN,-0.02000454,0.8043758,5.502727E-07,1.018698,-5.110529E-09,1.404356
433.5043,0.04500409,0.0005603698,NaN,-0.3270002,0.0003282709,NaN,0.5654576,-14.18229,NaN,-2.144037,-1.461396,0.2773097,14.11577,NaN,NaN,-0.02000631,0.8040872,5.860355E-07,1.016719,-3.918436E-09,1.40663
433.5191,0.04500409,0.0005603698,NaN,-0.3270002,0.0003282709,NaN,0.5654576,-14.18229,NaN,-2.144037,-1.461396,0.2773097,14.11577,NaN,NaN,-0.02000631,0.8040872,5.860355E-07,1.016719,-3.918436E-09,1.40663
433.5336,0.04500413,0.0005602923,NaN,-0.3270001,0.0003282992,NaN,0.5683863,-14.18304,NaN,-2.144205,-1.468392,0.3021267,14.12312,NaN,NaN,-0.02000765,0.8034824,6.033209E-07,1.026822,-2.726343E-09,1.411519
433.5498,0.04500416,0.0005605128,NaN,-0.3270001,0.0003280978,NaN,0.5710254,-14.18292,NaN,-2.14439,-1.473233,0.3267949,14.12812,NaN,NaN,-0.02000989,0.8036522,6.402757E-07,1.03379,-5.110529E-09,1.413961
433.5638,0.04500418,0.0005607179,NaN,-0.3270001,0.0003285701,NaN,0.5733562,-14.18202,NaN,-2.144591,-1.463504,0.3509369,14.11792,NaN,NaN,-0.02001216,0.8044408,6.772306E-07,1.01976,-3.421574E-10,1.405171
433.5787,0.04500418,0.0005607179,NaN,-0.3270001,0.0003285701,NaN,0.5733562,-14.18202,NaN,-2.144591,-1.463504,0.3509369,14.11792,NaN,NaN,-0.02001216,0.8044408,6.772306E-07,1.01976,-3.421574E-10,1.405171
433.593,0.04500421,0.000561246,NaN,-0.3270001,0.0003285258,NaN,0.5754825,-14.18229,NaN,-2.144807,-1.472388,0.3745484,14.12717,NaN,NaN,-0.02001439,0.8043415,7.070329E-07,1.032571,-3.918436E-09,1.410791
433.6087,0.04500423,0.0005614701,NaN,-0.327,0.0003288659,NaN,0.5774705,-14.18185,NaN,-2.145037,-1.464405,0.3976613,14.11882,NaN,NaN,-0.02001662,0.8046741,7.392194E-07,1.021051,-3.918436E-09,1.404681
433.6237,0.04500426,0.0005616659,NaN,-0.327,0.0003286402,NaN,0.5793539,-14.18281,NaN,-2.145281,-1.472975,0.4203,14.12784,NaN,NaN,-0.02001887,0.8038667,7.672336E-07,1.03343,-1.534251E-09,1.413244
433.6387,0.04500426,0.0005616659,NaN,-0.327,0.0003286402,NaN,0.5793539,-14.18281,NaN,-2.145281,-1.472975,0.4203,14.12784,NaN,NaN,-0.02001887,0.8038667,7.672336E-07,1.03343,-1.534251E-09,1.413244
433.653,0.04500428,0.0005620109,NaN,-0.327,0.0003285149,NaN,0.581149,-14.18312,NaN,-2.145536,-1.472383,0.4424813,14.12724,NaN,NaN,-0.02002115,0.8035352,7.958438E-07,1.032574,-6.302622E-09,1.414018
433.6685,0.0450043,0.0005625258,NaN,-0.3269999,0.0003284684,NaN,0.5828642,-14.18306,NaN,-2.145803,-1.472898,0.4642177,14.12776,NaN,NaN,-0.02002345,0.8035778,8.24454E-07,1.033308,-7.494715E-09,1.41395
433.6837,0.04500432,0.0005620577,NaN,-0.3269999,0.0003270571,NaN,0.5836014,-14.18198,NaN,-2.146068,-1.4665,0.4832434,14.12099,NaN,NaN,-0.02002644,0.8045775,8.608129E-07,1.024072,-7.494715E-09,1.40622
433.6986,0.04500432,0.0005620577,NaN,-0.3269999,0.0003270571,NaN,0.5836014,-14.18198,NaN,-2.146068,-1.4665,0.4832434,14.12099,NaN,NaN,-0.02002644,0.8045775,8.608129E-07,1.024072,-7.494715E-09,1.40622
433.7129,0.04500433,0.0005617173,NaN,-0.3269999,0.0003265781,NaN,0.5844058,-14.18185,NaN,-2.146333,-1.464735,0.5014984,14.11913,NaN,NaN,-0.02002823,0.804669,8.769061E-07,1.021521,-9.878901E-09,1.404679
433.7282,0.04500435,0.0005617178,NaN,-0.3269999,0.0003262165,NaN,0.5853443,-14.18297,NaN,-2.146603,-1.469583,0.519403,14.1243,NaN,NaN,-0.02003008,0.8036278,8.918073E-07,1.028539,-9.878901E-09,1.411947
433.7455,0.04500437,0.0005613939,NaN,-0.3269998,0.0003261069,NaN,0.5863362,-14.18169,NaN,-2.146881,-1.464293,0.5369928,14.11866,NaN,NaN,-0.02003205,0.8048225,9.055163E-07,1.020891,-2.726344E-09,1.404076
433.7583,0.04500437,0.0005613939,NaN,-0.3269998,0.0003261069,NaN,0.5863362,-14.18169,NaN,-2.146881,-1.464293,0.5369928,14.11866,NaN,NaN,-0.02003205,0.8048225,9.055163E-07,1.020891,-2.726344E-09,1.404076
433.7727,0.04500438,0.0005614893,NaN,-0.3269998,0.0003265983,NaN,0.586423,-14.18242,NaN,-2.147151,-1.462394,0.551995,14.11677,NaN,NaN,-0.02003483,0.8040557,9.359147E-07,1.018169,-2.726344E-09,1.407273
433.7881,0.04500439,0.0005619852,NaN,-0.3269998,0.0003265467,NaN,0.586611,-14.1824,NaN,-2.147414,-1.472315,0.5663105,14.12706,NaN,NaN,-0.02003634,0.8042707,9.478356E-07,1.032462,-6.302622E-09,1.410556
433.8044,0.0450044,0.0005625398,NaN,-0.3269998,0.0003266319,NaN,0.5869589,-14.18318,NaN,-2.147678,-1.471663,0.5803563,14.12646,NaN,NaN,-0.02003791,0.8034772,9.549882E-07,1.031531,-3.421583E-10,1.413901
433.818,0.0450044,0.0005625398,NaN,-0.3269998,0.0003266319,NaN,0.5869589,-14.18318,NaN,-2.147678,-1.471663,0.5803563,14.12646,NaN,NaN,-0.02003791,0.8034772,9.549882E-07,1.031531,-3.421583E-10,1.413901
433.8324,0.04500441,0.0005622567,NaN,-0.3269998,0.0003259252,NaN,0.5864795,-14.18191,NaN,-2.147931,-1.474042,0.5919123,14.12877,NaN,NaN,-0.02004036,0.8047515,9.78234E-07,1.034936,8.499346E-10,1.409172
433.8481,0.04500441,0.0005612751,NaN,-0.3269998,0.0003242036,NaN,0.5861428,-14.18199,NaN,-2.148172,-1.465965,0.6028582,14.12038,NaN,NaN,-0.02004156,0.8045833,9.841945E-07,1.023286,8.499346E-10,1.406092
433.863,0.04500442,0.0005609652,NaN,-0.3269998,0.0003238088,NaN,0.5859942,-14.18183,NaN,-2.148412,-1.464728,0.6136065,14.11907,NaN,NaN,-0.02004284,0.8047168,9.901549E-07,1.021498,8.499346E-10,1.404479
433.8781,0.04500442,0.0005609652,NaN,-0.3269998,0.0003238088,NaN,0.5859942,-14.18183,NaN,-2.148412,-1.464728,0.6136065,14.11907,NaN,NaN,-0.02004284,0.8047168,9.901549E-07,1.021498,8.499346E-10,1.404479
433.8925,0.04500443,0.0005611684,NaN,-0.3269998,0.0003233588,NaN,0.5859421,-14.18257,NaN,-2.148656,-1.472524,0.6241878,14.12726,NaN,NaN,-0.02004424,0.8041192,9.996917E-07,1.032759,-1.534251E-09,1.411733
433.9082,0.04500443,0.0005616627,NaN,-0.3269998,0.0003240409,NaN,0.5850211,-14.18217,NaN,-2.148886,-1.463132,0.632342,14.11746,NaN,NaN,-0.0200465,0.8044202,1.019957E-06,1.019213,-2.726344E-09,1.406546
433.9233,0.04500443,0.0005618896,NaN,-0.3269998,0.0003243881,NaN,0.5842225,-14.18209,NaN,-2.1491,-1.465107,0.6399342,14.11949,NaN,NaN,-0.02004745,0.8045352,1.022342E-06,1.022056,-2.726344E-09,1.406067
433.9381,0.04500443,0.0005618896,NaN,-0.3269998,0.0003243881,NaN,0.5842225,-14.18209,NaN,-2.1491,-1.465107,0.6399342,14.11949,NaN,NaN,-0.02004745,0.8045352,1.022342E-06,1.022056,-2.726344E-09,1.406067
433.9535,0.04500443,0.0005616534,NaN,-0.3269998,0.0003246281,NaN,0.5836119,-14.18219,NaN,-2.14931,-1.463639,0.6473855,14.11797,NaN,NaN,-0.02004844,0.804394,1.024726E-06,1.019942,-1.534251E-09,1.404384
433.9678,0.04500444,0.0005616494,NaN,-0.3269998,0.0003250628,NaN,0.5831063,-14.18261,NaN,-2.149522,-1.46325,0.6547315,14.11762,NaN,NaN,-0.02004955,0.803959,1.029494E-06,1.019392,3.23412E-09,1.406592
433.9829,0.04500443,0.0005611264,NaN,-0.3269998,0.000325196,NaN,0.5817435,-14.18211,NaN,-2.149719,-1.462651,0.65972,14.11693,NaN,NaN,-0.02005152,0.8044322,1.044991E-06,1.018514,4.426213E-09,1.40435
433.998,0.04500443,0.0005611264,NaN,-0.3269998,0.000325196,NaN,0.5817435,-14.18211,NaN,-2.149719,-1.462651,0.65972,14.11693,NaN,NaN,-0.02005152,0.8044322,1.044991E-06,1.018514,4.426213E-09,1.40435
434.0123,0.04500443,0.0005605813,NaN,-0.3269998,0.0003255063,NaN,0.5805122,-14.18221,NaN,-2.149895,-1.461717,0.6642035,14.11596,NaN,NaN,-0.02005218,0.8043047,1.044991E-06,1.017171,-1.534251E-09,1.403331
434.028,0.04500443,0.0005601722,NaN,-0.3269998,0.0003259514,NaN,0.5794817,-14.18234,NaN,-2.150067,-1.461185,0.6686051,14.11542,NaN,NaN,-0.02005288,0.8041636,1.040223E-06,1.016407,4.426213E-09,1.404401
434.0431,0.04500443,0.0005595242,NaN,-0.3269998,0.0003262573,NaN,0.5785699,-14.1821,NaN,-2.15024,-1.461196,0.6729611,14.1154,NaN,NaN,-0.02005371,0.8043919,1.043799E-06,1.016414,8.499346E-10,1.402479
434.0583,0.04500443,0.0005595242,NaN,-0.3269998,0.0003262573,NaN,0.5785699,-14.1821,NaN,-2.15024,-1.461196,0.6729611,14.1154,NaN,NaN,-0.02005371,0.8043919,1.043799E-06,1.016414,8.499346E-10,1.402479
434.0726,0.04500443,0.0005589594,NaN,-0.3269998,0.0003263296,NaN,0.5768147,-14.18273,NaN,-2.150398,-1.465932,0.6750234,14.12039,NaN,NaN,-0.02005539,0.8038526,1.056912E-06,1.023261,-3.421583E-10,1.407554
434.0881,0.04500442,0.0005587098,NaN,-0.3269998,0.0003260436,NaN,0.5752016,-14.18308,NaN,-2.150533,-1.472152,0.676635,14.12688,NaN,NaN,-0.02005579,0.8035932,1.053336E-06,1.032231,2.042027E-09,1.411975
434.1032,0.04500442,0.000559045,NaN,-0.3269998,0.0003259972,NaN,0.5738022,-14.1832,NaN,-2.150663,-1.471857,0.6782199,14.12658,NaN,NaN,-0.02005622,0.8034569,1.052144E-06,1.031805,8.499346E-10,1.413461
434.1181,0.04500442,0.000559045,NaN,-0.3269998,0.0003259972,NaN,0.5738022,-14.1832,NaN,-2.150663,-1.471857,0.6782199,14.12658,NaN,NaN,-0.02005622,0.8034569,1.052144E-06,1.031805,8.499346E-10,1.413461
434.1324,0.04500441,0.0005592231,NaN,-0.3269999,0.0003260785,NaN,0.5716322,-14.18256,NaN,-2.150777,-1.467393,0.6775833,14.12187,NaN,NaN,-0.02005758,0.8040205,1.060488E-06,1.025359,4.426213E-09,1.408298
434.1479,0.0450044,0.000558686,NaN,-0.3269999,0.000325866,NaN,0.5696483,-14.18267,NaN,-2.150869,-1.464785,0.6765613,14.11917,NaN,NaN,-0.0200577,0.8038554,1.054528E-06,1.021599,4.426213E-09,1.407872
434.1629,0.04500439,0.0005584782,NaN,-0.3269999,0.0003260946,NaN,0.567906,-14.18205,NaN,-2.150956,-1.464955,0.6755715,14.11926,NaN,NaN,-0.02005788,0.8044522,1.047375E-06,1.021825,8.002492E-09,1.404827
434.1779,0.04500439,0.0005584782,NaN,-0.3269999,0.0003260946,NaN,0.567906,-14.18205,NaN,-2.150956,-1.464955,0.6755715,14.11926,NaN,NaN,-0.02005788,0.8044522,1.047375E-06,1.021825,8.002492E-09,1.404827
434.1924,0.04500439,0.0005582558,NaN,-0.3269999,0.0003260486,NaN,0.5663152,-14.18312,NaN,-2.151046,-1.468688,0.6746456,14.12326,NaN,NaN,-0.02005822,0.8034445,1.043799E-06,1.027234,8.002492E-09,1.410557
434.2079,0.04500438,0.000558926,NaN,-0.3269999,0.0003260867,NaN,0.5639083,-14.18225,NaN,-2.151123,-1.47218,0.6715341,14.12677,NaN,NaN,-0.02005943,0.804344,1.053336E-06,1.032242,8.002492E-09,1.409777
434.2231,0.04500437,0.0005596093,NaN,-0.3269999,0.0003269813,NaN,0.5616688,-14.18231,NaN,-2.151175,-1.462184,0.6680724,14.11638,NaN,NaN,-0.02005936,0.8041674,1.043799E-06,1.017829,5.618306E-09,1.408175
434.2379,0.04500437,0.0005596093,NaN,-0.3269999,0.0003269813,NaN,0.5616688,-14.18231,NaN,-2.151175,-1.462184,0.6680724,14.11638,NaN,NaN,-0.02005936,0.8041674,1.043799E-06,1.017829,5.618306E-09,1.408175
434.2539,0.04500436,0.0005598189,NaN,-0.3269999,0.0003274175,NaN,0.5596679,-14.1818,NaN,-2.151222,-1.462601,0.6646837,14.11674,NaN,NaN,-0.02005933,0.8046709,1.035454E-06,1.018414,8.002492E-09,1.402779
434.2681,0.04500435,0.0005599134,NaN,-0.3269999,0.0003278792,NaN,0.5578232,-14.18237,NaN,-2.151271,-1.46197,0.6614025,14.11616,NaN,NaN,-0.02005943,0.804078,1.028302E-06,1.017519,6.810399E-09,1.405638
434.2831,0.04500434,0.0005604821,NaN,-0.3269999,0.0003278856,NaN,0.5551696,-14.18281,NaN,-2.151308,-1.47172,0.6559786,14.12633,NaN,NaN,-0.02006042,0.8038325,1.035454E-06,1.031583,3.234121E-09,1.412877
434.2979,0.04500434,0.0005604821,NaN,-0.3269999,0.0003278856,NaN,0.5551696,-14.18281,NaN,-2.151308,-1.47172,0.6559786,14.12633,NaN,NaN,-0.02006042,0.8038325,1.035454E-06,1.031583,3.234121E-09,1.412877
434.3123,0.04500432,0.0005608423,NaN,-0.327,0.0003280726,NaN,0.5526943,-14.18281,NaN,-2.151319,-1.468049,0.6502503,14.12251,NaN,NaN,-0.02006011,0.8037736,1.02711E-06,1.026292,4.426214E-09,1.408886
434.3277,0.04500431,0.0005613206,NaN,-0.327,0.0003280922,NaN,0.550468,-14.18325,NaN,-2.151325,-1.471904,0.6446396,14.12655,NaN,NaN,-0.02005986,0.80338,1.017573E-06,1.031853,5.618307E-09,1.41443
434.3437,0.0450043,0.0005619229,NaN,-0.327,0.000328896,NaN,0.5484081,-14.18215,NaN,-2.151334,-1.463197,0.6391802,14.1174,NaN,NaN,-0.02005974,0.8043737,1.011613E-06,1.019293,4.426214E-09,1.408067
434.3577,0.0450043,0.0005619229,NaN,-0.327,0.000328896,NaN,0.5484081,-14.18215,NaN,-2.151334,-1.463197,0.6391802,14.1174,NaN,NaN,-0.02005974,0.8043737,1.011613E-06,1.019293,4.426214E-09,1.408067
434.3719,0.04500428,0.0005620874,NaN,-0.327,0.0003293909,NaN,0.5455484,-14.1821,NaN,-2.151331,-1.461619,0.6316174,14.11575,NaN,NaN,-0.0200605,0.8043864,1.015189E-06,1.017016,8.499355E-10,1.4041
434.3875,0.04500427,0.0005624453,NaN,-0.327,0.000329443,NaN,0.5428792,-14.18296,NaN,-2.151304,-1.470062,0.6237943,14.12462,NaN,NaN,-0.02005997,0.8037109,1.000884E-06,1.029213,3.234121E-09,1.412439
434.4024,0.04500426,0.000562696,NaN,-0.3270001,0.0003299725,NaN,0.5404695,-14.18211,NaN,-2.151271,-1.462333,0.6161314,14.1165,NaN,NaN,-0.02005949,0.8044528,9.877708E-07,1.01806,2.042028E-09,1.404435
434.4174,0.04500426,0.000562696,NaN,-0.3270001,0.0003299725,NaN,0.5404695,-14.18211,NaN,-2.151271,-1.462333,0.6161314,14.1165,NaN,NaN,-0.02005949,0.8044528,9.877708E-07,1.01806,2.042028E-09,1.404435
434.4318,0.04500424,0.0005621252,NaN,-0.3270001,0.0003300206,NaN,0.5373305,-14.18187,NaN,-2.151226,-1.461803,0.6064203,14.11591,NaN,NaN,-0.02005995,0.8046841,9.889629E-07,1.017287,2.042028E-09,1.406208
434.4474,0.04500422,0.0005625403,NaN,-0.3270001,0.000329944,NaN,0.5344267,-14.18217,NaN,-2.151157,-1.471798,0.5965075,14.12633,NaN,NaN,-0.02005917,0.8045962,9.704855E-07,1.031708,4.426214E-09,1.409085
434.4626,0.0450042,0.0005629624,NaN,-0.3270001,0.0003299683,NaN,0.5318084,-14.18291,NaN,-2.151085,-1.470999,0.5868047,14.12557,NaN,NaN,-0.02005846,0.8038442,9.561804E-07,1.030565,4.426214E-09,1.411715
434.4774,0.0450042,0.0005629624,NaN,-0.3270001,0.0003299683,NaN,0.5318084,-14.18291,NaN,-2.151085,-1.470999,0.5868047,14.12557,NaN,NaN,-0.02005846,0.8038442,9.561804E-07,1.030565,4.426214E-09,1.411715
434.4918,0.04500419,0.000563207,NaN,-0.3270002,0.0003304893,NaN,0.5293821,-14.18176,NaN,-2.151019,-1.462689,0.577338,14.11681,NaN,NaN,-0.02005791,0.8048865,9.424714E-07,1.018568,5.618307E-09,1.403489
434.5085,0.04500417,0.0005635053,NaN,-0.3270002,0.0003303787,NaN,0.5261757,-14.1825,NaN,-2.150946,-1.472196,0.5658375,14.12679,NaN,NaN,-0.02005822,0.8043313,9.382991E-07,1.032301,6.810399E-09,1.410669
434.5224,0.04500415,0.0005637204,NaN,-0.3270002,0.0003308636,NaN,0.5231862,-14.1818,NaN,-2.150849,-1.463274,0.5541623,14.11743,NaN,NaN,-0.02005726,0.8049343,9.210137E-07,1.019424,4.426214E-09,1.403189
434.5385,0.04500415,0.0005637204,NaN,-0.3270002,0.0003308636,NaN,0.5231862,-14.1818,NaN,-2.150849,-1.463274,0.5541623,14.11743,NaN,NaN,-0.02005726,0.8049343,9.210137E-07,1.019424,4.426214E-09,1.403189
434.5526,0.04500413,0.0005638406,NaN,-0.3270003,0.0003306665,NaN,0.5204762,-14.18258,NaN,-2.150749,-1.47259,0.5427269,14.12721,NaN,NaN,-0.02005636,0.8043421,9.031323E-07,1.032881,8.49935E-10,1.410723
434.567,0.04500412,0.0005636281,NaN,-0.3270003,0.0003304639,NaN,0.5179585,-14.18183,NaN,-2.150655,-1.468362,0.5315587,14.12273,NaN,NaN,-0.0200556,0.8050278,8.888272E-07,1.02677,2.042028E-09,1.406205
434.5821,0.0450041,0.0005631362,NaN,-0.3270003,0.0003304213,NaN,0.5146636,-14.18153,NaN,-2.150555,-1.463993,0.5183807,14.11814,NaN,NaN,-0.02005568,0.8052574,8.86443E-07,1.020459,2.042028E-09,1.404297
434.5977,0.0450041,0.0005631362,NaN,-0.3270003,0.0003304213,NaN,0.5146636,-14.18153,NaN,-2.150555,-1.463993,0.5183807,14.11814,NaN,NaN,-0.02005568,0.8052574,8.86443E-07,1.020459,2.042028E-09,1.404297
434.6113,0.04500408,0.0005628717,NaN,-0.3270003,0.0003300682,NaN,0.5115958,-14.1826,NaN,-2.150431,-1.471625,0.505066,14.12621,NaN,NaN,-0.02005451,0.8043359,8.673696E-07,1.031499,-1.534251E-09,1.410397
434.6271,0.04500406,0.0005619872,NaN,-0.3270004,0.0003296705,NaN,0.5088148,-14.18178,NaN,-2.150306,-1.464633,0.4920258,14.11885,NaN,NaN,-0.02005341,0.8050586,8.488921E-07,1.021401,-3.918436E-09,1.405094
434.6421,0.04500404,0.0005610195,NaN,-0.3270004,0.0003294084,NaN,0.5062315,-14.18166,NaN,-2.150187,-1.464952,0.4792852,14.11916,NaN,NaN,-0.02005245,0.8051858,8.327988E-07,1.021858,-3.918436E-09,1.403857
434.6573,0.04500404,0.0005610195,NaN,-0.3270004,0.0003294084,NaN,0.5062315,-14.18166,NaN,-2.150187,-1.464952,0.4792852,14.11916,NaN,NaN,-0.02005245,0.8051858,8.327988E-07,1.021858,-3.918436E-09,1.403857
