JMolnar6/NonAnthroHands_User_Study/HandsLoggerWithURDF/tempdata/files/Reachy_JointMotion_gesture_8_41.csv
Time,r_shoulder,r_shoulder_x,r_upper_arm,r_forearm,r_wrist,r_wrist2hand,
606.7182,-0.01402827,-6.18236E-09,NaN,-0.9035647,-1.335592E-07,NaN,-1.561145,-4.062316E-07,NaN,-2.102903,1.827609E-05,0.3763894,7.826007E-08,NaN,NaN,-0.09227043,-1.397061E-11,-5.155271E-08,-1.116487E-07,5.358598E-09,-2.622604E-08
606.7357,-0.01402737,-6.18156E-09,NaN,-0.9036589,-1.335592E-07,NaN,-1.560642,-4.061396E-07,NaN,-2.103549,1.827656E-05,0.3777198,7.816963E-08,NaN,NaN,-0.09214272,-1.862722E-11,-5.706614E-08,-1.116475E-07,5.358598E-09,-2.861022E-08
606.7494,-0.01402638,-6.18076E-09,NaN,-0.9037953,-1.33559E-07,NaN,-1.560227,-4.060888E-07,NaN,-2.10448,1.827702E-05,0.3792764,7.812039E-08,NaN,NaN,-0.09201794,-1.862722E-11,-5.058413E-08,-1.116463E-07,2.974413E-09,-2.622604E-08
606.7654,-0.01402533,-6.17996E-09,NaN,-0.9039571,-1.335586E-07,NaN,-1.559931,-4.060615E-07,NaN,-2.105541,1.827749E-05,0.380801,7.80946E-08,NaN,NaN,-0.09189553,-2.328383E-11,-4.492169E-08,-1.11645E-07,2.974413E-09,-2.861022E-08
606.7808,-0.01402424,-6.17916E-09,NaN,-0.9041338,-1.335583E-07,NaN,-1.559706,-4.060459E-07,NaN,-2.106655,1.827796E-05,0.3822719,7.808053E-08,NaN,NaN,-0.09177542,-2.328383E-11,-4.089838E-08,-1.116436E-07,5.90227E-10,-2.622604E-08
606.7968,-0.01402424,-6.17916E-09,NaN,-0.9041338,-1.335583E-07,NaN,-1.559706,-4.060459E-07,NaN,-2.106655,1.827796E-05,0.3822719,7.808053E-08,NaN,NaN,-0.09177542,-2.328383E-11,-4.089838E-08,-1.116436E-07,5.90227E-10,-2.622604E-08
606.8117,-0.01402324,-6.178361E-09,NaN,-0.9042497,-1.335579E-07,NaN,-1.560037,-4.06039E-07,NaN,-2.107194,1.827843E-05,0.3823481,7.807513E-08,NaN,NaN,-0.09178685,-2.794045E-11,-3.314977E-08,-1.116423E-07,-1.793959E-09,-2.861022E-08
606.8281,-0.01402233,-6.177562E-09,NaN,-0.9043275,-1.335579E-07,NaN,-1.560301,-4.058375E-07,NaN,-2.107448,1.827891E-05,0.3821594,7.787515E-08,NaN,NaN,-0.0917976,-4.191028E-11,-3.776913E-08,-1.1164E-07,-6.56233E-09,-2.622604E-08
606.8434,-0.01402147,-6.176762E-09,NaN,-0.9043814,-1.335579E-07,NaN,-1.560456,-4.056708E-07,NaN,-2.107563,1.827939E-05,0.3819716,7.771005E-08,NaN,NaN,-0.0918082,-6.053674E-11,-4.186695E-08,-1.116376E-07,-4.178144E-09,-2.861022E-08
606.8592,-0.01402147,-6.176762E-09,NaN,-0.9043814,-1.335579E-07,NaN,-1.560456,-4.056708E-07,NaN,-2.107563,1.827939E-05,0.3819716,7.771005E-08,NaN,NaN,-0.0918082,-6.053674E-11,-4.186695E-08,-1.116376E-07,-4.178144E-09,-2.861022E-08
606.8741,-0.01402065,-6.175963E-09,NaN,-0.9044204,-1.335578E-07,NaN,-1.560547,-4.055186E-07,NaN,-2.107611,1.827987E-05,0.38181,7.75594E-08,NaN,NaN,-0.09181869,-7.450657E-11,-4.432565E-08,-1.116352E-07,-4.178144E-09,-2.622604E-08
606.8909,-0.01401998,-6.175163E-09,NaN,-0.9043826,-1.335577E-07,NaN,-1.561128,-4.053749E-07,NaN,-2.107033,1.828035E-05,0.3803167,7.741727E-08,NaN,NaN,-0.09195828,-8.847641E-11,-4.134541E-08,-1.116328E-07,-6.56233E-09,-2.861022E-08
606.907,-0.01401943,-6.174364E-09,NaN,-0.9042975,-1.335575E-07,NaN,-1.561607,-4.052368E-07,NaN,-2.106153,1.828083E-05,0.3786036,7.728067E-08,NaN,NaN,-0.09209472,-1.024463E-10,-4.879599E-08,-1.116304E-07,-8.946516E-09,-2.622604E-08
606.9221,-0.01401895,-6.173565E-09,NaN,-0.9041837,-1.335574E-07,NaN,-1.561957,-4.051013E-07,NaN,-2.105135,1.828131E-05,0.3769279,7.714669E-08,NaN,NaN,-0.09222859,-1.164161E-10,-5.565053E-08,-1.11628E-07,-1.609907E-08,-2.861022E-08
606.9377,-0.01401895,-6.173565E-09,NaN,-0.9041837,-1.335574E-07,NaN,-1.561957,-4.051013E-07,NaN,-2.105135,1.828131E-05,0.3769279,7.714669E-08,NaN,NaN,-0.09222859,-1.164161E-10,-5.565053E-08,-1.11628E-07,-1.609907E-08,-2.861022E-08
606.9526,-0.01401852,-6.172764E-09,NaN,-0.9040526,-1.335568E-07,NaN,-1.56223,-4.052961E-07,NaN,-2.104058,1.828177E-05,0.3753104,7.734306E-08,NaN,NaN,-0.09235995,-1.117595E-10,-6.056791E-08,-1.11628E-07,-1.13307E-08,-2.622604E-08
606.9692,-0.01401823,-6.171965E-09,NaN,-0.9038422,-1.33557E-07,NaN,-1.562981,-4.050069E-07,NaN,-2.10237,1.828225E-05,0.3723865,7.705541E-08,NaN,NaN,-0.09261804,-1.210727E-10,-5.937582E-08,-1.11626E-07,-8.946516E-09,-2.861022E-08
606.9846,-0.01401807,-6.171164E-09,NaN,-0.9035838,-1.335567E-07,NaN,-1.563617,-4.051213E-07,NaN,-2.100393,1.828272E-05,0.3692752,7.717134E-08,NaN,NaN,-0.09287069,-1.210727E-10,-6.93596E-08,-1.116262E-07,-6.562331E-09,-2.622604E-08
607.0002,-0.01401799,-6.170363E-09,NaN,-0.9032968,-1.335567E-07,NaN,-1.564116,-4.051173E-07,NaN,-2.098294,1.828318E-05,0.3662305,7.716888E-08,NaN,NaN,-0.0931185,-1.117595E-10,-7.800227E-08,-1.116267E-07,-1.13307E-08,-2.861022E-08
607.0159,-0.01401799,-6.170363E-09,NaN,-0.9032968,-1.335567E-07,NaN,-1.564116,-4.051173E-07,NaN,-2.098294,1.828318E-05,0.3662305,7.716888E-08,NaN,NaN,-0.0931185,-1.117595E-10,-7.800227E-08,-1.116267E-07,-1.13307E-08,-2.861022E-08
607.0309,-0.01401796,-6.169563E-09,NaN,-0.9029936,-1.335569E-07,NaN,-1.56453,-4.050538E-07,NaN,-2.096151,1.828364E-05,0.3632708,7.710695E-08,NaN,NaN,-0.09336156,-1.024462E-10,-8.448428E-08,-1.116274E-07,-1.13307E-08,-2.622604E-08
607.0472,-0.01401808,-6.168762E-09,NaN,-0.9026123,-1.335573E-07,NaN,-1.565409,-4.049575E-07,NaN,-2.093413,1.82841E-05,0.359021,7.70122E-08,NaN,NaN,-0.09372918,-9.313302E-11,-8.530384E-08,-1.116282E-07,-1.13307E-08,-2.861022E-08
607.063,-0.01401832,-6.167961E-09,NaN,-0.9021847,-1.335577E-07,NaN,-1.566161,-4.048432E-07,NaN,-2.090403,1.828456E-05,0.3546174,7.68994E-08,NaN,NaN,-0.09408924,-8.38198E-11,-9.759729E-08,-1.11629E-07,-4.178144E-09,-2.622604E-08
607.0786,-0.01401832,-6.167961E-09,NaN,-0.9021847,-1.335577E-07,NaN,-1.566161,-4.048432E-07,NaN,-2.090403,1.828456E-05,0.3546174,7.68994E-08,NaN,NaN,-0.09408924,-8.38198E-11,-9.759729E-08,-1.11629E-07,-4.178144E-09,-2.622604E-08
607.0935,-0.01401865,-6.167161E-09,NaN,-0.9017302,-1.335581E-07,NaN,-1.566767,-4.047197E-07,NaN,-2.087286,1.828502E-05,0.3503083,7.677742E-08,NaN,NaN,-0.09444236,-7.450657E-11,-1.074321E-07,-1.116298E-07,-1.13307E-08,-2.861022E-08
607.1097,-0.01401902,-6.166363E-09,NaN,-0.9012613,-1.335586E-07,NaN,-1.567283,-4.046303E-07,NaN,-2.084141,1.82855E-05,0.3461089,7.668956E-08,NaN,NaN,-0.09478867,-8.38198E-11,-1.153297E-07,-1.116307E-07,-6.56233E-09,-2.622604E-08
607.1254,-0.01401956,-6.165565E-09,NaN,-0.9007163,-1.335591E-07,NaN,-1.568249,-4.045369E-07,NaN,-2.080417,1.828597E-05,0.3406285,7.659769E-08,NaN,NaN,-0.09525754,-7.916318E-11,-1.177139E-07,-1.116315E-07,-4.178144E-09,-2.861022E-08
607.1412,-0.01402021,-6.164767E-09,NaN,-0.9001268,-1.335596E-07,NaN,-1.569074,-4.044452E-07,NaN,-2.076437,1.828643E-05,0.3350298,7.650753E-08,NaN,NaN,-0.09571689,-7.450657E-11,-1.291132E-07,-1.116324E-07,-6.56233E-09,-2.622604E-08
607.157,-0.01402021,-6.164767E-09,NaN,-0.9001268,-1.335596E-07,NaN,-1.569074,-4.044452E-07,NaN,-2.076437,1.828643E-05,0.3350298,7.650753E-08,NaN,NaN,-0.09571689,-7.450657E-11,-1.291132E-07,-1.116324E-07,-6.56233E-09,-2.622604E-08
607.1722,-0.01402095,-6.163969E-09,NaN,-0.8995124,-1.335601E-07,NaN,-1.569748,-4.043553E-07,NaN,-2.072363,1.82869E-05,0.3295526,7.641906E-08,NaN,NaN,-0.09616737,-7.450657E-11,-1.39246E-07,-1.116332E-07,-4.178144E-09,-2.861022E-08
607.1884,-0.01402174,-6.163172E-09,NaN,-0.8988854,-1.335606E-07,NaN,-1.570328,-4.042669E-07,NaN,-2.068278,1.828737E-05,0.3242078,7.633223E-08,NaN,NaN,-0.09660913,-6.984995E-11,-1.481122E-07,-1.116341E-07,-4.178144E-09,-2.622604E-08
607.2042,-0.01402269,-6.162375E-09,NaN,-0.8981841,-1.335611E-07,NaN,-1.571308,-4.041802E-07,NaN,-2.063625,1.828784E-05,0.3175526,7.624702E-08,NaN,NaN,-0.09717151,-6.984995E-11,-1.51614E-07,-1.116349E-07,-1.13307E-08,-2.861022E-08
607.2213,-0.01402376,-6.161578E-09,NaN,-0.8974402,-1.335617E-07,NaN,-1.571859,-4.040951E-07,NaN,-2.058712,1.828831E-05,0.3105544,7.616339E-08,NaN,NaN,-0.09772207,-6.519334E-11,-1.817143E-07,-1.116358E-07,-8.946516E-09,-2.622604E-08
607.2355,-0.01402376,-6.161578E-09,NaN,-0.8974402,-1.335617E-07,NaN,-1.571859,-4.040951E-07,NaN,-2.058712,1.828831E-05,0.3105544,7.616339E-08,NaN,NaN,-0.09772207,-6.519334E-11,-1.817143E-07,-1.116358E-07,-8.946516E-09,-2.622604E-08
607.2499,-0.01402492,-6.160781E-09,NaN,-0.8966733,-1.335622E-07,NaN,-1.571893,-4.040143E-07,NaN,-2.053709,1.828878E-05,0.3036138,7.608413E-08,NaN,NaN,-0.0982618,-6.519334E-11,-2.145714E-07,-1.116366E-07,-8.946516E-09,-2.861022E-08
607.2667,-0.01402614,-6.159984E-09,NaN,-0.8958955,-1.335627E-07,NaN,-1.571603,-4.03935E-07,NaN,-2.048708,1.828924E-05,0.2969076,7.600634E-08,NaN,NaN,-0.09879122,-6.053672E-11,-2.397544E-07,-1.116375E-07,-6.562331E-09,-2.622604E-08
607.2822,-0.01402751,-6.159187E-09,NaN,-0.8950453,-1.335632E-07,NaN,-1.571702,-4.038571E-07,NaN,-2.04317,1.828971E-05,0.2890662,7.592998E-08,NaN,NaN,-0.09943988,-6.053672E-11,-2.503342E-07,-1.116383E-07,-8.946516E-09,-2.861022E-08
607.2982,-0.01402751,-6.159187E-09,NaN,-0.8950453,-1.335632E-07,NaN,-1.571702,-4.038571E-07,NaN,-2.04317,1.828971E-05,0.2890662,7.592998E-08,NaN,NaN,-0.09943988,-6.053672E-11,-2.503342E-07,-1.116383E-07,-8.946516E-09,-2.861022E-08
607.313,-0.01402909,-6.15839E-09,NaN,-0.8941543,-1.335637E-07,NaN,-1.571634,-4.037835E-07,NaN,-2.03741,1.829018E-05,0.2811736,7.585786E-08,NaN,NaN,-0.1000756,-5.588011E-11,-2.726859E-07,-1.116392E-07,-4.178145E-09,-2.622604E-08
607.3293,-0.01403094,-6.157594E-09,NaN,-0.8932419,-1.335642E-07,NaN,-1.571429,-4.037112E-07,NaN,-2.03159,1.829065E-05,0.2734801,7.578706E-08,NaN,NaN,-0.100699,-5.588011E-11,-2.911634E-07,-1.1164E-07,-4.178145E-09,-2.861022E-08
607.3447,-0.01403302,-6.156797E-09,NaN,-0.8923205,-1.335647E-07,NaN,-1.571205,-4.036402E-07,NaN,-2.025788,1.829112E-05,0.2660191,7.571757E-08,NaN,NaN,-0.1013105,-5.12235E-11,-3.047234E-07,-1.116409E-07,-8.946516E-09,-2.622604E-08
607.3605,-0.01403545,-6.156E-09,NaN,-0.8913284,-1.335652E-07,NaN,-1.571494,-4.035733E-07,NaN,-2.019458,1.829159E-05,0.2573234,7.565217E-08,NaN,NaN,-0.1020394,-5.12235E-11,-3.086722E-07,-1.116417E-07,-6.562331E-09,-2.861022E-08
607.3762,-0.01403545,-6.156E-09,NaN,-0.8913284,-1.335652E-07,NaN,-1.571494,-4.035733E-07,NaN,-2.019458,1.829159E-05,0.2573234,7.565217E-08,NaN,NaN,-0.1020394,-5.12235E-11,-3.086722E-07,-1.116417E-07,-6.562331E-09,-2.861022E-08
607.3912,-0.01403826,-6.155204E-09,NaN,-0.8902971,-1.335656E-07,NaN,-1.571604,-4.035076E-07,NaN,-2.012909,1.829205E-05,0.2485278,7.558796E-08,NaN,NaN,-0.1027536,-4.656689E-11,-3.270006E-07,-1.116425E-07,-6.562331E-09,-2.622604E-08
607.4075,-0.01404138,-6.154408E-09,NaN,-0.8892462,-1.335661E-07,NaN,-1.571506,-4.03443E-07,NaN,-2.006305,1.829253E-05,0.2399032,7.552492E-08,NaN,NaN,-0.103454,-5.12235E-11,-3.44882E-07,-1.116433E-07,-8.946516E-09,-2.861022E-08
607.4235,-0.01404475,-6.153611E-09,NaN,-0.8881879,-1.335666E-07,NaN,-1.571311,-4.033824E-07,NaN,-1.999728,1.8293E-05,0.2315139,7.546586E-08,NaN,NaN,-0.1041408,-5.12235E-11,-3.579206E-07,-1.116442E-07,-6.562331E-09,-2.622604E-08
607.4391,-0.01404475,-6.153611E-09,NaN,-0.8881879,-1.335666E-07,NaN,-1.571311,-4.033824E-07,NaN,-1.999728,1.8293E-05,0.2315139,7.546586E-08,NaN,NaN,-0.1041408,-5.12235E-11,-3.579206E-07,-1.116442E-07,-6.562331E-09,-2.622604E-08
607.4539,-0.01404849,-6.152815E-09,NaN,-0.8870605,-1.335671E-07,NaN,-1.571551,-4.033229E-07,NaN,-1.992633,1.829347E-05,0.2218902,7.540785E-08,NaN,NaN,-0.1049436,-5.588011E-11,-3.618694E-07,-1.11645E-07,-6.562331E-09,-2.861022E-08
607.4702,-0.0140526,-6.152019E-09,NaN,-0.8858954,-1.335676E-07,NaN,-1.571589,-4.032645E-07,NaN,-1.985335,1.829395E-05,0.2122365,7.53509E-08,NaN,NaN,-0.1057305,-5.588011E-11,-3.796017E-07,-1.116458E-07,-4.178145E-09,-2.622604E-08
607.4858,-0.01405703,-6.151223E-09,NaN,-0.8847125,-1.335681E-07,NaN,-1.571442,-4.032099E-07,NaN,-1.977995,1.829441E-05,0.2027993,7.529779E-08,NaN,NaN,-0.1065021,-5.12235E-11,-3.9495E-07,-1.116466E-07,-1.793959E-09,-2.861022E-08
607.5017,-0.0140617,-6.150427E-09,NaN,-0.8835236,-1.335686E-07,NaN,-1.571234,-4.031562E-07,NaN,-1.970693,1.829488E-05,0.1936212,7.524564E-08,NaN,NaN,-0.1072587,-4.656689E-11,-4.056788E-07,-1.116474E-07,5.902265E-10,-2.622604E-08
607.5174,-0.0140617,-6.150427E-09,NaN,-0.8835236,-1.335686E-07,NaN,-1.571234,-4.031562E-07,NaN,-1.970693,1.829488E-05,0.1936212,7.524564E-08,NaN,NaN,-0.1072587,-4.656689E-11,-4.056788E-07,-1.116474E-07,5.902265E-10,-2.622604E-08
607.5323,-0.01406674,-6.149631E-09,NaN,-0.8822673,-1.335691E-07,NaN,-1.571458,-4.031035E-07,NaN,-1.962886,1.829535E-05,0.183193,7.519442E-08,NaN,NaN,-0.1081299,-5.12235E-11,-4.062748E-07,-1.116483E-07,5.902265E-10,-2.861022E-08
607.5487,-0.01407214,-6.148835E-09,NaN,-0.8809749,-1.335696E-07,NaN,-1.571486,-4.030545E-07,NaN,-1.954888,1.829582E-05,0.1727789,7.514694E-08,NaN,NaN,-0.1089838,-5.12235E-11,-4.197604E-07,-1.116491E-07,-4.178145E-09,-2.622604E-08
607.5645,-0.01407785,-6.148039E-09,NaN,-0.879666,-1.3357E-07,NaN,-1.571346,-4.030063E-07,NaN,-1.946857,1.829629E-05,0.1625997,7.51003E-08,NaN,NaN,-0.1098212,-5.12235E-11,-4.299677E-07,-1.116499E-07,-8.946516E-09,-2.861022E-08
607.58,-0.01407785,-6.148039E-09,NaN,-0.879666,-1.3357E-07,NaN,-1.571346,-4.030063E-07,NaN,-1.946857,1.829629E-05,0.1625997,7.51003E-08,NaN,NaN,-0.1098212,-5.12235E-11,-4.299677E-07,-1.116499E-07,-8.946516E-09,-2.861022E-08
607.595,-0.01408399,-6.147244E-09,NaN,-0.8782835,-1.335705E-07,NaN,-1.571529,-4.02959E-07,NaN,-1.938294,1.829677E-05,0.1511755,7.505449E-08,NaN,NaN,-0.1107715,-5.588011E-11,-4.322029E-07,-1.116507E-07,-8.946516E-09,-2.622604E-08
607.6111,-0.01409053,-6.146448E-09,NaN,-0.8768618,-1.33571E-07,NaN,-1.571481,-4.029181E-07,NaN,-1.929534,1.829724E-05,0.1398382,7.501514E-08,NaN,NaN,-0.1117032,-6.053672E-11,-4.452041E-07,-1.116515E-07,-8.946516E-09,-2.861022E-08
607.6272,-0.01409741,-6.145652E-09,NaN,-0.8754222,-1.335715E-07,NaN,-1.571286,-4.02878E-07,NaN,-1.920745,1.829771E-05,0.1287824,7.497647E-08,NaN,NaN,-0.1126168,-6.053672E-11,-4.520959E-07,-1.116523E-07,-8.946516E-09,-2.622604E-08
607.6428,-0.01410454,-6.144857E-09,NaN,-0.873978,-1.33572E-07,NaN,-1.571074,-4.028385E-07,NaN,-1.91201,1.829819E-05,0.1180204,7.493847E-08,NaN,NaN,-0.1135125,-6.053672E-11,-4.533625E-07,-1.116531E-07,-8.946516E-09,-2.861022E-08
607.6584,-0.01410454,-6.144857E-09,NaN,-0.873978,-1.33572E-07,NaN,-1.571074,-4.028385E-07,NaN,-1.91201,1.829819E-05,0.1180204,7.493847E-08,NaN,NaN,-0.1135125,-6.053672E-11,-4.533625E-07,-1.116531E-07,-8.946516E-09,-2.861022E-08
607.6736,-0.01411205,-6.144062E-09,NaN,-0.8724682,-1.335724E-07,NaN,-1.571257,-4.028024E-07,NaN,-1.902789,1.829866E-05,0.1059876,7.490394E-08,NaN,NaN,-0.1145201,-6.053672E-11,-4.473648E-07,-1.116539E-07,-1.13307E-08,-2.622604E-08
607.69,-0.01411992,-6.143266E-09,NaN,-0.8709247,-1.335729E-07,NaN,-1.571259,-4.02767E-07,NaN,-1.893398,1.829913E-05,0.09406345,7.487001E-08,NaN,NaN,-0.1155079,-6.053672E-11,-4.502705E-07,-1.116546E-07,-8.946516E-09,-2.861022E-08
607.7056,-0.01412809,-6.142471E-09,NaN,-0.8693672,-1.335734E-07,NaN,-1.571127,-4.027321E-07,NaN,-1.883995,1.82996E-05,0.0824104,7.483665E-08,NaN,NaN,-0.1164764,-6.053672E-11,-4.50196E-07,-1.116554E-07,-1.13307E-08,-2.622604E-08
607.7208,-0.01413649,-6.141676E-09,NaN,-0.8678082,-1.335738E-07,NaN,-1.570961,-4.027006E-07,NaN,-1.874655,1.830007E-05,0.0710432,7.480668E-08,NaN,NaN,-0.1174259,-6.053672E-11,-4.46005E-07,-1.116562E-07,-1.371489E-08,-2.861022E-08
607.7401,-0.01414505,-6.14088E-09,NaN,-0.866255,-1.335743E-07,NaN,-1.570829,-4.026696E-07,NaN,-1.865417,1.830054E-05,0.05994353,7.47772E-08,NaN,NaN,-0.1183569,-6.053672E-11,-4.387407E-07,-1.11657E-07,-1.609907E-08,-2.622604E-08
607.7547,-0.01414505,-6.14088E-09,NaN,-0.866255,-1.335743E-07,NaN,-1.570829,-4.026696E-07,NaN,-1.865417,1.830054E-05,0.05994353,7.47772E-08,NaN,NaN,-0.1183569,-6.053672E-11,-4.387407E-07,-1.11657E-07,-1.609907E-08,-2.622604E-08
607.7676,-0.01415137,-6.140085E-09,NaN,-0.8655441,-1.335748E-07,NaN,-1.567328,-4.026391E-07,NaN,-1.863204,1.830102E-05,0.06775822,7.474821E-08,NaN,NaN,-0.1177178,-6.519334E-11,-4.714488E-07,-1.116578E-07,-8.946515E-09,-2.861022E-08
607.7836,-0.01415492,-6.13929E-09,NaN,-0.8653562,-1.335753E-07,NaN,-1.565441,-4.026119E-07,NaN,-1.864392,1.830149E-05,0.07599718,7.472253E-08,NaN,NaN,-0.1170912,-6.519334E-11,-4.411994E-07,-1.116586E-07,2.974414E-09,-2.622604E-08
607.7996,-0.01415492,-6.13929E-09,NaN,-0.8653562,-1.335753E-07,NaN,-1.565441,-4.026119E-07,NaN,-1.864392,1.830149E-05,0.07599718,7.472253E-08,NaN,NaN,-0.1170912,-6.519334E-11,-4.411994E-07,-1.116586E-07,2.974414E-09,-2.622604E-08
607.8143,-0.01415594,-6.138495E-09,NaN,-0.8654901,-1.335757E-07,NaN,-1.564376,-4.025852E-07,NaN,-1.867266,1.830196E-05,0.08376771,7.469733E-08,NaN,NaN,-0.1164769,-6.053672E-11,-4.239886E-07,-1.116593E-07,5.358599E-09,-2.861022E-08
607.8307,-0.01415601,-6.137701E-09,NaN,-0.8657527,-1.335762E-07,NaN,-1.563938,-4.025589E-07,NaN,-1.870386,1.830243E-05,0.0896844,7.467253E-08,NaN,NaN,-0.116004,-5.588011E-11,-4.097579E-07,-1.116601E-07,5.358599E-09,-2.622604E-08
607.8461,-0.01415571,-6.136906E-09,NaN,-0.8660936,-1.335767E-07,NaN,-1.563541,-4.02533E-07,NaN,-1.873623,1.83029E-05,0.09538513,7.464813E-08,NaN,NaN,-0.1155404,-5.12235E-11,-4.030897E-07,-1.116609E-07,1.012697E-08,-2.861022E-08
607.8619,-0.01415523,-6.136111E-09,NaN,-0.8664812,-1.335771E-07,NaN,-1.563153,-4.025103E-07,NaN,-1.876901,1.830337E-05,0.1009696,7.462695E-08,NaN,NaN,-0.1150858,-4.656689E-11,-3.958626E-07,-1.116616E-07,1.251116E-08,-2.622604E-08
607.8775,-0.01415523,-6.136111E-09,NaN,-0.8664812,-1.335771E-07,NaN,-1.563153,-4.025103E-07,NaN,-1.876901,1.830337E-05,0.1009696,7.462695E-08,NaN,NaN,-0.1150858,-4.656689E-11,-3.958626E-07,-1.116616E-07,1.251116E-08,-2.622604E-08
607.8927,-0.01415466,-6.135316E-09,NaN,-0.866896,-1.335776E-07,NaN,-1.562772,-4.024879E-07,NaN,-1.88018,1.830385E-05,0.1064438,7.460608E-08,NaN,NaN,-0.1146402,-4.656689E-11,-3.889708E-07,-1.116624E-07,1.012697E-08,-2.861022E-08
607.909,-0.01415418,-6.134521E-09,NaN,-0.8672563,-1.33578E-07,NaN,-1.562703,-4.0248E-07,NaN,-1.882861,1.830433E-05,0.110255,7.459965E-08,NaN,NaN,-0.1143327,-3.725366E-11,-3.78689E-07,-1.116631E-07,2.974414E-09,-2.622604E-08
607.9247,-0.01415377,-6.133727E-09,NaN,-0.8675814,-1.335789E-07,NaN,-1.562536,-4.022662E-07,NaN,-1.885237,1.830482E-05,0.1139426,7.438734E-08,NaN,NaN,-0.1140312,-4.191027E-11,-3.739206E-07,-1.116629E-07,-1.793957E-09,-2.861022E-08
607.9404,-0.0141534,-6.132932E-09,NaN,-0.8678833,-1.335797E-07,NaN,-1.562318,-4.020846E-07,NaN,-1.887445,1.83053E-05,0.1175786,7.420732E-08,NaN,NaN,-0.1137356,-3.725366E-11,-3.678857E-07,-1.116627E-07,-1.793957E-09,-2.622604E-08
607.9561,-0.0141534,-6.132932E-09,NaN,-0.8678833,-1.335797E-07,NaN,-1.562318,-4.020846E-07,NaN,-1.887445,1.83053E-05,0.1175786,7.420732E-08,NaN,NaN,-0.1137356,-3.725366E-11,-3.678857E-07,-1.116627E-07,-1.793957E-09,-2.622604E-08
607.9709,-0.01415305,-6.132137E-09,NaN,-0.8681695,-1.335805E-07,NaN,-1.562084,-4.019178E-07,NaN,-1.889554,1.830579E-05,0.1211533,7.404201E-08,NaN,NaN,-0.1134458,-3.725366E-11,-3.612546E-07,-1.116624E-07,-4.178143E-09,-2.861022E-08
607.9874,-0.01415286,-6.131342E-09,NaN,-0.8683754,-1.335813E-07,NaN,-1.562161,-4.017626E-07,NaN,-1.89102,1.830628E-05,0.1231103,7.388832E-08,NaN,NaN,-0.1132911,-3.725366E-11,-3.521649E-07,-1.116621E-07,-6.562329E-09,-2.622604E-08
608.0031,-0.01415278,-6.130547E-09,NaN,-0.8685309,-1.33582E-07,NaN,-1.56213,-4.016132E-07,NaN,-1.892165,1.830678E-05,0.1249767,7.374037E-08,NaN,NaN,-0.1131394,-4.191027E-11,-3.482534E-07,-1.116618E-07,-6.562329E-09,-2.861022E-08
608.0191,-0.01415278,-6.130547E-09,NaN,-0.8685309,-1.33582E-07,NaN,-1.56213,-4.016132E-07,NaN,-1.892165,1.830678E-05,0.1249767,7.374037E-08,NaN,NaN,-0.1131394,-4.191027E-11,-3.482534E-07,-1.116618E-07,-6.562329E-09,-2.861022E-08
608.0338,-0.01415276,-6.129752E-09,NaN,-0.8686545,-1.335827E-07,NaN,-1.562042,-4.017102E-07,NaN,-1.893142,1.830727E-05,0.1268296,7.383893E-08,NaN,NaN,-0.1129907,-4.656688E-11,-3.432987E-07,-1.116614E-07,-6.562329E-09,-2.622604E-08
608.0501,-0.0141528,-6.128958E-09,NaN,-0.868758,-1.335829E-07,NaN,-1.561932,-4.019715E-07,NaN,-1.894028,1.830775E-05,0.1286575,7.410173E-08,NaN,NaN,-0.1128449,-4.191027E-11,-3.383068E-07,-1.116624E-07,-6.562329E-09,-2.861022E-08
608.0658,-0.01415299,-6.128163E-09,NaN,-0.8687791,-1.335831E-07,NaN,-1.562134,-4.021937E-07,NaN,-1.894283,1.830824E-05,0.1289046,7.432546E-08,NaN,NaN,-0.1128313,-4.191027E-11,-3.306328E-07,-1.116634E-07,-4.178143E-09,-2.622604E-08
608.0813,-0.01415331,-6.127369E-09,NaN,-0.8687512,-1.335834E-07,NaN,-1.562222,-4.023945E-07,NaN,-1.894229,1.830872E-05,0.1290932,7.452778E-08,NaN,NaN,-0.112818,-3.725366E-11,-3.280623E-07,-1.116644E-07,-6.562329E-09,-2.861022E-08
608.097,-0.01415331,-6.127369E-09,NaN,-0.8687512,-1.335834E-07,NaN,-1.562222,-4.023945E-07,NaN,-1.894229,1.830872E-05,0.1290932,7.452778E-08,NaN,NaN,-0.112818,-3.725366E-11,-3.280623E-07,-1.116644E-07,-6.562329E-09,-2.861022E-08
608.1118,-0.01415371,-6.126574E-09,NaN,-0.8686932,-1.335837E-07,NaN,-1.562246,-4.025828E-07,NaN,-1.894023,1.830921E-05,0.1293024,7.471759E-08,NaN,NaN,-0.112805,-3.725366E-11,-3.24337E-07,-1.116655E-07,-1.793957E-09,-2.622604E-08
608.1283,-0.01415415,-6.12578E-09,NaN,-0.8686168,-1.335841E-07,NaN,-1.562244,-4.027617E-07,NaN,-1.893741,1.83097E-05,0.1295199,7.489795E-08,NaN,NaN,-0.1127922,-3.259705E-11,-3.200157E-07,-1.116666E-07,-1.793957E-09,-2.861022E-08
608.144,-0.01415476,-6.124985E-09,NaN,-0.86846,-1.335844E-07,NaN,-1.56255,-4.029369E-07,NaN,-1.892846,1.831019E-05,0.1281884,7.507468E-08,NaN,NaN,-0.112909,-3.259705E-11,-3.132356E-07,-1.116676E-07,-1.793957E-09,-2.622604E-08
608.1597,-0.01415476,-6.124985E-09,NaN,-0.86846,-1.335844E-07,NaN,-1.56255,-4.029369E-07,NaN,-1.892846,1.831019E-05,0.1281884,7.507468E-08,NaN,NaN,-0.112909,-3.259705E-11,-3.132356E-07,-1.116676E-07,-1.793957E-09,-2.622604E-08
608.1747,-0.01415549,-6.124191E-09,NaN,-0.8682544,-1.335847E-07,NaN,-1.562735,-4.031057E-07,NaN,-1.891659,1.831067E-05,0.1268311,7.524504E-08,NaN,NaN,-0.1130235,-2.794043E-11,-3.118573E-07,-1.116687E-07,5.902283E-10,-2.861022E-08
608.191,-0.0141563,-6.123396E-09,NaN,-0.8680195,-1.335851E-07,NaN,-1.562853,-4.032711E-07,NaN,-1.890336,1.831117E-05,0.1255257,7.541197E-08,NaN,NaN,-0.1131358,-3.725366E-11,-3.089888E-07,-1.116698E-07,2.974414E-09,-2.622604E-08
608.2066,-0.01415715,-6.122602E-09,NaN,-0.8677676,-1.335854E-07,NaN,-1.562939,-4.03436E-07,NaN,-1.888955,1.831164E-05,0.1242587,7.557836E-08,NaN,NaN,-0.1132459,-2.328382E-11,-3.055615E-07,-1.116709E-07,5.3586E-09,-2.861022E-08
608.2223,-0.01415817,-6.121807E-09,NaN,-0.8674371,-1.335858E-07,NaN,-1.563324,-4.035975E-07,NaN,-1.886976,1.831213E-05,0.1214702,7.57414E-08,NaN,NaN,-0.1134832,-1.862721E-11,-2.98409E-07,-1.11672E-07,5.3586E-09,-2.622604E-08
608.238,-0.01415817,-6.121807E-09,NaN,-0.8674371,-1.335858E-07,NaN,-1.563324,-4.035975E-07,NaN,-1.886976,1.831213E-05,0.1214702,7.57414E-08,NaN,NaN,-0.1134832,-1.862721E-11,-2.98409E-07,-1.11672E-07,5.3586E-09,-2.622604E-08
608.2542,-0.01415931,-6.121012E-09,NaN,-0.8670594,-1.335862E-07,NaN,-1.563584,-4.037558E-07,NaN,-1.884721,1.831261E-05,0.1186891,7.590116E-08,NaN,NaN,-0.1137159,-1.397059E-11,-2.972542E-07,-1.11673E-07,5.902283E-10,-2.861022E-08
608.2694,-0.01416053,-6.120217E-09,NaN,-0.8666544,-1.335865E-07,NaN,-1.563771,-4.039108E-07,NaN,-1.882346,1.83131E-05,0.1159884,7.605769E-08,NaN,NaN,-0.113944,-9.313982E-12,-2.949445E-07,-1.116741E-07,7.742786E-09,-2.622604E-08
608.2848,-0.01416182,-6.119422E-09,NaN,-0.8662343,-1.335869E-07,NaN,-1.563924,-4.040655E-07,NaN,-1.879927,1.831358E-05,0.1133538,7.621389E-08,NaN,NaN,-0.1141676,-4.657369E-12,-2.922623E-07,-1.116752E-07,2.974414E-09,-2.861022E-08
608.3011,-0.01416344,-6.118627E-09,NaN,-0.8657374,-1.335872E-07,NaN,-1.564362,-4.04217E-07,NaN,-1.876927,1.831407E-05,0.1092209,7.636694E-08,NaN,NaN,-0.1145163,-4.657369E-12,-2.864136E-07,-1.116762E-07,1.012697E-08,-2.622604E-08
608.3163,-0.01416344,-6.118627E-09,NaN,-0.8657374,-1.335872E-07,NaN,-1.564362,-4.04217E-07,NaN,-1.876927,1.831407E-05,0.1092209,7.636694E-08,NaN,NaN,-0.1145163,-4.657369E-12,-2.864136E-07,-1.116762E-07,1.012697E-08,-2.622604E-08
608.3315,-0.0141654,-6.117832E-09,NaN,-0.8651955,-1.335876E-07,NaN,-1.564671,-4.043683E-07,NaN,-1.873666,1.831455E-05,0.1051294,7.651972E-08,NaN,NaN,-0.1148581,-7.563394E-16,-2.849607E-07,-1.116773E-07,1.012697E-08,-2.861022E-08
608.3474,-0.01416766,-6.117037E-09,NaN,-0.864628,-1.335879E-07,NaN,-1.564905,-4.045165E-07,NaN,-1.870299,1.831504E-05,0.1011441,7.666942E-08,NaN,NaN,-0.1151932,-7.563394E-16,-2.821295E-07,-1.116784E-07,5.3586E-09,-2.622604E-08
608.3632,-0.01417015,-6.116242E-09,NaN,-0.8640474,-1.335883E-07,NaN,-1.565101,-4.046645E-07,NaN,-1.866904,1.831553E-05,0.09725014,7.681891E-08,NaN,NaN,-0.1155217,4.655856E-12,-2.790747E-07,-1.116794E-07,1.012697E-08,-2.861022E-08
608.379,-0.01417015,-6.116242E-09,NaN,-0.8640474,-1.335883E-07,NaN,-1.565101,-4.046645E-07,NaN,-1.866904,1.831553E-05,0.09725014,7.681891E-08,NaN,NaN,-0.1155217,4.655856E-12,-2.790747E-07,-1.116794E-07,1.012697E-08,-2.861022E-08
608.3942,-0.01417302,-6.115447E-09,NaN,-0.8633919,-1.335886E-07,NaN,-1.565564,-4.048095E-07,NaN,-1.862942,1.831602E-05,0.09187808,7.696539E-08,NaN,NaN,-0.1159732,4.655856E-12,-2.729653E-07,-1.116805E-07,1.489534E-08,-2.622604E-08
608.4102,-0.01417628,-6.114651E-09,NaN,-0.8626933,-1.33589E-07,NaN,-1.565896,-4.051404E-07,NaN,-1.858734,1.83165E-05,0.08658125,7.729784E-08,NaN,NaN,-0.1164159,9.312469E-12,-2.701713E-07,-1.116815E-07,1.727953E-08,-2.622604E-08
608.4264,-0.01417983,-6.113854E-09,NaN,-0.861971,-1.335893E-07,NaN,-1.566153,-4.054676E-07,NaN,-1.854434,1.831697E-05,0.08141385,7.762653E-08,NaN,NaN,-0.1168499,1.862569E-11,-2.669303E-07,-1.116825E-07,1.966371E-08,-2.622604E-08
608.4419,-0.01418362,-6.113059E-09,NaN,-0.8612373,-1.335896E-07,NaN,-1.56637,-4.056706E-07,NaN,-1.85012,1.831746E-05,0.07636081,7.783109E-08,NaN,NaN,-0.1172754,1.396908E-11,-2.63801E-07,-1.116836E-07,1.966371E-08,-2.861022E-08
608.4575,-0.01418362,-6.113059E-09,NaN,-0.8612373,-1.335896E-07,NaN,-1.56637,-4.056706E-07,NaN,-1.85012,1.831746E-05,0.07636081,7.783109E-08,NaN,NaN,-0.1172754,1.396908E-11,-2.63801E-07,-1.116836E-07,1.966371E-08,-2.861022E-08
608.4724,-0.0141878,-6.112265E-09,NaN,-0.8604307,-1.3359E-07,NaN,-1.566832,-4.058724E-07,NaN,-1.845253,1.831795E-05,0.06984789,7.803439E-08,NaN,NaN,-0.1178219,4.655856E-12,-2.577661E-07,-1.116846E-07,1.727953E-08,-2.622604E-08
608.4888,-0.01419236,-6.11147E-09,NaN,-0.8595827,-1.335903E-07,NaN,-1.567163,-4.060701E-07,NaN,-1.840153,1.831844E-05,0.06344336,7.823363E-08,NaN,NaN,-0.1183577,4.655856E-12,-2.546182E-07,-1.116857E-07,1.251116E-08,-2.861022E-08
608.5045,-0.01419721,-6.110676E-09,NaN,-0.8587128,-1.335907E-07,NaN,-1.56742,-4.062639E-07,NaN,-1.834974,1.831893E-05,0.0571892,7.842888E-08,NaN,NaN,-0.1188831,-4.657369E-12,-2.504272E-07,-1.116867E-07,1.012697E-08,-2.622604E-08
608.5203,-0.01420229,-6.109881E-09,NaN,-0.8578334,-1.33591E-07,NaN,-1.567637,-4.064566E-07,NaN,-1.829794,1.831942E-05,0.05107045,7.862305E-08,NaN,NaN,-0.1193981,-1.397059E-11,-2.463294E-07,-1.116877E-07,5.3586E-09,-2.861022E-08
608.5359,-0.01420229,-6.109881E-09,NaN,-0.8578334,-1.33591E-07,NaN,-1.567637,-4.064566E-07,NaN,-1.829794,1.831942E-05,0.05107045,7.862305E-08,NaN,NaN,-0.1193981,-1.397059E-11,-2.463294E-07,-1.116877E-07,5.3586E-09,-2.861022E-08
608.5509,-0.01420776,-6.109087E-09,NaN,-0.8568827,-1.335913E-07,NaN,-1.568073,-4.066453E-07,NaN,-1.824075,1.831992E-05,0.04350929,7.881334E-08,NaN,NaN,-0.1200325,-2.328382E-11,-2.380779E-07,-1.116887E-07,2.974414E-09,-2.622604E-08
608.5673,-0.01421359,-6.108292E-09,NaN,-0.8558922,-1.335917E-07,NaN,-1.568381,-4.068331E-07,NaN,-1.818136,1.83204E-05,0.03608816,7.900265E-08,NaN,NaN,-0.1206544,-1.862721E-11,-2.337542E-07,-1.116897E-07,5.902283E-10,-2.861022E-08
608.5826,-0.01421972,-6.107497E-09,NaN,-0.8548817,-1.33592E-07,NaN,-1.568618,-4.070171E-07,NaN,-1.812131,1.832089E-05,0.02883618,7.918817E-08,NaN,NaN,-0.1212641,-2.794043E-11,-2.273072E-07,-1.116908E-07,5.902283E-10,-2.622604E-08
608.5984,-0.01421972,-6.107497E-09,NaN,-0.8548817,-1.33592E-07,NaN,-1.568618,-4.070171E-07,NaN,-1.812131,1.832089E-05,0.02883618,7.918817E-08,NaN,NaN,-0.1212641,-2.794043E-11,-2.273072E-07,-1.116908E-07,5.902283E-10,-2.622604E-08
608.6135,-0.01422628,-6.106702E-09,NaN,-0.853794,-1.335924E-07,NaN,-1.569039,-4.071974E-07,NaN,-1.805561,1.832137E-05,0.02016808,7.936998E-08,NaN,NaN,-0.1219913,-2.794043E-11,-2.187762E-07,-1.116918E-07,5.902283E-10,-2.861022E-08
608.6298,-0.01423326,-6.105907E-09,NaN,-0.8526635,-1.335927E-07,NaN,-1.56933,-4.073769E-07,NaN,-1.798765,1.832187E-05,0.01167223,7.955097E-08,NaN,NaN,-0.1227043,-3.725366E-11,-2.109345E-07,-1.116928E-07,5.902283E-10,-2.622604E-08
608.6457,-0.01424057,-6.105112E-09,NaN,-0.8515116,-1.33593E-07,NaN,-1.569548,-4.075528E-07,NaN,-1.791905,1.832235E-05,0.003366762,7.972834E-08,NaN,NaN,-0.1234033,-3.259705E-11,-2.030369E-07,-1.116938E-07,2.974414E-09,-2.861022E-08
608.6614,-0.01424811,-6.104317E-09,NaN,-0.8503517,-1.335934E-07,NaN,-1.569723,-4.077279E-07,NaN,-1.785063,1.832284E-05,-0.004762792,7.990498E-08,NaN,NaN,-0.1240885,-4.191027E-11,-1.930345E-07,-1.116948E-07,7.742786E-09,-2.622604E-08
608.6771,-0.01424811,-6.104317E-09,NaN,-0.8503517,-1.335934E-07,NaN,-1.569723,-4.077279E-07,NaN,-1.785063,1.832284E-05,-0.004762792,7.990498E-08,NaN,NaN,-0.1240885,-4.191027E-11,-1.930345E-07,-1.116948E-07,7.742786E-09,-2.622604E-08
608.6922,-0.01425604,-6.103523E-09,NaN,-0.8491227,-1.335937E-07,NaN,-1.570064,-4.078995E-07,NaN,-1.777704,1.832332E-05,-0.01429492,8.007808E-08,NaN,NaN,-0.1248898,-4.191027E-11,-1.794372E-07,-1.116958E-07,1.012697E-08,-2.861022E-08
608.7083,-0.01426435,-6.102728E-09,NaN,-0.8478566,-1.335941E-07,NaN,-1.570289,-4.080676E-07,NaN,-1.770149,1.832382E-05,-0.02363064,8.024771E-08,NaN,NaN,-0.1256753,-5.12235E-11,-1.670319E-07,-1.116968E-07,1.012697E-08,-2.622604E-08
608.7238,-0.01427293,-6.101933E-09,NaN,-0.8465732,-1.335944E-07,NaN,-1.570424,-4.082351E-07,NaN,-1.762549,1.83243E-05,-0.03277424,8.041676E-08,NaN,NaN,-0.1264455,-5.12235E-11,-1.565266E-07,-1.116978E-07,7.742786E-09,-2.861022E-08
608.7397,-0.01427293,-6.101933E-09,NaN,-0.8465732,-1.335944E-07,NaN,-1.570424,-4.082351E-07,NaN,-1.762549,1.83243E-05,-0.03277424,8.041676E-08,NaN,NaN,-0.1264455,-5.12235E-11,-1.565266E-07,-1.116978E-07,7.742786E-09,-2.861022E-08
608.7563,-0.01428173,-6.101138E-09,NaN,-0.845285,-1.335947E-07,NaN,-1.570464,-4.083993E-07,NaN,-1.754983,1.832479E-05,-0.04175099,8.058242E-08,NaN,NaN,-0.1272005,-6.053672E-11,-1.474369E-07,-1.116987E-07,7.742786E-09,-2.622604E-08
608.7712,-0.01429027,-6.100343E-09,NaN,-0.8439999,-1.335951E-07,NaN,-1.570436,-4.085629E-07,NaN,-1.747489,1.832528E-05,-0.05054101,8.074759E-08,NaN,NaN,-0.12794,-6.053672E-11,-1.380492E-07,-1.116997E-07,5.3586E-09,-2.861022E-08
608.7869,-0.01429865,-6.099548E-09,NaN,-0.8427224,-1.335954E-07,NaN,-1.57038,-4.087233E-07,NaN,-1.740083,1.832576E-05,-0.05913949,8.090944E-08,NaN,NaN,-0.1286649,-6.053672E-11,-1.273949E-07,-1.117007E-07,1.012697E-08,-2.622604E-08
608.8027,-0.01430694,-6.098753E-09,NaN,-0.8414554,-1.335957E-07,NaN,-1.570327,-4.088803E-07,NaN,-1.732774,1.832624E-05,-0.06755164,8.106804E-08,NaN,NaN,-0.1293755,-5.588011E-11,-1.148779E-07,-1.117017E-07,2.974414E-09,-2.861022E-08
608.8182,-0.01430694,-6.098753E-09,NaN,-0.8414554,-1.335957E-07,NaN,-1.570327,-4.088803E-07,NaN,-1.732774,1.832624E-05,-0.06755164,8.106804E-08,NaN,NaN,-0.1293755,-5.588011E-11,-1.148779E-07,-1.117017E-07,2.974414E-09,-2.861022E-08
608.8333,-0.01431517,-6.097958E-09,NaN,-0.8402005,-1.33596E-07,NaN,-1.570291,-4.090371E-07,NaN,-1.725566,1.832673E-05,-0.07578637,8.122628E-08,NaN,NaN,-0.1300722,-6.519334E-11,-1.010943E-07,-1.117027E-07,2.974414E-09,-2.622604E-08
608.8496,-0.01432317,-6.097163E-09,NaN,-0.8390281,-1.335964E-07,NaN,-1.57014,-4.091906E-07,NaN,-1.719031,1.832721E-05,-0.08229394,8.138134E-08,NaN,NaN,-0.130626,-6.053672E-11,-9.371823E-08,-1.117036E-07,-4.178143E-09,-2.861022E-08
608.8655,-0.01433091,-6.096368E-09,NaN,-0.8379117,-1.335967E-07,NaN,-1.57008,-4.093439E-07,NaN,-1.712873,1.832771E-05,-0.08867025,8.153612E-08,NaN,NaN,-0.1311689,-6.984995E-11,-8.328742E-08,-1.117046E-07,-8.946515E-09,-2.622604E-08
608.8809,-0.01433841,-6.095573E-09,NaN,-0.8368349,-1.33597E-07,NaN,-1.570047,-4.09494E-07,NaN,-1.706945,1.832819E-05,-0.09492798,8.168779E-08,NaN,NaN,-0.1317011,-6.984995E-11,-7.233506E-08,-1.117056E-07,-1.13307E-08,-2.861022E-08
608.897,-0.01433841,-6.095573E-09,NaN,-0.8368349,-1.33597E-07,NaN,-1.570047,-4.09494E-07,NaN,-1.706945,1.832819E-05,-0.09492798,8.168779E-08,NaN,NaN,-0.1317011,-6.984995E-11,-7.233506E-08,-1.117056E-07,-1.13307E-08,-2.861022E-08
608.9117,-0.01434572,-6.094778E-09,NaN,-0.8357874,-1.335973E-07,NaN,-1.57002,-4.096411E-07,NaN,-1.701175,1.832868E-05,-0.1010636,8.18364E-08,NaN,NaN,-0.1322229,-7.916317E-11,-6.168073E-08,-1.117065E-07,-1.371489E-08,-2.622604E-08
608.9283,-0.01435269,-6.093982E-09,NaN,-0.834832,-1.335977E-07,NaN,-1.56989,-4.097881E-07,NaN,-1.696098,1.832917E-05,-0.1055262,8.198484E-08,NaN,NaN,-0.1326052,-7.916317E-11,-5.825346E-08,-1.117075E-07,-6.562328E-09,-2.861022E-08
608.944,-0.0143593,-6.093187E-09,NaN,-0.8339376,-1.33598E-07,NaN,-1.569809,-4.09932E-07,NaN,-1.691397,1.832966E-05,-0.1099064,8.213031E-08,NaN,NaN,-0.13298,-8.847639E-11,-5.274003E-08,-1.117084E-07,-1.793957E-09,-2.622604E-08
608.9598,-0.0143593,-6.093187E-09,NaN,-0.8339376,-1.33598E-07,NaN,-1.569809,-4.09932E-07,NaN,-1.691397,1.832966E-05,-0.1099064,8.213031E-08,NaN,NaN,-0.13298,-8.847639E-11,-5.274003E-08,-1.117084E-07,-1.793957E-09,-2.622604E-08
608.9747,-0.01436562,-6.092391E-09,NaN,-0.8330849,-1.335983E-07,NaN,-1.569746,-4.100731E-07,NaN,-1.686917,1.833014E-05,-0.1142041,8.227284E-08,NaN,NaN,-0.1333475,-8.847639E-11,-4.677957E-08,-1.117094E-07,5.902292E-10,-2.861022E-08
608.9914,-0.0143717,-6.091596E-09,NaN,-0.8322618,-1.335986E-07,NaN,-1.56969,-4.10214E-07,NaN,-1.682579,1.833064E-05,-0.1184178,8.241533E-08,NaN,NaN,-0.1337077,-9.778962E-11,-4.037207E-08,-1.117103E-07,-4.178142E-09,-2.622604E-08
609.0073,-0.0143774,-6.090801E-09,NaN,-0.8315299,-1.33599E-07,NaN,-1.569552,-4.103521E-07,NaN,-1.678917,1.833112E-05,-0.1210031,8.255495E-08,NaN,NaN,-0.1339316,-9.778962E-11,-4.141515E-08,-1.117113E-07,-6.562328E-09,-2.861022E-08
609.0229,-0.01438272,-6.090005E-09,NaN,-0.8308576,-1.335993E-07,NaN,-1.569455,-4.104903E-07,NaN,-1.675612,1.833161E-05,-0.1235417,8.269458E-08,NaN,NaN,-0.1341512,-1.071028E-10,-4.052108E-08,-1.117122E-07,-1.793957E-09,-2.622604E-08
609.0388,-0.01438272,-6.090005E-09,NaN,-0.8308576,-1.335993E-07,NaN,-1.569455,-4.104903E-07,NaN,-1.675612,1.833161E-05,-0.1235417,8.269458E-08,NaN,NaN,-0.1341512,-1.071028E-10,-4.052108E-08,-1.117122E-07,-1.793957E-09,-2.622604E-08
609.0536,-0.01438773,-6.08921E-09,NaN,-0.830225,-1.335996E-07,NaN,-1.569376,-4.106256E-07,NaN,-1.672507,1.83321E-05,-0.126033,8.283139E-08,NaN,NaN,-0.1343664,-1.071028E-10,-3.843492E-08,-1.117131E-07,-1.793957E-09,-2.861022E-08
609.0701,-0.0143925,-6.088414E-09,NaN,-0.8296198,-1.335999E-07,NaN,-1.569303,-4.107581E-07,NaN,-1.669526,1.833259E-05,-0.128476,8.296545E-08,NaN,NaN,-0.1345774,-1.164161E-10,-3.590172E-08,-1.117141E-07,5.902292E-10,-2.622604E-08
609.0854,-0.01439688,-6.087618E-09,NaN,-0.8291035,-1.336002E-07,NaN,-1.569163,-4.108908E-07,NaN,-1.667201,1.833307E-05,-0.1293301,8.309963E-08,NaN,NaN,-0.134655,-1.164161E-10,-4.08191E-08,-1.11715E-07,5.902292E-10,-2.861022E-08
609.1016,-0.01440088,-6.086823E-09,NaN,-0.8286445,-1.336006E-07,NaN,-1.569058,-4.109692E-07,NaN,-1.665213,1.833356E-05,-0.1301704,8.317954E-08,NaN,NaN,-0.1347311,-1.164161E-10,-4.424637E-08,-1.117159E-07,7.742786E-09,-2.622604E-08
609.117,-0.01440088,-6.086823E-09,NaN,-0.8286445,-1.336006E-07,NaN,-1.569058,-4.109692E-07,NaN,-1.665213,1.833356E-05,-0.1301704,8.317954E-08,NaN,NaN,-0.1347311,-1.164161E-10,-4.424637E-08,-1.117159E-07,7.742786E-09,-2.622604E-08
609.1323,-0.01440456,-6.086027E-09,NaN,-0.8282227,-1.336009E-07,NaN,-1.568968,-4.11046E-07,NaN,-1.663407,1.833405E-05,-0.130996,8.325782E-08,NaN,NaN,-0.1348057,-1.117595E-10,-4.648154E-08,-1.117169E-07,2.974414E-09,-2.861022E-08
609.1486,-0.014408,-6.085231E-09,NaN,-0.8278259,-1.336012E-07,NaN,-1.568885,-4.11124E-07,NaN,-1.661706,1.833453E-05,-0.1318059,8.333731E-08,NaN,NaN,-0.1348788,-1.071028E-10,-4.782265E-08,-1.117178E-07,5.3586E-09,-2.622604E-08
609.1644,-0.01441106,-6.084435E-09,NaN,-0.8275155,-1.336015E-07,NaN,-1.568743,-4.112003E-07,NaN,-1.660642,1.833501E-05,-0.1310614,8.341518E-08,NaN,NaN,-0.1348213,-1.024462E-10,-5.735939E-08,-1.117187E-07,5.3586E-09,-2.861022E-08
609.1799,-0.01441106,-6.084435E-09,NaN,-0.8275155,-1.336015E-07,NaN,-1.568743,-4.112003E-07,NaN,-1.660642,1.833501E-05,-0.1310614,8.341518E-08,NaN,NaN,-0.1348213,-1.024462E-10,-5.735939E-08,-1.117187E-07,5.3586E-09,-2.861022E-08
609.1948,-0.01441374,-6.083639E-09,NaN,-0.82726,-1.336018E-07,NaN,-1.568631,-4.112751E-07,NaN,-1.659896,1.83355E-05,-0.1303335,8.349146E-08,NaN,NaN,-0.1347649,-9.778961E-11,-6.451194E-08,-1.117196E-07,5.3586E-09,-2.622604E-08
609.2109,-0.01441611,-6.082844E-09,NaN,-0.8270393,-1.336021E-07,NaN,-1.568533,-4.113512E-07,NaN,-1.659314,1.833598E-05,-0.129621,8.3569E-08,NaN,NaN,-0.1347095,-9.313299E-11,-7.017439E-08,-1.117205E-07,5.902288E-10,-2.861022E-08
609.227,-0.01441823,-6.082048E-09,NaN,-0.8268412,-1.336024E-07,NaN,-1.568441,-4.114256E-07,NaN,-1.658819,1.833647E-05,-0.1289228,8.364495E-08,NaN,NaN,-0.1346553,-9.313299E-11,-7.501726E-08,-1.117214E-07,-1.793957E-09,-2.622604E-08
609.2437,-0.01441997,-6.081252E-09,NaN,-0.8267272,-1.336027E-07,NaN,-1.568292,-4.115013E-07,NaN,-1.658943,1.833696E-05,-0.1267002,8.372217E-08,NaN,NaN,-0.1344728,-9.313299E-11,-8.917336E-08,-1.117224E-07,2.974414E-09,-2.861022E-08
609.2582,-0.01441997,-6.081252E-09,NaN,-0.8267272,-1.336027E-07,NaN,-1.568292,-4.115013E-07,NaN,-1.658943,1.833696E-05,-0.1267002,8.372217E-08,NaN,NaN,-0.1344728,-9.313299E-11,-8.917336E-08,-1.117224E-07,2.974414E-09,-2.861022E-08
609.2732,-0.01442135,-6.080456E-09,NaN,-0.8266655,-1.336031E-07,NaN,-1.568171,-4.115754E-07,NaN,-1.659368,1.833745E-05,-0.1245223,8.379781E-08,NaN,NaN,-0.134294,-9.313299E-11,-9.908263E-08,-1.117233E-07,7.742786E-09,-2.622604E-08
609.2901,-0.01442241,-6.079661E-09,NaN,-0.8266366,-1.336034E-07,NaN,-1.568061,-4.115255E-07,NaN,-1.65994,1.833793E-05,-0.1223879,8.374944E-08,NaN,NaN,-0.1341186,-8.381977E-11,-1.077253E-07,-1.117242E-07,1.012697E-08,-2.861022E-08
609.3054,-0.01442335,-6.078865E-09,NaN,-0.8266279,-1.336037E-07,NaN,-1.567957,-4.114765E-07,NaN,-1.660581,1.833842E-05,-0.1202953,8.370196E-08,NaN,NaN,-0.1339467,-8.381977E-11,-1.148779E-07,-1.11725E-07,1.012697E-08,-2.622604E-08
609.321,-0.01442406,-6.07807E-09,NaN,-0.8266994,-1.33604E-07,NaN,-1.567793,-4.114284E-07,NaN,-1.661827,1.833891E-05,-0.116704,8.365533E-08,NaN,NaN,-0.1336489,-8.381977E-11,-1.29928E-07,-1.117259E-07,7.742786E-09,-2.861022E-08
609.3365,-0.01442406,-6.07807E-09,NaN,-0.8266994,-1.33604E-07,NaN,-1.567793,-4.114284E-07,NaN,-1.661827,1.833891E-05,-0.116704,8.365533E-08,NaN,NaN,-0.1336489,-8.381977E-11,-1.29928E-07,-1.117259E-07,7.742786E-09,-2.861022E-08
609.3516,-0.01442465,-6.077275E-09,NaN,-0.8268201,-1.336043E-07,NaN,-1.567656,-4.113839E-07,NaN,-1.663357,1.83394E-05,-0.1131838,8.361237E-08,NaN,NaN,-0.1333569,-8.381977E-11,-1.419235E-07,-1.117268E-07,7.742786E-09,-2.622604E-08
609.3682,-0.01442515,-6.07648E-09,NaN,-0.8269708,-1.336046E-07,NaN,-1.567528,-4.113402E-07,NaN,-1.665017,1.833989E-05,-0.1097329,8.357018E-08,NaN,NaN,-0.1330706,-8.381977E-11,-1.524288E-07,-1.117277E-07,5.3586E-09,-2.861022E-08
609.3835,-0.0144256,-6.075684E-09,NaN,-0.8271391,-1.336049E-07,NaN,-1.567406,-4.112973E-07,NaN,-1.66673,1.834038E-05,-0.1063494,8.352875E-08,NaN,NaN,-0.1327899,-8.381977E-11,-1.613695E-07,-1.117286E-07,2.974414E-09,-2.622604E-08
609.3996,-0.0144256,-6.075684E-09,NaN,-0.8271391,-1.336049E-07,NaN,-1.567406,-4.112973E-07,NaN,-1.66673,1.834038E-05,-0.1063494,8.352875E-08,NaN,NaN,-0.1327899,-8.381977E-11,-1.613695E-07,-1.117286E-07,2.974414E-09,-2.622604E-08
609.4144,-0.0144259,-6.074889E-09,NaN,-0.8273869,-1.336052E-07,NaN,-1.567218,-4.112579E-07,NaN,-1.669031,1.834087E-05,-0.1014891,8.349087E-08,NaN,NaN,-0.1323855,-8.381977E-11,-1.781333E-07,-1.117294E-07,5.3586E-09,-2.861022E-08
609.4307,-0.01442607,-6.074094E-09,NaN,-0.8276827,-1.336056E-07,NaN,-1.567056,-4.112192E-07,NaN,-1.6716,1.834136E-05,-0.09672459,8.345368E-08,NaN,NaN,-0.1319889,-8.381977E-11,-1.910228E-07,-1.117303E-07,1.012697E-08,-2.622604E-08
609.4462,-0.01442617,-6.073298E-09,NaN,-0.8280067,-1.336059E-07,NaN,-1.566904,-4.111812E-07,NaN,-1.674284,1.834185E-05,-0.09205371,8.341713E-08,NaN,NaN,-0.1316002,-8.381977E-11,-2.018262E-07,-1.117312E-07,1.251116E-08,-2.861022E-08
609.4617,-0.01442621,-6.072503E-09,NaN,-0.8283467,-1.336062E-07,NaN,-1.566756,-4.111466E-07,NaN,-1.677007,1.834233E-05,-0.08747372,8.338407E-08,NaN,NaN,-0.131219,-8.381977E-11,-2.107669E-07,-1.11732E-07,1.489534E-08,-2.622604E-08
609.4776,-0.01442621,-6.072503E-09,NaN,-0.8283467,-1.336062E-07,NaN,-1.566756,-4.111466E-07,NaN,-1.677007,1.834233E-05,-0.08747372,8.338407E-08,NaN,NaN,-0.131219,-8.381977E-11,-2.107669E-07,-1.11732E-07,1.489534E-08,-2.622604E-08
609.4927,-0.0144261,-6.071708E-09,NaN,-0.8287643,-1.336065E-07,NaN,-1.566531,-4.111126E-07,NaN,-1.680302,1.834282E-05,-0.08143534,8.335157E-08,NaN,NaN,-0.1307161,-8.381977E-11,-2.25966E-07,-1.117329E-07,1.489534E-08,-2.861022E-08
609.5089,-0.01442587,-6.070912E-09,NaN,-0.829228,-1.336068E-07,NaN,-1.566334,-4.11082E-07,NaN,-1.683851,1.834331E-05,-0.07551608,8.332247E-08,NaN,NaN,-0.130223,-8.381977E-11,-2.391536E-07,-1.117338E-07,1.966371E-08,-2.622604E-08
609.5247,-0.01442555,-6.070117E-09,NaN,-0.829718,-1.336071E-07,NaN,-1.566149,-4.110519E-07,NaN,-1.6875,1.83438E-05,-0.06971309,8.329386E-08,NaN,NaN,-0.1297395,-8.381977E-11,-2.492864E-07,-1.117346E-07,1.251115E-08,-2.861022E-08
609.5405,-0.01442519,-6.069321E-09,NaN,-0.8302221,-1.336074E-07,NaN,-1.565967,-4.110223E-07,NaN,-1.691174,1.834429E-05,-0.06402286,8.326575E-08,NaN,NaN,-0.1292655,-8.381977E-11,-2.582271E-07,-1.117355E-07,1.251115E-08,-2.622604E-08
609.5562,-0.01442519,-6.069321E-09,NaN,-0.8302221,-1.336074E-07,NaN,-1.565967,-4.110223E-07,NaN,-1.691174,1.834429E-05,-0.06402286,8.326575E-08,NaN,NaN,-0.1292655,-8.381977E-11,-2.582271E-07,-1.117355E-07,1.251115E-08,-2.622604E-08
609.5711,-0.01442467,-6.068526E-09,NaN,-0.8308018,-1.336077E-07,NaN,-1.565693,-4.109931E-07,NaN,-1.695406,1.834477E-05,-0.05688975,8.323811E-08,NaN,NaN,-0.1286715,-7.450655E-11,-2.737988E-07,-1.117363E-07,1.012697E-08,-2.861022E-08
609.5873,-0.01442402,-6.06773E-09,NaN,-0.8314257,-1.33608E-07,NaN,-1.56545,-4.109673E-07,NaN,-1.699879,1.834525E-05,-0.04989748,8.321377E-08,NaN,NaN,-0.1280892,-6.053671E-11,-2.852354E-07,-1.117372E-07,5.358598E-09,-2.622604E-08
609.6031,-0.0144233,-6.066934E-09,NaN,-0.832074,-1.336083E-07,NaN,-1.565221,-4.109419E-07,NaN,-1.704439,1.834574E-05,-0.04304284,8.318985E-08,NaN,NaN,-0.1275182,-6.053671E-11,-2.929468E-07,-1.11738E-07,2.974412E-09,-2.861022E-08
609.6188,-0.0144233,-6.066934E-09,NaN,-0.832074,-1.336083E-07,NaN,-1.565221,-4.109419E-07,NaN,-1.704439,1.834574E-05,-0.04304284,8.318985E-08,NaN,NaN,-0.1275182,-6.053671E-11,-2.929468E-07,-1.11738E-07,2.974412E-09,-2.861022E-08
609.6345,-0.0144224,-6.066138E-09,NaN,-0.8328038,-1.336086E-07,NaN,-1.564886,-4.109168E-07,NaN,-1.709583,1.834623E-05,-0.03476322,8.316632E-08,NaN,NaN,-0.1268292,-6.053671E-11,-3.06097E-07,-1.117389E-07,2.974412E-09,-2.622604E-08
609.6501,-0.01442136,-6.065342E-09,NaN,-0.8335806,-1.336089E-07,NaN,-1.564589,-4.10895E-07,NaN,-1.714973,1.834671E-05,-0.02664692,8.314601E-08,NaN,NaN,-0.1261536,-6.053671E-11,-3.144044E-07,-1.117397E-07,1.012697E-08,-2.861022E-08
609.6661,-0.01442024,-6.064547E-09,NaN,-0.834383,-1.336092E-07,NaN,-1.564305,-4.108735E-07,NaN,-1.720448,1.83472E-05,-0.01869052,8.312603E-08,NaN,NaN,-0.1254914,-6.053671E-11,-3.215384E-07,-1.117405E-07,5.358598E-09,-2.622604E-08
609.6815,-0.01441906,-6.063751E-09,NaN,-0.8351974,-1.336095E-07,NaN,-1.564027,-4.108551E-07,NaN,-1.725925,1.834769E-05,-0.0108886,8.310919E-08,NaN,NaN,-0.124842,-6.053671E-11,-3.273033E-07,-1.117414E-07,1.489534E-08,-2.861022E-08
609.6973,-0.01441906,-6.063751E-09,NaN,-0.8351974,-1.336095E-07,NaN,-1.564027,-4.108551E-07,NaN,-1.725925,1.834769E-05,-0.0108886,8.310919E-08,NaN,NaN,-0.124842,-6.053671E-11,-3.273033E-07,-1.117414E-07,1.489534E-08,-2.861022E-08
609.7122,-0.01441762,-6.062955E-09,NaN,-0.836085,-1.336098E-07,NaN,-1.563616,-4.10837E-07,NaN,-1.731939,1.834818E-05,-0.001671839,8.30926E-08,NaN,NaN,-0.1240761,-6.053671E-11,-3.360856E-07,-1.117422E-07,1.251115E-08,-2.622604E-08
609.7285,-0.01441585,-6.062159E-09,NaN,-0.8370137,-1.336101E-07,NaN,-1.56325,-4.108192E-07,NaN,-1.738169,1.834867E-05,0.007363709,8.307627E-08,NaN,NaN,-0.1233253,-6.053671E-11,-3.406458E-07,-1.11743E-07,1.251115E-08,-2.861022E-08
609.7455,-0.01441381,-6.061363E-09,NaN,-0.8379637,-1.336104E-07,NaN,-1.562901,-4.108016E-07,NaN,-1.744461,1.834916E-05,0.01622015,8.306019E-08,NaN,NaN,-0.1225891,-6.053671E-11,-3.43477E-07,-1.117439E-07,1.251115E-08,-2.622604E-08
609.76,-0.01441155,-6.060568E-09,NaN,-0.8389226,-1.336103E-07,NaN,-1.562557,-4.111867E-07,NaN,-1.750741,1.834963E-05,0.0249041,8.34468E-08,NaN,NaN,-0.1218674,-4.656687E-11,-3.450882E-07,-1.117422E-07,1.012697E-08,-2.861022E-08
609.7758,-0.01441155,-6.060568E-09,NaN,-0.8389226,-1.336103E-07,NaN,-1.562557,-4.111867E-07,NaN,-1.750741,1.834963E-05,0.0249041,8.34468E-08,NaN,NaN,-0.1218674,-4.656687E-11,-3.450882E-07,-1.117422E-07,1.012697E-08,-2.861022E-08
609.7912,-0.01441117,-6.059772E-09,NaN,-0.8390511,-1.336098E-07,NaN,-1.564144,-4.114212E-07,NaN,-1.75008,1.835011E-05,0.01454992,8.368281E-08,NaN,NaN,-0.1227114,-4.191026E-11,-3.104337E-07,-1.117424E-07,1.489534E-08,-2.622604E-08
609.8069,-0.01441212,-6.058976E-09,NaN,-0.8386683,-1.336096E-07,NaN,-1.564961,-4.115325E-07,NaN,-1.746057,1.835059E-05,0.004475561,8.379566E-08,NaN,NaN,-0.1235389,-3.259703E-11,-2.934091E-07,-1.117428E-07,1.012697E-08,-2.861022E-08
609.8228,-0.01441414,-6.05818E-09,NaN,-0.8379717,-1.336096E-07,NaN,-1.565413,-4.115823E-07,NaN,-1.740399,1.835106E-05,-0.005278832,8.3847E-08,NaN,NaN,-0.1243501,-1.862719E-11,-2.782472E-07,-1.117435E-07,1.251115E-08,-2.622604E-08
609.8383,-0.01441414,-6.05818E-09,NaN,-0.8379717,-1.336096E-07,NaN,-1.565413,-4.115823E-07,NaN,-1.740399,1.835106E-05,-0.005278832,8.3847E-08,NaN,NaN,-0.1243501,-1.862719E-11,-2.782472E-07,-1.117435E-07,1.251115E-08,-2.622604E-08
609.8531,-0.01441735,-6.057384E-09,NaN,-0.8370844,-1.336097E-07,NaN,-1.565693,-4.116001E-07,NaN,-1.733967,1.835154E-05,-0.01478434,8.386624E-08,NaN,NaN,-0.1251453,-1.862719E-11,-2.633087E-07,-1.117442E-07,1.012697E-08,-2.861022E-08
609.8697,-0.01442142,-6.056589E-09,NaN,-0.8361528,-1.336099E-07,NaN,-1.565744,-4.115976E-07,NaN,-1.727763,1.835203E-05,-0.02250846,8.386529E-08,NaN,NaN,-0.1257957,-1.862719E-11,-2.523564E-07,-1.117449E-07,5.358598E-09,-2.622604E-08
609.8851,-0.01442608,-6.055793E-09,NaN,-0.8351979,-1.336102E-07,NaN,-1.565819,-4.115838E-07,NaN,-1.721705,1.835251E-05,-0.03007693,8.3853E-08,NaN,NaN,-0.1264332,-1.862719E-11,-2.399139E-07,-1.117457E-07,7.742784E-09,-2.861022E-08
609.9011,-0.01443113,-6.054997E-09,NaN,-0.834233,-1.336104E-07,NaN,-1.565897,-4.115645E-07,NaN,-1.715759,1.835299E-05,-0.03749771,8.383525E-08,NaN,NaN,-0.1270583,-1.862719E-11,-2.287381E-07,-1.117465E-07,1.489534E-08,-2.622604E-08
609.9167,-0.01443113,-6.054997E-09,NaN,-0.834233,-1.336104E-07,NaN,-1.565897,-4.115645E-07,NaN,-1.715759,1.835299E-05,-0.03749771,8.383525E-08,NaN,NaN,-0.1270583,-1.862719E-11,-2.287381E-07,-1.117465E-07,1.489534E-08,-2.622604E-08
609.9316,-0.01443646,-6.054201E-09,NaN,-0.8332663,-1.336107E-07,NaN,-1.56597,-4.115427E-07,NaN,-1.709908,1.835348E-05,-0.04477095,8.381495E-08,NaN,NaN,-0.1276711,-2.32838E-11,-2.177112E-07,-1.117473E-07,1.727953E-08,-2.861022E-08
609.9478,-0.01444179,-6.053405E-09,NaN,-0.832372,-1.33611E-07,NaN,-1.56592,-4.115184E-07,NaN,-1.704719,1.835397E-05,-0.05033947,8.379216E-08,NaN,NaN,-0.1281426,-2.32838E-11,-2.121233E-07,-1.117481E-07,1.489534E-08,-2.622604E-08
609.9634,-0.01444702,-6.05261E-09,NaN,-0.8315263,-1.336113E-07,NaN,-1.565919,-4.114945E-07,NaN,-1.699889,1.835446E-05,-0.05580569,8.376974E-08,NaN,NaN,-0.1286048,-2.794041E-11,-2.044492E-07,-1.117489E-07,1.012697E-08,-2.861022E-08
609.9789,-0.01444702,-6.05261E-09,NaN,-0.8315263,-1.336113E-07,NaN,-1.565919,-4.114945E-07,NaN,-1.699889,1.835446E-05,-0.05580569,8.376974E-08,NaN,NaN,-0.1286048,-2.794041E-11,-2.044492E-07,-1.117489E-07,1.012697E-08,-2.861022E-08
609.994,-0.01445211,-6.051814E-09,NaN,-0.8307146,-1.336116E-07,NaN,-1.565936,-4.114709E-07,NaN,-1.695271,1.835494E-05,-0.06116914,8.374769E-08,NaN,NaN,-0.129058,-2.794041E-11,-1.95881E-07,-1.117497E-07,1.251116E-08,-2.622604E-08
610.0104,-0.01445709,-6.051018E-09,NaN,-0.8299273,-1.336118E-07,NaN,-1.565957,-4.114477E-07,NaN,-1.690793,1.835542E-05,-0.06642802,8.372601E-08,NaN,NaN,-0.1295023,-2.794041E-11,-1.879834E-07,-1.117505E-07,1.251116E-08,-2.861022E-08
610.0264,-0.01446178,-6.050222E-09,NaN,-0.829228,-1.336121E-07,NaN,-1.565883,-4.114277E-07,NaN,-1.68699,1.835591E-05,-0.07003014,8.37075E-08,NaN,NaN,-0.1298086,-2.794041E-11,-1.864188E-07,-1.117513E-07,1.012697E-08,-2.622604E-08
610.0419,-0.01446617,-6.049426E-09,NaN,-0.8285862,-1.336124E-07,NaN,-1.565853,-4.11408E-07,NaN,-1.683543,1.835639E-05,-0.07356817,8.368929E-08,NaN,NaN,-0.1301088,-2.794041E-11,-1.8247E-07,-1.117521E-07,5.3586E-09,-2.861022E-08
610.0576,-0.01446617,-6.049426E-09,NaN,-0.8285862,-1.336124E-07,NaN,-1.565853,-4.11408E-07,NaN,-1.683543,1.835639E-05,-0.07356817,8.368929E-08,NaN,NaN,-0.1301088,-2.794041E-11,-1.8247E-07,-1.117521E-07,5.3586E-09,-2.861022E-08
610.0724,-0.01447029,-6.04863E-09,NaN,-0.8279826,-1.336127E-07,NaN,-1.565841,-4.113886E-07,NaN,-1.680299,1.835688E-05,-0.07704064,8.367137E-08,NaN,NaN,-0.1304032,-2.794041E-11,-1.784466E-07,-1.117529E-07,7.742786E-09,-2.622604E-08
610.089,-0.0144742,-6.047835E-09,NaN,-0.8274054,-1.33613E-07,NaN,-1.565834,-4.113722E-07,NaN,-1.67718,1.835736E-05,-0.08044599,8.365654E-08,NaN,NaN,-0.1306918,-2.794041E-11,-1.736038E-07,-1.117537E-07,5.3586E-09,-2.861022E-08
610.1049,-0.01447777,-6.047039E-09,NaN,-0.8269163,-1.336133E-07,NaN,-1.565749,-4.113561E-07,NaN,-1.67472,1.835784E-05,-0.08223639,8.364194E-08,NaN,NaN,-0.1308454,-2.794041E-11,-1.750939E-07,-1.117545E-07,2.974414E-09,-2.622604E-08
610.1202,-0.01448099,-6.046243E-09,NaN,-0.8264838,-1.336136E-07,NaN,-1.565702,-4.113402E-07,NaN,-1.672598,1.835833E-05,-0.08399712,8.362756E-08,NaN,NaN,-0.1309961,-3.259703E-11,-1.752429E-07,-1.117553E-07,-1.793957E-09,-2.861022E-08
610.1361,-0.01448099,-6.046243E-09,NaN,-0.8264838,-1.336136E-07,NaN,-1.565702,-4.113402E-07,NaN,-1.672598,1.835833E-05,-0.08399712,8.362756E-08,NaN,NaN,-0.1309961,-3.259703E-11,-1.752429E-07,-1.117553E-07,-1.793957E-09,-2.861022E-08
610.1509,-0.01448392,-6.045447E-09,NaN,-0.8260881,-1.336139E-07,NaN,-1.565671,-4.113182E-07,NaN,-1.670661,1.835881E-05,-0.08572648,8.3607E-08,NaN,NaN,-0.1311437,-1.862719E-11,-1.741253E-07,-1.117561E-07,-1.793957E-09,-2.622604E-08
610.1676,-0.01448661,-6.044651E-09,NaN,-0.825717,-1.336142E-07,NaN,-1.565647,-4.112993E-07,NaN,-1.66883,1.83593E-05,-0.08742298,8.358959E-08,NaN,NaN,-0.1312885,-1.862719E-11,-1.728587E-07,-1.117569E-07,5.902288E-10,-2.861022E-08
610.183,-0.01448896,-6.043856E-09,NaN,-0.825432,-1.336144E-07,NaN,-1.565553,-4.112806E-07,NaN,-1.667639,1.835978E-05,-0.08754117,8.357245E-08,NaN,NaN,-0.1313011,-7.355228E-16,-1.794152E-07,-1.117576E-07,5.3586E-09,-2.622604E-08
610.1988,-0.01448896,-6.043856E-09,NaN,-0.825432,-1.336144E-07,NaN,-1.565553,-4.112806E-07,NaN,-1.667639,1.835978E-05,-0.08754117,8.357245E-08,NaN,NaN,-0.1313011,-7.355228E-16,-1.794152E-07,-1.117576E-07,5.3586E-09,-2.622604E-08
610.2134,-0.01449095,-6.043059E-09,NaN,-0.8252014,-1.336147E-07,NaN,-1.565493,-4.112686E-07,NaN,-1.666768,1.836028E-05,-0.08766143,8.356197E-08,NaN,NaN,-0.1313135,-7.355228E-16,-1.828425E-07,-1.117584E-07,5.902288E-10,-2.861022E-08
610.2312,-0.01449264,-6.042263E-09,NaN,-0.8250054,-1.33615E-07,NaN,-1.565448,-4.112596E-07,NaN,-1.666064,1.836078E-05,-0.08778189,8.355445E-08,NaN,NaN,-0.1313257,-7.355228E-16,-1.850777E-07,-1.117592E-07,-4.178143E-09,-2.622604E-08
610.2457,-0.01449411,-6.041467E-09,NaN,-0.8248315,-1.336153E-07,NaN,-1.565409,-4.112507E-07,NaN,-1.665448,1.836128E-05,-0.08790096,8.3547E-08,NaN,NaN,-0.1313376,-7.355228E-16,-1.868658E-07,-1.1176E-07,-6.562328E-09,-2.861022E-08
610.2614,-0.01449522,-6.040671E-09,NaN,-0.8247415,-1.336156E-07,NaN,-1.565304,-4.112418E-07,NaN,-1.665454,1.836177E-05,-0.08647361,8.353962E-08,NaN,NaN,-0.1312199,-7.355228E-16,-1.952104E-07,-1.117607E-07,-4.178143E-09,-2.622604E-08
610.2772,-0.01449522,-6.040671E-09,NaN,-0.8247415,-1.336156E-07,NaN,-1.565304,-4.112418E-07,NaN,-1.665454,1.836177E-05,-0.08647361,8.353962E-08,NaN,NaN,-0.1312199,-7.355228E-16,-1.952104E-07,-1.117607E-07,-4.178143E-09,-2.622604E-08
610.2923,-0.01449611,-6.039874E-09,NaN,-0.8247037,-1.336159E-07,NaN,-1.565229,-4.112358E-07,NaN,-1.665763,1.836227E-05,-0.08507779,8.353515E-08,NaN,NaN,-0.1311046,-7.355228E-16,-2.015434E-07,-1.117615E-07,-1.793957E-09,-2.861022E-08
610.3085,-0.01449687,-6.039077E-09,NaN,-0.8246982,-1.336161E-07,NaN,-1.565168,-4.112298E-07,NaN,-1.66622,1.836277E-05,-0.0837114,8.353068E-08,NaN,NaN,-0.1309915,-7.355228E-16,-2.066843E-07,-1.117622E-07,-1.793957E-09,-2.622604E-08
610.3242,-0.01449755,-6.038281E-09,NaN,-0.824711,-1.336164E-07,NaN,-1.565112,-4.112238E-07,NaN,-1.66675,1.836326E-05,-0.0823725,8.352623E-08,NaN,NaN,-0.1308806,9.31249E-12,-2.108567E-07,-1.11763E-07,5.902288E-10,-2.861022E-08
610.34,-0.01449808,-6.037484E-09,NaN,-0.8248045,-1.336167E-07,NaN,-1.564989,-4.112207E-07,NaN,-1.667886,1.836376E-05,-0.07951468,8.352462E-08,NaN,NaN,-0.1306427,9.31249E-12,-2.21958E-07,-1.117638E-07,2.974414E-09,-2.622604E-08
610.3557,-0.01449808,-6.037484E-09,NaN,-0.8248045,-1.336167E-07,NaN,-1.564989,-4.112207E-07,NaN,-1.667886,1.836376E-05,-0.07951468,8.352462E-08,NaN,NaN,-0.1306427,9.31249E-12,-2.21958E-07,-1.117638E-07,2.974414E-09,-2.622604E-08
610.3705,-0.0144985,-6.036687E-09,NaN,-0.8249473,-1.33617E-07,NaN,-1.564895,-4.112111E-07,NaN,-1.669308,1.836426E-05,-0.07671593,8.351657E-08,NaN,NaN,-0.1304093,1.39691E-11,-2.306007E-07,-1.117645E-07,2.974414E-09,-2.861022E-08
610.387,-0.01449884,-6.03589E-09,NaN,-0.8251199,-1.336173E-07,NaN,-1.564813,-4.112017E-07,NaN,-1.670862,1.836475E-05,-0.07397375,8.350862E-08,NaN,NaN,-0.1301806,2.328233E-11,-2.373807E-07,-1.117653E-07,5.902288E-10,-2.622604E-08
610.4027,-0.01449913,-6.035094E-09,NaN,-0.8253102,-1.336176E-07,NaN,-1.564736,-4.111923E-07,NaN,-1.672471,1.836524E-05,-0.07128574,8.350074E-08,NaN,NaN,-0.1299563,3.259555E-11,-2.431177E-07,-1.11766E-07,7.742786E-09,-2.861022E-08
610.4184,-0.01449913,-6.035094E-09,NaN,-0.8253102,-1.336176E-07,NaN,-1.564736,-4.111923E-07,NaN,-1.672471,1.836524E-05,-0.07128574,8.350074E-08,NaN,NaN,-0.1299563,3.259555E-11,-2.431177E-07,-1.11766E-07,7.742786E-09,-2.861022E-08
610.4333,-0.01449927,-6.034297E-09,NaN,-0.8255797,-1.336178E-07,NaN,-1.564585,-4.111858E-07,NaN,-1.674669,1.836574E-05,-0.06710243,8.349578E-08,NaN,NaN,-0.1296071,4.190878E-11,-2.548151E-07,-1.117668E-07,5.3586E-09,-2.622604E-08
610.4495,-0.01449929,-6.0335E-09,NaN,-0.825897,-1.336181E-07,NaN,-1.564464,-4.111794E-07,NaN,-1.677138,1.836623E-05,-0.06300396,8.349083E-08,NaN,NaN,-0.1292647,5.1222E-11,-2.63346E-07,-1.117675E-07,-1.793957E-09,-2.861022E-08
610.465,-0.01449924,-6.032703E-09,NaN,-0.8262423,-1.336184E-07,NaN,-1.564355,-4.111729E-07,NaN,-1.679724,1.836672E-05,-0.05898733,8.348592E-08,NaN,NaN,-0.128929,6.053522E-11,-2.70126E-07,-1.117683E-07,-1.793957E-09,-2.622604E-08
610.4808,-0.01449914,-6.031906E-09,NaN,-0.8266034,-1.336186E-07,NaN,-1.564251,-4.111694E-07,NaN,-1.68235,1.836722E-05,-0.05504954,8.348385E-08,NaN,NaN,-0.1285999,6.519184E-11,-2.763473E-07,-1.11769E-07,-1.793957E-09,-2.861022E-08
610.4966,-0.01449914,-6.031906E-09,NaN,-0.8266034,-1.336186E-07,NaN,-1.564251,-4.111694E-07,NaN,-1.68235,1.836722E-05,-0.05504954,8.348385E-08,NaN,NaN,-0.1285999,6.519184E-11,-2.763473E-07,-1.11769E-07,-1.793957E-09,-2.861022E-08
610.5114,-0.01449889,-6.031109E-09,NaN,-0.8270419,-1.336189E-07,NaN,-1.564062,-4.111658E-07,NaN,-1.685551,1.836771E-05,-0.04963652,8.348174E-08,NaN,NaN,-0.128148,7.450506E-11,-2.883054E-07,-1.117697E-07,-1.793957E-09,-2.622604E-08
610.5279,-0.01449852,-6.030312E-09,NaN,-0.8275262,-1.336192E-07,NaN,-1.563904,-4.111621E-07,NaN,-1.689007,1.836821E-05,-0.04433246,8.347961E-08,NaN,NaN,-0.1277049,7.916168E-11,-2.967618E-07,-1.117705E-07,-4.178143E-09,-2.861022E-08
610.5435,-0.01449808,-6.029515E-09,NaN,-0.8280366,-1.336195E-07,NaN,-1.56376,-4.111613E-07,NaN,-1.692565,1.83687E-05,-0.0391339,8.348027E-08,NaN,NaN,-0.1272705,8.84749E-11,-3.032811E-07,-1.117712E-07,-4.178143E-09,-2.622604E-08
610.5593,-0.01449808,-6.029515E-09,NaN,-0.8280366,-1.336195E-07,NaN,-1.56376,-4.111613E-07,NaN,-1.692565,1.83687E-05,-0.0391339,8.348027E-08,NaN,NaN,-0.1272705,8.84749E-11,-3.032811E-07,-1.117712E-07,-4.178143E-09,-2.622604E-08
610.5741,-0.01449746,-6.028718E-09,NaN,-0.8286301,-1.336197E-07,NaN,-1.563522,-4.111603E-07,NaN,-1.696723,1.836921E-05,-0.03248106,8.348085E-08,NaN,NaN,-0.1267152,8.381829E-11,-3.137864E-07,-1.117719E-07,-6.562328E-09,-2.861022E-08
610.5903,-0.01449672,-6.02792E-09,NaN,-0.8292722,-1.3362E-07,NaN,-1.563319,-4.111593E-07,NaN,-1.701142,1.83697E-05,-0.0259615,8.348134E-08,NaN,NaN,-0.1261709,9.313151E-11,-3.21237E-07,-1.117727E-07,-4.178143E-09,-2.622604E-08
610.606,-0.0144959,-6.027122E-09,NaN,-0.8299415,-1.336203E-07,NaN,-1.563129,-4.111582E-07,NaN,-1.705659,1.83702E-05,-0.01957128,8.348174E-08,NaN,NaN,-0.1256372,9.778812E-11,-3.27272E-07,-1.117734E-07,-4.178143E-09,-2.861022E-08
610.6219,-0.01449501,-6.026325E-09,NaN,-0.8306245,-1.336205E-07,NaN,-1.562945,-4.111598E-07,NaN,-1.710193,1.83707E-05,-0.01330575,8.34849E-08,NaN,NaN,-0.125114,1.071013E-10,-3.316771E-07,-1.117741E-07,-1.793957E-09,-2.622604E-08
610.6375,-0.01449501,-6.026325E-09,NaN,-0.8306245,-1.336205E-07,NaN,-1.562945,-4.111598E-07,NaN,-1.710193,1.83707E-05,-0.01330575,8.34849E-08,NaN,NaN,-0.125114,1.071013E-10,-3.316771E-07,-1.117741E-07,-1.793957E-09,-2.622604E-08
610.6526,-0.01449398,-6.025527E-09,NaN,-0.8313822,-1.336208E-07,NaN,-1.562645,-4.111614E-07,NaN,-1.715278,1.837119E-05,-0.005599318,8.348792E-08,NaN,NaN,-0.1244717,1.11758E-10,-3.399752E-07,-1.117748E-07,-1.793957E-09,-2.861022E-08
610.6692,-0.01449282,-6.02473E-09,NaN,-0.8321826,-1.336211E-07,NaN,-1.562384,-4.111627E-07,NaN,-1.720592,1.837169E-05,0.00195342,8.34908E-08,NaN,NaN,-0.123842,1.210712E-10,-3.463199E-07,-1.117755E-07,-1.793957E-09,-2.622604E-08
610.6846,-0.01449157,-6.023932E-09,NaN,-0.8330058,-1.336213E-07,NaN,-1.562139,-4.111676E-07,NaN,-1.725983,1.837219E-05,0.009356,8.349721E-08,NaN,NaN,-0.1232246,1.257278E-10,-3.512291E-07,-1.117763E-07,5.3586E-09,-2.861022E-08
610.7003,-0.01449015,-6.023134E-09,NaN,-0.8338394,-1.336216E-07,NaN,-1.5619,-4.111723E-07,NaN,-1.731374,1.837268E-05,0.01661403,8.350341E-08,NaN,NaN,-0.1226194,1.303844E-10,-3.537809E-07,-1.11777E-07,1.012697E-08,-2.622604E-08
610.7158,-0.01449015,-6.023134E-09,NaN,-0.8338394,-1.336216E-07,NaN,-1.5619,-4.111723E-07,NaN,-1.731374,1.837268E-05,0.01661403,8.350341E-08,NaN,NaN,-0.1226194,1.303844E-10,-3.537809E-07,-1.11777E-07,1.012697E-08,-2.622604E-08
610.7323,-0.01448842,-6.022336E-09,NaN,-0.8347449,-1.336219E-07,NaN,-1.561522,-4.111768E-07,NaN,-1.737301,1.837319E-05,0.02530052,8.350941E-08,NaN,NaN,-0.1218966,1.257278E-10,-3.582606E-07,-1.117777E-07,7.742786E-09,-2.861022E-08
610.7474,-0.01448636,-6.021537E-09,NaN,-0.8356907,-1.336222E-07,NaN,-1.561191,-4.111811E-07,NaN,-1.743444,1.837368E-05,0.03381455,8.351522E-08,NaN,NaN,-0.1211881,1.35041E-10,-3.601977E-07,-1.117784E-07,7.742786E-09,-2.622604E-08
610.7629,-0.01448403,-6.020739E-09,NaN,-0.8366572,-1.336224E-07,NaN,-1.560879,-4.11188E-07,NaN,-1.749652,1.837419E-05,0.0421583,8.352368E-08,NaN,NaN,-0.1204935,1.303844E-10,-3.609241E-07,-1.117791E-07,5.3586E-09,-2.861022E-08
610.7787,-0.01448403,-6.020739E-09,NaN,-0.8366572,-1.336224E-07,NaN,-1.560879,-4.11188E-07,NaN,-1.749652,1.837419E-05,0.0421583,8.352368E-08,NaN,NaN,-0.1204935,1.303844E-10,-3.609241E-07,-1.117791E-07,5.3586E-09,-2.861022E-08
610.7939,-0.01448149,-6.019941E-09,NaN,-0.8376321,-1.336227E-07,NaN,-1.560574,-4.111947E-07,NaN,-1.755847,1.837469E-05,0.05033869,8.353189E-08,NaN,NaN,-0.1198125,1.396977E-10,-3.596203E-07,-1.117798E-07,2.974414E-09,-2.622604E-08
610.81,-0.01447852,-6.019143E-09,NaN,-0.8386079,-1.336229E-07,NaN,-1.560271,-4.112012E-07,NaN,-1.761994,1.837519E-05,0.05836182,8.353987E-08,NaN,NaN,-0.1191447,1.35041E-10,-3.578694E-07,-1.117805E-07,5.902288E-10,-2.861022E-08
610.8261,-0.01447528,-6.018344E-09,NaN,-0.8395799,-1.336232E-07,NaN,-1.559969,-4.112103E-07,NaN,-1.768073,1.837569E-05,0.06622956,8.355045E-08,NaN,NaN,-0.11849,1.396977E-10,-3.546656E-07,-1.117812E-07,5.902288E-10,-2.622604E-08
610.8411,-0.01447186,-6.017546E-09,NaN,-0.8405453,-1.336235E-07,NaN,-1.559667,-4.112191E-07,NaN,-1.774075,1.837619E-05,0.07394495,8.356074E-08,NaN,NaN,-0.1178482,1.443543E-10,-3.511639E-07,-1.117819E-07,-1.793957E-09,-2.861022E-08
610.857,-0.01447186,-6.017546E-09,NaN,-0.8405453,-1.336235E-07,NaN,-1.559667,-4.112191E-07,NaN,-1.774075,1.837619E-05,0.07394495,8.356074E-08,NaN,NaN,-0.1178482,1.443543E-10,-3.511639E-07,-1.117819E-07,-1.793957E-09,-2.861022E-08
610.8721,-0.01446834,-6.016747E-09,NaN,-0.8415022,-1.336237E-07,NaN,-1.559367,-4.112276E-07,NaN,-1.779996,1.837669E-05,0.08151083,8.357076E-08,NaN,NaN,-0.117219,1.490109E-10,-3.456877E-07,-1.117826E-07,-1.793957E-09,-2.622604E-08
610.8885,-0.01446495,-6.015948E-09,NaN,-0.8423803,-1.33624E-07,NaN,-1.559262,-4.112358E-07,NaN,-1.78526,1.837719E-05,0.0873502,8.358051E-08,NaN,NaN,-0.1167315,1.536675E-10,-3.395782E-07,-1.117833E-07,-4.178143E-09,-2.861022E-08
610.9041,-0.01446176,-6.015149E-09,NaN,-0.8432058,-1.336242E-07,NaN,-1.559089,-4.112495E-07,NaN,-1.790168,1.837768E-05,0.09307648,8.359565E-08,NaN,NaN,-0.1162535,1.629807E-10,-3.354431E-07,-1.11784E-07,-4.178143E-09,-2.622604E-08
610.9197,-0.01446176,-6.015149E-09,NaN,-0.8432058,-1.336242E-07,NaN,-1.559089,-4.112495E-07,NaN,-1.790168,1.837768E-05,0.09307648,8.359565E-08,NaN,NaN,-0.1162535,1.629807E-10,-3.354431E-07,-1.11784E-07,-4.178143E-09,-2.622604E-08
610.9348,-0.01445875,-6.01435E-09,NaN,-0.8439952,-1.336245E-07,NaN,-1.558888,-4.112628E-07,NaN,-1.794864,1.837819E-05,0.09870217,8.361042E-08,NaN,NaN,-0.1157849,1.583241E-10,-3.297434E-07,-1.117847E-07,-6.562328E-09,-2.861022E-08
610.9507,-0.0144559,-6.013551E-09,NaN,-0.8447587,-1.336247E-07,NaN,-1.558677,-4.112757E-07,NaN,-1.799422,1.837868E-05,0.1042227,8.362482E-08,NaN,NaN,-0.1153255,1.676373E-10,-3.246026E-07,-1.117853E-07,-6.562328E-09,-2.622604E-08
610.9666,-0.01445337,-6.012752E-09,NaN,-0.8454335,-1.33625E-07,NaN,-1.558682,-4.11291E-07,NaN,-1.8033,1.837919E-05,0.1080561,8.364169E-08,NaN,NaN,-0.1150044,1.629807E-10,-3.186421E-07,-1.11786E-07,-6.562328E-09,-2.861022E-08
610.9822,-0.01445116,-6.011952E-09,NaN,-0.8460506,-1.336252E-07,NaN,-1.558607,-4.11306E-07,NaN,-1.806821,1.837969E-05,0.1118121,8.365816E-08,NaN,NaN,-0.1146896,1.676373E-10,-3.149541E-07,-1.117867E-07,-8.946515E-09,-2.622604E-08
610.9981,-0.01445116,-6.011952E-09,NaN,-0.8460506,-1.336252E-07,NaN,-1.558607,-4.11306E-07,NaN,-1.806821,1.837969E-05,0.1118121,8.365816E-08,NaN,NaN,-0.1146896,1.676373E-10,-3.149541E-07,-1.117867E-07,-8.946515E-09,-2.622604E-08
611.0129,-0.01444924,-6.011153E-09,NaN,-0.8466293,-1.336255E-07,NaN,-1.558497,-4.113206E-07,NaN,-1.81014,1.838018E-05,0.1155081,8.367424E-08,NaN,NaN,-0.114381,1.722939E-10,-3.104837E-07,-1.117874E-07,-4.178143E-09,-2.861022E-08
611.0294,-0.01444752,-6.010354E-09,NaN,-0.8471817,-1.336258E-07,NaN,-1.558376,-4.113348E-07,NaN,-1.813333,1.838068E-05,0.1191374,8.368992E-08,NaN,NaN,-0.1140785,1.769506E-10,-3.054173E-07,-1.117881E-07,-1.793957E-09,-2.622604E-08
611.045,-0.01444616,-6.009554E-09,NaN,-0.8476461,-1.33626E-07,NaN,-1.558485,-4.113514E-07,NaN,-1.815864,1.838119E-05,0.121117,8.370804E-08,NaN,NaN,-0.1139112,1.722939E-10,-3.000529E-07,-1.117887E-07,-4.178143E-09,-2.861022E-08
611.0607,-0.01444507,-6.008754E-09,NaN,-0.8480541,-1.336263E-07,NaN,-1.558505,-4.113676E-07,NaN,-1.818054,1.838169E-05,0.1230521,8.372574E-08,NaN,NaN,-0.1137471,1.769506E-10,-2.972217E-07,-1.117894E-07,-6.562329E-09,-2.622604E-08
611.076,-0.01444507,-6.008754E-09,NaN,-0.8480541,-1.336263E-07,NaN,-1.558505,-4.113676E-07,NaN,-1.818054,1.838169E-05,0.1230521,8.372574E-08,NaN,NaN,-0.1137471,1.769506E-10,-2.972217E-07,-1.117894E-07,-6.562329E-09,-2.622604E-08
611.0906,-0.01444413,-6.007955E-09,NaN,-0.8484254,-1.336265E-07,NaN,-1.558486,-4.113834E-07,NaN,-1.82006,1.83822E-05,0.1249646,8.374302E-08,NaN,NaN,-0.1135863,1.722939E-10,-2.933474E-07,-1.117901E-07,2.974414E-09,-2.861022E-08
611.1075,-0.01444326,-6.007155E-09,NaN,-0.8487725,-1.336268E-07,NaN,-1.558451,-4.114016E-07,NaN,-1.821959,1.838269E-05,0.1268463,8.376271E-08,NaN,NaN,-0.1134287,1.769506E-10,-2.896966E-07,-1.117907E-07,7.742786E-09,-2.622604E-08
611.1234,-0.01444255,-6.006355E-09,NaN,-0.8490338,-1.33627E-07,NaN,-1.558654,-4.114193E-07,NaN,-1.823214,1.83832E-05,0.1271136,8.378195E-08,NaN,NaN,-0.1134034,1.722939E-10,-2.855242E-07,-1.117914E-07,1.251116E-08,-2.861022E-08
611.139,-0.01444255,-6.006355E-09,NaN,-0.8490338,-1.33627E-07,NaN,-1.558654,-4.114193E-07,NaN,-1.823214,1.83832E-05,0.1271136,8.378195E-08,NaN,NaN,-0.1134034,1.722939E-10,-2.855242E-07,-1.117914E-07,1.251116E-08,-2.861022E-08
611.1544,-0.01444196,-6.005555E-09,NaN,-0.8492408,-1.336273E-07,NaN,-1.558762,-4.114366E-07,NaN,-1.824146,1.83837E-05,0.1273677,8.380073E-08,NaN,NaN,-0.1133787,1.769506E-10,-2.837361E-07,-1.117921E-07,1.251116E-08,-2.622604E-08
611.1703,-0.01444145,-6.004754E-09,NaN,-0.8494136,-1.336276E-07,NaN,-1.558825,-4.114534E-07,NaN,-1.824912,1.83842E-05,0.127634,8.381907E-08,NaN,NaN,-0.1133544,1.816072E-10,-2.813519E-07,-1.117927E-07,1.727953E-08,-2.861022E-08
611.186,-0.01444098,-6.003954E-09,NaN,-0.8495643,-1.336278E-07,NaN,-1.558869,-4.114727E-07,NaN,-1.825589,1.838469E-05,0.1279026,8.383981E-08,NaN,NaN,-0.1133306,1.909204E-10,-2.783717E-07,-1.117934E-07,1.489534E-08,-2.622604E-08
611.2017,-0.01444066,-6.003154E-09,NaN,-0.8496315,-1.33628E-07,NaN,-1.559152,-4.114914E-07,NaN,-1.82564,1.83852E-05,0.1265896,8.386007E-08,NaN,NaN,-0.1134366,1.862638E-10,-2.75764E-07,-1.11794E-07,1.489534E-08,-2.861022E-08
611.2191,-0.01444066,-6.003154E-09,NaN,-0.8496315,-1.33628E-07,NaN,-1.559152,-4.114914E-07,NaN,-1.82564,1.83852E-05,0.1265896,8.386007E-08,NaN,NaN,-0.1134366,1.862638E-10,-2.75764E-07,-1.11794E-07,1.489534E-08,-2.861022E-08
611.2322,-0.01444047,-6.002353E-09,NaN,-0.8496469,-1.336283E-07,NaN,-1.559333,-4.115097E-07,NaN,-1.825385,1.838569E-05,0.1252943,8.387985E-08,NaN,NaN,-0.1135405,1.95577E-10,-2.751679E-07,-1.117947E-07,1.727953E-08,-2.622604E-08
611.2483,-0.01444036,-6.001553E-09,NaN,-0.849632,-1.336285E-07,NaN,-1.559465,-4.115275E-07,NaN,-1.82498,1.83862E-05,0.1240426,8.389918E-08,NaN,NaN,-0.1136423,1.909204E-10,-2.733798E-07,-1.117954E-07,1.489534E-08,-2.861022E-08
611.2639,-0.01444029,-6.000752E-09,NaN,-0.8495983,-1.336288E-07,NaN,-1.559574,-4.115477E-07,NaN,-1.824504,1.83867E-05,0.1228237,8.392088E-08,NaN,NaN,-0.1137422,1.95577E-10,-2.710701E-07,-1.11796E-07,1.251116E-08,-2.622604E-08
611.2798,-0.01444029,-6.000752E-09,NaN,-0.8495983,-1.336288E-07,NaN,-1.559574,-4.115477E-07,NaN,-1.824504,1.83867E-05,0.1228237,8.392088E-08,NaN,NaN,-0.1137422,1.95577E-10,-2.710701E-07,-1.11796E-07,1.251116E-08,-2.622604E-08
611.2949,-0.01444038,-5.999951E-09,NaN,-0.849484,-1.33629E-07,NaN,-1.559919,-4.115674E-07,NaN,-1.823417,1.838721E-05,0.1200534,8.394208E-08,NaN,NaN,-0.1139694,1.909204E-10,-2.684624E-07,-1.117966E-07,1.251116E-08,-2.861022E-08
611.3111,-0.01444059,-5.999151E-09,NaN,-0.8493205,-1.336292E-07,NaN,-1.560156,-4.115866E-07,NaN,-1.822042,1.83877E-05,0.1173307,8.39628E-08,NaN,NaN,-0.1141922,1.95577E-10,-2.679408E-07,-1.117973E-07,1.251116E-08,-2.622604E-08
611.3267,-0.01444088,-5.998349E-09,NaN,-0.8491272,-1.336295E-07,NaN,-1.560341,-4.116054E-07,NaN,-1.820535,1.838821E-05,0.1146805,8.398302E-08,NaN,NaN,-0.1144106,1.909204E-10,-2.665997E-07,-1.117979E-07,1.012697E-08,-2.861022E-08
611.3422,-0.01444121,-5.997548E-09,NaN,-0.8489165,-1.336297E-07,NaN,-1.560499,-4.116264E-07,NaN,-1.818972,1.838871E-05,0.1120911,8.400561E-08,NaN,NaN,-0.1146247,1.95577E-10,-2.648116E-07,-1.117986E-07,1.012697E-08,-2.622604E-08
611.3581,-0.01444121,-5.997548E-09,NaN,-0.8489165,-1.336297E-07,NaN,-1.560499,-4.116264E-07,NaN,-1.818972,1.838871E-05,0.1120911,8.400561E-08,NaN,NaN,-0.1146247,1.95577E-10,-2.648116E-07,-1.117986E-07,1.012697E-08,-2.622604E-08
611.373,-0.01444171,-5.996747E-09,NaN,-0.8486267,-1.3363E-07,NaN,-1.560883,-4.11647E-07,NaN,-1.816816,1.838922E-05,0.1079777,8.402768E-08,NaN,NaN,-0.1149639,1.909204E-10,-2.624274E-07,-1.117992E-07,5.358602E-09,-2.861022E-08
611.3895,-0.01444232,-5.995946E-09,NaN,-0.8482893,-1.336302E-07,NaN,-1.561158,-4.116671E-07,NaN,-1.814387,1.838972E-05,0.1039413,8.404924E-08,NaN,NaN,-0.1152965,1.95577E-10,-2.619803E-07,-1.117998E-07,1.012697E-08,-2.622604E-08
611.4052,-0.01444301,-5.995144E-09,NaN,-0.8479241,-1.336305E-07,NaN,-1.561377,-4.116867E-07,NaN,-1.811841,1.839021E-05,0.1000035,8.407037E-08,NaN,NaN,-0.1156226,2.002336E-10,-2.609E-07,-1.118005E-07,5.358602E-09,-2.861022E-08
611.4207,-0.01444375,-5.994343E-09,NaN,-0.8475434,-1.336307E-07,NaN,-1.561568,-4.117087E-07,NaN,-1.809256,1.839071E-05,0.09615222,8.409384E-08,NaN,NaN,-0.1159423,2.095469E-10,-2.585903E-07,-1.118011E-07,2.974416E-09,-2.622604E-08
611.4366,-0.01444375,-5.994343E-09,NaN,-0.8475434,-1.336307E-07,NaN,-1.561568,-4.117087E-07,NaN,-1.809256,1.839071E-05,0.09615222,8.409384E-08,NaN,NaN,-0.1159423,2.095469E-10,-2.585903E-07,-1.118011E-07,2.974416E-09,-2.622604E-08
611.4512,-0.01444464,-5.993541E-09,NaN,-0.8470854,-1.336309E-07,NaN,-1.561969,-4.117301E-07,NaN,-1.806092,1.839121E-05,0.09080206,8.411678E-08,NaN,NaN,-0.1163851,2.048902E-10,-2.562806E-07,-1.118017E-07,5.358602E-09,-2.861022E-08
611.4676,-0.01444566,-5.99274E-09,NaN,-0.8465819,-1.336312E-07,NaN,-1.562261,-4.11751E-07,NaN,-1.802671,1.839171E-05,0.08555767,8.41392E-08,NaN,NaN,-0.1168191,2.142035E-10,-2.543807E-07,-1.118024E-07,5.358602E-09,-2.622604E-08
611.4832,-0.01444676,-5.991938E-09,NaN,-0.8460525,-1.336314E-07,NaN,-1.562495,-4.117715E-07,NaN,-1.799147,1.839221E-05,0.08043538,8.41611E-08,NaN,NaN,-0.1172447,2.188601E-10,-2.523691E-07,-1.11803E-07,7.742788E-09,-2.861022E-08
611.499,-0.01444676,-5.991938E-09,NaN,-0.8460525,-1.336314E-07,NaN,-1.562495,-4.117715E-07,NaN,-1.799147,1.839221E-05,0.08043538,8.41611E-08,NaN,NaN,-0.1172447,2.188601E-10,-2.523691E-07,-1.11803E-07,7.742788E-09,-2.861022E-08
611.5139,-0.01444804,-5.991136E-09,NaN,-0.8454401,-1.336317E-07,NaN,-1.562915,-4.117942E-07,NaN,-1.795022,1.83927E-05,0.07384443,8.418533E-08,NaN,NaN,-0.1177913,2.281733E-10,-2.470419E-07,-1.118036E-07,5.358602E-09,-2.622604E-08
611.5304,-0.01444963,-5.990335E-09,NaN,-0.8447794,-1.336319E-07,NaN,-1.563219,-4.118164E-07,NaN,-1.790634,1.839321E-05,0.06738962,8.420901E-08,NaN,NaN,-0.1183271,2.235167E-10,-2.45291E-07,-1.118042E-07,7.742788E-09,-2.861022E-08
611.5462,-0.01445151,-5.989533E-09,NaN,-0.8440918,-1.336321E-07,NaN,-1.563463,-4.11838E-07,NaN,-1.786149,1.83937E-05,0.06108145,8.423216E-08,NaN,NaN,-0.1188525,2.328299E-10,-2.416402E-07,-1.118049E-07,5.358602E-09,-2.622604E-08
611.5617,-0.01445362,-5.988731E-09,NaN,-0.8433906,-1.336324E-07,NaN,-1.563673,-4.118591E-07,NaN,-1.781646,1.839421E-05,0.05490728,8.425477E-08,NaN,NaN,-0.1193675,2.281733E-10,-2.380639E-07,-1.118055E-07,-1.793955E-09,-2.861022E-08
611.5773,-0.01445362,-5.988731E-09,NaN,-0.8433906,-1.336324E-07,NaN,-1.563673,-4.118591E-07,NaN,-1.781646,1.839421E-05,0.05490728,8.425477E-08,NaN,NaN,-0.1193675,2.281733E-10,-2.380639E-07,-1.118055E-07,-1.793955E-09,-2.861022E-08
611.5923,-0.01445613,-5.987929E-09,NaN,-0.8426149,-1.336326E-07,NaN,-1.564057,-4.118825E-07,NaN,-1.776593,1.83947E-05,0.04728311,8.427969E-08,NaN,NaN,-0.1200019,2.374866E-10,-2.306879E-07,-1.118061E-07,5.902305E-10,-2.622604E-08
611.6086,-0.014459,-5.987127E-09,NaN,-0.8417966,-1.336329E-07,NaN,-1.564334,-4.119054E-07,NaN,-1.771309,1.83952E-05,0.03981874,8.430405E-08,NaN,NaN,-0.1206237,2.421432E-10,-2.263386E-07,-1.118067E-07,-1.793955E-09,-2.861022E-08
611.6245,-0.01446219,-5.986325E-09,NaN,-0.8409559,-1.336331E-07,NaN,-1.564554,-4.119277E-07,NaN,-1.765949,1.83957E-05,0.03251916,8.432786E-08,NaN,NaN,-0.1212334,2.467998E-10,-2.212722E-07,-1.118073E-07,-1.793955E-09,-2.622604E-08
611.64,-0.01446219,-5.986325E-09,NaN,-0.8409559,-1.336331E-07,NaN,-1.564554,-4.119277E-07,NaN,-1.765949,1.83957E-05,0.03251916,8.432786E-08,NaN,NaN,-0.1212334,2.467998E-10,-2.212722E-07,-1.118073E-07,-1.793955E-09,-2.622604E-08
611.6553,-0.01446562,-5.985522E-09,NaN,-0.8401049,-1.336333E-07,NaN,-1.564741,-4.119495E-07,NaN,-1.760589,1.83962E-05,0.02537275,8.435113E-08,NaN,NaN,-0.1218312,2.421432E-10,-2.148693E-07,-1.118079E-07,-1.793955E-09,-2.861022E-08
611.6713,-0.01446943,-5.98472E-09,NaN,-0.8391821,-1.336335E-07,NaN,-1.565076,-4.119735E-07,NaN,-1.754695,1.83967E-05,0.01679923,8.437669E-08,NaN,NaN,-0.1225465,2.467998E-10,-2.046714E-07,-1.118085E-07,-1.793955E-09,-2.622604E-08
611.6871,-0.01447361,-5.983917E-09,NaN,-0.8382192,-1.336338E-07,NaN,-1.565312,-4.11997E-07,NaN,-1.748583,1.83972E-05,0.008408343,8.440168E-08,NaN,NaN,-0.1232479,2.514564E-10,-1.962708E-07,-1.118091E-07,5.902305E-10,-2.861022E-08
611.7026,-0.0144781,-5.983115E-09,NaN,-0.8372359,-1.33634E-07,NaN,-1.565494,-4.1202E-07,NaN,-1.742408,1.839769E-05,0.0001992052,8.442611E-08,NaN,NaN,-0.1239355,2.607696E-10,-1.879076E-07,-1.118097E-07,5.902305E-10,-2.622604E-08
611.7195,-0.0144781,-5.983115E-09,NaN,-0.8372359,-1.33634E-07,NaN,-1.565494,-4.1202E-07,NaN,-1.742408,1.839769E-05,0.0001992052,8.442611E-08,NaN,NaN,-0.1239355,2.607696E-10,-1.879076E-07,-1.118097E-07,5.902305E-10,-2.622604E-08
611.7335,-0.01448282,-5.982312E-09,NaN,-0.8362443,-1.336342E-07,NaN,-1.565643,-4.120423E-07,NaN,-1.736246,1.839819E-05,-0.00783896,8.444999E-08,NaN,NaN,-0.1246096,2.654262E-10,-1.786875E-07,-1.118103E-07,-6.562327E-09,-2.861022E-08
611.7496,-0.01448791,-5.98151E-09,NaN,-0.8351827,-1.336344E-07,NaN,-1.565913,-4.12067E-07,NaN,-1.72956,1.839869E-05,-0.01728033,8.447615E-08,NaN,NaN,-0.1253999,2.700828E-10,-1.672136E-07,-1.118109E-07,-8.946513E-09,-2.622604E-08
611.7654,-0.01449337,-5.980707E-09,NaN,-0.8340828,-1.336347E-07,NaN,-1.566093,-4.120911E-07,NaN,-1.722669,1.839919E-05,-0.0265194,8.450173E-08,NaN,NaN,-0.1261746,2.747394E-10,-1.543613E-07,-1.118115E-07,-1.371488E-08,-2.861022E-08
611.7812,-0.01449912,-5.979904E-09,NaN,-0.8329641,-1.336349E-07,NaN,-1.566223,-4.121146E-07,NaN,-1.715726,1.839969E-05,-0.03556153,8.452673E-08,NaN,NaN,-0.1269342,2.79396E-10,-1.406895E-07,-1.118121E-07,-1.13307E-08,-2.622604E-08
611.7968,-0.01449912,-5.979904E-09,NaN,-0.8329641,-1.336349E-07,NaN,-1.566223,-4.121146E-07,NaN,-1.715726,1.839969E-05,-0.03556153,8.452673E-08,NaN,NaN,-0.1269342,2.79396E-10,-1.406895E-07,-1.118121E-07,-1.13307E-08,-2.622604E-08
611.8117,-0.01450509,-5.979101E-09,NaN,-0.8318387,-1.336351E-07,NaN,-1.566321,-4.121375E-07,NaN,-1.708807,1.840019E-05,-0.04441649,8.455116E-08,NaN,NaN,-0.1276788,2.79396E-10,-1.278E-07,-1.118127E-07,-1.609907E-08,-2.861022E-08
611.8282,-0.01450871,-5.978298E-09,NaN,-0.8315459,-1.336354E-07,NaN,-1.565038,-4.121627E-07,NaN,-1.708827,1.840067E-05,-0.03438153,8.457787E-08,NaN,NaN,-0.1268567,2.887093E-10,-1.876282E-07,-1.118133E-07,-1.609907E-08,-2.622604E-08
611.8438,-0.01450951,-5.977495E-09,NaN,-0.8317667,-1.336356E-07,NaN,-1.564354,-4.121873E-07,NaN,-1.712205,1.840117E-05,-0.02462567,8.460398E-08,NaN,NaN,-0.1260508,2.933659E-10,-2.17058E-07,-1.118139E-07,-1.371488E-08,-2.861022E-08
611.86,-0.01450951,-5.977495E-09,NaN,-0.8317667,-1.336356E-07,NaN,-1.564354,-4.121873E-07,NaN,-1.712205,1.840117E-05,-0.02462567,8.460398E-08,NaN,NaN,-0.1260508,2.933659E-10,-2.17058E-07,-1.118139E-07,-1.371488E-08,-2.861022E-08
611.8744,-0.01450898,-5.976692E-09,NaN,-0.8323033,-1.336358E-07,NaN,-1.563902,-4.122114E-07,NaN,-1.71723,1.840166E-05,-0.01512105,8.462951E-08,NaN,NaN,-0.1252607,3.026791E-10,-2.366437E-07,-1.118145E-07,-8.946512E-09,-2.622604E-08
611.8911,-0.01450781,-5.97589E-09,NaN,-0.8330327,-1.33636E-07,NaN,-1.563538,-4.122348E-07,NaN,-1.723046,1.840215E-05,-0.0058235,8.465447E-08,NaN,NaN,-0.1244861,3.073357E-10,-2.503062E-07,-1.118151E-07,-1.13307E-08,-2.861022E-08
611.9067,-0.01450635,-5.975087E-09,NaN,-0.8338082,-1.336363E-07,NaN,-1.563333,-4.122605E-07,NaN,-1.728648,1.840264E-05,0.0017206,8.468169E-08,NaN,NaN,-0.1238561,3.166489E-10,-2.5612E-07,-1.118157E-07,-1.609907E-08,-2.622604E-08
611.9224,-0.01450458,-5.974284E-09,NaN,-0.8346089,-1.336365E-07,NaN,-1.563094,-4.122857E-07,NaN,-1.734118,1.840313E-05,0.009120438,8.47083E-08,NaN,NaN,-0.1232384,3.213055E-10,-2.604635E-07,-1.118162E-07,-8.946511E-09,-2.861022E-08
611.9382,-0.01450458,-5.974284E-09,NaN,-0.8346089,-1.336365E-07,NaN,-1.563094,-4.122857E-07,NaN,-1.734118,1.840313E-05,0.009120438,8.47083E-08,NaN,NaN,-0.1232384,3.213055E-10,-2.604635E-07,-1.118162E-07,-8.946511E-09,-2.861022E-08
611.9528,-0.01450256,-5.973481E-09,NaN,-0.8354214,-1.336367E-07,NaN,-1.562842,-4.123102E-07,NaN,-1.739487,1.840363E-05,0.01638181,8.473432E-08,NaN,NaN,-0.1226329,3.259621E-10,-2.65283E-07,-1.118168E-07,-8.946511E-09,-2.622604E-08
611.9694,-0.01450036,-5.972678E-09,NaN,-0.8362377,-1.336369E-07,NaN,-1.562583,-4.123341E-07,NaN,-1.744771,1.840413E-05,0.02350483,8.475976E-08,NaN,NaN,-0.1220392,3.213055E-10,-2.667173E-07,-1.118174E-07,-1.13307E-08,-2.861022E-08
611.9849,-0.01449826,-5.971875E-09,NaN,-0.8369832,-1.336372E-07,NaN,-1.562478,-4.123603E-07,NaN,-1.749401,1.840462E-05,0.02891913,8.478745E-08,NaN,NaN,-0.1215866,3.259621E-10,-2.656183E-07,-1.11818E-07,-1.371488E-08,-2.622604E-08
612.0009,-0.01449633,-5.971071E-09,NaN,-0.8376817,-1.336374E-07,NaN,-1.562317,-4.123859E-07,NaN,-1.753683,1.840511E-05,0.0342333,8.481453E-08,NaN,NaN,-0.1211429,3.306187E-10,-2.660281E-07,-1.118186E-07,-1.609907E-08,-2.861022E-08
612.0162,-0.01449633,-5.971071E-09,NaN,-0.8376817,-1.336374E-07,NaN,-1.562317,-4.123859E-07,NaN,-1.753683,1.840511E-05,0.0342333,8.481453E-08,NaN,NaN,-0.1211429,3.306187E-10,-2.660281E-07,-1.118186E-07,-1.609907E-08,-2.861022E-08
612.0315,-0.01449455,-5.970268E-09,NaN,-0.8383481,-1.336376E-07,NaN,-1.562135,-4.124109E-07,NaN,-1.757762,1.84056E-05,0.03945207,8.484101E-08,NaN,NaN,-0.1207078,3.399319E-10,-2.662889E-07,-1.118191E-07,-1.848325E-08,-2.622604E-08
612.0476,-0.01449289,-5.969464E-09,NaN,-0.8389917,-1.336378E-07,NaN,-1.561945,-4.124352E-07,NaN,-1.761709,1.84061E-05,0.0445726,8.486688E-08,NaN,NaN,-0.1202813,3.352753E-10,-2.669408E-07,-1.118197E-07,-1.848325E-08,-2.861022E-08
612.0633,-0.01449157,-5.968661E-09,NaN,-0.839549,-1.336381E-07,NaN,-1.561927,-4.124591E-07,NaN,-1.764988,1.840659E-05,0.04801926,8.489219E-08,NaN,NaN,-0.1199926,3.445886E-10,-2.642213E-07,-1.118203E-07,-1.371488E-08,-2.622604E-08
612.0788,-0.01449157,-5.968661E-09,NaN,-0.839549,-1.336381E-07,NaN,-1.561927,-4.124591E-07,NaN,-1.764988,1.840659E-05,0.04801926,8.489219E-08,NaN,NaN,-0.1199926,3.445886E-10,-2.642213E-07,-1.118203E-07,-1.371488E-08,-2.622604E-08
612.0939,-0.01449049,-5.967857E-09,NaN,-0.8400505,-1.336383E-07,NaN,-1.561845,-4.124851E-07,NaN,-1.767918,1.84071E-05,0.05140295,8.491975E-08,NaN,NaN,-0.1197095,3.399319E-10,-2.635322E-07,-1.118208E-07,-1.609907E-08,-2.861022E-08
612.1101,-0.01448955,-5.967054E-09,NaN,-0.8405154,-1.336385E-07,NaN,-1.561737,-4.125106E-07,NaN,-1.770654,1.840759E-05,0.05473034,8.494669E-08,NaN,NaN,-0.1194319,3.492452E-10,-2.623773E-07,-1.118214E-07,-1.848325E-08,-2.622604E-08
612.1258,-0.01448868,-5.96625E-09,NaN,-0.8409556,-1.336387E-07,NaN,-1.56162,-4.125354E-07,NaN,-1.773273,1.840809E-05,0.05799675,8.497304E-08,NaN,NaN,-0.1191599,3.445886E-10,-2.61446E-07,-1.118219E-07,-1.848325E-08,-2.861022E-08
612.1415,-0.01448799,-5.965446E-09,NaN,-0.8413091,-1.336389E-07,NaN,-1.561688,-4.125596E-07,NaN,-1.775239,1.840858E-05,0.05962354,8.499879E-08,NaN,NaN,-0.1190225,3.539018E-10,-2.584658E-07,-1.118225E-07,-2.086744E-08,-2.622604E-08
612.1576,-0.01448799,-5.965446E-09,NaN,-0.8413091,-1.336389E-07,NaN,-1.561688,-4.125596E-07,NaN,-1.775239,1.840858E-05,0.05962354,8.499879E-08,NaN,NaN,-0.1190225,3.539018E-10,-2.584658E-07,-1.118225E-07,-2.086744E-08,-2.622604E-08
612.1723,-0.01448742,-5.964642E-09,NaN,-0.8416077,-1.336391E-07,NaN,-1.561683,-4.125862E-07,NaN,-1.776873,1.840907E-05,0.061222,8.502679E-08,NaN,NaN,-0.1188878,3.585584E-10,-2.571992E-07,-1.118231E-07,-1.609907E-08,-2.861022E-08
612.1887,-0.01448692,-5.963838E-09,NaN,-0.8418711,-1.336393E-07,NaN,-1.561648,-4.126121E-07,NaN,-1.778331,1.840956E-05,0.06280056,8.505418E-08,NaN,NaN,-0.1187558,3.63215E-10,-2.557463E-07,-1.118236E-07,-1.848325E-08,-2.622604E-08
612.2043,-0.01448646,-5.963035E-09,NaN,-0.8421114,-1.336395E-07,NaN,-1.561601,-4.126373E-07,NaN,-1.779689,1.841006E-05,0.06435294,8.508095E-08,NaN,NaN,-0.1186264,3.678716E-10,-2.541817E-07,-1.118242E-07,-1.848325E-08,-2.861022E-08
612.2213,-0.01448617,-5.962231E-09,NaN,-0.8422672,-1.336398E-07,NaN,-1.561744,-4.12662E-07,NaN,-1.780412,1.841055E-05,0.06429882,8.510712E-08,NaN,NaN,-0.1186289,3.725282E-10,-2.513877E-07,-1.118247E-07,-1.609907E-08,-2.622604E-08
612.2356,-0.01448617,-5.962231E-09,NaN,-0.8422672,-1.336398E-07,NaN,-1.561744,-4.12662E-07,NaN,-1.780412,1.841055E-05,0.06429882,8.510712E-08,NaN,NaN,-0.1186289,3.725282E-10,-2.513877E-07,-1.118247E-07,-1.609907E-08,-2.622604E-08
612.2502,-0.01448601,-5.961427E-09,NaN,-0.84237,-1.3364E-07,NaN,-1.561808,-4.126861E-07,NaN,-1.780822,1.841105E-05,0.06424916,8.513272E-08,NaN,NaN,-0.1186313,3.678716E-10,-2.502329E-07,-1.118253E-07,-1.133069E-08,-2.861022E-08
612.2671,-0.01448592,-5.960623E-09,NaN,-0.8424398,-1.336402E-07,NaN,-1.561837,-4.127124E-07,NaN,-1.781072,1.841154E-05,0.0642131,8.516056E-08,NaN,NaN,-0.1186337,3.725282E-10,-2.487428E-07,-1.118258E-07,-1.848325E-08,-2.622604E-08
612.2827,-0.01448587,-5.959819E-09,NaN,-0.8424888,-1.336404E-07,NaN,-1.561852,-4.127382E-07,NaN,-1.78124,1.841205E-05,0.06418319,8.518778E-08,NaN,NaN,-0.1186361,3.678716E-10,-2.471409E-07,-1.118264E-07,-1.371488E-08,-2.861022E-08
612.2985,-0.01448587,-5.959819E-09,NaN,-0.8424888,-1.336404E-07,NaN,-1.561852,-4.127382E-07,NaN,-1.78124,1.841205E-05,0.06418319,8.518778E-08,NaN,NaN,-0.1186361,3.678716E-10,-2.471409E-07,-1.118264E-07,-1.371488E-08,-2.861022E-08
612.3134,-0.01448601,-5.959015E-09,NaN,-0.8424571,-1.336406E-07,NaN,-1.562056,-4.127633E-07,NaN,-1.780789,1.841254E-05,0.06257822,8.52144E-08,NaN,NaN,-0.1187678,3.725282E-10,-2.440489E-07,-1.118269E-07,-2.086744E-08,-2.622604E-08
612.3297,-0.01448627,-5.95821E-09,NaN,-0.8423758,-1.336408E-07,NaN,-1.562177,-4.127878E-07,NaN,-1.780041,1.841303E-05,0.06100888,8.524042E-08,NaN,NaN,-0.1188969,3.771848E-10,-2.42447E-07,-1.118275E-07,-2.325162E-08,-2.861022E-08
612.3457,-0.0144866,-5.957406E-09,NaN,-0.8422642,-1.33641E-07,NaN,-1.562258,-4.128146E-07,NaN,-1.779151,1.841352E-05,0.05948386,8.526868E-08,NaN,NaN,-0.1190235,3.818414E-10,-2.407334E-07,-1.11828E-07,-2.086744E-08,-2.622604E-08
612.3613,-0.01448697,-5.956602E-09,NaN,-0.8421345,-1.336413E-07,NaN,-1.562323,-4.128407E-07,NaN,-1.778196,1.841403E-05,0.05799478,8.529632E-08,NaN,NaN,-0.1191476,3.771848E-10,-2.390198E-07,-1.118286E-07,-1.848325E-08,-2.861022E-08
612.3771,-0.01448697,-5.956602E-09,NaN,-0.8421345,-1.336413E-07,NaN,-1.562323,-4.128407E-07,NaN,-1.778196,1.841403E-05,0.05799478,8.529632E-08,NaN,NaN,-0.1191476,3.771848E-10,-2.390198E-07,-1.118286E-07,-1.848325E-08,-2.861022E-08
612.3923,-0.01448752,-5.955798E-09,NaN,-0.8419247,-1.336415E-07,NaN,-1.562571,-4.128663E-07,NaN,-1.77664,1.841452E-05,0.05496031,8.532334E-08,NaN,NaN,-0.1193987,3.86498E-10,-2.360768E-07,-1.118291E-07,-1.848325E-08,-2.622604E-08
612.4087,-0.0144882,-5.954993E-09,NaN,-0.8416666,-1.336417E-07,NaN,-1.562732,-4.128912E-07,NaN,-1.774803,1.841502E-05,0.0519912,8.534977E-08,NaN,NaN,-0.1196448,3.818414E-10,-2.341583E-07,-1.118296E-07,-2.086744E-08,-2.861022E-08
612.4244,-0.01448894,-5.95419E-09,NaN,-0.8413797,-1.33642E-07,NaN,-1.562851,-4.123957E-07,NaN,-1.77284,1.841552E-05,0.04909438,8.485578E-08,NaN,NaN,-0.1198862,3.771848E-10,-2.319976E-07,-1.118299E-07,-2.325162E-08,-2.622604E-08
612.4401,-0.01448974,-5.953386E-09,NaN,-0.8410764,-1.336423E-07,NaN,-1.562951,-4.119183E-07,NaN,-1.770827,1.841602E-05,0.04626093,8.437988E-08,NaN,NaN,-0.1201228,3.818414E-10,-2.295762E-07,-1.118301E-07,-2.563581E-08,-2.622604E-08
612.4558,-0.01448974,-5.953386E-09,NaN,-0.8410764,-1.336423E-07,NaN,-1.562951,-4.119183E-07,NaN,-1.770827,1.841602E-05,0.04626093,8.437988E-08,NaN,NaN,-0.1201228,3.818414E-10,-2.295762E-07,-1.118301E-07,-2.563581E-08,-2.622604E-08
612.4708,-0.01449071,-5.952582E-09,NaN,-0.8406949,-1.336427E-07,NaN,-1.563223,-4.114558E-07,NaN,-1.768229,1.841652E-05,0.04191022,8.391887E-08,NaN,NaN,-0.1204841,3.86498E-10,-2.237275E-07,-1.118303E-07,-2.563581E-08,-2.622604E-08
612.4873,-0.01449181,-5.951778E-09,NaN,-0.8402669,-1.33643E-07,NaN,-1.563407,-4.110022E-07,NaN,-1.765366,1.841702E-05,0.03765305,8.346682E-08,NaN,NaN,-0.1208384,3.86498E-10,-2.209335E-07,-1.118304E-07,-2.086744E-08,-2.622604E-08
612.5029,-0.01449298,-5.950974E-09,NaN,-0.8398122,-1.336433E-07,NaN,-1.563548,-4.105603E-07,NaN,-1.762391,1.841752E-05,0.03349356,8.302639E-08,NaN,NaN,-0.1211858,3.86498E-10,-2.174503E-07,-1.118306E-07,-2.086744E-08,-2.622604E-08
612.5187,-0.01449298,-5.950974E-09,NaN,-0.8398122,-1.336433E-07,NaN,-1.563548,-4.105603E-07,NaN,-1.762391,1.841752E-05,0.03349356,8.302639E-08,NaN,NaN,-0.1211858,3.86498E-10,-2.174503E-07,-1.118306E-07,-2.086744E-08,-2.622604E-08
612.5339,-0.01449448,-5.95017E-09,NaN,-0.8392736,-1.336436E-07,NaN,-1.563841,-4.104224E-07,NaN,-1.758808,1.841802E-05,0.0278482,8.288995E-08,NaN,NaN,-0.1216557,3.86498E-10,-2.112198E-07,-1.118308E-07,-2.325162E-08,-2.861022E-08
612.55,-0.01449636,-5.949367E-09,NaN,-0.8386856,-1.336439E-07,NaN,-1.564041,-4.102899E-07,NaN,-1.754954,1.841852E-05,0.02232553,8.275893E-08,NaN,NaN,-0.1221164,3.958112E-10,-2.069473E-07,-1.11831E-07,-1.848325E-08,-2.622604E-08
612.5659,-0.01449855,-5.948563E-09,NaN,-0.8380699,-1.336441E-07,NaN,-1.564195,-4.101599E-07,NaN,-1.750993,1.841901E-05,0.01692612,8.263041E-08,NaN,NaN,-0.1225681,4.004679E-10,-2.018484E-07,-1.118312E-07,-2.086743E-08,-2.861022E-08
612.5814,-0.014501,-5.94776E-09,NaN,-0.8374398,-1.336444E-07,NaN,-1.564324,-4.100323E-07,NaN,-1.747008,1.841951E-05,0.01164031,8.250433E-08,NaN,NaN,-0.1230109,4.051245E-10,-1.9708E-07,-1.118313E-07,-2.325162E-08,-2.622604E-08
612.5969,-0.014501,-5.94776E-09,NaN,-0.8374398,-1.336444E-07,NaN,-1.564324,-4.100323E-07,NaN,-1.747008,1.841951E-05,0.01164031,8.250433E-08,NaN,NaN,-0.1230109,4.051245E-10,-1.9708E-07,-1.118313E-07,-2.325162E-08,-2.622604E-08
612.612,-0.01450386,-5.946957E-09,NaN,-0.8367342,-1.336447E-07,NaN,-1.564593,-4.099072E-07,NaN,-1.742464,1.842001E-05,0.004891807,8.238065E-08,NaN,NaN,-0.1235745,4.097811E-10,-1.896201E-07,-1.118315E-07,-2.56358E-08,-2.861022E-08
612.6284,-0.01450711,-5.946153E-09,NaN,-0.8359853,-1.33645E-07,NaN,-1.564777,-4.097843E-07,NaN,-1.737681,1.84205E-05,-0.001711148,8.225933E-08,NaN,NaN,-0.124127,4.190943E-10,-1.824489E-07,-1.118317E-07,-1.848325E-08,-2.622604E-08
612.6442,-0.01451068,-5.945349E-09,NaN,-0.835213,-1.336453E-07,NaN,-1.564918,-4.096638E-07,NaN,-1.732815,1.842101E-05,-0.008170778,8.214032E-08,NaN,NaN,-0.1246687,4.190943E-10,-1.745885E-07,-1.118319E-07,-2.325162E-08,-2.861022E-08
612.6599,-0.01451068,-5.945349E-09,NaN,-0.835213,-1.336453E-07,NaN,-1.564918,-4.096638E-07,NaN,-1.732815,1.842101E-05,-0.008170778,8.214032E-08,NaN,NaN,-0.1246687,4.190943E-10,-1.745885E-07,-1.118319E-07,-2.325162E-08,-2.861022E-08
612.6747,-0.01451449,-5.944545E-09,NaN,-0.8344297,-1.336456E-07,NaN,-1.565033,-4.095456E-07,NaN,-1.727942,1.84215E-05,-0.01449607,8.202358E-08,NaN,NaN,-0.1251997,4.284075E-10,-1.678272E-07,-1.118321E-07,-1.848325E-08,-2.622604E-08
612.6912,-0.01451871,-5.943741E-09,NaN,-0.8335738,-1.336458E-07,NaN,-1.565267,-4.094296E-07,NaN,-1.722526,1.842199E-05,-0.022258,8.190904E-08,NaN,NaN,-0.1258498,4.377207E-10,-1.571356E-07,-1.118322E-07,-2.086743E-08,-2.861022E-08
612.7087,-0.01452331,-5.942938E-09,NaN,-0.8326768,-1.336461E-07,NaN,-1.565421,-4.093157E-07,NaN,-1.716885,1.842248E-05,-0.02985287,8.179668E-08,NaN,NaN,-0.1264871,4.470339E-10,-1.477851E-07,-1.118324E-07,-2.325162E-08,-2.622604E-08
612.7225,-0.01452821,-5.942134E-09,NaN,-0.8317586,-1.336464E-07,NaN,-1.565533,-4.09204E-07,NaN,-1.711174,1.842298E-05,-0.03728586,8.168646E-08,NaN,NaN,-0.1271119,4.563472E-10,-1.377268E-07,-1.118326E-07,-2.086743E-08,-2.861022E-08
612.7382,-0.01452821,-5.942134E-09,NaN,-0.8317586,-1.336464E-07,NaN,-1.565533,-4.09204E-07,NaN,-1.711174,1.842298E-05,-0.03728586,8.168646E-08,NaN,NaN,-0.1271119,4.563472E-10,-1.377268E-07,-1.118326E-07,-2.086743E-08,-2.861022E-08
612.753,-0.01453334,-5.94133E-09,NaN,-0.8308314,-1.336467E-07,NaN,-1.565621,-4.090972E-07,NaN,-1.705469,1.842348E-05,-0.04456536,8.158114E-08,NaN,NaN,-0.1277244,4.563472E-10,-1.290096E-07,-1.118327E-07,-2.086743E-08,-2.622604E-08
612.7698,-0.01453888,-5.940526E-09,NaN,-0.8298334,-1.33647E-07,NaN,-1.565802,-4.089924E-07,NaN,-1.699233,1.842399E-05,-0.05325504,8.147782E-08,NaN,NaN,-0.1284544,4.516905E-10,-1.155986E-07,-1.118329E-07,-2.325162E-08,-2.861022E-08
612.7854,-0.01454478,-5.939722E-09,NaN,-0.8287963,-1.336473E-07,NaN,-1.565912,-4.088895E-07,NaN,-1.692785,1.842449E-05,-0.06175908,8.137645E-08,NaN,NaN,-0.12917,4.516905E-10,-1.018895E-07,-1.118331E-07,-2.325162E-08,-2.622604E-08
612.801,-0.01455098,-5.938918E-09,NaN,-0.8277396,-1.336475E-07,NaN,-1.565983,-4.087886E-07,NaN,-1.686278,1.8425E-05,-0.07008458,8.127699E-08,NaN,NaN,-0.1298716,4.470339E-10,-8.8702E-08,-1.118333E-07,-2.56358E-08,-2.861022E-08
612.8166,-0.01455098,-5.938918E-09,NaN,-0.8277396,-1.336475E-07,NaN,-1.565983,-4.087886E-07,NaN,-1.686278,1.8425E-05,-0.07008458,8.127699E-08,NaN,NaN,-0.1298716,4.470339E-10,-8.8702E-08,-1.118333E-07,-2.56358E-08,-2.861022E-08
612.8313,-0.0145574,-5.938114E-09,NaN,-0.8266756,-1.336478E-07,NaN,-1.56603,-4.086895E-07,NaN,-1.679788,1.842549E-05,-0.0782392,8.117941E-08,NaN,NaN,-0.1305594,4.563472E-10,-7.491842E-08,-1.118334E-07,-2.801999E-08,-2.622604E-08
612.8477,-0.01456357,-5.93731E-09,NaN,-0.8256122,-1.336481E-07,NaN,-1.566061,-4.085923E-07,NaN,-1.673353,1.842598E-05,-0.086228,8.108367E-08,NaN,NaN,-0.1312328,4.656604E-10,-6.135836E-08,-1.118336E-07,-3.040418E-08,-2.861022E-08
612.8633,-0.0145696,-5.936506E-09,NaN,-0.8245539,-1.336484E-07,NaN,-1.566078,-4.084968E-07,NaN,-1.666991,1.842648E-05,-0.0940553,8.098973E-08,NaN,NaN,-0.1318931,4.749736E-10,-4.764929E-08,-1.118338E-07,-2.801999E-08,-2.622604E-08
612.8791,-0.0145696,-5.936506E-09,NaN,-0.8245539,-1.336484E-07,NaN,-1.566078,-4.084968E-07,NaN,-1.666991,1.842648E-05,-0.0940553,8.098973E-08,NaN,NaN,-0.1318931,4.749736E-10,-4.764929E-08,-1.118338E-07,-2.801999E-08,-2.622604E-08
612.8942,-0.01457556,-5.935701E-09,NaN,-0.8235036,-1.336486E-07,NaN,-1.566084,-4.084032E-07,NaN,-1.660711,1.842698E-05,-0.1017248,8.089756E-08,NaN,NaN,-0.1325404,4.70317E-10,-3.543034E-08,-1.118339E-07,-2.801999E-08,-2.861022E-08
612.9108,-0.01458147,-5.934896E-09,NaN,-0.8224627,-1.336489E-07,NaN,-1.566081,-4.083113E-07,NaN,-1.654516,1.842748E-05,-0.1092399,8.080712E-08,NaN,NaN,-0.133175,4.70317E-10,-2.20193E-08,-1.118341E-07,-2.801999E-08,-2.622604E-08
612.9263,-0.01458716,-5.934091E-09,NaN,-0.8215018,-1.336492E-07,NaN,-1.566011,-4.08221E-07,NaN,-1.648982,1.842799E-05,-0.1150646,8.071838E-08,NaN,NaN,-0.1336679,4.656604E-10,-1.8145E-08,-1.118343E-07,-2.801999E-08,-2.861022E-08
612.9419,-0.0145926,-5.933287E-09,NaN,-0.8205944,-1.336495E-07,NaN,-1.565969,-4.081325E-07,NaN,-1.64381,1.842849E-05,-0.1207771,8.06313E-08,NaN,NaN,-0.1341511,4.656604E-10,-1.099244E-08,-1.118344E-07,-2.086743E-08,-2.622604E-08
612.9575,-0.0145926,-5.933287E-09,NaN,-0.8205944,-1.336495E-07,NaN,-1.565969,-4.081325E-07,NaN,-1.64381,1.842849E-05,-0.1207771,8.06313E-08,NaN,NaN,-0.1341511,4.656604E-10,-1.099244E-08,-1.118344E-07,-2.086743E-08,-2.622604E-08
612.9725,-0.01459782,-5.932482E-09,NaN,-0.8197242,-1.336497E-07,NaN,-1.565937,-4.080484E-07,NaN,-1.638855,1.842899E-05,-0.1263776,8.054869E-08,NaN,NaN,-0.1346248,4.749736E-10,-2.349766E-09,-1.118346E-07,-1.848325E-08,-2.861022E-08
612.9889,-0.01460287,-5.931677E-09,NaN,-0.8188808,-1.3365E-07,NaN,-1.565907,-4.079658E-07,NaN,-1.634043,1.842949E-05,-0.1318672,8.046761E-08,NaN,NaN,-0.1350893,4.749736E-10,6.143896E-09,-1.118348E-07,-1.133069E-08,-2.622604E-08
613.0047,-0.01460757,-5.930872E-09,NaN,-0.818127,-1.336503E-07,NaN,-1.565839,-4.078848E-07,NaN,-1.629913,1.842998E-05,-0.1357156,8.038806E-08,NaN,NaN,-0.1354154,4.842868E-10,4.802791E-09,-1.11835E-07,-1.133069E-08,-2.861022E-08
613.0203,-0.01461194,-5.930067E-09,NaN,-0.8174319,-1.336505E-07,NaN,-1.565793,-4.078052E-07,NaN,-1.626144,1.843048E-05,-0.1394889,8.031E-08,NaN,NaN,-0.1357351,4.936E-10,5.845873E-09,-1.118351E-07,-6.56232E-09,-2.622604E-08
613.036,-0.01461194,-5.930067E-09,NaN,-0.8174319,-1.336505E-07,NaN,-1.565793,-4.078052E-07,NaN,-1.626144,1.843048E-05,-0.1394889,8.031E-08,NaN,NaN,-0.1357351,4.936E-10,5.845873E-09,-1.118351E-07,-6.56232E-09,-2.622604E-08
613.0508,-0.01461603,-5.929262E-09,NaN,-0.8167762,-1.336508E-07,NaN,-1.565755,-4.077271E-07,NaN,-1.622583,1.843098E-05,-0.1431879,8.023338E-08,NaN,NaN,-0.1360485,4.889434E-10,8.826104E-09,-1.118353E-07,-4.178134E-09,-2.861022E-08
613.0672,-0.0146199,-5.928456E-09,NaN,-0.8161476,-1.336511E-07,NaN,-1.565721,-4.076505E-07,NaN,-1.619151,1.843148E-05,-0.1468137,8.015825E-08,NaN,NaN,-0.1363558,4.842868E-10,1.225337E-08,-1.118354E-07,5.902376E-10,-2.622604E-08
613.0828,-0.01462339,-5.927651E-09,NaN,-0.8156079,-1.336513E-07,NaN,-1.565664,-4.075752E-07,NaN,-1.616383,1.843198E-05,-0.1488406,8.008452E-08,NaN,NaN,-0.1365279,4.842868E-10,5.249826E-09,-1.118356E-07,5.902376E-10,-2.861022E-08
613.0985,-0.01462339,-5.927651E-09,NaN,-0.8156079,-1.336513E-07,NaN,-1.565664,-4.075752E-07,NaN,-1.616383,1.843198E-05,-0.1488406,8.008452E-08,NaN,NaN,-0.1365279,4.842868E-10,5.249826E-09,-1.118356E-07,5.902376E-10,-2.861022E-08
613.1136,-0.01462653,-5.926846E-09,NaN,-0.8151255,-1.336516E-07,NaN,-1.565623,-4.075014E-07,NaN,-1.61396,1.843249E-05,-0.1508265,8.001216E-08,NaN,NaN,-0.1366965,4.749736E-10,1.375524E-09,-1.118358E-07,5.902376E-10,-2.622604E-08
613.1298,-0.01462936,-5.926041E-09,NaN,-0.8146806,-1.336519E-07,NaN,-1.565588,-4.074289E-07,NaN,-1.611724,1.8433E-05,-0.1527726,7.994114E-08,NaN,NaN,-0.1368618,4.610038E-10,-8.596499E-10,-1.118359E-07,-4.178134E-09,-2.861022E-08
613.1455,-0.01463197,-5.925235E-09,NaN,-0.8142609,-1.336522E-07,NaN,-1.565557,-4.073577E-07,NaN,-1.6096,1.84335E-05,-0.1546799,7.987144E-08,NaN,NaN,-0.1370239,4.610038E-10,-1.902731E-09,-1.118361E-07,-1.793948E-09,-2.622604E-08
613.1614,-0.0146342,-5.92443E-09,NaN,-0.8139278,-1.336524E-07,NaN,-1.565512,-4.072878E-07,NaN,-1.608121,1.843401E-05,-0.1550252,7.980304E-08,NaN,NaN,-0.1370536,4.516906E-10,-1.471773E-08,-1.118363E-07,-6.56232E-09,-2.861022E-08
613.1769,-0.0146342,-5.92443E-09,NaN,-0.8139278,-1.336524E-07,NaN,-1.565512,-4.072878E-07,NaN,-1.608121,1.843401E-05,-0.1550252,7.980304E-08,NaN,NaN,-0.1370536,4.516906E-10,-1.471773E-08,-1.118363E-07,-6.56232E-09,-2.861022E-08
613.1919,-0.01463607,-5.923624E-09,NaN,-0.8136498,-1.336527E-07,NaN,-1.565477,-4.072192E-07,NaN,-1.606967,1.843451E-05,-0.1553613,7.97359E-08,NaN,NaN,-0.1370827,4.47034E-10,-2.33604E-08,-1.118364E-07,-4.178134E-09,-2.622604E-08
613.2093,-0.01463764,-5.922819E-09,NaN,-0.8134069,-1.336529E-07,NaN,-1.565446,-4.071546E-07,NaN,-1.605983,1.8435E-05,-0.1556893,7.967283E-08,NaN,NaN,-0.1371112,4.516906E-10,-2.932087E-08,-1.118366E-07,5.902376E-10,-2.861022E-08
613.224,-0.01463899,-5.922013E-09,NaN,-0.8131868,-1.336532E-07,NaN,-1.565417,-4.070912E-07,NaN,-1.605091,1.843551E-05,-0.1560101,7.961093E-08,NaN,NaN,-0.1371392,4.47034E-10,-3.513232E-08,-1.118367E-07,-1.793948E-09,-2.622604E-08
613.2398,-0.01463899,-5.922013E-09,NaN,-0.8131868,-1.336532E-07,NaN,-1.565417,-4.070912E-07,NaN,-1.605091,1.843551E-05,-0.1560101,7.961093E-08,NaN,NaN,-0.1371392,4.47034E-10,-3.513232E-08,-1.118367E-07,-1.793948E-09,-2.622604E-08
613.2546,-0.01463996,-5.921208E-09,NaN,-0.8130511,-1.336534E-07,NaN,-1.565379,-4.070289E-07,NaN,-1.604826,1.843601E-05,-0.1548012,7.955016E-08,NaN,NaN,-0.1370374,4.377207E-10,-5.092755E-08,-1.118369E-07,5.902376E-10,-2.861022E-08
613.271,-0.01464075,-5.920402E-09,NaN,-0.812968,-1.336537E-07,NaN,-1.565347,-4.069678E-07,NaN,-1.604869,1.843652E-05,-0.1536125,7.949051E-08,NaN,NaN,-0.1369376,4.330641E-10,-6.344452E-08,-1.118371E-07,2.974423E-09,-2.622604E-08
613.2867,-0.01464142,-5.919595E-09,NaN,-0.8129178,-1.336539E-07,NaN,-1.565317,-4.069106E-07,NaN,-1.605064,1.843701E-05,-0.1524452,7.943478E-08,NaN,NaN,-0.1368397,4.377207E-10,-7.357731E-08,-1.118372E-07,2.974423E-09,-2.861022E-08
613.3024,-0.01464203,-5.918789E-09,NaN,-0.8128881,-1.336542E-07,NaN,-1.565288,-4.068544E-07,NaN,-1.605334,1.843751E-05,-0.1512997,7.938007E-08,NaN,NaN,-0.1367438,4.330641E-10,-8.207098E-08,-1.118374E-07,2.974423E-09,-2.622604E-08
613.3179,-0.01464203,-5.918789E-09,NaN,-0.8128881,-1.336542E-07,NaN,-1.565288,-4.068544E-07,NaN,-1.605334,1.843751E-05,-0.1512997,7.938007E-08,NaN,NaN,-0.1367438,4.330641E-10,-8.207098E-08,-1.118374E-07,2.974423E-09,-2.622604E-08
613.3329,-0.01464246,-5.917983E-09,NaN,-0.812939,-1.336545E-07,NaN,-1.565248,-4.067992E-07,NaN,-1.606215,1.843802E-05,-0.1486523,7.932636E-08,NaN,NaN,-0.1365205,4.237509E-10,-9.995237E-08,-1.118376E-07,2.974423E-09,-2.861022E-08
613.3491,-0.01464279,-5.917177E-09,NaN,-0.8130395,-1.336547E-07,NaN,-1.565212,-4.06745E-07,NaN,-1.607386,1.843852E-05,-0.1460528,7.927362E-08,NaN,NaN,-0.1363015,4.190943E-10,-1.150025E-07,-1.118377E-07,7.742795E-09,-2.622604E-08
613.3651,-0.01464303,-5.916371E-09,NaN,-0.81317,-1.33655E-07,NaN,-1.565176,-4.066917E-07,NaN,-1.608694,1.843903E-05,-0.143502,7.922184E-08,NaN,NaN,-0.1360868,4.097811E-10,-1.270725E-07,-1.118379E-07,2.974423E-09,-2.861022E-08
613.3806,-0.01464323,-5.915565E-09,NaN,-0.8133186,-1.336552E-07,NaN,-1.56514,-4.066394E-07,NaN,-1.610059,1.843953E-05,-0.1409997,7.9171E-08,NaN,NaN,-0.1358764,4.051245E-10,-1.379503E-07,-1.11838E-07,2.974423E-09,-2.622604E-08
613.3964,-0.01464323,-5.915565E-09,NaN,-0.8133186,-1.336552E-07,NaN,-1.56514,-4.066394E-07,NaN,-1.610059,1.843953E-05,-0.1409997,7.9171E-08,NaN,NaN,-0.1358764,4.051245E-10,-1.379503E-07,-1.11838E-07,2.974423E-09,-2.622604E-08
613.4116,-0.01464327,-5.914758E-09,NaN,-0.8135468,-1.336555E-07,NaN,-1.565088,-4.06588E-07,NaN,-1.612018,1.844002E-05,-0.1370197,7.912109E-08,NaN,NaN,-0.1355408,4.097811E-10,-1.583649E-07,-1.118382E-07,1.012698E-08,-2.861022E-08
613.4278,-0.01464319,-5.913952E-09,NaN,-0.8138233,-1.336557E-07,NaN,-1.565038,-4.065403E-07,NaN,-1.614251,1.844053E-05,-0.1331134,7.907492E-08,NaN,NaN,-0.1352118,4.051245E-10,-1.756503E-07,-1.118383E-07,1.251117E-08,-2.622604E-08
613.4432,-0.01464303,-5.913146E-09,NaN,-0.8141282,-1.33656E-07,NaN,-1.564989,-4.064935E-07,NaN,-1.616604,1.844103E-05,-0.1292811,7.902956E-08,NaN,NaN,-0.1348892,3.958113E-10,-1.900299E-07,-1.118385E-07,1.489535E-08,-2.861022E-08
613.4589,-0.01464303,-5.913146E-09,NaN,-0.8141282,-1.33656E-07,NaN,-1.564989,-4.064935E-07,NaN,-1.616604,1.844103E-05,-0.1292811,7.902956E-08,NaN,NaN,-0.1348892,3.958113E-10,-1.900299E-07,-1.118385E-07,1.489535E-08,-2.861022E-08
613.4739,-0.01464269,-5.912339E-09,NaN,-0.8145187,-1.336562E-07,NaN,-1.564916,-4.064474E-07,NaN,-1.619573,1.844153E-05,-0.1239935,7.898502E-08,NaN,NaN,-0.1344437,4.004679E-10,-2.125306E-07,-1.118387E-07,1.727954E-08,-2.622604E-08
613.4905,-0.01464223,-5.911532E-09,NaN,-0.8149602,-1.336565E-07,NaN,-1.564845,-4.064022E-07,NaN,-1.622821,1.844202E-05,-0.118805,7.894129E-08,NaN,NaN,-0.1340069,4.051245E-10,-2.313061E-07,-1.118388E-07,1.251116E-08,-2.861022E-08
613.5061,-0.01464168,-5.910725E-09,NaN,-0.8154312,-1.336568E-07,NaN,-1.564774,-4.063578E-07,NaN,-1.626184,1.844251E-05,-0.1137149,7.889835E-08,NaN,NaN,-0.1335786,4.097811E-10,-2.460582E-07,-1.11839E-07,1.012698E-08,-2.622604E-08
613.5217,-0.01464108,-5.909918E-09,NaN,-0.8159183,-1.33657E-07,NaN,-1.5647,-4.063141E-07,NaN,-1.629579,1.844302E-05,-0.1087223,7.885617E-08,NaN,NaN,-0.1331587,4.004679E-10,-2.596183E-07,-1.118391E-07,5.358607E-09,-2.861022E-08
