JMolnar6/NonAnthroHands_User_Study/HandsLoggerWithURDF/tempdata/files/Reachy_PID0_JointMotion_gesture_13_4.csv
Time,r_shoulder,r_shoulder_x,r_upper_arm,r_forearm,r_wrist,r_wrist2hand,
822.437,-0.2468585,-0.3820242,0.05320963,-0.5815226,0.05936041,0.1629357
822.4509,-0.2470588,-0.381431,0.05417516,-0.5808915,0.05969073,0.1627713
822.4661,-0.2472567,-0.3808447,0.05513241,-0.5802716,0.06001117,0.1626101
822.481,-0.2474524,-0.3802655,0.05608145,-0.5796626,0.06032192,0.1624521
822.4958,-0.2474524,-0.3802655,0.05608145,-0.5796626,0.06032192,0.1624521
822.5095,-0.2476458,-0.3796932,0.05702233,-0.5790642,0.06062322,0.1622971
822.5248,-0.247837,-0.3791277,0.05795511,-0.5784764,0.06091527,0.1621452
822.5416,-0.248026,-0.3785689,0.05887986,-0.577899,0.06119826,0.1619963
822.5551,-0.248026,-0.3785689,0.05887986,-0.577899,0.06119826,0.1619963
822.569,-0.2482128,-0.3780167,0.05979661,-0.5773317,0.06147241,0.1618503
822.5833,-0.2483974,-0.3774711,0.06070543,-0.5767745,0.06173792,0.1617071
822.5979,-0.2483974,-0.3774711,0.06070543,-0.5767745,0.06173792,0.1617071
822.6135,-0.2485799,-0.3769321,0.06160639,-0.5762271,0.06199496,0.1615668
822.6271,-0.2487604,-0.3763994,0.06249952,-0.5756893,0.06224373,0.1614292
822.6418,-0.2489387,-0.3758731,0.06338489,-0.5751611,0.06248442,0.1612943
822.6566,-0.2489387,-0.3758731,0.06338489,-0.5751611,0.06248442,0.1612943
822.6707,-0.249115,-0.3753531,0.06426254,-0.5746422,0.06271722,0.161162
822.686,-0.2492893,-0.3748392,0.06513253,-0.5741324,0.0629423,0.1610324
822.7007,-0.2494615,-0.3743314,0.06599491,-0.5736318,0.06315982,0.1609053
822.7152,-0.2494615,-0.3743314,0.06599491,-0.5736318,0.06315982,0.1609053
822.7292,-0.2496318,-0.3738298,0.06684974,-0.5731399,0.06336997,0.1607806
822.7447,-0.2498001,-0.373334,0.06769706,-0.5726568,0.06357292,0.1606584
822.7592,-0.2498001,-0.373334,0.06769706,-0.5726568,0.06357292,0.1606584
822.7733,-0.2499665,-0.3728442,0.06853692,-0.5721822,0.06376883,0.1605386
822.7889,-0.250131,-0.3723602,0.06936939,-0.5717161,0.06395785,0.1604212
822.8032,-0.2502936,-0.371882,0.07019451,-0.5712583,0.06414015,0.160306
822.8196,-0.2502936,-0.371882,0.07019451,-0.5712583,0.06414015,0.160306
822.8336,-0.2504542,-0.3714094,0.07101233,-0.5708086,0.06431588,0.1601931
822.847,-0.2506131,-0.3709425,0.0718229,-0.5703669,0.06448518,0.1600824
822.8616,-0.2507701,-0.3704811,0.07262628,-0.569933,0.06464823,0.1599739
822.8762,-0.2507701,-0.3704811,0.07262628,-0.569933,0.06464823,0.1599739
822.8902,-0.2509253,-0.3700253,0.07342251,-0.5695069,0.06480515,0.1598675
822.9061,-0.2510788,-0.3695748,0.07421164,-0.5690883,0.06495609,0.1597632
822.92,-0.2512304,-0.3691298,0.07499372,-0.5686772,0.0651012,0.159661
822.9349,-0.2512304,-0.3691298,0.07499372,-0.5686772,0.0651012,0.159661
822.9489,-0.2513803,-0.36869,0.0757688,-0.5682735,0.0652406,0.1595607
822.9643,-0.2515285,-0.3682555,0.07653692,-0.5678769,0.06537443,0.1594624
822.979,-0.2515285,-0.3682555,0.07653692,-0.5678769,0.06537443,0.1594624
822.9929,-0.251675,-0.3678261,0.07729814,-0.5674875,0.06550284,0.1593661
823.0085,-0.2518198,-0.3674018,0.0780525,-0.5671049,0.06562593,0.1592716
823.0229,-0.251963,-0.3669826,0.07880004,-0.5667292,0.06574384,0.159179
823.0374,-0.251963,-0.3669826,0.07880004,-0.5667292,0.06574384,0.159179
823.0515,-0.2521045,-0.3665684,0.07954084,-0.5663603,0.0658567,0.1590881
823.0671,-0.2522443,-0.3661592,0.08027492,-0.565998,0.06596461,0.1589991
823.0814,-0.2523826,-0.3657548,0.08100233,-0.5656421,0.06606771,0.1589118
823.096,-0.2523826,-0.3657548,0.08100233,-0.5656421,0.06606771,0.1589118
823.1121,-0.2525192,-0.3653552,0.08172312,-0.5652926,0.06616611,0.1588262
823.1264,-0.2526543,-0.3649604,0.08243734,-0.5649494,0.06625993,0.1587423
823.1399,-0.2526543,-0.3649604,0.08243734,-0.5649494,0.06625993,0.1587423
823.1541,-0.2527879,-0.3645703,0.08314503,-0.5646123,0.06634928,0.1586601
823.1691,-0.2529199,-0.3641848,0.08384623,-0.5642813,0.06643426,0.1585794
823.1838,-0.2530504,-0.3638039,0.08454101,-0.5639563,0.06651498,0.1585003
823.1984,-0.2530504,-0.3638039,0.08454101,-0.5639563,0.06651498,0.1585003
823.2126,-0.2531793,-0.3634276,0.0852294,-0.563637,0.06659154,0.1584228
823.228,-0.2533068,-0.3630557,0.08591144,-0.5633236,0.06666405,0.1583468
823.2427,-0.2534329,-0.3626883,0.08658718,-0.5630158,0.06673263,0.1582723
823.2573,-0.2534329,-0.3626883,0.08658718,-0.5630158,0.06673263,0.1582723
823.2714,-0.2535574,-0.3623252,0.08725667,-0.5627135,0.06679735,0.1581992
823.2867,-0.2536806,-0.3619665,0.08791995,-0.5624167,0.06685832,0.1581276
823.3014,-0.2538023,-0.361612,0.08857706,-0.5621252,0.06691563,0.1580574
823.3162,-0.2538023,-0.361612,0.08857706,-0.5621252,0.06691563,0.1580574
823.33,-0.2539227,-0.3612618,0.08922806,-0.561839,0.06696937,0.1579885
823.3454,-0.2540416,-0.3609157,0.08987298,-0.5615579,0.06701964,0.157921
823.36,-0.2540416,-0.3609157,0.08987298,-0.5615579,0.06701964,0.157921
823.377,-0.2541592,-0.3605738,0.09051187,-0.561282,0.06706654,0.1578548
823.3903,-0.2542754,-0.3602359,0.09114476,-0.561011,0.06711013,0.15779
823.405,-0.2543903,-0.3599021,0.09177172,-0.5607449,0.0671505,0.1577263
823.4185,-0.2543903,-0.3599021,0.09177172,-0.5607449,0.0671505,0.1577263
823.4325,-0.2545039,-0.3595722,0.09239278,-0.5604837,0.06718775,0.157664
823.4478,-0.2546161,-0.3592463,0.09300798,-0.5602272,0.06722195,0.1576028
823.4632,-0.2547595,-0.3588196,0.09323745,-0.5594425,0.06792769,0.1572286
823.4771,-0.2547595,-0.3588196,0.09323745,-0.5594425,0.06792769,0.1572286
823.4912,-0.2549218,-0.3583327,0.09343308,-0.5585434,0.06890289,0.1568619
823.5067,-0.2550952,-0.3578108,0.09370983,-0.5576011,0.06994879,0.1565024
823.5216,-0.255275,-0.3572697,0.09408136,-0.556649,0.07099044,0.15615
823.5361,-0.255275,-0.3572697,0.09408136,-0.556649,0.07099044,0.15615
823.5499,-0.2554256,-0.3568238,0.09491407,-0.5562354,0.07132877,0.1561188
823.5654,-0.2555572,-0.3564386,0.09583198,-0.5559533,0.07136206,0.156088
823.58,-0.2556764,-0.3560926,0.09670081,-0.5557341,0.07129051,0.1560577
823.5947,-0.2556764,-0.3560926,0.09670081,-0.5557341,0.07129051,0.1560577
823.6086,-0.255755,-0.3558769,0.09787726,-0.5560784,0.0705176,0.1563423
823.6239,-0.2558077,-0.3557425,0.09901261,-0.5565569,0.06947475,0.1566211
823.6385,-0.2558077,-0.3557425,0.09901261,-0.5565569,0.06947475,0.1566211
823.6556,-0.2558438,-0.355659,0.1000069,-0.557091,0.06836684,0.1568944
823.6687,-0.2558694,-0.3556073,0.100861,-0.5576439,0.06726825,0.1571624
823.6834,-0.2558572,-0.3556786,0.1019836,-0.5587313,0.06552915,0.1577394
823.697,-0.2558572,-0.3556786,0.1019836,-0.5587313,0.06552915,0.1577394
823.7109,-0.2558213,-0.3558257,0.103049,-0.5599322,0.0635547,0.1583049
823.7261,-0.2557705,-0.3560188,0.1039651,-0.5611722,0.06153895,0.1588593
823.7408,-0.2557106,-0.3562395,0.1047349,-0.5624166,0.05955168,0.1594028
823.7554,-0.2557106,-0.3562395,0.1047349,-0.5624166,0.05955168,0.1594028
823.7692,-0.2556129,-0.3565808,0.1057623,-0.5641832,0.05694115,0.16025
823.7845,-0.2554918,-0.3569951,0.1067227,-0.5660505,0.05411134,0.1610804
823.7993,-0.2554918,-0.3569951,0.1067227,-0.5660505,0.05411134,0.1610804
823.8132,-0.2553565,-0.3574525,0.1075243,-0.5679445,0.05125676,0.1618945
823.8287,-0.2551804,-0.358039,0.1085392,-0.5703639,0.04777634,0.1630069
823.8434,-0.2549795,-0.3587026,0.1094457,-0.5728786,0.0440902,0.1640974
823.8579,-0.2549795,-0.3587026,0.1094457,-0.5728786,0.0440902,0.1640974
823.8719,-0.2547638,-0.3594107,0.1101589,-0.5754105,0.04039877,0.1651665
823.8873,-0.2545398,-0.3601431,0.1106901,-0.5779237,0.03677218,0.1662146
823.902,-0.254279,-0.3609917,0.1114319,-0.5809351,0.03256069,0.1675565
823.9167,-0.254279,-0.3609917,0.1114319,-0.5809351,0.03256069,0.1675565
823.9305,-0.2539964,-0.3619083,0.1120742,-0.5840234,0.02816147,0.1688719
823.9478,-0.2537012,-0.3628626,0.1125301,-0.5871148,0.02376994,0.1701616
823.9612,-0.2533993,-0.3638358,0.1128075,-0.5901757,0.01945488,0.1714259
823.9752,-0.2533993,-0.3638358,0.1128075,-0.5901757,0.01945488,0.1714259
823.9892,-0.253062,-0.364921,0.113282,-0.5937237,0.0145684,0.1729797
824.0045,-0.2527041,-0.3660702,0.1136499,-0.5973374,0.009503949,0.174503
824.0189,-0.2527041,-0.3660702,0.1136499,-0.5973374,0.009503949,0.174503
824.0328,-0.2523347,-0.3672538,0.1138239,-0.600944,0.00445931,0.1759965
824.0482,-0.2519272,-0.3685578,0.1141441,-0.6050418,-0.001161334,0.1777748
824.0629,-0.2514976,-0.3699302,0.1143148,-0.609201,-0.006949353,0.1795183
824.0776,-0.2514976,-0.3699302,0.1143148,-0.609201,-0.006949353,0.1795183
824.0917,-0.251056,-0.3713384,0.1142577,-0.613345,-0.01270009,0.1812276
824.1072,-0.2506087,-0.3727624,0.1139908,-0.6174394,-0.0183433,0.1829034
824.1218,-0.2501271,-0.3742943,0.113867,-0.6219996,-0.02452483,0.1848605
824.1364,-0.2501271,-0.3742943,0.113867,-0.6219996,-0.02452483,0.1848605
824.1505,-0.2496263,-0.3758858,0.1136064,-0.6266047,-0.03086014,0.1867793
824.1657,-0.2491155,-0.3775068,0.1131288,-0.6311829,-0.0371482,0.1886605
824.1802,-0.2486005,-0.3791387,0.1124494,-0.6357018,-0.04331968,0.1905048
824.1952,-0.2486005,-0.3791387,0.1124494,-0.6357018,-0.04331968,0.1905048
824.2088,-0.2480526,-0.3808745,0.1118987,-0.6406766,-0.05001909,0.1926271
824.2261,-0.2474864,-0.3826666,0.111207,-0.6456871,-0.05686577,0.1947078
824.2397,-0.2474864,-0.3826666,0.111207,-0.6456871,-0.05686577,0.1947078
824.2535,-0.2469112,-0.3844851,0.1102956,-0.6506624,-0.0636553,0.1967478
824.2679,-0.2463001,-0.3864164,0.1094587,-0.6560981,-0.07097895,0.1990619
824.2825,-0.2456694,-0.3884084,0.1084397,-0.6615663,-0.07844034,0.2013306
824.2971,-0.2456694,-0.3884084,0.1084397,-0.6615663,-0.07844034,0.2013306
824.311,-0.2450289,-0.3904287,0.1071713,-0.6669928,-0.08582775,0.203555
824.3264,-0.2443851,-0.3924573,0.1056808,-0.6723445,-0.09307043,0.2057358
824.3411,-0.2437091,-0.3945867,0.1042684,-0.6781331,-0.1008132,0.2081878
824.3556,-0.2437091,-0.3945867,0.1042684,-0.6781331,-0.1008132,0.2081878
824.3696,-0.2430161,-0.3967682,0.1026944,-0.6839399,-0.1086833,0.2105919
824.3849,-0.2423153,-0.3989722,0.1008895,-0.6896954,-0.1164718,0.2129489
824.3997,-0.2423153,-0.3989722,0.1008895,-0.6896954,-0.1164718,0.2129489
824.4139,-0.2415799,-0.4012845,0.09911434,-0.6958919,-0.1247697,0.2155737
824.429,-0.2408261,-0.4036531,0.09714288,-0.7021042,-0.1331868,0.2181472
824.4435,-0.240064,-0.4060456,0.09491739,-0.7082596,-0.1415066,0.2206704
824.4583,-0.240064,-0.4060456,0.09491739,-0.7082596,-0.1415066,0.2206704
824.4724,-0.2392999,-0.408442,0.09247196,-0.7143264,-0.1496583,0.223144
824.4877,-0.238505,-0.4109346,0.09006746,-0.720812,-0.158289,0.2258831
824.5022,-0.2376942,-0.4134752,0.08749364,-0.7273008,-0.1670306,0.2285687
824.5178,-0.2376942,-0.4134752,0.08749364,-0.7273008,-0.1670306,0.2285687
824.5332,-0.236877,-0.4160338,0.08469017,-0.7337245,-0.1756689,0.2312017
824.5464,-0.2360592,-0.4185919,0.08168742,-0.7400537,-0.1841336,0.2337831
824.5613,-0.2352115,-0.4212429,0.0787167,-0.7467935,-0.193073,0.2366278
824.5754,-0.2352115,-0.4212429,0.0787167,-0.7467935,-0.193073,0.2366278
824.5897,-0.2343489,-0.423939,0.07558217,-0.7535307,-0.2021192,0.2394169
824.6049,-0.2334807,-0.4266506,0.07222693,-0.7601983,-0.2110541,0.2421514
824.6193,-0.2334807,-0.4266506,0.07222693,-0.7601983,-0.2110541,0.2421514
824.6334,-0.2325796,-0.4294642,0.06884882,-0.7672815,-0.2204713,0.2451462
824.6486,-0.231662,-0.4323277,0.06527308,-0.7743613,-0.2299843,0.2480825
824.6633,-0.230738,-0.4352089,0.0614583,-0.781368,-0.2393683,0.2509612
824.678,-0.230738,-0.4352089,0.0614583,-0.781368,-0.2393683,0.2509612
824.6925,-0.229814,-0.4380881,0.05744855,-0.7882715,-0.2485535,0.2537836
824.7075,-0.2288606,-0.4410576,0.05343517,-0.79557,-0.258195,0.2568644
824.7221,-0.2278931,-0.4440693,0.04925774,-0.8028548,-0.2679255,0.259885
824.7369,-0.2278931,-0.4440693,0.04925774,-0.8028548,-0.2679255,0.259885
824.7507,-0.2269211,-0.4470932,0.04487172,-0.8100604,-0.2775225,0.2628466
824.766,-0.2259501,-0.450111,0.04031659,-0.817159,-0.2869168,0.26575
824.7807,-0.2249507,-0.4532162,0.03575149,-0.8246451,-0.2967666,0.2689103
824.7975,-0.2249507,-0.4532162,0.03575149,-0.8246451,-0.2967666,0.2689103
824.8103,-0.2239381,-0.456361,0.03103193,-0.832114,-0.306701,0.2720089
824.8246,-0.2229214,-0.4595158,0.02611794,-0.839501,-0.3164942,0.2750468
824.8393,-0.2229214,-0.4595158,0.02611794,-0.839501,-0.3164942,0.2750468
824.8532,-0.2218733,-0.4627673,0.02113961,-0.847281,-0.3267499,0.2783389
824.8688,-0.2208103,-0.4660633,0.01597796,-0.855045,-0.3370763,0.2815668
824.8831,-0.2197426,-0.4693717,0.01061031,-0.8627255,-0.347243,0.2847314
824.8975,-0.2197426,-0.4693717,0.01061031,-0.8627255,-0.347243,0.2847314
824.912,-0.2186764,-0.472673,0.005089296,-0.8702942,-0.357183,0.287834
824.9272,-0.2175821,-0.4760596,-0.0004703403,-0.8782363,-0.3675658,0.2911893
824.942,-0.2164753,-0.4794831,-0.006175872,-0.8861542,-0.3780141,0.2944793
824.9568,-0.2164753,-0.4794831,-0.006175872,-0.8861542,-0.3780141,0.2944793
824.9707,-0.2153655,-0.4829139,-0.01205398,-0.8939844,-0.3882994,0.2977048
824.9861,-0.2142583,-0.4863338,-0.01805751,-0.9017005,-0.3983558,0.300867
825.0007,-0.2131239,-0.4898362,-0.02410574,-0.9097831,-0.4088573,0.3042808
825.0154,-0.2131239,-0.4898362,-0.02410574,-0.9097831,-0.4088573,0.3042808
825.0292,-0.2119776,-0.4933732,-0.0302884,-0.9178399,-0.4194186,0.3076281
825.0446,-0.2108288,-0.4969157,-0.0366266,-0.9258082,-0.4298092,0.3109097
825.0593,-0.2108288,-0.4969157,-0.0366266,-0.9258082,-0.4298092,0.3109097
825.0756,-0.2096497,-0.50055,-0.04306281,-0.9341491,-0.4406497,0.3144407
825.0895,-0.2084571,-0.5042242,-0.04965735,-0.9424674,-0.4515326,0.3179028
825.1031,-0.2072612,-0.5079063,-0.05641311,-0.9506973,-0.4622256,0.321297
825.1178,-0.2072612,-0.5079063,-0.05641311,-0.9506973,-0.4622256,0.321297
825.1317,-0.2060683,-0.5115765,-0.0632714,-0.9588111,-0.4726681,0.3246247
825.1471,-0.2048485,-0.5153277,-0.07019969,-0.9672787,-0.4835478,0.3282007
825.1617,-0.2036174,-0.5191114,-0.07724874,-0.9757171,-0.4944656,0.331707
825.1763,-0.2036174,-0.5191114,-0.07724874,-0.9757171,-0.4944656,0.331707
825.1906,-0.2023846,-0.522898,-0.08442579,-0.9840642,-0.5051916,0.3351445
825.206,-0.2011559,-0.5266693,-0.09167822,-0.9922938,-0.5156665,0.3385146
825.2207,-0.199901,-0.5305189,-0.09900852,-1.00087,-0.526583,0.3421322
825.2355,-0.199901,-0.5305189,-0.09900852,-1.00087,-0.526583,0.3421322
825.2493,-0.1986354,-0.534399,-0.1064478,-1.009418,-0.5375298,0.3456792
825.2645,-0.1973687,-0.5382802,-0.1139969,-1.017875,-0.5482774,0.3491567
825.2793,-0.1973687,-0.5382802,-0.1139969,-1.017875,-0.5482774,0.3491567
825.2932,-0.1960725,-0.5422493,-0.1216752,-1.026686,-0.5594678,0.3528796
825.3087,-0.1947641,-0.546254,-0.129481,-1.035472,-0.5706681,0.3565299
825.3233,-0.1934537,-0.5502626,-0.1373974,-1.04417,-0.5816506,0.3601086
825.3375,-0.1934537,-0.5502626,-0.1373974,-1.04417,-0.5816506,0.3601086
825.3538,-0.1921478,-0.5542554,-0.1453629,-1.052749,-0.5923644,0.3636172
825.3681,-0.1908156,-0.5583252,-0.1534315,-1.061664,-0.6035151,0.3673705
825.3815,-0.1894734,-0.5624236,-0.1615928,-1.07055,-0.6146716,0.3710505
825.3962,-0.1894734,-0.5624236,-0.1615928,-1.07055,-0.6146716,0.3710505
825.4103,-0.1881308,-0.566521,-0.1698336,-1.079343,-0.6256101,0.3746585
825.4257,-0.1867936,-0.5705994,-0.1780989,-1.088018,-0.6362815,0.3781956
825.4403,-0.1854309,-0.5747524,-0.1864782,-1.097022,-0.6473943,0.381977
825.4548,-0.1854309,-0.5747524,-0.1864782,-1.097022,-0.6473943,0.381977
825.4688,-0.1840586,-0.5789322,-0.1949385,-1.105998,-0.6585034,0.3856845
825.4842,-0.1826864,-0.5831094,-0.20346,-1.114882,-0.6693886,0.3893194
825.499,-0.1826864,-0.5831094,-0.20346,-1.114882,-0.6693886,0.3893194
825.5132,-0.1812855,-0.5873709,-0.2121435,-1.124104,-0.6807121,0.3931967
825.5283,-0.1798735,-0.5916644,-0.2209208,-1.133304,-0.6920101,0.3969982
825.543,-0.1784608,-0.5959581,-0.229756,-1.142416,-0.7030685,0.4007252
825.5574,-0.1784608,-0.5959581,-0.229756,-1.142416,-0.7030685,0.4007252
825.5715,-0.1770537,-0.6002326,-0.238589,-1.151409,-0.7138487,0.4043791
825.5875,-0.1756211,-0.6045807,-0.2475636,-1.16072,-0.7250656,0.408275
825.6015,-0.1741795,-0.608954,-0.2566009,-1.170004,-0.7362531,0.4120948
825.616,-0.1741795,-0.608954,-0.2566009,-1.170004,-0.7362531,0.4120948
825.632,-0.1727387,-0.6133229,-0.2656685,-1.179198,-0.7472031,0.4158398
825.6465,-0.1713045,-0.6176694,-0.2747125,-1.188273,-0.7578791,0.4195114
825.6597,-0.1713045,-0.6176694,-0.2747125,-1.188273,-0.7578791,0.4195114
825.6737,-0.1698453,-0.6220873,-0.2839123,-1.197658,-0.7689942,0.4234246
825.689,-0.1683776,-0.6265287,-0.2931629,-1.207019,-0.7800698,0.4272614
825.7035,-0.1669111,-0.6309643,-0.3024261,-1.216291,-0.7909061,0.431023
825.718,-0.1669111,-0.6309643,-0.3024261,-1.216291,-0.7909061,0.431023
825.7322,-0.1654165,-0.6354809,-0.3118882,-1.225883,-0.8021739,0.4350245
825.7476,-0.1639118,-0.6400265,-0.321408,-1.235458,-0.8133825,0.4389478
825.762,-0.1624075,-0.644569,-0.3309345,-1.244946,-0.8243414,0.4427942
825.7767,-0.1624075,-0.644569,-0.3309345,-1.244946,-0.8243414,0.4427942
825.7908,-0.1609101,-0.6490893,-0.3404125,-1.254315,-0.8350236,0.4465652
825.8063,-0.1593876,-0.6536802,-0.350077,-1.263984,-0.8461346,0.4505758
825.8206,-0.1578571,-0.6582932,-0.359772,-1.273632,-0.8571835,0.4545081
825.8353,-0.1578571,-0.6582932,-0.359772,-1.273632,-0.8571835,0.4545081
825.8492,-0.1563285,-0.6628989,-0.3694496,-1.28319,-0.8679885,0.4583633
825.8646,-0.1548076,-0.6674793,-0.3790615,-1.292628,-0.878524,0.462143
825.8792,-0.1548076,-0.6674793,-0.3790615,-1.292628,-0.878524,0.462143
825.8929,-0.1532622,-0.6721282,-0.3888764,-1.30236,-0.8894846,0.4661622
825.9084,-0.1517092,-0.6767977,-0.3987093,-1.312073,-0.9003765,0.4701029
825.925,-0.1501585,-0.6814586,-0.4085089,-1.321698,-0.9110284,0.4739664
825.9384,-0.1501585,-0.6814586,-0.4085089,-1.321698,-0.9110284,0.4739664
825.9522,-0.1485801,-0.6861978,-0.4185486,-1.331626,-0.9220943,0.4780678
825.9665,-0.1469925,-0.690963,-0.4286084,-1.341544,-0.9330785,0.4820891
825.9811,-0.1454065,-0.6957225,-0.438628,-1.351375,-0.943819,0.4860317
825.9957,-0.1454065,-0.6957225,-0.438628,-1.351375,-0.943819,0.4860317
826.0096,-0.1438284,-0.700457,-0.4485609,-1.361086,-0.9542957,0.4898969
826.0251,-0.1422257,-0.7052594,-0.4587286,-1.37108,-0.9651757,0.4940001
826.0396,-0.1422257,-0.7052594,-0.4587286,-1.37108,-0.9651757,0.4940001
826.0535,-0.1406158,-0.7100814,-0.4688928,-1.381059,-0.9759745,0.4980231
826.069,-0.1390088,-0.7148934,-0.4789971,-1.390948,-0.9865395,0.5019673
826.0835,-0.1374107,-0.7196776,-0.4890012,-1.400716,-0.9968505,0.5058342
826.0981,-0.1374107,-0.7196776,-0.4890012,-1.400716,-0.9968505,0.5058342
826.1121,-0.1357884,-0.7245278,-0.4992569,-1.410761,-1.007552,0.5099391
826.1274,-0.1341592,-0.729396,-0.5094972,-1.420793,-1.018173,0.5139637
826.142,-0.1325335,-0.7342532,-0.5196645,-1.430737,-1.028571,0.5179095
826.1567,-0.1325335,-0.7342532,-0.5196645,-1.430737,-1.028571,0.5179095
826.1708,-0.1308803,-0.7391862,-0.5301139,-1.440969,-1.039345,0.5220917
826.1862,-0.1292187,-0.7441428,-0.5405471,-1.451196,-1.050036,0.5261921
826.2003,-0.1275599,-0.7490911,-0.5509012,-1.461337,-1.060506,0.5302123
826.217,-0.1275599,-0.7490911,-0.5509012,-1.461337,-1.060506,0.5302123
826.231,-0.1259101,-0.7540122,-0.5611385,-1.471355,-1.070732,0.5341537
826.2452,-0.1256404,-0.7550284,-0.5558453,-1.466239,-1.058685,0.5264072
826.2587,-0.1256404,-0.7550284,-0.5558453,-1.466239,-1.058685,0.5264072
826.2728,-0.1261734,-0.7536626,-0.5468632,-1.455654,-1.040032,0.5188072
826.2879,-0.1271874,-0.7508333,-0.5362424,-1.442546,-1.019844,0.5113544
826.3023,-0.1284777,-0.7471209,-0.5250427,-1.428335,-0.9993504,0.504047
826.3169,-0.1284777,-0.7471209,-0.5250427,-1.428335,-0.9993504,0.504047
826.3309,-0.1298831,-0.7429914,-0.5141431,-1.41412,-0.979556,0.4971963
826.3461,-0.1313469,-0.7386265,-0.5034501,-1.399975,-0.9601194,0.4904799
826.3607,-0.1328361,-0.7341378,-0.4930037,-1.385976,-0.9409509,0.4838952
826.3754,-0.1328361,-0.7341378,-0.4930037,-1.385976,-0.9409509,0.4838952
826.3894,-0.1342955,-0.7296981,-0.483168,-1.372577,-0.9227208,0.4777533
826.4048,-0.1357305,-0.7253076,-0.4736658,-1.359527,-0.9049346,0.471732
826.4192,-0.1357305,-0.7253076,-0.4736658,-1.359527,-0.9049346,0.471732
826.4331,-0.1371445,-0.7209662,-0.4644442,-1.346751,-0.8874446,0.4658287
826.4485,-0.1385394,-0.7166738,-0.455467,-1.334215,-0.8702224,0.4600412
826.4634,-0.1398802,-0.7125347,-0.4470323,-1.32232,-0.8539706,0.4546808
826.4777,-0.1398802,-0.7125347,-0.4470323,-1.32232,-0.8539706,0.4546808
826.4917,-0.1411833,-0.7085069,-0.4389009,-1.310773,-0.8381658,0.4494258
826.507,-0.1424584,-0.7045648,-0.4310201,-1.299491,-0.8226424,0.4442738
826.5233,-0.1437112,-0.7006922,-0.4233502,-1.288431,-0.8073692,0.4392228
826.5369,-0.1437112,-0.7006922,-0.4233502,-1.288431,-0.8073692,0.4392228
826.5518,-0.1449088,-0.6969837,-0.4161513,-1.278001,-0.7930677,0.4345845
826.565,-0.1460688,-0.6933914,-0.4092274,-1.267892,-0.779204,0.4300374
826.5795,-0.1460688,-0.6933914,-0.4092274,-1.267892,-0.779204,0.4300374
826.5948,-0.1472012,-0.689886,-0.4025297,-1.258024,-0.7655982,0.4255794
826.6087,-0.1482761,-0.6865537,-0.396274,-1.24879,-0.7529528,0.4215226
826.6233,-0.1493123,-0.6833416,-0.3902823,-1.239863,-0.7407282,0.4175456
826.638,-0.1493123,-0.6833416,-0.3902823,-1.239863,-0.7407282,0.4175456
826.6517,-0.150321,-0.6802172,-0.3845031,-1.231163,-0.7287364,0.4136465
826.6671,-0.1513087,-0.6771603,-0.378889,-1.222647,-0.7169436,0.4098239
826.6817,-0.1522436,-0.6742628,-0.3736406,-1.21473,-0.7060912,0.4063899
826.6962,-0.1522436,-0.6742628,-0.3736406,-1.21473,-0.7060912,0.4063899
826.7103,-0.1531428,-0.6714754,-0.3686243,-1.207085,-0.6956455,0.4030235
826.7256,-0.1540169,-0.6687679,-0.3637985,-1.199639,-0.6854079,0.3997232
826.7404,-0.1548719,-0.6661212,-0.3591166,-1.192353,-0.6753413,0.3964876
826.7547,-0.1548719,-0.6661212,-0.3591166,-1.192353,-0.6753413,0.3964876
826.7684,-0.1556758,-0.663628,-0.3547521,-1.185651,-0.6661915,0.393629
826.7838,-0.1564458,-0.66124,-0.3506007,-1.179196,-0.6574297,0.3908269
826.7986,-0.1564458,-0.66124,-0.3506007,-1.179196,-0.6574297,0.3908269
826.8124,-0.1571919,-0.6589269,-0.346625,-1.172919,-0.6488492,0.3880797
826.8297,-0.1578847,-0.6567746,-0.3429627,-1.16723,-0.6411597,0.3857001
826.8441,-0.1585426,-0.6547303,-0.3395136,-1.161779,-0.6338325,0.3833674
826.8576,-0.1585426,-0.6547303,-0.3395136,-1.161779,-0.6338325,0.3833674
826.8715,-0.1591764,-0.6527615,-0.3362351,-1.156494,-0.626658,0.3810806
826.8856,-0.159793,-0.6508476,-0.3330742,-1.151336,-0.6195975,0.3788385
826.9,-0.1603608,-0.6490806,-0.330164,-1.146733,-0.6134016,0.3769541
826.9146,-0.1603608,-0.6490806,-0.330164,-1.146733,-0.6134016,0.3769541
826.9286,-0.1608967,-0.6474115,-0.3274383,-1.14234,-0.6075528,0.375107
826.9438,-0.1614111,-0.6458099,-0.3248659,-1.138089,-0.6018353,0.3732962
826.9584,-0.1614111,-0.6458099,-0.3248659,-1.138089,-0.6018353,0.3732962
826.9725,-0.1618746,-0.6443616,-0.3225521,-1.134397,-0.5969569,0.3718346
826.9877,-0.1623053,-0.6430138,-0.3204282,-1.130908,-0.592398,0.3704019
827.0023,-0.1627143,-0.6417339,-0.3184563,-1.127549,-0.5879421,0.3689975
827.0165,-0.1627143,-0.6417339,-0.3184563,-1.127549,-0.5879421,0.3689975
827.0307,-0.1631082,-0.6405014,-0.3165814,-1.124285,-0.5835485,0.3676205
827.046,-0.1634558,-0.6394081,-0.3149106,-1.121549,-0.5799683,0.3665843
827.0607,-0.1637738,-0.6384052,-0.3134029,-1.11899,-0.5766931,0.3655687
827.0751,-0.1637738,-0.6384052,-0.3134029,-1.11899,-0.5766931,0.3655687
827.0891,-0.1640724,-0.6374625,-0.3120317,-1.116541,-0.5735025,0.364573
827.1045,-0.1643579,-0.636561,-0.310746,-1.114168,-0.5703524,0.3635969
827.1192,-0.1643579,-0.636561,-0.310746,-1.114168,-0.5703524,0.3635969
827.133,-0.1645987,-0.6357935,-0.3096451,-1.11231,-0.5679922,0.3629537
827.1502,-0.1648113,-0.6351119,-0.3086985,-1.110611,-0.5659167,0.3623234
827.1636,-0.1650057,-0.6344863,-0.3078816,-1.109007,-0.5639034,0.3617055
827.1783,-0.1650057,-0.6344863,-0.3078816,-1.109007,-0.5639034,0.3617055
827.1912,-0.1651528,-0.6340025,-0.3072729,-1.107921,-0.562656,0.3614134
827.2064,-0.1652705,-0.6336082,-0.3068308,-1.106991,-0.5616646,0.3611275
827.2208,-0.1653696,-0.633271,-0.3065213,-1.106148,-0.5607086,0.3608471
827.2355,-0.1653696,-0.633271,-0.3065213,-1.106148,-0.5607086,0.3608471
827.2492,-0.1654568,-0.6329704,-0.3062875,-1.105356,-0.5597456,0.3605723
827.2647,-0.1655012,-0.6327983,-0.3062178,-1.105055,-0.5595264,0.3606166
827.2792,-0.1655012,-0.6327983,-0.3062178,-1.105055,-0.5595264,0.3606166
827.293,-0.165519,-0.6327062,-0.3062902,-1.104886,-0.5595508,0.3606604
827.3085,-0.1655206,-0.6326639,-0.306481,-1.104787,-0.5595961,0.3607033
827.3231,-0.1655128,-0.6326526,-0.3067377,-1.104724,-0.5596175,0.3607455
827.3378,-0.1655128,-0.6326526,-0.3067377,-1.104724,-0.5596175,0.3607455
827.3517,-0.165464,-0.6327644,-0.3071508,-1.105137,-0.5603637,0.3611005
827.3668,-0.1653903,-0.6329516,-0.3077005,-1.105671,-0.5613346,0.3614489
827.3815,-0.1653017,-0.6331846,-0.3083633,-1.106261,-0.5623075,0.3617905
827.3964,-0.1653017,-0.6331846,-0.3083633,-1.106261,-0.5623075,0.3617905
827.4103,-0.165169,-0.6335492,-0.3092152,-1.107332,-0.5639846,0.3624392
827.4255,-0.16501,-0.6339934,-0.3102189,-1.108521,-0.5658588,0.3630755
827.4402,-0.1648355,-0.6344848,-0.31134,-1.10976,-0.5677099,0.3636993
827.4567,-0.1648355,-0.6344848,-0.31134,-1.10976,-0.5677099,0.3636993
827.4705,-0.1646524,-0.635003,-0.3125206,-1.111016,-0.5694971,0.3643109
827.4847,-0.1644295,-0.63564,-0.3138544,-1.112726,-0.5719709,0.3652243
827.4982,-0.1644295,-0.63564,-0.3138544,-1.112726,-0.5719709,0.3652243
827.5121,-0.1641834,-0.6363472,-0.3153168,-1.114534,-0.5746311,0.36612
827.5273,-0.1639241,-0.6370946,-0.3168824,-1.116378,-0.5772572,0.3669983
827.5419,-0.1636581,-0.6378634,-0.3184983,-1.118226,-0.5798067,0.3678593
827.5566,-0.1636581,-0.6378634,-0.3184983,-1.118226,-0.5798067,0.3678593
827.5704,-0.1633537,-0.6387464,-0.3202674,-1.120515,-0.5830284,0.3690172
827.5859,-0.1630275,-0.6396959,-0.3221608,-1.122893,-0.5864195,0.3701527
827.6006,-0.1626893,-0.6406819,-0.324152,-1.125297,-0.5897607,0.371266
827.615,-0.1626893,-0.6406819,-0.324152,-1.125297,-0.5897607,0.371266
827.629,-0.1623101,-0.6417906,-0.3263336,-1.128147,-0.5937556,0.3726712
827.6443,-0.1619076,-0.6429697,-0.3286551,-1.131086,-0.5978934,0.3740492
827.6591,-0.1619076,-0.6429697,-0.3286551,-1.131086,-0.5978934,0.3740492
827.6734,-0.1614928,-0.6441869,-0.3310778,-1.134045,-0.6019586,0.3754002
827.6882,-0.1610724,-0.645422,-0.3335433,-1.136991,-0.6059139,0.3767247
827.7029,-0.1606151,-0.6467671,-0.33617,-1.14036,-0.6105099,0.378337
827.7176,-0.1606151,-0.6467671,-0.33617,-1.14036,-0.6105099,0.378337
827.7314,-0.1601374,-0.6481739,-0.3389141,-1.143799,-0.6152397,0.3799179
827.7487,-0.1596496,-0.6496122,-0.3417443,-1.147247,-0.6198887,0.381468
827.7632,-0.1591578,-0.6510634,-0.3446075,-1.150673,-0.6244185,0.3829876
827.7766,-0.1591578,-0.6510634,-0.3446075,-1.150673,-0.6244185,0.3829876
827.7907,-0.1586303,-0.6526207,-0.3476371,-1.154509,-0.6295779,0.3847912
827.8049,-0.1580837,-0.654236,-0.3507793,-1.158408,-0.6348556,0.3865597
827.8194,-0.1580837,-0.654236,-0.3507793,-1.158408,-0.6348556,0.3865597
827.8334,-0.1575279,-0.6558797,-0.3540007,-1.162309,-0.6400394,0.3882936
827.8487,-0.1569335,-0.657638,-0.3574272,-1.166626,-0.6458358,0.3903072
827.8633,-0.1563185,-0.6594588,-0.3609796,-1.171008,-0.6517252,0.3922816
827.8778,-0.1563185,-0.6594588,-0.3609796,-1.171008,-0.6517252,0.3922816
827.8918,-0.1556939,-0.6613098,-0.3646126,-1.175388,-0.6575009,0.3942174
827.9073,-0.1550663,-0.6631709,-0.3682688,-1.179732,-0.6631305,0.3961152
827.922,-0.1544041,-0.6651345,-0.3721063,-1.184469,-0.6693633,0.3982895
827.9368,-0.1544041,-0.6651345,-0.3721063,-1.184469,-0.6693633,0.3982895
827.9504,-0.153724,-0.667152,-0.3760477,-1.189257,-0.6756809,0.4004215
827.9657,-0.1530363,-0.6691937,-0.3800538,-1.194032,-0.6818787,0.4025117
827.9803,-0.152347,-0.6712409,-0.3840722,-1.198763,-0.6879244,0.404561
827.9951,-0.152347,-0.6712409,-0.3840722,-1.198763,-0.6879244,0.404561
828.009,-0.1516241,-0.6733869,-0.3882804,-1.203877,-0.694564,0.4068837
828.0242,-0.1508844,-0.6755838,-0.3925865,-1.209036,-0.701274,0.4091612
828.0388,-0.1508844,-0.6755838,-0.3925865,-1.209036,-0.701274,0.4091612
828.0549,-0.1501379,-0.677802,-0.3969484,-1.214177,-0.7078542,0.4113942
828.0692,-0.1493549,-0.6801277,-0.401538,-1.219707,-0.7150119,0.413897
828.0826,-0.1485535,-0.6825089,-0.4062352,-1.225286,-0.7222166,0.4163511
828.097,-0.1485535,-0.6825089,-0.4062352,-1.225286,-0.7222166,0.4163511
828.1111,-0.1477448,-0.6849134,-0.4109871,-1.230844,-0.729275,0.4187571
828.1261,-0.1469354,-0.6873213,-0.4157388,-1.23635,-0.736161,0.4211159
828.1409,-0.1460932,-0.6898251,-0.4206998,-1.242221,-0.7436166,0.4237422
828.1555,-0.1460932,-0.6898251,-0.4206998,-1.242221,-0.7436166,0.4237422
828.1693,-0.1452352,-0.6923761,-0.4257469,-1.248129,-0.7511117,0.4263173
828.1848,-0.1443718,-0.6949447,-0.430832,-1.254008,-0.7584568,0.428842
828.1992,-0.1443718,-0.6949447,-0.430832,-1.254008,-0.7584568,0.428842
828.2134,-0.1434729,-0.6976171,-0.4361619,-1.260259,-0.7663563,0.4316308
828.2287,-0.142557,-0.7003407,-0.4415846,-1.266551,-0.7742742,0.4343653
828.2433,-0.1416351,-0.7030836,-0.4470425,-1.272813,-0.7820285,0.4370462
828.258,-0.1416351,-0.7030836,-0.4470425,-1.272813,-0.7820285,0.4370462
828.2721,-0.1407139,-0.7058258,-0.4524832,-1.279012,-0.7895967,0.4396746
828.2875,-0.1397609,-0.7086599,-0.4581541,-1.285559,-0.797711,0.4425651
828.3021,-0.1387935,-0.7115373,-0.4638965,-1.292136,-0.8058366,0.4453993
828.3164,-0.1387935,-0.7115373,-0.4638965,-1.292136,-0.8058366,0.4453993
828.3304,-0.137822,-0.7144282,-0.4696573,-1.298675,-0.813797,0.4481779
828.3478,-0.1368523,-0.7173145,-0.4753894,-1.305145,-0.8215699,0.450902
828.3611,-0.1358518,-0.7202894,-0.4813639,-1.311956,-0.8298781,0.4538865
828.3748,-0.1358518,-0.7202894,-0.4813639,-1.311956,-0.8298781,0.4538865
828.3889,-0.1348376,-0.723305,-0.4874009,-1.318793,-0.8381864,0.4568127
828.4041,-0.1338199,-0.7263319,-0.4934453,-1.32559,-0.8463259,0.4596816
828.4183,-0.1338199,-0.7263319,-0.4934453,-1.32559,-0.8463259,0.4596816
828.4323,-0.1327683,-0.7294567,-0.4997649,-1.332736,-0.8549843,0.462808
828.4476,-0.1317015,-0.7326269,-0.5061504,-1.339915,-0.8636259,0.4658733
828.4621,-0.1306307,-0.7358108,-0.5125387,-1.347053,-0.8720893,0.4688786
828.4766,-0.1306307,-0.7358108,-0.5125387,-1.347053,-0.8720893,0.4688786
828.4907,-0.1295624,-0.7389885,-0.5188832,-1.354115,-0.8803561,0.471825
828.5062,-0.1284637,-0.7422528,-0.5254939,-1.361503,-0.8891293,0.4750274
828.5205,-0.1273522,-0.7455551,-0.5321498,-1.368914,-0.8978805,0.4781672
828.5355,-0.1273522,-0.7455551,-0.5321498,-1.368914,-0.8978805,0.4781672
828.5491,-0.1262383,-0.7488657,-0.5387925,-1.376279,-0.9064548,0.4812455
828.5645,-0.1251281,-0.7521665,-0.5453805,-1.383562,-0.9148337,0.4842635
828.579,-0.1251281,-0.7521665,-0.5453805,-1.383562,-0.9148337,0.4842635
828.5928,-0.1239881,-0.755551,-0.5522475,-1.391164,-0.9237043,0.4875361
828.6083,-0.1228361,-0.7589712,-0.5591497,-1.398788,-0.9325458,0.4907448
828.623,-0.1216824,-0.7623976,-0.5660276,-1.406362,-0.9412114,0.4938906
828.6371,-0.1216824,-0.7623976,-0.5660276,-1.406362,-0.9412114,0.4938906
828.6533,-0.1204958,-0.7659171,-0.5732132,-1.414265,-0.9503522,0.4972885
828.6686,-0.1192956,-0.7694771,-0.5804341,-1.422196,-0.9594537,0.5006201
828.6818,-0.1180931,-0.7730459,-0.5876254,-1.430077,-0.9683748,0.5038863
828.6952,-0.1180931,-0.7730459,-0.5876254,-1.430077,-0.9683748,0.5038863
828.7093,-0.1168948,-0.7766039,-0.5947473,-1.437872,-0.9770977,0.5070886
828.7249,-0.1156671,-0.7802439,-0.6021715,-1.445974,-0.9862754,0.5105419
828.7389,-0.1156671,-0.7802439,-0.6021715,-1.445974,-0.9862754,0.5105419
828.7527,-0.1144281,-0.7839172,-0.6096123,-1.454095,-0.9954119,0.5139277
828.7679,-0.1131883,-0.7875943,-0.6170089,-1.462161,-1.004372,0.5172472
828.7827,-0.1119539,-0.7912571,-0.6243261,-1.470136,-1.013138,0.5205017
828.7973,-0.1119539,-0.7912571,-0.6243261,-1.470136,-1.013138,0.5205017
828.811,-0.1106906,-0.7949992,-0.6319581,-1.47841,-1.022338,0.5240061
828.8264,-0.1094166,-0.7987726,-0.6395966,-1.486704,-1.031496,0.5274421
828.8412,-0.1081424,-0.8025481,-0.6471809,-1.494941,-1.040484,0.5308108
828.8557,-0.1081424,-0.8025481,-0.6471809,-1.494941,-1.040484,0.5308108
828.8697,-0.1068363,-0.8064121,-0.6551036,-1.503487,-1.04989,0.5344273
828.8848,-0.105518,-0.8103125,-0.6630315,-1.51206,-1.059251,0.5379731
828.8994,-0.105518,-0.8103125,-0.6630315,-1.51206,-1.059251,0.5379731
828.9133,-0.104199,-0.8142174,-0.6708999,-1.520576,-1.068443,0.5414495
828.9285,-0.1028858,-0.8181075,-0.6786754,-1.528996,-1.077441,0.5448577
828.9446,-0.1029015,-0.8183156,-0.6708351,-1.523353,-1.065837,0.5372149
828.9576,-0.1029015,-0.8183156,-0.6708351,-1.523353,-1.065837,0.5372149
828.9738,-0.1037,-0.8162718,-0.6596138,-1.51251,-1.04828,0.5297171
828.9879,-0.1049564,-0.812853,-0.6470739,-1.499258,-1.029193,0.5223646
829.0013,-0.1064672,-0.8086113,-0.6341598,-1.484952,-1.009697,0.5151554
829.0159,-0.1064672,-0.8086113,-0.6341598,-1.484952,-1.009697,0.5151554
829.0299,-0.1081123,-0.8038889,-0.6212792,-1.470251,-0.9901621,0.5080873
829.045,-0.1098228,-0.7988961,-0.6085985,-1.455472,-0.9707376,0.5011576
829.0596,-0.1098228,-0.7988961,-0.6085985,-1.455472,-0.9707376,0.5011576
829.0737,-0.1115602,-0.7937616,-0.5961795,-1.440773,-0.951494,0.4943636
829.0889,-0.113303,-0.7885637,-0.5840406,-1.426227,-0.9324669,0.4877027
829.1033,-0.1150397,-0.7833502,-0.5721828,-1.411873,-0.9136757,0.4811724
829.1179,-0.1150397,-0.7833502,-0.5721828,-1.411873,-0.9136757,0.4811724
829.132,-0.1167639,-0.77815,-0.5606006,-1.397725,-0.8951315,0.47477
829.1473,-0.1184723,-0.7729807,-0.5492867,-1.383793,-0.8768411,0.4684931
829.1619,-0.1201632,-0.7678527,-0.5382336,-1.370077,-0.8588086,0.4623392
829.1766,-0.1201632,-0.7678527,-0.5382336,-1.370077,-0.8588086,0.4623392
829.1906,-0.1218358,-0.7627723,-0.5274336,-1.356578,-0.8410369,0.4563059
829.206,-0.1234898,-0.7577429,-0.5168796,-1.343293,-0.8235274,0.4503908
829.2205,-0.125125,-0.7527666,-0.5065647,-1.330221,-0.8062813,0.4445916
829.2351,-0.125125,-0.7527666,-0.5065647,-1.330221,-0.8062813,0.4445916
829.249,-0.1267415,-0.7478444,-0.4964823,-1.317359,-0.7892991,0.438906
829.2662,-0.1283394,-0.7429767,-0.4866262,-1.304703,-0.7725806,0.4333318
829.28,-0.1283394,-0.7429767,-0.4866262,-1.304703,-0.7725806,0.4333318
829.2947,-0.1299189,-0.7381634,-0.4769901,-1.29225,-0.7561257,0.4278669
829.3079,-0.1314801,-0.7334045,-0.4675681,-1.279997,-0.7399337,0.422509
829.3223,-0.1330233,-0.7286994,-0.4583545,-1.267941,-0.7240037,0.4172561
829.3369,-0.1330233,-0.7286994,-0.4583545,-1.267941,-0.7240037,0.4172561
829.3506,-0.1345486,-0.7240479,-0.4493437,-1.256079,-0.7083344,0.4121062
829.3658,-0.1360563,-0.7194494,-0.4405302,-1.244408,-0.6929246,0.4070571
829.3806,-0.1375465,-0.7149034,-0.4319087,-1.232924,-0.6777724,0.402107
829.3951,-0.1375465,-0.7149034,-0.4319087,-1.232924,-0.6777724,0.402107
829.4091,-0.1390194,-0.7104094,-0.4234742,-1.221624,-0.6628762,0.3972538
829.4244,-0.1404752,-0.7059669,-0.4152217,-1.210507,-0.648234,0.3924958
829.4389,-0.1404752,-0.7059669,-0.4152217,-1.210507,-0.648234,0.3924958
829.4529,-0.141914,-0.7015753,-0.4071462,-1.199567,-0.6338435,0.3878309
829.4685,-0.1433362,-0.6972341,-0.3992432,-1.188803,-0.6197025,0.3832575
829.4828,-0.1447418,-0.6929427,-0.391508,-1.178212,-0.6058086,0.3787737
829.4974,-0.1447418,-0.6929427,-0.391508,-1.178212,-0.6058086,0.3787737
829.5114,-0.146131,-0.6887007,-0.3839363,-1.167791,-0.5921593,0.3743777
829.5268,-0.147504,-0.6845075,-0.3765236,-1.157536,-0.5787518,0.3700678
829.5415,-0.1488611,-0.6803625,-0.3692658,-1.147446,-0.5655835,0.3658424
829.5561,-0.1488611,-0.6803625,-0.3692658,-1.147446,-0.5655835,0.3658424
829.573,-0.1502023,-0.6762654,-0.3621588,-1.137518,-0.5526515,0.3616997
829.586,-0.151528,-0.6722154,-0.3551987,-1.127749,-0.5399529,0.3576383
829.6005,-0.1528381,-0.6682122,-0.3483817,-1.118137,-0.527485,0.3536565
829.6141,-0.1528381,-0.6682122,-0.3483817,-1.118137,-0.527485,0.3536565
829.6281,-0.1541329,-0.6642551,-0.341704,-1.108679,-0.5152445,0.3497527
829.6434,-0.1554127,-0.6603438,-0.3351619,-1.099372,-0.5032285,0.3459254
829.6578,-0.1554127,-0.6603438,-0.3351619,-1.099372,-0.5032285,0.3459254
829.6719,-0.1566775,-0.6564777,-0.3287519,-1.090214,-0.491434,0.3421731
829.6873,-0.1579275,-0.6526564,-0.3224706,-1.081204,-0.4798578,0.3384944
829.7016,-0.1591629,-0.6488792,-0.3163147,-1.072337,-0.4684967,0.3348877
829.7162,-0.1591629,-0.6488792,-0.3163147,-1.072337,-0.4684967,0.3348877
829.7301,-0.1603839,-0.6451458,-0.3102809,-1.063613,-0.4573477,0.3313518
829.7457,-0.1615907,-0.6414557,-0.3043661,-1.055029,-0.4464075,0.3278851
829.7603,-0.1627833,-0.6378084,-0.2985672,-1.046582,-0.435673,0.3244864
829.7751,-0.1627833,-0.6378084,-0.2985672,-1.046582,-0.435673,0.3244864
829.7889,-0.1639619,-0.6342034,-0.2928813,-1.03827,-0.4251411,0.3211543
829.8043,-0.1651268,-0.6306402,-0.2873053,-1.030092,-0.4148085,0.3178875
829.8187,-0.1651268,-0.6306402,-0.2873053,-1.030092,-0.4148085,0.3178875
829.8325,-0.1662781,-0.6271185,-0.2818365,-1.022046,-0.4046721,0.3146847
829.848,-0.1674159,-0.6236376,-0.2764721,-1.014128,-0.3947288,0.3115448
829.8625,-0.1685404,-0.6201972,-0.2712095,-1.006338,-0.3849754,0.3084663
829.8793,-0.1685404,-0.6201972,-0.2712095,-1.006338,-0.3849754,0.3084663
829.8931,-0.1696517,-0.6167969,-0.2660461,-0.9986721,-0.3754089,0.3054483
829.9065,-0.1707501,-0.6134361,-0.2609794,-0.9911299,-0.3660262,0.3024893
829.921,-0.1718355,-0.6101145,-0.2560069,-0.983709,-0.3568241,0.2995884
829.9355,-0.1718355,-0.6101145,-0.2560069,-0.983709,-0.3568241,0.2995884
829.9493,-0.1729083,-0.6068315,-0.2511261,-0.9764073,-0.3477997,0.2967443
829.9647,-0.1739686,-0.6035868,-0.2463348,-0.9692232,-0.33895,0.293956
829.9795,-0.1739686,-0.6035868,-0.2463348,-0.9692232,-0.33895,0.293956
829.9933,-0.1750164,-0.6003799,-0.2416307,-0.9621547,-0.330272,0.2912224
830.0086,-0.176052,-0.5972105,-0.2370116,-0.9552001,-0.3217627,0.2885423
830.0232,-0.1770754,-0.594078,-0.2324753,-0.9483576,-0.3134191,0.2859148
830.0379,-0.1770754,-0.594078,-0.2324753,-0.9483576,-0.3134191,0.2859148
830.0519,-0.1780869,-0.5909821,-0.2280198,-0.9416254,-0.3052385,0.2833388
830.0673,-0.1790866,-0.5879223,-0.2236429,-0.9350019,-0.2972179,0.2808133
830.0818,-0.1800745,-0.5848984,-0.2193428,-0.9284852,-0.2893546,0.2783373
830.0963,-0.1800745,-0.5848984,-0.2193428,-0.9284852,-0.2893546,0.2783373
830.1106,-0.1810509,-0.5819097,-0.2151175,-0.9220739,-0.2816457,0.2759099
830.1258,-0.1820159,-0.578956,-0.2109652,-0.9157662,-0.2740885,0.2735301
830.1406,-0.1829696,-0.5760369,-0.2068839,-0.9095605,-0.2666803,0.2711969
830.1551,-0.1829696,-0.5760369,-0.2068839,-0.9095605,-0.2666803,0.2711969
830.171,-0.1839121,-0.5731519,-0.2028719,-0.9034553,-0.2594185,0.2689094
830.1852,-0.1848436,-0.5703006,-0.1989276,-0.897449,-0.2523003,0.2666668
830.1987,-0.1848436,-0.5703006,-0.1989276,-0.897449,-0.2523003,0.2666668
830.2126,-0.1857642,-0.5674828,-0.1950491,-0.8915401,-0.2453232,0.2644682
830.2278,-0.186674,-0.5646979,-0.1912349,-0.8857269,-0.2384845,0.2623127
830.2425,-0.1875733,-0.5619457,-0.1874833,-0.8800082,-0.2317819,0.2601995
830.2571,-0.1875733,-0.5619457,-0.1874833,-0.8800082,-0.2317819,0.2601995
830.2712,-0.188462,-0.5592257,-0.1837929,-0.8743824,-0.2252128,0.2581277
830.2864,-0.1893403,-0.5565377,-0.180162,-0.868848,-0.2187748,0.2560965
830.301,-0.1902083,-0.5538811,-0.1765893,-0.8634037,-0.2124654,0.2541051
830.3157,-0.1902083,-0.5538811,-0.1765893,-0.8634037,-0.2124654,0.2541051
830.3297,-0.1910662,-0.5512557,-0.1730733,-0.858048,-0.2062823,0.2521528
830.3452,-0.1919141,-0.5486611,-0.1696125,-0.8527795,-0.2002231,0.2502388
830.3596,-0.1919141,-0.5486611,-0.1696125,-0.8527795,-0.2002231,0.2502388
830.3737,-0.1927521,-0.546097,-0.1662058,-0.847597,-0.1942855,0.2483623
830.389,-0.1935802,-0.5435629,-0.1628516,-0.842499,-0.1884673,0.2465227
830.4037,-0.1943987,-0.5410587,-0.1595488,-0.8374843,-0.1827663,0.244719
830.4183,-0.1943987,-0.5410587,-0.1595488,-0.8374843,-0.1827663,0.244719
830.432,-0.1952077,-0.5385838,-0.1562961,-0.8325515,-0.1771802,0.2429508
830.4474,-0.1960072,-0.5361381,-0.1530923,-0.8276995,-0.171707,0.2412173
830.4641,-0.1967974,-0.533721,-0.1499361,-0.8229268,-0.1663444,0.2395177
830.4775,-0.1967974,-0.533721,-0.1499361,-0.8229268,-0.1663444,0.2395177
830.4914,-0.1975783,-0.5313324,-0.1468266,-0.8182323,-0.1610905,0.2378515
830.5057,-0.1983501,-0.5289719,-0.1437624,-0.8136148,-0.1559431,0.2362179
