JMolnar6/NonAnthroHands_User_Study/HandsLoggerWithURDF/tempdata/files/Reachy_JointMotion_gesture_1_1.csv
Time,r_shoulder,r_shoulder_x,r_upper_arm,r_forearm,r_wrist,r_wrist2hand,
162.3774,-0.137155,0.0005449236,NaN,-0.3250013,0.0001943566,NaN,0.09178413,-14.07533,NaN,-1.314131,-1.464378,-0.1387735,14.18881,NaN,NaN,0.513016,0.8196854,0.1926581,1.031332,-0.000109186,1.525464
162.3954,-0.1363351,0.000545694,NaN,-0.3250217,0.0001944936,NaN,0.09166295,-14.0766,NaN,-1.315224,-1.46279,-0.1389071,14.18713,NaN,NaN,0.5135953,0.818441,0.1925866,1.028879,-0.0001070534,1.528539
162.4077,-0.1350613,0.000546706,NaN,-0.3250408,0.0001952421,NaN,0.09137224,-14.07465,NaN,-1.316893,-1.456338,-0.1389579,14.18006,NaN,NaN,0.5145165,0.8206221,0.1925712,1.019531,-0.0001049618,1.514242
162.4227,-0.1335072,0.000546928,NaN,-0.3250591,0.0001957341,NaN,0.09097705,-14.07438,NaN,-1.318917,-1.450003,-0.1389612,14.17319,NaN,NaN,0.5156742,0.8210973,0.1926011,1.010224,-0.0001029021,1.512667
162.4395,-0.1335072,0.000546928,NaN,-0.3250591,0.0001957341,NaN,0.09097705,-14.07438,NaN,-1.318917,-1.450003,-0.1389612,14.17319,NaN,NaN,0.5156742,0.8210973,0.1926011,1.010224,-0.0001029021,1.512667
162.455,-0.1317831,0.000547344,NaN,-0.3250768,0.0001967204,NaN,0.09051926,-14.0757,NaN,-1.321151,-1.446736,-0.1389384,14.16974,NaN,NaN,0.5169808,0.8198682,0.1926642,1.005332,-0.000100879,1.518517
162.4685,-0.1306874,0.0005477775,NaN,-0.3250965,0.000196581,NaN,0.09028588,-14.07672,NaN,-1.322603,-1.463631,-0.1390207,14.18789,NaN,NaN,0.517976,0.8182666,0.1927088,1.030007,-9.8904E-05,1.529791
162.4857,-0.1299915,0.0005479834,NaN,-0.3251174,0.0001972785,NaN,0.09019778,-14.07523,NaN,-1.323548,-1.449422,-0.1391775,14.17261,NaN,NaN,0.5186853,0.8204201,0.1927138,1.009323,-9.695806E-05,1.515507
162.4994,-0.1299915,0.0005479834,NaN,-0.3251174,0.0001972785,NaN,0.09019778,-14.07523,NaN,-1.323548,-1.449422,-0.1391775,14.17261,NaN,NaN,0.5186853,0.8204201,0.1927138,1.009323,-9.695806E-05,1.515507
162.5131,-0.1295501,0.0005482683,NaN,-0.3251387,0.0001970928,NaN,0.09020451,-14.07626,NaN,-1.324169,-1.465937,-0.1393787,14.19037,NaN,NaN,0.5191816,0.8187969,0.1926824,1.033457,-9.506025E-05,1.526686
162.535,-0.1292708,0.000548608,NaN,-0.32516,0.0001979142,NaN,0.09027072,-14.07511,NaN,-1.324587,-1.450782,-0.1396059,14.17409,NaN,NaN,0.5195405,0.8207089,0.192627,1.011365,-9.319656E-05,1.516564
162.5441,-0.1298219,0.0005491612,NaN,-0.3251837,0.0001982792,NaN,0.09080513,-14.07721,NaN,-1.323729,-1.458843,-0.1399224,14.18289,NaN,NaN,0.5199317,0.8183311,0.1928473,1.023058,-9.137132E-05,1.529873
162.5592,-0.1298219,0.0005491612,NaN,-0.3251837,0.0001982792,NaN,0.09080513,-14.07721,NaN,-1.323729,-1.458843,-0.1399224,14.18289,NaN,NaN,0.5199317,0.8183311,0.1928473,1.023058,-9.137132E-05,1.529873
162.5738,-0.1308931,0.0005499352,NaN,-0.3252081,0.000198121,NaN,0.09126765,-14.0765,NaN,-1.322374,-1.46665,-0.1399844,14.19116,NaN,NaN,0.5211961,0.8186826,0.1939196,1.034509,-8.957244E-05,1.528427
162.5896,-0.1322872,0.0005505732,NaN,-0.3252325,0.000198864,NaN,0.09159632,-14.07485,NaN,-1.320955,-1.453349,-0.1398858,14.17685,NaN,NaN,0.5232825,0.8210345,0.1956196,1.015182,-0.001280931,1.516915
162.6048,-0.1338786,0.0005509265,NaN,-0.3252566,0.00019957,NaN,0.09179673,-14.07584,NaN,-1.319476,-1.450721,-0.1396624,14.1741,NaN,NaN,0.5257842,0.8201739,0.197718,1.011272,-0.002244403,1.517384
162.6202,-0.1363156,0.0005509297,NaN,-0.3252824,0.0002002015,NaN,0.09204107,-14.07576,NaN,-1.317362,-1.447616,-0.139447,14.17077,NaN,NaN,0.5282507,0.8203868,0.2000044,1.006728,-0.004065001,1.51485
162.6353,-0.1363156,0.0005509297,NaN,-0.3252824,0.0002002015,NaN,0.09204107,-14.07576,NaN,-1.317362,-1.447616,-0.139447,14.17077,NaN,NaN,0.5282507,0.8203868,0.2000044,1.006728,-0.004065001,1.51485
162.6497,-0.1392744,0.0005511465,NaN,-0.3253085,0.000200166,NaN,0.09307806,-14.07618,NaN,-1.314825,-1.459818,-0.1399059,14.18388,NaN,NaN,0.5304032,0.8195735,0.2015695,1.024592,-0.005960831,1.518491
162.6654,-0.1425493,0.000551721,NaN,-0.3253339,0.0001999951,NaN,0.09426749,-14.07755,NaN,-1.311838,-1.465673,-0.1404861,14.19021,NaN,NaN,0.5321137,0.8179139,0.2030067,1.033059,-0.007832793,1.533024
162.6806,-0.1460095,0.0005517719,NaN,-0.3253584,0.0002003744,NaN,0.09556905,-14.0753,NaN,-1.308554,-1.451784,-0.141142,14.17526,NaN,NaN,0.5334696,0.8208401,0.2043017,1.012925,-0.009661838,1.516293
162.6957,-0.1460095,0.0005517719,NaN,-0.3253584,0.0002003744,NaN,0.09556905,-14.0753,NaN,-1.308554,-1.451784,-0.141142,14.17526,NaN,NaN,0.5334696,0.8208401,0.2043017,1.012925,-0.009661838,1.516293
162.7111,-0.1502997,0.0005518062,NaN,-0.3253844,0.0002006334,NaN,0.097266,-14.07641,NaN,-1.304235,-1.455667,-0.1420353,14.17951,NaN,NaN,0.5341516,0.8195966,0.2053325,1.018557,-0.007242257,1.521316
162.726,-0.1550943,0.0005522629,NaN,-0.32541,0.0002003909,NaN,0.09934445,-14.07622,NaN,-1.299252,-1.466263,-0.1432171,14.19083,NaN,NaN,0.5341833,0.8193339,0.2059672,1.034079,-0.006865663,1.52702
162.7409,-0.1601863,0.0005527195,NaN,-0.3254344,0.0001998376,NaN,0.1017889,-14.07674,NaN,-1.293844,-1.469125,-0.1446969,14.19389,NaN,NaN,0.5336748,0.8186374,0.2061742,1.038217,-0.006355086,1.5284
162.7562,-0.1601863,0.0005527195,NaN,-0.3254344,0.0001998376,NaN,0.1017889,-14.07674,NaN,-1.293844,-1.469125,-0.1446969,14.19389,NaN,NaN,0.5336748,0.8186374,0.2061742,1.038217,-0.006355086,1.5284
162.7725,-0.1661721,0.0005531707,NaN,-0.3254597,0.0002004642,NaN,0.1050735,-14.07427,NaN,-1.287391,-1.453888,-0.1468349,14.17747,NaN,NaN,0.5323888,0.8218712,0.2056493,1.016106,-0.00547456,1.511714
162.7865,-0.1726953,0.0005532714,NaN,-0.3254839,0.0002006405,NaN,0.1092157,-14.07542,NaN,-1.280298,-1.458836,-0.1497222,14.18284,NaN,NaN,0.5304265,0.8205029,0.2042812,1.023282,-0.004478848,1.519921
162.8018,-0.1795292,0.0005536366,NaN,-0.325506,0.0002003687,NaN,0.1143396,-14.07626,NaN,-1.272908,-1.467799,-0.1535113,14.19247,NaN,NaN,0.5280564,0.8192334,0.2019507,1.036342,-0.003236372,1.527598
162.817,-0.1795292,0.0005536366,NaN,-0.325506,0.0002003687,NaN,0.1143396,-14.07626,NaN,-1.272908,-1.467799,-0.1535113,14.19247,NaN,NaN,0.5280564,0.8192334,0.2019507,1.036342,-0.003236372,1.527598
162.8313,-0.18653,0.0005539228,NaN,-0.3255261,0.0002000035,NaN,0.1205941,-14.07386,NaN,-1.265464,-1.466063,-0.1583581,14.19048,NaN,NaN,0.5256022,0.8216726,0.1985986,1.033972,-0.001425628,1.514991
162.8472,-0.1943345,0.000553777,NaN,-0.3255467,0.0001988895,NaN,0.1260315,-14.07481,NaN,-1.256735,-1.453054,-0.1624169,14.1765,NaN,NaN,0.5225137,0.8213007,0.1963509,1.014787,0.009917563,1.514514
162.8623,-0.2026121,0.000553346,NaN,-0.3255656,0.0001989496,NaN,0.1328085,-14.07463,NaN,-1.247788,-1.450222,-0.1677374,14.17341,NaN,NaN,0.5189424,0.821524,0.1926138,1.010614,0.009793585,1.510592
162.8784,-0.2026121,0.000553346,NaN,-0.3255656,0.0001989496,NaN,0.1328085,-14.07463,NaN,-1.247788,-1.450222,-0.1677374,14.17341,NaN,NaN,0.5189424,0.821524,0.1926138,1.010614,0.009793585,1.510592
162.8932,-0.2111525,0.0005532237,NaN,-0.3255821,0.0001985589,NaN,0.1391707,-14.07566,NaN,-1.238,-1.465123,-0.172653,14.18946,NaN,NaN,0.5145468,0.8199142,0.1893464,1.032399,0.01887417,1.521433
162.9077,-0.2198226,0.0005522451,NaN,-0.3255964,0.0001976745,NaN,0.1462481,-14.07375,NaN,-1.228158,-1.475471,-0.1782448,14.2004,NaN,NaN,0.5098064,0.8212019,0.1852486,1.047659,0.02036788,1.539726
162.9229,-0.229266,0.0005517472,NaN,-0.325611,0.0001987559,NaN,0.1530907,-14.07468,NaN,-1.216969,-1.450003,-0.1835089,14.17307,NaN,NaN,0.5040934,0.8217373,0.1815657,1.01023,0.02856156,1.522467
162.9381,-0.229266,0.0005517472,NaN,-0.325611,0.0001987559,NaN,0.1530907,-14.07468,NaN,-1.216969,-1.450003,-0.1835089,14.17307,NaN,NaN,0.5040934,0.8217373,0.1815657,1.01023,0.02856156,1.522467
162.9525,-0.2391563,0.0005514263,NaN,-0.3256236,0.0001995507,NaN,0.1604174,-14.07418,NaN,-1.205108,-1.448731,-0.1891617,14.17165,NaN,NaN,0.497581,0.8222221,0.1773805,1.008382,0.03154711,1.533641
162.9684,-0.2492863,0.0005515004,NaN,-0.3256336,0.0002004091,NaN,0.1675578,-14.0739,NaN,-1.19255,-1.446843,-0.1945771,14.16959,NaN,NaN,0.4902652,0.8225139,0.1733603,1.005616,0.03641297,1.539224
162.9835,-0.2595247,0.0005514265,NaN,-0.325641,0.0002003672,NaN,0.1745874,-14.07496,NaN,-1.179551,-1.460274,-0.1998241,14.18413,NaN,NaN,0.4823536,0.8209987,0.169396,1.025293,0.03998723,1.535188
162.9986,-0.2595247,0.0005514265,NaN,-0.325641,0.0002003672,NaN,0.1745874,-14.07496,NaN,-1.179551,-1.460274,-0.1998241,14.18413,NaN,NaN,0.4823536,0.8209987,0.169396,1.025293,0.03998723,1.535188
163.0131,-0.2705165,0.0005513969,NaN,-0.3256486,0.0001998493,NaN,0.1811045,-14.0757,NaN,-1.165214,-1.468195,-0.2044591,14.19266,NaN,NaN,0.4735758,0.8198522,0.1662167,1.036849,0.04557517,1.539694
163.0292,-0.281936,0.000550587,NaN,-0.3256541,0.0001987596,NaN,0.1882947,-14.07406,NaN,-1.149995,-1.451842,-0.2094694,14.17508,NaN,NaN,0.463954,0.8223568,0.1623907,1.013041,0.04646805,1.522072
163.0443,-0.2935769,0.0005499465,NaN,-0.3256569,0.0001976411,NaN,0.1962412,-14.07378,NaN,-1.134447,-1.448453,-0.2150594,14.17142,NaN,NaN,0.4539137,0.8227784,0.1579398,1.008092,0.04678159,1.521161
163.0596,-0.2935769,0.0005499465,NaN,-0.3256569,0.0001976411,NaN,0.1962412,-14.07378,NaN,-1.134447,-1.448453,-0.2150594,14.17142,NaN,NaN,0.4539137,0.8227784,0.1579398,1.008092,0.04678159,1.521161
163.0738,-0.3060363,0.0005499982,NaN,-0.3256597,0.0001971102,NaN,0.2029885,-14.07578,NaN,-1.119031,-1.462879,-0.2196744,14.18714,NaN,NaN,0.4446273,0.8203084,0.1547982,1.029197,0.05312859,1.538169
163.0896,-0.3189583,0.0005505016,NaN,-0.3256611,0.0001979047,NaN,0.2095064,-14.07372,NaN,-1.103827,-1.45022,-0.2240524,14.17346,NaN,NaN,0.4355301,0.8229956,0.1516801,1.010807,0.05208686,1.526801
163.1047,-0.3321171,0.0005508355,NaN,-0.3256612,0.0001981488,NaN,0.2156999,-14.07543,NaN,-1.088946,-1.457004,-0.2281369,14.18092,NaN,NaN,0.4265941,0.8210664,0.1487251,1.020698,0.05106555,1.532944
163.1198,-0.3321171,0.0005508355,NaN,-0.3256612,0.0001981488,NaN,0.2156999,-14.07543,NaN,-1.088946,-1.457004,-0.2281369,14.18092,NaN,NaN,0.4265941,0.8210664,0.1487251,1.020698,0.05106555,1.532944
163.1345,-0.34537,0.0005512695,NaN,-0.3256606,0.0001977971,NaN,0.2217086,-14.07476,NaN,-1.074498,-1.468088,-0.232078,14.19277,NaN,NaN,0.4178368,0.8212653,0.1458087,1.036999,0.05006426,1.535927
163.1505,-0.3593544,0.0005515458,NaN,-0.3256606,0.0001982525,NaN,0.2277531,-14.07391,NaN,-1.060013,-1.454774,-0.2360532,14.17844,NaN,NaN,0.4092513,0.8228382,0.1429495,1.017552,0.04908261,1.529364
163.1656,-0.3737405,0.0005513773,NaN,-0.3256595,0.0001987642,NaN,0.2337169,-14.07409,NaN,-1.04576,-1.450034,-0.2399945,14.17335,NaN,NaN,0.4008341,0.8228543,0.1401464,1.010582,0.04812021,1.528693
163.1806,-0.388319,0.000551457,NaN,-0.3256573,0.0001986625,NaN,0.2395652,-14.07451,NaN,-1.031831,-1.462156,-0.2438742,14.18645,NaN,NaN,0.392582,0.8219973,0.1373983,1.028382,0.04717667,1.531476
163.196,-0.388319,0.000551457,NaN,-0.3256573,0.0001986625,NaN,0.2395652,-14.07451,NaN,-1.031831,-1.462156,-0.2438742,14.18645,NaN,NaN,0.392582,0.8219973,0.1373983,1.028382,0.04717667,1.531476
163.2107,-0.4029575,0.0005515846,NaN,-0.3256543,0.000199272,NaN,0.2452943,-14.07357,NaN,-1.018244,-1.451739,-0.2476861,14.17516,NaN,NaN,0.3844919,0.8233714,0.1347041,1.013136,0.04625164,1.526237
163.2264,-0.4183005,0.0005522118,NaN,-0.325652,0.0001995451,NaN,0.2511107,-14.07585,NaN,-1.004549,-1.459563,-0.2515805,14.18374,NaN,NaN,0.3765603,0.8207625,0.1320627,1.02449,0.04534475,1.542358
163.2415,-0.4340224,0.0005527955,NaN,-0.3256485,0.0001996483,NaN,0.2568684,-14.07615,NaN,-0.991045,-1.461233,-0.2554626,14.18552,NaN,NaN,0.3687844,0.8203385,0.129473,1.026896,0.04445563,1.544282
163.2567,-0.4340224,0.0005527955,NaN,-0.3256485,0.0001996483,NaN,0.2568684,-14.07615,NaN,-0.991045,-1.461233,-0.2554626,14.18552,NaN,NaN,0.3687844,0.8203385,0.129473,1.026896,0.04445563,1.544282
163.2711,-0.4499167,0.0005528516,NaN,-0.3256427,0.0002001426,NaN,0.2625205,-14.07398,NaN,-0.9778376,-1.450623,-0.259292,14.174,NaN,NaN,0.361161,0.8229719,0.1269342,1.011487,0.04358395,1.529354
163.287,-0.4658528,0.0005524967,NaN,-0.3256348,0.0002005717,NaN,0.2680595,-14.07357,NaN,-0.9649532,-1.449591,-0.263058,14.17284,NaN,NaN,0.3536872,0.8233882,0.1244452,1.009987,0.04272936,1.526541
163.3025,-0.4824766,0.0005520481,NaN,-0.3256279,0.0002002995,NaN,0.2737068,-14.076,NaN,-0.9519487,-1.463547,-0.2669254,14.18808,NaN,NaN,0.34636,0.8204585,0.1220049,1.030377,0.04189153,1.540259
163.3173,-0.4824766,0.0005520481,NaN,-0.3256279,0.0002002995,NaN,0.2737068,-14.076,NaN,-0.9519487,-1.463547,-0.2669254,14.18808,NaN,NaN,0.34636,0.8204585,0.1220049,1.030377,0.04189153,1.540259
163.3318,-0.4994633,0.0005522688,NaN,-0.3256189,0.0002011352,NaN,0.2793051,-14.07367,NaN,-0.939123,-1.450994,-0.2707867,14.17449,NaN,NaN,0.3391765,0.8233781,0.1196126,1.012146,0.04107014,1.527679
163.3477,-0.516607,0.0005525048,NaN,-0.3256073,0.0002010152,NaN,0.2848037,-14.0759,NaN,-0.9265833,-1.463682,-0.2745988,14.18833,NaN,NaN,0.332134,0.82067,0.1172671,1.030672,0.04026484,1.544539
163.3641,-0.5337777,0.0005529014,NaN,-0.3255935,0.0002018509,NaN,0.2901941,-14.07411,NaN,-0.9143564,-1.449957,-0.2783499,14.1735,NaN,NaN,0.3252296,0.8231232,0.1149676,1.010684,0.03947534,1.529886
163.378,-0.5337777,0.0005529014,NaN,-0.3255935,0.0002018509,NaN,0.2901941,-14.07411,NaN,-0.9143564,-1.449957,-0.2783499,14.1735,NaN,NaN,0.3252296,0.8231232,0.1149676,1.010684,0.03947534,1.529886
163.3939,-0.5516214,0.0005526369,NaN,-0.3255805,0.0002023377,NaN,0.2957146,-14.07336,NaN,-0.902002,-1.446651,-0.2822208,14.16985,NaN,NaN,0.3184607,0.8239684,0.1127132,1.005848,0.03870131,1.527435
163.4084,-0.5698137,0.0005525485,NaN,-0.3255654,0.0002023762,NaN,0.3011961,-14.07572,NaN,-0.8898176,-1.458639,-0.2860927,14.18299,NaN,NaN,0.3118246,0.8212106,0.1105031,1.023363,0.03794246,1.541073
163.4236,-0.588149,0.0005519672,NaN,-0.3255476,0.0002027659,NaN,0.3065838,-14.07315,NaN,-0.8779101,-1.447705,-0.2899184,14.17107,NaN,NaN,0.3053187,0.8242392,0.1083362,1.007486,0.03719849,1.526998
163.4389,-0.588149,0.0005519672,NaN,-0.3255476,0.0002027659,NaN,0.3065838,-14.07315,NaN,-0.8779101,-1.447705,-0.2899184,14.17107,NaN,NaN,0.3053187,0.8242392,0.1083362,1.007486,0.03719849,1.526998
163.4532,-0.6072253,0.00055126,NaN,-0.32553,0.0002032293,NaN,0.312115,-14.07301,NaN,-0.8658724,-1.447986,-0.2938781,14.17135,NaN,NaN,0.2989404,0.824347,0.1062119,1.007903,0.03646911,1.523744
163.4692,-0.6266879,0.0005503353,NaN,-0.3255095,0.0002026858,NaN,0.3176082,-14.07417,NaN,-0.8540106,-1.465915,-0.2978394,14.19082,NaN,NaN,0.2926874,0.8225718,0.1041292,1.034233,0.03575402,1.532297
163.4844,-0.6463117,0.0005506385,NaN,-0.3254857,0.0002038333,NaN,0.3230059,-14.07316,NaN,-0.8424326,-1.450439,-0.3017522,14.17411,NaN,NaN,0.286557,0.8243738,0.1020874,1.011589,0.03505297,1.526049
163.4995,-0.6463117,0.0005506385,NaN,-0.3254857,0.0002038333,NaN,0.3230059,-14.07316,NaN,-0.8424326,-1.450439,-0.3017522,14.17411,NaN,NaN,0.286557,0.8243738,0.1020874,1.011589,0.03505297,1.526049
163.5142,-0.6659546,0.0005508753,NaN,-0.3254592,0.0002046301,NaN,0.328299,-14.07347,NaN,-0.8311639,-1.447416,-0.3056041,14.17087,NaN,NaN,0.2805469,0.8242049,0.1000856,1.007131,0.03436565,1.527495
163.5301,-0.6862553,0.0005502179,NaN,-0.3254334,0.0002047654,NaN,0.3337612,-14.07404,NaN,-0.8197668,-1.451663,-0.3096088,14.17551,NaN,NaN,0.2746548,0.8235091,0.09812303,1.013359,0.03369181,1.531308
163.5453,-0.7068846,0.0005491896,NaN,-0.3254051,0.0002040783,NaN,0.3392017,-14.07393,NaN,-0.8085337,-1.4669,-0.3136258,14.19194,NaN,NaN,0.2688784,0.8230458,0.09619897,1.035772,0.03303119,1.531827
163.561,-0.7276341,0.0005486849,NaN,-0.3253739,0.000204773,NaN,0.3445576,-14.07342,NaN,-0.7975695,-1.451044,-0.3176013,14.17483,NaN,NaN,0.2632153,0.8244156,0.09431265,1.012527,0.03238352,1.528052
163.5758,-0.7276341,0.0005486849,NaN,-0.3253739,0.000204773,NaN,0.3445576,-14.07342,NaN,-0.7975695,-1.451044,-0.3176013,14.17483,NaN,NaN,0.2632153,0.8244156,0.09431265,1.012527,0.03238352,1.528052
163.5903,-0.7483721,0.0005483252,NaN,-0.3253405,0.0002046198,NaN,0.3498169,-14.07517,NaN,-0.7868997,-1.46349,-0.3215211,14.18842,NaN,NaN,0.2576633,0.8222468,0.09246331,1.030754,0.03174855,1.533843
163.6064,-0.769237,0.0005475377,NaN,-0.3253064,0.0002049192,NaN,0.3550726,-14.07374,NaN,-0.7763898,-1.44994,-0.3254568,14.17377,NaN,NaN,0.2522203,0.8243803,0.09065025,1.010975,0.03112603,1.524499
163.6212,-0.7900944,0.0005466139,NaN,-0.3252712,0.0002053073,NaN,0.360268,-14.07262,NaN,-0.7661184,-1.449093,-0.329365,14.17278,NaN,NaN,0.2468841,0.8255605,0.08887274,1.009803,0.03051572,1.513864
163.6366,-0.7900944,0.0005466139,NaN,-0.3252712,0.0002053073,NaN,0.360268,-14.07262,NaN,-0.7661184,-1.449093,-0.329365,14.17278,NaN,NaN,0.2468841,0.8255605,0.08887274,1.009803,0.03051572,1.513864
163.6512,-0.8108596,0.0005464607,NaN,-0.3252354,0.0002056499,NaN,0.3653874,-14.07469,NaN,-0.7561068,-1.455124,-0.3332317,14.17949,NaN,NaN,0.2416527,0.8233215,0.08713008,1.018594,0.02991737,1.528298
163.667,-0.83148,0.0005463238,NaN,-0.3251995,0.0002051491,NaN,0.370431,-14.07476,NaN,-0.7463536,-1.466752,-0.3370555,14.19203,NaN,NaN,0.2365239,0.8227786,0.08542161,1.035687,0.02933075,1.530987
163.6826,-0.851923,0.0005457964,NaN,-0.3251639,0.0002053267,NaN,0.3754031,-14.07275,NaN,-0.7368496,-1.451036,-0.3408388,14.17502,NaN,NaN,0.2314958,0.8256404,0.08374663,1.012773,0.02875564,1.516455
163.6973,-0.851923,0.0005457964,NaN,-0.3251639,0.0002053267,NaN,0.3754031,-14.07275,NaN,-0.7368496,-1.451036,-0.3408388,14.17502,NaN,NaN,0.2314958,0.8256404,0.08374663,1.012773,0.02875564,1.516455
163.714,-0.872169,0.0005459366,NaN,-0.3251292,0.0002060212,NaN,0.3803084,-14.07237,NaN,-0.7275842,-1.450222,-0.3445849,14.17413,NaN,NaN,0.2265663,0.8260837,0.08210451,1.011612,0.02819181,1.514829
163.7278,-0.8922064,0.0005462637,NaN,-0.3250956,0.0002057272,NaN,0.3851511,-14.07409,NaN,-0.7185476,-1.465213,-0.3482965,14.19053,NaN,NaN,0.2217336,0.823855,0.08049459,1.033637,0.02763903,1.527355
163.7428,-0.9120288,0.0005468542,NaN,-0.3250634,0.0002063788,NaN,0.3899342,-14.07253,NaN,-0.7097312,-1.454181,-0.3519758,14.17854,NaN,NaN,0.2169958,0.8259908,0.07891624,1.017539,0.02709709,1.516831
163.7579,-0.9120288,0.0005468542,NaN,-0.3250634,0.0002063788,NaN,0.3899342,-14.07253,NaN,-0.7097312,-1.454181,-0.3519758,14.17854,NaN,NaN,0.2169958,0.8259908,0.07891624,1.017539,0.02709709,1.516831
163.7724,-0.9316332,0.0005466101,NaN,-0.3250326,0.0002067225,NaN,0.3946598,-14.07243,NaN,-0.7011277,-1.450667,-0.3556241,14.17473,NaN,NaN,0.2123509,0.8262554,0.07736884,1.012372,0.02656578,1.513154
163.7882,-0.9510185,0.0005461525,NaN,-0.3250034,0.0002072659,NaN,0.3993297,-14.0724,NaN,-0.6927307,-1.447289,-0.3592424,14.17107,NaN,NaN,0.2077972,0.8264232,0.07585178,1.007397,0.02604488,1.509589
163.8038,-0.9701849,0.0005459106,NaN,-0.3249759,0.0002075989,NaN,0.4039451,-14.07451,NaN,-0.6845348,-1.453039,-0.3628311,14.17749,NaN,NaN,0.2033329,0.8241474,0.07436448,1.015779,0.02553419,1.523544
163.8188,-0.9701849,0.0005459106,NaN,-0.3249759,0.0002075989,NaN,0.4039451,-14.07451,NaN,-0.6845348,-1.453039,-0.3628311,14.17749,NaN,NaN,0.2033329,0.8241474,0.07436448,1.015779,0.02553419,1.523544
163.8364,-0.9891337,0.0005451899,NaN,-0.32495,0.0002076848,NaN,0.4085071,-14.07384,NaN,-0.676535,-1.452841,-0.3663904,14.17723,NaN,NaN,0.1989562,0.8248214,0.07290634,1.01553,0.02503352,1.520658
163.8505,-1.007866,0.000544947,NaN,-0.3249257,0.0002074563,NaN,0.4130163,-14.07314,NaN,-0.6687267,-1.463488,-0.3699206,14.18869,NaN,NaN,0.1946654,0.8250951,0.07147679,1.031251,0.02454267,1.517373
163.8641,-1.026385,0.0005447016,NaN,-0.324903,0.0002077957,NaN,0.4174734,-14.07398,NaN,-0.6611058,-1.453635,-0.3734214,14.17805,NaN,NaN,0.1904589,0.8247327,0.07007529,1.01667,0.02406144,1.521625
163.8793,-1.026385,0.0005447016,NaN,-0.324903,0.0002077957,NaN,0.4174734,-14.07398,NaN,-0.6611058,-1.453635,-0.3734214,14.17805,NaN,NaN,0.1904589,0.8247327,0.07007529,1.01667,0.02406144,1.521625
163.8947,-1.044691,0.0005438986,NaN,-0.3248819,0.0002080089,NaN,0.421879,-14.07361,NaN,-0.6536682,-1.449275,-0.3768928,14.17331,NaN,NaN,0.1863349,0.8252583,0.06870126,1.010271,0.02358964,1.516287
163.9094,-1.062788,0.0005433583,NaN,-0.3248622,0.0002086147,NaN,0.4262335,-14.07256,NaN,-0.6464099,-1.44759,-0.3803346,14.17139,NaN,NaN,0.1822918,0.8263446,0.06735417,1.007843,0.0231271,1.510724
163.9246,-1.080676,0.0005438026,NaN,-0.3248441,0.0002083645,NaN,0.4305374,-14.07387,NaN,-0.6393273,-1.464604,-0.3837467,14.18995,NaN,NaN,0.1783281,0.8244541,0.0660335,1.032874,0.02267363,1.522563
163.9396,-1.080676,0.0005438026,NaN,-0.3248441,0.0002083645,NaN,0.4305374,-14.07387,NaN,-0.6393273,-1.464604,-0.3837467,14.18995,NaN,NaN,0.1783281,0.8244541,0.0660335,1.032874,0.02267363,1.522563
163.9541,-1.09836,0.0005441309,NaN,-0.3248275,0.0002085729,NaN,0.4347909,-14.075,NaN,-0.6324167,-1.456255,-0.3871287,14.18098,NaN,NaN,0.1744422,0.8237379,0.06473874,1.020497,0.02222905,1.527075
163.9699,-1.11584,0.0005439556,NaN,-0.3248122,0.0002082927,NaN,0.4389945,-14.07448,NaN,-0.6256745,-1.461056,-0.3904803,14.18611,NaN,NaN,0.1706326,0.8240152,0.06346936,1.02758,0.02179319,1.524208
163.9854,-1.13312,0.0005440256,NaN,-0.3247983,0.0002087787,NaN,0.4431484,-14.07296,NaN,-0.6190974,-1.452852,-0.3938013,14.17715,NaN,NaN,0.1668977,0.8259096,0.06222487,1.015613,0.02136587,1.511357
164.0002,-1.150201,0.0005437058,NaN,-0.3247857,0.0002085349,NaN,0.4472528,-14.07425,NaN,-0.6126819,-1.462054,-0.3970913,14.18721,NaN,NaN,0.1632362,0.8242517,0.06100479,1.0291,0.02094693,1.522096
164.0154,-1.150201,0.0005437058,NaN,-0.3247857,0.0002085349,NaN,0.4472528,-14.07425,NaN,-0.6126819,-1.462054,-0.3970913,14.18721,NaN,NaN,0.1632362,0.8242517,0.06100479,1.0291,0.02094693,1.522096
164.0298,-1.167085,0.0005429789,NaN,-0.3247744,0.0002087822,NaN,0.4513078,-14.0733,NaN,-0.6064247,-1.44974,-0.4003501,14.17384,NaN,NaN,0.1596465,0.8257911,0.05980863,1.011047,0.02053621,1.516506
164.0458,-1.183776,0.0005424995,NaN,-0.3247644,0.0002092448,NaN,0.4553138,-14.07346,NaN,-0.6003226,-1.449979,-0.4035772,14.17411,NaN,NaN,0.1561272,0.8256266,0.05863592,1.011395,0.02013353,1.518111
164.062,-1.200275,0.0005421743,NaN,-0.3247555,0.0002095919,NaN,0.4592707,-14.0743,NaN,-0.5943723,-1.451929,-0.4067724,14.17629,NaN,NaN,0.1526771,0.8247176,0.05748622,1.014224,0.01973876,1.520158
164.0758,-1.200275,0.0005421743,NaN,-0.3247555,0.0002095919,NaN,0.4592707,-14.0743,NaN,-0.5943723,-1.451929,-0.4067724,14.17629,NaN,NaN,0.1526771,0.8247176,0.05748622,1.014224,0.01973876,1.520158
164.0901,-1.216584,0.0005414136,NaN,-0.3247479,0.0002090149,NaN,0.4631788,-14.07465,NaN,-0.5885708,-1.465387,-0.4099352,14.19087,NaN,NaN,0.1492947,0.8238385,0.05635905,1.034019,0.01935173,1.526486
164.106,-1.232706,0.0005409017,NaN,-0.3247413,0.0002080301,NaN,0.467038,-14.0762,NaN,-0.5829148,-1.472221,-0.4130653,14.19831,NaN,NaN,0.1459786,0.8219277,0.05525399,1.043943,0.01897228,1.534331
164.1211,-1.248643,0.0005414225,NaN,-0.3247359,0.0002085701,NaN,0.4708485,-14.07594,NaN,-0.5774015,-1.458237,-0.4161624,14.18324,NaN,NaN,0.1427276,0.8230228,0.0541706,1.023441,0.01860027,1.529858
164.1363,-1.248643,0.0005414225,NaN,-0.3247359,0.0002085701,NaN,0.4708485,-14.07594,NaN,-0.5774015,-1.458237,-0.4161624,14.18324,NaN,NaN,0.1427276,0.8230228,0.0541706,1.023441,0.01860027,1.529858
164.1507,-1.264397,0.000541653,NaN,-0.3247314,0.0002082964,NaN,0.4746103,-14.07805,NaN,-0.5720279,-1.466167,-0.4192261,14.1919,NaN,NaN,0.1395405,0.820574,0.05310845,1.034939,0.01823556,1.540993
164.1666,-1.279969,0.0005420161,NaN,-0.3247281,0.0002082503,NaN,0.4783235,-14.0786,NaN,-0.5667911,-1.464147,-0.4222559,14.18974,NaN,NaN,0.1364159,0.8201462,0.05206713,1.031926,0.017878,1.542267
164.1815,-1.295362,0.0005425574,NaN,-0.3247255,0.0002088117,NaN,0.4819878,-14.07726,NaN,-0.5616882,-1.455274,-0.4252514,14.18015,NaN,NaN,0.1333526,0.8219513,0.05104623,1.019028,0.01752745,1.532656
164.1971,-1.295362,0.0005425574,NaN,-0.3247255,0.0002088117,NaN,0.4819878,-14.07726,NaN,-0.5616882,-1.455274,-0.4252514,14.18015,NaN,NaN,0.1333526,0.8219513,0.05104623,1.019028,0.01752745,1.532656
164.2112,-1.310358,0.0005429068,NaN,-0.3247232,0.0002079801,NaN,0.4854592,-14.07673,NaN,-0.5568396,-1.474009,-0.4280907,14.20025,NaN,NaN,0.1303494,0.8216875,0.05004534,1.046554,0.01718378,1.533285
164.227,-1.325041,0.0005430952,NaN,-0.3247215,0.0002066347,NaN,0.4888413,-14.07638,NaN,-0.5521547,-1.476904,-0.4308587,14.20332,NaN,NaN,0.127405,0.8218502,0.04906408,1.050814,0.01684684,1.534906
164.2433,-1.339465,0.0005425756,NaN,-0.3247206,0.000204709,NaN,0.4921722,-14.07549,NaN,-0.5475958,-1.458244,-0.4335877,14.18321,NaN,NaN,0.1245185,0.8239301,0.04810207,1.023513,0.01651651,1.518341
164.2572,-1.339465,0.0005425756,NaN,-0.3247206,0.000204709,NaN,0.4921722,-14.07549,NaN,-0.5475958,-1.458244,-0.4335877,14.18321,NaN,NaN,0.1245185,0.8239301,0.04810207,1.023513,0.01651651,1.518341
164.2715,-1.353667,0.0005433308,NaN,-0.3247202,0.0002033446,NaN,0.4954635,-14.07551,NaN,-0.5431485,-1.450464,-0.4362878,14.17477,NaN,NaN,0.1216886,0.824267,0.04715891,1.012045,0.01619266,1.527241
164.2874,-1.366941,0.0005430995,NaN,-0.324719,0.0002019694,NaN,0.4982194,-14.07583,NaN,-0.5392117,-1.467835,-0.4385396,14.19353,NaN,NaN,0.1189139,0.8232972,0.04623426,1.03757,0.01587516,1.529807
164.304,-1.379577,0.0005430304,NaN,-0.3247191,0.0002008208,NaN,0.5007964,-14.07659,NaN,-0.5354965,-1.470372,-0.4406396,14.19626,NaN,NaN,0.1161936,0.822392,0.04532773,1.041212,0.01556388,1.530394
164.3176,-1.379577,0.0005430304,NaN,-0.3247191,0.0002008208,NaN,0.5007964,-14.07659,NaN,-0.5354965,-1.470372,-0.4406396,14.19626,NaN,NaN,0.1161936,0.822392,0.04532773,1.041212,0.01556388,1.530394
164.3321,-1.391757,0.0005425687,NaN,-0.3247205,0.0001990083,NaN,0.5033246,-14.0745,NaN,-0.531888,-1.455957,-0.4426987,14.18061,NaN,NaN,0.1135267,0.8252558,0.04443898,1.020195,0.01525871,1.521417
164.3479,-1.403601,0.0005426244,NaN,-0.3247229,0.0001991776,NaN,0.5058426,-14.0755,NaN,-0.5283472,-1.451294,-0.4447511,14.1756,NaN,NaN,0.1109121,0.8244404,0.04356765,1.013246,0.01495952,1.522908
164.3633,-1.414456,0.0005428111,NaN,-0.3247248,0.0001988428,NaN,0.5078372,-14.07739,NaN,-0.5252677,-1.463393,-0.4463626,14.1888,NaN,NaN,0.1083485,0.8220764,0.04271341,1.03093,0.0146662,1.537914
164.3782,-1.414456,0.0005428111,NaN,-0.3247248,0.0001988428,NaN,0.5078372,-14.07739,NaN,-0.5252677,-1.463393,-0.4463626,14.1888,NaN,NaN,0.1083485,0.8220764,0.04271341,1.03093,0.0146662,1.537914
164.3927,-1.424643,0.0005423345,NaN,-0.3247279,0.0001978729,NaN,0.5096744,-14.07413,NaN,-0.5223663,-1.468995,-0.4478399,14.19462,NaN,NaN,0.1058351,0.8249982,0.04187592,1.039378,0.01437862,1.527496
164.4083,-1.434367,0.0005420122,NaN,-0.3247328,0.0001982011,NaN,0.5114848,-14.07573,NaN,-0.5195349,-1.454095,-0.449295,14.17857,NaN,NaN,0.103371,0.8241602,0.04105486,1.017308,0.01409669,1.52684
164.4238,-1.44376,0.0005416194,NaN,-0.3247401,0.0001987369,NaN,0.5133044,-14.07546,NaN,-0.5167403,-1.449137,-0.4507603,14.17319,NaN,NaN,0.1009553,0.8245619,0.04024988,1.010026,0.01382028,1.525807
164.4388,-1.44376,0.0005416194,NaN,-0.3247401,0.0001987369,NaN,0.5133044,-14.07546,NaN,-0.5167403,-1.449137,-0.4507603,14.17319,NaN,NaN,0.1009553,0.8245619,0.04024988,1.010026,0.01382028,1.525807
164.4531,-1.452176,0.0005408396,NaN,-0.3247473,0.0001990711,NaN,0.514599,-14.0758,NaN,-0.5143782,-1.449165,-0.4517823,14.17324,NaN,NaN,0.09858659,0.8241684,0.0394607,1.010048,0.0135493,1.526757
164.4689,-1.459944,0.0005401401,NaN,-0.3247569,0.0001988893,NaN,0.5157446,-14.07747,NaN,-0.5121703,-1.461931,-0.4526776,14.18716,NaN,NaN,0.09626429,0.8220032,0.03868698,1.028743,0.01328362,1.536659
164.484,-1.467271,0.0005397136,NaN,-0.3247693,0.0001994337,NaN,0.5168744,-14.07556,NaN,-0.5100109,-1.450762,-0.4535603,14.17504,NaN,NaN,0.09398754,0.8244087,0.03792844,1.012487,0.01302316,1.526745
164.4989,-1.467271,0.0005397136,NaN,-0.3247693,0.0001994337,NaN,0.5168744,-14.07556,NaN,-0.5100109,-1.450762,-0.4535603,14.17504,NaN,NaN,0.09398754,0.8244087,0.03792844,1.012487,0.01302316,1.526745
164.5136,-1.473562,0.0005392939,NaN,-0.3247819,0.0001995966,NaN,0.5174803,-14.07662,NaN,-0.5082672,-1.456652,-0.4539991,14.18149,NaN,NaN,0.09175509,0.8231149,0.03718477,1.021104,0.01276781,1.530322
164.5292,-1.479175,0.0005390921,NaN,-0.3247968,0.0002003175,NaN,0.5179551,-14.07561,NaN,-0.5066531,-1.448291,-0.4543258,14.17242,NaN,NaN,0.08956635,0.8244739,0.03645568,1.008885,0.01251746,1.522394
164.5444,-1.484338,0.0005394095,NaN,-0.3248141,0.0002003283,NaN,0.5184355,-14.07472,NaN,-0.5050625,-1.459305,-0.4546578,14.18424,NaN,NaN,0.08742053,0.8249512,0.03574089,1.025144,0.01227201,1.519154
164.5598,-1.484338,0.0005394095,NaN,-0.3248141,0.0002003283,NaN,0.5184355,-14.07472,NaN,-0.5050625,-1.459305,-0.4546578,14.18424,NaN,NaN,0.08742053,0.8249512,0.03574089,1.025144,0.01227201,1.519154
164.5741,-1.489197,0.0005397558,NaN,-0.3248337,0.0001998868,NaN,0.5189555,-14.07677,NaN,-0.5034657,-1.467631,-0.455025,14.19336,NaN,NaN,0.08531681,0.822467,0.03504011,1.037258,0.01203139,1.53655
164.5909,-1.493115,0.0005399294,NaN,-0.3248527,0.000199786,NaN,0.5189604,-14.07673,NaN,-0.5022605,-1.460829,-0.4549567,14.18602,NaN,NaN,0.08325399,0.8228197,0.03435307,1.027262,0.01179548,1.535591
164.6049,-1.496425,0.0005399041,NaN,-0.3248725,0.000200215,NaN,0.5188366,-14.07558,NaN,-0.501173,-1.452318,-0.4547787,14.17677,NaN,NaN,0.08123152,0.8243299,0.0336795,1.014829,0.0115642,1.526886
164.6199,-1.496425,0.0005399041,NaN,-0.3248725,0.000200215,NaN,0.5188366,-14.07558,NaN,-0.501173,-1.452318,-0.4547787,14.17677,NaN,NaN,0.08123152,0.8243299,0.0336795,1.014829,0.0115642,1.526886
164.6343,-1.49934,0.0005406218,NaN,-0.3248936,0.0002003432,NaN,0.5187209,-14.07779,NaN,-0.5001005,-1.462,-0.4546081,14.18738,NaN,NaN,0.0792487,0.8217251,0.03301914,1.02894,0.01133745,1.541865
164.6501,-1.501992,0.0005406181,NaN,-0.3249158,0.0001999164,NaN,0.5186493,-14.07709,NaN,-0.4990134,-1.462765,-0.4544764,14.18813,NaN,NaN,0.07730478,0.8223383,0.03237173,1.030094,0.01111515,1.537708
164.6652,-1.503741,0.0005402917,NaN,-0.3249364,0.0002002058,NaN,0.5180647,-14.0748,NaN,-0.498309,-1.451404,-0.453911,14.17576,NaN,NaN,0.0753986,0.8251566,0.03173701,1.013571,0.0108972,1.521719
164.6802,-1.504914,0.0005400634,NaN,-0.3249569,0.0002007949,NaN,0.5173584,-14.07471,NaN,-0.4977121,-1.448677,-0.453242,14.17279,NaN,NaN,0.0735297,0.8253372,0.03111474,1.009556,0.01068353,1.518792
164.6955,-1.504914,0.0005400634,NaN,-0.3249569,0.0002007949,NaN,0.5173584,-14.07471,NaN,-0.4977121,-1.448677,-0.453242,14.17279,NaN,NaN,0.0735297,0.8253372,0.03111474,1.009556,0.01068353,1.518792
164.7099,-1.505719,0.0005398389,NaN,-0.3249777,0.0002004174,NaN,0.5166704,-14.07669,NaN,-0.4971195,-1.466287,-0.4525888,14.19202,NaN,NaN,0.07169743,0.8227264,0.03050467,1.035394,0.01047405,1.535259
164.7271,-1.50629,0.0005402987,NaN,-0.3249988,0.0002013931,NaN,0.5160382,-14.07481,NaN,-0.4965011,-1.450916,-0.4519844,14.17537,NaN,NaN,0.0699011,0.8254223,0.02990656,1.012972,0.01026868,1.522319
164.741,-1.505984,0.0005408403,NaN,-0.3250178,0.000201204,NaN,0.5149052,-14.07613,NaN,-0.4962538,-1.465872,-0.4509574,14.19167,NaN,NaN,0.06813962,0.8235611,0.02932017,1.034943,0.01006733,1.534248
164.7558,-1.505984,0.0005408403,NaN,-0.3250178,0.000201204,NaN,0.5149052,-14.07613,NaN,-0.4962538,-1.465872,-0.4509574,14.19167,NaN,NaN,0.06813962,0.8235611,0.02932017,1.034943,0.01006733,1.534248
164.7724,-1.505127,0.0005412216,NaN,-0.3250359,0.0002018803,NaN,0.5136632,-14.07513,NaN,-0.4961025,-1.45128,-0.449838,14.17588,NaN,NaN,0.06641258,0.825325,0.02874529,1.013569,0.009869932,1.522493
164.7861,-1.503928,0.0005414585,NaN,-0.3250536,0.0002022978,NaN,0.5124531,-14.0767,NaN,-0.4959439,-1.453666,-0.4487461,14.17856,NaN,NaN,0.06471939,0.823662,0.02818167,1.016981,0.009676403,1.530399
164.8009,-1.502517,0.0005416882,NaN,-0.3250711,0.0002018921,NaN,0.5113129,-14.07661,NaN,-0.4957482,-1.467625,-0.447715,14.19359,NaN,NaN,0.06305941,0.8231683,0.02762911,1.0375,0.00948667,1.53747
164.8161,-1.502517,0.0005416882,NaN,-0.3250711,0.0002018921,NaN,0.5113129,-14.07661,NaN,-0.4957482,-1.467625,-0.447715,14.19359,NaN,NaN,0.06305941,0.8231683,0.02762911,1.0375,0.00948667,1.53747
164.8305,-1.500252,0.0005420546,NaN,-0.3250861,0.0002024819,NaN,0.5096871,-14.07645,NaN,-0.4959138,-1.454005,-0.4462755,14.17889,NaN,NaN,0.06143161,0.8240829,0.02708738,1.017496,0.00930066,1.533401
164.8463,-1.497459,0.0005422544,NaN,-0.3250995,0.0002022118,NaN,0.5079669,-14.07792,NaN,-0.4961648,-1.466634,-0.4447566,14.19261,NaN,NaN,0.05983562,0.8221124,0.02655627,1.035976,0.009118294,1.539899
164.8613,-1.494344,0.0005422896,NaN,-0.325112,0.0002014373,NaN,0.5062931,-14.07699,NaN,-0.4963977,-1.470971,-0.4432777,14.19721,NaN,NaN,0.05827092,0.8228117,0.02603558,1.042401,0.008939502,1.531196
164.8764,-1.494344,0.0005422896,NaN,-0.325112,0.0002014373,NaN,0.5062931,-14.07699,NaN,-0.4963977,-1.470971,-0.4432777,14.19721,NaN,NaN,0.05827092,0.8228117,0.02603558,1.042401,0.008939502,1.531196
164.8911,-1.490314,0.0005420868,NaN,-0.3251215,0.0002015504,NaN,0.5041524,-14.07468,NaN,-0.4969837,-1.454963,-0.4414072,14.17985,NaN,NaN,0.05673654,0.8260082,0.02552509,1.01907,0.008764219,1.517134
164.907,-1.485723,0.0005425368,NaN,-0.3251289,0.0002024111,NaN,0.501945,-14.07747,NaN,-0.4976369,-1.450336,-0.439481,14.17501,NaN,NaN,0.05523216,0.8234377,0.02502461,1.012067,0.00859237,1.530372
164.922,-1.480798,0.0005427711,NaN,-0.3251347,0.0002021226,NaN,0.4998119,-14.0768,NaN,-0.4982527,-1.465626,-0.4376189,14.19143,NaN,NaN,0.05375728,0.8235263,0.02453394,1.034577,0.00842389,1.529209
164.9369,-1.480798,0.0005427711,NaN,-0.3251347,0.0002021226,NaN,0.4998119,-14.0768,NaN,-0.4982527,-1.465626,-0.4376189,14.19143,NaN,NaN,0.05375728,0.8235263,0.02453394,1.034577,0.00842389,1.529209
164.9524,-1.475685,0.0005428565,NaN,-0.3251395,0.0002018274,NaN,0.4977887,-14.07823,NaN,-0.4988027,-1.46489,-0.4358515,14.19068,NaN,NaN,0.05231135,0.8221138,0.0240529,1.033367,0.00825872,1.53412
164.967,-1.469747,0.0005424623,NaN,-0.3251415,0.0002020882,NaN,0.4953284,-14.07725,NaN,-0.4996907,-1.451359,-0.4337207,14.17605,NaN,NaN,0.05089342,0.8237869,0.02358129,1.01357,0.008096786,1.525501
164.982,-1.463314,0.0005419985,NaN,-0.3251424,0.000202573,NaN,0.492812,-14.07697,NaN,-0.5006409,-1.449437,-0.4315448,14.17395,NaN,NaN,0.04950322,0.8241341,0.02311892,1.010752,0.007938028,1.520396
164.9971,-1.463314,0.0005419985,NaN,-0.3251424,0.000202573,NaN,0.492812,-14.07697,NaN,-0.5006409,-1.449437,-0.4315448,14.17395,NaN,NaN,0.04950322,0.8241341,0.02311892,1.010752,0.007938028,1.520396
165.0115,-1.456596,0.0005423668,NaN,-0.3251428,0.0002025317,NaN,0.4903755,-14.07714,NaN,-0.5015513,-1.461797,-0.4294383,14.1873,NaN,NaN,0.04814028,0.82351,0.02266562,1.028925,0.007782377,1.528336
165.0272,-1.449728,0.0005429899,NaN,-0.3251429,0.0002026139,NaN,0.4880541,-14.0793,NaN,-0.5023931,-1.462254,-0.4274311,14.18788,NaN,NaN,0.0468041,0.8213174,0.02222121,1.029421,0.00762978,1.536998
165.0426,-1.442066,0.0005437562,NaN,-0.3251408,0.0002033668,NaN,0.4853121,-14.07691,NaN,-0.503571,-1.453713,-0.4250767,14.17854,NaN,NaN,0.04549379,0.8240821,0.02178551,1.017046,0.00748018,1.521019
165.0576,-1.442066,0.0005437562,NaN,-0.3251408,0.0002033668,NaN,0.4853121,-14.07691,NaN,-0.503571,-1.453713,-0.4250767,14.17854,NaN,NaN,0.04549379,0.8240821,0.02178551,1.017046,0.00748018,1.521019
