JMolnar6/NonAnthroHands_User_Study/HandsLoggerWithURDF/tempdata/files/Reachy_JointMotion_gesture_10_51.csv
Time,r_shoulder,r_shoulder_x,r_upper_arm,r_forearm,r_wrist,r_wrist2hand,
755.4612,-0.8468505,-7.048016E-10,NaN,-0.3594777,-1.325671E-07,NaN,1.151912,-4.836065E-07,NaN,-0.6696663,2.158711E-05,0.4325995,5.974552E-08,NaN,NaN,-0.01015702,-4.377219E-10,-7.409355E-07,-1.102937E-07,2.316951E-08,-2.861022E-08
755.4775,-0.8468505,-7.048016E-10,NaN,-0.3594777,-1.325671E-07,NaN,1.151912,-4.836065E-07,NaN,-0.6696663,2.158711E-05,0.4325995,5.974552E-08,NaN,NaN,-0.01015702,-4.377219E-10,-7.409355E-07,-1.102937E-07,2.316951E-08,-2.861022E-08
755.4922,-0.8447203,-7.04114E-10,NaN,-0.3587474,-1.325675E-07,NaN,1.151827,-4.836062E-07,NaN,-0.6669418,2.158752E-05,0.4336532,5.974658E-08,NaN,NaN,-0.009987728,-4.330653E-10,-7.445118E-07,-1.10294E-07,2.674579E-08,-2.622604E-08
755.5087,-0.8424805,-7.034264E-10,NaN,-0.3579784,-1.325678E-07,NaN,1.15165,-4.836087E-07,NaN,-0.6639289,2.158794E-05,0.4348923,5.97504E-08,NaN,NaN,-0.009821734,-4.330653E-10,-7.457039E-07,-1.102943E-07,2.674579E-08,-2.861022E-08
755.5245,-0.8401818,-7.027389E-10,NaN,-0.3571895,-1.325681E-07,NaN,1.151498,-4.83611E-07,NaN,-0.6608039,2.158836E-05,0.4361629,5.975409E-08,NaN,NaN,-0.009659094,-4.284087E-10,-7.46896E-07,-1.102946E-07,2.674579E-08,-2.622604E-08
755.5403,-0.8378562,-7.020514E-10,NaN,-0.356392,-1.325684E-07,NaN,1.151396,-4.836132E-07,NaN,-0.657652,2.158878E-05,0.4374113,5.975765E-08,NaN,NaN,-0.00949975,-4.284087E-10,-7.457039E-07,-1.102949E-07,2.436161E-08,-2.861022E-08
755.5577,-0.8378562,-7.020514E-10,NaN,-0.356392,-1.325684E-07,NaN,1.151396,-4.836132E-07,NaN,-0.657652,2.158878E-05,0.4374113,5.975765E-08,NaN,NaN,-0.00949975,-4.284087E-10,-7.457039E-07,-1.102949E-07,2.436161E-08,-2.861022E-08
755.5714,-0.8357362,-7.013639E-10,NaN,-0.3556699,-1.325688E-07,NaN,1.151691,-4.836153E-07,NaN,-0.6550016,2.158919E-05,0.4381449,5.976111E-08,NaN,NaN,-0.00942774,-4.237521E-10,-7.349751E-07,-1.102952E-07,2.078533E-08,-2.622604E-08
755.5874,-0.8337535,-7.006765E-10,NaN,-0.3549967,-1.325691E-07,NaN,1.152121,-4.836173E-07,NaN,-0.6527063,2.158961E-05,0.4386378,5.976444E-08,NaN,NaN,-0.009357239,-4.237521E-10,-7.266304E-07,-1.102954E-07,2.316951E-08,-2.861022E-08
755.6036,-0.8318648,-6.99989E-10,NaN,-0.3543564,-1.325694E-07,NaN,1.152557,-4.836192E-07,NaN,-0.6505975,2.159002E-05,0.4390471,5.976766E-08,NaN,NaN,-0.00928808,-4.190955E-10,-7.159015E-07,-1.102957E-07,2.436161E-08,-2.622604E-08
755.6196,-0.8318648,-6.99989E-10,NaN,-0.3543564,-1.325694E-07,NaN,1.152557,-4.836192E-07,NaN,-0.6505975,2.159002E-05,0.4390471,5.976766E-08,NaN,NaN,-0.00928808,-4.190955E-10,-7.159015E-07,-1.102957E-07,2.436161E-08,-2.622604E-08
755.6353,-0.8302554,-6.993016E-10,NaN,-0.3538158,-1.325697E-07,NaN,1.153317,-4.836238E-07,NaN,-0.6490815,2.159044E-05,0.4389555,5.977359E-08,NaN,NaN,-0.00930437,-4.190955E-10,-6.932518E-07,-1.10296E-07,2.316951E-08,-2.861022E-08
755.6511,-0.8288273,-6.986142E-10,NaN,-0.3533383,-1.3257E-07,NaN,1.154147,-4.836282E-07,NaN,-0.6479529,2.159086E-05,0.4386547,5.977936E-08,NaN,NaN,-0.009320307,-4.144389E-10,-6.765625E-07,-1.102963E-07,1.840114E-08,-2.622604E-08
755.667,-0.8275186,-6.979268E-10,NaN,-0.3529015,-1.325703E-07,NaN,1.154934,-4.836325E-07,NaN,-0.6470156,2.159128E-05,0.4383027,5.978497E-08,NaN,NaN,-0.009335804,-4.144389E-10,-6.586811E-07,-1.102966E-07,2.436161E-08,-2.861022E-08
755.6829,-0.8262902,-6.972394E-10,NaN,-0.3524914,-1.325706E-07,NaN,1.155656,-4.836366E-07,NaN,-0.6461749,2.159169E-05,0.4379539,5.979041E-08,NaN,NaN,-0.009350884,-4.097823E-10,-6.431839E-07,-1.102969E-07,2.436161E-08,-2.622604E-08
755.6986,-0.8262902,-6.972394E-10,NaN,-0.3524914,-1.325706E-07,NaN,1.155656,-4.836366E-07,NaN,-0.6461749,2.159169E-05,0.4379539,5.979041E-08,NaN,NaN,-0.009350884,-4.097823E-10,-6.431839E-07,-1.102969E-07,2.436161E-08,-2.622604E-08
755.7136,-0.8253295,-6.96552E-10,NaN,-0.3521764,-1.32571E-07,NaN,1.156675,-4.836406E-07,NaN,-0.645874,2.159211E-05,0.4371476,5.97957E-08,NaN,NaN,-0.009449751,-4.097823E-10,-6.169578E-07,-1.102971E-07,2.197742E-08,-2.861022E-08
755.7303,-0.8245406,-6.958646E-10,NaN,-0.351921,-1.325713E-07,NaN,1.157753,-4.836444E-07,NaN,-0.6459256,2.159252E-05,0.4361562,5.980083E-08,NaN,NaN,-0.009546627,-4.051257E-10,-5.93116E-07,-1.102974E-07,2.197742E-08,-2.622604E-08
755.7462,-0.8238625,-6.951772E-10,NaN,-0.3517031,-1.325716E-07,NaN,1.158779,-4.83648E-07,NaN,-0.6461427,2.159294E-05,0.43513,5.980582E-08,NaN,NaN,-0.009641471,-4.051257E-10,-5.728504E-07,-1.102977E-07,2.55537E-08,-2.861022E-08
755.7621,-0.8232568,-6.944898E-10,NaN,-0.3515093,-1.325719E-07,NaN,1.159734,-4.836543E-07,NaN,-0.6464348,2.159336E-05,0.4341206,5.981349E-08,NaN,NaN,-0.009734332,-4.00469E-10,-5.490086E-07,-1.10298E-07,2.197742E-08,-2.622604E-08
755.778,-0.8232568,-6.944898E-10,NaN,-0.3515093,-1.325719E-07,NaN,1.159734,-4.836543E-07,NaN,-0.6464348,2.159336E-05,0.4341206,5.981349E-08,NaN,NaN,-0.009734332,-4.00469E-10,-5.490086E-07,-1.10298E-07,2.197742E-08,-2.622604E-08
755.793,-0.8229113,-6.938024E-10,NaN,-0.351408,-1.325722E-07,NaN,1.160981,-4.836605E-07,NaN,-0.6472477,2.159377E-05,0.4326654,5.982096E-08,NaN,NaN,-0.009909431,-4.00469E-10,-5.192063E-07,-1.102982E-07,2.197742E-08,-2.861022E-08
755.8093,-0.8227304,-6.93115E-10,NaN,-0.3513639,-1.325725E-07,NaN,1.162277,-4.836664E-07,NaN,-0.6483951,2.159419E-05,0.4310377,5.982822E-08,NaN,NaN,-0.01008103,-3.958124E-10,-4.905961E-07,-1.102985E-07,2.078533E-08,-2.622604E-08
755.8253,-0.8226536,-6.924276E-10,NaN,-0.3513551,-1.325728E-07,NaN,1.163512,-4.836722E-07,NaN,-0.6496907,2.159461E-05,0.4293879,5.98353E-08,NaN,NaN,-0.01024912,-3.958124E-10,-4.6437E-07,-1.102988E-07,1.840114E-08,-2.861022E-08
755.841,-0.8226425,-6.917402E-10,NaN,-0.3513671,-1.325731E-07,NaN,1.164667,-4.836778E-07,NaN,-0.6510436,2.159502E-05,0.4277677,5.984219E-08,NaN,NaN,-0.01041377,-3.911558E-10,-4.369519E-07,-1.102991E-07,2.316951E-08,-2.622604E-08
755.8567,-0.8226425,-6.917402E-10,NaN,-0.3513671,-1.325731E-07,NaN,1.164667,-4.836778E-07,NaN,-0.6510436,2.159502E-05,0.4277677,5.984219E-08,NaN,NaN,-0.01041377,-3.911558E-10,-4.369519E-07,-1.102991E-07,2.316951E-08,-2.622604E-08
755.8719,-0.8228839,-6.910528E-10,NaN,-0.3514686,-1.325734E-07,NaN,1.166103,-4.836832E-07,NaN,-0.6529009,2.159544E-05,0.4257125,5.984889E-08,NaN,NaN,-0.01065918,-3.911558E-10,-4.059575E-07,-1.102994E-07,2.436161E-08,-2.861022E-08
755.8882,-0.8232828,-6.903654E-10,NaN,-0.3516248,-1.325737E-07,NaN,1.167576,-4.836883E-07,NaN,-0.6550766,2.159586E-05,0.4234979,5.985542E-08,NaN,NaN,-0.01089971,-3.911558E-10,-3.737709E-07,-1.102996E-07,1.959323E-08,-2.622604E-08
755.9043,-0.8237788,-6.89678E-10,NaN,-0.3518137,-1.32574E-07,NaN,1.168978,-4.836962E-07,NaN,-0.6573843,2.159628E-05,0.4212743,5.986459E-08,NaN,NaN,-0.01113536,-3.911558E-10,-3.427765E-07,-1.102999E-07,2.078533E-08,-2.861022E-08
755.92,-0.8237788,-6.89678E-10,NaN,-0.3518137,-1.32574E-07,NaN,1.168978,-4.836962E-07,NaN,-0.6573843,2.159628E-05,0.4212743,5.986459E-08,NaN,NaN,-0.01113536,-3.911558E-10,-3.427765E-07,-1.102999E-07,2.078533E-08,-2.861022E-08
755.9349,-0.8243337,-6.889906E-10,NaN,-0.352022,-1.325743E-07,NaN,1.17029,-4.837038E-07,NaN,-0.6597341,2.159669E-05,0.4190925,5.987353E-08,NaN,NaN,-0.01136623,-3.864992E-10,-3.093979E-07,-1.103002E-07,1.720905E-08,-2.622604E-08
755.9512,-0.8251355,-6.883032E-10,NaN,-0.3523179,-1.325746E-07,NaN,1.171872,-4.837112E-07,NaN,-0.6625726,2.159711E-05,0.4164828,5.988225E-08,NaN,NaN,-0.01167648,-3.864992E-10,-2.724431E-07,-1.103004E-07,1.601695E-08,-2.861022E-08
755.9677,-0.8260887,-6.876158E-10,NaN,-0.3526663,-1.325749E-07,NaN,1.173479,-4.837183E-07,NaN,-0.6657139,2.159753E-05,0.4137273,5.989074E-08,NaN,NaN,-0.01198056,-3.818426E-10,-2.342961E-07,-1.103007E-07,6.480212E-09,-2.622604E-08
755.9832,-0.8271328,-6.869284E-10,NaN,-0.353045,-1.325752E-07,NaN,1.175002,-4.837253E-07,NaN,-0.6689718,2.159794E-05,0.4109765,5.989903E-08,NaN,NaN,-0.01227849,-3.818426E-10,-2.044938E-07,-1.10301E-07,7.672305E-09,-2.861022E-08
755.9991,-0.8271328,-6.869284E-10,NaN,-0.353045,-1.325752E-07,NaN,1.175002,-4.837253E-07,NaN,-0.6689718,2.159794E-05,0.4109765,5.989903E-08,NaN,NaN,-0.01227849,-3.818426E-10,-2.044938E-07,-1.10301E-07,7.672305E-09,-2.861022E-08
756.0142,-0.8282294,-6.862415E-10,NaN,-0.3534405,-1.325755E-07,NaN,1.176423,-4.836606E-07,NaN,-0.6722569,2.159837E-05,0.4082802,5.983576E-08,NaN,NaN,-0.01257041,-3.911558E-10,-1.746915E-07,-1.103012E-07,1.244068E-08,-2.622604E-08
756.0308,-0.8295667,-6.855546E-10,NaN,-0.3539214,-1.325758E-07,NaN,1.178106,-4.835972E-07,NaN,-0.6760158,2.159877E-05,0.4051625,5.977365E-08,NaN,NaN,-0.01294041,-3.818426E-10,-1.389287E-07,-1.103015E-07,1.005649E-08,-2.861022E-08
756.0466,-0.8310491,-6.848679E-10,NaN,-0.3544521,-1.325761E-07,NaN,1.179797,-4.835377E-07,NaN,-0.6800628,2.159918E-05,0.4019128,5.971554E-08,NaN,NaN,-0.01330306,-3.77186E-10,-9.601332E-08,-1.103018E-07,8.864398E-09,-2.622604E-08
756.0635,-0.8326162,-6.841812E-10,NaN,-0.3550107,-1.325764E-07,NaN,1.181391,-4.834794E-07,NaN,-0.684212,2.15996E-05,0.3986817,5.96585E-08,NaN,NaN,-0.0136584,-3.77186E-10,-6.144263E-08,-1.10302E-07,7.672305E-09,-2.861022E-08
756.0781,-0.8326162,-6.841812E-10,NaN,-0.3550107,-1.325764E-07,NaN,1.181391,-4.834794E-07,NaN,-0.684212,2.15996E-05,0.3986817,5.96585E-08,NaN,NaN,-0.0136584,-3.77186E-10,-6.144263E-08,-1.10302E-07,7.672305E-09,-2.861022E-08
756.0935,-0.8342296,-6.834946E-10,NaN,-0.3555837,-1.325767E-07,NaN,1.182876,-4.834221E-07,NaN,-0.6883743,2.160002E-05,0.3955173,5.960253E-08,NaN,NaN,-0.01400658,-3.818426E-10,-2.567985E-08,-1.103023E-07,6.480213E-09,-2.622604E-08
756.1099,-0.8360778,-6.828079E-10,NaN,-0.3562397,-1.32577E-07,NaN,1.18461,-4.833658E-07,NaN,-0.6929962,2.160042E-05,0.3919363,5.954759E-08,NaN,NaN,-0.01443163,-3.725294E-10,1.842759E-08,-1.103026E-07,5.28812E-09,-2.861022E-08
756.1258,-0.838065,-6.821213E-10,NaN,-0.3569431,-1.325773E-07,NaN,1.186339,-4.833105E-07,NaN,-0.6978925,2.160084E-05,0.3882372,5.949366E-08,NaN,NaN,-0.01484825,-3.725294E-10,6.134293E-08,-1.103028E-07,8.864399E-09,-2.622604E-08
756.1417,-0.8401309,-6.814347E-10,NaN,-0.357672,-1.325776E-07,NaN,1.187958,-4.832563E-07,NaN,-0.7028774,2.160124E-05,0.3845707,5.944073E-08,NaN,NaN,-0.01525648,-3.632162E-10,1.018741E-07,-1.103031E-07,2.903935E-09,-2.861022E-08
756.1571,-0.8401309,-6.814347E-10,NaN,-0.357672,-1.325776E-07,NaN,1.187958,-4.832563E-07,NaN,-0.7028774,2.160124E-05,0.3845707,5.944073E-08,NaN,NaN,-0.01525648,-3.632162E-10,1.018741E-07,-1.103031E-07,2.903935E-09,-2.861022E-08
756.1724,-0.8422372,-6.807482E-10,NaN,-0.358413,-1.325779E-07,NaN,1.189459,-4.832031E-07,NaN,-0.707862,2.160166E-05,0.3809832,5.938878E-08,NaN,NaN,-0.01565652,-3.678728E-10,1.400211E-07,-1.103033E-07,-6.723437E-10,-2.622604E-08
756.1886,-0.8445727,-6.800617E-10,NaN,-0.3592348,-1.325782E-07,NaN,1.191201,-4.831508E-07,NaN,-0.713293,2.160207E-05,0.3769816,5.933778E-08,NaN,NaN,-0.01613228,-3.585596E-10,1.793601E-07,-1.103036E-07,2.903935E-09,-2.861022E-08
756.2047,-0.8470415,-6.793753E-10,NaN,-0.3601017,-1.325785E-07,NaN,1.19292,-4.831022E-07,NaN,-0.7189853,2.160248E-05,0.3728764,5.929056E-08,NaN,NaN,-0.01659862,-3.632162E-10,2.186992E-07,-1.103038E-07,1.711842E-09,-2.622604E-08
756.2203,-0.8495833,-6.786888E-10,NaN,-0.3609918,-1.325788E-07,NaN,1.194521,-4.830545E-07,NaN,-0.7247534,2.160289E-05,0.3688181,5.924419E-08,NaN,NaN,-0.0170556,-3.53903E-10,2.616145E-07,-1.103041E-07,4.096028E-09,-2.861022E-08
756.2365,-0.8495833,-6.786888E-10,NaN,-0.3609918,-1.325788E-07,NaN,1.194521,-4.830545E-07,NaN,-0.7247534,2.160289E-05,0.3688181,5.924419E-08,NaN,NaN,-0.0170556,-3.53903E-10,2.616145E-07,-1.103041E-07,4.096028E-09,-2.861022E-08
756.252,-0.8521599,-6.780024E-10,NaN,-0.3618919,-1.325791E-07,NaN,1.195994,-4.830077E-07,NaN,-0.7305087,2.16033E-05,0.3648508,5.919867E-08,NaN,NaN,-0.01750341,-3.53903E-10,3.045298E-07,-1.103043E-07,2.903935E-09,-2.622604E-08
756.2682,-0.8549604,-6.77316E-10,NaN,-0.3628708,-1.325794E-07,NaN,1.197701,-4.829617E-07,NaN,-0.7366978,2.160371E-05,0.3604701,5.915399E-08,NaN,NaN,-0.0180259,-3.445897E-10,3.510215E-07,-1.103046E-07,-6.72344E-10,-2.861022E-08
756.2836,-0.8578888,-6.766296E-10,NaN,-0.3638926,-1.325797E-07,NaN,1.199371,-4.829165E-07,NaN,-0.7431359,2.160413E-05,0.3560007,5.911012E-08,NaN,NaN,-0.01853807,-3.492464E-10,3.951289E-07,-1.103049E-07,5.197489E-10,-2.622604E-08
756.2996,-0.8578888,-6.766296E-10,NaN,-0.3638926,-1.325797E-07,NaN,1.199371,-4.829165E-07,NaN,-0.7431359,2.160413E-05,0.3560007,5.911012E-08,NaN,NaN,-0.01853807,-3.492464E-10,3.951289E-07,-1.103049E-07,5.197489E-10,-2.622604E-08
756.3147,-0.8608848,-6.759433E-10,NaN,-0.3649356,-1.3258E-07,NaN,1.200912,-4.828721E-07,NaN,-0.7496377,2.160453E-05,0.3515927,5.906705E-08,NaN,NaN,-0.01903997,-3.399331E-10,4.368521E-07,-1.103051E-07,-1.864437E-09,-2.861022E-08
756.3312,-0.8639104,-6.75257E-10,NaN,-0.3659865,-1.325802E-07,NaN,1.202321,-4.828285E-07,NaN,-0.7561151,2.160495E-05,0.3472875,5.902476E-08,NaN,NaN,-0.01953181,-3.445897E-10,4.785754E-07,-1.103054E-07,4.096028E-09,-2.622604E-08
756.3471,-0.8671548,-6.745707E-10,NaN,-0.3671143,-1.325805E-07,NaN,1.203955,-4.827885E-07,NaN,-0.7630143,2.160536E-05,0.3425674,5.898607E-08,NaN,NaN,-0.02009737,-3.352765E-10,5.238749E-07,-1.103056E-07,4.096028E-09,-2.861022E-08
756.3631,-0.8705221,-6.738845E-10,NaN,-0.368283,-1.325808E-07,NaN,1.205539,-4.827492E-07,NaN,-0.770151,2.160578E-05,0.3377743,5.894808E-08,NaN,NaN,-0.02065177,-3.399331E-10,5.691745E-07,-1.103058E-07,1.124858E-08,-2.622604E-08
756.3787,-0.8705221,-6.738845E-10,NaN,-0.368283,-1.325808E-07,NaN,1.205539,-4.827492E-07,NaN,-0.770151,2.160578E-05,0.3377743,5.894808E-08,NaN,NaN,-0.02065177,-3.399331E-10,5.691745E-07,-1.103058E-07,1.124858E-08,-2.622604E-08
756.3939,-0.8739519,-6.731982E-10,NaN,-0.3694708,-1.325811E-07,NaN,1.206985,-4.827105E-07,NaN,-0.7773401,2.160618E-05,0.3330574,5.891077E-08,NaN,NaN,-0.02119508,-3.306199E-10,6.073215E-07,-1.103061E-07,1.601695E-08,-2.861022E-08
756.4101,-0.8774062,-6.72512E-10,NaN,-0.3706647,-1.325814E-07,NaN,1.208297,-4.826725E-07,NaN,-0.7844939,2.16066E-05,0.3284545,5.887413E-08,NaN,NaN,-0.02172752,-3.352765E-10,6.466605E-07,-1.103063E-07,1.244068E-08,-2.622604E-08
756.4261,-0.8810747,-6.718258E-10,NaN,-0.3719336,-1.325817E-07,NaN,1.209829,-4.826352E-07,NaN,-0.7920582,2.160701E-05,0.3234328,5.883815E-08,NaN,NaN,-0.0223328,-3.259633E-10,6.895759E-07,-1.103066E-07,1.363277E-08,-2.861022E-08
756.4418,-0.8848611,-6.711397E-10,NaN,-0.3732416,-1.325819E-07,NaN,1.211296,-4.825986E-07,NaN,-0.799849,2.160742E-05,0.3183551,5.880282E-08,NaN,NaN,-0.02292614,-3.306199E-10,7.372596E-07,-1.103068E-07,8.864397E-09,-2.622604E-08
756.4576,-0.8848611,-6.711397E-10,NaN,-0.3732416,-1.325819E-07,NaN,1.211296,-4.825986E-07,NaN,-0.799849,2.160742E-05,0.3183551,5.880282E-08,NaN,NaN,-0.02292614,-3.306199E-10,7.372596E-07,-1.103068E-07,8.864397E-09,-2.622604E-08
756.4727,-0.8887051,-6.704535E-10,NaN,-0.3745669,-1.325822E-07,NaN,1.21262,-4.825625E-07,NaN,-0.8076819,2.160783E-05,0.3133684,5.876811E-08,NaN,NaN,-0.02350763,-3.213067E-10,7.81367E-07,-1.103071E-07,4.096026E-09,-2.861022E-08
756.4892,-0.8925689,-6.697674E-10,NaN,-0.3758964,-1.325825E-07,NaN,1.213809,-4.8253E-07,NaN,-0.8154692,2.160825E-05,0.3085063,5.873686E-08,NaN,NaN,-0.02407751,-3.259633E-10,8.218982E-07,-1.103073E-07,1.71184E-09,-2.622604E-08
756.5052,-0.8966426,-6.690813E-10,NaN,-0.3772992,-1.325828E-07,NaN,1.215214,-4.82498E-07,NaN,-0.8236564,2.160865E-05,0.303219,5.870615E-08,NaN,NaN,-0.02471942,-3.166501E-10,8.660056E-07,-1.103076E-07,4.096026E-09,-2.861022E-08
756.5206,-0.9008296,-6.683952E-10,NaN,-0.3787394,-1.325831E-07,NaN,1.216541,-4.824665E-07,NaN,-0.83206,2.160907E-05,0.2978939,5.867599E-08,NaN,NaN,-0.02534868,-3.213067E-10,9.124972E-07,-1.103078E-07,5.197471E-10,-2.622604E-08
756.5366,-0.9008296,-6.683952E-10,NaN,-0.3787394,-1.325831E-07,NaN,1.216541,-4.824665E-07,NaN,-0.83206,2.160907E-05,0.2978939,5.867599E-08,NaN,NaN,-0.02534868,-3.213067E-10,9.124972E-07,-1.103078E-07,5.197471E-10,-2.622604E-08
756.5517,-0.9050695,-6.677092E-10,NaN,-0.380195,-1.325834E-07,NaN,1.217722,-4.824355E-07,NaN,-0.8404958,2.160948E-05,0.2926748,5.864635E-08,NaN,NaN,-0.02596539,-3.119935E-10,9.530284E-07,-1.103081E-07,1.71184E-09,-2.861022E-08
756.5698,-0.9093247,-6.670232E-10,NaN,-0.3816532,-1.325836E-07,NaN,1.21877,-4.824051E-07,NaN,-0.8488767,2.16099E-05,0.2875896,5.861724E-08,NaN,NaN,-0.0265698,-3.166501E-10,9.852149E-07,-1.103083E-07,5.288118E-09,-2.622604E-08
756.5844,-0.9137855,-6.663372E-10,NaN,-0.3831832,-1.325839E-07,NaN,1.22003,-4.823751E-07,NaN,-0.8576475,2.16103E-05,0.2820705,5.858864E-08,NaN,NaN,-0.02724553,-3.073369E-10,1.025746E-06,-1.103085E-07,8.864397E-09,-2.861022E-08
756.6006,-0.9183553,-6.656512E-10,NaN,-0.3847488,-1.325842E-07,NaN,1.221201,-4.823457E-07,NaN,-0.8666252,2.161071E-05,0.2765336,5.856053E-08,NaN,NaN,-0.02790793,-2.980237E-10,1.066277E-06,-1.103088E-07,8.864397E-09,-2.622604E-08
756.616,-0.9183553,-6.656512E-10,NaN,-0.3847488,-1.325842E-07,NaN,1.221201,-4.823457E-07,NaN,-0.8666252,2.161071E-05,0.2765336,5.856053E-08,NaN,NaN,-0.02790793,-2.980237E-10,1.066277E-06,-1.103088E-07,8.864397E-09,-2.622604E-08
756.6313,-0.9229738,-6.649653E-10,NaN,-0.3863282,-1.325844E-07,NaN,1.222225,-4.823168E-07,NaN,-0.875626,2.161111E-05,0.2711169,5.853292E-08,NaN,NaN,-0.02855714,-2.887104E-10,1.104424E-06,-1.10309E-07,7.672305E-09,-2.861022E-08
756.6476,-0.9276031,-6.642795E-10,NaN,-0.3879085,-1.325847E-07,NaN,1.22312,-4.822911E-07,NaN,-0.8845633,2.161153E-05,0.2658424,5.850861E-08,NaN,NaN,-0.02919344,-2.933671E-10,1.140187E-06,-1.103093E-07,8.864397E-09,-2.622604E-08
756.6638,-0.9324341,-6.635936E-10,NaN,-0.3895592,-1.32585E-07,NaN,1.224224,-4.822659E-07,NaN,-0.8938812,2.161194E-05,0.2601231,5.848473E-08,NaN,NaN,-0.02990037,-2.840538E-10,1.17595E-06,-1.103095E-07,1.124858E-08,-2.861022E-08
756.6793,-0.9324341,-6.635936E-10,NaN,-0.3895592,-1.32585E-07,NaN,1.224224,-4.822659E-07,NaN,-0.8938812,2.161194E-05,0.2601231,5.848473E-08,NaN,NaN,-0.02990037,-2.840538E-10,1.17595E-06,-1.103095E-07,1.124858E-08,-2.861022E-08
756.6947,-0.93737,-6.629078E-10,NaN,-0.3912438,-1.325853E-07,NaN,1.225229,-4.822411E-07,NaN,-0.9033971,2.161236E-05,0.2544076,5.846125E-08,NaN,NaN,-0.03059338,-2.887104E-10,1.216481E-06,-1.103098E-07,1.124858E-08,-2.622604E-08
756.7111,-0.9423503,-6.622221E-10,NaN,-0.3929407,-1.325855E-07,NaN,1.226089,-4.822167E-07,NaN,-0.9129276,2.161276E-05,0.2488258,5.843816E-08,NaN,NaN,-0.03127261,-2.793972E-10,1.254628E-06,-1.1031E-07,1.244068E-08,-2.861022E-08
756.7271,-0.9473374,-6.615363E-10,NaN,-0.394637,-1.325858E-07,NaN,1.226825,-4.821927E-07,NaN,-0.9223868,2.161318E-05,0.2433929,5.841548E-08,NaN,NaN,-0.03193834,-2.840538E-10,1.290391E-06,-1.103102E-07,9.460443E-09,-2.622604E-08
756.7433,-0.9525225,-6.608506E-10,NaN,-0.3964023,-1.325861E-07,NaN,1.227768,-4.82169E-07,NaN,-0.932218,2.161358E-05,0.2375021,5.839317E-08,NaN,NaN,-0.03267411,-2.747406E-10,1.327346E-06,-1.103105E-07,9.460443E-09,-2.861022E-08
756.7585,-0.9525225,-6.608506E-10,NaN,-0.3964023,-1.325861E-07,NaN,1.227768,-4.82169E-07,NaN,-0.932218,2.161358E-05,0.2375021,5.839317E-08,NaN,NaN,-0.03267411,-2.747406E-10,1.327346E-06,-1.103105E-07,9.460443E-09,-2.861022E-08
756.7734,-0.9578086,-6.601649E-10,NaN,-0.3981999,-1.325863E-07,NaN,1.228604,-4.821458E-07,NaN,-0.9422388,2.1614E-05,0.231639,5.837124E-08,NaN,NaN,-0.03339537,-2.747406E-10,1.365493E-06,-1.103107E-07,1.065254E-08,-2.622604E-08
756.7899,-0.963135,-6.594792E-10,NaN,-0.4000084,-1.325866E-07,NaN,1.229298,-4.821257E-07,NaN,-0.9522666,2.161441E-05,0.2259215,5.835251E-08,NaN,NaN,-0.03410232,-2.747406E-10,1.400063E-06,-1.103109E-07,1.065254E-08,-2.861022E-08
756.8056,-0.9684643,-6.587935E-10,NaN,-0.4018149,-1.325869E-07,NaN,1.229877,-4.821059E-07,NaN,-0.9622158,2.161482E-05,0.2203575,5.833408E-08,NaN,NaN,-0.03479525,-2.654274E-10,1.43225E-06,-1.103112E-07,1.303672E-08,-2.622604E-08
756.8212,-0.9739881,-6.581079E-10,NaN,-0.403689,-1.325871E-07,NaN,1.230658,-4.820865E-07,NaN,-0.9725291,2.161523E-05,0.2143216,5.831595E-08,NaN,NaN,-0.03555766,-2.561142E-10,1.462052E-06,-1.103114E-07,1.482486E-08,-2.861022E-08
756.8373,-0.9739881,-6.581079E-10,NaN,-0.403689,-1.325871E-07,NaN,1.230658,-4.820865E-07,NaN,-0.9725291,2.161523E-05,0.2143216,5.831595E-08,NaN,NaN,-0.03555766,-2.561142E-10,1.462052E-06,-1.103114E-07,1.482486E-08,-2.861022E-08
756.8521,-0.9796092,-6.574223E-10,NaN,-0.4055941,-1.325874E-07,NaN,1.231325,-4.820673E-07,NaN,-0.9830242,2.161564E-05,0.208339,5.829812E-08,NaN,NaN,-0.03630504,-2.607708E-10,1.495431E-06,-1.103116E-07,1.601695E-08,-2.622604E-08
756.8685,-0.9852669,-6.567368E-10,NaN,-0.4075085,-1.325877E-07,NaN,1.231857,-4.820484E-07,NaN,-0.9935193,2.161605E-05,0.2025115,5.828057E-08,NaN,NaN,-0.0370376,-2.514576E-10,1.524041E-06,-1.103119E-07,1.899719E-08,-2.861022E-08
756.884,-0.9909235,-6.560513E-10,NaN,-0.4094196,-1.32588E-07,NaN,1.232284,-4.820299E-07,NaN,-1.003929,2.161647E-05,0.1968404,5.826331E-08,NaN,NaN,-0.03775567,-2.561142E-10,1.552651E-06,-1.103121E-07,1.959323E-08,-2.622604E-08
756.9002,-0.9967716,-6.553658E-10,NaN,-0.4113971,-1.325882E-07,NaN,1.232908,-4.820116E-07,NaN,-1.014696,2.161687E-05,0.1906832,5.824633E-08,NaN,NaN,-0.0385427,-2.46801E-10,1.584837E-06,-1.103123E-07,2.078533E-08,-2.861022E-08
756.9158,-0.9967716,-6.553658E-10,NaN,-0.4113971,-1.325882E-07,NaN,1.232908,-4.820116E-07,NaN,-1.014696,2.161687E-05,0.1906832,5.824633E-08,NaN,NaN,-0.0385427,-2.46801E-10,1.584837E-06,-1.103123E-07,2.078533E-08,-2.861022E-08
756.9309,-1.002713,-6.546803E-10,NaN,-0.4134042,-1.325885E-07,NaN,1.233412,-4.819935E-07,NaN,-1.025637,2.161729E-05,0.1846058,5.822962E-08,NaN,NaN,-0.03931422,-2.46801E-10,1.619408E-06,-1.103126E-07,1.720905E-08,-2.622604E-08
756.9477,-1.008688,-6.539949E-10,NaN,-0.4154193,-1.325887E-07,NaN,1.233791,-4.819786E-07,NaN,-1.036572,2.161769E-05,0.1786901,5.821601E-08,NaN,NaN,-0.04007047,-2.374878E-10,1.648018E-06,-1.103128E-07,1.899719E-08,-2.861022E-08
756.9631,-1.014658,-6.533095E-10,NaN,-0.4174299,-1.32589E-07,NaN,1.234075,-4.819639E-07,NaN,-1.047416,2.161811E-05,0.172932,5.82026E-08,NaN,NaN,-0.04081178,-2.374878E-10,1.670668E-06,-1.10313E-07,1.899719E-08,-2.622604E-08
756.9791,-1.014658,-6.533095E-10,NaN,-0.4174299,-1.32589E-07,NaN,1.234075,-4.819639E-07,NaN,-1.047416,2.161811E-05,0.172932,5.82026E-08,NaN,NaN,-0.04081178,-2.374878E-10,1.670668E-06,-1.10313E-07,1.899719E-08,-2.622604E-08
756.994,-1.020816,-6.526241E-10,NaN,-0.4195056,-1.325892E-07,NaN,1.234548,-4.819493E-07,NaN,-1.058609,2.161852E-05,0.1666749,5.818939E-08,NaN,NaN,-0.04162159,-2.374878E-10,1.699278E-06,-1.103132E-07,1.601695E-08,-2.861022E-08
757.0103,-1.027065,-6.519387E-10,NaN,-0.4216096,-1.325895E-07,NaN,1.234899,-4.81935E-07,NaN,-1.069971,2.161894E-05,0.1605235,5.817638E-08,NaN,NaN,-0.04241543,-2.374878E-10,1.726696E-06,-1.103135E-07,1.6613E-08,-2.622604E-08
757.0263,-1.033343,-6.512533E-10,NaN,-0.4237205,-1.325897E-07,NaN,1.235136,-4.819208E-07,NaN,-1.08132,2.161934E-05,0.1545372,5.816356E-08,NaN,NaN,-0.04319358,-2.281745E-10,1.754114E-06,-1.103137E-07,1.363277E-08,-2.861022E-08
757.0419,-1.039613,-6.505679E-10,NaN,-0.4258255,-1.3259E-07,NaN,1.235288,-4.819069E-07,NaN,-1.092573,2.161976E-05,0.148708,5.815094E-08,NaN,NaN,-0.04395638,-2.281745E-10,1.776764E-06,-1.103139E-07,1.065254E-08,-2.622604E-08
757.058,-1.039613,-6.505679E-10,NaN,-0.4258255,-1.3259E-07,NaN,1.235288,-4.819069E-07,NaN,-1.092573,2.161976E-05,0.148708,5.815094E-08,NaN,NaN,-0.04395638,-2.281745E-10,1.776764E-06,-1.103139E-07,1.065254E-08,-2.622604E-08
757.0745,-1.046069,-6.498826E-10,NaN,-0.4279945,-1.325903E-07,NaN,1.235618,-4.818932E-07,NaN,-1.104169,2.162016E-05,0.14237,5.813858E-08,NaN,NaN,-0.04478725,-2.188613E-10,1.801798E-06,-1.103141E-07,1.333475E-08,-2.861022E-08
757.0893,-1.052611,-6.491974E-10,NaN,-0.4301907,-1.325905E-07,NaN,1.235829,-4.818797E-07,NaN,-1.115927,2.162058E-05,0.1361608,5.81264E-08,NaN,NaN,-0.04560174,-2.235179E-10,1.823256E-06,-1.103144E-07,1.393079E-08,-2.622604E-08
757.1053,-1.05918,-6.485122E-10,NaN,-0.4323925,-1.325908E-07,NaN,1.235938,-4.818692E-07,NaN,-1.127667,2.1621E-05,0.1301167,5.811723E-08,NaN,NaN,-0.04640016,-2.235179E-10,1.839945E-06,-1.103146E-07,1.154661E-08,-2.861022E-08
757.1207,-1.065737,-6.47827E-10,NaN,-0.4345873,-1.32591E-07,NaN,1.235972,-4.818588E-07,NaN,-1.139306,2.162141E-05,0.1242284,5.810817E-08,NaN,NaN,-0.04718284,-2.235179E-10,1.856635E-06,-1.103148E-07,1.065254E-08,-2.622604E-08
757.1368,-1.065737,-6.47827E-10,NaN,-0.4345873,-1.32591E-07,NaN,1.235972,-4.818588E-07,NaN,-1.139306,2.162141E-05,0.1242284,5.810817E-08,NaN,NaN,-0.04718284,-2.235179E-10,1.856635E-06,-1.103148E-07,1.065254E-08,-2.622604E-08
757.1517,-1.072478,-6.471417E-10,NaN,-0.4368451,-1.325913E-07,NaN,1.236171,-4.818485E-07,NaN,-1.151283,2.162182E-05,0.1178258,5.809924E-08,NaN,NaN,-0.04803319,-2.142047E-10,1.873324E-06,-1.10315E-07,1.27387E-08,-2.861022E-08
757.1685,-1.079302,-6.464566E-10,NaN,-0.4391288,-1.325915E-07,NaN,1.236256,-4.818383E-07,NaN,-1.163416,2.162223E-05,0.1115695,5.809041E-08,NaN,NaN,-0.04886679,-2.142047E-10,1.891205E-06,-1.103153E-07,1.303672E-08,-2.622604E-08
757.1841,-1.086149,-6.457714E-10,NaN,-0.441417,-1.325918E-07,NaN,1.236252,-4.818282E-07,NaN,-1.175526,2.162264E-05,0.1054762,5.80817E-08,NaN,NaN,-0.04968396,-2.048914E-10,1.90551E-06,-1.103155E-07,1.124858E-08,-2.861022E-08
757.1998,-1.086149,-6.457714E-10,NaN,-0.441417,-1.325918E-07,NaN,1.236252,-4.818282E-07,NaN,-1.175526,2.162264E-05,0.1054762,5.80817E-08,NaN,NaN,-0.04968396,-2.048914E-10,1.90551E-06,-1.103155E-07,1.124858E-08,-2.861022E-08
757.215,-1.093199,-6.450863E-10,NaN,-0.4437742,-1.32592E-07,NaN,1.236388,-4.818183E-07,NaN,-1.188008,2.162306E-05,0.09887508,5.80731E-08,NaN,NaN,-0.05056811,-2.09548E-10,1.925776E-06,-1.103157E-07,6.927247E-09,-2.622604E-08
757.2313,-1.100344,-6.444011E-10,NaN,-0.4461603,-1.325923E-07,NaN,1.23641,-4.818085E-07,NaN,-1.200657,2.162347E-05,0.09243446,5.806461E-08,NaN,NaN,-0.05143484,-2.09548E-10,1.943657E-06,-1.103159E-07,2.456899E-09,-2.861022E-08
757.2469,-1.107518,-6.43716E-10,NaN,-0.4485518,-1.325925E-07,NaN,1.236347,-4.817987E-07,NaN,-1.213285,2.162389E-05,0.08615921,5.805622E-08,NaN,NaN,-0.05228452,-2.09548E-10,1.954386E-06,-1.103161E-07,1.711841E-09,-2.622604E-08
757.2628,-1.114679,-6.430309E-10,NaN,-0.4509355,-1.325928E-07,NaN,1.236219,-4.817891E-07,NaN,-1.225805,2.162429E-05,0.08004031,5.804794E-08,NaN,NaN,-0.05311748,-2.002348E-10,1.960346E-06,-1.103164E-07,8.17771E-10,-2.861022E-08
757.2784,-1.114679,-6.430309E-10,NaN,-0.4509355,-1.325928E-07,NaN,1.236219,-4.817891E-07,NaN,-1.225805,2.162429E-05,0.08004031,5.804794E-08,NaN,NaN,-0.05311748,-2.002348E-10,1.960346E-06,-1.103164E-07,8.17771E-10,-2.861022E-08
757.2939,-1.12202,-6.423458E-10,NaN,-0.4533807,-1.32593E-07,NaN,1.236224,-4.817824E-07,NaN,-1.238652,2.162471E-05,0.07341395,5.804258E-08,NaN,NaN,-0.05401709,-2.002348E-10,1.967499E-06,-1.103166E-07,6.687594E-10,-2.622604E-08
757.3102,-1.129441,-6.416608E-10,NaN,-0.4558498,-1.325933E-07,NaN,1.236135,-4.817193E-07,NaN,-1.251643,2.162512E-05,0.06695065,5.798084E-08,NaN,NaN,-0.05489901,-2.002348E-10,1.972267E-06,-1.103168E-07,-8.958625E-10,-2.861022E-08
757.3262,-1.13688,-6.409757E-10,NaN,-0.4583212,-1.325935E-07,NaN,1.235973,-4.816546E-07,NaN,-1.264602,2.162554E-05,0.06064761,5.791743E-08,NaN,NaN,-0.05576359,-2.048914E-10,1.97346E-06,-1.103171E-07,-1.508045E-10,-2.622604E-08
757.3418,-1.144298,-6.402906E-10,NaN,-0.4607825,-1.325938E-07,NaN,1.235758,-4.81591E-07,NaN,-1.277444,2.162595E-05,0.05449749,5.78552E-08,NaN,NaN,-0.05661117,-2.048914E-10,1.97346E-06,-1.103173E-07,6.572802E-11,-2.861022E-08
757.3579,-1.144298,-6.402906E-10,NaN,-0.4607825,-1.325938E-07,NaN,1.235758,-4.81591E-07,NaN,-1.277444,2.162595E-05,0.05449749,5.78552E-08,NaN,NaN,-0.05661117,-2.048914E-10,1.97346E-06,-1.103173E-07,6.572802E-11,-2.861022E-08
757.373,-1.146636,-6.396055E-10,NaN,-0.4614522,-1.32594E-07,NaN,1.231837,-4.815286E-07,NaN,-1.279225,2.162637E-05,0.06339643,5.779413E-08,NaN,NaN,-0.0555332,-2.048914E-10,1.898358E-06,-1.103176E-07,7.362803E-10,-2.622604E-08
757.3897,-1.145849,-6.389204E-10,NaN,-0.4610769,-1.325942E-07,NaN,1.2288,-4.814673E-07,NaN,-1.273667,2.162677E-05,0.07202443,5.77342E-08,NaN,NaN,-0.05447612,-1.955782E-10,1.826832E-06,-1.103178E-07,1.555844E-09,-2.861022E-08
757.4053,-1.143116,-6.382353E-10,NaN,-0.4600582,-1.325945E-07,NaN,1.2263,-4.814072E-07,NaN,-1.264634,2.162719E-05,0.08041574,5.767538E-08,NaN,NaN,-0.05343965,-1.955782E-10,1.761267E-06,-1.103181E-07,7.735332E-10,-2.622604E-08
757.4211,-1.139192,-6.375502E-10,NaN,-0.4586543,-1.325947E-07,NaN,1.224137,-4.813481E-07,NaN,-1.254006,2.16276E-05,0.08860107,5.761765E-08,NaN,NaN,-0.05242344,-1.955782E-10,1.701662E-06,-1.103184E-07,1.248508E-09,-2.861022E-08
757.4368,-1.139192,-6.375502E-10,NaN,-0.4586543,-1.325947E-07,NaN,1.224137,-4.813481E-07,NaN,-1.254006,2.16276E-05,0.08860107,5.761765E-08,NaN,NaN,-0.05242344,-1.955782E-10,1.701662E-06,-1.103184E-07,1.248508E-09,-2.861022E-08
757.4514,-1.134769,-6.368652E-10,NaN,-0.4571032,-1.32595E-07,NaN,1.222361,-4.812902E-07,NaN,-1.243169,2.162802E-05,0.09594939,5.7561E-08,NaN,NaN,-0.05151019,-2.002348E-10,1.652787E-06,-1.103186E-07,-7.25896E-10,-2.622604E-08
757.4682,-1.130061,-6.361801E-10,NaN,-0.4554718,-1.325952E-07,NaN,1.220704,-4.812332E-07,NaN,-1.232406,2.162844E-05,0.1031346,5.750539E-08,NaN,NaN,-0.05061483,-2.002348E-10,1.603911E-06,-1.103189E-07,1.956313E-09,-2.861022E-08
757.4838,-1.125196,-6.35495E-10,NaN,-0.4538002,-1.325954E-07,NaN,1.219131,-4.811773E-07,NaN,-1.22176,2.162885E-05,0.1101687,5.745082E-08,NaN,NaN,-0.04973701,-2.002348E-10,1.556227E-06,-1.103191E-07,1.956313E-09,-2.622604E-08
757.4998,-1.125196,-6.35495E-10,NaN,-0.4538002,-1.325954E-07,NaN,1.219131,-4.811773E-07,NaN,-1.22176,2.162885E-05,0.1101687,5.745082E-08,NaN,NaN,-0.04973701,-2.002348E-10,1.556227E-06,-1.103191E-07,1.956313E-09,-2.622604E-08
757.5146,-1.120258,-6.3481E-10,NaN,-0.4521124,-1.325957E-07,NaN,1.21762,-4.811224E-07,NaN,-1.211249,2.162926E-05,0.117059,5.739725E-08,NaN,NaN,-0.04887639,-1.909216E-10,1.510928E-06,-1.103194E-07,2.254336E-09,-2.861022E-08
757.5313,-1.115515,-6.34125E-10,NaN,-0.4505,-1.325959E-07,NaN,1.216346,-4.810685E-07,NaN,-1.201358,2.162968E-05,0.123156,5.734467E-08,NaN,NaN,-0.04811573,-1.955782E-10,1.470396E-06,-1.103196E-07,2.105324E-09,-2.622604E-08
757.547,-1.110913,-6.3344E-10,NaN,-0.4489396,-1.325962E-07,NaN,1.215076,-4.810184E-07,NaN,-1.191931,2.163009E-05,0.1291271,5.72959E-08,NaN,NaN,-0.04736996,-1.955782E-10,1.435826E-06,-1.103199E-07,-2.514036E-09,-2.861022E-08
757.5627,-1.106417,-6.32755E-10,NaN,-0.4474172,-1.325964E-07,NaN,1.213816,-4.809692E-07,NaN,-1.182797,2.163051E-05,0.1349833,5.724801E-08,NaN,NaN,-0.0466388,-2.002348E-10,1.396487E-06,-1.103202E-07,-1.298499E-10,-2.622604E-08
757.5782,-1.106417,-6.32755E-10,NaN,-0.4474172,-1.325964E-07,NaN,1.213816,-4.809692E-07,NaN,-1.182797,2.163051E-05,0.1349833,5.724801E-08,NaN,NaN,-0.0466388,-2.002348E-10,1.396487E-06,-1.103202E-07,-1.298499E-10,-2.622604E-08
757.5946,-1.102006,-6.320699E-10,NaN,-0.4459244,-1.325967E-07,NaN,1.212572,-4.809209E-07,NaN,-1.173872,2.163092E-05,0.1407266,5.720101E-08,NaN,NaN,-0.04592195,-2.002348E-10,1.355955E-06,-1.103204E-07,1.509278E-09,-2.861022E-08
757.6097,-1.097885,-6.313848E-10,NaN,-0.444533,-1.325969E-07,NaN,1.211553,-4.808734E-07,NaN,-1.16559,2.163134E-05,0.1457021,5.715486E-08,NaN,NaN,-0.04530228,-2.002348E-10,1.323769E-06,-1.103206E-07,-4.278731E-10,-2.622604E-08
757.6263,-1.09396,-6.306998E-10,NaN,-0.4432084,-1.325971E-07,NaN,1.210513,-4.808268E-07,NaN,-1.157773,2.163174E-05,0.1505705,5.710956E-08,NaN,NaN,-0.04469473,-1.909216E-10,1.291582E-06,-1.103209E-07,1.65829E-09,-2.861022E-08
757.6409,-1.090174,-6.300148E-10,NaN,-0.4419296,-1.325974E-07,NaN,1.209467,-4.80781E-07,NaN,-1.150236,2.163216E-05,0.1553488,5.706508E-08,NaN,NaN,-0.04409908,-1.955782E-10,1.260588E-06,-1.103211E-07,4.191487E-09,-2.622604E-08
757.6566,-1.090174,-6.300148E-10,NaN,-0.4419296,-1.325974E-07,NaN,1.209467,-4.80781E-07,NaN,-1.150236,2.163216E-05,0.1553488,5.706508E-08,NaN,NaN,-0.04409908,-1.955782E-10,1.260588E-06,-1.103211E-07,4.191487E-09,-2.622604E-08
757.672,-1.08649,-6.293298E-10,NaN,-0.4406841,-1.325976E-07,NaN,1.208426,-4.80736E-07,NaN,-1.142891,2.163258E-05,0.1600372,5.702141E-08,NaN,NaN,-0.04351509,-1.955782E-10,1.226017E-06,-1.103214E-07,4.489511E-09,-2.861022E-08
757.6884,-1.083102,-6.286447E-10,NaN,-0.4395412,-1.325979E-07,NaN,1.207616,-4.806947E-07,NaN,-1.136169,2.1633E-05,0.1639802,5.698137E-08,NaN,NaN,-0.04302569,-2.002348E-10,1.202175E-06,-1.103216E-07,7.469742E-09,-2.622604E-08
757.704,-1.079912,-6.279597E-10,NaN,-0.438465,-1.325981E-07,NaN,1.206778,-4.80654E-07,NaN,-1.12989,2.16334E-05,0.1678284,5.694205E-08,NaN,NaN,-0.04254588,-1.909215E-10,1.179526E-06,-1.103219E-07,7.171719E-09,-2.861022E-08
757.7196,-1.079912,-6.279597E-10,NaN,-0.438465,-1.325981E-07,NaN,1.206778,-4.80654E-07,NaN,-1.12989,2.16334E-05,0.1678284,5.694205E-08,NaN,NaN,-0.04254588,-1.909215E-10,1.179526E-06,-1.103219E-07,7.171719E-09,-2.861022E-08
757.7346,-1.076858,-6.272748E-10,NaN,-0.4374337,-1.325983E-07,NaN,1.205925,-4.806141E-07,NaN,-1.123869,2.163382E-05,0.1716081,5.690344E-08,NaN,NaN,-0.04207544,-1.909215E-10,1.158068E-06,-1.103221E-07,7.171719E-09,-2.622604E-08
757.751,-1.073902,-6.265898E-10,NaN,-0.436434,-1.325986E-07,NaN,1.205071,-4.805748E-07,NaN,-1.118019,2.163423E-05,0.1753185,5.686552E-08,NaN,NaN,-0.04161422,-1.909215E-10,1.131842E-06,-1.103224E-07,5.979626E-09,-2.861022E-08
757.7671,-1.071236,-6.259049E-10,NaN,-0.435535,-1.325988E-07,NaN,1.204455,-4.805363E-07,NaN,-1.112769,2.163465E-05,0.1783055,5.682829E-08,NaN,NaN,-0.0412452,-1.955782E-10,1.111576E-06,-1.103226E-07,6.277649E-09,-2.622604E-08
757.7827,-1.068762,-6.252199E-10,NaN,-0.4347008,-1.32599E-07,NaN,1.203806,-4.804984E-07,NaN,-1.107941,2.163506E-05,0.1812082,5.679173E-08,NaN,NaN,-0.04088341,-1.955782E-10,1.094887E-06,-1.103229E-07,1.807301E-09,-2.861022E-08
757.7987,-1.068762,-6.252199E-10,NaN,-0.4347008,-1.32599E-07,NaN,1.203806,-4.804984E-07,NaN,-1.107941,2.163506E-05,0.1812082,5.679173E-08,NaN,NaN,-0.04088341,-1.955782E-10,1.094887E-06,-1.103229E-07,1.807301E-09,-2.861022E-08
757.8135,-1.066417,-6.24535E-10,NaN,-0.4339094,-1.325992E-07,NaN,1.203134,-4.804612E-07,NaN,-1.103349,2.163548E-05,0.1840621,5.675582E-08,NaN,NaN,-0.04052868,-1.955782E-10,1.077006E-06,-1.103231E-07,3.893463E-09,-2.622604E-08
757.8299,-1.064162,-6.238501E-10,NaN,-0.4331475,-1.325995E-07,NaN,1.202457,-4.804247E-07,NaN,-1.098907,2.163589E-05,0.186866,5.672062E-08,NaN,NaN,-0.0401809,-1.955782E-10,1.05674E-06,-1.103234E-07,3.59544E-09,-2.861022E-08
757.8457,-1.06219,-6.231652E-10,NaN,-0.432484,-1.325997E-07,NaN,1.202021,-4.803916E-07,NaN,-1.095044,2.163631E-05,0.1889679,5.668887E-08,NaN,NaN,-0.03992311,-2.002348E-10,1.043627E-06,-1.103236E-07,3.893463E-09,-2.622604E-08
757.8613,-1.060402,-6.224803E-10,NaN,-0.431883,-1.325999E-07,NaN,1.201548,-4.803591E-07,NaN,-1.091582,2.163673E-05,0.1909957,5.665768E-08,NaN,NaN,-0.03967037,-2.002348E-10,1.030514E-06,-1.103238E-07,2.105324E-09,-2.861022E-08
757.8771,-1.060402,-6.224803E-10,NaN,-0.431883,-1.325999E-07,NaN,1.201548,-4.803591E-07,NaN,-1.091582,2.163673E-05,0.1909957,5.665768E-08,NaN,NaN,-0.03967037,-2.002348E-10,1.030514E-06,-1.103238E-07,2.105324E-09,-2.861022E-08
757.8922,-1.058736,-6.217955E-10,NaN,-0.4313228,-1.326001E-07,NaN,1.201047,-4.803271E-07,NaN,-1.088337,2.163714E-05,0.1929931,5.662705E-08,NaN,NaN,-0.03942257,-2.002348E-10,1.013825E-06,-1.103241E-07,4.787533E-09,-2.622604E-08
757.9088,-1.057153,-6.211107E-10,NaN,-0.4307898,-1.326004E-07,NaN,1.200533,-4.802957E-07,NaN,-1.08522,2.163756E-05,0.1949584,5.659695E-08,NaN,NaN,-0.0391796,-2.002348E-10,9.983274E-07,-1.103243E-07,5.979626E-09,-2.861022E-08
757.9243,-1.055845,-6.204258E-10,NaN,-0.4303529,-1.326006E-07,NaN,1.200263,-4.802648E-07,NaN,-1.082664,2.163797E-05,0.1962418,5.656739E-08,NaN,NaN,-0.0390246,-2.002348E-10,9.899828E-07,-1.103246E-07,5.085556E-09,-2.622604E-08
757.9401,-1.054714,-6.19741E-10,NaN,-0.4299764,-1.326008E-07,NaN,1.199951,-4.802345E-07,NaN,-1.080489,2.163838E-05,0.197462,5.653834E-08,NaN,NaN,-0.03887263,-1.909215E-10,9.840223E-07,-1.103248E-07,2.403347E-09,-2.861022E-08
757.9554,-1.054714,-6.19741E-10,NaN,-0.4299764,-1.326008E-07,NaN,1.199951,-4.802345E-07,NaN,-1.080489,2.163838E-05,0.197462,5.653834E-08,NaN,NaN,-0.03887263,-1.909215E-10,9.840223E-07,-1.103248E-07,2.403347E-09,-2.861022E-08
757.9706,-1.053698,-6.190562E-10,NaN,-0.4296385,-1.326011E-07,NaN,1.199604,-4.802046E-07,NaN,-1.078511,2.163879E-05,0.1986688,5.65098E-08,NaN,NaN,-0.0387236,-1.955781E-10,9.721014E-07,-1.10325E-07,3.893463E-09,-2.622604E-08
757.9869,-1.052758,-6.183714E-10,NaN,-0.4293257,-1.326013E-07,NaN,1.199239,-4.801752E-07,NaN,-1.076642,2.163921E-05,0.1998603,5.648176E-08,NaN,NaN,-0.03857748,-1.955781E-10,9.637567E-07,-1.103253E-07,4.48951E-09,-2.861022E-08
758.0027,-1.052086,-6.176866E-10,NaN,-0.4291066,-1.326015E-07,NaN,1.199117,-4.801492E-07,NaN,-1.075315,2.163962E-05,0.2003879,5.645704E-08,NaN,NaN,-0.03851742,-1.955781E-10,9.613725E-07,-1.103255E-07,2.403347E-09,-2.622604E-08
758.0186,-1.052086,-6.176866E-10,NaN,-0.4291066,-1.326015E-07,NaN,1.199117,-4.801492E-07,NaN,-1.075315,2.163962E-05,0.2003879,5.645704E-08,NaN,NaN,-0.03851742,-1.955781E-10,9.613725E-07,-1.103255E-07,2.403347E-09,-2.622604E-08
758.0338,-1.051584,-6.170018E-10,NaN,-0.4289459,-1.326017E-07,NaN,1.198948,-4.801236E-07,NaN,-1.074351,2.164003E-05,0.2008642,5.643274E-08,NaN,NaN,-0.03845854,-1.862649E-10,9.577963E-07,-1.103258E-07,4.787533E-09,-2.861022E-08
758.05,-1.05119,-6.163171E-10,NaN,-0.4288216,-1.32602E-07,NaN,1.198737,-4.800983E-07,NaN,-1.073565,2.164045E-05,0.2013429,5.640885E-08,NaN,NaN,-0.03840078,-1.909215E-10,9.5422E-07,-1.10326E-07,2.403347E-09,-2.622604E-08
758.0659,-1.050864,-6.156322E-10,NaN,-0.4287203,-1.326022E-07,NaN,1.198504,-4.800735E-07,NaN,-1.072871,2.164086E-05,0.2018219,5.638537E-08,NaN,NaN,-0.03834413,-1.909215E-10,9.482595E-07,-1.103262E-07,4.787533E-09,-2.861022E-08
758.0817,-1.050801,-6.149474E-10,NaN,-0.4287105,-1.326024E-07,NaN,1.19851,-4.795046E-07,NaN,-1.072701,2.164128E-05,0.2016529,5.581777E-08,NaN,NaN,-0.03837178,-1.909215E-10,9.506437E-07,-1.103265E-07,3.59544E-09,-2.622604E-08
758.0975,-1.050801,-6.149474E-10,NaN,-0.4287105,-1.326024E-07,NaN,1.19851,-4.795046E-07,NaN,-1.072701,2.164128E-05,0.2016529,5.581777E-08,NaN,NaN,-0.03837178,-1.909215E-10,9.506437E-07,-1.103265E-07,3.59544E-09,-2.622604E-08
758.1138,-1.0509,-6.142625E-10,NaN,-0.4287564,-1.326027E-07,NaN,1.198464,-4.789439E-07,NaN,-1.072875,2.164169E-05,0.2014461,5.525842E-08,NaN,NaN,-0.0383989,-1.909215E-10,9.482595E-07,-1.103267E-07,8.363812E-09,-2.861022E-08
758.1291,-1.051099,-6.135777E-10,NaN,-0.4288362,-1.326029E-07,NaN,1.198371,-4.783941E-07,NaN,-1.073211,2.164211E-05,0.2012562,5.470998E-08,NaN,NaN,-0.03842544,-1.909215E-10,9.470674E-07,-1.10327E-07,1.104602E-08,-2.622604E-08
758.145,-1.051362,-6.128928E-10,NaN,-0.4289365,-1.326031E-07,NaN,1.198251,-4.77855E-07,NaN,-1.073621,2.164252E-05,0.201081,5.417223E-08,NaN,NaN,-0.03845144,-1.909215E-10,9.470674E-07,-1.103272E-07,1.492032E-08,-2.861022E-08
758.1608,-1.051878,-6.12208E-10,NaN,-0.4291261,-1.326034E-07,NaN,1.198364,-4.773264E-07,NaN,-1.074539,2.164294E-05,0.2002714,5.364496E-08,NaN,NaN,-0.03856012,-1.909215E-10,9.518358E-07,-1.103275E-07,1.46223E-08,-2.622604E-08
758.1769,-1.051878,-6.12208E-10,NaN,-0.4291261,-1.326034E-07,NaN,1.198364,-4.773264E-07,NaN,-1.074539,2.164294E-05,0.2002714,5.364496E-08,NaN,NaN,-0.03856012,-1.909215E-10,9.518358E-07,-1.103275E-07,1.46223E-08,-2.622604E-08
758.1913,-1.052552,-6.115232E-10,NaN,-0.4293693,-1.326038E-07,NaN,1.198421,-4.766896E-07,NaN,-1.075785,2.164335E-05,0.1994384,5.300947E-08,NaN,NaN,-0.03866666,-1.909215E-10,9.577963E-07,-1.103273E-07,1.521835E-08,-2.861022E-08
758.2078,-1.05332,-6.108383E-10,NaN,-0.4296444,-1.326043E-07,NaN,1.198425,-4.760821E-07,NaN,-1.077176,2.164377E-05,0.198636,5.24033E-08,NaN,NaN,-0.03877107,-1.955781E-10,9.637567E-07,-1.10327E-07,1.492032E-08,-2.622604E-08
758.2236,-1.054143,-6.101534E-10,NaN,-0.4299376,-1.326047E-07,NaN,1.198397,-4.754864E-07,NaN,-1.078624,2.164418E-05,0.1978616,5.180896E-08,NaN,NaN,-0.03887341,-1.955781E-10,9.685251E-07,-1.103268E-07,1.372823E-08,-2.861022E-08
758.2395,-1.054143,-6.101534E-10,NaN,-0.4299376,-1.326047E-07,NaN,1.198397,-4.754864E-07,NaN,-1.078624,2.164418E-05,0.1978616,5.180896E-08,NaN,NaN,-0.03887341,-1.955781E-10,9.685251E-07,-1.103268E-07,1.372823E-08,-2.861022E-08
758.2541,-1.055215,-6.094686E-10,NaN,-0.4303176,-1.326049E-07,NaN,1.198597,-4.750293E-07,NaN,-1.080565,2.16446E-05,0.1964643,5.135319E-08,NaN,NaN,-0.03905693,-1.955781E-10,9.780618E-07,-1.10327E-07,1.253614E-08,-2.622604E-08
758.2707,-1.056437,-6.087837E-10,NaN,-0.4307488,-1.326051E-07,NaN,1.198734,-4.74567E-07,NaN,-1.082817,2.164501E-05,0.1950592,5.089217E-08,NaN,NaN,-0.03923683,-1.955781E-10,9.852145E-07,-1.103272E-07,1.283416E-08,-2.861022E-08
758.2862,-1.057746,-6.080989E-10,NaN,-0.4312092,-1.326053E-07,NaN,1.198815,-4.74108E-07,NaN,-1.0852,2.164543E-05,0.1936975,5.043449E-08,NaN,NaN,-0.03941316,-1.955781E-10,9.923671E-07,-1.103275E-07,1.283416E-08,-2.622604E-08
758.3021,-1.059105,-6.074141E-10,NaN,-0.4316852,-1.326055E-07,NaN,1.19886,-4.736551E-07,NaN,-1.087625,2.164584E-05,0.1923758,4.998291E-08,NaN,NaN,-0.039586,-1.955781E-10,9.995197E-07,-1.103277E-07,1.521835E-08,-2.861022E-08
758.3175,-1.059105,-6.074141E-10,NaN,-0.4316852,-1.326055E-07,NaN,1.19886,-4.736551E-07,NaN,-1.087625,2.164584E-05,0.1923758,4.998291E-08,NaN,NaN,-0.039586,-1.955781E-10,9.995197E-07,-1.103277E-07,1.521835E-08,-2.861022E-08
758.3326,-1.060706,-6.067292E-10,NaN,-0.4322456,-1.326057E-07,NaN,1.199125,-4.73211E-07,NaN,-1.090527,2.164626E-05,0.190441,4.954012E-08,NaN,NaN,-0.03983862,-1.955781E-10,1.010249E-06,-1.10328E-07,1.46223E-08,-2.622604E-08
758.3489,-1.06245,-6.060444E-10,NaN,-0.4328545,-1.326059E-07,NaN,1.199322,-4.727755E-07,NaN,-1.093726,2.164667E-05,0.1885148,4.910596E-08,NaN,NaN,-0.04008627,-1.955781E-10,1.018593E-06,-1.103282E-07,1.790055E-08,-2.861022E-08
758.3647,-1.064276,-6.053595E-10,NaN,-0.4334902,-1.326062E-07,NaN,1.199459,-4.723456E-07,NaN,-1.09704,2.164709E-05,0.1866437,4.867742E-08,NaN,NaN,-0.04032902,-1.955781E-10,1.030514E-06,-1.103285E-07,1.819858E-08,-2.622604E-08
758.3802,-1.066145,-6.046747E-10,NaN,-0.434139,-1.326064E-07,NaN,1.199557,-4.719269E-07,NaN,-1.100383,2.16475E-05,0.1848234,4.826005E-08,NaN,NaN,-0.04056697,-1.955781E-10,1.036475E-06,-1.103287E-07,1.968869E-08,-2.861022E-08
758.3962,-1.066145,-6.046747E-10,NaN,-0.434139,-1.326064E-07,NaN,1.199557,-4.719269E-07,NaN,-1.100383,2.16475E-05,0.1848234,4.826005E-08,NaN,NaN,-0.04056697,-1.955781E-10,1.036475E-06,-1.103287E-07,1.968869E-08,-2.861022E-08
758.411,-1.06825,-6.039899E-10,NaN,-0.43487,-1.326066E-07,NaN,1.199867,-4.715164E-07,NaN,-1.104188,2.164792E-05,0.1823984,4.78508E-08,NaN,NaN,-0.04088342,-1.955781E-10,1.05078E-06,-1.10329E-07,1.819858E-08,-2.622604E-08
758.4284,-1.070493,-6.03305E-10,NaN,-0.4356472,-1.326069E-07,NaN,1.200103,-4.711138E-07,NaN,-1.108277,2.164833E-05,0.179999,4.744952E-08,NaN,NaN,-0.04119363,-1.955781E-10,1.069853E-06,-1.103292E-07,1.492032E-08,-2.861022E-08
758.4429,-1.072811,-6.026202E-10,NaN,-0.4364487,-1.326071E-07,NaN,1.200278,-4.70719E-07,NaN,-1.112467,2.164875E-05,0.177665,4.705604E-08,NaN,NaN,-0.04149772,-1.955781E-10,1.082966E-06,-1.103295E-07,1.283416E-08,-2.622604E-08
758.4586,-1.072811,-6.026202E-10,NaN,-0.4364487,-1.326071E-07,NaN,1.200278,-4.70719E-07,NaN,-1.112467,2.164875E-05,0.177665,4.705604E-08,NaN,NaN,-0.04149772,-1.955781E-10,1.082966E-06,-1.103295E-07,1.283416E-08,-2.622604E-08
758.4735,-1.075384,-6.019353E-10,NaN,-0.4373381,-1.326073E-07,NaN,1.200645,-4.703318E-07,NaN,-1.117148,2.164916E-05,0.174739,4.667022E-08,NaN,NaN,-0.04187898,-1.955781E-10,1.098463E-06,-1.103297E-07,1.447329E-08,-2.861022E-08
758.4896,-1.078104,-6.012505E-10,NaN,-0.4382765,-1.326075E-07,NaN,1.200927,-4.699521E-07,NaN,-1.122117,2.164958E-05,0.1718573,4.62919E-08,NaN,NaN,-0.04225273,-1.955781E-10,1.116345E-06,-1.1033E-07,1.343021E-08,-2.622604E-08
758.5056,-1.080903,-6.005657E-10,NaN,-0.4392398,-1.326078E-07,NaN,1.201141,-4.695798E-07,NaN,-1.127185,2.164999E-05,0.1690531,4.592094E-08,NaN,NaN,-0.04261909,-1.955781E-10,1.131842E-06,-1.103302E-07,1.104602E-08,-2.861022E-08
758.5211,-1.083739,-5.998808E-10,NaN,-0.4402137,-1.32608E-07,NaN,1.201308,-4.692148E-07,NaN,-1.132258,2.16504E-05,0.1663206,4.555719E-08,NaN,NaN,-0.04297823,-1.955781E-10,1.146147E-06,-1.103305E-07,8.512822E-09,-2.622604E-08
758.5368,-1.083739,-5.998808E-10,NaN,-0.4402137,-1.32608E-07,NaN,1.201308,-4.692148E-07,NaN,-1.132258,2.16504E-05,0.1663206,4.555719E-08,NaN,NaN,-0.04297823,-1.955781E-10,1.146147E-06,-1.103305E-07,8.512822E-09,-2.622604E-08
758.5518,-1.086804,-5.99196E-10,NaN,-0.4412665,-1.326082E-07,NaN,1.201667,-4.688568E-07,NaN,-1.13777,2.165082E-05,0.1629995,4.520051E-08,NaN,NaN,-0.04341346,-1.955781E-10,1.162836E-06,-1.103307E-07,7.767763E-09,-2.861022E-08
758.5682,-1.089998,-5.985112E-10,NaN,-0.4423617,-1.326084E-07,NaN,1.201944,-4.685057E-07,NaN,-1.143539,2.165124E-05,0.1597374,4.485078E-08,NaN,NaN,-0.04384011,-2.002347E-10,1.178334E-06,-1.10331E-07,9.555903E-09,-2.622604E-08
758.5839,-1.093257,-5.978263E-10,NaN,-0.4434773,-1.326087E-07,NaN,1.202157,-4.681643E-07,NaN,-1.149385,2.165164E-05,0.1565597,4.451066E-08,NaN,NaN,-0.04425835,-1.909215E-10,1.192639E-06,-1.103312E-07,1.015195E-08,-2.861022E-08
758.5995,-1.093257,-5.978263E-10,NaN,-0.4434773,-1.326087E-07,NaN,1.202157,-4.681643E-07,NaN,-1.149385,2.165164E-05,0.1565597,4.451066E-08,NaN,NaN,-0.04425835,-1.909215E-10,1.192639E-06,-1.103312E-07,1.015195E-08,-2.861022E-08
758.616,-1.096544,-5.971416E-10,NaN,-0.4445998,-1.326089E-07,NaN,1.202325,-4.678294E-07,NaN,-1.155221,2.165206E-05,0.1534608,4.417716E-08,NaN,NaN,-0.04466835,-1.955781E-10,1.202175E-06,-1.103315E-07,1.134404E-08,-2.622604E-08
758.6313,-1.100051,-5.964568E-10,NaN,-0.4457984,-1.326091E-07,NaN,1.202673,-4.675011E-07,NaN,-1.161482,2.165247E-05,0.1497795,4.385014E-08,NaN,NaN,-0.04515342,-1.862649E-10,1.215288E-06,-1.103317E-07,1.149305E-08,-2.861022E-08
758.6468,-1.103679,-5.95772E-10,NaN,-0.4470369,-1.326094E-07,NaN,1.202939,-4.671791E-07,NaN,-1.167987,2.165289E-05,0.1461723,4.352947E-08,NaN,NaN,-0.04562894,-1.909215E-10,1.228401E-06,-1.10332E-07,1.134404E-08,-2.622604E-08
758.6633,-1.107367,-5.950873E-10,NaN,-0.4482934,-1.326096E-07,NaN,1.203143,-4.668633E-07,NaN,-1.174558,2.16533E-05,0.1426561,4.321502E-08,NaN,NaN,-0.04609508,-1.909215E-10,1.240322E-06,-1.103322E-07,1.089701E-08,-2.861022E-08
