JMolnar6/NonAnthroHands_User_Study/HandsLoggerWithURDF/tempdata/files/Reachy_PID0_JointMotion_gesture_13_2.csv
Time,r_shoulder,r_shoulder_x,r_upper_arm,r_forearm,r_wrist,r_wrist2hand,
802.0826,-0.2390392,-0.4053594,0.01739982,-0.6090463,0.04186985,0.1703922
802.0973,-0.2390392,-0.4053594,0.01739982,-0.6090463,0.04186985,0.1703922
802.1114,-0.2393296,-0.4044887,0.01866724,-0.6079361,0.0426648,0.1700816
802.1267,-0.2396167,-0.4036283,0.01992398,-0.6068451,0.04344004,0.1697772
802.1412,-0.2399005,-0.4027781,0.02117014,-0.605773,0.04419597,0.1694787
802.1571,-0.2399005,-0.4027781,0.02117014,-0.605773,0.04419597,0.1694787
802.171,-0.2401809,-0.401938,0.02240583,-0.6047195,0.04493299,0.169186
802.1853,-0.2404582,-0.4011079,0.02363113,-0.6036841,0.04565148,0.1688991
802.2,-0.2404582,-0.4011079,0.02363113,-0.6036841,0.04565148,0.1688991
802.2138,-0.2407322,-0.4002877,0.02484614,-0.6026667,0.04635184,0.1686178
802.2289,-0.2410031,-0.3994772,0.02605094,-0.6016669,0.04703443,0.168342
802.2437,-0.2412709,-0.3986764,0.02724563,-0.6006844,0.04769963,0.1680717
802.2582,-0.2412709,-0.3986764,0.02724563,-0.6006844,0.04769963,0.1680717
802.2725,-0.2415355,-0.3978851,0.02843029,-0.599719,0.0483478,0.1678066
802.2876,-0.2417971,-0.3971032,0.02960501,-0.5987703,0.0489793,0.1675467
802.3021,-0.2420557,-0.3963306,0.03076987,-0.5978381,0.04959448,0.1672919
802.317,-0.2420557,-0.3963306,0.03076987,-0.5978381,0.04959448,0.1672919
802.3309,-0.2423113,-0.3955672,0.03192495,-0.5969221,0.05019367,0.1670422
802.3464,-0.242564,-0.3948129,0.03307033,-0.596022,0.05077722,0.1667973
802.3609,-0.2428137,-0.3940675,0.03420609,-0.5951376,0.05134545,0.1665572
802.3759,-0.2428137,-0.3940675,0.03420609,-0.5951376,0.05134545,0.1665572
802.3897,-0.2430606,-0.393331,0.03533231,-0.5942686,0.05189868,0.1663218
802.4053,-0.2433046,-0.3926032,0.03644906,-0.5934147,0.05243724,0.166091
802.4199,-0.2433046,-0.3926032,0.03644906,-0.5934147,0.05243724,0.166091
802.4359,-0.2435458,-0.3918841,0.03755642,-0.5925756,0.05296143,0.1658648
802.4501,-0.2437843,-0.3911736,0.03865448,-0.5917512,0.05347155,0.165643
802.4638,-0.2440199,-0.3904715,0.03974328,-0.5909411,0.0539679,0.1654255
802.4786,-0.2440199,-0.3904715,0.03974328,-0.5909411,0.0539679,0.1654255
802.4922,-0.2442529,-0.3897777,0.0408229,-0.5901452,0.05445079,0.1652123
802.5077,-0.2444832,-0.3890922,0.04189343,-0.5893632,0.05492048,0.1650033
802.5224,-0.2447108,-0.3884149,0.04295493,-0.5885949,0.05537728,0.1647983
802.537,-0.2447108,-0.3884149,0.04295493,-0.5885949,0.05537728,0.1647983
802.5507,-0.2449358,-0.3877456,0.04400745,-0.5878399,0.05582144,0.1645974
802.5662,-0.2451582,-0.3870842,0.04505107,-0.5870981,0.05625325,0.1644004
802.5809,-0.245378,-0.3864307,0.04608586,-0.5863693,0.05667297,0.1642073
802.5958,-0.245378,-0.3864307,0.04608586,-0.5863693,0.05667297,0.1642073
802.6096,-0.2455953,-0.385785,0.04711188,-0.5856533,0.05708085,0.164018
802.6248,-0.2458101,-0.385147,0.04812919,-0.5849499,0.05747716,0.1638324
802.6403,-0.2460225,-0.3845166,0.04913787,-0.5842587,0.05786214,0.1636504
802.6544,-0.2460225,-0.3845166,0.04913787,-0.5842587,0.05786214,0.1636504
802.6684,-0.2462323,-0.3838937,0.05013797,-0.5835797,0.05823603,0.163472
802.6837,-0.2464398,-0.3832782,0.05112955,-0.5829125,0.05859909,0.163297
802.6982,-0.2464398,-0.3832782,0.05112955,-0.5829125,0.05859909,0.163297
802.7147,-0.2466449,-0.38267,0.05211268,-0.5822571,0.05895155,0.1631255
802.7278,-0.2468476,-0.3820691,0.05308741,-0.5816132,0.05929363,0.1629574
802.7425,-0.247048,-0.3814753,0.0540538,-0.5809806,0.05962556,0.1627926
802.7571,-0.247048,-0.3814753,0.0540538,-0.5809806,0.05962556,0.1627926
802.7711,-0.247246,-0.3808886,0.05501192,-0.5803591,0.05994757,0.162631
802.7862,-0.2474418,-0.3803088,0.05596183,-0.5797486,0.06025987,0.1624725
802.8008,-0.2476354,-0.3797359,0.05690357,-0.5791488,0.06056268,0.1623172
802.8153,-0.2476354,-0.3797359,0.05690357,-0.5791488,0.06056268,0.1623172
802.8293,-0.2478267,-0.3791699,0.05783721,-0.5785595,0.06085621,0.1621649
802.8445,-0.2480158,-0.3786106,0.0587628,-0.5779806,0.06114066,0.1620156
802.8593,-0.2480158,-0.3786106,0.0587628,-0.5779806,0.06114066,0.1620156
802.8733,-0.2482027,-0.378058,0.05968041,-0.577412,0.06141624,0.1618692
802.8886,-0.2483875,-0.3775119,0.06059007,-0.5768534,0.06168314,0.1617257
802.9033,-0.2485701,-0.3769723,0.06149186,-0.5763046,0.06194155,0.161585
802.9178,-0.2485701,-0.3769723,0.06149186,-0.5763046,0.06194155,0.161585
802.932,-0.2487506,-0.3764392,0.06238583,-0.5757656,0.06219167,0.161447
802.9476,-0.2489291,-0.3759124,0.06327202,-0.575236,0.06243369,0.1613118
802.962,-0.2491055,-0.3753919,0.0641505,-0.5747159,0.06266777,0.1611792
802.9767,-0.2491055,-0.3753919,0.0641505,-0.5747159,0.06266777,0.1611792
802.9929,-0.2492799,-0.3748775,0.06502131,-0.5742049,0.06289411,0.1610492
803.0063,-0.2494522,-0.3743693,0.06588452,-0.5737029,0.06311287,0.1609217
803.0208,-0.2496226,-0.3738672,0.06674016,-0.5732099,0.06332424,0.1607968
803.0353,-0.2496226,-0.3738672,0.06674016,-0.5732099,0.06332424,0.1607968
803.0492,-0.249791,-0.373371,0.06758829,-0.5727256,0.06352837,0.1606743
803.0646,-0.2499575,-0.3728807,0.06842898,-0.5722499,0.06372543,0.1605542
803.079,-0.2499575,-0.3728807,0.06842898,-0.5722499,0.06372543,0.1605542
803.0931,-0.2501221,-0.3723963,0.06926226,-0.5717826,0.06391558,0.1604364
803.1093,-0.2503172,-0.371813,0.06971633,-0.5707924,0.06477661,0.1600067
803.1231,-0.2505307,-0.3711713,0.07014044,-0.5696918,0.06590475,0.1595856
803.1375,-0.2505307,-0.3711713,0.07014044,-0.5696918,0.06590475,0.1595856
803.1517,-0.2507548,-0.3704966,0.07064749,-0.5685515,0.06709922,0.1591727
803.167,-0.2509845,-0.3698045,0.07124911,-0.5674047,0.06828474,0.158768
803.1819,-0.2511844,-0.3692094,0.07230295,-0.566798,0.06875955,0.1586855
803.1965,-0.2511844,-0.3692094,0.07230295,-0.566798,0.06875955,0.1586855
803.2105,-0.2513647,-0.3686768,0.07343453,-0.5663255,0.06892403,0.1586044
803.226,-0.2515321,-0.368185,0.07451116,-0.565919,0.06898066,0.1585249
803.2405,-0.2516906,-0.3677207,0.07550713,-0.565546,0.06900799,0.1584468
803.2553,-0.2516906,-0.3677207,0.07550713,-0.565546,0.06900799,0.1584468
803.2714,-0.2518104,-0.36738,0.07680922,-0.565723,0.06835602,0.1586846
803.2856,-0.2519055,-0.3671171,0.07807964,-0.56603,0.06743762,0.1589176
803.2992,-0.2519055,-0.3671171,0.07807964,-0.56603,0.06743762,0.1589176
803.3132,-0.2519846,-0.3669033,0.07921945,-0.5663928,0.0664522,0.159146
803.3286,-0.2520209,-0.3668254,0.08060364,-0.5673082,0.06479601,0.1596841
803.343,-0.2520302,-0.3668304,0.08190176,-0.5683471,0.06289826,0.1602115
803.3573,-0.2520302,-0.3668304,0.08190176,-0.5683471,0.06289826,0.1602115
803.3717,-0.2520237,-0.3668866,0.08302936,-0.5694302,0.06095931,0.1607286
803.3869,-0.2520073,-0.3669741,0.08399628,-0.5705216,0.05905031,0.1612355
803.4016,-0.2519523,-0.3671852,0.08520684,-0.5721371,0.0565161,0.1620468
803.4164,-0.2519523,-0.3671852,0.08520684,-0.5721371,0.0565161,0.1620468
803.4301,-0.2518732,-0.3674716,0.08634117,-0.573856,0.05376189,0.162842
803.4456,-0.2517793,-0.3678033,0.08731104,-0.5756044,0.05098284,0.1636216
803.4603,-0.2516766,-0.3681613,0.08812289,-0.5773479,0.04824824,0.1643859
803.475,-0.2516766,-0.3681613,0.08812289,-0.5773479,0.04824824,0.1643859
803.489,-0.2515362,-0.3686387,0.08916962,-0.5796028,0.04490431,0.1654495
803.5046,-0.2513727,-0.3691875,0.09013354,-0.5819489,0.04135384,0.1664922
803.5191,-0.2513727,-0.3691875,0.09013354,-0.5819489,0.04135384,0.1664922
803.533,-0.2511955,-0.3697779,0.09092559,-0.5843124,0.03779315,0.1675144
803.5494,-0.2509779,-0.370496,0.09190609,-0.5871911,0.03362003,0.1688307
803.5631,-0.2507359,-0.3712895,0.09276187,-0.5901557,0.02925314,0.1701212
803.5777,-0.2507359,-0.3712895,0.09276187,-0.5901557,0.02925314,0.1701212
803.5918,-0.2504796,-0.372126,0.09341165,-0.5931288,0.02489498,0.1713864
803.6071,-0.2502155,-0.3729852,0.09387013,-0.5960751,0.0206157,0.1726267
803.6216,-0.249915,-0.3739592,0.09451511,-0.5995098,0.01576386,0.174157
803.6376,-0.249915,-0.3739592,0.09451511,-0.5995098,0.01576386,0.174157
803.6501,-0.249593,-0.3749995,0.0950461,-0.6030126,0.0107347,0.1756572
803.6656,-0.249259,-0.376076,0.09537947,-0.6065104,0.005726177,0.177128
803.6804,-0.2489187,-0.37717,0.0955265,-0.6099702,0.000807276,0.17857
803.6947,-0.2489187,-0.37717,0.0955265,-0.6099702,0.000807276,0.17857
803.7086,-0.2485435,-0.3783745,0.0958463,-0.6139075,-0.00467159,0.180298
803.7242,-0.248148,-0.3796416,0.09604582,-0.6179022,-0.01031902,0.181992
803.7387,-0.248148,-0.3796416,0.09604582,-0.6179022,-0.01031902,0.181992
803.7527,-0.2477414,-0.3809416,0.09604175,-0.6218824,-0.01593434,0.1836528
803.7682,-0.2472971,-0.3823606,0.09615783,-0.6263443,-0.0221144,0.1855952
803.7828,-0.2468311,-0.3838465,0.0961111,-0.6308597,-0.0284525,0.1874996
803.7978,-0.2468311,-0.3838465,0.0961111,-0.6308597,-0.0284525,0.1874996
803.8114,-0.2463536,-0.3853669,0.0958281,-0.6353528,-0.03474104,0.1893666
803.8279,-0.2458707,-0.3869018,0.09533083,-0.6397898,-0.04090965,0.1911971
803.8414,-0.245354,-0.3885432,0.0949536,-0.6446837,-0.04760648,0.1933058
803.8564,-0.245354,-0.3885432,0.0949536,-0.6446837,-0.04760648,0.1933058
803.8701,-0.2448183,-0.3902428,0.09442905,-0.6496152,-0.05444887,0.1953732
803.8852,-0.244273,-0.3919707,0.09368173,-0.6545131,-0.06123257,0.1974001
803.8998,-0.244273,-0.3919707,0.09368173,-0.6545131,-0.06123257,0.1974001
803.9139,-0.2436914,-0.3938127,0.09300651,-0.6598722,-0.06855232,0.1997013
803.9292,-0.2430897,-0.3957166,0.09214696,-0.6652654,-0.07600931,0.2019576
803.9438,-0.2424778,-0.3976501,0.09103747,-0.6706185,-0.08339164,0.2041696
803.9583,-0.2424778,-0.3976501,0.09103747,-0.6706185,-0.08339164,0.2041696
803.9725,-0.2418623,-0.3995931,0.08970632,-0.6758986,-0.09062886,0.2063383
803.9882,-0.2412143,-0.4016378,0.08845317,-0.6816162,-0.09836894,0.2087785
804.0025,-0.2405488,-0.4037359,0.08703727,-0.6873536,-0.1062363,0.211171
804.0174,-0.2405488,-0.4037359,0.08703727,-0.6873536,-0.1062363,0.211171
804.0313,-0.2398752,-0.4058573,0.08539049,-0.6930411,-0.1140218,0.2135166
804.0468,-0.2391994,-0.4079835,0.08353762,-0.6986482,-0.1216554,0.2158163
804.0615,-0.2384923,-0.4102078,0.08175135,-0.7046838,-0.1297849,0.2183848
804.0762,-0.2384923,-0.4102078,0.08175135,-0.7046838,-0.1297849,0.2183848
804.0901,-0.2377686,-0.4124824,0.07980391,-0.7107319,-0.1380371,0.2209032
804.1064,-0.2370377,-0.4147776,0.07762977,-0.7167239,-0.1461987,0.2233722
804.1201,-0.2363054,-0.4170752,0.07525583,-0.7226298,-0.1541991,0.2257929
804.1348,-0.2363054,-0.4170752,0.07525583,-0.7226298,-0.1541991,0.2257929
804.1487,-0.2355423,-0.4194685,0.07293118,-0.7289561,-0.1626872,0.22848
804.1639,-0.2347634,-0.4219099,0.07044464,-0.7352885,-0.1712914,0.2311147
804.1786,-0.2347634,-0.4219099,0.07044464,-0.7352885,-0.1712914,0.2311147
804.1925,-0.233978,-0.4243699,0.06773549,-0.7415593,-0.1797954,0.2336977
804.2079,-0.2331588,-0.4269347,0.06501966,-0.7482553,-0.1887939,0.236544
804.2225,-0.2323222,-0.4295525,0.06210602,-0.7549561,-0.1978973,0.2393348
804.2371,-0.2323222,-0.4295525,0.06210602,-0.7549561,-0.1978973,0.2393348
804.2511,-0.2314783,-0.432191,0.05894892,-0.7615911,-0.2068828,0.2420709
804.2666,-0.2306334,-0.4348302,0.05558995,-0.7681298,-0.2156804,0.2447533
804.2811,-0.2297584,-0.4375629,0.05224101,-0.7750723,-0.2249447,0.247697
804.2959,-0.2297584,-0.4375629,0.05224101,-0.7750723,-0.2249447,0.247697
804.3099,-0.2288684,-0.4403404,0.04872561,-0.7820084,-0.2343066,0.2505832
804.3253,-0.227973,-0.443133,0.044995,-0.7888718,-0.2435455,0.2534129
804.3401,-0.2270778,-0.4459224,0.04108639,-0.7956341,-0.252592,0.2561871
804.355,-0.2270778,-0.4459224,0.04108639,-0.7956341,-0.252592,0.2561871
804.3708,-0.2261534,-0.4488018,0.03718051,-0.8027925,-0.2621031,0.2592207
804.3851,-0.2252149,-0.4517235,0.03311621,-0.8099399,-0.2717075,0.2621951
804.3986,-0.2252149,-0.4517235,0.03311621,-0.8099399,-0.2717075,0.2621951
804.4127,-0.2242716,-0.454658,0.02884891,-0.8170112,-0.2811811,0.2651113
804.428,-0.2232961,-0.4576917,0.02452939,-0.8244839,-0.2911261,0.2682841
804.4424,-0.2223048,-0.4607727,0.0200208,-0.831946,-0.3011512,0.2713949
804.4572,-0.2223048,-0.4607727,0.0200208,-0.831946,-0.3011512,0.2713949
804.4711,-0.2213081,-0.4638687,0.01529541,-0.8393297,-0.3110271,0.2744449
804.4863,-0.220312,-0.46696,0.01040381,-0.8466061,-0.320686,0.277435
804.501,-0.2192873,-0.4701392,0.005484072,-0.854264,-0.3307948,0.2806802
804.5154,-0.2192873,-0.4701392,0.005484072,-0.854264,-0.3307948,0.2806802
804.5295,-0.2182492,-0.4733579,0.0004115612,-0.8619022,-0.3409778,0.2838621
804.545,-0.2172073,-0.4765863,-0.004845394,-0.8694571,-0.3510082,0.2869816
804.5595,-0.2172073,-0.4765863,-0.004845394,-0.8694571,-0.3510082,0.2869816
804.5736,-0.216134,-0.4799108,-0.01017988,-0.8773984,-0.3614972,0.2903537
804.589,-0.2150459,-0.4832791,-0.01569195,-0.8853217,-0.3720472,0.29366
804.6041,-0.2139534,-0.4866591,-0.02139684,-0.8931603,-0.3824266,0.2969016
804.6185,-0.2139534,-0.4866591,-0.02139684,-0.8931603,-0.3824266,0.2969016
804.6325,-0.2128626,-0.4900311,-0.0272392,-0.9008863,-0.3925708,0.3000795
804.649,-0.211744,-0.4934877,-0.03313165,-0.9089794,-0.4031568,0.3035088
804.6638,-0.210613,-0.4969803,-0.03916371,-0.9170467,-0.4137993,0.3068711
804.6773,-0.210613,-0.4969803,-0.03916371,-0.9170467,-0.4137993,0.3068711
804.6915,-0.2094793,-0.5004795,-0.04535506,-0.9250255,-0.4242688,0.3101676
804.7072,-0.2083485,-0.5039667,-0.05165614,-0.9328896,-0.4345014,0.3133994
804.7224,-0.2071906,-0.5075358,-0.05801399,-0.9411139,-0.4451788,0.3168815
804.7361,-0.2071906,-0.5075358,-0.05801399,-0.9411139,-0.4451788,0.3168815
804.7498,-0.206021,-0.5111387,-0.06449986,-0.9493114,-0.4559065,0.3202957
804.7651,-0.2048492,-0.5147461,-0.07112757,-0.9574201,-0.4664534,0.3236429
804.7798,-0.2048492,-0.5147461,-0.07112757,-0.9574201,-0.4664534,0.3236429
804.7943,-0.2036472,-0.5184447,-0.07786496,-0.9658954,-0.4774486,0.3272382
804.8095,-0.2024319,-0.5221823,-0.08475251,-0.9743477,-0.4884756,0.3307633
804.8241,-0.2012137,-0.525927,-0.09178577,-0.9827117,-0.4993026,0.3342193
804.8384,-0.2012137,-0.525927,-0.09178577,-0.9827117,-0.4993026,0.3342193
804.8531,-0.1999987,-0.5296591,-0.09890452,-0.9909596,-0.5098723,0.3376076
804.8684,-0.1987569,-0.5334713,-0.1061051,-0.9995554,-0.5208802,0.3412429
804.8829,-0.197504,-0.5373154,-0.113419,-1.008122,-0.5319155,0.3448074
804.8975,-0.197504,-0.5373154,-0.113419,-1.008122,-0.5319155,0.3448074
804.9115,-0.1962497,-0.5411615,-0.1208461,-1.016598,-0.5427497,0.348302
804.9279,-0.1949998,-0.5449917,-0.1283324,-1.024956,-0.5533267,0.351728
804.9417,-0.1937236,-0.5488994,-0.1359094,-1.033655,-0.5643463,0.3554005
804.9563,-0.1937236,-0.5488994,-0.1359094,-1.033655,-0.5643463,0.3554005
804.9702,-0.192437,-0.5528369,-0.1435879,-1.042326,-0.5753851,0.3590012
804.9854,-0.1911496,-0.5567748,-0.1513615,-1.050906,-0.5862157,0.3625315
805,-0.1911496,-0.5567748,-0.1513615,-1.050906,-0.5862157,0.3625315
805.014,-0.1898328,-0.5607998,-0.1592761,-1.059835,-0.5974885,0.366306
805.0292,-0.1885039,-0.5648599,-0.167309,-1.06874,-0.6087592,0.3700069
805.0438,-0.1871734,-0.5689229,-0.175436,-1.077557,-0.6198038,0.3736353
805.0582,-0.1871734,-0.5689229,-0.175436,-1.077557,-0.6198038,0.3736353
805.0725,-0.1858475,-0.5729696,-0.1835955,-1.086257,-0.6305755,0.3771925
805.0881,-0.1844955,-0.5770926,-0.1918718,-1.095286,-0.6417856,0.3809935
805.1024,-0.1831337,-0.5812436,-0.2002324,-1.104287,-0.6529896,0.3847204
805.1171,-0.1831337,-0.5812436,-0.2002324,-1.104287,-0.6529896,0.3847204
805.1312,-0.1817717,-0.585393,-0.2086574,-1.113197,-0.6639679,0.3883742
805.1465,-0.1804153,-0.5895226,-0.2170914,-1.121989,-0.6746758,0.3919563
805.1613,-0.1790335,-0.5937262,-0.2256541,-1.131104,-0.6858261,0.3957818
805.1761,-0.1790335,-0.5937262,-0.2256541,-1.131104,-0.6858261,0.3957818
805.19,-0.1776423,-0.5979559,-0.2342896,-1.140192,-0.6969603,0.3995326
805.2064,-0.1762514,-0.6021825,-0.2429711,-1.14919,-0.7078641,0.4032099
805.22,-0.1762514,-0.6021825,-0.2429711,-1.14919,-0.7078641,0.4032099
805.2341,-0.1748319,-0.6064926,-0.2518279,-1.158519,-0.7192055,0.4071287
805.2491,-0.1734014,-0.6108342,-0.2607682,-1.167829,-0.7305093,0.410971
805.2638,-0.1719706,-0.6151754,-0.2697503,-1.177051,-0.7415686,0.414738
805.2782,-0.1719706,-0.6151754,-0.2697503,-1.177051,-0.7415686,0.414738
805.2924,-0.1705456,-0.6194968,-0.278715,-1.186156,-0.752349,0.4184312
805.3078,-0.1690951,-0.6238911,-0.2878371,-1.195572,-0.7635659,0.4223656
805.3222,-0.1676358,-0.6283101,-0.2970129,-1.204963,-0.7747414,0.4262231
805.3369,-0.1676358,-0.6283101,-0.2970129,-1.204963,-0.7747414,0.4262231
805.3508,-0.1661775,-0.632724,-0.306204,-1.214265,-0.7856755,0.4300051
805.3661,-0.1647261,-0.6371151,-0.3153578,-1.223448,-0.796336,0.4337129
805.3808,-0.1632497,-0.641577,-0.3246841,-1.232936,-0.8074334,0.4376616
805.3956,-0.1632497,-0.641577,-0.3246841,-1.232936,-0.8074334,0.4376616
805.4095,-0.161765,-0.6460618,-0.334052,-1.242402,-0.8184801,0.4415331
805.4249,-0.1602818,-0.6505402,-0.3434178,-1.251779,-0.8292853,0.4453288
805.4396,-0.1602818,-0.6505402,-0.3434178,-1.251779,-0.8292853,0.4453288
805.4537,-0.1587704,-0.6550992,-0.3529973,-1.261471,-0.8405185,0.4493637
805.4689,-0.157249,-0.6596864,-0.3626235,-1.271148,-0.8516831,0.4533198
805.4845,-0.1557285,-0.6642702,-0.3722412,-1.28074,-0.8625981,0.4571983
805.4991,-0.1557285,-0.6642702,-0.3722412,-1.28074,-0.8625981,0.4571983
805.5131,-0.1542149,-0.6688312,-0.3817979,-1.290212,-0.8732395,0.4610008
805.5275,-0.1526764,-0.6734622,-0.3915584,-1.299979,-0.8843043,0.4650425
805.5419,-0.15113,-0.6781149,-0.4013395,-1.309727,-0.8952984,0.4690051
805.5565,-0.15113,-0.6781149,-0.4013395,-1.309727,-0.8952984,0.4690051
805.5704,-0.1495858,-0.6827596,-0.4110895,-1.319386,-0.9060501,0.4728901
805.5858,-0.1480495,-0.6873786,-0.4207623,-1.328924,-0.9165365,0.476699
805.6002,-0.1464887,-0.6920657,-0.430656,-1.338751,-0.9274396,0.4807469
805.6147,-0.1464887,-0.6920657,-0.430656,-1.338751,-0.9274396,0.4807469
805.6287,-0.1449204,-0.6967729,-0.4405577,-1.348561,-0.9382675,0.4847156
805.6453,-0.1433547,-0.7014709,-0.4504131,-1.358284,-0.9488588,0.4886067
805.6587,-0.1433547,-0.7014709,-0.4504131,-1.358284,-0.9488588,0.4886067
805.6727,-0.1417613,-0.7062467,-0.4605241,-1.368304,-0.9598549,0.4927351
805.6879,-0.1401588,-0.7110481,-0.4706441,-1.378317,-0.9707657,0.4967829
805.7023,-0.1385582,-0.7158433,-0.4807109,-1.388244,-0.9814386,0.5007514
805.7169,-0.1385582,-0.7158433,-0.4807109,-1.388244,-0.9814386,0.5007514
805.7311,-0.1369658,-0.720613,-0.4906811,-1.39805,-0.9918541,0.5046422
805.7466,-0.1353487,-0.7254503,-0.5009033,-1.408133,-1.00266,0.5087704
805.7615,-0.1337246,-0.7303066,-0.5111122,-1.418204,-1.013382,0.5128179
805.7776,-0.1337246,-0.7303066,-0.5111122,-1.418204,-1.013382,0.5128179
805.7918,-0.1321037,-0.7351524,-0.5212498,-1.428186,-1.023878,0.5167862
805.8054,-0.1304919,-0.73997,-0.5312784,-1.438045,-1.034126,0.5206766
805.8194,-0.1304919,-0.73997,-0.5312784,-1.438045,-1.034126,0.5206766
805.8336,-0.1288558,-0.7448533,-0.5415754,-1.448176,-1.044749,0.5248047
805.8486,-0.1272131,-0.7497541,-0.5518475,-1.458297,-1.055292,0.5288519
805.8632,-0.125574,-0.7546434,-0.5620363,-1.46833,-1.06562,0.5328199
805.8773,-0.125574,-0.7546434,-0.5620363,-1.46833,-1.06562,0.5328199
805.8917,-0.1253124,-0.7556377,-0.5567783,-1.463236,-1.053575,0.5250997
805.9068,-0.125852,-0.7542555,-0.5478249,-1.452697,-1.034934,0.5175254
805.9215,-0.1268717,-0.7514135,-0.5372213,-1.439641,-1.014783,0.5100977
805.9363,-0.1268717,-0.7514135,-0.5372213,-1.439641,-1.014783,0.5100977
805.9501,-0.1281668,-0.7476908,-0.5260314,-1.425483,-0.9943417,0.5028149
805.9656,-0.1295766,-0.7435526,-0.5151356,-1.41132,-0.9746096,0.4959884
805.98,-0.1310444,-0.7391799,-0.5044443,-1.397224,-0.955239,0.4892957
805.9948,-0.1310444,-0.7391799,-0.5044443,-1.397224,-0.955239,0.4892957
806.0087,-0.1325375,-0.7346841,-0.4939986,-1.383274,-0.9361375,0.4827342
806.0241,-0.1340372,-0.7301331,-0.4838046,-1.369506,-0.9172964,0.4763013
806.0389,-0.1340372,-0.7301331,-0.4838046,-1.369506,-0.9172964,0.4763013
806.0527,-0.1354965,-0.7256733,-0.4742043,-1.356358,-0.8994076,0.4703082
806.0707,-0.1369254,-0.7212882,-0.4649321,-1.343561,-0.8819677,0.4644327
806.0834,-0.13833,-0.7169679,-0.4559352,-1.331041,-0.8648236,0.4586726
806.097,-0.13833,-0.7169679,-0.4559352,-1.331041,-0.8648236,0.4586726
806.1111,-0.1396773,-0.7128105,-0.4474937,-1.319182,-0.8486549,0.453339
806.1265,-0.1409851,-0.7087704,-0.4393628,-1.307678,-0.8329334,0.4481103
806.1409,-0.1422639,-0.7048196,-0.4314858,-1.296444,-0.8174919,0.442984
806.1553,-0.1422639,-0.7048196,-0.4314858,-1.296444,-0.8174919,0.442984
806.1692,-0.1435198,-0.7009407,-0.4238207,-1.285434,-0.8022993,0.4379583
806.1845,-0.1447201,-0.6972271,-0.4166241,-1.275054,-0.7880784,0.4333448
806.199,-0.1447201,-0.6972271,-0.4166241,-1.275054,-0.7880784,0.4333448
806.2128,-0.1458825,-0.6936308,-0.4097026,-1.264993,-0.7742952,0.4288219
806.2281,-0.1470173,-0.6901219,-0.4030074,-1.255174,-0.7607688,0.4243878
806.2426,-0.1481305,-0.6866818,-0.3964957,-1.245554,-0.7474659,0.4200405
806.2573,-0.1481305,-0.6866818,-0.3964957,-1.245554,-0.7474659,0.4200405
806.2715,-0.1491898,-0.6834036,-0.3903898,-1.236547,-0.735122,0.4160922
806.2867,-0.1502126,-0.6802385,-0.3845345,-1.227832,-0.7232015,0.4122216
806.3011,-0.1512091,-0.6771567,-0.3788854,-1.219334,-0.7115117,0.4084269
806.3159,-0.1512091,-0.6771567,-0.3788854,-1.219334,-0.7115117,0.4084269
806.33,-0.1521495,-0.674244,-0.3736231,-1.211454,-0.7007612,0.4050203
806.3455,-0.1530526,-0.6714475,-0.3686048,-1.203853,-0.6904127,0.4016808
806.3596,-0.1530526,-0.6714475,-0.3686048,-1.203853,-0.6904127,0.4016808
806.3759,-0.1539293,-0.6687344,-0.3637826,-1.196456,-0.6802679,0.3984067
806.39,-0.1547862,-0.6660846,-0.3591065,-1.189221,-0.6702908,0.3951969
806.4037,-0.1555918,-0.6635897,-0.3547456,-1.182569,-0.6612286,0.3923637
806.4178,-0.1555918,-0.6635897,-0.3547456,-1.182569,-0.6612286,0.3923637
806.4321,-0.1563631,-0.6612007,-0.3505979,-1.176165,-0.6525536,0.3895863
806.4474,-0.1571104,-0.6588873,-0.3466264,-1.169938,-0.6440585,0.3868634
806.4618,-0.1578399,-0.6566304,-0.3427826,-1.163851,-0.6357036,0.3841939
806.4767,-0.1578399,-0.6566304,-0.3427826,-1.163851,-0.6357036,0.3841939
806.4904,-0.1585198,-0.6545227,-0.3392132,-1.158332,-0.6282375,0.3818904
806.5058,-0.159167,-0.6525159,-0.3358405,-1.153038,-0.6211386,0.3796324
806.5204,-0.1597916,-0.6505799,-0.3326315,-1.147902,-0.6141934,0.3774188
806.535,-0.1597916,-0.6505799,-0.3326315,-1.147902,-0.6141934,0.3774188
806.549,-0.1603642,-0.6488004,-0.3297006,-1.143337,-0.6081102,0.3755622
806.5642,-0.160903,-0.647125,-0.3269701,-1.138991,-0.6023668,0.3737424
806.5791,-0.160903,-0.647125,-0.3269701,-1.138991,-0.6023668,0.3737424
806.5931,-0.161419,-0.6455209,-0.3244006,-1.13479,-0.5967484,0.3719583
806.6086,-0.1619189,-0.6439678,-0.3219377,-1.130698,-0.5912144,0.3702092
806.6232,-0.1623714,-0.6425574,-0.3196945,-1.127147,-0.5865161,0.3688081
806.6378,-0.1623714,-0.6425574,-0.3196945,-1.127147,-0.5865161,0.3688081
806.6516,-0.1627932,-0.6412411,-0.3176238,-1.123786,-0.5821427,0.3674348
806.6681,-0.1631945,-0.6399884,-0.3156978,-1.12055,-0.5778745,0.3660884
806.6824,-0.1635816,-0.6387804,-0.3138657,-1.117403,-0.5736675,0.3647685
806.6961,-0.1635816,-0.6387804,-0.3138657,-1.117403,-0.5736675,0.3647685
806.7101,-0.1639229,-0.6377099,-0.31223,-1.114783,-0.5702714,0.3637881
806.7254,-0.164235,-0.6367286,-0.3107563,-1.112335,-0.5671794,0.3628273
806.7397,-0.164235,-0.6367286,-0.3107563,-1.112335,-0.5671794,0.3628273
806.7537,-0.1645278,-0.6358067,-0.3094197,-1.109996,-0.5641693,0.3618854
806.769,-0.1647724,-0.63503,-0.3082994,-1.108187,-0.5619451,0.3612757
806.7836,-0.1649865,-0.6343462,-0.3073522,-1.106546,-0.5599962,0.3606783
806.7985,-0.1649865,-0.6343462,-0.3073522,-1.106546,-0.5599962,0.3606783
806.8123,-0.165181,-0.6337226,-0.3065442,-1.105004,-0.5581017,0.3600927
806.8275,-0.1653627,-0.633139,-0.3058186,-1.103526,-0.556219,0.3595185
806.8424,-0.1655005,-0.632687,-0.3052623,-1.102549,-0.5550985,0.3592693
806.8566,-0.1655005,-0.632687,-0.3052623,-1.102549,-0.5550985,0.3592693
806.8709,-0.1656108,-0.6323183,-0.3048537,-1.101717,-0.5542403,0.3590254
806.8861,-0.1657039,-0.6320026,-0.3045697,-1.100965,-0.553421,0.3587863
806.901,-0.165786,-0.631721,-0.3043584,-1.100261,-0.5525953,0.3585518
806.9153,-0.165786,-0.631721,-0.3043584,-1.100261,-0.5525953,0.3585518
806.9297,-0.1658257,-0.6315661,-0.3043056,-1.100045,-0.5525118,0.3586358
806.9449,-0.1658392,-0.6314902,-0.3043942,-1.09996,-0.5526711,0.3587183
806.9606,-0.1658373,-0.6314634,-0.3046018,-1.099941,-0.5528495,0.3587994
806.9753,-0.1658373,-0.6314634,-0.3046018,-1.099941,-0.5528495,0.3587994
806.9893,-0.1657908,-0.6315709,-0.3049987,-1.100415,-0.553748,0.3591926
807.0035,-0.1657171,-0.6317608,-0.3055521,-1.101017,-0.5548615,0.3595783
807.0178,-0.1657171,-0.6317608,-0.3055521,-1.101017,-0.5548615,0.3595783
807.032,-0.1656269,-0.6320007,-0.3062289,-1.101678,-0.5559683,0.3599567
807.0469,-0.165527,-0.6322705,-0.3069714,-1.102367,-0.5570266,0.3603275
807.0618,-0.1653865,-0.6326619,-0.3078648,-1.10352,-0.5587862,0.3610049
807.0762,-0.1653865,-0.6326619,-0.3078648,-1.10352,-0.5587862,0.3610049
807.0902,-0.1652217,-0.6331267,-0.3088911,-1.104781,-0.5607495,0.3616692
807.1055,-0.1650427,-0.6336346,-0.3100267,-1.106086,-0.5626943,0.3623207
807.1202,-0.1648559,-0.6341667,-0.3112187,-1.107404,-0.5645766,0.3629593
807.1351,-0.1648559,-0.6341667,-0.3112187,-1.107404,-0.5645766,0.3629593
807.1487,-0.16463,-0.634816,-0.3125598,-1.109175,-0.5671448,0.3638991
807.1642,-0.164381,-0.6355345,-0.3140292,-1.111042,-0.5698992,0.3648209
807.1788,-0.164381,-0.6355345,-0.3140292,-1.111042,-0.5698992,0.3648209
807.1929,-0.1641192,-0.6362925,-0.3156027,-1.112944,-0.5726183,0.3657246
807.2083,-0.1638154,-0.6371759,-0.3173621,-1.115302,-0.5760043,0.3669244
807.2228,-0.1634874,-0.6381326,-0.3192658,-1.117757,-0.5795497,0.3681009
807.2394,-0.1634874,-0.6381326,-0.3192658,-1.117757,-0.5795497,0.3681009
807.2537,-0.1631462,-0.6391301,-0.3212775,-1.120239,-0.5830364,0.3692545
807.2678,-0.1627984,-0.6401482,-0.3233389,-1.122718,-0.5864251,0.3703854
807.2813,-0.1624129,-0.641279,-0.3255548,-1.125628,-0.5904663,0.3718078
807.2959,-0.1624129,-0.641279,-0.3255548,-1.125628,-0.5904663,0.3718078
807.3097,-0.1620061,-0.6424741,-0.3278922,-1.128616,-0.5946575,0.3732027
807.3251,-0.1615883,-0.6437033,-0.3303228,-1.13162,-0.598781,0.3745703
807.3395,-0.1615883,-0.6437033,-0.3303228,-1.13162,-0.598781,0.3745703
807.3535,-0.1611302,-0.6450525,-0.3329452,-1.13506,-0.6035408,0.3762248
807.3687,-0.1606499,-0.6464694,-0.3357038,-1.138578,-0.6084253,0.3778472
807.3833,-0.1601582,-0.6479216,-0.3385585,-1.142107,-0.6132205,0.3794379
807.3979,-0.1601582,-0.6479216,-0.3385585,-1.142107,-0.6132205,0.3794379
807.4119,-0.1596618,-0.649389,-0.341451,-1.145614,-0.6178902,0.3809973
807.4274,-0.1591293,-0.6509635,-0.3445078,-1.149532,-0.6231847,0.3828399
807.4417,-0.1585774,-0.652597,-0.3476782,-1.153512,-0.6285955,0.3846467
807.4568,-0.1585774,-0.652597,-0.3476782,-1.153512,-0.6285955,0.3846467
807.4707,-0.1580163,-0.6542591,-0.3509293,-1.157493,-0.6339096,0.3864181
807.486,-0.1574521,-0.6559316,-0.354208,-1.161441,-0.6390903,0.3881547
807.5007,-0.156853,-0.6577073,-0.3576574,-1.16579,-0.6448858,0.3901711
807.5151,-0.156853,-0.6577073,-0.3576574,-1.16579,-0.6448858,0.3901711
807.5313,-0.1562356,-0.6595385,-0.3612155,-1.170195,-0.6507823,0.3921482
807.5454,-0.1556099,-0.6613954,-0.3648466,-1.174592,-0.6565703,0.3940865
807.5603,-0.154982,-0.6632599,-0.3684979,-1.178952,-0.6622148,0.3959869
807.5738,-0.154982,-0.6632599,-0.3684979,-1.178952,-0.6622148,0.3959869
807.5878,-0.15432,-0.6652251,-0.3723291,-1.183702,-0.6684633,0.3981637
807.6029,-0.1536404,-0.6672432,-0.3762639,-1.188502,-0.6747973,0.4002982
807.6174,-0.1536404,-0.6672432,-0.3762639,-1.188502,-0.6747973,0.4002982
807.6312,-0.1529534,-0.6692848,-0.3802636,-1.193289,-0.6810115,0.4023908
807.6467,-0.1522292,-0.6714361,-0.3844816,-1.198474,-0.6878132,0.4047562
807.6624,-0.151486,-0.673645,-0.3888145,-1.203711,-0.6946763,0.4070754
807.676,-0.151486,-0.673645,-0.3888145,-1.203711,-0.6946763,0.4070754
807.6897,-0.1507347,-0.6758792,-0.3932121,-1.208933,-0.7014018,0.4093493
807.705,-0.1499821,-0.6781189,-0.3976181,-1.214107,-0.7079614,0.4115785
807.7197,-0.1499821,-0.6781189,-0.3976181,-1.214107,-0.7079614,0.4115785
807.7336,-0.149196,-0.6804565,-0.4022223,-1.219655,-0.7151006,0.4140778
807.7488,-0.1483936,-0.6828435,-0.4069194,-1.225242,-0.7222934,0.4165283
807.7637,-0.147585,-0.68525,-0.4116646,-1.230806,-0.7293443,0.4189308
807.7785,-0.147585,-0.68525,-0.4116646,-1.230806,-0.7293443,0.4189308
807.7925,-0.1467404,-0.6877621,-0.4166442,-1.236749,-0.7369596,0.4216
807.8077,-0.1458782,-0.6903276,-0.4217251,-1.242736,-0.7446066,0.4242171
807.8246,-0.1450094,-0.6929142,-0.426852,-1.248697,-0.7520965,0.4267829
807.838,-0.1450094,-0.6929142,-0.426852,-1.248697,-0.7520965,0.4267829
807.8517,-0.1441405,-0.6955022,-0.4319708,-1.254599,-0.759405,0.4292984
807.8662,-0.1432395,-0.6981838,-0.4373077,-1.260857,-0.7672701,0.4320784
807.8806,-0.1423233,-0.7009106,-0.442724,-1.267148,-0.7751597,0.4348041
807.8951,-0.1423233,-0.7009106,-0.442724,-1.267148,-0.7751597,0.4348041
807.9091,-0.1414024,-0.7036529,-0.4481695,-1.273404,-0.7828898,0.4374764
807.9244,-0.1404828,-0.7063922,-0.4535954,-1.279595,-0.7904361,0.4400963
807.9395,-0.1404828,-0.7063922,-0.4535954,-1.279595,-0.7904361,0.4400963
807.9526,-0.1395318,-0.7092219,-0.459251,-1.286134,-0.7985294,0.4429786
807.9681,-0.1385666,-0.7120941,-0.4649777,-1.292702,-0.8066349,0.4458046
807.9826,-0.1375974,-0.7149795,-0.4707227,-1.299232,-0.8145758,0.4485753
807.9974,-0.1375974,-0.7149795,-0.4707227,-1.299232,-0.8145758,0.4485753
808.0114,-0.1365938,-0.7179643,-0.4767316,-1.306119,-0.8230474,0.4516053
808.0267,-0.1355744,-0.7209964,-0.4828163,-1.31304,-0.8315125,0.4545763
808.0413,-0.1345505,-0.7240438,-0.4889152,-1.319923,-0.839802,0.457489
808.0559,-0.1345505,-0.7240438,-0.4889152,-1.319923,-0.839802,0.457489
808.0701,-0.1335284,-0.7270868,-0.4949795,-1.326734,-0.8478966,0.4603446
808.0853,-0.1324756,-0.7302179,-0.5012969,-1.333878,-0.8565114,0.463458
808.0999,-0.1324756,-0.7302179,-0.5012969,-1.333878,-0.8565114,0.463458
808.1138,-0.1314094,-0.7333887,-0.5076692,-1.341046,-0.8651136,0.4665106
808.1301,-0.1303403,-0.7365693,-0.5140391,-1.34817,-0.8735407,0.4695034
808.1448,-0.1292743,-0.7397418,-0.5203632,-1.355217,-0.8817732,0.4724376
808.1584,-0.1292743,-0.7397418,-0.5203632,-1.355217,-0.8817732,0.4724376
808.1723,-0.1281782,-0.7429995,-0.5269533,-1.362588,-0.8905128,0.475628
808.1874,-0.1270696,-0.7462944,-0.5335882,-1.369983,-0.8992311,0.478756
808.2018,-0.1259587,-0.7495973,-0.5402097,-1.377331,-0.9077737,0.4818228
808.2163,-0.1259587,-0.7495973,-0.5402097,-1.377331,-0.9077737,0.4818228
808.2308,-0.1248145,-0.7529945,-0.5471274,-1.385013,-0.916807,0.4851432
808.2455,-0.1236564,-0.7564339,-0.5540911,-1.392725,-0.9258063,0.4883988
808.26,-0.1224953,-0.7598835,-0.5610361,-1.400389,-0.9346238,0.4915906
808.2747,-0.1224953,-0.7598835,-0.5610361,-1.400389,-0.9346238,0.4915906
808.2887,-0.1213379,-0.7633238,-0.5679202,-1.40797,-0.9432419,0.4947198
808.3042,-0.1201508,-0.7668475,-0.5750942,-1.415863,-0.9523335,0.4981015
808.3185,-0.1201508,-0.7668475,-0.5750942,-1.415863,-0.9523335,0.4981015
808.3324,-0.118952,-0.770406,-0.5822946,-1.423777,-0.9613878,0.5014172
808.3477,-0.1177518,-0.7739697,-0.5894611,-1.431638,-0.9702638,0.5046678
808.3623,-0.1165564,-0.7775204,-0.5965564,-1.439411,-0.9789432,0.5078548
808.3773,-0.1165564,-0.7775204,-0.5965564,-1.439411,-0.9789432,0.5078548
808.391,-0.115332,-0.7811518,-0.6039544,-1.447489,-0.9880776,0.5112931
808.4065,-0.1140964,-0.7848159,-0.6113685,-1.455587,-0.9971719,0.5146641
808.423,-0.1128601,-0.7884833,-0.6187382,-1.46363,-1.006092,0.5179692
808.4366,-0.1128601,-0.7884833,-0.6187382,-1.46363,-1.006092,0.5179692
808.4503,-0.1115916,-0.7922407,-0.6264359,-1.471989,-1.015451,0.5215233
808.4646,-0.1103105,-0.7960358,-0.6341489,-1.480374,-1.024764,0.5250079
808.4789,-0.1103105,-0.7960358,-0.6341489,-1.480374,-1.024764,0.5250079
808.4928,-0.1090282,-0.7998368,-0.641812,-1.488704,-1.033902,0.5284243
808.5081,-0.1077511,-0.8036241,-0.6493899,-1.496941,-1.042844,0.5317738
808.5226,-0.1064451,-0.8074906,-0.6572919,-1.505472,-1.052198,0.5353715
808.537,-0.1064451,-0.8074906,-0.6572919,-1.505472,-1.052198,0.5353715
808.5508,-0.1051288,-0.8113877,-0.6651919,-1.514022,-1.061508,0.5388988
808.566,-0.1038127,-0.8152857,-0.6730291,-1.522511,-1.070648,0.542357
808.5806,-0.1025029,-0.8191668,-0.680772,-1.530904,-1.079597,0.5457475
808.5966,-0.1025029,-0.8191668,-0.680772,-1.530904,-1.079597,0.5457475
808.6091,-0.1025211,-0.8193647,-0.672866,-1.525241,-1.068006,0.5380872
808.6244,-0.1033232,-0.81731,-0.6615844,-1.514372,-1.050454,0.5305723
808.639,-0.1033232,-0.81731,-0.6615844,-1.514372,-1.050454,0.5305723
808.6529,-0.1045837,-0.8138798,-0.6489916,-1.501091,-1.031359,0.523203
808.6685,-0.106099,-0.8096266,-0.6360299,-1.486756,-1.011846,0.5159774
808.6829,-0.1077485,-0.8048928,-0.6231051,-1.472026,-0.9922891,0.5088931
808.6977,-0.1077485,-0.8048928,-0.6231051,-1.472026,-0.9922891,0.5088931
808.7116,-0.1094633,-0.7998887,-0.6103826,-1.45722,-0.9728404,0.5019476
808.727,-0.1112049,-0.794743,-0.5979235,-1.442493,-0.953571,0.4951381
808.7426,-0.1129519,-0.7895341,-0.5857458,-1.427921,-0.9345173,0.4884621
808.7571,-0.1129519,-0.7895341,-0.5857458,-1.427921,-0.9345173,0.4884621
808.7712,-0.1146927,-0.7843097,-0.5738502,-1.413539,-0.9156988,0.4819168
808.7853,-0.1164209,-0.7790987,-0.5622314,-1.399366,-0.8971269,0.4754998
808.7998,-0.1164209,-0.7790987,-0.5622314,-1.399366,-0.8971269,0.4754998
808.8138,-0.1181333,-0.7739187,-0.5508819,-1.385407,-0.8788084,0.4692086
808.829,-0.1198281,-0.7687801,-0.539794,-1.371666,-0.8607476,0.4630407
808.8434,-0.1215046,-0.7636892,-0.5289602,-1.358142,-0.8429472,0.4569936
808.858,-0.1215046,-0.7636892,-0.5289602,-1.358142,-0.8429472,0.4569936
808.8722,-0.1231624,-0.7586494,-0.5183731,-1.344833,-0.8254091,0.451065
808.8876,-0.1248014,-0.7536629,-0.5080261,-1.331737,-0.8081343,0.4452526
808.9025,-0.1264216,-0.7487305,-0.4979123,-1.31885,-0.7911232,0.4395541
808.9166,-0.1264216,-0.7487305,-0.4979123,-1.31885,-0.7911232,0.4395541
808.9308,-0.1280232,-0.7438527,-0.4880256,-1.30617,-0.7743759,0.4339672
808.9463,-0.1296064,-0.7390295,-0.4783597,-1.293694,-0.7578922,0.4284898
808.9604,-0.1311713,-0.7342607,-0.4689087,-1.281419,-0.7416714,0.4231198
808.9753,-0.1311713,-0.7342607,-0.4689087,-1.281419,-0.7416714,0.4231198
808.9894,-0.132718,-0.7295459,-0.4596667,-1.269341,-0.7257127,0.4178549
809.0048,-0.1342469,-0.7248847,-0.4506282,-1.257457,-0.7100149,0.4126932
809.019,-0.1342469,-0.7248847,-0.4506282,-1.257457,-0.7100149,0.4126932
809.0352,-0.1357581,-0.7202767,-0.4417878,-1.245763,-0.6945766,0.4076326
809.0494,-0.1372517,-0.7157212,-0.4331401,-1.234258,-0.6793962,0.4026712
809.063,-0.138728,-0.7112178,-0.4246799,-1.222938,-0.6644719,0.397807
809.0775,-0.138728,-0.7112178,-0.4246799,-1.222938,-0.6644719,0.397807
809.0915,-0.1401872,-0.706766,-0.4164024,-1.211799,-0.6498018,0.3930382
809.1068,-0.1416294,-0.7023653,-0.4083026,-1.200839,-0.6353837,0.3883627
809.1213,-0.1430548,-0.698015,-0.4003758,-1.190055,-0.6212154,0.3837788
809.1358,-0.1430548,-0.698015,-0.4003758,-1.190055,-0.6212154,0.3837788
809.1496,-0.1444637,-0.6937147,-0.3926174,-1.179444,-0.6072944,0.3792848
809.165,-0.1458562,-0.6894639,-0.385023,-1.169003,-0.5936182,0.3748788
809.1795,-0.1458562,-0.6894639,-0.385023,-1.169003,-0.5936182,0.3748788
809.1935,-0.1472324,-0.6852618,-0.3775882,-1.158729,-0.5801841,0.3705591
809.2089,-0.1485927,-0.6811082,-0.3703089,-1.148621,-0.5669895,0.3663241
809.2233,-0.149937,-0.6770025,-0.363181,-1.138674,-0.5540316,0.362172
809.2382,-0.149937,-0.6770025,-0.363181,-1.138674,-0.5540316,0.362172
809.2521,-0.1512657,-0.6729441,-0.3562004,-1.128887,-0.5413074,0.3581013
809.2675,-0.1525789,-0.6689324,-0.3493634,-1.119256,-0.5288141,0.3541104
809.282,-0.1538768,-0.6649671,-0.3426661,-1.10978,-0.5165487,0.3501977
809.2965,-0.1538768,-0.6649671,-0.3426661,-1.10978,-0.5165487,0.3501977
809.3105,-0.1551595,-0.6610476,-0.336105,-1.100456,-0.5045081,0.3463617
809.3257,-0.1564273,-0.6571735,-0.3296765,-1.091281,-0.4926893,0.3426009
809.3413,-0.1576803,-0.6533441,-0.3233772,-1.082253,-0.4810891,0.3389138
809.3561,-0.1576803,-0.6533441,-0.3233772,-1.082253,-0.4810891,0.3389138
809.37,-0.1589186,-0.649559,-0.3172036,-1.07337,-0.4697044,0.335299
809.3841,-0.1601424,-0.6458178,-0.3111525,-1.06463,-0.4585321,0.331755
809.3987,-0.1601424,-0.6458178,-0.3111525,-1.06463,-0.4585321,0.331755
809.4126,-0.161352,-0.6421199,-0.3052209,-1.056029,-0.447569,0.3282804
809.4277,-0.1625474,-0.6384649,-0.2994056,-1.047566,-0.4368119,0.3248739
809.4423,-0.1637288,-0.6348522,-0.2937036,-1.039239,-0.4262577,0.3215342
809.4571,-0.1637288,-0.6348522,-0.2937036,-1.039239,-0.4262577,0.3215342
809.4714,-0.1648964,-0.6312816,-0.2881119,-1.031046,-0.4159033,0.31826
809.4861,-0.1660504,-0.6277524,-0.2826279,-1.022984,-0.4057454,0.3150499
809.5007,-0.1671908,-0.6242642,-0.2772487,-1.015051,-0.3957809,0.3119028
809.5154,-0.1671908,-0.6242642,-0.2772487,-1.015051,-0.3957809,0.3119028
809.531,-0.1683179,-0.6208165,-0.2719716,-1.007246,-0.3860067,0.3088173
809.5448,-0.1694319,-0.617409,-0.266794,-0.9995661,-0.3764197,0.3057924
809.5593,-0.1694319,-0.617409,-0.266794,-0.9995661,-0.3764197,0.3057924
809.5735,-0.1705328,-0.6140411,-0.2617134,-0.9920096,-0.3670169,0.3028267
809.589,-0.1716208,-0.6107124,-0.2567273,-0.9845746,-0.357795,0.2999191
809.6037,-0.1726961,-0.6074225,-0.2518333,-0.9772592,-0.3487512,0.2970686
809.6179,-0.1726961,-0.6074225,-0.2518333,-0.9772592,-0.3487512,0.2970686
809.634,-0.1737588,-0.6041709,-0.2470291,-0.9700614,-0.3398823,0.2942739
809.6483,-0.1748091,-0.6009573,-0.2423124,-0.9629794,-0.3311855,0.2915341
809.6618,-0.1758471,-0.5977811,-0.237681,-0.9560116,-0.3226576,0.2888479
809.6765,-0.1758471,-0.5977811,-0.237681,-0.9560116,-0.3226576,0.2888479
809.6902,-0.176873,-0.5946419,-0.2331327,-0.949156,-0.3142959,0.2862144
809.7056,-0.1778868,-0.5915394,-0.2286655,-0.942411,-0.3060975,0.2836325
809.7199,-0.1778868,-0.5915394,-0.2286655,-0.942411,-0.3060975,0.2836325
809.7338,-0.1788888,-0.5884732,-0.2242772,-0.9357748,-0.2980594,0.2811013
809.749,-0.1798791,-0.5854428,-0.2199659,-0.9292457,-0.2901789,0.2786196
809.7637,-0.1808577,-0.5824478,-0.2157297,-0.9228221,-0.2824531,0.2761866
809.7783,-0.1808577,-0.5824478,-0.2157297,-0.9228221,-0.2824531,0.2761866
809.7924,-0.181825,-0.5794877,-0.2115667,-0.9165024,-0.2748793,0.2738014
809.8076,-0.1827809,-0.5765623,-0.207475,-0.9102848,-0.2674549,0.2714629
809.8224,-0.1837256,-0.5736712,-0.2034529,-0.9041679,-0.260177,0.2691702
809.8369,-0.1837256,-0.5736712,-0.2034529,-0.9041679,-0.260177,0.2691702
809.8507,-0.1846593,-0.5708139,-0.1994986,-0.89815,-0.2530431,0.2669225
809.8663,-0.1855821,-0.56799,-0.1956104,-0.8922297,-0.2460506,0.2647189
809.8809,-0.1864941,-0.5651992,-0.1917868,-0.8864055,-0.2391969,0.2625584
809.8954,-0.1864941,-0.5651992,-0.1917868,-0.8864055,-0.2391969,0.2625584
809.9097,-0.1873954,-0.5624411,-0.188026,-0.8806757,-0.2324794,0.2604404
809.9266,-0.1882862,-0.5597153,-0.1843265,-0.875039,-0.2258958,0.2583639
809.9403,-0.1891665,-0.5570215,-0.1806868,-0.869494,-0.2194434,0.2563281
809.955,-0.1891665,-0.5570215,-0.1806868,-0.869494,-0.2194434,0.2563281
809.9687,-0.1900366,-0.5543593,-0.1771055,-0.8640391,-0.21312,0.2543322
809.9828,-0.1908965,-0.5517282,-0.173581,-0.858673,-0.2069231,0.2523754
809.9976,-0.1908965,-0.5517282,-0.173581,-0.858673,-0.2069231,0.2523754
810.0112,-0.1917464,-0.5491281,-0.1701121,-0.8533944,-0.2008504,0.250457
810.0264,-0.1925863,-0.5465585,-0.1666973,-0.8482018,-0.1948996,0.2485763
810.0411,-0.1934164,-0.544019,-0.1633353,-0.8430939,-0.1890684,0.2467324
810.0571,-0.1934164,-0.544019,-0.1633353,-0.8430939,-0.1890684,0.2467324
810.0697,-0.1942368,-0.5415094,-0.1600248,-0.8380695,-0.1833546,0.2449247
810.0852,-0.1950477,-0.5390293,-0.1567646,-0.8331271,-0.1777561,0.2431524
810.0994,-0.1950477,-0.5390293,-0.1567646,-0.8331271,-0.1777561,0.2431524
810.1135,-0.195849,-0.5365783,-0.1535534,-0.8282656,-0.1722705,0.2414149
810.1287,-0.196641,-0.5341561,-0.1503901,-0.8234836,-0.166896,0.2397115
810.1434,-0.1974238,-0.5317624,-0.1472735,-0.81878,-0.1616302,0.2380414
810.158,-0.1974238,-0.5317624,-0.1472735,-0.81878,-0.1616302,0.2380414
