JMolnar6/NonAnthroHands_User_Study/HandsLoggerWithURDF/tempdata/files/Reachy_JointMotion_gesture_7_34.csv
Time,r_shoulder,r_shoulder_x,r_upper_arm,r_forearm,r_wrist,r_wrist2hand,
611.7679,-0.09805284,0.0005126739,NaN,-0.3272016,0.0003943497,NaN,0.4556045,-14.33837,NaN,-2.169636,-1.475794,-0.3681985,14.12117,NaN,NaN,-0.05709171,0.8149602,4.517089E-06,1.04789,-4.113608E-08,1.397527
611.7838,-0.09768108,0.0005131884,NaN,-0.3271987,0.0003946477,NaN,0.4555776,-14.33928,NaN,-2.169805,-1.470184,-0.3680281,14.1153,NaN,NaN,-0.05636421,0.8139535,4.430141E-06,1.039721,-3.87519E-08,1.403348
611.7979,-0.09768108,0.0005131884,NaN,-0.3271987,0.0003946477,NaN,0.4555776,-14.33928,NaN,-2.169805,-1.470184,-0.3680281,14.1153,NaN,NaN,-0.05636421,0.8139535,4.430141E-06,1.039721,-3.87519E-08,1.403348
611.8121,-0.09685067,0.0005135109,NaN,-0.3271948,0.0003951137,NaN,0.4554698,-14.33806,NaN,-2.170089,-1.466989,-0.3679071,14.11174,NaN,NaN,-0.05565102,0.8150927,4.347123E-06,1.035018,-3.87519E-08,1.397855
611.8275,-0.09573516,0.0005132594,NaN,-0.3271905,0.000395349,NaN,0.4553462,-14.33785,NaN,-2.170379,-1.464099,-0.3678153,14.10864,NaN,NaN,-0.05495188,0.8152255,4.262987E-06,1.030792,-4.113608E-08,1.391383
611.8427,-0.09444492,0.0005131103,NaN,-0.3271862,0.0003946695,NaN,0.4552342,-14.33859,NaN,-2.17064,-1.476875,-0.3677333,14.12228,NaN,NaN,-0.0542665,0.814851,4.181161E-06,1.049441,-3.75598E-08,1.399926
611.8578,-0.09444492,0.0005131103,NaN,-0.3271862,0.0003946695,NaN,0.4552342,-14.33859,NaN,-2.17064,-1.476875,-0.3677333,14.12228,NaN,NaN,-0.0542665,0.814851,4.181161E-06,1.049441,-3.75598E-08,1.399926
611.8719,-0.09377845,0.0005128798,NaN,-0.3271842,0.0003947743,NaN,0.4553026,-14.33744,NaN,-2.170477,-1.465826,-0.3676832,14.11042,NaN,NaN,-0.05359496,0.8158216,4.093673E-06,1.033302,-3.636771E-08,1.391296
611.8873,-0.09350725,0.0005126373,NaN,-0.3271835,0.0003950793,NaN,0.4554677,-14.33814,NaN,-2.170167,-1.46467,-0.3675827,14.10927,NaN,NaN,-0.05293656,0.8150815,4.007004E-06,1.031633,-3.517562E-08,1.394593
611.9025,-0.0934859,0.0005129225,NaN,-0.3271832,0.0003950344,NaN,0.4556612,-14.33948,NaN,-2.169822,-1.4733,-0.3674521,14.11859,NaN,NaN,-0.052291,0.8139855,3.922347E-06,1.044259,-2.563888E-08,1.406141
611.9174,-0.0934859,0.0005129225,NaN,-0.3271832,0.0003950344,NaN,0.4556612,-14.33948,NaN,-2.169822,-1.4733,-0.3674521,14.11859,NaN,NaN,-0.052291,0.8139855,3.922347E-06,1.044259,-2.563888E-08,1.406141
611.9316,-0.09434906,0.0005131408,NaN,-0.3271845,0.000395314,NaN,0.4560144,-14.33915,NaN,-2.169098,-1.468664,-0.367341,14.11363,NaN,NaN,-0.05165845,0.8142194,3.832102E-06,1.037492,-2.325469E-08,1.400914
611.9476,-0.09576517,0.0005128032,NaN,-0.3271863,0.0003954434,NaN,0.4564349,-14.3376,NaN,-2.168281,-1.464196,-0.3671813,14.10869,NaN,NaN,-0.05103823,0.8156565,3.744762E-06,1.030928,-2.563888E-08,1.389438
611.9623,-0.09752328,0.0005119251,NaN,-0.3271878,0.0003952529,NaN,0.456857,-14.33711,NaN,-2.167478,-1.4632,-0.3669972,14.10756,NaN,NaN,-0.0504301,0.816108,3.659714E-06,1.029451,-2.20626E-08,1.389461
611.9773,-0.09752328,0.0005119251,NaN,-0.3271878,0.0003952529,NaN,0.456857,-14.33711,NaN,-2.167478,-1.4632,-0.3669972,14.10756,NaN,NaN,-0.0504301,0.816108,3.659714E-06,1.029451,-2.20626E-08,1.389461
611.9931,-0.0994892,0.0005119154,NaN,-0.3271889,0.0003952673,NaN,0.4572552,-14.33873,NaN,-2.166723,-1.471473,-0.366809,14.11656,NaN,NaN,-0.04983384,0.8147429,3.577776E-06,1.041589,-1.967841E-08,1.402246
612.0086,-0.102306,0.0005121646,NaN,-0.3271918,0.00039461,NaN,0.4577882,-14.33768,NaN,-2.165634,-1.478951,-0.3666531,14.12436,NaN,NaN,-0.04924962,0.8159436,3.490474E-06,1.052455,-1.610213E-08,1.398382
612.022,-0.1056462,0.0005124634,NaN,-0.3271949,0.0003946908,NaN,0.4583753,-14.3369,NaN,-2.164477,-1.471235,-0.3664549,14.11606,NaN,NaN,-0.04867679,0.8166075,3.405705E-06,1.041173,-1.014167E-08,1.39243
612.0369,-0.1056462,0.0005124634,NaN,-0.3271949,0.0003946908,NaN,0.4583753,-14.3369,NaN,-2.164477,-1.471235,-0.3664549,14.11606,NaN,NaN,-0.04867679,0.8166075,3.405705E-06,1.041173,-1.014167E-08,1.39243
612.0512,-0.1093019,0.0005120778,NaN,-0.3271974,0.0003946575,NaN,0.4589558,-14.3363,NaN,-2.163351,-1.465122,-0.3662358,14.10948,NaN,NaN,-0.0481151,0.8170757,3.323953E-06,1.032227,-1.371795E-08,1.385108
612.067,-0.1131407,0.0005116464,NaN,-0.327199,0.0003942609,NaN,0.4595067,-14.3372,NaN,-2.162285,-1.471537,-0.3660145,14.11643,NaN,NaN,-0.04756438,0.8163621,3.243934E-06,1.041631,-1.252586E-08,1.390936
612.0819,-0.117807,0.0005117988,NaN,-0.3272021,0.0003949401,NaN,0.4601884,-14.33657,NaN,-2.160896,-1.464816,-0.3658237,14.10919,NaN,NaN,-0.04702479,0.8168532,3.159109E-06,1.031797,-1.133376E-08,1.38976
612.0972,-0.117807,0.0005117988,NaN,-0.3272021,0.0003949401,NaN,0.4601884,-14.33657,NaN,-2.160896,-1.464816,-0.3658237,14.10919,NaN,NaN,-0.04702479,0.8168532,3.159109E-06,1.031797,-1.133376E-08,1.38976
612.1111,-0.1229743,0.0005115932,NaN,-0.3272048,0.0003952091,NaN,0.460919,-14.33665,NaN,-2.159449,-1.465176,-0.365591,14.10958,NaN,NaN,-0.04649571,0.8167845,3.077544E-06,1.032325,-1.371795E-08,1.386242
612.1271,-0.1284351,0.000511937,NaN,-0.3272063,0.0003948544,NaN,0.4616382,-14.33682,NaN,-2.158042,-1.477232,-0.3653385,14.12243,NaN,NaN,-0.04597691,0.8169461,3.00058E-06,1.049935,-1.371795E-08,1.393567
612.142,-0.1340578,0.0005116024,NaN,-0.3272068,0.0003946208,NaN,0.4623232,-14.33605,NaN,-2.156706,-1.466629,-0.3650848,14.11104,NaN,NaN,-0.04546824,0.8175591,2.923131E-06,1.034427,-1.610213E-08,1.386387
612.157,-0.1340578,0.0005116024,NaN,-0.3272068,0.0003946208,NaN,0.4623232,-14.33605,NaN,-2.156706,-1.466629,-0.3650848,14.11104,NaN,NaN,-0.04546824,0.8175591,2.923131E-06,1.034427,-1.610213E-08,1.386387
612.171,-0.140487,0.0005112971,NaN,-0.3272084,0.0003947344,NaN,0.4631357,-14.33649,NaN,-2.155055,-1.46535,-0.3648594,14.10973,NaN,NaN,-0.04496985,0.8170876,2.843112E-06,1.032574,-1.491004E-08,1.386397
612.1876,-0.1473967,0.00051136,NaN,-0.3272092,0.0003940744,NaN,0.463992,-14.33644,NaN,-2.153354,-1.477745,-0.3645926,14.12292,NaN,NaN,-0.04448115,0.8174788,2.763018E-06,1.050677,-1.967841E-08,1.392135
612.2014,-0.1545796,0.0005114571,NaN,-0.3272092,0.0003943591,NaN,0.4648318,-14.33606,NaN,-2.151704,-1.467265,-0.3643077,14.1117,NaN,NaN,-0.04400195,0.8176945,2.684899E-06,1.035347,-1.729423E-08,1.386188
612.2164,-0.1545796,0.0005114571,NaN,-0.3272092,0.0003943591,NaN,0.4648318,-14.33606,NaN,-2.151704,-1.467265,-0.3643077,14.1117,NaN,NaN,-0.04400195,0.8176945,2.684899E-06,1.035347,-1.729423E-08,1.386188
612.2305,-0.1626328,0.0005115296,NaN,-0.32721,0.0003948238,NaN,0.4657984,-14.3365,NaN,-2.149745,-1.464763,-0.3640419,14.10908,NaN,NaN,-0.04353243,0.817192,2.605513E-06,1.031705,-1.610213E-08,1.387911
612.246,-0.1711995,0.0005117882,NaN,-0.3272099,0.0003956023,NaN,0.4668002,-14.337,NaN,-2.147754,-1.463137,-0.363734,14.10741,NaN,NaN,-0.04307202,0.8166519,2.528623E-06,1.029347,-2.325469E-08,1.392329
612.2609,-0.1800535,0.0005119856,NaN,-0.327209,0.0003962295,NaN,0.4677757,-14.33772,NaN,-2.145829,-1.463357,-0.3634099,14.10774,NaN,NaN,-0.04262054,0.8159347,2.453484E-06,1.029696,-2.20626E-08,1.394426
612.2759,-0.1800535,0.0005119856,NaN,-0.327209,0.0003962295,NaN,0.4677757,-14.33772,NaN,-2.145829,-1.463357,-0.3634099,14.10774,NaN,NaN,-0.04262054,0.8159347,2.453484E-06,1.029696,-2.20626E-08,1.394426
612.2903,-0.189051,0.0005119058,NaN,-0.3272073,0.0003956239,NaN,0.4687041,-14.33624,NaN,-2.143998,-1.475794,-0.3630884,14.12074,NaN,NaN,-0.04217786,0.8177775,2.382517E-06,1.047776,-2.325469E-08,1.38851
612.3061,-0.1988295,0.0005123232,NaN,-0.3272065,0.0003957859,NaN,0.4697502,-14.33936,NaN,-2.141875,-1.472185,-0.3627916,14.11724,NaN,NaN,-0.04174414,0.8145869,2.307713E-06,1.042575,-2.325469E-08,1.407149
612.3209,-0.2090583,0.0005125263,NaN,-0.3272049,0.0003964189,NaN,0.470828,-14.33769,NaN,-2.139724,-1.464057,-0.3624561,14.10842,NaN,NaN,-0.04131883,0.8160777,2.234772E-06,1.030685,-1.967841E-08,1.393597
612.3359,-0.2090583,0.0005125263,NaN,-0.3272049,0.0003964189,NaN,0.470828,-14.33769,NaN,-2.139724,-1.464057,-0.3624561,14.10842,NaN,NaN,-0.04131883,0.8160777,2.234772E-06,1.030685,-1.967841E-08,1.393597
612.3502,-0.2195274,0.0005127974,NaN,-0.3272023,0.0003967294,NaN,0.4718784,-14.33864,NaN,-2.137641,-1.468312,-0.362106,14.11307,NaN,NaN,-0.04090177,0.8152418,2.164066E-06,1.036934,-2.325469E-08,1.399841
612.3658,-0.2301039,0.0005134649,NaN,-0.3271985,0.0003965573,NaN,0.4728812,-14.33851,NaN,-2.135654,-1.477217,-0.3617587,14.1225,NaN,NaN,-0.04049283,0.8155783,2.099022E-06,1.049914,-2.20626E-08,1.40237
612.3807,-0.2414318,0.0005137043,NaN,-0.3271958,0.0003966829,NaN,0.4740013,-14.33745,NaN,-2.133378,-1.469347,-0.3614333,14.11402,NaN,NaN,-0.04009216,0.8164986,2.029956E-06,1.038409,-1.848632E-08,1.39443
612.3967,-0.2414318,0.0005137043,NaN,-0.3271958,0.0003966829,NaN,0.4740013,-14.33745,NaN,-2.133378,-1.469347,-0.3614333,14.11402,NaN,NaN,-0.04009216,0.8164986,2.029956E-06,1.038409,-1.848632E-08,1.39443
612.4109,-0.2531851,0.0005138487,NaN,-0.327192,0.0003970395,NaN,0.4751503,-14.33841,NaN,-2.131078,-1.466526,-0.3610693,14.11113,NaN,NaN,-0.03969926,0.8154778,1.961783E-06,1.034323,-1.371795E-08,1.397231
612.4256,-0.2651565,0.0005138259,NaN,-0.3271862,0.0003974355,NaN,0.4762691,-14.33778,NaN,-2.128849,-1.464019,-0.3606918,14.10838,NaN,NaN,-0.03931397,0.8160413,1.896292E-06,1.030643,-1.371795E-08,1.392957
612.4407,-0.277215,0.0005136469,NaN,-0.3271786,0.0003977452,NaN,0.4773376,-14.33816,NaN,-2.126722,-1.464342,-0.3603183,14.10877,NaN,NaN,-0.03893617,0.8156665,1.833186E-06,1.031129,-1.252586E-08,1.394458
612.4554,-0.277215,0.0005136469,NaN,-0.3271786,0.0003977452,NaN,0.4773376,-14.33816,NaN,-2.126722,-1.464342,-0.3603183,14.10877,NaN,NaN,-0.03893617,0.8156665,1.833186E-06,1.031129,-1.252586E-08,1.394458
612.4694,-0.2900061,0.0005133604,NaN,-0.3271719,0.0003980734,NaN,0.4785215,-14.33805,NaN,-2.124312,-1.463588,-0.3599638,14.10795,NaN,NaN,-0.03856603,0.8157526,1.765013E-06,1.030023,-1.252586E-08,1.395153
612.4863,-0.3032043,0.0005128066,NaN,-0.3271637,0.0003983272,NaN,0.4797301,-14.33803,NaN,-2.121882,-1.462794,-0.3595719,14.1071,NaN,NaN,-0.03820304,0.8157502,1.699522E-06,1.028864,-1.252586E-08,1.393065
612.5001,-0.3166032,0.0005123111,NaN,-0.3271533,0.0003987031,NaN,0.4809047,-14.33824,NaN,-2.119531,-1.462309,-0.3591686,14.10661,NaN,NaN,-0.03784708,0.8155229,1.638279E-06,1.028163,-5.373299E-09,1.395337
612.5156,-0.3166032,0.0005123111,NaN,-0.3271533,0.0003987031,NaN,0.4809047,-14.33824,NaN,-2.119531,-1.462309,-0.3591686,14.10661,NaN,NaN,-0.03784708,0.8155229,1.638279E-06,1.028163,-5.373299E-09,1.395337
612.5294,-0.3308006,0.0005116597,NaN,-0.3271433,0.0003989921,NaN,0.4821938,-14.33806,NaN,-2.116904,-1.462165,-0.3587764,14.10642,NaN,NaN,-0.03749831,0.8156913,1.570926E-06,1.027946,-6.565392E-09,1.392516
612.5452,-0.3454406,0.0005112951,NaN,-0.3271311,0.0003994593,NaN,0.4834991,-14.33795,NaN,-2.11427,-1.463029,-0.3583472,14.10732,NaN,NaN,-0.03715628,0.8158204,1.507E-06,1.029199,-8.949577E-09,1.397338
612.5602,-0.3602976,0.000511609,NaN,-0.3271161,0.0003992231,NaN,0.4847614,-14.33792,NaN,-2.11173,-1.47592,-0.3579094,14.12101,NaN,NaN,-0.03682085,0.8162233,1.445905E-06,1.048002,-6.565391E-09,1.399058
612.5751,-0.3602976,0.000511609,NaN,-0.3271161,0.0003992231,NaN,0.4847614,-14.33792,NaN,-2.11173,-1.47592,-0.3579094,14.12101,NaN,NaN,-0.03682085,0.8162233,1.445905E-06,1.048002,-6.565391E-09,1.399058
612.5891,-0.3752288,0.0005124347,NaN,-0.3270987,0.0003990289,NaN,0.4859629,-14.33798,NaN,-2.109311,-1.478538,-0.3574802,14.12379,NaN,NaN,-0.03649193,0.816197,1.390472E-06,1.051825,-1.014167E-08,1.399256
612.6059,-0.3908723,0.0005125997,NaN,-0.3270819,0.0003989622,NaN,0.487272,-14.33672,NaN,-2.106628,-1.468983,-0.3570661,14.11349,NaN,NaN,-0.03616967,0.8173118,1.329825E-06,1.037849,-1.371795E-08,1.389881
612.6196,-0.3908723,0.0005125997,NaN,-0.3270819,0.0003989622,NaN,0.487272,-14.33672,NaN,-2.106628,-1.468983,-0.3570661,14.11349,NaN,NaN,-0.03616967,0.8173118,1.329825E-06,1.037849,-1.371795E-08,1.389881
612.6338,-0.4068982,0.0005127126,NaN,-0.3270632,0.0003994657,NaN,0.4885949,-14.33741,NaN,-2.103942,-1.46354,-0.3566186,14.10777,NaN,NaN,-0.03585363,0.8164994,1.271561E-06,1.029919,-1.967841E-08,1.389414
612.6493,-0.4230975,0.0005127092,NaN,-0.3270418,0.0003999598,NaN,0.4898751,-14.33796,NaN,-2.10135,-1.462578,-0.3561645,14.10682,NaN,NaN,-0.03554369,0.8159127,1.21449E-06,1.028537,-1.848632E-08,1.395677
612.6643,-0.4393378,0.0005126864,NaN,-0.3270183,0.0004003863,NaN,0.491095,-14.33842,NaN,-2.098877,-1.463592,-0.3557199,14.10795,NaN,NaN,-0.03523977,0.8154813,1.16174E-06,1.030035,-1.252586E-08,1.396702
612.6794,-0.4393378,0.0005126864,NaN,-0.3270183,0.0004003863,NaN,0.491095,-14.33842,NaN,-2.098877,-1.463592,-0.3557199,14.10795,NaN,NaN,-0.03523977,0.8154813,1.16174E-06,1.030035,-1.252586E-08,1.396702
612.6935,-0.4562641,0.0005126467,NaN,-0.3269957,0.0004009033,NaN,0.4924233,-14.33813,NaN,-2.096142,-1.4622,-0.3552868,14.10643,NaN,NaN,-0.034942,0.8157284,1.104519E-06,1.027991,-1.133376E-08,1.396162
612.7092,-0.473551,0.000512292,NaN,-0.3269711,0.0004012342,NaN,0.4937633,-14.33794,NaN,-2.093406,-1.462249,-0.3548216,14.10645,NaN,NaN,-0.03464996,0.8159156,1.049981E-06,1.028053,-1.014167E-08,1.394122
612.7243,-0.4909921,0.0005118856,NaN,-0.3269441,0.0004008237,NaN,0.4950587,-14.33832,NaN,-2.090766,-1.472004,-0.3543518,14.11686,NaN,NaN,-0.03436355,0.8158318,9.972308E-07,1.0423,-7.757485E-09,1.396211
612.7391,-0.4909921,0.0005118856,NaN,-0.3269441,0.0004008237,NaN,0.4950587,-14.33832,NaN,-2.090766,-1.472004,-0.3543518,14.11686,NaN,NaN,-0.03436355,0.8158318,9.972308E-07,1.0423,-7.757485E-09,1.396211
612.7537,-0.5091853,0.000511318,NaN,-0.3269174,0.0004008103,NaN,0.4964615,-14.33747,NaN,-2.087867,-1.464451,-0.3538865,14.10872,NaN,NaN,-0.03408293,0.8165213,9.391163E-07,1.031253,-1.133376E-08,1.388618
612.7691,-0.5277752,0.0005109003,NaN,-0.326888,0.0004004662,NaN,0.4978682,-14.33892,NaN,-2.08498,-1.470991,-0.3533907,14.11587,NaN,NaN,-0.0338077,0.8152627,8.863661E-07,1.04086,-1.252586E-08,1.397771
612.7839,-0.5465367,0.0005109801,NaN,-0.3268555,0.0004001373,NaN,0.4992222,-14.33912,NaN,-2.082202,-1.47376,-0.3528933,14.11883,NaN,NaN,-0.03353778,0.8151209,8.386824E-07,1.044901,-1.133376E-08,1.400892
612.7998,-0.5465367,0.0005109801,NaN,-0.3268555,0.0004001373,NaN,0.4992222,-14.33912,NaN,-2.082202,-1.47376,-0.3528933,14.11883,NaN,NaN,-0.03353778,0.8151209,8.386824E-07,1.044901,-1.133376E-08,1.400892
612.8141,-0.5653272,0.000510956,NaN,-0.3268205,0.0004001108,NaN,0.500508,-14.3374,NaN,-2.07956,-1.468475,-0.3524097,14.11301,NaN,NaN,-0.03327309,0.8167337,7.924888E-07,1.037147,-1.133376E-08,1.389804
612.8286,-0.5847856,0.0005113446,NaN,-0.3267862,0.0003995842,NaN,0.501896,-14.33788,NaN,-2.076671,-1.477713,-0.3519337,14.1229,NaN,NaN,-0.03301374,0.8164797,7.421229E-07,1.050653,-1.014167E-08,1.396662
612.8435,-0.6045823,0.000511636,NaN,-0.3267497,0.0003998063,NaN,0.5032866,-14.33704,NaN,-2.073795,-1.468833,-0.3514303,14.11335,NaN,NaN,-0.03275938,0.8171702,6.959293E-07,1.037667,-6.565393E-09,1.389952
612.8583,-0.6045823,0.000511636,NaN,-0.3267497,0.0003998063,NaN,0.5032866,-14.33704,NaN,-2.073795,-1.468833,-0.3514303,14.11335,NaN,NaN,-0.03275938,0.8171702,6.959293E-07,1.037667,-6.565393E-09,1.389952
612.8725,-0.6245088,0.0005116223,NaN,-0.3267105,0.0004001749,NaN,0.5046257,-14.3374,NaN,-2.071026,-1.464526,-0.3509274,14.1088,NaN,NaN,-0.03250992,0.8167103,6.53014E-07,1.031386,-6.565393E-09,1.390673
612.8881,-0.6444333,0.000511582,NaN,-0.3266692,0.0004006562,NaN,0.5058982,-14.33776,NaN,-2.068391,-1.463247,-0.350439,14.10748,NaN,NaN,-0.03226529,0.8163255,6.124828E-07,1.029529,-7.757485E-09,1.392045
612.903,-0.6650013,0.0005111698,NaN,-0.3266289,0.0003998087,NaN,0.5072742,-14.33677,NaN,-2.06551,-1.476802,-0.3499545,14.12175,NaN,NaN,-0.0320256,0.8177083,5.668852E-07,1.049269,-4.181206E-09,1.389528
612.918,-0.6650013,0.0005111698,NaN,-0.3266289,0.0003998087,NaN,0.5072742,-14.33677,NaN,-2.06551,-1.476802,-0.3499545,14.12175,NaN,NaN,-0.0320256,0.8177083,5.668852E-07,1.049269,-4.181206E-09,1.389528
612.9324,-0.6858877,0.0005110056,NaN,-0.3265866,0.000400282,NaN,0.5086514,-14.33767,NaN,-2.062642,-1.464354,-0.3494445,14.10857,NaN,NaN,-0.03179051,0.8166041,5.242679E-07,1.031091,-4.181206E-09,1.392595
612.9478,-0.7068868,0.0005112013,NaN,-0.3265418,0.0004007483,NaN,0.5099762,-14.33843,NaN,-2.059882,-1.466308,-0.3489368,14.11075,NaN,NaN,-0.03155995,0.8159048,4.840347E-07,1.033973,-4.181206E-09,1.397141
612.9662,-0.7278686,0.0005114545,NaN,-0.3264949,0.0004003008,NaN,0.5112339,-14.33867,NaN,-2.057257,-1.476881,-0.3484451,14.12201,NaN,NaN,-0.03133386,0.8159469,4.479739E-07,1.049407,-1.014167E-08,1.398852
612.9796,-0.7278686,0.0005114545,NaN,-0.3264949,0.0004003008,NaN,0.5112339,-14.33867,NaN,-2.057257,-1.476881,-0.3484451,14.12201,NaN,NaN,-0.03133386,0.8159469,4.479739E-07,1.049407,-1.014167E-08,1.398852
612.9922,-0.7489727,0.000511376,NaN,-0.3264477,0.0004003076,NaN,0.5124766,-14.33724,NaN,-2.054653,-1.466751,-0.3479672,14.11108,NaN,NaN,-0.03111221,0.8172018,4.11019E-07,1.03459,-5.373299E-09,1.388279
613.0074,-0.7700652,0.000510938,NaN,-0.3263996,0.0003999013,NaN,0.5136767,-14.33791,NaN,-2.052142,-1.46943,-0.3474956,14.11401,NaN,NaN,-0.03089485,0.8166029,3.767464E-07,1.038526,-1.014167E-08,1.39078
613.0234,-0.7910622,0.0005101493,NaN,-0.326351,0.000399583,NaN,0.5148222,-14.33717,NaN,-2.049745,-1.464856,-0.3470377,14.10904,NaN,NaN,-0.03068171,0.8172249,3.433678E-07,1.031819,-1.014167E-08,1.386768
613.037,-0.7910622,0.0005101493,NaN,-0.326351,0.000399583,NaN,0.5148222,-14.33717,NaN,-2.049745,-1.464856,-0.3470377,14.10904,NaN,NaN,-0.03068171,0.8172249,3.433678E-07,1.031819,-1.014167E-08,1.386768
613.0515,-0.811911,0.0005095253,NaN,-0.3263026,0.0003993777,NaN,0.5159124,-14.33802,NaN,-2.047464,-1.466973,-0.3465964,14.11141,NaN,NaN,-0.03047271,0.8164372,3.126714E-07,1.034944,-5.373299E-09,1.391047
613.0667,-0.8325796,0.0005090106,NaN,-0.3262546,0.0003994309,NaN,0.5169504,-14.33782,NaN,-2.045295,-1.465266,-0.3461719,14.10956,NaN,NaN,-0.03026778,0.8165955,2.834651E-07,1.032443,-7.757485E-09,1.389586
613.0817,-0.8530481,0.0005086272,NaN,-0.3262077,0.0003985394,NaN,0.5179399,-14.33793,NaN,-2.043229,-1.477877,-0.3457631,14.12298,NaN,NaN,-0.03006683,0.8168292,2.524707E-07,1.050857,-7.757485E-09,1.39396
613.0966,-0.8530481,0.0005086272,NaN,-0.3262077,0.0003985394,NaN,0.5179399,-14.33793,NaN,-2.043229,-1.477877,-0.3457631,14.12298,NaN,NaN,-0.03006683,0.8168292,2.524707E-07,1.050857,-7.757485E-09,1.39396
613.1108,-0.8733054,0.0005087174,NaN,-0.3261621,0.0003975245,NaN,0.5188844,-14.33727,NaN,-2.041261,-1.479262,-0.3453693,14.12438,NaN,NaN,-0.02986979,0.8174983,2.262447E-07,1.052865,-7.757485E-09,1.391716
613.1265,-0.8933451,0.0005091054,NaN,-0.3261181,0.0003973703,NaN,0.5197867,-14.33643,NaN,-2.039386,-1.472527,-0.3449896,14.1171,NaN,NaN,-0.02967659,0.8182401,2.000186E-07,1.042998,-7.757485E-09,1.385262
613.1417,-0.9131642,0.0005092366,NaN,-0.3260756,0.0003978211,NaN,0.5206493,-14.33719,NaN,-2.037599,-1.464845,-0.3446232,14.10898,NaN,NaN,-0.02948716,0.8173212,1.743886E-07,1.031778,-2.989114E-09,1.388628
613.1564,-0.9131642,0.0005092366,NaN,-0.3260756,0.0003978211,NaN,0.5206493,-14.33719,NaN,-2.037599,-1.464845,-0.3446232,14.10898,NaN,NaN,-0.02948716,0.8173212,1.743886E-07,1.031778,-2.989114E-09,1.388628
613.1705,-0.9327617,0.0005089674,NaN,-0.326035,0.0003981545,NaN,0.5214738,-14.33693,NaN,-2.035896,-1.463438,-0.3442698,14.10743,NaN,NaN,-0.02930141,0.8175405,1.508448E-07,1.029706,-5.3733E-09,1.384402
613.1862,-0.9521378,0.0005094439,NaN,-0.3259961,0.000397925,NaN,0.522262,-14.33771,NaN,-2.034275,-1.476526,-0.3439288,14.12148,NaN,NaN,-0.02911928,0.8171481,1.27599E-07,1.048862,-5.3733E-09,1.393823
613.2011,-0.9712938,0.0005098542,NaN,-0.325959,0.000397154,NaN,0.5230151,-14.33777,NaN,-2.032732,-1.480158,-0.3436,14.12535,NaN,NaN,-0.02894071,0.8171466,1.073334E-07,1.054168,-5.3733E-09,1.395268
613.2159,-0.9712938,0.0005098542,NaN,-0.325959,0.000397154,NaN,0.5230151,-14.33777,NaN,-2.032732,-1.480158,-0.3436,14.12535,NaN,NaN,-0.02894071,0.8171466,1.073334E-07,1.054168,-5.3733E-09,1.395268
613.2324,-0.9902313,0.0005101916,NaN,-0.3259236,0.0003968909,NaN,0.5237344,-14.33668,NaN,-2.031265,-1.473294,-0.343283,14.1179,NaN,NaN,-0.02876562,0.8181549,8.706782E-08,1.044111,-5.3733E-09,1.388685
613.2457,-1.008952,0.0005106592,NaN,-0.32589,0.0003973236,NaN,0.5244209,-14.3366,NaN,-2.029873,-1.46924,-0.3429776,14.11356,NaN,NaN,-0.02859394,0.8181567,6.561014E-08,1.038175,-2.989114E-09,1.386762
613.2606,-1.027459,0.0005107419,NaN,-0.3258581,0.0003977742,NaN,0.5250757,-14.33682,NaN,-2.028553,-1.464425,-0.3426834,14.10844,NaN,NaN,-0.0284256,0.8178351,4.951689E-08,1.031138,1.779258E-09,1.385296
613.2755,-1.027459,0.0005107419,NaN,-0.3258581,0.0003977742,NaN,0.5250757,-14.33682,NaN,-2.028553,-1.464425,-0.3426834,14.10844,NaN,NaN,-0.0284256,0.8178351,4.951689E-08,1.031138,1.779258E-09,1.385296
613.2896,-1.045753,0.0005107584,NaN,-0.3258279,0.0003981301,NaN,0.5256997,-14.33736,NaN,-2.027304,-1.465789,-0.3424004,14.10996,NaN,NaN,-0.02826055,0.8173391,3.223155E-08,1.033151,6.547629E-09,1.386788
613.3051,-1.063837,0.0005108697,NaN,-0.3257993,0.0003987557,NaN,0.5262939,-14.3372,NaN,-2.026124,-1.463322,-0.3421283,14.1073,NaN,NaN,-0.02809872,0.8174341,1.315806E-08,1.029536,6.547629E-09,1.388891
613.3199,-1.063837,0.0005108697,NaN,-0.3257993,0.0003987557,NaN,0.5262939,-14.3372,NaN,-2.026124,-1.463322,-0.3421283,14.1073,NaN,NaN,-0.02809872,0.8174341,1.315806E-08,1.029536,6.547629E-09,1.388891
613.3342,-1.081714,0.0005112231,NaN,-0.3257723,0.0003991415,NaN,0.526859,-14.33839,NaN,-2.025011,-1.468178,-0.3418668,14.11263,NaN,NaN,-0.02794005,0.8163987,-2.935192E-09,1.03668,6.547629E-09,1.396888
613.3499,-1.099385,0.0005117603,NaN,-0.3257469,0.0003990374,NaN,0.5273959,-14.33869,NaN,-2.023964,-1.475699,-0.3416158,14.12066,NaN,NaN,-0.02778447,0.8162824,-1.962449E-08,1.047668,6.547629E-09,1.399324
613.3647,-1.116853,0.0005117276,NaN,-0.3257229,0.0003990239,NaN,0.5279055,-14.33709,NaN,-2.022981,-1.467292,-0.341375,14.11153,NaN,NaN,-0.02763193,0.8177369,-3.392961E-08,1.035354,4.163443E-09,1.388574
613.3796,-1.116853,0.0005117276,NaN,-0.3257229,0.0003990239,NaN,0.5279055,-14.33709,NaN,-2.022981,-1.467292,-0.341375,14.11153,NaN,NaN,-0.02763193,0.8177369,-3.392961E-08,1.035354,4.163443E-09,1.388574
613.3939,-1.134121,0.0005114152,NaN,-0.3257004,0.0003990017,NaN,0.5283884,-14.33775,NaN,-2.02206,-1.466211,-0.3411442,14.11046,NaN,NaN,-0.02748236,0.8170587,-4.704263E-08,1.033798,8.931815E-09,1.389742
613.4095,-1.15119,0.0005120066,NaN,-0.3256793,0.000398777,NaN,0.5288455,-14.33697,NaN,-2.0212,-1.476593,-0.3409232,14.12141,NaN,NaN,-0.02733571,0.8181202,-6.253983E-08,1.048931,1.1316E-08,1.390004
613.4244,-1.168063,0.0005119166,NaN,-0.3256596,0.0003987815,NaN,0.5292774,-14.33709,NaN,-2.0204,-1.4657,-0.3407119,14.10979,NaN,NaN,-0.02719193,0.8178282,-7.565286E-08,1.033001,1.370019E-08,1.388336
613.4391,-1.168063,0.0005119166,NaN,-0.3256596,0.0003987815,NaN,0.5292774,-14.33709,NaN,-2.0204,-1.4657,-0.3407119,14.10979,NaN,NaN,-0.02719193,0.8178282,-7.565286E-08,1.033001,1.370019E-08,1.388336
613.4547,-1.184742,0.0005117317,NaN,-0.3256412,0.0003979569,NaN,0.529685,-14.33882,NaN,-2.019657,-1.477027,-0.34051,14.12209,NaN,NaN,-0.02705096,0.8164266,-8.757378E-08,1.049626,1.370019E-08,1.399594
613.4688,-1.20123,0.0005122799,NaN,-0.325624,0.0003989353,NaN,0.5300688,-14.3372,NaN,-2.018971,-1.466375,-0.3403173,14.11057,NaN,NaN,-0.02691273,0.8178851,-9.830261E-08,1.034033,1.1316E-08,1.387171
613.4837,-1.217528,0.0005125753,NaN,-0.3256082,0.0003995076,NaN,0.5304295,-14.33787,NaN,-2.018341,-1.465693,-0.3401336,14.10993,NaN,NaN,-0.02677721,0.8172154,-1.072433E-07,1.033063,1.370019E-08,1.390498
613.4984,-1.217528,0.0005125753,NaN,-0.3256082,0.0003995076,NaN,0.5304295,-14.33787,NaN,-2.018341,-1.465693,-0.3401336,14.10993,NaN,NaN,-0.02677721,0.8172154,-1.072433E-07,1.033063,1.370019E-08,1.390498
613.5126,-1.233638,0.0005128615,NaN,-0.3255935,0.0003998638,NaN,0.5307679,-14.33882,NaN,-2.017765,-1.468019,-0.3399588,14.11252,NaN,NaN,-0.02664433,0.8163409,-1.167801E-07,1.036497,1.846856E-08,1.396999
613.5281,-1.249564,0.0005131696,NaN,-0.3255799,0.0003994284,NaN,0.5310845,-14.33908,NaN,-2.017241,-1.47739,-0.3397926,14.12252,NaN,NaN,-0.02651405,0.8163192,-1.28701E-07,1.050186,2.085274E-08,1.400514
613.543,-1.265306,0.0005133668,NaN,-0.3255675,0.0003997284,NaN,0.5313799,-14.33774,NaN,-2.016768,-1.468011,-0.3396348,14.11239,NaN,NaN,-0.02638631,0.8175021,-1.388338E-07,1.036462,2.085274E-08,1.390627
613.558,-1.265306,0.0005133668,NaN,-0.3255675,0.0003997284,NaN,0.5313799,-14.33774,NaN,-2.016768,-1.468011,-0.3396348,14.11239,NaN,NaN,-0.02638631,0.8175021,-1.388338E-07,1.036462,2.085274E-08,1.390627
613.5721,-1.280647,0.0005135722,NaN,-0.3255555,0.0003991554,NaN,0.5316038,-14.33835,NaN,-2.016459,-1.477878,-0.3394948,14.12298,NaN,NaN,-0.02626103,0.8171451,-1.465824E-07,1.050904,2.323693E-08,1.395793
613.5877,-1.295671,0.0005135258,NaN,-0.3255448,0.0003992221,NaN,0.5317919,-14.33749,NaN,-2.016232,-1.466963,-0.3393736,14.11125,NaN,NaN,-0.02613823,0.8178449,-1.54331E-07,1.034935,1.846856E-08,1.387402
613.6027,-1.310432,0.0005136167,NaN,-0.3255357,0.0003984249,NaN,0.5319611,-14.33811,NaN,-2.016054,-1.478854,-0.3392626,14.12401,NaN,NaN,-0.02601782,0.8175354,-1.614835E-07,1.052339,1.846856E-08,1.394774
613.6174,-1.310432,0.0005136167,NaN,-0.3255357,0.0003984249,NaN,0.5319611,-14.33811,NaN,-2.016054,-1.478854,-0.3392626,14.12401,NaN,NaN,-0.02601782,0.8175354,-1.614835E-07,1.052339,1.846856E-08,1.394774
613.6318,-1.324967,0.0005131996,NaN,-0.3255283,0.0003979888,NaN,0.5321168,-14.33667,NaN,-2.015913,-1.467525,-0.3391583,14.11177,NaN,NaN,-0.02589978,0.8188229,-1.662519E-07,1.035747,1.370019E-08,1.38447
613.6472,-1.338571,0.0005135699,NaN,-0.3255199,0.0003980782,NaN,0.5320923,-14.33769,NaN,-2.01618,-1.471247,-0.3390914,14.11588,NaN,NaN,-0.02578394,0.8179141,-1.704242E-07,1.041236,1.370019E-08,1.390188
613.6641,-1.351532,0.0005139567,NaN,-0.3255135,0.000397457,NaN,0.5320034,-14.33697,NaN,-2.016591,-1.478469,-0.3390649,14.1235,NaN,NaN,-0.02567041,0.8188007,-1.745966E-07,1.051776,8.931815E-09,1.388711
613.6779,-1.351532,0.0005139567,NaN,-0.3255135,0.000397457,NaN,0.5320034,-14.33697,NaN,-2.016591,-1.478469,-0.3390649,14.1235,NaN,NaN,-0.02567041,0.8188007,-1.745966E-07,1.051776,8.931815E-09,1.388711
613.6909,-1.364035,0.0005137362,NaN,-0.32551,0.0003969482,NaN,0.5319031,-14.33588,NaN,-2.017041,-1.469641,-0.3390517,14.11394,NaN,NaN,-0.02555913,0.8197607,-1.787689E-07,1.038831,8.931815E-09,1.380828
613.7065,-1.376197,0.000514128,NaN,-0.3255085,0.0003970497,NaN,0.5318071,-14.33628,NaN,-2.017494,-1.47135,-0.3390407,14.11582,NaN,NaN,-0.02545003,0.8194203,-1.817491E-07,1.04135,4.163444E-09,1.383497
613.7211,-1.387367,0.0005140558,NaN,-0.3255068,0.0003964557,NaN,0.5315489,-14.3365,NaN,-2.018319,-1.474212,-0.339061,14.11891,NaN,NaN,-0.02534297,0.8192711,-1.823451E-07,1.045552,6.54763E-09,1.384089
613.7358,-1.387367,0.0005140558,NaN,-0.3255068,0.0003964557,NaN,0.5315489,-14.3365,NaN,-2.018319,-1.474212,-0.339061,14.11891,NaN,NaN,-0.02534297,0.8192711,-1.823451E-07,1.045552,6.54763E-09,1.384089
613.7499,-1.397864,0.0005141872,NaN,-0.3255065,0.0003969111,NaN,0.531242,-14.33688,NaN,-2.019253,-1.466206,-0.3391155,14.11038,NaN,NaN,-0.02523805,0.8187532,-1.835372E-07,1.033838,8.931815E-09,1.385257
613.7657,-1.407896,0.0005141129,NaN,-0.3255076,0.0003972428,NaN,0.5309368,-14.33674,NaN,-2.020197,-1.465065,-0.3391781,14.10914,NaN,NaN,-0.0251352,0.8188656,-1.829412E-07,1.032162,4.163444E-09,1.382393
613.7803,-1.417593,0.000514455,NaN,-0.3255095,0.0003969143,NaN,0.5306466,-14.33694,NaN,-2.02112,-1.477644,-0.3392389,14.12261,NaN,NaN,-0.02503437,0.8190171,-1.829412E-07,1.050581,6.54763E-09,1.387606
613.7956,-1.417593,0.000514455,NaN,-0.3255095,0.0003969143,NaN,0.5306466,-14.33694,NaN,-2.02112,-1.477644,-0.3392389,14.12261,NaN,NaN,-0.02503437,0.8190171,-1.829412E-07,1.050581,6.54763E-09,1.387606
613.8096,-1.42631,0.0005140548,NaN,-0.3255108,0.0003966448,NaN,0.5302027,-14.3372,NaN,-2.022394,-1.466724,-0.339327,14.11095,NaN,NaN,-0.02493542,0.8185972,-1.811531E-07,1.034598,6.54763E-09,1.385918
613.8252,-1.434375,0.0005135023,NaN,-0.3255131,0.0003961885,NaN,0.5297176,-14.33651,NaN,-2.023759,-1.469423,-0.3394468,14.11375,NaN,NaN,-0.02483845,0.8193467,-1.787689E-07,1.03853,1.370019E-08,1.381733
613.8398,-1.434375,0.0005135023,NaN,-0.3255131,0.0003961885,NaN,0.5297176,-14.33651,NaN,-2.023759,-1.469423,-0.3394468,14.11375,NaN,NaN,-0.02483845,0.8193467,-1.787689E-07,1.03853,1.370019E-08,1.381733
613.8541,-1.441995,0.0005131602,NaN,-0.3255166,0.0003954428,NaN,0.5292408,-14.33813,NaN,-2.025118,-1.474979,-0.3395728,14.11991,NaN,NaN,-0.02474339,0.8178585,-1.763847E-07,1.046729,8.931815E-09,1.389942
613.8698,-1.448576,0.000512825,NaN,-0.3255197,0.0003954287,NaN,0.5286165,-14.33692,NaN,-2.026817,-1.466518,-0.3397247,14.11074,NaN,NaN,-0.0246501,0.8189182,-1.722124E-07,1.034329,1.1316E-08,1.38077
613.8842,-1.454476,0.000512215,NaN,-0.3255245,0.0003954552,NaN,0.52796,-14.33698,NaN,-2.028588,-1.464165,-0.3399065,14.10824,NaN,NaN,-0.02455868,0.8187876,-1.66848E-07,1.030891,1.1316E-08,1.379694
613.9,-1.459922,0.0005120367,NaN,-0.3255318,0.0003949299,NaN,0.527321,-14.33846,NaN,-2.030333,-1.475495,-0.3400916,14.12055,NaN,NaN,-0.02446908,0.8176485,-1.632717E-07,1.047536,8.931815E-09,1.391555
613.9152,-1.459922,0.0005120367,NaN,-0.3255318,0.0003949299,NaN,0.527321,-14.33846,NaN,-2.030333,-1.475495,-0.3400916,14.12055,NaN,NaN,-0.02446908,0.8176485,-1.632717E-07,1.047536,8.931815E-09,1.391555
613.9281,-1.46506,0.0005123662,NaN,-0.3255412,0.0003945755,NaN,0.5267112,-14.33893,NaN,-2.032024,-1.475916,-0.34027,14.12105,NaN,NaN,-0.02438123,0.8171854,-1.596954E-07,1.048165,8.931815E-09,1.394552
613.9435,-1.469255,0.0005124559,NaN,-0.3255502,0.0003945646,NaN,0.5259601,-14.33687,NaN,-2.034035,-1.468845,-0.340468,14.11328,NaN,NaN,-0.02429499,0.8191141,-1.531389E-07,1.037785,1.1316E-08,1.382002
613.9583,-1.469255,0.0005124559,NaN,-0.3255502,0.0003945646,NaN,0.5259601,-14.33687,NaN,-2.034035,-1.468845,-0.340468,14.11328,NaN,NaN,-0.02429499,0.8191141,-1.531389E-07,1.037785,1.1316E-08,1.382002
613.9723,-1.472839,0.0005127812,NaN,-0.3255602,0.0003949466,NaN,0.5251777,-14.33836,NaN,-2.036111,-1.468417,-0.340695,14.11301,NaN,NaN,-0.02421049,0.8176299,-1.477745E-07,1.037211,8.931815E-09,1.389463
613.9877,-1.476024,0.000513045,NaN,-0.3255717,0.0003956594,NaN,0.5244136,-14.33752,NaN,-2.038155,-1.463831,-0.3409249,14.10801,NaN,NaN,-0.02412766,0.8183549,-1.406219E-07,1.030479,4.163444E-09,1.38352
614.0026,-1.478944,0.0005135235,NaN,-0.3255845,0.000395492,NaN,0.5236801,-14.33881,NaN,-2.040138,-1.476231,-0.3411476,14.12142,NaN,NaN,-0.02404646,0.8174281,-1.364496E-07,1.048671,8.931815E-09,1.393887
614.0173,-1.478944,0.0005135235,NaN,-0.3255845,0.000395492,NaN,0.5236801,-14.33881,NaN,-2.040138,-1.476231,-0.3411476,14.12142,NaN,NaN,-0.02404646,0.8174281,-1.364496E-07,1.048671,8.931815E-09,1.393887
614.0315,-1.480957,0.0005137827,NaN,-0.325596,0.000396223,NaN,0.5228069,-14.33772,NaN,-2.042437,-1.464514,-0.3413872,14.10881,NaN,NaN,-0.02396673,0.8183374,-1.269129E-07,1.031521,8.931815E-09,1.385057
614.047,-1.482391,0.0005143826,NaN,-0.3256076,0.0003964661,NaN,0.5219039,-14.33921,NaN,-2.044792,-1.472353,-0.3416556,14.11738,NaN,NaN,-0.02388861,0.817085,-1.191643E-07,1.043048,6.54763E-09,1.395846
614.062,-1.483455,0.0005140014,NaN,-0.3256197,0.0003963356,NaN,0.5210216,-14.33811,NaN,-2.047108,-1.464421,-0.3419266,14.10879,NaN,NaN,-0.02381204,0.8180255,-1.137998E-07,1.03143,8.931815E-09,1.386678
614.0771,-1.483455,0.0005140014,NaN,-0.3256197,0.0003963356,NaN,0.5210216,-14.33811,NaN,-2.047108,-1.464421,-0.3419266,14.10879,NaN,NaN,-0.02381204,0.8180255,-1.137998E-07,1.03143,8.931815E-09,1.386678
614.0912,-1.483553,0.0005136008,NaN,-0.32563,0.0003963865,NaN,0.5200036,-14.3378,NaN,-2.049732,-1.46517,-0.3422136,14.10955,NaN,NaN,-0.02373684,0.8183631,-1.012829E-07,1.032517,1.370019E-08,1.384256
614.1066,-1.483045,0.0005133226,NaN,-0.3256398,0.0003967761,NaN,0.518963,-14.33827,NaN,-2.052397,-1.463571,-0.342528,14.10791,NaN,NaN,-0.02366316,0.8178622,-9.174612E-08,1.0302,1.1316E-08,1.387737
614.1213,-1.482157,0.0005138426,NaN,-0.3256495,0.0003969029,NaN,0.517951,-14.33977,NaN,-2.055004,-1.472941,-0.3428427,14.11811,NaN,NaN,-0.02359095,0.8166488,-8.220938E-08,1.043963,1.370019E-08,1.400344
614.1373,-1.482157,0.0005138426,NaN,-0.3256495,0.0003969029,NaN,0.517951,-14.33977,NaN,-2.055004,-1.472941,-0.3428427,14.11811,NaN,NaN,-0.02359095,0.8166488,-8.220938E-08,1.043963,1.370019E-08,1.400344
614.1503,-1.481035,0.000514019,NaN,-0.3256592,0.0003960363,NaN,0.5169796,-14.33843,NaN,-2.057526,-1.479636,-0.3431469,14.12508,NaN,NaN,-0.02352016,0.8181098,-7.446078E-08,1.053708,1.370019E-08,1.390315
614.1659,-1.47904,0.000514592,NaN,-0.3256667,0.0003960844,NaN,0.5158772,-14.33818,NaN,-2.060342,-1.474591,-0.3434595,14.11965,NaN,NaN,-0.02345061,0.8182955,-6.31359E-08,1.046319,2.085274E-08,1.390222
614.1805,-1.476506,0.0005147628,NaN,-0.325673,0.0003962284,NaN,0.5147507,-14.33787,NaN,-2.063194,-1.469343,-0.3437995,14.114,NaN,NaN,-0.02338246,0.8185084,-5.002288E-08,1.038629,2.323693E-08,1.384955
614.1955,-1.476506,0.0005147628,NaN,-0.325673,0.0003962284,NaN,0.5147507,-14.33787,NaN,-2.063194,-1.469343,-0.3437995,14.114,NaN,NaN,-0.02338246,0.8185084,-5.002288E-08,1.038629,2.323693E-08,1.384955
614.2094,-1.473643,0.0005144773,NaN,-0.3256784,0.0003964797,NaN,0.5136516,-14.3377,NaN,-2.065986,-1.464048,-0.3441406,14.10832,NaN,NaN,-0.02331568,0.8185596,-3.810195E-08,1.030873,2.085274E-08,1.379093
614.225,-1.470585,0.0005138663,NaN,-0.3256834,0.0003966487,NaN,0.5125932,-14.33749,NaN,-2.068691,-1.463165,-0.3444715,14.10734,NaN,NaN,-0.02325021,0.8187465,-2.558497E-08,1.029568,1.846856E-08,1.377195
614.2399,-1.470585,0.0005138663,NaN,-0.3256834,0.0003966487,NaN,0.5125932,-14.33749,NaN,-2.068691,-1.463165,-0.3444715,14.10734,NaN,NaN,-0.02325021,0.8187465,-2.558497E-08,1.029568,1.846856E-08,1.377195
614.254,-1.466689,0.0005136401,NaN,-0.3256857,0.0003962322,NaN,0.5114044,-14.3391,NaN,-2.071686,-1.474578,-0.3448069,14.11975,NaN,NaN,-0.02318586,0.8174906,-1.3068E-08,1.046335,2.562112E-08,1.390967
614.2696,-1.462282,0.0005138827,NaN,-0.325687,0.0003971833,NaN,0.5101913,-14.33796,NaN,-2.074713,-1.463575,-0.3451707,14.10787,NaN,NaN,-0.02312282,0.8184335,3.025254E-09,1.030219,2.323693E-08,1.382275
614.2844,-1.457572,0.0005146643,NaN,-0.3256878,0.0003971493,NaN,0.5090067,-14.33817,NaN,-2.077674,-1.476466,-0.3455361,14.12166,NaN,NaN,-0.02306104,0.8186029,1.494618E-08,1.049083,2.085275E-08,1.385795
614.2993,-1.457572,0.0005146643,NaN,-0.3256878,0.0003971493,NaN,0.5090067,-14.33817,NaN,-2.077674,-1.476466,-0.3455361,14.12166,NaN,NaN,-0.02306104,0.8186029,1.494618E-08,1.049083,2.085275E-08,1.385795
614.3142,-1.451962,0.000514982,NaN,-0.3256871,0.000397862,NaN,0.5076946,-14.33869,NaN,-2.080922,-1.464272,-0.3459058,14.10868,NaN,NaN,-0.02300029,0.8178957,3.223153E-08,1.031248,2.323693E-08,1.385309
614.329,-1.445811,0.0005154918,NaN,-0.3256853,0.0003976043,NaN,0.5063642,-14.33921,NaN,-2.084187,-1.477465,-0.346303,14.12282,NaN,NaN,-0.02294078,0.817755,4.892082E-08,1.050554,2.323693E-08,1.392379
614.3438,-1.439344,0.0005155827,NaN,-0.3256827,0.0003979372,NaN,0.505069,-14.33861,NaN,-2.087372,-1.46621,-0.3467,14.11074,NaN,NaN,-0.02288247,0.8181752,6.441803E-08,1.034081,2.323693E-08,1.385625
614.3597,-1.439344,0.0005155827,NaN,-0.3256827,0.0003979372,NaN,0.505069,-14.33861,NaN,-2.087372,-1.46621,-0.3467,14.11074,NaN,NaN,-0.02288247,0.8181752,6.441803E-08,1.034081,2.323693E-08,1.385625
614.3738,-1.432706,0.0005156075,NaN,-0.3256795,0.0003984378,NaN,0.5038227,-14.33885,NaN,-2.090449,-1.463893,-0.3470842,14.10829,NaN,NaN,-0.02282531,0.8178818,7.693501E-08,1.030698,1.608437E-08,1.387259
614.3895,-1.42526,0.0005152504,NaN,-0.3256736,0.0003982583,NaN,0.5024537,-14.33877,NaN,-2.093798,-1.468958,-0.3474634,14.11367,NaN,NaN,-0.02276907,0.8181072,9.541245E-08,1.038096,1.846856E-08,1.384932
614.4028,-1.417337,0.0005155083,NaN,-0.3256655,0.0003984472,NaN,0.5010639,-14.34035,NaN,-2.097162,-1.470726,-0.3478702,14.11575,NaN,NaN,-0.02271397,0.8165731,1.126978E-07,1.040734,1.846856E-08,1.395906
614.4175,-1.417337,0.0005155083,NaN,-0.3256655,0.0003984472,NaN,0.5010639,-14.34035,NaN,-2.097162,-1.470726,-0.3478702,14.11575,NaN,NaN,-0.02271397,0.8165731,1.126978E-07,1.040734,1.846856E-08,1.395906
614.4315,-1.409146,0.0005154277,NaN,-0.325656,0.0003988147,NaN,0.499707,-14.33886,NaN,-2.100444,-1.464654,-0.3482781,14.1091,NaN,NaN,-0.02265998,0.8179216,1.293871E-07,1.031819,1.608437E-08,1.384032
614.4471,-1.400822,0.0005150345,NaN,-0.3256455,0.0003985413,NaN,0.4983982,-14.33916,NaN,-2.103617,-1.470173,-0.348674,14.11502,NaN,NaN,-0.02260706,0.8177836,1.472685E-07,1.039898,1.608437E-08,1.385991
614.4622,-1.391721,0.0005152531,NaN,-0.325632,0.0003993152,NaN,0.4969668,-14.33902,NaN,-2.107063,-1.464554,-0.3490606,14.109,NaN,NaN,-0.02255495,0.8177903,1.687261E-07,1.031676,2.085275E-08,1.387153
614.4767,-1.391721,0.0005152531,NaN,-0.325632,0.0003993152,NaN,0.4969668,-14.33902,NaN,-2.107063,-1.464554,-0.3490606,14.109,NaN,NaN,-0.02255495,0.8177903,1.687261E-07,1.031676,2.085275E-08,1.387153
614.491,-1.382168,0.0005149716,NaN,-0.3256161,0.0003995913,NaN,0.495513,-14.33872,NaN,-2.11052,-1.464248,-0.3494757,14.10863,NaN,NaN,-0.02250392,0.8180885,1.877996E-07,1.031215,1.608437E-08,1.380646
614.5063,-1.372372,0.0005149877,NaN,-0.3255984,0.000399098,NaN,0.4940922,-14.34002,NaN,-2.113892,-1.476539,-0.349893,14.12192,NaN,NaN,-0.02245391,0.8171398,2.05681E-07,1.04924,1.608437E-08,1.393387
614.5215,-1.362463,0.000514416,NaN,-0.3255796,0.0003987494,NaN,0.4927206,-14.33897,NaN,-2.117152,-1.466271,-0.3502986,14.11085,NaN,NaN,-0.02240489,0.8180275,2.241585E-07,1.034212,1.1316E-08,1.384103
614.5364,-1.362463,0.000514416,NaN,-0.3255796,0.0003987494,NaN,0.4927206,-14.33897,NaN,-2.117152,-1.466271,-0.3502986,14.11085,NaN,NaN,-0.02240489,0.8180275,2.241585E-07,1.034212,1.1316E-08,1.384103
614.5504,-1.351798,0.000514058,NaN,-0.3255576,0.0003990516,NaN,0.4912285,-14.33928,NaN,-2.120681,-1.464047,-0.3506896,14.10851,NaN,NaN,-0.02235659,0.8176612,2.474043E-07,1.030967,1.1316E-08,1.384009
614.5662,-1.3407,0.0005137787,NaN,-0.3255332,0.0003984472,NaN,0.4897134,-14.34067,NaN,-2.124216,-1.475899,-0.3511099,14.12133,NaN,NaN,-0.02230928,0.8166201,2.69458E-07,1.048346,1.1316E-08,1.395518
614.5807,-1.329378,0.0005139698,NaN,-0.3255068,0.000398863,NaN,0.488232,-14.33912,NaN,-2.127662,-1.468486,-0.3515331,14.11326,NaN,NaN,-0.02226293,0.818041,2.903196E-07,1.037479,1.1316E-08,1.383571
614.5969,-1.329378,0.0005139698,NaN,-0.3255068,0.000398863,NaN,0.488232,-14.33912,NaN,-2.127662,-1.468486,-0.3515331,14.11326,NaN,NaN,-0.02226293,0.818041,2.903196E-07,1.037479,1.1316E-08,1.383571
614.6099,-1.317233,0.0005143285,NaN,-0.3254767,0.0003987,NaN,0.4866321,-14.3405,NaN,-2.131372,-1.475853,-0.351942,14.12129,NaN,NaN,-0.02221724,0.8168443,3.153536E-07,1.048299,1.1316E-08,1.394839
614.6253,-1.304621,0.0005141951,NaN,-0.3254435,0.0003988148,NaN,0.4850143,-14.33914,NaN,-2.135077,-1.466328,-0.35238,14.11098,NaN,NaN,-0.02217249,0.8180362,3.385994E-07,1.034348,8.931817E-09,1.383828
614.64,-1.291769,0.0005143302,NaN,-0.3254078,0.0003994314,NaN,0.4834363,-14.33975,NaN,-2.138678,-1.464033,-0.3528201,14.1086,NaN,NaN,-0.02212865,0.817364,3.624412E-07,1.031009,4.163446E-09,1.38803
614.6549,-1.291769,0.0005143302,NaN,-0.3254078,0.0003994314,NaN,0.4834363,-14.33975,NaN,-2.138678,-1.464033,-0.3528201,14.1086,NaN,NaN,-0.02212865,0.817364,3.624412E-07,1.031009,4.163446E-09,1.38803
614.6689,-1.27882,0.0005144145,NaN,-0.3253706,0.0003997203,NaN,0.4819146,-14.34059,NaN,-2.142148,-1.466729,-0.353247,14.11158,NaN,NaN,-0.02208568,0.8165969,3.844949E-07,1.034978,1.77926E-09,1.391638
614.6846,-1.265135,0.0005146005,NaN,-0.32533,0.0004000236,NaN,0.4802805,-14.34083,NaN,-2.145872,-1.467784,-0.3536484,14.11272,NaN,NaN,-0.02204327,0.8163775,4.10721E-07,1.036522,-2.989112E-09,1.394419
614.6993,-1.265135,0.0005146005,NaN,-0.32533,0.0004000236,NaN,0.4802805,-14.34083,NaN,-2.145872,-1.467784,-0.3536484,14.11272,NaN,NaN,-0.02204327,0.8163775,4.10721E-07,1.036522,-2.989112E-09,1.394419
614.7136,-1.251045,0.0005150052,NaN,-0.3252865,0.0003995499,NaN,0.4786252,-14.34046,NaN,-2.14959,-1.478838,-0.3540784,14.12442,NaN,NaN,-0.02200174,0.8170099,4.36947E-07,1.052642,-6.049259E-10,1.39594
614.7291,-1.236759,0.0005152375,NaN,-0.3252408,0.0004001758,NaN,0.4770061,-14.33961,NaN,-2.153204,-1.465182,-0.3545124,14.10977,NaN,NaN,-0.02196106,0.8176751,4.613849E-07,1.03267,-5.373297E-09,1.387061
614.7441,-1.222409,0.0005148437,NaN,-0.3251937,0.0004003693,NaN,0.4754415,-14.3397,NaN,-2.15669,-1.463831,-0.3549346,14.10833,NaN,NaN,-0.02192118,0.8175426,4.834387E-07,1.030694,-5.373297E-09,1.386068
614.7592,-1.222409,0.0005148437,NaN,-0.3251937,0.0004003693,NaN,0.4754415,-14.3397,NaN,-2.15669,-1.463831,-0.3549346,14.10833,NaN,NaN,-0.02192118,0.8175426,4.834387E-07,1.030694,-5.373297E-09,1.386068
614.7733,-1.207352,0.0005141564,NaN,-0.3251436,0.0004004747,NaN,0.4737646,-14.33975,NaN,-2.160429,-1.463012,-0.3553267,14.10746,NaN,NaN,-0.02188178,0.817468,5.114529E-07,1.029494,-5.373297E-09,1.385636
614.7889,-1.191913,0.0005141398,NaN,-0.3250906,0.00040042,NaN,0.472064,-14.34135,NaN,-2.164162,-1.471751,-0.3557486,14.11698,NaN,NaN,-0.02184319,0.8161377,5.382749E-07,1.042328,-7.757484E-09,1.398765
614.8036,-1.176297,0.0005141854,NaN,-0.3250354,0.0004009039,NaN,0.4703985,-14.33977,NaN,-2.167791,-1.464875,-0.3561761,14.10947,NaN,NaN,-0.02180541,0.8175614,5.627128E-07,1.032243,-2.989112E-09,1.386806
614.8196,-1.176297,0.0005141854,NaN,-0.3250354,0.0004009039,NaN,0.4703985,-14.33977,NaN,-2.167791,-1.464875,-0.3561761,14.10947,NaN,NaN,-0.02180541,0.8175614,5.627128E-07,1.032243,-2.989112E-09,1.386806
614.8329,-1.159908,0.0005144618,NaN,-0.3249765,0.0004007688,NaN,0.4686211,-14.34126,NaN,-2.171672,-1.474392,-0.3565755,14.11981,NaN,NaN,-0.02176804,0.8163484,5.943033E-07,1.046208,-2.989112E-09,1.398877
614.8494,-1.143102,0.0005148358,NaN,-0.3249141,0.0004001866,NaN,0.4668241,-14.34117,NaN,-2.175535,-1.478807,-0.3570053,14.12449,NaN,NaN,-0.02173145,0.8165066,6.223175E-07,1.052649,-6.049263E-10,1.400584
614.863,-1.126103,0.0005151391,NaN,-0.3248489,0.0003998859,NaN,0.4650676,-14.33963,NaN,-2.17928,-1.473932,-0.3574405,14.11912,NaN,NaN,-0.02169562,0.8179788,6.497356E-07,1.045495,-6.049263E-10,1.389306
614.8778,-1.126103,0.0005151391,NaN,-0.3248489,0.0003998859,NaN,0.4650676,-14.33963,NaN,-2.17928,-1.473932,-0.3574405,14.11912,NaN,NaN,-0.02169562,0.8179788,6.497356E-07,1.045495,-6.049263E-10,1.389306
614.892,-1.109054,0.0005151472,NaN,-0.324782,0.0004000315,NaN,0.4633714,-14.33964,NaN,-2.182882,-1.466585,-0.357864,14.11128,NaN,NaN,-0.02166052,0.8178335,6.765577E-07,1.034749,1.779259E-09,1.388931
614.9075,-1.091317,0.0005148203,NaN,-0.324712,0.0004002527,NaN,0.4615594,-14.33976,NaN,-2.186422,-1.463808,-0.3582721,14.10833,NaN,NaN,-0.02162541,0.8176403,7.141086E-07,1.030692,4.163445E-09,1.388548
614.9224,-1.073221,0.0005142819,NaN,-0.3246389,0.0004005147,NaN,0.4596794,-14.34009,NaN,-2.188523,-1.46287,-0.3588129,14.10736,NaN,NaN,-0.02158972,0.8172902,7.790777E-07,1.029332,4.163445E-09,1.388704
614.9371,-1.073221,0.0005142819,NaN,-0.3246389,0.0004005147,NaN,0.4596794,-14.34009,NaN,-2.188523,-1.46287,-0.3588129,14.10736,NaN,NaN,-0.02158972,0.8172902,7.790777E-07,1.029332,4.163445E-09,1.388704
614.9513,-1.054976,0.0005138698,NaN,-0.3245635,0.0004009145,NaN,0.4578241,-14.34077,NaN,-2.189093,-1.46295,-0.3594086,14.10754,NaN,NaN,-0.02155443,0.8166144,8.440468E-07,1.029476,1.779259E-09,1.392893
614.9669,-1.036713,0.0005134059,NaN,-0.3244868,0.0004013087,NaN,0.4560393,-14.34089,NaN,-2.188671,-1.462453,-0.3599869,14.10702,NaN,NaN,-0.02152014,0.8164783,9.060356E-07,1.028753,-2.989112E-09,1.394001
614.9821,-1.017787,0.0005136178,NaN,-0.3244073,0.0004009992,NaN,0.45417,-14.34165,NaN,-2.188277,-1.476146,-0.3604929,14.12168,NaN,NaN,-0.02148665,0.8161333,9.644482E-07,1.048773,-2.989112E-09,1.402104
614.9968,-1.017787,0.0005136178,NaN,-0.3244073,0.0004009992,NaN,0.45417,-14.34165,NaN,-2.188277,-1.476146,-0.3604929,14.12168,NaN,NaN,-0.02148665,0.8161333,9.644482E-07,1.048773,-2.989112E-09,1.402104
615.011,-0.9985234,0.0005138149,NaN,-0.3243251,0.0004017746,NaN,0.4522885,-14.34104,NaN,-2.187938,-1.463362,-0.3610121,14.10801,NaN,NaN,-0.02145415,0.8165389,1.01392E-06,1.030095,-5.373298E-09,1.395884
615.0287,-0.9791281,0.0005137092,NaN,-0.3242407,0.0004017737,NaN,0.4504522,-14.34103,NaN,-2.187672,-1.469445,-0.361533,14.11447,NaN,NaN,-0.02142253,0.8167303,1.056239E-06,1.038973,-2.989112E-09,1.393072
615.0426,-0.9597312,0.000514033,NaN,-0.3241552,0.0004013045,NaN,0.4486826,-14.34164,NaN,-2.187479,-1.477869,-0.3620432,14.12351,NaN,NaN,-0.02139167,0.8163035,1.097367E-06,1.051293,-2.989112E-09,1.399595
615.0563,-0.9597312,0.000514033,NaN,-0.3241552,0.0004013045,NaN,0.4486826,-14.34164,NaN,-2.187479,-1.477869,-0.3620432,14.12351,NaN,NaN,-0.02139167,0.8163035,1.097367E-06,1.051293,-2.989112E-09,1.399595
615.0704,-0.9396864,0.0005136327,NaN,-0.3240672,0.0004009338,NaN,0.446817,-14.34042,NaN,-2.187733,-1.466897,-0.3625167,14.1117,NaN,NaN,-0.02136113,0.8173596,1.143262E-06,1.035246,1.779259E-09,1.38865
615.0859,-0.9193182,0.0005139838,NaN,-0.3239765,0.0004001361,NaN,0.4449317,-14.34118,NaN,-2.187997,-1.479315,-0.3630359,14.12502,NaN,NaN,-0.02133113,0.8169231,1.188562E-06,1.053416,1.1316E-08,1.397562
615.1008,-0.8988317,0.0005141074,NaN,-0.3238837,0.0004001636,NaN,0.4430895,-14.34035,NaN,-2.18809,-1.467441,-0.363576,14.11228,NaN,NaN,-0.02130173,0.8176121,1.234457E-06,1.036051,8.931817E-09,1.389539
615.1157,-0.8988317,0.0005141074,NaN,-0.3238837,0.0004001636,NaN,0.4430895,-14.34035,NaN,-2.18809,-1.467441,-0.363576,14.11228,NaN,NaN,-0.02130173,0.8176121,1.234457E-06,1.036051,8.931817E-09,1.389539
615.1299,-0.8776288,0.0005139781,NaN,-0.3237876,0.0003997673,NaN,0.4411504,-14.34123,NaN,-2.188395,-1.471655,-0.3640903,14.11687,NaN,NaN,-0.0212726,0.8168557,1.282141E-06,1.042238,8.931817E-09,1.392566
615.1454,-0.8560641,0.0005143218,NaN,-0.3236879,0.0004003788,NaN,0.4391999,-14.34124,NaN,-2.188572,-1.466512,-0.3646472,14.11139,NaN,NaN,-0.02124404,0.8167566,1.326248E-06,1.034724,1.1316E-08,1.397496
615.1605,-0.834362,0.0005146225,NaN,-0.3235855,0.0004010003,NaN,0.4373018,-14.34199,NaN,-2.188538,-1.465181,-0.3652176,14.11006,NaN,NaN,-0.02121613,0.8159848,1.372144E-06,1.032805,8.931817E-09,1.400238
615.1754,-0.834362,0.0005146225,NaN,-0.3235855,0.0004010003,NaN,0.4373018,-14.34199,NaN,-2.188538,-1.465181,-0.3652176,14.11006,NaN,NaN,-0.02121613,0.8159848,1.372144E-06,1.032805,8.931817E-09,1.400238
615.1895,-0.8126642,0.0005156191,NaN,-0.3234815,0.0004010407,NaN,0.4354798,-14.34247,NaN,-2.18835,-1.477208,-0.3657762,14.1229,NaN,NaN,-0.0211889,0.8158426,1.413867E-06,1.050369,4.163446E-09,1.406129
615.2051,-0.7903323,0.0005163099,NaN,-0.323375,0.0004014919,NaN,0.4335707,-14.34337,NaN,-2.188497,-1.470775,-0.3662929,14.11615,NaN,NaN,-0.02116199,0.8148593,1.456783E-06,1.040996,1.77926E-09,1.409723
615.22,-0.7903323,0.0005163099,NaN,-0.323375,0.0004014919,NaN,0.4335707,-14.34337,NaN,-2.188497,-1.470775,-0.3662929,14.11615,NaN,NaN,-0.02116199,0.8148593,1.456783E-06,1.040996,1.77926E-09,1.409723
615.2341,-0.7676949,0.0005166036,NaN,-0.3232656,0.0004020742,NaN,0.43165,-14.3423,NaN,-2.188636,-1.46516,-0.3668469,14.11005,NaN,NaN,-0.02113562,0.8158187,1.500294E-06,1.032775,-6.049259E-10,1.400756
615.2506,-0.7449602,0.0005167847,NaN,-0.323154,0.0004026564,NaN,0.4297781,-14.34283,NaN,-2.188637,-1.463978,-0.3674153,14.10886,NaN,NaN,-0.02110984,0.815263,1.541421E-06,1.031069,6.547631E-09,1.40495
615.2645,-0.7222593,0.0005173009,NaN,-0.3230415,0.0004024279,NaN,0.4279788,-14.3433,NaN,-2.188507,-1.476572,-0.3679751,14.12228,NaN,NaN,-0.02108465,0.8151554,1.580164E-06,1.049445,1.1316E-08,1.410405
615.2794,-0.7222593,0.0005173009,NaN,-0.3230415,0.0004024279,NaN,0.4279788,-14.3433,NaN,-2.188507,-1.476572,-0.3679751,14.12228,NaN,NaN,-0.02108465,0.8151554,1.580164E-06,1.049445,1.1316E-08,1.410405
615.2936,-0.6989471,0.0005176515,NaN,-0.322927,0.0004030457,NaN,0.4260895,-14.3426,NaN,-2.188703,-1.466425,-0.3684977,14.11142,NaN,NaN,-0.02105972,0.8157079,1.623079E-06,1.03463,8.931817E-09,1.404652
615.3091,-0.675348,0.0005177393,NaN,-0.32281,0.0004034792,NaN,0.4241876,-14.34275,NaN,-2.188868,-1.464839,-0.3690591,14.10975,NaN,NaN,-0.02103526,0.815518,1.664207E-06,1.032321,4.163446E-09,1.403132
615.3252,-0.6516672,0.0005182458,NaN,-0.3226911,0.000403631,NaN,0.4223343,-14.34406,NaN,-2.188874,-1.472135,-0.369635,14.11767,NaN,NaN,-0.02101135,0.8144215,1.705334E-06,1.04301,4.163446E-09,1.414557
615.3389,-0.6516672,0.0005182458,NaN,-0.3226911,0.000403631,NaN,0.4223343,-14.34406,NaN,-2.188874,-1.472135,-0.369635,14.11767,NaN,NaN,-0.02101135,0.8144215,1.705334E-06,1.04301,4.163446E-09,1.414557
615.353,-0.6274785,0.0005180895,NaN,-0.3225698,0.0004037532,NaN,0.4204268,-14.34225,NaN,-2.189036,-1.464525,-0.370189,14.10938,NaN,NaN,-0.02098772,0.8160756,1.748249E-06,1.031871,4.163446E-09,1.398005
615.3687,-0.6030717,0.0005172619,NaN,-0.3224461,0.0004031525,NaN,0.4185317,-14.34272,NaN,-2.189108,-1.468371,-0.370769,14.11352,NaN,NaN,-0.0209646,0.815717,1.790867E-06,1.037499,1.77926E-09,1.402033
615.3837,-0.5786297,0.0005168582,NaN,-0.3223208,0.0004033399,NaN,0.416696,-14.34225,NaN,-2.18903,-1.465663,-0.3713526,14.11058,NaN,NaN,-0.02094202,0.8161173,1.83259E-06,1.03353,1.77926E-09,1.398049
615.3985,-0.5786297,0.0005168582,NaN,-0.3223208,0.0004033399,NaN,0.416696,-14.34225,NaN,-2.18903,-1.465663,-0.3713526,14.11058,NaN,NaN,-0.02094202,0.8161173,1.83259E-06,1.03353,1.77926E-09,1.398049
615.413,-0.5542679,0.0005167067,NaN,-0.3221952,0.0004026915,NaN,0.4149359,-14.3431,NaN,-2.188848,-1.47712,-0.3719217,14.12287,NaN,NaN,-0.02092001,0.8155842,1.867161E-06,1.05028,6.547631E-09,1.407392
615.4285,-0.5300585,0.0005165333,NaN,-0.3220706,0.0004028667,NaN,0.4132519,-14.34209,NaN,-2.18863,-1.466123,-0.372469,14.11107,NaN,NaN,-0.02089857,0.8164248,1.900241E-06,1.034213,6.547631E-09,1.398505
615.4434,-0.5060462,0.0005161347,NaN,-0.3219482,0.0004031228,NaN,0.4116382,-14.34221,NaN,-2.188432,-1.463844,-0.3729943,14.10865,NaN,NaN,-0.02087768,0.8162408,1.931236E-06,1.030887,8.931817E-09,1.398681
615.4595,-0.5060462,0.0005161347,NaN,-0.3219482,0.0004031228,NaN,0.4116382,-14.34221,NaN,-2.188432,-1.463844,-0.3729943,14.10865,NaN,NaN,-0.02087768,0.8162408,1.931236E-06,1.030887,8.931817E-09,1.398681
615.4739,-0.4822586,0.000516067,NaN,-0.3218287,0.0004025971,NaN,0.4100882,-14.34323,NaN,-2.188275,-1.476258,-0.3735002,14.12198,NaN,NaN,-0.02085729,0.815587,1.957164E-06,1.049043,6.547631E-09,1.407344
615.4881,-0.4587118,0.0005160569,NaN,-0.3217129,0.0004030353,NaN,0.4085964,-14.34212,NaN,-2.188159,-1.465314,-0.3739899,14.11022,NaN,NaN,-0.02083737,0.8165163,1.983986E-06,1.033049,1.1316E-08,1.398763
615.5029,-0.4354152,0.0005165988,NaN,-0.3216013,0.0004039741,NaN,0.4071584,-14.34283,NaN,-2.18807,-1.464714,-0.3744658,14.10966,NaN,NaN,-0.0208179,0.815798,2.006338E-06,1.032196,1.846856E-08,1.405497
615.5177,-0.4354152,0.0005165988,NaN,-0.3216013,0.0004039741,NaN,0.4071584,-14.34283,NaN,-2.18807,-1.464714,-0.3744658,14.10966,NaN,NaN,-0.0208179,0.815798,2.006338E-06,1.032196,1.846856E-08,1.405497
615.532,-0.4123736,0.0005169982,NaN,-0.321494,0.0004037587,NaN,0.4057712,-14.34379,NaN,-2.187993,-1.476468,-0.3749292,14.12227,NaN,NaN,-0.02079886,0.8151608,2.029881E-06,1.049378,1.608437E-08,1.409894
615.5475,-0.3895889,0.0005174487,NaN,-0.3213914,0.0004038525,NaN,0.4044324,-14.34449,NaN,-2.187918,-1.47298,-0.3753807,14.11864,NaN,NaN,-0.02078023,0.8144078,2.050445E-06,1.044302,1.846856E-08,1.412216
615.5627,-0.3670614,0.0005176945,NaN,-0.3212935,0.0004042662,NaN,0.4031402,-14.34384,NaN,-2.18784,-1.467061,-0.3758206,14.11228,NaN,NaN,-0.02076202,0.8149391,2.072201E-06,1.035656,1.846856E-08,1.406511
615.5776,-0.3670614,0.0005176945,NaN,-0.3212935,0.0004042662,NaN,0.4031402,-14.34384,NaN,-2.18784,-1.467061,-0.3758206,14.11228,NaN,NaN,-0.02076202,0.8149391,2.072201E-06,1.035656,1.846856E-08,1.406511
615.5918,-0.34479,0.0005182156,NaN,-0.3212003,0.0004045172,NaN,0.4018931,-14.34431,NaN,-2.187759,-1.471423,-0.376249,14.11695,NaN,NaN,-0.02074422,0.8145753,2.089486E-06,1.042027,2.323693E-08,1.410684
615.6075,-0.3227729,0.0005184776,NaN,-0.3211117,0.0004050054,NaN,0.4006897,-14.34286,NaN,-2.187677,-1.466051,-0.3766658,14.11108,NaN,NaN,-0.02072682,0.8159062,2.105431E-06,1.034153,2.323693E-08,1.400392
615.6226,-0.3010082,0.0005188314,NaN,-0.3210278,0.0004047761,NaN,0.3995289,-14.34401,NaN,-2.187594,-1.475898,-0.3770713,14.12169,NaN,NaN,-0.02070982,0.8150195,2.121822E-06,1.048563,2.323693E-08,1.4108
615.6378,-0.3010082,0.0005188314,NaN,-0.3210278,0.0004047761,NaN,0.3995289,-14.34401,NaN,-2.187594,-1.475898,-0.3770713,14.12169,NaN,NaN,-0.02070982,0.8150195,2.121822E-06,1.048563,2.323693E-08,1.4108
615.6516,-0.2858671,0.0005191125,NaN,-0.320969,0.0004054331,NaN,0.3998708,-14.34324,NaN,-2.184036,-1.465259,-0.3775647,14.1103,NaN,NaN,-0.02069641,0.815612,2.080695E-06,1.033031,1.846856E-08,1.403491
615.6682,-0.274956,0.0005190936,NaN,-0.3209439,0.0004057373,NaN,0.4009784,-14.34275,NaN,-2.180722,-1.465665,-0.377508,14.11066,NaN,NaN,-0.02068448,0.8161055,2.011107E-06,1.0336,1.846856E-08,1.400854
615.6821,-0.2667525,0.000519231,NaN,-0.3209461,0.0004060842,NaN,0.4022388,-14.34365,NaN,-2.178639,-1.466924,-0.3771836,14.11211,NaN,NaN,-0.02067264,0.8152342,1.943455E-06,1.035471,1.846856E-08,1.406092
615.697,-0.2667525,0.000519231,NaN,-0.3209461,0.0004060842,NaN,0.4022388,-14.34365,NaN,-2.178639,-1.466924,-0.3771836,14.11211,NaN,NaN,-0.02067264,0.8152342,1.943455E-06,1.035471,1.846856E-08,1.406092
615.7111,-0.2602874,0.0005191323,NaN,-0.3209664,0.0004064109,NaN,0.4033892,-14.34335,NaN,-2.177387,-1.464731,-0.3768367,14.10974,NaN,NaN,-0.02066027,0.8154679,1.888619E-06,1.032262,1.846856E-08,1.402538
615.7268,-0.2549435,0.0005192847,NaN,-0.3209996,0.0004070653,NaN,0.404388,-14.34387,NaN,-2.17669,-1.463429,-0.3765315,14.10842,NaN,NaN,-0.02064781,0.8149147,1.841382E-06,1.030383,1.608438E-08,1.408237
615.7416,-0.2503274,0.0005195264,NaN,-0.3210416,0.0004067998,NaN,0.4052566,-14.34484,NaN,-2.176358,-1.47559,-0.3762746,14.12144,NaN,NaN,-0.02063542,0.8142902,1.797871E-06,1.048144,1.608438E-08,1.414195
615.7566,-0.2503274,0.0005195264,NaN,-0.3210416,0.0004067998,NaN,0.4052566,-14.34484,NaN,-2.176358,-1.47559,-0.3762746,14.12144,NaN,NaN,-0.02063542,0.8142902,1.797871E-06,1.048144,1.608438E-08,1.414195
615.7708,-0.2461888,0.0005199499,NaN,-0.3210892,0.0004070137,NaN,0.4060276,-14.34547,NaN,-2.17626,-1.471708,-0.3760571,14.11739,NaN,NaN,-0.02062319,0.8136001,1.75734E-06,1.042501,1.608438E-08,1.416745
615.7867,-0.2423679,0.000520318,NaN,-0.3211403,0.0004077297,NaN,0.4067291,-14.34368,NaN,-2.176311,-1.465221,-0.3758684,14.11031,NaN,NaN,-0.02061115,0.8152427,1.720683E-06,1.033005,1.846856E-08,1.405063
615.8028,-0.238801,0.0005205413,NaN,-0.3337981,0.0004083169,NaN,0.406442,-14.34397,NaN,-2.179558,-1.464259,-0.3795354,14.10932,NaN,NaN,-0.02060815,0.8149315,1.563178E-06,1.031612,2.085275E-08,1.406122
615.8164,-0.238801,0.0005205413,NaN,-0.3337981,0.0004083169,NaN,0.406442,-14.34397,NaN,-2.179558,-1.464259,-0.3795354,14.10932,NaN,NaN,-0.02060815,0.8149315,1.563178E-06,1.031612,2.085275E-08,1.406122
615.8307,-0.2354889,0.0005210487,NaN,-0.3540792,0.0004080744,NaN,0.4068548,-14.34396,NaN,-2.183632,-1.476474,-0.382944,14.12226,NaN,NaN,-0.02060383,0.8152811,1.435698E-06,1.049412,1.846856E-08,1.410284
615.8466,-0.2323889,0.0005210384,NaN,-0.3789252,0.0004082704,NaN,0.4076631,-14.34333,NaN,-2.187086,-1.465107,-0.385791,14.11012,NaN,NaN,-0.02059716,0.8157276,1.347483E-06,1.03282,1.846856E-08,1.400941
615.8614,-0.2294517,0.0005213945,NaN,-0.4064541,0.0004077117,NaN,0.4085603,-14.34426,NaN,-2.188725,-1.478437,-0.388303,14.12439,NaN,NaN,-0.02058826,0.8151531,1.306356E-06,1.052295,2.085275E-08,1.412222
615.8774,-0.2294517,0.0005213945,NaN,-0.4064541,0.0004077117,NaN,0.4085603,-14.34426,NaN,-2.188725,-1.478437,-0.388303,14.12439,NaN,NaN,-0.02058826,0.8151531,1.306356E-06,1.052295,2.085275E-08,1.412222
615.8917,-0.2266321,0.0005218526,NaN,-0.4347491,0.0004077587,NaN,0.409538,-14.34488,NaN,-2.18856,-1.472457,-0.390303,14.1181,NaN,NaN,-0.02057822,0.8144602,1.282291E-06,1.043581,1.846856E-08,1.41443
615.9061,-0.2238963,0.0005220278,NaN,-0.4633882,0.0004081253,NaN,0.4104793,-14.34321,NaN,-2.187541,-1.466693,-0.3920663,14.11178,NaN,NaN,-0.0205687,0.8160176,1.249508E-06,1.035133,2.085275E-08,1.403725
615.9209,-0.2212222,0.0005220569,NaN,-0.4921093,0.0004075501,NaN,0.4113853,-14.34437,NaN,-2.186451,-1.476474,-0.3936565,14.12232,NaN,NaN,-0.02055994,0.8151199,1.206593E-06,1.049447,2.085275E-08,1.410128
615.9359,-0.2212222,0.0005220569,NaN,-0.4921093,0.0004075501,NaN,0.4113853,-14.34437,NaN,-2.186451,-1.476474,-0.3936565,14.12232,NaN,NaN,-0.02055994,0.8151199,1.206593E-06,1.049447,2.085275E-08,1.410128
615.95,-0.2185924,0.0005216555,NaN,-0.5199884,0.000407221,NaN,0.4123161,-14.34314,NaN,-2.185505,-1.467644,-0.3948752,14.11281,NaN,NaN,-0.02055118,0.8162143,1.164125E-06,1.036543,2.204484E-08,1.400867
615.9656,-0.2159961,0.0005209043,NaN,-0.5472247,0.0004070731,NaN,0.4131585,-14.3434,NaN,-2.184985,-1.463469,-0.3960189,14.1084,NaN,NaN,-0.02054293,0.815855,1.117782E-06,1.030456,1.608438E-08,1.399387
615.9806,-0.2134283,0.0005199367,NaN,-0.5739422,0.0004067076,NaN,0.4139262,-14.34306,NaN,-2.184857,-1.465381,-0.3971445,14.11037,NaN,NaN,-0.02053497,0.8162564,1.073079E-06,1.033228,1.846856E-08,1.399237
615.9955,-0.2134283,0.0005199367,NaN,-0.5739422,0.0004067076,NaN,0.4139262,-14.34306,NaN,-2.184857,-1.465381,-0.3971445,14.11037,NaN,NaN,-0.02053497,0.8162564,1.073079E-06,1.033228,1.846856E-08,1.399237
616.0099,-0.2108866,0.0005184137,NaN,-0.6002186,0.0004059893,NaN,0.4146423,-14.34355,NaN,-2.184952,-1.46358,-0.3982607,14.10852,NaN,NaN,-0.02052711,0.815714,1.027183E-06,1.030619,1.370019E-08,1.401375
616.0256,-0.2083656,0.0005177042,NaN,-0.6253415,0.0004062459,NaN,0.4153862,-14.34389,NaN,-2.184914,-1.463461,-0.3991215,14.10843,NaN,NaN,-0.02051873,0.8153735,9.899302E-07,1.030458,1.489228E-08,1.40451
616.0405,-0.205863,0.0005170687,NaN,-0.6496424,0.0004065629,NaN,0.4160659,-14.34398,NaN,-2.184851,-1.46287,-0.3999696,14.10781,NaN,NaN,-0.02051058,0.8152639,9.529753E-07,1.029598,1.370019E-08,1.403354
616.0555,-0.205863,0.0005170687,NaN,-0.6496424,0.0004065629,NaN,0.4160659,-14.34398,NaN,-2.184851,-1.46287,-0.3999696,14.10781,NaN,NaN,-0.02051058,0.8152639,9.529753E-07,1.029598,1.370019E-08,1.403354
616.0695,-0.2033789,0.0005167568,NaN,-0.6733278,0.000405938,NaN,0.416705,-14.34467,NaN,-2.184808,-1.476357,-0.4008223,14.12222,NaN,NaN,-0.02050269,0.8149698,9.163185E-07,1.049289,1.489228E-08,1.410715
616.0862,-0.2009144,0.00051673,NaN,-0.6965267,0.0004065425,NaN,0.4173254,-14.34375,NaN,-2.18479,-1.464334,-0.4016659,14.10935,NaN,NaN,-0.020495,0.8156829,8.775755E-07,1.031737,1.489228E-08,1.403337
616.1001,-0.1984654,0.0005169582,NaN,-0.7185585,0.0004062587,NaN,0.4179976,-14.34474,NaN,-2.184591,-1.475584,-0.4022486,14.12142,NaN,NaN,-0.02048688,0.8150042,8.489653E-07,1.048183,1.727647E-08,1.41094
616.1152,-0.1984654,0.0005169582,NaN,-0.7185585,0.0004062587,NaN,0.4179976,-14.34474,NaN,-2.184591,-1.475584,-0.4022486,14.12142,NaN,NaN,-0.02048688,0.8150042,8.489653E-07,1.048183,1.727647E-08,1.41094
616.1292,-0.1960306,0.0005171541,NaN,-0.7397753,0.0004068924,NaN,0.4186197,-14.34391,NaN,-2.184409,-1.464756,-0.4028162,14.10983,NaN,NaN,-0.02047909,0.8156426,8.176729E-07,1.032373,1.370019E-08,1.404181
616.1448,-0.1936113,0.0005173817,NaN,-0.7603957,0.0004064435,NaN,0.419208,-14.3444,NaN,-2.184316,-1.476873,-0.4033912,14.12276,NaN,NaN,-0.0204716,0.8154752,7.80718E-07,1.050062,1.25081E-08,1.409246
616.1598,-0.1936113,0.0005173817,NaN,-0.7603957,0.0004064435,NaN,0.419208,-14.3444,NaN,-2.184316,-1.476873,-0.4033912,14.12276,NaN,NaN,-0.0204716,0.8154752,7.80718E-07,1.050062,1.25081E-08,1.409246
616.1741,-0.1912032,0.0005169089,NaN,-0.7797944,0.0004061146,NaN,0.4198394,-14.34313,NaN,-2.184109,-1.466261,-0.4037247,14.11134,NaN,NaN,-0.02046374,0.816565,7.532998E-07,1.034551,1.1316E-08,1.400123
616.1899,-0.1888054,0.0005164442,NaN,-0.7983578,0.0004061537,NaN,0.4204166,-14.34319,NaN,-2.183961,-1.464404,-0.40406,14.10936,NaN,NaN,-0.02045621,0.8164447,7.252856E-07,1.031842,1.012391E-08,1.39927
616.2047,-0.1864198,0.0005168335,NaN,-0.8163258,0.0004057307,NaN,0.420959,-14.34372,NaN,-2.183913,-1.477036,-0.4044167,14.12286,NaN,NaN,-0.02044896,0.8162603,6.960794E-07,1.050299,8.931819E-09,1.406363
616.2195,-0.1864198,0.0005168335,NaN,-0.8163258,0.0004057307,NaN,0.420959,-14.34372,NaN,-2.183913,-1.477036,-0.4044167,14.12286,NaN,NaN,-0.02044896,0.8162603,6.960794E-07,1.050299,8.931819E-09,1.406363
616.2339,-0.1840488,0.000516929,NaN,-0.8338473,0.0004056255,NaN,0.4214858,-14.34305,NaN,-2.183936,-1.469213,-0.4047831,14.11446,NaN,NaN,-0.02044187,0.8168004,6.644889E-07,1.038864,7.739726E-09,1.401269
616.2497,-0.181688,0.0005170849,NaN,-0.8502538,0.0004059694,NaN,0.4220656,-14.34294,NaN,-2.183789,-1.466847,-0.4049084,14.11193,NaN,NaN,-0.02043435,0.8168619,6.412431E-07,1.035404,8.931819E-09,1.400043
616.2661,-0.1793361,0.0005171633,NaN,-0.8659056,0.0004063761,NaN,0.4225965,-14.34378,NaN,-2.183651,-1.46506,-0.4050364,14.11013,NaN,NaN,-0.02042712,0.815984,6.150171E-07,1.032824,1.489228E-08,1.402103
616.2797,-0.1793361,0.0005171633,NaN,-0.8659056,0.0004063761,NaN,0.4225965,-14.34378,NaN,-2.183651,-1.46506,-0.4050364,14.11013,NaN,NaN,-0.02042712,0.815984,6.150171E-07,1.032824,1.489228E-08,1.402103
616.295,-0.1769949,0.0005171931,NaN,-0.8810255,0.0004068673,NaN,0.4230956,-14.34326,NaN,-2.183588,-1.46347,-0.4051875,14.10836,NaN,NaN,-0.02042017,0.8164562,5.905792E-07,1.030483,1.429624E-08,1.401069
616.3099,-0.174667,0.0005172542,NaN,-0.895752,0.0004074335,NaN,0.4235815,-14.34337,NaN,-2.183588,-1.462752,-0.4053506,14.10761,NaN,NaN,-0.0204134,0.8163211,5.61969E-07,1.029437,1.370019E-08,1.401913
616.3245,-0.1723476,0.0005174369,NaN,-0.9094093,0.0004077845,NaN,0.4241207,-14.34433,NaN,-2.183425,-1.466489,-0.4052768,14.11171,NaN,NaN,-0.02040621,0.8154758,5.417034E-07,1.034932,1.1316E-08,1.406876
616.3391,-0.1723476,0.0005174369,NaN,-0.9094093,0.0004077845,NaN,0.4241207,-14.34433,NaN,-2.183425,-1.466489,-0.4052768,14.11171,NaN,NaN,-0.02040621,0.8154758,5.417034E-07,1.034932,1.1316E-08,1.406876
616.3535,-0.170035,0.0005178318,NaN,-0.9223541,0.0004073896,NaN,0.4246108,-14.34323,NaN,-2.183283,-1.476916,-0.4052111,14.12263,NaN,NaN,-0.02039931,0.8168325,5.196497E-07,1.050096,1.191205E-08,1.404343
616.369,-0.1677312,0.0005180491,NaN,-0.9348062,0.0004076563,NaN,0.425069,-14.34282,NaN,-2.183222,-1.468199,-0.4051744,14.11329,NaN,NaN,-0.0203927,0.8171109,4.964039E-07,1.037353,1.25081E-08,1.400106
616.3841,-0.1654392,0.0005183496,NaN,-0.9469017,0.0004081926,NaN,0.425514,-14.34418,NaN,-2.183231,-1.466169,-0.4051557,14.1113,NaN,NaN,-0.02038626,0.8157057,4.743501E-07,1.034434,1.25081E-08,1.406861
616.3995,-0.1654392,0.0005183496,NaN,-0.9469017,0.0004081926,NaN,0.425514,-14.34418,NaN,-2.183231,-1.466169,-0.4051557,14.1113,NaN,NaN,-0.02038626,0.8157057,4.743501E-07,1.034434,1.25081E-08,1.406861
616.4135,-0.1631541,0.0005177667,NaN,-0.9579635,0.0004080518,NaN,0.4260123,-14.34233,NaN,-2.183077,-1.463838,-0.4049067,14.10858,NaN,NaN,-0.02037937,0.8174831,4.570648E-07,1.030964,1.071996E-08,1.395406
616.4291,-0.1608738,0.0005172973,NaN,-0.9683473,0.0004073024,NaN,0.4264612,-14.34398,NaN,-2.182941,-1.474472,-0.4046721,14.12013,NaN,NaN,-0.02037279,0.8161464,4.397795E-07,1.046572,9.527866E-09,1.408407
616.4442,-0.1586006,0.0005171819,NaN,-0.9782721,0.0004077632,NaN,0.4268784,-14.34306,NaN,-2.182887,-1.46454,-0.4044723,14.10946,NaN,NaN,-0.02036648,0.8168878,4.218981E-07,1.032051,5.951587E-09,1.40021
616.4592,-0.1586006,0.0005171819,NaN,-0.9782721,0.0004077632,NaN,0.4268784,-14.34306,NaN,-2.182887,-1.46454,-0.4044723,14.10946,NaN,NaN,-0.02036648,0.8168878,4.218981E-07,1.032051,5.951587E-09,1.40021
616.4734,-0.15633,0.0005173683,NaN,-0.9871114,0.0004084112,NaN,0.4273398,-14.34359,NaN,-2.182706,-1.463911,-0.4040585,14.10885,NaN,NaN,-0.02035979,0.8163421,4.099771E-07,1.031152,4.163447E-09,1.404121
616.49,-0.1540605,0.0005180091,NaN,-0.9952524,0.0004082079,NaN,0.4277482,-14.34355,NaN,-2.182578,-1.47683,-0.403672,14.12258,NaN,NaN,-0.02035343,0.8167514,3.95672E-07,1.050004,4.163447E-09,1.406643
616.504,-0.1517952,0.0005184754,NaN,-1.002933,0.0004087765,NaN,0.4281243,-14.34463,NaN,-2.182548,-1.467567,-0.4033305,14.11283,NaN,NaN,-0.02034733,0.8155324,3.789827E-07,1.036494,5.35554E-09,1.410457
616.5188,-0.1517952,0.0005184754,NaN,-1.002933,0.0004087765,NaN,0.4281243,-14.34463,NaN,-2.182548,-1.467567,-0.4033305,14.11283,NaN,NaN,-0.02034733,0.8155324,3.789827E-07,1.036494,5.35554E-09,1.410457
616.5329,-0.1495384,0.0005185602,NaN,-1.0103,0.0004086455,NaN,0.4284888,-14.34359,NaN,-2.182588,-1.471197,-0.4030203,14.11654,NaN,NaN,-0.02034139,0.8166528,3.605053E-07,1.04175,3.567401E-09,1.401213
616.5486,-0.147286,0.0005189741,NaN,-1.016681,0.000408032,NaN,0.4289078,-14.34398,NaN,-2.182456,-1.479108,-0.4024925,14.125,NaN,NaN,-0.020335,0.8164237,3.521606E-07,1.053315,3.865424E-09,1.40583
616.5636,-0.1450356,0.000519552,NaN,-1.022437,0.000408188,NaN,0.4292787,-14.34304,NaN,-2.182335,-1.473013,-0.40199,14.11841,NaN,NaN,-0.02032891,0.8172815,3.384516E-07,1.044395,5.057517E-09,1.398805
616.5785,-0.1450356,0.000519552,NaN,-1.022437,0.000408188,NaN,0.4292787,-14.34304,NaN,-2.182335,-1.473013,-0.40199,14.11841,NaN,NaN,-0.02032891,0.8172815,3.384516E-07,1.044395,5.057517E-09,1.398805
616.5931,-0.1427902,0.0005199323,NaN,-1.027789,0.0004078552,NaN,0.4296196,-14.34454,NaN,-2.18229,-1.476229,-0.4015319,14.12201,NaN,NaN,-0.02032308,0.8158559,3.235504E-07,1.049134,6.547633E-09,1.405026
616.6086,-0.1405542,0.0005204559,NaN,-1.032872,0.0004084186,NaN,0.4299501,-14.34313,NaN,-2.18231,-1.468806,-0.4011057,14.11395,NaN,NaN,-0.02031742,0.8171424,3.104374E-07,1.038263,7.441703E-09,1.394441
616.6236,-0.1383231,0.0005206786,NaN,-1.037008,0.0004088346,NaN,0.4303356,-14.34335,NaN,-2.182163,-1.46653,-0.4004641,14.11154,NaN,NaN,-0.02031131,0.8168644,3.038809E-07,1.034942,5.653563E-09,1.39566
616.6386,-0.1383231,0.0005206786,NaN,-1.037008,0.0004088346,NaN,0.4303356,-14.34335,NaN,-2.182163,-1.46653,-0.4004641,14.11154,NaN,NaN,-0.02031131,0.8168644,3.038809E-07,1.034942,5.653563E-09,1.39566
616.653,-0.1360944,0.0005205564,NaN,-1.040552,0.0004090866,NaN,0.4306726,-14.34394,NaN,-2.182036,-1.465317,-0.3998511,14.11031,NaN,NaN,-0.02030551,0.8162472,2.92556E-07,1.033187,5.951587E-09,1.396319
616.6685,-0.1338709,0.0005198179,NaN,-1.043723,0.0004089849,NaN,0.4309795,-14.34311,NaN,-2.181991,-1.463296,-0.3992861,14.10805,NaN,NaN,-0.02029996,0.8170133,2.806351E-07,1.030202,2.971355E-09,1.393941
616.6846,-0.1316573,0.0005194471,NaN,-1.046654,0.0004084327,NaN,0.4312758,-14.34466,NaN,-2.181997,-1.473724,-0.3987582,14.11936,NaN,NaN,-0.02029455,0.815771,2.710983E-07,1.045496,1.481239E-09,1.406801
616.6987,-0.1316573,0.0005194471,NaN,-1.046654,0.0004084327,NaN,0.4312758,-14.34466,NaN,-2.181997,-1.473724,-0.3987582,14.11936,NaN,NaN,-0.02029455,0.815771,2.710983E-07,1.045496,1.481239E-09,1.406801
616.713,-0.1294492,0.0005187275,NaN,-1.048666,0.000408232,NaN,0.431628,-14.34324,NaN,-2.181837,-1.463815,-0.3980181,14.10866,NaN,NaN,-0.02028873,0.8170097,2.621576E-07,1.031001,2.971355E-09,1.396238
616.7285,-0.127244,0.0005178025,NaN,-1.050112,0.0004072418,NaN,0.4319299,-14.34381,NaN,-2.181647,-1.473235,-0.3973148,14.11876,NaN,NaN,-0.02028312,0.8167109,2.556011E-07,1.044782,2.375308E-09,1.400878
616.7448,-0.1250446,0.0005166527,NaN,-1.051211,0.0004066078,NaN,0.4322015,-14.34323,NaN,-2.181471,-1.465355,-0.3966662,14.1103,NaN,NaN,-0.02027773,0.8171504,2.496407E-07,1.033257,8.851924E-10,1.39663
616.7586,-0.1250446,0.0005166527,NaN,-1.051211,0.0004066078,NaN,0.4322015,-14.34323,NaN,-2.181471,-1.465355,-0.3966662,14.1103,NaN,NaN,-0.02027773,0.8171504,2.496407E-07,1.033257,8.851924E-10,1.39663
616.7729,-0.1228475,0.0005158717,NaN,-1.051334,0.0004057365,NaN,0.4325194,-14.34479,NaN,-2.181122,-1.473219,-0.3958217,14.11888,NaN,NaN,-0.02027197,0.8158107,2.496407E-07,1.044806,-1.20097E-09,1.406679
616.7885,-0.1206505,0.0005156217,NaN,-1.05087,0.0004058308,NaN,0.4327838,-14.34424,NaN,-2.180746,-1.467009,-0.3950268,14.11221,NaN,NaN,-0.02026646,0.8162411,2.472565E-07,1.035728,-2.989109E-09,1.40176
616.8035,-0.1184724,0.0005159094,NaN,-1.050052,0.0004055205,NaN,0.4330289,-14.34461,NaN,-2.180387,-1.475616,-0.3942898,14.12141,NaN,NaN,-0.02026118,0.816094,2.424881E-07,1.048301,-2.691086E-09,1.406125
616.8185,-0.1184724,0.0005159094,NaN,-1.050052,0.0004055205,NaN,0.4330289,-14.34461,NaN,-2.180387,-1.475616,-0.3942898,14.12141,NaN,NaN,-0.02026118,0.816094,2.424881E-07,1.048301,-2.691086E-09,1.406125
616.833,-0.1163242,0.0005160095,NaN,-1.049022,0.0004057956,NaN,0.4332781,-14.34321,NaN,-2.180053,-1.466618,-0.3935923,14.11167,NaN,NaN,-0.02025606,0.8173427,2.353356E-07,1.035131,-3.069005E-10,1.395782
616.8488,-0.1142009,0.0005156898,NaN,-1.047108,0.0004059194,NaN,0.4335917,-14.34337,NaN,-2.179545,-1.464582,-0.3926878,14.10952,NaN,NaN,-0.02025053,0.8171318,2.377197E-07,1.032159,-7.539354E-10,1.395044
616.8636,-0.1121207,0.0005152081,NaN,-1.044668,0.0004049176,NaN,0.4338769,-14.34323,NaN,-2.179001,-1.477765,-0.3918208,14.12353,NaN,NaN,-0.02024521,0.8176411,2.365277E-07,1.05141,8.851924E-10,1.397628
616.8796,-0.1121207,0.0005152081,NaN,-1.044668,0.0004049176,NaN,0.4338769,-14.34323,NaN,-2.179001,-1.477765,-0.3918208,14.12353,NaN,NaN,-0.02024521,0.8176411,2.365277E-07,1.05141,8.851924E-10,1.397628
616.8942,-0.1100865,0.000515111,NaN,-1.041921,0.0004052712,NaN,0.4341483,-14.3433,NaN,-2.178471,-1.466065,-0.3910083,14.11105,NaN,NaN,-0.0202401,0.8173971,2.335474E-07,1.034304,8.851924E-10,1.396162
616.9086,-0.1080953,0.0005152731,NaN,-1.039,0.0004058863,NaN,0.4344192,-14.34393,NaN,-2.17797,-1.464376,-0.3902366,14.10933,NaN,NaN,-0.02023516,0.8167223,2.287791E-07,1.031857,4.014436E-09,1.399685
616.9236,-0.1061341,0.0005151082,NaN,-1.035224,0.0004059933,NaN,0.4347466,-14.34431,NaN,-2.177298,-1.466735,-0.3892638,14.11188,NaN,NaN,-0.02022981,0.8164067,2.329514E-07,1.035315,3.567401E-09,1.398687
616.9385,-0.1061341,0.0005151082,NaN,-1.035224,0.0004059933,NaN,0.4347466,-14.34431,NaN,-2.177298,-1.466735,-0.3892638,14.11188,NaN,NaN,-0.02022981,0.8164067,2.329514E-07,1.035315,3.567401E-09,1.398687
616.9527,-0.1042163,0.0005155196,NaN,-1.030948,0.0004057674,NaN,0.435039,-14.34512,NaN,-2.176594,-1.475767,-0.3883335,14.12159,NaN,NaN,-0.02022467,0.8158235,2.335474E-07,1.048527,2.822343E-09,1.408796
616.9684,-0.1023421,0.0005158227,NaN,-1.026386,0.0004049639,NaN,0.4353126,-14.34518,NaN,-2.175909,-1.47893,-0.387462,14.12495,NaN,NaN,-0.02021975,0.8157988,2.329514E-07,1.05314,2.673331E-09,1.408426
616.9835,-0.1005075,0.0005163354,NaN,-1.021671,0.0004046953,NaN,0.435582,-14.34369,NaN,-2.175258,-1.475058,-0.3866353,14.12066,NaN,NaN,-0.02021499,0.8172304,2.329514E-07,1.047453,3.269378E-09,1.405442
616.9986,-0.1005075,0.0005163354,NaN,-1.021671,0.0004046953,NaN,0.435582,-14.34369,NaN,-2.175258,-1.475058,-0.3866353,14.12066,NaN,NaN,-0.02021499,0.8172304,2.329514E-07,1.047453,3.269378E-09,1.405442
617.0129,-0.09869928,0.0005168404,NaN,-1.016121,0.0004047474,NaN,0.435904,-14.34372,NaN,-2.17444,-1.473174,-0.3856141,14.11864,NaN,NaN,-0.02020984,0.8171576,2.407E-07,1.044694,2.077285E-09,1.396074
617.0287,-0.09692988,0.0005173619,NaN,-1.01009,0.000405252,NaN,0.4361887,-14.34359,NaN,-2.173595,-1.469225,-0.3846393,14.1144,NaN,NaN,-0.02020491,0.817202,2.460644E-07,1.038914,-8.877787E-12,1.39671
617.0438,-0.09519941,0.0005175678,NaN,-1.003791,0.0004058369,NaN,0.436453,-14.34424,NaN,-2.172773,-1.464249,-0.3837265,14.10917,NaN,NaN,-0.0202002,0.8164389,2.484486E-07,1.03166,1.401338E-10,1.398616
617.0587,-0.09519941,0.0005175678,NaN,-1.003791,0.0004058369,NaN,0.436453,-14.34424,NaN,-2.172773,-1.464249,-0.3837265,14.10917,NaN,NaN,-0.0202002,0.8164389,2.484486E-07,1.03166,1.401338E-10,1.398616
617.0751,-0.093496,0.0005179161,NaN,-0.9965954,0.0004061135,NaN,0.4367618,-14.34543,NaN,-2.171789,-1.469272,-0.3826367,14.11466,NaN,NaN,-0.02019514,0.815392,2.544091E-07,1.039035,1.481238E-09,1.407535
617.0886,-0.09183098,0.0005178877,NaN,-0.9888866,0.0004054422,NaN,0.4370313,-14.34475,NaN,-2.170786,-1.476149,-0.3816037,14.12187,NaN,NaN,-0.02019032,0.816223,2.621577E-07,1.049039,-6.049243E-10,1.402852
617.1033,-0.09020369,0.0005176159,NaN,-0.9808987,0.0004053646,NaN,0.4372801,-14.34372,NaN,-2.169816,-1.46623,-0.3806393,14.1112,NaN,NaN,-0.02018573,0.8170898,2.651379E-07,1.034534,-1.200971E-09,1.396358
617.1183,-0.09020369,0.0005176159,NaN,-0.9808987,0.0004053646,NaN,0.4372801,-14.34372,NaN,-2.169816,-1.46623,-0.3806393,14.1112,NaN,NaN,-0.02018573,0.8170898,2.651379E-07,1.034534,-1.200971E-09,1.396358
617.1324,-0.08860978,0.0005177446,NaN,-0.9727748,0.0004048663,NaN,0.4375237,-14.34526,NaN,-2.16889,-1.475644,-0.3797273,14.12142,NaN,NaN,-0.0201813,0.8157951,2.6633E-07,1.048337,-3.069011E-10,1.407498
617.1482,-0.08703678,0.0005174706,NaN,-0.9638407,0.0004048113,NaN,0.4378157,-14.34391,NaN,-2.167809,-1.465377,-0.3786348,14.11035,NaN,NaN,-0.0201765,0.8169847,2.746746E-07,1.033323,-9.029476E-10,1.396924
617.163,-0.08549541,0.0005169302,NaN,-0.9544529,0.0004041958,NaN,0.4380692,-14.34482,NaN,-2.166709,-1.471442,-0.3775961,14.11692,NaN,NaN,-0.02017193,0.8162432,2.812312E-07,1.042213,-1.498994E-09,1.401852
617.178,-0.08549541,0.0005169302,NaN,-0.9544529,0.0004041958,NaN,0.4380692,-14.34482,NaN,-2.166709,-1.471442,-0.3775961,14.11692,NaN,NaN,-0.02017193,0.8162432,2.812312E-07,1.042213,-1.498994E-09,1.401852
617.1923,-0.08398567,0.0005165075,NaN,-0.9448289,0.0004043212,NaN,0.4383013,-14.34442,NaN,-2.165642,-1.464736,-0.3766249,14.10973,NaN,NaN,-0.02016757,0.81652,2.842114E-07,1.032408,-1.200971E-09,1.399215
617.2093,-0.08250416,0.0005163498,NaN,-0.9351018,0.0004048071,NaN,0.4385272,-14.34479,NaN,-2.16462,-1.463463,-0.3757063,14.10841,NaN,NaN,-0.02016338,0.816117,2.842114E-07,1.03056,2.891452E-10,1.402045
617.2232,-0.08103969,0.0005162865,NaN,-0.9245915,0.0004049274,NaN,0.4387986,-14.34592,NaN,-2.163442,-1.468532,-0.3746126,14.11395,NaN,NaN,-0.02015883,0.8151401,2.9196E-07,1.038,3.567401E-09,1.407571
617.238,-0.08103969,0.0005162865,NaN,-0.9245915,0.0004049274,NaN,0.4387986,-14.34592,NaN,-2.163442,-1.468532,-0.3746126,14.11395,NaN,NaN,-0.02015883,0.8151401,2.9196E-07,1.038,3.567401E-09,1.407571
617.2524,-0.07960258,0.0005161355,NaN,-0.9136499,0.0004043318,NaN,0.4390307,-14.3459,NaN,-2.162249,-1.475191,-0.3735748,14.121,NaN,NaN,-0.02015449,0.8153223,3.009007E-07,1.047705,5.871685E-10,1.407174
617.2679,-0.07819317,0.0005157381,NaN,-0.9024922,0.0004042258,NaN,0.4392411,-14.3446,NaN,-2.161089,-1.465968,-0.3726056,14.11105,NaN,NaN,-0.02015038,0.8164661,3.074572E-07,1.03422,8.851918E-10,1.397308
617.2839,-0.07680862,0.00051546,NaN,-0.8912501,0.0004045299,NaN,0.439445,-14.34539,NaN,-2.159977,-1.464396,-0.3716903,14.10948,NaN,NaN,-0.02014642,0.815635,3.104375E-07,1.03195,5.871685E-10,1.400894
617.2978,-0.07680862,0.00051546,NaN,-0.8912501,0.0004045299,NaN,0.439445,-14.34539,NaN,-2.159977,-1.464396,-0.3716903,14.10948,NaN,NaN,-0.02014642,0.815635,3.104375E-07,1.03195,5.871685E-10,1.400894
617.3122,-0.07544567,0.0005156653,NaN,-0.8800045,0.0004052795,NaN,0.4396483,-14.34594,NaN,-2.158912,-1.463413,-0.3708172,14.1085,NaN,NaN,-0.02014259,0.8150602,3.140138E-07,1.030534,8.851918E-10,1.406798
617.3275,-0.07410158,0.0005158312,NaN,-0.8688045,0.0004048752,NaN,0.4398524,-14.34563,NaN,-2.157889,-1.475571,-0.3699791,14.12134,NaN,NaN,-0.02013886,0.8157129,3.158019E-07,1.048239,1.183215E-09,1.40323
617.3427,-0.07277429,0.0005159273,NaN,-0.8576803,0.0004053494,NaN,0.4400567,-14.34567,NaN,-2.156903,-1.464832,-0.3691719,14.10992,NaN,NaN,-0.02013523,0.8155005,3.181861E-07,1.032567,5.871685E-10,1.40231
617.3577,-0.07277429,0.0005159273,NaN,-0.8576803,0.0004053494,NaN,0.4400567,-14.34567,NaN,-2.156903,-1.464832,-0.3691719,14.10992,NaN,NaN,-0.02013523,0.8155005,3.181861E-07,1.032567,5.871685E-10,1.40231
617.3721,-0.07146907,0.0005162332,NaN,-0.8474119,0.0004049797,NaN,0.4402182,-14.34654,NaN,-2.156149,-1.476574,-0.3686008,14.1225,NaN,NaN,-0.02013215,0.8149484,3.16994E-07,1.049719,-3.069011E-10,1.410394
617.3877,-0.07017365,0.0005162977,NaN,-0.8377092,0.0004052528,NaN,0.4404185,-14.34554,NaN,-2.15548,-1.465653,-0.3680336,14.11079,NaN,NaN,-0.02012905,0.8157765,3.128217E-07,1.033772,1.183215E-09,1.401105
617.4026,-0.06888488,0.0005163416,NaN,-0.8283937,0.0004046886,NaN,0.4406389,-14.34689,NaN,-2.154838,-1.476186,-0.3674538,14.12214,NaN,NaN,-0.02012593,0.8146996,3.146098E-07,1.049182,2.077285E-09,1.411063
617.4177,-0.06888488,0.0005163416,NaN,-0.8283937,0.0004046886,NaN,0.4406389,-14.34689,NaN,-2.154838,-1.476186,-0.3674538,14.12214,NaN,NaN,-0.02012593,0.8146996,3.146098E-07,1.049182,2.077285E-09,1.411063
617.4319,-0.06760299,0.0005164852,NaN,-0.8193552,0.0004050768,NaN,0.4408633,-14.34554,NaN,-2.154202,-1.466408,-0.3668722,14.11161,NaN,NaN,-0.02012283,0.8159013,3.16994E-07,1.034895,-1.498994E-09,1.400825
617.4478,-0.06633566,0.0005166488,NaN,-0.8112871,0.0004053228,NaN,0.4410437,-14.34636,NaN,-2.153769,-1.468027,-0.3665026,14.11343,NaN,NaN,-0.02012024,0.8151278,3.104375E-07,1.037282,-1.498994E-09,1.405148
617.4628,-0.06507409,0.0005169045,NaN,-0.8038465,0.0004056199,NaN,0.4412594,-14.34649,NaN,-2.153396,-1.468455,-0.3661225,14.11389,NaN,NaN,-0.02011759,0.8150098,3.086493E-07,1.037907,-5.075273E-09,1.406541
617.4788,-0.06507409,0.0005169045,NaN,-0.8038465,0.0004056199,NaN,0.4412594,-14.34649,NaN,-2.153396,-1.468455,-0.3661225,14.11389,NaN,NaN,-0.02011759,0.8150098,3.086493E-07,1.037907,-5.075273E-09,1.406541
617.493,-0.06381689,0.00051667,NaN,-0.7968218,0.0004054526,NaN,0.4414918,-14.34597,NaN,-2.153029,-1.468477,-0.3657196,14.11384,NaN,NaN,-0.02011492,0.8155261,3.080533E-07,1.037918,-5.671319E-09,1.402203
617.5074,-0.0625653,0.0005169922,NaN,-0.7900822,0.0004047995,NaN,0.4417261,-14.34625,NaN,-2.152654,-1.478482,-0.3653066,14.12449,NaN,NaN,-0.02011225,0.8154733,3.05073E-07,1.052519,-3.88318E-09,1.40844
617.5224,-0.06132731,0.0005175601,NaN,-0.7843082,0.000405074,NaN,0.4419157,-14.34514,NaN,-2.15247,-1.471773,-0.3650968,14.11724,NaN,NaN,-0.02011007,0.8164884,2.955363E-07,1.042706,-4.479226E-09,1.399968
617.5372,-0.06132731,0.0005175601,NaN,-0.7843082,0.000405074,NaN,0.4419157,-14.34514,NaN,-2.15247,-1.471773,-0.3650968,14.11724,NaN,NaN,-0.02011007,0.8164884,2.955363E-07,1.042706,-4.479226E-09,1.399968
617.5516,-0.06009541,0.0005176368,NaN,-0.7791497,0.0004050728,NaN,0.4421394,-14.34523,NaN,-2.152336,-1.469214,-0.3648703,14.11452,NaN,NaN,-0.02010784,0.8163483,2.895758E-07,1.038972,-7.459458E-09,1.400314
617.5673,-0.05886847,0.0005177557,NaN,-0.7743902,0.0004043634,NaN,0.4423794,-14.34644,NaN,-2.1522,-1.477914,-0.3646155,14.12392,NaN,NaN,-0.02010555,0.8153448,2.859996E-07,1.05171,-8.055505E-09,1.408156
617.5823,-0.05764765,0.0005181434,NaN,-0.7698958,0.0004050098,NaN,0.4426209,-14.34544,NaN,-2.152047,-1.466894,-0.3643454,14.1121,NaN,NaN,-0.02010326,0.8161874,2.812312E-07,1.035612,-9.843644E-09,1.400311
617.5972,-0.05764765,0.0005181434,NaN,-0.7698958,0.0004050098,NaN,0.4426209,-14.34544,NaN,-2.152047,-1.466894,-0.3643454,14.1121,NaN,NaN,-0.02010326,0.8161874,2.812312E-07,1.035612,-9.843644E-09,1.400311
617.6115,-0.05644067,0.0005184728,NaN,-0.7663452,0.0004053259,NaN,0.4428176,-14.34624,NaN,-2.15208,-1.468964,-0.3642728,14.1144,NaN,NaN,-0.02010144,0.8154458,2.710984E-07,1.03866,-8.651551E-09,1.403977
617.6274,-0.05524059,0.0005188375,NaN,-0.7633876,0.000404846,NaN,0.4430484,-14.34558,NaN,-2.152156,-1.477682,-0.3641791,14.12356,NaN,NaN,-0.02009956,0.8163004,2.645419E-07,1.051349,-7.459459E-09,1.403099
617.6423,-0.05404621,0.0005191781,NaN,-0.7608058,0.0004054082,NaN,0.4432954,-14.34535,NaN,-2.152223,-1.467102,-0.3640528,14.11227,NaN,NaN,-0.02009762,0.8163687,2.591775E-07,1.035894,-7.459459E-09,1.39922
617.6573,-0.05404621,0.0005191781,NaN,-0.7608058,0.0004054082,NaN,0.4432954,-14.34535,NaN,-2.152223,-1.467102,-0.3640528,14.11227,NaN,NaN,-0.02009762,0.8163687,2.591775E-07,1.035894,-7.459459E-09,1.39922
617.6731,-0.05286436,0.0005192421,NaN,-0.7592273,0.0004058426,NaN,0.4435032,-14.34558,NaN,-2.152471,-1.464611,-0.3641099,14.10964,NaN,NaN,-0.02009611,0.8160666,2.472565E-07,1.032261,-7.459459E-09,1.39925
617.6871,-0.05168845,0.0005196549,NaN,-0.7582699,0.0004055185,NaN,0.4437461,-14.34606,NaN,-2.152752,-1.477046,-0.3641366,14.12291,NaN,NaN,-0.02009451,0.8159246,2.389119E-07,1.050422,-7.459459E-09,1.405227
617.7021,-0.05051745,0.000519657,NaN,-0.757697,0.0004057071,NaN,0.4440047,-14.34529,NaN,-2.153016,-1.465852,-0.364124,14.11092,NaN,NaN,-0.02009283,0.8165223,2.299712E-07,1.034066,-3.88318E-09,1.396711
617.7169,-0.05051745,0.000519657,NaN,-0.757697,0.0004057071,NaN,0.4440047,-14.34529,NaN,-2.153016,-1.465852,-0.364124,14.11092,NaN,NaN,-0.02009283,0.8165223,2.299712E-07,1.034066,-3.88318E-09,1.396711
617.7311,-0.04935243,0.0005193464,NaN,-0.757362,0.0004059472,NaN,0.444264,-14.34544,NaN,-2.153249,-1.463772,-0.3640865,14.10872,NaN,NaN,-0.02009114,0.8163134,2.219246E-07,1.031029,-4.479226E-09,1.396879
617.7469,-0.04820083,0.0005189635,NaN,-0.7579323,0.0004062544,NaN,0.4444776,-14.34592,NaN,-2.153653,-1.463799,-0.3642377,14.1088,NaN,NaN,-0.0200899,0.8158398,2.091096E-07,1.031084,-5.671319E-09,1.398865
617.7618,-0.04706257,0.0005186779,NaN,-0.7590576,0.000406673,NaN,0.4447276,-14.34638,NaN,-2.154087,-1.463313,-0.3643608,14.10833,NaN,NaN,-0.02008858,0.8153697,1.954005E-07,1.030388,-5.075273E-09,1.402425
617.7769,-0.04706257,0.0005186779,NaN,-0.7590576,0.000406673,NaN,0.4447276,-14.34638,NaN,-2.154087,-1.463313,-0.3643608,14.10833,NaN,NaN,-0.02008858,0.8153697,1.954005E-07,1.030388,-5.075273E-09,1.402425
617.7913,-0.04593948,0.00051884,NaN,-0.7605178,0.0004062533,NaN,0.4449976,-14.34624,NaN,-2.154498,-1.476429,-0.3644431,14.12223,NaN,NaN,-0.02008718,0.8158802,1.849697E-07,1.049502,-5.075273E-09,1.405469
617.8069,-0.04483178,0.0005191046,NaN,-0.7621769,0.0004067991,NaN,0.4452719,-14.34604,NaN,-2.154876,-1.467072,-0.3644975,14.11225,NaN,NaN,-0.02008575,0.8159269,1.769231E-07,1.035838,-2.691087E-09,1.405314
617.8221,-0.04374493,0.0005190924,NaN,-0.7647122,0.0004071891,NaN,0.4455014,-14.34586,NaN,-2.155423,-1.465046,-0.3647402,14.11006,NaN,NaN,-0.02008477,0.8160558,1.62916E-07,1.032874,-3.069016E-10,1.399596
617.8367,-0.04374493,0.0005190924,NaN,-0.7647122,0.0004071891,NaN,0.4455014,-14.34586,NaN,-2.155423,-1.465046,-0.3647402,14.11006,NaN,NaN,-0.02008477,0.8160558,1.62916E-07,1.032874,-3.069016E-10,1.399596
617.8511,-0.04267805,0.0005187122,NaN,-0.7677733,0.0004074975,NaN,0.4457693,-14.34624,NaN,-2.155996,-1.462896,-0.3649513,14.10782,NaN,NaN,-0.02008371,0.815623,1.536773E-07,1.029749,-9.02948E-10,1.398383
617.8667,-0.04162932,0.0005182241,NaN,-0.7711433,0.0004078409,NaN,0.4460571,-14.34625,NaN,-2.156544,-1.462484,-0.3651186,14.10738,NaN,NaN,-0.02008255,0.8156,1.438425E-07,1.029146,-3.069016E-10,1.400408
617.8829,-0.04059689,0.0005173774,NaN,-0.7746878,0.0004079171,NaN,0.4463484,-14.34605,NaN,-2.157056,-1.462133,-0.3652556,14.10697,NaN,NaN,-0.02008136,0.815787,1.343058E-07,1.028623,2.891448E-10,1.3996
617.8966,-0.04059689,0.0005173774,NaN,-0.7746878,0.0004079171,NaN,0.4463484,-14.34605,NaN,-2.157056,-1.462133,-0.3652556,14.10697,NaN,NaN,-0.02008136,0.815787,1.343058E-07,1.028623,2.891448E-10,1.3996
617.9109,-0.0395852,0.0005170607,NaN,-0.7790852,0.0004072918,NaN,0.446593,-14.346,NaN,-2.157735,-1.475416,-0.3655806,14.12107,NaN,NaN,-0.02008062,0.8162377,1.197026E-07,1.047994,2.891448E-10,1.403435
617.9265,-0.03859233,0.0005171883,NaN,-0.7839864,0.0004079074,NaN,0.4468755,-14.34565,NaN,-2.158438,-1.465438,-0.3658722,14.11041,NaN,NaN,-0.02007978,0.8164105,1.065896E-07,1.033417,-2.095041E-09,1.401114
617.9413,-0.03761609,0.0005175608,NaN,-0.7891749,0.0004076159,NaN,0.4471776,-14.3461,NaN,-2.159113,-1.477033,-0.3661175,14.12279,NaN,NaN,-0.02007885,0.8162671,9.615879E-08,1.050357,-5.075273E-09,1.405039
617.9564,-0.03761609,0.0005175608,NaN,-0.7891749,0.0004076159,NaN,0.4471776,-14.3461,NaN,-2.159113,-1.477033,-0.3661175,14.12279,NaN,NaN,-0.02007885,0.8162671,9.615879E-08,1.050357,-5.075273E-09,1.405039
617.9706,-0.03666062,0.000517775,NaN,-0.7952783,0.0004081278,NaN,0.447439,-14.34551,NaN,-2.159951,-1.466375,-0.3665396,14.11138,NaN,NaN,-0.02007833,0.8166825,7.917146E-08,1.034782,-5.075273E-09,1.399032
617.9865,-0.03572341,0.0005181067,NaN,-0.8019162,0.0004077229,NaN,0.4477399,-14.34581,NaN,-2.160805,-1.477534,-0.3669199,14.12329,NaN,NaN,-0.0200777,0.8166583,6.486635E-08,1.051086,-5.075273E-09,1.404189
618.0012,-0.0348019,0.0005178491,NaN,-0.8088526,0.0004075511,NaN,0.4480604,-14.34511,NaN,-2.161623,-1.466877,-0.3672481,14.11186,NaN,NaN,-0.02007696,0.8171917,5.26474E-08,1.035504,-6.267366E-09,1.395582
618.0162,-0.0348019,0.0005178491,NaN,-0.8088526,0.0004075511,NaN,0.4480604,-14.34511,NaN,-2.161623,-1.466877,-0.3672481,14.11186,NaN,NaN,-0.02007696,0.8171917,5.26474E-08,1.035504,-6.267366E-09,1.395582
618.0306,-0.03389404,0.0005170899,NaN,-0.8159415,0.0004072237,NaN,0.4483834,-14.34459,NaN,-2.162394,-1.464674,-0.3675392,14.10943,NaN,NaN,-0.02007616,0.8176478,4.311065E-08,1.032261,-8.055506E-09,1.392096
618.0465,-0.03300461,0.0005165222,NaN,-0.823854,0.0004074438,NaN,0.4486566,-14.34486,NaN,-2.163323,-1.463321,-0.3680174,14.10802,NaN,NaN,-0.02007582,0.8173331,2.70174E-08,1.030289,-7.459459E-09,1.393463
618.0612,-0.03213106,0.0005163847,NaN,-0.8322372,0.0004080447,NaN,0.4489672,-14.34546,NaN,-2.164267,-1.462624,-0.3684579,14.10735,NaN,NaN,-0.02007537,0.8167108,1.390438E-08,1.029291,-6.863413E-09,1.397977
618.0772,-0.03213106,0.0005163847,NaN,-0.8322372,0.0004080447,NaN,0.4489672,-14.34546,NaN,-2.164267,-1.462624,-0.3684579,14.10735,NaN,NaN,-0.02007537,0.8167108,1.390438E-08,1.029291,-6.863413E-09,1.397977
618.0916,-0.03127111,0.0005161613,NaN,-0.8408721,0.0004082466,NaN,0.4492977,-14.34631,NaN,-2.165177,-1.465862,-0.3688468,14.1109,NaN,NaN,-0.02007481,0.8159595,1.98345E-09,1.034051,-6.267366E-09,1.400691
618.1061,-0.03042301,0.0005163749,NaN,-0.849623,0.0004078122,NaN,0.4496316,-14.34634,NaN,-2.166039,-1.476588,-0.3691978,14.12229,NaN,NaN,-0.0200742,0.8162019,-1.053353E-08,1.049698,-3.88318E-09,1.406431
618.121,-0.02959211,0.0005163226,NaN,-0.8591679,0.0004080121,NaN,0.4499149,-14.3453,NaN,-2.16706,-1.46582,-0.3697381,14.11072,NaN,NaN,-0.02007403,0.8170684,-2.603073E-08,1.033953,-4.479227E-09,1.397548
618.1371,-0.02959211,0.0005163226,NaN,-0.8591679,0.0004080121,NaN,0.4499149,-14.3453,NaN,-2.16706,-1.46582,-0.3697381,14.11072,NaN,NaN,-0.02007403,0.8170684,-2.603073E-08,1.033953,-4.479227E-09,1.397548
618.15,-0.02877564,0.0005160215,NaN,-0.8691581,0.0004079844,NaN,0.4502367,-14.34572,NaN,-2.168095,-1.466725,-0.3702396,14.11173,NaN,NaN,-0.02007376,0.816673,-3.795166E-08,1.035287,-5.075273E-09,1.397877
618.1656,-0.02797139,0.0005159766,NaN,-0.8793773,0.0004082012,NaN,0.4505793,-14.34619,NaN,-2.169093,-1.467166,-0.3706876,14.11225,NaN,NaN,-0.02007337,0.816205,-5.166073E-08,1.035945,-5.075273E-09,1.402562
618.1806,-0.02717772,0.0005158675,NaN,-0.8896916,0.0004084064,NaN,0.450926,-14.34609,NaN,-2.170043,-1.466571,-0.3710954,14.1116,NaN,NaN,-0.02007292,0.8162899,-6.298561E-08,1.03507,-6.863413E-09,1.400718
618.1957,-0.02717772,0.0005158675,NaN,-0.8896916,0.0004084064,NaN,0.450926,-14.34609,NaN,-2.170043,-1.466571,-0.3710954,14.1116,NaN,NaN,-0.02007292,0.8162899,-6.298561E-08,1.03507,-6.863413E-09,1.400718
618.2101,-0.02640052,0.0005163823,NaN,-0.9007799,0.0004083236,NaN,0.4512208,-14.34671,NaN,-2.171149,-1.475101,-0.3716943,14.12074,NaN,NaN,-0.02007292,0.8158812,-8.027095E-08,1.047539,-7.757482E-09,1.408533
618.2259,-0.02563665,0.0005166219,NaN,-0.9122946,0.000408839,NaN,0.4515547,-14.3458,NaN,-2.172268,-1.465531,-0.3722532,14.11046,NaN,NaN,-0.02007281,0.8166382,-9.457607E-08,1.033551,-6.863412E-09,1.400422
618.2408,-0.02488386,0.0005166641,NaN,-0.9240199,0.0004091884,NaN,0.4519102,-14.34658,NaN,-2.173348,-1.465187,-0.3727563,14.11019,NaN,NaN,-0.02007258,0.8158478,-1.094772E-07,1.033075,-6.267366E-09,1.403568
618.2559,-0.02488386,0.0005166641,NaN,-0.9240199,0.0004091884,NaN,0.4519102,-14.34658,NaN,-2.173348,-1.465187,-0.3727563,14.11019,NaN,NaN,-0.02007258,0.8158478,-1.094772E-07,1.033075,-6.267366E-09,1.403568
618.2701,-0.02414792,0.0005166573,NaN,-0.9365841,0.0004094133,NaN,0.45222,-14.3473,NaN,-2.174582,-1.466742,-0.3734404,14.11192,NaN,NaN,-0.02007277,0.8151829,-1.273586E-07,1.035368,-4.479226E-09,1.40767
618.2856,-0.02342498,0.0005161557,NaN,-0.9496081,0.0004092424,NaN,0.4525712,-14.34579,NaN,-2.175821,-1.465863,-0.3740765,14.11079,NaN,NaN,-0.02007282,0.816661,-1.416637E-07,1.03403,-3.287133E-09,1.400481
618.3005,-0.0227125,0.0005154675,NaN,-0.9628568,0.0004092233,NaN,0.4529444,-14.34652,NaN,-2.177013,-1.46358,-0.374651,14.10845,NaN,NaN,-0.02007274,0.8158714,-1.565649E-07,1.030723,-3.069014E-10,1.403417
618.3155,-0.0227125,0.0005154675,NaN,-0.9628568,0.0004092233,NaN,0.4529444,-14.34652,NaN,-2.177013,-1.46358,-0.374651,14.10845,NaN,NaN,-0.02007274,0.8158714,-1.565649E-07,1.030723,-3.069014E-10,1.403417
618.3297,-0.0220089,0.0005149526,NaN,-0.9761843,0.0004094497,NaN,0.4533217,-14.34641,NaN,-2.178147,-1.464191,-0.3751787,14.10908,NaN,NaN,-0.02007259,0.816002,-1.696779E-07,1.031607,-1.200971E-09,1.404286
618.3453,-0.021321,0.000514149,NaN,-0.9902624,0.0004095251,NaN,0.4536433,-14.34644,NaN,-2.179431,-1.46272,-0.3759003,14.10751,NaN,NaN,-0.02007289,0.8159183,-1.851751E-07,1.029461,-1.648006E-09,1.402022
618.3603,-0.02064467,0.0005133898,NaN,-1.00474,0.000409727,NaN,0.4540042,-14.34639,NaN,-2.180722,-1.462718,-0.3765789,14.1075,NaN,NaN,-0.02007308,0.8159654,-2.030565E-07,1.029455,-1.200971E-09,1.402515
618.3752,-0.02064467,0.0005133898,NaN,-1.00474,0.000409727,NaN,0.4540042,-14.34639,NaN,-2.180722,-1.462718,-0.3765789,14.1075,NaN,NaN,-0.02007308,0.8159654,-2.030565E-07,1.029455,-1.200971E-09,1.402515
618.3896,-0.0199775,0.0005128646,NaN,-1.019397,0.0004092833,NaN,0.4543875,-14.34767,NaN,-2.181967,-1.472479,-0.377197,14.11804,NaN,NaN,-0.02007313,0.8149747,-2.191498E-07,1.04375,1.332226E-09,1.411456
618.4053,-0.01931813,0.0005120622,NaN,-1.034101,0.0004091016,NaN,0.4547761,-14.34573,NaN,-2.183156,-1.464007,-0.3777681,14.10882,NaN,NaN,-0.02007309,0.8167375,-2.292826E-07,1.031346,7.361799E-10,1.398627
618.4202,-0.01867411,0.0005118122,NaN,-1.049528,0.000409401,NaN,0.4550917,-14.34674,NaN,-2.184091,-1.465522,-0.3785722,14.11057,NaN,NaN,-0.02007305,0.8157737,-2.376272E-07,1.033596,-9.029478E-10,1.405906
618.4352,-0.01867411,0.0005118122,NaN,-1.049528,0.000409401,NaN,0.4550917,-14.34674,NaN,-2.184091,-1.465522,-0.3785722,14.11057,NaN,NaN,-0.02007305,0.8157737,-2.376272E-07,1.033596,-9.029478E-10,1.405906
618.4495,-0.01804068,0.0005119989,NaN,-1.065333,0.0004088999,NaN,0.4554445,-14.34585,NaN,-2.184507,-1.477038,-0.3793532,14.12267,NaN,NaN,-0.02007263,0.816959,-2.406074E-07,1.05036,-1.051959E-09,1.404829
618.4652,-0.01741539,0.0005120889,NaN,-1.081298,0.0004091115,NaN,0.4558316,-14.34538,NaN,-2.184487,-1.466965,-0.3800652,14.11188,NaN,NaN,-0.02007205,0.8172819,-2.394154E-07,1.035628,-4.55913E-10,1.398674
618.4811,-0.01679701,0.0005120835,NaN,-1.097292,0.0004083368,NaN,0.4562398,-14.34558,NaN,-2.184242,-1.477349,-0.3807055,14.12296,NaN,NaN,-0.02007152,0.8173382,-2.388193E-07,1.050802,-1.424488E-09,1.400605
618.4952,-0.01679701,0.0005120835,NaN,-1.097292,0.0004083368,NaN,0.4562398,-14.34558,NaN,-2.184242,-1.477349,-0.3807055,14.12296,NaN,NaN,-0.02007152,0.8173382,-2.388193E-07,1.050802,-1.424488E-09,1.400605
618.5095,-0.01619376,0.0005125528,NaN,-1.113993,0.0004079778,NaN,0.456603,-14.34724,NaN,-2.184169,-1.475711,-0.3815177,14.12138,NaN,NaN,-0.02007161,0.8156681,-2.465679E-07,1.048436,-1.424488E-09,1.409424
618.525,-0.01560012,0.0005135043,NaN,-1.131055,0.0004083591,NaN,0.4570098,-14.3455,NaN,-2.18415,-1.473281,-0.3822713,14.11858,NaN,NaN,-0.02007158,0.8173545,-2.537205E-07,1.044841,-2.169546E-09,1.393026
618.5397,-0.01560012,0.0005135043,NaN,-1.131055,0.0004083591,NaN,0.4570098,-14.3455,NaN,-2.18415,-1.473281,-0.3822713,14.11858,NaN,NaN,-0.02007158,0.8173545,-2.537205E-07,1.044841,-2.169546E-09,1.393026
618.5547,-0.01501359,0.00051391,NaN,-1.148263,0.0004088633,NaN,0.45744,-14.34558,NaN,-2.184126,-1.466703,-0.3829531,14.11157,NaN,NaN,-0.0200714,0.8171546,-2.596809E-07,1.035222,-1.722511E-09,1.398016
618.5698,-0.0144423,0.0005140278,NaN,-1.166246,0.0004094032,NaN,0.4578212,-14.34627,NaN,-2.184289,-1.463369,-0.3838116,14.10809,NaN,NaN,-0.02007165,0.8163795,-2.704097E-07,1.03037,-2.765593E-09,1.400236
618.5846,-0.01387976,0.0005143681,NaN,-1.184627,0.0004102838,NaN,0.4582417,-14.3466,NaN,-2.184421,-1.462377,-0.3846162,14.10707,NaN,NaN,-0.02007166,0.8160213,-2.775623E-07,1.02893,-4.106697E-09,1.404753
618.5997,-0.01387976,0.0005143681,NaN,-1.184627,0.0004102838,NaN,0.4582417,-14.3466,NaN,-2.184421,-1.462377,-0.3846162,14.10707,NaN,NaN,-0.02007166,0.8160213,-2.775623E-07,1.02893,-4.106697E-09,1.404753
618.6154,-0.01332334,0.0005148734,NaN,-1.203171,0.0004106172,NaN,0.4586847,-14.34799,NaN,-2.184449,-1.469558,-0.3853487,14.11488,NaN,NaN,-0.02007147,0.8148569,-2.835228E-07,1.039462,-3.510651E-09,1.413258
618.6299,-0.01277209,0.0005151936,NaN,-1.221733,0.0004113266,NaN,0.4591346,-14.34731,NaN,-2.184388,-1.46353,-0.3860196,14.10839,NaN,NaN,-0.0200712,0.8153971,-2.835228E-07,1.03065,-5.000767E-09,1.406736
618.6449,-0.01223552,0.0005151715,NaN,-1.240983,0.0004117066,NaN,0.4595301,-14.34744,NaN,-2.184495,-1.463386,-0.3868731,14.10825,NaN,NaN,-0.02007142,0.8152547,-2.918674E-07,1.030442,-3.212627E-09,1.40401
618.6597,-0.01223552,0.0005151715,NaN,-1.240983,0.0004117066,NaN,0.4595301,-14.34744,NaN,-2.184495,-1.463386,-0.3868731,14.10825,NaN,NaN,-0.02007142,0.8152547,-2.918674E-07,1.030442,-3.212627E-09,1.40401
618.6761,-0.01170638,0.0005151639,NaN,-1.260574,0.0004121807,NaN,0.4599633,-14.34745,NaN,-2.184587,-1.462887,-0.387675,14.10771,NaN,NaN,-0.02007144,0.8152385,-2.972318E-07,1.02971,-4.40472E-09,1.407724
618.6896,-0.01118218,0.0005143333,NaN,-1.280287,0.0004119308,NaN,0.4604183,-14.34677,NaN,-2.184598,-1.462595,-0.388406,14.1073,NaN,NaN,-0.02007128,0.8158994,-2.99616E-07,1.029255,-2.616581E-09,1.404554
618.7044,-0.01066223,0.0005142003,NaN,-1.299986,0.0004125166,NaN,0.4608799,-14.34708,NaN,-2.184539,-1.462184,-0.3890766,14.1069,NaN,NaN,-0.02007103,0.8155729,-3.014042E-07,1.028666,-5.304182E-10,1.407059
618.7193,-0.01066223,0.0005142003,NaN,-1.299986,0.0004125166,NaN,0.4608799,-14.34708,NaN,-2.184539,-1.462184,-0.3890766,14.1069,NaN,NaN,-0.02007103,0.8155729,-3.014042E-07,1.028666,-5.304182E-10,1.407059
618.7335,-0.01015667,0.0005146856,NaN,-1.320345,0.0004122763,NaN,0.4612874,-14.34703,NaN,-2.184656,-1.475982,-0.3899283,14.12153,NaN,NaN,-0.02007126,0.816045,-3.079607E-07,1.048782,-3.212627E-09,1.41094
618.7491,-0.009657232,0.0005149509,NaN,-1.341019,0.0004130524,NaN,0.461731,-14.34759,NaN,-2.184758,-1.463009,-0.3907299,14.10779,NaN,NaN,-0.02007129,0.8152736,-3.11537E-07,1.029858,-3.212627E-09,1.410007
618.7642,-0.009161555,0.0005148898,NaN,-1.361797,0.0004134582,NaN,0.4621955,-14.34796,NaN,-2.184776,-1.46285,-0.3914616,14.10767,NaN,NaN,-0.02007113,0.8149033,-3.151132E-07,1.02964,-4.40472E-09,1.40983
618.7791,-0.009161555,0.0005148898,NaN,-1.361797,0.0004134582,NaN,0.4621955,-14.34796,NaN,-2.184776,-1.46285,-0.3914616,14.10767,NaN,NaN,-0.02007113,0.8149033,-3.151132E-07,1.02964,-4.40472E-09,1.40983
618.7936,-0.008493713,0.0005144291,NaN,-1.369939,0.000413579,NaN,0.4635499,-14.34761,NaN,-2.181227,-1.462816,-0.3882647,14.10757,NaN,NaN,-0.02006231,0.8152494,-2.108051E-07,1.029572,-9.173092E-09,1.407672
618.8091,-0.007761745,0.0005145137,NaN,-1.370251,0.0004131483,NaN,0.4641524,-14.34858,NaN,-2.177659,-1.475065,-0.3852553,14.1207,NaN,NaN,-0.02005658,0.8146405,-1.529886E-07,1.04747,-1.036518E-08,1.419593
618.8243,-0.006970499,0.000514297,NaN,-1.365769,0.0004132789,NaN,0.4642014,-14.34746,NaN,-2.174545,-1.463982,-0.3829525,14.10882,NaN,NaN,-0.02005257,0.8155649,-1.219942E-07,1.03129,-1.155728E-08,1.409313
618.8394,-0.006970499,0.000514297,NaN,-1.365769,0.0004132789,NaN,0.4642014,-14.34746,NaN,-2.174545,-1.463982,-0.3829525,14.10882,NaN,NaN,-0.02005257,0.8155649,-1.219942E-07,1.03129,-1.155728E-08,1.409313
618.8539,-0.006205782,0.0005143527,NaN,-1.358378,0.0004125272,NaN,0.4640932,-14.34801,NaN,-2.171936,-1.477709,-0.3811375,14.12346,NaN,NaN,-0.02004956,0.8154164,-1.023246E-07,1.051327,-9.173091E-09,1.417515
618.8691,-0.005497308,0.000514233,NaN,-1.349245,0.0004126563,NaN,0.4640021,-14.34666,NaN,-2.169749,-1.464592,-0.3796035,14.10937,NaN,NaN,-0.020047,0.8165734,-7.967488E-08,1.032161,-1.334542E-08,1.404382
618.8852,-0.004842223,0.0005146037,NaN,-1.339088,0.0004122192,NaN,0.4639697,-14.34671,NaN,-2.167879,-1.475605,-0.3782325,14.12107,NaN,NaN,-0.02004464,0.8168352,-6.596581E-08,1.048229,-1.155728E-08,1.407561
618.8991,-0.004842223,0.0005146037,NaN,-1.339088,0.0004122192,NaN,0.4639697,-14.34671,NaN,-2.167879,-1.475605,-0.3782325,14.12107,NaN,NaN,-0.02004464,0.8168352,-6.596581E-08,1.048229,-1.155728E-08,1.407561
618.9135,-0.004228257,0.0005144117,NaN,-1.328346,0.0004118806,NaN,0.4639893,-14.34726,NaN,-2.166237,-1.467431,-0.3769648,14.11241,NaN,NaN,-0.02004237,0.8161528,-5.225674E-08,1.036291,-8.577044E-09,1.408775
618.929,-0.003643529,0.0005140851,NaN,-1.317293,0.0004120226,NaN,0.4640442,-14.34768,NaN,-2.164757,-1.463433,-0.3757702,14.10819,NaN,NaN,-0.02004018,0.8156391,-3.735558E-08,1.030459,-8.577044E-09,1.40919
618.9442,-0.003079135,0.0005143781,NaN,-1.306096,0.0004120427,NaN,0.4641277,-14.34907,NaN,-2.163392,-1.47157,-0.374642,14.117,NaN,NaN,-0.02003809,0.8145042,-2.126233E-08,1.042373,-1.215332E-08,1.422039
618.959,-0.003079135,0.0005143781,NaN,-1.306096,0.0004120427,NaN,0.4641277,-14.34907,NaN,-2.163392,-1.47157,-0.374642,14.117,NaN,NaN,-0.02003809,0.8145042,-2.126233E-08,1.042373,-1.215332E-08,1.422039
618.9733,-0.002529046,0.0005146083,NaN,-1.294858,0.0004126468,NaN,0.464231,-14.34781,NaN,-2.162112,-1.464445,-0.3735599,14.10929,NaN,NaN,-0.02003604,0.8156138,-6.957216E-09,1.031945,-1.036518E-08,1.412437
618.9891,-0.001989377,0.0005148973,NaN,-1.283645,0.0004131658,NaN,0.4643441,-14.34779,NaN,-2.160895,-1.465886,-0.3725172,14.1108,NaN,NaN,-0.02003406,0.815685,8.539991E-09,1.03404,-1.036518E-08,1.411783
619.004,-0.00145768,0.0005149847,NaN,-1.272495,0.0004127017,NaN,0.4644606,-14.34926,NaN,-2.159728,-1.475245,-0.3715107,14.12092,NaN,NaN,-0.02003213,0.8144702,2.165301E-08,1.047743,-1.453751E-08,1.424101
619.0191,-0.00145768,0.0005149847,NaN,-1.272495,0.0004127017,NaN,0.4644606,-14.34926,NaN,-2.159728,-1.475245,-0.3715107,14.12092,NaN,NaN,-0.02003213,0.8144702,2.165301E-08,1.047743,-1.453751E-08,1.424101
619.0336,-0.0009324152,0.0005151437,NaN,-1.261433,0.0004130798,NaN,0.4638547,-14.34774,NaN,-2.15852,-1.466546,-0.3696361,14.11151,NaN,NaN,-0.02002753,0.8158295,7.529719E-08,1.035023,-1.096123E-08,1.413098
619.0494,-0.0004126665,0.0005151401,NaN,-1.250473,0.0004134651,NaN,0.4624218,-14.34814,NaN,-2.157333,-1.464116,-0.3679284,14.10897,NaN,NaN,-0.02002344,0.815361,1.24173E-07,1.031484,-1.096123E-08,1.414104
619.0641,0.0001021301,0.000515268,NaN,-1.239624,0.0004139277,NaN,0.4605384,-14.34895,NaN,-2.156195,-1.464554,-0.3664625,14.10953,NaN,NaN,-0.02002005,0.8145597,1.635121E-07,1.03215,-1.215332E-08,1.419381
619.0804,0.0006123177,0.0005152287,NaN,-1.22889,0.0004143221,NaN,0.4584543,-14.34866,NaN,-2.155109,-1.463517,-0.365155,14.10838,NaN,NaN,-0.0200171,0.8148124,1.951025E-07,1.030622,-9.769137E-09,1.416465
619.0943,0.0006123177,0.0005152287,NaN,-1.22889,0.0004143221,NaN,0.4584543,-14.34866,NaN,-2.155109,-1.463517,-0.365155,14.10838,NaN,NaN,-0.0200171,0.8148124,1.951025E-07,1.030622,-9.769137E-09,1.416465
619.1085,0.001118121,0.0005148285,NaN,-1.218274,0.0004144306,NaN,0.455564,-14.34871,NaN,-2.153987,-1.463803,-0.3630408,14.10868,NaN,NaN,-0.02001168,0.8147629,2.66032E-07,1.031035,-1.036518E-08,1.414008
619.1241,0.00161964,0.0005146174,NaN,-1.207776,0.0004148857,NaN,0.4518279,-14.34907,NaN,-2.152893,-1.462904,-0.3611323,14.10777,NaN,NaN,-0.02000689,0.8143762,3.256367E-07,1.029737,-9.769137E-09,1.419991
619.139,0.00161964,0.0005146174,NaN,-1.207776,0.0004148857,NaN,0.4518279,-14.34907,NaN,-2.152893,-1.462904,-0.3611323,14.10777,NaN,NaN,-0.02000689,0.8143762,3.256367E-07,1.029737,-9.769137E-09,1.419991
