JMolnar6/NonAnthroHands_User_Study/HandsLoggerWithURDF/tempdata/files/Reachy_JointMotion_gesture_10_50.csv
Time,r_shoulder,r_shoulder_x,r_upper_arm,r_forearm,r_wrist,r_wrist2hand,
959.0281,-0.2794248,0.0005632462,NaN,-0.5881101,0.0008048353,NaN,-0.2888905,-14.75448,NaN,-0.9793483,-1.471423,0.4134743,14.10504,NaN,NaN,-0.4875523,0.8161365,1.208026E-06,1.055132,-1.392751E-08,1.341256
959.0436,-0.2746147,0.0005630438,NaN,-0.5879683,0.000803972,NaN,-0.2903045,-14.75341,NaN,-0.977577,-1.468152,0.4156358,14.10141,NaN,NaN,-0.4874339,0.8170906,1.190145E-06,1.05031,-9.457166E-09,1.334514
959.0577,-0.2746147,0.0005630438,NaN,-0.5879683,0.000803972,NaN,-0.2903045,-14.75341,NaN,-0.977577,-1.468152,0.4156358,14.10141,NaN,NaN,-0.4874339,0.8170906,1.190145E-06,1.05031,-9.457166E-09,1.334514
959.072,-0.26965,0.0005638763,NaN,-0.5878201,0.0008033743,NaN,-0.2917886,-14.75475,NaN,-0.9757667,-1.477401,0.4177835,14.11145,NaN,NaN,-0.4873178,0.8160804,1.171071E-06,1.063887,-6.476934E-09,1.345274
959.0876,-0.2646131,0.0005652033,NaN,-0.5876688,0.0008025738,NaN,-0.2932741,-14.75372,NaN,-0.9739235,-1.48341,0.4199087,14.11771,NaN,NaN,-0.487204,0.8172601,1.149613E-06,1.072618,-5.880887E-09,1.340672
959.1027,-0.2595548,0.0005657244,NaN,-0.5875165,0.0008020668,NaN,-0.2947326,-14.75263,NaN,-0.9720601,-1.47419,0.4220065,14.10776,NaN,NaN,-0.4870924,0.8181617,1.135308E-06,1.059114,-1.005321E-08,1.330948
959.1177,-0.2595548,0.0005657244,NaN,-0.5875165,0.0008020668,NaN,-0.2947326,-14.75263,NaN,-0.9720601,-1.47419,0.4220065,14.10776,NaN,NaN,-0.4870924,0.8181617,1.135308E-06,1.059114,-1.005321E-08,1.330948
959.1322,-0.2548482,0.0005661011,NaN,-0.5873779,0.0008018824,NaN,-0.2955357,-14.75297,NaN,-0.9701393,-1.472334,0.4233425,14.10582,NaN,NaN,-0.4870289,0.8177789,1.10789E-06,1.056417,-1.124531E-08,1.334005
959.1476,-0.2503788,0.0005662548,NaN,-0.5872485,0.0008012038,NaN,-0.2962048,-14.75366,NaN,-0.9682758,-1.471653,0.4246332,14.10518,NaN,NaN,-0.4869667,0.8170756,1.082856E-06,1.055453,-1.422554E-08,1.333573
959.1627,-0.2460756,0.0005662927,NaN,-0.5871254,0.0008008219,NaN,-0.2968107,-14.75347,NaN,-0.9664692,-1.467923,0.4258881,14.10118,NaN,NaN,-0.4869057,0.817142,1.061399E-06,1.049998,-1.958995E-08,1.333972
959.1774,-0.2460756,0.0005662927,NaN,-0.5871254,0.0008008219,NaN,-0.2968107,-14.75347,NaN,-0.9664692,-1.467923,0.4258881,14.10118,NaN,NaN,-0.4869057,0.817142,1.061399E-06,1.049998,-1.958995E-08,1.333972
959.192,-0.2422356,0.0005658015,NaN,-0.5870203,0.0008011636,NaN,-0.2967646,-14.75345,NaN,-0.9646623,-1.466869,0.4263841,14.10006,NaN,NaN,-0.4868918,0.8171304,1.031596E-06,1.048457,-1.899391E-08,1.334833
959.2075,-0.2386976,0.000566414,NaN,-0.5869268,0.0008013663,NaN,-0.296605,-14.75473,NaN,-0.9629519,-1.476276,0.4268393,14.11025,NaN,NaN,-0.4868782,0.8162039,1.00537E-06,1.062263,-1.601368E-08,1.345423
959.2227,-0.2353611,0.0005668344,NaN,-0.5868407,0.0008021056,NaN,-0.2964069,-14.75423,NaN,-0.9613239,-1.468615,0.4272681,14.10204,NaN,NaN,-0.4868648,0.8164989,9.862968E-07,1.051064,-1.958995E-08,1.33987
959.2376,-0.2353611,0.0005668344,NaN,-0.5868407,0.0008021056,NaN,-0.2964069,-14.75423,NaN,-0.9613239,-1.468615,0.4272681,14.10204,NaN,NaN,-0.4868648,0.8164989,9.862968E-07,1.051064,-1.958995E-08,1.33987
959.2518,-0.2321636,0.0005666091,NaN,-0.5867597,0.0008026456,NaN,-0.2962006,-14.75315,NaN,-0.9597601,-1.466905,0.4276786,14.10007,NaN,NaN,-0.4868518,0.8175163,9.660312E-07,1.048512,-2.137809E-08,1.331422
959.2674,-0.2294077,0.0005670256,NaN,-0.5866958,0.0008024656,NaN,-0.2953752,-14.75459,NaN,-0.9581966,-1.476823,0.4273491,14.11084,NaN,NaN,-0.4868848,0.8164536,9.398051E-07,1.063081,-2.614647E-08,1.343208
959.2824,-0.2269356,0.0005680905,NaN,-0.5866425,0.0008020277,NaN,-0.2944614,-14.75301,NaN,-0.9567285,-1.482558,0.4269936,14.11675,NaN,NaN,-0.4869172,0.8181766,9.171554E-07,1.071395,-2.435833E-08,1.33617
959.2972,-0.2269356,0.0005680905,NaN,-0.5866425,0.0008020277,NaN,-0.2944614,-14.75301,NaN,-0.9567285,-1.482558,0.4269936,14.11675,NaN,NaN,-0.4869172,0.8181766,9.171554E-07,1.071395,-2.435833E-08,1.33617
959.3136,-0.2246492,0.0005680839,NaN,-0.586596,0.0008020707,NaN,-0.2935289,-14.75237,NaN,-0.9553406,-1.477028,0.426627,14.11077,NaN,NaN,-0.4869489,0.8186985,8.945056E-07,1.063284,-2.257019E-08,1.329693
959.327,-0.2224872,0.0005679477,NaN,-0.5865537,0.0008030887,NaN,-0.2926054,-14.75253,NaN,-0.9540148,-1.472687,0.4262571,14.10614,NaN,NaN,-0.4869801,0.81843,8.766242E-07,1.056936,-2.137809E-08,1.331796
959.342,-0.2207531,0.000567214,NaN,-0.5865279,0.0008039623,NaN,-0.2910759,-14.75263,NaN,-0.9526874,-1.467838,0.4251626,14.10097,NaN,NaN,-0.4870565,0.8181882,8.527824E-07,1.049844,-2.197414E-08,1.328493
959.3566,-0.2207531,0.000567214,NaN,-0.5865279,0.0008039623,NaN,-0.2910759,-14.75263,NaN,-0.9526874,-1.467838,0.4251626,14.10097,NaN,NaN,-0.4870565,0.8181882,8.527824E-07,1.049844,-2.197414E-08,1.328493
959.371,-0.21929,0.0005668955,NaN,-0.5865121,0.0008049834,NaN,-0.2894733,-14.75329,NaN,-0.9514536,-1.467013,0.4240552,14.10018,NaN,NaN,-0.4871314,0.8175003,8.301326E-07,1.04867,-2.137809E-08,1.332408
959.3866,-0.218,0.000566008,NaN,-0.5865024,0.000805645,NaN,-0.2878666,-14.75299,NaN,-0.9502985,-1.466822,0.4229503,14.09993,NaN,NaN,-0.4872048,0.8177932,8.122512E-07,1.048371,-2.197414E-08,1.329577
959.4033,-0.2168223,0.0005659978,NaN,-0.5864965,0.0008069822,NaN,-0.2862829,-14.75374,NaN,-0.949204,-1.466624,0.4218555,14.09982,NaN,NaN,-0.4872768,0.817037,7.931777E-07,1.04812,-1.958995E-08,1.335303
959.4169,-0.2168223,0.0005659978,NaN,-0.5864965,0.0008069822,NaN,-0.2862829,-14.75374,NaN,-0.949204,-1.466624,0.4218555,14.09982,NaN,NaN,-0.4872768,0.817037,7.931777E-07,1.04812,-1.958995E-08,1.335303
959.4312,-0.2160607,0.0005660753,NaN,-0.5865057,0.0008080348,NaN,-0.2841046,-14.75387,NaN,-0.9481061,-1.466106,0.4200485,14.09928,NaN,NaN,-0.4873933,0.8168923,7.717201E-07,1.047368,-2.0186E-08,1.335293
959.4468,-0.2155583,0.0005663749,NaN,-0.586524,0.0008074993,NaN,-0.2818672,-14.75488,NaN,-0.9471001,-1.47975,0.4182411,14.11394,NaN,NaN,-0.4875074,0.8164042,7.526466E-07,1.067342,-2.316623E-08,1.342904
959.4616,-0.2152177,0.0005659139,NaN,-0.5865474,0.0008077808,NaN,-0.2796395,-14.75325,NaN,-0.9461713,-1.46916,0.4164487,14.10248,NaN,NaN,-0.4876194,0.8177782,7.371494E-07,1.051826,-2.614647E-08,1.332293
959.4765,-0.2152177,0.0005659139,NaN,-0.5865474,0.0008077808,NaN,-0.2796395,-14.75325,NaN,-0.9461713,-1.46916,0.4164487,14.10248,NaN,NaN,-0.4876194,0.8177782,7.371494E-07,1.051826,-2.614647E-08,1.332293
959.491,-0.2153188,0.0005658576,NaN,-0.5865875,0.0008077217,NaN,-0.2768199,-14.75439,NaN,-0.9452525,-1.47292,0.4139504,14.10664,NaN,NaN,-0.487775,0.8167703,7.133075E-07,1.057377,-2.793461E-08,1.339293
959.5064,-0.2156912,0.0005659327,NaN,-0.5866373,0.0008081417,NaN,-0.273954,-14.75334,NaN,-0.9444354,-1.468499,0.4114608,14.1018,NaN,NaN,-0.4879275,0.817677,6.942341E-07,1.050874,-2.793461E-08,1.332241
959.5214,-0.2162285,0.0005663963,NaN,-0.5866925,0.0008081934,NaN,-0.2711125,-14.7547,NaN,-0.9437013,-1.474779,0.4089966,14.10868,NaN,NaN,-0.4880771,0.816549,6.739685E-07,1.06012,-3.210693E-08,1.342067
959.5362,-0.2162285,0.0005663963,NaN,-0.5866925,0.0008081934,NaN,-0.2711125,-14.7547,NaN,-0.9437013,-1.474779,0.4089966,14.10868,NaN,NaN,-0.4880771,0.816549,6.739685E-07,1.06012,-3.210693E-08,1.342067
959.5505,-0.2168648,0.0005659124,NaN,-0.5867504,0.0008084782,NaN,-0.2683221,-14.75325,NaN,-0.9430296,-1.468532,0.406566,14.10184,NaN,NaN,-0.4882237,0.8178115,6.596634E-07,1.050939,-3.210693E-08,1.331687
959.5663,-0.2179008,0.0005658088,NaN,-0.5868233,0.0008091393,NaN,-0.26496,-14.75387,NaN,-0.9423534,-1.467474,0.4034421,14.1008,NaN,NaN,-0.4884132,0.8171667,6.322452E-07,1.049424,-3.031879E-08,1.335236
959.5812,-0.2191777,0.000566761,NaN,-0.5869044,0.000809295,NaN,-0.2615674,-14.7543,NaN,-0.9417681,-1.480741,0.400341,14.11498,NaN,NaN,-0.4885991,0.8172165,6.084034E-07,1.068822,-2.853066E-08,1.341254
959.5963,-0.2191777,0.000566761,NaN,-0.5869044,0.000809295,NaN,-0.2615674,-14.7543,NaN,-0.9417681,-1.480741,0.400341,14.11498,NaN,NaN,-0.4885991,0.8172165,6.084034E-07,1.068822,-2.853066E-08,1.341254
959.6106,-0.2205968,0.000568136,NaN,-0.5869898,0.000809386,NaN,-0.2582113,-14.75476,NaN,-0.9412578,-1.483523,0.3972781,14.118,NaN,NaN,-0.4887813,0.8168266,5.893299E-07,1.072903,-2.91267E-08,1.344225
959.6263,-0.222097,0.0005687142,NaN,-0.5870772,0.0008102838,NaN,-0.2549166,-14.75332,NaN,-0.9408042,-1.470232,0.3942603,14.10369,NaN,NaN,-0.4889599,0.8180099,5.714485E-07,1.053451,-2.853066E-08,1.333095
959.6414,-0.2239819,0.000568526,NaN,-0.5871789,0.0008110832,NaN,-0.2510575,-14.75395,NaN,-0.9403411,-1.46858,0.3905559,14.102,NaN,NaN,-0.4891809,0.8173507,5.476067E-07,1.051065,-2.733856E-08,1.334385
959.6563,-0.2239819,0.000568526,NaN,-0.5871789,0.0008110832,NaN,-0.2510575,-14.75395,NaN,-0.9403411,-1.46858,0.3905559,14.102,NaN,NaN,-0.4891809,0.8173507,5.476067E-07,1.051065,-2.733856E-08,1.334385
959.6706,-0.2260946,0.0005684351,NaN,-0.5872881,0.0008118067,NaN,-0.2471794,-14.75431,NaN,-0.9399651,-1.467531,0.3868859,14.10093,NaN,NaN,-0.4893975,0.8169618,5.297253E-07,1.049548,-2.91267E-08,1.337139
959.6862,-0.2283378,0.0005672575,NaN,-0.5874009,0.0008115447,NaN,-0.2433483,-14.7538,NaN,-0.9396614,-1.466713,0.3832644,14.09998,NaN,NaN,-0.4896099,0.8174488,5.13036E-07,1.048326,-2.853066E-08,1.334818
959.701,-0.2306509,0.0005668135,NaN,-0.5875152,0.0008111142,NaN,-0.2395889,-14.75523,NaN,-0.9394121,-1.473198,0.3796981,14.10709,NaN,NaN,-0.489818,0.8162807,4.975388E-07,1.057876,-2.614647E-08,1.345054
959.7173,-0.2306509,0.0005668135,NaN,-0.5875152,0.0008111142,NaN,-0.2395889,-14.75523,NaN,-0.9394121,-1.473198,0.3796981,14.10709,NaN,NaN,-0.489818,0.8162807,4.975388E-07,1.057876,-2.614647E-08,1.345054
959.7303,-0.2333383,0.0005664456,NaN,-0.5876432,0.0008098487,NaN,-0.2352727,-14.75521,NaN,-0.9391503,-1.477106,0.3754499,14.11125,NaN,NaN,-0.490068,0.8164226,4.701207E-07,1.06358,-2.435833E-08,1.345247
959.7458,-0.2362435,0.0005651977,NaN,-0.5877782,0.000808831,NaN,-0.2309491,-14.75444,NaN,-0.9389734,-1.467561,0.3712466,14.101,NaN,NaN,-0.490313,0.8169388,4.498551E-07,1.049618,-2.257019E-08,1.339489
959.7607,-0.2392693,0.000564232,NaN,-0.5879163,0.0008086435,NaN,-0.2266831,-14.75425,NaN,-0.9388669,-1.472999,0.3671018,14.10677,NaN,NaN,-0.4905531,0.8173253,4.319737E-07,1.057553,-2.435833E-08,1.33885
959.7755,-0.2392693,0.000564232,NaN,-0.5879163,0.0008086435,NaN,-0.2266831,-14.75425,NaN,-0.9388669,-1.472999,0.3671018,14.10677,NaN,NaN,-0.4905531,0.8173253,4.319737E-07,1.057553,-2.435833E-08,1.33885
959.7901,-0.2426973,0.0005637155,NaN,-0.588069,0.0008089732,NaN,-0.2218611,-14.75449,NaN,-0.9387606,-1.467734,0.362276,14.10119,NaN,NaN,-0.4908344,0.8169342,4.093239E-07,1.049877,-2.495438E-08,1.33937
959.8059,-0.2463569,0.0005627704,NaN,-0.5882288,0.0008090787,NaN,-0.2170433,-14.75452,NaN,-0.9387484,-1.46802,0.3575036,14.1015,NaN,NaN,-0.4911102,0.8169087,3.866741E-07,1.050298,-2.674252E-08,1.337814
959.8207,-0.2501421,0.0005621571,NaN,-0.5883916,0.0008093136,NaN,-0.2122959,-14.75482,NaN,-0.9388124,-1.466901,0.3527984,14.10035,NaN,NaN,-0.4913805,0.8165753,3.664085E-07,1.048681,-2.316624E-08,1.339031
959.8364,-0.2501421,0.0005621571,NaN,-0.5883916,0.0008093136,NaN,-0.2122959,-14.75482,NaN,-0.9388124,-1.466901,0.3527984,14.10035,NaN,NaN,-0.4913805,0.8165753,3.664085E-07,1.048681,-2.316624E-08,1.339031
959.85,-0.2539873,0.0005609751,NaN,-0.588555,0.0008094565,NaN,-0.2076434,-14.75472,NaN,-0.9389323,-1.466284,0.3481669,14.09968,NaN,NaN,-0.4916455,0.8166467,3.47335E-07,1.047776,-2.0186E-08,1.337516
959.867,-0.2581938,0.000559483,NaN,-0.5887315,0.0008095373,NaN,-0.2024517,-14.7547,NaN,-0.9390383,-1.466136,0.3428604,14.09952,NaN,NaN,-0.491951,0.8166572,3.21109E-07,1.047559,-1.780182E-08,1.337371
959.8809,-0.2626033,0.0005592151,NaN,-0.588914,0.0008087429,NaN,-0.1972774,-14.75497,NaN,-0.9392274,-1.480181,0.3376197,14.1145,NaN,NaN,-0.4922506,0.8169144,2.996513E-07,1.068074,-1.780182E-08,1.342549
959.8956,-0.2626033,0.0005592151,NaN,-0.588914,0.0008087429,NaN,-0.1972774,-14.75497,NaN,-0.9392274,-1.480181,0.3376197,14.1145,NaN,NaN,-0.4922506,0.8169144,2.996513E-07,1.068074,-1.780182E-08,1.342549
959.9119,-0.2671173,0.0005600267,NaN,-0.5890988,0.0008080038,NaN,-0.1921825,-14.75345,NaN,-0.9394847,-1.481814,0.3324564,14.11606,NaN,NaN,-0.4925443,0.8184483,2.805778E-07,1.070411,-1.720577E-08,1.335837
959.9253,-0.2716751,0.0005595103,NaN,-0.5892835,0.0008066513,NaN,-0.1871899,-14.75365,NaN,-0.9397922,-1.474209,0.3273761,14.10795,NaN,NaN,-0.4928322,0.8180726,2.57928E-07,1.059288,-1.422554E-08,1.330795
959.9406,-0.2765812,0.0005599087,NaN,-0.5894809,0.0008060811,NaN,-0.1816627,-14.75308,NaN,-0.9400809,-1.474902,0.3216219,14.10863,NaN,NaN,-0.4931602,0.8186464,2.305099E-07,1.060284,-1.24374E-08,1.332974
959.9551,-0.2765812,0.0005599087,NaN,-0.5894809,0.0008060811,NaN,-0.1816627,-14.75308,NaN,-0.9400809,-1.474902,0.3216219,14.10863,NaN,NaN,-0.4931602,0.8186464,2.305099E-07,1.060284,-1.24374E-08,1.332974
959.9694,-0.2816789,0.0005593986,NaN,-0.5896839,0.0008058636,NaN,-0.1761619,-14.75368,NaN,-0.940449,-1.468943,0.3159434,14.10234,NaN,NaN,-0.4934817,0.8178701,2.078601E-07,1.051594,-1.422554E-08,1.32987
959.985,-0.2868711,0.0005591173,NaN,-0.5898888,0.0008060533,NaN,-0.1707485,-14.75371,NaN,-0.9408826,-1.467203,0.3103508,14.10048,NaN,NaN,-0.4937969,0.8177697,1.887866E-07,1.049054,-1.362949E-08,1.33453
960.0002,-0.2920979,0.0005577951,NaN,-0.5900933,0.0008053598,NaN,-0.1654447,-14.75332,NaN,-0.9413643,-1.466542,0.3048492,14.09972,NaN,NaN,-0.4941058,0.8181225,1.685211E-07,1.048068,-1.303345E-08,1.331779
960.0154,-0.2920979,0.0005577951,NaN,-0.5900933,0.0008053598,NaN,-0.1654447,-14.75332,NaN,-0.9413643,-1.466542,0.3048492,14.09972,NaN,NaN,-0.4941058,0.8181225,1.685211E-07,1.048068,-1.303345E-08,1.331779
960.0297,-0.2976644,0.0005562207,NaN,-0.5903101,0.0008048797,NaN,-0.1596117,-14.75349,NaN,-0.9418247,-1.466176,0.2986735,14.09936,NaN,NaN,-0.4944545,0.8179306,1.446792E-07,1.047544,-1.541763E-08,1.332062
960.0453,-0.3034141,0.0005558946,NaN,-0.5905322,0.0008053168,NaN,-0.1538142,-14.75454,NaN,-0.9423623,-1.469206,0.2925828,14.10274,NaN,NaN,-0.4947963,0.816993,1.172611E-07,1.052029,-1.601368E-08,1.340103
960.0602,-0.3092503,0.0005555568,NaN,-0.5907557,0.0008057147,NaN,-0.148112,-14.75372,NaN,-0.9429638,-1.465987,0.2865861,14.0992,NaN,NaN,-0.4951314,0.8176925,9.818758E-08,1.047289,-1.303345E-08,1.333348
960.0751,-0.3092503,0.0005555568,NaN,-0.5907557,0.0008057147,NaN,-0.148112,-14.75372,NaN,-0.9429638,-1.465987,0.2865861,14.0992,NaN,NaN,-0.4951314,0.8176925,9.818758E-08,1.047289,-1.303345E-08,1.333348
960.0895,-0.3154554,0.0005543894,NaN,-0.5909923,0.0008055218,NaN,-0.1418812,-14.75346,NaN,-0.9435568,-1.466069,0.2799143,14.09925,NaN,NaN,-0.4955057,0.8179417,7.076945E-08,1.047395,-1.184135E-08,1.332219
960.1049,-0.3218588,0.0005542869,NaN,-0.5912343,0.0008045218,NaN,-0.135696,-14.75383,NaN,-0.9442363,-1.480258,0.2733353,14.11443,NaN,NaN,-0.4958725,0.8181103,4.45434E-08,1.068155,-1.124531E-08,1.338299
960.121,-0.3283548,0.0005536593,NaN,-0.5914776,0.0008043327,NaN,-0.1296175,-14.75327,NaN,-0.9449857,-1.471802,0.2668582,14.10534,NaN,NaN,-0.4962322,0.8184602,2.308573E-08,1.05577,-1.005322E-08,1.333701
960.1349,-0.3283548,0.0005536593,NaN,-0.5914776,0.0008043327,NaN,-0.1296175,-14.75327,NaN,-0.9449857,-1.471802,0.2668582,14.10534,NaN,NaN,-0.4962322,0.8184602,2.308573E-08,1.05577,-1.005322E-08,1.333701
960.149,-0.3348783,0.000553534,NaN,-0.59172,0.0008051397,NaN,-0.123667,-14.75386,NaN,-0.9457855,-1.466388,0.2604877,14.09963,NaN,NaN,-0.4965847,0.8177046,2.820151E-09,1.047877,-7.66903E-09,1.334881
960.1647,-0.3417315,0.0005545566,NaN,-0.5919744,0.0008055365,NaN,-0.1172017,-14.75463,NaN,-0.9465637,-1.479908,0.2534435,14.11415,NaN,NaN,-0.496976,0.817444,-2.579008E-08,1.067674,-3.496705E-09,1.342757
960.1795,-0.3417315,0.0005545566,NaN,-0.5919744,0.0008055365,NaN,-0.1172017,-14.75463,NaN,-0.9465637,-1.479908,0.2534435,14.11415,NaN,NaN,-0.496976,0.817444,-2.579008E-08,1.067674,-3.496705E-09,1.342757
960.194,-0.3487559,0.0005556456,NaN,-0.5922332,0.0008051883,NaN,-0.110792,-14.75471,NaN,-0.947418,-1.483525,0.2465024,14.11801,NaN,NaN,-0.4973596,0.8174438,-5.678449E-08,1.072962,-1.708565E-09,1.344209
960.2094,-0.3558535,0.0005564791,NaN,-0.5924929,0.0008058752,NaN,-0.1044951,-14.75308,NaN,-0.9483347,-1.4743,0.2396716,14.10799,NaN,NaN,-0.4977356,0.818889,-8.301053E-08,1.059431,-1.708565E-09,1.334063
960.2246,-0.362964,0.0005558073,NaN,-0.5927514,0.0008052993,NaN,-0.09833098,-14.75367,NaN,-0.9492965,-1.471457,0.2329549,14.10503,NaN,NaN,-0.4981043,0.8182169,-1.068524E-07,1.0553,-5.164725E-10,1.335226
960.2395,-0.362964,0.0005558073,NaN,-0.5927514,0.0008052993,NaN,-0.09833098,-14.75367,NaN,-0.9492965,-1.471457,0.2329549,14.10503,NaN,NaN,-0.4981043,0.8182169,-1.068524E-07,1.0553,-5.164725E-10,1.335226
960.2538,-0.3703927,0.0005560273,NaN,-0.5930215,0.000806415,NaN,-0.09165476,-14.75396,NaN,-0.9502327,-1.466873,0.2255623,14.10017,NaN,NaN,-0.4985114,0.8177835,-1.438073E-07,1.04861,1.271667E-09,1.338391
960.2693,-0.3779829,0.0005562794,NaN,-0.5932958,0.0008073851,NaN,-0.0850405,-14.7545,NaN,-0.9512416,-1.467053,0.2182809,14.10044,NaN,NaN,-0.4989105,0.8172573,-1.700333E-07,1.048903,6.040038E-09,1.338366
960.2845,-0.3856377,0.0005565878,NaN,-0.5935707,0.0008084317,NaN,-0.07854445,-14.75472,NaN,-0.9523108,-1.466499,0.2111171,14.09988,NaN,NaN,-0.4993017,0.817021,-1.986435E-07,1.048106,6.636085E-09,1.340935
960.2992,-0.3856377,0.0005565878,NaN,-0.5935707,0.0008084317,NaN,-0.07854445,-14.75472,NaN,-0.9523108,-1.466499,0.2111171,14.09988,NaN,NaN,-0.4993017,0.817021,-1.986435E-07,1.048106,6.636085E-09,1.340935
960.3157,-0.3936402,0.0005568342,NaN,-0.5938579,0.0008089621,NaN,-0.07153639,-14.75523,NaN,-0.9533672,-1.4687,0.2032759,14.10229,NaN,NaN,-0.4997309,0.816596,-2.367905E-07,1.051347,5.742015E-09,1.340961
960.3292,-0.4018196,0.0005576312,NaN,-0.5941495,0.0008101469,NaN,-0.06459904,-14.75574,NaN,-0.9545056,-1.471039,0.1955534,14.10484,NaN,NaN,-0.5001517,0.8161675,-2.713612E-07,1.054787,8.1262E-09,1.350744
960.3458,-0.4100705,0.0005585722,NaN,-0.5944415,0.000810036,NaN,-0.05778983,-14.75507,NaN,-0.9557105,-1.48224,0.187956,14.11666,NaN,NaN,-0.5005642,0.8171887,-2.981833E-07,1.0711,5.443991E-09,1.344639
960.3589,-0.4100705,0.0005585722,NaN,-0.5944415,0.000810036,NaN,-0.05778983,-14.75507,NaN,-0.9557105,-1.48224,0.187956,14.11666,NaN,NaN,-0.5005642,0.8171887,-2.981833E-07,1.0711,5.443991E-09,1.344639
960.3734,-0.4183278,0.0005590392,NaN,-0.5947319,0.0008108762,NaN,-0.05112801,-14.75565,NaN,-0.9569629,-1.4696,0.1804866,14.10325,NaN,NaN,-0.5009685,0.8163452,-3.261975E-07,1.052651,3.059805E-09,1.343204
960.3891,-0.4268946,0.0005591534,NaN,-0.5950335,0.0008114215,NaN,-0.04396558,-14.75479,NaN,-0.9581906,-1.466321,0.1723383,14.09964,NaN,NaN,-0.5014105,0.8170889,-3.631523E-07,1.047823,3.059805E-09,1.337047
960.4042,-0.4356121,0.000559497,NaN,-0.5953388,0.0008126557,NaN,-0.03688149,-14.75526,NaN,-0.9594903,-1.465771,0.1643175,14.09912,NaN,NaN,-0.5018439,0.816597,-3.97723E-07,1.047044,5.145968E-09,1.340454
960.4193,-0.4356121,0.000559497,NaN,-0.5953388,0.0008126557,NaN,-0.03688149,-14.75526,NaN,-0.9594903,-1.465771,0.1643175,14.09912,NaN,NaN,-0.5018439,0.816597,-3.97723E-07,1.047044,5.145968E-09,1.340454
960.4338,-0.4443827,0.0005597819,NaN,-0.5956442,0.0008134095,NaN,-0.02992962,-14.75598,NaN,-0.9608495,-1.467514,0.1564291,14.10107,NaN,NaN,-0.5022687,0.8159448,-4.269293E-07,1.049625,3.357829E-09,1.344145
960.4493,-0.453146,0.0005608572,NaN,-0.5959477,0.000813854,NaN,-0.02312792,-14.75628,NaN,-0.9622515,-1.478816,0.1486749,14.11312,NaN,NaN,-0.5026851,0.816043,-4.603079E-07,1.066125,7.23213E-09,1.349784
960.4644,-0.4622082,0.0005606466,NaN,-0.5962622,0.0008141716,NaN,-0.01582707,-14.75482,NaN,-0.9636254,-1.468799,0.1402379,14.10229,NaN,NaN,-0.503139,0.8172582,-5.026272E-07,1.051458,7.23213E-09,1.339868
960.4795,-0.4622082,0.0005606466,NaN,-0.5962622,0.0008141716,NaN,-0.01582707,-14.75482,NaN,-0.9636254,-1.468799,0.1402379,14.10229,NaN,NaN,-0.503139,0.8172582,-5.026272E-07,1.051458,7.23213E-09,1.339868
960.4938,-0.4714125,0.0005598611,NaN,-0.5965803,0.0008145194,NaN,-0.008609029,-14.75501,NaN,-0.9650688,-1.466991,0.1319355,14.10039,NaN,NaN,-0.503584,0.8170089,-5.377939E-07,1.048823,9.616317E-09,1.338521
960.5102,-0.4806621,0.0005587409,NaN,-0.5968983,0.0008149805,NaN,-0.001526925,-14.75515,NaN,-0.9665697,-1.466234,0.1237719,14.0996,NaN,NaN,-0.5040202,0.8168329,-5.693844E-07,1.047722,8.1262E-09,1.33889
960.5241,-0.4898977,0.0005584262,NaN,-0.5972142,0.0008159915,NaN,0.005401711,-14.75571,NaN,-0.9681121,-1.466036,0.1157481,14.09946,NaN,NaN,-0.5044478,0.8162712,-6.045511E-07,1.04746,9.467304E-09,1.343282
960.5391,-0.4898977,0.0005584262,NaN,-0.5972142,0.0008159915,NaN,0.005401711,-14.75571,NaN,-0.9681121,-1.466036,0.1157481,14.09946,NaN,NaN,-0.5044478,0.8162712,-6.045511E-07,1.04746,9.467304E-09,1.343282
960.5533,-0.4994259,0.0005585954,NaN,-0.5975411,0.0008159156,NaN,0.01282731,-14.757,NaN,-0.9696261,-1.475872,0.1070368,14.1101,NaN,NaN,-0.5049127,0.815356,-6.516388E-07,1.06188,9.318293E-09,1.352181
960.569,-0.5090902,0.0005585148,NaN,-0.5978714,0.0008160673,NaN,0.02016524,-14.75541,NaN,-0.9712083,-1.467282,0.09846709,14.10078,NaN,NaN,-0.5053685,0.8167034,-6.945542E-07,1.049292,9.91434E-09,1.340649
960.584,-0.5187941,0.000557821,NaN,-0.5982013,0.0008150994,NaN,0.02736329,-14.75601,NaN,-0.9728473,-1.474491,0.09004218,14.10853,NaN,NaN,-0.5058152,0.8163686,-7.31509E-07,1.059844,1.140446E-08,1.346602
960.599,-0.5187941,0.000557821,NaN,-0.5982013,0.0008150994,NaN,0.02736329,-14.75601,NaN,-0.9728473,-1.474491,0.09004218,14.10853,NaN,NaN,-0.5058152,0.8163686,-7.31509E-07,1.059844,1.140446E-08,1.346602
960.6136,-0.5288216,0.0005581507,NaN,-0.5985427,0.0008138017,NaN,0.03505809,-14.75555,NaN,-0.9744716,-1.482104,0.0809278,14.11656,NaN,NaN,-0.5062989,0.8170463,-7.797888E-07,1.070938,9.318294E-09,1.344955
960.6292,-0.5390018,0.0005572893,NaN,-0.5988877,0.0008130047,NaN,0.04265745,-14.75489,NaN,-0.9761739,-1.472924,0.07196278,14.1067,NaN,NaN,-0.506773,0.8174994,-8.197239E-07,1.057503,9.467305E-09,1.337584
960.644,-0.5492295,0.0005564326,NaN,-0.5992321,0.0008126304,NaN,0.05010835,-14.75486,NaN,-0.9779398,-1.473327,0.06314991,14.10713,NaN,NaN,-0.5072377,0.81755,-8.578709E-07,1.05809,7.455649E-09,1.3389
960.6628,-0.5594399,0.0005559254,NaN,-0.5995741,0.0008127092,NaN,0.0573943,-14.75528,NaN,-0.9797514,-1.467561,0.05448957,14.10103,NaN,NaN,-0.5076934,0.8169553,-8.989981E-07,1.049684,1.006335E-08,1.338839
960.6739,-0.5594399,0.0005559254,NaN,-0.5995741,0.0008127092,NaN,0.0573943,-14.75528,NaN,-0.9797514,-1.467561,0.05448957,14.10103,NaN,NaN,-0.5076934,0.8169553,-8.989981E-07,1.049684,1.006335E-08,1.338839
960.6882,-0.5699369,0.0005558261,NaN,-0.5999268,0.0008133376,NaN,0.06516828,-14.75567,NaN,-0.9815383,-1.466987,0.04513539,14.10047,NaN,NaN,-0.5081857,0.8165454,-9.49066E-07,1.048865,8.200707E-09,1.342043
960.7039,-0.5805618,0.000555735,NaN,-0.6002825,0.0008137745,NaN,0.07284177,-14.75541,NaN,-0.9833943,-1.466776,0.03593785,14.10021,NaN,NaN,-0.5086684,0.8167992,-9.973458E-07,1.048542,8.535983E-09,1.340364
960.7188,-0.5805618,0.000555735,NaN,-0.6002825,0.0008137745,NaN,0.07284177,-14.75541,NaN,-0.9833943,-1.466776,0.03593785,14.10021,NaN,NaN,-0.5086684,0.8167992,-9.973458E-07,1.048542,8.535983E-09,1.340364
960.733,-0.5912168,0.0005555205,NaN,-0.6006374,0.0008138618,NaN,0.08036485,-14.75551,NaN,-0.9853075,-1.466674,0.02689855,14.10011,NaN,NaN,-0.5091416,0.81669,-1.040857E-06,1.048398,9.560438E-09,1.33764
960.7487,-0.601842,0.0005554709,NaN,-0.6009898,0.0008141916,NaN,0.0877221,-14.75608,NaN,-0.987262,-1.466312,0.01801703,14.0998,NaN,NaN,-0.5096054,0.8161052,-1.086157E-06,1.0479,6.82235E-09,1.340775
960.7639,-0.6127445,0.0005563477,NaN,-0.6013527,0.000814435,NaN,0.0955674,-14.75726,NaN,-0.9891901,-1.477255,0.008435764,14.11159,NaN,NaN,-0.5101059,0.8153455,-1.135032E-06,1.063926,6.151798E-09,1.35166
960.7787,-0.6127445,0.0005563477,NaN,-0.6013527,0.000814435,NaN,0.0955674,-14.75726,NaN,-0.9891901,-1.477255,0.008435764,14.11159,NaN,NaN,-0.5101059,0.8153455,-1.135032E-06,1.063926,6.151798E-09,1.35166
960.793,-0.6237672,0.0005573233,NaN,-0.6017185,0.0008139132,NaN,0.1033096,-14.7568,NaN,-0.9911852,-1.482614,-0.0009823525,14.11722,NaN,NaN,-0.5105965,0.8159365,-1.182716E-06,1.071724,6.971362E-09,1.349974
960.8099,-0.6348135,0.0005573866,NaN,-0.6020834,0.0008145732,NaN,0.1108994,-14.7561,NaN,-0.9932361,-1.477204,-0.01023663,14.11139,NaN,NaN,-0.5110775,0.8165149,-1.229208E-06,1.063805,4.438165E-09,1.344807
960.8237,-0.6458241,0.0005569892,NaN,-0.6024457,0.0008153601,NaN,0.1183219,-14.75563,NaN,-0.9953274,-1.471259,-0.01932812,14.105,NaN,NaN,-0.5115489,0.816826,-1.272719E-06,1.055107,6.598833E-09,1.34042
960.8388,-0.6458241,0.0005569892,NaN,-0.6024457,0.0008153601,NaN,0.1183219,-14.75563,NaN,-0.9953274,-1.471259,-0.01932812,14.105,NaN,NaN,-0.5115489,0.816826,-1.272719E-06,1.055107,6.598833E-09,1.34042
960.853,-0.6571069,0.00055765,NaN,-0.6028185,0.0008155885,NaN,0.1262315,-14.75714,NaN,-0.9973934,-1.479136,-0.02912555,14.11358,NaN,NaN,-0.5120569,0.8155758,-1.32994E-06,1.066677,1.062215E-08,1.350857
960.8685,-0.6685049,0.0005578403,NaN,-0.6031941,0.0008159965,NaN,0.134035,-14.75583,NaN,-0.9995257,-1.467667,-0.03875343,14.10124,NaN,NaN,-0.5125549,0.8166105,-1.385968E-06,1.049904,1.807273E-08,1.340379
960.8835,-0.6799217,0.0005577472,NaN,-0.6035687,0.0008159398,NaN,0.1416838,-14.75618,NaN,-1.001713,-1.468293,-0.04821194,14.10195,NaN,NaN,-0.513043,0.8162914,-1.437824E-06,1.050832,2.000988E-08,1.341244
960.8986,-0.6799217,0.0005577472,NaN,-0.6035687,0.0008159398,NaN,0.1416838,-14.75618,NaN,-1.001713,-1.468293,-0.04821194,14.10195,NaN,NaN,-0.513043,0.8162914,-1.437824E-06,1.050832,2.000988E-08,1.341244
960.9139,-0.6916423,0.0005571137,NaN,-0.6039543,0.0008163342,NaN,0.1498198,-14.756,NaN,-1.00389,-1.466583,-0.05837786,14.1001,NaN,NaN,-0.5135674,0.8164095,-1.497429E-06,1.048325,1.851976E-08,1.340653
960.9286,-0.7034956,0.0005575946,NaN,-0.6043426,0.0008159683,NaN,0.1578427,-14.75667,NaN,-1.006143,-1.479976,-0.068366,14.11443,NaN,NaN,-0.5140814,0.8162372,-1.553457E-06,1.067903,1.613557E-08,1.348766
960.9432,-0.7153762,0.0005568659,NaN,-0.6047298,0.0008155416,NaN,0.1657036,-14.75641,NaN,-1.008459,-1.467297,-0.07817717,14.10092,NaN,NaN,-0.5145853,0.8162144,-1.608293E-06,1.049388,2.358616E-08,1.344197
960.958,-0.7153762,0.0005568659,NaN,-0.6047298,0.0008155416,NaN,0.1657036,-14.75641,NaN,-1.008459,-1.467297,-0.07817717,14.10092,NaN,NaN,-0.5145853,0.8162144,-1.608293E-06,1.049388,2.358616E-08,1.344197
960.9724,-0.7272197,0.0005564594,NaN,-0.6051141,0.0008156786,NaN,0.1733885,-14.75608,NaN,-1.010819,-1.475138,-0.0878135,14.10921,NaN,NaN,-0.5150793,0.8168257,-1.658361E-06,1.060818,2.090395E-08,1.342507
960.988,-0.7393309,0.0005564574,NaN,-0.6055086,0.0008156797,NaN,0.181554,-14.75756,NaN,-1.013161,-1.472706,-0.09816395,14.10682,NaN,NaN,-0.5156094,0.8152785,-1.722734E-06,1.057334,2.269209E-08,1.349711
961.0031,-0.7515509,0.0005565495,NaN,-0.6059055,0.0008161704,NaN,0.1896035,-14.75648,NaN,-1.015571,-1.467382,-0.1083304,14.10103,NaN,NaN,-0.5161291,0.8161953,-1.784723E-06,1.049531,1.673162E-08,1.34387
961.0182,-0.7515509,0.0005565495,NaN,-0.6059055,0.0008161704,NaN,0.1896035,-14.75648,NaN,-1.015571,-1.467382,-0.1083304,14.10103,NaN,NaN,-0.5161291,0.8161953,-1.784723E-06,1.049531,1.673162E-08,1.34387
961.0325,-0.763782,0.0005569455,NaN,-0.606301,0.0008173007,NaN,0.1974907,-14.75659,NaN,-1.018038,-1.466694,-0.1183148,14.10032,NaN,NaN,-0.5166386,0.8160589,-1.841348E-06,1.048536,1.613558E-08,1.345898
961.0481,-0.7759643,0.0005572691,NaN,-0.6066936,0.0008183469,NaN,0.2052024,-14.75683,NaN,-1.020545,-1.46615,-0.1281198,14.09977,NaN,NaN,-0.5171381,0.8157989,-1.896184E-06,1.047757,1.881778E-08,1.346145
961.0632,-0.7884058,0.000558701,NaN,-0.6070964,0.0008190309,NaN,0.2133957,-14.75641,NaN,-1.023034,-1.480098,-0.1386459,14.11452,NaN,NaN,-0.5176736,0.8167337,-1.963537E-06,1.068076,1.25593E-08,1.34615
961.0781,-0.7884058,0.000558701,NaN,-0.6070964,0.0008190309,NaN,0.2133957,-14.75641,NaN,-1.023034,-1.480098,-0.1386459,14.11452,NaN,NaN,-0.5176736,0.8167337,-1.963537E-06,1.068076,1.25593E-08,1.34615
961.0923,-0.8009493,0.0005592608,NaN,-0.6075014,0.0008201909,NaN,0.2214718,-14.75678,NaN,-1.025589,-1.46698,-0.148982,14.1006,NaN,NaN,-0.5181985,0.8160604,-2.02493E-06,1.048934,1.106918E-08,1.345465
961.1097,-0.8134983,0.0005595614,NaN,-0.6079051,0.0008209755,NaN,0.229385,-14.757,NaN,-1.028198,-1.46675,-0.1591307,14.10038,NaN,NaN,-0.5187132,0.8158298,-2.084534E-06,1.048611,7.492902E-09,1.345623
961.1236,-0.8259935,0.0005604584,NaN,-0.6083059,0.0008208638,NaN,0.2371224,-14.75754,NaN,-1.030849,-1.480216,-0.1690954,14.11476,NaN,NaN,-0.5192178,0.8157885,-2.144139E-06,1.06828,9.877088E-09,1.352683
961.1374,-0.8259935,0.0005604584,NaN,-0.6083059,0.0008208638,NaN,0.2371224,-14.75754,NaN,-1.030849,-1.480216,-0.1690954,14.11476,NaN,NaN,-0.5192178,0.8157885,-2.144139E-06,1.06828,9.877088E-09,1.352683
961.1516,-0.8387437,0.0005605338,NaN,-0.6087167,0.0008207737,NaN,0.2453413,-14.75749,NaN,-1.033482,-1.473409,-0.1797883,14.10752,NaN,NaN,-0.5197583,0.8156777,-2.212684E-06,1.058347,1.464546E-08,1.348512
961.1672,-0.8515919,0.0005612613,NaN,-0.6091298,0.0008199685,NaN,0.2534412,-14.75708,NaN,-1.036182,-1.483083,-0.190285,14.11773,NaN,NaN,-0.5202882,0.8163682,-2.276461E-06,1.072436,1.166523E-08,1.34563
961.1821,-0.8644415,0.0005628667,NaN,-0.6095414,0.0008189586,NaN,0.2613773,-14.75654,NaN,-1.038936,-1.47117,-0.2005891,14.10499,NaN,NaN,-0.5208077,0.8166652,-2.339642E-06,1.055028,1.404941E-08,1.339461
961.1971,-0.8644415,0.0005628667,NaN,-0.6095414,0.0008189586,NaN,0.2613773,-14.75654,NaN,-1.038936,-1.47117,-0.2005891,14.10499,NaN,NaN,-0.5208077,0.8166652,-2.339642E-06,1.055028,1.404941E-08,1.339461
961.2114,-0.8775784,0.0005643262,NaN,-0.6099637,0.0008187355,NaN,0.2697946,-14.75674,NaN,-1.041689,-1.479784,-0.211622,14.11419,NaN,NaN,-0.521363,0.8167557,-2.41534E-06,1.067616,1.464546E-08,1.3426
961.2272,-0.8908312,0.0005648618,NaN,-0.6103882,0.0008186767,NaN,0.2780869,-14.75629,NaN,-1.044518,-1.472631,-0.2224495,14.10652,NaN,NaN,-0.5219072,0.8170255,-2.487462E-06,1.057156,2.000988E-08,1.338793
961.242,-0.9040945,0.0005650224,NaN,-0.6108111,0.0008186108,NaN,0.286209,-14.75658,NaN,-1.047409,-1.469193,-0.2330765,14.10289,NaN,NaN,-0.5224408,0.8166307,-2.554219E-06,1.052148,2.060592E-08,1.338191
961.2568,-0.9040945,0.0005650224,NaN,-0.6108111,0.0008186108,NaN,0.286209,-14.75658,NaN,-1.047409,-1.469193,-0.2330765,14.10289,NaN,NaN,-0.5224408,0.8166307,-2.554219E-06,1.052148,2.060592E-08,1.338191
961.2711,-0.9173041,0.0005657911,NaN,-0.6112306,0.0008205363,NaN,0.2941485,-14.75678,NaN,-1.050344,-1.467451,-0.2435075,14.10106,NaN,NaN,-0.522964,0.8163716,-2.619784E-06,1.049615,1.881778E-08,1.342556
961.2902,-0.9307657,0.0005662658,NaN,-0.6116601,0.0008220564,NaN,0.3025642,-14.7571,NaN,-1.053272,-1.466804,-0.2546756,14.10041,NaN,NaN,-0.5235229,0.816032,-2.693098E-06,1.048685,1.583755E-08,1.340812
961.303,-0.9443201,0.0005662973,NaN,-0.6120914,0.0008231223,NaN,0.3108535,-14.75667,NaN,-1.056268,-1.467521,-0.2656331,14.10111,NaN,NaN,-0.5240708,0.8164864,-2.764623E-06,1.049706,2.060592E-08,1.339643
961.3177,-0.9443201,0.0005662973,NaN,-0.6120914,0.0008231223,NaN,0.3108535,-14.75667,NaN,-1.056268,-1.467521,-0.2656331,14.10111,NaN,NaN,-0.5240708,0.8164864,-2.764623E-06,1.049706,2.060592E-08,1.339643
961.332,-0.9578695,0.000566168,NaN,-0.6125211,0.0008227356,NaN,0.3189734,-14.75753,NaN,-1.059319,-1.474837,-0.2763855,14.10901,NaN,NaN,-0.524608,0.8158814,-2.829592E-06,1.060433,2.060592E-08,1.341915
961.3467,-0.9713543,0.0005659189,NaN,-0.6129474,0.0008217076,NaN,0.3269123,-14.75756,NaN,-1.062411,-1.471247,-0.2869377,14.10521,NaN,NaN,-0.5251346,0.8157479,-2.894561E-06,1.055202,1.64336E-08,1.339461
961.3618,-0.9850835,0.0005656109,NaN,-0.6133837,0.0008205097,NaN,0.3353285,-14.7571,NaN,-1.065497,-1.466819,-0.2982349,14.10045,NaN,NaN,-0.5256969,0.816052,-2.967875E-06,1.048728,1.762569E-08,1.335226
961.3764,-0.9850835,0.0005656109,NaN,-0.6133837,0.0008205097,NaN,0.3353285,-14.7571,NaN,-1.065497,-1.466819,-0.2982349,14.10045,NaN,NaN,-0.5256969,0.816052,-2.967875E-06,1.048728,1.762569E-08,1.335226
961.3909,-0.9988993,0.0005649765,NaN,-0.6138218,0.0008188606,NaN,0.3436183,-14.75704,NaN,-1.068649,-1.467073,-0.3093153,14.10071,NaN,NaN,-0.5262482,0.8161184,-3.041189E-06,1.049099,1.822174E-08,1.335216
961.4067,-1.012705,0.0005658153,NaN,-0.6142582,0.0008182855,NaN,0.351739,-14.75698,NaN,-1.071855,-1.480281,-0.3201856,14.11474,NaN,NaN,-0.5267886,0.8166534,-3.11033E-06,1.068365,1.52415E-08,1.339308
961.4218,-1.026442,0.0005665699,NaN,-0.6146913,0.0008199467,NaN,0.359679,-14.75687,NaN,-1.0751,-1.467862,-0.3308514,14.10151,NaN,NaN,-0.5273185,0.8164895,-3.178279E-06,1.050228,1.404941E-08,1.336348
961.4368,-1.026442,0.0005665699,NaN,-0.6146913,0.0008199467,NaN,0.359679,-14.75687,NaN,-1.0751,-1.467862,-0.3308514,14.10151,NaN,NaN,-0.5273185,0.8164895,-3.178279E-06,1.050228,1.404941E-08,1.336348
961.451,-1.04042,0.0005669306,NaN,-0.6151343,0.0008210641,NaN,0.3680964,-14.75688,NaN,-1.078343,-1.467104,-0.3422694,14.1007,NaN,NaN,-0.5278841,0.8164497,-3.257554E-06,1.049122,1.166523E-08,1.335902
961.4667,-1.054482,0.0005679537,NaN,-0.6155792,0.0008221121,NaN,0.3763867,-14.75792,NaN,-1.081651,-1.478694,-0.3534646,14.11317,NaN,NaN,-0.5284385,0.8158391,-3.329079E-06,1.066092,5.704761E-09,1.342961
961.4818,-1.06853,0.0005679908,NaN,-0.6160222,0.0008211747,NaN,0.3845078,-14.75644,NaN,-1.085013,-1.483146,-0.3644445,14.11772,NaN,NaN,-0.5289821,0.8174122,-3.397625E-06,1.072536,9.363896E-10,1.338012
961.4967,-1.06853,0.0005679908,NaN,-0.6160222,0.0008211747,NaN,0.3845078,-14.75644,NaN,-1.085013,-1.483146,-0.3644445,14.11772,NaN,NaN,-0.5289821,0.8174122,-3.397625E-06,1.072536,9.363896E-10,1.338012
961.5131,-1.082852,0.0005675764,NaN,-0.6164756,0.0008217671,NaN,0.3931052,-14.7566,NaN,-1.088388,-1.477708,-0.3761757,14.11194,NaN,NaN,-0.5295611,0.8171385,-3.481071E-06,1.064588,9.363896E-10,1.339929
961.5269,-1.097276,0.0005673472,NaN,-0.6169308,0.0008225865,NaN,0.4015703,-14.75639,NaN,-1.091838,-1.470081,-0.3876742,14.10378,NaN,NaN,-0.5301287,0.8171566,-3.560345E-06,1.053434,-7.408261E-09,1.335148
961.5415,-1.111696,0.000566752,NaN,-0.617384,0.0008222315,NaN,0.4098603,-14.75654,NaN,-1.095347,-1.46758,-0.3989487,14.10113,NaN,NaN,-0.5306851,0.8169194,-3.633063E-06,1.049787,-8.600353E-09,1.332586
961.5565,-1.111696,0.000566752,NaN,-0.617384,0.0008222315,NaN,0.4098603,-14.75654,NaN,-1.095347,-1.46758,-0.3989487,14.10113,NaN,NaN,-0.5306851,0.8169194,-3.633063E-06,1.049787,-8.600353E-09,1.332586
961.5709,-1.126048,0.0005663915,NaN,-0.6178336,0.0008224013,NaN,0.4179643,-14.75685,NaN,-1.098898,-1.467376,-0.4100063,14.10095,NaN,NaN,-0.5312307,0.8166031,-3.703695E-06,1.049503,-9.792446E-09,1.333871
961.5865,-1.128879,0.0005659259,NaN,-0.6178287,0.0008216004,NaN,0.4042437,-14.75692,NaN,-1.103112,-1.467308,-0.3888025,14.10089,NaN,NaN,-0.5302451,0.8165309,-3.261726E-06,1.049407,-2.886593E-08,1.333223
961.6018,-1.124655,0.000566758,NaN,-0.6176007,0.0008237965,NaN,0.3887216,-14.75751,NaN,-1.105968,-1.466714,-0.368642,14.10033,NaN,NaN,-0.5292843,0.8159173,-2.907376E-06,1.048568,-2.409756E-08,1.33828
961.6169,-1.124655,0.000566758,NaN,-0.6176007,0.0008237965,NaN,0.3887216,-14.75751,NaN,-1.105968,-1.466714,-0.368642,14.10033,NaN,NaN,-0.5292843,0.8159173,-2.907376E-06,1.048568,-2.409756E-08,1.33828
961.6313,-1.116132,0.0005680835,NaN,-0.6172445,0.000825036,NaN,0.3728901,-14.75693,NaN,-1.107534,-1.479659,-0.3493456,14.11399,NaN,NaN,-0.528345,0.8169758,-2.62187E-06,1.067415,-2.290547E-08,1.337819
961.6468,-1.105022,0.0005685142,NaN,-0.6168121,0.0008262765,NaN,0.3573033,-14.7573,NaN,-1.10806,-1.468273,-0.3307486,14.1019,NaN,NaN,-0.5274254,0.816324,-2.38673E-06,1.050795,-2.290547E-08,1.336033
961.6622,-1.092728,0.0005693857,NaN,-0.6163478,0.0008283775,NaN,0.3427729,-14.7579,NaN,-1.107788,-1.468373,-0.3136869,14.10209,NaN,NaN,-0.5265706,0.8157179,-2.198677E-06,1.050969,-2.528965E-08,1.340044
961.6769,-1.092728,0.0005693857,NaN,-0.6163478,0.0008283775,NaN,0.3427729,-14.7579,NaN,-1.107788,-1.468373,-0.3136869,14.10209,NaN,NaN,-0.5265706,0.8157179,-2.198677E-06,1.050969,-2.528965E-08,1.340044
961.6911,-1.079769,0.0005696179,NaN,-0.6158652,0.0008286514,NaN,0.3287457,-14.75721,NaN,-1.107014,-1.467183,-0.2970879,14.10072,NaN,NaN,-0.5257326,0.8163596,-2.0294E-06,1.049197,-2.052128E-08,1.334477
961.7076,-1.066463,0.0005698735,NaN,-0.6153731,0.0008284553,NaN,0.3151418,-14.7572,NaN,-1.105911,-1.46738,-0.280907,14.10093,NaN,NaN,-0.5249112,0.8163623,-1.877706E-06,1.049486,-2.171337E-08,1.33511
961.7218,-1.053008,0.000571185,NaN,-0.6148773,0.0008294936,NaN,0.3019045,-14.75839,NaN,-1.104594,-1.478246,-0.2651137,14.11264,NaN,NaN,-0.524106,0.815568,-1.732569E-06,1.065405,-2.409756E-08,1.345203
961.7367,-1.053008,0.000571185,NaN,-0.6148773,0.0008294936,NaN,0.3019045,-14.75839,NaN,-1.104594,-1.478246,-0.2651137,14.11264,NaN,NaN,-0.524106,0.815568,-1.732569E-06,1.065405,-2.409756E-08,1.345203
961.751,-1.039868,0.0005725913,NaN,-0.6143955,0.0008304873,NaN,0.2896293,-14.75832,NaN,-1.103107,-1.482375,-0.2506211,14.11702,NaN,NaN,-0.5233628,0.815727,-1.61336E-06,1.071425,-2.528965E-08,1.346331
961.7681,-1.026983,0.0005747211,NaN,-0.6139249,0.0008313282,NaN,0.277723,-14.75687,NaN,-1.101575,-1.472454,-0.2364385,14.10631,NaN,NaN,-0.5226339,0.8169599,-1.496833E-06,1.056911,-2.528965E-08,1.336522
961.7819,-1.014311,0.0005755066,NaN,-0.6134638,0.0008313339,NaN,0.2661094,-14.75773,NaN,-1.100028,-1.469781,-0.2225613,14.10358,NaN,NaN,-0.5219194,0.8160243,-1.385968E-06,1.053046,-1.6945E-08,1.337392
961.7969,-1.014311,0.0005755066,NaN,-0.6134638,0.0008313339,NaN,0.2661094,-14.75773,NaN,-1.100028,-1.469781,-0.2225613,14.10358,NaN,NaN,-0.5219194,0.8160243,-1.385968E-06,1.053046,-1.6945E-08,1.337392
961.8113,-1.002174,0.0005757512,NaN,-0.6130248,0.0008309862,NaN,0.2553844,-14.75716,NaN,-1.09844,-1.466948,-0.2099071,14.10049,NaN,NaN,-0.5212649,0.8164958,-1.291197E-06,1.048886,-1.098454E-08,1.334942
961.827,-0.9904199,0.0005767769,NaN,-0.6126021,0.0008313039,NaN,0.2449684,-14.75841,NaN,-1.096896,-1.477815,-0.1975091,14.11222,NaN,NaN,-0.5206231,0.8156441,-1.195233E-06,1.064812,-7.408259E-09,1.34587
961.8419,-0.9789528,0.0005768884,NaN,-0.6121916,0.0008316241,NaN,0.2347938,-14.75754,NaN,-1.095394,-1.468003,-0.1853687,14.10169,NaN,NaN,-0.5199938,0.8162656,-1.103442E-06,1.050471,-3.83198E-09,1.337438
961.8568,-0.9789528,0.0005768884,NaN,-0.6121916,0.0008316241,NaN,0.2347938,-14.75754,NaN,-1.095394,-1.468003,-0.1853687,14.10169,NaN,NaN,-0.5199938,0.8162656,-1.103442E-06,1.050471,-3.83198E-09,1.337438
961.871,-0.9677142,0.0005777419,NaN,-0.611791,0.0008317517,NaN,0.2248316,-14.75754,NaN,-1.093927,-1.481263,-0.1734836,14.11578,NaN,NaN,-0.519377,0.8167416,-1.015227E-06,1.069815,-1.447794E-09,1.340459
961.8868,-0.957012,0.0005785287,NaN,-0.6114124,0.0008329512,NaN,0.2156983,-14.7589,NaN,-1.092441,-1.473221,-0.1627605,14.10737,NaN,NaN,-0.5188182,0.8152086,-9.413174E-07,1.058112,-2.557015E-10,1.347263
961.9027,-0.9466867,0.0005797495,NaN,-0.6110495,0.0008342554,NaN,0.2068306,-14.75882,NaN,-1.091015,-1.478943,-0.1522506,14.11342,NaN,NaN,-0.5182703,0.8154563,-8.662155E-07,1.066446,-2.557015E-10,1.348119
961.9167,-0.9466867,0.0005797495,NaN,-0.6110495,0.0008342554,NaN,0.2068306,-14.75882,NaN,-1.091015,-1.478943,-0.1522506,14.11342,NaN,NaN,-0.5182703,0.8154563,-8.662155E-07,1.066446,-2.557015E-10,1.348119
961.9309,-0.9366392,0.0005799147,NaN,-0.6106984,0.0008352606,NaN,0.1981665,-14.75718,NaN,-1.089639,-1.472146,-0.1419556,14.106,NaN,NaN,-0.517733,0.8169303,-7.940939E-07,1.056473,3.320577E-09,1.337854
961.9467,-0.9268077,0.0005810563,NaN,-0.6103564,0.0008362212,NaN,0.1896804,-14.75738,NaN,-1.088303,-1.481589,-0.1318742,14.11608,NaN,NaN,-0.5172064,0.8170327,-7.207801E-07,1.070271,4.51267E-09,1.341382
961.9618,-0.9174984,0.0005822461,NaN,-0.6100355,0.0008388949,NaN,0.1819888,-14.75708,NaN,-1.086947,-1.470463,-0.1229027,14.10418,NaN,NaN,-0.516736,0.8170946,-6.647518E-07,1.054004,1.532438E-09,1.339559
961.9763,-0.9174984,0.0005822461,NaN,-0.6100355,0.0008388949,NaN,0.1819888,-14.75708,NaN,-1.086947,-1.470463,-0.1229027,14.10418,NaN,NaN,-0.516736,0.8170946,-6.647518E-07,1.054004,1.532438E-09,1.339559
961.9908,-0.908551,0.00058262,NaN,-0.6097296,0.0008403824,NaN,0.1745328,-14.75708,NaN,-1.085652,-1.468788,-0.1141067,14.1024,NaN,NaN,-0.5162746,0.8170377,-6.081274E-07,1.051558,3.403453E-10,1.336622
962.0063,-0.899866,0.000583379,NaN,-0.6094344,0.0008420203,NaN,0.1672511,-14.75787,NaN,-1.08441,-1.471616,-0.1054884,14.10551,NaN,NaN,-0.5158224,0.8163534,-5.52099E-07,1.055727,-5.620119E-09,1.340891
962.0214,-0.8913815,0.0005837087,NaN,-0.6091475,0.000841985,NaN,0.1601187,-14.75775,NaN,-1.083207,-1.481661,-0.09704701,14.11617,NaN,NaN,-0.5153789,0.8167948,-4.948786E-07,1.070381,1.532439E-09,1.340039
962.0364,-0.8913815,0.0005837087,NaN,-0.6091475,0.000841985,NaN,0.1601187,-14.75775,NaN,-1.083207,-1.481661,-0.09704701,14.11617,NaN,NaN,-0.5153789,0.8167948,-4.948786E-07,1.070381,1.532439E-09,1.340039
962.0507,-0.8834032,0.0005842967,NaN,-0.608881,0.0008437248,NaN,0.1537511,-14.75689,NaN,-1.081984,-1.469598,-0.08966941,14.10323,NaN,NaN,-0.51499,0.8173922,-4.555395E-07,1.052737,-3.831979E-09,1.332583
962.0665,-0.8757712,0.0005842104,NaN,-0.6086284,0.0008436855,NaN,0.1475924,-14.75679,NaN,-1.080822,-1.471456,-0.08243408,14.1052,NaN,NaN,-0.5146087,0.8175673,-4.126242E-07,1.055447,4.512671E-09,1.330816
962.0814,-0.868386,0.0005847563,NaN,-0.6083857,0.0008451579,NaN,0.1415814,-14.75751,NaN,-1.079715,-1.468897,-0.07534324,14.10256,NaN,NaN,-0.5142348,0.8167711,-3.703049E-07,1.051741,8.684996E-09,1.334769
962.0974,-0.868386,0.0005847563,NaN,-0.6083857,0.0008451579,NaN,0.1415814,-14.75751,NaN,-1.079715,-1.468897,-0.07534324,14.10256,NaN,NaN,-0.5142348,0.8167711,-3.703049E-07,1.051741,8.684996E-09,1.334769
962.1117,-0.8615305,0.0005849773,NaN,-0.6081643,0.0008453809,NaN,0.1363181,-14.75762,NaN,-1.078598,-1.467277,-0.06927966,14.10085,NaN,NaN,-0.5139142,0.8165997,-3.410986E-07,1.049381,2.128485E-09,1.333401
962.1262,-0.8550304,0.000585956,NaN,-0.6079569,0.0008458932,NaN,0.1312424,-14.75871,NaN,-1.077554,-1.478258,-0.06333064,14.11268,NaN,NaN,-0.5135997,0.815923,-3.059319E-07,1.065467,9.363921E-10,1.344246
962.141,-0.8487778,0.0005862457,NaN,-0.6077594,0.0008461862,NaN,0.1262914,-14.75733,NaN,-1.076572,-1.469671,-0.05749887,14.10339,NaN,NaN,-0.5132914,0.8170756,-2.725533E-07,1.05289,3.320578E-09,1.333713
962.1559,-0.8487778,0.0005862457,NaN,-0.6077594,0.0008461862,NaN,0.1262914,-14.75733,NaN,-1.076572,-1.469671,-0.05749887,14.10339,NaN,NaN,-0.5132914,0.8170756,-2.725533E-07,1.05289,3.320578E-09,1.333713
962.1702,-0.8427052,0.0005862097,NaN,-0.6075689,0.0008445546,NaN,0.1214408,-14.75704,NaN,-1.075637,-1.481892,-0.05178427,14.11637,NaN,NaN,-0.512989,0.8177845,-2.385786E-07,1.070726,7.492903E-09,1.333602
962.186,-0.8371153,0.0005850774,NaN,-0.6073974,0.0008441902,NaN,0.1173054,-14.75695,NaN,-1.074682,-1.471068,-0.0470622,14.10481,NaN,NaN,-0.5127385,0.8176368,-2.18313E-07,1.0549,3.916624E-09,1.331635
962.2009,-0.8318465,0.0005846057,NaN,-0.6072385,0.000844046,NaN,0.1133326,-14.75727,NaN,-1.073794,-1.467829,-0.04242818,14.1014,NaN,NaN,-0.5124928,0.81721,-1.962593E-07,1.050181,-8.517471E-10,1.333575
962.2159,-0.8318465,0.0005846057,NaN,-0.6072385,0.000844046,NaN,0.1133326,-14.75727,NaN,-1.073794,-1.467829,-0.04242818,14.1014,NaN,NaN,-0.5124928,0.81721,-1.962593E-07,1.050181,-8.517471E-10,1.333575
962.2315,-0.8267984,0.0005850606,NaN,-0.6070881,0.0008454024,NaN,0.1094624,-14.75797,NaN,-1.072964,-1.468679,-0.03788467,14.1024,NaN,NaN,-0.5122519,0.8165367,-1.736095E-07,1.051458,-6.216165E-09,1.33901
962.2459,-0.8219088,0.0005860705,NaN,-0.6069438,0.0008461818,NaN,0.1056713,-14.75799,NaN,-1.072176,-1.481365,-0.03343174,14.11589,NaN,NaN,-0.5120157,0.8169565,-1.491716E-07,1.069974,-5.620119E-09,1.340606
962.2609,-0.8174829,0.0005869995,NaN,-0.6068175,0.0008472081,NaN,0.1025742,-14.75882,NaN,-1.071367,-1.477613,-0.02993972,14.11198,NaN,NaN,-0.51183,0.8160498,-1.366547E-07,1.064518,-6.216165E-09,1.341668
962.2758,-0.8174829,0.0005869995,NaN,-0.6068175,0.0008472081,NaN,0.1025742,-14.75882,NaN,-1.071367,-1.477613,-0.02993972,14.11198,NaN,NaN,-0.51183,0.8160498,-1.366547E-07,1.064518,-6.216165E-09,1.341668
962.2899,-0.8133614,0.0005878918,NaN,-0.606703,0.0008488095,NaN,0.09961926,-14.75858,NaN,-1.070624,-1.473622,-0.02651137,14.1077,NaN,NaN,-0.5116478,0.8161874,-1.223495E-07,1.058683,-2.557008E-10,1.340745
962.3065,-0.8094453,0.0005880859,NaN,-0.6065961,0.0008495734,NaN,0.09674662,-14.7577,NaN,-1.069938,-1.46917,-0.02314922,14.10285,NaN,NaN,-0.5114692,0.8169262,-1.050642E-07,1.052147,3.320578E-09,1.333975
962.3204,-0.8056729,0.0005882403,NaN,-0.6064945,0.0008496565,NaN,0.09393306,-14.75802,NaN,-1.069295,-1.470745,-0.01985355,14.10456,NaN,NaN,-0.5112941,0.8166626,-8.777886E-08,1.054461,-2.557008E-10,1.336605
962.3354,-0.8056729,0.0005882403,NaN,-0.6064945,0.0008496565,NaN,0.09393306,-14.75802,NaN,-1.069295,-1.470745,-0.01985355,14.10456,NaN,NaN,-0.5112941,0.8166626,-8.777886E-08,1.054461,-2.557008E-10,1.336605
962.3494,-0.8023502,0.0005888431,NaN,-0.6064104,0.0008501985,NaN,0.09179351,-14.75842,NaN,-1.06863,-1.474477,-0.01749117,14.10858,NaN,NaN,-0.5111682,0.8163779,-8.718281E-08,1.059927,9.281042E-09,1.339242
962.3651,-0.7993183,0.000588891,NaN,-0.6063372,0.0008499211,NaN,0.08977675,-14.75699,NaN,-1.068033,-1.468359,-0.01517037,14.10189,NaN,NaN,-0.5110448,0.8176246,-7.943421E-08,1.050938,1.285732E-08,1.330707
962.3801,-0.7964785,0.0005887419,NaN,-0.6062711,0.0008499038,NaN,0.08782316,-14.75726,NaN,-1.067493,-1.46726,-0.01289379,14.10076,NaN,NaN,-0.5109237,0.8173151,-7.108956E-08,1.049346,1.345337E-08,1.332615
962.3951,-0.7964785,0.0005887419,NaN,-0.6062711,0.0008499038,NaN,0.08782316,-14.75726,NaN,-1.067493,-1.46726,-0.01289379,14.10076,NaN,NaN,-0.5109237,0.8173151,-7.108956E-08,1.049346,1.345337E-08,1.332615
962.4094,-0.7941138,0.0005887147,NaN,-0.6062233,0.0008484358,NaN,0.08653275,-14.75819,NaN,-1.066944,-1.47658,-0.01152745,14.11082,NaN,NaN,-0.5108509,0.8167324,-7.585793E-08,1.063009,1.047314E-08,1.337462
962.4251,-0.7920511,0.0005892685,NaN,-0.6061868,0.0008493306,NaN,0.08534843,-14.75802,NaN,-1.066474,-1.46922,-0.01018327,14.10296,NaN,NaN,-0.5107794,0.8167002,-7.705003E-08,1.052254,6.896856E-09,1.338081
962.4399,-0.7920511,0.0005892685,NaN,-0.6061868,0.0008493306,NaN,0.08534843,-14.75802,NaN,-1.066474,-1.46922,-0.01018327,14.10296,NaN,NaN,-0.5107794,0.8167002,-7.705003E-08,1.052254,6.896856E-09,1.338081
962.4542,-0.7901831,0.000589396,NaN,-0.6061572,0.0008494097,NaN,0.08420908,-14.75729,NaN,-1.066069,-1.466905,-0.008864112,14.10039,NaN,NaN,-0.5107092,0.8173448,-7.585793E-08,1.048838,8.088949E-09,1.331581
962.4699,-0.7884429,0.0005900153,NaN,-0.606132,0.0008503366,NaN,0.08309192,-14.75824,NaN,-1.065713,-1.471188,-0.00757075,14.10508,NaN,NaN,-0.5106404,0.816548,-7.228166E-08,1.055143,1.047314E-08,1.338527
962.4849,-0.7871333,0.0005910803,NaN,-0.6061233,0.0008516486,NaN,0.08261311,-14.75878,NaN,-1.06534,-1.476747,-0.007167062,14.11106,NaN,NaN,-0.5106189,0.8161895,-8.301049E-08,1.063282,4.512671E-09,1.343554
962.4999,-0.7871333,0.0005910803,NaN,-0.6061233,0.0008516486,NaN,0.08261311,-14.75878,NaN,-1.06534,-1.476747,-0.007167062,14.11106,NaN,NaN,-0.5106189,0.8161895,-8.301049E-08,1.063282,4.512671E-09,1.343554
962.5152,-0.786094,0.0005918793,NaN,-0.6061241,0.000853867,NaN,0.0822216,-14.75783,NaN,-1.065036,-1.467384,-0.006767247,14.10099,NaN,NaN,-0.5105976,0.8168885,-8.777887E-08,1.04958,3.916625E-09,1.336889
962.53,-0.7852252,0.0005928923,NaN,-0.6061301,0.0008565618,NaN,0.08185899,-14.75826,NaN,-1.064793,-1.466802,-0.006374153,14.10042,NaN,NaN,-0.5105768,0.8164353,-8.9567E-08,1.048752,2.724532E-09,1.341828
962.5446,-0.784465,0.0005937484,NaN,-0.6061391,0.0008587506,NaN,0.08150351,-14.75879,NaN,-1.064596,-1.468125,-0.005988732,14.1019,NaN,NaN,-0.5105563,0.8159531,-9.135514E-08,1.050709,-4.428025E-09,1.342473
962.5597,-0.784465,0.0005937484,NaN,-0.6061391,0.0008587506,NaN,0.08150351,-14.75879,NaN,-1.064596,-1.468125,-0.005988732,14.1019,NaN,NaN,-0.5105563,0.8159531,-9.135514E-08,1.050709,-4.428025E-09,1.342473
962.5738,-0.7841191,0.0005943828,NaN,-0.6061637,0.000858226,NaN,0.08177201,-14.75902,NaN,-1.064378,-1.478177,-0.006474655,14.11261,NaN,NaN,-0.5105821,0.8160752,-1.062563E-07,1.065384,-6.216164E-09,1.341664
962.5895,-0.7840289,0.0005949889,NaN,-0.6061974,0.0008596048,NaN,0.08211274,-14.75865,NaN,-1.06423,-1.467696,-0.006947491,14.10141,NaN,NaN,-0.5106074,0.8161858,-1.169851E-07,1.050074,-9.792443E-09,1.340213
962.6045,-0.7840951,0.0005947601,NaN,-0.6062363,0.0008602031,NaN,0.08246721,-14.75774,NaN,-1.064142,-1.466994,-0.007410267,14.10054,NaN,NaN,-0.510632,0.8170589,-1.253298E-07,1.049003,-1.098454E-08,1.332207
962.6198,-0.7840951,0.0005947601,NaN,-0.6062363,0.0008602031,NaN,0.08246721,-14.75774,NaN,-1.064142,-1.466994,-0.007410267,14.10054,NaN,NaN,-0.510632,0.8170589,-1.253298E-07,1.049003,-1.098454E-08,1.332207
962.634,-0.7846012,0.0005942243,NaN,-0.6062919,0.0008590922,NaN,0.08343791,-14.75791,NaN,-1.064045,-1.467279,-0.008728037,14.10086,NaN,NaN,-0.5107021,0.8168926,-1.449993E-07,1.049429,-1.515686E-08,1.334261
962.6494,-0.7853747,0.000594497,NaN,-0.6063569,0.0008601162,NaN,0.08446672,-14.75815,NaN,-1.064029,-1.466533,-0.01001693,14.1001,NaN,NaN,-0.5107707,0.8166208,-1.616886E-07,1.048352,-1.515686E-08,1.335021
962.6646,-0.7863088,0.0005945954,NaN,-0.6064269,0.0008604384,NaN,0.0854941,-14.75838,NaN,-1.064079,-1.46598,-0.01128024,14.09954,NaN,NaN,-0.5108379,0.8163649,-1.753977E-07,1.047558,-1.038849E-08,1.335883
962.6794,-0.7863088,0.0005945954,NaN,-0.6064269,0.0008604384,NaN,0.0854941,-14.75838,NaN,-1.064079,-1.46598,-0.01128024,14.09954,NaN,NaN,-0.5108379,0.8163649,-1.753977E-07,1.047558,-1.038849E-08,1.335883
962.6949,-0.7873369,0.0005958995,NaN,-0.6064995,0.0008612879,NaN,0.08649865,-14.75819,NaN,-1.06418,-1.480051,-0.01251942,14.11447,NaN,NaN,-0.5109038,0.8170836,-1.837423E-07,1.068079,-7.408257E-09,1.339594
962.7102,-0.7887625,0.000596019,NaN,-0.6065869,0.0008611831,NaN,0.08809896,-14.75793,NaN,-1.064263,-1.467962,-0.01460047,14.10156,NaN,NaN,-0.5110142,0.8170494,-2.057961E-07,1.050411,-6.812211E-09,1.334867
962.7241,-0.7904252,0.0005959237,NaN,-0.6066822,0.0008606256,NaN,0.08974197,-14.75837,NaN,-1.064417,-1.468183,-0.01663824,14.10186,NaN,NaN,-0.5111224,0.8166129,-2.266577E-07,1.050758,-1.447793E-09,1.335309
962.739,-0.7904252,0.0005959237,NaN,-0.6066822,0.0008606256,NaN,0.08974197,-14.75837,NaN,-1.064417,-1.468183,-0.01663824,14.10186,NaN,NaN,-0.5111224,0.8166129,-2.266577E-07,1.050758,-1.447793E-09,1.335309
962.7532,-0.7922257,0.0005971939,NaN,-0.6067815,0.0008610379,NaN,0.09137093,-14.75756,NaN,-1.064633,-1.480457,-0.01863616,14.11479,NaN,NaN,-0.5112284,0.8178511,-2.415588E-07,1.068631,-8.517466E-10,1.335226
962.7687,-0.7941023,0.0005976151,NaN,-0.6068825,0.000860902,NaN,0.09296544,-14.75968,NaN,-1.064894,-1.478925,-0.02059591,14.1134,NaN,NaN,-0.5113324,0.8156969,-2.558639E-07,1.06646,9.363927E-10,1.346491
962.7839,-0.7963616,0.0005973858,NaN,-0.6069976,0.0008609557,NaN,0.09514502,-14.75767,NaN,-1.065135,-1.472464,-0.02338604,14.1063,NaN,NaN,-0.5114802,0.8175405,-2.844742E-07,1.056965,3.320578E-09,1.334546
962.7988,-0.7963616,0.0005973858,NaN,-0.6069976,0.0008609557,NaN,0.09514502,-14.75767,NaN,-1.065135,-1.472464,-0.02338604,14.1063,NaN,NaN,-0.5114802,0.8175405,-2.844742E-07,1.056965,3.320578E-09,1.334546
962.8132,-0.798845,0.000597474,NaN,-0.60712,0.0008603078,NaN,0.09735528,-14.75951,NaN,-1.065446,-1.476686,-0.02611937,14.11104,NaN,NaN,-0.5116249,0.8158398,-3.059318E-07,1.06322,-3.831979E-09,1.344579
962.8287,-0.8014545,0.0005980952,NaN,-0.6072457,0.0008619003,NaN,0.09953988,-14.75803,NaN,-1.065817,-1.468517,-0.0287996,14.10217,NaN,NaN,-0.5117669,0.8170898,-3.250053E-07,1.051246,-5.024072E-09,1.333611
962.8439,-0.8041293,0.0005980147,NaN,-0.6073726,0.0008623694,NaN,0.1016787,-14.75871,NaN,-1.066233,-1.470062,-0.03142873,14.10391,NaN,NaN,-0.511906,0.8164751,-3.416947E-07,1.053538,-1.038849E-08,1.337906
962.8587,-0.8041293,0.0005980147,NaN,-0.6073726,0.0008623694,NaN,0.1016787,-14.75871,NaN,-1.066233,-1.470062,-0.03142873,14.10391,NaN,NaN,-0.511906,0.8164751,-3.416947E-07,1.053538,-1.038849E-08,1.337906
962.8729,-0.8071765,0.0005977195,NaN,-0.6075132,0.0008619851,NaN,0.1043921,-14.75845,NaN,-1.066628,-1.467757,-0.03487862,14.10143,NaN,NaN,-0.5120882,0.8166545,-3.732851E-07,1.050163,-1.396477E-08,1.335715
962.8885,-0.8104379,0.0005974588,NaN,-0.6076605,0.0008616255,NaN,0.1071244,-14.75882,NaN,-1.067093,-1.466971,-0.03825907,14.10064,NaN,NaN,-0.5122668,0.81625,-4.001072E-07,1.049037,-1.456082E-08,1.337756
962.9034,-0.8138157,0.0005973433,NaN,-0.6078106,0.0008605382,NaN,0.1098198,-14.75956,NaN,-1.067617,-1.470068,-0.04157414,14.10404,NaN,NaN,-0.5124419,0.8156244,-4.22757E-07,1.053596,-2.052128E-08,1.341301
962.9193,-0.8138157,0.0005973433,NaN,-0.6078106,0.0008605382,NaN,0.1098198,-14.75956,NaN,-1.067617,-1.470068,-0.04157414,14.10404,NaN,NaN,-0.5124419,0.8156244,-4.22757E-07,1.053596,-2.052128E-08,1.341301
962.9327,-0.8175939,0.0005972302,NaN,-0.6079751,0.0008593082,NaN,0.1130846,-14.75944,NaN,-1.068135,-1.469394,-0.04569951,14.10331,NaN,NaN,-0.5126593,0.8157159,-4.537514E-07,1.052611,-2.290547E-08,1.340582
962.9482,-0.8216002,0.0005968332,NaN,-0.6081464,0.0008581218,NaN,0.1163565,-14.75869,NaN,-1.068731,-1.467091,-0.04974257,14.10076,NaN,NaN,-0.5128724,0.8163844,-4.847458E-07,1.049218,-2.58857E-08,1.336507
962.9633,-0.8257279,0.000596517,NaN,-0.6083205,0.0008567148,NaN,0.1195785,-14.75952,NaN,-1.069394,-1.470733,-0.05370775,14.10475,NaN,NaN,-0.5130813,0.8156867,-5.121639E-07,1.054579,-2.46936E-08,1.341472
962.978,-0.8257279,0.000596517,NaN,-0.6083205,0.0008567148,NaN,0.1195785,-14.75952,NaN,-1.069394,-1.470733,-0.05370775,14.10475,NaN,NaN,-0.5130813,0.8156867,-5.121639E-07,1.054579,-2.46936E-08,1.341472
962.9924,-0.8299113,0.0005959086,NaN,-0.6084949,0.0008549413,NaN,0.1227311,-14.75847,NaN,-1.070106,-1.467258,-0.0575977,14.10092,NaN,NaN,-0.5132861,0.8166199,-5.377939E-07,1.049464,-3.125011E-08,1.335283
963.0079,-0.8344542,0.0005956416,NaN,-0.6086823,0.0008537616,NaN,0.126437,-14.75863,NaN,-1.070802,-1.466588,-0.06229221,14.10023,NaN,NaN,-0.5135328,0.8164282,-5.735567E-07,1.048497,-3.125011E-08,1.336275
963.0231,-0.8391967,0.0005964007,NaN,-0.6088756,0.0008531283,NaN,0.1301383,-14.75916,NaN,-1.071569,-1.480279,-0.06689346,14.11487,NaN,NaN,-0.5137745,0.8163983,-6.045511E-07,1.068506,-2.58857E-08,1.343201
963.0381,-0.8391967,0.0005964007,NaN,-0.6088756,0.0008531283,NaN,0.1301383,-14.75916,NaN,-1.071569,-1.480279,-0.06689346,14.11487,NaN,NaN,-0.5137745,0.8163983,-6.045511E-07,1.068506,-2.58857E-08,1.343201
963.0523,-0.8440397,0.0005965154,NaN,-0.6090708,0.0008525102,NaN,0.1337809,-14.75844,NaN,-1.072396,-1.470816,-0.07140615,14.10472,NaN,NaN,-0.5140114,0.8168936,-6.337574E-07,1.05467,-3.125011E-08,1.336473
963.0679,-0.8489222,0.0005962553,NaN,-0.6092659,0.0008516302,NaN,0.1373461,-14.75891,NaN,-1.073267,-1.46742,-0.0758332,14.10116,NaN,NaN,-0.5142437,0.8163188,-6.599834E-07,1.049736,-3.065407E-08,1.33705
963.0831,-0.8541514,0.0005960712,NaN,-0.6094735,0.0008504129,NaN,0.1414576,-14.75863,NaN,-1.074121,-1.466674,-0.0810599,14.10033,NaN,NaN,-0.5145172,0.8165795,-6.981304E-07,1.048634,-3.244221E-08,1.335997
963.098,-0.8541514,0.0005960712,NaN,-0.6094735,0.0008504129,NaN,0.1414576,-14.75863,NaN,-1.074121,-1.466674,-0.0810599,14.10033,NaN,NaN,-0.5145172,0.8165795,-6.981304E-07,1.048634,-3.244221E-08,1.335997
963.1144,-0.859569,0.0005966208,NaN,-0.6096864,0.0008516342,NaN,0.1455557,-14.75907,NaN,-1.075043,-1.466196,-0.08618278,14.09988,NaN,NaN,-0.5147854,0.8161218,-7.327011E-07,1.047961,-3.601848E-08,1.33944
963.1278,-0.8650772,0.0005974062,NaN,-0.609901,0.0008523667,NaN,0.1495869,-14.76031,NaN,-1.076023,-1.477283,-0.091207,14.11184,NaN,NaN,-0.5150483,0.8152963,-7.672718E-07,1.064201,-3.244221E-08,1.348803
963.1426,-0.8706158,0.000598492,NaN,-0.6101151,0.0008529223,NaN,0.1535327,-14.75985,NaN,-1.077047,-1.482407,-0.09613584,14.11722,NaN,NaN,-0.515306,0.81589,-7.982662E-07,1.071656,-2.409756E-08,1.347898
963.1589,-0.8706158,0.000598492,NaN,-0.6101151,0.0008529223,NaN,0.1535327,-14.75985,NaN,-1.077047,-1.482407,-0.09613584,14.11722,NaN,NaN,-0.515306,0.81589,-7.982662E-07,1.071656,-2.409756E-08,1.347898
963.1718,-0.8764927,0.0005986473,NaN,-0.6103414,0.000852385,NaN,0.1580176,-14.75883,NaN,-1.078053,-1.475052,-0.1018605,14.10929,NaN,NaN,-0.5156046,0.8167531,-8.441618E-07,1.060893,-2.171337E-08,1.340994
963.1874,-0.8825498,0.0005985853,NaN,-0.6105728,0.0008522327,NaN,0.1624805,-14.7586,NaN,-1.079128,-1.473226,-0.1074714,14.10731,NaN,NaN,-0.5158972,0.8169322,-8.823088E-07,1.058218,-2.648174E-08,1.338731
963.2024,-0.8886895,0.0005984735,NaN,-0.6108053,0.000852619,NaN,0.1668683,-14.75883,NaN,-1.080259,-1.46777,-0.112974,14.10153,NaN,NaN,-0.516184,0.8165462,-9.180716E-07,1.050261,-2.350151E-08,1.339233
963.2173,-0.8886895,0.0005984735,NaN,-0.6108053,0.000852619,NaN,0.1668683,-14.75883,NaN,-1.080259,-1.46777,-0.112974,14.10153,NaN,NaN,-0.516184,0.8165462,-9.180716E-07,1.050261,-2.350151E-08,1.339233
963.2317,-0.8951969,0.0005981671,NaN,-0.6110509,0.0008528944,NaN,0.1717917,-14.75925,NaN,-1.081387,-1.468276,-0.1192655,14.10213,NaN,NaN,-0.5165111,0.8161469,-9.645632E-07,1.05102,-2.290546E-08,1.340026
963.2474,-0.9018995,0.0005978125,NaN,-0.6113017,0.0008524109,NaN,0.1766832,-14.75914,NaN,-1.082592,-1.467221,-0.1254317,14.10099,NaN,NaN,-0.5168316,0.8162265,-1.008075E-06,1.049476,-2.290546E-08,1.338116
963.2624,-0.908691,0.0005974777,NaN,-0.6115535,0.0008508369,NaN,0.1814886,-14.75946,NaN,-1.083862,-1.473411,-0.1314789,14.10761,NaN,NaN,-0.5171459,0.8161266,-1.045625E-06,1.058527,-1.873314E-08,1.340373
963.2773,-0.908691,0.0005974777,NaN,-0.6115535,0.0008508369,NaN,0.1814886,-14.75946,NaN,-1.083862,-1.473411,-0.1314789,14.10761,NaN,NaN,-0.5171459,0.8161266,-1.045625E-06,1.058527,-1.873314E-08,1.340373
963.2916,-0.9155061,0.0005984248,NaN,-0.6118044,0.0008503354,NaN,0.1861905,-14.75848,NaN,-1.08518,-1.480914,-0.1374112,14.11546,NaN,NaN,-0.517454,0.8173247,-1.083176E-06,1.069434,-1.754105E-08,1.340959
963.3073,-0.9226496,0.0005988999,NaN,-0.612067,0.0008509315,NaN,0.1914153,-14.75861,NaN,-1.086484,-1.473485,-0.1441319,14.10755,NaN,NaN,-0.5178019,0.8170253,-1.136821E-06,1.05858,-1.396477E-08,1.341978
963.3232,-0.9299613,0.0005986182,NaN,-0.612334,0.0008514192,NaN,0.1965995,-14.75833,NaN,-1.087858,-1.468513,-0.1507187,14.10221,NaN,NaN,-0.518143,0.8171552,-1.179736E-06,1.051304,-1.277267E-08,1.335088
963.3372,-0.9299613,0.0005986182,NaN,-0.612334,0.0008514192,NaN,0.1965995,-14.75833,NaN,-1.087858,-1.468513,-0.1507187,14.10221,NaN,NaN,-0.518143,0.8171552,-1.179736E-06,1.051304,-1.277267E-08,1.335088
963.3515,-0.9373428,0.0005981819,NaN,-0.6126016,0.0008506335,NaN,0.2016919,-14.75843,NaN,-1.089291,-1.467942,-0.1571781,14.10162,NaN,NaN,-0.5184773,0.8170382,-1.220267E-06,1.050476,-1.396477E-08,1.333703
963.3669,-0.9447331,0.0005977774,NaN,-0.6128679,0.0008490928,NaN,0.2066755,-14.75881,NaN,-1.090766,-1.480923,-0.1635147,14.11549,NaN,NaN,-0.5188051,0.8171183,-1.25901E-06,1.069451,-8.004303E-09,1.337463
963.3821,-0.9524406,0.0005970029,NaN,-0.6131457,0.0008476945,NaN,0.2121776,-14.75833,NaN,-1.092228,-1.470455,-0.1706391,14.10428,NaN,NaN,-0.5191724,0.8173708,-1.310866E-06,1.054142,-1.634895E-08,1.335542
963.3972,-0.9524406,0.0005970029,NaN,-0.6131457,0.0008476945,NaN,0.2121776,-14.75833,NaN,-1.092228,-1.470455,-0.1706391,14.10428,NaN,NaN,-0.5191724,0.8173708,-1.310866E-06,1.054142,-1.634895E-08,1.335542
963.4115,-0.9603067,0.0005965424,NaN,-0.6134276,0.00084503,NaN,0.2176332,-14.75964,NaN,-1.093757,-1.477488,-0.1776209,14.11195,NaN,NaN,-0.5195323,0.8162957,-1.357358E-06,1.06448,-1.634895E-08,1.342212
963.4274,-0.9682341,0.0005976742,NaN,-0.6137099,0.0008442977,NaN,0.2229912,-14.75817,NaN,-1.095342,-1.482926,-0.1844672,14.11755,NaN,NaN,-0.5198852,0.8178942,-1.397889E-06,1.072362,-1.396477E-08,1.335819
963.4422,-0.9761627,0.0005991006,NaN,-0.6139907,0.0008447652,NaN,0.2282351,-14.75766,NaN,-1.096969,-1.478324,-0.1911829,14.11257,NaN,NaN,-0.5202311,0.8183051,-1.439016E-06,1.065612,-1.277267E-08,1.329835
963.4572,-0.9761627,0.0005991006,NaN,-0.6139907,0.0008447652,NaN,0.2282351,-14.75766,NaN,-1.096969,-1.478324,-0.1911829,14.11257,NaN,NaN,-0.5202311,0.8183051,-1.439016E-06,1.065612,-1.277267E-08,1.329835
963.4714,-0.9844014,0.0006009856,NaN,-0.6142828,0.0008461402,NaN,0.2339926,-14.75876,NaN,-1.098583,-1.482159,-0.1986866,14.11679,NaN,NaN,-0.5206163,0.8173053,-1.49266E-06,1.071255,-1.754105E-08,1.338575
963.4871,-0.9927921,0.0006012779,NaN,-0.6145788,0.0008466284,NaN,0.2396974,-14.75778,NaN,-1.100264,-1.474277,-0.2060392,14.10827,NaN,NaN,-0.5209938,0.8181155,-1.541536E-06,1.059701,-1.754105E-08,1.331252
963.502,-1.001237,0.000602759,NaN,-0.6148749,0.0008478184,NaN,0.245299,-14.75807,NaN,-1.102001,-1.48288,-0.2132484,14.11747,NaN,NaN,-0.5213638,0.818076,-1.58624E-06,1.072287,-1.158058E-08,1.335337
963.5179,-1.001237,0.000602759,NaN,-0.6148749,0.0008478184,NaN,0.245299,-14.75807,NaN,-1.102001,-1.48288,-0.2132484,14.11747,NaN,NaN,-0.5213638,0.818076,-1.58624E-06,1.072287,-1.158058E-08,1.335337
963.5323,-1.010023,0.0006027955,NaN,-0.6151831,0.0008484307,NaN,0.2514119,-14.75729,NaN,-1.103739,-1.470773,-0.2212408,14.10445,NaN,NaN,-0.5217726,0.8186203,-1.644652E-06,1.054552,-1.277267E-08,1.326667
963.5468,-1.018977,0.0006030066,NaN,-0.6154952,0.0008471222,NaN,0.2574637,-14.75718,NaN,-1.105554,-1.483039,-0.229071,14.11753,NaN,NaN,-0.5221732,0.8191375,-1.6977E-06,1.07248,-1.038849E-08,1.326332
963.5618,-1.027992,0.0006024879,NaN,-0.6158074,0.000845318,NaN,0.263403,-14.75822,NaN,-1.10743,-1.472895,-0.2367479,14.10678,NaN,NaN,-0.522566,0.8179065,-1.746576E-06,1.057651,-4.428024E-09,1.332925
