JMolnar6/NonAnthroHands_User_Study/HandsLoggerWithURDF/tempdata/files/Reachy_JointMotion_gesture_7_34.csv
Time,r_shoulder,r_shoulder_x,r_upper_arm,r_forearm,r_wrist,r_wrist2hand,
411.031,-0.0980543,-1.446934E-08,NaN,-0.3272394,-1.352122E-07,NaN,0.4570297,2.007575E-08,NaN,-2.168341,1.326174E-05,-0.3660467,-2.186331E-08,NaN,NaN,-0.05377726,1.816069E-10,-2.175482E-07,-1.135623E-07,-7.237542E-09,-2.861022E-08
411.0466,-0.09840973,-1.446841E-08,NaN,-0.3272386,-1.352124E-07,NaN,0.4571428,2.063962E-08,NaN,-2.168129,1.326232E-05,-0.3659433,-2.211746E-08,NaN,NaN,-0.05311514,1.816069E-10,-2.180511E-07,-1.135645E-07,-8.498491E-11,-2.622604E-08
411.0632,-0.09803385,-1.446747E-08,NaN,-0.3272353,-1.352126E-07,NaN,0.4570928,2.120349E-08,NaN,-2.168304,1.326289E-05,-0.3658109,-2.236735E-08,NaN,NaN,-0.05246561,1.862635E-10,-2.121279E-07,-1.135668E-07,-3.661264E-09,-2.861022E-08
411.0778,-0.09803385,-1.446747E-08,NaN,-0.3272353,-1.352126E-07,NaN,0.4570928,2.120349E-08,NaN,-2.168304,1.326289E-05,-0.3658109,-2.236735E-08,NaN,NaN,-0.05246561,1.862635E-10,-2.121279E-07,-1.135668E-07,-3.661264E-09,-2.861022E-08
411.0925,-0.09719938,-1.446654E-08,NaN,-0.3272311,-1.352128E-07,NaN,0.4569626,2.176737E-08,NaN,-2.168593,1.326346E-05,-0.3657277,-2.261371E-08,NaN,NaN,-0.05182887,1.955767E-10,-2.063909E-07,-1.135691E-07,-8.498491E-11,-2.622604E-08
411.1093,-0.09607984,-1.446561E-08,NaN,-0.3272264,-1.35213E-07,NaN,0.4568174,2.233124E-08,NaN,-2.16889,1.326403E-05,-0.3656727,-2.285706E-08,NaN,NaN,-0.05120468,2.002333E-10,-2.004304E-07,-1.135713E-07,2.299201E-09,-2.861022E-08
411.125,-0.09478562,-1.446467E-08,NaN,-0.3272216,-1.352132E-07,NaN,0.4566843,2.289512E-08,NaN,-2.169158,1.32646E-05,-0.3656265,-2.30978E-08,NaN,NaN,-0.05059277,2.0489E-10,-1.948798E-07,-1.135736E-07,1.107108E-09,-2.622604E-08
411.1426,-0.09411522,-1.446374E-08,NaN,-0.3272192,-1.352134E-07,NaN,0.4567328,2.345899E-08,NaN,-2.169002,1.326518E-05,-0.3656091,-2.333622E-08,NaN,NaN,-0.04999325,2.095466E-10,-1.982698E-07,-1.135758E-07,1.107108E-09,-2.861022E-08
411.1567,-0.09411522,-1.446374E-08,NaN,-0.3272192,-1.352134E-07,NaN,0.4567328,2.345899E-08,NaN,-2.169002,1.326518E-05,-0.3656091,-2.333622E-08,NaN,NaN,-0.04999325,2.095466E-10,-1.982698E-07,-1.135758E-07,1.107108E-09,-2.861022E-08
411.1718,-0.09384014,-1.44628E-08,NaN,-0.3272182,-1.352136E-07,NaN,0.4568779,2.402287E-08,NaN,-2.168698,1.326575E-05,-0.3655406,-2.357253E-08,NaN,NaN,-0.04940545,2.142032E-10,-1.999275E-07,-1.135781E-07,3.491294E-09,-2.622604E-08
411.1884,-0.09381495,-1.446187E-08,NaN,-0.3272176,-1.352138E-07,NaN,0.4570512,2.458674E-08,NaN,-2.16836,1.326632E-05,-0.3654418,-2.38069E-08,NaN,NaN,-0.04882912,2.235164E-10,-2.02796E-07,-1.135803E-07,3.491294E-09,-2.861022E-08
411.2042,-0.09394602,-1.446093E-08,NaN,-0.3272171,-1.35214E-07,NaN,0.4572216,2.515061E-08,NaN,-2.168031,1.326689E-05,-0.3653329,-2.403945E-08,NaN,NaN,-0.04826405,2.328296E-10,-2.038391E-07,-1.135825E-07,5.87548E-09,-2.622604E-08
411.2205,-0.09490319,-1.446E-08,NaN,-0.3272181,-1.352143E-07,NaN,0.4575436,2.571449E-08,NaN,-2.167336,1.326745E-05,-0.3652507,-2.427027E-08,NaN,NaN,-0.04771041,2.421429E-10,-2.103025E-07,-1.135848E-07,7.067572E-09,-2.861022E-08
411.2358,-0.09490319,-1.446E-08,NaN,-0.3272181,-1.352143E-07,NaN,0.4575436,2.571449E-08,NaN,-2.167336,1.326745E-05,-0.3652507,-2.427027E-08,NaN,NaN,-0.04771041,2.421429E-10,-2.103025E-07,-1.135848E-07,7.067572E-09,-2.861022E-08
411.2511,-0.09637613,-1.445906E-08,NaN,-0.3272194,-1.352145E-07,NaN,0.4579321,2.627836E-08,NaN,-2.166547,1.326802E-05,-0.3651227,-2.449942E-08,NaN,NaN,-0.04716758,2.514561E-10,-2.179207E-07,-1.13587E-07,4.683387E-09,-2.622604E-08
411.2676,-0.09816743,-1.445813E-08,NaN,-0.3272205,-1.352147E-07,NaN,0.458324,2.684224E-08,NaN,-2.16577,1.326859E-05,-0.3649712,-2.472698E-08,NaN,NaN,-0.04663531,2.561127E-10,-2.244213E-07,-1.135892E-07,5.87548E-09,-2.861022E-08
411.2835,-0.1001516,-1.445719E-08,NaN,-0.3272211,-1.352149E-07,NaN,0.4586945,2.740611E-08,NaN,-2.165036,1.326916E-05,-0.3648152,-2.495296E-08,NaN,NaN,-0.04611344,2.607693E-10,-2.292269E-07,-1.135914E-07,1.422013E-08,-2.622604E-08
411.2999,-0.1001516,-1.445719E-08,NaN,-0.3272211,-1.352149E-07,NaN,0.4586945,2.740611E-08,NaN,-2.165036,1.326916E-05,-0.3648152,-2.495296E-08,NaN,NaN,-0.04611344,2.607693E-10,-2.292269E-07,-1.135914E-07,1.422013E-08,-2.622604E-08
411.3141,-0.102977,-1.445625E-08,NaN,-0.3272235,-1.352151E-07,NaN,0.4592027,2.796999E-08,NaN,-2.163966,1.326972E-05,-0.3646886,-2.517742E-08,NaN,NaN,-0.04560214,2.654259E-10,-2.397695E-07,-1.135936E-07,9.451758E-09,-2.861022E-08
411.3302,-0.1063199,-1.445532E-08,NaN,-0.3272262,-1.352154E-07,NaN,0.4597662,2.853386E-08,NaN,-2.162825,1.327028E-05,-0.3645188,-2.540037E-08,NaN,NaN,-0.04510079,2.700825E-10,-2.50815E-07,-1.135958E-07,1.541222E-08,-2.622604E-08
411.3462,-0.1099745,-1.445438E-08,NaN,-0.3272282,-1.352156E-07,NaN,0.460324,2.909773E-08,NaN,-2.161713,1.327085E-05,-0.3643279,-2.562184E-08,NaN,NaN,-0.0446092,2.747391E-10,-2.600164E-07,-1.13598E-07,1.183594E-08,-2.861022E-08
411.3619,-0.1138098,-1.445345E-08,NaN,-0.3272294,-1.352158E-07,NaN,0.4608529,2.966161E-08,NaN,-2.160661,1.327141E-05,-0.3641346,-2.584184E-08,NaN,NaN,-0.0441272,2.793957E-10,-2.680258E-07,-1.136002E-07,1.183594E-08,-2.622604E-08
411.3779,-0.1138098,-1.445345E-08,NaN,-0.3272294,-1.352158E-07,NaN,0.4608529,2.966161E-08,NaN,-2.160661,1.327141E-05,-0.3641346,-2.584184E-08,NaN,NaN,-0.0441272,2.793957E-10,-2.680258E-07,-1.136002E-07,1.183594E-08,-2.622604E-08
411.3929,-0.118471,-1.445251E-08,NaN,-0.3272321,-1.35216E-07,NaN,0.4615139,3.022548E-08,NaN,-2.159285,1.327198E-05,-0.3639696,-2.60604E-08,NaN,NaN,-0.04365497,2.840523E-10,-2.835603E-07,-1.136023E-07,9.451758E-09,-2.861022E-08
411.4095,-0.1236324,-1.445158E-08,NaN,-0.3272344,-1.352163E-07,NaN,0.462224,3.078936E-08,NaN,-2.15785,1.327254E-05,-0.3637622,-2.627753E-08,NaN,NaN,-0.04319193,2.887089E-10,-2.973997E-07,-1.136045E-07,9.451758E-09,-2.622604E-08
411.4254,-0.1290867,-1.445065E-08,NaN,-0.3272355,-1.352165E-07,NaN,0.4629227,3.135323E-08,NaN,-2.156456,1.32731E-05,-0.3635351,-2.649323E-08,NaN,NaN,-0.04273788,2.933656E-10,-3.103451E-07,-1.136067E-07,1.064385E-08,-2.861022E-08
411.4408,-0.1347026,-1.444971E-08,NaN,-0.3272359,-1.352168E-07,NaN,0.4635873,3.19171E-08,NaN,-2.155131,1.327367E-05,-0.3633071,-2.670753E-08,NaN,NaN,-0.04229268,2.980222E-10,-3.214092E-07,-1.136089E-07,1.064385E-08,-2.622604E-08
411.457,-0.1347026,-1.444971E-08,NaN,-0.3272359,-1.352168E-07,NaN,0.4635873,3.19171E-08,NaN,-2.155131,1.327367E-05,-0.3633071,-2.670753E-08,NaN,NaN,-0.04229268,2.980222E-10,-3.214092E-07,-1.136089E-07,1.064385E-08,-2.622604E-08
411.4719,-0.1411248,-1.444878E-08,NaN,-0.3272372,-1.35217E-07,NaN,0.4643804,3.248097E-08,NaN,-2.153492,1.327424E-05,-0.3631052,-2.692044E-08,NaN,NaN,-0.04185653,3.026788E-10,-3.383965E-07,-1.13611E-07,1.541222E-08,-2.861022E-08
411.4889,-0.1480275,-1.444784E-08,NaN,-0.3272379,-1.352172E-07,NaN,0.4652171,3.304485E-08,NaN,-2.151804,1.327482E-05,-0.3628618,-2.713195E-08,NaN,NaN,-0.04142885,3.026788E-10,-3.533722E-07,-1.136132E-07,1.302804E-08,-2.622604E-08
411.5044,-0.1552034,-1.444691E-08,NaN,-0.3272378,-1.352175E-07,NaN,0.4660373,3.360872E-08,NaN,-2.150166,1.32754E-05,-0.3626005,-2.734209E-08,NaN,NaN,-0.04100946,2.980222E-10,-3.672675E-07,-1.136153E-07,1.064385E-08,-2.861022E-08
411.5204,-0.1625212,-1.444597E-08,NaN,-0.3272372,-1.352177E-07,NaN,0.466819,3.417259E-08,NaN,-2.148605,1.327598E-05,-0.3623396,-2.755086E-08,NaN,NaN,-0.04059825,2.933656E-10,-3.808276E-07,-1.136175E-07,9.451759E-09,-2.622604E-08
411.536,-0.1625212,-1.444597E-08,NaN,-0.3272372,-1.352177E-07,NaN,0.466819,3.417259E-08,NaN,-2.148605,1.327598E-05,-0.3623396,-2.755086E-08,NaN,NaN,-0.04059825,2.933656E-10,-3.808276E-07,-1.136175E-07,9.451759E-09,-2.622604E-08
411.5513,-0.1706259,-1.444504E-08,NaN,-0.3272375,-1.35218E-07,NaN,0.4677258,3.473646E-08,NaN,-2.146739,1.327655E-05,-0.3621024,-2.775828E-08,NaN,NaN,-0.04019539,2.980222E-10,-3.993795E-07,-1.136196E-07,1.183595E-08,-2.861022E-08
411.5676,-0.1791916,-1.44441E-08,NaN,-0.3272371,-1.352183E-07,NaN,0.4686714,3.530034E-08,NaN,-2.144832,1.327712E-05,-0.3618247,-2.796435E-08,NaN,NaN,-0.03980035,2.933656E-10,-4.162178E-07,-1.136218E-07,7.067574E-09,-2.622604E-08
411.5832,-0.1880115,-1.444317E-08,NaN,-0.3272359,-1.352185E-07,NaN,0.4695956,3.586421E-08,NaN,-2.142982,1.32777E-05,-0.3615307,-2.816908E-08,NaN,NaN,-0.03941297,2.887089E-10,-4.300014E-07,-1.136239E-07,5.875481E-09,-2.861022E-08
411.5991,-0.1880115,-1.444317E-08,NaN,-0.3272359,-1.352185E-07,NaN,0.4695956,3.586421E-08,NaN,-2.142982,1.32777E-05,-0.3615307,-2.816908E-08,NaN,NaN,-0.03941297,2.887089E-10,-4.300014E-07,-1.136239E-07,5.875481E-09,-2.861022E-08
411.6142,-0.1976826,-1.444223E-08,NaN,-0.3272353,-1.352188E-07,NaN,0.470644,3.642808E-08,NaN,-2.140833,1.327828E-05,-0.3612521,-2.837248E-08,NaN,NaN,-0.03903344,2.840523E-10,-4.516453E-07,-1.13626E-07,5.875481E-09,-2.622604E-08
411.6307,-0.2078487,-1.44413E-08,NaN,-0.3272339,-1.35219E-07,NaN,0.4717223,3.699195E-08,NaN,-2.138659,1.327886E-05,-0.3609325,-2.857456E-08,NaN,NaN,-0.03866125,2.793957E-10,-4.693032E-07,-1.136281E-07,9.45176E-09,-2.861022E-08
411.6479,-0.2182834,-1.444036E-08,NaN,-0.3272314,-1.352193E-07,NaN,0.4727698,3.755583E-08,NaN,-2.136559,1.327942E-05,-0.360599,-2.877533E-08,NaN,NaN,-0.03829627,2.840523E-10,-4.845769E-07,-1.136303E-07,2.299203E-09,-2.622604E-08
411.6625,-0.2288435,-1.443943E-08,NaN,-0.3272276,-1.352196E-07,NaN,0.4737666,3.81197E-08,NaN,-2.13456,1.327999E-05,-0.3602692,-2.897479E-08,NaN,NaN,-0.03793839,2.887089E-10,-4.993291E-07,-1.136324E-07,-8.498269E-11,-2.861022E-08
411.6779,-0.2288435,-1.443943E-08,NaN,-0.3272276,-1.352196E-07,NaN,0.4737666,3.81197E-08,NaN,-2.13456,1.327999E-05,-0.3602692,-2.897479E-08,NaN,NaN,-0.03793839,2.887089E-10,-4.993291E-07,-1.136324E-07,-8.498269E-11,-2.861022E-08
411.6931,-0.2401665,-1.443849E-08,NaN,-0.3272249,-1.352198E-07,NaN,0.4748788,3.868357E-08,NaN,-2.132277,1.328057E-05,-0.3599605,-2.917296E-08,NaN,NaN,-0.03758778,2.887089E-10,-5.185516E-07,-1.136345E-07,-2.469168E-09,-2.622604E-08
411.7094,-0.2519219,-1.443756E-08,NaN,-0.3272209,-1.352201E-07,NaN,0.4760181,3.924744E-08,NaN,-2.129973,1.328114E-05,-0.3596138,-2.936985E-08,NaN,NaN,-0.03724394,2.887089E-10,-5.365075E-07,-1.136366E-07,1.10711E-09,-2.861022E-08
411.7253,-0.2639,-1.443662E-08,NaN,-0.3272149,-1.352204E-07,NaN,0.4771259,3.981132E-08,NaN,-2.127743,1.328171E-05,-0.3592544,-2.956545E-08,NaN,NaN,-0.03690676,2.887089E-10,-5.535694E-07,-1.136387E-07,3.491296E-09,-2.622604E-08
411.7411,-0.2759679,-1.443568E-08,NaN,-0.327207,-1.352206E-07,NaN,0.4781826,4.037519E-08,NaN,-2.125616,1.328228E-05,-0.3588995,-2.975978E-08,NaN,NaN,-0.03657613,2.887089E-10,-5.69141E-07,-1.136408E-07,4.683389E-09,-2.861022E-08
411.7571,-0.2759679,-1.443568E-08,NaN,-0.327207,-1.352206E-07,NaN,0.4781826,4.037519E-08,NaN,-2.125616,1.328228E-05,-0.3588995,-2.975978E-08,NaN,NaN,-0.03657613,2.887089E-10,-5.69141E-07,-1.136408E-07,4.683389E-09,-2.861022E-08
411.7721,-0.2887702,-1.443475E-08,NaN,-0.3272001,-1.352209E-07,NaN,0.4793548,4.093906E-08,NaN,-2.123208,1.328285E-05,-0.3585624,-2.995286E-08,NaN,NaN,-0.03625222,2.980222E-10,-5.870969E-07,-1.136429E-07,1.10711E-09,-2.622604E-08
411.7885,-0.3019806,-1.443381E-08,NaN,-0.3271915,-1.352212E-07,NaN,0.4805512,4.150293E-08,NaN,-2.120781,1.328342E-05,-0.358188,-3.014468E-08,NaN,NaN,-0.03593457,2.980222E-10,-6.073625E-07,-1.136449E-07,4.683389E-09,-2.861022E-08
411.804,-0.3153924,-1.443288E-08,NaN,-0.3271808,-1.352215E-07,NaN,0.4817133,4.206681E-08,NaN,-2.118433,1.328399E-05,-0.3578026,-3.033525E-08,NaN,NaN,-0.03562306,2.980222E-10,-6.239028E-07,-1.13647E-07,4.683389E-09,-2.622604E-08
411.82,-0.3288746,-1.443194E-08,NaN,-0.3271681,-1.352218E-07,NaN,0.482822,4.263068E-08,NaN,-2.116191,1.328457E-05,-0.3574233,-3.052459E-08,NaN,NaN,-0.0353176,2.980222E-10,-6.389529E-07,-1.136491E-07,4.683389E-09,-2.861022E-08
411.8355,-0.3288746,-1.443194E-08,NaN,-0.3271681,-1.352218E-07,NaN,0.482822,4.263068E-08,NaN,-2.116191,1.328457E-05,-0.3574233,-3.052459E-08,NaN,NaN,-0.0353176,2.980222E-10,-6.389529E-07,-1.136491E-07,4.683389E-09,-2.861022E-08
411.851,-0.3430729,-1.443101E-08,NaN,-0.3271563,-1.352221E-07,NaN,0.4840445,4.319455E-08,NaN,-2.113675,1.328514E-05,-0.3570587,-3.07127E-08,NaN,NaN,-0.03501834,2.980222E-10,-6.583244E-07,-1.136512E-07,3.491296E-09,-2.622604E-08
411.867,-0.357662,-1.443007E-08,NaN,-0.3271428,-1.352223E-07,NaN,0.4852873,4.375842E-08,NaN,-2.111145,1.328571E-05,-0.3566585,-3.089959E-08,NaN,NaN,-0.03472486,2.980222E-10,-6.763548E-07,-1.136532E-07,5.875481E-09,-2.861022E-08
411.8828,-0.3724359,-1.442914E-08,NaN,-0.327127,-1.352226E-07,NaN,0.4864924,4.43223E-08,NaN,-2.108698,1.328629E-05,-0.3562495,-3.108526E-08,NaN,NaN,-0.03443703,2.980222E-10,-6.899149E-07,-1.136553E-07,4.683389E-09,-2.622604E-08
411.8987,-0.3724359,-1.442914E-08,NaN,-0.327127,-1.352226E-07,NaN,0.4864924,4.43223E-08,NaN,-2.108698,1.328629E-05,-0.3562495,-3.108526E-08,NaN,NaN,-0.03443703,2.980222E-10,-6.899149E-07,-1.136553E-07,4.683389E-09,-2.622604E-08
411.9134,-0.3872639,-1.44282E-08,NaN,-0.3271092,-1.352229E-07,NaN,0.4876414,4.488617E-08,NaN,-2.106364,1.328685E-05,-0.355848,-3.126972E-08,NaN,NaN,-0.0341548,3.073354E-10,-7.04518E-07,-1.136573E-07,7.067575E-09,-2.861022E-08
411.9299,-0.4027922,-1.442727E-08,NaN,-0.3270923,-1.352232E-07,NaN,0.4889024,4.545004E-08,NaN,-2.10376,1.328742E-05,-0.3554587,-3.145299E-08,NaN,NaN,-0.0338783,3.073354E-10,-7.226975E-07,-1.136594E-07,9.45176E-09,-2.622604E-08
411.9456,-0.4186958,-1.442633E-08,NaN,-0.3270736,-1.352235E-07,NaN,0.4901796,4.601391E-08,NaN,-2.101148,1.3288E-05,-0.3550355,-3.163508E-08,NaN,NaN,-0.03360711,3.073354E-10,-7.373006E-07,-1.136614E-07,9.45176E-09,-2.861022E-08
411.9613,-0.4347687,-1.44254E-08,NaN,-0.3270525,-1.352238E-07,NaN,0.4914159,4.657779E-08,NaN,-2.098625,1.328857E-05,-0.3546058,-3.181597E-08,NaN,NaN,-0.03334116,3.073354E-10,-7.533938E-07,-1.136635E-07,8.259668E-09,-2.622604E-08
411.9771,-0.4347687,-1.44254E-08,NaN,-0.3270525,-1.352238E-07,NaN,0.4914159,4.657779E-08,NaN,-2.098625,1.328857E-05,-0.3546058,-3.181597E-08,NaN,NaN,-0.03334116,3.073354E-10,-7.533938E-07,-1.136635E-07,8.259668E-09,-2.622604E-08
411.9923,-0.4508808,-1.442446E-08,NaN,-0.3270293,-1.352241E-07,NaN,0.4925937,4.714166E-08,NaN,-2.096219,1.328914E-05,-0.3541855,-3.19957E-08,NaN,NaN,-0.03308037,3.073354E-10,-7.669539E-07,-1.136655E-07,9.45176E-09,-2.861022E-08
412.0087,-0.4676782,-1.442352E-08,NaN,-0.3270071,-1.352244E-07,NaN,0.4938818,4.770553E-08,NaN,-2.093549,1.328971E-05,-0.3537745,-3.217425E-08,NaN,NaN,-0.03282488,3.073354E-10,-7.854313E-07,-1.136675E-07,9.45176E-09,-2.622604E-08
412.0246,-0.4848363,-1.442259E-08,NaN,-0.3269831,-1.352247E-07,NaN,0.4951823,4.82694E-08,NaN,-2.090876,1.329029E-05,-0.3533317,-3.235165E-08,NaN,NaN,-0.0325743,3.073354E-10,-8.007795E-07,-1.136695E-07,1.064385E-08,-2.861022E-08
412.0402,-0.5021492,-1.442165E-08,NaN,-0.3269566,-1.35225E-07,NaN,0.496439,4.883328E-08,NaN,-2.088297,1.329086E-05,-0.3528846,-3.25279E-08,NaN,NaN,-0.03232854,3.073354E-10,-8.143396E-07,-1.136716E-07,9.45176E-09,-2.622604E-08
412.056,-0.5021492,-1.442165E-08,NaN,-0.3269566,-1.35225E-07,NaN,0.496439,4.883328E-08,NaN,-2.088297,1.329086E-05,-0.3528846,-3.25279E-08,NaN,NaN,-0.03232854,3.073354E-10,-8.143396E-07,-1.136716E-07,9.45176E-09,-2.622604E-08
412.071,-0.5194869,-1.442072E-08,NaN,-0.326928,-1.352253E-07,NaN,0.4976349,4.939715E-08,NaN,-2.085839,1.329143E-05,-0.3524486,-3.2703E-08,NaN,NaN,-0.03208754,3.073354E-10,-8.274526E-07,-1.136736E-07,9.45176E-09,-2.861022E-08
412.0879,-0.5374957,-1.441978E-08,NaN,-0.3269004,-1.352256E-07,NaN,0.4989397,4.996102E-08,NaN,-2.083122,1.329201E-05,-0.3520194,-3.287697E-08,NaN,NaN,-0.03185144,3.073354E-10,-8.426518E-07,-1.136756E-07,1.422013E-08,-2.622604E-08
412.1034,-0.5558512,-1.441884E-08,NaN,-0.3268709,-1.352259E-07,NaN,0.5002533,5.052489E-08,NaN,-2.080407,1.329258E-05,-0.3515604,-3.30498E-08,NaN,NaN,-0.03161987,3.073354E-10,-8.560629E-07,-1.136776E-07,1.302804E-08,-2.861022E-08
412.1195,-0.5558512,-1.441884E-08,NaN,-0.3268709,-1.352259E-07,NaN,0.5002533,5.052489E-08,NaN,-2.080407,1.329258E-05,-0.3515604,-3.30498E-08,NaN,NaN,-0.03161987,3.073354E-10,-8.560629E-07,-1.136776E-07,1.302804E-08,-2.861022E-08
412.1342,-0.5743477,-1.441791E-08,NaN,-0.3268389,-1.352262E-07,NaN,0.5015205,5.108877E-08,NaN,-2.07779,1.329317E-05,-0.3510996,-3.322151E-08,NaN,NaN,-0.03139275,3.026788E-10,-8.691759E-07,-1.136796E-07,1.541222E-08,-2.622604E-08
412.1506,-0.5928553,-1.441697E-08,NaN,-0.3268049,-1.352265E-07,NaN,0.5027251,5.165264E-08,NaN,-2.075298,1.329374E-05,-0.3506515,-3.339212E-08,NaN,NaN,-0.03117004,3.073354E-10,-8.799047E-07,-1.136816E-07,2.01806E-08,-2.861022E-08
412.1676,-0.6120206,-1.441603E-08,NaN,-0.3267719,-1.352269E-07,NaN,0.5040371,5.221651E-08,NaN,-2.072552,1.329432E-05,-0.3502075,-3.356161E-08,NaN,NaN,-0.03095184,3.026788E-10,-8.957E-07,-1.136836E-07,2.733315E-08,-2.622604E-08
412.1823,-0.6315191,-1.44151E-08,NaN,-0.326737,-1.352272E-07,NaN,0.5053546,5.278038E-08,NaN,-2.069812,1.329489E-05,-0.349736,-3.373E-08,NaN,NaN,-0.03073781,3.073354E-10,-9.076209E-07,-1.136856E-07,2.614106E-08,-2.861022E-08
412.1977,-0.6315191,-1.44151E-08,NaN,-0.326737,-1.352272E-07,NaN,0.5053546,5.278038E-08,NaN,-2.069812,1.329489E-05,-0.349736,-3.373E-08,NaN,NaN,-0.03073781,3.073354E-10,-9.076209E-07,-1.136856E-07,2.614106E-08,-2.861022E-08
412.2127,-0.6511454,-1.441416E-08,NaN,-0.3266996,-1.352275E-07,NaN,0.5066234,5.334426E-08,NaN,-2.067174,1.329547E-05,-0.349265,-3.38973E-08,NaN,NaN,-0.03052792,3.11992E-10,-9.165616E-07,-1.136875E-07,2.852525E-08,-2.622604E-08
412.2293,-0.6707698,-1.441323E-08,NaN,-0.3266601,-1.352282E-07,NaN,0.5078281,5.390813E-08,NaN,-2.064665,1.329605E-05,-0.3488083,-3.406351E-08,NaN,NaN,-0.03032208,3.073354E-10,-9.234161E-07,-1.136886E-07,2.256478E-08,-2.861022E-08
412.245,-0.691039,-1.441229E-08,NaN,-0.3266218,-1.352289E-07,NaN,0.5091389,5.4472E-08,NaN,-2.061907,1.329664E-05,-0.3483532,-3.422865E-08,NaN,NaN,-0.03012042,2.980222E-10,-9.35337E-07,-1.136895E-07,2.375688E-08,-2.622604E-08
412.2607,-0.7116286,-1.441135E-08,NaN,-0.3265815,-1.352296E-07,NaN,0.5104523,5.503587E-08,NaN,-2.059158,1.329722E-05,-0.347873,-3.439272E-08,NaN,NaN,-0.0299226,2.887089E-10,-9.469599E-07,-1.136905E-07,2.256478E-08,-2.861022E-08
412.2762,-0.7116286,-1.441135E-08,NaN,-0.3265815,-1.352296E-07,NaN,0.5104523,5.503587E-08,NaN,-2.059158,1.329722E-05,-0.347873,-3.439272E-08,NaN,NaN,-0.0299226,2.887089E-10,-9.469599E-07,-1.136905E-07,2.256478E-08,-2.861022E-08
412.2912,-0.7323335,-1.441042E-08,NaN,-0.3265387,-1.352298E-07,NaN,0.5117148,5.559975E-08,NaN,-2.056514,1.329779E-05,-0.3473954,-3.455572E-08,NaN,NaN,-0.0297286,2.887089E-10,-9.567947E-07,-1.136923E-07,2.01806E-08,-2.622604E-08
412.3078,-0.753024,-1.440948E-08,NaN,-0.3264939,-1.3523E-07,NaN,0.5129119,5.616362E-08,NaN,-2.054003,1.329836E-05,-0.3469338,-3.471766E-08,NaN,NaN,-0.02953835,2.887089E-10,-9.648413E-07,-1.136942E-07,2.494897E-08,-2.861022E-08
412.3235,-0.7738397,-1.440855E-08,NaN,-0.3264486,-1.352303E-07,NaN,0.514096,5.672749E-08,NaN,-2.051511,1.329894E-05,-0.3464853,-3.487855E-08,NaN,NaN,-0.02935184,2.887089E-10,-9.708018E-07,-1.136961E-07,2.494897E-08,-2.622604E-08
412.3391,-0.7738397,-1.440855E-08,NaN,-0.3264486,-1.352303E-07,NaN,0.514096,5.672749E-08,NaN,-2.051511,1.329894E-05,-0.3464853,-3.487855E-08,NaN,NaN,-0.02935184,2.887089E-10,-9.708018E-07,-1.136961E-07,2.494897E-08,-2.622604E-08
412.3541,-0.794647,-1.440761E-08,NaN,-0.3264025,-1.352306E-07,NaN,0.5152389,5.729136E-08,NaN,-2.049108,1.329951E-05,-0.3460431,-3.503839E-08,NaN,NaN,-0.02916893,2.887089E-10,-9.773584E-07,-1.136981E-07,3.210152E-08,-2.861022E-08
412.3705,-0.8153618,-1.440667E-08,NaN,-0.326356,-1.352309E-07,NaN,0.5163288,5.785524E-08,NaN,-2.046817,1.330008E-05,-0.3456146,-3.51972E-08,NaN,NaN,-0.02898957,2.887089E-10,-9.824247E-07,-1.137E-07,2.494897E-08,-2.622604E-08
412.3863,-0.8359317,-1.440574E-08,NaN,-0.3263094,-1.352312E-07,NaN,0.5173649,5.841911E-08,NaN,-2.044641,1.330066E-05,-0.3452024,-3.535497E-08,NaN,NaN,-0.02881369,2.840523E-10,-9.871931E-07,-1.137019E-07,2.494897E-08,-2.861022E-08
412.4019,-0.8563244,-1.44048E-08,NaN,-0.3262633,-1.352315E-07,NaN,0.5183502,5.898298E-08,NaN,-2.042573,1.330123E-05,-0.3448066,-3.551172E-08,NaN,NaN,-0.02864123,2.840523E-10,-9.910674E-07,-1.137039E-07,3.210152E-08,-2.622604E-08
412.4176,-0.8563244,-1.44048E-08,NaN,-0.3262633,-1.352315E-07,NaN,0.5183502,5.898298E-08,NaN,-2.042573,1.330123E-05,-0.3448066,-3.551172E-08,NaN,NaN,-0.02864123,2.840523E-10,-9.910674E-07,-1.137039E-07,3.210152E-08,-2.622604E-08
412.4327,-0.8765204,-1.440386E-08,NaN,-0.3262182,-1.352319E-07,NaN,0.5192887,5.954685E-08,NaN,-2.040607,1.33018E-05,-0.3444264,-3.566745E-08,NaN,NaN,-0.02847213,2.887089E-10,-9.922595E-07,-1.137058E-07,3.210152E-08,-2.861022E-08
412.449,-0.8965082,-1.440292E-08,NaN,-0.3261744,-1.352322E-07,NaN,0.5201835,6.011073E-08,NaN,-2.038737,1.330237E-05,-0.3440607,-3.582217E-08,NaN,NaN,-0.02830632,2.933656E-10,-9.949417E-07,-1.137077E-07,3.210152E-08,-2.622604E-08
412.4648,-0.9162814,-1.440199E-08,NaN,-0.326132,-1.352325E-07,NaN,0.5210376,6.06746E-08,NaN,-2.036957,1.330294E-05,-0.3437088,-3.597589E-08,NaN,NaN,-0.02814373,2.980222E-10,-9.955378E-07,-1.137097E-07,2.733315E-08,-2.861022E-08
412.4803,-0.935837,-1.440105E-08,NaN,-0.3260913,-1.352328E-07,NaN,0.5218531,6.123847E-08,NaN,-2.035263,1.330351E-05,-0.34337,-3.612861E-08,NaN,NaN,-0.02798431,3.026788E-10,-9.97922E-07,-1.137116E-07,2.733315E-08,-2.622604E-08
412.4966,-0.935837,-1.440105E-08,NaN,-0.3260913,-1.352328E-07,NaN,0.5218531,6.123847E-08,NaN,-2.035263,1.330351E-05,-0.34337,-3.612861E-08,NaN,NaN,-0.02798431,3.026788E-10,-9.97922E-07,-1.137116E-07,2.733315E-08,-2.622604E-08
412.5114,-0.9551741,-1.440011E-08,NaN,-0.3260522,-1.352332E-07,NaN,0.5226321,6.180235E-08,NaN,-2.033652,1.330408E-05,-0.3430437,-3.628034E-08,NaN,NaN,-0.02782799,3.073354E-10,-9.961338E-07,-1.137135E-07,2.494897E-08,-2.861022E-08
412.5279,-0.9742928,-1.439918E-08,NaN,-0.3260148,-1.352335E-07,NaN,0.5233758,6.236622E-08,NaN,-2.03212,1.330464E-05,-0.3427296,-3.643108E-08,NaN,NaN,-0.02767472,3.11992E-10,-9.97922E-07,-1.137154E-07,2.733315E-08,-2.622604E-08
412.5434,-0.9931943,-1.439824E-08,NaN,-0.3259792,-1.352338E-07,NaN,0.5240857,6.293009E-08,NaN,-2.030664,1.330521E-05,-0.3424272,-3.658084E-08,NaN,NaN,-0.02752443,3.166486E-10,-9.955378E-07,-1.137173E-07,2.733315E-08,-2.861022E-08
412.5594,-0.9931943,-1.439824E-08,NaN,-0.3259792,-1.352338E-07,NaN,0.5240857,6.293009E-08,NaN,-2.030664,1.330521E-05,-0.3424272,-3.658084E-08,NaN,NaN,-0.02752443,3.166486E-10,-9.955378E-07,-1.137173E-07,2.733315E-08,-2.861022E-08
412.5744,-1.01188,-1.43973E-08,NaN,-0.3259453,-1.352342E-07,NaN,0.5247629,6.349396E-08,NaN,-2.029283,1.330578E-05,-0.3421363,-3.672963E-08,NaN,NaN,-0.02737707,3.213052E-10,-9.943457E-07,-1.137192E-07,3.448571E-08,-2.622604E-08
412.591,-1.030352,-1.439636E-08,NaN,-0.325913,-1.352345E-07,NaN,0.5254086,6.405784E-08,NaN,-2.027975,1.330635E-05,-0.3418566,-3.687746E-08,NaN,NaN,-0.02723259,3.259618E-10,-9.913655E-07,-1.137211E-07,4.163827E-08,-2.861022E-08
412.6069,-1.048613,-1.439543E-08,NaN,-0.3258824,-1.352349E-07,NaN,0.5260236,6.462171E-08,NaN,-2.026737,1.330692E-05,-0.3415878,-3.702432E-08,NaN,NaN,-0.02709091,3.306184E-10,-9.889812E-07,-1.13723E-07,3.448571E-08,-2.622604E-08
412.6226,-1.066664,-1.439449E-08,NaN,-0.3258535,-1.352352E-07,NaN,0.5266088,6.518558E-08,NaN,-2.025568,1.330749E-05,-0.3413297,-3.717024E-08,NaN,NaN,-0.026952,3.306184E-10,-9.877891E-07,-1.137249E-07,3.448571E-08,-2.861022E-08
412.6383,-1.066664,-1.439449E-08,NaN,-0.3258535,-1.352352E-07,NaN,0.5266088,6.518558E-08,NaN,-2.025568,1.330749E-05,-0.3413297,-3.717024E-08,NaN,NaN,-0.026952,3.306184E-10,-9.877891E-07,-1.137249E-07,3.448571E-08,-2.861022E-08
412.6531,-1.084508,-1.439355E-08,NaN,-0.3258261,-1.352356E-07,NaN,0.5271652,6.574945E-08,NaN,-2.024466,1.330806E-05,-0.3410822,-3.73152E-08,NaN,NaN,-0.02681579,3.35275E-10,-9.854049E-07,-1.137268E-07,3.68699E-08,-2.622604E-08
412.6696,-1.102147,-1.439262E-08,NaN,-0.3258002,-1.352359E-07,NaN,0.5276937,6.631333E-08,NaN,-2.023429,1.330863E-05,-0.3408448,-3.745923E-08,NaN,NaN,-0.02668225,3.399316E-10,-9.812326E-07,-1.137287E-07,3.68699E-08,-2.861022E-08
412.6869,-1.119584,-1.439168E-08,NaN,-0.3257759,-1.352362E-07,NaN,0.5281949,6.68772E-08,NaN,-2.022457,1.33092E-05,-0.3406176,-3.760232E-08,NaN,NaN,-0.02655131,3.445882E-10,-9.7408E-07,-1.137306E-07,4.163827E-08,-2.622604E-08
412.7011,-1.13682,-1.439074E-08,NaN,-0.325753,-1.352366E-07,NaN,0.5286697,6.744107E-08,NaN,-2.021547,1.330976E-05,-0.3404002,-3.774448E-08,NaN,NaN,-0.02642292,3.492449E-10,-9.705037E-07,-1.137324E-07,4.163827E-08,-2.861022E-08
412.717,-1.13682,-1.439074E-08,NaN,-0.325753,-1.352366E-07,NaN,0.5286697,6.744107E-08,NaN,-2.021547,1.330976E-05,-0.3404002,-3.774448E-08,NaN,NaN,-0.02642292,3.492449E-10,-9.705037E-07,-1.137324E-07,4.163827E-08,-2.861022E-08
412.7322,-1.153858,-1.438981E-08,NaN,-0.3257315,-1.352369E-07,NaN,0.5291188,6.800494E-08,NaN,-2.020697,1.331033E-05,-0.3401924,-3.788572E-08,NaN,NaN,-0.02629703,3.539015E-10,-9.657354E-07,-1.137343E-07,4.402246E-08,-2.622604E-08
412.7483,-1.170701,-1.438887E-08,NaN,-0.3257114,-1.352373E-07,NaN,0.529543,6.856882E-08,NaN,-2.019907,1.331091E-05,-0.3399941,-3.802604E-08,NaN,NaN,-0.02617361,3.539015E-10,-9.597749E-07,-1.137362E-07,4.163827E-08,-2.861022E-08
412.7639,-1.18735,-1.438793E-08,NaN,-0.3256926,-1.352376E-07,NaN,0.529943,6.913269E-08,NaN,-2.019175,1.331148E-05,-0.339805,-3.816545E-08,NaN,NaN,-0.02605259,3.539015E-10,-9.556026E-07,-1.13738E-07,4.402246E-08,-2.622604E-08
412.7795,-1.18735,-1.438793E-08,NaN,-0.3256926,-1.352376E-07,NaN,0.529943,6.913269E-08,NaN,-2.019175,1.331148E-05,-0.339805,-3.816545E-08,NaN,NaN,-0.02605259,3.539015E-10,-9.556026E-07,-1.13738E-07,4.402246E-08,-2.622604E-08
412.7947,-1.203807,-1.438699E-08,NaN,-0.3256751,-1.35238E-07,NaN,0.5303194,6.969656E-08,NaN,-2.018499,1.331205E-05,-0.339625,-3.830396E-08,NaN,NaN,-0.02593393,3.539015E-10,-9.466619E-07,-1.137399E-07,4.640664E-08,-2.861022E-08
412.8109,-1.220076,-1.438606E-08,NaN,-0.3256588,-1.352383E-07,NaN,0.5306729,7.026043E-08,NaN,-2.017879,1.331263E-05,-0.3394538,-3.844156E-08,NaN,NaN,-0.02581759,3.539015E-10,-9.436816E-07,-1.137417E-07,5.832757E-08,-2.622604E-08
412.8268,-1.236157,-1.438512E-08,NaN,-0.3256437,-1.352387E-07,NaN,0.5310042,7.082431E-08,NaN,-2.017312,1.33132E-05,-0.3392912,-3.857827E-08,NaN,NaN,-0.02570352,3.539015E-10,-9.371252E-07,-1.137436E-07,5.35592E-08,-2.861022E-08
412.8424,-1.252054,-1.438418E-08,NaN,-0.3256298,-1.35239E-07,NaN,0.5313138,7.138818E-08,NaN,-2.016797,1.331377E-05,-0.3391371,-3.87141E-08,NaN,NaN,-0.02559167,3.585581E-10,-9.287805E-07,-1.137454E-07,4.640664E-08,-2.622604E-08
412.8582,-1.252054,-1.438418E-08,NaN,-0.3256298,-1.35239E-07,NaN,0.5313138,7.138818E-08,NaN,-2.016797,1.331377E-05,-0.3391371,-3.87141E-08,NaN,NaN,-0.02559167,3.585581E-10,-9.287805E-07,-1.137454E-07,4.640664E-08,-2.622604E-08
412.8731,-1.267768,-1.438325E-08,NaN,-0.325617,-1.352394E-07,NaN,0.5316025,7.195205E-08,NaN,-2.016334,1.331433E-05,-0.3389913,-3.884904E-08,NaN,NaN,-0.02548201,3.632147E-10,-9.22224E-07,-1.137472E-07,3.925409E-08,-2.861022E-08
412.8892,-1.283301,-1.438231E-08,NaN,-0.3256053,-1.352398E-07,NaN,0.5318707,7.251592E-08,NaN,-2.01592,1.33149E-05,-0.3388535,-3.898311E-08,NaN,NaN,-0.02537449,3.678713E-10,-9.144754E-07,-1.137491E-07,3.210153E-08,-2.622604E-08
412.9048,-1.298656,-1.438137E-08,NaN,-0.3255947,-1.352401E-07,NaN,0.5321191,7.30798E-08,NaN,-2.015555,1.331547E-05,-0.3387236,-3.911631E-08,NaN,NaN,-0.02526907,3.725279E-10,-9.073228E-07,-1.137509E-07,2.971734E-08,-2.861022E-08
412.9207,-1.313834,-1.438044E-08,NaN,-0.3255851,-1.352405E-07,NaN,0.5323482,7.364367E-08,NaN,-2.015238,1.331604E-05,-0.3386014,-3.924864E-08,NaN,NaN,-0.02516571,3.725279E-10,-9.001703E-07,-1.137527E-07,3.210153E-08,-2.622604E-08
412.9363,-1.313834,-1.438044E-08,NaN,-0.3255851,-1.352405E-07,NaN,0.5323482,7.364367E-08,NaN,-2.015238,1.331604E-05,-0.3386014,-3.924864E-08,NaN,NaN,-0.02516571,3.725279E-10,-9.001703E-07,-1.137527E-07,3.210153E-08,-2.622604E-08
412.9517,-1.328617,-1.43795E-08,NaN,-0.3255757,-1.352408E-07,NaN,0.5325076,7.420754E-08,NaN,-2.01508,1.331661E-05,-0.3384965,-3.938012E-08,NaN,NaN,-0.02506434,3.771845E-10,-8.918256E-07,-1.137545E-07,2.733316E-08,-2.861022E-08
412.9679,-1.343089,-1.437856E-08,NaN,-0.3255676,-1.352412E-07,NaN,0.5326331,7.477141E-08,NaN,-2.015,1.331718E-05,-0.3384095,-3.951073E-08,NaN,NaN,-0.02496497,3.818411E-10,-8.816928E-07,-1.137563E-07,2.01806E-08,-2.622604E-08
412.9836,-1.357306,-1.437762E-08,NaN,-0.3255609,-1.352415E-07,NaN,0.5327415,7.533529E-08,NaN,-2.014966,1.331775E-05,-0.338332,-3.964051E-08,NaN,NaN,-0.02486754,3.864977E-10,-8.7156E-07,-1.137581E-07,2.494897E-08,-2.861022E-08
412.9993,-1.357306,-1.437762E-08,NaN,-0.3255609,-1.352415E-07,NaN,0.5327415,7.533529E-08,NaN,-2.014966,1.331775E-05,-0.338332,-3.964051E-08,NaN,NaN,-0.02486754,3.864977E-10,-8.7156E-07,-1.137581E-07,2.494897E-08,-2.861022E-08
413.014,-1.371302,-1.437669E-08,NaN,-0.3255558,-1.352419E-07,NaN,0.5328382,7.589916E-08,NaN,-2.014965,1.331832E-05,-0.3382605,-3.976944E-08,NaN,NaN,-0.02477202,3.911543E-10,-8.632153E-07,-1.137599E-07,2.494897E-08,-2.622604E-08
413.0306,-1.384373,-1.437575E-08,NaN,-0.3255496,-1.352422E-07,NaN,0.5327562,7.646303E-08,NaN,-2.015368,1.331889E-05,-0.3382263,-3.989753E-08,NaN,NaN,-0.02467827,3.958109E-10,-8.542747E-07,-1.137617E-07,2.733316E-08,-2.861022E-08
413.0459,-1.396808,-1.437481E-08,NaN,-0.3255453,-1.352426E-07,NaN,0.5326116,7.70269E-08,NaN,-2.015912,1.331946E-05,-0.3382315,-4.002479E-08,NaN,NaN,-0.0245864,4.004675E-10,-8.45334E-07,-1.137635E-07,2.256478E-08,-2.622604E-08
413.0619,-1.40879,-1.437388E-08,NaN,-0.3255432,-1.35243E-07,NaN,0.5324572,7.759078E-08,NaN,-2.016491,1.332003E-05,-0.3382491,-4.015123E-08,NaN,NaN,-0.02449635,4.051242E-10,-8.363933E-07,-1.137653E-07,2.256478E-08,-2.861022E-08
413.0774,-1.40879,-1.437388E-08,NaN,-0.3255432,-1.35243E-07,NaN,0.5324572,7.759078E-08,NaN,-2.016491,1.332003E-05,-0.3382491,-4.015123E-08,NaN,NaN,-0.02449635,4.051242E-10,-8.363933E-07,-1.137653E-07,2.256478E-08,-2.861022E-08
413.0927,-1.420438,-1.437294E-08,NaN,-0.3255426,-1.352434E-07,NaN,0.5323088,7.815465E-08,NaN,-2.01707,1.332061E-05,-0.3382679,-4.027684E-08,NaN,NaN,-0.02440807,4.004675E-10,-8.262605E-07,-1.137671E-07,2.733315E-08,-2.622604E-08
413.1088,-1.431098,-1.4372E-08,NaN,-0.3255416,-1.352437E-07,NaN,0.5319993,7.871852E-08,NaN,-2.018017,1.332119E-05,-0.3383179,-4.040164E-08,NaN,NaN,-0.02432141,3.958109E-10,-8.125515E-07,-1.137689E-07,2.733315E-08,-2.861022E-08
413.1243,-1.441093,-1.437107E-08,NaN,-0.3255419,-1.352441E-07,NaN,0.5316428,7.928239E-08,NaN,-2.019071,1.332177E-05,-0.3384013,-4.052563E-08,NaN,NaN,-0.0242365,3.911543E-10,-7.970543E-07,-1.137706E-07,2.733315E-08,-2.622604E-08
413.1401,-1.450628,-1.437013E-08,NaN,-0.3255433,-1.352445E-07,NaN,0.5312894,7.984627E-08,NaN,-2.020131,1.332236E-05,-0.3384921,-4.064881E-08,NaN,NaN,-0.02415327,3.864977E-10,-7.839412E-07,-1.137724E-07,2.494897E-08,-2.861022E-08
413.1559,-1.450628,-1.437013E-08,NaN,-0.3255433,-1.352445E-07,NaN,0.5312894,7.984627E-08,NaN,-2.020131,1.332236E-05,-0.3384921,-4.064881E-08,NaN,NaN,-0.02415327,3.864977E-10,-7.839412E-07,-1.137724E-07,2.494897E-08,-2.861022E-08
413.1703,-1.459833,-1.436919E-08,NaN,-0.3255456,-1.352448E-07,NaN,0.5309523,8.041014E-08,NaN,-2.021167,1.332294E-05,-0.3385804,-4.07712E-08,NaN,NaN,-0.02407168,3.818411E-10,-7.738084E-07,-1.137742E-07,2.494897E-08,-2.622604E-08
413.1867,-1.468064,-1.436825E-08,NaN,-0.3255472,-1.352451E-07,NaN,0.5304627,7.947042E-08,NaN,-2.022551,1.332351E-05,-0.3386956,-3.947774E-08,NaN,NaN,-0.02399158,3.771845E-10,-7.565231E-07,-1.137719E-07,2.256478E-08,-2.622604E-08
413.2037,-1.475649,-1.436732E-08,NaN,-0.3255498,-1.35244E-07,NaN,0.5299332,7.853382E-08,NaN,-2.024024,1.332408E-05,-0.3388419,-3.829723E-08,NaN,NaN,-0.0239131,3.771845E-10,-7.434101E-07,-1.137721E-07,2.494897E-08,-2.861022E-08
413.2187,-1.475649,-1.436732E-08,NaN,-0.3255498,-1.35244E-07,NaN,0.5299332,7.853382E-08,NaN,-2.024024,1.332408E-05,-0.3388419,-3.829723E-08,NaN,NaN,-0.0239131,3.771845E-10,-7.434101E-07,-1.137721E-07,2.494897E-08,-2.861022E-08
413.2336,-1.482794,-1.436638E-08,NaN,-0.3255539,-1.352429E-07,NaN,0.529413,7.759723E-08,NaN,-2.025487,1.332464E-05,-0.3389938,-3.719872E-08,NaN,NaN,-0.02383617,3.818411E-10,-7.30297E-07,-1.137725E-07,2.733315E-08,-2.622604E-08
413.2493,-1.489634,-1.436544E-08,NaN,-0.32556,-1.352419E-07,NaN,0.528915,7.666063E-08,NaN,-2.026912,1.33252E-05,-0.3391415,-3.616194E-08,NaN,NaN,-0.02376076,3.818411E-10,-7.147998E-07,-1.137731E-07,2.256478E-08,-2.861022E-08
413.2653,-1.495524,-1.43645E-08,NaN,-0.3255655,-1.352409E-07,NaN,0.5282698,7.572404E-08,NaN,-2.028672,1.332576E-05,-0.3393125,-3.517198E-08,NaN,NaN,-0.02368671,3.864977E-10,-6.963223E-07,-1.137737E-07,1.779641E-08,-2.622604E-08
413.2807,-1.500793,-1.436357E-08,NaN,-0.3255725,-1.3524E-07,NaN,0.527589,7.478744E-08,NaN,-2.030509,1.332632E-05,-0.3395136,-3.42179E-08,NaN,NaN,-0.02361417,3.864977E-10,-6.814212E-07,-1.137743E-07,1.779641E-08,-2.861022E-08
413.2965,-1.500793,-1.436357E-08,NaN,-0.3255725,-1.3524E-07,NaN,0.527589,7.478744E-08,NaN,-2.030509,1.332632E-05,-0.3395136,-3.42179E-08,NaN,NaN,-0.02361417,3.864977E-10,-6.814212E-07,-1.137743E-07,1.779641E-08,-2.861022E-08
413.3113,-1.505649,-1.436263E-08,NaN,-0.3255814,-1.352392E-07,NaN,0.5269225,7.385085E-08,NaN,-2.032324,1.332688E-05,-0.3397188,-3.329164E-08,NaN,NaN,-0.02354306,3.818411E-10,-6.671161E-07,-1.13775E-07,1.541223E-08,-2.622604E-08
413.3277,-1.510225,-1.436169E-08,NaN,-0.3255921,-1.352384E-07,NaN,0.5262827,7.291425E-08,NaN,-2.034089,1.332745E-05,-0.339918,-3.238728E-08,NaN,NaN,-0.02347336,3.818411E-10,-6.54003E-07,-1.137756E-07,1.779641E-08,-2.861022E-08
413.3434,-1.513877,-1.436075E-08,NaN,-0.3256019,-1.352375E-07,NaN,0.5254999,7.197766E-08,NaN,-2.036177,1.332801E-05,-0.340137,-3.150045E-08,NaN,NaN,-0.0234049,3.864977E-10,-6.367177E-07,-1.137763E-07,1.541223E-08,-2.622604E-08
413.3592,-1.513877,-1.436075E-08,NaN,-0.3256019,-1.352375E-07,NaN,0.5254999,7.197766E-08,NaN,-2.036177,1.332801E-05,-0.340137,-3.150045E-08,NaN,NaN,-0.0234049,3.864977E-10,-6.367177E-07,-1.137763E-07,1.541223E-08,-2.622604E-08
413.3739,-1.516932,-1.435982E-08,NaN,-0.3256124,-1.352367E-07,NaN,0.524685,7.104106E-08,NaN,-2.038331,1.332856E-05,-0.3403853,-3.062794E-08,NaN,NaN,-0.02333783,3.911543E-10,-6.194323E-07,-1.137769E-07,1.302804E-08,-2.861022E-08
413.3902,-1.5196,-1.435888E-08,NaN,-0.325624,-1.352359E-07,NaN,0.5238881,7.010447E-08,NaN,-2.040452,1.332914E-05,-0.3406366,-2.97674E-08,NaN,NaN,-0.0232721,3.864977E-10,-6.051272E-07,-1.137776E-07,5.875485E-09,-2.622604E-08
413.4059,-1.522012,-1.435794E-08,NaN,-0.3256367,-1.352351E-07,NaN,0.523122,6.916787E-08,NaN,-2.042514,1.332971E-05,-0.3408805,-2.891706E-08,NaN,NaN,-0.02320766,3.818411E-10,-5.908221E-07,-1.137783E-07,3.4913E-09,-2.861022E-08
413.4217,-1.523526,-1.435701E-08,NaN,-0.3256479,-1.352343E-07,NaN,0.5222166,6.823128E-08,NaN,-2.044888,1.333027E-05,-0.3411406,-2.807564E-08,NaN,NaN,-0.02314435,3.818411E-10,-5.741329E-07,-1.137789E-07,1.107114E-09,-2.622604E-08
413.4373,-1.523526,-1.435701E-08,NaN,-0.3256479,-1.352343E-07,NaN,0.5222166,6.823128E-08,NaN,-2.044888,1.333027E-05,-0.3411406,-2.807564E-08,NaN,NaN,-0.02314435,3.818411E-10,-5.741329E-07,-1.137789E-07,1.107114E-09,-2.622604E-08
413.4525,-1.524467,-1.435607E-08,NaN,-0.325659,-1.352335E-07,NaN,0.5212816,6.729469E-08,NaN,-2.047318,1.333083E-05,-0.3414294,-2.724217E-08,NaN,NaN,-0.02308233,3.864977E-10,-5.592317E-07,-1.137796E-07,-1.277072E-09,-2.861022E-08
413.4688,-1.525045,-1.435513E-08,NaN,-0.3256704,-1.352327E-07,NaN,0.520368,6.635809E-08,NaN,-2.049707,1.33314E-05,-0.3417204,-2.641594E-08,NaN,NaN,-0.02302155,3.911543E-10,-5.407542E-07,-1.137802E-07,-1.277072E-09,-2.622604E-08
413.4847,-1.525392,-1.43542E-08,NaN,-0.3256822,-1.352319E-07,NaN,0.5194888,6.54215E-08,NaN,-2.052025,1.333197E-05,-0.342003,-2.559642E-08,NaN,NaN,-0.02296197,3.911543E-10,-5.222768E-07,-1.137808E-07,-1.277072E-09,-2.861022E-08
413.5002,-1.524865,-1.435326E-08,NaN,-0.3256919,-1.352311E-07,NaN,0.5184738,6.44849E-08,NaN,-2.054647,1.333253E-05,-0.3422978,-2.478321E-08,NaN,NaN,-0.02290341,3.911543E-10,-5.026072E-07,-1.137814E-07,-1.277072E-09,-2.622604E-08
413.5157,-1.524865,-1.435326E-08,NaN,-0.3256919,-1.352311E-07,NaN,0.5184738,6.44849E-08,NaN,-2.054647,1.333253E-05,-0.3422978,-2.478321E-08,NaN,NaN,-0.02290341,3.911543E-10,-5.026072E-07,-1.137814E-07,-1.277072E-09,-2.622604E-08
413.5307,-1.52379,-1.435232E-08,NaN,-0.3257008,-1.352302E-07,NaN,0.5174315,6.354831E-08,NaN,-2.057316,1.33331E-05,-0.3426209,-2.3976E-08,NaN,NaN,-0.02284605,3.911543E-10,-4.829377E-07,-1.137821E-07,-6.045443E-09,-2.861022E-08
413.547,-1.522376,-1.435138E-08,NaN,-0.3257094,-1.352294E-07,NaN,0.5164133,6.261171E-08,NaN,-2.059934,1.333366E-05,-0.3429458,-2.317457E-08,NaN,NaN,-0.02278984,3.911543E-10,-4.650563E-07,-1.137826E-07,-8.429629E-09,-2.622604E-08
413.5632,-1.520753,-1.435045E-08,NaN,-0.3257178,-1.352286E-07,NaN,0.5154328,6.167512E-08,NaN,-2.062473,1.333421E-05,-0.3432613,-2.237873E-08,NaN,NaN,-0.02273473,3.958109E-10,-4.48963E-07,-1.137832E-07,-3.661257E-09,-2.861022E-08
413.5785,-1.520753,-1.435045E-08,NaN,-0.3257178,-1.352286E-07,NaN,0.5154328,6.167512E-08,NaN,-2.062473,1.333421E-05,-0.3432613,-2.237873E-08,NaN,NaN,-0.02273473,3.958109E-10,-4.48963E-07,-1.137832E-07,-3.661257E-09,-2.861022E-08
413.5938,-1.518278,-1.434951E-08,NaN,-0.3257237,-1.352277E-07,NaN,0.5143189,6.073852E-08,NaN,-2.06531,1.333477E-05,-0.3435846,-2.158835E-08,NaN,NaN,-0.02268055,4.051242E-10,-4.269093E-07,-1.137838E-07,-3.661257E-09,-2.622604E-08
413.61,-1.515278,-1.434857E-08,NaN,-0.3257282,-1.352269E-07,NaN,0.5131792,5.980193E-08,NaN,-2.068184,1.333533E-05,-0.3439364,-2.080331E-08,NaN,NaN,-0.02262747,4.097808E-10,-4.090279E-07,-1.137844E-07,-3.661257E-09,-2.861022E-08
413.6259,-1.511959,-1.434764E-08,NaN,-0.3257318,-1.35226E-07,NaN,0.5120661,5.886533E-08,NaN,-2.071,1.333589E-05,-0.3442896,-2.002352E-08,NaN,NaN,-0.02257546,4.19094E-10,-3.881663E-07,-1.137849E-07,-3.661257E-09,-2.622604E-08
413.6413,-1.508453,-1.43467E-08,NaN,-0.3257349,-1.352251E-07,NaN,0.5109935,5.792874E-08,NaN,-2.073729,1.333645E-05,-0.3446327,-1.92489E-08,NaN,NaN,-0.02252448,4.19094E-10,-3.690928E-07,-1.137854E-07,-8.429629E-09,-2.861022E-08
413.657,-1.508453,-1.43467E-08,NaN,-0.3257349,-1.352251E-07,NaN,0.5109935,5.792874E-08,NaN,-2.073729,1.333645E-05,-0.3446327,-1.92489E-08,NaN,NaN,-0.02252448,4.19094E-10,-3.690928E-07,-1.137854E-07,-8.429629E-09,-2.861022E-08
413.6718,-1.504117,-1.434576E-08,NaN,-0.325736,-1.352242E-07,NaN,0.5097904,5.699214E-08,NaN,-2.076749,1.333703E-05,-0.3449793,-1.84794E-08,NaN,NaN,-0.02247432,4.144374E-10,-3.476351E-07,-1.13786E-07,-1.081381E-08,-2.622604E-08
413.6884,-1.499277,-1.434482E-08,NaN,-0.3257363,-1.352234E-07,NaN,0.5085624,5.605555E-08,NaN,-2.079799,1.333759E-05,-0.3453546,-1.771495E-08,NaN,NaN,-0.0224252,4.19094E-10,-3.273695E-07,-1.137865E-07,-1.3198E-08,-2.861022E-08
413.7037,-1.494139,-1.434389E-08,NaN,-0.3257365,-1.352225E-07,NaN,0.5073631,5.511895E-08,NaN,-2.082784,1.333815E-05,-0.3457315,-1.695552E-08,NaN,NaN,-0.02237706,4.237506E-10,-3.077E-07,-1.13787E-07,-1.558218E-08,-2.622604E-08
413.7211,-1.488836,-1.434295E-08,NaN,-0.3257365,-1.35222E-07,NaN,0.5062067,5.368703E-08,NaN,-2.085675,1.333871E-05,-0.3460977,-1.566477E-08,NaN,NaN,-0.02232987,4.144374E-10,-2.886265E-07,-1.13784E-07,-1.3198E-08,-2.622604E-08
413.7357,-1.488836,-1.434295E-08,NaN,-0.3257365,-1.35222E-07,NaN,0.5062067,5.368703E-08,NaN,-2.085675,1.333871E-05,-0.3460977,-1.566477E-08,NaN,NaN,-0.02232987,4.144374E-10,-2.886265E-07,-1.13784E-07,-1.3198E-08,-2.622604E-08
413.7502,-1.482723,-1.434202E-08,NaN,-0.3257345,-1.352208E-07,NaN,0.5049226,5.212593E-08,NaN,-2.08885,1.333926E-05,-0.3464626,-1.421625E-08,NaN,NaN,-0.02228341,4.051242E-10,-2.659768E-07,-1.137804E-07,-1.558218E-08,-2.622604E-08
413.7667,-1.476126,-1.434108E-08,NaN,-0.325731,-1.352195E-07,NaN,0.5036144,5.14547E-08,NaN,-2.092049,1.333981E-05,-0.3468561,-1.36347E-08,NaN,NaN,-0.02223792,3.911543E-10,-2.415389E-07,-1.137758E-07,-1.796637E-08,-2.622604E-08
413.7822,-1.469252,-1.434014E-08,NaN,-0.3257265,-1.35218E-07,NaN,0.5023363,5.075692E-08,NaN,-2.095175,1.334035E-05,-0.3472514,-1.300829E-08,NaN,NaN,-0.02219334,3.818411E-10,-2.188891E-07,-1.13771E-07,-1.558218E-08,-2.622604E-08
413.798,-1.469252,-1.434014E-08,NaN,-0.3257265,-1.35218E-07,NaN,0.5023363,5.075692E-08,NaN,-2.095175,1.334035E-05,-0.3472514,-1.300829E-08,NaN,NaN,-0.02219334,3.818411E-10,-2.188891E-07,-1.13771E-07,-1.558218E-08,-2.622604E-08
413.8129,-1.461504,-1.433921E-08,NaN,-0.3257189,-1.352163E-07,NaN,0.5009336,5.005517E-08,NaN,-2.09858,1.334089E-05,-0.3476446,-1.236327E-08,NaN,NaN,-0.02214944,3.725279E-10,-1.932591E-07,-1.137661E-07,-1.796637E-08,-2.622604E-08
413.8295,-1.45324,-1.433827E-08,NaN,-0.3257089,-1.352145E-07,NaN,0.4995125,4.936239E-08,NaN,-2.101995,1.334143E-05,-0.348066,-1.171549E-08,NaN,NaN,-0.02210645,3.585581E-10,-1.694172E-07,-1.137612E-07,-1.081381E-08,-2.622604E-08
413.8449,-1.444684,-1.433734E-08,NaN,-0.3256971,-1.352127E-07,NaN,0.4981283,4.868334E-08,NaN,-2.105321,1.334197E-05,-0.3484877,-1.107207E-08,NaN,NaN,-0.02206433,3.445882E-10,-1.467675E-07,-1.137563E-07,-8.429627E-09,-2.622604E-08
413.8607,-1.435982,-1.43364E-08,NaN,-0.3256842,-1.352108E-07,NaN,0.4967955,4.802169E-08,NaN,-2.108533,1.334251E-05,-0.3488963,-1.043854E-08,NaN,NaN,-0.02202304,3.35275E-10,-1.217335E-07,-1.137513E-07,-8.429627E-09,-2.622604E-08
413.8764,-1.435982,-1.43364E-08,NaN,-0.3256842,-1.352108E-07,NaN,0.4967955,4.802169E-08,NaN,-2.108533,1.334251E-05,-0.3488963,-1.043854E-08,NaN,NaN,-0.02202304,3.35275E-10,-1.217335E-07,-1.137513E-07,-8.429627E-09,-2.622604E-08
413.8913,-1.426495,-1.433547E-08,NaN,-0.3256682,-1.352089E-07,NaN,0.4953432,4.737856E-08,NaN,-2.112011,1.334303E-05,-0.3492929,-9.817541E-09,NaN,NaN,-0.02198233,3.306184E-10,-9.610351E-08,-1.137463E-07,-6.045441E-09,-2.622604E-08
413.9075,-1.416555,-1.433453E-08,NaN,-0.3256496,-1.35207E-07,NaN,0.4938698,4.675392E-08,NaN,-2.115496,1.334356E-05,-0.3497176,-9.210226E-09,NaN,NaN,-0.02194247,3.259618E-10,-7.047352E-08,-1.137414E-07,-6.045441E-09,-2.622604E-08
413.9232,-1.406371,-1.43336E-08,NaN,-0.3256292,-1.352051E-07,NaN,0.4924307,4.614795E-08,NaN,-2.118893,1.334409E-05,-0.3501441,-8.617742E-09,NaN,NaN,-0.02190341,3.213052E-10,-4.782375E-08,-1.137365E-07,-3.661255E-09,-2.622604E-08
413.9389,-1.406371,-1.43336E-08,NaN,-0.3256292,-1.352051E-07,NaN,0.4924307,4.614795E-08,NaN,-2.118893,1.334409E-05,-0.3501441,-8.617742E-09,NaN,NaN,-0.02190341,3.213052E-10,-4.782375E-08,-1.137365E-07,-3.661255E-09,-2.622604E-08
413.954,-1.396076,-1.433266E-08,NaN,-0.3256076,-1.352032E-07,NaN,0.4910418,4.55596E-08,NaN,-2.122175,1.334461E-05,-0.3505585,-8.039795E-09,NaN,NaN,-0.02186514,3.166486E-10,-2.27898E-08,-1.137316E-07,-1.27707E-09,-2.622604E-08
413.9704,-1.385027,-1.433173E-08,NaN,-0.3255829,-1.352013E-07,NaN,0.4895336,4.498795E-08,NaN,-2.125723,1.334514E-05,-0.3509563,-7.476099E-09,NaN,NaN,-0.02182736,3.11992E-10,4.628331E-09,-1.137266E-07,1.107116E-09,-2.622604E-08
413.9861,-1.373549,-1.433079E-08,NaN,-0.3255555,-1.351994E-07,NaN,0.4880024,4.443364E-08,NaN,-2.129276,1.334567E-05,-0.3513833,-6.927784E-09,NaN,NaN,-0.02179036,3.073354E-10,3.204647E-08,-1.137218E-07,3.491302E-09,-2.622604E-08
414.0015,-1.361849,-1.432986E-08,NaN,-0.3255262,-1.351975E-07,NaN,0.4865052,4.389459E-08,NaN,-2.132739,1.334619E-05,-0.3518133,-6.393139E-09,NaN,NaN,-0.02175413,3.026788E-10,5.469623E-08,-1.137169E-07,8.259674E-09,-2.622604E-08
414.0174,-1.361849,-1.432986E-08,NaN,-0.3255262,-1.351975E-07,NaN,0.4865052,4.389459E-08,NaN,-2.132739,1.334619E-05,-0.3518133,-6.393139E-09,NaN,NaN,-0.02175413,3.026788E-10,5.469623E-08,-1.137169E-07,8.259674E-09,-2.622604E-08
414.0322,-1.35006,-1.432893E-08,NaN,-0.3254957,-1.351956E-07,NaN,0.4850591,4.33716E-08,NaN,-2.136082,1.334672E-05,-0.3522317,-5.873308E-09,NaN,NaN,-0.02171862,2.980222E-10,7.853809E-08,-1.13712E-07,8.259674E-09,-2.622604E-08
414.0486,-1.337534,-1.432799E-08,NaN,-0.325462,-1.351938E-07,NaN,0.4834957,4.286414E-08,NaN,-2.139689,1.334724E-05,-0.3526284,-5.367994E-09,NaN,NaN,-0.02168353,2.933656E-10,1.077444E-07,-1.137072E-07,1.064386E-08,-2.622604E-08
414.0645,-1.324599,-1.432706E-08,NaN,-0.3254257,-1.351919E-07,NaN,0.4819086,4.237031E-08,NaN,-2.143297,1.334776E-05,-0.3530547,-4.875505E-09,NaN,NaN,-0.02164916,2.887089E-10,1.351625E-07,-1.137024E-07,8.259674E-09,-2.622604E-08
414.0799,-1.324599,-1.432706E-08,NaN,-0.3254257,-1.351919E-07,NaN,0.4819086,4.237031E-08,NaN,-2.143297,1.334776E-05,-0.3530547,-4.875505E-09,NaN,NaN,-0.02164916,2.887089E-10,1.351625E-07,-1.137024E-07,8.259674E-09,-2.622604E-08
414.0951,-1.311459,-1.432613E-08,NaN,-0.3253873,-1.3519E-07,NaN,0.4803556,4.189111E-08,NaN,-2.14681,1.334828E-05,-0.3534852,-4.397002E-09,NaN,NaN,-0.02161551,2.840523E-10,1.613885E-07,-1.136976E-07,1.107117E-09,-2.622604E-08
414.1113,-1.298246,-1.43252E-08,NaN,-0.3253476,-1.351881E-07,NaN,0.4788549,4.142614E-08,NaN,-2.1502,1.334881E-05,-0.3539044,-3.932209E-09,NaN,NaN,-0.02158253,2.793957E-10,1.858265E-07,-1.136928E-07,1.107117E-09,-2.622604E-08
414.1271,-1.284314,-1.432426E-08,NaN,-0.325305,-1.351863E-07,NaN,0.4772395,4.097503E-08,NaN,-2.15385,1.334934E-05,-0.3542966,-3.480864E-09,NaN,NaN,-0.0215499,2.747391E-10,2.132446E-07,-1.13688E-07,8.259674E-09,-2.622604E-08
414.1426,-1.269989,-1.432333E-08,NaN,-0.3252595,-1.351844E-07,NaN,0.4755996,4.053601E-08,NaN,-2.157497,1.334987E-05,-0.3547187,-3.041284E-09,NaN,NaN,-0.02151795,2.700825E-10,2.44239E-07,-1.136833E-07,1.064386E-08,-2.622604E-08
414.1582,-1.269989,-1.432333E-08,NaN,-0.3252595,-1.351844E-07,NaN,0.4755996,4.053601E-08,NaN,-2.157497,1.334987E-05,-0.3547187,-3.041284E-09,NaN,NaN,-0.02151795,2.700825E-10,2.44239E-07,-1.136833E-07,1.064386E-08,-2.622604E-08
414.1732,-1.255475,-1.43224E-08,NaN,-0.3252119,-1.351826E-07,NaN,0.4739939,4.011021E-08,NaN,-2.161045,1.33504E-05,-0.3551462,-2.614656E-09,NaN,NaN,-0.02148667,2.654259E-10,2.722532E-07,-1.136786E-07,8.259674E-09,-2.622604E-08
414.1902,-1.240904,-1.432147E-08,NaN,-0.3251631,-1.351807E-07,NaN,0.4724417,3.969732E-08,NaN,-2.164466,1.335093E-05,-0.355563,-2.200721E-09,NaN,NaN,-0.02145602,2.607693E-10,2.990753E-07,-1.136738E-07,5.875488E-09,-2.622604E-08
414.2052,-1.22563,-1.432054E-08,NaN,-0.3251113,-1.351789E-07,NaN,0.4707774,3.929703E-08,NaN,-2.168143,1.335147E-05,-0.3559474,-1.799234E-09,NaN,NaN,-0.02142564,2.561127E-10,3.312618E-07,-1.136691E-07,5.875488E-09,-2.622604E-08
414.2225,-1.209978,-1.431961E-08,NaN,-0.3250566,-1.35177E-07,NaN,0.4690877,3.890768E-08,NaN,-2.171814,1.3352E-05,-0.3563621,-1.408539E-09,NaN,NaN,-0.0213959,2.514561E-10,3.640443E-07,-1.136645E-07,3.491302E-09,-2.622604E-08
414.2367,-1.209978,-1.431961E-08,NaN,-0.3250566,-1.35177E-07,NaN,0.4690877,3.890768E-08,NaN,-2.171814,1.3352E-05,-0.3563621,-1.408539E-09,NaN,NaN,-0.0213959,2.514561E-10,3.640443E-07,-1.136645E-07,3.491302E-09,-2.622604E-08
414.2515,-1.194153,-1.431868E-08,NaN,-0.3249999,-1.351752E-07,NaN,0.4674321,3.853043E-08,NaN,-2.175382,1.335253E-05,-0.3567835,-1.029836E-09,NaN,NaN,-0.02136679,2.467995E-10,3.944427E-07,-1.136598E-07,8.259674E-09,-2.622604E-08
414.268,-1.178286,-1.431775E-08,NaN,-0.3249418,-1.351734E-07,NaN,0.4658311,3.816502E-08,NaN,-2.178819,1.335306E-05,-0.3571949,-6.628881E-10,NaN,NaN,-0.02133827,2.421429E-10,4.230529E-07,-1.136551E-07,1.064386E-08,-2.622604E-08
414.2837,-1.161731,-1.431682E-08,NaN,-0.3248809,-1.351716E-07,NaN,0.4641204,3.780979E-08,NaN,-2.18251,1.335359E-05,-0.3575688,-3.060547E-10,NaN,NaN,-0.02130996,2.374863E-10,4.582197E-07,-1.136505E-07,8.259674E-09,-2.622604E-08
414.2994,-1.161731,-1.431682E-08,NaN,-0.3248809,-1.351716E-07,NaN,0.4641204,3.780979E-08,NaN,-2.18251,1.335359E-05,-0.3575688,-3.060547E-10,NaN,NaN,-0.02130996,2.374863E-10,4.582197E-07,-1.136505E-07,8.259674E-09,-2.622604E-08
414.3142,-1.144812,-1.431589E-08,NaN,-0.3248172,-1.351697E-07,NaN,0.4623773,3.746595E-08,NaN,-2.186022,1.335412E-05,-0.3579873,3.945044E-11,NaN,NaN,-0.02128205,2.328296E-10,4.927904E-07,-1.136459E-07,1.302805E-08,-2.622604E-08
414.3307,-1.127735,-1.431496E-08,NaN,-0.3247513,-1.351679E-07,NaN,0.460622,3.713325E-08,NaN,-2.188078,1.335465E-05,-0.3585181,3.738523E-10,NaN,NaN,-0.0212534,2.28173E-10,5.529911E-07,-1.136413E-07,8.259674E-09,-2.622604E-08
414.3467,-1.110631,-1.431403E-08,NaN,-0.3246842,-1.351661E-07,NaN,0.4589099,3.681002E-08,NaN,-2.188632,1.335519E-05,-0.3590869,6.988244E-10,NaN,NaN,-0.02122498,2.142032E-10,6.16768E-07,-1.136367E-07,1.302805E-08,-2.622604E-08
414.3622,-1.092852,-1.43131E-08,NaN,-0.3246144,-1.351643E-07,NaN,0.4571032,3.649752E-08,NaN,-2.188615,1.335573E-05,-0.3596075,1.013092E-09,NaN,NaN,-0.02119701,2.002334E-10,6.847173E-07,-1.136321E-07,1.302805E-08,-2.622604E-08
414.3779,-1.092852,-1.43131E-08,NaN,-0.3246144,-1.351643E-07,NaN,0.4571032,3.649752E-08,NaN,-2.188615,1.335573E-05,-0.3596075,1.013092E-09,NaN,NaN,-0.02119701,2.002334E-10,6.847173E-07,-1.136321E-07,1.302805E-08,-2.622604E-08
414.3926,-1.074724,-1.431217E-08,NaN,-0.3245417,-1.351625E-07,NaN,0.4552841,3.619554E-08,NaN,-2.188231,1.335627E-05,-0.3601406,1.316863E-09,NaN,NaN,-0.02116996,1.862635E-10,7.425339E-07,-1.136276E-07,1.302805E-08,-2.622604E-08
414.409,-1.056452,-1.431124E-08,NaN,-0.324467,-1.351607E-07,NaN,0.4535128,3.590246E-08,NaN,-2.18774,1.335682E-05,-0.3606635,1.611756E-09,NaN,NaN,-0.02114382,1.676371E-10,7.937938E-07,-1.13623E-07,1.779642E-08,-2.622604E-08
414.4247,-1.038166,-1.431031E-08,NaN,-0.324391,-1.35159E-07,NaN,0.4518099,3.561951E-08,NaN,-2.187323,1.335736E-05,-0.3611635,1.896534E-09,NaN,NaN,-0.02111848,1.490106E-10,8.379013E-07,-1.136185E-07,2.01806E-08,-2.622604E-08
414.4404,-1.01922,-1.430938E-08,NaN,-0.3243125,-1.351572E-07,NaN,0.4500102,3.534507E-08,NaN,-2.187435,1.335791E-05,-0.3616183,2.172807E-09,NaN,NaN,-0.02109345,1.303842E-10,8.85585E-07,-1.13614E-07,2.01806E-08,-2.622604E-08
414.4561,-1.01922,-1.430938E-08,NaN,-0.3243125,-1.351572E-07,NaN,0.4500102,3.534507E-08,NaN,-2.187435,1.335791E-05,-0.3616183,2.172807E-09,NaN,NaN,-0.02109345,1.303842E-10,8.85585E-07,-1.13614E-07,2.01806E-08,-2.622604E-08
414.4713,-0.999938,-1.430845E-08,NaN,-0.3242311,-1.351554E-07,NaN,0.4481884,3.50804E-08,NaN,-2.187651,1.335845E-05,-0.3621162,2.439329E-09,NaN,NaN,-0.02106888,1.117577E-10,9.338648E-07,-1.136095E-07,2.494897E-08,-2.622604E-08
414.4877,-0.9805252,-1.430752E-08,NaN,-0.3241477,-1.351536E-07,NaN,0.4464066,3.482529E-08,NaN,-2.187759,1.335899E-05,-0.3626362,2.696292E-09,NaN,NaN,-0.02104478,1.024445E-10,9.809524E-07,-1.13605E-07,2.494897E-08,-2.622604E-08
414.5037,-0.9611115,-1.430659E-08,NaN,-0.3240632,-1.351519E-07,NaN,0.4446905,3.457814E-08,NaN,-2.187717,1.335952E-05,-0.3631537,2.9453E-09,NaN,NaN,-0.02102121,9.778789E-11,1.024464E-06,-1.136006E-07,2.256479E-08,-2.622604E-08
414.519,-0.9611115,-1.430659E-08,NaN,-0.3240632,-1.351519E-07,NaN,0.4446905,3.457814E-08,NaN,-2.187717,1.335952E-05,-0.3631537,2.9453E-09,NaN,NaN,-0.02102121,9.778789E-11,1.024464E-06,-1.136006E-07,2.256479E-08,-2.622604E-08
414.5338,-0.9410506,-1.430567E-08,NaN,-0.3239763,-1.351501E-07,NaN,0.4428792,3.43388E-08,NaN,-2.18796,1.336006E-05,-0.3636346,3.186505E-09,NaN,NaN,-0.02099781,8.381805E-11,1.070359E-06,-1.135961E-07,2.01806E-08,-2.622604E-08
414.5505,-0.9206666,-1.430474E-08,NaN,-0.3238866,-1.351483E-07,NaN,0.4410499,3.410711E-08,NaN,-2.188141,1.33606E-05,-0.3641562,3.420061E-09,NaN,NaN,-0.02097487,6.984821E-11,1.120427E-06,-1.135917E-07,2.256479E-08,-2.622604E-08
414.566,-0.9001648,-1.430381E-08,NaN,-0.3237949,-1.351466E-07,NaN,0.4392646,3.388435E-08,NaN,-2.188147,1.336114E-05,-0.3646936,3.6447E-09,NaN,NaN,-0.02095244,5.587837E-11,1.165727E-06,-1.135873E-07,2.256479E-08,-2.622604E-08
414.5814,-0.8796746,-1.430288E-08,NaN,-0.3237022,-1.351448E-07,NaN,0.437548,3.36689E-08,NaN,-2.188007,1.336167E-05,-0.3652226,3.862017E-09,NaN,NaN,-0.02093055,5.122176E-11,1.208046E-06,-1.135829E-07,2.733316E-08,-2.622604E-08
414.5976,-0.8796746,-1.430288E-08,NaN,-0.3237022,-1.351448E-07,NaN,0.437548,3.36689E-08,NaN,-2.188007,1.336167E-05,-0.3652226,3.862017E-09,NaN,NaN,-0.02093055,5.122176E-11,1.208046E-06,-1.135829E-07,2.733316E-08,-2.622604E-08
414.6122,-0.8585496,-1.430195E-08,NaN,-0.3236073,-1.351431E-07,NaN,0.4357378,3.346206E-08,NaN,-2.18819,1.336221E-05,-0.3657126,4.070741E-09,NaN,NaN,-0.02090885,4.190853E-11,1.250365E-06,-1.135785E-07,3.210153E-08,-2.622604E-08
414.6286,-0.8371139,-1.430103E-08,NaN,-0.3235096,-1.351414E-07,NaN,0.433911,3.326364E-08,NaN,-2.188349,1.336274E-05,-0.3662416,4.27104E-09,NaN,NaN,-0.02088759,3.259531E-11,1.295069E-06,-1.135741E-07,2.971735E-08,-2.622604E-08
414.6443,-0.8155724,-1.43001E-08,NaN,-0.32341,-1.351396E-07,NaN,0.432129,3.307207E-08,NaN,-2.188358,1.336328E-05,-0.366786,4.464491E-09,NaN,NaN,-0.02086679,1.862547E-11,1.334408E-06,-1.135698E-07,2.733316E-08,-2.622604E-08
414.6601,-0.7940545,-1.429917E-08,NaN,-0.3233095,-1.351379E-07,NaN,0.4304163,3.289707E-08,NaN,-2.18823,1.336382E-05,-0.3673224,4.641365E-09,NaN,NaN,-0.0208465,4.655631E-12,1.373151E-06,-1.135655E-07,2.494898E-08,-2.622604E-08
414.6756,-0.7940545,-1.429917E-08,NaN,-0.3233095,-1.351379E-07,NaN,0.4304163,3.289707E-08,NaN,-2.18823,1.336382E-05,-0.3673224,4.641365E-09,NaN,NaN,-0.0208465,4.655631E-12,1.373151E-06,-1.135655E-07,2.494898E-08,-2.622604E-08
414.6907,-0.7719138,-1.429824E-08,NaN,-0.3232069,-1.351357E-07,NaN,0.4286104,3.25791E-08,NaN,-2.188424,1.336435E-05,-0.3678215,4.961227E-09,NaN,NaN,-0.02082637,4.655631E-12,1.41845E-06,-1.135621E-07,2.256479E-08,-2.622604E-08
414.707,-0.749474,-1.429732E-08,NaN,-0.3231017,-1.351337E-07,NaN,0.4267891,3.228863E-08,NaN,-2.188589,1.336488E-05,-0.3683596,5.253582E-09,NaN,NaN,-0.02080663,4.655631E-12,1.461366E-06,-1.135588E-07,1.541223E-08,-2.622604E-08
414.7227,-0.7269402,-1.429639E-08,NaN,-0.3229946,-1.351316E-07,NaN,0.4250136,3.201669E-08,NaN,-2.188597,1.33654E-05,-0.3689126,5.52742E-09,NaN,NaN,-0.02078733,4.655631E-12,1.500109E-06,-1.135556E-07,1.302805E-08,-2.622604E-08
414.7398,-0.7269402,-1.429639E-08,NaN,-0.3229946,-1.351316E-07,NaN,0.4250136,3.201669E-08,NaN,-2.188597,1.33654E-05,-0.3689126,5.52742E-09,NaN,NaN,-0.02078733,4.655631E-12,1.500109E-06,-1.135556E-07,1.302805E-08,-2.622604E-08
414.7537,-0.7037137,-1.429546E-08,NaN,-0.3228844,-1.351296E-07,NaN,0.4231421,3.175725E-08,NaN,-2.188856,1.336593E-05,-0.3694398,5.788742E-09,NaN,NaN,-0.02076814,4.655631E-12,1.54362E-06,-1.135524E-07,1.779642E-08,-2.622604E-08
414.7697,-0.6801488,-1.429454E-08,NaN,-0.3227707,-1.351276E-07,NaN,0.4212608,3.150868E-08,NaN,-2.189018,1.336646E-05,-0.3700075,6.039204E-09,NaN,NaN,-0.02074934,4.655631E-12,1.590112E-06,-1.135492E-07,1.779642E-08,-2.622604E-08
414.7855,-0.6564696,-1.429361E-08,NaN,-0.3226543,-1.351257E-07,NaN,0.4194328,3.127077E-08,NaN,-2.188986,1.336699E-05,-0.3705875,6.279011E-09,NaN,NaN,-0.02073097,-9.818535E-16,1.630345E-06,-1.13546E-07,1.779642E-08,-2.622604E-08
414.8011,-0.6328176,-1.429268E-08,NaN,-0.3225366,-1.351237E-07,NaN,0.4176817,3.104048E-08,NaN,-2.188804,1.336751E-05,-0.3711551,6.5112E-09,NaN,NaN,-0.02071311,-9.818535E-16,1.669982E-06,-1.135428E-07,1.302805E-08,-2.622604E-08
414.8172,-0.6328176,-1.429268E-08,NaN,-0.3225366,-1.351237E-07,NaN,0.4176817,3.104048E-08,NaN,-2.188804,1.336751E-05,-0.3711551,6.5112E-09,NaN,NaN,-0.02071311,-9.818535E-16,1.669982E-06,-1.135428E-07,1.302805E-08,-2.622604E-08
414.8321,-0.6087261,-1.429176E-08,NaN,-0.3224171,-1.351218E-07,NaN,0.4158827,3.081907E-08,NaN,-2.188864,1.336804E-05,-0.3716877,6.734502E-09,NaN,NaN,-0.02069547,-9.818535E-16,1.712003E-06,-1.135397E-07,1.302805E-08,-2.622604E-08
414.8485,-0.5844589,-1.429083E-08,NaN,-0.3222959,-1.351198E-07,NaN,0.4140933,3.060496E-08,NaN,-2.188917,1.336857E-05,-0.3722422,6.950508E-09,NaN,NaN,-0.02067821,-4.657595E-12,1.752832E-06,-1.135365E-07,1.064386E-08,-2.622604E-08
414.8643,-0.5601829,-1.428991E-08,NaN,-0.3221737,-1.351179E-07,NaN,0.4123576,3.0398E-08,NaN,-2.188872,1.33691E-05,-0.3728017,7.159357E-09,NaN,NaN,-0.02066136,-9.314207E-12,1.790085E-06,-1.135334E-07,1.302805E-08,-2.622604E-08
414.8799,-0.5601829,-1.428991E-08,NaN,-0.3221737,-1.351179E-07,NaN,0.4123576,3.0398E-08,NaN,-2.188872,1.33691E-05,-0.3728017,7.159357E-09,NaN,NaN,-0.02066136,-9.314207E-12,1.790085E-06,-1.135334E-07,1.302805E-08,-2.622604E-08
414.895,-0.5360029,-1.428898E-08,NaN,-0.3220518,-1.351159E-07,NaN,0.410692,3.019806E-08,NaN,-2.188736,1.336963E-05,-0.3733493,7.361191E-09,NaN,NaN,-0.02064494,-9.314207E-12,1.823762E-06,-1.135303E-07,1.064386E-08,-2.622604E-08
414.9113,-0.5119844,-1.428806E-08,NaN,-0.3219312,-1.35114E-07,NaN,0.4090978,3.0005E-08,NaN,-2.188558,1.337016E-05,-0.3738778,7.556144E-09,NaN,NaN,-0.02062895,-1.397082E-11,1.853266E-06,-1.135272E-07,1.541223E-08,-2.622604E-08
414.9274,-0.4881681,-1.428713E-08,NaN,-0.321813,-1.351121E-07,NaN,0.4075704,2.981727E-08,NaN,-2.188381,1.337069E-05,-0.3743857,7.74577E-09,NaN,NaN,-0.02061339,-1.397082E-11,1.87979E-06,-1.135241E-07,1.541223E-08,-2.622604E-08
414.943,-0.4645787,-1.428621E-08,NaN,-0.3216979,-1.351102E-07,NaN,0.406104,2.963617E-08,NaN,-2.188231,1.337122E-05,-0.374875,7.928758E-09,NaN,NaN,-0.02059823,-1.862743E-11,1.905122E-06,-1.13521E-07,1.779642E-08,-2.622604E-08
414.9592,-0.4645787,-1.428621E-08,NaN,-0.3216979,-1.351102E-07,NaN,0.406104,2.963617E-08,NaN,-2.188231,1.337122E-05,-0.374875,7.928758E-09,NaN,NaN,-0.02059823,-1.862743E-11,1.905122E-06,-1.13521E-07,1.779642E-08,-2.622604E-08
414.9741,-0.4412308,-1.428528E-08,NaN,-0.3215866,-1.351083E-07,NaN,0.4046936,2.946159E-08,NaN,-2.188112,1.337175E-05,-0.3753482,8.105236E-09,NaN,NaN,-0.02058343,-2.328404E-11,1.928964E-06,-1.135179E-07,1.541223E-08,-2.622604E-08
414.9904,-0.4181327,-1.428436E-08,NaN,-0.3214794,-1.351064E-07,NaN,0.4033352,2.929338E-08,NaN,-2.188018,1.337228E-05,-0.3758073,8.275332E-09,NaN,NaN,-0.02056899,-2.328404E-11,1.951018E-06,-1.135148E-07,1.779642E-08,-2.622604E-08
415.006,-0.3952885,-1.428344E-08,NaN,-0.3213766,-1.351045E-07,NaN,0.4020258,2.913144E-08,NaN,-2.187937,1.337281E-05,-0.3762539,8.439169E-09,NaN,NaN,-0.02055488,-2.794066E-11,1.974264E-06,-1.135118E-07,1.541223E-08,-2.622604E-08
415.0217,-0.3726996,-1.428251E-08,NaN,-0.3212784,-1.351026E-07,NaN,0.4007633,2.897563E-08,NaN,-2.18786,1.337334E-05,-0.3766885,8.596874E-09,NaN,NaN,-0.02054109,-3.725388E-11,1.994529E-06,-1.135087E-07,1.779642E-08,-2.622604E-08
415.0376,-0.3726996,-1.428251E-08,NaN,-0.3212784,-1.351026E-07,NaN,0.4007633,2.897563E-08,NaN,-2.18786,1.337334E-05,-0.3766885,8.596874E-09,NaN,NaN,-0.02054109,-3.725388E-11,1.994529E-06,-1.135087E-07,1.779642E-08,-2.622604E-08
415.0527,-0.3503661,-1.428159E-08,NaN,-0.3211848,-1.351007E-07,NaN,0.3995458,2.882441E-08,NaN,-2.187783,1.337387E-05,-0.3771115,8.749981E-09,NaN,NaN,-0.02052762,-4.191049E-11,2.012411E-06,-1.135057E-07,2.01806E-08,-2.622604E-08
415.0692,-0.3282867,-1.428066E-08,NaN,-0.3210958,-1.350988E-07,NaN,0.3983718,2.867913E-08,NaN,-2.187703,1.337441E-05,-0.3775229,8.897161E-09,NaN,NaN,-0.02051446,-5.122372E-11,2.029249E-06,-1.135027E-07,2.256479E-08,-2.622604E-08
415.0849,-0.3064598,-1.427974E-08,NaN,-0.3210113,-1.35097E-07,NaN,0.3972403,2.853965E-08,NaN,-2.187622,1.337494E-05,-0.377923,9.038536E-09,NaN,NaN,-0.02050161,-5.588033E-11,2.046534E-06,-1.134997E-07,2.256479E-08,-2.622604E-08
415.1004,-0.284883,-1.427882E-08,NaN,-0.3209314,-1.350951E-07,NaN,0.3961499,2.840445E-08,NaN,-2.18754,1.337547E-05,-0.3783119,9.175629E-09,NaN,NaN,-0.02048907,-6.053694E-11,2.062031E-06,-1.134967E-07,2.01806E-08,-2.622604E-08
415.1163,-0.284883,-1.427882E-08,NaN,-0.3209314,-1.350951E-07,NaN,0.3961499,2.840445E-08,NaN,-2.18754,1.337547E-05,-0.3783119,9.175629E-09,NaN,NaN,-0.02048907,-6.053694E-11,2.062031E-06,-1.134967E-07,2.01806E-08,-2.622604E-08
415.1311,-0.263554,-1.42779E-08,NaN,-0.3208559,-1.350932E-07,NaN,0.3950995,2.827482E-08,NaN,-2.18746,1.3376E-05,-0.3786897,9.307163E-09,NaN,NaN,-0.02047683,-6.519356E-11,2.075592E-06,-1.134937E-07,2.01806E-08,-2.622604E-08
415.1474,-0.2488436,-1.427697E-08,NaN,-0.3208053,-1.350914E-07,NaN,0.3955517,2.815069E-08,NaN,-2.183898,1.337654E-05,-0.3791458,9.433192E-09,NaN,NaN,-0.02046809,-7.450678E-11,2.031931E-06,-1.134907E-07,1.541223E-08,-2.622604E-08
415.1632,-0.2383584,-1.427605E-08,NaN,-0.3207876,-1.350895E-07,NaN,0.3967659,2.803053E-08,NaN,-2.180582,1.337707E-05,-0.3790517,9.555245E-09,NaN,NaN,-0.02046075,-7.91634E-11,1.961598E-06,-1.134877E-07,1.064386E-08,-2.622604E-08
415.179,-0.2383584,-1.427605E-08,NaN,-0.3207876,-1.350895E-07,NaN,0.3967659,2.803053E-08,NaN,-2.180582,1.337707E-05,-0.3790517,9.555245E-09,NaN,NaN,-0.02046075,-7.91634E-11,1.961598E-06,-1.134877E-07,1.064386E-08,-2.622604E-08
415.194,-0.230576,-1.427513E-08,NaN,-0.3207937,-1.350877E-07,NaN,0.3981282,2.791569E-08,NaN,-2.178446,1.33776E-05,-0.3786942,9.671983E-09,NaN,NaN,-0.02045334,-8.382001E-11,1.891711E-06,-1.134848E-07,5.87549E-09,-2.622604E-08
415.2104,-0.224527,-1.42742E-08,NaN,-0.320818,-1.350858E-07,NaN,0.3993778,2.780607E-08,NaN,-2.177121,1.337813E-05,-0.3783169,9.783507E-09,NaN,NaN,-0.02044534,-8.847663E-11,1.838216E-06,-1.134818E-07,5.87549E-09,-2.622604E-08
415.227,-0.2195944,-1.427328E-08,NaN,-0.3208553,-1.35084E-07,NaN,0.4004742,2.770154E-08,NaN,-2.176344,1.337866E-05,-0.377982,9.889927E-09,NaN,NaN,-0.02043716,-9.313324E-11,1.791128E-06,-1.134789E-07,5.87549E-09,-2.622604E-08
415.2419,-0.215385,-1.427236E-08,NaN,-0.3209011,-1.350822E-07,NaN,0.4014387,2.760062E-08,NaN,-2.175928,1.337919E-05,-0.3776957,9.992752E-09,NaN,NaN,-0.02042898,-9.778986E-11,1.749256E-06,-1.13476E-07,5.87549E-09,-2.622604E-08
415.2592,-0.215385,-1.427236E-08,NaN,-0.3209011,-1.350822E-07,NaN,0.4014387,2.760062E-08,NaN,-2.175928,1.337919E-05,-0.3776957,9.992752E-09,NaN,NaN,-0.02042898,-9.778986E-11,1.749256E-06,-1.13476E-07,5.87549E-09,-2.622604E-08
415.2729,-0.2116483,-1.427144E-08,NaN,-0.3209524,-1.350803E-07,NaN,0.4023038,2.750463E-08,NaN,-2.175747,1.337973E-05,-0.3774494,1.009064E-08,NaN,NaN,-0.02042087,-1.024465E-10,1.709768E-06,-1.13473E-07,3.491305E-09,-2.622604E-08
415.2895,-0.2082247,-1.427052E-08,NaN,-0.3210071,-1.350785E-07,NaN,0.4030977,2.741349E-08,NaN,-2.175716,1.338026E-05,-0.3772323,1.018368E-08,NaN,NaN,-0.02041287,-1.071031E-10,1.671621E-06,-1.134701E-07,-1.277067E-09,-2.622604E-08
415.3054,-0.2050505,-1.426959E-08,NaN,-0.3336683,-1.350767E-07,NaN,0.4029059,2.732709E-08,NaN,-2.178857,1.338079E-05,-0.3808649,1.027198E-08,NaN,NaN,-0.02041384,-1.117597E-10,1.517096E-06,-1.134672E-07,1.107119E-09,-2.622604E-08
415.3211,-0.202117,-1.426867E-08,NaN,-0.3539641,-1.350749E-07,NaN,0.4034123,2.724393E-08,NaN,-2.182829,1.338132E-05,-0.384238,1.035703E-08,NaN,NaN,-0.02041342,-1.164163E-10,1.389244E-06,-1.134644E-07,1.107119E-09,-2.622604E-08
415.3372,-0.202117,-1.426867E-08,NaN,-0.3539641,-1.350749E-07,NaN,0.4034123,2.724393E-08,NaN,-2.182829,1.338132E-05,-0.384238,1.035703E-08,NaN,NaN,-0.02041342,-1.164163E-10,1.389244E-06,-1.134644E-07,1.107119E-09,-2.622604E-08
415.3523,-0.1993798,-1.426775E-08,NaN,-0.3788383,-1.350731E-07,NaN,0.4043244,2.716536E-08,NaN,-2.186484,1.338185E-05,-0.387025,1.04375E-08,NaN,NaN,-0.02041092,-1.210729E-10,1.297416E-06,-1.134615E-07,-1.277067E-09,-2.622604E-08
415.3684,-0.196791,-1.426683E-08,NaN,-0.4064072,-1.350713E-07,NaN,0.4053125,2.709129E-08,NaN,-2.188395,1.338238E-05,-0.3894936,1.051347E-08,NaN,NaN,-0.0204059,-1.257295E-10,1.249434E-06,-1.134586E-07,1.107119E-09,-2.622604E-08
415.3846,-0.1943083,-1.426591E-08,NaN,-0.4347516,-1.350695E-07,NaN,0.4063719,2.702164E-08,NaN,-2.188439,1.338291E-05,-0.3914684,1.058503E-08,NaN,NaN,-0.02039954,-1.303861E-10,1.224847E-06,-1.134558E-07,1.107119E-09,-2.622604E-08
415.3998,-0.1943083,-1.426591E-08,NaN,-0.4347516,-1.350695E-07,NaN,0.4063719,2.702164E-08,NaN,-2.188439,1.338291E-05,-0.3914684,1.058503E-08,NaN,NaN,-0.02039954,-1.303861E-10,1.224847E-06,-1.134558E-07,1.107119E-09,-2.622604E-08
415.4149,-0.1919004,-1.426499E-08,NaN,-0.4634461,-1.350677E-07,NaN,0.4073937,2.695489E-08,NaN,-2.187523,1.338344E-05,-0.3932154,1.065367E-08,NaN,NaN,-0.02039354,-1.303861E-10,1.196982E-06,-1.134529E-07,5.87549E-09,-2.622604E-08
415.4314,-0.1895475,-1.426407E-08,NaN,-0.4922268,-1.350659E-07,NaN,0.408384,2.689241E-08,NaN,-2.186449,1.338397E-05,-0.3947898,1.071805E-08,NaN,NaN,-0.02038822,-1.350428E-10,1.157121E-06,-1.134501E-07,9.451769E-09,-2.622604E-08
415.4474,-0.1872369,-1.426315E-08,NaN,-0.5209299,-1.350642E-07,NaN,0.4093422,2.683412E-08,NaN,-2.185661,1.33845E-05,-0.3962312,1.077825E-08,NaN,NaN,-0.02038342,-1.350428E-10,1.107649E-06,-1.134472E-07,1.064386E-08,-2.622604E-08
415.4633,-0.1849572,-1.426223E-08,NaN,-0.5486928,-1.350624E-07,NaN,0.4103227,2.677851E-08,NaN,-2.185082,1.338503E-05,-0.3973388,1.083575E-08,NaN,NaN,-0.02037832,-1.396994E-10,1.063244E-06,-1.134444E-07,1.064386E-08,-2.622604E-08
415.4788,-0.1849572,-1.426223E-08,NaN,-0.5486928,-1.350624E-07,NaN,0.4103227,2.677851E-08,NaN,-2.185082,1.338503E-05,-0.3973388,1.083575E-08,NaN,NaN,-0.02037832,-1.396994E-10,1.063244E-06,-1.134444E-07,1.064386E-08,-2.622604E-08
415.494,-0.1827021,-1.426131E-08,NaN,-0.5757523,-1.350606E-07,NaN,0.4112164,2.672695E-08,NaN,-2.184829,1.338555E-05,-0.398398,1.088921E-08,NaN,NaN,-0.02037349,-1.396994E-10,1.017348E-06,-1.134416E-07,8.259676E-09,-2.622604E-08
415.5104,-0.1804692,-1.426039E-08,NaN,-0.6022562,-1.350589E-07,NaN,0.4120423,2.667937E-08,NaN,-2.184824,1.338609E-05,-0.3994521,1.09387E-08,NaN,NaN,-0.02036881,-1.44356E-10,9.702605E-07,-1.134388E-07,4.683397E-09,-2.622604E-08
415.5265,-0.1782575,-1.425947E-08,NaN,-0.6282974,-1.350571E-07,NaN,0.4128259,2.663426E-08,NaN,-2.184931,1.338661E-05,-0.4004992,1.098571E-08,NaN,NaN,-0.02036414,-1.44356E-10,9.225768E-07,-1.13436E-07,1.107118E-09,-2.622604E-08
415.5424,-0.1760623,-1.425855E-08,NaN,-0.653173,-1.350553E-07,NaN,0.4136458,2.659299E-08,NaN,-2.184852,1.338714E-05,-0.4012879,1.102887E-08,NaN,NaN,-0.02035891,-1.490126E-10,8.86516E-07,-1.134332E-07,5.875489E-09,-2.622604E-08
415.5582,-0.1760623,-1.425855E-08,NaN,-0.653173,-1.350553E-07,NaN,0.4136458,2.659299E-08,NaN,-2.184852,1.338714E-05,-0.4012879,1.102887E-08,NaN,NaN,-0.02035891,-1.490126E-10,8.86516E-07,-1.134332E-07,5.875489E-09,-2.622604E-08
415.5731,-0.1738825,-1.425763E-08,NaN,-0.6772199,-1.350536E-07,NaN,0.4144078,2.65555E-08,NaN,-2.184739,1.338767E-05,-0.40206,1.106827E-08,NaN,NaN,-0.02035389,-1.490126E-10,8.519453E-07,-1.134305E-07,5.875489E-09,-2.622604E-08
415.5895,-0.1717185,-1.425671E-08,NaN,-0.7006481,-1.350518E-07,NaN,0.4151327,2.652028E-08,NaN,-2.184662,1.33882E-05,-0.4028339,1.110539E-08,NaN,NaN,-0.02034909,-1.536692E-10,8.161825E-07,-1.134277E-07,2.299211E-09,-2.622604E-08
415.6051,-0.1695716,-1.425579E-08,NaN,-0.7235891,-1.350501E-07,NaN,0.4158398,2.648871E-08,NaN,-2.18463,1.338873E-05,-0.4035982,1.113886E-08,NaN,NaN,-0.02034442,-1.583258E-10,7.798237E-07,-1.13425E-07,2.299211E-09,-2.622604E-08
415.6211,-0.1674375,-1.425487E-08,NaN,-0.745364,-1.350484E-07,NaN,0.4165982,2.646072E-08,NaN,-2.184435,1.338926E-05,-0.4041027,1.116875E-08,NaN,NaN,-0.02033927,-1.629824E-10,7.532997E-07,-1.134222E-07,2.299211E-09,-2.622604E-08
415.637,-0.1674375,-1.425487E-08,NaN,-0.745364,-1.350484E-07,NaN,0.4165982,2.646072E-08,NaN,-2.184435,1.338926E-05,-0.4041027,1.116875E-08,NaN,NaN,-0.02033927,-1.629824E-10,7.532997E-07,-1.134222E-07,2.299211E-09,-2.622604E-08
415.6519,-0.1653155,-1.425396E-08,NaN,-0.7663249,-1.350467E-07,NaN,0.4173061,2.643482E-08,NaN,-2.184265,1.338979E-05,-0.4045936,1.119654E-08,NaN,NaN,-0.02033438,-1.629824E-10,7.226033E-07,-1.134195E-07,1.107118E-09,-2.622604E-08
415.6684,-0.1632069,-1.425304E-08,NaN,-0.7866911,-1.350449E-07,NaN,0.4179794,2.641098E-08,NaN,-2.184184,1.339032E-05,-0.4050936,1.122228E-08,NaN,NaN,-0.02032972,-1.629824E-10,6.883306E-07,-1.134168E-07,-2.469161E-09,-2.622604E-08
415.6843,-0.1611134,-1.425212E-08,NaN,-0.8065995,-1.350432E-07,NaN,0.4186359,2.639057E-08,NaN,-2.184177,1.339084E-05,-0.4055937,1.12446E-08,NaN,NaN,-0.0203252,-1.629824E-10,6.5525E-07,-1.13414E-07,-1.277068E-09,-2.622604E-08
415.7004,-0.1590302,-1.42512E-08,NaN,-0.8253744,-1.350415E-07,NaN,0.4193433,2.63721E-08,NaN,-2.184013,1.339137E-05,-0.4058448,1.126496E-08,NaN,NaN,-0.02032016,-1.67639E-10,6.2962E-07,-1.134113E-07,-3.661254E-09,-2.622604E-08
415.7158,-0.1590302,-1.42512E-08,NaN,-0.8253744,-1.350415E-07,NaN,0.4193433,2.63721E-08,NaN,-2.184013,1.339137E-05,-0.4058448,1.126496E-08,NaN,NaN,-0.02032016,-1.67639E-10,6.2962E-07,-1.134113E-07,-3.661254E-09,-2.622604E-08
415.7308,-0.1569567,-1.425028E-08,NaN,-0.8433703,-1.350398E-07,NaN,0.4200002,2.635695E-08,NaN,-2.183869,1.33919E-05,-0.4060921,1.128201E-08,NaN,NaN,-0.02031538,-1.67639E-10,6.022019E-07,-1.134086E-07,-2.469161E-09,-2.622604E-08
415.7473,-0.1548944,-1.424937E-08,NaN,-0.8608075,-1.350381E-07,NaN,0.4206233,2.634365E-08,NaN,-2.183803,1.339243E-05,-0.4063571,1.129721E-08,NaN,NaN,-0.02031083,-1.722956E-10,5.747837E-07,-1.13406E-07,-6.045439E-09,-2.622604E-08
415.7635,-0.1528453,-1.424845E-08,NaN,-0.8778233,-1.350364E-07,NaN,0.4212309,2.633357E-08,NaN,-2.183804,1.339296E-05,-0.4066295,1.130919E-08,NaN,NaN,-0.0203064,-1.722956E-10,5.485577E-07,-1.134033E-07,-6.045439E-09,-2.622604E-08
415.7806,-0.1508043,-1.424753E-08,NaN,-0.8937417,-1.350347E-07,NaN,0.4218901,2.632664E-08,NaN,-2.183643,1.339349E-05,-0.4066604,1.131802E-08,NaN,NaN,-0.02030148,-1.722956E-10,5.27696E-07,-1.134006E-07,-7.237532E-09,-2.622604E-08
415.7952,-0.1508043,-1.424753E-08,NaN,-0.8937417,-1.350347E-07,NaN,0.4218901,2.632664E-08,NaN,-2.183643,1.339349E-05,-0.4066604,1.131802E-08,NaN,NaN,-0.02030148,-1.722956E-10,5.27696E-07,-1.134006E-07,-7.237532E-09,-2.622604E-08
415.8102,-0.1487706,-1.424661E-08,NaN,-0.9089178,-1.35033E-07,NaN,0.4224992,2.632139E-08,NaN,-2.1835,1.339401E-05,-0.4066945,1.132516E-08,NaN,NaN,-0.02029681,-1.722956E-10,5.050463E-07,-1.13398E-07,-4.2573E-09,-2.622604E-08
415.8268,-0.146746,-1.42457E-08,NaN,-0.9235714,-1.350314E-07,NaN,0.4230752,2.631921E-08,NaN,-2.183437,1.339454E-05,-0.4067529,1.132924E-08,NaN,NaN,-0.02029237,-1.722956E-10,4.812044E-07,-1.133953E-07,-7.833579E-09,-2.622604E-08
415.8424,-0.1447328,-1.424478E-08,NaN,-0.9378393,-1.350297E-07,NaN,0.4236364,2.632002E-08,NaN,-2.183442,1.339507E-05,-0.4068251,1.133032E-08,NaN,NaN,-0.02028805,-1.722956E-10,4.603428E-07,-1.133927E-07,-1.20059E-08,-2.622604E-08
415.8586,-0.1447328,-1.424478E-08,NaN,-0.9378393,-1.350297E-07,NaN,0.4236364,2.632002E-08,NaN,-2.183442,1.339507E-05,-0.4068251,1.133032E-08,NaN,NaN,-0.02028805,-1.722956E-10,4.603428E-07,-1.133927E-07,-1.20059E-08,-2.622604E-08
415.8734,-0.1427257,-1.424386E-08,NaN,-0.9510449,-1.35028E-07,NaN,0.4242492,2.632236E-08,NaN,-2.183285,1.339559E-05,-0.4066628,1.132988E-08,NaN,NaN,-0.02028326,-1.67639E-10,4.442496E-07,-1.1339E-07,-1.081381E-08,-2.622604E-08
415.8901,-0.1407237,-1.424295E-08,NaN,-0.9635433,-1.350263E-07,NaN,0.4248118,2.632762E-08,NaN,-2.183147,1.339611E-05,-0.4065103,1.132652E-08,NaN,NaN,-0.02027871,-1.67639E-10,4.299445E-07,-1.133874E-07,-1.439009E-08,-2.622604E-08
415.9059,-0.1387289,-1.424203E-08,NaN,-0.9755539,-1.350247E-07,NaN,0.4253417,2.633431E-08,NaN,-2.18309,1.339663E-05,-0.4063885,1.132173E-08,NaN,NaN,-0.0202744,-1.629824E-10,4.150433E-07,-1.133848E-07,-1.737032E-08,-2.622604E-08
415.9219,-0.136744,-1.424111E-08,NaN,-0.9872128,-1.35023E-07,NaN,0.4258574,2.634383E-08,NaN,-2.183101,1.339715E-05,-0.4062863,1.131411E-08,NaN,NaN,-0.02027021,-1.536692E-10,3.953738E-07,-1.133822E-07,-1.617823E-08,-2.622604E-08
415.9378,-0.136744,-1.424111E-08,NaN,-0.9872128,-1.35023E-07,NaN,0.4258574,2.634383E-08,NaN,-2.183101,1.339715E-05,-0.4062863,1.131411E-08,NaN,NaN,-0.02027021,-1.536692E-10,3.953738E-07,-1.133822E-07,-1.617823E-08,-2.622604E-08
415.9527,-0.1347636,-1.42402E-08,NaN,-0.9978426,-1.350214E-07,NaN,0.4264247,2.63547E-08,NaN,-2.182948,1.339767E-05,-0.4059559,1.130513E-08,NaN,NaN,-0.02026554,-1.490126E-10,3.828568E-07,-1.133796E-07,-1.737032E-08,-2.622604E-08
415.9691,-0.1327866,-1.423928E-08,NaN,-1.007798,-1.350197E-07,NaN,0.4269419,2.636832E-08,NaN,-2.182814,1.339819E-05,-0.4056413,1.129341E-08,NaN,NaN,-0.02026112,-1.396993E-10,3.685517E-07,-1.13377E-07,-1.617823E-08,-2.622604E-08
415.9853,-0.1308151,-1.423837E-08,NaN,-1.017299,-1.350181E-07,NaN,0.4274265,2.638322E-08,NaN,-2.182761,1.339871E-05,-0.405363,1.128041E-08,NaN,NaN,-0.02025694,-1.350427E-10,3.530545E-07,-1.133745E-07,-1.70723E-08,-2.622604E-08
416.0007,-0.1288524,-1.423745E-08,NaN,-1.02648,-1.350164E-07,NaN,0.4278977,2.640077E-08,NaN,-2.182777,1.339923E-05,-0.4051096,1.126474E-08,NaN,NaN,-0.02025288,-1.303861E-10,3.357691E-07,-1.133719E-07,-1.617823E-08,-2.622604E-08
416.017,-0.1288524,-1.423745E-08,NaN,-1.02648,-1.350164E-07,NaN,0.4278977,2.640077E-08,NaN,-2.182777,1.339923E-05,-0.4051096,1.126474E-08,NaN,NaN,-0.02025288,-1.303861E-10,3.357691E-07,-1.133719E-07,-1.617823E-08,-2.622604E-08
416.0322,-0.1268932,-1.423654E-08,NaN,-1.034663,-1.350148E-07,NaN,0.4284207,2.642095E-08,NaN,-2.182627,1.339975E-05,-0.4046336,1.124646E-08,NaN,NaN,-0.02024834,-1.257295E-10,3.268284E-07,-1.133693E-07,-1.737032E-08,-2.622604E-08
416.0489,-0.1249359,-1.423562E-08,NaN,-1.042204,-1.350132E-07,NaN,0.4288935,2.644227E-08,NaN,-2.182497,1.340027E-05,-0.4041787,1.122704E-08,NaN,NaN,-0.02024406,-1.210729E-10,3.131194E-07,-1.133668E-07,-1.647625E-08,-2.622604E-08
416.0643,-0.1229832,-1.423471E-08,NaN,-1.049319,-1.350116E-07,NaN,0.4293341,2.646613E-08,NaN,-2.182448,1.340079E-05,-0.4037651,1.120507E-08,NaN,NaN,-0.02024,-1.164163E-10,2.982182E-07,-1.133642E-07,-1.528416E-08,-2.622604E-08
416.0798,-0.1229832,-1.423471E-08,NaN,-1.049319,-1.350116E-07,NaN,0.4293341,2.646613E-08,NaN,-2.182448,1.340079E-05,-0.4037651,1.120507E-08,NaN,NaN,-0.02024,-1.164163E-10,2.982182E-07,-1.133642E-07,-1.528416E-08,-2.622604E-08
416.0953,-0.1210301,-1.423379E-08,NaN,-1.055384,-1.350099E-07,NaN,0.4298175,2.649107E-08,NaN,-2.182272,1.340132E-05,-0.4031448,1.118203E-08,NaN,NaN,-0.02023553,-1.117597E-10,2.892775E-07,-1.133617E-07,-1.468811E-08,-2.622604E-08
416.1115,-0.1190757,-1.423288E-08,NaN,-1.060783,-1.350083E-07,NaN,0.4302472,2.651707E-08,NaN,-2.182149,1.340184E-05,-0.4025582,1.115793E-08,NaN,NaN,-0.02023134,-1.117597E-10,2.803368E-07,-1.133592E-07,-1.409207E-08,-2.622604E-08
416.1276,-0.1171235,-1.423197E-08,NaN,-1.065754,-1.350067E-07,NaN,0.4306441,2.654551E-08,NaN,-2.182124,1.340237E-05,-0.4020224,1.113138E-08,NaN,NaN,-0.02022738,-1.117597E-10,2.672238E-07,-1.133567E-07,-1.588021E-08,-2.622604E-08
416.1433,-0.1151778,-1.423105E-08,NaN,-1.070443,-1.350051E-07,NaN,0.4310291,2.657636E-08,NaN,-2.182169,1.340289E-05,-0.4015237,1.110243E-08,NaN,NaN,-0.02022353,-1.071031E-10,2.523226E-07,-1.133542E-07,-1.20059E-08,-2.622604E-08
416.159,-0.1151778,-1.423105E-08,NaN,-1.070443,-1.350051E-07,NaN,0.4310291,2.657636E-08,NaN,-2.182169,1.340289E-05,-0.4015237,1.110243E-08,NaN,NaN,-0.02022353,-1.071031E-10,2.523226E-07,-1.133542E-07,-1.20059E-08,-2.622604E-08
416.174,-0.1132343,-1.423014E-08,NaN,-1.074179,-1.350035E-07,NaN,0.4314674,2.660814E-08,NaN,-2.182041,1.340341E-05,-0.400814,1.107254E-08,NaN,NaN,-0.0202192,-1.024464E-10,2.433819E-07,-1.133517E-07,-1.081381E-08,-2.622604E-08
416.1903,-0.1112911,-1.422922E-08,NaN,-1.07732,-1.350019E-07,NaN,0.4318568,2.664085E-08,NaN,-2.181925,1.340393E-05,-0.4001352,1.104173E-08,NaN,NaN,-0.02021511,-9.778983E-11,2.332491E-07,-1.133492E-07,-1.021776E-08,-2.622604E-08
416.2062,-0.1093515,-1.422831E-08,NaN,-1.080087,-1.350003E-07,NaN,0.4322142,2.667587E-08,NaN,-2.181841,1.340445E-05,-0.39951,1.10086E-08,NaN,NaN,-0.02021121,-9.313322E-11,2.219242E-07,-1.133467E-07,-1.036678E-08,-2.622604E-08
416.222,-0.10742,-1.42274E-08,NaN,-1.082615,-1.349988E-07,NaN,0.432561,2.671175E-08,NaN,-2.181787,1.340498E-05,-0.3989225,1.097462E-08,NaN,NaN,-0.02020743,-9.313322E-11,2.135796E-07,-1.133442E-07,-9.621718E-09,-2.622604E-08
416.2375,-0.10742,-1.42274E-08,NaN,-1.082615,-1.349988E-07,NaN,0.432561,2.671175E-08,NaN,-2.181787,1.340498E-05,-0.3989225,1.097462E-08,NaN,NaN,-0.02020743,-9.313322E-11,2.135796E-07,-1.133442E-07,-9.621718E-09,-2.622604E-08
416.253,-0.1054917,-1.422649E-08,NaN,-1.084226,-1.349972E-07,NaN,0.4329625,2.674848E-08,NaN,-2.181559,1.34055E-05,-0.3981239,1.093979E-08,NaN,NaN,-0.02020321,-8.84766E-11,2.123875E-07,-1.133418E-07,-1.051579E-08,-2.622604E-08
416.2695,-0.1035646,-1.422557E-08,NaN,-1.085274,-1.349956E-07,NaN,0.4333133,2.678744E-08,NaN,-2.181296,1.340603E-05,-0.397363,1.090273E-08,NaN,NaN,-0.02019917,-8.84766E-11,2.088112E-07,-1.133393E-07,-9.621718E-09,-2.622604E-08
416.2868,-0.1016421,-1.422466E-08,NaN,-1.085976,-1.34994E-07,NaN,0.4336326,2.682718E-08,NaN,-2.181046,1.340655E-05,-0.3966579,1.086488E-08,NaN,NaN,-0.02019533,-8.381999E-11,2.052349E-07,-1.133369E-07,-8.429625E-09,-2.622604E-08
416.3011,-0.09972845,-1.422375E-08,NaN,-1.086467,-1.349925E-07,NaN,0.4339423,2.686769E-08,NaN,-2.180822,1.340708E-05,-0.3959927,1.082627E-08,NaN,NaN,-0.02019162,-8.381999E-11,1.980824E-07,-1.133344E-07,-6.790497E-09,-2.622604E-08
416.3167,-0.09972845,-1.422375E-08,NaN,-1.086467,-1.349925E-07,NaN,0.4339423,2.686769E-08,NaN,-2.180822,1.340708E-05,-0.3959927,1.082627E-08,NaN,NaN,-0.02019162,-8.381999E-11,1.980824E-07,-1.133344E-07,-6.790497E-09,-2.622604E-08
416.3321,-0.0978194,-1.422284E-08,NaN,-1.086078,-1.349909E-07,NaN,0.4343054,2.691036E-08,NaN,-2.180424,1.34076E-05,-0.3951251,1.07855E-08,NaN,NaN,-0.0201875,-7.916337E-11,2.010626E-07,-1.13332E-07,-6.194451E-09,-2.622604E-08
416.3483,-0.09592393,-1.422192E-08,NaN,-1.085147,-1.349893E-07,NaN,0.4346282,2.695374E-08,NaN,-2.179989,1.340812E-05,-0.3942914,1.074401E-08,NaN,NaN,-0.02018354,-7.916337E-11,1.992745E-07,-1.133296E-07,-6.194451E-09,-2.622604E-08
416.3644,-0.09405688,-1.422101E-08,NaN,-1.083892,-1.349878E-07,NaN,0.4349338,2.699923E-08,NaN,-2.179564,1.340865E-05,-0.3935113,1.070042E-08,NaN,NaN,-0.02017978,-7.916337E-11,1.945061E-07,-1.133272E-07,-5.449393E-09,-2.622604E-08
416.3801,-0.0922224,-1.42201E-08,NaN,-1.082446,-1.349863E-07,NaN,0.4352396,2.704537E-08,NaN,-2.179164,1.340918E-05,-0.3927699,1.065618E-08,NaN,NaN,-0.02017614,-7.916337E-11,1.939101E-07,-1.133248E-07,-6.119945E-09,-2.622604E-08
416.3961,-0.0922224,-1.42201E-08,NaN,-1.082446,-1.349863E-07,NaN,0.4352396,2.704537E-08,NaN,-2.179164,1.340918E-05,-0.3927699,1.065618E-08,NaN,NaN,-0.02017614,-7.916337E-11,1.939101E-07,-1.133248E-07,-6.119945E-09,-2.622604E-08
416.4111,-0.09041142,-1.421919E-08,NaN,-1.08013,-1.349847E-07,NaN,0.4356041,2.709357E-08,NaN,-2.178588,1.34097E-05,-0.3918237,1.060988E-08,NaN,NaN,-0.02017207,-7.916337E-11,1.956982E-07,-1.133224E-07,-4.033782E-09,-2.622604E-08
416.4276,-0.08863947,-1.421828E-08,NaN,-1.077296,-1.349832E-07,NaN,0.435935,2.714237E-08,NaN,-2.177978,1.341023E-05,-0.3909168,1.056298E-08,NaN,NaN,-0.02016818,-7.916337E-11,1.956982E-07,-1.1332E-07,-2.841689E-09,-2.622604E-08
416.4435,-0.08690838,-1.421737E-08,NaN,-1.074162,-1.349816E-07,NaN,0.4362478,2.719317E-08,NaN,-2.177383,1.341076E-05,-0.3900661,1.051407E-08,NaN,NaN,-0.02016448,-7.916337E-11,1.951022E-07,-1.133176E-07,-2.990701E-09,-2.622604E-08
416.4594,-0.08690838,-1.421737E-08,NaN,-1.074162,-1.349816E-07,NaN,0.4362478,2.719317E-08,NaN,-2.177383,1.341076E-05,-0.3900661,1.051407E-08,NaN,NaN,-0.02016448,-7.916337E-11,1.951022E-07,-1.133176E-07,-2.990701E-09,-2.622604E-08
416.4746,-0.08521495,-1.421646E-08,NaN,-1.070858,-1.349801E-07,NaN,0.4365568,2.724452E-08,NaN,-2.176818,1.341128E-05,-0.389258,1.046462E-08,NaN,NaN,-0.02016092,-7.916337E-11,1.921219E-07,-1.133152E-07,-1.277068E-09,-2.622604E-08
416.4916,-0.08354625,-1.421555E-08,NaN,-1.066704,-1.349786E-07,NaN,0.4369186,2.729641E-08,NaN,-2.176084,1.34118E-05,-0.388252,1.041463E-08,NaN,NaN,-0.02015694,-7.450675E-11,1.986784E-07,-1.133129E-07,-2.543666E-09,-2.622604E-08
416.5072,-0.08191492,-1.421463E-08,NaN,-1.062053,-1.349771E-07,NaN,0.4372428,2.735024E-08,NaN,-2.17532,1.341233E-05,-0.3872901,1.03627E-08,NaN,NaN,-0.02015315,-7.450675E-11,2.034468E-07,-1.133105E-07,-1.798608E-09,-2.622604E-08
416.5229,-0.08032142,-1.421372E-08,NaN,-1.05712,-1.349755E-07,NaN,0.437546,2.740456E-08,NaN,-2.174577,1.341286E-05,-0.3863885,1.031028E-08,NaN,NaN,-0.02014955,-7.450675E-11,2.034468E-07,-1.133082E-07,-1.594804E-10,-2.622604E-08
416.539,-0.08032142,-1.421372E-08,NaN,-1.05712,-1.349755E-07,NaN,0.437546,2.740456E-08,NaN,-2.174577,1.341286E-05,-0.3863885,1.031028E-08,NaN,NaN,-0.02014955,-7.450675E-11,2.034468E-07,-1.133082E-07,-1.594804E-10,-2.622604E-08
416.5541,-0.07876208,-1.421281E-08,NaN,-1.052037,-1.34974E-07,NaN,0.4378431,2.746078E-08,NaN,-2.173868,1.341338E-05,-0.3855329,1.025596E-08,NaN,NaN,-0.02014608,-7.450675E-11,2.034468E-07,-1.133059E-07,-2.171137E-09,-2.622604E-08
416.5707,-0.0772241,-1.42119E-08,NaN,-1.046122,-1.349725E-07,NaN,0.4381899,2.751744E-08,NaN,-2.172994,1.34139E-05,-0.384486,1.02012E-08,NaN,NaN,-0.02014221,-6.985014E-11,2.100033E-07,-1.133035E-07,-6.065152E-10,-2.622604E-08
416.5866,-0.07571939,-1.421099E-08,NaN,-1.039728,-1.34971E-07,NaN,0.4384976,2.757454E-08,NaN,-2.172094,1.341443E-05,-0.383487,1.0146E-08,NaN,NaN,-0.02013853,-6.985014E-11,2.153677E-07,-1.133012E-07,-2.394654E-09,-2.622604E-08
416.6024,-0.07424837,-1.421008E-08,NaN,-1.03307,-1.349695E-07,NaN,0.4387833,2.763347E-08,NaN,-2.17122,1.341496E-05,-0.382551,1.008896E-08,NaN,NaN,-0.02013504,-6.985014E-11,2.159638E-07,-1.132989E-07,-2.171137E-09,-2.622604E-08
416.6183,-0.07424837,-1.421008E-08,NaN,-1.03307,-1.349695E-07,NaN,0.4387833,2.763347E-08,NaN,-2.17122,1.341496E-05,-0.382551,1.008896E-08,NaN,NaN,-0.02013504,-6.985014E-11,2.159638E-07,-1.132989E-07,-2.171137E-09,-2.622604E-08
416.6333,-0.07280762,-1.420918E-08,NaN,-1.02628,-1.34968E-07,NaN,0.4390621,2.76928E-08,NaN,-2.170384,1.341548E-05,-0.3816637,1.003154E-08,NaN,NaN,-0.02013169,-6.985014E-11,2.201361E-07,-1.132966E-07,-3.661253E-09,-2.622604E-08
416.6497,-0.07138494,-1.420827E-08,NaN,-1.018676,-1.349665E-07,NaN,0.4393882,2.775392E-08,NaN,-2.169385,1.341601E-05,-0.3805915,9.972315E-09,NaN,NaN,-0.02012795,-6.985014E-11,2.284807E-07,-1.132943E-07,-3.139712E-09,-2.622604E-08
416.6654,-0.06999169,-1.420736E-08,NaN,-1.010611,-1.349651E-07,NaN,0.4396746,2.781538E-08,NaN,-2.168365,1.341654E-05,-0.3795704,9.912746E-09,NaN,NaN,-0.02012441,-6.985014E-11,2.362293E-07,-1.13292E-07,-3.139712E-09,-2.622604E-08
416.6811,-0.06862833,-1.420645E-08,NaN,-1.0023,-1.349636E-07,NaN,0.4399384,2.787719E-08,NaN,-2.167373,1.341706E-05,-0.3786145,9.852834E-09,NaN,NaN,-0.02012106,-6.985014E-11,2.415938E-07,-1.132897E-07,-3.735759E-09,-2.622604E-08
416.6974,-0.06862833,-1.420645E-08,NaN,-1.0023,-1.349636E-07,NaN,0.4399384,2.787719E-08,NaN,-2.167373,1.341706E-05,-0.3786145,9.852834E-09,NaN,NaN,-0.02012106,-6.985014E-11,2.415938E-07,-1.132897E-07,-3.735759E-09,-2.622604E-08
416.712,-0.0672918,-1.420554E-08,NaN,-0.9938745,-1.349621E-07,NaN,0.4401949,2.794075E-08,NaN,-2.166424,1.341759E-05,-0.3777096,9.791174E-09,NaN,NaN,-0.02011785,-6.985014E-11,2.433819E-07,-1.132874E-07,2.875544E-10,-2.622604E-08
416.729,-0.06597053,-1.420463E-08,NaN,-0.9846529,-1.349606E-07,NaN,0.4404966,2.800461E-08,NaN,-2.165316,1.341812E-05,-0.3766262,9.729214E-09,NaN,NaN,-0.02011426,-6.985014E-11,2.57091E-07,-1.132852E-07,-3.437736E-09,-2.622604E-08
416.7446,-0.0646753,-1.420372E-08,NaN,-0.974987,-1.349592E-07,NaN,0.440758,2.806876E-08,NaN,-2.164188,1.341864E-05,-0.3755966,9.66696E-09,NaN,NaN,-0.02011086,-6.985014E-11,2.660317E-07,-1.132829E-07,-3.586748E-09,-2.622604E-08
416.7605,-0.06340664,-1.420281E-08,NaN,-0.9650918,-1.349577E-07,NaN,0.4409969,2.813461E-08,NaN,-2.163093,1.341917E-05,-0.3746342,9.603005E-09,NaN,NaN,-0.02010766,-6.985014E-11,2.713961E-07,-1.132807E-07,-5.076863E-09,-2.622604E-08
416.7762,-0.06340664,-1.420281E-08,NaN,-0.9650918,-1.349577E-07,NaN,0.4409969,2.813461E-08,NaN,-2.163093,1.341917E-05,-0.3746342,9.603005E-09,NaN,NaN,-0.02010766,-6.985014E-11,2.713961E-07,-1.132807E-07,-5.076863E-09,-2.622604E-08
416.7912,-0.06216178,-1.42019E-08,NaN,-0.9550988,-1.349562E-07,NaN,0.4412283,2.820071E-08,NaN,-2.162043,1.34197E-05,-0.3737244,9.538797E-09,NaN,NaN,-0.02010459,-6.985014E-11,2.755685E-07,-1.132784E-07,-3.288724E-09,-2.622604E-08
416.8092,-0.06092992,-1.4201E-08,NaN,-0.9443271,-1.349548E-07,NaN,0.4415026,2.826566E-08,NaN,-2.160837,1.342022E-05,-0.3726426,9.475747E-09,NaN,NaN,-0.02010117,-6.985014E-11,2.874894E-07,-1.132762E-07,-2.692678E-09,-2.622604E-08
416.8239,-0.05972111,-1.420009E-08,NaN,-0.9331276,-1.349533E-07,NaN,0.4417366,2.833228E-08,NaN,-2.159615,1.342075E-05,-0.3716172,9.411015E-09,NaN,NaN,-0.02009793,-6.985014E-11,2.95238E-07,-1.13274E-07,-2.245643E-09,-2.622604E-08
416.8398,-0.05972111,-1.420009E-08,NaN,-0.9331276,-1.349533E-07,NaN,0.4417366,2.833228E-08,NaN,-2.159615,1.342075E-05,-0.3716172,9.411015E-09,NaN,NaN,-0.02009793,-6.985014E-11,2.95238E-07,-1.13274E-07,-2.245643E-09,-2.622604E-08
416.8549,-0.05853596,-1.419918E-08,NaN,-0.9217152,-1.349519E-07,NaN,0.4419481,2.839915E-08,NaN,-2.158428,1.342128E-05,-0.3706602,9.346044E-09,NaN,NaN,-0.02009489,-6.985014E-11,3.017945E-07,-1.132718E-07,-3.084919E-10,-2.622604E-08
416.8714,-0.05737203,-1.419827E-08,NaN,-0.9102216,-1.349505E-07,NaN,0.4421522,2.846767E-08,NaN,-2.157289,1.34218E-05,-0.3697571,9.279424E-09,NaN,NaN,-0.020092,-6.985014E-11,3.041787E-07,-1.132695E-07,-9.045383E-10,-2.622604E-08
416.8875,-0.05622644,-1.419736E-08,NaN,-0.8987275,-1.34949E-07,NaN,0.4423549,2.853639E-08,NaN,-2.156199,1.342233E-05,-0.3688964,9.2126E-09,NaN,NaN,-0.0200892,-6.985014E-11,3.095431E-07,-1.132673E-07,-3.084919E-10,-2.622604E-08
416.903,-0.05509675,-1.419646E-08,NaN,-0.8872824,-1.349482E-07,NaN,0.4425575,2.798278E-08,NaN,-2.155151,1.342287E-05,-0.3680709,9.768096E-09,NaN,NaN,-0.02008649,-7.916336E-11,3.125234E-07,-1.132656E-07,1.181624E-09,-2.861022E-08
416.9193,-0.05509675,-1.419646E-08,NaN,-0.8872824,-1.349482E-07,NaN,0.4425575,2.798278E-08,NaN,-2.155151,1.342287E-05,-0.3680709,9.768096E-09,NaN,NaN,-0.02008649,-7.916336E-11,3.125234E-07,-1.132656E-07,1.181624E-09,-2.861022E-08
416.9341,-0.05398116,-1.419555E-08,NaN,-0.8759166,-1.349471E-07,NaN,0.4427596,2.771115E-08,NaN,-2.15414,1.342341E-05,-0.3672766,1.000027E-08,NaN,NaN,-0.02008386,-7.450675E-11,3.160996E-07,-1.132662E-07,2.373717E-09,-2.622604E-08
416.9507,-0.05287836,-1.419464E-08,NaN,-0.8646482,-1.349462E-07,NaN,0.4429606,2.743952E-08,NaN,-2.153163,1.342395E-05,-0.3665108,1.02022E-08,NaN,NaN,-0.02008131,-6.985013E-11,3.20272E-07,-1.132679E-07,8.83601E-10,-2.861022E-08
416.9666,-0.05179431,-1.419374E-08,NaN,-0.8542497,-1.349456E-07,NaN,0.4431194,2.716788E-08,NaN,-2.152417,1.342449E-05,-0.3659754,1.038171E-08,NaN,NaN,-0.02007927,-6.519352E-11,3.178878E-07,-1.132699E-07,1.181624E-09,-2.622604E-08
416.9821,-0.05071793,-1.419283E-08,NaN,-0.8444273,-1.349452E-07,NaN,0.4433157,2.689625E-08,NaN,-2.151754,1.342502E-05,-0.3654427,1.054455E-08,NaN,NaN,-0.0200772,-5.588029E-11,3.166957E-07,-1.13272E-07,-3.084919E-10,-2.861022E-08
416.998,-0.05071793,-1.419283E-08,NaN,-0.8444273,-1.349452E-07,NaN,0.4433157,2.689625E-08,NaN,-2.151754,1.342502E-05,-0.3654427,1.054455E-08,NaN,NaN,-0.0200772,-5.588029E-11,3.166957E-07,-1.13272E-07,-3.084919E-10,-2.861022E-08
417.0129,-0.04964646,-1.419192E-08,NaN,-0.8349998,-1.34945E-07,NaN,0.4435307,2.662462E-08,NaN,-2.151117,1.342556E-05,-0.3648973,1.069495E-08,NaN,NaN,-0.02007508,-4.656707E-11,3.155036E-07,-1.132742E-07,-9.045383E-10,-2.622604E-08
417.0297,-0.04858014,-1.419102E-08,NaN,-0.825855,-1.349448E-07,NaN,0.4437488,2.635299E-08,NaN,-2.150485,1.34261E-05,-0.36435,1.0836E-08,NaN,NaN,-0.02007297,-3.259723E-11,3.143115E-07,-1.132764E-07,-3.88477E-09,-2.861022E-08
417.0454,-0.0475266,-1.419011E-08,NaN,-0.8176848,-1.349447E-07,NaN,0.4439241,2.608136E-08,NaN,-2.150058,1.342665E-05,-0.3640103,1.097E-08,NaN,NaN,-0.02007133,-2.794062E-11,3.07755E-07,-1.132787E-07,-2.394654E-09,-2.622604E-08
417.0612,-0.04647771,-1.41892E-08,NaN,-0.8101463,-1.349446E-07,NaN,0.4441337,2.580973E-08,NaN,-2.14969,1.342719E-05,-0.3636597,1.109862E-08,NaN,NaN,-0.02006963,-9.314167E-12,3.029866E-07,-1.13281E-07,-3.288724E-09,-2.861022E-08
417.077,-0.04647771,-1.41892E-08,NaN,-0.8101463,-1.349446E-07,NaN,0.4441337,2.580973E-08,NaN,-2.14969,1.342719E-05,-0.3636597,1.109862E-08,NaN,NaN,-0.02006963,-9.314167E-12,3.029866E-07,-1.13281E-07,-3.288724E-09,-2.861022E-08
417.0921,-0.04543206,-1.418829E-08,NaN,-0.8030273,-1.349445E-07,NaN,0.4443593,2.553809E-08,NaN,-2.149329,1.342773E-05,-0.3632866,1.122309E-08,NaN,NaN,-0.02006788,4.655671E-12,2.982183E-07,-1.132833E-07,-5.374886E-09,-2.622604E-08
417.1084,-0.04439069,-1.418739E-08,NaN,-0.7961964,-1.349445E-07,NaN,0.4445859,2.526646E-08,NaN,-2.148959,1.342829E-05,-0.3629035,1.134432E-08,NaN,NaN,-0.02006612,9.312284E-12,2.970262E-07,-1.132856E-07,-5.970933E-09,-2.861022E-08
417.1245,-0.04336138,-1.418648E-08,NaN,-0.7903338,-1.349454E-07,NaN,0.4447691,2.542953E-08,NaN,-2.148782,1.342884E-05,-0.3627196,1.106165E-08,NaN,NaN,-0.02006482,9.312284E-12,2.880855E-07,-1.132851E-07,-7.759072E-09,-2.622604E-08
417.1401,-0.04233714,-1.418558E-08,NaN,-0.7850895,-1.349459E-07,NaN,0.4449858,2.551281E-08,NaN,-2.148656,1.34294E-05,-0.3625186,1.088305E-08,NaN,NaN,-0.02006344,4.655671E-12,2.82721E-07,-1.132843E-07,-6.566979E-09,-2.861022E-08
417.1561,-0.04233714,-1.418558E-08,NaN,-0.7850895,-1.349459E-07,NaN,0.4449858,2.551281E-08,NaN,-2.148656,1.34294E-05,-0.3625186,1.088305E-08,NaN,NaN,-0.02006344,4.655671E-12,2.82721E-07,-1.132843E-07,-6.566979E-09,-2.861022E-08
417.1709,-0.04131676,-1.418467E-08,NaN,-0.780247,-1.349463E-07,NaN,0.4452179,2.556565E-08,NaN,-2.148527,1.342996E-05,-0.3622899,1.075432E-08,NaN,NaN,-0.02006201,4.655671E-12,2.779527E-07,-1.132832E-07,-7.759072E-09,-2.622604E-08
417.1877,-0.04030118,-1.418376E-08,NaN,-0.7756719,-1.349465E-07,NaN,0.4454508,2.560485E-08,NaN,-2.148382,1.343051E-05,-0.3620462,1.065478E-08,NaN,NaN,-0.02006056,4.655671E-12,2.731843E-07,-1.132821E-07,-7.759072E-09,-2.861022E-08
417.2033,-0.03929791,-1.418286E-08,NaN,-0.7720427,-1.349467E-07,NaN,0.4456405,2.564057E-08,NaN,-2.148423,1.343107E-05,-0.3619959,1.057115E-08,NaN,NaN,-0.02005955,-9.419548E-16,2.630515E-07,-1.13281E-07,-7.163025E-09,-2.622604E-08
417.2193,-0.03929791,-1.418286E-08,NaN,-0.7720427,-1.349467E-07,NaN,0.4456405,2.564057E-08,NaN,-2.148423,1.343107E-05,-0.3619959,1.057115E-08,NaN,NaN,-0.02005955,-9.419548E-16,2.630515E-07,-1.13281E-07,-7.163025E-09,-2.622604E-08
417.234,-0.03830048,-1.418195E-08,NaN,-0.7690088,-1.349468E-07,NaN,0.4458636,2.567627E-08,NaN,-2.148509,1.343163E-05,-0.3619242,1.049749E-08,NaN,NaN,-0.02005846,-4.657555E-12,2.553029E-07,-1.132798E-07,-5.374886E-09,-2.861022E-08
417.2504,-0.03730763,-1.418105E-08,NaN,-0.7663532,-1.349469E-07,NaN,0.4461021,2.571297E-08,NaN,-2.148587,1.343219E-05,-0.3618205,1.043079E-08,NaN,NaN,-0.02005729,-9.314167E-12,2.517266E-07,-1.132786E-07,-7.759072E-09,-2.622604E-08
417.2664,-0.03632011,-1.418014E-08,NaN,-0.7639411,-1.349469E-07,NaN,0.4463417,2.575345E-08,NaN,-2.148643,1.343274E-05,-0.3616976,1.036669E-08,NaN,NaN,-0.02005611,-9.314167E-12,2.451701E-07,-1.132774E-07,-7.163025E-09,-2.861022E-08
417.2821,-0.03534511,-1.417923E-08,NaN,-0.7624508,-1.349466E-07,NaN,0.4465379,2.564294E-08,NaN,-2.14888,1.343328E-05,-0.3617643,1.045866E-08,NaN,NaN,-0.02005536,4.655671E-12,2.326531E-07,-1.132772E-07,-5.970932E-09,-2.622604E-08
417.2986,-0.03534511,-1.417923E-08,NaN,-0.7624508,-1.349466E-07,NaN,0.4465379,2.564294E-08,NaN,-2.14888,1.343328E-05,-0.3617643,1.045866E-08,NaN,NaN,-0.02005536,4.655671E-12,2.326531E-07,-1.132772E-07,-5.970932E-09,-2.622604E-08
417.3135,-0.03437652,-1.417833E-08,NaN,-0.7615321,-1.349462E-07,NaN,0.4467677,2.555817E-08,NaN,-2.149156,1.343385E-05,-0.361806,1.052898E-08,NaN,NaN,-0.02005452,4.655671E-12,2.255006E-07,-1.13277E-07,-6.566979E-09,-2.861022E-08
417.3314,-0.033413,-1.417742E-08,NaN,-0.7609678,-1.349459E-07,NaN,0.4470132,2.548802E-08,NaN,-2.149419,1.343441E-05,-0.3618119,1.058793E-08,NaN,NaN,-0.0200536,1.39689E-11,2.189441E-07,-1.132768E-07,-8.355117E-09,-2.622604E-08
417.3454,-0.03245509,-1.417652E-08,NaN,-0.7606234,-1.349457E-07,NaN,0.4472599,2.5426E-08,NaN,-2.149655,1.343497E-05,-0.361795,1.064137E-08,NaN,NaN,-0.02005264,2.328212E-11,2.132816E-07,-1.132767E-07,-1.014326E-08,-2.861022E-08
417.3611,-0.03150976,-1.417561E-08,NaN,-0.7611738,-1.349455E-07,NaN,0.4474633,2.537004E-08,NaN,-2.150067,1.343553E-05,-0.3619638,1.069082E-08,NaN,NaN,-0.02005212,2.793873E-11,2.010627E-07,-1.132766E-07,-1.133535E-08,-2.622604E-08
417.377,-0.03150976,-1.417561E-08,NaN,-0.7611738,-1.349455E-07,NaN,0.4474633,2.537004E-08,NaN,-2.150067,1.343553E-05,-0.3619638,1.069082E-08,NaN,NaN,-0.02005212,2.793873E-11,2.010627E-07,-1.132766E-07,-1.133535E-08,-2.622604E-08
417.392,-0.03057595,-1.417471E-08,NaN,-0.7622733,-1.349452E-07,NaN,0.4477026,2.531826E-08,NaN,-2.150511,1.343609E-05,-0.362105,1.073777E-08,NaN,NaN,-0.02005151,3.259535E-11,1.900358E-07,-1.132764E-07,-8.951163E-09,-2.861022E-08
417.4085,-0.02965479,-1.41738E-08,NaN,-0.7637045,-1.34945E-07,NaN,0.4479611,2.527028E-08,NaN,-2.150936,1.343666E-05,-0.3622063,1.078226E-08,NaN,NaN,-0.0200508,3.725196E-11,1.813931E-07,-1.132763E-07,-9.54721E-09,-2.622604E-08
417.4245,-0.02874628,-1.417289E-08,NaN,-0.7653331,-1.349448E-07,NaN,0.4482232,2.522436E-08,NaN,-2.151327,1.343722E-05,-0.3622806,1.082576E-08,NaN,NaN,-0.02005005,4.190857E-11,1.724524E-07,-1.132762E-07,-8.951163E-09,-2.861022E-08
417.4402,-0.02785591,-1.417199E-08,NaN,-0.7678372,-1.349445E-07,NaN,0.4484421,2.518168E-08,NaN,-2.151891,1.343779E-05,-0.3625396,1.086687E-08,NaN,NaN,-0.02004973,4.656518E-11,1.590414E-07,-1.132761E-07,-7.759071E-09,-2.622604E-08
417.4563,-0.02785591,-1.417199E-08,NaN,-0.7678372,-1.349445E-07,NaN,0.4484421,2.518168E-08,NaN,-2.151891,1.343779E-05,-0.3625396,1.086687E-08,NaN,NaN,-0.02004973,4.656518E-11,1.590414E-07,-1.132761E-07,-7.759071E-09,-2.622604E-08
417.4712,-0.02698228,-1.417108E-08,NaN,-0.7708675,-1.349443E-07,NaN,0.4486984,2.514062E-08,NaN,-2.152482,1.343835E-05,-0.362767,1.090704E-08,NaN,NaN,-0.02004931,5.122179E-11,1.468225E-07,-1.13276E-07,-5.970931E-09,-2.861022E-08
417.4877,-0.02612359,-1.417018E-08,NaN,-0.7742075,-1.349441E-07,NaN,0.4489737,2.510102E-08,NaN,-2.153049,1.343892E-05,-0.3629515,1.09463E-08,NaN,NaN,-0.02004878,5.587841E-11,1.381798E-07,-1.132759E-07,-5.970931E-09,-2.622604E-08
417.5035,-0.02527818,-1.416927E-08,NaN,-0.7777227,-1.349439E-07,NaN,0.4492519,2.506276E-08,NaN,-2.15358,1.343949E-05,-0.3631063,1.098467E-08,NaN,NaN,-0.02004822,6.053502E-11,1.301332E-07,-1.132758E-07,-5.374885E-09,-2.861022E-08
417.5193,-0.02527818,-1.416927E-08,NaN,-0.7777227,-1.349439E-07,NaN,0.4492519,2.506276E-08,NaN,-2.15358,1.343949E-05,-0.3631063,1.098467E-08,NaN,NaN,-0.02004822,6.053502E-11,1.301332E-07,-1.132758E-07,-5.374885E-09,-2.861022E-08
417.5344,-0.02445075,-1.416836E-08,NaN,-0.7820917,-1.349437E-07,NaN,0.4494852,2.502573E-08,NaN,-2.15428,1.344007E-05,-0.3634455,1.102215E-08,NaN,NaN,-0.02004808,6.053502E-11,1.179142E-07,-1.132757E-07,-5.970931E-09,-2.622604E-08
417.5508,-0.02363904,-1.416746E-08,NaN,-0.7869655,-1.349435E-07,NaN,0.4497553,2.498984E-08,NaN,-2.155004,1.344065E-05,-0.3637512,1.105877E-08,NaN,NaN,-0.02004782,6.053502E-11,1.062913E-07,-1.132756E-07,-7.759071E-09,-2.861022E-08
417.5666,-0.02284092,-1.416655E-08,NaN,-0.7921279,-1.349433E-07,NaN,0.4500443,2.495502E-08,NaN,-2.155701,1.344122E-05,-0.3640115,1.109455E-08,NaN,NaN,-0.02004747,6.053502E-11,9.556246E-08,-1.132754E-07,-8.951163E-09,-2.622604E-08
417.5819,-0.02205466,-1.416564E-08,NaN,-0.7974445,-1.349431E-07,NaN,0.4503362,2.492121E-08,NaN,-2.156358,1.34418E-05,-0.3642395,1.112949E-08,NaN,NaN,-0.02004707,6.053502E-11,8.781386E-08,-1.132753E-07,-1.133535E-08,-2.861022E-08
417.5979,-0.02205466,-1.416564E-08,NaN,-0.7974445,-1.349431E-07,NaN,0.4503362,2.492121E-08,NaN,-2.156358,1.34418E-05,-0.3642395,1.112949E-08,NaN,NaN,-0.02004707,6.053502E-11,8.781386E-08,-1.132753E-07,-1.133535E-08,-2.861022E-08
417.613,-0.02128517,-1.416474E-08,NaN,-0.803594,-1.349428E-07,NaN,0.450582,2.488836E-08,NaN,-2.157181,1.344238E-05,-0.3646521,1.116362E-08,NaN,NaN,-0.02004709,6.053502E-11,7.201863E-08,-1.132752E-07,-1.014326E-08,-2.622604E-08
417.6297,-0.02052989,-1.416383E-08,NaN,-0.8102279,-1.349426E-07,NaN,0.4508649,2.485783E-08,NaN,-2.158026,1.344295E-05,-0.3650293,1.119554E-08,NaN,NaN,-0.020047,6.984825E-11,5.562735E-08,-1.132751E-07,-9.547209E-09,-2.861022E-08
417.6454,-0.01978668,-1.416292E-08,NaN,-0.8171299,-1.349424E-07,NaN,0.4511669,2.49253E-08,NaN,-2.15884,1.344352E-05,-0.3653587,1.112956E-08,NaN,NaN,-0.02004681,6.984825E-11,4.400445E-08,-1.13275E-07,-8.951162E-09,-2.622604E-08
417.661,-0.01905392,-1.416201E-08,NaN,-0.8241661,-1.349422E-07,NaN,0.451472,2.499167E-08,NaN,-2.159611,1.344409E-05,-0.3656532,1.106474E-08,NaN,NaN,-0.02004655,6.984825E-11,3.416968E-08,-1.132749E-07,-9.249185E-09,-2.861022E-08
417.6769,-0.01905392,-1.416201E-08,NaN,-0.8241661,-1.349422E-07,NaN,0.451472,2.499167E-08,NaN,-2.159611,1.344409E-05,-0.3656532,1.106474E-08,NaN,NaN,-0.02004655,6.984825E-11,3.416968E-08,-1.132749E-07,-9.249185E-09,-2.861022E-08
417.6918,-0.01833691,-1.416111E-08,NaN,-0.832015,-1.34942E-07,NaN,0.4517299,2.505694E-08,NaN,-2.160545,1.344466E-05,-0.3661331,1.100108E-08,NaN,NaN,-0.02004672,6.984825E-11,1.658631E-08,-1.132748E-07,-8.057093E-09,-2.622604E-08
417.7085,-0.01763279,-1.41602E-08,NaN,-0.8403286,-1.349418E-07,NaN,0.4520251,2.512113E-08,NaN,-2.161498,1.344522E-05,-0.366576,1.093856E-08,NaN,NaN,-0.02004677,7.450486E-11,2.57922E-09,-1.132747E-07,-7.163023E-09,-2.861022E-08
417.7236,-0.01693942,-1.415929E-08,NaN,-0.848891,-1.349416E-07,NaN,0.45234,2.518425E-08,NaN,-2.162418,1.344577E-05,-0.3669685,1.087714E-08,NaN,NaN,-0.02004671,8.84747E-11,-1.083183E-08,-1.132746E-07,-5.076861E-09,-2.622604E-08
417.7395,-0.01693942,-1.415929E-08,NaN,-0.848891,-1.349416E-07,NaN,0.45234,2.518425E-08,NaN,-2.162418,1.344577E-05,-0.3669685,1.087714E-08,NaN,NaN,-0.02004671,8.84747E-11,-1.083183E-08,-1.132746E-07,-5.076861E-09,-2.622604E-08
417.7548,-0.01626196,-1.415838E-08,NaN,-0.8583298,-1.349414E-07,NaN,0.4526134,2.524489E-08,NaN,-2.163497,1.344634E-05,-0.3675362,1.081822E-08,NaN,NaN,-0.02004705,8.84747E-11,-2.632903E-08,-1.132745E-07,-3.884768E-09,-2.861022E-08
417.771,-0.01559695,-1.415748E-08,NaN,-0.8682657,-1.349412E-07,NaN,0.4529262,2.530451E-08,NaN,-2.164586,1.34469E-05,-0.368059,1.076035E-08,NaN,NaN,-0.02004726,1.024445E-10,-4.212426E-08,-1.132744E-07,-5.97093E-09,-2.622604E-08
417.7868,-0.01494202,-1.415657E-08,NaN,-0.8784631,-1.34941E-07,NaN,0.4532588,2.536455E-08,NaN,-2.165634,1.344746E-05,-0.3685257,1.070208E-08,NaN,NaN,-0.02004733,1.071012E-10,-5.225705E-08,-1.132743E-07,-6.268954E-09,-2.861022E-08
417.8025,-0.01429562,-1.415566E-08,NaN,-0.8887758,-1.349408E-07,NaN,0.4535945,2.542358E-08,NaN,-2.166629,1.344803E-05,-0.368951,1.064484E-08,NaN,NaN,-0.02004734,1.071012E-10,-6.298589E-08,-1.132742E-07,-5.97093E-09,-2.622604E-08
417.8186,-0.01429562,-1.415566E-08,NaN,-0.8887758,-1.349408E-07,NaN,0.4535945,2.542358E-08,NaN,-2.166629,1.344803E-05,-0.368951,1.064484E-08,NaN,NaN,-0.02004734,1.071012E-10,-6.298589E-08,-1.132742E-07,-5.97093E-09,-2.622604E-08
417.8349,-0.01366376,-1.415475E-08,NaN,-0.8998749,-1.349406E-07,NaN,0.4538795,2.565693E-08,NaN,-2.167779,1.344859E-05,-0.369563,1.041328E-08,NaN,NaN,-0.02004778,1.117578E-10,-7.907914E-08,-1.132741E-07,-5.374884E-09,-2.861022E-08
417.8498,-0.01304286,-1.415385E-08,NaN,-0.9114087,-1.349404E-07,NaN,0.4542021,2.588587E-08,NaN,-2.16894,1.344915E-05,-0.3701346,1.018614E-08,NaN,NaN,-0.0200481,1.257276E-10,-9.457635E-08,-1.132739E-07,-5.076861E-09,-2.622604E-08
417.8656,-0.01243068,-1.415294E-08,NaN,-0.9231585,-1.349402E-07,NaN,0.454545,2.611049E-08,NaN,-2.17006,1.344971E-05,-0.3706508,9.963335E-09,NaN,NaN,-0.02004829,1.257276E-10,-1.070933E-07,-1.132738E-07,-4.480814E-09,-2.861022E-08
417.8812,-0.0118259,-1.415203E-08,NaN,-0.9349885,-1.3494E-07,NaN,0.4548921,2.633088E-08,NaN,-2.171128,1.345028E-05,-0.3711251,9.744772E-09,NaN,NaN,-0.0200484,1.257276E-10,-1.136498E-07,-1.132737E-07,-5.076861E-09,-2.622604E-08
417.8975,-0.0118259,-1.415203E-08,NaN,-0.9349885,-1.3494E-07,NaN,0.4548921,2.633088E-08,NaN,-2.171128,1.345028E-05,-0.3711251,9.744772E-09,NaN,NaN,-0.0200484,1.257276E-10,-1.136498E-07,-1.132737E-07,-5.076861E-09,-2.622604E-08
417.9122,-0.01123517,-1.415112E-08,NaN,-0.9475768,-1.349398E-07,NaN,0.4551873,2.65471E-08,NaN,-2.172351,1.345085E-05,-0.3717893,9.53037E-09,NaN,NaN,-0.02004896,1.303842E-10,-1.297431E-07,-1.132736E-07,-2.394652E-09,-2.861022E-08
