JMolnar6/NonAnthroHands_User_Study/HandsLoggerWithURDF/tempdata/files/Reachy_PID0_JointMotion_gesture_10_3.csv
Time,r_shoulder,r_shoulder_x,r_upper_arm,r_forearm,r_wrist,r_wrist2hand,
634.8402,-0.1145914,-0.5840409,-0.2904184,-0.9001366,0.4490051,-0.4860355
634.8547,-0.1145914,-0.5840409,-0.2904184,-0.9001366,0.4490051,-0.4860355
634.8688,-0.1121044,-0.5839711,-0.2908086,-0.8991978,0.4498758,-0.4859931
634.8841,-0.1096473,-0.5839022,-0.2911854,-0.8982685,0.4507312,-0.4859516
634.8987,-0.1096473,-0.5839022,-0.2911854,-0.8982685,0.4507312,-0.4859516
634.9128,-0.1072197,-0.5838344,-0.2915492,-0.8973486,0.4515717,-0.4859109
634.9282,-0.1048213,-0.5837674,-0.2919003,-0.8964381,0.4523974,-0.4858709
634.943,-0.1024518,-0.5837014,-0.2922389,-0.8955369,0.4532086,-0.4858318
634.9576,-0.1024518,-0.5837014,-0.2922389,-0.8955369,0.4532086,-0.4858318
634.9718,-0.1001107,-0.5836362,-0.2925653,-0.8946449,0.4540056,-0.4857934
634.9872,-0.09779766,-0.583572,-0.2928798,-0.8937619,0.4547887,-0.4857558
635.0021,-0.09551246,-0.5835086,-0.2931826,-0.8928881,0.455558,-0.485719
635.0165,-0.09551246,-0.5835086,-0.2931826,-0.8928881,0.455558,-0.485719
635.0304,-0.09325472,-0.5834461,-0.2934739,-0.8920232,0.4563139,-0.4856828
635.0457,-0.0910241,-0.5833845,-0.2937541,-0.8911673,0.4570566,-0.4856474
635.0615,-0.08882028,-0.5833238,-0.2940233,-0.8903202,0.4577864,-0.4856128
635.0762,-0.08882028,-0.5833238,-0.2940233,-0.8903202,0.4577864,-0.4856128
635.0901,-0.08664294,-0.5832639,-0.2942818,-0.8894818,0.4585034,-0.4855787
635.1047,-0.08449174,-0.5832047,-0.2945299,-0.8886522,0.4592079,-0.4855454
635.1192,-0.08449174,-0.5832047,-0.2945299,-0.8886522,0.4592079,-0.4855454
635.1332,-0.0823664,-0.5831465,-0.2947678,-0.8878312,0.4599001,-0.4855127
635.1484,-0.08026659,-0.583089,-0.2949956,-0.8870187,0.4605802,-0.4854807
635.1629,-0.078192,-0.5830323,-0.2952136,-0.8862148,0.4612485,-0.4854493
635.1778,-0.078192,-0.5830323,-0.2952136,-0.8862148,0.4612485,-0.4854493
635.1919,-0.07614233,-0.5829764,-0.2954221,-0.8854192,0.4619052,-0.4854185
635.2075,-0.07411728,-0.5829213,-0.2956213,-0.8846321,0.4625505,-0.4853883
635.2219,-0.07211656,-0.5828669,-0.2958113,-0.8838531,0.4631845,-0.4853587
635.2365,-0.07211656,-0.5828669,-0.2958113,-0.8838531,0.4631845,-0.4853587
635.2506,-0.07013988,-0.5828133,-0.2959923,-0.8830823,0.4638075,-0.4853298
635.266,-0.06818694,-0.5827603,-0.2961646,-0.8823197,0.4644197,-0.4853014
635.2805,-0.06625745,-0.5827082,-0.2963284,-0.8815651,0.4650213,-0.4852735
635.2955,-0.06625745,-0.5827082,-0.2963284,-0.8815651,0.4650213,-0.4852735
635.3092,-0.06435115,-0.5826567,-0.2964838,-0.8808185,0.4656124,-0.4852462
635.3246,-0.06246774,-0.582606,-0.2966311,-0.8800798,0.4661933,-0.4852195
635.3412,-0.06060696,-0.5825559,-0.2967704,-0.879349,0.4667641,-0.4851933
635.3548,-0.06060696,-0.5825559,-0.2967704,-0.879349,0.4667641,-0.4851933
635.368,-0.05876852,-0.5825066,-0.2969019,-0.8786259,0.467325,-0.4851676
635.3832,-0.05695217,-0.5824579,-0.2970258,-0.8779106,0.4678762,-0.4851424
635.3978,-0.05695217,-0.5824579,-0.2970258,-0.8779106,0.4678762,-0.4851424
635.4116,-0.05515764,-0.5824099,-0.2971422,-0.8772029,0.4684179,-0.4851178
635.4269,-0.05338465,-0.5823625,-0.2972515,-0.8765028,0.4689501,-0.4850936
635.4415,-0.05163297,-0.5823158,-0.2973536,-0.8758101,0.4694732,-0.4850699
635.4562,-0.05163297,-0.5823158,-0.2973536,-0.8758101,0.4694732,-0.4850699
635.4703,-0.04990232,-0.5822697,-0.2974488,-0.8751249,0.4699872,-0.4850466
635.4857,-0.04819246,-0.5822243,-0.2975373,-0.874447,0.4704923,-0.4850239
635.5005,-0.04650314,-0.5821795,-0.2976191,-0.8737764,0.4709887,-0.4850015
635.5148,-0.04650314,-0.5821795,-0.2976191,-0.8737764,0.4709887,-0.4850015
635.5289,-0.04483411,-0.5821353,-0.2976945,-0.8731131,0.4714765,-0.4849797
635.5441,-0.04318512,-0.5820917,-0.2977637,-0.8724569,0.4719559,-0.4849582
635.5587,-0.04318512,-0.5820917,-0.2977637,-0.8724569,0.4719559,-0.4849582
635.5727,-0.04155594,-0.5820488,-0.2978267,-0.8718078,0.472427,-0.4849372
635.5885,-0.03994632,-0.5820064,-0.2978837,-0.8711658,0.47289,-0.4849166
635.6027,-0.03835604,-0.5819646,-0.2979349,-0.8705307,0.473345,-0.4848965
635.6194,-0.03835604,-0.5819646,-0.2979349,-0.8705307,0.473345,-0.4848965
635.6335,-0.03678485,-0.5819234,-0.2979803,-0.8699025,0.4737922,-0.4848767
635.6465,-0.03523254,-0.5818827,-0.2980202,-0.8692811,0.4742316,-0.4848573
635.6612,-0.03369886,-0.5818426,-0.2980547,-0.8686665,0.4746635,-0.4848383
635.6758,-0.03369886,-0.5818426,-0.2980547,-0.8686665,0.4746635,-0.4848383
635.6897,-0.03218361,-0.581803,-0.2980839,-0.8680586,0.4750879,-0.4848197
635.7052,-0.03068655,-0.581764,-0.2981079,-0.8674573,0.475505,-0.4848015
635.7198,-0.03068655,-0.581764,-0.2981079,-0.8674573,0.475505,-0.4848015
635.7338,-0.02920748,-0.5817255,-0.2981269,-0.8668627,0.475915,-0.4847836
635.7492,-0.02774616,-0.5816875,-0.298141,-0.8662745,0.4763178,-0.4847661
635.7637,-0.0263024,-0.5816501,-0.2981503,-0.8656927,0.4767138,-0.4847489
635.7784,-0.0263024,-0.5816501,-0.2981503,-0.8656927,0.4767138,-0.4847489
635.7926,-0.02487597,-0.5816132,-0.298155,-0.8651174,0.4771029,-0.4847321
635.808,-0.02346668,-0.5815768,-0.2981551,-0.8645483,0.4774853,-0.4847156
635.8224,-0.0220743,-0.5815409,-0.2981508,-0.8639855,0.4778612,-0.4846994
635.8372,-0.0220743,-0.5815409,-0.2981508,-0.8639855,0.4778612,-0.4846994
635.8513,-0.02069865,-0.5815055,-0.2981423,-0.863429,0.4782306,-0.4846836
635.8674,-0.01899848,-0.581457,-0.2987698,-0.8629261,0.4792664,-0.4846222
635.8809,-0.01710647,-0.5814009,-0.2995031,-0.8623707,0.4803475,-0.4845618
635.8976,-0.01710647,-0.5814009,-0.2995031,-0.8623707,0.4803475,-0.4845618
635.9117,-0.0151051,-0.5813406,-0.3002569,-0.8617703,0.4814338,-0.4845027
635.9251,-0.01304557,-0.581278,-0.3010003,-0.8611381,0.4825148,-0.4844447
635.9395,-0.01304557,-0.581278,-0.3010003,-0.8611381,0.4825148,-0.4844447
635.9536,-0.01130063,-0.5812281,-0.301082,-0.8604386,0.4829153,-0.4844339
635.9687,-0.009757032,-0.5811861,-0.3010268,-0.859787,0.4832475,-0.4844234
635.9835,-0.008344226,-0.5811489,-0.3009219,-0.8591819,0.4835511,-0.4844131
635.998,-0.008344226,-0.5811489,-0.3009219,-0.8591819,0.4835511,-0.4844131
636.0121,-0.007359252,-0.5811284,-0.3001603,-0.8585666,0.4831685,-0.4844489
636.0276,-0.006641855,-0.581118,-0.2992837,-0.8580381,0.4827184,-0.4844841
636.0422,-0.006092287,-0.5811137,-0.2983845,-0.857581,0.482247,-0.4845186
636.0573,-0.006092287,-0.5811137,-0.2983845,-0.857581,0.482247,-0.4845186
636.0712,-0.005648444,-0.581113,-0.297495,-0.8571767,0.4817674,-0.4845525
636.0864,-0.005612638,-0.581127,-0.2959863,-0.8567621,0.4806197,-0.4846315
636.101,-0.005826915,-0.5811496,-0.2943901,-0.8564328,0.4794199,-0.4847091
636.1156,-0.005826915,-0.5811496,-0.2943901,-0.8564328,0.4794199,-0.4847091
636.1296,-0.006194055,-0.5811772,-0.2927925,-0.8561727,0.4782136,-0.4847852
636.145,-0.006653559,-0.5812076,-0.2912224,-0.8559631,0.4770133,-0.4848597
636.1598,-0.006653559,-0.5812076,-0.2912224,-0.8559631,0.4770133,-0.4848597
636.1756,-0.007508802,-0.5812529,-0.2890473,-0.8557404,0.4751561,-0.4849787
636.1897,-0.008603566,-0.5813068,-0.2868,-0.8556007,0.4732603,-0.4850954
636.2034,-0.00984068,-0.5813652,-0.2845658,-0.8555282,0.4713705,-0.4852099
636.2178,-0.00984068,-0.5813652,-0.2845658,-0.8555282,0.4713705,-0.4852099
636.2321,-0.01150076,-0.5814395,-0.2817293,-0.8554562,0.4688262,-0.4853679
636.2472,-0.01341342,-0.5815225,-0.278834,-0.8554767,0.4662521,-0.4855229
636.2618,-0.01547273,-0.58161,-0.2759675,-0.8555707,0.4636938,-0.4856749
636.2764,-0.01547273,-0.58161,-0.2759675,-0.8555707,0.4636938,-0.4856749
636.2905,-0.01761289,-0.5816996,-0.2731583,-0.8557169,0.4611642,-0.4858238
636.3059,-0.02013415,-0.5818033,-0.2697687,-0.8558493,0.4579917,-0.4860157
636.3208,-0.0228783,-0.5819145,-0.2663383,-0.8560634,0.4548062,-0.4862038
636.3353,-0.0228783,-0.5819145,-0.2663383,-0.8560634,0.4548062,-0.4862038
636.3491,-0.02574705,-0.5820293,-0.2629494,-0.8563431,0.4516497,-0.4863883
636.3644,-0.02867943,-0.5821453,-0.2596285,-0.8566695,0.4485336,-0.4865691
636.3807,-0.0319788,-0.5822749,-0.2557342,-0.8569771,0.444778,-0.4867922
636.3937,-0.0319788,-0.5822749,-0.2557342,-0.8569771,0.444778,-0.4867922
636.4077,-0.0354888,-0.5824114,-0.2518122,-0.8573631,0.4410227,-0.487011
636.423,-0.0391124,-0.5825509,-0.2479426,-0.857812,0.437307,-0.4872254
636.4377,-0.0391124,-0.5825509,-0.2479426,-0.857812,0.437307,-0.4872254
636.4518,-0.04313061,-0.5827048,-0.2434995,-0.858255,0.4329491,-0.4874815
636.468,-0.04737315,-0.5828657,-0.2390418,-0.8587856,0.4286006,-0.4877326
636.4827,-0.05173436,-0.5830293,-0.2346506,-0.8593849,0.4243005,-0.4879787
636.4961,-0.05173436,-0.5830293,-0.2346506,-0.8593849,0.4243005,-0.4879787
636.51,-0.05614879,-0.5831935,-0.2303522,-0.8600321,0.4200602,-0.4882199
636.5256,-0.06091725,-0.5833707,-0.2254979,-0.8606588,0.4151826,-0.4885023
636.5399,-0.06091725,-0.5833707,-0.2254979,-0.8606588,0.4151826,-0.4885023
636.554,-0.06588164,-0.5835539,-0.2206456,-0.8613621,0.410331,-0.4887791
636.5694,-0.07094398,-0.583739,-0.2158699,-0.8621264,0.4055394,-0.4890504
636.5844,-0.07604363,-0.5839242,-0.2111954,-0.8629329,0.4008176,-0.4893163
636.5989,-0.07604363,-0.5839242,-0.2111954,-0.8629329,0.4008176,-0.4893163
636.6127,-0.08148452,-0.584122,-0.205969,-0.8637141,0.3954568,-0.4896229
636.6283,-0.08711042,-0.5843253,-0.2007562,-0.8645685,0.390135,-0.4899234
636.6428,-0.09282452,-0.5845303,-0.195629,-0.8654813,0.3848829,-0.490218
636.6574,-0.09282452,-0.5845303,-0.195629,-0.8654813,0.3848829,-0.490218
636.6716,-0.09890844,-0.5847486,-0.1899492,-0.8663814,0.3789866,-0.4905526
636.6869,-0.105192,-0.5849725,-0.1842954,-0.8673639,0.373139,-0.4908806
636.7015,-0.1115697,-0.585198,-0.17874,-0.8684108,0.3673691,-0.4912021
636.7162,-0.1115697,-0.585198,-0.17874,-0.8684108,0.3673691,-0.4912021
636.73,-0.1179764,-0.5854231,-0.1733068,-0.8695017,0.3616862,-0.4915172
636.7473,-0.1247137,-0.58566,-0.1673356,-0.8705659,0.3553602,-0.491872
636.7607,-0.1316233,-0.5859019,-0.1614047,-0.8717018,0.3490984,-0.4922198
636.7745,-0.1316233,-0.5859019,-0.1614047,-0.8717018,0.3490984,-0.4922198
636.7885,-0.1386076,-0.5861447,-0.1555802,-0.8728945,0.3429246,-0.4925606
636.8037,-0.1456062,-0.5863866,-0.1498839,-0.8741258,0.3368467,-0.4928947
636.8183,-0.1456062,-0.5863866,-0.1498839,-0.8741258,0.3368467,-0.4928947
636.8323,-0.1529237,-0.5866403,-0.143652,-0.8753262,0.3301213,-0.493268
636.8477,-0.1604038,-0.5868985,-0.1374701,-0.876595,0.3234724,-0.493634
636.8623,-0.1679499,-0.5871575,-0.1314014,-0.8779184,0.31692,-0.4939926
636.877,-0.1679499,-0.5871575,-0.1314014,-0.8779184,0.31692,-0.4939926
636.8911,-0.1758442,-0.5874289,-0.1247966,-0.8792238,0.309715,-0.49439
636.9066,-0.1839166,-0.587705,-0.1182529,-0.8806068,0.3025956,-0.4947796
636.9211,-0.1920617,-0.5879818,-0.1118338,-0.8820508,0.2955809,-0.4951614
636.9359,-0.1920617,-0.5879818,-0.1118338,-0.8820508,0.2955809,-0.4951614
636.9498,-0.2002148,-0.5882571,-0.1055605,-0.8835357,0.2886778,-0.4955356
636.9651,-0.2086778,-0.5885438,-0.09876377,-0.8849897,0.2811209,-0.4959483
636.9797,-0.2086778,-0.5885438,-0.09876377,-0.8849897,0.2811209,-0.4959483
636.9936,-0.2172927,-0.5888345,-0.0920392,-0.8865111,0.2736629,-0.4963527
637.009,-0.2259618,-0.5891254,-0.08544483,-0.8880863,0.2663185,-0.4967491
637.0258,-0.2346251,-0.5894147,-0.07900006,-0.8896978,0.2590935,-0.4971377
637.0393,-0.2346251,-0.5894147,-0.07900006,-0.8896978,0.2590935,-0.4971377
637.0533,-0.2435877,-0.5897151,-0.07203375,-0.8912746,0.2512096,-0.4975644
637.0677,-0.2526935,-0.5900193,-0.06514625,-0.8929161,0.2434348,-0.4979826
637.082,-0.2618458,-0.5903236,-0.05839375,-0.8946096,0.2357811,-0.4983925
637.0966,-0.2618458,-0.5903236,-0.05839375,-0.8946096,0.2357811,-0.4983925
637.1109,-0.2713276,-0.5906397,-0.05111976,-0.8962817,0.2274644,-0.4988401
637.1262,-0.2809685,-0.5909596,-0.04393401,-0.898028,0.219265,-0.4992788
637.1405,-0.2906634,-0.5912794,-0.03689326,-0.8998327,0.2111945,-0.4997089
637.1552,-0.2906634,-0.5912794,-0.03689326,-0.8998327,0.2111945,-0.4997089
637.1693,-0.3003477,-0.5915973,-0.03001598,-0.901677,0.2032576,-0.5001304
637.1848,-0.310324,-0.591926,-0.0226282,-0.9034882,0.1946552,-0.5005893
637.1996,-0.310324,-0.591926,-0.0226282,-0.9034882,0.1946552,-0.5005893
637.2131,-0.3204343,-0.592258,-0.01533613,-0.9053642,0.1861804,-0.5010391
637.2286,-0.330581,-0.5925896,-0.008192308,-0.9072919,0.1778422,-0.50148
637.2433,-0.3407042,-0.5929191,-0.001213761,-0.9092549,0.1696439,-0.5019122
637.2579,-0.3407042,-0.5929191,-0.001213761,-0.9092549,0.1696439,-0.5019122
637.272,-0.3511097,-0.5932592,0.006274184,-0.9111823,0.1607746,-0.5023816
637.2872,-0.3616412,-0.5936026,0.01366247,-0.9131719,0.1520409,-0.5028417
637.3039,-0.3722022,-0.5939454,0.02089962,-0.915212,0.1434502,-0.5032926
637.3184,-0.3722022,-0.5939454,0.02089962,-0.915212,0.1434502,-0.5032926
637.3314,-0.3830764,-0.5942996,0.02864582,-0.9172302,0.134185,-0.5037804
637.3456,-0.3940931,-0.594657,0.03628448,-0.9193206,0.1250632,-0.5042586
637.3604,-0.4051474,-0.5950137,0.04376338,-0.9214682,0.1160919,-0.5047272
637.3748,-0.4051474,-0.5950137,0.04376338,-0.9214682,0.1160919,-0.5047272
637.3888,-0.4161748,-0.595368,0.05106648,-0.923655,0.1072733,-0.5051866
637.4044,-0.4274787,-0.5957327,0.05886973,-0.9258097,0.09777605,-0.5056827
637.4189,-0.4274787,-0.5957327,0.05886973,-0.9258097,0.09777605,-0.5056827
637.4329,-0.4389008,-0.5961002,0.06656075,-0.9280277,0.08843025,-0.506169
637.4482,-0.4503436,-0.5964668,0.07409071,-0.930297,0.07924128,-0.5066456
637.463,-0.4617473,-0.5968308,0.08144472,-0.9326013,0.07021048,-0.5071129
637.4777,-0.4617473,-0.5968308,0.08144472,-0.9326013,0.07021048,-0.5071129
637.4917,-0.4734186,-0.5972052,0.08929887,-0.9348722,0.06049445,-0.5076166
637.507,-0.4852008,-0.5975823,0.09703871,-0.9372044,0.05093667,-0.5081104
637.5215,-0.4969977,-0.5979584,0.1046161,-0.9395867,0.04154142,-0.5085945
637.5363,-0.4969977,-0.5979584,0.1046161,-0.9395867,0.04154142,-0.5085945
637.5503,-0.5090933,-0.5983456,0.1126934,-0.9419497,0.03145805,-0.5091147
637.5654,-0.5213171,-0.5987355,0.1206494,-0.9443841,0.02154075,-0.5096246
637.5799,-0.5213171,-0.5987355,0.1206494,-0.9443841,0.02154075,-0.5096246
637.5961,-0.5335641,-0.5991241,0.1284354,-0.9468757,0.01179337,-0.5101245
637.6102,-0.5457698,-0.59951,0.1360376,-0.949407,0.002216112,-0.5106145
637.6238,-0.5582384,-0.599906,0.1441327,-0.9519103,-0.008055267,-0.5111406
637.6382,-0.5582384,-0.599906,0.1441327,-0.9519103,-0.008055267,-0.5111406
637.6523,-0.5708114,-0.6003044,0.1521038,-0.9544769,-0.01815372,-0.5116564
637.6678,-0.5833914,-0.6007014,0.1599051,-0.957095,-0.02807678,-0.512162
637.6821,-0.5959186,-0.6010956,0.1675235,-0.959749,-0.03782504,-0.5126576
637.6968,-0.5959186,-0.6010956,0.1675235,-0.959749,-0.03782504,-0.5126576
637.7108,-0.6087005,-0.6014999,0.1756358,-0.9623746,-0.04827476,-0.5131892
637.7261,-0.6215801,-0.6019065,0.1836232,-0.965062,-0.0585453,-0.5137103
637.7407,-0.6344613,-0.6023118,0.1914405,-0.9677999,-0.06863517,-0.5142212
637.7554,-0.6344613,-0.6023118,0.1914405,-0.9677999,-0.06863517,-0.5142212
637.7697,-0.6476288,-0.6027278,0.1997514,-0.9705241,-0.07942866,-0.5147678
637.7849,-0.6609117,-0.6031461,0.2079311,-0.9733201,-0.09003463,-0.5153036
637.7994,-0.6609117,-0.6031461,0.2079311,-0.9733201,-0.09003463,-0.5153036
637.8132,-0.6742051,-0.6035628,0.215934,-0.9761739,-0.1004523,-0.5158289
637.8286,-0.6874447,-0.6039763,0.223748,-0.9790682,-0.1106836,-0.516344
637.8433,-0.7009353,-0.6043998,0.2320502,-0.9819418,-0.1216259,-0.5168947
637.8577,-0.7009353,-0.6043998,0.2320502,-0.9819418,-0.1216259,-0.5168947
637.8717,-0.7145182,-0.6048253,0.2402199,-0.9848794,-0.1323747,-0.5174345
637.889,-0.728096,-0.6052492,0.248214,-0.9878693,-0.1429304,-0.5179638
637.9027,-0.741609,-0.6056698,0.2560211,-0.9908962,-0.1532955,-0.5184827
637.9163,-0.741609,-0.6056698,0.2560211,-0.9908962,-0.1532955,-0.5184827
637.9302,-0.7553654,-0.6061004,0.2643179,-0.9939029,-0.1643794,-0.5190373
637.9453,-0.7692081,-0.6065331,0.2724822,-0.9969723,-0.175264,-0.519581
637.9601,-0.7830408,-0.606964,0.2804714,-1.000093,-0.1859504,-0.5201139
637.9747,-0.7830408,-0.606964,0.2804714,-1.000093,-0.1859504,-0.5201139
637.9887,-0.7971489,-0.6074054,0.2889499,-1.003209,-0.1973571,-0.5206823
638.0042,-0.8113613,-0.6078488,0.2972902,-1.006397,-0.2085555,-0.5212395
638.0186,-0.8113613,-0.6078488,0.2972902,-1.006397,-0.2085555,-0.5212395
638.0328,-0.825573,-0.6082903,0.3054495,-1.009644,-0.2195478,-0.5217858
638.0481,-0.8397198,-0.6087283,0.3134168,-1.012931,-0.230338,-0.5223214
638.0628,-0.8541074,-0.6091762,0.3218692,-1.016208,-0.2418572,-0.5228925
638.0773,-0.8541074,-0.6091762,0.3218692,-1.016208,-0.2418572,-0.5228925
638.0914,-0.8685766,-0.6096258,0.330183,-1.019551,-0.2531626,-0.5234523
638.1068,-0.88303,-0.6100734,0.3383178,-1.022946,-0.2642577,-0.5240011
638.1217,-0.8974081,-0.6105176,0.346263,-1.026378,-0.2751468,-0.5245392
638.1362,-0.8974081,-0.6105176,0.346263,-1.026378,-0.2751468,-0.5245392
638.15,-0.9120198,-0.6109716,0.3546949,-1.029801,-0.2867729,-0.5251128
638.1674,-0.9267076,-0.6114274,0.362989,-1.033288,-0.2981795,-0.5256751
638.1808,-0.9413753,-0.6118811,0.371105,-1.036826,-0.309371,-0.5262263
638.1946,-0.9413753,-0.6118811,0.371105,-1.036826,-0.309371,-0.5262263
638.2086,-0.956309,-0.6123452,0.3797067,-1.040371,-0.3212998,-0.5268128
638.2238,-0.9713372,-0.612811,0.3881655,-1.043989,-0.3329996,-0.5273877
638.2386,-0.9713372,-0.612811,0.3881655,-1.043989,-0.3329996,-0.5273877
638.2524,-0.9863549,-0.6132746,0.3964406,-1.047665,-0.3444758,-0.5279514
638.2679,-1.001298,-0.6137345,0.4045224,-1.051381,-0.3557344,-0.5285041
638.2824,-1.016473,-0.6142042,0.4130859,-1.0551,-0.3677398,-0.5290921
638.2968,-1.016473,-0.6142042,0.4130859,-1.0551,-0.3677398,-0.5290921
638.311,-1.03172,-0.6146752,0.4215069,-1.058884,-0.3795113,-0.5296685
638.3265,-1.046942,-0.6151441,0.4297468,-1.06272,-0.3910553,-0.5302336
638.3409,-1.062079,-0.6156093,0.437796,-1.066592,-0.4023779,-0.5307876
638.3558,-1.062079,-0.6156093,0.437796,-1.066592,-0.4023779,-0.5307876
638.3696,-1.065691,-0.6156173,0.423499,-1.071119,-0.381466,-0.5298114
638.3851,-1.062241,-0.615407,0.4075557,-1.07429,-0.3615048,-0.5288596
638.3998,-1.062241,-0.615407,0.4075557,-1.07429,-0.3615048,-0.5288596
638.4135,-1.054483,-0.6150727,0.3913827,-1.076168,-0.3423687,-0.5279289
638.4287,-1.044472,-0.6146791,0.376157,-1.076977,-0.3248723,-0.5270637
638.4454,-1.033131,-0.6142503,0.3614316,-1.077051,-0.3079141,-0.5262159
638.4592,-1.033131,-0.6142503,0.3614316,-1.077051,-0.3079141,-0.5262159
638.4728,-1.021029,-0.6138011,0.3471696,-1.076618,-0.2914245,-0.5253848
638.4907,-1.008518,-0.613341,0.3333204,-1.075845,-0.2753556,-0.5245702
638.5035,-0.9961607,-0.6128899,0.3204883,-1.074814,-0.2606115,-0.5238177
638.5161,-0.9961607,-0.6128899,0.3204883,-1.074814,-0.2606115,-0.5238177
638.5303,-0.9839541,-0.6124466,0.308053,-1.073678,-0.2461951,-0.5230799
638.5457,-0.9718958,-0.6120105,0.2959335,-1.072487,-0.232095,-0.5223565
638.5602,-0.9599836,-0.6115812,0.2840891,-1.071267,-0.218302,-0.5216473
638.575,-0.9599836,-0.6115812,0.2840891,-1.071267,-0.218302,-0.5216473
638.5889,-0.9485607,-0.611172,0.2731426,-1.069991,-0.2057296,-0.5209981
638.6045,-0.937489,-0.6107776,0.2625041,-1.068748,-0.1934152,-0.5203615
638.6191,-0.937489,-0.6107776,0.2625041,-1.068748,-0.1934152,-0.5203615
638.6331,-0.926683,-0.6103945,0.2521096,-1.067538,-0.1813569,-0.5197374
638.6485,-0.9164339,-0.6100342,0.2425729,-1.066314,-0.1704633,-0.5191714
638.6628,-0.9065723,-0.6096901,0.233308,-1.065151,-0.1597873,-0.5186164
638.6775,-0.9065723,-0.6096901,0.233308,-1.065151,-0.1597873,-0.5186164
638.6915,-0.8969928,-0.6093577,0.2242524,-1.064041,-0.1493291,-0.5180723
638.707,-0.8876298,-0.6090345,0.2153803,-1.06297,-0.1390869,-0.5175388
638.7214,-0.878787,-0.6087323,0.2073202,-1.061881,-0.1299579,-0.5170618
638.738,-0.878787,-0.6087323,0.2073202,-1.061881,-0.1299579,-0.5170618
638.752,-0.8703028,-0.6084448,0.199498,-1.060852,-0.1210093,-0.516594
638.7661,-0.8620769,-0.6081678,0.1918543,-1.059874,-0.1122416,-0.5161353
638.7797,-0.8620769,-0.6081678,0.1918543,-1.059874,-0.1122416,-0.5161353
638.7937,-0.8543915,-0.6079125,0.185002,-1.058886,-0.1045458,-0.5157316
638.8088,-0.8470718,-0.607672,0.1783644,-1.057969,-0.0969997,-0.5153356
638.8235,-0.8400095,-0.6074419,0.1718802,-1.057109,-0.08960399,-0.5149474
638.8381,-0.8400095,-0.6074419,0.1718802,-1.057109,-0.08960399,-0.5149474
638.8521,-0.8331372,-0.6072193,0.1655255,-1.056293,-0.08235776,-0.5145668
638.8677,-0.8267572,-0.6070163,0.1599263,-1.055456,-0.07614356,-0.5142395
638.882,-0.8207077,-0.6068264,0.1545151,-1.054682,-0.07004922,-0.5139185
638.8967,-0.8207077,-0.6068264,0.1545151,-1.054682,-0.07004922,-0.5139185
638.9108,-0.8148884,-0.6066455,0.1492327,-1.053962,-0.06407543,-0.5136038
638.926,-0.8092366,-0.6064711,0.1440561,-1.053282,-0.05822138,-0.5132953
638.9408,-0.8040577,-0.6063153,0.1396105,-1.052577,-0.05336321,-0.5130387
638.9553,-0.8040577,-0.6063153,0.1396105,-1.052577,-0.05336321,-0.5130387
638.9693,-0.7991921,-0.6061717,0.1353303,-1.051935,-0.0485976,-0.512787
638.9847,-0.7945408,-0.6060362,0.1311566,-1.051347,-0.04392536,-0.5125403
638.9993,-0.7945408,-0.6060362,0.1311566,-1.051347,-0.04392536,-0.5125403
639.013,-0.7903862,-0.6059201,0.1276993,-1.050748,-0.04021969,-0.5123442
639.0307,-0.7865551,-0.6058165,0.1243883,-1.050221,-0.03658322,-0.5121518
639.0439,-0.7829396,-0.6057209,0.1211629,-1.049756,-0.03301713,-0.5119632
639.0577,-0.7829396,-0.6057209,0.1211629,-1.049756,-0.03301713,-0.5119632
639.0715,-0.7794729,-0.6056308,0.1180002,-1.049337,-0.02952124,-0.5117784
639.0868,-0.7764574,-0.605558,0.115525,-1.048896,-0.02696419,-0.5116429
639.1013,-0.7737324,-0.6054963,0.1131741,-1.048522,-0.02445409,-0.5115101
639.1159,-0.7737324,-0.6054963,0.1131741,-1.048522,-0.02445409,-0.5115101
639.1299,-0.7711977,-0.6054415,0.1108897,-1.048205,-0.02199211,-0.5113798
639.1452,-0.7687915,-0.6053911,0.1086497,-1.04793,-0.01957825,-0.5112521
639.1599,-0.7687915,-0.6053911,0.1086497,-1.04793,-0.01957825,-0.5112521
639.1738,-0.7668192,-0.6053574,0.1070786,-1.047632,-0.01807863,-0.5111727
639.1891,-0.7651219,-0.6053339,0.1056142,-1.047399,-0.01660545,-0.5110948
639.2042,-0.7636011,-0.6053167,0.1041986,-1.047222,-0.01516006,-0.5110184
639.2184,-0.7636011,-0.6053167,0.1041986,-1.047222,-0.01516006,-0.5110184
639.2326,-0.7625397,-0.6053169,0.1034416,-1.047035,-0.01460814,-0.5109894
639.2477,-0.7617651,-0.6053268,0.1027751,-1.046924,-0.0140643,-0.5109608
639.2626,-0.7611699,-0.6053425,0.1021397,-1.046877,-0.01353016,-0.5109328
639.2775,-0.7611699,-0.6053425,0.1021397,-1.046877,-0.01353016,-0.5109328
639.291,-0.7606874,-0.6053616,0.1015138,-1.046877,-0.01300624,-0.5109053
639.3064,-0.7606206,-0.6053962,0.1015225,-1.046857,-0.01335742,-0.5109242
639.3231,-0.7608081,-0.60544,0.1016036,-1.046906,-0.01369952,-0.5109426
639.3365,-0.7608081,-0.60544,0.1016036,-1.046906,-0.01369952,-0.5109426
639.3505,-0.7611507,-0.6054888,0.1017006,-1.047014,-0.0140343,-0.5109607
639.3646,-0.7615869,-0.6055405,0.1017929,-1.047165,-0.01436249,-0.5109784
639.3791,-0.7615869,-0.6055405,0.1017929,-1.047165,-0.01436249,-0.5109784
639.3931,-0.7624228,-0.6056071,0.102506,-1.047294,-0.01554963,-0.5110416
639.4083,-0.7635,-0.6056821,0.1032778,-1.04749,-0.01671175,-0.5111035
639.4229,-0.7647201,-0.6057614,0.1040516,-1.047744,-0.01785083,-0.5111641
639.4377,-0.7647201,-0.6057614,0.1040516,-1.047744,-0.01785083,-0.5111641
639.4517,-0.7663667,-0.6058565,0.1054388,-1.047988,-0.01983412,-0.5112693
639.467,-0.7682672,-0.6059601,0.1068706,-1.04831,-0.02177724,-0.5113724
639.4814,-0.7703146,-0.6060679,0.1082894,-1.048696,-0.02368251,-0.5114735
639.4961,-0.7703146,-0.6060679,0.1082894,-1.048696,-0.02368251,-0.5114735
639.5102,-0.7724428,-0.6061774,0.1096747,-1.04913,-0.02555126,-0.5115726
639.5256,-0.7749552,-0.606301,0.1116534,-1.049545,-0.02825276,-0.5117156
639.5401,-0.7776914,-0.6064317,0.1136623,-1.050029,-0.03090042,-0.5118557
639.5548,-0.7776914,-0.6064317,0.1136623,-1.050029,-0.03090042,-0.5118557
639.5687,-0.7805525,-0.6065656,0.1156465,-1.050572,-0.03349685,-0.511993
639.5843,-0.783477,-0.6067005,0.1175862,-1.051159,-0.03604364,-0.5121276
639.5988,-0.783477,-0.6067005,0.1175862,-1.051159,-0.03604364,-0.5121276
639.6147,-0.7867714,-0.606849,0.1201092,-1.051724,-0.03941332,-0.5123054
639.6287,-0.7902775,-0.607004,0.1226513,-1.052357,-0.04271632,-0.5124797
639.6425,-0.7938972,-0.6071618,0.1251575,-1.053047,-0.04595558,-0.5126505
639.657,-0.7938972,-0.6071618,0.1251575,-1.053047,-0.04595558,-0.5126505
639.6711,-0.7979146,-0.6073337,0.1282414,-1.053729,-0.05000727,-0.5128638
639.6863,-0.8021572,-0.6075124,0.1313325,-1.054488,-0.05397918,-0.5130728
639.7009,-0.8065186,-0.6076937,0.1343745,-1.055311,-0.05787469,-0.5132778
639.7155,-0.8065186,-0.6076937,0.1343745,-1.055311,-0.05787469,-0.5132778
639.7295,-0.8109327,-0.6078752,0.1373487,-1.056182,-0.06169607,-0.5134786
639.7448,-0.8157036,-0.6080695,0.1408841,-1.057035,-0.06632383,-0.5137214
639.7595,-0.8157036,-0.6080695,0.1408841,-1.057035,-0.06632383,-0.5137214
639.7734,-0.8206712,-0.6082695,0.1444149,-1.057957,-0.07086067,-0.5139593
639.7888,-0.8257367,-0.6084713,0.1478878,-1.058938,-0.07531031,-0.5141926
639.8035,-0.830839,-0.6086729,0.1512847,-1.059961,-0.07967536,-0.5144212
639.8179,-0.830839,-0.6086729,0.1512847,-1.059961,-0.07967536,-0.5144212
639.8321,-0.8362854,-0.6088869,0.1552354,-1.060964,-0.08484164,-0.5146913
639.8475,-0.8419175,-0.6091062,0.1591728,-1.062034,-0.08990628,-0.5149559
639.8624,-0.8476377,-0.6093269,0.1630438,-1.063161,-0.09487349,-0.5152154
639.8767,-0.8476377,-0.6093269,0.1630438,-1.063161,-0.09487349,-0.5152154
639.8906,-0.8537304,-0.6095608,0.1674646,-1.064282,-0.1006343,-0.5155156
639.908,-0.8600236,-0.6098001,0.1718616,-1.065479,-0.1062816,-0.5158099
639.9214,-0.8664106,-0.6100407,0.1761809,-1.066739,-0.1118203,-0.5160983
639.9351,-0.8664106,-0.6100407,0.1761809,-1.066739,-0.1118203,-0.5160983
639.9489,-0.8728261,-0.6102806,0.1804048,-1.068046,-0.1172537,-0.5163811
639.9642,-0.8795746,-0.6105323,0.1851648,-1.069337,-0.1234787,-0.5167042
639.9787,-0.8795746,-0.6105323,0.1851648,-1.069337,-0.1234787,-0.5167042
639.9927,-0.8864962,-0.6107886,0.1898918,-1.070697,-0.129581,-0.5170209
640.0081,-0.8934921,-0.6110457,0.1945344,-1.072114,-0.1355658,-0.5173314
640.0226,-0.9005017,-0.6113016,0.1990759,-1.073573,-0.1414368,-0.5176357
640.0373,-0.9005017,-0.6113016,0.1990759,-1.073573,-0.1414368,-0.5176357
640.0513,-0.9078326,-0.6115692,0.2041482,-1.075015,-0.1480978,-0.51798
640.0668,-0.9153268,-0.6118411,0.2091808,-1.076524,-0.1546269,-0.5183175
640.0814,-0.9228866,-0.6121135,0.2141228,-1.078087,-0.1610298,-0.5186483
640.0959,-0.9228866,-0.6121135,0.2141228,-1.078087,-0.1610298,-0.5186483
640.1099,-0.9307973,-0.6123983,0.2195925,-1.079648,-0.1682171,-0.5190186
640.1253,-0.9388866,-0.6126875,0.2250134,-1.081285,-0.1752613,-0.5193815
640.1401,-0.9470482,-0.6129771,0.2303337,-1.082983,-0.1821689,-0.5197372
640.1545,-0.9470482,-0.6129771,0.2303337,-1.082983,-0.1821689,-0.5197372
640.1686,-0.9552169,-0.6132651,0.2355371,-1.084727,-0.1889447,-0.5200859
640.184,-0.963698,-0.6135644,0.2412568,-1.08646,-0.1965062,-0.5204738
640.1995,-0.963698,-0.6135644,0.2412568,-1.08646,-0.1965062,-0.5204738
640.2132,-0.9723313,-0.6138674,0.2469207,-1.08826,-0.2039168,-0.520854
640.2277,-0.9810185,-0.6141704,0.2524793,-1.090117,-0.2111834,-0.5212267
640.2421,-0.989699,-0.6144716,0.257917,-1.092014,-0.218311,-0.5215921
640.2568,-0.989699,-0.6144716,0.257917,-1.092014,-0.218311,-0.5215921
640.2706,-0.9986812,-0.6147839,0.2638676,-1.093899,-0.2262255,-0.5219963
640.2898,-1.007807,-0.6150997,0.2697573,-1.09585,-0.2339809,-0.5223925
640.3011,-1.016979,-0.6154154,0.2755372,-1.097855,-0.2415848,-0.5227809
640.3154,-1.016979,-0.6154154,0.2755372,-1.097855,-0.2415848,-0.5227809
640.3293,-1.026483,-0.6157428,0.2818276,-1.099863,-0.249971,-0.5232077
640.3447,-1.036146,-0.6160738,0.2880492,-1.101946,-0.2581872,-0.523626
640.3594,-1.036146,-0.6160738,0.2880492,-1.101946,-0.2581872,-0.523626
640.3734,-1.045863,-0.6164046,0.2941522,-1.104089,-0.266242,-0.524036
640.3889,-1.055568,-0.6167331,0.3001215,-1.106277,-0.2741415,-0.5244381
640.4036,-1.065567,-0.6170725,0.3065917,-1.108459,-0.2828275,-0.5248783
640.4181,-1.065567,-0.6170725,0.3065917,-1.108459,-0.2828275,-0.5248783
640.432,-1.075701,-0.6174149,0.3129879,-1.110709,-0.2913366,-0.5253098
640.4473,-1.085871,-0.6177567,0.3192624,-1.113013,-0.2996781,-0.5257328
640.4619,-1.096015,-0.6180962,0.3254008,-1.115357,-0.3078582,-0.5261475
640.4792,-1.096015,-0.6180962,0.3254008,-1.115357,-0.3078582,-0.5261475
640.4919,-1.106445,-0.6184464,0.3320376,-1.117696,-0.3168277,-0.5266002
640.5067,-1.117001,-0.6187995,0.338597,-1.1201,-0.325613,-0.5270439
640.5211,-1.127586,-0.6191519,0.3450316,-1.122558,-0.3342239,-0.5274788
640.5349,-1.127586,-0.6191519,0.3450316,-1.122558,-0.3342239,-0.5274788
640.5484,-1.138486,-0.6195156,0.3519628,-1.125025,-0.3436201,-0.5279514
640.5632,-1.149529,-0.6198823,0.3588095,-1.127566,-0.3528212,-0.5284145
640.5778,-1.149529,-0.6198823,0.3588095,-1.127566,-0.3528212,-0.5284145
640.5916,-1.160609,-0.6202482,0.3655238,-1.130167,-0.3618381,-0.5288685
640.6068,-1.171661,-0.6206114,0.3720914,-1.132809,-0.3706785,-0.5293136
640.6213,-1.182992,-0.6209851,0.3791469,-1.135456,-0.38031,-0.5297962
640.6358,-1.182992,-0.6209851,0.3791469,-1.135456,-0.38031,-0.5297962
640.6497,-1.194441,-0.6213614,0.3861144,-1.138169,-0.3897407,-0.5302692
640.6653,-1.20591,-0.6217365,0.3929476,-1.140934,-0.3989817,-0.5307329
640.6797,-1.20591,-0.6217365,0.3929476,-1.140934,-0.3989817,-0.5307329
640.6936,-1.217685,-0.6221227,0.4002675,-1.143717,-0.4090097,-0.5312337
640.709,-1.229593,-0.6225116,0.4074939,-1.146574,-0.4188263,-0.5317246
640.7235,-1.241529,-0.6228992,0.4145794,-1.149489,-0.4284435,-0.5322058
640.7379,-1.241529,-0.6228992,0.4145794,-1.149489,-0.4284435,-0.5322058
640.752,-1.253426,-0.6232839,0.4215105,-1.152444,-0.4378701,-0.5326775
640.7687,-1.254499,-0.6232564,0.4086608,-1.155904,-0.4168066,-0.5317082
640.7819,-1.248953,-0.6230044,0.39388,-1.15807,-0.3968852,-0.5307636
640.7991,-1.248953,-0.6230044,0.39388,-1.15807,-0.3968852,-0.5307636
640.8123,-1.239385,-0.6226196,0.378708,-1.159035,-0.3778705,-0.5298404
640.8266,-1.227407,-0.6221555,0.3637204,-1.159041,-0.3595593,-0.5289367
640.8403,-1.214013,-0.6216438,0.3491029,-1.158341,-0.3418239,-0.5280514
640.8551,-1.214013,-0.6216438,0.3491029,-1.158341,-0.3418239,-0.5280514
640.869,-1.199819,-0.6211044,0.3348893,-1.157147,-0.3245839,-0.5271838
640.8843,-1.185203,-0.62055,0.3210611,-1.155619,-0.3077873,-0.5263336
640.899,-1.185203,-0.62055,0.3210611,-1.155619,-0.3077873,-0.5263336
640.913,-1.170398,-0.6199889,0.3075879,-1.153872,-0.2913997,-0.5255001
640.9285,-1.155545,-0.6194264,0.2944408,-1.151984,-0.2753971,-0.5246832
640.9431,-1.140734,-0.6188658,0.2815963,-1.150008,-0.2597617,-0.5238823
640.9575,-1.140734,-0.6188658,0.2815963,-1.150008,-0.2597617,-0.5238823
640.9716,-1.126015,-0.6183095,0.2690362,-1.147977,-0.2444797,-0.5230973
640.9873,-1.111422,-0.6177587,0.2567466,-1.145913,-0.2295398,-0.5223278
641.0017,-1.096973,-0.6172143,0.2447165,-1.14383,-0.214932,-0.5215734
641.0162,-1.096973,-0.6172143,0.2447165,-1.14383,-0.214932,-0.5215734
641.0303,-1.082678,-0.6166766,0.2329371,-1.141737,-0.2006473,-0.520834
641.0456,-1.068544,-0.6161461,0.2214012,-1.139637,-0.1866772,-0.5201091
641.0603,-1.054574,-0.6156229,0.2101023,-1.137535,-0.1730139,-0.5193985
641.0748,-1.054574,-0.6156229,0.2101023,-1.137535,-0.1730139,-0.5193985
641.0909,-1.040767,-0.6151069,0.1990347,-1.135432,-0.1596498,-0.5187018
641.1052,-1.027124,-0.6145983,0.1881931,-1.133329,-0.1465776,-0.5180188
641.119,-1.027124,-0.6145983,0.1881931,-1.133329,-0.1465776,-0.5180188
641.1331,-1.013645,-0.6140968,0.1775726,-1.131225,-0.1337902,-0.5173494
641.1483,-1.000327,-0.6136025,0.1671685,-1.129122,-0.1212806,-0.5166931
641.1628,-0.9871694,-0.6131153,0.1569761,-1.127019,-0.1090422,-0.5160496
641.1776,-0.9871694,-0.6131153,0.1569761,-1.127019,-0.1090422,-0.5160496
641.1918,-0.9741704,-0.612635,0.1469913,-1.124916,-0.0970685,-0.5154188
641.2072,-0.9613283,-0.6121616,0.1372096,-1.122813,-0.08535308,-0.5148004
641.2216,-0.9486412,-0.611695,0.127627,-1.12071,-0.07388978,-0.5141942
641.2366,-0.9486412,-0.611695,0.127627,-1.12071,-0.07388978,-0.5141942
641.2507,-0.9361072,-0.6112351,0.1182393,-1.118607,-0.06267256,-0.5135999
641.2661,-0.9237246,-0.6107818,0.1090426,-1.116503,-0.05169556,-0.5130172
641.2804,-0.9114915,-0.610335,0.1000331,-1.114398,-0.04095304,-0.512446
641.2951,-0.9114915,-0.610335,0.1000331,-1.114398,-0.04095304,-0.512446
641.3091,-0.8994061,-0.6098946,0.09120703,-1.112293,-0.03043946,-0.5118861
641.3246,-0.8874666,-0.6094605,0.08256058,-1.110188,-0.02014937,-0.511337
641.3392,-0.8874666,-0.6094605,0.08256058,-1.110188,-0.02014937,-0.511337
641.3553,-0.8756713,-0.6090326,0.07409019,-1.108082,-0.01007748,-0.5107988
641.3696,-0.8640184,-0.6086108,0.06579231,-1.105976,-0.0002186392,-0.5102711
641.3832,-0.8525062,-0.6081951,0.05766346,-1.10387,0.009432177,-0.5097538
641.3978,-0.8525062,-0.6081951,0.05766346,-1.10387,0.009432177,-0.5097538
641.4119,-0.8411329,-0.6077853,0.04970026,-1.101763,0.01887986,-0.5092465
641.4274,-0.8298969,-0.6073813,0.04189939,-1.099657,0.02812915,-0.5087492
641.4418,-0.8187966,-0.6069832,0.03425758,-1.097551,0.03718472,-0.5082617
641.4566,-0.8187966,-0.6069832,0.03425758,-1.097551,0.03718472,-0.5082617
641.4708,-0.8078302,-0.6065907,0.02677167,-1.095445,0.04605107,-0.5077838
641.4862,-0.7969962,-0.6062039,0.01943853,-1.09334,0.05473261,-0.5073152
641.5008,-0.7862929,-0.6058226,0.01225511,-1.091236,0.06323364,-0.5068557
641.5158,-0.7862929,-0.6058226,0.01225511,-1.091236,0.06323364,-0.5068557
641.5294,-0.7757187,-0.6054466,0.005218436,-1.089132,0.07155831,-0.5064053
641.5447,-0.7652721,-0.6050761,-0.001674426,-1.08703,0.07971071,-0.5059637
641.5593,-0.7652721,-0.6050761,-0.001674426,-1.08703,0.07971071,-0.5059637
641.5733,-0.7549516,-0.6047108,-0.00842634,-1.08493,0.08769482,-0.5055307
641.5889,-0.7447556,-0.6043507,-0.0150401,-1.082832,0.09551449,-0.5051062
641.6033,-0.7346825,-0.6039958,-0.02151845,-1.080735,0.1031735,-0.5046901
641.6177,-0.7346825,-0.6039958,-0.02151845,-1.080735,0.1031735,-0.5046901
641.6338,-0.724731,-0.6036459,-0.02786408,-1.078642,0.1106755,-0.504282
641.6481,-0.7148995,-0.603301,-0.03407962,-1.07655,0.1180241,-0.5038819
641.6618,-0.7051865,-0.6029611,-0.04016765,-1.074462,0.1252227,-0.5034897
641.6765,-0.7051865,-0.6029611,-0.04016765,-1.074462,0.1252227,-0.5034897
641.6904,-0.6955907,-0.6026259,-0.04613067,-1.072377,0.1322748,-0.5031052
641.7057,-0.6861106,-0.6022955,-0.05197117,-1.070296,0.1391837,-0.5027282
641.7204,-0.6767448,-0.6019698,-0.05769156,-1.068218,0.1459525,-0.5023586
641.7351,-0.6767448,-0.6019698,-0.05769156,-1.068218,0.1459525,-0.5023586
641.749,-0.667492,-0.6016487,-0.06329421,-1.066145,0.1525845,-0.5019962
641.7643,-0.6583506,-0.6013322,-0.06878144,-1.064076,0.1590827,-0.5016409
641.7789,-0.6583506,-0.6013322,-0.06878144,-1.064076,0.1590827,-0.5016409
641.7931,-0.6493195,-0.6010202,-0.07415551,-1.062011,0.1654501,-0.5012925
641.8086,-0.6403973,-0.6007126,-0.07941866,-1.059952,0.1716896,-0.5009509
641.8231,-0.6315826,-0.6004093,-0.08457305,-1.057898,0.1778041,-0.5006161
641.8373,-0.6315826,-0.6004093,-0.08457305,-1.057898,0.1778041,-0.5006161
641.8518,-0.6228742,-0.6001104,-0.08962083,-1.05585,0.1837963,-0.5002878
641.8671,-0.6142707,-0.5998156,-0.09456408,-1.053807,0.1896689,-0.4999659
641.8817,-0.605771,-0.599525,-0.09940485,-1.05177,0.1954245,-0.4996503
641.8961,-0.605771,-0.599525,-0.09940485,-1.05177,0.1954245,-0.4996503
641.9121,-0.5973737,-0.5992386,-0.1041451,-1.04974,0.2010657,-0.4993409
641.9263,-0.5890775,-0.5989562,-0.1087869,-1.047716,0.2065951,-0.4990375
641.9401,-0.5808814,-0.5986778,-0.1133321,-1.0457,0.2120151,-0.4987401
641.956,-0.5808814,-0.5986778,-0.1133321,-1.0457,0.2120151,-0.4987401
641.9688,-0.5727839,-0.5984033,-0.1177826,-1.04369,0.217328,-0.4984485
641.9841,-0.5647841,-0.5981327,-0.1221403,-1.041687,0.2225361,-0.4981626
641.9987,-0.5647841,-0.5981327,-0.1221403,-1.041687,0.2225361,-0.4981626
642.0126,-0.5568807,-0.597866,-0.1264069,-1.039693,0.2276418,-0.4978822
642.028,-0.5490724,-0.597603,-0.1305843,-1.037706,0.2326473,-0.4976074
642.0426,-0.5413583,-0.5973437,-0.1346741,-1.035727,0.2375547,-0.497338
642.0573,-0.5413583,-0.5973437,-0.1346741,-1.035727,0.2375547,-0.497338
642.0713,-0.5337371,-0.5970882,-0.1386781,-1.033756,0.242366,-0.4970738
642.0867,-0.5262076,-0.5968361,-0.1425979,-1.031794,0.2470835,-0.4968148
642.1013,-0.5187689,-0.5965877,-0.1464352,-1.029841,0.2517091,-0.4965608
642.1157,-0.5187689,-0.5965877,-0.1464352,-1.029841,0.2517091,-0.4965608
642.1297,-0.5114198,-0.5963427,-0.1501916,-1.027896,0.2562447,-0.4963118
642.145,-0.5041592,-0.5961012,-0.1538686,-1.025961,0.2606922,-0.4960677
642.1596,-0.5041592,-0.5961012,-0.1538686,-1.025961,0.2606922,-0.4960677
642.1735,-0.496986,-0.5958631,-0.1574678,-1.024034,0.2650536,-0.4958284
642.1926,-0.4898992,-0.5956284,-0.1609907,-1.022118,0.2693306,-0.4955938
642.2047,-0.4828978,-0.5953969,-0.1644388,-1.020211,0.273525,-0.4953637
642.2183,-0.4828978,-0.5953969,-0.1644388,-1.020211,0.273525,-0.4953637
642.2322,-0.4759806,-0.5951688,-0.1678136,-1.018313,0.2776385,-0.4951382
642.2474,-0.4691468,-0.5949438,-0.1711163,-1.016426,0.2816729,-0.4949171
642.262,-0.4623953,-0.594722,-0.1743485,-1.014548,0.2856298,-0.4947003
642.2766,-0.4623953,-0.594722,-0.1743485,-1.014548,0.2856298,-0.4947003
642.2906,-0.455725,-0.5945033,-0.1775115,-1.012681,0.2895108,-0.4944877
642.3062,-0.4491351,-0.5942878,-0.1806067,-1.010825,0.2933175,-0.4942793
642.3208,-0.4426244,-0.5940751,-0.1836353,-1.008979,0.2970515,-0.494075
642.3354,-0.4426244,-0.5940751,-0.1836353,-1.008979,0.2970515,-0.494075
642.3495,-0.4361922,-0.5938656,-0.1865986,-1.007143,0.3007141,-0.4938747
642.3649,-0.4298374,-0.5936589,-0.1894979,-1.005319,0.304307,-0.4936783
642.3794,-0.4298374,-0.5936589,-0.1894979,-1.005319,0.304307,-0.4936783
