JMolnar6/NonAnthroHands_User_Study/HandsLoggerWithURDF/tempdata/files/Reachy_JointMotion_gesture_9_42.csv
Time,r_shoulder,r_shoulder_x,r_upper_arm,r_forearm,r_wrist,r_wrist2hand,
840.5543,-0.01404082,0.0004098669,NaN,-0.9044025,0.0003728376,NaN,-1.561726,-14.60573,NaN,-2.105347,-1.474667,0.3769133,14.11146,NaN,NaN,-0.09221293,0.8145845,-6.420622E-08,1.057137,-2.349176E-09,1.343836
840.5705,-0.01403987,0.0004096293,NaN,-0.9044867,0.0003729509,NaN,-1.561215,-14.6057,NaN,-2.105959,-1.469375,0.3782286,14.10585,NaN,NaN,-0.09208633,0.8144695,-6.979415E-08,1.049425,-2.349176E-09,1.340297
840.5845,-0.01403882,0.0004096552,NaN,-0.9046132,0.0003726348,NaN,-1.560791,-14.60734,NaN,-2.106857,-1.476975,0.3797729,14.11411,NaN,NaN,-0.09196265,0.8130839,-6.293962E-08,1.060566,4.803381E-09,1.350587
840.5993,-0.01403882,0.0004096552,NaN,-0.9046132,0.0003726348,NaN,-1.560791,-14.60734,NaN,-2.106857,-1.476975,0.3797729,14.11411,NaN,NaN,-0.09196265,0.8130839,-6.293962E-08,1.060566,4.803381E-09,1.350587
840.6154,-0.01403771,0.0004094743,NaN,-0.9047652,0.0003729402,NaN,-1.560487,-14.60627,NaN,-2.107884,-1.468516,0.3812864,14.10504,NaN,NaN,-0.09184132,0.8139477,-5.720267E-08,1.048225,7.187567E-09,1.342322
840.6299,-0.01403655,0.0004098156,NaN,-0.9049323,0.0003725878,NaN,-1.560253,-14.60662,NaN,-2.108966,-1.480148,0.3827462,14.11739,NaN,NaN,-0.09172226,0.813978,-5.332837E-08,1.065171,4.803381E-09,1.348022
840.6437,-0.0140355,0.0004096767,NaN,-0.9050386,0.0003727805,NaN,-1.560577,-14.60624,NaN,-2.109473,-1.468497,0.3828148,14.10501,NaN,NaN,-0.09173474,0.8141224,-4.572878E-08,1.048192,7.187567E-09,1.342382
840.6584,-0.0140355,0.0004096767,NaN,-0.9050386,0.0003727805,NaN,-1.560577,-14.60624,NaN,-2.109473,-1.468497,0.3828148,14.10501,NaN,NaN,-0.09173474,0.8141224,-4.572878E-08,1.048192,7.187567E-09,1.342382
840.6724,-0.01403452,0.000409374,NaN,-0.905107,0.0003718401,NaN,-1.560837,-14.60608,NaN,-2.109695,-1.48096,0.3826162,14.11817,NaN,NaN,-0.0917465,0.8146873,-5.049715E-08,1.066324,2.419196E-09,1.34445
840.6877,-0.01403361,0.0004088758,NaN,-0.9051516,0.0003718784,NaN,-1.560987,-14.60652,NaN,-2.109779,-1.468378,0.3824179,14.10487,NaN,NaN,-0.09175809,0.8140097,-5.448321E-08,1.047997,2.419196E-09,1.343352
840.7025,-0.01403273,0.0004087047,NaN,-0.9051814,0.00037132,NaN,-1.561072,-14.6078,NaN,-2.109796,-1.478398,0.382246,14.11563,NaN,NaN,-0.09176955,0.8130537,-5.701641E-08,1.062636,4.803381E-09,1.352661
840.7188,-0.01403273,0.0004087047,NaN,-0.9051814,0.00037132,NaN,-1.561072,-14.6078,NaN,-2.109796,-1.478398,0.382246,14.11563,NaN,NaN,-0.09176955,0.8130537,-5.701641E-08,1.062636,4.803381E-09,1.352661
840.7314,-0.014032,0.0004086382,NaN,-0.9051345,0.0003718616,NaN,-1.561649,-14.60655,NaN,-2.109188,-1.469027,0.3807456,14.10557,NaN,NaN,-0.09191009,0.8140999,-5.336562E-08,1.048959,3.500977E-11,1.343979
840.7469,-0.01403139,0.0004087711,NaN,-0.9050405,0.0003714342,NaN,-1.562125,-14.60688,NaN,-2.108278,-1.480023,0.3790235,14.11725,NaN,NaN,-0.09204747,0.8141167,-6.085346E-08,1.06498,2.419196E-09,1.347818
840.762,-0.01403085,0.0004087065,NaN,-0.9049178,0.0003718444,NaN,-1.562471,-14.60653,NaN,-2.107229,-1.469563,0.3773382,14.10612,NaN,NaN,-0.09218225,0.8142512,-6.7857E-08,1.049731,4.803381E-09,1.343794
840.7766,-0.01403085,0.0004087065,NaN,-0.9049178,0.0003718444,NaN,-1.562471,-14.60653,NaN,-2.107229,-1.469563,0.3773382,14.10612,NaN,NaN,-0.09218225,0.8142512,-6.7857E-08,1.049731,4.803381E-09,1.343794
840.7908,-0.01403048,0.0004087343,NaN,-0.9047087,0.0003718032,NaN,-1.56326,-14.60776,NaN,-2.105531,-1.474732,0.3743619,14.11175,NaN,NaN,-0.09244376,0.813184,-6.778249E-08,1.057307,9.571753E-09,1.350877
840.8062,-0.01403024,0.0004088042,NaN,-0.9044471,0.0003715219,NaN,-1.563917,-14.60793,NaN,-2.103527,-1.47684,0.3712044,14.11399,NaN,NaN,-0.09269977,0.8130715,-7.828781E-08,1.060377,9.571753E-09,1.351999
840.8209,-0.01403008,0.0004084926,NaN,-0.9041544,0.0003713908,NaN,-1.564427,-14.60705,NaN,-2.101391,-1.470118,0.3681176,14.10677,NaN,NaN,-0.0929509,0.8137878,-8.670697E-08,1.050566,9.571753E-09,1.345543
840.8357,-0.01403008,0.0004084926,NaN,-0.9041544,0.0003713908,NaN,-1.564427,-14.60705,NaN,-2.101391,-1.470118,0.3681176,14.10677,NaN,NaN,-0.0929509,0.8137878,-8.670697E-08,1.050566,9.571753E-09,1.345543
840.8497,-0.01402999,0.000408379,NaN,-0.9038438,0.0003716012,NaN,-1.564849,-14.60654,NaN,-2.099209,-1.470374,0.3651188,14.10697,NaN,NaN,-0.09319722,0.8142946,-9.3487E-08,1.050913,9.571753E-09,1.341841
840.8663,-0.01403004,0.0004086723,NaN,-0.9034541,0.0003717831,NaN,-1.565735,-14.60777,NaN,-2.096429,-1.47457,0.3608355,14.11157,NaN,NaN,-0.09356805,0.8131949,-9.430656E-08,1.057076,2.419196E-09,1.350519
840.8801,-0.01403022,0.0004088402,NaN,-0.9030175,0.0003725251,NaN,-1.566495,-14.60722,NaN,-2.093377,-1.468476,0.3563964,14.10505,NaN,NaN,-0.09393125,0.8135813,-1.049609E-07,1.04819,2.419196E-09,1.346401
840.8948,-0.01403022,0.0004088402,NaN,-0.9030175,0.0003725251,NaN,-1.566495,-14.60722,NaN,-2.093377,-1.468476,0.3563964,14.10505,NaN,NaN,-0.09393125,0.8135813,-1.049609E-07,1.04819,2.419196E-09,1.346401
840.9087,-0.01403049,0.0004084031,NaN,-0.9025539,0.0003727316,NaN,-1.567107,-14.60672,NaN,-2.090217,-1.466956,0.3520518,14.10337,NaN,NaN,-0.09428745,0.8140177,-1.145721E-07,1.045953,3.501022E-11,1.341803
840.9242,-0.01403081,0.0004074652,NaN,-0.9020756,0.0003725423,NaN,-1.567629,-14.60669,NaN,-2.087031,-1.466674,0.3478177,14.10307,NaN,NaN,-0.09463678,0.8140343,-1.228423E-07,1.04554,-7.117547E-09,1.342242
840.9388,-0.01403081,0.0004074652,NaN,-0.9020756,0.0003725423,NaN,-1.567629,-14.60669,NaN,-2.087031,-1.466674,0.3478177,14.10307,NaN,NaN,-0.09463678,0.8140343,-1.228423E-07,1.04554,-7.117547E-09,1.342242
840.9529,-0.01403128,0.0004069765,NaN,-0.9015211,0.0003727562,NaN,-1.568601,-14.6066,NaN,-2.083265,-1.468827,0.3423069,14.10532,NaN,NaN,-0.09510861,0.8141872,-1.244814E-07,1.048667,-7.117547E-09,1.341213
840.9684,-0.01403188,0.0004068067,NaN,-0.9009221,0.0003733979,NaN,-1.569432,-14.60732,NaN,-2.079243,-1.466516,0.3366757,14.10297,NaN,NaN,-0.09557086,0.8133914,-1.371474E-07,1.045333,-7.117547E-09,1.346167
840.9832,-0.01403256,0.0004072113,NaN,-0.9002983,0.0003731673,NaN,-1.570112,-14.60776,NaN,-2.075129,-1.479491,0.3311658,14.11674,NaN,NaN,-0.09602419,0.8133894,-1.468331E-07,1.064229,-7.117547E-09,1.35183
840.9981,-0.01403256,0.0004072113,NaN,-0.9002983,0.0003731673,NaN,-1.570112,-14.60776,NaN,-2.075129,-1.479491,0.3311658,14.11674,NaN,NaN,-0.09602419,0.8133894,-1.468331E-07,1.064229,-7.117547E-09,1.35183
841.0125,-0.01403341,0.0004073869,NaN,-0.8995927,0.0003734732,NaN,-1.571191,-14.60708,NaN,-2.070414,-1.472811,0.3244006,14.10959,NaN,NaN,-0.09659801,0.8139175,-1.498134E-07,1.054484,-1.188592E-08,1.344624
841.0277,-0.0140344,0.0004072605,NaN,-0.8988398,0.0003739148,NaN,-1.571845,-14.60726,NaN,-2.065419,-1.467228,0.3172896,14.1037,NaN,NaN,-0.09715979,0.8135825,-1.782001E-07,1.046363,-7.117547E-09,1.344525
841.0424,-0.01403549,0.0004070635,NaN,-0.898061,0.0003742698,NaN,-1.571962,-14.60776,NaN,-2.060324,-1.467072,0.3102071,14.10359,NaN,NaN,-0.09771045,0.813078,-2.116532E-07,1.046159,3.501066E-11,1.346804
841.0571,-0.01403549,0.0004070635,NaN,-0.898061,0.0003742698,NaN,-1.571962,-14.60776,NaN,-2.060324,-1.467072,0.3102071,14.10359,NaN,NaN,-0.09771045,0.813078,-2.116532E-07,1.046159,3.501066E-11,1.346804
841.071,-0.01403663,0.0004070691,NaN,-0.8972697,0.000374368,NaN,-1.57171,-14.60828,NaN,-2.055226,-1.471905,0.3033414,14.10876,NaN,NaN,-0.09825057,0.8127196,-2.397419E-07,1.05321,2.419196E-09,1.351987
841.0865,-0.01403793,0.0004075669,NaN,-0.896405,0.0003740806,NaN,-1.571812,-14.60708,NaN,-2.04959,-1.479965,0.295349,14.11711,NaN,NaN,-0.09890973,0.814137,-2.530039E-07,1.064879,7.187568E-09,1.348933
841.1033,-0.01403937,0.0004077799,NaN,-0.8954989,0.0003744161,NaN,-1.571725,-14.60678,NaN,-2.043732,-1.472404,0.2873102,14.10906,NaN,NaN,-0.09955574,0.8142751,-2.755046E-07,1.053854,-2.349175E-09,1.345978
841.117,-0.01403937,0.0004077799,NaN,-0.8954989,0.0003744161,NaN,-1.571725,-14.60678,NaN,-2.043732,-1.472404,0.2873102,14.10906,NaN,NaN,-0.09955574,0.8142751,-2.755046E-07,1.053854,-2.349175E-09,1.345978
841.131,-0.01404103,0.0004075959,NaN,-0.8945713,0.0003747671,NaN,-1.571493,-14.60698,NaN,-2.037815,-1.467307,0.2794828,14.10368,NaN,NaN,-0.1001893,0.8139306,-2.957702E-07,1.046437,3.501066E-11,1.341231
841.1454,-0.01404291,0.0004071738,NaN,-0.8936346,0.0003748632,NaN,-1.571246,-14.60715,NaN,-2.031921,-1.468248,0.2718995,14.10469,NaN,NaN,-0.1008107,0.813789,-3.094048E-07,1.047813,3.501066E-11,1.342695
841.1602,-0.01404515,0.0004074265,NaN,-0.8926271,0.000374409,NaN,-1.571527,-14.6076,NaN,-2.025498,-1.479695,0.2630961,14.11686,NaN,NaN,-0.1015493,0.813711,-3.124595E-07,1.064492,-2.349175E-09,1.351113
841.1761,-0.01404515,0.0004074265,NaN,-0.8926271,0.000374409,NaN,-1.571527,-14.6076,NaN,-2.025498,-1.479695,0.2630961,14.11686,NaN,NaN,-0.1015493,0.813711,-3.124595E-07,1.064492,-2.349175E-09,1.351113
841.1888,-0.01404775,0.0004072704,NaN,-0.8915804,0.0003745127,NaN,-1.57164,-14.60658,NaN,-2.018859,-1.468952,0.2541882,14.10537,NaN,NaN,-0.1022732,0.8144816,-3.30639E-07,1.048819,-2.349175E-09,1.341369
841.2042,-0.01405067,0.0004068516,NaN,-0.8905143,0.000374432,NaN,-1.571548,-14.6065,NaN,-2.012166,-1.46958,0.2454486,14.10601,NaN,NaN,-0.1029829,0.8145676,-3.480733E-07,1.049724,-2.349175E-09,1.34027
841.2191,-0.01405067,0.0004068516,NaN,-0.8905143,0.000374432,NaN,-1.571548,-14.6065,NaN,-2.012166,-1.46958,0.2454486,14.10601,NaN,NaN,-0.1029829,0.8145676,-3.480733E-07,1.049724,-2.349175E-09,1.34027
841.2337,-0.01405402,0.0004065823,NaN,-0.8893716,0.0003739895,NaN,-1.571795,-14.60784,NaN,-2.004916,-1.475295,0.2354885,14.11223,NaN,NaN,-0.1038082,0.8134063,-3.561944E-07,1.058104,-2.349175E-09,1.348209
841.2488,-0.0140578,0.000406447,NaN,-0.8881869,0.0003743563,NaN,-1.571782,-14.6072,NaN,-1.997447,-1.4689,0.2255135,14.10538,NaN,NaN,-0.1046171,0.813867,-3.781737E-07,1.04877,3.501066E-11,1.344479
841.2635,-0.01406193,0.0004069075,NaN,-0.8869814,0.0003740414,NaN,-1.571568,-14.60738,NaN,-1.989931,-1.480466,0.2157862,14.11764,NaN,NaN,-0.1054104,0.8140458,-3.95459E-07,1.06561,-7.117547E-09,1.348719
841.2783,-0.01406193,0.0004069075,NaN,-0.8869814,0.0003740414,NaN,-1.571568,-14.60738,NaN,-1.989931,-1.480466,0.2157862,14.11764,NaN,NaN,-0.1054104,0.8140458,-3.95459E-07,1.06561,-7.117547E-09,1.348719
841.2924,-0.01406634,0.0004070127,NaN,-0.8857686,0.0003745811,NaN,-1.571308,-14.60709,NaN,-1.982454,-1.469642,0.2063453,14.10613,NaN,NaN,-0.1061883,0.8141148,-4.054428E-07,1.049834,3.501066E-11,1.344249
841.3078,-0.01407113,0.0004069532,NaN,-0.8844873,0.0003750643,NaN,-1.571517,-14.60725,NaN,-1.974472,-1.467786,0.1956805,14.10418,NaN,NaN,-0.1070804,0.8138884,-4.039527E-07,1.047134,3.501066E-11,1.344452
841.3227,-0.01407631,0.0004068172,NaN,-0.8831696,0.0003755419,NaN,-1.571553,-14.60759,NaN,-1.966301,-1.466564,0.1850198,14.10292,NaN,NaN,-0.1079549,0.8135041,-4.168422E-07,1.045369,3.501066E-11,1.345783
841.3372,-0.01407631,0.0004068172,NaN,-0.8831696,0.0003755419,NaN,-1.571553,-14.60759,NaN,-1.966301,-1.466564,0.1850198,14.10292,NaN,NaN,-0.1079549,0.8135041,-4.168422E-07,1.045369,3.501066E-11,1.345783
841.3535,-0.01408181,0.000406967,NaN,-0.8818353,0.0003750554,NaN,-1.571422,-14.60759,NaN,-1.9581,-1.479109,0.1745906,14.11618,NaN,NaN,-0.1088123,0.8139184,-4.292846E-07,1.063617,-4.733361E-09,1.348423
841.3678,-0.01408755,0.0004069295,NaN,-0.8804967,0.0003755642,NaN,-1.571233,-14.60712,NaN,-1.949949,-1.468339,0.1644303,14.10471,NaN,NaN,-0.109653,0.8141455,-4.359156E-07,1.047915,-7.117547E-09,1.343619
841.3816,-0.01409366,0.0004068021,NaN,-0.8790922,0.000375996,NaN,-1.571448,-14.60731,NaN,-1.941304,-1.467175,0.1530159,14.10349,NaN,NaN,-0.1106067,0.8139004,-4.342765E-07,1.046225,-4.733361E-09,1.343793
841.3964,-0.01409366,0.0004068021,NaN,-0.8790922,0.000375996,NaN,-1.571448,-14.60731,NaN,-1.941304,-1.467175,0.1530159,14.10349,NaN,NaN,-0.1106067,0.8139004,-4.342765E-07,1.046225,-4.733361E-09,1.343793
841.4104,-0.01410014,0.0004067571,NaN,-0.8776532,0.0003763254,NaN,-1.571458,-14.60793,NaN,-1.932482,-1.468793,0.1416595,14.10528,NaN,NaN,-0.1115416,0.8133204,-4.439623E-07,1.048606,-4.733361E-09,1.347832
841.4259,-0.01410692,0.0004065825,NaN,-0.8761994,0.0003767076,NaN,-1.571307,-14.6075,NaN,-1.92364,-1.466828,0.130564,14.10313,NaN,NaN,-0.1124583,0.8136827,-4.507795E-07,1.045723,-4.733361E-09,1.344019
841.4406,-0.01411393,0.0004061218,NaN,-0.874743,0.0003769542,NaN,-1.571114,-14.6073,NaN,-1.914857,-1.466055,0.1197541,14.10228,NaN,NaN,-0.1133572,0.8138402,-4.521579E-07,1.044585,-4.733361E-09,1.341983
841.4555,-0.01411393,0.0004061218,NaN,-0.874743,0.0003769542,NaN,-1.571114,-14.6073,NaN,-1.914857,-1.466055,0.1197541,14.10228,NaN,NaN,-0.1133572,0.8138402,-4.521579E-07,1.044585,-4.733361E-09,1.341983
841.4694,-0.0141213,0.0004062533,NaN,-0.8732223,0.0003764971,NaN,-1.571298,-14.60798,NaN,-1.905592,-1.478981,0.1076767,14.11604,NaN,NaN,-0.1143678,0.8136085,-4.460484E-07,1.063429,-7.117547E-09,1.351266
841.485,-0.01412903,0.000406311,NaN,-0.8716686,0.0003773572,NaN,-1.57129,-14.60743,NaN,-1.896158,-1.467062,0.09571001,14.10336,NaN,NaN,-0.1153585,0.8138891,-4.488424E-07,1.04606,-7.117547E-09,1.343087
841.4999,-0.01412903,0.000406311,NaN,-0.8716686,0.0003773572,NaN,-1.57129,-14.60743,NaN,-1.896158,-1.467062,0.09571001,14.10336,NaN,NaN,-0.1153585,0.8138891,-4.488424E-07,1.04606,-7.117547E-09,1.343087
841.514,-0.01413706,0.0004064142,NaN,-0.8701015,0.0003777374,NaN,-1.571146,-14.60827,NaN,-1.886714,-1.469942,0.08401979,14.10652,NaN,NaN,-0.11633,0.8131378,-4.493267E-07,1.050289,-1.188592E-08,1.348773
841.5297,-0.01414297,0.0004063066,NaN,-0.8693648,0.0003781227,NaN,-1.567266,-14.60759,NaN,-1.884254,-1.467122,0.09119063,14.10344,NaN,NaN,-0.1157306,0.8137183,-4.940301E-07,1.046155,-1.665429E-08,1.34389
841.5444,-0.01414619,0.0004059042,NaN,-0.8691438,0.0003778682,NaN,-1.565148,-14.60806,NaN,-1.885179,-1.47128,0.09906259,14.10789,NaN,NaN,-0.1151432,0.8133788,-4.526049E-07,1.052226,-1.903848E-08,1.348037
841.5593,-0.01414619,0.0004059042,NaN,-0.8691438,0.0003778682,NaN,-1.565148,-14.60806,NaN,-1.885179,-1.47128,0.09906259,14.10789,NaN,NaN,-0.1151432,0.8133788,-4.526049E-07,1.052226,-1.903848E-08,1.348037
841.5732,-0.01414701,0.0004060754,NaN,-0.8692403,0.0003771343,NaN,-1.563982,-14.60813,NaN,-1.887778,-1.480295,0.106429,14.11742,NaN,NaN,-0.1145672,0.8135672,-4.28912E-07,1.065343,-2.142266E-08,1.351985
841.5906,-0.01414686,0.0004055628,NaN,-0.8695323,0.0003766229,NaN,-1.563214,-14.60791,NaN,-1.891195,-1.468831,0.1134783,14.10526,NaN,NaN,-0.1140024,0.8135419,-4.15203E-07,1.048647,-2.857522E-08,1.346709
841.6042,-0.01414641,0.0004054301,NaN,-0.8698744,0.0003762274,NaN,-1.562927,-14.60792,NaN,-1.894423,-1.474284,0.118768,14.11104,NaN,NaN,-0.1135781,0.8136926,-4.014194E-07,1.056589,-3.095941E-08,1.345906
841.6179,-0.01414641,0.0004054301,NaN,-0.8698744,0.0003762274,NaN,-1.562927,-14.60792,NaN,-1.894423,-1.474284,0.118768,14.11104,NaN,NaN,-0.1135781,0.8136926,-4.014194E-07,1.056589,-3.095941E-08,1.345906
841.6335,-0.01414584,0.0004054659,NaN,-0.8702459,0.0003756012,NaN,-1.562605,-14.60925,NaN,-1.897548,-1.477622,0.1238673,14.11474,NaN,NaN,-0.113162,0.8124411,-3.943786E-07,1.061502,-3.811196E-08,1.35627
841.6474,-0.01414521,0.0004061022,NaN,-0.8706338,0.0003755364,NaN,-1.562259,-14.60911,NaN,-1.900605,-1.479908,0.1288759,14.11713,NaN,NaN,-0.1127541,0.8126227,-3.875986E-07,1.064824,-3.572778E-08,1.355929
841.6622,-0.01414454,0.0004062757,NaN,-0.8710301,0.0003756916,NaN,-1.561906,-14.60774,NaN,-1.903609,-1.472997,0.1337919,14.10967,NaN,NaN,-0.1123542,0.813839,-3.80148E-07,1.054734,-4.288033E-08,1.347227
841.6771,-0.01414454,0.0004062757,NaN,-0.8710301,0.0003756916,NaN,-1.561906,-14.60774,NaN,-1.903609,-1.472997,0.1337919,14.10967,NaN,NaN,-0.1123542,0.813839,-3.80148E-07,1.054734,-4.288033E-08,1.347227
841.6911,-0.01414399,0.000406305,NaN,-0.8713605,0.0003762807,NaN,-1.561885,-14.60854,NaN,-1.905988,-1.467905,0.1370696,14.10438,NaN,NaN,-0.1120915,0.8128882,-3.690466E-07,1.047352,-4.76487E-08,1.350119
841.7066,-0.01414353,0.0004065524,NaN,-0.8716487,0.0003759338,NaN,-1.561758,-14.60922,NaN,-1.908049,-1.479638,0.1402183,14.11686,NaN,NaN,-0.111834,0.812582,-3.641292E-07,1.064442,-4.76487E-08,1.356016
841.7214,-0.01414312,0.0004062509,NaN,-0.8719097,0.0003756214,NaN,-1.561574,-14.60829,NaN,-1.909939,-1.471875,0.1433283,14.10855,NaN,NaN,-0.1115815,0.8133389,-3.581688E-07,1.053123,-4.76487E-08,1.348806
841.7365,-0.01414312,0.0004062509,NaN,-0.8719097,0.0003756214,NaN,-1.561574,-14.60829,NaN,-1.909939,-1.471875,0.1433283,14.10855,NaN,NaN,-0.1115815,0.8133389,-3.581688E-07,1.053123,-4.76487E-08,1.348806
841.7504,-0.01414288,0.0004057084,NaN,-0.8720832,0.0003756387,NaN,-1.561706,-14.60849,NaN,-1.911151,-1.467304,0.1448485,14.10373,NaN,NaN,-0.1114633,0.8129992,-3.487811E-07,1.046479,-4.049615E-08,1.346145
841.7661,-0.01414276,0.000404877,NaN,-0.8722021,0.0003755192,NaN,-1.561718,-14.60828,NaN,-1.912024,-1.466404,0.1462749,14.10275,NaN,NaN,-0.1113474,0.8131776,-3.452793E-07,1.045157,-4.288033E-08,1.346392
841.7804,-0.01414273,0.0004043819,NaN,-0.8722867,0.0003748822,NaN,-1.561663,-14.60971,NaN,-1.912725,-1.476352,0.1476993,14.11345,NaN,NaN,-0.1112338,0.8120912,-3.407344E-07,1.059694,-4.049615E-08,1.357925
841.7954,-0.01414273,0.0004043819,NaN,-0.8722867,0.0003748822,NaN,-1.561663,-14.60971,NaN,-1.912725,-1.476352,0.1476993,14.11345,NaN,NaN,-0.1112338,0.8120912,-3.407344E-07,1.059694,-4.049615E-08,1.357925
841.8093,-0.01414273,0.0004041831,NaN,-0.8723497,0.0003754851,NaN,-1.561582,-14.60844,NaN,-1.913334,-1.46721,0.1491095,14.10365,NaN,NaN,-0.1111225,0.8131353,-3.35519E-07,1.046361,-3.811196E-08,1.347674
841.825,-0.01414292,0.0004038487,NaN,-0.8723317,0.0003758168,NaN,-1.561832,-14.6086,NaN,-1.913311,-1.467029,0.1489586,14.10347,NaN,NaN,-0.1111426,0.8129559,-3.277704E-07,1.046103,-3.572777E-08,1.347964
841.8414,-0.01414323,0.0004037622,NaN,-0.8722637,0.0003754164,NaN,-1.561962,-14.6099,NaN,-1.912983,-1.477297,0.1487427,14.11449,NaN,NaN,-0.1111624,0.8120095,-3.257587E-07,1.061095,-3.572777E-08,1.358909
841.8551,-0.01414323,0.0004037622,NaN,-0.8722637,0.0003754164,NaN,-1.561962,-14.6099,NaN,-1.912983,-1.477297,0.1487427,14.11449,NaN,NaN,-0.1111624,0.8120095,-3.257587E-07,1.061095,-3.572777E-08,1.358909
841.8683,-0.01414361,0.0004041282,NaN,-0.8721651,0.0003752729,NaN,-1.562021,-14.60998,NaN,-1.912505,-1.477873,0.1485569,14.11509,NaN,NaN,-0.1111818,0.811926,-3.223315E-07,1.06193,-3.09594E-08,1.360125
841.8835,-0.01414403,0.0004045476,NaN,-0.8720481,0.0003754151,NaN,-1.56205,-14.60855,NaN,-1.911957,-1.476409,0.1483889,14.11337,NaN,NaN,-0.1112008,0.8133087,-3.183082E-07,1.059752,-2.619103E-08,1.347546
841.8982,-0.01414403,0.0004045476,NaN,-0.8720481,0.0003754151,NaN,-1.56205,-14.60855,NaN,-1.911957,-1.476409,0.1483889,14.11337,NaN,NaN,-0.1112008,0.8133087,-3.183082E-07,1.059752,-2.619103E-08,1.347546
841.9123,-0.01414463,0.0004046174,NaN,-0.8718509,0.0003759564,NaN,-1.562406,-14.60842,NaN,-1.910797,-1.46865,0.1466901,14.10514,NaN,NaN,-0.1113488,0.8132383,-3.112301E-07,1.048453,-2.380685E-08,1.349167
841.9277,-0.01414535,0.0004045683,NaN,-0.8716052,0.0003763838,NaN,-1.562635,-14.60905,NaN,-1.909349,-1.467842,0.1449592,14.10436,NaN,NaN,-0.1114939,0.8125834,-3.105596E-07,1.047302,-2.142266E-08,1.351783
841.9423,-0.01414614,0.0004049601,NaN,-0.8713305,0.00037621,NaN,-1.562789,-14.60993,NaN,-1.907769,-1.478454,0.143289,14.11567,NaN,NaN,-0.1116362,0.8120403,-3.083244E-07,1.062765,-1.903848E-08,1.359851
841.9569,-0.01414614,0.0004049601,NaN,-0.8713305,0.00037621,NaN,-1.562789,-14.60993,NaN,-1.907769,-1.478454,0.143289,14.11567,NaN,NaN,-0.1116362,0.8120403,-3.083244E-07,1.062765,-1.903848E-08,1.359851
841.9711,-0.01414712,0.0004050371,NaN,-0.87097,0.000376768,NaN,-1.563242,-14.60897,NaN,-1.905555,-1.46882,0.1401236,14.10539,NaN,NaN,-0.111905,0.8127831,-3.030345E-07,1.048732,-1.665429E-08,1.352091
841.9866,-0.01414823,0.0004052475,NaN,-0.870558,0.0003771326,NaN,-1.563556,-14.60984,NaN,-1.90305,-1.471676,0.1369629,14.10852,NaN,NaN,-0.1121686,0.8120048,-3.025874E-07,1.052921,-1.427011E-08,1.357768
842.0012,-0.01414943,0.0004051242,NaN,-0.8701161,0.0003771848,NaN,-1.563787,-14.60912,NaN,-1.900418,-1.470475,0.1338931,14.10715,NaN,NaN,-0.112427,0.8126845,-3.005013E-07,1.051144,-9.501734E-09,1.352262
842.0163,-0.01414943,0.0004051242,NaN,-0.8701161,0.0003771848,NaN,-1.563787,-14.60912,NaN,-1.900418,-1.470475,0.1338931,14.10715,NaN,NaN,-0.112427,0.8126845,-3.005013E-07,1.051144,-9.501734E-09,1.352262
842.0302,-0.01415069,0.0004055057,NaN,-0.8696577,0.0003767743,NaN,-1.563978,-14.60871,NaN,-1.897743,-1.479574,0.1308987,14.1167,NaN,NaN,-0.1126803,0.8133608,-2.978191E-07,1.064352,-1.188592E-08,1.354025
842.0459,-0.01415224,0.0004064269,NaN,-0.8691219,0.0003765894,NaN,-1.564471,-14.60943,NaN,-1.894486,-1.481719,0.1264226,14.11904,NaN,NaN,-0.1130581,0.8126745,-2.927527E-07,1.067493,-2.142266E-08,1.35668
842.0607,-0.01415414,0.0004070401,NaN,-0.8685407,0.0003768551,NaN,-1.564826,-14.60857,NaN,-1.89097,-1.476424,0.1219824,14.11334,NaN,NaN,-0.1134284,0.8134111,-2.925664E-07,1.059763,-2.142266E-08,1.350324
842.0751,-0.01415414,0.0004070401,NaN,-0.8685407,0.0003768551,NaN,-1.564826,-14.60857,NaN,-1.89097,-1.476424,0.1219824,14.11334,NaN,NaN,-0.1134284,0.8134111,-2.925664E-07,1.059763,-2.142266E-08,1.350324
842.0927,-0.01415634,0.00040708,NaN,-0.8679341,0.0003770028,NaN,-1.5651,-14.60835,NaN,-1.887352,-1.471574,0.1176568,14.10817,NaN,NaN,-0.1137915,0.813496,-2.902195E-07,1.052693,-2.380685E-08,1.347578
842.1054,-0.01415876,0.0004069172,NaN,-0.8673145,0.0003773849,NaN,-1.565332,-14.60904,NaN,-1.883709,-1.467729,0.1134308,14.10418,NaN,NaN,-0.1141476,0.8126926,-2.874628E-07,1.047123,-2.142266E-08,1.349934
842.1195,-0.01415876,0.0004069172,NaN,-0.8673145,0.0003773849,NaN,-1.565332,-14.60904,NaN,-1.883709,-1.467729,0.1134308,14.10418,NaN,NaN,-0.1141476,0.8126926,-2.874628E-07,1.047123,-2.142266E-08,1.349934
842.1334,-0.01416158,0.0004073581,NaN,-0.8666204,0.0003771176,NaN,-1.565846,-14.60894,NaN,-1.879502,-1.479674,0.1077406,14.11677,NaN,NaN,-0.114626,0.8131787,-2.820983E-07,1.064476,-2.142266E-08,1.353594
842.1486,-0.01416478,0.0004073796,NaN,-0.8658833,0.0003776316,NaN,-1.566222,-14.60892,NaN,-1.875052,-1.468307,0.1021211,14.10474,NaN,NaN,-0.115095,0.8129559,-2.810925E-07,1.047934,-1.665429E-08,1.34979
842.1635,-0.01416829,0.0004072078,NaN,-0.865123,0.0003778899,NaN,-1.566516,-14.60914,NaN,-1.870514,-1.468631,0.09663916,14.1051,NaN,NaN,-0.1155548,0.8127446,-2.784848E-07,1.04841,-2.142266E-08,1.348337
842.1782,-0.01416829,0.0004072078,NaN,-0.865123,0.0003778899,NaN,-1.566516,-14.60914,NaN,-1.870514,-1.468631,0.09663916,14.1051,NaN,NaN,-0.1155548,0.8127446,-2.784848E-07,1.04841,-2.142266E-08,1.348337
842.1926,-0.01417226,0.0004067075,NaN,-0.8642825,0.0003776114,NaN,-1.567057,-14.60881,NaN,-1.865389,-1.470901,0.08972006,14.10744,NaN,NaN,-0.1161351,0.8131412,-2.738282E-07,1.051689,-1.188592E-08,1.350718
842.2075,-0.01417665,0.0004063309,NaN,-0.8633963,0.0003779346,NaN,-1.567452,-14.60903,NaN,-1.860015,-1.467598,0.08290856,14.10397,NaN,NaN,-0.1167039,0.8128089,-2.722263E-07,1.046891,-9.501733E-09,1.350992
842.2224,-0.01418138,0.0004064245,NaN,-0.8624859,0.0003776686,NaN,-1.56776,-14.61001,NaN,-1.854557,-1.47769,0.07625896,14.11475,NaN,NaN,-0.1172617,0.8121675,-2.681844E-07,1.061606,-1.188592E-08,1.357325
842.2372,-0.01418138,0.0004064245,NaN,-0.8624859,0.0003776686,NaN,-1.56776,-14.61001,NaN,-1.854557,-1.47769,0.07625896,14.11475,NaN,NaN,-0.1172617,0.8121675,-2.681844E-07,1.061606,-1.188592E-08,1.357325
842.2513,-0.01418637,0.0004063122,NaN,-0.8615645,0.000378116,NaN,-1.568021,-14.60921,NaN,-1.849097,-1.467819,0.06975449,14.10424,NaN,NaN,-0.1178085,0.8127386,-2.644219E-07,1.04723,-1.188592E-08,1.349818
842.2668,-0.01419177,0.0004065895,NaN,-0.8605712,0.0003782568,NaN,-1.56852,-14.61046,NaN,-1.843099,-1.474491,0.06182018,14.11144,NaN,NaN,-0.118474,0.8117138,-2.557606E-07,1.056986,-1.42701E-08,1.359365
842.2816,-0.01419755,0.0004070415,NaN,-0.859538,0.0003778481,NaN,-1.56888,-14.60963,NaN,-1.836884,-1.481202,0.0540241,14.1184,NaN,NaN,-0.1191264,0.8127031,-2.514392E-07,1.0667,-7.117546E-09,1.356949
842.2964,-0.01419755,0.0004070415,NaN,-0.859538,0.0003778481,NaN,-1.56888,-14.60963,NaN,-1.836884,-1.481202,0.0540241,14.1184,NaN,NaN,-0.1191264,0.8127031,-2.514392E-07,1.0667,-7.117546E-09,1.356949
842.3105,-0.01420363,0.0004073636,NaN,-0.8584847,0.0003778016,NaN,-1.56916,-14.60908,NaN,-1.830606,-1.476892,0.0464069,14.11378,NaN,NaN,-0.1197661,0.8131678,-2.448641E-07,1.060411,-7.117546E-09,1.352776
842.3259,-0.01420994,0.0004077315,NaN,-0.8574237,0.0003785827,NaN,-1.569393,-14.60889,NaN,-1.824343,-1.470624,0.03895286,14.10712,NaN,NaN,-0.1203932,0.8132132,-2.383821E-07,1.05128,-4.73336E-09,1.351773
842.3417,-0.01421664,0.0004078282,NaN,-0.8562935,0.0003792026,NaN,-1.569836,-14.60914,NaN,-1.817557,-1.4681,0.0300836,14.10447,NaN,NaN,-0.1211375,0.8128888,-2.288535E-07,1.047614,-2.349175E-09,1.351553
842.3566,-0.01421664,0.0004078282,NaN,-0.8562935,0.0003792026,NaN,-1.569836,-14.60914,NaN,-1.817557,-1.4681,0.0300836,14.10447,NaN,NaN,-0.1211375,0.8128888,-2.288535E-07,1.047614,-2.349175E-09,1.351553
842.3703,-0.0142237,0.0004076776,NaN,-0.8551255,0.0003795557,NaN,-1.570146,-14.60945,NaN,-1.810566,-1.467499,0.02138378,14.10387,NaN,NaN,-0.1218672,0.8125547,-2.216078E-07,1.046751,-4.73336E-09,1.34944
842.3847,-0.01423106,0.0004079881,NaN,-0.8539396,0.0003792049,NaN,-1.57038,-14.60927,NaN,-1.803524,-1.478945,0.01287897,14.11591,NaN,NaN,-0.1225826,0.8131149,-2.129279E-07,1.063375,-4.73336E-09,1.354518
842.3995,-0.01423106,0.0004079881,NaN,-0.8539396,0.0003792049,NaN,-1.57038,-14.60927,NaN,-1.803524,-1.478945,0.01287897,14.11591,NaN,NaN,-0.1225826,0.8131149,-2.129279E-07,1.063375,-4.73336E-09,1.354518
842.4137,-0.01423885,0.000408304,NaN,-0.8526785,0.0003800787,NaN,-1.570726,-14.61012,NaN,-1.795934,-1.469166,0.002951303,14.10566,NaN,NaN,-0.1234133,0.8120428,-2.04844E-07,1.049169,-4.73336E-09,1.359472
842.4291,-0.01424705,0.0004084808,NaN,-0.8513766,0.0003803811,NaN,-1.570786,-14.60996,NaN,-1.788133,-1.471591,-0.006839744,14.10819,NaN,NaN,-0.1242279,0.8122696,-2.015285E-07,1.052682,-4.73336E-09,1.353261
842.4438,-0.01425557,0.0004085091,NaN,-0.8500554,0.0003809124,NaN,-1.570675,-14.60923,NaN,-1.780284,-1.46805,-0.01639868,14.10435,NaN,NaN,-0.1250265,0.8128806,-1.980267E-07,1.047502,-7.117546E-09,1.351644
842.4586,-0.01425557,0.0004085091,NaN,-0.8500554,0.0003809124,NaN,-1.570675,-14.60923,NaN,-1.780284,-1.46805,-0.01639868,14.10435,NaN,NaN,-0.1250265,0.8128806,-1.980267E-07,1.047502,-7.117546E-09,1.351644
842.4727,-0.01426432,0.0004086676,NaN,-0.8487282,0.0003803805,NaN,-1.570523,-14.60971,NaN,-1.772469,-1.479856,-0.0257165,14.11687,NaN,NaN,-0.1258094,0.8127857,-1.912839E-07,1.064689,-4.73336E-09,1.353652
842.4885,-0.01427282,0.0004087839,NaN,-0.8474036,0.0003806237,NaN,-1.570408,-14.60908,NaN,-1.764726,-1.472585,-0.03481168,14.10911,NaN,NaN,-0.126576,0.8132327,-1.799218E-07,1.054089,-7.117546E-09,1.352183
842.5034,-0.01428118,0.0004087938,NaN,-0.8460866,0.0003807158,NaN,-1.570348,-14.60983,NaN,-1.757073,-1.472314,-0.04370843,14.10891,NaN,NaN,-0.1273277,0.8124626,-1.662872E-07,1.05372,-4.73336E-09,1.351763
842.5179,-0.01428118,0.0004087938,NaN,-0.8460866,0.0003807158,NaN,-1.570348,-14.60983,NaN,-1.757073,-1.472314,-0.04370843,14.10891,NaN,NaN,-0.1273277,0.8124626,-1.662872E-07,1.05372,-4.73336E-09,1.351763
842.532,-0.01428947,0.0004092924,NaN,-0.8447801,0.0003804132,NaN,-1.570328,-14.6095,NaN,-1.74952,-1.480534,-0.0524241,14.11753,NaN,NaN,-0.1280645,0.8129985,-1.531742E-07,1.065651,2.419197E-09,1.355708
842.5494,-0.0142977,0.0004094507,NaN,-0.843486,0.0003801929,NaN,-1.570324,-14.60989,NaN,-1.742071,-1.474912,-0.06096735,14.11162,NaN,NaN,-0.128787,0.8124809,-1.403592E-07,1.057481,4.803383E-09,1.353325
842.5624,-0.01430571,0.0004100605,NaN,-0.8422746,0.0003797336,NaN,-1.570173,-14.61002,NaN,-1.735299,-1.48224,-0.06777921,14.11936,NaN,NaN,-0.1293659,0.8125131,-1.323126E-07,1.068133,2.419197E-09,1.355623
842.5769,-0.01430571,0.0004100605,NaN,-0.8422746,0.0003797336,NaN,-1.570173,-14.61002,NaN,-1.735299,-1.48224,-0.06777921,14.11936,NaN,NaN,-0.1293659,0.8125131,-1.323126E-07,1.068133,2.419197E-09,1.355623
842.5931,-0.01431346,0.0004103721,NaN,-0.8411196,0.0003799314,NaN,-1.570126,-14.61072,NaN,-1.728907,-1.473945,-0.0744446,14.11066,NaN,NaN,-0.1299335,0.8116575,-1.213602E-07,1.056084,4.803383E-09,1.354981
842.6064,-0.01432098,0.0004106397,NaN,-0.8400047,0.0003793631,NaN,-1.570111,-14.60997,NaN,-1.722748,-1.481101,-0.08098848,14.1181,NaN,NaN,-0.13049,0.8125883,-1.110039E-07,1.066443,3.501111E-11,1.353385
842.621,-0.01432831,0.0004107157,NaN,-0.8389195,0.000379195,NaN,-1.570104,-14.60913,NaN,-1.716751,-1.474652,-0.08740561,14.11118,NaN,NaN,-0.1310355,0.8132903,-1.002751E-07,1.057035,2.419197E-09,1.347481
842.6359,-0.01432831,0.0004107157,NaN,-0.8389195,0.000379195,NaN,-1.570104,-14.60913,NaN,-1.716751,-1.474652,-0.08740561,14.11118,NaN,NaN,-0.1310355,0.8132903,-1.002751E-07,1.057035,2.419197E-09,1.347481
842.6499,-0.0143353,0.0004106666,NaN,-0.8379267,0.0003796573,NaN,-1.569978,-14.6094,NaN,-1.711451,-1.467996,-0.09213983,14.10417,NaN,NaN,-0.1314411,0.8128476,-9.595377E-08,1.047355,9.571754E-09,1.346346
842.6654,-0.01434194,0.0004110712,NaN,-0.8369955,0.0003793866,NaN,-1.569905,-14.60931,NaN,-1.706529,-1.479246,-0.09678674,14.11602,NaN,NaN,-0.1318387,0.8133108,-8.932275E-08,1.063703,9.571754E-09,1.350006
842.6801,-0.01434829,0.0004110247,NaN,-0.8361064,0.0003796523,NaN,-1.569854,-14.60908,NaN,-1.701831,-1.46938,-0.1013472,14.10555,NaN,NaN,-0.1322286,0.8133153,-8.246821E-08,1.049334,2.419197E-09,1.344772
842.695,-0.01434829,0.0004110247,NaN,-0.8361064,0.0003796523,NaN,-1.569854,-14.60908,NaN,-1.701831,-1.46938,-0.1013472,14.10555,NaN,NaN,-0.1322286,0.8133153,-8.246821E-08,1.049334,2.419197E-09,1.344772
842.7091,-0.01435421,0.0004111344,NaN,-0.8353165,0.0003800674,NaN,-1.569708,-14.60978,NaN,-1.697851,-1.47037,-0.1042677,14.10668,NaN,NaN,-0.1324815,0.8126401,-8.217019E-08,1.050801,2.419197E-09,1.350382
842.7249,-0.01435971,0.0004117179,NaN,-0.8345914,0.0003798791,NaN,-1.569612,-14.60989,NaN,-1.694252,-1.480357,-0.1071369,14.11723,NaN,NaN,-0.1327294,0.812829,-8.023304E-08,1.065318,3.501111E-11,1.352405
842.7392,-0.01435971,0.0004117179,NaN,-0.8345914,0.0003798791,NaN,-1.569612,-14.60989,NaN,-1.694252,-1.480357,-0.1071369,14.11723,NaN,NaN,-0.1327294,0.812829,-8.023304E-08,1.065318,3.501111E-11,1.352405
842.7534,-0.01436486,0.0004123679,NaN,-0.8339096,0.0003795224,NaN,-1.569538,-14.61009,NaN,-1.690868,-1.481975,-0.109954,14.11895,NaN,NaN,-0.1329725,0.8126578,-7.702928E-08,1.067673,-7.117546E-09,1.353616
842.7688,-0.01436975,0.0004126391,NaN,-0.8332576,0.0003796629,NaN,-1.569473,-14.60884,NaN,-1.687616,-1.47445,-0.112717,14.11085,NaN,NaN,-0.1332109,0.8137626,-7.360202E-08,1.056691,-4.73336E-09,1.344893
842.7838,-0.01437424,0.0004131167,NaN,-0.832696,0.000379673,NaN,-1.569322,-14.61033,NaN,-1.685028,-1.477812,-0.1138789,14.11458,NaN,NaN,-0.1333153,0.8123623,-7.762533E-08,1.061638,-1.188592E-08,1.354034
842.7986,-0.01437424,0.0004131167,NaN,-0.832696,0.000379673,NaN,-1.569322,-14.61033,NaN,-1.685028,-1.477812,-0.1138789,14.11458,NaN,NaN,-0.1333153,0.8123623,-7.762533E-08,1.061638,-1.188592E-08,1.354034
842.8126,-0.01437834,0.0004130951,NaN,-0.8321929,0.0003799671,NaN,-1.569214,-14.60899,NaN,-1.682781,-1.469742,-0.1150224,14.1059,NaN,NaN,-0.1334176,0.8135124,-7.904094E-08,1.049859,-1.903848E-08,1.344758
842.83,-0.01438211,0.000413057,NaN,-0.8317281,0.0003803582,NaN,-1.569124,-14.60978,NaN,-1.680721,-1.469008,-0.1161467,14.10522,NaN,NaN,-0.133518,0.8127103,-7.956248E-08,1.048823,-1.188592E-08,1.348355
842.8435,-0.01438564,0.0004129176,NaN,-0.831289,0.000380475,NaN,-1.569042,-14.60974,NaN,-1.678769,-1.471018,-0.11725,14.10733,NaN,NaN,-0.1336163,0.8128142,-7.926445E-08,1.051739,-1.42701E-08,1.34815
842.8574,-0.01438564,0.0004129176,NaN,-0.831289,0.000380475,NaN,-1.569042,-14.60974,NaN,-1.678769,-1.471018,-0.11725,14.10733,NaN,NaN,-0.1336163,0.8128142,-7.926445E-08,1.051739,-1.42701E-08,1.34815
842.8713,-0.01438878,0.000412457,NaN,-0.830937,0.0003805748,NaN,-1.568885,-14.60908,NaN,-1.677459,-1.468053,-0.1167876,14.1041,NaN,NaN,-0.1335835,0.8133882,-8.693855E-08,1.047397,-1.42701E-08,1.344108
842.8866,-0.01439155,0.0004124734,NaN,-0.8306404,0.0003807841,NaN,-1.568766,-14.61012,NaN,-1.676471,-1.471784,-0.1163377,14.10818,NaN,NaN,-0.1335513,0.8124752,-9.222846E-08,1.052871,-7.117546E-09,1.351385
842.9014,-0.014394,0.0004120601,NaN,-0.8303793,0.0003808712,NaN,-1.568663,-14.60893,NaN,-1.67565,-1.467735,-0.1158993,14.10375,NaN,NaN,-0.1335198,0.813544,-9.610277E-08,1.046932,-7.117546E-09,1.343652
842.9163,-0.014394,0.0004120601,NaN,-0.8303793,0.0003808712,NaN,-1.568663,-14.60893,NaN,-1.67565,-1.467735,-0.1158993,14.10375,NaN,NaN,-0.1335198,0.813544,-9.610277E-08,1.046932,-7.117546E-09,1.343652
842.9305,-0.01439601,0.0004118837,NaN,-0.8302106,0.0003801951,NaN,-1.568491,-14.61003,NaN,-1.675492,-1.478711,-0.1139266,14.1155,NaN,NaN,-0.1333596,0.8128083,-1.071296E-07,1.062956,-9.501732E-09,1.351562
842.946,-0.01439761,0.0004112266,NaN,-0.8300996,0.0003798154,NaN,-1.568356,-14.60938,NaN,-1.675658,-1.468362,-0.1119957,14.10448,NaN,NaN,-0.1332025,0.8132203,-1.155488E-07,1.047879,-7.117546E-09,1.346497
842.9608,-0.01439886,0.0004114617,NaN,-0.8300247,0.0003798093,NaN,-1.568236,-14.60858,NaN,-1.675984,-1.474676,-0.1101048,14.11105,NaN,NaN,-0.1330485,0.8142074,-1.225523E-07,1.057027,-4.73336E-09,1.339282
842.9755,-0.01439886,0.0004114617,NaN,-0.8300247,0.0003798093,NaN,-1.568236,-14.60858,NaN,-1.675984,-1.474676,-0.1101048,14.11105,NaN,NaN,-0.1330485,0.8142074,-1.225523E-07,1.057027,-4.73336E-09,1.339282
842.9896,-0.01439988,0.0004113858,NaN,-0.8299725,0.0003801631,NaN,-1.568124,-14.60901,NaN,-1.676389,-1.468033,-0.1082516,14.10406,NaN,NaN,-0.1328976,0.8135959,-1.281403E-07,1.047371,-4.73336E-09,1.343885
843.0063,-0.01440068,0.0004113801,NaN,-0.8300022,0.0003803604,NaN,-1.567939,-14.60996,NaN,-1.677404,-1.471029,-0.1048902,14.10736,NaN,NaN,-0.1326203,0.8127437,-1.418493E-07,1.051776,3.501111E-11,1.349641
843.0198,-0.01440068,0.0004113801,NaN,-0.8300022,0.0003803604,NaN,-1.567939,-14.60996,NaN,-1.677404,-1.471029,-0.1048902,14.10736,NaN,NaN,-0.1326203,0.8127437,-1.418493E-07,1.051776,3.501111E-11,1.349641
843.0341,-0.01440131,0.0004119404,NaN,-0.8300824,0.0003800857,NaN,-1.567786,-14.60889,NaN,-1.678708,-1.480673,-0.1015969,14.11739,NaN,NaN,-0.1323484,0.8140907,-1.515351E-07,1.065752,2.419197E-09,1.346462
843.0494,-0.01440186,0.0004120071,NaN,-0.8301933,0.0003805608,NaN,-1.567648,-14.60878,NaN,-1.680146,-1.46931,-0.09836984,14.10534,NaN,NaN,-0.1320819,0.8139653,-1.596562E-07,1.0492,-4.73336E-09,1.342707
843.064,-0.01440236,0.0004122502,NaN,-0.8303227,0.000380158,NaN,-1.567516,-14.6087,NaN,-1.681642,-1.479627,-0.09520634,14.11625,NaN,NaN,-0.1318206,0.8143758,-1.670323E-07,1.064214,-7.117546E-09,1.344118
843.0799,-0.01440236,0.0004122502,NaN,-0.8303227,0.000380158,NaN,-1.567516,-14.6087,NaN,-1.681642,-1.479627,-0.09520634,14.11625,NaN,NaN,-0.1318206,0.8143758,-1.670323E-07,1.064214,-7.117546E-09,1.344118
843.094,-0.0144027,0.000412142,NaN,-0.8305322,0.0003803013,NaN,-1.567304,-14.60842,NaN,-1.683728,-1.469887,-0.09055724,14.10589,NaN,NaN,-0.1314351,0.8144389,-1.818589E-07,1.050014,-2.349175E-09,1.339859
843.1082,-0.01440292,0.0004117758,NaN,-0.8307902,0.0003804626,NaN,-1.567126,-14.6086,NaN,-1.686086,-1.468352,-0.08600132,14.10427,NaN,NaN,-0.1310572,0.8142071,-1.927368E-07,1.047781,2.419197E-09,1.338952
843.1229,-0.01440306,0.000411656,NaN,-0.831077,0.0003803024,NaN,-1.566961,-14.60997,NaN,-1.688562,-1.474638,-0.08153618,14.11111,NaN,NaN,-0.1306867,0.8130422,-2.021245E-07,1.056996,-7.117546E-09,1.348463
843.1379,-0.01440306,0.000411656,NaN,-0.831077,0.0003803024,NaN,-1.566961,-14.60997,NaN,-1.688562,-1.474638,-0.08153618,14.11111,NaN,NaN,-0.1306867,0.8130422,-2.021245E-07,1.056996,-7.117546E-09,1.348463
843.1517,-0.01440303,0.0004119399,NaN,-0.8314496,0.0003796036,NaN,-1.566712,-14.60915,NaN,-1.691653,-1.48206,-0.07560802,14.11884,NaN,NaN,-0.1301941,0.8140538,-2.174727E-07,1.067759,-9.501732E-09,1.346809
843.1671,-0.01440287,0.0004119345,NaN,-0.8318734,0.0003798392,NaN,-1.566497,-14.6078,NaN,-1.695019,-1.469967,-0.06979793,14.10588,NaN,NaN,-0.1297113,0.81517,-2.288348E-07,1.050107,-7.117546E-09,1.336086
843.1817,-0.01440262,0.000411975,NaN,-0.8323269,0.0003791327,NaN,-1.566297,-14.60921,NaN,-1.698499,-1.480782,-0.06410304,14.11753,NaN,NaN,-0.1292378,0.8140997,-2.376638E-07,1.065928,-4.73336E-09,1.343552
843.1966,-0.01440262,0.000411975,NaN,-0.8323269,0.0003791327,NaN,-1.566297,-14.60921,NaN,-1.698499,-1.480782,-0.06410304,14.11753,NaN,NaN,-0.1292378,0.8140997,-2.376638E-07,1.065928,-4.73336E-09,1.343552
843.2107,-0.01440231,0.0004124722,NaN,-0.8327968,0.0003784232,NaN,-1.566103,-14.6085,NaN,-1.70201,-1.482612,-0.05851933,14.11938,NaN,NaN,-0.1287737,0.8148449,-2.457104E-07,1.068568,-2.349175E-09,1.341092
843.2263,-0.01440185,0.0004126,NaN,-0.8333439,0.0003782512,NaN,-1.565806,-14.60799,NaN,-1.706086,-1.473752,-0.05148803,14.10991,NaN,NaN,-0.1281893,0.8151946,-2.593077E-07,1.055634,-7.117546E-09,1.335202
843.241,-0.01440126,0.0004126613,NaN,-0.8339363,0.000378208,NaN,-1.565547,-14.6094,NaN,-1.710406,-1.473395,-0.04459622,14.1097,NaN,NaN,-0.1276164,0.8137864,-2.69068E-07,1.055165,-7.117546E-09,1.340921
843.2557,-0.01440126,0.0004126613,NaN,-0.8339363,0.000378208,NaN,-1.565547,-14.6094,NaN,-1.710406,-1.473395,-0.04459622,14.1097,NaN,NaN,-0.1276164,0.8137864,-2.69068E-07,1.055165,-7.117546E-09,1.340921
843.2697,-0.01440059,0.0004130541,NaN,-0.8345539,0.0003782241,NaN,-1.565302,-14.60977,NaN,-1.714816,-1.476884,-0.03784106,14.11343,NaN,NaN,-0.1270548,0.8135229,-2.770028E-07,1.060253,-7.117546E-09,1.348312
843.2853,-0.01439987,0.0004135462,NaN,-0.8351843,0.0003777282,NaN,-1.565065,-14.60858,NaN,-1.719239,-1.482189,-0.03121769,14.11889,NaN,NaN,-0.1265041,0.814832,-2.836711E-07,1.067928,-2.349175E-09,1.340897
843.3,-0.01439899,0.0004136039,NaN,-0.8358891,0.0003776288,NaN,-1.564705,-14.60788,NaN,-1.724212,-1.473137,-0.02316047,14.1092,NaN,NaN,-0.1258349,0.8153653,-2.920903E-07,1.05471,3.501111E-11,1.334335
843.3148,-0.01439899,0.0004136039,NaN,-0.8358891,0.0003776288,NaN,-1.564705,-14.60788,NaN,-1.724212,-1.473137,-0.02316047,14.1092,NaN,NaN,-0.1258349,0.8153653,-2.920903E-07,1.05471,3.501111E-11,1.334335
843.3307,-0.01439798,0.0004133803,NaN,-0.8366367,0.0003779111,NaN,-1.564388,-14.60885,NaN,-1.729414,-1.468012,-0.0152626,14.10387,NaN,NaN,-0.1251789,0.8142697,-2.993546E-07,1.047271,-2.349175E-09,1.336081
843.3452,-0.0143969,0.0004127813,NaN,-0.8374072,0.0003779212,NaN,-1.564089,-14.6087,NaN,-1.734693,-1.4675,-0.007521916,14.1033,NaN,NaN,-0.1245357,0.8144057,-3.053337E-07,1.046514,-2.349175E-09,1.335312
843.3588,-0.0143969,0.0004127813,NaN,-0.8374072,0.0003779212,NaN,-1.564089,-14.6087,NaN,-1.734693,-1.4675,-0.007521916,14.1033,NaN,NaN,-0.1245357,0.8144057,-3.053337E-07,1.046514,-2.349175E-09,1.335312
843.3729,-0.01439564,0.0004127337,NaN,-0.8382578,0.0003772688,NaN,-1.563655,-14.60943,NaN,-1.740546,-1.479728,0.001634846,14.11634,NaN,NaN,-0.1237758,0.8140994,-3.139298E-07,1.064353,-2.349175E-09,1.344151
843.3882,-0.01439409,0.0004124693,NaN,-0.839154,0.0003774969,NaN,-1.563271,-14.60887,NaN,-1.746636,-1.468088,0.01061119,14.10394,NaN,NaN,-0.1230308,0.814407,-3.183839E-07,1.047378,-7.117546E-09,1.336808
843.4031,-0.01439226,0.0004125948,NaN,-0.8400743,0.0003771022,NaN,-1.562907,-14.6101,NaN,-1.7528,-1.478915,0.01940835,14.11556,NaN,NaN,-0.1223004,0.8135309,-3.21257E-07,1.063196,-7.117546E-09,1.347464
843.418,-0.01439226,0.0004125948,NaN,-0.8400743,0.0003771022,NaN,-1.562907,-14.6101,NaN,-1.7528,-1.478915,0.01940835,14.11556,NaN,NaN,-0.1223004,0.8135309,-3.21257E-07,1.063196,-7.117546E-09,1.347464
843.4319,-0.0143902,0.000412442,NaN,-0.8410053,0.0003773014,NaN,-1.56255,-14.60879,NaN,-1.758957,-1.469559,0.02803354,14.1055,NaN,NaN,-0.1215844,0.8146232,-3.22328E-07,1.04953,-7.117546E-09,1.336608
843.4475,-0.01438991,0.0004124051,NaN,-0.8411074,0.0003777099,NaN,-1.564229,-14.60954,NaN,-1.758177,-1.469102,0.01760923,14.1051,NaN,NaN,-0.1224339,0.8138651,-2.984303E-07,1.048892,-9.501732E-09,1.340954
843.4639,-0.01439093,0.0004130976,NaN,-0.8406991,0.0003774718,NaN,-1.565097,-14.60908,NaN,-1.754037,-1.480968,0.007453299,14.11759,NaN,NaN,-0.1232668,0.814701,-2.848329E-07,1.066136,-1.42701E-08,1.339763
843.4772,-0.01439093,0.0004130976,NaN,-0.8406991,0.0003774718,NaN,-1.565097,-14.60908,NaN,-1.754037,-1.480968,0.007453299,14.11759,NaN,NaN,-0.1232668,0.814701,-2.848329E-07,1.066136,-1.42701E-08,1.339763
843.4913,-0.01439304,0.0004130622,NaN,-0.8399776,0.0003774952,NaN,-1.565578,-14.60886,NaN,-1.748265,-1.46991,-0.002371679,14.10583,NaN,NaN,-0.1240833,0.8146893,-2.692612E-07,1.05001,-1.903847E-08,1.338601
843.5065,-0.01439637,0.0004132825,NaN,-0.839066,0.0003767521,NaN,-1.565877,-14.60938,NaN,-1.741721,-1.481562,-0.01194224,14.11823,NaN,NaN,-0.1248838,0.8145336,-2.539875E-07,1.067003,-1.903847E-08,1.341846
843.5214,-0.01440056,0.0004133104,NaN,-0.8381105,0.0003771373,NaN,-1.565935,-14.60959,NaN,-1.735407,-1.469953,-0.019727,14.10594,NaN,NaN,-0.1255393,0.814095,-2.426254E-07,1.050087,-1.903847E-08,1.341325
843.5361,-0.01440056,0.0004133104,NaN,-0.8381105,0.0003771373,NaN,-1.565935,-14.60959,NaN,-1.735407,-1.469953,-0.019727,14.10594,NaN,NaN,-0.1255393,0.814095,-2.426254E-07,1.050087,-1.903847E-08,1.341325
843.55,-0.01440535,0.0004135672,NaN,-0.8371322,0.0003766482,NaN,-1.566018,-14.60929,NaN,-1.729242,-1.480915,-0.02735362,14.11749,NaN,NaN,-0.1261819,0.8147352,-2.314123E-07,1.066028,-1.665429E-08,1.34282
843.5656,-0.01441055,0.0004135247,NaN,-0.8361441,0.0003769497,NaN,-1.566104,-14.60892,NaN,-1.72319,-1.470096,-0.0348317,14.10596,NaN,NaN,-0.1268119,0.8148749,-2.203482E-07,1.050242,-1.903847E-08,1.337608
843.5812,-0.01441602,0.0004138355,NaN,-0.8351545,0.0003765226,NaN,-1.566185,-14.60891,NaN,-1.717235,-1.480593,-0.04216119,14.11708,NaN,NaN,-0.1274295,0.8151969,-2.086135E-07,1.065531,-1.665429E-08,1.340765
843.5952,-0.01441602,0.0004138355,NaN,-0.8351545,0.0003765226,NaN,-1.566185,-14.60891,NaN,-1.717235,-1.480593,-0.04216119,14.11708,NaN,NaN,-0.1274295,0.8151969,-2.086135E-07,1.065531,-1.665429E-08,1.340765
843.6094,-0.0144215,0.0004139216,NaN,-0.8342376,0.0003770979,NaN,-1.566134,-14.60927,NaN,-1.711943,-1.469584,-0.04778311,14.10542,NaN,NaN,-0.1279058,0.8145983,-2.030256E-07,1.049483,-1.188592E-08,1.339115
843.6245,-0.01442687,0.0004138501,NaN,-0.8333697,0.0003765156,NaN,-1.566136,-14.60973,NaN,-1.707012,-1.479785,-0.05330164,14.11628,NaN,NaN,-0.1283726,0.8144529,-1.96022E-07,1.064358,-1.665429E-08,1.34344
843.6392,-0.01442687,0.0004138501,NaN,-0.8333697,0.0003765156,NaN,-1.566136,-14.60973,NaN,-1.707012,-1.479785,-0.05330164,14.11628,NaN,NaN,-0.1283726,0.8144529,-1.96022E-07,1.064358,-1.665429E-08,1.34344
843.6535,-0.01443211,0.0004131433,NaN,-0.8325359,0.0003760349,NaN,-1.566156,-14.60964,NaN,-1.702294,-1.469671,-0.05871687,14.10554,NaN,NaN,-0.1288304,0.8143107,-1.878264E-07,1.049616,-1.42701E-08,1.341174
843.669,-0.01443705,0.0004125574,NaN,-0.8317962,0.0003755101,NaN,-1.566075,-14.60949,NaN,-1.69829,-1.473405,-0.06247064,14.10947,NaN,NaN,-0.1291498,0.8145566,-1.859637E-07,1.055049,-1.188592E-08,1.341152
843.6837,-0.01444166,0.0004126616,NaN,-0.8311179,0.0003753573,NaN,-1.566046,-14.6109,NaN,-1.694664,-1.476038,-0.06615862,14.11244,NaN,NaN,-0.129463,0.8132091,-1.819404E-07,1.058941,-1.665429E-08,1.351002
843.6985,-0.01444166,0.0004126616,NaN,-0.8311179,0.0003753573,NaN,-1.566046,-14.6109,NaN,-1.694664,-1.476038,-0.06615862,14.11244,NaN,NaN,-0.129463,0.8132091,-1.819404E-07,1.058941,-1.665429E-08,1.351002
843.7127,-0.01444599,0.0004129157,NaN,-0.8304805,0.000374577,NaN,-1.566036,-14.60989,NaN,-1.691252,-1.48219,-0.06977919,14.11882,NaN,NaN,-0.12977,0.8143457,-1.775446E-07,1.067859,-9.501733E-09,1.344133
843.7283,-0.0144501,0.0004131175,NaN,-0.8298712,0.0003744902,NaN,-1.566034,-14.6092,NaN,-1.687971,-1.475473,-0.07333013,14.11162,NaN,NaN,-0.130071,0.8148928,-1.732977E-07,1.058054,-1.188592E-08,1.336573
843.743,-0.01445385,0.0004135724,NaN,-0.8293513,0.0003741049,NaN,-1.565943,-14.61015,NaN,-1.685354,-1.480869,-0.07526008,14.11746,NaN,NaN,-0.1302368,0.8140725,-1.750114E-07,1.065953,-9.501733E-09,1.344139
843.7578,-0.01445385,0.0004135724,NaN,-0.8293513,0.0003741049,NaN,-1.565943,-14.61015,NaN,-1.685354,-1.480869,-0.07526008,14.11746,NaN,NaN,-0.1302368,0.8140725,-1.750114E-07,1.065953,-9.501733E-09,1.344139
843.7721,-0.01445725,0.0004138853,NaN,-0.8288889,0.0003746146,NaN,-1.565894,-14.60948,NaN,-1.68308,-1.472699,-0.07715842,14.10872,NaN,NaN,-0.1303994,0.8145705,-1.747133E-07,1.054032,-1.42701E-08,1.33946
843.7874,-0.01446035,0.0004138594,NaN,-0.828464,0.0003750836,NaN,-1.565863,-14.60966,NaN,-1.680993,-1.468724,-0.07902343,14.10453,NaN,NaN,-0.1305588,0.8142691,-1.735958E-07,1.048247,-1.188592E-08,1.337479
843.8021,-0.01446322,0.0004139929,NaN,-0.8280642,0.0003752,NaN,-1.56584,-14.61069,NaN,-1.679014,-1.473761,-0.0808532,14.10999,NaN,NaN,-0.130715,0.8134026,-1.719566E-07,1.05563,-1.42701E-08,1.344526
843.8179,-0.01446322,0.0004139929,NaN,-0.8280642,0.0003752,NaN,-1.56584,-14.61069,NaN,-1.679014,-1.473761,-0.0808532,14.10999,NaN,NaN,-0.130715,0.8134026,-1.719566E-07,1.05563,-1.42701E-08,1.344526
843.8319,-0.01446573,0.0004139126,NaN,-0.8277509,0.0003756407,NaN,-1.565737,-14.60971,NaN,-1.677678,-1.468191,-0.081099,14.10397,NaN,NaN,-0.1307389,0.8142203,-1.77321E-07,1.047483,-1.42701E-08,1.337938
843.8463,-0.01446788,0.0004139557,NaN,-0.8274925,0.0003757312,NaN,-1.565672,-14.61066,NaN,-1.676664,-1.473067,-0.08134522,14.10926,NaN,NaN,-0.1307623,0.8134342,-1.803013E-07,1.054626,-9.501732E-09,1.343482
843.8611,-0.01446974,0.0004142267,NaN,-0.827269,0.0003754631,NaN,-1.565624,-14.61088,NaN,-1.675819,-1.479088,-0.08158989,14.11565,NaN,NaN,-0.1307852,0.8133771,-1.823129E-07,1.063394,-4.73336E-09,1.346513
843.8759,-0.01446974,0.0004142267,NaN,-0.827269,0.0003754631,NaN,-1.565624,-14.61088,NaN,-1.675819,-1.479088,-0.08158989,14.11565,NaN,NaN,-0.1307852,0.8133771,-1.823129E-07,1.063394,-4.73336E-09,1.346513
843.8898,-0.01447118,0.0004143943,NaN,-0.8271375,0.0003757934,NaN,-1.565503,-14.60939,NaN,-1.675637,-1.472888,-0.08028343,14.10891,NaN,NaN,-0.1306784,0.814722,-1.917752E-07,1.054322,-7.117546E-09,1.335564
843.9052,-0.01447222,0.0004147426,NaN,-0.8270632,0.0003754786,NaN,-1.56542,-14.60959,NaN,-1.67578,-1.480077,-0.07900745,14.11655,NaN,NaN,-0.1305737,0.8147231,-1.977356E-07,1.064805,-4.73336E-09,1.340094
843.9212,-0.0144731,0.0004147199,NaN,-0.8270246,0.0003758313,NaN,-1.565353,-14.60957,NaN,-1.676084,-1.470266,-0.07775939,14.10614,NaN,NaN,-0.130471,0.8145331,-2.019825E-07,1.050503,-2.349175E-09,1.337026
843.9349,-0.0144731,0.0004147199,NaN,-0.8270246,0.0003758313,NaN,-1.565353,-14.60957,NaN,-1.676084,-1.470266,-0.07775939,14.10614,NaN,NaN,-0.130471,0.8145331,-2.019825E-07,1.050503,-2.349175E-09,1.337026
843.9489,-0.01447387,0.000414349,NaN,-0.8270083,0.0003761023,NaN,-1.565292,-14.60989,NaN,-1.676467,-1.467677,-0.07653689,14.10343,NaN,NaN,-0.1303703,0.8141401,-2.055587E-07,1.046743,7.187568E-09,1.336421
843.9647,-0.01447447,0.0004140981,NaN,-0.8270735,0.0003765327,NaN,-1.565155,-14.61049,NaN,-1.677461,-1.467508,-0.07379043,14.10333,NaN,NaN,-0.1301423,0.8135323,-2.159895E-07,1.046524,7.187568E-09,1.340109
843.9792,-0.01447447,0.0004140981,NaN,-0.8270735,0.0003765327,NaN,-1.565155,-14.61049,NaN,-1.677461,-1.467508,-0.07379043,14.10333,NaN,NaN,-0.1301423,0.8135323,-2.159895E-07,1.046524,7.187568E-09,1.340109
843.9933,-0.01447495,0.0004144309,NaN,-0.8271886,0.0003762507,NaN,-1.565052,-14.61055,NaN,-1.678745,-1.47985,-0.07110173,14.11638,NaN,NaN,-0.1299188,0.8138892,-2.240362E-07,1.064481,9.571754E-09,1.344316
844.0087,-0.01447535,0.0004143684,NaN,-0.8273341,0.0003756281,NaN,-1.564963,-14.61084,NaN,-1.680164,-1.477155,-0.06846815,14.11355,NaN,NaN,-0.1296996,0.8135406,-2.301456E-07,1.060564,4.803383E-09,1.34468
844.0235,-0.0144757,0.0004142715,NaN,-0.8274977,0.0003753694,NaN,-1.56488,-14.60973,NaN,-1.68164,-1.473613,-0.06588697,14.10966,NaN,NaN,-0.1294848,0.8145586,-2.353983E-07,1.055368,7.187568E-09,1.337168
844.0382,-0.0144757,0.0004142715,NaN,-0.8274977,0.0003753694,NaN,-1.56488,-14.60973,NaN,-1.68164,-1.473613,-0.06588697,14.10966,NaN,NaN,-0.1294848,0.8145586,-2.353983E-07,1.055368,7.187568E-09,1.337168
844.0521,-0.0144759,0.0004139769,NaN,-0.827741,0.0003755949,NaN,-1.564715,-14.60985,NaN,-1.683708,-1.468041,-0.06180585,14.10377,NaN,NaN,-0.1291448,0.8142797,-2.462016E-07,1.047255,7.187568E-09,1.336453
844.0684,-0.01447599,0.0004137545,NaN,-0.8280324,0.0003756823,NaN,-1.564583,-14.61068,NaN,-1.686049,-1.471113,-0.05780835,14.10713,NaN,NaN,-0.1288115,0.8135534,-2.547326E-07,1.051766,3.501111E-11,1.341152
844.0823,-0.014476,0.0004140605,NaN,-0.8283522,0.0003754098,NaN,-1.564466,-14.61096,NaN,-1.688508,-1.479659,-0.05389145,14.1162,NaN,NaN,-0.1284847,0.8135289,-2.619224E-07,1.064212,3.501111E-11,1.345892
844.097,-0.014476,0.0004140605,NaN,-0.8283522,0.0003754098,NaN,-1.564466,-14.61096,NaN,-1.688508,-1.479659,-0.05389145,14.1162,NaN,NaN,-0.1284847,0.8135289,-2.619224E-07,1.064212,3.501111E-11,1.345892
844.1112,-0.01447584,0.0004143215,NaN,-0.8287573,0.0003746111,NaN,-1.564261,-14.61005,NaN,-1.691582,-1.482268,-0.04849827,14.11885,NaN,NaN,-0.128035,0.8144903,-2.728747E-07,1.067982,4.803383E-09,1.340299
844.1265,-0.01447555,0.000414579,NaN,-0.8292133,0.0003741726,NaN,-1.564093,-14.60944,NaN,-1.694933,-1.478015,-0.04321432,14.11426,NaN,NaN,-0.1275941,0.8150142,-2.814056E-07,1.061763,2.419197E-09,1.336891
844.1412,-0.01447518,0.0004145759,NaN,-0.8296987,0.0003741152,NaN,-1.563939,-14.60934,NaN,-1.698398,-1.472484,-0.03803605,14.10838,NaN,NaN,-0.1271619,0.8149869,-2.88968E-07,1.053693,-2.349175E-09,1.333873
844.1559,-0.01447518,0.0004145759,NaN,-0.8296987,0.0003741152,NaN,-1.563939,-14.60934,NaN,-1.698398,-1.472484,-0.03803605,14.10838,NaN,NaN,-0.1271619,0.8149869,-2.88968E-07,1.053693,-2.349175E-09,1.333873
844.1699,-0.01447476,0.0004145741,NaN,-0.8302,0.0003743482,NaN,-1.563791,-14.61055,NaN,-1.701896,-1.471043,-0.03295936,14.10699,NaN,NaN,-0.1267381,0.8137346,-2.948539E-07,1.05164,3.501111E-11,1.339146
844.1857,-0.01447418,0.0004144613,NaN,-0.8307782,0.0003748586,NaN,-1.563538,-14.60995,NaN,-1.705958,-1.467216,-0.02642286,14.10286,NaN,NaN,-0.1261933,0.8142155,-3.043348E-07,1.046039,2.419197E-09,1.336617
844.2004,-0.01447349,0.0004140222,NaN,-0.8314012,0.0003751364,NaN,-1.563323,-14.60968,NaN,-1.710265,-1.466424,-0.02001767,14.10197,NaN,NaN,-0.1256592,0.8144557,-3.107423E-07,1.044868,3.501111E-11,1.33014
844.2151,-0.01447349,0.0004140222,NaN,-0.8314012,0.0003751364,NaN,-1.563323,-14.60968,NaN,-1.710265,-1.466424,-0.02001767,14.10197,NaN,NaN,-0.1256592,0.8144557,-3.107423E-07,1.044868,3.501111E-11,1.33014
844.2291,-0.01447271,0.0004132907,NaN,-0.8320492,0.0003753176,NaN,-1.563124,-14.60977,NaN,-1.714663,-1.465605,-0.01374034,14.10111,NaN,NaN,-0.1251355,0.814338,-3.168983E-07,1.043677,2.419197E-09,1.329966
844.2446,-0.01447188,0.0004127388,NaN,-0.8327096,0.0003757557,NaN,-1.562931,-14.61013,NaN,-1.719075,-1.465499,-0.007585943,14.10104,NaN,NaN,-0.1246221,0.8139743,-3.216667E-07,1.043537,2.419197E-09,1.332216
844.2595,-0.01447188,0.0004127388,NaN,-0.8327096,0.0003757557,NaN,-1.562931,-14.61013,NaN,-1.719075,-1.465499,-0.007585943,14.10104,NaN,NaN,-0.1246221,0.8139743,-3.216667E-07,1.043537,2.419197E-09,1.332216
844.2734,-0.0144709,0.000412142,NaN,-0.833444,0.0003760464,NaN,-1.562614,-14.61043,NaN,-1.724037,-1.466551,1.351815E-05,14.10219,NaN,NaN,-0.1239895,0.8137036,-3.292244E-07,1.045081,2.419197E-09,1.33357
844.2888,-0.01446981,0.0004116531,NaN,-0.8342208,0.0003765666,NaN,-1.562341,-14.61041,NaN,-1.729229,-1.465242,0.007461074,14.10079,NaN,NaN,-0.1233692,0.8136792,-3.340323E-07,1.043171,7.187568E-09,1.334141
844.3057,-0.01446863,0.0004117728,NaN,-0.8350202,0.000376259,NaN,-1.562086,-14.61099,NaN,-1.734498,-1.478865,0.01475959,14.11527,NaN,NaN,-0.1227611,0.8135902,-3.36342E-07,1.063021,4.803383E-09,1.342662
844.3192,-0.01446863,0.0004117728,NaN,-0.8350202,0.000376259,NaN,-1.562086,-14.61099,NaN,-1.734498,-1.478865,0.01475959,14.11527,NaN,NaN,-0.1227611,0.8135902,-3.36342E-07,1.063021,4.803383E-09,1.342662
844.3335,-0.0144672,0.0004117883,NaN,-0.8358994,0.0003767782,NaN,-1.561694,-14.61156,NaN,-1.740343,-1.469466,0.02348454,14.10539,NaN,NaN,-0.1220356,0.8128086,-3.428427E-07,1.049356,7.187568E-09,1.341999
844.3478,-0.01446543,0.0004117396,NaN,-0.8368238,0.0003774684,NaN,-1.561353,-14.61034,NaN,-1.746425,-1.466576,0.03203595,14.10216,NaN,NaN,-0.1213243,0.813918,-3.448171E-07,1.045095,1.195594E-08,1.3342
844.3627,-0.01446337,0.0004116175,NaN,-0.837772,0.0003780362,NaN,-1.561033,-14.61083,NaN,-1.752581,-1.465865,0.04041583,14.10147,NaN,NaN,-0.120627,0.8134062,-3.458415E-07,1.044081,7.187569E-09,1.336543
844.3788,-0.01446337,0.0004116175,NaN,-0.837772,0.0003780362,NaN,-1.561033,-14.61083,NaN,-1.752581,-1.465865,0.04041583,14.10147,NaN,NaN,-0.120627,0.8134062,-3.458415E-07,1.044081,7.187569E-09,1.336543
844.3914,-0.01446108,0.0004122053,NaN,-0.8387306,0.0003779296,NaN,-1.560719,-14.6114,NaN,-1.758732,-1.478655,0.04863141,14.11506,NaN,NaN,-0.1199434,0.8132849,-3.4532E-07,1.062712,9.571755E-09,1.343576
844.4069,-0.01445835,0.0004122597,NaN,-0.8396915,0.000378377,NaN,-1.560408,-14.61048,NaN,-1.764837,-1.46893,0.05668894,14.10467,NaN,NaN,-0.1192731,0.8139823,-3.448729E-07,1.04853,1.195594E-08,1.335912
844.4214,-0.01445534,0.0004126414,NaN,-0.8406495,0.0003780738,NaN,-1.560098,-14.61105,NaN,-1.770876,-1.480266,0.06459031,14.11673,NaN,NaN,-0.1186159,0.8137916,-3.425633E-07,1.065057,1.195594E-08,1.342472
844.4363,-0.01445534,0.0004126414,NaN,-0.8406495,0.0003780738,NaN,-1.560098,-14.61105,NaN,-1.770876,-1.480266,0.06459031,14.11673,NaN,NaN,-0.1186159,0.8137916,-3.425633E-07,1.065057,1.195594E-08,1.342472
844.4504,-0.01445214,0.0004127809,NaN,-0.8416014,0.0003787917,NaN,-1.559789,-14.61104,NaN,-1.776839,-1.468933,0.0723386,14.10473,NaN,NaN,-0.1179716,0.8135598,-3.384282E-07,1.048552,1.195594E-08,1.339701
844.466,-0.01444883,0.0004124695,NaN,-0.8425452,0.0003790885,NaN,-1.559481,-14.61065,NaN,-1.782723,-1.467588,0.0799367,14.10324,NaN,NaN,-0.11734,0.8139067,-3.336971E-07,1.046574,1.672431E-08,1.334112
844.4808,-0.01444565,0.0004116534,NaN,-0.8434106,0.000378977,NaN,-1.559372,-14.61097,NaN,-1.78795,-1.466557,0.08580778,14.10219,NaN,NaN,-0.1168501,0.8135434,-3.283326E-07,1.045087,2.387687E-08,1.336998
844.4957,-0.01444565,0.0004116534,NaN,-0.8434106,0.000378977,NaN,-1.559372,-14.61097,NaN,-1.78795,-1.466557,0.08580778,14.10219,NaN,NaN,-0.1168501,0.8135434,-3.283326E-07,1.045087,2.387687E-08,1.336998
844.5097,-0.01444266,0.0004110872,NaN,-0.8442236,0.0003786267,NaN,-1.559194,-14.61206,NaN,-1.792822,-1.473141,0.09156431,14.1093,NaN,NaN,-0.1163698,0.8126855,-3.237505E-07,1.054718,2.864524E-08,1.342926
844.5251,-0.01443985,0.0004116385,NaN,-0.8450007,0.0003783441,NaN,-1.558987,-14.61085,NaN,-1.797483,-1.480662,0.09721986,14.11708,NaN,NaN,-0.1158989,0.8141016,-3.19839E-07,1.065604,2.626105E-08,1.337379
844.5396,-0.01443985,0.0004116385,NaN,-0.8450007,0.0003783441,NaN,-1.558987,-14.61085,NaN,-1.797483,-1.480662,0.09721986,14.11708,NaN,NaN,-0.1158989,0.8141016,-3.19839E-07,1.065604,2.626105E-08,1.337379
844.556,-0.0144374,0.0004117592,NaN,-0.8456829,0.0003789258,NaN,-1.558986,-14.61056,NaN,-1.801429,-1.468914,0.1011892,14.1046,NaN,NaN,-0.1155666,0.8141429,-3.140275E-07,1.048483,2.626105E-08,1.333132
844.5701,-0.01443531,0.0004118615,NaN,-0.8463033,0.0003796745,NaN,-1.558903,-14.61081,NaN,-1.804999,-1.467394,0.1050799,14.10301,NaN,NaN,-0.1152408,0.8138413,-3.097807E-07,1.046278,2.864524E-08,1.336649
844.5839,-0.01443351,0.0004117275,NaN,-0.846883,0.0003801276,NaN,-1.558785,-14.61076,NaN,-1.808357,-1.466601,0.1089082,14.10216,NaN,NaN,-0.1149213,0.8138648,-3.052731E-07,1.045119,2.864524E-08,1.332056
844.5988,-0.01443351,0.0004117275,NaN,-0.846883,0.0003801276,NaN,-1.558785,-14.61076,NaN,-1.808357,-1.466601,0.1089082,14.10216,NaN,NaN,-0.1149213,0.8138648,-3.052731E-07,1.045119,2.864524E-08,1.332056
844.6128,-0.01443193,0.0004119351,NaN,-0.8474348,0.0003801014,NaN,-1.558655,-14.61196,NaN,-1.811584,-1.475484,0.1126674,14.11172,NaN,NaN,-0.1146082,0.8129774,-3.004302E-07,1.058105,2.387687E-08,1.342211
844.6284,-0.01443073,0.0004122336,NaN,-0.8478977,0.0003796542,NaN,-1.558753,-14.61186,NaN,-1.814146,-1.480032,0.1147748,14.11651,NaN,NaN,-0.1144305,0.8131882,-2.949168E-07,1.064716,2.149268E-08,1.340638
844.6431,-0.01442973,0.0004118946,NaN,-0.8483037,0.0003794066,NaN,-1.558764,-14.61068,NaN,-1.816366,-1.469701,0.1168354,14.10545,NaN,NaN,-0.1142563,0.814148,-2.922345E-07,1.049648,1.672431E-08,1.332551
844.6578,-0.01442973,0.0004118946,NaN,-0.8483037,0.0003794066,NaN,-1.558764,-14.61068,NaN,-1.816366,-1.469701,0.1168354,14.10545,NaN,NaN,-0.1142563,0.814148,-2.922345E-07,1.049648,1.672431E-08,1.332551
844.6718,-0.01442886,0.000411113,NaN,-0.8486726,0.0003789358,NaN,-1.558735,-14.61071,NaN,-1.8184,-1.468889,0.1188708,14.10459,NaN,NaN,-0.1140855,0.8140926,-2.882112E-07,1.048469,1.91085E-08,1.332157
844.6873,-0.01442805,0.0004113345,NaN,-0.8490171,0.0003784174,NaN,-1.558692,-14.6117,NaN,-1.820327,-1.478877,0.1208728,14.11529,NaN,NaN,-0.1139181,0.8134348,-2.841134E-07,1.063057,2.149268E-08,1.339335
844.7024,-0.0144274,0.0004112955,NaN,-0.8492757,0.0003784591,NaN,-1.558885,-14.61062,NaN,-1.821609,-1.470955,0.1212583,14.10679,NaN,NaN,-0.1138832,0.8143237,-2.801646E-07,1.051494,2.149268E-08,1.331398
844.717,-0.0144274,0.0004112955,NaN,-0.8492757,0.0003784591,NaN,-1.558885,-14.61062,NaN,-1.821609,-1.470955,0.1212583,14.10679,NaN,NaN,-0.1138832,0.8143237,-2.801646E-07,1.051494,2.149268E-08,1.331398
844.7309,-0.01442686,0.0004106913,NaN,-0.84948,0.0003782777,NaN,-1.558983,-14.61033,NaN,-1.822567,-1.467918,0.1216287,14.10353,NaN,NaN,-0.113849,0.8145274,-2.78302E-07,1.047058,2.387687E-08,1.329051
844.7467,-0.0144264,0.0004109691,NaN,-0.84965,0.0003777475,NaN,-1.559036,-14.61072,NaN,-1.823359,-1.479798,0.1220087,14.11616,NaN,NaN,-0.1138155,0.8145439,-2.757688E-07,1.06438,2.149268E-08,1.335087
844.7615,-0.01442599,0.0004109897,NaN,-0.849798,0.0003781956,NaN,-1.559072,-14.61106,NaN,-1.824062,-1.46879,0.1223886,14.10453,NaN,NaN,-0.1137827,0.8139606,-2.730121E-07,1.04835,2.626105E-08,1.333696
844.7763,-0.01442599,0.0004109897,NaN,-0.849798,0.0003781956,NaN,-1.559072,-14.61106,NaN,-1.824062,-1.46879,0.1223886,14.10453,NaN,NaN,-0.1137827,0.8139606,-2.730121E-07,1.04835,2.626105E-08,1.333696
844.79,-0.01442573,0.0004104292,NaN,-0.8498625,0.0003781351,NaN,-1.559345,-14.6109,NaN,-1.824138,-1.467601,0.121185,14.10324,NaN,NaN,-0.1138798,0.8140774,-2.689142E-07,1.046611,2.387687E-08,1.333306
844.8065,-0.01442559,0.0004098538,NaN,-0.8498752,0.0003778667,NaN,-1.559517,-14.61118,NaN,-1.823908,-1.471112,0.1199971,14.10699,NaN,NaN,-0.113975,0.8139182,-2.680947E-07,1.051734,1.434012E-08,1.333727
844.8203,-0.01442553,0.000409727,NaN,-0.8498574,0.0003776742,NaN,-1.55964,-14.61215,NaN,-1.823528,-1.474436,0.1188505,14.11063,NaN,NaN,-0.1140684,0.8130465,-2.66232E-07,1.056614,1.434012E-08,1.341307
844.8362,-0.01442553,0.000409727,NaN,-0.8498574,0.0003776742,NaN,-1.55964,-14.61215,NaN,-1.823528,-1.474436,0.1188505,14.11063,NaN,NaN,-0.1140684,0.8130465,-2.66232E-07,1.056614,1.434012E-08,1.341307
844.8491,-0.01442564,0.0004096979,NaN,-0.8497518,0.0003782883,NaN,-1.559986,-14.61098,NaN,-1.822498,-1.468018,0.1161558,14.1037,NaN,NaN,-0.1142892,0.8140398,-2.631028E-07,1.047231,1.195594E-08,1.333917
844.8644,-0.01442589,0.0004095933,NaN,-0.8495924,0.000378695,NaN,-1.560222,-14.61142,NaN,-1.82116,-1.467662,0.1135093,14.10337,NaN,NaN,-0.1145057,0.8135824,-2.628048E-07,1.046732,1.195594E-08,1.334289
844.8792,-0.01442589,0.0004095933,NaN,-0.8495924,0.000378695,NaN,-1.560222,-14.61142,NaN,-1.82116,-1.467662,0.1135093,14.10337,NaN,NaN,-0.1145057,0.8135824,-2.628048E-07,1.046732,1.195594E-08,1.334289
844.8932,-0.01442622,0.0004092117,NaN,-0.8494005,0.0003789574,NaN,-1.560402,-14.6109,NaN,-1.819679,-1.46691,0.1109345,14.1025,NaN,NaN,-0.1147179,0.8140648,-2.613147E-07,1.045612,9.571753E-09,1.330749
844.9084,-0.0144266,0.0004088956,NaN,-0.8491893,0.0003794048,NaN,-1.560557,-14.61117,NaN,-1.818137,-1.466244,0.1084192,14.10183,NaN,NaN,-0.114926,0.8137708,-2.596755E-07,1.044653,1.434012E-08,1.332333
844.9235,-0.01442714,0.0004092386,NaN,-0.8488981,0.0003791178,NaN,-1.560935,-14.61123,NaN,-1.815999,-1.479154,0.1043787,14.11548,NaN,NaN,-0.1152593,0.8141636,-2.568443E-07,1.063441,1.195594E-08,1.337939
844.9382,-0.01442714,0.0004092386,NaN,-0.8488981,0.0003791178,NaN,-1.560935,-14.61123,NaN,-1.815999,-1.479154,0.1043787,14.11548,NaN,NaN,-0.1152593,0.8141636,-2.568443E-07,1.063441,1.195594E-08,1.337939
844.9523,-0.0144278,0.000409461,NaN,-0.8485585,0.000379969,NaN,-1.561205,-14.61106,NaN,-1.813586,-1.469,0.100414,14.1047,NaN,NaN,-0.1155862,0.8140919,-2.56807E-07,1.048645,1.434012E-08,1.33191
844.9677,-0.01442854,0.0004094482,NaN,-0.8481908,0.0003802491,NaN,-1.561419,-14.61157,NaN,-1.811056,-1.470209,0.0965464,14.10604,NaN,NaN,-0.1159066,0.8136153,-2.553542E-07,1.050426,9.571752E-09,1.335315
844.9824,-0.01442933,0.0004094396,NaN,-0.8478073,0.0003805483,NaN,-1.561606,-14.61171,NaN,-1.808485,-1.470101,0.09276379,14.10594,NaN,NaN,-0.1162207,0.8134663,-2.532308E-07,1.050273,7.187567E-09,1.336431
844.9973,-0.01442933,0.0004094396,NaN,-0.8478073,0.0003805483,NaN,-1.561606,-14.61171,NaN,-1.808485,-1.470101,0.09276379,14.10594,NaN,NaN,-0.1162207,0.8134663,-2.532308E-07,1.050273,7.187567E-09,1.336431
845.0114,-0.01443028,0.0004093341,NaN,-0.8473465,0.0003808754,NaN,-1.562002,-14.61112,NaN,-1.805335,-1.468917,0.08748119,14.1046,NaN,NaN,-0.116658,0.8140035,-2.515916E-07,1.048523,9.571752E-09,1.332542
845.0268,-0.01443135,0.000409434,NaN,-0.8468401,0.0003806974,NaN,-1.562289,-14.61242,NaN,-1.801928,-1.476512,0.08230306,14.11281,NaN,NaN,-0.1170867,0.812955,-2.505113E-07,1.059639,1.195594E-08,1.342597
845.0436,-0.0144325,0.0004096885,NaN,-0.8463077,0.00038102,NaN,-1.56252,-14.61237,NaN,-1.798417,-1.473294,0.07724559,14.1094,NaN,NaN,-0.1175071,0.8129162,-2.487976E-07,1.054958,1.195594E-08,1.341789
845.0571,-0.0144325,0.0004096885,NaN,-0.8463077,0.00038102,NaN,-1.56252,-14.61237,NaN,-1.798417,-1.473294,0.07724559,14.1094,NaN,NaN,-0.1175071,0.8129162,-2.487976E-07,1.054958,1.195594E-08,1.341789
845.0712,-0.01443387,0.0004096009,NaN,-0.8456924,0.0003814098,NaN,-1.562935,-14.6113,NaN,-1.794305,-1.468027,0.07071838,14.1037,NaN,NaN,-0.1180485,0.8138203,-2.450351E-07,1.047256,1.195594E-08,1.333899
845.0857,-0.01443559,0.0004095925,NaN,-0.8450287,0.0003813939,NaN,-1.563235,-14.6125,NaN,-1.78993,-1.473512,0.06432606,14.10966,NaN,NaN,-0.1185793,0.8128023,-2.425019E-07,1.055295,1.672431E-08,1.341401
845.1003,-0.01443761,0.0004101326,NaN,-0.8443381,0.0003810355,NaN,-1.563475,-14.61139,NaN,-1.785457,-1.480957,0.058079,14.11738,NaN,NaN,-0.1190997,0.8141125,-2.395775E-07,1.066077,1.91085E-08,1.338724
845.1151,-0.01443761,0.0004101326,NaN,-0.8443381,0.0003810355,NaN,-1.563475,-14.61139,NaN,-1.785457,-1.480957,0.058079,14.11738,NaN,NaN,-0.1190997,0.8141125,-2.395775E-07,1.066077,1.91085E-08,1.338724
845.129,-0.01443988,0.0004102582,NaN,-0.843634,0.0003814464,NaN,-1.563682,-14.61091,NaN,-1.780967,-1.470757,0.05196466,14.10652,NaN,NaN,-0.1196099,0.8143749,-2.352003E-07,1.051207,1.672431E-08,1.334003
845.1447,-0.01444254,0.0004104101,NaN,-0.8428554,0.0003810216,NaN,-1.564062,-14.61197,NaN,-1.775926,-1.479091,0.04439937,14.11548,NaN,NaN,-0.1202395,0.8135668,-2.267067E-07,1.063392,1.672431E-08,1.338423
845.1594,-0.01444254,0.0004104101,NaN,-0.8428554,0.0003810216,NaN,-1.564062,-14.61197,NaN,-1.775926,-1.479091,0.04439937,14.11548,NaN,NaN,-0.1202395,0.8135668,-2.267067E-07,1.063392,1.672431E-08,1.338423
845.1735,-0.01444557,0.000411009,NaN,-0.8420343,0.0003805931,NaN,-1.564336,-14.61146,NaN,-1.770654,-1.481468,0.03699268,14.11793,NaN,NaN,-0.1208567,0.8141135,-2.213143E-07,1.066832,2.149268E-08,1.339029
845.189,-0.01444892,0.0004109129,NaN,-0.8411906,0.0003800859,NaN,-1.564553,-14.61058,NaN,-1.765306,-1.473876,0.02974951,14.10978,NaN,NaN,-0.1214619,0.8148326,-2.165739E-07,1.055747,2.387687E-08,1.332657
845.2037,-0.0144525,0.0004109801,NaN,-0.8403369,0.0003801438,NaN,-1.564737,-14.61088,NaN,-1.759958,-1.472591,0.02265833,14.10845,NaN,NaN,-0.1220551,0.8144925,-2.112979E-07,1.053883,2.626105E-08,1.333969
845.2187,-0.0144525,0.0004109801,NaN,-0.8403369,0.0003801438,NaN,-1.564737,-14.61088,NaN,-1.759958,-1.472591,0.02265833,14.10845,NaN,NaN,-0.1220551,0.8144925,-2.112979E-07,1.053883,2.626105E-08,1.333969
845.2326,-0.01445647,0.000411418,NaN,-0.8394114,0.0003797567,NaN,-1.56507,-14.61098,NaN,-1.754075,-1.480216,0.01413923,14.11653,NaN,NaN,-0.1227661,0.8146085,-2.010255E-07,1.064992,3.341361E-08,1.336528
845.2481,-0.0144608,0.0004111776,NaN,-0.8384457,0.0003796408,NaN,-1.565303,-14.6107,NaN,-1.747974,-1.469052,0.005801602,14.10466,NaN,NaN,-0.1234632,0.8146489,-1.934817E-07,1.048714,2.626105E-08,1.331804
845.263,-0.01446544,0.0004106778,NaN,-0.8374597,0.0003795789,NaN,-1.565482,-14.61054,NaN,-1.741809,-1.468284,-0.002355453,14.10382,NaN,NaN,-0.1241465,0.8147752,-1.852116E-07,1.047586,2.626105E-08,1.330757
845.2776,-0.01446544,0.0004106778,NaN,-0.8374597,0.0003795789,NaN,-1.565482,-14.61054,NaN,-1.741809,-1.468284,-0.002355453,14.10382,NaN,NaN,-0.1241465,0.8147752,-1.852116E-07,1.047586,2.626105E-08,1.330757
845.2952,-0.01447051,0.0004102243,NaN,-0.8363961,0.0003798688,NaN,-1.565779,-14.61089,NaN,-1.735084,-1.467386,-0.01191157,14.10291,NaN,NaN,-0.1249459,0.8143914,-1.753023E-07,1.046291,2.626105E-08,1.332504
845.3079,-0.014476,0.0004098309,NaN,-0.8352895,0.0003802425,NaN,-1.565978,-14.61148,NaN,-1.728135,-1.466982,-0.02126195,14.10255,NaN,NaN,-0.1257295,0.8137789,-1.642382E-07,1.045729,2.387687E-08,1.335403
845.3217,-0.01448181,0.0004098586,NaN,-0.8341612,0.0003802238,NaN,-1.566123,-14.61264,NaN,-1.721124,-1.474335,-0.03041197,14.11049,NaN,NaN,-0.1264978,0.81287,-1.514605E-07,1.056486,2.864524E-08,1.344256
845.3363,-0.01448181,0.0004098586,NaN,-0.8341612,0.0003802238,NaN,-1.566123,-14.61264,NaN,-1.721124,-1.474335,-0.03041197,14.11049,NaN,NaN,-0.1264978,0.81287,-1.514605E-07,1.056486,2.864524E-08,1.344256
845.3503,-0.01448787,0.0004100052,NaN,-0.8330247,0.0003796608,NaN,-1.566235,-14.61241,NaN,-1.714133,-1.479911,-0.0393721,14.11634,NaN,NaN,-0.127251,0.8132457,-1.390925E-07,1.064584,2.626105E-08,1.343613
845.366,-0.01449161,0.000409938,NaN,-0.8327197,0.0003802697,NaN,-1.564896,-14.61168,NaN,-1.71408,-1.467333,-0.02942101,14.10295,NaN,NaN,-0.1264373,0.813695,-1.855841E-07,1.046257,3.102943E-08,1.336504
845.3806,-0.01449253,0.0004094993,NaN,-0.8329276,0.0003804892,NaN,-1.564185,-14.61145,NaN,-1.717384,-1.467153,-0.01974946,14.10272,NaN,NaN,-0.1256395,0.8139141,-2.128882E-07,1.045981,3.341361E-08,1.333249
845.3955,-0.01449253,0.0004094993,NaN,-0.8329276,0.0003804892,NaN,-1.564185,-14.61145,NaN,-1.717384,-1.467153,-0.01974946,14.10272,NaN,NaN,-0.1256395,0.8139141,-2.128882E-07,1.045981,3.341361E-08,1.333249
845.4095,-0.01449207,0.0004091086,NaN,-0.8334512,0.0003797808,NaN,-1.563721,-14.61236,NaN,-1.722337,-1.478211,-0.01033311,14.11454,NaN,NaN,-0.1248575,0.8133914,-2.315053E-07,1.062119,3.341361E-08,1.340906
845.425,-0.01449095,0.0004082812,NaN,-0.8341672,0.0003793183,NaN,-1.563348,-14.61186,NaN,-1.72808,-1.468891,-0.001124605,14.10462,NaN,NaN,-0.1240908,0.8136625,-2.43049E-07,1.048536,3.57978E-08,1.337212
845.4398,-0.01449095,0.0004082812,NaN,-0.8341672,0.0003793183,NaN,-1.563348,-14.61186,NaN,-1.72808,-1.468891,-0.001124605,14.10462,NaN,NaN,-0.1240908,0.8136625,-2.43049E-07,1.048536,3.57978E-08,1.337212
845.4539,-0.01448959,0.0004079397,NaN,-0.8349295,0.0003795989,NaN,-1.563143,-14.61221,NaN,-1.733611,-1.468219,0.006329715,14.10395,NaN,NaN,-0.1234686,0.8132772,-2.47765E-07,1.047574,3.57978E-08,1.338253
845.4694,-0.01448794,0.0004079587,NaN,-0.8357169,0.0003790044,NaN,-1.562904,-14.61259,NaN,-1.73901,-1.4798,0.01364088,14.11624,NaN,NaN,-0.1228585,0.813277,-2.524612E-07,1.064437,3.57978E-08,1.343506
845.4842,-0.01448606,0.0004078074,NaN,-0.8365163,0.0003790476,NaN,-1.56265,-14.61174,NaN,-1.74431,-1.470849,0.0208154,14.10667,NaN,NaN,-0.1222604,0.8139167,-2.554228E-07,1.051382,3.341361E-08,1.336359
845.4989,-0.01448606,0.0004078074,NaN,-0.8365163,0.0003790476,NaN,-1.56265,-14.61174,NaN,-1.74431,-1.470849,0.0208154,14.10667,NaN,NaN,-0.1222604,0.8139167,-2.554228E-07,1.051382,3.341361E-08,1.336359
845.5133,-0.01448424,0.0004073727,NaN,-0.8372502,0.000379015,NaN,-1.562544,-14.61162,NaN,-1.748951,-1.469478,0.0262817,14.10519,NaN,NaN,-0.1218035,0.8139798,-2.55041E-07,1.049378,3.818198E-08,1.335317
845.5284,-0.01448255,0.000407125,NaN,-0.8379404,0.0003792406,NaN,-1.562383,-14.61241,NaN,-1.753241,-1.469371,0.03164726,14.10518,NaN,NaN,-0.1213555,0.8131862,-2.561027E-07,1.049255,3.818198E-08,1.339024
845.5452,-0.01448099,0.0004069561,NaN,-0.8386005,0.0003796293,NaN,-1.562199,-14.6122,NaN,-1.757327,-1.467766,0.03691659,14.10344,NaN,NaN,-0.1209162,0.8133243,-2.565498E-07,1.046908,3.818198E-08,1.337762
845.559,-0.01448099,0.0004069561,NaN,-0.8386005,0.0003796293,NaN,-1.562199,-14.6122,NaN,-1.757327,-1.467766,0.03691659,14.10344,NaN,NaN,-0.1209162,0.8133243,-2.565498E-07,1.046908,3.818198E-08,1.337762
845.5722,-0.01447953,0.0004072909,NaN,-0.839239,0.0003793673,NaN,-1.562007,-14.61286,NaN,-1.761281,-1.479282,0.04208677,14.1157,NaN,NaN,-0.1204856,0.8130485,-2.564753E-07,1.063689,3.341361E-08,1.345402
845.5875,-0.01447839,0.0004075589,NaN,-0.8397921,0.0003799255,NaN,-1.561987,-14.61194,NaN,-1.764567,-1.471828,0.04558243,14.10771,NaN,NaN,-0.1201929,0.8138022,-2.535323E-07,1.052815,3.57978E-08,1.338474
845.6022,-0.0144774,0.0004077539,NaN,-0.8402899,0.0003805808,NaN,-1.561903,-14.61279,NaN,-1.767505,-1.469478,0.04901409,14.10532,NaN,NaN,-0.1199059,0.8128929,-2.526196E-07,1.049429,3.341361E-08,1.343287
845.6169,-0.0144774,0.0004077539,NaN,-0.8402899,0.0003805808,NaN,-1.561903,-14.61279,NaN,-1.767505,-1.469478,0.04901409,14.10532,NaN,NaN,-0.1199059,0.8128929,-2.526196E-07,1.049429,3.341361E-08,1.343287
845.6311,-0.01447653,0.000408342,NaN,-0.8407514,0.0003804631,NaN,-1.561792,-14.61166,NaN,-1.770248,-1.479174,0.05238846,14.11541,NaN,NaN,-0.1196245,0.8143255,-2.520422E-07,1.063474,3.57978E-08,1.340357
845.6467,-0.01447572,0.0004085891,NaN,-0.8411884,0.0003813466,NaN,-1.561673,-14.61274,NaN,-1.772875,-1.468155,0.05570091,14.10385,NaN,NaN,-0.1193486,0.813002,-2.517441E-07,1.047457,3.57978E-08,1.343524
845.6616,-0.01447507,0.0004087914,NaN,-0.8415391,0.0003811458,NaN,-1.561738,-14.61326,NaN,-1.774848,-1.478343,0.05737307,14.11468,NaN,NaN,-0.1192076,0.8128235,-2.496207E-07,1.062294,3.341361E-08,1.344578
845.6765,-0.01447507,0.0004087914,NaN,-0.8415391,0.0003811458,NaN,-1.561738,-14.61326,NaN,-1.774848,-1.478343,0.05737307,14.11468,NaN,NaN,-0.1192076,0.8128235,-2.496207E-07,1.062294,3.341361E-08,1.344578
845.6906,-0.01447455,0.0004088114,NaN,-0.8418348,0.0003817208,NaN,-1.561731,-14.61256,NaN,-1.776489,-1.46877,0.05901597,14.10447,NaN,NaN,-0.1190693,0.8132904,-2.485776E-07,1.048345,3.57978E-08,1.340981
845.706,-0.01447409,0.000408997,NaN,-0.8420954,0.0003814271,NaN,-1.561694,-14.61343,NaN,-1.777954,-1.478498,0.06063804,14.11486,NaN,NaN,-0.1189337,0.8127321,-2.469758E-07,1.062534,3.57978E-08,1.34622
845.7206,-0.01447368,0.0004091533,NaN,-0.842333,0.0003815868,NaN,-1.561645,-14.61237,NaN,-1.779319,-1.474331,0.06223306,14.11032,NaN,NaN,-0.1188008,0.8136746,-2.454856E-07,1.056432,3.57978E-08,1.341294
845.7355,-0.01447368,0.0004091533,NaN,-0.842333,0.0003815868,NaN,-1.561645,-14.61237,NaN,-1.779319,-1.474331,0.06223306,14.11032,NaN,NaN,-0.1188008,0.8136746,-2.454856E-07,1.056432,3.57978E-08,1.341294
845.751,-0.01447344,0.0004092232,NaN,-0.8424861,0.0003819982,NaN,-1.561785,-14.61219,NaN,-1.780049,-1.470784,0.06222093,14.10654,NaN,NaN,-0.1187999,0.8137437,-2.431015E-07,1.051258,3.57978E-08,1.339467
845.7651,-0.01447332,0.0004093386,NaN,-0.8425863,0.0003814134,NaN,-1.561847,-14.61324,NaN,-1.780465,-1.480594,0.06221239,14.11705,NaN,NaN,-0.118799,0.8129905,-2.419466E-07,1.065579,3.102943E-08,1.345856
845.7808,-0.01447328,0.0004094089,NaN,-0.8426535,0.0003821262,NaN,-1.561874,-14.61274,NaN,-1.780722,-1.468817,0.06221659,14.10454,NaN,NaN,-0.1187981,0.8132316,-2.405683E-07,1.048428,2.864524E-08,1.343221
845.7958,-0.01447328,0.0004094089,NaN,-0.8426535,0.0003821262,NaN,-1.561874,-14.61274,NaN,-1.780722,-1.468817,0.06221659,14.10454,NaN,NaN,-0.1187981,0.8132316,-2.405683E-07,1.048428,2.864524E-08,1.343221
845.8087,-0.01447343,0.000409213,NaN,-0.8426324,0.0003823205,NaN,-1.562082,-14.61258,NaN,-1.78032,-1.469407,0.06064836,14.10513,NaN,NaN,-0.1189266,0.8134038,-2.375135E-07,1.049276,2.626106E-08,1.338968
845.8242,-0.01447372,0.0004090206,NaN,-0.8425567,0.0003827255,NaN,-1.562202,-14.61285,NaN,-1.779601,-1.467677,0.05911634,14.10333,NaN,NaN,-0.1190526,0.8130682,-2.362842E-07,1.046767,1.91085E-08,1.342253
845.8387,-0.01447372,0.0004090206,NaN,-0.8425567,0.0003827255,NaN,-1.562202,-14.61285,NaN,-1.779601,-1.467677,0.05911634,14.10333,NaN,NaN,-0.1190526,0.8130682,-2.362842E-07,1.046767,1.91085E-08,1.342253
845.8529,-0.01447408,0.0004092211,NaN,-0.8424478,0.0003825548,NaN,-1.562283,-14.61394,NaN,-1.77873,-1.477359,0.05762839,14.1137,NaN,NaN,-0.1191761,0.8123088,-2.346078E-07,1.060898,2.149269E-08,1.349857
845.8684,-0.0144745,0.0004097322,NaN,-0.8423189,0.0003821137,NaN,-1.562346,-14.61326,NaN,-1.777789,-1.481706,0.05617585,14.1182,NaN,NaN,-0.1192973,0.813081,-2.328196E-07,1.06719,1.672431E-08,1.347591
845.8834,-0.01447509,0.0004100785,NaN,-0.8421088,0.0003822122,NaN,-1.562592,-14.61244,NaN,-1.776243,-1.476047,0.05317747,14.11212,NaN,NaN,-0.1195454,0.8137819,-2.294296E-07,1.05893,1.434013E-08,1.341472
845.8982,-0.01447509,0.0004100785,NaN,-0.8421088,0.0003822122,NaN,-1.562592,-14.61244,NaN,-1.776243,-1.476047,0.05317747,14.11212,NaN,NaN,-0.1195454,0.8137819,-2.294296E-07,1.05893,1.434013E-08,1.341472
845.9124,-0.0144758,0.000410081,NaN,-0.8418497,0.0003825057,NaN,-1.562751,-14.61266,NaN,-1.774415,-1.470953,0.05024376,14.10674,NaN,NaN,-0.1197887,0.8134256,-2.273062E-07,1.05152,1.672431E-08,1.342054
845.9279,-0.01447659,0.0004093134,NaN,-0.8415614,0.0003822353,NaN,-1.562869,-14.61288,NaN,-1.77246,-1.467584,0.04738159,14.1032,NaN,NaN,-0.1200272,0.813098,-2.247916E-07,1.046625,1.672431E-08,1.340616
845.9427,-0.01447743,0.0004092698,NaN,-0.8412563,0.0003817069,NaN,-1.562967,-14.61385,NaN,-1.770455,-1.4781,0.04458208,14.11444,NaN,NaN,-0.120261,0.8124972,-2.22631E-07,1.061963,1.672431E-08,1.349384
845.9576,-0.01447743,0.0004092698,NaN,-0.8412563,0.0003817069,NaN,-1.562967,-14.61385,NaN,-1.770455,-1.4781,0.04458208,14.11444,NaN,NaN,-0.120261,0.8124972,-2.22631E-07,1.061963,1.672431E-08,1.349384
845.9715,-0.01447845,0.0004091986,NaN,-0.840873,0.0003822127,NaN,-1.563237,-14.61295,NaN,-1.767864,-1.468257,0.0402648,14.10394,NaN,NaN,-0.1206197,0.8131717,-2.186263E-07,1.047621,1.672431E-08,1.342102
845.9872,-0.01447959,0.0004088741,NaN,-0.8404431,0.0003825319,NaN,-1.56342,-14.61303,NaN,-1.765007,-1.466966,0.03604038,14.10258,NaN,NaN,-0.1209713,0.8130513,-2.155902E-07,1.045744,1.672431E-08,1.340486
846.0019,-0.01448081,0.0004087381,NaN,-0.8399863,0.0003822969,NaN,-1.563559,-14.61422,NaN,-1.762039,-1.474939,0.03191293,14.11116,NaN,NaN,-0.121316,0.812142,-2.12582E-07,1.057396,2.149268E-08,1.348692
846.0176,-0.01448081,0.0004087381,NaN,-0.8399863,0.0003822969,NaN,-1.563559,-14.61422,NaN,-1.762039,-1.474939,0.03191293,14.11116,NaN,NaN,-0.121316,0.812142,-2.12582E-07,1.057396,2.149268E-08,1.348692
846.0319,-0.01448243,0.0004088138,NaN,-0.8394457,0.0003819733,NaN,-1.56385,-14.61441,NaN,-1.758462,-1.476404,0.02629914,14.11272,NaN,NaN,-0.1217834,0.81199,-2.053456E-07,1.059528,2.149268E-08,1.350148
846.0462,-0.01448444,0.0004087607,NaN,-0.8388558,0.0003822045,NaN,-1.564049,-14.61284,NaN,-1.754614,-1.470087,0.02080736,14.10586,NaN,NaN,-0.1222416,0.813387,-2.009347E-07,1.05029,2.626106E-08,1.3396
846.0609,-0.01448677,0.0004090652,NaN,-0.8382381,0.0003818051,NaN,-1.564201,-14.61382,NaN,-1.75066,-1.479744,0.01543817,14.11619,NaN,NaN,-0.1226909,0.8127141,-1.962548E-07,1.064381,2.864524E-08,1.349
846.0757,-0.01448677,0.0004090652,NaN,-0.8382381,0.0003818051,NaN,-1.564201,-14.61382,NaN,-1.75066,-1.479744,0.01543817,14.11619,NaN,NaN,-0.1226909,0.8127141,-1.962548E-07,1.064381,2.864524E-08,1.349
846.0898,-0.01448935,0.0004092337,NaN,-0.837606,0.0003827523,NaN,-1.564329,-14.61329,NaN,-1.746681,-1.467503,0.01018195,14.10319,NaN,NaN,-0.1231313,0.8129748,-1.915283E-07,1.046559,2.864524E-08,1.341571
846.1054,-0.01449235,0.0004097878,NaN,-0.8368984,0.0003826831,NaN,-1.564597,-14.61321,NaN,-1.742143,-1.478877,0.003462603,14.11519,NaN,NaN,-0.1236925,0.8134401,-1.837145E-07,1.063092,3.102943E-08,1.345446
846.1201,-0.01449574,0.0004101196,NaN,-0.8361476,0.0003825615,NaN,-1.56478,-14.61492,NaN,-1.737366,-1.477071,-0.00311183,14.11347,NaN,NaN,-0.1242427,0.8116828,-1.775492E-07,1.060516,2.864524E-08,1.352286
846.135,-0.01449574,0.0004101196,NaN,-0.8361476,0.0003825615,NaN,-1.56478,-14.61492,NaN,-1.737366,-1.477071,-0.00311183,14.11347,NaN,NaN,-0.1242427,0.8116828,-1.775492E-07,1.060516,2.864524E-08,1.352286
846.1492,-0.01449944,0.0004102023,NaN,-0.8353733,0.0003824747,NaN,-1.564919,-14.61321,NaN,-1.732506,-1.474367,-0.009543562,14.1104,NaN,NaN,-0.1247821,0.8133211,-1.707691E-07,1.056527,2.864524E-08,1.340751
846.1648,-0.01450339,0.0004101676,NaN,-0.8345881,0.0003829809,NaN,-1.565033,-14.61335,NaN,-1.727638,-1.468315,-0.01584154,14.10402,NaN,NaN,-0.1253109,0.8130103,-1.645106E-07,1.047727,3.102943E-08,1.340685
846.1795,-0.01450339,0.0004101676,NaN,-0.8345881,0.0003829809,NaN,-1.565033,-14.61335,NaN,-1.727638,-1.468315,-0.01584154,14.10402,NaN,NaN,-0.1253109,0.8130103,-1.645106E-07,1.047727,3.102943E-08,1.340685
846.1938,-0.01450774,0.000410672,NaN,-0.8337303,0.000382769,NaN,-1.565265,-14.61347,NaN,-1.722228,-1.479685,-0.02357652,14.11604,NaN,NaN,-0.1259588,0.8132587,-1.5367E-07,1.064266,3.341361E-08,1.34496
846.2106,-0.01451247,0.0004107727,NaN,-0.8328315,0.0003832972,NaN,-1.565419,-14.61332,NaN,-1.716593,-1.469451,-0.03114505,14.1052,NaN,NaN,-0.126594,0.8131876,-1.439098E-07,1.049369,3.57978E-08,1.34098
846.224,-0.0145175,0.0004105073,NaN,-0.8319114,0.0003835739,NaN,-1.56553,-14.61365,NaN,-1.710887,-1.467734,-0.03855228,14.10342,NaN,NaN,-0.1272167,0.8128101,-1.349691E-07,1.046884,3.341361E-08,1.342455
846.2386,-0.0145175,0.0004105073,NaN,-0.8319114,0.0003835739,NaN,-1.56553,-14.61365,NaN,-1.710887,-1.467734,-0.03855228,14.10342,NaN,NaN,-0.1272167,0.8128101,-1.349691E-07,1.046884,3.341361E-08,1.342455
846.2548,-0.014523,0.000410075,NaN,-0.8309131,0.000383845,NaN,-1.565733,-14.61381,NaN,-1.704613,-1.466851,-0.04736663,14.1025,NaN,NaN,-0.1279566,0.8126171,-1.193229E-07,1.045607,3.102943E-08,1.342691
846.2683,-0.01452891,0.0004097387,NaN,-0.8298708,0.0003841193,NaN,-1.565858,-14.61439,NaN,-1.698109,-1.468062,-0.05599154,14.10386,NaN,NaN,-0.128682,0.812079,-1.057628E-07,1.047393,3.818198E-08,1.34606
846.283,-0.01453516,0.000409696,NaN,-0.8288062,0.0003844545,NaN,-1.565941,-14.61469,NaN,-1.691535,-1.469654,-0.06443449,14.10557,NaN,NaN,-0.1293931,0.81183,-9.15322E-08,1.049718,3.341361E-08,1.348849
846.2976,-0.01453516,0.000409696,NaN,-0.8288062,0.0003844545,NaN,-1.565941,-14.61469,NaN,-1.691535,-1.469654,-0.06443449,14.10557,NaN,NaN,-0.1293931,0.81183,-9.15322E-08,1.049718,3.341361E-08,1.348849
846.3119,-0.01454166,0.0004094673,NaN,-0.8277324,0.0003839226,NaN,-1.565999,-14.61447,NaN,-1.684975,-1.476307,-0.07270371,14.11255,NaN,NaN,-0.1300903,0.8122506,-7.908973E-08,1.05937,2.864524E-08,1.348884
846.3275,-0.01454792,0.0004092176,NaN,-0.8266583,0.0003842392,NaN,-1.566039,-14.61373,NaN,-1.678468,-1.468389,-0.08080456,14.1041,NaN,NaN,-0.130773,0.8127775,-6.58277E-08,1.047835,2.864524E-08,1.343061
846.342,-0.01455406,0.0004092368,NaN,-0.8255888,0.0003843652,NaN,-1.566064,-14.61479,NaN,-1.672034,-1.472417,-0.08874146,14.10849,NaN,NaN,-0.1314422,0.811855,-5.219314E-08,1.053739,2.864524E-08,1.3498
846.3568,-0.01455406,0.0004092368,NaN,-0.8255888,0.0003843652,NaN,-1.566064,-14.61479,NaN,-1.672034,-1.472417,-0.08874146,14.10849,NaN,NaN,-0.1314422,0.811855,-5.219314E-08,1.053739,2.864524E-08,1.3498
846.3709,-0.01456013,0.0004096331,NaN,-0.8245268,0.0003839365,NaN,-1.566078,-14.61443,NaN,-1.665682,-1.48085,-0.09651823,14.11732,NaN,NaN,-0.1320984,0.8124449,-3.915462E-08,1.065973,2.387687E-08,1.351208
846.3867,-0.01456617,0.0004098063,NaN,-0.8234742,0.0003847277,NaN,-1.566082,-14.61404,NaN,-1.659417,-1.468433,-0.1041384,14.10417,NaN,NaN,-0.1327416,0.8125716,-2.626512E-08,1.047907,2.387687E-08,1.347139
846.4014,-0.01457198,0.0004103348,NaN,-0.8225015,0.0003845821,NaN,-1.566015,-14.61368,NaN,-1.653812,-1.479232,-0.1100641,14.11551,NaN,NaN,-0.133243,0.8132784,-2.104971E-08,1.063586,2.387687E-08,1.347344
846.4163,-0.01457198,0.0004103348,NaN,-0.8225015,0.0003845821,NaN,-1.566015,-14.61368,NaN,-1.653812,-1.479232,-0.1100641,14.11551,NaN,NaN,-0.133243,0.8132784,-2.104971E-08,1.063586,2.387687E-08,1.347344
846.4303,-0.01457754,0.0004111008,NaN,-0.8215824,0.0003843894,NaN,-1.565976,-14.61338,NaN,-1.648571,-1.481352,-0.115876,14.11771,NaN,NaN,-0.1337346,0.8135967,-1.374814E-08,1.06666,1.91085E-08,1.346245
846.4459,-0.01458289,0.0004113136,NaN,-0.8207006,0.0003842127,NaN,-1.565948,-14.61344,NaN,-1.643547,-1.475775,-0.1215744,14.11181,NaN,NaN,-0.1342165,0.8134121,-5.701514E-09,1.058542,1.91085E-08,1.345452
846.4607,-0.01458806,0.0004112847,NaN,-0.8198456,0.0003845761,NaN,-1.565922,-14.61388,NaN,-1.638668,-1.469031,-0.1271599,14.10472,NaN,NaN,-0.134689,0.8127829,3.239182E-09,1.048741,1.91085E-08,1.343969
846.4755,-0.01458806,0.0004112847,NaN,-0.8198456,0.0003845761,NaN,-1.565922,-14.61388,NaN,-1.638668,-1.469031,-0.1271599,14.10472,NaN,NaN,-0.134689,0.8127829,3.239182E-09,1.048741,1.91085E-08,1.343969
846.4915,-0.0145929,0.0004113668,NaN,-0.8190804,0.0003839641,NaN,-1.565853,-14.61322,NaN,-1.63447,-1.480078,-0.1311006,14.11628,NaN,NaN,-0.1350229,0.8137934,1.749066E-09,1.064768,2.149269E-08,1.343159
846.5048,-0.01459739,0.0004113904,NaN,-0.8183739,0.0003845574,NaN,-1.565807,-14.61356,NaN,-1.630636,-1.469078,-0.1349651,14.10467,NaN,NaN,-0.1353503,0.8132085,3.98424E-09,1.048761,2.626106E-08,1.346335
846.5196,-0.01459739,0.0004113904,NaN,-0.8183739,0.0003845574,NaN,-1.565807,-14.61356,NaN,-1.630636,-1.469078,-0.1349651,14.10467,NaN,NaN,-0.1353503,0.8132085,3.98424E-09,1.048761,2.626106E-08,1.346335
846.5337,-0.01460161,0.0004113017,NaN,-0.8177069,0.0003849998,NaN,-1.565772,-14.61368,NaN,-1.62701,-1.467818,-0.1387537,14.10335,NaN,NaN,-0.1356713,0.8130428,7.113484E-09,1.04693,1.91085E-08,1.34318
846.5492,-0.0146054,0.0004109566,NaN,-0.8171366,0.0003852779,NaN,-1.565709,-14.6134,NaN,-1.624088,-1.466858,-0.1409377,14.10229,NaN,NaN,-0.1358567,0.8132867,4.079617E-10,1.045516,1.434013E-08,1.339581
846.5639,-0.01460878,0.000410107,NaN,-0.8166284,0.0003850657,NaN,-1.565665,-14.61383,NaN,-1.621531,-1.46669,-0.1430786,14.10216,NaN,NaN,-0.1360385,0.8128479,-2.721282E-09,1.045292,1.434013E-08,1.342924
846.5787,-0.01460878,0.000410107,NaN,-0.8166284,0.0003850657,NaN,-1.565665,-14.61383,NaN,-1.621531,-1.46669,-0.1430786,14.10216,NaN,NaN,-0.1360385,0.8128479,-2.721282E-09,1.045292,1.434013E-08,1.342924
846.593,-0.01461183,0.0004097584,NaN,-0.8161609,0.0003849826,NaN,-1.56563,-14.61492,NaN,-1.619175,-1.471991,-0.1451772,14.10791,NaN,NaN,-0.1362168,0.8119377,-4.211398E-09,1.053051,1.434013E-08,1.350222
846.6083,-0.01461463,0.0004100724,NaN,-0.8157205,0.0003847071,NaN,-1.565599,-14.61486,NaN,-1.616937,-1.479064,-0.1472341,14.11535,NaN,NaN,-0.1363915,0.812203,-4.211398E-09,1.063321,1.434013E-08,1.352031
846.6232,-0.01461703,0.0004102088,NaN,-0.8153682,0.0003855104,NaN,-1.565548,-14.61372,NaN,-1.615348,-1.467919,-0.1477238,14.10345,NaN,NaN,-0.1364336,0.8130893,-1.508925E-08,1.047083,1.195594E-08,1.343199
846.638,-0.01461703,0.0004102088,NaN,-0.8153682,0.0003855104,NaN,-1.565548,-14.61372,NaN,-1.615348,-1.467919,-0.1477238,14.10345,NaN,NaN,-0.1364336,0.8130893,-1.508925E-08,1.047083,1.195594E-08,1.343199
846.6522,-0.01461906,0.0004100317,NaN,-0.8150718,0.000385877,NaN,-1.565509,-14.61359,NaN,-1.614087,-1.467237,-0.1482022,14.10271,NaN,NaN,-0.1364748,0.8131832,-2.239081E-08,1.046084,1.434013E-08,1.341028
846.6689,-0.01462077,0.0004102946,NaN,-0.8148112,0.0003854998,NaN,-1.565477,-14.61336,NaN,-1.612998,-1.478847,-0.1486702,14.11493,NaN,NaN,-0.1365153,0.8138096,-2.820227E-08,1.062956,1.672431E-08,1.344608
846.6824,-0.01462226,0.0004101668,NaN,-0.8145739,0.0003854521,NaN,-1.565447,-14.61333,NaN,-1.612004,-1.470518,-0.1491285,14.10611,NaN,NaN,-0.1365549,0.813642,-3.311965E-08,1.050827,1.672431E-08,1.342048
846.6973,-0.01462226,0.0004101668,NaN,-0.8145739,0.0003854521,NaN,-1.565447,-14.61333,NaN,-1.612004,-1.470518,-0.1491285,14.10611,NaN,NaN,-0.1365549,0.813642,-3.311965E-08,1.050827,1.672431E-08,1.342048
846.7111,-0.01462336,0.0004103854,NaN,-0.8144214,0.0003848057,NaN,-1.565402,-14.61422,NaN,-1.611639,-1.480445,-0.1480522,14.11672,NaN,NaN,-0.1364646,0.8130674,-4.92129E-08,1.06531,1.672431E-08,1.349309
846.7288,-0.01462422,0.0004104346,NaN,-0.8143218,0.0003853178,NaN,-1.565365,-14.61329,NaN,-1.611582,-1.469369,-0.1469943,14.1049,NaN,NaN,-0.136376,0.8137547,-5.979273E-08,1.049165,1.434013E-08,1.340427
846.7421,-0.01462495,0.0004101411,NaN,-0.8142554,0.0003855729,NaN,-1.565332,-14.61334,NaN,-1.61168,-1.467722,-0.1459557,14.10315,NaN,NaN,-0.1362891,0.8136429,-6.962749E-08,1.046766,1.672431E-08,1.340409
846.7562,-0.01462495,0.0004101411,NaN,-0.8142554,0.0003855729,NaN,-1.565332,-14.61334,NaN,-1.61168,-1.467722,-0.1459557,14.10315,NaN,NaN,-0.1362891,0.8136429,-6.962749E-08,1.046766,1.672431E-08,1.340409
846.7703,-0.01462546,0.0004096831,NaN,-0.8142775,0.0003858119,NaN,-1.565283,-14.61359,NaN,-1.612428,-1.467235,-0.143411,14.10266,NaN,NaN,-0.1360747,0.8133753,-8.76579E-08,1.046065,1.434013E-08,1.341121
846.7858,-0.01462585,0.0004101213,NaN,-0.8143541,0.0003855354,NaN,-1.565241,-14.61402,NaN,-1.613489,-1.479694,-0.1409127,14.11588,NaN,NaN,-0.1358645,0.8133681,-1.02261E-07,1.064208,9.571758E-09,1.346576
846.8007,-0.01462615,0.0004103139,NaN,-0.8144641,0.0003863054,NaN,-1.565201,-14.61438,NaN,-1.614696,-1.468592,-0.1384614,14.10418,NaN,NaN,-0.1356584,0.8127739,-1.138839E-07,1.04806,9.571758E-09,1.347602
846.8155,-0.01462615,0.0004103139,NaN,-0.8144641,0.0003863054,NaN,-1.565201,-14.61438,NaN,-1.614696,-1.468592,-0.1384614,14.10418,NaN,NaN,-0.1356584,0.8127739,-1.138839E-07,1.04806,9.571758E-09,1.347602
846.8296,-0.01462641,0.0004102623,NaN,-0.8145941,0.0003866094,NaN,-1.565162,-14.61366,NaN,-1.615969,-1.469028,-0.1360568,14.10453,NaN,NaN,-0.1354563,0.8134937,-1.244638E-07,1.048658,9.571758E-09,1.338956
846.8455,-0.01462649,0.0004099985,NaN,-0.8148053,0.0003867178,NaN,-1.565101,-14.61347,NaN,-1.617839,-1.469038,-0.1321709,14.10451,NaN,NaN,-0.1351289,0.8136781,-1.436863E-07,1.048661,9.571758E-09,1.337675
846.8602,-0.01462646,0.0004095023,NaN,-0.8150655,0.0003868581,NaN,-1.565045,-14.6134,NaN,-1.619986,-1.466993,-0.1283576,14.10233,NaN,NaN,-0.134808,0.8136815,-1.59258E-07,1.045679,9.571758E-09,1.337282
846.8749,-0.01462646,0.0004095023,NaN,-0.8150655,0.0003868581,NaN,-1.565045,-14.6134,NaN,-1.619986,-1.466993,-0.1283576,14.10233,NaN,NaN,-0.134808,0.8136815,-1.59258E-07,1.045679,9.571758E-09,1.337282
846.8889,-0.01462635,0.000408908,NaN,-0.8153549,0.0003868233,NaN,-1.564991,-14.61372,NaN,-1.622255,-1.468158,-0.1246168,14.1036,NaN,NaN,-0.1344933,0.8133993,-1.727435E-07,1.047387,7.187572E-09,1.339018
846.9045,-0.0146262,0.0004087713,NaN,-0.815661,0.000387179,NaN,-1.564936,-14.61418,NaN,-1.624569,-1.468799,-0.1209477,14.10433,NaN,NaN,-0.1341848,0.8129534,-1.851115E-07,1.048341,4.803386E-09,1.342989
846.9192,-0.0146262,0.0004087713,NaN,-0.815661,0.000387179,NaN,-1.564936,-14.61418,NaN,-1.624569,-1.468799,-0.1209477,14.10433,NaN,NaN,-0.1341848,0.8129534,-1.851115E-07,1.048341,4.803386E-09,1.342989
846.9334,-0.01462588,0.0004082265,NaN,-0.8160452,0.0003872339,NaN,-1.564851,-14.6133,NaN,-1.627462,-1.466905,-0.1158179,14.1022,NaN,NaN,-0.133753,0.8137626,-2.057496E-07,1.045542,2.4192E-09,1.337557
846.949,-0.01462544,0.0004082987,NaN,-0.816476,0.000386645,NaN,-1.564772,-14.6138,NaN,-1.630615,-1.479229,-0.1107854,14.1153,NaN,NaN,-0.1333298,0.8136905,-2.229604E-07,1.063501,4.803386E-09,1.344498
846.9647,-0.01462493,0.0004089513,NaN,-0.8169336,0.0003864805,NaN,-1.564694,-14.61468,NaN,-1.633875,-1.479717,-0.1058491,14.11591,NaN,NaN,-0.1329148,0.8128158,-2.36893E-07,1.064237,-2.349171E-09,1.34804
846.9784,-0.01462493,0.0004089513,NaN,-0.8169336,0.0003864805,NaN,-1.564694,-14.61468,NaN,-1.633875,-1.479717,-0.1058491,14.11591,NaN,NaN,-0.1329148,0.8128158,-2.36893E-07,1.064237,-2.349171E-09,1.34804
846.9927,-0.01462423,0.0004093132,NaN,-0.817475,0.0003866052,NaN,-1.564576,-14.61307,NaN,-1.637738,-1.475327,-0.09947236,14.11108,NaN,NaN,-0.1323786,0.8143109,-2.575311E-07,1.057797,-2.349171E-09,1.337555
847.0078,-0.01462341,0.000409362,NaN,-0.8180657,0.0003871858,NaN,-1.564465,-14.61321,NaN,-1.641866,-1.468237,-0.09321721,14.10358,NaN,NaN,-0.131853,0.8139755,-2.742949E-07,1.047472,-4.733357E-09,1.336983
847.0226,-0.0146225,0.000409077,NaN,-0.8186841,0.0003875273,NaN,-1.564355,-14.61325,NaN,-1.646096,-1.466885,-0.08708179,14.10214,NaN,NaN,-0.1313376,0.81388,-2.877805E-07,1.045502,3.501466E-11,1.336465
847.0374,-0.0146225,0.000409077,NaN,-0.8186841,0.0003875273,NaN,-1.564355,-14.61325,NaN,-1.646096,-1.466885,-0.08708179,14.10214,NaN,NaN,-0.1313376,0.81388,-2.877805E-07,1.045502,3.501466E-11,1.336465
847.0516,-0.01462154,0.0004087203,NaN,-0.8193169,0.0003879228,NaN,-1.564244,-14.61342,NaN,-1.650347,-1.466139,-0.08106396,14.10137,NaN,NaN,-0.1308323,0.8136775,-2.997759E-07,1.044421,3.501466E-11,1.337463
847.0671,-0.01462041,0.0004082322,NaN,-0.820025,0.0003882449,NaN,-1.564075,-14.61344,NaN,-1.655151,-1.46595,-0.07362001,14.10116,NaN,NaN,-0.1302077,0.8136428,-3.175828E-07,1.044143,4.803386E-09,1.337034
847.082,-0.01461907,0.0004076184,NaN,-0.8207763,0.0003885926,NaN,-1.563918,-14.61314,NaN,-1.660188,-1.465753,-0.0663195,14.1009,NaN,NaN,-0.1295953,0.813925,-3.311801E-07,1.043838,3.501466E-11,1.33447
847.0969,-0.01461907,0.0004076184,NaN,-0.8207763,0.0003885926,NaN,-1.563918,-14.61314,NaN,-1.660188,-1.465753,-0.0663195,14.1009,NaN,NaN,-0.1295953,0.813925,-3.311801E-07,1.043838,3.501466E-11,1.33447
847.1108,-0.01461748,0.0004064594,NaN,-0.8215511,0.000388279,NaN,-1.563763,-14.61378,NaN,-1.665305,-1.465612,-0.05915947,14.10084,NaN,NaN,-0.1289948,0.8132853,-3.429148E-07,1.043664,-2.349171E-09,1.337469
847.1276,-0.01461571,0.0004054821,NaN,-0.8223368,0.0003883563,NaN,-1.563607,-14.6138,NaN,-1.670426,-1.465685,-0.05213685,14.10091,NaN,NaN,-0.1284062,0.8132548,-3.530476E-07,1.043769,-4.733357E-09,1.338394
847.1412,-0.01461358,0.0004054352,NaN,-0.823195,0.0003881206,NaN,-1.563373,-14.61495,NaN,-1.676084,-1.476508,-0.04369946,14.1125,NaN,NaN,-0.1276997,0.8124954,-3.686193E-07,1.059567,3.501466E-11,1.349043
847.1561,-0.01461358,0.0004054352,NaN,-0.823195,0.0003881206,NaN,-1.563373,-14.61495,NaN,-1.676084,-1.476508,-0.04369946,14.1125,NaN,NaN,-0.1276997,0.8124954,-3.686193E-07,1.059567,3.501466E-11,1.349043
847.1701,-0.0146111,0.000405838,NaN,-0.8240941,0.0003876106,NaN,-1.563157,-14.61398,NaN,-1.681962,-1.481132,-0.0354261,14.11726,NaN,NaN,-0.1270072,0.8135648,-3.791246E-07,1.066252,3.501466E-11,1.34519
847.1855,-0.01460834,0.0004064349,NaN,-0.8250145,0.0003878959,NaN,-1.562947,-14.61347,NaN,-1.687908,-1.477447,-0.02731277,14.11329,NaN,NaN,-0.1263281,0.8139936,-3.878791E-07,1.060867,-2.349171E-09,1.341319
847.2013,-0.01460537,0.0004064378,NaN,-0.8259438,0.0003884714,NaN,-1.562735,-14.61332,NaN,-1.693844,-1.467199,-0.01935535,14.10241,NaN,NaN,-0.1256624,0.8138876,-3.944915E-07,1.045936,2.4192E-09,1.336376
847.2153,-0.01460537,0.0004064378,NaN,-0.8259438,0.0003884714,NaN,-1.562735,-14.61332,NaN,-1.693844,-1.467199,-0.01935535,14.10241,NaN,NaN,-0.1256624,0.8138876,-3.944915E-07,1.045936,2.4192E-09,1.336376
847.2293,-0.01460204,0.0004069186,NaN,-0.8269437,0.0003885264,NaN,-1.562422,-14.61452,NaN,-1.700307,-1.478781,-0.009992299,14.11483,NaN,NaN,-0.1248805,0.8130845,-4.045497E-07,1.062849,4.803386E-09,1.346518
847.2447,-0.01459836,0.0004070692,NaN,-0.8279828,0.0003895092,NaN,-1.562135,-14.6143,NaN,-1.706978,-1.466946,-0.00081247,14.10228,NaN,NaN,-0.1241138,0.8130295,-4.120841E-07,1.045617,4.803386E-09,1.345606
847.2594,-0.01459836,0.0004070692,NaN,-0.8279828,0.0003895092,NaN,-1.562135,-14.6143,NaN,-1.706978,-1.466946,-0.00081247,14.10228,NaN,NaN,-0.1241138,0.8130295,-4.120841E-07,1.045617,4.803386E-09,1.345606
847.2737,-0.0145944,0.0004071348,NaN,-0.8290414,0.0003901868,NaN,-1.561857,-14.61356,NaN,-1.713705,-1.467439,0.0081886,14.10268,NaN,NaN,-0.1233622,0.8137745,-4.17324E-07,1.046292,1.195594E-08,1.341396
847.2891,-0.01459262,0.0004068669,NaN,-0.8292758,0.0003905746,NaN,-1.563044,-14.61378,NaN,-1.713527,-1.46578,-0.001765916,14.10095,NaN,NaN,-0.1241769,0.813493,-3.79936E-07,1.043885,9.571758E-09,1.337759
847.3038,-0.01459277,0.0004066443,NaN,-0.8290021,0.0003909537,NaN,-1.563655,-14.61447,NaN,-1.710001,-1.466688,-0.01142756,14.102,NaN,NaN,-0.1249757,0.812828,-3.553864E-07,1.04524,1.195594E-08,1.342099
847.3187,-0.01459277,0.0004066443,NaN,-0.8290021,0.0003909537,NaN,-1.563655,-14.61447,NaN,-1.710001,-1.466688,-0.01142756,14.102,NaN,NaN,-0.1249757,0.812828,-3.553864E-07,1.04524,1.195594E-08,1.342099
847.3329,-0.0145939,0.0004069814,NaN,-0.8284161,0.0003906622,NaN,-1.563995,-14.61457,NaN,-1.704844,-1.478799,-0.02081631,14.1148,NaN,NaN,-0.1257587,0.8131378,-3.343385E-07,1.06285,9.571758E-09,1.347449
847.3484,-0.01459585,0.0004071977,NaN,-0.8276399,0.0003914993,NaN,-1.564203,-14.61357,NaN,-1.698908,-1.468573,-0.02998066,14.10386,NaN,NaN,-0.1265263,0.8138779,-3.1452E-07,1.047938,9.571758E-09,1.336139
847.3633,-0.01459849,0.0004071559,NaN,-0.8268191,0.0003919538,NaN,-1.564238,-14.61385,NaN,-1.693194,-1.467603,-0.03738615,14.10287,NaN,NaN,-0.1271495,0.8135561,-3.02599E-07,1.046537,7.187573E-09,1.338952
847.3781,-0.01459849,0.0004071559,NaN,-0.8268191,0.0003919538,NaN,-1.564238,-14.61385,NaN,-1.693194,-1.467603,-0.03738615,14.10287,NaN,NaN,-0.1271495,0.8135561,-3.02599E-07,1.046537,7.187573E-09,1.338952
847.3923,-0.01460162,0.0004074509,NaN,-0.8259745,0.0003915351,NaN,-1.564291,-14.61401,NaN,-1.68762,-1.47964,-0.0446458,14.11561,NaN,NaN,-0.1277606,0.8137946,-2.906781E-07,1.064057,4.803387E-09,1.344227
847.4074,-0.0146051,0.0004075491,NaN,-0.8251189,0.0003918026,NaN,-1.564346,-14.61496,NaN,-1.682151,-1.471305,-0.05176285,14.10689,NaN,NaN,-0.1283596,0.8126422,-2.780121E-07,1.05195,2.419201E-09,1.346492
847.4222,-0.01460882,0.0004070782,NaN,-0.8242604,0.00039175,NaN,-1.564396,-14.61431,NaN,-1.676771,-1.467472,-0.05873835,14.10275,NaN,NaN,-0.1289469,0.8131616,-2.651971E-07,1.046345,9.571758E-09,1.342369
847.438,-0.01460882,0.0004070782,NaN,-0.8242604,0.00039175,NaN,-1.564396,-14.61431,NaN,-1.676771,-1.467472,-0.05873835,14.10275,NaN,NaN,-0.1289469,0.8131616,-2.651971E-07,1.046345,9.571758E-09,1.342369
847.452,-0.01461254,0.0004064531,NaN,-0.8234732,0.0003917409,NaN,-1.564359,-14.61424,NaN,-1.672046,-1.466799,-0.06402419,14.10202,NaN,NaN,-0.1293934,0.8131987,-2.591621E-07,1.04536,7.187573E-09,1.340188
847.4664,-0.01461614,0.0004068069,NaN,-0.8227336,0.0003913309,NaN,-1.564358,-14.61443,NaN,-1.667673,-1.479239,-0.06921208,14.11518,NaN,NaN,-0.1298311,0.8134326,-2.520841E-07,1.063459,7.187573E-09,1.345428
847.4814,-0.01461962,0.0004070192,NaN,-0.8220266,0.0003903115,NaN,-1.564371,-14.61398,NaN,-1.663507,-1.482006,-0.07430073,14.11805,NaN,NaN,-0.1302602,0.8139228,-2.441865E-07,1.06747,9.571758E-09,1.343773
847.496,-0.01461962,0.0004070192,NaN,-0.8220266,0.0003903115,NaN,-1.564371,-14.61398,NaN,-1.663507,-1.482006,-0.07430073,14.11805,NaN,NaN,-0.1302602,0.8139228,-2.441865E-07,1.06747,9.571758E-09,1.343773
