JMolnar6/NonAnthroHands_User_Study/HandsLoggerWithURDF/tempdata/files/Reachy_PID0_JointMotion_gesture_8_37.csv
Time,r_shoulder,r_shoulder_x,r_upper_arm,r_forearm,r_wrist,r_wrist2hand,
500.5186,0.04489354,-1.112787E-08,NaN,-0.3290273,-1.343549E-07,NaN,0.3563883,-2.490763E-09,NaN,-0.5162771,1.527586E-05,-0.3580982,3.025998E-08,NaN,NaN,-0.02004036,5.122189E-11,-3.301176E-07,-1.123544E-07,-1.746827E-08,-2.622604E-08
500.5332,0.04489397,-1.112704E-08,NaN,-0.3290054,-1.343545E-07,NaN,0.3577275,-2.492223E-09,NaN,-0.5175348,1.527637E-05,-0.3585109,3.02632E-08,NaN,NaN,-0.0200431,5.58785E-11,-3.536614E-07,-1.12353E-07,-2.223664E-08,-2.861022E-08
500.5476,0.04489439,-1.112621E-08,NaN,-0.3289838,-1.343541E-07,NaN,0.3590423,-2.493533E-09,NaN,-0.5194898,1.52769E-05,-0.3589328,3.026627E-08,NaN,NaN,-0.02004442,4.656527E-11,-3.654334E-07,-1.123515E-07,-2.462083E-08,-2.622604E-08
500.562,0.04489481,-1.112538E-08,NaN,-0.3289624,-1.343537E-07,NaN,0.3603022,-2.491875E-09,NaN,-0.5217581,1.527741E-05,-0.3593135,3.026637E-08,NaN,NaN,-0.02004514,5.122188E-11,-3.73182E-07,-1.123501E-07,-1.985246E-08,-2.861022E-08
500.5767,0.04489481,-1.112538E-08,NaN,-0.3289624,-1.343537E-07,NaN,0.3603022,-2.491875E-09,NaN,-0.5217581,1.527741E-05,-0.3593135,3.026637E-08,NaN,NaN,-0.02004514,5.122188E-11,-3.73182E-07,-1.123501E-07,-1.985246E-08,-2.861022E-08
500.5907,0.04489524,-1.112454E-08,NaN,-0.3289413,-1.343533E-07,NaN,0.3615181,-2.490129E-09,NaN,-0.5241561,1.527794E-05,-0.3596545,3.026638E-08,NaN,NaN,-0.02004561,4.190866E-11,-3.794405E-07,-1.123487E-07,-2.223664E-08,-2.622604E-08
500.6061,0.04489564,-1.112371E-08,NaN,-0.3289204,-1.343529E-07,NaN,0.3625652,-2.485473E-09,NaN,-0.5253658,1.527845E-05,-0.3597784,3.026348E-08,NaN,NaN,-0.02004271,4.656527E-11,-3.547046E-07,-1.123472E-07,-2.462083E-08,-2.861022E-08
500.6208,0.04489604,-1.112288E-08,NaN,-0.3288998,-1.343524E-07,NaN,0.363606,-2.525525E-09,NaN,-0.5258774,1.527897E-05,-0.3598727,3.030529E-08,NaN,NaN,-0.02004115,4.656527E-11,-3.411445E-07,-1.123476E-07,-2.462083E-08,-2.861022E-08
500.6354,0.04489604,-1.112288E-08,NaN,-0.3288998,-1.343524E-07,NaN,0.363606,-2.525525E-09,NaN,-0.5258774,1.527897E-05,-0.3598727,3.030529E-08,NaN,NaN,-0.02004115,4.656527E-11,-3.411445E-07,-1.123476E-07,-2.462083E-08,-2.861022E-08
500.6497,0.04489645,-1.112205E-08,NaN,-0.3288794,-1.343523E-07,NaN,0.3646753,-2.457543E-09,NaN,-0.526055,1.527948E-05,-0.3599931,3.023906E-08,NaN,NaN,-0.02004013,5.58785E-11,-3.330979E-07,-1.123482E-07,-2.462083E-08,-2.861022E-08
500.6648,0.04489685,-1.112121E-08,NaN,-0.3288593,-1.343524E-07,NaN,0.3657652,-2.331569E-09,NaN,-0.5260728,1.527999E-05,-0.3601416,3.011484E-08,NaN,NaN,-0.02003931,6.984834E-11,-3.262434E-07,-1.123491E-07,-2.462083E-08,-2.861022E-08
500.6797,0.04489685,-1.112121E-08,NaN,-0.3288593,-1.343524E-07,NaN,0.3657652,-2.331569E-09,NaN,-0.5260728,1.527999E-05,-0.3601416,3.011484E-08,NaN,NaN,-0.02003931,6.984834E-11,-3.262434E-07,-1.123491E-07,-2.462083E-08,-2.861022E-08
500.6934,0.04489724,-1.112038E-08,NaN,-0.3288394,-1.343527E-07,NaN,0.3667236,-2.174114E-09,NaN,-0.5247844,1.52805E-05,-0.3601214,2.995914E-08,NaN,NaN,-0.02003535,8.381817E-11,-2.925667E-07,-1.1235E-07,-2.462083E-08,-2.861022E-08
500.709,0.04489763,-1.111955E-08,NaN,-0.3288197,-1.34353E-07,NaN,0.3676915,-2.002719E-09,NaN,-0.5227626,1.528102E-05,-0.3601006,2.978949E-08,NaN,NaN,-0.02003281,8.847479E-11,-2.7096E-07,-1.12351E-07,-2.223664E-08,-2.861022E-08
500.7276,0.04489802,-1.111871E-08,NaN,-0.3288003,-1.343535E-07,NaN,0.3686932,-1.823289E-09,NaN,-0.5204107,1.528153E-05,-0.3601236,2.96118E-08,NaN,NaN,-0.02003086,9.313141E-11,-2.548668E-07,-1.12352E-07,-1.746827E-08,-2.861022E-08
500.7393,0.04489802,-1.111871E-08,NaN,-0.3288003,-1.343535E-07,NaN,0.3686932,-1.823289E-09,NaN,-0.5204107,1.528153E-05,-0.3601236,2.96118E-08,NaN,NaN,-0.02003086,9.313141E-11,-2.548668E-07,-1.12352E-07,-1.746827E-08,-2.861022E-08
500.7539,0.0448984,-1.111788E-08,NaN,-0.3287811,-1.343539E-07,NaN,0.3695751,-1.568318E-09,NaN,-0.5166915,1.528204E-05,-0.3599968,2.935857E-08,NaN,NaN,-0.02002584,1.071012E-10,-2.135906E-07,-1.123531E-07,-1.985246E-08,-2.861022E-08
500.7684,0.04489878,-1.111704E-08,NaN,-0.3287621,-1.343543E-07,NaN,0.3704724,-1.309768E-09,NaN,-0.5122299,1.528256E-05,-0.3598835,2.910176E-08,NaN,NaN,-0.02002233,1.117579E-10,-1.849803E-07,-1.123542E-07,-2.223664E-08,-2.861022E-08
500.782,0.04489916,-1.111621E-08,NaN,-0.3287434,-1.343548E-07,NaN,0.3714061,-1.05335E-09,NaN,-0.507454,1.528307E-05,-0.3598245,2.884708E-08,NaN,NaN,-0.02001943,1.164145E-10,-1.612875E-07,-1.123554E-07,-1.985246E-08,-2.861022E-08
500.7966,0.04489916,-1.111621E-08,NaN,-0.3287434,-1.343548E-07,NaN,0.3714061,-1.05335E-09,NaN,-0.507454,1.528307E-05,-0.3598245,2.884708E-08,NaN,NaN,-0.02001943,1.164145E-10,-1.612875E-07,-1.123554E-07,-1.985246E-08,-2.861022E-08
500.8103,0.04489954,-1.111538E-08,NaN,-0.3287249,-1.343553E-07,NaN,0.3723612,-8.018424E-10,NaN,-0.5025685,1.528359E-05,-0.3598128,2.85973E-08,NaN,NaN,-0.02001681,1.210711E-10,-1.407239E-07,-1.123565E-07,-2.462083E-08,-2.861022E-08
500.8253,0.04489991,-1.111454E-08,NaN,-0.3287066,-1.343558E-07,NaN,0.3731752,-5.551476E-10,NaN,-0.4964411,1.528411E-05,-0.3596402,2.835234E-08,NaN,NaN,-0.02001074,1.257277E-10,-9.304017E-08,-1.123576E-07,-2.462083E-08,-2.861022E-08
500.8402,0.04490028,-1.111371E-08,NaN,-0.3286885,-1.343563E-07,NaN,0.3739905,-3.131709E-10,NaN,-0.4896503,1.528462E-05,-0.359473,2.81121E-08,NaN,NaN,-0.0200062,1.303843E-10,-5.697936E-08,-1.123587E-07,-2.462083E-08,-2.861022E-08
500.8546,0.04490028,-1.111371E-08,NaN,-0.3286885,-1.343563E-07,NaN,0.3739905,-3.131709E-10,NaN,-0.4896503,1.528462E-05,-0.359473,2.81121E-08,NaN,NaN,-0.0200062,1.303843E-10,-5.697936E-08,-1.123587E-07,-2.462083E-08,-2.861022E-08
500.8687,0.04490065,-1.111287E-08,NaN,-0.3286707,-1.343567E-07,NaN,0.3748352,-7.581605E-11,NaN,-0.482602,1.528514E-05,-0.3593567,2.787647E-08,NaN,NaN,-0.02000229,1.350409E-10,-2.673001E-08,-1.123599E-07,-1.985246E-08,-2.861022E-08
500.8839,0.04490102,-1.111204E-08,NaN,-0.328653,-1.343572E-07,NaN,0.3756985,1.570061E-10,NaN,-0.4754896,1.528566E-05,-0.3592876,2.764538E-08,NaN,NaN,-0.01999862,1.396975E-10,-1.100011E-09,-1.12361E-07,-1.508409E-08,-2.861022E-08
500.8987,0.04490102,-1.111204E-08,NaN,-0.328653,-1.343572E-07,NaN,0.3756985,1.570061E-10,NaN,-0.4754896,1.528566E-05,-0.3592876,2.764538E-08,NaN,NaN,-0.01999862,1.396975E-10,-1.100011E-09,-1.12361E-07,-1.508409E-08,-2.861022E-08
500.9126,0.04490139,-1.111121E-08,NaN,-0.3286356,-1.343577E-07,NaN,0.3765479,3.853859E-10,NaN,-0.4682606,1.528617E-05,-0.3592294,2.741874E-08,NaN,NaN,-0.01999458,1.443541E-10,2.691417E-08,-1.123621E-07,-1.26999E-08,-2.861022E-08
500.9281,0.04490175,-1.111037E-08,NaN,-0.3286184,-1.343582E-07,NaN,0.3773923,6.065835E-10,NaN,-0.4610209,1.528669E-05,-0.3591928,2.719927E-08,NaN,NaN,-0.01999076,1.490107E-10,5.403428E-08,-1.123632E-07,-1.26999E-08,-2.861022E-08
500.9425,0.04490212,-1.110954E-08,NaN,-0.3286014,-1.343587E-07,NaN,0.3782308,8.235662E-10,NaN,-0.4538357,1.528721E-05,-0.3591776,2.698401E-08,NaN,NaN,-0.01998702,1.536673E-10,7.86212E-08,-1.123643E-07,-1.26999E-08,-2.861022E-08
500.9572,0.04490212,-1.110954E-08,NaN,-0.3286014,-1.343587E-07,NaN,0.3782308,8.235662E-10,NaN,-0.4538357,1.528721E-05,-0.3591776,2.698401E-08,NaN,NaN,-0.01998702,1.536673E-10,7.86212E-08,-1.123643E-07,-1.26999E-08,-2.861022E-08
500.9714,0.04490249,-1.11087E-08,NaN,-0.3285846,-1.343592E-07,NaN,0.37906,1.036417E-09,NaN,-0.4467352,1.528772E-05,-0.3591797,2.677289E-08,NaN,NaN,-0.0199833,1.58324E-10,1.01867E-07,-1.123655E-07,-1.26999E-08,-2.861022E-08
500.9866,0.04490285,-1.110787E-08,NaN,-0.3285681,-1.343596E-07,NaN,0.3798779,1.242391E-09,NaN,-0.4397333,1.528824E-05,-0.3591955,2.656865E-08,NaN,NaN,-0.01997958,1.629806E-10,1.239207E-07,-1.123666E-07,-1.508409E-08,-2.861022E-08
501.0015,0.04490322,-1.110704E-08,NaN,-0.3285517,-1.343601E-07,NaN,0.3806832,1.444453E-09,NaN,-0.4328356,1.528876E-05,-0.3592227,2.636831E-08,NaN,NaN,-0.01997583,1.676372E-10,1.453784E-07,-1.123677E-07,-1.508409E-08,-2.861022E-08
501.0161,0.04490322,-1.110704E-08,NaN,-0.3285517,-1.343601E-07,NaN,0.3806832,1.444453E-09,NaN,-0.4328356,1.528876E-05,-0.3592227,2.636831E-08,NaN,NaN,-0.01997583,1.676372E-10,1.453784E-07,-1.123677E-07,-1.508409E-08,-2.861022E-08
501.0319,0.04490358,-1.11062E-08,NaN,-0.3285355,-1.343606E-07,NaN,0.3814757,1.639847E-09,NaN,-0.4260439,1.528927E-05,-0.3592599,2.617465E-08,NaN,NaN,-0.01997206,1.722938E-10,1.66538E-07,-1.123688E-07,-1.985246E-08,-2.861022E-08
501.0463,0.04490394,-1.110537E-08,NaN,-0.3285196,-1.343611E-07,NaN,0.3822557,1.831533E-09,NaN,-0.4193582,1.528979E-05,-0.3593062,2.598469E-08,NaN,NaN,-0.01996826,1.769504E-10,1.873997E-07,-1.123699E-07,-1.746827E-08,-2.861022E-08
501.0598,0.04490394,-1.110537E-08,NaN,-0.3285196,-1.343611E-07,NaN,0.3822557,1.831533E-09,NaN,-0.4193582,1.528979E-05,-0.3593062,2.598469E-08,NaN,NaN,-0.01996826,1.769504E-10,1.873997E-07,-1.123699E-07,-1.746827E-08,-2.861022E-08
501.0736,0.0449043,-1.110453E-08,NaN,-0.3285038,-1.343615E-07,NaN,0.3830235,2.019583E-09,NaN,-0.4127776,1.52903E-05,-0.3593611,2.579837E-08,NaN,NaN,-0.01996443,1.909202E-10,2.073672E-07,-1.12371E-07,-2.223664E-08,-2.861022E-08
501.089,0.04490466,-1.11037E-08,NaN,-0.3284882,-1.34362E-07,NaN,0.3837798,2.20124E-09,NaN,-0.406301,1.529081E-05,-0.3594242,2.561844E-08,NaN,NaN,-0.01996056,2.002335E-10,2.270368E-07,-1.12372E-07,-2.223664E-08,-2.861022E-08
501.1035,0.04490502,-1.110286E-08,NaN,-0.3284728,-1.343625E-07,NaN,0.384525,2.37946E-09,NaN,-0.3999267,1.529133E-05,-0.3594954,2.544195E-08,NaN,NaN,-0.01995666,2.048901E-10,2.461102E-07,-1.123731E-07,-2.223664E-08,-2.861022E-08
501.1179,0.04490502,-1.110286E-08,NaN,-0.3284728,-1.343625E-07,NaN,0.384525,2.37946E-09,NaN,-0.3999267,1.529133E-05,-0.3594954,2.544195E-08,NaN,NaN,-0.01995666,2.048901E-10,2.461102E-07,-1.123731E-07,-2.223664E-08,-2.861022E-08
501.132,0.04490538,-1.110203E-08,NaN,-0.3284575,-1.343629E-07,NaN,0.3852595,2.554307E-09,NaN,-0.3936533,1.529184E-05,-0.3595746,2.526883E-08,NaN,NaN,-0.01995271,2.095467E-10,2.639916E-07,-1.123742E-07,-2.223664E-08,-2.861022E-08
501.1473,0.04490573,-1.110119E-08,NaN,-0.3284425,-1.343634E-07,NaN,0.385984,2.723022E-09,NaN,-0.3874792,1.529236E-05,-0.3596615,2.510184E-08,NaN,NaN,-0.01994873,2.142033E-10,2.82171E-07,-1.123753E-07,-2.700502E-08,-2.861022E-08
501.1619,0.04490608,-1.110036E-08,NaN,-0.3284277,-1.343639E-07,NaN,0.3866987,2.888552E-09,NaN,-0.3814029,1.529288E-05,-0.3597561,2.493803E-08,NaN,NaN,-0.0199447,2.188599E-10,2.975193E-07,-1.123764E-07,-2.462083E-08,-2.861022E-08
501.1765,0.04490608,-1.110036E-08,NaN,-0.3284277,-1.343639E-07,NaN,0.3866987,2.888552E-09,NaN,-0.3814029,1.529288E-05,-0.3597561,2.493803E-08,NaN,NaN,-0.0199447,2.188599E-10,2.975193E-07,-1.123764E-07,-2.462083E-08,-2.861022E-08
501.1904,0.04490644,-1.109952E-08,NaN,-0.328413,-1.343644E-07,NaN,0.3874041,3.050958E-09,NaN,-0.3754228,1.529339E-05,-0.3598582,2.477735E-08,NaN,NaN,-0.01994063,2.235165E-10,3.137615E-07,-1.123774E-07,-2.223664E-08,-2.861022E-08
501.2059,0.04490679,-1.109869E-08,NaN,-0.3283985,-1.343648E-07,NaN,0.3881005,3.207476E-09,NaN,-0.3695375,1.529391E-05,-0.3599677,2.462256E-08,NaN,NaN,-0.01993651,2.281731E-10,3.297058E-07,-1.123785E-07,-1.985246E-08,-2.861022E-08
501.2217,0.04490714,-1.109785E-08,NaN,-0.3283842,-1.343653E-07,NaN,0.3887884,3.361047E-09,NaN,-0.3637453,1.529442E-05,-0.3600845,2.447071E-08,NaN,NaN,-0.01993235,2.328297E-10,3.45352E-07,-1.123796E-07,-1.26999E-08,-2.861022E-08
501.2352,0.04490714,-1.109785E-08,NaN,-0.3283842,-1.343653E-07,NaN,0.3887884,3.361047E-09,NaN,-0.3637453,1.529442E-05,-0.3600845,2.447071E-08,NaN,NaN,-0.01993235,2.328297E-10,3.45352E-07,-1.123796E-07,-1.26999E-08,-2.861022E-08
501.2493,0.04490749,-1.109702E-08,NaN,-0.3283701,-1.343657E-07,NaN,0.389468,3.508903E-09,NaN,-0.3580449,1.529493E-05,-0.3602085,2.432458E-08,NaN,NaN,-0.01992813,2.467996E-10,3.596571E-07,-1.123806E-07,-1.031572E-08,-2.861022E-08
501.2646,0.04490783,-1.109618E-08,NaN,-0.3283561,-1.343662E-07,NaN,0.3901396,3.653982E-09,NaN,-0.3524348,1.529545E-05,-0.3603395,2.418122E-08,NaN,NaN,-0.01992386,2.514562E-10,3.736642E-07,-1.123817E-07,-1.031572E-08,-2.861022E-08
501.279,0.04490783,-1.109618E-08,NaN,-0.3283561,-1.343662E-07,NaN,0.3901396,3.653982E-09,NaN,-0.3524348,1.529545E-05,-0.3603395,2.418122E-08,NaN,NaN,-0.01992386,2.514562E-10,3.736642E-07,-1.123817E-07,-1.031572E-08,-2.861022E-08
501.2931,0.04490818,-1.109535E-08,NaN,-0.3283423,-1.343667E-07,NaN,0.3908037,3.796341E-09,NaN,-0.3469135,1.529597E-05,-0.3604774,2.404058E-08,NaN,NaN,-0.01991954,2.514562E-10,3.875222E-07,-1.123827E-07,-5.547345E-09,-2.861022E-08
501.3082,0.04490852,-1.109451E-08,NaN,-0.3283286,-1.343671E-07,NaN,0.3914604,3.933206E-09,NaN,-0.3414797,1.529649E-05,-0.3606223,2.390544E-08,NaN,NaN,-0.01991515,2.514562E-10,4.004863E-07,-1.123838E-07,-5.547345E-09,-2.861022E-08
501.3247,0.04490887,-1.109367E-08,NaN,-0.3283152,-1.343676E-07,NaN,0.3921101,4.067511E-09,NaN,-0.336132,1.529701E-05,-0.3607738,2.377286E-08,NaN,NaN,-0.01991071,2.607694E-10,4.127052E-07,-1.123848E-07,-3.163159E-09,-2.861022E-08
501.3384,0.04490887,-1.109367E-08,NaN,-0.3283152,-1.343676E-07,NaN,0.3921101,4.067511E-09,NaN,-0.336132,1.529701E-05,-0.3607738,2.377286E-08,NaN,NaN,-0.01991071,2.607694E-10,4.127052E-07,-1.123848E-07,-3.163159E-09,-2.861022E-08
501.3522,0.04490921,-1.109284E-08,NaN,-0.3283018,-1.34368E-07,NaN,0.3927532,4.199304E-09,NaN,-0.3308689,1.529753E-05,-0.3609319,2.364279E-08,NaN,NaN,-0.01990621,2.607694E-10,4.240301E-07,-1.123859E-07,-3.163159E-09,-2.861022E-08
501.3667,0.04490955,-1.1092E-08,NaN,-0.3282887,-1.343685E-07,NaN,0.3933897,4.325811E-09,NaN,-0.3256893,1.529805E-05,-0.3610966,2.351801E-08,NaN,NaN,-0.01990164,2.607694E-10,4.35355E-07,-1.123869E-07,-5.547345E-09,-2.861022E-08
501.3813,0.04490989,-1.109117E-08,NaN,-0.3282757,-1.343689E-07,NaN,0.3940201,4.449961E-09,NaN,-0.3205917,1.529857E-05,-0.3612677,2.339558E-08,NaN,NaN,-0.01989701,2.607694E-10,4.463818E-07,-1.12388E-07,1.605212E-09,-2.861022E-08
501.3957,0.04490989,-1.109117E-08,NaN,-0.3282757,-1.343689E-07,NaN,0.3940201,4.449961E-09,NaN,-0.3205917,1.529857E-05,-0.3612677,2.339558E-08,NaN,NaN,-0.01989701,2.607694E-10,4.463818E-07,-1.12388E-07,1.605212E-09,-2.861022E-08
501.4097,0.04491023,-1.109033E-08,NaN,-0.3282629,-1.343694E-07,NaN,0.3946446,4.571799E-09,NaN,-0.3155748,1.529909E-05,-0.3614452,2.327546E-08,NaN,NaN,-0.01989231,2.607694E-10,4.569617E-07,-1.12389E-07,3.989398E-09,-2.861022E-08
501.4248,0.04491056,-1.10895E-08,NaN,-0.3282502,-1.343698E-07,NaN,0.3952635,4.688543E-09,NaN,-0.3106374,1.529962E-05,-0.3616288,2.316044E-08,NaN,NaN,-0.01988754,2.561128E-10,4.675415E-07,-1.1239E-07,-7.789733E-10,-2.861022E-08
501.4395,0.04491056,-1.10895E-08,NaN,-0.3282502,-1.343698E-07,NaN,0.3952635,4.688543E-09,NaN,-0.3106374,1.529962E-05,-0.3616288,2.316044E-08,NaN,NaN,-0.01988754,2.561128E-10,4.675415E-07,-1.1239E-07,-7.789733E-10,-2.861022E-08
501.4535,0.0449109,-1.108866E-08,NaN,-0.3282377,-1.343703E-07,NaN,0.395877,4.803122E-09,NaN,-0.3057782,1.530015E-05,-0.3618187,2.304759E-08,NaN,NaN,-0.0198827,2.514562E-10,4.784193E-07,-1.12391E-07,3.989398E-09,-2.861022E-08
501.4688,0.04491123,-1.108782E-08,NaN,-0.3282253,-1.343707E-07,NaN,0.3964854,4.915583E-09,NaN,-0.300996,1.530067E-05,-0.3620146,2.293685E-08,NaN,NaN,-0.01987778,2.467996E-10,4.887011E-07,-1.123921E-07,6.373584E-09,-2.861022E-08
501.4836,0.04491156,-1.108699E-08,NaN,-0.3282131,-1.343712E-07,NaN,0.3970889,5.023134E-09,NaN,-0.2962896,1.530118E-05,-0.3622164,2.283102E-08,NaN,NaN,-0.01987278,2.561128E-10,4.982379E-07,-1.123931E-07,1.114195E-08,-2.861022E-08
501.4982,0.04491156,-1.108699E-08,NaN,-0.3282131,-1.343712E-07,NaN,0.3970889,5.023134E-09,NaN,-0.2962896,1.530118E-05,-0.3622164,2.283102E-08,NaN,NaN,-0.01987278,2.561128E-10,4.982379E-07,-1.123931E-07,1.114195E-08,-2.861022E-08
501.5121,0.04491189,-1.108615E-08,NaN,-0.328201,-1.343716E-07,NaN,0.3976878,5.259126E-09,NaN,-0.2916577,1.530171E-05,-0.3624242,2.259676E-08,NaN,NaN,-0.01986771,2.421429E-10,5.067315E-07,-1.123907E-07,8.75777E-09,-2.622604E-08
501.5274,0.04491223,-1.108532E-08,NaN,-0.3281891,-1.343712E-07,NaN,0.3982822,5.183302E-09,NaN,-0.2870992,1.530223E-05,-0.3626378,2.267431E-08,NaN,NaN,-0.01986255,2.235165E-10,5.153742E-07,-1.123875E-07,6.373584E-09,-2.861022E-08
501.542,0.04491255,-1.108448E-08,NaN,-0.3281773,-1.343703E-07,NaN,0.3988725,4.98222E-09,NaN,-0.2826129,1.530275E-05,-0.3628572,2.287713E-08,NaN,NaN,-0.01985731,2.0489E-10,5.240169E-07,-1.12384E-07,6.373584E-09,-2.622604E-08
501.5565,0.04491255,-1.108448E-08,NaN,-0.3281773,-1.343703E-07,NaN,0.3988725,4.98222E-09,NaN,-0.2826129,1.530275E-05,-0.3628572,2.287713E-08,NaN,NaN,-0.01985731,2.0489E-10,5.240169E-07,-1.12384E-07,6.373584E-09,-2.622604E-08
501.5705,0.04491288,-1.108364E-08,NaN,-0.3281657,-1.34369E-07,NaN,0.3994588,4.711894E-09,NaN,-0.2781978,1.530326E-05,-0.3630823,2.314921E-08,NaN,NaN,-0.01985198,1.909202E-10,5.317655E-07,-1.123803E-07,1.605212E-09,-2.861022E-08
501.586,0.04491321,-1.108281E-08,NaN,-0.3281541,-1.343676E-07,NaN,0.4000413,4.404696E-09,NaN,-0.2738525,1.530377E-05,-0.363313,2.345816E-08,NaN,NaN,-0.01984657,1.769504E-10,5.398122E-07,-1.123764E-07,3.989398E-09,-2.622604E-08
501.6005,0.04491353,-1.108197E-08,NaN,-0.3281428,-1.34366E-07,NaN,0.4006204,4.083913E-09,NaN,-0.2695761,1.530429E-05,-0.3635492,2.378071E-08,NaN,NaN,-0.01984106,1.629805E-10,5.472627E-07,-1.123725E-07,8.75777E-09,-2.861022E-08
501.6151,0.04491353,-1.108197E-08,NaN,-0.3281428,-1.34366E-07,NaN,0.4006204,4.083913E-09,NaN,-0.2695761,1.530429E-05,-0.3635492,2.378071E-08,NaN,NaN,-0.01984106,1.629805E-10,5.472627E-07,-1.123725E-07,8.75777E-09,-2.861022E-08
501.6313,0.04491386,-1.108114E-08,NaN,-0.3281315,-1.343644E-07,NaN,0.4011961,3.758259E-09,NaN,-0.2653675,1.53048E-05,-0.3637908,2.410813E-08,NaN,NaN,-0.01983545,1.490107E-10,5.544153E-07,-1.123685E-07,1.114195E-08,-2.622604E-08
501.6454,0.04491418,-1.10803E-08,NaN,-0.3281204,-1.343627E-07,NaN,0.4017687,3.433467E-09,NaN,-0.2612255,1.530531E-05,-0.3640379,2.44347E-08,NaN,NaN,-0.01982975,1.396975E-10,5.603758E-07,-1.123646E-07,1.829451E-08,-2.861022E-08
501.6589,0.04491418,-1.10803E-08,NaN,-0.3281204,-1.343627E-07,NaN,0.4017687,3.433467E-09,NaN,-0.2612255,1.530531E-05,-0.3640379,2.44347E-08,NaN,NaN,-0.01982975,1.396975E-10,5.603758E-07,-1.123646E-07,1.829451E-08,-2.861022E-08
501.6728,0.0449145,-1.107947E-08,NaN,-0.3281095,-1.34361E-07,NaN,0.4023383,3.112337E-09,NaN,-0.2571492,1.530582E-05,-0.3642904,2.47576E-08,NaN,NaN,-0.01982395,1.303842E-10,5.666342E-07,-1.123606E-07,1.352614E-08,-2.622604E-08
501.6885,0.04491482,-1.107863E-08,NaN,-0.3280986,-1.343594E-07,NaN,0.4029053,2.797619E-09,NaN,-0.2531374,1.530632E-05,-0.3645481,2.50741E-08,NaN,NaN,-0.01981805,1.21071E-10,5.728927E-07,-1.123567E-07,1.114195E-08,-2.861022E-08
501.704,0.04491514,-1.107779E-08,NaN,-0.3280879,-1.343577E-07,NaN,0.4034696,2.492009E-09,NaN,-0.2491893,1.530683E-05,-0.3648111,2.538149E-08,NaN,NaN,-0.01981204,1.117578E-10,5.785552E-07,-1.123527E-07,1.352614E-08,-2.622604E-08
501.7173,0.04491514,-1.107779E-08,NaN,-0.3280879,-1.343577E-07,NaN,0.4034696,2.492009E-09,NaN,-0.2491893,1.530683E-05,-0.3648111,2.538149E-08,NaN,NaN,-0.01981204,1.117578E-10,5.785552E-07,-1.123527E-07,1.352614E-08,-2.622604E-08
501.7313,0.04491546,-1.107696E-08,NaN,-0.3280773,-1.34356E-07,NaN,0.4040316,2.195327E-09,NaN,-0.2453036,1.530734E-05,-0.3650793,2.567996E-08,NaN,NaN,-0.01980592,9.778794E-11,5.833235E-07,-1.123488E-07,1.352614E-08,-2.861022E-08
501.7468,0.04491578,-1.107612E-08,NaN,-0.3280669,-1.343543E-07,NaN,0.4045914,1.907395E-09,NaN,-0.2414796,1.530786E-05,-0.3653525,2.596968E-08,NaN,NaN,-0.01979969,8.38181E-11,5.883899E-07,-1.123449E-07,1.114195E-08,-2.622604E-08
501.7612,0.04491609,-1.107529E-08,NaN,-0.3280566,-1.343526E-07,NaN,0.4051492,1.628042E-09,NaN,-0.2377162,1.530837E-05,-0.3656309,2.625082E-08,NaN,NaN,-0.01979335,6.984826E-11,5.943504E-07,-1.12341E-07,1.352614E-08,-2.861022E-08
501.7759,0.04491609,-1.107529E-08,NaN,-0.3280566,-1.343526E-07,NaN,0.4051492,1.628042E-09,NaN,-0.2377162,1.530837E-05,-0.3656309,2.625082E-08,NaN,NaN,-0.01979335,6.984826E-11,5.943504E-07,-1.12341E-07,1.352614E-08,-2.861022E-08
501.7901,0.04491641,-1.107445E-08,NaN,-0.3280464,-1.343509E-07,NaN,0.4057051,1.357097E-09,NaN,-0.2340123,1.530888E-05,-0.3659142,2.652356E-08,NaN,NaN,-0.01978689,6.053504E-11,5.982247E-07,-1.123371E-07,6.373583E-09,-2.622604E-08
501.8054,0.04491672,-1.107361E-08,NaN,-0.3280363,-1.343492E-07,NaN,0.4062593,1.097223E-09,NaN,-0.2303672,1.530938E-05,-0.3662025,2.678522E-08,NaN,NaN,-0.01978031,5.122181E-11,6.032911E-07,-1.123332E-07,8.757769E-09,-2.861022E-08
501.8202,0.04491703,-1.107278E-08,NaN,-0.3280264,-1.343475E-07,NaN,0.406812,8.453717E-10,NaN,-0.2267799,1.530989E-05,-0.3664957,2.703886E-08,NaN,NaN,-0.01977361,4.190859E-11,6.068674E-07,-1.123293E-07,1.114195E-08,-2.622604E-08
501.8347,0.04491703,-1.107278E-08,NaN,-0.3280264,-1.343475E-07,NaN,0.406812,8.453717E-10,NaN,-0.2267799,1.530989E-05,-0.3664957,2.703886E-08,NaN,NaN,-0.01977361,4.190859E-11,6.068674E-07,-1.123293E-07,1.114195E-08,-2.622604E-08
501.8489,0.04491735,-1.107194E-08,NaN,-0.3280165,-1.343459E-07,NaN,0.4073632,6.013889E-10,NaN,-0.2232494,1.531039E-05,-0.3667937,2.728464E-08,NaN,NaN,-0.01976679,3.259536E-11,6.113377E-07,-1.123255E-07,1.352614E-08,-2.861022E-08
501.8641,0.04491765,-1.107111E-08,NaN,-0.3280068,-1.343442E-07,NaN,0.4079131,3.65121E-10,NaN,-0.2197748,1.531089E-05,-0.3670966,2.75227E-08,NaN,NaN,-0.01975983,2.328214E-11,6.14914E-07,-1.123216E-07,1.829451E-08,-2.622604E-08
501.8788,0.04491765,-1.107111E-08,NaN,-0.3280068,-1.343442E-07,NaN,0.4079131,3.65121E-10,NaN,-0.2197748,1.531089E-05,-0.3670966,2.75227E-08,NaN,NaN,-0.01975983,2.328214E-11,6.14914E-07,-1.123216E-07,1.829451E-08,-2.622604E-08
501.8926,0.04491796,-1.107027E-08,NaN,-0.3279972,-1.343425E-07,NaN,0.408462,1.392417E-10,NaN,-0.2163553,1.53114E-05,-0.3674042,2.775037E-08,NaN,NaN,-0.01975275,9.3123E-12,6.184903E-07,-1.123178E-07,2.06787E-08,-2.861022E-08
501.9091,0.04491827,-1.106944E-08,NaN,-0.3279877,-1.343409E-07,NaN,0.4090099,-7.927972E-11,NaN,-0.21299,1.53119E-05,-0.3677165,2.797068E-08,NaN,NaN,-0.01974553,-9.25475E-16,6.223646E-07,-1.12314E-07,8.757768E-09,-2.622604E-08
501.9237,0.04491858,-1.10686E-08,NaN,-0.3279783,-1.343392E-07,NaN,0.4095569,-2.90586E-10,NaN,-0.2096781,1.53124E-05,-0.3680334,2.818378E-08,NaN,NaN,-0.01973817,-9.314151E-12,6.27133E-07,-1.123102E-07,1.114195E-08,-2.861022E-08
501.9374,0.04491858,-1.10686E-08,NaN,-0.3279783,-1.343392E-07,NaN,0.4095569,-2.90586E-10,NaN,-0.2096781,1.53124E-05,-0.3680334,2.818378E-08,NaN,NaN,-0.01973817,-9.314151E-12,6.27133E-07,-1.123102E-07,1.114195E-08,-2.861022E-08
501.9513,0.04491888,-1.106776E-08,NaN,-0.3279691,-1.343376E-07,NaN,0.4101032,-4.948216E-10,NaN,-0.2064186,1.53129E-05,-0.3683549,2.83898E-08,NaN,NaN,-0.01973068,-1.862738E-11,6.298152E-07,-1.123064E-07,1.352614E-08,-2.622604E-08
501.9666,0.04491919,-1.106693E-08,NaN,-0.3279599,-1.343359E-07,NaN,0.4106489,-6.892966E-10,NaN,-0.2032108,1.53134E-05,-0.368681,2.858607E-08,NaN,NaN,-0.01972304,-2.79406E-11,6.330935E-07,-1.123026E-07,1.352614E-08,-2.861022E-08
501.9812,0.04491949,-1.106609E-08,NaN,-0.3279509,-1.343343E-07,NaN,0.4111941,-8.770304E-10,NaN,-0.2000538,1.531389E-05,-0.3690116,2.87756E-08,NaN,NaN,-0.01971525,-3.725383E-11,6.345836E-07,-1.122988E-07,1.352614E-08,-2.622604E-08
501.9958,0.04491949,-1.106609E-08,NaN,-0.3279509,-1.343343E-07,NaN,0.4111941,-8.770304E-10,NaN,-0.2000538,1.531389E-05,-0.3690116,2.87756E-08,NaN,NaN,-0.01971525,-3.725383E-11,6.345836E-07,-1.122988E-07,1.352614E-08,-2.622604E-08
502.0097,0.04491979,-1.106526E-08,NaN,-0.327942,-1.343327E-07,NaN,0.4117388,-1.058155E-09,NaN,-0.1969469,1.531439E-05,-0.3693467,2.895852E-08,NaN,NaN,-0.01970731,-4.656706E-11,6.375638E-07,-1.122951E-07,1.114195E-08,-2.861022E-08
502.025,0.04492009,-1.106442E-08,NaN,-0.3279331,-1.34331E-07,NaN,0.4122833,-1.232799E-09,NaN,-0.1938892,1.531488E-05,-0.3696861,2.913495E-08,NaN,NaN,-0.01969921,-5.588028E-11,6.411401E-07,-1.122913E-07,6.373582E-09,-2.622604E-08
502.0395,0.04492009,-1.106442E-08,NaN,-0.3279331,-1.34331E-07,NaN,0.4122833,-1.232799E-09,NaN,-0.1938892,1.531488E-05,-0.3696861,2.913495E-08,NaN,NaN,-0.01969921,-5.588028E-11,6.411401E-07,-1.122913E-07,6.373582E-09,-2.622604E-08
502.0537,0.04492039,-1.106359E-08,NaN,-0.3279244,-1.343294E-07,NaN,0.4128276,-1.398265E-09,NaN,-0.19088,1.531538E-05,-0.3700299,2.930221E-08,NaN,NaN,-0.01969097,-6.985012E-11,6.423322E-07,-1.122876E-07,6.373582E-09,-2.861022E-08
502.0692,0.04492069,-1.106275E-08,NaN,-0.3279158,-1.343278E-07,NaN,0.4133717,-1.557556E-09,NaN,-0.1879185,1.531587E-05,-0.3703779,2.94633E-08,NaN,NaN,-0.01968256,-7.916334E-11,6.441203E-07,-1.122839E-07,8.757768E-09,-2.622604E-08
502.0835,0.04492099,-1.106191E-08,NaN,-0.3279073,-1.343257E-07,NaN,0.4139159,-1.87431E-09,NaN,-0.185004,1.531636E-05,-0.3707303,2.978186E-08,NaN,NaN,-0.01967399,-8.847657E-11,6.459085E-07,-1.122811E-07,8.757768E-09,-2.861022E-08
502.0984,0.04492099,-1.106191E-08,NaN,-0.3279073,-1.343257E-07,NaN,0.4139159,-1.87431E-09,NaN,-0.185004,1.531636E-05,-0.3707303,2.978186E-08,NaN,NaN,-0.01967399,-8.847657E-11,6.459085E-07,-1.122811E-07,8.757768E-09,-2.861022E-08
502.1125,0.04492129,-1.106108E-08,NaN,-0.3278989,-1.343238E-07,NaN,0.4144601,-2.159374E-09,NaN,-0.1821356,1.531685E-05,-0.3710867,3.006872E-08,NaN,NaN,-0.01966526,-9.313318E-11,6.479946E-07,-1.122785E-07,6.373582E-09,-2.622604E-08
502.1276,0.04492158,-1.106024E-08,NaN,-0.3278905,-1.343218E-07,NaN,0.4150045,-2.424637E-09,NaN,-0.1793128,1.531734E-05,-0.3714474,3.033578E-08,NaN,NaN,-0.01965635,-9.77898E-11,6.488887E-07,-1.122758E-07,6.373582E-09,-2.861022E-08
502.1422,0.04492188,-1.105941E-08,NaN,-0.3278823,-1.343199E-07,NaN,0.415549,-2.676133E-09,NaN,-0.1765346,1.531782E-05,-0.3718121,3.058909E-08,NaN,NaN,-0.01964727,-9.313318E-11,6.494848E-07,-1.122732E-07,8.757768E-09,-2.622604E-08
502.157,0.04492188,-1.105941E-08,NaN,-0.3278823,-1.343199E-07,NaN,0.415549,-2.676133E-09,NaN,-0.1765346,1.531782E-05,-0.3718121,3.058909E-08,NaN,NaN,-0.01964727,-9.313318E-11,6.494848E-07,-1.122732E-07,8.757768E-09,-2.622604E-08
502.1706,0.04492217,-1.105857E-08,NaN,-0.3278742,-1.34318E-07,NaN,0.4160939,-2.916948E-09,NaN,-0.1738006,1.53183E-05,-0.3721808,3.083171E-08,NaN,NaN,-0.01963802,-8.847657E-11,6.497828E-07,-1.122707E-07,6.373582E-09,-2.861022E-08
502.1894,0.04492246,-1.105774E-08,NaN,-0.3278662,-1.343162E-07,NaN,0.416639,-3.147292E-09,NaN,-0.1711098,1.531878E-05,-0.3725534,3.106386E-08,NaN,NaN,-0.01962859,-8.381995E-11,6.51869E-07,-1.122681E-07,6.373582E-09,-2.622604E-08
502.2017,0.04492275,-1.10569E-08,NaN,-0.3278583,-1.343143E-07,NaN,0.4171846,-3.370191E-09,NaN,-0.1684618,1.531926E-05,-0.37293,3.128857E-08,NaN,NaN,-0.01961898,-7.916334E-11,6.515709E-07,-1.122655E-07,3.989396E-09,-2.861022E-08
502.2156,0.04492275,-1.10569E-08,NaN,-0.3278583,-1.343143E-07,NaN,0.4171846,-3.370191E-09,NaN,-0.1684618,1.531926E-05,-0.37293,3.128857E-08,NaN,NaN,-0.01961898,-7.916334E-11,6.515709E-07,-1.122655E-07,3.989396E-09,-2.861022E-08
502.2292,0.04492304,-1.105607E-08,NaN,-0.3278504,-1.343125E-07,NaN,0.4177306,-3.585791E-09,NaN,-0.1658557,1.531974E-05,-0.3733103,3.150598E-08,NaN,NaN,-0.01960918,-7.450672E-11,6.52167E-07,-1.12263E-07,6.373582E-09,-2.622604E-08
502.2445,0.04492333,-1.105523E-08,NaN,-0.3278427,-1.343111E-07,NaN,0.4182771,-3.807938E-09,NaN,-0.1632909,1.532024E-05,-0.3736944,3.172993E-08,NaN,NaN,-0.0195992,-7.916334E-11,6.515709E-07,-1.122629E-07,1.605211E-09,-2.861022E-08
502.2589,0.04492333,-1.105523E-08,NaN,-0.3278427,-1.343111E-07,NaN,0.4182771,-3.807938E-09,NaN,-0.1632909,1.532024E-05,-0.3736944,3.172993E-08,NaN,NaN,-0.0195992,-7.916334E-11,6.515709E-07,-1.122629E-07,1.605211E-09,-2.861022E-08
502.2729,0.04492361,-1.10544E-08,NaN,-0.3278351,-1.343105E-07,NaN,0.4188242,-3.814211E-09,NaN,-0.1607668,1.532073E-05,-0.3740822,3.1738E-08,NaN,NaN,-0.01958902,-8.381995E-11,6.509749E-07,-1.122635E-07,8.757768E-09,-2.622604E-08
502.2882,0.0449239,-1.105357E-08,NaN,-0.3278275,-1.343104E-07,NaN,0.4193718,-3.701873E-09,NaN,-0.1582828,1.532123E-05,-0.3744737,3.162745E-08,NaN,NaN,-0.01957865,-8.381995E-11,6.506768E-07,-1.122644E-07,8.757768E-09,-2.861022E-08
502.3028,0.04492419,-1.105273E-08,NaN,-0.3278201,-1.343106E-07,NaN,0.4199199,-3.526828E-09,NaN,-0.1558381,1.532174E-05,-0.3748686,3.145418E-08,NaN,NaN,-0.01956808,-8.847657E-11,6.506768E-07,-1.122655E-07,8.757768E-09,-2.622604E-08
502.3174,0.04492419,-1.105273E-08,NaN,-0.3278201,-1.343106E-07,NaN,0.4199199,-3.526828E-09,NaN,-0.1558381,1.532174E-05,-0.3748686,3.145418E-08,NaN,NaN,-0.01956808,-8.847657E-11,6.506768E-07,-1.122655E-07,8.757768E-09,-2.622604E-08
502.3319,0.04492447,-1.10519E-08,NaN,-0.3278127,-1.343109E-07,NaN,0.4204687,-3.242367E-09,NaN,-0.1534322,1.532224E-05,-0.375267,3.117149E-08,NaN,NaN,-0.01955731,-9.313318E-11,6.512729E-07,-1.122667E-07,6.373582E-09,-2.861022E-08
502.3469,0.04492475,-1.105106E-08,NaN,-0.3278054,-1.343114E-07,NaN,0.4210181,-2.938039E-09,NaN,-0.1510644,1.532274E-05,-0.3756688,3.086892E-08,NaN,NaN,-0.01954633,-9.77898E-11,6.503788E-07,-1.122681E-07,6.373582E-09,-2.622604E-08
502.3616,0.04492504,-1.105023E-08,NaN,-0.3277982,-1.343119E-07,NaN,0.4216336,-2.625509E-09,NaN,-0.1488771,1.532324E-05,-0.3761417,3.055814E-08,NaN,NaN,-0.01953999,-9.77898E-11,6.473986E-07,-1.122695E-07,6.373582E-09,-2.861022E-08
502.3761,0.04492504,-1.105023E-08,NaN,-0.3277982,-1.343119E-07,NaN,0.4216336,-2.625509E-09,NaN,-0.1488771,1.532324E-05,-0.3761417,3.055814E-08,NaN,NaN,-0.01953999,-9.77898E-11,6.473986E-07,-1.122695E-07,6.373582E-09,-2.861022E-08
502.3901,0.04492532,-1.10494E-08,NaN,-0.3277911,-1.343125E-07,NaN,0.4222499,-2.310572E-09,NaN,-0.1468107,1.532374E-05,-0.3766195,3.024495E-08,NaN,NaN,-0.01953151,-9.77898E-11,6.438223E-07,-1.122709E-07,1.591033E-08,-2.622604E-08
502.4056,0.0449256,-1.104856E-08,NaN,-0.3277841,-1.343131E-07,NaN,0.4228546,-1.996094E-09,NaN,-0.1448179,1.532423E-05,-0.3770886,2.993222E-08,NaN,NaN,-0.01952202,-9.77898E-11,6.429282E-07,-1.122723E-07,1.352614E-08,-2.861022E-08
502.4202,0.04492588,-1.104773E-08,NaN,-0.3277771,-1.343137E-07,NaN,0.4234488,-1.687709E-09,NaN,-0.1428763,1.532473E-05,-0.3775496,2.962557E-08,NaN,NaN,-0.01951202,-9.77898E-11,6.4114E-07,-1.122737E-07,6.373583E-09,-2.622604E-08
502.4349,0.04492588,-1.104773E-08,NaN,-0.3277771,-1.343137E-07,NaN,0.4234488,-1.687709E-09,NaN,-0.1428763,1.532473E-05,-0.3775496,2.962557E-08,NaN,NaN,-0.01951202,-9.77898E-11,6.4114E-07,-1.122737E-07,6.373583E-09,-2.622604E-08
502.449,0.04492617,-1.104689E-08,NaN,-0.3277703,-1.343143E-07,NaN,0.4246288,-1.385295E-09,NaN,-0.142187,1.532523E-05,-0.3786175,2.93249E-08,NaN,NaN,-0.01954742,-9.77898E-11,6.137219E-07,-1.122751E-07,3.989397E-09,-2.861022E-08
502.4641,0.04492646,-1.104606E-08,NaN,-0.3277635,-1.343149E-07,NaN,0.42579,-1.088734E-09,NaN,-0.1422485,1.532573E-05,-0.3796803,2.903007E-08,NaN,NaN,-0.019564,-1.024464E-10,5.940524E-07,-1.122766E-07,8.757769E-09,-2.622604E-08
502.4799,0.04492646,-1.104606E-08,NaN,-0.3277635,-1.343149E-07,NaN,0.42579,-1.088734E-09,NaN,-0.1422485,1.532573E-05,-0.3796803,2.903007E-08,NaN,NaN,-0.019564,-1.024464E-10,5.940524E-07,-1.122766E-07,8.757769E-09,-2.622604E-08
502.4937,0.04492674,-1.104523E-08,NaN,-0.3277569,-1.343155E-07,NaN,0.4268305,-7.979091E-10,NaN,-0.1426594,1.532623E-05,-0.3806285,2.874098E-08,NaN,NaN,-0.01957256,-1.024464E-10,5.800453E-07,-1.12278E-07,1.114195E-08,-2.861022E-08
502.5081,0.04492704,-1.104439E-08,NaN,-0.3277503,-1.343161E-07,NaN,0.4283651,-5.127067E-10,NaN,-0.1444424,1.532673E-05,-0.3820917,2.845751E-08,NaN,NaN,-0.01962416,-1.07103E-10,5.401102E-07,-1.122794E-07,1.114195E-08,-2.622604E-08
502.5226,0.04492733,-1.104356E-08,NaN,-0.3277437,-1.343167E-07,NaN,0.4297931,-2.358415E-10,NaN,-0.1470129,1.532724E-05,-0.3834606,2.818238E-08,NaN,NaN,-0.01965444,-1.117596E-10,5.12096E-07,-1.122808E-07,6.373583E-09,-2.861022E-08
502.5373,0.04492733,-1.104356E-08,NaN,-0.3277437,-1.343167E-07,NaN,0.4297931,-2.358415E-10,NaN,-0.1470129,1.532724E-05,-0.3834606,2.818238E-08,NaN,NaN,-0.01965444,-1.117596E-10,5.12096E-07,-1.122808E-07,6.373583E-09,-2.861022E-08
502.5511,0.04492762,-1.104273E-08,NaN,-0.3277373,-1.343173E-07,NaN,0.4310456,3.56756E-11,NaN,-0.1499288,1.532773E-05,-0.3846579,2.791259E-08,NaN,NaN,-0.0196754,-1.117596E-10,4.927245E-07,-1.122822E-07,1.352614E-08,-2.622604E-08
502.5668,0.0449279,-1.104189E-08,NaN,-0.3277309,-1.343179E-07,NaN,0.4321587,2.991233E-10,NaN,-0.1529819,1.532824E-05,-0.3857157,2.765087E-08,NaN,NaN,-0.01969202,-1.164163E-10,4.745451E-07,-1.122836E-07,8.757769E-09,-2.861022E-08
502.5813,0.04492819,-1.104106E-08,NaN,-0.3277246,-1.343185E-07,NaN,0.4337385,5.574869E-10,NaN,-0.1572893,1.532873E-05,-0.387258,2.739423E-08,NaN,NaN,-0.01974855,-1.164163E-10,4.301396E-07,-1.12285E-07,1.352614E-08,-2.622604E-08
502.5959,0.04492819,-1.104106E-08,NaN,-0.3277246,-1.343185E-07,NaN,0.4337385,5.574869E-10,NaN,-0.1572893,1.532873E-05,-0.387258,2.739423E-08,NaN,NaN,-0.01974855,-1.164163E-10,4.301396E-07,-1.12285E-07,1.352614E-08,-2.622604E-08
502.6098,0.04492848,-1.104023E-08,NaN,-0.3277184,-1.343191E-07,NaN,0.4352104,8.080412E-10,NaN,-0.1623053,1.532925E-05,-0.3887028,2.71454E-08,NaN,NaN,-0.01978502,-1.257295E-10,3.952709E-07,-1.122864E-07,1.352614E-08,-2.861022E-08
502.6251,0.04492877,-1.10394E-08,NaN,-0.3277123,-1.343197E-07,NaN,0.4365059,1.053765E-09,NaN,-0.1676097,1.532976E-05,-0.3899737,2.69014E-08,NaN,NaN,-0.01981227,-1.303861E-10,3.690449E-07,-1.122878E-07,1.591033E-08,-2.622604E-08
502.6402,0.04492905,-1.103856E-08,NaN,-0.3277062,-1.343203E-07,NaN,0.4376566,1.294753E-09,NaN,-0.1730049,1.533026E-05,-0.3910983,2.666214E-08,NaN,NaN,-0.01983478,-1.350427E-10,3.443089E-07,-1.122891E-07,1.352614E-08,-2.861022E-08
502.6546,0.04492905,-1.103856E-08,NaN,-0.3277062,-1.343203E-07,NaN,0.4376566,1.294753E-09,NaN,-0.1730049,1.533026E-05,-0.3910983,2.666214E-08,NaN,NaN,-0.01983478,-1.350427E-10,3.443089E-07,-1.122891E-07,1.352614E-08,-2.861022E-08
502.6699,0.04492935,-1.103773E-08,NaN,-0.3277003,-1.343209E-07,NaN,0.4392027,1.528273E-09,NaN,-0.1796175,1.533077E-05,-0.3926367,2.643034E-08,NaN,NaN,-0.01988914,-1.396993E-10,2.954331E-07,-1.122905E-07,8.757769E-09,-2.622604E-08
502.6839,0.04492964,-1.10369E-08,NaN,-0.3276944,-1.343215E-07,NaN,0.4406338,1.757297E-09,NaN,-0.1868973,1.533128E-05,-0.3940708,2.620305E-08,NaN,NaN,-0.0199256,-1.443559E-10,2.560941E-07,-1.122919E-07,1.605212E-09,-2.861022E-08
502.6988,0.04492964,-1.10369E-08,NaN,-0.3276944,-1.343215E-07,NaN,0.4406338,1.757297E-09,NaN,-0.1868973,1.533128E-05,-0.3940708,2.620305E-08,NaN,NaN,-0.0199256,-1.443559E-10,2.560941E-07,-1.122919E-07,1.605212E-09,-2.861022E-08
502.7128,0.04492993,-1.103606E-08,NaN,-0.3276885,-1.343221E-07,NaN,0.4418854,1.979086E-09,NaN,-0.1944278,1.533179E-05,-0.3953277,2.598298E-08,NaN,NaN,-0.01995346,-1.490125E-10,2.242056E-07,-1.122933E-07,6.373583E-09,-2.622604E-08
502.7281,0.0449302,-1.103523E-08,NaN,-0.3276827,-1.343227E-07,NaN,0.44246,2.196608E-09,NaN,-0.2005745,1.533229E-05,-0.3958777,2.576718E-08,NaN,NaN,-0.01994297,-1.536691E-10,2.2957E-07,-1.122946E-07,3.989397E-09,-2.861022E-08
502.7427,0.04493047,-1.10344E-08,NaN,-0.327677,-1.343233E-07,NaN,0.4429469,2.407122E-09,NaN,-0.2058491,1.53328E-05,-0.3963175,2.555839E-08,NaN,NaN,-0.01994472,-1.583257E-10,2.233115E-07,-1.12296E-07,-7.789742E-10,-2.622604E-08
502.7581,0.04493047,-1.10344E-08,NaN,-0.327677,-1.343233E-07,NaN,0.4429469,2.407122E-09,NaN,-0.2058491,1.53328E-05,-0.3963175,2.555839E-08,NaN,NaN,-0.01994472,-1.583257E-10,2.233115E-07,-1.12296E-07,-7.789742E-10,-2.622604E-08
502.7722,0.04493074,-1.103356E-08,NaN,-0.3276714,-1.343239E-07,NaN,0.4434644,2.613592E-09,NaN,-0.2106728,1.533331E-05,-0.3967748,2.535365E-08,NaN,NaN,-0.01995084,-1.629823E-10,2.116886E-07,-1.122973E-07,3.989397E-09,-2.861022E-08
502.7867,0.04493101,-1.103273E-08,NaN,-0.3276658,-1.343245E-07,NaN,0.4440134,2.813268E-09,NaN,-0.2152453,1.533382E-05,-0.3972563,2.51557E-08,NaN,NaN,-0.01995832,-1.67639E-10,1.964894E-07,-1.122987E-07,6.373583E-09,-2.622604E-08
502.8012,0.04493128,-1.103189E-08,NaN,-0.3276603,-1.34325E-07,NaN,0.4445744,3.009113E-09,NaN,-0.2196618,1.533432E-05,-0.3977451,2.496158E-08,NaN,NaN,-0.01996598,-1.722956E-10,1.815883E-07,-1.123E-07,8.757769E-09,-2.861022E-08
502.8158,0.04493128,-1.103189E-08,NaN,-0.3276603,-1.34325E-07,NaN,0.4445744,3.009113E-09,NaN,-0.2196618,1.533432E-05,-0.3977451,2.496158E-08,NaN,NaN,-0.01996598,-1.722956E-10,1.815883E-07,-1.123E-07,8.757769E-09,-2.861022E-08
502.8297,0.04493155,-1.103106E-08,NaN,-0.3276548,-1.343256E-07,NaN,0.4451311,3.201199E-09,NaN,-0.2239685,1.533483E-05,-0.3982263,2.477121E-08,NaN,NaN,-0.0199734,-1.769522E-10,1.678792E-07,-1.123014E-07,3.989397E-09,-2.622604E-08
502.845,0.04493182,-1.103023E-08,NaN,-0.3276495,-1.343262E-07,NaN,0.4456733,3.386776E-09,NaN,-0.2281878,1.533534E-05,-0.3986905,2.458736E-08,NaN,NaN,-0.01998039,-1.816088E-10,1.541701E-07,-1.123027E-07,3.989397E-09,-2.861022E-08
502.8596,0.04493182,-1.103023E-08,NaN,-0.3276495,-1.343262E-07,NaN,0.4456733,3.386776E-09,NaN,-0.2281878,1.533534E-05,-0.3986905,2.458736E-08,NaN,NaN,-0.01998039,-1.816088E-10,1.541701E-07,-1.123027E-07,3.989397E-09,-2.861022E-08
502.8737,0.04493198,-1.102939E-08,NaN,-0.3276442,-1.343268E-07,NaN,0.4461961,3.568796E-09,NaN,-0.232331,1.533585E-05,-0.3991328,2.440706E-08,NaN,NaN,-0.01998693,-1.862654E-10,1.39269E-07,-1.12304E-07,3.989397E-09,-2.622604E-08
502.8889,0.04493211,-1.102856E-08,NaN,-0.3276389,-1.343274E-07,NaN,0.4466971,3.744504E-09,NaN,-0.2364042,1.533635E-05,-0.3995509,2.423308E-08,NaN,NaN,-0.01999301,-1.90922E-10,1.249638E-07,-1.123054E-07,1.605212E-09,-2.861022E-08
502.9035,0.04493222,-1.102772E-08,NaN,-0.3276337,-1.34328E-07,NaN,0.4471756,3.916849E-09,NaN,-0.2404107,1.533686E-05,-0.3999442,2.406245E-08,NaN,NaN,-0.01999866,-1.955786E-10,1.109568E-07,-1.123067E-07,-7.789742E-10,-2.622604E-08
502.9185,0.04493222,-1.102772E-08,NaN,-0.3276337,-1.34328E-07,NaN,0.4471756,3.916849E-09,NaN,-0.2404107,1.533686E-05,-0.3999442,2.406245E-08,NaN,NaN,-0.01999866,-1.955786E-10,1.109568E-07,-1.123067E-07,-7.789742E-10,-2.622604E-08
502.9325,0.04493234,-1.102689E-08,NaN,-0.3276286,-1.343285E-07,NaN,0.447632,4.083071E-09,NaN,-0.2443528,1.533737E-05,-0.4003128,2.389795E-08,NaN,NaN,-0.02000389,-2.002352E-10,9.87378E-08,-1.12308E-07,-3.16316E-09,-2.861022E-08
502.9481,0.04420505,-1.102606E-08,NaN,-0.327626,-1.343291E-07,NaN,0.449021,4.246116E-09,NaN,-0.2478205,1.533787E-05,-0.4014456,2.373663E-08,NaN,NaN,-0.02000785,-2.002352E-10,8.681687E-08,-1.123093E-07,-7.931531E-09,-2.622604E-08
502.9625,0.04302313,-1.102522E-08,NaN,-0.3276244,-1.343297E-07,NaN,0.4506748,4.40322E-09,NaN,-0.2511083,1.533838E-05,-0.4027563,2.358125E-08,NaN,NaN,-0.02001135,-2.048918E-10,7.579001E-08,-1.123106E-07,-7.931531E-09,-2.861022E-08
502.9772,0.04302313,-1.102522E-08,NaN,-0.3276244,-1.343297E-07,NaN,0.4506748,4.40322E-09,NaN,-0.2511083,1.533838E-05,-0.4027563,2.358125E-08,NaN,NaN,-0.02001135,-2.048918E-10,7.579001E-08,-1.123106E-07,-7.931531E-09,-2.861022E-08
502.9911,0.04156009,-1.102439E-08,NaN,-0.327623,-1.343302E-07,NaN,0.4523411,4.557325E-09,NaN,-0.2543327,1.533888E-05,-0.4040365,2.342887E-08,NaN,NaN,-0.02001461,-2.048918E-10,6.744536E-08,-1.123119E-07,-1.26999E-08,-2.622604E-08
503.0065,0.03992631,-1.102355E-08,NaN,-0.3276216,-1.343308E-07,NaN,0.4539358,4.708492E-09,NaN,-0.257533,1.533939E-05,-0.4052257,2.327942E-08,NaN,NaN,-0.02001767,-2.095484E-10,5.671653E-08,-1.123132E-07,-1.746827E-08,-2.861022E-08
503.0211,0.03746355,-1.102272E-08,NaN,-0.3276213,-1.343314E-07,NaN,0.4563606,4.853951E-09,NaN,-0.2603058,1.533989E-05,-0.4070766,2.313568E-08,NaN,NaN,-0.0200197,-2.095484E-10,4.658374E-08,-1.123145E-07,-1.746827E-08,-2.622604E-08
503.0368,0.03746355,-1.102272E-08,NaN,-0.3276213,-1.343314E-07,NaN,0.4563606,4.853951E-09,NaN,-0.2603058,1.533989E-05,-0.4070766,2.313568E-08,NaN,NaN,-0.0200197,-2.095484E-10,4.658374E-08,-1.123145E-07,-1.746827E-08,-2.622604E-08
503.0508,0.03448954,-1.102189E-08,NaN,-0.327621,-1.343319E-07,NaN,0.4589778,4.996639E-09,NaN,-0.2629414,1.534039E-05,-0.4090396,2.299472E-08,NaN,NaN,-0.02002144,-2.095484E-10,3.823909E-08,-1.123158E-07,-1.985246E-08,-2.861022E-08
503.0653,0.03120634,-1.102105E-08,NaN,-0.3276204,-1.343325E-07,NaN,0.4615536,5.133739E-09,NaN,-0.2655495,1.534088E-05,-0.4109274,2.285934E-08,NaN,NaN,-0.02002303,-1.955786E-10,2.661618E-08,-1.123171E-07,-1.746827E-08,-2.622604E-08
503.0798,0.03120634,-1.102105E-08,NaN,-0.3276204,-1.343325E-07,NaN,0.4615536,5.133739E-09,NaN,-0.2655495,1.534088E-05,-0.4109274,2.285934E-08,NaN,NaN,-0.02002303,-1.955786E-10,2.661618E-08,-1.123171E-07,-1.746827E-08,-2.622604E-08
503.0937,0.02701397,-1.102022E-08,NaN,-0.3276206,-1.343331E-07,NaN,0.4649233,5.268232E-09,NaN,-0.267753,1.534139E-05,-0.4134414,2.272657E-08,NaN,NaN,-0.02002371,-1.90922E-10,1.946362E-08,-1.123184E-07,-1.508409E-08,-2.861022E-08
503.1088,0.0222672,-1.101938E-08,NaN,-0.3276205,-1.343336E-07,NaN,0.4684458,5.397344E-09,NaN,-0.2698471,1.534189E-05,-0.4160339,2.259918E-08,NaN,NaN,-0.02002416,-1.769521E-10,9.330834E-09,-1.123196E-07,-1.508409E-08,-2.622604E-08
503.1234,0.01719152,-1.101855E-08,NaN,-0.3276199,-1.343342E-07,NaN,0.47189,5.524007E-09,NaN,-0.2719401,1.53424E-05,-0.418523,2.247423E-08,NaN,NaN,-0.02002453,-1.722955E-10,3.072346E-09,-1.123209E-07,-7.931531E-09,-2.861022E-08
503.1382,0.01719152,-1.101855E-08,NaN,-0.3276199,-1.343342E-07,NaN,0.47189,5.524007E-09,NaN,-0.2719401,1.53424E-05,-0.418523,2.247423E-08,NaN,NaN,-0.02002453,-1.722955E-10,3.072346E-09,-1.123209E-07,-7.931531E-09,-2.861022E-08
503.1534,0.01193019,-1.101772E-08,NaN,-0.3276187,-1.343347E-07,NaN,0.4751871,5.648268E-09,NaN,-0.2740616,1.534289E-05,-0.4208654,2.235169E-08,NaN,NaN,-0.02002483,-1.536691E-10,-4.080211E-09,-1.123222E-07,-1.26999E-08,-2.622604E-08
503.1677,0.005845721,-1.101688E-08,NaN,-0.3276185,-1.343353E-07,NaN,0.4792311,5.767347E-09,NaN,-0.2758037,1.53434E-05,-0.4238137,2.223434E-08,NaN,NaN,-0.02002424,-1.490125E-10,-1.659719E-08,-1.123234E-07,-7.931531E-09,-2.861022E-08
503.1822,-0.0007310831,-1.101605E-08,NaN,-0.3276178,-1.343358E-07,NaN,0.4834094,5.884174E-09,NaN,-0.2774474,1.53439E-05,-0.4268414,2.211923E-08,NaN,NaN,-0.02002345,-1.350426E-10,-2.464381E-08,-1.123247E-07,-1.26999E-08,-2.622604E-08
503.1972,-0.0007310831,-1.101605E-08,NaN,-0.3276178,-1.343358E-07,NaN,0.4834094,5.884174E-09,NaN,-0.2774474,1.53439E-05,-0.4268414,2.211923E-08,NaN,NaN,-0.02002345,-1.350426E-10,-2.464381E-08,-1.123247E-07,-1.26999E-08,-2.622604E-08
503.2111,-0.007590049,-1.101522E-08,NaN,-0.3276165,-1.343364E-07,NaN,0.4875006,5.995966E-09,NaN,-0.2790965,1.53444E-05,-0.4297716,2.200916E-08,NaN,NaN,-0.02002261,-1.30386E-10,-3.09023E-08,-1.12326E-07,-1.031572E-08,-2.861022E-08
503.2263,-0.01459778,-1.101438E-08,NaN,-0.3276146,-1.34337E-07,NaN,0.491438,6.105602E-09,NaN,-0.2807802,1.534491E-05,-0.4325601,2.190124E-08,NaN,NaN,-0.02002173,-1.164162E-10,-3.775683E-08,-1.123272E-07,-1.26999E-08,-2.622604E-08
503.2409,-0.02239813,-1.101355E-08,NaN,-0.3276136,-1.343375E-07,NaN,0.4961172,6.210345E-09,NaN,-0.2820945,1.534543E-05,-0.4359628,2.179822E-08,NaN,NaN,-0.02001996,-1.164162E-10,-3.9843E-08,-1.123285E-07,-1.031572E-08,-2.861022E-08
503.2555,-0.02239813,-1.101355E-08,NaN,-0.3276136,-1.343375E-07,NaN,0.4961172,6.210345E-09,NaN,-0.2820945,1.534543E-05,-0.4359628,2.179822E-08,NaN,NaN,-0.02001996,-1.164162E-10,-3.9843E-08,-1.123285E-07,-1.031572E-08,-2.861022E-08
503.2697,-0.0306644,-1.101272E-08,NaN,-0.327612,-1.343381E-07,NaN,0.5009229,6.313119E-09,NaN,-0.283319,1.534595E-05,-0.4394485,2.169716E-08,NaN,NaN,-0.02001804,-1.07103E-10,-4.878369E-08,-1.123297E-07,-1.031572E-08,-2.622604E-08
503.2849,-0.03918911,-1.101188E-08,NaN,-0.3276096,-1.343386E-07,NaN,0.5056331,6.413961E-09,NaN,-0.2845576,1.534648E-05,-0.4428377,2.159804E-08,NaN,NaN,-0.02001609,-1.07103E-10,-5.474416E-08,-1.123309E-07,-7.931531E-09,-2.861022E-08
503.2994,-0.03918911,-1.101188E-08,NaN,-0.3276096,-1.343386E-07,NaN,0.5056331,6.413961E-09,NaN,-0.2845576,1.534648E-05,-0.4428377,2.159804E-08,NaN,NaN,-0.02001609,-1.07103E-10,-5.474416E-08,-1.123309E-07,-7.931531E-09,-2.861022E-08
503.3156,-0.04856905,-1.101105E-08,NaN,-0.3276079,-1.343391E-07,NaN,0.5110927,6.510084E-09,NaN,-0.2854387,1.534701E-05,-0.4468481,2.150364E-08,NaN,NaN,-0.02001327,-9.778975E-11,-5.951253E-08,-1.123322E-07,-7.931531E-09,-2.622604E-08
503.3298,-0.05844766,-1.101021E-08,NaN,-0.3276052,-1.343397E-07,NaN,0.5166631,6.604406E-09,NaN,-0.2862493,1.534754E-05,-0.4509294,2.141103E-08,NaN,NaN,-0.02001031,-9.313313E-11,-6.636706E-08,-1.123334E-07,-1.031572E-08,-2.861022E-08
503.3434,-0.06859852,-1.100938E-08,NaN,-0.3276012,-1.343402E-07,NaN,0.522116,6.694136E-09,NaN,-0.2870937,1.534806E-05,-0.4548976,2.132302E-08,NaN,NaN,-0.02000737,-8.381991E-11,-7.59038E-08,-1.123346E-07,-1.26999E-08,-2.622604E-08
503.3579,-0.06859852,-1.100938E-08,NaN,-0.3276012,-1.343402E-07,NaN,0.522116,6.694136E-09,NaN,-0.2870937,1.534806E-05,-0.4548976,2.132302E-08,NaN,NaN,-0.02000737,-8.381991E-11,-7.59038E-08,-1.123346E-07,-1.26999E-08,-2.622604E-08
503.372,-0.0788781,-1.100855E-08,NaN,-0.3275953,-1.343408E-07,NaN,0.5273843,6.782192E-09,NaN,-0.2879997,1.53486E-05,-0.4587075,2.123669E-08,NaN,NaN,-0.02000445,-8.847652E-11,-8.067217E-08,-1.123359E-07,-1.031572E-08,-2.861022E-08
503.387,-0.08992392,-1.100771E-08,NaN,-0.3275904,-1.343413E-07,NaN,0.5333923,6.868606E-09,NaN,-0.2885697,1.534913E-05,-0.463149,2.115199E-08,NaN,NaN,-0.02000057,-8.381991E-11,-8.663264E-08,-1.123371E-07,-1.508409E-08,-2.622604E-08
503.4015,-0.1014054,-1.100688E-08,NaN,-0.3275841,-1.343418E-07,NaN,0.5395075,6.950585E-09,NaN,-0.2890757,1.534967E-05,-0.4676712,2.107173E-08,NaN,NaN,-0.01999657,-7.916329E-11,-8.842078E-08,-1.123383E-07,-1.746827E-08,-2.861022E-08
503.4161,-0.1014054,-1.100688E-08,NaN,-0.3275841,-1.343418E-07,NaN,0.5395075,6.950585E-09,NaN,-0.2890757,1.534967E-05,-0.4676712,2.107173E-08,NaN,NaN,-0.01999657,-7.916329E-11,-8.842078E-08,-1.123383E-07,-1.746827E-08,-2.861022E-08
503.4301,-0.1131129,-1.100604E-08,NaN,-0.3275758,-1.343424E-07,NaN,0.5455046,7.03104E-09,NaN,-0.2896185,1.53502E-05,-0.4720888,2.0993E-08,NaN,NaN,-0.0199926,-7.450668E-11,-9.140101E-08,-1.123395E-07,-1.031571E-08,-2.622604E-08
503.4456,-0.1249133,-1.100521E-08,NaN,-0.3275656,-1.343429E-07,NaN,0.5513173,7.107174E-09,NaN,-0.2902259,1.535073E-05,-0.4763553,2.091858E-08,NaN,NaN,-0.01998866,-7.450668E-11,-9.438124E-08,-1.123407E-07,-1.031571E-08,-2.861022E-08
503.4601,-0.1374511,-1.100437E-08,NaN,-0.3275563,-1.343435E-07,NaN,0.5578904,7.181902E-09,NaN,-0.2905065,1.535126E-05,-0.4812827,2.084557E-08,NaN,NaN,-0.01998373,-6.985006E-11,-1.018318E-07,-1.123419E-07,-1.031571E-08,-2.622604E-08
503.4746,-0.1374511,-1.100437E-08,NaN,-0.3275563,-1.343435E-07,NaN,0.5578904,7.181902E-09,NaN,-0.2905065,1.535126E-05,-0.4812827,2.084557E-08,NaN,NaN,-0.01998373,-6.985006E-11,-1.018318E-07,-1.123419E-07,-1.031571E-08,-2.622604E-08
503.4886,-0.1504003,-1.100354E-08,NaN,-0.3275455,-1.34344E-07,NaN,0.564573,7.252423E-09,NaN,-0.29073,1.53518E-05,-0.4863002,2.077677E-08,NaN,NaN,-0.01997866,-6.985006E-11,-9.959664E-08,-1.123431E-07,-1.031571E-08,-2.861022E-08
503.504,-0.1635538,-1.10027E-08,NaN,-0.3275325,-1.343445E-07,NaN,0.5711343,7.321645E-09,NaN,-0.2909969,1.535232E-05,-0.4912155,2.070927E-08,NaN,NaN,-0.01997365,-6.053684E-11,-9.91496E-08,-1.123443E-07,-3.163157E-09,-2.622604E-08
503.5188,-0.1635538,-1.10027E-08,NaN,-0.3275325,-1.343445E-07,NaN,0.5711343,7.321645E-09,NaN,-0.2909969,1.535232E-05,-0.4912155,2.070927E-08,NaN,NaN,-0.01997365,-6.053684E-11,-9.91496E-08,-1.123443E-07,-3.163157E-09,-2.622604E-08
503.5327,-0.177509,-1.100187E-08,NaN,-0.32752,-1.34345E-07,NaN,0.5784796,7.389593E-09,NaN,-0.2909491,1.535286E-05,-0.4968132,2.064304E-08,NaN,NaN,-0.01996761,-6.053684E-11,-1.019808E-07,-1.123455E-07,-3.163157E-09,-2.861022E-08
503.5483,-0.1919101,-1.100103E-08,NaN,-0.3275053,-1.343456E-07,NaN,0.5859249,7.453468E-09,NaN,-0.2908624,1.535338E-05,-0.502493,2.058088E-08,NaN,NaN,-0.01996148,-5.122362E-11,-1.033219E-07,-1.123467E-07,-7.789716E-10,-2.622604E-08
503.5626,-0.2065311,-1.100019E-08,NaN,-0.3274878,-1.343461E-07,NaN,0.5932315,7.516174E-09,NaN,-0.2908377,1.535392E-05,-0.5080562,2.051989E-08,NaN,NaN,-0.01995542,-5.122362E-11,-1.018318E-07,-1.123478E-07,-3.163157E-09,-2.861022E-08
503.5773,-0.2065311,-1.100019E-08,NaN,-0.3274878,-1.343461E-07,NaN,0.5932315,7.516174E-09,NaN,-0.2908377,1.535392E-05,-0.5080562,2.051989E-08,NaN,NaN,-0.01995542,-5.122362E-11,-1.018318E-07,-1.123478E-07,-3.163157E-09,-2.861022E-08
503.5913,-0.221229,-1.099936E-08,NaN,-0.327468,-1.343466E-07,NaN,0.6003318,7.57491E-09,NaN,-0.2909015,1.535445E-05,-0.5134543,2.046287E-08,NaN,NaN,-0.01994942,-4.6567E-11,-9.557333E-08,-1.12349E-07,-5.547343E-09,-2.622604E-08
503.6078,-0.2366422,-1.099852E-08,NaN,-0.3274488,-1.343471E-07,NaN,0.608226,7.632578E-09,NaN,-0.2906725,1.535498E-05,-0.5195605,2.040692E-08,NaN,NaN,-0.01994226,-4.6567E-11,-8.916583E-08,-1.123502E-07,-5.547343E-09,-2.861022E-08
503.6225,-0.2524405,-1.099769E-08,NaN,-0.3274276,-1.343477E-07,NaN,0.6162256,7.689199E-09,NaN,-0.2904105,1.535551E-05,-0.5257636,2.035202E-08,NaN,NaN,-0.01993499,-3.725378E-11,-9.184804E-08,-1.123514E-07,-5.547343E-09,-2.622604E-08
503.6361,-0.2524405,-1.099769E-08,NaN,-0.3274276,-1.343477E-07,NaN,0.6162256,7.689199E-09,NaN,-0.2904105,1.535551E-05,-0.5257636,2.035202E-08,NaN,NaN,-0.01993499,-3.725378E-11,-9.184804E-08,-1.123514E-07,-5.547343E-09,-2.622604E-08
503.65,-0.2684149,-1.099685E-08,NaN,-0.327404,-1.343482E-07,NaN,0.62409,7.741969E-09,NaN,-0.2902122,1.535604E-05,-0.5318596,2.030097E-08,NaN,NaN,-0.01992781,-3.725378E-11,-9.825553E-08,-1.123525E-07,-3.163157E-09,-2.861022E-08
503.6652,-0.2844329,-1.099601E-08,NaN,-0.3273781,-1.343487E-07,NaN,0.6317497,7.793789E-09,NaN,-0.2901038,1.535658E-05,-0.5377965,2.025087E-08,NaN,NaN,-0.0199207,-3.259716E-11,-9.959664E-08,-1.123537E-07,-7.789716E-10,-2.622604E-08
503.6799,-0.2844329,-1.099601E-08,NaN,-0.3273781,-1.343487E-07,NaN,0.6317497,7.793789E-09,NaN,-0.2901038,1.535658E-05,-0.5377965,2.025087E-08,NaN,NaN,-0.0199207,-3.259716E-11,-9.959664E-08,-1.123537E-07,-7.789716E-10,-2.622604E-08
503.6938,-0.3011395,-1.099518E-08,NaN,-0.3273532,-1.343492E-07,NaN,0.6402406,7.844677E-09,NaN,-0.2897131,1.535711E-05,-0.5444847,2.02017E-08,NaN,NaN,-0.01991233,-3.259716E-11,-1.001927E-07,-1.123548E-07,3.9894E-09,-2.861022E-08
503.7092,-0.3182093,-1.099434E-08,NaN,-0.3273264,-1.343497E-07,NaN,0.6488443,7.891826E-09,NaN,-0.2892955,1.535764E-05,-0.5512816,2.015627E-08,NaN,NaN,-0.01990387,-2.794055E-11,-1.001927E-07,-1.12356E-07,3.9894E-09,-2.622604E-08
503.7242,-0.3354358,-1.09935E-08,NaN,-0.3272971,-1.343502E-07,NaN,0.6573104,7.938135E-09,NaN,-0.2889468,1.535818E-05,-0.5579723,2.011167E-08,NaN,NaN,-0.01989553,-2.794055E-11,-9.929862E-08,-1.123571E-07,6.373586E-09,-2.861022E-08
503.7385,-0.3354358,-1.09935E-08,NaN,-0.3272971,-1.343502E-07,NaN,0.6573104,7.938135E-09,NaN,-0.2889468,1.535818E-05,-0.5579723,2.011167E-08,NaN,NaN,-0.01989553,-2.794055E-11,-9.929862E-08,-1.123571E-07,6.373586E-09,-2.861022E-08
503.7526,-0.353417,-1.099266E-08,NaN,-0.3272681,-1.343507E-07,NaN,0.6666425,7.980793E-09,NaN,-0.2883291,1.535871E-05,-0.565446,2.007073E-08,NaN,NaN,-0.01988589,-2.328394E-11,-8.558955E-08,-1.123583E-07,3.9894E-09,-2.622604E-08
503.7683,-0.3717974,-1.099183E-08,NaN,-0.3272365,-1.343513E-07,NaN,0.6760802,8.022699E-09,NaN,-0.2877024,1.535924E-05,-0.5730216,2.003054E-08,NaN,NaN,-0.0198762,-2.328394E-11,-8.141722E-08,-1.123594E-07,6.373586E-09,-2.861022E-08
503.783,-0.3903517,-1.099099E-08,NaN,-0.3272018,-1.343518E-07,NaN,0.6853628,8.063868E-09,NaN,-0.2871625,1.535977E-05,-0.580475,1.999109E-08,NaN,NaN,-0.01986663,-1.397072E-11,-7.918204E-08,-1.123606E-07,3.9894E-09,-2.622604E-08
503.7975,-0.3903517,-1.099099E-08,NaN,-0.3272018,-1.343518E-07,NaN,0.6853628,8.063868E-09,NaN,-0.2871625,1.535977E-05,-0.580475,1.999109E-08,NaN,NaN,-0.01986663,-1.397072E-11,-7.918204E-08,-1.123606E-07,3.9894E-09,-2.622604E-08
503.8116,-0.4089375,-1.099015E-08,NaN,-0.3271646,-1.343523E-07,NaN,0.6944179,8.101487E-09,NaN,-0.2867343,1.53603E-05,-0.5877512,1.995519E-08,NaN,NaN,-0.01985718,-1.397072E-11,-7.635082E-08,-1.123617E-07,6.373586E-09,-2.861022E-08
503.8271,-0.4281936,-1.098931E-08,NaN,-0.3271282,-1.343528E-07,NaN,0.7043628,8.138445E-09,NaN,-0.2860609,1.536083E-05,-0.5958468,1.991995E-08,NaN,NaN,-0.01984627,-9.314102E-12,-6.949629E-08,-1.123628E-07,6.373586E-09,-2.622604E-08
503.8417,-0.4477904,-1.098848E-08,NaN,-0.3270895,-1.343533E-07,NaN,0.7144218,8.171936E-09,NaN,-0.2853843,1.536137E-05,-0.6040601,1.988818E-08,NaN,NaN,-0.01983529,-9.314102E-12,-7.202949E-08,-1.12364E-07,1.605214E-09,-2.861022E-08
503.8561,-0.4477904,-1.098848E-08,NaN,-0.3270895,-1.343533E-07,NaN,0.7144218,8.171936E-09,NaN,-0.2853843,1.536137E-05,-0.6040601,1.988818E-08,NaN,NaN,-0.01983529,-9.314102E-12,-7.202949E-08,-1.12364E-07,1.605214E-09,-2.861022E-08
503.8723,-0.4675193,-1.098764E-08,NaN,-0.3270482,-1.343538E-07,NaN,0.7243284,8.204855E-09,NaN,-0.2847953,1.53619E-05,-0.6121582,1.985697E-08,NaN,NaN,-0.01982448,-4.65749E-12,-7.21785E-08,-1.123651E-07,8.757771E-09,-2.622604E-08
503.8868,-0.4872485,-1.09868E-08,NaN,-0.3270047,-1.343543E-07,NaN,0.7340069,8.237213E-09,NaN,-0.2843186,1.536244E-05,-0.6200808,1.982633E-08,NaN,NaN,-0.01981381,-4.65749E-12,-6.71121E-08,-1.123662E-07,3.9894E-09,-2.861022E-08
503.9003,-0.5076234,-1.098596E-08,NaN,-0.3269623,-1.343548E-07,NaN,0.7446229,8.266194E-09,NaN,-0.2836097,1.536297E-05,-0.628875,1.979907E-08,NaN,NaN,-0.01980158,-8.769027E-16,-6.919826E-08,-1.123673E-07,6.373586E-09,-2.622604E-08
503.915,-0.5076234,-1.098596E-08,NaN,-0.3269623,-1.343548E-07,NaN,0.7446229,8.266194E-09,NaN,-0.2836097,1.536297E-05,-0.628875,1.979907E-08,NaN,NaN,-0.01980158,-8.769027E-16,-6.919826E-08,-1.123673E-07,6.373586E-09,-2.622604E-08
503.929,-0.5283191,-1.098512E-08,NaN,-0.3269179,-1.343553E-07,NaN,0.7553604,8.294691E-09,NaN,-0.2829037,1.53635E-05,-0.6377971,1.977229E-08,NaN,NaN,-0.01978931,-8.769027E-16,-6.368484E-08,-1.123684E-07,8.757771E-09,-2.861022E-08
503.9442,-0.5491297,-1.098428E-08,NaN,-0.3268709,-1.343558E-07,NaN,0.7659391,8.322715E-09,NaN,-0.2822899,1.536403E-05,-0.6465997,1.974598E-08,NaN,NaN,-0.01977727,4.655736E-12,-5.608524E-08,-1.123695E-07,1.114196E-08,-2.622604E-08
503.9587,-0.5491297,-1.098428E-08,NaN,-0.3268709,-1.343558E-07,NaN,0.7659391,8.322715E-09,NaN,-0.2822899,1.536403E-05,-0.6465997,1.974598E-08,NaN,NaN,-0.01977727,4.655736E-12,-5.608524E-08,-1.123695E-07,1.114196E-08,-2.622604E-08
503.973,-0.5706534,-1.098344E-08,NaN,-0.3268243,-1.343563E-07,NaN,0.7774948,8.347447E-09,NaN,-0.2814598,1.536457E-05,-0.6563102,1.972297E-08,NaN,NaN,-0.01976365,4.655736E-12,-4.952873E-08,-1.123706E-07,8.757771E-09,-2.861022E-08
503.9883,-0.5925355,-1.09826E-08,NaN,-0.3267749,-1.343568E-07,NaN,0.7891614,8.371778E-09,NaN,-0.2806508,1.53651E-05,-0.6661377,1.970035E-08,NaN,NaN,-0.01975008,9.312349E-12,-4.669751E-08,-1.123717E-07,8.757771E-09,-2.622604E-08
504.0029,-0.6145509,-1.098176E-08,NaN,-0.3267222,-1.343573E-07,NaN,0.8006457,8.39289E-09,NaN,-0.2799515,1.536563E-05,-0.6758232,1.968096E-08,NaN,NaN,-0.01973679,9.312349E-12,-3.954495E-08,-1.123728E-07,8.757771E-09,-2.861022E-08
504.0177,-0.6145509,-1.098176E-08,NaN,-0.3267222,-1.343573E-07,NaN,0.8006457,8.39289E-09,NaN,-0.2799515,1.536563E-05,-0.6758232,1.968096E-08,NaN,NaN,-0.01973679,9.312349E-12,-3.954495E-08,-1.123728E-07,8.757771E-09,-2.861022E-08
504.0316,-0.636558,-1.098093E-08,NaN,-0.3266671,-1.343573E-07,NaN,0.8118677,8.430208E-09,NaN,-0.2793846,1.536615E-05,-0.6853019,1.964536E-08,NaN,NaN,-0.01972373,9.312349E-12,-3.492559E-08,-1.123715E-07,6.373586E-09,-2.622604E-08
504.0474,-0.6586884,-1.098009E-08,NaN,-0.3266113,-1.343566E-07,NaN,0.8232061,8.18216E-09,NaN,-0.2788501,1.536667E-05,-0.6949225,1.989514E-08,NaN,NaN,-0.01971025,4.655736E-12,-2.941217E-08,-1.123694E-07,3.9894E-09,-2.861022E-08
504.0617,-0.6808038,-1.097925E-08,NaN,-0.3265545,-1.343554E-07,NaN,0.8343996,7.820685E-09,NaN,-0.2784056,1.536718E-05,-0.7044467,2.025835E-08,NaN,NaN,-0.01969689,-8.769027E-16,-1.734222E-08,-1.12367E-07,3.9894E-09,-2.622604E-08
504.0764,-0.6808038,-1.097925E-08,NaN,-0.3265545,-1.343554E-07,NaN,0.8343996,7.820685E-09,NaN,-0.2784056,1.536718E-05,-0.7044467,2.025835E-08,NaN,NaN,-0.01969689,-8.769027E-16,-1.734222E-08,-1.12367E-07,3.9894E-09,-2.622604E-08
504.0903,-0.702817,-1.097841E-08,NaN,-0.3264972,-1.343539E-07,NaN,0.8453658,7.398753E-09,NaN,-0.2780676,1.536769E-05,-0.7138019,2.068204E-08,NaN,NaN,-0.01968375,-9.314102E-12,-4.378213E-09,-1.123644E-07,6.373586E-09,-2.861022E-08
504.1072,-0.7246737,-1.097757E-08,NaN,-0.3264399,-1.343521E-07,NaN,0.8560863,6.94574E-09,NaN,-0.277835,1.536818E-05,-0.7229734,2.113681E-08,NaN,NaN,-0.01967084,-9.314102E-12,2.923355E-09,-1.123617E-07,8.757771E-09,-2.622604E-08
504.1205,-0.7463408,-1.097673E-08,NaN,-0.3263833,-1.343503E-07,NaN,0.8665626,6.481995E-09,NaN,-0.2777009,1.536869E-05,-0.7319638,2.160232E-08,NaN,NaN,-0.01965818,-1.397072E-11,1.096998E-08,-1.123589E-07,8.757771E-09,-2.861022E-08
504.1351,-0.7463408,-1.097673E-08,NaN,-0.3263833,-1.343503E-07,NaN,0.8665626,6.481995E-09,NaN,-0.2777009,1.536869E-05,-0.7319638,2.160232E-08,NaN,NaN,-0.01965818,-1.397072E-11,1.096998E-08,-1.123589E-07,8.757771E-09,-2.861022E-08
504.1512,-0.7677977,-1.097589E-08,NaN,-0.3263278,-1.343485E-07,NaN,0.8768003,6.016182E-09,NaN,-0.2776572,1.536918E-05,-0.7407781,2.206991E-08,NaN,NaN,-0.01964579,-9.314102E-12,1.156603E-08,-1.123561E-07,3.9894E-09,-2.622604E-08
504.1646,-0.7890329,-1.097505E-08,NaN,-0.3262738,-1.343466E-07,NaN,0.8868039,5.553981E-09,NaN,-0.2776966,1.536969E-05,-0.74942,2.253389E-08,NaN,NaN,-0.01963367,-1.862733E-11,1.916562E-08,-1.123533E-07,1.605214E-09,-2.861022E-08
504.1793,-0.7890329,-1.097505E-08,NaN,-0.3262738,-1.343466E-07,NaN,0.8868039,5.553981E-09,NaN,-0.2776966,1.536969E-05,-0.74942,2.253389E-08,NaN,NaN,-0.01963367,-1.862733E-11,1.916562E-08,-1.123533E-07,1.605214E-09,-2.861022E-08
504.1931,-0.8100398,-1.097421E-08,NaN,-0.3262214,-1.343447E-07,NaN,0.8965761,5.098137E-09,NaN,-0.2778128,1.537018E-05,-0.7578909,2.299152E-08,NaN,NaN,-0.01962185,-1.397072E-11,2.66162E-08,-1.123505E-07,6.373586E-09,-2.622604E-08
504.2082,-0.8308154,-1.097337E-08,NaN,-0.326171,-1.343428E-07,NaN,0.906118,4.651346E-09,NaN,-0.2780006,1.537068E-05,-0.7661906,2.34401E-08,NaN,NaN,-0.01961038,-1.862733E-11,2.885138E-08,-1.123476E-07,3.9894E-09,-2.861022E-08
504.2229,-0.8513586,-1.097253E-08,NaN,-0.3261224,-1.343409E-07,NaN,0.9154291,4.213427E-09,NaN,-0.2782556,1.537118E-05,-0.7743174,2.387981E-08,NaN,NaN,-0.01959924,-1.397072E-11,3.436481E-08,-1.123448E-07,-7.789716E-10,-2.622604E-08
504.2378,-0.8513586,-1.097253E-08,NaN,-0.3261224,-1.343409E-07,NaN,0.9154291,4.213427E-09,NaN,-0.2782556,1.537118E-05,-0.7743174,2.387981E-08,NaN,NaN,-0.01959924,-1.397072E-11,3.436481E-08,-1.123448E-07,-7.789716E-10,-2.622604E-08
504.2518,-0.8716699,-1.097169E-08,NaN,-0.3260758,-1.34339E-07,NaN,0.9245081,3.787028E-09,NaN,-0.2785742,1.537168E-05,-0.7822685,2.4308E-08,NaN,NaN,-0.01958848,-2.328394E-11,4.017626E-08,-1.12342E-07,-7.789716E-10,-2.861022E-08
504.2673,-0.8917504,-1.097085E-08,NaN,-0.3260312,-1.343375E-07,NaN,0.9333535,3.442805E-09,NaN,-0.278953,1.537219E-05,-0.7900412,2.465401E-08,NaN,NaN,-0.01957809,-2.794055E-11,4.732882E-08,-1.123417E-07,-3.163157E-09,-2.861022E-08
504.2819,-0.9116019,-1.097002E-08,NaN,-0.3259886,-1.343368E-07,NaN,0.9419634,3.393011E-09,NaN,-0.2793892,1.537269E-05,-0.7976323,2.470559E-08,NaN,NaN,-0.01956809,-2.794055E-11,5.418335E-08,-1.12342E-07,-1.971064E-09,-2.861022E-08
504.2968,-0.9116019,-1.097002E-08,NaN,-0.3259886,-1.343368E-07,NaN,0.9419634,3.393011E-09,NaN,-0.2793892,1.537269E-05,-0.7976323,2.470559E-08,NaN,NaN,-0.01956809,-2.794055E-11,5.418335E-08,-1.12342E-07,-1.971064E-09,-2.861022E-08
504.3108,-0.9312264,-1.096918E-08,NaN,-0.3259478,-1.343366E-07,NaN,0.950336,3.4627E-09,NaN,-0.27988,1.537319E-05,-0.8050387,2.463767E-08,NaN,NaN,-0.01955849,-2.794055E-11,5.716359E-08,-1.123428E-07,4.131213E-10,-2.861022E-08
504.3262,-0.9506261,-1.096834E-08,NaN,-0.325909,-1.343367E-07,NaN,0.9584693,3.601612E-09,NaN,-0.2804228,1.53737E-05,-0.8122575,2.450052E-08,NaN,NaN,-0.01954928,-2.794055E-11,5.99948E-08,-1.123437E-07,1.605214E-09,-2.861022E-08
504.3408,-0.9698033,-1.09675E-08,NaN,-0.325872,-1.34337E-07,NaN,0.9663621,3.777371E-09,NaN,-0.2810152,1.537419E-05,-0.8192861,2.432652E-08,NaN,NaN,-0.01954046,-2.328394E-11,6.580625E-08,-1.123447E-07,5.181493E-09,-2.861022E-08
504.3555,-0.9698033,-1.09675E-08,NaN,-0.325872,-1.34337E-07,NaN,0.9663621,3.777371E-09,NaN,-0.2810152,1.537419E-05,-0.8192861,2.432652E-08,NaN,NaN,-0.01954046,-2.328394E-11,6.580625E-08,-1.123447E-07,5.181493E-09,-2.861022E-08
504.3695,-0.9887606,-1.096667E-08,NaN,-0.3258368,-1.343374E-07,NaN,0.9740128,3.972338E-09,NaN,-0.2816548,1.537469E-05,-0.826122,2.41333E-08,NaN,NaN,-0.01953205,-1.862733E-11,7.385288E-08,-1.123458E-07,3.9894E-09,-2.861022E-08
504.385,-1.0075,-1.096583E-08,NaN,-0.3258034,-1.343379E-07,NaN,0.9814207,4.177682E-09,NaN,-0.2823393,1.53752E-05,-0.8327633,2.39297E-08,NaN,NaN,-0.01952405,-1.862733E-11,7.474695E-08,-1.123469E-07,1.605214E-09,-2.861022E-08
504.3996,-1.0075,-1.096583E-08,NaN,-0.3258034,-1.343379E-07,NaN,0.9814207,4.177682E-09,NaN,-0.2823393,1.53752E-05,-0.8327633,2.39297E-08,NaN,NaN,-0.01952405,-1.862733E-11,7.474695E-08,-1.123469E-07,1.605214E-09,-2.861022E-08
504.4155,-1.026025,-1.096499E-08,NaN,-0.3257717,-1.343384E-07,NaN,0.9885848,4.384738E-09,NaN,-0.2830665,1.53757E-05,-0.8392079,2.372438E-08,NaN,NaN,-0.01951642,-1.862733E-11,8.249555E-08,-1.12348E-07,-3.163157E-09,-2.861022E-08
504.4292,-1.044337,-1.096415E-08,NaN,-0.3257416,-1.343389E-07,NaN,0.9955047,4.590655E-09,NaN,-0.2838341,1.53762E-05,-0.8454545,2.35202E-08,NaN,NaN,-0.01950919,-1.397072E-11,8.8307E-08,-1.123492E-07,-6.739436E-09,-2.861022E-08
504.4436,-1.062438,-1.096332E-08,NaN,-0.3257131,-1.343394E-07,NaN,1.00218,4.795458E-09,NaN,-0.2846402,1.537669E-05,-0.8515017,2.331712E-08,NaN,NaN,-0.01950236,-9.314103E-12,8.800898E-08,-1.123504E-07,-7.931528E-09,-2.861022E-08
504.4582,-1.062438,-1.096332E-08,NaN,-0.3257131,-1.343394E-07,NaN,1.00218,4.795458E-09,NaN,-0.2846402,1.537669E-05,-0.8515017,2.331712E-08,NaN,NaN,-0.01950236,-9.314103E-12,8.800898E-08,-1.123504E-07,-7.931528E-09,-2.861022E-08
504.472,-1.080331,-1.096248E-08,NaN,-0.3256862,-1.3434E-07,NaN,1.008612,4.996342E-09,NaN,-0.2854826,1.537719E-05,-0.8573489,2.311797E-08,NaN,NaN,-0.0194959,-9.314103E-12,8.890305E-08,-1.123515E-07,-9.123621E-09,-2.861022E-08
504.4875,-1.098019,-1.096164E-08,NaN,-0.3256609,-1.343405E-07,NaN,1.014799,5.193391E-09,NaN,-0.2863592,1.537769E-05,-0.8629953,2.292264E-08,NaN,NaN,-0.01948981,-9.314103E-12,9.396945E-08,-1.123527E-07,-4.355249E-09,-2.861022E-08
504.5022,-1.115504,-1.09608E-08,NaN,-0.325637,-1.343411E-07,NaN,1.020744,5.386682E-09,NaN,-0.2872681,1.537818E-05,-0.8684408,2.273108E-08,NaN,NaN,-0.01948409,-4.657491E-12,1.033572E-07,-1.123538E-07,-4.355249E-09,-2.861022E-08
504.517,-1.115504,-1.09608E-08,NaN,-0.325637,-1.343411E-07,NaN,1.020744,5.386682E-09,NaN,-0.2872681,1.537818E-05,-0.8684408,2.273108E-08,NaN,NaN,-0.01948409,-4.657491E-12,1.033572E-07,-1.123538E-07,-4.355249E-09,-2.861022E-08
504.5309,-1.132788,-1.095997E-08,NaN,-0.3256145,-1.343416E-07,NaN,1.026447,5.576292E-09,NaN,-0.2882075,1.537868E-05,-0.8736854,2.254319E-08,NaN,NaN,-0.01947873,-4.657491E-12,1.063374E-07,-1.12355E-07,-5.547342E-09,-2.861022E-08
504.5464,-1.149873,-1.095913E-08,NaN,-0.3255934,-1.343421E-07,NaN,1.031909,5.759465E-09,NaN,-0.2891753,1.537918E-05,-0.8787292,2.236173E-08,NaN,NaN,-0.01947372,-4.657491E-12,1.070825E-07,-1.123561E-07,-1.031571E-08,-2.861022E-08
504.5609,-1.166762,-1.095829E-08,NaN,-0.3255737,-1.343427E-07,NaN,1.037131,5.939154E-09,NaN,-0.2901698,1.537968E-05,-0.8835729,2.218377E-08,NaN,NaN,-0.01946906,-4.657491E-12,1.070825E-07,-1.123573E-07,-7.931527E-09,-2.861022E-08
504.5755,-1.166762,-1.095829E-08,NaN,-0.3255737,-1.343427E-07,NaN,1.037131,5.939154E-09,NaN,-0.2901698,1.537968E-05,-0.8835729,2.218377E-08,NaN,NaN,-0.01946906,-4.657491E-12,1.070825E-07,-1.123573E-07,-7.931527E-09,-2.861022E-08
504.5931,-1.183457,-1.095745E-08,NaN,-0.3255553,-1.343432E-07,NaN,1.042116,6.115429E-09,NaN,-0.2911893,1.538018E-05,-0.8882172,2.200921E-08,NaN,NaN,-0.01946474,-4.657491E-12,1.084236E-07,-1.123584E-07,-6.739435E-09,-2.861022E-08
504.6063,-1.19996,-1.095662E-08,NaN,-0.3255381,-1.343438E-07,NaN,1.046866,6.285528E-09,NaN,-0.2922319,1.538068E-05,-0.8926632,2.184083E-08,NaN,NaN,-0.01946074,-4.657491E-12,1.087216E-07,-1.123596E-07,-6.739435E-09,-2.861022E-08
504.6198,-1.19996,-1.095662E-08,NaN,-0.3255381,-1.343438E-07,NaN,1.046866,6.285528E-09,NaN,-0.2922319,1.538068E-05,-0.8926632,2.184083E-08,NaN,NaN,-0.01946074,-4.657491E-12,1.087216E-07,-1.123596E-07,-6.739435E-09,-2.861022E-08
504.6339,-1.216052,-1.095578E-08,NaN,-0.3255215,-1.343443E-07,NaN,1.050951,6.452402E-09,NaN,-0.2933673,1.538117E-05,-0.8965116,2.167567E-08,NaN,NaN,-0.01945765,-4.657491E-12,1.117018E-07,-1.123607E-07,-4.355249E-09,-2.861022E-08
504.6494,-1.231819,-1.095494E-08,NaN,-0.3255063,-1.343448E-07,NaN,1.054689,6.616112E-09,NaN,-0.2945437,1.538167E-05,-0.9000589,2.151368E-08,NaN,NaN,-0.01945491,-4.657491E-12,1.160232E-07,-1.123618E-07,-4.355249E-09,-2.861022E-08
504.6637,-1.247316,-1.095411E-08,NaN,-0.3254929,-1.343453E-07,NaN,1.058194,6.773894E-09,NaN,-0.2957378,1.538217E-05,-0.9034108,2.135761E-08,NaN,NaN,-0.01945238,-8.777701E-16,1.222816E-07,-1.12363E-07,-2.56711E-09,-2.861022E-08
504.6806,-1.262577,-1.095327E-08,NaN,-0.3254813,-1.343459E-07,NaN,1.061502,6.928692E-09,NaN,-0.2969401,1.538266E-05,-0.9065994,2.120453E-08,NaN,NaN,-0.01945008,-8.777701E-16,1.274971E-07,-1.123641E-07,-3.759203E-09,-2.861022E-08
504.6939,-1.262577,-1.095327E-08,NaN,-0.3254813,-1.343459E-07,NaN,1.061502,6.928692E-09,NaN,-0.2969401,1.538266E-05,-0.9065994,2.120453E-08,NaN,NaN,-0.01945008,-8.777701E-16,1.274971E-07,-1.123641E-07,-3.759203E-09,-2.861022E-08
504.7081,-1.276899,-1.095243E-08,NaN,-0.3254689,-1.343464E-07,NaN,1.063213,7.080564E-09,NaN,-0.2983765,1.538316E-05,-0.9083183,2.105438E-08,NaN,NaN,-0.01944992,-8.777701E-16,1.277951E-07,-1.123652E-07,-1.375017E-09,-2.861022E-08
504.7222,-1.29057,-1.09516E-08,NaN,-0.3254587,-1.343469E-07,NaN,1.064358,7.226739E-09,NaN,-0.2998866,1.538366E-05,-0.9095352,2.090992E-08,NaN,NaN,-0.01945014,-8.777701E-16,1.252619E-07,-1.123663E-07,-1.829241E-10,-2.861022E-08
504.737,-1.29057,-1.09516E-08,NaN,-0.3254587,-1.343469E-07,NaN,1.064358,7.226739E-09,NaN,-0.2998866,1.538366E-05,-0.9095352,2.090992E-08,NaN,NaN,-0.01945014,-8.777701E-16,1.252619E-07,-1.123663E-07,-1.829241E-10,-2.861022E-08
504.751,-1.303774,-1.095076E-08,NaN,-0.3254517,-1.343474E-07,NaN,1.065302,7.37016E-09,NaN,-0.3014002,1.538416E-05,-0.9105896,2.076821E-08,NaN,NaN,-0.01945037,-8.777701E-16,1.276461E-07,-1.123674E-07,-3.163156E-09,-2.861022E-08
504.7662,-1.31663,-1.094992E-08,NaN,-0.3254476,-1.34348E-07,NaN,1.066154,7.50805E-09,NaN,-0.3028921,1.538466E-05,-0.9115787,2.063204E-08,NaN,NaN,-0.01945063,-8.777701E-16,1.303283E-07,-1.123685E-07,-4.355249E-09,-2.861022E-08
504.7811,-1.328485,-1.094909E-08,NaN,-0.3254438,-1.343485E-07,NaN,1.065544,7.643346E-09,NaN,-0.3045841,1.538516E-05,-0.911222,2.049846E-08,NaN,NaN,-0.0194528,-8.777701E-16,1.309243E-07,-1.123696E-07,-4.355249E-09,-2.861022E-08
504.7956,-1.328485,-1.094909E-08,NaN,-0.3254438,-1.343485E-07,NaN,1.065544,7.643346E-09,NaN,-0.3045841,1.538516E-05,-0.911222,2.049846E-08,NaN,NaN,-0.0194528,-8.777701E-16,1.309243E-07,-1.123696E-07,-4.355249E-09,-2.861022E-08
504.8099,-1.339661,-1.094825E-08,NaN,-0.3254423,-1.34349E-07,NaN,1.064479,7.776099E-09,NaN,-0.3063206,1.538565E-05,-0.9104621,2.036742E-08,NaN,NaN,-0.01945523,-8.777701E-16,1.309243E-07,-1.123707E-07,-5.249319E-09,-2.861022E-08
504.8246,-1.350363,-1.094741E-08,NaN,-0.3254426,-1.343495E-07,NaN,1.063303,7.903531E-09,NaN,-0.308036,1.538615E-05,-0.9096198,2.02417E-08,NaN,NaN,-0.01945762,-8.777701E-16,1.325635E-07,-1.123719E-07,-5.547342E-09,-2.861022E-08
504.8393,-1.350363,-1.094741E-08,NaN,-0.3254426,-1.343495E-07,NaN,1.063303,7.903531E-09,NaN,-0.308036,1.538615E-05,-0.9096198,2.02417E-08,NaN,NaN,-0.01945762,-8.777701E-16,1.325635E-07,-1.123719E-07,-5.547342E-09,-2.861022E-08
504.8535,-1.359995,-1.094658E-08,NaN,-0.3254427,-1.3435E-07,NaN,1.060753,8.028574E-09,NaN,-0.3099383,1.538665E-05,-0.9075112,2.011837E-08,NaN,NaN,-0.01946172,-8.777701E-16,1.300303E-07,-1.123729E-07,-6.143388E-09,-2.861022E-08
504.869,-1.368912,-1.094574E-08,NaN,-0.3254442,-1.343505E-07,NaN,1.057837,8.151274E-09,NaN,-0.311867,1.538715E-05,-0.9050803,1.999739E-08,NaN,NaN,-0.01946598,-8.777701E-16,1.274971E-07,-1.12374E-07,-5.547342E-09,-2.861022E-08
504.8835,-1.377343,-1.094491E-08,NaN,-0.3254469,-1.34351E-07,NaN,1.054895,8.074403E-09,NaN,-0.3137579,1.538765E-05,-0.9026416,2.007597E-08,NaN,NaN,-0.01947009,-8.777701E-16,1.2705E-07,-1.123751E-07,-4.653272E-09,-2.861022E-08
504.8981,-1.377343,-1.094491E-08,NaN,-0.3254469,-1.34351E-07,NaN,1.054895,8.074403E-09,NaN,-0.3137579,1.538765E-05,-0.9026416,2.007597E-08,NaN,NaN,-0.01947009,-8.777701E-16,1.2705E-07,-1.123751E-07,-4.653272E-09,-2.861022E-08
504.9122,-1.385433,-1.094407E-08,NaN,-0.3254514,-1.343516E-07,NaN,1.052013,7.999143E-09,NaN,-0.3155925,1.538816E-05,-0.9002728,2.015295E-08,NaN,NaN,-0.01947404,-8.777701E-16,1.248149E-07,-1.123762E-07,-4.653272E-09,-2.861022E-08
504.9292,-1.392546,-1.094323E-08,NaN,-0.3254554,-1.343521E-07,NaN,1.047867,7.925462E-09,NaN,-0.3176035,1.538867E-05,-0.8967351,2.022835E-08,NaN,NaN,-0.01947955,-8.777701E-16,1.240698E-07,-1.123773E-07,-4.802284E-09,-2.861022E-08
504.9418,-1.399016,-1.09424E-08,NaN,-0.3254613,-1.343526E-07,NaN,1.043406,7.850503E-09,NaN,-0.3196371,1.538917E-05,-0.8929179,2.030502E-08,NaN,NaN,-0.01948516,-8.777701E-16,1.224307E-07,-1.123784E-07,-4.653272E-09,-2.861022E-08
504.9586,-1.399016,-1.09424E-08,NaN,-0.3254613,-1.343526E-07,NaN,1.043406,7.850503E-09,NaN,-0.3196371,1.538917E-05,-0.8929179,2.030502E-08,NaN,NaN,-0.01948516,-8.777701E-16,1.224307E-07,-1.123784E-07,-4.653272E-09,-2.861022E-08
504.9727,-1.405053,-1.094156E-08,NaN,-0.3254695,-1.343531E-07,NaN,1.038957,7.777119E-09,NaN,-0.3216313,1.538968E-05,-0.8891227,2.038012E-08,NaN,NaN,-0.01949055,-8.777701E-16,1.216856E-07,-1.123794E-07,-5.398331E-09,-2.861022E-08
504.9859,-1.410793,-1.094073E-08,NaN,-0.32548,-1.343536E-07,NaN,1.034602,7.702455E-09,NaN,-0.323567,1.539019E-05,-0.8854249,2.04565E-08,NaN,NaN,-0.0194957,-8.777701E-16,1.221326E-07,-1.123805E-07,-5.249319E-09,-2.861022E-08
505.0007,-1.415594,-1.093989E-08,NaN,-0.32549,-1.343541E-07,NaN,1.02906,7.629355E-09,NaN,-0.3256832,1.53907E-05,-0.880628,2.053132E-08,NaN,NaN,-0.01950227,-8.777701E-16,1.209406E-07,-1.123816E-07,-5.361078E-09,-2.861022E-08
505.015,-1.415594,-1.093989E-08,NaN,-0.32549,-1.343541E-07,NaN,1.02906,7.629355E-09,NaN,-0.3256832,1.53907E-05,-0.880628,2.053132E-08,NaN,NaN,-0.01950227,-8.777701E-16,1.209406E-07,-1.123816E-07,-5.361078E-09,-2.861022E-08
505.029,-1.419785,-1.093905E-08,NaN,-0.3255011,-1.343546E-07,NaN,1.023255,7.557793E-09,NaN,-0.3278209,1.53912E-05,-0.8755953,2.060459E-08,NaN,NaN,-0.01950889,-8.777701E-16,1.149801E-07,-1.123826E-07,-5.500776E-09,-2.861022E-08
505.0443,-1.423573,-1.093822E-08,NaN,-0.3255139,-1.343551E-07,NaN,1.017504,7.484912E-09,NaN,-0.3299163,1.53917E-05,-0.8706211,2.067919E-08,NaN,NaN,-0.01951524,9.312348E-12,1.103607E-07,-1.123837E-07,-5.74292E-09,-2.861022E-08
505.0587,-1.423573,-1.093822E-08,NaN,-0.3255139,-1.343551E-07,NaN,1.017504,7.484912E-09,NaN,-0.3299163,1.53917E-05,-0.8706211,2.067919E-08,NaN,NaN,-0.01951524,9.312348E-12,1.103607E-07,-1.123837E-07,-5.74292E-09,-2.861022E-08
505.0729,-1.426365,-1.093738E-08,NaN,-0.3255257,-1.343556E-07,NaN,1.010643,7.413564E-09,NaN,-0.3321961,1.53922E-05,-0.8646201,2.075225E-08,NaN,NaN,-0.01952286,1.862557E-11,1.049963E-07,-1.123848E-07,-5.295885E-09,-2.861022E-08
505.0895,-1.428517,-1.093655E-08,NaN,-0.3255382,-1.343561E-07,NaN,1.003596,7.343719E-09,NaN,-0.3344905,1.53927E-05,-0.8584533,2.082382E-08,NaN,NaN,-0.01953043,2.79388E-11,1.002279E-07,-1.123858E-07,-5.146874E-09,-2.861022E-08
505.1028,-1.430259,-1.093571E-08,NaN,-0.3255516,-1.343566E-07,NaN,0.9966731,7.272519E-09,NaN,-0.3367332,1.539321E-05,-0.852409,2.089673E-08,NaN,NaN,-0.01953767,2.79388E-11,9.605561E-08,-1.123869E-07,-5.444897E-09,-2.861022E-08
505.1177,-1.430259,-1.093571E-08,NaN,-0.3255516,-1.343566E-07,NaN,0.9966731,7.272519E-09,NaN,-0.3367332,1.539321E-05,-0.852409,2.089673E-08,NaN,NaN,-0.01953767,2.79388E-11,9.605561E-08,-1.123869E-07,-5.444897E-09,-2.861022E-08
505.1315,-1.431735,-1.093488E-08,NaN,-0.3255661,-1.343571E-07,NaN,0.9899486,7.202819E-09,NaN,-0.3389052,1.539371E-05,-0.8465548,2.096815E-08,NaN,NaN,-0.01954455,2.79388E-11,9.456549E-08,-1.123879E-07,-6.413472E-09,-2.861022E-08
505.147,-1.43231,-1.093404E-08,NaN,-0.3255788,-1.343576E-07,NaN,0.9822198,7.134589E-09,NaN,-0.3412632,1.539422E-05,-0.8397704,2.103809E-08,NaN,NaN,-0.01955259,2.79388E-11,8.94991E-08,-1.123889E-07,-5.966438E-09,-2.861022E-08
505.1616,-1.432314,-1.09332E-08,NaN,-0.3255912,-1.343581E-07,NaN,0.974344,7.064977E-09,NaN,-0.3436379,1.539473E-05,-0.8328545,2.110942E-08,NaN,NaN,-0.01956059,2.79388E-11,8.622084E-08,-1.1239E-07,-6.562484E-09,-2.861022E-08
505.1762,-1.432314,-1.09332E-08,NaN,-0.3255912,-1.343581E-07,NaN,0.974344,7.064977E-09,NaN,-0.3436379,1.539473E-05,-0.8328545,2.110942E-08,NaN,NaN,-0.01956059,2.79388E-11,8.622084E-08,-1.1239E-07,-6.562484E-09,-2.861022E-08
505.1902,-1.431961,-1.093237E-08,NaN,-0.3256036,-1.343586E-07,NaN,0.9666156,6.996832E-09,NaN,-0.3459626,1.539524E-05,-0.8260803,2.117928E-08,NaN,NaN,-0.01956825,2.79388E-11,8.204852E-08,-1.12391E-07,-6.115449E-09,-2.861022E-08
505.2054,-1.431384,-1.093153E-08,NaN,-0.3256162,-1.343591E-07,NaN,0.9591063,6.930128E-09,NaN,-0.3482178,1.539574E-05,-0.8195134,2.12477E-08,NaN,NaN,-0.01957554,2.79388E-11,7.862125E-08,-1.12392E-07,-6.115449E-09,-2.861022E-08
505.2202,-1.429941,-1.09307E-08,NaN,-0.3256265,-1.343595E-07,NaN,0.9506669,6.862009E-09,NaN,-0.3506712,1.539625E-05,-0.8120861,2.131753E-08,NaN,NaN,-0.01958388,2.79388E-11,7.638607E-08,-1.123931E-07,-4.923356E-09,-2.861022E-08
505.2347,-1.429941,-1.09307E-08,NaN,-0.3256265,-1.343595E-07,NaN,0.9506669,6.862009E-09,NaN,-0.3506712,1.539625E-05,-0.8120861,2.131753E-08,NaN,NaN,-0.01958388,2.79388E-11,7.638607E-08,-1.123931E-07,-4.923356E-09,-2.861022E-08
505.251,-1.427959,-1.092986E-08,NaN,-0.3256356,-1.3436E-07,NaN,0.9421209,6.79533E-09,NaN,-0.3531444,1.539676E-05,-0.8045634,2.138593E-08,NaN,NaN,-0.01959215,2.79388E-11,7.072363E-08,-1.123941E-07,-4.029286E-09,-2.861022E-08
505.265,-1.425645,-1.092903E-08,NaN,-0.3256442,-1.343605E-07,NaN,0.9337512,6.727235E-09,NaN,-0.3555677,1.539727E-05,-0.7972076,2.145574E-08,NaN,NaN,-0.01960007,2.79388E-11,6.670032E-08,-1.123951E-07,-3.582251E-09,-2.861022E-08
505.2789,-1.425645,-1.092903E-08,NaN,-0.3256442,-1.343605E-07,NaN,0.9337512,6.727235E-09,NaN,-0.3555677,1.539727E-05,-0.7972076,2.145574E-08,NaN,NaN,-0.01960007,2.79388E-11,6.670032E-08,-1.123951E-07,-3.582251E-09,-2.861022E-08
505.2926,-1.422405,-1.092819E-08,NaN,-0.3256499,-1.34361E-07,NaN,0.9245252,6.660581E-09,NaN,-0.3581973,1.539777E-05,-0.789061,2.152411E-08,NaN,NaN,-0.01960892,2.79388E-11,6.297503E-08,-1.123961E-07,-2.837193E-09,-2.861022E-08
505.3078,-1.418596,-1.092735E-08,NaN,-0.3256539,-1.343615E-07,NaN,0.9152597,6.595332E-09,NaN,-0.3608414,1.539828E-05,-0.7808807,2.159107E-08,NaN,NaN,-0.01961765,2.328219E-11,6.208096E-08,-1.123971E-07,-4.327309E-09,-2.861022E-08
505.3222,-1.414444,-1.092652E-08,NaN,-0.3256567,-1.34362E-07,NaN,0.9062293,6.52864E-09,NaN,-0.3634267,1.539878E-05,-0.7729213,2.165948E-08,NaN,NaN,-0.01962597,1.862557E-11,5.984578E-08,-1.123982E-07,-3.731263E-09,-2.861022E-08
505.3367,-1.414444,-1.092652E-08,NaN,-0.3256567,-1.34362E-07,NaN,0.9062293,6.52864E-09,NaN,-0.3634267,1.539878E-05,-0.7729213,2.165948E-08,NaN,NaN,-0.01962597,1.862557E-11,5.984578E-08,-1.123982E-07,-3.731263E-09,-2.861022E-08
505.3507,-1.410094,-1.092568E-08,NaN,-0.3256587,-1.343624E-07,NaN,0.8974965,6.463359E-09,NaN,-0.3659323,1.539929E-05,-0.7652404,2.172647E-08,NaN,NaN,-0.01963387,1.396896E-11,5.701456E-08,-1.123992E-07,-2.688182E-09,-2.861022E-08
505.3662,-1.40491,-1.092485E-08,NaN,-0.3256589,-1.343629E-07,NaN,0.8880026,6.399461E-09,NaN,-0.3686495,1.539979E-05,-0.7568594,2.179208E-08,NaN,NaN,-0.01964259,9.312348E-12,5.224619E-08,-1.124002E-07,-2.688182E-09,-2.861022E-08
505.3809,-1.399222,-1.092401E-08,NaN,-0.3256582,-1.343634E-07,NaN,0.878497,6.334095E-09,NaN,-0.3713846,1.540029E-05,-0.7484705,2.185917E-08,NaN,NaN,-0.01965119,4.655735E-12,4.807386E-08,-1.124012E-07,-2.53917E-09,-2.861022E-08
505.3954,-1.399222,-1.092401E-08,NaN,-0.3256582,-1.343634E-07,NaN,0.878497,6.334095E-09,NaN,-0.3713846,1.540029E-05,-0.7484705,2.185917E-08,NaN,NaN,-0.01965119,4.655735E-12,4.807386E-08,-1.124012E-07,-2.53917E-09,-2.861022E-08
505.4093,-1.393242,-1.092318E-08,NaN,-0.3256567,-1.343639E-07,NaN,0.8692349,6.270112E-09,NaN,-0.3740633,1.540078E-05,-0.7403092,2.192487E-08,NaN,NaN,-0.0196594,9.312348E-12,4.390154E-08,-1.124022E-07,-1.347077E-09,-2.861022E-08
505.4247,-1.387102,-1.092234E-08,NaN,-0.3256548,-1.343643E-07,NaN,0.8602763,6.207486E-09,NaN,-0.3766637,1.540129E-05,-0.7324313,2.198921E-08,NaN,NaN,-0.0196672,4.655735E-12,4.166636E-08,-1.124032E-07,-2.241147E-09,-2.861022E-08
505.4395,-1.387102,-1.092234E-08,NaN,-0.3256548,-1.343643E-07,NaN,0.8602763,6.207486E-09,NaN,-0.3766637,1.540129E-05,-0.7324313,2.198921E-08,NaN,NaN,-0.0196672,4.655735E-12,4.166636E-08,-1.124032E-07,-2.241147E-09,-2.861022E-08
505.4545,-1.38016,-1.09215E-08,NaN,-0.3256502,-1.343648E-07,NaN,0.8506188,6.143365E-09,NaN,-0.3794882,1.540179E-05,-0.7239133,2.205504E-08,NaN,NaN,-0.01967575,-8.777701E-16,3.719602E-08,-1.124041E-07,-1.794112E-09,-2.861022E-08
505.469,-1.372742,-1.092067E-08,NaN,-0.3256436,-1.343653E-07,NaN,0.8409756,6.080603E-09,NaN,-0.3823334,1.540229E-05,-0.715411,2.211952E-08,NaN,NaN,-0.01968419,-4.657491E-12,3.272567E-08,-1.124051E-07,-7.510307E-10,-2.861022E-08
505.4836,-1.365055,-1.091983E-08,NaN,-0.3256356,-1.343657E-07,NaN,0.8315911,6.019175E-09,NaN,-0.3851211,1.540279E-05,-0.7071496,2.218266E-08,NaN,NaN,-0.01969225,-9.314103E-12,3.093753E-08,-1.124061E-07,-1.347077E-09,-2.861022E-08
505.4985,-1.365055,-1.091983E-08,NaN,-0.3256356,-1.343657E-07,NaN,0.8315911,6.019175E-09,NaN,-0.3851211,1.540279E-05,-0.7071496,2.218266E-08,NaN,NaN,-0.01969225,-9.314103E-12,3.093753E-08,-1.124061E-07,-1.347077E-09,-2.861022E-08
505.5123,-1.356504,-1.0919E-08,NaN,-0.3256242,-1.343662E-07,NaN,0.8215718,5.956229E-09,NaN,-0.3881408,1.540329E-05,-0.6983091,2.224732E-08,NaN,NaN,-0.01970098,-1.397072E-11,2.825532E-08,-1.124071E-07,-1.496089E-09,-2.861022E-08
505.5296,-1.347445,-1.091816E-08,NaN,-0.3256102,-1.343667E-07,NaN,0.8116207,5.894611E-09,NaN,-0.3911744,1.54038E-05,-0.6895339,2.231065E-08,NaN,NaN,-0.01970955,-1.862733E-11,2.289091E-08,-1.124081E-07,-1.6451E-09,-2.861022E-08
505.543,-1.338104,-1.091732E-08,NaN,-0.3255943,-1.343672E-07,NaN,0.8019735,5.834306E-09,NaN,-0.3941402,1.54043E-05,-0.6810407,2.237267E-08,NaN,NaN,-0.01971771,-2.328394E-11,1.752649E-08,-1.12409E-07,-1.6451E-09,-2.861022E-08
505.5568,-1.338104,-1.091732E-08,NaN,-0.3255943,-1.343672E-07,NaN,0.8019735,5.834306E-09,NaN,-0.3941402,1.54043E-05,-0.6810407,2.237267E-08,NaN,NaN,-0.01971771,-2.328394E-11,1.752649E-08,-1.12409E-07,-1.6451E-09,-2.861022E-08
505.572,-1.328624,-1.091649E-08,NaN,-0.325577,-1.343676E-07,NaN,0.7926808,5.769634E-09,NaN,-0.3970153,1.54048E-05,-0.6728762,2.243906E-08,NaN,NaN,-0.01972543,-2.794055E-11,1.588736E-08,-1.1241E-07,-1.794112E-09,-2.861022E-08
505.5862,-1.31837,-1.091565E-08,NaN,-0.3255566,-1.343681E-07,NaN,0.7828305,5.706332E-09,NaN,-0.400125,1.54053E-05,-0.6642079,2.250408E-08,NaN,NaN,-0.01973373,-3.259716E-11,1.186405E-08,-1.12411E-07,-2.092135E-09,-2.861022E-08
505.6005,-1.30767,-1.091482E-08,NaN,-0.3255335,-1.343685E-07,NaN,0.7730616,5.644375E-09,NaN,-0.4032506,1.540579E-05,-0.6556174,2.256775E-08,NaN,NaN,-0.01974189,-2.794055E-11,8.138755E-09,-1.124119E-07,-2.241147E-09,-2.861022E-08
505.6152,-1.30767,-1.091482E-08,NaN,-0.3255335,-1.343685E-07,NaN,0.7730616,5.644375E-09,NaN,-0.4032506,1.540579E-05,-0.6556174,2.256775E-08,NaN,NaN,-0.01974189,-2.794055E-11,8.138755E-09,-1.124119E-07,-2.241147E-09,-2.861022E-08
505.6291,-1.296736,-1.091398E-08,NaN,-0.3255085,-1.34369E-07,NaN,0.7635912,5.580907E-09,NaN,-0.4063097,1.54063E-05,-0.6473033,2.263293E-08,NaN,NaN,-0.01974967,-3.259716E-11,4.562477E-09,-1.124129E-07,-2.688182E-09,-2.861022E-08
505.6444,-1.285699,-1.091315E-08,NaN,-0.3254822,-1.343695E-07,NaN,0.7544678,5.518789E-09,NaN,-0.4092783,1.54068E-05,-0.6393104,2.269676E-08,NaN,NaN,-0.01975704,-3.725378E-11,1.731256E-09,-1.124139E-07,-2.53917E-09,-2.861022E-08
505.659,-1.285699,-1.091315E-08,NaN,-0.3254822,-1.343695E-07,NaN,0.7544678,5.518789E-09,NaN,-0.4092783,1.54068E-05,-0.6393104,2.269676E-08,NaN,NaN,-0.01975704,-3.725378E-11,1.731256E-09,-1.124139E-07,-2.53917E-09,-2.861022E-08
505.673,-1.273916,-1.091231E-08,NaN,-0.3254528,-1.343699E-07,NaN,0.7448351,5.457991E-09,NaN,-0.4124928,1.54073E-05,-0.6308612,2.275927E-08,NaN,NaN,-0.01976494,-4.191039E-11,-1.397988E-09,-1.124148E-07,-2.725435E-09,-2.861022E-08
505.6883,-1.261713,-1.091148E-08,NaN,-0.3254207,-1.343704E-07,NaN,0.7352962,5.395659E-09,NaN,-0.4157248,1.540779E-05,-0.6225013,2.282332E-08,NaN,NaN,-0.01977269,-3.725378E-11,-2.292057E-09,-1.124158E-07,-2.352905E-09,-2.861022E-08
505.7031,-1.249297,-1.091064E-08,NaN,-0.3253866,-1.343708E-07,NaN,0.7260576,5.334653E-09,NaN,-0.4188881,1.54083E-05,-0.614418,2.288604E-08,NaN,NaN,-0.01978008,-4.191039E-11,-5.868336E-09,-1.124167E-07,-1.738233E-09,-2.861022E-08
505.7178,-1.249297,-1.091064E-08,NaN,-0.3253866,-1.343708E-07,NaN,0.7260576,5.334653E-09,NaN,-0.4188881,1.54083E-05,-0.614418,2.288604E-08,NaN,NaN,-0.01978008,-4.191039E-11,-5.868336E-09,-1.124167E-07,-1.738233E-09,-2.861022E-08
505.7318,-1.236071,-1.090981E-08,NaN,-0.3253488,-1.343713E-07,NaN,0.7163605,5.274945E-09,NaN,-0.4223027,1.540879E-05,-0.6059267,2.294746E-08,NaN,NaN,-0.01978793,-3.725378E-11,-9.444615E-09,-1.124177E-07,-1.011801E-09,-2.861022E-08
505.7473,-1.222391,-1.090897E-08,NaN,-0.3253076,-1.343717E-07,NaN,0.7067973,5.213685E-09,NaN,-0.4257261,1.540929E-05,-0.5975605,2.301043E-08,NaN,NaN,-0.01979561,-4.191039E-11,-1.153078E-08,-1.124186E-07,-3.412488E-10,-2.861022E-08
505.762,-1.208482,-1.090814E-08,NaN,-0.325264,-1.343722E-07,NaN,0.6975659,5.153729E-09,NaN,-0.4290683,1.540978E-05,-0.5894989,2.30721E-08,NaN,NaN,-0.01980292,-3.725378E-11,-1.480903E-08,-1.124195E-07,2.547977E-10,-2.861022E-08
505.7769,-1.208482,-1.090814E-08,NaN,-0.325264,-1.343722E-07,NaN,0.6975659,5.153729E-09,NaN,-0.4290683,1.540978E-05,-0.5894989,2.30721E-08,NaN,NaN,-0.01980292,-3.725378E-11,-1.480903E-08,-1.124195E-07,2.547977E-10,-2.861022E-08
505.7908,-1.194487,-1.09073E-08,NaN,-0.3252186,-1.343726E-07,NaN,0.6887062,5.09505E-09,NaN,-0.4323047,1.541029E-05,-0.5817787,2.313249E-08,NaN,NaN,-0.01980982,-4.191039E-11,-1.95774E-08,-1.124205E-07,2.191949E-09,-2.861022E-08
505.8081,-1.179769,-1.090647E-08,NaN,-0.3251701,-1.343731E-07,NaN,0.6794465,5.034798E-09,NaN,-0.4357918,1.541079E-05,-0.5737079,2.319446E-08,NaN,NaN,-0.01981711,-4.6567E-11,-2.523984E-08,-1.124214E-07,1.446891E-09,-2.861022E-08
505.8218,-1.164658,-1.090563E-08,NaN,-0.3251185,-1.343735E-07,NaN,0.670321,4.975829E-09,NaN,-0.4392884,1.541129E-05,-0.5657632,2.325514E-08,NaN,NaN,-0.01982424,-4.6567E-11,-2.971019E-08,-1.124223E-07,1.446891E-09,-2.861022E-08
505.8354,-1.164658,-1.090563E-08,NaN,-0.3251185,-1.343735E-07,NaN,0.670321,4.975829E-09,NaN,-0.4392884,1.541129E-05,-0.5657632,2.325514E-08,NaN,NaN,-0.01982424,-4.6567E-11,-2.971019E-08,-1.124223E-07,1.446891E-09,-2.861022E-08
505.8494,-1.149363,-1.09048E-08,NaN,-0.3250647,-1.34374E-07,NaN,0.6615115,4.918119E-09,NaN,-0.4427046,1.541178E-05,-0.5581074,2.331456E-08,NaN,NaN,-0.01983104,-4.191039E-11,-3.269042E-08,-1.124232E-07,2.34096E-09,-2.861022E-08
505.8647,-1.134015,-1.090396E-08,NaN,-0.3250094,-1.343744E-07,NaN,0.653056,4.861644E-09,NaN,-0.4460149,1.541228E-05,-0.5507754,2.337275E-08,NaN,NaN,-0.01983745,-4.6567E-11,-3.358449E-08,-1.124242E-07,1.595902E-09,-2.861022E-08
505.8795,-1.134015,-1.090396E-08,NaN,-0.3250094,-1.343744E-07,NaN,0.653056,4.861644E-09,NaN,-0.4460149,1.541228E-05,-0.5507754,2.337275E-08,NaN,NaN,-0.01983745,-4.6567E-11,-3.358449E-08,-1.124242E-07,1.595902E-09,-2.861022E-08
505.8931,-1.117972,-1.090313E-08,NaN,-0.3249513,-1.343749E-07,NaN,0.6442328,4.803553E-09,NaN,-0.4495845,1.541278E-05,-0.5431253,2.343256E-08,NaN,NaN,-0.01984422,-5.122361E-11,-3.805484E-08,-1.124251E-07,2.489972E-09,-2.861022E-08
505.9084,-1.101557,-1.090229E-08,NaN,-0.3248902,-1.343753E-07,NaN,0.6355446,4.746703E-09,NaN,-0.4531641,1.541328E-05,-0.535601,2.349112E-08,NaN,NaN,-0.01985085,-5.588022E-11,-4.073705E-08,-1.12426E-07,1.595902E-09,-2.861022E-08
505.923,-1.084978,-1.090146E-08,NaN,-0.324827,-1.343757E-07,NaN,0.6271634,4.691071E-09,NaN,-0.4566605,1.541379E-05,-0.5283557,2.354846E-08,NaN,NaN,-0.01985716,-6.053684E-11,-4.461135E-08,-1.124269E-07,9.998559E-10,-2.861022E-08
505.9379,-1.084978,-1.090146E-08,NaN,-0.324827,-1.343757E-07,NaN,0.6271634,4.691071E-09,NaN,-0.4566605,1.541379E-05,-0.5283557,2.354846E-08,NaN,NaN,-0.01985716,-6.053684E-11,-4.461135E-08,-1.124269E-07,9.998559E-10,-2.861022E-08
505.9519,-1.067637,-1.090062E-08,NaN,-0.3247601,-1.343762E-07,NaN,0.6184518,4.633807E-09,NaN,-0.4604194,1.541429E-05,-0.5208269,2.360744E-08,NaN,NaN,-0.01986378,-6.519345E-11,-4.878368E-08,-1.124278E-07,9.998559E-10,-2.861022E-08
505.9672,-1.049889,-1.089979E-08,NaN,-0.3246896,-1.343766E-07,NaN,0.6099029,4.577768E-09,NaN,-0.4641778,1.541479E-05,-0.5134476,2.366519E-08,NaN,NaN,-0.01987023,-6.519345E-11,-5.176391E-08,-1.124287E-07,1.057862E-10,-2.861022E-08
505.9818,-1.031959,-1.089895E-08,NaN,-0.3246163,-1.343771E-07,NaN,0.6016818,4.522932E-09,NaN,-0.4678394,1.541529E-05,-0.5063642,2.372174E-08,NaN,NaN,-0.01987636,-6.985007E-11,-5.2956E-08,-1.124296E-07,-1.92237E-10,-2.861022E-08
505.9966,-1.031959,-1.089895E-08,NaN,-0.3246163,-1.343771E-07,NaN,0.6016818,4.522932E-09,NaN,-0.4678394,1.541529E-05,-0.5063642,2.372174E-08,NaN,NaN,-0.01987636,-6.985007E-11,-5.2956E-08,-1.124296E-07,-1.92237E-10,-2.861022E-08
506.0106,-1.01399,-1.089812E-08,NaN,-0.3245414,-1.343775E-07,NaN,0.5938199,4.466447E-09,NaN,-0.4713783,1.541579E-05,-0.4996052,2.377994E-08,NaN,NaN,-0.01988214,-6.985007E-11,-5.444612E-08,-1.124305E-07,-7.882834E-10,-2.861022E-08
506.0259,-0.995344,-1.089728E-08,NaN,-0.3244635,-1.343779E-07,NaN,0.5856684,4.411172E-09,NaN,-0.4751763,1.541629E-05,-0.4926032,2.383693E-08,NaN,NaN,-0.01988816,-6.985007E-11,-5.832042E-08,-1.124314E-07,-7.882834E-10,-2.861022E-08
506.0421,-0.9763497,-1.089645E-08,NaN,-0.3243825,-1.343784E-07,NaN,0.5776713,4.357082E-09,NaN,-0.4789742,1.541679E-05,-0.4857432,2.389273E-08,NaN,NaN,-0.01989404,-7.450669E-11,-6.249275E-08,-1.124323E-07,4.038094E-10,-2.861022E-08
506.0551,-0.9763497,-1.089645E-08,NaN,-0.3243825,-1.343784E-07,NaN,0.5776713,4.357082E-09,NaN,-0.4789742,1.541679E-05,-0.4857432,2.389273E-08,NaN,NaN,-0.01989404,-7.450669E-11,-6.249275E-08,-1.124323E-07,4.038094E-10,-2.861022E-08
506.0692,-0.957216,-1.089561E-08,NaN,-0.3242993,-1.343788E-07,NaN,0.5699797,4.30133E-09,NaN,-0.4826764,1.541729E-05,-0.4791571,2.395019E-08,NaN,NaN,-0.01989963,-7.450669E-11,-6.785717E-08,-1.124332E-07,1.595902E-09,-2.861022E-08
506.0866,-0.9380747,-1.089478E-08,NaN,-0.3242148,-1.343792E-07,NaN,0.5626239,4.246774E-09,NaN,-0.4862562,1.541779E-05,-0.4728723,2.400646E-08,NaN,NaN,-0.01990491,-7.91633E-11,-7.322159E-08,-1.124341E-07,2.191949E-09,-2.861022E-08
506.1004,-0.9182808,-1.089395E-08,NaN,-0.3241277,-1.343796E-07,NaN,0.5549975,4.19339E-09,NaN,-0.4901021,1.541829E-05,-0.4663635,2.406156E-08,NaN,NaN,-0.0199104,-8.381992E-11,-7.530775E-08,-1.12435E-07,2.787995E-09,-2.861022E-08
506.1136,-0.9182808,-1.089395E-08,NaN,-0.3241277,-1.343796E-07,NaN,0.5549975,4.19339E-09,NaN,-0.4901021,1.541829E-05,-0.4663635,2.406156E-08,NaN,NaN,-0.0199104,-8.381992E-11,-7.530775E-08,-1.12435E-07,2.787995E-09,-2.861022E-08
506.1279,-0.8981594,-1.089311E-08,NaN,-0.3240379,-1.343801E-07,NaN,0.5475183,4.141156E-09,NaN,-0.4939482,1.541879E-05,-0.4599886,2.41155E-08,NaN,NaN,-0.01991578,-8.847653E-11,-7.918204E-08,-1.124359E-07,3.384041E-09,-2.861022E-08
506.1429,-0.8779162,-1.089228E-08,NaN,-0.323946,-1.343805E-07,NaN,0.5403297,4.087222E-09,NaN,-0.4976961,1.541929E-05,-0.4538718,2.417115E-08,NaN,NaN,-0.0199209,-9.313315E-11,-8.603658E-08,-1.124368E-07,3.980088E-09,-2.861022E-08
506.1574,-0.8779162,-1.089228E-08,NaN,-0.323946,-1.343805E-07,NaN,0.5403297,4.087222E-09,NaN,-0.4976961,1.541929E-05,-0.4538718,2.417115E-08,NaN,NaN,-0.0199209,-9.313315E-11,-8.603658E-08,-1.124368E-07,3.980088E-09,-2.861022E-08
506.1714,-0.8569532,-1.089144E-08,NaN,-0.3238508,-1.343809E-07,NaN,0.5328962,4.034448E-09,NaN,-0.5017115,1.541979E-05,-0.4475541,2.422563E-08,NaN,NaN,-0.0199262,-9.313315E-11,-9.169902E-08,-1.124376E-07,8.152413E-09,-2.861022E-08
506.1866,-0.8356254,-1.089061E-08,NaN,-0.3237519,-1.343814E-07,NaN,0.5256286,3.982811E-09,NaN,-0.5057158,1.54203E-05,-0.4413849,2.427898E-08,NaN,NaN,-0.01993136,-9.778976E-11,-9.616937E-08,-1.124385E-07,9.940552E-09,-2.861022E-08
506.2014,-0.8141572,-1.088977E-08,NaN,-0.3236503,-1.343818E-07,NaN,0.5186649,3.929464E-09,NaN,-0.509608,1.542079E-05,-0.4354831,2.433404E-08,NaN,NaN,-0.01993627,-9.778976E-11,-1.030239E-07,-1.124394E-07,6.96032E-09,-2.861022E-08
506.2162,-0.8141572,-1.088977E-08,NaN,-0.3236503,-1.343818E-07,NaN,0.5186649,3.929464E-09,NaN,-0.509608,1.542079E-05,-0.4354831,2.433404E-08,NaN,NaN,-0.01993627,-9.778976E-11,-1.030239E-07,-1.124394E-07,6.96032E-09,-2.861022E-08
506.2301,-0.7926906,-1.088894E-08,NaN,-0.3235472,-1.343822E-07,NaN,0.5120305,3.877267E-09,NaN,-0.5133615,1.54213E-05,-0.4298714,2.438795E-08,NaN,NaN,-0.01994088,-1.024464E-10,-1.066002E-07,-1.124402E-07,5.768228E-09,-2.861022E-08
506.2457,-0.7705871,-1.088811E-08,NaN,-0.3234416,-1.343826E-07,NaN,0.5051784,3.826195E-09,NaN,-0.5173776,1.542179E-05,-0.4240858,2.444074E-08,NaN,NaN,-0.01994564,-1.024464E-10,-1.095804E-07,-1.124411E-07,2.191949E-09,-2.861022E-08
506.2601,-0.7481756,-1.088727E-08,NaN,-0.3233331,-1.34383E-07,NaN,0.4984791,3.773402E-09,NaN,-0.5213835,1.54223E-05,-0.4184364,2.449524E-08,NaN,NaN,-0.01995028,-1.07103E-10,-1.146468E-07,-1.12442E-07,4.576135E-09,-2.861022E-08
506.2746,-0.7481756,-1.088727E-08,NaN,-0.3233331,-1.34383E-07,NaN,0.4984791,3.773402E-09,NaN,-0.5213835,1.54223E-05,-0.4184364,2.449524E-08,NaN,NaN,-0.01995028,-1.07103E-10,-1.146468E-07,-1.12442E-07,4.576135E-09,-2.861022E-08
506.2888,-0.7256641,-1.088644E-08,NaN,-0.3232224,-1.343835E-07,NaN,0.4920594,3.721747E-09,NaN,-0.5252795,1.54228E-05,-0.4130306,2.454861E-08,NaN,NaN,-0.01995469,-1.117596E-10,-1.17329E-07,-1.124428E-07,3.384042E-09,-2.861022E-08
506.3041,-0.7031839,-1.08856E-08,NaN,-0.3231109,-1.343839E-07,NaN,0.485944,3.671206E-09,NaN,-0.5290385,1.54233E-05,-0.4078903,2.460086E-08,NaN,NaN,-0.01995885,-1.164162E-10,-1.191172E-07,-1.124437E-07,-2.576422E-09,-2.861022E-08
506.3191,-0.7031839,-1.08856E-08,NaN,-0.3231109,-1.343839E-07,NaN,0.485944,3.671206E-09,NaN,-0.5290385,1.54233E-05,-0.4078903,2.460086E-08,NaN,NaN,-0.01995885,-1.164162E-10,-1.191172E-07,-1.124437E-07,-2.576422E-09,-2.861022E-08
506.3328,-0.6800898,-1.088477E-08,NaN,-0.3229974,-1.343843E-07,NaN,0.4796201,3.62176E-09,NaN,-0.533066,1.54238E-05,-0.4025854,2.465202E-08,NaN,NaN,-0.01996314,-1.210728E-10,-1.253756E-07,-1.124445E-07,-1.922362E-10,-2.861022E-08
506.3484,-0.6567064,-1.088394E-08,NaN,-0.3228814,-1.343847E-07,NaN,0.4734378,3.570563E-09,NaN,-0.5370842,1.54243E-05,-0.3974049,2.470493E-08,NaN,NaN,-0.01996733,-1.257294E-10,-1.310381E-07,-1.124454E-07,6.960321E-09,-2.861022E-08
506.365,-0.6332388,-1.08831E-08,NaN,-0.3227636,-1.343851E-07,NaN,0.4675182,3.520472E-09,NaN,-0.5409913,1.54248E-05,-0.3924503,2.475673E-08,NaN,NaN,-0.01997129,-1.257294E-10,-1.367005E-07,-1.124462E-07,8.152414E-09,-2.861022E-08
506.3788,-0.6332388,-1.08831E-08,NaN,-0.3227636,-1.343851E-07,NaN,0.4675182,3.520472E-09,NaN,-0.5409913,1.54248E-05,-0.3924503,2.475673E-08,NaN,NaN,-0.01997129,-1.257294E-10,-1.367005E-07,-1.124462E-07,8.152414E-09,-2.861022E-08
506.3928,-0.6092609,-1.088227E-08,NaN,-0.3226433,-1.343855E-07,NaN,0.4615205,3.471464E-09,NaN,-0.5450708,1.54253E-05,-0.3874397,2.480745E-08,NaN,NaN,-0.01997531,-1.257294E-10,-1.435551E-07,-1.124471E-07,8.152414E-09,-2.861022E-08
506.407,-0.5850624,-1.088143E-08,NaN,-0.3225207,-1.343859E-07,NaN,0.4557061,3.420695E-09,NaN,-0.5491018,1.54258E-05,-0.3825869,2.485993E-08,NaN,NaN,-0.01997919,-1.257294E-10,-1.536879E-07,-1.124479E-07,9.344507E-09,-2.861022E-08
506.4216,-0.5608265,-1.08806E-08,NaN,-0.3223965,-1.343863E-07,NaN,0.450159,3.371022E-09,NaN,-0.5530068,1.54263E-05,-0.3779622,2.491131E-08,NaN,NaN,-0.01998285,-1.257294E-10,-1.542839E-07,-1.124487E-07,6.960321E-09,-2.861022E-08
506.4363,-0.5608265,-1.08806E-08,NaN,-0.3223965,-1.343863E-07,NaN,0.450159,3.371022E-09,NaN,-0.5530068,1.54263E-05,-0.3779622,2.491131E-08,NaN,NaN,-0.01998285,-1.257294E-10,-1.542839E-07,-1.124487E-07,6.960321E-09,-2.861022E-08
506.4503,-0.5366685,-1.087977E-08,NaN,-0.3222721,-1.343868E-07,NaN,0.4448902,3.322426E-09,NaN,-0.5567681,1.54268E-05,-0.3735753,2.496162E-08,NaN,NaN,-0.01998629,-1.30386E-10,-1.596483E-07,-1.124496E-07,6.960321E-09,-2.861022E-08
506.4657,-0.5126605,-1.087893E-08,NaN,-0.3221487,-1.343872E-07,NaN,0.4398845,3.274885E-09,NaN,-0.5603897,1.54273E-05,-0.3694136,2.501087E-08,NaN,NaN,-0.01998953,-1.30386E-10,-1.691851E-07,-1.124504E-07,2.191949E-09,-2.861022E-08
506.4805,-0.4888474,-1.08781E-08,NaN,-0.3220275,-1.343876E-07,NaN,0.4351201,3.225552E-09,NaN,-0.5638824,1.54278E-05,-0.3654584,2.506191E-08,NaN,NaN,-0.01999258,-1.30386E-10,-1.754435E-07,-1.124512E-07,4.576135E-09,-2.861022E-08
506.4959,-0.4888474,-1.08781E-08,NaN,-0.3220275,-1.343876E-07,NaN,0.4351201,3.225552E-09,NaN,-0.5638824,1.54278E-05,-0.3654584,2.506191E-08,NaN,NaN,-0.01999258,-1.30386E-10,-1.754435E-07,-1.124512E-07,4.576135E-09,-2.861022E-08
506.5109,-0.4652567,-1.087726E-08,NaN,-0.3219093,-1.34388E-07,NaN,0.4305763,3.17729E-09,NaN,-0.5672571,1.54283E-05,-0.3616916,2.511189E-08,NaN,NaN,-0.01999545,-1.30386E-10,-1.787218E-07,-1.124521E-07,8.152414E-09,-2.861022E-08
506.5245,-0.4419046,-1.087643E-08,NaN,-0.3217947,-1.343884E-07,NaN,0.4262356,3.130076E-09,NaN,-0.570523,1.542879E-05,-0.3580977,2.516081E-08,NaN,NaN,-0.01999818,-1.30386E-10,-1.820001E-07,-1.124529E-07,4.576135E-09,-2.861022E-08
506.5392,-0.4419046,-1.087643E-08,NaN,-0.3217947,-1.343884E-07,NaN,0.4262356,3.130076E-09,NaN,-0.570523,1.542879E-05,-0.3580977,2.516081E-08,NaN,NaN,-0.01999818,-1.30386E-10,-1.820001E-07,-1.124529E-07,4.576135E-09,-2.861022E-08
506.5533,-0.4188006,-1.08756E-08,NaN,-0.3216843,-1.343888E-07,NaN,0.4220836,3.081063E-09,NaN,-0.5736875,1.54293E-05,-0.3546635,2.521153E-08,NaN,NaN,-0.02000076,-1.350427E-10,-1.867684E-07,-1.124537E-07,4.576135E-09,-2.861022E-08
506.5687,-0.3959494,-1.087476E-08,NaN,-0.3215782,-1.343892E-07,NaN,0.4181086,3.033115E-09,NaN,-0.5767561,1.542979E-05,-0.3513785,2.526119E-08,NaN,NaN,-0.02000323,-1.350427E-10,-1.894506E-07,-1.124545E-07,-1.384329E-09,-2.861022E-08
506.5834,-0.3733529,-1.087393E-08,NaN,-0.3214768,-1.343896E-07,NaN,0.414301,2.986209E-09,NaN,-0.5797333,1.54303E-05,-0.3482337,2.530981E-08,NaN,NaN,-0.02000558,-1.396993E-10,-1.966032E-07,-1.124554E-07,9.998566E-10,-2.861022E-08
506.5982,-0.3733529,-1.087393E-08,NaN,-0.3214768,-1.343896E-07,NaN,0.414301,2.986209E-09,NaN,-0.5797333,1.54303E-05,-0.3482337,2.530981E-08,NaN,NaN,-0.02000558,-1.396993E-10,-1.966032E-07,-1.124554E-07,9.998566E-10,-2.861022E-08
506.6123,-0.3510115,-1.087309E-08,NaN,-0.32138,-1.3439E-07,NaN,0.4106525,2.940268E-09,NaN,-0.5826222,1.543079E-05,-0.3452214,2.535746E-08,NaN,NaN,-0.02000781,-1.30386E-10,-1.980933E-07,-1.124562E-07,9.998566E-10,-2.861022E-08
506.6297,-0.3289241,-1.087226E-08,NaN,-0.321288,-1.343904E-07,NaN,0.4071561,2.892504E-09,NaN,-0.5854259,1.543129E-05,-0.3423352,2.540693E-08,NaN,NaN,-0.02000993,-1.257294E-10,-2.001795E-07,-1.12457E-07,-3.768515E-09,-2.861022E-08
506.6431,-0.3070891,-1.087143E-08,NaN,-0.3212006,-1.343908E-07,NaN,0.4038052,2.845781E-09,NaN,-0.5881464,1.54318E-05,-0.339569,2.545536E-08,NaN,NaN,-0.02001196,-1.210728E-10,-2.022657E-07,-1.124578E-07,-1.384329E-09,-2.861022E-08
506.6568,-0.3070891,-1.087143E-08,NaN,-0.3212006,-1.343908E-07,NaN,0.4038052,2.845781E-09,NaN,-0.5881464,1.54318E-05,-0.339569,2.545536E-08,NaN,NaN,-0.02001196,-1.210728E-10,-2.022657E-07,-1.124578E-07,-1.384329E-09,-2.861022E-08
506.6708,-0.2855043,-1.087059E-08,NaN,-0.3211178,-1.343912E-07,NaN,0.4005941,2.800078E-09,NaN,-0.5907859,1.543231E-05,-0.3369176,2.550278E-08,NaN,NaN,-0.02001391,-1.164162E-10,-2.016696E-07,-1.124586E-07,-6.152701E-09,-2.861022E-08
506.6863,-0.2705412,-1.086976E-08,NaN,-0.3210602,-1.343916E-07,NaN,0.4010578,2.752548E-09,NaN,-0.589666,1.543282E-05,-0.3371927,2.555202E-08,NaN,NaN,-0.02001345,-1.117596E-10,-1.915368E-07,-1.124594E-07,-3.768515E-09,-2.861022E-08
506.7008,-0.2598063,-1.086892E-08,NaN,-0.321036,-1.34392E-07,NaN,0.4026097,2.706054E-09,NaN,-0.5874156,1.543334E-05,-0.3383833,2.560022E-08,NaN,NaN,-0.0200122,-1.07103E-10,-1.831922E-07,-1.124602E-07,-6.152701E-09,-2.861022E-08
506.7154,-0.2598063,-1.086892E-08,NaN,-0.321036,-1.34392E-07,NaN,0.4026097,2.706054E-09,NaN,-0.5874156,1.543334E-05,-0.3383833,2.560022E-08,NaN,NaN,-0.0200122,-1.07103E-10,-1.831922E-07,-1.124602E-07,-6.152701E-09,-2.861022E-08
506.7297,-0.251777,-1.086809E-08,NaN,-0.3210386,-1.343924E-07,NaN,0.4042305,2.660576E-09,NaN,-0.5850629,1.543385E-05,-0.3396622,2.56474E-08,NaN,NaN,-0.02001088,-1.024464E-10,-1.727613E-07,-1.12461E-07,-1.092107E-08,-2.861022E-08
506.745,-0.2454841,-1.086726E-08,NaN,-0.321059,-1.343927E-07,NaN,0.4055932,2.616092E-09,NaN,-0.582948,1.543436E-05,-0.340746,2.569359E-08,NaN,NaN,-0.02000977,-9.778975E-11,-1.665029E-07,-1.124618E-07,-1.330526E-08,-2.861022E-08
506.7596,-0.2454841,-1.086726E-08,NaN,-0.321059,-1.343927E-07,NaN,0.4055932,2.616092E-09,NaN,-0.582948,1.543436E-05,-0.340746,2.569359E-08,NaN,NaN,-0.02000977,-9.778975E-11,-1.665029E-07,-1.124618E-07,-1.330526E-08,-2.861022E-08
506.7737,-0.2403104,-1.086642E-08,NaN,-0.3210922,-1.343931E-07,NaN,0.4066525,2.56976E-09,NaN,-0.5811348,1.543487E-05,-0.341584,2.574163E-08,NaN,NaN,-0.02000889,-8.381991E-11,-1.593503E-07,-1.124626E-07,-1.330526E-08,-2.861022E-08
506.7891,-0.2358627,-1.086559E-08,NaN,-0.321134,-1.343935E-07,NaN,0.407456,2.524437E-09,NaN,-0.5795887,1.543537E-05,-0.3422073,2.578867E-08,NaN,NaN,-0.02000822,-7.450669E-11,-1.514527E-07,-1.124634E-07,-1.092107E-08,-2.861022E-08
506.8039,-0.2318905,-1.086475E-08,NaN,-0.3211813,-1.343939E-07,NaN,0.4080706,2.480107E-09,NaN,-0.5782508,1.543588E-05,-0.3426673,2.58347E-08,NaN,NaN,-0.0200077,-6.519346E-11,-1.460883E-07,-1.124642E-07,-1.092107E-08,-2.861022E-08
506.8186,-0.2318905,-1.086475E-08,NaN,-0.3211813,-1.343939E-07,NaN,0.4080706,2.480107E-09,NaN,-0.5782508,1.543588E-05,-0.3426673,2.58347E-08,NaN,NaN,-0.0200077,-6.519346E-11,-1.460883E-07,-1.124642E-07,-1.092107E-08,-2.861022E-08
506.8329,-0.2282341,-1.086392E-08,NaN,-0.3212321,-1.343943E-07,NaN,0.4111293,2.436748E-09,NaN,-0.5770478,1.543639E-05,-0.3465129,2.587977E-08,NaN,NaN,-0.02001284,-5.588024E-11,-1.888546E-07,-1.124649E-07,-1.092107E-08,-2.861022E-08
506.8483,-0.2247918,-1.086309E-08,NaN,-0.3212849,-1.343947E-07,NaN,0.4148278,2.391517E-09,NaN,-0.5759271,1.54369E-05,-0.3518151,2.592671E-08,NaN,NaN,-0.02001399,-4.656701E-11,-1.971993E-07,-1.124657E-07,-8.536887E-09,-2.861022E-08
506.8629,-0.2214986,-1.086225E-08,NaN,-0.3213389,-1.34395E-07,NaN,0.4183723,2.347277E-09,NaN,-0.5748659,1.543741E-05,-0.3575126,2.597266E-08,NaN,NaN,-0.02001382,-4.656701E-11,-1.927289E-07,-1.124665E-07,-3.768515E-09,-2.861022E-08
506.8776,-0.2214986,-1.086225E-08,NaN,-0.3213389,-1.34395E-07,NaN,0.4183723,2.347277E-09,NaN,-0.5748659,1.543741E-05,-0.3575126,2.597266E-08,NaN,NaN,-0.02001382,-4.656701E-11,-1.927289E-07,-1.124665E-07,-3.768515E-09,-2.861022E-08
506.8937,-0.2183129,-1.086142E-08,NaN,-0.3213934,-1.343954E-07,NaN,0.4215828,2.30401E-09,NaN,-0.5738515,1.543792E-05,-0.3632217,2.601763E-08,NaN,NaN,-0.02001331,-4.19104E-11,-1.854274E-07,-1.124673E-07,9.998562E-10,-2.861022E-08
506.9081,-0.2152083,-1.086058E-08,NaN,-0.321448,-1.343958E-07,NaN,0.4233675,2.25887E-09,NaN,-0.5728825,1.543844E-05,-0.3673182,2.606448E-08,NaN,NaN,-0.02001025,-3.725379E-11,-1.587543E-07,-1.124681E-07,1.05366E-08,-2.861022E-08
