JMolnar6/NonAnthroHands_User_Study/HandsLoggerWithURDF/tempdata/files/Reachy_JointMotion_gesture_3_13.csv
Time,r_shoulder,r_shoulder_x,r_upper_arm,r_forearm,r_wrist,r_wrist2hand,
145.3725,0.04501168,-2.811991E-08,NaN,-0.3270292,-1.374371E-07,NaN,0.2839822,1.000827E-08,NaN,-2.149764,5.001561E-06,-0.3644045,1.228391E-08,NaN,NaN,-0.02002651,-1.862652E-10,-4.786937E-07,-1.149663E-07,-3.50997E-09,-2.622604E-08
145.3897,0.04501165,-2.811875E-08,NaN,-0.3270291,-1.374372E-07,NaN,0.2849219,1.090109E-08,NaN,-2.149812,5.002265E-06,-0.3652188,1.129511E-08,NaN,NaN,-0.02002896,-1.862652E-10,-5.17921E-07,-1.149654E-07,-5.894155E-09,-2.861022E-08
145.4043,0.04501162,-2.811759E-08,NaN,-0.327029,-1.374373E-07,NaN,0.2866893,1.179992E-08,NaN,-2.149883,5.002968E-06,-0.365887,1.031996E-08,NaN,NaN,-0.02003091,-1.909218E-10,-5.498467E-07,-1.149646E-07,-1.066253E-08,-2.622604E-08
145.4203,0.04501158,-2.811643E-08,NaN,-0.3270289,-1.374375E-07,NaN,0.2888955,1.269829E-08,NaN,-2.149945,5.003666E-06,-0.3663444,9.36102E-09,NaN,NaN,-0.02003223,-1.955784E-10,-5.711182E-07,-1.149639E-07,-9.470434E-09,-2.861022E-08
145.4357,0.04501158,-2.811643E-08,NaN,-0.3270289,-1.374375E-07,NaN,0.2888955,1.269829E-08,NaN,-2.149945,5.003666E-06,-0.3663444,9.36102E-09,NaN,NaN,-0.02003223,-1.955784E-10,-5.711182E-07,-1.149639E-07,-9.470434E-09,-2.861022E-08
145.4509,0.04501155,-2.811527E-08,NaN,-0.3270288,-1.374377E-07,NaN,0.2912897,1.359268E-08,NaN,-2.149992,5.004355E-06,-0.3666769,8.418661E-09,NaN,NaN,-0.02003318,-1.955784E-10,-5.863919E-07,-1.149631E-07,-4.702063E-09,-2.622604E-08
145.4674,0.04501152,-2.811412E-08,NaN,-0.3270287,-1.374379E-07,NaN,0.293008,1.448018E-08,NaN,-2.149948,5.005049E-06,-0.3660387,7.493264E-09,NaN,NaN,-0.0200312,-2.048917E-10,-5.540191E-07,-1.149623E-07,-5.894155E-09,-2.861022E-08
145.4833,0.0450115,-2.811296E-08,NaN,-0.3270285,-1.374382E-07,NaN,0.2939035,1.535841E-08,NaN,-2.149873,5.005734E-06,-0.3655129,6.585195E-09,NaN,NaN,-0.02002962,-2.002351E-10,-5.315742E-07,-1.149616E-07,-3.50997E-09,-2.622604E-08
145.4989,0.0450115,-2.811296E-08,NaN,-0.3270285,-1.374382E-07,NaN,0.2939035,1.535841E-08,NaN,-2.149873,5.005734E-06,-0.3655129,6.585195E-09,NaN,NaN,-0.02002962,-2.002351E-10,-5.315742E-07,-1.149616E-07,-3.50997E-09,-2.622604E-08
145.5141,0.04501147,-2.81118E-08,NaN,-0.3270284,-1.374374E-07,NaN,0.2943402,1.576427E-08,NaN,-2.149803,5.006414E-06,-0.3651786,6.15595E-09,NaN,NaN,-0.02002863,-1.955784E-10,-5.176789E-07,-1.149611E-07,-4.702063E-09,-2.622604E-08
145.5304,0.04501144,-2.811064E-08,NaN,-0.3270283,-1.374362E-07,NaN,0.2945588,1.613963E-08,NaN,-2.149744,5.007084E-06,-0.3649564,5.762375E-09,NaN,NaN,-0.02002797,-1.909218E-10,-5.083657E-07,-1.149603E-07,-7.086248E-09,-2.622604E-08
145.5463,0.04501141,-2.810949E-08,NaN,-0.3270282,-1.374349E-07,NaN,0.2939389,1.649609E-08,NaN,-2.149613,5.00776E-06,-0.363884,5.391842E-09,NaN,NaN,-0.02002474,-1.955784E-10,-4.573292E-07,-1.149594E-07,-7.086248E-09,-2.622604E-08
145.562,0.04501139,-2.810833E-08,NaN,-0.3270281,-1.374334E-07,NaN,0.2924444,1.683957E-08,NaN,-2.14947,5.008421E-06,-0.3629855,5.037587E-09,NaN,NaN,-0.02002208,-1.909218E-10,-4.167236E-07,-1.149584E-07,-5.894155E-09,-2.622604E-08
145.5777,0.04501139,-2.810833E-08,NaN,-0.3270281,-1.374334E-07,NaN,0.2924444,1.683957E-08,NaN,-2.14947,5.008421E-06,-0.3629855,5.037587E-09,NaN,NaN,-0.02002208,-1.909218E-10,-4.167236E-07,-1.149584E-07,-5.894155E-09,-2.622604E-08
145.5929,0.04501136,-2.810717E-08,NaN,-0.3270279,-1.374319E-07,NaN,0.2904884,1.717395E-08,NaN,-2.14934,5.009082E-06,-0.3623121,4.695086E-09,NaN,NaN,-0.0200201,-1.909218E-10,-3.861762E-07,-1.149573E-07,-7.086248E-09,-2.622604E-08
145.6094,0.04501133,-2.810602E-08,NaN,-0.3270278,-1.374303E-07,NaN,0.2883322,1.750103E-08,NaN,-2.149228,5.009739E-06,-0.3617719,4.362004E-09,NaN,NaN,-0.02001851,-1.909218E-10,-3.612168E-07,-1.149563E-07,-8.278341E-09,-2.622604E-08
145.6255,0.04501131,-2.810486E-08,NaN,-0.3270277,-1.374288E-07,NaN,0.2853628,1.782197E-08,NaN,-2.149049,5.010395E-06,-0.3603968,4.036753E-09,NaN,NaN,-0.0200144,-1.909218E-10,-2.972163E-07,-1.149552E-07,-7.086248E-09,-2.622604E-08
145.6405,0.04501129,-2.810371E-08,NaN,-0.3270276,-1.374272E-07,NaN,0.2815481,1.813729E-08,NaN,-2.148861,5.011052E-06,-0.3592095,3.718479E-09,NaN,NaN,-0.0200109,-1.909218E-10,-2.42827E-07,-1.149541E-07,-3.509969E-09,-2.622604E-08
145.6565,0.04501129,-2.810371E-08,NaN,-0.3270276,-1.374272E-07,NaN,0.2815481,1.813729E-08,NaN,-2.148861,5.011052E-06,-0.3592095,3.718479E-09,NaN,NaN,-0.0200109,-1.909218E-10,-2.42827E-07,-1.149541E-07,-3.509969E-09,-2.622604E-08
145.6713,0.04501127,-2.810255E-08,NaN,-0.3270275,-1.374256E-07,NaN,0.277303,1.844685E-08,NaN,-2.14869,5.011709E-06,-0.3582592,3.407047E-09,NaN,NaN,-0.02000812,-1.909218E-10,-1.983471E-07,-1.14953E-07,-1.125784E-09,-2.622604E-08
145.688,0.04501124,-2.81014E-08,NaN,-0.3270274,-1.37424E-07,NaN,0.2728894,1.875127E-08,NaN,-2.148537,5.012365E-06,-0.3574531,3.101619E-09,NaN,NaN,-0.02000576,-1.909218E-10,-1.611687E-07,-1.149519E-07,2.450495E-09,-2.622604E-08
145.7036,0.04501122,-2.810025E-08,NaN,-0.3270273,-1.374224E-07,NaN,0.2676922,1.90505E-08,NaN,-2.148321,5.013022E-06,-0.3558222,2.80208E-09,NaN,NaN,-0.02000093,-1.909218E-10,-8.599233E-08,-1.149509E-07,4.834681E-09,-2.622604E-08
145.7194,0.04501122,-2.810025E-08,NaN,-0.3270273,-1.374224E-07,NaN,0.2676922,1.90505E-08,NaN,-2.148321,5.013022E-06,-0.3558222,2.80208E-09,NaN,NaN,-0.02000093,-1.909218E-10,-8.599233E-08,-1.149509E-07,4.834681E-09,-2.622604E-08
145.7345,0.0450112,-2.809909E-08,NaN,-0.3270272,-1.374208E-07,NaN,0.2616797,1.934451E-08,NaN,-2.148098,5.013679E-06,-0.3543905,2.508313E-09,NaN,NaN,-0.01999674,-1.909218E-10,-1.819205E-08,-1.149498E-07,6.026774E-09,-2.622604E-08
145.7522,0.04501118,-2.809794E-08,NaN,-0.3270271,-1.374192E-07,NaN,0.2552677,1.96333E-08,NaN,-2.147894,5.014335E-06,-0.3532059,2.220207E-09,NaN,NaN,-0.0199933,-1.909218E-10,3.470707E-08,-1.149487E-07,3.642588E-09,-2.622604E-08
145.7663,0.04501116,-2.809679E-08,NaN,-0.327027,-1.374176E-07,NaN,0.2487177,1.991761E-08,NaN,-2.14771,5.014992E-06,-0.3521751,1.936943E-09,NaN,NaN,-0.0199903,-1.909218E-10,8.268881E-08,-1.149476E-07,3.642588E-09,-2.622604E-08
145.7822,0.04501114,-2.809563E-08,NaN,-0.3270269,-1.37416E-07,NaN,0.2414117,2.019746E-08,NaN,-2.147463,5.015649E-06,-0.3503282,1.658428E-09,NaN,NaN,-0.0199849,-1.909218E-10,1.716487E-07,-1.149465E-07,4.834681E-09,-2.622604E-08
145.7978,0.04501114,-2.809563E-08,NaN,-0.3270269,-1.37416E-07,NaN,0.2414117,2.019746E-08,NaN,-2.147463,5.015649E-06,-0.3503282,1.658428E-09,NaN,NaN,-0.0199849,-1.909218E-10,1.716487E-07,-1.149465E-07,4.834681E-09,-2.622604E-08
145.813,0.04501112,-2.809448E-08,NaN,-0.3270268,-1.374144E-07,NaN,0.233319,2.047217E-08,NaN,-2.147213,5.016305E-06,-0.3486911,1.385273E-09,NaN,NaN,-0.01998015,-1.909218E-10,2.470486E-07,-1.149455E-07,2.450495E-09,-2.622604E-08
145.8294,0.0450111,-2.809333E-08,NaN,-0.3270267,-1.374129E-07,NaN,0.2248561,2.074251E-08,NaN,-2.146983,5.016962E-06,-0.3473102,1.11667E-09,NaN,NaN,-0.01997617,-1.909218E-10,3.100805E-07,-1.149444E-07,3.642588E-09,-2.622604E-08
145.8451,0.04501108,-2.809217E-08,NaN,-0.3270266,-1.374113E-07,NaN,0.2162842,2.100781E-08,NaN,-2.146775,5.017623E-06,-0.3460915,8.532496E-10,NaN,NaN,-0.01997267,-1.955784E-10,3.653638E-07,-1.149434E-07,2.450495E-09,-2.622604E-08
145.861,0.04501107,-2.809102E-08,NaN,-0.3270265,-1.374097E-07,NaN,0.2069824,2.126887E-08,NaN,-2.146506,5.018284E-06,-0.3440646,5.941874E-10,NaN,NaN,-0.01996679,-2.002351E-10,4.602842E-07,-1.149423E-07,4.834681E-09,-2.622604E-08
145.8765,0.04501107,-2.809102E-08,NaN,-0.3270265,-1.374097E-07,NaN,0.2069824,2.126887E-08,NaN,-2.146506,5.018284E-06,-0.3440646,5.941874E-10,NaN,NaN,-0.01996679,-2.002351E-10,4.602842E-07,-1.149423E-07,4.834681E-09,-2.622604E-08
145.8914,0.04501105,-2.808987E-08,NaN,-0.3270264,-1.374082E-07,NaN,0.1969208,2.152504E-08,NaN,-2.146236,5.018946E-06,-0.3422571,3.401042E-10,NaN,NaN,-0.01996162,-2.048917E-10,5.437307E-07,-1.149412E-07,2.450495E-09,-2.622604E-08
145.9075,0.04501103,-2.808872E-08,NaN,-0.3270263,-1.374066E-07,NaN,0.1865167,2.177712E-08,NaN,-2.145987,5.019607E-06,-0.340714,9.019721E-11,NaN,NaN,-0.01995722,-2.095483E-10,6.148092E-07,-1.149402E-07,6.026774E-09,-2.622604E-08
145.9233,0.04501101,-2.808757E-08,NaN,-0.3270262,-1.374051E-07,NaN,0.1760315,2.202445E-08,NaN,-2.14576,5.020268E-06,-0.3393406,-1.549116E-10,NaN,NaN,-0.01995332,-2.142049E-10,6.785862E-07,-1.149391E-07,6.026774E-09,-2.622604E-08
145.9396,0.04501101,-2.808757E-08,NaN,-0.3270262,-1.374051E-07,NaN,0.1760315,2.202445E-08,NaN,-2.14576,5.020268E-06,-0.3393406,-1.549116E-10,NaN,NaN,-0.01995332,-2.142049E-10,6.785862E-07,-1.149391E-07,6.026774E-09,-2.622604E-08
145.9541,0.045011,-2.808642E-08,NaN,-0.3270261,-1.374035E-07,NaN,0.1648406,2.226782E-08,NaN,-2.145474,5.020929E-06,-0.3371657,-3.960164E-10,NaN,NaN,-0.01994711,-2.188615E-10,7.825963E-07,-1.149381E-07,7.218866E-09,-2.622604E-08
145.9702,0.04501098,-2.808527E-08,NaN,-0.327026,-1.37402E-07,NaN,0.1529154,2.250662E-08,NaN,-2.14519,5.021586E-06,-0.3352193,-6.324975E-10,NaN,NaN,-0.01994161,-2.235181E-10,8.739404E-07,-1.149371E-07,1.198724E-08,-2.622604E-08
145.9861,0.04501097,-2.808411E-08,NaN,-0.3270259,-1.374004E-07,NaN,0.1406743,2.274161E-08,NaN,-2.144928,5.022242E-06,-0.3335446,-8.651457E-10,NaN,NaN,-0.01993691,-2.281747E-10,9.527676E-07,-1.14936E-07,1.437142E-08,-2.622604E-08
146.0018,0.04501095,-2.808296E-08,NaN,-0.3270258,-1.373989E-07,NaN,0.1283784,2.297215E-08,NaN,-2.144689,5.022899E-06,-0.3320461,-1.093329E-09,NaN,NaN,-0.01993271,-2.328313E-10,1.023399E-06,-1.14935E-07,1.675561E-08,-2.622604E-08
146.0174,0.04501095,-2.808296E-08,NaN,-0.3270258,-1.373989E-07,NaN,0.1283784,2.297215E-08,NaN,-2.144689,5.022899E-06,-0.3320461,-1.093329E-09,NaN,NaN,-0.01993271,-2.328313E-10,1.023399E-06,-1.14935E-07,1.675561E-08,-2.622604E-08
146.0322,0.04501093,-2.808181E-08,NaN,-0.3270257,-1.373974E-07,NaN,0.1153999,2.319906E-08,NaN,-2.144393,5.023556E-06,-0.3297521,-1.317847E-09,NaN,NaN,-0.01992626,-2.374879E-10,1.133072E-06,-1.14934E-07,1.437142E-08,-2.622604E-08
146.0486,0.04501092,-2.808066E-08,NaN,-0.3270256,-1.373959E-07,NaN,0.1017109,2.342167E-08,NaN,-2.1441,5.024212E-06,-0.3276949,-1.538062E-09,NaN,NaN,-0.01992054,-2.421445E-10,1.231419E-06,-1.149329E-07,1.556352E-08,-2.622604E-08
146.0644,0.0450109,-2.807952E-08,NaN,-0.3270255,-1.373944E-07,NaN,0.08773154,2.364079E-08,NaN,-2.14383,5.024869E-06,-0.3259158,-1.754767E-09,NaN,NaN,-0.01991563,-2.468011E-10,1.315313E-06,-1.149319E-07,2.033189E-08,-2.622604E-08
146.0802,0.04501089,-2.807837E-08,NaN,-0.3270254,-1.373928E-07,NaN,0.07372242,2.385577E-08,NaN,-2.143584,5.025526E-06,-0.3243188,-1.967321E-09,NaN,NaN,-0.01991123,-2.514577E-10,1.39116E-06,-1.149309E-07,2.033189E-08,-2.622604E-08
146.0959,0.04501089,-2.807837E-08,NaN,-0.3270254,-1.373928E-07,NaN,0.07372242,2.385577E-08,NaN,-2.143584,5.025526E-06,-0.3243188,-1.967321E-09,NaN,NaN,-0.01991123,-2.514577E-10,1.39116E-06,-1.149309E-07,2.033189E-08,-2.622604E-08
146.111,0.04501088,-2.807722E-08,NaN,-0.3270253,-1.373913E-07,NaN,0.05905221,2.406668E-08,NaN,-2.143283,5.026182E-06,-0.3219314,-2.175805E-09,NaN,NaN,-0.01990464,-2.561144E-10,1.508134E-06,-1.149299E-07,2.271607E-08,-2.622604E-08
146.1269,0.04501086,-2.807607E-08,NaN,-0.3270252,-1.373898E-07,NaN,0.04369447,2.427432E-08,NaN,-2.142986,5.026839E-06,-0.3197883,-2.381008E-09,NaN,NaN,-0.01989879,-2.60771E-10,1.613485E-06,-1.149289E-07,2.033189E-08,-2.622604E-08
146.1426,0.04501085,-2.807492E-08,NaN,-0.3270251,-1.373883E-07,NaN,0.02807036,2.447804E-08,NaN,-2.142714,5.027496E-06,-0.3179291,-2.582286E-09,NaN,NaN,-0.01989374,-2.654276E-10,1.704382E-06,-1.149279E-07,2.033189E-08,-2.622604E-08
146.1583,0.04501085,-2.807492E-08,NaN,-0.3270251,-1.373883E-07,NaN,0.02807036,2.447804E-08,NaN,-2.142714,5.027496E-06,-0.3179291,-2.582286E-09,NaN,NaN,-0.01989374,-2.654276E-10,1.704382E-06,-1.149279E-07,2.033189E-08,-2.622604E-08
146.1731,0.04501084,-2.807377E-08,NaN,-0.327025,-1.373869E-07,NaN,0.01168084,2.464144E-08,NaN,-2.142392,5.028148E-06,-0.3153482,-2.743241E-09,NaN,NaN,-0.01988673,-2.654276E-10,1.831787E-06,-1.149266E-07,1.91398E-08,-2.622604E-08
146.1896,0.04501083,-2.807262E-08,NaN,-0.3270249,-1.373858E-07,NaN,-0.005429175,2.488947E-08,NaN,-2.142081,5.028804E-06,-0.3130507,-2.988824E-09,NaN,NaN,-0.01988056,-2.700842E-10,1.941608E-06,-1.149247E-07,1.675561E-08,-2.622604E-08
146.2054,0.04501082,-2.807147E-08,NaN,-0.3270248,-1.373847E-07,NaN,-0.02280501,2.512787E-08,NaN,-2.141796,5.029461E-06,-0.3110579,-3.224783E-09,NaN,NaN,-0.01987525,-2.747408E-10,2.034741E-06,-1.149226E-07,1.556352E-08,-2.622604E-08
146.2212,0.0450108,-2.807033E-08,NaN,-0.3270248,-1.373835E-07,NaN,-0.04017197,2.535966E-08,NaN,-2.141538,5.030127E-06,-0.3092647,-3.454115E-09,NaN,NaN,-0.0198705,-2.887106E-10,2.121167E-06,-1.149206E-07,1.079515E-08,-2.622604E-08
146.2382,0.0450108,-2.807033E-08,NaN,-0.3270248,-1.373835E-07,NaN,-0.04017197,2.535966E-08,NaN,-2.141538,5.030127E-06,-0.3092647,-3.454115E-09,NaN,NaN,-0.0198705,-2.887106E-10,2.121167E-06,-1.149206E-07,1.079515E-08,-2.622604E-08
146.2519,0.04501079,-2.806918E-08,NaN,-0.3270246,-1.373823E-07,NaN,-0.05816201,2.558634E-08,NaN,-2.141229,5.030784E-06,-0.306694,-3.678351E-09,NaN,NaN,-0.01986367,-2.933672E-10,2.245741E-06,-1.149185E-07,8.410959E-09,-2.622604E-08
146.268,0.04501078,-2.806803E-08,NaN,-0.3270245,-1.373812E-07,NaN,-0.07679661,2.580803E-08,NaN,-2.140929,5.03144E-06,-0.3043834,-3.897588E-09,NaN,NaN,-0.01985761,-2.980238E-10,2.360927E-06,-1.149165E-07,1.079514E-08,-2.622604E-08
146.2836,0.04501077,-2.806688E-08,NaN,-0.3270245,-1.3738E-07,NaN,-0.09565096,2.602623E-08,NaN,-2.140653,5.032097E-06,-0.3023684,-4.113334E-09,NaN,NaN,-0.01985237,-3.026804E-10,2.460765E-06,-1.149144E-07,1.556351E-08,-2.622604E-08
146.2992,0.04501077,-2.806688E-08,NaN,-0.3270245,-1.3738E-07,NaN,-0.09565096,2.602623E-08,NaN,-2.140653,5.032097E-06,-0.3023684,-4.113334E-09,NaN,NaN,-0.01985237,-3.026804E-10,2.460765E-06,-1.149144E-07,1.556351E-08,-2.622604E-08
146.3143,0.04501076,-2.806574E-08,NaN,-0.3270244,-1.373788E-07,NaN,-0.1144643,2.624029E-08,NaN,-2.140403,5.032754E-06,-0.3005507,-4.324949E-09,NaN,NaN,-0.01984769,-3.07337E-10,2.550619E-06,-1.149124E-07,1.079514E-08,-2.622604E-08
146.3306,0.04501075,-2.806459E-08,NaN,-0.3270243,-1.373776E-07,NaN,-0.1338785,2.645102E-08,NaN,-2.140103,5.03341E-06,-0.297956,-4.533218E-09,NaN,NaN,-0.01984096,-3.119937E-10,2.680557E-06,-1.149103E-07,1.198724E-08,-2.622604E-08
146.3466,0.04501073,-2.806344E-08,NaN,-0.3270242,-1.373764E-07,NaN,-0.1539159,2.665846E-08,NaN,-2.139812,5.034062E-06,-0.295626,-4.738209E-09,NaN,NaN,-0.019835,-3.119937E-10,2.795892E-06,-1.149083E-07,1.79477E-08,-2.622604E-08
146.3619,0.04501072,-2.80623E-08,NaN,-0.3270241,-1.373752E-07,NaN,-0.1741515,2.686198E-08,NaN,-2.139547,5.034723E-06,-0.2935948,-4.939277E-09,NaN,NaN,-0.01982987,-3.213069E-10,2.893345E-06,-1.149063E-07,1.317933E-08,-2.622604E-08
146.3779,0.04501072,-2.80623E-08,NaN,-0.3270241,-1.373752E-07,NaN,-0.1741515,2.686198E-08,NaN,-2.139547,5.034723E-06,-0.2935948,-4.939277E-09,NaN,NaN,-0.01982987,-3.213069E-10,2.893345E-06,-1.149063E-07,1.317933E-08,-2.622604E-08
146.3927,0.04501071,-2.806115E-08,NaN,-0.327024,-1.37374E-07,NaN,-0.1943253,2.706236E-08,NaN,-2.139305,5.035376E-06,-0.2917639,-5.137205E-09,NaN,NaN,-0.01982529,-3.213069E-10,2.982157E-06,-1.149042E-07,1.556351E-08,-2.622604E-08
146.4092,0.0450107,-2.806001E-08,NaN,-0.3270239,-1.373728E-07,NaN,-0.2143138,2.725967E-08,NaN,-2.139084,5.036037E-06,-0.2900683,-5.332057E-09,NaN,NaN,-0.01982108,-3.306201E-10,3.067689E-06,-1.149022E-07,1.437142E-08,-2.622604E-08
146.4247,0.04501069,-2.805886E-08,NaN,-0.3270238,-1.373716E-07,NaN,-0.2340639,2.745396E-08,NaN,-2.138879,5.036698E-06,-0.288476,-5.523891E-09,NaN,NaN,-0.01981717,-3.399333E-10,3.152328E-06,-1.149002E-07,1.198724E-08,-2.622604E-08
146.4403,0.04501068,-2.805772E-08,NaN,-0.3270237,-1.373705E-07,NaN,-0.2535542,2.764529E-08,NaN,-2.138689,5.03735E-06,-0.2869709,-5.712769E-09,NaN,NaN,-0.01981349,-3.399333E-10,3.229069E-06,-1.148982E-07,2.033189E-08,-2.622604E-08
146.4565,0.04501068,-2.805772E-08,NaN,-0.3270237,-1.373705E-07,NaN,-0.2535542,2.764529E-08,NaN,-2.138689,5.03735E-06,-0.2869709,-5.712769E-09,NaN,NaN,-0.01981349,-3.399333E-10,3.229069E-06,-1.148982E-07,2.033189E-08,-2.622604E-08
146.4713,0.04501067,-2.805657E-08,NaN,-0.3270237,-1.373693E-07,NaN,-0.2727775,2.783373E-08,NaN,-2.13851,5.038002E-06,-0.285545,-5.898751E-09,NaN,NaN,-0.01981003,-3.399333E-10,3.298806E-06,-1.148962E-07,2.033189E-08,-2.622604E-08
146.488,0.04501065,-2.805543E-08,NaN,-0.3270236,-1.373681E-07,NaN,-0.2917329,2.801933E-08,NaN,-2.138344,5.038654E-06,-0.2841932,-6.081888E-09,NaN,NaN,-0.01980679,-3.399333E-10,3.366308E-06,-1.148942E-07,1.317933E-08,-2.622604E-08
146.5034,0.04501064,-2.805428E-08,NaN,-0.3270235,-1.37367E-07,NaN,-0.310422,2.820213E-08,NaN,-2.138188,5.039306E-06,-0.2829126,-6.262237E-09,NaN,NaN,-0.01980374,-3.399333E-10,3.432767E-06,-1.148922E-07,1.913979E-08,-2.622604E-08
146.5193,0.04501064,-2.805428E-08,NaN,-0.3270235,-1.37367E-07,NaN,-0.310422,2.820213E-08,NaN,-2.138188,5.039306E-06,-0.2829126,-6.262237E-09,NaN,NaN,-0.01980374,-3.399333E-10,3.432767E-06,-1.148922E-07,1.913979E-08,-2.622604E-08
146.534,0.04501062,-2.805314E-08,NaN,-0.3270234,-1.373658E-07,NaN,-0.3288474,2.83822E-08,NaN,-2.138042,5.039959E-06,-0.2817004,-6.439852E-09,NaN,NaN,-0.01980089,-3.399333E-10,3.495352E-06,-1.148903E-07,2.390816E-08,-2.622604E-08
146.5503,0.04501061,-2.805199E-08,NaN,-0.3270233,-1.373646E-07,NaN,-0.3470122,2.855959E-08,NaN,-2.137906,5.040611E-06,-0.2805545,-6.614788E-09,NaN,NaN,-0.0197982,-3.399333E-10,3.554659E-06,-1.148883E-07,2.033189E-08,-2.622604E-08
146.5663,0.04501059,-2.805085E-08,NaN,-0.3270232,-1.373635E-07,NaN,-0.3649197,2.873365E-08,NaN,-2.137779,5.041263E-06,-0.2794728,-6.786391E-09,NaN,NaN,-0.0197957,-3.399333E-10,3.611432E-06,-1.148863E-07,2.271607E-08,-2.622604E-08
146.5822,0.04501058,-2.804971E-08,NaN,-0.3270231,-1.373623E-07,NaN,-0.3825732,2.890515E-08,NaN,-2.137662,5.041915E-06,-0.2784534,-6.95543E-09,NaN,NaN,-0.01979337,-3.399333E-10,3.666119E-06,-1.148844E-07,2.510026E-08,-2.622604E-08
146.5975,0.04501058,-2.804971E-08,NaN,-0.3270231,-1.373623E-07,NaN,-0.3825732,2.890515E-08,NaN,-2.137662,5.041915E-06,-0.2784534,-6.95543E-09,NaN,NaN,-0.01979337,-3.399333E-10,3.666119E-06,-1.148844E-07,2.510026E-08,-2.622604E-08
146.613,0.04501056,-2.804856E-08,NaN,-0.327023,-1.373612E-07,NaN,-0.399976,2.907414E-08,NaN,-2.137553,5.042567E-06,-0.2774943,-7.121961E-09,NaN,NaN,-0.01979119,-3.399333E-10,3.714846E-06,-1.148824E-07,2.748444E-08,-2.622604E-08
146.6291,0.04501055,-2.804742E-08,NaN,-0.3270229,-1.3736E-07,NaN,-0.4171316,2.924066E-08,NaN,-2.137453,5.043219E-06,-0.2765938,-7.28603E-09,NaN,NaN,-0.01978916,-3.399333E-10,3.764169E-06,-1.148805E-07,2.629235E-08,-2.622604E-08
146.6451,0.04501053,-2.804628E-08,NaN,-0.3270229,-1.373589E-07,NaN,-0.434043,2.940476E-08,NaN,-2.137362,5.043871E-06,-0.2757501,-7.447669E-09,NaN,NaN,-0.01978729,-3.399333E-10,3.811108E-06,-1.148786E-07,2.629235E-08,-2.622604E-08
146.6605,0.04501052,-2.804514E-08,NaN,-0.3270228,-1.373577E-07,NaN,-0.4507137,2.956648E-08,NaN,-2.137278,5.044523E-06,-0.2749614,-7.606939E-09,NaN,NaN,-0.01978556,-3.399333E-10,3.853725E-06,-1.148766E-07,3.582909E-08,-2.622604E-08
146.6766,0.04501052,-2.804514E-08,NaN,-0.3270228,-1.373577E-07,NaN,-0.4507137,2.956648E-08,NaN,-2.137278,5.044523E-06,-0.2749614,-7.606939E-09,NaN,NaN,-0.01978556,-3.399333E-10,3.853725E-06,-1.148766E-07,3.582909E-08,-2.622604E-08
146.6915,0.0450105,-2.804399E-08,NaN,-0.3270227,-1.373566E-07,NaN,-0.4671468,2.972589E-08,NaN,-2.137202,5.045175E-06,-0.2742261,-7.763893E-09,NaN,NaN,-0.01978397,-3.399333E-10,3.893362E-06,-1.148747E-07,2.867653E-08,-2.622604E-08
146.7082,0.04501049,-2.804285E-08,NaN,-0.3270226,-1.373555E-07,NaN,-0.4833455,2.988232E-08,NaN,-2.137134,5.045827E-06,-0.2735425,-7.917864E-09,NaN,NaN,-0.0197825,-3.399333E-10,3.928976E-06,-1.148728E-07,2.629235E-08,-2.622604E-08
146.7239,0.04501047,-2.804171E-08,NaN,-0.3270225,-1.373543E-07,NaN,-0.499313,3.003654E-08,NaN,-2.137073,5.04648E-06,-0.272909,-8.069621E-09,NaN,NaN,-0.01978117,-3.399333E-10,3.96459E-06,-1.148709E-07,2.629235E-08,-2.622604E-08
146.7406,0.04501046,-2.804057E-08,NaN,-0.3270224,-1.373532E-07,NaN,-0.5150523,3.018858E-08,NaN,-2.137019,5.047132E-06,-0.2723242,-8.219203E-09,NaN,NaN,-0.01977995,-3.399333E-10,3.997671E-06,-1.14869E-07,2.867653E-08,-2.622604E-08
146.7551,0.04501046,-2.804057E-08,NaN,-0.3270224,-1.373532E-07,NaN,-0.5150523,3.018858E-08,NaN,-2.137019,5.047132E-06,-0.2723242,-8.219203E-09,NaN,NaN,-0.01977995,-3.399333E-10,3.997671E-06,-1.14869E-07,2.867653E-08,-2.622604E-08
146.7699,0.04501044,-2.803943E-08,NaN,-0.3270223,-1.373521E-07,NaN,-0.5305666,3.033849E-08,NaN,-2.136971,5.047784E-06,-0.2717864,-8.366658E-09,NaN,NaN,-0.01977886,-3.399333E-10,4.024195E-06,-1.148671E-07,3.106072E-08,-2.622604E-08
146.7864,0.04501043,-2.803829E-08,NaN,-0.3270222,-1.37351E-07,NaN,-0.5458589,3.048632E-08,NaN,-2.136931,5.048445E-06,-0.2712941,-8.512022E-09,NaN,NaN,-0.01977788,-3.492465E-10,4.049229E-06,-1.148652E-07,3.582909E-08,-2.622604E-08
146.8021,0.04501041,-2.803715E-08,NaN,-0.3270221,-1.373499E-07,NaN,-0.5609322,3.06321E-08,NaN,-2.136897,5.049106E-06,-0.2708461,-8.655344E-09,NaN,NaN,-0.01977701,-3.585597E-10,4.073518E-06,-1.148634E-07,2.390816E-08,-2.622604E-08
146.8182,0.04501041,-2.803715E-08,NaN,-0.3270221,-1.373499E-07,NaN,-0.5609322,3.06321E-08,NaN,-2.136897,5.049106E-06,-0.2708461,-8.655344E-09,NaN,NaN,-0.01977701,-3.585597E-10,4.073518E-06,-1.148634E-07,2.390816E-08,-2.622604E-08
146.8332,0.0450104,-2.803601E-08,NaN,-0.327022,-1.373487E-07,NaN,-0.5757895,3.077588E-08,NaN,-2.136869,5.049767E-06,-0.2704408,-8.796659E-09,NaN,NaN,-0.01977624,-3.67873E-10,4.096763E-06,-1.148615E-07,1.67556E-08,-2.622604E-08
146.8495,0.04501038,-2.803487E-08,NaN,-0.327022,-1.373476E-07,NaN,-0.5904337,3.091698E-08,NaN,-2.136847,5.05042E-06,-0.2700768,-8.935304E-09,NaN,NaN,-0.01977557,-3.67873E-10,4.119711E-06,-1.148596E-07,1.437142E-08,-2.622604E-08
146.865,0.04501036,-2.803373E-08,NaN,-0.3270219,-1.373465E-07,NaN,-0.6048677,3.105546E-08,NaN,-2.136831,5.051081E-06,-0.2697529,-9.071328E-09,NaN,NaN,-0.01977501,-3.771862E-10,4.140275E-06,-1.148577E-07,1.913979E-08,-2.622604E-08
146.8807,0.04501034,-2.803259E-08,NaN,-0.3270218,-1.373454E-07,NaN,-0.6190945,3.119208E-08,NaN,-2.136821,5.051733E-06,-0.2694678,-9.205489E-09,NaN,NaN,-0.01977453,-3.771862E-10,4.158007E-06,-1.148559E-07,1.913979E-08,-2.622604E-08
146.8963,0.04501034,-2.803259E-08,NaN,-0.3270218,-1.373454E-07,NaN,-0.6190945,3.119208E-08,NaN,-2.136821,5.051733E-06,-0.2694678,-9.205489E-09,NaN,NaN,-0.01977453,-3.771862E-10,4.158007E-06,-1.148559E-07,1.913979E-08,-2.622604E-08
146.9113,0.04501032,-2.803145E-08,NaN,-0.3270217,-1.373443E-07,NaN,-0.6331168,3.132687E-08,NaN,-2.136816,5.052385E-06,-0.2692202,-9.337819E-09,NaN,NaN,-0.01977414,-3.771862E-10,4.174846E-06,-1.14854E-07,1.913979E-08,-2.622604E-08
146.9276,0.04501031,-2.803031E-08,NaN,-0.3270216,-1.373432E-07,NaN,-0.6469375,3.145987E-08,NaN,-2.136816,5.053046E-06,-0.2690089,-9.468363E-09,NaN,NaN,-0.01977384,-3.864994E-10,4.188853E-06,-1.148522E-07,2.390816E-08,-2.622604E-08
146.9435,0.04501029,-2.802917E-08,NaN,-0.3270215,-1.373421E-07,NaN,-0.6605594,3.159112E-08,NaN,-2.136821,5.053698E-06,-0.2688327,-9.597152E-09,NaN,NaN,-0.01977362,-3.864994E-10,4.200774E-06,-1.148504E-07,1.913979E-08,-2.622604E-08
146.9592,0.04501029,-2.802917E-08,NaN,-0.3270215,-1.373421E-07,NaN,-0.6605594,3.159112E-08,NaN,-2.136821,5.053698E-06,-0.2688327,-9.597152E-09,NaN,NaN,-0.01977362,-3.864994E-10,4.200774E-06,-1.148504E-07,1.913979E-08,-2.622604E-08
146.974,0.04501027,-2.802803E-08,NaN,-0.3270214,-1.37341E-07,NaN,-0.6739851,3.172065E-08,NaN,-2.136831,5.054359E-06,-0.2686904,-9.724219E-09,NaN,NaN,-0.01977348,-3.958126E-10,4.210012E-06,-1.148485E-07,1.437142E-08,-2.622604E-08
146.9907,0.04501025,-2.802689E-08,NaN,-0.3270213,-1.3734E-07,NaN,-0.6872174,3.184778E-08,NaN,-2.136846,5.055012E-06,-0.2685809,-9.848893E-09,NaN,NaN,-0.01977342,-3.958126E-10,4.219847E-06,-1.148467E-07,1.67556E-08,-2.622604E-08
147.0059,0.04501023,-2.802575E-08,NaN,-0.3270212,-1.373389E-07,NaN,-0.7002589,3.197327E-08,NaN,-2.136866,5.055664E-06,-0.2685032,-9.971926E-09,NaN,NaN,-0.01977343,-3.958126E-10,4.22387E-06,-1.148449E-07,1.437142E-08,-2.622604E-08
147.0218,0.04501021,-2.802461E-08,NaN,-0.3270212,-1.373378E-07,NaN,-0.7131124,3.209716E-08,NaN,-2.13689,5.056316E-06,-0.268456,-1.009335E-08,NaN,NaN,-0.01977351,-3.958126E-10,4.22998E-06,-1.148431E-07,9.603048E-09,-2.622604E-08
147.0373,0.04501021,-2.802461E-08,NaN,-0.3270212,-1.373378E-07,NaN,-0.7131124,3.209716E-08,NaN,-2.13689,5.056316E-06,-0.268456,-1.009335E-08,NaN,NaN,-0.01977351,-3.958126E-10,4.22998E-06,-1.148431E-07,9.603048E-09,-2.622604E-08
147.0525,0.04501019,-2.802348E-08,NaN,-0.3270211,-1.373367E-07,NaN,-0.7257803,3.221946E-08,NaN,-2.136918,5.056968E-06,-0.2684384,-1.02132E-08,NaN,NaN,-0.01977366,-3.958126E-10,4.235791E-06,-1.148413E-07,1.198723E-08,-2.622604E-08
147.0689,0.04501018,-2.802234E-08,NaN,-0.327021,-1.373356E-07,NaN,-0.7382653,3.234022E-08,NaN,-2.136951,5.05762E-06,-0.2684494,-1.03315E-08,NaN,NaN,-0.01977387,-3.958126E-10,4.238176E-06,-1.148395E-07,1.198723E-08,-2.622604E-08
147.0846,0.04501016,-2.80212E-08,NaN,-0.3270209,-1.373346E-07,NaN,-0.75057,3.245876E-08,NaN,-2.136987,5.058272E-06,-0.2684879,-1.044758E-08,NaN,NaN,-0.01977415,-3.958126E-10,4.238474E-06,-1.148377E-07,1.198723E-08,-2.622604E-08
147.1004,0.04501014,-2.802006E-08,NaN,-0.3270208,-1.373335E-07,NaN,-0.7626968,3.257582E-08,NaN,-2.137028,5.058924E-06,-0.2685531,-1.056218E-08,NaN,NaN,-0.01977449,-3.958126E-10,4.238548E-06,-1.148359E-07,1.198723E-08,-2.622604E-08
147.116,0.04501014,-2.802006E-08,NaN,-0.3270208,-1.373335E-07,NaN,-0.7626968,3.257582E-08,NaN,-2.137028,5.058924E-06,-0.2685531,-1.056218E-08,NaN,NaN,-0.01977449,-3.958126E-10,4.238548E-06,-1.148359E-07,1.198723E-08,-2.622604E-08
147.1308,0.04501012,-2.801893E-08,NaN,-0.3270207,-1.373324E-07,NaN,-0.7746482,3.269144E-08,NaN,-2.137071,5.059576E-06,-0.2686439,-1.067535E-08,NaN,NaN,-0.01977488,-3.958126E-10,4.235344E-06,-1.148342E-07,9.603049E-09,-2.622604E-08
147.1473,0.0450101,-2.801779E-08,NaN,-0.3270206,-1.373314E-07,NaN,-0.7864267,3.280565E-08,NaN,-2.137119,5.060228E-06,-0.2687595,-1.07871E-08,NaN,NaN,-0.01977533,-3.958126E-10,4.231768E-06,-1.148324E-07,9.603049E-09,-2.622604E-08
147.1629,0.04501008,-2.801665E-08,NaN,-0.3270205,-1.373303E-07,NaN,-0.7980346,3.291846E-08,NaN,-2.13717,5.060881E-06,-0.268899,-1.089746E-08,NaN,NaN,-0.01977582,-3.958126E-10,4.227671E-06,-1.148306E-07,7.218863E-09,-2.622604E-08
147.1787,0.04501008,-2.801665E-08,NaN,-0.3270205,-1.373303E-07,NaN,-0.7980346,3.291846E-08,NaN,-2.13717,5.060881E-06,-0.268899,-1.089746E-08,NaN,NaN,-0.01977582,-3.958126E-10,4.227671E-06,-1.148306E-07,7.218863E-09,-2.622604E-08
147.1939,0.04501006,-2.801552E-08,NaN,-0.3270204,-1.373293E-07,NaN,-0.8094745,3.302992E-08,NaN,-2.137224,5.061533E-06,-0.2690615,-1.100646E-08,NaN,NaN,-0.01977638,-3.958126E-10,4.221039E-06,-1.148289E-07,7.218863E-09,-2.622604E-08
147.2102,0.04501005,-2.801438E-08,NaN,-0.3270203,-1.373282E-07,NaN,-0.8207485,3.313934E-08,NaN,-2.137282,5.062185E-06,-0.2692461,-1.111342E-08,NaN,NaN,-0.01977697,-3.958126E-10,4.215452E-06,-1.148271E-07,4.834678E-09,-2.622604E-08
147.226,0.04501003,-2.801324E-08,NaN,-0.3270203,-1.373272E-07,NaN,-0.8318591,3.324746E-08,NaN,-2.137342,5.062837E-06,-0.2694522,-1.121908E-08,NaN,NaN,-0.01977762,-3.958126E-10,4.206213E-06,-1.148254E-07,9.603049E-09,-2.622604E-08
147.2432,0.04501001,-2.801211E-08,NaN,-0.3270202,-1.373261E-07,NaN,-0.8428086,3.33536E-08,NaN,-2.137406,5.063489E-06,-0.2696787,-1.132277E-08,NaN,NaN,-0.01977831,-3.958126E-10,4.198166E-06,-1.148236E-07,7.218863E-09,-2.622604E-08
147.2576,0.04501001,-2.801211E-08,NaN,-0.3270202,-1.373261E-07,NaN,-0.8428086,3.33536E-08,NaN,-2.137406,5.063489E-06,-0.2696787,-1.132277E-08,NaN,NaN,-0.01977831,-3.958126E-10,4.198166E-06,-1.148236E-07,7.218863E-09,-2.622604E-08
147.2722,0.04500999,-2.801097E-08,NaN,-0.3270201,-1.373251E-07,NaN,-0.8535992,3.345852E-08,NaN,-2.137472,5.064136E-06,-0.2699251,-1.142523E-08,NaN,NaN,-0.01977904,-3.91156E-10,4.188406E-06,-1.148219E-07,7.218863E-09,-2.622604E-08
147.2888,0.04500997,-2.800984E-08,NaN,-0.32702,-1.373241E-07,NaN,-0.8642331,3.356223E-08,NaN,-2.137542,5.064783E-06,-0.2701904,-1.152648E-08,NaN,NaN,-0.01977981,-3.864994E-10,4.179689E-06,-1.148202E-07,2.450492E-09,-2.622604E-08
147.3046,0.04500995,-2.80087E-08,NaN,-0.3270199,-1.37323E-07,NaN,-0.8747126,3.366405E-08,NaN,-2.137614,5.06543E-06,-0.2704741,-1.162585E-08,NaN,NaN,-0.01978062,-3.818428E-10,4.168885E-06,-1.148184E-07,2.450492E-09,-2.622604E-08
147.3206,0.04500993,-2.800757E-08,NaN,-0.3270198,-1.37322E-07,NaN,-0.8850399,3.376473E-08,NaN,-2.137688,5.066077E-06,-0.2707754,-1.172407E-08,NaN,NaN,-0.01978147,-3.771862E-10,4.156294E-06,-1.148167E-07,4.834678E-09,-2.622604E-08
147.3365,0.04500993,-2.800757E-08,NaN,-0.3270198,-1.37322E-07,NaN,-0.8850399,3.376473E-08,NaN,-2.137688,5.066077E-06,-0.2707754,-1.172407E-08,NaN,NaN,-0.01978147,-3.771862E-10,4.156294E-06,-1.148167E-07,4.834678E-09,-2.622604E-08
147.3517,0.0450099,-2.800643E-08,NaN,-0.3270197,-1.373209E-07,NaN,-0.8952169,3.386429E-08,NaN,-2.137765,5.066724E-06,-0.2710936,-1.182117E-08,NaN,NaN,-0.01978236,-3.725296E-10,4.141244E-06,-1.14815E-07,4.834678E-09,-2.622604E-08
147.3684,0.04500988,-2.80053E-08,NaN,-0.3270196,-1.373199E-07,NaN,-0.905246,3.396274E-08,NaN,-2.137845,5.067372E-06,-0.271428,-1.191716E-08,NaN,NaN,-0.01978328,-3.67873E-10,4.127311E-06,-1.148133E-07,4.834678E-09,-2.622604E-08
147.3846,0.04500986,-2.800416E-08,NaN,-0.3270195,-1.373189E-07,NaN,-0.9151292,3.405941E-08,NaN,-2.137926,5.068019E-06,-0.2717779,-1.201137E-08,NaN,NaN,-0.01978423,-3.632163E-10,4.112037E-06,-1.148116E-07,2.450492E-09,-2.622604E-08
147.4008,0.04500984,-2.800303E-08,NaN,-0.3270195,-1.373179E-07,NaN,-0.9248685,3.415504E-08,NaN,-2.13801,5.068666E-06,-0.2721428,-1.210454E-08,NaN,NaN,-0.01978521,-3.585597E-10,4.09587E-06,-1.148099E-07,6.630607E-11,-2.622604E-08
147.4173,0.04500984,-2.800303E-08,NaN,-0.3270195,-1.373179E-07,NaN,-0.9248685,3.415504E-08,NaN,-2.13801,5.068666E-06,-0.2721428,-1.210454E-08,NaN,NaN,-0.01978521,-3.585597E-10,4.09587E-06,-1.148099E-07,6.630607E-11,-2.622604E-08
147.4338,0.04500981,-2.80019E-08,NaN,-0.3270194,-1.373168E-07,NaN,-0.9344661,3.424964E-08,NaN,-2.138096,5.069313E-06,-0.2725219,-1.219668E-08,NaN,NaN,-0.01978622,-3.539031E-10,4.078584E-06,-1.148082E-07,6.630607E-11,-2.622604E-08
147.45,0.04500979,-2.800076E-08,NaN,-0.3270193,-1.373158E-07,NaN,-0.9439238,3.434324E-08,NaN,-2.138184,5.06997E-06,-0.2729148,-1.228782E-08,NaN,NaN,-0.01978726,-3.585597E-10,4.06115E-06,-1.148066E-07,-2.31788E-09,-2.622604E-08
147.4662,0.04500977,-2.799963E-08,NaN,-0.3270192,-1.373148E-07,NaN,-0.9532438,3.443515E-08,NaN,-2.138273,5.070617E-06,-0.2733208,-1.237728E-08,NaN,NaN,-0.01978832,-3.539031E-10,4.042002E-06,-1.148049E-07,6.630607E-11,-2.622604E-08
147.4866,0.04500975,-2.79985E-08,NaN,-0.3270191,-1.373138E-07,NaN,-0.9624279,3.452611E-08,NaN,-2.138365,5.071264E-06,-0.2737394,-1.246578E-08,NaN,NaN,-0.01978942,-3.492465E-10,4.022556E-06,-1.148032E-07,-4.702065E-09,-2.622604E-08
147.5028,0.04500972,-2.799736E-08,NaN,-0.327019,-1.373128E-07,NaN,-0.9714781,3.461614E-08,NaN,-2.138458,5.071911E-06,-0.2741699,-1.255335E-08,NaN,NaN,-0.01979054,-3.445899E-10,4.002439E-06,-1.148016E-07,2.450492E-09,-2.622604E-08
147.5196,0.04500972,-2.799736E-08,NaN,-0.327019,-1.373128E-07,NaN,-0.9714781,3.461614E-08,NaN,-2.138458,5.071911E-06,-0.2741699,-1.255335E-08,NaN,NaN,-0.01979054,-3.445899E-10,4.002439E-06,-1.148016E-07,2.450492E-09,-2.622604E-08
147.5351,0.0450097,-2.799623E-08,NaN,-0.3270189,-1.373118E-07,NaN,-0.9803963,3.470525E-08,NaN,-2.138554,5.072568E-06,-0.2746119,-1.264E-08,NaN,NaN,-0.01979168,-3.492465E-10,3.981876E-06,-1.147999E-07,2.450492E-09,-2.622604E-08
147.5522,0.04500968,-2.79951E-08,NaN,-0.3270188,-1.373108E-07,NaN,-0.9891843,3.479347E-08,NaN,-2.13865,5.073224E-06,-0.2750649,-1.272576E-08,NaN,NaN,-0.01979284,-3.539031E-10,3.960567E-06,-1.147983E-07,4.834678E-09,-2.622604E-08
147.5699,0.04500966,-2.799397E-08,NaN,-0.3270187,-1.373098E-07,NaN,-0.9978441,3.488011E-08,NaN,-2.138749,5.073881E-06,-0.2755283,-1.280994E-08,NaN,NaN,-0.01979403,-3.585597E-10,3.94045E-06,-1.147966E-07,7.218863E-09,-2.622604E-08
147.5867,0.04500964,-2.799283E-08,NaN,-0.3270186,-1.373088E-07,NaN,-1.006377,3.49659E-08,NaN,-2.138848,5.074538E-06,-0.2760016,-1.289327E-08,NaN,NaN,-0.01979524,-3.632163E-10,3.918024E-06,-1.14795E-07,1.198723E-08,-2.622604E-08
147.6031,0.04500961,-2.79917E-08,NaN,-0.3270186,-1.373078E-07,NaN,-1.014786,3.505086E-08,NaN,-2.138949,5.075194E-06,-0.2764844,-1.297577E-08,NaN,NaN,-0.01979646,-3.67873E-10,3.895598E-06,-1.147933E-07,1.675561E-08,-2.622604E-08
147.6203,0.04500959,-2.799057E-08,NaN,-0.3270185,-1.373068E-07,NaN,-1.023072,3.51343E-08,NaN,-2.139052,5.075841E-06,-0.2769762,-1.305676E-08,NaN,NaN,-0.0197977,-3.632163E-10,3.871085E-06,-1.147917E-07,1.913979E-08,-2.622604E-08
147.6362,0.04500959,-2.799057E-08,NaN,-0.3270185,-1.373068E-07,NaN,-1.023072,3.51343E-08,NaN,-2.139052,5.075841E-06,-0.2769762,-1.305676E-08,NaN,NaN,-0.0197977,-3.632163E-10,3.871085E-06,-1.147917E-07,1.913979E-08,-2.622604E-08
147.6521,0.04500957,-2.798944E-08,NaN,-0.3270184,-1.373058E-07,NaN,-1.031237,3.521625E-08,NaN,-2.139156,5.076488E-06,-0.2774765,-1.313624E-08,NaN,NaN,-0.01979895,-3.585597E-10,3.847244E-06,-1.147901E-07,2.629235E-08,-2.622604E-08
147.67,0.04500955,-2.798831E-08,NaN,-0.3270183,-1.373049E-07,NaN,-1.039282,3.529744E-08,NaN,-2.139261,5.077145E-06,-0.2779849,-1.321498E-08,NaN,NaN,-0.01980023,-3.632163E-10,3.822358E-06,-1.147885E-07,2.629235E-08,-2.622604E-08
147.6869,0.04500952,-2.798718E-08,NaN,-0.3270182,-1.373039E-07,NaN,-1.04721,3.537789E-08,NaN,-2.139367,5.077792E-06,-0.278501,-1.329297E-08,NaN,NaN,-0.01980152,-3.585597E-10,3.798368E-06,-1.147869E-07,2.867653E-08,-2.622604E-08
147.7034,0.0450095,-2.798605E-08,NaN,-0.3270181,-1.373029E-07,NaN,-1.055021,3.545691E-08,NaN,-2.139474,5.078439E-06,-0.2790244,-1.336953E-08,NaN,NaN,-0.01980282,-3.539031E-10,3.773185E-06,-1.147853E-07,2.390816E-08,-2.622604E-08
147.7235,0.04500948,-2.798492E-08,NaN,-0.327018,-1.373019E-07,NaN,-1.062719,3.553523E-08,NaN,-2.139582,5.079086E-06,-0.2795546,-1.34454E-08,NaN,NaN,-0.01980413,-3.492465E-10,3.747853E-06,-1.147837E-07,2.152398E-08,-2.622604E-08
147.7398,0.04500948,-2.798492E-08,NaN,-0.327018,-1.373019E-07,NaN,-1.062719,3.553523E-08,NaN,-2.139582,5.079086E-06,-0.2795546,-1.34454E-08,NaN,NaN,-0.01980413,-3.492465E-10,3.747853E-06,-1.147837E-07,2.152398E-08,-2.622604E-08
147.7561,0.04500946,-2.798379E-08,NaN,-0.3270179,-1.373009E-07,NaN,-1.070303,3.561287E-08,NaN,-2.139691,5.079733E-06,-0.2800913,-1.352057E-08,NaN,NaN,-0.01980546,-3.445899E-10,3.722968E-06,-1.147821E-07,1.913979E-08,-2.622604E-08
147.7743,0.04500943,-2.798266E-08,NaN,-0.3270178,-1.373E-07,NaN,-1.077777,3.568984E-08,NaN,-2.139801,5.08039E-06,-0.2806342,-1.359508E-08,NaN,NaN,-0.0198068,-3.492465E-10,3.697487E-06,-1.147805E-07,1.913979E-08,-2.622604E-08
147.7904,0.04500941,-2.798153E-08,NaN,-0.3270178,-1.37299E-07,NaN,-1.085141,3.576544E-08,NaN,-2.139912,5.081047E-06,-0.2811827,-1.366823E-08,NaN,NaN,-0.01980815,-3.539031E-10,3.671708E-06,-1.147789E-07,2.152398E-08,-2.622604E-08
147.8073,0.04500939,-2.79804E-08,NaN,-0.3270177,-1.37298E-07,NaN,-1.092397,3.584042E-08,NaN,-2.140024,5.081694E-06,-0.2817366,-1.374075E-08,NaN,NaN,-0.01980952,-3.492465E-10,3.644587E-06,-1.147773E-07,1.675561E-08,-2.622604E-08
147.8242,0.04500937,-2.797927E-08,NaN,-0.3270176,-1.372971E-07,NaN,-1.099547,3.591478E-08,NaN,-2.140136,5.082351E-06,-0.2822956,-1.381265E-08,NaN,NaN,-0.01981089,-3.539031E-10,3.617765E-06,-1.147758E-07,1.437142E-08,-2.622604E-08
147.8407,0.04500934,-2.797814E-08,NaN,-0.3270175,-1.372961E-07,NaN,-1.106592,3.598782E-08,NaN,-2.14025,5.082998E-06,-0.2828592,-1.388324E-08,NaN,NaN,-0.01981227,-3.492465E-10,3.588559E-06,-1.147742E-07,1.198724E-08,-2.622604E-08
147.8577,0.04500934,-2.797814E-08,NaN,-0.3270175,-1.372961E-07,NaN,-1.106592,3.598782E-08,NaN,-2.14025,5.082998E-06,-0.2828592,-1.388324E-08,NaN,NaN,-0.01981227,-3.492465E-10,3.588559E-06,-1.147742E-07,1.198724E-08,-2.622604E-08
147.8734,0.04500932,-2.797701E-08,NaN,-0.3270174,-1.372952E-07,NaN,-1.113534,3.606029E-08,NaN,-2.140364,5.083645E-06,-0.2834272,-1.395325E-08,NaN,NaN,-0.01981366,-3.445899E-10,3.56129E-06,-1.147726E-07,9.603051E-09,-2.622604E-08
147.8912,0.0450093,-2.797588E-08,NaN,-0.3270173,-1.372942E-07,NaN,-1.120373,3.613219E-08,NaN,-2.140478,5.084292E-06,-0.2839992,-1.402269E-08,NaN,NaN,-0.01981505,-3.399333E-10,3.535809E-06,-1.147711E-07,4.834679E-09,-2.622604E-08
147.9082,0.04500928,-2.797475E-08,NaN,-0.3270172,-1.372933E-07,NaN,-1.127113,3.620353E-08,NaN,-2.140593,5.084948E-06,-0.284575,-1.409157E-08,NaN,NaN,-0.01981646,-3.445899E-10,3.508987E-06,-1.147695E-07,7.218865E-09,-2.622604E-08
147.9248,0.04500926,-2.797362E-08,NaN,-0.3270171,-1.372923E-07,NaN,-1.133754,3.627361E-08,NaN,-2.140709,5.085601E-06,-0.2851543,-1.415919E-08,NaN,NaN,-0.01981786,-3.445899E-10,3.48127E-06,-1.14768E-07,4.834679E-09,-2.622604E-08
147.9418,0.04500923,-2.797249E-08,NaN,-0.327017,-1.372914E-07,NaN,-1.140297,3.634317E-08,NaN,-2.140825,5.086253E-06,-0.2857367,-1.422629E-08,NaN,NaN,-0.01981928,-3.445899E-10,3.453852E-06,-1.147664E-07,6.630785E-11,-2.622604E-08
147.9583,0.04500923,-2.797249E-08,NaN,-0.327017,-1.372914E-07,NaN,-1.140297,3.634317E-08,NaN,-2.140825,5.086253E-06,-0.2857367,-1.422629E-08,NaN,NaN,-0.01981928,-3.445899E-10,3.453852E-06,-1.147664E-07,6.630785E-11,-2.622604E-08
147.9743,0.04500921,-2.797137E-08,NaN,-0.3270169,-1.372904E-07,NaN,-1.146744,3.641222E-08,NaN,-2.140942,5.086905E-06,-0.2863221,-1.429289E-08,NaN,NaN,-0.0198207,-3.445899E-10,3.424795E-06,-1.147649E-07,6.630785E-11,-2.622604E-08
147.9922,0.04500919,-2.797024E-08,NaN,-0.3270169,-1.372895E-07,NaN,-1.153096,3.648007E-08,NaN,-2.141059,5.087566E-06,-0.28691,-1.435827E-08,NaN,NaN,-0.01982213,-3.539031E-10,3.394248E-06,-1.147634E-07,2.450494E-09,-2.622604E-08
148.0088,0.04500917,-2.796911E-08,NaN,-0.3270168,-1.372886E-07,NaN,-1.159355,3.654673E-08,NaN,-2.141176,5.088227E-06,-0.2875003,-1.442248E-08,NaN,NaN,-0.01982356,-3.632163E-10,3.366084E-06,-1.147619E-07,2.450494E-09,-2.622604E-08
148.0254,0.04500914,-2.796798E-08,NaN,-0.3270167,-1.372876E-07,NaN,-1.165522,3.661294E-08,NaN,-2.141294,5.088888E-06,-0.2880927,-1.448623E-08,NaN,NaN,-0.01982499,-3.725296E-10,3.337176E-06,-1.147603E-07,2.450494E-09,-2.622604E-08
148.0421,0.04500912,-2.796685E-08,NaN,-0.3270166,-1.372867E-07,NaN,-1.171598,3.6678E-08,NaN,-2.141412,5.08955E-06,-0.288687,-1.454883E-08,NaN,NaN,-0.01982643,-3.818428E-10,3.309758E-06,-1.147588E-07,7.218865E-09,-2.622604E-08
148.0592,0.04500912,-2.796685E-08,NaN,-0.3270166,-1.372867E-07,NaN,-1.171598,3.6678E-08,NaN,-2.141412,5.08955E-06,-0.288687,-1.454883E-08,NaN,NaN,-0.01982643,-3.818428E-10,3.309758E-06,-1.147588E-07,7.218865E-09,-2.622604E-08
148.0753,0.0450091,-2.796573E-08,NaN,-0.3270165,-1.372858E-07,NaN,-1.177585,3.674264E-08,NaN,-2.14153,5.090202E-06,-0.2892829,-1.461101E-08,NaN,NaN,-0.01982787,-3.818428E-10,3.27936E-06,-1.147573E-07,7.218865E-09,-2.622604E-08
148.0926,0.04500908,-2.79646E-08,NaN,-0.3270164,-1.372849E-07,NaN,-1.183484,3.680686E-08,NaN,-2.141649,5.090854E-06,-0.2898802,-1.467277E-08,NaN,NaN,-0.01982931,-3.818428E-10,3.251644E-06,-1.147558E-07,4.834679E-09,-2.622604E-08
148.1095,0.04500905,-2.796347E-08,NaN,-0.3270163,-1.372839E-07,NaN,-1.189297,3.686996E-08,NaN,-2.141767,5.091506E-06,-0.2904787,-1.473342E-08,NaN,NaN,-0.01983075,-3.818428E-10,3.222735E-06,-1.147543E-07,6.630785E-11,-2.622604E-08
148.1263,0.04500902,-2.796235E-08,NaN,-0.3270162,-1.37283E-07,NaN,-1.195023,3.693267E-08,NaN,-2.141886,5.092158E-06,-0.2910781,-1.479366E-08,NaN,NaN,-0.0198322,-3.818428E-10,3.193678E-06,-1.147528E-07,6.630785E-11,-2.622604E-08
148.1431,0.045009,-2.796122E-08,NaN,-0.3270161,-1.372821E-07,NaN,-1.200665,3.6995E-08,NaN,-2.142005,5.09281E-06,-0.2916783,-1.485354E-08,NaN,NaN,-0.01983364,-3.818428E-10,3.16477E-06,-1.147513E-07,6.630785E-11,-2.622604E-08
148.1599,0.045009,-2.796122E-08,NaN,-0.3270161,-1.372821E-07,NaN,-1.200665,3.6995E-08,NaN,-2.142005,5.09281E-06,-0.2916783,-1.485354E-08,NaN,NaN,-0.01983364,-3.818428E-10,3.16477E-06,-1.147513E-07,6.630785E-11,-2.622604E-08
148.1758,0.04500897,-2.796009E-08,NaN,-0.3270161,-1.372812E-07,NaN,-1.206225,3.705696E-08,NaN,-2.142124,5.093462E-06,-0.2922791,-1.491304E-08,NaN,NaN,-0.01983509,-3.818428E-10,3.136458E-06,-1.147499E-07,6.630785E-11,-2.622604E-08
148.1936,0.04500895,-2.795897E-08,NaN,-0.327016,-1.372803E-07,NaN,-1.211702,3.711785E-08,NaN,-2.142244,5.094114E-06,-0.2928802,-1.497147E-08,NaN,NaN,-0.01983654,-3.818428E-10,3.107699E-06,-1.147484E-07,-9.470435E-09,-2.622604E-08
148.21,0.04500892,-2.795784E-08,NaN,-0.3270159,-1.372794E-07,NaN,-1.217099,3.71784E-08,NaN,-2.142363,5.094766E-06,-0.2934816,-1.502956E-08,NaN,NaN,-0.01983799,-3.818428E-10,3.077598E-06,-1.147469E-07,-9.470435E-09,-2.622604E-08
148.2268,0.04500889,-2.795672E-08,NaN,-0.3270158,-1.372784E-07,NaN,-1.222416,3.723861E-08,NaN,-2.142482,5.095419E-06,-0.2940829,-1.508732E-08,NaN,NaN,-0.01983944,-3.818428E-10,3.0472E-06,-1.147454E-07,-7.086249E-09,-2.622604E-08
148.2436,0.04500887,-2.795559E-08,NaN,-0.3270157,-1.372775E-07,NaN,-1.227655,3.729779E-08,NaN,-2.142601,5.096071E-06,-0.294684,-1.514404E-08,NaN,NaN,-0.01984088,-3.818428E-10,3.018143E-06,-1.14744E-07,-9.470435E-09,-2.622604E-08
148.2602,0.04500884,-2.795446E-08,NaN,-0.3270156,-1.372766E-07,NaN,-1.232817,3.735666E-08,NaN,-2.14272,5.096723E-06,-0.2952847,-1.520045E-08,NaN,NaN,-0.01984233,-3.818428E-10,2.98834E-06,-1.147425E-07,-9.470435E-09,-2.622604E-08
148.2771,0.04500884,-2.795446E-08,NaN,-0.3270156,-1.372766E-07,NaN,-1.232817,3.735666E-08,NaN,-2.14272,5.096723E-06,-0.2952847,-1.520045E-08,NaN,NaN,-0.01984233,-3.818428E-10,2.98834E-06,-1.147425E-07,-9.470435E-09,-2.622604E-08
148.293,0.04500882,-2.795334E-08,NaN,-0.3270155,-1.372757E-07,NaN,-1.237902,3.741523E-08,NaN,-2.14284,5.097375E-06,-0.295885,-1.525657E-08,NaN,NaN,-0.01984377,-3.818428E-10,2.95973E-06,-1.147411E-07,-9.470435E-09,-2.622604E-08
148.312,0.04500879,-2.795221E-08,NaN,-0.3270155,-1.372749E-07,NaN,-1.242913,3.74728E-08,NaN,-2.142959,5.098027E-06,-0.2964846,-1.531168E-08,NaN,NaN,-0.01984521,-3.818428E-10,2.930077E-06,-1.147396E-07,-9.470435E-09,-2.622604E-08
148.3272,0.04500876,-2.795109E-08,NaN,-0.3270154,-1.37274E-07,NaN,-1.24785,3.753009E-08,NaN,-2.143078,5.098679E-06,-0.2970834,-1.536651E-08,NaN,NaN,-0.01984665,-3.818428E-10,2.901467E-06,-1.147382E-07,-9.470435E-09,-2.622604E-08
148.3439,0.04500874,-2.794997E-08,NaN,-0.3270154,-1.372731E-07,NaN,-1.252713,3.758641E-08,NaN,-2.143197,5.099331E-06,-0.2976818,-1.542037E-08,NaN,NaN,-0.01984809,-3.818428E-10,2.871515E-06,-1.147368E-07,-9.470435E-09,-2.622604E-08
148.3606,0.04500871,-2.794884E-08,NaN,-0.3270153,-1.372722E-07,NaN,-1.257504,3.764248E-08,NaN,-2.143316,5.099983E-06,-0.298279,-1.547398E-08,NaN,NaN,-0.01984953,-3.818428E-10,2.841713E-06,-1.147353E-07,-7.086249E-09,-2.622604E-08
148.3773,0.04500871,-2.794884E-08,NaN,-0.3270153,-1.372722E-07,NaN,-1.257504,3.764248E-08,NaN,-2.143316,5.099983E-06,-0.298279,-1.547398E-08,NaN,NaN,-0.01984953,-3.818428E-10,2.841713E-06,-1.147353E-07,-7.086249E-09,-2.622604E-08
148.3934,0.04500869,-2.794772E-08,NaN,-0.3270153,-1.372713E-07,NaN,-1.262224,3.769759E-08,NaN,-2.143434,5.100635E-06,-0.2988748,-1.552663E-08,NaN,NaN,-0.01985096,-3.818428E-10,2.813103E-06,-1.147339E-07,-2.317878E-09,-2.622604E-08
148.411,0.04500866,-2.794659E-08,NaN,-0.3270152,-1.372704E-07,NaN,-1.266114,3.775247E-08,NaN,-2.143621,5.101288E-06,-0.3003784,-1.557905E-08,NaN,NaN,-0.01985479,-3.818428E-10,2.738299E-06,-1.147325E-07,-2.317878E-09,-2.622604E-08
148.4275,0.04500864,-2.794547E-08,NaN,-0.3270151,-1.372695E-07,NaN,-1.269094,3.780642E-08,NaN,-2.143825,5.10194E-06,-0.3017196,-1.563055E-08,NaN,NaN,-0.01985816,-3.818428E-10,2.67333E-06,-1.147311E-07,-2.317878E-09,-2.622604E-08
148.4443,0.04500861,-2.794434E-08,NaN,-0.3270151,-1.372687E-07,NaN,-1.271569,3.786017E-08,NaN,-2.14402,5.102592E-06,-0.3028452,-1.568184E-08,NaN,NaN,-0.01986097,-3.818428E-10,2.619835E-06,-1.147297E-07,-9.470435E-09,-2.622604E-08
148.4612,0.04500858,-2.794322E-08,NaN,-0.327015,-1.372678E-07,NaN,-1.273791,3.791301E-08,NaN,-2.144203,5.103244E-06,-0.3038447,-1.573222E-08,NaN,NaN,-0.01986345,-3.818428E-10,2.572151E-06,-1.147283E-07,-9.470435E-09,-2.622604E-08
148.4783,0.04500858,-2.794322E-08,NaN,-0.327015,-1.372678E-07,NaN,-1.273791,3.791301E-08,NaN,-2.144203,5.103244E-06,-0.3038447,-1.573222E-08,NaN,NaN,-0.01986345,-3.818428E-10,2.572151E-06,-1.147283E-07,-9.470435E-09,-2.622604E-08
148.494,0.04500856,-2.79421E-08,NaN,-0.327015,-1.372669E-07,NaN,-1.275124,3.796567E-08,NaN,-2.144447,5.103905E-06,-0.3056866,-1.578242E-08,NaN,NaN,-0.01986818,-3.91156E-10,2.481925E-06,-1.147269E-07,-9.470435E-09,-2.622604E-08
148.5115,0.04500853,-2.794097E-08,NaN,-0.3270149,-1.37266E-07,NaN,-1.275546,3.801815E-08,NaN,-2.144701,5.104557E-06,-0.3073319,-1.583244E-08,NaN,NaN,-0.01987237,-3.91156E-10,2.402278E-06,-1.147255E-07,-1.423881E-08,-2.622604E-08
148.5282,0.0450085,-2.793985E-08,NaN,-0.3270148,-1.372652E-07,NaN,-1.275479,3.806975E-08,NaN,-2.144943,5.105209E-06,-0.3087402,-1.588158E-08,NaN,NaN,-0.01987594,-3.91156E-10,2.334105E-06,-1.147241E-07,-1.185462E-08,-2.622604E-08
148.5455,0.04500847,-2.793873E-08,NaN,-0.3270148,-1.372643E-07,NaN,-1.274431,3.812117E-08,NaN,-2.14524,5.105861E-06,-0.3109152,-1.593054E-08,NaN,NaN,-0.01988159,-3.91156E-10,2.228605E-06,-1.147227E-07,-9.470435E-09,-2.622604E-08
148.5618,0.04500844,-2.793761E-08,NaN,-0.3270147,-1.372634E-07,NaN,-1.272449,3.817243E-08,NaN,-2.145544,5.106514E-06,-0.3128524,-1.597935E-08,NaN,NaN,-0.01988659,-3.91156E-10,2.135473E-06,-1.147213E-07,-7.086249E-09,-2.622604E-08
148.5786,0.04500844,-2.793761E-08,NaN,-0.3270147,-1.372634E-07,NaN,-1.272449,3.817243E-08,NaN,-2.145544,5.106514E-06,-0.3128524,-1.597935E-08,NaN,NaN,-0.01988659,-3.91156E-10,2.135473E-06,-1.147213E-07,-7.086249E-09,-2.622604E-08
148.5943,0.04500841,-2.793648E-08,NaN,-0.3270147,-1.372626E-07,NaN,-1.269987,3.822284E-08,NaN,-2.145832,5.107166E-06,-0.3145278,-1.60273E-08,NaN,NaN,-0.01989089,-3.91156E-10,2.054373E-06,-1.147199E-07,6.630785E-11,-2.622604E-08
148.6121,0.04500838,-2.793536E-08,NaN,-0.3270146,-1.372617E-07,NaN,-1.267324,3.827311E-08,NaN,-2.146101,5.107818E-06,-0.3160443,-1.607511E-08,NaN,NaN,-0.01989478,-3.91156E-10,1.982065E-06,-1.147186E-07,-4.702064E-09,-2.622604E-08
148.6287,0.04500836,-2.793424E-08,NaN,-0.3270145,-1.372609E-07,NaN,-1.263839,3.832254E-08,NaN,-2.146427,5.108479E-06,-0.3183764,-1.612209E-08,NaN,NaN,-0.01990093,-4.004692E-10,1.871275E-06,-1.147172E-07,-7.086249E-09,-2.622604E-08
148.6454,0.04500833,-2.793312E-08,NaN,-0.3270145,-1.3726E-07,NaN,-1.259508,3.837186E-08,NaN,-2.146762,5.109131E-06,-0.3204926,-1.616895E-08,NaN,NaN,-0.01990647,-4.004692E-10,1.768923E-06,-1.147158E-07,-4.702064E-09,-2.622604E-08
148.662,0.0450083,-2.793199E-08,NaN,-0.3270144,-1.372592E-07,NaN,-1.254756,3.842106E-08,NaN,-2.147081,5.109783E-06,-0.3223513,-1.621569E-08,NaN,NaN,-0.01991133,-4.004692E-10,1.680745E-06,-1.147145E-07,-4.702064E-09,-2.622604E-08
148.6788,0.0450083,-2.793199E-08,NaN,-0.3270144,-1.372592E-07,NaN,-1.254756,3.842106E-08,NaN,-2.147081,5.109783E-06,-0.3223513,-1.621569E-08,NaN,NaN,-0.01991133,-4.004692E-10,1.680745E-06,-1.147145E-07,-4.702064E-09,-2.622604E-08
148.6946,0.04500827,-2.793087E-08,NaN,-0.3270144,-1.372583E-07,NaN,-1.249844,3.846945E-08,NaN,-2.147382,5.110435E-06,-0.3240479,-1.626162E-08,NaN,NaN,-0.01991576,-4.004692E-10,1.599455E-06,-1.147131E-07,-4.702064E-09,-2.622604E-08
148.7122,0.04500824,-2.792975E-08,NaN,-0.3270143,-1.372575E-07,NaN,-1.244148,3.851774E-08,NaN,-2.14774,5.111087E-06,-0.3265531,-1.630745E-08,NaN,NaN,-0.01992247,-4.004692E-10,1.479605E-06,-1.147118E-07,-7.086249E-09,-2.622604E-08
148.7287,0.04500821,-2.792863E-08,NaN,-0.3270142,-1.372566E-07,NaN,-1.237643,3.856594E-08,NaN,-2.148108,5.111739E-06,-0.3288371,-1.635319E-08,NaN,NaN,-0.01992855,-4.004692E-10,1.372643E-06,-1.147105E-07,-1.185462E-08,-2.622604E-08
148.7457,0.04500818,-2.792751E-08,NaN,-0.3270142,-1.372558E-07,NaN,-1.230747,3.861333E-08,NaN,-2.148459,5.112392E-06,-0.3308562,-1.639813E-08,NaN,NaN,-0.01993392,-4.004692E-10,1.279566E-06,-1.147091E-07,-1.185462E-08,-2.622604E-08
148.762,0.04500815,-2.792639E-08,NaN,-0.3270141,-1.37255E-07,NaN,-1.223721,3.865994E-08,NaN,-2.14879,5.113044E-06,-0.332705,-1.644228E-08,NaN,NaN,-0.01993884,-4.004692E-10,1.192208E-06,-1.147078E-07,-1.185462E-08,-2.622604E-08
148.7791,0.04500815,-2.792639E-08,NaN,-0.3270141,-1.37255E-07,NaN,-1.223721,3.865994E-08,NaN,-2.14879,5.113044E-06,-0.332705,-1.644228E-08,NaN,NaN,-0.01993884,-4.004692E-10,1.192208E-06,-1.147078E-07,-1.185462E-08,-2.622604E-08
148.7949,0.04500812,-2.792527E-08,NaN,-0.3270141,-1.372541E-07,NaN,-1.215946,3.870579E-08,NaN,-2.149178,5.113696E-06,-0.3353539,-1.648567E-08,NaN,NaN,-0.01994606,-4.004692E-10,1.066405E-06,-1.147065E-07,-1.423881E-08,-2.622604E-08
148.8124,0.04500808,-2.792415E-08,NaN,-0.327014,-1.372533E-07,NaN,-1.207392,3.875159E-08,NaN,-2.149575,5.114348E-06,-0.3377763,-1.652901E-08,NaN,NaN,-0.01995263,-4.004692E-10,9.521133E-07,-1.147051E-07,-1.423881E-08,-2.622604E-08
148.8301,0.04500805,-2.792303E-08,NaN,-0.3270139,-1.372525E-07,NaN,-1.198475,3.879735E-08,NaN,-2.149955,5.115E-06,-0.3399268,-1.657231E-08,NaN,NaN,-0.01995846,-4.004692E-10,8.497423E-07,-1.147038E-07,-9.470434E-09,-2.622604E-08
148.8456,0.04500802,-2.79219E-08,NaN,-0.3270139,-1.372516E-07,NaN,-1.188714,3.884235E-08,NaN,-2.150389,5.115652E-06,-0.342806,-1.661485E-08,NaN,NaN,-0.01996642,-4.004692E-10,7.151103E-07,-1.147025E-07,-7.086248E-09,-2.622604E-08
