JMolnar6/NonAnthroHands_User_Study/HandsLoggerWithURDF/tempdata/files/Reachy_JointMotion_gesture_1_5.csv
Time,r_shoulder,r_shoulder_x,r_upper_arm,r_forearm,r_wrist,r_wrist2hand,
66.9276,-0.1487547,-3.284654E-08,NaN,-0.3264468,-1.383696E-07,NaN,0.4551486,3.754504E-08,NaN,-0.4921628,2.142828E-06,-0.3781936,-9.501298E-09,NaN,NaN,-0.01997652,-9.313258E-11,1.049234E-07,-1.157098E-07,2.134705E-08,-2.861022E-08
66.94553,-0.1478018,-3.28453E-08,NaN,-0.3264484,-1.38368E-07,NaN,0.4547883,3.764512E-08,NaN,-0.4924661,2.143569E-06,-0.3778809,-9.598736E-09,NaN,NaN,-0.0199768,-9.778919E-11,1.043274E-07,-1.157075E-07,2.84996E-08,-2.622604E-08
66.96103,-0.1463964,-3.284405E-08,NaN,-0.3264493,-1.383663E-07,NaN,0.454279,3.774377E-08,NaN,-0.4928895,2.1443E-06,-0.377449,-9.694745E-09,NaN,NaN,-0.01997717,-9.313258E-11,1.047744E-07,-1.157051E-07,3.088379E-08,-2.861022E-08
66.97782,-0.1463964,-3.284405E-08,NaN,-0.3264493,-1.383663E-07,NaN,0.454279,3.774377E-08,NaN,-0.4928895,2.1443E-06,-0.377449,-9.694745E-09,NaN,NaN,-0.01997717,-9.313258E-11,1.047744E-07,-1.157051E-07,3.088379E-08,-2.861022E-08
66.99397,-0.144712,-3.284281E-08,NaN,-0.3264499,-1.383647E-07,NaN,0.453765,3.784103E-08,NaN,-0.4933177,2.14504E-06,-0.3770154,-9.789352E-09,NaN,NaN,-0.01997754,-9.778919E-11,1.041784E-07,-1.157027E-07,3.326798E-08,-2.622604E-08
67.01168,-0.1428592,-3.284157E-08,NaN,-0.3264506,-1.383631E-07,NaN,0.4532929,3.793691E-08,NaN,-0.493712,2.145771E-06,-0.3766178,-9.882587E-09,NaN,NaN,-0.01997788,-9.313258E-11,1.032843E-07,-1.157004E-07,2.849961E-08,-2.861022E-08
67.02845,-0.1416363,-3.284032E-08,NaN,-0.3264531,-1.383615E-07,NaN,0.4533889,3.803144E-08,NaN,-0.4936542,2.146511E-06,-0.3766823,-9.974475E-09,NaN,NaN,-0.01997778,-9.778919E-11,1.037314E-07,-1.156981E-07,2.849961E-08,-2.622604E-08
67.04523,-0.1408149,-3.283908E-08,NaN,-0.3264565,-1.3836E-07,NaN,0.4536775,3.812465E-08,NaN,-0.4934404,2.147242E-06,-0.3769029,-1.006505E-08,NaN,NaN,-0.01997755,-9.313258E-11,1.041784E-07,-1.156957E-07,2.373124E-08,-2.861022E-08
67.06213,-0.1402497,-3.283784E-08,NaN,-0.3264605,-1.383584E-07,NaN,0.4540068,3.821587E-08,NaN,-0.4931929,2.147983E-06,-0.3771556,-1.015361E-08,NaN,NaN,-0.0199773,-9.778919E-11,1.065626E-07,-1.156934E-07,2.611542E-08,-2.622604E-08
67.07917,-0.1402497,-3.283784E-08,NaN,-0.3264605,-1.383584E-07,NaN,0.4540068,3.821587E-08,NaN,-0.4931929,2.147983E-06,-0.3771556,-1.015361E-08,NaN,NaN,-0.0199773,-9.778919E-11,1.065626E-07,-1.156934E-07,2.611542E-08,-2.622604E-08
67.09528,-0.1405744,-3.283659E-08,NaN,-0.3264671,-1.383568E-07,NaN,0.4548404,3.830583E-08,NaN,-0.4925465,2.148714E-06,-0.3778163,-1.024093E-08,NaN,NaN,-0.01997668,-9.313258E-11,1.084997E-07,-1.156911E-07,2.611542E-08,-2.861022E-08
67.11266,-0.141458,-3.283535E-08,NaN,-0.3264748,-1.383552E-07,NaN,0.4557944,3.839456E-08,NaN,-0.4918053,2.149454E-06,-0.3785725,-1.032701E-08,NaN,NaN,-0.01997597,-9.778919E-11,1.093938E-07,-1.156888E-07,3.088379E-08,-2.622604E-08
67.12933,-0.1426894,-3.283411E-08,NaN,-0.3264827,-1.383536E-07,NaN,0.4567263,3.848208E-08,NaN,-0.4910843,2.150185E-06,-0.3793079,-1.04119E-08,NaN,NaN,-0.01997529,-9.313258E-11,1.093938E-07,-1.156865E-07,3.088379E-08,-2.861022E-08
67.14658,-0.1441345,-3.283286E-08,NaN,-0.3264904,-1.383521E-07,NaN,0.4575943,3.856841E-08,NaN,-0.4904177,2.150925E-06,-0.3799891,-1.049558E-08,NaN,NaN,-0.01997465,-9.778919E-11,1.12076E-07,-1.156842E-07,3.088379E-08,-2.622604E-08
67.1635,-0.1464364,-3.283162E-08,NaN,-0.3265002,-1.383505E-07,NaN,0.45892,3.865359E-08,NaN,-0.4893982,2.151656E-06,-0.3810404,-1.057812E-08,NaN,NaN,-0.01997367,-9.313258E-11,1.12672E-07,-1.156819E-07,3.326798E-08,-2.861022E-08
67.18024,-0.1492676,-3.283037E-08,NaN,-0.3265104,-1.383489E-07,NaN,0.4603394,3.873763E-08,NaN,-0.4883097,2.152397E-06,-0.3821653,-1.065951E-08,NaN,NaN,-0.01997263,-9.778919E-11,1.158013E-07,-1.156797E-07,3.326798E-08,-2.622604E-08
67.19706,-0.1492676,-3.283037E-08,NaN,-0.3265104,-1.383489E-07,NaN,0.4603394,3.873763E-08,NaN,-0.4883097,2.152397E-06,-0.3821653,-1.065951E-08,NaN,NaN,-0.01997263,-9.778919E-11,1.158013E-07,-1.156797E-07,3.326798E-08,-2.622604E-08
67.21312,-0.1524201,-3.282913E-08,NaN,-0.3265201,-1.383474E-07,NaN,0.4617199,3.88202E-08,NaN,-0.4872578,2.153128E-06,-0.383256,-1.073944E-08,NaN,NaN,-0.01997162,-9.313258E-11,1.175894E-07,-1.156774E-07,3.326798E-08,-2.861022E-08
67.23071,-0.1564898,-3.282789E-08,NaN,-0.3265314,-1.383458E-07,NaN,0.4635546,3.890169E-08,NaN,-0.4858631,2.153868E-06,-0.3847151,-1.081829E-08,NaN,NaN,-0.01997026,-9.778919E-11,1.217618E-07,-1.156751E-07,3.088379E-08,-2.622604E-08
67.24757,-0.1611196,-3.282664E-08,NaN,-0.3265425,-1.383443E-07,NaN,0.4654657,3.898176E-08,NaN,-0.4844176,2.154599E-06,-0.3862339,-1.089572E-08,NaN,NaN,-0.01996885,-9.313258E-11,1.229538E-07,-1.156729E-07,3.326798E-08,-2.861022E-08
67.26569,-0.1660823,-3.28254E-08,NaN,-0.3265523,-1.383428E-07,NaN,0.4673186,3.90608E-08,NaN,-0.4830276,2.155339E-06,-0.3877029,-1.097211E-08,NaN,NaN,-0.01996748,-9.778919E-11,1.257851E-07,-1.156706E-07,3.326798E-08,-2.622604E-08
67.28107,-0.1712337,-3.282416E-08,NaN,-0.3265607,-1.383412E-07,NaN,0.4690776,3.913882E-08,NaN,-0.4817214,2.15607E-06,-0.3890939,-1.104749E-08,NaN,NaN,-0.01996619,-9.313258E-11,1.292123E-07,-1.156684E-07,3.326798E-08,-2.861022E-08
67.29797,-0.1712337,-3.282416E-08,NaN,-0.3265607,-1.383412E-07,NaN,0.4690776,3.913882E-08,NaN,-0.4817214,2.15607E-06,-0.3890939,-1.104749E-08,NaN,NaN,-0.01996619,-9.313258E-11,1.292123E-07,-1.156684E-07,3.326798E-08,-2.861022E-08
67.31436,-0.1772105,-3.282291E-08,NaN,-0.3265702,-1.383397E-07,NaN,0.4712851,3.921584E-08,NaN,-0.4800893,2.156811E-06,-0.3908518,-1.112187E-08,NaN,NaN,-0.01996453,-9.778919E-11,1.332356E-07,-1.156662E-07,3.565217E-08,-2.622604E-08
67.33143,-0.1836815,-3.282167E-08,NaN,-0.3265788,-1.383382E-07,NaN,0.4735695,3.929189E-08,NaN,-0.478411,2.157542E-06,-0.3926714,-1.119527E-08,NaN,NaN,-0.01996282,-9.313258E-11,1.368119E-07,-1.15664E-07,3.565217E-08,-2.861022E-08
67.34855,-0.1904364,-3.282043E-08,NaN,-0.3265857,-1.383366E-07,NaN,0.4757968,3.936664E-08,NaN,-0.4767894,2.158282E-06,-0.3944435,-1.126737E-08,NaN,NaN,-0.01996116,-9.778919E-11,1.402392E-07,-1.156618E-07,3.803635E-08,-2.622604E-08
67.36501,-0.1980697,-3.281918E-08,NaN,-0.3265931,-1.383351E-07,NaN,0.4784814,3.944009E-08,NaN,-0.4748463,2.159013E-06,-0.3965915,-1.133818E-08,NaN,NaN,-0.01995912,-9.313258E-11,1.412822E-07,-1.156596E-07,4.518891E-08,-2.861022E-08
67.3817,-0.2062238,-3.281794E-08,NaN,-0.3265989,-1.383332E-07,NaN,0.4812326,3.949009E-08,NaN,-0.4728705,2.159753E-06,-0.3987933,-1.138553E-08,NaN,NaN,-0.01995703,-9.778919E-11,1.448585E-07,-1.156583E-07,4.042054E-08,-2.622604E-08
67.39861,-0.2062238,-3.281794E-08,NaN,-0.3265989,-1.383332E-07,NaN,0.4812326,3.949009E-08,NaN,-0.4728705,2.159753E-06,-0.3987933,-1.138553E-08,NaN,NaN,-0.01995703,-9.778919E-11,1.448585E-07,-1.156583E-07,4.042054E-08,-2.622604E-08
67.41465,-0.2146712,-3.28167E-08,NaN,-0.3266023,-1.383313E-07,NaN,0.4839119,3.954276E-08,NaN,-0.4709671,2.16048E-06,-0.4009359,-1.143555E-08,NaN,NaN,-0.01995501,-8.847597E-11,1.496269E-07,-1.156571E-07,3.565217E-08,-2.861022E-08
67.432,-0.223996,-3.281545E-08,NaN,-0.3266057,-1.383294E-07,NaN,0.4870459,3.959633E-08,NaN,-0.4687585,2.16122E-06,-0.4034548,-1.148647E-08,NaN,NaN,-0.01995259,-9.313258E-11,1.537992E-07,-1.15656E-07,3.565217E-08,-2.622604E-08
67.44865,-0.2338336,-3.281421E-08,NaN,-0.3266074,-1.383276E-07,NaN,0.4902386,3.965007E-08,NaN,-0.4665311,2.161946E-06,-0.4060223,-1.153756E-08,NaN,NaN,-0.01995013,-8.381936E-11,1.597597E-07,-1.156549E-07,3.803636E-08,-2.861022E-08
67.46524,-0.2439526,-3.281297E-08,NaN,-0.3266077,-1.383259E-07,NaN,0.4933519,3.970364E-08,NaN,-0.4643883,2.162687E-06,-0.4085256,-1.158848E-08,NaN,NaN,-0.01994773,-8.847598E-11,1.64379E-07,-1.156538E-07,3.803636E-08,-2.622604E-08
67.48209,-0.2542063,-3.281172E-08,NaN,-0.3266073,-1.383245E-07,NaN,0.4963503,3.97789E-08,NaN,-0.4623561,2.163418E-06,-0.4109367,-1.166109E-08,NaN,NaN,-0.01994539,-8.381936E-11,1.684024E-07,-1.156517E-07,3.565217E-08,-2.861022E-08
67.49925,-0.2542063,-3.281172E-08,NaN,-0.3266073,-1.383245E-07,NaN,0.4963503,3.97789E-08,NaN,-0.4623561,2.163418E-06,-0.4109367,-1.166109E-08,NaN,NaN,-0.01994539,-8.381936E-11,1.684024E-07,-1.156517E-07,3.565217E-08,-2.861022E-08
67.51537,-0.2652299,-3.281048E-08,NaN,-0.3266076,-1.383231E-07,NaN,0.4998151,3.985009E-08,NaN,-0.4600283,2.164158E-06,-0.4137389,-1.172963E-08,NaN,NaN,-0.01994264,-8.847598E-11,1.703395E-07,-1.156496E-07,3.326798E-08,-2.622604E-08
67.53261,-0.2766917,-3.280924E-08,NaN,-0.3266069,-1.383217E-07,NaN,0.5033498,3.991902E-08,NaN,-0.4576797,2.164889E-06,-0.4166014,-1.179593E-08,NaN,NaN,-0.01993982,-8.381936E-11,1.798763E-07,-1.156475E-07,3.08838E-08,-2.861022E-08
67.55003,-0.288381,-3.2808E-08,NaN,-0.3266053,-1.383203E-07,NaN,0.5068133,4.001468E-08,NaN,-0.4554115,2.165629E-06,-0.4194079,-1.188894E-08,NaN,NaN,-0.01993705,-8.847598E-11,1.876249E-07,-1.156454E-07,2.849961E-08,-2.622604E-08
67.56718,-0.3008928,-3.280676E-08,NaN,-0.3266042,-1.383188E-07,NaN,0.5107623,4.01083E-08,NaN,-0.45285,2.16636E-06,-0.4226238,-1.197992E-08,NaN,NaN,-0.01993383,-8.381936E-11,1.916482E-07,-1.156433E-07,2.373124E-08,-2.861022E-08
67.58361,-0.3138695,-3.280552E-08,NaN,-0.3266018,-1.383174E-07,NaN,0.5147764,4.020029E-08,NaN,-0.4502797,2.167101E-06,-0.4258967,-1.206926E-08,NaN,NaN,-0.01993056,-8.847598E-11,1.982047E-07,-1.156411E-07,1.896287E-08,-2.622604E-08
67.60061,-0.3270842,-3.280428E-08,NaN,-0.3265982,-1.383159E-07,NaN,0.5187078,4.029066E-08,NaN,-0.4478036,2.167832E-06,-0.4291043,-1.215699E-08,NaN,NaN,-0.01992734,-8.381936E-11,2.02079E-07,-1.15639E-07,1.657868E-08,-2.861022E-08
67.6177,-0.3270842,-3.280428E-08,NaN,-0.3265982,-1.383159E-07,NaN,0.5187078,4.029066E-08,NaN,-0.4478036,2.167832E-06,-0.4291043,-1.215699E-08,NaN,NaN,-0.01992734,-8.381936E-11,2.02079E-07,-1.15639E-07,1.657868E-08,-2.861022E-08
67.63395,-0.3411215,-3.280304E-08,NaN,-0.3265949,-1.383145E-07,NaN,0.5231315,4.037946E-08,NaN,-0.4450501,2.168563E-06,-0.4327303,-1.224314E-08,NaN,NaN,-0.01992366,-7.916275E-11,2.050592E-07,-1.156369E-07,1.657868E-08,-2.622604E-08
67.65166,-0.3556174,-3.28018E-08,NaN,-0.3265897,-1.38313E-07,NaN,0.527615,4.046706E-08,NaN,-0.4423,2.169294E-06,-0.4364098,-1.232809E-08,NaN,NaN,-0.01991992,-7.450613E-11,2.074434E-07,-1.156348E-07,1.896287E-08,-2.861022E-08
67.66858,-0.3703409,-3.280056E-08,NaN,-0.3265816,-1.383116E-07,NaN,0.5320076,4.055314E-08,NaN,-0.4396544,2.170034E-06,-0.4400173,-1.241152E-08,NaN,NaN,-0.01991624,-7.916275E-11,2.104236E-07,-1.156327E-07,1.657868E-08,-2.622604E-08
67.68578,-0.3851459,-3.279932E-08,NaN,-0.326571,-1.383101E-07,NaN,0.5362713,4.063807E-08,NaN,-0.4371386,2.170761E-06,-0.4435225,-1.249381E-08,NaN,NaN,-0.01991264,-6.984952E-11,2.183212E-07,-1.156305E-07,1.657868E-08,-2.861022E-08
67.7026,-0.4006683,-3.279808E-08,NaN,-0.3265609,-1.383087E-07,NaN,0.5410497,4.072188E-08,NaN,-0.4343549,2.171496E-06,-0.4474711,-1.257497E-08,NaN,NaN,-0.01990851,-6.984952E-11,2.226426E-07,-1.156285E-07,1.41945E-08,-2.622604E-08
67.71989,-0.4006683,-3.279808E-08,NaN,-0.3265609,-1.383087E-07,NaN,0.5410497,4.072188E-08,NaN,-0.4343549,2.171496E-06,-0.4474711,-1.257497E-08,NaN,NaN,-0.01990851,-6.984952E-11,2.226426E-07,-1.156285E-07,1.41945E-08,-2.622604E-08
67.73624,-0.4165768,-3.279684E-08,NaN,-0.3265486,-1.383073E-07,NaN,0.545903,4.080459E-08,NaN,-0.4315715,2.172223E-06,-0.4514885,-1.265503E-08,NaN,NaN,-0.01990431,-6.05363E-11,2.28454E-07,-1.156264E-07,9.426127E-09,-2.861022E-08
67.75384,-0.4326615,-3.27956E-08,NaN,-0.3265337,-1.383058E-07,NaN,0.5506768,4.088588E-08,NaN,-0.4288875,2.172959E-06,-0.4554447,-1.273366E-08,NaN,NaN,-0.01990015,-6.05363E-11,2.353086E-07,-1.156243E-07,9.426127E-09,-2.622604E-08
67.77053,-0.4495178,-3.279436E-08,NaN,-0.326519,-1.383044E-07,NaN,0.5559929,4.096576E-08,NaN,-0.4259381,2.173685E-06,-0.4598707,-1.281089E-08,NaN,NaN,-0.01989545,-5.122307E-11,2.396299E-07,-1.156222E-07,9.426127E-09,-2.861022E-08
67.79039,-0.4667888,-3.279312E-08,NaN,-0.3265015,-1.38303E-07,NaN,0.5613822,4.104461E-08,NaN,-0.4230003,2.174421E-06,-0.4643644,-1.28871E-08,NaN,NaN,-0.01989067,-5.122307E-11,2.451434E-07,-1.156201E-07,7.041941E-09,-2.622604E-08
67.80444,-0.484248,-3.279188E-08,NaN,-0.3264808,-1.383016E-07,NaN,0.5666821,4.112247E-08,NaN,-0.4201749,2.175147E-06,-0.4687887,-1.29623E-08,NaN,NaN,-0.01988595,-4.190985E-11,2.479746E-07,-1.156181E-07,7.041941E-09,-2.861022E-08
67.82195,-0.5017525,-3.279064E-08,NaN,-0.3264574,-1.383002E-07,NaN,0.5718499,4.119933E-08,NaN,-0.4174879,2.175883E-06,-0.4731091,-1.303652E-08,NaN,NaN,-0.0198813,-4.190985E-11,2.542331E-07,-1.15616E-07,7.041941E-09,-2.622604E-08
67.83886,-0.5017525,-3.279064E-08,NaN,-0.3264574,-1.383002E-07,NaN,0.5718499,4.119933E-08,NaN,-0.4174879,2.175883E-06,-0.4731091,-1.303652E-08,NaN,NaN,-0.0198813,-4.190985E-11,2.542331E-07,-1.15616E-07,7.041941E-09,-2.622604E-08
67.85525,-0.5199402,-3.27894E-08,NaN,-0.3264347,-1.382993E-07,NaN,0.5775831,4.12375E-08,NaN,-0.41455,2.176623E-06,-0.4779257,-1.307205E-08,NaN,NaN,-0.01987601,-3.725324E-11,2.636208E-07,-1.156147E-07,2.273569E-09,-2.622604E-08
67.87267,-0.5384814,-3.278816E-08,NaN,-0.3264096,-1.382988E-07,NaN,0.5834026,4.128966E-08,NaN,-0.4116243,2.177382E-06,-0.4828239,-1.312156E-08,NaN,NaN,-0.01987064,-4.656647E-11,2.721144E-07,-1.156137E-07,4.657755E-09,-2.622604E-08
67.88999,-0.5571672,-3.278692E-08,NaN,-0.3263818,-1.382986E-07,NaN,0.589141,4.134927E-08,NaN,-0.4088081,2.178141E-06,-0.487661,-1.317855E-08,NaN,NaN,-0.01986533,-5.122308E-11,2.686872E-07,-1.156128E-07,4.657755E-09,-2.622604E-08
67.90682,-0.5765938,-3.278568E-08,NaN,-0.3263541,-1.382986E-07,NaN,0.595477,4.141274E-08,NaN,-0.4057455,2.178891E-06,-0.4930247,-1.323939E-08,NaN,NaN,-0.01985934,-4.190985E-11,2.806081E-07,-1.156121E-07,4.657755E-09,-2.622604E-08
67.92372,-0.5964047,-3.278444E-08,NaN,-0.3263234,-1.382986E-07,NaN,0.6018983,4.147789E-08,NaN,-0.4027071,2.179655E-06,-0.4984695,-1.330192E-08,NaN,NaN,-0.01985329,-4.656646E-11,2.880587E-07,-1.156114E-07,4.657755E-09,-2.622604E-08
67.94126,-0.6163743,-3.27832E-08,NaN,-0.3262895,-1.382987E-07,NaN,0.6082283,4.154365E-08,NaN,-0.3997917,2.180419E-06,-0.5038444,-1.336507E-08,NaN,NaN,-0.01984728,-5.122307E-11,2.962543E-07,-1.156107E-07,7.041941E-09,-2.622604E-08
67.95827,-0.6163743,-3.27832E-08,NaN,-0.3262895,-1.382987E-07,NaN,0.6082283,4.154365E-08,NaN,-0.3997917,2.180419E-06,-0.5038444,-1.336507E-08,NaN,NaN,-0.01984728,-5.122307E-11,2.962543E-07,-1.156107E-07,7.041941E-09,-2.622604E-08
67.97453,-0.6370881,-3.278196E-08,NaN,-0.3262554,-1.382988E-07,NaN,0.615176,4.161503E-08,NaN,-0.3966472,2.181177E-06,-0.5097674,-1.343384E-08,NaN,NaN,-0.01984056,-5.587969E-11,3.019167E-07,-1.156101E-07,4.657755E-09,-2.622604E-08
67.99202,-0.658183,-3.278072E-08,NaN,-0.3262179,-1.382989E-07,NaN,0.6222093,4.168587E-08,NaN,-0.3935393,2.181932E-06,-0.515773,-1.350207E-08,NaN,NaN,-0.01983375,-5.587969E-11,3.111555E-07,-1.156094E-07,7.041941E-09,-2.622604E-08
68.00922,-0.6794291,-3.277948E-08,NaN,-0.3261769,-1.382991E-07,NaN,0.6291468,4.175581E-08,NaN,-0.3905644,2.182686E-06,-0.5217054,-1.356941E-08,NaN,NaN,-0.01982702,-5.587969E-11,3.114535E-07,-1.156088E-07,1.181031E-08,-2.622604E-08
68.02619,-0.700681,-3.277824E-08,NaN,-0.3261331,-1.382992E-07,NaN,0.6359417,4.182489E-08,NaN,-0.3877464,2.183436E-06,-0.5275264,-1.363589E-08,NaN,NaN,-0.01982034,-5.122307E-11,3.156258E-07,-1.156082E-07,7.041941E-09,-2.622604E-08
68.0439,-0.7220687,-3.2777E-08,NaN,-0.3260883,-1.382994E-07,NaN,0.6428367,4.189313E-08,NaN,-0.3849689,2.184186E-06,-0.5334507,-1.370152E-08,NaN,NaN,-0.01981344,-4.656646E-11,3.212883E-07,-1.156076E-07,9.426127E-09,-2.622604E-08
68.06032,-0.743452,-3.277576E-08,NaN,-0.3260423,-1.382995E-07,NaN,0.6496736,4.195982E-08,NaN,-0.3822992,2.18494E-06,-0.5393392,-1.376562E-08,NaN,NaN,-0.01980653,-4.656646E-11,3.232254E-07,-1.15607E-07,7.041942E-09,-2.622604E-08
68.07716,-0.743452,-3.277576E-08,NaN,-0.3260423,-1.382995E-07,NaN,0.6496736,4.195982E-08,NaN,-0.3822992,2.18494E-06,-0.5393392,-1.376562E-08,NaN,NaN,-0.01980653,-4.656646E-11,3.232254E-07,-1.15607E-07,7.041942E-09,-2.622604E-08
68.09342,-0.764743,-3.277452E-08,NaN,-0.3259955,-1.382997E-07,NaN,0.656404,4.202536E-08,NaN,-0.3797563,2.18569E-06,-0.5451504,-1.382856E-08,NaN,NaN,-0.01979964,-4.190985E-11,3.272487E-07,-1.156064E-07,2.27357E-09,-2.622604E-08
68.11167,-0.7858868,-3.277328E-08,NaN,-0.3259486,-1.382999E-07,NaN,0.6630195,4.209012E-08,NaN,-0.3773396,2.186444E-06,-0.5508777,-1.389072E-08,NaN,NaN,-0.0197928,-4.190985E-11,3.327622E-07,-1.156058E-07,-1.302708E-09,-2.622604E-08
68.12849,-0.8068496,-3.277204E-08,NaN,-0.3259021,-1.383E-07,NaN,0.6695242,4.215376E-08,NaN,-0.3750421,2.187194E-06,-0.5565254,-1.395177E-08,NaN,NaN,-0.01978598,-3.725324E-11,3.355934E-07,-1.156052E-07,-1.106155E-10,-2.622604E-08
68.14555,-0.8276109,-3.27708E-08,NaN,-0.3258566,-1.383002E-07,NaN,0.6759245,4.221631E-08,NaN,-0.3728553,2.187943E-06,-0.562099,-1.401173E-08,NaN,NaN,-0.0197792,-3.259663E-11,3.390207E-07,-1.156046E-07,1.081477E-09,-2.622604E-08
68.1627,-0.8481585,-3.276956E-08,NaN,-0.3258123,-1.383003E-07,NaN,0.6822257,4.227779E-08,NaN,-0.3707719,2.188702E-06,-0.5676032,-1.407061E-08,NaN,NaN,-0.01977246,-3.725324E-11,3.414048E-07,-1.15604E-07,-1.302708E-09,-2.622604E-08
68.18015,-0.868486,-3.276832E-08,NaN,-0.3257694,-1.383005E-07,NaN,0.6884315,4.233858E-08,NaN,-0.3687856,2.189461E-06,-0.5730407,-1.41288E-08,NaN,NaN,-0.01976577,-4.190985E-11,3.451301E-07,-1.156034E-07,1.081477E-09,-2.622604E-08
68.19716,-0.868486,-3.276832E-08,NaN,-0.3257694,-1.383005E-07,NaN,0.6884315,4.233858E-08,NaN,-0.3687856,2.189461E-06,-0.5730407,-1.41288E-08,NaN,NaN,-0.01976577,-4.190985E-11,3.451301E-07,-1.156034E-07,1.081477E-09,-2.622604E-08
68.21362,-0.8885901,-3.276708E-08,NaN,-0.3257282,-1.383006E-07,NaN,0.6945438,4.239832E-08,NaN,-0.3668912,2.19022E-06,-0.5784128,-1.418595E-08,NaN,NaN,-0.01975913,-4.656646E-11,3.509416E-07,-1.156029E-07,7.041941E-09,-2.622604E-08
68.23095,-0.9084696,-3.276584E-08,NaN,-0.3256888,-1.383008E-07,NaN,0.7005636,4.245706E-08,NaN,-0.3650846,2.190979E-06,-0.5837198,-1.424209E-08,NaN,NaN,-0.01975256,-5.122307E-11,3.531767E-07,-1.156023E-07,8.234034E-09,-2.622604E-08
68.24841,-0.9281247,-3.27646E-08,NaN,-0.3256511,-1.383009E-07,NaN,0.7064906,4.251479E-08,NaN,-0.3633624,2.191734E-06,-0.5889609,-1.429723E-08,NaN,NaN,-0.01974605,-5.122307E-11,3.573491E-07,-1.156017E-07,9.426127E-09,-2.622604E-08
68.26545,-0.9475567,-3.276336E-08,NaN,-0.3256152,-1.383011E-07,NaN,0.7123243,4.257155E-08,NaN,-0.3617215,2.192488E-06,-0.594135,-1.43514E-08,NaN,NaN,-0.01973963,-5.122307E-11,3.573491E-07,-1.156011E-07,1.300241E-08,-2.622604E-08
68.28246,-0.966767,-3.276212E-08,NaN,-0.325581,-1.383012E-07,NaN,0.7180634,4.262736E-08,NaN,-0.3601595,2.193243E-06,-0.5992405,-1.440461E-08,NaN,NaN,-0.01973329,-5.122307E-11,3.607763E-07,-1.156005E-07,8.234034E-09,-2.622604E-08
68.29935,-0.966767,-3.276212E-08,NaN,-0.325581,-1.383012E-07,NaN,0.7180634,4.262736E-08,NaN,-0.3601595,2.193243E-06,-0.5992405,-1.440461E-08,NaN,NaN,-0.01973329,-5.122307E-11,3.607763E-07,-1.156005E-07,8.234034E-09,-2.622604E-08
68.31591,-0.9857578,-3.276088E-08,NaN,-0.3255486,-1.383014E-07,NaN,0.7237069,4.268222E-08,NaN,-0.358674,2.194002E-06,-0.6042757,-1.445688E-08,NaN,NaN,-0.01972704,-5.587969E-11,3.665878E-07,-1.156E-07,9.426127E-09,-2.622604E-08
68.3348,-1.004531,-3.275964E-08,NaN,-0.3255179,-1.383015E-07,NaN,0.7292532,4.273617E-08,NaN,-0.3572627,2.194756E-06,-0.6092387,-1.450823E-08,NaN,NaN,-0.0197209,-5.587969E-11,3.655447E-07,-1.155994E-07,9.426127E-09,-2.622604E-08
68.35078,-1.023089,-3.27584E-08,NaN,-0.3254889,-1.383017E-07,NaN,0.734701,4.278921E-08,NaN,-0.3559237,2.19551E-06,-0.6141277,-1.455868E-08,NaN,NaN,-0.01971486,-5.587969E-11,3.703131E-07,-1.155988E-07,9.426127E-09,-2.622604E-08
68.36748,-1.041434,-3.275716E-08,NaN,-0.3254615,-1.383018E-07,NaN,0.7400486,4.284137E-08,NaN,-0.3546549,2.196265E-06,-0.6189408,-1.460824E-08,NaN,NaN,-0.01970893,-5.587969E-11,3.69419E-07,-1.155983E-07,9.426127E-09,-2.622604E-08
68.38443,-1.059569,-3.275592E-08,NaN,-0.3254357,-1.38302E-07,NaN,0.7452947,4.289302E-08,NaN,-0.3534545,2.197019E-06,-0.623676,-1.46573E-08,NaN,NaN,-0.01970311,-5.587969E-11,3.762735E-07,-1.155977E-07,4.657755E-09,-2.622604E-08
68.4014,-1.077495,-3.275468E-08,NaN,-0.3254114,-1.383021E-07,NaN,0.750438,4.294381E-08,NaN,-0.3523205,2.197778E-06,-0.6283317,-1.470549E-08,NaN,NaN,-0.01969741,-6.05363E-11,3.789557E-07,-1.155971E-07,5.849848E-09,-2.622604E-08
68.4188,-1.077495,-3.275468E-08,NaN,-0.3254114,-1.383021E-07,NaN,0.750438,4.294381E-08,NaN,-0.3523205,2.197778E-06,-0.6283317,-1.470549E-08,NaN,NaN,-0.01969741,-6.05363E-11,3.789557E-07,-1.155971E-07,5.849848E-09,-2.622604E-08
68.43494,-1.095215,-3.275344E-08,NaN,-0.3253886,-1.383022E-07,NaN,0.7554769,4.299375E-08,NaN,-0.3512512,2.198537E-06,-0.632906,-1.475285E-08,NaN,NaN,-0.01969185,-6.519291E-11,3.801478E-07,-1.155966E-07,4.657755E-09,-2.622604E-08
68.45274,-1.112732,-3.27522E-08,NaN,-0.3253673,-1.383024E-07,NaN,0.7604101,4.304288E-08,NaN,-0.3502448,2.199292E-06,-0.6373973,-1.479938E-08,NaN,NaN,-0.0196864,-6.519291E-11,3.844692E-07,-1.15596E-07,9.426127E-09,-2.622604E-08
68.46973,-1.130048,-3.275096E-08,NaN,-0.3253474,-1.383025E-07,NaN,0.7652366,4.30912E-08,NaN,-0.3492996,2.200046E-06,-0.6418041,-1.48451E-08,NaN,NaN,-0.01968108,-6.519291E-11,3.873004E-07,-1.155955E-07,7.041941E-09,-2.622604E-08
68.48698,-1.147164,-3.274972E-08,NaN,-0.3253289,-1.383027E-07,NaN,0.769955,4.313837E-08,NaN,-0.3484139,2.200805E-06,-0.6461247,-1.488968E-08,NaN,NaN,-0.0196759,-6.984953E-11,3.893866E-07,-1.155949E-07,8.83008E-09,-2.622604E-08
68.50395,-1.164084,-3.274848E-08,NaN,-0.3253117,-1.383028E-07,NaN,0.7745643,4.318512E-08,NaN,-0.3475859,2.201559E-06,-0.6503576,-1.493385E-08,NaN,NaN,-0.01967086,-6.984953E-11,3.898336E-07,-1.155944E-07,7.637987E-09,-2.622604E-08
68.52087,-1.18081,-3.274724E-08,NaN,-0.3252957,-1.38303E-07,NaN,0.7790635,4.323112E-08,NaN,-0.3468141,2.202318E-06,-0.6545016,-1.497725E-08,NaN,NaN,-0.01966596,-7.450614E-11,3.877475E-07,-1.155938E-07,5.849848E-09,-2.622604E-08
68.53751,-1.18081,-3.274724E-08,NaN,-0.3252957,-1.38303E-07,NaN,0.7790635,4.323112E-08,NaN,-0.3468141,2.202318E-06,-0.6545016,-1.497725E-08,NaN,NaN,-0.01966596,-7.450614E-11,3.877475E-07,-1.155938E-07,5.849848E-09,-2.622604E-08
68.55408,-1.197343,-3.274601E-08,NaN,-0.3252811,-1.383031E-07,NaN,0.7834517,4.327637E-08,NaN,-0.3460968,2.203073E-06,-0.6585554,-1.501991E-08,NaN,NaN,-0.01966121,-7.450614E-11,3.892376E-07,-1.155933E-07,7.04194E-09,-2.622604E-08
68.57155,-1.213687,-3.274477E-08,NaN,-0.3252676,-1.383032E-07,NaN,0.7877281,4.332088E-08,NaN,-0.3454325,2.203827E-06,-0.6625178,-1.506183E-08,NaN,NaN,-0.0196566,-7.450614E-11,3.905787E-07,-1.155927E-07,7.04194E-09,-2.622604E-08
68.589,-1.229621,-3.274353E-08,NaN,-0.3252546,-1.383034E-07,NaN,0.7915815,4.336469E-08,NaN,-0.3449186,2.204582E-06,-0.6661064,-1.510304E-08,NaN,NaN,-0.01965253,-7.450614E-11,3.907277E-07,-1.155922E-07,7.637987E-09,-2.622604E-08
68.60565,-1.245232,-3.274229E-08,NaN,-0.325243,-1.383035E-07,NaN,0.7952347,4.340778E-08,NaN,-0.3444837,2.205341E-06,-0.6695249,-1.514355E-08,NaN,NaN,-0.01964865,-7.916276E-11,3.922178E-07,-1.155916E-07,7.041941E-09,-2.622604E-08
68.62265,-1.260574,-3.274105E-08,NaN,-0.3252332,-1.383037E-07,NaN,0.7987678,4.345054E-08,NaN,-0.3440971,2.206095E-06,-0.6728451,-1.518372E-08,NaN,NaN,-0.01964489,-7.916276E-11,3.902807E-07,-1.155911E-07,7.339964E-09,-2.622604E-08
68.63967,-1.260574,-3.274105E-08,NaN,-0.3252332,-1.383037E-07,NaN,0.7987678,4.345054E-08,NaN,-0.3440971,2.206095E-06,-0.6728451,-1.518372E-08,NaN,NaN,-0.01964489,-7.916276E-11,3.902807E-07,-1.155911E-07,7.339964E-09,-2.622604E-08
68.6561,-1.274955,-3.273981E-08,NaN,-0.3252226,-1.383038E-07,NaN,0.8011683,4.349262E-08,NaN,-0.3440706,2.206854E-06,-0.6751474,-1.522321E-08,NaN,NaN,-0.01964256,-8.381938E-11,3.858104E-07,-1.155906E-07,7.339964E-09,-2.622604E-08
68.67344,-1.288671,-3.273857E-08,NaN,-0.3252145,-1.383039E-07,NaN,0.8031892,4.353404E-08,NaN,-0.3441725,2.207613E-06,-0.6771207,-1.526203E-08,NaN,NaN,-0.01964052,-8.847599E-11,3.877475E-07,-1.1559E-07,7.637987E-09,-2.622604E-08
68.69068,-1.301912,-3.273733E-08,NaN,-0.3252096,-1.383041E-07,NaN,0.8050973,4.357479E-08,NaN,-0.3443082,2.208372E-06,-0.6790059,-1.530019E-08,NaN,NaN,-0.01963851,-9.313261E-11,3.871514E-07,-1.155895E-07,7.041941E-09,-2.622604E-08
68.70747,-1.314799,-3.273609E-08,NaN,-0.3252076,-1.383042E-07,NaN,0.8069701,4.361455E-08,NaN,-0.3444454,2.209126E-06,-0.680871,-1.533736E-08,NaN,NaN,-0.01963654,-9.313261E-11,3.862574E-07,-1.15589E-07,6.743917E-09,-2.622604E-08
68.7244,-1.326681,-3.273485E-08,NaN,-0.3252059,-1.383044E-07,NaN,0.8077752,4.365404E-08,NaN,-0.3448982,2.209881E-06,-0.6817749,-1.537426E-08,NaN,NaN,-0.01963596,-9.313261E-11,3.826811E-07,-1.155884E-07,6.743917E-09,-2.622604E-08
68.74113,-1.337882,-3.273361E-08,NaN,-0.3252058,-1.383045E-07,NaN,0.8082563,4.369292E-08,NaN,-0.3454437,2.21064E-06,-0.6823979,-1.541054E-08,NaN,NaN,-0.01963565,-9.778922E-11,3.795519E-07,-1.155879E-07,7.488976E-09,-2.622604E-08
68.75797,-1.337882,-3.273361E-08,NaN,-0.3252058,-1.383045E-07,NaN,0.8082563,4.369292E-08,NaN,-0.3454437,2.21064E-06,-0.6823979,-1.541054E-08,NaN,NaN,-0.01963565,-9.778922E-11,3.795519E-07,-1.155879E-07,7.488976E-09,-2.622604E-08
68.77422,-1.348607,-3.273237E-08,NaN,-0.3252071,-1.383046E-07,NaN,0.8086711,4.373118E-08,NaN,-0.3459939,2.211394E-06,-0.6829726,-1.544621E-08,NaN,NaN,-0.01963535,-9.778922E-11,3.746345E-07,-1.155874E-07,6.892929E-09,-2.622604E-08
68.79205,-1.35826,-3.273113E-08,NaN,-0.3252081,-1.383048E-07,NaN,0.8080526,4.376885E-08,NaN,-0.3468423,2.212149E-06,-0.6826171,-1.548129E-08,NaN,NaN,-0.01963636,-9.778922E-11,3.716542E-07,-1.155869E-07,7.190953E-09,-2.622604E-08
68.80921,-1.367198,-3.272989E-08,NaN,-0.3252105,-1.383049E-07,NaN,0.8071607,4.380594E-08,NaN,-0.3477609,2.212903E-06,-0.682026,-1.551579E-08,NaN,NaN,-0.01963759,-9.778922E-11,3.670349E-07,-1.155864E-07,7.693867E-09,-2.622604E-08
68.82624,-1.375649,-3.272865E-08,NaN,-0.3252146,-1.38305E-07,NaN,0.8062541,4.384246E-08,NaN,-0.3486629,2.213658E-06,-0.6814325,-1.554972E-08,NaN,NaN,-0.0196388,-9.778922E-11,3.642037E-07,-1.155858E-07,7.47035E-09,-2.622604E-08
68.84258,-1.383759,-3.272741E-08,NaN,-0.3252211,-1.383052E-07,NaN,0.8053989,4.387877E-08,NaN,-0.3495237,2.214417E-06,-0.680894,-1.558344E-08,NaN,NaN,-0.01963995,-1.024458E-10,3.586902E-07,-1.155853E-07,8.140902E-09,-2.622604E-08
68.85984,-1.383759,-3.272741E-08,NaN,-0.3252211,-1.383052E-07,NaN,0.8053989,4.387877E-08,NaN,-0.3495237,2.214417E-06,-0.680894,-1.558344E-08,NaN,NaN,-0.01963995,-1.024458E-10,3.586902E-07,-1.155853E-07,8.140902E-09,-2.622604E-08
68.8775,-1.390892,-3.272617E-08,NaN,-0.3252275,-1.383053E-07,NaN,0.8035665,4.391453E-08,NaN,-0.3506641,2.215176E-06,-0.6794731,-1.56166E-08,NaN,NaN,-0.01964235,-1.071025E-10,3.522827E-07,-1.155848E-07,7.172327E-09,-2.622604E-08
68.89366,-1.397381,-3.272493E-08,NaN,-0.3252358,-1.383054E-07,NaN,0.8014866,4.394974E-08,NaN,-0.3518667,2.21593E-06,-0.6778369,-1.564922E-08,NaN,NaN,-0.01964493,-1.071025E-10,3.490045E-07,-1.155843E-07,6.57628E-09,-2.622604E-08
68.91042,-1.403437,-3.272369E-08,NaN,-0.3252466,-1.383055E-07,NaN,0.79941,4.398441E-08,NaN,-0.3530477,2.216684E-06,-0.6762121,-1.568131E-08,NaN,NaN,-0.01964744,-1.071025E-10,3.440871E-07,-1.155838E-07,5.831223E-09,-2.622604E-08
68.92728,-1.408468,-3.272245E-08,NaN,-0.3252574,-1.383057E-07,NaN,0.7963904,4.401821E-08,NaN,-0.3545052,2.217439E-06,-0.6737368,-1.571252E-08,NaN,NaN,-0.01965109,-1.071025E-10,3.405108E-07,-1.155833E-07,5.235176E-09,-2.622604E-08
68.94434,-1.412832,-3.272121E-08,NaN,-0.3252698,-1.383058E-07,NaN,0.7931695,4.405185E-08,NaN,-0.3560123,2.218193E-06,-0.6710879,-1.574357E-08,NaN,NaN,-0.01965486,-1.071025E-10,3.346994E-07,-1.155828E-07,5.5332E-09,-2.622604E-08
68.96117,-1.41676,-3.271997E-08,NaN,-0.3252842,-1.383059E-07,NaN,0.7899991,4.408499E-08,NaN,-0.357483,2.218952E-06,-0.6684926,-1.577412E-08,NaN,NaN,-0.01965849,-1.117591E-10,3.329112E-07,-1.155823E-07,4.043084E-09,-2.622604E-08
68.97822,-1.41676,-3.271997E-08,NaN,-0.3252842,-1.383059E-07,NaN,0.7899991,4.408499E-08,NaN,-0.357483,2.218952E-06,-0.6684926,-1.577412E-08,NaN,NaN,-0.01965849,-1.117591E-10,3.329112E-07,-1.155823E-07,4.043084E-09,-2.622604E-08
68.99406,-1.419667,-3.271873E-08,NaN,-0.325298,-1.38306E-07,NaN,0.7859488,4.411764E-08,NaN,-0.3592193,2.219711E-06,-0.6651044,-1.580417E-08,NaN,NaN,-0.01966316,-1.164157E-10,3.256096E-07,-1.155818E-07,3.447037E-09,-2.622604E-08
69.0116,-1.421921,-3.271749E-08,NaN,-0.3253126,-1.383062E-07,NaN,0.7817439,4.41498E-08,NaN,-0.3609935,2.220466E-06,-0.6615844,-1.583375E-08,NaN,NaN,-0.0196679,-1.164157E-10,3.202452E-07,-1.155813E-07,1.956921E-09,-2.622604E-08
69.02878,-1.423754,-3.271625E-08,NaN,-0.3253285,-1.383063E-07,NaN,0.7776288,4.418148E-08,NaN,-0.3627206,2.22122E-06,-0.6581526,-1.586284E-08,NaN,NaN,-0.01967247,-1.164157E-10,3.142848E-07,-1.155808E-07,1.658898E-09,-2.622604E-08
69.04562,-1.425314,-3.271501E-08,NaN,-0.3253454,-1.383064E-07,NaN,0.7736615,4.42127E-08,NaN,-0.3643779,2.221979E-06,-0.6548597,-1.589147E-08,NaN,NaN,-0.01967683,-1.210723E-10,3.083243E-07,-1.155803E-07,2.850991E-09,-2.622604E-08
69.06211,-1.425969,-3.271377E-08,NaN,-0.3253607,-1.383066E-07,NaN,0.7688736,4.424346E-08,NaN,-0.3662975,2.222738E-06,-0.6508272,-1.591964E-08,NaN,NaN,-0.01968216,-1.210723E-10,2.989366E-07,-1.155798E-07,2.552968E-09,-2.622604E-08
69.07908,-1.425969,-3.271377E-08,NaN,-0.3253607,-1.383066E-07,NaN,0.7688736,4.424346E-08,NaN,-0.3662975,2.222738E-06,-0.6508272,-1.591964E-08,NaN,NaN,-0.01968216,-1.210723E-10,2.989366E-07,-1.155798E-07,2.552968E-09,-2.622604E-08
69.09499,-1.426051,-3.271253E-08,NaN,-0.3253756,-1.383067E-07,NaN,0.7639484,4.427413E-08,NaN,-0.3682568,2.223497E-06,-0.6466765,-1.594772E-08,NaN,NaN,-0.01968755,-1.210723E-10,2.905919E-07,-1.155793E-07,4.043084E-09,-2.622604E-08
69.11268,-1.425772,-3.271129E-08,NaN,-0.3253906,-1.383068E-07,NaN,0.7591228,4.430435E-08,NaN,-0.370171,2.224261E-06,-0.6426211,-1.597535E-08,NaN,NaN,-0.01969274,-1.257289E-10,2.843335E-07,-1.155788E-07,3.149014E-09,-2.622604E-08
69.12972,-1.42454,-3.271005E-08,NaN,-0.3254034,-1.383069E-07,NaN,0.75352,4.433378E-08,NaN,-0.3723516,2.225024E-06,-0.6378674,-1.600219E-08,NaN,NaN,-0.0196988,-1.303855E-10,2.752437E-07,-1.155783E-07,3.745061E-09,-2.622604E-08
69.14668,-1.422714,-3.270881E-08,NaN,-0.3254151,-1.383071E-07,NaN,0.7478267,4.436279E-08,NaN,-0.3745638,2.225788E-06,-0.6330383,-1.602861E-08,NaN,NaN,-0.01970485,-1.350421E-10,2.677932E-07,-1.155778E-07,4.63913E-09,-2.622604E-08
69.16322,-1.42052,-3.270757E-08,NaN,-0.3254262,-1.383072E-07,NaN,0.7422769,4.439139E-08,NaN,-0.3767197,2.226552E-06,-0.628344,-1.605463E-08,NaN,NaN,-0.01971066,-1.396987E-10,2.627268E-07,-1.155773E-07,6.129246E-09,-2.622604E-08
69.18039,-1.418105,-3.270633E-08,NaN,-0.325437,-1.383073E-07,NaN,0.7369264,4.441994E-08,NaN,-0.3787953,2.227316E-06,-0.6238334,-1.608059E-08,NaN,NaN,-0.0197162,-1.443553E-10,2.560212E-07,-1.155769E-07,7.023316E-09,-2.622604E-08
69.19706,-1.418105,-3.270633E-08,NaN,-0.325437,-1.383073E-07,NaN,0.7369264,4.441994E-08,NaN,-0.3787953,2.227316E-06,-0.6238334,-1.608059E-08,NaN,NaN,-0.0197162,-1.443553E-10,2.560212E-07,-1.155769E-07,7.023316E-09,-2.622604E-08
69.21346,-1.414833,-3.270509E-08,NaN,-0.3254452,-1.383075E-07,NaN,0.7308697,4.444809E-08,NaN,-0.3811338,2.228079E-06,-0.6186902,-1.610614E-08,NaN,NaN,-0.01972251,-1.490119E-10,2.484216E-07,-1.155764E-07,6.129246E-09,-2.622604E-08
69.23084,-1.411035,-3.270385E-08,NaN,-0.3254516,-1.383076E-07,NaN,0.724745,4.447584E-08,NaN,-0.3835041,2.228843E-06,-0.613491,-1.613131E-08,NaN,NaN,-0.0197288,-1.536686E-10,2.420141E-07,-1.155759E-07,4.63913E-09,-2.622604E-08
69.24794,-1.406922,-3.270261E-08,NaN,-0.3254569,-1.383077E-07,NaN,0.7187737,4.450321E-08,NaN,-0.3858192,2.229607E-06,-0.6084341,-1.615608E-08,NaN,NaN,-0.01973484,-1.583252E-10,2.375438E-07,-1.155754E-07,4.937154E-09,-2.622604E-08
69.26511,-1.4019,-3.270137E-08,NaN,-0.3254591,-1.383078E-07,NaN,0.7121416,4.45302E-08,NaN,-0.3884017,2.230371E-06,-0.6027883,-1.618048E-08,NaN,NaN,-0.01974158,-1.629818E-10,2.317323E-07,-1.155749E-07,2.254945E-09,-2.622604E-08
69.28219,-1.396327,-3.270013E-08,NaN,-0.3254599,-1.383075E-07,NaN,0.7054877,4.451093E-08,NaN,-0.3910082,2.231125E-06,-0.5971287,-1.615862E-08,NaN,NaN,-0.01974824,-1.629818E-10,2.245798E-07,-1.155769E-07,1.062852E-09,-2.861022E-08
69.29907,-1.396327,-3.270013E-08,NaN,-0.3254599,-1.383075E-07,NaN,0.7054877,4.451093E-08,NaN,-0.3910082,2.231125E-06,-0.5971287,-1.615862E-08,NaN,NaN,-0.01974824,-1.629818E-10,2.245798E-07,-1.155769E-07,1.062852E-09,-2.861022E-08
69.31506,-1.390431,-3.269889E-08,NaN,-0.3254602,-1.383076E-07,NaN,0.6990288,4.451094E-08,NaN,-0.3935484,2.23188E-06,-0.5916492,-1.615604E-08,NaN,NaN,-0.01975461,-1.676384E-10,2.186193E-07,-1.155793E-07,-1.292408E-10,-2.622604E-08
69.33238,-1.383629,-3.269765E-08,NaN,-0.3254579,-1.38308E-07,NaN,0.6919778,4.45208E-08,NaN,-0.3963506,2.232629E-06,-0.5856455,-1.616332E-08,NaN,NaN,-0.01976156,-1.676384E-10,2.113177E-07,-1.155819E-07,-7.252873E-10,-2.861022E-08
69.34939,-1.376284,-3.269641E-08,NaN,-0.3254537,-1.383086E-07,NaN,0.684945,4.453581E-08,NaN,-0.3991679,2.233379E-06,-0.5796642,-1.617574E-08,NaN,NaN,-0.01976841,-1.676384E-10,2.035691E-07,-1.155846E-07,-2.81145E-09,-2.622604E-08
69.36647,-1.368629,-3.269517E-08,NaN,-0.325448,-1.383092E-07,NaN,0.6781365,4.455378E-08,NaN,-0.4019099,2.234128E-06,-0.5738885,-1.619113E-08,NaN,NaN,-0.01977496,-1.676384E-10,1.955225E-07,-1.155873E-07,-3.109473E-09,-2.861022E-08
69.38336,-1.360811,-3.269393E-08,NaN,-0.3254414,-1.383099E-07,NaN,0.6715977,4.457326E-08,NaN,-0.4045527,2.234878E-06,-0.5683579,-1.620803E-08,NaN,NaN,-0.01978117,-1.676384E-10,1.89711E-07,-1.155901E-07,-1.321334E-09,-2.622604E-08
69.40028,-1.352195,-3.269269E-08,NaN,-0.3254317,-1.383107E-07,NaN,0.6645217,4.459318E-08,NaN,-0.4074589,2.235628E-06,-0.5623549,-1.622538E-08,NaN,NaN,-0.0197879,-1.676384E-10,1.818134E-07,-1.155928E-07,-2.81145E-09,-2.861022E-08
69.41856,-1.352195,-3.269269E-08,NaN,-0.3254317,-1.383107E-07,NaN,0.6645217,4.459318E-08,NaN,-0.4074589,2.235628E-06,-0.5623549,-1.622538E-08,NaN,NaN,-0.0197879,-1.676384E-10,1.818134E-07,-1.155928E-07,-2.81145E-09,-2.861022E-08
69.43297,-1.343113,-3.269145E-08,NaN,-0.3254197,-1.383115E-07,NaN,0.6574699,4.461318E-08,NaN,-0.4103847,2.236377E-06,-0.5563789,-1.624281E-08,NaN,NaN,-0.01979453,-1.676384E-10,1.76449E-07,-1.155956E-07,-2.215403E-09,-2.622604E-08
69.45056,-1.333776,-3.269021E-08,NaN,-0.3254059,-1.383122E-07,NaN,0.6506363,4.463292E-08,NaN,-0.4132394,2.237123E-06,-0.5506015,-1.625998E-08,NaN,NaN,-0.01980087,-1.629818E-10,1.691475E-07,-1.155984E-07,-1.91738E-09,-2.861022E-08
69.46727,-1.323589,-3.268897E-08,NaN,-0.3253885,-1.38313E-07,NaN,0.6433036,4.465241E-08,NaN,-0.4163638,2.237868E-06,-0.5443884,-1.627689E-08,NaN,NaN,-0.01980767,-1.583252E-10,1.616969E-07,-1.156012E-07,-1.619357E-09,-2.622604E-08
69.4841,-1.31291,-3.268773E-08,NaN,-0.3253682,-1.383138E-07,NaN,0.6360292,4.467129E-08,NaN,-0.4195004,2.238617E-06,-0.5382329,-1.62932E-08,NaN,NaN,-0.01981435,-1.583252E-10,1.546933E-07,-1.156039E-07,-2.513427E-09,-2.861022E-08
69.50083,-1.301967,-3.268649E-08,NaN,-0.3253456,-1.383146E-07,NaN,0.629003,4.468957E-08,NaN,-0.4225546,2.239367E-06,-0.5323021,-1.630892E-08,NaN,NaN,-0.01982073,-1.583252E-10,1.50074E-07,-1.156067E-07,-2.513427E-09,-2.622604E-08
69.51762,-1.301967,-3.268649E-08,NaN,-0.3253456,-1.383146E-07,NaN,0.629003,4.468957E-08,NaN,-0.4225546,2.239367E-06,-0.5323021,-1.630892E-08,NaN,NaN,-0.01982073,-1.583252E-10,1.50074E-07,-1.156067E-07,-2.513427E-09,-2.622604E-08
69.53388,-1.290904,-3.268525E-08,NaN,-0.3253215,-1.383154E-07,NaN,0.6222669,4.470728E-08,NaN,-0.425501,2.240112E-06,-0.5266322,-1.632406E-08,NaN,NaN,-0.01982677,-1.536686E-10,1.439645E-07,-1.156094E-07,-2.513427E-09,-2.861022E-08
69.5517,-1.279082,-3.268401E-08,NaN,-0.3252942,-1.383162E-07,NaN,0.6150879,4.472442E-08,NaN,-0.4287147,2.240857E-06,-0.5205797,-1.633864E-08,NaN,NaN,-0.01983319,-1.490119E-10,1.360669E-07,-1.156122E-07,-2.513427E-09,-2.622604E-08
69.5683,-1.266833,-3.268277E-08,NaN,-0.325264,-1.383169E-07,NaN,0.6079738,4.474101E-08,NaN,-0.431942,2.241602E-06,-0.5145898,-1.635266E-08,NaN,NaN,-0.0198395,-1.443553E-10,1.280202E-07,-1.156149E-07,-2.215404E-09,-2.861022E-08
69.58569,-1.254367,-3.268153E-08,NaN,-0.3252317,-1.383177E-07,NaN,0.6011005,4.475705E-08,NaN,-0.4350888,2.242347E-06,-0.5088166,-1.636614E-08,NaN,NaN,-0.01984552,-1.396987E-10,1.201226E-07,-1.156176E-07,-2.364415E-09,-2.622604E-08
69.60248,-1.241817,-3.268029E-08,NaN,-0.325198,-1.383185E-07,NaN,0.5945089,4.477256E-08,NaN,-0.4381288,2.243092E-06,-0.5032949,-1.637909E-08,NaN,NaN,-0.01985124,-1.350421E-10,1.160993E-07,-1.156203E-07,-3.109473E-09,-2.861022E-08
