JMolnar6/NonAnthroHands_User_Study/HandsLoggerWithURDF/tempdata/files/Reachy_JointMotion_gesture_7_32.csv
Time,r_shoulder,r_shoulder_x,r_upper_arm,r_forearm,r_wrist,r_wrist2hand,
563.5913,-0.09804879,0.0004860191,NaN,-0.3271441,0.0004008226,NaN,0.4551154,-14.2749,NaN,-2.17001,-1.465237,-0.3690978,14.10806,NaN,NaN,-0.05812041,0.8221096,1.095927E-06,1.02779,-7.568E-09,1.411797
563.6075,-0.09767708,0.0004862146,NaN,-0.3271416,0.0004008027,NaN,0.4550965,-14.27477,NaN,-2.170178,-1.467661,-0.3689116,14.11065,NaN,NaN,-0.05737274,0.8223042,1.078083E-06,1.031345,-7.568E-09,1.411872
563.6226,-0.09684674,0.0004857408,NaN,-0.3271382,0.0004004198,NaN,0.4549966,-14.27439,NaN,-2.170461,-1.464036,-0.368775,14.10669,NaN,NaN,-0.05663978,0.8225763,1.060165E-06,1.026006,-3.991722E-09,1.408999
563.6363,-0.09684674,0.0004857408,NaN,-0.3271382,0.0004004198,NaN,0.4549966,-14.27439,NaN,-2.170461,-1.464036,-0.368775,14.10669,NaN,NaN,-0.05663978,0.8225763,1.060165E-06,1.026006,-3.991722E-09,1.408999
563.6508,-0.09573129,0.0004854699,NaN,-0.3271345,0.0004005229,NaN,0.4548807,-14.27442,NaN,-2.17075,-1.463252,-0.368668,14.10585,NaN,NaN,-0.05592125,0.8225123,1.041818E-06,1.024857,-1.607536E-09,1.408307
563.6675,-0.09444112,0.0004847129,NaN,-0.3271307,0.0004002158,NaN,0.4547761,-14.27421,NaN,-2.17101,-1.462369,-0.3685712,14.10487,NaN,NaN,-0.05521686,0.8226842,1.0228E-06,1.023551,7.766499E-10,1.407537
563.681,-0.0937747,0.0004839408,NaN,-0.3271294,0.0004000303,NaN,0.4548515,-14.27414,NaN,-2.170846,-1.462237,-0.3685071,14.10471,NaN,NaN,-0.05452669,0.8227382,9.948417E-07,1.023355,1.968743E-09,1.406031
563.6958,-0.0937747,0.0004839408,NaN,-0.3271294,0.0004000303,NaN,0.4548515,-14.27414,NaN,-2.170846,-1.462237,-0.3685071,14.10471,NaN,NaN,-0.05452669,0.8227382,9.948417E-07,1.023355,1.968743E-09,1.406031
563.71,-0.09350354,0.0004829766,NaN,-0.3271291,0.0003996834,NaN,0.4550237,-14.27395,NaN,-2.170534,-1.462214,-0.3683928,14.10466,NaN,NaN,-0.05385002,0.8229243,9.688019E-07,1.023312,3.160836E-09,1.404984
563.7257,-0.09348223,0.0004825592,NaN,-0.3271289,0.0003999755,NaN,0.4552243,-14.27444,NaN,-2.170187,-1.461908,-0.3682486,14.10439,NaN,NaN,-0.05318655,0.8224231,9.443268E-07,1.022886,1.968743E-09,1.407624
563.7408,-0.09361713,0.0004820093,NaN,-0.3271288,0.0004001328,NaN,0.4554222,-14.27438,NaN,-2.169849,-1.461323,-0.3680944,14.10375,NaN,NaN,-0.05253606,0.8224557,9.20727E-07,1.022023,-4.15443E-10,1.406016
563.7557,-0.09361713,0.0004820093,NaN,-0.3271288,0.0004001328,NaN,0.4554222,-14.27438,NaN,-2.169849,-1.461323,-0.3680944,14.10375,NaN,NaN,-0.05253606,0.8224557,9.20727E-07,1.022023,-4.15443E-10,1.406016
563.7697,-0.09457806,0.0004823497,NaN,-0.3271305,0.0003997222,NaN,0.4557702,-14.27524,NaN,-2.169144,-1.47621,-0.3679702,14.1199,NaN,NaN,-0.05189869,0.822091,8.890807E-07,1.043932,-5.183814E-09,1.417349
563.7855,-0.09605473,0.0004830066,NaN,-0.3271326,0.0004006758,NaN,0.4561849,-14.27417,NaN,-2.168345,-1.464346,-0.3678009,14.107,NaN,NaN,-0.05127376,0.8229447,8.600793E-07,1.026477,-3.991722E-09,1.407016
563.8005,-0.0978497,0.000483686,NaN,-0.3271345,0.0004015384,NaN,0.4566033,-14.2742,NaN,-2.167558,-1.464326,-0.3676081,14.10698,NaN,NaN,-0.050661,0.8229118,8.32121E-07,1.02645,-2.799629E-09,1.407129
563.8154,-0.0978497,0.000483686,NaN,-0.3271345,0.0004015384,NaN,0.4566033,-14.2742,NaN,-2.167558,-1.464326,-0.3676081,14.10698,NaN,NaN,-0.050661,0.8229118,8.32121E-07,1.02645,-2.799629E-09,1.407129
563.8318,-0.1005658,0.0004838043,NaN,-0.3271384,0.0004018841,NaN,0.457163,-14.27416,NaN,-2.166429,-1.46303,-0.3674393,14.10558,NaN,NaN,-0.05006059,0.8229118,7.979414E-07,1.024545,-6.375907E-09,1.406446
563.8454,-0.10385,0.0004842748,NaN,-0.3271425,0.000402026,NaN,0.4577755,-14.27586,NaN,-2.165234,-1.470458,-0.3672256,14.11382,NaN,NaN,-0.04947188,0.8214567,7.652706E-07,1.035542,-8.760093E-09,1.418924
563.8603,-0.1074779,0.000484338,NaN,-0.3271459,0.000402202,NaN,0.4583781,-14.27416,NaN,-2.164076,-1.463908,-0.3669909,14.10656,NaN,NaN,-0.04889462,0.8229874,7.354496E-07,1.02587,-1.352846E-08,1.406936
563.8752,-0.1074779,0.000484338,NaN,-0.3271459,0.000402202,NaN,0.4583781,-14.27416,NaN,-2.164076,-1.463908,-0.3669909,14.10656,NaN,NaN,-0.04889462,0.8229874,7.354496E-07,1.02587,-1.352846E-08,1.406936
563.8892,-0.1113068,0.0004837439,NaN,-0.3271484,0.0004019503,NaN,0.4589479,-14.2742,NaN,-2.162985,-1.462191,-0.3667546,14.10472,NaN,NaN,-0.04832863,0.8228996,7.041199E-07,1.023351,-1.591265E-08,1.407291
563.9049,-0.1159746,0.0004831965,NaN,-0.3271523,0.0004018785,NaN,0.4596455,-14.27413,NaN,-2.161574,-1.462551,-0.3665503,14.10509,NaN,NaN,-0.04777407,0.8229822,6.704061E-07,1.023876,-1.710474E-08,1.406169
563.9196,-0.1159746,0.0004831965,NaN,-0.3271523,0.0004018785,NaN,0.4596455,-14.27413,NaN,-2.161574,-1.462551,-0.3665503,14.10509,NaN,NaN,-0.04777407,0.8229822,6.704061E-07,1.023876,-1.710474E-08,1.406169
563.9339,-0.1211504,0.0004828459,NaN,-0.3271558,0.0004021715,NaN,0.4603903,-14.27429,NaN,-2.160109,-1.4618,-0.3663049,14.1043,NaN,NaN,-0.04723031,0.8227978,6.382382E-07,1.022781,-2.068102E-08,1.407162
563.9496,-0.1266243,0.0004827801,NaN,-0.327158,0.0004026955,NaN,0.4611224,-14.27454,NaN,-2.158687,-1.461272,-0.3660401,14.10376,NaN,NaN,-0.04669712,0.8225234,6.071693E-07,1.022017,-2.187312E-08,1.408638
563.9647,-0.1322628,0.0004824596,NaN,-0.3271589,0.0004027303,NaN,0.4618194,-14.27444,NaN,-2.157336,-1.464051,-0.3657744,14.10674,NaN,NaN,-0.04617434,0.8227085,5.756533E-07,1.026095,-2.187312E-08,1.407062
563.9795,-0.1322628,0.0004824596,NaN,-0.3271589,0.0004027303,NaN,0.4618194,-14.27444,NaN,-2.157336,-1.464051,-0.3657744,14.10674,NaN,NaN,-0.04617434,0.8227085,5.756533E-07,1.026095,-2.187312E-08,1.407062
563.9938,-0.1387094,0.0004826297,NaN,-0.3271609,0.000403329,NaN,0.4626429,-14.27539,NaN,-2.155672,-1.462,-0.3655379,14.10466,NaN,NaN,-0.04566212,0.821696,5.395925E-07,1.023124,-1.948893E-08,1.412238
564.0096,-0.1456375,0.0004830073,NaN,-0.327162,0.0004039472,NaN,0.4635099,-14.27612,NaN,-2.153959,-1.463012,-0.3652602,14.10584,NaN,NaN,-0.04515987,0.8209977,5.051895E-07,1.024642,-2.068102E-08,1.41724
564.0245,-0.1528393,0.0004834717,NaN,-0.3271622,0.0004036119,NaN,0.4643601,-14.2752,NaN,-2.152297,-1.476097,-0.3649644,14.11975,NaN,NaN,-0.04466737,0.8223221,4.746793E-07,1.043792,-1.829684E-08,1.415249
564.0404,-0.1601833,0.0004837756,NaN,-0.3271619,0.0004039202,NaN,0.4651715,-14.27491,NaN,-2.150713,-1.466158,-0.364669,14.10901,NaN,NaN,-0.04418447,0.8224235,4.45175E-07,1.029179,-1.948893E-08,1.410534
564.0544,-0.1601833,0.0004837756,NaN,-0.3271619,0.0004039202,NaN,0.4651715,-14.27491,NaN,-2.150713,-1.466158,-0.364669,14.10901,NaN,NaN,-0.04418447,0.8224235,4.45175E-07,1.029179,-1.948893E-08,1.410534
564.0685,-0.1683143,0.000484048,NaN,-0.3271624,0.0004032827,NaN,0.4661067,-14.27367,NaN,-2.148824,-1.476751,-0.3643999,14.12024,NaN,NaN,-0.04371135,0.8239532,4.119082E-07,1.044689,-1.948893E-08,1.40528
564.084,-0.1769062,0.0004840373,NaN,-0.3271623,0.0004030399,NaN,0.4670806,-14.27337,NaN,-2.146894,-1.466797,-0.3640904,14.10945,NaN,NaN,-0.04324741,0.8240658,3.774865E-07,1.030028,-2.068103E-08,1.39869
564.0988,-0.1769062,0.0004840373,NaN,-0.3271623,0.0004030399,NaN,0.4670806,-14.27337,NaN,-2.146894,-1.466797,-0.3640904,14.10945,NaN,NaN,-0.04324741,0.8240658,3.774865E-07,1.030028,-2.068103E-08,1.39869
564.1132,-0.185752,0.0004836944,NaN,-0.3271614,0.0004027933,NaN,0.4680332,-14.27386,NaN,-2.145021,-1.464299,-0.3637643,14.1068,NaN,NaN,-0.04279248,0.8234977,3.462313E-07,1.026366,-2.54494E-08,1.398539
564.1299,-0.1954489,0.0004831825,NaN,-0.3271611,0.0004027036,NaN,0.469109,-14.27392,NaN,-2.14285,-1.461892,-0.3634558,14.1042,NaN,NaN,-0.04234674,0.8233576,3.095372E-07,1.022822,-2.664149E-08,1.398379
564.1435,-0.2056405,0.0004822321,NaN,-0.3271599,0.0004021711,NaN,0.4702148,-14.27446,NaN,-2.140653,-1.463157,-0.3631063,14.10564,NaN,NaN,-0.04190964,0.8228567,2.734764E-07,1.024704,-2.783359E-08,1.402078
564.1586,-0.2056405,0.0004822321,NaN,-0.3271599,0.0004021711,NaN,0.4702148,-14.27446,NaN,-2.140653,-1.463157,-0.3631063,14.10564,NaN,NaN,-0.04190964,0.8228567,2.734764E-07,1.024704,-2.783359E-08,1.402078
564.1728,-0.2161005,0.0004819467,NaN,-0.3271576,0.0004025295,NaN,0.4712899,-14.27425,NaN,-2.13853,-1.461724,-0.3627425,14.10405,NaN,NaN,-0.04148101,0.8230067,2.415879E-07,1.022584,-3.498614E-08,1.400284
564.1883,-0.2266856,0.0004813416,NaN,-0.3271544,0.000402525,NaN,0.4723139,-14.27389,NaN,-2.136509,-1.46127,-0.3623823,14.1035,NaN,NaN,-0.04106073,0.8233455,2.119346E-07,1.021896,-3.975451E-08,1.397545
564.2034,-0.2380332,0.0004814313,NaN,-0.327152,0.0004018583,NaN,0.4734524,-14.27501,NaN,-2.134205,-1.476587,-0.3620453,14.12017,NaN,NaN,-0.04064895,0.8227476,1.749053E-07,1.044468,-4.21387E-08,1.411154
564.2185,-0.2380332,0.0004814313,NaN,-0.327152,0.0004018583,NaN,0.4734524,-14.27501,NaN,-2.134205,-1.476587,-0.3620453,14.12017,NaN,NaN,-0.04064895,0.8227476,1.749053E-07,1.044468,-4.21387E-08,1.411154
564.2325,-0.2498131,0.0004817155,NaN,-0.3271486,0.0004022921,NaN,0.4746178,-14.27383,NaN,-2.131878,-1.465244,-0.3616704,14.10781,NaN,NaN,-0.04024515,0.8237095,1.404091E-07,1.02776,-4.094661E-08,1.398225
564.2493,-0.2618153,0.0004819423,NaN,-0.3271433,0.0004026271,NaN,0.4757518,-14.27486,NaN,-2.129627,-1.465294,-0.3612824,14.10799,NaN,NaN,-0.03984918,0.8226861,1.112028E-07,1.027875,-3.975452E-08,1.404283
564.2631,-0.2739072,0.0004822633,NaN,-0.3271361,0.0004032406,NaN,0.4768344,-14.27407,NaN,-2.127478,-1.463104,-0.3608988,14.10552,NaN,NaN,-0.0394609,0.8233984,8.378466E-08,1.02462,-3.856243E-08,1.398913
564.2782,-0.2739072,0.0004822633,NaN,-0.3271361,0.0004032406,NaN,0.4768344,-14.27407,NaN,-2.127478,-1.463104,-0.3608988,14.10552,NaN,NaN,-0.0394609,0.8233984,8.378466E-08,1.02462,-3.856243E-08,1.398913
564.2922,-0.2867331,0.0004828555,NaN,-0.3271298,0.000402998,NaN,0.4780315,-14.2753,NaN,-2.125049,-1.476636,-0.3605348,14.12028,NaN,NaN,-0.03908049,0.8226045,5.055507E-08,1.044573,-3.856243E-08,1.411521
564.3079,-0.2999668,0.0004829696,NaN,-0.327122,0.0004031917,NaN,0.4792529,-14.27441,NaN,-2.1226,-1.463274,-0.3601337,14.10578,NaN,NaN,-0.03870743,0.8232532,1.978417E-08,1.024911,-3.856243E-08,1.402464
564.3226,-0.3134017,0.0004829674,NaN,-0.3271119,0.0004034349,NaN,0.4804399,-14.2743,NaN,-2.120231,-1.462945,-0.3597212,14.1054,NaN,NaN,-0.0383416,0.8233589,-9.72013E-09,1.024423,-3.975452E-08,1.400156
564.3373,-0.3134017,0.0004829674,NaN,-0.3271119,0.0004034349,NaN,0.4804399,-14.2743,NaN,-2.120231,-1.462945,-0.3597212,14.1054,NaN,NaN,-0.0383416,0.8233589,-9.72013E-09,1.024423,-3.975452E-08,1.400156
564.3519,-0.327635,0.0004832288,NaN,-0.3271023,0.0004033158,NaN,0.481741,-14.27605,NaN,-2.117586,-1.47099,-0.3593202,14.11432,NaN,NaN,-0.03798315,0.8218683,-4.533391E-08,1.036333,-4.094661E-08,1.413388
564.3675,-0.3423109,0.0004834344,NaN,-0.3270904,0.0004037047,NaN,0.4830579,-14.27455,NaN,-2.114935,-1.463778,-0.3588823,14.10637,NaN,NaN,-0.03763163,0.8232014,-7.841449E-08,1.025692,-3.617824E-08,1.402143
564.3822,-0.3572035,0.000483576,NaN,-0.3270757,0.0004040551,NaN,0.4843319,-14.27538,NaN,-2.112379,-1.463774,-0.3584358,14.10648,NaN,NaN,-0.03728689,0.8223745,-1.077698E-07,1.025725,-3.498615E-08,1.40573
564.3972,-0.3572035,0.000483576,NaN,-0.3270757,0.0004040551,NaN,0.4843319,-14.27538,NaN,-2.112379,-1.463774,-0.3584358,14.10648,NaN,NaN,-0.03728689,0.8223745,-1.077698E-07,1.025725,-3.498615E-08,1.40573
564.4116,-0.37217,0.0004842594,NaN,-0.3270586,0.0004037338,NaN,0.4855447,-14.27576,NaN,-2.109943,-1.477687,-0.3579978,14.1215,NaN,NaN,-0.03694885,0.8224252,-1.36529E-07,1.046177,-3.260196E-08,1.414311
564.4274,-0.3878485,0.000484706,NaN,-0.3270421,0.0004042399,NaN,0.4868646,-14.27512,NaN,-2.107244,-1.465223,-0.3575754,14.10801,NaN,NaN,-0.03661765,0.8228638,-1.691625E-07,1.027846,-3.021777E-08,1.406534
564.4421,-0.4039091,0.0004849517,NaN,-0.3270236,0.000404365,NaN,0.4881984,-14.27614,NaN,-2.104543,-1.468615,-0.3571196,14.11179,NaN,NaN,-0.03629284,0.8219587,-1.980708E-07,1.032872,-3.856242E-08,1.410698
564.4583,-0.4039091,0.0004849517,NaN,-0.3270236,0.000404365,NaN,0.4881984,-14.27614,NaN,-2.104543,-1.468615,-0.3571196,14.11179,NaN,NaN,-0.03629284,0.8219587,-1.980708E-07,1.032872,-3.856242E-08,1.410698
564.4725,-0.4201427,0.0004846696,NaN,-0.3270025,0.000404235,NaN,0.4894892,-14.27474,NaN,-2.101935,-1.464325,-0.3566572,14.10699,NaN,NaN,-0.03597431,0.8232511,-2.26383E-07,1.026519,-3.379405E-08,1.405622
564.4869,-0.4364169,0.0004849741,NaN,-0.3269793,0.0004045399,NaN,0.4907194,-14.27594,NaN,-2.099447,-1.466808,-0.3562043,14.10983,NaN,NaN,-0.03566195,0.8221468,-2.502248E-07,1.030221,-3.379405E-08,1.413739
564.5016,-0.4533767,0.000485725,NaN,-0.3269569,0.0004051179,NaN,0.4920577,-14.27605,NaN,-2.096697,-1.467863,-0.3557633,14.11097,NaN,NaN,-0.03535592,0.8220684,-2.809212E-07,1.031773,-3.617824E-08,1.415837
564.5165,-0.4533767,0.000485725,NaN,-0.3269569,0.0004051179,NaN,0.4920577,-14.27605,NaN,-2.096697,-1.467863,-0.3557633,14.11097,NaN,NaN,-0.03535592,0.8220684,-2.809212E-07,1.031773,-3.617824E-08,1.415837
564.5307,-0.4706967,0.0004862644,NaN,-0.3269326,0.0004058297,NaN,0.4934076,-14.2749,NaN,-2.093947,-1.46378,-0.3552902,14.10642,NaN,NaN,-0.03505578,0.8231094,-3.077433E-07,1.025731,-3.260196E-08,1.406595
564.5462,-0.4881706,0.0004860274,NaN,-0.3269058,0.0004048304,NaN,0.4947128,-14.27498,NaN,-2.091292,-1.46279,-0.3548125,14.10536,NaN,NaN,-0.03476143,0.8229961,-3.327773E-07,1.024281,-2.902568E-08,1.406433
564.5613,-0.5056679,0.0004858362,NaN,-0.326877,0.0004037984,NaN,0.495956,-14.27641,NaN,-2.088761,-1.471357,-0.3543456,14.11479,NaN,NaN,-0.0344728,0.8218559,-3.570661E-07,1.036939,-2.306522E-08,1.415588
564.5764,-0.5056679,0.0004858362,NaN,-0.326877,0.0004037984,NaN,0.495956,-14.27641,NaN,-2.088761,-1.471357,-0.3543456,14.11479,NaN,NaN,-0.0344728,0.8218559,-3.570661E-07,1.036939,-2.306522E-08,1.415588
564.5906,-0.5238349,0.0004857922,NaN,-0.3268491,0.0004036757,NaN,0.4973064,-14.27543,NaN,-2.085972,-1.46374,-0.3538877,14.10647,NaN,NaN,-0.03419,0.8226504,-3.835902E-07,1.02572,-1.710475E-08,1.407858
564.608,-0.542347,0.0004858082,NaN,-0.3268192,0.0004037181,NaN,0.4986652,-14.27596,NaN,-2.083186,-1.464706,-0.3533997,14.10757,NaN,NaN,-0.03391264,0.8221562,-4.095182E-07,1.027159,-1.829685E-08,1.411079
564.6213,-0.5609983,0.0004858802,NaN,-0.3267869,0.000404061,NaN,0.4999768,-14.27554,NaN,-2.080499,-1.462745,-0.3529093,14.1054,NaN,NaN,-0.03364063,0.8225099,-4.294858E-07,1.024257,-1.352848E-08,1.408378
564.6362,-0.5609983,0.0004858802,NaN,-0.3267869,0.000404061,NaN,0.4999768,-14.27554,NaN,-2.080499,-1.462745,-0.3529093,14.1054,NaN,NaN,-0.03364063,0.8225099,-4.294858E-07,1.024257,-1.352848E-08,1.408378
564.6504,-0.5803874,0.000486166,NaN,-0.3267549,0.0004045334,NaN,0.501394,-14.27654,NaN,-2.077559,-1.464099,-0.3524216,14.10699,NaN,NaN,-0.03337411,0.8215559,-4.542217E-07,1.026289,-1.710475E-08,1.416331
564.6671,-0.600159,0.0004856387,NaN,-0.3267201,0.0004043049,NaN,0.5028117,-14.27527,NaN,-2.074635,-1.462431,-0.3519055,14.10501,NaN,NaN,-0.0331127,0.8227566,-4.786596E-07,1.023783,-1.591266E-08,1.408614
564.6812,-0.6200883,0.0004853947,NaN,-0.3266822,0.0004039728,NaN,0.5041742,-14.27647,NaN,-2.071824,-1.468953,-0.3513904,14.1122,NaN,NaN,-0.03285633,0.8217697,-4.995213E-07,1.033421,-1.948894E-08,1.41474
564.6958,-0.6200883,0.0004853947,NaN,-0.3266822,0.0004039728,NaN,0.5041742,-14.27647,NaN,-2.071824,-1.468953,-0.3513904,14.1122,NaN,NaN,-0.03285633,0.8217697,-4.995213E-07,1.033421,-1.948894E-08,1.41474
564.7098,-0.6400331,0.0004850777,NaN,-0.3266418,0.0004033042,NaN,0.5054668,-14.27584,NaN,-2.069152,-1.471239,-0.3508908,14.11457,NaN,NaN,-0.03260493,0.8224553,-5.197869E-07,1.036754,-2.425731E-08,1.413353
564.7257,-0.6606322,0.0004852894,NaN,-0.3266022,0.000403515,NaN,0.5068601,-14.27514,NaN,-2.066239,-1.466862,-0.3503964,14.10977,NaN,NaN,-0.0323586,0.8230492,-5.421386E-07,1.030298,-2.306522E-08,1.407838
564.7404,-0.6815565,0.0004852946,NaN,-0.3265603,0.000403823,NaN,0.508253,-14.27516,NaN,-2.063343,-1.462978,-0.349877,14.10558,NaN,NaN,-0.032117,0.8229213,-5.627022E-07,1.024588,-2.783359E-08,1.405929
564.7556,-0.6815565,0.0004852946,NaN,-0.3265603,0.000403823,NaN,0.508253,-14.27516,NaN,-2.063343,-1.462978,-0.349877,14.10558,NaN,NaN,-0.032117,0.8229213,-5.627022E-07,1.024588,-2.783359E-08,1.405929
564.7693,-0.7025976,0.0004855193,NaN,-0.3265158,0.0004032509,NaN,0.5095922,-14.27484,NaN,-2.060557,-1.475566,-0.3493604,14.11909,NaN,NaN,-0.03188005,0.8236273,-5.817757E-07,1.043074,-2.902568E-08,1.407296
564.7852,-0.7236237,0.0004855722,NaN,-0.3264691,0.0004032489,NaN,0.5108632,-14.27502,NaN,-2.057909,-1.465587,-0.3488601,14.10834,NaN,NaN,-0.0316477,0.8232561,-5.98763E-07,1.028397,-2.66415E-08,1.406977
564.8002,-0.7447734,0.0004856634,NaN,-0.3264219,0.0004035716,NaN,0.5121186,-14.27572,NaN,-2.055283,-1.463669,-0.3483739,14.10635,NaN,NaN,-0.03141991,0.8224925,-6.166444E-07,1.025603,-1.948894E-08,1.409339
564.8149,-0.7447734,0.0004856634,NaN,-0.3264219,0.0004035716,NaN,0.5121186,-14.27572,NaN,-2.055283,-1.463669,-0.3483739,14.10635,NaN,NaN,-0.03141991,0.8224925,-6.166444E-07,1.025603,-1.948894E-08,1.409339
564.8294,-0.7659121,0.00048533,NaN,-0.3263738,0.0004032386,NaN,0.5133306,-14.27564,NaN,-2.052751,-1.467403,-0.3478943,14.11036,NaN,NaN,-0.03119653,0.8226734,-6.318436E-07,1.031083,-1.472057E-08,1.411336
564.8452,-0.7869554,0.0004849567,NaN,-0.3263253,0.0004031216,NaN,0.5144877,-14.2756,NaN,-2.050333,-1.464472,-0.3474285,14.10719,NaN,NaN,-0.03097749,0.8226286,-6.428705E-07,1.026774,-1.710475E-08,1.410245
564.86,-0.7869554,0.0004849567,NaN,-0.3263253,0.0004031216,NaN,0.5144877,-14.2756,NaN,-2.050333,-1.464472,-0.3474285,14.10719,NaN,NaN,-0.03097749,0.8226286,-6.428705E-07,1.026774,-1.710475E-08,1.410245
564.8752,-0.8078506,0.0004847341,NaN,-0.3262768,0.0004033736,NaN,0.5155889,-14.27594,NaN,-2.048033,-1.462766,-0.3469794,14.10539,NaN,NaN,-0.03076269,0.822232,-6.556855E-07,1.02428,-1.710475E-08,1.410717
564.8899,-0.8285652,0.0004845971,NaN,-0.3262288,0.0004037769,NaN,0.5166376,-14.27607,NaN,-2.045845,-1.461928,-0.3465471,14.1045,NaN,NaN,-0.03055209,0.8220642,-6.682025E-07,1.023052,-1.710475E-08,1.411817
564.9047,-0.8490795,0.0004849012,NaN,-0.3261819,0.0004032791,NaN,0.5176374,-14.27661,NaN,-2.043761,-1.476887,-0.3461308,14.12066,NaN,NaN,-0.03034558,0.8220107,-6.795273E-07,1.045041,-1.948894E-08,1.420851
564.9193,-0.8490795,0.0004849012,NaN,-0.3261819,0.0004032791,NaN,0.5176374,-14.27661,NaN,-2.043761,-1.476887,-0.3461308,14.12066,NaN,NaN,-0.03034558,0.8220107,-6.795273E-07,1.045041,-1.948894E-08,1.420851
564.9337,-0.8693822,0.0004851115,NaN,-0.3261363,0.0004032909,NaN,0.518592,-14.27553,NaN,-2.041775,-1.466923,-0.3457296,14.10981,NaN,NaN,-0.03014309,0.8229114,-6.8817E-07,1.030377,-1.710475E-08,1.410686
564.9492,-0.8894668,0.0004853274,NaN,-0.3260922,0.0004038575,NaN,0.5195041,-14.27621,NaN,-2.039882,-1.462144,-0.3453425,14.10475,NaN,NaN,-0.02994454,0.8221109,-6.965147E-07,1.023379,-1.472057E-08,1.413069
564.964,-0.9093302,0.000485151,NaN,-0.3260497,0.0004040975,NaN,0.5203761,-14.27601,NaN,-2.038078,-1.461876,-0.3449689,14.10442,NaN,NaN,-0.02974986,0.822309,-7.036672E-07,1.022975,-1.472057E-08,1.408447
564.9788,-0.9093302,0.000485151,NaN,-0.3260497,0.0004040975,NaN,0.5203761,-14.27601,NaN,-2.038078,-1.461876,-0.3449689,14.10442,NaN,NaN,-0.02974986,0.822309,-7.036672E-07,1.022975,-1.472057E-08,1.408447
564.9931,-0.9289716,0.0004851827,NaN,-0.326009,0.0004045489,NaN,0.52121,-14.2761,NaN,-2.036358,-1.462132,-0.3446084,14.1047,NaN,NaN,-0.02955897,0.8222365,-7.129059E-07,1.023353,-1.472057E-08,1.409085
565.0088,-0.9483913,0.0004850062,NaN,-0.3259701,0.0004048803,NaN,0.5220071,-14.27626,NaN,-2.03472,-1.461473,-0.3442604,14.10401,NaN,NaN,-0.02937181,0.822049,-7.200585E-07,1.022392,-1.472057E-08,1.409728
565.0237,-0.9675903,0.0004846574,NaN,-0.325933,0.0004049469,NaN,0.522769,-14.27643,NaN,-2.033161,-1.46319,-0.3439247,14.10588,NaN,NaN,-0.02918829,0.8219418,-7.26615E-07,1.024918,-1.948894E-08,1.410267
565.0385,-0.9675903,0.0004846574,NaN,-0.325933,0.0004049469,NaN,0.522769,-14.27643,NaN,-2.033161,-1.46319,-0.3439247,14.10588,NaN,NaN,-0.02918829,0.8219418,-7.26615E-07,1.024918,-1.948894E-08,1.410267
565.0529,-0.9865702,0.0004841047,NaN,-0.3258977,0.0004049369,NaN,0.5234967,-14.27617,NaN,-2.031679,-1.461765,-0.3436009,14.1043,NaN,NaN,-0.02900835,0.822154,-7.307873E-07,1.022814,-2.425731E-08,1.408486
565.0684,-1.005333,0.000483592,NaN,-0.3258641,0.0004050685,NaN,0.5241916,-14.2764,NaN,-2.030272,-1.461287,-0.3432887,14.10382,NaN,NaN,-0.02883192,0.8219068,-7.355557E-07,1.022121,-2.902568E-08,1.410036
565.0855,-1.023881,0.0004838385,NaN,-0.3258322,0.0004045093,NaN,0.5248544,-14.27662,NaN,-2.028937,-1.47635,-0.342988,14.12004,NaN,NaN,-0.02865893,0.8221867,-7.367478E-07,1.044245,-2.902568E-08,1.417794
565.0981,-1.023881,0.0004838385,NaN,-0.3258322,0.0004045093,NaN,0.5248544,-14.27662,NaN,-2.028937,-1.47635,-0.342988,14.12004,NaN,NaN,-0.02865893,0.8221867,-7.367478E-07,1.044245,-2.902568E-08,1.417794
565.1124,-1.042216,0.0004839795,NaN,-0.325802,0.0004046218,NaN,0.5254863,-14.27671,NaN,-2.027674,-1.464708,-0.3426985,14.10751,NaN,NaN,-0.02848931,0.8218854,-7.385359E-07,1.027141,-3.140987E-08,1.413234
565.1277,-1.060341,0.0004842532,NaN,-0.3257735,0.0004048461,NaN,0.5260881,-14.27774,NaN,-2.026479,-1.466719,-0.34242,14.10981,NaN,NaN,-0.028323,0.8209134,-7.421122E-07,1.030133,-3.379406E-08,1.418528
565.1428,-1.078258,0.0004839076,NaN,-0.3257465,0.0004048092,NaN,0.5266606,-14.27642,NaN,-2.025352,-1.461643,-0.3421523,14.10417,NaN,NaN,-0.02815994,0.8220863,-7.433043E-07,1.022632,-3.617824E-08,1.411865
565.1575,-1.078258,0.0004839076,NaN,-0.3257465,0.0004048092,NaN,0.5266606,-14.27642,NaN,-2.025352,-1.461643,-0.3421523,14.10417,NaN,NaN,-0.02815994,0.8220863,-7.433043E-07,1.022632,-3.617824E-08,1.411865
565.1716,-1.095969,0.0004834833,NaN,-0.3257211,0.0004043167,NaN,0.5272048,-14.27665,NaN,-2.024291,-1.468217,-0.3418951,14.11127,NaN,NaN,-0.02800005,0.8220715,-7.427083E-07,1.032296,-3.379406E-08,1.413439
565.187,-1.113476,0.0004827231,NaN,-0.3256972,0.0004039074,NaN,0.5277214,-14.27651,NaN,-2.023294,-1.462212,-0.3416483,14.10479,NaN,NaN,-0.02784329,0.8220498,-7.439004E-07,1.023473,-2.902568E-08,1.412159
565.2018,-1.130783,0.0004822831,NaN,-0.3256747,0.0004037554,NaN,0.5282112,-14.27635,NaN,-2.02236,-1.464468,-0.3414115,14.10719,NaN,NaN,-0.02768959,0.8222832,-7.444964E-07,1.026779,-3.140987E-08,1.411309
565.2167,-1.130783,0.0004822831,NaN,-0.3256747,0.0004037554,NaN,0.5282112,-14.27635,NaN,-2.02236,-1.464468,-0.3414115,14.10719,NaN,NaN,-0.02768959,0.8222832,-7.444964E-07,1.026779,-3.140987E-08,1.411309
565.2307,-1.14789,0.000481601,NaN,-0.3256536,0.0004035099,NaN,0.528675,-14.27636,NaN,-2.021487,-1.46255,-0.3411847,14.10513,NaN,NaN,-0.02753888,0.8222151,-7.439004E-07,1.023965,-3.140987E-08,1.40995
565.2465,-1.164801,0.0004813469,NaN,-0.325634,0.0004038475,NaN,0.5291135,-14.27677,NaN,-2.020674,-1.461873,-0.3409676,14.10445,NaN,NaN,-0.02739112,0.8217822,-7.415162E-07,1.02299,-3.379406E-08,1.412655
565.2613,-1.181518,0.0004814816,NaN,-0.3256156,0.0004044494,NaN,0.5295274,-14.27724,NaN,-2.01992,-1.461238,-0.3407601,14.10383,NaN,NaN,-0.02724624,0.8212937,-7.403241E-07,1.022079,-3.140987E-08,1.41598
565.2764,-1.181518,0.0004814816,NaN,-0.3256156,0.0004044494,NaN,0.5295274,-14.27724,NaN,-2.01992,-1.461238,-0.3407601,14.10383,NaN,NaN,-0.02724624,0.8212937,-7.403241E-07,1.022079,-3.140987E-08,1.41598
565.2905,-1.198042,0.0004811395,NaN,-0.3255985,0.0004044952,NaN,0.5299174,-14.27693,NaN,-2.019222,-1.462228,-0.3405618,14.10485,NaN,NaN,-0.0271042,0.8216295,-7.39132E-07,1.023516,-2.66415E-08,1.41301
565.3082,-1.214377,0.0004811271,NaN,-0.3255827,0.000404858,NaN,0.5302842,-14.27692,NaN,-2.01858,-1.463404,-0.3403727,14.10611,NaN,NaN,-0.02696492,0.8216681,-7.385359E-07,1.025242,-2.66415E-08,1.414337
565.322,-1.230524,0.0004818368,NaN,-0.3255681,0.0004046875,NaN,0.5306284,-14.2782,NaN,-2.017992,-1.476194,-0.3401925,14.12003,NaN,NaN,-0.02682837,0.8207682,-7.373438E-07,1.044075,-3.379406E-08,1.426317
565.3356,-1.230524,0.0004818368,NaN,-0.3255681,0.0004046875,NaN,0.5306284,-14.2782,NaN,-2.017992,-1.476194,-0.3401925,14.12003,NaN,NaN,-0.02682837,0.8207682,-7.373438E-07,1.044075,-3.379406E-08,1.426317
565.3497,-1.246485,0.0004821184,NaN,-0.3255547,0.0004051528,NaN,0.5309507,-14.27677,NaN,-2.017457,-1.462664,-0.340021,14.10534,NaN,NaN,-0.02669448,0.8219418,-7.343635E-07,1.024192,-3.617825E-08,1.413106
565.3652,-1.262263,0.0004828202,NaN,-0.3255424,0.0004047888,NaN,0.5312517,-14.2771,NaN,-2.016973,-1.478256,-0.3398581,14.12214,NaN,NaN,-0.02656321,0.8221084,-7.319794E-07,1.047092,-3.856243E-08,1.421212
565.3801,-1.277859,0.0004836689,NaN,-0.3255312,0.0004043328,NaN,0.5315319,-14.27681,NaN,-2.01654,-1.479608,-0.3397035,14.12355,NaN,NaN,-0.0264345,0.8224148,-7.301912E-07,1.049067,-3.617825E-08,1.420414
565.395,-1.277859,0.0004836689,NaN,-0.3255312,0.0004043328,NaN,0.5315319,-14.27681,NaN,-2.01654,-1.479608,-0.3397035,14.12355,NaN,NaN,-0.0264345,0.8224148,-7.301912E-07,1.049067,-3.617825E-08,1.420414
565.4091,-1.293056,0.0004839429,NaN,-0.3255203,0.0004039317,NaN,0.5317411,-14.27633,NaN,-2.016269,-1.471474,-0.3395666,14.11472,NaN,NaN,-0.02630828,0.822772,-7.242307E-07,1.037091,-4.094662E-08,1.412022
565.4249,-1.307937,0.0004842675,NaN,-0.3255107,0.0004040054,NaN,0.5319149,-14.27644,NaN,-2.016079,-1.468406,-0.3394483,14.11141,NaN,NaN,-0.02618454,0.8225945,-7.194624E-07,1.032574,-4.33308E-08,1.417763
565.4395,-1.307937,0.0004842675,NaN,-0.3255107,0.0004040054,NaN,0.5319149,-14.27644,NaN,-2.016079,-1.468406,-0.3394483,14.11141,NaN,NaN,-0.02618454,0.8225945,-7.194624E-07,1.032574,-4.33308E-08,1.417763
565.4538,-1.322557,0.0004844416,NaN,-0.3255027,0.0004042218,NaN,0.5320703,-14.27638,NaN,-2.015937,-1.465587,-0.3393403,14.10835,NaN,NaN,-0.02606323,0.82258,-7.14694E-07,1.02842,-4.094662E-08,1.415611
565.4692,-1.336225,0.0004849776,NaN,-0.3254939,0.0004050919,NaN,0.5320448,-14.27707,NaN,-2.016207,-1.462642,-0.3392705,14.10525,NaN,NaN,-0.02594419,0.8218054,-7.093296E-07,1.024114,-4.094662E-08,1.42002
565.4841,-1.349236,0.0004847026,NaN,-0.3254873,0.0004041851,NaN,0.5319555,-14.27672,NaN,-2.016618,-1.462613,-0.3392411,14.10516,NaN,NaN,-0.02582753,0.8221588,-7.003889E-07,1.02405,-3.617825E-08,1.411434
565.499,-1.349236,0.0004847026,NaN,-0.3254873,0.0004041851,NaN,0.5319555,-14.27672,NaN,-2.016618,-1.462613,-0.3392411,14.10516,NaN,NaN,-0.02582753,0.8221588,-7.003889E-07,1.02405,-3.617825E-08,1.411434
565.5131,-1.36178,0.0004844791,NaN,-0.3254836,0.0004040189,NaN,0.5318557,-14.27676,NaN,-2.017067,-1.461957,-0.3392249,14.10445,NaN,NaN,-0.02571317,0.8220975,-6.950245E-07,1.023084,-3.856243E-08,1.415053
565.5298,-1.373977,0.0004847557,NaN,-0.3254821,0.0004037163,NaN,0.531761,-14.27827,NaN,-2.017519,-1.471384,-0.3392107,14.1148,NaN,NaN,-0.02560105,0.8209022,-6.896601E-07,1.036993,-3.379406E-08,1.424706
565.5447,-1.385178,0.0004849377,NaN,-0.3254805,0.0004041134,NaN,0.5315045,-14.27672,NaN,-2.018341,-1.462567,-0.3392275,14.10513,NaN,NaN,-0.02549103,0.8222404,-6.807194E-07,1.024007,-2.902569E-08,1.413428
565.5598,-1.385178,0.0004849377,NaN,-0.3254805,0.0004041134,NaN,0.5315045,-14.27672,NaN,-2.018341,-1.462567,-0.3392275,14.10513,NaN,NaN,-0.02549103,0.8222404,-6.807194E-07,1.024007,-2.902569E-08,1.413428
565.5725,-1.395705,0.0004849391,NaN,-0.3254802,0.0004041651,NaN,0.5311998,-14.27649,NaN,-2.019271,-1.465744,-0.3392785,14.10851,NaN,NaN,-0.02538321,0.822576,-6.711826E-07,1.02866,-2.425732E-08,1.409396
565.588,-1.405764,0.0004846111,NaN,-0.3254813,0.0004041947,NaN,0.530897,-14.27605,NaN,-2.020211,-1.462298,-0.3393376,14.10473,NaN,NaN,-0.02527752,0.8229217,-6.63434E-07,1.023575,-2.425732E-08,1.407443
565.6028,-1.415486,0.0004842925,NaN,-0.3254833,0.0004042492,NaN,0.5306093,-14.27684,NaN,-2.021129,-1.463448,-0.3393947,14.10608,NaN,NaN,-0.0251739,0.8221703,-6.550894E-07,1.025302,-2.425732E-08,1.410878
565.6175,-1.415486,0.0004842925,NaN,-0.3254833,0.0004042492,NaN,0.5306093,-14.27684,NaN,-2.021129,-1.463448,-0.3393947,14.10608,NaN,NaN,-0.0251739,0.8221703,-6.550894E-07,1.025302,-2.425732E-08,1.410878
565.632,-1.424229,0.0004839405,NaN,-0.3254847,0.0004044173,NaN,0.530168,-14.27618,NaN,-2.022398,-1.462057,-0.3394792,14.10448,NaN,NaN,-0.02507221,0.8227873,-6.443605E-07,1.023226,-2.425732E-08,1.408001
565.6472,-1.432318,0.0004829978,NaN,-0.3254871,0.0004040352,NaN,0.5296854,-14.27636,NaN,-2.023758,-1.461755,-0.3395955,14.10418,NaN,NaN,-0.02497255,0.8225951,-6.354198E-07,1.022791,-2.425732E-08,1.409086
565.6623,-1.439962,0.00048228,NaN,-0.3254907,0.0004039416,NaN,0.529211,-14.27672,NaN,-2.025113,-1.462359,-0.339718,14.10488,NaN,NaN,-0.02487487,0.8222556,-6.234989E-07,1.023694,-2.425732E-08,1.409665
565.6769,-1.439962,0.00048228,NaN,-0.3254907,0.0004039416,NaN,0.529211,-14.27672,NaN,-2.025113,-1.462359,-0.339718,14.10488,NaN,NaN,-0.02487487,0.8222556,-6.234989E-07,1.023694,-2.425732E-08,1.409665
565.6913,-1.446567,0.0004820481,NaN,-0.3254939,0.00040304,NaN,0.5285892,-14.27692,NaN,-2.026807,-1.476868,-0.3398665,14.12051,NaN,NaN,-0.024779,0.8225241,-6.097899E-07,1.045012,-1.948895E-08,1.415024
565.7069,-1.45249,0.0004820836,NaN,-0.325499,0.0004022217,NaN,0.5279351,-14.27804,NaN,-2.028573,-1.475157,-0.3400449,14.11878,NaN,NaN,-0.02468506,0.8213679,-5.960808E-07,1.04252,-1.948895E-08,1.421618
565.7219,-1.457959,0.0004824306,NaN,-0.3255064,0.0004023415,NaN,0.5272985,-14.2766,NaN,-2.030314,-1.468089,-0.3402267,14.11101,NaN,NaN,-0.02459298,0.8226512,-5.841599E-07,1.032101,-1.948895E-08,1.412247
565.7364,-1.457959,0.0004824306,NaN,-0.3255064,0.0004023415,NaN,0.5272985,-14.2766,NaN,-2.030314,-1.468089,-0.3402267,14.11101,NaN,NaN,-0.02459298,0.8226512,-5.841599E-07,1.032101,-1.948895E-08,1.412247
565.7505,-1.46312,0.0004826568,NaN,-0.3255162,0.0004027905,NaN,0.5266911,-14.27671,NaN,-2.032,-1.463337,-0.3404019,14.1059,NaN,NaN,-0.0245027,0.8224162,-5.716429E-07,1.025119,-1.710477E-08,1.411151
565.7673,-1.467337,0.0004826876,NaN,-0.3255254,0.0004032513,NaN,0.5259422,-14.27691,NaN,-2.034008,-1.461633,-0.3405967,14.10408,NaN,NaN,-0.02441408,0.8221565,-5.555497E-07,1.022622,-1.948895E-08,1.411505
565.7811,-1.470943,0.0004828175,NaN,-0.3255357,0.0004032761,NaN,0.525162,-14.27834,NaN,-2.036079,-1.46875,-0.3408204,14.11193,NaN,NaN,-0.02432724,0.8209694,-5.412446E-07,1.033138,-2.425732E-08,1.420959
565.796,-1.470943,0.0004828175,NaN,-0.3255357,0.0004032761,NaN,0.525162,-14.27834,NaN,-2.036079,-1.46875,-0.3408204,14.11193,NaN,NaN,-0.02432724,0.8209694,-5.412446E-07,1.033138,-2.425732E-08,1.420959
565.8098,-1.47415,0.0004824852,NaN,-0.3255474,0.0004032381,NaN,0.5244001,-14.27637,NaN,-2.038118,-1.462609,-0.3410473,14.10508,NaN,NaN,-0.02424213,0.8227694,-5.287276E-07,1.024054,-1.948895E-08,1.4102
565.8254,-1.477091,0.0004821829,NaN,-0.3255605,0.0004031439,NaN,0.5236688,-14.27669,NaN,-2.040098,-1.464769,-0.341267,14.10745,NaN,NaN,-0.02415869,0.8225109,-5.138265E-07,1.027244,-1.948895E-08,1.412437
565.8403,-1.479126,0.0004823032,NaN,-0.3255723,0.0004036144,NaN,0.5227976,-14.27734,NaN,-2.042393,-1.463018,-0.3415036,14.10565,NaN,NaN,-0.02407676,0.8218163,-4.977333E-07,1.024698,-1.710477E-08,1.416136
565.855,-1.479126,0.0004823032,NaN,-0.3255723,0.0004036144,NaN,0.5227976,-14.27734,NaN,-2.042393,-1.463018,-0.3415036,14.10565,NaN,NaN,-0.02407676,0.8218163,-4.977333E-07,1.024698,-1.710477E-08,1.416136
565.869,-1.480581,0.000481792,NaN,-0.3255841,0.0004034821,NaN,0.5218967,-14.27671,NaN,-2.044744,-1.462197,-0.3417691,14.10467,NaN,NaN,-0.02399648,0.8224058,-4.798518E-07,1.023463,-1.710477E-08,1.413413
565.8847,-1.481665,0.0004817507,NaN,-0.3255965,0.0004039117,NaN,0.5210164,-14.27677,NaN,-2.047056,-1.462443,-0.3420373,14.10494,NaN,NaN,-0.0239178,0.8223537,-4.637586E-07,1.023827,-1.948895E-08,1.41386
565.8995,-1.481665,0.0004817507,NaN,-0.3255965,0.0004039117,NaN,0.5210164,-14.27677,NaN,-2.047056,-1.462443,-0.3420373,14.10494,NaN,NaN,-0.0239178,0.8223537,-4.637586E-07,1.023827,-1.948895E-08,1.41386
565.9138,-1.481784,0.0004821577,NaN,-0.3256071,0.0004047699,NaN,0.5200003,-14.27724,NaN,-2.049677,-1.461464,-0.3423214,14.10394,NaN,NaN,-0.02384052,0.8218452,-4.470693E-07,1.022409,-2.425732E-08,1.417579
565.9294,-1.481297,0.0004818251,NaN,-0.3256172,0.0004045621,NaN,0.5189617,-14.27766,NaN,-2.052338,-1.465731,-0.3426331,14.10859,NaN,NaN,-0.02376481,0.8215634,-4.3038E-07,1.028693,-2.425732E-08,1.420525
565.9441,-1.480429,0.0004819746,NaN,-0.3256272,0.0004049,NaN,0.5179516,-14.27711,NaN,-2.054941,-1.465504,-0.3429451,14.10826,NaN,NaN,-0.02369061,0.8220992,-4.130946E-07,1.028334,-2.425732E-08,1.416636
565.9592,-1.480429,0.0004819746,NaN,-0.3256272,0.0004049,NaN,0.5179516,-14.27711,NaN,-2.054941,-1.465504,-0.3429451,14.10826,NaN,NaN,-0.02369061,0.8220992,-4.130946E-07,1.028334,-2.425732E-08,1.416636
565.9731,-1.479326,0.0004814055,NaN,-0.3256373,0.0004037903,NaN,0.5169821,-14.27709,NaN,-2.057461,-1.463316,-0.3432466,14.1059,NaN,NaN,-0.02361787,0.8220481,-3.975974E-07,1.025123,-2.187314E-08,1.415608
565.9896,-1.477352,0.000481254,NaN,-0.3256451,0.000403657,NaN,0.5158814,-14.27767,NaN,-2.060273,-1.462974,-0.3435567,14.10561,NaN,NaN,-0.0235464,0.8214527,-3.761398E-07,1.024647,-2.425732E-08,1.419026
566.0033,-1.474837,0.0004812187,NaN,-0.3256516,0.0004037889,NaN,0.5147567,-14.27761,NaN,-2.063122,-1.462686,-0.3438942,14.10529,NaN,NaN,-0.02347638,0.8214957,-3.588544E-07,1.024223,-2.187314E-08,1.417579
566.0181,-1.474837,0.0004812187,NaN,-0.3256516,0.0004037889,NaN,0.5147567,-14.27761,NaN,-2.063122,-1.462686,-0.3438942,14.10529,NaN,NaN,-0.02347638,0.8214957,-3.588544E-07,1.024223,-2.187314E-08,1.417579
566.0334,-1.471993,0.0004810599,NaN,-0.3256574,0.0004039409,NaN,0.5136593,-14.27724,NaN,-2.065911,-1.462221,-0.3442329,14.10473,NaN,NaN,-0.02340776,0.8218421,-3.421651E-07,1.023523,-2.187314E-08,1.415901
566.0475,-1.468954,0.0004809468,NaN,-0.3256627,0.0004042682,NaN,0.5126025,-14.27784,NaN,-2.068613,-1.461892,-0.3445613,14.10446,NaN,NaN,-0.02334049,0.8212299,-3.266679E-07,1.023069,-2.187314E-08,1.418304
566.0625,-1.465077,0.0004814135,NaN,-0.3256653,0.0004039668,NaN,0.5114154,-14.27881,NaN,-2.071605,-1.475572,-0.3448944,14.11928,NaN,NaN,-0.02327436,0.8207072,-3.075944E-07,1.043182,-2.187314E-08,1.430701
566.0771,-1.465077,0.0004814135,NaN,-0.3256653,0.0004039668,NaN,0.5114154,-14.27881,NaN,-2.071605,-1.475572,-0.3448944,14.11928,NaN,NaN,-0.02327436,0.8207072,-3.075944E-07,1.043182,-2.187314E-08,1.430701
566.0914,-1.460688,0.000481623,NaN,-0.3256667,0.0004043321,NaN,0.5102039,-14.27747,NaN,-2.074629,-1.462869,-0.3452559,14.10549,NaN,NaN,-0.02320958,0.821807,-2.867328E-07,1.024514,-2.664151E-08,1.418124
566.1068,-1.455996,0.0004812781,NaN,-0.3256677,0.0004042379,NaN,0.5090208,-14.27744,NaN,-2.077588,-1.462924,-0.3456189,14.10554,NaN,NaN,-0.0231461,0.8218294,-2.664672E-07,1.024588,-3.140988E-08,1.420532
566.1218,-1.451133,0.0004811159,NaN,-0.3256685,0.0004045313,NaN,0.5078803,-14.27817,NaN,-2.080454,-1.462224,-0.3459714,14.10487,NaN,NaN,-0.02308387,0.8210869,-2.497779E-07,1.023587,-3.140988E-08,1.423882
566.1363,-1.451133,0.0004811159,NaN,-0.3256685,0.0004045313,NaN,0.5078803,-14.27817,NaN,-2.080454,-1.462224,-0.3459714,14.10487,NaN,NaN,-0.02308387,0.8210869,-2.497779E-07,1.023587,-3.140988E-08,1.423882
566.1505,-1.445455,0.0004814178,NaN,-0.3256679,0.00040522,NaN,0.5066115,-14.27887,NaN,-2.083605,-1.461905,-0.3463246,14.10462,NaN,NaN,-0.02302267,0.820372,-2.265321E-07,1.023146,-3.140988E-08,1.430164
566.1662,-1.439287,0.0004819476,NaN,-0.3256663,0.0004056823,NaN,0.5053189,-14.28004,NaN,-2.086782,-1.466553,-0.3467063,14.10976,NaN,NaN,-0.02296272,0.8193586,-2.056704E-07,1.030009,-2.664151E-08,1.438751
566.181,-1.432837,0.0004823553,NaN,-0.325664,0.0004061325,NaN,0.5040563,-14.2799,NaN,-2.089887,-1.465413,-0.3470897,14.10851,NaN,NaN,-0.02290398,0.8194711,-1.854049E-07,1.02833,-2.664151E-08,1.435225
566.1959,-1.432837,0.0004823553,NaN,-0.325664,0.0004061325,NaN,0.5040563,-14.2799,NaN,-2.089887,-1.465413,-0.3470897,14.10851,NaN,NaN,-0.02290398,0.8194711,-1.854049E-07,1.02833,-2.664151E-08,1.435225
566.21,-1.425509,0.0004827672,NaN,-0.3256588,0.0004055853,NaN,0.5026686,-14.27922,NaN,-2.093272,-1.477566,-0.3474727,14.12141,NaN,NaN,-0.02284618,0.8204864,-1.61563E-07,1.046096,-1.948895E-08,1.431239
566.2267,-1.417659,0.0004826027,NaN,-0.3256514,0.0004039851,NaN,0.5012628,-14.27839,NaN,-2.096668,-1.466743,-0.3478836,14.1097,NaN,NaN,-0.02278958,0.8211227,-1.401053E-07,1.030202,-2.187314E-08,1.420702
566.2404,-1.409513,0.0004823807,NaN,-0.3256423,0.0004028866,NaN,0.4998937,-14.27812,NaN,-2.099978,-1.468256,-0.3482947,14.11129,NaN,NaN,-0.02273411,0.8214343,-1.174556E-07,1.032412,-2.187314E-08,1.422859
566.2552,-1.409513,0.0004823807,NaN,-0.3256423,0.0004028866,NaN,0.4998937,-14.27812,NaN,-2.099978,-1.468256,-0.3482947,14.11129,NaN,NaN,-0.02273411,0.8214343,-1.174556E-07,1.032412,-2.187314E-08,1.422859
566.269,-1.401216,0.0004825554,NaN,-0.3256322,0.0004026114,NaN,0.4985756,-14.27924,NaN,-2.103173,-1.466356,-0.3486928,14.10939,NaN,NaN,-0.02267973,0.8202657,-9.59979E-08,1.029667,-2.187314E-08,1.427044
566.2846,-1.39213,0.0004831785,NaN,-0.325619,0.000402156,NaN,0.4971372,-14.27961,NaN,-2.106636,-1.475608,-0.3490808,14.11935,NaN,NaN,-0.0226262,0.8201401,-7.156E-08,1.043243,-1.948895E-08,1.432696
566.2991,-1.39213,0.0004831785,NaN,-0.325619,0.000402156,NaN,0.4971372,-14.27961,NaN,-2.106636,-1.475608,-0.3490808,14.11935,NaN,NaN,-0.0226262,0.8201401,-7.156E-08,1.043243,-1.948895E-08,1.432696
566.3133,-1.382585,0.0004829869,NaN,-0.3256034,0.0004015257,NaN,0.4956781,-14.27813,NaN,-2.110107,-1.466867,-0.3494968,14.1098,NaN,NaN,-0.02257377,0.8214604,-4.652605E-08,1.030388,-1.948895E-08,1.421867
566.3286,-1.372792,0.000482623,NaN,-0.325586,0.0004007453,NaN,0.4942531,-14.27779,NaN,-2.113491,-1.469784,-0.3499144,14.11289,NaN,NaN,-0.02252239,0.8218728,-2.447234E-08,1.034663,-1.472058E-08,1.426396
566.3435,-1.362884,0.0004830402,NaN,-0.3255673,0.0004011458,NaN,0.492878,-14.2789,NaN,-2.116761,-1.466273,-0.35032,14.10926,NaN,NaN,-0.02247203,0.8206835,-3.014664E-09,1.02955,-1.472058E-08,1.426443
566.3585,-1.362884,0.0004830402,NaN,-0.3255673,0.0004011458,NaN,0.492878,-14.2789,NaN,-2.116761,-1.466273,-0.35032,14.10926,NaN,NaN,-0.02247203,0.8206835,-3.014664E-09,1.02955,-1.472058E-08,1.426443
566.3729,-1.352216,0.0004832358,NaN,-0.3255456,0.0004014278,NaN,0.4913828,-14.27875,NaN,-2.120298,-1.465304,-0.350711,14.1082,NaN,NaN,-0.02242242,0.8207985,2.440347E-08,1.028126,-1.233639E-08,1.426344
566.3881,-1.341116,0.0004835026,NaN,-0.3255213,0.0004019412,NaN,0.4898651,-14.27922,NaN,-2.123842,-1.46382,-0.351131,14.10667,NaN,NaN,-0.02237382,0.8202825,4.884138E-08,1.025971,-9.952208E-09,1.427489
566.4031,-1.32979,0.0004838002,NaN,-0.3254951,0.0004024587,NaN,0.4883812,-14.27978,NaN,-2.127295,-1.463852,-0.3515538,14.10677,NaN,NaN,-0.0223262,0.8197229,7.387533E-08,1.026043,-1.472058E-08,1.427542
566.418,-1.32979,0.0004838002,NaN,-0.3254951,0.0004024587,NaN,0.4883812,-14.27978,NaN,-2.127295,-1.463852,-0.3515538,14.10677,NaN,NaN,-0.0223262,0.8197229,7.387533E-08,1.026043,-1.472058E-08,1.427542
566.4321,-1.317641,0.0004840312,NaN,-0.3254652,0.0004029535,NaN,0.4867791,-14.27985,NaN,-2.131012,-1.462952,-0.3519625,14.10582,NaN,NaN,-0.02227927,0.8196144,1.024856E-07,1.024728,-1.233639E-08,1.428748
566.4487,-1.305026,0.0004837064,NaN,-0.3254321,0.0004030021,NaN,0.4851592,-14.27905,NaN,-2.134724,-1.462152,-0.3524002,14.10484,NaN,NaN,-0.02223331,0.8203844,1.293077E-07,1.02352,-1.472058E-08,1.422111
566.4637,-1.29217,0.0004835184,NaN,-0.3253965,0.0004033335,NaN,0.483579,-14.27953,NaN,-2.138332,-1.461847,-0.3528398,14.10458,NaN,NaN,-0.02218828,0.8198889,1.543416E-07,1.023097,-1.710476E-08,1.424316
566.4774,-1.29217,0.0004835184,NaN,-0.3253965,0.0004033335,NaN,0.483579,-14.27953,NaN,-2.138332,-1.461847,-0.3528398,14.10458,NaN,NaN,-0.02218828,0.8198889,1.543416E-07,1.023097,-1.710476E-08,1.424316
566.4916,-1.279216,0.0004830847,NaN,-0.3253594,0.0004034849,NaN,0.4820554,-14.27959,NaN,-2.141809,-1.461176,-0.3532663,14.10387,NaN,NaN,-0.02214415,0.8197979,1.775874E-07,1.022117,-1.472058E-08,1.422434
566.5084,-1.265527,0.000483228,NaN,-0.325319,0.0004028671,NaN,0.4804194,-14.27992,NaN,-2.145539,-1.476218,-0.3536674,14.12002,NaN,NaN,-0.02210059,0.8199684,2.056016E-07,1.044165,-9.952207E-09,1.430004
566.5218,-1.251432,0.000483114,NaN,-0.3252756,0.0004025122,NaN,0.4787622,-14.27964,NaN,-2.149262,-1.467391,-0.354097,14.11052,NaN,NaN,-0.02205794,0.8200797,2.354039E-07,1.031219,-1.233639E-08,1.427992
566.5364,-1.251432,0.000483114,NaN,-0.3252756,0.0004025122,NaN,0.4787622,-14.27964,NaN,-2.149262,-1.467391,-0.354097,14.11052,NaN,NaN,-0.02205794,0.8200797,2.354039E-07,1.031219,-1.233639E-08,1.427992
566.5505,-1.237142,0.0004828555,NaN,-0.32523,0.0004021769,NaN,0.4771414,-14.27985,NaN,-2.152882,-1.466672,-0.3545306,14.10977,NaN,NaN,-0.02201615,0.8198438,2.634181E-07,1.030171,-1.710476E-08,1.427121
566.566,-1.222788,0.0004827258,NaN,-0.325183,0.0004023417,NaN,0.475575,-14.27953,NaN,-2.156374,-1.463279,-0.3549524,14.10608,NaN,NaN,-0.0219752,0.8200634,2.896442E-07,1.025186,-1.948895E-08,1.425222
566.5811,-1.207726,0.0004823756,NaN,-0.3251329,0.0004022121,NaN,0.4738964,-14.27956,NaN,-2.160119,-1.464644,-0.3553442,14.10754,NaN,NaN,-0.02193474,0.8200663,3.200425E-07,1.027185,-2.187313E-08,1.424855
566.596,-1.207726,0.0004823756,NaN,-0.3251329,0.0004022121,NaN,0.4738964,-14.27956,NaN,-2.160119,-1.464644,-0.3553442,14.10754,NaN,NaN,-0.02193474,0.8200663,3.200425E-07,1.027185,-2.187313E-08,1.424855
566.61,-1.192282,0.0004822076,NaN,-0.32508,0.0004024365,NaN,0.4721941,-14.27962,NaN,-2.163857,-1.463172,-0.3557657,14.10597,NaN,NaN,-0.02189512,0.8199571,3.492488E-07,1.025029,-2.664151E-08,1.425689
566.6257,-1.176663,0.0004825934,NaN,-0.325025,0.0004019505,NaN,0.4705269,-14.27962,NaN,-2.167491,-1.476589,-0.3561929,14.12033,NaN,NaN,-0.02185632,0.8203783,3.77859E-07,1.044684,-2.187313E-08,1.429631
566.6406,-1.160998,0.0004829285,NaN,-0.3249686,0.0004021274,NaN,0.4689146,-14.27938,NaN,-2.170994,-1.466818,-0.3566093,14.10982,NaN,NaN,-0.02181828,0.8204318,4.064693E-07,1.030347,-2.425732E-08,1.425826
566.6556,-1.160998,0.0004829285,NaN,-0.3249686,0.0004021274,NaN,0.4689146,-14.27938,NaN,-2.170994,-1.466818,-0.3566093,14.10982,NaN,NaN,-0.02181828,0.8204318,4.064693E-07,1.030347,-2.425732E-08,1.425826
566.6694,-1.144642,0.0004825095,NaN,-0.3249093,0.0004008807,NaN,0.467192,-14.27914,NaN,-2.174749,-1.465301,-0.3569906,14.10815,NaN,NaN,-0.02178066,0.8206311,4.386558E-07,1.028113,-3.140988E-08,1.42384
566.6861,-1.12792,0.0004825014,NaN,-0.3248472,0.0004005424,NaN,0.4654445,-14.28024,NaN,-2.178494,-1.465498,-0.3574022,14.10851,NaN,NaN,-0.02174382,0.8195327,4.720344E-07,1.028447,-2.902569E-08,1.428467
566.6998,-1.12792,0.0004825014,NaN,-0.3248472,0.0004005424,NaN,0.4654445,-14.28024,NaN,-2.178494,-1.465498,-0.3574022,14.10851,NaN,NaN,-0.02174382,0.8195327,4.720344E-07,1.028447,-2.902569E-08,1.428467
566.7141,-1.111038,0.0004824399,NaN,-0.3247829,0.0003993691,NaN,0.4637317,-14.27838,NaN,-2.182132,-1.47723,-0.3578209,14.12081,NaN,NaN,-0.02170775,0.8217064,4.970683E-07,1.045551,-2.664151E-08,1.421886
566.7294,-1.093398,0.0004822793,NaN,-0.324715,0.0003985044,NaN,0.4619078,-14.27914,NaN,-2.185987,-1.471923,-0.3582097,14.11516,NaN,NaN,-0.021672,0.820852,5.32235E-07,1.037764,-1.948895E-08,1.415976
566.7441,-1.075354,0.0004819884,NaN,-0.3246435,0.000397896,NaN,0.4600108,-14.27929,NaN,-2.188411,-1.468231,-0.3587452,14.1112,NaN,NaN,-0.02163547,0.8206124,5.930318E-07,1.03234,-2.425732E-08,1.425738
566.759,-1.075354,0.0004819884,NaN,-0.3246435,0.000397896,NaN,0.4600108,-14.27929,NaN,-2.188411,-1.468231,-0.3587452,14.1112,NaN,NaN,-0.02163547,0.8206124,5.930318E-07,1.03234,-2.425732E-08,1.425738
566.773,-1.057133,0.0004820569,NaN,-0.3245692,0.0003968176,NaN,0.4581368,-14.27943,NaN,-2.189185,-1.477972,-0.359347,14.12164,NaN,NaN,-0.02159924,0.8207215,6.633653E-07,1.046618,-1.948895E-08,1.421916
566.7886,-1.038876,0.0004824078,NaN,-0.3244932,0.0003955951,NaN,0.4563351,-14.27851,NaN,-2.188833,-1.480076,-0.3599358,14.12379,NaN,NaN,-0.02156396,0.8216431,7.271423E-07,1.049682,-1.710476E-08,1.417339
566.8035,-1.019945,0.0004823219,NaN,-0.3244142,0.0003945198,NaN,0.454452,-14.27909,NaN,-2.188419,-1.472488,-0.3604508,14.11568,NaN,NaN,-0.02152952,0.8209333,7.88535E-07,1.038545,-1.948895E-08,1.409398
566.8182,-1.019945,0.0004823219,NaN,-0.3244142,0.0003945198,NaN,0.454452,-14.27909,NaN,-2.188419,-1.472488,-0.3604508,14.11568,NaN,NaN,-0.02152952,0.8209333,7.88535E-07,1.038545,-1.948895E-08,1.409398
566.8325,-1.000669,0.0004826479,NaN,-0.3243322,0.000394269,NaN,0.4525599,-14.27912,NaN,-2.188021,-1.470383,-0.3609756,14.1134,NaN,NaN,-0.02149613,0.8208455,8.409871E-07,1.035444,-1.472058E-08,1.425752
566.8481,-0.9812568,0.0004822408,NaN,-0.3242478,0.0003928246,NaN,0.4507152,-14.2786,NaN,-2.187702,-1.464958,-0.3614987,14.1075,NaN,NaN,-0.02146367,0.8212262,8.91055E-07,1.02746,-1.233639E-08,1.414031
566.8632,-0.9618404,0.0004816967,NaN,-0.3241622,0.0003919309,NaN,0.4489384,-14.27861,NaN,-2.187476,-1.464524,-0.3620093,14.10702,NaN,NaN,-0.021432,0.8211907,9.345664E-07,1.026816,-1.233639E-08,1.414073
566.8779,-0.9618404,0.0004816967,NaN,-0.3241622,0.0003919309,NaN,0.4489384,-14.27861,NaN,-2.187476,-1.464524,-0.3620093,14.10702,NaN,NaN,-0.021432,0.8211907,9.345664E-07,1.026816,-1.233639E-08,1.414073
566.8921,-0.9417746,0.0004814675,NaN,-0.3240741,0.0003915846,NaN,0.4470662,-14.27931,NaN,-2.187719,-1.46514,-0.3624821,14.10776,NaN,NaN,-0.02140068,0.8205056,9.864225E-07,1.027744,-5.183832E-09,1.416585
566.9086,-0.9213844,0.0004810923,NaN,-0.3239832,0.0003912862,NaN,0.4451746,-14.27863,NaN,-2.187986,-1.464312,-0.3630008,14.10677,NaN,NaN,-0.02136991,0.8211563,1.032318E-06,1.026495,-7.568018E-09,1.413006
566.9227,-0.9008754,0.0004806948,NaN,-0.3238902,0.0003912589,NaN,0.4433262,-14.27879,NaN,-2.188087,-1.462742,-0.3635408,14.1051,NaN,NaN,-0.02133974,0.8209445,1.07881E-06,1.024193,-9.952204E-09,1.413487
566.9372,-0.9008754,0.0004806948,NaN,-0.3238902,0.0003912589,NaN,0.4433262,-14.27879,NaN,-2.188087,-1.462742,-0.3635408,14.1051,NaN,NaN,-0.02133974,0.8209445,1.07881E-06,1.024193,-9.952204E-09,1.413487
566.9512,-0.8796499,0.0004804152,NaN,-0.3237938,0.0003912729,NaN,0.441381,-14.2793,NaN,-2.188401,-1.465477,-0.3640554,14.10809,NaN,NaN,-0.02130987,0.8205155,1.129474E-06,1.028224,-5.183833E-09,1.415731
566.9667,-0.8580624,0.0004796798,NaN,-0.3236937,0.0003909151,NaN,0.4394245,-14.2792,NaN,-2.188582,-1.464172,-0.3646128,14.10667,NaN,NaN,-0.02128058,0.8205692,1.179542E-06,1.026304,-5.183833E-09,1.417159
566.9831,-0.8363376,0.0004794691,NaN,-0.3235909,0.0003910337,NaN,0.4375206,-14.27867,NaN,-2.188549,-1.465751,-0.3651837,14.10829,NaN,NaN,-0.02125193,0.8211363,1.227225E-06,1.028592,1.968724E-09,1.414494
566.9965,-0.8363376,0.0004794691,NaN,-0.3235909,0.0003910337,NaN,0.4375206,-14.27867,NaN,-2.188549,-1.465751,-0.3651837,14.10829,NaN,NaN,-0.02125193,0.8211363,1.227225E-06,1.028592,1.968724E-09,1.414494
567.0107,-0.8146173,0.0004794233,NaN,-0.3234866,0.0003914847,NaN,0.4356931,-14.2789,NaN,-2.18836,-1.462739,-0.3657429,14.10507,NaN,NaN,-0.02122399,0.8208176,1.271929E-06,1.024181,1.968724E-09,1.4151
567.0266,-0.792263,0.0004793419,NaN,-0.3233797,0.0003914973,NaN,0.4337785,-14.2797,NaN,-2.188506,-1.46757,-0.3662601,14.11037,NaN,NaN,-0.02119638,0.8201689,1.317824E-06,1.031301,6.737096E-09,1.418628
567.0414,-0.7696035,0.0004795287,NaN,-0.3232699,0.0003911364,NaN,0.4318525,-14.2805,NaN,-2.188643,-1.473983,-0.3668145,14.11734,NaN,NaN,-0.02116934,0.8195379,1.364316E-06,1.04073,1.150547E-08,1.426592
567.0563,-0.7696035,0.0004795287,NaN,-0.3232699,0.0003911364,NaN,0.4318525,-14.2805,NaN,-2.188643,-1.473983,-0.3668145,14.11734,NaN,NaN,-0.02116934,0.8195379,1.364316E-06,1.04073,1.150547E-08,1.426592
567.0704,-0.7468469,0.0004798517,NaN,-0.323158,0.0003915853,NaN,0.4299755,-14.27879,NaN,-2.188643,-1.46582,-0.3673832,14.10839,NaN,NaN,-0.02114288,0.8210701,1.40902E-06,1.02872,1.150547E-08,1.41433
567.0861,-0.7241243,0.0004800009,NaN,-0.3230452,0.0003919447,NaN,0.4281712,-14.27933,NaN,-2.188514,-1.464234,-0.3679435,14.10675,NaN,NaN,-0.02111704,0.8204824,1.451935E-06,1.026415,1.627384E-08,1.416263
567.1011,-0.7007906,0.0004797879,NaN,-0.3229303,0.0003921386,NaN,0.426277,-14.27937,NaN,-2.188709,-1.462599,-0.3684664,14.105,NaN,NaN,-0.02109146,0.820392,1.49485E-06,1.024017,1.388965E-08,1.415613
567.116,-0.7007906,0.0004797879,NaN,-0.3229303,0.0003921386,NaN,0.426277,-14.27937,NaN,-2.188709,-1.462599,-0.3684664,14.105,NaN,NaN,-0.02109146,0.820392,1.49485E-06,1.024017,1.388965E-08,1.415613
567.1313,-0.6771703,0.0004797229,NaN,-0.3228129,0.0003925402,NaN,0.4243703,-14.27938,NaN,-2.188874,-1.462561,-0.3690281,14.10495,NaN,NaN,-0.02106639,0.8203699,1.540746E-06,1.02396,1.388965E-08,1.416568
567.1459,-0.6534686,0.0004800555,NaN,-0.3226937,0.0003929147,NaN,0.4225122,-14.28068,NaN,-2.18888,-1.466773,-0.3696044,14.10964,NaN,NaN,-0.02104186,0.8192171,1.582767E-06,1.030192,1.150547E-08,1.425283
567.1609,-0.6298148,0.0004797744,NaN,-0.3225739,0.0003929475,NaN,0.4207269,-14.27891,NaN,-2.188743,-1.462687,-0.3701718,14.10503,NaN,NaN,-0.02101791,0.8208541,1.624192E-06,1.02414,1.150547E-08,1.413458
567.1757,-0.6298148,0.0004797744,NaN,-0.3225739,0.0003929475,NaN,0.4207269,-14.27891,NaN,-2.188743,-1.462687,-0.3701718,14.10503,NaN,NaN,-0.02101791,0.8208541,1.624192E-06,1.02414,1.150547E-08,1.413458
567.1898,-0.6057345,0.0004798715,NaN,-0.3224529,0.000393309,NaN,0.418891,-14.27988,NaN,-2.188835,-1.464345,-0.3707063,14.10695,NaN,NaN,-0.02099428,0.8199459,1.663829E-06,1.026617,1.388965E-08,1.419066
567.2053,-0.5814869,0.0004801287,NaN,-0.3223306,0.0003928307,NaN,0.417063,-14.28049,NaN,-2.188905,-1.47618,-0.3712646,14.1197,NaN,NaN,-0.02097115,0.819693,1.704957E-06,1.043983,1.865802E-08,1.426806
567.2203,-0.5572354,0.0004808918,NaN,-0.3222076,0.0003924454,NaN,0.4152879,-14.27874,NaN,-2.188863,-1.477881,-0.3718287,14.12132,NaN,NaN,-0.02094854,0.8214589,1.744594E-06,1.046427,1.865802E-08,1.417679
567.2353,-0.5572354,0.0004808918,NaN,-0.3222076,0.0003924454,NaN,0.4152879,-14.27874,NaN,-2.188863,-1.477881,-0.3718287,14.12132,NaN,NaN,-0.02094854,0.8214589,1.744594E-06,1.046427,1.865802E-08,1.417679
567.2495,-0.5330831,0.0004817215,NaN,-0.322085,0.0003925301,NaN,0.4135826,-14.2782,NaN,-2.188724,-1.474663,-0.3723815,14.11778,NaN,NaN,-0.02092648,0.8219285,1.781549E-06,1.041682,1.627384E-08,1.414214
567.2651,-0.5090942,0.0004820109,NaN,-0.321964,0.0003928347,NaN,0.4119487,-14.27738,NaN,-2.188541,-1.465126,-0.3729151,14.10742,NaN,NaN,-0.02090497,0.8225497,1.815225E-06,1.027646,1.388965E-08,1.404851
567.2802,-0.4853085,0.0004826135,NaN,-0.3218455,0.0003924404,NaN,0.4103817,-14.27999,NaN,-2.188361,-1.478229,-0.3734285,14.12186,NaN,NaN,-0.02088398,0.8203334,1.845624E-06,1.047,1.150547E-08,1.424038
567.2952,-0.4853085,0.0004826135,NaN,-0.3218455,0.0003924404,NaN,0.4103817,-14.27999,NaN,-2.188361,-1.478229,-0.3734285,14.12186,NaN,NaN,-0.02088398,0.8203334,1.845624E-06,1.047,1.150547E-08,1.424038
567.3094,-0.4617502,0.0004829217,NaN,-0.3217303,0.0003928965,NaN,0.4088762,-14.27862,NaN,-2.18821,-1.463541,-0.3739233,14.10595,NaN,NaN,-0.02086351,0.8214771,1.873042E-06,1.025431,1.150547E-08,1.411029
567.3264,-0.4384337,0.0004836364,NaN,-0.3216188,0.0003925872,NaN,0.4074269,-14.27944,NaN,-2.188092,-1.479421,-0.3744023,14.12311,NaN,NaN,-0.02084351,0.8211735,1.897778E-06,1.048761,1.388965E-08,1.421157
567.34,-0.4384337,0.0004836364,NaN,-0.3216188,0.0003925872,NaN,0.4074269,-14.27944,NaN,-2.188092,-1.479421,-0.3744023,14.12311,NaN,NaN,-0.02084351,0.8211735,1.897778E-06,1.048761,1.388965E-08,1.421157
567.3542,-0.415367,0.0004841445,NaN,-0.3215115,0.0003926506,NaN,0.40603,-14.27985,NaN,-2.187999,-1.472008,-0.3748674,14.11518,NaN,NaN,-0.02082396,0.8206903,1.918639E-06,1.037885,1.627384E-08,1.416549
567.3696,-0.392554,0.0004846667,NaN,-0.3214086,0.0003918791,NaN,0.4046826,-14.27923,NaN,-2.187919,-1.481405,-0.3753201,14.12517,NaN,NaN,-0.02080485,0.8215436,1.938011E-06,1.051637,1.865802E-08,1.413669
567.3845,-0.3699962,0.0004851573,NaN,-0.3213103,0.0003922014,NaN,0.4033824,-14.27775,NaN,-2.187843,-1.468163,-0.3757611,14.11076,NaN,NaN,-0.02078615,0.8228833,1.960959E-06,1.032154,2.104221E-08,1.400318
567.3994,-0.3699962,0.0004851573,NaN,-0.3213103,0.0003922014,NaN,0.4033824,-14.27775,NaN,-2.187843,-1.468163,-0.3757611,14.11076,NaN,NaN,-0.02078615,0.8228833,1.960959E-06,1.032154,2.104221E-08,1.400318
567.4136,-0.3476934,0.0004859319,NaN,-0.3212166,0.0003931112,NaN,0.4021278,-14.27826,NaN,-2.187766,-1.465033,-0.3761906,14.10744,NaN,NaN,-0.02076787,0.822336,1.976754E-06,1.027568,2.104221E-08,1.40587
567.4295,-0.3256446,0.0004862612,NaN,-0.3211276,0.0003937518,NaN,0.4009173,-14.27842,NaN,-2.187687,-1.462819,-0.3766088,14.10507,NaN,NaN,-0.02075,0.8221402,1.997615E-06,1.024319,2.34264E-08,1.405539
567.4456,-0.3038478,0.0004862634,NaN,-0.3210431,0.0003941593,NaN,0.3997495,-14.27806,NaN,-2.187606,-1.462174,-0.3770157,14.10432,NaN,NaN,-0.02073254,0.8225014,2.014603E-06,1.02335,1.865802E-08,1.399565
567.4592,-0.3038478,0.0004862634,NaN,-0.3210431,0.0003941593,NaN,0.3997495,-14.27806,NaN,-2.187606,-1.462174,-0.3770157,14.10432,NaN,NaN,-0.02073254,0.8225014,2.014603E-06,1.02335,1.865802E-08,1.399565
567.4736,-0.2886746,0.0004859765,NaN,-0.3209838,0.0003944502,NaN,0.4000848,-14.27778,NaN,-2.184048,-1.461465,-0.377511,14.1035,NaN,NaN,-0.02071868,0.8227816,1.97273E-06,1.022291,2.104221E-08,1.396832
567.4891,-0.2777316,0.000486098,NaN,-0.3209581,0.0003943295,NaN,0.4011859,-14.27963,NaN,-2.180735,-1.471657,-0.3774562,14.11474,NaN,NaN,-0.02070631,0.8212996,1.905973E-06,1.037356,2.581058E-08,1.411497
567.5042,-0.2694964,0.0004862937,NaN,-0.3209601,0.0003935284,NaN,0.4024402,-14.27798,NaN,-2.178655,-1.478381,-0.3771332,14.12176,NaN,NaN,-0.02069404,0.8231123,1.840706E-06,1.04717,2.104221E-08,1.403324
567.519,-0.2694964,0.0004862937,NaN,-0.3209601,0.0003935284,NaN,0.4024402,-14.27798,NaN,-2.178655,-1.478381,-0.3771332,14.12176,NaN,NaN,-0.02069404,0.8231123,1.840706E-06,1.04717,2.104221E-08,1.403324
567.5354,-0.263,0.0004864578,NaN,-0.32098,0.0003931542,NaN,0.4035848,-14.27786,NaN,-2.177408,-1.471609,-0.3767875,14.11443,NaN,NaN,-0.02068125,0.8231287,1.788403E-06,1.037199,1.627384E-08,1.396183
567.5489,-0.2576249,0.0004866207,NaN,-0.3210129,0.0003933593,NaN,0.4045779,-14.27729,NaN,-2.176717,-1.465558,-0.3764836,14.10782,NaN,NaN,-0.02066837,0.8235595,1.744594E-06,1.028276,1.865803E-08,1.395401
567.5639,-0.252978,0.0004867865,NaN,-0.3210546,0.0003925206,NaN,0.405441,-14.27823,NaN,-2.176391,-1.478992,-0.376228,14.12243,NaN,NaN,-0.02065556,0.8230325,1.706447E-06,1.048069,1.865803E-08,1.401973
567.5787,-0.252978,0.0004867865,NaN,-0.3210546,0.0003925206,NaN,0.405441,-14.27823,NaN,-2.176391,-1.478992,-0.376228,14.12243,NaN,NaN,-0.02065556,0.8230325,1.706447E-06,1.048069,1.865803E-08,1.401973
567.593,-0.2488089,0.0004873007,NaN,-0.3211019,0.0003931748,NaN,0.4062065,-14.27714,NaN,-2.1763,-1.466737,-0.3760117,14.10908,NaN,NaN,-0.02064293,0.82393,1.670237E-06,1.030017,1.865803E-08,1.396373
567.6085,-0.2449579,0.0004873346,NaN,-0.3211528,0.0003935223,NaN,0.4069026,-14.27719,NaN,-2.176357,-1.463995,-0.3758242,14.10612,NaN,NaN,-0.0206305,0.8238171,1.634027E-06,1.025979,1.388965E-08,1.391928
567.6237,-0.2413613,0.0004867449,NaN,-0.3338103,0.0003934408,NaN,0.4066098,-14.27644,NaN,-2.179611,-1.462643,-0.3794932,14.10454,NaN,NaN,-0.02062712,0.8245295,1.478608E-06,1.023953,1.865803E-08,1.389521
567.6384,-0.2413613,0.0004867449,NaN,-0.3338103,0.0003934408,NaN,0.4066098,-14.27644,NaN,-2.179611,-1.462643,-0.3794932,14.10454,NaN,NaN,-0.02062712,0.8245295,1.478608E-06,1.023953,1.865803E-08,1.389521
567.6528,-0.2380205,0.0004862769,NaN,-0.3540902,0.0003926925,NaN,0.407017,-14.27836,NaN,-2.183692,-1.474294,-0.3829037,14.11741,NaN,NaN,-0.02062243,0.823007,1.354854E-06,1.041195,1.388965E-08,1.404174
567.6684,-0.234893,0.0004857648,NaN,-0.3789341,0.0003924644,NaN,0.407819,-14.27642,NaN,-2.18713,-1.465338,-0.3857545,14.10751,NaN,NaN,-0.02061537,0.8247664,1.272748E-06,1.027967,9.121283E-09,1.391539
567.6834,-0.2319293,0.0004861765,NaN,-0.4064598,0.0003917851,NaN,0.4087108,-14.2774,NaN,-2.188748,-1.479232,-0.3882691,14.12267,NaN,NaN,-0.02060609,0.8242057,1.231248E-06,1.048468,1.968726E-09,1.40042
567.6986,-0.2319293,0.0004861765,NaN,-0.4064598,0.0003917851,NaN,0.4087108,-14.2774,NaN,-2.188748,-1.479232,-0.3882691,14.12267,NaN,NaN,-0.02060609,0.8242057,1.231248E-06,1.048468,1.968726E-09,1.40042
567.7128,-0.2290842,0.0004868435,NaN,-0.4347511,0.0003926433,NaN,0.4096839,-14.27646,NaN,-2.188567,-1.465847,-0.3902701,14.10809,NaN,NaN,-0.02059571,0.8249644,1.203085E-06,1.028737,1.968726E-09,1.393056
567.7286,-0.2263234,0.0004870993,NaN,-0.463386,0.0003931792,NaN,0.4106206,-14.27709,NaN,-2.187541,-1.463911,-0.3920338,14.10608,NaN,NaN,-0.02058583,0.8243133,1.172389E-06,1.02591,-4.154597E-10,1.392565
567.7437,-0.223625,0.0004877675,NaN,-0.4921025,0.0003930973,NaN,0.4115216,-14.27839,NaN,-2.18645,-1.476671,-0.3936245,14.12004,NaN,NaN,-0.02057674,0.8234348,1.129772E-06,1.044749,-5.183831E-09,1.404936
567.7585,-0.223625,0.0004877675,NaN,-0.4921025,0.0003930973,NaN,0.4115216,-14.27839,NaN,-2.18645,-1.476671,-0.3936245,14.12004,NaN,NaN,-0.02057674,0.8234348,1.129772E-06,1.044749,-5.183831E-09,1.404936
567.7728,-0.2209712,0.0004881511,NaN,-0.5199769,0.0003936585,NaN,0.4124471,-14.27699,NaN,-2.185507,-1.465746,-0.394844,14.10809,NaN,NaN,-0.02056765,0.824662,1.088495E-06,1.028642,-2.799645E-09,1.394171
567.7882,-0.2183513,0.0004878646,NaN,-0.5472084,0.0003937935,NaN,0.4132838,-14.27665,NaN,-2.18499,-1.463158,-0.3959888,14.10524,NaN,NaN,-0.02055907,0.8249517,1.041557E-06,1.024817,-3.991738E-09,1.39015
567.8033,-0.2157601,0.0004882647,NaN,-0.573921,0.0003933362,NaN,0.4140456,-14.277,NaN,-2.184864,-1.477469,-0.3971159,14.12077,NaN,NaN,-0.02055079,0.8250869,9.93277E-07,1.045913,-7.568017E-09,1.39825
567.8181,-0.2157601,0.0004882647,NaN,-0.573921,0.0003933362,NaN,0.4140456,-14.277,NaN,-2.184864,-1.477469,-0.3971159,14.12077,NaN,NaN,-0.02055079,0.8250869,9.93277E-07,1.045913,-7.568017E-09,1.39825
567.8323,-0.2131953,0.0004884883,NaN,-0.6001925,0.0003935906,NaN,0.4147558,-14.27661,NaN,-2.18496,-1.466372,-0.3982337,14.10871,NaN,NaN,-0.02054262,0.8253027,9.470834E-07,1.029548,-7.568017E-09,1.391031
567.8483,-0.2106514,0.0004884822,NaN,-0.6253105,0.000393809,NaN,0.4154937,-14.2774,NaN,-2.184922,-1.465354,-0.3990962,14.10771,NaN,NaN,-0.02053393,0.8245037,9.110227E-07,1.028079,-6.375925E-09,1.394271
567.8633,-0.2081259,0.0004881363,NaN,-0.6496066,0.0003939361,NaN,0.4161675,-14.27732,NaN,-2.184858,-1.463041,-0.3999461,14.10519,NaN,NaN,-0.02052547,0.8245326,8.743658E-07,1.024669,-6.375925E-09,1.391594
567.8784,-0.2081259,0.0004881363,NaN,-0.6496066,0.0003939361,NaN,0.4161675,-14.27732,NaN,-2.184858,-1.463041,-0.3999461,14.10519,NaN,NaN,-0.02052547,0.8245326,8.743658E-07,1.024669,-6.375925E-09,1.391594
567.8927,-0.2056192,0.0004877874,NaN,-0.6732873,0.0003942422,NaN,0.4168008,-14.27736,NaN,-2.184815,-1.462341,-0.4008003,14.10443,NaN,NaN,-0.02051729,0.8244743,8.371129E-07,1.023639,-8.760111E-09,1.391549
567.9085,-0.2031322,0.0004878377,NaN,-0.6964815,0.0003948728,NaN,0.4174153,-14.27754,NaN,-2.184796,-1.462019,-0.4016456,14.1041,NaN,NaN,-0.02050931,0.8242911,8.004561E-07,1.023172,-1.11443E-08,1.393317
567.9246,-0.200661,0.0004878714,NaN,-0.7185087,0.0003954034,NaN,0.4180817,-14.27829,NaN,-2.184597,-1.461733,-0.4022301,14.1039,NaN,NaN,-0.02050091,0.8235413,7.697597E-07,1.022786,-1.233639E-08,1.396097
567.9391,-0.200661,0.0004878714,NaN,-0.7185087,0.0003954034,NaN,0.4180817,-14.27829,NaN,-2.184597,-1.461733,-0.4022301,14.1039,NaN,NaN,-0.02050091,0.8235413,7.697597E-07,1.022786,-1.233639E-08,1.396097
567.9525,-0.1982041,0.000487991,NaN,-0.7397209,0.0003960079,NaN,0.418698,-14.27855,NaN,-2.184415,-1.461148,-0.4027994,14.10329,NaN,NaN,-0.02049284,0.8232697,7.366791E-07,1.021935,-1.472057E-08,1.398917
567.968,-0.1957627,0.0004890566,NaN,-0.7603368,0.0003963361,NaN,0.4192805,-14.28022,NaN,-2.184322,-1.472729,-0.4033761,14.11602,NaN,NaN,-0.02048508,0.8219953,7.038965E-07,1.039042,-1.829685E-08,1.416426
567.9829,-0.1933385,0.000489627,NaN,-0.7804929,0.0003970728,NaN,0.4198467,-14.27956,NaN,-2.184306,-1.463593,-0.4039513,14.10611,NaN,NaN,-0.02047751,0.8224667,6.72306E-07,1.025605,-1.710476E-08,1.404575
567.9979,-0.1933385,0.000489627,NaN,-0.7804929,0.0003970728,NaN,0.4198467,-14.27956,NaN,-2.184306,-1.463593,-0.4039513,14.10611,NaN,NaN,-0.02047751,0.8224667,6.72306E-07,1.025605,-1.710476E-08,1.404575
568.0121,-0.1909274,0.0004895212,NaN,-0.799513,0.0003971832,NaN,0.4204646,-14.27846,NaN,-2.184137,-1.464113,-0.4042762,14.10651,NaN,NaN,-0.02046951,0.8235825,6.481662E-07,1.026319,-1.710476E-08,1.399711
568.0278,-0.1885277,0.0004900948,NaN,-0.8177522,0.0003967879,NaN,0.4210323,-14.27888,NaN,-2.18399,-1.477543,-0.4045964,14.12105,NaN,NaN,-0.02046182,0.8235891,6.225362E-07,1.046091,-1.710476E-08,1.407032
568.0428,-0.186141,0.000490694,NaN,-0.8354309,0.0003976577,NaN,0.4215667,-14.27983,NaN,-2.183923,-1.464651,-0.4049334,14.10723,NaN,NaN,-0.02045441,0.822417,5.921378E-07,1.027142,-2.068104E-08,1.407873
568.0579,-0.186141,0.000490694,NaN,-0.8354309,0.0003976577,NaN,0.4215667,-14.27983,NaN,-2.183923,-1.464651,-0.4049334,14.10723,NaN,NaN,-0.02045441,0.822417,5.921378E-07,1.027142,-2.068104E-08,1.407873
568.0723,-0.183763,0.000490964,NaN,-0.8519242,0.0003983359,NaN,0.4221448,-14.2788,NaN,-2.18373,-1.461715,-0.4050377,14.10392,NaN,NaN,-0.02044664,0.8233423,5.700841E-07,1.022782,-1.472057E-08,1.400189
568.088,-0.1813925,0.0004909911,NaN,-0.8676195,0.0003988491,NaN,0.4226697,-14.27885,NaN,-2.183589,-1.461353,-0.4051513,14.10353,NaN,NaN,-0.02043919,0.8232755,5.444541E-07,1.022249,-1.591267E-08,1.40016
568.1029,-0.1790317,0.0004905803,NaN,-0.8827564,0.0003986595,NaN,0.4231609,-14.2792,NaN,-2.183543,-1.466444,-0.4052932,14.10906,NaN,NaN,-0.02043203,0.8231004,5.200162E-07,1.029749,-2.187313E-08,1.405242
568.1177,-0.1790317,0.0004905803,NaN,-0.8827564,0.0003986595,NaN,0.4231609,-14.2792,NaN,-2.183543,-1.466444,-0.4052932,14.10906,NaN,NaN,-0.02043203,0.8231004,5.200162E-07,1.029749,-2.187313E-08,1.405242
568.1342,-0.1766834,0.0004894998,NaN,-0.8974834,0.0003981089,NaN,0.423638,-14.27889,NaN,-2.183568,-1.462687,-0.405451,14.10497,NaN,NaN,-0.02042505,0.8232959,4.979624E-07,1.024212,-2.068104E-08,1.402152
568.1479,-0.1743433,0.0004886353,NaN,-0.9111315,0.0003979431,NaN,0.4241688,-14.27877,NaN,-2.183423,-1.462578,-0.4053744,14.10483,NaN,NaN,-0.02041762,0.8234031,4.812732E-07,1.024046,-1.770081E-08,1.400223
568.1628,-0.1720095,0.0004882368,NaN,-0.9240611,0.0003983354,NaN,0.4246509,-14.27894,NaN,-2.18329,-1.462099,-0.4053072,14.10433,NaN,NaN,-0.02041049,0.823211,4.616036E-07,1.023348,-1.591267E-08,1.402331
568.1776,-0.1720095,0.0004882368,NaN,-0.9240611,0.0003983354,NaN,0.4246509,-14.27894,NaN,-2.18329,-1.462099,-0.4053072,14.10433,NaN,NaN,-0.02041049,0.823211,4.616036E-07,1.023348,-1.591267E-08,1.402331
568.192,-0.1696844,0.0004883723,NaN,-0.9364945,0.000398795,NaN,0.4251018,-14.28005,NaN,-2.183231,-1.464739,-0.4052695,14.10733,NaN,NaN,-0.02040365,0.8221974,4.40742E-07,1.027281,-1.293243E-08,1.409391
568.2075,-0.1673709,0.0004877114,NaN,-0.9485693,0.0003976905,NaN,0.4255401,-14.27931,NaN,-2.183238,-1.461908,-0.4052498,14.10418,NaN,NaN,-0.02039699,0.8228368,4.186883E-07,1.023093,-9.356156E-09,1.402048
568.2227,-0.1650643,0.0004875542,NaN,-0.9596093,0.0003977353,NaN,0.4260322,-14.27937,NaN,-2.18308,-1.461997,-0.4049998,14.10428,NaN,NaN,-0.0203899,0.8227789,4.055753E-07,1.023225,-9.356156E-09,1.405065
568.2374,-0.1650643,0.0004875542,NaN,-0.9596093,0.0003977353,NaN,0.4260322,-14.27937,NaN,-2.18308,-1.461997,-0.4049998,14.10428,NaN,NaN,-0.0203899,0.8227789,4.055753E-07,1.023225,-9.356156E-09,1.405065
568.2519,-0.1627624,0.0004867004,NaN,-0.9699709,0.0003972755,NaN,0.4264753,-14.27897,NaN,-2.182943,-1.461484,-0.404764,14.10366,NaN,NaN,-0.02038311,0.8231574,3.870979E-07,1.022453,-9.356156E-09,1.403171
568.2675,-0.1604676,0.0004862942,NaN,-0.9798735,0.0003975679,NaN,0.4268868,-14.27964,NaN,-2.182888,-1.461199,-0.404563,14.10345,NaN,NaN,-0.0203766,0.8224753,3.686204E-07,1.022067,-1.054825E-08,1.40526
568.2827,-0.1581833,0.0004861144,NaN,-0.9894525,0.000396836,NaN,0.4272861,-14.28031,NaN,-2.182901,-1.476502,-0.4043853,14.12002,NaN,NaN,-0.02037027,0.8223205,3.495469E-07,1.044579,-9.356156E-09,1.410618
568.2978,-0.1581833,0.0004861144,NaN,-0.9894525,0.000396836,NaN,0.4272861,-14.28031,NaN,-2.182901,-1.476502,-0.4043853,14.12002,NaN,NaN,-0.02037027,0.8223205,3.495469E-07,1.044579,-9.356156E-09,1.410618
568.312,-0.1559048,0.0004862136,NaN,-0.9980298,0.0003970592,NaN,0.427739,-14.27935,NaN,-2.18275,-1.466367,-0.4039832,14.10899,NaN,NaN,-0.0203635,0.8230984,3.37626E-07,1.029662,-8.760109E-09,1.405939
568.3286,-0.1536297,0.0004857844,NaN,-1.005961,0.0003969776,NaN,0.4281427,-14.27875,NaN,-2.18262,-1.463894,-0.4036009,14.10624,NaN,NaN,-0.02035703,0.8236312,3.24513E-07,1.026003,-8.760109E-09,1.399839
568.3427,-0.1513604,0.0004853206,NaN,-1.013465,0.0003971112,NaN,0.4285152,-14.27892,NaN,-2.18257,-1.462289,-0.4032585,14.10453,NaN,NaN,-0.02035084,0.8234164,3.078237E-07,1.023651,-6.375923E-09,1.400286
568.3575,-0.1513604,0.0004853206,NaN,-1.013465,0.0003971112,NaN,0.4285152,-14.27892,NaN,-2.18257,-1.462289,-0.4032585,14.10453,NaN,NaN,-0.02035084,0.8234164,3.078237E-07,1.023651,-6.375923E-09,1.400286
568.3717,-0.1490927,0.0004851898,NaN,-1.019915,0.0003964185,NaN,0.4289321,-14.2794,NaN,-2.182393,-1.476977,-0.4027076,14.12044,NaN,NaN,-0.02034427,0.8234236,2.982869E-07,1.045273,-7.269993E-09,1.406041
568.3874,-0.1468247,0.0004851673,NaN,-1.025697,0.000396211,NaN,0.4292962,-14.27962,NaN,-2.182269,-1.469607,-0.4021892,14.11251,NaN,NaN,-0.02033802,0.8230767,2.869621E-07,1.034437,-8.164062E-09,1.407018
568.4035,-0.14456,0.0004853056,NaN,-1.031049,0.0003966549,NaN,0.4296286,-14.27891,NaN,-2.182243,-1.464133,-0.4017203,14.10651,NaN,NaN,-0.02033203,0.8236502,2.708688E-07,1.026362,-5.18383E-09,1.401983
568.4173,-0.14456,0.0004853056,NaN,-1.031049,0.0003966549,NaN,0.4296286,-14.27891,NaN,-2.182243,-1.464133,-0.4017203,14.10651,NaN,NaN,-0.02033203,0.8236502,2.708688E-07,1.026362,-5.18383E-09,1.401983
568.4319,-0.1423034,0.0004856039,NaN,-1.036116,0.0003973835,NaN,0.4299503,-14.27922,NaN,-2.182287,-1.462308,-0.401287,14.10458,NaN,NaN,-0.02032621,0.8232826,2.565637E-07,1.02369,-3.693714E-09,1.404772
568.4475,-0.1400509,0.0004864155,NaN,-1.040227,0.0003974504,NaN,0.4303274,-14.28056,NaN,-2.182158,-1.475395,-0.4006408,14.11887,NaN,NaN,-0.02031994,0.8223819,2.47027E-07,1.042992,-1.905575E-09,1.415679
568.4626,-0.1378001,0.0004868606,NaN,-1.043741,0.0003982529,NaN,0.4306566,-14.27955,NaN,-2.182041,-1.462864,-0.4000244,14.10526,NaN,NaN,-0.02031396,0.8231589,2.374902E-07,1.024552,-1.174355E-10,1.406176
568.4777,-0.1378001,0.0004868606,NaN,-1.043741,0.0003982529,NaN,0.4306566,-14.27955,NaN,-2.182041,-1.462864,-0.4000244,14.10526,NaN,NaN,-0.02031396,0.8231589,2.374902E-07,1.024552,-1.174355E-10,1.406176
568.4919,-0.1355541,0.0004874356,NaN,-1.046878,0.0003985555,NaN,0.4309565,-14.28123,NaN,-2.181999,-1.470082,-0.3994563,14.11327,NaN,NaN,-0.02030824,0.8217249,2.279535E-07,1.035239,-7.134819E-10,1.418067
568.5078,-0.1333177,0.0004884228,NaN,-1.049775,0.0003985313,NaN,0.4312465,-14.27904,NaN,-2.182007,-1.477152,-0.3989253,14.12059,NaN,NaN,-0.02030268,0.8240829,2.184167E-07,1.045543,-2.203598E-09,1.408486
568.5238,-0.1310869,0.0004889959,NaN,-1.05175,0.0003990512,NaN,0.4315927,-14.27871,NaN,-2.181847,-1.46765,-0.3981821,14.11028,NaN,NaN,-0.02029669,0.82426,2.136484E-07,1.031543,-1.607552E-09,1.402437
568.5376,-0.1310869,0.0004889959,NaN,-1.05175,0.0003990512,NaN,0.4315927,-14.27871,NaN,-2.181847,-1.46765,-0.3981821,14.11028,NaN,NaN,-0.02029669,0.82426,2.136484E-07,1.031543,-1.607552E-09,1.402437
568.5519,-0.1288586,0.0004888216,NaN,-1.053161,0.0003992706,NaN,0.431889,-14.27919,NaN,-2.181657,-1.462264,-0.3974758,14.10451,NaN,NaN,-0.02029092,0.8236398,2.08284E-07,1.023629,1.968727E-09,1.402053
568.5675,-0.1266362,0.0004884719,NaN,-1.054224,0.0003994618,NaN,0.4321551,-14.27947,NaN,-2.18148,-1.462707,-0.3968243,14.10501,NaN,NaN,-0.02028538,0.8233894,2.035156E-07,1.024288,-1.011505E-09,1.402812
568.5825,-0.1244245,0.0004882226,NaN,-1.055073,0.0003990647,NaN,0.432413,-14.28124,NaN,-2.181328,-1.471832,-0.3962114,14.1151,NaN,NaN,-0.02028001,0.8219231,1.975551E-07,1.037784,-1.309528E-09,1.415046
568.5975,-0.1244245,0.0004882226,NaN,-1.055073,0.0003990647,NaN,0.432413,-14.28124,NaN,-2.181328,-1.471832,-0.3962114,14.1151,NaN,NaN,-0.02028001,0.8219231,1.975551E-07,1.037784,-1.309528E-09,1.415046
568.6119,-0.1222197,0.000487834,NaN,-1.055046,0.0003990881,NaN,0.4327233,-14.27962,NaN,-2.181004,-1.463571,-0.3953999,14.106,NaN,NaN,-0.02027427,0.8233539,1.969591E-07,1.025597,-1.607551E-09,1.404261
568.6274,-0.1200189,0.0004882057,NaN,-1.054473,0.000398458,NaN,0.4329899,-14.27992,NaN,-2.180643,-1.478553,-0.3946181,14.12219,NaN,NaN,-0.02026871,0.8235343,1.945749E-07,1.047635,-1.905575E-09,1.410711
568.6427,-0.1178435,0.0004884606,NaN,-1.053572,0.000398819,NaN,0.4332397,-14.27982,NaN,-2.18029,-1.464571,-0.3938887,14.10708,NaN,NaN,-0.02026338,0.8234183,1.927868E-07,1.027057,-2.799644E-09,1.406334
568.6576,-0.1178435,0.0004884606,NaN,-1.053572,0.000398819,NaN,0.4332397,-14.27982,NaN,-2.18029,-1.464571,-0.3938887,14.10708,NaN,NaN,-0.02026338,0.8234183,1.927868E-07,1.027057,-2.799644E-09,1.406334
568.6721,-0.1156928,0.0004879533,NaN,-1.051716,0.000398563,NaN,0.4335463,-14.28076,NaN,-2.179762,-1.464909,-0.3929636,14.10756,NaN,NaN,-0.02025768,0.8225073,1.933828E-07,1.027586,-1.45854E-09,1.410593
568.6877,-0.113587,0.0004882763,NaN,-1.04929,0.0003980309,NaN,0.4338236,-14.28183,NaN,-2.179199,-1.476718,-0.3920826,14.1204,NaN,NaN,-0.02025221,0.8217933,1.939788E-07,1.044973,-3.693714E-09,1.421595
568.7025,-0.1115294,0.0004877578,NaN,-1.046532,0.000397329,NaN,0.4340882,-14.28074,NaN,-2.178654,-1.466494,-0.3912596,14.10927,NaN,NaN,-0.02024696,0.8227114,1.904026E-07,1.029926,-3.693714E-09,1.412212
568.7186,-0.1115294,0.0004877578,NaN,-1.046532,0.000397329,NaN,0.4340882,-14.28074,NaN,-2.178654,-1.466494,-0.3912596,14.10927,NaN,NaN,-0.02024696,0.8227114,1.904026E-07,1.029926,-3.693714E-09,1.412212
568.733,-0.1095167,0.0004876399,NaN,-1.043584,0.0003969669,NaN,0.4343537,-14.28059,NaN,-2.17814,-1.469255,-0.3904791,14.11222,NaN,NaN,-0.02024187,0.8229496,1.868263E-07,1.033979,-4.587783E-09,1.412536
568.7476,-0.1075355,0.000487932,NaN,-1.039771,0.0003974557,NaN,0.434677,-14.28115,NaN,-2.177459,-1.464831,-0.3894984,14.10752,NaN,NaN,-0.02023639,0.8223008,1.904026E-07,1.027495,-3.544702E-09,1.414965
568.7626,-0.105599,0.0004882702,NaN,-1.035453,0.0003981297,NaN,0.4349662,-14.28134,NaN,-2.176747,-1.463091,-0.3885607,14.10567,NaN,NaN,-0.02023112,0.8220646,1.927868E-07,1.024947,-3.693714E-09,1.416701
568.7773,-0.105599,0.0004882702,NaN,-1.035453,0.0003981297,NaN,0.4349662,-14.28134,NaN,-2.176747,-1.463091,-0.3885607,14.10567,NaN,NaN,-0.02023112,0.8220646,1.927868E-07,1.024947,-3.693714E-09,1.416701
568.7916,-0.1037072,0.0004887136,NaN,-1.030847,0.0003978295,NaN,0.435237,-14.28232,NaN,-2.176056,-1.476943,-0.3876825,14.1207,NaN,NaN,-0.02022607,0.8215348,1.933828E-07,1.045331,-2.35261E-09,1.423515
568.8074,-0.1018557,0.0004892799,NaN,-1.026085,0.0003971697,NaN,0.435504,-14.28143,NaN,-2.175399,-1.479607,-0.3868492,14.12346,NaN,NaN,-0.02022119,0.8224721,1.951709E-07,1.049219,-3.246679E-09,1.41829
568.8223,-0.1000312,0.0004891229,NaN,-1.020488,0.0003966981,NaN,0.4358237,-14.28085,NaN,-2.174576,-1.467032,-0.3858217,14.10984,NaN,NaN,-0.02021592,0.8228612,2.017274E-07,1.03072,-3.693714E-09,1.406222
568.8374,-0.1000312,0.0004891229,NaN,-1.020488,0.0003966981,NaN,0.4358237,-14.28085,NaN,-2.174576,-1.467032,-0.3858217,14.10984,NaN,NaN,-0.02021592,0.8228612,2.017274E-07,1.03072,-3.693714E-09,1.406222
568.8514,-0.09824603,0.0004895016,NaN,-1.014409,0.0003967545,NaN,0.4361064,-14.28068,NaN,-2.173726,-1.46916,-0.3848408,14.11211,NaN,NaN,-0.02021087,0.8230872,2.070919E-07,1.033845,-4.587784E-09,1.412817
568.8672,-0.09650031,0.0004899577,NaN,-1.008064,0.0003972623,NaN,0.4363688,-14.28203,NaN,-2.172899,-1.465795,-0.3839222,14.10866,NaN,NaN,-0.02020603,0.8216596,2.076879E-07,1.028948,-2.799645E-09,1.416671
568.8835,-0.09479006,0.0004902718,NaN,-1.001583,0.0003969375,NaN,0.436626,-14.28249,NaN,-2.172111,-1.475879,-0.3830512,14.11955,NaN,NaN,-0.02020136,0.8214933,2.0888E-07,1.04377,-3.991738E-09,1.418195
568.8972,-0.09479006,0.0004902718,NaN,-1.001583,0.0003969375,NaN,0.436626,-14.28249,NaN,-2.172111,-1.475879,-0.3830512,14.11955,NaN,NaN,-0.02020136,0.8214933,2.0888E-07,1.04377,-3.991738E-09,1.418195
568.9114,-0.0931027,0.0004897464,NaN,-0.9942859,0.0003964817,NaN,0.4369331,-14.28138,NaN,-2.171159,-1.465429,-0.3819923,14.10819,NaN,NaN,-0.02019632,0.8224044,2.172247E-07,1.028401,-4.587784E-09,1.408442
568.9272,-0.09145004,0.0004900869,NaN,-0.9865251,0.0003965065,NaN,0.4372021,-14.28108,NaN,-2.170184,-1.470783,-0.3809833,14.11392,NaN,NaN,-0.02019149,0.8228493,2.225891E-07,1.036261,-3.842726E-09,1.407199
568.9421,-0.08983226,0.0004902146,NaN,-0.9785154,0.0003967685,NaN,0.43745,-14.28146,NaN,-2.169237,-1.465031,-0.3800389,14.10777,NaN,NaN,-0.02018688,0.8223408,2.291456E-07,1.027824,-2.35261E-09,1.408945
568.957,-0.08983226,0.0004902146,NaN,-0.9785154,0.0003967685,NaN,0.43745,-14.28146,NaN,-2.169237,-1.465031,-0.3800389,14.10777,NaN,NaN,-0.02018688,0.8223408,2.291456E-07,1.027824,-2.35261E-09,1.408945
568.9711,-0.08823803,0.0004904262,NaN,-0.9696265,0.0003972162,NaN,0.4377401,-14.28244,NaN,-2.168131,-1.464444,-0.3789237,14.10727,NaN,NaN,-0.02018194,0.8213495,2.368942E-07,1.027007,-8.624941E-10,1.41361
568.9866,-0.08667816,0.0004898628,NaN,-0.9602417,0.0003970592,NaN,0.4379902,-14.28184,NaN,-2.16701,-1.462767,-0.3778685,14.10539,NaN,NaN,-0.02017724,0.821888,2.434507E-07,1.024523,-8.624941E-10,1.409993
569.0016,-0.08515213,0.0004892926,NaN,-0.9505953,0.0003971537,NaN,0.4382193,-14.28211,NaN,-2.165924,-1.462033,-0.3768842,14.10464,NaN,NaN,-0.02017277,0.8215956,2.47623E-07,1.02346,3.295988E-10,1.410954
569.0168,-0.08515213,0.0004892926,NaN,-0.9505953,0.0003971537,NaN,0.4382193,-14.28211,NaN,-2.165924,-1.462033,-0.3768842,14.10464,NaN,NaN,-0.02017277,0.8215956,2.47623E-07,1.02346,3.295988E-10,1.410954
569.0311,-0.08365596,0.0004891018,NaN,-0.9408302,0.0003976632,NaN,0.4384427,-14.28253,NaN,-2.164887,-1.461466,-0.3759544,14.10408,NaN,NaN,-0.02016846,0.8211573,2.511993E-07,1.022648,1.819715E-09,1.413973
569.0468,-0.08217789,0.0004889246,NaN,-0.9302724,0.0003981264,NaN,0.4387124,-14.2828,NaN,-2.163697,-1.46119,-0.3748505,14.10382,NaN,NaN,-0.0201638,0.8208779,2.613321E-07,1.022257,2.415761E-09,1.414305
569.0618,-0.0807281,0.0004891027,NaN,-0.9192778,0.0003986074,NaN,0.4389433,-14.28378,NaN,-2.162493,-1.463811,-0.3738033,14.10677,NaN,NaN,-0.02015936,0.8199837,2.690807E-07,1.026147,3.011808E-09,1.421703
569.0768,-0.0807281,0.0004891027,NaN,-0.9192778,0.0003986074,NaN,0.4389433,-14.28378,NaN,-2.162493,-1.463811,-0.3738033,14.10677,NaN,NaN,-0.02015936,0.8199837,2.690807E-07,1.026147,3.011808E-09,1.421703
569.0911,-0.07930667,0.0004897669,NaN,-0.9080641,0.0003997692,NaN,0.4391527,-14.28314,NaN,-2.161324,-1.46128,-0.3728254,14.10397,NaN,NaN,-0.02015514,0.8205377,2.756372E-07,1.022409,2.713785E-09,1.421408
569.1067,-0.07791055,0.0004903858,NaN,-0.8967642,0.0003996125,NaN,0.4393559,-14.28373,NaN,-2.160204,-1.476405,-0.3719018,14.12026,NaN,NaN,-0.02015109,0.8204561,2.815977E-07,1.044608,3.905877E-09,1.426487
569.1229,-0.07653633,0.0004905985,NaN,-0.8854599,0.0004001741,NaN,0.4395585,-14.28275,NaN,-2.159131,-1.46239,-0.3710208,14.10512,NaN,NaN,-0.02014716,0.821175,2.839819E-07,1.024033,8.674249E-09,1.41347
569.1365,-0.07653633,0.0004905985,NaN,-0.8854599,0.0004001741,NaN,0.4395585,-14.28275,NaN,-2.159131,-1.46239,-0.3710208,14.10512,NaN,NaN,-0.02014716,0.821175,2.839819E-07,1.024033,8.674249E-09,1.41347
569.1508,-0.07518116,0.0004906714,NaN,-0.874201,0.0003998083,NaN,0.4397619,-14.28498,NaN,-2.158101,-1.473706,-0.3701751,14.11756,NaN,NaN,-0.02014333,0.8193209,2.875582E-07,1.040726,1.19525E-08,1.42873
569.1663,-0.07384291,0.000490725,NaN,-0.8630179,0.0003990728,NaN,0.4399658,-14.2854,NaN,-2.157108,-1.475868,-0.3693606,14.11992,NaN,NaN,-0.0201396,0.8189504,2.905384E-07,1.043901,1.165448E-08,1.429987
569.1812,-0.07252011,0.0004906834,NaN,-0.851929,0.000398845,NaN,0.4401692,-14.28389,NaN,-2.156147,-1.467385,-0.3685746,14.11067,NaN,NaN,-0.02013598,0.8203114,2.941147E-07,1.031441,1.344262E-08,1.418981
569.1963,-0.07252011,0.0004906834,NaN,-0.851929,0.000398845,NaN,0.4401692,-14.28389,NaN,-2.156147,-1.467385,-0.3685746,14.11067,NaN,NaN,-0.02013598,0.8203114,2.941147E-07,1.031441,1.344262E-08,1.418981
569.2105,-0.07121842,0.0004909077,NaN,-0.8417071,0.0003986487,NaN,0.4403296,-14.28326,NaN,-2.155416,-1.470727,-0.3680224,14.11417,NaN,NaN,-0.0201329,0.8210364,2.923265E-07,1.036319,1.19525E-08,1.418059
569.2264,-0.06992602,0.0004907996,NaN,-0.8320575,0.0003984223,NaN,0.4405283,-14.283,NaN,-2.154768,-1.467277,-0.3674729,14.11043,NaN,NaN,-0.0201298,0.8212145,2.887502E-07,1.031251,1.344262E-08,1.415236
569.2411,-0.06863998,0.0004902188,NaN,-0.8227992,0.0003981549,NaN,0.4407467,-14.28229,NaN,-2.154143,-1.463304,-0.3669101,14.10607,NaN,NaN,-0.02012667,0.8218197,2.887502E-07,1.025397,1.344262E-08,1.409165
569.2562,-0.06863998,0.0004902188,NaN,-0.8227992,0.0003981549,NaN,0.4407467,-14.28229,NaN,-2.154143,-1.463304,-0.3669101,14.10607,NaN,NaN,-0.02012667,0.8218197,2.887502E-07,1.025397,1.344262E-08,1.409165
569.2704,-0.06736707,0.000489992,NaN,-0.8145819,0.0003984488,NaN,0.4409277,-14.28307,NaN,-2.153725,-1.463078,-0.36655,14.10593,NaN,NaN,-0.02012402,0.8210438,2.827898E-07,1.025101,1.284657E-08,1.413483
569.2863,-0.06609839,0.0004897343,NaN,-0.8070357,0.000398769,NaN,0.4411454,-14.28312,NaN,-2.153365,-1.462604,-0.3661741,14.10543,NaN,NaN,-0.02012131,0.820985,2.768293E-07,1.024409,1.225053E-08,1.413414
569.3011,-0.06483281,0.0004896916,NaN,-0.7999327,0.0003992803,NaN,0.4413798,-14.28326,NaN,-2.153008,-1.462088,-0.3657726,14.10489,NaN,NaN,-0.02011856,0.8208281,2.732531E-07,1.02366,1.105844E-08,1.416062
569.3174,-0.06483281,0.0004896916,NaN,-0.7999327,0.0003992803,NaN,0.4413798,-14.28326,NaN,-2.153008,-1.462088,-0.3657726,14.10489,NaN,NaN,-0.02011856,0.8208281,2.732531E-07,1.02366,1.105844E-08,1.416062
569.3315,-0.06357188,0.0004900164,NaN,-0.7931317,0.0003999121,NaN,0.4416154,-14.28423,NaN,-2.152639,-1.463622,-0.3653596,14.10667,NaN,NaN,-0.02011582,0.8199114,2.708689E-07,1.025954,1.165448E-08,1.422376
569.3495,-0.06232392,0.0004899416,NaN,-0.787307,0.0003993839,NaN,0.4418057,-14.28372,NaN,-2.152459,-1.474108,-0.3651489,14.11783,NaN,NaN,-0.02011357,0.8207366,2.637163E-07,1.041294,1.403867E-08,1.420659
569.361,-0.06108157,0.000490363,NaN,-0.7821043,0.00040011,NaN,0.4420297,-14.2843,NaN,-2.152327,-1.464773,-0.3649212,14.10787,NaN,NaN,-0.02011126,0.8199717,2.571598E-07,1.027616,1.463471E-08,1.420989
569.3759,-0.06108157,0.000490363,NaN,-0.7821043,0.00040011,NaN,0.4420297,-14.2843,NaN,-2.152327,-1.464773,-0.3649212,14.10787,NaN,NaN,-0.02011126,0.8199717,2.571598E-07,1.027616,1.463471E-08,1.420989
569.3902,-0.05984382,0.000490669,NaN,-0.7773049,0.0004007804,NaN,0.4422697,-14.28339,NaN,-2.152192,-1.46253,-0.3646649,14.10533,NaN,NaN,-0.0201089,0.8208022,2.529875E-07,1.024289,1.225053E-08,1.41513
569.4058,-0.058612,0.0004909032,NaN,-0.7727734,0.0004014104,NaN,0.442511,-14.28379,NaN,-2.15204,-1.461752,-0.3643932,14.10455,NaN,NaN,-0.02010654,0.8203757,2.488151E-07,1.023164,1.284657E-08,1.417179
569.4211,-0.05739394,0.0004912218,NaN,-0.7691875,0.0004009835,NaN,0.4427074,-14.28382,NaN,-2.152073,-1.475758,-0.364319,14.11956,NaN,NaN,-0.02010465,0.8207898,2.410665E-07,1.043693,1.165448E-08,1.419291
569.436,-0.05739394,0.0004912218,NaN,-0.7691875,0.0004009835,NaN,0.4427074,-14.28382,NaN,-2.152073,-1.475758,-0.364319,14.11956,NaN,NaN,-0.02010465,0.8207898,2.410665E-07,1.043693,1.165448E-08,1.419291
569.4503,-0.05618269,0.0004907901,NaN,-0.7661957,0.0003993369,NaN,0.4429379,-14.28333,NaN,-2.152148,-1.466519,-0.3642235,14.10958,NaN,NaN,-0.0201027,0.8210931,2.333179E-07,1.030126,1.165448E-08,1.415652
569.466,-0.05497709,0.0004909582,NaN,-0.7635806,0.000398545,NaN,0.4431846,-14.28312,NaN,-2.152216,-1.470127,-0.3640955,14.11343,NaN,NaN,-0.02010069,0.8213911,2.273574E-07,1.035417,1.105844E-08,1.415843
569.481,-0.05377814,0.0004904481,NaN,-0.7612076,0.0003975727,NaN,0.4434328,-14.28384,NaN,-2.152261,-1.467062,-0.3639481,14.11023,NaN,NaN,-0.02009868,0.8205962,2.21993E-07,1.030948,1.344262E-08,1.416071
569.4959,-0.05377814,0.0004904481,NaN,-0.7612076,0.0003975727,NaN,0.4434328,-14.28384,NaN,-2.152261,-1.467062,-0.3639481,14.11023,NaN,NaN,-0.02009868,0.8205962,2.21993E-07,1.030948,1.344262E-08,1.416071
569.5101,-0.05259329,0.0004904611,NaN,-0.7597553,0.0003972122,NaN,0.4436361,-14.28317,NaN,-2.152486,-1.469375,-0.3639941,14.11262,NaN,NaN,-0.02009712,0.8213111,2.106681E-07,1.034317,1.403867E-08,1.416267
569.5261,-0.05141595,0.0004898533,NaN,-0.7588727,0.0003966512,NaN,0.4438736,-14.28253,NaN,-2.15275,-1.464924,-0.3640153,14.10776,NaN,NaN,-0.02009549,0.8218333,2.017274E-07,1.027767,1.463471E-08,1.41037
569.541,-0.05024481,0.0004897245,NaN,-0.7583429,0.0003969518,NaN,0.4441274,-14.28278,NaN,-2.153,-1.463379,-0.3640003,14.10613,NaN,NaN,-0.02009379,0.8215315,1.96065E-07,1.025511,1.523076E-08,1.412303
569.5558,-0.05024481,0.0004897245,NaN,-0.7583429,0.0003969518,NaN,0.4441274,-14.28278,NaN,-2.153,-1.463379,-0.3640003,14.10613,NaN,NaN,-0.02009379,0.8215315,1.96065E-07,1.025511,1.523076E-08,1.412303
569.5699,-0.04908644,0.0004897777,NaN,-0.7587875,0.0003974235,NaN,0.4443423,-14.2829,NaN,-2.153423,-1.462815,-0.3641638,14.10554,NaN,NaN,-0.02009252,0.8213847,1.817599E-07,1.02469,1.642285E-08,1.413007
569.5858,-0.04793929,0.0004903047,NaN,-0.759832,0.0003972999,NaN,0.4445941,-14.28434,NaN,-2.153875,-1.475045,-0.364295,14.11888,NaN,NaN,-0.02009116,0.8203344,1.719251E-07,1.042702,1.403867E-08,1.424138
569.6006,-0.04680626,0.0004905461,NaN,-0.7612392,0.0003963713,NaN,0.4448659,-14.28287,NaN,-2.154301,-1.480164,-0.3643826,14.12419,NaN,NaN,-0.02008972,0.821894,1.608983E-07,1.050169,1.403867E-08,1.415666
569.6159,-0.04680626,0.0004905461,NaN,-0.7612392,0.0003963713,NaN,0.4448659,-14.28287,NaN,-2.154301,-1.480164,-0.3643826,14.12419,NaN,NaN,-0.02008972,0.821894,1.608983E-07,1.050169,1.403867E-08,1.415666
569.6302,-0.04568818,0.0004904125,NaN,-0.7628624,0.0003945265,NaN,0.4451415,-14.28223,NaN,-2.15469,-1.474402,-0.3644408,14.11791,NaN,NaN,-0.02008824,0.8224474,1.534477E-07,1.041683,1.344262E-08,1.407072
569.646,-0.0445908,0.0004906987,NaN,-0.7653726,0.0003938834,NaN,0.4453719,-14.28254,NaN,-2.155246,-1.470738,-0.3646862,14.11398,NaN,NaN,-0.02008721,0.8220547,1.415268E-07,1.036299,1.225053E-08,1.412983
569.661,-0.04351344,0.0004907362,NaN,-0.7684152,0.0003938241,NaN,0.4456404,-14.28223,NaN,-2.155826,-1.463627,-0.3648994,14.10627,NaN,NaN,-0.0200861,0.8222016,1.299039E-07,1.025835,1.582681E-08,1.402958
569.6761,-0.04351344,0.0004907362,NaN,-0.7684152,0.0003938241,NaN,0.4456404,-14.28223,NaN,-2.155826,-1.463627,-0.3648994,14.10627,NaN,NaN,-0.0200861,0.8222016,1.299039E-07,1.025835,1.582681E-08,1.402958
569.6904,-0.04245435,0.0004912271,NaN,-0.7717708,0.0003933192,NaN,0.4459287,-14.28389,NaN,-2.15638,-1.477378,-0.3650685,14.12128,NaN,NaN,-0.0200849,0.8209666,1.197711E-07,1.046096,1.582681E-08,1.419083
569.707,-0.04141171,0.0004916152,NaN,-0.7753035,0.0003936559,NaN,0.4462202,-14.28394,NaN,-2.156896,-1.466949,-0.3652071,14.11008,NaN,NaN,-0.02008366,0.8207564,1.096383E-07,1.030789,1.284658E-08,1.413497
569.721,-0.04038996,0.0004920932,NaN,-0.7796907,0.0003931393,NaN,0.446465,-14.28389,NaN,-2.15758,-1.479014,-0.3655334,14.123,NaN,NaN,-0.02008287,0.82113,9.622723E-08,1.04847,1.582681E-08,1.419535
569.7358,-0.04038996,0.0004920932,NaN,-0.7796907,0.0003931393,NaN,0.446465,-14.28389,NaN,-2.15758,-1.479014,-0.3655334,14.123,NaN,NaN,-0.02008287,0.82113,9.622723E-08,1.04847,1.582681E-08,1.419535
569.75,-0.03938722,0.000492148,NaN,-0.7845827,0.0003930754,NaN,0.4467476,-14.28248,NaN,-2.158286,-1.466511,-0.3658262,14.1094,NaN,NaN,-0.02008199,0.8223709,8.281618E-08,1.030085,1.523076E-08,1.407755
569.7656,-0.03840129,0.0004927735,NaN,-0.7897626,0.0003925328,NaN,0.4470497,-14.28289,NaN,-2.158965,-1.479567,-0.3660727,14.1235,NaN,NaN,-0.02008101,0.8223545,7.238537E-08,1.049277,1.463472E-08,1.414522
569.7806,-0.03743019,0.0004926967,NaN,-0.7950962,0.0003920608,NaN,0.4473552,-14.28219,NaN,-2.159603,-1.46824,-0.3662864,14.11122,NaN,NaN,-0.02007999,0.822921,6.284863E-08,1.032611,1.225053E-08,1.403038
569.796,-0.03743019,0.0004926967,NaN,-0.7950962,0.0003920608,NaN,0.4473552,-14.28219,NaN,-2.159603,-1.46824,-0.3662864,14.11122,NaN,NaN,-0.02007999,0.822921,6.284863E-08,1.032611,1.225053E-08,1.403038
569.8113,-0.03647852,0.0004930638,NaN,-0.801262,0.0003924032,NaN,0.4476127,-14.2822,NaN,-2.160406,-1.467375,-0.366688,14.11028,NaN,NaN,-0.02007942,0.8229284,4.615933E-08,1.031337,1.225053E-08,1.40798
569.8257,-0.03554412,0.0004934621,NaN,-0.8079113,0.0003928653,NaN,0.4479081,-14.28331,NaN,-2.16123,-1.466687,-0.3670543,14.10968,NaN,NaN,-0.02007875,0.8218392,3.155619E-08,1.030367,1.165448E-08,1.412839
569.8406,-0.03462475,0.0004933657,NaN,-0.8148277,0.0003926935,NaN,0.4482235,-14.28152,NaN,-2.162023,-1.46862,-0.3673718,14.11151,NaN,NaN,-0.02007798,0.8236928,2.231747E-08,1.03313,8.674251E-09,1.403806
569.8557,-0.03462475,0.0004933657,NaN,-0.8148277,0.0003926935,NaN,0.4482235,-14.28152,NaN,-2.162023,-1.46862,-0.3673718,14.11151,NaN,NaN,-0.02007798,0.8236928,2.231747E-08,1.03313,8.674251E-09,1.403806
569.8701,-0.0337249,0.0004934711,NaN,-0.822639,0.0003923734,NaN,0.4484971,-14.28352,NaN,-2.162976,-1.472709,-0.3678663,14.11617,NaN,NaN,-0.02007763,0.8218348,5.032124E-09,1.039218,9.270297E-09,1.413147
569.8858,-0.0328418,0.000493504,NaN,-0.8309652,0.0003925323,NaN,0.4488105,-14.28254,NaN,-2.163942,-1.465649,-0.3683173,14.10846,NaN,NaN,-0.02007714,0.8226765,-8.676944E-09,1.028819,8.674251E-09,1.405385
569.9006,-0.03197294,0.0004936789,NaN,-0.8395705,0.0003919872,NaN,0.4491439,-14.2842,NaN,-2.164868,-1.476329,-0.3687137,14.12018,NaN,NaN,-0.02007655,0.8213438,-2.149194E-08,1.044579,9.866343E-09,1.417375
569.9156,-0.03197294,0.0004936789,NaN,-0.8395705,0.0003919872,NaN,0.4491439,-14.2842,NaN,-2.164868,-1.476329,-0.3687137,14.12018,NaN,NaN,-0.02007655,0.8213438,-2.149194E-08,1.044579,9.866343E-09,1.417375
569.93,-0.03111638,0.0004941387,NaN,-0.8483087,0.0003926858,NaN,0.4494801,-14.28268,NaN,-2.165745,-1.465966,-0.3690705,14.10886,NaN,NaN,-0.02007591,0.8226938,-3.192276E-08,1.029327,8.078204E-09,1.405943
569.9456,-0.03027735,0.0004944528,NaN,-0.8578514,0.0003932911,NaN,0.4497653,-14.28298,NaN,-2.166777,-1.464157,-0.3696154,14.10695,NaN,NaN,-0.02007571,0.8223538,-4.801601E-08,1.02668,8.674251E-09,1.40692
569.9605,-0.02945302,0.0004945426,NaN,-0.8678458,0.0003936681,NaN,0.4500883,-14.28363,NaN,-2.167822,-1.464004,-0.370121,14.10687,NaN,NaN,-0.0200754,0.8217082,-6.172507E-08,1.026484,7.482158E-09,1.407846
569.9755,-0.02945302,0.0004945426,NaN,-0.8678458,0.0003936681,NaN,0.4500883,-14.28363,NaN,-2.167822,-1.464004,-0.370121,14.10687,NaN,NaN,-0.0200754,0.8217082,-6.172507E-08,1.026484,7.482158E-09,1.407846
569.9898,-0.0286411,0.0004943119,NaN,-0.8780732,0.0003938817,NaN,0.4504318,-14.28306,NaN,-2.168829,-1.463101,-0.3705727,14.10581,NaN,NaN,-0.02007498,0.8222629,-7.603019E-08,1.025131,8.972274E-09,1.404147
570.0054,-0.02783993,0.0004945018,NaN,-0.888398,0.0003937105,NaN,0.4507791,-14.28475,NaN,-2.169786,-1.473615,-0.370984,14.11736,NaN,NaN,-0.0200745,0.8209141,-8.616298E-08,1.04065,7.184134E-09,1.417767
570.0204,-0.02705536,0.0004950051,NaN,-0.8994982,0.0003944946,NaN,0.4510744,-14.2843,NaN,-2.170899,-1.465435,-0.3715862,14.10852,NaN,NaN,-0.02007447,0.8212031,-1.028523E-07,1.028635,7.482157E-09,1.413095
570.0355,-0.02705536,0.0004950051,NaN,-0.8994982,0.0003944946,NaN,0.4510744,-14.2843,NaN,-2.170899,-1.465435,-0.3715862,14.10852,NaN,NaN,-0.02007447,0.8212031,-1.028523E-07,1.028635,7.482157E-09,1.413095
570.0497,-0.02628426,0.0004953405,NaN,-0.9110256,0.0003947896,NaN,0.4514086,-14.28452,NaN,-2.172024,-1.46845,-0.3721482,14.11178,NaN,NaN,-0.02007433,0.821074,-1.141772E-07,1.033067,5.992041E-09,1.41351
570.0655,-0.02552434,0.0004950243,NaN,-0.9227641,0.0003948028,NaN,0.4517643,-14.28304,NaN,-2.17311,-1.463705,-0.3726544,14.10649,NaN,NaN,-0.02007407,0.8224205,-1.243099E-07,1.02605,5.097971E-09,1.404516
570.0806,-0.02477407,0.0004945765,NaN,-0.9345797,0.0003939107,NaN,0.4521247,-14.28399,NaN,-2.174144,-1.476216,-0.3731181,14.12008,NaN,NaN,-0.02007374,0.8218682,-1.350388E-07,1.044472,5.992041E-09,1.411362
570.0957,-0.02477407,0.0004945765,NaN,-0.9345797,0.0003939107,NaN,0.4521247,-14.28399,NaN,-2.174144,-1.476216,-0.3731181,14.12008,NaN,NaN,-0.02007374,0.8218682,-1.350388E-07,1.044472,5.992041E-09,1.411362
570.1108,-0.02403986,0.0004946478,NaN,-0.9471517,0.0003942968,NaN,0.4524316,-14.28307,NaN,-2.175333,-1.466054,-0.373775,14.10905,NaN,NaN,-0.02007387,0.8226019,-1.51132E-07,1.029525,5.097971E-09,1.40433
570.1255,-0.02331813,0.0004948806,NaN,-0.9601328,0.0003940736,NaN,0.452778,-14.28475,NaN,-2.176533,-1.474075,-0.3743906,14.11791,NaN,NaN,-0.02007387,0.8211669,-1.678213E-07,1.04138,4.501925E-09,1.417656
570.1403,-0.02260654,0.0004949807,NaN,-0.9733074,0.0003943384,NaN,0.4531467,-14.28314,NaN,-2.177692,-1.465904,-0.3749482,14.10893,NaN,NaN,-0.02007375,0.8226026,-1.779541E-07,1.029342,3.157696E-11,1.406433
570.1555,-0.02260654,0.0004949807,NaN,-0.9733074,0.0003943384,NaN,0.4531467,-14.28314,NaN,-2.177692,-1.465904,-0.3749482,14.10893,NaN,NaN,-0.02007375,0.8226026,-1.779541E-07,1.029342,3.157696E-11,1.406433
570.1694,-0.02191141,0.0004947331,NaN,-0.9873039,0.0003944495,NaN,0.4534684,-14.28357,NaN,-2.179002,-1.464511,-0.3756889,14.10749,NaN,NaN,-0.02007407,0.8221371,-1.958355E-07,1.027312,1.521693E-09,1.40669
570.1855,-0.02122836,0.0004945204,NaN,-1.001744,0.0003948358,NaN,0.4538319,-14.28382,NaN,-2.180316,-1.462705,-0.3763804,14.10557,NaN,NaN,-0.02007424,0.8218294,-2.125248E-07,1.024669,2.564774E-09,1.408966
570.2,-0.02055481,0.0004943279,NaN,-1.016392,0.0003952241,NaN,0.4542181,-14.28461,NaN,-2.181581,-1.462856,-0.377008,14.10584,NaN,NaN,-0.02007427,0.8210537,-2.244458E-07,1.024925,-8.624927E-10,1.411028
570.2153,-0.02055481,0.0004943279,NaN,-1.016392,0.0003952241,NaN,0.4542181,-14.28461,NaN,-2.181581,-1.462856,-0.377008,14.10584,NaN,NaN,-0.02007427,0.8210537,-2.244458E-07,1.024925,-8.624927E-10,1.411028
570.2295,-0.01988928,0.0004941886,NaN,-1.031102,0.0003956596,NaN,0.4546091,-14.28387,NaN,-2.182786,-1.462476,-0.3775867,14.10532,NaN,NaN,-0.02007423,0.821774,-2.375588E-07,1.024331,1.805885E-10,1.409671
570.2454,-0.01923923,0.0004942162,NaN,-1.046547,0.0003962205,NaN,0.4549318,-14.28392,NaN,-2.183869,-1.462154,-0.3783855,14.10497,NaN,NaN,-0.02007432,0.8217092,-2.453074E-07,1.023859,7.76635E-10,1.410631
570.2603,-0.01859991,0.0004944912,NaN,-1.062375,0.000396896,NaN,0.4552856,-14.28482,NaN,-2.18444,-1.462588,-0.3791682,14.10556,NaN,NaN,-0.02007392,0.8208202,-2.476916E-07,1.024537,-7.879869E-10,1.415129
570.2764,-0.01859991,0.0004944912,NaN,-1.062375,0.000396896,NaN,0.4552856,-14.28482,NaN,-2.18444,-1.462588,-0.3791682,14.10556,NaN,NaN,-0.02007392,0.8208202,-2.476916E-07,1.024537,-7.879869E-10,1.415129
570.2895,-0.01796884,0.0004948669,NaN,-1.078368,0.0003964902,NaN,0.4556698,-14.28525,NaN,-2.18452,-1.477242,-0.3798893,14.12134,NaN,NaN,-0.02007331,0.8208544,-2.464995E-07,1.046044,-1.942827E-09,1.421153
570.3061,-0.01734478,0.0004955479,NaN,-1.094391,0.0003964582,NaN,0.4560746,-14.28667,NaN,-2.184312,-1.475555,-0.3805417,14.11968,NaN,NaN,-0.02007272,0.8194067,-2.464995E-07,1.043601,-1.9242E-09,1.427443
570.32,-0.01673592,0.0004960588,NaN,-1.111122,0.0003967309,NaN,0.4564354,-14.28472,NaN,-2.184232,-1.470499,-0.3813654,14.11403,NaN,NaN,-0.02007275,0.8212581,-2.524599E-07,1.036142,-3.209426E-09,1.416283
570.3349,-0.01673592,0.0004960588,NaN,-1.111122,0.0003967309,NaN,0.4564354,-14.28472,NaN,-2.184232,-1.470499,-0.3813654,14.11403,NaN,NaN,-0.02007275,0.8212581,-2.524599E-07,1.036142,-3.209426E-09,1.416283
570.349,-0.01613677,0.0004963566,NaN,-1.128216,0.0003969265,NaN,0.4568417,-14.28456,NaN,-2.184189,-1.469237,-0.3821283,14.11266,NaN,NaN,-0.02007269,0.8213826,-2.584204E-07,1.034286,-6.003393E-09,1.414904
570.3647,-0.01554482,0.0004963022,NaN,-1.145456,0.0003968402,NaN,0.4572726,-14.28455,NaN,-2.184139,-1.468205,-0.3828171,14.11154,NaN,NaN,-0.02007249,0.821359,-2.66169E-07,1.032773,-4.736795E-09,1.414083
570.3797,-0.01554482,0.0004963022,NaN,-1.145456,0.0003968402,NaN,0.4572726,-14.28455,NaN,-2.184139,-1.468205,-0.3828171,14.11154,NaN,NaN,-0.02007249,0.821359,-2.66169E-07,1.032773,-4.736795E-09,1.414083
570.3942,-0.01496818,0.0004957876,NaN,-1.16347,0.0003956559,NaN,0.4576549,-14.28445,NaN,-2.184287,-1.4784,-0.3836812,14.12248,NaN,NaN,-0.02007273,0.8217183,-2.745136E-07,1.047732,-4.28976E-09,1.418919
570.41,-0.01440041,0.0004961597,NaN,-1.181883,0.0003958192,NaN,0.4580767,-14.28443,NaN,-2.184414,-1.470936,-0.3844908,14.11444,NaN,NaN,-0.02007273,0.8215943,-2.816662E-07,1.036765,-4.140748E-09,1.420251
570.425,-0.01383884,0.0004960399,NaN,-1.200458,0.0003958682,NaN,0.4585207,-14.28446,NaN,-2.184443,-1.465562,-0.3852281,14.10865,NaN,NaN,-0.02007253,0.82143,-2.864346E-07,1.028872,-3.097667E-09,1.414913
570.4399,-0.01383884,0.0004960399,NaN,-1.200458,0.0003958682,NaN,0.4585207,-14.28446,NaN,-2.184443,-1.465562,-0.3852281,14.10865,NaN,NaN,-0.02007253,0.82143,-2.864346E-07,1.028872,-3.097667E-09,1.414913
570.4543,-0.01328255,0.0004955267,NaN,-1.21905,0.0003958494,NaN,0.4589712,-14.28389,NaN,-2.184386,-1.462874,-0.385904,14.10568,NaN,NaN,-0.02007224,0.8219102,-2.888187E-07,1.024899,-2.203597E-09,1.407882
570.4701,-0.012741,0.0004951347,NaN,-1.238331,0.0003960903,NaN,0.4593672,-14.28479,NaN,-2.184497,-1.4633,-0.3867626,14.10625,NaN,NaN,-0.02007245,0.8210231,-2.977594E-07,1.025561,-1.607551E-09,1.411536
570.4849,-0.01220698,0.0004945634,NaN,-1.257951,0.0003962393,NaN,0.4598008,-14.28442,NaN,-2.184591,-1.462323,-0.3875698,14.10515,NaN,NaN,-0.02007245,0.8213506,-3.04912E-07,1.024109,1.805884E-10,1.408471
570.5008,-0.01167799,0.0004940451,NaN,-1.277694,0.0003965309,NaN,0.4602564,-14.28444,NaN,-2.184603,-1.461995,-0.388306,14.10479,NaN,NaN,-0.02007228,0.8213171,-3.078922E-07,1.023625,-1.174348E-10,1.410632
570.5148,-0.01167799,0.0004940451,NaN,-1.277694,0.0003965309,NaN,0.4602564,-14.28444,NaN,-2.184603,-1.461995,-0.388306,14.10479,NaN,NaN,-0.02007228,0.8213171,-3.078922E-07,1.023625,-1.174348E-10,1.410632
570.5291,-0.01115335,0.0004940553,NaN,-1.297423,0.0003972015,NaN,0.4607185,-14.28514,NaN,-2.184543,-1.461703,-0.3889816,14.10456,NaN,NaN,-0.02007202,0.820602,-3.084883E-07,1.023226,-4.15458E-10,1.415848
570.5449,-0.01064314,0.0004934018,NaN,-1.31781,0.0003971464,NaN,0.4611267,-14.2841,NaN,-2.18466,-1.461995,-0.3898381,14.10472,NaN,NaN,-0.02007224,0.8216404,-3.144488E-07,1.023603,1.372681E-09,1.408744
570.5597,-0.01064314,0.0004934018,NaN,-1.31781,0.0003971464,NaN,0.4611267,-14.2841,NaN,-2.18466,-1.461995,-0.3898381,14.10472,NaN,NaN,-0.02007224,0.8216404,-3.144488E-07,1.023603,1.372681E-09,1.408744
570.5742,-0.01013916,0.0004931673,NaN,-1.338513,0.0003963463,NaN,0.461571,-14.28469,NaN,-2.184761,-1.476918,-0.3906443,14.12084,NaN,NaN,-0.02007226,0.8215351,-3.156408E-07,1.045532,-1.011504E-09,1.415899
570.5899,-0.009639036,0.0004924611,NaN,-1.359319,0.0003959522,NaN,0.4620363,-14.28485,NaN,-2.184779,-1.462867,-0.3913805,14.10575,NaN,NaN,-0.02007209,0.8211393,-3.162369E-07,1.024906,-3.39569E-09,1.413547
570.605,-0.009142343,0.0004919049,NaN,-1.380095,0.0003955674,NaN,0.4625077,-14.28433,NaN,-2.184723,-1.467894,-0.3920561,14.11109,NaN,NaN,-0.02007183,0.821814,-3.17429E-07,1.03227,-2.203597E-09,1.405757
570.6201,-0.008472296,0.0004917374,NaN,-1.388153,0.0003959789,NaN,0.4638601,-14.28416,NaN,-2.181135,-1.463559,-0.3888144,14.10641,NaN,NaN,-0.02006297,0.8218584,-2.059683E-07,1.025909,-4.587783E-09,1.408974
570.635,-0.008472296,0.0004917374,NaN,-1.388153,0.0003959789,NaN,0.4638601,-14.28416,NaN,-2.181135,-1.463559,-0.3888144,14.10641,NaN,NaN,-0.02006297,0.8218584,-2.059683E-07,1.025909,-4.587783E-09,1.408974
570.6495,-0.00773759,0.0004914235,NaN,-1.388331,0.0003961807,NaN,0.4644556,-14.28473,NaN,-2.177531,-1.463907,-0.3857716,14.10687,NaN,NaN,-0.02005719,0.8212996,-1.475558E-07,1.026454,1.805884E-10,1.411827
570.6652,-0.00694211,0.0004915304,NaN,-1.383685,0.0003967781,NaN,0.4644961,-14.28509,NaN,-2.174388,-1.462709,-0.3834412,14.10564,NaN,NaN,-0.02005314,0.820904,-1.153693E-07,1.024718,-3.39569E-09,1.415475
570.6801,-0.006176196,0.0004917317,NaN,-1.376114,0.0003974024,NaN,0.4643829,-14.28525,NaN,-2.171755,-1.462169,-0.3816015,14.10509,NaN,NaN,-0.0200501,0.8207176,-9.331554E-08,1.023938,-2.799644E-09,1.416377
570.6953,-0.006176196,0.0004917317,NaN,-1.376114,0.0003974024,NaN,0.4643829,-14.28525,NaN,-2.171755,-1.462169,-0.3816015,14.10509,NaN,NaN,-0.0200501,0.8207176,-9.331554E-08,1.023938,-2.799644E-09,1.416377
570.7097,-0.005468779,0.0004918642,NaN,-1.366793,0.0003979577,NaN,0.4642889,-14.28554,NaN,-2.169548,-1.461664,-0.3800442,14.10459,NaN,NaN,-0.02004751,0.8204061,-7.185787E-08,1.023214,-4.587783E-09,1.416632
570.7251,-0.004816016,0.0004924037,NaN,-1.356443,0.0003977758,NaN,0.4642548,-14.28517,NaN,-2.167661,-1.475264,-0.378651,14.11911,NaN,NaN,-0.02004511,0.8212184,-5.576462E-08,1.043133,-6.375922E-09,1.42024
570.7415,-0.004204936,0.0004925957,NaN,-1.345507,0.0003980209,NaN,0.464273,-14.28518,NaN,-2.166004,-1.465487,-0.377362,14.10861,NaN,NaN,-0.02004283,0.8210236,-3.967136E-08,1.028786,-8.760108E-09,1.416026
570.7554,-0.004204936,0.0004925957,NaN,-1.345507,0.0003980209,NaN,0.464273,-14.28518,NaN,-2.166004,-1.465487,-0.377362,14.10861,NaN,NaN,-0.02004283,0.8210236,-3.967136E-08,1.028786,-8.760108E-09,1.416026
570.7694,-0.003623275,0.0004921988,NaN,-1.334258,0.0003979884,NaN,0.464334,-14.28488,NaN,-2.164511,-1.463005,-0.3761564,14.1059,NaN,NaN,-0.02004063,0.8212483,-2.59623E-08,1.025132,-8.760108E-09,1.412326
570.7852,-0.003061946,0.0004917868,NaN,-1.322865,0.0003979256,NaN,0.4644246,-14.2848,NaN,-2.163134,-1.465145,-0.3750073,14.10818,NaN,NaN,-0.0200385,0.821394,-9.272995E-09,1.028267,-8.760108E-09,1.412781
570.8001,-0.002514845,0.0004914654,NaN,-1.311434,0.0003982388,NaN,0.464531,-14.28492,NaN,-2.161841,-1.462836,-0.3739042,14.10571,NaN,NaN,-0.02003642,0.821191,4.436073E-09,1.024884,-1.054825E-08,1.412585
570.8154,-0.002514845,0.0004914654,NaN,-1.311434,0.0003982388,NaN,0.464531,-14.28492,NaN,-2.161841,-1.462836,-0.3739042,14.10571,NaN,NaN,-0.02003642,0.821191,4.436073E-09,1.024884,-1.054825E-08,1.412585
570.8297,-0.001978057,0.000491698,NaN,-1.300029,0.0003989797,NaN,0.4646446,-14.28508,NaN,-2.160612,-1.462398,-0.372842,14.10526,NaN,NaN,-0.0200344,0.821013,1.814514E-08,1.024247,-1.114429E-08,1.413893
570.8455,-0.001449106,0.0004919212,NaN,-1.288689,0.000399051,NaN,0.4640396,-14.28666,NaN,-2.159352,-1.470066,-0.3709157,14.11371,NaN,NaN,-0.0200297,0.8196728,6.940513E-08,1.035566,-9.356155E-09,1.424372
570.8605,-0.0009264888,0.0004920652,NaN,-1.277439,0.0003995022,NaN,0.4626094,-14.2853,NaN,-2.158119,-1.46394,-0.3691576,14.10697,NaN,NaN,-0.02002553,0.8208765,1.164928E-07,1.026544,-5.779876E-09,1.414964
570.8755,-0.0009264888,0.0004920652,NaN,-1.277439,0.0003995022,NaN,0.4626094,-14.2853,NaN,-2.158119,-1.46394,-0.3691576,14.10697,NaN,NaN,-0.02002553,0.8208765,1.164928E-07,1.026544,-5.779876E-09,1.414964
570.8912,-0.0004092793,0.0004924595,NaN,-1.266292,0.0004001973,NaN,0.460729,-14.2864,NaN,-2.156939,-1.463665,-0.3676435,14.10682,NaN,NaN,-0.02002204,0.8197689,1.546398E-07,1.026187,-5.18383E-09,1.421181
570.9056,0.0001030912,0.000492566,NaN,-1.255259,0.0003996293,NaN,0.4586478,-14.28746,NaN,-2.155814,-1.476375,-0.3662898,14.12057,NaN,NaN,-0.020019,0.8190968,1.874223E-07,1.04485,-5.779876E-09,1.425444
570.9208,0.000610987,0.0004920595,NaN,-1.244342,0.0003991079,NaN,0.4557615,-14.28609,NaN,-2.154656,-1.466071,-0.3641314,14.10939,NaN,NaN,-0.02001348,0.8202896,2.595439E-07,1.029728,-5.18383E-09,1.414802
570.9355,0.000610987,0.0004920595,NaN,-1.244342,0.0003991079,NaN,0.4557615,-14.28609,NaN,-2.154656,-1.466071,-0.3641314,14.10939,NaN,NaN,-0.02001348,0.8202896,2.595439E-07,1.029728,-5.18383E-09,1.414802
570.9498,0.001114592,0.0004917447,NaN,-1.233546,0.0003985521,NaN,0.4520297,-14.28589,NaN,-2.153527,-1.470478,-0.3621794,14.11409,NaN,NaN,-0.0200086,0.8206052,3.227248E-07,1.036188,-4.587783E-09,1.412477
