JMolnar6/NonAnthroHands_User_Study/HandsLoggerWithURDF/tempdata/files/Reachy_JointMotion_gesture_12_58.csv
Time,r_shoulder,r_shoulder_x,r_upper_arm,r_forearm,r_wrist,r_wrist2hand,
1075.33,-0.673216,0.001009853,NaN,-0.6680089,0.002186808,NaN,0.1083564,-14.93502,NaN,-0.6508242,-1.478757,0.08657395,14.13938,NaN,NaN,0.1326228,0.8086883,-2.072407E-06,1.084239,-3.487382E-09,1.346745
1075.346,-0.6688369,0.001009509,NaN,-0.6641822,0.002186341,NaN,0.1074618,-14.93383,NaN,-0.6493066,-1.467489,0.08831358,14.12746,NaN,NaN,0.1327394,0.8098841,-2.065255E-06,1.067919,-1.103197E-09,1.336969
1075.36,-0.6643755,0.001010035,NaN,-0.6602786,0.002186959,NaN,0.1064958,-14.93451,NaN,-0.6477784,-1.480418,0.09025724,14.1411,NaN,NaN,0.1328539,0.8093249,-2.060486E-06,1.086669,-2.29529E-09,1.345444
1075.375,-0.6643755,0.001010035,NaN,-0.6602786,0.002186959,NaN,0.1064958,-14.93451,NaN,-0.6477784,-1.480418,0.09025724,14.1411,NaN,NaN,0.1328539,0.8093249,-2.060486E-06,1.086669,-2.29529E-09,1.345444
1075.39,-0.6598889,0.001010025,NaN,-0.6563472,0.002187756,NaN,0.1056084,-14.9351,NaN,-0.6462397,-1.481058,0.09221271,14.14181,NaN,NaN,0.1329662,0.8087363,-2.055718E-06,1.087589,-5.275521E-09,1.348278
1075.406,-0.65541,0.001010629,NaN,-0.6524167,0.00218883,NaN,0.1048268,-14.93378,NaN,-0.6446972,-1.475885,0.09411553,14.13626,NaN,NaN,0.1330764,0.8100697,-2.052141E-06,1.080098,-4.679475E-09,1.339354
1075.42,-0.6511869,0.00101062,NaN,-0.6487042,0.002190832,NaN,0.1046913,-14.93371,NaN,-0.6434122,-1.468101,0.09527769,14.12807,NaN,NaN,0.1334658,0.8101327,-2.047373E-06,1.068802,-5.275521E-09,1.338261
1075.435,-0.6511869,0.00101062,NaN,-0.6487042,0.002190832,NaN,0.1046913,-14.93371,NaN,-0.6434122,-1.468101,0.09527769,14.12807,NaN,NaN,0.1334658,0.8101327,-2.047373E-06,1.068802,-5.275521E-09,1.338261
1075.45,-0.6471325,0.001010691,NaN,-0.6451359,0.002190372,NaN,0.1047307,-14.93458,NaN,-0.6421584,-1.479811,0.09613819,14.14047,NaN,NaN,0.1338475,0.8093731,-2.03426E-06,1.085796,-4.679475E-09,1.343944
1075.467,-0.6431958,0.001010755,NaN,-0.6416683,0.002190124,NaN,0.1047788,-14.9344,NaN,-0.6409392,-1.470841,0.09689454,14.13103,NaN,NaN,0.1342216,0.8095751,-2.023531E-06,1.07279,-3.487382E-09,1.340798
1075.48,-0.6393468,0.001010354,NaN,-0.6382754,0.002188423,NaN,0.1047957,-14.93507,NaN,-0.6397501,-1.479712,0.09761754,14.1404,NaN,NaN,0.1345884,0.8089527,-2.012802E-06,1.085651,-4.679475E-09,1.346578
1075.496,-0.6393468,0.001010354,NaN,-0.6382754,0.002188423,NaN,0.1047957,-14.93507,NaN,-0.6397501,-1.479712,0.09761754,14.1404,NaN,NaN,0.1345884,0.8089527,-2.012802E-06,1.085651,-4.679475E-09,1.346578
1075.51,-0.6357954,0.001010286,NaN,-0.6351416,0.002189738,NaN,0.1053352,-14.93381,NaN,-0.6388394,-1.468091,0.09765564,14.1281,NaN,NaN,0.1352295,0.8102403,-1.998497E-06,1.068813,-4.083429E-09,1.337687
1075.525,-0.6324352,0.001010568,NaN,-0.6321751,0.002193823,NaN,0.1059569,-14.93406,NaN,-0.637971,-1.466797,0.09744836,14.12675,NaN,NaN,0.1358579,0.80998,-1.981808E-06,1.066933,-5.275521E-09,1.340026
1075.54,-0.6292033,0.001011276,NaN,-0.629321,0.00219434,NaN,0.1065226,-14.9351,NaN,-0.6371416,-1.476657,0.09718385,14.13722,NaN,NaN,0.1364739,0.8090537,-1.965118E-06,1.081245,-7.063661E-09,1.344329
1075.556,-0.6292033,0.001011276,NaN,-0.629321,0.00219434,NaN,0.1065226,-14.9351,NaN,-0.6371416,-1.476657,0.09718385,14.13722,NaN,NaN,0.1364739,0.8090537,-1.965118E-06,1.081245,-7.063661E-09,1.344329
1075.57,-0.6262894,0.001012103,NaN,-0.6267465,0.002195652,NaN,0.107563,-14.9341,NaN,-0.6365963,-1.46747,0.0962525,14.12749,NaN,NaN,0.1373594,0.8100388,-1.946045E-06,1.067932,-5.871568E-09,1.338436
1075.586,-0.623577,0.001012812,NaN,-0.62435,0.00219611,NaN,0.1086414,-14.93483,NaN,-0.636095,-1.479575,0.09510389,14.14028,NaN,NaN,0.1382274,0.8094306,-1.922203E-06,1.085497,-6.467614E-09,1.345378
1075.602,-0.6209967,0.001013868,NaN,-0.6220708,0.002196066,NaN,0.1096285,-14.93552,NaN,-0.6356316,-1.475734,0.09392624,14.1363,NaN,NaN,0.1390782,0.8087534,-1.897765E-06,1.079923,-9.447847E-09,1.345511
1075.616,-0.6209967,0.001013868,NaN,-0.6220708,0.002196066,NaN,0.1096285,-14.93552,NaN,-0.6356316,-1.475734,0.09392624,14.1363,NaN,NaN,0.1390782,0.8087534,-1.897765E-06,1.079923,-9.447847E-09,1.345511
1075.63,-0.6185071,0.001015089,NaN,-0.619872,0.002194958,NaN,0.1105116,-14.93539,NaN,-0.6351955,-1.481597,0.09277898,14.14243,NaN,NaN,0.1399124,0.8088853,-1.875115E-06,1.088414,-5.871568E-09,1.346126
1075.646,-0.6163095,0.001014509,NaN,-0.6179311,0.002193727,NaN,0.1118598,-14.93487,NaN,-0.6350315,-1.467866,0.09100356,14.12798,NaN,NaN,0.1410118,0.80946,-1.854254E-06,1.068521,-4.083429E-09,1.337322
1075.661,-0.614296,0.001014804,NaN,-0.6161541,0.002193791,NaN,0.1132493,-14.93404,NaN,-0.6349,-1.474807,0.08902887,14.13518,NaN,NaN,0.1420895,0.8103505,-1.827432E-06,1.078581,-3.487382E-09,1.335569
1075.675,-0.614296,0.001014804,NaN,-0.6161541,0.002193791,NaN,0.1132493,-14.93404,NaN,-0.6349,-1.474807,0.08902887,14.13518,NaN,NaN,0.1420895,0.8103505,-1.827432E-06,1.078581,-3.487382E-09,1.335569
1075.69,-0.6124021,0.001015041,NaN,-0.6144837,0.002196015,NaN,0.1145494,-14.9343,NaN,-0.6347967,-1.467185,0.08703771,14.1272,NaN,NaN,0.143146,0.8100706,-1.798821E-06,1.067529,-2.29529E-09,1.338235
1075.706,-0.6105888,0.001015625,NaN,-0.6128852,0.002195494,NaN,0.1157436,-14.93448,NaN,-0.6347126,-1.466663,0.0850891,14.12668,NaN,NaN,0.1441818,0.8098819,-1.773191E-06,1.066782,-2.891336E-09,1.336284
1075.721,-0.6090577,0.001015814,NaN,-0.6115372,0.002195583,NaN,0.1173939,-14.93486,NaN,-0.6348938,-1.479335,0.08252757,14.14003,NaN,NaN,0.1454788,0.8096381,-1.74935E-06,1.085168,-7.063661E-09,1.342338
1075.736,-0.6090577,0.001015814,NaN,-0.6115372,0.002195583,NaN,0.1173939,-14.93486,NaN,-0.6348938,-1.479335,0.08252757,14.14003,NaN,NaN,0.1454788,0.8096381,-1.74935E-06,1.085168,-7.063661E-09,1.342338
1075.751,-0.6077034,0.001015943,NaN,-0.6103469,0.002196959,NaN,0.1190786,-14.93606,NaN,-0.6351005,-1.478829,0.07977945,14.13961,NaN,NaN,0.1467502,0.8084297,-1.718951E-06,1.084431,-6.467615E-09,1.348515
1075.766,-0.606462,0.001016132,NaN,-0.6092576,0.002200402,NaN,0.1206651,-14.9347,NaN,-0.6353291,-1.477324,0.07702831,14.1379,NaN,NaN,0.1479966,0.8097863,-1.689149E-06,1.082252,-4.083429E-09,1.334122
1075.783,-0.6052945,0.001014582,NaN,-0.6082348,0.002202096,NaN,0.1221359,-14.93396,NaN,-0.6355711,-1.472125,0.07433394,14.13237,NaN,NaN,0.1492187,0.8105208,-1.660539E-06,1.074711,6.849423E-10,1.336448
1075.797,-0.6052945,0.001014582,NaN,-0.6082348,0.002202096,NaN,0.1221359,-14.93396,NaN,-0.6355711,-1.472125,0.07433394,14.13237,NaN,NaN,0.1492187,0.8105208,-1.660539E-06,1.074711,6.849423E-10,1.336448
1075.811,-0.6044021,0.001013239,NaN,-0.6074567,0.002205868,NaN,0.1240477,-14.93484,NaN,-0.6360736,-1.466413,0.07104405,14.12644,NaN,NaN,0.1506983,0.8096056,-1.633121E-06,1.066422,8.889589E-11,1.340034
1075.826,-0.6036804,0.001012563,NaN,-0.6068314,0.002208374,NaN,0.1259838,-14.93504,NaN,-0.6365958,-1.465218,0.06758077,14.12521,NaN,NaN,0.1521487,0.8093966,-1.600934E-06,1.06469,1.280989E-09,1.339807
1075.841,-0.6030658,0.00101265,NaN,-0.6063022,0.002210155,NaN,0.1278118,-14.9358,NaN,-0.6371344,-1.478534,0.06412803,14.13926,NaN,NaN,0.1535707,0.8087931,-1.567555E-06,1.083999,-5.071505E-10,1.347055
1075.857,-0.6030658,0.00101265,NaN,-0.6063022,0.002210155,NaN,0.1278118,-14.9358,NaN,-0.6371344,-1.478534,0.06412803,14.13926,NaN,NaN,0.1535707,0.8087931,-1.567555E-06,1.083999,-5.071505E-10,1.347055
1075.871,-0.6027439,0.00101237,NaN,-0.606034,0.002207693,NaN,0.1300493,-14.93609,NaN,-0.6379366,-1.475514,0.06008369,14.13612,NaN,NaN,0.1552464,0.8085012,-1.532389E-06,1.079625,-2.29529E-09,1.347056
1075.887,-0.6026019,0.001013031,NaN,-0.6059271,0.002207938,NaN,0.1322796,-14.93474,NaN,-0.6387589,-1.47282,0.05588189,14.13316,NaN,NaN,0.156889,0.8098435,-1.49305E-06,1.075722,-4.679475E-09,1.337191
1075.902,-0.6025705,0.001012253,NaN,-0.6059198,0.002207341,NaN,0.1343738,-14.93522,NaN,-0.6395963,-1.46697,0.05171061,14.12707,NaN,NaN,0.1584995,0.8093334,-1.459075E-06,1.06724,-1.699243E-09,1.338982
1075.917,-0.6025705,0.001012253,NaN,-0.6059198,0.002207341,NaN,0.1343738,-14.93522,NaN,-0.6395963,-1.46697,0.05171061,14.12707,NaN,NaN,0.1584995,0.8093334,-1.459075E-06,1.06724,-1.699243E-09,1.338982
1075.933,-0.6026061,0.001010684,NaN,-0.6059729,0.00220454,NaN,0.136318,-14.93516,NaN,-0.6404401,-1.465428,0.04763091,14.12544,NaN,NaN,0.1600784,0.8093762,-1.423908E-06,1.065005,-2.29529E-09,1.340621
1075.947,-0.6029073,0.001009645,NaN,-0.606263,0.002203698,NaN,0.1386628,-14.93555,NaN,-0.6415381,-1.464976,0.04299489,14.12501,NaN,NaN,0.1619078,0.8089796,-1.389934E-06,1.064356,-4.083429E-09,1.341407
1075.962,-0.6033697,0.001009247,NaN,-0.6066973,0.002205552,NaN,0.1410075,-14.9363,NaN,-0.6426469,-1.466597,0.03821341,14.12679,NaN,NaN,0.1637013,0.8082485,-1.351787E-06,1.066715,-5.871569E-09,1.347652
1075.978,-0.6033697,0.001009247,NaN,-0.6066973,0.002205552,NaN,0.1410075,-14.9363,NaN,-0.6426469,-1.466597,0.03821341,14.12679,NaN,NaN,0.1637013,0.8082485,-1.351787E-06,1.066715,-5.871569E-09,1.347652
1075.992,-0.6039282,0.0010093,NaN,-0.6072182,0.0022052,NaN,0.1432209,-14.93526,NaN,-0.6437631,-1.465255,0.0334706,14.12527,NaN,NaN,0.1654597,0.8092644,-1.31662E-06,1.064758,-5.275522E-09,1.338595
1076.006,-0.6045429,0.001009576,NaN,-0.6077897,0.002203476,NaN,0.1452863,-14.93598,NaN,-0.6448791,-1.47877,0.02882652,14.13953,NaN,NaN,0.1671835,0.8087052,-1.277877E-06,1.084361,-8.255754E-09,1.344913
1076.022,-0.605414,0.001008252,NaN,-0.6085894,0.002202766,NaN,0.1477426,-14.93487,NaN,-0.6462448,-1.468738,0.02363932,14.12892,NaN,NaN,0.1691552,0.8098194,-1.245094E-06,1.069832,-2.29529E-09,1.33787
1076.037,-0.605414,0.001008252,NaN,-0.6085894,0.002202766,NaN,0.1477426,-14.93487,NaN,-0.6462448,-1.468738,0.02363932,14.12892,NaN,NaN,0.1691552,0.8098194,-1.245094E-06,1.069832,-2.29529E-09,1.33787
1076.051,-0.6064371,0.001006819,NaN,-0.6095249,0.002198439,NaN,0.1501938,-14.9356,NaN,-0.6476165,-1.465977,0.01831556,14.1261,NaN,NaN,0.1710881,0.8090566,-1.204563E-06,1.065839,-7.063662E-09,1.340341
1076.067,-0.6075478,0.001006423,NaN,-0.6105389,0.002196048,NaN,0.1525072,-14.93553,NaN,-0.6489913,-1.478849,0.01304062,14.13959,NaN,NaN,0.1729831,0.8092625,-1.164628E-06,1.084488,-6.467615E-09,1.34429
1076.082,-0.6087067,0.001006633,NaN,-0.6115961,0.002194745,NaN,0.1546659,-14.93547,NaN,-0.6503618,-1.467817,0.007874997,14.12801,NaN,NaN,0.1748409,0.8093209,-1.124693E-06,1.0685,-2.891337E-09,1.341099
1076.097,-0.6087067,0.001006633,NaN,-0.6115961,0.002194745,NaN,0.1546659,-14.93547,NaN,-0.6503618,-1.467817,0.007874997,14.12801,NaN,NaN,0.1748409,0.8093209,-1.124693E-06,1.0685,-2.891337E-09,1.341099
1076.111,-0.6101149,0.001005664,NaN,-0.6128746,0.002193855,NaN,0.1572002,-14.93572,NaN,-0.651979,-1.466167,0.002181896,14.1263,NaN,NaN,0.1769439,0.8090485,-1.084162E-06,1.066109,-4.08343E-09,1.341204
1076.127,-0.6116676,0.001005161,NaN,-0.6142817,0.002194888,NaN,0.159722,-14.93635,NaN,-0.6535985,-1.465684,-0.003638275,14.12586,NaN,NaN,0.1790056,0.8083977,-1.038862E-06,1.065414,-1.103198E-09,1.345532
1076.142,-0.6133005,0.001004907,NaN,-0.6157601,0.00219589,NaN,0.1620989,-14.93754,NaN,-0.6552173,-1.476376,-0.009399406,14.13718,NaN,NaN,0.181027,0.8073297,-9.959469E-07,1.080909,-2.29529E-09,1.354925
1076.157,-0.6133005,0.001004907,NaN,-0.6157601,0.00219589,NaN,0.1620989,-14.93754,NaN,-0.6552173,-1.476376,-0.009399406,14.13718,NaN,NaN,0.181027,0.8073297,-9.959469E-07,1.080909,-2.29529E-09,1.354925
1076.172,-0.6152003,0.001004636,NaN,-0.617475,0.002196721,NaN,0.1648197,-14.93694,NaN,-0.6570866,-1.46691,-0.01568584,14.12723,NaN,NaN,0.1832902,0.8079274,-9.542237E-07,1.067216,-2.29529E-09,1.348325
1076.187,-0.6172522,0.00100524,NaN,-0.6193247,0.002198836,NaN,0.167498,-14.93765,NaN,-0.6589599,-1.477131,-0.02208569,14.13799,NaN,NaN,0.185509,0.8073159,-9.08328E-07,1.082014,-4.08343E-09,1.355551
1076.202,-0.6193863,0.001005914,NaN,-0.6212473,0.002199321,NaN,0.1700056,-14.93717,NaN,-0.6608323,-1.470665,-0.02840852,14.13119,NaN,NaN,0.1876844,0.8077961,-8.677969E-07,1.072661,-4.679476E-09,1.349691
1076.217,-0.6193863,0.001005914,NaN,-0.6212473,0.002199321,NaN,0.1700056,-14.93717,NaN,-0.6608323,-1.470665,-0.02840852,14.13119,NaN,NaN,0.1876844,0.8077961,-8.677969E-07,1.072661,-4.679476E-09,1.349691
1076.231,-0.6215602,0.001007675,NaN,-0.6232049,0.002201204,NaN,0.1723317,-14.93797,NaN,-0.6626956,-1.476675,-0.0345942,14.13755,NaN,NaN,0.1898171,0.8070462,-8.242855E-07,1.081361,-7.659708E-09,1.357021
1076.247,-0.6239746,0.00100854,NaN,-0.6253745,0.002199571,NaN,0.1749946,-14.9361,NaN,-0.6648015,-1.481894,-0.04127143,14.14282,NaN,NaN,0.1921896,0.8089083,-7.825623E-07,1.08891,-6.467615E-09,1.347904
1076.262,-0.6265221,0.001009364,NaN,-0.6276614,0.002197409,NaN,0.1776264,-14.93552,NaN,-0.6669038,-1.475513,-0.04805388,14.13608,NaN,NaN,0.1945155,0.8095115,-7.390509E-07,1.079666,-5.275522E-09,1.348673
1076.277,-0.6265221,0.001009364,NaN,-0.6276614,0.002197409,NaN,0.1776264,-14.93552,NaN,-0.6669038,-1.475513,-0.04805388,14.13608,NaN,NaN,0.1945155,0.8095115,-7.390509E-07,1.079666,-5.275522E-09,1.348673
1076.291,-0.6291379,0.001009831,NaN,-0.630008,0.00219737,NaN,0.1800967,-14.93583,NaN,-0.6689987,-1.472327,-0.05475535,14.13275,NaN,NaN,0.1967959,0.8092037,-6.955395E-07,1.075045,-3.487383E-09,1.350315
1076.307,-0.6317826,0.001010667,NaN,-0.6323798,0.002198368,NaN,0.1823915,-14.936,NaN,-0.671079,-1.467773,-0.06131589,14.12799,NaN,NaN,0.1990316,0.8090149,-6.514321E-07,1.068443,-7.063662E-09,1.350554
1076.322,-0.63466,0.001010654,NaN,-0.6349555,0.002197503,NaN,0.1850151,-14.93603,NaN,-0.6733984,-1.465874,-0.06835697,14.12599,NaN,NaN,0.201505,0.8089704,-6.11497E-07,1.065689,-5.275522E-09,1.34555
1076.337,-0.63466,0.001010654,NaN,-0.6349555,0.002197503,NaN,0.1850151,-14.93603,NaN,-0.6733984,-1.465874,-0.06835697,14.12599,NaN,NaN,0.201505,0.8089704,-6.11497E-07,1.065689,-5.275522E-09,1.34555
1076.351,-0.6376631,0.001010328,NaN,-0.6376412,0.002198362,NaN,0.1876074,-14.93626,NaN,-0.6757101,-1.464936,-0.07549924,14.12503,NaN,NaN,0.20393,0.8087281,-5.667935E-07,1.06433,-2.29529E-09,1.347002
1076.368,-0.6407273,0.001010626,NaN,-0.6403799,0.002198497,NaN,0.1900368,-14.93768,NaN,-0.6780108,-1.474139,-0.08255473,14.13483,NaN,NaN,0.2063074,0.8074306,-5.197058E-07,1.07768,-1.103197E-09,1.357158
1076.382,-0.6438141,0.001009876,NaN,-0.6431377,0.002198194,NaN,0.1922886,-14.93614,NaN,-0.6802936,-1.466358,-0.08946259,14.12654,NaN,NaN,0.2086383,0.8089457,-4.767905E-07,1.066418,3.069128E-09,1.347329
1076.397,-0.6438141,0.001009876,NaN,-0.6431377,0.002198194,NaN,0.1922886,-14.93614,NaN,-0.6802936,-1.466358,-0.08946259,14.12654,NaN,NaN,0.2086383,0.8089457,-4.767905E-07,1.066418,3.069128E-09,1.347329
1076.412,-0.6471289,0.001010606,NaN,-0.6460941,0.002197549,NaN,0.1948553,-14.93729,NaN,-0.6828131,-1.478574,-0.09683723,14.13948,NaN,NaN,0.211205,0.8079351,-4.356633E-07,1.084133,4.857267E-09,1.356706
1076.427,-0.6505636,0.001011234,NaN,-0.6491548,0.002196641,NaN,0.1973882,-14.93782,NaN,-0.6853221,-1.479248,-0.1043076,14.14022,NaN,NaN,0.2137214,0.8074013,-3.885756E-07,1.085106,1.877035E-09,1.359634
1076.442,-0.6540539,0.001011844,NaN,-0.652263,0.002198099,NaN,0.1997555,-14.93645,NaN,-0.6878171,-1.47756,-0.1116846,14.13833,NaN,NaN,0.2161885,0.8087657,-3.438722E-07,1.082663,2.473081E-09,1.346291
1076.457,-0.6540539,0.001011844,NaN,-0.652263,0.002198099,NaN,0.1997555,-14.93645,NaN,-0.6878171,-1.47756,-0.1116846,14.13833,NaN,NaN,0.2161885,0.8087657,-3.438722E-07,1.082663,2.473081E-09,1.346291
1076.471,-0.6577904,0.001010862,NaN,-0.655585,0.00219998,NaN,0.2024066,-14.93602,NaN,-0.6905528,-1.467105,-0.1195278,14.12732,NaN,NaN,0.2188888,0.8092059,-2.997647E-07,1.067513,4.261221E-09,1.347356
1076.487,-0.6616551,0.001010163,NaN,-0.6590177,0.002200927,NaN,0.2049969,-14.93649,NaN,-0.6932802,-1.478782,-0.1274556,14.13961,NaN,NaN,0.2215362,0.8088543,-2.532731E-07,1.084437,1.877035E-09,1.353493
1076.502,-0.6655778,0.001009629,NaN,-0.6624997,0.002204139,NaN,0.2073992,-14.9361,NaN,-0.6959941,-1.467356,-0.1352746,14.12759,NaN,NaN,0.2241318,0.8092488,-2.061855E-07,1.067878,1.877035E-09,1.347663
1076.517,-0.6655778,0.001009629,NaN,-0.6624997,0.002204139,NaN,0.2073992,-14.9361,NaN,-0.6959941,-1.467356,-0.1352746,14.12759,NaN,NaN,0.2241318,0.8092488,-2.061855E-07,1.067878,1.877035E-09,1.347663
1076.531,-0.6695169,0.001009265,NaN,-0.6659946,0.002206554,NaN,0.2096052,-14.93642,NaN,-0.6986868,-1.46638,-0.142924,14.12659,NaN,NaN,0.2266765,0.8089043,-1.602899E-07,1.066463,-5.071508E-10,1.348846
1076.547,-0.6736785,0.001008656,NaN,-0.6696811,0.002207214,NaN,0.2120913,-14.93622,NaN,-0.7016133,-1.478526,-0.151007,14.13929,NaN,NaN,0.2294527,0.8092189,-1.203548E-07,1.084053,-1.699244E-09,1.351427
1076.563,-0.6779514,0.001008538,NaN,-0.6734627,0.002208542,NaN,0.2145327,-14.93619,NaN,-0.7045249,-1.469112,-0.1591699,14.12941,NaN,NaN,0.2321747,0.8092418,-7.386315E-08,1.070406,-1.40122E-09,1.34847
1076.577,-0.6779514,0.001008538,NaN,-0.6734627,0.002208542,NaN,0.2145327,-14.93619,NaN,-0.7045249,-1.469112,-0.1591699,14.12941,NaN,NaN,0.2321747,0.8092418,-7.386315E-08,1.070406,-1.40122E-09,1.34847
1076.591,-0.6822701,0.001008984,NaN,-0.6772823,0.002210774,NaN,0.2168,-14.9366,NaN,-0.7074176,-1.465788,-0.1672232,14.12596,NaN,NaN,0.2348433,0.8087977,-3.094781E-08,1.06559,-2.891337E-09,1.350182
1076.607,-0.6865961,0.001009003,NaN,-0.6811066,0.002209863,NaN,0.2188809,-14.93755,NaN,-0.7102845,-1.478608,-0.175106,14.1395,NaN,NaN,0.2374597,0.8079914,1.733196E-08,1.084172,-4.679476E-09,1.354591
1076.622,-0.6911389,0.001007764,NaN,-0.685116,0.002209508,NaN,0.2212356,-14.93614,NaN,-0.7133821,-1.468023,-0.1834133,14.12828,NaN,NaN,0.2403061,0.8094039,5.965126E-08,1.06885,-2.593313E-09,1.348
1076.637,-0.6911389,0.001007764,NaN,-0.685116,0.002209508,NaN,0.2212356,-14.93614,NaN,-0.7133821,-1.468023,-0.1834133,14.12828,NaN,NaN,0.2403061,0.8094039,5.965126E-08,1.06885,-2.593313E-09,1.348
1076.651,-0.695787,0.001007435,NaN,-0.6892144,0.002210032,NaN,0.2235493,-14.93667,NaN,-0.7164619,-1.466387,-0.1917989,14.12662,NaN,NaN,0.2430969,0.8088487,1.067389E-07,1.066482,-2.891337E-09,1.350053
1076.667,-0.7004752,0.001007678,NaN,-0.6933455,0.002209726,NaN,0.2256911,-14.9376,NaN,-0.71952,-1.478585,-0.2000721,14.1395,NaN,NaN,0.2458331,0.8080409,1.538266E-07,1.084161,-1.40122E-09,1.358184
1076.682,-0.7051655,0.001007983,NaN,-0.6974765,0.002210534,NaN,0.227648,-14.93819,NaN,-0.7225499,-1.478105,-0.2081708,14.13904,NaN,NaN,0.2485156,0.8074436,1.997222E-07,1.083459,-8.05174E-10,1.3608
1076.697,-0.7051655,0.001007983,NaN,-0.6974765,0.002210534,NaN,0.227648,-14.93819,NaN,-0.7225499,-1.478105,-0.2081708,14.13904,NaN,NaN,0.2485156,0.8074436,1.997222E-07,1.083459,-8.05174E-10,1.3608
1076.711,-0.7100695,0.001008142,NaN,-0.7017883,0.002210983,NaN,0.2298671,-14.93651,NaN,-0.7258086,-1.474805,-0.2166816,14.13543,NaN,NaN,0.2514269,0.8091071,2.372731E-07,1.078684,9.829653E-10,1.351102
1076.727,-0.7150744,0.001008273,NaN,-0.7061846,0.002213227,NaN,0.2320462,-14.93644,NaN,-0.7290478,-1.467379,-0.2252678,14.12763,NaN,NaN,0.2542813,0.8091549,2.804865E-07,1.067919,1.579012E-09,1.349824
1076.742,-0.7201146,0.001009059,NaN,-0.710609,0.002212086,NaN,0.2340543,-14.93639,NaN,-0.7322633,-1.466379,-0.2337375,14.12657,NaN,NaN,0.2570798,0.8091912,3.275741E-07,1.066469,4.559244E-09,1.348768
1076.757,-0.7201146,0.001009059,NaN,-0.710609,0.002212086,NaN,0.2340543,-14.93639,NaN,-0.7322633,-1.466379,-0.2337375,14.12657,NaN,NaN,0.2570798,0.8091912,3.275741E-07,1.066469,4.559244E-09,1.348768
1076.771,-0.7253873,0.001010145,NaN,-0.7152293,0.002213318,NaN,0.2362949,-14.93639,NaN,-0.7357117,-1.466922,-0.2426206,14.12713,NaN,NaN,0.2601048,0.8091918,3.701915E-07,1.067253,5.453313E-09,1.348781
1076.787,-0.730769,0.001010787,NaN,-0.7199403,0.00221348,NaN,0.2384711,-14.93738,NaN,-0.7391437,-1.478697,-0.2515697,14.13959,NaN,NaN,0.2630706,0.8083186,4.166831E-07,1.084331,5.900348E-09,1.35834
1076.802,-0.7361884,0.001009846,NaN,-0.7246813,0.002213313,NaN,0.2404573,-14.93719,NaN,-0.7425531,-1.468842,-0.2603886,14.12925,NaN,NaN,0.2659785,0.808517,4.661549E-07,1.070063,6.794418E-09,1.353586
1076.817,-0.7361884,0.001009846,NaN,-0.7246813,0.002213313,NaN,0.2404573,-14.93719,NaN,-0.7425531,-1.468842,-0.2603886,14.12925,NaN,NaN,0.2659785,0.808517,4.661549E-07,1.070063,6.794418E-09,1.353586
1076.831,-0.7416047,0.001009379,NaN,-0.7294173,0.002213139,NaN,0.2422469,-14.93655,NaN,-0.7459325,-1.48048,-0.2690153,14.14136,NaN,NaN,0.2688293,0.809243,5.135406E-07,1.086903,6.04936E-09,1.351484
1076.847,-0.7472316,0.00100914,NaN,-0.7343284,0.002210147,NaN,0.2442687,-14.93632,NaN,-0.7495385,-1.46851,-0.2780241,14.12878,NaN,NaN,0.2719054,0.8095098,5.537738E-07,1.069557,6.94343E-09,1.344585
1076.862,-0.7529521,0.001007965,NaN,-0.7393163,0.002207184,NaN,0.2462458,-14.93655,NaN,-0.7531229,-1.478155,-0.2870958,14.13893,NaN,NaN,0.2749215,0.8093661,5.960931E-07,1.083545,4.857267E-09,1.350106
1076.877,-0.7529521,0.001007965,NaN,-0.7393163,0.002207184,NaN,0.2462458,-14.93655,NaN,-0.7531229,-1.478155,-0.2870958,14.13893,NaN,NaN,0.2749215,0.8093661,5.960931E-07,1.083545,4.857267E-09,1.350106
1076.893,-0.7586994,0.001006416,NaN,-0.7443243,0.002203989,NaN,0.24805,-14.93681,NaN,-0.7566803,-1.480646,-0.296039,14.14156,NaN,NaN,0.2778785,0.8090822,6.410946E-07,1.08715,4.857267E-09,1.350775
1076.907,-0.7644356,0.001004616,NaN,-0.7493203,0.002203517,NaN,0.2496703,-14.93597,NaN,-0.7602039,-1.468413,-0.3047914,14.12865,NaN,NaN,0.2807776,0.8099373,6.837119E-07,1.069421,7.092441E-09,1.342162
1076.922,-0.7703782,0.001003865,NaN,-0.7544863,0.002199352,NaN,0.2515185,-14.93621,NaN,-0.7639513,-1.48118,-0.3139184,14.14208,NaN,NaN,0.283901,0.8097908,7.23647E-07,1.087934,2.249564E-09,1.347672
1076.938,-0.7703782,0.001003865,NaN,-0.7544863,0.002199352,NaN,0.2515185,-14.93621,NaN,-0.7639513,-1.48118,-0.3139184,14.14208,NaN,NaN,0.283901,0.8097908,7.23647E-07,1.087934,2.249564E-09,1.347672
1076.953,-0.7764096,0.001002339,NaN,-0.7597239,0.002196947,NaN,0.253328,-14.93563,NaN,-0.7676755,-1.469122,-0.3231086,14.12936,NaN,NaN,0.2869635,0.8103923,7.665624E-07,1.070447,2.212311E-09,1.341644
1076.967,-0.7824628,0.001001412,NaN,-0.7649773,0.002192191,NaN,0.2549694,-14.93534,NaN,-0.7713708,-1.481381,-0.332169,14.14221,NaN,NaN,0.289966,0.8107692,8.079876E-07,1.088228,-3.468756E-09,1.342191
1076.982,-0.7885002,0.001000962,NaN,-0.7702147,0.002189602,NaN,0.2564312,-14.93732,NaN,-0.7750307,-1.47817,-0.3410365,14.139,NaN,NaN,0.2929097,0.8087839,8.503069E-07,1.08355,-4.902993E-09,1.351728
1076.997,-0.7885002,0.001000962,NaN,-0.7702147,0.002189602,NaN,0.2564312,-14.93732,NaN,-0.7750307,-1.47817,-0.3410365,14.139,NaN,NaN,0.2929097,0.8087839,8.503069E-07,1.08355,-4.902993E-09,1.351728
1077.011,-0.7947424,0.001000711,NaN,-0.7756188,0.002186575,NaN,0.2581114,-14.93613,NaN,-0.7789128,-1.472793,-0.3502682,14.13325,NaN,NaN,0.2960767,0.8099468,8.896459E-07,1.075764,-2.29529E-09,1.345709
1077.027,-0.8010694,0.0009996677,NaN,-0.7810906,0.002185352,NaN,0.2597559,-14.93538,NaN,-0.7827713,-1.472188,-0.3595612,14.13254,NaN,NaN,0.299182,0.8106813,9.310712E-07,1.074882,-3.263865E-09,1.341117
1077.042,-0.8074141,0.0009991755,NaN,-0.7865745,0.002186497,NaN,0.2612358,-14.93609,NaN,-0.7865998,-1.480666,-0.3687221,14.14152,NaN,NaN,0.3022264,0.8100002,9.733905E-07,1.087188,-4.977499E-09,1.345904
1077.057,-0.8074141,0.0009991755,NaN,-0.7865745,0.002186497,NaN,0.2612358,-14.93609,NaN,-0.7865998,-1.480666,-0.3687221,14.14152,NaN,NaN,0.3022264,0.8100002,9.733905E-07,1.087188,-4.977499E-09,1.345904
1077.071,-0.8139821,0.0009984751,NaN,-0.7922393,0.002186981,NaN,0.2629061,-14.93604,NaN,-0.7906547,-1.472043,-0.3782507,14.13245,NaN,NaN,0.3054923,0.8100653,1.013624E-06,1.074678,-7.808719E-09,1.340859
1077.087,-0.8206425,0.0009992068,NaN,-0.7979779,0.002187127,NaN,0.2645185,-14.93676,NaN,-0.7946898,-1.481746,-0.3878321,14.14271,NaN,NaN,0.3086944,0.8093838,1.057731E-06,1.088753,-1.302413E-08,1.348247
1077.102,-0.8273224,0.0009992562,NaN,-0.80373,0.002184765,NaN,0.2659497,-14.93542,NaN,-0.7986969,-1.484058,-0.3972689,14.14502,NaN,NaN,0.3118338,0.8106992,1.10154E-06,1.092114,-1.123599E-08,1.341324
1077.117,-0.8273224,0.0009992562,NaN,-0.80373,0.002184765,NaN,0.2659497,-14.93542,NaN,-0.7986969,-1.484058,-0.3972689,14.14502,NaN,NaN,0.3118338,0.8106992,1.10154E-06,1.092114,-1.123599E-08,1.341324
1077.131,-0.8339817,0.0009991479,NaN,-0.8094622,0.00218383,NaN,0.2671947,-14.93497,NaN,-0.8026682,-1.479664,-0.4064982,14.14035,NaN,NaN,0.3149116,0.811171,1.142072E-06,1.085733,-1.317314E-08,1.340387
1077.148,-0.840844,0.0009983794,NaN,-0.8153565,0.002183529,NaN,0.2686329,-14.93487,NaN,-0.80686,-1.469911,-0.4160655,14.13006,NaN,NaN,0.3182101,0.8112884,1.176642E-06,1.071562,-9.447847E-09,1.335014
1077.161,-0.8477845,0.0009986103,NaN,-0.8213118,0.002185123,NaN,0.2700345,-14.93606,NaN,-0.8110281,-1.481504,-0.4256834,14.14238,NaN,NaN,0.3214443,0.8101773,1.219856E-06,1.0884,-7.063661E-09,1.346515
1077.176,-0.8477845,0.0009986103,NaN,-0.8213118,0.002185123,NaN,0.2700345,-14.93606,NaN,-0.8110281,-1.481504,-0.4256834,14.14238,NaN,NaN,0.3214443,0.8101773,1.219856E-06,1.0884,-7.063661E-09,1.346515
1077.191,-0.8547346,0.000998185,NaN,-0.8272721,0.002186023,NaN,0.2712738,-14.93523,NaN,-0.8151644,-1.482049,-0.4351599,14.14287,NaN,NaN,0.3246151,0.8109935,1.263367E-06,1.089187,-9.149824E-09,1.342986
1077.206,-0.8616568,0.0009985729,NaN,-0.8332067,0.00218666,NaN,0.272341,-14.9349,NaN,-0.819262,-1.476804,-0.4444318,14.13731,NaN,NaN,0.3277237,0.8113471,1.305686E-06,1.081565,-8.553777E-09,1.346656
1077.221,-0.8687795,0.0009985811,NaN,-0.839299,0.002187111,NaN,0.2735987,-14.93525,NaN,-0.8235774,-1.470133,-0.4540361,14.1303,NaN,NaN,0.3310525,0.8109972,1.340406E-06,1.071869,-1.063994E-08,1.345535
1077.236,-0.8687795,0.0009985811,NaN,-0.839299,0.002187111,NaN,0.2735987,-14.93525,NaN,-0.8235774,-1.470133,-0.4540361,14.1303,NaN,NaN,0.3310525,0.8109972,1.340406E-06,1.071869,-1.063994E-08,1.345535
1077.251,-0.8759759,0.0009998624,NaN,-0.8454481,0.002187673,NaN,0.2748266,-14.93669,NaN,-0.8278686,-1.47896,-0.4636919,14.13973,NaN,NaN,0.3343162,0.8096178,1.382576E-06,1.084692,-9.447847E-09,1.355649
1077.266,-0.8831774,0.001001084,NaN,-0.8515986,0.002188687,NaN,0.2758982,-14.93583,NaN,-0.8321271,-1.468412,-0.473206,14.12857,NaN,NaN,0.3375161,0.8105046,1.422213E-06,1.069398,-7.95773E-09,1.34829
1077.281,-0.8903469,0.001001827,NaN,-0.8577201,0.00218867,NaN,0.2768033,-14.93582,NaN,-0.8363458,-1.479953,-0.4825149,14.1407,NaN,NaN,0.3406532,0.8106192,1.460211E-06,1.086141,-6.169591E-09,1.350922
1077.297,-0.8903469,0.001001827,NaN,-0.8577201,0.00218867,NaN,0.2768033,-14.93582,NaN,-0.8363458,-1.479953,-0.4825149,14.1407,NaN,NaN,0.3406532,0.8106192,1.460211E-06,1.086141,-6.169591E-09,1.350922
1077.311,-0.8977159,0.00100255,NaN,-0.8639969,0.002189651,NaN,0.2778912,-14.93569,NaN,-0.8407809,-1.469242,-0.4921477,14.12941,NaN,NaN,0.3440097,0.8107674,1.492994E-06,1.07059,-7.659708E-09,1.348142
1077.326,-0.9051554,0.001003783,NaN,-0.8703273,0.002192446,NaN,0.2789531,-14.936,NaN,-0.8451926,-1.466643,-0.5018306,14.12669,NaN,NaN,0.3473008,0.8104383,1.533823E-06,1.066815,-8.255754E-09,1.350381
1077.342,-0.9125958,0.001004197,NaN,-0.8766559,0.002193887,NaN,0.2798634,-14.93626,NaN,-0.849571,-1.465613,-0.5113704,14.12563,NaN,NaN,0.3505274,0.8101673,1.577782E-06,1.065318,-7.659708E-09,1.348884
1077.356,-0.9125958,0.001004197,NaN,-0.8766559,0.002193887,NaN,0.2798634,-14.93626,NaN,-0.849571,-1.465613,-0.5113704,14.12563,NaN,NaN,0.3505274,0.8101673,1.577782E-06,1.065318,-7.659708E-09,1.348884
1077.371,-0.920254,0.001004621,NaN,-0.8831533,0.002193651,NaN,0.28093,-14.93723,NaN,-0.8541707,-1.478178,-0.5212394,14.13894,NaN,NaN,0.3539717,0.8093445,1.61265E-06,1.083558,-6.467615E-09,1.356831
1077.386,-0.927989,0.001004819,NaN,-0.8897097,0.002194713,NaN,0.2819495,-14.93589,NaN,-0.8587517,-1.468135,-0.5311503,14.12827,NaN,NaN,0.3573489,0.8106856,1.654075E-06,1.069,-7.659708E-09,1.349103
1077.401,-0.935726,0.001005157,NaN,-0.8962654,0.002196512,NaN,0.2828028,-14.93622,NaN,-0.8633021,-1.466453,-0.5409065,14.12653,NaN,NaN,0.3606599,0.8103442,1.694607E-06,1.066561,-6.467615E-09,1.350368
1077.416,-0.935726,0.001005157,NaN,-0.8962654,0.002196512,NaN,0.2828028,-14.93622,NaN,-0.8633021,-1.466453,-0.5409065,14.12653,NaN,NaN,0.3606599,0.8103442,1.694607E-06,1.066561,-6.467615E-09,1.350368
1077.43,-0.9434258,0.001005875,NaN,-0.902789,0.002196967,NaN,0.2834863,-14.93667,NaN,-0.8678129,-1.468196,-0.5504454,14.12841,NaN,NaN,0.3639059,0.8099107,1.734989E-06,1.069094,-7.659708E-09,1.350106
1077.446,-0.9513248,0.001005496,NaN,-0.9094642,0.002196106,NaN,0.2843316,-14.93647,NaN,-0.8725389,-1.470093,-0.5602862,14.13038,NaN,NaN,0.3673693,0.8101319,1.768218E-06,1.071842,-1.242808E-08,1.348976
1077.461,-0.9592874,0.001004893,NaN,-0.916187,0.002194213,NaN,0.2851513,-14.93692,NaN,-0.8772431,-1.48018,-0.5701669,14.14102,NaN,NaN,0.3707651,0.8097512,1.80413E-06,1.086478,-1.362017E-08,1.354049
1077.476,-0.9592874,0.001004893,NaN,-0.916187,0.002194213,NaN,0.2851513,-14.93692,NaN,-0.8772431,-1.48018,-0.5701669,14.14102,NaN,NaN,0.3707651,0.8097512,1.80413E-06,1.086478,-1.362017E-08,1.354049
1077.49,-0.967243,0.001005532,NaN,-0.922902,0.00219572,NaN,0.2858237,-14.93597,NaN,-0.8819134,-1.468763,-0.5798969,14.12895,NaN,NaN,0.3740943,0.8107278,1.844587E-06,1.069926,-1.123599E-08,1.347393
1077.505,-0.975155,0.001005898,NaN,-0.9295799,0.002194745,NaN,0.2863408,-14.93587,NaN,-0.8865415,-1.467569,-0.5894136,14.12768,NaN,NaN,0.3773583,0.8108101,1.884596E-06,1.068194,-9.447847E-09,1.344673
1077.521,-0.9832647,0.00100718,NaN,-0.9364063,0.00219682,NaN,0.2870177,-14.93725,NaN,-0.8913822,-1.474642,-0.5992286,14.13527,NaN,NaN,0.3808392,0.8095049,1.91492E-06,1.078479,-5.275522E-09,1.354945
1077.535,-0.9832647,0.00100718,NaN,-0.9364063,0.00219682,NaN,0.2870177,-14.93725,NaN,-0.8913822,-1.474642,-0.5992286,14.13527,NaN,NaN,0.3808392,0.8095049,1.91492E-06,1.078479,-5.275522E-09,1.354945
1077.551,-0.9914341,0.001008565,NaN,-0.9432767,0.002197103,NaN,0.2876755,-14.9374,NaN,-0.8962016,-1.475755,-0.6090842,14.13645,NaN,NaN,0.3842521,0.8093502,1.951056E-06,1.080094,-8.255753E-09,1.354628
1077.565,-0.9995922,0.001009931,NaN,-0.9501363,0.002197729,NaN,0.2881923,-14.936,NaN,-0.9009865,-1.467463,-0.6187896,14.12761,NaN,NaN,0.3875982,0.810732,1.988234E-06,1.068074,-1.004389E-08,1.345145
1077.58,-0.9995922,0.001009931,NaN,-0.9501363,0.002197729,NaN,0.2881923,-14.936,NaN,-0.9009865,-1.467463,-0.6187896,14.12761,NaN,NaN,0.3875982,0.810732,1.988234E-06,1.068074,-1.004389E-08,1.345145
1077.594,-1.007965,0.001010496,NaN,-0.9571572,0.002200169,NaN,0.2888435,-14.93626,NaN,-0.9059891,-1.466021,-0.6287997,14.12612,NaN,NaN,0.3911597,0.8104584,2.017589E-06,1.065983,-1.004389E-08,1.346438
1077.61,-1.016403,0.001011503,NaN,-0.9642268,0.00220186,NaN,0.2894554,-14.93688,NaN,-0.9109756,-1.466614,-0.6388426,14.12681,NaN,NaN,0.3946517,0.8098489,2.053985E-06,1.066853,-6.467614E-09,1.349298
1077.625,-1.02483,0.001013346,NaN,-0.9712867,0.002202683,NaN,0.2899131,-14.93733,NaN,-0.9159302,-1.478233,-0.6487243,14.13906,NaN,NaN,0.3980752,0.8095211,2.091387E-06,1.083708,-3.487382E-09,1.355085
1077.64,-1.02483,0.001013346,NaN,-0.9712867,0.002202683,NaN,0.2899131,-14.93733,NaN,-0.9159302,-1.478233,-0.6487243,14.13906,NaN,NaN,0.3980752,0.8095211,2.091387E-06,1.083708,-3.487382E-09,1.355085
1077.654,-1.033208,0.001014314,NaN,-0.9783065,0.002202122,NaN,0.2902146,-14.93767,NaN,-0.9208428,-1.478531,-0.6583831,14.1394,NaN,NaN,0.4014316,0.8091755,2.128733E-06,1.084141,-3.487382E-09,1.355455
1077.67,-1.041784,0.001014857,NaN,-0.9854717,0.002198975,NaN,0.2906576,-14.93619,NaN,-0.9259665,-1.468843,-0.6683217,14.12911,NaN,NaN,0.4050031,0.8106727,2.15468E-06,1.070112,-1.103196E-09,1.345374
1077.685,-1.050412,0.001016166,NaN,-0.9926757,0.002198335,NaN,0.2910821,-14.9361,NaN,-0.9310715,-1.47281,-0.6782915,14.13328,NaN,NaN,0.4085049,0.8107989,2.187705E-06,1.075876,1.28099E-09,1.343677
1077.7,-1.050412,0.001016166,NaN,-0.9926757,0.002198335,NaN,0.2910821,-14.9361,NaN,-0.9310715,-1.47281,-0.6782915,14.13328,NaN,NaN,0.4085049,0.8107989,2.187705E-06,1.075876,1.28099E-09,1.343677
1077.714,-1.059021,0.001017233,NaN,-0.9998634,0.00219751,NaN,0.291371,-14.93696,NaN,-0.9361415,-1.481196,-0.6881045,14.1422,NaN,NaN,0.4119381,0.8099693,2.224073E-06,1.088061,8.889667E-11,1.351606
1077.729,-1.067575,0.001017548,NaN,-1.007007,0.002197457,NaN,0.2915177,-14.93629,NaN,-0.9411667,-1.470228,-0.6976995,14.13062,NaN,NaN,0.415304,0.8106843,2.258997E-06,1.072161,-1.103196E-09,1.344428
1077.744,-1.076326,0.001017981,NaN,-1.014294,0.002196439,NaN,0.2918044,-14.93582,NaN,-0.9464006,-1.480181,-0.7075722,14.14103,NaN,NaN,0.4188848,0.8112148,2.286136E-06,1.086599,-2.295289E-09,1.342251
1077.76,-1.085127,0.001018366,NaN,-1.021616,0.002195986,NaN,0.2920783,-14.93765,NaN,-0.9516168,-1.478637,-0.7174765,14.13955,NaN,NaN,0.4223957,0.809383,2.32093E-06,1.084343,-4.679475E-09,1.353822
1077.774,-1.085127,0.001018366,NaN,-1.021616,0.002195986,NaN,0.2920783,-14.93765,NaN,-0.9516168,-1.478637,-0.7174765,14.13955,NaN,NaN,0.4223957,0.809383,2.32093E-06,1.084343,-4.679475E-09,1.353822
1077.788,-1.093904,0.001018096,NaN,-1.02892,0.002195935,NaN,0.2922228,-14.93599,NaN,-0.9567974,-1.473126,-0.7272248,14.13361,NaN,NaN,0.4258378,0.8110369,2.355427E-06,1.076352,-4.679475E-09,1.34402
1077.804,-1.102622,0.001018151,NaN,-1.036178,0.002195146,NaN,0.2922314,-14.9374,NaN,-0.9619324,-1.473511,-0.7367563,14.13415,NaN,NaN,0.4292125,0.8096249,2.387911E-06,1.076913,-5.871567E-09,1.349694
1077.819,-1.102622,0.001018151,NaN,-1.036178,0.002195146,NaN,0.2922314,-14.9374,NaN,-0.9619324,-1.473511,-0.7367563,14.13415,NaN,NaN,0.4292125,0.8096249,2.387911E-06,1.076913,-5.871567E-09,1.349694
1077.833,-1.111538,0.001018742,NaN,-1.043578,0.002192325,NaN,0.292374,-14.93721,NaN,-0.967275,-1.480242,-0.7465607,14.14119,NaN,NaN,0.4328019,0.8098239,2.412125E-06,1.086667,-1.063994E-08,1.347986
1077.85,-1.1205,0.001018664,NaN,-1.051011,0.002190018,NaN,0.2925068,-14.93618,NaN,-0.9726017,-1.474445,-0.7563951,14.135,NaN,NaN,0.4363212,0.8108604,2.442151E-06,1.07826,-5.871567E-09,1.33723
1077.864,-1.129434,0.001017684,NaN,-1.058423,0.002188317,NaN,0.2925151,-14.93589,NaN,-0.9778926,-1.471013,-0.7660733,14.13135,NaN,NaN,0.4397716,0.8111303,2.478063E-06,1.073271,-3.487381E-09,1.338738
1077.879,-1.129434,0.001017684,NaN,-1.058423,0.002188317,NaN,0.2925151,-14.93589,NaN,-0.9778926,-1.471013,-0.7660733,14.13135,NaN,NaN,0.4397716,0.8111303,2.478063E-06,1.073271,-3.487381E-09,1.338738
1077.893,-1.138583,0.001016809,NaN,-1.065989,0.002189141,NaN,0.2926326,-14.93642,NaN,-0.9833971,-1.467031,-0.7760313,14.1272,NaN,NaN,0.4434354,0.8105725,2.503544E-06,1.067487,8.889711E-11,1.341589
1077.908,-1.147781,0.001016981,NaN,-1.073592,0.002189849,NaN,0.292721,-14.93707,NaN,-0.9888912,-1.468187,-0.7860111,14.12848,NaN,NaN,0.4470276,0.8099308,2.536699E-06,1.06917,8.889711E-11,1.343255
1077.923,-1.15695,0.001017065,NaN,-1.081176,0.002189807,NaN,0.2926733,-14.93698,NaN,-0.9943522,-1.480025,-0.7958248,14.1409,NaN,NaN,0.4505494,0.8101268,2.568811E-06,1.086333,1.28099E-09,1.346858
1077.938,-1.15695,0.001017065,NaN,-1.081176,0.002189807,NaN,0.2926733,-14.93698,NaN,-0.9943522,-1.480025,-0.7958248,14.1409,NaN,NaN,0.4505494,0.8101268,2.568811E-06,1.086333,1.28099E-09,1.346858
1077.953,-1.166056,0.001016241,NaN,-1.088712,0.00218885,NaN,0.29249,-14.93604,NaN,-0.9997672,-1.467234,-0.8054141,14.12737,NaN,NaN,0.4540022,0.8110974,2.600849E-06,1.067781,-3.487381E-09,1.338703
1077.968,-1.17536,0.001014508,NaN,-1.096387,0.002187098,NaN,0.2924243,-14.9354,NaN,-1.005388,-1.478544,-0.8152615,14.1392,NaN,NaN,0.4576682,0.8118416,2.620667E-06,1.084187,-3.487381E-09,1.338605
1077.983,-1.184703,0.001013462,NaN,-1.104092,0.002187984,NaN,0.2923489,-14.93624,NaN,-1.010997,-1.467276,-0.8251295,14.12738,NaN,NaN,0.4612627,0.8110087,2.649129E-06,1.067803,-2.295289E-09,1.34016
1077.998,-1.184703,0.001013462,NaN,-1.104092,0.002187984,NaN,0.2923489,-14.93624,NaN,-1.010997,-1.467276,-0.8251295,14.12738,NaN,NaN,0.4612627,0.8110087,2.649129E-06,1.067803,-2.295289E-09,1.34016
1078.012,-1.19401,0.001012442,NaN,-1.111771,0.002186946,NaN,0.2921546,-14.93681,NaN,-1.016568,-1.471073,-0.8348364,14.13144,NaN,NaN,0.4647867,0.8104743,2.681613E-06,1.073319,-3.487381E-09,1.343266
1078.028,-1.203249,0.00101142,NaN,-1.1194,0.002187505,NaN,0.291838,-14.9366,NaN,-1.022091,-1.480163,-0.8443246,14.14096,NaN,NaN,0.4682417,0.8107284,2.709776E-06,1.086503,-5.871567E-09,1.344128
1078.043,-1.212687,0.001011334,NaN,-1.127168,0.002187076,NaN,0.2916372,-14.93595,NaN,-1.027818,-1.467414,-0.8540703,14.12749,NaN,NaN,0.4719099,0.8114097,2.727807E-06,1.067998,-8.255753E-09,1.336361
1078.058,-1.212687,0.001011334,NaN,-1.127168,0.002187076,NaN,0.2916372,-14.93595,NaN,-1.027818,-1.467414,-0.8540703,14.12749,NaN,NaN,0.4719099,0.8114097,2.727807E-06,1.067998,-8.255753E-09,1.336361
1078.072,-1.22216,0.001011946,NaN,-1.134962,0.002187161,NaN,0.291431,-14.93695,NaN,-1.033533,-1.481395,-0.8638366,14.14231,NaN,NaN,0.4755065,0.8105496,2.754927E-06,1.088308,-1.302412E-08,1.343005
1078.088,-1.231594,0.001012086,NaN,-1.142729,0.002185823,NaN,0.2911119,-14.93549,NaN,-1.039211,-1.483039,-0.8734434,14.14391,NaN,NaN,0.4790326,0.8120022,2.782643E-06,1.090701,-1.421622E-08,1.33498
1078.103,-1.240956,0.001013425,NaN,-1.150445,0.002187296,NaN,0.2906765,-14.9357,NaN,-1.044839,-1.476455,-0.8828337,14.13697,NaN,NaN,0.4824896,0.8118386,2.810955E-06,1.081123,-1.183203E-08,1.337171
1078.118,-1.240956,0.001013425,NaN,-1.150445,0.002187296,NaN,0.2906765,-14.9357,NaN,-1.044839,-1.476455,-0.8828337,14.13697,NaN,NaN,0.4824896,0.8118386,2.810955E-06,1.081123,-1.183203E-08,1.337171
1078.132,-1.250518,0.001014011,NaN,-1.158298,0.002190845,NaN,0.2903514,-14.93544,NaN,-1.05067,-1.474181,-0.8924784,14.13453,NaN,NaN,0.4861598,0.8121015,2.827943E-06,1.077808,-1.063994E-08,1.337181
1078.147,-1.260113,0.001014783,NaN,-1.166177,0.00219304,NaN,0.2900231,-14.93567,NaN,-1.05649,-1.467511,-0.9021422,14.1275,NaN,NaN,0.4897583,0.8118652,2.855957E-06,1.068109,-7.063661E-09,1.332246
1078.164,-1.269665,0.001015558,NaN,-1.174027,0.002194551,NaN,0.2895867,-14.93672,NaN,-1.062273,-1.473476,-0.9116473,14.1339,NaN,NaN,0.4932864,0.8108835,2.882779E-06,1.076785,-5.871568E-09,1.33783
1078.177,-1.269665,0.001015558,NaN,-1.174027,0.002194551,NaN,0.2895867,-14.93672,NaN,-1.062273,-1.473476,-0.9116473,14.1339,NaN,NaN,0.4932864,0.8108835,2.882779E-06,1.076785,-5.871568E-09,1.33783
1078.192,-1.269025,0.001016807,NaN,-1.174385,0.002194172,NaN,0.2822426,-14.93648,NaN,-1.058167,-1.478118,-0.9034565,14.13876,NaN,NaN,0.4863452,0.8111386,3.238917E-06,1.083522,-5.871568E-09,1.335234
1078.207,-1.262817,0.00101756,NaN,-1.170674,0.002193419,NaN,0.2709324,-14.93696,NaN,-1.052194,-1.481955,-0.8855838,14.14283,NaN,NaN,0.4795317,0.8106583,3.225208E-06,1.089092,-5.871568E-09,1.338398
1078.222,-1.253708,0.001018222,NaN,-1.164637,0.002193055,NaN,0.2602634,-14.93556,NaN,-1.04529,-1.472634,-0.8648527,14.13291,NaN,NaN,0.4728484,0.8120961,3.09676E-06,1.075572,-8.255753E-09,1.329103
1078.237,-1.253708,0.001018222,NaN,-1.164637,0.002193055,NaN,0.2602634,-14.93556,NaN,-1.04529,-1.472634,-0.8648527,14.13291,NaN,NaN,0.4728484,0.8120961,3.09676E-06,1.075572,-8.255753E-09,1.329103
1078.251,-1.243335,0.001018539,NaN,-1.157413,0.002193603,NaN,0.2513653,-14.9365,NaN,-1.037803,-1.470013,-0.8440538,14.13024,NaN,NaN,0.466295,0.8111598,2.961755E-06,1.07177,-1.063994E-08,1.332679
1078.267,-1.232805,0.00101877,NaN,-1.149799,0.002191781,NaN,0.2445996,-14.9365,NaN,-1.029996,-1.480299,-0.8244514,14.14107,NaN,NaN,0.4596897,0.8112353,2.838299E-06,1.086709,-8.255753E-09,1.333785
1078.282,-1.222299,0.001018874,NaN,-1.142009,0.002190665,NaN,0.238986,-14.9367,NaN,-1.022102,-1.472473,-0.8058309,14.13284,NaN,NaN,0.4532141,0.8110652,2.742261E-06,1.075343,-8.255753E-09,1.332947
1078.297,-1.222299,0.001018874,NaN,-1.142009,0.002190665,NaN,0.238986,-14.9367,NaN,-1.022102,-1.472473,-0.8058309,14.13284,NaN,NaN,0.4532141,0.8110652,2.742261E-06,1.075343,-8.255753E-09,1.332947
1078.311,-1.211884,0.001019077,NaN,-1.134154,0.00219122,NaN,0.2339858,-14.93659,NaN,-1.014203,-1.481094,-0.7879329,14.1419,NaN,NaN,0.4468657,0.8112146,2.668873E-06,1.087858,-1.063994E-08,1.3359
1078.327,-1.201583,0.001018634,NaN,-1.12629,0.002191948,NaN,0.2293026,-14.93721,NaN,-1.006363,-1.47517,-0.7705588,14.13571,NaN,NaN,0.4406418,0.810623,2.60065E-06,1.079247,-1.540831E-08,1.336678
1078.343,-1.191697,0.001018066,NaN,-1.11862,0.002191527,NaN,0.2253744,-14.9368,NaN,-0.9986469,-1.481099,-0.7540363,14.1419,NaN,NaN,0.4343598,0.8110381,2.529553E-06,1.087849,-1.302413E-08,1.336238
1078.357,-1.191697,0.001018066,NaN,-1.11862,0.002191527,NaN,0.2253744,-14.9368,NaN,-0.9986469,-1.481099,-0.7540363,14.1419,NaN,NaN,0.4343598,0.8110381,2.529553E-06,1.087849,-1.302413E-08,1.336238
1078.372,-1.182056,0.001016911,NaN,-1.111066,0.00219322,NaN,0.2216636,-14.9354,NaN,-0.9911483,-1.469108,-0.7380081,14.12915,NaN,NaN,0.4282012,0.8124875,2.46857E-06,1.070442,-1.063994E-08,1.326509
1078.387,-1.172585,0.001016578,NaN,-1.103594,0.002195133,NaN,0.2180198,-14.93587,NaN,-0.9838306,-1.466579,-0.7223195,14.12652,NaN,NaN,0.4221633,0.8119961,2.408667E-06,1.066767,-8.255755E-09,1.328093
1078.401,-1.163247,0.001016667,NaN,-1.096189,0.002197299,NaN,0.2144023,-14.93636,NaN,-0.9766735,-1.465524,-0.7069041,14.12546,NaN,NaN,0.4162439,0.8114955,2.350031E-06,1.065239,-8.255755E-09,1.330783
1078.417,-1.163247,0.001016667,NaN,-1.096189,0.002197299,NaN,0.2144023,-14.93636,NaN,-0.9766735,-1.465524,-0.7069041,14.12546,NaN,NaN,0.4162439,0.8114955,2.350031E-06,1.065239,-8.255755E-09,1.330783
1078.431,-1.154319,0.001016316,NaN,-1.089019,0.002195944,NaN,0.2113967,-14.93609,NaN,-0.9696759,-1.479403,-0.6921979,14.14005,NaN,NaN,0.4102603,0.8119225,2.286552E-06,1.085394,-8.255755E-09,1.330528
1078.447,-1.145631,0.001016494,NaN,-1.081989,0.002195403,NaN,0.2085459,-14.93615,NaN,-0.9629145,-1.466455,-0.6778994,14.1264,NaN,NaN,0.4043942,0.8118855,2.229928E-06,1.066577,-5.871569E-09,1.328149
1078.462,-1.137106,0.001016421,NaN,-1.075057,0.00219303,NaN,0.2057317,-14.93634,NaN,-0.9563368,-1.466912,-0.6638855,14.1269,NaN,NaN,0.3986431,0.8116883,2.174794E-06,1.067242,-5.871569E-09,1.329828
1078.476,-1.137106,0.001016421,NaN,-1.075057,0.00219303,NaN,0.2057317,-14.93634,NaN,-0.9563368,-1.466912,-0.6638855,14.1269,NaN,NaN,0.3986431,0.8116883,2.174794E-06,1.067242,-5.871569E-09,1.329828
1078.491,-1.128997,0.001015535,NaN,-1.068373,0.002188494,NaN,0.2035167,-14.93715,NaN,-0.9499169,-1.466409,-0.650575,14.12646,NaN,NaN,0.3928247,0.810861,2.113699E-06,1.066527,-3.487384E-09,1.334125
1078.506,-1.121132,0.001014759,NaN,-1.061841,0.002184059,NaN,0.2014434,-14.93761,NaN,-0.9437317,-1.479571,-0.6376542,14.14037,NaN,NaN,0.3871205,0.8105422,2.054541E-06,1.08564,-4.679476E-09,1.338192
1078.521,-1.113428,0.0010131,NaN,-1.055411,0.002181945,NaN,0.1993925,-14.93718,NaN,-0.9377249,-1.466779,-0.624996,14.12687,NaN,NaN,0.3815282,0.810991,2.000897E-06,1.067074,-1.063994E-08,1.334141
1078.536,-1.113428,0.0010131,NaN,-1.055411,0.002181945,NaN,0.1993925,-14.93718,NaN,-0.9377249,-1.466779,-0.624996,14.12687,NaN,NaN,0.3815282,0.810991,2.000897E-06,1.067074,-1.063994E-08,1.334141
1078.55,-1.105846,0.001012362,NaN,-1.04906,0.00218248,NaN,0.1973388,-14.9385,NaN,-0.9318653,-1.476201,-0.6125506,14.13693,NaN,NaN,0.3760456,0.8097596,1.945315E-06,1.080766,-8.255755E-09,1.345427
1078.567,-1.098654,0.001011424,NaN,-1.042948,0.002183527,NaN,0.195877,-14.93724,NaN,-0.9261276,-1.466612,-0.6007788,14.12673,NaN,NaN,0.3704902,0.8109913,1.881688E-06,1.066857,-5.871569E-09,1.33458
1078.581,-1.091693,0.001010956,NaN,-1.036985,0.002183629,NaN,0.1945611,-14.93732,NaN,-0.9206038,-1.479399,-0.5893756,14.14019,NaN,NaN,0.365044,0.8110451,1.824765E-06,1.085417,-5.871569E-09,1.339192
1078.596,-1.091693,0.001010956,NaN,-1.036985,0.002183629,NaN,0.1945611,-14.93732,NaN,-0.9206038,-1.479399,-0.5893756,14.14019,NaN,NaN,0.365044,0.8110451,1.824765E-06,1.085417,-5.871569E-09,1.339192
1078.611,-1.084885,0.00101053,NaN,-1.031124,0.00218155,NaN,0.1932678,-14.93753,NaN,-0.9152421,-1.467478,-0.5782153,14.12765,NaN,NaN,0.3597046,0.8108419,1.774399E-06,1.068105,-8.255755E-09,1.337235
1078.626,-1.078192,0.00101043,NaN,-1.025341,0.002181991,NaN,0.191968,-14.93713,NaN,-0.9100134,-1.471488,-0.567248,14.13183,NaN,NaN,0.3544699,0.8112726,1.724629E-06,1.073923,-5.871569E-09,1.335358
1078.641,-1.071878,0.001010915,NaN,-1.019797,0.002181051,NaN,0.1912549,-14.93838,NaN,-0.9048858,-1.480675,-0.5569417,14.14163,NaN,NaN,0.3491576,0.8100687,1.669197E-06,1.087276,-7.063663E-09,1.341637
1078.656,-1.071878,0.001010915,NaN,-1.019797,0.002181051,NaN,0.1912549,-14.93838,NaN,-0.9048858,-1.480675,-0.5569417,14.14163,NaN,NaN,0.3491576,0.8100687,1.669197E-06,1.087276,-7.063663E-09,1.341637
1078.67,-1.065789,0.001011308,NaN,-1.014402,0.002180581,NaN,0.1906848,-14.9372,NaN,-0.8999599,-1.469053,-0.5469863,14.12932,NaN,NaN,0.3439498,0.8112673,1.620023E-06,1.070423,-7.063663E-09,1.33488
1078.686,-1.059849,0.001011903,NaN,-1.009109,0.002178558,NaN,0.1901304,-14.93708,NaN,-0.8951854,-1.466,-0.5372533,14.12608,NaN,NaN,0.3388441,0.8113505,1.571743E-06,1.065987,-1.103198E-09,1.332601
1078.701,-1.054017,0.001012686,NaN,-1.003895,0.002177116,NaN,0.1895609,-14.9376,NaN,-0.8905337,-1.479792,-0.5276918,14.14066,NaN,NaN,0.3338386,0.8109771,1.52257E-06,1.086023,8.889445E-11,1.339708
1078.716,-1.054017,0.001012686,NaN,-1.003895,0.002177116,NaN,0.1895609,-14.9376,NaN,-0.8905337,-1.479792,-0.5276918,14.14066,NaN,NaN,0.3338386,0.8109771,1.52257E-06,1.086023,8.889445E-11,1.339708
1078.73,-1.048555,0.001012526,NaN,-0.9989175,0.002175053,NaN,0.1895697,-14.93911,NaN,-0.8859668,-1.479578,-0.5187767,14.14056,NaN,NaN,0.328751,0.8094589,1.467137E-06,1.085702,-1.103198E-09,1.347167
1078.746,-1.043314,0.001012333,NaN,-0.9940897,0.002173448,NaN,0.1897161,-14.93785,NaN,-0.8815916,-1.47592,-0.5101936,14.1366,NaN,NaN,0.3237635,0.8107145,1.420944E-06,1.080398,2.47308E-09,1.330062
1078.761,-1.038215,0.001012532,NaN,-0.9893643,0.002172112,NaN,0.1898701,-14.93703,NaN,-0.8773587,-1.472803,-0.501812,14.13324,NaN,NaN,0.3188738,0.8115178,1.373856E-06,1.07587,4.857266E-09,1.324474
1078.776,-1.038215,0.001012532,NaN,-0.9893643,0.002172112,NaN,0.1898701,-14.93703,NaN,-0.8773587,-1.472803,-0.501812,14.13324,NaN,NaN,0.3188738,0.8115178,1.373856E-06,1.07587,4.857266E-09,1.324474
1078.79,-1.033498,0.001012081,NaN,-0.9848887,0.002172085,NaN,0.1905919,-14.93754,NaN,-0.8732154,-1.466346,-0.4940761,14.12648,NaN,NaN,0.3138999,0.8109778,1.325576E-06,1.066491,6.049358E-09,1.325469
1078.805,-1.029007,0.001011261,NaN,-0.9805698,0.002170434,NaN,0.1914352,-14.93836,NaN,-0.8692663,-1.475675,-0.486656,14.13639,NaN,NaN,0.3090238,0.8102567,1.281469E-06,1.080046,7.241451E-09,1.33035
1078.822,-1.02466,0.001009959,NaN,-0.9763567,0.002166268,NaN,0.1922684,-14.93691,NaN,-0.8654585,-1.481361,-0.4794154,14.14223,NaN,NaN,0.3042434,0.8116907,1.242726E-06,1.088293,4.857265E-09,1.327575
1078.835,-1.02466,0.001009959,NaN,-0.9763567,0.002166268,NaN,0.1922684,-14.93691,NaN,-0.8654585,-1.481361,-0.4794154,14.14223,NaN,NaN,0.3042434,0.8116907,1.242726E-06,1.088293,4.857265E-09,1.327575
1078.85,-1.020413,0.001009181,NaN,-0.9722215,0.002163965,NaN,0.1930608,-14.93702,NaN,-0.8617616,-1.468438,-0.472303,14.12862,NaN,NaN,0.2995567,0.8116279,1.203089E-06,1.069518,1.200982E-08,1.323063
1078.867,-1.01652,0.001009346,NaN,-0.968321,0.002162674,NaN,0.1944099,-14.93778,NaN,-0.8581287,-1.480881,-0.4658056,14.14181,NaN,NaN,0.2947819,0.8109741,1.157491E-06,1.087603,1.200982E-08,1.331144
1078.881,-1.012836,0.001009988,NaN,-0.9645693,0.002161412,NaN,0.1958808,-14.93742,NaN,-0.8546735,-1.483452,-0.4596036,14.14448,NaN,NaN,0.2901009,0.8113119,1.119344E-06,1.091338,1.200982E-08,1.329603
1078.896,-1.012836,0.001009988,NaN,-0.9645693,0.002161412,NaN,0.1958808,-14.93742,NaN,-0.8546735,-1.483452,-0.4596036,14.14448,NaN,NaN,0.2901009,0.8113119,1.119344E-06,1.091338,1.200982E-08,1.329603
1078.91,-1.009286,0.001009138,NaN,-0.9609184,0.002160006,NaN,0.1973403,-14.93782,NaN,-0.8513473,-1.479887,-0.4535633,14.14076,NaN,NaN,0.2855118,0.8109255,1.084178E-06,1.086154,1.439401E-08,1.328755
1078.925,-1.005826,0.001009233,NaN,-0.9573411,0.002158866,NaN,0.1987548,-14.9367,NaN,-0.8481217,-1.468898,-0.4476337,14.12909,NaN,NaN,0.2810127,0.8120651,1.047819E-06,1.070206,1.677819E-08,1.319192
1078.94,-1.00271,0.001010215,NaN,-0.9539946,0.002158768,NaN,0.2007212,-14.93785,NaN,-0.8449485,-1.472346,-0.4423076,14.13285,NaN,NaN,0.2764218,0.8109527,1.00997E-06,1.075228,1.797029E-08,1.326151
1078.955,-1.00271,0.001010215,NaN,-0.9539946,0.002158768,NaN,0.2007212,-14.93785,NaN,-0.8449485,-1.472346,-0.4423076,14.13285,NaN,NaN,0.2764218,0.8109527,1.00997E-06,1.075228,1.797029E-08,1.326151
1078.971,-0.9997975,0.001011227,NaN,-0.9507945,0.002158938,NaN,0.2028043,-14.93746,NaN,-0.8419452,-1.469567,-0.4372606,14.12988,NaN,NaN,0.2719211,0.8113235,9.748031E-07,1.07119,1.797029E-08,1.323183
1078.985,-0.9970117,0.00101207,NaN,-0.9476929,0.002159534,NaN,0.2048681,-14.93763,NaN,-0.8390637,-1.480829,-0.4323567,14.14175,NaN,NaN,0.2675088,0.8112299,9.408285E-07,1.087546,2.035447E-08,1.327954
1079,-0.9970117,0.00101207,NaN,-0.9476929,0.002159534,NaN,0.2048681,-14.93763,NaN,-0.8390637,-1.480829,-0.4323567,14.14175,NaN,NaN,0.2675088,0.8112299,9.408285E-07,1.087546,2.035447E-08,1.327954
1079.014,-0.9945847,0.001013031,NaN,-0.944835,0.002161489,NaN,0.207475,-14.9369,NaN,-0.8362437,-1.468172,-0.4280571,14.12835,NaN,NaN,0.263003,0.8120138,9.065558E-07,1.069168,1.797029E-08,1.321533
1079.03,-0.9923682,0.001013887,NaN,-0.9421307,0.002159527,NaN,0.2101815,-14.93761,NaN,-0.8335982,-1.466151,-0.4240206,14.1263,NaN,NaN,0.2585859,0.8112853,8.797338E-07,1.066242,1.439401E-08,1.324293
1079.045,-0.99028,0.001014359,NaN,-0.939528,0.002157816,NaN,0.2128501,-14.93838,NaN,-0.8310754,-1.479213,-0.4201065,14.14014,NaN,NaN,0.2542554,0.8106647,8.514215E-07,1.085224,1.320192E-08,1.330672
1079.06,-0.99028,0.001014359,NaN,-0.939528,0.002157816,NaN,0.2128501,-14.93838,NaN,-0.8310754,-1.479213,-0.4201065,14.14014,NaN,NaN,0.2542554,0.8106647,8.514215E-07,1.085224,1.320192E-08,1.330672
1079.074,-0.9882745,0.001014686,NaN,-0.9369966,0.002155655,NaN,0.2154481,-14.93844,NaN,-0.8286453,-1.481704,-0.4162628,14.14277,NaN,NaN,0.2500099,0.8105885,8.243014E-07,1.088839,1.081773E-08,1.329936
1079.09,-0.9865984,0.001014417,NaN,-0.9346913,0.00215692,NaN,0.2185781,-14.9371,NaN,-0.8262565,-1.472399,-0.4129947,14.13286,NaN,NaN,0.2456676,0.8119728,7.909228E-07,1.07534,1.200982E-08,1.320782
1079.105,-0.9851154,0.001013462,NaN,-0.932529,0.002159106,NaN,0.2218067,-14.93784,NaN,-0.824028,-1.46637,-0.4099711,14.12657,NaN,NaN,0.2414108,0.8112038,7.664849E-07,1.066579,1.320191E-08,1.323823
1079.12,-0.9851154,0.001013462,NaN,-0.932529,0.002159106,NaN,0.2218067,-14.93784,NaN,-0.824028,-1.46637,-0.4099711,14.12657,NaN,NaN,0.2414108,0.8112038,7.664849E-07,1.066579,1.320191E-08,1.323823
1079.134,-0.9837488,0.0010127,NaN,-0.9304609,0.002160681,NaN,0.224996,-14.93861,NaN,-0.8219116,-1.46985,-0.407054,14.13032,NaN,NaN,0.2372375,0.8104728,7.432391E-07,1.071642,1.200982E-08,1.326902
1079.15,-0.982455,0.001012778,NaN,-0.9284582,0.002161337,NaN,0.2281107,-14.93796,NaN,-0.8198794,-1.465593,-0.4041924,14.12577,NaN,NaN,0.2331461,0.811089,7.176091E-07,1.065456,1.200982E-08,1.32106
1079.166,-0.9814808,0.001012942,NaN,-0.9266761,0.002162344,NaN,0.2317546,-14.93932,NaN,-0.8178812,-1.477571,-0.4018975,14.13853,NaN,NaN,0.2289548,0.8098752,6.889989E-07,1.08287,1.439401E-08,1.332486
1079.18,-0.9814808,0.001012942,NaN,-0.9266761,0.002162344,NaN,0.2317546,-14.93932,NaN,-0.8178812,-1.477571,-0.4018975,14.13853,NaN,NaN,0.2289548,0.8098752,6.889989E-07,1.08287,1.439401E-08,1.332486
1079.194,-0.9806929,0.00101261,NaN,-0.9250333,0.002161935,NaN,0.2354915,-14.93849,NaN,-0.8160374,-1.481841,-0.3998324,14.14293,NaN,NaN,0.2248461,0.8106954,6.675412E-07,1.089062,1.439401E-08,1.328745
1079.209,-0.9800151,0.001012309,NaN,-0.9234812,0.002159635,NaN,0.2391811,-14.93798,NaN,-0.8142998,-1.470863,-0.3978574,14.13134,NaN,NaN,0.2208181,0.8112647,6.478717E-07,1.073132,1.439401E-08,1.323037
1079.224,-0.9794037,0.001013352,NaN,-0.9219907,0.002159636,NaN,0.2427875,-14.93777,NaN,-0.8126412,-1.469932,-0.3959211,14.13034,NaN,NaN,0.216869,0.8114744,6.26414E-07,1.071782,1.320192E-08,1.323686
1079.24,-0.9794037,0.001013352,NaN,-0.9219907,0.002159636,NaN,0.2427875,-14.93777,NaN,-0.8126412,-1.469932,-0.3959211,14.13034,NaN,NaN,0.216869,0.8114744,6.26414E-07,1.071782,1.320192E-08,1.323686
1079.254,-0.9791043,0.001015233,NaN,-0.9207167,0.002161285,NaN,0.2469173,-14.93936,NaN,-0.8110124,-1.474666,-0.3945411,14.1355,NaN,NaN,0.2128174,0.8099299,6.031682E-07,1.078677,9.625636E-09,1.332339
1079.27,-0.9789854,0.001015358,NaN,-0.9195788,0.002163122,NaN,0.2511322,-14.9389,NaN,-0.8095333,-1.469983,-0.3933755,14.13053,NaN,NaN,0.2088455,0.8103849,5.840947E-07,1.071883,6.645404E-09,1.327826
1079.285,-0.9789709,0.001014495,NaN,-0.9185284,0.002163932,NaN,0.2552909,-14.93806,NaN,-0.8081558,-1.479749,-0.3922831,14.1407,NaN,NaN,0.2049516,0.8112925,5.650213E-07,1.086042,4.857265E-09,1.326011
1079.301,-0.9790157,0.001014816,NaN,-0.9175358,0.002166234,NaN,0.2593561,-14.93947,NaN,-0.8068532,-1.473174,-0.3912124,14.13389,NaN,NaN,0.2011341,0.809908,5.447557E-07,1.076485,6.645404E-09,1.332365
1079.315,-0.9790157,0.001014816,NaN,-0.9175358,0.002166234,NaN,0.2593561,-14.93947,NaN,-0.8068532,-1.473174,-0.3912124,14.13389,NaN,NaN,0.2011341,0.809908,5.447557E-07,1.076485,6.645404E-09,1.332365
1079.329,-0.9793651,0.001015396,NaN,-0.9167562,0.002169149,NaN,0.2639395,-14.93769,NaN,-0.8055775,-1.467824,-0.3906885,14.12809,NaN,NaN,0.1972115,0.8116524,5.209138E-07,1.068717,5.453312E-09,1.322537
1079.345,-0.9798892,0.001016086,NaN,-0.9161121,0.002171347,NaN,0.2686007,-14.93797,NaN,-0.8044478,-1.465159,-0.3903657,14.12531,NaN,NaN,0.1933661,0.8113493,5.042245E-07,1.064849,5.453312E-09,1.322302
1079.361,-0.9805122,0.001017012,NaN,-0.9155544,0.002172724,NaN,0.2731966,-14.93886,NaN,-0.8034156,-1.478812,-0.3901003,14.13979,NaN,NaN,0.1895962,0.8106291,4.917076E-07,1.084695,5.453312E-09,1.329586
1079.375,-0.9805122,0.001017012,NaN,-0.9155544,0.002172724,NaN,0.2731966,-14.93886,NaN,-0.8034156,-1.478812,-0.3901003,14.13979,NaN,NaN,0.1895962,0.8106291,4.917076E-07,1.084695,5.453312E-09,1.329586
1079.389,-0.9814599,0.001018228,NaN,-0.9152252,0.002176038,NaN,0.278304,-14.93799,NaN,-0.802424,-1.465688,-0.3903839,14.1259,NaN,NaN,0.1857203,0.8115288,4.71442E-07,1.065649,7.241451E-09,1.324184
1079.405,-0.9825925,0.001019088,NaN,-0.9150376,0.002178551,NaN,0.2834696,-14.93926,NaN,-0.8015844,-1.47537,-0.3908512,14.13625,NaN,NaN,0.1819207,0.810379,4.58329E-07,1.079733,8.433544E-09,1.331202
1079.42,-0.9825925,0.001019088,NaN,-0.9150376,0.002178551,NaN,0.2834696,-14.93926,NaN,-0.8015844,-1.47537,-0.3908512,14.13625,NaN,NaN,0.1819207,0.810379,4.58329E-07,1.079733,8.433544E-09,1.331202
1079.434,-0.9838281,0.001019053,NaN,-0.9149374,0.002180379,NaN,0.2885506,-14.93814,NaN,-0.8008444,-1.480874,-0.3913549,14.14192,NaN,NaN,0.1781957,0.8114918,4.476001E-07,1.087714,1.200982E-08,1.326456
1079.45,-0.9851179,0.00101812,NaN,-0.9148908,0.002180363,NaN,0.2935131,-14.93719,NaN,-0.8001745,-1.466732,-0.3918447,14.12693,NaN,NaN,0.1745438,0.8124955,4.350832E-07,1.067177,1.379796E-08,1.319552
1079.465,-0.986703,0.001018041,NaN,-0.9150481,0.002182694,NaN,0.2989776,-14.93786,NaN,-0.7995301,-1.466271,-0.392858,14.12652,NaN,NaN,0.1707834,0.8118148,4.20182E-07,1.066515,1.439401E-08,1.324376
1079.48,-0.986703,0.001018041,NaN,-0.9150481,0.002182694,NaN,0.2989776,-14.93786,NaN,-0.7995301,-1.466271,-0.392858,14.12652,NaN,NaN,0.1707834,0.8118148,4.20182E-07,1.066515,1.439401E-08,1.324376
1079.494,-0.988452,0.001017381,NaN,-0.9153292,0.00218215,NaN,0.3044968,-14.93796,NaN,-0.799027,-1.479185,-0.3940378,14.14014,NaN,NaN,0.1670972,0.8118504,4.094532E-07,1.08528,1.499006E-08,1.327489
1079.51,-0.9902864,0.001015985,NaN,-0.9156837,0.002180304,NaN,0.3099273,-14.93816,NaN,-0.7986156,-1.466524,-0.3952399,14.12681,NaN,NaN,0.1634834,0.8116743,3.999164E-07,1.066877,1.55861E-08,1.327554
1079.525,-0.9921602,0.001016179,NaN,-0.916081,0.002179892,NaN,0.3152349,-14.93786,NaN,-0.7982683,-1.470682,-0.3964159,14.13116,NaN,NaN,0.1599404,0.8120043,3.921678E-07,1.072917,1.916238E-08,1.324471
1079.54,-0.9921602,0.001016179,NaN,-0.916081,0.002179892,NaN,0.3152349,-14.93786,NaN,-0.7982683,-1.470682,-0.3964159,14.13116,NaN,NaN,0.1599404,0.8120043,3.921678E-07,1.072917,1.916238E-08,1.324471
1079.556,-0.994317,0.001016171,NaN,-0.9166748,0.002180351,NaN,0.321045,-14.93907,NaN,-0.7979449,-1.471241,-0.3981121,14.13188,NaN,NaN,0.1562869,0.8107825,3.754785E-07,1.073743,1.618215E-08,1.331422
1079.57,-0.9966252,0.00101715,NaN,-0.9173838,0.002181607,NaN,0.3269001,-14.93919,NaN,-0.7977594,-1.472137,-0.3999598,14.13283,NaN,NaN,0.1527054,0.8106508,3.671339E-07,1.075047,1.499006E-08,1.332472
1079.584,-0.9990079,0.001016785,NaN,-0.9181585,0.002180771,NaN,0.3326576,-14.93785,NaN,-0.7976615,-1.466556,-0.4018149,14.12682,NaN,NaN,0.1491942,0.811948,3.575971E-07,1.066943,1.618215E-08,1.324313
1079.599,-0.9990079,0.001016785,NaN,-0.9181585,0.002180771,NaN,0.3326576,-14.93785,NaN,-0.7976615,-1.466556,-0.4018149,14.12682,NaN,NaN,0.1491942,0.811948,3.575971E-07,1.066943,1.618215E-08,1.324313
1079.614,-1.001691,0.001017326,NaN,-0.9191417,0.002180552,NaN,0.3389114,-14.93865,NaN,-0.7976028,-1.479526,-0.4041924,14.14059,NaN,NaN,0.1455719,0.8112771,3.438881E-07,1.085804,1.618215E-08,1.333421
1079.629,-1.004532,0.001017425,NaN,-0.920244,0.002182132,NaN,0.3451893,-14.93828,NaN,-0.797689,-1.466568,-0.4067044,14.12691,NaN,NaN,0.142021,0.8116658,3.391197E-07,1.066986,1.55861E-08,1.327171
1079.644,-1.007447,0.001017551,NaN,-0.9214121,0.002182901,NaN,0.3513497,-14.9388,NaN,-0.7978656,-1.468046,-0.409204,14.12852,NaN,NaN,0.1385399,0.8111485,3.325632E-07,1.06914,1.499006E-08,1.329268
1079.659,-1.007447,0.001017551,NaN,-0.9214121,0.002182901,NaN,0.3513497,-14.9388,NaN,-0.7978656,-1.468046,-0.409204,14.12852,NaN,NaN,0.1385399,0.8111485,3.325632E-07,1.06914,1.499006E-08,1.329268
1079.674,-1.010389,0.001017545,NaN,-0.9226136,0.002183497,NaN,0.3573633,-14.93905,NaN,-0.7981024,-1.479397,-0.4116457,14.1405,NaN,NaN,0.135127,0.8109919,3.30179E-07,1.085624,1.55861E-08,1.335089
1079.689,-1.013602,0.001017267,NaN,-0.9240023,0.002184801,NaN,0.363869,-14.93802,NaN,-0.7983654,-1.470385,-0.4145917,14.13091,NaN,NaN,0.131601,0.8120232,3.206423E-07,1.072542,1.439401E-08,1.326094
1079.704,-1.016951,0.001016877,NaN,-0.9254946,0.002185112,NaN,0.3703967,-14.9389,NaN,-0.7987624,-1.480066,-0.4176585,14.14122,NaN,NaN,0.1281445,0.8112098,3.140858E-07,1.086621,1.439401E-08,1.334628
1079.719,-1.016951,0.001016877,NaN,-0.9254946,0.002185112,NaN,0.3703967,-14.9389,NaN,-0.7987624,-1.480066,-0.4176585,14.14122,NaN,NaN,0.1281445,0.8112098,3.140858E-07,1.086621,1.439401E-08,1.334628
1079.734,-1.02036,0.001016826,NaN,-0.9270409,0.002186411,NaN,0.3768057,-14.93934,NaN,-0.7992412,-1.470423,-0.4207022,14.13109,NaN,NaN,0.1247559,0.8107951,3.075292E-07,1.07261,1.379796E-08,1.333509
1079.749,-1.023784,0.00101639,NaN,-0.9286117,0.002185945,NaN,0.3830664,-14.93896,NaN,-0.7997735,-1.480146,-0.4236791,14.14127,NaN,NaN,0.1214338,0.8112251,3.063371E-07,1.086718,1.022168E-08,1.334306
1079.765,-1.027471,0.001015387,NaN,-0.9303626,0.002187033,NaN,0.3898219,-14.93794,NaN,-0.8003311,-1.468652,-0.4271587,14.12907,NaN,NaN,0.1179968,0.8122625,2.926281E-07,1.070025,9.625638E-09,1.325364
1079.783,-1.031286,0.001014302,NaN,-0.9322103,0.002187123,NaN,0.3965922,-14.93792,NaN,-0.8010189,-1.46809,-0.430747,14.12847,NaN,NaN,0.1146276,0.81227,2.884557E-07,1.069205,9.625638E-09,1.325101
1079.796,-1.031286,0.001014302,NaN,-0.9322103,0.002187123,NaN,0.3965922,-14.93792,NaN,-0.8010189,-1.46809,-0.430747,14.12847,NaN,NaN,0.1146276,0.81227,2.884557E-07,1.069205,9.625638E-09,1.325101
1079.808,-1.035153,0.00101337,NaN,-0.9341057,0.00218577,NaN,0.4032363,-14.93904,NaN,-0.8017843,-1.479756,-0.4342997,14.1409,NaN,NaN,0.1113246,0.8112424,2.836874E-07,1.086177,7.837499E-09,1.334495
1079.824,-1.039028,0.001012501,NaN,-0.9360202,0.002184944,NaN,0.4097255,-14.93836,NaN,-0.8025989,-1.468314,-0.437774,14.12879,NaN,NaN,0.1080863,0.8119441,2.842834E-07,1.06956,9.625638E-09,1.327647
1079.839,-1.039028,0.001012501,NaN,-0.9360202,0.002184944,NaN,0.4097255,-14.93836,NaN,-0.8025989,-1.468314,-0.437774,14.12879,NaN,NaN,0.1080863,0.8119441,2.842834E-07,1.06956,9.625638E-09,1.327647
1079.853,-1.04316,0.001012198,NaN,-0.9381099,0.002183888,NaN,0.4167093,-14.93843,NaN,-0.8034402,-1.480608,-0.4417476,14.14175,NaN,NaN,0.1047315,0.8119645,2.753427E-07,1.087422,9.029591E-09,1.330882
1079.869,-1.047414,0.001011652,NaN,-0.940291,0.002180078,NaN,0.4236985,-14.93887,NaN,-0.8044089,-1.48302,-0.4458169,14.14433,NaN,NaN,0.1014429,0.8114974,2.723625E-07,1.090923,6.049359E-09,1.335502
1079.884,-1.051713,0.001010096,NaN,-0.9425146,0.002176976,NaN,0.430553,-14.938,NaN,-0.8054515,-1.477464,-0.4498373,14.13839,NaN,NaN,0.09821896,0.8123877,2.687862E-07,1.08285,7.241452E-09,1.3277
1079.899,-1.051713,0.001010096,NaN,-0.9425146,0.002176976,NaN,0.430553,-14.938,NaN,-0.8054515,-1.477464,-0.4498373,14.13839,NaN,NaN,0.09821896,0.8123877,2.687862E-07,1.08285,7.241452E-09,1.3277
1079.913,-1.056288,0.001010174,NaN,-0.9449253,0.002177122,NaN,0.4378937,-14.93814,NaN,-0.8065377,-1.473153,-0.4543569,14.13384,NaN,NaN,0.09487814,0.812243,2.610376E-07,1.076574,9.625637E-09,1.330618
1079.929,-1.060992,0.001009837,NaN,-0.9474317,0.002179214,NaN,0.4452178,-14.93843,NaN,-0.8077583,-1.467172,-0.4589542,14.12755,NaN,NaN,0.09160328,0.8119203,2.574613E-07,1.067873,7.241451E-09,1.33151
1079.944,-1.065742,0.001010508,NaN,-0.9499812,0.002182608,NaN,0.4523878,-14.93954,NaN,-0.8090551,-1.47202,-0.4634837,14.13277,NaN,NaN,0.08839276,0.8108613,2.562692E-07,1.074925,9.02959E-09,1.338931
1079.96,-1.065742,0.001010508,NaN,-0.9499812,0.002182608,NaN,0.4523878,-14.93954,NaN,-0.8090551,-1.47202,-0.4634837,14.13277,NaN,NaN,0.08839276,0.8108613,2.562692E-07,1.074925,9.02959E-09,1.338931
1079.973,-1.070492,0.001010568,NaN,-0.9525434,0.002185902,NaN,0.4593812,-14.93854,NaN,-0.8103972,-1.466336,-0.4679071,14.12667,NaN,NaN,0.08524519,0.8118255,2.556732E-07,1.06666,8.433544E-09,1.331439
1079.989,-1.075492,0.001010478,NaN,-0.9552742,0.002187442,NaN,0.4668618,-14.93909,NaN,-0.8117717,-1.469635,-0.4728185,14.1302,NaN,NaN,0.08197926,0.8113059,2.458384E-07,1.071458,9.02959E-09,1.331135
1080.004,-1.080603,0.001010787,NaN,-0.9580876,0.002189779,NaN,0.4743256,-14.93976,NaN,-0.8132699,-1.478459,-0.4777974,14.13956,NaN,NaN,0.07877783,0.8107011,2.455404E-07,1.084275,7.837498E-09,1.340211
1080.018,-1.080603,0.001010787,NaN,-0.9580876,0.002189779,NaN,0.4743256,-14.93976,NaN,-0.8132699,-1.478459,-0.4777974,14.13956,NaN,NaN,0.07877783,0.8107011,2.455404E-07,1.084275,7.837498E-09,1.340211
1080.033,-1.085747,0.001011632,NaN,-0.9609345,0.002193792,NaN,0.481636,-14.93839,NaN,-0.814836,-1.467089,-0.4827011,14.12747,NaN,NaN,0.07563928,0.8120907,2.449443E-07,1.067773,6.645405E-09,1.332362
1080.048,-1.090883,0.001011504,NaN,-0.9637873,0.002195105,NaN,0.4887694,-14.93905,NaN,-0.8164406,-1.479134,-0.4874921,14.14024,NaN,NaN,0.07256229,0.8115557,2.443483E-07,1.085286,5.453312E-09,1.334519
1080.064,-1.096263,0.001010541,NaN,-0.9668033,0.002192791,NaN,0.4963943,-14.93933,NaN,-0.8180788,-1.470651,-0.4927718,14.13132,NaN,NaN,0.06936555,0.811295,2.360036E-07,1.072961,4.857266E-09,1.332234
1080.078,-1.096263,0.001010541,NaN,-0.9668033,0.002192791,NaN,0.4963943,-14.93933,NaN,-0.8180788,-1.470651,-0.4927718,14.13132,NaN,NaN,0.06936555,0.811295,2.360036E-07,1.072961,4.857266E-09,1.332234
1080.093,-1.101748,0.001009813,NaN,-0.9698966,0.002191832,NaN,0.5039957,-14.93788,NaN,-0.819837,-1.471987,-0.4981084,14.13258,NaN,NaN,0.06623196,0.8127373,2.324273E-07,1.074892,4.857266E-09,1.328139
1080.108,-1.10726,0.001008745,NaN,-0.9730188,0.002188746,NaN,0.5114372,-14.93759,NaN,-0.8216586,-1.480437,-0.503359,14.14148,NaN,NaN,0.06315994,0.8130643,2.309372E-07,1.087184,6.049359E-09,1.327055
1080.124,-1.112757,0.001007873,NaN,-0.9761426,0.002187115,NaN,0.5186968,-14.9387,NaN,-0.8235145,-1.467192,-0.5084878,14.12758,NaN,NaN,0.06014818,0.812,2.312352E-07,1.067909,5.453313E-09,1.328415
1080.138,-1.112757,0.001007873,NaN,-0.9761426,0.002187115,NaN,0.5186968,-14.9387,NaN,-0.8235145,-1.467192,-0.5084878,14.12758,NaN,NaN,0.06014818,0.812,2.312352E-07,1.067909,5.453313E-09,1.328415
1080.155,-1.118496,0.001008185,NaN,-0.9794261,0.002186826,NaN,0.526449,-14.94004,NaN,-0.8254068,-1.477582,-0.514104,14.13869,NaN,NaN,0.05701536,0.810756,2.243807E-07,1.083028,4.857267E-09,1.339855
1080.168,-1.124334,0.00100813,NaN,-0.9827827,0.002188209,NaN,0.534169,-14.93899,NaN,-0.8274162,-1.466779,-0.5197652,14.12722,NaN,NaN,0.05394446,0.8118116,2.243807E-07,1.067349,3.069127E-09,1.331951
1080.183,-1.130194,0.001008549,NaN,-0.9861641,0.002191147,NaN,0.5417221,-14.93959,NaN,-0.8294849,-1.46575,-0.5253293,14.1262,NaN,NaN,0.0509339,0.8111997,2.243807E-07,1.065861,4.26122E-09,1.335925
1080.198,-1.130194,0.001008549,NaN,-0.9861641,0.002191147,NaN,0.5417221,-14.93959,NaN,-0.8294849,-1.46575,-0.5253293,14.1262,NaN,NaN,0.0509339,0.8111997,2.243807E-07,1.065861,4.26122E-09,1.335925
1080.213,-1.136314,0.001008585,NaN,-0.9897165,0.002191023,NaN,0.5497569,-14.9398,NaN,-0.8316075,-1.479268,-0.531378,14.14045,NaN,NaN,0.04780229,0.8111363,2.172281E-07,1.085494,4.857266E-09,1.338248
1080.228,-1.14254,0.001007676,NaN,-0.9933461,0.002190229,NaN,0.5577371,-14.93968,NaN,-0.833853,-1.467768,-0.5374529,14.12833,NaN,NaN,0.04473257,0.81128,2.15738E-07,1.068792,1.877034E-09,1.334377
1080.243,-1.14879,0.001007702,NaN,-0.9970009,0.002188877,NaN,0.5655322,-14.94086,NaN,-0.8361593,-1.47989,-0.543413,14.14122,NaN,NaN,0.04172316,0.8102022,2.175262E-07,1.086404,1.280988E-09,1.342927
1080.258,-1.14879,0.001007702,NaN,-0.9970009,0.002188877,NaN,0.5655322,-14.94086,NaN,-0.8361593,-1.47989,-0.543413,14.14122,NaN,NaN,0.04172316,0.8102022,2.175262E-07,1.086404,1.280988E-09,1.342927
1080.274,-1.155018,0.001008237,NaN,-1.000653,0.002190757,NaN,0.5731272,-14.93936,NaN,-0.8384951,-1.467919,-0.5492282,14.12849,NaN,NaN,0.03877275,0.8117393,2.199103E-07,1.069042,3.069127E-09,1.33263
1080.288,-1.161483,0.001009339,NaN,-1.004459,0.002189654,NaN,0.5812098,-14.93913,NaN,-0.8408753,-1.465658,-0.5555231,14.12608,NaN,NaN,0.03570008,0.8119496,2.121618E-07,1.065755,2.47308E-09,1.329716
1080.303,-1.168038,0.001010558,NaN,-1.008331,0.002190074,NaN,0.5892392,-14.93984,NaN,-0.8433679,-1.479283,-0.5618373,14.14053,NaN,NaN,0.03268817,0.8114021,2.094795E-07,1.085566,3.069127E-09,1.337344
1080.318,-1.168038,0.001010558,NaN,-1.008331,0.002190074,NaN,0.5892392,-14.93984,NaN,-0.8433679,-1.479283,-0.5618373,14.14053,NaN,NaN,0.03268817,0.8114021,2.094795E-07,1.085566,3.069127E-09,1.337344
1080.332,-1.174605,0.001011466,NaN,-1.012221,0.002190735,NaN,0.597086,-14.93988,NaN,-0.8459129,-1.466884,-0.5680315,14.12746,NaN,NaN,0.02973543,0.8114014,2.091815E-07,1.067556,6.049359E-09,1.334077
1080.348,-1.181144,0.001011084,NaN,-1.016101,0.002188928,NaN,0.604734,-14.94082,NaN,-0.8484808,-1.476377,-0.5740769,14.13757,NaN,NaN,0.02684059,0.8105529,2.079894E-07,1.081354,8.433545E-09,1.341177
1080.364,-1.187915,0.001009889,NaN,-1.020133,0.002186988,NaN,0.6128744,-14.9387,NaN,-0.8510957,-1.480834,-0.5806044,14.14205,NaN,NaN,0.02382239,0.8126626,2.014329E-07,1.087821,1.200982E-08,1.331748
1080.378,-1.187915,0.001009889,NaN,-1.020133,0.002186988,NaN,0.6128744,-14.9387,NaN,-0.8510957,-1.480834,-0.5806044,14.14205,NaN,NaN,0.02382239,0.8126626,2.014329E-07,1.087821,1.200982E-08,1.331748
1080.392,-1.194771,0.00100918,NaN,-1.024226,0.002185073,NaN,0.6209555,-14.93809,NaN,-0.8538191,-1.469399,-0.5871414,14.12992,NaN,NaN,0.02086389,0.8133204,1.996448E-07,1.071193,1.260587E-08,1.326371
1080.407,-1.201635,0.00100967,NaN,-1.028333,0.002185048,NaN,0.6288492,-14.93904,NaN,-0.8565902,-1.465529,-0.5935497,14.12593,NaN,NaN,0.01796351,0.8123484,2.014329E-07,1.06557,1.260587E-08,1.330183
1080.422,-1.208465,0.001011039,NaN,-1.032428,0.002187478,NaN,0.636541,-14.93941,NaN,-0.8593795,-1.464258,-0.5998024,14.12462,NaN,NaN,0.01512001,0.811965,1.996448E-07,1.063726,1.379796E-08,1.332921
1080.437,-1.208465,0.001011039,NaN,-1.032428,0.002187478,NaN,0.636541,-14.93941,NaN,-0.8593795,-1.464258,-0.5998024,14.12462,NaN,NaN,0.01512001,0.811965,1.996448E-07,1.063726,1.379796E-08,1.332921
1080.451,-1.215526,0.00101146,NaN,-1.036671,0.002186724,NaN,0.6447271,-14.9408,NaN,-0.8622199,-1.47523,-0.6065381,14.13635,NaN,NaN,0.01215215,0.8107096,1.907041E-07,1.079697,1.499006E-08,1.341876
1080.467,-1.222668,0.001010914,NaN,-1.040972,0.002186489,NaN,0.652846,-14.93869,NaN,-0.8651654,-1.479996,-0.6132721,14.14116,NaN,NaN,0.009242996,0.812817,1.89512E-07,1.086609,2.095052E-08,1.332525
1080.482,-1.229813,0.001009703,NaN,-1.045283,0.002185648,NaN,0.6607722,-14.93791,NaN,-0.868154,-1.470346,-0.6198686,14.13089,NaN,NaN,0.006390994,0.8136197,1.90108E-07,1.072574,2.095052E-08,1.325477
1080.497,-1.229813,0.001009703,NaN,-1.045283,0.002185648,NaN,0.6607722,-14.93791,NaN,-0.868154,-1.470346,-0.6198686,14.13089,NaN,NaN,0.006390994,0.8136197,1.90108E-07,1.072574,2.095052E-08,1.325477
1080.511,-1.237207,0.00100989,NaN,-1.049754,0.002182965,NaN,0.6691797,-14.93955,NaN,-0.8712107,-1.481431,-0.6269429,14.14279,NaN,NaN,0.003414818,0.8120549,1.802733E-07,1.088726,1.975843E-08,1.333635
1080.527,-1.244687,0.001009885,NaN,-1.054286,0.002182881,NaN,0.6774979,-14.94061,NaN,-0.874377,-1.481254,-0.6339965,14.14269,NaN,NaN,0.0004975032,0.8109891,1.802733E-07,1.088456,2.214261E-08,1.339598
1080.542,-1.252171,0.0010104,NaN,-1.058828,0.002181732,NaN,0.685607,-14.93944,NaN,-0.8775867,-1.473207,-0.6408966,14.13411,NaN,NaN,-0.002362513,0.8121877,1.829555E-07,1.076777,2.33347E-08,1.330785
1080.556,-1.252171,0.0010104,NaN,-1.058828,0.002181732,NaN,0.685607,-14.93944,NaN,-0.8775867,-1.473207,-0.6408966,14.13411,NaN,NaN,-0.002362513,0.8121877,1.829555E-07,1.076777,2.33347E-08,1.330785
1080.573,-1.259615,0.001010152,NaN,-1.063356,0.002180683,NaN,0.6934999,-14.93898,NaN,-0.8808088,-1.465409,-0.6476228,14.12583,NaN,NaN,-0.00516646,0.8126224,1.811673E-07,1.065437,2.33347E-08,1.325308
1080.586,-1.267287,0.001009445,NaN,-1.068027,0.002175972,NaN,0.7018836,-14.94026,NaN,-0.884091,-1.465163,-0.6548284,14.12572,NaN,NaN,-0.008095533,0.8113448,1.740148E-07,1.065103,1.856633E-08,1.32978
1080.601,-1.275032,0.00100898,NaN,-1.07275,0.002173867,NaN,0.7101809,-14.94145,NaN,-0.8874724,-1.471956,-0.6620083,14.13301,NaN,NaN,-0.01096666,0.8102318,1.731207E-07,1.074988,2.095052E-08,1.341542
1080.616,-1.275032,0.00100898,NaN,-1.07275,0.002173867,NaN,0.7101809,-14.94145,NaN,-0.8874724,-1.471956,-0.6620083,14.13301,NaN,NaN,-0.01096666,0.8102318,1.731207E-07,1.074988,2.095052E-08,1.341542
1080.63,-1.282771,0.001007904,NaN,-1.077478,0.002172327,NaN,0.7182732,-14.94058,NaN,-0.890889,-1.480232,-0.6690322,14.14162,NaN,NaN,-0.01378141,0.8111325,1.728227E-07,1.086987,2.33347E-08,1.338909
1080.646,-1.290464,0.001007035,NaN,-1.082186,0.002168823,NaN,0.7261522,-14.94133,NaN,-0.8943115,-1.468765,-0.6758804,14.12961,NaN,NaN,-0.01654096,0.8104249,1.752069E-07,1.070333,2.214261E-08,1.338064
1080.661,-1.298382,0.001005993,NaN,-1.087034,0.002166971,NaN,0.7345271,-14.93978,NaN,-0.8977978,-1.47345,-0.6832123,14.13437,NaN,NaN,-0.0194265,0.8120004,1.665642E-07,1.07712,2.214261E-08,1.333256
1080.675,-1.298382,0.001005993,NaN,-1.087034,0.002166971,NaN,0.7345271,-14.93978,NaN,-0.8977978,-1.47345,-0.6832123,14.13437,NaN,NaN,-0.0194265,0.8120004,1.665642E-07,1.07712,2.214261E-08,1.333256
1080.69,-1.306369,0.001005023,NaN,-1.091932,0.002164962,NaN,0.7428098,-14.94057,NaN,-0.9013789,-1.480779,-0.6905092,14.14219,NaN,NaN,-0.02225496,0.8112365,1.647761E-07,1.087781,2.33347E-08,1.33869
1080.705,-1.314345,0.001004488,NaN,-1.096831,0.002164553,NaN,0.7508848,-14.94023,NaN,-0.9049901,-1.465539,-0.6976434,14.12611,NaN,NaN,-0.02502787,0.81164,1.64478E-07,1.065652,2.095052E-08,1.331263
1080.72,-1.322271,0.001004666,NaN,-1.101707,0.002163223,NaN,0.7587454,-14.9413,NaN,-0.9086024,-1.477239,-0.7045981,14.13857,NaN,NaN,-0.02774642,0.8106931,1.653721E-07,1.082668,2.095052E-08,1.338306
1080.736,-1.322271,0.001004666,NaN,-1.101707,0.002163223,NaN,0.7587454,-14.9413,NaN,-0.9086024,-1.477239,-0.7045981,14.13857,NaN,NaN,-0.02774642,0.8106931,1.653721E-07,1.082668,2.095052E-08,1.338306
1080.749,-1.330422,0.001003482,NaN,-1.106723,0.002158336,NaN,0.7671039,-14.93926,NaN,-0.9122831,-1.481773,-0.7120392,14.14315,NaN,NaN,-0.03059173,0.8127176,1.582195E-07,1.089255,1.975842E-08,1.33476
1080.765,-1.338638,0.001002706,NaN,-1.111784,0.002156951,NaN,0.7753633,-14.93958,NaN,-0.9160548,-1.467472,-0.7194349,14.12808,NaN,NaN,-0.03338076,0.8124619,1.585176E-07,1.068454,2.095052E-08,1.333053
1080.782,-1.346839,0.001002587,NaN,-1.116845,0.00215874,NaN,0.7834119,-14.94016,NaN,-0.9198515,-1.466877,-0.7266614,14.12751,NaN,NaN,-0.03611503,0.8118763,1.570275E-07,1.067595,2.45268E-08,1.339317
1080.795,-1.346839,0.001002587,NaN,-1.116845,0.00215874,NaN,0.7834119,-14.94016,NaN,-0.9198515,-1.466877,-0.7266614,14.12751,NaN,NaN,-0.03611503,0.8118763,1.570275E-07,1.067595,2.45268E-08,1.339317
1080.808,-1.355282,0.001002355,NaN,-1.122054,0.002158697,NaN,0.7919436,-14.93998,NaN,-0.9237328,-1.480338,-0.7343677,14.14168,NaN,NaN,-0.03897573,0.8121896,1.501729E-07,1.087154,2.33347E-08,1.336528
1080.824,-1.363794,0.001001997,NaN,-1.127313,0.002159114,NaN,0.8003552,-14.94062,NaN,-0.9277079,-1.481633,-0.7420096,14.1431,NaN,NaN,-0.04177988,0.8115326,1.51067E-07,1.08903,2.214261E-08,1.34082
1080.839,-1.363794,0.001001997,NaN,-1.127313,0.002159114,NaN,0.8003552,-14.94062,NaN,-0.9277079,-1.481633,-0.7420096,14.1431,NaN,NaN,-0.04177988,0.8115326,1.51067E-07,1.08903,2.214261E-08,1.34082
1080.853,-1.372292,0.001002111,NaN,-1.132571,0.002160212,NaN,0.808542,-14.9394,NaN,-0.931707,-1.475157,-0.7494689,14.13616,NaN,NaN,-0.04452898,0.8127833,1.534512E-07,1.079628,1.737424E-08,1.332494
1080.868,-1.380734,0.001002086,NaN,-1.137803,0.002160138,NaN,0.816504,-14.93975,NaN,-0.9357003,-1.481039,-0.756736,14.1424,NaN,NaN,-0.04722419,0.8124406,1.555374E-07,1.088184,1.379796E-08,1.335997
