JMolnar6/NonAnthroHands_User_Study/HandsLoggerWithURDF/tempdata/files/Reachy_JointMotion_gesture_11_54.csv
Time,r_shoulder,r_shoulder_x,r_upper_arm,r_forearm,r_wrist,r_wrist2hand,
781.9507,-0.8413405,1.950941E-10,NaN,-0.3579632,-1.325563E-07,NaN,1.154055,-4.853182E-07,NaN,-0.6681945,2.213309E-05,0.4315058,6.321744E-08,NaN,NaN,-0.01016315,-4.051258E-10,-6.849085E-07,-1.10388E-07,-2.227437E-08,-2.622604E-08
781.9674,-0.8392741,1.957767E-10,NaN,-0.3572508,-1.325566E-07,NaN,1.153949,-4.853674E-07,NaN,-0.6654912,2.213349E-05,0.4325626,6.326791E-08,NaN,NaN,-0.009993799,-4.051258E-10,-6.896769E-07,-1.103885E-07,-2.465856E-08,-2.861022E-08
781.9824,-0.8370973,1.964592E-10,NaN,-0.3564994,-1.325568E-07,NaN,1.153751,-4.854156E-07,NaN,-0.6624992,2.213389E-05,0.4338051,6.331733E-08,NaN,NaN,-0.009827741,-4.097825E-10,-6.932532E-07,-1.10389E-07,-2.227437E-08,-2.622604E-08
781.998,-0.8370973,1.964592E-10,NaN,-0.3564994,-1.325568E-07,NaN,1.153751,-4.854156E-07,NaN,-0.6624992,2.213389E-05,0.4338051,6.331733E-08,NaN,NaN,-0.009827741,-4.097825E-10,-6.932532E-07,-1.10389E-07,-2.227437E-08,-2.622604E-08
782.013,-0.8348609,1.971417E-10,NaN,-0.3557278,-1.32557E-07,NaN,1.153577,-4.854627E-07,NaN,-0.6593948,2.213429E-05,0.4350794,6.336572E-08,NaN,NaN,-0.009665037,-4.097825E-10,-6.968295E-07,-1.103895E-07,-2.227437E-08,-2.861022E-08
782.0297,-0.8325968,1.97824E-10,NaN,-0.3549475,-1.325573E-07,NaN,1.153454,-4.855116E-07,NaN,-0.6562632,2.21347E-05,0.4363314,6.341592E-08,NaN,NaN,-0.00950563,-4.144391E-10,-6.90869E-07,-1.1039E-07,-2.108228E-08,-2.622604E-08
782.0453,-0.8305374,1.985064E-10,NaN,-0.3542423,-1.325577E-07,NaN,1.153728,-4.85441E-07,NaN,-0.653633,2.21351E-05,0.4370687,6.334658E-08,NaN,NaN,-0.009433557,-4.144391E-10,-6.849085E-07,-1.1039E-07,-2.108228E-08,-2.861022E-08
782.061,-0.8286147,1.991886E-10,NaN,-0.3535858,-1.325582E-07,NaN,1.154139,-4.853886E-07,NaN,-0.6513576,2.213551E-05,0.4375652,6.329547E-08,NaN,NaN,-0.009362995,-4.190957E-10,-6.78948E-07,-1.1039E-07,-1.7506E-08,-2.622604E-08
782.077,-0.8286147,1.991886E-10,NaN,-0.3535858,-1.325582E-07,NaN,1.154139,-4.853886E-07,NaN,-0.6513576,2.213551E-05,0.4375652,6.329547E-08,NaN,NaN,-0.009362995,-4.190957E-10,-6.78948E-07,-1.1039E-07,-1.7506E-08,-2.622604E-08
782.0924,-0.8267853,1.998708E-10,NaN,-0.352962,-1.325586E-07,NaN,1.154556,-4.853457E-07,NaN,-0.6492684,2.213591E-05,0.4379779,6.325376E-08,NaN,NaN,-0.009293776,-4.237523E-10,-6.706034E-07,-1.1039E-07,-1.154554E-08,-2.861022E-08
782.1087,-0.825022,2.00553E-10,NaN,-0.3523609,-1.325589E-07,NaN,1.154945,-4.852752E-07,NaN,-0.6472833,2.213632E-05,0.4383652,6.318459E-08,NaN,NaN,-0.009225856,-4.284089E-10,-6.598745E-07,-1.1039E-07,-9.161351E-09,-2.622604E-08
782.1245,-0.8235199,2.012351E-10,NaN,-0.3518532,-1.325591E-07,NaN,1.155656,-4.853528E-07,NaN,-0.6458511,2.213672E-05,0.4382709,6.326344E-08,NaN,NaN,-0.009243385,-4.284089E-10,-6.396089E-07,-1.103904E-07,-7.969258E-09,-2.861022E-08
782.1403,-0.8221874,2.019171E-10,NaN,-0.3514046,-1.325593E-07,NaN,1.156446,-4.854175E-07,NaN,-0.644787,2.213712E-05,0.437971,6.33294E-08,NaN,NaN,-0.009260554,-4.330655E-10,-6.241117E-07,-1.103909E-07,-5.585072E-09,-2.622604E-08
782.1561,-0.8221874,2.019171E-10,NaN,-0.3514046,-1.325593E-07,NaN,1.156446,-4.854175E-07,NaN,-0.644787,2.213712E-05,0.437971,6.33294E-08,NaN,NaN,-0.009260554,-4.330655E-10,-6.241117E-07,-1.103909E-07,-5.585072E-09,-2.622604E-08
782.1714,-0.8209667,2.02599E-10,NaN,-0.3509942,-1.325595E-07,NaN,1.157201,-4.854752E-07,NaN,-0.6439048,2.213752E-05,0.4376186,6.338836E-08,NaN,NaN,-0.009277274,-4.330655E-10,-6.038461E-07,-1.103914E-07,-1.154554E-08,-2.861022E-08
782.1878,-0.819821,2.032809E-10,NaN,-0.3506089,-1.325597E-07,NaN,1.157897,-4.855289E-07,NaN,-0.6431144,2.213793E-05,0.4372674,6.344328E-08,NaN,NaN,-0.009293558,-4.377221E-10,-5.871568E-07,-1.103919E-07,-9.161351E-09,-2.622604E-08
782.2042,-0.8189394,2.039627E-10,NaN,-0.3503175,-1.3256E-07,NaN,1.158895,-4.855814E-07,NaN,-0.6428614,2.213833E-05,0.4364574,6.349707E-08,NaN,NaN,-0.00939362,-4.377221E-10,-5.597387E-07,-1.103923E-07,-1.154554E-08,-2.861022E-08
782.2197,-0.8189394,2.039627E-10,NaN,-0.3503175,-1.3256E-07,NaN,1.158895,-4.855814E-07,NaN,-0.6428614,2.213833E-05,0.4364574,6.349707E-08,NaN,NaN,-0.00939362,-4.377221E-10,-5.597387E-07,-1.103923E-07,-1.154554E-08,-2.861022E-08
782.2347,-0.8182269,2.046445E-10,NaN,-0.350085,-1.325602E-07,NaN,1.159955,-4.856328E-07,NaN,-0.6429596,2.213873E-05,0.4354606,6.354974E-08,NaN,NaN,-0.009491676,-4.423787E-10,-5.358968E-07,-1.103928E-07,-1.154554E-08,-2.622604E-08
782.251,-0.8176234,2.053263E-10,NaN,-0.3498895,-1.325604E-07,NaN,1.160966,-4.856831E-07,NaN,-0.6432222,2.213913E-05,0.4344281,6.360132E-08,NaN,NaN,-0.009587674,-4.423787E-10,-5.144392E-07,-1.103933E-07,-7.969257E-09,-2.861022E-08
782.2672,-0.8170908,2.06008E-10,NaN,-0.3497175,-1.325606E-07,NaN,1.161907,-4.857323E-07,NaN,-0.6435589,2.213954E-05,0.4334118,6.365183E-08,NaN,NaN,-0.009681667,-4.470353E-10,-4.929815E-07,-1.103938E-07,-7.969257E-09,-2.622604E-08
782.2846,-0.816817,2.066897E-10,NaN,-0.3496377,-1.325609E-07,NaN,1.16314,-4.857805E-07,NaN,-0.6444158,2.213994E-05,0.43195,6.370128E-08,NaN,NaN,-0.009857881,-4.470353E-10,-4.631792E-07,-1.103942E-07,-7.969257E-09,-2.861022E-08
782.2992,-0.816817,2.066897E-10,NaN,-0.3496377,-1.325609E-07,NaN,1.16314,-4.857805E-07,NaN,-0.6444158,2.213994E-05,0.43195,6.370128E-08,NaN,NaN,-0.009857881,-4.470353E-10,-4.631792E-07,-1.103942E-07,-7.969257E-09,-2.861022E-08
782.314,-0.8167068,2.073713E-10,NaN,-0.3496149,-1.325611E-07,NaN,1.164423,-4.858277E-07,NaN,-0.6456067,2.214035E-05,0.4303154,6.37497E-08,NaN,NaN,-0.01003057,-4.516919E-10,-4.309927E-07,-1.103947E-07,-3.200886E-09,-2.622604E-08
782.3307,-0.8166998,2.080529E-10,NaN,-0.349626,-1.325613E-07,NaN,1.165646,-4.858738E-07,NaN,-0.6469443,2.214074E-05,0.4286589,6.379712E-08,NaN,NaN,-0.01019973,-4.423787E-10,-4.011904E-07,-1.103952E-07,-4.392978E-09,-2.861022E-08
782.3469,-0.8167565,2.087343E-10,NaN,-0.3496581,-1.325616E-07,NaN,1.166788,-4.85919E-07,NaN,-0.6483395,2.214114E-05,0.4270327,6.384354E-08,NaN,NaN,-0.01036543,-4.470353E-10,-3.761564E-07,-1.103957E-07,-4.392978E-09,-2.622604E-08
782.3622,-0.8170652,2.094156E-10,NaN,-0.3497797,-1.325618E-07,NaN,1.168212,-4.85966E-07,NaN,-0.6502385,2.214154E-05,0.4249713,6.389182E-08,NaN,NaN,-0.01061188,-4.470353E-10,-3.439699E-07,-1.103961E-07,-3.200886E-09,-2.861022E-08
782.3777,-0.8170652,2.094156E-10,NaN,-0.3497797,-1.325618E-07,NaN,1.168212,-4.85966E-07,NaN,-0.6502385,2.214154E-05,0.4249713,6.389182E-08,NaN,NaN,-0.01061188,-4.470353E-10,-3.439699E-07,-1.103961E-07,-3.200886E-09,-2.861022E-08
782.3928,-0.8175307,2.100969E-10,NaN,-0.3499558,-1.32562E-07,NaN,1.169674,-4.86012E-07,NaN,-0.6524552,2.214195E-05,0.4227502,6.393909E-08,NaN,NaN,-0.01085341,-4.516919E-10,-3.117834E-07,-1.103966E-07,1.567486E-09,-2.622604E-08
782.4093,-0.8180927,2.107782E-10,NaN,-0.3501646,-1.325622E-07,NaN,1.171065,-4.86057E-07,NaN,-0.6548033,2.214235E-05,0.4205202,6.398538E-08,NaN,NaN,-0.01109005,-4.516919E-10,-2.795969E-07,-1.103971E-07,3.75393E-10,-2.861022E-08
782.4254,-0.8187129,2.114593E-10,NaN,-0.3503924,-1.325625E-07,NaN,1.172364,-4.861039E-07,NaN,-0.6571929,2.214275E-05,0.4183323,6.403351E-08,NaN,NaN,-0.01132188,-4.563485E-10,-2.486025E-07,-1.103975E-07,-4.392978E-09,-2.622604E-08
782.4413,-0.8195791,2.121404E-10,NaN,-0.3507077,-1.325627E-07,NaN,1.173936,-4.861498E-07,NaN,-0.6600707,2.214315E-05,0.4157172,6.408065E-08,NaN,NaN,-0.01163307,-4.563485E-10,-2.176081E-07,-1.10398E-07,-8.166998E-10,-2.861022E-08
782.457,-0.8195791,2.121404E-10,NaN,-0.3507077,-1.325627E-07,NaN,1.173936,-4.861498E-07,NaN,-0.6600707,2.214315E-05,0.4157172,6.408065E-08,NaN,NaN,-0.01163307,-4.563485E-10,-2.176081E-07,-1.10398E-07,-8.166998E-10,-2.861022E-08
782.4722,-0.820596,2.128215E-10,NaN,-0.3510752,-1.325629E-07,NaN,1.175531,-4.861947E-07,NaN,-0.6632506,2.214356E-05,0.4129564,6.41268E-08,NaN,NaN,-0.01193808,-4.610052E-10,-1.818453E-07,-1.103984E-07,1.567486E-09,-2.622604E-08
782.4883,-0.821703,2.135025E-10,NaN,-0.3514727,-1.325631E-07,NaN,1.177042,-4.862386E-07,NaN,-0.6665466,2.214395E-05,0.4102004,6.417199E-08,NaN,NaN,-0.01223693,-4.516919E-10,-1.448904E-07,-1.103989E-07,3.75393E-10,-2.861022E-08
782.5042,-0.8228619,2.141833E-10,NaN,-0.3518869,-1.325634E-07,NaN,1.178452,-4.862816E-07,NaN,-0.6698691,2.214436E-05,0.4074992,6.421622E-08,NaN,NaN,-0.01252973,-4.563485E-10,-1.127039E-07,-1.103994E-07,3.951672E-09,-2.622604E-08
782.52,-0.8242607,2.148641E-10,NaN,-0.3523861,-1.325636E-07,NaN,1.180123,-4.863264E-07,NaN,-0.673665,2.214475E-05,0.4043773,6.426236E-08,NaN,NaN,-0.01290059,-4.470353E-10,-7.813324E-08,-1.103998E-07,7.527951E-09,-2.861022E-08
782.5359,-0.8242607,2.148641E-10,NaN,-0.3523861,-1.325636E-07,NaN,1.180123,-4.863264E-07,NaN,-0.673665,2.214475E-05,0.4043773,6.426236E-08,NaN,NaN,-0.01290059,-4.470353E-10,-7.813324E-08,-1.103998E-07,7.527951E-09,-2.861022E-08
782.5507,-0.8258038,2.155448E-10,NaN,-0.3529349,-1.325638E-07,NaN,1.181803,-4.863703E-07,NaN,-0.6777484,2.214515E-05,0.4011234,6.430753E-08,NaN,NaN,-0.0132641,-4.516919E-10,-3.879418E-08,-1.104003E-07,8.720043E-09,-2.622604E-08
782.5676,-0.8274307,2.162255E-10,NaN,-0.3535113,-1.32564E-07,NaN,1.183386,-4.864133E-07,NaN,-0.6819335,2.214555E-05,0.3978882,6.435175E-08,NaN,NaN,-0.01362027,-4.516919E-10,-1.839297E-09,-1.104007E-07,6.335858E-09,-2.861022E-08
782.5833,-0.8291034,2.16906E-10,NaN,-0.3541019,-1.325643E-07,NaN,1.184858,-4.864553E-07,NaN,-0.686131,2.214596E-05,0.3947202,6.439505E-08,NaN,NaN,-0.01396927,-4.563485E-10,3.15393E-08,-1.104012E-07,9.912136E-09,-2.622604E-08
782.5983,-0.8291034,2.16906E-10,NaN,-0.3541019,-1.325643E-07,NaN,1.184858,-4.864553E-07,NaN,-0.686131,2.214596E-05,0.3947202,6.439505E-08,NaN,NaN,-0.01396927,-4.563485E-10,3.15393E-08,-1.104012E-07,9.912136E-09,-2.622604E-08
782.6132,-0.83101,2.175865E-10,NaN,-0.3547753,-1.325645E-07,NaN,1.186581,-4.864964E-07,NaN,-0.6907878,2.214636E-05,0.3911361,6.443744E-08,NaN,NaN,-0.01439511,-4.563485E-10,7.207046E-08,-1.104016E-07,1.110423E-08,-2.861022E-08
782.6304,-0.833055,2.18267E-10,NaN,-0.3554958,-1.325647E-07,NaN,1.188297,-4.865394E-07,NaN,-0.6957184,2.214677E-05,0.387434,6.448176E-08,NaN,NaN,-0.0148125,-4.610052E-10,1.137937E-07,-1.104021E-07,1.348841E-08,-2.622604E-08
782.6462,-0.835178,2.189474E-10,NaN,-0.3562416,-1.325649E-07,NaN,1.189905,-4.865815E-07,NaN,-0.7007371,2.214716E-05,0.3837647,6.452515E-08,NaN,NaN,-0.01522151,-4.516919E-10,1.519407E-07,-1.104025E-07,1.58726E-08,-2.861022E-08
782.6623,-0.8373407,2.196276E-10,NaN,-0.3569992,-1.325651E-07,NaN,1.191393,-4.866228E-07,NaN,-0.7057549,2.214756E-05,0.3801746,6.456764E-08,NaN,NaN,-0.01562228,-4.563485E-10,1.924719E-07,-1.10403E-07,1.468051E-08,-2.622604E-08
782.678,-0.8373407,2.196276E-10,NaN,-0.3569992,-1.325651E-07,NaN,1.191393,-4.866228E-07,NaN,-0.7057549,2.214756E-05,0.3801746,6.456764E-08,NaN,NaN,-0.01562228,-4.563485E-10,1.924719E-07,-1.10403E-07,1.468051E-08,-2.622604E-08
782.6928,-0.8397319,2.203079E-10,NaN,-0.3578374,-1.325653E-07,NaN,1.193122,-4.866631E-07,NaN,-0.7112187,2.214795E-05,0.3761713,6.460922E-08,NaN,NaN,-0.01609877,-4.470353E-10,2.306188E-07,-1.104034E-07,1.229632E-08,-2.861022E-08
782.7093,-0.8422557,2.20988E-10,NaN,-0.3587206,-1.325655E-07,NaN,1.194829,-4.867053E-07,NaN,-0.7169433,2.214836E-05,0.3720643,6.465276E-08,NaN,NaN,-0.01656582,-4.516919E-10,2.7115E-07,-1.104039E-07,1.229632E-08,-2.622604E-08
782.7249,-0.8448517,2.21668E-10,NaN,-0.3596267,-1.325657E-07,NaN,1.196417,-4.867467E-07,NaN,-0.7227432,2.214876E-05,0.3680043,6.469539E-08,NaN,NaN,-0.0170235,-4.516919E-10,3.116811E-07,-1.104043E-07,9.912135E-09,-2.861022E-08
782.741,-0.8474821,2.22348E-10,NaN,-0.3605426,-1.32566E-07,NaN,1.197877,-4.867872E-07,NaN,-0.7285298,2.214916E-05,0.3640356,6.473711E-08,NaN,NaN,-0.01747198,-4.563485E-10,3.48636E-07,-1.104048E-07,3.951671E-09,-2.622604E-08
782.7567,-0.8474821,2.22348E-10,NaN,-0.3605426,-1.32566E-07,NaN,1.197877,-4.867872E-07,NaN,-0.7285298,2.214916E-05,0.3640356,6.473711E-08,NaN,NaN,-0.01747198,-4.563485E-10,3.48636E-07,-1.104048E-07,3.951671E-09,-2.622604E-08
782.772,-0.8503357,2.230279E-10,NaN,-0.3615371,-1.325662E-07,NaN,1.199571,-4.868268E-07,NaN,-0.7347497,2.214956E-05,0.3596543,6.477796E-08,NaN,NaN,-0.01799514,-4.470353E-10,3.975118E-07,-1.104052E-07,1.567485E-09,-2.861022E-08
782.7881,-0.8533165,2.237077E-10,NaN,-0.3625743,-1.325664E-07,NaN,1.201227,-4.868655E-07,NaN,-0.7412181,2.214996E-05,0.3551843,6.481795E-08,NaN,NaN,-0.01850795,-4.516919E-10,4.332746E-07,-1.104056E-07,6.335857E-09,-2.622604E-08
782.8055,-0.8563643,2.243875E-10,NaN,-0.3636324,-1.325666E-07,NaN,1.202754,-4.869062E-07,NaN,-0.7477499,2.215036E-05,0.3507758,6.485992E-08,NaN,NaN,-0.01901049,-4.516919E-10,4.726137E-07,-1.104061E-07,1.110423E-08,-2.861022E-08
782.8196,-0.8563643,2.243875E-10,NaN,-0.3636324,-1.325666E-07,NaN,1.202754,-4.869062E-07,NaN,-0.7477499,2.215036E-05,0.3507758,6.485992E-08,NaN,NaN,-0.01901049,-4.516919E-10,4.726137E-07,-1.104061E-07,1.110423E-08,-2.861022E-08
782.8349,-0.8596539,2.250671E-10,NaN,-0.3647752,-1.325668E-07,NaN,1.204489,-4.86946E-07,NaN,-0.7547441,2.215077E-05,0.3459507,6.4901E-08,NaN,NaN,-0.01958652,-4.563485E-10,5.107606E-07,-1.104065E-07,1.706469E-08,-2.622604E-08
782.851,-0.8630807,2.257468E-10,NaN,-0.3659634,-1.32567E-07,NaN,1.206157,-4.869849E-07,NaN,-0.7619936,2.215117E-05,0.3410558,6.494123E-08,NaN,NaN,-0.02015115,-4.563485E-10,5.500997E-07,-1.104069E-07,2.064097E-08,-2.861022E-08
782.8669,-0.8665785,2.264264E-10,NaN,-0.3671735,-1.325672E-07,NaN,1.207674,-4.87023E-07,NaN,-0.7693027,2.215157E-05,0.336242,6.498061E-08,NaN,NaN,-0.02070445,-4.610052E-10,5.894387E-07,-1.104074E-07,2.302516E-08,-2.622604E-08
782.8828,-0.8701059,2.271059E-10,NaN,-0.368391,-1.325675E-07,NaN,1.209046,-4.870631E-07,NaN,-0.7765784,2.215197E-05,0.3315472,6.502199E-08,NaN,NaN,-0.02124668,-4.610052E-10,6.31162E-07,-1.104078E-07,2.183306E-08,-2.861022E-08
782.8986,-0.8701059,2.271059E-10,NaN,-0.368391,-1.325675E-07,NaN,1.209046,-4.870631E-07,NaN,-0.7765784,2.215197E-05,0.3315472,6.502199E-08,NaN,NaN,-0.02124668,-4.610052E-10,6.31162E-07,-1.104078E-07,2.183306E-08,-2.861022E-08
782.9136,-0.8738503,2.277854E-10,NaN,-0.3696843,-1.325677E-07,NaN,1.210631,-4.871023E-07,NaN,-0.7842647,2.215238E-05,0.3264411,6.506249E-08,NaN,NaN,-0.02186156,-4.656618E-10,6.788457E-07,-1.104082E-07,1.58726E-08,-2.622604E-08
782.9302,-0.8777141,2.284648E-10,NaN,-0.371017,-1.325679E-07,NaN,1.212148,-4.871407E-07,NaN,-0.7921765,2.215278E-05,0.3212803,6.510213E-08,NaN,NaN,-0.02246429,-4.656618E-10,7.265294E-07,-1.104087E-07,1.229632E-08,-2.861022E-08
782.9459,-0.881636,2.291441E-10,NaN,-0.372367,-1.325681E-07,NaN,1.213519,-4.871782E-07,NaN,-0.8001287,2.215318E-05,0.3162118,6.514094E-08,NaN,NaN,-0.02305497,-4.703184E-10,7.71829E-07,-1.104091E-07,1.229632E-08,-2.622604E-08
782.9618,-0.8855778,2.298235E-10,NaN,-0.3737212,-1.325683E-07,NaN,1.21475,-4.872149E-07,NaN,-0.8080335,2.215358E-05,0.3112698,6.517892E-08,NaN,NaN,-0.02363385,-4.703184E-10,8.135522E-07,-1.104095E-07,1.229632E-08,-2.861022E-08
782.9775,-0.8855778,2.298235E-10,NaN,-0.3737212,-1.325683E-07,NaN,1.21475,-4.872149E-07,NaN,-0.8080335,2.215358E-05,0.3112698,6.517892E-08,NaN,NaN,-0.02363385,-4.703184E-10,8.135522E-07,-1.104095E-07,1.229632E-08,-2.861022E-08
782.9931,-0.889729,2.305027E-10,NaN,-0.3751485,-1.325685E-07,NaN,1.216195,-4.872537E-07,NaN,-0.8163365,2.215399E-05,0.305908,6.521893E-08,NaN,NaN,-0.0242846,-4.74975E-10,8.62428E-07,-1.104099E-07,1.110423E-08,-2.622604E-08
783.0094,-0.893993,2.311818E-10,NaN,-0.3766129,-1.325687E-07,NaN,1.217562,-4.872916E-07,NaN,-0.8248542,2.215439E-05,0.3005079,6.525809E-08,NaN,NaN,-0.02492251,-4.656618E-10,9.077276E-07,-1.104104E-07,1.110423E-08,-2.861022E-08
783.0255,-0.8983092,2.318609E-10,NaN,-0.3780925,-1.325689E-07,NaN,1.218779,-4.873286E-07,NaN,-0.8334022,2.215478E-05,0.2952143,6.529643E-08,NaN,NaN,-0.0255477,-4.563486E-10,9.482587E-07,-1.104108E-07,8.720042E-09,-2.622604E-08
783.0411,-0.90264,2.325398E-10,NaN,-0.3795744,-1.325691E-07,NaN,1.21986,-4.873649E-07,NaN,-0.8418934,2.215518E-05,0.2900563,6.533395E-08,NaN,NaN,-0.02616041,-4.51692E-10,9.864057E-07,-1.104112E-07,7.527949E-09,-2.861022E-08
783.0569,-0.90264,2.325398E-10,NaN,-0.3795744,-1.325691E-07,NaN,1.21986,-4.873649E-07,NaN,-0.8418934,2.215518E-05,0.2900563,6.533395E-08,NaN,NaN,-0.02616041,-4.51692E-10,9.864057E-07,-1.104112E-07,7.527949E-09,-2.861022E-08
783.0722,-0.9071757,2.332186E-10,NaN,-0.3811279,-1.325693E-07,NaN,1.221151,-4.874004E-07,NaN,-0.850773,2.215558E-05,0.2844693,6.537068E-08,NaN,NaN,-0.02684427,-4.470354E-10,1.026937E-06,-1.104116E-07,7.527949E-09,-2.622604E-08
783.0884,-0.9118194,2.338974E-10,NaN,-0.3827166,-1.325695E-07,NaN,1.222353,-4.874379E-07,NaN,-0.8598577,2.215598E-05,0.2788635,6.540945E-08,NaN,NaN,-0.02751464,-4.423787E-10,1.072236E-06,-1.10412E-07,6.335856E-09,-2.861022E-08
783.1046,-0.9165109,2.345761E-10,NaN,-0.3843188,-1.325697E-07,NaN,1.223405,-4.874746E-07,NaN,-0.8689638,2.215638E-05,0.2733786,6.544741E-08,NaN,NaN,-0.02817167,-4.330655E-10,1.115152E-06,-1.104125E-07,9.912135E-09,-2.622604E-08
783.1203,-0.9212126,2.352549E-10,NaN,-0.3859217,-1.325699E-07,NaN,1.224325,-4.875104E-07,NaN,-0.8780045,2.215678E-05,0.2680375,6.548456E-08,NaN,NaN,-0.02881561,-4.284089E-10,1.154491E-06,-1.104129E-07,7.52795E-09,-2.861022E-08
783.1363,-0.9212126,2.352549E-10,NaN,-0.3859217,-1.325699E-07,NaN,1.224325,-4.875104E-07,NaN,-0.8780045,2.215678E-05,0.2680375,6.548456E-08,NaN,NaN,-0.02881561,-4.284089E-10,1.154491E-06,-1.104129E-07,7.52795E-09,-2.861022E-08
783.1514,-0.9261151,2.359337E-10,NaN,-0.3875947,-1.325701E-07,NaN,1.225453,-4.875455E-07,NaN,-0.8874244,2.215718E-05,0.2622562,6.552091E-08,NaN,NaN,-0.02953004,-4.237523E-10,1.191446E-06,-1.104133E-07,1.229632E-08,-2.622604E-08
783.1677,-0.9311216,2.366123E-10,NaN,-0.3893013,-1.325703E-07,NaN,1.226482,-4.875798E-07,NaN,-0.8970407,2.215758E-05,0.2564776,6.55565E-08,NaN,NaN,-0.03023039,-4.190957E-10,1.231977E-06,-1.104137E-07,1.58726E-08,-2.861022E-08
783.183,-0.9361717,2.37291E-10,NaN,-0.39102,-1.325705E-07,NaN,1.227362,-4.876162E-07,NaN,-0.90667,2.215798E-05,0.2508335,6.559415E-08,NaN,NaN,-0.03091682,-4.144391E-10,1.271316E-06,-1.104141E-07,1.706469E-08,-2.622604E-08
783.1992,-0.9361717,2.37291E-10,NaN,-0.39102,-1.325705E-07,NaN,1.227362,-4.876162E-07,NaN,-0.90667,2.215798E-05,0.2508335,6.559415E-08,NaN,NaN,-0.03091682,-4.144391E-10,1.271316E-06,-1.104141E-07,1.706469E-08,-2.622604E-08
783.2141,-0.9412278,2.379695E-10,NaN,-0.3927378,-1.325707E-07,NaN,1.228116,-4.876518E-07,NaN,-0.9162261,2.215838E-05,0.2453399,6.563101E-08,NaN,NaN,-0.0315896,-4.097825E-10,1.305887E-06,-1.104145E-07,2.421725E-08,-2.861022E-08
783.2308,-0.9464811,2.38648E-10,NaN,-0.3945242,-1.325709E-07,NaN,1.229076,-4.876866E-07,NaN,-0.9261529,2.215878E-05,0.2393928,6.566707E-08,NaN,NaN,-0.03233228,-4.051259E-10,1.34761E-06,-1.104149E-07,2.123702E-08,-2.622604E-08
783.2466,-0.9518346,2.393264E-10,NaN,-0.3963429,-1.325711E-07,NaN,1.229928,-4.877206E-07,NaN,-0.9362678,2.215918E-05,0.2334721,6.570237E-08,NaN,NaN,-0.03306032,-4.004693E-10,1.385757E-06,-1.104153E-07,2.123702E-08,-2.861022E-08
783.2628,-0.9572276,2.400047E-10,NaN,-0.398172,-1.325713E-07,NaN,1.230636,-4.877567E-07,NaN,-0.9463881,2.215958E-05,0.227698,6.573975E-08,NaN,NaN,-0.0337739,-3.958127E-10,1.422712E-06,-1.104157E-07,2.421725E-08,-2.622604E-08
783.2782,-0.9572276,2.400047E-10,NaN,-0.398172,-1.325713E-07,NaN,1.230636,-4.877567E-07,NaN,-0.9463881,2.215958E-05,0.227698,6.573975E-08,NaN,NaN,-0.0337739,-3.958127E-10,1.422712E-06,-1.104157E-07,2.421725E-08,-2.622604E-08
783.2936,-0.9626228,2.406829E-10,NaN,-0.399999,-1.325715E-07,NaN,1.231227,-4.87792E-07,NaN,-0.9564281,2.215998E-05,0.2220791,6.577633E-08,NaN,NaN,-0.03447332,-3.911561E-10,1.45609E-06,-1.104161E-07,2.36212E-08,-2.861022E-08
783.3099,-0.9682118,2.413612E-10,NaN,-0.4018932,-1.325717E-07,NaN,1.23202,-4.878266E-07,NaN,-0.9668309,2.216038E-05,0.2159923,6.581214E-08,NaN,NaN,-0.0352421,-3.864994E-10,1.493045E-06,-1.104166E-07,1.885283E-08,-2.622604E-08
783.3289,-0.9738972,2.420393E-10,NaN,-0.4038182,-1.325719E-07,NaN,1.232697,-4.878603E-07,NaN,-0.9774142,2.216078E-05,0.2099574,6.584718E-08,NaN,NaN,-0.03599572,-3.818428E-10,1.52404E-06,-1.104169E-07,1.766074E-08,-2.861022E-08
783.3431,-0.9796184,2.427174E-10,NaN,-0.4057524,-1.325721E-07,NaN,1.233237,-4.878934E-07,NaN,-0.9879959,2.216118E-05,0.2040788,6.588147E-08,NaN,NaN,-0.0367344,-3.771862E-10,1.553842E-06,-1.104173E-07,1.766074E-08,-2.622604E-08
783.3576,-0.9796184,2.427174E-10,NaN,-0.4057524,-1.325721E-07,NaN,1.233237,-4.878934E-07,NaN,-0.9879959,2.216118E-05,0.2040788,6.588147E-08,NaN,NaN,-0.0367344,-3.771862E-10,1.553842E-06,-1.104173E-07,1.766074E-08,-2.622604E-08
783.373,-0.985338,2.433954E-10,NaN,-0.407683,-1.325723E-07,NaN,1.23367,-4.879257E-07,NaN,-0.9984909,2.216158E-05,0.1983583,6.591503E-08,NaN,NaN,-0.03745846,-3.725296E-10,1.58126E-06,-1.104177E-07,1.646865E-08,-2.861022E-08
783.3896,-0.9912482,2.44073E-10,NaN,-0.4096797,-1.325721E-07,NaN,1.2343,-4.879008E-07,NaN,-1.009341,2.216198E-05,0.1921552,6.589148E-08,NaN,NaN,-0.03825137,-3.725296E-10,1.614639E-06,-1.104156E-07,1.646865E-08,-2.622604E-08
783.4052,-0.9972513,2.447503E-10,NaN,-0.4117058,-1.325711E-07,NaN,1.234809,-4.881867E-07,NaN,-1.020365,2.216238E-05,0.1860307,6.617868E-08,NaN,NaN,-0.03902864,-3.725296E-10,1.644441E-06,-1.104128E-07,2.004493E-08,-2.622604E-08
783.4208,-1.003287,2.454276E-10,NaN,-0.4137397,-1.325696E-07,NaN,1.235191,-4.886475E-07,NaN,-1.031381,2.216277E-05,0.1800693,6.664077E-08,NaN,NaN,-0.03979053,-3.67873E-10,1.670667E-06,-1.104096E-07,2.183307E-08,-2.622604E-08
783.4368,-1.003287,2.454276E-10,NaN,-0.4137397,-1.325696E-07,NaN,1.235191,-4.886475E-07,NaN,-1.031381,2.216277E-05,0.1800693,6.664077E-08,NaN,NaN,-0.03979053,-3.67873E-10,1.670667E-06,-1.104096E-07,2.183307E-08,-2.622604E-08
783.452,-1.009317,2.461046E-10,NaN,-0.4157687,-1.325678E-07,NaN,1.235476,-4.891951E-07,NaN,-1.042304,2.216317E-05,0.174267,6.718966E-08,NaN,NaN,-0.04053736,-3.67873E-10,1.698085E-06,-1.104062E-07,1.527656E-08,-2.622604E-08
783.4685,-1.015534,2.467816E-10,NaN,-0.4178627,-1.325659E-07,NaN,1.235951,-4.897855E-07,NaN,-1.053576,2.216356E-05,0.1679687,6.778133E-08,NaN,NaN,-0.04135258,-3.67873E-10,1.721927E-06,-1.104028E-07,1.646865E-08,-2.622604E-08
783.4843,-1.021842,2.474585E-10,NaN,-0.4199849,-1.325638E-07,NaN,1.236303,-4.903952E-07,NaN,-1.065015,2.216396E-05,0.1617752,6.839237E-08,NaN,NaN,-0.04215172,-3.67873E-10,1.752921E-06,-1.103992E-07,1.468051E-08,-2.622604E-08
783.5002,-1.028178,2.481353E-10,NaN,-0.4221136,-1.325617E-07,NaN,1.236539,-4.91007E-07,NaN,-1.07644,2.216436E-05,0.1557482,6.900548E-08,NaN,NaN,-0.04293508,-3.67873E-10,1.774379E-06,-1.103957E-07,1.58726E-08,-2.622604E-08
783.5158,-1.028178,2.481353E-10,NaN,-0.4221136,-1.325617E-07,NaN,1.236539,-4.91007E-07,NaN,-1.07644,2.216436E-05,0.1557482,6.900548E-08,NaN,NaN,-0.04293508,-3.67873E-10,1.774379E-06,-1.103957E-07,1.58726E-08,-2.622604E-08
783.5307,-1.034505,2.488121E-10,NaN,-0.4242362,-1.325596E-07,NaN,1.236688,-4.916151E-07,NaN,-1.087767,2.216474E-05,0.1498799,6.961496E-08,NaN,NaN,-0.04370297,-3.585598E-10,1.795837E-06,-1.103921E-07,1.825679E-08,-2.622604E-08
783.5473,-1.041017,2.494888E-10,NaN,-0.4264227,-1.325574E-07,NaN,1.237017,-4.922141E-07,NaN,-1.099437,2.216514E-05,0.1435051,7.021526E-08,NaN,NaN,-0.04453883,-3.585598E-10,1.818487E-06,-1.103885E-07,1.766074E-08,-2.622604E-08
783.563,-1.047616,2.501654E-10,NaN,-0.4286361,-1.325552E-07,NaN,1.237225,-4.927984E-07,NaN,-1.111267,2.216554E-05,0.1372584,7.080089E-08,NaN,NaN,-0.04535821,-3.585598E-10,1.843521E-06,-1.103849E-07,1.438249E-08,-2.622604E-08
783.5792,-1.047616,2.501654E-10,NaN,-0.4286361,-1.325552E-07,NaN,1.237225,-4.927984E-07,NaN,-1.111267,2.216554E-05,0.1372584,7.080089E-08,NaN,NaN,-0.04535821,-3.585598E-10,1.843521E-06,-1.103849E-07,1.438249E-08,-2.622604E-08
783.5941,-1.05424,2.508419E-10,NaN,-0.4308549,-1.325531E-07,NaN,1.23733,-4.933683E-07,NaN,-1.123079,2.216593E-05,0.1311785,7.137216E-08,NaN,NaN,-0.04616143,-3.585598E-10,1.864978E-06,-1.103814E-07,1.438249E-08,-2.622604E-08
783.6104,-1.060852,2.515183E-10,NaN,-0.4330665,-1.325509E-07,NaN,1.237358,-4.939241E-07,NaN,-1.134788,2.216633E-05,0.1252559,7.192934E-08,NaN,NaN,-0.04694881,-3.585598E-10,1.881668E-06,-1.103778E-07,1.408446E-08,-2.622604E-08
783.627,-1.067646,2.521947E-10,NaN,-0.4353409,-1.325488E-07,NaN,1.237552,-4.944661E-07,NaN,-1.146833,2.216673E-05,0.1188205,7.247272E-08,NaN,NaN,-0.04780377,-3.585598E-10,1.900741E-06,-1.103743E-07,1.438249E-08,-2.622604E-08
783.6421,-1.074524,2.528704E-10,NaN,-0.4376411,-1.325466E-07,NaN,1.237631,-4.948254E-07,NaN,-1.159034,2.216712E-05,0.1125313,7.283334E-08,NaN,NaN,-0.04864188,-3.585598E-10,1.916238E-06,-1.103708E-07,1.348842E-08,-2.622604E-08
783.6578,-1.074524,2.528704E-10,NaN,-0.4376411,-1.325466E-07,NaN,1.237631,-4.948254E-07,NaN,-1.159034,2.216712E-05,0.1125313,7.283334E-08,NaN,NaN,-0.04864188,-3.585598E-10,1.916238E-06,-1.103708E-07,1.348842E-08,-2.622604E-08
783.673,-1.081424,2.535459E-10,NaN,-0.4399454,-1.325445E-07,NaN,1.23762,-4.951747E-07,NaN,-1.171211,2.21675E-05,0.1064067,7.318401E-08,NaN,NaN,-0.04946348,-3.585598E-10,1.931735E-06,-1.103672E-07,1.110423E-08,-2.622604E-08
783.6897,-1.088309,2.542211E-10,NaN,-0.4422416,-1.325423E-07,NaN,1.237542,-4.955114E-07,NaN,-1.183281,2.216789E-05,0.1004371,7.352212E-08,NaN,NaN,-0.0502689,-3.632164E-10,1.943656E-06,-1.103637E-07,9.614114E-09,-2.622604E-08
783.7059,-1.095374,2.548962E-10,NaN,-0.4445995,-1.325402E-07,NaN,1.237614,-4.958358E-07,NaN,-1.195682,2.216827E-05,0.09395397,7.384789E-08,NaN,NaN,-0.05114152,-3.67873E-10,1.954385E-06,-1.103602E-07,1.035917E-08,-2.622604E-08
783.7209,-1.102518,2.555711E-10,NaN,-0.4469821,-1.325381E-07,NaN,1.237581,-4.96151E-07,NaN,-1.208233,2.216866E-05,0.0876278,7.41644E-08,NaN,NaN,-0.05199697,-3.67873E-10,1.965114E-06,-1.103567E-07,8.720044E-09,-2.622604E-08
783.7371,-1.102518,2.555711E-10,NaN,-0.4469821,-1.325381E-07,NaN,1.237581,-4.96151E-07,NaN,-1.208233,2.216866E-05,0.0876278,7.41644E-08,NaN,NaN,-0.05199697,-3.67873E-10,1.965114E-06,-1.103567E-07,8.720044E-09,-2.622604E-08
783.7519,-1.109683,2.562459E-10,NaN,-0.4493679,-1.325359E-07,NaN,1.23747,-4.964542E-07,NaN,-1.220757,2.216904E-05,0.08146258,7.4469E-08,NaN,NaN,-0.05283559,-3.725296E-10,1.973459E-06,-1.103533E-07,8.422021E-09,-2.622604E-08
783.7684,-1.116829,2.569205E-10,NaN,-0.4517443,-1.325338E-07,NaN,1.237299,-4.967458E-07,NaN,-1.23317,2.216942E-05,0.07545003,7.476193E-08,NaN,NaN,-0.05365771,-3.725296E-10,1.978227E-06,-1.103498E-07,1.177478E-08,-2.622604E-08
783.7841,-1.124153,2.575949E-10,NaN,-0.4541817,-1.325317E-07,NaN,1.237262,-4.970259E-07,NaN,-1.245908,2.21698E-05,0.0689278,7.504342E-08,NaN,NaN,-0.05454669,-3.725296E-10,1.98538E-06,-1.103463E-07,1.058269E-08,-2.622604E-08
783.7997,-1.124153,2.575949E-10,NaN,-0.4541817,-1.325317E-07,NaN,1.237262,-4.970259E-07,NaN,-1.245908,2.21698E-05,0.0689278,7.504342E-08,NaN,NaN,-0.05454669,-3.725296E-10,1.98538E-06,-1.103463E-07,1.058269E-08,-2.622604E-08
783.8151,-1.131554,2.582692E-10,NaN,-0.4566426,-1.325296E-07,NaN,1.237134,-4.972977E-07,NaN,-1.258792,2.217019E-05,0.06256606,7.531651E-08,NaN,NaN,-0.05541819,-3.771862E-10,1.992532E-06,-1.103429E-07,1.099247E-08,-2.622604E-08
783.8315,-1.138971,2.589433E-10,NaN,-0.4591057,-1.325275E-07,NaN,1.236937,-4.975583E-07,NaN,-1.271644,2.217057E-05,0.05636151,7.557855E-08,NaN,NaN,-0.05627255,-3.771862E-10,1.996108E-06,-1.103395E-07,9.502354E-09,-2.622604E-08
783.8488,-1.146368,2.596172E-10,NaN,-0.4615586,-1.325254E-07,NaN,1.236688,-4.978082E-07,NaN,-1.284382,2.217095E-05,0.05030711,7.582976E-08,NaN,NaN,-0.05711012,-3.771862E-10,1.992532E-06,-1.10336E-07,1.104835E-08,-2.622604E-08
783.8635,-1.148683,2.60291E-10,NaN,-0.4622199,-1.325233E-07,NaN,1.232805,-4.980502E-07,NaN,-1.28606,2.217133E-05,0.05927163,7.607316E-08,NaN,NaN,-0.05602242,-3.771862E-10,1.930543E-06,-1.103326E-07,1.62265E-08,-2.622604E-08
783.8791,-1.148683,2.60291E-10,NaN,-0.4622199,-1.325233E-07,NaN,1.232805,-4.980502E-07,NaN,-1.28606,2.217133E-05,0.05927163,7.607316E-08,NaN,NaN,-0.05602242,-3.771862E-10,1.930543E-06,-1.103326E-07,1.62265E-08,-2.622604E-08
783.8941,-1.147872,2.609645E-10,NaN,-0.4618358,-1.325213E-07,NaN,1.229779,-4.982818E-07,NaN,-1.280401,2.21717E-05,0.06796603,7.63061E-08,NaN,NaN,-0.05495578,-3.771862E-10,1.864978E-06,-1.103292E-07,1.078758E-08,-2.622604E-08
783.9105,-1.145115,2.616379E-10,NaN,-0.4608083,-1.325192E-07,NaN,1.227278,-4.985031E-07,NaN,-1.271268,2.217208E-05,0.07642676,7.652877E-08,NaN,NaN,-0.05390992,-3.771862E-10,1.801797E-06,-1.103259E-07,8.36614E-09,-2.622604E-08
783.9265,-1.141167,2.62311E-10,NaN,-0.4593957,-1.325171E-07,NaN,1.225107,-4.987172E-07,NaN,-1.260541,2.217245E-05,0.08468267,7.67442E-08,NaN,NaN,-0.05288452,-3.771862E-10,1.741E-06,-1.103225E-07,9.213643E-09,-2.622604E-08
783.9424,-1.136721,2.62984E-10,NaN,-0.4578361,-1.325151E-07,NaN,1.223319,-4.989213E-07,NaN,-1.249607,2.217283E-05,0.09210279,7.694971E-08,NaN,NaN,-0.05196224,-3.771862E-10,1.68974E-06,-1.103191E-07,8.654849E-09,-2.622604E-08
783.9581,-1.136721,2.62984E-10,NaN,-0.4578361,-1.325151E-07,NaN,1.223319,-4.989213E-07,NaN,-1.249607,2.217283E-05,0.09210279,7.694971E-08,NaN,NaN,-0.05196224,-3.771862E-10,1.68974E-06,-1.103191E-07,8.654849E-09,-2.622604E-08
783.9733,-1.131989,2.636567E-10,NaN,-0.4561962,-1.32513E-07,NaN,1.221648,-4.991157E-07,NaN,-1.238748,2.217321E-05,0.09935958,7.714549E-08,NaN,NaN,-0.05105803,-3.771862E-10,1.642057E-06,-1.103158E-07,4.594283E-09,-2.622604E-08
783.9894,-1.127102,2.643293E-10,NaN,-0.4545164,-1.32511E-07,NaN,1.220061,-4.993034E-07,NaN,-1.228007,2.217358E-05,0.1064645,7.733455E-08,NaN,NaN,-0.05017154,-3.771862E-10,1.594373E-06,-1.103125E-07,5.041318E-09,-2.622604E-08
784.005,-1.122141,2.650017E-10,NaN,-0.4528205,-1.325089E-07,NaN,1.218537,-4.994817E-07,NaN,-1.217403,2.217396E-05,0.1134245,7.751422E-08,NaN,NaN,-0.04930241,-3.771862E-10,1.55265E-06,-1.103091E-07,2.880649E-09,-2.622604E-08
784.0208,-1.117376,2.656738E-10,NaN,-0.4512,-1.325069E-07,NaN,1.217246,-4.996508E-07,NaN,-1.20742,2.217434E-05,0.1195907,7.768465E-08,NaN,NaN,-0.0485334,-3.771862E-10,1.513311E-06,-1.103058E-07,3.178672E-09,-2.622604E-08
784.0367,-1.117376,2.656738E-10,NaN,-0.4512,-1.325069E-07,NaN,1.217246,-4.996508E-07,NaN,-1.20742,2.217434E-05,0.1195907,7.768465E-08,NaN,NaN,-0.0485334,-3.771862E-10,1.513311E-06,-1.103058E-07,3.178672E-09,-2.622604E-08
784.0515,-1.112751,2.663458E-10,NaN,-0.4496317,-1.325049E-07,NaN,1.21596,-4.998137E-07,NaN,-1.197901,2.217471E-05,0.1256306,7.784888E-08,NaN,NaN,-0.04777946,-3.771862E-10,1.473972E-06,-1.103025E-07,2.582626E-09,-2.622604E-08
784.0679,-1.108234,2.670176E-10,NaN,-0.4481015,-1.325028E-07,NaN,1.214685,-4.999677E-07,NaN,-1.188678,2.217509E-05,0.1315542,7.800426E-08,NaN,NaN,-0.04704027,-3.725296E-10,1.433441E-06,-1.102992E-07,4.370766E-09,-2.622604E-08
784.0836,-1.103802,2.676892E-10,NaN,-0.4466009,-1.325008E-07,NaN,1.213427,-5.00113E-07,NaN,-1.179665,2.217546E-05,0.1373636,7.815089E-08,NaN,NaN,-0.04631557,-3.67873E-10,1.395294E-06,-1.10296E-07,6.456928E-09,-2.622604E-08
784.0995,-1.103802,2.676892E-10,NaN,-0.4466009,-1.325008E-07,NaN,1.213427,-5.00113E-07,NaN,-1.179665,2.217546E-05,0.1373636,7.815089E-08,NaN,NaN,-0.04631557,-3.67873E-10,1.395294E-06,-1.10296E-07,6.456928E-09,-2.622604E-08
784.1142,-1.09966,2.683605E-10,NaN,-0.4452018,-1.324988E-07,NaN,1.21239,-5.002526E-07,NaN,-1.171297,2.217583E-05,0.142404,7.829178E-08,NaN,NaN,-0.04568818,-3.632164E-10,1.357147E-06,-1.102927E-07,1.152332E-08,-2.622604E-08
784.1304,-1.095714,2.690317E-10,NaN,-0.4438695,-1.324968E-07,NaN,1.211334,-5.003836E-07,NaN,-1.163394,2.217621E-05,0.1473372,7.84242E-08,NaN,NaN,-0.04507307,-3.585598E-10,1.321384E-06,-1.102894E-07,1.673873E-08,-2.622604E-08
784.1462,-1.091908,2.697026E-10,NaN,-0.4425832,-1.324948E-07,NaN,1.210273,-5.005093E-07,NaN,-1.155773,2.217658E-05,0.1521789,7.855115E-08,NaN,NaN,-0.04447001,-3.539032E-10,1.288005E-06,-1.102862E-07,1.554664E-08,-2.622604E-08
784.1621,-1.088203,2.703733E-10,NaN,-0.4413303,-1.324928E-07,NaN,1.209216,-5.006267E-07,NaN,-1.148345,2.217695E-05,0.1569294,7.866992E-08,NaN,NaN,-0.04387876,-3.492466E-10,1.257011E-06,-1.10283E-07,1.658972E-08,-2.622604E-08
784.1779,-1.088203,2.703733E-10,NaN,-0.4413303,-1.324928E-07,NaN,1.209216,-5.006267E-07,NaN,-1.148345,2.217695E-05,0.1569294,7.866992E-08,NaN,NaN,-0.04387876,-3.492466E-10,1.257011E-06,-1.10283E-07,1.658972E-08,-2.622604E-08
784.1928,-1.084795,2.710438E-10,NaN,-0.4401799,-1.324908E-07,NaN,1.208389,-5.007361E-07,NaN,-1.141541,2.217732E-05,0.1609329,7.878066E-08,NaN,NaN,-0.04338223,-3.4459E-10,1.235553E-06,-1.102797E-07,1.211937E-08,-2.622604E-08
784.2095,-1.081586,2.717141E-10,NaN,-0.4390963,-1.324888E-07,NaN,1.207534,-5.008404E-07,NaN,-1.135181,2.21777E-05,0.1648419,7.888635E-08,NaN,NaN,-0.04289542,-3.399334E-10,1.209327E-06,-1.102765E-07,9.735185E-09,-2.622604E-08
784.225,-1.078512,2.723842E-10,NaN,-0.4380578,-1.324868E-07,NaN,1.206665,-5.00937E-07,NaN,-1.129081,2.217807E-05,0.1686811,7.898427E-08,NaN,NaN,-0.04241814,-3.352768E-10,1.184293E-06,-1.102733E-07,1.211937E-08,-2.622604E-08
784.2407,-1.075537,2.730541E-10,NaN,-0.4370509,-1.324849E-07,NaN,1.205795,-5.010288E-07,NaN,-1.123152,2.217845E-05,0.1724496,7.90774E-08,NaN,NaN,-0.04195019,-3.399334E-10,1.161643E-06,-1.102701E-07,1.033123E-08,-2.622604E-08
784.2561,-1.075537,2.730541E-10,NaN,-0.4370509,-1.324849E-07,NaN,1.205795,-5.010288E-07,NaN,-1.123152,2.217845E-05,0.1724496,7.90774E-08,NaN,NaN,-0.04195019,-3.399334E-10,1.161643E-06,-1.102701E-07,1.033123E-08,-2.622604E-08
784.2714,-1.072852,2.737239E-10,NaN,-0.4361448,-1.324829E-07,NaN,1.205162,-5.01113E-07,NaN,-1.117825,2.217882E-05,0.1754928,7.916301E-08,NaN,NaN,-0.04157458,-3.306201E-10,1.138994E-06,-1.10267E-07,1.062925E-08,-2.622604E-08
784.2877,-1.070359,2.743934E-10,NaN,-0.4353034,-1.324809E-07,NaN,1.204496,-5.011899E-07,NaN,-1.112921,2.217919E-05,0.1784524,7.924124E-08,NaN,NaN,-0.04120633,-3.259635E-10,1.122304E-06,-1.102638E-07,9.735184E-09,-2.622604E-08
784.3036,-1.067995,2.750627E-10,NaN,-0.434505,-1.32479E-07,NaN,1.203808,-5.012624E-07,NaN,-1.108254,2.217957E-05,0.1813619,7.931506E-08,NaN,NaN,-0.04084528,-3.213069E-10,1.103231E-06,-1.102606E-07,7.052975E-09,-2.622604E-08
784.3192,-1.067995,2.750627E-10,NaN,-0.434505,-1.32479E-07,NaN,1.203808,-5.012624E-07,NaN,-1.108254,2.217957E-05,0.1813619,7.931506E-08,NaN,NaN,-0.04084528,-3.213069E-10,1.103231E-06,-1.102606E-07,7.052975E-09,-2.622604E-08
784.3345,-1.065939,2.757318E-10,NaN,-0.4338133,-1.32477E-07,NaN,1.20335,-5.013277E-07,NaN,-1.104213,2.217994E-05,0.1835681,7.938174E-08,NaN,NaN,-0.04057446,-3.166503E-10,1.086541E-06,-1.102575E-07,7.649022E-09,-2.622604E-08
784.3508,-1.064082,2.764007E-10,NaN,-0.4331892,-1.324751E-07,NaN,1.202849,-5.013889E-07,NaN,-1.100595,2.218031E-05,0.1857037,7.944424E-08,NaN,NaN,-0.04030895,-3.119937E-10,1.074621E-06,-1.102544E-07,4.966813E-09,-2.622604E-08
784.368,-1.062358,2.770694E-10,NaN,-0.432609,-1.324732E-07,NaN,1.202318,-5.014431E-07,NaN,-1.097206,2.218069E-05,0.1878074,7.949981E-08,NaN,NaN,-0.04004862,-3.166503E-10,1.059123E-06,-1.102512E-07,6.158905E-09,-2.622604E-08
784.3823,-1.060723,2.77738E-10,NaN,-0.4320581,-1.324712E-07,NaN,1.201774,-5.014933E-07,NaN,-1.093951,2.218107E-05,0.1898772,7.955142E-08,NaN,NaN,-0.03979338,-3.119937E-10,1.04601E-06,-1.102481E-07,2.284604E-09,-2.622604E-08
784.398,-1.060723,2.77738E-10,NaN,-0.4320581,-1.324712E-07,NaN,1.201774,-5.014933E-07,NaN,-1.093951,2.218107E-05,0.1898772,7.955142E-08,NaN,NaN,-0.03979338,-3.119937E-10,1.04601E-06,-1.102481E-07,2.284604E-09,-2.622604E-08
784.4132,-1.059367,2.784063E-10,NaN,-0.4316045,-1.324693E-07,NaN,1.20147,-5.015369E-07,NaN,-1.091262,2.218144E-05,0.1912613,7.959632E-08,NaN,NaN,-0.03962632,-3.073371E-10,1.036474E-06,-1.10245E-07,1.98441E-10,-2.622604E-08
784.4299,-1.058192,2.790745E-10,NaN,-0.4312122,-1.324674E-07,NaN,1.201124,-5.015767E-07,NaN,-1.088956,2.218182E-05,0.1925843,7.963747E-08,NaN,NaN,-0.03946253,-3.119937E-10,1.026937E-06,-1.102419E-07,-6.956286E-10,-2.622604E-08
784.4455,-1.057133,2.797425E-10,NaN,-0.430859,-1.324655E-07,NaN,1.200743,-5.0161E-07,NaN,-1.086851,2.218219E-05,0.1938918,7.967211E-08,NaN,NaN,-0.03930193,-3.073371E-10,1.012632E-06,-1.102389E-07,2.582627E-09,-2.622604E-08
784.4615,-1.056151,2.804103E-10,NaN,-0.4305313,-1.324636E-07,NaN,1.200347,-5.016397E-07,NaN,-1.084856,2.218258E-05,0.1951816,7.970319E-08,NaN,NaN,-0.03914446,-3.119937E-10,1.000711E-06,-1.102358E-07,2.88065E-09,-2.622604E-08
784.4771,-1.056151,2.804103E-10,NaN,-0.4305313,-1.324636E-07,NaN,1.200347,-5.016397E-07,NaN,-1.084856,2.218258E-05,0.1951816,7.970319E-08,NaN,NaN,-0.03914446,-3.119937E-10,1.000711E-06,-1.102358E-07,2.88065E-09,-2.622604E-08
784.4921,-1.055438,2.81078E-10,NaN,-0.4302976,-1.324617E-07,NaN,1.20019,-5.016631E-07,NaN,-1.083405,2.218295E-05,0.1958034,7.972797E-08,NaN,NaN,-0.03907326,-3.073371E-10,9.983265E-07,-1.102327E-07,1.98658E-09,-2.622604E-08
784.5084,-1.054896,2.817455E-10,NaN,-0.4301226,-1.324597E-07,NaN,1.199987,-5.016832E-07,NaN,-1.082319,2.218332E-05,0.196376,7.974938E-08,NaN,NaN,-0.03900347,-3.026805E-10,9.971344E-07,-1.102297E-07,-3.976055E-10,-2.622604E-08
784.5239,-1.054463,2.824129E-10,NaN,-0.4299843,-1.324579E-07,NaN,1.199744,-5.016971E-07,NaN,-1.081414,2.21837E-05,0.1969487,7.976468E-08,NaN,NaN,-0.038935,-3.073371E-10,9.92366E-07,-1.102267E-07,2.284603E-09,-2.622604E-08
784.5399,-1.054463,2.824129E-10,NaN,-0.4299843,-1.324579E-07,NaN,1.199744,-5.016971E-07,NaN,-1.081414,2.21837E-05,0.1969487,7.976468E-08,NaN,NaN,-0.038935,-3.073371E-10,9.92366E-07,-1.102267E-07,2.284603E-09,-2.622604E-08
784.5546,-1.0541,2.830801E-10,NaN,-0.429869,-1.32456E-07,NaN,1.19948,-5.017051E-07,NaN,-1.080601,2.218408E-05,0.1975194,7.977398E-08,NaN,NaN,-0.03886786,-3.026805E-10,9.864056E-07,-1.102236E-07,3.774719E-09,-2.622604E-08
784.5715,-1.053998,2.837472E-10,NaN,-0.4298455,-1.324541E-07,NaN,1.199452,-5.0171E-07,NaN,-1.080314,2.218445E-05,0.1974381,7.978022E-08,NaN,NaN,-0.03888523,-2.980239E-10,9.875977E-07,-1.102206E-07,3.476696E-09,-2.622604E-08
784.5869,-1.05406,2.84414E-10,NaN,-0.4298778,-1.324522E-07,NaN,1.199374,-5.017118E-07,NaN,-1.080374,2.218482E-05,0.1973208,7.978347E-08,NaN,NaN,-0.03890225,-2.933673E-10,9.899819E-07,-1.102176E-07,4.072743E-09,-2.622604E-08
784.6026,-1.054223,2.850807E-10,NaN,-0.4299442,-1.324503E-07,NaN,1.199249,-5.01708E-07,NaN,-1.080597,2.21852E-05,0.1972186,7.978095E-08,NaN,NaN,-0.0389189,-2.887107E-10,9.887898E-07,-1.102146E-07,4.370766E-09,-2.622604E-08
784.6182,-1.054223,2.850807E-10,NaN,-0.4299442,-1.324503E-07,NaN,1.199249,-5.01708E-07,NaN,-1.080597,2.21852E-05,0.1972186,7.978095E-08,NaN,NaN,-0.0389189,-2.887107E-10,9.887898E-07,-1.102146E-07,4.370766E-09,-2.622604E-08
784.6331,-1.054449,2.857472E-10,NaN,-0.4300312,-1.324485E-07,NaN,1.199099,-5.017013E-07,NaN,-1.080896,2.218557E-05,0.1971287,7.977562E-08,NaN,NaN,-0.0389352,-2.840541E-10,9.887898E-07,-1.102116E-07,1.98658E-09,-2.622604E-08
784.6495,-1.054929,2.864134E-10,NaN,-0.4302076,-1.324466E-07,NaN,1.199181,-5.01689E-07,NaN,-1.081704,2.218595E-05,0.1964007,7.976468E-08,NaN,NaN,-0.03903437,-2.887107E-10,9.947503E-07,-1.102086E-07,-6.956287E-10,-2.622604E-08
784.6655,-1.055567,2.870796E-10,NaN,-0.430438,-1.324448E-07,NaN,1.199206,-5.01674E-07,NaN,-1.082842,2.218632E-05,0.1956509,7.975109E-08,NaN,NaN,-0.03913159,-2.840541E-10,1.001903E-06,-1.102057E-07,-1.589698E-09,-2.622604E-08
784.6808,-1.0563,2.877455E-10,NaN,-0.4307003,-1.324429E-07,NaN,1.199181,-5.016536E-07,NaN,-1.084126,2.21867E-05,0.1949299,7.973206E-08,NaN,NaN,-0.03922686,-2.793974E-10,1.005479E-06,-1.102027E-07,-1.291675E-09,-2.622604E-08
784.6968,-1.0563,2.877455E-10,NaN,-0.4307003,-1.324429E-07,NaN,1.199181,-5.016536E-07,NaN,-1.084126,2.21867E-05,0.1949299,7.973206E-08,NaN,NaN,-0.03922686,-2.793974E-10,1.005479E-06,-1.102027E-07,-1.291675E-09,-2.622604E-08
784.7116,-1.057089,2.884113E-10,NaN,-0.430981,-1.324411E-07,NaN,1.199125,-5.016307E-07,NaN,-1.08547,2.218708E-05,0.1942347,7.971053E-08,NaN,NaN,-0.03932024,-2.840541E-10,1.010248E-06,-1.101998E-07,-2.781791E-09,-2.622604E-08
784.728,-1.058127,2.89077E-10,NaN,-0.4313486,-1.324392E-07,NaN,1.199296,-5.016026E-07,NaN,-1.087307,2.218745E-05,0.1929133,7.968372E-08,NaN,NaN,-0.03949497,-2.793974E-10,1.018592E-06,-1.101969E-07,-3.079814E-09,-2.622604E-08
784.7433,-1.059315,2.897424E-10,NaN,-0.4317675,-1.324374E-07,NaN,1.199404,-5.015721E-07,NaN,-1.089458,2.218783E-05,0.1915855,7.965457E-08,NaN,NaN,-0.03966626,-2.840541E-10,1.026937E-06,-1.101939E-07,-2.185745E-09,-2.622604E-08
784.7592,-1.059315,2.897424E-10,NaN,-0.4317675,-1.324374E-07,NaN,1.199404,-5.015721E-07,NaN,-1.089458,2.218783E-05,0.1915855,7.965457E-08,NaN,NaN,-0.03966626,-2.840541E-10,1.026937E-06,-1.101939E-07,-2.185745E-09,-2.622604E-08
784.7743,-1.060591,2.904077E-10,NaN,-0.4322158,-1.324356E-07,NaN,1.199457,-5.015364E-07,NaN,-1.09174,2.218821E-05,0.1902994,7.962029E-08,NaN,NaN,-0.03983414,-2.793974E-10,1.028129E-06,-1.10191E-07,-6.956287E-10,-2.622604E-08
784.791,-1.061917,2.910728E-10,NaN,-0.43268,-1.324338E-07,NaN,1.199476,-5.014986E-07,NaN,-1.094067,2.218858E-05,0.1890511,7.95838E-08,NaN,NaN,-0.03999871,-2.747408E-10,1.031705E-06,-1.101881E-07,-3.976054E-10,-2.622604E-08
784.8065,-1.063486,2.917377E-10,NaN,-0.4332286,-1.324319E-07,NaN,1.199714,-5.014558E-07,NaN,-1.096871,2.218896E-05,0.1871869,7.954233E-08,NaN,NaN,-0.04024321,-2.793974E-10,1.041242E-06,-1.101852E-07,1.688557E-09,-2.622604E-08
784.822,-1.065198,2.924025E-10,NaN,-0.433826,-1.324301E-07,NaN,1.199883,-5.014109E-07,NaN,-1.099975,2.218933E-05,0.1853325,7.94988E-08,NaN,NaN,-0.0404829,-2.747408E-10,1.048394E-06,-1.101823E-07,5.264836E-09,-2.622604E-08
784.8379,-1.065198,2.924025E-10,NaN,-0.433826,-1.324301E-07,NaN,1.199883,-5.014109E-07,NaN,-1.099975,2.218933E-05,0.1853325,7.94988E-08,NaN,NaN,-0.0404829,-2.747408E-10,1.048394E-06,-1.101823E-07,5.264836E-09,-2.622604E-08
784.8525,-1.066992,2.930671E-10,NaN,-0.4344503,-1.324283E-07,NaN,1.199996,-5.01364E-07,NaN,-1.103195,2.218972E-05,0.1835314,7.945326E-08,NaN,NaN,-0.04071785,-2.793974E-10,1.059123E-06,-1.101795E-07,7.350998E-09,-2.622604E-08
784.8703,-1.06883,2.937316E-10,NaN,-0.4350879,-1.324265E-07,NaN,1.20007,-5.013122E-07,NaN,-1.106445,2.219009E-05,0.1817792,7.94029E-08,NaN,NaN,-0.04094816,-2.747408E-10,1.066276E-06,-1.101766E-07,3.774719E-09,-2.622604E-08
784.8846,-1.070904,2.943959E-10,NaN,-0.4358078,-1.324247E-07,NaN,1.200354,-5.012586E-07,NaN,-1.110159,2.219047E-05,0.1794198,7.935066E-08,NaN,NaN,-0.04125711,-2.793974E-10,1.077005E-06,-1.101737E-07,4.370766E-09,-2.622604E-08
784.9002,-1.073117,2.950601E-10,NaN,-0.436574,-1.324229E-07,NaN,1.200566,-5.012004E-07,NaN,-1.114157,2.219084E-05,0.1770868,7.929374E-08,NaN,NaN,-0.04155998,-2.747408E-10,1.090118E-06,-1.101709E-07,6.754951E-09,-2.622604E-08
784.9161,-1.073117,2.950601E-10,NaN,-0.436574,-1.324229E-07,NaN,1.200566,-5.012004E-07,NaN,-1.114157,2.219084E-05,0.1770868,7.929374E-08,NaN,NaN,-0.04155998,-2.747408E-10,1.090118E-06,-1.101709E-07,6.754951E-09,-2.622604E-08
784.9308,-1.075405,2.95724E-10,NaN,-0.4373647,-1.324211E-07,NaN,1.200718,-5.011403E-07,NaN,-1.118259,2.219123E-05,0.1748176,7.923506E-08,NaN,NaN,-0.04185686,-2.793974E-10,1.104423E-06,-1.101681E-07,3.327684E-09,-2.622604E-08
784.9474,-1.077731,2.963879E-10,NaN,-0.4381664,-1.324194E-07,NaN,1.20083,-5.010786E-07,NaN,-1.122377,2.219161E-05,0.1726075,7.917466E-08,NaN,NaN,-0.04214788,-2.840541E-10,1.115152E-06,-1.101652E-07,2.582626E-09,-2.622604E-08
784.9633,-1.080287,2.970516E-10,NaN,-0.4390483,-1.324176E-07,NaN,1.201142,-5.010123E-07,NaN,-1.126946,2.219198E-05,0.1697977,7.910974E-08,NaN,NaN,-0.04251634,-2.793974E-10,1.129457E-06,-1.101624E-07,3.474523E-10,-2.622604E-08
784.9788,-1.080287,2.970516E-10,NaN,-0.4390483,-1.324176E-07,NaN,1.201142,-5.010123E-07,NaN,-1.126946,2.219198E-05,0.1697977,7.910974E-08,NaN,NaN,-0.04251634,-2.793974E-10,1.129457E-06,-1.101624E-07,3.474523E-10,-2.622604E-08
784.9935,-1.082976,2.977152E-10,NaN,-0.4399743,-1.324158E-07,NaN,1.201378,-5.009445E-07,NaN,-1.131786,2.219236E-05,0.1670311,7.904322E-08,NaN,NaN,-0.04287754,-2.840541E-10,1.146146E-06,-1.101596E-07,-6.95629E-10,-2.622604E-08
785.0099,-1.085735,2.983786E-10,NaN,-0.4409225,-1.324141E-07,NaN,1.201553,-5.008722E-07,NaN,-1.136716,2.219273E-05,0.1643375,7.89723E-08,NaN,NaN,-0.04323161,-2.793974E-10,1.156875E-06,-1.101568E-07,-1.291675E-09,-2.622604E-08
785.0259,-1.088526,2.990418E-10,NaN,-0.4418797,-1.324123E-07,NaN,1.201685,-5.007984E-07,NaN,-1.14165,2.219311E-05,0.161712,7.88999E-08,NaN,NaN,-0.0435787,-2.747408E-10,1.167604E-06,-1.10154E-07,-6.507082E-09,-2.622604E-08
785.0416,-1.091543,2.997049E-10,NaN,-0.442915,-1.324106E-07,NaN,1.202008,-5.007204E-07,NaN,-1.147022,2.219348E-05,0.1584941,7.882323E-08,NaN,NaN,-0.04400212,-2.700842E-10,1.181909E-06,-1.101513E-07,-5.762024E-09,-2.622604E-08
785.0571,-1.091543,2.997049E-10,NaN,-0.442915,-1.324106E-07,NaN,1.202008,-5.007204E-07,NaN,-1.147022,2.219348E-05,0.1584941,7.882323E-08,NaN,NaN,-0.04400212,-2.700842E-10,1.181909E-06,-1.101513E-07,-5.762024E-09,-2.622604E-08
785.0726,-1.094687,3.003678E-10,NaN,-0.4439922,-1.324088E-07,NaN,1.202252,-5.00641E-07,NaN,-1.152653,2.219385E-05,0.1553354,7.874518E-08,NaN,NaN,-0.04441718,-2.654276E-10,1.195022E-06,-1.101485E-07,-6.805105E-09,-2.622604E-08
785.0886,-1.097895,3.010305E-10,NaN,-0.4450896,-1.324071E-07,NaN,1.202435,-5.005603E-07,NaN,-1.158363,2.219424E-05,0.1522579,7.866588E-08,NaN,NaN,-0.04482407,-2.747408E-10,1.205751E-06,-1.101457E-07,-5.762024E-09,-2.622604E-08
785.1044,-1.10113,3.01693E-10,NaN,-0.446194,-1.324053E-07,NaN,1.202575,-5.004755E-07,NaN,-1.164064,2.219462E-05,0.1492564,7.858242E-08,NaN,NaN,-0.04522294,-2.747408E-10,1.21648E-06,-1.10143E-07,-3.303332E-09,-2.622604E-08
785.1198,-1.10113,3.01693E-10,NaN,-0.446194,-1.324053E-07,NaN,1.202575,-5.004755E-07,NaN,-1.164064,2.219462E-05,0.1492564,7.858242E-08,NaN,NaN,-0.04522294,-2.747408E-10,1.21648E-06,-1.10143E-07,-3.303332E-09,-2.622604E-08
785.1349,-1.104586,3.023555E-10,NaN,-0.4473746,-1.324036E-07,NaN,1.202893,-5.003894E-07,NaN,-1.170192,2.2195E-05,0.1456699,7.849773E-08,NaN,NaN,-0.0456971,-2.840541E-10,1.233169E-06,-1.101403E-07,-5.687518E-09,-2.622604E-08
785.1509,-1.108164,3.030178E-10,NaN,-0.4485952,-1.324019E-07,NaN,1.203131,-5.003022E-07,NaN,-1.176567,2.219538E-05,0.1421573,7.841183E-08,NaN,NaN,-0.04616192,-2.840541E-10,1.246282E-06,-1.101375E-07,-5.165977E-09,-2.622604E-08
