JMolnar6/NonAnthroHands_User_Study/HandsLoggerWithURDF/tempdata/files/Reachy_JointMotion_gesture_13_63.csv
Time,r_shoulder,r_shoulder_x,r_upper_arm,r_forearm,r_wrist,r_wrist2hand,
910.6716,-0.2216408,4.274331E-09,NaN,-0.4569701,-1.318145E-07,NaN,-0.01981835,-5.621462E-07,NaN,-0.6619675,2.460244E-05,0.007963114,1.103172E-07,NaN,NaN,0.1821155,6.053446E-11,-6.075959E-07,-1.095648E-07,5.270302E-10,-2.622604E-08
910.6885,-0.2221657,4.274949E-09,NaN,-0.4553827,-1.318148E-07,NaN,-0.01848647,-5.621543E-07,NaN,-0.6594356,2.460282E-05,0.01029373,1.103264E-07,NaN,NaN,0.1812609,6.053446E-11,-5.986552E-07,-1.095652E-07,1.719123E-09,-2.861022E-08
910.7038,-0.2227052,4.275567E-09,NaN,-0.453749,-1.31815E-07,NaN,-0.01715413,-5.621621E-07,NaN,-0.6568226,2.46032E-05,0.01287092,1.103354E-07,NaN,NaN,0.1804232,6.053446E-11,-5.968671E-07,-1.095656E-07,-4.241341E-09,-2.622604E-08
910.7196,-0.2227052,4.275567E-09,NaN,-0.453749,-1.31815E-07,NaN,-0.01715413,-5.621621E-07,NaN,-0.6568226,2.46032E-05,0.01287092,1.103354E-07,NaN,NaN,0.1804232,6.053446E-11,-5.968671E-07,-1.095656E-07,-4.241341E-09,-2.622604E-08
910.7347,-0.2232514,4.276186E-09,NaN,-0.4520942,-1.318152E-07,NaN,-0.01572532,-5.621726E-07,NaN,-0.6541954,2.460358E-05,0.01547749,1.10347E-07,NaN,NaN,0.1796018,6.053446E-11,-5.95675E-07,-1.09566E-07,-7.817619E-09,-2.861022E-08
910.751,-0.2237993,4.276804E-09,NaN,-0.4504338,-1.318154E-07,NaN,-0.01420372,-5.621828E-07,NaN,-0.6515855,2.460397E-05,0.01803654,1.103583E-07,NaN,NaN,0.1787966,6.053446E-11,-5.938869E-07,-1.095665E-07,-1.020181E-08,-2.622604E-08
910.7672,-0.2243128,4.277423E-09,NaN,-0.4488819,-1.318156E-07,NaN,-0.01230909,-5.621927E-07,NaN,-0.6495308,2.460435E-05,0.01983116,1.103693E-07,NaN,NaN,0.1783214,6.053446E-11,-5.95079E-07,-1.095669E-07,-6.625527E-09,-2.861022E-08
910.7828,-0.2248028,4.278041E-09,NaN,-0.4474037,-1.318158E-07,NaN,-0.01038936,-5.622023E-07,NaN,-0.6476302,2.460473E-05,0.02127362,1.103801E-07,NaN,NaN,0.1778554,6.053446E-11,-5.903106E-07,-1.095673E-07,-7.817619E-09,-2.622604E-08
910.799,-0.2248028,4.278041E-09,NaN,-0.4474037,-1.318158E-07,NaN,-0.01038936,-5.622023E-07,NaN,-0.6476302,2.460473E-05,0.02127362,1.103801E-07,NaN,NaN,0.1778554,6.053446E-11,-5.903106E-07,-1.095673E-07,-7.817619E-09,-2.622604E-08
910.8139,-0.2252761,4.27866E-09,NaN,-0.4459775,-1.318161E-07,NaN,-0.008562983,-5.622144E-07,NaN,-0.6458179,2.460511E-05,0.02258494,1.103934E-07,NaN,NaN,0.1773986,6.053446E-11,-5.813699E-07,-1.095677E-07,-6.625527E-09,-2.861022E-08
910.8309,-0.2257371,4.279279E-09,NaN,-0.4445896,-1.318163E-07,NaN,-0.006840937,-5.622263E-07,NaN,-0.6440626,2.460549E-05,0.02384773,1.104063E-07,NaN,NaN,0.1769506,6.053446E-11,-5.712371E-07,-1.095681E-07,-6.625527E-09,-2.622604E-08
910.8463,-0.2261554,4.279897E-09,NaN,-0.443336,-1.318165E-07,NaN,-0.004888718,-5.622378E-07,NaN,-0.6428733,2.460588E-05,0.02439418,1.10419E-07,NaN,NaN,0.1768257,6.053446E-11,-5.658727E-07,-1.095685E-07,-4.241341E-09,-2.861022E-08
910.8619,-0.2265455,4.280516E-09,NaN,-0.4421707,-1.318167E-07,NaN,-0.003009539,-5.622491E-07,NaN,-0.6418344,2.460626E-05,0.02464297,1.104314E-07,NaN,NaN,0.1767032,6.053446E-11,-5.56932E-07,-1.095689E-07,-1.857155E-09,-2.622604E-08
910.8776,-0.2265455,4.280516E-09,NaN,-0.4421707,-1.318167E-07,NaN,-0.003009539,-5.622491E-07,NaN,-0.6418344,2.460626E-05,0.02464297,1.104314E-07,NaN,NaN,0.1767032,6.053446E-11,-5.56932E-07,-1.095689E-07,-1.857155E-09,-2.622604E-08
910.8926,-0.2269164,4.281135E-09,NaN,-0.441065,-1.318169E-07,NaN,-0.001285069,-5.6226E-07,NaN,-0.6408737,2.460664E-05,0.0248071,1.104434E-07,NaN,NaN,0.176583,6.053446E-11,-5.467992E-07,-1.095693E-07,-3.049248E-09,-2.861022E-08
910.9094,-0.2272738,4.281753E-09,NaN,-0.4400009,-1.318171E-07,NaN,0.0002982019,-5.622734E-07,NaN,-0.639957,2.460702E-05,0.02496079,1.10458E-07,NaN,NaN,0.1764651,6.053446E-11,-5.366664E-07,-1.095698E-07,5.270304E-10,-2.622604E-08
910.9253,-0.2275883,4.282372E-09,NaN,-0.4390717,-1.318173E-07,NaN,0.00209268,-5.622866E-07,NaN,-0.6395927,2.46074E-05,0.02443142,1.104723E-07,NaN,NaN,0.1766638,6.053446E-11,-5.3011E-07,-1.095702E-07,5.270304E-10,-2.861022E-08
910.9413,-0.2278748,4.282991E-09,NaN,-0.4382299,-1.318175E-07,NaN,0.003801598,-5.622994E-07,NaN,-0.6393646,2.460779E-05,0.02363251,1.104862E-07,NaN,NaN,0.1768585,6.053446E-11,-5.187851E-07,-1.095706E-07,-7.81762E-09,-2.622604E-08
910.9568,-0.2278748,4.282991E-09,NaN,-0.4382299,-1.318175E-07,NaN,0.003801598,-5.622994E-07,NaN,-0.6393646,2.460779E-05,0.02363251,1.104862E-07,NaN,NaN,0.1768585,6.053446E-11,-5.187851E-07,-1.095706E-07,-7.81762E-09,-2.622604E-08
910.9719,-0.2281426,4.28361E-09,NaN,-0.4374455,-1.318178E-07,NaN,0.005347681,-5.623147E-07,NaN,-0.6392004,2.460817E-05,0.02277283,1.105026E-07,NaN,NaN,0.1770494,6.053446E-11,-5.062681E-07,-1.09571E-07,-7.81762E-09,-2.861022E-08
910.9882,-0.2283977,4.284229E-09,NaN,-0.4367001,-1.31818E-07,NaN,0.006746817,-5.623295E-07,NaN,-0.639066,2.460855E-05,0.02192429,1.105186E-07,NaN,NaN,0.1772365,6.053446E-11,-4.955393E-07,-1.095714E-07,-6.625528E-09,-2.622604E-08
911.0042,-0.2286107,4.284848E-09,NaN,-0.4360866,-1.318182E-07,NaN,0.008351963,-5.62344E-07,NaN,-0.6394704,2.460893E-05,0.02041478,1.105342E-07,NaN,NaN,0.1777342,6.053446E-11,-4.865986E-07,-1.095718E-07,-6.625528E-09,-2.861022E-08
911.02,-0.2286107,4.284848E-09,NaN,-0.4360866,-1.318182E-07,NaN,0.008351963,-5.62344E-07,NaN,-0.6394704,2.460893E-05,0.02041478,1.105342E-07,NaN,NaN,0.1777342,6.053446E-11,-4.865986E-07,-1.095718E-07,-6.625528E-09,-2.861022E-08
911.0365,-0.2287967,4.285468E-09,NaN,-0.4355572,-1.318184E-07,NaN,0.009866856,-5.623582E-07,NaN,-0.6399972,2.460931E-05,0.0186558,1.105495E-07,NaN,NaN,0.178222,6.053446E-11,-4.728895E-07,-1.095722E-07,-3.049249E-09,-2.622604E-08
911.0517,-0.228965,4.286087E-09,NaN,-0.435082,-1.318186E-07,NaN,0.01121432,-5.623721E-07,NaN,-0.6405744,2.460969E-05,0.01685499,1.105645E-07,NaN,NaN,0.1787002,6.053446E-11,-4.567963E-07,-1.095726E-07,-1.857156E-09,-2.861022E-08
911.0675,-0.2291215,4.286706E-09,NaN,-0.4346423,-1.318188E-07,NaN,0.01241042,-5.623884E-07,NaN,-0.6411679,2.461007E-05,0.01508363,1.10582E-07,NaN,NaN,0.1791691,5.587785E-11,-4.442793E-07,-1.09573E-07,-6.650633E-10,-2.622604E-08
911.0833,-0.229237,4.287325E-09,NaN,-0.4343311,-1.31819E-07,NaN,0.01380436,-5.624044E-07,NaN,-0.6422873,2.461045E-05,0.01267104,1.105991E-07,NaN,NaN,0.1799429,5.587785E-11,-4.329544E-07,-1.095734E-07,5.270295E-10,-2.861022E-08
911.099,-0.229237,4.287325E-09,NaN,-0.4343311,-1.31819E-07,NaN,0.01380436,-5.624044E-07,NaN,-0.6422873,2.461045E-05,0.01267104,1.105991E-07,NaN,NaN,0.1799429,5.587785E-11,-4.329544E-07,-1.095734E-07,5.270295E-10,-2.861022E-08
911.1141,-0.2293265,4.287944E-09,NaN,-0.4341005,-1.318192E-07,NaN,0.01510198,-5.6242E-07,NaN,-0.643516,2.461083E-05,0.01002661,1.106158E-07,NaN,NaN,0.1807016,5.122124E-11,-4.180532E-07,-1.095738E-07,8.87168E-09,-2.622604E-08
911.1306,-0.2293993,4.288563E-09,NaN,-0.4339207,-1.318195E-07,NaN,0.0162264,-5.624352E-07,NaN,-0.6447822,2.461121E-05,0.007357724,1.106321E-07,NaN,NaN,0.1814453,5.122124E-11,-4.0196E-07,-1.095742E-07,1.244796E-08,-2.861022E-08
911.1463,-0.2294613,4.289182E-09,NaN,-0.433773,-1.318197E-07,NaN,0.01719413,-5.624528E-07,NaN,-0.6460523,2.461158E-05,0.004735334,1.106509E-07,NaN,NaN,0.1821745,5.122124E-11,-3.846746E-07,-1.095746E-07,7.679588E-09,-2.622604E-08
911.1622,-0.2294833,4.289801E-09,NaN,-0.4337505,-1.318199E-07,NaN,0.01834796,-5.6247E-07,NaN,-0.6478359,2.461196E-05,0.001490242,1.106692E-07,NaN,NaN,0.1832035,5.122124E-11,-3.709656E-07,-1.095749E-07,7.679588E-09,-2.861022E-08
911.1781,-0.2294833,4.289801E-09,NaN,-0.4337505,-1.318199E-07,NaN,0.01834796,-5.6247E-07,NaN,-0.6478359,2.461196E-05,0.001490242,1.106692E-07,NaN,NaN,0.1832035,5.122124E-11,-3.709656E-07,-1.095749E-07,7.679588E-09,-2.861022E-08
911.193,-0.2294814,4.29042E-09,NaN,-0.433804,-1.318201E-07,NaN,0.01939763,-5.624868E-07,NaN,-0.6497155,2.461234E-05,-0.001969528,1.106871E-07,NaN,NaN,0.1842123,4.656462E-11,-3.566605E-07,-1.095753E-07,5.295402E-09,-2.622604E-08
911.2095,-0.2294646,4.291039E-09,NaN,-0.4339043,-1.318203E-07,NaN,0.02026778,-5.625031E-07,NaN,-0.6516203,2.461272E-05,-0.005437434,1.107046E-07,NaN,NaN,0.1852014,4.656462E-11,-3.393751E-07,-1.095757E-07,2.911216E-09,-2.861022E-08
911.2251,-0.2294385,4.291658E-09,NaN,-0.4340331,-1.318205E-07,NaN,0.02097577,-5.625191E-07,NaN,-0.6535173,2.46131E-05,-0.008842981,1.107217E-07,NaN,NaN,0.186171,4.190801E-11,-3.214937E-07,-1.095761E-07,7.679588E-09,-2.622604E-08
911.2415,-0.2293736,4.292278E-09,NaN,-0.4342834,-1.318207E-07,NaN,0.02185548,-5.625375E-07,NaN,-0.6559159,2.461348E-05,-0.01285397,1.107412E-07,NaN,NaN,0.1874358,4.190801E-11,-3.095728E-07,-1.095765E-07,5.295402E-09,-2.861022E-08
911.2568,-0.2293736,4.292278E-09,NaN,-0.4342834,-1.318207E-07,NaN,0.02185548,-5.625375E-07,NaN,-0.6559159,2.461348E-05,-0.01285397,1.107412E-07,NaN,NaN,0.1874358,4.190801E-11,-3.095728E-07,-1.095765E-07,5.295402E-09,-2.861022E-08
911.2721,-0.2292848,4.292897E-09,NaN,-0.4346077,-1.318209E-07,NaN,0.02262313,-5.625555E-07,NaN,-0.6583998,2.461385E-05,-0.01706645,1.107603E-07,NaN,NaN,0.1886758,4.190801E-11,-2.887112E-07,-1.095769E-07,4.103309E-09,-2.622604E-08
911.2885,-0.2291813,4.293517E-09,NaN,-0.434976,-1.318211E-07,NaN,0.02320402,-5.62573E-07,NaN,-0.6608977,2.461423E-05,-0.02127191,1.10779E-07,NaN,NaN,0.1898915,4.190801E-11,-2.672535E-07,-1.095773E-07,2.911216E-09,-2.861022E-08
911.3044,-0.2290691,4.294136E-09,NaN,-0.43537,-1.318213E-07,NaN,0.0236169,-5.625901E-07,NaN,-0.6633767,2.461461E-05,-0.02539977,1.107972E-07,NaN,NaN,0.1910833,3.72514E-11,-2.47584E-07,-1.095777E-07,5.270302E-10,-2.622604E-08
911.3199,-0.2290691,4.294136E-09,NaN,-0.43537,-1.318213E-07,NaN,0.0236169,-5.625901E-07,NaN,-0.6633767,2.461461E-05,-0.02539977,1.107972E-07,NaN,NaN,0.1910833,3.72514E-11,-2.47584E-07,-1.095777E-07,5.270302E-10,-2.622604E-08
911.3349,-0.228919,4.294756E-09,NaN,-0.4358827,-1.318215E-07,NaN,0.02418473,-5.626068E-07,NaN,-0.6663458,2.461499E-05,-0.03011655,1.10815E-07,NaN,NaN,0.1925659,3.72514E-11,-2.326828E-07,-1.09578E-07,5.270302E-10,-2.861022E-08
911.3512,-0.2287458,4.295375E-09,NaN,-0.4364662,-1.318217E-07,NaN,0.02463192,-5.626259E-07,NaN,-0.6693889,2.461536E-05,-0.03502147,1.108353E-07,NaN,NaN,0.1940195,3.72514E-11,-2.09437E-07,-1.095784E-07,-1.857156E-09,-2.622604E-08
911.3671,-0.2285588,4.295995E-09,NaN,-0.4370907,-1.318219E-07,NaN,0.02488574,-5.626446E-07,NaN,-0.6724353,2.461574E-05,-0.03990493,1.108551E-07,NaN,NaN,0.1954445,3.72514E-11,-1.879794E-07,-1.095788E-07,-1.020181E-08,-2.861022E-08
911.3835,-0.2283642,4.296614E-09,NaN,-0.4377378,-1.318221E-07,NaN,0.02496666,-5.626628E-07,NaN,-0.6754525,2.461612E-05,-0.04469645,1.108744E-07,NaN,NaN,0.1968416,3.72514E-11,-1.665217E-07,-1.095792E-07,-1.377808E-08,-2.622604E-08
911.3989,-0.2283642,4.296614E-09,NaN,-0.4377378,-1.318221E-07,NaN,0.02496666,-5.626628E-07,NaN,-0.6754525,2.461612E-05,-0.04469645,1.108744E-07,NaN,NaN,0.1968416,3.72514E-11,-1.665217E-07,-1.095792E-07,-1.377808E-08,-2.622604E-08
911.414,-0.2281325,4.297234E-09,NaN,-0.4385005,-1.318223E-07,NaN,0.02518469,-5.626806E-07,NaN,-0.6789489,2.461649E-05,-0.05006157,1.108933E-07,NaN,NaN,0.1985255,3.72514E-11,-1.498324E-07,-1.095795E-07,-2.093064E-08,-2.861022E-08
911.4304,-0.2278787,4.297853E-09,NaN,-0.4393311,-1.318225E-07,NaN,0.02527391,-5.627007E-07,NaN,-0.6825085,2.461687E-05,-0.05560277,1.109146E-07,NaN,NaN,0.2001764,3.72514E-11,-1.295668E-07,-1.095799E-07,-1.497018E-08,-2.622604E-08
911.4462,-0.2276121,4.298473E-09,NaN,-0.4401996,-1.318227E-07,NaN,0.02516402,-5.627205E-07,NaN,-0.6860614,2.461725E-05,-0.06110895,1.109355E-07,NaN,NaN,0.2017949,3.72514E-11,-1.075131E-07,-1.095803E-07,-1.258599E-08,-2.861022E-08
911.462,-0.2273388,4.299092E-09,NaN,-0.4410878,-1.318229E-07,NaN,0.02487749,-5.627398E-07,NaN,-0.6895757,2.461763E-05,-0.06650969,1.10956E-07,NaN,NaN,0.2033817,3.259479E-11,-8.724751E-08,-1.095807E-07,-7.817621E-09,-2.622604E-08
911.4779,-0.2273388,4.299092E-09,NaN,-0.4410878,-1.318229E-07,NaN,0.02487749,-5.627398E-07,NaN,-0.6895757,2.461763E-05,-0.06650969,1.10956E-07,NaN,NaN,0.2033817,3.259479E-11,-8.724751E-08,-1.095807E-07,-7.817621E-09,-2.622604E-08
911.4928,-0.2270293,4.299712E-09,NaN,-0.4420887,-1.318231E-07,NaN,0.02470953,-5.627587E-07,NaN,-0.6935585,2.461801E-05,-0.07246982,1.10976E-07,NaN,NaN,0.2052515,3.259479E-11,-7.055822E-08,-1.09581E-07,-3.04925E-09,-2.861022E-08
911.5096,-0.2266987,4.300331E-09,NaN,-0.4431544,-1.318233E-07,NaN,0.02440536,-5.627771E-07,NaN,-0.6975946,2.461838E-05,-0.07859498,1.109955E-07,NaN,NaN,0.2070846,3.259479E-11,-4.910054E-08,-1.095814E-07,1.719122E-09,-2.622604E-08
911.5255,-0.2263563,4.300951E-09,NaN,-0.4442554,-1.318235E-07,NaN,0.02389757,-5.627979E-07,NaN,-0.7016148,2.461876E-05,-0.08467228,1.110174E-07,NaN,NaN,0.2088819,3.259479E-11,-2.466264E-08,-1.095818E-07,-6.65064E-10,-2.861022E-08
911.5427,-0.226008,4.30157E-09,NaN,-0.4453731,-1.318237E-07,NaN,0.0232109,-5.628182E-07,NaN,-0.7055875,2.461914E-05,-0.09063133,1.110389E-07,NaN,NaN,0.210644,2.793818E-11,6.693348E-10,-1.095821E-07,7.679587E-09,-2.622604E-08
911.5569,-0.226008,4.30157E-09,NaN,-0.4453731,-1.318237E-07,NaN,0.0232109,-5.628182E-07,NaN,-0.7055875,2.461914E-05,-0.09063133,1.110389E-07,NaN,NaN,0.210644,2.793818E-11,6.693348E-10,-1.095821E-07,7.679587E-09,-2.622604E-08
911.5719,-0.2256244,4.30219E-09,NaN,-0.4466007,-1.318239E-07,NaN,0.02262413,-5.628381E-07,NaN,-0.7100186,2.461952E-05,-0.09713671,1.110598E-07,NaN,NaN,0.2126855,2.793818E-11,1.408038E-08,-1.095825E-07,1.483214E-08,-2.861022E-08
911.5888,-0.2252204,4.302809E-09,NaN,-0.4478905,-1.318241E-07,NaN,0.02189483,-5.628575E-07,NaN,-0.7144939,2.461989E-05,-0.1037969,1.110803E-07,NaN,NaN,0.2146871,2.793818E-11,3.4942E-08,-1.095829E-07,2.31768E-08,-2.622604E-08
911.6042,-0.2248056,4.303429E-09,NaN,-0.4492128,-1.318243E-07,NaN,0.02095899,-5.628764E-07,NaN,-0.7189445,2.462027E-05,-0.110397,1.111004E-07,NaN,NaN,0.2166495,2.793818E-11,5.937991E-08,-1.095832E-07,2.079261E-08,-2.861022E-08
911.6204,-0.2243858,4.304048E-09,NaN,-0.4505491,-1.318245E-07,NaN,0.0198438,-5.628976E-07,NaN,-0.7233396,2.462065E-05,-0.1168668,1.111228E-07,NaN,NaN,0.2185735,2.793818E-11,8.292374E-08,-1.095836E-07,1.483215E-08,-2.622604E-08
911.6365,-0.2243858,4.304048E-09,NaN,-0.4505491,-1.318245E-07,NaN,0.0198438,-5.628976E-07,NaN,-0.7233396,2.462065E-05,-0.1168668,1.111228E-07,NaN,NaN,0.2185735,2.793818E-11,8.292374E-08,-1.095836E-07,1.483215E-08,-2.622604E-08
911.6513,-0.2239314,4.304668E-09,NaN,-0.4519926,-1.318246E-07,NaN,0.01881008,-5.629184E-07,NaN,-0.7281834,2.462102E-05,-0.1238709,1.111447E-07,NaN,NaN,0.2207737,2.793818E-11,9.931502E-08,-1.09584E-07,1.602424E-08,-2.861022E-08
911.6679,-0.2234576,4.305287E-09,NaN,-0.4534957,-1.318248E-07,NaN,0.0176289,-5.629387E-07,NaN,-0.7330627,2.46214E-05,-0.1310203,1.111661E-07,NaN,NaN,0.222931,2.793818E-11,1.24349E-07,-1.095843E-07,1.006378E-08,-2.622604E-08
911.6834,-0.2229737,4.305907E-09,NaN,-0.4550287,-1.31825E-07,NaN,0.01624003,-5.629586E-07,NaN,-0.7379096,2.462178E-05,-0.138098,1.111871E-07,NaN,NaN,0.2250459,2.793818E-11,1.523632E-07,-1.095847E-07,6.487497E-09,-2.861022E-08
911.6996,-0.2229737,4.305907E-09,NaN,-0.4550287,-1.31825E-07,NaN,0.01624003,-5.629586E-07,NaN,-0.7379096,2.462178E-05,-0.138098,1.111871E-07,NaN,NaN,0.2250459,2.793818E-11,1.523632E-07,-1.095847E-07,6.487497E-09,-2.861022E-08
911.7145,-0.2224524,4.306526E-09,NaN,-0.4566778,-1.318252E-07,NaN,0.01487527,-5.629779E-07,NaN,-0.7432093,2.462216E-05,-0.1457134,1.112075E-07,NaN,NaN,0.2274334,2.328156E-11,1.708406E-07,-1.09585E-07,1.006378E-08,-2.622604E-08
911.7312,-0.2219102,4.307146E-09,NaN,-0.4583909,-1.318254E-07,NaN,0.01332404,-5.629968E-07,NaN,-0.7485418,2.462253E-05,-0.1534605,1.112276E-07,NaN,NaN,0.2297743,3.259479E-11,1.967686E-07,-1.095854E-07,7.67959E-09,-2.861022E-08
911.7469,-0.2213573,4.307765E-09,NaN,-0.4601356,-1.318256E-07,NaN,0.01154056,-5.630265E-07,NaN,-0.7538362,2.46229E-05,-0.1611166,1.112584E-07,NaN,NaN,0.2320693,3.259479E-11,2.209085E-07,-1.095857E-07,1.006378E-08,-2.622604E-08
911.7629,-0.2208001,4.308385E-09,NaN,-0.4618919,-1.31826E-07,NaN,0.009565767,-5.623039E-07,NaN,-0.7590607,2.462328E-05,-0.1686124,1.105369E-07,NaN,NaN,0.2343193,3.259479E-11,2.471345E-07,-1.095856E-07,6.487497E-09,-2.861022E-08
911.7786,-0.2208001,4.308385E-09,NaN,-0.4618919,-1.31826E-07,NaN,0.009565767,-5.623039E-07,NaN,-0.7590607,2.462328E-05,-0.1686124,1.105369E-07,NaN,NaN,0.2343193,3.259479E-11,2.471345E-07,-1.095856E-07,6.487497E-09,-2.861022E-08
911.7936,-0.2202093,4.309004E-09,NaN,-0.4637522,-1.318264E-07,NaN,0.007630881,-5.616123E-07,NaN,-0.7647149,2.462366E-05,-0.1766158,1.098464E-07,NaN,NaN,0.2368391,2.793818E-11,2.653139E-07,-1.095855E-07,2.911218E-09,-2.622604E-08
911.81,-0.2196003,4.309624E-09,NaN,-0.465668,-1.318267E-07,NaN,0.00553683,-5.609314E-07,NaN,-0.7703882,2.462404E-05,-0.1847421,1.091666E-07,NaN,NaN,0.2393097,2.793818E-11,2.9154E-07,-1.095854E-07,4.103311E-09,-2.861022E-08
911.8256,-0.2189826,4.310243E-09,NaN,-0.4676092,-1.318269E-07,NaN,0.003233351,-5.610182E-07,NaN,-0.7760139,2.462441E-05,-0.1927714,1.092545E-07,NaN,NaN,0.2417319,2.793818E-11,3.17766E-07,-1.095857E-07,7.679589E-09,-2.622604E-08
911.8419,-0.2183621,4.310863E-09,NaN,-0.4695574,-1.31827E-07,NaN,0.0007564123,-5.61092E-07,NaN,-0.7815627,2.462478E-05,-0.2006347,1.093294E-07,NaN,NaN,0.2441067,3.72514E-11,3.419059E-07,-1.09586E-07,-6.650609E-10,-2.861022E-08
911.8572,-0.2183621,4.310863E-09,NaN,-0.4695574,-1.31827E-07,NaN,0.0007564123,-5.61092E-07,NaN,-0.7815627,2.462478E-05,-0.2006347,1.093294E-07,NaN,NaN,0.2441067,3.72514E-11,3.419059E-07,-1.09586E-07,-6.650609E-10,-2.861022E-08
911.8729,-0.2177092,4.311482E-09,NaN,-0.4716057,-1.318272E-07,NaN,-0.001690228,-5.611586E-07,NaN,-0.7875321,2.462516E-05,-0.2090005,1.093972E-07,NaN,NaN,0.2467487,3.259479E-11,3.615754E-07,-1.095863E-07,-6.650609E-10,-2.622604E-08
911.8891,-0.217039,4.312102E-09,NaN,-0.4737064,-1.318273E-07,NaN,-0.004292516,-5.61221E-07,NaN,-0.7935138,2.462555E-05,-0.2174834,1.094607E-07,NaN,NaN,0.2493392,2.793818E-11,3.878015E-07,-1.095867E-07,1.719125E-09,-2.861022E-08
911.9049,-0.216361,4.312721E-09,NaN,-0.4758298,-1.318275E-07,NaN,-0.007097549,-5.610856E-07,NaN,-0.7994423,2.462594E-05,-0.2258602,1.093264E-07,NaN,NaN,0.251879,1.396834E-11,4.140275E-07,-1.095856E-07,-4.241339E-09,-2.622604E-08
911.9205,-0.215681,4.31334E-09,NaN,-0.4779576,-1.318273E-07,NaN,-0.01006756,-5.611132E-07,NaN,-0.8052887,2.462633E-05,-0.2340618,1.093551E-07,NaN,NaN,0.2543689,-4.65811E-12,4.429358E-07,-1.095842E-07,-1.857154E-09,-2.861022E-08
911.9365,-0.215681,4.31334E-09,NaN,-0.4779576,-1.318273E-07,NaN,-0.01006756,-5.611132E-07,NaN,-0.8052887,2.462633E-05,-0.2340618,1.093551E-07,NaN,NaN,0.2543689,-4.65811E-12,4.429358E-07,-1.095842E-07,-1.857154E-09,-2.861022E-08
911.9516,-0.2149692,4.313959E-09,NaN,-0.4801832,-1.318268E-07,NaN,-0.01302242,-5.612275E-07,NaN,-0.8115474,2.462673E-05,-0.242759,1.094705E-07,NaN,NaN,0.2571239,-2.328456E-11,4.596251E-07,-1.095827E-07,4.103311E-09,-2.622604E-08
911.9684,-0.2142409,4.314578E-09,NaN,-0.4824588,-1.318262E-07,NaN,-0.01613135,-5.613873E-07,NaN,-0.8178128,2.462713E-05,-0.2515655,1.096315E-07,NaN,NaN,0.2598251,-4.191101E-11,4.876393E-07,-1.09581E-07,4.103311E-09,-2.861022E-08
911.9841,-0.2135055,4.315198E-09,NaN,-0.4847549,-1.318256E-07,NaN,-0.01943626,-5.61572E-07,NaN,-0.82402,2.462752E-05,-0.260256,1.098174E-07,NaN,NaN,0.2624735,-6.053746E-11,5.120772E-07,-1.095794E-07,1.719125E-09,-2.622604E-08
912,-0.2127688,4.315817E-09,NaN,-0.4870532,-1.318248E-07,NaN,-0.02289673,-5.617699E-07,NaN,-0.8301408,2.462791E-05,-0.2687619,1.100165E-07,NaN,NaN,0.2650698,-7.45073E-11,5.344289E-07,-1.095777E-07,5.27032E-10,-2.861022E-08
912.0159,-0.2127688,4.315817E-09,NaN,-0.4870532,-1.318248E-07,NaN,-0.02289673,-5.617699E-07,NaN,-0.8301408,2.462791E-05,-0.2687619,1.100165E-07,NaN,NaN,0.2650698,-7.45073E-11,5.344289E-07,-1.095777E-07,5.27032E-10,-2.861022E-08
912.0313,-0.2120009,4.316437E-09,NaN,-0.4894473,-1.318241E-07,NaN,-0.02635674,-5.619696E-07,NaN,-0.8366659,2.462831E-05,-0.2777571,1.102172E-07,NaN,NaN,0.2679291,-9.313375E-11,5.542474E-07,-1.095759E-07,5.27032E-10,-2.622604E-08
912.0491,-0.2112171,4.317057E-09,NaN,-0.4918893,-1.318234E-07,NaN,-0.029968,-5.621708E-07,NaN,-0.8431927,2.46287E-05,-0.2868537,1.104196E-07,NaN,NaN,0.2707326,-1.071036E-10,5.822616E-07,-1.095742E-07,5.27032E-10,-2.861022E-08
912.0636,-0.2104268,4.317677E-09,NaN,-0.4943497,-1.318226E-07,NaN,-0.03376686,-5.623681E-07,NaN,-0.8496571,2.462909E-05,-0.2958244,1.10618E-07,NaN,NaN,0.2734812,-1.210734E-10,6.101268E-07,-1.095725E-07,1.719125E-09,-2.622604E-08
912.0795,-0.2104268,4.317677E-09,NaN,-0.4943497,-1.318226E-07,NaN,-0.03376686,-5.623681E-07,NaN,-0.8496571,2.462909E-05,-0.2958244,1.10618E-07,NaN,NaN,0.2734812,-1.210734E-10,6.101268E-07,-1.095725E-07,1.719125E-09,-2.622604E-08
912.0947,-0.2096359,4.318297E-09,NaN,-0.4968105,-1.318218E-07,NaN,-0.0377103,-5.625614E-07,NaN,-0.8560313,2.462948E-05,-0.3046015,1.108125E-07,NaN,NaN,0.2761759,-1.350433E-10,6.375449E-07,-1.095708E-07,2.911218E-09,-2.861022E-08
912.1112,-0.2088143,4.318917E-09,NaN,-0.499365,-1.318211E-07,NaN,-0.04166724,-5.62748E-07,NaN,-0.8628021,2.462987E-05,-0.3138626,1.110002E-07,NaN,NaN,0.2791315,-1.443565E-10,6.579595E-07,-1.095691E-07,-6.625525E-09,-2.622604E-08
912.127,-0.2079773,4.319537E-09,NaN,-0.5019655,-1.318203E-07,NaN,-0.04577138,-5.629309E-07,NaN,-0.8695703,2.463026E-05,-0.3232172,1.111843E-07,NaN,NaN,0.2820294,-1.583263E-10,6.812053E-07,-1.095674E-07,-7.817618E-09,-2.861022E-08
912.1427,-0.2071345,4.320158E-09,NaN,-0.5045825,-1.318195E-07,NaN,-0.05005325,-5.631073E-07,NaN,-0.8762725,2.463065E-05,-0.3324361,1.113618E-07,NaN,NaN,0.2848706,-1.676396E-10,7.092195E-07,-1.095656E-07,-1.497017E-08,-2.622604E-08
912.1584,-0.2071345,4.320158E-09,NaN,-0.5045825,-1.318195E-07,NaN,-0.05005325,-5.631073E-07,NaN,-0.8762725,2.463065E-05,-0.3324361,1.113618E-07,NaN,NaN,0.2848706,-1.676396E-10,7.092195E-07,-1.095656E-07,-1.497017E-08,-2.622604E-08
912.1735,-0.2062917,4.320778E-09,NaN,-0.507198,-1.318188E-07,NaN,-0.05446742,-5.632774E-07,NaN,-0.8828815,2.463104E-05,-0.3414528,1.11533E-07,NaN,NaN,0.2876561,-1.816094E-10,7.349985E-07,-1.095639E-07,-1.854645E-08,-2.861022E-08
912.1901,-0.2054186,4.321398E-09,NaN,-0.5099053,-1.31818E-07,NaN,-0.05890851,-5.634412E-07,NaN,-0.8898795,2.463142E-05,-0.3509494,1.11698E-07,NaN,NaN,0.2907007,-1.909226E-10,7.545191E-07,-1.095623E-07,-2.212273E-08,-2.622604E-08
912.2058,-0.2045308,4.322019E-09,NaN,-0.5126567,-1.318172E-07,NaN,-0.0634917,-5.635989E-07,NaN,-0.8968713,2.463181E-05,-0.360531,1.118569E-07,NaN,NaN,0.2936859,-2.048925E-10,7.804471E-07,-1.095606E-07,-2.450692E-08,-2.861022E-08
912.2216,-0.2036377,4.322639E-09,NaN,-0.5154228,-1.318165E-07,NaN,-0.06824148,-5.637507E-07,NaN,-0.9037943,2.463221E-05,-0.3699674,1.120098E-07,NaN,NaN,0.2966126,-2.188623E-10,8.093554E-07,-1.095589E-07,-2.450692E-08,-2.622604E-08
912.2375,-0.2036377,4.322639E-09,NaN,-0.5154228,-1.318165E-07,NaN,-0.06824148,-5.637507E-07,NaN,-0.9037943,2.463221E-05,-0.3699674,1.120098E-07,NaN,NaN,0.2966126,-2.188623E-10,8.093554E-07,-1.095589E-07,-2.450692E-08,-2.622604E-08
912.2525,-0.2027452,4.32326E-09,NaN,-0.5181856,-1.318157E-07,NaN,-0.0731102,-5.638994E-07,NaN,-0.9106213,2.46326E-05,-0.3791937,1.121597E-07,NaN,NaN,0.2994819,-2.328321E-10,8.350598E-07,-1.095572E-07,-2.331482E-08,-2.861022E-08
912.2689,-0.2018229,4.323881E-09,NaN,-0.5210384,-1.31815E-07,NaN,-0.07801884,-5.640423E-07,NaN,-0.9178302,2.463299E-05,-0.3888964,1.123037E-07,NaN,NaN,0.3026086,-2.46802E-10,8.503335E-07,-1.095555E-07,-2.569901E-08,-2.622604E-08
912.2847,-0.2008863,4.324502E-09,NaN,-0.5239336,-1.318142E-07,NaN,-0.08306365,-5.641795E-07,NaN,-0.9250299,2.463338E-05,-0.3986757,1.124421E-07,NaN,NaN,0.3056744,-2.607718E-10,8.770811E-07,-1.095539E-07,-2.68911E-08,-2.861022E-08
912.3008,-0.1999451,4.325122E-09,NaN,-0.5268418,-1.318135E-07,NaN,-0.08826283,-5.643112E-07,NaN,-0.9321584,2.463377E-05,-0.4083002,1.125749E-07,NaN,NaN,0.3086801,-2.747416E-10,9.029346E-07,-1.095522E-07,-2.450692E-08,-2.622604E-08
912.3162,-0.1999451,4.325122E-09,NaN,-0.5268418,-1.318135E-07,NaN,-0.08826283,-5.643112E-07,NaN,-0.9321584,2.463377E-05,-0.4083002,1.125749E-07,NaN,NaN,0.3086801,-2.747416E-10,9.029346E-07,-1.095522E-07,-2.450692E-08,-2.622604E-08
912.3314,-0.1990049,4.325743E-09,NaN,-0.5297448,-1.318127E-07,NaN,-0.09356676,-5.644373E-07,NaN,-0.9391888,2.463416E-05,-0.4177069,1.127022E-07,NaN,NaN,0.3116269,-2.887114E-10,9.26702E-07,-1.095506E-07,-2.569901E-08,-2.861022E-08
912.348,-0.1980354,4.326365E-09,NaN,-0.5327362,-1.31812E-07,NaN,-0.09892341,-5.645581E-07,NaN,-0.9465941,2.463455E-05,-0.4275878,1.128241E-07,NaN,NaN,0.3148295,-2.980247E-10,9.438756E-07,-1.095489E-07,-2.569901E-08,-2.622604E-08
912.3637,-0.1970522,4.326986E-09,NaN,-0.5357684,-1.318112E-07,NaN,-0.1044095,-5.646737E-07,NaN,-0.9539879,2.463494E-05,-0.4375361,1.129408E-07,NaN,NaN,0.3179697,-3.119945E-10,9.668233E-07,-1.095473E-07,-2.629506E-08,-2.861022E-08
912.3793,-0.1970522,4.326986E-09,NaN,-0.5357684,-1.318112E-07,NaN,-0.1044095,-5.646737E-07,NaN,-0.9539879,2.463494E-05,-0.4375361,1.129408E-07,NaN,NaN,0.3179697,-3.119945E-10,9.668233E-07,-1.095473E-07,-2.629506E-08,-2.861022E-08
912.3942,-0.1960648,4.327607E-09,NaN,-0.5388118,-1.318105E-07,NaN,-0.1100369,-5.64784E-07,NaN,-0.9613085,2.463532E-05,-0.4473203,1.130524E-07,NaN,NaN,0.3210484,-3.213077E-10,9.911868E-07,-1.095456E-07,-2.569901E-08,-2.622604E-08
912.4107,-0.195079,4.328228E-09,NaN,-0.5418485,-1.318098E-07,NaN,-0.1157543,-5.648894E-07,NaN,-0.9685295,2.463571E-05,-0.4568798,1.131588E-07,NaN,NaN,0.3240666,-3.306209E-10,1.016221E-06,-1.09544E-07,-2.450692E-08,-2.861022E-08
912.4269,-0.1940643,4.32885E-09,NaN,-0.5449719,-1.31809E-07,NaN,-0.1215371,-5.649926E-07,NaN,-0.9761183,2.463609E-05,-0.4669118,1.132632E-07,NaN,NaN,0.3273394,-3.399341E-10,1.029939E-06,-1.095424E-07,-2.748715E-08,-2.622604E-08
912.4425,-0.1930364,4.329471E-09,NaN,-0.5481344,-1.318083E-07,NaN,-0.1274422,-5.650909E-07,NaN,-0.983694,2.463648E-05,-0.4770017,1.133626E-07,NaN,NaN,0.3305482,-3.492474E-10,1.054079E-06,-1.095408E-07,-2.331483E-08,-2.861022E-08
912.458,-0.1930364,4.329471E-09,NaN,-0.5481344,-1.318083E-07,NaN,-0.1274422,-5.650909E-07,NaN,-0.983694,2.463648E-05,-0.4770017,1.133626E-07,NaN,NaN,0.3305482,-3.492474E-10,1.054079E-06,-1.095408E-07,-2.331483E-08,-2.861022E-08
912.4734,-0.1920048,4.330093E-09,NaN,-0.5513067,-1.318078E-07,NaN,-0.1334747,-5.650492E-07,NaN,-0.9911953,2.463687E-05,-0.4869184,1.133221E-07,NaN,NaN,0.3336942,-3.585606E-10,1.079001E-06,-1.095387E-07,-2.391087E-08,-2.622604E-08
912.4898,-0.1909753,4.330715E-09,NaN,-0.5544706,-1.318072E-07,NaN,-0.1395819,-5.650252E-07,NaN,-0.9985954,2.463725E-05,-0.496604,1.132992E-07,NaN,NaN,0.3367786,-3.678738E-10,1.100682E-06,-1.095366E-07,-2.629506E-08,-2.861022E-08
912.5056,-0.1899172,4.331337E-09,NaN,-0.5577198,-1.318066E-07,NaN,-0.1457675,-5.6501E-07,NaN,-1.006357,2.463764E-05,-0.506761,1.132852E-07,NaN,NaN,0.340116,-3.77187E-10,1.117707E-06,-1.095344E-07,-2.450692E-08,-2.622604E-08
912.5213,-0.1888464,4.331958E-09,NaN,-0.5610065,-1.318061E-07,NaN,-0.1520676,-5.64995E-07,NaN,-1.014104,2.463801E-05,-0.5169659,1.132714E-07,NaN,NaN,0.3433883,-3.77187E-10,1.140767E-06,-1.095323E-07,-2.510296E-08,-2.861022E-08
912.5373,-0.1888464,4.331958E-09,NaN,-0.5610065,-1.318061E-07,NaN,-0.1520676,-5.64995E-07,NaN,-1.014104,2.463801E-05,-0.5169659,1.132714E-07,NaN,NaN,0.3433883,-3.77187E-10,1.140767E-06,-1.095323E-07,-2.510296E-08,-2.861022E-08
912.5536,-0.1877723,4.33258E-09,NaN,-0.5643014,-1.318055E-07,NaN,-0.1584808,-5.649803E-07,NaN,-1.021775,2.463839E-05,-0.5269889,1.132578E-07,NaN,NaN,0.3465966,-3.77187E-10,1.166099E-06,-1.095302E-07,-2.927529E-08,-2.622604E-08
912.569,-0.186701,4.333202E-09,NaN,-0.5675865,-1.318049E-07,NaN,-0.1649533,-5.649658E-07,NaN,-1.029345,2.463877E-05,-0.5367749,1.132445E-07,NaN,NaN,0.3497419,-3.77187E-10,1.188972E-06,-1.095281E-07,-3.225552E-08,-2.861022E-08
912.5857,-0.1856013,4.333824E-09,NaN,-0.5709554,-1.318043E-07,NaN,-0.1715171,-5.649487E-07,NaN,-1.037269,2.463914E-05,-0.547032,1.132285E-07,NaN,NaN,0.3531392,-3.77187E-10,1.199775E-06,-1.09526E-07,-3.523575E-08,-2.622604E-08
912.6005,-0.1844894,4.334445E-09,NaN,-0.5743604,-1.318037E-07,NaN,-0.1781875,-5.649291E-07,NaN,-1.045178,2.463952E-05,-0.5573263,1.1321E-07,NaN,NaN,0.3564701,-3.77187E-10,1.221829E-06,-1.095239E-07,-3.463971E-08,-2.861022E-08
912.6161,-0.1844894,4.334445E-09,NaN,-0.5743604,-1.318037E-07,NaN,-0.1781875,-5.649291E-07,NaN,-1.045178,2.463952E-05,-0.5573263,1.1321E-07,NaN,NaN,0.3564701,-3.77187E-10,1.221829E-06,-1.095239E-07,-3.463971E-08,-2.861022E-08
912.6313,-0.1833747,4.335067E-09,NaN,-0.5777721,-1.318031E-07,NaN,-0.1849561,-5.649069E-07,NaN,-1.053011,2.46399E-05,-0.5674304,1.13189E-07,NaN,NaN,0.3597358,-3.77187E-10,1.244404E-06,-1.095218E-07,-3.463971E-08,-2.622604E-08
912.6476,-0.1822632,4.335689E-09,NaN,-0.5811726,-1.318026E-07,NaN,-0.1917685,-5.648823E-07,NaN,-1.060741,2.464027E-05,-0.5772926,1.131655E-07,NaN,NaN,0.3629375,-3.77187E-10,1.261392E-06,-1.095197E-07,-3.523575E-08,-2.861022E-08
912.6638,-0.1811237,4.33631E-09,NaN,-0.5846555,-1.31802E-07,NaN,-0.1986858,-5.648553E-07,NaN,-1.06882,2.464065E-05,-0.5876256,1.131397E-07,NaN,NaN,0.36639,-3.77187E-10,1.271226E-06,-1.095176E-07,-3.821599E-08,-2.622604E-08
912.6794,-0.1811237,4.33631E-09,NaN,-0.5846555,-1.31802E-07,NaN,-0.1986858,-5.648553E-07,NaN,-1.06882,2.464065E-05,-0.5876256,1.131397E-07,NaN,NaN,0.36639,-3.77187E-10,1.271226E-06,-1.095176E-07,-3.821599E-08,-2.622604E-08
912.6946,-0.1799722,4.336932E-09,NaN,-0.5881732,-1.318014E-07,NaN,-0.2057012,-5.648259E-07,NaN,-1.076883,2.464103E-05,-0.5979847,1.131115E-07,NaN,NaN,0.3697751,-3.77187E-10,1.292386E-06,-1.095155E-07,-3.285157E-08,-2.861022E-08
912.7111,-0.1788186,4.337554E-09,NaN,-0.5916961,-1.318008E-07,NaN,-0.2127997,-5.647942E-07,NaN,-1.08487,2.46414E-05,-0.6081458,1.130809E-07,NaN,NaN,0.3730939,-3.77187E-10,1.313099E-06,-1.095134E-07,-3.314959E-08,-2.622604E-08
912.7269,-0.1776685,4.338176E-09,NaN,-0.5952066,-1.318002E-07,NaN,-0.2199266,-5.647603E-07,NaN,-1.092753,2.464178E-05,-0.618061,1.130481E-07,NaN,NaN,0.3763476,-3.77187E-10,1.329788E-06,-1.095114E-07,-2.659308E-08,-2.861022E-08
912.7429,-0.1764908,4.338797E-09,NaN,-0.5987981,-1.317997E-07,NaN,-0.2271723,-5.647241E-07,NaN,-1.100978,2.464216E-05,-0.6284469,1.130131E-07,NaN,NaN,0.3798511,-3.77187E-10,1.33545E-06,-1.095093E-07,-2.718913E-08,-2.622604E-08
912.7583,-0.1764908,4.338797E-09,NaN,-0.5987981,-1.317997E-07,NaN,-0.2271723,-5.647241E-07,NaN,-1.100978,2.464216E-05,-0.6284469,1.130131E-07,NaN,NaN,0.3798511,-3.77187E-10,1.33545E-06,-1.095093E-07,-2.718913E-08,-2.622604E-08
912.7735,-0.1753016,4.339419E-09,NaN,-0.602423,-1.317991E-07,NaN,-0.2345073,-5.646858E-07,NaN,-1.109188,2.464253E-05,-0.6388475,1.129759E-07,NaN,NaN,0.3832862,-3.77187E-10,1.355716E-06,-1.095073E-07,-2.361285E-08,-2.861022E-08
912.7898,-0.1741105,4.340041E-09,NaN,-0.6060519,-1.317985E-07,NaN,-0.2419103,-5.646424E-07,NaN,-1.117322,2.464291E-05,-0.649043,1.129338E-07,NaN,NaN,0.386654,-3.77187E-10,1.375832E-06,-1.095052E-07,-2.80832E-08,-2.622604E-08
912.8059,-0.1729235,4.340662E-09,NaN,-0.6096669,-1.317979E-07,NaN,-0.2493263,-5.645971E-07,NaN,-1.125351,2.464328E-05,-0.6589894,1.128896E-07,NaN,NaN,0.3899558,-3.77187E-10,1.392224E-06,-1.095032E-07,-2.391087E-08,-2.861022E-08
912.8216,-0.1717091,4.341284E-09,NaN,-0.6133618,-1.317973E-07,NaN,-0.2568756,-5.645497E-07,NaN,-1.133716,2.464366E-05,-0.6694063,1.128434E-07,NaN,NaN,0.3935064,-3.77187E-10,1.397737E-06,-1.095012E-07,-2.569901E-08,-2.622604E-08
912.8373,-0.1717091,4.341284E-09,NaN,-0.6133618,-1.317973E-07,NaN,-0.2568756,-5.645497E-07,NaN,-1.133716,2.464366E-05,-0.6694063,1.128434E-07,NaN,NaN,0.3935064,-3.77187E-10,1.397737E-06,-1.095012E-07,-2.569901E-08,-2.622604E-08
912.8522,-0.1704836,4.341906E-09,NaN,-0.6170887,-1.317968E-07,NaN,-0.2645053,-5.645005E-07,NaN,-1.142067,2.464404E-05,-0.6798262,1.127952E-07,NaN,NaN,0.3969877,-3.77187E-10,1.413234E-06,-1.094992E-07,-2.316581E-08,-2.861022E-08
912.8687,-0.1692567,4.342528E-09,NaN,-0.6208185,-1.317962E-07,NaN,-0.2721875,-5.644492E-07,NaN,-1.150342,2.464441E-05,-0.6900349,1.127452E-07,NaN,NaN,0.4004008,-3.77187E-10,1.430818E-06,-1.094971E-07,-2.16757E-08,-2.622604E-08
912.8842,-0.1680343,4.343149E-09,NaN,-0.6245332,-1.317956E-07,NaN,-0.2798679,-5.643961E-07,NaN,-1.158511,2.464479E-05,-0.6999926,1.126932E-07,NaN,NaN,0.403747,-3.77187E-10,1.443633E-06,-1.094951E-07,-2.555E-08,-2.861022E-08
912.9003,-0.1667847,4.343771E-09,NaN,-0.6283265,-1.317951E-07,NaN,-0.2876967,-5.643412E-07,NaN,-1.16701,2.464517E-05,-0.7104199,1.126394E-07,NaN,NaN,0.4073413,-3.77187E-10,1.447805E-06,-1.094931E-07,-2.450692E-08,-2.622604E-08
912.9158,-0.1667847,4.343771E-09,NaN,-0.6283265,-1.317951E-07,NaN,-0.2876967,-5.643412E-07,NaN,-1.16701,2.464517E-05,-0.7104199,1.126394E-07,NaN,NaN,0.4073413,-3.77187E-10,1.447805E-06,-1.094931E-07,-2.450692E-08,-2.622604E-08
912.931,-0.1655243,4.344393E-09,NaN,-0.6321507,-1.317945E-07,NaN,-0.2955965,-5.642844E-07,NaN,-1.175496,2.464554E-05,-0.7208385,1.125838E-07,NaN,NaN,0.4108654,-3.77187E-10,1.4636E-06,-1.094912E-07,-2.443241E-08,-2.861022E-08
912.9473,-0.1642631,4.345015E-09,NaN,-0.6359764,-1.317939E-07,NaN,-0.3035334,-5.642259E-07,NaN,-1.183906,2.464592E-05,-0.731041,1.125264E-07,NaN,NaN,0.4143204,-3.77187E-10,1.476713E-06,-1.094892E-07,-2.555E-08,-2.622604E-08
912.963,-0.1630067,4.345636E-09,NaN,-0.6397859,-1.317934E-07,NaN,-0.311454,-5.641656E-07,NaN,-1.19221,2.46463E-05,-0.7409917,1.124673E-07,NaN,NaN,0.4177077,-3.77187E-10,1.485356E-06,-1.094872E-07,-2.29423E-08,-2.861022E-08
912.9788,-0.1630067,4.345636E-09,NaN,-0.6397859,-1.317934E-07,NaN,-0.311454,-5.641656E-07,NaN,-1.19221,2.46463E-05,-0.7409917,1.124673E-07,NaN,NaN,0.4177077,-3.77187E-10,1.485356E-06,-1.094872E-07,-2.29423E-08,-2.861022E-08
912.9936,-0.1617233,4.346258E-09,NaN,-0.6436729,-1.317928E-07,NaN,-0.3195389,-5.641037E-07,NaN,-1.200838,2.464667E-05,-0.7514102,1.124065E-07,NaN,NaN,0.4213422,-3.77187E-10,1.485654E-06,-1.094852E-07,-2.665827E-08,-2.622604E-08
913.0101,-0.1604296,4.34688E-09,NaN,-0.6475897,-1.317922E-07,NaN,-0.3276849,-5.6404E-07,NaN,-1.209454,2.464705E-05,-0.7618086,1.12344E-07,NaN,NaN,0.4249058,-3.77187E-10,1.494893E-06,-1.094833E-07,-2.697492E-08,-2.861022E-08
913.0258,-0.1591353,4.347501E-09,NaN,-0.6515068,-1.317917E-07,NaN,-0.3358528,-5.639748E-07,NaN,-1.217994,2.464743E-05,-0.7719872,1.122799E-07,NaN,NaN,0.4283995,-3.77187E-10,1.505919E-06,-1.094813E-07,-2.418096E-08,-2.622604E-08
913.0416,-0.1578464,4.348123E-09,NaN,-0.6554067,-1.317911E-07,NaN,-0.3439905,-5.639079E-07,NaN,-1.226428,2.46478E-05,-0.7819145,1.122142E-07,NaN,NaN,0.4318247,-3.77187E-10,1.515158E-06,-1.094794E-07,-2.678866E-08,-2.861022E-08
913.0576,-0.1578464,4.348123E-09,NaN,-0.6554067,-1.317911E-07,NaN,-0.3439905,-5.639079E-07,NaN,-1.226428,2.46478E-05,-0.7819145,1.122142E-07,NaN,NaN,0.4318247,-3.77187E-10,1.515158E-06,-1.094794E-07,-2.678866E-08,-2.861022E-08
913.0737,-0.1565306,4.348745E-09,NaN,-0.6593829,-1.317906E-07,NaN,-0.3523088,-5.638395E-07,NaN,-1.235179,2.464818E-05,-0.7923065,1.121469E-07,NaN,NaN,0.4354963,-3.77187E-10,1.513668E-06,-1.094774E-07,-2.820427E-08,-2.622604E-08
913.0887,-0.1552049,4.349367E-09,NaN,-0.6633877,-1.3179E-07,NaN,-0.3606781,-5.637695E-07,NaN,-1.24392,2.464856E-05,-0.8026675,1.12078E-07,NaN,NaN,0.4390962,-3.77187E-10,1.518437E-06,-1.094755E-07,-2.820427E-08,-2.861022E-08
913.1046,-0.153879,4.349988E-09,NaN,-0.6673918,-1.317894E-07,NaN,-0.3690543,-5.63698E-07,NaN,-1.252585,2.464893E-05,-0.8128068,1.120077E-07,NaN,NaN,0.4426256,-3.77187E-10,1.525887E-06,-1.094736E-07,-2.298886E-08,-2.622604E-08
913.1202,-0.1525588,4.35061E-09,NaN,-0.6713776,-1.317889E-07,NaN,-0.377387,-5.63625E-07,NaN,-1.261144,2.464931E-05,-0.8226965,1.119358E-07,NaN,NaN,0.4460858,-3.77187E-10,1.527675E-06,-1.094716E-07,-2.194578E-08,-2.861022E-08
913.1362,-0.1525588,4.35061E-09,NaN,-0.6713776,-1.317889E-07,NaN,-0.377387,-5.63625E-07,NaN,-1.261144,2.464931E-05,-0.8226965,1.119358E-07,NaN,NaN,0.4460858,-3.77187E-10,1.527675E-06,-1.094716E-07,-2.194578E-08,-2.861022E-08
913.1512,-0.151212,4.351232E-09,NaN,-0.6754387,-1.317883E-07,NaN,-0.385917,-5.635505E-07,NaN,-1.270014,2.464969E-05,-0.8330463,1.118625E-07,NaN,NaN,0.4497918,-3.77187E-10,1.526781E-06,-1.094697E-07,-1.896555E-08,-2.622604E-08
913.1678,-0.1498555,4.351854E-09,NaN,-0.6795273,-1.317878E-07,NaN,-0.3944879,-5.634747E-07,NaN,-1.278875,2.465006E-05,-0.8433552,1.117878E-07,NaN,NaN,0.4534254,-3.77187E-10,1.531252E-06,-1.094678E-07,-1.509125E-08,-2.861022E-08
913.1833,-0.1484993,4.352475E-09,NaN,-0.6836143,-1.317872E-07,NaN,-0.4030508,-5.633974E-07,NaN,-1.287661,2.465044E-05,-0.8534422,1.117117E-07,NaN,NaN,0.4569878,-3.77187E-10,1.536318E-06,-1.094659E-07,-1.479322E-08,-2.622604E-08
913.1993,-0.1484993,4.352475E-09,NaN,-0.6836143,-1.317872E-07,NaN,-0.4030508,-5.633974E-07,NaN,-1.287661,2.465044E-05,-0.8534422,1.117117E-07,NaN,NaN,0.4569878,-3.77187E-10,1.536318E-06,-1.094659E-07,-1.479322E-08,-2.622604E-08
913.2142,-0.1471132,4.353097E-09,NaN,-0.6877863,-1.317867E-07,NaN,-0.4118493,-5.633187E-07,NaN,-1.296767,2.465082E-05,-0.8639777,1.116342E-07,NaN,NaN,0.4607941,-3.77187E-10,1.529761E-06,-1.09464E-07,-1.717741E-08,-2.861022E-08
913.2305,-0.1457159,4.353719E-09,NaN,-0.6919913,-1.317861E-07,NaN,-0.4206929,-5.632388E-07,NaN,-1.305872,2.465119E-05,-0.8744556,1.115553E-07,NaN,NaN,0.464526,-3.77187E-10,1.524993E-06,-1.094621E-07,-1.658136E-08,-2.622604E-08
913.2463,-0.1443181,4.35434E-09,NaN,-0.6961972,-1.317856E-07,NaN,-0.4295226,-5.631575E-07,NaN,-1.314903,2.465157E-05,-0.8847044,1.114752E-07,NaN,NaN,0.4681848,-3.77187E-10,1.524099E-06,-1.094603E-07,-1.44952E-08,-2.861022E-08
913.2622,-0.1429262,4.354962E-09,NaN,-0.7003849,-1.317851E-07,NaN,-0.4382889,-5.630749E-07,NaN,-1.323826,2.465194E-05,-0.8947024,1.113937E-07,NaN,NaN,0.4717718,-3.77187E-10,1.520523E-06,-1.094584E-07,-1.479322E-08,-2.622604E-08
913.278,-0.1429262,4.354962E-09,NaN,-0.7003849,-1.317851E-07,NaN,-0.4382889,-5.630749E-07,NaN,-1.323826,2.465194E-05,-0.8947024,1.113937E-07,NaN,NaN,0.4717718,-3.77187E-10,1.520523E-06,-1.094584E-07,-1.479322E-08,-2.622604E-08
913.2931,-0.1415078,4.355584E-09,NaN,-0.704647,-1.317845E-07,NaN,-0.4472829,-5.62991E-07,NaN,-1.333049,2.465232E-05,-0.9051409,1.11311E-07,NaN,NaN,0.4756023,-3.77187E-10,1.507112E-06,-1.094565E-07,-8.534736E-09,-2.861022E-08
913.3096,-0.1400802,4.356206E-09,NaN,-0.7089351,-1.31784E-07,NaN,-0.4562981,-5.629059E-07,NaN,-1.342264,2.46527E-05,-0.9155194,1.11227E-07,NaN,NaN,0.4793579,-3.77187E-10,1.501747E-06,-1.094546E-07,-2.872294E-09,-2.622604E-08
913.325,-0.1386536,4.356827E-09,NaN,-0.7132198,-1.317834E-07,NaN,-0.4652797,-5.628195E-07,NaN,-1.351402,2.465307E-05,-0.9256749,1.111418E-07,NaN,NaN,0.4830399,-3.77187E-10,1.497277E-06,-1.094528E-07,7.039842E-10,-2.861022E-08
913.3407,-0.1372339,4.357449E-09,NaN,-0.7174829,-1.317829E-07,NaN,-0.474184,-5.62732E-07,NaN,-1.360429,2.465345E-05,-0.9355866,1.110554E-07,NaN,NaN,0.4866498,-3.77187E-10,1.491018E-06,-1.094509E-07,1.079378E-10,-2.622604E-08
913.3563,-0.1372339,4.357449E-09,NaN,-0.7174829,-1.317829E-07,NaN,-0.474184,-5.62732E-07,NaN,-1.360429,2.465345E-05,-0.9355866,1.110554E-07,NaN,NaN,0.4866498,-3.77187E-10,1.491018E-06,-1.094509E-07,1.079378E-10,-2.622604E-08
913.3713,-0.1357882,4.358071E-09,NaN,-0.7218183,-1.317824E-07,NaN,-0.4833324,-5.626433E-07,NaN,-1.369749,2.465383E-05,-0.9459285,1.109679E-07,NaN,NaN,0.4905026,-3.77187E-10,1.475521E-06,-1.094491E-07,-1.084155E-09,-2.861022E-08
913.3878,-0.1343337,4.358693E-09,NaN,-0.726178,-1.317818E-07,NaN,-0.4924903,-5.625535E-07,NaN,-1.379064,2.46542E-05,-0.956206,1.108792E-07,NaN,NaN,0.4942801,-3.77187E-10,1.468667E-06,-1.094473E-07,2.492123E-09,-2.622604E-08
913.4034,-0.1328808,4.359314E-09,NaN,-0.7305327,-1.317813E-07,NaN,-0.5016011,-5.624625E-07,NaN,-1.388301,2.465458E-05,-0.9662662,1.107894E-07,NaN,NaN,0.4979836,-3.77187E-10,1.456746E-06,-1.094454E-07,7.260495E-09,-2.861022E-08
913.4193,-0.1328808,4.359314E-09,NaN,-0.7305327,-1.317813E-07,NaN,-0.5016011,-5.624625E-07,NaN,-1.388301,2.465458E-05,-0.9662662,1.107894E-07,NaN,NaN,0.4979836,-3.77187E-10,1.456746E-06,-1.094454E-07,7.260495E-09,-2.861022E-08
913.4344,-0.1314353,4.359936E-09,NaN,-0.7348648,-1.317808E-07,NaN,-0.5106243,-5.623704E-07,NaN,-1.397427,2.465496E-05,-0.9760888,1.106985E-07,NaN,NaN,0.5016146,-3.77187E-10,1.443633E-06,-1.094436E-07,8.452588E-09,-2.622604E-08
913.4509,-0.1299637,4.360558E-09,NaN,-0.7392681,-1.317802E-07,NaN,-0.5199085,-5.622773E-07,NaN,-1.40684,2.465533E-05,-0.986328,1.106065E-07,NaN,NaN,0.5054881,-3.77187E-10,1.423367E-06,-1.094418E-07,1.024073E-08,-2.861022E-08
913.4673,-0.1284839,4.361179E-09,NaN,-0.7436947,-1.317797E-07,NaN,-0.5291913,-5.621831E-07,NaN,-1.41625,2.465571E-05,-0.9965009,1.105134E-07,NaN,NaN,0.5092859,-3.77187E-10,1.410254E-06,-1.0944E-07,1.441305E-08,-2.622604E-08
913.4824,-0.1270059,4.361801E-09,NaN,-0.7481154,-1.317792E-07,NaN,-0.5384146,-5.620878E-07,NaN,-1.425582,2.465609E-05,-1.006464,1.104193E-07,NaN,NaN,0.5130094,-3.77187E-10,1.392373E-06,-1.094382E-07,1.620119E-08,-2.861022E-08
913.4984,-0.1270059,4.361801E-09,NaN,-0.7481154,-1.317792E-07,NaN,-0.5384146,-5.620878E-07,NaN,-1.425582,2.465609E-05,-1.006464,1.104193E-07,NaN,NaN,0.5130094,-3.77187E-10,1.392373E-06,-1.094382E-07,1.620119E-08,-2.861022E-08
913.5137,-0.1255356,4.362423E-09,NaN,-0.7525126,-1.317786E-07,NaN,-0.5475409,-5.619915E-07,NaN,-1.434803,2.465646E-05,-1.016196,1.103241E-07,NaN,NaN,0.5166599,-3.77187E-10,1.373895E-06,-1.094364E-07,1.739329E-08,-2.622604E-08
913.5305,-0.1240395,4.363045E-09,NaN,-0.7569802,-1.317781E-07,NaN,-0.5569446,-5.618942E-07,NaN,-1.444305,2.465684E-05,-1.026328,1.10228E-07,NaN,NaN,0.5205525,-3.77187E-10,1.347073E-06,-1.094346E-07,1.679724E-08,-2.861022E-08
913.5464,-0.1225352,4.363666E-09,NaN,-0.7614703,-1.317776E-07,NaN,-0.5663363,-5.61796E-07,NaN,-1.453807,2.465722E-05,-1.036394,1.101309E-07,NaN,NaN,0.5243691,-3.77187E-10,1.327404E-06,-1.094328E-07,1.143282E-08,-2.622604E-08
913.5627,-0.1210332,4.364288E-09,NaN,-0.7659537,-1.317771E-07,NaN,-0.5756574,-5.616968E-07,NaN,-1.46323,2.465759E-05,-1.046259,1.100328E-07,NaN,NaN,0.528111,-3.77187E-10,1.307734E-06,-1.09431E-07,1.262491E-08,-2.861022E-08
913.5806,-0.1195393,4.36491E-09,NaN,-0.7704128,-1.317765E-07,NaN,-0.5848728,-5.615994E-07,NaN,-1.472541,2.465797E-05,-1.0559,1.099367E-07,NaN,NaN,0.5317795,-3.77187E-10,1.286873E-06,-1.094293E-07,6.068403E-09,-2.622604E-08
913.5957,-0.1195393,4.36491E-09,NaN,-0.7704128,-1.317765E-07,NaN,-0.5848728,-5.615994E-07,NaN,-1.472541,2.465797E-05,-1.0559,1.099367E-07,NaN,NaN,0.5317795,-3.77187E-10,1.286873E-06,-1.094293E-07,6.068403E-09,-2.622604E-08
913.6111,-0.1180196,4.365531E-09,NaN,-0.7749416,-1.31776E-07,NaN,-0.5943811,-5.615011E-07,NaN,-1.482129,2.465835E-05,-1.065923,1.098395E-07,NaN,NaN,0.5356899,-3.77187E-10,1.256474E-06,-1.094275E-07,6.068403E-09,-2.861022E-08
913.6282,-0.116492,4.366153E-09,NaN,-0.7794921,-1.317755E-07,NaN,-0.6038676,-5.614019E-07,NaN,-1.491718,2.465872E-05,-1.075883,1.097414E-07,NaN,NaN,0.5395239,-3.77187E-10,1.229652E-06,-1.094258E-07,7.260495E-09,-2.622604E-08
913.6445,-0.1149671,4.366775E-09,NaN,-0.7840351,-1.31775E-07,NaN,-0.6132732,-5.613016E-07,NaN,-1.501229,2.46591E-05,-1.085651,1.096423E-07,NaN,NaN,0.5432828,-3.77187E-10,1.206406E-06,-1.09424E-07,9.644681E-09,-2.861022E-08
913.6613,-0.1134505,4.367397E-09,NaN,-0.7885532,-1.317745E-07,NaN,-0.6225654,-5.612005E-07,NaN,-1.510627,2.465948E-05,-1.095204,1.095423E-07,NaN,NaN,0.546968,-3.77187E-10,1.178988E-06,-1.094223E-07,1.083677E-08,-2.622604E-08
913.6783,-0.1134505,4.367397E-09,NaN,-0.7885532,-1.317745E-07,NaN,-0.6225654,-5.612005E-07,NaN,-1.510627,2.465948E-05,-1.095204,1.095423E-07,NaN,NaN,0.546968,-3.77187E-10,1.178988E-06,-1.094223E-07,1.083677E-08,-2.622604E-08
913.694,-0.1133336,4.368018E-09,NaN,-0.7891702,-1.31774E-07,NaN,-0.6155924,-5.610985E-07,NaN,-1.50507,2.465985E-05,-1.083283,1.094414E-07,NaN,NaN,0.5389696,-3.77187E-10,1.400717E-06,-1.094205E-07,-5.852526E-09,-2.861022E-08
913.7112,-0.11403,4.36864E-09,NaN,-0.7874047,-1.317735E-07,NaN,-0.6050376,-5.609955E-07,NaN,-1.49397,2.466023E-05,-1.064819,1.093396E-07,NaN,NaN,0.5311233,-3.77187E-10,1.434096E-06,-1.094188E-07,-5.852526E-09,-2.622604E-08
913.7273,-0.1152069,4.369262E-09,NaN,-0.7841802,-1.317729E-07,NaN,-0.5930235,-5.608917E-07,NaN,-1.480321,2.466061E-05,-1.044649,1.09237E-07,NaN,NaN,0.523429,-3.818436E-10,1.435288E-06,-1.094171E-07,-7.044619E-09,-2.861022E-08
913.7435,-0.1166549,4.369884E-09,NaN,-0.7800792,-1.317724E-07,NaN,-0.5805586,-5.607871E-07,NaN,-1.465564,2.466099E-05,-1.024033,1.091335E-07,NaN,NaN,0.5158849,-3.818436E-10,1.424559E-06,-1.094153E-07,-5.852526E-09,-2.622604E-08
913.7595,-0.1166549,4.369884E-09,NaN,-0.7800792,-1.317724E-07,NaN,-0.5805586,-5.607871E-07,NaN,-1.465564,2.466099E-05,-1.024033,1.091335E-07,NaN,NaN,0.5158849,-3.818436E-10,1.424559E-06,-1.094153E-07,-5.852526E-09,-2.622604E-08
913.7749,-0.1182112,4.370505E-09,NaN,-0.7755681,-1.317719E-07,NaN,-0.5684985,-5.606816E-07,NaN,-1.4508,2.466137E-05,-1.004014,1.090291E-07,NaN,NaN,0.5088022,-3.865002E-10,1.406082E-06,-1.094136E-07,-2.276248E-09,-2.861022E-08
913.7914,-0.1198198,4.371127E-09,NaN,-0.7708279,-1.317714E-07,NaN,-0.5566969,-5.605753E-07,NaN,-1.436112,2.466175E-05,-0.984298,1.08924E-07,NaN,NaN,0.5018583,-3.865002E-10,1.392373E-06,-1.094119E-07,-4.660434E-09,-2.622604E-08
913.8075,-0.121449,4.371749E-09,NaN,-0.7659697,-1.317709E-07,NaN,-0.5451763,-5.60471E-07,NaN,-1.421578,2.466213E-05,-0.9648222,1.088208E-07,NaN,NaN,0.4950505,-3.911568E-10,1.380452E-06,-1.094102E-07,-7.04462E-09,-2.861022E-08
913.8234,-0.1230813,4.37237E-09,NaN,-0.7610611,-1.317704E-07,NaN,-0.5339356,-5.603659E-07,NaN,-1.407233,2.46625E-05,-0.9455894,1.087169E-07,NaN,NaN,0.4883762,-3.911568E-10,1.358994E-06,-1.094085E-07,-1.181299E-08,-2.622604E-08
913.8394,-0.1230813,4.37237E-09,NaN,-0.7610611,-1.317704E-07,NaN,-0.5339356,-5.603659E-07,NaN,-1.407233,2.46625E-05,-0.9455894,1.087169E-07,NaN,NaN,0.4883762,-3.911568E-10,1.358994E-06,-1.094085E-07,-1.181299E-08,-2.622604E-08
913.8544,-0.1246697,4.372992E-09,NaN,-0.7562481,-1.317699E-07,NaN,-0.5233383,-5.602599E-07,NaN,-1.39351,2.466289E-05,-0.927285,1.08612E-07,NaN,NaN,0.4821464,-3.958134E-10,1.332172E-06,-1.094068E-07,-1.300508E-08,-2.861022E-08
913.8708,-0.1262253,4.373614E-09,NaN,-0.7515138,-1.317694E-07,NaN,-0.5130891,-5.601532E-07,NaN,-1.380149,2.466326E-05,-0.9094137,1.085064E-07,NaN,NaN,0.476039,-3.958134E-10,1.310118E-06,-1.094051E-07,-9.428805E-09,-2.622604E-08
913.8868,-0.1277547,4.374236E-09,NaN,-0.7468482,-1.317689E-07,NaN,-0.5031314,-5.600456E-07,NaN,-1.367073,2.466364E-05,-0.8918344,1.084E-07,NaN,NaN,0.4700513,-3.958134E-10,1.290449E-06,-1.094035E-07,-1.300508E-08,-2.861022E-08
913.9028,-0.1292617,4.374857E-09,NaN,-0.7422446,-1.317684E-07,NaN,-0.4934298,-5.599373E-07,NaN,-1.354242,2.466402E-05,-0.8745202,1.082929E-07,NaN,NaN,0.464181,-3.958134E-10,1.266607E-06,-1.094018E-07,-1.419718E-08,-2.622604E-08
913.9185,-0.1292617,4.374857E-09,NaN,-0.7422446,-1.317684E-07,NaN,-0.4934298,-5.599373E-07,NaN,-1.354242,2.466402E-05,-0.8745202,1.082929E-07,NaN,NaN,0.464181,-3.958134E-10,1.266607E-06,-1.094018E-07,-1.419718E-08,-2.622604E-08
913.9339,-0.1307116,4.375479E-09,NaN,-0.7378035,-1.317679E-07,NaN,-0.4842955,-5.598283E-07,NaN,-1.342056,2.466439E-05,-0.8581744,1.08185E-07,NaN,NaN,0.4587395,-3.958134E-10,1.233228E-06,-1.094001E-07,-1.181299E-08,-2.861022E-08
913.9502,-0.132122,4.376101E-09,NaN,-0.7334805,-1.317674E-07,NaN,-0.4754767,-5.597186E-07,NaN,-1.330222,2.466477E-05,-0.8422667,1.080764E-07,NaN,NaN,0.4534048,-3.958134E-10,1.206406E-06,-1.093985E-07,-9.428806E-09,-2.622604E-08
913.9659,-0.133503,4.376723E-09,NaN,-0.7292483,-1.317669E-07,NaN,-0.4669183,-5.596081E-07,NaN,-1.318658,2.466515E-05,-0.8266376,1.07967E-07,NaN,NaN,0.4481748,-4.0047E-10,1.1772E-06,-1.093968E-07,-9.428806E-09,-2.861022E-08
913.9814,-0.1348605,4.377344E-09,NaN,-0.72509,-1.317664E-07,NaN,-0.4585814,-5.594997E-07,NaN,-1.30732,2.466553E-05,-0.8112577,1.078598E-07,NaN,NaN,0.4430473,-4.0047E-10,1.15008E-06,-1.093952E-07,-1.06209E-08,-2.622604E-08
913.9974,-0.1348605,4.377344E-09,NaN,-0.72509,-1.317664E-07,NaN,-0.4585814,-5.594997E-07,NaN,-1.30732,2.466553E-05,-0.8112577,1.078598E-07,NaN,NaN,0.4430473,-4.0047E-10,1.15008E-06,-1.093952E-07,-1.06209E-08,-2.622604E-08
914.0123,-0.1361612,4.377966E-09,NaN,-0.7210996,-1.317659E-07,NaN,-0.4507394,-5.593905E-07,NaN,-1.296614,2.46659E-05,-0.7968518,1.077518E-07,NaN,NaN,0.438334,-4.0047E-10,1.117297E-06,-1.093935E-07,-1.06209E-08,-2.861022E-08
914.0287,-0.1374231,4.378588E-09,NaN,-0.7172289,-1.317654E-07,NaN,-0.4431843,-5.592805E-07,NaN,-1.286232,2.466628E-05,-0.7828758,1.07643E-07,NaN,NaN,0.4337133,-4.0047E-10,1.091667E-06,-1.093919E-07,-1.240904E-08,-2.622604E-08
914.0445,-0.1386566,4.379209E-09,NaN,-0.7134482,-1.317649E-07,NaN,-0.4358646,-5.591698E-07,NaN,-1.276096,2.466666E-05,-0.769156,1.075335E-07,NaN,NaN,0.4291833,-4.0047E-10,1.068123E-06,-1.093903E-07,-5.256481E-09,-2.861022E-08
914.0602,-0.1398675,4.379831E-09,NaN,-0.709739,-1.317644E-07,NaN,-0.4287381,-5.590585E-07,NaN,-1.266164,2.466703E-05,-0.7556615,1.074233E-07,NaN,NaN,0.424742,-4.0047E-10,1.040407E-06,-1.093886E-07,-3.468342E-09,-2.622604E-08
914.0759,-0.1398675,4.379831E-09,NaN,-0.709739,-1.317644E-07,NaN,-0.4287381,-5.590585E-07,NaN,-1.266164,2.466703E-05,-0.7556615,1.074233E-07,NaN,NaN,0.424742,-4.0047E-10,1.040407E-06,-1.093886E-07,-3.468342E-09,-2.622604E-08
914.0938,-0.1410234,4.380453E-09,NaN,-0.7061943,-1.31764E-07,NaN,-0.4220425,-5.589464E-07,NaN,-1.256846,2.466741E-05,-0.7431315,1.073123E-07,NaN,NaN,0.4207016,-4.0047E-10,1.003154E-06,-1.09387E-07,7.039835E-10,-2.861022E-08
914.1077,-0.1421417,4.381075E-09,NaN,-0.7027656,-1.317635E-07,NaN,-0.4156092,-5.588365E-07,NaN,-1.247825,2.466779E-05,-0.7310184,1.072035E-07,NaN,NaN,0.4167405,-4.0047E-10,9.781204E-07,-1.093854E-07,5.472355E-09,-2.622604E-08
914.1224,-0.1432328,4.381696E-09,NaN,-0.6994228,-1.31763E-07,NaN,-0.4093903,-5.587258E-07,NaN,-1.239027,2.466816E-05,-0.7191362,1.07094E-07,NaN,NaN,0.4128572,-4.0047E-10,9.548746E-07,-1.093838E-07,2.492123E-09,-2.861022E-08
914.1384,-0.1432328,4.381696E-09,NaN,-0.6994228,-1.31763E-07,NaN,-0.4093903,-5.587258E-07,NaN,-1.239027,2.466816E-05,-0.7191362,1.07094E-07,NaN,NaN,0.4128572,-4.0047E-10,9.548746E-07,-1.093838E-07,2.492123E-09,-2.861022E-08
914.1532,-0.1442667,4.382318E-09,NaN,-0.6962518,-1.317625E-07,NaN,-0.4035805,-5.586144E-07,NaN,-1.230848,2.466854E-05,-0.7082003,1.069838E-07,NaN,NaN,0.4093637,-4.0047E-10,9.235822E-07,-1.093822E-07,1.896077E-09,-2.622604E-08
914.17,-0.1452622,4.382939E-09,NaN,-0.6931996,-1.317601E-07,NaN,-0.3980252,-5.588986E-07,NaN,-1.222954,2.466892E-05,-0.6976616,1.070596E-07,NaN,NaN,0.405939,-3.958134E-10,9.015285E-07,-1.09381E-07,1.896077E-09,-2.861022E-08
914.1857,-0.1462304,4.38356E-09,NaN,-0.6902336,-1.317571E-07,NaN,-0.3926729,-5.591829E-07,NaN,-1.215267,2.466929E-05,-0.6873274,1.069824E-07,NaN,NaN,0.4025815,-3.865002E-10,8.809649E-07,-1.093796E-07,3.684216E-09,-2.622604E-08
914.2011,-0.1471781,4.384181E-09,NaN,-0.6873335,-1.317538E-07,NaN,-0.3874742,-5.594672E-07,NaN,-1.207748,2.466968E-05,-0.6771643,1.067936E-07,NaN,NaN,0.3992898,-3.958134E-10,8.592092E-07,-1.09378E-07,9.048634E-09,-2.861022E-08
914.217,-0.1471781,4.384181E-09,NaN,-0.6873335,-1.317538E-07,NaN,-0.3874742,-5.594672E-07,NaN,-1.207748,2.466968E-05,-0.6771643,1.067936E-07,NaN,NaN,0.3992898,-3.958134E-10,8.592092E-07,-1.09378E-07,9.048634E-09,-2.861022E-08
914.2321,-0.1480732,4.384802E-09,NaN,-0.6845909,-1.317503E-07,NaN,-0.3826124,-5.597515E-07,NaN,-1.200813,2.467006E-05,-0.6679249,1.065238E-07,NaN,NaN,0.3963763,-3.958134E-10,8.30301E-07,-1.093764E-07,5.472355E-09,-2.622604E-08
914.249,-0.1489331,4.385423E-09,NaN,-0.6819569,-1.317468E-07,NaN,-0.3779745,-5.600357E-07,NaN,-1.194131,2.467045E-05,-0.6590686,1.061953E-07,NaN,NaN,0.3935202,-4.0047E-10,8.142077E-07,-1.093748E-07,4.876309E-09,-2.861022E-08
914.2642,-0.1497681,4.386044E-09,NaN,-0.679401,-1.317433E-07,NaN,-0.3735194,-5.6032E-07,NaN,-1.18763,2.467084E-05,-0.6503928,1.058245E-07,NaN,NaN,0.3907202,-4.0047E-10,7.970714E-07,-1.093731E-07,6.664448E-09,-2.622604E-08
914.2802,-0.1505844,4.386665E-09,NaN,-0.6769043,-1.317399E-07,NaN,-0.3691987,-5.606043E-07,NaN,-1.181274,2.467123E-05,-0.6418605,1.054236E-07,NaN,NaN,0.387975,-4.0047E-10,7.78743E-07,-1.093715E-07,3.088169E-09,-2.861022E-08
914.2961,-0.1505844,4.386665E-09,NaN,-0.6769043,-1.317399E-07,NaN,-0.3691987,-5.606043E-07,NaN,-1.181274,2.467123E-05,-0.6418605,1.054236E-07,NaN,NaN,0.387975,-4.0047E-10,7.78743E-07,-1.093715E-07,3.088169E-09,-2.861022E-08
914.3112,-0.15135,4.387286E-09,NaN,-0.6745595,-1.317364E-07,NaN,-0.3651723,-5.608886E-07,NaN,-1.175487,2.467162E-05,-0.6342269,1.050014E-07,NaN,NaN,0.3855974,-4.0047E-10,7.530385E-07,-1.0937E-07,1.896077E-09,-2.622604E-08
914.3275,-0.1520819,4.387907E-09,NaN,-0.672318,-1.31733E-07,NaN,-0.3613526,-5.611728E-07,NaN,-1.16993,2.467201E-05,-0.6269569,1.045643E-07,NaN,NaN,0.3832667,-3.958134E-10,7.372432E-07,-1.093684E-07,1.896077E-09,-2.861022E-08
914.3431,-0.1527903,4.388529E-09,NaN,-0.6701499,-1.317297E-07,NaN,-0.3577026,-5.614571E-07,NaN,-1.164535,2.467239E-05,-0.6198412,1.041171E-07,NaN,NaN,0.3809818,-3.911568E-10,7.226401E-07,-1.093669E-07,1.30003E-09,-2.622604E-08
914.3587,-0.1527903,4.388529E-09,NaN,-0.6701499,-1.317297E-07,NaN,-0.3577026,-5.614571E-07,NaN,-1.164535,2.467239E-05,-0.6198412,1.041171E-07,NaN,NaN,0.3809818,-3.911568E-10,7.226401E-07,-1.093669E-07,1.30003E-09,-2.622604E-08
914.3744,-0.1534814,4.38915E-09,NaN,-0.6680364,-1.317263E-07,NaN,-0.3541728,-5.617414E-07,NaN,-1.159266,2.467278E-05,-0.6128409,1.036633E-07,NaN,NaN,0.3787416,-3.911568E-10,7.072174E-07,-1.093654E-07,4.059605E-10,-2.861022E-08
914.3911,-0.1541232,4.389772E-09,NaN,-0.6660703,-1.31723E-07,NaN,-0.3509021,-5.620257E-07,NaN,-1.154551,2.467317E-05,-0.6067122,1.032056E-07,NaN,NaN,0.3768591,-3.911568E-10,6.824815E-07,-1.093639E-07,1.002007E-09,-2.622604E-08
914.4062,-0.1547326,4.390393E-09,NaN,-0.6642033,-1.317197E-07,NaN,-0.3478237,-5.623099E-07,NaN,-1.150046,2.467357E-05,-0.6009265,1.027457E-07,NaN,NaN,0.3750138,-3.865002E-10,6.726467E-07,-1.093624E-07,4.059605E-10,-2.861022E-08
914.4238,-0.1553198,4.391015E-09,NaN,-0.6624054,-1.317165E-07,NaN,-0.3449039,-5.625942E-07,NaN,-1.145685,2.467396E-05,-0.5952696,1.02285E-07,NaN,NaN,0.3732047,-3.818436E-10,6.602043E-07,-1.09361E-07,-3.390975E-10,-2.622604E-08
914.4378,-0.1553198,4.391015E-09,NaN,-0.6624054,-1.317165E-07,NaN,-0.3449039,-5.625942E-07,NaN,-1.145685,2.467396E-05,-0.5952696,1.02285E-07,NaN,NaN,0.3732047,-3.818436E-10,6.602043E-07,-1.09361E-07,-3.390975E-10,-2.622604E-08
914.4523,-0.1558909,4.391637E-09,NaN,-0.6606579,-1.317132E-07,NaN,-0.3420922,-5.628785E-07,NaN,-1.141433,2.467435E-05,-0.5897008,1.018246E-07,NaN,NaN,0.3714311,-3.77187E-10,6.481716E-07,-1.093596E-07,-2.723283E-09,-2.861022E-08
914.4696,-0.1564141,4.392259E-09,NaN,-0.6590537,-1.3171E-07,NaN,-0.3395108,-5.631628E-07,NaN,-1.137721,2.467474E-05,-0.5849767,1.013651E-07,NaN,NaN,0.370006,-3.725304E-10,6.293216E-07,-1.093581E-07,-2.723283E-09,-2.622604E-08
914.4849,-0.1569062,4.392881E-09,NaN,-0.6575447,-1.317068E-07,NaN,-0.3371093,-5.63447E-07,NaN,-1.134201,2.467513E-05,-0.5805746,1.009071E-07,NaN,NaN,0.3686091,-3.678738E-10,6.196731E-07,-1.093567E-07,1.079372E-10,-2.861022E-08
914.5017,-0.1573772,4.393503E-09,NaN,-0.6561007,-1.317036E-07,NaN,-0.3348569,-5.637313E-07,NaN,-1.130808,2.467552E-05,-0.5762768,1.00451E-07,NaN,NaN,0.3672397,-3.632172E-10,6.12148E-07,-1.093553E-07,2.790146E-09,-2.622604E-08
914.5172,-0.1573772,4.393503E-09,NaN,-0.6561007,-1.317036E-07,NaN,-0.3348569,-5.637313E-07,NaN,-1.130808,2.467552E-05,-0.5762768,1.00451E-07,NaN,NaN,0.3672397,-3.632172E-10,6.12148E-07,-1.093553E-07,2.790146E-09,-2.622604E-08
914.5327,-0.1578333,4.394126E-09,NaN,-0.6547033,-1.317005E-07,NaN,-0.3327026,-5.640156E-07,NaN,-1.127507,2.467591E-05,-0.5720413,9.999705E-08,NaN,NaN,0.3658971,-3.585606E-10,6.014192E-07,-1.093539E-07,1.30003E-09,-2.861022E-08
914.5505,-0.1582428,4.394748E-09,NaN,-0.6534452,-1.316973E-07,NaN,-0.3307553,-5.642999E-07,NaN,-1.124733,2.46763E-05,-0.568624,9.954547E-08,NaN,NaN,0.3648947,-3.53904E-10,5.854563E-07,-1.093525E-07,4.205757E-09,-2.622604E-08
914.5664,-0.1586224,4.39537E-09,NaN,-0.6522782,-1.316942E-07,NaN,-0.3289772,-5.645841E-07,NaN,-1.122134,2.467669E-05,-0.5655078,9.909638E-08,NaN,NaN,0.3639121,-3.492474E-10,5.781547E-07,-1.093512E-07,4.652791E-09,-2.861022E-08
914.5824,-0.158982,4.395993E-09,NaN,-0.6511726,-1.316911E-07,NaN,-0.3273404,-5.648684E-07,NaN,-1.119646,2.467709E-05,-0.5624725,9.864989E-08,NaN,NaN,0.3629489,-3.445907E-10,5.711325E-07,-1.093498E-07,4.727297E-09,-2.622604E-08
914.5992,-0.158982,4.395993E-09,NaN,-0.6511726,-1.316911E-07,NaN,-0.3273404,-5.648684E-07,NaN,-1.119646,2.467709E-05,-0.5624725,9.864989E-08,NaN,NaN,0.3629489,-3.445907E-10,5.711325E-07,-1.093498E-07,4.727297E-09,-2.622604E-08
914.616,-0.1593279,4.396616E-09,NaN,-0.6501097,-1.31688E-07,NaN,-0.3257929,-5.651527E-07,NaN,-1.117235,2.467747E-05,-0.5594749,9.820607E-08,NaN,NaN,0.3620046,-3.352775E-10,5.665318E-07,-1.093485E-07,2.566629E-09,-2.861022E-08
914.6317,-0.1596285,4.397238E-09,NaN,-0.6491823,-1.316849E-07,NaN,-0.3244342,-5.654369E-07,NaN,-1.115338,2.467786E-05,-0.5572705,9.776495E-08,NaN,NaN,0.3613925,-3.352775E-10,5.55002E-07,-1.093471E-07,3.758722E-09,-2.622604E-08
914.6533,-0.1599002,4.397861E-09,NaN,-0.6483424,-1.316818E-07,NaN,-0.3232359,-5.657212E-07,NaN,-1.1136,2.467825E-05,-0.5553463,9.732658E-08,NaN,NaN,0.3607928,-3.306209E-10,5.529252E-07,-1.093458E-07,4.019492E-09,-2.861022E-08
914.6669,-0.1601532,4.398483E-09,NaN,-0.6475601,-1.316788E-07,NaN,-0.3221718,-5.660055E-07,NaN,-1.111958,2.467863E-05,-0.5534807,9.689096E-08,NaN,NaN,0.3602048,-3.213077E-10,5.507832E-07,-1.093445E-07,4.429274E-09,-2.622604E-08
914.6825,-0.1603935,4.399106E-09,NaN,-0.6468168,-1.316757E-07,NaN,-0.3211898,-5.662898E-07,NaN,-1.110379,2.467902E-05,-0.5516298,9.645809E-08,NaN,NaN,0.3596284,-3.213077E-10,5.494793E-07,-1.093432E-07,5.286091E-09,-2.861022E-08
914.6992,-0.1603935,4.399106E-09,NaN,-0.6468168,-1.316757E-07,NaN,-0.3211898,-5.662898E-07,NaN,-1.110379,2.467902E-05,-0.5516298,9.645809E-08,NaN,NaN,0.3596284,-3.213077E-10,5.494793E-07,-1.093432E-07,5.286091E-09,-2.861022E-08
914.7151,-0.1605897,4.399729E-09,NaN,-0.6462054,-1.316727E-07,NaN,-0.3203825,-5.66574E-07,NaN,-1.109301,2.467941E-05,-0.5505485,9.6028E-08,NaN,NaN,0.3593771,-3.213077E-10,5.398494E-07,-1.093419E-07,4.82043E-09,-2.622604E-08
914.7356,-0.1607581,4.400352E-09,NaN,-0.645678,-1.316697E-07,NaN,-0.3197284,-5.668583E-07,NaN,-1.108368,2.46798E-05,-0.5497271,9.560065E-08,NaN,NaN,0.359131,-3.213077E-10,5.399705E-07,-1.093406E-07,4.866996E-09,-2.861022E-08
914.7525,-0.1609088,4.400975E-09,NaN,-0.6452047,-1.316667E-07,NaN,-0.3192023,-5.671426E-07,NaN,-1.107517,2.468019E-05,-0.548943,9.517605E-08,NaN,NaN,0.3588898,-3.213077E-10,5.412929E-07,-1.093393E-07,9.496208E-10,-2.622604E-08
914.769,-0.1610125,4.401598E-09,NaN,-0.6448713,-1.316637E-07,NaN,-0.3188779,-5.674269E-07,NaN,-1.107171,2.468058E-05,-0.5489048,9.475418E-08,NaN,NaN,0.358967,-3.213077E-10,5.342242E-07,-1.09338E-07,1.254629E-09,-2.861022E-08
914.7857,-0.1610872,4.402221E-09,NaN,-0.6446257,-1.316608E-07,NaN,-0.31872,-5.677111E-07,NaN,-1.106968,2.468098E-05,-0.5490981,9.433505E-08,NaN,NaN,0.3590431,-3.213077E-10,5.342055E-07,-1.093368E-07,2.092819E-09,-2.622604E-08
914.8044,-0.1611437,4.402844E-09,NaN,-0.6444355,-1.316578E-07,NaN,-0.3186933,-5.679954E-07,NaN,-1.106838,2.468137E-05,-0.5493025,9.391862E-08,NaN,NaN,0.3591177,-3.213077E-10,5.364407E-07,-1.093355E-07,4.439752E-09,-2.861022E-08
914.8217,-0.1611888,4.403468E-09,NaN,-0.6442801,-1.316549E-07,NaN,-0.3187399,-5.682797E-07,NaN,-1.106748,2.468177E-05,-0.5494769,9.350489E-08,NaN,NaN,0.3591909,-3.213077E-10,5.386014E-07,-1.093343E-07,6.153385E-09,-2.622604E-08
914.8385,-0.1611888,4.403468E-09,NaN,-0.6442801,-1.316549E-07,NaN,-0.3187399,-5.682797E-07,NaN,-1.106748,2.468177E-05,-0.5494769,9.350489E-08,NaN,NaN,0.3591909,-3.213077E-10,5.386014E-07,-1.093343E-07,6.153385E-09,-2.622604E-08
914.8546,-0.1611914,4.404091E-09,NaN,-0.6442516,-1.31652E-07,NaN,-0.3189469,-5.68564E-07,NaN,-1.107136,2.468216E-05,-0.550377,9.309385E-08,NaN,NaN,0.3595764,-3.119945E-10,5.331252E-07,-1.09333E-07,3.731947E-09,-2.861022E-08
914.8744,-0.1611685,4.404715E-09,NaN,-0.6443008,-1.316491E-07,NaN,-0.3192958,-5.688482E-07,NaN,-1.107644,2.468255E-05,-0.5514969,9.268546E-08,NaN,NaN,0.3599546,-3.026813E-10,5.363848E-07,-1.093318E-07,4.495631E-09,-2.622604E-08
914.8912,-0.1611302,4.405338E-09,NaN,-0.6443979,-1.316462E-07,NaN,-0.3197616,-5.691325E-07,NaN,-1.108209,2.468295E-05,-0.5526149,9.227972E-08,NaN,NaN,0.3603255,-2.933681E-10,5.401101E-07,-1.093306E-07,2.558481E-09,-2.861022E-08
914.9082,-0.1610471,4.405962E-09,NaN,-0.6446285,-1.316433E-07,NaN,-0.320419,-5.694168E-07,NaN,-1.109257,2.468334E-05,-0.5544387,9.187661E-08,NaN,NaN,0.3610029,-2.840548E-10,5.356212E-07,-1.093294E-07,2.688866E-09,-2.622604E-08
914.9247,-0.160937,4.406586E-09,NaN,-0.6449405,-1.316405E-07,NaN,-0.3212329,-5.697011E-07,NaN,-1.110421,2.468374E-05,-0.5564556,9.147612E-08,NaN,NaN,0.3616673,-2.840548E-10,5.425874E-07,-1.093282E-07,1.385014E-09,-2.861022E-08
914.9417,-0.1608109,4.40721E-09,NaN,-0.6453014,-1.316376E-07,NaN,-0.3221676,-5.699853E-07,NaN,-1.111637,2.468415E-05,-0.5584461,9.107823E-08,NaN,NaN,0.3623187,-2.840548E-10,5.500752E-07,-1.09327E-07,1.086991E-09,-2.622604E-08
914.9585,-0.1608109,4.40721E-09,NaN,-0.6453014,-1.316376E-07,NaN,-0.3221676,-5.699853E-07,NaN,-1.111637,2.468415E-05,-0.5584461,9.107823E-08,NaN,NaN,0.3623187,-2.840548E-10,5.500752E-07,-1.09327E-07,1.086991E-09,-2.622604E-08
914.975,-0.1606401,4.407834E-09,NaN,-0.6457953,-1.316363E-07,NaN,-0.3232957,-5.711715E-07,NaN,-1.113324,2.468454E-05,-0.5611205,9.171898E-08,NaN,NaN,0.3632711,-2.840548E-10,5.490694E-07,-1.093269E-07,2.018314E-09,-2.861022E-08
914.9924,-0.1604428,4.408457E-09,NaN,-0.646369,-1.316358E-07,NaN,-0.3245776,-5.719205E-07,NaN,-1.115119,2.468492E-05,-0.5639675,9.20318E-08,NaN,NaN,0.3642052,-2.793982E-10,5.564455E-07,-1.093273E-07,-2.973575E-09,-2.622604E-08
915.0092,-0.1602302,4.409081E-09,NaN,-0.6469893,-1.316358E-07,NaN,-0.3259754,-5.7239E-07,NaN,-1.116955,2.468529E-05,-0.5667697,9.215265E-08,NaN,NaN,0.365121,-2.747416E-10,5.652371E-07,-1.093281E-07,-3.439236E-09,-2.861022E-08
915.0258,-0.1600092,4.409704E-09,NaN,-0.6476355,-1.316361E-07,NaN,-0.3274303,-5.726802E-07,NaN,-1.118798,2.468566E-05,-0.5694884,9.21641E-08,NaN,NaN,0.3660188,-2.793982E-10,5.724269E-07,-1.09329E-07,-3.308851E-09,-2.622604E-08
915.0429,-0.1597487,4.410328E-09,NaN,-0.6483994,-1.316367E-07,NaN,-0.3290409,-5.728494E-07,NaN,-1.121084,2.468603E-05,-0.5728786,9.211053E-08,NaN,NaN,0.3672128,-2.793982E-10,5.715701E-07,-1.093301E-07,-2.116758E-09,-2.861022E-08
915.0598,-0.1597487,4.410328E-09,NaN,-0.6483994,-1.316367E-07,NaN,-0.3290409,-5.728494E-07,NaN,-1.121084,2.468603E-05,-0.5728786,9.211053E-08,NaN,NaN,0.3672128,-2.793982E-10,5.715701E-07,-1.093301E-07,-2.116758E-09,-2.861022E-08
915.076,-0.1594653,4.410951E-09,NaN,-0.6492323,-1.316373E-07,NaN,-0.3307806,-5.729382E-07,NaN,-1.123458,2.468639E-05,-0.5764337,9.202136E-08,NaN,NaN,0.3683836,-2.747416E-10,5.806598E-07,-1.093313E-07,-1.387998E-09,-2.622604E-08
915.0934,-0.1591692,4.411575E-09,NaN,-0.650104,-1.316379E-07,NaN,-0.3326213,-5.723566E-07,NaN,-1.125858,2.468674E-05,-0.5799348,9.129766E-08,NaN,NaN,0.3695316,-2.70085E-10,5.89079E-07,-1.093324E-07,-2.172638E-09,-2.861022E-08
915.1104,-0.1588312,4.412198E-09,NaN,-0.6511001,-1.316387E-07,NaN,-0.3346538,-5.717465E-07,NaN,-1.128706,2.46871E-05,-0.5840902,9.057403E-08,NaN,NaN,0.3709708,-2.747416E-10,5.887064E-07,-1.093336E-07,-2.168603E-10,-2.622604E-08
915.127,-0.1584694,4.412821E-09,NaN,-0.6521684,-1.316394E-07,NaN,-0.33683,-5.711191E-07,NaN,-1.131641,2.468744E-05,-0.5883847,8.985609E-08,NaN,NaN,0.3723821,-2.70085E-10,6.007019E-07,-1.093349E-07,-3.05958E-11,-2.861022E-08
915.144,-0.1580947,4.413443E-09,NaN,-0.6532763,-1.316402E-07,NaN,-0.3391104,-5.704846E-07,NaN,-1.134596,2.468779E-05,-0.5926031,8.914937E-08,NaN,NaN,0.3737658,-2.654284E-10,6.123993E-07,-1.093361E-07,-6.825216E-10,-2.622604E-08
915.162,-0.1577138,4.414066E-09,NaN,-0.6544036,-1.316409E-07,NaN,-0.3414362,-5.698492E-07,NaN,-1.13754,2.468815E-05,-0.5967087,8.845647E-08,NaN,NaN,0.3751223,-2.654284E-10,6.196263E-07,-1.093373E-07,-2.880443E-09,-2.861022E-08
915.1778,-0.1577138,4.414066E-09,NaN,-0.6544036,-1.316409E-07,NaN,-0.3414362,-5.698492E-07,NaN,-1.13754,2.468815E-05,-0.5967087,8.845647E-08,NaN,NaN,0.3751223,-2.654284E-10,6.196263E-07,-1.093373E-07,-2.880443E-09,-2.861022E-08
915.1936,-0.1572955,4.414689E-09,NaN,-0.6556423,-1.316417E-07,NaN,-0.3439241,-5.692157E-07,NaN,-1.140905,2.46885E-05,-0.601456,8.777711E-08,NaN,NaN,0.376766,-2.654284E-10,6.21191E-07,-1.093386E-07,-2.098132E-09,-2.622604E-08
915.2112,-0.1568563,4.415311E-09,NaN,-0.6569439,-1.316425E-07,NaN,-0.3465331,-5.685861E-07,NaN,-1.144341,2.468885E-05,-0.6063338,8.711103E-08,NaN,NaN,0.3783778,-2.654284E-10,6.315473E-07,-1.093398E-07,6.58583E-10,-2.861022E-08
915.228,-0.1564064,4.415933E-09,NaN,-0.6582783,-1.316432E-07,NaN,-0.3492311,-5.679619E-07,NaN,-1.147786,2.468919E-05,-0.6111274,8.645795E-08,NaN,NaN,0.379958,-2.607718E-10,6.392959E-07,-1.09341E-07,-2.84319E-09,-2.622604E-08
915.2449,-0.1559165,4.416555E-09,NaN,-0.6597316,-1.31644E-07,NaN,-0.3521288,-5.673473E-07,NaN,-1.151657,2.468954E-05,-0.6165465,8.582046E-08,NaN,NaN,0.3818209,-2.561152E-10,6.437662E-07,-1.093422E-07,-6.270457E-09,-2.861022E-08
915.2617,-0.1554047,4.417177E-09,NaN,-0.6612512,-1.316448E-07,NaN,-0.3551611,-5.667121E-07,NaN,-1.155599,2.468989E-05,-0.622071,8.516709E-08,NaN,NaN,0.3836477,-2.514586E-10,6.579223E-07,-1.093434E-07,-7.686067E-09,-2.622604E-08
915.2787,-0.1554047,4.417177E-09,NaN,-0.6612512,-1.316448E-07,NaN,-0.3551611,-5.667121E-07,NaN,-1.155599,2.468989E-05,-0.622071,8.516709E-08,NaN,NaN,0.3836477,-2.514586E-10,6.579223E-07,-1.093434E-07,-7.686067E-09,-2.622604E-08
915.2949,-0.1548819,4.417799E-09,NaN,-0.6628048,-1.316455E-07,NaN,-0.3582843,-5.660857E-07,NaN,-1.159546,2.469025E-05,-0.6274908,8.452649E-08,NaN,NaN,0.3854387,-2.514586E-10,6.66565E-07,-1.093446E-07,-7.909584E-09,-2.861022E-08
915.3125,-0.1543192,4.41842E-09,NaN,-0.6644768,-1.316463E-07,NaN,-0.3616149,-5.654716E-07,NaN,-1.163911,2.469061E-05,-0.6335188,8.390123E-08,NaN,NaN,0.3875083,-2.514586E-10,6.710354E-07,-1.093458E-07,-7.98409E-09,-2.622604E-08
915.329,-0.153735,4.419041E-09,NaN,-0.666214,-1.316471E-07,NaN,-0.3650765,-5.648701E-07,NaN,-1.168341,2.469097E-05,-0.639634,8.329099E-08,NaN,NaN,0.3895376,-2.514586E-10,6.832543E-07,-1.09347E-07,-6.791997E-09,-2.861022E-08
915.3457,-0.1531405,4.419662E-09,NaN,-0.6679835,-1.316478E-07,NaN,-0.3686224,-5.642785E-07,NaN,-1.172768,2.469133E-05,-0.6456298,8.269267E-08,NaN,NaN,0.3915272,-2.514586E-10,6.942812E-07,-1.093482E-07,-8.431125E-09,-2.622604E-08
915.3628,-0.1525424,4.420284E-09,NaN,-0.6697648,-1.316486E-07,NaN,-0.3721943,-5.634977E-07,NaN,-1.17716,2.469169E-05,-0.6514748,8.190665E-08,NaN,NaN,0.3934777,-2.46802E-10,7.04116E-07,-1.093494E-07,-1.021926E-08,-2.861022E-08
915.3799,-0.1525424,4.420284E-09,NaN,-0.6697648,-1.316486E-07,NaN,-0.3721943,-5.634977E-07,NaN,-1.17716,2.469169E-05,-0.6514748,8.190665E-08,NaN,NaN,0.3934777,-2.46802E-10,7.04116E-07,-1.093494E-07,-1.021926E-08,-2.861022E-08
915.396,-0.1519092,4.420906E-09,NaN,-0.6716499,-1.316493E-07,NaN,-0.3759463,-5.627338E-07,NaN,-1.181943,2.469204E-05,-0.6579219,8.113881E-08,NaN,NaN,0.3957037,-2.421454E-10,7.069472E-07,-1.093506E-07,-1.31995E-08,-2.622604E-08
915.4133,-0.1512576,4.421528E-09,NaN,-0.6735902,-1.316501E-07,NaN,-0.3798056,-5.6203E-07,NaN,-1.186776,2.46924E-05,-0.6644499,8.043213E-08,NaN,NaN,0.3978864,-2.374888E-10,7.149938E-07,-1.093518E-07,-1.260345E-08,-2.861022E-08
915.4305,-0.1505981,4.422149E-09,NaN,-0.6755557,-1.316509E-07,NaN,-0.3837324,-5.61342E-07,NaN,-1.191595,2.469277E-05,-0.6708536,7.974208E-08,NaN,NaN,0.4000264,-2.421454E-10,7.282558E-07,-1.09353E-07,-1.558368E-08,-2.622604E-08
915.4473,-0.1499008,4.42277E-09,NaN,-0.6776323,-1.316516E-07,NaN,-0.3878771,-5.606697E-07,NaN,-1.196812,2.469313E-05,-0.677844,7.906834E-08,NaN,NaN,0.402438,-2.374888E-10,7.30789E-07,-1.093541E-07,-1.915996E-08,-2.861022E-08
915.4642,-0.1491842,4.423391E-09,NaN,-0.6797676,-1.316523E-07,NaN,-0.3921396,-5.600101E-07,NaN,-1.202081,2.469349E-05,-0.6848918,7.840776E-08,NaN,NaN,0.4048027,-2.328321E-10,7.447961E-07,-1.093553E-07,-1.901095E-08,-2.622604E-08
915.4809,-0.1484591,4.424011E-09,NaN,-0.6819294,-1.316531E-07,NaN,-0.3964693,-5.593658E-07,NaN,-1.207333,2.469385E-05,-0.691798,7.776292E-08,NaN,NaN,0.4071211,-2.281755E-10,7.556739E-07,-1.093565E-07,-1.603072E-08,-2.861022E-08
915.4979,-0.1484591,4.424011E-09,NaN,-0.6819294,-1.316531E-07,NaN,-0.3964693,-5.593658E-07,NaN,-1.207333,2.469385E-05,-0.691798,7.776292E-08,NaN,NaN,0.4071211,-2.281755E-10,7.556739E-07,-1.093565E-07,-1.603072E-08,-2.861022E-08
915.5142,-0.1476963,4.424631E-09,NaN,-0.6842022,-1.316538E-07,NaN,-0.401026,-5.587366E-07,NaN,-1.212977,2.46942E-05,-0.6992754,7.71335E-08,NaN,NaN,0.4097078,-2.235189E-10,7.596972E-07,-1.093577E-07,-1.394456E-08,-2.622604E-08
915.5317,-0.1469145,4.425252E-09,NaN,-0.6865327,-1.316545E-07,NaN,-0.4056955,-5.581194E-07,NaN,-1.218667,2.469456E-05,-0.7067933,7.651637E-08,NaN,NaN,0.412244,-2.188623E-10,7.716181E-07,-1.093588E-07,-1.215642E-08,-2.861022E-08
915.5485,-0.1461249,4.425872E-09,NaN,-0.6888882,-1.316553E-07,NaN,-0.410424,-5.575168E-07,NaN,-1.224335,2.469492E-05,-0.7141574,7.591413E-08,NaN,NaN,0.4147305,-2.142057E-10,7.82645E-07,-1.0936E-07,-1.692479E-08,-2.622604E-08
915.5653,-0.1453341,4.426492E-09,NaN,-0.6912484,-1.31656E-07,NaN,-0.4151554,-5.569287E-07,NaN,-1.229948,2.469528E-05,-0.7213418,7.532648E-08,NaN,NaN,0.4171683,-2.095491E-10,7.909897E-07,-1.093611E-07,-1.603072E-08,-2.861022E-08
915.5821,-0.1445101,4.427112E-09,NaN,-0.6937053,-1.316567E-07,NaN,-0.4200923,-5.563519E-07,NaN,-1.235926,2.469564E-05,-0.729093,7.47503E-08,NaN,NaN,0.4198721,-2.048925E-10,7.95162E-07,-1.093623E-07,-1.9607E-08,-2.622604E-08
915.5993,-0.1445101,4.427112E-09,NaN,-0.6937053,-1.316567E-07,NaN,-0.4200923,-5.563519E-07,NaN,-1.235926,2.469564E-05,-0.729093,7.47503E-08,NaN,NaN,0.4198721,-2.048925E-10,7.95162E-07,-1.093623E-07,-1.9607E-08,-2.622604E-08
915.6155,-0.1436702,4.427732E-09,NaN,-0.6962104,-1.316575E-07,NaN,-0.4251186,-5.557891E-07,NaN,-1.241938,2.4696E-05,-0.7368785,7.418819E-08,NaN,NaN,0.4225231,-2.002359E-10,8.058909E-07,-1.093634E-07,-1.84149E-08,-2.861022E-08
915.6328,-0.1428245,4.428352E-09,NaN,-0.6987338,-1.316582E-07,NaN,-0.4301864,-5.5524E-07,NaN,-1.24792,2.469635E-05,-0.7445077,7.363989E-08,NaN,NaN,0.4251221,-1.955793E-10,8.160237E-07,-1.093646E-07,-1.632874E-08,-2.622604E-08
915.6496,-0.141943,4.428971E-09,NaN,-0.7013615,-1.316589E-07,NaN,-0.4354958,-5.547016E-07,NaN,-1.254273,2.469672E-05,-0.7526883,7.310229E-08,NaN,NaN,0.4279839,-1.909227E-10,8.178118E-07,-1.093657E-07,-1.990502E-08,-2.861022E-08
915.6663,-0.1410444,4.429591E-09,NaN,-0.7040411,-1.316596E-07,NaN,-0.4409015,-5.541764E-07,NaN,-1.260663,2.469708E-05,-0.7608824,7.257802E-08,NaN,NaN,0.4307899,-1.862661E-10,8.279446E-07,-1.093668E-07,-2.109711E-08,-2.622604E-08
915.6832,-0.1401395,4.43021E-09,NaN,-0.7067405,-1.316604E-07,NaN,-0.4463457,-5.536614E-07,NaN,-1.267022,2.469745E-05,-0.7689063,7.206397E-08,NaN,NaN,0.4335409,-1.816094E-10,8.383754E-07,-1.09368E-07,-1.781886E-08,-2.861022E-08
915.702,-0.1392352,4.43083E-09,NaN,-0.7094398,-1.316611E-07,NaN,-0.4517752,-5.531593E-07,NaN,-1.273315,2.469781E-05,-0.7767377,7.156278E-08,NaN,NaN,0.436238,-1.769528E-10,8.455279E-07,-1.093691E-07,-1.483863E-08,-2.622604E-08
915.717,-0.1392352,4.43083E-09,NaN,-0.7094398,-1.316611E-07,NaN,-0.4517752,-5.531593E-07,NaN,-1.273315,2.469781E-05,-0.7767377,7.156278E-08,NaN,NaN,0.436238,-1.769528E-10,8.455279E-07,-1.093691E-07,-1.483863E-08,-2.622604E-08
915.733,-0.1382988,4.431449E-09,NaN,-0.7122315,-1.316618E-07,NaN,-0.4574316,-5.526697E-07,NaN,-1.279957,2.469817E-05,-0.7851131,7.10742E-08,NaN,NaN,0.4391959,-1.722962E-10,8.437398E-07,-1.093702E-07,-1.781886E-08,-2.861022E-08
915.7502,-0.1373478,4.432069E-09,NaN,-0.715067,-1.316625E-07,NaN,-0.4631622,-5.521896E-07,NaN,-1.286625,2.469854E-05,-0.7934952,7.059516E-08,NaN,NaN,0.4420961,-1.676396E-10,8.497003E-07,-1.093713E-07,-1.543467E-08,-2.622604E-08
