JMolnar6/NonAnthroHands_User_Study/HandsLoggerWithURDF/tempdata/files/Reachy_JointMotion_gesture_11_55.csv
Time,r_shoulder,r_shoulder_x,r_upper_arm,r_forearm,r_wrist,r_wrist2hand,
1024.24,-0.8624726,0.0007597999,NaN,-0.3659159,0.001331701,NaN,1.150192,-14.85784,NaN,-0.682691,-1.470574,0.4318343,14.11797,NaN,NaN,-0.01035008,0.8151197,-8.271763E-07,1.063416,-1.950149E-08,1.333027
1024.256,-0.8624726,0.0007597999,NaN,-0.3659159,0.001331701,NaN,1.150192,-14.85784,NaN,-0.682691,-1.470574,0.4318343,14.11797,NaN,NaN,-0.01035008,0.8151197,-8.271763E-07,1.063416,-1.950149E-08,1.333027
1024.27,-0.8601613,0.0007601992,NaN,-0.36511,0.001331562,NaN,1.150105,-14.85794,NaN,-0.6797649,-1.471424,0.4329398,14.11888,NaN,NaN,-0.01017693,0.8150403,-8.295605E-07,1.064657,-1.354102E-08,1.333873
1024.286,-0.8577424,0.0007607262,NaN,-0.3642663,0.001332438,NaN,1.149931,-14.85701,NaN,-0.6765534,-1.466224,0.434228,14.11325,NaN,NaN,-0.01000713,0.8158645,-8.319446E-07,1.057051,-1.473312E-08,1.329059
1024.301,-0.8552668,0.0007612043,NaN,-0.3634036,0.001334944,NaN,1.149783,-14.85767,NaN,-0.6732329,-1.465573,0.4355447,14.11264,NaN,NaN,-0.009840762,0.8151951,-8.36713E-07,1.056123,-1.115684E-08,1.334244
1024.316,-0.8552668,0.0007612043,NaN,-0.3634036,0.001334944,NaN,1.149783,-14.85767,NaN,-0.6732329,-1.465573,0.4355447,14.11264,NaN,NaN,-0.009840762,0.8151951,-8.36713E-07,1.056123,-1.115684E-08,1.334244
1024.33,-0.8529792,0.00076158,NaN,-0.3626102,0.001336746,NaN,1.150034,-14.85774,NaN,-0.6703764,-1.464851,0.4363558,14.11187,NaN,NaN,-0.009761817,0.8151023,-8.271763E-07,1.055071,-1.115684E-08,1.333309
1024.346,-0.8508186,0.0007618529,NaN,-0.3618624,0.001337433,NaN,1.150425,-14.85902,NaN,-0.667859,-1.472748,0.4369285,14.12042,NaN,NaN,-0.009684547,0.8140301,-8.176395E-07,1.066629,-1.354102E-08,1.339405
1024.361,-0.8487464,0.0007613968,NaN,-0.3611456,0.001339292,NaN,1.150829,-14.85837,NaN,-0.6655227,-1.466018,0.4374162,14.11321,NaN,NaN,-0.009608774,0.8145657,-8.057186E-07,1.056812,-1.115684E-08,1.336498
1024.376,-0.8487464,0.0007613968,NaN,-0.3611456,0.001339292,NaN,1.150829,-14.85837,NaN,-0.6655227,-1.466018,0.4374162,14.11321,NaN,NaN,-0.009608774,0.8145657,-8.057186E-07,1.056812,-1.115684E-08,1.336498
1024.391,-0.8467382,0.0007612343,NaN,-0.3604509,0.001339417,NaN,1.15121,-14.8576,NaN,-0.66329,-1.464921,0.4378759,14.11195,NaN,NaN,-0.009534439,0.8153065,-7.949898E-07,1.055187,-1.473312E-08,1.330355
1024.406,-0.8449912,0.0007608912,NaN,-0.3598496,0.001339089,NaN,1.151915,-14.85805,NaN,-0.6616118,-1.464985,0.4378476,14.11208,NaN,NaN,-0.009545626,0.8148534,-7.759163E-07,1.055299,-1.592521E-08,1.332461
1024.421,-0.8434147,0.0007600255,NaN,-0.3593079,0.001336647,NaN,1.152697,-14.85847,NaN,-0.6603045,-1.464961,0.437613,14.11211,NaN,NaN,-0.009556595,0.8144388,-7.59227E-07,1.055282,-1.473312E-08,1.335994
1024.436,-0.8434147,0.0007600255,NaN,-0.3593079,0.001336647,NaN,1.152697,-14.85847,NaN,-0.6603045,-1.464961,0.437613,14.11211,NaN,NaN,-0.009556595,0.8144388,-7.59227E-07,1.055282,-1.473312E-08,1.335994
1024.45,-0.8419514,0.0007591455,NaN,-0.3588049,0.001332943,NaN,1.153443,-14.85849,NaN,-0.6591825,-1.464731,0.4373257,14.11187,NaN,NaN,-0.009567246,0.8144092,-7.425377E-07,1.054952,-1.592521E-08,1.336828
1024.466,-0.8405651,0.0007585342,NaN,-0.3583277,0.001329489,NaN,1.154132,-14.85976,NaN,-0.6581557,-1.477723,0.4370387,14.12581,NaN,NaN,-0.009577589,0.8134689,-7.234643E-07,1.073927,-1.71173E-08,1.346106
1024.481,-0.8394454,0.0007576596,NaN,-0.3579454,0.00132669,NaN,1.155122,-14.8583,NaN,-0.6576696,-1.465743,0.4362884,14.11299,NaN,NaN,-0.009671776,0.8147745,-6.960461E-07,1.056467,-1.592521E-08,1.335286
1024.496,-0.8394454,0.0007576596,NaN,-0.3579454,0.00132669,NaN,1.155122,-14.8583,NaN,-0.6576696,-1.465743,0.4362884,14.11299,NaN,NaN,-0.009671776,0.8147745,-6.960461E-07,1.056467,-1.592521E-08,1.335286
1024.51,-0.8384973,0.000756703,NaN,-0.3576227,0.001324457,NaN,1.156171,-14.8584,NaN,-0.6575381,-1.464957,0.4353516,14.11216,NaN,NaN,-0.009764086,0.814655,-6.698201E-07,1.055324,-1.473312E-08,1.333564
1024.526,-0.8376606,0.0007564937,NaN,-0.3573378,0.00132332,NaN,1.15717,-14.85812,NaN,-0.6575744,-1.478962,0.4343794,14.12697,NaN,NaN,-0.009854461,0.8152696,-6.507466E-07,1.075719,-1.592521E-08,1.336666
1024.545,-0.8368971,0.0007564144,NaN,-0.3570775,0.001322817,NaN,1.1581,-14.85822,NaN,-0.6576884,-1.468787,0.4334229,14.11617,NaN,NaN,-0.009942947,0.8150516,-6.328652E-07,1.060882,-1.234893E-08,1.333973
1024.556,-0.8368971,0.0007564144,NaN,-0.3570775,0.001322817,NaN,1.1581,-14.85822,NaN,-0.6576884,-1.468787,0.4334229,14.11617,NaN,NaN,-0.009942947,0.8150516,-6.328652E-07,1.060882,-1.234893E-08,1.333973
1024.573,-0.8363954,0.0007563947,NaN,-0.3569102,0.001322032,NaN,1.15932,-14.85896,NaN,-0.6583257,-1.46792,0.4320167,14.11535,NaN,NaN,-0.01011371,0.8142773,-6.054471E-07,1.05964,-9.964747E-09,1.337718
1024.586,-0.8360597,0.000756192,NaN,-0.3568007,0.001319426,NaN,1.160589,-14.85901,NaN,-0.6593002,-1.466274,0.430438,14.11361,NaN,NaN,-0.01028108,0.8141819,-5.744527E-07,1.057247,-1.473312E-08,1.338897
1024.601,-0.8358297,0.0007562127,NaN,-0.3567272,0.001318249,NaN,1.161797,-14.85957,NaN,-0.6604255,-1.466013,0.4288373,14.1134,NaN,NaN,-0.01044503,0.8136145,-5.458425E-07,1.056886,-1.473312E-08,1.340905
1024.616,-0.8358297,0.0007562127,NaN,-0.3567272,0.001318249,NaN,1.161797,-14.85957,NaN,-0.6604255,-1.466013,0.4288373,14.1134,NaN,NaN,-0.01044503,0.8136145,-5.458425E-07,1.056886,-1.473312E-08,1.340905
1024.63,-0.8358783,0.0007564195,NaN,-0.3567519,0.001317664,NaN,1.163276,-14.8597,NaN,-0.6620998,-1.46533,0.4267866,14.1127,NaN,NaN,-0.01068971,0.8134544,-5.136559E-07,1.055897,-1.83094E-08,1.341365
1024.646,-0.8361016,0.0007562238,NaN,-0.3568369,0.001317775,NaN,1.164778,-14.8595,NaN,-0.6641149,-1.465538,0.4245769,14.11289,NaN,NaN,-0.01092949,0.8136582,-4.778931E-07,1.056193,-1.234893E-08,1.340511
1024.661,-0.8364336,0.0007568663,NaN,-0.3569587,0.001317796,NaN,1.166197,-14.86063,NaN,-0.6662736,-1.477708,0.4223621,14.12591,NaN,NaN,-0.01116439,0.8128202,-4.433224E-07,1.073949,-1.83094E-08,1.350626
1024.676,-0.8364336,0.0007568663,NaN,-0.3569587,0.001317796,NaN,1.166197,-14.86063,NaN,-0.6662736,-1.477708,0.4223621,14.12591,NaN,NaN,-0.01116439,0.8128202,-4.433224E-07,1.073949,-1.83094E-08,1.350626
1024.69,-0.8368325,0.0007572751,NaN,-0.3571025,0.001317509,NaN,1.167518,-14.85972,NaN,-0.668481,-1.465958,0.4201924,14.1134,NaN,NaN,-0.01139453,0.8135802,-4.135201E-07,1.056846,-1.71173E-08,1.341335
1024.706,-0.8374841,0.0007581167,NaN,-0.357336,0.001318043,NaN,1.169105,-14.85988,NaN,-0.6711809,-1.480027,0.4175954,14.1283,NaN,NaN,-0.01170402,0.81375,-3.789494E-07,1.077327,-2.188568E-08,1.347371
1024.721,-0.8382915,0.000758672,NaN,-0.3576235,0.001317952,NaN,1.170711,-14.85947,NaN,-0.6741866,-1.468044,0.4148547,14.11557,NaN,NaN,-0.01200737,0.8140479,-3.431867E-07,1.059874,-2.188568E-08,1.341765
1024.736,-0.8382915,0.000758672,NaN,-0.3576235,0.001317952,NaN,1.170711,-14.85947,NaN,-0.6741866,-1.468044,0.4148547,14.11557,NaN,NaN,-0.01200737,0.8140479,-3.431867E-07,1.059874,-2.188568E-08,1.341765
1024.75,-0.839193,0.0007596138,NaN,-0.3579426,0.001318225,NaN,1.172231,-14.85986,NaN,-0.6773114,-1.480965,0.4121202,14.1293,NaN,NaN,-0.0123046,0.813943,-3.08616E-07,1.0787,-2.426986E-08,1.347452
1024.767,-0.8401499,0.0007603715,NaN,-0.3582796,0.001318668,NaN,1.17365,-14.85947,NaN,-0.6804655,-1.468573,0.4094407,14.11613,NaN,NaN,-0.01259583,0.814225,-2.728532E-07,1.060648,-2.426986E-08,1.342016
1024.781,-0.8413499,0.000761285,NaN,-0.3587029,0.00131766,NaN,1.175329,-14.85955,NaN,-0.6840954,-1.466231,0.406338,14.11366,NaN,NaN,-0.01296514,0.8141003,-2.335141E-07,1.057239,-2.784614E-08,1.340674
1024.796,-0.8413499,0.000761285,NaN,-0.3587029,0.00131766,NaN,1.175329,-14.85955,NaN,-0.6840954,-1.466231,0.406338,14.11366,NaN,NaN,-0.01296514,0.8141003,-2.335141E-07,1.057239,-2.784614E-08,1.340674
1024.81,-0.8426971,0.0007618174,NaN,-0.3591769,0.001319334,NaN,1.177016,-14.8603,NaN,-0.6880155,-1.467471,0.4031038,14.11506,NaN,NaN,-0.01332712,0.8133842,-1.941751E-07,1.059069,-2.426986E-08,1.347574
1024.826,-0.8441309,0.0007625122,NaN,-0.3596797,0.001319715,NaN,1.178607,-14.861,NaN,-0.6920397,-1.473457,0.3998884,14.12148,NaN,NaN,-0.01368182,0.812822,-1.536439E-07,1.0678,-2.665405E-08,1.350315
1024.841,-0.8456128,0.0007631351,NaN,-0.3601976,0.001320695,NaN,1.180088,-14.861,NaN,-0.696079,-1.472286,0.3967396,14.12024,NaN,NaN,-0.01402937,0.8128018,-1.154969E-07,1.066097,-2.546195E-08,1.350917
1024.856,-0.8456128,0.0007631351,NaN,-0.3601976,0.001320695,NaN,1.180088,-14.861,NaN,-0.696079,-1.472286,0.3967396,14.12024,NaN,NaN,-0.01402937,0.8128018,-1.154969E-07,1.066097,-2.546195E-08,1.350917
1024.87,-0.8473313,0.0007635163,NaN,-0.3607993,0.001319194,NaN,1.18182,-14.85967,NaN,-0.7005797,-1.466843,0.3931718,14.11433,NaN,NaN,-0.0144538,0.8140308,-7.019741E-08,1.05815,-2.665405E-08,1.343242
1024.886,-0.8491905,0.0007631978,NaN,-0.3614491,0.001316863,NaN,1.183545,-14.85939,NaN,-0.7053567,-1.46753,0.3894861,14.11503,NaN,NaN,-0.01486981,0.8143219,-2.489788E-08,1.059146,-2.546195E-08,1.340463
1024.901,-0.8511299,0.0007627286,NaN,-0.3621252,0.001314091,NaN,1.185163,-14.85939,NaN,-0.7102242,-1.466371,0.3858331,14.11381,NaN,NaN,-0.01527747,0.8142943,1.324909E-08,1.057464,-2.426986E-08,1.339649
1024.916,-0.8511299,0.0007627286,NaN,-0.3621252,0.001314091,NaN,1.185163,-14.85939,NaN,-0.7102242,-1.466371,0.3858331,14.11381,NaN,NaN,-0.01527747,0.8142943,1.324909E-08,1.057464,-2.426986E-08,1.339649
1024.931,-0.8533242,0.0007619176,NaN,-0.3628909,0.001313117,NaN,1.187007,-14.85871,NaN,-0.7155813,-1.478763,0.3817572,14.12685,NaN,NaN,-0.0157607,0.8152562,5.854862E-08,1.075491,-2.903823E-08,1.339911
1024.946,-0.8556684,0.000761021,NaN,-0.3637075,0.001314096,NaN,1.188815,-14.86112,NaN,-0.7212204,-1.473113,0.3775798,14.12109,NaN,NaN,-0.01623434,0.8127943,1.038482E-07,1.067287,-2.903823E-08,1.351783
1024.962,-0.8580965,0.0007608447,NaN,-0.3645509,0.001316384,NaN,1.190491,-14.85928,NaN,-0.7269452,-1.469953,0.3734537,14.11754,NaN,NaN,-0.01669845,0.8145605,1.419951E-07,1.062645,-3.023032E-08,1.338148
1024.976,-0.8580965,0.0007608447,NaN,-0.3645509,0.001316384,NaN,1.190491,-14.85928,NaN,-0.7269452,-1.469953,0.3734537,14.11754,NaN,NaN,-0.01669845,0.8145605,1.419951E-07,1.062645,-3.023032E-08,1.338148
1024.99,-0.8605667,0.000760526,NaN,-0.3654067,0.001318262,NaN,1.192032,-14.85962,NaN,-0.732662,-1.466307,0.3694227,14.11372,NaN,NaN,-0.01715325,0.8141425,1.837184E-07,1.057345,-3.142241E-08,1.340996
1025.007,-0.863266,0.0007605259,NaN,-0.3663431,0.001318963,NaN,1.1938,-14.86014,NaN,-0.7388148,-1.465757,0.3649816,14.1132,NaN,NaN,-0.01768259,0.8136101,2.290179E-07,1.056564,-2.069358E-08,1.343074
1025.021,-0.8660968,0.0007602423,NaN,-0.3673235,0.001318814,NaN,1.195529,-14.86068,NaN,-0.745218,-1.469093,0.3604538,14.1168,NaN,NaN,-0.01820147,0.8131508,2.743174E-07,1.06144,-1.830939E-08,1.345892
1025.036,-0.8660968,0.0007602423,NaN,-0.3673235,0.001318814,NaN,1.195529,-14.86068,NaN,-0.745218,-1.469093,0.3604538,14.1168,NaN,NaN,-0.01820147,0.8131508,2.743174E-07,1.06144,-1.830939E-08,1.345892
1025.05,-0.8689978,0.0007598912,NaN,-0.3683261,0.001318307,NaN,1.197126,-14.86068,NaN,-0.751686,-1.46897,0.3559888,14.11667,NaN,NaN,-0.01870995,0.8131431,3.124644E-07,1.061264,-1.473311E-08,1.345846
1025.066,-0.8719305,0.0007597402,NaN,-0.3693374,0.001319322,NaN,1.19859,-14.86052,NaN,-0.7581302,-1.465699,0.3516274,14.11319,NaN,NaN,-0.01920824,0.8132341,3.529955E-07,1.056501,-1.354102E-08,1.346928
1025.081,-0.8750839,0.0007603301,NaN,-0.3704262,0.001320321,NaN,1.200278,-14.86102,NaN,-0.7649966,-1.479472,0.3468519,14.12782,NaN,NaN,-0.01978014,0.8130583,3.97103E-07,1.076558,-9.964741E-09,1.352876
1025.096,-0.8750839,0.0007603301,NaN,-0.3704262,0.001320321,NaN,1.200278,-14.86102,NaN,-0.7649966,-1.479472,0.3468519,14.12782,NaN,NaN,-0.01978014,0.8130583,3.97103E-07,1.076558,-9.964741E-09,1.352876
1025.11,-0.8783615,0.0007607591,NaN,-0.3715566,0.001320149,NaN,1.201915,-14.86131,NaN,-0.7721012,-1.472794,0.3420041,14.12079,NaN,NaN,-0.02034073,0.8126971,4.352499E-07,1.066847,-2.812184E-09,1.35062
1025.126,-0.8817029,0.0007612188,NaN,-0.3727066,0.001320003,NaN,1.203414,-14.86007,NaN,-0.7792587,-1.48106,0.3372329,14.12937,NaN,NaN,-0.02089013,0.8140683,4.817416E-07,1.078836,-1.620091E-09,1.345995
1025.141,-0.88507,0.0007612747,NaN,-0.3738632,0.001320708,NaN,1.204777,-14.85972,NaN,-0.7863815,-1.473466,0.3325758,14.12128,NaN,NaN,-0.02142853,0.8143415,5.282332E-07,1.067768,-1.620091E-09,1.340739
1025.157,-0.88507,0.0007612747,NaN,-0.3738632,0.001320708,NaN,1.204777,-14.85972,NaN,-0.7863815,-1.473466,0.3325758,14.12128,NaN,NaN,-0.02142853,0.8143415,5.282332E-07,1.067768,-1.620091E-09,1.340739
1025.171,-0.8886526,0.0007611709,NaN,-0.3750953,0.00132084,NaN,1.20636,-14.86031,NaN,-0.7939152,-1.465968,0.3275004,14.1134,NaN,NaN,-0.02203967,0.8136374,5.735327E-07,1.056854,6.72456E-09,1.340116
1025.186,-0.8923542,0.0007615658,NaN,-0.376367,0.001320942,NaN,1.207878,-14.86082,NaN,-0.801676,-1.479886,0.3223693,14.12818,NaN,NaN,-0.02263875,0.8134657,6.164481E-07,1.077125,4.340374E-09,1.348795
1025.201,-0.8961144,0.0007614086,NaN,-0.3776564,0.001320914,NaN,1.209253,-14.86116,NaN,-0.8094793,-1.475923,0.3173296,14.12401,NaN,NaN,-0.02322587,0.8130903,6.605555E-07,1.071358,9.108746E-09,1.346345
1025.216,-0.8961144,0.0007614086,NaN,-0.3776564,0.001320914,NaN,1.209253,-14.86116,NaN,-0.8094793,-1.475923,0.3173296,14.12401,NaN,NaN,-0.02322587,0.8130903,6.605555E-07,1.071358,9.108746E-09,1.346345
1025.23,-0.9001091,0.0007616994,NaN,-0.3790275,0.001320858,NaN,1.210821,-14.86015,NaN,-0.8177233,-1.482604,0.3118686,14.13095,NaN,NaN,-0.02388469,0.8141821,7.05855E-07,1.081054,9.108746E-09,1.342531
1025.246,-0.9042327,0.0007614162,NaN,-0.3804408,0.001321338,NaN,1.212295,-14.85938,NaN,-0.8262021,-1.476579,0.3063742,14.12448,NaN,NaN,-0.02453049,0.8149163,7.547308E-07,1.07226,4.340374E-09,1.337053
1025.261,-0.9084194,0.0007619281,NaN,-0.3818728,0.00132202,NaN,1.213609,-14.86003,NaN,-0.8347207,-1.472006,0.300991,14.11969,NaN,NaN,-0.02516339,0.814214,8.024145E-07,1.065602,7.640957E-10,1.341205
1025.276,-0.9084194,0.0007619281,NaN,-0.3818728,0.00132202,NaN,1.213609,-14.86003,NaN,-0.8347207,-1.472006,0.300991,14.11969,NaN,NaN,-0.02516339,0.814214,8.024145E-07,1.065602,7.640957E-10,1.341205
1025.29,-0.9126276,0.0007618189,NaN,-0.3833094,0.001321864,NaN,1.21478,-14.86055,NaN,-0.843187,-1.480515,0.2957468,14.12876,NaN,NaN,-0.02578366,0.8138465,8.441378E-07,1.078004,-4.279972E-10,1.341585
1025.306,-0.9170458,0.0007613393,NaN,-0.384819,0.001322392,NaN,1.216156,-14.86095,NaN,-0.8520438,-1.470211,0.2900769,14.11788,NaN,NaN,-0.02647494,0.8133603,8.870531E-07,1.062999,-2.812183E-09,1.338559
1025.321,-0.9215758,0.0007610967,NaN,-0.386365,0.001323043,NaN,1.21744,-14.86105,NaN,-0.861107,-1.469907,0.2843897,14.11756,NaN,NaN,-0.02715258,0.813253,9.299685E-07,1.062552,-4.279972E-10,1.340283
1025.336,-0.9215758,0.0007610967,NaN,-0.386365,0.001323043,NaN,1.21744,-14.86105,NaN,-0.861107,-1.469907,0.2843897,14.11756,NaN,NaN,-0.02715258,0.813253,9.299685E-07,1.062552,-4.279972E-10,1.340283
1025.352,-0.9261563,0.0007609048,NaN,-0.3879254,0.001323355,NaN,1.218573,-14.86086,NaN,-0.8701922,-1.480415,0.2788243,14.12864,NaN,NaN,-0.02781673,0.8136557,9.728839E-07,1.07783,7.640957E-10,1.342625
1025.366,-0.9307491,0.0007602559,NaN,-0.3894873,0.001324955,NaN,1.219571,-14.85982,NaN,-0.8792127,-1.468032,0.2734033,14.11542,NaN,NaN,-0.02846765,0.8145825,1.009839E-06,1.059784,3.148281E-09,1.334395
1025.381,-0.9355446,0.00075968,NaN,-0.3911198,0.001324306,NaN,1.220776,-14.8597,NaN,-0.8886127,-1.466699,0.2675435,14.11399,NaN,NaN,-0.02918894,0.8146799,1.049178E-06,1.057836,7.916653E-09,1.331705
1025.396,-0.9355446,0.00075968,NaN,-0.3911198,0.001324306,NaN,1.220776,-14.8597,NaN,-0.8886127,-1.466699,0.2675435,14.11399,NaN,NaN,-0.02918894,0.8146799,1.049178E-06,1.057836,7.916653E-09,1.331705
1025.41,-0.9404457,0.0007595258,NaN,-0.3927865,0.001325186,NaN,1.221881,-14.85934,NaN,-0.8982094,-1.479348,0.261687,14.12735,NaN,NaN,-0.029896,0.8153276,1.092093E-06,1.076254,7.320607E-09,1.333557
1025.426,-0.9453918,0.0007594738,NaN,-0.3944658,0.001325822,NaN,1.222836,-14.8598,NaN,-0.9078195,-1.466929,0.2559652,14.11421,NaN,NaN,-0.03058901,0.8147452,1.126664E-06,1.058147,1.149293E-08,1.332741
1025.441,-0.9503452,0.0007604884,NaN,-0.3961448,0.001326656,NaN,1.223664,-14.86065,NaN,-0.9173568,-1.479812,0.2503943,14.12797,NaN,NaN,-0.03126824,0.8141935,1.164811E-06,1.076946,1.804944E-08,1.340698
1025.456,-0.9503452,0.0007604884,NaN,-0.3961448,0.001326656,NaN,1.223664,-14.86065,NaN,-0.9173568,-1.479812,0.2503943,14.12797,NaN,NaN,-0.03126824,0.8141935,1.164811E-06,1.076946,1.804944E-08,1.340698
1025.47,-0.9554971,0.0007614155,NaN,-0.3978929,0.001327393,NaN,1.224697,-14.86112,NaN,-0.927265,-1.481504,0.244371,14.1298,NaN,NaN,-0.03201725,0.8137385,1.205342E-06,1.079415,1.62613E-08,1.344537
1025.487,-0.9607505,0.0007606657,NaN,-0.3996737,0.001329231,NaN,1.22562,-14.85907,NaN,-0.9373617,-1.46807,0.2383746,14.11537,NaN,NaN,-0.03275149,0.8156668,1.251834E-06,1.059826,1.864549E-08,1.330942
1025.501,-0.9660447,0.000760413,NaN,-0.4014655,0.001329405,NaN,1.226398,-14.86055,NaN,-0.9474641,-1.470771,0.2325251,14.11842,NaN,NaN,-0.03347115,0.8142475,1.289981E-06,1.063807,1.983758E-08,1.336829
1025.516,-0.9660447,0.000760413,NaN,-0.4014655,0.001329405,NaN,1.226398,-14.86055,NaN,-0.9474641,-1.470771,0.2325251,14.11842,NaN,NaN,-0.03347115,0.8142475,1.289981E-06,1.063807,1.983758E-08,1.336829
1025.53,-0.9715571,0.0007599184,NaN,-0.4033325,0.001329408,NaN,1.227356,-14.86108,NaN,-0.9579686,-1.478608,0.2262216,14.12677,NaN,NaN,-0.03425976,0.8138608,1.331704E-06,1.075231,1.62613E-08,1.342872
1025.547,-0.9771814,0.0007594806,NaN,-0.4052351,0.001327391,NaN,1.228183,-14.86086,NaN,-0.968671,-1.478398,0.2199737,14.12652,NaN,NaN,-0.0350328,0.8140725,1.372235E-06,1.07492,1.74534E-08,1.341326
1025.561,-0.9828514,0.0007587754,NaN,-0.4071496,0.001324728,NaN,1.228861,-14.85984,NaN,-0.9793787,-1.469275,0.2138878,14.11676,NaN,NaN,-0.0357905,0.8149821,1.410382E-06,1.061616,1.62613E-08,1.334307
1025.576,-0.9828514,0.0007587754,NaN,-0.4071496,0.001324728,NaN,1.228861,-14.85984,NaN,-0.9793787,-1.469275,0.2138878,14.11676,NaN,NaN,-0.0357905,0.8149821,1.410382E-06,1.061616,1.62613E-08,1.334307
1025.59,-0.988526,0.0007581514,NaN,-0.4090624,0.001323933,NaN,1.229422,-14.85958,NaN,-0.9900017,-1.47036,0.2079659,14.11788,NaN,NaN,-0.0365332,0.8152657,1.443761E-06,1.063194,1.268502E-08,1.332254
1025.606,-0.9943953,0.0007578435,NaN,-0.4110424,0.001324514,NaN,1.230175,-14.86109,NaN,-1.00098,-1.47792,0.2015705,14.12608,NaN,NaN,-0.03734437,0.813906,1.478331E-06,1.074261,1.447316E-08,1.342378
1025.621,-1.00036,0.0007573958,NaN,-0.4130525,0.001324509,NaN,1.230804,-14.86008,NaN,-1.01213,-1.468457,0.1952527,14.11596,NaN,NaN,-0.03813956,0.8148007,1.514094E-06,1.060466,1.208898E-08,1.333867
1025.636,-1.00036,0.0007573958,NaN,-0.4130525,0.001324509,NaN,1.230804,-14.86008,NaN,-1.01213,-1.468457,0.1952527,14.11596,NaN,NaN,-0.03813956,0.8148007,1.514094E-06,1.060466,1.208898E-08,1.333867
1025.65,-1.006359,0.0007573616,NaN,-0.4150709,0.001322762,NaN,1.2313,-14.86084,NaN,-1.023271,-1.481688,0.1891011,14.13009,NaN,NaN,-0.03891899,0.8143309,1.539128E-06,1.079774,1.62613E-08,1.337031
1025.666,-1.012354,0.0007566963,NaN,-0.4170849,0.001320061,NaN,1.231693,-14.86025,NaN,-1.034318,-1.470574,0.1831129,14.11826,NaN,NaN,-0.03968301,0.8148296,1.56893E-06,1.063578,1.447316E-08,1.336246
1025.681,-1.018538,0.0007557031,NaN,-0.419164,0.001319024,NaN,1.232273,-14.85967,NaN,-1.045711,-1.472894,0.1766357,14.12065,NaN,NaN,-0.04051509,0.8154663,1.597541E-06,1.066946,1.447316E-08,1.333357
1025.696,-1.018538,0.0007557031,NaN,-0.419164,0.001319024,NaN,1.232273,-14.85967,NaN,-1.045711,-1.472894,0.1766357,14.12065,NaN,NaN,-0.04051509,0.8154663,1.597541E-06,1.066946,1.447316E-08,1.333357
1025.71,-1.024812,0.0007549129,NaN,-0.4212716,0.0013164,NaN,1.232728,-14.86031,NaN,-1.057269,-1.467427,0.1702621,14.11492,NaN,NaN,-0.04133076,0.8147467,1.626151E-06,1.058993,1.864549E-08,1.336102
1025.726,-1.031115,0.000754329,NaN,-0.4233859,0.001313894,NaN,1.233062,-14.86036,NaN,-1.068812,-1.466227,0.1640584,14.11366,NaN,NaN,-0.04213031,0.8146777,1.654761E-06,1.057251,1.864549E-08,1.333603
1025.742,-1.03741,0.0007540143,NaN,-0.4254943,0.001313162,NaN,1.233305,-14.86118,NaN,-1.080255,-1.468069,0.1580174,14.11572,NaN,NaN,-0.04291407,0.8139113,1.680987E-06,1.059965,1.447316E-08,1.339067
1025.756,-1.03741,0.0007540143,NaN,-0.4254943,0.001313162,NaN,1.233305,-14.86118,NaN,-1.080255,-1.468069,0.1580174,14.11572,NaN,NaN,-0.04291407,0.8139113,1.680987E-06,1.059965,1.447316E-08,1.339067
1025.77,-1.04389,0.0007541886,NaN,-0.4276668,0.001313483,NaN,1.233726,-14.86176,NaN,-1.092038,-1.472409,0.1514756,14.12039,NaN,NaN,-0.04376549,0.8134289,1.708405E-06,1.066304,1.298305E-08,1.343935
1025.786,-1.050457,0.0007534732,NaN,-0.4298664,0.001310876,NaN,1.234024,-14.8614,NaN,-1.10398,-1.467741,0.1450617,14.11542,NaN,NaN,-0.04460012,0.8137124,1.735823E-06,1.059507,1.149293E-08,1.338044
1025.801,-1.05705,0.0007528843,NaN,-0.4320714,0.001310723,NaN,1.234213,-14.86015,NaN,-1.115901,-1.468362,0.1388181,14.11592,NaN,NaN,-0.04541827,0.8149691,1.758473E-06,1.060374,1.328107E-08,1.332209
1025.816,-1.05705,0.0007528843,NaN,-0.4320714,0.001310723,NaN,1.234213,-14.86015,NaN,-1.115901,-1.468362,0.1388181,14.11592,NaN,NaN,-0.04541827,0.8149691,1.758473E-06,1.060374,1.328107E-08,1.332209
1025.83,-1.063849,0.0007522294,NaN,-0.4343466,0.001310679,NaN,1.234556,-14.86026,NaN,-1.128196,-1.46704,0.1320761,14.11454,NaN,NaN,-0.0463034,0.8148325,1.782315E-06,1.058455,1.417514E-08,1.33321
1025.846,-1.070745,0.0007520748,NaN,-0.4366518,0.001310698,NaN,1.23477,-14.86184,NaN,-1.140661,-1.473323,0.1254837,14.1214,NaN,NaN,-0.04717107,0.8133998,1.806157E-06,1.067667,1.059886E-08,1.344167
1025.861,-1.077673,0.0007518845,NaN,-0.4389636,0.001308436,NaN,1.23488,-14.86034,NaN,-1.153107,-1.482206,0.1190657,14.13063,NaN,NaN,-0.04802164,0.8150276,1.822846E-06,1.080568,1.149293E-08,1.338227
1025.876,-1.077673,0.0007518845,NaN,-0.4389636,0.001308436,NaN,1.23488,-14.86034,NaN,-1.153107,-1.482206,0.1190657,14.13063,NaN,NaN,-0.04802164,0.8150276,1.822846E-06,1.080568,1.149293E-08,1.338227
1025.89,-1.08459,0.0007514468,NaN,-0.4412684,0.001307759,NaN,1.234913,-14.85962,NaN,-1.165446,-1.468231,0.1128116,14.11574,NaN,NaN,-0.04885544,0.8156376,1.838343E-06,1.060189,9.108746E-09,1.329661
1025.906,-1.09169,0.00075122,NaN,-0.4436358,0.001307762,NaN,1.235096,-14.86041,NaN,-1.178113,-1.480567,0.1060514,14.12894,NaN,NaN,-0.0497559,0.8151127,1.858609E-06,1.078207,5.83049E-09,1.337799
1025.921,-1.098873,0.0007511281,NaN,-0.4460281,0.001306859,NaN,1.235168,-14.86129,NaN,-1.190928,-1.47654,0.09945203,14.12475,NaN,NaN,-0.05063862,0.8141922,1.875298E-06,1.072347,4.340374E-09,1.338866
1025.937,-1.098873,0.0007511281,NaN,-0.4460281,0.001306859,NaN,1.235168,-14.86129,NaN,-1.190928,-1.47654,0.09945203,14.12475,NaN,NaN,-0.05063862,0.8141922,1.875298E-06,1.072347,4.340374E-09,1.338866
1025.951,-1.106076,0.0007522335,NaN,-0.4484237,0.001306697,NaN,1.235152,-14.86139,NaN,-1.20371,-1.482678,0.09302162,14.13126,NaN,NaN,-0.05150396,0.8141567,1.886027E-06,1.08129,4.191363E-09,1.340945
1025.966,-1.113261,0.0007528403,NaN,-0.4508102,0.001306282,NaN,1.23507,-14.86158,NaN,-1.216378,-1.482337,0.08675124,14.13091,NaN,NaN,-0.05235228,0.8139694,1.894372E-06,1.080795,7.171595E-09,1.339516
1025.981,-1.120623,0.0007535554,NaN,-0.4532574,0.001305846,NaN,1.235125,-14.86171,NaN,-1.229368,-1.47686,0.07997598,14.12513,NaN,NaN,-0.05326695,0.8137914,1.902716E-06,1.072821,6.873571E-09,1.338815
1025.996,-1.120623,0.0007535554,NaN,-0.4532574,0.001305846,NaN,1.235125,-14.86171,NaN,-1.229368,-1.47686,0.07997598,14.12513,NaN,NaN,-0.05326695,0.8137914,1.902716E-06,1.072821,6.873571E-09,1.338815
1026.01,-1.128063,0.000754195,NaN,-0.4557282,0.001306314,NaN,1.235081,-14.86007,NaN,-1.242499,-1.470727,0.07336672,14.11846,NaN,NaN,-0.05416362,0.8153478,1.911061E-06,1.063865,6.799066E-09,1.327577
1026.025,-1.135519,0.0007540894,NaN,-0.458201,0.001307151,NaN,1.234962,-14.8604,NaN,-1.255594,-1.466502,0.06692174,14.11401,NaN,NaN,-0.05504266,0.8149436,1.915829E-06,1.057713,8.363688E-09,1.328755
1026.04,-1.142954,0.0007540773,NaN,-0.4606635,0.001307638,NaN,1.234786,-14.86099,NaN,-1.268571,-1.466476,0.06063345,14.11406,NaN,NaN,-0.05590441,0.8143525,1.918213E-06,1.057698,8.587205E-09,1.331399
1026.056,-1.142954,0.0007540773,NaN,-0.4606635,0.001307638,NaN,1.234786,-14.86099,NaN,-1.268571,-1.466476,0.06063345,14.11406,NaN,NaN,-0.05590441,0.8143525,1.918213E-06,1.057698,8.587205E-09,1.331399
1026.07,-1.145308,0.0007539219,NaN,-0.4613344,0.001306959,NaN,1.230812,-14.86128,NaN,-1.270483,-1.471453,0.06943133,14.11938,NaN,NaN,-0.05484022,0.8141714,1.845496E-06,1.064961,1.339283E-08,1.333692
1026.086,-1.144537,0.000754239,NaN,-0.4609604,0.001307192,NaN,1.227754,-14.86113,NaN,-1.265052,-1.480821,0.07795987,14.12928,NaN,NaN,-0.05379667,0.8144901,1.766818E-06,1.078603,1.354184E-08,1.336823
1026.101,-1.14182,0.0007545153,NaN,-0.459943,0.001308395,NaN,1.22525,-14.86026,NaN,-1.256145,-1.467908,0.08624808,14.1155,NaN,NaN,-0.05277348,0.8152471,1.70006E-06,1.059776,1.536723E-08,1.328637
1026.115,-1.14182,0.0007545153,NaN,-0.459943,0.001308395,NaN,1.22525,-14.86026,NaN,-1.256145,-1.467908,0.08624808,14.1155,NaN,NaN,-0.05277348,0.8152471,1.70006E-06,1.059776,1.536723E-08,1.328637
1026.132,-1.13813,0.0007543149,NaN,-0.4586175,0.001310599,NaN,1.223259,-14.86088,NaN,-1.246116,-1.467649,0.09367937,14.1153,NaN,NaN,-0.05185335,0.8146269,1.645224E-06,1.059418,1.55535E-08,1.331977
1026.146,-1.133857,0.0007539735,NaN,-0.4571134,0.001310321,NaN,1.221463,-14.8606,NaN,-1.235718,-1.468659,0.1009346,14.11634,NaN,NaN,-0.05095125,0.8149241,1.593964E-06,1.060883,1.786318E-08,1.330406
1026.16,-1.129243,0.0007536574,NaN,-0.4555099,0.001308765,NaN,1.219797,-14.86027,NaN,-1.225221,-1.466379,0.1080295,14.11388,NaN,NaN,-0.05006683,0.8152026,1.549857E-06,1.057552,1.838472E-08,1.327968
1026.175,-1.129243,0.0007536574,NaN,-0.4555099,0.001308765,NaN,1.219797,-14.86027,NaN,-1.225221,-1.466379,0.1080295,14.11388,NaN,NaN,-0.05006683,0.8152026,1.549857E-06,1.057552,1.838472E-08,1.327968
1026.19,-1.124441,0.0007535158,NaN,-0.4538546,0.001307996,NaN,1.218223,-14.86046,NaN,-1.214757,-1.465424,0.1149739,14.1129,NaN,NaN,-0.04919973,0.8149858,1.508133E-06,1.056169,1.570251E-08,1.328784
1026.205,-1.119763,0.0007532183,NaN,-0.4522534,0.001307236,NaN,1.216903,-14.86159,NaN,-1.204862,-1.470942,0.1211203,14.1189,NaN,NaN,-0.04843273,0.8139932,1.467602E-06,1.064253,1.756515E-08,1.336122
1026.22,-1.115182,0.0007530214,NaN,-0.4506917,0.001306309,NaN,1.2156,-14.86145,NaN,-1.195407,-1.470659,0.1271377,14.11858,NaN,NaN,-0.04768075,0.8141277,1.431839E-06,1.06384,1.652207E-08,1.334909
1026.236,-1.115182,0.0007530214,NaN,-0.4506917,0.001306309,NaN,1.2156,-14.86145,NaN,-1.195407,-1.470659,0.1271377,14.11858,NaN,NaN,-0.04768075,0.8141277,1.431839E-06,1.06384,1.652207E-08,1.334909
1026.25,-1.11068,0.0007530861,NaN,-0.4491605,0.001307479,NaN,1.214315,-14.8606,NaN,-1.186233,-1.465672,0.1330374,14.1132,NaN,NaN,-0.0469435,0.8148808,1.390116E-06,1.056555,1.980033E-08,1.330334
1026.265,-1.106247,0.0007527774,NaN,-0.4476545,0.001307731,NaN,1.213051,-14.85993,NaN,-1.177264,-1.478559,0.1388221,14.12678,NaN,NaN,-0.04622068,0.8158525,1.355545E-06,1.075314,1.771417E-08,1.33039
1026.281,-1.102093,0.0007519886,NaN,-0.4462473,0.001307053,NaN,1.212013,-14.86064,NaN,-1.168935,-1.466699,0.1438375,14.11424,NaN,NaN,-0.04559515,0.8150048,1.322167E-06,1.058018,2.143946E-08,1.332065
1026.296,-1.102093,0.0007519886,NaN,-0.4462473,0.001307053,NaN,1.212013,-14.86064,NaN,-1.168935,-1.466699,0.1438375,14.11424,NaN,NaN,-0.04559515,0.8150048,1.322167E-06,1.058018,2.143946E-08,1.332065
1026.31,-1.098131,0.0007509123,NaN,-0.4449055,0.001306175,NaN,1.210957,-14.86034,NaN,-1.16107,-1.467899,0.148745,14.11548,NaN,NaN,-0.04498186,0.8153211,1.287596E-06,1.05976,2.352562E-08,1.329371
1026.326,-1.094302,0.0007506492,NaN,-0.4436089,0.001305082,NaN,1.209897,-14.86169,NaN,-1.153485,-1.479131,0.1535614,14.12757,NaN,NaN,-0.04438058,0.814216,1.25541E-06,1.076183,2.278056E-08,1.340414
1026.34,-1.090574,0.0007503428,NaN,-0.442345,0.001305389,NaN,1.208843,-14.86038,NaN,-1.146093,-1.468603,0.1582868,14.11628,NaN,NaN,-0.04379107,0.8153912,1.222031E-06,1.060825,2.471771E-08,1.329352
1026.355,-1.090574,0.0007503428,NaN,-0.442345,0.001305389,NaN,1.208843,-14.86038,NaN,-1.146093,-1.468603,0.1582868,14.11628,NaN,NaN,-0.04379107,0.8153912,1.222031E-06,1.060825,2.471771E-08,1.329352
1026.369,-1.087141,0.0007499087,NaN,-0.4411835,0.001306743,NaN,1.208019,-14.86097,NaN,-1.139323,-1.467528,0.1622657,14.1152,NaN,NaN,-0.04329626,0.814774,1.198189E-06,1.05927,2.382364E-08,1.332392
1026.385,-1.083906,0.0007501301,NaN,-0.4400887,0.001307387,NaN,1.207168,-14.8621,NaN,-1.132998,-1.478635,0.1661499,14.12712,NaN,NaN,-0.04281113,0.8138731,1.170771E-06,1.075491,2.471771E-08,1.342238
1026.4,-1.083906,0.0007501301,NaN,-0.4400887,0.001307387,NaN,1.207168,-14.8621,NaN,-1.132998,-1.478635,0.1661499,14.12712,NaN,NaN,-0.04281113,0.8138731,1.170771E-06,1.075491,2.471771E-08,1.342238
1026.416,-1.080807,0.0007504245,NaN,-0.4390388,0.001306623,NaN,1.206302,-14.86068,NaN,-1.126931,-1.468124,0.1699648,14.11584,NaN,NaN,-0.0423355,0.8151698,1.145737E-06,1.060164,2.561178E-08,1.33123
1026.43,-1.078022,0.0007502863,NaN,-0.4380978,0.001306222,NaN,1.205663,-14.861,NaN,-1.121511,-1.466786,0.173055,14.11446,NaN,NaN,-0.04195234,0.8148222,1.125472E-06,1.058223,2.59098E-08,1.331237
1026.445,-1.075445,0.0007510368,NaN,-0.4372266,0.001304458,NaN,1.204987,-14.86196,NaN,-1.116533,-1.480082,0.1760634,14.12868,NaN,NaN,-0.04157668,0.8141614,1.106398E-06,1.077635,2.650585E-08,1.339048
1026.46,-1.073007,0.0007514454,NaN,-0.4364015,0.001305487,NaN,1.204287,-14.86068,NaN,-1.111805,-1.470911,0.1790216,14.11883,NaN,NaN,-0.04120836,0.8153402,1.089709E-06,1.064253,2.233353E-08,1.328922
1026.475,-1.073007,0.0007514454,NaN,-0.4364015,0.001305487,NaN,1.204287,-14.86068,NaN,-1.111805,-1.470911,0.1790216,14.11883,NaN,NaN,-0.04120836,0.8153402,1.089709E-06,1.064253,2.233353E-08,1.328922
1026.489,-1.070666,0.0007517487,NaN,-0.4356079,0.00130625,NaN,1.203581,-14.86107,NaN,-1.107232,-1.466705,0.1819279,14.11441,NaN,NaN,-0.04084725,0.8148616,1.070635E-06,1.058129,2.024736E-08,1.331617
1026.505,-1.068613,0.000752157,NaN,-0.434914,0.001306439,NaN,1.203112,-14.86152,NaN,-1.103244,-1.465943,0.1841288,14.11365,NaN,NaN,-0.04057639,0.8143876,1.055138E-06,1.057033,1.994934E-08,1.333421
1026.52,-1.068613,0.000752157,NaN,-0.434914,0.001306439,NaN,1.203112,-14.86152,NaN,-1.103244,-1.465943,0.1841288,14.11365,NaN,NaN,-0.04057639,0.8143876,1.055138E-06,1.057033,1.994934E-08,1.333421
1026.536,-1.066746,0.000752539,NaN,-0.4342836,0.001307074,NaN,1.202607,-14.86189,NaN,-1.099658,-1.479512,0.1862574,14.12807,NaN,NaN,-0.04031083,0.8143268,1.043217E-06,1.07681,1.875725E-08,1.340916
1026.549,-1.065004,0.000752879,NaN,-0.4336946,0.001309278,NaN,1.202073,-14.86271,NaN,-1.096292,-1.480867,0.1883534,14.12958,NaN,NaN,-0.04005046,0.8135136,1.031296E-06,1.078792,1.667108E-08,1.344837
1026.564,-1.063346,0.0007532637,NaN,-0.4331334,0.00131085,NaN,1.201529,-14.86138,NaN,-1.093056,-1.476106,0.1904151,14.12441,NaN,NaN,-0.03979517,0.8147902,1.014607E-06,1.071843,1.875725E-08,1.33605
1026.579,-1.063346,0.0007532637,NaN,-0.4331334,0.00131085,NaN,1.201529,-14.86138,NaN,-1.093056,-1.476106,0.1904151,14.12441,NaN,NaN,-0.03979517,0.8147902,1.014607E-06,1.071843,1.875725E-08,1.33605
1026.594,-1.061966,0.0007536713,NaN,-0.4326687,0.00131418,NaN,1.201226,-14.86111,NaN,-1.090383,-1.469094,0.1917911,14.11693,NaN,NaN,-0.03962807,0.8149601,1.002686E-06,1.061612,1.726713E-08,1.333598
1026.609,-1.060763,0.0007534696,NaN,-0.4322648,0.001314527,NaN,1.200881,-14.86092,NaN,-1.088093,-1.466323,0.1931055,14.11397,NaN,NaN,-0.03946425,0.8150953,9.943412E-07,1.057568,1.875725E-08,1.330554
1026.624,-1.059676,0.0007531632,NaN,-0.4318998,0.001314426,NaN,1.200503,-14.86099,NaN,-1.086001,-1.465501,0.1944044,14.1131,NaN,NaN,-0.03930361,0.815005,9.848045E-07,1.056371,2.024736E-08,1.330524
1026.639,-1.059676,0.0007531632,NaN,-0.4318998,0.001314426,NaN,1.200503,-14.86099,NaN,-1.086001,-1.465501,0.1944044,14.1131,NaN,NaN,-0.03930361,0.815005,9.848045E-07,1.056371,2.024736E-08,1.330524
1026.654,-1.058883,0.000752986,NaN,-0.4316372,0.001314579,NaN,1.200353,-14.86114,NaN,-1.084496,-1.46491,0.1950379,14.11249,NaN,NaN,-0.0392293,0.8148378,9.812283E-07,1.055515,2.143946E-08,1.331427
1026.669,-1.058276,0.0007534412,NaN,-0.4314384,0.001315381,NaN,1.20015,-14.862,NaN,-1.083376,-1.466708,0.1956245,14.11451,NaN,NaN,-0.03915645,0.8140287,9.77652E-07,1.058167,2.352562E-08,1.337521
1026.684,-1.057788,0.0007538358,NaN,-0.4312795,0.001316047,NaN,1.199905,-14.86118,NaN,-1.082447,-1.464967,0.1962122,14.11256,NaN,NaN,-0.03908498,0.8147939,9.728836E-07,1.055605,2.471771E-08,1.33182
1026.699,-1.057788,0.0007538358,NaN,-0.4312795,0.001316047,NaN,1.199905,-14.86118,NaN,-1.082447,-1.464967,0.1962122,14.11256,NaN,NaN,-0.03908498,0.8147939,9.728836E-07,1.055605,2.471771E-08,1.33182
1026.714,-1.057376,0.0007537853,NaN,-0.4311457,0.001317186,NaN,1.199636,-14.86108,NaN,-1.081616,-1.479181,0.1967984,14.12761,NaN,NaN,-0.0390149,0.8152427,9.704994E-07,1.076314,2.114143E-08,1.335923
1026.73,-1.05723,0.0007534718,NaN,-0.4311051,0.001318145,NaN,1.199603,-14.8626,NaN,-1.081313,-1.481023,0.1967324,14.12972,NaN,NaN,-0.03902937,0.8137485,9.681152E-07,1.079022,2.114143E-08,1.345121
1026.744,-1.05725,0.0007531012,NaN,-0.4311211,0.001320449,NaN,1.199518,-14.8608,NaN,-1.081357,-1.477276,0.1966309,14.12557,NaN,NaN,-0.03904357,0.8155033,9.693073E-07,1.073542,2.114143E-08,1.332181
1026.759,-1.05725,0.0007531012,NaN,-0.4311211,0.001320449,NaN,1.199518,-14.8608,NaN,-1.081357,-1.477276,0.1966309,14.12557,NaN,NaN,-0.03904357,0.8155033,9.693073E-07,1.073542,2.114143E-08,1.332181
1026.773,-1.057373,0.0007533834,NaN,-0.4311719,0.001321005,NaN,1.199388,-14.86105,NaN,-1.081566,-1.469792,0.1965443,14.11765,NaN,NaN,-0.03905744,0.8151682,9.681152E-07,1.062629,2.501574E-08,1.334172
1026.789,-1.057561,0.0007528873,NaN,-0.4312438,0.001320487,NaN,1.199231,-14.86078,NaN,-1.081851,-1.466911,0.1964697,14.11456,NaN,NaN,-0.03907103,0.8153856,9.681152E-07,1.058421,2.412167E-08,1.331572
1026.804,-1.058004,0.0007519134,NaN,-0.4314054,0.001321129,NaN,1.199306,-14.86137,NaN,-1.082645,-1.465382,0.1957566,14.113,NaN,NaN,-0.03916753,0.8147684,9.693073E-07,1.056208,2.799597E-08,1.334072
1026.819,-1.058004,0.0007519134,NaN,-0.4314054,0.001321129,NaN,1.199306,-14.86137,NaN,-1.082645,-1.465382,0.1957566,14.113,NaN,NaN,-0.03916753,0.8147684,9.693073E-07,1.056208,2.799597E-08,1.334072
1026.833,-1.058606,0.0007512361,NaN,-0.4316213,0.001318757,NaN,1.199325,-14.86129,NaN,-1.083769,-1.480188,0.1950218,14.12869,NaN,NaN,-0.03926213,0.8152049,9.764599E-07,1.077784,2.978411E-08,1.337867
1026.849,-1.059303,0.0007509828,NaN,-0.4318694,0.001318961,NaN,1.199293,-14.86106,NaN,-1.085041,-1.468745,0.1943154,14.11653,NaN,NaN,-0.03935484,0.8153163,9.836125E-07,1.061097,2.620783E-08,1.334062
1026.864,-1.060057,0.0007506763,NaN,-0.4321361,0.001318578,NaN,1.199231,-14.86107,NaN,-1.086372,-1.466958,0.1936345,14.11463,NaN,NaN,-0.0394457,0.8152463,9.871887E-07,1.058495,2.650585E-08,1.33295
1026.879,-1.060057,0.0007506763,NaN,-0.4321361,0.001318578,NaN,1.199231,-14.86107,NaN,-1.086372,-1.466958,0.1936345,14.11463,NaN,NaN,-0.0394457,0.8152463,9.871887E-07,1.058495,2.650585E-08,1.33295
1026.895,-1.06106,0.0007508754,NaN,-0.4324899,0.001318349,NaN,1.199396,-14.86132,NaN,-1.088197,-1.465504,0.1923269,14.11312,NaN,NaN,-0.03961796,0.8149547,9.931492E-07,1.056386,2.590981E-08,1.334282
1026.909,-1.062214,0.0007506564,NaN,-0.4328953,0.001317196,NaN,1.199497,-14.86132,NaN,-1.090335,-1.46554,0.1910129,14.11317,NaN,NaN,-0.03978683,0.8149447,1.002686E-06,1.056443,2.471771E-08,1.331449
1026.924,-1.063457,0.0007509795,NaN,-0.4333303,0.001316574,NaN,1.199545,-14.86203,NaN,-1.092605,-1.465806,0.1897403,14.11354,NaN,NaN,-0.03995235,0.8142386,1.008646E-06,1.056858,2.412167E-08,1.335533
1026.939,-1.063457,0.0007509795,NaN,-0.4333303,0.001316574,NaN,1.199545,-14.86203,NaN,-1.092605,-1.465806,0.1897403,14.11354,NaN,NaN,-0.03995235,0.8142386,1.008646E-06,1.056858,2.412167E-08,1.335533
1026.953,-1.064967,0.0007505241,NaN,-0.4338583,0.001315209,NaN,1.1998,-14.86144,NaN,-1.095395,-1.465929,0.1878559,14.1136,NaN,NaN,-0.04019779,0.8148214,1.018183E-06,1.057019,2.561178E-08,1.332683
1026.968,-1.066637,0.0007498807,NaN,-0.4344403,0.001314825,NaN,1.199981,-14.86124,NaN,-1.098504,-1.467944,0.1859834,14.11571,NaN,NaN,-0.04043838,0.8150573,1.02772E-06,1.059951,2.680388E-08,1.331927
1026.983,-1.068399,0.0007493361,NaN,-0.4350525,0.001314862,NaN,1.200099,-14.86307,NaN,-1.101739,-1.475015,0.1841659,14.12344,NaN,NaN,-0.04067421,0.8133799,1.037257E-06,1.070319,2.561178E-08,1.344829
1026.998,-1.068399,0.0007493361,NaN,-0.4350525,0.001314862,NaN,1.200099,-14.86307,NaN,-1.101739,-1.475015,0.1841659,14.12344,NaN,NaN,-0.04067421,0.8133799,1.037257E-06,1.070319,2.561178E-08,1.344829
1027.013,-1.07021,0.0007490431,NaN,-0.4356801,0.001314051,NaN,1.200177,-14.86289,NaN,-1.105008,-1.47249,0.1823988,14.12076,NaN,NaN,-0.04090538,0.8135164,1.045601E-06,1.066646,2.471771E-08,1.342325
1027.029,-1.072263,0.0007496647,NaN,-0.4363912,0.001313944,NaN,1.200465,-14.86306,NaN,-1.108742,-1.478755,0.1800254,14.12741,NaN,NaN,-0.04121517,0.8134404,1.059906E-06,1.075773,2.352562E-08,1.345744
1027.044,-1.074455,0.0007496994,NaN,-0.4371495,0.001314028,NaN,1.200679,-14.86111,NaN,-1.112762,-1.468698,0.1776786,14.11657,NaN,NaN,-0.04151886,0.8152723,1.076596E-06,1.06111,1.845923E-08,1.3333
1027.059,-1.074455,0.0007496994,NaN,-0.4371495,0.001314028,NaN,1.200679,-14.86111,NaN,-1.112762,-1.468698,0.1776786,14.11657,NaN,NaN,-0.04151886,0.8152723,1.076596E-06,1.06111,1.845923E-08,1.3333
1027.073,-1.076726,0.0007506337,NaN,-0.4379328,0.001314058,NaN,1.200832,-14.86249,NaN,-1.116885,-1.478385,0.1753961,14.12702,NaN,NaN,-0.04181655,0.8140973,1.090901E-06,1.075278,1.473393E-08,1.342626
1027.089,-1.079035,0.0007519439,NaN,-0.4387276,0.001314653,NaN,1.200945,-14.86205,NaN,-1.121025,-1.482946,0.1731731,14.13181,NaN,NaN,-0.04210837,0.8145863,1.100438E-06,1.081917,1.518097E-08,1.340797
1027.104,-1.081575,0.0007522781,NaN,-0.4396027,0.00131477,NaN,1.201258,-14.86035,NaN,-1.125615,-1.469331,0.170351,14.11721,NaN,NaN,-0.04247761,0.816197,1.113551E-06,1.062062,1.607504E-08,1.329128
1027.118,-1.081575,0.0007522781,NaN,-0.4396027,0.00131477,NaN,1.201258,-14.86035,NaN,-1.125615,-1.469331,0.170351,14.11721,NaN,NaN,-0.04247761,0.816197,1.113551E-06,1.062062,1.607504E-08,1.329128
1027.135,-1.084249,0.0007527248,NaN,-0.4405221,0.001314489,NaN,1.201495,-14.86122,NaN,-1.130476,-1.466843,0.1675719,14.11467,NaN,NaN,-0.04283957,0.8152775,1.129048E-06,1.058456,1.369085E-08,1.329999
1027.148,-1.086993,0.000752799,NaN,-0.4414638,0.001314081,NaN,1.201671,-14.86163,NaN,-1.135427,-1.466233,0.1648663,14.11407,NaN,NaN,-0.04319439,0.8148481,1.143353E-06,1.05758,1.249876E-08,1.331554
1027.163,-1.08977,0.0007534809,NaN,-0.4424147,0.00131585,NaN,1.201804,-14.8616,NaN,-1.140381,-1.466294,0.162229,14.11413,NaN,NaN,-0.04354222,0.8148763,1.151697E-06,1.057666,1.220074E-08,1.333478
1027.178,-1.08977,0.0007534809,NaN,-0.4424147,0.00131585,NaN,1.201804,-14.8616,NaN,-1.140381,-1.466294,0.162229,14.11413,NaN,NaN,-0.04354222,0.8148763,1.151697E-06,1.057666,1.220074E-08,1.333478
1027.193,-1.092772,0.0007543606,NaN,-0.4434437,0.001317507,NaN,1.202127,-14.86235,NaN,-1.145773,-1.46533,0.1589997,14.1132,NaN,NaN,-0.04396635,0.814103,1.16481E-06,1.056286,1.249876E-08,1.33781
1027.208,-1.095902,0.0007563197,NaN,-0.4445149,0.001316477,NaN,1.202372,-14.86332,NaN,-1.151424,-1.471803,0.1558294,14.12018,NaN,NaN,-0.04438213,0.8132837,1.177923E-06,1.065751,1.503196E-08,1.341319
1027.223,-1.099097,0.0007569939,NaN,-0.4456062,0.001318475,NaN,1.202555,-14.86304,NaN,-1.157153,-1.466749,0.1527407,14.1148,NaN,NaN,-0.04478971,0.8134629,1.188652E-06,1.058391,1.532998E-08,1.343988
1027.238,-1.099097,0.0007569939,NaN,-0.4456062,0.001318475,NaN,1.202555,-14.86304,NaN,-1.157153,-1.466749,0.1527407,14.1148,NaN,NaN,-0.04478971,0.8134629,1.188652E-06,1.058391,1.532998E-08,1.343988
1027.252,-1.102536,0.0007568055,NaN,-0.4467818,0.001318197,NaN,1.202908,-14.86191,NaN,-1.163348,-1.465338,0.1490719,14.11316,NaN,NaN,-0.0452724,0.8145574,1.206534E-06,1.056302,1.398888E-08,1.333469
1027.268,-1.106112,0.0007574428,NaN,-0.448002,0.00131782,NaN,1.203174,-14.86238,NaN,-1.169808,-1.464349,0.1454788,14.11218,NaN,NaN,-0.04574558,0.8140554,1.222031E-06,1.05488,1.220074E-08,1.336047
1027.283,-1.109758,0.0007583165,NaN,-0.4492433,0.001318577,NaN,1.203374,-14.8631,NaN,-1.176344,-1.465071,0.1419774,14.11304,NaN,NaN,-0.04620944,0.8133537,1.236336E-06,1.055959,9.816551E-09,1.341538
1027.298,-1.109758,0.0007583165,NaN,-0.4492433,0.001318577,NaN,1.203374,-14.8631,NaN,-1.176344,-1.465071,0.1419774,14.11304,NaN,NaN,-0.04620944,0.8133537,1.236336E-06,1.055959,9.816551E-09,1.341538
1027.312,-1.113431,0.0007587721,NaN,-0.4504913,0.001317791,NaN,1.203526,-14.86378,NaN,-1.182864,-1.476429,0.1385618,14.12513,NaN,NaN,-0.04666416,0.8129432,1.245873E-06,1.072512,8.996987E-09,1.347082
1027.329,-1.117323,0.0007590888,NaN,-0.4518148,0.001318158,NaN,1.203846,-14.86207,NaN,-1.1898,-1.469284,0.134571,14.1174,NaN,NaN,-0.04719305,0.814545,1.26137E-06,1.062088,9.03424E-09,1.335203
1027.343,-1.121334,0.0007587761,NaN,-0.4531769,0.001319168,NaN,1.204084,-14.86229,NaN,-1.196971,-1.465215,0.1306677,14.11312,NaN,NaN,-0.04771154,0.8142484,1.279251E-06,1.056169,6.054008E-09,1.335709
1027.359,-1.121334,0.0007587761,NaN,-0.4531769,0.001319168,NaN,1.204084,-14.86229,NaN,-1.196971,-1.465215,0.1306677,14.11312,NaN,NaN,-0.04771154,0.8142484,1.279251E-06,1.056169,6.054008E-09,1.335709
1027.372,-1.125402,0.0007584165,NaN,-0.4545557,0.00131945,NaN,1.204262,-14.86217,NaN,-1.204198,-1.465541,0.1268609,14.11345,NaN,NaN,-0.04821981,0.8143756,1.28998E-06,1.056641,6.165767E-09,1.335064
1027.387,-1.129487,0.000758959,NaN,-0.4559379,0.001319787,NaN,1.204394,-14.8636,NaN,-1.211395,-1.476775,0.1231455,14.12554,NaN,NaN,-0.04871808,0.8132106,1.300709E-06,1.073059,5.001613E-09,1.347021
1027.403,-1.133784,0.0007584818,NaN,-0.457393,0.001321379,NaN,1.204682,-14.86195,NaN,-1.218995,-1.467229,0.1188627,14.11527,NaN,NaN,-0.04928966,0.8147415,1.317398E-06,1.059141,3.623256E-09,1.334351
1027.417,-1.133784,0.0007584818,NaN,-0.457393,0.001321379,NaN,1.204682,-14.86195,NaN,-1.218995,-1.467229,0.1188627,14.11527,NaN,NaN,-0.04928966,0.8147415,1.317398E-06,1.059141,3.623256E-09,1.334351
1027.432,-1.138194,0.0007583796,NaN,-0.4588844,0.001321481,NaN,1.204891,-14.86213,NaN,-1.22682,-1.465891,0.114678,14.11388,NaN,NaN,-0.04984999,0.8145304,1.326935E-06,1.0572,5.523154E-09,1.334803
1027.448,-1.142654,0.0007581337,NaN,-0.4603904,0.001320146,NaN,1.205042,-14.8637,NaN,-1.234691,-1.476808,0.1105945,14.12565,NaN,NaN,-0.05039929,0.8132197,1.337664E-06,1.073163,4.629084E-09,1.346288
