JMolnar6/NonAnthroHands_User_Study/HandsLoggerWithURDF/tempdata/files/Reachy_PID0_JointMotion_gesture_8_5.csv
Time,r_shoulder,r_shoulder_x,r_upper_arm,r_forearm,r_wrist,r_wrist2hand,
499.9915,0.04486794,-0.3317443,0.2328124,-0.5182201,-0.3368745,-0.0200853
500.0052,0.04486847,-0.3316899,0.2352489,-0.518232,-0.3372138,-0.02008463
500.0196,0.04486847,-0.3316899,0.2352489,-0.518232,-0.3372138,-0.02008463
500.0336,0.044869,-0.3316362,0.2376617,-0.5182434,-0.3375522,-0.02008395
500.0489,0.04486952,-0.3315831,0.240051,-0.5182543,-0.3378898,-0.02008327
500.0637,0.04487005,-0.3315306,0.2424171,-0.5182648,-0.3382263,-0.02008259
500.0785,0.04487005,-0.3315306,0.2424171,-0.5182648,-0.3382263,-0.02008259
500.0922,0.04487057,-0.3314788,0.2447602,-0.5182748,-0.3385619,-0.02008191
500.1077,0.04487108,-0.3314276,0.2470804,-0.5182844,-0.3388965,-0.02008123
500.1227,0.0448716,-0.331377,0.2493781,-0.5182935,-0.33923,-0.02008055
500.1373,0.0448716,-0.331377,0.2493781,-0.5182935,-0.33923,-0.02008055
500.1512,0.04487211,-0.3313271,0.2516532,-0.5183022,-0.3395624,-0.02007986
500.1668,0.04487262,-0.3312777,0.2539062,-0.5183105,-0.3398938,-0.02007918
500.1818,0.04487313,-0.3312289,0.2561371,-0.5183184,-0.340224,-0.02007849
500.1963,0.04487313,-0.3312289,0.2561371,-0.5183184,-0.340224,-0.02007849
500.2101,0.04487364,-0.3311807,0.2583461,-0.5183258,-0.340553,-0.02007781
500.2276,0.04487414,-0.331133,0.2605335,-0.5183329,-0.3408808,-0.02007712
500.2411,0.04487465,-0.331086,0.2626995,-0.5183396,-0.3412074,-0.02007644
500.2549,0.04487465,-0.331086,0.2626995,-0.5183396,-0.3412074,-0.02007644
500.2689,0.04487514,-0.3310395,0.2648442,-0.5183459,-0.3415328,-0.02007575
500.2844,0.04487564,-0.3309935,0.2669678,-0.5183519,-0.3418569,-0.02007506
500.299,0.04487564,-0.3309935,0.2669678,-0.5183519,-0.3418569,-0.02007506
500.313,0.04487614,-0.3309481,0.2690705,-0.5183575,-0.3421797,-0.02007437
500.3283,0.04487664,-0.3309033,0.2711525,-0.5183627,-0.3425012,-0.02007369
500.3428,0.04487713,-0.330859,0.273214,-0.5183676,-0.3428213,-0.020073
500.3575,0.04487713,-0.330859,0.273214,-0.5183676,-0.3428213,-0.020073
500.3715,0.04487761,-0.3308152,0.2752551,-0.5183722,-0.3431401,-0.02007231
500.3873,0.0448781,-0.3307719,0.2772762,-0.5183765,-0.3434575,-0.02007162
500.4016,0.04487859,-0.3307292,0.2792772,-0.5183805,-0.3437735,-0.02007093
500.4164,0.04487859,-0.3307292,0.2792772,-0.5183805,-0.3437735,-0.02007093
500.4304,0.04487907,-0.330687,0.2812585,-0.5183841,-0.344088,-0.02007025
500.4459,0.04487955,-0.3306452,0.2832202,-0.5183874,-0.3444012,-0.02006956
500.4605,0.04488003,-0.330604,0.2851624,-0.5183905,-0.3447129,-0.02006888
500.4752,0.04488003,-0.330604,0.2851624,-0.5183905,-0.3447129,-0.02006888
500.4919,0.04488051,-0.3305632,0.2870854,-0.5183932,-0.3450231,-0.0200682
500.5055,0.04488099,-0.330523,0.2889893,-0.5183957,-0.3453318,-0.02006752
500.52,0.04488146,-0.3304832,0.2908744,-0.5183979,-0.345639,-0.02006684
500.5335,0.04488146,-0.3304832,0.2908744,-0.5183979,-0.345639,-0.02006684
500.5475,0.04488193,-0.3304439,0.2927407,-0.5183999,-0.3459447,-0.02006616
500.5619,0.0448824,-0.3304051,0.2945884,-0.5184016,-0.3462489,-0.02006548
500.575,0.0448824,-0.3304051,0.2945884,-0.5184016,-0.3462489,-0.02006548
500.5895,0.04488286,-0.3303667,0.2964178,-0.518403,-0.3465515,-0.02006481
500.6035,0.04488333,-0.3303288,0.2982289,-0.5184042,-0.3468526,-0.02006413
500.6176,0.04488333,-0.3303288,0.2982289,-0.5184042,-0.3468526,-0.02006413
500.6309,0.04488379,-0.3302913,0.3000221,-0.5184051,-0.3471521,-0.02006346
500.6451,0.04488425,-0.3302543,0.3017973,-0.5184059,-0.34745,-0.02006279
500.6594,0.04488425,-0.3302543,0.3017973,-0.5184059,-0.34745,-0.02006279
500.674,0.04488471,-0.3302177,0.3035548,-0.5184063,-0.3477464,-0.02006212
500.6884,0.04488517,-0.3301816,0.3052948,-0.5184066,-0.3480411,-0.02006145
500.7032,0.04488562,-0.3301459,0.3070174,-0.5184066,-0.3483342,-0.02006078
500.718,0.04488562,-0.3301459,0.3070174,-0.5184066,-0.3483342,-0.02006078
500.7326,0.04488608,-0.3301107,0.3087227,-0.5184065,-0.3486257,-0.02006012
500.7472,0.04488653,-0.3300758,0.310411,-0.5184061,-0.3489155,-0.02005946
500.7615,0.04488698,-0.3300414,0.3120824,-0.5184055,-0.3492038,-0.02005879
500.7762,0.04488698,-0.3300414,0.3120824,-0.5184055,-0.3492038,-0.02005879
500.791,0.04488743,-0.3300074,0.313737,-0.5184047,-0.3494903,-0.02005813
500.8057,0.04488787,-0.3299738,0.3153751,-0.5184038,-0.3497753,-0.02005748
500.8228,0.04488832,-0.3299406,0.3169967,-0.5184026,-0.3500586,-0.02005682
500.8395,0.04488832,-0.3299406,0.3169967,-0.5184026,-0.3500586,-0.02005682
500.8536,0.04488876,-0.3299078,0.318602,-0.5184013,-0.3503402,-0.02005617
500.8682,0.0448892,-0.3298753,0.3201912,-0.5183997,-0.3506201,-0.02005552
500.8815,0.04488964,-0.3298433,0.3217645,-0.518398,-0.3508984,-0.02005487
500.8961,0.04488964,-0.3298433,0.3217645,-0.518398,-0.3508984,-0.02005487
500.9101,0.04489008,-0.3298117,0.3233219,-0.5183962,-0.351175,-0.02005423
500.9255,0.04489051,-0.3297804,0.3248636,-0.5183942,-0.3514498,-0.02005358
500.9402,0.04489094,-0.3297495,0.3263898,-0.518392,-0.3517231,-0.02005295
500.9549,0.04489094,-0.3297495,0.3263898,-0.518392,-0.3517231,-0.02005295
500.9689,0.04489138,-0.329719,0.3279006,-0.5183896,-0.3519946,-0.02005231
500.9843,0.0448918,-0.3296888,0.3293962,-0.5183871,-0.3522644,-0.02005167
500.9989,0.0448918,-0.3296888,0.3293962,-0.5183871,-0.3522644,-0.02005167
501.0155,0.04489224,-0.329659,0.3310153,-0.5196136,-0.352719,-0.02005425
501.0287,0.04489268,-0.3296296,0.3326068,-0.5215378,-0.3531817,-0.02005544
501.0429,0.04489311,-0.3296005,0.3341412,-0.5237759,-0.3536029,-0.02005608
501.0594,0.04489311,-0.3296005,0.3341412,-0.5237759,-0.3536029,-0.02005608
501.0733,0.04489354,-0.3295718,0.3356297,-0.5261443,-0.3539844,-0.02005646
501.0908,0.04489395,-0.3295434,0.33695,-0.5273256,-0.3541518,-0.0200536
501.1046,0.04489437,-0.3295153,0.3382626,-0.5278094,-0.3542904,-0.02005203
501.1184,0.04489437,-0.3295153,0.3382626,-0.5278094,-0.3542904,-0.02005203
501.1328,0.04489478,-0.3294875,0.3396014,-0.5279595,-0.354455,-0.02005097
501.1477,0.04489519,-0.3294601,0.3409581,-0.5279501,-0.3546476,-0.0200501
501.1623,0.0448956,-0.3294331,0.342183,-0.5266356,-0.3546741,-0.02004621
501.1769,0.0448956,-0.3294331,0.342183,-0.5266356,-0.3546741,-0.02004621
501.191,0.044896,-0.3294063,0.3434151,-0.524588,-0.3547007,-0.02004368
501.2066,0.04489639,-0.3293799,0.3446778,-0.5222107,-0.354771,-0.02004172
501.2212,0.0448968,-0.3293537,0.345958,-0.5196964,-0.3548805,-0.02003999
501.2361,0.0448968,-0.3293537,0.345958,-0.5196964,-0.3548805,-0.02003999
501.2502,0.04489718,-0.3293279,0.3471015,-0.5159083,-0.3548295,-0.02003513
501.2654,0.04489757,-0.3293024,0.3482471,-0.5114223,-0.3547826,-0.0200317
501.2801,0.04489796,-0.3292772,0.34942,-0.5066432,-0.3547831,-0.02002884
501.2948,0.04489796,-0.3292772,0.34942,-0.5066432,-0.3547831,-0.02002884
501.3087,0.04489833,-0.3292524,0.3504646,-0.500535,-0.3546365,-0.02002282
501.3241,0.04489871,-0.3292278,0.3515169,-0.4937218,-0.3545055,-0.02001831
501.3387,0.04489871,-0.3292278,0.3515169,-0.4937218,-0.3545055,-0.02001831
501.3548,0.04489909,-0.3292035,0.3525997,-0.4866313,-0.3544315,-0.02001443
501.369,0.04489947,-0.3291795,0.3536991,-0.4794675,-0.354408,-0.02001079
501.3831,0.04489985,-0.3291558,0.3547812,-0.4721832,-0.3543975,-0.02000679
501.3972,0.04489985,-0.3291558,0.3547812,-0.4721832,-0.3543975,-0.02000679
501.4114,0.04490022,-0.3291324,0.3558539,-0.4648866,-0.3544096,-0.02000301
501.4266,0.0449006,-0.3291093,0.3569158,-0.4576442,-0.3544433,-0.01999931
501.4411,0.04490098,-0.3290864,0.3579637,-0.450487,-0.3544943,-0.01999562
501.456,0.04490098,-0.3290864,0.3579637,-0.450487,-0.3544943,-0.01999562
501.47,0.04490135,-0.3290638,0.3589953,-0.4434288,-0.354559,-0.01999193
501.4853,0.04490172,-0.3290415,0.3600097,-0.4364754,-0.3546349,-0.01998821
501.5001,0.04490209,-0.3290195,0.3610067,-0.4296288,-0.3547207,-0.01998448
501.515,0.04490209,-0.3290195,0.3610067,-0.4296288,-0.3547207,-0.01998448
501.5289,0.04490246,-0.3289978,0.3619866,-0.4228891,-0.3548153,-0.01998071
501.5442,0.04490283,-0.3289763,0.3629501,-0.4162552,-0.3549184,-0.01997692
501.5586,0.04490283,-0.3289763,0.3629501,-0.4162552,-0.3549184,-0.01997692
501.5727,0.0449032,-0.328955,0.3638977,-0.4097259,-0.3550296,-0.01997309
501.5882,0.04490357,-0.328934,0.36483,-0.4032999,-0.3551487,-0.01996922
501.6028,0.04490393,-0.3289133,0.3657477,-0.3969754,-0.3552755,-0.01996532
501.6172,0.04490393,-0.3289133,0.3657477,-0.3969754,-0.3552755,-0.01996532
501.6335,0.04490429,-0.3288928,0.3666512,-0.3907511,-0.3554098,-0.01996137
501.6476,0.04490465,-0.3288726,0.3675412,-0.3846252,-0.3555516,-0.01995739
501.6616,0.04490501,-0.3288526,0.368418,-0.3785963,-0.3557007,-0.01995336
501.6761,0.04490501,-0.3288526,0.368418,-0.3785963,-0.3557007,-0.01995336
501.69,0.04490537,-0.3288328,0.3692821,-0.3726628,-0.355857,-0.01994928
501.7055,0.04490573,-0.3288133,0.3701341,-0.3668232,-0.3560203,-0.01994516
501.7201,0.04490609,-0.328794,0.3709742,-0.3610761,-0.3561906,-0.01994099
501.735,0.04490609,-0.328794,0.3709742,-0.3610761,-0.3561906,-0.01994099
501.749,0.04490644,-0.328775,0.3718029,-0.3554199,-0.3563676,-0.01993676
501.7645,0.0449068,-0.3287562,0.3726206,-0.3498533,-0.3565513,-0.01993248
501.779,0.0449068,-0.3287562,0.3726206,-0.3498533,-0.3565513,-0.01993248
501.7929,0.04490715,-0.3287376,0.3734277,-0.3443748,-0.3567417,-0.01992815
501.8084,0.0449075,-0.3287192,0.3742245,-0.338983,-0.3569385,-0.01992376
501.823,0.04490785,-0.3287011,0.3750114,-0.3336766,-0.3571416,-0.01991931
501.8376,0.04490785,-0.3287011,0.3750114,-0.3336766,-0.3571416,-0.01991931
501.8515,0.0449082,-0.3286832,0.3757888,-0.3284542,-0.3573509,-0.01991479
501.8671,0.04490854,-0.3286655,0.3765571,-0.3233144,-0.3575664,-0.01991022
501.8817,0.04490889,-0.328648,0.3773164,-0.318256,-0.357788,-0.01990557
501.8985,0.04490889,-0.328648,0.3773164,-0.318256,-0.357788,-0.01990557
501.9124,0.04490923,-0.3286307,0.3780673,-0.3132777,-0.3580155,-0.01990086
501.9257,0.04490957,-0.3286136,0.3788099,-0.3083782,-0.3582489,-0.01989607
501.9402,0.04490992,-0.3285967,0.3795446,-0.3035563,-0.358488,-0.01989121
501.9549,0.04490992,-0.3285967,0.3795446,-0.3035563,-0.358488,-0.01989121
501.969,0.04491026,-0.3285801,0.3802718,-0.2988107,-0.3587328,-0.01988628
501.9845,0.04491059,-0.3285636,0.3809916,-0.2941402,-0.3589831,-0.01988126
501.9989,0.04491059,-0.3285636,0.3809916,-0.2941402,-0.3589831,-0.01988126
502.013,0.04491093,-0.3285474,0.3817045,-0.2895437,-0.359239,-0.01987617
502.0284,0.04491127,-0.3285313,0.3824107,-0.28502,-0.3595003,-0.01987099
502.0431,0.0449116,-0.3285154,0.3831104,-0.2805679,-0.359767,-0.01986573
502.0576,0.0449116,-0.3285154,0.3831104,-0.2805679,-0.359767,-0.01986573
502.072,0.04491194,-0.3284997,0.383804,-0.2761863,-0.3600389,-0.01986037
502.0873,0.04491227,-0.3284842,0.3844917,-0.271874,-0.3603161,-0.01985493
502.1018,0.0449126,-0.3284689,0.3851738,-0.2676301,-0.3605984,-0.01984939
502.1164,0.0449126,-0.3284689,0.3851738,-0.2676301,-0.3605984,-0.01984939
502.1306,0.04491293,-0.3284538,0.3858505,-0.2634533,-0.3608858,-0.01984376
502.1459,0.04491326,-0.3284388,0.3865221,-0.2593427,-0.3611781,-0.01983803
502.1603,0.04491359,-0.328424,0.3871888,-0.2552971,-0.3614755,-0.0198322
502.177,0.04491359,-0.328424,0.3871888,-0.2552971,-0.3614755,-0.0198322
502.1901,0.04491392,-0.3284094,0.3878508,-0.2513157,-0.3617777,-0.01982626
502.2046,0.04491424,-0.328395,0.3885084,-0.2473972,-0.3620847,-0.01982022
502.2191,0.04491424,-0.328395,0.3885084,-0.2473972,-0.3620847,-0.01982022
502.2332,0.04491457,-0.3283808,0.3891618,-0.2435409,-0.3623965,-0.01981407
502.2485,0.04491489,-0.3283667,0.3898112,-0.2397455,-0.362713,-0.0198078
502.2633,0.04491521,-0.3283528,0.3904569,-0.2360103,-0.3630341,-0.01980142
502.2775,0.04491521,-0.3283528,0.3904569,-0.2360103,-0.3630341,-0.01980142
502.2921,0.04491553,-0.328339,0.391099,-0.2323343,-0.3633599,-0.01979492
502.3073,0.04491585,-0.3283255,0.3917377,-0.2287164,-0.3636902,-0.0197883
502.322,0.04491617,-0.3283121,0.3923732,-0.2251559,-0.364025,-0.01978156
502.3374,0.04491617,-0.3283121,0.3923732,-0.2251559,-0.364025,-0.01978156
502.3508,0.04491648,-0.3282988,0.3930057,-0.2216518,-0.3643642,-0.01977469
502.3662,0.0449168,-0.3282857,0.3936354,-0.2182031,-0.3647079,-0.01976769
502.3811,0.04491711,-0.3282728,0.3942625,-0.2148091,-0.3650559,-0.01976056
502.3956,0.04491711,-0.3282728,0.3942625,-0.2148091,-0.3650559,-0.01976056
502.4096,0.04491743,-0.32826,0.3948871,-0.2114688,-0.3654082,-0.01975329
502.4248,0.04491774,-0.3282474,0.3955094,-0.2081815,-0.3657647,-0.01974588
502.4415,0.04491805,-0.3282349,0.3961295,-0.2049462,-0.3661254,-0.01973834
502.4553,0.04491805,-0.3282349,0.3961295,-0.2049462,-0.3661254,-0.01973834
502.4696,0.04491836,-0.3282225,0.3967476,-0.2017621,-0.3664903,-0.01973064
502.4838,0.04491867,-0.3282104,0.3973638,-0.1986285,-0.3668593,-0.0197228
502.4984,0.04491867,-0.3282104,0.3973638,-0.1986285,-0.3668593,-0.0197228
502.5123,0.04491897,-0.3281983,0.3979783,-0.1955445,-0.3672323,-0.0197148
502.5279,0.04491928,-0.3281864,0.3985912,-0.1925094,-0.3676093,-0.01970665
502.5425,0.04491958,-0.3281747,0.3992026,-0.1895224,-0.3679903,-0.01969834
502.5572,0.04491958,-0.3281747,0.3992026,-0.1895224,-0.3679903,-0.01969834
502.5714,0.04491989,-0.3281631,0.3998127,-0.1865827,-0.3683752,-0.01968987
502.5868,0.04492019,-0.3281516,0.4004215,-0.1836895,-0.3687639,-0.01968124
502.6014,0.04492049,-0.3281403,0.4010293,-0.1808422,-0.3691565,-0.01967244
502.6164,0.04492049,-0.3281403,0.4010293,-0.1808422,-0.3691565,-0.01967244
502.6304,0.04492079,-0.3281291,0.4016359,-0.17804,-0.3695527,-0.01966347
502.6457,0.04492109,-0.328118,0.4022417,-0.1752822,-0.3699527,-0.01965433
502.6603,0.04492138,-0.3281071,0.4028466,-0.1725681,-0.3703563,-0.01964501
502.675,0.04492138,-0.3281071,0.4028466,-0.1725681,-0.3703563,-0.01964501
502.6889,0.04492168,-0.3280963,0.4034508,-0.169897,-0.3707634,-0.0196355
502.7053,0.04492198,-0.3280856,0.4040543,-0.1672682,-0.3711741,-0.01962581
502.7202,0.04492227,-0.3280751,0.4046572,-0.1646811,-0.3715882,-0.01961594
502.7337,0.04492227,-0.3280751,0.4046572,-0.1646811,-0.3715882,-0.01961594
502.748,0.04492256,-0.3280647,0.4052595,-0.162135,-0.3720057,-0.01960588
502.7631,0.04492285,-0.3280544,0.4058614,-0.1596292,-0.3724265,-0.01959562
502.7778,0.04492285,-0.3280544,0.4058614,-0.1596292,-0.3724265,-0.01959562
502.7918,0.04492315,-0.3280442,0.4064628,-0.1571631,-0.3728505,-0.01958516
502.8073,0.04492344,-0.3280342,0.4070638,-0.1547361,-0.3732777,-0.0195745
502.822,0.04492372,-0.3280242,0.4076645,-0.1523476,-0.373708,-0.01956364
502.837,0.04492372,-0.3280242,0.4076645,-0.1523476,-0.373708,-0.01956364
502.8509,0.04492401,-0.3280144,0.4083295,-0.1501398,-0.3742082,-0.01955731
502.8664,0.0449243,-0.3280047,0.4089945,-0.1480532,-0.3747131,-0.01954888
502.881,0.04492458,-0.3279952,0.4096472,-0.1460406,-0.3752092,-0.01953947
502.8956,0.04492458,-0.3279952,0.4096472,-0.1460406,-0.3752092,-0.01953947
502.9095,0.04492487,-0.3279857,0.4102885,-0.1440793,-0.3756969,-0.01952954
502.9252,0.04492516,-0.3279764,0.411507,-0.1433709,-0.3767835,-0.01956398
502.9398,0.04492516,-0.3279764,0.411507,-0.1433709,-0.3767835,-0.01956398
502.9536,0.04492546,-0.3279671,0.4127071,-0.1434132,-0.377866,-0.01958005
502.97,0.04492575,-0.327958,0.4137873,-0.1438051,-0.3788349,-0.01958827
502.9837,0.04492603,-0.327949,0.4147629,-0.1443571,-0.3797014,-0.01959312
502.9986,0.04492603,-0.327949,0.4147629,-0.1443571,-0.3797014,-0.01959312
503.0126,0.04492633,-0.3279401,0.4162559,-0.1461924,-0.3811049,-0.01964183
503.0285,0.04492662,-0.3279313,0.4176691,-0.1487725,-0.3824402,-0.01967055
503.0426,0.04492692,-0.3279227,0.4189239,-0.1516781,-0.3836208,-0.01969052
503.0574,0.04492692,-0.3279227,0.4189239,-0.1516781,-0.3836208,-0.01969052
503.0717,0.04492721,-0.3279141,0.4206151,-0.1559266,-0.3852572,-0.01974882
503.087,0.04492751,-0.3279056,0.4221729,-0.1609258,-0.3867709,-0.01978622
503.1017,0.04492781,-0.3278973,0.4235387,-0.1662335,-0.3880949,-0.01981403
503.1178,0.04492781,-0.3278973,0.4235387,-0.1662335,-0.3880949,-0.01981403
503.1308,0.0449281,-0.327889,0.424751,-0.1716415,-0.3892632,-0.01983691
503.1461,0.04492839,-0.3278808,0.4263561,-0.178271,-0.3908419,-0.01989177
503.1606,0.04492869,-0.3278728,0.4278427,-0.1855696,-0.3923117,-0.01992858
503.1752,0.04492869,-0.3278728,0.4278427,-0.1855696,-0.3923117,-0.01992858
503.1893,0.04492899,-0.3278648,0.4291479,-0.1931199,-0.3936012,-0.01995672
503.2047,0.04492928,-0.327857,0.4303024,-0.2007255,-0.3947366,-0.01998001
503.2204,0.04492955,-0.3278492,0.4308337,-0.2068545,-0.395215,-0.01996861
503.2351,0.04492955,-0.3278492,0.4308337,-0.2068545,-0.395215,-0.01996861
503.2485,0.04492982,-0.3278415,0.4312995,-0.2120696,-0.3956028,-0.01996927
503.2637,0.0449301,-0.3278339,0.4318087,-0.2168143,-0.3960191,-0.01997429
503.278,0.0449301,-0.3278339,0.4318087,-0.2168143,-0.3960191,-0.01997429
503.2923,0.04493037,-0.3278264,0.4323573,-0.2212993,-0.3964661,-0.01998071
503.3077,0.04493065,-0.327819,0.4329233,-0.2256249,-0.3969248,-0.01998738
503.3224,0.04493092,-0.3278116,0.4334889,-0.2298399,-0.3973788,-0.01999386
503.3372,0.04493092,-0.3278116,0.4334889,-0.2298399,-0.3973788,-0.01999386
503.3513,0.04493119,-0.3278044,0.4340432,-0.2339679,-0.3978181,-0.01999998
503.3669,0.04493136,-0.3277972,0.4345807,-0.2380207,-0.3982371,-0.0200057
503.3816,0.04493149,-0.3277901,0.4350988,-0.2420048,-0.3986334,-0.02001101
503.3963,0.04493149,-0.3277901,0.4350988,-0.2420048,-0.3986334,-0.02001101
503.41,0.04493161,-0.3277831,0.4355967,-0.2459235,-0.3990062,-0.02001593
503.4256,0.04493172,-0.3277762,0.4360746,-0.2497791,-0.3993556,-0.02002048
503.4401,0.04420441,-0.3277718,0.4374551,-0.2531596,-0.4004384,-0.02002395
503.455,0.04420441,-0.3277718,0.4374551,-0.2531596,-0.4004384,-0.02002395
503.4689,0.04302246,-0.3277684,0.4390959,-0.256361,-0.4016941,-0.02002701
503.4851,0.04155939,-0.3277654,0.4407527,-0.2595004,-0.4029224,-0.02002986
503.4998,0.04155939,-0.3277654,0.4407527,-0.2595004,-0.4029224,-0.02002986
503.5131,0.03919718,-0.3277644,0.4432436,-0.2622037,-0.4048019,-0.0200318
503.5283,0.03627914,-0.3277635,0.4459249,-0.2647739,-0.4067834,-0.02003347
503.5426,0.03302363,-0.3277623,0.448561,-0.2673239,-0.4086814,-0.02003501
503.5575,0.03302363,-0.3277623,0.448561,-0.2673239,-0.4086814,-0.02003501
503.5716,0.02956943,-0.3277608,0.451079,-0.2698864,-0.4104497,-0.02003642
503.5873,0.0252763,-0.3277604,0.4543515,-0.2720508,-0.4128164,-0.020037
503.6017,0.02047336,-0.3277596,0.4577777,-0.2741028,-0.4152687,-0.02003737
503.6164,0.02047336,-0.3277596,0.4577777,-0.2741028,-0.4152687,-0.02003737
503.6306,0.01536983,-0.3277583,0.4611382,-0.2761483,-0.4176333,-0.02003764
503.6461,0.01009857,-0.3277566,0.4643654,-0.2782172,-0.4198664,-0.02003783
503.6607,0.004015466,-0.3277558,0.4683281,-0.279901,-0.4226943,-0.02003723
503.6757,0.004015466,-0.3277558,0.4683281,-0.279901,-0.4226943,-0.02003723
503.6893,-0.002552866,-0.3277546,0.4724298,-0.2814833,-0.4256063,-0.02003644
503.7048,-0.009398922,-0.3277527,0.476453,-0.2830697,-0.4284292,-0.02003559
503.7194,-0.009398922,-0.3277527,0.476453,-0.2830697,-0.4284292,-0.02003559
503.7335,-0.0171194,-0.3277515,0.4812123,-0.2842831,-0.4318476,-0.02003398
503.7497,-0.02535759,-0.3277496,0.4860919,-0.285415,-0.4353362,-0.02003222
503.7645,-0.03388691,-0.3277468,0.49087,-0.2865715,-0.4387192,-0.02003043
503.7781,-0.03388691,-0.3277468,0.49087,-0.2865715,-0.4387192,-0.02003043
503.7922,-0.04256362,-0.3277426,0.4954793,-0.2877808,-0.4419523,-0.02002862
503.8074,-0.05202509,-0.3277396,0.5008072,-0.2886385,-0.4457857,-0.02002599
503.822,-0.06194054,-0.3277356,0.506248,-0.2894219,-0.449697,-0.02002322
503.8369,-0.06194054,-0.3277356,0.506248,-0.2894219,-0.449697,-0.02002322
503.851,-0.07209999,-0.3277298,0.5115835,-0.2902332,-0.4535097,-0.02002045
503.8667,-0.08237033,-0.3277223,0.5167484,-0.2911007,-0.457179,-0.02001769
503.8813,-0.09339578,-0.3277158,0.5226455,-0.2916258,-0.4614723,-0.02001405
503.8959,-0.09339578,-0.3277158,0.5226455,-0.2916258,-0.4614723,-0.02001405
503.9099,-0.10485,-0.3277081,0.5286554,-0.2920836,-0.4658515,-0.02001029
503.9254,-0.1165258,-0.3276983,0.5345556,-0.2925765,-0.4701345,-0.02000655
503.9399,-0.1165258,-0.3276983,0.5345556,-0.2925765,-0.4701345,-0.02000655
503.9539,-0.1290206,-0.3276891,0.5412074,-0.2927386,-0.4750591,-0.02000193
503.9692,-0.141978,-0.327678,0.5479615,-0.2928519,-0.4800612,-0.01999721
503.9846,-0.155172,-0.3276644,0.5545881,-0.2930193,-0.4849529,-0.01999252
503.9987,-0.155172,-0.3276644,0.5545881,-0.2930193,-0.4849529,-0.01999252
504.0147,-0.1684595,-0.3276485,0.5610212,-0.2932677,-0.4896883,-0.01998786
504.0281,-0.1824785,-0.3276332,0.5682101,-0.2932068,-0.4950865,-0.01998221
504.0427,-0.1968988,-0.3276162,0.575504,-0.293103,-0.5005758,-0.01997644
504.0575,-0.1968988,-0.3276162,0.575504,-0.293103,-0.5005758,-0.01997644
504.0715,-0.2115111,-0.3275968,0.5826731,-0.2930552,-0.5059643,-0.01997072
504.0868,-0.2261827,-0.3275752,0.58965,-0.2930904,-0.5112027,-0.01996505
504.1015,-0.2415586,-0.3275546,0.5974153,-0.2928259,-0.5171433,-0.01995828
504.1163,-0.2415586,-0.3275546,0.5974153,-0.2928259,-0.5171433,-0.01995828
504.1303,-0.257313,-0.3275321,0.6052919,-0.2925248,-0.5231864,-0.01995142
504.1456,-0.2732393,-0.3275073,0.6130416,-0.2922851,-0.5291305,-0.01994463
504.1608,-0.289207,-0.3274804,0.6205944,-0.2921343,-0.5349229,-0.0199379
504.1751,-0.289207,-0.3274804,0.6205944,-0.2921343,-0.5349229,-0.0199379
504.189,-0.3058621,-0.3274545,0.6289677,-0.2916978,-0.541455,-0.01992999
504.2043,-0.3228797,-0.3274268,0.6374558,-0.2912334,-0.5480973,-0.01992198
504.2189,-0.3228797,-0.3274268,0.6374558,-0.2912334,-0.5480973,-0.01992198
504.233,-0.3400539,-0.3273966,0.645812,-0.2908378,-0.5546388,-0.01991408
504.2486,-0.357983,-0.3273668,0.6550227,-0.2901705,-0.5619509,-0.01990497
504.2634,-0.3763115,-0.3273344,0.6643406,-0.2894937,-0.5693662,-0.01989578
504.2795,-0.3763115,-0.3273344,0.6643406,-0.2894937,-0.5693662,-0.01989578
504.2924,-0.3948144,-0.3272989,0.6735091,-0.2889041,-0.5766648,-0.01988673
504.3069,-0.4133493,-0.327261,0.6824564,-0.2884265,-0.5837922,-0.01987775
504.3216,-0.432555,-0.3272238,0.6922817,-0.287701,-0.5917266,-0.0198674
504.3363,-0.432555,-0.3272238,0.6922817,-0.287701,-0.5917266,-0.0198674
504.3502,-0.4521019,-0.3271844,0.7022229,-0.286972,-0.59978,-0.01985697
504.3657,-0.4717814,-0.3271423,0.7120174,-0.286331,-0.6077237,-0.01984668
504.3804,-0.4914618,-0.3270981,0.7215901,-0.2858028,-0.6154981,-0.01983651
504.3951,-0.4914618,-0.3270981,0.7215901,-0.2858028,-0.6154981,-0.01983651
504.4091,-0.5117885,-0.327055,0.7320889,-0.2850393,-0.6241321,-0.01982486
504.4244,-0.5324365,-0.3270099,0.7427114,-0.2842783,-0.6328958,-0.01981316
504.4392,-0.5324365,-0.3270099,0.7427114,-0.2842783,-0.6328958,-0.01981316
504.4531,-0.5531999,-0.3269622,0.7531812,-0.2836099,-0.6415458,-0.01980166
504.4685,-0.5746771,-0.326915,0.7646177,-0.282722,-0.6510928,-0.01978867
504.4832,-0.596513,-0.3268649,0.7761679,-0.2818547,-0.6607593,-0.01977569
504.4978,-0.596513,-0.3268649,0.7761679,-0.2818547,-0.6607593,-0.01977569
504.5118,-0.6184829,-0.3268116,0.7875432,-0.2810975,-0.6702908,-0.01976297
504.5273,-0.6404449,-0.3267559,0.798664,-0.2804733,-0.6796233,-0.01975045
504.5419,-0.6625309,-0.3266995,0.8099038,-0.2798809,-0.6891001,-0.01973749
504.5573,-0.6625309,-0.3266995,0.8099038,-0.2798809,-0.6891001,-0.01973749
504.5713,-0.6846023,-0.3266421,0.8210047,-0.2793788,-0.6984865,-0.01972464
504.5856,-0.7065719,-0.3265841,0.8318857,-0.2789836,-0.7077112,-0.01971198
504.6006,-0.7283857,-0.3265262,0.8425282,-0.2786944,-0.7167595,-0.01969953
504.6152,-0.7283857,-0.3265262,0.8425282,-0.2786944,-0.7167595,-0.01969953
504.6292,-0.7500102,-0.326469,0.8529336,-0.2785043,-0.7256337,-0.01968728
504.6443,-0.7714251,-0.3264129,0.8631073,-0.2784052,-0.7343388,-0.01967527
504.6591,-0.7714251,-0.3264129,0.8631073,-0.2784052,-0.7343388,-0.01967527
504.6732,-0.7926188,-0.3263583,0.8730538,-0.2783898,-0.7428784,-0.0196635
504.6887,-0.8135846,-0.3263054,0.8827755,-0.2784517,-0.7512537,-0.01965201
504.7035,-0.8343195,-0.3262543,0.8922736,-0.2785858,-0.7594644,-0.01964083
504.7181,-0.8343195,-0.3262543,0.8922736,-0.2785858,-0.7594644,-0.01964083
504.7323,-0.8548226,-0.3262051,0.9015472,-0.2787878,-0.7675085,-0.01962997
504.7478,-0.8750942,-0.3261579,0.9105952,-0.279054,-0.7753835,-0.01961944
504.7625,-0.8951355,-0.3261127,0.9194158,-0.2793811,-0.7830861,-0.01960926
504.7768,-0.8951355,-0.3261127,0.9194158,-0.2793811,-0.7830861,-0.01960926
504.7909,-0.9149482,-0.3260694,0.928007,-0.2797663,-0.7906134,-0.01959944
504.8084,-0.9345344,-0.326028,0.936367,-0.2802067,-0.7979621,-0.01959
504.8221,-0.9538962,-0.3259886,0.9444939,-0.2807,-0.8051293,-0.01958092
504.8357,-0.9538962,-0.3259886,0.9444939,-0.2807,-0.8051293,-0.01958092
504.85,-0.973036,-0.325951,0.9523861,-0.2812437,-0.812112,-0.01957222
504.8653,-0.9919562,-0.3259152,0.9600418,-0.2818353,-0.8189077,-0.01956389
504.8798,-0.9919562,-0.3259152,0.9600418,-0.2818353,-0.8189077,-0.01956389
504.8937,-1.010659,-0.3258812,0.9674601,-0.2824728,-0.825514,-0.01955594
504.9091,-1.029148,-0.3258488,0.97464,-0.2831538,-0.8319291,-0.01954835
504.9242,-1.047423,-0.3258182,0.981581,-0.2838762,-0.8381515,-0.01954114
504.9388,-1.047423,-0.3258182,0.981581,-0.2838762,-0.8381515,-0.01954114
504.9529,-1.06549,-0.3257891,0.9882827,-0.2846378,-0.8441795,-0.0195343
504.9683,-1.083348,-0.3257616,0.9947451,-0.2854367,-0.8500122,-0.01952782
504.983,-1.101001,-0.3257356,1.000968,-0.2862708,-0.8556488,-0.01952168
504.9976,-1.101001,-0.3257356,1.000968,-0.2862708,-0.8556488,-0.01952168
505.0118,-1.118452,-0.3257111,1.006953,-0.2871382,-0.8610891,-0.01951591
505.0276,-1.135702,-0.325688,1.0127,-0.2880369,-0.8663327,-0.01951047
505.0455,-1.152754,-0.3256663,1.018211,-0.2889651,-0.8713797,-0.01950537
505.0591,-1.152754,-0.3256663,1.018211,-0.2889651,-0.8713797,-0.01950537
505.0727,-1.16961,-0.325646,1.023486,-0.289921,-0.8762306,-0.0195006
505.0883,-1.186272,-0.3256269,1.028527,-0.2909028,-0.8808858,-0.01949615
505.1054,-1.202743,-0.3256092,1.033337,-0.2919088,-0.8853465,-0.01949202
505.1196,-1.202743,-0.3256092,1.033337,-0.2919088,-0.8853465,-0.01949202
505.1352,-1.218803,-0.3255919,1.037487,-0.2930101,-0.8892152,-0.01948877
505.1559,-1.234539,-0.3255762,1.041294,-0.2941538,-0.8927866,-0.01948586
505.1706,-1.250004,-0.3255622,1.044871,-0.2953162,-0.8961655,-0.01948315
505.1842,-1.265234,-0.3255499,1.048253,-0.2964878,-0.8993835,-0.01948066
505.1997,-1.265234,-0.3255499,1.048253,-0.2964878,-0.8993835,-0.01948066
505.2164,-1.279526,-0.3255369,1.050047,-0.2978993,-0.9011414,-0.01948027
505.2364,-1.293166,-0.3255262,1.051277,-0.2993866,-0.902401,-0.01948023
505.252,-1.306341,-0.3255185,1.052307,-0.3008783,-0.9034993,-0.0194802
505.2682,-1.319168,-0.3255138,1.053246,-0.3023489,-0.9045329,-0.01948022
505.2837,-1.330994,-0.3255093,1.052729,-0.3040248,-0.9042278,-0.0194821
505.299,-1.330994,-0.3255093,1.052729,-0.3040248,-0.9042278,-0.0194821
505.3156,-1.342141,-0.3255075,1.051757,-0.3057473,-0.9035217,-0.01948423
505.3308,-1.352814,-0.3255074,1.050676,-0.3074492,-0.9027332,-0.01948633
505.3479,-1.363145,-0.3255085,1.049579,-0.3091092,-0.9019465,-0.01948838
505.3641,-1.37249,-0.3255092,1.047126,-0.3109595,-0.8999091,-0.01949212
505.3792,-1.37249,-0.3255092,1.047126,-0.3109595,-0.8999091,-0.01949212
505.3942,-1.381175,-0.3255109,1.044289,-0.3128426,-0.8975316,-0.01949605
505.4102,-1.389408,-0.3255138,1.041403,-0.3146943,-0.8951238,-0.01949986
505.426,-1.397324,-0.3255184,1.038559,-0.3164951,-0.8927672,-0.01950349
505.4417,-1.404277,-0.3255225,1.034449,-0.3184817,-0.8892404,-0.01950867
505.4575,-1.404277,-0.3255225,1.034449,-0.3184817,-0.8892404,-0.01950867
505.4727,-1.410597,-0.3255283,1.030018,-0.3204953,-0.8854283,-0.01951393
505.489,-1.416492,-0.3255364,1.025593,-0.3224717,-0.8816327,-0.01951899
505.5048,-1.422095,-0.3255466,1.021259,-0.3243911,-0.8779308,-0.01952381
505.5203,-1.426762,-0.3255561,1.015748,-0.3264968,-0.8731397,-0.01953002
505.5358,-1.426762,-0.3255561,1.015748,-0.3264968,-0.8731397,-0.01953002
505.5507,-1.430821,-0.3255668,1.009975,-0.3286259,-0.8681148,-0.01953628
505.5672,-1.434481,-0.325579,1.004257,-0.3307134,-0.8631483,-0.01954227
505.5828,-1.437874,-0.3255926,0.9986741,-0.3327392,-0.8583146,-0.01954799
505.5987,-1.437874,-0.3255926,0.9986741,-0.3327392,-0.8583146,-0.01954799
505.6135,-1.440357,-0.325605,0.9920036,-0.3349556,-0.8524739,-0.01955495
505.6299,-1.442258,-0.3256176,0.9851277,-0.3371939,-0.846449,-0.01956192
505.6455,-1.443783,-0.3256308,0.9783505,-0.3393873,-0.8405216,-0.0195686
505.6609,-1.445066,-0.3256448,0.9717501,-0.3415157,-0.8347632,-0.01957495
505.6766,-1.445066,-0.3256448,0.9717501,-0.3415157,-0.8347632,-0.01957495
505.6914,-1.445464,-0.3256569,0.96415,-0.3438413,-0.8280796,-0.01958242
505.7078,-1.445302,-0.3256684,0.9563982,-0.3461882,-0.82126,-0.01958986
505.7238,-1.44479,-0.3256798,0.9487859,-0.3484878,-0.8145739,-0.01959699
505.7393,-1.44479,-0.3256798,0.9487859,-0.3484878,-0.8145739,-0.01959699
505.7556,-1.443332,-0.325689,0.9402506,-0.3509908,-0.8070353,-0.01960512
505.7707,-1.441284,-0.325697,0.9316339,-0.3535094,-0.7994251,-0.01961316
505.7864,-1.438874,-0.3257043,0.9232193,-0.3559713,-0.7920058,-0.01962083
505.8018,-1.436245,-0.3257113,0.9150726,-0.3583562,-0.7848381,-0.0196281
505.8174,-1.436245,-0.3257113,0.9150726,-0.3583562,-0.7848381,-0.0196281
505.8326,-1.432763,-0.3257157,0.9061008,-0.3609481,-0.7769098,-0.01963628
505.8493,-1.428757,-0.3257183,0.8970789,-0.3635581,-0.7689383,-0.01964437
505.865,-1.42444,-0.3257198,0.8882717,-0.3661136,-0.7611683,-0.0196521
505.8806,-1.419944,-0.325721,0.8797435,-0.3685936,-0.753659,-0.01965944
505.8964,-1.419944,-0.325721,0.8797435,-0.3685936,-0.753659,-0.01965944
505.9111,-1.414626,-0.3257204,0.870458,-0.3712941,-0.7454544,-0.01966758
505.9274,-1.408814,-0.3257187,0.8611537,-0.3740161,-0.7372354,-0.01967562
505.9431,-1.402715,-0.3257162,0.8520842,-0.376683,-0.7292355,-0.0196833
505.9587,-1.402715,-0.3257162,0.8520842,-0.376683,-0.7292355,-0.0196833
505.9738,-1.396461,-0.3257131,0.8433107,-0.3792722,-0.7215113,-0.01969058
505.9903,-1.389408,-0.3257073,0.8338502,-0.3820911,-0.7131593,-0.0196986
506.006,-1.381881,-0.3256996,0.8244033,-0.384932,-0.7048225,-0.01970652
506.0215,-1.374088,-0.3256904,0.8152111,-0.3877151,-0.6967223,-0.01971408
506.0371,-1.374088,-0.3256904,0.8152111,-0.3877151,-0.6967223,-0.01971408
506.0521,-1.36616,-0.3256802,0.8063307,-0.390417,-0.6889116,-0.01972125
506.0685,-1.357452,-0.325667,0.7968316,-0.3933571,-0.6805391,-0.01972908
506.084,-1.348291,-0.3256516,0.7873753,-0.3963188,-0.6722087,-0.01973679
506.0998,-1.348291,-0.3256516,0.7873753,-0.3963188,-0.6722087,-0.01973679
506.1151,-1.338881,-0.3256344,0.7781895,-0.3992193,-0.6641287,-0.01974415
506.1314,-1.329356,-0.3256161,0.7693273,-0.4020345,-0.656348,-0.01975112
506.1471,-1.319069,-0.3255947,0.7599093,-0.4050953,-0.6480667,-0.01975868
506.1624,-1.308346,-0.3255709,0.7505586,-0.4081766,-0.63985,-0.01976611
506.178,-1.308346,-0.3255709,0.7505586,-0.4081766,-0.63985,-0.01976611
506.1931,-1.297394,-0.3255451,0.7414895,-0.4111929,-0.6318931,-0.01977321
506.2094,-1.286344,-0.3255181,0.7327515,-0.4141191,-0.6242414,-0.01977993
506.2254,-1.27455,-0.3254881,0.7235146,-0.4172975,-0.6161445,-0.01978715
506.241,-1.262337,-0.3254555,0.7143649,-0.4204946,-0.6081305,-0.01979426
506.2567,-1.262337,-0.3254555,0.7143649,-0.4204946,-0.6081305,-0.01979426
506.2714,-1.249912,-0.3254208,0.7055038,-0.4236224,-0.6003814,-0.01980105
506.2877,-1.237406,-0.3253848,0.6969772,-0.4266551,-0.5929395,-0.01980748
506.3033,-1.224172,-0.3253458,0.6880029,-0.4299455,-0.5851024,-0.01981435
506.3201,-1.210537,-0.3253041,0.6791312,-0.4332524,-0.5773619,-0.01982109
506.3348,-1.210537,-0.3253041,0.6791312,-0.4332524,-0.5773619,-0.01982109
506.3498,-1.196706,-0.3252603,0.6705512,-0.4364853,-0.5698881,-0.01982753
506.3661,-1.18281,-0.3252152,0.6623055,-0.439618,-0.5627197,-0.01983362
506.3821,-1.168203,-0.3251671,0.6536576,-0.4430128,-0.5552005,-0.0198401
506.3976,-1.168203,-0.3251671,0.6536576,-0.4430128,-0.5552005,-0.0198401
506.4124,-1.15321,-0.3251163,0.6451235,-0.4464216,-0.5477879,-0.01984646
506.4287,-1.138037,-0.3250633,0.6368812,-0.4497516,-0.5406404,-0.01985252
506.4444,-1.122814,-0.325009,0.6289698,-0.452976,-0.5337934,-0.01985826
506.46,-1.122814,-0.325009,0.6289698,-0.452976,-0.5337934,-0.01985826
506.4752,-1.106895,-0.3249519,0.6206961,-0.456466,-0.5266349,-0.01986433
506.4919,-1.090606,-0.3248919,0.6125444,-0.4599673,-0.5195894,-0.01987028
506.5074,-1.074151,-0.3248298,0.6046812,-0.4633848,-0.5128045,-0.01987596
506.5229,-1.057661,-0.3247665,0.5971432,-0.4666915,-0.5063131,-0.01988134
506.5385,-1.057661,-0.3247665,0.5971432,-0.4666915,-0.5063131,-0.01988134
506.5534,-1.040491,-0.3247003,0.5892779,-0.4702666,-0.4995439,-0.01988699
506.5698,-1.022964,-0.3246314,0.5815392,-0.47385,-0.4928913,-0.01989254
506.5857,-1.005286,-0.3245603,0.5740839,-0.4773447,-0.4864926,-0.01989783
506.6014,-0.9875866,-0.3244881,0.566946,-0.4807233,-0.480378,-0.01990282
506.6171,-0.9875866,-0.3244881,0.566946,-0.4807233,-0.480378,-0.01990282
506.6322,-0.9692206,-0.3244132,0.5595109,-0.4843726,-0.4740151,-0.01990806
506.6484,-0.950512,-0.3243355,0.5522047,-0.488027,-0.4677698,-0.0199132
506.6639,-0.9316662,-0.3242558,0.5451749,-0.4915881,-0.4617697,-0.0199181
506.6794,-0.9316662,-0.3242558,0.5451749,-0.4915881,-0.4617697,-0.0199181
506.6947,-0.9120851,-0.3241726,0.5378768,-0.4954202,-0.4555477,-0.01992321
506.7108,-0.8921234,-0.3240857,0.5307298,-0.4992455,-0.449461,-0.01992819
506.7268,-0.8720059,-0.3239961,0.5238753,-0.5029631,-0.4436319,-0.01993293
506.7423,-0.8518746,-0.323905,0.5173402,-0.5065463,-0.4380844,-0.01993739
506.7593,-0.8518746,-0.323905,0.5173402,-0.5065463,-0.4380844,-0.01993739
506.7731,-0.831091,-0.323811,0.5105676,-0.5103951,-0.4323451,-0.01994203
506.7892,-0.8099842,-0.3237141,0.5039358,-0.5142376,-0.4267317,-0.01994655
506.8049,-0.7887624,-0.323615,0.497575,-0.5179744,-0.4213548,-0.01995085
506.8205,-0.767557,-0.3235149,0.4915114,-0.5215784,-0.4162374,-0.01995489
506.8363,-0.767557,-0.3235149,0.4915114,-0.5215784,-0.4162374,-0.01995489
506.8516,-0.7457231,-0.3234125,0.4852217,-0.5254536,-0.4109398,-0.01995911
506.868,-0.7235851,-0.3233074,0.4790641,-0.5293234,-0.4057587,-0.01996323
506.8833,-0.7013487,-0.3232005,0.4731628,-0.5330859,-0.4007984,-0.01996714
506.899,-0.7013487,-0.3232005,0.4731628,-0.5330859,-0.4007984,-0.01996714
506.9142,-0.6791433,-0.3230927,0.4675439,-0.5367131,-0.3960815,-0.01997084
506.9304,-0.6563228,-0.322983,0.4617134,-0.5406136,-0.3911984,-0.01997467
506.9462,-0.6332109,-0.3228708,0.4560095,-0.5445068,-0.3864251,-0.01997841
506.9617,-0.6100125,-0.3227569,0.4505502,-0.5482896,-0.3818597,-0.01998195
506.9774,-0.6100125,-0.3227569,0.4505502,-0.5482896,-0.3818597,-0.01998195
506.9923,-0.5868567,-0.3226423,0.4453604,-0.5519338,-0.3775236,-0.0199853
507.0089,-0.5632691,-0.3225265,0.4400803,-0.5557547,-0.3731224,-0.01998869
507.0244,-0.5395087,-0.3224093,0.4349494,-0.5595379,-0.3688484,-0.01999197
507.0398,-0.5395087,-0.3224093,0.4349494,-0.5595379,-0.3688484,-0.01999197
507.0551,-0.515739,-0.3222915,0.4300481,-0.5632068,-0.3647675,-0.01999508
507.0713,-0.492063,-0.3221741,0.4253903,-0.5667419,-0.3608915,-0.01999801
507.0871,-0.4685451,-0.3220582,0.4209649,-0.5701455,-0.3572114,-0.02000077
507.1027,-0.445225,-0.3219447,0.4167545,-0.5734268,-0.3537123,-0.02000337
507.1185,-0.445225,-0.3219447,0.4167545,-0.5734268,-0.3537123,-0.02000337
507.1335,-0.4221271,-0.3218343,0.4127414,-0.5765954,-0.3503791,-0.02000584
507.1496,-0.3992656,-0.3217276,0.4089107,-0.5796596,-0.3471985,-0.02000817
507.1653,-0.3766488,-0.3216249,0.40525,-0.5826262,-0.3441596,-0.02001039
507.1807,-0.3542805,-0.3215266,0.4017491,-0.5855004,-0.3412531,-0.0200125
507.1962,-0.3542805,-0.3215266,0.4017491,-0.5855004,-0.3412531,-0.0200125
507.2105,-0.3321624,-0.3214326,0.3983995,-0.5882862,-0.3384713,-0.02001451
507.2263,-0.3102943,-0.3213431,0.3951938,-0.5909868,-0.3358076,-0.02001642
507.2418,-0.2886751,-0.3212582,0.3921258,-0.5936051,-0.3332562,-0.02001824
507.2567,-0.2886751,-0.3212582,0.3921258,-0.5936051,-0.3332562,-0.02001824
507.273,-0.267303,-0.3211776,0.3891897,-0.5961431,-0.330812,-0.02001997
507.2865,-0.246176,-0.3211015,0.3863802,-0.598603,-0.3284703,-0.02002163
507.3014,-0.2252916,-0.3210296,0.3836925,-0.6009864,-0.3262267,-0.02002322
507.3162,-0.2252916,-0.3210296,0.3836925,-0.6009864,-0.3262267,-0.02002322
507.33,-0.211021,-0.3209825,0.3845353,-0.5995914,-0.3267547,-0.02002262
507.3455,-0.2009708,-0.3209676,0.3864241,-0.5970645,-0.3281525,-0.02002128
507.3603,-0.1936184,-0.3209757,0.3883742,-0.5944395,-0.3296301,-0.02001987
507.3749,-0.1936184,-0.3209757,0.3883742,-0.5944395,-0.3296301,-0.02001987
507.389,-0.1879946,-0.3210014,0.3900732,-0.59206,-0.3309212,-0.02001866
507.4046,-0.1834823,-0.3210393,0.3914742,-0.5899897,-0.3319745,-0.02001765
507.4191,-0.1834823,-0.3210393,0.3914742,-0.5899897,-0.3319745,-0.02001765
507.4334,-0.1796884,-0.3210854,0.3926221,-0.5881934,-0.3328187,-0.02001684
507.4488,-0.1763624,-0.3211366,0.3935809,-0.5866116,-0.3335023,-0.02001618
507.4636,-0.1733448,-0.3211909,0.3969835,-0.5851709,-0.3376061,-0.02002093
507.4785,-0.1733448,-0.3211909,0.3969835,-0.5851709,-0.3376061,-0.02002093
507.4921,-0.1705339,-0.321247,0.4010018,-0.5838187,-0.3431653,-0.02002181
507.5097,-0.1678648,-0.3213041,0.4048443,-0.5825317,-0.3491082,-0.02002143
507.5235,-0.1652962,-0.3213615,0.4083382,-0.5812969,-0.3550513,-0.02002073
507.5372,-0.1652962,-0.3213615,0.4083382,-0.5812969,-0.3550513,-0.02002073
507.5512,-0.1628014,-0.3214189,0.4103967,-0.5801122,-0.3593599,-0.0200176
507.5665,-0.1603636,-0.3214762,0.4118886,-0.5789725,-0.3628616,-0.02001632
507.5812,-0.1579718,-0.321533,0.4132317,-0.5778683,-0.3660314,-0.0200157
507.5959,-0.1579718,-0.321533,0.4132317,-0.5778683,-0.3660314,-0.0200157
507.6097,-0.1556189,-0.3215895,0.4134506,-0.5767982,-0.3675475,-0.02001279
507.6263,-0.1533004,-0.3216454,0.4133722,-0.5757608,-0.3683252,-0.02001175
507.6399,-0.1533004,-0.3216454,0.4133722,-0.5757608,-0.3683252,-0.02001175
507.6539,-0.1510132,-0.3217009,0.4133487,-0.5747481,-0.3688564,-0.02001131
507.6694,-0.1487552,-0.3217558,0.4134567,-0.5737522,-0.369322,-0.02001101
507.6841,-0.1465251,-0.3218102,0.4125763,-0.5727769,-0.3682822,-0.02000817
507.6988,-0.1465251,-0.3218102,0.4125763,-0.5727769,-0.3682822,-0.02000817
507.7129,-0.1443217,-0.321864,0.4114688,-0.5718266,-0.3665912,-0.02000712
507.7284,-0.1421445,-0.3219173,0.4104604,-0.5708959,-0.3647154,-0.02000666
507.7432,-0.1399928,-0.3219701,0.4096173,-0.5699781,-0.3628248,-0.02000634
507.7577,-0.1399928,-0.3219701,0.4096173,-0.5699781,-0.3628248,-0.02000634
507.7738,-0.1378661,-0.3220223,0.4078143,-0.5690776,-0.3594794,-0.02000348
507.7883,-0.1357641,-0.322074,0.4058089,-0.5682008,-0.3555269,-0.02000241
507.8021,-0.1336863,-0.3221251,0.4039266,-0.5673421,-0.3514306,-0.02000194
507.8166,-0.1336863,-0.3221251,0.4039266,-0.5673421,-0.3514306,-0.02000194
507.8306,-0.1316326,-0.3221757,0.4011233,-0.5665026,-0.345866,-0.0199991
507.8459,-0.1296024,-0.3222258,0.3981735,-0.5656873,-0.3397204,-0.01999808
507.8607,-0.1275957,-0.3222754,0.3954008,-0.564889,-0.3334703,-0.01999765
507.8752,-0.1275957,-0.3222754,0.3954008,-0.564889,-0.3334703,-0.01999765
507.8892,-0.125612,-0.3223244,0.3928643,-0.5640998,-0.3272874,-0.01999736
507.9049,-0.1236512,-0.322373,0.3894277,-0.563323,-0.3197332,-0.01999468
507.9196,-0.1236512,-0.322373,0.3894277,-0.563323,-0.3197332,-0.01999468
507.9337,-0.1217129,-0.322421,0.3858437,-0.5625666,-0.3116513,-0.01999372
507.949,-0.1197969,-0.3224685,0.3824351,-0.5618244,-0.303502,-0.01999332
507.964,-0.1179029,-0.3225156,0.3792662,-0.5610895,-0.2954522,-0.01999308
507.9788,-0.1179029,-0.3225156,0.3792662,-0.5610895,-0.2954522,-0.01999308
507.9927,-0.1160307,-0.3225622,0.3752023,-0.5603642,-0.2860612,-0.01999061
508.0084,-0.11418,-0.3226082,0.3710022,-0.5596571,-0.2761735,-0.01998976
508.024,-0.1123506,-0.3226538,0.3669927,-0.5589621,-0.2662497,-0.01998946
508.0386,-0.1123506,-0.3226538,0.3669927,-0.5589621,-0.2662497,-0.01998946
508.052,-0.1105422,-0.322699,0.3621197,-0.5582779,-0.2549616,-0.0199872
508.0672,-0.1087547,-0.3227436,0.357163,-0.557611,-0.2431967,-0.0199865
508.0819,-0.1069876,-0.3227878,0.3524475,-0.556954,-0.2314293,-0.0199863
508.0965,-0.1069876,-0.3227878,0.3524475,-0.556954,-0.2314293,-0.0199863
508.1106,-0.1052409,-0.3228315,0.3480319,-0.556299,-0.2198293,-0.01998626
508.1261,-0.1035143,-0.3228748,0.342768,-0.5556463,-0.2069514,-0.01998442
508.1407,-0.1018075,-0.3229176,0.3374152,-0.5550051,-0.1936428,-0.01998392
508.1554,-0.1018075,-0.3229176,0.3374152,-0.5550051,-0.1936428,-0.01998392
508.1694,-0.1001204,-0.3229599,0.3322982,-0.5543697,-0.1803631,-0.01998385
508.1848,-0.09845264,-0.3230019,0.3274796,-0.5537334,-0.1672768,-0.01998391
508.1997,-0.09845264,-0.3230019,0.3274796,-0.5537334,-0.1672768,-0.01998391
508.2137,-0.09680406,-0.3230433,0.3218126,-0.5530956,-0.1529357,-0.01998257
508.2293,-0.09517444,-0.3230844,0.3160632,-0.5524657,-0.1381889,-0.01998229
508.2439,-0.09356356,-0.323125,0.3105595,-0.5518383,-0.1234969,-0.01998237
508.2588,-0.09356356,-0.323125,0.3105595,-0.5518383,-0.1234969,-0.01998237
508.2726,-0.0919712,-0.3231652,0.304236,-0.551209,-0.1075242,-0.01998144
508.2891,-0.09039715,-0.3232049,0.2978786,-0.5505854,-0.09116225,-0.01998136
508.3028,-0.08884121,-0.3232443,0.2918136,-0.5499613,-0.07488513,-0.01998155
508.3182,-0.08884121,-0.3232443,0.2918136,-0.5499613,-0.07488513,-0.01998155
508.3315,-0.08730315,-0.3232832,0.2860975,-0.5493304,-0.05885999,-0.01998182
508.3468,-0.08578279,-0.3233217,0.2795723,-0.5486893,-0.04163733,-0.01998154
508.3611,-0.0842799,-0.3233598,0.2730013,-0.5480474,-0.02406637,-0.01998171
508.3759,-0.0842799,-0.3233598,0.2730013,-0.5480474,-0.02406637,-0.01998171
508.3898,-0.0827943,-0.3233975,0.2667097,-0.5474008,-0.006605987,-0.01998202
508.4052,-0.08132578,-0.3234348,0.260759,-0.5467449,0.01058139,-0.01998236
508.4199,-0.08132578,-0.3234348,0.260759,-0.5467449,0.01058139,-0.01998236
508.4341,-0.07987416,-0.3234718,0.2539955,-0.546075,0.0289434,-0.01998273
508.4494,-0.07843922,-0.3235083,0.2471854,-0.5454005,0.04763275,-0.01998314
508.4644,-0.07702079,-0.3235444,0.2406565,-0.5447183,0.06619113,-0.01998353
508.4789,-0.07702079,-0.3235444,0.2406565,-0.5447183,0.06619113,-0.01998353
508.493,-0.07561867,-0.3235801,0.2333407,-0.5440209,0.0859483,-0.01998441
508.5083,-0.07423268,-0.3236155,0.22602,-0.5433164,0.1060192,-0.01998498
508.523,-0.07286263,-0.3236505,0.2190199,-0.5426017,0.1259331,-0.01998539
508.5378,-0.07286263,-0.3236505,0.2190199,-0.5426017,0.1259331,-0.01998539
508.5539,-0.07150833,-0.3236851,0.2123972,-0.541874,0.1455247,-0.01998574
508.5673,-0.07016961,-0.3237194,0.2049973,-0.5411258,0.166228,-0.01998726
508.5819,-0.06884629,-0.3237533,0.197572,-0.5403662,0.1872081,-0.01998799
508.5966,-0.06884629,-0.3237533,0.197572,-0.5403662,0.1872081,-0.01998799
508.6104,-0.06753819,-0.3237868,0.1904449,-0.5395945,0.2080118,-0.0199884
508.6257,-0.06624514,-0.32382,0.1836786,-0.5388094,0.2284779,-0.01998868
508.6405,-0.06496695,-0.3238528,0.1761309,-0.5380026,0.2500278,-0.01999076
508.6551,-0.06496695,-0.3238528,0.1761309,-0.5380026,0.2500278,-0.01999076
508.669,-0.06370347,-0.3238853,0.168548,-0.5371827,0.2718377,-0.01999159
508.6844,-0.06245452,-0.3239174,0.161255,-0.5363503,0.2934577,-0.01999192
508.6996,-0.06245452,-0.3239174,0.161255,-0.5363503,0.2934577,-0.01999192
508.7135,-0.06121994,-0.3239492,0.1532024,-0.5354956,0.3161835,-0.01999438
508.7288,-0.05999956,-0.3239806,0.1451469,-0.5346273,0.3391606,-0.01999523
508.7439,-0.05879321,-0.3240117,0.1374117,-0.5337467,0.3619282,-0.01999547
508.7582,-0.05879321,-0.3240117,0.1374117,-0.5337467,0.3619282,-0.01999547
508.7725,-0.05760074,-0.3240425,0.1300585,-0.532855,0.3843209,-0.01999549
508.7881,-0.05642199,-0.324073,0.1230659,-0.5319539,0.4062883,-0.01999545
508.8038,-0.0552568,-0.3241031,0.1163937,-0.5310453,0.4278229,-0.01999537
508.8185,-0.0552568,-0.3241031,0.1163937,-0.5310453,0.4278229,-0.01999537
508.8326,-0.05410501,-0.3241329,0.1100044,-0.5301309,0.4489316,-0.01999528
508.8471,-0.05296646,-0.3241624,0.1038682,-0.5292123,0.4696255,-0.01999516
508.8617,-0.05184102,-0.3241916,0.09905539,-0.5283043,0.4885017,-0.01999186
508.8764,-0.05184102,-0.3241916,0.09905539,-0.5283043,0.4885017,-0.01999186
508.8904,-0.05072852,-0.3242205,0.09481234,-0.527405,0.5063348,-0.01999063
508.9057,-0.04962882,-0.3242491,0.09077247,-0.5265134,0.5235747,-0.01999013
508.9204,-0.04854177,-0.3242773,0.08682415,-0.5256276,0.5404027,-0.01998984
508.9353,-0.04854177,-0.3242773,0.08682415,-0.5256276,0.5404027,-0.01998984
508.9493,-0.04746722,-0.3243053,0.0840294,-0.5247604,0.555497,-0.01998626
508.9649,-0.04640504,-0.324333,0.08167741,-0.5239113,0.5696303,-0.01998482
508.9796,-0.04640504,-0.324333,0.08167741,-0.5239113,0.5696303,-0.01998482
508.9937,-0.04535507,-0.3243603,0.07943066,-0.523077,0.5832485,-0.01998413
509.0093,-0.04431719,-0.3243874,0.0782714,-0.5222675,0.5951501,-0.01998029
509.0243,-0.04329124,-0.3244142,0.07748484,-0.5214823,0.6061355,-0.01997868
509.0389,-0.04329124,-0.3244142,0.07748484,-0.5214823,0.6061355,-0.01997868
509.0553,-0.04227711,-0.3244407,0.07673906,-0.5207158,0.6166611,-0.01997784
509.0688,-0.04127463,-0.3244669,0.07594854,-0.5199623,0.6269091,-0.0199772
509.0835,-0.04028369,-0.3244929,0.07618103,-0.5192324,0.6355837,-0.01997322
509.0982,-0.04028369,-0.3244929,0.07618103,-0.5192324,0.6355837,-0.01997322
509.1121,-0.03930416,-0.3245185,0.07676435,-0.5185288,0.643427,-0.01997142
509.1276,-0.03833589,-0.3245439,0.07737551,-0.5178459,0.6508731,-0.01997038
509.1421,-0.03737877,-0.324569,0.07792674,-0.5171772,0.6580972,-0.01996958
509.157,-0.03737877,-0.324569,0.07792674,-0.5171772,0.6580972,-0.01996958
509.1712,-0.03643266,-0.3245939,0.07947612,-0.5165328,0.6638123,-0.01996546
509.1867,-0.03549743,-0.3246185,0.08135682,-0.5159169,0.6687496,-0.01996352
509.2013,-0.03457297,-0.3246428,0.08324446,-0.5153228,0.6733394,-0.01996236
509.2162,-0.03457297,-0.3246428,0.08324446,-0.5153228,0.6733394,-0.01996236
509.2302,-0.03365915,-0.3246668,0.08610764,-0.5147572,0.6764075,-0.0199581
509.2457,-0.03275584,-0.3246906,0.08925751,-0.5142228,0.6787229,-0.01995606
509.2605,-0.03186292,-0.3247141,0.09236587,-0.513711,0.6807305,-0.01995482
509.2753,-0.03186292,-0.3247141,0.09236587,-0.513711,0.6807305,-0.01995482
509.2916,-0.03098029,-0.3247374,0.09534436,-0.513213,0.6826105,-0.01995385
509.305,-0.03010781,-0.3247604,0.09924848,-0.5127376,0.6830886,-0.01994959
509.3198,-0.03010781,-0.3247604,0.09924848,-0.5127376,0.6830886,-0.01994959
509.3338,-0.02924537,-0.3247832,0.1034224,-0.5122908,0.6828848,-0.01994748
509.3493,-0.02839286,-0.3248057,0.1075451,-0.5118654,0.6824245,-0.01994617
509.364,-0.02755015,-0.324828,0.1115266,-0.5114526,0.6818809,-0.01994513
509.3787,-0.02755015,-0.324828,0.1115266,-0.5114526,0.6818809,-0.01994513
509.3928,-0.02671715,-0.32485,0.1164191,-0.5110611,0.6799787,-0.0199408
509.4082,-0.02589374,-0.3248718,0.1215644,-0.5106983,0.6774353,-0.01993865
509.4231,-0.0250798,-0.3248933,0.1266391,-0.5103562,0.674675,-0.0199373
509.4384,-0.0250798,-0.3248933,0.1266391,-0.5103562,0.674675,-0.0199373
509.4521,-0.02427523,-0.3249147,0.13261,-0.5100397,0.6705281,-0.01993284
509.4677,-0.02347993,-0.3249358,0.1387912,-0.5097541,0.6657553,-0.01993063
509.4828,-0.02269378,-0.3249566,0.1448542,-0.5094892,0.6607978,-0.01992924
509.4977,-0.02269378,-0.3249566,0.1448542,-0.5094892,0.6607978,-0.01992924
509.5116,-0.02191667,-0.3249772,0.1507097,-0.5092347,0.6558337,-0.01992815
509.5281,-0.02114852,-0.3249977,0.1574174,-0.5089979,0.6495854,-0.01992372
509.5427,-0.0203892,-0.3250178,0.1643187,-0.508788,0.6427724,-0.01992151
509.5565,-0.0203892,-0.3250178,0.1643187,-0.508788,0.6427724,-0.01992151
509.5706,-0.01963863,-0.3250378,0.1710918,-0.5085965,0.6358185,-0.01992013
509.5859,-0.0188967,-0.3250575,0.1776472,-0.5084134,0.6288943,-0.01991906
509.6007,-0.01816331,-0.3250771,0.1850471,-0.5082465,0.6207139,-0.01991463
509.6155,-0.01816331,-0.3250771,0.1850471,-0.5082465,0.6207139,-0.01991463
509.6295,-0.01743836,-0.3250964,0.1926249,-0.5081056,0.6120006,-0.01991245
509.6449,-0.01672176,-0.3251155,0.2000557,-0.5079819,0.6031789,-0.01991113
509.6597,-0.01672176,-0.3251155,0.2000557,-0.5079819,0.6031789,-0.01991113
509.6738,-0.01601341,-0.3251344,0.2083199,-0.5078788,0.5930629,-0.01990663
509.6892,-0.01531322,-0.3251531,0.2167195,-0.5078035,0.5824239,-0.01990448
509.7042,-0.01462108,-0.3251715,0.2249242,-0.5077447,0.5717043,-0.01990321
509.7189,-0.01462108,-0.3251715,0.2249242,-0.5077447,0.5717043,-0.01990321
509.7332,-0.01393692,-0.3251898,0.2328472,-0.507691,0.5610796,-0.01990228
509.7488,-0.01326063,-0.3252079,0.2415668,-0.5076488,0.5492494,-0.019898
509.7655,-0.01259214,-0.3252257,0.2504073,-0.5076287,0.5369495,-0.01989602
509.7792,-0.01259214,-0.3252257,0.2504073,-0.5076287,0.5369495,-0.01989602
509.7923,-0.01193134,-0.3252434,0.2590444,-0.5076217,0.5246071,-0.01989492
509.8078,-0.01127815,-0.3252609,0.2673916,-0.5076171,0.5123904,-0.01989418
509.8236,-0.01063248,-0.3252782,0.2765337,-0.5076214,0.498985,-0.01989016
509.837,-0.01063248,-0.3252782,0.2765337,-0.5076214,0.498985,-0.01989016
509.8512,-0.009994243,-0.3252952,0.2857829,-0.5076456,0.4851356,-0.01988844
509.8667,-0.00936336,-0.3253121,0.2948111,-0.5076804,0.4712718,-0.01988761
509.8813,-0.008739741,-0.3253289,0.3035316,-0.5077152,0.4575614,-0.01988715
509.8961,-0.008739741,-0.3253289,0.3035316,-0.5077152,0.4575614,-0.01988715
509.91,-0.008123306,-0.3253454,0.3130381,-0.5077558,0.442677,-0.01988355
509.9255,-0.007513969,-0.3253617,0.3226321,-0.5078133,0.4273739,-0.0198822
509.9402,-0.00691165,-0.3253779,0.3319838,-0.5078782,0.4120845,-0.01988174
509.9549,-0.00691165,-0.3253779,0.3319838,-0.5078782,0.4120845,-0.01988174
509.9691,-0.006316269,-0.3253939,0.3421087,-0.507952,0.3955784,-0.01987848
509.9848,-0.005727746,-0.3254097,0.3522764,-0.5080422,0.3786616,-0.01987746
509.9994,-0.005727746,-0.3254097,0.3522764,-0.5080422,0.3786616,-0.01987746
510.0155,-0.005146,-0.3254253,0.3621534,-0.5081373,0.3617843,-0.0198773
510.0298,-0.004570953,-0.3254407,0.3716599,-0.5082258,0.3451186,-0.0198775
510.0435,-0.004002532,-0.325456,0.3819135,-0.5083117,0.3273137,-0.01987506
510.0583,-0.004002532,-0.325456,0.3819135,-0.5083117,0.3273137,-0.01987506
510.0722,-0.003440659,-0.3254711,0.3922027,-0.5084057,0.3091441,-0.01987462
510.0875,-0.002885256,-0.325486,0.4021987,-0.508499,0.2910466,-0.01987496
510.1024,-0.00233625,-0.3255008,0.4118223,-0.5085815,0.2731867,-0.01987564
510.1172,-0.00233625,-0.3255008,0.4118223,-0.5085815,0.2731867,-0.01987564
510.1311,-0.001793561,-0.3255154,0.4184911,-0.5086257,0.2589147,-0.01988199
510.1465,-0.00125712,-0.3255298,0.4239819,-0.5086034,0.2464598,-0.01988482
510.1611,-0.0007268596,-0.3255441,0.4291671,-0.5085329,0.2348004,-0.01988649
510.1759,-0.0007268596,-0.3255441,0.4291671,-0.5085329,0.2348004,-0.01988649
510.19,-0.0002027067,-0.3255582,0.4343166,-0.5084352,0.2235349,-0.01988784
510.2055,0.0003154089,-0.3255721,0.4394817,-0.5083233,0.2125119,-0.01988918
510.2202,0.0008275573,-0.3255859,0.4446446,-0.5082041,0.2016784,-0.01989058
510.236,0.0008275573,-0.3255859,0.4446446,-0.5082041,0.2016784,-0.01989058
510.2494,0.001333807,-0.3255995,0.4497728,-0.5080805,0.1910182,-0.01989205
510.266,0.001795638,-0.3382175,0.4643483,-0.5116389,0.1677086,-0.01991236
510.2805,0.002223942,-0.3585475,0.4788534,-0.5162563,0.1425582,-0.01993304
510.2942,0.002223942,-0.3585475,0.4788534,-0.5162563,0.1425582,-0.01993304
510.3084,0.002629922,-0.3835445,0.4910074,-0.5208427,0.1188269,-0.01994951
510.3237,0.00302204,-0.4113109,0.5008342,-0.5250453,0.09711659,-0.01996172
510.3384,0.00302204,-0.4113109,0.5008342,-0.5250453,0.09711659,-0.01996172
510.3524,0.003408782,-0.4399092,0.5083759,-0.5285843,0.0779362,-0.01997003
510.3678,0.00379164,-0.4688941,0.5147029,-0.5317013,0.06031629,-0.01997592
510.3826,0.004171359,-0.4979885,0.5203373,-0.5345464,0.04374832,-0.01998011
510.3974,0.004171359,-0.4979885,0.5203373,-0.5345464,0.04374832,-0.01998011
510.4115,0.004551905,-0.5262592,0.525036,-0.5369626,0.02864881,-0.01998272
510.4268,0.004930898,-0.5538946,0.5294321,-0.5391886,0.01427346,-0.01998428
510.4418,0.005307151,-0.581014,0.5337035,-0.5413253,0.0003522839,-0.01998499
510.4564,0.005307151,-0.581014,0.5337035,-0.5413253,0.0003522839,-0.01998499
510.4708,0.00568011,-0.6076937,0.537873,-0.543412,-0.01320272,-0.0199849
510.4864,0.006054096,-0.6332206,0.5414447,-0.5452091,-0.02574559,-0.01998417
510.5009,0.006425817,-0.657921,0.5448855,-0.5469074,-0.03785066,-0.01998288
510.5166,0.006425817,-0.657921,0.5448855,-0.5469074,-0.03785066,-0.01998288
510.5308,0.006793911,-0.6820001,0.5482902,-0.5485755,-0.04968933,-0.01998102
510.5453,0.007157922,-0.7055878,0.5516423,-0.5502318,-0.06129284,-0.01997861
510.5599,0.007157922,-0.7055878,0.5516423,-0.5502318,-0.06129284,-0.01997861
510.5739,0.007523186,-0.7280047,0.5544454,-0.5516197,-0.07200092,-0.01997609
510.5892,0.00788593,-0.7495975,0.5571473,-0.552925,-0.08235602,-0.01997323
510.6041,0.008244738,-0.7705845,0.5598359,-0.5542118,-0.09251218,-0.01996998
510.6187,0.008244738,-0.7705845,0.5598359,-0.5542118,-0.09251218,-0.01996998
510.6329,0.008605184,-0.7903417,0.5620431,-0.5552371,-0.1018513,-0.0199669
510.6485,0.008963079,-0.8092502,0.5642029,-0.5561919,-0.1109091,-0.01996362
510.6633,0.009316931,-0.82755,0.5663901,-0.5571406,-0.1198288,-0.01996003
510.6778,0.009316931,-0.82755,0.5663901,-0.5571406,-0.1198288,-0.01996003
510.6919,0.009666391,-0.8453919,0.5685784,-0.5580974,-0.1286238,-0.01995611
510.7076,0.01001816,-0.8621094,0.5702852,-0.5587981,-0.1366437,-0.01995267
510.7225,0.01036788,-0.8780572,0.5719409,-0.5594298,-0.1444086,-0.01994916
510.7371,0.01036788,-0.8780572,0.5719409,-0.5594298,-0.1444086,-0.01994916
510.7531,0.01071395,-0.8934585,0.573626,-0.560056,-0.1520597,-0.01994543
510.7676,0.01105597,-0.9084533,0.5753211,-0.5606917,-0.1596127,-0.01994144
510.7815,0.01140114,-0.9223683,0.5765547,-0.5610723,-0.1664278,-0.01993817
510.7962,0.01140114,-0.9223683,0.5765547,-0.5610723,-0.1664278,-0.01993817
510.8099,0.01174485,-0.9355541,0.577755,-0.5613872,-0.1730214,-0.01993493
510.8254,0.01208536,-0.9482307,0.5790017,-0.5617009,-0.1795332,-0.0199315
510.8401,0.01242215,-0.9605363,0.5802757,-0.5620291,-0.185978,-0.01992786
510.855,0.01242215,-0.9605363,0.5802757,-0.5620291,-0.185978,-0.01992786
510.8689,0.0127628,-0.9717962,0.581109,-0.5621065,-0.1917206,-0.01992512
510.8844,0.01310261,-0.9823601,0.5819264,-0.5621237,-0.1972736,-0.01992246
510.8993,0.01310261,-0.9823601,0.5819264,-0.5621237,-0.1972736,-0.01992246
510.9133,0.01343968,-0.9924474,0.5828059,-0.5621455,-0.2027742,-0.01991964
510.9287,0.01378131,-1.001434,0.5832956,-0.5619239,-0.2076205,-0.0199178
510.9435,0.01412262,-1.009701,0.5838109,-0.5616544,-0.2123255,-0.01991601
510.9584,0.01412262,-1.009701,0.5838109,-0.5616544,-0.2123255,-0.01991601
510.9725,0.0144616,-1.017487,0.5844188,-0.5614022,-0.2170193,-0.01991403
510.9879,0.01479746,-1.024942,0.5850909,-0.5611815,-0.2217088,-0.01991184
511.0038,0.01513814,-1.031398,0.5853537,-0.5607253,-0.2257547,-0.01991076
511.0185,0.01513814,-1.031398,0.5853537,-0.5607253,-0.2257547,-0.01991076
511.0317,0.01547908,-1.037209,0.5856273,-0.5602237,-0.229664,-0.01990979
511.0471,0.01581822,-1.042597,0.5859866,-0.5597405,-0.2335692,-0.01990864
511.0617,0.01615461,-1.0477,0.5864105,-0.5592907,-0.2374811,-0.01990729
511.0765,0.01615461,-1.0477,0.5864105,-0.5592907,-0.2374811,-0.01990729
511.0905,0.01649622,-1.051843,0.5864277,-0.5586081,-0.240762,-0.01990715
511.1058,0.01683867,-1.055376,0.5864623,-0.5578839,-0.2439224,-0.01990714
511.1206,0.01717976,-1.058517,0.5865911,-0.5571824,-0.247096,-0.01990695
511.1354,0.01717976,-1.058517,0.5865911,-0.5571824,-0.247096,-0.01990695
511.1494,0.01752686,-1.060642,0.5863548,-0.5562553,-0.2496743,-0.01990799
511.165,0.01787551,-1.062131,0.5861719,-0.5552986,-0.2521715,-0.0199091
511.1797,0.01787551,-1.062131,0.5861719,-0.5552986,-0.2521715,-0.0199091
511.1936,0.01822331,-1.063223,0.5861094,-0.5543765,-0.2547159,-0.01990997
511.2091,0.01856888,-1.064065,0.5861393,-0.553503,-0.2573128,-0.01991057
511.2243,0.01891988,-1.063993,0.5857795,-0.5524136,-0.2593165,-0.01991248
511.2389,0.01891988,-1.063993,0.5857795,-0.5524136,-0.2593165,-0.01991248
511.255,0.01927197,-1.063355,0.5854518,-0.551295,-0.2612328,-0.0199145
511.2689,0.01961985,-1.062372,0.5852375,-0.5502104,-0.263197,-0.01991629
511.2832,0.01996158,-1.061182,0.585116,-0.5491742,-0.2652194,-0.01991781
511.2979,0.01996158,-1.061182,0.585116,-0.5491742,-0.2652194,-0.01991781
511.312,0.02030532,-1.059108,0.5845988,-0.5479223,-0.266647,-0.01992072
511.3275,0.02064356,-1.0565,0.5841242,-0.5466436,-0.2680006,-0.01992373
511.342,0.02097387,-1.053574,0.5837709,-0.5454022,-0.2694151,-0.01992648
511.3569,0.02097387,-1.053574,0.5837709,-0.5454022,-0.2694151,-0.01992648
511.3711,0.02130455,-1.049706,0.583059,-0.5439519,-0.2702633,-0.0199306
511.3866,0.02162828,-1.045274,0.5824235,-0.5424859,-0.2710721,-0.01993474
511.4013,0.0219431,-1.040516,0.5819339,-0.5410682,-0.2719719,-0.01993856
511.4161,0.0219431,-1.040516,0.5819339,-0.5410682,-0.2719719,-0.01993856
511.4304,0.02224931,-1.035579,0.58156,-0.5397128,-0.2729664,-0.01994204
511.4458,0.02255623,-1.029792,0.5807914,-0.5381563,-0.2733829,-0.01994694
511.4608,0.02285686,-1.023508,0.5800753,-0.5365849,-0.27375,-0.0199519
511.4753,0.02285686,-1.023508,0.5800753,-0.5365849,-0.27375,-0.0199519
511.4916,0.02314941,-1.016947,0.5794922,-0.5350611,-0.2742035,-0.01995656
511.5053,0.0234342,-1.010244,0.5790194,-0.5335996,-0.2747526,-0.01996086
511.5198,0.0234342,-1.010244,0.5790194,-0.5335996,-0.2747526,-0.01996086
511.5339,0.02372027,-1.002723,0.578141,-0.5319389,-0.274718,-0.01996665
511.5492,0.02400059,-0.9947313,0.5773152,-0.530265,-0.2746382,-0.01997248
511.5639,0.02427339,-0.9864867,0.5766258,-0.528641,-0.2746527,-0.01997799
511.5786,0.02427339,-0.9864867,0.5766258,-0.528641,-0.2746527,-0.01997799
511.5927,0.02454687,-0.9773611,0.5755651,-0.5268239,-0.2741074,-0.01998493
511.608,0.02481396,-0.9677349,0.5745902,-0.5250036,-0.2735489,-0.01999184
511.6228,0.02507314,-0.9578438,0.5737764,-0.5232434,-0.2731127,-0.01999835
511.6375,0.02507314,-0.9578438,0.5737764,-0.5232434,-0.2731127,-0.01999835
511.6516,0.02532494,-0.9478335,0.5730942,-0.5215571,-0.2728036,-0.02000442
511.667,0.02557802,-0.9370323,0.5720006,-0.5196846,-0.2719172,-0.02001197
511.6817,0.02582572,-0.9257935,0.570967,-0.5178086,-0.2710042,-0.02001952
511.6965,0.02582572,-0.9257935,0.570967,-0.5178086,-0.2710042,-0.02001952
511.7108,0.02606655,-0.9143353,0.57008,-0.5159911,-0.2702063,-0.02002668
511.726,0.02630093,-0.902793,0.5693184,-0.5142463,-0.2695338,-0.02003341
511.7418,0.02652983,-0.8912501,0.5686433,-0.5125718,-0.2689632,-0.02003977
511.7556,0.02652983,-0.8912501,0.5686433,-0.5125718,-0.2689632,-0.02003977
511.7696,0.02675418,-0.8797578,0.5680234,-0.5109603,-0.2684691,-0.02004584
511.7851,0.02697475,-0.8683475,0.5674384,-0.5094044,-0.2680322,-0.02005166
511.7998,0.02697475,-0.8683475,0.5674384,-0.5094044,-0.2680322,-0.02005166
511.8138,0.02718524,-0.8578,0.5673976,-0.5081523,-0.2683375,-0.02005538
511.829,0.02739277,-0.8478295,0.5673718,-0.5070104,-0.268782,-0.02005861
511.8437,0.02759966,-0.8382582,0.5672432,-0.5059056,-0.2691923,-0.02006184
511.8582,0.02759966,-0.8382582,0.5672432,-0.5059056,-0.2691923,-0.02006184
511.8725,0.02780635,-0.8289751,0.5670174,-0.5048141,-0.2695393,-0.02006517
511.8881,0.02800612,-0.8206725,0.5672556,-0.5039859,-0.2705409,-0.02006663
511.9028,0.0282045,-0.8130099,0.5674572,-0.5032337,-0.2716162,-0.02006779
511.9174,0.0282045,-0.8130099,0.5674572,-0.5032337,-0.2716162,-0.02006779
511.9315,0.02840309,-0.8057755,0.5675244,-0.5024915,-0.2726097,-0.02006909
511.9471,0.02860196,-0.7988368,0.5674751,-0.5017419,-0.2735054,-0.02007059
511.9619,0.02879447,-0.7928731,0.5678827,-0.5012389,-0.2750346,-0.02007025
511.9764,0.02879447,-0.7928731,0.5678827,-0.5012389,-0.2750346,-0.02007025
511.9926,0.0289854,-0.787536,0.568247,-0.5007983,-0.2766188,-0.02006966
512.0069,0.02917621,-0.7826087,0.5684697,-0.5003564,-0.278104,-0.02006927
512.0206,0.02936701,-0.7779557,0.568569,-0.4998973,-0.2794757,-0.02006913
512.0366,0.02936701,-0.7779557,0.568569,-0.4998973,-0.2794757,-0.02006913
512.0493,0.02955145,-0.7742543,0.5691209,-0.4996765,-0.2814683,-0.02006714
512.0647,0.02973388,-0.7711555,0.5696241,-0.4995099,-0.2835031,-0.02006493
512.0792,0.02973388,-0.7711555,0.5696241,-0.4995099,-0.2835031,-0.02006493
512.093,0.02991575,-0.7684417,0.5699787,-0.4993346,-0.2854256,-0.02006295
512.1085,0.03009136,-0.7667391,0.57074,-0.49939,-0.2879335,-0.02005918
512.123,0.03026495,-0.7656672,0.5714125,-0.499487,-0.2904448,-0.02005527
512.1376,0.03026495,-0.7656672,0.5714125,-0.499487,-0.2904448,-0.02005527
512.1518,0.03043797,-0.7649887,0.5719067,-0.4995628,-0.2928102,-0.0200517
512.1673,0.03061071,-0.7645558,0.572249,-0.4996037,-0.295021,-0.02004849
512.1821,0.0307771,-0.7650357,0.5730188,-0.4998672,-0.2978134,-0.02004345
512.1969,0.0307771,-0.7650357,0.5730188,-0.4998672,-0.2978134,-0.02004345
512.2107,0.03094029,-0.7660769,0.5737236,-0.5001696,-0.3006174,-0.02003824
512.2263,0.03110126,-0.7674594,0.5742653,-0.5004495,-0.3032807,-0.02003335
512.2411,0.03126049,-0.7690462,0.574662,-0.5006929,-0.3057893,-0.02002884
512.2578,0.03126049,-0.7690462,0.574662,-0.5006929,-0.3057893,-0.02002884
512.2708,0.03141221,-0.7715138,0.575487,-0.5011579,-0.3088748,-0.02002243
512.285,0.03155969,-0.7745134,0.5762442,-0.5016587,-0.3119641,-0.02001587
512.2997,0.03155969,-0.7745134,0.5762442,-0.5016587,-0.3119641,-0.02001587
512.3137,0.03170462,-0.7778279,0.5768335,-0.5021334,-0.3149032,-0.02000965
512.3289,0.03184181,-0.7820836,0.5778026,-0.5028242,-0.3183821,-0.02000158
512.3435,0.0319751,-0.7869009,0.5786633,-0.5035401,-0.3218262,-0.01999346
512.358,0.0319751,-0.7869009,0.5786633,-0.5035401,-0.3218262,-0.01999346
512.3721,0.03210636,-0.7920434,0.5793269,-0.5042193,-0.3250872,-0.01998579
512.3876,0.03223645,-0.7973635,0.5798194,-0.5048489,-0.3281567,-0.01997861
512.4022,0.03235947,-0.8035311,0.5807118,-0.5056894,-0.331762,-0.01996954
512.4167,0.03235947,-0.8035311,0.5807118,-0.5056894,-0.331762,-0.01996954
512.4309,0.0324793,-0.8101943,0.5815189,-0.5065544,-0.3353406,-0.01996038
512.4465,0.03259775,-0.8171338,0.5821447,-0.5073831,-0.3387427,-0.01995167
512.4611,0.03271552,-0.8242127,0.5826085,-0.508162,-0.3419555,-0.01994345
512.4763,0.03271552,-0.8242127,0.5826085,-0.508162,-0.3419555,-0.01994345
512.4899,0.0328264,-0.8321077,0.5834697,-0.5091513,-0.3456959,-0.0199333
512.5053,0.03293457,-0.8404716,0.5842447,-0.5101631,-0.349404,-0.01992308
512.52,0.03304189,-0.8490877,0.5848372,-0.5111361,-0.3529292,-0.01991334
512.5357,0.03304189,-0.8490877,0.5848372,-0.5111361,-0.3529292,-0.01991334
512.5502,0.03314234,-0.8585826,0.5857789,-0.5123143,-0.3569451,-0.01990171
512.5642,0.03323923,-0.8685769,0.5865965,-0.5135043,-0.3608913,-0.01989014
512.5787,0.03323923,-0.8685769,0.5865965,-0.5135043,-0.3608913,-0.01989014
512.5925,0.03333403,-0.8788342,0.5872056,-0.5146447,-0.3646237,-0.01987914
512.608,0.03342748,-0.8892075,0.5876338,-0.5157232,-0.3681357,-0.01986877
512.6226,0.03351298,-0.9003676,0.5884327,-0.5170025,-0.3721352,-0.01985651
512.6372,0.03351298,-0.9003676,0.5884327,-0.5170025,-0.3721352,-0.01985651
512.6513,0.0335936,-0.911962,0.589134,-0.5182932,-0.3760756,-0.01984427
512.6669,0.0336711,-0.9237718,0.5896468,-0.5195351,-0.3798122,-0.01983259
512.6814,0.03374652,-0.9356612,0.5899914,-0.5207158,-0.3833341,-0.01982155
512.6961,0.03374652,-0.9356612,0.5899914,-0.5207158,-0.3833341,-0.01982155
512.7101,0.0338131,-0.9483079,0.5907055,-0.5220972,-0.3873369,-0.0198086
512.7256,0.03387392,-0.9613639,0.5913242,-0.5234885,-0.3912777,-0.01979568
512.7403,0.03393086,-0.9746127,0.5917568,-0.524829,-0.3950117,-0.01978336
512.7552,0.03393086,-0.9746127,0.5917568,-0.524829,-0.3950117,-0.01978336
512.7694,0.03397742,-0.9886824,0.5925129,-0.5263648,-0.3991911,-0.0197692
512.7866,0.03401679,-1.003193,0.593139,-0.5279005,-0.4032739,-0.01975522
512.8005,0.03405112,-1.01791,0.593556,-0.5293755,-0.4071219,-0.01974194
512.8141,0.03405112,-1.01791,0.593556,-0.5293755,-0.4071219,-0.01974194
512.8279,0.03408191,-1.032688,0.5937925,-0.5307788,-0.4107305,-0.01972944
512.8433,0.034102,-1.048197,0.5943756,-0.5323739,-0.4147841,-0.01971508
512.8578,0.034102,-1.048197,0.5943756,-0.5323739,-0.4147841,-0.01971508
512.8719,0.03411974,-1.064085,0.5948507,-0.5339713,-0.4187518,-0.01970087
512.8871,0.03413692,-1.080135,0.595134,-0.535511,-0.422496,-0.01968735
512.9019,0.03415439,-1.096212,0.5952485,-0.5369809,-0.4260086,-0.0196746
512.9165,0.03415439,-1.096212,0.5952485,-0.5369809,-0.4260086,-0.0196746
512.9305,0.03416776,-1.112995,0.5957023,-0.5386449,-0.4299595,-0.01966
512.9461,0.0341812,-1.130136,0.5960512,-0.5403103,-0.4338246,-0.01964555
512.9605,0.0341953,-1.14742,0.5962129,-0.5419164,-0.4374668,-0.01963184
512.9753,0.0341953,-1.14742,0.5962129,-0.5419164,-0.4374668,-0.01963184
512.9896,0.03420544,-1.165476,0.5966691,-0.5437111,-0.4415134,-0.01961638
513.0049,0.03421584,-1.183924,0.5969869,-0.5454977,-0.4454418,-0.0196012
513.0197,0.03421584,-1.183924,0.5969869,-0.5454977,-0.4454418,-0.0196012
513.0337,0.03422707,-1.20253,0.5970963,-0.5472158,-0.4491218,-0.01958688
513.0511,0.03423902,-1.221149,0.5970289,-0.5488545,-0.4525518,-0.01957343
513.0648,0.03424676,-1.240454,0.5972798,-0.5506788,-0.4563887,-0.01955823
513.0784,0.03424676,-1.240454,0.5972798,-0.5506788,-0.4563887,-0.01955823
513.0923,0.03425477,-1.260093,0.5974211,-0.5524961,-0.4601233,-0.01954328
513.1077,0.03426366,-1.279848,0.5973766,-0.554247,-0.4636249,-0.01952916
513.1221,0.0342733,-1.299586,0.5971711,-0.5559199,-0.4668879,-0.0195159
513.1368,0.0342733,-1.299586,0.5971711,-0.5559199,-0.4668879,-0.0195159
513.1508,0.03427866,-1.319979,0.5972804,-0.5577762,-0.4705502,-0.01950091
513.166,0.0342844,-1.340681,0.5972847,-0.559624,-0.4741115,-0.0194862
513.1807,0.0342911,-1.361479,0.5971098,-0.5614045,-0.4774431,-0.01947233
513.1955,0.0342911,-1.361479,0.5971098,-0.5614045,-0.4774431,-0.01947233
513.2094,0.03442043,-1.369638,0.5895951,-0.5588208,-0.4704405,-0.01950093
513.2248,0.03463938,-1.369998,0.5820929,-0.5552133,-0.4617583,-0.01953693
513.2394,0.03463938,-1.369998,0.5820929,-0.5552133,-0.4617583,-0.01953693
513.2534,0.03488804,-1.365547,0.5762867,-0.5516548,-0.453945,-0.01956988
513.2689,0.03512396,-1.358157,0.5721081,-0.5484302,-0.4474442,-0.01959784
513.2838,0.0353313,-1.348996,0.5690835,-0.5455614,-0.4420577,-0.01962143
513.2985,0.0353313,-1.348996,0.5690835,-0.5455614,-0.4420577,-0.01962143
513.3123,0.03551088,-1.338786,0.5667711,-0.5429947,-0.4374744,-0.0196418
513.3298,0.03566889,-1.327976,0.5648627,-0.5406649,-0.4334339,-0.01965993
513.3431,0.03581172,-1.316844,0.5631701,-0.5385163,-0.4297539,-0.01967652
513.3571,0.03581172,-1.316844,0.5631701,-0.5385163,-0.4297539,-0.01967652
513.371,0.03594433,-1.305563,0.5690189,-0.5280482,-0.4328851,-0.03469101
513.3863,0.03607011,-1.29424,0.5723649,-0.5206622,-0.4340838,-0.04941102
513.4009,0.03619129,-1.282941,0.5744369,-0.5148519,-0.4342512,-0.06384257
513.4154,0.03619129,-1.282941,0.5744369,-0.5148519,-0.4342512,-0.06384257
513.4297,0.03630928,-1.271707,0.5741598,-0.5117512,-0.4323569,-0.07466601
513.4446,0.036425,-1.260562,0.5742083,-0.5084684,-0.4307407,-0.08527717
513.4592,0.036425,-1.260562,0.5742083,-0.5084684,-0.4307407,-0.08527717
513.4731,0.036539,-1.249522,0.574433,-0.5051508,-0.4293014,-0.09568018
513.4885,0.03665162,-1.238595,0.57475,-0.5018681,-0.4279782,-0.1058791
513.5034,0.03676307,-1.227787,0.5733557,-0.5005336,-0.4251544,-0.1125449
513.5181,0.03676307,-1.227787,0.5733557,-0.5005336,-0.4251544,-0.1125449
513.5319,0.03687347,-1.2171,0.5726113,-0.4986209,-0.4229259,-0.1190799
513.5474,0.03698289,-1.206534,0.5721837,-0.4964637,-0.4210245,-0.1254866
513.562,0.03709139,-1.196091,0.5719064,-0.4942239,-0.419309,-0.1317675
513.577,0.03709139,-1.196091,0.5719064,-0.4942239,-0.419309,-0.1317675
513.5908,0.03719895,-1.185769,0.5699485,-0.4938678,-0.4161259,-0.1345921
513.608,0.03730559,-1.175568,0.5686541,-0.4928823,-0.4135596,-0.1373612
513.6216,0.03741131,-1.165487,0.567685,-0.4916138,-0.4113317,-0.1400758
513.6354,0.03741131,-1.165487,0.567685,-0.4916138,-0.4113317,-0.1400758
513.6495,0.0375161,-1.155524,0.5651461,-0.4921256,-0.4077342,-0.139404
513.6649,0.03761995,-1.145678,0.5633156,-0.4919406,-0.404797,-0.1387451
513.679,0.03761995,-1.145678,0.5633156,-0.4919406,-0.404797,-0.1387451
513.6928,0.03772285,-1.135948,0.5618359,-0.4914283,-0.4022225,-0.138099
513.7083,0.0378248,-1.126334,0.5605316,-0.4907681,-0.3998567,-0.1374654
513.7231,0.03792578,-1.116832,0.5576343,-0.4919514,-0.3960967,-0.133511
513.7372,0.03792578,-1.116832,0.5576343,-0.4919514,-0.3960967,-0.133511
513.7516,0.03802576,-1.107443,0.5554107,-0.49245,-0.3929608,-0.1296339
513.767,0.03812476,-1.098165,0.5535307,-0.4926158,-0.3901749,-0.1258327
513.7816,0.03822276,-1.088996,0.5518308,-0.4926201,-0.387596,-0.1221058
513.7963,0.03822276,-1.088996,0.5518308,-0.4926201,-0.387596,-0.1221058
513.8101,0.03831975,-1.079935,0.5486037,-0.49446,-0.3836781,-0.1151188
513.8259,0.03841571,-1.070982,0.5460473,-0.4955932,-0.3803774,-0.1082686
513.8402,0.03851065,-1.062134,0.5438405,-0.4963726,-0.3774278,-0.1015526
513.8551,0.03851065,-1.062134,0.5438405,-0.4963726,-0.3774278,-0.1015526
513.8692,0.03860455,-1.053391,0.5402476,-0.4988915,-0.3732674,-0.0916349
513.8865,0.0386974,-1.044751,0.5373589,-0.500641,-0.3697549,-0.08191149
513.9001,0.03878922,-1.036214,0.5348409,-0.5019968,-0.3666132,-0.07237852
513.9149,0.03878922,-1.036214,0.5348409,-0.5019968,-0.3666132,-0.07237852
513.9278,0.03887999,-1.027777,0.5325288,-0.503142,-0.3636983,-0.06303231
513.9429,0.03896971,-1.019441,0.5288424,-0.5060977,-0.3595855,-0.05053609
513.9575,0.03896971,-1.019441,0.5288424,-0.5060977,-0.3595855,-0.05053609
513.9716,0.03905837,-1.011202,0.5258114,-0.5083019,-0.3560708,-0.03828471
513.9871,0.03914598,-1.003062,0.5231345,-0.5101121,-0.3529065,-0.02627335
514.0015,0.03923253,-0.9950173,0.5206622,-0.5117036,-0.3499626,-0.01449734
514.0162,0.03923253,-0.9950173,0.5206622,-0.5117036,-0.3499626,-0.01449734
514.0301,0.03931802,-0.9870682,0.5168996,-0.515103,-0.3458973,0.000381046
514.0455,0.03940245,-0.9792132,0.5137733,-0.5177336,-0.342408,0.01496789
514.0602,0.03948583,-0.9714512,0.5109965,-0.519954,-0.3392605,0.02926891
514.0748,0.03948583,-0.9714512,0.5109965,-0.519954,-0.3392605,0.02926891
514.0888,0.03956815,-0.9637811,0.5081037,-0.5224031,-0.3360439,0.04408176
514.1044,0.03964943,-0.9562019,0.50547,-0.5245423,-0.333085,0.05860433
514.1192,0.03964943,-0.9562019,0.50547,-0.5245423,-0.333085,0.05860433
514.1331,0.03972965,-0.9487125,0.5030009,-0.5264953,-0.3303024,0.07284229
514.1486,0.03980884,-0.9413118,0.50065,-0.528323,-0.3276528,0.0868012
514.1653,0.03988698,-0.9339988,0.4983944,-0.5300561,-0.3251129,0.1004865
514.179,0.03988698,-0.9339988,0.4983944,-0.5300561,-0.3251129,0.1004865
514.193,0.03996409,-0.9267725,0.4962226,-0.5317101,-0.3226701,0.1139037
514.2075,0.04004017,-0.9196319,0.4941288,-0.5332937,-0.3203166,0.1270578
514.2219,0.04011523,-0.912576,0.4921092,-0.5348117,-0.3180476,0.1399542
514.2365,0.04011523,-0.912576,0.4921092,-0.5348117,-0.3180476,0.1399542
514.2539,0.04018926,-0.9056037,0.4904554,-0.5358011,-0.3161202,0.1518057
514.2672,0.04026228,-0.8987141,0.4887607,-0.5368936,-0.3141792,0.1634249
514.2803,0.04033429,-0.8919063,0.4870778,-0.5380101,-0.3122644,0.1748163
514.2952,0.04033429,-0.8919063,0.4870778,-0.5380101,-0.3122644,0.1748163
514.3092,0.04040531,-0.8851792,0.486641,-0.5371466,-0.3114653,0.1826513
514.3246,0.04047534,-0.8785319,0.4858072,-0.5369408,-0.3103544,0.1903327
514.3391,0.04047534,-0.8785319,0.4858072,-0.5369408,-0.3103544,0.1903327
514.3533,0.04054439,-0.8719635,0.4848018,-0.5370414,-0.3091051,0.1978635
514.3686,0.04061245,-0.8654731,0.4837383,-0.537278,-0.3078102,0.2052467
514.3834,0.04067955,-0.8590597,0.4838639,-0.5355991,-0.3075719,0.209152
514.3978,0.04067955,-0.8590597,0.4838639,-0.5355991,-0.3075719,0.209152
514.4121,0.04074569,-0.8527225,0.4835762,-0.5346246,-0.3070013,0.2129807
514.4273,0.04081087,-0.8464605,0.4831021,-0.5339917,-0.3062753,0.2167343
514.443,0.04087511,-0.8402728,0.4825551,-0.5335237,-0.305488,0.2204144
514.4567,0.04087511,-0.8402728,0.4825551,-0.5335237,-0.305488,0.2204144
514.4708,0.04093841,-0.8341587,0.4831806,-0.5311645,-0.3057428,0.2206891
514.4861,0.04100079,-0.8281172,0.4833829,-0.5295347,-0.3056554,0.2209585
514.5005,0.04106225,-0.8221474,0.4833871,-0.5282698,-0.3054021,0.2212225
514.5154,0.04106225,-0.8221474,0.4833871,-0.5282698,-0.3054021,0.2212225
514.5294,0.04112281,-0.8162486,0.4845072,-0.5252218,-0.3061433,0.2181482
514.5444,0.04118246,-0.8104199,0.4851674,-0.5229668,-0.3065075,0.2151341
514.5591,0.04118246,-0.8104199,0.4851674,-0.5229668,-0.3065075,0.2151341
514.5732,0.04124122,-0.8046604,0.4856072,-0.5211179,-0.3066837,0.2121791
514.5884,0.0412991,-0.7989693,0.4859466,-0.5194864,-0.3067723,0.2092821
514.6033,0.04135612,-0.7933459,0.4874691,-0.5160104,-0.3079184,0.2031086
514.6178,0.04135612,-0.7933459,0.4874691,-0.5160104,-0.3079184,0.2031086
514.6318,0.04141228,-0.7877894,0.4885419,-0.5133064,-0.3086962,0.1970561
514.6473,0.04146758,-0.7822989,0.4893938,-0.5110074,-0.3092869,0.1911224
514.662,0.04152203,-0.7768737,0.4901401,-0.5089343,-0.3097867,0.1853049
514.6764,0.04152203,-0.7768737,0.4901401,-0.5089343,-0.3097867,0.1853049
514.6907,0.04157566,-0.771513,0.4920987,-0.5050314,-0.3113765,0.1762683
514.708,0.04162847,-0.7662161,0.4935907,-0.5019147,-0.3125822,0.1674089
514.7214,0.04168047,-0.7609822,0.4948498,-0.4992182,-0.3135896,0.1587231
514.7353,0.04168047,-0.7609822,0.4948498,-0.4992182,-0.3135896,0.1587231
514.7493,0.04173167,-0.7558104,0.4972946,-0.494798,-0.3156685,0.1468745
514.7644,0.04178208,-0.7507002,0.4992299,-0.491222,-0.3173214,0.1352581
514.7789,0.04178208,-0.7507002,0.4992299,-0.491222,-0.3173214,0.1352581
514.7927,0.0418317,-0.7456508,0.500909,-0.488103,-0.3187522,0.1238695
514.808,0.04188055,-0.7406615,0.5024598,-0.4852511,-0.3200689,0.1127041
514.8226,0.04192865,-0.7357315,0.5053088,-0.480612,-0.3225632,0.09842445
514.8371,0.04192865,-0.7357315,0.5053088,-0.480612,-0.3225632,0.09842445
514.8513,0.04197599,-0.7308602,0.5076511,-0.4767897,-0.3246316,0.08442476
514.8668,0.04202259,-0.7260469,0.5097354,-0.4734176,-0.3264759,0.07069953
514.8814,0.04206845,-0.7212909,0.5116876,-0.4703158,-0.3282028,0.05724338
514.8961,0.04206845,-0.7212909,0.5116876,-0.4703158,-0.3282028,0.05724338
514.9097,0.0421136,-0.7165915,0.5150074,-0.4654445,-0.3311783,0.04072571
514.9252,0.04215803,-0.711948,0.517795,-0.4613966,-0.3337024,0.02453186
514.9399,0.04215803,-0.711948,0.517795,-0.4613966,-0.3337024,0.02453186
514.954,0.04220176,-0.7073597,0.5203098,-0.4578081,-0.3359873,0.008655477
514.9695,0.04224475,-0.7028261,0.5158697,-0.4632765,-0.3319018,0.00808948
514.9843,0.04228703,-0.6983464,0.5138478,-0.4658616,-0.3299116,0.007534854
514.9996,0.04228703,-0.6983464,0.5138478,-0.4658616,-0.3299116,0.007534854
515.0139,0.04232862,-0.6939201,0.5129641,-0.4670422,-0.3289481,0.006991349
515.028,0.04236956,-0.6895465,0.5126131,-0.467542,-0.3284976,0.006458681
515.0428,0.04240985,-0.6852249,0.5125047,-0.4677142,-0.3283058,0.00593658
515.0573,0.04240985,-0.6852249,0.5125047,-0.4677142,-0.3283058,0.00593658
515.0713,0.0424495,-0.6809548,0.5125014,-0.4677311,-0.3282461,0.005424795
515.0867,0.04248852,-0.6767356,0.5125397,-0.4676767,-0.3282557,0.004923106
515.1012,0.04252692,-0.6725666,0.5125917,-0.4675916,-0.3283038,0.0044313
515.116,0.04252692,-0.6725666,0.5125917,-0.4675916,-0.3283038,0.0044313
515.1299,0.0425647,-0.6684473,0.5126473,-0.4674958,-0.3283723,0.00394917
515.1452,0.04260187,-0.664377,0.5127038,-0.4673987,-0.328456,0.003476532
515.1599,0.04260187,-0.664377,0.5127038,-0.4673987,-0.328456,0.003476532
515.1739,0.04263845,-0.6603552,0.5127604,-0.4673046,-0.3285525,0.0030132
515.1893,0.04267444,-0.6563812,0.5126774,-0.4671769,-0.3289635,0.00255997
515.2042,0.04270985,-0.6524547,0.5123399,-0.4670362,-0.3294947,0.00211594
515.2186,0.04270985,-0.6524547,0.5123399,-0.4670362,-0.3294947,0.00211594
515.2328,0.04274469,-0.6485749,0.5117643,-0.4668967,-0.3300454,0.001680678
515.2483,0.04277897,-0.6447413,0.5110011,-0.4667645,-0.3305829,0.001253936
515.2629,0.04281269,-0.6409534,0.509963,-0.4666033,-0.3314038,0.0008365173
515.2783,0.04281269,-0.6409534,0.509963,-0.4666033,-0.3314038,0.0008365173
515.2923,0.04284588,-0.6372106,0.5085763,-0.466433,-0.3323158,0.0004275374
515.307,0.04287852,-0.6335124,0.5068882,-0.4662671,-0.3332228,2.658943E-05
515.3215,0.04291064,-0.6298583,0.504971,-0.4661113,-0.3340963,-0.0003665497
515.3361,0.04291064,-0.6298583,0.504971,-0.4661113,-0.3340963,-0.0003665497
515.3499,0.04294223,-0.6262477,0.5027542,-0.4659284,-0.3352363,-0.000751036
515.3652,0.04297332,-0.6226801,0.5001746,-0.4657378,-0.3364531,-0.00112775
515.3801,0.0430039,-0.619155,0.4972861,-0.4655528,-0.3376525,-0.001497083
515.3945,0.0430039,-0.619155,0.4972861,-0.4655528,-0.3376525,-0.001497083
515.4087,0.04303399,-0.615672,0.4940298,-0.4653397,-0.3391109,-0.001858226
515.4238,0.04306359,-0.6122305,0.4903598,-0.4651195,-0.3406318,-0.002212076
515.4385,0.04306359,-0.6122305,0.4903598,-0.4651195,-0.3406318,-0.002212076
515.4526,0.04309271,-0.60883,0.4863459,-0.4649063,-0.3421203,-0.002559016
515.4679,0.04312136,-0.60547,0.4820777,-0.4647056,-0.3435506,-0.002899244
515.4828,0.04314954,-0.6021501,0.4774991,-0.4644794,-0.3452243,-0.003231851
515.4973,0.04314954,-0.6021501,0.4774991,-0.4644794,-0.3452243,-0.003231851
515.5115,0.04317727,-0.5988697,0.4725558,-0.4642468,-0.3469548,-0.003557723
515.5267,0.04320454,-0.5956284,0.4673072,-0.4640213,-0.3486498,-0.003877226
515.5433,0.04323137,-0.5924257,0.4618341,-0.4638083,-0.3502837,-0.004190546
515.557,0.04323137,-0.5924257,0.4618341,-0.4638083,-0.3502837,-0.004190546
515.571,0.04325777,-0.5892612,0.4560749,-0.4635693,-0.3521566,-0.004496752
515.5853,0.04328374,-0.5861345,0.4499705,-0.4633234,-0.3540823,-0.004796735
515.6,0.04330928,-0.583045,0.4435765,-0.4630845,-0.3559679,-0.005090855
515.6146,0.04330928,-0.583045,0.4435765,-0.4630845,-0.3559679,-0.005090855
515.6284,0.04333441,-0.5799924,0.4368383,-0.4628174,-0.3580887,-0.005378225
515.6436,0.04335914,-0.5769761,0.4297113,-0.4625434,-0.360251,-0.005659757
515.6584,0.04335914,-0.5769761,0.4297113,-0.4625434,-0.360251,-0.005659757
515.6723,0.04338346,-0.5739958,0.4222644,-0.4622772,-0.362361,-0.005935812
515.6885,0.04340739,-0.5710511,0.4145868,-0.4620248,-0.3643934,-0.006206555
515.7024,0.04343092,-0.5681414,0.4066251,-0.4617464,-0.3666478,-0.006470995
515.717,0.04343092,-0.5681414,0.4066251,-0.4617464,-0.3666478,-0.006470995
515.7312,0.04345408,-0.5652664,0.3983256,-0.4614616,-0.3689402,-0.006730041
515.7463,0.04347686,-0.5624257,0.3897465,-0.4611846,-0.3711797,-0.006984038
515.761,0.04349927,-0.5596189,0.3809675,-0.4609211,-0.3733409,-0.00723315
515.7757,0.04349927,-0.5596189,0.3809675,-0.4609211,-0.3733409,-0.00723315
515.7897,0.04352131,-0.5568455,0.3719294,-0.4606307,-0.3757212,-0.007476354
515.8051,0.043543,-0.5541052,0.3625737,-0.4603333,-0.3781374,-0.007714574
515.8218,0.04356434,-0.5513976,0.3529547,-0.4600433,-0.380498,-0.007948156
515.8356,0.04356434,-0.5513976,0.3529547,-0.4600433,-0.380498,-0.007948156
515.8496,0.04358533,-0.5487222,0.3430197,-0.4597239,-0.3830749,-0.008176114
515.8639,0.04360598,-0.5460787,0.3327244,-0.4593973,-0.3856781,-0.008399411
515.8782,0.04360598,-0.5460787,0.3327244,-0.4593973,-0.3856781,-0.008399411
515.8921,0.0436263,-0.5434668,0.3221362,-0.4590789,-0.388215,-0.008618376
515.9078,0.04364628,-0.540886,0.3113425,-0.4587752,-0.3906605,-0.008833162
515.9223,0.04366595,-0.538336,0.3002919,-0.4584443,-0.39331,-0.00904269
515.9368,0.04366595,-0.538336,0.3002919,-0.4584443,-0.39331,-0.00904269
515.9506,0.04368529,-0.5358164,0.2889317,-0.4581067,-0.3959838,-0.009247904
515.9659,0.04370432,-0.5333269,0.2773186,-0.4577771,-0.3985921,-0.009449136
515.9808,0.04372305,-0.530867,0.2655305,-0.457462,-0.4011098,-0.009646527
515.9955,0.04372305,-0.530867,0.2655305,-0.457462,-0.4011098,-0.009646527
516.0092,0.04374147,-0.5284364,0.2535101,-0.4571188,-0.4038297,-0.009838966
516.0247,0.04375959,-0.5260349,0.2412003,-0.4567681,-0.406573,-0.01002743
516.0392,0.04375959,-0.5260349,0.2412003,-0.4567681,-0.406573,-0.01002743
516.0534,0.04377742,-0.523662,0.2286539,-0.4564252,-0.4092497,-0.01021224
516.0692,0.04379496,-0.5213174,0.2159455,-0.4560967,-0.4118345,-0.01039354
516.0836,0.04381222,-0.5190007,0.2031428,-0.4557846,-0.4143258,-0.01057138
516.098,0.04381222,-0.5190007,0.2031428,-0.4557846,-0.4143258,-0.01057138
516.1141,0.0438292,-0.5167117,0.1902987,-0.455489,-0.4167293,-0.01074583
516.1283,0.0438459,-0.5144499,0.1774522,-0.4552091,-0.4190525,-0.01091693
516.142,0.04386233,-0.5122151,0.1646309,-0.4549439,-0.421302,-0.01108473
516.1566,0.04386233,-0.5122151,0.1646309,-0.4549439,-0.421302,-0.01108473
516.1704,0.04387849,-0.510007,0.1518539,-0.4546925,-0.4234834,-0.01124928
516.1857,0.0438944,-0.5078253,0.1391342,-0.4544539,-0.4256012,-0.01141064
516.2004,0.04391004,-0.5056695,0.1264804,-0.4542274,-0.4276587,-0.01156888
516.2151,0.04391004,-0.5056695,0.1264804,-0.4542274,-0.4276587,-0.01156888
516.2288,0.04392543,-0.5035395,0.1138982,-0.4540125,-0.4296588,-0.01172403
516.2442,0.04394058,-0.5014349,0.1013913,-0.4538086,-0.4316038,-0.01187616
516.259,0.04394058,-0.5014349,0.1013913,-0.4538086,-0.4316038,-0.01187616
516.2728,0.04395548,-0.4993553,0.08896177,-0.4536152,-0.4334956,-0.01202534
516.2883,0.04397014,-0.4973006,0.07661097,-0.4534321,-0.4353358,-0.01217161
516.3029,0.04398456,-0.4952704,0.06433956,-0.4532589,-0.437126,-0.01231504
516.3174,0.04398456,-0.4952704,0.06433956,-0.4532589,-0.437126,-0.01231504
516.3317,0.04399875,-0.4932643,0.05214773,-0.4530952,-0.4388673,-0.01245568
516.3474,0.04401271,-0.4912823,0.04003544,-0.4529409,-0.4405612,-0.01259358
516.3633,0.04402644,-0.4893238,0.02800242,-0.4527955,-0.4422086,-0.0127288
516.3763,0.04402644,-0.4893238,0.02800242,-0.4527955,-0.4422086,-0.0127288
516.3925,0.04403995,-0.4873887,0.0160483,-0.4526589,-0.4438107,-0.0128614
516.4069,0.04405325,-0.4854767,0.00417261,-0.4525307,-0.4453686,-0.01299143
516.4205,0.04406633,-0.4835875,-0.00762516,-0.4524109,-0.4468831,-0.01311893
516.4354,0.04406633,-0.4835875,-0.00762516,-0.4524109,-0.4468831,-0.01311893
516.449,0.0440792,-0.4817209,-0.01934555,-0.4522991,-0.4483553,-0.01324396
516.4646,0.04409185,-0.4798765,-0.03098913,-0.4521952,-0.4497861,-0.01336656
516.4788,0.04409185,-0.4798765,-0.03098913,-0.4521952,-0.4497861,-0.01336656
516.4927,0.04410431,-0.4780541,-0.04255647,-0.4520988,-0.4511763,-0.01348679
516.5082,0.04411657,-0.4762534,-0.05404813,-0.4520099,-0.452527,-0.01360469
516.5228,0.04412862,-0.4744743,-0.06546465,-0.4519282,-0.4538388,-0.01372031
516.5372,0.04412862,-0.4744743,-0.06546465,-0.4519282,-0.4538388,-0.01372031
516.5515,0.04414048,-0.4727163,-0.0768066,-0.4518534,-0.4551127,-0.01383369
516.567,0.04415216,-0.4709793,-0.08807455,-0.4517854,-0.4563494,-0.01394488
516.5815,0.04416364,-0.469263,-0.09926899,-0.451724,-0.4575497,-0.01405393
516.5961,0.04416364,-0.469263,-0.09926899,-0.451724,-0.4575497,-0.01405393
516.6102,0.04417493,-0.4675673,-0.1103905,-0.451669,-0.4587144,-0.01416086
516.6259,0.04418604,-0.4658917,-0.1214395,-0.4516202,-0.4598442,-0.01426574
516.6406,0.04419698,-0.4642361,-0.1324167,-0.4515775,-0.4609399,-0.0143686
516.655,0.04419698,-0.4642361,-0.1324167,-0.4515775,-0.4609399,-0.0143686
516.671,0.04420774,-0.4626003,-0.1433224,-0.4515405,-0.4620022,-0.01446948
516.6853,0.04421832,-0.460984,-0.1541572,-0.4515093,-0.4630316,-0.01456841
516.699,0.04421832,-0.460984,-0.1541572,-0.4515093,-0.4630316,-0.01456841
516.7134,0.04422873,-0.459387,-0.1649216,-0.4514836,-0.4640291,-0.01466543
516.7283,0.04423898,-0.457809,-0.175616,-0.4514632,-0.4649951,-0.01476059
516.7428,0.04424906,-0.4562499,-0.186241,-0.451448,-0.4659303,-0.01485392
516.7576,0.04424906,-0.4562499,-0.186241,-0.451448,-0.4659303,-0.01485392
516.7715,0.04425897,-0.4547093,-0.196797,-0.4514377,-0.4668353,-0.01494546
516.787,0.04426873,-0.4531871,-0.2072843,-0.4514324,-0.4677109,-0.01503524
516.8015,0.04427833,-0.4516831,-0.2177036,-0.4514317,-0.4685574,-0.0151233
516.816,0.04427833,-0.4516831,-0.2177036,-0.4514317,-0.4685574,-0.0151233
516.8302,0.04428777,-0.4501971,-0.2280552,-0.4514356,-0.4693757,-0.01520967
516.8457,0.04429707,-0.4487287,-0.2383395,-0.4514439,-0.4701662,-0.01529439
516.8602,0.04430621,-0.4472779,-0.248557,-0.4514565,-0.4709294,-0.01537749
516.8751,0.04430621,-0.4472779,-0.248557,-0.4514565,-0.4709294,-0.01537749
516.8891,0.0443152,-0.4458444,-0.2587081,-0.4514732,-0.471666,-0.015459
516.9045,0.04432405,-0.444428,-0.2687932,-0.4514939,-0.4723764,-0.01553895
516.9191,0.04432405,-0.444428,-0.2687932,-0.4514939,-0.4723764,-0.01553895
516.9351,0.04433275,-0.4430285,-0.2788127,-0.4515185,-0.4730613,-0.01561737
516.9496,0.04434132,-0.4416456,-0.288767,-0.4515468,-0.473721,-0.0156943
516.9642,0.04434974,-0.4402793,-0.2986565,-0.4515787,-0.4743561,-0.01576977
516.9776,0.04434974,-0.4402793,-0.2986565,-0.4515787,-0.4743561,-0.01576977
516.9917,0.04435803,-0.4389293,-0.3084816,-0.4516141,-0.4749671,-0.0158438
517.0068,0.04436619,-0.4375954,-0.3182426,-0.4516528,-0.4755544,-0.01591641
517.0214,0.04437421,-0.4362774,-0.32794,-0.4516948,-0.4761186,-0.01598765
517.0361,0.04437421,-0.4362774,-0.32794,-0.4516948,-0.4761186,-0.01598765
517.05,0.04438211,-0.4349751,-0.3375741,-0.4517399,-0.47666,-0.01605753
517.0654,0.04438987,-0.4336883,-0.3471453,-0.4517881,-0.4771791,-0.01612609
517.0801,0.04439751,-0.432417,-0.3566539,-0.4518391,-0.4776765,-0.01619335
517.0946,0.04439751,-0.432417,-0.3566539,-0.4518391,-0.4776765,-0.01619335
517.1089,0.04440503,-0.4311607,-0.3661004,-0.451893,-0.4781524,-0.01625933
517.1245,0.04441243,-0.4299195,-0.3754849,-0.4519496,-0.4786073,-0.01632407
517.1386,0.04441243,-0.4299195,-0.3754849,-0.4519496,-0.4786073,-0.01632407
517.1531,0.04441971,-0.4286931,-0.384808,-0.4520088,-0.4790416,-0.01638758
517.1684,0.04442687,-0.4274813,-0.39407,-0.4520705,-0.4794558,-0.0164499
517.1832,0.04443391,-0.426284,-0.4032711,-0.4521346,-0.4798501,-0.01651103
517.1978,0.04443391,-0.426284,-0.4032711,-0.4521346,-0.4798501,-0.01651103
517.214,0.04444084,-0.4251009,-0.4124117,-0.452201,-0.4802251,-0.01657101
517.2282,0.04444766,-0.423932,-0.4214922,-0.4522697,-0.4805811,-0.01662986
517.2421,0.04445436,-0.422777,-0.4305129,-0.4523406,-0.4809184,-0.01668761
517.2566,0.04445436,-0.422777,-0.4305129,-0.4523406,-0.4809184,-0.01668761
517.2705,0.04446096,-0.4216358,-0.4394741,-0.4524135,-0.4812374,-0.01674427
517.2858,0.04446745,-0.4205082,-0.4483762,-0.4524883,-0.4815385,-0.01679987
517.3005,0.04447384,-0.4193941,-0.4572194,-0.4525651,-0.481822,-0.01685442
517.3154,0.04447384,-0.4193941,-0.4572194,-0.4525651,-0.481822,-0.01685442
517.3293,0.04448012,-0.4182933,-0.466004,-0.4526437,-0.4820883,-0.01690796
517.3445,0.0444863,-0.4172056,-0.4747305,-0.452724,-0.4823377,-0.01696049
517.3591,0.0444863,-0.4172056,-0.4747305,-0.452724,-0.4823377,-0.01696049
517.3733,0.04449238,-0.4161308,-0.4833991,-0.4528061,-0.4825704,-0.01701203
517.3891,0.04449837,-0.415069,-0.49201,-0.4528897,-0.482787,-0.01706262
517.4034,0.04450425,-0.4140197,-0.5005637,-0.4529748,-0.4829876,-0.01711226
517.4184,0.04450425,-0.4140197,-0.5005637,-0.4529748,-0.4829876,-0.01711226
517.4323,0.04451004,-0.412983,-0.5090604,-0.4530614,-0.4831726,-0.01716098
517.4479,0.04451574,-0.4119587,-0.5175004,-0.4531494,-0.4833422,-0.01720879
517.4624,0.04452134,-0.4109466,-0.525884,-0.4532387,-0.4834969,-0.01725571
517.4783,0.04452134,-0.4109466,-0.525884,-0.4532387,-0.4834969,-0.01725571
517.492,0.04452685,-0.4099465,-0.5342116,-0.4533293,-0.4836368,-0.01730176
517.5065,0.04453228,-0.4089584,-0.5424833,-0.4534211,-0.4837623,-0.01734696
517.5209,0.04453761,-0.4079821,-0.5506996,-0.4535141,-0.4838737,-0.01739131
517.5359,0.04453761,-0.4079821,-0.5506996,-0.4535141,-0.4838737,-0.01739131
517.5494,0.04454286,-0.4070174,-0.5588607,-0.4536082,-0.4839711,-0.01743484
517.5649,0.04454802,-0.4060643,-0.5669668,-0.4537033,-0.484055,-0.01747757
517.5793,0.04454802,-0.4060643,-0.5669668,-0.4537033,-0.484055,-0.01747757
517.5934,0.0445531,-0.4051225,-0.5750183,-0.4537993,-0.4841255,-0.01751952
517.6086,0.0445581,-0.404192,-0.5830154,-0.4538963,-0.484183,-0.01756068
517.6234,0.04456301,-0.4032725,-0.5909585,-0.4539942,-0.4842277,-0.01760109
517.6379,0.04456301,-0.4032725,-0.5909585,-0.4539942,-0.4842277,-0.01760109
517.6521,0.04456785,-0.4023641,-0.5988479,-0.454093,-0.4842598,-0.01764076
517.6679,0.0445726,-0.4014665,-0.6066837,-0.4541925,-0.4842796,-0.01767969
517.6822,0.04457728,-0.4005795,-0.6144662,-0.4542928,-0.4842874,-0.01771791
517.6968,0.04457728,-0.4005795,-0.6144662,-0.4542928,-0.4842874,-0.01771791
517.7109,0.04458188,-0.3997032,-0.6221959,-0.4543937,-0.4842834,-0.01775543
517.7265,0.04458641,-0.3988373,-0.6298729,-0.4544954,-0.4842677,-0.01779228
517.7406,0.04459086,-0.3979818,-0.6374974,-0.4545976,-0.4842408,-0.01782844
517.7574,0.04459086,-0.3979818,-0.6374974,-0.4545976,-0.4842408,-0.01782844
517.7705,0.04459524,-0.3971364,-0.6450698,-0.4547004,-0.4842027,-0.01786395
517.7847,0.04459954,-0.3963012,-0.6525904,-0.4548037,-0.4841538,-0.01789881
517.7995,0.04459954,-0.3963012,-0.6525904,-0.4548037,-0.4841538,-0.01789881
517.8134,0.04460378,-0.3954759,-0.6600593,-0.4549075,-0.4840942,-0.01793303
517.8286,0.04460795,-0.3946605,-0.667477,-0.4550118,-0.4840241,-0.01796662
517.8433,0.04461205,-0.3938548,-0.6748436,-0.4551165,-0.4839438,-0.01799961
517.8575,0.04461205,-0.3938548,-0.6748436,-0.4551165,-0.4839438,-0.01799961
517.8717,0.04461608,-0.3930587,-0.6821594,-0.4552216,-0.4838535,-0.018032
517.887,0.04462005,-0.3922721,-0.6894247,-0.455327,-0.4837534,-0.01806381
517.9017,0.04462395,-0.391495,-0.6966397,-0.4554328,-0.4836437,-0.01809505
517.9165,0.04462395,-0.391495,-0.6966397,-0.4554328,-0.4836437,-0.01809505
517.9304,0.04462779,-0.390727,-0.7038046,-0.4555388,-0.4835246,-0.01812572
517.9458,0.04463156,-0.3899683,-0.7109199,-0.4556451,-0.4833963,-0.01815584
517.9603,0.04463528,-0.3892186,-0.7179856,-0.4557516,-0.4832589,-0.01818541
517.9752,0.04463528,-0.3892186,-0.7179856,-0.4557516,-0.4832589,-0.01818541
517.9892,0.04463893,-0.3884778,-0.7250021,-0.4558584,-0.4831126,-0.01821446
518.0047,0.04464252,-0.3877459,-0.7319695,-0.4559653,-0.4829576,-0.01824298
518.0193,0.04464252,-0.3877459,-0.7319695,-0.4559653,-0.4829576,-0.01824298
518.0354,0.04464605,-0.3870227,-0.738888,-0.4560724,-0.4827942,-0.018271
518.0499,0.04464952,-0.3863081,-0.7456362,-0.4562305,-0.4823312,-0.0182999
518.0645,0.04465294,-0.3856021,-0.7521046,-0.4564154,-0.4817486,-0.01832856
518.0778,0.04465294,-0.3856021,-0.7521046,-0.4564154,-0.4817486,-0.01832856
518.0918,0.04465629,-0.3849045,-0.7583032,-0.4566085,-0.4811428,-0.01835671
518.1072,0.04465959,-0.3842152,-0.7642758,-0.4568013,-0.4805472,-0.01838428
518.1218,0.04466284,-0.3835342,-0.7699463,-0.4570413,-0.4796776,-0.01841268
518.1364,0.04466284,-0.3835342,-0.7699463,-0.4570413,-0.4796776,-0.01841268
518.1504,0.04466603,-0.3828613,-0.7752432,-0.4573031,-0.4787138,-0.01844076
518.1657,0.04466916,-0.3821964,-0.7802056,-0.4575685,-0.4777493,-0.01846828
518.1802,0.04467225,-0.3815394,-0.7848989,-0.4578294,-0.4768137,-0.0184952
518.1951,0.04467225,-0.3815394,-0.7848989,-0.4578294,-0.4768137,-0.0184952
518.209,0.04467528,-0.3808903,-0.7892619,-0.4581337,-0.4756184,-0.01852292
518.2244,0.04467826,-0.3802489,-0.7932328,-0.4584566,-0.4743417,-0.01855031
518.2391,0.04467826,-0.3802489,-0.7932328,-0.4584566,-0.4743417,-0.01855031
518.2532,0.04468119,-0.3796152,-0.7968585,-0.4587803,-0.4730758,-0.01857713
518.2689,0.04468407,-0.378989,-0.8000864,-0.4591477,-0.4715538,-0.01860473
518.2834,0.0446869,-0.3783703,-0.8028698,-0.4595318,-0.4699624,-0.01863197
518.2976,0.0446869,-0.3783703,-0.8028698,-0.4595318,-0.4699624,-0.01863197
518.315,0.04468969,-0.377759,-0.8052706,-0.459914,-0.4683955,-0.01865862
518.3282,0.04469242,-0.377155,-0.8073715,-0.4602867,-0.4668807,-0.01868463
518.3417,0.04469511,-0.3765582,-0.809123,-0.4606978,-0.4651233,-0.01871139
518.3562,0.04469511,-0.3765582,-0.809123,-0.4606978,-0.4651233,-0.01871139
518.3704,0.04469775,-0.3759686,-0.8104707,-0.4611228,-0.4633025,-0.01873782
518.3857,0.04470034,-0.3753859,-0.8114682,-0.4615445,-0.46151,-0.01876367
518.4002,0.04470289,-0.3748102,-0.8121912,-0.4619556,-0.4597732,-0.0187889
518.4148,0.04470289,-0.3748102,-0.8121912,-0.4619556,-0.4597732,-0.0187889
518.4288,0.0447054,-0.3742414,-0.8125836,-0.4624038,-0.457795,-0.01881488
518.4442,0.04470786,-0.3736794,-0.8125857,-0.4628647,-0.4557572,-0.01884054
518.46,0.04471028,-0.3731241,-0.8122484,-0.4633211,-0.4537526,-0.01886563
518.4735,0.04471028,-0.3731241,-0.8122484,-0.4633211,-0.4537526,-0.01886563
518.4897,0.04471266,-0.3725754,-0.8115202,-0.4638154,-0.4515066,-0.01889146
518.5031,0.04471499,-0.3720333,-0.8103536,-0.4643209,-0.4492108,-0.01891694
518.5176,0.04471499,-0.3720333,-0.8103536,-0.4643209,-0.4492108,-0.01891694
518.5318,0.04471728,-0.3714976,-0.8088129,-0.4648198,-0.4469602,-0.01894183
518.5474,0.04471954,-0.3709684,-0.8069837,-0.4653047,-0.4447823,-0.01896607
518.5617,0.04472175,-0.3704454,-0.8048155,-0.4658226,-0.4423736,-0.01899102
518.5764,0.04472175,-0.3704454,-0.8048155,-0.4658226,-0.4423736,-0.01899102
518.5927,0.04472392,-0.3699287,-0.8022519,-0.4663495,-0.439919,-0.01901564
518.6068,0.04472606,-0.3694182,-0.7993479,-0.4668687,-0.4375122,-0.01903968
518.6204,0.04472815,-0.3689137,-0.7961816,-0.4673733,-0.4351802,-0.0190631
518.6351,0.04472815,-0.3689137,-0.7961816,-0.4673733,-0.4351802,-0.0190631
518.649,0.04473021,-0.3684153,-0.7926958,-0.4679097,-0.4326168,-0.01908722
518.6644,0.04473223,-0.3679228,-0.788828,-0.4684542,-0.4300101,-0.01911101
518.6787,0.04473223,-0.3679228,-0.788828,-0.4684542,-0.4300101,-0.01911101
518.6927,0.04473421,-0.3674363,-0.7846307,-0.4689901,-0.4274552,-0.01913425
518.7084,0.04473615,-0.3669555,-0.7800516,-0.4695584,-0.4246681,-0.01915816
518.7229,0.04473807,-0.3664804,-0.7750412,-0.4701333,-0.4218472,-0.01918173
518.7377,0.04473807,-0.3664804,-0.7750412,-0.4701333,-0.4218472,-0.01918173
518.7518,0.04473994,-0.366011,-0.7696658,-0.4706977,-0.4190899,-0.01920469
518.7676,0.04474178,-0.3655472,-0.7640141,-0.4712446,-0.4164233,-0.01922701
518.7819,0.04474358,-0.365089,-0.7580345,-0.4718195,-0.4135335,-0.01924998
518.7968,0.04474358,-0.365089,-0.7580345,-0.4718195,-0.4135335,-0.01924998
518.8106,0.04474535,-0.3646362,-0.7516675,-0.4723991,-0.4106128,-0.01927262
518.8262,0.04474709,-0.3641889,-0.7449704,-0.4729673,-0.4077571,-0.01929468
518.8408,0.0447488,-0.3637469,-0.7380241,-0.4735178,-0.4049935,-0.01931611
518.858,0.0447488,-0.3637469,-0.7380241,-0.4735178,-0.4049935,-0.01931611
518.871,0.04475047,-0.3633101,-0.7307407,-0.4743129,-0.4020473,-0.01933905
518.8849,0.04475211,-0.3628786,-0.7230885,-0.4752351,-0.3990735,-0.01936128
518.8994,0.04475211,-0.3628786,-0.7230885,-0.4752351,-0.3990735,-0.01936128
518.9134,0.04475373,-0.3624522,-0.7151275,-0.4762008,-0.3961569,-0.0193828
518.9286,0.04475531,-0.3620309,-0.706933,-0.4771715,-0.3933249,-0.01940361
518.9432,0.04475686,-0.3616146,-0.6985723,-0.4781302,-0.3905817,-0.01942379
518.958,0.04475686,-0.3616146,-0.6985723,-0.4781302,-0.3905817,-0.01942379
518.9721,0.04475838,-0.3612034,-0.6900986,-0.4790697,-0.3879238,-0.01944338
518.9875,0.04475987,-0.360797,-0.6815516,-0.4799878,-0.3853453,-0.01946242
519.0021,0.04476133,-0.3603955,-0.6729603,-0.480884,-0.3828406,-0.01948093
519.0169,0.04476133,-0.3603955,-0.6729603,-0.480884,-0.3828406,-0.01948093
519.0308,0.04476277,-0.3599988,-0.6643453,-0.4817587,-0.3804051,-0.01949896
519.0463,0.04476418,-0.3596068,-0.6557213,-0.4826126,-0.378035,-0.01951651
519.0611,0.04476556,-0.3592195,-0.6470987,-0.4834463,-0.3757272,-0.01953361
519.0757,0.04476556,-0.3592195,-0.6470987,-0.4834463,-0.3757272,-0.01953361
519.0896,0.04476691,-0.3588368,-0.6384851,-0.4842606,-0.3734795,-0.01955026
519.1053,0.04476824,-0.3584587,-0.6298859,-0.4850559,-0.3712898,-0.01956648
519.1219,0.04476954,-0.3580852,-0.6213051,-0.4858329,-0.3691567,-0.01958228
519.1356,0.04476954,-0.3580852,-0.6213051,-0.4858329,-0.3691567,-0.01958228
