JMolnar6/NonAnthroHands_User_Study/HandsLoggerWithURDF/tempdata/files/Reachy_PID0_JointMotion_gesture_4_3.csv
Time,r_shoulder,r_shoulder_x,r_upper_arm,r_forearm,r_wrist,r_wrist2hand,
177.4032,0.04500159,-0.3269991,0.4767997,-0.4976546,-0.3903872,-0.01998179
177.4172,0.04500159,-0.3269991,0.4767997,-0.4976546,-0.3903872,-0.01998179
177.4315,0.04500159,-0.3269991,0.476714,-0.497964,-0.390301,-0.01998157
177.447,0.04500159,-0.3269991,0.4766295,-0.4982684,-0.3902157,-0.01998136
177.4618,0.04500159,-0.3269991,0.4765461,-0.4985679,-0.3901314,-0.01998116
177.4765,0.04500159,-0.3269991,0.4765461,-0.4985679,-0.3901314,-0.01998116
177.4906,0.04500159,-0.3269991,0.4764638,-0.4988627,-0.390048,-0.01998095
177.5061,0.04500159,-0.3269991,0.4763826,-0.4991528,-0.3899656,-0.01998075
177.5208,0.04500159,-0.3269991,0.4763026,-0.4994383,-0.389884,-0.01998055
177.5354,0.04500159,-0.3269991,0.4763026,-0.4994383,-0.389884,-0.01998055
177.5514,0.04500159,-0.3269991,0.4762236,-0.4997192,-0.3898034,-0.01998036
177.5658,0.04500159,-0.3269991,0.4761456,-0.4999957,-0.3897237,-0.01998017
177.5796,0.04500159,-0.3269991,0.4761456,-0.4999957,-0.3897237,-0.01998017
177.5934,0.04500159,-0.3269991,0.4760687,-0.5002677,-0.3896449,-0.01997998
177.609,0.04500159,-0.3269991,0.4759929,-0.5005355,-0.3895669,-0.01997979
177.6234,0.04500159,-0.3269991,0.4759181,-0.500799,-0.3894899,-0.01997961
177.6379,0.04500159,-0.3269991,0.4759181,-0.500799,-0.3894899,-0.01997961
177.6521,0.04500159,-0.3269991,0.4758444,-0.5010583,-0.3894137,-0.01997943
177.6675,0.04500159,-0.3269991,0.4757716,-0.5013134,-0.3893384,-0.01997926
177.6826,0.04500159,-0.3269991,0.4756998,-0.5015646,-0.3892639,-0.01997908
177.6974,0.04500159,-0.3269991,0.4756998,-0.5015646,-0.3892639,-0.01997908
177.7114,0.04500159,-0.3269991,0.4756291,-0.5018117,-0.3891903,-0.01997891
177.7266,0.04500159,-0.3269991,0.4755593,-0.5020549,-0.3891176,-0.01997874
177.7413,0.04500159,-0.3269991,0.4754905,-0.5022942,-0.3890457,-0.01997858
177.7563,0.04500159,-0.3269991,0.4754905,-0.5022942,-0.3890457,-0.01997858
177.7705,0.04500159,-0.3269991,0.4754226,-0.5025297,-0.3889746,-0.01997842
177.7859,0.04500159,-0.3269991,0.4753557,-0.5027614,-0.3889043,-0.01997826
177.8027,0.04500159,-0.3269991,0.4752897,-0.5029895,-0.3888348,-0.01997811
177.8161,0.04500159,-0.3269991,0.4752897,-0.5029895,-0.3888348,-0.01997811
177.8302,0.04500159,-0.3269991,0.4752247,-0.5032139,-0.3887662,-0.01997795
177.8447,0.04500159,-0.3269991,0.4751605,-0.5034348,-0.3886983,-0.0199778
177.8593,0.04500159,-0.3269991,0.4751605,-0.5034348,-0.3886983,-0.0199778
177.8732,0.04500159,-0.3269991,0.4750973,-0.5036522,-0.3886313,-0.01997765
177.8886,0.04500159,-0.3269991,0.475035,-0.5038661,-0.388565,-0.01997751
177.9032,0.04500159,-0.3269991,0.4749735,-0.5040767,-0.3884996,-0.01997736
177.9178,0.04500159,-0.3269991,0.4749735,-0.5040767,-0.3884996,-0.01997736
177.932,0.04500159,-0.3269991,0.4749129,-0.5042838,-0.3884349,-0.01997722
177.9474,0.04500159,-0.3269991,0.4748532,-0.5044876,-0.3883709,-0.01997708
177.9623,0.04500159,-0.3269991,0.4747943,-0.5046883,-0.3883077,-0.01997695
177.9771,0.04500159,-0.3269991,0.4747943,-0.5046883,-0.3883077,-0.01997695
177.9915,0.04500159,-0.3269991,0.4747363,-0.5048857,-0.3882453,-0.01997682
178.0069,0.04500159,-0.3269991,0.4746791,-0.5050799,-0.3881836,-0.01997669
178.0213,0.04500159,-0.3269991,0.4746227,-0.5052711,-0.3881226,-0.01997656
178.0366,0.04500159,-0.3269991,0.4746227,-0.5052711,-0.3881226,-0.01997656
178.0502,0.04500159,-0.3269991,0.4745672,-0.5054592,-0.3880624,-0.01997643
178.0666,0.04500159,-0.3269991,0.4745124,-0.5056443,-0.3880029,-0.01997631
178.0804,0.04500159,-0.3269991,0.4744585,-0.5058265,-0.3879441,-0.01997619
178.0952,0.04500159,-0.3269991,0.4744585,-0.5058265,-0.3879441,-0.01997619
178.1091,0.04500159,-0.3269991,0.4744053,-0.5060058,-0.387886,-0.01997606
178.1246,0.04500159,-0.3269991,0.4743528,-0.5061823,-0.3878286,-0.01997594
178.1393,0.04500159,-0.3269991,0.4743528,-0.5061823,-0.3878286,-0.01997594
178.1532,0.04500159,-0.3269991,0.4743012,-0.5063559,-0.3877719,-0.01997582
178.1687,0.04500159,-0.3269991,0.4742503,-0.5065268,-0.3877159,-0.01997571
178.1836,0.04500159,-0.3269991,0.4742001,-0.5066949,-0.3876606,-0.0199756
178.1983,0.04500159,-0.3269991,0.4742001,-0.5066949,-0.3876606,-0.0199756
178.2126,0.04500159,-0.3269991,0.4741507,-0.5068604,-0.3876059,-0.01997549
178.2281,0.04500159,-0.3269991,0.474102,-0.5070232,-0.3875519,-0.01997538
178.2428,0.04500159,-0.3269991,0.4740541,-0.5071835,-0.3874986,-0.01997527
178.2581,0.04500159,-0.3269991,0.4740541,-0.5071835,-0.3874986,-0.01997527
178.2717,0.04500159,-0.3269991,0.4740068,-0.5073412,-0.3874459,-0.01997517
178.287,0.04500159,-0.3269991,0.4739603,-0.5074964,-0.3873939,-0.01997506
178.3039,0.04500159,-0.3269991,0.4739144,-0.5076491,-0.3873425,-0.01997497
178.3176,0.04500159,-0.3269991,0.4739144,-0.5076491,-0.3873425,-0.01997497
178.3315,0.04500159,-0.3269991,0.4738692,-0.5077994,-0.3872917,-0.01997487
178.3459,0.04500159,-0.3269991,0.4738247,-0.5079473,-0.3872416,-0.01997477
178.3605,0.04500159,-0.3269991,0.4737808,-0.5080928,-0.3871921,-0.01997467
178.3752,0.04500159,-0.3269991,0.4737808,-0.5080928,-0.3871921,-0.01997467
178.3896,0.04500159,-0.3269991,0.4737377,-0.5082361,-0.3871432,-0.01997458
178.4055,0.0450016,-0.3269991,0.4738493,-0.5096105,-0.3872992,-0.01997843
178.4195,0.0450016,-0.3269991,0.4738493,-0.5096105,-0.3872992,-0.01997843
178.4335,0.04500161,-0.3269991,0.4739508,-0.5116813,-0.3874708,-0.01998058
178.4493,0.04500162,-0.3269991,0.4740075,-0.5140631,-0.3876036,-0.01998201
178.4643,0.04500163,-0.3269991,0.4740286,-0.5165722,-0.3876981,-0.01998314
178.4781,0.04500163,-0.3269991,0.4740286,-0.5165722,-0.3876981,-0.01998314
178.493,0.04500163,-0.3269991,0.4738772,-0.5178872,-0.3875629,-0.01998028
178.5084,0.04500162,-0.3269991,0.4737262,-0.5185016,-0.3873958,-0.01997901
178.5236,0.04500162,-0.3269991,0.4736144,-0.5187808,-0.3872561,-0.01997838
178.538,0.04500162,-0.3269991,0.4736144,-0.5187808,-0.3872561,-0.01997838
178.5543,0.04500161,-0.3269991,0.4733844,-0.5176656,-0.3869456,-0.01997421
178.5676,0.0450016,-0.3269991,0.4731837,-0.515775,-0.3866411,-0.01997177
178.5822,0.04500159,-0.3269991,0.4730365,-0.5135344,-0.3863879,-0.01997005
178.5969,0.04500159,-0.3269991,0.4730365,-0.5135344,-0.3863879,-0.01997005
178.6123,0.04500158,-0.3269991,0.4729281,-0.5111467,-0.38618,-0.01996863
178.6266,0.04500157,-0.3269991,0.4726893,-0.5074758,-0.3858005,-0.01996346
178.6413,0.04500155,-0.3269991,0.4724696,-0.5031029,-0.3854236,-0.01996001
178.6562,0.04500155,-0.3269991,0.4724696,-0.5031029,-0.3854236,-0.01996001
178.67,0.04500154,-0.3269991,0.4722982,-0.4984353,-0.3850965,-0.01995727
178.6855,0.04500153,-0.3269991,0.472164,-0.493667,-0.3848157,-0.01995483
178.7004,0.04500151,-0.3269991,0.4718939,-0.4876572,-0.384361,-0.01994837
178.7152,0.04500151,-0.3269991,0.4718939,-0.4876572,-0.384361,-0.01994837
178.7294,0.04500149,-0.3269991,0.4716409,-0.4809844,-0.3839087,-0.01994371
178.7447,0.04500147,-0.3269991,0.4714371,-0.4740544,-0.3835084,-0.01993979
178.7596,0.04500147,-0.3269991,0.4714371,-0.4740544,-0.3835084,-0.01993979
178.7738,0.04500146,-0.3269991,0.4712532,-0.466915,-0.3831322,-0.01993562
178.7912,0.04500144,-0.3269991,0.4710948,-0.4597206,-0.3827901,-0.01993179
178.8048,0.04500143,-0.3269991,0.4709566,-0.4525598,-0.3824783,-0.01992808
178.8183,0.04500143,-0.3269991,0.4709566,-0.4525598,-0.3824783,-0.01992808
178.8325,0.04500141,-0.3269991,0.470832,-0.4454738,-0.3821898,-0.01992441
178.8479,0.0450014,-0.3269991,0.4707168,-0.4384818,-0.3819194,-0.01992075
178.8623,0.04500139,-0.3269991,0.4706087,-0.4315919,-0.3816634,-0.01991706
178.8771,0.04500139,-0.3269991,0.4706087,-0.4315919,-0.3816634,-0.01991706
178.8912,0.04500138,-0.3269991,0.4705069,-0.4248071,-0.3814198,-0.01991335
178.9067,0.04500137,-0.3269991,0.4704109,-0.4181281,-0.3811875,-0.01990961
178.9214,0.04500136,-0.3269991,0.4703211,-0.4115543,-0.3809658,-0.01990583
178.9359,0.04500136,-0.3269991,0.4703211,-0.4115543,-0.3809658,-0.01990583
178.9503,0.04500135,-0.3269991,0.4702374,-0.4050844,-0.3807545,-0.01990202
178.9657,0.04500134,-0.3269991,0.4701601,-0.3987171,-0.3805532,-0.01989817
178.9803,0.04500132,-0.3269991,0.4700894,-0.3924509,-0.3803618,-0.01989428
178.9954,0.04500132,-0.3269991,0.4700894,-0.3924509,-0.3803618,-0.01989428
179.0092,0.04500131,-0.3269991,0.4700254,-0.3862841,-0.3801802,-0.01989034
179.0249,0.0450013,-0.3269991,0.4699681,-0.3802154,-0.3800082,-0.01988636
179.0392,0.0450013,-0.3269991,0.4699681,-0.3802154,-0.3800082,-0.01988636
179.0555,0.04500129,-0.3269991,0.4699178,-0.374243,-0.3798458,-0.01988234
179.0696,0.04500128,-0.3269991,0.4698743,-0.3683656,-0.3796929,-0.01987826
179.0832,0.04500127,-0.3269991,0.4698378,-0.3625815,-0.3795492,-0.01987414
179.098,0.04500127,-0.3269991,0.4698378,-0.3625815,-0.3795492,-0.01987414
179.1119,0.04500126,-0.3269991,0.4698082,-0.3568893,-0.3794149,-0.01986996
179.1272,0.04500125,-0.3269991,0.4697855,-0.3512875,-0.3792896,-0.01986573
179.142,0.04500123,-0.3269991,0.4697697,-0.3457748,-0.3791734,-0.01986144
179.1568,0.04500123,-0.3269991,0.4697697,-0.3457748,-0.3791734,-0.01986144
179.171,0.04500122,-0.3269991,0.4697607,-0.3403496,-0.3790662,-0.01985709
179.1862,0.04500121,-0.3269991,0.4697587,-0.3350107,-0.3789677,-0.01985268
179.2011,0.0450012,-0.3269991,0.4697635,-0.3297566,-0.378878,-0.01984821
179.2158,0.0450012,-0.3269991,0.4697635,-0.3297566,-0.378878,-0.01984821
179.2298,0.04500119,-0.3269991,0.4697752,-0.3245859,-0.378797,-0.01984367
179.2454,0.04500118,-0.3269991,0.4697937,-0.3194975,-0.3787245,-0.01983907
179.2602,0.04500117,-0.3269991,0.469819,-0.3144898,-0.3786604,-0.01983439
179.275,0.04500117,-0.3269991,0.469819,-0.3144898,-0.3786604,-0.01983439
179.2891,0.04500116,-0.3269991,0.469851,-0.3095618,-0.3786048,-0.01982964
179.3056,0.04500115,-0.3269991,0.4698898,-0.3047121,-0.3785574,-0.01982483
179.3202,0.04500113,-0.3269991,0.4699354,-0.2999394,-0.3785183,-0.01981993
179.3339,0.04500113,-0.3269991,0.4699354,-0.2999394,-0.3785183,-0.01981993
179.348,0.04500112,-0.3269991,0.4699877,-0.2952426,-0.3784873,-0.01981495
179.3633,0.04500111,-0.3269991,0.4700466,-0.2906204,-0.3784643,-0.0198099
179.3779,0.04500111,-0.3269991,0.4700466,-0.2906204,-0.3784643,-0.0198099
179.3921,0.0450011,-0.3269991,0.4701123,-0.2860717,-0.3784494,-0.01980476
179.4076,0.04500109,-0.3269991,0.4701845,-0.2815952,-0.3784423,-0.01979953
179.4223,0.04500109,-0.3269991,0.4702634,-0.2771899,-0.378443,-0.01979422
179.4371,0.04500109,-0.3269991,0.4702634,-0.2771899,-0.378443,-0.01979422
179.4512,0.04500108,-0.3269991,0.4703489,-0.2728546,-0.3784516,-0.01978882
179.4757,0.04500107,-0.3269991,0.470441,-0.2685882,-0.3784677,-0.01978332
179.4903,0.04500106,-0.3269991,0.4705396,-0.2643897,-0.3784916,-0.01977772
179.5049,0.04500106,-0.3269991,0.4706447,-0.2602578,-0.3785229,-0.01977203
179.5193,0.04500106,-0.3269991,0.4706447,-0.2602578,-0.3785229,-0.01977203
179.5338,0.04500105,-0.3269991,0.4707564,-0.2561916,-0.3785618,-0.01976624
179.5484,0.04500104,-0.3269991,0.4708745,-0.2521901,-0.378608,-0.01976035
179.5633,0.04500103,-0.3269991,0.4709991,-0.2482521,-0.3786617,-0.01975435
179.5779,0.04500103,-0.3269991,0.4709991,-0.2482521,-0.3786617,-0.01975435
179.5937,0.04500103,-0.3269991,0.4711302,-0.2443767,-0.3787226,-0.01974824
179.612,0.04500102,-0.3269991,0.4712676,-0.2405629,-0.3787908,-0.01974202
179.6259,0.04500101,-0.3269991,0.4714115,-0.2368097,-0.3788661,-0.01973568
179.6397,0.04500101,-0.3269991,0.4714115,-0.2368097,-0.3788661,-0.01973568
179.6539,0.045001,-0.3269991,0.4715617,-0.2331162,-0.3789485,-0.01972923
179.6682,0.045001,-0.3269991,0.4717182,-0.2294814,-0.379038,-0.01972265
179.6818,0.04500099,-0.3269991,0.471881,-0.2259044,-0.3791345,-0.01971595
179.6966,0.04500099,-0.3269991,0.471881,-0.2259044,-0.3791345,-0.01971595
179.7108,0.04500098,-0.3269991,0.4720502,-0.2223843,-0.3792379,-0.01970913
179.726,0.04500097,-0.3269991,0.4722255,-0.2189201,-0.3793481,-0.01970218
179.7408,0.04500097,-0.3269991,0.4724071,-0.2155109,-0.3794651,-0.01969509
179.7555,0.04500097,-0.3269991,0.4724071,-0.2155109,-0.3794651,-0.01969509
179.7695,0.04500096,-0.3269991,0.4725949,-0.212156,-0.3795889,-0.01968788
179.7898,0.04500095,-0.3269991,0.4727888,-0.2088543,-0.3797194,-0.01968052
179.8049,0.04500094,-0.3269991,0.4729888,-0.2056052,-0.3798565,-0.01967302
179.8212,0.04500094,-0.3269991,0.4731949,-0.2024077,-0.3800001,-0.01966538
179.8349,0.04500094,-0.3269991,0.4731949,-0.2024077,-0.3800001,-0.01966538
179.8489,0.04500093,-0.3269991,0.4734071,-0.1992611,-0.3801503,-0.01965759
179.8631,0.04500092,-0.3269991,0.4736252,-0.1961645,-0.3803069,-0.01964966
179.8778,0.04500092,-0.3269991,0.4736252,-0.1961645,-0.3803069,-0.01964966
179.8921,0.04500091,-0.3269991,0.4738494,-0.1931171,-0.3804698,-0.01964157
179.9075,0.04500091,-0.3269991,0.4740794,-0.1901182,-0.3806391,-0.01963332
179.922,0.0450009,-0.3269991,0.4743153,-0.1871669,-0.3808146,-0.01962492
179.9368,0.0450009,-0.3269991,0.4743153,-0.1871669,-0.3808146,-0.01962492
179.9507,0.04500089,-0.3269991,0.474557,-0.1842626,-0.3809962,-0.01961635
179.9663,0.04500088,-0.3269991,0.4748044,-0.1814045,-0.381184,-0.01960762
179.9812,0.04500088,-0.3269991,0.4750576,-0.1785918,-0.3813777,-0.01959871
179.9957,0.04500088,-0.3269991,0.4750576,-0.1785918,-0.3813777,-0.01959871
180.0099,0.04500087,-0.3269991,0.4753165,-0.1758238,-0.3815775,-0.01958964
180.0255,0.04500086,-0.3269991,0.475581,-0.1730998,-0.3817831,-0.01958039
180.0403,0.04500085,-0.3269991,0.475851,-0.1704192,-0.3819945,-0.01957097
180.0551,0.04500085,-0.3269991,0.475851,-0.1704192,-0.3819945,-0.01957097
180.069,0.04500085,-0.3269991,0.4761265,-0.1677812,-0.3822117,-0.01956137
180.0863,0.04500084,-0.3269991,0.4764074,-0.1651851,-0.3824345,-0.01955158
180.1,0.04500083,-0.3269991,0.4766937,-0.1626303,-0.3826628,-0.01954159
180.114,0.04500083,-0.3269991,0.4766937,-0.1626303,-0.3826628,-0.01954159
180.1277,0.04500083,-0.3269991,0.4769852,-0.1601162,-0.3828966,-0.01953143
180.1431,0.04500082,-0.3269991,0.477282,-0.157642,-0.3831359,-0.01952107
180.1579,0.04500082,-0.3269991,0.477282,-0.157642,-0.3831359,-0.01952107
180.172,0.04500081,-0.3269991,0.4775839,-0.1552072,-0.3833804,-0.01951051
180.1876,0.0450008,-0.3269991,0.4778908,-0.1528111,-0.3836301,-0.01949976
180.2021,0.0450008,-0.3269991,0.4782027,-0.1504532,-0.3838849,-0.0194888
180.2171,0.0450008,-0.3269991,0.4782027,-0.1504532,-0.3838849,-0.0194888
180.2312,0.04500079,-0.3269991,0.4785195,-0.1481327,-0.3841448,-0.01947764
180.2468,0.04500078,-0.3269991,0.4788411,-0.1458491,-0.3844096,-0.01946628
180.2614,0.04500078,-0.3269991,0.4792368,-0.1437447,-0.384751,-0.01946005
180.2761,0.04500078,-0.3269991,0.4792368,-0.1437447,-0.384751,-0.01946005
180.2903,0.04500077,-0.3269991,0.4796368,-0.1417602,-0.3850981,-0.01945148
180.3058,0.04500077,-0.3269991,0.4800285,-0.1398481,-0.3854376,-0.01944181
180.3203,0.04500077,-0.3269991,0.4804129,-0.1379859,-0.3857701,-0.01943158
180.336,0.04500077,-0.3269991,0.4804129,-0.1379859,-0.3857701,-0.01943158
180.3499,0.04500077,-0.3269991,0.4814215,-0.137374,-0.3867453,-0.01947137
180.3644,0.04500078,-0.3269991,0.4824082,-0.1375138,-0.3877105,-0.01949041
180.3789,0.04500078,-0.3269991,0.4824082,-0.1375138,-0.3877105,-0.01949041
180.393,0.04500078,-0.3269991,0.4832718,-0.1380019,-0.3885572,-0.0195006
180.4083,0.0450008,-0.3269991,0.4846625,-0.1398599,-0.3899505,-0.01955792
180.4232,0.04500081,-0.3269991,0.4859394,-0.1425059,-0.3912417,-0.0195918
180.4377,0.04500081,-0.3269991,0.4859394,-0.1425059,-0.3912417,-0.0195918
180.4518,0.04500081,-0.3269991,0.4870359,-0.145496,-0.3923565,-0.0196154
180.4672,0.04500082,-0.3269991,0.4879904,-0.1486218,-0.3933294,-0.01963419
180.4817,0.04500084,-0.3269991,0.4894386,-0.1529997,-0.3948147,-0.01969633
180.4968,0.04500084,-0.3269991,0.4894386,-0.1529997,-0.3948147,-0.01969633
180.5109,0.04500085,-0.3269991,0.4907713,-0.1580863,-0.3961964,-0.01973652
180.5264,0.04500087,-0.3269991,0.4919214,-0.16346,-0.3974001,-0.01976661
180.5411,0.04500088,-0.3269991,0.4929221,-0.1689228,-0.3984557,-0.01979147
180.5584,0.04500088,-0.3269991,0.4929221,-0.1689228,-0.3984557,-0.01979147
180.5698,0.04500089,-0.3269991,0.4938122,-0.174382,-0.3994008,-0.01981316
180.5874,0.0450009,-0.3269991,0.4946191,-0.179794,-0.4002624,-0.01983261
180.6008,0.0450009,-0.3269991,0.4953595,-0.1851389,-0.4010575,-0.01985031
180.6147,0.0450009,-0.3269991,0.4953595,-0.1851389,-0.4010575,-0.01985031
180.6287,0.04500091,-0.3269991,0.4960433,-0.190408,-0.4017963,-0.01986653
180.6444,0.04500092,-0.3269991,0.4966768,-0.1955976,-0.4024855,-0.01988143
180.6588,0.04500092,-0.3269991,0.4966768,-0.1955976,-0.4024855,-0.01988143
180.6729,0.04500093,-0.3269991,0.497264,-0.2007069,-0.4031295,-0.01989516
180.6883,0.04500093,-0.3269991,0.497808,-0.2057361,-0.4037314,-0.01990783
180.703,0.04500094,-0.3269991,0.4983112,-0.2106857,-0.404294,-0.01991952
180.7178,0.04500094,-0.3269991,0.4983112,-0.2106857,-0.404294,-0.01991952
180.732,0.04500095,-0.3269991,0.4987756,-0.215557,-0.4048195,-0.01993032
180.7475,0.04500096,-0.3269991,0.4992033,-0.2203509,-0.4053098,-0.0199403
180.7622,0.04500096,-0.3269991,0.4995959,-0.2250688,-0.4057668,-0.01994953
180.777,0.04500096,-0.3269991,0.4995959,-0.2250688,-0.4057668,-0.01994953
180.7911,0.04500097,-0.3269991,0.4999552,-0.2297117,-0.4061922,-0.01995806
180.8067,0.04500098,-0.3269991,0.5002828,-0.2342808,-0.4065875,-0.01996595
180.821,0.04500099,-0.3269991,0.5005801,-0.2387773,-0.4069542,-0.01997325
180.8378,0.04500099,-0.3269991,0.5005801,-0.2387773,-0.4069542,-0.01997325
180.852,0.04500099,-0.3269991,0.5008487,-0.2432024,-0.4072938,-0.01998
180.8652,0.045001,-0.3269991,0.5010898,-0.2475571,-0.4076075,-0.01998624
180.8798,0.045001,-0.3269991,0.5010898,-0.2475571,-0.4076075,-0.01998624
180.894,0.04500101,-0.3269991,0.5013049,-0.2518427,-0.4078966,-0.019992
180.9092,0.04500102,-0.3269991,0.5014951,-0.2560602,-0.4081623,-0.01999732
180.9247,0.04500102,-0.3269991,0.5016617,-0.2602106,-0.4084057,-0.02000223
180.9387,0.04500102,-0.3269991,0.5016617,-0.2602106,-0.4084057,-0.02000223
180.9527,0.04500103,-0.3269991,0.5018058,-0.264295,-0.4086278,-0.02000676
180.9683,0.04500104,-0.3269991,0.5019286,-0.2683145,-0.4088297,-0.02001094
180.9829,0.04500104,-0.3269991,0.5020309,-0.2722702,-0.4090123,-0.02001479
180.9975,0.04500104,-0.3269991,0.5020309,-0.2722702,-0.4090123,-0.02001479
181.0118,0.04500105,-0.3269991,0.5021139,-0.276163,-0.4091765,-0.02001833
181.0273,0.04500106,-0.3269991,0.5021784,-0.2799939,-0.4093231,-0.02002158
181.0421,0.04500107,-0.3269991,0.5022254,-0.2837639,-0.409453,-0.02002456
181.0568,0.04500107,-0.3269991,0.5022254,-0.2837639,-0.409453,-0.02002456
181.0708,0.04500107,-0.3269991,0.5022557,-0.287474,-0.409567,-0.0200273
181.086,0.04500108,-0.3269991,0.5022702,-0.2911251,-0.4096657,-0.0200298
181.1018,0.04500109,-0.3269991,0.5022695,-0.2947182,-0.40975,-0.02003208
181.1164,0.04500109,-0.3269991,0.5022695,-0.2947182,-0.40975,-0.02003208
181.1295,0.0450011,-0.3269991,0.5022545,-0.2982541,-0.4098203,-0.02003415
181.1447,0.0450011,-0.3269991,0.5022259,-0.3017339,-0.4098775,-0.02003603
181.1593,0.0450011,-0.3269991,0.5022259,-0.3017339,-0.4098775,-0.02003603
181.1735,0.04500111,-0.3269991,0.5021843,-0.3051583,-0.4099221,-0.02003774
181.1888,0.04500112,-0.3269991,0.5021304,-0.3085283,-0.4099546,-0.02003927
181.2034,0.04500113,-0.3269991,0.5020648,-0.3118447,-0.4099757,-0.02004065
181.218,0.04500113,-0.3269991,0.5020648,-0.3118447,-0.4099757,-0.02004065
181.2322,0.04500113,-0.3269991,0.5019882,-0.3151084,-0.4099858,-0.02004188
181.248,0.04500114,-0.3269991,0.501901,-0.3183203,-0.4099855,-0.02004297
181.2624,0.04500115,-0.3269991,0.5018038,-0.321481,-0.4099752,-0.02004394
181.2772,0.04500115,-0.3269991,0.5018038,-0.321481,-0.4099752,-0.02004394
181.2912,0.04500116,-0.3269991,0.5016972,-0.3245915,-0.4099555,-0.02004478
181.3066,0.04500116,-0.3269991,0.5015816,-0.3276526,-0.4099267,-0.0200455
181.3211,0.04500117,-0.3269991,0.5014575,-0.330665,-0.4098892,-0.02004612
181.3358,0.04500117,-0.3269991,0.5014575,-0.330665,-0.4098892,-0.02004612
181.3498,0.04500118,-0.3269991,0.5013254,-0.3336295,-0.4098435,-0.02004665
181.3671,0.04500118,-0.3269991,0.5011857,-0.3365468,-0.4097899,-0.02004707
181.3806,0.04500119,-0.3269991,0.5010388,-0.3394178,-0.4097289,-0.02004742
181.3944,0.04500119,-0.3269991,0.5010388,-0.3394178,-0.4097289,-0.02004742
181.4083,0.04500119,-0.3269991,0.5008852,-0.3422431,-0.4096608,-0.02004768
181.4235,0.04500119,-0.3269991,0.5007252,-0.3450235,-0.4095859,-0.02004786
181.4381,0.04500119,-0.3269991,0.5007252,-0.3450235,-0.4095859,-0.02004786
181.4521,0.0450012,-0.3269991,0.500559,-0.3477597,-0.4095045,-0.02004797
181.4675,0.0450012,-0.3269991,0.5003873,-0.3504524,-0.409417,-0.02004802
181.4821,0.04500121,-0.3269991,0.5002101,-0.3531023,-0.4093237,-0.020048
181.4969,0.04500121,-0.3269991,0.5002101,-0.3531023,-0.4093237,-0.020048
181.5108,0.04500121,-0.3269991,0.500028,-0.3557101,-0.4092248,-0.02004792
181.5263,0.04500121,-0.3269991,0.4998411,-0.3582764,-0.4091206,-0.02004779
181.5412,0.04500122,-0.3269991,0.4996499,-0.3608019,-0.4090114,-0.02004761
181.5558,0.04500122,-0.3269991,0.4996499,-0.3608019,-0.4090114,-0.02004761
181.5697,0.04500122,-0.3269991,0.4994545,-0.3632872,-0.4088975,-0.02004738
181.5852,0.04500122,-0.3269991,0.4992553,-0.3657331,-0.408779,-0.0200471
181.5999,0.04500122,-0.3269991,0.4992553,-0.3657331,-0.408779,-0.0200471
181.6139,0.04500123,-0.3269991,0.4990524,-0.36814,-0.4086563,-0.02004679
181.6313,0.04500123,-0.3269991,0.4988463,-0.3705086,-0.4085295,-0.02004643
181.645,0.04500123,-0.3269991,0.498637,-0.3728397,-0.4083989,-0.02004604
181.6587,0.04500123,-0.3269991,0.498637,-0.3728397,-0.4083989,-0.02004604
181.6729,0.04500124,-0.3269991,0.4984249,-0.3751336,-0.4082647,-0.02004562
181.6879,0.04500124,-0.3269991,0.4982101,-0.3773911,-0.408127,-0.02004516
181.7025,0.04500125,-0.3269991,0.4979928,-0.3796127,-0.4079861,-0.02004468
181.717,0.04500125,-0.3269991,0.4979928,-0.3796127,-0.4079861,-0.02004468
181.7312,0.04500125,-0.3269991,0.4977734,-0.3817989,-0.4078422,-0.02004417
181.7467,0.04500125,-0.3269991,0.4975519,-0.3839504,-0.4076954,-0.02004364
181.7613,0.04500126,-0.3269991,0.4973285,-0.3860677,-0.4075458,-0.02004308
181.776,0.04500126,-0.3269991,0.4973285,-0.3860677,-0.4075458,-0.02004308
181.79,0.04500126,-0.3269991,0.4971035,-0.3881513,-0.4073938,-0.0200425
181.8055,0.04500126,-0.3269991,0.4968769,-0.3902018,-0.4072394,-0.02004191
181.8201,0.04500127,-0.3269991,0.496649,-0.3922197,-0.4070827,-0.02004129
181.8351,0.04500127,-0.3269991,0.496649,-0.3922197,-0.4070827,-0.02004129
181.8488,0.04500127,-0.3269991,0.4964199,-0.3942055,-0.406924,-0.02004066
181.8641,0.04500128,-0.3269991,0.4961898,-0.3961597,-0.4067633,-0.02004002
181.8788,0.04500128,-0.3269991,0.4961898,-0.3961597,-0.4067633,-0.02004002
181.8929,0.04500128,-0.3269991,0.4959587,-0.3980829,-0.4066009,-0.02003936
181.9094,0.04500128,-0.3269991,0.495727,-0.3999754,-0.4064367,-0.02003869
181.924,0.04500129,-0.3269991,0.4954946,-0.4018379,-0.406271,-0.02003801
181.9375,0.04500129,-0.3269991,0.4954946,-0.4018379,-0.406271,-0.02003801
181.9513,0.04500129,-0.3269991,0.4952617,-0.4036708,-0.4061039,-0.02003732
181.9667,0.04500129,-0.3269991,0.4950284,-0.4054745,-0.4059355,-0.02003662
181.9825,0.0450013,-0.3269991,0.4947949,-0.4072496,-0.4057659,-0.02003592
181.996,0.0450013,-0.3269991,0.4947949,-0.4072496,-0.4057659,-0.02003592
182.01,0.0450013,-0.3269991,0.4945612,-0.4089964,-0.4055952,-0.0200352
182.0256,0.04500131,-0.3269991,0.4943275,-0.4107155,-0.4054235,-0.02003448
182.0402,0.04500131,-0.3269991,0.4940938,-0.4124072,-0.4052509,-0.02003376
182.055,0.04500131,-0.3269991,0.4940938,-0.4124072,-0.4052509,-0.02003376
182.0687,0.04500131,-0.3269991,0.4938602,-0.414072,-0.4050775,-0.02003303
182.0842,0.04500132,-0.3269991,0.493627,-0.4157104,-0.4049034,-0.0200323
182.0989,0.04500132,-0.3269991,0.493627,-0.4157104,-0.4049034,-0.0200323
182.1129,0.04500132,-0.3269991,0.493394,-0.4173227,-0.4047287,-0.02003157
182.1283,0.04500132,-0.3269991,0.4931614,-0.4189094,-0.4045534,-0.02003083
182.143,0.04500133,-0.3269991,0.4929294,-0.4204708,-0.4043778,-0.0200301
182.1573,0.04500133,-0.3269991,0.4929294,-0.4204708,-0.4043778,-0.0200301
182.1747,0.04500133,-0.3269991,0.4926979,-0.4220074,-0.4042017,-0.02002936
182.1889,0.04500134,-0.3269991,0.492467,-0.4235196,-0.4040253,-0.02002862
182.2023,0.04500134,-0.3269991,0.4922369,-0.4250077,-0.4038488,-0.02002789
182.2159,0.04500134,-0.3269991,0.4922369,-0.4250077,-0.4038488,-0.02002789
182.2302,0.04500134,-0.3269991,0.4920075,-0.4264722,-0.403672,-0.02002715
182.2452,0.04500135,-0.3269991,0.491779,-0.4279134,-0.4034952,-0.02002642
182.2598,0.04500135,-0.3269991,0.491779,-0.4279134,-0.4034952,-0.02002642
182.2739,0.04500135,-0.3269991,0.4915514,-0.4293317,-0.4033184,-0.02002569
182.2893,0.04500135,-0.3269991,0.4913247,-0.4307274,-0.4031416,-0.02002496
182.3038,0.04500136,-0.3269991,0.491099,-0.4321009,-0.4029648,-0.02002423
182.3184,0.04500136,-0.3269991,0.491099,-0.4321009,-0.4029648,-0.02002423
182.3326,0.04500136,-0.3269991,0.4908744,-0.4334526,-0.4027883,-0.02002351
182.3481,0.04500137,-0.3269991,0.4906509,-0.4347828,-0.4026119,-0.02002279
182.3627,0.04500137,-0.3269991,0.4904285,-0.4360919,-0.4024358,-0.02002208
182.3774,0.04500137,-0.3269991,0.4904285,-0.4360919,-0.4024358,-0.02002208
182.3914,0.04500137,-0.3269991,0.4902073,-0.4373801,-0.40226,-0.02002136
182.4069,0.04500138,-0.3269991,0.4899874,-0.4386479,-0.4020845,-0.02002065
