JMolnar6/NonAnthroHands_User_Study/HandsLoggerWithURDF/tempdata/files/Reachy_JointMotion_gesture_8_41.csv
Time,r_shoulder,r_shoulder_x,r_upper_arm,r_forearm,r_wrist,r_wrist2hand,
827.6088,-0.01398586,0.0004400535,NaN,-0.9048752,0.0003938491,NaN,-1.562214,-14.59537,NaN,-2.107089,-1.480887,0.3773667,14.12035,NaN,NaN,-0.09216382,0.8105342,5.060601E-07,1.06666,1.195595E-08,1.349583
827.6257,-0.01398523,0.0004401413,NaN,-0.9048845,0.0003936803,NaN,-1.562216,-14.59471,NaN,-2.107084,-1.473388,0.3773197,14.11239,NaN,NaN,-0.09216744,0.8110601,4.941392E-07,1.055761,1.195595E-08,1.344018
827.6389,-0.01398523,0.0004401413,NaN,-0.9048845,0.0003936803,NaN,-1.562216,-14.59471,NaN,-2.107084,-1.473388,0.3773197,14.11239,NaN,NaN,-0.09216744,0.8110601,4.941392E-07,1.055761,1.195595E-08,1.344018
827.6524,-0.01398448,0.0004406613,NaN,-0.9049629,0.000393344,NaN,-1.561698,-14.59597,NaN,-2.107671,-1.479452,0.3786235,14.11892,NaN,NaN,-0.09204172,0.8099546,4.772264E-07,1.064607,1.434014E-08,1.352598
827.6678,-0.01398363,0.0004409334,NaN,-0.9050837,0.0003928279,NaN,-1.561267,-14.59641,NaN,-2.108545,-1.478131,0.3801582,14.11757,NaN,NaN,-0.09191891,0.8094866,4.728306E-07,1.062699,1.434014E-08,1.352129
827.6826,-0.01398273,0.0004407626,NaN,-0.9052301,0.0003925866,NaN,-1.560955,-14.59495,NaN,-2.109548,-1.471045,0.3816628,14.10996,NaN,NaN,-0.09179842,0.8107863,4.678387E-07,1.052382,1.910851E-08,1.343494
827.6974,-0.01398273,0.0004407626,NaN,-0.9052301,0.0003925866,NaN,-1.560955,-14.59495,NaN,-2.109548,-1.471045,0.3816628,14.10996,NaN,NaN,-0.09179842,0.8107863,4.678387E-07,1.052382,1.910851E-08,1.343494
827.7115,-0.0139819,0.0004409575,NaN,-0.9053224,0.0003924209,NaN,-1.561236,-14.59671,NaN,-2.110014,-1.475935,0.3817673,14.11531,NaN,NaN,-0.09180946,0.8091599,4.664231E-07,1.059542,1.910851E-08,1.353417
827.7271,-0.01398114,0.0004408075,NaN,-0.9053808,0.0003920883,NaN,-1.56147,-14.596,NaN,-2.110212,-1.473159,0.3815956,14.11231,NaN,NaN,-0.09181978,0.8098105,4.521925E-07,1.055494,1.910851E-08,1.347082
827.7418,-0.01398044,0.000440634,NaN,-0.905418,0.0003924247,NaN,-1.561603,-14.59599,NaN,-2.11028,-1.468035,0.3814192,14.10692,NaN,NaN,-0.09182995,0.8096798,4.386697E-07,1.048062,9.571769E-09,1.346934
827.758,-0.01398044,0.000440634,NaN,-0.905418,0.0003924247,NaN,-1.561603,-14.59599,NaN,-2.11028,-1.468035,0.3814192,14.10692,NaN,NaN,-0.09182995,0.8096798,4.386697E-07,1.048062,9.571769E-09,1.346934
827.7707,-0.01397976,0.0004406321,NaN,-0.9054421,0.000391817,NaN,-1.561675,-14.59536,NaN,-2.110287,-1.479053,0.381267,14.11839,NaN,NaN,-0.09184,0.8106455,4.267488E-07,1.063998,2.419212E-09,1.346596
827.7863,-0.01397924,0.0004406441,NaN,-0.9053904,0.0003918687,NaN,-1.56224,-14.5965,NaN,-2.10967,-1.47215,0.3797858,14.11125,NaN,NaN,-0.09197916,0.8093725,4.207883E-07,1.054007,3.50262E-11,1.35068
827.8015,-0.01397883,0.000440948,NaN,-0.9052924,0.0003913647,NaN,-1.562704,-14.59559,NaN,-2.108752,-1.47989,0.3780818,14.11924,NaN,NaN,-0.09211518,0.8104654,4.034657E-07,1.065184,2.419212E-09,1.349367
827.8159,-0.01397883,0.000440948,NaN,-0.9052924,0.0003913647,NaN,-1.562704,-14.59559,NaN,-2.108752,-1.47989,0.3780818,14.11924,NaN,NaN,-0.09211518,0.8104654,4.034657E-07,1.065184,2.419212E-09,1.349367
827.83,-0.01397849,0.0004405789,NaN,-0.9051661,0.0003911138,NaN,-1.56304,-14.59445,NaN,-2.107697,-1.469356,0.3764139,14.10803,NaN,NaN,-0.09224863,0.8114018,3.87596E-07,1.049868,4.803398E-09,1.339606
827.8456,-0.0139782,0.0004404424,NaN,-0.9050229,0.0003901045,NaN,-1.563298,-14.59481,NaN,-2.106586,-1.480892,0.3748041,14.12021,NaN,NaN,-0.09237958,0.8113724,3.735889E-07,1.066626,9.571769E-09,1.343669
827.8615,-0.01397806,0.0004403065,NaN,-0.9048007,0.0003901361,NaN,-1.564036,-14.59438,NaN,-2.104862,-1.470695,0.3718914,14.10941,NaN,NaN,-0.09263728,0.8116223,3.659893E-07,1.051799,1.672433E-08,1.339346
827.8763,-0.01397806,0.0004403065,NaN,-0.9048007,0.0003901361,NaN,-1.564036,-14.59438,NaN,-2.104862,-1.470695,0.3718914,14.10941,NaN,NaN,-0.09263728,0.8116223,3.659893E-07,1.051799,1.672433E-08,1.339346
827.8892,-0.01397804,0.0004403332,NaN,-0.9045306,0.0003904442,NaN,-1.56466,-14.59509,NaN,-2.102851,-1.470404,0.3687886,14.10919,NaN,NaN,-0.09288953,0.8109106,3.478099E-07,1.051399,1.434014E-08,1.343873
827.9045,-0.0139781,0.0004402774,NaN,-0.9042323,0.0003909213,NaN,-1.565146,-14.59481,NaN,-2.100718,-1.467809,0.3657513,14.10641,NaN,NaN,-0.09313696,0.8111118,3.314931E-07,1.047616,1.195596E-08,1.341686
827.9192,-0.0139781,0.0004402774,NaN,-0.9042323,0.0003909213,NaN,-1.565146,-14.59481,NaN,-2.100718,-1.467809,0.3657513,14.10641,NaN,NaN,-0.09313696,0.8111118,3.314931E-07,1.047616,1.195596E-08,1.341686
827.9333,-0.01397832,0.0004398344,NaN,-0.9038485,0.0003905113,NaN,-1.566062,-14.59513,NaN,-2.09795,-1.473386,0.3614416,14.11231,NaN,NaN,-0.09350891,0.8109661,3.221054E-07,1.05572,1.434014E-08,1.344571
827.9487,-0.01397868,0.0004393279,NaN,-0.9034137,0.0003905369,NaN,-1.566835,-14.59475,NaN,-2.094893,-1.469451,0.3569832,14.10811,NaN,NaN,-0.09387323,0.8112442,3.024359E-07,1.049991,1.195596E-08,1.34142
827.9637,-0.01397913,0.0004394355,NaN,-0.9029494,0.0003904304,NaN,-1.567453,-14.59604,NaN,-2.09172,-1.475929,0.3526232,14.11509,NaN,NaN,-0.09423055,0.8101431,2.84629E-07,1.059445,1.434014E-08,1.351125
827.9784,-0.01397913,0.0004394355,NaN,-0.9029494,0.0003904304,NaN,-1.567453,-14.59604,NaN,-2.09172,-1.475929,0.3526232,14.11509,NaN,NaN,-0.09423055,0.8101431,2.84629E-07,1.059445,1.434014E-08,1.351125
827.9926,-0.01397963,0.0004395998,NaN,-0.9024689,0.0003907865,NaN,-1.567976,-14.59589,NaN,-2.088516,-1.471719,0.3483758,14.11064,NaN,NaN,-0.09458099,0.8102037,2.689828E-07,1.053332,1.195596E-08,1.349576
828.0079,-0.01398029,0.0004399578,NaN,-0.9019114,0.0003904853,NaN,-1.568949,-14.59549,NaN,-2.084732,-1.479663,0.3428549,14.11893,NaN,NaN,-0.0950539,0.8108116,2.589245E-07,1.064834,9.571771E-09,1.348919
828.0228,-0.01398108,0.0004402449,NaN,-0.9013087,0.000390166,NaN,-1.569782,-14.59621,NaN,-2.08069,-1.478279,0.3372126,14.11755,NaN,NaN,-0.09551721,0.810065,2.383609E-07,1.062843,9.571771E-09,1.351231
828.0374,-0.01398108,0.0004402449,NaN,-0.9013087,0.000390166,NaN,-1.569782,-14.59621,NaN,-2.08069,-1.478279,0.3372126,14.11755,NaN,NaN,-0.09551721,0.810065,2.383609E-07,1.062843,9.571771E-09,1.351231
828.0518,-0.01398195,0.0004403332,NaN,-0.9006809,0.0003899609,NaN,-1.570461,-14.59475,NaN,-2.076556,-1.475158,0.3316915,14.11409,NaN,NaN,-0.09597158,0.8114482,2.204795E-07,1.058273,4.803399E-09,1.340662
828.0674,-0.01398287,0.0004402831,NaN,-0.9000404,0.0003904437,NaN,-1.57098,-14.59502,NaN,-2.072405,-1.467976,0.3262339,14.10655,NaN,NaN,-0.09641701,0.8110051,2.010335E-07,1.04785,4.803399E-09,1.342027
828.082,-0.01398395,0.0004400921,NaN,-0.8993256,0.0003907984,NaN,-1.571752,-14.59536,NaN,-2.06768,-1.467212,0.3193772,14.10579,NaN,NaN,-0.0969828,0.8106367,1.807679E-07,1.046755,7.187585E-09,1.343132
828.0988,-0.01398395,0.0004400921,NaN,-0.8993256,0.0003907984,NaN,-1.571752,-14.59536,NaN,-2.06768,-1.467212,0.3193772,14.10579,NaN,NaN,-0.0969828,0.8106367,1.807679E-07,1.046755,7.187585E-09,1.343132
828.1129,-0.01398516,0.000439739,NaN,-0.8985682,0.0003910122,NaN,-1.572039,-14.59574,NaN,-2.062698,-1.467569,0.3122657,14.10621,NaN,NaN,-0.09753688,0.8102702,1.411308E-07,1.047287,-2.349158E-09,1.344045
828.1266,-0.01398645,0.0004395102,NaN,-0.8977879,0.000391487,NaN,-1.571868,-14.59564,NaN,-2.057635,-1.466606,0.3053027,14.10518,NaN,NaN,-0.09808024,0.8103354,1.030584E-07,1.045883,-2.349158E-09,1.34576
828.1411,-0.0139878,0.000439379,NaN,-0.896997,0.0003914987,NaN,-1.571483,-14.59663,NaN,-2.052582,-1.472241,0.2986206,14.11122,NaN,NaN,-0.09861331,0.8095281,7.467165E-08,1.054099,3.502798E-11,1.350607
828.1558,-0.0139878,0.000439379,NaN,-0.896997,0.0003914987,NaN,-1.571483,-14.59663,NaN,-2.052582,-1.472241,0.2986206,14.11122,NaN,NaN,-0.09861331,0.8095281,7.467165E-08,1.054099,3.502798E-11,1.350607
828.1697,-0.0139894,0.0004397817,NaN,-0.8961337,0.0003911796,NaN,-1.571586,-14.59638,NaN,-2.046994,-1.479716,0.2908106,14.11903,NaN,NaN,-0.09926557,0.8099624,6.111159E-08,1.064921,3.502798E-11,1.352343
828.1852,-0.01399133,0.0004399821,NaN,-0.8952297,0.0003916831,NaN,-1.571576,-14.59524,NaN,-2.041185,-1.470817,0.2829219,14.10955,NaN,NaN,-0.09990475,0.8109329,3.503456E-08,1.051984,7.187585E-09,1.343819
828.2,-0.01399133,0.0004399821,NaN,-0.8952297,0.0003916831,NaN,-1.571576,-14.59524,NaN,-2.041185,-1.470817,0.2829219,14.10955,NaN,NaN,-0.09990475,0.8109329,3.503456E-08,1.051984,7.187585E-09,1.343819
828.2154,-0.01399356,0.0004402506,NaN,-0.8943045,0.0003915052,NaN,-1.571434,-14.59655,NaN,-2.035313,-1.477809,0.2752028,14.11707,NaN,NaN,-0.1005315,0.8098267,1.149073E-08,1.062182,1.195596E-08,1.351955
828.2299,-0.01399621,0.0004403378,NaN,-0.8933012,0.0003922316,NaN,-1.571711,-14.59552,NaN,-2.028872,-1.467883,0.2662651,14.10652,NaN,NaN,-0.1012755,0.8106447,-2.814388E-09,1.047756,1.434014E-08,1.345287
828.2448,-0.01399928,0.0004407758,NaN,-0.8922541,0.000392171,NaN,-1.571761,-14.59643,NaN,-2.022197,-1.477326,0.2572482,14.11656,NaN,NaN,-0.1020046,0.8100243,-3.023252E-08,1.061492,1.195596E-08,1.351957
828.2592,-0.01399928,0.0004407758,NaN,-0.8922541,0.000392171,NaN,-1.571761,-14.59643,NaN,-2.022197,-1.477326,0.2572482,14.11656,NaN,NaN,-0.1020046,0.8100243,-3.023252E-08,1.061492,1.195596E-08,1.351957
828.2734,-0.0140027,0.0004407579,NaN,-0.8911847,0.0003926483,NaN,-1.571597,-14.59547,NaN,-2.015461,-1.467888,0.2484321,14.10652,NaN,NaN,-0.1027196,0.8107726,-5.548999E-08,1.047773,1.434014E-08,1.343949
828.2888,-0.01400639,0.000440331,NaN,-0.8901063,0.00039265,NaN,-1.571356,-14.59524,NaN,-2.008752,-1.469026,0.2398748,14.10768,NaN,NaN,-0.1034207,0.8110268,-7.448897E-08,1.049412,1.434014E-08,1.341728
828.3037,-0.01401047,0.0004405079,NaN,-0.8889579,0.0003928799,NaN,-1.571584,-14.59651,NaN,-2.001526,-1.472595,0.2301039,14.1116,NaN,NaN,-0.1042376,0.8098578,-8.365319E-08,1.054641,1.434014E-08,1.351695
828.3185,-0.01401047,0.0004405079,NaN,-0.8889579,0.0003928799,NaN,-1.571584,-14.59651,NaN,-2.001526,-1.472595,0.2301039,14.1116,NaN,NaN,-0.1042376,0.8098578,-8.365319E-08,1.054641,1.434014E-08,1.351695
828.3326,-0.01401493,0.0004404945,NaN,-0.8877714,0.0003920671,NaN,-1.571632,-14.59498,NaN,-1.994097,-1.480156,0.2202931,14.11934,NaN,NaN,-0.1050382,0.8115649,-1.062284E-07,1.065544,1.434014E-08,1.343678
828.3491,-0.01401971,0.0004404152,NaN,-0.8865668,0.0003921497,NaN,-1.571498,-14.59509,NaN,-1.986628,-1.470869,0.2106927,14.10955,NaN,NaN,-0.1058233,0.8112804,-1.26494E-07,1.052054,1.434014E-08,1.342681
828.363,-0.01402473,0.0004404162,NaN,-0.8853563,0.0003922878,NaN,-1.571296,-14.59607,NaN,-1.979198,-1.47155,0.20135,14.11039,NaN,NaN,-0.1065931,0.8103109,-1.425128E-07,1.053079,1.434014E-08,1.346579
828.3777,-0.01402473,0.0004404162,NaN,-0.8853563,0.0003922878,NaN,-1.571296,-14.59607,NaN,-1.979198,-1.47155,0.20135,14.11039,NaN,NaN,-0.1065931,0.8103109,-1.425128E-07,1.053079,1.434014E-08,1.346579
828.3915,-0.01403012,0.00044043,NaN,-0.8840784,0.0003929166,NaN,-1.571527,-14.59577,NaN,-1.971264,-1.467427,0.1907675,14.10601,NaN,NaN,-0.1074773,0.8104908,-1.475792E-07,1.047084,1.910851E-08,1.348294
828.407,-0.01403589,0.0004408773,NaN,-0.8827645,0.0003927045,NaN,-1.571556,-14.59491,NaN,-1.963141,-1.478045,0.1801927,14.11704,NaN,NaN,-0.108344,0.8116678,-1.661311E-07,1.062442,1.672433E-08,1.342341
828.4217,-0.01404195,0.0004413444,NaN,-0.8814344,0.0003928296,NaN,-1.571411,-14.59695,NaN,-1.954987,-1.475931,0.1698555,14.11504,NaN,NaN,-0.1091939,0.8095785,-1.835655E-07,1.059429,1.434014E-08,1.355038
828.4364,-0.01404195,0.0004413444,NaN,-0.8814344,0.0003928296,NaN,-1.571411,-14.59695,NaN,-1.954987,-1.475931,0.1698555,14.11504,NaN,NaN,-0.1091939,0.8095785,-1.835655E-07,1.059429,1.434014E-08,1.355038
828.4507,-0.01404843,0.0004414876,NaN,-0.8800309,0.0003935455,NaN,-1.571592,-14.59553,NaN,-1.946303,-1.468004,0.1582857,14.10654,NaN,NaN,-0.1101565,0.8108022,-1.906435E-07,1.04789,1.434014E-08,1.34594
828.4661,-0.01405532,0.0004415485,NaN,-0.8785883,0.0003942124,NaN,-1.571542,-14.59564,NaN,-1.937424,-1.467098,0.1467983,14.10559,NaN,NaN,-0.1111002,0.810652,-2.097915E-07,1.046578,1.195596E-08,1.346979
828.4811,-0.01406255,0.0004417504,NaN,-0.8771282,0.0003938919,NaN,-1.571341,-14.59598,NaN,-1.928518,-1.478812,0.1355956,14.11795,NaN,NaN,-0.1120255,0.8106806,-2.232771E-07,1.063584,9.571771E-09,1.346995
828.4959,-0.01406255,0.0004417504,NaN,-0.8771282,0.0003938919,NaN,-1.571341,-14.59598,NaN,-1.928518,-1.478812,0.1355956,14.11795,NaN,NaN,-0.1120255,0.8106806,-2.232771E-07,1.063584,9.571771E-09,1.346995
828.5101,-0.01407002,0.0004417851,NaN,-0.8756637,0.0003945096,NaN,-1.571121,-14.59635,NaN,-1.919668,-1.46847,0.1246918,14.1071,NaN,NaN,-0.1129328,0.8101058,-2.295728E-07,1.048583,4.803399E-09,1.347878
828.5259,-0.01407786,0.0004415538,NaN,-0.8741338,0.000394544,NaN,-1.571307,-14.5956,NaN,-1.910334,-1.471207,0.1125268,14.10987,NaN,NaN,-0.1139517,0.8109269,-2.264436E-07,1.052517,4.803399E-09,1.340276
828.5403,-0.01408607,0.0004414048,NaN,-0.8725704,0.0003944362,NaN,-1.57131,-14.5967,NaN,-1.900833,-1.473256,0.1004648,14.11216,NaN,NaN,-0.1149506,0.8098847,-2.330746E-07,1.055533,2.419214E-09,1.346205
828.5552,-0.01408607,0.0004414048,NaN,-0.8725704,0.0003944362,NaN,-1.57131,-14.5967,NaN,-1.900833,-1.473256,0.1004648,14.11216,NaN,NaN,-0.1149506,0.8098847,-2.330746E-07,1.055533,2.419214E-09,1.346205
828.5693,-0.01409458,0.0004416279,NaN,-0.8709933,0.0003938637,NaN,-1.571174,-14.59637,NaN,-1.89132,-1.479922,0.08867592,14.11911,NaN,NaN,-0.11593,0.8103743,-2.378429E-07,1.065182,2.419214E-09,1.347551
828.5859,-0.0141033,0.0004418078,NaN,-0.8694149,0.0003947459,NaN,-1.571004,-14.59556,NaN,-1.881873,-1.468027,0.07717706,14.10651,NaN,NaN,-0.1168902,0.8109598,-2.392213E-07,1.047902,4.803399E-09,1.341776
828.5997,-0.0141033,0.0004418078,NaN,-0.8694149,0.0003947459,NaN,-1.571004,-14.59556,NaN,-1.881873,-1.468027,0.07717706,14.10651,NaN,NaN,-0.1168902,0.8109598,-2.392213E-07,1.047902,4.803399E-09,1.341776
828.6138,-0.01410985,0.0004423502,NaN,-0.8686742,0.0003946454,NaN,-1.567226,-14.59588,NaN,-1.879446,-1.478554,0.08454449,14.11762,NaN,NaN,-0.1162799,0.8109536,-2.941693E-07,1.063192,-4.733343E-09,1.34453
828.6291,-0.01411367,0.0004425115,NaN,-0.8684538,0.0003953028,NaN,-1.565172,-14.59549,NaN,-1.880417,-1.46885,0.09252232,14.10736,NaN,NaN,-0.1156816,0.8111418,-2.593006E-07,1.049092,-9.501715E-09,1.340564
828.6439,-0.01411498,0.0004425886,NaN,-0.8685538,0.0003956526,NaN,-1.564033,-14.59603,NaN,-1.883073,-1.470222,0.100004,14.10887,NaN,NaN,-0.115095,0.8106288,-2.404506E-07,1.051105,-9.501715E-09,1.3431
828.6586,-0.01411498,0.0004425886,NaN,-0.8685538,0.0003956526,NaN,-1.564033,-14.59603,NaN,-1.883073,-1.470222,0.100004,14.10887,NaN,NaN,-0.115095,0.8106288,-2.404506E-07,1.051105,-9.501715E-09,1.3431
828.6741,-0.01411522,0.0004430273,NaN,-0.8687817,0.0003953241,NaN,-1.563581,-14.59564,NaN,-1.885974,-1.479928,0.1056217,14.11901,NaN,NaN,-0.1146493,0.8112852,-2.280827E-07,1.065169,-4.733343E-09,1.343806
828.6885,-0.01411504,0.0004432136,NaN,-0.8690876,0.0003960575,NaN,-1.563185,-14.59556,NaN,-1.888992,-1.468992,0.1110094,14.10748,NaN,NaN,-0.1142122,0.8111553,-2.243201E-07,1.049284,-4.733343E-09,1.341238
828.7029,-0.01411468,0.0004435162,NaN,-0.8694403,0.0003958163,NaN,-1.5628,-14.59624,NaN,-1.892052,-1.47895,0.1162845,14.11804,NaN,NaN,-0.1137837,0.8107604,-2.204458E-07,1.063767,2.419214E-09,1.346451
828.7181,-0.01411468,0.0004435162,NaN,-0.8694403,0.0003958163,NaN,-1.5628,-14.59624,NaN,-1.892052,-1.47895,0.1162845,14.11804,NaN,NaN,-0.1137837,0.8107604,-2.204458E-07,1.063767,2.419214E-09,1.346451
828.732,-0.01411422,0.0004432303,NaN,-0.8698202,0.0003955383,NaN,-1.562424,-14.59525,NaN,-1.895116,-1.472006,0.1214549,14.11062,NaN,NaN,-0.1133637,0.8115947,-2.166833E-07,1.053659,4.803399E-09,1.339614
828.7476,-0.01411385,0.0004433329,NaN,-0.8701459,0.0003953032,NaN,-1.562375,-14.59678,NaN,-1.897584,-1.475866,0.124975,14.11487,NaN,NaN,-0.1130812,0.8101727,-2.09717E-07,1.059323,4.803399E-09,1.348276
828.7625,-0.01411355,0.0004437226,NaN,-0.8704367,0.0003948303,NaN,-1.562227,-14.59658,NaN,-1.899749,-1.480065,0.1283664,14.11925,NaN,NaN,-0.1128042,0.8104543,-2.079661E-07,1.065404,2.419214E-09,1.348348
828.7771,-0.01411355,0.0004437226,NaN,-0.8704367,0.0003948303,NaN,-1.562227,-14.59658,NaN,-1.899749,-1.480065,0.1283664,14.11925,NaN,NaN,-0.1128042,0.8104543,-2.079661E-07,1.065404,2.419214E-09,1.348348
828.7913,-0.01411329,0.0004438925,NaN,-0.8707046,0.0003953939,NaN,-1.562024,-14.59539,NaN,-1.901749,-1.469693,0.1317133,14.10821,NaN,NaN,-0.1125327,0.811442,-2.049486E-07,1.050322,3.502798E-11,1.33939
828.807,-0.01411306,0.0004439559,NaN,-0.8709572,0.0003956321,NaN,-1.561802,-14.59538,NaN,-1.903653,-1.471673,0.1350057,14.11029,NaN,NaN,-0.1122665,0.8114995,-2.014469E-07,1.053195,-4.733343E-09,1.339431
828.8228,-0.01411298,0.0004436607,NaN,-0.8711299,0.000395859,NaN,-1.561906,-14.59589,NaN,-1.904917,-1.46827,0.1366936,14.10676,NaN,NaN,-0.1121349,0.8108953,-1.951139E-07,1.048271,-4.733343E-09,1.340226
828.8367,-0.01411298,0.0004436607,NaN,-0.8711299,0.000395859,NaN,-1.561906,-14.59589,NaN,-1.904917,-1.46827,0.1366936,14.10676,NaN,NaN,-0.1121349,0.8108953,-1.951139E-07,1.048271,-4.733343E-09,1.340226
828.8505,-0.01411301,0.0004439123,NaN,-0.8712525,0.0003958989,NaN,-1.561898,-14.59699,NaN,-1.905862,-1.474932,0.138286,14.11391,NaN,NaN,-0.1120059,0.8099951,-1.944433E-07,1.057985,-2.349158E-09,1.350458
828.866,-0.01411311,0.0004439587,NaN,-0.8713437,0.0003960896,NaN,-1.561828,-14.59663,NaN,-1.906642,-1.471264,0.1398714,14.11001,NaN,NaN,-0.1118794,0.8102503,-1.926552E-07,1.052654,-4.733343E-09,1.345005
828.8806,-0.01411326,0.0004441698,NaN,-0.871415,0.0003955181,NaN,-1.561735,-14.59607,NaN,-1.907334,-1.479716,0.1414382,14.11881,NaN,NaN,-0.1117554,0.8110305,-1.90271E-07,1.064888,-4.733343E-09,1.34546
828.8954,-0.01411326,0.0004441698,NaN,-0.871415,0.0003955181,NaN,-1.561735,-14.59607,NaN,-1.907334,-1.479716,0.1414382,14.11881,NaN,NaN,-0.1117554,0.8110305,-1.90271E-07,1.064888,-4.733343E-09,1.34546
828.9095,-0.01411358,0.0004440913,NaN,-0.8714063,0.0003958108,NaN,-1.561967,-14.59577,NaN,-1.907396,-1.469054,0.1414372,14.10755,NaN,NaN,-0.1117631,0.8111171,-1.849066E-07,1.049399,-2.349158E-09,1.340987
828.925,-0.01411401,0.0004442849,NaN,-0.8713481,0.000395286,NaN,-1.562081,-14.59631,NaN,-1.907153,-1.479543,0.1413725,14.11865,NaN,NaN,-0.1117707,0.8108841,-1.855026E-07,1.064645,-2.349158E-09,1.346963
828.9396,-0.01411401,0.0004442849,NaN,-0.8713481,0.000395286,NaN,-1.562081,-14.59631,NaN,-1.907153,-1.479543,0.1413725,14.11865,NaN,NaN,-0.1117707,0.8108841,-1.855026E-07,1.064645,-2.349158E-09,1.346963
828.9539,-0.01411452,0.0004446853,NaN,-0.8712597,0.0003948917,NaN,-1.562126,-14.59704,NaN,-1.90676,-1.479091,0.1413346,14.11824,NaN,NaN,-0.1117782,0.8101283,-1.845341E-07,1.064005,-2.349158E-09,1.350374
828.9697,-0.01411521,0.0004447331,NaN,-0.8710837,0.0003947723,NaN,-1.562476,-14.59543,NaN,-1.905716,-1.472778,0.1397681,14.11142,NaN,NaN,-0.1119149,0.811595,-1.805107E-07,1.054801,-7.117529E-09,1.341213
828.9843,-0.01411604,0.0004450307,NaN,-0.8708545,0.0003941029,NaN,-1.562695,-14.59663,NaN,-1.904364,-1.480825,0.138174,14.12004,NaN,NaN,-0.1120489,0.8105904,-1.820381E-07,1.066527,-9.501715E-09,1.348889
828.9992,-0.01411604,0.0004450307,NaN,-0.8708545,0.0003941029,NaN,-1.562695,-14.59663,NaN,-1.904364,-1.480825,0.138174,14.12004,NaN,NaN,-0.1120489,0.8105904,-1.820381E-07,1.066527,-9.501715E-09,1.348889
829.0135,-0.01411694,0.0004451535,NaN,-0.8705934,0.0003946847,NaN,-1.562837,-14.5957,NaN,-1.902868,-1.469585,0.1366388,14.1081,NaN,NaN,-0.1121803,0.811307,-1.821126E-07,1.050188,-1.18859E-08,1.342011
829.0288,-0.0141179,0.0004451181,NaN,-0.8703139,0.000395047,NaN,-1.562945,-14.59607,NaN,-1.901312,-1.469181,0.1351484,14.10772,NaN,NaN,-0.1123091,0.810925,-1.814421E-07,1.049613,-2.142264E-08,1.342463
829.0449,-0.01411903,0.0004453648,NaN,-0.8699548,0.0003947252,NaN,-1.563363,-14.59666,NaN,-1.899158,-1.47866,0.1321479,14.11776,NaN,NaN,-0.1125648,0.8106123,-1.777913E-07,1.063389,-2.142264E-08,1.348248
829.0594,-0.01411903,0.0004453648,NaN,-0.8699548,0.0003947252,NaN,-1.563363,-14.59666,NaN,-1.899158,-1.47866,0.1321479,14.11776,NaN,NaN,-0.1125648,0.8106123,-1.777913E-07,1.063389,-2.142264E-08,1.348248
829.0736,-0.01412028,0.0004453299,NaN,-0.8695483,0.0003951237,NaN,-1.563651,-14.59576,NaN,-1.896728,-1.469371,0.1291501,14.10788,NaN,NaN,-0.1128154,0.8113197,-1.795794E-07,1.049882,-2.380683E-08,1.34158
829.0883,-0.01412167,0.00044516,NaN,-0.8691143,0.0003952273,NaN,-1.563862,-14.59624,NaN,-1.89418,-1.470997,0.1262381,14.10964,NaN,NaN,-0.1130612,0.8108851,-1.795794E-07,1.052258,-1.903846E-08,1.342776
829.1026,-0.01412324,0.0004447433,NaN,-0.8686653,0.0003954734,NaN,-1.564035,-14.59587,NaN,-1.891591,-1.467711,0.1233974,14.10613,NaN,NaN,-0.1133021,0.8111477,-1.793186E-07,1.047472,-1.903846E-08,1.340719
829.1174,-0.01412324,0.0004447433,NaN,-0.8686653,0.0003954734,NaN,-1.564035,-14.59587,NaN,-1.891591,-1.467711,0.1233974,14.10613,NaN,NaN,-0.1133021,0.8111477,-1.793186E-07,1.047472,-1.903846E-08,1.340719
829.1329,-0.01412517,0.0004450722,NaN,-0.8681397,0.0003951317,NaN,-1.564505,-14.596,NaN,-1.888423,-1.479178,0.1190685,14.11821,NaN,NaN,-0.1136677,0.8113696,-1.760031E-07,1.064119,-1.903846E-08,1.344942
829.1469,-0.01412746,0.000444797,NaN,-0.8675693,0.0003951135,NaN,-1.564841,-14.59538,NaN,-1.884995,-1.468593,0.1147768,14.10698,NaN,NaN,-0.1140261,0.8117692,-1.77754E-07,1.048727,-1.665427E-08,1.338065
829.1618,-0.01413004,0.0004451359,NaN,-0.8669736,0.0003945819,NaN,-1.565098,-14.5959,NaN,-1.881464,-1.48037,0.1105962,14.11945,NaN,NaN,-0.1143775,0.8116031,-1.773442E-07,1.065849,-1.665427E-08,1.344431
829.1766,-0.01413004,0.0004451359,NaN,-0.8669736,0.0003945819,NaN,-1.565098,-14.5959,NaN,-1.881464,-1.48037,0.1105962,14.11945,NaN,NaN,-0.1143775,0.8116031,-1.773442E-07,1.065849,-1.665427E-08,1.344431
829.191,-0.01413308,0.0004456347,NaN,-0.8662958,0.0003938119,NaN,-1.565619,-14.59572,NaN,-1.877331,-1.482406,0.1049569,14.12156,NaN,NaN,-0.1148514,0.8118051,-1.746993E-07,1.068798,-1.665427E-08,1.344094
829.2062,-0.01413655,0.000445666,NaN,-0.8655703,0.0003932363,NaN,-1.565995,-14.59535,NaN,-1.872933,-1.474741,0.09939185,14.11343,NaN,NaN,-0.115316,0.8120484,-1.754071E-07,1.057648,-1.665427E-08,1.340058
829.2211,-0.01414035,0.0004456035,NaN,-0.8648186,0.0003934042,NaN,-1.566288,-14.59528,NaN,-1.868438,-1.468828,0.09396426,14.10718,NaN,NaN,-0.1157715,0.811972,-1.744013E-07,1.04905,-1.903846E-08,1.337157
829.2361,-0.01414035,0.0004456035,NaN,-0.8648186,0.0003934042,NaN,-1.566288,-14.59528,NaN,-1.868438,-1.468828,0.09396426,14.10718,NaN,NaN,-0.1157715,0.811972,-1.744013E-07,1.04905,-1.903846E-08,1.337157
829.2502,-0.01414441,0.0004451396,NaN,-0.864054,0.0003933298,NaN,-1.566536,-14.59491,NaN,-1.863926,-1.468287,0.08865775,14.10655,NaN,NaN,-0.1162181,0.8123255,-1.729857E-07,1.048245,-2.142264E-08,1.334525
829.2659,-0.01414888,0.000444728,NaN,-0.8632157,0.0003928899,NaN,-1.567042,-14.59636,NaN,-1.858862,-1.474007,0.08190144,14.11278,NaN,NaN,-0.1167854,0.8110541,-1.682918E-07,1.056622,-2.380683E-08,1.343405
829.2816,-0.01415374,0.0004446795,NaN,-0.8623356,0.0003919303,NaN,-1.567409,-14.59553,NaN,-1.853566,-1.480593,0.07525054,14.1196,NaN,NaN,-0.1173415,0.8120264,-1.686457E-07,1.066151,-2.85752E-08,1.341831
829.2957,-0.01415374,0.0004446795,NaN,-0.8623356,0.0003919303,NaN,-1.567409,-14.59553,NaN,-1.853566,-1.480593,0.07525054,14.1196,NaN,NaN,-0.1173415,0.8120264,-1.686457E-07,1.066151,-2.85752E-08,1.341831
829.3097,-0.0141589,0.0004443765,NaN,-0.8614336,0.0003918983,NaN,-1.567697,-14.59536,NaN,-1.848194,-1.468861,0.06875645,14.1072,NaN,NaN,-0.1178868,0.8119782,-1.665409E-07,1.049096,-2.619101E-08,1.337171
829.3251,-0.01416429,0.0004442343,NaN,-0.8605222,0.0003921328,NaN,-1.56794,-14.59604,NaN,-1.842823,-1.469612,0.06240345,14.10808,NaN,NaN,-0.1184213,0.811309,-1.631323E-07,1.05021,-2.619101E-08,1.342248
829.3398,-0.01416429,0.0004442343,NaN,-0.8605222,0.0003921328,NaN,-1.56794,-14.59604,NaN,-1.842823,-1.469612,0.06240345,14.10808,NaN,NaN,-0.1184213,0.811309,-1.631323E-07,1.05021,-2.619101E-08,1.342248
829.3541,-0.01417007,0.000444281,NaN,-0.8595396,0.0003914776,NaN,-1.568416,-14.59514,NaN,-1.836915,-1.479282,0.0546158,14.11813,NaN,NaN,-0.1190748,0.8124812,-1.557376E-07,1.064208,-2.380683E-08,1.339061
829.3694,-0.01417622,0.000443985,NaN,-0.8585176,0.0003913754,NaN,-1.568756,-14.59524,NaN,-1.83079,-1.470103,0.0469665,14.10844,NaN,NaN,-0.1197155,0.8121854,-1.536607E-07,1.050862,-2.619101E-08,1.337141
829.3843,-0.01418266,0.0004434729,NaN,-0.8574759,0.000391494,NaN,-1.56902,-14.59543,NaN,-1.824601,-1.467805,0.0394924,14.10603,NaN,NaN,-0.1203436,0.8119248,-1.492043E-07,1.047527,-1.903845E-08,1.337148
829.3992,-0.01418266,0.0004434729,NaN,-0.8574759,0.000391494,NaN,-1.56902,-14.59543,NaN,-1.824601,-1.467805,0.0394924,14.10603,NaN,NaN,-0.1203436,0.8119248,-1.492043E-07,1.047527,-1.903845E-08,1.337148
829.4135,-0.01418954,0.0004439308,NaN,-0.8563573,0.0003911877,NaN,-1.569479,-14.59528,NaN,-1.817851,-1.479348,0.03060889,14.11817,NaN,NaN,-0.1210889,0.8124232,-1.423126E-07,1.064283,-1.903845E-08,1.339175
829.4288,-0.01419683,0.0004438004,NaN,-0.8551962,0.0003912843,NaN,-1.5698,-14.59536,NaN,-1.810876,-1.468699,0.02189727,14.10693,NaN,NaN,-0.1218195,0.8121203,-1.372741E-07,1.048802,-1.665427E-08,1.336679
829.4437,-0.01420444,0.0004436985,NaN,-0.8540142,0.0003904476,NaN,-1.570042,-14.59545,NaN,-1.803841,-1.479672,0.01338187,14.1185,NaN,NaN,-0.1225358,0.8123599,-1.303637E-07,1.064743,-1.665427E-08,1.34002
829.4586,-0.01420444,0.0004436985,NaN,-0.8540142,0.0003904476,NaN,-1.570042,-14.59545,NaN,-1.803841,-1.479672,0.01338187,14.1185,NaN,NaN,-0.1225358,0.8123599,-1.303637E-07,1.064743,-1.665427E-08,1.34002
829.4728,-0.01421229,0.0004440975,NaN,-0.8528244,0.0003896988,NaN,-1.57024,-14.59523,NaN,-1.796827,-1.481164,0.005047336,14.12004,NaN,NaN,-0.1232381,0.8125886,-1.234533E-07,1.0669,-1.665427E-08,1.341283
829.4884,-0.01422052,0.0004442522,NaN,-0.851566,0.000389211,NaN,-1.570608,-14.59512,NaN,-1.789299,-1.476855,-0.004688025,14.11547,NaN,NaN,-0.124056,0.8125964,-1.109177E-07,1.060626,-1.427008E-08,1.333776
829.5032,-0.01422913,0.0004442872,NaN,-0.8502708,0.0003891741,NaN,-1.57071,-14.59599,NaN,-1.781576,-1.472523,-0.01430231,14.11098,NaN,NaN,-0.124858,0.8116283,-1.099864E-07,1.054348,-1.665427E-08,1.341113
829.5189,-0.01422913,0.0004442872,NaN,-0.8502708,0.0003891741,NaN,-1.57071,-14.59599,NaN,-1.781576,-1.472523,-0.01430231,14.11098,NaN,NaN,-0.124858,0.8116283,-1.099864E-07,1.054348,-1.665427E-08,1.341113
829.5331,-0.01423802,0.000444308,NaN,-0.8489587,0.0003896042,NaN,-1.57064,-14.5952,NaN,-1.773813,-1.469483,-0.02370239,14.10766,NaN,NaN,-0.1256442,0.8123271,-1.077884E-07,1.049896,-1.18859E-08,1.341007
829.5474,-0.01424712,0.0004442641,NaN,-0.8476419,0.0003899112,NaN,-1.570512,-14.59593,NaN,-1.766087,-1.469772,-0.03287315,14.10806,NaN,NaN,-0.126415,0.811595,-1.005986E-07,1.050344,-7.117526E-09,1.342265
829.5623,-0.01425594,0.0004442227,NaN,-0.8463287,0.0003903206,NaN,-1.570403,-14.59587,NaN,-1.758434,-1.468802,-0.0418265,14.10701,NaN,NaN,-0.1271698,0.8116246,-8.998154E-08,1.048928,-9.501711E-09,1.342826
829.5769,-0.01425594,0.0004442227,NaN,-0.8463287,0.0003903206,NaN,-1.570403,-14.59587,NaN,-1.758434,-1.468802,-0.0418265,14.10701,NaN,NaN,-0.1271698,0.8116246,-8.998154E-08,1.048928,-9.501711E-09,1.342826
829.5931,-0.01426462,0.0004442272,NaN,-0.8450235,0.0003902611,NaN,-1.57034,-14.59624,NaN,-1.750872,-1.47419,-0.05058303,14.11273,NaN,NaN,-0.1279097,0.8114053,-7.880567E-08,1.056765,-9.501711E-09,1.343116
829.6063,-0.0142732,0.0004438016,NaN,-0.843729,0.0003903679,NaN,-1.570314,-14.59503,NaN,-1.743408,-1.467959,-0.05915918,14.10601,NaN,NaN,-0.1286352,0.8124512,-6.628869E-08,1.047671,-4.73334E-09,1.333864
829.6212,-0.01428172,0.0004440327,NaN,-0.842447,0.0003898946,NaN,-1.570306,-14.59532,NaN,-1.736047,-1.479669,-0.06756414,14.1184,NaN,NaN,-0.1293464,0.8125227,-5.541084E-08,1.064701,-2.349154E-09,1.34129
829.6362,-0.01428172,0.0004440327,NaN,-0.842447,0.0003898946,NaN,-1.570306,-14.59532,NaN,-1.736047,-1.479669,-0.06756414,14.1184,NaN,NaN,-0.1293464,0.8125227,-5.541084E-08,1.064701,-2.349154E-09,1.34129
829.6504,-0.01429001,0.0004438652,NaN,-0.8412478,0.0003900948,NaN,-1.570161,-14.5948,NaN,-1.729363,-1.468518,-0.07424148,14.10656,NaN,NaN,-0.1299144,0.812825,-4.930137E-08,1.048471,-4.73334E-09,1.334706
829.6658,-0.01429803,0.0004442536,NaN,-0.8401049,0.00038969,NaN,-1.570112,-14.59511,NaN,-1.723056,-1.480021,-0.08077914,14.11874,NaN,NaN,-0.1304713,0.8128717,-3.961561E-08,1.065206,-7.117526E-09,1.340153
829.6808,-0.01430582,0.0004442997,NaN,-0.839002,0.000390263,NaN,-1.57009,-14.59526,NaN,-1.716983,-1.468554,-0.08719626,14.10664,NaN,NaN,-0.1310172,0.8125011,-2.978085E-08,1.048528,-4.73334E-09,1.338943
829.6956,-0.01430582,0.0004442997,NaN,-0.839002,0.000390263,NaN,-1.57009,-14.59526,NaN,-1.716983,-1.468554,-0.08719626,14.10664,NaN,NaN,-0.1310172,0.8125011,-2.978085E-08,1.048528,-4.73334E-09,1.338943
829.7098,-0.01431322,0.0004441048,NaN,-0.837998,0.0003906302,NaN,-1.569957,-14.59544,NaN,-1.711642,-1.467554,-0.09193286,14.1056,NaN,NaN,-0.1314231,0.8122787,-2.680062E-08,1.047079,-4.73334E-09,1.337273
829.7253,-0.01432023,0.0004434897,NaN,-0.8370594,0.0003907462,NaN,-1.569883,-14.59501,NaN,-1.706698,-1.466739,-0.09658312,14.10467,NaN,NaN,-0.1318211,0.8126832,-2.195774E-08,1.04587,-7.117526E-09,1.331996
829.741,-0.01432691,0.0004435807,NaN,-0.8361655,0.0003902516,NaN,-1.569831,-14.59429,NaN,-1.701988,-1.477355,-0.1011473,14.11577,NaN,NaN,-0.1322113,0.8137317,-1.651881E-08,1.061268,-9.501711E-09,1.332503
829.7559,-0.01432691,0.0004435807,NaN,-0.8361655,0.0003902516,NaN,-1.569831,-14.59429,NaN,-1.701988,-1.477355,-0.1011473,14.11577,NaN,NaN,-0.1322113,0.8137317,-1.651881E-08,1.061268,-9.501711E-09,1.332503
829.7689,-0.01433334,0.0004433225,NaN,-0.8353032,0.0003903085,NaN,-1.569787,-14.59486,NaN,-1.697428,-1.468793,-0.1056228,14.10676,NaN,NaN,-0.1325938,0.8129649,-1.040934E-08,1.048818,-1.18859E-08,1.332352
829.7845,-0.01433937,0.0004429887,NaN,-0.8345335,0.0003906429,NaN,-1.569646,-14.59523,NaN,-1.69355,-1.467061,-0.10846,14.10497,NaN,NaN,-0.1328396,0.8125238,-1.212297E-08,1.046311,-1.18859E-08,1.333515
829.7992,-0.01433937,0.0004429887,NaN,-0.8345335,0.0003906429,NaN,-1.569646,-14.59523,NaN,-1.69355,-1.467061,-0.10846,14.10497,NaN,NaN,-0.1328396,0.8125238,-1.212297E-08,1.046311,-1.18859E-08,1.333515
829.8134,-0.01434502,0.0004429024,NaN,-0.8338243,0.0003909612,NaN,-1.569551,-14.5961,NaN,-1.690032,-1.4694,-0.1112466,14.10755,NaN,NaN,-0.1330805,0.8117212,-1.137791E-08,1.049747,-1.665427E-08,1.339916
829.8286,-0.01435035,0.000443112,NaN,-0.8331558,0.0003905397,NaN,-1.569477,-14.59621,NaN,-1.686719,-1.479396,-0.1139822,14.11809,NaN,NaN,-0.1333167,0.8118955,-9.664281E-09,1.064267,-1.903845E-08,1.343735
829.8436,-0.01435542,0.0004429893,NaN,-0.8325153,0.0003910439,NaN,-1.56941,-14.59555,NaN,-1.683533,-1.467327,-0.1166651,14.10528,NaN,NaN,-0.1335483,0.812307,-7.429107E-09,1.046709,-1.665427E-08,1.335514
829.8583,-0.01435542,0.0004429893,NaN,-0.8325153,0.0003910439,NaN,-1.56941,-14.59555,NaN,-1.683533,-1.467327,-0.1166651,14.10528,NaN,NaN,-0.1335483,0.812307,-7.429107E-09,1.046709,-1.665427E-08,1.335514
829.8723,-0.0143601,0.0004433539,NaN,-0.8319643,0.0003907554,NaN,-1.569262,-14.59574,NaN,-1.681007,-1.479075,-0.1177497,14.11769,NaN,NaN,-0.1336461,0.8124829,-1.301704E-08,1.063786,-2.142264E-08,1.34066
829.8879,-0.0143644,0.0004435652,NaN,-0.8314709,0.0003917644,NaN,-1.569155,-14.59617,NaN,-1.67882,-1.467583,-0.1188172,14.1056,NaN,NaN,-0.133742,0.8118193,-1.622079E-08,1.047086,-1.903845E-08,1.341396
829.9028,-0.01436839,0.0004438682,NaN,-0.8310153,0.0003918704,NaN,-1.569065,-14.59725,NaN,-1.676818,-1.475337,-0.1198666,14.11391,NaN,NaN,-0.1338359,0.8109717,-1.838146E-08,1.058393,-1.665427E-08,1.347905
829.9177,-0.01436839,0.0004438682,NaN,-0.8310153,0.0003918704,NaN,-1.569065,-14.59725,NaN,-1.676818,-1.475337,-0.1198666,14.11391,NaN,NaN,-0.1338359,0.8109717,-1.838146E-08,1.058393,-1.665427E-08,1.347905
829.9319,-0.01437192,0.0004438271,NaN,-0.8306544,0.0003923314,NaN,-1.568906,-14.59655,NaN,-1.675497,-1.468059,-0.1193528,14.10616,NaN,NaN,-0.1337988,0.8114882,-2.836524E-08,1.047804,-1.665427E-08,1.340713
829.9474,-0.01437503,0.000443695,NaN,-0.8303536,0.0003926064,NaN,-1.568785,-14.59686,NaN,-1.674516,-1.468925,-0.1188528,14.1071,NaN,NaN,-0.1337624,0.8111882,-3.507076E-08,1.049071,-1.427008E-08,1.342794
829.9623,-0.0143778,0.0004433375,NaN,-0.8300911,0.000391731,NaN,-1.568681,-14.59629,NaN,-1.673713,-1.479552,-0.118365,14.1182,NaN,NaN,-0.1337267,0.8120648,-4.006265E-08,1.06447,-1.427008E-08,1.342629
829.9781,-0.0143778,0.0004433375,NaN,-0.8300911,0.000391731,NaN,-1.568681,-14.59629,NaN,-1.673713,-1.479552,-0.118365,14.1182,NaN,NaN,-0.1337267,0.8120648,-4.006265E-08,1.06447,-1.427008E-08,1.342629
829.9924,-0.01438029,0.000442933,NaN,-0.8298535,0.0003913552,NaN,-1.568586,-14.59725,NaN,-1.673005,-1.472469,-0.1178876,14.11083,NaN,NaN,-0.1336917,0.8109622,-4.445849E-08,1.054202,-1.903846E-08,1.344337
830.0068,-0.01438238,0.0004427913,NaN,-0.8297017,0.0003904384,NaN,-1.56842,-14.59728,NaN,-1.672922,-1.480152,-0.115877,14.11891,NaN,NaN,-0.1335282,0.8111285,-5.526183E-08,1.065351,-1.665427E-08,1.348085
830.0213,-0.01438408,0.0004425761,NaN,-0.8296034,0.0003900583,NaN,-1.568288,-14.5963,NaN,-1.673145,-1.473536,-0.1139084,14.11183,NaN,NaN,-0.1333678,0.8119614,-6.464956E-08,1.055717,-2.142264E-08,1.340935
830.0364,-0.01438408,0.0004425761,NaN,-0.8296034,0.0003900583,NaN,-1.568288,-14.5963,NaN,-1.673145,-1.473536,-0.1139084,14.11183,NaN,NaN,-0.1333678,0.8119614,-6.464956E-08,1.055717,-2.142264E-08,1.340935
830.0516,-0.01438546,0.0004419115,NaN,-0.8295386,0.0003891154,NaN,-1.568171,-14.59691,NaN,-1.673517,-1.475178,-0.1119803,14.11363,NaN,NaN,-0.1332106,0.8113968,-7.232366E-08,1.058123,-1.665427E-08,1.344679
830.0658,-0.0143866,0.0004415047,NaN,-0.8294948,0.0003884208,NaN,-1.568061,-14.59765,NaN,-1.673963,-1.475003,-0.1100905,14.11353,NaN,NaN,-0.1330564,0.8106463,-7.865665E-08,1.057892,-2.380683E-08,1.347267
830.0808,-0.01438748,0.0004414154,NaN,-0.8295318,0.0003882404,NaN,-1.56788,-14.59764,NaN,-1.675016,-1.473168,-0.1066938,14.11159,NaN,NaN,-0.1327761,0.8106103,-9.296177E-08,1.055226,-2.380683E-08,1.347962
830.0956,-0.01438748,0.0004414154,NaN,-0.8295318,0.0003882404,NaN,-1.56788,-14.59764,NaN,-1.675016,-1.473168,-0.1066938,14.11159,NaN,NaN,-0.1327761,0.8106103,-9.296177E-08,1.055226,-2.380683E-08,1.347962
830.1099,-0.01438818,0.000441797,NaN,-0.8296186,0.0003880048,NaN,-1.56773,-14.59771,NaN,-1.676356,-1.47845,-0.1033658,14.11714,NaN,NaN,-0.1325012,0.8106606,-1.042867E-07,1.06289,-2.619102E-08,1.350317
830.1254,-0.01438879,0.0004418291,NaN,-0.8297356,0.0003884979,NaN,-1.567594,-14.59656,NaN,-1.677829,-1.468682,-0.1001045,14.10673,NaN,NaN,-0.1322317,0.8116066,-1.141214E-07,1.048677,-2.380683E-08,1.341376
830.14,-0.01438934,0.0004416795,NaN,-0.8298709,0.0003889454,NaN,-1.567464,-14.59684,NaN,-1.679358,-1.467039,-0.09690738,14.10503,NaN,NaN,-0.1319674,0.8112705,-1.223171E-07,1.0463,-1.903846E-08,1.342328
830.1552,-0.01438934,0.0004416795,NaN,-0.8298709,0.0003889454,NaN,-1.567464,-14.59684,NaN,-1.679358,-1.467039,-0.09690738,14.10503,NaN,NaN,-0.1319674,0.8112705,-1.223171E-07,1.0463,-1.903846E-08,1.342328
830.1693,-0.01438974,0.000441403,NaN,-0.830086,0.000389366,NaN,-1.567256,-14.59713,NaN,-1.681478,-1.466319,-0.09222595,14.1043,NaN,NaN,-0.1315791,0.8109505,-1.372182E-07,1.045265,-1.903846E-08,1.343681
830.1849,-0.01439002,0.0004411443,NaN,-0.8303495,0.0003898212,NaN,-1.567081,-14.59758,NaN,-1.683868,-1.466267,-0.08763815,14.1043,NaN,NaN,-0.1311983,0.810487,-1.488411E-07,1.045207,-2.142264E-08,1.346545
830.2009,-0.01439021,0.0004408986,NaN,-0.8306416,0.0003891535,NaN,-1.566919,-14.59703,NaN,-1.686377,-1.478541,-0.08314154,14.11711,NaN,NaN,-0.1308251,0.8114364,-1.591229E-07,1.06298,-2.142264E-08,1.345141
830.2147,-0.01439021,0.0004408986,NaN,-0.8306416,0.0003891535,NaN,-1.566919,-14.59703,NaN,-1.686377,-1.478541,-0.08314154,14.11711,NaN,NaN,-0.1308251,0.8114364,-1.591229E-07,1.06298,-2.142264E-08,1.345141
830.2288,-0.01439024,0.0004411295,NaN,-0.8310195,0.0003883527,NaN,-1.566673,-14.59771,NaN,-1.689498,-1.480971,-0.0771831,14.11974,NaN,NaN,-0.1303298,0.810785,-1.760357E-07,1.066527,-2.142264E-08,1.351132
830.2442,-0.01439013,0.0004409128,NaN,-0.8314484,0.0003882286,NaN,-1.566462,-14.59667,NaN,-1.692896,-1.469613,-0.07134314,14.10767,NaN,NaN,-0.1298443,0.8116035,-1.884037E-07,1.050012,-1.665427E-08,1.341765
830.2589,-0.01439013,0.0004409128,NaN,-0.8314484,0.0003882286,NaN,-1.566462,-14.59667,NaN,-1.692896,-1.469613,-0.07134314,14.10767,NaN,NaN,-0.1298443,0.8116035,-1.884037E-07,1.050012,-1.665427E-08,1.341765
830.2731,-0.01438993,0.0004411168,NaN,-0.8319071,0.0003875106,NaN,-1.566265,-14.59706,NaN,-1.696406,-1.480676,-0.06561874,14.11936,NaN,NaN,-0.1293682,0.8115258,-1.98313E-07,1.066087,-1.18859E-08,1.348097
830.2885,-0.01438968,0.0004409616,NaN,-0.832382,0.00038759,NaN,-1.566073,-14.59669,NaN,-1.699948,-1.469228,-0.060006,14.10725,NaN,NaN,-0.1289015,0.8116815,-2.076634E-07,1.049445,-1.18859E-08,1.342401
830.3033,-0.01438927,0.0004413363,NaN,-0.8329341,0.0003871498,NaN,-1.56578,-14.59692,NaN,-1.704053,-1.480148,-0.05294676,14.11877,NaN,NaN,-0.1283146,0.8117803,-2.197334E-07,1.065308,-1.18859E-08,1.347073
830.3182,-0.01438927,0.0004413363,NaN,-0.8329341,0.0003871498,NaN,-1.56578,-14.59692,NaN,-1.704053,-1.480148,-0.05294676,14.11877,NaN,NaN,-0.1283146,0.8117803,-2.197334E-07,1.065308,-1.18859E-08,1.347073
830.3327,-0.01438873,0.0004417084,NaN,-0.8335314,0.0003863455,NaN,-1.565524,-14.5969,NaN,-1.708402,-1.481959,-0.04602741,14.12067,NaN,NaN,-0.1277393,0.811817,-2.304995E-07,1.067933,-1.18859E-08,1.347058
830.348,-0.01438812,0.000441447,NaN,-0.8341538,0.0003859539,NaN,-1.565283,-14.59627,NaN,-1.712841,-1.470558,-0.03924507,14.10857,NaN,NaN,-0.1271752,0.8122458,-2.383971E-07,1.051346,-9.501715E-09,1.341086
830.3628,-0.01438745,0.0004413888,NaN,-0.834789,0.0003854085,NaN,-1.565047,-14.59641,NaN,-1.717293,-1.475791,-0.03259492,14.11411,NaN,NaN,-0.1266222,0.8122388,-2.460898E-07,1.058963,-2.349158E-09,1.343435
830.378,-0.01438745,0.0004413888,NaN,-0.834789,0.0003854085,NaN,-1.565047,-14.59641,NaN,-1.717293,-1.475791,-0.03259492,14.11411,NaN,NaN,-0.1266222,0.8122388,-2.460898E-07,1.058963,-2.349158E-09,1.343435
830.392,-0.01438662,0.0004413883,NaN,-0.8354986,0.0003859105,NaN,-1.564691,-14.59699,NaN,-1.722293,-1.468693,-0.02451186,14.10669,NaN,NaN,-0.1259507,0.8114865,-2.581598E-07,1.04867,-7.117529E-09,1.346954
830.4074,-0.01438567,0.0004409534,NaN,-0.8362508,0.0003857918,NaN,-1.564378,-14.59673,NaN,-1.727522,-1.470624,-0.01658861,14.10869,NaN,NaN,-0.1252923,0.8118029,-2.659829E-07,1.051465,-9.501715E-09,1.341455
830.4232,-0.01438464,0.0004405583,NaN,-0.8370259,0.0003856652,NaN,-1.564082,-14.59768,NaN,-1.732828,-1.471785,-0.008822829,14.11003,NaN,NaN,-0.1246469,0.8108824,-2.718502E-07,1.053191,-9.501715E-09,1.345981
830.438,-0.01438464,0.0004405583,NaN,-0.8370259,0.0003856652,NaN,-1.564082,-14.59768,NaN,-1.732828,-1.471785,-0.008822829,14.11003,NaN,NaN,-0.1246469,0.8108824,-2.718502E-07,1.053191,-9.501715E-09,1.345981
830.4513,-0.01438344,0.0004407549,NaN,-0.8378811,0.0003851,NaN,-1.563652,-14.5973,NaN,-1.738708,-1.480156,0.0003582621,14.11879,NaN,NaN,-0.1238849,0.8114771,-2.803671E-07,1.065326,-9.501715E-09,1.348041
830.4666,-0.01438201,0.0004408299,NaN,-0.8387818,0.000385454,NaN,-1.563271,-14.59676,NaN,-1.744824,-1.47147,0.009358484,14.10958,NaN,NaN,-0.1231377,0.8118417,-2.854661E-07,1.052696,-2.349158E-09,1.344018
830.4813,-0.01438032,0.0004404903,NaN,-0.8397065,0.0003856456,NaN,-1.56291,-14.59679,NaN,-1.751014,-1.468823,0.0181793,14.10678,NaN,NaN,-0.1224053,0.8117382,-2.889679E-07,1.048852,-4.733343E-09,1.339298
830.4961,-0.01438032,0.0004404903,NaN,-0.8397065,0.0003856456,NaN,-1.56291,-14.59679,NaN,-1.751014,-1.468823,0.0181793,14.10678,NaN,NaN,-0.1224053,0.8117382,-2.889679E-07,1.048852,-4.733343E-09,1.339298
830.5115,-0.01437842,0.0004403349,NaN,-0.8406419,0.0003855566,NaN,-1.562555,-14.5979,NaN,-1.757197,-1.473909,0.0268278,14.11229,NaN,NaN,-0.1216872,0.8107884,-2.914732E-07,1.056287,-7.117529E-09,1.34825
830.5259,-0.01437821,0.0004407317,NaN,-0.8407483,0.0003851153,NaN,-1.564214,-14.59716,NaN,-1.756442,-1.480909,0.01642942,14.11955,NaN,NaN,-0.1225347,0.8116936,-2.65005E-07,1.066418,-7.117529E-09,1.347304
830.5406,-0.01437928,0.0004410417,NaN,-0.8403443,0.0003860238,NaN,-1.56507,-14.5968,NaN,-1.752327,-1.469432,0.00630158,14.10741,NaN,NaN,-0.1233656,0.8118477,-2.52488E-07,1.049733,-7.117529E-09,1.345245
830.5557,-0.01437928,0.0004410417,NaN,-0.8403443,0.0003860238,NaN,-1.56507,-14.5968,NaN,-1.752327,-1.469432,0.00630158,14.10741,NaN,NaN,-0.1233656,0.8118477,-2.52488E-07,1.049733,-7.117529E-09,1.345245
830.5697,-0.01438149,0.0004411534,NaN,-0.839627,0.0003857894,NaN,-1.565544,-14.59685,NaN,-1.74658,-1.477919,-0.003497961,14.11636,NaN,NaN,-0.1241802,0.8120462,-2.378103E-07,1.062063,-9.501715E-09,1.343664
830.5851,-0.01438494,0.0004412328,NaN,-0.8387195,0.0003863743,NaN,-1.565839,-14.59674,NaN,-1.74006,-1.470033,-0.01304452,14.10802,NaN,NaN,-0.1249788,0.8119706,-2.237287E-07,1.050598,-1.18859E-08,1.34387
830.6,-0.01438928,0.0004408942,NaN,-0.8377681,0.0003864655,NaN,-1.565895,-14.59644,NaN,-1.733771,-1.470034,-0.0208065,14.10798,NaN,NaN,-0.1256324,0.8122599,-2.136332E-07,1.050585,-1.18859E-08,1.339036
830.6149,-0.01438928,0.0004408942,NaN,-0.8377681,0.0003864655,NaN,-1.565895,-14.59644,NaN,-1.733771,-1.470034,-0.0208065,14.10798,NaN,NaN,-0.1256324,0.8122599,-2.136332E-07,1.050585,-1.18859E-08,1.339036
830.6292,-0.01439422,0.0004408935,NaN,-0.8367938,0.0003858431,NaN,-1.565976,-14.59698,NaN,-1.727629,-1.479671,-0.02841106,14.1182,NaN,NaN,-0.1262732,0.8120008,-2.031279E-07,1.06461,-7.117529E-09,1.345178
830.6448,-0.01439957,0.0004410503,NaN,-0.8358098,0.0003852723,NaN,-1.56606,-14.59826,NaN,-1.7216,-1.478741,-0.03586746,14.11736,NaN,NaN,-0.1269014,0.810693,-1.915795E-07,1.063291,-7.117529E-09,1.351236
830.6606,-0.0144052,0.0004407707,NaN,-0.8348241,0.0003848436,NaN,-1.566139,-14.59725,NaN,-1.715667,-1.472528,-0.04317567,14.1107,NaN,NaN,-0.1275173,0.8115655,-1.820055E-07,1.054242,-4.733343E-09,1.345053
830.6746,-0.0144052,0.0004407707,NaN,-0.8348241,0.0003848436,NaN,-1.566139,-14.59725,NaN,-1.715667,-1.472528,-0.04317567,14.1107,NaN,NaN,-0.1275173,0.8115655,-1.820055E-07,1.054242,-4.733343E-09,1.345053
830.6885,-0.01441083,0.0004408997,NaN,-0.8339112,0.0003846188,NaN,-1.566088,-14.59815,NaN,-1.710398,-1.475554,-0.04877717,14.11399,NaN,NaN,-0.1279918,0.8107391,-1.772371E-07,1.058668,-4.733343E-09,1.351159
830.7037,-0.01441635,0.0004409278,NaN,-0.8330472,0.0003849007,NaN,-1.566089,-14.59772,NaN,-1.705488,-1.470702,-0.05427567,14.10883,NaN,NaN,-0.128457,0.8110456,-1.699356E-07,1.051611,-4.733343E-09,1.347331
830.7186,-0.01441635,0.0004409278,NaN,-0.8330472,0.0003849007,NaN,-1.566089,-14.59772,NaN,-1.705488,-1.470702,-0.05427567,14.10883,NaN,NaN,-0.128457,0.8110456,-1.699356E-07,1.051611,-4.733343E-09,1.347331
830.7328,-0.01442175,0.0004409037,NaN,-0.8322172,0.0003843937,NaN,-1.566109,-14.59818,NaN,-1.700793,-1.478308,-0.05967116,14.11689,NaN,NaN,-0.1289131,0.8107997,-1.624105E-07,1.062667,-9.501715E-09,1.350893
830.7484,-0.01442684,0.0004406341,NaN,-0.8314813,0.0003843406,NaN,-1.566028,-14.59756,NaN,-1.69681,-1.470737,-0.06340595,14.10884,NaN,NaN,-0.1292309,0.8112555,-1.613674E-07,1.051658,-1.427009E-08,1.344677
830.7631,-0.0144316,0.0004409506,NaN,-0.8308068,0.0003839821,NaN,-1.565999,-14.59798,NaN,-1.693205,-1.479609,-0.06707527,14.11823,NaN,NaN,-0.1295425,0.8110836,-1.581637E-07,1.06455,-9.501715E-09,1.349726
830.778,-0.0144316,0.0004409506,NaN,-0.8308068,0.0003839821,NaN,-1.565999,-14.59798,NaN,-1.693205,-1.479609,-0.06707527,14.11823,NaN,NaN,-0.1295425,0.8110836,-1.581637E-07,1.06455,-9.501715E-09,1.349726
830.7922,-0.01443608,0.0004411734,NaN,-0.8301731,0.0003830273,NaN,-1.565989,-14.59795,NaN,-1.689814,-1.482457,-0.07067743,14.12121,NaN,NaN,-0.1298479,0.8111652,-1.542894E-07,1.068684,-9.501715E-09,1.348578
830.8076,-0.01444033,0.0004412186,NaN,-0.8295675,0.0003826118,NaN,-1.565987,-14.59689,NaN,-1.686554,-1.475676,-0.07421029,14.11395,NaN,NaN,-0.1301474,0.8121105,-1.494465E-07,1.058807,-1.18859E-08,1.343923
830.8226,-0.01444423,0.0004411542,NaN,-0.8290512,0.0003829405,NaN,-1.565896,-14.5971,NaN,-1.683957,-1.469133,-0.07612292,14.10707,NaN,NaN,-0.1303117,0.811745,-1.516072E-07,1.049304,-1.18859E-08,1.339751
830.8381,-0.01444423,0.0004411542,NaN,-0.8290512,0.0003829405,NaN,-1.565896,-14.5971,NaN,-1.683957,-1.469133,-0.07612292,14.10707,NaN,NaN,-0.1303117,0.811745,-1.516072E-07,1.049304,-1.18859E-08,1.339751
830.8515,-0.01444776,0.0004409175,NaN,-0.8285924,0.0003828368,NaN,-1.565848,-14.59718,NaN,-1.681703,-1.472192,-0.07800419,14.11029,NaN,NaN,-0.1304728,0.8117557,-1.517562E-07,1.053748,-1.427009E-08,1.339648
830.867,-0.014451,0.0004408703,NaN,-0.828171,0.0003830595,NaN,-1.565818,-14.59756,NaN,-1.679635,-1.471171,-0.07985236,14.10926,NaN,NaN,-0.1306307,0.8113484,-1.513091E-07,1.052276,-2.142264E-08,1.343839
830.8829,-0.014454,0.000440403,NaN,-0.8277747,0.0003831275,NaN,-1.565794,-14.59669,NaN,-1.677676,-1.4682,-0.08166561,14.10601,NaN,NaN,-0.1307856,0.8121325,-1.500425E-07,1.047925,-1.903846E-08,1.335615
830.8968,-0.014454,0.000440403,NaN,-0.8277747,0.0003831275,NaN,-1.565794,-14.59669,NaN,-1.677676,-1.4682,-0.08166561,14.10601,NaN,NaN,-0.1307856,0.8121325,-1.500425E-07,1.047925,-1.903846E-08,1.335615
830.9113,-0.01445664,0.0004399734,NaN,-0.8274649,0.0003833086,NaN,-1.565693,-14.59725,NaN,-1.676359,-1.468963,-0.08189558,14.10688,NaN,NaN,-0.1308081,0.8115907,-1.55556E-07,1.049057,-2.142264E-08,1.33895
830.9264,-0.01445893,0.0004398522,NaN,-0.8272098,0.0003826964,NaN,-1.565629,-14.59648,NaN,-1.675364,-1.478875,-0.08212619,14.11721,NaN,NaN,-0.1308301,0.8126604,-1.586852E-07,1.063415,-2.142264E-08,1.337939
830.9409,-0.01446092,0.000439914,NaN,-0.8269898,0.0003818932,NaN,-1.565581,-14.59808,NaN,-1.674537,-1.480044,-0.08235545,14.11862,NaN,NaN,-0.1308517,0.8110757,-1.612184E-07,1.06516,-1.665427E-08,1.347763
830.9558,-0.01446092,0.000439914,NaN,-0.8269898,0.0003818932,NaN,-1.565581,-14.59808,NaN,-1.674537,-1.480044,-0.08235545,14.11862,NaN,NaN,-0.1308517,0.8110757,-1.612184E-07,1.06516,-1.665427E-08,1.347763
830.9713,-0.01446249,0.000439675,NaN,-0.8268616,0.0003819083,NaN,-1.565463,-14.59631,NaN,-1.674374,-1.469199,-0.08103425,14.107,NaN,NaN,-0.1307436,0.8126245,-1.694141E-07,1.049363,-1.903846E-08,1.336191
830.9856,-0.01446366,0.0004397845,NaN,-0.8267906,0.0003812024,NaN,-1.565381,-14.59737,NaN,-1.674534,-1.480644,-0.07974368,14.11921,NaN,NaN,-0.1306376,0.811907,-1.756725E-07,1.06604,-1.903846E-08,1.344751
831.0004,-0.0144646,0.000440252,NaN,-0.8267553,0.0003805368,NaN,-1.565314,-14.5967,NaN,-1.674856,-1.481698,-0.07848125,14.12023,NaN,NaN,-0.1305337,0.8125864,-1.805899E-07,1.067546,-1.903846E-08,1.341816
831.0152,-0.0144646,0.000440252,NaN,-0.8267553,0.0003805368,NaN,-1.565314,-14.5967,NaN,-1.674856,-1.481698,-0.07848125,14.12023,NaN,NaN,-0.1305337,0.8125864,-1.805899E-07,1.067546,-1.903846E-08,1.341816
831.0295,-0.01446541,0.0004401964,NaN,-0.8267422,0.0003798477,NaN,-1.565254,-14.59628,NaN,-1.675256,-1.476217,-0.07724462,14.11439,NaN,NaN,-0.1304318,0.8128957,-1.848368E-07,1.05956,-2.380683E-08,1.334603
831.0451,-0.01446605,0.0004400196,NaN,-0.8268105,0.000380025,NaN,-1.565119,-14.59652,NaN,-1.676268,-1.468749,-0.07448463,14.10652,NaN,NaN,-0.1302026,0.812477,-1.954166E-07,1.0487,-2.142264E-08,1.337316
831.06,-0.01446656,0.000439938,NaN,-0.8269288,0.0003801297,NaN,-1.565017,-14.59722,NaN,-1.677569,-1.47131,-0.07178257,14.1093,NaN,NaN,-0.1299778,0.8118582,-2.033887E-07,1.052448,-2.380683E-08,1.340786
831.075,-0.01446656,0.000439938,NaN,-0.8269288,0.0003801297,NaN,-1.565017,-14.59722,NaN,-1.677569,-1.47131,-0.07178257,14.1093,NaN,NaN,-0.1299778,0.8118582,-2.033887E-07,1.052448,-2.380683E-08,1.340786
831.0889,-0.014467,0.0004394522,NaN,-0.8270774,0.0003801824,NaN,-1.564929,-14.59661,NaN,-1.679004,-1.468125,-0.06913581,14.10585,NaN,NaN,-0.1297575,0.8123745,-2.097217E-07,1.047792,-1.903846E-08,1.33458
831.1054,-0.01446739,0.0004395853,NaN,-0.827244,0.0003797396,NaN,-1.564847,-14.59599,NaN,-1.680497,-1.478188,-0.06654166,14.11638,NaN,NaN,-0.1295415,0.8132917,-2.154586E-07,1.062384,-1.903846E-08,1.335115
831.1204,-0.01446762,0.0004399106,NaN,-0.8274903,0.0003797686,NaN,-1.564684,-14.59813,NaN,-1.682582,-1.476221,-0.06244813,14.11453,NaN,NaN,-0.1292004,0.8111192,-2.26709E-07,1.059582,-2.619102E-08,1.346322
831.1342,-0.01446762,0.0004399106,NaN,-0.8274903,0.0003797686,NaN,-1.564684,-14.59813,NaN,-1.682582,-1.476221,-0.06244813,14.11453,NaN,NaN,-0.1292004,0.8111192,-2.26709E-07,1.059582,-2.619102E-08,1.346322
831.1482,-0.01446775,0.0004396171,NaN,-0.8277847,0.0003797709,NaN,-1.564554,-14.59707,NaN,-1.684938,-1.469207,-0.05843838,14.10701,NaN,NaN,-0.128866,0.8120033,-2.354262E-07,1.049361,-2.619102E-08,1.338928
831.1637,-0.01446779,0.0004395161,NaN,-0.8281074,0.0003799136,NaN,-1.564438,-14.59646,NaN,-1.687413,-1.471557,-0.05450937,14.1094,NaN,NaN,-0.1285382,0.8126805,-2.427278E-07,1.052747,-2.85752E-08,1.333783
831.1785,-0.01446779,0.0004395161,NaN,-0.8281074,0.0003799136,NaN,-1.564438,-14.59646,NaN,-1.687413,-1.471557,-0.05450937,14.1094,NaN,NaN,-0.1285382,0.8126805,-2.427278E-07,1.052747,-2.85752E-08,1.333783
831.1927,-0.01446767,0.0004395428,NaN,-0.8285155,0.0003794896,NaN,-1.564236,-14.59789,NaN,-1.690503,-1.478028,-0.04910458,14.11642,NaN,NaN,-0.1280874,0.811427,-2.55282E-07,1.062213,-2.85752E-08,1.345266
831.2083,-0.01446742,0.0004391448,NaN,-0.8289744,0.0003795486,NaN,-1.564069,-14.5966,NaN,-1.693869,-1.468413,-0.04380917,14.10613,NaN,NaN,-0.1276455,0.8124927,-2.645952E-07,1.048209,-3.095939E-08,1.335381
831.2229,-0.01446708,0.0004382825,NaN,-0.8294626,0.0003794303,NaN,-1.563917,-14.59654,NaN,-1.69735,-1.466657,-0.03861957,14.10426,NaN,NaN,-0.1272122,0.8124853,-2.725673E-07,1.045649,-3.334358E-08,1.334397
831.2377,-0.01446708,0.0004382825,NaN,-0.8294626,0.0003794303,NaN,-1.563917,-14.59654,NaN,-1.69735,-1.466657,-0.03861957,14.10426,NaN,NaN,-0.1272122,0.8124853,-2.725673E-07,1.045649,-3.334358E-08,1.334397
831.2521,-0.01446669,0.0004374116,NaN,-0.8299667,0.0003794805,NaN,-1.56377,-14.59703,NaN,-1.700862,-1.466862,-0.03353172,14.10454,NaN,NaN,-0.1267875,0.8119979,-2.793101E-07,1.045964,-3.095939E-08,1.336757
831.2678,-0.01446615,0.000437516,NaN,-0.8305477,0.0003790689,NaN,-1.563519,-14.59674,NaN,-1.704939,-1.478965,-0.02698452,14.11724,NaN,NaN,-0.1262417,0.8126751,-2.888468E-07,1.063528,-2.619102E-08,1.339847
831.2828,-0.01446549,0.0004373087,NaN,-0.8311735,0.0003788584,NaN,-1.563306,-14.59746,NaN,-1.70926,-1.472208,-0.02056878,14.11018,NaN,NaN,-0.1257066,0.8118057,-2.960367E-07,1.053721,-2.380683E-08,1.341448
831.2976,-0.01446549,0.0004373087,NaN,-0.8311735,0.0003788584,NaN,-1.563306,-14.59746,NaN,-1.70926,-1.472208,-0.02056878,14.11018,NaN,NaN,-0.1257066,0.8118057,-2.960367E-07,1.053721,-2.380683E-08,1.341448
831.312,-0.01446475,0.0004376409,NaN,-0.8318241,0.0003786857,NaN,-1.563108,-14.59797,NaN,-1.713673,-1.47794,-0.01428103,14.11628,NaN,NaN,-0.125182,0.8114392,-3.007305E-07,1.062063,-2.380683E-08,1.346287
831.3295,-0.01446395,0.0004376866,NaN,-0.8324872,0.0003792689,NaN,-1.562916,-14.59639,NaN,-1.718099,-1.468762,-0.008116353,14.10642,NaN,NaN,-0.1246677,0.8128156,-3.05443E-07,1.048681,-2.380683E-08,1.334574
831.3432,-0.01446301,0.000437445,NaN,-0.8332243,0.000379648,NaN,-1.562601,-14.59672,NaN,-1.723074,-1.467365,-0.0005070092,14.10498,NaN,NaN,-0.1240342,0.8124411,-3.132289E-07,1.046662,-1.903846E-08,1.336197
831.3569,-0.01446301,0.000437445,NaN,-0.8332243,0.000379648,NaN,-1.562601,-14.59672,NaN,-1.723074,-1.467365,-0.0005070092,14.10498,NaN,NaN,-0.1240342,0.8124411,-3.132289E-07,1.046662,-1.903846E-08,1.336197
831.3709,-0.01446194,0.0004376311,NaN,-0.8340037,0.0003793225,NaN,-1.56233,-14.59731,NaN,-1.72828,-1.479049,0.006950256,14.11738,NaN,NaN,-0.1234131,0.8122213,-3.181765E-07,1.063668,-1.903846E-08,1.343366
831.3864,-0.0144608,0.0004376888,NaN,-0.8348057,0.0003793275,NaN,-1.562076,-14.5979,NaN,-1.733563,-1.473643,0.01425838,14.11174,NaN,NaN,-0.1228041,0.8115309,-3.207563E-07,1.055825,-1.665427E-08,1.343544
831.4014,-0.0144596,0.0004369562,NaN,-0.8356181,0.0003790483,NaN,-1.561829,-14.59659,NaN,-1.738847,-1.468074,0.02142337,14.1057,NaN,NaN,-0.1222071,0.8126918,-3.226469E-07,1.047686,-1.427009E-08,1.337444
831.4162,-0.0144596,0.0004369562,NaN,-0.8356181,0.0003790483,NaN,-1.561829,-14.59659,NaN,-1.738847,-1.468074,0.02142337,14.1057,NaN,NaN,-0.1222071,0.8126918,-3.226469E-07,1.047686,-1.427009E-08,1.337444
831.4317,-0.01445814,0.000435893,NaN,-0.8365026,0.0003786236,NaN,-1.561436,-14.59624,NaN,-1.744669,-1.467716,0.03001989,14.10527,NaN,NaN,-0.1214925,0.8130268,-3.260089E-07,1.047149,-1.18859E-08,1.335063
831.4458,-0.01445637,0.0004362629,NaN,-0.8374276,0.0003782155,NaN,-1.561095,-14.59694,NaN,-1.750708,-1.479384,0.03844581,14.11768,NaN,NaN,-0.1207918,0.8127062,-3.270893E-07,1.064147,-1.18859E-08,1.340384
831.4609,-0.01445433,0.000436208,NaN,-0.8383735,0.0003785643,NaN,-1.560774,-14.59673,NaN,-1.756814,-1.468271,0.04670226,14.10592,NaN,NaN,-0.120105,0.8126968,-3.262697E-07,1.047979,-1.427009E-08,1.33518
831.4755,-0.01445433,0.000436208,NaN,-0.8383735,0.0003785643,NaN,-1.560774,-14.59673,NaN,-1.756814,-1.468271,0.04670226,14.10592,NaN,NaN,-0.120105,0.8126968,-3.262697E-07,1.047979,-1.427009E-08,1.33518
831.4899,-0.01445182,0.0004363701,NaN,-0.8393281,0.0003783788,NaN,-1.560461,-14.59792,NaN,-1.762909,-1.477124,0.0547981,14.11542,NaN,NaN,-0.1194315,0.8117959,-3.252639E-07,1.060899,-1.18859E-08,1.344531
831.5056,-0.01444899,0.0004363732,NaN,-0.8402838,0.0003775543,NaN,-1.560151,-14.59708,NaN,-1.768956,-1.480615,0.06273638,14.11899,NaN,NaN,-0.1187712,0.812708,-3.23513E-07,1.065942,-1.665428E-08,1.34051
831.5204,-0.01444596,0.0004361872,NaN,-0.8412359,0.0003775763,NaN,-1.559843,-14.59627,NaN,-1.774937,-1.470491,0.07052064,14.1082,NaN,NaN,-0.1181239,0.8133296,-3.210915E-07,1.051196,-1.427009E-08,1.333209
831.535,-0.01444596,0.0004361872,NaN,-0.8412359,0.0003775763,NaN,-1.559843,-14.59627,NaN,-1.774937,-1.470491,0.07052064,14.1082,NaN,NaN,-0.1181239,0.8133296,-3.210915E-07,1.051196,-1.427009E-08,1.333209
831.5512,-0.01444278,0.0004363383,NaN,-0.8421815,0.0003769816,NaN,-1.559535,-14.59723,NaN,-1.780843,-1.480257,0.07815394,14.11865,NaN,NaN,-0.1174893,0.8126597,-3.17478E-07,1.065443,-1.665428E-08,1.340775
831.5659,-0.01443973,0.0004362905,NaN,-0.8430496,0.0003774425,NaN,-1.559425,-14.59658,NaN,-1.786094,-1.469284,0.08405971,14.10698,NaN,NaN,-0.1169964,0.8130991,-3.127096E-07,1.049464,-1.665428E-08,1.335778
831.5796,-0.01443973,0.0004362905,NaN,-0.8430496,0.0003774425,NaN,-1.559425,-14.59658,NaN,-1.786094,-1.469284,0.08405971,14.10698,NaN,NaN,-0.1169964,0.8130991,-3.127096E-07,1.049464,-1.665428E-08,1.335778
831.5937,-0.01443685,0.0004365379,NaN,-0.8438659,0.0003771604,NaN,-1.559246,-14.59738,NaN,-1.79099,-1.479313,0.08985068,14.11767,NaN,NaN,-0.1165132,0.8126104,-3.094686E-07,1.064084,-1.665428E-08,1.341259
831.6088,-0.01443415,0.0004363438,NaN,-0.8446467,0.0003773346,NaN,-1.559039,-14.59648,NaN,-1.795676,-1.469519,0.09553983,14.10722,NaN,NaN,-0.1160395,0.8133058,-3.055943E-07,1.049813,-1.665428E-08,1.332115
831.6237,-0.01443159,0.0004359338,NaN,-0.845402,0.0003771195,NaN,-1.558823,-14.59671,NaN,-1.800224,-1.472468,0.1011226,14.11036,NaN,NaN,-0.1155751,0.8131664,-3.013475E-07,1.054106,-1.18859E-08,1.333561
831.6384,-0.01443159,0.0004359338,NaN,-0.845402,0.0003771195,NaN,-1.558823,-14.59671,NaN,-1.800224,-1.472468,0.1011226,14.11036,NaN,NaN,-0.1155751,0.8131664,-3.013475E-07,1.054106,-1.18859E-08,1.333561
831.6524,-0.01442935,0.0004354731,NaN,-0.8460689,0.0003762988,NaN,-1.558822,-14.59726,NaN,-1.804093,-1.478219,0.1050175,14.11649,NaN,NaN,-0.1152492,0.8127643,-2.960203E-07,1.062489,-1.18859E-08,1.337076
831.6678,-0.01442743,0.0004348149,NaN,-0.8466782,0.0003761762,NaN,-1.558742,-14.59652,NaN,-1.807605,-1.46894,0.1088332,14.1066,NaN,NaN,-0.1149296,0.8133033,-2.925931E-07,1.048968,-9.501719E-09,1.331198
831.6828,-0.01442578,0.0004344775,NaN,-0.8472493,0.0003753185,NaN,-1.558628,-14.5967,NaN,-1.810915,-1.479878,0.1125879,14.11817,NaN,NaN,-0.1146163,0.8134553,-2.887933E-07,1.064882,-1.18859E-08,1.335171
831.6977,-0.01442578,0.0004344775,NaN,-0.8472493,0.0003753185,NaN,-1.558628,-14.5967,NaN,-1.810915,-1.479878,0.1125879,14.11817,NaN,NaN,-0.1146163,0.8134553,-2.887933E-07,1.064882,-1.18859E-08,1.335171
831.712,-0.01442454,0.0004337993,NaN,-0.8477249,0.0003750358,NaN,-1.558732,-14.59626,NaN,-1.813523,-1.469248,0.1146942,14.10687,NaN,NaN,-0.1144384,0.813679,-2.835779E-07,1.049393,-1.18859E-08,1.330648
831.7274,-0.01442353,0.0004337956,NaN,-0.8481395,0.0003742448,NaN,-1.558745,-14.597,NaN,-1.81577,-1.480895,0.1167555,14.11927,NaN,NaN,-0.114264,0.8132783,-2.812682E-07,1.066369,-1.903846E-08,1.338425
831.7422,-0.01442267,0.000433788,NaN,-0.8485145,0.0003748228,NaN,-1.558718,-14.59645,NaN,-1.817823,-1.469192,0.1187922,14.10683,NaN,NaN,-0.1140931,0.8136106,-2.776174E-07,1.049318,-1.903846E-08,1.331236
831.7571,-0.01442267,0.000433788,NaN,-0.8485145,0.0003748228,NaN,-1.558718,-14.59645,NaN,-1.817823,-1.469192,0.1187922,14.10683,NaN,NaN,-0.1140931,0.8136106,-2.776174E-07,1.049318,-1.903846E-08,1.331236
831.771,-0.01442188,0.0004336041,NaN,-0.8488634,0.0003749829,NaN,-1.558675,-14.597,NaN,-1.819763,-1.470981,0.1207956,14.10878,NaN,NaN,-0.1139255,0.8131158,-2.740411E-07,1.05194,-1.903846E-08,1.333588
831.7886,-0.01442125,0.0004333271,NaN,-0.8491254,0.0003753409,NaN,-1.558868,-14.59668,NaN,-1.821055,-1.468066,0.1211826,14.10565,NaN,NaN,-0.1138905,0.8133444,-2.701668E-07,1.047681,-1.903846E-08,1.331747
831.8024,-0.01442074,0.0004333094,NaN,-0.8493325,0.0003750334,NaN,-1.558966,-14.59787,NaN,-1.822023,-1.477453,0.1215546,14.11572,NaN,NaN,-0.1138562,0.8124457,-2.683786E-07,1.061388,-1.665428E-08,1.340855
831.8162,-0.01442074,0.0004333094,NaN,-0.8493325,0.0003750334,NaN,-1.558966,-14.59787,NaN,-1.822023,-1.477453,0.1215546,14.11572,NaN,NaN,-0.1138562,0.8124457,-2.683786E-07,1.061388,-1.665428E-08,1.340855
831.8303,-0.0144203,0.0004326345,NaN,-0.8495049,0.0003747946,NaN,-1.55902,-14.59708,NaN,-1.822824,-1.467994,0.1219362,14.10564,NaN,NaN,-0.1138225,0.8130212,-2.66069E-07,1.047607,-1.665428E-08,1.335273
831.8458,-0.01441991,0.0004317634,NaN,-0.849655,0.0003745197,NaN,-1.559055,-14.59632,NaN,-1.823535,-1.468087,0.1223176,14.10563,NaN,NaN,-0.1137896,0.8137797,-2.635358E-07,1.047707,-1.665428E-08,1.329481
831.8605,-0.01441968,0.0004318606,NaN,-0.8497214,0.0003739306,NaN,-1.559328,-14.59769,NaN,-1.823618,-1.479565,0.1211154,14.11795,NaN,NaN,-0.1138866,0.8127764,-2.614496E-07,1.064474,-1.665428E-08,1.340765
831.8752,-0.01441968,0.0004318606,NaN,-0.8497214,0.0003739306,NaN,-1.559328,-14.59769,NaN,-1.823618,-1.479565,0.1211154,14.11795,NaN,NaN,-0.1138866,0.8127764,-2.614496E-07,1.064474,-1.665428E-08,1.340765
831.8903,-0.01441956,0.0004319926,NaN,-0.8497359,0.0003744825,NaN,-1.5595,-14.59804,NaN,-1.823396,-1.470307,0.1199291,14.10821,NaN,NaN,-0.1139816,0.8122396,-2.607046E-07,1.051018,-7.117533E-09,1.342484
831.9047,-0.01441953,0.0004318308,NaN,-0.84972,0.0003748488,NaN,-1.559623,-14.5973,NaN,-1.823022,-1.468124,0.1187841,14.1058,NaN,NaN,-0.1140748,0.8129135,-2.59438E-07,1.047812,-7.117533E-09,1.333588
831.9196,-0.01441953,0.0004318308,NaN,-0.84972,0.0003748488,NaN,-1.559623,-14.5973,NaN,-1.823022,-1.468124,0.1187841,14.1058,NaN,NaN,-0.1140748,0.8129135,-2.59438E-07,1.047812,-7.117533E-09,1.333588
831.934,-0.01441967,0.0004321403,NaN,-0.8496161,0.0003746255,NaN,-1.559968,-14.59827,NaN,-1.822,-1.478578,0.1160907,14.11696,NaN,NaN,-0.1142955,0.8122687,-2.572773E-07,1.063056,-7.117533E-09,1.342518
831.9495,-0.01441994,0.0004326319,NaN,-0.8494583,0.000374326,NaN,-1.560204,-14.59846,NaN,-1.820669,-1.480432,0.1134457,14.11893,NaN,NaN,-0.1145119,0.8121012,-2.569793E-07,1.065754,-1.18859E-08,1.344233
831.9642,-0.0144203,0.0004325531,NaN,-0.8492681,0.0003744924,NaN,-1.560384,-14.59688,NaN,-1.819194,-1.469489,0.1108723,14.10721,NaN,NaN,-0.114724,0.8134663,-2.559362E-07,1.049804,-1.18859E-08,1.333995
831.9791,-0.0144203,0.0004325531,NaN,-0.8492681,0.0003744924,NaN,-1.560384,-14.59688,NaN,-1.819194,-1.469489,0.1108723,14.10721,NaN,NaN,-0.114724,0.8134663,-2.559362E-07,1.049804,-1.18859E-08,1.333995
831.9934,-0.0144207,0.0004327144,NaN,-0.8490586,0.0003737991,NaN,-1.560538,-14.59773,NaN,-1.817659,-1.481191,0.1083584,14.11968,NaN,NaN,-0.114932,0.8129489,-2.53999E-07,1.066859,-1.427009E-08,1.339783
832.0087,-0.01442126,0.0004327926,NaN,-0.8487688,0.0003739683,NaN,-1.560916,-14.59704,NaN,-1.815528,-1.473016,0.1043192,14.11094,NaN,NaN,-0.1152652,0.8134723,-2.516149E-07,1.054938,-1.427009E-08,1.333665
832.0244,-0.01442195,0.0004326753,NaN,-0.8484309,0.0003742576,NaN,-1.561186,-14.59772,NaN,-1.813122,-1.469437,0.1003559,14.10723,NaN,NaN,-0.1155919,0.8126823,-2.510561E-07,1.049749,-9.501719E-09,1.336304
832.0392,-0.01442195,0.0004326753,NaN,-0.8484309,0.0003742576,NaN,-1.561186,-14.59772,NaN,-1.813122,-1.469437,0.1003559,14.10723,NaN,NaN,-0.1155919,0.8126823,-2.510561E-07,1.049749,-9.501719E-09,1.336304
832.0523,-0.01442271,0.0004325633,NaN,-0.8480647,0.0003747004,NaN,-1.5614,-14.59786,NaN,-1.810598,-1.467869,0.09648964,14.10558,NaN,NaN,-0.1159122,0.8124811,-2.493052E-07,1.047467,-7.117534E-09,1.337654
832.0676,-0.01442353,0.0004328115,NaN,-0.8476827,0.0003746753,NaN,-1.561586,-14.59901,NaN,-1.808033,-1.475977,0.09270832,14.11428,NaN,NaN,-0.1162262,0.8115848,-2.47666E-07,1.059298,-2.349162E-09,1.346337
832.0825,-0.0144245,0.0004332801,NaN,-0.8472233,0.0003742548,NaN,-1.561982,-14.59828,NaN,-1.80489,-1.481339,0.0874269,14.11983,NaN,NaN,-0.1166634,0.8124296,-2.444623E-07,1.067056,7.187581E-09,1.343395
832.0972,-0.0144245,0.0004332801,NaN,-0.8472233,0.0003742548,NaN,-1.561982,-14.59828,NaN,-1.80489,-1.481339,0.0874269,14.11983,NaN,NaN,-0.1166634,0.8124296,-2.444623E-07,1.067056,7.187581E-09,1.343395
832.1114,-0.0144256,0.0004335824,NaN,-0.8467184,0.0003746488,NaN,-1.562269,-14.59753,NaN,-1.801489,-1.473503,0.0822501,14.11146,NaN,NaN,-0.1170921,0.8130224,-2.434565E-07,1.05564,4.803395E-09,1.338013
832.1269,-0.01442677,0.0004336723,NaN,-0.8461874,0.000375391,NaN,-1.562499,-14.59816,NaN,-1.797984,-1.467825,0.07719388,14.10553,NaN,NaN,-0.1175123,0.812239,-2.411468E-07,1.0474,9.571766E-09,1.340708
832.1417,-0.01442801,0.0004337043,NaN,-0.8456429,0.0003755025,NaN,-1.562699,-14.59884,NaN,-1.794454,-1.472775,0.07224624,14.11084,NaN,NaN,-0.1179243,0.8117115,-2.388371E-07,1.05462,1.434014E-08,1.341543
832.1564,-0.01442801,0.0004337043,NaN,-0.8456429,0.0003755025,NaN,-1.562699,-14.59884,NaN,-1.794454,-1.472775,0.07224624,14.11084,NaN,NaN,-0.1179243,0.8117115,-2.388371E-07,1.05462,1.434014E-08,1.341543
832.1707,-0.01442955,0.000433627,NaN,-0.845023,0.0003751255,NaN,-1.56309,-14.59817,NaN,-1.790361,-1.476504,0.06582255,14.11467,NaN,NaN,-0.1184575,0.8124757,-2.342177E-07,1.060007,1.910851E-08,1.338787
832.1862,-0.01443144,0.0004339902,NaN,-0.8443595,0.0003745629,NaN,-1.563374,-14.59868,NaN,-1.786023,-1.481257,0.05953082,14.11974,NaN,NaN,-0.1189803,0.8120667,-2.315355E-07,1.066931,2.149269E-08,1.345069
832.2008,-0.01443361,0.0004339038,NaN,-0.843672,0.0003747657,NaN,-1.563601,-14.59778,NaN,-1.781597,-1.469194,0.05338109,14.10691,NaN,NaN,-0.1194929,0.8127398,-2.280524E-07,1.049372,2.149269E-08,1.336217
832.2158,-0.01443361,0.0004339038,NaN,-0.843672,0.0003747657,NaN,-1.563601,-14.59778,NaN,-1.781597,-1.469194,0.05338109,14.10691,NaN,NaN,-0.1194929,0.8127398,-2.280524E-07,1.049372,2.149269E-08,1.336217
832.23,-0.01443621,0.0004335623,NaN,-0.8429036,0.0003751111,NaN,-1.563992,-14.59838,NaN,-1.776583,-1.466552,0.04578467,14.10419,NaN,NaN,-0.1201247,0.8120595,-2.230046E-07,1.04555,1.910851E-08,1.338298
832.2455,-0.01443923,0.0004333422,NaN,-0.8420885,0.0003747857,NaN,-1.564272,-14.59921,NaN,-1.77132,-1.476045,0.03834897,14.1143,NaN,NaN,-0.1207442,0.8115386,-2.187205E-07,1.059376,2.149269E-08,1.343385
832.2613,-0.01444258,0.000433505,NaN,-0.8412483,0.0003741231,NaN,-1.564494,-14.59914,NaN,-1.765971,-1.480777,0.03107811,14.11926,NaN,NaN,-0.1213516,0.8117176,-2.131698E-07,1.066241,2.387688E-08,1.346294
832.2761,-0.01444258,0.000433505,NaN,-0.8412483,0.0003741231,NaN,-1.564494,-14.59914,NaN,-1.765971,-1.480777,0.03107811,14.11926,NaN,NaN,-0.1213516,0.8117176,-2.131698E-07,1.066241,2.387688E-08,1.346294
832.289,-0.01444619,0.0004331662,NaN,-0.8403964,0.0003740902,NaN,-1.564681,-14.59779,NaN,-1.760618,-1.468443,0.02396012,14.10611,NaN,NaN,-0.121947,0.8128272,-2.068112E-07,1.048283,2.626106E-08,1.335154
832.3045,-0.01445021,0.000433171,NaN,-0.8394718,0.0003737949,NaN,-1.565017,-14.59974,NaN,-1.754728,-1.476373,0.01541473,14.11473,NaN,NaN,-0.1226601,0.8111307,-1.952814E-07,1.059893,2.864525E-08,1.347208
832.3192,-0.01445021,0.000433171,NaN,-0.8394718,0.0003737949,NaN,-1.565017,-14.59974,NaN,-1.754728,-1.476373,0.01541473,14.11473,NaN,NaN,-0.1226601,0.8111307,-1.952814E-07,1.059893,2.864525E-08,1.347208
832.3333,-0.01445459,0.0004334339,NaN,-0.8385065,0.0003731633,NaN,-1.565253,-14.59802,NaN,-1.748618,-1.480494,0.007051354,14.11885,NaN,NaN,-0.1233592,0.8129341,-1.886877E-07,1.065815,2.864525E-08,1.34006
832.3501,-0.01445929,0.0004335153,NaN,-0.8375203,0.0003734215,NaN,-1.565435,-14.59753,NaN,-1.742445,-1.471565,-0.001130821,14.10935,NaN,NaN,-0.1240446,0.813251,-1.807714E-07,1.052808,2.626106E-08,1.335141
832.3638,-0.01446422,0.0004334365,NaN,-0.8365257,0.0003739956,NaN,-1.565585,-14.59843,NaN,-1.736284,-1.466932,-0.009142562,14.10456,NaN,NaN,-0.1247166,0.8122234,-1.721474E-07,1.046099,2.864525E-08,1.339275
832.3785,-0.01446422,0.0004334365,NaN,-0.8365257,0.0003739956,NaN,-1.565585,-14.59843,NaN,-1.736284,-1.466932,-0.009142562,14.10456,NaN,NaN,-0.1247166,0.8122234,-1.721474E-07,1.046099,2.864525E-08,1.339275
832.3926,-0.01446953,0.000433354,NaN,-0.835461,0.0003746125,NaN,-1.565856,-14.59866,NaN,-1.7296,-1.466336,-0.01855791,14.10395,NaN,NaN,-0.1255048,0.8119632,-1.595932E-07,1.045239,2.864525E-08,1.342053
832.4081,-0.0144752,0.0004331545,NaN,-0.8343579,0.0003750933,NaN,-1.566036,-14.59892,NaN,-1.722711,-1.466277,-0.02777155,14.10391,NaN,NaN,-0.1262775,0.8117031,-1.466291E-07,1.045161,2.864525E-08,1.340686
832.4228,-0.01448117,0.000433569,NaN,-0.833236,0.0003748682,NaN,-1.566166,-14.59891,NaN,-1.715769,-1.478908,-0.03678878,14.11721,NaN,NaN,-0.127035,0.8121245,-1.353788E-07,1.0635,2.626106E-08,1.344886
832.4377,-0.01448117,0.000433569,NaN,-0.833236,0.0003748682,NaN,-1.566166,-14.59891,NaN,-1.715769,-1.478908,-0.03678878,14.11721,NaN,NaN,-0.127035,0.8121245,-1.353788E-07,1.0635,2.626106E-08,1.344886
832.452,-0.01448485,0.0004339129,NaN,-0.832939,0.0003742414,NaN,-1.564816,-14.59911,NaN,-1.715729,-1.481426,-0.0268844,14.11988,NaN,NaN,-0.1262255,0.8119695,-1.755374E-07,1.067162,2.864525E-08,1.345553
832.4675,-0.01448574,0.0004340858,NaN,-0.8331509,0.0003739922,NaN,-1.564099,-14.59856,NaN,-1.719028,-1.476384,-0.01725867,14.11449,NaN,NaN,-0.1254319,0.8124176,-2.015539E-07,1.059815,2.387688E-08,1.341367
832.4821,-0.01448529,0.000433988,NaN,-0.833676,0.0003745075,NaN,-1.563632,-14.59871,NaN,-1.723967,-1.467422,-0.007888794,14.10504,NaN,NaN,-0.124654,0.8120646,-2.193142E-07,1.046786,2.626106E-08,1.3398
832.4979,-0.01448529,0.000433988,NaN,-0.833676,0.0003745075,NaN,-1.563632,-14.59871,NaN,-1.723967,-1.467422,-0.007888794,14.10504,NaN,NaN,-0.124654,0.8120646,-2.193142E-07,1.046786,2.626106E-08,1.3398
832.5122,-0.01448419,0.0004337057,NaN,-0.834392,0.0003748359,NaN,-1.563258,-14.59854,NaN,-1.729692,-1.467776,0.001273419,14.10538,NaN,NaN,-0.1238913,0.8122439,-2.322456E-07,1.047287,2.149269E-08,1.33868
832.5267,-0.01448287,0.0004331622,NaN,-0.8351532,0.0003740469,NaN,-1.563054,-14.59875,NaN,-1.735201,-1.478743,0.008681472,14.11697,NaN,NaN,-0.1232729,0.8123755,-2.36865E-07,1.063231,1.672432E-08,1.342603
832.5411,-0.01448127,0.0004326293,NaN,-0.8359389,0.0003744264,NaN,-1.562816,-14.59885,NaN,-1.740579,-1.467703,0.01594708,14.10532,NaN,NaN,-0.1226667,0.8120309,-2.408487E-07,1.047182,1.672432E-08,1.340373
832.5559,-0.01448127,0.0004326293,NaN,-0.8359389,0.0003744264,NaN,-1.562816,-14.59885,NaN,-1.740579,-1.467703,0.01594708,14.10532,NaN,NaN,-0.1226667,0.8120309,-2.408487E-07,1.047182,1.672432E-08,1.340373
832.57,-0.01447945,0.0004321584,NaN,-0.8367363,0.0003748879,NaN,-1.562562,-14.59896,NaN,-1.745857,-1.466714,0.02307699,14.10428,NaN,NaN,-0.1220724,0.81188,-2.448348E-07,1.045746,2.149269E-08,1.341427
832.5854,-0.01447746,0.0004315973,NaN,-0.8375373,0.0003752174,NaN,-1.562303,-14.59905,NaN,-1.75105,-1.466548,0.03007104,14.10411,NaN,NaN,-0.1214897,0.8117689,-2.470047E-07,1.045506,2.149269E-08,1.339094
832.6001,-0.01447558,0.000430979,NaN,-0.8382676,0.0003753556,NaN,-1.562204,-14.59966,NaN,-1.755591,-1.468704,0.03535741,14.10646,NaN,NaN,-0.1210478,0.811219,-2.455891E-07,1.048663,1.910851E-08,1.342819
832.615,-0.01447558,0.000430979,NaN,-0.8382676,0.0003753556,NaN,-1.562204,-14.59966,NaN,-1.755591,-1.468704,0.03535741,14.10646,NaN,NaN,-0.1210478,0.811219,-2.455891E-07,1.048663,1.910851E-08,1.342819
832.6291,-0.01447386,0.0004305374,NaN,-0.8389509,0.0003754853,NaN,-1.562047,-14.60009,NaN,-1.759784,-1.470683,0.04054556,14.10859,NaN,NaN,-0.1206147,0.8108456,-2.457195E-07,1.051552,2.149269E-08,1.346315
832.6448,-0.01447231,0.0004306278,NaN,-0.8396023,0.0003751655,NaN,-1.561867,-14.60021,NaN,-1.763775,-1.478807,0.04564126,14.11714,NaN,NaN,-0.12019,0.8109496,-2.454588E-07,1.063344,2.387688E-08,1.350177
832.6594,-0.01447231,0.0004306278,NaN,-0.8396023,0.0003751655,NaN,-1.561867,-14.60021,NaN,-1.763775,-1.478807,0.04564126,14.11714,NaN,NaN,-0.12019,0.8109496,-2.454588E-07,1.063344,2.387688E-08,1.350177
832.6739,-0.01447111,0.0004303289,NaN,-0.8401616,0.0003753321,NaN,-1.561856,-14.59886,NaN,-1.767062,-1.469032,0.04906555,14.1067,NaN,NaN,-0.119903,0.8120904,-2.432795E-07,1.049113,2.864525E-08,1.340218
832.6893,-0.01447012,0.0004307204,NaN,-0.8406617,0.000375334,NaN,-1.561777,-14.60008,NaN,-1.769982,-1.476825,0.05242785,14.11507,NaN,NaN,-0.1196217,0.8111066,-2.421805E-07,1.060488,3.102944E-08,1.349037
832.7042,-0.01446926,0.0004311812,NaN,-0.8411229,0.0003748817,NaN,-1.56167,-14.59951,NaN,-1.7727,-1.481656,0.05573483,14.12008,NaN,NaN,-0.1193459,0.8117794,-2.417707E-07,1.06748,3.102944E-08,1.348158
832.7188,-0.01446926,0.0004311812,NaN,-0.8411229,0.0003748817,NaN,-1.56167,-14.59951,NaN,-1.7727,-1.481656,0.05573483,14.12008,NaN,NaN,-0.1193459,0.8117794,-2.417707E-07,1.06748,3.102944E-08,1.348158
832.735,-0.01446846,0.0004315475,NaN,-0.8415581,0.0003749348,NaN,-1.561554,-14.59861,NaN,-1.775295,-1.476802,0.05898144,14.11486,NaN,NaN,-0.1190755,0.8125814,-2.410629E-07,1.060402,3.102944E-08,1.341423
832.7486,-0.01446783,0.000431872,NaN,-0.841906,0.0003750721,NaN,-1.561624,-14.59998,NaN,-1.777236,-1.475605,0.06058879,14.11375,NaN,NaN,-0.1189398,0.8111922,-2.378592E-07,1.058702,3.102944E-08,1.348844
832.7633,-0.01446732,0.0004323624,NaN,-0.8421983,0.00037508,NaN,-1.561621,-14.60003,NaN,-1.778844,-1.478087,0.06216782,14.11635,NaN,NaN,-0.1188067,0.811198,-2.370769E-07,1.062304,3.341362E-08,1.350528
832.7781,-0.01446732,0.0004323624,NaN,-0.8421983,0.00037508,NaN,-1.561621,-14.60003,NaN,-1.778844,-1.478087,0.06216782,14.11635,NaN,NaN,-0.1188067,0.811198,-2.370769E-07,1.062304,3.341362E-08,1.350528
832.792,-0.01446689,0.0004322309,NaN,-0.8424551,0.0003751348,NaN,-1.561587,-14.59851,NaN,-1.780275,-1.470249,0.06372754,14.10792,NaN,NaN,-0.1186763,0.8125384,-2.360338E-07,1.050875,3.102944E-08,1.339748
832.8087,-0.0144665,0.0004324735,NaN,-0.8426889,0.0003745966,NaN,-1.561541,-14.59916,NaN,-1.781607,-1.480068,0.06526155,14.11836,NaN,NaN,-0.1185484,0.8121749,-2.349907E-07,1.065174,3.818199E-08,1.346793
832.8223,-0.01446629,0.0004332219,NaN,-0.8428379,0.0003742837,NaN,-1.561687,-14.59905,NaN,-1.782304,-1.481411,0.06518938,14.11975,NaN,NaN,-0.1185525,0.8122967,-2.326065E-07,1.067118,4.056618E-08,1.345345
832.8368,-0.01446629,0.0004332219,NaN,-0.8428379,0.0003742837,NaN,-1.561687,-14.59905,NaN,-1.782304,-1.481411,0.06518938,14.11975,NaN,NaN,-0.1185525,0.8122967,-2.326065E-07,1.067118,4.056618E-08,1.345345
832.851,-0.01446619,0.0004333066,NaN,-0.8429341,0.0003746218,NaN,-1.561754,-14.5977,NaN,-1.782687,-1.469634,0.06512161,14.10717,NaN,NaN,-0.1185564,0.8134184,-2.318242E-07,1.049956,3.818199E-08,1.335077
832.8665,-0.01446616,0.0004333553,NaN,-0.8429973,0.0003744862,NaN,-1.561785,-14.59959,NaN,-1.782911,-1.475487,0.06506801,14.11359,NaN,NaN,-0.1185603,0.8116974,-2.305576E-07,1.058544,4.533455E-08,1.343084
832.8815,-0.01446619,0.0004334577,NaN,-0.8430396,0.0003737508,NaN,-1.561801,-14.59952,NaN,-1.783054,-1.48104,0.06502098,14.11942,NaN,NaN,-0.1185641,0.8118883,-2.2944E-07,1.066603,4.533455E-08,1.345086
832.8962,-0.01446619,0.0004334577,NaN,-0.8430396,0.0003737508,NaN,-1.561801,-14.59952,NaN,-1.783054,-1.48104,0.06502098,14.11942,NaN,NaN,-0.1185641,0.8118883,-2.2944E-07,1.066603,4.533455E-08,1.345086
832.9103,-0.01446639,0.0004338399,NaN,-0.8430014,0.000373058,NaN,-1.562009,-14.59968,NaN,-1.782578,-1.481578,0.06339922,14.11999,NaN,NaN,-0.1186972,0.8117201,-2.266088E-07,1.067382,4.533455E-08,1.345797
832.9259,-0.01446672,0.0004337825,NaN,-0.8429136,0.0003724122,NaN,-1.562132,-14.5988,NaN,-1.781805,-1.476308,0.06181303,14.11433,NaN,NaN,-0.1188277,0.812493,-2.25454E-07,1.059697,4.056618E-08,1.340245
832.9406,-0.01446711,0.0004333365,NaN,-0.8427957,0.0003722647,NaN,-1.562216,-14.59855,NaN,-1.780891,-1.46898,0.06027168,14.10655,NaN,NaN,-0.1189556,0.8125699,-2.239266E-07,1.049029,4.533455E-08,1.335675
832.9554,-0.01446711,0.0004333365,NaN,-0.8427957,0.0003722647,NaN,-1.562216,-14.59855,NaN,-1.780891,-1.46898,0.06027168,14.10655,NaN,NaN,-0.1189556,0.8125699,-2.239266E-07,1.049029,4.533455E-08,1.335675
832.9717,-0.0144677,0.0004328272,NaN,-0.8425903,0.0003723883,NaN,-1.562477,-14.59898,NaN,-1.779336,-1.468138,0.05718914,14.10571,NaN,NaN,-0.1192105,0.8121113,-2.206856E-07,1.047819,4.771874E-08,1.337598
832.9862,-0.01446842,0.0004326207,NaN,-0.8423318,0.0003720105,NaN,-1.562647,-14.6,NaN,-1.777482,-1.476897,0.0541738,14.11507,NaN,NaN,-0.1194603,0.8113583,-2.194004E-07,1.060586,4.295037E-08,1.345055
832.9998,-0.01446842,0.0004326207,NaN,-0.8423318,0.0003720105,NaN,-1.562647,-14.6,NaN,-1.777482,-1.476897,0.0541738,14.11507,NaN,NaN,-0.1194603,0.8113583,-2.194004E-07,1.060586,4.295037E-08,1.345055
833.0142,-0.01446923,0.0004324541,NaN,-0.8420418,0.0003715413,NaN,-1.562772,-14.6004,NaN,-1.775491,-1.476644,0.05123257,14.11484,NaN,NaN,-0.1197053,0.8109572,-2.173142E-07,1.060228,4.056618E-08,1.345484
833.0294,-0.01447008,0.0004327997,NaN,-0.8417335,0.0003709508,NaN,-1.562877,-14.59951,NaN,-1.773447,-1.481079,0.04835597,14.1194,NaN,NaN,-0.1199454,0.8119311,-2.148555E-07,1.066634,3.579781E-08,1.342826
833.0443,-0.01447111,0.0004330601,NaN,-0.8413461,0.0003712945,NaN,-1.563156,-14.59848,NaN,-1.770815,-1.473318,0.0439629,14.11109,NaN,NaN,-0.1203103,0.8128014,-2.103479E-07,1.055325,3.102944E-08,1.335236
833.0589,-0.01447111,0.0004330601,NaN,-0.8413461,0.0003712945,NaN,-1.563156,-14.59848,NaN,-1.770815,-1.473318,0.0439629,14.11109,NaN,NaN,-0.1203103,0.8128014,-2.103479E-07,1.055325,3.102944E-08,1.335236
833.0731,-0.01447227,0.0004329719,NaN,-0.8409115,0.0003715279,NaN,-1.563346,-14.59861,NaN,-1.767917,-1.470721,0.03966385,14.10836,NaN,NaN,-0.1206679,0.8126007,-2.083177E-07,1.051551,2.864526E-08,1.33511
833.0887,-0.01447354,0.0004324555,NaN,-0.8404498,0.0003713556,NaN,-1.563492,-14.59896,NaN,-1.764907,-1.470904,0.03546365,14.10859,NaN,NaN,-0.1210186,0.8122626,-2.058217E-07,1.051829,2.626107E-08,1.336467
833.1034,-0.01447498,0.0004316616,NaN,-0.8399734,0.0003708888,NaN,-1.563615,-14.59897,NaN,-1.761863,-1.471499,0.03135298,14.10921,NaN,NaN,-0.1213624,0.8122607,-2.027111E-07,1.052692,3.102944E-08,1.33805
833.118,-0.01447498,0.0004316616,NaN,-0.8399734,0.0003708888,NaN,-1.563615,-14.59897,NaN,-1.761863,-1.471499,0.03135298,14.10921,NaN,NaN,-0.1213624,0.8122607,-2.027111E-07,1.052692,3.102944E-08,1.33805
833.1322,-0.01447678,0.000430546,NaN,-0.8394207,0.0003705062,NaN,-1.563898,-14.59841,NaN,-1.758248,-1.467685,0.02575266,14.10511,NaN,NaN,-0.1218289,0.8127029,-1.979986E-07,1.047124,3.341363E-08,1.331607
833.1477,-0.01447895,0.0004301304,NaN,-0.8388235,0.0003698291,NaN,-1.564092,-14.59953,NaN,-1.754383,-1.478136,0.02027278,14.11629,NaN,NaN,-0.1222862,0.8119239,-1.940126E-07,1.062367,3.8182E-08,1.341837
833.1628,-0.01448141,0.0004299137,NaN,-0.8382014,0.0003689893,NaN,-1.564242,-14.59988,NaN,-1.750421,-1.479309,0.01491467,14.11756,NaN,NaN,-0.1227346,0.8115969,-1.883641E-07,1.064081,3.579781E-08,1.342845
833.1777,-0.01448141,0.0004299137,NaN,-0.8382014,0.0003689893,NaN,-1.564242,-14.59988,NaN,-1.750421,-1.479309,0.01491467,14.11756,NaN,NaN,-0.1227346,0.8115969,-1.883641E-07,1.064081,3.579781E-08,1.342845
833.1917,-0.01448434,0.0004294758,NaN,-0.8374974,0.0003690536,NaN,-1.564528,-14.5982,NaN,-1.745865,-1.468413,0.008097465,14.10588,NaN,NaN,-0.1233036,0.8130515,-1.805456E-07,1.048203,3.579781E-08,1.33125
833.2081,-0.0144877,0.0004290576,NaN,-0.836746,0.0003688408,NaN,-1.564723,-14.59933,NaN,-1.741053,-1.472993,0.001428145,14.11086,NaN,NaN,-0.1238614,0.8120667,-1.734303E-07,1.054911,3.579781E-08,1.337388
833.2219,-0.0144914,0.000428858,NaN,-0.8359688,0.0003692318,NaN,-1.564871,-14.59899,NaN,-1.736149,-1.469071,-0.005095626,14.10668,NaN,NaN,-0.1244083,0.8122996,-1.666689E-07,1.049195,3.341362E-08,1.335348
833.2365,-0.0144914,0.000428858,NaN,-0.8359688,0.0003692318,NaN,-1.564871,-14.59899,NaN,-1.736149,-1.469071,-0.005095626,14.10668,NaN,NaN,-0.1244083,0.8122996,-1.666689E-07,1.049195,3.341362E-08,1.335348
833.2507,-0.01449536,0.0004285546,NaN,-0.835179,0.0003696671,NaN,-1.564994,-14.59851,NaN,-1.731233,-1.466934,-0.01148337,14.10435,NaN,NaN,-0.1249444,0.8127002,-1.605408E-07,1.046065,2.864525E-08,1.331908
833.2675,-0.01449974,0.000428415,NaN,-0.8343158,0.0003696496,NaN,-1.565237,-14.59972,NaN,-1.725773,-1.47346,-0.01930712,14.1114,NaN,NaN,-0.1255995,0.8117055,-1.494767E-07,1.055606,2.626107E-08,1.339547
833.281,-0.01450451,0.0004287462,NaN,-0.833411,0.0003692901,NaN,-1.565399,-14.59842,NaN,-1.720087,-1.479996,-0.02696252,14.11811,NaN,NaN,-0.1262417,0.8131664,-1.388224E-07,1.065049,3.102944E-08,1.336656
833.2957,-0.01450451,0.0004287462,NaN,-0.833411,0.0003692901,NaN,-1.565399,-14.59842,NaN,-1.720087,-1.479996,-0.02696252,14.11811,NaN,NaN,-0.1262417,0.8131664,-1.388224E-07,1.065049,3.102944E-08,1.336656
833.3098,-0.0145096,0.0004291388,NaN,-0.8324847,0.0003686777,NaN,-1.565518,-14.5989,NaN,-1.714331,-1.481713,-0.03445443,14.11998,NaN,NaN,-0.1268713,0.8127155,-1.292484E-07,1.067559,3.341363E-08,1.338589
833.3253,-0.01451491,0.0004292449,NaN,-0.8315492,0.0003694491,NaN,-1.565611,-14.5991,NaN,-1.708581,-1.467946,-0.04179148,14.10545,NaN,NaN,-0.1274886,0.8122655,-1.196371E-07,1.047538,2.14927E-08,1.33731
833.3401,-0.01452063,0.000429255,NaN,-0.830543,0.0003699737,NaN,-1.5658,-14.59829,NaN,-1.702301,-1.468355,-0.05053837,14.10576,NaN,NaN,-0.1282232,0.8130773,-1.04736E-07,1.048092,2.14927E-08,1.332524
833.3549,-0.01452063,0.000429255,NaN,-0.830543,0.0003699737,NaN,-1.5658,-14.59829,NaN,-1.702301,-1.468355,-0.05053837,14.10576,NaN,NaN,-0.1282232,0.8130773,-1.04736E-07,1.048092,2.14927E-08,1.332524
833.369,-0.01452672,0.0004293646,NaN,-0.8294975,0.0003695235,NaN,-1.565917,-14.59898,NaN,-1.695809,-1.479437,-0.05909825,14.11756,NaN,NaN,-0.1289433,0.8127411,-9.087788E-08,1.064241,2.626107E-08,1.336754
833.3846,-0.0145331,0.0004291209,NaN,-0.8284326,0.0003698968,NaN,-1.565993,-14.59815,NaN,-1.689259,-1.467841,-0.06747812,14.10521,NaN,NaN,-0.1296493,0.813319,-7.687079E-08,1.047349,2.626107E-08,1.329756
833.3994,-0.0145331,0.0004291209,NaN,-0.8284326,0.0003698968,NaN,-1.565993,-14.59815,NaN,-1.689259,-1.467841,-0.06747812,14.10521,NaN,NaN,-0.1296493,0.813319,-7.687079E-08,1.047349,2.626107E-08,1.329756
833.4136,-0.0145393,0.0004294981,NaN,-0.8273607,0.000369938,NaN,-1.566045,-14.59941,NaN,-1.682727,-1.476535,-0.07568567,14.11456,NaN,NaN,-0.1303406,0.8123384,-6.487536E-08,1.06005,2.626107E-08,1.341438
833.4289,-0.0145454,0.0004300652,NaN,-0.8262894,0.0003696432,NaN,-1.56608,-14.59798,NaN,-1.67625,-1.481093,-0.08372635,14.11919,NaN,NaN,-0.1310184,0.8138489,-5.325245E-08,1.066626,2.864526E-08,1.334396
833.4448,-0.01455147,0.0004303313,NaN,-0.8252231,0.000368806,NaN,-1.566101,-14.59777,NaN,-1.669846,-1.482146,-0.09160443,14.12027,NaN,NaN,-0.1316828,0.8140663,-4.043746E-08,1.068153,2.864526E-08,1.332506
833.4597,-0.01455147,0.0004303313,NaN,-0.8252231,0.000368806,NaN,-1.566101,-14.59777,NaN,-1.669846,-1.482146,-0.09160443,14.12027,NaN,NaN,-0.1316828,0.8140663,-4.043746E-08,1.068153,2.864526E-08,1.332506
833.4726,-0.01455753,0.0004299306,NaN,-0.8241649,0.000368636,NaN,-1.566111,-14.59743,NaN,-1.663525,-1.468287,-0.09932362,14.10555,NaN,NaN,-0.1323343,0.8141581,-2.665388E-08,1.047956,2.864526E-08,1.328473
833.4881,-0.01456337,0.0004297938,NaN,-0.8231856,0.0003687926,NaN,-1.566045,-14.59796,NaN,-1.657864,-1.470427,-0.1053447,14.10789,NaN,NaN,-0.1328436,0.8136868,-2.263057E-08,1.051096,2.626107E-08,1.332593
833.5029,-0.01456898,0.0004298901,NaN,-0.8222594,0.0003690075,NaN,-1.566009,-14.59918,NaN,-1.652565,-1.47248,-0.1112506,14.11021,NaN,NaN,-0.133343,0.8125181,-1.607406E-08,1.054133,2.387688E-08,1.340705
833.5177,-0.01456898,0.0004298901,NaN,-0.8222594,0.0003690075,NaN,-1.566009,-14.59918,NaN,-1.652565,-1.47248,-0.1112506,14.11021,NaN,NaN,-0.133343,0.8125181,-1.607406E-08,1.054133,2.387688E-08,1.340705
833.5317,-0.01457438,0.0004297722,NaN,-0.8213701,0.000369481,NaN,-1.565984,-14.59838,NaN,-1.647483,-1.467384,-0.1170412,14.10472,NaN,NaN,-0.1338326,0.8131554,-8.474466E-09,1.046693,2.387688E-08,1.333488
833.5471,-0.01457961,0.0004298566,NaN,-0.8205075,0.0003696792,NaN,-1.565961,-14.5994,NaN,-1.642548,-1.472404,-0.1227172,14.11016,NaN,NaN,-0.1343126,0.8122945,4.662306E-10,1.05404,2.387688E-08,1.341959
833.5621,-0.0145845,0.00043029,NaN,-0.8197346,0.0003693651,NaN,-1.565891,-14.59847,NaN,-1.638294,-1.480692,-0.1267452,14.11878,NaN,NaN,-0.134654,0.8134375,1.919578E-11,1.066047,2.14927E-08,1.338966
833.5767,-0.0145845,0.00043029,NaN,-0.8197346,0.0003693651,NaN,-1.565891,-14.59847,NaN,-1.638294,-1.480692,-0.1267452,14.11878,NaN,NaN,-0.134654,0.8134375,1.919578E-11,1.066047,2.14927E-08,1.338966
833.5911,-0.01458906,0.0004308602,NaN,-0.8190205,0.0003690523,NaN,-1.565846,-14.59931,NaN,-1.634404,-1.481339,-0.1306957,14.11955,NaN,NaN,-0.1349886,0.8125971,1.658323E-09,1.067012,2.387688E-08,1.343356
833.6064,-0.01459334,0.0004309251,NaN,-0.8183459,0.0003696983,NaN,-1.565811,-14.59808,NaN,-1.630723,-1.467915,-0.1345688,14.10523,NaN,NaN,-0.1353167,0.8135661,4.340532E-09,1.047457,2.387688E-08,1.332804
833.6214,-0.01459739,0.0004302068,NaN,-0.8176987,0.0003696893,NaN,-1.56578,-14.59857,NaN,-1.627174,-1.466634,-0.1383654,14.10394,NaN,NaN,-0.1356383,0.8130198,8.065823E-09,1.045612,2.14927E-08,1.334943
833.6362,-0.01459739,0.0004302068,NaN,-0.8176987,0.0003696893,NaN,-1.56578,-14.59857,NaN,-1.627174,-1.466634,-0.1383654,14.10394,NaN,NaN,-0.1356383,0.8130198,8.065823E-09,1.045612,2.14927E-08,1.334943
833.6504,-0.01460108,0.0004295504,NaN,-0.8171405,0.0003700027,NaN,-1.565719,-14.59897,NaN,-1.624289,-1.466376,-0.1405571,14.10371,NaN,NaN,-0.1358244,0.8126066,1.956347E-09,1.045252,2.14927E-08,1.33708
833.6659,-0.0146044,0.0004285453,NaN,-0.8166398,0.0003700313,NaN,-1.565677,-14.59847,NaN,-1.62175,-1.465935,-0.1427054,14.10317,NaN,NaN,-0.1360068,0.8130748,-8.74874E-10,1.044584,1.672433E-08,1.33261
833.6816,-0.01460742,0.0004282625,NaN,-0.8161769,0.000369489,NaN,-1.565642,-14.59897,NaN,-1.619402,-1.4789,-0.1448113,14.11693,NaN,NaN,-0.1361857,0.8130078,-2.066967E-09,1.063461,2.387689E-08,1.341022
833.6956,-0.01460742,0.0004282625,NaN,-0.8161769,0.000369489,NaN,-1.565642,-14.59897,NaN,-1.619402,-1.4789,-0.1448113,14.11693,NaN,NaN,-0.1361857,0.8130078,-2.066967E-09,1.063461,2.387689E-08,1.341022
833.7097,-0.01461002,0.0004283234,NaN,-0.8158086,0.0003697444,NaN,-1.565587,-14.60004,NaN,-1.61774,-1.473104,-0.1453481,14.11092,NaN,NaN,-0.1362318,0.8118139,-1.264679E-08,1.055058,1.910852E-08,1.344665
833.7252,-0.0146122,0.0004285572,NaN,-0.8155004,0.0003696232,NaN,-1.565547,-14.59988,NaN,-1.616425,-1.477858,-0.1458729,14.1159,NaN,NaN,-0.136277,0.8120778,-1.994836E-08,1.061954,1.910852E-08,1.345225
833.7409,-0.01461404,0.0004285662,NaN,-0.8152306,0.000370323,NaN,-1.565513,-14.59834,NaN,-1.615292,-1.467902,-0.1463866,14.10521,NaN,NaN,-0.1363213,0.813395,-2.590882E-08,1.047434,2.14927E-08,1.333788
833.7545,-0.01461404,0.0004285662,NaN,-0.8152306,0.000370323,NaN,-1.565513,-14.59834,NaN,-1.615292,-1.467902,-0.1463866,14.10521,NaN,NaN,-0.1363213,0.813395,-2.590882E-08,1.047434,2.14927E-08,1.333788
833.7686,-0.01461563,0.000428699,NaN,-0.8149858,0.0003711599,NaN,-1.565482,-14.59896,NaN,-1.614259,-1.467282,-0.1468897,14.10463,NaN,NaN,-0.1363647,0.8127438,-3.037917E-08,1.046558,1.910852E-08,1.338148
833.7841,-0.01461683,0.0004288738,NaN,-0.8148267,0.0003712531,NaN,-1.565434,-14.60023,NaN,-1.613858,-1.474513,-0.1458566,14.11243,NaN,NaN,-0.1362781,0.8117043,-4.557836E-08,1.057127,1.910852E-08,1.345861
833.7988,-0.01461683,0.0004288738,NaN,-0.8148267,0.0003712531,NaN,-1.565434,-14.60023,NaN,-1.613858,-1.474513,-0.1458566,14.11243,NaN,NaN,-0.1362781,0.8117043,-4.557836E-08,1.057127,1.910852E-08,1.345861
833.8129,-0.01461773,0.0004291613,NaN,-0.8147212,0.0003708351,NaN,-1.565395,-14.59998,NaN,-1.613767,-1.480592,-0.1448414,14.1188,NaN,NaN,-0.1361932,0.8120979,-5.690324E-08,1.065947,1.910852E-08,1.346619
833.8284,-0.01461848,0.000429163,NaN,-0.8146494,0.000371377,NaN,-1.565361,-14.59868,NaN,-1.613832,-1.469088,-0.1438447,14.10651,NaN,NaN,-0.1361099,0.8131713,-6.554591E-08,1.049191,1.910852E-08,1.336733
833.8431,-0.01461916,0.000429574,NaN,-0.8145986,0.0003711741,NaN,-1.565328,-14.59918,NaN,-1.613974,-1.479632,-0.1428668,14.11771,NaN,NaN,-0.1360282,0.8130005,-7.374155E-08,1.064547,2.14927E-08,1.341917
833.858,-0.01461916,0.000429574,NaN,-0.8145986,0.0003711741,NaN,-1.565328,-14.59918,NaN,-1.613974,-1.479632,-0.1428668,14.11771,NaN,NaN,-0.1360282,0.8130005,-7.374155E-08,1.064547,2.14927E-08,1.341917
833.8722,-0.01461966,0.0004296711,NaN,-0.8146288,0.0003714569,NaN,-1.565277,-14.59952,NaN,-1.614728,-1.472111,-0.1403811,14.1098,NaN,NaN,-0.1358189,0.8125136,-9.162294E-08,1.053614,2.387689E-08,1.340834
833.8878,-0.01462005,0.0004298495,NaN,-0.8147089,0.0003708538,NaN,-1.565233,-14.59901,NaN,-1.615776,-1.481153,-0.1379412,14.11927,NaN,NaN,-0.1356137,0.813261,-1.05332E-07,1.066735,2.14927E-08,1.340245
833.9023,-0.01462036,0.0004297902,NaN,-0.8148194,0.0003706235,NaN,-1.565192,-14.59829,NaN,-1.616961,-1.474221,-0.1355473,14.11185,NaN,NaN,-0.1354125,0.8138376,-1.17402E-07,1.056626,1.910852E-08,1.335665
833.9182,-0.01462036,0.0004297902,NaN,-0.8148194,0.0003706235,NaN,-1.565192,-14.59829,NaN,-1.616961,-1.474221,-0.1355473,14.11185,NaN,NaN,-0.1354125,0.8138376,-1.17402E-07,1.056626,1.910852E-08,1.335665
833.9323,-0.01462049,0.0004297618,NaN,-0.8150175,0.0003704973,NaN,-1.565129,-14.59961,NaN,-1.618779,-1.474009,-0.1316713,14.11179,NaN,NaN,-0.135086,0.8125137,-1.387106E-07,1.056365,1.434014E-08,1.341184
833.9468,-0.01462049,0.000430203,NaN,-0.8152687,0.0003700538,NaN,-1.565072,-14.59918,NaN,-1.620893,-1.481227,-0.1278677,14.11934,NaN,NaN,-0.1347659,0.813125,-1.551019E-07,1.066841,1.434014E-08,1.342087
833.9618,-0.01462042,0.0004300959,NaN,-0.8155516,0.0003700336,NaN,-1.565017,-14.5979,NaN,-1.623139,-1.470778,-0.1241364,14.10815,NaN,NaN,-0.134452,0.8141983,-1.690345E-07,1.051602,1.195596E-08,1.332463
833.9762,-0.01462042,0.0004300959,NaN,-0.8155516,0.0003700336,NaN,-1.565017,-14.5979,NaN,-1.623139,-1.470778,-0.1241364,14.10815,NaN,NaN,-0.134452,0.8141983,-1.690345E-07,1.051602,1.195596E-08,1.332463
833.9902,-0.01462028,0.0004303164,NaN,-0.8158528,0.0003697023,NaN,-1.564961,-14.59988,NaN,-1.625435,-1.478742,-0.1204766,14.11684,NaN,NaN,-0.1341443,0.8124678,-1.807319E-07,1.06328,9.571773E-09,1.344613
834.0056,-0.01461999,0.000430235,NaN,-0.8162332,0.0003701185,NaN,-1.564874,-14.59873,NaN,-1.628313,-1.469177,-0.1153557,14.1066,NaN,NaN,-0.1337134,0.8134172,-2.008485E-07,1.049338,9.571773E-09,1.33589
834.0203,-0.01461957,0.000429815,NaN,-0.8166608,0.0003704373,NaN,-1.564794,-14.59884,NaN,-1.631452,-1.467121,-0.110332,14.10444,NaN,NaN,-0.1332909,0.8132507,-2.170162E-07,1.04635,9.571773E-09,1.335132
834.0353,-0.01461957,0.000429815,NaN,-0.8166608,0.0003704373,NaN,-1.564794,-14.59884,NaN,-1.631452,-1.467121,-0.110332,14.10444,NaN,NaN,-0.1332909,0.8132507,-2.170162E-07,1.04635,9.571773E-09,1.335132
834.0493,-0.01461908,0.0004297764,NaN,-0.8171155,0.0003706187,NaN,-1.564715,-14.59994,NaN,-1.634699,-1.471923,-0.1054043,14.10966,NaN,NaN,-0.1328766,0.8123241,-2.310233E-07,1.053384,1.195596E-08,1.343262
834.0647,-0.01461854,0.0004296642,NaN,-0.8175851,0.0003712068,NaN,-1.564635,-14.59921,NaN,-1.637977,-1.46687,-0.1005711,14.10423,NaN,NaN,-0.1324705,0.8129138,-2.428697E-07,1.046009,7.187587E-09,1.338116
834.0797,-0.01461854,0.0004296642,NaN,-0.8175851,0.0003712068,NaN,-1.564635,-14.59921,NaN,-1.637977,-1.46687,-0.1005711,14.10423,NaN,NaN,-0.1324705,0.8129138,-2.428697E-07,1.046009,7.187587E-09,1.338116
834.0938,-0.01461783,0.0004296208,NaN,-0.8181309,0.0003716819,NaN,-1.56451,-14.59988,NaN,-1.641819,-1.468199,-0.0942944,14.10571,NaN,NaN,-0.1319431,0.8122906,-2.624648E-07,1.04797,7.187587E-09,1.342152
834.1093,-0.014617,0.0004292887,NaN,-0.8187214,0.0003719586,NaN,-1.564395,-14.59938,NaN,-1.645908,-1.467444,-0.08813797,14.10484,NaN,NaN,-0.1314259,0.8127639,-2.780365E-07,1.046849,9.571773E-09,1.336315
834.1245,-0.0146161,0.000429314,NaN,-0.8193367,0.000371923,NaN,-1.564282,-14.60058,NaN,-1.650089,-1.474452,-0.08209977,14.1124,NaN,NaN,-0.1309189,0.8117957,-2.912985E-07,1.057092,9.571773E-09,1.345651
834.1389,-0.0146161,0.000429314,NaN,-0.8193367,0.000371923,NaN,-1.564282,-14.60058,NaN,-1.650089,-1.474452,-0.08209977,14.1124,NaN,NaN,-0.1309189,0.8117957,-2.912985E-07,1.057092,9.571773E-09,1.345651
834.1553,-0.01461502,0.0004295651,NaN,-0.820034,0.000372369,NaN,-1.564112,-14.60059,NaN,-1.65486,-1.472219,-0.07463603,14.11004,NaN,NaN,-0.1302926,0.8117214,-3.123836E-07,1.053846,4.803401E-09,1.345922
834.1687,-0.01461377,0.0004299614,NaN,-0.8207786,0.000372134,NaN,-1.563955,-14.60001,NaN,-1.659883,-1.480104,-0.06731605,14.11827,NaN,NaN,-0.1296785,0.8125094,-3.27173E-07,1.065274,2.419215E-09,1.34519
834.1835,-0.01461228,0.000430089,NaN,-0.8215492,0.0003719059,NaN,-1.5638,-14.60021,NaN,-1.664995,-1.476541,-0.06013686,14.11452,NaN,NaN,-0.1290765,0.8122441,-3.399135E-07,1.060096,-2.349156E-09,1.342682
834.1995,-0.01461228,0.000430089,NaN,-0.8215492,0.0003719059,NaN,-1.5638,-14.60021,NaN,-1.664995,-1.476541,-0.06013686,14.11452,NaN,NaN,-0.1290765,0.8122441,-3.399135E-07,1.060096,-2.349156E-09,1.342682
834.2123,-0.01461058,0.0004299347,NaN,-0.8223323,0.0003725068,NaN,-1.563644,-14.59956,NaN,-1.670115,-1.466666,-0.0530954,14.10402,NaN,NaN,-0.1284862,0.8126597,-3.512384E-07,1.045718,-4.733342E-09,1.339072
834.2278,-0.01460854,0.0004302791,NaN,-0.823189,0.0003722669,NaN,-1.56341,-14.59982,NaN,-1.675775,-1.47931,-0.04463968,14.11739,NaN,NaN,-0.1277782,0.812813,-3.673689E-07,1.064107,-4.733342E-09,1.343962
834.2424,-0.01460614,0.000430258,NaN,-0.8240871,0.0003729743,NaN,-1.563194,-14.59964,NaN,-1.681656,-1.467187,-0.03634828,14.10455,NaN,NaN,-0.1270841,0.8127511,-3.783213E-07,1.046465,-9.501713E-09,1.340382
834.2573,-0.01460614,0.000430258,NaN,-0.8240871,0.0003729743,NaN,-1.563194,-14.59964,NaN,-1.681656,-1.467187,-0.03634828,14.10455,NaN,NaN,-0.1270841,0.8127511,-3.783213E-07,1.046465,-9.501713E-09,1.340382
834.2714,-0.01460345,0.0004306021,NaN,-0.8250069,0.000373011,NaN,-1.562983,-14.60077,NaN,-1.687606,-1.47649,-0.02821719,14.11452,NaN,NaN,-0.1264036,0.8119274,-3.875414E-07,1.06004,-1.18859E-08,1.348948
834.287,-0.01460055,0.0004303393,NaN,-0.8259359,0.0003732064,NaN,-1.562771,-14.5995,NaN,-1.693546,-1.467716,-0.02024232,14.10511,NaN,NaN,-0.1257364,0.8130007,-3.950851E-07,1.047247,-7.117527E-09,1.337906
834.3019,-0.01459728,0.0004301779,NaN,-0.8269357,0.000373675,NaN,-1.562457,-14.60032,NaN,-1.700014,-1.467477,-0.01086229,14.10496,NaN,NaN,-0.124953,0.8121707,-4.068943E-07,1.046932,-9.501713E-09,1.34333
834.3167,-0.01459728,0.0004301779,NaN,-0.8269357,0.000373675,NaN,-1.562457,-14.60032,NaN,-1.700014,-1.467477,-0.01086229,14.10496,NaN,NaN,-0.124953,0.8121707,-4.068943E-07,1.046932,-9.501713E-09,1.34333
834.3309,-0.01459367,0.0004304144,NaN,-0.8279747,0.0003733501,NaN,-1.562171,-14.60024,NaN,-1.706689,-1.479839,-0.001665751,14.11797,NaN,NaN,-0.1241849,0.812656,-4.129106E-07,1.064884,-1.427008E-08,1.346455
834.3464,-0.01458977,0.0004308324,NaN,-0.8290333,0.0003728407,NaN,-1.561892,-14.59915,NaN,-1.713421,-1.481295,0.007351766,14.11938,NaN,NaN,-0.1234319,0.8137699,-4.1797E-07,1.066967,-9.501713E-09,1.341557
834.3616,-0.01458567,0.0004304905,NaN,-0.8300992,0.0003720293,NaN,-1.561614,-14.59896,NaN,-1.720132,-1.475659,0.01619555,14.11338,NaN,NaN,-0.1226937,0.8138626,-4.19991E-07,1.058752,-7.117527E-09,1.33223
834.3762,-0.01458567,0.0004304905,NaN,-0.8300992,0.0003720293,NaN,-1.561614,-14.59896,NaN,-1.720132,-1.475659,0.01619555,14.11338,NaN,NaN,-0.1226937,0.8138626,-4.19991E-07,1.058752,-7.117527E-09,1.33223
834.3923,-0.01458379,0.0004296337,NaN,-0.8303334,0.0003714798,NaN,-1.562882,-14.59886,NaN,-1.719899,-1.468485,0.006063332,14.10577,NaN,NaN,-0.1235215,0.8137951,-3.866031E-07,1.0483,-4.733342E-09,1.336274
834.4056,-0.01458391,0.0004287334,NaN,-0.8300548,0.0003712075,NaN,-1.563538,-14.59899,NaN,-1.7163,-1.467805,-0.00376971,14.10506,NaN,NaN,-0.1243331,0.8136443,-3.647356E-07,1.047311,-9.501713E-09,1.336239
834.4205,-0.01458504,0.0004289406,NaN,-0.8294611,0.0003707199,NaN,-1.563905,-14.59953,NaN,-1.711059,-1.479515,-0.01331927,14.11751,NaN,NaN,-0.1251287,0.8134844,-3.431662E-07,1.064373,-9.501713E-09,1.341948
834.4352,-0.01458504,0.0004289406,NaN,-0.8294611,0.0003707199,NaN,-1.563905,-14.59953,NaN,-1.711059,-1.479515,-0.01331927,14.11751,NaN,NaN,-0.1251287,0.8134844,-3.431662E-07,1.064373,-9.501713E-09,1.341948
834.4494,-0.01458682,0.0004287193,NaN,-0.8287448,0.0003709244,NaN,-1.564015,-14.59902,NaN,-1.705611,-1.467863,-0.02107541,14.10512,NaN,NaN,-0.1257793,0.8137659,-3.28414E-07,1.047395,-7.117527E-09,1.334178
834.4648,-0.01458925,0.0004287679,NaN,-0.827956,0.0003703063,NaN,-1.564114,-14.59961,NaN,-1.700085,-1.4802,-0.02866925,14.11824,NaN,NaN,-0.1264172,0.8135803,-3.141461E-07,1.065372,-7.117527E-09,1.342558
834.4796,-0.01458925,0.0004287679,NaN,-0.827956,0.0003703063,NaN,-1.564114,-14.59961,NaN,-1.700085,-1.4802,-0.02866925,14.11824,NaN,NaN,-0.1264172,0.8135803,-3.141461E-07,1.065372,-7.117527E-09,1.342558
834.4938,-0.01459221,0.000428522,NaN,-0.827126,0.0003696351,NaN,-1.564202,-14.59958,NaN,-1.694554,-1.475962,-0.03611027,14.11374,NaN,NaN,-0.1270426,0.8135236,-3.013684E-07,1.059198,-7.117527E-09,1.340985
834.5092,-0.01459557,0.0004279931,NaN,-0.8262743,0.0003695707,NaN,-1.564279,-14.59867,NaN,-1.689057,-1.468141,-0.04340156,14.10535,NaN,NaN,-0.1276557,0.8142561,-2.879946E-07,1.047781,-4.733342E-09,1.333405
834.5242,-0.01459903,0.0004281082,NaN,-0.8254823,0.0003691651,NaN,-1.564252,-14.59985,NaN,-1.684187,-1.478592,-0.04899152,14.11657,NaN,NaN,-0.1281275,0.8134151,-2.811401E-07,1.063049,-4.733342E-09,1.343126
834.5388,-0.01459903,0.0004281082,NaN,-0.8254823,0.0003691651,NaN,-1.564252,-14.59985,NaN,-1.684187,-1.478592,-0.04899152,14.11657,NaN,NaN,-0.1281275,0.8134151,-2.811401E-07,1.063049,-4.733342E-09,1.343126
834.553,-0.01460247,0.0004278836,NaN,-0.8247307,0.0003694558,NaN,-1.564264,-14.59884,NaN,-1.679656,-1.468098,-0.05447823,14.10534,NaN,NaN,-0.12859,0.8142049,-2.73615E-07,1.047743,-2.349156E-09,1.334301
