JMolnar6/NonAnthroHands_User_Study/HandsLoggerWithURDF/tempdata/files/Reachy_JointMotion_gesture_1_2.csv
Time,r_shoulder,r_shoulder_x,r_upper_arm,r_forearm,r_wrist,r_wrist2hand,
172.4519,-0.1198605,0.0005843058,NaN,-0.3267778,0.0002466168,NaN,0.01388969,-14.09466,NaN,-1.333171,-1.449147,-0.01067065,14.16864,NaN,NaN,0.5851138,0.8105035,0.3928006,1.006254,-0.007063503,1.50467
172.4675,-0.1199658,0.0005845029,NaN,-0.3267799,0.0002471416,NaN,0.01385585,-14.09569,NaN,-1.333059,-1.451726,-0.01039109,14.17144,NaN,NaN,0.5851493,0.8093963,0.3932991,1.009945,-0.007109995,1.507958
172.4835,-0.1193423,0.0005848801,NaN,-0.32678,0.0002477642,NaN,0.01340875,-14.09568,NaN,-1.334039,-1.450768,-0.01013991,14.17043,NaN,NaN,0.5849671,0.8094295,0.393332,1.008557,-0.006563184,1.508542
172.4976,-0.1193423,0.0005848801,NaN,-0.32678,0.0002477642,NaN,0.01340875,-14.09568,NaN,-1.334039,-1.450768,-0.01013991,14.17043,NaN,NaN,0.5849671,0.8094295,0.393332,1.008557,-0.006563184,1.508542
172.5134,-0.1182629,0.0005841539,NaN,-0.3267794,0.0002473778,NaN,0.01353836,-14.09558,NaN,-1.335414,-1.457291,-0.01045258,14.17725,NaN,NaN,0.5846598,0.8093067,0.3924136,1.018011,-0.008602385,1.509077
172.5279,-0.1169011,0.0005832709,NaN,-0.3267787,0.0002466667,NaN,0.01365099,-14.0958,NaN,-1.336993,-1.46493,-0.01072775,14.18527,NaN,NaN,0.5844071,0.8087826,0.3914722,1.029062,-0.008711258,1.509646
172.543,-0.1153673,0.0005820277,NaN,-0.326778,0.0002464807,NaN,0.01375621,-14.09487,NaN,-1.338806,-1.451479,-0.01100156,14.17113,NaN,NaN,0.5843288,0.8103456,0.3905314,1.00966,-0.01105631,1.500385
172.5583,-0.1153673,0.0005820277,NaN,-0.326778,0.0002464807,NaN,0.01375621,-14.09487,NaN,-1.338806,-1.451479,-0.01100156,14.17113,NaN,NaN,0.5843288,0.8103456,0.3905314,1.00966,-0.01105631,1.500385
172.5726,-0.1144599,0.0005812366,NaN,-0.3267791,0.0002469049,NaN,0.01396179,-14.09491,NaN,-1.33981,-1.450029,-0.01127489,14.16961,NaN,NaN,0.5839471,0.8103803,0.3896692,1.00756,-0.01282762,1.497958
172.5884,-0.1139506,0.0005814426,NaN,-0.3267811,0.0002468129,NaN,0.01423107,-14.09518,NaN,-1.34031,-1.461736,-0.01157187,14.18193,NaN,NaN,0.5833032,0.8097486,0.3888195,1.024528,-0.01424199,1.505505
172.6037,-0.1136937,0.000581238,NaN,-0.3267835,0.0002470539,NaN,0.01455117,-14.09379,NaN,-1.340482,-1.450764,-0.01189287,14.17033,NaN,NaN,0.5824673,0.811597,0.3879545,1.008719,-0.01523506,1.493991
172.6189,-0.1136937,0.000581238,NaN,-0.3267835,0.0002470539,NaN,0.01455117,-14.09379,NaN,-1.340482,-1.450764,-0.01189287,14.17033,NaN,NaN,0.5824673,0.811597,0.3879545,1.008719,-0.01523506,1.493991
172.6332,-0.1143244,0.0005813333,NaN,-0.3267884,0.0002476591,NaN,0.01532313,-14.09402,NaN,-1.339361,-1.449297,-0.01220818,14.16879,NaN,NaN,0.5817697,0.8114185,0.3875583,1.006576,-0.01656088,1.495808
172.649,-0.1155109,0.000580626,NaN,-0.3267943,0.0002476121,NaN,0.01555078,-14.09447,NaN,-1.33766,-1.452931,-0.01188057,14.17265,NaN,NaN,0.5814301,0.8108401,0.3884132,1.011827,-0.01689374,1.499463
172.6639,-0.1170421,0.0005803273,NaN,-0.3268004,0.0002472046,NaN,0.016406,-14.09464,NaN,-1.335562,-1.46386,-0.01180012,14.18415,NaN,NaN,0.5819911,0.8102744,0.389665,1.027672,-0.01800262,1.503877
172.6804,-0.1187838,0.0005796503,NaN,-0.3268062,0.0002472057,NaN,0.01717022,-14.0947,NaN,-1.333948,-1.451187,-0.01171668,14.17083,NaN,NaN,0.5836834,0.81078,0.3916296,1.009289,-0.02507322,1.500541
172.6942,-0.1187838,0.0005796503,NaN,-0.3268062,0.0002472057,NaN,0.01717022,-14.0947,NaN,-1.333948,-1.451187,-0.01171668,14.17083,NaN,NaN,0.5836834,0.81078,0.3916296,1.009289,-0.02507322,1.500541
172.7085,-0.1213789,0.000578391,NaN,-0.3268141,0.0002470614,NaN,0.01812455,-14.09419,NaN,-1.331526,-1.449858,-0.01185246,14.16938,NaN,NaN,0.5852777,0.8113234,0.3937349,1.007386,-0.02788251,1.49653
172.7243,-0.1245001,0.0005771745,NaN,-0.3268222,0.0002472677,NaN,0.0193015,-14.09412,NaN,-1.328521,-1.448442,-0.0122561,14.16788,NaN,NaN,0.5865198,0.8114195,0.3956356,1.005332,-0.02810865,1.492702
172.7392,-0.1245001,0.0005771745,NaN,-0.3268222,0.0002472677,NaN,0.0193015,-14.09412,NaN,-1.328521,-1.448442,-0.0122561,14.16788,NaN,NaN,0.5865198,0.8114195,0.3956356,1.005332,-0.02810865,1.492702
172.7537,-0.1279393,0.0005766961,NaN,-0.3268298,0.0002469993,NaN,0.02075695,-14.09574,NaN,-1.325148,-1.462555,-0.01300156,14.18288,NaN,NaN,0.5873131,0.8093737,0.3970746,1.025748,-0.02716306,1.510016
172.7695,-0.1315641,0.0005755917,NaN,-0.3268366,0.0002460528,NaN,0.02260639,-14.09512,NaN,-1.321552,-1.465691,-0.01413777,14.18611,NaN,NaN,0.5878071,0.8098179,0.3979533,1.030322,-0.0233599,1.509385
172.7848,-0.1360188,0.0005752118,NaN,-0.3268449,0.0002464292,NaN,0.02556499,-14.0942,NaN,-1.317123,-1.454608,-0.01625123,14.17442,NaN,NaN,0.5879317,0.8112531,0.3977708,1.014323,-0.02092195,1.494551
172.7998,-0.1360188,0.0005752118,NaN,-0.3268449,0.0002464292,NaN,0.02556499,-14.0942,NaN,-1.317123,-1.454608,-0.01625123,14.17442,NaN,NaN,0.5879317,0.8112531,0.3977708,1.014323,-0.02092195,1.494551
172.8141,-0.140977,0.0005750459,NaN,-0.3268528,0.0002462407,NaN,0.02950731,-14.09522,NaN,-1.312183,-1.462211,-0.01931872,14.18249,NaN,NaN,0.5878339,0.8099519,0.3967003,1.025298,-0.02170187,1.502277
172.8299,-0.1462311,0.0005751615,NaN,-0.3268595,0.0002468384,NaN,0.03427434,-14.09426,NaN,-1.307006,-1.451711,-0.02319298,14.17138,NaN,NaN,0.5877867,0.8113448,0.3949875,1.010127,-0.02501984,1.493677
172.8451,-0.1516494,0.0005745192,NaN,-0.3268649,0.00024593,NaN,0.03822737,-14.09467,NaN,-1.301484,-1.449423,-0.02637007,14.16899,NaN,NaN,0.5875624,0.8110015,0.39423,1.006776,-0.02160626,1.497902
172.8611,-0.1578766,0.0005736838,NaN,-0.3268715,0.0002459136,NaN,0.04376298,-14.09473,NaN,-1.295577,-1.447821,-0.03115042,14.16729,NaN,NaN,0.5872385,0.8109848,0.3917824,1.004439,-0.04059641,1.494493
172.8752,-0.1578766,0.0005736838,NaN,-0.3268715,0.0002459136,NaN,0.04376298,-14.09473,NaN,-1.295577,-1.447821,-0.03115042,14.16729,NaN,NaN,0.5872385,0.8109848,0.3917824,1.004439,-0.04059641,1.494493
172.8896,-0.1645866,0.0005733187,NaN,-0.3268771,0.0002455839,NaN,0.04919203,-14.09677,NaN,-1.288694,-1.461159,-0.03590874,14.18149,NaN,NaN,0.5859686,0.8085458,0.3893399,1.023698,-0.02288286,1.513667
172.9053,-0.1715722,0.0005737415,NaN,-0.326881,0.0002455479,NaN,0.05550085,-14.09687,NaN,-1.281613,-1.46207,-0.04161736,14.18243,NaN,NaN,0.5843777,0.808397,0.3857543,1.025,-0.02604361,1.513121
172.9205,-0.178702,0.0005744183,NaN,-0.3268832,0.0002454886,NaN,0.06115837,-14.09513,NaN,-1.274013,-1.461486,-0.04674323,14.1817,NaN,NaN,0.5821459,0.8101305,0.382695,1.024257,-0.02407237,1.499955
172.9356,-0.178702,0.0005744183,NaN,-0.3268832,0.0002454886,NaN,0.06115837,-14.09513,NaN,-1.274013,-1.461486,-0.04674323,14.1817,NaN,NaN,0.5821459,0.8101305,0.382695,1.024257,-0.02407237,1.499955
172.9498,-0.1866207,0.0005747933,NaN,-0.3268862,0.0002459215,NaN,0.06821851,-14.09468,NaN,-1.265782,-1.453166,-0.05320814,14.17291,NaN,NaN,0.579506,0.8108976,0.3780439,1.012213,-0.01451417,1.498313
172.9658,-0.1950027,0.0005750355,NaN,-0.3268878,0.0002462507,NaN,0.07483827,-14.09596,NaN,-1.256503,-1.453856,-0.05927454,14.17372,NaN,NaN,0.5758177,0.8095714,0.3737243,1.013137,-0.01073724,1.50401
172.9808,-0.203641,0.000574863,NaN,-0.3268884,0.0002467048,NaN,0.08233183,-14.0946,NaN,-1.247026,-1.448001,-0.06623565,14.16745,NaN,NaN,0.571694,0.811111,0.368235,1.004716,-0.006447992,1.494511
172.9959,-0.203641,0.000574863,NaN,-0.3268884,0.0002467048,NaN,0.08233183,-14.0946,NaN,-1.247026,-1.448001,-0.06623565,14.16745,NaN,NaN,0.571694,0.811111,0.368235,1.004716,-0.006447992,1.494511
173.0103,-0.2131325,0.0005750768,NaN,-0.3268894,0.0002468017,NaN,0.08977162,-14.09667,NaN,-1.23616,-1.457713,-0.07306702,14.17785,NaN,NaN,0.5664498,0.808746,0.3627793,1.018715,0.003693666,1.510866
173.0263,-0.223121,0.0005753287,NaN,-0.3268894,0.0002464106,NaN,0.0978671,-14.09593,NaN,-1.224577,-1.464483,-0.08053968,14.18487,NaN,NaN,0.5603365,0.8091884,0.3564554,1.028551,0.009239547,1.507297
173.043,-0.2333802,0.0005755848,NaN,-0.3268884,0.0002469358,NaN,0.1058754,-14.09357,NaN,-1.212312,-1.451524,-0.08790882,14.17114,NaN,NaN,0.5533454,0.812119,0.3500504,1.009943,0.01707578,1.49067
173.0566,-0.2333802,0.0005755848,NaN,-0.3268884,0.0002469358,NaN,0.1058754,-14.09357,NaN,-1.212312,-1.451524,-0.08790882,14.17114,NaN,NaN,0.5533454,0.812119,0.3500504,1.009943,0.01707578,1.49067
173.0709,-0.2437669,0.0005751492,NaN,-0.3268867,0.0002466485,NaN,0.1139253,-14.09503,NaN,-1.199639,-1.459428,-0.09527902,14.17958,NaN,NaN,0.5457156,0.8103949,0.3434345,1.021349,0.02364974,1.500896
173.0867,-0.2549184,0.0005749086,NaN,-0.3268857,0.0002472676,NaN,0.122072,-14.09469,NaN,-1.185711,-1.448692,-0.102597,14.16827,NaN,NaN,0.5370654,0.8111835,0.3367586,1.005802,0.03182048,1.495275
173.1018,-0.2665043,0.0005749395,NaN,-0.3268839,0.0002470899,NaN,0.1297977,-14.09555,NaN,-1.170887,-1.462106,-0.1094308,14.18246,NaN,NaN,0.5274976,0.8099084,0.3304647,1.025228,0.03995681,1.504814
173.1166,-0.2665043,0.0005749395,NaN,-0.3268839,0.0002470899,NaN,0.1297977,-14.09555,NaN,-1.170887,-1.462106,-0.1094308,14.18246,NaN,NaN,0.5274976,0.8099084,0.3304647,1.025228,0.03995681,1.504814
173.131,-0.2783148,0.0005745446,NaN,-0.3268807,0.0002463406,NaN,0.1376934,-14.09407,NaN,-1.155262,-1.464978,-0.1162722,14.18535,NaN,NaN,0.5170679,0.8112265,0.3240235,1.029471,0.04570707,1.498255
173.1481,-0.2902173,0.0005747524,NaN,-0.326876,0.0002469094,NaN,0.1456808,-14.0946,NaN,-1.139265,-1.453952,-0.1230801,14.17376,NaN,NaN,0.5062218,0.8111677,0.3175507,1.013421,0.05080191,1.497879
173.1622,-0.3028558,0.0005747224,NaN,-0.3268723,0.0002474386,NaN,0.1536199,-14.09417,NaN,-1.123355,-1.449264,-0.1297615,14.16876,NaN,NaN,0.495911,0.811745,0.3112846,1.006625,0.05620866,1.491451
173.1772,-0.3028558,0.0005747224,NaN,-0.3268723,0.0002474386,NaN,0.1536199,-14.09417,NaN,-1.123355,-1.449264,-0.1297615,14.16876,NaN,NaN,0.495911,0.811745,0.3112846,1.006625,0.05620866,1.491451
173.1919,-0.3159045,0.0005747181,NaN,-0.3268671,0.000247712,NaN,0.1614279,-14.09525,NaN,-1.107695,-1.454655,-0.1363322,14.17452,NaN,NaN,0.4858032,0.8104748,0.305145,1.014391,0.06105422,1.498194
173.2074,-0.3291564,0.0005753059,NaN,-0.3268598,0.0002476115,NaN,0.1690214,-14.095,NaN,-1.09246,-1.463553,-0.1427229,14.18383,NaN,NaN,0.4758917,0.8103711,0.2991263,1.027298,0.06555372,1.502228
173.2236,-0.3424807,0.0005761727,NaN,-0.3268506,0.000247623,NaN,0.1763217,-14.09511,NaN,-1.077687,-1.463623,-0.1488404,14.18389,NaN,NaN,0.4661666,0.810231,0.2932605,1.02738,0.06426835,1.504241
173.2377,-0.3424807,0.0005761727,NaN,-0.3268506,0.000247623,NaN,0.1763217,-14.09511,NaN,-1.077687,-1.463623,-0.1488404,14.18389,NaN,NaN,0.4661666,0.810231,0.2932605,1.02738,0.06426835,1.504241
173.2522,-0.3565228,0.0005766625,NaN,-0.3268422,0.0002480583,NaN,0.183544,-14.09379,NaN,-1.062914,-1.45445,-0.1548135,14.17414,NaN,NaN,0.4566323,0.8119092,0.2875096,1.014149,0.06300819,1.49255
173.2679,-0.3709576,0.0005770031,NaN,-0.3268321,0.0002487343,NaN,0.1906362,-14.09424,NaN,-1.048397,-1.449015,-0.1606513,14.16842,NaN,NaN,0.4472851,0.8116297,0.2818716,1.006216,0.06177273,1.493961
173.2833,-0.3855789,0.000576852,NaN,-0.3268197,0.000248369,NaN,0.1975892,-14.09426,NaN,-1.03422,-1.463326,-0.1663645,14.18348,NaN,NaN,0.4381213,0.8111292,0.2763442,1.026982,0.0605615,1.494992
173.2979,-0.3855789,0.000576852,NaN,-0.3268197,0.000248369,NaN,0.1975892,-14.09426,NaN,-1.03422,-1.463326,-0.1663645,14.18348,NaN,NaN,0.4381213,0.8111292,0.2763442,1.026982,0.0605615,1.494992
173.3124,-0.4009845,0.0005769585,NaN,-0.3268076,0.0002480858,NaN,0.204602,-14.09478,NaN,-1.019952,-1.463538,-0.1720978,14.18371,NaN,NaN,0.4291373,0.8105555,0.2709251,1.027239,0.05937403,1.496911
173.3281,-0.4168187,0.0005772732,NaN,-0.326793,0.0002485032,NaN,0.2115353,-14.09418,NaN,-1.005901,-1.455201,-0.1777771,14.17487,NaN,NaN,0.4203294,0.8114712,0.2656123,1.015162,0.05820984,1.494496
173.3434,-0.4328561,0.0005782028,NaN,-0.3267756,0.0002487376,NaN,0.2183434,-14.09586,NaN,-0.9921737,-1.460586,-0.1833676,14.18063,NaN,NaN,0.4116944,0.8095527,0.2604037,1.022864,0.05706846,1.505782
173.3585,-0.4328561,0.0005782028,NaN,-0.3267756,0.0002487376,NaN,0.2183434,-14.09586,NaN,-0.9921737,-1.460586,-0.1833676,14.18063,NaN,NaN,0.4116944,0.8095527,0.2604037,1.022864,0.05706846,1.505782
173.3729,-0.4489541,0.0005787023,NaN,-0.3267556,0.0002493587,NaN,0.2250192,-14.09406,NaN,-0.9787932,-1.449785,-0.1888591,14.16914,NaN,NaN,0.4032288,0.8117561,0.2552973,1.007304,0.05594948,1.490388
173.3888,-0.4657509,0.0005795781,NaN,-0.3267363,0.0002493983,NaN,0.2317781,-14.09491,NaN,-0.9653094,-1.462339,-0.1944016,14.1824,NaN,NaN,0.3949293,0.8104643,0.2502909,1.025473,0.05485244,1.501158
173.4038,-0.4829168,0.0005801639,NaN,-0.3267148,0.0002499463,NaN,0.238471,-14.09537,NaN,-0.952022,-1.453228,-0.1999049,14.17282,NaN,NaN,0.3867926,0.8103624,0.2453828,1.012208,0.0537769,1.498922
173.419,-0.4829168,0.0005801639,NaN,-0.3267148,0.0002499463,NaN,0.238471,-14.09537,NaN,-0.952022,-1.453228,-0.1999049,14.17282,NaN,NaN,0.3867926,0.8103624,0.2453828,1.012208,0.0537769,1.498922
173.4331,-0.5002429,0.0005803017,NaN,-0.3266906,0.0002504387,NaN,0.2450483,-14.09439,NaN,-0.9390374,-1.449088,-0.2053291,14.16836,NaN,NaN,0.3788156,0.8114417,0.2405709,1.006233,0.05272245,1.490725
173.4488,-0.517597,0.0005806284,NaN,-0.3266642,0.0002507906,NaN,0.2515013,-14.09591,NaN,-0.9263812,-1.453801,-0.210662,14.17343,NaN,NaN,0.3709951,0.8097544,0.2358534,1.012989,0.05168868,1.501487
173.464,-0.5356243,0.0005814204,NaN,-0.3266388,0.0002510854,NaN,0.2580611,-14.09638,NaN,-0.9136074,-1.458154,-0.2160689,14.17801,NaN,NaN,0.363328,0.8091061,0.2312284,1.019256,0.05067518,1.506081
173.4791,-0.5356243,0.0005814204,NaN,-0.3266388,0.0002510854,NaN,0.2580611,-14.09638,NaN,-0.9136074,-1.458154,-0.2160689,14.17801,NaN,NaN,0.363328,0.8091061,0.2312284,1.019256,0.05067518,1.506081
173.4935,-0.5539994,0.0005821813,NaN,-0.3266113,0.0002519012,NaN,0.264567,-14.09459,NaN,-0.9010161,-1.450449,-0.2214466,14.16978,NaN,NaN,0.3558114,0.8111648,0.226694,1.008192,0.04968154,1.492274
173.5095,-0.5725161,0.0005822061,NaN,-0.3265812,0.0002522903,NaN,0.2709649,-14.0946,NaN,-0.8887146,-1.449339,-0.2267514,14.1686,NaN,NaN,0.3484423,0.8111748,0.2222487,1.006572,0.04870739,1.491785
173.5247,-0.5910444,0.0005821685,NaN,-0.326549,0.0002525232,NaN,0.2772447,-14.09587,NaN,-0.8767294,-1.453509,-0.2319702,14.17308,NaN,NaN,0.3412178,0.8097723,0.2178905,1.012559,0.04775235,1.500239
173.5398,-0.5910444,0.0005821685,NaN,-0.326549,0.0002525232,NaN,0.2772447,-14.09587,NaN,-0.8767294,-1.453509,-0.2319702,14.17308,NaN,NaN,0.3412178,0.8097723,0.2178905,1.012559,0.04775235,1.500239
173.5544,-0.6102303,0.000582722,NaN,-0.3265178,0.0002528314,NaN,0.2836555,-14.09648,NaN,-0.8646182,-1.456954,-0.2372859,14.17673,NaN,NaN,0.334135,0.8090326,0.2136177,1.017513,0.04681603,1.506008
173.57,-0.6297495,0.0005833009,NaN,-0.3264846,0.0002525898,NaN,0.2900238,-14.09589,NaN,-0.8526796,-1.464644,-0.2425819,14.18473,NaN,NaN,0.3271913,0.809303,0.2094287,1.028674,0.04589806,1.506643
173.5851,-0.6493965,0.0005840053,NaN,-0.3264489,0.0002531172,NaN,0.2962913,-14.09632,NaN,-0.8410209,-1.455805,-0.2478103,14.17547,NaN,NaN,0.3203838,0.8092574,0.2053219,1.015837,0.04499811,1.504277
173.6002,-0.6690414,0.0005842117,NaN,-0.326411,0.0002536742,NaN,0.3024463,-14.09478,NaN,-0.8296689,-1.448954,-0.2529577,14.16816,NaN,NaN,0.31371,0.8110378,0.2012957,1.005993,0.04411579,1.492175
173.6166,-0.6690414,0.0005842117,NaN,-0.326411,0.0002536742,NaN,0.3024463,-14.09478,NaN,-0.8296689,-1.448954,-0.2529577,14.16816,NaN,NaN,0.31371,0.8110378,0.2012957,1.005993,0.04411579,1.492175
173.6295,-0.6893309,0.0005839708,NaN,-0.3263743,0.0002533093,NaN,0.3087578,-14.09608,NaN,-0.8181843,-1.463444,-0.2582257,14.18351,NaN,NaN,0.3071672,0.8092853,0.1973484,1.026958,0.04325078,1.50279
173.6456,-0.7099407,0.0005829044,NaN,-0.3263356,0.0002520265,NaN,0.3150386,-14.09621,NaN,-0.806864,-1.45165,-0.2634836,14.17115,NaN,NaN,0.3007528,0.809686,0.1934785,1.009871,0.04240272,1.500429
173.6606,-0.7306655,0.0005828805,NaN,-0.3262943,0.0002525076,NaN,0.3212254,-14.09563,NaN,-0.7958148,-1.449336,-0.2686793,14.16866,NaN,NaN,0.2944643,0.8103336,0.1896845,1.006544,0.04157129,1.498428
173.6756,-0.7306655,0.0005828805,NaN,-0.3262943,0.0002525076,NaN,0.3212254,-14.09563,NaN,-0.7958148,-1.449336,-0.2686793,14.16866,NaN,NaN,0.2944643,0.8103336,0.1896845,1.006544,0.04157129,1.498428
173.6903,-0.7515967,0.0005821722,NaN,-0.3262517,0.000252532,NaN,0.3273903,-14.09559,NaN,-0.7849324,-1.449051,-0.273864,14.16836,NaN,NaN,0.2882993,0.8103708,0.1859649,1.006132,0.04075617,1.498547
173.7061,-0.7725701,0.0005814962,NaN,-0.3262074,0.000252006,NaN,0.3334751,-14.09737,NaN,-0.7743065,-1.462927,-0.2789935,14.18309,NaN,NaN,0.2822553,0.8081681,0.1823182,1.026172,0.03995703,1.511776
173.7214,-0.7934819,0.0005817992,NaN,-0.3261619,0.0002521958,NaN,0.3394652,-14.09754,NaN,-0.7639603,-1.460122,-0.2840548,14.18015,NaN,NaN,0.27633,0.8081111,0.1787431,1.022097,0.03917356,1.513011
173.7364,-0.7934819,0.0005817992,NaN,-0.3261619,0.0002521958,NaN,0.3394652,-14.09754,NaN,-0.7639603,-1.460122,-0.2840548,14.18015,NaN,NaN,0.27633,0.8081111,0.1787431,1.022097,0.03917356,1.513011
173.7519,-0.8142676,0.0005818832,NaN,-0.3261159,0.0002525981,NaN,0.3453626,-14.09556,NaN,-0.7538908,-1.45247,-0.2890475,14.172,NaN,NaN,0.2705209,0.8103894,0.1752381,1.011146,0.03840544,1.499665
173.7666,-0.8348869,0.0005811782,NaN,-0.32607,0.0002527105,NaN,0.3511734,-14.09585,NaN,-0.7440866,-1.449528,-0.2939759,14.16892,NaN,NaN,0.2648259,0.8101944,0.1718018,1.006861,0.0376524,1.50078
173.7816,-0.8553153,0.000580326,NaN,-0.3260248,0.0002527802,NaN,0.3569036,-14.09583,NaN,-0.734535,-1.453132,-0.2988446,14.1727,NaN,NaN,0.2592427,0.8100997,0.168433,1.012084,0.03691411,1.500917
173.7966,-0.8553153,0.000580326,NaN,-0.3260248,0.0002527802,NaN,0.3569036,-14.09583,NaN,-0.734535,-1.453132,-0.2988446,14.1727,NaN,NaN,0.2592427,0.8100997,0.168433,1.012084,0.03691411,1.500917
173.811,-0.8755381,0.0005799822,NaN,-0.3259807,0.0002533344,NaN,0.3625585,-14.09665,NaN,-0.7252246,-1.449796,-0.3036575,14.16925,NaN,NaN,0.2537692,0.8093936,0.1651302,1.007202,0.0361903,1.503945
173.8269,-0.8955472,0.000579914,NaN,-0.3259379,0.0002533974,NaN,0.3681416,-14.09815,NaN,-0.7161452,-1.4579,-0.3084177,14.17787,NaN,NaN,0.248403,0.8076351,0.1618921,1.018869,0.03548069,1.514796
173.8424,-0.915338,0.0005797812,NaN,-0.3258967,0.0002528968,NaN,0.3736558,-14.0965,NaN,-0.7072887,-1.463995,-0.3131275,14.18411,NaN,NaN,0.2431422,0.8090222,0.1587176,1.027774,0.03478499,1.505214
173.8572,-0.915338,0.0005797812,NaN,-0.3258967,0.0002528968,NaN,0.3736558,-14.0965,NaN,-0.7072887,-1.463995,-0.3131275,14.18411,NaN,NaN,0.2431422,0.8090222,0.1587176,1.027774,0.03478499,1.505214
173.8716,-0.934909,0.0005796263,NaN,-0.3258571,0.000253169,NaN,0.3791031,-14.09626,NaN,-0.6986481,-1.453008,-0.3177882,14.17258,NaN,NaN,0.2379847,0.8097469,0.1556053,1.011881,0.03410292,1.503104
173.8875,-0.9542599,0.0005792011,NaN,-0.3258192,0.0002526516,NaN,0.384485,-14.09671,NaN,-0.6902172,-1.464263,-0.322401,14.18441,NaN,NaN,0.2329285,0.8088976,0.1525541,1.028164,0.03343424,1.506739
173.9028,-0.9733915,0.0005792003,NaN,-0.3257831,0.0002521881,NaN,0.3898028,-14.09822,NaN,-0.6819906,-1.465303,-0.3269667,14.18557,NaN,NaN,0.2279715,0.8073296,0.1495627,1.029557,0.03277866,1.518664
173.9178,-0.9733915,0.0005792003,NaN,-0.3257831,0.0002521881,NaN,0.3898028,-14.09822,NaN,-0.6819906,-1.465303,-0.3269667,14.18557,NaN,NaN,0.2279715,0.8073296,0.1495627,1.029557,0.03277866,1.518664
173.9334,-0.9923052,0.0005789013,NaN,-0.3257487,0.0002523009,NaN,0.3950572,-14.09581,NaN,-0.6739635,-1.452329,-0.3314857,14.17187,NaN,NaN,0.2231119,0.810312,0.14663,1.01096,0.03213594,1.502307
173.9478,-1.011003,0.0005784475,NaN,-0.325716,0.0002526643,NaN,0.4002492,-14.09573,NaN,-0.6661314,-1.449529,-0.3359585,14.16891,NaN,NaN,0.2183476,0.8104835,0.1437548,1.006901,0.03150582,1.50027
173.9629,-1.029486,0.0005783156,NaN,-0.325685,0.0002533465,NaN,0.4053794,-14.09621,NaN,-0.6584898,-1.44774,-0.3403852,14.16706,NaN,NaN,0.2136769,0.8100575,0.1409359,1.004282,0.03088806,1.503431
173.9778,-1.029486,0.0005783156,NaN,-0.325685,0.0002533465,NaN,0.4053794,-14.09621,NaN,-0.6584898,-1.44774,-0.3403852,14.16706,NaN,NaN,0.2136769,0.8100575,0.1409359,1.004282,0.03088806,1.503431
173.9925,-1.047758,0.0005780165,NaN,-0.3256556,0.000253791,NaN,0.4104484,-14.09638,NaN,-0.6510347,-1.448252,-0.3447661,14.16761,NaN,NaN,0.2090978,0.8098667,0.1381724,1.005012,0.03028241,1.501262
174.008,-1.06582,0.0005778092,NaN,-0.3256279,0.0002537679,NaN,0.4154567,-14.09853,NaN,-0.6437622,-1.457932,-0.3491013,14.17795,NaN,NaN,0.2046087,0.8074359,0.135463,1.018948,0.02968864,1.517806
174.0233,-1.083675,0.0005773298,NaN,-0.3256017,0.0002541144,NaN,0.4204048,-14.0965,NaN,-0.6366683,-1.449102,-0.3533908,14.16858,NaN,NaN,0.2002078,0.8098078,0.1328068,1.006303,0.02910651,1.504084
174.0385,-1.083675,0.0005773298,NaN,-0.3256017,0.0002541144,NaN,0.4204048,-14.0965,NaN,-0.6366683,-1.449102,-0.3533908,14.16858,NaN,NaN,0.2002078,0.8098078,0.1328068,1.006303,0.02910651,1.504084
174.0529,-1.101324,0.0005766478,NaN,-0.3255771,0.0002536179,NaN,0.425293,-14.09653,NaN,-0.6297494,-1.462384,-0.3576347,14.18252,NaN,NaN,0.1958932,0.8093636,0.1302027,1.025553,0.0285358,1.505432
174.0688,-1.118771,0.0005764622,NaN,-0.3255539,0.0002534434,NaN,0.4301218,-14.09878,NaN,-0.6230018,-1.461336,-0.3618329,14.18156,NaN,NaN,0.1916633,0.8071384,0.1276496,1.023886,0.02797627,1.520426
174.0851,-1.136018,0.000576877,NaN,-0.3255322,0.0002534754,NaN,0.4348914,-14.09865,NaN,-0.6164219,-1.460874,-0.3659855,14.18106,NaN,NaN,0.1875165,0.8072723,0.1251466,1.023223,0.02742772,1.519448
174.0988,-1.136018,0.000576877,NaN,-0.3255322,0.0002534754,NaN,0.4348914,-14.09865,NaN,-0.6164219,-1.460874,-0.3659855,14.18106,NaN,NaN,0.1875165,0.8072723,0.1251466,1.023223,0.02742772,1.519448
174.1143,-1.153066,0.0005770205,NaN,-0.3255118,0.0002538639,NaN,0.4396021,-14.0965,NaN,-0.6100063,-1.451985,-0.3700924,14.17162,NaN,NaN,0.1834511,0.8097656,0.1226927,1.010504,0.02688992,1.505952
174.1288,-1.169919,0.0005771566,NaN,-0.3254929,0.0002536362,NaN,0.4442542,-14.09735,NaN,-0.6037515,-1.462198,-0.3741534,14.18239,NaN,NaN,0.1794655,0.8085472,0.1202869,1.02525,0.02636266,1.50948
174.1439,-1.186577,0.0005775264,NaN,-0.3254752,0.000253819,NaN,0.4488477,-14.09849,NaN,-0.5976541,-1.458138,-0.3781685,14.17818,NaN,NaN,0.1755582,0.8075585,0.1179283,1.019285,0.02584575,1.517104
174.159,-1.186577,0.0005775264,NaN,-0.3254752,0.000253819,NaN,0.4488477,-14.09849,NaN,-0.5976541,-1.458138,-0.3781685,14.17818,NaN,NaN,0.1755582,0.8075585,0.1179283,1.019285,0.02584575,1.517104
174.1734,-1.203045,0.0005770544,NaN,-0.3254588,0.0002538994,NaN,0.453383,-14.09705,NaN,-0.5917109,-1.449874,-0.3821375,14.16942,NaN,NaN,0.1717276,0.8092918,0.1156159,1.007408,0.02533897,1.508015
174.1891,-1.219323,0.0005769738,NaN,-0.3254437,0.0002543717,NaN,0.4578602,-14.09727,NaN,-0.5859185,-1.449706,-0.3860604,14.16925,NaN,NaN,0.1679722,0.8090654,0.1133489,1.007147,0.02484213,1.50711
174.2043,-1.235414,0.0005771306,NaN,-0.3254297,0.0002541851,NaN,0.4622793,-14.09864,NaN,-0.580274,-1.461484,-0.3899369,14.1817,NaN,NaN,0.1642905,0.8073062,0.1111264,1.024136,0.02435503,1.51975
174.2196,-1.235414,0.0005771306,NaN,-0.3254297,0.0002541851,NaN,0.4622793,-14.09864,NaN,-0.580274,-1.461484,-0.3899369,14.1817,NaN,NaN,0.1642905,0.8073062,0.1111264,1.024136,0.02435503,1.51975
174.2339,-1.25132,0.0005773659,NaN,-0.3254169,0.0002547114,NaN,0.4666404,-14.09723,NaN,-0.574774,-1.450934,-0.3937668,14.17058,NaN,NaN,0.1606811,0.809151,0.1089474,1.008968,0.02387748,1.507282
174.2497,-1.267043,0.0005776332,NaN,-0.3254053,0.0002552754,NaN,0.4709437,-14.09813,NaN,-0.5694156,-1.44982,-0.39755,14.16946,NaN,NaN,0.1571425,0.8082697,0.1068111,1.007297,0.02340929,1.512153
174.2647,-1.282586,0.0005779529,NaN,-0.3253947,0.0002549798,NaN,0.4751891,-14.09923,NaN,-0.5641958,-1.464288,-0.4012864,14.18468,NaN,NaN,0.1536734,0.8066947,0.1047168,1.028171,0.02295029,1.523835
174.2803,-1.29795,0.0005783275,NaN,-0.3253852,0.0002547734,NaN,0.4793766,-14.09986,NaN,-0.5591116,-1.463013,-0.4049756,14.18336,NaN,NaN,0.1502725,0.806115,0.1026635,1.026277,0.02250028,1.523492
174.2951,-1.29795,0.0005783275,NaN,-0.3253852,0.0002547734,NaN,0.4793766,-14.09986,NaN,-0.5591116,-1.463013,-0.4049756,14.18336,NaN,NaN,0.1502725,0.806115,0.1026635,1.026277,0.02250028,1.523492
174.3094,-1.312916,0.0005789291,NaN,-0.325376,0.0002555657,NaN,0.4833619,-14.09813,NaN,-0.5542836,-1.45089,-0.4084961,14.17061,NaN,NaN,0.1469382,0.8083743,0.1006505,1.008887,0.0220591,1.510261
174.3249,-1.32757,0.0005790222,NaN,-0.325368,0.0002555078,NaN,0.4872488,-14.09907,NaN,-0.5496211,-1.459913,-0.4119335,14.18012,NaN,NaN,0.1436693,0.8071253,0.09867691,1.021889,0.02162657,1.516071
174.3401,-1.341966,0.0005790724,NaN,-0.3253616,0.0002561046,NaN,0.491076,-14.09828,NaN,-0.5450862,-1.450174,-0.4153203,14.16989,NaN,NaN,0.1404646,0.8083157,0.09674206,1.007858,0.02120252,1.511475
174.3553,-1.341966,0.0005790724,NaN,-0.3253616,0.0002561046,NaN,0.491076,-14.09828,NaN,-0.5450862,-1.450174,-0.4153203,14.16989,NaN,NaN,0.1404646,0.8083157,0.09674206,1.007858,0.02120252,1.511475
174.3696,-1.355411,0.0005790979,NaN,-0.3253543,0.0002563751,NaN,0.4943603,-14.09915,NaN,-0.541069,-1.453998,-0.4182494,14.17395,NaN,NaN,0.1373225,0.8073214,0.09484516,1.013345,0.02078678,1.515078
174.3854,-1.368203,0.0005789605,NaN,-0.3253492,0.0002566075,NaN,0.4974596,-14.09867,NaN,-0.5372765,-1.453465,-0.4210181,14.17334,NaN,NaN,0.134242,0.8078095,0.09298546,1.012594,0.0203792,1.511443
174.4004,-1.380529,0.0005788737,NaN,-0.3253469,0.0002566681,NaN,0.5005045,-14.09984,NaN,-0.5335927,-1.457691,-0.4237375,14.17784,NaN,NaN,0.1312219,0.8064878,0.09116223,1.018641,0.01997961,1.519251
174.4158,-1.380529,0.0005788737,NaN,-0.3253469,0.0002566681,NaN,0.5005045,-14.09984,NaN,-0.5335927,-1.457691,-0.4237375,14.17784,NaN,NaN,0.1312219,0.8064878,0.09116223,1.018641,0.01997961,1.519251
174.43,-1.392512,0.000579472,NaN,-0.3253464,0.0002565164,NaN,0.5035315,-14.09935,NaN,-0.529978,-1.464564,-0.4264396,14.18496,NaN,NaN,0.1282611,0.8066893,0.08937474,1.02859,0.01958785,1.520908
174.4458,-1.403501,0.0005801963,NaN,-0.3253456,0.0002573291,NaN,0.5060291,-14.09809,NaN,-0.5268268,-1.451941,-0.4286931,14.17172,NaN,NaN,0.1253581,0.8085333,0.08762231,1.010445,0.01920377,1.510897
174.4608,-1.413818,0.0005805508,NaN,-0.3253462,0.0002579214,NaN,0.5083609,-14.09843,NaN,-0.5238559,-1.449505,-0.4308018,14.16919,NaN,NaN,0.122512,0.8082864,0.08590425,1.006902,0.01882723,1.509983
174.476,-1.413818,0.0005805508,NaN,-0.3253462,0.0002579214,NaN,0.5083609,-14.09843,NaN,-0.5238559,-1.449505,-0.4308018,14.16919,NaN,NaN,0.122512,0.8082864,0.08590425,1.006902,0.01882723,1.509983
174.4904,-1.423669,0.0005802336,NaN,-0.325348,0.000257849,NaN,0.5106559,-14.09834,NaN,-0.5209567,-1.456385,-0.4328756,14.17637,NaN,NaN,0.1197217,0.8081636,0.08421987,1.01686,0.01845807,1.514366
174.506,-1.433187,0.000580247,NaN,-0.3253507,0.0002575799,NaN,0.5129491,-14.10006,NaN,-0.5180959,-1.463508,-0.4349456,14.18394,NaN,NaN,0.1169862,0.8061855,0.08256851,1.027066,0.01809615,1.525661
174.5211,-1.441726,0.0005802708,NaN,-0.3253528,0.0002570093,NaN,0.5147091,-14.09831,NaN,-0.5156701,-1.465181,-0.4365624,14.18557,NaN,NaN,0.114304,0.8078425,0.08094954,1.029596,0.01774132,1.513271
174.5364,-1.441726,0.0005802708,NaN,-0.3253528,0.0002570093,NaN,0.5147091,-14.09831,NaN,-0.5156701,-1.465181,-0.4365624,14.18557,NaN,NaN,0.114304,0.8078425,0.08094954,1.029596,0.01774132,1.513271
174.552,-1.449615,0.0005807254,NaN,-0.325356,0.0002574606,NaN,0.51631,-14.0983,NaN,-0.5134006,-1.455599,-0.4380402,14.17554,NaN,NaN,0.1116743,0.8082859,0.07936232,1.015733,0.01739345,1.513706
174.5664,-1.457062,0.0005810302,NaN,-0.3253616,0.0002576659,NaN,0.5178856,-14.09971,NaN,-0.5111818,-1.456354,-0.4394935,14.17642,NaN,NaN,0.1090962,0.8068515,0.07780622,1.016738,0.0170524,1.519282
174.5815,-1.464198,0.0005815205,NaN,-0.3253696,0.0002575182,NaN,0.5194708,-14.09964,NaN,-0.5089822,-1.463392,-0.4409535,14.18374,NaN,NaN,0.1065687,0.8066337,0.07628063,1.026902,0.01671804,1.523639
174.5968,-1.464198,0.0005815205,NaN,-0.3253696,0.0002575182,NaN,0.5194708,-14.09964,NaN,-0.5089822,-1.463392,-0.4409535,14.18374,NaN,NaN,0.1065687,0.8066337,0.07628063,1.026902,0.01671804,1.523639
174.6109,-1.470383,0.0005823317,NaN,-0.3253772,0.0002582774,NaN,0.5205191,-14.09829,NaN,-0.5071973,-1.453853,-0.441956,14.17369,NaN,NaN,0.1040903,0.8083997,0.07478496,1.013206,0.01639024,1.514553
174.6267,-1.475942,0.0005827509,NaN,-0.3253864,0.0002582762,NaN,0.5214147,-14.09986,NaN,-0.5055506,-1.460286,-0.4428252,14.18053,NaN,NaN,0.1016605,0.8066017,0.07331862,1.022429,0.01606886,1.521367
174.6419,-1.481085,0.000583097,NaN,-0.3253977,0.0002586652,NaN,0.5222942,-14.09839,NaN,-0.5039375,-1.454462,-0.4436777,14.17434,NaN,NaN,0.0992784,0.8082907,0.07188103,1.014094,0.01575378,1.515806
174.6569,-1.481085,0.000583097,NaN,-0.3253977,0.0002586652,NaN,0.5222942,-14.09839,NaN,-0.5039375,-1.454462,-0.4436777,14.17434,NaN,NaN,0.0992784,0.8082907,0.07188103,1.014094,0.01575378,1.515806
174.6714,-1.485216,0.0005825841,NaN,-0.3254086,0.0002588057,NaN,0.5226408,-14.09762,NaN,-0.5027249,-1.450034,-0.4440751,14.16963,NaN,NaN,0.09694258,0.8092086,0.07047162,1.007722,0.01544489,1.510827
174.6871,-1.488693,0.0005819233,NaN,-0.3254207,0.0002584694,NaN,0.5228552,-14.09836,NaN,-0.5016277,-1.460401,-0.4443561,14.18056,NaN,NaN,0.09465247,0.8081229,0.06908985,1.022699,0.01514204,1.513586
174.7021,-1.491745,0.0005815572,NaN,-0.3254344,0.0002580412,NaN,0.5230771,-14.09967,NaN,-0.5005405,-1.463195,-0.4446405,14.18355,NaN,NaN,0.09240726,0.8066892,0.06773518,1.026651,0.01484515,1.522679
174.717,-1.491745,0.0005815572,NaN,-0.3254344,0.0002580412,NaN,0.5230771,-14.09967,NaN,-0.5005405,-1.463195,-0.4446405,14.18355,NaN,NaN,0.09240726,0.8066892,0.06773518,1.026651,0.01484515,1.522679
174.7312,-1.494515,0.000581332,NaN,-0.3254495,0.0002575628,NaN,0.5233415,-14.09883,NaN,-0.499434,-1.463222,-0.4449594,14.18351,NaN,NaN,0.09020611,0.807496,0.06640707,1.026734,0.01455407,1.514953
174.7472,-1.49637,0.0005805267,NaN,-0.3254633,0.0002560352,NaN,0.5230869,-14.09766,NaN,-0.4987057,-1.452725,-0.4448362,14.17244,NaN,NaN,0.08804771,0.8091092,0.065105,1.011624,0.01426869,1.508742
174.7621,-1.49764,0.0005804162,NaN,-0.3254772,0.0002559076,NaN,0.5227048,-14.09749,NaN,-0.4980823,-1.453425,-0.4446014,14.17315,NaN,NaN,0.08593154,0.8092332,0.06382846,1.012637,0.01398891,1.507795
174.7772,-1.49764,0.0005804162,NaN,-0.3254772,0.0002559076,NaN,0.5227048,-14.09749,NaN,-0.4980823,-1.453425,-0.4446014,14.17315,NaN,NaN,0.08593154,0.8092332,0.06382846,1.012637,0.01398891,1.507795
174.7915,-1.498537,0.000580164,NaN,-0.3254917,0.0002552001,NaN,0.5223346,-14.09955,NaN,-0.4974618,-1.462769,-0.4443741,14.18309,NaN,NaN,0.08385684,0.8068335,0.06257695,1.026055,0.01371462,1.519239
174.8074,-1.499196,0.0005800628,NaN,-0.3255066,0.000255547,NaN,0.5220127,-14.09769,NaN,-0.4968148,-1.45063,-0.4441866,14.1703,NaN,NaN,0.08182284,0.8092207,0.06134998,1.008638,0.0134457,1.508095
174.8222,-1.498974,0.0005795056,NaN,-0.3255196,0.0002545104,NaN,0.5211784,-14.09646,NaN,-0.4965377,-1.461512,-0.4435632,14.1816,NaN,NaN,0.07982831,0.8100779,0.06014706,1.024455,0.01318206,1.50737
174.8383,-1.498974,0.0005795056,NaN,-0.3255196,0.0002545104,NaN,0.5211784,-14.09646,NaN,-0.4965377,-1.461512,-0.4435632,14.1816,NaN,NaN,0.07982831,0.8100779,0.06014706,1.024455,0.01318206,1.50737
174.8527,-1.4982,0.0005800397,NaN,-0.3255318,0.000254159,NaN,0.5202261,-14.09878,NaN,-0.4963566,-1.46572,-0.4428366,14.18616,NaN,NaN,0.07787278,0.8075439,0.05896774,1.03041,0.01292359,1.51832
174.8671,-1.497081,0.000580593,NaN,-0.3255437,0.0002539859,NaN,0.5192972,-14.0988,NaN,-0.4961686,-1.461371,-0.4421277,14.18161,NaN,NaN,0.07595558,0.8076929,0.05781154,1.024121,0.01267018,1.514105
174.882,-1.49575,0.000580785,NaN,-0.3255555,0.0002543514,NaN,0.5184296,-14.09718,NaN,-0.4959441,-1.451662,-0.4414696,14.17135,NaN,NaN,0.07407597,0.8096946,0.05667801,1.01018,0.01242175,1.503841
174.8968,-1.49575,0.000580785,NaN,-0.3255555,0.0002543514,NaN,0.5184296,-14.09718,NaN,-0.4959441,-1.451662,-0.4414696,14.17135,NaN,NaN,0.07407597,0.8096946,0.05667801,1.01018,0.01242175,1.503841
174.911,-1.493563,0.0005800772,NaN,-0.3255649,0.0002543924,NaN,0.5170636,-14.09691,NaN,-0.4960802,-1.449651,-0.4403888,14.16921,NaN,NaN,0.07223283,0.8100014,0.0555667,1.007273,0.01217818,1.506697
174.9268,-1.490847,0.0005799925,NaN,-0.3255729,0.0002542138,NaN,0.5155937,-14.09798,NaN,-0.4963021,-1.462407,-0.4392176,14.18268,NaN,NaN,0.0704257,0.808511,0.05447719,1.025711,0.01193939,1.513446
174.9419,-1.487809,0.0005798193,NaN,-0.32558,0.0002546161,NaN,0.5141618,-14.0967,NaN,-0.4965065,-1.451477,-0.4380767,14.17115,NaN,NaN,0.068654,0.8102366,0.05340904,1.009969,0.01170529,1.502884
174.9569,-1.487809,0.0005798193,NaN,-0.32558,0.0002546161,NaN,0.5141618,-14.0967,NaN,-0.4965065,-1.451477,-0.4380767,14.17115,NaN,NaN,0.068654,0.8102366,0.05340904,1.009969,0.01170529,1.502884
174.9714,-1.483853,0.0005796637,NaN,-0.3255842,0.0002550399,NaN,0.51225,-14.09757,NaN,-0.4970633,-1.451059,-0.4365295,14.17076,NaN,NaN,0.06691664,0.8093655,0.05236183,1.009313,0.01147577,1.505669
174.9871,-1.479336,0.0005791919,NaN,-0.3255864,0.0002546132,NaN,0.5102623,-14.0981,NaN,-0.4976877,-1.462464,-0.434916,14.18276,NaN,NaN,0.06521325,0.808439,0.05133516,1.025803,0.01125076,1.511563
175.0022,-1.474485,0.0005790237,NaN,-0.3255877,0.0002540735,NaN,0.5083416,-14.09853,NaN,-0.4982755,-1.465277,-0.4333582,14.18571,NaN,NaN,0.06354325,0.8078788,0.05032861,1.02984,0.01103015,1.512233
175.0183,-1.474485,0.0005790237,NaN,-0.3255877,0.0002540735,NaN,0.5083416,-14.09853,NaN,-0.4982755,-1.465277,-0.4333582,14.18571,NaN,NaN,0.06354325,0.8078788,0.05032861,1.02984,0.01103015,1.512233
175.0336,-1.469444,0.0005794495,NaN,-0.3255886,0.0002546481,NaN,0.5065234,-14.0974,NaN,-0.4987984,-1.454624,-0.4318871,14.17449,NaN,NaN,0.06190602,0.8094815,0.04934181,1.0145,0.01081387,1.506253
175.047,-1.463576,0.0005793128,NaN,-0.3255878,0.0002550581,NaN,0.504256,-14.09699,NaN,-0.4996586,-1.449948,-0.4300391,14.16954,NaN,NaN,0.06030052,0.8100513,0.04837434,1.007742,0.01060183,1.499325
175.062,-1.457214,0.0005792379,NaN,-0.3255858,0.000254856,NaN,0.5019231,-14.0985,NaN,-0.5005812,-1.462936,-0.4281352,14.1833,NaN,NaN,0.0587264,0.8081298,0.04742585,1.026495,0.01039395,1.512568
175.0768,-1.457214,0.0005792379,NaN,-0.3255858,0.000254856,NaN,0.5019231,-14.0985,NaN,-0.5005812,-1.462936,-0.4281352,14.1833,NaN,NaN,0.0587264,0.8081298,0.04742585,1.026495,0.01039395,1.512568
175.0911,-1.450566,0.0005790203,NaN,-0.3255828,0.0002552597,NaN,0.4996621,-14.09683,NaN,-0.5014644,-1.451602,-0.4262916,14.17133,NaN,NaN,0.05718315,0.8102949,0.04649596,1.010204,0.01019015,1.501135
175.1069,-1.443767,0.0005788967,NaN,-0.3255792,0.0002549797,NaN,0.4975088,-14.09847,NaN,-0.5022796,-1.463789,-0.4245392,14.18426,NaN,NaN,0.05567018,0.808248,0.0455843,1.02779,0.009990338,1.513404
175.1219,-1.436173,0.0005782099,NaN,-0.3255728,0.0002540254,NaN,0.4949218,-14.09653,NaN,-0.5034297,-1.467713,-0.4224247,14.18823,NaN,NaN,0.05418652,0.8099853,0.04469052,1.033589,0.00979445,1.506507
