JMolnar6/NonAnthroHands_User_Study/HandsLoggerWithURDF/tempdata/files/Reachy_JointMotion_gesture_1_5.csv
Time,r_shoulder,r_shoulder_x,r_upper_arm,r_forearm,r_wrist,r_wrist2hand,
203.5004,-0.1138348,0.0005808625,NaN,-0.3268425,0.0002783619,NaN,0.01025038,-14.12025,NaN,-1.356602,-1.44977,0.03593809,14.16622,NaN,NaN,0.6564243,0.8061073,0.4903097,1.008638,-0.03106881,1.481581
203.5163,-0.1138348,0.0005808625,NaN,-0.3268425,0.0002783619,NaN,0.01025038,-14.12025,NaN,-1.356602,-1.44977,0.03593809,14.16622,NaN,NaN,0.6564243,0.8061073,0.4903097,1.008638,-0.03106881,1.481581
203.5296,-0.1132818,0.0005796751,NaN,-0.3268422,0.0002783762,NaN,0.009979752,-14.12054,NaN,-1.357469,-1.450427,0.03672076,14.16692,NaN,NaN,0.6563265,0.8057801,0.4907238,1.009571,-0.03086592,1.483433
203.5454,-0.1122721,0.0005791372,NaN,-0.3268413,0.0002780045,NaN,0.009832042,-14.12154,NaN,-1.358817,-1.462217,0.03702486,14.17928,NaN,NaN,0.6556824,0.8044147,0.4900123,1.026541,-0.03043352,1.494182
203.5604,-0.1109793,0.0005796249,NaN,-0.3268401,0.0002785997,NaN,0.009667007,-14.12025,NaN,-1.360378,-1.45514,0.03723351,14.17182,NaN,NaN,0.654619,0.805954,0.4887309,1.016403,-0.0306098,1.480445
203.5764,-0.1109793,0.0005796249,NaN,-0.3268401,0.0002785997,NaN,0.009667007,-14.12025,NaN,-1.360378,-1.45514,0.03723351,14.17182,NaN,NaN,0.654619,0.805954,0.4887309,1.016403,-0.0306098,1.480445
203.5898,-0.1102419,0.0005802722,NaN,-0.3268406,0.0002793852,NaN,0.009872184,-14.12043,NaN,-1.36102,-1.451024,0.03736574,14.16752,NaN,NaN,0.6530474,0.8058773,0.4873255,1.010437,-0.02971038,1.481838
203.6053,-0.1098571,0.0005801184,NaN,-0.326842,0.0002796613,NaN,0.01021241,-14.12079,NaN,-1.361202,-1.450386,0.03752053,14.16687,NaN,NaN,0.6514249,0.8055136,0.4860827,1.009488,-0.02952274,1.485615
203.6202,-0.1096958,0.000579581,NaN,-0.3268437,0.0002799713,NaN,0.01052144,-14.12074,NaN,-1.361107,-1.449153,0.03785963,14.16556,NaN,NaN,0.6500651,0.8055741,0.4853238,1.007701,-0.03169886,1.482352
203.6354,-0.1096958,0.000579581,NaN,-0.3268437,0.0002799713,NaN,0.01052144,-14.12074,NaN,-1.361107,-1.449153,0.03785963,14.16556,NaN,NaN,0.6500651,0.8055741,0.4853238,1.007701,-0.03169886,1.482352
203.6496,-0.1096758,0.0005790415,NaN,-0.3268456,0.0002802571,NaN,0.01083951,-14.12069,NaN,-1.360945,-1.450591,0.03824833,14.16704,NaN,NaN,0.6490907,0.8055627,0.4849135,1.00977,-0.03159022,1.482762
203.6655,-0.1104723,0.0005788776,NaN,-0.3268498,0.0002806663,NaN,0.0114027,-14.12146,NaN,-1.359762,-1.451523,0.03871526,14.16806,NaN,NaN,0.6485151,0.8047518,0.4851371,1.011074,-0.032299,1.4877
203.6805,-0.1117792,0.0005788275,NaN,-0.326855,0.0002807644,NaN,0.01121745,-14.12221,NaN,-1.358009,-1.456658,0.03996079,14.17345,NaN,NaN,0.6479583,0.8038321,0.4865936,1.018438,-0.0387886,1.493833
203.6955,-0.1117792,0.0005788275,NaN,-0.326855,0.0002807644,NaN,0.01121745,-14.12221,NaN,-1.358009,-1.456658,0.03996079,14.17345,NaN,NaN,0.6479583,0.8038321,0.4865936,1.018438,-0.0387886,1.493833
203.7097,-0.1134018,0.0005790792,NaN,-0.3268603,0.0002809999,NaN,0.01270758,-14.12226,NaN,-1.35625,-1.456445,0.03977154,14.17322,NaN,NaN,0.6485406,0.8037767,0.4870002,1.018125,-0.03613561,1.494284
203.7256,-0.1152163,0.0005799295,NaN,-0.3268654,0.0002811851,NaN,0.01359537,-14.12238,NaN,-1.354518,-1.460825,0.04012204,14.17776,NaN,NaN,0.6496971,0.8034935,0.4886471,1.024421,-0.04988635,1.497147
203.7406,-0.1178721,0.0005801513,NaN,-0.3268725,0.0002815733,NaN,0.01476641,-14.12056,NaN,-1.35194,-1.450438,0.04013883,14.16686,NaN,NaN,0.6507282,0.8057032,0.4902506,1.009568,-0.04017559,1.483734
203.7571,-0.1178721,0.0005801513,NaN,-0.3268725,0.0002815733,NaN,0.01476641,-14.12056,NaN,-1.35194,-1.450438,0.04013883,14.16686,NaN,NaN,0.6507282,0.8057032,0.4902506,1.009568,-0.04017559,1.483734
203.7719,-0.1210462,0.0005794274,NaN,-0.3268799,0.0002806994,NaN,0.01636931,-14.12104,NaN,-1.348877,-1.449726,0.03960309,14.16615,NaN,NaN,0.6514503,0.8052318,0.4913498,1.008517,-0.02925337,1.485883
203.7854,-0.1245331,0.00057814,NaN,-0.3268867,0.0002796316,NaN,0.01820061,-14.12162,NaN,-1.345367,-1.462756,0.03874718,14.17975,NaN,NaN,0.6518617,0.8042675,0.4921158,1.027289,-0.03672265,1.495888
203.8007,-0.1282023,0.0005770178,NaN,-0.3268928,0.0002795809,NaN,0.02049473,-14.1207,NaN,-1.341739,-1.451344,0.03736115,14.16784,NaN,NaN,0.6521009,0.8056664,0.4923219,1.010905,-0.03808213,1.484245
203.8152,-0.1282023,0.0005770178,NaN,-0.3268928,0.0002795809,NaN,0.02049473,-14.1207,NaN,-1.341739,-1.451344,0.03736115,14.16784,NaN,NaN,0.6521009,0.8056664,0.4923219,1.010905,-0.03808213,1.484245
203.8293,-0.1326989,0.0005759917,NaN,-0.3269003,0.0002788816,NaN,0.02382787,-14.12105,NaN,-1.337286,-1.463242,0.03492239,14.18026,NaN,NaN,0.6520877,0.8049511,0.4915203,1.028062,-0.03525291,1.487761
203.845,-0.1376973,0.0005755522,NaN,-0.3269075,0.000278229,NaN,0.0278994,-14.12185,NaN,-1.332335,-1.465631,0.03163028,14.18278,NaN,NaN,0.6519696,0.8040358,0.4900066,1.031453,-0.0363792,1.494442
203.8601,-0.1429905,0.0005753783,NaN,-0.3269136,0.0002782571,NaN,0.03256037,-14.12059,NaN,-1.327164,-1.4571,0.02762485,14.17384,NaN,NaN,0.6519549,0.8056361,0.4879514,1.019235,-0.03095276,1.485563
203.8753,-0.1429905,0.0005753783,NaN,-0.3269136,0.0002782571,NaN,0.03256037,-14.12059,NaN,-1.327164,-1.4571,0.02762485,14.17384,NaN,NaN,0.6519549,0.8056361,0.4879514,1.019235,-0.03095276,1.485563
203.8898,-0.1491753,0.0005753015,NaN,-0.3269207,0.0002787316,NaN,0.03737176,-14.12067,NaN,-1.321064,-1.451142,0.02339961,14.16763,NaN,NaN,0.6513473,0.8057615,0.4858059,1.010629,-0.02662923,1.482802
203.9053,-0.155895,0.0005749563,NaN,-0.3269266,0.0002782732,NaN,0.04318761,-14.12118,NaN,-1.314678,-1.46362,0.0179225,14.18065,NaN,NaN,0.650472,0.8048643,0.4822784,1.028611,-0.03879431,1.488241
203.9204,-0.1629232,0.0005750118,NaN,-0.3269307,0.0002788905,NaN,0.04885308,-14.12079,NaN,-1.307601,-1.451492,0.01246912,14.16802,NaN,NaN,0.6486388,0.8057619,0.4786627,1.01115,-0.03672963,1.485007
203.9355,-0.1629232,0.0005750118,NaN,-0.3269307,0.0002788905,NaN,0.04885308,-14.12079,NaN,-1.307601,-1.451492,0.01246912,14.16802,NaN,NaN,0.6486388,0.8057619,0.4786627,1.01115,-0.03672963,1.485007
203.9496,-0.1701159,0.0005753694,NaN,-0.3269328,0.0002792631,NaN,0.05549571,-14.1218,NaN,-1.300664,-1.455084,0.005885349,14.17183,NaN,NaN,0.6468049,0.8046446,0.4736428,1.016284,-0.03123583,1.490801
203.9662,-0.1781102,0.0005754614,NaN,-0.3269355,0.0002789884,NaN,0.06158686,-14.12186,NaN,-1.292138,-1.462185,-0.0001276559,14.17921,NaN,NaN,0.6434998,0.8043354,0.4691283,1.026513,-0.0278121,1.490543
203.9801,-0.1865754,0.0005762956,NaN,-0.3269368,0.0002788956,NaN,0.0693831,-14.12138,NaN,-1.28341,-1.465197,-0.008023923,14.18229,NaN,NaN,0.6399177,0.8046824,0.4623814,1.030878,-0.02449915,1.491476
203.9951,-0.1865754,0.0005762956,NaN,-0.3269368,0.0002788956,NaN,0.0693831,-14.12138,NaN,-1.28341,-1.465197,-0.008023923,14.18229,NaN,NaN,0.6399177,0.8046824,0.4623814,1.030878,-0.02449915,1.491476
204.0094,-0.1953012,0.0005771776,NaN,-0.3269369,0.0002795196,NaN,0.07615607,-14.12186,NaN,-1.273517,-1.455551,-0.01492756,14.17229,NaN,NaN,0.6349217,0.8046303,0.4565547,1.016945,-0.02351935,1.491506
204.0251,-0.2041546,0.0005777195,NaN,-0.3269364,0.0002801772,NaN,0.08396651,-14.12089,NaN,-1.263731,-1.450715,-0.02296553,14.16719,NaN,NaN,0.6298384,0.8057616,0.4492862,1.010022,-0.01635505,1.48534
204.04,-0.2137792,0.0005779573,NaN,-0.3269367,0.0002799167,NaN,0.09120855,-14.12059,NaN,-1.25227,-1.462459,-0.0303486,14.17938,NaN,NaN,0.6233254,0.8057021,0.4426322,1.026984,-0.01768652,1.48443
204.0552,-0.2137792,0.0005779573,NaN,-0.3269367,0.0002799167,NaN,0.09120855,-14.12059,NaN,-1.25227,-1.462459,-0.0303486,14.17938,NaN,NaN,0.6233254,0.8057021,0.4426322,1.026984,-0.01768652,1.48443
204.0694,-0.2238488,0.0005779834,NaN,-0.3269362,0.0002803094,NaN,0.09944694,-14.1209,NaN,-1.240409,-1.451458,-0.03880011,14.16794,NaN,NaN,0.6163306,0.8058169,0.4346808,1.011089,-0.006830728,1.482006
204.0853,-0.234156,0.0005786513,NaN,-0.3269349,0.0002805537,NaN,0.1073251,-14.1224,NaN,-1.227773,-1.458714,-0.04687772,14.17561,NaN,NaN,0.6084362,0.8040895,0.4269677,1.021487,0.001296849,1.496492
204.1001,-0.2445696,0.0005788244,NaN,-0.3269328,0.0002799152,NaN,0.1153981,-14.12054,NaN,-1.214775,-1.46566,-0.05515589,14.18267,NaN,NaN,0.5999618,0.8056485,0.4189956,1.03159,0.007294334,1.485456
204.1154,-0.2445696,0.0005788244,NaN,-0.3269328,0.0002799152,NaN,0.1153981,-14.12054,NaN,-1.214775,-1.46566,-0.05515589,14.18267,NaN,NaN,0.5999618,0.8056485,0.4189956,1.03159,0.007294334,1.485456
204.1294,-0.2557347,0.0005784848,NaN,-0.3269316,0.000279743,NaN,0.1236074,-14.12121,NaN,-1.20049,-1.453542,-0.06348098,14.17009,NaN,NaN,0.5904693,0.8054975,0.4109687,1.014063,0.01549524,1.488913
204.1452,-0.2673257,0.0005783024,NaN,-0.3269295,0.0002798881,NaN,0.1317005,-14.12047,NaN,-1.185364,-1.453553,-0.07165711,14.17004,NaN,NaN,0.5801175,0.8062183,0.4030114,1.014119,0.02351823,1.482086
204.1611,-0.2791361,0.0005779046,NaN,-0.326926,0.000279299,NaN,0.139533,-14.11989,NaN,-1.169686,-1.462339,-0.07949591,14.17915,NaN,NaN,0.5691639,0.806488,0.395325,1.026837,0.03151226,1.48244
204.1752,-0.2791361,0.0005779046,NaN,-0.326926,0.000279299,NaN,0.139533,-14.11989,NaN,-1.169686,-1.462339,-0.07949591,14.17915,NaN,NaN,0.5691639,0.806488,0.395325,1.026837,0.03151226,1.48244
204.1895,-0.2917633,0.0005771728,NaN,-0.3269232,0.0002786356,NaN,0.1477569,-14.12137,NaN,-1.152799,-1.460874,-0.08751426,14.17772,NaN,NaN,0.5573876,0.8050368,0.3874605,1.024639,0.03752183,1.490756
204.2054,-0.3048512,0.0005767947,NaN,-0.3269185,0.000278542,NaN,0.1558884,-14.12133,NaN,-1.136249,-1.456733,-0.09535883,14.17342,NaN,NaN,0.546095,0.8052094,0.3797606,1.018675,0.04268717,1.486703
204.2214,-0.3181742,0.0005771722,NaN,-0.3269113,0.000278239,NaN,0.1638248,-14.12202,NaN,-1.120078,-1.465091,-0.1029968,14.18216,NaN,NaN,0.5350198,0.8041955,0.3722332,1.030695,0.04732708,1.495676
204.2352,-0.3181742,0.0005771722,NaN,-0.3269113,0.000278239,NaN,0.1638248,-14.12202,NaN,-1.120078,-1.465091,-0.1029968,14.18216,NaN,NaN,0.5350198,0.8041955,0.3722332,1.030695,0.04732708,1.495676
204.2496,-0.3315891,0.0005773732,NaN,-0.3269018,0.0002775434,NaN,0.171497,-14.12139,NaN,-1.104365,-1.466409,-0.1103631,14.18349,NaN,NaN,0.5241461,0.8047357,0.3649016,1.032636,0.05176409,1.489521
204.2654,-0.3457338,0.0005779439,NaN,-0.3268929,0.0002781307,NaN,0.179105,-14.12034,NaN,-1.08872,-1.453215,-0.1175907,14.16971,NaN,NaN,0.5134833,0.8063418,0.3577112,1.013681,0.05624508,1.482792
204.2805,-0.3602784,0.0005785243,NaN,-0.3268822,0.0002779642,NaN,0.1864515,-14.12154,NaN,-1.073441,-1.463237,-0.1245237,14.18023,NaN,NaN,0.5030205,0.8047816,0.3506963,1.028084,0.05514224,1.492813
204.2954,-0.3602784,0.0005785243,NaN,-0.3268822,0.0002779642,NaN,0.1864515,-14.12154,NaN,-1.073441,-1.463237,-0.1245237,14.18023,NaN,NaN,0.5030205,0.8047816,0.3506963,1.028084,0.05514224,1.492813
204.3098,-0.3750134,0.0005786505,NaN,-0.326869,0.0002779495,NaN,0.1936185,-14.12095,NaN,-1.05857,-1.45651,-0.1312478,14.17318,NaN,NaN,0.4927631,0.8055996,0.3438191,1.018406,0.05406102,1.489418
204.3254,-0.3898064,0.0005780636,NaN,-0.3268536,0.000277199,NaN,0.2006374,-14.12113,NaN,-1.044095,-1.463663,-0.1378042,14.18061,NaN,NaN,0.482707,0.8051166,0.3370767,1.028704,0.05300101,1.493996
204.3405,-0.4053022,0.0005780426,NaN,-0.326839,0.0002766403,NaN,0.207721,-14.12194,NaN,-1.029547,-1.464594,-0.1443585,14.1816,NaN,NaN,0.4728481,0.8042194,0.3304666,1.029979,0.05196176,1.496422
204.3555,-0.4053022,0.0005780426,NaN,-0.326839,0.0002766403,NaN,0.207721,-14.12194,NaN,-1.029547,-1.464594,-0.1443585,14.1816,NaN,NaN,0.4728481,0.8042194,0.3304666,1.029979,0.05196176,1.496422
204.3699,-0.421175,0.0005785226,NaN,-0.3268225,0.0002770356,NaN,0.2147329,-14.12034,NaN,-1.01522,-1.455708,-0.1508433,14.17224,NaN,NaN,0.4631826,0.8061419,0.323986,1.017252,0.05094291,1.485105
204.3855,-0.4372185,0.000578937,NaN,-0.3268037,0.0002775823,NaN,0.2216265,-14.12156,NaN,-1.001217,-1.451679,-0.1572242,14.1681,NaN,NaN,0.4537067,0.8050113,0.3176326,1.011346,0.04994402,1.489607
204.4001,-0.4533019,0.0005795716,NaN,-0.3267826,0.0002775072,NaN,0.2283933,-14.12191,NaN,-0.9875624,-1.462245,-0.1634901,14.17908,NaN,NaN,0.4444169,0.8042896,0.3114038,1.026545,0.04896473,1.49528
204.4153,-0.4533019,0.0005795716,NaN,-0.3267826,0.0002775072,NaN,0.2283933,-14.12191,NaN,-0.9875624,-1.462245,-0.1634901,14.17908,NaN,NaN,0.4444169,0.8042896,0.3114038,1.026545,0.04896473,1.49528
204.4296,-0.4700713,0.0005800684,NaN,-0.3267625,0.0002779454,NaN,0.2352469,-14.12137,NaN,-0.9738076,-1.454754,-0.1697944,14.17123,NaN,NaN,0.4353091,0.8050858,0.3052971,1.015761,0.04800464,1.491653
204.4454,-0.487202,0.0005804045,NaN,-0.3267405,0.0002777221,NaN,0.242037,-14.12257,NaN,-0.9602536,-1.463554,-0.1760453,14.18045,NaN,NaN,0.4263801,0.803552,0.2993101,1.028374,0.04706337,1.496721
204.4606,-0.5044879,0.0005807265,NaN,-0.326716,0.0002782549,NaN,0.2487132,-14.12106,NaN,-0.9470078,-1.452137,-0.1822009,14.16849,NaN,NaN,0.4176264,0.8055083,0.2934406,1.012013,0.04614056,1.486168
204.4755,-0.5044879,0.0005807265,NaN,-0.326716,0.0002782549,NaN,0.2487132,-14.12106,NaN,-0.9470078,-1.452137,-0.1822009,14.16849,NaN,NaN,0.4176264,0.8055083,0.2934406,1.012013,0.04614056,1.486168
204.4899,-0.5225273,0.0005805629,NaN,-0.3266918,0.0002779289,NaN,0.255488,-14.12177,NaN,-0.9336558,-1.462373,-0.1884122,14.17917,NaN,NaN,0.4090443,0.804449,0.2876862,1.026734,0.04523585,1.493779
204.5054,-0.540965,0.000579665,NaN,-0.3266649,0.0002771719,NaN,0.2622,-14.12226,NaN,-0.9205078,-1.46258,-0.1945734,14.1794,NaN,NaN,0.4006306,0.8039398,0.2820446,1.026993,0.04434887,1.495843
204.5206,-0.5595757,0.0005793377,NaN,-0.3266349,0.0002773735,NaN,0.268797,-14.12154,NaN,-0.9076728,-1.45601,-0.2006397,14.17253,NaN,NaN,0.3923821,0.8049163,0.2765137,1.017567,0.04347928,1.492772
204.5354,-0.5595757,0.0005793377,NaN,-0.3266349,0.0002773735,NaN,0.268797,-14.12154,NaN,-0.9076728,-1.45601,-0.2006397,14.17253,NaN,NaN,0.3923821,0.8049163,0.2765137,1.017567,0.04347928,1.492772
204.5507,-0.5782171,0.0005791755,NaN,-0.3266023,0.0002778376,NaN,0.2752708,-14.1212,NaN,-0.8951754,-1.451465,-0.2065986,14.16776,NaN,NaN,0.3842954,0.8054094,0.2710913,1.011024,0.04262674,1.485964
204.5652,-0.597528,0.000578584,NaN,-0.3265704,0.000277239,NaN,0.2818676,-14.12115,NaN,-0.8825708,-1.464403,-0.2126331,14.18121,NaN,NaN,0.3763675,0.8050572,0.2657751,1.029689,0.04179092,1.490488
204.5801,-0.617179,0.0005789845,NaN,-0.3265363,0.0002780225,NaN,0.2884177,-14.12147,NaN,-0.8701557,-1.453161,-0.2186299,14.16953,NaN,NaN,0.3685951,0.8051991,0.2605633,1.013457,0.0409715,1.492308
204.5952,-0.617179,0.0005789845,NaN,-0.3265363,0.0002780225,NaN,0.2884177,-14.12147,NaN,-0.8701557,-1.453161,-0.2186299,14.16953,NaN,NaN,0.3685951,0.8051991,0.2605633,1.013457,0.0409715,1.492308
204.6096,-0.6369613,0.0005787053,NaN,-0.3264994,0.0002780141,NaN,0.2948646,-14.12092,NaN,-0.8580357,-1.456699,-0.224542,14.17316,NaN,NaN,0.3609753,0.8056331,0.2554536,1.018582,0.04016813,1.48676
204.6253,-0.6567434,0.0005787674,NaN,-0.3264604,0.0002777104,NaN,0.3011977,-14.12238,NaN,-0.8462362,-1.464226,-0.2303564,14.18109,NaN,NaN,0.3535051,0.8039107,0.2504442,1.029364,0.03938052,1.497283
204.6406,-0.6771706,0.000579651,NaN,-0.3264224,0.0002777711,NaN,0.3076816,-14.12222,NaN,-0.8343167,-1.463469,-0.2362739,14.18027,NaN,NaN,0.3461815,0.8040793,0.245533,1.02827,0.03860836,1.496349
204.6555,-0.6771706,0.000579651,NaN,-0.3264224,0.0002777711,NaN,0.3076816,-14.12222,NaN,-0.8343167,-1.463469,-0.2362739,14.18027,NaN,NaN,0.3461815,0.8040793,0.245533,1.02827,0.03860836,1.496349
204.6699,-0.6979178,0.0005803055,NaN,-0.3263823,0.0002783171,NaN,0.3141322,-14.12158,NaN,-0.8225735,-1.454973,-0.2421661,14.17139,NaN,NaN,0.3390017,0.8050374,0.2407181,1.016052,0.03785133,1.493062
204.6871,-0.7187793,0.0005805459,NaN,-0.3263396,0.0002787797,NaN,0.3204874,-14.1215,NaN,-0.8111129,-1.451388,-0.2479816,14.16763,NaN,NaN,0.3319628,0.8052093,0.2359976,1.010871,0.03710915,1.486226
204.7005,-0.7396252,0.0005808417,NaN,-0.3262949,0.0002792149,NaN,0.3267347,-14.12206,NaN,-0.7999613,-1.452521,-0.253706,14.16884,NaN,NaN,0.3250621,0.8045978,0.2313698,1.012469,0.03638152,1.490766
204.7155,-0.7396252,0.0005808417,NaN,-0.3262949,0.0002792149,NaN,0.3267347,-14.12206,NaN,-0.7999613,-1.452521,-0.253706,14.16884,NaN,NaN,0.3250621,0.8045978,0.2313698,1.012469,0.03638152,1.490766
204.7299,-0.760595,0.0005809023,NaN,-0.3262498,0.0002792947,NaN,0.3329643,-14.1217,NaN,-0.788983,-1.456631,-0.2594071,14.17306,NaN,NaN,0.3182969,0.8048081,0.2268327,1.018401,0.03566816,1.488388
204.7456,-0.7815547,0.0005812607,NaN,-0.3262038,0.0002799212,NaN,0.3391219,-14.12153,NaN,-0.7782577,-1.451459,-0.2650455,14.16765,NaN,NaN,0.3116645,0.805146,0.2223846,1.010945,0.03496878,1.490986
204.7605,-0.8024204,0.0005809113,NaN,-0.3261572,0.0002799105,NaN,0.3451924,-14.12143,NaN,-0.7678067,-1.455089,-0.2706086,14.17141,NaN,NaN,0.3051623,0.8051275,0.2180237,1.01618,0.03428312,1.488836
204.7754,-0.8024204,0.0005809113,NaN,-0.3261572,0.0002799105,NaN,0.3451924,-14.12143,NaN,-0.7678067,-1.455089,-0.2706086,14.17141,NaN,NaN,0.3051623,0.8051275,0.2180237,1.01618,0.03428312,1.488836
204.7899,-0.8231395,0.000580514,NaN,-0.3261107,0.0002799081,NaN,0.3511759,-14.12227,NaN,-0.7576284,-1.456584,-0.2760957,14.17302,NaN,NaN,0.2987878,0.8042356,0.2137484,1.01829,0.0336109,1.49234
204.8056,-0.8436798,0.0005808626,NaN,-0.3260647,0.000279733,NaN,0.357077,-14.12294,NaN,-0.7477133,-1.464093,-0.2815098,14.18085,NaN,NaN,0.2925384,0.8032939,0.2095569,1.029072,0.03295186,1.500544
204.8206,-0.8640218,0.0005804257,NaN,-0.3260196,0.000279468,NaN,0.3629004,-14.12251,NaN,-0.7380506,-1.455081,-0.2868551,14.17148,NaN,NaN,0.2864118,0.8041047,0.2054476,1.016127,0.03230575,1.49523
204.836,-0.8640218,0.0005804257,NaN,-0.3260196,0.000279468,NaN,0.3629004,-14.12251,NaN,-0.7380506,-1.455081,-0.2868551,14.17148,NaN,NaN,0.2864118,0.8041047,0.2054476,1.016127,0.03230575,1.49523
204.8501,-0.8841538,0.0005800119,NaN,-0.3259758,0.0002794902,NaN,0.3686504,-14.12107,NaN,-0.7286301,-1.453697,-0.2921351,14.16993,NaN,NaN,0.2804054,0.8055794,0.201419,1.014205,0.0316723,1.486545
204.8658,-0.9040698,0.0005796193,NaN,-0.3259335,0.0002789196,NaN,0.37433,-14.12254,NaN,-0.7194427,-1.463678,-0.2973527,14.18043,NaN,NaN,0.2745169,0.8037861,0.1974693,1.028538,0.03105128,1.495412
204.8806,-0.9237665,0.0005801212,NaN,-0.3258928,0.0002794896,NaN,0.3799416,-14.12148,NaN,-0.7104809,-1.455506,-0.30251,14.17188,NaN,NaN,0.2687441,0.8051676,0.1935971,1.01683,0.03044243,1.490576
204.8959,-0.9237665,0.0005801212,NaN,-0.3258928,0.0002794896,NaN,0.3799416,-14.12148,NaN,-0.7104809,-1.455506,-0.30251,14.17188,NaN,NaN,0.2687441,0.8051676,0.1935971,1.01683,0.03044243,1.490576
204.91,-0.943243,0.0005804672,NaN,-0.3258538,0.000279449,NaN,0.3854868,-14.12301,NaN,-0.7017379,-1.461422,-0.3076085,14.17814,NaN,NaN,0.2630846,0.8034327,0.1898008,1.025283,0.02984552,1.4986
204.9267,-0.9624997,0.0005806077,NaN,-0.3258165,0.0002791811,NaN,0.390967,-14.12233,NaN,-0.693208,-1.461866,-0.3126496,14.17854,NaN,NaN,0.2575362,0.804077,0.186079,1.025951,0.02926031,1.494908
204.9409,-0.9815376,0.0005809564,NaN,-0.325781,0.0002796627,NaN,0.3963831,-14.1213,NaN,-0.6848859,-1.453625,-0.317634,14.1699,NaN,NaN,0.2520967,0.8054118,0.1824302,1.014129,0.02868658,1.488407
204.9558,-0.9815376,0.0005809564,NaN,-0.325781,0.0002796627,NaN,0.3963831,-14.1213,NaN,-0.6848859,-1.453625,-0.317634,14.1699,NaN,NaN,0.2520967,0.8054118,0.1824302,1.014129,0.02868658,1.488407
204.97,-1.000358,0.000580452,NaN,-0.3257472,0.0002794419,NaN,0.401736,-14.12207,NaN,-0.6767666,-1.456431,-0.3225625,14.17286,NaN,NaN,0.2467641,0.804538,0.1788529,1.018131,0.0281241,1.493684
204.9859,-1.018964,0.000579291,NaN,-0.3257151,0.000278551,NaN,0.4070264,-14.1221,NaN,-0.6688456,-1.464363,-0.3274357,14.18109,NaN,NaN,0.2415361,0.8042115,0.1753458,1.029553,0.02757264,1.496875
205.0008,-1.037356,0.0005784126,NaN,-0.3256847,0.0002785643,NaN,0.4122548,-14.12138,NaN,-0.6611186,-1.453709,-0.3322539,14.16998,NaN,NaN,0.2364108,0.8053839,0.1719075,1.014248,0.02703201,1.489005
205.0159,-1.037356,0.0005784126,NaN,-0.3256847,0.0002785643,NaN,0.4122548,-14.12138,NaN,-0.6611186,-1.453709,-0.3322539,14.16998,NaN,NaN,0.2364108,0.8053839,0.1719075,1.014248,0.02703201,1.489005
205.03,-1.055538,0.0005778687,NaN,-0.3256559,0.0002789215,NaN,0.4174216,-14.12198,NaN,-0.6535813,-1.451714,-0.3370175,14.16794,NaN,NaN,0.2313862,0.8048633,0.1685366,1.011341,0.02650196,1.489809
205.0462,-1.07351,0.000577927,NaN,-0.3256287,0.0002787547,NaN,0.4225275,-14.12264,NaN,-0.6462298,-1.462542,-0.3417269,14.17925,NaN,NaN,0.2264602,0.8038779,0.1652318,1.026923,0.02598232,1.498377
205.061,-1.091277,0.0005775065,NaN,-0.325603,0.0002787035,NaN,0.4275726,-14.12221,NaN,-0.6390601,-1.453487,-0.3463823,14.16982,NaN,NaN,0.2216309,0.8046691,0.1619918,1.013902,0.02547286,1.494911
205.0762,-1.091277,0.0005775065,NaN,-0.325603,0.0002787035,NaN,0.4275726,-14.12221,NaN,-0.6390601,-1.453487,-0.3463823,14.16982,NaN,NaN,0.2216309,0.8046691,0.1619918,1.013902,0.02547286,1.494911
205.0905,-1.108839,0.0005767355,NaN,-0.3255789,0.0002786029,NaN,0.4325574,-14.12209,NaN,-0.6320683,-1.452269,-0.3509839,14.16853,NaN,NaN,0.2168965,0.8048181,0.1588154,1.012151,0.02497339,1.492726
205.106,-1.1262,0.0005764072,NaN,-0.3255562,0.0002790393,NaN,0.437482,-14.12206,NaN,-0.6252508,-1.450401,-0.3555318,14.16658,NaN,NaN,0.212255,0.8048985,0.1557012,1.009457,0.02448372,1.492904
205.1222,-1.143361,0.000576518,NaN,-0.3255349,0.0002796272,NaN,0.4423468,-14.12269,NaN,-0.6186038,-1.450471,-0.3600263,14.16671,NaN,NaN,0.2077046,0.8042644,0.1526482,1.009529,0.02400365,1.495869
205.1375,-1.143361,0.000576518,NaN,-0.3255349,0.0002796272,NaN,0.4423468,-14.12269,NaN,-0.6186038,-1.450471,-0.3600263,14.16671,NaN,NaN,0.2077046,0.8042644,0.1526482,1.009529,0.02400365,1.495869
205.1505,-1.160325,0.000576677,NaN,-0.3255151,0.0002793769,NaN,0.447152,-14.12371,NaN,-0.6121238,-1.463367,-0.3644673,14.18018,NaN,NaN,0.2032436,0.8028564,0.149655,1.02807,0.02353299,1.501972
205.1661,-1.177094,0.000576935,NaN,-0.3254965,0.0002792012,NaN,0.4518977,-14.12365,NaN,-0.6058072,-1.461984,-0.368855,14.17873,NaN,NaN,0.1988702,0.8029631,0.1467205,1.026081,0.02307156,1.499886
205.181,-1.19367,0.0005772208,NaN,-0.3254793,0.0002791559,NaN,0.456584,-14.12359,NaN,-0.5996506,-1.460506,-0.3731894,14.17719,NaN,NaN,0.1945827,0.8030727,0.1438435,1.023957,0.02261918,1.498633
205.1966,-1.19367,0.0005772208,NaN,-0.3254793,0.0002791559,NaN,0.456584,-14.12359,NaN,-0.5996506,-1.460506,-0.3731894,14.17719,NaN,NaN,0.1945827,0.8030727,0.1438435,1.023957,0.02261918,1.498633
205.2106,-1.210056,0.0005775229,NaN,-0.3254633,0.000278769,NaN,0.461211,-14.12304,NaN,-0.5936506,-1.465259,-0.3774705,14.18206,NaN,NaN,0.1903793,0.8034241,0.141023,1.030824,0.02217566,1.498635
205.2264,-1.226254,0.0005772936,NaN,-0.3254486,0.000277899,NaN,0.4657789,-14.12273,NaN,-0.5878038,-1.466459,-0.3816984,14.18328,NaN,NaN,0.1862585,0.8036652,0.1382578,1.032566,0.02174085,1.500011
205.2415,-1.242265,0.0005779339,NaN,-0.325435,0.0002784901,NaN,0.4702876,-14.1221,NaN,-0.5821071,-1.455706,-0.3858729,14.17208,NaN,NaN,0.1822185,0.8047558,0.1355468,1.017118,0.02131456,1.495126
205.2566,-1.242265,0.0005779339,NaN,-0.325435,0.0002784901,NaN,0.4702876,-14.1221,NaN,-0.5821071,-1.455706,-0.3858729,14.17208,NaN,NaN,0.1822185,0.8047558,0.1355468,1.017118,0.02131456,1.495126
205.2709,-1.258092,0.0005787925,NaN,-0.3254226,0.0002788264,NaN,0.4747373,-14.12386,NaN,-0.5765573,-1.458627,-0.3899941,14.17524,NaN,NaN,0.1782579,0.802901,0.1328889,1.021235,0.02089662,1.504323
205.2865,-1.273738,0.0005796264,NaN,-0.3254113,0.0002796718,NaN,0.4791278,-14.12286,NaN,-0.5711511,-1.451115,-0.3940619,14.16737,NaN,NaN,0.1743751,0.8041726,0.1302832,1.010473,0.02048688,1.497558
205.3014,-1.289203,0.0005800421,NaN,-0.3254011,0.0002799109,NaN,0.4834593,-14.12319,NaN,-0.5658856,-1.455943,-0.3980762,14.1724,NaN,NaN,0.1705685,0.8036852,0.1277286,1.017409,0.02008518,1.49469
205.3166,-1.289203,0.0005800421,NaN,-0.3254011,0.0002799109,NaN,0.4834593,-14.12319,NaN,-0.5658856,-1.455943,-0.3980762,14.1724,NaN,NaN,0.1705685,0.8036852,0.1277286,1.017409,0.02008518,1.49469
205.3308,-1.30427,0.0005795381,NaN,-0.3253911,0.0002799275,NaN,0.4875882,-14.12182,NaN,-0.560881,-1.450791,-0.4019161,14.16694,NaN,NaN,0.1668365,0.805219,0.1252241,1.010056,0.01969135,1.48985
205.3463,-1.319023,0.000579702,NaN,-0.3253825,0.0002798664,NaN,0.491618,-14.12357,NaN,-0.5560465,-1.460595,-0.4056668,14.17728,NaN,NaN,0.1631778,0.8031892,0.1227687,1.024121,0.01930525,1.503899
205.3614,-1.333517,0.0005804581,NaN,-0.3253755,0.000279786,NaN,0.495587,-14.12271,NaN,-0.5513443,-1.464099,-0.4093609,14.18084,NaN,NaN,0.1595909,0.803896,0.1203614,1.029208,0.01892671,1.50082
205.3763,-1.333517,0.0005804581,NaN,-0.3253755,0.000279786,NaN,0.495587,-14.12271,NaN,-0.5513443,-1.464099,-0.4093609,14.18084,NaN,NaN,0.1595909,0.803896,0.1203614,1.029208,0.01892671,1.50082
205.3908,-1.34706,0.0005800317,NaN,-0.3253676,0.0002790298,NaN,0.499015,-14.12278,NaN,-0.5471635,-1.458955,-0.4125926,14.1755,NaN,NaN,0.1560741,0.804031,0.1180014,1.021793,0.0185556,1.497307
205.4065,-1.359947,0.0005793599,NaN,-0.3253618,0.0002784581,NaN,0.5022584,-14.1218,NaN,-0.5432116,-1.456439,-0.4156584,14.17281,NaN,NaN,0.1526262,0.8050969,0.1156876,1.018221,0.01819177,1.495023
205.4216,-1.372369,0.000579286,NaN,-0.325359,0.0002786104,NaN,0.5054468,-14.12159,NaN,-0.5393726,-1.455641,-0.4186694,14.17196,NaN,NaN,0.1492461,0.8053168,0.1134192,1.01708,0.01783507,1.493127
205.4366,-1.372369,0.000579286,NaN,-0.325359,0.0002786104,NaN,0.5054468,-14.12159,NaN,-0.5393726,-1.455641,-0.4186694,14.17196,NaN,NaN,0.1492461,0.8053168,0.1134192,1.01708,0.01783507,1.493127
205.451,-1.384446,0.000579669,NaN,-0.3253582,0.0002784143,NaN,0.5086161,-14.12264,NaN,-0.5356069,-1.463362,-0.4216579,14.18006,NaN,NaN,0.1459322,0.8039985,0.1111953,1.028164,0.01748536,1.49998
205.4669,-1.395527,0.0005792938,NaN,-0.3253572,0.0002778525,NaN,0.511257,-14.12272,NaN,-0.5323079,-1.460531,-0.4241926,14.17712,NaN,NaN,0.1426831,0.8040069,0.109015,1.024072,0.01714251,1.499413
205.4815,-1.405936,0.0005799451,NaN,-0.3253576,0.0002784891,NaN,0.5137316,-14.1215,NaN,-0.5291929,-1.454501,-0.4265771,14.17076,NaN,NaN,0.1394977,0.805437,0.1068775,1.015449,0.01680638,1.492495
205.4976,-1.405936,0.0005799451,NaN,-0.3253576,0.0002784891,NaN,0.5137316,-14.1215,NaN,-0.5291929,-1.454501,-0.4265771,14.17076,NaN,NaN,0.1394977,0.805437,0.1068775,1.015449,0.01680638,1.492495
205.5119,-1.415878,0.0005805237,NaN,-0.3253593,0.0002791776,NaN,0.5161681,-14.12184,NaN,-0.5261533,-1.450954,-0.4289213,14.16708,NaN,NaN,0.1363747,0.8051956,0.1047818,1.010309,0.01647684,1.49342
205.5265,-1.425485,0.0005808639,NaN,-0.3253618,0.0002789891,NaN,0.5186008,-14.12295,NaN,-0.5231558,-1.463016,-0.4312563,14.17971,NaN,NaN,0.1333131,0.8037117,0.1027273,1.027654,0.01615377,1.500519
205.5415,-1.434113,0.0005811693,NaN,-0.3253638,0.0002795568,NaN,0.5204998,-14.12157,NaN,-0.5205959,-1.451562,-0.4331323,14.16773,NaN,NaN,0.1303111,0.8055422,0.100713,1.011236,0.01583703,1.489268
205.5564,-1.434113,0.0005811693,NaN,-0.3253638,0.0002795568,NaN,0.5204998,-14.12157,NaN,-0.5205959,-1.451562,-0.4331323,14.16773,NaN,NaN,0.1303111,0.8055422,0.100713,1.011236,0.01583703,1.489268
205.5708,-1.44209,0.000580507,NaN,-0.3253668,0.0002795124,NaN,0.5222384,-14.12219,NaN,-0.5181955,-1.452634,-0.4348636,14.16888,NaN,NaN,0.127368,0.8048758,0.0987383,1.012747,0.0155265,1.494253
205.5865,-1.449623,0.0005797829,NaN,-0.3253721,0.0002788901,NaN,0.5239498,-14.12124,NaN,-0.5158492,-1.463812,-0.4365651,14.18041,NaN,NaN,0.1244826,0.8054475,0.09680227,1.028901,0.01522206,1.49032
205.603,-1.456845,0.0005794182,NaN,-0.3253797,0.0002792862,NaN,0.5256684,-14.12182,NaN,-0.5135253,-1.45199,-0.4382678,14.16813,NaN,NaN,0.1216538,0.8053454,0.09490421,1.011808,0.01492359,1.49114
205.6168,-1.456845,0.0005794182,NaN,-0.3253797,0.0002792862,NaN,0.5256684,-14.12182,NaN,-0.5135253,-1.45199,-0.4382678,14.16813,NaN,NaN,0.1216538,0.8053454,0.09490421,1.011808,0.01492359,1.49114
205.6309,-1.463114,0.0005786372,NaN,-0.325387,0.0002786977,NaN,0.5268485,-14.12203,NaN,-0.5116183,-1.463382,-0.439507,14.17999,NaN,NaN,0.1188801,0.8047593,0.09304336,1.028226,0.01463097,1.495285
205.6469,-1.468757,0.000577869,NaN,-0.3253959,0.0002778042,NaN,0.5278742,-14.12108,NaN,-0.5098522,-1.466215,-0.4406072,14.18286,NaN,NaN,0.1161608,0.8055718,0.09121902,1.032364,0.01434409,1.489415
205.6617,-1.473982,0.0005780454,NaN,-0.3254069,0.0002781234,NaN,0.5288814,-14.1214,NaN,-0.5081228,-1.457812,-0.4416855,14.17412,NaN,NaN,0.1134947,0.8056073,0.08943043,1.020211,0.01406284,1.490928
205.6768,-1.473982,0.0005780454,NaN,-0.3254069,0.0002781234,NaN,0.5288814,-14.1214,NaN,-0.5081228,-1.457812,-0.4416855,14.17412,NaN,NaN,0.1134947,0.8056073,0.08943043,1.020211,0.01406284,1.490928
205.6931,-1.478195,0.0005778359,NaN,-0.3254175,0.0002784547,NaN,0.5293536,-14.1211,NaN,-0.5067955,-1.451417,-0.4423022,14.16742,NaN,NaN,0.1108806,0.806119,0.08767692,1.01099,0.01378709,1.483448
205.7066,-1.481753,0.0005780552,NaN,-0.3254294,0.000278471,NaN,0.5296916,-14.12257,NaN,-0.5055862,-1.459999,-0.4427968,14.17648,NaN,NaN,0.1083176,0.8043925,0.0859578,1.023308,0.01351676,1.496404
205.7216,-1.484885,0.0005776546,NaN,-0.3254429,0.0002785758,NaN,0.5300345,-14.12041,NaN,-0.5043898,-1.451347,-0.4432898,14.16733,NaN,NaN,0.1058048,0.8068696,0.08427238,1.010956,0.01325172,1.482462
205.7366,-1.484885,0.0005776546,NaN,-0.3254429,0.0002785758,NaN,0.5300345,-14.12041,NaN,-0.5043898,-1.451347,-0.4432898,14.16733,NaN,NaN,0.1058048,0.8068696,0.08427238,1.010956,0.01325172,1.482462
205.7508,-1.487734,0.000577217,NaN,-0.3254578,0.0002780598,NaN,0.5304168,-14.122,NaN,-0.5031767,-1.463679,-0.443812,14.18033,NaN,NaN,0.1033414,0.8049082,0.08262001,1.028704,0.01299189,1.493939
205.7665,-1.489667,0.0005765803,NaN,-0.3254715,0.0002780298,NaN,0.5302765,-14.12047,NaN,-0.5023432,-1.453361,-0.4438848,14.16949,NaN,NaN,0.1009259,0.806856,0.08100004,1.013916,0.01273715,1.483823
205.7816,-1.491014,0.0005760467,NaN,-0.3254853,0.0002777254,NaN,0.5300061,-14.12232,NaN,-0.5016168,-1.460676,-0.4438405,14.17728,NaN,NaN,0.0985576,0.804791,0.07941184,1.0244,0.0124874,1.496429
205.7969,-1.491014,0.0005760467,NaN,-0.3254853,0.0002777254,NaN,0.5300061,-14.12232,NaN,-0.5016168,-1.460676,-0.4438405,14.17728,NaN,NaN,0.0985576,0.804791,0.07941184,1.0244,0.0124874,1.496429
205.811,-1.491988,0.0005755973,NaN,-0.3254997,0.000277975,NaN,0.5297444,-14.12067,NaN,-0.5008958,-1.452333,-0.4437985,14.16849,NaN,NaN,0.09623574,0.806758,0.07785478,1.012466,0.01224255,1.484538
205.8267,-1.492722,0.0005758894,NaN,-0.3255145,0.0002777442,NaN,0.5295278,-14.1216,NaN,-0.5001508,-1.464098,-0.4437912,14.18083,NaN,NaN,0.09395942,0.8054621,0.07632825,1.029419,0.0120025,1.495934
205.8419,-1.492575,0.0005761774,NaN,-0.3255275,0.0002782721,NaN,0.5287944,-14.12084,NaN,-0.4997767,-1.45208,-0.4433404,14.16827,NaN,NaN,0.09172732,0.8067237,0.07483165,1.012125,0.01176715,1.485215
205.8569,-1.492575,0.0005761774,NaN,-0.3255275,0.0002782721,NaN,0.5287944,-14.12084,NaN,-0.4997767,-1.45208,-0.4433404,14.16827,NaN,NaN,0.09172732,0.8067237,0.07483165,1.012125,0.01176715,1.485215
205.871,-1.491874,0.0005761936,NaN,-0.3255396,0.0002778703,NaN,0.5279399,-14.12221,NaN,-0.4995005,-1.464667,-0.4427809,14.1815,NaN,NaN,0.08953886,0.8049747,0.0733644,1.030242,0.01153642,1.495794
205.8878,-1.490828,0.0005767986,NaN,-0.3255516,0.0002776591,NaN,0.5271056,-14.12193,NaN,-0.4992196,-1.465523,-0.442234,14.18235,NaN,NaN,0.08739331,0.8052036,0.07192592,1.031482,0.01131021,1.497658
205.9019,-1.489569,0.0005771491,NaN,-0.3255635,0.0002773148,NaN,0.5263292,-14.12115,NaN,-0.4989045,-1.462818,-0.4417333,14.17947,NaN,NaN,0.08528983,0.8060648,0.07051563,1.027616,0.01108845,1.491763
205.9166,-1.489569,0.0005771491,NaN,-0.3255635,0.0002773148,NaN,0.5263292,-14.12115,NaN,-0.4989045,-1.462818,-0.4417333,14.17947,NaN,NaN,0.08528983,0.8060648,0.07051563,1.027616,0.01108845,1.491763
205.9309,-1.487453,0.0005779365,NaN,-0.3255729,0.0002777087,NaN,0.5250493,-14.12055,NaN,-0.4989507,-1.458357,-0.4408017,14.17475,NaN,NaN,0.08322718,0.8068103,0.06913301,1.021192,0.01087103,1.487477
205.9466,-1.484807,0.000578962,NaN,-0.325581,0.0002785083,NaN,0.5236621,-14.12145,NaN,-0.4990844,-1.453864,-0.4397743,14.1701,NaN,NaN,0.08120485,0.8060566,0.06777749,1.014636,0.01065787,1.492738
205.9617,-1.481838,0.0005795715,NaN,-0.3255882,0.0002789916,NaN,0.5223099,-14.1211,NaN,-0.4992027,-1.453357,-0.4387726,14.16952,NaN,NaN,0.07922217,0.8063926,0.06644855,1.013908,0.01044889,1.48636
205.9766,-1.481838,0.0005795715,NaN,-0.3255882,0.0002789916,NaN,0.5223099,-14.1211,NaN,-0.4992027,-1.453357,-0.4387726,14.16952,NaN,NaN,0.07922217,0.8063926,0.06644855,1.013908,0.01044889,1.48636
205.9912,-1.477951,0.0005799016,NaN,-0.3255925,0.0002793271,NaN,0.5204726,-14.12095,NaN,-0.4996739,-1.453622,-0.4373566,14.16976,NaN,NaN,0.07727794,0.8065099,0.06514568,1.014286,0.01024401,1.485392
206.0069,-1.473502,0.0005805025,NaN,-0.3255949,0.000279165,NaN,0.5185561,-14.12141,NaN,-0.5002143,-1.463554,-0.4358689,14.18014,NaN,NaN,0.07537172,0.8057176,0.06386834,1.028601,0.01004315,1.49333
206.0219,-1.468718,0.0005808153,NaN,-0.3255963,0.0002785757,NaN,0.5167035,-14.12093,NaN,-0.50072,-1.46593,-0.4344326,14.18256,NaN,NaN,0.07350288,0.8060508,0.06261606,1.032044,0.009846224,1.488903
206.037,-1.468718,0.0005808153,NaN,-0.3255963,0.0002785757,NaN,0.5167035,-14.12093,NaN,-0.50072,-1.46593,-0.4344326,14.18256,NaN,NaN,0.07350288,0.8060508,0.06261606,1.032044,0.009846224,1.488903
206.0513,-1.463744,0.000580882,NaN,-0.3255973,0.0002786239,NaN,0.5149502,-14.12062,NaN,-0.5011629,-1.455719,-0.4330789,14.17187,NaN,NaN,0.0716707,0.8067647,0.06138832,1.017307,0.009653164,1.486531
206.0684,-1.457942,0.000580583,NaN,-0.3255966,0.0002788104,NaN,0.5127418,-14.11956,NaN,-0.5019435,-1.451879,-0.4313402,14.16776,NaN,NaN,0.06987406,0.8079287,0.06018467,1.011797,0.009463887,1.477894
206.0831,-1.451644,0.0005805501,NaN,-0.3255946,0.0002785241,NaN,0.5104645,-14.12219,NaN,-0.5027879,-1.462987,-0.4295405,14.17958,NaN,NaN,0.06811254,0.8049558,0.0590046,1.027736,0.009278321,1.49577
206.0969,-1.451644,0.0005805501,NaN,-0.3255946,0.0002785241,NaN,0.5104645,-14.12219,NaN,-0.5027879,-1.462987,-0.4295405,14.17958,NaN,NaN,0.06811254,0.8049558,0.0590046,1.027736,0.009278321,1.49577
206.1111,-1.445061,0.0005808581,NaN,-0.3255918,0.0002780828,NaN,0.5082561,-14.12198,NaN,-0.5035948,-1.465326,-0.4277973,14.18197,NaN,NaN,0.06638556,0.8050412,0.05784768,1.031106,0.009096395,1.495651
206.1268,-1.438325,0.0005809678,NaN,-0.3255883,0.0002783649,NaN,0.5061522,-14.11997,NaN,-0.5043356,-1.453084,-0.4261415,14.1691,NaN,NaN,0.06469246,0.8075445,0.05671345,1.013569,0.008918036,1.480519
206.1421,-1.430793,0.0005814279,NaN,-0.3255821,0.0002788051,NaN,0.5036083,-14.1218,NaN,-0.5054114,-1.454568,-0.4241154,14.17078,NaN,NaN,0.06303218,0.8056632,0.05560145,1.015618,0.008743169,1.491026
206.1571,-1.430793,0.0005814279,NaN,-0.3255821,0.0002788051,NaN,0.5036083,-14.1218,NaN,-0.5054114,-1.454568,-0.4241154,14.17078,NaN,NaN,0.06303218,0.8056632,0.05560145,1.015618,0.008743169,1.491026
206.1715,-1.422793,0.0005812776,NaN,-0.3255739,0.000279165,NaN,0.501007,-14.12076,NaN,-0.5065464,-1.449846,-0.4220386,14.16576,NaN,NaN,0.06140435,0.8068327,0.05451126,1.008844,0.008571733,1.482093
