JMolnar6/NonAnthroHands_User_Study/HandsLoggerWithURDF/tempdata/files/Reachy_JointMotion_gesture_13_62.csv
Time,r_shoulder,r_shoulder_x,r_upper_arm,r_forearm,r_wrist,r_wrist2hand,
1131.189,-0.2241267,0.0007747578,NaN,-0.4496617,0.00239156,NaN,-0.3868394,-14.99476,NaN,-0.9640491,-1.467831,0.3972914,14.13645,NaN,NaN,0.3344198,0.8044541,0.296038,1.075445,1.755177E-08,1.333732
1131.205,-0.2246234,0.0007744717,NaN,-0.4481607,0.00238968,NaN,-0.3885968,-14.99609,NaN,-0.9648639,-1.473322,0.4034985,14.14229,NaN,NaN,0.333915,0.8031171,0.2998576,1.083362,1.933991E-08,1.340412
1131.219,-0.2246234,0.0007744717,NaN,-0.4481607,0.00238968,NaN,-0.3885968,-14.99609,NaN,-0.9648639,-1.473322,0.4034985,14.14229,NaN,NaN,0.333915,0.8031171,0.2998576,1.083362,1.933991E-08,1.340412
1131.233,-0.2251351,0.0007742184,NaN,-0.4466123,0.002389372,NaN,-0.3903384,-14.99522,NaN,-0.9656377,-1.466946,0.4099947,14.13559,NaN,NaN,0.3333526,0.8039962,0.3037859,1.074184,1.904189E-08,1.334072
1131.249,-0.2256539,0.0007749434,NaN,-0.4450417,0.002389513,NaN,-0.392109,-14.9964,NaN,-0.9664283,-1.477055,0.416602,14.1462,NaN,NaN,0.3327418,0.8028319,0.3078498,1.088754,1.933991E-08,1.343197
1131.264,-0.2261747,0.0007760921,NaN,-0.4434646,0.002391255,NaN,-0.3938975,-14.99643,NaN,-0.9672256,-1.479352,0.4232094,14.14857,NaN,NaN,0.3320759,0.8027621,0.3119852,1.092057,2.55984E-08,1.343526
1131.279,-0.2261747,0.0007760921,NaN,-0.4434646,0.002391255,NaN,-0.3938975,-14.99643,NaN,-0.9672256,-1.479352,0.4232094,14.14857,NaN,NaN,0.3320759,0.8027621,0.3119852,1.092057,2.55984E-08,1.343526
1131.293,-0.2266614,0.0007767475,NaN,-0.441995,0.002392455,NaN,-0.3956043,-14.99636,NaN,-0.9678262,-1.478929,0.4289457,14.14812,NaN,NaN,0.3310953,0.8028259,0.315981,1.091445,3.275096E-08,1.342769
1131.31,-0.227125,0.0007774848,NaN,-0.4405981,0.002394365,NaN,-0.3973021,-14.99499,NaN,-0.9684516,-1.474964,0.4342192,14.14389,NaN,NaN,0.3300927,0.8042263,0.319826,1.085752,3.45391E-08,1.333167
1131.323,-0.2275722,0.0007779267,NaN,-0.4392523,0.002395116,NaN,-0.3989269,-14.99527,NaN,-0.9690341,-1.467186,0.439185,14.13583,NaN,NaN,0.3290605,0.8039936,0.3234655,1.074535,3.930747E-08,1.332559
1131.338,-0.2275722,0.0007779267,NaN,-0.4392523,0.002395116,NaN,-0.3989269,-14.99527,NaN,-0.9690341,-1.467186,0.439185,14.13583,NaN,NaN,0.3290605,0.8039936,0.3234655,1.074535,3.930747E-08,1.332559
1131.353,-0.2279744,0.0007783789,NaN,-0.4380484,0.002395534,NaN,-0.4004135,-14.99545,NaN,-0.9693985,-1.47896,0.4431399,14.14807,NaN,NaN,0.3277501,0.8038148,0.3268,1.091503,3.692328E-08,1.338664
1131.368,-0.228347,0.0007792055,NaN,-0.4369372,0.002398386,NaN,-0.4017954,-14.995,NaN,-0.9697897,-1.473457,0.4465287,14.14231,NaN,NaN,0.3264799,0.8043087,0.3298541,1.083572,3.483711E-08,1.332739
1131.383,-0.2286996,0.0007798445,NaN,-0.4358881,0.002398032,NaN,-0.4031324,-14.99584,NaN,-0.9700295,-1.479251,0.4496418,14.14839,NaN,NaN,0.3251549,0.8034297,0.3327113,1.091918,3.453909E-08,1.338136
1131.401,-0.2290382,0.0007803734,NaN,-0.4348819,0.002397453,NaN,-0.4041913,-14.99483,NaN,-0.9705018,-1.469321,0.4524026,14.13801,NaN,NaN,0.324094,0.8045299,0.3353109,1.077626,2.917467E-08,1.329867
1131.414,-0.2290382,0.0007803734,NaN,-0.4348819,0.002397453,NaN,-0.4041913,-14.99483,NaN,-0.9705018,-1.469321,0.4524026,14.13801,NaN,NaN,0.324094,0.8045299,0.3353109,1.077626,2.917467E-08,1.329867
1131.428,-0.2293338,0.0007800459,NaN,-0.4340113,0.002397761,NaN,-0.404556,-14.99521,NaN,-0.9707575,-1.46651,0.4537399,14.13511,NaN,NaN,0.3229896,0.8041455,0.3372628,1.073565,2.798258E-08,1.331831
1131.443,-0.2296012,0.0007800485,NaN,-0.4332279,0.002398473,NaN,-0.4051135,-14.99507,NaN,-0.9709613,-1.478631,0.4547976,14.14767,NaN,NaN,0.3218266,0.8043033,0.3392127,1.091031,2.82806E-08,1.334857
1131.458,-0.2296012,0.0007800485,NaN,-0.4332279,0.002398473,NaN,-0.4051135,-14.99507,NaN,-0.9709613,-1.478631,0.4547976,14.14767,NaN,NaN,0.3218266,0.8043033,0.3392127,1.091031,2.82806E-08,1.334857
1131.473,-0.2298501,0.0007791128,NaN,-0.4325019,0.002397931,NaN,-0.4054496,-14.99502,NaN,-0.9713076,-1.468714,0.4554597,14.13736,NaN,NaN,0.3208627,0.8044448,0.3408843,1.076729,3.304897E-08,1.329884
1131.488,-0.2300864,0.0007785154,NaN,-0.4318145,0.002395989,NaN,-0.4058101,-14.9965,NaN,-0.9715048,-1.479483,0.4560294,14.14869,NaN,NaN,0.3198065,0.8029584,0.3424347,1.09225,3.304897E-08,1.338397
1131.504,-0.2302808,0.0007791221,NaN,-0.4312584,0.002395871,NaN,-0.4052048,-14.99568,NaN,-0.9718398,-1.482235,0.4549693,14.15146,NaN,NaN,0.3190373,0.8037398,0.3432236,1.09622,3.483711E-08,1.335145
1131.518,-0.2302808,0.0007791221,NaN,-0.4312584,0.002395871,NaN,-0.4052048,-14.99568,NaN,-0.9718398,-1.482235,0.4549693,14.15146,NaN,NaN,0.3190373,0.8037398,0.3432236,1.09622,3.483711E-08,1.335145
1131.532,-0.2304483,0.0007796406,NaN,-0.4307859,0.002396868,NaN,-0.4049437,-14.99494,NaN,-0.9718525,-1.47729,0.4537592,14.14626,NaN,NaN,0.3179683,0.8045367,0.3440493,1.089103,3.632723E-08,1.329621
1131.548,-0.2305982,0.0007791494,NaN,-0.430367,0.002397271,NaN,-0.4045265,-14.99513,NaN,-0.9721175,-1.470613,0.4522507,14.13933,NaN,NaN,0.3171858,0.8044055,0.3446839,1.079469,3.930746E-08,1.327249
1131.563,-0.2307366,0.0007792869,NaN,-0.429983,0.002398251,NaN,-0.4040926,-14.9954,NaN,-0.9722306,-1.46628,0.4506403,14.13485,NaN,NaN,0.3163272,0.8041472,0.3451574,1.073214,3.394304E-08,1.327297
1131.578,-0.2307366,0.0007792869,NaN,-0.429983,0.002398251,NaN,-0.4040926,-14.9954,NaN,-0.9722306,-1.46628,0.4506403,14.13485,NaN,NaN,0.3163272,0.8041472,0.3451574,1.073214,3.394304E-08,1.327297
1131.592,-0.2308343,0.0007791418,NaN,-0.4297268,0.002397652,NaN,-0.4027396,-14.99541,NaN,-0.9724507,-1.466403,0.4474678,14.13497,NaN,NaN,0.3157288,0.8041416,0.344898,1.073389,3.21549E-08,1.325446
1131.608,-0.230906,0.0007791165,NaN,-0.4295507,0.002397153,NaN,-0.4016479,-14.99684,NaN,-0.9724168,-1.473729,0.4441029,14.14272,NaN,NaN,0.314908,0.8027326,0.3446313,1.083952,2.82806E-08,1.335464
1131.623,-0.2309612,0.0007791989,NaN,-0.4294247,0.002397452,NaN,-0.4005053,-14.99677,NaN,-0.9725448,-1.472451,0.4405532,14.14139,NaN,NaN,0.314286,0.8028153,0.3442318,1.08211,2.649246E-08,1.334648
1131.638,-0.2309612,0.0007791989,NaN,-0.4294247,0.002397452,NaN,-0.4005053,-14.99677,NaN,-0.9725448,-1.472451,0.4405532,14.14139,NaN,NaN,0.314286,0.8028153,0.3442318,1.08211,2.649246E-08,1.334648
1131.652,-0.2309729,0.0007791996,NaN,-0.4294341,0.002395527,NaN,-0.3984379,-14.99543,NaN,-0.9726705,-1.480526,0.4354057,14.14962,NaN,NaN,0.3138407,0.8041077,0.3430153,1.093742,2.142607E-08,1.328323
1131.667,-0.2309581,0.0007791694,NaN,-0.429527,0.002395804,NaN,-0.3965631,-14.99485,NaN,-0.9725966,-1.474285,0.430016,14.14309,NaN,NaN,0.3132378,0.8047618,0.3417378,1.084753,1.993595E-08,1.324374
1131.683,-0.2309266,0.0007780797,NaN,-0.4296711,0.00239641,NaN,-0.3947114,-14.99514,NaN,-0.9726182,-1.46665,0.4245191,14.13517,NaN,NaN,0.3127703,0.8045219,0.3403592,1.073734,1.606165E-08,1.322878
1131.698,-0.2309266,0.0007780797,NaN,-0.4296711,0.00239641,NaN,-0.3947114,-14.99514,NaN,-0.9726182,-1.46665,0.4245191,14.13517,NaN,NaN,0.3127703,0.8045219,0.3403592,1.073734,1.606165E-08,1.322878
1131.713,-0.2308849,0.0007770581,NaN,-0.4298462,0.002396486,NaN,-0.3928206,-14.99484,NaN,-0.9725981,-1.470767,0.4189606,14.13941,NaN,NaN,0.3123304,0.8048214,0.3388357,1.079668,1.457153E-08,1.323554
1131.727,-0.230804,0.0007762585,NaN,-0.4301441,0.002397182,NaN,-0.3900567,-14.99617,NaN,-0.9726354,-1.470704,0.4119246,14.13947,NaN,NaN,0.3120923,0.8034891,0.3365943,1.07957,1.218735E-08,1.329042
1131.742,-0.2306989,0.0007763453,NaN,-0.4305165,0.002397946,NaN,-0.3874395,-14.99625,NaN,-0.9725149,-1.4788,0.4046503,14.14787,NaN,NaN,0.3117249,0.8033767,0.3342908,1.091231,1.486956E-08,1.331138
1131.757,-0.2306989,0.0007763453,NaN,-0.4305165,0.002397946,NaN,-0.3874395,-14.99625,NaN,-0.9725149,-1.4788,0.4046503,14.14787,NaN,NaN,0.3117249,0.8033767,0.3342908,1.091231,1.486956E-08,1.331138
1131.771,-0.2305791,0.0007764651,NaN,-0.4309333,0.002399422,NaN,-0.3848849,-14.99566,NaN,-0.9724489,-1.466909,0.3973304,14.13549,NaN,NaN,0.3114454,0.8040884,0.3319213,1.074113,1.606165E-08,1.324467
1131.787,-0.2304506,0.0007765076,NaN,-0.4313754,0.002399508,NaN,-0.3823287,-14.99568,NaN,-0.9723608,-1.467918,0.3900093,14.13653,NaN,NaN,0.3111966,0.8040608,0.3294532,1.075565,1.367746E-08,1.323191
1131.802,-0.2302843,0.0007767793,NaN,-0.431936,0.002400106,NaN,-0.3789109,-14.99702,NaN,-0.972336,-1.47476,0.381248,14.14377,NaN,NaN,0.3111289,0.8027204,0.3262885,1.085426,1.427351E-08,1.33259
1131.817,-0.2302843,0.0007767793,NaN,-0.431936,0.002400106,NaN,-0.3789109,-14.99702,NaN,-0.972336,-1.47476,0.381248,14.14377,NaN,NaN,0.3111289,0.8027204,0.3262885,1.085426,1.427351E-08,1.33259
1131.831,-0.230095,0.0007773188,NaN,-0.4325669,0.002400144,NaN,-0.3755992,-14.99561,NaN,-0.9721846,-1.480215,0.3722332,14.14928,NaN,NaN,0.3109534,0.8040838,0.3230434,1.09329,1.039921E-08,1.326395
1131.847,-0.2298922,0.0007778045,NaN,-0.4332384,0.002402349,NaN,-0.3723835,-14.99513,NaN,-0.9720567,-1.47327,0.3632181,14.14203,NaN,NaN,0.3108273,0.8046263,0.3197557,1.083287,1.337944E-08,1.323359
1131.863,-0.2296818,0.0007775446,NaN,-0.433932,0.002402469,NaN,-0.3692041,-14.99547,NaN,-0.9719137,-1.467527,0.3542561,14.13609,NaN,NaN,0.3107248,0.8043098,0.316408,1.075001,1.576363E-08,1.320853
1131.876,-0.2296818,0.0007775446,NaN,-0.433932,0.002402469,NaN,-0.3692041,-14.99547,NaN,-0.9719137,-1.467527,0.3542561,14.13609,NaN,NaN,0.3107248,0.8043098,0.316408,1.075001,1.576363E-08,1.320853
1131.891,-0.2294345,0.0007780712,NaN,-0.4347406,0.002404054,NaN,-0.3651897,-14.99576,NaN,-0.971839,-1.478718,0.3438991,14.14774,NaN,NaN,0.310777,0.8040324,0.3123907,1.091136,1.516758E-08,1.326228
1131.906,-0.2291654,0.0007778937,NaN,-0.4356165,0.002404149,NaN,-0.3612458,-14.99544,NaN,-0.9716702,-1.472079,0.333277,14.14081,NaN,NaN,0.3107376,0.8044,0.30828,1.081569,1.606165E-08,1.32267
1131.922,-0.2288837,0.0007779,NaN,-0.4365299,0.002404185,NaN,-0.3574101,-14.99543,NaN,-0.9714976,-1.479198,0.3226808,14.1482,NaN,NaN,0.3107122,0.8043724,0.3041383,1.091831,1.427351E-08,1.324565
1131.936,-0.2288837,0.0007779,NaN,-0.4365299,0.002404185,NaN,-0.3574101,-14.99543,NaN,-0.9714976,-1.479198,0.3226808,14.1482,NaN,NaN,0.3107122,0.8043724,0.3041383,1.091831,1.427351E-08,1.324565
1131.95,-0.2285624,0.000778309,NaN,-0.437567,0.00240525,NaN,-0.3523971,-14.99687,NaN,-0.9714886,-1.479366,0.310398,14.14848,NaN,NaN,0.3110086,0.802909,0.2990494,1.092046,1.516758E-08,1.332033
1131.966,-0.2282178,0.0007788556,NaN,-0.4386755,0.002406604,NaN,-0.3471606,-14.99528,NaN,-0.9715211,-1.470135,0.297631,14.13878,NaN,NaN,0.3114042,0.8045817,0.2936294,1.078774,9.505138E-09,1.321774
1131.981,-0.2278601,0.0007791535,NaN,-0.4398231,0.002406283,NaN,-0.3421742,-14.99685,NaN,-0.971507,-1.477581,0.2850257,14.14666,NaN,NaN,0.3117377,0.8029919,0.2882699,1.089504,8.313045E-09,1.330638
1131.996,-0.2278601,0.0007791535,NaN,-0.4398231,0.002406283,NaN,-0.3421742,-14.99685,NaN,-0.971507,-1.477581,0.2850257,14.14666,NaN,NaN,0.3117377,0.8029919,0.2882699,1.089504,8.313045E-09,1.330638
1132.01,-0.2274958,0.0007789916,NaN,-0.4409896,0.002405843,NaN,-0.337393,-14.99565,NaN,-0.9714433,-1.46726,0.2726603,14.13586,NaN,NaN,0.312016,0.8042713,0.2829751,1.074655,1.457153E-08,1.321742
1132.026,-0.2270958,0.0007792283,NaN,-0.442267,0.002404671,NaN,-0.332433,-14.99559,NaN,-0.9713027,-1.478764,0.2595145,14.14779,NaN,NaN,0.3121267,0.8043383,0.277464,1.091235,1.337944E-08,1.324769
1132.041,-0.2266755,0.0007800138,NaN,-0.4436071,0.002403931,NaN,-0.3277013,-14.99557,NaN,-0.9710377,-1.471534,0.2463104,14.14027,NaN,NaN,0.3120615,0.8044117,0.2719487,1.080804,9.803162E-09,1.323334
1132.056,-0.2266755,0.0007800138,NaN,-0.4436071,0.002403931,NaN,-0.3277013,-14.99557,NaN,-0.9710377,-1.471534,0.2463104,14.14027,NaN,NaN,0.3120615,0.8044117,0.2719487,1.080804,9.803162E-09,1.323334
1132.07,-0.2262442,0.0007801026,NaN,-0.4449797,0.002401206,NaN,-0.3232044,-14.99594,NaN,-0.9706843,-1.471263,0.2332999,14.14001,NaN,NaN,0.3118923,0.8040324,0.2664769,1.080405,9.207115E-09,1.325893
1132.086,-0.2258079,0.0007801905,NaN,-0.4463661,0.002398696,NaN,-0.3188991,-14.9962,NaN,-0.970282,-1.471338,0.220549,14.14011,NaN,NaN,0.3116653,0.8037627,0.2610776,1.08051,1.099525E-08,1.326257
1132.101,-0.2253372,0.0007804134,NaN,-0.4478594,0.002396058,NaN,-0.3146594,-14.99554,NaN,-0.9707084,-1.466949,0.2072747,14.13548,NaN,NaN,0.3120373,0.804418,0.2558905,1.074185,1.099525E-08,1.321565
1132.115,-0.2253372,0.0007804134,NaN,-0.4478594,0.002396058,NaN,-0.3146594,-14.99554,NaN,-0.9707084,-1.466949,0.2072747,14.13548,NaN,NaN,0.3120373,0.804418,0.2558905,1.074185,1.099525E-08,1.321565
1132.131,-0.2248472,0.0007805965,NaN,-0.4494118,0.002394118,NaN,-0.3106374,-14.99624,NaN,-0.9712481,-1.469355,0.1939272,14.13805,NaN,NaN,0.3124078,0.8037248,0.2507447,1.077657,7.418976E-09,1.325468
1132.145,-0.2243474,0.0007802971,NaN,-0.4509936,0.002391368,NaN,-0.30689,-14.99594,NaN,-0.9717321,-1.479221,0.1807957,14.14825,NaN,NaN,0.3127668,0.8040056,0.245828,1.091873,8.015022E-09,1.327647
1132.16,-0.2238434,0.0007805005,NaN,-0.4525863,0.002391121,NaN,-0.303357,-14.99549,NaN,-0.9722099,-1.472084,0.1679232,14.1408,NaN,NaN,0.3131191,0.8045235,0.2410078,1.081591,2.650605E-09,1.321448
1132.175,-0.2238434,0.0007805005,NaN,-0.4525863,0.002391121,NaN,-0.303357,-14.99549,NaN,-0.9722099,-1.472084,0.1679232,14.1408,NaN,NaN,0.3131191,0.8045235,0.2410078,1.081591,2.650605E-09,1.321448
1132.189,-0.2233059,0.0007799464,NaN,-0.4542832,0.00238854,NaN,-0.299865,-14.99533,NaN,-0.9732086,-1.479065,0.15449,14.14804,NaN,NaN,0.3137788,0.8046492,0.2362822,1.091659,2.650605E-09,1.324228
1132.205,-0.2227499,0.0007794249,NaN,-0.4560366,0.002387056,NaN,-0.2966775,-14.99555,NaN,-0.9743482,-1.471887,0.1410624,14.14059,NaN,NaN,0.3144253,0.8045039,0.2316491,1.081302,4.438744E-09,1.323296
1132.22,-0.2221848,0.0007788044,NaN,-0.4578168,0.00238418,NaN,-0.2937748,-14.99571,NaN,-0.9755657,-1.479663,0.1278718,14.14869,NaN,NaN,0.3150591,0.8043076,0.227107,1.092513,4.438744E-09,1.325178
1132.235,-0.2221848,0.0007788044,NaN,-0.4578168,0.00238418,NaN,-0.2937748,-14.99571,NaN,-0.9755657,-1.479663,0.1278718,14.14869,NaN,NaN,0.3150591,0.8043076,0.227107,1.092513,4.438744E-09,1.325178
1132.249,-0.2215833,0.0007786854,NaN,-0.4597101,0.002385111,NaN,-0.2909806,-14.99585,NaN,-0.9773389,-1.467287,0.11414,14.13584,NaN,NaN,0.3159948,0.8042908,0.2226539,1.074664,5.03479E-09,1.323708
1132.265,-0.2209617,0.0007785987,NaN,-0.4616644,0.002384575,NaN,-0.288513,-14.99656,NaN,-0.9792671,-1.471396,0.100423,14.14017,NaN,NaN,0.3169119,0.8035758,0.218288,1.080587,7.418976E-09,1.327525
1132.28,-0.2203304,0.0007787264,NaN,-0.4636474,0.002385128,NaN,-0.2863351,-14.9961,NaN,-0.9812546,-1.466556,0.08696006,14.1351,NaN,NaN,0.3178112,0.8040394,0.2140078,1.073613,6.82293E-09,1.32432
1132.295,-0.2203304,0.0007787264,NaN,-0.4636474,0.002385128,NaN,-0.2863351,-14.9961,NaN,-0.9812546,-1.466556,0.08696006,14.1351,NaN,NaN,0.3178112,0.8040394,0.2140078,1.073613,6.82293E-09,1.32432
1132.309,-0.2196957,0.0007790364,NaN,-0.4656392,0.002385426,NaN,-0.2843696,-14.99717,NaN,-0.9832515,-1.477256,0.07380254,14.14631,NaN,NaN,0.3186929,0.8029932,0.2098116,1.089036,5.630837E-09,1.333511
1132.327,-0.2190284,0.0007786648,NaN,-0.467732,0.002384581,NaN,-0.2824712,-14.99754,NaN,-0.9857417,-1.478277,0.06012898,14.14739,NaN,NaN,0.3198716,0.8025994,0.2056976,1.090497,3.842698E-09,1.334859
1132.34,-0.2190284,0.0007786648,NaN,-0.467732,0.002384581,NaN,-0.2824712,-14.99754,NaN,-0.9857417,-1.478277,0.06012898,14.14739,NaN,NaN,0.3198716,0.8025994,0.2056976,1.090497,3.842698E-09,1.334859
1132.354,-0.2183437,0.0007785691,NaN,-0.4698775,0.002384907,NaN,-0.2808602,-14.99695,NaN,-0.9883198,-1.470426,0.046488,14.13921,NaN,NaN,0.321027,0.8032574,0.2016642,1.079203,-3.296274E-10,1.32906
1132.369,-0.2176511,0.0007792775,NaN,-0.4720457,0.002386606,NaN,-0.2795068,-14.99733,NaN,-0.9909155,-1.471852,0.03310294,14.14071,NaN,NaN,0.3221599,0.8028628,0.19771,1.081249,1.458512E-09,1.332099
1132.384,-0.2169567,0.0007800172,NaN,-0.474218,0.002388062,NaN,-0.2783412,-14.99693,NaN,-0.9934956,-1.480082,0.02001926,14.14919,NaN,NaN,0.3232706,0.8032195,0.1938333,1.093095,-3.296274E-10,1.332382
1132.4,-0.2169567,0.0007800172,NaN,-0.474218,0.002388062,NaN,-0.2783412,-14.99693,NaN,-0.9934956,-1.480082,0.02001926,14.14919,NaN,NaN,0.3232706,0.8032195,0.1938333,1.093095,-3.296274E-10,1.332382
1132.414,-0.2162306,0.0007805832,NaN,-0.4764879,0.00239141,NaN,-0.277246,-14.99755,NaN,-0.9965485,-1.472981,0.006423234,14.14186,NaN,NaN,0.3246738,0.8026844,0.1900326,1.082852,4.438744E-09,1.335513
1132.43,-0.2154881,0.0007813754,NaN,-0.4788073,0.00239511,NaN,-0.2764218,-14.99624,NaN,-0.999673,-1.466536,-0.007143069,14.13506,NaN,NaN,0.3260494,0.8040143,0.1863064,1.073578,-3.905906E-09,1.32602
1132.445,-0.2147386,0.0007821522,NaN,-0.4811468,0.002398769,NaN,-0.2758402,-14.99736,NaN,-1.002803,-1.472149,-0.02045468,14.14099,NaN,NaN,0.3273981,0.8029145,0.1826533,1.081667,-2.117767E-09,1.333636
1132.459,-0.2147386,0.0007821522,NaN,-0.4811468,0.002398769,NaN,-0.2758402,-14.99736,NaN,-1.002803,-1.472149,-0.02045468,14.14099,NaN,NaN,0.3273981,0.8029145,0.1826533,1.081667,-2.117767E-09,1.333636
1132.474,-0.2139546,0.0007829547,NaN,-0.4835927,0.002402825,NaN,-0.2753851,-14.99597,NaN,-1.006407,-1.471814,-0.03426685,14.1405,NaN,NaN,0.3290346,0.8042958,0.1790719,1.081188,1.458512E-09,1.326253
1132.49,-0.2131526,0.0007835192,NaN,-0.4860929,0.002403586,NaN,-0.2752196,-14.99726,NaN,-1.010077,-1.476355,-0.04803241,14.14534,NaN,NaN,0.3306389,0.8029883,0.1755606,1.087731,-1.52172E-09,1.330319
1132.504,-0.212343,0.0007840386,NaN,-0.4886151,0.002404346,NaN,-0.2752997,-14.99594,NaN,-1.013745,-1.470315,-0.06152842,14.13897,NaN,NaN,0.3322119,0.8043441,0.1721182,1.079053,5.644423E-10,1.325121
1132.52,-0.212343,0.0007840386,NaN,-0.4886151,0.002404346,NaN,-0.2752997,-14.99594,NaN,-1.013745,-1.470315,-0.06152842,14.13897,NaN,NaN,0.3322119,0.8043441,0.1721182,1.079053,5.644423E-10,1.325121
1132.534,-0.2115321,0.0007833578,NaN,-0.4911396,0.002400044,NaN,-0.2755492,-14.99694,NaN,-1.017377,-1.471363,-0.0747132,14.14017,NaN,NaN,0.333754,0.8033503,0.1687433,1.08057,2.352582E-09,1.327472
1132.549,-0.2106902,0.0007828865,NaN,-0.4937586,0.002397531,NaN,-0.275889,-14.99646,NaN,-1.021458,-1.467623,-0.08839238,14.13625,NaN,NaN,0.3355802,0.8038355,0.1654346,1.075193,5.332814E-09,1.324827
1132.564,-0.209833,0.0007826125,NaN,-0.496424,0.00239436,NaN,-0.2764772,-14.99755,NaN,-1.025587,-1.477642,-0.1020354,14.14677,NaN,NaN,0.3373705,0.8027601,0.1621908,1.089637,1.010119E-08,1.332937
1132.579,-0.209833,0.0007826125,NaN,-0.496424,0.00239436,NaN,-0.2764772,-14.99755,NaN,-1.025587,-1.477642,-0.1020354,14.14677,NaN,NaN,0.3373705,0.8027601,0.1621908,1.089637,1.010119E-08,1.332937
1132.593,-0.2089699,0.0007815667,NaN,-0.4991057,0.002393896,NaN,-0.277282,-14.99592,NaN,-1.029701,-1.46959,-0.1154176,14.13829,NaN,NaN,0.3391258,0.8044435,0.1590105,1.078069,7.418977E-09,1.321394
1132.609,-0.2081069,0.0007815764,NaN,-0.5017855,0.00239408,NaN,-0.2782351,-14.99743,NaN,-1.033772,-1.477104,-0.1284949,14.14625,NaN,NaN,0.3408467,0.802936,0.1558927,1.088903,4.438744E-09,1.333203
1132.624,-0.2072138,0.0007814621,NaN,-0.5045565,0.002393479,NaN,-0.2792863,-14.9958,NaN,-1.038278,-1.479677,-0.1420654,14.14877,NaN,NaN,0.342848,0.8045264,0.1528359,1.092626,4.438744E-09,1.32505
1132.638,-0.2072138,0.0007814621,NaN,-0.5045565,0.002393479,NaN,-0.2792863,-14.9958,NaN,-1.038278,-1.479677,-0.1420654,14.14877,NaN,NaN,0.342848,0.8045264,0.1528359,1.092626,4.438744E-09,1.32505
1132.653,-0.2063062,0.0007810713,NaN,-0.5073711,0.002393346,NaN,-0.2805709,-14.99573,NaN,-1.042823,-1.474613,-0.1556007,14.1435,NaN,NaN,0.3448101,0.8046356,0.1498391,1.085324,4.140721E-09,1.323805
1132.668,-0.2053936,0.0007813887,NaN,-0.5101997,0.002394729,NaN,-0.2820558,-14.99597,NaN,-1.047347,-1.467932,-0.1688757,14.13657,NaN,NaN,0.3467338,0.8044271,0.1469011,1.075686,9.207116E-09,1.324571
1132.683,-0.2044816,0.0007818956,NaN,-0.5130243,0.002396521,NaN,-0.2836736,-14.99686,NaN,-1.051819,-1.470094,-0.1818467,14.1389,NaN,NaN,0.3486198,0.8035385,0.1440206,1.078801,1.129328E-08,1.328088
1132.698,-0.2044816,0.0007818956,NaN,-0.5130243,0.002396521,NaN,-0.2836736,-14.99686,NaN,-1.051819,-1.470094,-0.1818467,14.1389,NaN,NaN,0.3486198,0.8035385,0.1440206,1.078801,1.129328E-08,1.328088
1132.712,-0.2035402,0.0007826409,NaN,-0.5159382,0.002396516,NaN,-0.2853996,-14.99678,NaN,-1.056715,-1.477958,-0.1953079,14.14705,NaN,NaN,0.3507829,0.8035995,0.1411967,1.09013,1.337944E-08,1.3267
1132.728,-0.2025847,0.0007835163,NaN,-0.5188937,0.002396434,NaN,-0.2873448,-14.99689,NaN,-1.061644,-1.480753,-0.2087329,14.14995,NaN,NaN,0.3529037,0.8034568,0.1384281,1.094155,1.248537E-08,1.32848
1132.744,-0.2016248,0.0007834916,NaN,-0.5218615,0.002397351,NaN,-0.2894738,-14.99616,NaN,-1.066543,-1.467169,-0.2218972,14.1358,NaN,NaN,0.3549829,0.8043498,0.1357138,1.074597,1.427351E-08,1.320723
1132.758,-0.2016248,0.0007834916,NaN,-0.5218615,0.002397351,NaN,-0.2894738,-14.99616,NaN,-1.066543,-1.467169,-0.2218972,14.1358,NaN,NaN,0.3549829,0.8043498,0.1357138,1.074597,1.427351E-08,1.320723
1132.772,-0.2006322,0.0007833468,NaN,-0.524928,0.00239588,NaN,-0.2917634,-14.99645,NaN,-1.071871,-1.476129,-0.2355413,14.14513,NaN,NaN,0.3573354,0.8040677,0.1330528,1.087514,1.576363E-08,1.324374
1132.79,-0.1996241,0.0007822316,NaN,-0.5280412,0.002394086,NaN,-0.2942856,-14.99575,NaN,-1.077229,-1.476574,-0.2491312,14.14553,NaN,NaN,0.3596419,0.8047489,0.1304439,1.088161,1.695572E-08,1.317812
1132.803,-0.1986107,0.0007819876,NaN,-0.531169,0.00239391,NaN,-0.2969904,-14.99747,NaN,-1.082556,-1.477918,-0.2624459,14.14706,NaN,NaN,0.3619032,0.8030117,0.1278861,1.090074,1.576363E-08,1.329501
1132.817,-0.1986107,0.0007819876,NaN,-0.531169,0.00239391,NaN,-0.2969904,-14.99747,NaN,-1.082556,-1.477918,-0.2624459,14.14706,NaN,NaN,0.3619032,0.8030117,0.1278861,1.090074,1.576363E-08,1.329501
1132.832,-0.1975984,0.0007813861,NaN,-0.5342916,0.002393336,NaN,-0.2998049,-14.99592,NaN,-1.087821,-1.471651,-0.2754482,14.14043,NaN,NaN,0.3641202,0.8046054,0.1253785,1.081066,1.844584E-08,1.320439
1132.848,-0.1965571,0.0007811991,NaN,-0.5375016,0.002394641,NaN,-0.3027485,-14.99654,NaN,-1.093489,-1.46639,-0.2889295,14.13502,NaN,NaN,0.3666077,0.8039905,0.1229201,1.073471,1.948892E-08,1.322109
1132.862,-0.1955025,0.0007810946,NaN,-0.5407507,0.002393845,NaN,-0.3058867,-14.99768,NaN,-1.099176,-1.47626,-0.3023644,14.14537,NaN,NaN,0.3690465,0.8028804,0.1205099,1.087697,1.948892E-08,1.328341
1132.877,-0.1955025,0.0007810946,NaN,-0.5407507,0.002393845,NaN,-0.3058867,-14.99768,NaN,-1.099176,-1.47626,-0.3023644,14.14537,NaN,NaN,0.3690465,0.8028804,0.1205099,1.087697,1.948892E-08,1.328341
1132.892,-0.1944443,0.0007810259,NaN,-0.544009,0.002393604,NaN,-0.3091791,-14.9964,NaN,-1.104823,-1.466929,-0.3155319,14.13559,NaN,NaN,0.3714376,0.8042243,0.118147,1.074276,1.114427E-08,1.320721
1132.907,-0.1933885,0.0007811924,NaN,-0.5472584,0.002392661,NaN,-0.3125604,-14.99661,NaN,-1.110402,-1.478873,-0.3283931,14.14801,NaN,NaN,0.3737818,0.8040297,0.1158304,1.091492,1.293241E-08,1.325192
1132.922,-0.1923043,0.0007807433,NaN,-0.5505923,0.002394858,NaN,-0.3160802,-14.99621,NaN,-1.116375,-1.467928,-0.3417345,14.1366,NaN,NaN,0.376394,0.8045347,0.1135592,1.075714,1.293241E-08,1.320715
1132.938,-0.1923043,0.0007807433,NaN,-0.5505923,0.002394858,NaN,-0.3160802,-14.99621,NaN,-1.116375,-1.467928,-0.3417345,14.1366,NaN,NaN,0.376394,0.8045347,0.1135592,1.075714,1.293241E-08,1.320715
1132.952,-0.1912076,0.0007803204,NaN,-0.5539628,0.002397459,NaN,-0.3197796,-14.99603,NaN,-1.122361,-1.470234,-0.3550276,14.13897,NaN,NaN,0.3789551,0.8046898,0.1113325,1.079032,1.337944E-08,1.319555
1132.967,-0.190108,0.0007802099,NaN,-0.5573406,0.002398944,NaN,-0.3236158,-14.99631,NaN,-1.128303,-1.467047,-0.3680531,14.13567,NaN,NaN,0.381466,0.8044007,0.1091496,1.07443,9.207115E-09,1.320514
1132.982,-0.1890114,0.0007797112,NaN,-0.5607077,0.00239917,NaN,-0.3275248,-14.99762,NaN,-1.134174,-1.477003,-0.380774,14.14614,NaN,NaN,0.3839277,0.8031059,0.1070094,1.088784,8.089528E-09,1.329694
1132.997,-0.1890114,0.0007797112,NaN,-0.5607077,0.00239917,NaN,-0.3275248,-14.99762,NaN,-1.134174,-1.477003,-0.380774,14.14614,NaN,NaN,0.3839277,0.8031059,0.1070094,1.088784,8.089528E-09,1.329694
1133.011,-0.1878867,0.0007802259,NaN,-0.5641576,0.002399794,NaN,-0.3315838,-14.99755,NaN,-1.140429,-1.480475,-0.3939744,14.14973,NaN,NaN,0.3866551,0.8031288,0.1049111,1.093781,1.188932E-08,1.330641
1133.027,-0.1867501,0.000780062,NaN,-0.5676426,0.002396595,NaN,-0.335808,-14.99661,NaN,-1.146694,-1.481808,-0.4071226,14.15104,NaN,NaN,0.3893291,0.8040348,0.1028541,1.095718,8.313045E-09,1.327936
1133.042,-0.1856109,0.0007806033,NaN,-0.5711334,0.002394669,NaN,-0.3401518,-14.99726,NaN,-1.152912,-1.47991,-0.4200024,14.14911,NaN,NaN,0.3919507,0.8034006,0.1008373,1.09297,9.654149E-09,1.327932
1133.057,-0.1856109,0.0007806033,NaN,-0.5711334,0.002394669,NaN,-0.3401518,-14.99726,NaN,-1.152912,-1.47991,-0.4200024,14.14911,NaN,NaN,0.3919507,0.8034006,0.1008373,1.09297,9.654149E-09,1.327932
1133.071,-0.1844408,0.0007806579,NaN,-0.5747167,0.002392852,NaN,-0.3446924,-14.9971,NaN,-1.15952,-1.481603,-0.4333506,14.15085,NaN,NaN,0.3948348,0.803522,0.09886014,1.095408,7.86601E-09,1.327379
1133.087,-0.183257,0.0007806196,NaN,-0.5783402,0.002390635,NaN,-0.3494066,-14.99619,NaN,-1.166141,-1.470791,-0.4466273,14.13956,NaN,NaN,0.3976626,0.8045571,0.0969217,1.079847,7.540047E-09,1.321299
1133.102,-0.1820699,0.0007814607,NaN,-0.5819721,0.002390686,NaN,-0.3542356,-14.99635,NaN,-1.172715,-1.474467,-0.4596228,14.14339,NaN,NaN,0.4004349,0.8043777,0.09502129,1.085149,8.881151E-09,1.323047
1133.117,-0.1820699,0.0007814607,NaN,-0.5819721,0.002390686,NaN,-0.3542356,-14.99635,NaN,-1.172715,-1.474467,-0.4596228,14.14339,NaN,NaN,0.4004349,0.8043777,0.09502129,1.085149,8.881151E-09,1.323047
1133.131,-0.1808861,0.0007818891,NaN,-0.5855926,0.002390806,NaN,-0.3591125,-14.99656,NaN,-1.179211,-1.480225,-0.4723082,14.14939,NaN,NaN,0.4031528,0.8041278,0.09315813,1.093451,1.085555E-08,1.324373
1133.148,-0.1796745,0.0007821332,NaN,-0.5892946,0.002392703,NaN,-0.364162,-14.99605,NaN,-1.186075,-1.469277,-0.4854645,14.13798,NaN,NaN,0.4061314,0.8047466,0.09133152,1.077676,1.242018E-08,1.319867
1133.161,-0.1784516,0.0007822266,NaN,-0.5930296,0.002395959,NaN,-0.3693517,-14.99676,NaN,-1.192942,-1.467045,-0.4985537,14.13572,NaN,NaN,0.4090516,0.8040343,0.08954071,1.074452,1.413381E-08,1.323942
1133.176,-0.1784516,0.0007822266,NaN,-0.5930296,0.002395959,NaN,-0.3693517,-14.99676,NaN,-1.192942,-1.467045,-0.4985537,14.13572,NaN,NaN,0.4090516,0.8040343,0.08954071,1.074452,1.413381E-08,1.323942
1133.19,-0.177227,0.0007823505,NaN,-0.5967678,0.002396439,NaN,-0.3746305,-14.99696,NaN,-1.199756,-1.479055,-0.5113685,14.1482,NaN,NaN,0.4119146,0.8038449,0.08778503,1.091761,1.756108E-08,1.325308
1133.206,-0.1760067,0.0007828646,NaN,-0.6004913,0.002397796,NaN,-0.379938,-14.99703,NaN,-1.206489,-1.480775,-0.5238795,14.14998,NaN,NaN,0.4147215,0.8037405,0.08606376,1.094233,1.502788E-08,1.326534
1133.222,-0.1747594,0.0007826588,NaN,-0.6042936,0.00239881,NaN,-0.3854299,-14.99597,NaN,-1.21358,-1.468166,-0.5368622,14.13681,NaN,NaN,0.4177871,0.8049383,0.08437626,1.076078,1.845515E-08,1.317273
1133.236,-0.1747594,0.0007826588,NaN,-0.6042936,0.00239881,NaN,-0.3854299,-14.99597,NaN,-1.21358,-1.468166,-0.5368622,14.13681,NaN,NaN,0.4177871,0.8049383,0.08437626,1.076078,1.845515E-08,1.317273
1133.253,-0.1735012,0.0007824993,NaN,-0.6081269,0.002398819,NaN,-0.3910476,-14.99642,NaN,-1.220673,-1.466229,-0.5497727,14.13483,NaN,NaN,0.4207928,0.8044663,0.08272184,1.073276,2.009428E-08,1.317123
1133.266,-0.1722421,0.0007826919,NaN,-0.6119617,0.002398336,NaN,-0.3967369,-14.99652,NaN,-1.227711,-1.478462,-0.5624095,14.14753,NaN,NaN,0.4237396,0.8043839,0.08109986,1.090909,2.069032E-08,1.321698
1133.281,-0.1709877,0.0007834901,NaN,-0.6157803,0.00240037,NaN,-0.4024398,-14.99634,NaN,-1.234665,-1.473479,-0.5747462,14.14232,NaN,NaN,0.4266285,0.8045745,0.07950969,1.083714,1.815713E-08,1.31554
1133.296,-0.1709877,0.0007834901,NaN,-0.6157803,0.00240037,NaN,-0.4024398,-14.99634,NaN,-1.234665,-1.473479,-0.5747462,14.14232,NaN,NaN,0.4266285,0.8045745,0.07950969,1.083714,1.815713E-08,1.31554
1133.31,-0.1697066,0.0007843283,NaN,-0.6196763,0.00240256,NaN,-0.4083407,-14.99793,NaN,-1.241971,-1.476103,-0.5875528,14.14518,NaN,NaN,0.4297746,0.802959,0.0779507,1.087477,1.577294E-08,1.328394
1133.326,-0.168415,0.0007850906,NaN,-0.6236019,0.002404192,NaN,-0.4143531,-14.9965,NaN,-1.249278,-1.46657,-0.6002812,14.13516,NaN,NaN,0.4328592,0.8044363,0.07642227,1.073759,1.39848E-08,1.318008
1133.342,-0.1671229,0.0007855282,NaN,-0.627528,0.002403543,NaN,-0.4204204,-14.99664,NaN,-1.256528,-1.478598,-0.6127371,14.14766,NaN,NaN,0.4358833,0.8043008,0.07492381,1.091096,1.100457E-08,1.321956
1133.356,-0.1671229,0.0007855282,NaN,-0.627528,0.002403543,NaN,-0.4204204,-14.99664,NaN,-1.256528,-1.478598,-0.6127371,14.14766,NaN,NaN,0.4358833,0.8043008,0.07492381,1.091096,1.100457E-08,1.321956
1133.37,-0.1658008,0.0007858788,NaN,-0.6315411,0.002404961,NaN,-0.4267257,-14.99628,NaN,-1.264137,-1.472201,-0.6256498,14.14097,NaN,NaN,0.439162,0.8046889,0.07345474,1.081868,8.024337E-09,1.316037
1133.386,-0.1644667,0.0007863028,NaN,-0.6355891,0.002406094,NaN,-0.4331459,-14.9971,NaN,-1.271753,-1.468449,-0.6384664,14.13713,NaN,NaN,0.4423765,0.8038656,0.07201447,1.076442,6.832244E-09,1.32126
1133.401,-0.1631312,0.0007867344,NaN,-0.6396403,0.002407166,NaN,-0.4396138,-14.99703,NaN,-1.279313,-1.478891,-0.6510016,14.14794,NaN,NaN,0.4455281,0.8039168,0.07060245,1.091482,5.044105E-09,1.325152
1133.416,-0.1631312,0.0007867344,NaN,-0.6396403,0.002407166,NaN,-0.4396138,-14.99703,NaN,-1.279313,-1.478891,-0.6510016,14.14794,NaN,NaN,0.4455281,0.8039168,0.07060245,1.091482,5.044105E-09,1.325152
1133.43,-0.1618007,0.000786964,NaN,-0.643675,0.002409752,NaN,-0.4460716,-14.99651,NaN,-1.286787,-1.475354,-0.6632364,14.14421,NaN,NaN,0.4486178,0.8044403,0.06921811,1.086383,5.044105E-09,1.315147
1133.446,-0.1604436,0.0007867345,NaN,-0.6477861,0.00240788,NaN,-0.4527527,-14.99695,NaN,-1.294596,-1.480024,-0.675929,14.14909,NaN,NaN,0.4519607,0.8039542,0.06786092,1.093107,5.044105E-09,1.325222
1133.461,-0.1590766,0.000786846,NaN,-0.6519252,0.002406345,NaN,-0.4595202,-14.99816,NaN,-1.302406,-1.476143,-0.6885271,14.14515,NaN,NaN,0.4552383,0.8027633,0.06653033,1.087489,5.640151E-09,1.328964
1133.476,-0.1590766,0.000786846,NaN,-0.6519252,0.002406345,NaN,-0.4595202,-14.99816,NaN,-1.302406,-1.476143,-0.6885271,14.14515,NaN,NaN,0.4552383,0.8027633,0.06653033,1.087489,5.640151E-09,1.328964
1133.49,-0.1577097,0.000787232,NaN,-0.6560627,0.00240721,NaN,-0.4663128,-14.99702,NaN,-1.310156,-1.466799,-0.7008516,14.13537,NaN,NaN,0.4584516,0.8039429,0.06522584,1.074047,4.448058E-09,1.320627
1133.506,-0.1563489,0.0007880321,NaN,-0.6601804,0.00240718,NaN,-0.4730792,-14.99734,NaN,-1.317814,-1.465774,-0.7128836,14.13432,NaN,NaN,0.4616019,0.8036093,0.06394693,1.072564,2.063872E-09,1.320329
1133.521,-0.1549619,0.0007891485,NaN,-0.6643723,0.002407508,NaN,-0.4800829,-14.99865,NaN,-1.325801,-1.475471,-0.725369,14.14451,NaN,NaN,0.4650041,0.8023164,0.06269309,1.086536,-9.163599E-10,1.330937
1133.536,-0.1549619,0.0007891485,NaN,-0.6643723,0.002407508,NaN,-0.4800829,-14.99865,NaN,-1.325801,-1.475471,-0.725369,14.14451,NaN,NaN,0.4650041,0.8023164,0.06269309,1.086536,-9.163599E-10,1.330937
1133.552,-0.1535656,0.0007893048,NaN,-0.6685902,0.002405186,NaN,-0.4871584,-14.99853,NaN,-1.333789,-1.475042,-0.7377555,14.14405,NaN,NaN,0.4683399,0.8024236,0.06146384,1.085918,-1.512406E-09,1.329641
1133.566,-0.15217,0.0007900751,NaN,-0.672805,0.002406266,NaN,-0.4942431,-14.9978,NaN,-1.341715,-1.475562,-0.7498729,14.14451,NaN,NaN,0.4716103,0.803125,0.06025869,1.086669,-9.163599E-10,1.318243
1133.58,-0.1507808,0.0007895523,NaN,-0.6769989,0.002405176,NaN,-0.5012887,-14.99727,NaN,-1.349549,-1.471354,-0.7617043,14.1401,NaN,NaN,0.4748166,0.803674,0.05907717,1.080614,-3.300546E-09,1.322839
1133.595,-0.1507808,0.0007895523,NaN,-0.6769989,0.002405176,NaN,-0.5012887,-14.99727,NaN,-1.349549,-1.471354,-0.7617043,14.1401,NaN,NaN,0.4748166,0.803674,0.05907717,1.080614,-3.300546E-09,1.322839
1133.609,-0.1493657,0.0007889854,NaN,-0.6812657,0.002402297,NaN,-0.5085865,-14.99752,NaN,-1.357704,-1.479398,-0.7739819,14.14847,NaN,NaN,0.4782737,0.8033884,0.05791882,1.092203,-2.704499E-09,1.325302
1133.625,-0.1479416,0.0007885646,NaN,-0.6855575,0.002397685,NaN,-0.5159423,-14.99819,NaN,-1.365861,-1.480364,-0.7861568,14.14953,NaN,NaN,0.4816633,0.802677,0.05678318,1.093584,-3.300546E-09,1.329781
1133.64,-0.1479416,0.0007885646,NaN,-0.6855575,0.002397685,NaN,-0.5159423,-14.99819,NaN,-1.365861,-1.480364,-0.7861568,14.14953,NaN,NaN,0.4816633,0.802677,0.05678318,1.093584,-3.300546E-09,1.329781
1133.654,-0.1465186,0.0007872145,NaN,-0.6898453,0.00239372,NaN,-0.5232922,-14.99645,NaN,-1.373956,-1.467451,-0.7980683,14.13602,NaN,NaN,0.4849864,0.8045452,0.05566981,1.075029,-5.684731E-09,1.319332
1133.67,-0.1450664,0.000786343,NaN,-0.6942157,0.002391851,NaN,-0.5309272,-14.99772,NaN,-1.382381,-1.475914,-0.8104112,14.14495,NaN,NaN,0.4885582,0.8032774,0.05457827,1.087236,-5.088685E-09,1.328921
1133.685,-0.1436036,0.0007858433,NaN,-0.6986165,0.002389828,NaN,-0.5386189,-14.99647,NaN,-1.390815,-1.472081,-0.8226401,14.14086,NaN,NaN,0.4920601,0.8045321,0.05350814,1.081727,-8.664964E-09,1.321113
1133.7,-0.1421412,0.0007855083,NaN,-0.703016,0.002388149,NaN,-0.5462971,-14.99647,NaN,-1.399188,-1.466977,-0.8346034,14.13556,NaN,NaN,0.4954934,0.8045315,0.05245899,1.074368,-9.857057E-09,1.319298
1133.716,-0.1421412,0.0007855083,NaN,-0.703016,0.002388149,NaN,-0.5462971,-14.99647,NaN,-1.399188,-1.466977,-0.8346034,14.13556,NaN,NaN,0.4954934,0.8045315,0.05245899,1.074368,-9.857057E-09,1.319298
1133.729,-0.1406853,0.0007852937,NaN,-0.7073948,0.002387462,NaN,-0.553916,-14.99633,NaN,-1.407466,-1.478295,-0.8462873,14.1473,NaN,NaN,0.4988593,0.8046853,0.05143041,1.090689,-5.088685E-09,1.322462
1133.746,-0.1392035,0.0007857858,NaN,-0.7118459,0.002389796,NaN,-0.5618133,-14.99634,NaN,-1.416052,-1.470465,-0.8583929,14.13915,NaN,NaN,0.5024731,0.8047308,0.05042199,1.07939,-3.203136E-10,1.318359
1133.759,-0.1392035,0.0007857858,NaN,-0.7118459,0.002389796,NaN,-0.5618133,-14.99634,NaN,-1.416052,-1.470465,-0.8583929,14.13915,NaN,NaN,0.5024731,0.8047308,0.05042199,1.07939,-3.203136E-10,1.318359
1133.774,-0.1377133,0.000785886,NaN,-0.7163206,0.002391638,NaN,-0.5697436,-14.99645,NaN,-1.424641,-1.467792,-0.8703876,14.13637,NaN,NaN,0.5060161,0.8046123,0.04943335,1.07553,1.467826E-09,1.319332
1133.789,-0.1362247,0.0007859001,NaN,-0.7207896,0.002392019,NaN,-0.5776419,-14.9979,NaN,-1.433164,-1.474899,-0.8821273,14.1439,NaN,NaN,0.5094898,0.8031592,0.0484641,1.085779,-6.876824E-09,1.329296
1133.804,-0.1347438,0.0007851023,NaN,-0.7252349,0.002392571,NaN,-0.5854681,-14.99726,NaN,-1.441589,-1.469218,-0.8935974,14.13795,NaN,NaN,0.5128953,0.8038311,0.04751384,1.077601,-9.857057E-09,1.324309
1133.819,-0.1347438,0.0007851023,NaN,-0.7252349,0.002392571,NaN,-0.5854681,-14.99726,NaN,-1.441589,-1.469218,-0.8935974,14.13795,NaN,NaN,0.5128953,0.8038311,0.04751384,1.077601,-9.857057E-09,1.324309
1133.833,-0.1332374,0.000785194,NaN,-0.7297502,0.002394194,NaN,-0.5935868,-14.99678,NaN,-1.450315,-1.465777,-0.9054754,14.13433,NaN,NaN,0.5165479,0.8043034,0.04658222,1.072639,-1.760566E-08,1.321042
1133.849,-0.1317229,0.0007851686,NaN,-0.7342876,0.002395086,NaN,-0.601725,-14.99729,NaN,-1.459044,-1.46706,-0.9172445,14.1357,NaN,NaN,0.5201291,0.8037946,0.04566887,1.074488,-1.998985E-08,1.323382
1133.864,-0.1302106,0.0007840937,NaN,-0.7388179,0.002394999,NaN,-0.6098181,-14.99655,NaN,-1.467707,-1.466737,-0.9287686,14.13529,NaN,NaN,0.5236401,0.8045229,0.04477342,1.074019,-1.641357E-08,1.319966
1133.879,-0.1302106,0.0007840937,NaN,-0.7388179,0.002394999,NaN,-0.6098181,-14.99655,NaN,-1.467707,-1.466737,-0.9287686,14.13529,NaN,NaN,0.5236401,0.8045229,0.04477342,1.074019,-1.641357E-08,1.319966
1133.893,-0.1286697,0.0007833849,NaN,-0.743428,0.002393039,NaN,-0.6182308,-14.99694,NaN,-1.476681,-1.466228,-0.9406851,14.1348,NaN,NaN,0.5273961,0.804126,0.04389553,1.073287,-1.402938E-08,1.322963
1133.909,-0.1271192,0.0007836624,NaN,-0.7480655,0.002392689,NaN,-0.6266602,-14.99722,NaN,-1.485667,-1.478815,-0.9524898,14.14789,NaN,NaN,0.5310786,0.8038759,0.04303486,1.091432,-1.522148E-08,1.328721
1133.924,-0.1255701,0.0007834017,NaN,-0.7526987,0.002392369,NaN,-0.6350377,-14.99784,NaN,-1.494586,-1.470589,-0.9640522,14.1394,NaN,NaN,0.5346889,0.8033293,0.04219105,1.079567,-1.641357E-08,1.32909
1133.939,-0.1255701,0.0007834017,NaN,-0.7526987,0.002392369,NaN,-0.6350377,-14.99784,NaN,-1.494586,-1.470589,-0.9640522,14.1394,NaN,NaN,0.5346889,0.8033293,0.04219105,1.079567,-1.641357E-08,1.32909
1133.955,-0.124029,0.0007834439,NaN,-0.7573083,0.002390635,NaN,-0.6433257,-14.99712,NaN,-1.503405,-1.479818,-0.9753563,14.14889,NaN,NaN,0.5382286,0.8040149,0.04136379,1.09286,-1.522148E-08,1.326506
1133.969,-0.1224623,0.0007830093,NaN,-0.7619874,0.002389936,NaN,-0.65193,-14.99652,NaN,-1.512513,-1.469906,-0.9870313,14.13855,NaN,NaN,0.5420126,0.8046966,0.04055275,1.078583,-1.760566E-08,1.321695
1133.984,-0.120888,0.0007826641,NaN,-0.7666873,0.002386702,NaN,-0.6605312,-14.99738,NaN,-1.521625,-1.465882,-0.9986012,14.13446,NaN,NaN,0.5457227,0.8038359,0.03975762,1.072779,-1.879775E-08,1.325612
1133.999,-0.120888,0.0007826641,NaN,-0.7666873,0.002386702,NaN,-0.6605312,-14.99738,NaN,-1.521625,-1.465882,-0.9986012,14.13446,NaN,NaN,0.5457227,0.8038359,0.03975762,1.072779,-1.879775E-08,1.325612
1134.013,-0.1193167,0.0007822921,NaN,-0.7713786,0.002384909,NaN,-0.6690654,-14.99777,NaN,-1.530668,-1.466427,-1.009942,14.13506,NaN,NaN,0.54936,0.8034438,0.03897808,1.073565,-2.118194E-08,1.326953
1134.028,-0.1177541,0.0007824559,NaN,-0.7760435,0.002383531,NaN,-0.6775,-14.99837,NaN,-1.539605,-1.471247,-1.021034,14.14012,NaN,NaN,0.5529261,0.8028492,0.03821382,1.08051,-2.475822E-08,1.331233
1134.043,-0.1175841,0.0007826795,NaN,-0.7768056,0.002384491,NaN,-0.6694291,-14.9985,NaN,-1.53351,-1.470178,-1.009827,14.13902,NaN,NaN,0.5448115,0.8027202,0.0374646,1.078969,-3.787124E-08,1.333185
1134.058,-0.1175841,0.0007826795,NaN,-0.7768056,0.002384491,NaN,-0.6694291,-14.9985,NaN,-1.53351,-1.470178,-1.009827,14.13902,NaN,NaN,0.5448115,0.8027202,0.0374646,1.078969,-3.787124E-08,1.333185
1134.073,-0.1182235,0.0007836237,NaN,-0.7751852,0.002386359,NaN,-0.657702,-14.99761,NaN,-1.522073,-1.479652,-0.9924126,14.14873,NaN,NaN,0.5368507,0.8035743,0.03673003,1.092606,-3.548705E-08,1.331147
1134.088,-0.1193437,0.0007833609,NaN,-0.772104,0.002387675,NaN,-0.644567,-14.99703,NaN,-1.508121,-1.467817,-0.9734719,14.13641,NaN,NaN,0.5290442,0.8042861,0.03600985,1.075563,-3.429496E-08,1.324231
1134.103,-0.1207368,0.0007835033,NaN,-0.7681438,0.002386585,NaN,-0.631034,-14.99745,NaN,-1.493056,-1.479375,-0.9541348,14.14845,NaN,NaN,0.52139,0.8038737,0.03530379,1.092226,-3.548705E-08,1.327048
1134.119,-0.1207368,0.0007835033,NaN,-0.7681438,0.002386585,NaN,-0.631034,-14.99745,NaN,-1.493056,-1.479375,-0.9541348,14.14845,NaN,NaN,0.52139,0.8038737,0.03530379,1.092226,-3.548705E-08,1.327048
1134.133,-0.1222408,0.0007838147,NaN,-0.7637709,0.002385642,NaN,-0.6179518,-14.99787,NaN,-1.477975,-1.475406,-0.93541,14.14436,NaN,NaN,0.5141993,0.8034703,0.03461158,1.086497,-3.548705E-08,1.325375
1134.148,-0.1237992,0.0007847417,NaN,-0.7591667,0.002385489,NaN,-0.605159,-14.99718,NaN,-1.462955,-1.480999,-0.916957,14.15009,NaN,NaN,0.5071496,0.8040903,0.03393292,1.094556,-3.310286E-08,1.32605
1134.163,-0.1253801,0.0007851688,NaN,-0.7544423,0.00238628,NaN,-0.5926675,-14.99804,NaN,-1.448083,-1.48047,-0.8987139,14.14959,NaN,NaN,0.500238,0.8032176,0.03326758,1.093773,-2.952659E-08,1.3298
1134.179,-0.1253801,0.0007851688,NaN,-0.7544423,0.00238628,NaN,-0.5926675,-14.99804,NaN,-1.448083,-1.48047,-0.8987139,14.14959,NaN,NaN,0.500238,0.8032176,0.03326758,1.093773,-2.952659E-08,1.3298
1134.192,-0.1269283,0.0007856917,NaN,-0.7497701,0.002387173,NaN,-0.58086,-14.99689,NaN,-1.433812,-1.475271,-0.8813729,14.1441,NaN,NaN,0.4937757,0.8043953,0.03261529,1.086299,-3.071868E-08,1.322394
1134.208,-0.1284502,0.0007853467,NaN,-0.74515,0.002389374,NaN,-0.5694249,-14.99666,NaN,-1.419894,-1.470385,-0.8644244,14.13899,NaN,NaN,0.4874401,0.8046386,0.03197578,1.079247,-3.191077E-08,1.320537
1134.223,-0.1299495,0.000785552,NaN,-0.7405818,0.002388612,NaN,-0.5583001,-14.99739,NaN,-1.406259,-1.46844,-0.8477382,14.13703,NaN,NaN,0.4812288,0.8039013,0.03134882,1.076438,-2.833449E-08,1.325106
1134.238,-0.1299495,0.000785552,NaN,-0.7405818,0.002388612,NaN,-0.5583001,-14.99739,NaN,-1.406259,-1.46844,-0.8477382,14.13703,NaN,NaN,0.4812288,0.8039013,0.03134882,1.076438,-2.833449E-08,1.325106
1134.252,-0.1314285,0.000785224,NaN,-0.736065,0.002387781,NaN,-0.5474498,-14.99725,NaN,-1.392871,-1.46675,-0.8312929,14.13526,NaN,NaN,0.4751393,0.8040355,0.03073415,1.073999,-2.952658E-08,1.320841
1134.268,-0.132852,0.000785254,NaN,-0.731704,0.002387078,NaN,-0.5372031,-14.99777,NaN,-1.380132,-1.468271,-0.8158053,14.13689,NaN,NaN,0.4694828,0.8035079,0.03013152,1.076189,-2.833449E-08,1.323758
1134.283,-0.1342368,0.0007855876,NaN,-0.7274567,0.002386714,NaN,-0.5272928,-14.99769,NaN,-1.367748,-1.466407,-0.8007239,14.13494,NaN,NaN,0.4639375,0.8035776,0.02954072,1.073502,-2.833449E-08,1.322572
1134.298,-0.1342368,0.0007855876,NaN,-0.7274567,0.002386714,NaN,-0.5272928,-14.99769,NaN,-1.367748,-1.466407,-0.8007239,14.13494,NaN,NaN,0.4639375,0.8035776,0.02954072,1.073502,-2.833449E-08,1.322572
1134.312,-0.1355928,0.0007858995,NaN,-0.7232972,0.002384815,NaN,-0.5176587,-14.99803,NaN,-1.355639,-1.478599,-0.7858982,14.14762,NaN,NaN,0.4585009,0.8032573,0.0289615,1.091068,-2.952658E-08,1.327095
1134.328,-0.1369256,0.0007856229,NaN,-0.7192095,0.002384704,NaN,-0.5082622,-14.99756,NaN,-1.343764,-1.475224,-0.771303,14.14407,NaN,NaN,0.4531708,0.8037297,0.02839364,1.086208,-3.310286E-08,1.320479
1134.343,-0.1382021,0.0007847958,NaN,-0.715288,0.002384222,NaN,-0.4993947,-14.99772,NaN,-1.332525,-1.466892,-0.7576771,14.13543,NaN,NaN,0.448259,0.8036101,0.0278369,1.074197,-3.191077E-08,1.32339
1134.358,-0.1382021,0.0007847958,NaN,-0.715288,0.002384222,NaN,-0.4993947,-14.99772,NaN,-1.332525,-1.466892,-0.7576771,14.13543,NaN,NaN,0.448259,0.8036101,0.0278369,1.074197,-3.191077E-08,1.32339
1134.373,-0.1394402,0.0007844049,NaN,-0.7114851,0.002384289,NaN,-0.490835,-14.99815,NaN,-1.321616,-1.478606,-0.7444521,14.14762,NaN,NaN,0.4434436,0.8031869,0.02729108,1.091069,-2.952658E-08,1.329382
1134.387,-0.1406499,0.0007841378,NaN,-0.7077711,0.002385646,NaN,-0.4825249,-14.99751,NaN,-1.310959,-1.472683,-0.731463,14.14141,NaN,NaN,0.4387227,0.8038585,0.02675596,1.082542,-2.833449E-08,1.321518
1134.402,-0.1418375,0.0007837536,NaN,-0.7041278,0.002385335,NaN,-0.4744231,-14.99861,NaN,-1.300512,-1.479293,-0.7186831,14.14837,NaN,NaN,0.4340943,0.8027145,0.02623134,1.092056,-2.595031E-08,1.331272
1134.417,-0.1418375,0.0007837536,NaN,-0.7041278,0.002385335,NaN,-0.4744231,-14.99861,NaN,-1.300512,-1.479293,-0.7186831,14.14837,NaN,NaN,0.4340943,0.8027145,0.02623134,1.092056,-2.595031E-08,1.331272
1134.431,-0.1429703,0.000784412,NaN,-0.7006482,0.002389468,NaN,-0.4667847,-14.99753,NaN,-1.290686,-1.473419,-0.7068667,14.14218,NaN,NaN,0.4298704,0.8038315,0.025717,1.083607,-2.118193E-08,1.319122
1134.447,-0.1440658,0.0007850031,NaN,-0.6972838,0.002395216,NaN,-0.4594293,-14.99752,NaN,-1.281162,-1.471202,-0.6954406,14.13986,NaN,NaN,0.4257296,0.8038445,0.02521275,1.080403,-2.118193E-08,1.319931
1134.462,-0.1451343,0.0007849694,NaN,-0.6940046,0.002399963,NaN,-0.4523019,-14.99776,NaN,-1.271867,-1.467496,-0.6842267,14.13602,NaN,NaN,0.4216699,0.8036017,0.02471839,1.075053,-2.058589E-08,1.323069
1134.477,-0.1451343,0.0007849694,NaN,-0.6940046,0.002399963,NaN,-0.4523019,-14.99776,NaN,-1.271867,-1.467496,-0.6842267,14.13602,NaN,NaN,0.4216699,0.8036017,0.02471839,1.075053,-2.058589E-08,1.323069
1134.491,-0.1461458,0.0007849915,NaN,-0.6908965,0.00240425,NaN,-0.4456134,-14.99888,NaN,-1.263197,-1.471148,-0.6739595,14.13991,NaN,NaN,0.4180036,0.8024803,0.02423371,1.080308,-1.998984E-08,1.331161
1134.507,-0.1471193,0.000785251,NaN,-0.6879065,0.002407178,NaN,-0.4391987,-14.99913,NaN,-1.254818,-1.477363,-0.6640644,14.14635,NaN,NaN,0.4144095,0.8022121,0.02375855,1.089245,-2.297007E-08,1.333717
1134.522,-0.1480657,0.0007850765,NaN,-0.6850021,0.002410518,NaN,-0.4329993,-14.99793,NaN,-1.246653,-1.466954,-0.6543564,14.13548,NaN,NaN,0.4108858,0.8035064,0.0232927,1.074283,-2.356612E-08,1.325266
1134.537,-0.1480657,0.0007850765,NaN,-0.6850021,0.002410518,NaN,-0.4329993,-14.99793,NaN,-1.246653,-1.466954,-0.6543564,14.13548,NaN,NaN,0.4108858,0.8035064,0.0232927,1.074283,-2.356612E-08,1.325266
1134.551,-0.1489917,0.0007854185,NaN,-0.6821628,0.002412983,NaN,-0.4269662,-14.99805,NaN,-1.238662,-1.478925,-0.6448066,14.14789,NaN,NaN,0.4074312,0.8034073,0.02283599,1.091522,-2.475821E-08,1.329511
1134.568,-0.1498654,0.000784557,NaN,-0.6794806,0.002413658,NaN,-0.4212989,-14.99898,NaN,-1.231261,-1.471628,-0.6361843,14.14039,NaN,NaN,0.4043581,0.8025573,0.02238822,1.080993,-2.416217E-08,1.330762
1134.581,-0.1507041,0.0007842736,NaN,-0.6769062,0.002414258,NaN,-0.4158754,-14.99808,NaN,-1.224119,-1.479446,-0.6279217,14.14839,NaN,NaN,0.4013455,0.8034272,0.02194924,1.092244,-2.177798E-08,1.329382
1134.596,-0.1507041,0.0007842736,NaN,-0.6769062,0.002414258,NaN,-0.4158754,-14.99808,NaN,-1.224119,-1.479446,-0.6279217,14.14839,NaN,NaN,0.4013455,0.8034272,0.02194924,1.092244,-2.177798E-08,1.329382
1134.61,-0.1515182,0.0007841403,NaN,-0.6744093,0.002414467,NaN,-0.4106467,-14.99869,NaN,-1.217165,-1.481047,-0.619823,14.15009,NaN,NaN,0.398392,0.8027934,0.02151887,1.094537,-2.058589E-08,1.332674
1134.626,-0.1523138,0.0007838101,NaN,-0.6719709,0.002413105,NaN,-0.4055641,-14.99784,NaN,-1.210361,-1.474939,-0.6118562,14.14369,NaN,NaN,0.3954963,0.8037029,0.02109693,1.085753,-1.998984E-08,1.326795
1134.642,-0.1530589,0.000783442,NaN,-0.6696838,0.002416814,NaN,-0.4008028,-14.9984,NaN,-1.204132,-1.468143,-0.6047927,14.13667,NaN,NaN,0.3929713,0.8031752,0.02068327,1.075947,-1.760566E-08,1.330603
1134.656,-0.1530589,0.000783442,NaN,-0.6696838,0.002416814,NaN,-0.4008028,-14.9984,NaN,-1.204132,-1.468143,-0.6047927,14.13667,NaN,NaN,0.3929713,0.8031752,0.02068327,1.075947,-1.760566E-08,1.330603
1134.67,-0.1537706,0.000783356,NaN,-0.6674994,0.002418607,NaN,-0.3962674,-14.99874,NaN,-1.19814,-1.477347,-0.5980713,14.14624,NaN,NaN,0.390496,0.8028391,0.02027772,1.089198,-1.760566E-08,1.331324
1134.686,-0.154459,0.0007831758,NaN,-0.6653877,0.002419836,NaN,-0.391913,-14.99805,NaN,-1.192315,-1.468127,-0.5914887,14.13662,NaN,NaN,0.3880692,0.8035893,0.01988012,1.075927,-1.730763E-08,1.324319
1134.701,-0.1551303,0.0007831114,NaN,-0.66333,0.002421374,NaN,-0.3876891,-14.99869,NaN,-1.186622,-1.470381,-0.5850106,14.13901,NaN,NaN,0.3856901,0.80295,0.01949032,1.079167,-1.283729E-08,1.329897
1134.716,-0.1551303,0.0007831114,NaN,-0.66333,0.002421374,NaN,-0.3876891,-14.99869,NaN,-1.186622,-1.470381,-0.5850106,14.13901,NaN,NaN,0.3856901,0.80295,0.01949032,1.079167,-1.283729E-08,1.329897
1134.73,-0.1557526,0.000783678,NaN,-0.6614191,0.002423886,NaN,-0.3837492,-14.99876,NaN,-1.18149,-1.479231,-0.5794097,14.14817,NaN,NaN,0.3836713,0.8028501,0.01910816,1.091901,-1.04531E-08,1.332753
1134.746,-0.1563427,0.0007842926,NaN,-0.6596067,0.002426587,NaN,-0.38002,-14.99767,NaN,-1.176573,-1.474079,-0.574132,14.14273,NaN,NaN,0.3816925,0.80399,0.0187335,1.084495,-9.261009E-09,1.324866
1134.761,-0.1569108,0.0007847802,NaN,-0.6578628,0.002430927,NaN,-0.3764597,-14.99752,NaN,-1.171806,-1.47189,-0.5689684,14.14044,NaN,NaN,0.3797524,0.8041489,0.01836619,1.081338,-1.104915E-08,1.324149
1134.777,-0.1569108,0.0007847802,NaN,-0.6578628,0.002430927,NaN,-0.3764597,-14.99752,NaN,-1.171806,-1.47189,-0.5689684,14.14044,NaN,NaN,0.3797524,0.8041489,0.01836619,1.081338,-1.104915E-08,1.324149
1134.79,-0.1574274,0.0007858161,NaN,-0.6562733,0.002433932,NaN,-0.3731885,-14.99866,NaN,-1.167605,-1.479573,-0.5646536,14.14851,NaN,NaN,0.3781642,0.8029836,0.01800607,1.092404,-1.194322E-08,1.332216
1134.806,-0.1579108,0.0007862927,NaN,-0.6547856,0.002437784,NaN,-0.370131,-14.9975,NaN,-1.163612,-1.474478,-0.5606352,14.14313,NaN,NaN,0.3766074,0.8041884,0.01765302,1.085081,-1.462543E-08,1.323535
1134.82,-0.1583719,0.0007865967,NaN,-0.6533672,0.002438444,NaN,-0.3672394,-14.99774,NaN,-1.159757,-1.467442,-0.5567036,14.13584,NaN,NaN,0.3750812,0.803988,0.01730689,1.074937,-1.16452E-08,1.3247
1134.836,-0.1583719,0.0007865967,NaN,-0.6533672,0.002438444,NaN,-0.3672394,-14.99774,NaN,-1.159757,-1.467442,-0.5567036,14.13584,NaN,NaN,0.3750812,0.803988,0.01730689,1.074937,-1.16452E-08,1.3247
1134.85,-0.1588174,0.0007865744,NaN,-0.6519976,0.002438262,NaN,-0.3644571,-14.99768,NaN,-1.156006,-1.470632,-0.5528241,14.13914,NaN,NaN,0.3735849,0.8040515,0.01696755,1.079534,-1.04531E-08,1.324879
1134.866,-0.159216,0.0007857522,NaN,-0.6507686,0.002435392,NaN,-0.361908,-14.9978,NaN,-1.152788,-1.479282,-0.5497702,14.14813,NaN,NaN,0.3724317,0.8039014,0.01663486,1.092002,-9.26101E-09,1.327253
1134.881,-0.1595844,0.0007844434,NaN,-0.6496316,0.002434319,NaN,-0.3595455,-14.99825,NaN,-1.149753,-1.467834,-0.5470002,14.13628,NaN,NaN,0.3713014,0.8035572,0.0163087,1.075497,-6.727812E-09,1.327761
1134.896,-0.1595844,0.0007844434,NaN,-0.6496316,0.002434319,NaN,-0.3595455,-14.99825,NaN,-1.149753,-1.467834,-0.5470002,14.13628,NaN,NaN,0.3713014,0.8035572,0.0163087,1.075497,-6.727812E-09,1.327761
1134.91,-0.1599329,0.0007840187,NaN,-0.6485562,0.002436108,NaN,-0.3573329,-14.99901,NaN,-1.146835,-1.475901,-0.5442991,14.14472,NaN,NaN,0.3701934,0.8027842,0.01598893,1.087116,-9.857056E-09,1.334063
1134.926,-0.1602676,0.0007840722,NaN,-0.6475236,0.002436426,NaN,-0.3552171,-14.99807,NaN,-1.144002,-1.4808,-0.5416287,14.1497,NaN,NaN,0.369107,0.8036646,0.01567543,1.094173,-8.962986E-09,1.330096
1134.941,-0.1605571,0.0007839722,NaN,-0.6466264,0.002438178,NaN,-0.3533129,-14.99854,NaN,-1.141688,-1.471332,-0.53976,14.13991,NaN,NaN,0.3683557,0.8032964,0.01536807,1.080521,-6.5788E-09,1.329258
1134.956,-0.1605571,0.0007839722,NaN,-0.6466264,0.002438178,NaN,-0.3533129,-14.99854,NaN,-1.141688,-1.471332,-0.53976,14.13991,NaN,NaN,0.3683557,0.8032964,0.01536807,1.080521,-6.5788E-09,1.329258
1134.971,-0.1608178,0.0007840432,NaN,-0.6458164,0.002440425,NaN,-0.3515849,-14.99872,NaN,-1.139541,-1.475111,-0.5381561,14.14384,NaN,NaN,0.3676195,0.8030958,0.01506675,1.085958,-4.045603E-09,1.332271
1134.985,-0.1610599,0.0007837234,NaN,-0.6450639,0.002442646,NaN,-0.3499987,-14.99713,NaN,-1.137495,-1.47242,-0.5365998,14.1409,NaN,NaN,0.3668977,0.8046752,0.01477134,1.082091,-7.174846E-09,1.323578
1135,-0.1612894,0.0007831744,NaN,-0.6443502,0.002444265,NaN,-0.3485008,-14.99882,NaN,-1.135519,-1.47444,-0.5350517,14.14315,NaN,NaN,0.3661901,0.8029696,0.01448172,1.084992,-6.429788E-09,1.332199
1135.016,-0.1612894,0.0007831744,NaN,-0.6443502,0.002444265,NaN,-0.3485008,-14.99882,NaN,-1.135519,-1.47444,-0.5350517,14.14315,NaN,NaN,0.3661901,0.8029696,0.01448172,1.084992,-6.429788E-09,1.332199
1135.03,-0.1614749,0.0007825308,NaN,-0.643768,0.002444155,NaN,-0.3471986,-14.99786,NaN,-1.134049,-1.480046,-0.5342816,14.14886,NaN,NaN,0.3658101,0.803885,0.01419777,1.093067,-9.261009E-09,1.328226
1135.046,-0.1616327,0.0007823472,NaN,-0.6432694,0.002444275,NaN,-0.3460639,-14.9981,NaN,-1.132731,-1.481277,-0.533757,14.15015,NaN,NaN,0.3654379,0.8036147,0.0139194,1.094833,-1.119816E-08,1.329228
1135.06,-0.161773,0.0007820489,NaN,-0.6428246,0.002442967,NaN,-0.3450637,-14.99752,NaN,-1.1315,-1.481345,-0.5332595,14.15016,NaN,NaN,0.3650731,0.8041616,0.01364648,1.094936,-1.201772E-08,1.324686
1135.076,-0.161773,0.0007820489,NaN,-0.6428246,0.002442967,NaN,-0.3450637,-14.99752,NaN,-1.1315,-1.481345,-0.5332595,14.15016,NaN,NaN,0.3650731,0.8041616,0.01364648,1.094936,-1.201772E-08,1.324686
1135.09,-0.1618664,0.000782062,NaN,-0.6425195,0.002443699,NaN,-0.3442837,-14.99718,NaN,-1.130781,-1.474638,-0.5335144,14.14316,NaN,NaN,0.3650292,0.8045582,0.01337891,1.085264,-1.157069E-08,1.322014
1135.105,-0.1619309,0.0007822321,NaN,-0.6423019,0.0024418,NaN,-0.3436822,-14.99723,NaN,-1.130208,-1.46833,-0.5339872,14.1366,NaN,NaN,0.3649864,0.8045194,0.01311659,1.076163,-8.292433E-09,1.321162
1135.122,-0.1619773,0.0007824021,NaN,-0.6421392,0.002441623,NaN,-0.343217,-14.99786,NaN,-1.129717,-1.4664,-0.5344616,14.13465,NaN,NaN,0.3649445,0.8038725,0.01285942,1.073375,-7.919905E-09,1.32482
1135.135,-0.1619773,0.0007824021,NaN,-0.6421392,0.002441623,NaN,-0.343217,-14.99786,NaN,-1.129717,-1.4664,-0.5344616,14.13465,NaN,NaN,0.3649445,0.8038725,0.01285942,1.073375,-7.919905E-09,1.32482
1135.15,-0.1620125,0.0007825728,NaN,-0.6420112,0.00244124,NaN,-0.3428293,-14.99823,NaN,-1.12927,-1.466512,-0.5349004,14.13479,NaN,NaN,0.3649035,0.803498,0.01260729,1.073534,-5.610225E-09,1.32541
1135.167,-0.1620059,0.0007827595,NaN,-0.6420097,0.002440249,NaN,-0.3426192,-14.99928,NaN,-1.129306,-1.473344,-0.5360729,14.14198,NaN,NaN,0.365177,0.802453,0.0123601,1.083376,-7.398364E-09,1.333471
1135.18,-0.1619738,0.0007832761,NaN,-0.6420857,0.002439991,NaN,-0.342563,-14.99819,NaN,-1.129468,-1.466504,-0.5374526,14.1348,NaN,NaN,0.3654454,0.8035654,0.01211776,1.07354,-9.857056E-09,1.325857
1135.195,-0.1619738,0.0007832761,NaN,-0.6420857,0.002439991,NaN,-0.342563,-14.99819,NaN,-1.129468,-1.466504,-0.5374526,14.1348,NaN,NaN,0.3654454,0.8035654,0.01211776,1.07354,-9.857056E-09,1.325857
1135.209,-0.1619261,0.000784413,NaN,-0.6422091,0.002439026,NaN,-0.3426288,-14.99957,NaN,-1.129693,-1.474634,-0.5388213,14.14337,NaN,NaN,0.3657087,0.8022024,0.01188018,1.085258,-9.633538E-09,1.335103
1135.225,-0.1618691,0.0007850299,NaN,-0.6423613,0.002437578,NaN,-0.3427624,-14.99866,NaN,-1.129949,-1.468035,-0.5401396,14.13647,NaN,NaN,0.3659668,0.8031498,0.01164725,1.075775,-9.410021E-09,1.328435
1135.24,-0.1617712,0.0007855815,NaN,-0.6426351,0.002435658,NaN,-0.3430674,-14.99906,NaN,-1.130675,-1.479245,-0.5421735,14.14812,NaN,NaN,0.3665336,0.8027588,0.01141888,1.091918,-8.36694E-09,1.33337
1135.255,-0.1617712,0.0007855815,NaN,-0.6426351,0.002435658,NaN,-0.3430674,-14.99906,NaN,-1.130675,-1.479245,-0.5421735,14.14812,NaN,NaN,0.3665336,0.8027588,0.01141888,1.091918,-8.36694E-09,1.33337
1135.269,-0.1616488,0.0007862406,NaN,-0.6429827,0.002437447,NaN,-0.3435202,-14.9982,NaN,-1.131514,-1.467421,-0.5443978,14.13581,NaN,NaN,0.3670896,0.8037369,0.011195,1.074911,-8.962987E-09,1.325529
1135.285,-0.1615119,0.0007868151,NaN,-0.6433743,0.002438952,NaN,-0.3440887,-14.99867,NaN,-1.132405,-1.466318,-0.5465939,14.1347,NaN,NaN,0.3676347,0.8032767,0.0109755,1.073321,-1.04531E-08,1.327942
1135.3,-0.1613667,0.0007868506,NaN,-0.6437912,0.002440063,NaN,-0.3447188,-14.999,NaN,-1.133315,-1.465943,-0.5487227,14.13434,NaN,NaN,0.3681692,0.8029457,0.01076031,1.07278,-1.149618E-08,1.329531
1135.315,-0.1613667,0.0007868506,NaN,-0.6437912,0.002440063,NaN,-0.3447188,-14.999,NaN,-1.133315,-1.465943,-0.5487227,14.13434,NaN,NaN,0.3681692,0.8029457,0.01076031,1.07278,-1.149618E-08,1.329531
1135.33,-0.1611818,0.0007867735,NaN,-0.6443264,0.002439454,NaN,-0.3455181,-14.9998,NaN,-1.134683,-1.472347,-0.5515492,14.14106,NaN,NaN,0.3690069,0.8021668,0.01054934,1.082003,-9.484528E-09,1.334302
1135.345,-0.1609735,0.0007862186,NaN,-0.6449321,0.002440596,NaN,-0.3464596,-14.99836,NaN,-1.136153,-1.470655,-0.5545486,14.13917,NaN,NaN,0.3698285,0.8036149,0.01034251,1.079576,-8.813975E-09,1.325995
1135.361,-0.1607517,0.0007859508,NaN,-0.6455786,0.002440749,NaN,-0.3475108,-14.9992,NaN,-1.137664,-1.466419,-0.5575035,14.13487,NaN,NaN,0.3706341,0.80278,0.01013974,1.073479,-9.559034E-09,1.33015
1135.375,-0.1607517,0.0007859508,NaN,-0.6455786,0.002440749,NaN,-0.3475108,-14.9992,NaN,-1.137664,-1.466419,-0.5575035,14.13487,NaN,NaN,0.3706341,0.80278,0.01013974,1.073479,-9.559034E-09,1.33015
1135.389,-0.1604874,0.0007857577,NaN,-0.6463518,0.002439846,NaN,-0.3487654,-14.99898,NaN,-1.139639,-1.478043,-0.5611349,14.14688,NaN,NaN,0.3717376,0.8030263,0.009940935,1.090215,-1.231575E-08,1.332359
1135.405,-0.1601984,0.000786167,NaN,-0.6471996,0.002442093,NaN,-0.3501758,-14.99901,NaN,-1.141714,-1.467742,-0.5649126,14.13621,NaN,NaN,0.3728198,0.8030784,0.009746036,1.075384,-1.149618E-08,1.330839
1135.42,-0.1598955,0.0007871335,NaN,-0.6480895,0.002444773,NaN,-0.3516984,-14.99958,NaN,-1.143824,-1.469215,-0.5686231,14.13779,NaN,NaN,0.3738809,0.8025007,0.009554958,1.077504,-1.104915E-08,1.333686
1135.436,-0.1598955,0.0007871335,NaN,-0.6480895,0.002444773,NaN,-0.3516984,-14.99958,NaN,-1.143824,-1.469215,-0.5686231,14.13779,NaN,NaN,0.3738809,0.8025007,0.009554958,1.077504,-1.104915E-08,1.333686
1135.449,-0.1595857,0.0007879832,NaN,-0.6490014,0.002445652,NaN,-0.3532739,-15.00018,NaN,-1.145937,-1.476587,-0.5722317,14.14548,NaN,NaN,0.3749211,0.8018854,0.009367625,1.088114,-9.63354E-09,1.338113
1135.465,-0.1592376,0.0007886174,NaN,-0.6500272,0.002445041,NaN,-0.3550207,-15.00054,NaN,-1.148485,-1.479252,-0.5765034,14.14826,NaN,NaN,0.3762546,0.8014976,0.00918396,1.091944,-8.068918E-09,1.340246
1135.48,-0.1588677,0.0007891123,NaN,-0.6511185,0.002447818,NaN,-0.3569002,-14.99935,NaN,-1.151118,-1.467687,-0.5809131,14.13622,NaN,NaN,0.3775624,0.8028117,0.009003906,1.07534,-6.280779E-09,1.331841
1135.495,-0.1588677,0.0007891123,NaN,-0.6511185,0.002447818,NaN,-0.3569002,-14.99935,NaN,-1.151118,-1.467687,-0.5809131,14.13622,NaN,NaN,0.3775624,0.8028117,0.009003906,1.07534,-6.280779E-09,1.331841
1135.509,-0.1584864,0.0007895165,NaN,-0.6522453,0.002449338,NaN,-0.3588771,-14.99951,NaN,-1.153772,-1.479187,-0.585247,14.14814,NaN,NaN,0.3788445,0.802659,0.008827383,1.091893,-5.237697E-09,1.335786
1135.525,-0.1580997,0.0007901731,NaN,-0.6533888,0.002452711,NaN,-0.3608971,-14.9999,NaN,-1.156417,-1.467812,-0.589469,14.13639,NaN,NaN,0.3801015,0.8023899,0.008654319,1.075514,-4.269122E-09,1.335144
1135.54,-0.1576761,0.0007911492,NaN,-0.654642,0.00245502,NaN,-0.3630911,-15.00026,NaN,-1.159486,-1.479137,-0.5943415,14.14813,NaN,NaN,0.3816476,0.802048,0.008484643,1.091806,-3.971099E-09,1.338804
1135.556,-0.1576761,0.0007911492,NaN,-0.654642,0.00245502,NaN,-0.3630911,-15.00026,NaN,-1.159486,-1.479137,-0.5943415,14.14813,NaN,NaN,0.3816476,0.802048,0.008484643,1.091806,-3.971099E-09,1.338804
1135.569,-0.157232,0.0007915703,NaN,-0.655957,0.002456277,NaN,-0.3654123,-14.99951,NaN,-1.16263,-1.473176,-0.5993365,14.1419,NaN,NaN,0.3831637,0.8028608,0.008318302,1.083241,-6.802319E-09,1.333609
1135.586,-0.1567775,0.0007917089,NaN,-0.6573041,0.002458852,NaN,-0.3678238,-14.99947,NaN,-1.165788,-1.471546,-0.6042425,14.14021,NaN,NaN,0.3846501,0.8029094,0.008155223,1.080894,-7.696388E-09,1.333572
1135.6,-0.1563187,0.0007912311,NaN,-0.6586649,0.00245942,NaN,-0.3702716,-14.99967,NaN,-1.168927,-1.46873,-0.6090246,14.13731,NaN,NaN,0.3861073,0.8027218,0.007995338,1.076841,-6.504296E-09,1.333163
1135.615,-0.1563187,0.0007912311,NaN,-0.6586649,0.00245942,NaN,-0.3702716,-14.99967,NaN,-1.168927,-1.46873,-0.6090246,14.13731,NaN,NaN,0.3861073,0.8027218,0.007995338,1.076841,-6.504296E-09,1.333163
1135.63,-0.1558239,0.0007907646,NaN,-0.6601326,0.00245655,NaN,-0.3728989,-14.99986,NaN,-1.172481,-1.47972,-0.6144441,14.14871,NaN,NaN,0.3878497,0.8025311,0.007838584,1.092662,-1.350784E-08,1.33584
1135.645,-0.1553095,0.0007910646,NaN,-0.6616593,0.002456589,NaN,-0.3756482,-14.99994,NaN,-1.176103,-1.481598,-0.6199704,14.15066,NaN,NaN,0.3895583,0.8024312,0.007684911,1.095365,-1.201773E-08,1.336396
1135.66,-0.1547855,0.0007921944,NaN,-0.6632155,0.002457859,NaN,-0.3784803,-14.99979,NaN,-1.17973,-1.476242,-0.6253952,14.1451,NaN,NaN,0.3912334,0.8026482,0.007534251,1.08766,-1.604104E-08,1.336789
1135.675,-0.1547855,0.0007921944,NaN,-0.6632155,0.002457859,NaN,-0.3784803,-14.99979,NaN,-1.17973,-1.476242,-0.6253952,14.1451,NaN,NaN,0.3912334,0.8026482,0.007534251,1.08766,-1.604104E-08,1.336789
1135.69,-0.1542226,0.0007918891,NaN,-0.6648872,0.002456629,NaN,-0.3815292,-14.99916,NaN,-1.183778,-1.46837,-0.6314387,14.13689,NaN,NaN,0.3931894,0.8033312,0.007386535,1.076337,-1.350784E-08,1.327907
1135.705,-0.1536386,0.0007919595,NaN,-0.6666224,0.002458149,NaN,-0.3847116,-14.99997,NaN,-1.187894,-1.468565,-0.6375642,14.13716,NaN,NaN,0.3951074,0.8025271,0.007241728,1.076612,-1.216674E-08,1.333376
1135.72,-0.1530447,0.0007925896,NaN,-0.6683888,0.002458181,NaN,-0.3879773,-14.99953,NaN,-1.192013,-1.480357,-0.643569,14.14931,NaN,NaN,0.3969878,0.8029661,0.007099759,1.09358,-1.231575E-08,1.333275
1135.735,-0.1530447,0.0007925896,NaN,-0.6683888,0.002458181,NaN,-0.3879773,-14.99953,NaN,-1.192013,-1.480357,-0.643569,14.14931,NaN,NaN,0.3969878,0.8029661,0.007099759,1.09358,-1.231575E-08,1.333275
1135.752,-0.1524474,0.0007930574,NaN,-0.6701664,0.002457826,NaN,-0.3912685,-14.99918,NaN,-1.196101,-1.468314,-0.6494238,14.13681,NaN,NaN,0.3988313,0.803467,0.00696057,1.076246,-1.320982E-08,1.329087
1135.766,-0.151815,0.0007935603,NaN,-0.6720474,0.002458651,NaN,-0.3947525,-14.99932,NaN,-1.200584,-1.47926,-0.6558886,14.14816,NaN,NaN,0.4009524,0.8033434,0.006824106,1.092009,-1.499796E-08,1.33348
1135.78,-0.1511644,0.0007937822,NaN,-0.6739834,0.002458922,NaN,-0.3983478,-14.99981,NaN,-1.205122,-1.481092,-0.6624281,14.15009,NaN,NaN,0.4030322,0.8028308,0.006690326,1.094635,-1.231575E-08,1.33635
1135.795,-0.1511644,0.0007937822,NaN,-0.6739834,0.002458922,NaN,-0.3983478,-14.99981,NaN,-1.205122,-1.481092,-0.6624281,14.15009,NaN,NaN,0.4030322,0.8028308,0.006690326,1.094635,-1.231575E-08,1.33635
1135.809,-0.1505058,0.0007946977,NaN,-0.6759444,0.002460566,NaN,-0.4020104,-14.99907,NaN,-1.209652,-1.476787,-0.6688413,14.14556,NaN,NaN,0.4050713,0.8036125,0.006559168,1.088441,-1.17197E-08,1.331223
1135.825,-0.1498454,0.0007953666,NaN,-0.6779121,0.002462028,NaN,-0.4056877,-14.99907,NaN,-1.214142,-1.468148,-0.6750987,14.13658,NaN,NaN,0.4070704,0.8036783,0.00643058,1.075989,-1.380586E-08,1.329108
1135.84,-0.1498454,0.0007953666,NaN,-0.6779121,0.002462028,NaN,-0.4056877,-14.99907,NaN,-1.214142,-1.468148,-0.6750987,14.13658,NaN,NaN,0.4070704,0.8036783,0.00643058,1.075989,-1.380586E-08,1.329108
1135.854,-0.149151,0.0007956353,NaN,-0.6799794,0.002460019,NaN,-0.4095658,-14.9991,NaN,-1.219018,-1.479396,-0.6819559,14.14824,NaN,NaN,0.409344,0.8036509,0.006304507,1.092191,-1.410389E-08,1.331421
1135.87,-0.1484393,0.0007955268,NaN,-0.6820986,0.00245953,NaN,-0.4135483,-14.9995,NaN,-1.223943,-1.46878,-0.688874,14.13726,NaN,NaN,0.4115733,0.8033504,0.006180914,1.076886,-1.291179E-08,1.331208
1135.885,-0.1477206,0.0007961615,NaN,-0.68424,0.002459422,NaN,-0.4175889,-14.99976,NaN,-1.228853,-1.479229,-0.6956564,14.1481,NaN,NaN,0.413759,0.803081,0.006059743,1.091931,-1.5594E-08,1.335362
1135.9,-0.1470008,0.0007965014,NaN,-0.6863855,0.002461026,NaN,-0.4216361,-14.99895,NaN,-1.233719,-1.46849,-0.7022755,14.1369,NaN,NaN,0.4159018,0.803986,0.005940947,1.076475,-1.619005E-08,1.329624
1135.915,-0.1470008,0.0007965014,NaN,-0.6863855,0.002461026,NaN,-0.4216361,-14.99895,NaN,-1.233719,-1.46849,-0.7022755,14.1369,NaN,NaN,0.4159018,0.803986,0.005940947,1.076475,-1.619005E-08,1.329624
1135.929,-0.1462477,0.0007964628,NaN,-0.6886283,0.002459889,NaN,-0.425894,-14.99974,NaN,-1.23896,-1.477969,-0.7094836,14.14681,NaN,NaN,0.4183163,0.8031856,0.005824474,1.090133,-1.499795E-08,1.333119
1135.946,-0.1454781,0.0007960642,NaN,-0.6909206,0.002457651,NaN,-0.4302494,-14.99891,NaN,-1.244247,-1.468947,-0.7167384,14.13739,NaN,NaN,0.4206838,0.8040864,0.005710295,1.077148,-1.291179E-08,1.329633
1135.96,-0.1454781,0.0007960642,NaN,-0.6909206,0.002457651,NaN,-0.4302494,-14.99891,NaN,-1.244247,-1.468947,-0.7167384,14.13739,NaN,NaN,0.4206838,0.8040864,0.005710295,1.077148,-1.291179E-08,1.329633
1135.974,-0.1447021,0.0007956412,NaN,-0.693233,0.002456015,NaN,-0.4346534,-14.99886,NaN,-1.249514,-1.469492,-0.7238491,14.13794,NaN,NaN,0.4230049,0.8041154,0.005598353,1.077931,-1.201772E-08,1.329604
1135.99,-0.1438898,0.0007954059,NaN,-0.6956518,0.002454401,NaN,-0.4393038,-14.99938,NaN,-1.255165,-1.468139,-0.7315311,14.13658,NaN,NaN,0.4255942,0.803588,0.005488602,1.075978,-1.440191E-08,1.330992
1136.005,-0.1430595,0.0007953514,NaN,-0.6981249,0.002453329,NaN,-0.4440591,-14.99929,NaN,-1.260864,-1.466561,-0.739238,14.13493,NaN,NaN,0.428133,0.8036633,0.005381006,1.073702,-1.201772E-08,1.330559
1136.019,-0.1430595,0.0007953514,NaN,-0.6981249,0.002453329,NaN,-0.4440591,-14.99929,NaN,-1.260864,-1.466561,-0.739238,14.13493,NaN,NaN,0.428133,0.8036633,0.005381006,1.073702,-1.201772E-08,1.330559
1136.034,-0.1422223,0.0007949346,NaN,-0.70062,0.002451623,NaN,-0.4488605,-14.99994,NaN,-1.266542,-1.477941,-0.7467861,14.1468,NaN,NaN,0.4306221,0.8030362,0.00527552,1.090098,-9.931561E-09,1.337482
1136.049,-0.1413847,0.0007947494,NaN,-0.7031174,0.002452999,NaN,-0.4536547,-14.99911,NaN,-1.272166,-1.467888,-0.7541533,14.13631,NaN,NaN,0.4330624,0.80395,0.0051721,1.075632,-1.142168E-08,1.331761
1136.066,-0.1405144,0.0007943643,NaN,-0.7057096,0.002453905,NaN,-0.458679,-14.99916,NaN,-1.27815,-1.467237,-0.762084,14.13563,NaN,NaN,0.4357686,0.8038998,0.005070705,1.074692,-1.082563E-08,1.330878
1136.079,-0.1405144,0.0007943643,NaN,-0.7057096,0.002453905,NaN,-0.458679,-14.99916,NaN,-1.27815,-1.467237,-0.762084,14.13563,NaN,NaN,0.4357686,0.8038998,0.005070705,1.074692,-1.082563E-08,1.330878
1136.094,-0.1396288,0.0007949481,NaN,-0.708348,0.002454242,NaN,-0.4637866,-14.99937,NaN,-1.28417,-1.479406,-0.7700328,14.14828,NaN,NaN,0.438422,0.8037068,0.004971302,1.092229,-1.320982E-08,1.335356
1136.109,-0.138738,0.0007955201,NaN,-0.7110028,0.002456094,NaN,-0.4689239,-14.99903,NaN,-1.290161,-1.468403,-0.7778203,14.13683,NaN,NaN,0.4410233,0.8041487,0.004873849,1.076376,-1.261377E-08,1.330675
1136.124,-0.1378482,0.0007956654,NaN,-0.7136558,0.002455003,NaN,-0.4740427,-14.99977,NaN,-1.296092,-1.476418,-0.7854247,14.14522,NaN,NaN,0.4435737,0.8034016,0.004778306,1.087929,-1.440191E-08,1.334779
1136.139,-0.1378482,0.0007956654,NaN,-0.7136558,0.002455003,NaN,-0.4740427,-14.99977,NaN,-1.296092,-1.476418,-0.7854247,14.14522,NaN,NaN,0.4435737,0.8034016,0.004778306,1.087929,-1.440191E-08,1.334779
1136.155,-0.1369267,0.0007959913,NaN,-0.7164003,0.002455651,NaN,-0.4794026,-14.99895,NaN,-1.302373,-1.469243,-0.7935818,14.1377,NaN,NaN,0.4463879,0.8042591,0.00468463,1.0776,-1.320982E-08,1.330359
1136.169,-0.1359906,0.0007962398,NaN,-0.7191882,0.002455248,NaN,-0.484837,-14.99906,NaN,-1.308688,-1.479102,-0.8017452,14.14794,NaN,NaN,0.4491471,0.804136,0.004592797,1.091811,-1.440191E-08,1.333184
1136.184,-0.1350501,0.0007960612,NaN,-0.7219902,0.002454307,NaN,-0.4902903,-14.99884,NaN,-1.31497,-1.473272,-0.8097429,14.14186,NaN,NaN,0.4518523,0.8043913,0.004502764,1.083405,-9.633538E-09,1.330734
1136.199,-0.1350501,0.0007960612,NaN,-0.7219902,0.002454307,NaN,-0.4902903,-14.99884,NaN,-1.31497,-1.473272,-0.8097429,14.14186,NaN,NaN,0.4518523,0.8043913,0.004502764,1.083405,-9.633538E-09,1.330734
1136.213,-0.1340748,0.0007957662,NaN,-0.7248927,0.002453151,NaN,-0.4960176,-14.99875,NaN,-1.321612,-1.47947,-0.818276,14.14828,NaN,NaN,0.4548182,0.8044346,0.004414488,1.092336,-1.142168E-08,1.331782
1136.229,-0.1330835,0.0007956573,NaN,-0.7278435,0.002453729,NaN,-0.5018231,-14.99878,NaN,-1.328291,-1.471225,-0.8267975,14.1397,NaN,NaN,0.4577262,0.804472,0.004327952,1.080439,-1.201772E-08,1.329541
1136.244,-0.1320872,0.0007961891,NaN,-0.7308106,0.002455528,NaN,-0.507643,-14.99891,NaN,-1.334937,-1.472055,-0.8351427,14.14057,NaN,NaN,0.4605772,0.8043272,0.004243109,1.081628,-1.261377E-08,1.3298
1136.259,-0.1320872,0.0007961891,NaN,-0.7308106,0.002455528,NaN,-0.507643,-14.99891,NaN,-1.334937,-1.472055,-0.8351427,14.14057,NaN,NaN,0.4605772,0.8043272,0.004243109,1.081628,-1.261377E-08,1.3298
