JMolnar6/NonAnthroHands_User_Study/HandsLoggerWithURDF/tempdata/files/Reachy_JointMotion_gesture_7_36.csv
Time,r_shoulder,r_shoulder_x,r_upper_arm,r_forearm,r_wrist,r_wrist2hand,
465.6816,0.0449741,-1.202993E-08,NaN,-0.327071,-1.346619E-07,NaN,0.4539981,-1.037999E-08,NaN,-0.7010255,1.473599E-05,-0.3575293,3.629473E-08,NaN,NaN,-0.05827633,1.676371E-10,1.958739E-06,-1.129024E-07,1.548214E-08,-2.861022E-08
465.6976,0.0449741,-1.202993E-08,NaN,-0.327071,-1.346619E-07,NaN,0.4539981,-1.037999E-08,NaN,-0.7010255,1.473599E-05,-0.3575293,3.629473E-08,NaN,NaN,-0.05827633,1.676371E-10,1.958739E-06,-1.129024E-07,1.548214E-08,-2.861022E-08
465.7135,0.04497421,-1.202905E-08,NaN,-0.3270707,-1.346626E-07,NaN,0.4542782,-1.022464E-08,NaN,-0.699479,1.473654E-05,-0.3579028,3.614111E-08,NaN,NaN,-0.05752685,1.769504E-10,1.90204E-06,-1.129037E-07,1.548214E-08,-2.622604E-08
465.7291,0.04497432,-1.202816E-08,NaN,-0.3270704,-1.346632E-07,NaN,0.4545291,-1.007505E-08,NaN,-0.6986709,1.473709E-05,-0.3582709,3.599325E-08,NaN,NaN,-0.05679132,1.81607E-10,1.857263E-06,-1.12905E-07,1.309795E-08,-2.861022E-08
465.7464,0.04497443,-1.202728E-08,NaN,-0.3270702,-1.346639E-07,NaN,0.4547393,-9.928298E-09,NaN,-0.6982172,1.473764E-05,-0.3585953,3.584822E-08,NaN,NaN,-0.05606994,1.909202E-10,1.818743E-06,-1.129063E-07,5.945394E-09,-2.622604E-08
465.7607,0.04497453,-1.202639E-08,NaN,-0.3270699,-1.346645E-07,NaN,0.4549257,-9.784314E-09,NaN,-0.6979339,1.473819E-05,-0.3588856,3.570596E-08,NaN,NaN,-0.0553626,1.955768E-10,1.780894E-06,-1.129077E-07,5.945394E-09,-2.861022E-08
465.7766,0.04497453,-1.202639E-08,NaN,-0.3270699,-1.346645E-07,NaN,0.4549257,-9.784314E-09,NaN,-0.6979339,1.473819E-05,-0.3588856,3.570596E-08,NaN,NaN,-0.0553626,1.955768E-10,1.780894E-06,-1.129077E-07,5.945394E-09,-2.861022E-08
465.7919,0.04497463,-1.202551E-08,NaN,-0.3270696,-1.346652E-07,NaN,0.4549924,-9.645873E-09,NaN,-0.6965014,1.473874E-05,-0.3589736,3.556925E-08,NaN,NaN,-0.05466729,2.0489E-10,1.777318E-06,-1.12909E-07,1.071377E-08,-2.622604E-08
465.8085,0.04497472,-1.202463E-08,NaN,-0.3270694,-1.346658E-07,NaN,0.4550837,-9.510043E-09,NaN,-0.6944107,1.47393E-05,-0.3590549,3.543515E-08,NaN,NaN,-0.05398635,2.095467E-10,1.761821E-06,-1.129103E-07,1.548214E-08,-2.861022E-08
465.8243,0.04497481,-1.202374E-08,NaN,-0.3270691,-1.346664E-07,NaN,0.4552139,-9.379595E-09,NaN,-0.6920247,1.473985E-05,-0.3591726,3.530643E-08,NaN,NaN,-0.05331902,2.142033E-10,1.742226E-06,-1.129116E-07,1.309795E-08,-2.622604E-08
465.8401,0.04497491,-1.202286E-08,NaN,-0.3270688,-1.346671E-07,NaN,0.455367,-9.251599E-09,NaN,-0.689517,1.474041E-05,-0.3593198,3.518016E-08,NaN,NaN,-0.05266487,2.188599E-10,1.72114E-06,-1.129129E-07,1.548214E-08,-2.861022E-08
465.856,0.04497491,-1.202286E-08,NaN,-0.3270688,-1.346671E-07,NaN,0.455367,-9.251599E-09,NaN,-0.689517,1.474041E-05,-0.3593198,3.518016E-08,NaN,NaN,-0.05266487,2.188599E-10,1.72114E-06,-1.129129E-07,1.548214E-08,-2.861022E-08
465.8712,0.04497499,-1.202197E-08,NaN,-0.3270686,-1.346677E-07,NaN,0.455419,-9.126008E-09,NaN,-0.6857399,1.474096E-05,-0.3593035,3.50563E-08,NaN,NaN,-0.05202175,2.235165E-10,1.729858E-06,-1.129142E-07,1.786632E-08,-2.622604E-08
465.8879,0.04497508,-1.202109E-08,NaN,-0.3270683,-1.346684E-07,NaN,0.4554988,-9.005599E-09,NaN,-0.6812671,1.474151E-05,-0.3592986,3.493761E-08,NaN,NaN,-0.05139203,2.281731E-10,1.725536E-06,-1.129155E-07,1.548214E-08,-2.861022E-08
465.9035,0.04497517,-1.20202E-08,NaN,-0.327068,-1.34669E-07,NaN,0.4556167,-8.887446E-09,NaN,-0.6765009,1.474206E-05,-0.3593395,3.482119E-08,NaN,NaN,-0.05077494,2.374863E-10,1.716223E-06,-1.129167E-07,1.309795E-08,-2.622604E-08
465.9196,0.04497517,-1.20202E-08,NaN,-0.327068,-1.34669E-07,NaN,0.4556167,-8.887446E-09,NaN,-0.6765009,1.474206E-05,-0.3593395,3.482119E-08,NaN,NaN,-0.05077494,2.374863E-10,1.716223E-06,-1.129167E-07,1.309795E-08,-2.622604E-08
465.9345,0.04497526,-1.201931E-08,NaN,-0.3270678,-1.346696E-07,NaN,0.4557558,-8.774331E-09,NaN,-0.6716337,1.474262E-05,-0.3594156,3.47098E-08,NaN,NaN,-0.05017006,2.421429E-10,1.704228E-06,-1.12918E-07,1.071377E-08,-2.861022E-08
465.951,0.04497534,-1.201843E-08,NaN,-0.3270675,-1.346702E-07,NaN,0.4557899,-8.66333E-09,NaN,-0.6655264,1.474317E-05,-0.3593314,3.460053E-08,NaN,NaN,-0.04957514,2.514561E-10,1.721662E-06,-1.129193E-07,1.309795E-08,-2.622604E-08
465.9666,0.04497541,-1.201754E-08,NaN,-0.3270672,-1.346709E-07,NaN,0.4558485,-8.557223E-09,NaN,-0.6587567,1.474372E-05,-0.3592583,3.449615E-08,NaN,NaN,-0.0489927,2.561127E-10,1.725089E-06,-1.129206E-07,8.32958E-09,-2.861022E-08
465.9822,0.0449755,-1.201666E-08,NaN,-0.327067,-1.346715E-07,NaN,0.4559449,-8.453092E-09,NaN,-0.6517282,1.474427E-05,-0.3592322,3.439374E-08,NaN,NaN,-0.04842197,2.65426E-10,1.724419E-06,-1.129218E-07,1.071377E-08,-2.622604E-08
465.9982,0.0449755,-1.201666E-08,NaN,-0.327067,-1.346715E-07,NaN,0.4559449,-8.453092E-09,NaN,-0.6517282,1.474427E-05,-0.3592322,3.439374E-08,NaN,NaN,-0.04842197,2.65426E-10,1.724419E-06,-1.129218E-07,1.071377E-08,-2.622604E-08
466.0133,0.04497558,-1.201577E-08,NaN,-0.3270667,-1.346721E-07,NaN,0.4560639,-8.350899E-09,NaN,-0.6446339,1.474482E-05,-0.3592436,3.429328E-08,NaN,NaN,-0.04786254,2.700826E-10,1.720321E-06,-1.129231E-07,1.071377E-08,-2.861022E-08
466.0301,0.04497565,-1.201489E-08,NaN,-0.3270664,-1.346727E-07,NaN,0.456074,-8.25343E-09,NaN,-0.6363348,1.474537E-05,-0.3590952,3.419753E-08,NaN,NaN,-0.047312,2.793958E-10,1.746472E-06,-1.129243E-07,1.309795E-08,-2.622604E-08
466.0458,0.04497573,-1.2014E-08,NaN,-0.3270662,-1.346734E-07,NaN,0.4561065,-8.157766E-09,NaN,-0.6274078,1.474593E-05,-0.3589564,3.41036E-08,NaN,NaN,-0.0467731,2.840524E-10,1.75884E-06,-1.129256E-07,1.548214E-08,-2.861022E-08
466.0614,0.0449758,-1.201311E-08,NaN,-0.3270659,-1.34674E-07,NaN,0.4561781,-8.066699E-09,NaN,-0.6182564,1.474648E-05,-0.3588653,3.401426E-08,NaN,NaN,-0.04624507,2.933656E-10,1.765918E-06,-1.129268E-07,2.025051E-08,-2.622604E-08
466.0771,0.0449758,-1.201311E-08,NaN,-0.3270659,-1.34674E-07,NaN,0.4561781,-8.066699E-09,NaN,-0.6182564,1.474648E-05,-0.3588653,3.401426E-08,NaN,NaN,-0.04624507,2.933656E-10,1.765918E-06,-1.129268E-07,2.025051E-08,-2.622604E-08
466.0924,0.04497588,-1.201223E-08,NaN,-0.3270656,-1.346746E-07,NaN,0.4562746,-7.977314E-09,NaN,-0.609073,1.474704E-05,-0.3588139,3.39266E-08,NaN,NaN,-0.04572748,2.88709E-10,1.770389E-06,-1.129281E-07,1.786632E-08,-2.861022E-08
466.1089,0.04497596,-1.201134E-08,NaN,-0.3270653,-1.346752E-07,NaN,0.456368,-7.889574E-09,NaN,-0.5998042,1.474759E-05,-0.3587666,3.384058E-08,NaN,NaN,-0.04521977,2.980222E-10,1.775828E-06,-1.129293E-07,1.309795E-08,-2.622604E-08
466.1248,0.04497604,-1.201046E-08,NaN,-0.3270651,-1.346758E-07,NaN,0.4564678,-7.806275E-09,NaN,-0.5905553,1.474814E-05,-0.3587346,3.375901E-08,NaN,NaN,-0.0447221,3.026788E-10,1.77851E-06,-1.129306E-07,1.071376E-08,-2.861022E-08
466.1405,0.04497612,-1.200957E-08,NaN,-0.3270648,-1.346764E-07,NaN,0.4565734,-7.724505E-09,NaN,-0.5813912,1.474869E-05,-0.3587178,3.367896E-08,NaN,NaN,-0.04423418,3.11992E-10,1.779553E-06,-1.129318E-07,1.548214E-08,-2.622604E-08
466.1567,0.04497612,-1.200957E-08,NaN,-0.3270648,-1.346764E-07,NaN,0.4565734,-7.724505E-09,NaN,-0.5813912,1.474869E-05,-0.3587178,3.367896E-08,NaN,NaN,-0.04423418,3.11992E-10,1.779553E-06,-1.129318E-07,1.548214E-08,-2.622604E-08
466.1715,0.04497619,-1.200868E-08,NaN,-0.3270645,-1.34677E-07,NaN,0.4566826,-7.938842E-09,NaN,-0.5723417,1.474925E-05,-0.3587126,3.389502E-08,NaN,NaN,-0.04375579,3.11992E-10,1.780894E-06,-1.129315E-07,1.309795E-08,-2.861022E-08
466.1884,0.04497627,-1.20078E-08,NaN,-0.3270643,-1.346773E-07,NaN,0.4567939,-8.25035E-09,NaN,-0.5634199,1.474978E-05,-0.3587162,3.420826E-08,NaN,NaN,-0.04328674,3.259619E-10,1.781564E-06,-1.12931E-07,1.786632E-08,-2.622604E-08
466.2041,0.04497635,-1.200691E-08,NaN,-0.327064,-1.346773E-07,NaN,0.4569068,-8.609198E-09,NaN,-0.5546312,1.475033E-05,-0.3587268,3.456884E-08,NaN,NaN,-0.04282682,3.306185E-10,1.780596E-06,-1.129302E-07,2.025051E-08,-2.861022E-08
466.2198,0.04497635,-1.200691E-08,NaN,-0.327064,-1.346773E-07,NaN,0.4569068,-8.609198E-09,NaN,-0.5546312,1.475033E-05,-0.3587268,3.456884E-08,NaN,NaN,-0.04282682,3.306185E-10,1.780596E-06,-1.129302E-07,2.025051E-08,-2.861022E-08
466.2348,0.04497643,-1.200602E-08,NaN,-0.3270637,-1.346771E-07,NaN,0.4570212,-8.991905E-09,NaN,-0.545977,1.475087E-05,-0.3587435,3.495328E-08,NaN,NaN,-0.04237585,3.352751E-10,1.779925E-06,-1.129294E-07,1.786632E-08,-2.622604E-08
466.2523,0.04497651,-1.200514E-08,NaN,-0.3270635,-1.346769E-07,NaN,0.4571374,-9.383907E-09,NaN,-0.5374568,1.475142E-05,-0.3587658,3.534702E-08,NaN,NaN,-0.04193365,3.399317E-10,1.779255E-06,-1.129285E-07,1.548214E-08,-2.861022E-08
466.2673,0.04497658,-1.200425E-08,NaN,-0.3270632,-1.346766E-07,NaN,0.4572556,-9.779388E-09,NaN,-0.5290692,1.475195E-05,-0.3587933,3.574424E-08,NaN,NaN,-0.04150005,3.585582E-10,1.777988E-06,-1.129276E-07,1.548214E-08,-2.622604E-08
466.2828,0.04497666,-1.200336E-08,NaN,-0.3270629,-1.346763E-07,NaN,0.4573762,-1.017264E-08,NaN,-0.5208128,1.475249E-05,-0.3588261,3.613924E-08,NaN,NaN,-0.04107489,3.632148E-10,1.775753E-06,-1.129266E-07,2.025051E-08,-2.861022E-08
466.2987,0.04497666,-1.200336E-08,NaN,-0.3270629,-1.346763E-07,NaN,0.4573762,-1.017264E-08,NaN,-0.5208128,1.475249E-05,-0.3588261,3.613924E-08,NaN,NaN,-0.04107489,3.632148E-10,1.775753E-06,-1.129266E-07,2.025051E-08,-2.861022E-08
466.3135,0.04497674,-1.200248E-08,NaN,-0.3270627,-1.34676E-07,NaN,0.4574992,-1.056089E-08,NaN,-0.5126855,1.475302E-05,-0.3588641,3.652923E-08,NaN,NaN,-0.04065798,3.818412E-10,1.772326E-06,-1.129257E-07,1.548214E-08,-2.622604E-08
466.3301,0.04497682,-1.200159E-08,NaN,-0.3270624,-1.346757E-07,NaN,0.4576249,-1.09414E-08,NaN,-0.5046856,1.475357E-05,-0.3589071,3.691149E-08,NaN,NaN,-0.04024917,3.864978E-10,1.768004E-06,-1.129248E-07,1.548214E-08,-2.861022E-08
466.346,0.0449769,-1.200071E-08,NaN,-0.3270622,-1.346754E-07,NaN,0.4577534,-1.131435E-08,NaN,-0.496811,1.475411E-05,-0.3589551,3.728619E-08,NaN,NaN,-0.0398483,3.911544E-10,1.763981E-06,-1.129238E-07,1.786633E-08,-2.622604E-08
466.3619,0.04497698,-1.199982E-08,NaN,-0.327062,-1.34675E-07,NaN,0.4578848,-1.167986E-08,NaN,-0.4890597,1.475465E-05,-0.3590082,3.765346E-08,NaN,NaN,-0.03945521,4.004677E-10,1.761001E-06,-1.129229E-07,1.786633E-08,-2.861022E-08
466.3773,0.04497698,-1.199982E-08,NaN,-0.327062,-1.34675E-07,NaN,0.4578848,-1.167986E-08,NaN,-0.4890597,1.475465E-05,-0.3590082,3.765346E-08,NaN,NaN,-0.03945521,4.004677E-10,1.761001E-06,-1.129229E-07,1.786633E-08,-2.861022E-08
466.3926,0.04497705,-1.199893E-08,NaN,-0.3270617,-1.346747E-07,NaN,0.4580191,-1.20381E-08,NaN,-0.4814301,1.47552E-05,-0.3590662,3.801345E-08,NaN,NaN,-0.03906975,4.051243E-10,1.75668E-06,-1.129219E-07,1.786633E-08,-2.622604E-08
466.4091,0.04497713,-1.199805E-08,NaN,-0.3270615,-1.346744E-07,NaN,0.4581564,-1.23892E-08,NaN,-0.47392,1.475574E-05,-0.3591291,3.83663E-08,NaN,NaN,-0.03869175,4.097809E-10,1.751166E-06,-1.12921E-07,2.025051E-08,-2.861022E-08
466.4246,0.04497721,-1.199716E-08,NaN,-0.3270612,-1.34674E-07,NaN,0.4582968,-1.273331E-08,NaN,-0.4665276,1.475629E-05,-0.3591968,3.871216E-08,NaN,NaN,-0.03832108,4.144375E-10,1.746994E-06,-1.129201E-07,8.329582E-09,-2.622604E-08
466.4402,0.04497729,-1.199627E-08,NaN,-0.327061,-1.346737E-07,NaN,0.4584403,-1.306773E-08,NaN,-0.4592512,1.475683E-05,-0.3592694,3.904834E-08,NaN,NaN,-0.03795759,4.190941E-10,1.743119E-06,-1.129191E-07,8.329582E-09,-2.861022E-08
466.4563,0.04497729,-1.199627E-08,NaN,-0.327061,-1.346737E-07,NaN,0.4584403,-1.306773E-08,NaN,-0.4592512,1.475683E-05,-0.3592694,3.904834E-08,NaN,NaN,-0.03795759,4.190941E-10,1.743119E-06,-1.129191E-07,8.329582E-09,-2.861022E-08
466.4711,0.04497737,-1.199539E-08,NaN,-0.3270608,-1.346733E-07,NaN,0.4585869,-1.339548E-08,NaN,-0.452089,1.475738E-05,-0.3593468,3.937784E-08,NaN,NaN,-0.03760113,4.237507E-10,1.737606E-06,-1.129182E-07,8.329582E-09,-2.622604E-08
466.4879,0.04497745,-1.19945E-08,NaN,-0.3270605,-1.34673E-07,NaN,0.4587366,-1.37167E-08,NaN,-0.445039,1.475792E-05,-0.3594289,3.970082E-08,NaN,NaN,-0.03725157,4.284073E-10,1.732391E-06,-1.129173E-07,1.309795E-08,-2.861022E-08
466.5036,0.04497752,-1.199361E-08,NaN,-0.3270603,-1.346727E-07,NaN,0.4588896,-1.402868E-08,NaN,-0.4380997,1.475847E-05,-0.3595158,4.001455E-08,NaN,NaN,-0.03690877,4.330639E-10,1.72643E-06,-1.129164E-07,1.548214E-08,-2.622604E-08
466.5196,0.04497752,-1.199361E-08,NaN,-0.3270603,-1.346727E-07,NaN,0.4588896,-1.402868E-08,NaN,-0.4380997,1.475847E-05,-0.3595158,4.001455E-08,NaN,NaN,-0.03690877,4.330639E-10,1.72643E-06,-1.129164E-07,1.548214E-08,-2.622604E-08
466.5345,0.0449776,-1.199273E-08,NaN,-0.32706,-1.346723E-07,NaN,0.4590458,-1.433444E-08,NaN,-0.4312693,1.475901E-05,-0.3596072,4.032206E-08,NaN,NaN,-0.03657259,4.377205E-10,1.720321E-06,-1.129155E-07,1.548214E-08,-2.861022E-08
466.5506,0.04497767,-1.199184E-08,NaN,-0.3270598,-1.34672E-07,NaN,0.4592052,-1.463409E-08,NaN,-0.424546,1.475956E-05,-0.3597033,4.062347E-08,NaN,NaN,-0.0362429,4.423771E-10,1.713913E-06,-1.129145E-07,1.786633E-08,-2.622604E-08
466.567,0.04497775,-1.199095E-08,NaN,-0.3270596,-1.346717E-07,NaN,0.4593679,-1.492775E-08,NaN,-0.4179282,1.47601E-05,-0.359804,4.091888E-08,NaN,NaN,-0.03591957,4.470337E-10,1.707357E-06,-1.129136E-07,1.786633E-08,-2.861022E-08
466.5826,0.04497782,-1.199007E-08,NaN,-0.3270593,-1.346714E-07,NaN,0.4595339,-1.521272E-08,NaN,-0.4114144,1.476065E-05,-0.3599092,4.120561E-08,NaN,NaN,-0.03560248,4.516904E-10,1.701247E-06,-1.129127E-07,2.501888E-08,-2.622604E-08
466.5985,0.04497782,-1.199007E-08,NaN,-0.3270593,-1.346714E-07,NaN,0.4595339,-1.521272E-08,NaN,-0.4114144,1.476065E-05,-0.3599092,4.120561E-08,NaN,NaN,-0.03560248,4.516904E-10,1.701247E-06,-1.129127E-07,2.501888E-08,-2.622604E-08
466.6135,0.0449779,-1.198918E-08,NaN,-0.3270591,-1.34671E-07,NaN,0.4597033,-1.549199E-08,NaN,-0.4050027,1.476119E-05,-0.3600189,4.148663E-08,NaN,NaN,-0.03529149,4.56347E-10,1.694542E-06,-1.129118E-07,2.26347E-08,-2.861022E-08
466.6303,0.04497797,-1.198829E-08,NaN,-0.3270589,-1.346707E-07,NaN,0.459876,-1.576567E-08,NaN,-0.3986917,1.476173E-05,-0.3601332,4.176207E-08,NaN,NaN,-0.0349865,4.610036E-10,1.686942E-06,-1.129109E-07,2.740307E-08,-2.622604E-08
466.6456,0.04497804,-1.198741E-08,NaN,-0.3270586,-1.346704E-07,NaN,0.4600521,-1.603105E-08,NaN,-0.3924798,1.476228E-05,-0.3602518,4.202921E-08,NaN,NaN,-0.03468737,4.610036E-10,1.680087E-06,-1.1291E-07,2.501888E-08,-2.861022E-08
466.6615,0.04497812,-1.198652E-08,NaN,-0.3270584,-1.3467E-07,NaN,0.4602316,-1.629112E-08,NaN,-0.3863654,1.476281E-05,-0.360375,4.229103E-08,NaN,NaN,-0.03439399,4.749734E-10,1.672339E-06,-1.129091E-07,2.26347E-08,-2.622604E-08
466.6771,0.04497812,-1.198652E-08,NaN,-0.3270584,-1.3467E-07,NaN,0.4602316,-1.629112E-08,NaN,-0.3863654,1.476281E-05,-0.360375,4.229103E-08,NaN,NaN,-0.03439399,4.749734E-10,1.672339E-06,-1.129091E-07,2.26347E-08,-2.622604E-08
466.6924,0.04497819,-1.198563E-08,NaN,-0.3270581,-1.346697E-07,NaN,0.4604145,-1.654598E-08,NaN,-0.3803471,1.476335E-05,-0.3605025,4.254765E-08,NaN,NaN,-0.03410625,4.749734E-10,1.664441E-06,-1.129082E-07,2.501888E-08,-2.861022E-08
466.7086,0.04497827,-1.198474E-08,NaN,-0.3270579,-1.346694E-07,NaN,0.4606009,-1.679573E-08,NaN,-0.3744233,1.476389E-05,-0.3606344,4.279915E-08,NaN,NaN,-0.03382403,4.749734E-10,1.65714E-06,-1.129073E-07,2.26347E-08,-2.622604E-08
466.7245,0.04497834,-1.198386E-08,NaN,-0.3270577,-1.346691E-07,NaN,0.4607908,-1.703765E-08,NaN,-0.3685925,1.476442E-05,-0.3607706,4.304283E-08,NaN,NaN,-0.03354721,4.7963E-10,1.648348E-06,-1.129065E-07,2.501888E-08,-2.861022E-08
466.7405,0.04497842,-1.198297E-08,NaN,-0.3270574,-1.346687E-07,NaN,0.4609843,-1.727474E-08,NaN,-0.3628533,1.476496E-05,-0.3609113,4.328167E-08,NaN,NaN,-0.0332757,4.7963E-10,1.640301E-06,-1.129056E-07,2.978726E-08,-2.622604E-08
466.7565,0.04497842,-1.198297E-08,NaN,-0.3270574,-1.346687E-07,NaN,0.4609843,-1.727474E-08,NaN,-0.3628533,1.476496E-05,-0.3609113,4.328167E-08,NaN,NaN,-0.0332757,4.7963E-10,1.640301E-06,-1.129056E-07,2.978726E-08,-2.622604E-08
466.7727,0.04497849,-1.198208E-08,NaN,-0.3270572,-1.346684E-07,NaN,0.4611813,-1.750706E-08,NaN,-0.3572043,1.476551E-05,-0.3610562,4.351574E-08,NaN,NaN,-0.03300938,4.703168E-10,1.631808E-06,-1.129047E-07,3.217144E-08,-2.861022E-08
466.788,0.04497857,-1.19812E-08,NaN,-0.3270569,-1.346681E-07,NaN,0.4613818,-1.773471E-08,NaN,-0.351644,1.476605E-05,-0.3612054,4.374515E-08,NaN,NaN,-0.03274816,4.703168E-10,1.622718E-06,-1.129038E-07,3.217144E-08,-2.622604E-08
466.8035,0.04497864,-1.198031E-08,NaN,-0.3270567,-1.346678E-07,NaN,0.4615859,-1.795496E-08,NaN,-0.3461711,1.476659E-05,-0.3613589,4.396716E-08,NaN,NaN,-0.03249191,4.703168E-10,1.613628E-06,-1.12903E-07,3.693981E-08,-2.861022E-08
466.8198,0.04497864,-1.198031E-08,NaN,-0.3270567,-1.346678E-07,NaN,0.4615859,-1.795496E-08,NaN,-0.3461711,1.476659E-05,-0.3613589,4.396716E-08,NaN,NaN,-0.03249191,4.703168E-10,1.613628E-06,-1.12903E-07,3.693981E-08,-2.861022E-08
466.8349,0.04497872,-1.197942E-08,NaN,-0.3270565,-1.346674E-07,NaN,0.4617937,-1.817079E-08,NaN,-0.3407843,1.476713E-05,-0.3615167,4.418474E-08,NaN,NaN,-0.03224056,4.703168E-10,1.604837E-06,-1.129021E-07,3.693981E-08,-2.622604E-08
466.8513,0.04497879,-1.197854E-08,NaN,-0.3270562,-1.346671E-07,NaN,0.4620051,-1.838227E-08,NaN,-0.335482,1.476768E-05,-0.3616787,4.439798E-08,NaN,NaN,-0.03199399,4.610036E-10,1.595151E-06,-1.129012E-07,4.170818E-08,-2.861022E-08
466.8673,0.04497886,-1.197765E-08,NaN,-0.327056,-1.346668E-07,NaN,0.4622202,-1.858668E-08,NaN,-0.3302631,1.476822E-05,-0.3618449,4.460414E-08,NaN,NaN,-0.03175211,4.610036E-10,1.586508E-06,-1.129004E-07,3.693981E-08,-2.622604E-08
466.8831,0.04497894,-1.197676E-08,NaN,-0.3270558,-1.346665E-07,NaN,0.462439,-1.878696E-08,NaN,-0.3251262,1.476877E-05,-0.3620154,4.480617E-08,NaN,NaN,-0.03151482,4.516904E-10,1.576971E-06,-1.128995E-07,3.217144E-08,-2.861022E-08
466.8991,0.04497894,-1.197676E-08,NaN,-0.3270558,-1.346665E-07,NaN,0.462439,-1.878696E-08,NaN,-0.3251262,1.476877E-05,-0.3620154,4.480617E-08,NaN,NaN,-0.03151482,4.516904E-10,1.576971E-06,-1.128995E-07,3.217144E-08,-2.861022E-08
466.914,0.04497901,-1.197587E-08,NaN,-0.3270555,-1.346662E-07,NaN,0.4626615,-1.89832E-08,NaN,-0.3200701,1.476931E-05,-0.3621901,4.500417E-08,NaN,NaN,-0.03128204,4.516904E-10,1.569223E-06,-1.128986E-07,3.217144E-08,-2.622604E-08
466.9306,0.04497908,-1.197499E-08,NaN,-0.3270553,-1.346659E-07,NaN,0.4628877,-1.917549E-08,NaN,-0.3150935,1.476986E-05,-0.362369,4.519822E-08,NaN,NaN,-0.03105366,4.423771E-10,1.559984E-06,-1.128978E-07,3.217144E-08,-2.861022E-08
466.9465,0.04497916,-1.19741E-08,NaN,-0.3270551,-1.346656E-07,NaN,0.4631177,-1.936107E-08,NaN,-0.3101951,1.47704E-05,-0.3625521,4.538555E-08,NaN,NaN,-0.0308296,4.423771E-10,1.550447E-06,-1.128969E-07,2.740307E-08,-2.622604E-08
466.9626,0.04497923,-1.197321E-08,NaN,-0.3270549,-1.346652E-07,NaN,0.4633515,-1.95429E-08,NaN,-0.3053737,1.477095E-05,-0.3627394,4.556914E-08,NaN,NaN,-0.03060978,4.330639E-10,1.539868E-06,-1.128961E-07,2.501889E-08,-2.861022E-08
466.9785,0.04497923,-1.197321E-08,NaN,-0.3270549,-1.346652E-07,NaN,0.4633515,-1.95429E-08,NaN,-0.3053737,1.477095E-05,-0.3627394,4.556914E-08,NaN,NaN,-0.03060978,4.330639E-10,1.539868E-06,-1.128961E-07,2.501889E-08,-2.861022E-08
466.9937,0.0449793,-1.197232E-08,NaN,-0.3270546,-1.346649E-07,NaN,0.4635891,-1.972106E-08,NaN,-0.3006282,1.477149E-05,-0.3629309,4.574905E-08,NaN,NaN,-0.03039409,4.330639E-10,1.530182E-06,-1.128952E-07,2.26347E-08,-2.622604E-08
467.0101,0.04497937,-1.197144E-08,NaN,-0.3270544,-1.346646E-07,NaN,0.4638306,-1.989561E-08,NaN,-0.2959573,1.477204E-05,-0.3631266,4.592535E-08,NaN,NaN,-0.03018247,4.237507E-10,1.520347E-06,-1.128944E-07,1.548214E-08,-2.861022E-08
467.0262,0.04497944,-1.197055E-08,NaN,-0.3270542,-1.346643E-07,NaN,0.4640759,-2.006381E-08,NaN,-0.2913598,1.477258E-05,-0.3633264,4.60953E-08,NaN,NaN,-0.02997482,4.237507E-10,1.51081E-06,-1.128936E-07,1.548214E-08,-2.622604E-08
467.0417,0.04497951,-1.196966E-08,NaN,-0.327054,-1.34664E-07,NaN,0.464325,-2.02286E-08,NaN,-0.2868347,1.477313E-05,-0.3635304,4.626184E-08,NaN,NaN,-0.02977107,4.190941E-10,1.500528E-06,-1.128927E-07,1.548214E-08,-2.861022E-08
467.0581,0.04497951,-1.196966E-08,NaN,-0.327054,-1.34664E-07,NaN,0.464325,-2.02286E-08,NaN,-0.2868347,1.477313E-05,-0.3635304,4.626184E-08,NaN,NaN,-0.02977107,4.190941E-10,1.500528E-06,-1.128927E-07,1.548214E-08,-2.861022E-08
467.0731,0.04497958,-1.196878E-08,NaN,-0.3270538,-1.346637E-07,NaN,0.4645781,-2.039004E-08,NaN,-0.2823807,1.477366E-05,-0.3637385,4.642504E-08,NaN,NaN,-0.02957113,4.237507E-10,1.490992E-06,-1.128919E-07,1.548214E-08,-2.622604E-08
467.09,0.04497965,-1.196789E-08,NaN,-0.3270536,-1.346634E-07,NaN,0.464835,-2.054821E-08,NaN,-0.2779968,1.477421E-05,-0.3639508,4.658497E-08,NaN,NaN,-0.02937492,4.190941E-10,1.482051E-06,-1.128911E-07,2.501889E-08,-2.861022E-08
467.1057,0.04497972,-1.1967E-08,NaN,-0.3270534,-1.346631E-07,NaN,0.465096,-2.070034E-08,NaN,-0.2736819,1.477474E-05,-0.3641672,4.673885E-08,NaN,NaN,-0.02918237,4.237507E-10,1.471918E-06,-1.128902E-07,2.26347E-08,-2.622604E-08
467.1215,0.04497979,-1.196611E-08,NaN,-0.3270532,-1.346627E-07,NaN,0.4653608,-2.084938E-08,NaN,-0.2694348,1.477529E-05,-0.3643878,4.688965E-08,NaN,NaN,-0.02899341,4.190941E-10,1.462083E-06,-1.128894E-07,2.26347E-08,-2.861022E-08
467.1375,0.04497979,-1.196611E-08,NaN,-0.3270532,-1.346627E-07,NaN,0.4653608,-2.084938E-08,NaN,-0.2694348,1.477529E-05,-0.3643878,4.688965E-08,NaN,NaN,-0.02899341,4.190941E-10,1.462083E-06,-1.128894E-07,2.26347E-08,-2.861022E-08
467.1528,0.04497986,-1.196523E-08,NaN,-0.327053,-1.346624E-07,NaN,0.4656296,-2.099822E-08,NaN,-0.2652546,1.477582E-05,-0.3646125,4.704023E-08,NaN,NaN,-0.02880795,4.237507E-10,1.452845E-06,-1.128886E-07,2.501889E-08,-2.622604E-08
467.1693,0.04497993,-1.196434E-08,NaN,-0.3270528,-1.346621E-07,NaN,0.4659024,-2.114402E-08,NaN,-0.2611402,1.477637E-05,-0.3648413,4.71878E-08,NaN,NaN,-0.02862593,4.190941E-10,1.442712E-06,-1.128878E-07,2.978726E-08,-2.861022E-08
467.1852,0.04498,-1.196345E-08,NaN,-0.3270526,-1.346618E-07,NaN,0.4661793,-2.128403E-08,NaN,-0.2570905,1.47769E-05,-0.3650743,4.732956E-08,NaN,NaN,-0.02844726,4.237507E-10,1.432579E-06,-1.12887E-07,2.501889E-08,-2.622604E-08
467.2011,0.04498008,-1.196256E-08,NaN,-0.3270524,-1.346615E-07,NaN,0.4664601,-2.142119E-08,NaN,-0.2531046,1.477745E-05,-0.3653114,4.746847E-08,NaN,NaN,-0.02827189,4.190941E-10,1.42185E-06,-1.128862E-07,2.501889E-08,-2.861022E-08
467.2168,0.04498008,-1.196256E-08,NaN,-0.3270524,-1.346615E-07,NaN,0.4664601,-2.142119E-08,NaN,-0.2531046,1.477745E-05,-0.3653114,4.746847E-08,NaN,NaN,-0.02827189,4.190941E-10,1.42185E-06,-1.128862E-07,2.501889E-08,-2.861022E-08
467.232,0.04498015,-1.196168E-08,NaN,-0.3270521,-1.346612E-07,NaN,0.4667449,-2.155555E-08,NaN,-0.2491814,1.477798E-05,-0.3655526,4.760458E-08,NaN,NaN,-0.02809974,4.237507E-10,1.412611E-06,-1.128853E-07,2.26347E-08,-2.622604E-08
467.2482,0.04498022,-1.196079E-08,NaN,-0.3270519,-1.346609E-07,NaN,0.4670338,-2.168716E-08,NaN,-0.2453199,1.477852E-05,-0.365798,4.773795E-08,NaN,NaN,-0.02793075,4.284073E-10,1.404863E-06,-1.128845E-07,1.548215E-08,-2.861022E-08
467.2642,0.04498029,-1.19599E-08,NaN,-0.3270517,-1.346606E-07,NaN,0.4673268,-2.181326E-08,NaN,-0.2415192,1.477905E-05,-0.3660474,4.78658E-08,NaN,NaN,-0.02776484,4.330639E-10,1.39473E-06,-1.128837E-07,1.071377E-08,-2.622604E-08
467.2798,0.04498029,-1.19599E-08,NaN,-0.3270517,-1.346606E-07,NaN,0.4673268,-2.181326E-08,NaN,-0.2415192,1.477905E-05,-0.3660474,4.78658E-08,NaN,NaN,-0.02776484,4.330639E-10,1.39473E-06,-1.128837E-07,1.071377E-08,-2.622604E-08
467.2971,0.04498036,-1.195902E-08,NaN,-0.3270515,-1.346603E-07,NaN,0.4676238,-2.193678E-08,NaN,-0.2377784,1.47796E-05,-0.366301,4.799108E-08,NaN,NaN,-0.02760196,4.237507E-10,1.384597E-06,-1.128829E-07,1.071377E-08,-2.861022E-08
467.3118,0.04498043,-1.195813E-08,NaN,-0.3270513,-1.3466E-07,NaN,0.4679249,-2.205776E-08,NaN,-0.2340965,1.478014E-05,-0.3665586,4.811382E-08,NaN,NaN,-0.02744204,4.237507E-10,1.374465E-06,-1.128821E-07,1.548215E-08,-2.622604E-08
467.3275,0.04498049,-1.195724E-08,NaN,-0.3270511,-1.346597E-07,NaN,0.4682301,-2.217626E-08,NaN,-0.2304725,1.478069E-05,-0.3668204,4.823407E-08,NaN,NaN,-0.02728501,4.190941E-10,1.364332E-06,-1.128813E-07,1.548215E-08,-2.861022E-08
467.3432,0.04498056,-1.195635E-08,NaN,-0.3270509,-1.346594E-07,NaN,0.4685394,-2.22895E-08,NaN,-0.2269056,1.478122E-05,-0.3670862,4.834907E-08,NaN,NaN,-0.02713081,4.237507E-10,1.354795E-06,-1.128806E-07,2.26347E-08,-2.622604E-08
467.359,0.04498056,-1.195635E-08,NaN,-0.3270509,-1.346594E-07,NaN,0.4685394,-2.22895E-08,NaN,-0.2269056,1.478122E-05,-0.3670862,4.834907E-08,NaN,NaN,-0.02713081,4.237507E-10,1.354795E-06,-1.128806E-07,2.26347E-08,-2.622604E-08
467.3741,0.04498063,-1.195547E-08,NaN,-0.3270507,-1.346591E-07,NaN,0.4688527,-2.240041E-08,NaN,-0.2233949,1.478176E-05,-0.3673562,4.846173E-08,NaN,NaN,-0.02697938,4.284073E-10,1.345854E-06,-1.128798E-07,2.26347E-08,-2.861022E-08
467.3905,0.04498069,-1.195458E-08,NaN,-0.3270505,-1.346588E-07,NaN,0.4691702,-2.250903E-08,NaN,-0.2199394,1.47823E-05,-0.3676302,4.857211E-08,NaN,NaN,-0.02683067,4.330639E-10,1.335722E-06,-1.12879E-07,2.025052E-08,-2.622604E-08
467.4066,0.04498076,-1.195369E-08,NaN,-0.3270503,-1.346585E-07,NaN,0.4694917,-2.261542E-08,NaN,-0.2165384,1.478285E-05,-0.3679082,4.868025E-08,NaN,NaN,-0.02668461,4.237507E-10,1.327079E-06,-1.128782E-07,2.025052E-08,-2.861022E-08
467.4224,0.04498083,-1.19528E-08,NaN,-0.3270501,-1.346582E-07,NaN,0.4698173,-2.271679E-08,NaN,-0.213191,1.478339E-05,-0.3681903,4.878337E-08,NaN,NaN,-0.02654115,4.237507E-10,1.31784E-06,-1.128774E-07,2.025052E-08,-2.622604E-08
467.4382,0.04498083,-1.19528E-08,NaN,-0.3270501,-1.346582E-07,NaN,0.4698173,-2.271679E-08,NaN,-0.213191,1.478339E-05,-0.3681903,4.878337E-08,NaN,NaN,-0.02654115,4.237507E-10,1.31784E-06,-1.128774E-07,2.025052E-08,-2.622604E-08
467.4533,0.04498089,-1.195192E-08,NaN,-0.3270499,-1.346579E-07,NaN,0.470147,-2.281605E-08,NaN,-0.2098963,1.478393E-05,-0.3684765,4.888439E-08,NaN,NaN,-0.02640022,4.190941E-10,1.308303E-06,-1.128766E-07,2.26347E-08,-2.861022E-08
467.4696,0.04498096,-1.195103E-08,NaN,-0.3270496,-1.346576E-07,NaN,0.4704809,-2.291326E-08,NaN,-0.2066535,1.478447E-05,-0.3687667,4.898336E-08,NaN,NaN,-0.02626179,4.237507E-10,1.29668E-06,-1.128759E-07,2.501889E-08,-2.622604E-08
467.4855,0.04498103,-1.195014E-08,NaN,-0.3270494,-1.346573E-07,NaN,0.4708188,-2.300846E-08,NaN,-0.2034618,1.478501E-05,-0.3690609,4.908031E-08,NaN,NaN,-0.02612578,4.190941E-10,1.286846E-06,-1.128751E-07,2.26347E-08,-2.861022E-08
467.5012,0.0449811,-1.194925E-08,NaN,-0.3270492,-1.34657E-07,NaN,0.4711608,-2.309885E-08,NaN,-0.2003203,1.478555E-05,-0.3693591,4.917245E-08,NaN,NaN,-0.02599216,4.237507E-10,1.277607E-06,-1.128743E-07,2.26347E-08,-2.622604E-08
467.5173,0.0449811,-1.194925E-08,NaN,-0.3270492,-1.34657E-07,NaN,0.4711608,-2.309885E-08,NaN,-0.2003203,1.478555E-05,-0.3693591,4.917245E-08,NaN,NaN,-0.02599216,4.237507E-10,1.277607E-06,-1.128743E-07,2.26347E-08,-2.622604E-08
467.5325,0.04498116,-1.194837E-08,NaN,-0.327049,-1.346567E-07,NaN,0.4715069,-2.318736E-08,NaN,-0.1972284,1.478609E-05,-0.3696613,4.926272E-08,NaN,NaN,-0.02586085,4.190941E-10,1.269262E-06,-1.128736E-07,1.786633E-08,-2.861022E-08
467.5488,0.04498123,-1.194748E-08,NaN,-0.3270488,-1.346564E-07,NaN,0.4718571,-2.289365E-08,NaN,-0.1941852,1.478663E-05,-0.3699675,4.897075E-08,NaN,NaN,-0.02573182,4.237507E-10,1.259427E-06,-1.128728E-07,1.786633E-08,-2.622604E-08
467.5646,0.0449813,-1.194659E-08,NaN,-0.3270486,-1.346561E-07,NaN,0.4722113,-2.260556E-08,NaN,-0.19119,1.478717E-05,-0.3702776,4.868443E-08,NaN,NaN,-0.02560501,4.190941E-10,1.249891E-06,-1.12872E-07,2.26347E-08,-2.861022E-08
467.5802,0.04498136,-1.19457E-08,NaN,-0.3270484,-1.346558E-07,NaN,0.4725695,-2.2323E-08,NaN,-0.1882419,1.478772E-05,-0.3705916,4.840362E-08,NaN,NaN,-0.02548037,4.097809E-10,1.240652E-06,-1.128713E-07,2.501889E-08,-2.622604E-08
467.596,0.04498136,-1.19457E-08,NaN,-0.3270484,-1.346558E-07,NaN,0.4725695,-2.2323E-08,NaN,-0.1882419,1.478772E-05,-0.3705916,4.840362E-08,NaN,NaN,-0.02548037,4.097809E-10,1.240652E-06,-1.128713E-07,2.501889E-08,-2.622604E-08
467.6111,0.04498143,-1.194481E-08,NaN,-0.3270482,-1.346556E-07,NaN,0.4729318,-2.204303E-08,NaN,-0.1853404,1.478826E-05,-0.3709095,4.81254E-08,NaN,NaN,-0.02535786,4.144375E-10,1.231711E-06,-1.128705E-07,2.26347E-08,-2.861022E-08
467.6279,0.0449815,-1.194393E-08,NaN,-0.327048,-1.346553E-07,NaN,0.4732981,-2.176843E-08,NaN,-0.1824845,1.478879E-05,-0.3712313,4.785255E-08,NaN,NaN,-0.02523743,4.190941E-10,1.222473E-06,-1.128698E-07,2.26347E-08,-2.622604E-08
467.6436,0.04498157,-1.194304E-08,NaN,-0.3270478,-1.34655E-07,NaN,0.4736683,-2.149909E-08,NaN,-0.1796737,1.478934E-05,-0.371557,4.758497E-08,NaN,NaN,-0.02511902,4.144375E-10,1.213234E-06,-1.12869E-07,2.26347E-08,-2.861022E-08
467.6597,0.04498157,-1.194304E-08,NaN,-0.3270478,-1.34655E-07,NaN,0.4736683,-2.149909E-08,NaN,-0.1796737,1.478934E-05,-0.371557,4.758497E-08,NaN,NaN,-0.02511902,4.144375E-10,1.213234E-06,-1.12869E-07,2.26347E-08,-2.861022E-08
467.675,0.04498163,-1.194215E-08,NaN,-0.3270476,-1.346547E-07,NaN,0.4740425,-2.12349E-08,NaN,-0.1769072,1.478987E-05,-0.3718865,4.732253E-08,NaN,NaN,-0.02500259,4.190941E-10,1.204889E-06,-1.128683E-07,1.548214E-08,-2.622604E-08
467.6915,0.0449817,-1.194126E-08,NaN,-0.3270474,-1.346544E-07,NaN,0.474476,-2.097295E-08,NaN,-0.1743277,1.479042E-05,-0.3722776,4.706233E-08,NaN,NaN,-0.0248917,4.144375E-10,1.191776E-06,-1.128675E-07,1.786633E-08,-2.861022E-08
467.7069,0.04498176,-1.194037E-08,NaN,-0.3270472,-1.346541E-07,NaN,0.4749151,-2.0716E-08,NaN,-0.1718746,1.479095E-05,-0.3726759,4.680714E-08,NaN,NaN,-0.02478127,4.190941E-10,1.180153E-06,-1.128668E-07,2.26347E-08,-2.622604E-08
467.7236,0.04498183,-1.193948E-08,NaN,-0.327047,-1.346539E-07,NaN,0.4753478,-2.046398E-08,NaN,-0.1695009,1.479149E-05,-0.3730683,4.655687E-08,NaN,NaN,-0.02467209,4.237507E-10,1.17002E-06,-1.12866E-07,2.26347E-08,-2.861022E-08
467.739,0.04498183,-1.193948E-08,NaN,-0.327047,-1.346539E-07,NaN,0.4753478,-2.046398E-08,NaN,-0.1695009,1.479149E-05,-0.3730683,4.655687E-08,NaN,NaN,-0.02467209,4.237507E-10,1.17002E-06,-1.12866E-07,2.26347E-08,-2.861022E-08
467.7542,0.04498189,-1.19386E-08,NaN,-0.3270468,-1.346536E-07,NaN,0.4757747,-2.021679E-08,NaN,-0.167184,1.479202E-05,-0.3734547,4.631144E-08,NaN,NaN,-0.0245645,4.284073E-10,1.159888E-06,-1.128653E-07,1.786633E-08,-2.622604E-08
467.7708,0.04498197,-1.193771E-08,NaN,-0.3270467,-1.346533E-07,NaN,0.4766992,-1.997151E-08,NaN,-0.1661301,1.479256E-05,-0.3743596,4.60679E-08,NaN,NaN,-0.02449267,4.330639E-10,1.120549E-06,-1.128646E-07,1.548215E-08,-2.861022E-08
467.787,0.04498204,-1.193682E-08,NaN,-0.3270465,-1.34653E-07,NaN,0.4776272,-1.97309E-08,NaN,-0.1658276,1.479311E-05,-0.3752809,4.582905E-08,NaN,NaN,-0.02440871,4.237507E-10,1.093726E-06,-1.128638E-07,1.309796E-08,-2.622604E-08
467.8037,0.04498212,-1.193593E-08,NaN,-0.3270463,-1.346527E-07,NaN,0.478458,-1.949489E-08,NaN,-0.1658786,1.479365E-05,-0.3761099,4.55948E-08,NaN,NaN,-0.02432063,4.237507E-10,1.072269E-06,-1.128631E-07,8.329589E-09,-2.861022E-08
467.8185,0.04498212,-1.193593E-08,NaN,-0.3270463,-1.346527E-07,NaN,0.478458,-1.949489E-08,NaN,-0.1658786,1.479365E-05,-0.3761099,4.55948E-08,NaN,NaN,-0.02432063,4.237507E-10,1.072269E-06,-1.128631E-07,8.329589E-09,-2.861022E-08
467.8337,0.04498219,-1.193504E-08,NaN,-0.3270461,-1.346524E-07,NaN,0.4792004,-1.926338E-08,NaN,-0.1660947,1.479419E-05,-0.3768515,4.536504E-08,NaN,NaN,-0.02423181,4.284073E-10,1.053493E-06,-1.128624E-07,5.945403E-09,-2.622604E-08
467.8501,0.04498227,-1.193416E-08,NaN,-0.3270459,-1.346522E-07,NaN,0.4803895,-1.903347E-08,NaN,-0.1676039,1.479473E-05,-0.3780601,4.513688E-08,NaN,NaN,-0.02417871,4.190941E-10,1.00581E-06,-1.128617E-07,-3.59134E-09,-2.861022E-08
467.8662,0.04498235,-1.193327E-08,NaN,-0.3270458,-1.346519E-07,NaN,0.4815275,-1.880793E-08,NaN,-0.169858,1.479528E-05,-0.3792297,4.49131E-08,NaN,NaN,-0.024112,4.190941E-10,9.712389E-07,-1.128609E-07,-1.207154E-09,-2.622604E-08
467.8818,0.04498243,-1.193238E-08,NaN,-0.3270456,-1.346516E-07,NaN,0.4825324,-1.85867E-08,NaN,-0.1724413,1.479582E-05,-0.3802706,4.469362E-08,NaN,NaN,-0.02404033,4.144375E-10,9.435228E-07,-1.128602E-07,5.945403E-09,-2.861022E-08
467.8981,0.04498243,-1.193238E-08,NaN,-0.3270456,-1.346516E-07,NaN,0.4825324,-1.85867E-08,NaN,-0.1724413,1.479582E-05,-0.3802706,4.469362E-08,NaN,NaN,-0.02404033,4.144375E-10,9.435228E-07,-1.128602E-07,5.945403E-09,-2.861022E-08
467.913,0.0449825,-1.193149E-08,NaN,-0.3270454,-1.346513E-07,NaN,0.4834244,-1.836968E-08,NaN,-0.1751574,1.479637E-05,-0.3811992,4.447835E-08,NaN,NaN,-0.02396729,4.051243E-10,9.167007E-07,-1.128595E-07,3.561217E-09,-2.622604E-08
467.9297,0.04498259,-1.19306E-08,NaN,-0.3270452,-1.34651E-07,NaN,0.4847218,-1.815678E-08,NaN,-0.1791322,1.47969E-05,-0.3825541,4.426721E-08,NaN,NaN,-0.02392682,4.097809E-10,8.633546E-07,-1.128588E-07,5.945403E-09,-2.861022E-08
467.9455,0.04498267,-1.192971E-08,NaN,-0.3270451,-1.346507E-07,NaN,0.4859433,-1.794512E-08,NaN,-0.183814,1.479744E-05,-0.3838462,4.405729E-08,NaN,NaN,-0.02387276,4.144375E-10,8.243135E-07,-1.128581E-07,3.561217E-09,-2.622604E-08
467.9616,0.04498275,-1.192883E-08,NaN,-0.3270449,-1.346505E-07,NaN,0.4870151,-1.773748E-08,NaN,-0.188787,1.479798E-05,-0.3849939,4.385141E-08,NaN,NaN,-0.02381339,4.190941E-10,7.912329E-07,-1.128574E-07,1.177031E-09,-2.861022E-08
467.9773,0.04498275,-1.192883E-08,NaN,-0.3270449,-1.346505E-07,NaN,0.4870151,-1.773748E-08,NaN,-0.188787,1.479798E-05,-0.3849939,4.385141E-08,NaN,NaN,-0.02381339,4.190941E-10,7.912329E-07,-1.128574E-07,1.177031E-09,-2.861022E-08
467.9927,0.04498283,-1.192794E-08,NaN,-0.3270447,-1.346502E-07,NaN,0.48796,-1.753379E-08,NaN,-0.1938551,1.479851E-05,-0.3860165,4.364947E-08,NaN,NaN,-0.02375209,4.237507E-10,7.590464E-07,-1.128567E-07,3.561217E-09,-2.622604E-08
468.0096,0.04498292,-1.192705E-08,NaN,-0.3270445,-1.346499E-07,NaN,0.4892524,-1.733397E-08,NaN,-0.2001479,1.479905E-05,-0.3874102,4.34514E-08,NaN,NaN,-0.02371778,4.284073E-10,6.976537E-07,-1.12856E-07,1.177031E-09,-2.861022E-08
468.0253,0.044983,-1.192616E-08,NaN,-0.3270443,-1.346497E-07,NaN,0.4904538,-1.713512E-08,NaN,-0.2071089,1.47996E-05,-0.3887287,4.32543E-08,NaN,NaN,-0.02367107,4.190941E-10,6.50566E-07,-1.128553E-07,-1.207154E-09,-2.622604E-08
468.0409,0.04498309,-1.192527E-08,NaN,-0.3270442,-1.346494E-07,NaN,0.4914971,-1.694004E-08,NaN,-0.2143246,1.480014E-05,-0.3898966,4.306098E-08,NaN,NaN,-0.0236192,4.190941E-10,6.112269E-07,-1.128546E-07,1.177031E-09,-2.861022E-08
468.0572,0.04498309,-1.192527E-08,NaN,-0.3270442,-1.346494E-07,NaN,0.4914971,-1.694004E-08,NaN,-0.2143246,1.480014E-05,-0.3898966,4.306098E-08,NaN,NaN,-0.0236192,4.190941E-10,6.112269E-07,-1.128546E-07,1.177031E-09,-2.861022E-08
468.0722,0.04498317,-1.192439E-08,NaN,-0.327044,-1.346491E-07,NaN,0.4924054,-1.674866E-08,NaN,-0.2215996,1.480067E-05,-0.3909332,4.287136E-08,NaN,NaN,-0.02356515,4.237507E-10,5.748681E-07,-1.128539E-07,1.177031E-09,-2.622604E-08
468.089,0.04498324,-1.19235E-08,NaN,-0.3270438,-1.346488E-07,NaN,0.4927537,-1.656091E-08,NaN,-0.2274004,1.480122E-05,-0.3913812,4.268536E-08,NaN,NaN,-0.02348448,4.144375E-10,5.763582E-07,-1.128532E-07,-3.59134E-09,-2.861022E-08
468.1049,0.04498331,-1.192261E-08,NaN,-0.3270436,-1.346486E-07,NaN,0.4930341,-1.637672E-08,NaN,-0.2322946,1.480176E-05,-0.3917424,4.250292E-08,NaN,NaN,-0.02341513,4.190941E-10,5.662254E-07,-1.128525E-07,-3.59134E-09,-2.622604E-08
468.1208,0.04498337,-1.192172E-08,NaN,-0.3270434,-1.346483E-07,NaN,0.4933515,-1.619319E-08,NaN,-0.2367236,1.48023E-05,-0.3921327,4.232114E-08,NaN,NaN,-0.02335079,4.144375E-10,5.498342E-07,-1.128518E-07,-1.207154E-09,-2.861022E-08
468.1367,0.04498337,-1.192172E-08,NaN,-0.3270434,-1.346483E-07,NaN,0.4933515,-1.619319E-08,NaN,-0.2367236,1.48023E-05,-0.3921327,4.232114E-08,NaN,NaN,-0.02335079,4.144375E-10,5.498342E-07,-1.128518E-07,-1.207154E-09,-2.861022E-08
468.1518,0.04498344,-1.192083E-08,NaN,-0.3270433,-1.34648E-07,NaN,0.4937038,-1.601314E-08,NaN,-0.2408973,1.480284E-05,-0.3925563,4.214284E-08,NaN,NaN,-0.02328902,4.190941E-10,5.319528E-07,-1.128511E-07,1.177031E-09,-2.622604E-08
468.1685,0.04498351,-1.191995E-08,NaN,-0.3270431,-1.346478E-07,NaN,0.4940708,-1.583649E-08,NaN,-0.244916,1.480338E-05,-0.3929958,4.196795E-08,NaN,NaN,-0.02322882,4.144375E-10,5.131773E-07,-1.128504E-07,3.561217E-09,-2.861022E-08
468.1843,0.04498358,-1.191906E-08,NaN,-0.3270429,-1.346475E-07,NaN,0.4944359,-1.566318E-08,NaN,-0.2488283,1.480392E-05,-0.3934359,4.179639E-08,NaN,NaN,-0.0231698,4.190941E-10,4.938058E-07,-1.128497E-07,1.177031E-09,-2.622604E-08
468.2003,0.04498366,-1.191817E-08,NaN,-0.3270427,-1.346472E-07,NaN,0.4947887,-1.549033E-08,NaN,-0.2526578,1.480446E-05,-0.3938667,4.162529E-08,NaN,NaN,-0.02311178,4.144375E-10,4.741363E-07,-1.128491E-07,8.329589E-09,-2.861022E-08
468.2161,0.04498366,-1.191817E-08,NaN,-0.3270427,-1.346472E-07,NaN,0.4947887,-1.549033E-08,NaN,-0.2526578,1.480446E-05,-0.3938667,4.162529E-08,NaN,NaN,-0.02311178,4.144375E-10,4.741363E-07,-1.128491E-07,8.329589E-09,-2.861022E-08
468.2315,0.04498373,-1.191728E-08,NaN,-0.3270425,-1.34647E-07,NaN,0.4951238,-1.532073E-08,NaN,-0.2564166,1.4805E-05,-0.3942828,4.145745E-08,NaN,NaN,-0.02305472,4.190941E-10,4.56851E-07,-1.128484E-07,5.945403E-09,-2.622604E-08
468.2478,0.04498369,-1.191639E-08,NaN,-0.3270424,-1.346467E-07,NaN,0.4954389,-1.515434E-08,NaN,-0.2601106,1.480554E-05,-0.3946816,4.129281E-08,NaN,NaN,-0.02299857,4.144375E-10,4.389696E-07,-1.128477E-07,8.329589E-09,-2.861022E-08
468.2638,0.04498362,-1.19155E-08,NaN,-0.3270422,-1.346464E-07,NaN,0.495733,-1.499109E-08,NaN,-0.2637435,1.480608E-05,-0.395062,4.11313E-08,NaN,NaN,-0.02294331,4.190941E-10,4.219822E-07,-1.12847E-07,5.945403E-09,-2.622604E-08
468.2795,0.04498362,-1.19155E-08,NaN,-0.3270422,-1.346464E-07,NaN,0.495733,-1.499109E-08,NaN,-0.2637435,1.480608E-05,-0.395062,4.11313E-08,NaN,NaN,-0.02294331,4.190941E-10,4.219822E-07,-1.12847E-07,5.945403E-09,-2.622604E-08
468.2945,0.04498354,-1.191462E-08,NaN,-0.327042,-1.346461E-07,NaN,0.4960062,-1.483091E-08,NaN,-0.2673175,1.480663E-05,-0.3954238,4.097288E-08,NaN,NaN,-0.02288894,4.097809E-10,4.070811E-07,-1.128464E-07,-1.207154E-09,-2.861022E-08
468.311,0.04498345,-1.191373E-08,NaN,-0.3270418,-1.346459E-07,NaN,0.496259,-1.467092E-08,NaN,-0.270834,1.480716E-05,-0.3957674,4.081465E-08,NaN,NaN,-0.02283545,4.144375E-10,3.894977E-07,-1.128457E-07,-3.59134E-09,-2.622604E-08
468.3284,0.04425594,-1.191284E-08,NaN,-0.327043,-1.346456E-07,NaN,0.497422,-1.451395E-08,NaN,-0.2738915,1.480771E-05,-0.3968697,4.065943E-08,NaN,NaN,-0.02278165,4.097809E-10,3.754906E-07,-1.128451E-07,-5.975526E-09,-2.861022E-08
468.3429,0.04307374,-1.191195E-08,NaN,-0.3270445,-1.346453E-07,NaN,0.4988385,-1.435997E-08,NaN,-0.2767774,1.480825E-05,-0.3981529,4.05072E-08,NaN,NaN,-0.02272853,4.144375E-10,3.608875E-07,-1.128444E-07,-3.59134E-09,-2.622604E-08
468.3586,0.04307374,-1.191195E-08,NaN,-0.3270445,-1.346453E-07,NaN,0.4988385,-1.435997E-08,NaN,-0.2767774,1.480825E-05,-0.3981529,4.05072E-08,NaN,NaN,-0.02272853,4.144375E-10,3.608875E-07,-1.128444E-07,-3.59134E-09,-2.622604E-08
468.3738,0.04161039,-1.191106E-08,NaN,-0.3270459,-1.346451E-07,NaN,0.5002615,-1.420888E-08,NaN,-0.2796056,1.480879E-05,-0.3994109,4.035787E-08,NaN,NaN,-0.02267637,4.144375E-10,3.480725E-07,-1.128437E-07,-3.59134E-09,-2.861022E-08
468.3899,0.03997625,-1.191018E-08,NaN,-0.3270469,-1.346448E-07,NaN,0.5016096,-1.406064E-08,NaN,-0.2824148,1.480932E-05,-0.4005833,4.021138E-08,NaN,NaN,-0.02262519,4.190941E-10,3.334693E-07,-1.128431E-07,-1.07439E-08,-2.622604E-08
468.4059,0.03751321,-1.190929E-08,NaN,-0.3270499,-1.346446E-07,NaN,0.5037731,-1.391235E-08,NaN,-0.2848112,1.480986E-05,-0.4024216,4.006484E-08,NaN,NaN,-0.02257384,4.190941E-10,3.194622E-07,-1.128424E-07,-1.07439E-08,-2.861022E-08
468.4228,0.03453892,-1.19084E-08,NaN,-0.3270533,-1.346443E-07,NaN,0.5061178,-1.376685E-08,NaN,-0.2870776,1.48104E-05,-0.4043758,3.992109E-08,NaN,NaN,-0.02252324,4.237507E-10,3.054551E-07,-1.128418E-07,-1.07439E-08,-2.622604E-08
468.4376,0.03453892,-1.19084E-08,NaN,-0.3270533,-1.346443E-07,NaN,0.5061178,-1.376685E-08,NaN,-0.2870776,1.48104E-05,-0.4043758,3.992109E-08,NaN,NaN,-0.02252324,4.237507E-10,3.054551E-07,-1.128418E-07,-1.07439E-08,-2.622604E-08
468.4528,0.03125543,-1.190751E-08,NaN,-0.3270561,-1.346441E-07,NaN,0.5084127,-1.362408E-08,NaN,-0.2893213,1.481094E-05,-0.4062573,3.978007E-08,NaN,NaN,-0.02247362,4.237507E-10,2.944283E-07,-1.128411E-07,-1.312808E-08,-2.861022E-08
468.4691,0.02779114,-1.190662E-08,NaN,-0.3270583,-1.346438E-07,NaN,0.5105879,-1.348398E-08,NaN,-0.2915744,1.481147E-05,-0.4080177,3.964172E-08,NaN,NaN,-0.02242499,4.284073E-10,2.825074E-07,-1.128405E-07,-1.07439E-08,-2.622604E-08
468.4849,0.02349932,-1.190573E-08,NaN,-0.3270621,-1.346436E-07,NaN,0.513528,-1.334651E-08,NaN,-0.2934399,1.481201E-05,-0.4104066,3.9506E-08,NaN,NaN,-0.02237622,4.284073E-10,2.711825E-07,-1.128398E-07,-8.359713E-09,-2.861022E-08
468.5007,0.01870483,-1.190485E-08,NaN,-0.3270656,-1.346433E-07,NaN,0.5166156,-1.320882E-08,NaN,-0.2951955,1.481255E-05,-0.4128893,3.937006E-08,NaN,NaN,-0.02232818,4.284073E-10,2.595596E-07,-1.128392E-07,-8.359713E-09,-2.622604E-08
468.5163,0.01870483,-1.190485E-08,NaN,-0.3270656,-1.346433E-07,NaN,0.5166156,-1.320882E-08,NaN,-0.2951955,1.481255E-05,-0.4128893,3.937006E-08,NaN,NaN,-0.02232818,4.284073E-10,2.595596E-07,-1.128392E-07,-8.359713E-09,-2.622604E-08
468.5315,0.01361416,-1.190396E-08,NaN,-0.3270681,-1.34643E-07,NaN,0.5196283,-1.307655E-08,NaN,-0.2969453,1.481309E-05,-0.4152845,3.923953E-08,NaN,NaN,-0.0222811,4.237507E-10,2.491287E-07,-1.128385E-07,-8.359713E-09,-2.861022E-08
468.548,0.008358488,-1.190307E-08,NaN,-0.3270694,-1.346428E-07,NaN,0.5225002,-1.294674E-08,NaN,-0.2987195,1.481363E-05,-0.4175467,3.911148E-08,NaN,NaN,-0.02223498,4.237507E-10,2.416782E-07,-1.128379E-07,-3.591341E-09,-2.622604E-08
468.5641,0.002292737,-1.190218E-08,NaN,-0.3270719,-1.346425E-07,NaN,0.5261136,-1.281935E-08,NaN,-0.3001222,1.481416E-05,-0.4204258,3.898584E-08,NaN,NaN,-0.02218869,4.237507E-10,2.348236E-07,-1.128373E-07,1.17703E-09,-2.861022E-08
468.5798,0.002292737,-1.190218E-08,NaN,-0.3270719,-1.346425E-07,NaN,0.5261136,-1.281935E-08,NaN,-0.3001222,1.481416E-05,-0.4204258,3.898584E-08,NaN,NaN,-0.02218869,4.237507E-10,2.348236E-07,-1.128373E-07,1.17703E-09,-2.861022E-08
468.5949,-0.004257246,-1.190129E-08,NaN,-0.3270736,-1.346423E-07,NaN,0.5298562,-1.269434E-08,NaN,-0.3014283,1.48147E-05,-0.4233905,3.886258E-08,NaN,NaN,-0.02214311,4.237507E-10,2.237968E-07,-1.128366E-07,8.329588E-09,-2.622604E-08
468.6109,-0.01108442,-1.190041E-08,NaN,-0.3270744,-1.34642E-07,NaN,0.5335101,-1.256883E-08,NaN,-0.302741,1.481524E-05,-0.4262628,3.873881E-08,NaN,NaN,-0.02209843,4.144375E-10,2.172403E-07,-1.12836E-07,5.945402E-09,-2.861022E-08
468.6271,-0.01805737,-1.189952E-08,NaN,-0.3270746,-1.346418E-07,NaN,0.5370113,-1.244566E-08,NaN,-0.3040899,1.481578E-05,-0.4289977,3.861739E-08,NaN,NaN,-0.02205466,4.144375E-10,2.085976E-07,-1.128354E-07,8.329588E-09,-2.622604E-08
468.6428,-0.02582112,-1.189863E-08,NaN,-0.3270757,-1.346415E-07,NaN,0.5412426,-1.232478E-08,NaN,-0.3050812,1.481632E-05,-0.4323482,3.849826E-08,NaN,NaN,-0.02201069,4.051243E-10,2.01445E-07,-1.128348E-07,8.329588E-09,-2.861022E-08
468.6588,-0.02582112,-1.189863E-08,NaN,-0.3270757,-1.346415E-07,NaN,0.5412426,-1.232478E-08,NaN,-0.3050812,1.481632E-05,-0.4323482,3.849826E-08,NaN,NaN,-0.02201069,4.051243E-10,2.01445E-07,-1.128348E-07,8.329588E-09,-2.861022E-08
468.674,-0.03404982,-1.189774E-08,NaN,-0.3270761,-1.346413E-07,NaN,0.5455924,-1.220615E-08,NaN,-0.3059877,1.481686E-05,-0.4357822,3.838137E-08,NaN,NaN,-0.02196736,4.051243E-10,1.960806E-07,-1.128341E-07,8.329588E-09,-2.622604E-08
468.6907,-0.04253653,-1.189685E-08,NaN,-0.3270758,-1.34641E-07,NaN,0.5498428,-1.208972E-08,NaN,-0.3069116,1.48174E-05,-0.4391201,3.826669E-08,NaN,NaN,-0.0219249,3.958111E-10,1.874379E-07,-1.128335E-07,1.071377E-08,-2.861022E-08
468.7063,-0.05115001,-1.189596E-08,NaN,-0.3270749,-1.346412E-07,NaN,0.5539299,-1.181476E-08,NaN,-0.3078818,1.481794E-05,-0.4423163,3.799347E-08,NaN,NaN,-0.02188331,3.958111E-10,1.804344E-07,-1.12832E-07,8.329588E-09,-2.622604E-08
468.7223,-0.06053545,-1.189508E-08,NaN,-0.3270748,-1.346413E-07,NaN,0.5587457,-1.156762E-08,NaN,-0.3085082,1.481849E-05,-0.4461352,3.774807E-08,NaN,NaN,-0.02184142,3.818412E-10,1.790933E-07,-1.128303E-07,5.945402E-09,-2.861022E-08
468.7381,-0.06053545,-1.189508E-08,NaN,-0.3270748,-1.346413E-07,NaN,0.5587457,-1.156762E-08,NaN,-0.3085082,1.481849E-05,-0.4461352,3.774807E-08,NaN,NaN,-0.02184142,3.818412E-10,1.790933E-07,-1.128303E-07,5.945402E-09,-2.861022E-08
468.7533,-0.07036716,-1.189419E-08,NaN,-0.327074,-1.346414E-07,NaN,0.5636724,-1.133365E-08,NaN,-0.3090607,1.481902E-05,-0.4500371,3.751585E-08,NaN,NaN,-0.02180015,3.818412E-10,1.790933E-07,-1.128287E-07,8.329588E-09,-2.622604E-08
468.7696,-0.08043843,-1.18933E-08,NaN,-0.3270724,-1.346415E-07,NaN,0.5684907,-1.110979E-08,NaN,-0.3096403,1.481957E-05,-0.45384,3.729373E-08,NaN,NaN,-0.02175969,3.678714E-10,1.741759E-07,-1.12827E-07,1.309796E-08,-2.861022E-08
468.7857,-0.09061819,-1.189241E-08,NaN,-0.32707,-1.346415E-07,NaN,0.5731369,-1.089019E-08,NaN,-0.3102759,1.482011E-05,-0.4574973,3.707587E-08,NaN,NaN,-0.02172006,3.678714E-10,1.713447E-07,-1.128253E-07,1.786633E-08,-2.622604E-08
468.8019,-0.1015518,-1.189152E-08,NaN,-0.3270686,-1.346415E-07,NaN,0.5785179,-1.067759E-08,NaN,-0.3105812,1.482065E-05,-0.4617907,3.686501E-08,NaN,NaN,-0.02168005,3.539016E-10,1.705996E-07,-1.128237E-07,2.26347E-08,-2.861022E-08
468.8176,-0.1015518,-1.189152E-08,NaN,-0.3270686,-1.346415E-07,NaN,0.5785179,-1.067759E-08,NaN,-0.3105812,1.482065E-05,-0.4617907,3.686501E-08,NaN,NaN,-0.02168005,3.539016E-10,1.705996E-07,-1.128237E-07,2.26347E-08,-2.861022E-08
468.8343,-0.1129139,-1.189064E-08,NaN,-0.3270662,-1.346415E-07,NaN,0.5840049,-1.046904E-08,NaN,-0.3108229,1.482118E-05,-0.4661684,3.66582E-08,NaN,NaN,-0.02164061,3.539016E-10,1.653842E-07,-1.12822E-07,2.025052E-08,-2.622604E-08
468.8492,-0.1244979,-1.188975E-08,NaN,-0.3270628,-1.346416E-07,NaN,0.5893762,-1.026162E-08,NaN,-0.3111011,1.482173E-05,-0.4704444,3.645253E-08,NaN,NaN,-0.02160195,3.399317E-10,1.650862E-07,-1.128203E-07,1.309796E-08,-2.861022E-08
468.8653,-0.1361729,-1.188886E-08,NaN,-0.327058,-1.346416E-07,NaN,0.5945661,-1.005815E-08,NaN,-0.3114436,1.482227E-05,-0.4745697,3.62508E-08,NaN,NaN,-0.02156408,3.306185E-10,1.62702E-07,-1.128187E-07,1.071377E-08,-2.622604E-08
468.881,-0.1485845,-1.188797E-08,NaN,-0.3270543,-1.346416E-07,NaN,0.6005041,-9.858544E-09,NaN,-0.3114698,1.482281E-05,-0.4793509,3.605294E-08,NaN,NaN,-0.02152573,3.213053E-10,1.643411E-07,-1.12817E-07,1.309796E-08,-2.861022E-08
468.8972,-0.1485845,-1.188797E-08,NaN,-0.3270543,-1.346416E-07,NaN,0.6005041,-9.858544E-09,NaN,-0.3114698,1.482281E-05,-0.4793509,3.605294E-08,NaN,NaN,-0.02152573,3.213053E-10,1.643411E-07,-1.12817E-07,1.309796E-08,-2.861022E-08
468.9125,-0.1614075,-1.188708E-08,NaN,-0.3270492,-1.346416E-07,NaN,0.606545,-9.659908E-09,NaN,-0.3114422,1.482334E-05,-0.4842182,3.585604E-08,NaN,NaN,-0.0214879,3.119921E-10,1.652352E-07,-1.128153E-07,1.309796E-08,-2.622604E-08
468.9291,-0.1744354,-1.188619E-08,NaN,-0.327042,-1.346416E-07,NaN,0.6124621,-9.465045E-09,NaN,-0.3114593,1.482388E-05,-0.4889798,3.566292E-08,NaN,NaN,-0.02145082,3.026789E-10,1.656822E-07,-1.128137E-07,1.548214E-08,-2.861022E-08
468.9449,-0.1875377,-1.188531E-08,NaN,-0.3270328,-1.346416E-07,NaN,0.618191,-9.271056E-09,NaN,-0.3115489,1.482441E-05,-0.493587,3.547068E-08,NaN,NaN,-0.02141451,3.026789E-10,1.640431E-07,-1.128121E-07,1.786633E-08,-2.622604E-08
468.9608,-0.2013601,-1.188442E-08,NaN,-0.3270246,-1.346416E-07,NaN,0.6246853,-9.080749E-09,NaN,-0.3113361,1.482494E-05,-0.498873,3.528211E-08,NaN,NaN,-0.0213776,2.933657E-10,1.685135E-07,-1.128104E-07,1.786633E-08,-2.861022E-08
468.9765,-0.2013601,-1.188442E-08,NaN,-0.3270246,-1.346416E-07,NaN,0.6246853,-9.080749E-09,NaN,-0.3113361,1.482494E-05,-0.498873,3.528211E-08,NaN,NaN,-0.0213776,2.933657E-10,1.685135E-07,-1.128104E-07,1.786633E-08,-2.861022E-08
468.9918,-0.2155776,-1.188353E-08,NaN,-0.3270147,-1.346417E-07,NaN,0.6312822,-8.891227E-09,NaN,-0.3110791,1.482548E-05,-0.5042492,3.509433E-08,NaN,NaN,-0.02134117,2.840524E-10,1.691095E-07,-1.128088E-07,1.786633E-08,-2.622604E-08
469.0085,-0.2299839,-1.188264E-08,NaN,-0.3270025,-1.346417E-07,NaN,0.63775,-8.705298E-09,NaN,-0.3108749,1.482601E-05,-0.5095177,3.491015E-08,NaN,NaN,-0.02130546,2.747392E-10,1.707486E-07,-1.128072E-07,1.309796E-08,-2.861022E-08
469.0246,-0.2444486,-1.188175E-08,NaN,-0.3269882,-1.346417E-07,NaN,0.6440231,-8.520071E-09,NaN,-0.310751,1.482655E-05,-0.5146281,3.472667E-08,NaN,NaN,-0.02127048,2.65426E-10,1.691095E-07,-1.128056E-07,8.329586E-09,-2.622604E-08
469.0403,-0.2596177,-1.188087E-08,NaN,-0.3269747,-1.346417E-07,NaN,0.6510838,-8.338353E-09,NaN,-0.3103388,1.482709E-05,-0.5204445,3.454669E-08,NaN,NaN,-0.02123478,2.467996E-10,1.705996E-07,-1.128039E-07,3.561214E-09,-2.861022E-08
469.0563,-0.2596177,-1.188087E-08,NaN,-0.3269747,-1.346417E-07,NaN,0.6510838,-8.338353E-09,NaN,-0.3103388,1.482709E-05,-0.5204445,3.454669E-08,NaN,NaN,-0.02123478,2.467996E-10,1.705996E-07,-1.128039E-07,3.561214E-09,-2.861022E-08
469.0713,-0.2751662,-1.187998E-08,NaN,-0.3269595,-1.346417E-07,NaN,0.6582481,-8.157252E-09,NaN,-0.3098918,1.482761E-05,-0.5263557,3.436734E-08,NaN,NaN,-0.02119953,2.421429E-10,1.711957E-07,-1.128023E-07,3.561214E-09,-2.622604E-08
469.0882,-0.2908882,-1.187909E-08,NaN,-0.3269419,-1.346417E-07,NaN,0.6652778,-7.979582E-09,NaN,-0.3095053,1.482815E-05,-0.5321569,3.419142E-08,NaN,NaN,-0.02116498,2.281731E-10,1.725368E-07,-1.128007E-07,1.177029E-09,-2.861022E-08
469.1038,-0.3066534,-1.18782E-08,NaN,-0.3269221,-1.346417E-07,NaN,0.6721063,-7.802448E-09,NaN,-0.3092063,1.482867E-05,-0.5377955,3.401603E-08,NaN,NaN,-0.02113112,2.235165E-10,1.741759E-07,-1.127991E-07,1.177029E-09,-2.622604E-08
469.1201,-0.3231079,-1.187731E-08,NaN,-0.3269033,-1.346417E-07,NaN,0.6797487,-7.628667E-09,NaN,-0.3086335,1.482921E-05,-0.5441709,3.384399E-08,NaN,NaN,-0.02109642,2.142033E-10,1.784972E-07,-1.127976E-07,-3.591343E-09,-2.861022E-08
469.136,-0.3231079,-1.187731E-08,NaN,-0.3269033,-1.346417E-07,NaN,0.6797487,-7.628667E-09,NaN,-0.3086335,1.482921E-05,-0.5441709,3.384399E-08,NaN,NaN,-0.02109642,2.142033E-10,1.784972E-07,-1.127976E-07,-3.591343E-09,-2.861022E-08
469.1512,-0.3399271,-1.187642E-08,NaN,-0.3268826,-1.346417E-07,NaN,0.6874964,-7.455348E-09,NaN,-0.308035,1.482974E-05,-0.5506461,3.367241E-08,NaN,NaN,-0.02106214,2.0489E-10,1.790933E-07,-1.12796E-07,-3.591343E-09,-2.622604E-08
469.1679,-0.356905,-1.187554E-08,NaN,-0.3268594,-1.346417E-07,NaN,0.6951042,-7.28531E-09,NaN,-0.3075045,1.483027E-05,-0.5570083,3.350412E-08,NaN,NaN,-0.02102854,1.955768E-10,1.784972E-07,-1.127944E-07,-3.591343E-09,-2.861022E-08
469.1836,-0.3739116,-1.187465E-08,NaN,-0.326834,-1.346417E-07,NaN,0.7025035,-7.11848E-09,NaN,-0.3070683,1.48308E-05,-0.5632026,3.333903E-08,NaN,NaN,-0.02099561,1.862636E-10,1.804344E-07,-1.127928E-07,1.177029E-09,-2.622604E-08
469.1996,-0.3739116,-1.187465E-08,NaN,-0.326834,-1.346417E-07,NaN,0.7025035,-7.11848E-09,NaN,-0.3070683,1.48308E-05,-0.5632026,3.333903E-08,NaN,NaN,-0.02099561,1.862636E-10,1.804344E-07,-1.127928E-07,1.177029E-09,-2.622604E-08
469.2147,-0.3915932,-1.187376E-08,NaN,-0.3268096,-1.346417E-07,NaN,0.7107464,-6.951978E-09,NaN,-0.3063734,1.483133E-05,-0.5701672,3.317428E-08,NaN,NaN,-0.02096171,1.722937E-10,1.857988E-07,-1.127913E-07,1.177029E-09,-2.861022E-08
469.2314,-0.4096253,-1.187287E-08,NaN,-0.3267833,-1.346417E-07,NaN,0.719097,-6.78862E-09,NaN,-0.3056617,1.483186E-05,-0.5772371,3.301266E-08,NaN,NaN,-0.0209282,1.676371E-10,1.919083E-07,-1.127897E-07,-1.207157E-09,-2.622604E-08
469.2473,-0.4278021,-1.187198E-08,NaN,-0.3267544,-1.346417E-07,NaN,0.7273016,-6.625517E-09,NaN,-0.3050251,1.483239E-05,-0.5841898,3.285131E-08,NaN,NaN,-0.02089535,1.583239E-10,2.01594E-07,-1.127882E-07,-3.591343E-09,-2.861022E-08
469.2634,-0.4459938,-1.18711E-08,NaN,-0.3267234,-1.346417E-07,NaN,0.7352898,-6.465493E-09,NaN,-0.3044891,1.483292E-05,-0.5909684,3.269303E-08,NaN,NaN,-0.02086317,1.536673E-10,2.080015E-07,-1.127866E-07,1.177029E-09,-2.622604E-08
469.2793,-0.4459938,-1.18711E-08,NaN,-0.3267234,-1.346417E-07,NaN,0.7352898,-6.465493E-09,NaN,-0.3044891,1.483292E-05,-0.5909684,3.269303E-08,NaN,NaN,-0.02086317,1.536673E-10,2.080015E-07,-1.127866E-07,1.177029E-09,-2.622604E-08
469.2944,-0.4648468,-1.187021E-08,NaN,-0.3266934,-1.346417E-07,NaN,0.7441538,-6.30566E-09,NaN,-0.3037103,1.483345E-05,-0.5985532,3.253494E-08,NaN,NaN,-0.0208299,1.443541E-10,2.129189E-07,-1.127851E-07,3.561214E-09,-2.861022E-08
469.3111,-0.4840367,-1.186932E-08,NaN,-0.3266615,-1.346417E-07,NaN,0.7531276,-6.148841E-09,NaN,-0.3029236,1.483398E-05,-0.606248,3.237987E-08,NaN,NaN,-0.02079701,1.396974E-10,2.179853E-07,-1.127835E-07,8.329586E-09,-2.622604E-08
469.3271,-0.5033579,-1.186844E-08,NaN,-0.3266269,-1.346417E-07,NaN,0.7619483,-5.992152E-09,NaN,-0.3022187,1.483451E-05,-0.6138203,3.222492E-08,NaN,NaN,-0.02076479,1.303842E-10,2.242438E-07,-1.12782E-07,1.071377E-08,-2.861022E-08
469.3428,-0.5226809,-1.186755E-08,NaN,-0.3265903,-1.346407E-07,NaN,0.7705429,-6.381783E-09,NaN,-0.3016205,1.483502E-05,-0.62121,3.261631E-08,NaN,NaN,-0.02073323,1.396974E-10,2.26479E-07,-1.127824E-07,1.071377E-08,-2.861022E-08
469.3606,-0.542652,-1.186666E-08,NaN,-0.3265548,-1.346396E-07,NaN,0.7800474,-6.735479E-09,NaN,-0.300796,1.483554E-05,-0.6294435,3.297176E-08,NaN,NaN,-0.02070046,1.443541E-10,2.315454E-07,-1.12783E-07,5.9454E-09,-2.861022E-08
469.3747,-0.542652,-1.186666E-08,NaN,-0.3265548,-1.346396E-07,NaN,0.7800474,-6.735479E-09,NaN,-0.300796,1.483554E-05,-0.6294435,3.297176E-08,NaN,NaN,-0.02070046,1.443541E-10,2.315454E-07,-1.12783E-07,5.9454E-09,-2.861022E-08
469.39,-0.5629472,-1.186578E-08,NaN,-0.3265172,-1.346386E-07,NaN,0.7896628,-7.068032E-09,NaN,-0.2999727,1.483605E-05,-0.6377904,3.330608E-08,NaN,NaN,-0.02066806,1.536673E-10,2.373568E-07,-1.127836E-07,1.309796E-08,-2.861022E-08
469.4063,-0.583361,-1.186489E-08,NaN,-0.3264771,-1.346377E-07,NaN,0.7991162,-7.388321E-09,NaN,-0.2992376,1.483656E-05,-0.6460075,3.362813E-08,NaN,NaN,-0.02063636,1.629805E-10,2.406351E-07,-1.127842E-07,1.309796E-08,-2.861022E-08
469.4223,-0.6037638,-1.1864E-08,NaN,-0.3264349,-1.346367E-07,NaN,0.8083315,-7.699406E-09,NaN,-0.298615,1.483707E-05,-0.6540314,3.394099E-08,NaN,NaN,-0.02060533,1.722937E-10,2.449564E-07,-1.127848E-07,1.309796E-08,-2.861022E-08
469.4383,-0.6037638,-1.1864E-08,NaN,-0.3264349,-1.346367E-07,NaN,0.8083315,-7.699406E-09,NaN,-0.298615,1.483707E-05,-0.6540314,3.394099E-08,NaN,NaN,-0.02060533,1.722937E-10,2.449564E-07,-1.127848E-07,1.309796E-08,-2.861022E-08
469.4536,-0.6248024,-1.186312E-08,NaN,-0.3263939,-1.346358E-07,NaN,0.8184913,-8.001465E-09,NaN,-0.2977835,1.483758E-05,-0.6629366,3.424481E-08,NaN,NaN,-0.02057297,1.81607E-10,2.534501E-07,-1.127854E-07,1.548214E-08,-2.861022E-08
469.4702,-0.6461526,-1.186223E-08,NaN,-0.3263508,-1.34635E-07,NaN,0.8287618,-8.204383E-09,NaN,-0.2969621,1.48381E-05,-0.6719572,3.44495E-08,NaN,NaN,-0.02054101,1.862636E-10,2.661161E-07,-1.127857E-07,1.548214E-08,-2.622604E-08
469.486,-0.6676093,-1.186135E-08,NaN,-0.3263052,-1.346342E-07,NaN,0.8388583,-8.408853E-09,NaN,-0.2962353,1.483861E-05,-0.6808376,3.465574E-08,NaN,NaN,-0.02050977,1.955768E-10,2.737157E-07,-1.127861E-07,2.025051E-08,-2.861022E-08
469.5015,-0.689043,-1.186046E-08,NaN,-0.3262576,-1.346334E-07,NaN,0.848702,-8.612028E-09,NaN,-0.2956263,1.483913E-05,-0.6895112,3.486069E-08,NaN,NaN,-0.02047923,2.002334E-10,2.836994E-07,-1.127864E-07,2.025051E-08,-2.622604E-08
469.5173,-0.689043,-1.186046E-08,NaN,-0.3262576,-1.346334E-07,NaN,0.848702,-8.612028E-09,NaN,-0.2956263,1.483913E-05,-0.6895112,3.486069E-08,NaN,NaN,-0.02047923,2.002334E-10,2.836994E-07,-1.127864E-07,2.025051E-08,-2.622604E-08
469.5325,-0.7105935,-1.185958E-08,NaN,-0.3262096,-1.346325E-07,NaN,0.8586611,-8.811109E-09,NaN,-0.2950407,1.483964E-05,-0.6983173,3.506154E-08,NaN,NaN,-0.02044871,2.095467E-10,2.890639E-07,-1.127868E-07,2.025051E-08,-2.861022E-08
469.5489,-0.732127,-1.18587E-08,NaN,-0.3261608,-1.346317E-07,NaN,0.8684794,-9.006179E-09,NaN,-0.2945355,1.484016E-05,-0.707021,3.525838E-08,NaN,NaN,-0.02041875,2.142033E-10,2.941303E-07,-1.127871E-07,2.26347E-08,-2.622604E-08
469.5649,-0.7535596,-1.185781E-08,NaN,-0.3261115,-1.346309E-07,NaN,0.8780766,-9.200143E-09,NaN,-0.2941276,1.484067E-05,-0.7155506,3.545411E-08,NaN,NaN,-0.02038943,2.235165E-10,3.048591E-07,-1.127874E-07,1.786633E-08,-2.861022E-08
469.5805,-0.7748393,-1.185693E-08,NaN,-0.3260622,-1.346301E-07,NaN,0.8874357,-9.390198E-09,NaN,-0.2938172,1.484119E-05,-0.7238922,3.564594E-08,NaN,NaN,-0.02036075,2.281731E-10,3.123097E-07,-1.127878E-07,1.786633E-08,-2.622604E-08
469.5966,-0.7748393,-1.185693E-08,NaN,-0.3260622,-1.346301E-07,NaN,0.8874357,-9.390198E-09,NaN,-0.2938172,1.484119E-05,-0.7238922,3.564594E-08,NaN,NaN,-0.02036075,2.281731E-10,3.123097E-07,-1.127878E-07,1.786633E-08,-2.622604E-08
469.6115,-0.7959335,-1.185605E-08,NaN,-0.3260136,-1.346292E-07,NaN,0.8965595,-9.579243E-09,NaN,-0.2935982,1.48417E-05,-0.7320492,3.583676E-08,NaN,NaN,-0.0203327,2.328297E-10,3.197603E-07,-1.127881E-07,2.26347E-08,-2.861022E-08
469.6279,-0.8168231,-1.185516E-08,NaN,-0.325966,-1.346284E-07,NaN,0.9054551,-9.764475E-09,NaN,-0.2934633,1.484222E-05,-0.7400283,3.602376E-08,NaN,NaN,-0.02030529,2.374863E-10,3.284029E-07,-1.127884E-07,2.501888E-08,-2.622604E-08
469.6437,-0.8374965,-1.185428E-08,NaN,-0.3259197,-1.346276E-07,NaN,0.9141284,-9.945969E-09,NaN,-0.2934056,1.484273E-05,-0.7478347,3.620702E-08,NaN,NaN,-0.02027852,2.421429E-10,3.339164E-07,-1.127887E-07,2.978726E-08,-2.861022E-08
469.6596,-0.8374965,-1.185428E-08,NaN,-0.3259197,-1.346276E-07,NaN,0.9141284,-9.945969E-09,NaN,-0.2934056,1.484273E-05,-0.7478347,3.620702E-08,NaN,NaN,-0.02027852,2.421429E-10,3.339164E-07,-1.127887E-07,2.978726E-08,-2.861022E-08
469.6748,-0.8579475,-1.18534E-08,NaN,-0.325875,-1.346268E-07,NaN,0.9225836,-1.01238E-08,NaN,-0.2934193,1.484324E-05,-0.7554714,3.638662E-08,NaN,NaN,-0.02025241,2.467996E-10,3.321282E-07,-1.127891E-07,3.455563E-08,-2.622604E-08
469.6911,-0.8781732,-1.185251E-08,NaN,-0.325832,-1.34626E-07,NaN,0.9308228,-1.029803E-08,NaN,-0.2934994,1.484376E-05,-0.7629395,3.656263E-08,NaN,NaN,-0.02022696,2.514562E-10,3.42559E-07,-1.127894E-07,3.217144E-08,-2.861022E-08
469.7071,-0.8981727,-1.185163E-08,NaN,-0.3257908,-1.346252E-07,NaN,0.9388466,-1.046875E-08,NaN,-0.2936419,1.484427E-05,-0.7702386,3.673511E-08,NaN,NaN,-0.02020217,2.561128E-10,3.439002E-07,-1.127897E-07,2.14426E-08,-2.622604E-08
469.7229,-0.9179463,-1.185075E-08,NaN,-0.3257514,-1.346244E-07,NaN,0.9466553,-1.063601E-08,NaN,-0.2938433,1.484478E-05,-0.7773679,3.690414E-08,NaN,NaN,-0.02017805,2.607694E-10,3.458373E-07,-1.1279E-07,1.786632E-08,-2.861022E-08
469.7386,-0.9179463,-1.185075E-08,NaN,-0.3257514,-1.346244E-07,NaN,0.9466553,-1.063601E-08,NaN,-0.2938433,1.484478E-05,-0.7773679,3.690414E-08,NaN,NaN,-0.02017805,2.607694E-10,3.458373E-07,-1.1279E-07,1.786632E-08,-2.861022E-08
469.7538,-0.9374952,-1.184986E-08,NaN,-0.3257138,-1.346235E-07,NaN,0.9542484,-1.079988E-08,NaN,-0.2941005,1.48453E-05,-0.784326,3.706979E-08,NaN,NaN,-0.02015461,2.607694E-10,3.562681E-07,-1.127903E-07,1.905842E-08,-2.622604E-08
469.7701,-0.9568212,-1.184898E-08,NaN,-0.3256781,-1.346228E-07,NaN,0.961625,-1.096044E-08,NaN,-0.2944108,1.484581E-05,-0.7911109,3.723211E-08,NaN,NaN,-0.02013184,2.65426E-10,3.635697E-07,-1.127906E-07,2.025051E-08,-2.861022E-08
469.7859,-0.9759262,-1.18481E-08,NaN,-0.325644,-1.34622E-07,NaN,0.9687841,-1.111773E-08,NaN,-0.2947716,1.484633E-05,-0.7977207,3.739118E-08,NaN,NaN,-0.02010973,2.65426E-10,3.726594E-07,-1.12791E-07,2.382679E-08,-2.622604E-08
469.8017,-0.9948123,-1.184722E-08,NaN,-0.3256118,-1.346212E-07,NaN,0.9757249,-1.127467E-08,NaN,-0.2951807,1.484684E-05,-0.8041537,3.754989E-08,NaN,NaN,-0.0200883,2.700826E-10,3.747456E-07,-1.127913E-07,2.382679E-08,-2.861022E-08
469.8176,-0.9948123,-1.184722E-08,NaN,-0.3256118,-1.346212E-07,NaN,0.9757249,-1.127467E-08,NaN,-0.2951807,1.484684E-05,-0.8041537,3.754989E-08,NaN,NaN,-0.0200883,2.700826E-10,3.747456E-07,-1.127913E-07,2.382679E-08,-2.861022E-08
469.8329,-1.013482,-1.184634E-08,NaN,-0.3255812,-1.346204E-07,NaN,0.9824467,-1.142842E-08,NaN,-0.2956356,1.484736E-05,-0.8104084,3.770541E-08,NaN,NaN,-0.02006752,2.607694E-10,3.762357E-07,-1.127916E-07,2.025051E-08,-2.622604E-08
469.8491,-1.031937,-1.184545E-08,NaN,-0.3255523,-1.346196E-07,NaN,0.9889489,-1.157905E-08,NaN,-0.2961344,1.484788E-05,-0.8164831,3.785781E-08,NaN,NaN,-0.02004738,2.65426E-10,3.813021E-07,-1.127919E-07,1.905842E-08,-2.861022E-08
469.865,-1.050181,-1.184457E-08,NaN,-0.325525,-1.346188E-07,NaN,0.9952313,-1.172662E-08,NaN,-0.2966747,1.484839E-05,-0.822377,3.800715E-08,NaN,NaN,-0.0200279,2.65426E-10,3.887527E-07,-1.127922E-07,2.26347E-08,-2.622604E-08
469.8818,-1.068215,-1.184369E-08,NaN,-0.3254993,-1.34618E-07,NaN,1.001294,-1.187119E-08,NaN,-0.2972547,1.484891E-05,-0.8280888,3.815349E-08,NaN,NaN,-0.02000906,2.700826E-10,3.889017E-07,-1.127925E-07,2.14426E-08,-2.861022E-08
469.8966,-1.068215,-1.184369E-08,NaN,-0.3254993,-1.34618E-07,NaN,1.001294,-1.187119E-08,NaN,-0.2972547,1.484891E-05,-0.8280888,3.815349E-08,NaN,NaN,-0.02000906,2.700826E-10,3.889017E-07,-1.127925E-07,2.14426E-08,-2.861022E-08
469.9113,-1.086042,-1.184281E-08,NaN,-0.3254751,-1.346172E-07,NaN,1.007136,-1.201282E-08,NaN,-0.2978722,1.484942E-05,-0.8336177,3.82969E-08,NaN,NaN,-0.01999083,2.700826E-10,3.959052E-07,-1.127928E-07,1.905842E-08,-2.622604E-08
469.9281,-1.103664,-1.184193E-08,NaN,-0.3254524,-1.346164E-07,NaN,1.012758,-1.215157E-08,NaN,-0.2985255,1.484993E-05,-0.8389634,3.843741E-08,NaN,NaN,-0.01997324,2.747392E-10,3.967993E-07,-1.127931E-07,2.26347E-08,-2.861022E-08
469.9438,-1.121083,-1.184104E-08,NaN,-0.3254311,-1.346157E-07,NaN,1.018162,-1.228748E-08,NaN,-0.2992126,1.485045E-05,-0.8441257,3.85751E-08,NaN,NaN,-0.01995623,2.747392E-10,4.027597E-07,-1.127934E-07,2.382679E-08,-2.622604E-08
469.9599,-1.121083,-1.184104E-08,NaN,-0.3254311,-1.346157E-07,NaN,1.018162,-1.228748E-08,NaN,-0.2992126,1.485045E-05,-0.8441257,3.85751E-08,NaN,NaN,-0.01995623,2.747392E-10,4.027597E-07,-1.127934E-07,2.382679E-08,-2.622604E-08
469.9746,-1.138303,-1.184016E-08,NaN,-0.3254112,-1.346149E-07,NaN,1.023347,-1.242063E-08,NaN,-0.2999317,1.485096E-05,-0.8491044,3.871002E-08,NaN,NaN,-0.01993982,2.793958E-10,4.06187E-07,-1.127937E-07,2.382679E-08,-2.861022E-08
469.9911,-1.155325,-1.183928E-08,NaN,-0.3253927,-1.346141E-07,NaN,1.028315,-1.255105E-08,NaN,-0.3006811,1.485148E-05,-0.8538999,3.884221E-08,NaN,NaN,-0.019924,2.793958E-10,4.085712E-07,-1.12794E-07,2.14426E-08,-2.622604E-08
470.0068,-1.172151,-1.18384E-08,NaN,-0.3253755,-1.346133E-07,NaN,1.033067,-1.267881E-08,NaN,-0.3014589,1.485199E-05,-0.8585125,3.897174E-08,NaN,NaN,-0.01990875,2.840524E-10,4.099123E-07,-1.127943E-07,1.667423E-08,-2.861022E-08
470.0226,-1.188784,-1.183752E-08,NaN,-0.3253595,-1.346126E-07,NaN,1.037604,-1.280396E-08,NaN,-0.3022635,1.485251E-05,-0.8629426,3.909867E-08,NaN,NaN,-0.01989406,2.840524E-10,4.096142E-07,-1.127946E-07,1.786633E-08,-2.622604E-08
470.0384,-1.188784,-1.183752E-08,NaN,-0.3253595,-1.346126E-07,NaN,1.037604,-1.280396E-08,NaN,-0.3022635,1.485251E-05,-0.8629426,3.909867E-08,NaN,NaN,-0.01989406,2.840524E-10,4.096142E-07,-1.127946E-07,1.786633E-08,-2.622604E-08
470.0536,-1.205225,-1.183664E-08,NaN,-0.3253448,-1.346118E-07,NaN,1.041928,-1.292655E-08,NaN,-0.3030932,1.485302E-05,-0.8671913,3.922302E-08,NaN,NaN,-0.01987991,2.933656E-10,4.094652E-07,-1.127949E-07,1.905842E-08,-2.861022E-08
470.0701,-1.221478,-1.183576E-08,NaN,-0.3253313,-1.34611E-07,NaN,1.046041,-1.304664E-08,NaN,-0.3039466,1.485353E-05,-0.8712595,3.934488E-08,NaN,NaN,-0.01986629,2.980222E-10,4.096142E-07,-1.127952E-07,1.965446E-08,-2.622604E-08
470.086,-1.237544,-1.183488E-08,NaN,-0.3253189,-1.346103E-07,NaN,1.049944,-1.316427E-08,NaN,-0.304822,1.485403E-05,-0.8751482,3.946428E-08,NaN,NaN,-0.01985319,3.073355E-10,4.170648E-07,-1.127955E-07,1.786633E-08,-2.861022E-08
470.1017,-1.253425,-1.1834E-08,NaN,-0.3253076,-1.346095E-07,NaN,1.05364,-1.327949E-08,NaN,-0.305718,1.485454E-05,-0.878859,3.958127E-08,NaN,NaN,-0.01984059,3.166487E-10,4.19151E-07,-1.127958E-07,1.786633E-08,-2.622604E-08
470.1175,-1.253425,-1.1834E-08,NaN,-0.3253076,-1.346095E-07,NaN,1.05364,-1.327949E-08,NaN,-0.305718,1.485454E-05,-0.878859,3.958127E-08,NaN,NaN,-0.01984059,3.166487E-10,4.19151E-07,-1.127958E-07,1.786633E-08,-2.622604E-08
470.1325,-1.269124,-1.183312E-08,NaN,-0.3252975,-1.346088E-07,NaN,1.057131,-1.339234E-08,NaN,-0.3066331,1.485505E-05,-0.8823932,3.969589E-08,NaN,NaN,-0.01982849,3.259619E-10,4.227273E-07,-1.127961E-07,1.905842E-08,-2.861022E-08
470.1491,-1.284422,-1.183224E-08,NaN,-0.3252876,-1.34608E-07,NaN,1.060007,-1.350287E-08,NaN,-0.3076362,1.485556E-05,-0.8853679,3.98082E-08,NaN,NaN,-0.01981749,3.306185E-10,4.215352E-07,-1.127964E-07,1.965446E-08,-2.622604E-08
470.1652,-1.299403,-1.183136E-08,NaN,-0.3252791,-1.346073E-07,NaN,1.062572,-1.361114E-08,NaN,-0.3086768,1.485607E-05,-0.8880684,3.991823E-08,NaN,NaN,-0.01980699,3.399317E-10,4.154257E-07,-1.127967E-07,1.846237E-08,-2.861022E-08
470.1808,-1.314122,-1.183048E-08,NaN,-0.3252721,-1.34607E-07,NaN,1.064936,-1.356218E-08,NaN,-0.3097323,1.48566E-05,-0.8905969,3.987104E-08,NaN,NaN,-0.01979688,3.352751E-10,4.181079E-07,-1.127979E-07,1.905842E-08,-2.622604E-08
470.1966,-1.314122,-1.183048E-08,NaN,-0.3252721,-1.34607E-07,NaN,1.064936,-1.356218E-08,NaN,-0.3097323,1.48566E-05,-0.8905969,3.987104E-08,NaN,NaN,-0.01979688,3.352751E-10,4.181079E-07,-1.127979E-07,1.905842E-08,-2.622604E-08
470.2117,-1.328616,-1.18296E-08,NaN,-0.3252667,-1.346071E-07,NaN,1.067135,-1.340977E-08,NaN,-0.3107933,1.485712E-05,-0.8929847,3.972039E-08,NaN,NaN,-0.01978715,3.352751E-10,4.169158E-07,-1.127995E-07,1.965446E-08,-2.861022E-08
470.2283,-1.342178,-1.182872E-08,NaN,-0.3252603,-1.346074E-07,NaN,1.067826,-1.320386E-08,NaN,-0.3120846,1.485765E-05,-0.8939785,3.951623E-08,NaN,NaN,-0.01977973,3.306185E-10,4.145316E-07,-1.127997E-07,2.025051E-08,-2.622604E-08
470.2438,-1.355099,-1.182784E-08,NaN,-0.3252559,-1.346076E-07,NaN,1.068,-1.306955E-08,NaN,-0.3134479,1.485818E-05,-0.8945068,3.938367E-08,NaN,NaN,-0.01977285,3.306185E-10,4.111044E-07,-1.128012E-07,2.114458E-08,-2.861022E-08
470.2598,-1.355099,-1.182784E-08,NaN,-0.3252559,-1.346076E-07,NaN,1.068,-1.306955E-08,NaN,-0.3134479,1.485818E-05,-0.8945068,3.938367E-08,NaN,NaN,-0.01977285,3.306185E-10,4.111044E-07,-1.128012E-07,2.114458E-08,-2.861022E-08
470.2745,-1.367561,-1.182696E-08,NaN,-0.3252542,-1.34608E-07,NaN,1.068008,-1.287293E-08,NaN,-0.3148138,1.485872E-05,-0.8948967,3.91888E-08,NaN,NaN,-0.01976616,3.213053E-10,4.076771E-07,-1.128015E-07,2.114458E-08,-2.622604E-08
470.2908,-1.379684,-1.182608E-08,NaN,-0.325254,-1.346081E-07,NaN,1.067953,-1.274489E-08,NaN,-0.3161566,1.485925E-05,-0.8952412,3.906251E-08,NaN,NaN,-0.01975965,3.259619E-10,4.076771E-07,-1.12803E-07,2.054853E-08,-2.861022E-08
470.307,-1.390814,-1.18252E-08,NaN,-0.3252534,-1.346085E-07,NaN,1.066522,-1.255442E-08,NaN,-0.317699,1.485978E-05,-0.8943126,3.887378E-08,NaN,NaN,-0.01975521,3.166487E-10,4.020147E-07,-1.128032E-07,1.995249E-08,-2.622604E-08
470.3227,-1.401273,-1.182432E-08,NaN,-0.3252542,-1.346087E-07,NaN,1.064679,-1.243524E-08,NaN,-0.3192858,1.48603E-05,-0.8930141,3.875634E-08,NaN,NaN,-0.01975121,3.213053E-10,3.990344E-07,-1.128047E-07,1.920743E-08,-2.861022E-08
470.3384,-1.401273,-1.182432E-08,NaN,-0.3252542,-1.346087E-07,NaN,1.064679,-1.243524E-08,NaN,-0.3192858,1.48603E-05,-0.8930141,3.875634E-08,NaN,NaN,-0.01975121,3.213053E-10,3.990344E-07,-1.128047E-07,1.920743E-08,-2.861022E-08
470.3538,-1.411267,-1.182344E-08,NaN,-0.3252562,-1.346091E-07,NaN,1.062758,-1.225345E-08,NaN,-0.320852,1.486084E-05,-0.8916552,3.857629E-08,NaN,NaN,-0.01974729,3.166487E-10,3.963522E-07,-1.128049E-07,1.905842E-08,-2.622604E-08
470.37,-1.420925,-1.182256E-08,NaN,-0.3252591,-1.346092E-07,NaN,1.060849,-1.213996E-08,NaN,-0.3223769,1.486136E-05,-0.8903176,3.846453E-08,NaN,NaN,-0.01974342,3.259619E-10,3.965012E-07,-1.128064E-07,1.943095E-08,-2.861022E-08
470.386,-1.429605,-1.182168E-08,NaN,-0.3252614,-1.346096E-07,NaN,1.057658,-1.196375E-08,NaN,-0.3240889,1.486189E-05,-0.8877916,3.829006E-08,NaN,NaN,-0.01974141,3.166487E-10,3.92925E-07,-1.128066E-07,1.913292E-08,-2.622604E-08
470.4029,-1.437633,-1.182081E-08,NaN,-0.325265,-1.346098E-07,NaN,1.054124,-1.185854E-08,NaN,-0.3258341,1.486241E-05,-0.884956,3.818659E-08,NaN,NaN,-0.01973974,3.213053E-10,3.893487E-07,-1.128081E-07,1.898391E-08,-2.861022E-08
470.4178,-1.437633,-1.182081E-08,NaN,-0.325265,-1.346098E-07,NaN,1.054124,-1.185854E-08,NaN,-0.3258341,1.486241E-05,-0.884956,3.818659E-08,NaN,NaN,-0.01973974,3.213053E-10,3.893487E-07,-1.128081E-07,1.898391E-08,-2.861022E-08
470.4326,-1.445217,-1.181993E-08,NaN,-0.3252712,-1.346101E-07,NaN,1.05057,-1.169045E-08,NaN,-0.3275498,1.486294E-05,-0.8821115,3.802024E-08,NaN,NaN,-0.01973804,3.166487E-10,3.839843E-07,-1.128083E-07,1.860207E-08,-2.622604E-08
470.4487,-1.45249,-1.181905E-08,NaN,-0.3252799,-1.346103E-07,NaN,1.047082,-1.159039E-08,NaN,-0.3292161,1.486348E-05,-0.8793353,3.792191E-08,NaN,NaN,-0.0197363,3.166487E-10,3.777258E-07,-1.128098E-07,1.849031E-08,-2.861022E-08
470.4647,-1.458809,-1.181817E-08,NaN,-0.3252883,-1.346107E-07,NaN,1.042395,-1.142734E-08,NaN,-0.3310666,1.486401E-05,-0.8754458,3.77606E-08,NaN,NaN,-0.01973626,3.073355E-10,3.757886E-07,-1.1281E-07,1.789426E-08,-2.622604E-08
470.4799,-1.458809,-1.181817E-08,NaN,-0.3252883,-1.346107E-07,NaN,1.042395,-1.142734E-08,NaN,-0.3310666,1.486401E-05,-0.8754458,3.77606E-08,NaN,NaN,-0.01973626,3.073355E-10,3.757886E-07,-1.1281E-07,1.789426E-08,-2.622604E-08
470.4952,-1.464501,-1.181729E-08,NaN,-0.3252984,-1.346108E-07,NaN,1.037422,-1.133505E-08,NaN,-0.332945,1.486453E-05,-0.8712976,3.767004E-08,NaN,NaN,-0.01973647,3.073355E-10,3.716163E-07,-1.1281E-07,1.856482E-08,-2.861022E-08
470.5112,-1.469776,-1.181641E-08,NaN,-0.3253106,-1.346108E-07,NaN,1.032478,-1.127828E-08,NaN,-0.3347877,1.486506E-05,-0.8671823,3.761501E-08,NaN,NaN,-0.01973657,3.073355E-10,3.626756E-07,-1.128113E-07,1.781976E-08,-2.622604E-08
470.5274,-1.474765,-1.181553E-08,NaN,-0.3253249,-1.346111E-07,NaN,1.027644,-1.114359E-08,NaN,-0.3365751,1.486559E-05,-0.8631745,3.748205E-08,NaN,NaN,-0.01973655,3.026789E-10,3.595464E-07,-1.128115E-07,1.677668E-08,-2.861022E-08
470.5432,-1.478826,-1.181465E-08,NaN,-0.3253384,-1.346112E-07,NaN,1.021693,-1.107063E-08,NaN,-0.3385487,1.486612E-05,-0.858129,3.741083E-08,NaN,NaN,-0.01973807,2.980222E-10,3.532879E-07,-1.128114E-07,1.662766E-08,-2.622604E-08
470.5591,-1.478826,-1.181465E-08,NaN,-0.3253384,-1.346112E-07,NaN,1.021693,-1.107063E-08,NaN,-0.3385487,1.486612E-05,-0.858129,3.741083E-08,NaN,NaN,-0.01973807,2.980222E-10,3.532879E-07,-1.128114E-07,1.662766E-08,-2.622604E-08
470.5739,-1.482286,-1.181377E-08,NaN,-0.3253527,-1.346112E-07,NaN,1.015512,-1.102718E-08,NaN,-0.3405473,1.486665E-05,-0.8528728,3.736912E-08,NaN,NaN,-0.01973976,2.980222E-10,3.486685E-07,-1.128128E-07,1.632964E-08,-2.861022E-08
470.5905,-1.485354,-1.18129E-08,NaN,-0.3253682,-1.346115E-07,NaN,1.009403,-1.090272E-08,NaN,-0.3425062,1.486719E-05,-0.8476889,3.724641E-08,NaN,NaN,-0.01974131,2.88709E-10,3.42261E-07,-1.128129E-07,1.662766E-08,-2.622604E-08
470.6063,-1.488162,-1.181202E-08,NaN,-0.3253849,-1.346115E-07,NaN,1.003445,-1.083698E-08,NaN,-0.3444056,1.486772E-05,-0.842649,3.71824E-08,NaN,NaN,-0.01974266,2.793958E-10,3.380887E-07,-1.128128E-07,1.543557E-08,-2.861022E-08
470.6223,-1.490066,-1.181114E-08,NaN,-0.3254002,-1.346115E-07,NaN,0.9964536,-1.080061E-08,NaN,-0.3464963,1.486825E-05,-0.836648,3.714777E-08,NaN,NaN,-0.01974542,2.793958E-10,3.340654E-07,-1.128142E-07,1.483952E-08,-2.622604E-08
470.6379,-1.490066,-1.181114E-08,NaN,-0.3254002,-1.346115E-07,NaN,0.9964536,-1.080061E-08,NaN,-0.3464963,1.486825E-05,-0.836648,3.714777E-08,NaN,NaN,-0.01974542,2.793958E-10,3.340654E-07,-1.128142E-07,1.483952E-08,-2.622604E-08
470.6533,-1.491394,-1.181026E-08,NaN,-0.3254154,-1.346118E-07,NaN,0.9892825,-1.068027E-08,NaN,-0.3486109,1.486877E-05,-0.8304828,3.702917E-08,NaN,NaN,-0.01974829,2.840524E-10,3.273598E-07,-1.128143E-07,1.394545E-08,-2.861022E-08
470.6695,-1.492354,-1.180938E-08,NaN,-0.325431,-1.346118E-07,NaN,0.9822255,-1.061856E-08,NaN,-0.3506829,1.486929E-05,-0.8244263,3.69692E-08,NaN,NaN,-0.01975097,2.793958E-10,3.230385E-07,-1.128142E-07,1.305138E-08,-2.622604E-08
470.6854,-1.493078,-1.18085E-08,NaN,-0.3254471,-1.346118E-07,NaN,0.9753568,-1.058897E-08,NaN,-0.3526919,1.486982E-05,-0.8185474,3.694135E-08,NaN,NaN,-0.0197534,2.793958E-10,3.176741E-07,-1.128155E-07,1.275336E-08,-2.861022E-08
470.7012,-1.492923,-1.180763E-08,NaN,-0.3254611,-1.346121E-07,NaN,0.9675368,-1.047528E-08,NaN,-0.3548992,1.487035E-05,-0.811785,3.68294E-08,NaN,NaN,-0.01975711,2.747392E-10,3.097764E-07,-1.128157E-07,1.305138E-08,-2.622604E-08
470.7165,-1.492923,-1.180763E-08,NaN,-0.3254611,-1.346121E-07,NaN,0.9675368,-1.047528E-08,NaN,-0.3548992,1.487035E-05,-0.811785,3.68294E-08,NaN,NaN,-0.01975711,2.747392E-10,3.097764E-07,-1.128157E-07,1.305138E-08,-2.622604E-08
470.7318,-1.492216,-1.180675E-08,NaN,-0.3254744,-1.346121E-07,NaN,0.9595861,-1.04201E-08,NaN,-0.3571302,1.487088E-05,-0.8049024,3.677595E-08,NaN,NaN,-0.01976089,2.700826E-10,3.021768E-07,-1.128156E-07,1.245534E-08,-2.861022E-08
470.748,-1.491164,-1.180587E-08,NaN,-0.3254874,-1.346121E-07,NaN,0.9517863,-1.039407E-08,NaN,-0.3593161,1.48714E-05,-0.7981619,3.675167E-08,NaN,NaN,-0.01976444,2.65426E-10,2.933851E-07,-1.128154E-07,1.334941E-08,-2.622604E-08
470.7641,-1.4899,-1.180499E-08,NaN,-0.3255003,-1.34612E-07,NaN,0.944208,-1.038537E-08,NaN,-0.361436,1.487193E-05,-0.7916288,3.674471E-08,NaN,NaN,-0.01976771,2.65426E-10,2.875737E-07,-1.128167E-07,1.334941E-08,-2.861022E-08
470.7797,-1.4899,-1.180499E-08,NaN,-0.3255003,-1.34612E-07,NaN,0.944208,-1.038537E-08,NaN,-0.361436,1.487193E-05,-0.7916288,3.674471E-08,NaN,NaN,-0.01976771,2.65426E-10,2.875737E-07,-1.128167E-07,1.334941E-08,-2.861022E-08
470.7948,-1.48778,-1.180411E-08,NaN,-0.3255107,-1.346122E-07,NaN,0.9357561,-1.028652E-08,NaN,-0.3637628,1.487246E-05,-0.7842859,3.66476E-08,NaN,NaN,-0.01977213,2.607694E-10,2.807192E-07,-1.128168E-07,1.334941E-08,-2.622604E-08
470.8112,-1.48513,-1.180323E-08,NaN,-0.3255197,-1.346123E-07,NaN,0.9272178,-1.024024E-08,NaN,-0.3661137,1.487298E-05,-0.7768635,3.660306E-08,NaN,NaN,-0.01977658,2.65426E-10,2.735666E-07,-1.128167E-07,1.305138E-08,-2.861022E-08
470.8269,-1.482157,-1.180236E-08,NaN,-0.3255279,-1.346122E-07,NaN,0.918863,-1.022296E-08,NaN,-0.3684171,1.487351E-05,-0.7696125,3.658752E-08,NaN,NaN,-0.01978078,2.607694E-10,2.685002E-07,-1.128165E-07,1.126325E-08,-2.622604E-08
470.8426,-1.478994,-1.180148E-08,NaN,-0.3255355,-1.346121E-07,NaN,0.9107583,-1.022E-08,NaN,-0.3706516,1.487403E-05,-0.7625949,3.658631E-08,NaN,NaN,-0.01978466,2.561128E-10,2.644769E-07,-1.128163E-07,1.126325E-08,-2.861022E-08
470.8586,-1.478994,-1.180148E-08,NaN,-0.3255355,-1.346121E-07,NaN,0.9107583,-1.022E-08,NaN,-0.3706516,1.487403E-05,-0.7625949,3.658631E-08,NaN,NaN,-0.01978466,2.561128E-10,2.644769E-07,-1.128163E-07,1.126325E-08,-2.861022E-08
470.8736,-1.474996,-1.18006E-08,NaN,-0.3255404,-1.346119E-07,NaN,0.9018562,-1.022545E-08,NaN,-0.3731018,1.487456E-05,-0.7548404,3.65935E-08,NaN,NaN,-0.01978959,2.561128E-10,2.546421E-07,-1.128175E-07,1.245534E-08,-2.622604E-08
470.8901,-1.47049,-1.179972E-08,NaN,-0.3255434,-1.346121E-07,NaN,0.892908,-1.013483E-08,NaN,-0.3755763,1.487509E-05,-0.7470436,3.650463E-08,NaN,NaN,-0.01979453,2.514562E-10,2.480856E-07,-1.128176E-07,1.126325E-08,-2.861022E-08
470.9057,-1.465682,-1.179884E-08,NaN,-0.3255451,-1.346121E-07,NaN,0.8841712,-1.009663E-08,NaN,-0.3780007,1.487562E-05,-0.7394435,3.646817E-08,NaN,NaN,-0.01979919,2.467996E-10,2.412311E-07,-1.128175E-07,1.215732E-08,-2.622604E-08
470.9249,-1.460706,-1.179796E-08,NaN,-0.3255464,-1.346121E-07,NaN,0.8757089,-1.008445E-08,NaN,-0.3803532,1.487614E-05,-0.7320992,3.645773E-08,NaN,NaN,-0.01980352,2.421429E-10,2.346746E-07,-1.128173E-07,1.06672E-08,-2.861022E-08
470.9384,-1.460706,-1.179796E-08,NaN,-0.3255464,-1.346121E-07,NaN,0.8757089,-1.008445E-08,NaN,-0.3803532,1.487614E-05,-0.7320992,3.645773E-08,NaN,NaN,-0.01980352,2.421429E-10,2.346746E-07,-1.128173E-07,1.06672E-08,-2.861022E-08
470.9519,-1.454915,-1.179709E-08,NaN,-0.3255461,-1.346119E-07,NaN,0.8665229,-1.008649E-08,NaN,-0.382931,1.487667E-05,-0.7240889,3.646151E-08,NaN,NaN,-0.01980876,2.374863E-10,2.275221E-07,-1.128171E-07,1.036918E-08,-2.622604E-08
470.9685,-1.448637,-1.179621E-08,NaN,-0.3255445,-1.346118E-07,NaN,0.8573272,-1.009402E-08,NaN,-0.3855334,1.48772E-05,-0.7160706,3.647078E-08,NaN,NaN,-0.01981399,2.328297E-10,2.220086E-07,-1.128168E-07,9.773129E-09,-2.861022E-08
470.9843,-1.442078,-1.179533E-08,NaN,-0.3255422,-1.346116E-07,NaN,0.8483666,-1.010693E-08,NaN,-0.3880831,1.487772E-05,-0.7082704,3.648544E-08,NaN,NaN,-0.01981892,2.281731E-10,2.190284E-07,-1.128166E-07,9.177082E-09,-2.622604E-08
470.9999,-1.442078,-1.179533E-08,NaN,-0.3255422,-1.346116E-07,NaN,0.8483666,-1.010693E-08,NaN,-0.3880831,1.487772E-05,-0.7082704,3.648544E-08,NaN,NaN,-0.01981892,2.281731E-10,2.190284E-07,-1.128166E-07,9.177082E-09,-2.622604E-08
471.0153,-1.434643,-1.179445E-08,NaN,-0.3255369,-1.346114E-07,NaN,0.8387455,-1.01223E-08,NaN,-0.3908641,1.487824E-05,-0.6998644,3.650256E-08,NaN,NaN,-0.01982468,2.235165E-10,2.150051E-07,-1.128163E-07,1.06672E-08,-2.861022E-08
471.0315,-1.426686,-1.179357E-08,NaN,-0.3255293,-1.346112E-07,NaN,0.8291706,-1.014008E-08,NaN,-0.3936623,1.487876E-05,-0.6915017,3.652209E-08,NaN,NaN,-0.01983036,2.188599E-10,2.074055E-07,-1.12816E-07,1.126325E-08,-2.622604E-08
471.0471,-1.418436,-1.179269E-08,NaN,-0.3255201,-1.34611E-07,NaN,0.819878,-1.015741E-08,NaN,-0.3963969,1.487929E-05,-0.6834003,3.654116E-08,NaN,NaN,-0.01983571,2.142033E-10,2.020411E-07,-1.128157E-07,9.77313E-09,-2.861022E-08
471.0632,-1.410034,-1.179182E-08,NaN,-0.3255097,-1.346108E-07,NaN,0.8109187,-1.017434E-08,NaN,-0.3990453,1.48798E-05,-0.6756083,3.655985E-08,NaN,NaN,-0.01984068,2.188599E-10,1.962296E-07,-1.128155E-07,8.581037E-09,-2.622604E-08
471.0788,-1.410034,-1.179182E-08,NaN,-0.3255097,-1.346108E-07,NaN,0.8109187,-1.017434E-08,NaN,-0.3990453,1.48798E-05,-0.6756083,3.655985E-08,NaN,NaN,-0.01984068,2.188599E-10,1.962296E-07,-1.128155E-07,8.581037E-09,-2.622604E-08
471.0942,-1.400845,-1.179094E-08,NaN,-0.3254963,-1.346105E-07,NaN,0.8013753,-1.019084E-08,NaN,-0.4019272,1.488031E-05,-0.6672853,3.657809E-08,NaN,NaN,-0.01984639,2.235165E-10,1.905672E-07,-1.128152E-07,8.283014E-09,-2.861022E-08
471.1103,-1.391199,-1.179006E-08,NaN,-0.3254803,-1.346103E-07,NaN,0.7918928,-1.020691E-08,NaN,-0.404828,1.488082E-05,-0.6590202,3.659591E-08,NaN,NaN,-0.01985202,2.281731E-10,1.834146E-07,-1.128149E-07,7.388945E-09,-2.622604E-08
471.1263,-1.381306,-1.178918E-08,NaN,-0.3254625,-1.346101E-07,NaN,0.7826901,-1.022256E-08,NaN,-0.4076664,1.488133E-05,-0.6510141,3.661331E-08,NaN,NaN,-0.01985733,2.328297E-10,1.738779E-07,-1.128146E-07,9.475107E-09,-2.861022E-08
471.1419,-1.371299,-1.178831E-08,NaN,-0.3254436,-1.346099E-07,NaN,0.7738162,-1.023779E-08,NaN,-0.410419,1.488185E-05,-0.6433129,3.663029E-08,NaN,NaN,-0.01986228,2.374863E-10,1.691095E-07,-1.128143E-07,9.177084E-09,-2.622604E-08
471.1579,-1.371299,-1.178831E-08,NaN,-0.3254436,-1.346099E-07,NaN,0.7738162,-1.023779E-08,NaN,-0.410419,1.488185E-05,-0.6433129,3.663029E-08,NaN,NaN,-0.01986228,2.374863E-10,1.691095E-07,-1.128143E-07,9.177084E-09,-2.622604E-08
471.1727,-1.360533,-1.178743E-08,NaN,-0.3254215,-1.346097E-07,NaN,0.7644063,-1.025262E-08,NaN,-0.413416,1.488237E-05,-0.6351283,3.664688E-08,NaN,NaN,-0.01986789,2.328297E-10,1.62851E-07,-1.128141E-07,9.475107E-09,-2.861022E-08
471.1891,-1.349336,-1.178655E-08,NaN,-0.3253968,-1.346095E-07,NaN,0.7550719,-1.026706E-08,NaN,-0.4164336,1.488289E-05,-0.6270153,3.666306E-08,NaN,NaN,-0.01987342,2.281731E-10,1.559965E-07,-1.128138E-07,7.686968E-09,-2.622604E-08
471.2047,-1.337915,-1.178568E-08,NaN,-0.3253702,-1.346093E-07,NaN,0.7460217,-1.02811E-08,NaN,-0.4193866,1.488341E-05,-0.6191646,3.667886E-08,NaN,NaN,-0.01987865,2.235165E-10,1.518242E-07,-1.128135E-07,5.600805E-09,-2.861022E-08
471.2208,-1.326399,-1.17848E-08,NaN,-0.3253422,-1.346091E-07,NaN,0.7373028,-1.029193E-08,NaN,-0.4222503,1.488393E-05,-0.6116201,3.669144E-08,NaN,NaN,-0.01988352,2.188599E-10,1.467578E-07,-1.128133E-07,5.004759E-09,-2.622604E-08
471.2363,-1.326399,-1.17848E-08,NaN,-0.3253422,-1.346091E-07,NaN,0.7373028,-1.029193E-08,NaN,-0.4222503,1.488393E-05,-0.6116201,3.669144E-08,NaN,NaN,-0.01988352,2.188599E-10,1.467578E-07,-1.128133E-07,5.004759E-09,-2.622604E-08
471.2513,-1.314145,-1.178392E-08,NaN,-0.3253112,-1.346088E-07,NaN,0.7280995,-1.030245E-08,NaN,-0.4253658,1.488445E-05,-0.6036429,3.670371E-08,NaN,NaN,-0.01988897,2.142033E-10,1.404993E-07,-1.12813E-07,4.706735E-09,-2.861022E-08
471.2677,-1.301478,-1.178305E-08,NaN,-0.3252775,-1.346086E-07,NaN,0.7189882,-1.031266E-08,NaN,-0.4285006,1.488497E-05,-0.5957524,3.671567E-08,NaN,NaN,-0.01989434,2.095467E-10,1.339428E-07,-1.128127E-07,5.749817E-09,-2.622604E-08
471.2832,-1.288603,-1.178217E-08,NaN,-0.3252418,-1.346084E-07,NaN,0.7101661,-1.032256E-08,NaN,-0.4315667,1.488549E-05,-0.5881278,3.672731E-08,NaN,NaN,-0.01989941,2.048901E-10,1.300685E-07,-1.128125E-07,5.600805E-09,-2.861022E-08
471.2989,-1.288603,-1.178217E-08,NaN,-0.3252418,-1.346084E-07,NaN,0.7101661,-1.032256E-08,NaN,-0.4315667,1.488549E-05,-0.5881278,3.672731E-08,NaN,NaN,-0.01989941,2.048901E-10,1.300685E-07,-1.128125E-07,5.600805E-09,-2.861022E-08
471.3138,-1.275652,-1.178129E-08,NaN,-0.3252047,-1.346082E-07,NaN,0.7016771,-1.033216E-08,NaN,-0.4345386,1.488602E-05,-0.5808099,3.673867E-08,NaN,NaN,-0.01990414,2.002335E-10,1.223199E-07,-1.128122E-07,5.600805E-09,-2.622604E-08
471.3304,-1.261979,-1.178042E-08,NaN,-0.3251646,-1.34608E-07,NaN,0.6927516,-1.034146E-08,NaN,-0.4377678,1.488654E-05,-0.5731062,3.674972E-08,NaN,NaN,-0.01990938,1.955769E-10,1.163594E-07,-1.128119E-07,4.557724E-09,-2.861022E-08
471.346,-1.24791,-1.177954E-08,NaN,-0.3251217,-1.346078E-07,NaN,0.6839319,-1.035048E-08,NaN,-0.441014,1.488706E-05,-0.5655019,3.676049E-08,NaN,NaN,-0.01991453,1.909203E-10,1.074187E-07,-1.128117E-07,6.271358E-09,-2.622604E-08
471.3617,-1.233649,-1.177866E-08,NaN,-0.3250767,-1.346076E-07,NaN,0.6754035,-1.035921E-08,NaN,-0.4441869,1.488758E-05,-0.5581641,3.677097E-08,NaN,NaN,-0.0199194,1.862636E-10,9.967011E-08,-1.128114E-07,6.122346E-09,-2.861022E-08
471.3775,-1.233649,-1.177866E-08,NaN,-0.3250767,-1.346076E-07,NaN,0.6754035,-1.035921E-08,NaN,-0.4441869,1.488758E-05,-0.5581641,3.677097E-08,NaN,NaN,-0.0199194,1.862636E-10,9.967011E-08,-1.128114E-07,6.122346E-09,-2.861022E-08
471.3929,-1.219328,-1.177779E-08,NaN,-0.3250304,-1.346074E-07,NaN,0.6672071,-1.036766E-08,NaN,-0.4472603,1.48881E-05,-0.5511307,3.678118E-08,NaN,NaN,-0.01992393,1.81607E-10,9.728593E-08,-1.128111E-07,6.867404E-09,-2.622604E-08
471.4087,-1.204302,-1.177691E-08,NaN,-0.3249811,-1.346072E-07,NaN,0.6586172,-1.037575E-08,NaN,-0.4505953,1.488861E-05,-0.5437537,3.679102E-08,NaN,NaN,-0.0199289,1.81607E-10,9.072942E-08,-1.128109E-07,7.426198E-09,-2.861022E-08
471.4242,-1.188894,-1.177603E-08,NaN,-0.324929,-1.34607E-07,NaN,0.6501433,-1.038357E-08,NaN,-0.4539447,1.488912E-05,-0.5364849,3.680059E-08,NaN,NaN,-0.01993378,1.862636E-10,8.625906E-08,-1.128106E-07,7.016416E-09,-2.622604E-08
471.4414,-1.17331,-1.177516E-08,NaN,-0.3248747,-1.346068E-07,NaN,0.6419597,-1.038831E-08,NaN,-0.4572159,1.488963E-05,-0.5294805,3.680708E-08,NaN,NaN,-0.01993838,1.909203E-10,7.553023E-08,-1.128104E-07,7.20268E-09,-2.861022E-08
471.4557,-1.17331,-1.177516E-08,NaN,-0.3248747,-1.346068E-07,NaN,0.6419597,-1.038831E-08,NaN,-0.4572159,1.488963E-05,-0.5294805,3.680708E-08,NaN,NaN,-0.01993838,1.909203E-10,7.553023E-08,-1.128104E-07,7.20268E-09,-2.861022E-08
471.4706,-1.157682,-1.177428E-08,NaN,-0.3248191,-1.346066E-07,NaN,0.6341043,-1.039285E-08,NaN,-0.4603821,1.489013E-05,-0.5227753,3.681338E-08,NaN,NaN,-0.01994268,2.002335E-10,6.807965E-08,-1.128101E-07,8.320267E-09,-2.622604E-08
471.4877,-1.141363,-1.177341E-08,NaN,-0.3247607,-1.346064E-07,NaN,0.6258932,-1.03972E-08,NaN,-0.4638135,1.489064E-05,-0.5157636,3.681948E-08,NaN,NaN,-0.01994736,2.048901E-10,6.062907E-08,-1.128098E-07,7.873233E-09,-2.861022E-08
471.5032,-1.124677,-1.177253E-08,NaN,-0.3246994,-1.346062E-07,NaN,0.6178051,-1.040136E-08,NaN,-0.4672563,1.489114E-05,-0.5088658,3.682539E-08,NaN,NaN,-0.01995194,2.095467E-10,5.764884E-08,-1.128096E-07,6.830152E-09,-2.622604E-08
471.5189,-1.124677,-1.177253E-08,NaN,-0.3246994,-1.346062E-07,NaN,0.6178051,-1.040136E-08,NaN,-0.4672563,1.489114E-05,-0.5088658,3.682539E-08,NaN,NaN,-0.01995194,2.095467E-10,5.764884E-08,-1.128096E-07,6.830152E-09,-2.622604E-08
471.5339,-1.107831,-1.177166E-08,NaN,-0.324636,-1.34606E-07,NaN,0.6100039,-1.040534E-08,NaN,-0.4706159,1.489166E-05,-0.5022277,3.683111E-08,NaN,NaN,-0.01995626,2.048901E-10,4.990023E-08,-1.128093E-07,8.469279E-09,-2.861022E-08
471.5506,-1.090954,-1.177078E-08,NaN,-0.3245713,-1.346058E-07,NaN,0.6025246,-1.040913E-08,NaN,-0.4738652,1.489217E-05,-0.4958811,3.683666E-08,NaN,NaN,-0.01996028,2.095467E-10,4.602593E-08,-1.128091E-07,7.724221E-09,-2.622604E-08
471.5664,-1.073401,-1.176991E-08,NaN,-0.3245039,-1.346056E-07,NaN,0.5947227,-1.041274E-08,NaN,-0.4773822,1.489269E-05,-0.4892605,3.684202E-08,NaN,NaN,-0.01996464,2.048901E-10,4.185361E-08,-1.128088E-07,8.022244E-09,-2.861022E-08
471.5819,-1.055496,-1.176903E-08,NaN,-0.3244336,-1.346054E-07,NaN,0.5870478,-1.041617E-08,NaN,-0.4809078,1.489319E-05,-0.4827567,3.684721E-08,NaN,NaN,-0.0199689,2.095467E-10,3.708524E-08,-1.128086E-07,8.022244E-09,-2.622604E-08
471.598,-1.055496,-1.176903E-08,NaN,-0.3244336,-1.346054E-07,NaN,0.5870478,-1.041617E-08,NaN,-0.4809078,1.489319E-05,-0.4827567,3.684721E-08,NaN,NaN,-0.0199689,2.095467E-10,3.708524E-08,-1.128086E-07,8.022244E-09,-2.622604E-08
471.6129,-1.037444,-1.176816E-08,NaN,-0.3243612,-1.346052E-07,NaN,0.5796542,-1.041944E-08,NaN,-0.4843452,1.489371E-05,-0.4765055,3.685222E-08,NaN,NaN,-0.01997292,2.048901E-10,2.993268E-08,-1.128083E-07,9.214337E-09,-2.861022E-08
471.6295,-1.019376,-1.176728E-08,NaN,-0.3242877,-1.34605E-07,NaN,0.5725744,-1.042254E-08,NaN,-0.487667,1.489422E-05,-0.4705364,3.685708E-08,NaN,NaN,-0.01997666,2.095467E-10,2.754849E-08,-1.128081E-07,1.070445E-08,-2.622604E-08
471.6452,-1.000645,-1.176641E-08,NaN,-0.3242115,-1.346048E-07,NaN,0.5652008,-1.042547E-08,NaN,-0.4912588,1.489472E-05,-0.4643212,3.686176E-08,NaN,NaN,-0.0199807,2.142033E-10,1.979989E-08,-1.128078E-07,1.159852E-08,-2.861022E-08
471.6608,-0.9815752,-1.176553E-08,NaN,-0.3241325,-1.346046E-07,NaN,0.5579559,-1.042826E-08,NaN,-0.4948559,1.489523E-05,-0.4582233,3.68663E-08,NaN,NaN,-0.01998463,2.235165E-10,1.234931E-08,-1.128076E-07,1.338666E-08,-2.622604E-08
471.6766,-0.9815752,-1.176553E-08,NaN,-0.3241325,-1.346046E-07,NaN,0.5579559,-1.042826E-08,NaN,-0.4948559,1.489523E-05,-0.4582233,3.68663E-08,NaN,NaN,-0.01998463,2.235165E-10,1.234931E-08,-1.128076E-07,1.338666E-08,-2.622604E-08
471.6918,-0.9623727,-1.176466E-08,NaN,-0.3240514,-1.346044E-07,NaN,0.5509849,-1.042806E-08,NaN,-0.4983601,1.489574E-05,-0.4523692,3.686785E-08,NaN,NaN,-0.01998834,2.281731E-10,5.196752E-09,-1.128073E-07,1.040643E-08,-2.861022E-08
471.7082,-0.9431667,-1.176379E-08,NaN,-0.3239693,-1.346042E-07,NaN,0.5443184,-1.042775E-08,NaN,-0.5017438,1.489624E-05,-0.4467865,3.68693E-08,NaN,NaN,-0.01999179,2.374864E-10,-4.656893E-10,-1.128071E-07,1.219457E-08,-2.622604E-08
471.724,-0.9233113,-1.176291E-08,NaN,-0.3238846,-1.34604E-07,NaN,0.5373827,-1.042735E-08,NaN,-0.505399,1.489675E-05,-0.4409816,3.687065E-08,NaN,NaN,-0.01999549,2.42143E-10,-7.618246E-09,-1.128068E-07,1.100248E-08,-2.861022E-08
471.7399,-0.9233113,-1.176291E-08,NaN,-0.3238846,-1.34604E-07,NaN,0.5373827,-1.042735E-08,NaN,-0.505399,1.489675E-05,-0.4409816,3.687065E-08,NaN,NaN,-0.01999549,2.42143E-10,-7.618246E-09,-1.128068E-07,1.100248E-08,-2.861022E-08
471.7552,-0.9031304,-1.176204E-08,NaN,-0.3237973,-1.346038E-07,NaN,0.5305755,-1.042686E-08,NaN,-0.5090564,1.489725E-05,-0.4352925,3.687191E-08,NaN,NaN,-0.0199991,2.514562E-10,-1.536685E-08,-1.128066E-07,1.100248E-08,-2.622604E-08
471.7713,-0.8828293,-1.176117E-08,NaN,-0.3237079,-1.346036E-07,NaN,0.5240335,-1.042909E-08,NaN,-0.5126165,1.489777E-05,-0.4298373,3.68759E-08,NaN,NaN,-0.02000249,2.467996E-10,-2.013522E-08,-1.128063E-07,1.159852E-08,-2.861022E-08
471.7875,-0.8625375,-1.176029E-08,NaN,-0.3236175,-1.346034E-07,NaN,0.5177857,-1.043118E-08,NaN,-0.5160513,1.489827E-05,-0.4246416,3.687974E-08,NaN,NaN,-0.02000565,2.561128E-10,-2.818185E-08,-1.128061E-07,1.398271E-08,-2.622604E-08
471.8031,-0.8416088,-1.175942E-08,NaN,-0.3235248,-1.346032E-07,NaN,0.5112898,-1.043312E-08,NaN,-0.5197588,1.489878E-05,-0.4192442,3.688343E-08,NaN,NaN,-0.02000903,2.514562E-10,-4.099685E-08,-1.128059E-07,1.040643E-08,-2.861022E-08
471.8194,-0.8416088,-1.175942E-08,NaN,-0.3235248,-1.346032E-07,NaN,0.5112898,-1.043312E-08,NaN,-0.5197588,1.489878E-05,-0.4192442,3.688343E-08,NaN,NaN,-0.02000903,2.514562E-10,-4.099685E-08,-1.128059E-07,1.040643E-08,-2.861022E-08
471.8342,-0.820367,-1.175855E-08,NaN,-0.3234295,-1.34603E-07,NaN,0.5049207,-1.043492E-08,NaN,-0.5234657,1.489929E-05,-0.4139597,3.688698E-08,NaN,NaN,-0.02001231,2.561128E-10,-4.81494E-08,-1.128056E-07,9.810383E-09,-2.622604E-08
471.851,-0.7990173,-1.175767E-08,NaN,-0.3233322,-1.346028E-07,NaN,0.4988075,-1.043658E-08,NaN,-0.5270709,1.489981E-05,-0.4088981,3.689039E-08,NaN,NaN,-0.0200154,2.514562E-10,-5.530196E-08,-1.128054E-07,1.040643E-08,-2.861022E-08
471.867,-0.7776889,-1.17568E-08,NaN,-0.3232341,-1.346026E-07,NaN,0.4929771,-1.04381E-08,NaN,-0.5305465,1.490032E-05,-0.4040836,3.689366E-08,NaN,NaN,-0.02001826,2.561128E-10,-6.424266E-08,-1.128051E-07,1.040643E-08,-2.622604E-08
471.8825,-0.7557356,-1.175593E-08,NaN,-0.3231337,-1.346024E-07,NaN,0.4869169,-1.043949E-08,NaN,-0.5342959,1.490083E-05,-0.3990847,3.68968E-08,NaN,NaN,-0.02002133,2.514562E-10,-7.467347E-08,-1.128049E-07,1.279061E-08,-2.861022E-08
471.8987,-0.7557356,-1.175593E-08,NaN,-0.3231337,-1.346024E-07,NaN,0.4869169,-1.043949E-08,NaN,-0.5342959,1.490083E-05,-0.3990847,3.68968E-08,NaN,NaN,-0.02002133,2.514562E-10,-7.467347E-08,-1.128049E-07,1.279061E-08,-2.861022E-08
471.9135,-0.7334812,-1.175505E-08,NaN,-0.3230309,-1.346022E-07,NaN,0.4809804,-1.044074E-08,NaN,-0.5380417,1.490134E-05,-0.3941945,3.689981E-08,NaN,NaN,-0.02002431,2.607694E-10,-8.570032E-08,-1.128047E-07,1.636689E-08,-2.622604E-08
471.9304,-0.7111305,-1.175418E-08,NaN,-0.3229261,-1.34602E-07,NaN,0.4752899,-1.043904E-08,NaN,-0.5416821,1.490185E-05,-0.3895161,3.689986E-08,NaN,NaN,-0.0200271,2.561128E-10,-9.255486E-08,-1.128044E-07,1.398271E-08,-2.861022E-08
471.9474,-0.6888127,-1.175331E-08,NaN,-0.3228206,-1.346019E-07,NaN,0.4698708,-1.04401E-08,NaN,-0.5451888,1.490236E-05,-0.3850718,3.690267E-08,NaN,NaN,-0.02002969,2.607694E-10,-9.791928E-08,-1.128042E-07,9.214337E-09,-2.622604E-08
471.9624,-0.6658815,-1.175244E-08,NaN,-0.3227132,-1.346017E-07,NaN,0.4642372,-1.04382E-08,NaN,-0.5489699,1.490287E-05,-0.380458,3.690252E-08,NaN,NaN,-0.02003245,2.65426E-10,-1.056679E-07,-1.12804E-07,9.214337E-09,-2.861022E-08
471.9778,-0.6658815,-1.175244E-08,NaN,-0.3227132,-1.346017E-07,NaN,0.4642372,-1.04382E-08,NaN,-0.5489699,1.490287E-05,-0.380458,3.690252E-08,NaN,NaN,-0.02003245,2.65426E-10,-1.056679E-07,-1.12804E-07,9.214337E-09,-2.861022E-08
471.9928,-0.6426604,-1.175157E-08,NaN,-0.3226033,-1.346015E-07,NaN,0.4587234,-1.043623E-08,NaN,-0.5527451,1.490337E-05,-0.3759477,3.690231E-08,NaN,NaN,-0.02003513,2.747392E-10,-1.122244E-07,-1.128037E-07,1.040643E-08,-2.622604E-08
472.0093,-0.6193542,-1.175069E-08,NaN,-0.3224916,-1.346013E-07,NaN,0.4534454,-1.043421E-08,NaN,-0.5564113,1.490388E-05,-0.3716378,3.690203E-08,NaN,NaN,-0.02003765,2.793958E-10,-1.211651E-07,-1.128035E-07,9.214337E-09,-2.861022E-08
472.0251,-0.596092,-1.174982E-08,NaN,-0.3223793,-1.346011E-07,NaN,0.4484273,-1.043211E-08,NaN,-0.5599402,1.490438E-05,-0.3675493,3.690169E-08,NaN,NaN,-0.02003997,2.887091E-10,-1.259335E-07,-1.128032E-07,1.159852E-08,-2.622604E-08
472.041,-0.5723993,-1.174895E-08,NaN,-0.3222657,-1.346009E-07,NaN,0.4433143,-1.042996E-08,NaN,-0.5636467,1.490489E-05,-0.3633911,3.690129E-08,NaN,NaN,-0.02004237,2.933657E-10,-1.295097E-07,-1.12803E-07,1.159852E-08,-2.861022E-08
472.0568,-0.5723993,-1.174895E-08,NaN,-0.3222657,-1.346009E-07,NaN,0.4433143,-1.042996E-08,NaN,-0.5636467,1.490489E-05,-0.3633911,3.690129E-08,NaN,NaN,-0.02004237,2.933657E-10,-1.295097E-07,-1.12803E-07,1.159852E-08,-2.861022E-08
472.0721,-0.548535,-1.174808E-08,NaN,-0.3221508,-1.346008E-07,NaN,0.4383436,-1.042774E-08,NaN,-0.5673168,1.490539E-05,-0.3593542,3.690082E-08,NaN,NaN,-0.02004466,3.026789E-10,-1.369603E-07,-1.128028E-07,1.040643E-08,-2.622604E-08
472.0888,-0.5246627,-1.174721E-08,NaN,-0.3220352,-1.346006E-07,NaN,0.4335944,-1.042546E-08,NaN,-0.570874,1.490591E-05,-0.3555037,3.690029E-08,NaN,NaN,-0.02004681,2.980223E-10,-1.423247E-07,-1.128026E-07,9.214338E-09,-2.861022E-08
472.1044,-0.5008852,-1.174633E-08,NaN,-0.32192,-1.346004E-07,NaN,0.4290801,-1.042312E-08,NaN,-0.5742987,1.490642E-05,-0.3518512,3.68997E-08,NaN,NaN,-0.02004879,3.026789E-10,-1.476891E-07,-1.128023E-07,1.51748E-08,-2.622604E-08
472.1202,-0.4772669,-1.174546E-08,NaN,-0.3218063,-1.346002E-07,NaN,0.4247897,-1.042072E-08,NaN,-0.5775933,1.490693E-05,-0.3483879,3.689906E-08,NaN,NaN,-0.02005061,2.980223E-10,-1.551397E-07,-1.128021E-07,1.398271E-08,-2.861022E-08
472.1359,-0.4772669,-1.174546E-08,NaN,-0.3218063,-1.346002E-07,NaN,0.4247897,-1.042072E-08,NaN,-0.5775933,1.490693E-05,-0.3483879,3.689906E-08,NaN,NaN,-0.02005061,2.980223E-10,-1.551397E-07,-1.128021E-07,1.398271E-08,-2.861022E-08
472.1511,-0.4538476,-1.174459E-08,NaN,-0.3216949,-1.346E-07,NaN,0.420706,-1.041827E-08,NaN,-0.5807669,1.490744E-05,-0.3450991,3.689835E-08,NaN,NaN,-0.0200523,3.026789E-10,-1.613982E-07,-1.128019E-07,8.022245E-09,-2.622604E-08
472.1678,-0.4306516,-1.174372E-08,NaN,-0.3215867,-1.345998E-07,NaN,0.4168118,-1.041576E-08,NaN,-0.5838292,1.490796E-05,-0.3419701,3.689759E-08,NaN,NaN,-0.02005386,2.980223E-10,-1.655705E-07,-1.128017E-07,1.279062E-08,-2.861022E-08
472.1836,-0.4076932,-1.174285E-08,NaN,-0.3214821,-1.345996E-07,NaN,0.4130926,-1.041319E-08,NaN,-0.5867884,1.490846E-05,-0.3389879,3.689678E-08,NaN,NaN,-0.0200553,3.026789E-10,-1.697428E-07,-1.128014E-07,8.022245E-09,-2.622604E-08
472.1997,-0.4076932,-1.174285E-08,NaN,-0.3214821,-1.345996E-07,NaN,0.4130926,-1.041319E-08,NaN,-0.5867884,1.490846E-05,-0.3389879,3.689678E-08,NaN,NaN,-0.0200553,3.026789E-10,-1.697428E-07,-1.128014E-07,8.022245E-09,-2.622604E-08
472.2147,-0.3849804,-1.174198E-08,NaN,-0.3213816,-1.345995E-07,NaN,0.4095363,-1.040774E-08,NaN,-0.5896514,1.490898E-05,-0.3361417,3.689308E-08,NaN,NaN,-0.02005664,2.980223E-10,-1.742132E-07,-1.128012E-07,9.214338E-09,-2.861022E-08
472.2311,-0.3625174,-1.174111E-08,NaN,-0.3212853,-1.345993E-07,NaN,0.4061332,-1.04023E-08,NaN,-0.5924233,1.490948E-05,-0.3334227,3.688939E-08,NaN,NaN,-0.02005788,3.073355E-10,-1.789816E-07,-1.12801E-07,6.830152E-09,-2.622604E-08
472.247,-0.3403055,-1.174024E-08,NaN,-0.3211935,-1.345991E-07,NaN,0.4028751,-1.039685E-08,NaN,-0.5951082,1.491E-05,-0.3308232,3.688569E-08,NaN,NaN,-0.02005904,3.026789E-10,-1.834519E-07,-1.128008E-07,1.159852E-08,-2.861022E-08
472.2629,-0.3183448,-1.173937E-08,NaN,-0.3211062,-1.345989E-07,NaN,0.399755,-1.039141E-08,NaN,-0.5977093,1.49105E-05,-0.3283371,3.6882E-08,NaN,NaN,-0.02006012,3.119921E-10,-1.84942E-07,-1.128005E-07,1.159852E-08,-2.622604E-08
472.2791,-0.3183448,-1.173937E-08,NaN,-0.3211062,-1.345989E-07,NaN,0.399755,-1.039141E-08,NaN,-0.5977093,1.49105E-05,-0.3283371,3.6882E-08,NaN,NaN,-0.02006012,3.119921E-10,-1.84942E-07,-1.128005E-07,1.159852E-08,-2.622604E-08
472.2944,-0.296634,-1.17385E-08,NaN,-0.3210233,-1.345987E-07,NaN,0.3967668,-1.038598E-08,NaN,-0.6002292,1.491101E-05,-0.3259586,3.687832E-08,NaN,NaN,-0.02006113,3.166487E-10,-1.864322E-07,-1.128003E-07,6.830152E-09,-2.861022E-08
472.3109,-0.2751713,-1.173763E-08,NaN,-0.3209448,-1.345985E-07,NaN,0.3939052,-1.038055E-08,NaN,-0.6026702,1.491151E-05,-0.3236828,3.687463E-08,NaN,NaN,-0.02006206,3.213053E-10,-1.894124E-07,-1.128001E-07,6.830152E-09,-2.622604E-08
472.3267,-0.2539548,-1.173676E-08,NaN,-0.3208708,-1.345984E-07,NaN,0.391165,-1.037512E-08,NaN,-0.6050343,1.491202E-05,-0.3215051,3.687095E-08,NaN,NaN,-0.02006292,3.213053E-10,-1.926906E-07,-1.127999E-07,6.830152E-09,-2.861022E-08
472.3424,-0.2329819,-1.173589E-08,NaN,-0.320801,-1.345982E-07,NaN,0.3885417,-1.036969E-08,NaN,-0.6073232,1.491251E-05,-0.3194214,3.686728E-08,NaN,NaN,-0.02006373,3.259619E-10,-1.96863E-07,-1.127997E-07,4.445966E-09,-2.622604E-08
472.3586,-0.2329819,-1.173589E-08,NaN,-0.320801,-1.345982E-07,NaN,0.3885417,-1.036969E-08,NaN,-0.6073232,1.491251E-05,-0.3194214,3.686728E-08,NaN,NaN,-0.02006373,3.259619E-10,-1.96863E-07,-1.127997E-07,4.445966E-09,-2.622604E-08
472.3735,-0.2186234,-1.173502E-08,NaN,-0.320756,-1.34598E-07,NaN,0.3894161,-1.036426E-08,NaN,-0.6058421,1.491303E-05,-0.3200966,3.68636E-08,NaN,NaN,-0.02006228,3.166487E-10,-1.891144E-07,-1.127994E-07,9.214338E-09,-2.861022E-08
472.3904,-0.2084861,-1.173415E-08,NaN,-0.3207432,-1.345978E-07,NaN,0.3913111,-1.035884E-08,NaN,-0.6032321,1.491352E-05,-0.3216272,3.685993E-08,NaN,NaN,-0.0200601,3.213053E-10,-1.739152E-07,-1.127992E-07,6.830152E-09,-2.622604E-08
472.4065,-0.2010475,-1.173328E-08,NaN,-0.3207532,-1.345976E-07,NaN,0.3932531,-1.035342E-08,NaN,-0.6005251,1.491403E-05,-0.3232276,3.685626E-08,NaN,NaN,-0.0200579,3.213053E-10,-1.628883E-07,-1.12799E-07,4.445966E-09,-2.861022E-08
472.4225,-0.1953385,-1.173241E-08,NaN,-0.3207809,-1.345975E-07,NaN,0.3949374,-1.034801E-08,NaN,-0.5980642,1.491453E-05,-0.3246355,3.685259E-08,NaN,NaN,-0.0200559,3.259619E-10,-1.524575E-07,-1.127988E-07,4.445966E-09,-2.622604E-08
472.4382,-0.1953385,-1.173241E-08,NaN,-0.3207809,-1.345975E-07,NaN,0.3949374,-1.034801E-08,NaN,-0.5980642,1.491453E-05,-0.3246355,3.685259E-08,NaN,NaN,-0.0200559,3.259619E-10,-1.524575E-07,-1.127988E-07,4.445966E-09,-2.622604E-08
472.4554,-0.1907419,-1.173154E-08,NaN,-0.3208209,-1.345973E-07,NaN,0.3963218,-1.03426E-08,NaN,-0.5959129,1.491503E-05,-0.3258022,3.684893E-08,NaN,NaN,-0.02005415,3.259619E-10,-1.444109E-07,-1.127986E-07,4.445966E-09,-2.861022E-08
472.4699,-0.1868645,-1.173067E-08,NaN,-0.3208691,-1.345971E-07,NaN,0.3974535,-1.033719E-08,NaN,-0.5940361,1.491553E-05,-0.3267576,3.684527E-08,NaN,NaN,-0.02005261,3.306185E-10,-1.374073E-07,-1.127984E-07,4.445966E-09,-2.622604E-08
472.486,-0.1834561,-1.17298E-08,NaN,-0.3209224,-1.345969E-07,NaN,0.3983969,-1.032895E-08,NaN,-0.5923744,1.491603E-05,-0.3275509,3.683878E-08,NaN,NaN,-0.02005123,3.306185E-10,-1.304038E-07,-1.127981E-07,6.830152E-09,-2.861022E-08
472.5019,-0.180357,-1.172893E-08,NaN,-0.3209789,-1.345968E-07,NaN,0.3992089,-1.032078E-08,NaN,-0.590872,1.491653E-05,-0.3282278,3.683236E-08,NaN,NaN,-0.02004997,3.352751E-10,-1.235492E-07,-1.127979E-07,2.061781E-09,-2.622604E-08
472.5177,-0.180357,-1.172893E-08,NaN,-0.3209789,-1.345968E-07,NaN,0.3992089,-1.032078E-08,NaN,-0.590872,1.491653E-05,-0.3282278,3.683236E-08,NaN,NaN,-0.02004997,3.352751E-10,-1.235492E-07,-1.127979E-07,2.061781E-09,-2.622604E-08
472.5333,-0.1774655,-1.172806E-08,NaN,-0.3210371,-1.345966E-07,NaN,0.4025094,-1.031266E-08,NaN,-0.5894672,1.491703E-05,-0.3323774,3.682599E-08,NaN,NaN,-0.02005397,3.352751E-10,-1.624413E-07,-1.127977E-07,-3.224052E-10,-2.861022E-08
472.5495,-0.1747168,-1.172719E-08,NaN,-0.3210963,-1.345964E-07,NaN,0.4064452,-1.03046E-08,NaN,-0.5881191,1.491753E-05,-0.3380062,3.681968E-08,NaN,NaN,-0.02005417,3.399317E-10,-1.72425E-07,-1.127975E-07,4.445966E-09,-2.622604E-08
472.5655,-0.1720695,-1.172632E-08,NaN,-0.3211558,-1.345963E-07,NaN,0.410217,-1.029659E-08,NaN,-0.5868142,1.491803E-05,-0.3440302,3.681342E-08,NaN,NaN,-0.02005312,3.399317E-10,-1.692958E-07,-1.127973E-07,6.830152E-09,-2.861022E-08
472.5821,-0.1694969,-1.172546E-08,NaN,-0.3212154,-1.345961E-07,NaN,0.4136489,-1.028864E-08,NaN,-0.585547,1.491853E-05,-0.3500607,3.680722E-08,NaN,NaN,-0.02005178,3.445884E-10,-1.615472E-07,-1.127971E-07,4.445966E-09,-2.622604E-08
