JMolnar6/NonAnthroHands_User_Study/HandsLoggerWithURDF/tempdata/files/Reachy_PID0_JointMotion_gesture_10_48.csv
Time,r_shoulder,r_shoulder_x,r_upper_arm,r_forearm,r_wrist,r_wrist2hand,
698.629,-0.2811152,-3.22393E-09,NaN,-0.5881552,-1.329389E-07,NaN,-0.2890407,-4.533195E-07,NaN,-0.9802693,2.006391E-05,0.413276,8.104953E-08,NaN,NaN,-0.487558,-9.313746E-12,1.239138E-06,-1.111394E-07,-3.985035E-08,-2.622604E-08
698.6441,-0.2762848,-3.223194E-09,NaN,-0.5880128,-1.329374E-07,NaN,-0.2904551,-4.526659E-07,NaN,-0.9784874,2.006436E-05,0.4154398,8.023362E-08,NaN,NaN,-0.4874395,-9.313746E-12,1.223641E-06,-1.1114E-07,-4.074441E-08,-2.861022E-08
698.6591,-0.2762848,-3.223194E-09,NaN,-0.5880128,-1.329374E-07,NaN,-0.2904551,-4.526659E-07,NaN,-0.9784874,2.006436E-05,0.4154398,8.023362E-08,NaN,NaN,-0.4874395,-9.313746E-12,1.223641E-06,-1.1114E-07,-4.074441E-08,-2.861022E-08
698.673,-0.2713,-3.222458E-09,NaN,-0.587864,-1.329368E-07,NaN,-0.2919396,-4.53512E-07,NaN,-0.9766666,2.006481E-05,0.4175897,8.095007E-08,NaN,NaN,-0.4873233,-1.397036E-11,1.204567E-06,-1.111383E-07,-3.985035E-08,-2.622604E-08
698.6876,-0.2662433,-3.221722E-09,NaN,-0.587712,-1.329356E-07,NaN,-0.2934256,-4.527781E-07,NaN,-0.974813,2.006526E-05,0.419717,8.004683E-08,NaN,NaN,-0.4872094,-9.313746E-12,1.179533E-06,-1.111391E-07,-3.329383E-08,-2.861022E-08
698.702,-0.2611653,-3.220985E-09,NaN,-0.5875591,-1.329351E-07,NaN,-0.2948845,-4.535994E-07,NaN,-0.9729393,2.006572E-05,0.4218168,8.073295E-08,NaN,NaN,-0.4870977,-1.862697E-11,1.156883E-06,-1.111375E-07,-2.912151E-08,-2.622604E-08
698.717,-0.2611653,-3.220985E-09,NaN,-0.5875591,-1.329351E-07,NaN,-0.2948845,-4.535994E-07,NaN,-0.9729393,2.006572E-05,0.4218168,8.073295E-08,NaN,NaN,-0.4870977,-1.862697E-11,1.156883E-06,-1.111375E-07,-2.912151E-08,-2.622604E-08
698.7308,-0.2564393,-3.220249E-09,NaN,-0.5874199,-1.329339E-07,NaN,-0.2956883,-4.528423E-07,NaN,-0.9710084,2.006617E-05,0.4231547,7.980486E-08,NaN,NaN,-0.4870341,-1.862697E-11,1.123505E-06,-1.111384E-07,-2.196895E-08,-2.861022E-08
698.7462,-0.2519509,-3.219512E-09,NaN,-0.5872899,-1.329334E-07,NaN,-0.2963581,-4.536554E-07,NaN,-0.9691348,2.006662E-05,0.4244474,8.048149E-08,NaN,NaN,-0.4869718,-2.79402E-11,1.097279E-06,-1.111368E-07,-2.435314E-08,-2.622604E-08
698.7606,-0.2476287,-3.218776E-09,NaN,-0.5871662,-1.329322E-07,NaN,-0.2969647,-4.528899E-07,NaN,-0.9673182,2.006707E-05,0.4257043,7.954525E-08,NaN,NaN,-0.4869107,-2.328358E-11,1.071053E-06,-1.111377E-07,-2.494918E-08,-2.861022E-08
698.7755,-0.2476287,-3.218776E-09,NaN,-0.5871662,-1.329322E-07,NaN,-0.2969647,-4.528899E-07,NaN,-0.9673182,2.006707E-05,0.4257043,7.954525E-08,NaN,NaN,-0.4869107,-2.328358E-11,1.071053E-06,-1.111377E-07,-2.494918E-08,-2.861022E-08
698.7896,-0.2437701,-3.218039E-09,NaN,-0.5870605,-1.329318E-07,NaN,-0.2969195,-4.536994E-07,NaN,-0.9655014,2.006753E-05,0.4262021,8.021836E-08,NaN,NaN,-0.4868967,-3.259681E-11,1.04125E-06,-1.111361E-07,-2.554523E-08,-2.622604E-08
698.805,-0.2402137,-3.217302E-09,NaN,-0.5869664,-1.329311E-07,NaN,-0.2967609,-4.546232E-07,NaN,-0.9637812,2.006798E-05,0.4266593,8.103336E-08,NaN,NaN,-0.486883,-3.725342E-11,1.019793E-06,-1.111341E-07,-2.554523E-08,-2.861022E-08
698.8199,-0.2402137,-3.217302E-09,NaN,-0.5869664,-1.329311E-07,NaN,-0.2967609,-4.546232E-07,NaN,-0.9637812,2.006798E-05,0.4266593,8.103336E-08,NaN,NaN,-0.486883,-3.725342E-11,1.019793E-06,-1.111341E-07,-2.554523E-08,-2.861022E-08
698.8339,-0.236859,-3.216566E-09,NaN,-0.5868798,-1.329297E-07,NaN,-0.2965636,-4.539597E-07,NaN,-0.9621435,2.006843E-05,0.4270901,8.020947E-08,NaN,NaN,-0.4868695,-3.725342E-11,9.983349E-07,-1.111348E-07,-2.2565E-08,-2.622604E-08
698.8494,-0.2336434,-3.215829E-09,NaN,-0.5867982,-1.329291E-07,NaN,-0.2963581,-4.547957E-07,NaN,-0.9605702,2.006887E-05,0.4275025,8.091732E-08,NaN,NaN,-0.4868563,-3.259681E-11,9.792615E-07,-1.111331E-07,-2.435314E-08,-2.861022E-08
698.8641,-0.2308698,-3.215093E-09,NaN,-0.5867337,-1.329279E-07,NaN,-0.2955337,-4.540518E-07,NaN,-0.9589972,2.006932E-05,0.4271748,8.000617E-08,NaN,NaN,-0.4868893,-2.79402E-11,9.506513E-07,-1.111339E-07,-2.375709E-08,-2.622604E-08
698.879,-0.2308698,-3.215093E-09,NaN,-0.5867337,-1.329279E-07,NaN,-0.2955337,-4.540518E-07,NaN,-0.9589972,2.006932E-05,0.4271748,8.000617E-08,NaN,NaN,-0.4868893,-2.79402E-11,9.506513E-07,-1.111339E-07,-2.375709E-08,-2.622604E-08
698.8929,-0.2283801,-3.214356E-09,NaN,-0.5866799,-1.329274E-07,NaN,-0.294621,-4.548632E-07,NaN,-0.9575197,2.006977E-05,0.4268213,8.068401E-08,NaN,NaN,-0.4869216,-2.328358E-11,9.280015E-07,-1.111324E-07,-2.316104E-08,-2.861022E-08
698.9084,-0.2260763,-3.21362E-09,NaN,-0.5866328,-1.329262E-07,NaN,-0.2936895,-4.540962E-07,NaN,-0.9561226,2.007021E-05,0.4264567,7.974819E-08,NaN,NaN,-0.4869533,-1.862697E-11,9.08928E-07,-1.111332E-07,-2.435314E-08,-2.622604E-08
698.9241,-0.2238971,-3.212883E-09,NaN,-0.58659,-1.329258E-07,NaN,-0.2927668,-4.548997E-07,NaN,-0.9547877,2.007066E-05,0.4260888,8.041685E-08,NaN,NaN,-0.4869843,-1.397036E-11,8.898546E-07,-1.111317E-07,-2.137291E-08,-2.861022E-08
698.9378,-0.2238971,-3.212883E-09,NaN,-0.58659,-1.329258E-07,NaN,-0.2927668,-4.548997E-07,NaN,-0.9547877,2.007066E-05,0.4260888,8.041685E-08,NaN,NaN,-0.4869843,-1.397036E-11,8.898546E-07,-1.111317E-07,-2.137291E-08,-2.861022E-08
698.9518,-0.2221462,-3.212147E-09,NaN,-0.5865637,-1.329247E-07,NaN,-0.2912385,-4.541247E-07,NaN,-0.9534513,2.007111E-05,0.4249959,7.94733E-08,NaN,NaN,-0.4870606,-9.313746E-12,8.636285E-07,-1.111326E-07,-2.2565E-08,-2.622604E-08
698.9673,-0.2206663,-3.21141E-09,NaN,-0.5865474,-1.329243E-07,NaN,-0.2896369,-4.549247E-07,NaN,-0.9522085,2.007156E-05,0.4238904,8.013875E-08,NaN,NaN,-0.4871354,-9.313746E-12,8.409788E-07,-1.11131E-07,-2.196895E-08,-2.861022E-08
698.9818,-0.2193597,-3.210673E-09,NaN,-0.5865372,-1.329236E-07,NaN,-0.2880312,-4.558396E-07,NaN,-0.9510446,2.007201E-05,0.4227875,8.094624E-08,NaN,NaN,-0.4872088,-1.397036E-11,8.207132E-07,-1.111291E-07,-2.435314E-08,-2.622604E-08
698.998,-0.2193597,-3.210673E-09,NaN,-0.5865372,-1.329236E-07,NaN,-0.2880312,-4.558396E-07,NaN,-0.9510446,2.007201E-05,0.4227875,8.094624E-08,NaN,NaN,-0.4872088,-1.397036E-11,8.207132E-07,-1.111291E-07,-2.435314E-08,-2.622604E-08
699.0103,-0.2185074,-3.209937E-09,NaN,-0.5865437,-1.329222E-07,NaN,-0.2858228,-4.551679E-07,NaN,-0.9498925,2.007245E-05,0.4209676,8.011603E-08,NaN,NaN,-0.4873266,-9.313746E-12,7.93295E-07,-1.111298E-07,-1.839267E-08,-2.861022E-08
699.0258,-0.2179382,-3.2092E-09,NaN,-0.58656,-1.329217E-07,NaN,-0.2835539,-4.559951E-07,NaN,-0.9488437,2.00729E-05,0.4191447,8.081664E-08,NaN,NaN,-0.487442,-1.397036E-11,7.706453E-07,-1.111281E-07,-1.958477E-08,-2.622604E-08
699.0405,-0.2175456,-3.208464E-09,NaN,-0.5865822,-1.329204E-07,NaN,-0.2812962,-4.552427E-07,NaN,-0.9478797,2.007334E-05,0.4173355,7.989906E-08,NaN,NaN,-0.4875553,-9.313746E-12,7.527639E-07,-1.111289E-07,-1.898872E-08,-2.861022E-08
699.0551,-0.2175456,-3.208464E-09,NaN,-0.5865822,-1.329204E-07,NaN,-0.2812962,-4.552427E-07,NaN,-0.9478797,2.007334E-05,0.4173355,7.989906E-08,NaN,NaN,-0.4875553,-9.313746E-12,7.527639E-07,-1.111289E-07,-1.898872E-08,-2.861022E-08
699.0692,-0.2172634,-3.207727E-09,NaN,-0.5866077,-1.3292E-07,NaN,-0.2790768,-4.560455E-07,NaN,-0.9469799,2.00738E-05,0.415548,8.056993E-08,NaN,NaN,-0.4876662,-1.862697E-11,7.360746E-07,-1.111274E-07,-1.958477E-08,-2.622604E-08
699.0848,-0.2173912,-3.206991E-09,NaN,-0.5866487,-1.329189E-07,NaN,-0.2762764,-4.552701E-07,NaN,-0.9460785,2.007425E-05,0.4130583,7.96278E-08,NaN,NaN,-0.4878209,-1.397036E-11,7.134248E-07,-1.111283E-07,-2.018081E-08,-2.861022E-08
699.0996,-0.2173912,-3.206991E-09,NaN,-0.5866487,-1.329189E-07,NaN,-0.2762764,-4.552701E-07,NaN,-0.9460785,2.007425E-05,0.4130583,7.96278E-08,NaN,NaN,-0.4878209,-1.397036E-11,7.134248E-07,-1.111283E-07,-2.018081E-08,-2.861022E-08
699.1136,-0.2177705,-3.206254E-09,NaN,-0.5866987,-1.329185E-07,NaN,-0.2734323,-4.560652E-07,NaN,-0.9452697,2.00747E-05,0.4105802,8.028975E-08,NaN,NaN,-0.4879725,-1.862697E-11,6.955434E-07,-1.111267E-07,-2.018081E-08,-2.622604E-08
699.129,-0.2183027,-3.205517E-09,NaN,-0.5867535,-1.329178E-07,NaN,-0.2706121,-4.569726E-07,NaN,-0.9445379,2.007515E-05,0.408129,8.109099E-08,NaN,NaN,-0.4881212,-2.328358E-11,6.77662E-07,-1.111248E-07,-1.541244E-08,-2.861022E-08
699.1437,-0.2189265,-3.204781E-09,NaN,-0.5868111,-1.329164E-07,NaN,-0.2678415,-4.562926E-07,NaN,-0.9438645,2.007561E-05,0.4057122,8.025378E-08,NaN,NaN,-0.4882669,-2.79402E-11,6.597806E-07,-1.111255E-07,-1.36243E-08,-2.622604E-08
699.1584,-0.2189265,-3.204781E-09,NaN,-0.5868111,-1.329164E-07,NaN,-0.2678415,-4.562926E-07,NaN,-0.9438645,2.007561E-05,0.4057122,8.025378E-08,NaN,NaN,-0.4882669,-2.79402E-11,6.597806E-07,-1.111255E-07,-1.36243E-08,-2.622604E-08
699.1745,-0.2199454,-3.204044E-09,NaN,-0.5868834,-1.329159E-07,NaN,-0.2644977,-4.571098E-07,NaN,-0.9431841,2.007605E-05,0.4026018,8.094557E-08,NaN,NaN,-0.4884556,-2.328358E-11,6.347466E-07,-1.111239E-07,-1.183616E-08,-2.861022E-08
699.1889,-0.2212025,-3.203307E-09,NaN,-0.5869638,-1.329147E-07,NaN,-0.2611221,-4.563478E-07,NaN,-0.9425927,2.00765E-05,0.3995147,8.001976E-08,NaN,NaN,-0.4886406,-2.328358E-11,6.109048E-07,-1.111247E-07,-1.422035E-08,-2.622604E-08
699.2025,-0.2226004,-3.20257E-09,NaN,-0.5870486,-1.329143E-07,NaN,-0.2577817,-4.57141E-07,NaN,-0.9420756,2.007694E-05,0.3964658,8.068214E-08,NaN,NaN,-0.488822,-2.328358E-11,5.918313E-07,-1.111232E-07,-1.302826E-08,-2.861022E-08
699.2174,-0.2226004,-3.20257E-09,NaN,-0.5870486,-1.329143E-07,NaN,-0.2577817,-4.57141E-07,NaN,-0.9420756,2.007694E-05,0.3964658,8.068214E-08,NaN,NaN,-0.488822,-2.328358E-11,5.918313E-07,-1.111232E-07,-1.302826E-08,-2.861022E-08
699.2312,-0.2244201,-3.201834E-09,NaN,-0.5871489,-1.329131E-07,NaN,-0.2538692,-4.563554E-07,NaN,-0.9415638,2.007739E-05,0.3927267,7.973139E-08,NaN,NaN,-0.4890457,-1.862697E-11,5.656053E-07,-1.111241E-07,-1.004802E-08,-2.622604E-08
699.2466,-0.2264908,-3.201097E-09,NaN,-0.5872576,-1.329127E-07,NaN,-0.2499368,-4.571411E-07,NaN,-0.9411503,2.007784E-05,0.3890196,8.038518E-08,NaN,NaN,-0.489265,-1.397036E-11,5.441477E-07,-1.111225E-07,-1.064407E-08,-2.861022E-08
699.2611,-0.2287063,-3.20036E-09,NaN,-0.5873703,-1.329117E-07,NaN,-0.2460531,-4.563476E-07,NaN,-0.9408167,2.007829E-05,0.3853601,7.942695E-08,NaN,NaN,-0.4894799,-9.313746E-12,5.214979E-07,-1.111235E-07,-8.259885E-09,-2.622604E-08
699.2758,-0.2287063,-3.20036E-09,NaN,-0.5873703,-1.329117E-07,NaN,-0.2460531,-4.563476E-07,NaN,-0.9408167,2.007829E-05,0.3853601,7.942695E-08,NaN,NaN,-0.4894799,-9.313746E-12,5.214979E-07,-1.111235E-07,-8.259885E-09,-2.622604E-08
699.29,-0.2310007,-3.199623E-09,NaN,-0.5874847,-1.329113E-07,NaN,-0.242244,-4.571303E-07,NaN,-0.9405424,2.007873E-05,0.3817555,8.007812E-08,NaN,NaN,-0.4896906,-9.313746E-12,5.024244E-07,-1.11122E-07,-4.683606E-09,-2.861022E-08
699.3054,-0.2336751,-3.198886E-09,NaN,-0.5876129,-1.329107E-07,NaN,-0.2378811,-4.580288E-07,NaN,-0.9402592,2.007918E-05,0.3774696,8.087161E-08,NaN,NaN,-0.489943,-9.313746E-12,4.773905E-07,-1.111201E-07,-1.107328E-09,-2.622604E-08
699.3201,-0.2365707,-3.19815E-09,NaN,-0.5877482,-1.329093E-07,NaN,-0.2335129,-4.573405E-07,NaN,-0.9400631,2.007962E-05,0.373229,8.002822E-08,NaN,NaN,-0.4901905,-4.657133E-12,4.571249E-07,-1.111208E-07,6.808115E-10,-2.861022E-08
699.3348,-0.2365707,-3.19815E-09,NaN,-0.5877482,-1.329093E-07,NaN,-0.2335129,-4.573405E-07,NaN,-0.9400631,2.007962E-05,0.373229,8.002822E-08,NaN,NaN,-0.4901905,-4.657133E-12,4.571249E-07,-1.111208E-07,6.808115E-10,-2.861022E-08
699.3491,-0.2395891,-3.197413E-09,NaN,-0.5878867,-1.329088E-07,NaN,-0.2292039,-4.581516E-07,NaN,-0.9399388,2.008008E-05,0.3690473,8.071535E-08,NaN,NaN,-0.4904331,-1.397036E-11,4.368593E-07,-1.111192E-07,3.661043E-09,-2.622604E-08
699.3643,-0.2426693,-3.196676E-09,NaN,-0.588026,-1.329077E-07,NaN,-0.224978,-4.573828E-07,NaN,-0.939868,2.008053E-05,0.3649309,7.9785E-08,NaN,NaN,-0.4906709,-1.397036E-11,4.225542E-07,-1.1112E-07,4.853137E-09,-2.861022E-08
699.3793,-0.2426693,-3.196676E-09,NaN,-0.588026,-1.329077E-07,NaN,-0.224978,-4.573828E-07,NaN,-0.939868,2.008053E-05,0.3649309,7.9785E-08,NaN,NaN,-0.4906709,-1.397036E-11,4.225542E-07,-1.1112E-07,4.853137E-09,-2.861022E-08
699.393,-0.2461154,-3.195939E-09,NaN,-0.5881788,-1.329073E-07,NaN,-0.2202044,-4.581699E-07,NaN,-0.9397831,2.008097E-05,0.3601367,8.044293E-08,NaN,NaN,-0.4909498,-1.862697E-11,3.951361E-07,-1.111185E-07,7.237322E-09,-2.622604E-08
699.4086,-0.2497705,-3.195203E-09,NaN,-0.588338,-1.329062E-07,NaN,-0.2154355,-4.573784E-07,NaN,-0.9397816,2.008142E-05,0.3553984,7.948855E-08,NaN,NaN,-0.4912233,-1.397036E-11,3.748705E-07,-1.111194E-07,5.449183E-09,-2.861022E-08
699.423,-0.2535375,-3.194466E-09,NaN,-0.5884998,-1.329058E-07,NaN,-0.210735,-4.581581E-07,NaN,-0.9398491,2.008187E-05,0.3507283,8.013806E-08,NaN,NaN,-0.4914914,-2.328358E-11,3.522207E-07,-1.111179E-07,7.833369E-09,-2.622604E-08
699.4387,-0.2535375,-3.194466E-09,NaN,-0.5884998,-1.329058E-07,NaN,-0.210735,-4.581581E-07,NaN,-0.9398491,2.008187E-05,0.3507283,8.013806E-08,NaN,NaN,-0.4914914,-2.328358E-11,3.522207E-07,-1.111179E-07,7.833369E-09,-2.622604E-08
699.4532,-0.2576981,-3.193729E-09,NaN,-0.5886758,-1.329052E-07,NaN,-0.2054871,-4.590509E-07,NaN,-0.9399149,2.00823E-05,0.3453809,8.092709E-08,NaN,NaN,-0.4918,-1.862697E-11,3.236105E-07,-1.11116E-07,1.200569E-08,-2.861022E-08
699.4686,-0.2620815,-3.192992E-09,NaN,-0.5888584,-1.329038E-07,NaN,-0.2002549,-4.583569E-07,NaN,-0.9400731,2.008274E-05,0.3400976,8.00791E-08,NaN,NaN,-0.4921026,-1.862697E-11,2.997686E-07,-1.111168E-07,1.260174E-08,-2.622604E-08
699.4822,-0.2665819,-3.192256E-09,NaN,-0.5890435,-1.329034E-07,NaN,-0.1951034,-4.591598E-07,NaN,-0.9403059,2.008317E-05,0.3348911,8.075914E-08,NaN,NaN,-0.4923991,-1.397036E-11,2.806951E-07,-1.111152E-07,1.021755E-08,-2.861022E-08
699.4964,-0.2665819,-3.192256E-09,NaN,-0.5890435,-1.329034E-07,NaN,-0.1951034,-4.591598E-07,NaN,-0.9403059,2.008317E-05,0.3348911,8.075914E-08,NaN,NaN,-0.4923991,-1.397036E-11,2.806951E-07,-1.111152E-07,1.021755E-08,-2.861022E-08
699.5104,-0.2711337,-3.191519E-09,NaN,-0.5892288,-1.329022E-07,NaN,-0.1900564,-4.583835E-07,NaN,-0.9405932,2.008362E-05,0.3297674,7.982248E-08,NaN,NaN,-0.4926898,-1.397036E-11,2.628137E-07,-1.11116E-07,1.140965E-08,-2.622604E-08
699.5258,-0.2760386,-3.190783E-09,NaN,-0.5894268,-1.329018E-07,NaN,-0.1844777,-4.591626E-07,NaN,-0.9408648,2.008405E-05,0.3239709,8.047356E-08,NaN,NaN,-0.4930207,-1.397036E-11,2.353956E-07,-1.111145E-07,7.237322E-09,-2.861022E-08
699.5405,-0.281138,-3.190046E-09,NaN,-0.5896304,-1.329008E-07,NaN,-0.1789272,-4.583628E-07,NaN,-0.9412177,2.00845E-05,0.3182504,7.951232E-08,NaN,NaN,-0.4933449,-1.397036E-11,2.163221E-07,-1.111155E-07,6.045229E-09,-2.622604E-08
699.5551,-0.281138,-3.190046E-09,NaN,-0.5896304,-1.329008E-07,NaN,-0.1789272,-4.583628E-07,NaN,-0.9412177,2.00845E-05,0.3182504,7.951232E-08,NaN,NaN,-0.4933449,-1.397036E-11,2.163221E-07,-1.111155E-07,6.045229E-09,-2.622604E-08
699.5693,-0.2863337,-3.18931E-09,NaN,-0.5898358,-1.329004E-07,NaN,-0.1734656,-4.591348E-07,NaN,-0.9416373,2.008494E-05,0.3126165,8.015526E-08,NaN,NaN,-0.4936628,-1.397036E-11,1.936723E-07,-1.11114E-07,8.429415E-09,-2.861022E-08
699.5846,-0.291565,-3.188573E-09,NaN,-0.590041,-1.328998E-07,NaN,-0.168115,-4.600202E-07,NaN,-0.9421059,2.008538E-05,0.3070741,8.093785E-08,NaN,NaN,-0.4939744,-2.328358E-11,1.745988E-07,-1.111121E-07,6.04523E-09,-2.622604E-08
699.5994,-0.291565,-3.188573E-09,NaN,-0.590041,-1.328998E-07,NaN,-0.168115,-4.600202E-07,NaN,-0.9421059,2.008538E-05,0.3070741,8.093785E-08,NaN,NaN,-0.4939744,-2.328358E-11,1.745988E-07,-1.111121E-07,6.04523E-09,-2.622604E-08
699.6135,-0.2971366,-3.187837E-09,NaN,-0.5902584,-1.328985E-07,NaN,-0.1622369,-4.593187E-07,NaN,-0.9425538,2.008582E-05,0.300859,8.008374E-08,NaN,NaN,-0.4943257,-2.328358E-11,1.471807E-07,-1.111128E-07,6.641276E-09,-2.861022E-08
699.6288,-0.3028919,-3.187101E-09,NaN,-0.5904811,-1.32898E-07,NaN,-0.1563952,-4.601144E-07,NaN,-0.9430795,2.008626E-05,0.2947294,8.075759E-08,NaN,NaN,-0.49467,-3.259681E-11,1.233389E-07,-1.111113E-07,6.04523E-09,-2.622604E-08
699.6436,-0.3087339,-3.186365E-09,NaN,-0.5907052,-1.328969E-07,NaN,-0.1506496,-4.593305E-07,NaN,-0.9436693,2.00867E-05,0.2886944,7.981475E-08,NaN,NaN,-0.4950076,-3.259681E-11,1.018812E-07,-1.111122E-07,6.641276E-09,-2.861022E-08
699.6583,-0.3087339,-3.186365E-09,NaN,-0.5907052,-1.328969E-07,NaN,-0.1506496,-4.593305E-07,NaN,-0.9436693,2.00867E-05,0.2886944,7.981475E-08,NaN,NaN,-0.4950076,-3.259681E-11,1.018812E-07,-1.111122E-07,6.641276E-09,-2.861022E-08
699.6724,-0.3149448,-3.185628E-09,NaN,-0.5909424,-1.328965E-07,NaN,-0.1443768,-4.601025E-07,NaN,-0.9442511,2.008714E-05,0.2819856,8.045988E-08,NaN,NaN,-0.4953843,-4.656665E-11,7.923141E-08,-1.111107E-07,9.025461E-09,-2.622604E-08
699.6876,-0.321354,-3.184892E-09,NaN,-0.5911849,-1.328955E-07,NaN,-0.13815,-4.592955E-07,NaN,-0.9449195,2.008758E-05,0.27537,7.949289E-08,NaN,NaN,-0.4957535,-4.656665E-11,5.062118E-08,-1.111116E-07,9.621508E-09,-2.861022E-08
699.7034,-0.3278559,-3.184156E-09,NaN,-0.5914288,-1.328952E-07,NaN,-0.1320307,-4.600577E-07,NaN,-0.9456581,2.008802E-05,0.268857,8.012727E-08,NaN,NaN,-0.4961155,-5.587987E-11,2.677933E-08,-1.111102E-07,1.08136E-08,-2.622604E-08
699.7182,-0.3278559,-3.184156E-09,NaN,-0.5914288,-1.328952E-07,NaN,-0.1320307,-4.600577E-07,NaN,-0.9456581,2.008802E-05,0.268857,8.012727E-08,NaN,NaN,-0.4961155,-5.587987E-11,2.677933E-08,-1.111102E-07,1.08136E-08,-2.622604E-08
699.731,-0.3343852,-3.18342E-09,NaN,-0.5916718,-1.328946E-07,NaN,-0.12604,-4.609366E-07,NaN,-0.9464473,2.008845E-05,0.2624511,8.090431E-08,NaN,NaN,-0.4964703,-5.587987E-11,5.321654E-09,-1.111083E-07,1.08136E-08,-2.861022E-08
699.7467,-0.3412442,-3.182684E-09,NaN,-0.5919266,-1.328933E-07,NaN,-0.1195357,-4.602285E-07,NaN,-0.947215,2.008889E-05,0.2553726,8.004491E-08,NaN,NaN,-0.4968639,-6.053649E-11,-3.044113E-08,-1.11109E-07,9.025461E-09,-2.622604E-08
699.7608,-0.3482743,-3.181948E-09,NaN,-0.592186,-1.328928E-07,NaN,-0.1130875,-4.610178E-07,NaN,-0.9480589,2.008932E-05,0.2483978,8.071341E-08,NaN,NaN,-0.4972497,-5.587987E-11,-5.666717E-08,-1.111075E-07,7.237322E-09,-2.861022E-08
699.7756,-0.3482743,-3.181948E-09,NaN,-0.592186,-1.328928E-07,NaN,-0.1130875,-4.610178E-07,NaN,-0.9480589,2.008932E-05,0.2483978,8.071341E-08,NaN,NaN,-0.4972497,-5.587987E-11,-5.666717E-08,-1.111075E-07,7.237322E-09,-2.861022E-08
699.7895,-0.3553776,-3.181212E-09,NaN,-0.5924462,-1.328917E-07,NaN,-0.1067526,-4.602274E-07,NaN,-0.9489655,2.008976E-05,0.2415338,7.976555E-08,NaN,NaN,-0.4976279,-5.587987E-11,-7.812484E-08,-1.111084E-07,1.276858E-09,-2.622604E-08
699.8049,-0.3624937,-3.180476E-09,NaN,-0.5927052,-1.328914E-07,NaN,-0.1005511,-4.609903E-07,NaN,-0.9499173,2.009019E-05,0.2347843,8.040272E-08,NaN,NaN,-0.4979986,-5.587987E-11,-1.019667E-07,-1.111069E-07,8.476486E-11,-2.861022E-08
699.8198,-0.3624937,-3.180476E-09,NaN,-0.5927052,-1.328914E-07,NaN,-0.1005511,-4.609903E-07,NaN,-0.9499173,2.009019E-05,0.2347843,8.040272E-08,NaN,NaN,-0.4979986,-5.587987E-11,-1.019667E-07,-1.111069E-07,8.476486E-11,-2.861022E-08
699.8336,-0.3699279,-3.17974E-09,NaN,-0.5929757,-1.328903E-07,NaN,-0.09383859,-4.601766E-07,NaN,-0.9508436,2.009063E-05,0.2273601,7.943058E-08,NaN,NaN,-0.4984078,-6.053649E-11,-1.365374E-07,-1.111079E-07,-2.597444E-09,-2.622604E-08
699.8494,-0.3775236,-3.179004E-09,NaN,-0.5932506,-1.3289E-07,NaN,-0.08718847,-4.609327E-07,NaN,-0.9518429,2.009107E-05,0.2200476,8.006008E-08,NaN,NaN,-0.4988089,-6.053649E-11,-1.639555E-07,-1.111064E-07,-1.405351E-09,-2.861022E-08
699.8639,-0.3851839,-3.178268E-09,NaN,-0.5935259,-1.328895E-07,NaN,-0.08065706,-4.618059E-07,NaN,-0.9529026,2.009151E-05,0.2128531,8.083232E-08,NaN,NaN,-0.4992021,-6.984971E-11,-1.925658E-07,-1.111046E-07,-4.98163E-09,-2.622604E-08
699.8787,-0.3851839,-3.178268E-09,NaN,-0.5935259,-1.328895E-07,NaN,-0.08065706,-4.618059E-07,NaN,-0.9529026,2.009151E-05,0.2128531,8.083232E-08,NaN,NaN,-0.4992021,-6.984971E-11,-1.925658E-07,-1.111046E-07,-4.98163E-09,-2.622604E-08
699.8926,-0.3931917,-3.177533E-09,NaN,-0.5938136,-1.328882E-07,NaN,-0.07361466,-4.610918E-07,NaN,-0.9539495,2.009194E-05,0.2049821,7.996833E-08,NaN,NaN,-0.4996333,-6.984971E-11,-2.247523E-07,-1.111053E-07,-2.001398E-09,-2.861022E-08
699.9082,-0.4013764,-3.176797E-09,NaN,-0.5941057,-1.328877E-07,NaN,-0.06664336,-4.618754E-07,NaN,-0.9550787,2.009238E-05,0.1972304,8.063223E-08,NaN,NaN,-0.500056,-7.916293E-11,-2.569388E-07,-1.111038E-07,-2.132584E-10,-2.622604E-08
699.9229,-0.4096325,-3.176062E-09,NaN,-0.5943981,-1.328867E-07,NaN,-0.05980068,-4.610789E-07,NaN,-0.9562744,2.009281E-05,0.1896041,7.967977E-08,NaN,NaN,-0.5004703,-7.450632E-11,-2.867411E-07,-1.111047E-07,6.808112E-10,-2.861022E-08
699.9376,-0.4096325,-3.176062E-09,NaN,-0.5943981,-1.328867E-07,NaN,-0.05980068,-4.610789E-07,NaN,-0.9562744,2.009281E-05,0.1896041,7.967977E-08,NaN,NaN,-0.5004703,-7.450632E-11,-2.867411E-07,-1.111047E-07,6.808112E-10,-2.861022E-08
699.9529,-0.417895,-3.175326E-09,NaN,-0.594689,-1.328863E-07,NaN,-0.05310588,-4.618363E-07,NaN,-0.9575179,2.009325E-05,0.1821062,8.031251E-08,NaN,NaN,-0.5008764,-7.450632E-11,-3.159474E-07,-1.111033E-07,-1.703375E-09,-2.622604E-08
699.9683,-0.4264669,-3.17459E-09,NaN,-0.594991,-1.328857E-07,NaN,-0.04591142,-4.627054E-07,NaN,-0.9587367,2.009368E-05,0.1739304,8.10823E-08,NaN,NaN,-0.5013203,-7.450632E-11,-3.576706E-07,-1.111014E-07,-1.405351E-09,-2.861022E-08
699.9828,-0.4351895,-3.173855E-09,NaN,-0.5952967,-1.328845E-07,NaN,-0.03879568,-4.619878E-07,NaN,-0.9600277,2.009411E-05,0.1658826,8.021581E-08,NaN,NaN,-0.5017554,-7.450632E-11,-3.904532E-07,-1.111022E-07,-4.98163E-09,-2.622604E-08
699.9963,-0.4351895,-3.173855E-09,NaN,-0.5952967,-1.328845E-07,NaN,-0.03879568,-4.619878E-07,NaN,-0.9600277,2.009411E-05,0.1658826,8.021581E-08,NaN,NaN,-0.5017554,-7.450632E-11,-3.904532E-07,-1.111022E-07,-4.98163E-09,-2.622604E-08
700.0106,-0.443965,-3.17312E-09,NaN,-0.5956025,-1.32884E-07,NaN,-0.03181259,-4.627625E-07,NaN,-0.9613783,2.009454E-05,0.1579675,8.08717E-08,NaN,NaN,-0.5021819,-6.98497E-11,-4.238318E-07,-1.111006E-07,-2.001398E-09,-2.861022E-08
700.0258,-0.4527332,-3.172385E-09,NaN,-0.5959064,-1.328829E-07,NaN,-0.02498014,-4.619585E-07,NaN,-0.9627718,2.009498E-05,0.1501869,7.991248E-08,NaN,NaN,-0.5026001,-6.98497E-11,-4.494618E-07,-1.111016E-07,-3.789538E-09,-2.622604E-08
700.0402,-0.4618003,-3.17165E-09,NaN,-0.5962214,-1.328826E-07,NaN,-0.01764945,-4.627073E-07,NaN,-0.9641373,2.009542E-05,0.1417244,8.053743E-08,NaN,NaN,-0.5030557,-7.916293E-11,-4.905889E-07,-1.111001E-07,-2.895468E-09,-2.861022E-08
700.0548,-0.4618003,-3.17165E-09,NaN,-0.5962214,-1.328826E-07,NaN,-0.01764945,-4.627073E-07,NaN,-0.9641373,2.009542E-05,0.1417244,8.053743E-08,NaN,NaN,-0.5030557,-7.916293E-11,-4.905889E-07,-1.111001E-07,-2.895468E-09,-2.861022E-08
700.0689,-0.4710093,-3.170916E-09,NaN,-0.5965399,-1.328816E-07,NaN,-0.0104019,-4.618788E-07,NaN,-0.9655724,2.009585E-05,0.133397,7.955288E-08,NaN,NaN,-0.5035023,-6.98497E-11,-5.257557E-07,-1.111011E-07,-2.597445E-09,-2.622604E-08
700.0844,-0.4802637,-3.170183E-09,NaN,-0.5968583,-1.328819E-07,NaN,-0.003290677,-4.623791E-07,NaN,-0.9670652,2.009628E-05,0.1252086,7.992863E-08,NaN,NaN,-0.5039401,-6.519309E-11,-5.633066E-07,-1.110989E-07,-2.13259E-10,-2.861022E-08
700.0991,-0.4802637,-3.170183E-09,NaN,-0.5968583,-1.328819E-07,NaN,-0.003290677,-4.623791E-07,NaN,-0.9670652,2.009628E-05,0.1252086,7.992863E-08,NaN,NaN,-0.5039401,-6.519309E-11,-5.633066E-07,-1.110989E-07,-2.13259E-10,-2.861022E-08
700.1131,-0.489847,-3.169449E-09,NaN,-0.5971883,-1.328819E-07,NaN,0.004318926,-4.630049E-07,NaN,-0.9685434,2.009672E-05,0.1163361,8.045493E-08,NaN,NaN,-0.504415,-6.519309E-11,-6.044338E-07,-1.110977E-07,-4.236572E-09,-2.622604E-08
700.1284,-0.4995884,-3.168716E-09,NaN,-0.597522,-1.328812E-07,NaN,0.01183761,-4.62025E-07,NaN,-0.9701005,2.009716E-05,0.1076062,7.935036E-08,NaN,NaN,-0.5048805,-6.053647E-11,-6.419847E-07,-1.11099E-07,-3.342502E-09,-2.861022E-08
700.143,-0.5093826,-3.167983E-09,NaN,-0.5978554,-1.328817E-07,NaN,0.0192112,-4.624505E-07,NaN,-0.971722,2.009761E-05,0.09902275,7.967628E-08,NaN,NaN,-0.5053369,-6.98497E-11,-6.801317E-07,-1.110969E-07,-3.193491E-09,-2.622604E-08
700.1578,-0.5093826,-3.167983E-09,NaN,-0.5978554,-1.328817E-07,NaN,0.0192112,-4.624505E-07,NaN,-0.971722,2.009761E-05,0.09902275,7.967628E-08,NaN,NaN,-0.5053369,-6.98497E-11,-6.801317E-07,-1.110969E-07,-3.193491E-09,-2.622604E-08
700.1719,-0.5191648,-3.167249E-09,NaN,-0.5981866,-1.328818E-07,NaN,0.02642252,-4.630271E-07,NaN,-0.9733895,2.009806E-05,0.09058659,8.017347E-08,NaN,NaN,-0.5057842,-7.450631E-11,-7.135104E-07,-1.110958E-07,-3.044479E-09,-2.861022E-08
700.1875,-0.5292385,-3.166516E-09,NaN,-0.5985285,-1.32882E-07,NaN,0.03412306,-4.635269E-07,NaN,-0.9750318,2.009851E-05,0.08146256,8.061007E-08,NaN,NaN,-0.5062685,-8.381953E-11,-7.60598E-07,-1.110934E-07,-2.001398E-09,-2.622604E-08
700.2023,-0.5394452,-3.165783E-09,NaN,-0.5988736,-1.328807E-07,NaN,0.04172713,-4.638106E-07,NaN,-0.9767439,2.009895E-05,0.0724887,8.068402E-08,NaN,NaN,-0.5067432,-7.916292E-11,-8.058976E-07,-1.110939E-07,9.043286E-10,-2.861022E-08
700.2167,-0.5394452,-3.165783E-09,NaN,-0.5988736,-1.328807E-07,NaN,0.04172713,-4.638106E-07,NaN,-0.9767439,2.009895E-05,0.0724887,8.068402E-08,NaN,NaN,-0.5067432,-7.916292E-11,-8.058976E-07,-1.110939E-07,9.043286E-10,-2.861022E-08
700.2327,-0.549687,-3.16505E-09,NaN,-0.599218,-1.328794E-07,NaN,0.04918376,-4.640943E-07,NaN,-0.9785137,2.009938E-05,0.06366746,8.065089E-08,NaN,NaN,-0.5072085,-6.98497E-11,-8.452366E-07,-1.110946E-07,6.063054E-10,-2.622604E-08
700.2471,-0.559904,-3.164317E-09,NaN,-0.59956,-1.328782E-07,NaN,0.0564769,-4.64378E-07,NaN,-0.980325,2.009983E-05,0.05499901,8.053967E-08,NaN,NaN,-0.5076647,-6.98497E-11,-8.833836E-07,-1.110956E-07,3.139503E-09,-2.861022E-08
700.2607,-0.570403,-3.163583E-09,NaN,-0.5999127,-1.328771E-07,NaN,0.06425904,-4.646616E-07,NaN,-0.9821091,2.010027E-05,0.04563707,8.037168E-08,NaN,NaN,-0.5081576,-6.519308E-11,-9.346436E-07,-1.110966E-07,-1.368098E-09,-2.622604E-08
700.2756,-0.570403,-3.163583E-09,NaN,-0.5999127,-1.328771E-07,NaN,0.06425904,-4.646616E-07,NaN,-0.9821091,2.010027E-05,0.04563707,8.037168E-08,NaN,NaN,-0.5081576,-6.519308E-11,-9.346436E-07,-1.110966E-07,-1.368098E-09,-2.622604E-08
700.2893,-0.5810269,-3.16285E-09,NaN,-0.6002684,-1.328761E-07,NaN,0.07194174,-4.649453E-07,NaN,-0.9839607,2.010072E-05,0.03643193,8.016254E-08,NaN,NaN,-0.5086408,-6.053646E-11,-9.817313E-07,-1.110976E-07,2.245433E-09,-2.861022E-08
700.3047,-0.5916792,-3.162117E-09,NaN,-0.6006234,-1.328764E-07,NaN,0.07947475,-4.65694E-07,NaN,-0.9858685,2.010118E-05,0.02738515,8.051721E-08,NaN,NaN,-0.5091145,-6.984969E-11,-1.025243E-06,-1.110955E-07,-2.732486E-09,-2.622604E-08
700.3196,-0.5916792,-3.162117E-09,NaN,-0.6006234,-1.328764E-07,NaN,0.07947475,-4.65694E-07,NaN,-0.9858685,2.010118E-05,0.02738515,8.051721E-08,NaN,NaN,-0.5091145,-6.984969E-11,-1.025243E-06,-1.110955E-07,-2.732486E-09,-2.622604E-08
700.3333,-0.6026442,-3.161384E-09,NaN,-0.6009896,-1.328752E-07,NaN,0.087497,-4.662332E-07,NaN,-0.9877627,2.010164E-05,0.01764293,8.058296E-08,NaN,NaN,-0.5096247,-7.45063E-11,-1.078291E-06,-1.11096E-07,-5.936235E-09,-2.861022E-08
700.3489,-0.6137509,-3.16065E-09,NaN,-0.6013588,-1.328739E-07,NaN,0.09541282,-4.667723E-07,NaN,-0.9897342,2.010209E-05,0.008065343,8.059061E-08,NaN,NaN,-0.5101247,-6.984969E-11,-1.124782E-06,-1.110968E-07,-9.251743E-09,-2.622604E-08
700.3634,-0.6248941,-3.159917E-09,NaN,-0.6017272,-1.328727E-07,NaN,0.1031712,-4.673115E-07,NaN,-0.9917687,2.010254E-05,-0.001346525,8.055586E-08,NaN,NaN,-0.5106149,-6.519307E-11,-1.176639E-06,-1.110977E-07,-8.95372E-09,-2.861022E-08
700.3781,-0.6248941,-3.159917E-09,NaN,-0.6017272,-1.328727E-07,NaN,0.1031712,-4.673115E-07,NaN,-0.9917687,2.010254E-05,-0.001346525,8.055586E-08,NaN,NaN,-0.5106149,-6.519307E-11,-1.176639E-06,-1.110977E-07,-8.95372E-09,-2.861022E-08
700.392,-0.636009,-3.159184E-09,NaN,-0.602093,-1.328716E-07,NaN,0.1107568,-4.678507E-07,NaN,-0.9938485,2.010298E-05,-0.01059351,8.049023E-08,NaN,NaN,-0.5110955,-5.587985E-11,-1.22015E-06,-1.110987E-07,-1.551023E-08,-2.622604E-08
700.4078,-0.6474001,-3.15845E-09,NaN,-0.6024691,-1.328706E-07,NaN,0.1188245,-4.683898E-07,NaN,-0.9959058,2.010344E-05,-0.02054173,8.040219E-08,NaN,NaN,-0.5116124,-5.587985E-11,-1.274986E-06,-1.110996E-07,-1.282802E-08,-2.861022E-08
700.4221,-0.6589084,-3.157717E-09,NaN,-0.6028478,-1.328696E-07,NaN,0.1267818,-4.68929E-07,NaN,-0.9980316,2.01039E-05,-0.0303187,8.029794E-08,NaN,NaN,-0.5121191,-5.587985E-11,-1.331611E-06,-1.111006E-07,-5.824476E-09,-2.622604E-08
700.4384,-0.6589084,-3.157717E-09,NaN,-0.6028478,-1.328696E-07,NaN,0.1267818,-4.68929E-07,NaN,-0.9980316,2.01039E-05,-0.0303187,8.029794E-08,NaN,NaN,-0.5121191,-5.587985E-11,-1.331611E-06,-1.111006E-07,-5.824476E-09,-2.622604E-08
700.4511,-0.6704364,-3.156983E-09,NaN,-0.6032255,-1.328699E-07,NaN,0.1345808,-4.698092E-07,NaN,-1.000214,2.010435E-05,-0.03992443,8.066358E-08,NaN,NaN,-0.5126159,-6.053646E-11,-1.379294E-06,-1.110984E-07,-6.420523E-09,-2.861022E-08
700.4667,-0.681924,-3.15625E-09,NaN,-0.6036004,-1.328686E-07,NaN,0.1422071,-4.704762E-07,NaN,-1.002438,2.01048E-05,-0.04936048,8.075779E-08,NaN,NaN,-0.5131028,-5.122324E-11,-1.43115E-06,-1.110989E-07,-1.50314E-09,-2.622604E-08
700.4813,-0.6936789,-3.155516E-09,NaN,-0.6039856,-1.328674E-07,NaN,0.1503162,-4.711432E-07,NaN,-1.004639,2.010525E-05,-0.05950449,8.080924E-08,NaN,NaN,-0.513626,-4.656663E-11,-1.487775E-06,-1.110997E-07,1.775116E-09,-2.861022E-08
700.4969,-0.6936789,-3.155516E-09,NaN,-0.6039856,-1.328674E-07,NaN,0.1503162,-4.711432E-07,NaN,-1.004639,2.010525E-05,-0.05950449,8.080924E-08,NaN,NaN,-0.513626,-4.656663E-11,-1.487775E-06,-1.110997E-07,1.775116E-09,-2.861022E-08
700.511,-0.7055439,-3.154782E-09,NaN,-0.6043734,-1.328662E-07,NaN,0.1583132,-4.718102E-07,NaN,-1.006906,2.01057E-05,-0.06947103,8.082939E-08,NaN,NaN,-0.5141389,-4.656663E-11,-1.543803E-06,-1.111005E-07,4.755348E-09,-2.622604E-08
700.5253,-0.7174224,-3.154049E-09,NaN,-0.60476,-1.328651E-07,NaN,0.1661507,-4.724773E-07,NaN,-1.009228,2.010616E-05,-0.07926103,8.082668E-08,NaN,NaN,-0.5146416,-5.122324E-11,-1.59864E-06,-1.111014E-07,4.755348E-09,-2.861022E-08
700.54,-0.7174224,-3.154049E-09,NaN,-0.60476,-1.328651E-07,NaN,0.1661507,-4.724773E-07,NaN,-1.009228,2.010616E-05,-0.07926103,8.082668E-08,NaN,NaN,-0.5146416,-5.122324E-11,-1.59864E-06,-1.111014E-07,4.755348E-09,-2.861022E-08
700.554,-0.7295995,-3.153315E-09,NaN,-0.6051575,-1.32864E-07,NaN,0.1744712,-4.731443E-07,NaN,-1.011542,2.010662E-05,-0.08976053,8.080728E-08,NaN,NaN,-0.5151803,-5.122324E-11,-1.661224E-06,-1.111023E-07,-9.070935E-10,-2.622604E-08
700.5692,-0.7419038,-3.152581E-09,NaN,-0.6055576,-1.328629E-07,NaN,0.1826733,-4.738113E-07,NaN,-1.013932,2.010708E-05,-0.1000743,8.077575E-08,NaN,NaN,-0.5157084,-5.122324E-11,-1.725001E-06,-1.111032E-07,-1.801163E-09,-2.861022E-08
700.584,-0.7542303,-3.151847E-09,NaN,-0.6059563,-1.328619E-07,NaN,0.190709,-4.744784E-07,NaN,-1.016384,2.010752E-05,-0.1102039,8.073541E-08,NaN,NaN,-0.5162262,-3.259679E-11,-1.781626E-06,-1.111042E-07,1.775115E-09,-2.622604E-08
700.5986,-0.7542303,-3.151847E-09,NaN,-0.6059563,-1.328619E-07,NaN,0.190709,-4.744784E-07,NaN,-1.016384,2.010752E-05,-0.1102039,8.073541E-08,NaN,NaN,-0.5162262,-3.259679E-11,-1.781626E-06,-1.111042E-07,1.775115E-09,-2.622604E-08
700.6125,-0.7665142,-3.151112E-09,NaN,-0.606352,-1.328609E-07,NaN,0.1985647,-4.751454E-07,NaN,-1.018882,2.010798E-05,-0.120152,8.068872E-08,NaN,NaN,-0.5167337,-3.72534E-11,-1.84123E-06,-1.111049E-07,3.861278E-09,-2.861022E-08
700.6279,-0.7790609,-3.150378E-09,NaN,-0.6067579,-1.328604E-07,NaN,0.2068976,-4.758124E-07,NaN,-1.021363,2.010844E-05,-0.1308171,8.063747E-08,NaN,NaN,-0.5172771,-4.191001E-11,-1.908584E-06,-1.111034E-07,8.331626E-09,-2.622604E-08
700.6426,-0.7917112,-3.149644E-09,NaN,-0.6071659,-1.328594E-07,NaN,0.2151098,-4.764794E-07,NaN,-1.023912,2.01089E-05,-0.1412904,8.058299E-08,NaN,NaN,-0.5178098,-4.656663E-11,-1.973553E-06,-1.11103E-07,8.331626E-09,-2.861022E-08
700.6575,-0.7917112,-3.149644E-09,NaN,-0.6071659,-1.328594E-07,NaN,0.2151098,-4.764794E-07,NaN,-1.023912,2.01089E-05,-0.1412904,8.058299E-08,NaN,NaN,-0.5178098,-4.656663E-11,-1.973553E-06,-1.11103E-07,8.331626E-09,-2.861022E-08
700.6714,-0.8043673,-3.14891E-09,NaN,-0.6075725,-1.328585E-07,NaN,0.2231558,-4.771465E-07,NaN,-1.026518,2.010935E-05,-0.1515747,8.052623E-08,NaN,NaN,-0.5183321,-3.72534E-11,-2.03733E-06,-1.11103E-07,4.755347E-09,-2.622604E-08
700.6868,-0.8169696,-3.148175E-09,NaN,-0.607976,-1.328573E-07,NaN,0.2310228,-4.778136E-07,NaN,-1.029165,2.010981E-05,-0.1616733,8.046793E-08,NaN,NaN,-0.5188441,-3.72534E-11,-2.101703E-06,-1.111039E-07,-2.993256E-09,-2.861022E-08
700.7017,-0.8298264,-3.147441E-09,NaN,-0.6083896,-1.328562E-07,NaN,0.2393683,-4.784806E-07,NaN,-1.031795,2.011026E-05,-0.1724961,8.04086E-08,NaN,NaN,-0.519392,-2.794018E-11,-2.172632E-06,-1.111048E-07,-7.165581E-09,-2.622604E-08
700.7163,-0.8298264,-3.147441E-09,NaN,-0.6083896,-1.328562E-07,NaN,0.2393683,-4.784806E-07,NaN,-1.031795,2.011026E-05,-0.1724961,8.04086E-08,NaN,NaN,-0.519392,-2.794018E-11,-2.172632E-06,-1.111048E-07,-7.165581E-09,-2.622604E-08
700.7301,-0.8427801,-3.146706E-09,NaN,-0.6088054,-1.328551E-07,NaN,0.2475923,-4.791477E-07,NaN,-1.034492,2.011071E-05,-0.1831214,8.034861E-08,NaN,NaN,-0.5199291,-2.794018E-11,-2.236409E-06,-1.111057E-07,-1.133791E-08,-2.861022E-08
700.7456,-0.8557343,-3.145971E-09,NaN,-0.6092196,-1.328555E-07,NaN,0.2556498,-4.801001E-07,NaN,-1.037244,2.011117E-05,-0.1935524,8.07197E-08,NaN,NaN,-0.5204556,-3.72534E-11,-2.29959E-06,-1.111034E-07,-7.165581E-09,-2.622604E-08
700.7612,-0.8686301,-3.145237E-09,NaN,-0.6096308,-1.328542E-07,NaN,0.2635284,-4.808468E-07,NaN,-1.040037,2.011162E-05,-0.2037933,8.083766E-08,NaN,NaN,-0.5209718,-3.259679E-11,-2.359791E-06,-1.111039E-07,1.179069E-09,-2.861022E-08
700.7759,-0.8686301,-3.145237E-09,NaN,-0.6096308,-1.328542E-07,NaN,0.2635284,-4.808468E-07,NaN,-1.040037,2.011162E-05,-0.2037933,8.083766E-08,NaN,NaN,-0.5209718,-3.259679E-11,-2.359791E-06,-1.111039E-07,1.179069E-09,-2.861022E-08
700.7902,-0.8817761,-3.144502E-09,NaN,-0.610052,-1.328529E-07,NaN,0.2718857,-4.815935E-07,NaN,-1.042815,2.011207E-05,-0.2147658,8.092082E-08,NaN,NaN,-0.5215238,-1.862695E-11,-2.434296E-06,-1.111046E-07,-4.185349E-09,-2.622604E-08
700.8043,-0.8950154,-3.143768E-09,NaN,-0.6104753,-1.328517E-07,NaN,0.2801202,-4.823402E-07,NaN,-1.04566,2.011253E-05,-0.2255346,8.097845E-08,NaN,NaN,-0.522065,-2.794018E-11,-2.503438E-06,-1.111054E-07,5.830225E-10,-2.861022E-08
700.8188,-0.8950154,-3.143768E-09,NaN,-0.6104753,-1.328517E-07,NaN,0.2801202,-4.823402E-07,NaN,-1.04566,2.011253E-05,-0.2255346,8.097845E-08,NaN,NaN,-0.522065,-2.794018E-11,-2.503438E-06,-1.111054E-07,5.830225E-10,-2.861022E-08
700.8328,-0.9082514,-3.143033E-09,NaN,-0.6108971,-1.328506E-07,NaN,0.2881877,-4.830869E-07,NaN,-1.04856,2.011298E-05,-0.2361041,8.101735E-08,NaN,NaN,-0.5225955,-1.862695E-11,-2.568407E-06,-1.111062E-07,-6.569535E-09,-2.622604E-08
700.8482,-0.9217703,-3.142299E-09,NaN,-0.6113294,-1.328495E-07,NaN,0.2967335,-4.838336E-07,NaN,-1.051461,2.011344E-05,-0.2474059,8.104252E-08,NaN,NaN,-0.5231616,-1.862695E-11,-2.647085E-06,-1.11107E-07,-7.761628E-09,-2.861022E-08
700.8626,-0.9354005,-3.141564E-09,NaN,-0.6117638,-1.328485E-07,NaN,0.3051508,-4.845803E-07,NaN,-1.054438,2.01139E-05,-0.2584946,8.105763E-08,NaN,NaN,-0.5237165,-1.862695E-11,-2.720399E-06,-1.111079E-07,-1.074186E-08,-2.622604E-08
700.8773,-0.9354005,-3.141564E-09,NaN,-0.6117638,-1.328485E-07,NaN,0.3051508,-4.845803E-07,NaN,-1.054438,2.01139E-05,-0.2584946,8.105763E-08,NaN,NaN,-0.5237165,-1.862695E-11,-2.720399E-06,-1.111079E-07,-1.074186E-08,-2.622604E-08
700.8913,-0.9490368,-3.140829E-09,NaN,-0.6121964,-1.328475E-07,NaN,0.3133948,-4.85327E-07,NaN,-1.057477,2.011436E-05,-0.2693761,8.106537E-08,NaN,NaN,-0.5242606,-1.397034E-11,-2.790732E-06,-1.111088E-07,-8.95372E-09,-2.861022E-08
700.9068,-0.9626148,-3.140094E-09,NaN,-0.6126256,-1.328465E-07,NaN,0.3214539,-4.860737E-07,NaN,-1.06056,2.011481E-05,-0.2800554,8.106771E-08,NaN,NaN,-0.524794,-4.657112E-12,-2.853317E-06,-1.111097E-07,-1.312605E-08,-2.622604E-08
700.9229,-0.9764406,-3.139359E-09,NaN,-0.6130646,-1.328455E-07,NaN,0.3299866,-4.868204E-07,NaN,-1.063639,2.011526E-05,-0.2914758,8.106612E-08,NaN,NaN,-0.525363,-4.996004E-16,-2.927227E-06,-1.111106E-07,-1.133791E-08,-2.861022E-08
700.9364,-0.9764406,-3.139359E-09,NaN,-0.6130646,-1.328455E-07,NaN,0.3299866,-4.868204E-07,NaN,-1.063639,2.011526E-05,-0.2914758,8.106612E-08,NaN,NaN,-0.525363,-4.996004E-16,-2.927227E-06,-1.111106E-07,-1.133791E-08,-2.861022E-08
700.9502,-0.9903548,-3.138624E-09,NaN,-0.6135055,-1.328445E-07,NaN,0.3383897,-4.875671E-07,NaN,-1.066787,2.011572E-05,-0.302678,8.106166E-08,NaN,NaN,-0.5259207,4.656113E-12,-3.001137E-06,-1.111115E-07,-1.253E-08,-2.622604E-08
700.9658,-1.00426,-3.137889E-09,NaN,-0.6139445,-1.328435E-07,NaN,0.3466209,-4.883138E-07,NaN,-1.06999,2.011617E-05,-0.3136686,8.105511E-08,NaN,NaN,-0.5264676,1.396934E-11,-3.070874E-06,-1.111124E-07,-1.431814E-08,-2.861022E-08
700.9805,-1.018096,-3.137154E-09,NaN,-0.6143801,-1.328425E-07,NaN,0.3546687,-4.890605E-07,NaN,-1.073233,2.011662E-05,-0.3244531,8.104705E-08,NaN,NaN,-0.5270037,2.328256E-11,-3.137631E-06,-1.111133E-07,-7.165581E-09,-2.622604E-08
700.9952,-1.018096,-3.137154E-09,NaN,-0.6143801,-1.328425E-07,NaN,0.3546687,-4.890605E-07,NaN,-1.073233,2.011662E-05,-0.3244531,8.104705E-08,NaN,NaN,-0.5270037,2.328256E-11,-3.137631E-06,-1.111133E-07,-7.165581E-09,-2.622604E-08
701.0092,-1.032172,-3.136418E-09,NaN,-0.6148255,-1.328416E-07,NaN,0.3631915,-4.898072E-07,NaN,-1.076474,2.011707E-05,-0.3359864,8.10379E-08,NaN,NaN,-0.5275754,3.259579E-11,-3.215713E-06,-1.111142E-07,-2.39721E-09,-2.861022E-08
701.0245,-1.046331,-3.135683E-09,NaN,-0.6152728,-1.328406E-07,NaN,0.371585,-4.905539E-07,NaN,-1.079781,2.011753E-05,-0.3472958,8.102798E-08,NaN,NaN,-0.5281358,3.72524E-11,-3.290815E-06,-1.11115E-07,-4.781396E-09,-2.622604E-08
701.0403,-1.060476,-3.134948E-09,NaN,-0.6157182,-1.328397E-07,NaN,0.379807,-4.913006E-07,NaN,-1.083142,2.011799E-05,-0.3583885,8.10175E-08,NaN,NaN,-0.5286853,4.190901E-11,-3.360255E-06,-1.111159E-07,-1.193395E-08,-2.861022E-08
701.054,-1.060476,-3.134948E-09,NaN,-0.6157182,-1.328397E-07,NaN,0.379807,-4.913006E-07,NaN,-1.083142,2.011799E-05,-0.3583885,8.10175E-08,NaN,NaN,-0.5286853,4.190901E-11,-3.360255E-06,-1.111159E-07,-1.193395E-08,-2.861022E-08
701.0681,-1.074894,-3.134212E-09,NaN,-0.616174,-1.328387E-07,NaN,0.3885034,-4.920473E-07,NaN,-1.086516,2.011844E-05,-0.3702295,8.100663E-08,NaN,NaN,-0.5292701,5.122223E-11,-3.444297E-06,-1.111168E-07,-1.193395E-08,-2.622604E-08
701.0832,-1.089412,-3.133476E-09,NaN,-0.6166315,-1.328378E-07,NaN,0.3970653,-4.92794E-07,NaN,-1.089966,2.011889E-05,-0.3818367,8.099551E-08,NaN,NaN,-0.5298433,5.587885E-11,-3.522975E-06,-1.111177E-07,-1.670232E-08,-2.861022E-08
701.0978,-1.089412,-3.133476E-09,NaN,-0.6166315,-1.328378E-07,NaN,0.3970653,-4.92794E-07,NaN,-1.089966,2.011889E-05,-0.3818367,8.099551E-08,NaN,NaN,-0.5298433,5.587885E-11,-3.522975E-06,-1.111177E-07,-1.670232E-08,-2.861022E-08
701.1115,-1.103926,-3.132741E-09,NaN,-0.6170869,-1.328368E-07,NaN,0.4054503,-4.935407E-07,NaN,-1.093475,2.011935E-05,-0.3932187,8.098421E-08,NaN,NaN,-0.5304053,6.519207E-11,-3.598673E-06,-1.111186E-07,-1.670232E-08,-2.622604E-08
701.127,-1.118371,-3.132005E-09,NaN,-0.6175388,-1.328359E-07,NaN,0.4136474,-4.942873E-07,NaN,-1.097027,2.01198E-05,-0.4043824,8.097282E-08,NaN,NaN,-0.5309563,6.984869E-11,-3.667815E-06,-1.111195E-07,-1.431814E-08,-2.861022E-08
701.1417,-1.121295,-3.131269E-09,NaN,-0.6175353,-1.32835E-07,NaN,0.4000108,-4.95034E-07,NaN,-1.101265,2.012026E-05,-0.3833264,8.096136E-08,NaN,NaN,-0.5299762,7.45053E-11,-3.222568E-06,-1.111204E-07,-3.69679E-08,-2.622604E-08
701.1563,-1.121295,-3.131269E-09,NaN,-0.6175353,-1.32835E-07,NaN,0.4000108,-4.95034E-07,NaN,-1.101265,2.012026E-05,-0.3833264,8.096136E-08,NaN,NaN,-0.5299762,7.45053E-11,-3.222568E-06,-1.111204E-07,-3.69679E-08,-2.622604E-08
701.1703,-1.117163,-3.130534E-09,NaN,-0.6173095,-1.328341E-07,NaN,0.3845732,-4.957807E-07,NaN,-1.104146,2.012071E-05,-0.363304,8.094987E-08,NaN,NaN,-0.5290208,7.916192E-11,-2.871795E-06,-1.111212E-07,-3.339163E-08,-2.861022E-08
701.186,-1.108732,-3.129798E-09,NaN,-0.6169559,-1.328331E-07,NaN,0.3688254,-4.965274E-07,NaN,-1.105734,2.012117E-05,-0.3441365,8.09384E-08,NaN,NaN,-0.5280868,8.847514E-11,-2.588971E-06,-1.111221E-07,-3.458372E-08,-2.622604E-08
701.2005,-1.097712,-3.129062E-09,NaN,-0.6165268,-1.328322E-07,NaN,0.3533213,-4.972741E-07,NaN,-1.10628,2.012162E-05,-0.3256617,8.092695E-08,NaN,NaN,-0.5271723,8.847514E-11,-2.353532E-06,-1.11123E-07,-3.219953E-08,-2.861022E-08
701.2151,-1.097712,-3.129062E-09,NaN,-0.6165268,-1.328322E-07,NaN,0.3533213,-4.972741E-07,NaN,-1.10628,2.012162E-05,-0.3256617,8.092695E-08,NaN,NaN,-0.5271723,8.847514E-11,-2.353532E-06,-1.11123E-07,-3.219953E-08,-2.861022E-08
701.2289,-1.085508,-3.128326E-09,NaN,-0.616066,-1.328313E-07,NaN,0.3388729,-4.980208E-07,NaN,-1.106026,2.012207E-05,-0.3087159,8.091553E-08,NaN,NaN,-0.5263225,9.313176E-11,-2.168758E-06,-1.111238E-07,-2.981534E-08,-2.622604E-08
701.2443,-1.072636,-3.127591E-09,NaN,-0.6155871,-1.328304E-07,NaN,0.3249265,-4.987675E-07,NaN,-1.105268,2.012253E-05,-0.2922287,8.090416E-08,NaN,NaN,-0.5254894,9.313176E-11,-2.000971E-06,-1.111247E-07,-2.504697E-08,-2.861022E-08
701.259,-1.072636,-3.127591E-09,NaN,-0.6155871,-1.328304E-07,NaN,0.3249265,-4.987675E-07,NaN,-1.105268,2.012253E-05,-0.2922287,8.090416E-08,NaN,NaN,-0.5254894,9.313176E-11,-2.000971E-06,-1.111247E-07,-2.504697E-08,-2.861022E-08
701.2731,-1.059417,-3.126855E-09,NaN,-0.6150987,-1.328295E-07,NaN,0.3114022,-4.995142E-07,NaN,-1.104178,2.012298E-05,-0.2761562,8.089284E-08,NaN,NaN,-0.5246729,9.778837E-11,-1.847191E-06,-1.111256E-07,-2.147069E-08,-2.622604E-08
701.2885,-1.046393,-3.126119E-09,NaN,-0.6146205,-1.328286E-07,NaN,0.2988799,-5.002609E-07,NaN,-1.102841,2.012344E-05,-0.2614059,8.088158E-08,NaN,NaN,-0.5239184,9.778837E-11,-1.722319E-06,-1.111264E-07,-2.504697E-08,-2.861022E-08
701.3052,-1.033547,-3.125383E-09,NaN,-0.6141511,-1.328277E-07,NaN,0.286752,-5.010076E-07,NaN,-1.101409,2.012389E-05,-0.2469788,8.087038E-08,NaN,NaN,-0.5231786,1.02445E-10,-1.600428E-06,-1.111273E-07,-2.02786E-08,-2.622604E-08
701.319,-1.033547,-3.125383E-09,NaN,-0.6141511,-1.328277E-07,NaN,0.286752,-5.010076E-07,NaN,-1.101409,2.012389E-05,-0.2469788,8.087038E-08,NaN,NaN,-0.5231786,1.02445E-10,-1.600428E-06,-1.111273E-07,-2.02786E-08,-2.622604E-08
701.3331,-1.02087,-3.124647E-09,NaN,-0.6136895,-1.328268E-07,NaN,0.2749346,-5.017543E-07,NaN,-1.099929,2.012435E-05,-0.2328667,8.085924E-08,NaN,NaN,-0.5224534,1.02445E-10,-1.484199E-06,-1.111281E-07,-2.385488E-08,-2.861022E-08
701.3472,-1.008353,-3.123911E-09,NaN,-0.6132354,-1.328259E-07,NaN,0.2633864,-5.02501E-07,NaN,-1.098427,2.01248E-05,-0.219062,8.084817E-08,NaN,NaN,-0.5217423,1.071016E-10,-1.370354E-06,-1.11129E-07,-2.743116E-08,-2.622604E-08
701.3617,-0.9963389,-3.123175E-09,NaN,-0.6128018,-1.32825E-07,NaN,0.2527183,-5.032477E-07,NaN,-1.096873,2.012525E-05,-0.2064798,8.083718E-08,NaN,NaN,-0.5210913,1.071016E-10,-1.276178E-06,-1.111298E-07,-2.266279E-08,-2.861022E-08
701.3762,-0.9963389,-3.123175E-09,NaN,-0.6128018,-1.32825E-07,NaN,0.2527183,-5.032477E-07,NaN,-1.096873,2.012525E-05,-0.2064798,8.083718E-08,NaN,NaN,-0.5210913,1.071016E-10,-1.276178E-06,-1.111298E-07,-2.266279E-08,-2.861022E-08
701.3915,-0.9846858,-3.122439E-09,NaN,-0.6123837,-1.328241E-07,NaN,0.242356,-5.039944E-07,NaN,-1.095356,2.012571E-05,-0.1941536,8.082624E-08,NaN,NaN,-0.5204529,1.071016E-10,-1.183195E-06,-1.111306E-07,-2.981535E-08,-2.622604E-08
701.4056,-0.9733072,-3.121703E-09,NaN,-0.6119772,-1.328232E-07,NaN,0.2322341,-5.047411E-07,NaN,-1.093876,2.012617E-05,-0.182084,8.081538E-08,NaN,NaN,-0.5198271,1.071016E-10,-1.090808E-06,-1.111315E-07,-3.339163E-08,-2.861022E-08
701.4201,-0.9621486,-3.120967E-09,NaN,-0.6115803,-1.328223E-07,NaN,0.2223243,-5.054878E-07,NaN,-1.092426,2.012662E-05,-0.1702686,8.080458E-08,NaN,NaN,-0.5192135,1.117582E-10,-9.996129E-07,-1.111323E-07,-3.219953E-08,-2.622604E-08
701.4351,-0.9621486,-3.120967E-09,NaN,-0.6115803,-1.328223E-07,NaN,0.2223243,-5.054878E-07,NaN,-1.092426,2.012662E-05,-0.1702686,8.080458E-08,NaN,NaN,-0.5192135,1.117582E-10,-9.996129E-07,-1.111323E-07,-3.219953E-08,-2.622604E-08
701.449,-0.9515209,-3.12023E-09,NaN,-0.611205,-1.328214E-07,NaN,0.2132433,-5.062345E-07,NaN,-1.090955,2.012707E-05,-0.1596129,8.079385E-08,NaN,NaN,-0.5186579,1.164148E-10,-9.274913E-07,-1.111331E-07,-2.862325E-08,-2.861022E-08
701.4647,-0.9412664,-3.119494E-09,NaN,-0.6108453,-1.328206E-07,NaN,0.2044273,-5.069812E-07,NaN,-1.08954,2.012752E-05,-0.1491691,8.07832E-08,NaN,NaN,-0.5181131,1.210714E-10,-8.541775E-07,-1.11134E-07,-2.623907E-08,-2.622604E-08
701.4791,-0.9412664,-3.119494E-09,NaN,-0.6108453,-1.328206E-07,NaN,0.2044273,-5.069812E-07,NaN,-1.08954,2.012752E-05,-0.1491691,8.07832E-08,NaN,NaN,-0.5181131,1.210714E-10,-8.541775E-07,-1.11134E-07,-2.623907E-08,-2.622604E-08
701.493,-0.9312872,-3.118758E-09,NaN,-0.6104971,-1.328197E-07,NaN,0.1958144,-5.077279E-07,NaN,-1.088175,2.012798E-05,-0.1389389,8.077261E-08,NaN,NaN,-0.517579,1.210714E-10,-7.814598E-07,-1.111348E-07,-2.623907E-08,-2.861022E-08
701.5084,-0.921867,-3.118021E-09,NaN,-0.6101717,-1.328188E-07,NaN,0.1880065,-5.084746E-07,NaN,-1.086803,2.012843E-05,-0.1298219,8.076209E-08,NaN,NaN,-0.5171013,1.257281E-10,-7.260275E-07,-1.111356E-07,-2.623907E-08,-2.622604E-08
701.5232,-0.9128317,-3.117285E-09,NaN,-0.6098622,-1.328179E-07,NaN,0.1804377,-5.092213E-07,NaN,-1.085501,2.012888E-05,-0.1208825,8.075163E-08,NaN,NaN,-0.5166328,1.257281E-10,-6.646347E-07,-1.111364E-07,-2.623907E-08,-2.861022E-08
701.5378,-0.9128317,-3.117285E-09,NaN,-0.6098622,-1.328179E-07,NaN,0.1804377,-5.092213E-07,NaN,-1.085501,2.012888E-05,-0.1208825,8.075163E-08,NaN,NaN,-0.5166328,1.257281E-10,-6.646347E-07,-1.111364E-07,-2.623907E-08,-2.861022E-08
701.5521,-0.9040734,-3.116549E-09,NaN,-0.6095641,-1.328171E-07,NaN,0.1730448,-5.099679E-07,NaN,-1.084259,2.012934E-05,-0.1121233,8.074124E-08,NaN,NaN,-0.5161735,1.303847E-10,-6.050301E-07,-1.111373E-07,-2.266279E-08,-2.622604E-08
701.5674,-0.8955246,-3.115812E-09,NaN,-0.6092747,-1.328162E-07,NaN,0.1658023,-5.107146E-07,NaN,-1.08306,2.012979E-05,-0.1035435,8.073093E-08,NaN,NaN,-0.5157232,1.303847E-10,-5.484057E-07,-1.111381E-07,-2.266279E-08,-2.861022E-08
701.5831,-0.8874879,-3.115076E-09,NaN,-0.6090059,-1.328154E-07,NaN,0.1593266,-5.114613E-07,NaN,-1.081843,2.013024E-05,-0.09603219,8.072067E-08,NaN,NaN,-0.5153276,1.350413E-10,-5.042983E-07,-1.111389E-07,-2.087465E-08,-2.622604E-08
701.5978,-0.8874879,-3.115076E-09,NaN,-0.6090059,-1.328154E-07,NaN,0.1593266,-5.114613E-07,NaN,-1.081843,2.013024E-05,-0.09603219,8.072067E-08,NaN,NaN,-0.5153276,1.350413E-10,-5.042983E-07,-1.111389E-07,-2.087465E-08,-2.622604E-08
701.6107,-0.8798015,-3.114339E-09,NaN,-0.6087513,-1.328145E-07,NaN,0.1530609,-5.12208E-07,NaN,-1.080691,2.01307E-05,-0.08866571,8.071049E-08,NaN,NaN,-0.5149396,1.350413E-10,-4.584027E-07,-1.111397E-07,-2.385488E-08,-2.861022E-08
701.626,-0.8723646,-3.113602E-09,NaN,-0.6085067,-1.328137E-07,NaN,0.1469443,-5.129547E-07,NaN,-1.079593,2.013115E-05,-0.08144632,8.070037E-08,NaN,NaN,-0.5145592,1.396979E-10,-4.160834E-07,-1.111405E-07,-2.385488E-08,-2.622604E-08
701.6404,-0.8651144,-3.112866E-09,NaN,-0.6082697,-1.328128E-07,NaN,0.1409527,-5.137014E-07,NaN,-1.078537,2.013161E-05,-0.07437351,8.069032E-08,NaN,NaN,-0.5141863,1.396979E-10,-3.719759E-07,-1.111413E-07,-2.683512E-08,-2.861022E-08
701.6552,-0.8651144,-3.112866E-09,NaN,-0.6082697,-1.328128E-07,NaN,0.1409527,-5.137014E-07,NaN,-1.078537,2.013161E-05,-0.07437351,8.069032E-08,NaN,NaN,-0.5141863,1.396979E-10,-3.719759E-07,-1.111413E-07,-2.683512E-08,-2.861022E-08
701.6693,-0.8583564,-3.112129E-09,NaN,-0.6080523,-1.328119E-07,NaN,0.1357017,-5.144481E-07,NaN,-1.077459,2.013206E-05,-0.06832843,8.068033E-08,NaN,NaN,-0.5138665,1.443545E-10,-3.427697E-07,-1.111421E-07,-2.92193E-08,-2.622604E-08
701.6844,-0.8519306,-3.111392E-09,NaN,-0.607848,-1.328111E-07,NaN,0.1306365,-5.151948E-07,NaN,-1.076444,2.013251E-05,-0.06239816,8.06704E-08,NaN,NaN,-0.513553,1.443545E-10,-3.099871E-07,-1.111429E-07,-2.445093E-08,-2.861022E-08
701.6995,-0.8519306,-3.111392E-09,NaN,-0.607848,-1.328111E-07,NaN,0.1306365,-5.151948E-07,NaN,-1.076444,2.013251E-05,-0.06239816,8.06704E-08,NaN,NaN,-0.513553,1.443545E-10,-3.099871E-07,-1.111429E-07,-2.445093E-08,-2.861022E-08
701.7131,-0.8457376,-3.110655E-09,NaN,-0.6076529,-1.328103E-07,NaN,0.1256965,-5.159415E-07,NaN,-1.075484,2.013297E-05,-0.05658502,8.066054E-08,NaN,NaN,-0.5132456,1.443545E-10,-2.772045E-07,-1.111437E-07,-1.908651E-08,-2.622604E-08
701.7286,-0.8400601,-3.109918E-09,NaN,-0.6074782,-1.328094E-07,NaN,0.1214819,-5.166882E-07,NaN,-1.074515,2.013343E-05,-0.05176679,8.065074E-08,NaN,NaN,-0.5129901,1.443545E-10,-2.56939E-07,-1.111445E-07,-1.670233E-08,-2.861022E-08
701.7432,-0.8347241,-3.10918E-09,NaN,-0.6073169,-1.328086E-07,NaN,0.1174332,-5.174349E-07,NaN,-1.073621,2.013388E-05,-0.04703805,8.064101E-08,NaN,NaN,-0.5127394,1.443545E-10,-2.330971E-07,-1.111453E-07,-1.133791E-08,-2.622604E-08
701.7578,-0.8347241,-3.10918E-09,NaN,-0.6073169,-1.328086E-07,NaN,0.1174332,-5.174349E-07,NaN,-1.073621,2.013388E-05,-0.04703805,8.064101E-08,NaN,NaN,-0.5127394,1.443545E-10,-2.330971E-07,-1.111453E-07,-1.133791E-08,-2.622604E-08
701.7719,-0.8296218,-3.108443E-09,NaN,-0.6071646,-1.328078E-07,NaN,0.1134881,-5.181816E-07,NaN,-1.072789,2.013434E-05,-0.0424015,8.063134E-08,NaN,NaN,-0.5124937,1.443545E-10,-2.080631E-07,-1.111461E-07,-1.193396E-08,-2.861022E-08
701.7874,-0.8246859,-3.107706E-09,NaN,-0.6070186,-1.328069E-07,NaN,0.1096227,-5.189283E-07,NaN,-1.072004,2.013479E-05,-0.03785729,8.062173E-08,NaN,NaN,-0.5122527,1.490111E-10,-1.830292E-07,-1.111468E-07,-1.372209E-08,-2.622604E-08
701.8026,-0.820219,-3.106969E-09,NaN,-0.606891,-1.328061E-07,NaN,0.1064523,-5.19675E-07,NaN,-1.0712,2.013525E-05,-0.03427703,8.061219E-08,NaN,NaN,-0.5120624,1.490111E-10,-1.734924E-07,-1.111476E-07,-1.431814E-08,-2.861022E-08
701.8171,-0.820219,-3.106969E-09,NaN,-0.606891,-1.328061E-07,NaN,0.1064523,-5.19675E-07,NaN,-1.0712,2.013525E-05,-0.03427703,8.061219E-08,NaN,NaN,-0.5120624,1.490111E-10,-1.734924E-07,-1.111476E-07,-1.431814E-08,-2.861022E-08
701.8307,-0.8160598,-3.106231E-09,NaN,-0.6067752,-1.328053E-07,NaN,0.1034245,-5.204217E-07,NaN,-1.070464,2.01357E-05,-0.03076209,8.060271E-08,NaN,NaN,-0.5118756,1.536677E-10,-1.585913E-07,-1.111484E-07,-1.431814E-08,-2.622604E-08
701.8484,-0.8121082,-3.105494E-09,NaN,-0.6066672,-1.328045E-07,NaN,0.1004799,-5.211684E-07,NaN,-1.069785,2.013616E-05,-0.02731501,8.059329E-08,NaN,NaN,-0.5116925,1.536677E-10,-1.42498E-07,-1.111492E-07,-1.729837E-08,-2.861022E-08
701.8619,-0.8083019,-3.104757E-09,NaN,-0.6065645,-1.328036E-07,NaN,0.09759528,-5.219151E-07,NaN,-1.069151,2.013661E-05,-0.02393605,8.058393E-08,NaN,NaN,-0.511513,1.583243E-10,-1.234245E-07,-1.111499E-07,-7.76163E-09,-2.622604E-08
701.8768,-0.8083019,-3.104757E-09,NaN,-0.6065645,-1.328036E-07,NaN,0.09759528,-5.219151E-07,NaN,-1.069151,2.013661E-05,-0.02393605,8.058393E-08,NaN,NaN,-0.511513,1.583243E-10,-1.234245E-07,-1.111499E-07,-7.76163E-09,-2.622604E-08
701.8896,-0.8049464,-3.104019E-09,NaN,-0.6064793,-1.328028E-07,NaN,0.09538628,-5.226618E-07,NaN,-1.068495,2.013706E-05,-0.02149313,8.057463E-08,NaN,NaN,-0.5113829,1.583243E-10,-1.186562E-07,-1.111507E-07,-8.357676E-09,-2.861022E-08
701.9048,-0.8018825,-3.103282E-09,NaN,-0.6064051,-1.32802E-07,NaN,0.09330103,-5.234085E-07,NaN,-1.067906,2.013752E-05,-0.01909329,8.056539E-08,NaN,NaN,-0.5112552,1.629809E-10,-1.144838E-07,-1.111515E-07,-9.549769E-09,-2.622604E-08
701.9195,-0.8018825,-3.103282E-09,NaN,-0.6064051,-1.32802E-07,NaN,0.09330103,-5.234085E-07,NaN,-1.067906,2.013752E-05,-0.01909329,8.056539E-08,NaN,NaN,-0.5112552,1.629809E-10,-1.144838E-07,-1.111515E-07,-9.549769E-09,-2.622604E-08
701.9334,-0.7990113,-3.102544E-09,NaN,-0.606338,-1.328012E-07,NaN,0.09128007,-5.241552E-07,NaN,-1.067375,2.013797E-05,-0.01673913,8.055621E-08,NaN,NaN,-0.51113,1.629809E-10,-1.03159E-07,-1.111522E-07,-1.193395E-08,-2.861022E-08
701.9489,-0.7966158,-3.101807E-09,NaN,-0.6062893,-1.328004E-07,NaN,0.0899239,-5.249018E-07,NaN,-1.066835,2.013843E-05,-0.01529774,8.05471E-08,NaN,NaN,-0.5110531,1.629809E-10,-1.085234E-07,-1.11153E-07,-9.549769E-09,-2.622604E-08
701.9634,-0.7945228,-3.101069E-09,NaN,-0.6062518,-1.327996E-07,NaN,0.08867484,-5.256485E-07,NaN,-1.066373,2.013888E-05,-0.01387982,8.053804E-08,NaN,NaN,-0.5109777,1.629809E-10,-1.091194E-07,-1.111538E-07,-7.76163E-09,-2.861022E-08
701.9781,-0.7945228,-3.101069E-09,NaN,-0.6062518,-1.327996E-07,NaN,0.08867484,-5.256485E-07,NaN,-1.066373,2.013888E-05,-0.01387982,8.053804E-08,NaN,NaN,-0.5109777,1.629809E-10,-1.091194E-07,-1.111538E-07,-7.76163E-09,-2.861022E-08
701.9925,-0.7926248,-3.100332E-09,NaN,-0.6062214,-1.327988E-07,NaN,0.08747187,-5.263952E-07,NaN,-1.065976,2.013934E-05,-0.01248826,8.052903E-08,NaN,NaN,-0.5109037,1.676375E-10,-1.03159E-07,-1.111545E-07,-1.670233E-08,-2.622604E-08
702.0078,-0.7908551,-3.099594E-09,NaN,-0.6061953,-1.32798E-07,NaN,0.08629224,-5.271419E-07,NaN,-1.065629,2.013979E-05,-0.01112383,8.05201E-08,NaN,NaN,-0.5108311,1.676375E-10,-9.660244E-08,-1.111553E-07,-9.549769E-09,-2.861022E-08
702.0223,-0.7895164,-3.098856E-09,NaN,-0.6061857,-1.327972E-07,NaN,0.08575252,-5.278886E-07,NaN,-1.065263,2.014024E-05,-0.01065139,8.051121E-08,NaN,NaN,-0.5108057,1.676375E-10,-1.061392E-07,-1.111545E-07,-7.165583E-09,-2.622604E-08
702.0371,-0.7895164,-3.098856E-09,NaN,-0.6061857,-1.327972E-07,NaN,0.08575252,-5.278886E-07,NaN,-1.065263,2.014024E-05,-0.01065139,8.051121E-08,NaN,NaN,-0.5108057,1.676375E-10,-1.061392E-07,-1.111545E-07,-7.165583E-09,-2.622604E-08
702.0512,-0.7884483,-3.098118E-09,NaN,-0.6061859,-1.32796E-07,NaN,0.08530109,-5.286353E-07,NaN,-1.064968,2.01407E-05,-0.01018402,8.050239E-08,NaN,NaN,-0.5107808,1.583243E-10,-1.109076E-07,-1.11155E-07,-1.205119E-09,-2.861022E-08
702.0668,-0.7875511,-3.09738E-09,NaN,-0.6061913,-1.32795E-07,NaN,0.08487961,-5.29382E-07,NaN,-1.064732,2.014116E-05,-0.009724577,8.049362E-08,NaN,NaN,-0.5107564,1.536677E-10,-1.156759E-07,-1.111556E-07,2.371159E-09,-2.622604E-08
702.0817,-0.7867628,-3.096642E-09,NaN,-0.6061997,-1.327941E-07,NaN,0.08446634,-5.301287E-07,NaN,-1.064542,2.014162E-05,-0.009274013,8.048491E-08,NaN,NaN,-0.5107324,1.490111E-10,-1.156759E-07,-1.111562E-07,8.92767E-09,-2.861022E-08
702.0964,-0.7867628,-3.096642E-09,NaN,-0.6061997,-1.327941E-07,NaN,0.08446634,-5.301287E-07,NaN,-1.064542,2.014162E-05,-0.009274013,8.048491E-08,NaN,NaN,-0.5107324,1.490111E-10,-1.156759E-07,-1.111562E-07,8.92767E-09,-2.861022E-08
702.1123,-0.7863892,-3.095905E-09,NaN,-0.6062235,-1.327932E-07,NaN,0.08467848,-5.308754E-07,NaN,-1.064331,2.014207E-05,-0.009696913,8.047625E-08,NaN,NaN,-0.5107548,1.490111E-10,-1.311731E-07,-1.111569E-07,9.523717E-09,-2.622604E-08
702.1265,-0.7862717,-3.095167E-09,NaN,-0.6062565,-1.327925E-07,NaN,0.08496375,-5.316221E-07,NaN,-1.06419,2.014252E-05,-0.0101078,8.046766E-08,NaN,NaN,-0.5107766,1.396979E-10,-1.413059E-07,-1.111543E-07,9.523717E-09,-2.622604E-08
702.1403,-0.7863108,-3.09443E-09,NaN,-0.6062946,-1.327911E-07,NaN,0.08526374,-5.323688E-07,NaN,-1.064108,2.014297E-05,-0.01050971,8.045912E-08,NaN,NaN,-0.510798,1.396979E-10,-1.472664E-07,-1.111526E-07,1.011976E-08,-2.622604E-08
702.1548,-0.7863108,-3.09443E-09,NaN,-0.6062946,-1.327911E-07,NaN,0.08526374,-5.323688E-07,NaN,-1.064108,2.014297E-05,-0.01050971,8.045912E-08,NaN,NaN,-0.510798,1.396979E-10,-1.472664E-07,-1.111526E-07,1.011976E-08,-2.622604E-08
702.169,-0.7867901,-3.093692E-09,NaN,-0.6063494,-1.327896E-07,NaN,0.08618131,-5.331155E-07,NaN,-1.064019,2.014343E-05,-0.01176856,8.045065E-08,NaN,NaN,-0.5108648,1.303846E-10,-1.669359E-07,-1.111508E-07,1.369604E-08,-2.622604E-08
702.184,-0.7875373,-3.092955E-09,NaN,-0.6064136,-1.32788E-07,NaN,0.08715782,-5.338622E-07,NaN,-1.064009,2.014389E-05,-0.0129995,8.044223E-08,NaN,NaN,-0.5109302,1.210714E-10,-1.824331E-07,-1.11149E-07,1.846441E-08,-2.622604E-08
702.1989,-0.7875373,-3.092955E-09,NaN,-0.6064136,-1.32788E-07,NaN,0.08715782,-5.338622E-07,NaN,-1.064009,2.014389E-05,-0.0129995,8.044223E-08,NaN,NaN,-0.5109302,1.210714E-10,-1.824331E-07,-1.11149E-07,1.846441E-08,-2.622604E-08
702.2127,-0.7884452,-3.092217E-09,NaN,-0.6064829,-1.327864E-07,NaN,0.08813382,-5.346089E-07,NaN,-1.064065,2.014433E-05,-0.01420584,8.043386E-08,NaN,NaN,-0.5109943,1.210714E-10,-1.967382E-07,-1.111472E-07,2.08486E-08,-2.622604E-08
702.2282,-0.7894477,-3.09148E-09,NaN,-0.6065548,-1.327848E-07,NaN,0.08908793,-5.353556E-07,NaN,-1.064171,2.014478E-05,-0.01538904,8.042556E-08,NaN,NaN,-0.5110571,1.210714E-10,-2.086592E-07,-1.111454E-07,2.323278E-08,-2.622604E-08
702.2428,-0.7908478,-3.090743E-09,NaN,-0.6066415,-1.327832E-07,NaN,0.09063904,-5.361023E-07,NaN,-1.06426,2.014523E-05,-0.01741591,8.041731E-08,NaN,NaN,-0.5111645,1.210714E-10,-2.336931E-07,-1.111437E-07,2.85972E-08,-2.622604E-08
702.2574,-0.7908478,-3.090743E-09,NaN,-0.6066415,-1.327832E-07,NaN,0.09063904,-5.361023E-07,NaN,-1.06426,2.014523E-05,-0.01741591,8.041731E-08,NaN,NaN,-0.5111645,1.210714E-10,-2.336931E-07,-1.111437E-07,2.85972E-08,-2.622604E-08
702.2716,-0.7924854,-3.090005E-09,NaN,-0.6067361,-1.327816E-07,NaN,0.09223364,-5.36849E-07,NaN,-1.06442,2.014568E-05,-0.01940039,8.040911E-08,NaN,NaN,-0.5112697,1.117582E-10,-2.509785E-07,-1.111419E-07,2.740511E-08,-2.622604E-08
702.2871,-0.794261,-3.089268E-09,NaN,-0.6068348,-1.3278E-07,NaN,0.09381503,-5.375957E-07,NaN,-1.064641,2.014613E-05,-0.0213459,8.040097E-08,NaN,NaN,-0.5113729,1.117582E-10,-2.664757E-07,-1.111401E-07,2.85972E-08,-2.622604E-08
702.3018,-0.7961132,-3.08853E-09,NaN,-0.6069351,-1.327784E-07,NaN,0.09536285,-5.383424E-07,NaN,-1.064908,2.014659E-05,-0.02325416,8.039287E-08,NaN,NaN,-0.511474,1.024449E-10,-2.825689E-07,-1.111383E-07,3.098139E-08,-2.622604E-08
702.3167,-0.7961132,-3.08853E-09,NaN,-0.6069351,-1.327784E-07,NaN,0.09536285,-5.383424E-07,NaN,-1.064908,2.014659E-05,-0.02325416,8.039287E-08,NaN,NaN,-0.511474,1.024449E-10,-2.825689E-07,-1.111383E-07,3.098139E-08,-2.622604E-08
702.3304,-0.7983482,-3.087792E-09,NaN,-0.6070496,-1.327768E-07,NaN,0.09749686,-5.390891E-07,NaN,-1.065155,2.014704E-05,-0.02599443,8.038484E-08,NaN,NaN,-0.511619,1.024449E-10,-3.08795E-07,-1.111365E-07,2.85972E-08,-2.622604E-08
702.3463,-0.8008078,-3.087055E-09,NaN,-0.6071714,-1.327752E-07,NaN,0.0996623,-5.398358E-07,NaN,-1.065471,2.014748E-05,-0.02867872,8.037685E-08,NaN,NaN,-0.511761,1.024449E-10,-3.314448E-07,-1.111348E-07,2.621302E-08,-2.622604E-08
702.3618,-0.8033936,-3.086317E-09,NaN,-0.6072965,-1.327736E-07,NaN,0.1018029,-5.405824E-07,NaN,-1.065847,2.014793E-05,-0.03131071,8.036892E-08,NaN,NaN,-0.5119002,1.024449E-10,-3.517104E-07,-1.11133E-07,2.919325E-08,-2.622604E-08
702.3765,-0.8033936,-3.086317E-09,NaN,-0.6072965,-1.327736E-07,NaN,0.1018029,-5.405824E-07,NaN,-1.065847,2.014793E-05,-0.03131071,8.036892E-08,NaN,NaN,-0.5119002,1.024449E-10,-3.517104E-07,-1.11133E-07,2.919325E-08,-2.622604E-08
702.3904,-0.8063896,-3.085579E-09,NaN,-0.6074365,-1.327721E-07,NaN,0.104524,-5.413291E-07,NaN,-1.066216,2.014838E-05,-0.03476296,8.036104E-08,NaN,NaN,-0.5120826,1.024449E-10,-3.815127E-07,-1.111313E-07,2.919325E-08,-2.622604E-08
702.4048,-0.8096231,-3.084841E-09,NaN,-0.6075839,-1.32771E-07,NaN,0.1072643,-5.428262E-07,NaN,-1.066664,2.014882E-05,-0.03814567,8.12547E-08,NaN,NaN,-0.5122613,1.071016E-10,-4.071427E-07,-1.111307E-07,3.396162E-08,-2.861022E-08
702.4197,-0.8096231,-3.084841E-09,NaN,-0.6075839,-1.32771E-07,NaN,0.1072643,-5.428262E-07,NaN,-1.066664,2.014882E-05,-0.03814567,8.12547E-08,NaN,NaN,-0.5122613,1.071016E-10,-4.071427E-07,-1.111307E-07,3.396162E-08,-2.861022E-08
702.4333,-0.8129876,-3.084104E-09,NaN,-0.6077346,-1.327707E-07,NaN,0.1099662,-5.409823E-07,NaN,-1.067178,2.014926E-05,-0.04146295,7.899286E-08,NaN,NaN,-0.5124364,1.024449E-10,-4.303885E-07,-1.111288E-07,3.336558E-08,-2.622604E-08
702.449,-0.8164168,-3.083366E-09,NaN,-0.6078861,-1.327701E-07,NaN,0.1126097,-5.420872E-07,NaN,-1.067742,2.014969E-05,-0.04471713,7.976367E-08,NaN,NaN,-0.5126082,1.117582E-10,-4.524422E-07,-1.111286E-07,2.919325E-08,-2.861022E-08
702.4633,-0.8202147,-3.082629E-09,NaN,-0.6080509,-1.327698E-07,NaN,0.1158166,-5.430251E-07,NaN,-1.06829,2.015012E-05,-0.04878403,8.043465E-08,NaN,NaN,-0.5128224,1.164148E-10,-4.876089E-07,-1.111285E-07,2.025256E-08,-2.622604E-08
702.478,-0.8202147,-3.082629E-09,NaN,-0.6080509,-1.327698E-07,NaN,0.1158166,-5.430251E-07,NaN,-1.06829,2.015012E-05,-0.04878403,8.043465E-08,NaN,NaN,-0.5128224,1.164148E-10,-4.876089E-07,-1.111285E-07,2.025256E-08,-2.622604E-08
702.4919,-0.8242211,-3.081891E-09,NaN,-0.608222,-1.327701E-07,NaN,0.1190301,-5.406281E-07,NaN,-1.068908,2.015056E-05,-0.05276968,7.791525E-08,NaN,NaN,-0.5130323,1.164148E-10,-5.168152E-07,-1.111271E-07,1.608023E-08,-2.622604E-08
702.5073,-0.8283369,-3.081154E-09,NaN,-0.6083955,-1.327699E-07,NaN,0.1221954,-5.414103E-07,NaN,-1.069587,2.015099E-05,-0.05667843,7.859975E-08,NaN,NaN,-0.5132381,1.25728E-10,-5.418491E-07,-1.111271E-07,1.608023E-08,-2.861022E-08
702.5222,-0.832501,-3.080417E-09,NaN,-0.6085693,-1.327698E-07,NaN,0.1252936,-5.421196E-07,NaN,-1.070311,2.015144E-05,-0.06051288,7.923126E-08,NaN,NaN,-0.5134398,1.117582E-10,-5.668831E-07,-1.111257E-07,1.965651E-08,-2.622604E-08
702.5369,-0.832501,-3.080417E-09,NaN,-0.6085693,-1.327698E-07,NaN,0.1252936,-5.421196E-07,NaN,-1.070311,2.015144E-05,-0.06051288,7.923126E-08,NaN,NaN,-0.5134398,1.117582E-10,-5.668831E-07,-1.111257E-07,1.965651E-08,-2.622604E-08
702.551,-0.8370203,-3.079679E-09,NaN,-0.6087559,-1.327694E-07,NaN,0.1289472,-5.429106E-07,NaN,-1.071015,2.015187E-05,-0.06515363,7.996032E-08,NaN,NaN,-0.5136834,1.164148E-10,-6.026459E-07,-1.111255E-07,2.08486E-08,-2.861022E-08
702.5664,-0.8417366,-3.078942E-09,NaN,-0.6089483,-1.327692E-07,NaN,0.132598,-5.435956E-07,NaN,-1.071789,2.015229E-05,-0.0697019,8.059601E-08,NaN,NaN,-0.5139222,1.25728E-10,-6.336403E-07,-1.111256E-07,1.965651E-08,-2.622604E-08
702.5813,-0.846552,-3.078205E-09,NaN,-0.6091427,-1.327696E-07,NaN,0.1361916,-5.409467E-07,NaN,-1.072622,2.015273E-05,-0.07416244,7.800545E-08,NaN,NaN,-0.5141562,1.25728E-10,-6.616545E-07,-1.111242E-07,2.442488E-08,-2.622604E-08
702.5958,-0.846552,-3.078205E-09,NaN,-0.6091427,-1.327696E-07,NaN,0.1361916,-5.409467E-07,NaN,-1.072622,2.015273E-05,-0.07416244,7.800545E-08,NaN,NaN,-0.5141562,1.25728E-10,-6.616545E-07,-1.111242E-07,2.442488E-08,-2.622604E-08
702.6099,-0.8517509,-3.077468E-09,NaN,-0.6093506,-1.327694E-07,NaN,0.1403366,-5.415624E-07,NaN,-1.073449,2.015317E-05,-0.07942087,7.866803E-08,NaN,NaN,-0.5144315,1.210714E-10,-7.06358E-07,-1.111227E-07,2.97893E-08,-2.861022E-08
702.6251,-0.8571607,-3.076731E-09,NaN,-0.6095645,-1.32769E-07,NaN,0.1444681,-5.422756E-07,NaN,-1.074354,2.015361E-05,-0.08457476,7.94191E-08,NaN,NaN,-0.5147014,1.164148E-10,-7.427168E-07,-1.111226E-07,3.038535E-08,-2.622604E-08
702.6409,-0.8626752,-3.075994E-09,NaN,-0.6097803,-1.327688E-07,NaN,0.1485305,-5.428996E-07,NaN,-1.075325,2.015404E-05,-0.08962937,8.007355E-08,NaN,NaN,-0.5149659,1.210714E-10,-7.754994E-07,-1.111226E-07,3.515372E-08,-2.861022E-08
702.6554,-0.8626752,-3.075994E-09,NaN,-0.6097803,-1.327688E-07,NaN,0.1485305,-5.428996E-07,NaN,-1.075325,2.015404E-05,-0.08962937,8.007355E-08,NaN,NaN,-0.5149659,1.210714E-10,-7.754994E-07,-1.111226E-07,3.515372E-08,-2.861022E-08
702.6687,-0.8682287,-3.075257E-09,NaN,-0.6099957,-1.327687E-07,NaN,0.1525054,-5.434712E-07,NaN,-1.076344,2.015447E-05,-0.09458804,8.066995E-08,NaN,NaN,-0.5152252,1.210714E-10,-8.070898E-07,-1.111212E-07,4.111418E-08,-2.622604E-08
702.6841,-0.8741254,-3.074521E-09,NaN,-0.6102234,-1.327683E-07,NaN,0.1570174,-5.420983E-07,NaN,-1.077348,2.01549E-05,-0.1003416,7.929702E-08,NaN,NaN,-0.5155253,1.210714E-10,-8.517933E-07,-1.11119E-07,3.992209E-08,-2.622604E-08
702.6985,-0.8741254,-3.074521E-09,NaN,-0.6102234,-1.327683E-07,NaN,0.1570174,-5.420983E-07,NaN,-1.077348,2.01549E-05,-0.1003416,7.929702E-08,NaN,NaN,-0.5155253,1.210714E-10,-8.517933E-07,-1.11119E-07,3.992209E-08,-2.622604E-08
702.7125,-0.8802055,-3.073784E-09,NaN,-0.6104561,-1.327676E-07,NaN,0.1615059,-5.429013E-07,NaN,-1.078423,2.015533E-05,-0.1059809,8.010032E-08,NaN,NaN,-0.5158194,1.164148E-10,-8.911323E-07,-1.111187E-07,4.051814E-08,-2.861022E-08
702.7277,-0.8863699,-3.073048E-09,NaN,-0.61069,-1.327673E-07,NaN,0.165918,-5.435811E-07,NaN,-1.079556,2.015576E-05,-0.1115116,8.078059E-08,NaN,NaN,-0.5161077,1.164148E-10,-9.239149E-07,-1.111186E-07,3.932605E-08,-2.622604E-08
702.7424,-0.892558,-3.072311E-09,NaN,-0.6109231,-1.327675E-07,NaN,0.170236,-5.409225E-07,NaN,-1.080734,2.015619E-05,-0.1169372,7.821721E-08,NaN,NaN,-0.5163904,1.117582E-10,-9.537173E-07,-1.111172E-07,3.932605E-08,-2.622604E-08
702.7573,-0.892558,-3.072311E-09,NaN,-0.6109231,-1.327675E-07,NaN,0.170236,-5.409225E-07,NaN,-1.080734,2.015619E-05,-0.1169372,7.821721E-08,NaN,NaN,-0.5163904,1.117582E-10,-9.537173E-07,-1.111172E-07,3.932605E-08,-2.622604E-08
702.7711,-0.8990774,-3.071575E-09,NaN,-0.6111682,-1.327673E-07,NaN,0.1750857,-5.415209E-07,NaN,-1.081894,2.015662E-05,-0.1231551,7.889193E-08,NaN,NaN,-0.5167134,1.164148E-10,-9.996129E-07,-1.111157E-07,4.171023E-08,-2.861022E-08
702.7866,-0.9057696,-3.070839E-09,NaN,-0.611418,-1.327668E-07,NaN,0.1799044,-5.42214E-07,NaN,-1.083123,2.015705E-05,-0.1292493,7.964643E-08,NaN,NaN,-0.5170301,1.117582E-10,-1.038356E-06,-1.111155E-07,3.515372E-08,-2.622604E-08
702.8013,-0.9125372,-3.070102E-09,NaN,-0.6116687,-1.327666E-07,NaN,0.1846399,-5.428139E-07,NaN,-1.08441,2.015748E-05,-0.1352257,8.029579E-08,NaN,NaN,-0.5173404,1.164148E-10,-1.074119E-06,-1.111141E-07,3.753791E-08,-2.861022E-08
702.816,-0.9125372,-3.070102E-09,NaN,-0.6116687,-1.327666E-07,NaN,0.1846399,-5.428139E-07,NaN,-1.08441,2.015748E-05,-0.1352257,8.029579E-08,NaN,NaN,-0.5173404,1.164148E-10,-1.074119E-06,-1.111141E-07,3.753791E-08,-2.861022E-08
702.8298,-0.919665,-3.069366E-09,NaN,-0.6119321,-1.327661E-07,NaN,0.189904,-5.434981E-07,NaN,-1.085693,2.015791E-05,-0.1419882,8.101978E-08,NaN,NaN,-0.5176906,1.210714E-10,-1.126571E-06,-1.111139E-07,3.515372E-08,-2.622604E-08
702.8469,-0.9269809,-3.06863E-09,NaN,-0.6122003,-1.327663E-07,NaN,0.1951279,-5.408413E-07,NaN,-1.087053,2.015835E-05,-0.1486157,7.848632E-08,NaN,NaN,-0.5180338,1.210714E-10,-1.171274E-06,-1.111124E-07,2.800116E-08,-2.622604E-08
702.8598,-0.9269809,-3.06863E-09,NaN,-0.6122003,-1.327663E-07,NaN,0.1951279,-5.408413E-07,NaN,-1.087053,2.015835E-05,-0.1486157,7.848632E-08,NaN,NaN,-0.5180338,1.210714E-10,-1.171274E-06,-1.111124E-07,2.800116E-08,-2.622604E-08
702.8739,-0.9343783,-3.067895E-09,NaN,-0.6124693,-1.32766E-07,NaN,0.2002582,-5.414227E-07,NaN,-1.088478,2.015878E-05,-0.1551149,7.916665E-08,NaN,NaN,-0.5183703,1.210714E-10,-1.211805E-06,-1.111109E-07,2.20407E-08,-2.861022E-08
702.8893,-0.941792,-3.067159E-09,NaN,-0.612737,-1.327655E-07,NaN,0.2052777,-5.420948E-07,NaN,-1.08995,2.015922E-05,-0.1614904,7.991819E-08,NaN,NaN,-0.5187001,1.117582E-10,-1.251144E-06,-1.111107E-07,2.084861E-08,-2.622604E-08
702.908,-0.9495271,-3.066423E-09,NaN,-0.6130162,-1.327652E-07,NaN,0.210814,-5.426746E-07,NaN,-1.09141,2.015965E-05,-0.1686526,8.056181E-08,NaN,NaN,-0.5190694,1.117582E-10,-1.303596E-06,-1.111093E-07,1.608024E-08,-2.861022E-08
702.9197,-0.9495271,-3.066423E-09,NaN,-0.6130162,-1.327652E-07,NaN,0.210814,-5.426746E-07,NaN,-1.09141,2.015965E-05,-0.1686526,8.056181E-08,NaN,NaN,-0.5190694,1.117582E-10,-1.303596E-06,-1.111093E-07,1.608024E-08,-2.861022E-08
702.9335,-0.9574234,-3.065687E-09,NaN,-0.6132996,-1.327648E-07,NaN,0.2163022,-5.413065E-07,NaN,-1.092939,2.016009E-05,-0.1756715,7.922194E-08,NaN,NaN,-0.5194314,1.071016E-10,-1.349492E-06,-1.11107E-07,1.846442E-08,-2.622604E-08
702.9483,-0.9653823,-3.064952E-09,NaN,-0.6135833,-1.32764E-07,NaN,0.2216915,-5.420958E-07,NaN,-1.094527,2.016051E-05,-0.1825544,8.003422E-08,NaN,NaN,-0.5197862,1.164148E-10,-1.391811E-06,-1.111067E-07,2.20407E-08,-2.861022E-08
702.9624,-0.9733433,-3.064216E-09,NaN,-0.6138653,-1.327636E-07,NaN,0.2269656,-5.427578E-07,NaN,-1.096156,2.016094E-05,-0.1893061,8.071483E-08,NaN,NaN,-0.5201342,1.210714E-10,-1.434131E-06,-1.111066E-07,2.680907E-08,-2.622604E-08
702.9772,-0.9733433,-3.064216E-09,NaN,-0.6138653,-1.327636E-07,NaN,0.2269656,-5.427578E-07,NaN,-1.096156,2.016094E-05,-0.1893061,8.071483E-08,NaN,NaN,-0.5201342,1.210714E-10,-1.434131E-06,-1.111066E-07,2.680907E-08,-2.622604E-08
702.9911,-0.9816146,-3.063481E-09,NaN,-0.6141587,-1.327638E-07,NaN,0.2327526,-5.400807E-07,NaN,-1.097773,2.016137E-05,-0.1968448,7.814783E-08,NaN,NaN,-0.5205212,1.210714E-10,-1.489563E-06,-1.111052E-07,2.800117E-08,-2.622604E-08
703.0067,-0.9900379,-3.062745E-09,NaN,-0.6144561,-1.327636E-07,NaN,0.2384861,-5.406562E-07,NaN,-1.099458,2.016181E-05,-0.2042318,7.881166E-08,NaN,NaN,-0.5209005,1.117582E-10,-1.539035E-06,-1.111038E-07,2.561698E-08,-2.861022E-08
703.0214,-0.9985157,-3.06201E-09,NaN,-0.6147534,-1.327631E-07,NaN,0.2441156,-5.41329E-07,NaN,-1.101198,2.016225E-05,-0.211475,7.955549E-08,NaN,NaN,-0.5212724,1.02445E-10,-1.584334E-06,-1.111036E-07,1.965652E-08,-2.622604E-08
703.0361,-0.9985157,-3.06201E-09,NaN,-0.6147534,-1.327631E-07,NaN,0.2441156,-5.41329E-07,NaN,-1.101198,2.016225E-05,-0.211475,7.955549E-08,NaN,NaN,-0.5212724,1.02445E-10,-1.584334E-06,-1.111036E-07,1.965652E-08,-2.622604E-08
703.0504,-1.007334,-3.061275E-09,NaN,-0.6150628,-1.327629E-07,NaN,0.2502559,-5.419109E-07,NaN,-1.102939,2.016268E-05,-0.2195004,8.019438E-08,NaN,NaN,-0.5216829,1.071016E-10,-1.645727E-06,-1.111022E-07,2.680907E-08,-2.861022E-08
703.0659,-1.016319,-3.060539E-09,NaN,-0.6153761,-1.327624E-07,NaN,0.2563345,-5.425787E-07,NaN,-1.104758,2.01631E-05,-0.2273632,8.090813E-08,NaN,NaN,-0.5220853,1.117582E-10,-1.699371E-06,-1.111021E-07,2.20407E-08,-2.622604E-08
703.0803,-1.025367,-3.059805E-09,NaN,-0.6156895,-1.327626E-07,NaN,0.2623,-5.399044E-07,NaN,-1.106639,2.016353E-05,-0.2350722,7.836334E-08,NaN,NaN,-0.5224798,1.117582E-10,-1.749439E-06,-1.111006E-07,2.20407E-08,-2.622604E-08
703.0949,-1.025367,-3.059805E-09,NaN,-0.6156895,-1.327626E-07,NaN,0.2623,-5.399044E-07,NaN,-1.106639,2.016353E-05,-0.2350722,7.836334E-08,NaN,NaN,-0.5224798,1.117582E-10,-1.749439E-06,-1.111006E-07,2.20407E-08,-2.622604E-08
703.1089,-1.03441,-3.05907E-09,NaN,-0.6160008,-1.327623E-07,NaN,0.2681367,-5.404654E-07,NaN,-1.108565,2.016397E-05,-0.2426335,7.90282E-08,NaN,NaN,-0.5228665,1.02445E-10,-1.795335E-06,-1.110992E-07,2.442489E-08,-2.861022E-08
703.1243,-1.043756,-3.058335E-09,NaN,-0.6163232,-1.327619E-07,NaN,0.2744741,-5.411212E-07,NaN,-1.110485,2.01644E-05,-0.2509802,7.976739E-08,NaN,NaN,-0.5232918,1.02445E-10,-1.85792E-06,-1.11099E-07,3.038535E-08,-2.622604E-08
703.139,-1.043756,-3.058335E-09,NaN,-0.6163232,-1.327619E-07,NaN,0.2744741,-5.411212E-07,NaN,-1.110485,2.01644E-05,-0.2509802,7.976739E-08,NaN,NaN,-0.5232918,1.02445E-10,-1.85792E-06,-1.11099E-07,3.038535E-08,-2.622604E-08
703.1527,-1.053244,-3.0576E-09,NaN,-0.6166489,-1.327616E-07,NaN,0.2807437,-5.416857E-07,NaN,-1.112474,2.016483E-05,-0.2591574,8.039892E-08,NaN,NaN,-0.5237085,1.02445E-10,-1.912756E-06,-1.110976E-07,2.442489E-08,-2.861022E-08
703.1683,-1.062776,-3.056866E-09,NaN,-0.6169743,-1.327612E-07,NaN,0.2868969,-5.403028E-07,NaN,-1.114519,2.016526E-05,-0.2671742,7.904828E-08,NaN,NaN,-0.5241171,9.778835E-11,-1.965208E-06,-1.110954E-07,2.800117E-08,-2.622604E-08
