JMolnar6/NonAnthroHands_User_Study/HandsLoggerWithURDF/tempdata/files/Reachy_PID0_JointMotion_gesture_12_2.csv
Time,r_shoulder,r_shoulder_x,r_upper_arm,r_forearm,r_wrist,r_wrist2hand,
736.0835,-0.4800563,-0.4820757,0.1396148,-0.5947732,0.08764844,0.1452008
736.0977,-0.4800563,-0.4820757,0.1396148,-0.5947732,0.08764844,0.1452008
736.112,-0.4782035,-0.4805526,0.1396826,-0.5940427,0.08793152,0.1453518
736.1275,-0.4763726,-0.4790473,0.1397576,-0.59332,0.08820302,0.1454998
736.1422,-0.4745632,-0.4775595,0.1398397,-0.5926048,0.08846319,0.1456449
736.1572,-0.4745632,-0.4775595,0.1398397,-0.5926048,0.08846319,0.1456449
736.171,-0.472775,-0.476089,0.1399287,-0.5918972,0.0887123,0.1457872
736.1885,-0.4710079,-0.4746356,0.1400242,-0.5911971,0.08895058,0.1459266
736.2031,-0.4692616,-0.4731992,0.1401261,-0.5905045,0.08917829,0.1460633
736.2156,-0.4692616,-0.4731992,0.1401261,-0.5905045,0.08917829,0.1460633
736.2297,-0.4675357,-0.4717795,0.1402343,-0.5898191,0.08939567,0.1461974
736.2451,-0.4658302,-0.4703764,0.1403484,-0.5891411,0.08960295,0.1463288
736.2598,-0.4658302,-0.4703764,0.1403484,-0.5891411,0.08960295,0.1463288
736.2738,-0.4641447,-0.4689897,0.1404683,-0.5884702,0.08980038,0.1464576
736.2891,-0.462479,-0.4676192,0.1405939,-0.5878065,0.08998818,0.1465839
736.3041,-0.4608328,-0.4662646,0.1407249,-0.5871498,0.09016658,0.1467077
736.3187,-0.4608328,-0.4662646,0.1407249,-0.5871498,0.09016658,0.1467077
736.3329,-0.459206,-0.4649259,0.1408611,-0.5865001,0.09033578,0.1468291
736.3486,-0.4575983,-0.4636028,0.1410023,-0.5858573,0.090496,0.1469481
736.363,-0.4560094,-0.4622953,0.1411485,-0.5852214,0.09064747,0.1470648
736.3776,-0.4560094,-0.4622953,0.1411485,-0.5852214,0.09064747,0.1470648
736.3918,-0.4544392,-0.461003,0.1412994,-0.5845923,0.09079037,0.1471791
736.4074,-0.4528874,-0.4597258,0.1414548,-0.5839699,0.09092492,0.1472913
736.4219,-0.4513539,-0.4584636,0.1416147,-0.5833541,0.09105131,0.1474012
736.4368,-0.4513539,-0.4584636,0.1416147,-0.5833541,0.09105131,0.1474012
736.4526,-0.4498383,-0.4572161,0.1417787,-0.582745,0.09116974,0.1475089
736.4672,-0.4483405,-0.4559833,0.1419469,-0.5821423,0.09128041,0.1476146
736.4807,-0.4468603,-0.4547649,0.1421189,-0.5815461,0.09138349,0.1477181
736.4954,-0.4468603,-0.4547649,0.1421189,-0.5815461,0.09138349,0.1477181
736.5093,-0.4453974,-0.4535607,0.1422947,-0.5809563,0.09147917,0.1478197
736.5248,-0.4439516,-0.4523707,0.1424742,-0.5803729,0.09156763,0.1479192
736.5393,-0.4439516,-0.4523707,0.1424742,-0.5803729,0.09156763,0.1479192
736.5535,-0.4425229,-0.4511947,0.1426571,-0.5797957,0.09164904,0.1480168
736.5691,-0.4411108,-0.4500324,0.1428434,-0.5792248,0.09172358,0.1481124
736.5836,-0.4397153,-0.4488838,0.1430329,-0.57866,0.09179143,0.1482062
736.5983,-0.4397153,-0.4488838,0.1430329,-0.57866,0.09179143,0.1482062
736.6125,-0.4383362,-0.4477487,0.1432255,-0.5781012,0.09185272,0.1482982
736.6279,-0.4369732,-0.4466268,0.1434211,-0.5775485,0.09190766,0.1483883
736.6427,-0.4356261,-0.4455182,0.1436194,-0.5770018,0.09195638,0.1484767
736.6573,-0.4356261,-0.4455182,0.1436194,-0.5770018,0.09195638,0.1484767
736.6716,-0.4342948,-0.4444226,0.1438205,-0.5764609,0.09199903,0.1485633
736.687,-0.4329792,-0.4433398,0.1440242,-0.5759259,0.09203579,0.1486482
736.7035,-0.4316789,-0.4422698,0.1442303,-0.5753967,0.09206679,0.1487315
736.7171,-0.4316789,-0.4422698,0.1442303,-0.5753967,0.09206679,0.1487315
736.7312,-0.4303938,-0.4412124,0.1444388,-0.5748732,0.09209219,0.1488131
736.7455,-0.4291238,-0.4401673,0.1446495,-0.5743554,0.09211213,0.1488931
736.7601,-0.4278687,-0.4391346,0.1448624,-0.5738432,0.09212674,0.1489715
736.775,-0.4278687,-0.4391346,0.1448624,-0.5738432,0.09212674,0.1489715
736.7889,-0.4266282,-0.438114,0.1450773,-0.5733366,0.09213617,0.1490484
736.8046,-0.4254023,-0.4371054,0.1452942,-0.5728355,0.09214054,0.1491238
736.819,-0.4254023,-0.4371054,0.1452942,-0.5728355,0.09214054,0.1491238
736.8333,-0.4241907,-0.4361087,0.1455128,-0.5723398,0.09214001,0.1491977
736.8486,-0.4229932,-0.4351238,0.1457332,-0.5718496,0.0921347,0.1492702
736.8635,-0.4218098,-0.4341504,0.1459552,-0.5713646,0.09212473,0.1493412
736.8779,-0.4218098,-0.4341504,0.1459552,-0.5713646,0.09212473,0.1493412
736.8922,-0.4206402,-0.4331885,0.1461788,-0.570885,0.09211022,0.1494108
736.9078,-0.4194843,-0.4322379,0.1464038,-0.5704106,0.09209131,0.149479
736.9223,-0.4183419,-0.4312985,0.1466302,-0.5699413,0.09206811,0.149546
736.9373,-0.4183419,-0.4312985,0.1466302,-0.5699413,0.09206811,0.149546
736.951,-0.4172128,-0.4303702,0.1468579,-0.5694772,0.09204073,0.1496116
736.9673,-0.416097,-0.4294528,0.1470868,-0.5690182,0.09200931,0.1496759
736.9821,-0.4149942,-0.4285462,0.1473167,-0.5685642,0.09197394,0.1497389
736.9959,-0.4149942,-0.4285462,0.1473167,-0.5685642,0.09197394,0.1497389
737.0097,-0.4139042,-0.4276504,0.1475477,-0.5681151,0.09193474,0.1498007
737.0253,-0.4128271,-0.4267651,0.1477796,-0.567671,0.09189181,0.1498613
737.0397,-0.4128271,-0.4267651,0.1477796,-0.567671,0.09189181,0.1498613
737.0539,-0.4117625,-0.4258902,0.1480124,-0.5672318,0.09184527,0.1499207
737.0693,-0.4107103,-0.4250256,0.1482461,-0.5667973,0.09179521,0.1499789
737.0848,-0.4094595,-0.4239719,0.1479278,-0.5661141,0.0924127,0.1497545
737.0988,-0.4094595,-0.4239719,0.1479278,-0.5661141,0.0924127,0.1497545
737.1128,-0.4080914,-0.4228073,0.1474953,-0.5654179,0.09326566,0.1495346
737.1284,-0.4066568,-0.4215803,0.1471005,-0.5647073,0.09416649,0.1493191
737.1431,-0.4051875,-0.4203207,0.1467786,-0.563987,0.09504867,0.1491078
737.1578,-0.4051875,-0.4203207,0.1467786,-0.563987,0.09504867,0.1491078
737.172,-0.4039137,-0.4192463,0.1470797,-0.5635154,0.09522182,0.1491822
737.1877,-0.4027663,-0.4182898,0.1475499,-0.5630617,0.0951186,0.1492549
737.2022,-0.401702,-0.4174095,0.1480237,-0.5626304,0.09493031,0.1493261
737.2188,-0.401702,-0.4174095,0.1480237,-0.5626304,0.09493031,0.1493261
737.2328,-0.4009042,-0.4167792,0.1490102,-0.5624723,0.09405579,0.1496775
737.2462,-0.4002751,-0.4163048,0.1500662,-0.5623478,0.09295163,0.1500217
737.2607,-0.3997536,-0.4159281,0.151049,-0.5622544,0.09180889,0.1503592
737.2756,-0.3997536,-0.4159281,0.151049,-0.5622544,0.09180889,0.1503592
737.2895,-0.3993011,-0.4156131,0.1519337,-0.5621847,0.09069208,0.15069
737.3051,-0.3991039,-0.4155368,0.1532867,-0.5623852,0.08894511,0.1512959
737.3197,-0.3991039,-0.4155368,0.1532867,-0.5623852,0.08894511,0.1512959
737.3337,-0.3990667,-0.4156063,0.1546878,-0.5626137,0.08700113,0.1518898
737.349,-0.3991283,-0.4157656,0.1560029,-0.5628681,0.08504026,0.152472
737.3641,-0.3992514,-0.4159794,0.1572098,-0.5631404,0.08312281,0.1530428
737.3787,-0.3992514,-0.4159794,0.1572098,-0.5631404,0.08312281,0.1530428
737.3931,-0.3996226,-0.4164252,0.1588729,-0.563678,0.08059264,0.153884
737.4084,-0.4001468,-0.4170116,0.1605749,-0.5642381,0.07787917,0.1547085
737.4231,-0.4007642,-0.4176816,0.1621801,-0.5648181,0.07516409,0.1555168
737.4379,-0.4007642,-0.4176816,0.1621801,-0.5648181,0.07516409,0.1555168
737.4518,-0.4016473,-0.4185993,0.1642143,-0.5656658,0.0718395,0.1565909
737.4695,-0.4026917,-0.4196644,0.1662557,-0.5665367,0.06834906,0.1576437
737.483,-0.4038317,-0.4208149,0.1681712,-0.5674265,0.06487849,0.1586759
737.4968,-0.4038317,-0.4208149,0.1681712,-0.5674265,0.06487849,0.1586759
737.511,-0.4050262,-0.4220122,0.1699434,-0.5683267,0.06148769,0.1596879
737.5263,-0.4064601,-0.423432,0.1721332,-0.5694856,0.05752335,0.1609617
737.541,-0.4080361,-0.424981,0.1743333,-0.5706588,0.05340768,0.1622103
737.5557,-0.4080361,-0.424981,0.1743333,-0.5706588,0.05340768,0.1622103
737.5698,-0.4096932,-0.4266015,0.1764104,-0.571843,0.04932159,0.1634345
737.5851,-0.4113934,-0.4282582,0.1783443,-0.5730308,0.04532416,0.1646347
737.6001,-0.4133241,-0.4301287,0.1806868,-0.5744724,0.04076637,0.166093
737.6147,-0.4133241,-0.4301287,0.1806868,-0.5744724,0.04076637,0.166093
737.629,-0.4153889,-0.4321204,0.1830348,-0.5759229,0.0360662,0.1675226
737.6443,-0.4175274,-0.4341765,0.1852529,-0.5773793,0.03140603,0.1689242
737.659,-0.4175274,-0.4341765,0.1852529,-0.5773793,0.03140603,0.1689242
737.6732,-0.4199138,-0.4364616,0.1878516,-0.5790925,0.02618751,0.1705799
737.6887,-0.4224425,-0.4388747,0.1904262,-0.5808155,0.02084052,0.1722031
737.7032,-0.4250478,-0.4413539,0.192844,-0.5825437,0.01555197,0.1737945
737.72,-0.4250478,-0.4413539,0.192844,-0.5825437,0.01555197,0.1737945
737.7341,-0.4276892,-0.4438617,0.1950895,-0.584269,0.01038124,0.1753548
737.7474,-0.4305537,-0.4465748,0.1977046,-0.5862428,0.004686696,0.177166
737.7618,-0.4335428,-0.449399,0.2003027,-0.5882182,-0.001126232,0.1789417
737.7767,-0.4335428,-0.449399,0.2003027,-0.5882182,-0.001126232,0.1789417
737.7907,-0.4365953,-0.4522769,0.2027501,-0.5901917,-0.006874689,0.1806827
737.8062,-0.4396739,-0.4551741,0.2050282,-0.5921562,-0.01249965,0.1823896
737.8209,-0.4429683,-0.458269,0.2076669,-0.5943651,-0.01863615,0.1843445
737.8356,-0.4429683,-0.458269,0.2076669,-0.5943651,-0.01863615,0.1843445
737.8497,-0.4463804,-0.4614682,0.2102867,-0.5965709,-0.02488563,0.1862612
737.8653,-0.4498499,-0.4647151,0.212752,-0.5987705,-0.03106337,0.1881404
737.88,-0.4533397,-0.4679756,0.2150436,-0.600957,-0.03710946,0.1899827
737.8947,-0.4533397,-0.4679756,0.2150436,-0.600957,-0.03710946,0.1899827
737.9089,-0.457041,-0.471429,0.2176809,-0.6033852,-0.0436522,0.1920705
737.9243,-0.4608551,-0.4749815,0.2202945,-0.6058068,-0.05030128,0.1941174
737.939,-0.4608551,-0.4749815,0.2202945,-0.6058068,-0.05030128,0.1941174
737.9528,-0.4647216,-0.4785766,0.2227484,-0.6082185,-0.05687076,0.1961243
737.9719,-0.4688181,-0.4823803,0.2255185,-0.6108753,-0.06393547,0.1983733
737.984,-0.4730364,-0.4862902,0.2282374,-0.6135271,-0.07109529,0.2005784
737.9986,-0.4730364,-0.4862902,0.2282374,-0.6135271,-0.07109529,0.2005784
738.0116,-0.4773106,-0.4902451,0.2307727,-0.6161689,-0.07815953,0.2027403
738.0269,-0.4816005,-0.4942085,0.2331107,-0.618793,-0.08506799,0.2048598
738.0416,-0.4860977,-0.4983582,0.2357561,-0.6216552,-0.09243794,0.2072193
738.0563,-0.4860977,-0.4983582,0.2357561,-0.6216552,-0.09243794,0.2072193
738.0711,-0.4907005,-0.5025989,0.2383625,-0.6245054,-0.09989662,0.2095327
738.0859,-0.4953475,-0.5068738,0.240796,-0.6273394,-0.1072574,0.2118008
738.1003,-0.5000015,-0.511149,0.2430397,-0.6301507,-0.11446,0.2140245
738.1152,-0.5000015,-0.511149,0.2430397,-0.6301507,-0.11446,0.2140245
738.1293,-0.5048573,-0.5156045,0.2455829,-0.6331967,-0.1221131,0.216486
738.145,-0.5098132,-0.5201452,0.2480893,-0.6362269,-0.1298528,0.2188994
738.1596,-0.5098132,-0.5201452,0.2480893,-0.6362269,-0.1298528,0.2188994
738.1735,-0.5148081,-0.5247151,0.2504232,-0.6392376,-0.1374906,0.2212656
738.1891,-0.5200233,-0.5294805,0.2530282,-0.6424863,-0.1455793,0.2238669
738.2039,-0.5253476,-0.5343382,0.2555714,-0.6457213,-0.1537455,0.2264173
738.2183,-0.5253476,-0.5343382,0.2555714,-0.6457213,-0.1537455,0.2264173
738.2344,-0.5307143,-0.5392272,0.2579207,-0.648937,-0.1617955,0.2289178
738.2485,-0.5360837,-0.5441118,0.2600642,-0.6521263,-0.169668,0.2313694
738.2624,-0.5416516,-0.549171,0.2624727,-0.655547,-0.1779586,0.2340542
738.277,-0.5416516,-0.549171,0.2624727,-0.655547,-0.1779586,0.2340542
738.2908,-0.5473134,-0.5543081,0.2648353,-0.6589478,-0.1863222,0.2366866
738.3065,-0.5530067,-0.5594665,0.2670182,-0.6623242,-0.1945694,0.2392675
738.3211,-0.5586946,-0.5646132,0.2690058,-0.6656698,-0.2026389,0.2417978
738.3361,-0.5586946,-0.5646132,0.2690058,-0.6656698,-0.2026389,0.2417978
738.3496,-0.5645766,-0.569929,0.2712524,-0.6692436,-0.2111168,0.2445598
738.3653,-0.5705476,-0.5753177,0.2734577,-0.6727949,-0.2196673,0.247268
738.3798,-0.5705476,-0.5753177,0.2734577,-0.6727949,-0.2196673,0.247268
738.3938,-0.5765455,-0.5807234,0.2754865,-0.6763191,-0.2280993,0.2499231
738.4094,-0.5827563,-0.5863133,0.277747,-0.6800749,-0.2369418,0.2528074
738.4242,-0.5890651,-0.591983,0.2799432,-0.6838107,-0.2458488,0.2556355
738.4387,-0.5890651,-0.591983,0.2799432,-0.6838107,-0.2458488,0.2556355
738.4528,-0.595404,-0.5976717,0.2819439,-0.6875203,-0.2546246,0.2584082
738.4684,-0.6017336,-0.6033448,0.2837386,-0.6911966,-0.2632064,0.2611266
738.4828,-0.6082553,-0.609182,0.2857617,-0.6950986,-0.2721665,0.2640729
738.4995,-0.6082553,-0.609182,0.2857617,-0.6950986,-0.2721665,0.2640729
738.5134,-0.6148604,-0.6150855,0.2877392,-0.6989755,-0.281188,0.2669617
738.5267,-0.6214854,-0.6209989,0.2895381,-0.7028217,-0.2900797,0.2697939
738.5413,-0.6280935,-0.6268901,0.2911439,-0.7066311,-0.2987788,0.2725706
738.5562,-0.6280935,-0.6268901,0.2911439,-0.7066311,-0.2987788,0.2725706
738.57,-0.6348903,-0.6329406,0.2929739,-0.7106631,-0.307848,0.275574
738.5854,-0.6417662,-0.639053,0.2947648,-0.7146684,-0.3169794,0.2785189
738.6,-0.6486577,-0.6451714,0.2963824,-0.7186411,-0.32598,0.2814061
738.6147,-0.6486577,-0.6451714,0.2963824,-0.7186411,-0.32598,0.2814061
738.6288,-0.6557568,-0.6514641,0.298198,-0.72284,-0.3353545,0.2845178
738.644,-0.6629435,-0.6578252,0.299953,-0.7270153,-0.344784,0.2875688
738.6589,-0.6629435,-0.6578252,0.299953,-0.7270153,-0.344784,0.2875688
738.6729,-0.6701488,-0.6641945,0.3015179,-0.7311596,-0.3540709,0.2905601
738.6885,-0.6773334,-0.6705378,0.3028832,-0.7352659,-0.3631517,0.2934927
738.7031,-0.6847057,-0.6770363,0.3044462,-0.7395925,-0.3725752,0.2966489
738.7174,-0.6847057,-0.6770363,0.3044462,-0.7395925,-0.3725752,0.2966489
738.7314,-0.6921517,-0.6835907,0.3059689,-0.7438917,-0.3820511,0.2997435
738.7471,-0.6996067,-0.6901446,0.3073201,-0.7481561,-0.391387,0.3027775
738.7614,-0.7070337,-0.6966669,0.3084863,-0.7523794,-0.4005193,0.305752
738.7783,-0.7070337,-0.6966669,0.3084863,-0.7523794,-0.4005193,0.305752
738.7922,-0.7146459,-0.7033403,0.3098475,-0.7568204,-0.409988,0.3089492
738.8055,-0.7223278,-0.7100655,0.3111759,-0.7612331,-0.4195103,0.3120841
738.8201,-0.7300146,-0.7167869,0.3123393,-0.7656099,-0.4288926,0.3151576
738.8347,-0.7300146,-0.7167869,0.3123393,-0.7656099,-0.4288926,0.3151576
738.8485,-0.7379053,-0.7236739,0.3136728,-0.7702081,-0.4386166,0.3184518
738.8641,-0.7458737,-0.7306187,0.314953,-0.7747819,-0.4483876,0.3216818
738.8784,-0.7458737,-0.7306187,0.314953,-0.7747819,-0.4483876,0.3216818
738.8925,-0.7538493,-0.7375616,0.316053,-0.779322,-0.4580074,0.3248485
738.9081,-0.7617929,-0.7444698,0.3169646,-0.7838209,-0.4674119,0.3279531
738.9227,-0.7699216,-0.7515253,0.3180481,-0.7885355,-0.4771285,0.3312778
738.9377,-0.7699216,-0.7515253,0.3180481,-0.7885355,-0.4771285,0.3312778
738.9515,-0.7781148,-0.7586271,0.3190998,-0.7932227,-0.4868895,0.3345377
738.9669,-0.7863058,-0.7657193,0.3199906,-0.797873,-0.4965028,0.3377337
738.9814,-0.7944583,-0.7727715,0.3207083,-0.8024794,-0.5059045,0.3408671
738.9962,-0.7944583,-0.7727715,0.3207083,-0.8024794,-0.5059045,0.3408671
739.0103,-0.802794,-0.7799678,0.3215964,-0.8072988,-0.5156134,0.3442199
739.0259,-0.8111905,-0.7872068,0.3224601,-0.8120909,-0.5253682,0.3475073
739.0402,-0.8195808,-0.7944332,0.3231702,-0.8168454,-0.5349757,0.3507304
739.0559,-0.8195808,-0.7944332,0.3231702,-0.8168454,-0.5349757,0.3507304
739.0699,-0.8281729,-0.8018175,0.3240266,-0.8218171,-0.5448974,0.3541711
739.084,-0.8368328,-0.80925,0.3248389,-0.8267662,-0.5548582,0.3575447
739.0985,-0.8368328,-0.80925,0.3248389,-0.8267662,-0.5548582,0.3575447
739.1127,-0.8454882,-0.8166715,0.3254834,-0.8316802,-0.5646612,0.3608522
739.1279,-0.8541005,-0.8240504,0.3259534,-0.8365509,-0.5742424,0.3640948
739.1427,-0.8628967,-0.8315703,0.326574,-0.8416328,-0.5841098,0.3675547
739.1573,-0.8628967,-0.8315703,0.326574,-0.8416328,-0.5841098,0.3675547
739.1713,-0.8717481,-0.8391277,0.3271716,-0.8466896,-0.5940142,0.3709471
739.1869,-0.8805863,-0.8466672,0.3276209,-0.8517087,-0.6037645,0.374273
739.2012,-0.8893751,-0.8541597,0.3279109,-0.8566819,-0.6132975,0.3775337
739.2162,-0.8893751,-0.8541597,0.3279109,-0.8566819,-0.6132975,0.3775337
739.23,-0.8983468,-0.8617904,0.3283507,-0.8618638,-0.6231136,0.3810113
739.2453,-0.9073701,-0.8694556,0.3287745,-0.8670214,-0.6329677,0.3844211
739.26,-0.9073701,-0.8694556,0.3287745,-0.8670214,-0.6329677,0.3844211
739.274,-0.9163762,-0.8771003,0.3290571,-0.8721408,-0.6426688,0.3877641
739.2897,-0.9255829,-0.8848965,0.3294659,-0.8774736,-0.6526608,0.3913224
739.3043,-0.9348473,-0.8927321,0.3298395,-0.8827873,-0.6626841,0.3948113
739.3185,-0.9348473,-0.8927321,0.3298395,-0.8827873,-0.6626841,0.3948113
739.3347,-0.9440952,-0.9005486,0.3300587,-0.8880658,-0.672544,0.3982319
739.349,-0.9532889,-0.9083158,0.3301186,-0.8932989,-0.6821779,0.4015854
739.3626,-0.9626666,-0.916219,0.3303109,-0.898739,-0.6920772,0.405154
739.377,-0.9626666,-0.916219,0.3303109,-0.898739,-0.6920772,0.405154
739.3911,-0.9720899,-0.9241518,0.3304884,-0.9041579,-0.7020057,0.4086529
739.4063,-0.9814886,-0.9320596,0.3305306,-0.9095387,-0.7117752,0.4120833
739.4208,-0.9908274,-0.9399144,0.3304282,-0.9148719,-0.7213238,0.4154464
739.4356,-0.9908274,-0.9399144,0.3304282,-0.9148719,-0.7213238,0.4154464
739.4493,-1.00035,-0.9479032,0.3304577,-0.9204094,-0.7311363,0.4190245
739.4648,-1.009915,-0.955919,0.3304785,-0.9259269,-0.7409787,0.4225327
739.4792,-1.009915,-0.955919,0.3304785,-0.9259269,-0.7409787,0.4225327
739.4935,-1.019451,-0.9639075,0.3303705,-0.9314061,-0.7506633,0.4259722
739.5089,-1.029188,-0.9720425,0.3303714,-0.937095,-0.7606203,0.4296252
739.5236,-1.038972,-0.9802089,0.3303445,-0.9427696,-0.7706001,0.4332069
739.5382,-1.038972,-0.9802089,0.3303445,-0.9427696,-0.7706001,0.4332069
739.5521,-1.048727,-0.9883493,0.330177,-0.9484085,-0.7804125,0.4367184
739.5675,-1.058417,-0.9964349,0.3298661,-0.9539999,-0.7899972,0.440161
739.582,-1.068292,-1.004653,0.3296714,-0.959794,-0.7998313,0.4438171
739.5968,-1.068292,-1.004653,0.3296714,-0.959794,-0.7998313,0.4438171
739.6127,-1.078204,-1.012894,0.3294687,-0.9655716,-0.8096865,0.4474018
739.6269,-1.088079,-1.021104,0.3291433,-0.9713106,-0.8193792,0.4509163
739.6416,-1.097884,-1.029256,0.3286886,-0.9769995,-0.8288499,0.4543619
739.6553,-1.097884,-1.029256,0.3286886,-0.9769995,-0.8288499,0.4543619
739.6691,-1.107875,-1.037539,0.3283495,-0.9828886,-0.8385698,0.4580208
739.6842,-1.117898,-1.045843,0.3280073,-0.9887626,-0.8483113,0.4616083
739.6985,-1.117898,-1.045843,0.3280073,-0.9887626,-0.8483113,0.4616083
739.7126,-1.127882,-1.054115,0.3275488,-0.9945977,-0.857892,0.4651255
739.7281,-1.138067,-1.062529,0.3271831,-1.000639,-0.8677304,0.4688548
739.7425,-1.148288,-1.070967,0.3267959,-1.006671,-0.8775832,0.4725112
739.7571,-1.148288,-1.070967,0.3267959,-1.006671,-0.8775832,0.4725112
739.7711,-1.158469,-1.079374,0.3262818,-1.012666,-0.8872666,0.476096
739.7863,-1.168573,-1.087722,0.3256404,-1.01861,-0.8967235,0.4796105
739.801,-1.178867,-1.096201,0.3251002,-1.024753,-0.906418,0.4833371
739.8159,-1.178867,-1.096201,0.3251002,-1.024753,-0.906418,0.4833371
739.8296,-1.189186,-1.104697,0.324557,-1.030884,-0.9161258,0.4869909
739.8449,-1.199457,-1.113157,0.3239038,-1.036976,-0.9256696,0.4905732
739.8598,-1.199457,-1.113157,0.3239038,-1.036976,-0.9256696,0.4905732
739.8735,-1.199325,-1.114117,0.3159833,-1.033448,-0.9176977,0.4836859
739.8889,-1.193908,-1.111053,0.3041977,-1.027951,-0.9000131,0.4769252
739.9033,-1.185675,-1.105634,0.293048,-1.021481,-0.8793747,0.4702935
739.92,-1.185675,-1.105634,0.293048,-1.021481,-0.8793747,0.4702935
739.9338,-1.176145,-1.09897,0.2836394,-1.014414,-0.8585805,0.4637905
739.9471,-1.166396,-1.091861,0.2763624,-1.007016,-0.8389412,0.4572346
739.9616,-1.15663,-1.084543,0.2702667,-0.9995165,-0.8202733,0.4508075
739.976,-1.15663,-1.084543,0.2702667,-0.9995165,-0.8202733,0.4508075
739.99,-1.146932,-1.07714,0.2648191,-0.9919981,-0.802335,0.4445064
740.0053,-1.137331,-1.069717,0.2597176,-0.9845256,-0.7849324,0.438329
740.02,-1.128127,-1.062482,0.2553913,-0.9771636,-0.7683961,0.4320927
740.0344,-1.128127,-1.062482,0.2553913,-0.9771636,-0.7683961,0.4320927
740.0496,-1.119164,-1.055362,0.2513019,-0.9700073,-0.7523623,0.4259788
740.0638,-1.110368,-1.048326,0.2472939,-0.9630221,-0.7366736,0.4199848
740.0782,-1.110368,-1.048326,0.2472939,-0.9630221,-0.7366736,0.4199848
740.0923,-1.101991,-1.041532,0.2439085,-0.9562028,-0.7217245,0.4139283
740.1075,-1.093861,-1.034885,0.2406804,-0.9496195,-0.7071923,0.4079907
740.1222,-1.085898,-1.028339,0.2374901,-0.9432184,-0.6929476,0.4021695
740.1368,-1.085898,-1.028339,0.2374901,-0.9432184,-0.6929476,0.4021695
740.1513,-1.078061,-1.021872,0.2343111,-0.9369698,-0.6789385,0.3964624
740.166,-1.070614,-1.015644,0.2317349,-0.9308585,-0.6656208,0.390687
740.1805,-1.063401,-1.009565,0.2293156,-0.9249662,-0.6526893,0.3850251
740.1952,-1.063401,-1.009565,0.2293156,-0.9249662,-0.6526893,0.3850251
740.2114,-1.056345,-1.003589,0.2269332,-0.9192411,-0.6400211,0.3794742
740.2266,-1.049406,-0.9976914,0.2245586,-0.9136546,-0.6275665,0.3740321
740.2399,-1.049406,-0.9976914,0.2245586,-0.9136546,-0.6275665,0.3740321
740.2537,-1.042847,-0.9920338,0.2227821,-0.9081826,-0.61579,0.3685165
740.2681,-1.036516,-0.9865264,0.22116,-0.9029167,-0.6043816,0.3631093
740.2825,-1.030336,-0.9811227,0.2195683,-0.8978067,-0.5932154,0.3578082
740.2968,-1.030336,-0.9811227,0.2195683,-0.8978067,-0.5932154,0.3578082
740.3112,-1.024546,-0.9759707,0.218565,-0.8928115,-0.5827277,0.3524308
740.3262,-1.018989,-0.9709764,0.217701,-0.8880229,-0.5725921,0.3471592
740.3408,-1.013584,-0.9660894,0.2168505,-0.8833875,-0.5626768,0.3419909
740.3553,-1.013584,-0.9660894,0.2168505,-0.8833875,-0.5626768,0.3419909
740.3695,-1.008288,-0.9612825,0.2159837,-0.8788752,-0.5529307,0.336924
740.385,-1.003354,-0.9567135,0.2156937,-0.8744484,-0.5438315,0.3317763
740.4043,-0.9986383,-0.9522953,0.2155435,-0.8702105,-0.5350629,0.3267297
740.4144,-0.9986383,-0.9522953,0.2155435,-0.8702105,-0.5350629,0.3267297
740.428,-0.9940634,-0.9479802,0.215405,-0.8661122,-0.5264953,0.3217822
740.4435,-0.9895886,-0.9437418,0.2152457,-0.8621257,-0.5180779,0.3169317
740.4583,-0.9895886,-0.9437418,0.2152457,-0.8621257,-0.5180779,0.3169317
740.4721,-0.9854655,-0.9397379,0.2156575,-0.8582096,-0.5102948,0.3119962
740.4875,-0.9815536,-0.935883,0.2162044,-0.8544731,-0.502825,0.3071577
740.5031,-0.9777767,-0.9321296,0.216755,-0.850868,-0.4955363,0.3024141
740.518,-0.9777767,-0.9321296,0.216755,-0.850868,-0.4955363,0.3024141
740.532,-0.9743658,-0.9286233,0.2178678,-0.8473397,-0.4888823,0.2975835
740.5465,-0.9711725,-0.9252732,0.219099,-0.8439945,-0.4825256,0.2928479
740.5609,-0.9681154,-0.9220277,0.2203157,-0.8407807,-0.4763284,0.2882052
740.5756,-0.9681154,-0.9220277,0.2203157,-0.8407807,-0.4763284,0.2882052
740.5898,-0.9651497,-0.918857,0.2214854,-0.8376688,-0.470239,0.2836536
740.6052,-0.9625208,-0.9159165,0.2232051,-0.8346109,-0.4647537,0.2790111
740.6196,-0.9625208,-0.9159165,0.2232051,-0.8346109,-0.4647537,0.2790111
740.6336,-0.9600924,-0.9131224,0.225042,-0.8317211,-0.4595453,0.27446
740.6488,-0.9577883,-0.910426,0.2268623,-0.8289514,-0.4544791,0.2699982
740.6636,-0.955566,-0.9077989,0.2286312,-0.8262743,-0.449504,0.2656239
740.6785,-0.955566,-0.9077989,0.2286312,-0.8262743,-0.449504,0.2656239
740.6922,-0.9536703,-0.9053971,0.2309459,-0.8236415,-0.4451222,0.2611553
740.7077,-0.9519681,-0.9031382,0.2333722,-0.82117,-0.4410017,0.2567746
740.7223,-0.9503838,-0.9009737,0.2357737,-0.8188123,-0.4370054,0.2524799
740.7371,-0.9503838,-0.9009737,0.2357737,-0.8188123,-0.4370054,0.2524799
740.7509,-0.949143,-0.8990478,0.2387135,-0.8165091,-0.4336041,0.2480894
740.7662,-0.9481037,-0.897272,0.2417476,-0.8143723,-0.4304485,0.2437853
740.7827,-0.9471846,-0.8955938,0.2447382,-0.8123509,-0.4273967,0.2395657
740.7964,-0.9471846,-0.8955938,0.2447382,-0.8123509,-0.4273967,0.2395657
740.8103,-0.9463392,-0.8939816,0.2476514,-0.8104157,-0.4243969,0.2354289
740.8248,-0.9458079,-0.8925892,0.2510914,-0.8085166,-0.4219639,0.2311931
740.8392,-0.9458079,-0.8925892,0.2510914,-0.8085166,-0.4219639,0.2311931
740.8532,-0.9454598,-0.891335,0.2546238,-0.806771,-0.4197583,0.2270407
740.8685,-0.9452193,-0.8901699,0.2581107,-0.8051308,-0.4176414,0.2229698
740.8829,-0.9450423,-0.8890641,0.2615162,-0.8035689,-0.4155623,0.2189788
740.8974,-0.9450423,-0.8890641,0.2615162,-0.8035689,-0.4155623,0.2189788
740.9118,-0.9451665,-0.888172,0.2654441,-0.8020387,-0.4140411,0.214886
740.9271,-0.9454676,-0.8874147,0.2694598,-0.8006561,-0.4127343,0.2108738
740.9417,-0.9458702,-0.8867443,0.2734229,-0.7993737,-0.4115016,0.2069404
740.9565,-0.9458702,-0.8867443,0.2734229,-0.7993737,-0.4115016,0.2069404
740.9706,-0.9465966,-0.8863031,0.277905,-0.7981343,-0.4108308,0.2029041
740.9858,-0.9475092,-0.8860051,0.2824559,-0.7970492,-0.4103591,0.1989473
741.0004,-0.9485268,-0.8857961,0.2869343,-0.7960667,-0.4099402,0.1950682
741.0153,-0.9485268,-0.8857961,0.2869343,-0.7960667,-0.4099402,0.1950682
741.029,-0.9496011,-0.8856425,0.2913057,-0.7951576,-0.409523,0.1912652
741.0446,-0.9509698,-0.8856936,0.2961848,-0.7942758,-0.4096396,0.1873567
741.059,-0.9509698,-0.8856936,0.2961848,-0.7942758,-0.4096396,0.1873567
741.0751,-0.9525055,-0.8858706,0.3011303,-0.7935367,-0.409938,0.1835252
741.0892,-0.9541303,-0.8861233,0.3059999,-0.7928917,-0.4102749,0.1797689
741.1039,-0.9557984,-0.8864206,0.3107581,-0.7923139,-0.4106006,0.1760864
741.1174,-0.9557984,-0.8864206,0.3107581,-0.7923139,-0.4106006,0.1760864
741.1312,-0.9577494,-0.8869162,0.3160242,-0.7917612,-0.4114565,0.172296
741.1464,-0.9598542,-0.8875288,0.321346,-0.791348,-0.412478,0.1685802
741.1609,-0.962037,-0.888209,0.326582,-0.7910252,-0.413522,0.1649375
741.1758,-0.962037,-0.888209,0.326582,-0.7910252,-0.413522,0.1649375
741.1899,-0.96452,-0.8890993,0.3323202,-0.790742,-0.4150985,0.1611862
741.2052,-0.967163,-0.8901108,0.3380936,-0.7906055,-0.4168238,0.1575088
741.2198,-0.967163,-0.8901108,0.3380936,-0.7906055,-0.4168238,0.1575088
741.2338,-0.9698841,-0.8911898,0.3437615,-0.790562,-0.4185516,0.1539036
741.249,-0.9726357,-0.8923041,0.3492933,-0.7905818,-0.4202352,0.1503692
741.2642,-0.9756578,-0.8936068,0.3553217,-0.790628,-0.4224317,0.146724
741.2786,-0.9756578,-0.8936068,0.3553217,-0.790628,-0.4224317,0.146724
741.2925,-0.9788186,-0.895015,0.3613827,-0.7908099,-0.4247622,0.1431507
741.3079,-0.9820421,-0.8964788,0.3673365,-0.7910764,-0.427084,0.1396475
741.3226,-0.9852846,-0.8979688,0.3731523,-0.7913992,-0.4293518,0.1362131
741.3373,-0.9852846,-0.8979688,0.3731523,-0.7913992,-0.4293518,0.1362131
741.3533,-0.988789,-0.89964,0.3794669,-0.7917471,-0.43213,0.132666
741.3673,-0.9924237,-0.9014097,0.3858068,-0.7922269,-0.4350302,0.1291888
741.382,-0.9961132,-0.9032287,0.3920318,-0.7927869,-0.4379084,0.1257799
741.3956,-0.9961132,-0.9032287,0.3920318,-0.7927869,-0.4379084,0.1257799
741.4097,-1.000083,-0.905241,0.3987486,-0.7933879,-0.4412982,0.1222578
741.4248,-1.004191,-0.907356,0.4054695,-0.7941279,-0.4447927,0.1188052
741.4395,-1.004191,-0.907356,0.4054695,-0.7941279,-0.4447927,0.1188052
741.4536,-1.008354,-0.9095207,0.412056,-0.7949507,-0.4482462,0.1154204
741.4686,-1.012527,-0.9117043,0.4184819,-0.795826,-0.4516166,0.1121021
741.4841,-1.016954,-0.9140617,0.4253981,-0.7967303,-0.455484,0.1086686
741.4977,-1.016954,-0.9140617,0.4253981,-0.7967303,-0.455484,0.1086686
741.5118,-1.021499,-0.9165079,0.4323174,-0.7977628,-0.4594444,0.105303
741.5273,-1.026087,-0.9189938,0.4391017,-0.7988697,-0.4633548,0.1020035
741.5421,-1.030675,-0.921491,0.4457245,-0.8000222,-0.4671746,0.09876869
741.5566,-1.030675,-0.921491,0.4457245,-0.8000222,-0.4671746,0.09876869
741.5707,-1.03551,-0.9241562,0.4528412,-0.8012041,-0.4714909,0.09541721
741.5859,-1.040456,-0.9269045,0.4599538,-0.8025105,-0.475889,0.09213191
741.6005,-1.045439,-0.9296873,0.4669247,-0.8038869,-0.4802256,0.08891116
741.6154,-1.045439,-0.9296873,0.4669247,-0.8038869,-0.4802256,0.08891116
741.6292,-1.050688,-0.9326498,0.4743807,-0.8053094,-0.4850582,0.08557349
741.6455,-1.056056,-0.9356996,0.481811,-0.8068628,-0.4899548,0.08230173
741.66,-1.061461,-0.9387845,0.4890805,-0.8084885,-0.4947715,0.07909424
741.6736,-1.061461,-0.9387845,0.4890805,-0.8084885,-0.4947715,0.07909424
741.6877,-1.066858,-0.941875,0.4961682,-0.8101555,-0.4994715,0.07594965
741.7029,-1.072497,-0.9451272,0.5037434,-0.8118578,-0.5046576,0.07268661
741.7171,-1.072497,-0.9451272,0.5037434,-0.8118578,-0.5046576,0.07268661
741.7311,-1.078237,-0.9484544,0.5112931,-0.8136806,-0.5098988,0.06948803
741.7463,-1.084003,-0.951808,0.5186829,-0.8155671,-0.5150531,0.06635229
741.761,-1.089753,-0.9551609,0.525891,-0.8174881,-0.520085,0.06327806
741.7758,-1.089753,-0.9551609,0.525891,-0.8174881,-0.520085,0.06327806
741.7896,-1.095739,-0.9586707,0.533591,-0.8194461,-0.5256041,0.06008398
741.8049,-1.101822,-0.9622507,0.5412589,-0.8215208,-0.5311678,0.05695303
741.8198,-1.101822,-0.9622507,0.5412589,-0.8215208,-0.5311678,0.05695303
741.8336,-1.107924,-0.9658528,0.5487609,-0.8236546,-0.5366346,0.0538836
741.849,-1.114282,-0.9696233,0.5567445,-0.8258425,-0.542586,0.05069424
741.8636,-1.120742,-0.9734681,0.5646738,-0.8281528,-0.5485637,0.04756793
741.8781,-1.120742,-0.9734681,0.5646738,-0.8281528,-0.5485637,0.04756793
741.892,-1.127224,-0.9773354,0.5724192,-0.8305238,-0.5544268,0.04450303
741.9074,-1.133682,-0.9811971,0.5799652,-0.8329242,-0.5601449,0.04149824
741.9221,-1.140373,-0.9852107,0.5879984,-0.8353692,-0.5663426,0.03837223
741.9387,-1.140373,-0.9852107,0.5879984,-0.8353692,-0.5663426,0.03837223
741.9525,-1.147151,-0.9892875,0.5959791,-0.8379262,-0.5725597,0.03530803
741.9667,-1.15394,-0.9933793,0.6037779,-0.8405353,-0.5786572,0.03230402
741.9803,-1.160698,-0.9974601,0.6113787,-0.8431674,-0.5846057,0.02935892
741.9951,-1.160698,-0.9974601,0.6113787,-0.8431674,-0.5846057,0.02935892
742.0087,-1.167684,-1.001689,0.6194716,-0.8458465,-0.5910361,0.02629144
742.0242,-1.174753,-1.005977,0.6275058,-0.8486336,-0.5974763,0.02328463
742.0389,-1.174753,-1.005977,0.6275058,-0.8486336,-0.5974763,0.02328463
742.0527,-1.181828,-1.010276,0.6353534,-0.851468,-0.6037883,0.02033688
742.0682,-1.189149,-1.014735,0.6436811,-0.8543666,-0.6105779,0.01726682
742.0827,-1.19656,-1.019256,0.651928,-0.8573779,-0.6173584,0.01425747
742.0971,-1.19656,-1.019256,0.651928,-0.8573779,-0.6173584,0.01425747
742.1111,-1.203977,-1.023789,0.6599716,-0.8604372,-0.6239944,0.01130723
742.128,-1.211356,-1.028307,0.6678022,-0.8635135,-0.6304623,0.008414834
742.1414,-1.218962,-1.032969,0.6761215,-0.8666455,-0.6374076,0.005399026
742.1559,-1.218962,-1.032969,0.6761215,-0.8666455,-0.6374076,0.005399026
742.1699,-1.226642,-1.037684,0.6843628,-0.8698798,-0.6443387,0.002442859
742.1856,-1.234319,-1.042404,0.6924042,-0.8731537,-0.651122,-0.0004552323
742.2,-1.241952,-1.047104,0.7002352,-0.876438,-0.657735,-0.003296506
742.2145,-1.241952,-1.047104,0.7002352,-0.876438,-0.657735,-0.003296506
742.2308,-1.249808,-1.051946,0.70856,-0.8797814,-0.6648293,-0.00626218
742.2447,-1.257735,-1.056837,0.7168011,-0.8832228,-0.6719,-0.009169187
742.2583,-1.257735,-1.056837,0.7168011,-0.8832228,-0.6719,-0.009169187
742.2723,-1.265653,-1.06173,0.724839,-0.8866987,-0.678816,-0.0120191
742.2878,-1.273813,-1.066774,0.7333572,-0.8902504,-0.6862073,-0.01499323
742.3019,-1.282049,-1.071871,0.74177,-0.8939037,-0.6935562,-0.01790854
742.3166,-1.282049,-1.071871,0.74177,-0.8939037,-0.6935562,-0.01790854
742.3306,-1.290276,-1.07697,0.7499645,-0.8975911,-0.7007357,-0.0207666
742.3459,-1.298454,-1.082047,0.7579368,-0.9012821,-0.7077299,-0.02356864
742.3605,-1.306854,-1.087261,0.7664001,-0.9050414,-0.715204,-0.02649583
742.3751,-1.306854,-1.087261,0.7664001,-0.9050414,-0.715204,-0.02649583
742.3893,-1.315317,-1.092519,0.7747617,-0.9088922,-0.7226316,-0.02936513
742.4046,-1.323763,-1.097774,0.7829098,-0.9127688,-0.7298881,-0.03217808
742.4192,-1.323763,-1.097774,0.7829098,-0.9127688,-0.7298881,-0.03217808
742.4332,-1.332446,-1.103176,0.7915369,-0.916729,-0.7376198,-0.03511595
742.4484,-1.341197,-1.108624,0.8000429,-0.9207832,-0.7452871,-0.03799574
742.4632,-1.349932,-1.11407,0.8083221,-0.924862,-0.7527705,-0.040819
742.4775,-1.349932,-1.11407,0.8083221,-0.924862,-0.7527705,-0.040819
742.4916,-1.358608,-1.119488,0.8163742,-0.9289354,-0.7600595,-0.04358691
742.5072,-1.367504,-1.125039,0.8249174,-0.9330856,-0.7678312,-0.04648061
742.5237,-1.376455,-1.130629,0.8333439,-0.9373195,-0.7755349,-0.0493171
742.5372,-1.376455,-1.130629,0.8333439,-0.9373195,-0.7755349,-0.0493171
742.551,-1.385381,-1.136211,0.8415492,-0.9415699,-0.7830543,-0.05209791
742.5652,-1.394244,-1.141763,0.849532,-0.9458086,-0.7903801,-0.05482421
742.5799,-1.394244,-1.141763,0.849532,-0.9458086,-0.7903801,-0.05482421
742.5937,-1.403325,-1.147446,0.8580106,-0.9501283,-0.7981948,-0.05767708
742.6089,-1.412457,-1.153165,0.8663678,-0.954527,-0.8059323,-0.06047357
742.6237,-1.421561,-1.158874,0.8745032,-0.9589367,-0.8134817,-0.06321516
742.6383,-1.421561,-1.158874,0.8745032,-0.9589367,-0.8134817,-0.06321516
742.6523,-1.430899,-1.164724,0.8831194,-0.9634426,-0.8215132,-0.066083
742.6677,-1.440292,-1.170612,0.8915945,-0.9680288,-0.8294494,-0.06889419
742.6819,-1.449656,-1.176491,0.8998359,-0.9726243,-0.8371864,-0.07165021
742.6967,-1.449656,-1.176491,0.8998359,-0.9726243,-0.8371864,-0.07165021
742.7112,-1.458952,-1.182336,0.9078479,-0.9771999,-0.8447216,-0.07435222
742.7263,-1.468465,-1.188311,0.9163522,-0.9818658,-0.8527493,-0.07718123
742.7406,-1.478023,-1.194318,0.9247201,-0.9866026,-0.8606777,-0.07995437
742.7554,-1.478023,-1.194318,0.9247201,-0.9866026,-0.8606777,-0.07995437
742.7693,-1.487544,-1.200311,0.9328611,-0.9913409,-0.868408,-0.0826731
742.7847,-1.496992,-1.206268,0.940778,-0.9960534,-0.8759385,-0.08533852
742.7993,-1.496992,-1.206268,0.940778,-0.9960534,-0.8759385,-0.08533852
742.8154,-1.506657,-1.212353,0.9491907,-1.000861,-0.8839685,-0.08813164
742.8295,-1.516363,-1.218468,0.9574634,-1.005734,-0.89189,-0.09086963
742.8441,-1.526029,-1.224567,0.9655102,-1.010603,-0.8996117,-0.09355389
742.8575,-1.526029,-1.224567,0.9655102,-1.010603,-0.8996117,-0.09355389
742.8716,-1.535928,-1.230803,0.9740373,-1.015581,-0.9078261,-0.09636544
742.887,-1.545871,-1.237071,0.9824066,-1.020626,-0.9159149,-0.09912154
742.9012,-1.555773,-1.243323,0.99054,-1.025663,-0.9237952,-0.1018236
742.916,-1.555773,-1.243323,0.99054,-1.025663,-0.9237952,-0.1018236
742.93,-1.565597,-1.249538,0.9984446,-1.030666,-0.9314708,-0.1044726
742.9453,-1.575639,-1.25588,1.00684,-1.035773,-0.9396509,-0.1072496
742.9598,-1.575639,-1.25588,1.00684,-1.035773,-0.9396509,-0.1072496
742.9738,-1.585714,-1.262248,1.015082,-1.040938,-0.9477011,-0.1099719
742.9892,-1.595742,-1.268596,1.023097,-1.046089,-0.9555453,-0.1126407
743.0039,-1.605689,-1.274906,1.030889,-1.0512,-0.963188,-0.1152573
743.0185,-1.605689,-1.274906,1.030889,-1.0512,-0.963188,-0.1152573
743.0326,-1.615853,-1.281341,1.039173,-1.056419,-0.9713417,-0.1180024
743.0479,-1.626048,-1.287801,1.047303,-1.061691,-0.9793569,-0.1206934
743.0623,-1.636193,-1.29424,1.055207,-1.066944,-0.9871663,-0.1233316
743.0771,-1.636193,-1.29424,1.055207,-1.066944,-0.9871663,-0.1233316
743.0922,-1.634368,-1.29374,1.034532,-1.065472,-0.9657799,-0.1179022
743.1085,-1.625295,-1.289177,1.010388,-1.059595,-0.9419705,-0.1125929
743.1219,-1.612735,-1.282422,0.9870434,-1.052236,-0.9189079,-0.1073903
743.1356,-1.612735,-1.282422,0.9870434,-1.052236,-0.9189079,-0.1073903
743.1492,-1.598804,-1.274677,0.9653643,-1.044497,-0.8968805,-0.1022894
743.1645,-1.58445,-1.266531,0.9451657,-1.036737,-0.8757499,-0.09728784
743.179,-1.58445,-1.266531,0.9451657,-1.036737,-0.8757499,-0.09728784
743.1929,-1.570048,-1.258236,0.9260587,-1.029065,-0.8553314,-0.09238374
743.2082,-1.555734,-1.249902,0.907728,-1.021514,-0.8354828,-0.08757547
743.2227,-1.541554,-1.241573,0.8899707,-1.014101,-0.8161117,-0.08286133
743.2375,-1.541554,-1.241573,0.8899707,-1.014101,-0.8161117,-0.08286133
743.2513,-1.527522,-1.233271,0.8726691,-1.006832,-0.7971616,-0.07823958
743.2668,-1.513641,-1.225005,0.8557581,-0.9997096,-0.7785987,-0.07370846
743.2811,-1.49991,-1.21678,0.8392019,-0.9927354,-0.7604024,-0.06926621
743.296,-1.49991,-1.21678,0.8392019,-0.9927354,-0.7604024,-0.06926621
743.31,-1.486326,-1.208599,0.8229805,-0.9859079,-0.742559,-0.06491112
743.3253,-1.472888,-1.200463,0.8070818,-0.9792247,-0.7250587,-0.06064148
743.3401,-1.459594,-1.192373,0.7914975,-0.972683,-0.7078935,-0.0564556
743.3547,-1.459594,-1.192373,0.7914975,-0.972683,-0.7078935,-0.0564556
743.3685,-1.446443,-1.184329,0.7762215,-0.9662794,-0.6910567,-0.05235186
743.3839,-1.433433,-1.176333,0.7612481,-0.9600106,-0.6745419,-0.04832863
743.4005,-1.420564,-1.168384,0.7465724,-0.9538732,-0.6583432,-0.04438436
743.4139,-1.420564,-1.168384,0.7465724,-0.9538732,-0.6583432,-0.04438436
743.4279,-1.407832,-1.160483,0.7321896,-0.9478635,-0.6424548,-0.04051746
743.4421,-1.395239,-1.152631,0.7180949,-0.9419784,-0.626871,-0.03672643
743.4567,-1.395239,-1.152631,0.7180949,-0.9419784,-0.626871,-0.03672643
743.4705,-1.382781,-1.144827,0.7042837,-0.9362145,-0.6115865,-0.03300979
743.4857,-1.370458,-1.137072,0.6907513,-0.9305686,-0.5965956,-0.02936605
743.5002,-1.358269,-1.129366,0.6774932,-0.9250374,-0.5818933,-0.02579381
743.515,-1.358269,-1.129366,0.6774932,-0.9250374,-0.5818933,-0.02579381
743.5289,-1.346213,-1.121709,0.6645048,-0.9196181,-0.5674741,-0.02229166
743.5443,-1.334289,-1.114102,0.6517817,-0.9143075,-0.5533333,-0.0188582
743.5588,-1.334289,-1.114102,0.6517817,-0.9143075,-0.5533333,-0.0188582
743.5726,-1.322495,-1.106545,0.6393199,-0.909103,-0.5394664,-0.01549209
743.5882,-1.31083,-1.099038,0.6271151,-0.904002,-0.5258687,-0.01219202
743.6028,-1.299293,-1.091582,0.6151628,-0.8990017,-0.5125354,-0.008956688
743.6174,-1.299293,-1.091582,0.6151628,-0.8990017,-0.5125354,-0.008956688
743.6313,-1.287883,-1.084176,0.6034589,-0.8940993,-0.4994617,-0.005784806
743.6467,-1.276599,-1.076821,0.5919991,-0.8892922,-0.486643,-0.002675141
743.6612,-1.26544,-1.069517,0.580779,-0.8845778,-0.4740746,0.0003735353
743.6759,-1.26544,-1.069517,0.580779,-0.8845778,-0.4740746,0.0003735353
743.6898,-1.254404,-1.062265,0.5697945,-0.8799534,-0.4617521,0.003362422
743.7075,-1.243491,-1.055063,0.5590414,-0.8754168,-0.4496711,0.006292692
743.7207,-1.2327,-1.047914,0.5485158,-0.8709654,-0.4378271,0.009165497
743.7343,-1.2327,-1.047914,0.5485158,-0.8709654,-0.4378271,0.009165497
743.7483,-1.222028,-1.040816,0.5382136,-0.8665969,-0.426216,0.01198197
743.7634,-1.211477,-1.03377,0.5281307,-0.862309,-0.4148335,0.0147432
743.7777,-1.211477,-1.03377,0.5281307,-0.862309,-0.4148335,0.0147432
743.7918,-1.201043,-1.026776,0.5182633,-0.8580995,-0.4036754,0.0174503
743.8071,-1.190726,-1.019835,0.5086074,-0.8539664,-0.3927378,0.02010431
743.8215,-1.180526,-1.012946,0.4991594,-0.8499074,-0.3820166,0.0227063
743.8363,-1.180526,-1.012946,0.4991594,-0.8499074,-0.3820166,0.0227063
743.8499,-1.17044,-1.006109,0.4899153,-0.8459206,-0.3715079,0.02525726
743.8652,-1.160469,-0.9993247,0.4808715,-0.8420041,-0.3612079,0.02775822
743.8798,-1.160469,-0.9993247,0.4808715,-0.8420041,-0.3612079,0.02775822
743.8937,-1.15061,-0.9925932,0.4720242,-0.838156,-0.3511127,0.03021015
743.9089,-1.140863,-0.9859145,0.46337,-0.8343743,-0.3412186,0.03261401
743.9238,-1.131227,-0.9792885,0.4549052,-0.8306574,-0.331522,0.03497075
743.9387,-1.131227,-0.9792885,0.4549052,-0.8306574,-0.331522,0.03497075
743.9524,-1.1217,-0.9727153,0.4466262,-0.8270034,-0.3220193,0.0372813
743.9675,-1.112282,-0.966195,0.4385297,-0.8234108,-0.3127068,0.03954656
743.9822,-1.102972,-0.9597276,0.4306122,-0.8198779,-0.3035812,0.04176741
743.9968,-1.102972,-0.9597276,0.4306122,-0.8198779,-0.3035812,0.04176741
744.0128,-1.093768,-0.9533132,0.4228704,-0.8164032,-0.294639,0.04394475
744.0269,-1.084669,-0.9469516,0.4153009,-0.812985,-0.2858768,0.04607941
744.0404,-1.075675,-0.940643,0.4079005,-0.809622,-0.2772913,0.04817223
744.0566,-1.075675,-0.940643,0.4079005,-0.809622,-0.2772913,0.04817223
744.0691,-1.066785,-0.9343872,0.400666,-0.8063127,-0.2688793,0.05022405
744.0843,-1.057997,-0.9281843,0.3935942,-0.8030557,-0.2606375,0.05223566
744.0984,-1.057997,-0.9281843,0.3935942,-0.8030557,-0.2606375,0.05223566
744.1123,-1.04931,-0.9220341,0.3866821,-0.7998497,-0.2525629,0.05420785
744.1277,-1.040724,-0.9159368,0.3799264,-0.7966935,-0.2446522,0.05614139
744.1424,-1.032237,-0.9098921,0.3733244,-0.7935857,-0.2369025,0.05803705
744.1568,-1.032237,-0.9098921,0.3733244,-0.7935857,-0.2369025,0.05803705
744.1708,-1.023848,-0.9039,0.3668729,-0.7905251,-0.2293108,0.05989557
744.1861,-1.015557,-0.8979604,0.3605691,-0.7875106,-0.2218742,0.06171767
744.2009,-1.007362,-0.8920732,0.35441,-0.7845411,-0.2145897,0.06350409
744.2153,-1.007362,-0.8920732,0.35441,-0.7845411,-0.2145897,0.06350409
744.2292,-0.9992621,-0.8862382,0.348393,-0.7816154,-0.2074544,0.06525551
744.2444,-0.9912568,-0.8804555,0.3425151,-0.7787325,-0.2004657,0.06697261
744.2592,-0.9912568,-0.8804555,0.3425151,-0.7787325,-0.2004657,0.06697261
744.273,-0.9833449,-0.8747247,0.3367737,-0.7758914,-0.1936207,0.06865608
744.2883,-0.9755253,-0.8690459,0.331166,-0.7730911,-0.1869168,0.07030657
744.3027,-0.9677972,-0.8634188,0.3256896,-0.7703305,-0.1803513,0.07192473
744.3194,-0.9677972,-0.8634188,0.3256896,-0.7703305,-0.1803513,0.07192473
744.3332,-0.9601595,-0.8578433,0.3203416,-0.7676089,-0.1739216,0.07351119
744.3472,-0.9526113,-0.8523192,0.3151197,-0.7649252,-0.1676252,0.07506657
744.3608,-0.9451516,-0.8468463,0.3100213,-0.7622786,-0.1614594,0.0765915
744.3755,-0.9451516,-0.8468463,0.3100213,-0.7622786,-0.1614594,0.0765915
744.3893,-0.9377794,-0.8414244,0.3050438,-0.7596683,-0.1554219,0.07808656
744.4046,-0.930494,-0.8360534,0.3001851,-0.7570934,-0.1495102,0.07955233
744.4189,-0.930494,-0.8360534,0.3001851,-0.7570934,-0.1495102,0.07955233
744.4326,-0.9232942,-0.8307329,0.2954425,-0.7545533,-0.143722,0.0809894
744.4479,-0.9161792,-0.8254629,0.2908138,-0.752047,-0.1380548,0.08239832
744.4625,-0.909148,-0.8202431,0.2862967,-0.7495739,-0.1325064,0.08377965
744.4771,-0.909148,-0.8202431,0.2862967,-0.7495739,-0.1325064,0.08377965
744.4915,-0.9021997,-0.8150733,0.281889,-0.7471334,-0.1270745,0.08513393
744.5064,-0.8953334,-0.8099532,0.2775883,-0.7447246,-0.1217568,0.08646168
744.521,-0.8885482,-0.8048825,0.2733926,-0.7423469,-0.1165513,0.08776343
744.5355,-0.8885482,-0.8048825,0.2733926,-0.7423469,-0.1165513,0.08776343
744.5494,-0.8818431,-0.7998611,0.2692997,-0.7399997,-0.1114557,0.08903968
744.566,-0.8752174,-0.7948887,0.2653075,-0.7376823,-0.1064679,0.09029096
744.5792,-0.8752174,-0.7948887,0.2653075,-0.7376823,-0.1064679,0.09029096
744.5932,-0.8686701,-0.789965,0.2614139,-0.7353942,-0.1015859,0.09151772
744.6085,-0.8622003,-0.7850897,0.2576169,-0.7331347,-0.09680764,0.09272045
744.6232,-0.8558072,-0.7802626,0.2539146,-0.7309034,-0.09213111,0.09389963
