JMolnar6/NonAnthroHands_User_Study/HandsLoggerWithURDF/tempdata/files/Reachy_JointMotion_gesture_10_51.csv
Time,r_shoulder,r_shoulder_x,r_upper_arm,r_forearm,r_wrist,r_wrist2hand,
980.5914,-0.8647114,0.0005604696,NaN,-0.3664589,0.0009926317,NaN,1.149454,-14.79048,NaN,-0.6846672,-1.481581,0.43136,14.12029,NaN,NaN,-0.01043634,0.8145208,-8.390938E-07,1.07297,-5.899501E-09,1.346776
980.6077,-0.8623742,0.0005598426,NaN,-0.3656466,0.0009928902,NaN,1.14937,-14.79,NaN,-0.6817113,-1.475293,0.4324807,14.11356,NaN,NaN,-0.01026149,0.8148716,-8.438622E-07,1.063794,6.096279E-11,1.34272
980.6238,-0.8599297,0.000558814,NaN,-0.3647967,0.0009939976,NaN,1.1492,-14.79033,NaN,-0.6784706,-1.467953,0.4337833,14.10581,NaN,NaN,-0.01009002,0.8143602,-8.486305E-07,1.053105,7.21352E-09,1.343038
980.6373,-0.8599297,0.000558814,NaN,-0.3647967,0.0009939976,NaN,1.1492,-14.79033,NaN,-0.6784706,-1.467953,0.4337833,14.10581,NaN,NaN,-0.01009002,0.8143602,-8.486305E-07,1.053105,7.21352E-09,1.343038
980.6517,-0.8574288,0.0005592206,NaN,-0.3639278,0.0009939434,NaN,1.149057,-14.79026,NaN,-0.6751212,-1.480221,0.4351138,14.11879,NaN,NaN,-0.009922015,0.8148047,-8.498226E-07,1.070966,7.21352E-09,1.345186
980.6675,-0.8549034,0.0005598344,NaN,-0.3630513,0.0009951621,NaN,1.148965,-14.79064,NaN,-0.6717484,-1.468457,0.4364196,14.10635,NaN,NaN,-0.009757405,0.8141911,-8.510148E-07,1.053828,4.829334E-09,1.344636
980.6827,-0.8525863,0.0005596086,NaN,-0.3622512,0.0009959174,NaN,1.149266,-14.79094,NaN,-0.6688802,-1.470071,0.4372057,14.10809,NaN,NaN,-0.009680174,0.8139259,-8.41478E-07,1.056189,6.021427E-09,1.344061
980.6974,-0.8525863,0.0005596086,NaN,-0.3622512,0.0009959174,NaN,1.149266,-14.79094,NaN,-0.6688802,-1.470071,0.4372057,14.10809,NaN,NaN,-0.009680174,0.8139259,-8.41478E-07,1.056189,6.021427E-09,1.344061
980.7139,-0.850409,0.000560216,NaN,-0.3615009,0.0009975766,NaN,1.149698,-14.7907,NaN,-0.6663703,-1.467542,0.4377521,14.10538,NaN,NaN,-0.00960456,0.8140781,-8.271729E-07,1.052495,1.253055E-09,1.347539
980.7275,-0.8483282,0.0005612666,NaN,-0.3607843,0.0009977528,NaN,1.150132,-14.79074,NaN,-0.66405,-1.480504,0.4382162,14.1191,NaN,NaN,-0.009530391,0.8144462,-8.164441E-07,1.071367,6.021427E-09,1.347006
980.7424,-0.8463163,0.0005620689,NaN,-0.3600914,0.0009990926,NaN,1.150537,-14.79112,NaN,-0.6618373,-1.468246,0.4386553,14.10614,NaN,NaN,-0.009457615,0.8138272,-8.092915E-07,1.053516,1.317398E-08,1.34727
980.7573,-0.8463163,0.0005620689,NaN,-0.3600914,0.0009990926,NaN,1.150537,-14.79112,NaN,-0.6618373,-1.468246,0.4386553,14.10614,NaN,NaN,-0.009457615,0.8138272,-8.092915E-07,1.053516,1.317398E-08,1.34727
980.7716,-0.8445688,0.0005634812,NaN,-0.3594928,0.0009999025,NaN,1.151262,-14.79191,NaN,-0.6601804,-1.47908,0.4386094,14.11771,NaN,NaN,-0.009470333,0.8133686,-7.878339E-07,1.069319,1.436608E-08,1.353667
980.7874,-0.8429938,0.0005634392,NaN,-0.3589544,0.00100113,NaN,1.15206,-14.79129,NaN,-0.658895,-1.468522,0.438359,14.10647,NaN,NaN,-0.009482794,0.8137642,-7.675683E-07,1.053934,1.555817E-08,1.346335
980.8025,-0.8415332,0.0005628302,NaN,-0.3584549,0.001001927,NaN,1.152822,-14.79105,NaN,-0.6577948,-1.468996,0.438057,14.10693,NaN,NaN,-0.009494904,0.8140102,-7.50879E-07,1.054609,1.436608E-08,1.347224
980.8177,-0.8415332,0.0005628302,NaN,-0.3584549,0.001001927,NaN,1.152822,-14.79105,NaN,-0.6577948,-1.468996,0.438057,14.10693,NaN,NaN,-0.009494904,0.8140102,-7.50879E-07,1.054609,1.436608E-08,1.347224
980.832,-0.840363,0.0005636164,NaN,-0.3580585,0.001002057,NaN,1.153875,-14.79188,NaN,-0.6572782,-1.48047,0.4372787,14.11918,NaN,NaN,-0.009590798,0.8135135,-7.270372E-07,1.07135,1.436608E-08,1.352591
980.8477,-0.8393794,0.0005649189,NaN,-0.3577266,0.001002138,NaN,1.154975,-14.79229,NaN,-0.6571363,-1.48189,0.436314,14.12072,NaN,NaN,-0.009684751,0.8131171,-6.98427E-07,1.073429,1.07898E-08,1.355167
980.863,-0.8385167,0.0005647175,NaN,-0.3574357,0.0010024,NaN,1.156013,-14.79082,NaN,-0.6571717,-1.4704,0.4353173,14.10842,NaN,NaN,-0.009776711,0.8143885,-6.698168E-07,1.056675,3.637241E-09,1.344473
980.8777,-0.8385167,0.0005647175,NaN,-0.3574357,0.0010024,NaN,1.156013,-14.79082,NaN,-0.6571717,-1.4704,0.4353173,14.10842,NaN,NaN,-0.009776711,0.8143885,-6.698168E-07,1.056675,3.637241E-09,1.344473
980.892,-0.8377333,0.0005658135,NaN,-0.3571711,0.001002326,NaN,1.156973,-14.79111,NaN,-0.6572888,-1.482393,0.4343402,14.12116,NaN,NaN,-0.009866738,0.8144315,-6.47167E-07,1.074153,2.445148E-09,1.347069
980.9087,-0.8372156,0.0005669867,NaN,-0.3570009,0.001001548,NaN,1.158218,-14.79146,NaN,-0.6579311,-1.484277,0.4329167,14.12318,NaN,NaN,-0.01003901,0.8141109,-6.173647E-07,1.076905,-3.515316E-09,1.343811
980.9226,-0.8368665,0.0005665703,NaN,-0.3568892,0.001000584,NaN,1.159508,-14.79069,NaN,-0.6589113,-1.472197,0.4313227,14.1103,NaN,NaN,-0.01020785,0.8147049,-5.887545E-07,1.059292,-2.323223E-09,1.332927
980.9376,-0.8368665,0.0005665703,NaN,-0.3568892,0.001000584,NaN,1.159508,-14.79069,NaN,-0.6589113,-1.472197,0.4313227,14.1103,NaN,NaN,-0.01020785,0.8147049,-5.887545E-07,1.059292,-2.323223E-09,1.332927
980.952,-0.8366246,0.00056578,NaN,-0.3568138,0.001001519,NaN,1.160736,-14.79066,NaN,-0.6600425,-1.470851,0.4297082,14.10887,NaN,NaN,-0.01037324,0.8147127,-5.5776E-07,1.057327,-3.515316E-09,1.336811
980.9676,-0.8364509,0.0005660997,NaN,-0.3567612,0.001002301,NaN,1.161883,-14.79158,NaN,-0.6612344,-1.473174,0.4281233,14.11145,NaN,NaN,-0.01053525,0.8138703,-5.31534E-07,1.060749,-3.515316E-09,1.341489
980.9828,-0.8365323,0.000565462,NaN,-0.3567987,0.00100181,NaN,1.163309,-14.79084,NaN,-0.6629325,-1.473802,0.4261013,14.11202,NaN,NaN,-0.01077804,0.814629,-5.041159E-07,1.061636,6.096279E-11,1.336382
980.9978,-0.8365323,0.000565462,NaN,-0.3567987,0.00100181,NaN,1.163309,-14.79084,NaN,-0.6629325,-1.473802,0.4261013,14.11202,NaN,NaN,-0.01077804,0.814629,-5.041159E-07,1.061636,6.096279E-11,1.336382
981.0123,-0.8367735,0.0005657331,NaN,-0.3568914,0.001002266,NaN,1.164771,-14.79141,NaN,-0.6649512,-1.470422,0.4239204,14.1085,NaN,NaN,-0.01101601,0.8139892,-4.731214E-07,1.056732,6.021427E-09,1.338845
981.0279,-0.8371139,0.0005651605,NaN,-0.3570176,0.00100261,NaN,1.166162,-14.79136,NaN,-0.6671044,-1.471214,0.4217308,14.10933,NaN,NaN,-0.01124916,0.8140623,-4.409349E-07,1.057882,8.405612E-09,1.337726
981.0429,-0.8375151,0.0005660707,NaN,-0.3571638,0.001002448,NaN,1.167463,-14.79094,NaN,-0.6693022,-1.482535,0.4195826,14.12126,NaN,NaN,-0.0114776,0.8147986,-4.123247E-07,1.074349,1.198189E-08,1.338423
981.0581,-0.8375151,0.0005660707,NaN,-0.3571638,0.001002448,NaN,1.167463,-14.79094,NaN,-0.6693022,-1.482535,0.4195826,14.12126,NaN,NaN,-0.0114776,0.8147986,-4.123247E-07,1.074349,1.198189E-08,1.338423
981.0723,-0.8381653,0.000565574,NaN,-0.3573986,0.001001981,NaN,1.169035,-14.79068,NaN,-0.6719908,-1.47061,0.4170038,14.10858,NaN,NaN,-0.01178543,0.8148603,-3.753698E-07,1.056962,1.436608E-08,1.335662
981.0905,-0.838969,0.0005646949,NaN,-0.3576865,0.001001611,NaN,1.17063,-14.79077,NaN,-0.6749846,-1.470082,0.4142791,14.10804,NaN,NaN,-0.01208715,0.8147544,-3.360308E-07,1.056198,1.198189E-08,1.335889
981.103,-0.8398654,0.0005635403,NaN,-0.3580056,0.001001846,NaN,1.172141,-14.79135,NaN,-0.6780973,-1.469339,0.4115593,14.10732,NaN,NaN,-0.01238279,0.8141587,-3.014601E-07,1.055139,1.07898E-08,1.338955
981.118,-0.8398654,0.0005635403,NaN,-0.3580056,0.001001846,NaN,1.172141,-14.79135,NaN,-0.6780973,-1.469339,0.4115593,14.10732,NaN,NaN,-0.01238279,0.8141587,-3.014601E-07,1.055139,1.07898E-08,1.338955
981.1324,-0.8410287,0.0005634964,NaN,-0.3584192,0.001002632,NaN,1.173902,-14.79199,NaN,-0.6817281,-1.469189,0.4084056,14.10724,NaN,NaN,-0.01275641,0.8135071,-2.62121E-07,1.054948,1.675026E-08,1.343366
981.1481,-0.8423543,0.000564597,NaN,-0.3588887,0.001002811,NaN,1.175657,-14.79189,NaN,-0.6856686,-1.481347,0.4051208,14.12008,NaN,NaN,-0.01312258,0.8139749,-2.22782E-07,1.072636,1.913445E-08,1.345541
981.1632,-0.8437759,0.0005655548,NaN,-0.3593899,0.001004447,NaN,1.177304,-14.79179,NaN,-0.6897222,-1.469082,0.4018587,14.10708,NaN,NaN,-0.01348137,0.8138548,-1.834429E-07,1.054772,1.675026E-08,1.343712
981.1783,-0.8437759,0.0005655548,NaN,-0.3593899,0.001004447,NaN,1.177304,-14.79179,NaN,-0.6897222,-1.469082,0.4018587,14.10708,NaN,NaN,-0.01348137,0.8138548,-1.834429E-07,1.054772,1.675026E-08,1.343712
981.1927,-0.8452517,0.0005653781,NaN,-0.3599082,0.001004961,NaN,1.178832,-14.79164,NaN,-0.6937943,-1.46814,0.398667,14.10606,NaN,NaN,-0.01383292,0.813979,-1.476801E-07,1.053396,2.151863E-08,1.339069
981.2084,-0.8469678,0.0005647474,NaN,-0.3605115,0.001004712,NaN,1.180606,-14.79269,NaN,-0.6983292,-1.476028,0.3950606,14.11455,NaN,NaN,-0.01426126,0.8131818,-1.059569E-07,1.064926,2.151863E-08,1.344979
981.2233,-0.8488271,0.0005636584,NaN,-0.3611636,0.001004397,NaN,1.182369,-14.79189,NaN,-0.7031406,-1.468686,0.3913382,14.1067,NaN,NaN,-0.0146811,0.8138065,-6.184945E-08,1.05422,1.794236E-08,1.338833
981.2384,-0.8488271,0.0005636584,NaN,-0.3611636,0.001004397,NaN,1.182369,-14.79189,NaN,-0.7031406,-1.468686,0.3913382,14.1067,NaN,NaN,-0.0146811,0.8138065,-6.184945E-08,1.05422,1.794236E-08,1.338833
981.2527,-0.850768,0.0005628144,NaN,-0.3618423,0.001002962,NaN,1.184021,-14.79266,NaN,-0.7080423,-1.480752,0.3876499,14.11957,NaN,NaN,-0.01509251,0.8134109,-1.893411E-08,1.071816,1.675026E-08,1.345109
981.2683,-0.8527519,0.0005616579,NaN,-0.362534,0.001002978,NaN,1.185555,-14.79172,NaN,-0.7129452,-1.469906,0.3840412,14.10799,NaN,NaN,-0.01549565,0.8141485,1.921287E-08,1.056007,1.436608E-08,1.342158
981.2847,-0.8549671,0.0005616747,NaN,-0.3633074,0.001003932,NaN,1.187328,-14.79196,NaN,-0.7182956,-1.468247,0.3800179,14.10626,NaN,NaN,-0.01597446,0.813859,5.974402E-08,1.053599,1.675026E-08,1.343932
981.2985,-0.8549671,0.0005616747,NaN,-0.3633074,0.001003932,NaN,1.187328,-14.79196,NaN,-0.7182956,-1.468247,0.3800179,14.10626,NaN,NaN,-0.01597446,0.813859,5.974402E-08,1.053599,1.675026E-08,1.343932
981.3128,-0.8573176,0.0005626567,NaN,-0.3641267,0.001005284,NaN,1.189079,-14.79296,NaN,-0.7239087,-1.472721,0.3758915,14.11112,NaN,NaN,-0.01644379,0.8129925,1.050436E-07,1.060155,1.317398E-08,1.35122
981.3283,-0.8597426,0.0005634126,NaN,-0.3649699,0.001006563,NaN,1.190711,-14.79244,NaN,-0.7295988,-1.468416,0.3718122,14.10651,NaN,NaN,-0.01690371,0.8133976,1.503431E-07,1.053874,1.198189E-08,1.34476
981.3434,-0.8622041,0.0005648774,NaN,-0.3658237,0.001007222,NaN,1.192216,-14.79284,NaN,-0.7352775,-1.480866,0.3678239,14.11972,NaN,NaN,-0.01735441,0.8133799,1.920663E-07,1.072005,1.436608E-08,1.350061
981.3585,-0.8622041,0.0005648774,NaN,-0.3658237,0.001007222,NaN,1.192216,-14.79284,NaN,-0.7352775,-1.480866,0.3678239,14.11972,NaN,NaN,-0.01735441,0.8133799,1.920663E-07,1.072005,1.436608E-08,1.350061
981.3729,-0.8648911,0.0005647744,NaN,-0.3667569,0.001007988,NaN,1.193954,-14.79238,NaN,-0.7413909,-1.468695,0.3634212,14.10679,NaN,NaN,-0.01787974,0.8136173,2.349817E-07,1.054279,9.597705E-09,1.34141
981.3885,-0.8677074,0.0005638236,NaN,-0.3677337,0.00100746,NaN,1.195655,-14.79221,NaN,-0.7477546,-1.467505,0.3589301,14.1055,NaN,NaN,-0.01839468,0.8137479,2.802812E-07,1.052537,9.597705E-09,1.340479
981.4036,-0.8705926,0.0005640397,NaN,-0.3687322,0.001006242,NaN,1.197228,-14.79218,NaN,-0.7541833,-1.480349,0.3545005,14.11908,NaN,NaN,-0.01889932,0.8141822,3.231965E-07,1.071227,1.436608E-08,1.343019
981.4187,-0.8705926,0.0005640397,NaN,-0.3687322,0.001006242,NaN,1.197228,-14.79218,NaN,-0.7541833,-1.480349,0.3545005,14.11908,NaN,NaN,-0.01889932,0.8141822,3.231965E-07,1.071227,1.436608E-08,1.343019
981.433,-0.8737219,0.0005645952,NaN,-0.3698161,0.001006593,NaN,1.199007,-14.79209,NaN,-0.7610758,-1.469468,0.3496527,14.10754,NaN,NaN,-0.01947743,0.8140681,3.67304E-07,1.055373,1.317398E-08,1.340189
981.4487,-0.8769902,0.0005652966,NaN,-0.3709463,0.001007416,NaN,1.20072,-14.79267,NaN,-0.7682253,-1.468421,0.3447356,14.1065,NaN,NaN,-0.02004409,0.8134624,4.137956E-07,1.053873,8.405612E-09,1.343449
981.4637,-0.8803315,0.0005664609,NaN,-0.372099,0.001009051,NaN,1.202282,-14.7935,NaN,-0.775436,-1.470392,0.3398996,14.10869,NaN,NaN,-0.02059939,0.8126894,4.57903E-07,1.056775,9.597705E-09,1.350298
981.4797,-0.8803315,0.0005664609,NaN,-0.372099,0.001009051,NaN,1.202282,-14.7935,NaN,-0.775436,-1.470392,0.3398996,14.10869,NaN,NaN,-0.02059939,0.8126894,4.57903E-07,1.056775,9.597705E-09,1.350298
981.4929,-0.8837042,0.0005676712,NaN,-0.37326,0.001010396,NaN,1.203701,-14.79389,NaN,-0.7826151,-1.473627,0.3351819,14.11215,NaN,NaN,-0.02114358,0.8123937,4.9605E-07,1.061493,1.198189E-08,1.352646
981.5085,-0.8872958,0.0005678991,NaN,-0.3744976,0.001010267,NaN,1.205333,-14.79337,NaN,-0.790206,-1.481789,0.330051,14.1207,NaN,NaN,-0.02176039,0.8131097,5.449258E-07,1.073338,9.597706E-09,1.347827
981.5234,-0.8910087,0.0005669724,NaN,-0.3757752,0.001009793,NaN,1.206897,-14.79249,NaN,-0.7980239,-1.470914,0.3248657,14.1091,NaN,NaN,-0.02236502,0.813795,5.914174E-07,1.05749,6.021427E-09,1.33932
981.5383,-0.8910087,0.0005669724,NaN,-0.3757752,0.001009793,NaN,1.206897,-14.79249,NaN,-0.7980239,-1.470914,0.3248657,14.1091,NaN,NaN,-0.02236502,0.813795,5.914174E-07,1.05749,6.021427E-09,1.33932
981.5528,-0.8947815,0.0005656091,NaN,-0.3770708,0.001008554,NaN,1.208315,-14.79264,NaN,-0.8058838,-1.473862,0.3197728,14.11224,NaN,NaN,-0.02295758,0.813728,6.355248E-07,1.061793,1.07898E-08,1.342185
981.5698,-0.8985758,0.0005639893,NaN,-0.3783713,0.001009165,NaN,1.209596,-14.79255,NaN,-0.8136979,-1.468954,0.3148056,14.10704,NaN,NaN,-0.0235383,0.8136866,6.748639E-07,1.054647,1.555817E-08,1.340951
981.5837,-0.9025815,0.0005622722,NaN,-0.3797457,0.001009049,NaN,1.211089,-14.79287,NaN,-0.8219115,-1.468208,0.3094167,14.1063,NaN,NaN,-0.02419086,0.8133385,7.201634E-07,1.053577,1.675026E-08,1.339311
981.5986,-0.9025815,0.0005622722,NaN,-0.3797457,0.001009049,NaN,1.211089,-14.79287,NaN,-0.8219115,-1.468208,0.3094167,14.1063,NaN,NaN,-0.02419086,0.8133385,7.201634E-07,1.053577,1.675026E-08,1.339311
981.613,-0.9067016,0.0005604685,NaN,-0.3811578,0.001007369,NaN,1.212504,-14.79305,NaN,-0.8303411,-1.477494,0.3039902,14.11614,NaN,NaN,-0.02483054,0.8134428,7.690392E-07,1.067097,1.555817E-08,1.344727
981.6285,-0.9108757,0.0005598705,NaN,-0.3825857,0.001007407,NaN,1.213771,-14.79298,NaN,-0.8388026,-1.468458,0.29867,14.10658,NaN,NaN,-0.02545748,0.813319,8.131466E-07,1.053946,1.317398E-08,1.34284
981.6436,-0.915066,0.0005605736,NaN,-0.3840166,0.001007355,NaN,1.214902,-14.79415,NaN,-0.8472088,-1.477323,0.2934848,14.1161,NaN,NaN,-0.02607191,0.8124191,8.548699E-07,1.066896,1.317398E-08,1.350325
981.6586,-0.915066,0.0005605736,NaN,-0.3840166,0.001007355,NaN,1.214902,-14.79415,NaN,-0.8472088,-1.477323,0.2934848,14.1161,NaN,NaN,-0.02607191,0.8124191,8.548699E-07,1.066896,1.317398E-08,1.350325
981.6737,-0.9194628,0.0005615462,NaN,-0.3855197,0.001007985,NaN,1.216243,-14.79431,NaN,-0.8560045,-1.473575,0.2878687,14.11216,NaN,NaN,-0.02675746,0.8121759,8.965931E-07,1.061455,1.07898E-08,1.35022
981.6884,-0.9239694,0.000561256,NaN,-0.3870586,0.001008541,NaN,1.217495,-14.79296,NaN,-0.8650067,-1.468778,0.2822346,14.10694,NaN,NaN,-0.0274295,0.8134009,9.418927E-07,1.054434,1.317398E-08,1.341345
981.7032,-0.9285254,0.0005618055,NaN,-0.3886118,0.001009424,NaN,1.218597,-14.79375,NaN,-0.8740317,-1.470064,0.2767213,14.1084,NaN,NaN,-0.02808815,0.8126509,9.84808E-07,1.056341,1.555817E-08,1.346217
981.7181,-0.9285254,0.0005618055,NaN,-0.3886118,0.001009424,NaN,1.218597,-14.79375,NaN,-0.8740317,-1.470064,0.2767213,14.1084,NaN,NaN,-0.02808815,0.8126509,9.84808E-07,1.056341,1.555817E-08,1.346217
981.7327,-0.9333073,0.0005628266,NaN,-0.3902432,0.001009515,NaN,1.219884,-14.79421,NaN,-0.8834767,-1.479291,0.270775,14.1182,NaN,NaN,-0.02881699,0.8124555,1.033684E-06,1.069777,9.597706E-09,1.351215
981.7482,-0.9382093,0.000563734,NaN,-0.3919134,0.001010919,NaN,1.221056,-14.79358,NaN,-0.8931368,-1.468756,0.2648365,14.107,NaN,NaN,-0.02953145,0.8128835,1.080175E-06,1.054444,6.021427E-09,1.345662
981.7635,-0.9431652,0.0005633972,NaN,-0.3935986,0.001011511,NaN,1.222069,-14.79351,NaN,-0.902818,-1.468038,0.2590376,14.10623,NaN,NaN,-0.03023169,0.8129347,1.121899E-06,1.053397,4.233287E-09,1.342943
981.7786,-0.9431652,0.0005633972,NaN,-0.3935986,0.001011511,NaN,1.222069,-14.79351,NaN,-0.902818,-1.468038,0.2590376,14.10623,NaN,NaN,-0.03023169,0.8129347,1.121899E-06,1.053397,4.233287E-09,1.342943
981.793,-0.9481339,0.000562468,NaN,-0.3952852,0.001011503,NaN,1.222946,-14.79353,NaN,-0.9124293,-1.467294,0.2533935,14.10545,NaN,NaN,-0.030918,0.8128921,1.160046E-06,1.052316,3.637241E-09,1.342854
981.8085,-0.9533045,0.0005611846,NaN,-0.3970416,0.00101095,NaN,1.224023,-14.79347,NaN,-0.9224122,-1.467525,0.2473026,14.10568,NaN,NaN,-0.03167395,0.8129568,1.198193E-06,1.052649,1.198189E-08,1.343318
981.8234,-0.9585784,0.0005603607,NaN,-0.3988312,0.001010491,NaN,1.22499,-14.79469,NaN,-0.9325832,-1.477672,0.2412385,14.11657,NaN,NaN,-0.03241499,0.8120567,1.244684E-06,1.067462,8.405612E-09,1.35283
981.8384,-0.9585784,0.0005603607,NaN,-0.3988312,0.001010491,NaN,1.22499,-14.79469,NaN,-0.9325832,-1.477672,0.2412385,14.11657,NaN,NaN,-0.03241499,0.8120567,1.244684E-06,1.067462,8.405612E-09,1.35283
981.8528,-0.9638943,0.0005607743,NaN,-0.400632,0.001011399,NaN,1.225809,-14.79463,NaN,-0.942759,-1.470835,0.2353223,14.10935,NaN,NaN,-0.03314131,0.8119702,1.284023E-06,1.057526,1.019375E-08,1.352113
981.8696,-0.969214,0.0005601652,NaN,-0.4024311,0.001011101,NaN,1.226506,-14.79314,NaN,-0.952854,-1.468528,0.2295635,14.10672,NaN,NaN,-0.03385323,0.8133777,1.319786E-06,1.054116,1.198189E-08,1.341153
981.8836,-0.9747291,0.0005609623,NaN,-0.404298,0.001010832,NaN,1.227402,-14.79451,NaN,-0.9633107,-1.478717,0.2233417,14.11768,NaN,NaN,-0.03463425,0.8123183,1.360317E-06,1.069004,1.257794E-08,1.352213
981.8984,-0.9747291,0.0005609623,NaN,-0.404298,0.001010832,NaN,1.227402,-14.79451,NaN,-0.9633107,-1.478717,0.2233417,14.11768,NaN,NaN,-0.03463425,0.8123183,1.360317E-06,1.069004,1.257794E-08,1.352213
981.9127,-0.9803417,0.0005604881,NaN,-0.406196,0.001010522,NaN,1.228182,-14.79355,NaN,-0.9739472,-1.468458,0.2171713,14.10675,NaN,NaN,-0.03539987,0.8130769,1.398464E-06,1.054067,1.138585E-08,1.342645
981.9284,-0.9859913,0.0005591571,NaN,-0.4081036,0.001008915,NaN,1.228821,-14.79318,NaN,-0.9845814,-1.466926,0.2111585,14.10508,NaN,NaN,-0.03615031,0.8133938,1.434227E-06,1.051823,6.021427E-09,1.342844
981.9434,-0.9916402,0.0005576895,NaN,-0.4100079,0.001008175,NaN,1.22935,-14.79356,NaN,-0.995128,-1.466755,0.2053059,14.10495,NaN,NaN,-0.03688589,0.8130041,1.461645E-06,1.051592,9.597706E-09,1.343451
981.9585,-0.9916402,0.0005576895,NaN,-0.4100079,0.001008175,NaN,1.22935,-14.79356,NaN,-0.995128,-1.466755,0.2053059,14.10495,NaN,NaN,-0.03688589,0.8130041,1.461645E-06,1.051592,9.597706E-09,1.343451
981.973,-0.9974805,0.0005576702,NaN,-0.4119786,0.001009116,NaN,1.230073,-14.7937,NaN,-1.006029,-1.466423,0.1989749,14.10461,NaN,NaN,-0.0376901,0.8128569,1.496216E-06,1.051115,1.07898E-08,1.345991
981.9886,-1.003415,0.0005569697,NaN,-0.4139791,0.001009146,NaN,1.230674,-14.79404,NaN,-1.017103,-1.467163,0.1927221,14.10544,NaN,NaN,-0.03847845,0.8125416,1.52721E-06,1.052205,1.555817E-08,1.34443
982.0037,-1.009382,0.0005572115,NaN,-0.4159877,0.001009454,NaN,1.231146,-14.79467,NaN,-1.028168,-1.470295,0.1866338,14.10883,NaN,NaN,-0.03925119,0.8120068,1.557013E-06,1.056788,1.555817E-08,1.350093
982.0187,-1.009382,0.0005572115,NaN,-0.4159877,0.001009454,NaN,1.231146,-14.79467,NaN,-1.028168,-1.470295,0.1866338,14.10883,NaN,NaN,-0.03925119,0.8120068,1.557013E-06,1.056788,1.555817E-08,1.350093
982.0332,-1.015561,0.0005566381,NaN,-0.4180689,0.001009665,NaN,1.231787,-14.79416,NaN,-1.039619,-1.46753,0.1800666,14.10584,NaN,NaN,-0.04009181,0.81243,1.591583E-06,1.052749,1.615422E-08,1.345631
982.0511,-1.021844,0.000557558,NaN,-0.4201826,0.001010008,NaN,1.232292,-14.79494,NaN,-1.051254,-1.477574,0.1736059,14.11654,NaN,NaN,-0.04091585,0.8119693,1.621386E-06,1.067383,1.734631E-08,1.35422
982.064,-1.028165,0.0005584153,NaN,-0.4223056,0.001011444,NaN,1.232668,-14.79365,NaN,-1.06288,-1.468159,0.1673194,14.10646,NaN,NaN,-0.04172358,0.813051,1.653572E-06,1.053663,1.496212E-08,1.344572
982.0789,-1.028165,0.0005584153,NaN,-0.4223056,0.001011444,NaN,1.232668,-14.79365,NaN,-1.06288,-1.468159,0.1673194,14.10646,NaN,NaN,-0.04172358,0.813051,1.653572E-06,1.053663,1.496212E-08,1.344572
982.0931,-1.034484,0.000558224,NaN,-0.424424,0.001011745,NaN,1.232947,-14.79403,NaN,-1.07441,-1.46782,0.1611991,14.10615,NaN,NaN,-0.04251536,0.8126591,1.679798E-06,1.053188,1.198189E-08,1.345497
982.1088,-1.040991,0.0005585962,NaN,-0.4266072,0.001012108,NaN,1.233402,-14.79461,NaN,-1.08628,-1.469018,0.1545822,14.10749,NaN,NaN,-0.04337465,0.8121205,1.713177E-06,1.054956,7.511543E-09,1.349394
982.1238,-1.047586,0.0005577009,NaN,-0.4288178,0.001010534,NaN,1.233731,-14.79424,NaN,-1.098309,-1.467428,0.1480928,14.10577,NaN,NaN,-0.04421698,0.812443,1.73225E-06,1.052632,1.377003E-08,1.346972
982.1389,-1.047586,0.0005577009,NaN,-0.4288178,0.001010534,NaN,1.233731,-14.79424,NaN,-1.098309,-1.467428,0.1480928,14.10577,NaN,NaN,-0.04421698,0.812443,1.73225E-06,1.052632,1.377003E-08,1.346972
982.1535,-1.054209,0.00055642,NaN,-0.4310341,0.001008553,NaN,1.23395,-14.79422,NaN,-1.110316,-1.46737,0.1417762,14.10571,NaN,NaN,-0.04504269,0.8124561,1.7549E-06,1.052549,1.287596E-08,1.345426
982.1692,-1.06082,0.0005568406,NaN,-0.4332434,0.001007034,NaN,1.234085,-14.7948,NaN,-1.122218,-1.479661,0.1356229,14.11875,NaN,NaN,-0.04585211,0.8122643,1.771589E-06,1.070442,1.406805E-08,1.354129
982.1843,-1.067614,0.0005560188,NaN,-0.4355156,0.001005095,NaN,1.234386,-14.79414,NaN,-1.134453,-1.469932,0.1289639,14.10842,NaN,NaN,-0.04672868,0.8127393,1.794239E-06,1.056285,1.347201E-08,1.348095
982.199,-1.067614,0.0005560188,NaN,-0.4355156,0.001005095,NaN,1.234386,-14.79414,NaN,-1.134453,-1.469932,0.1289639,14.10842,NaN,NaN,-0.04672868,0.8127393,1.794239E-06,1.056285,1.347201E-08,1.348095
982.2134,-1.074492,0.0005551362,NaN,-0.4378137,0.001003968,NaN,1.234567,-14.79405,NaN,-1.14684,-1.474864,0.122452,14.11362,NaN,NaN,-0.04758797,0.8129706,1.815697E-06,1.063459,1.436608E-08,1.348022
982.229,-1.081392,0.0005556429,NaN,-0.440116,0.00100364,NaN,1.234651,-14.79545,NaN,-1.159201,-1.476056,0.1161104,14.11505,NaN,NaN,-0.04843032,0.8115991,1.83477E-06,1.065247,1.347201E-08,1.356329
982.2451,-1.088277,0.0005566563,NaN,-0.4424102,0.001004375,NaN,1.234663,-14.79513,NaN,-1.171452,-1.472783,0.1099296,14.11157,NaN,NaN,-0.04925608,0.8118506,1.849075E-06,1.060486,1.138584E-08,1.353609
982.2591,-1.088277,0.0005566563,NaN,-0.4424102,0.001004375,NaN,1.234663,-14.79513,NaN,-1.171452,-1.472783,0.1099296,14.11157,NaN,NaN,-0.04925608,0.8118506,1.849075E-06,1.060486,1.138584E-08,1.353609
982.2733,-1.095342,0.0005565047,NaN,-0.4447662,0.001004575,NaN,1.234826,-14.79444,NaN,-1.18403,-1.469115,0.1032402,14.10762,NaN,NaN,-0.05014865,0.81244,1.866957E-06,1.055136,8.554624E-09,1.348775
982.2889,-1.102488,0.0005555602,NaN,-0.4471468,0.001004799,NaN,1.234879,-14.79485,NaN,-1.196756,-1.468289,0.09671038,14.1068,NaN,NaN,-0.05102365,0.8120024,1.876493E-06,1.053953,1.21309E-08,1.35004
982.3039,-1.109653,0.0005546861,NaN,-0.4495307,0.001004331,NaN,1.234848,-14.79611,NaN,-1.209452,-1.475888,0.09034707,14.11498,NaN,NaN,-0.05188142,0.8109757,1.888414E-06,1.06505,1.153486E-08,1.358533
982.319,-1.109653,0.0005546861,NaN,-0.4495307,0.001004331,NaN,1.234848,-14.79611,NaN,-1.209452,-1.475888,0.09034707,14.11498,NaN,NaN,-0.05188142,0.8109757,1.888414E-06,1.06505,1.153486E-08,1.358533
982.3334,-1.117018,0.0005556637,NaN,-0.4519824,0.001004263,NaN,1.234944,-14.79572,NaN,-1.222509,-1.481612,0.08348308,14.12095,NaN,NaN,-0.05280535,0.8114914,1.906296E-06,1.073348,9.597705E-09,1.357354
982.3491,-1.124474,0.0005551602,NaN,-0.4544617,0.001004563,NaN,1.234933,-14.79422,NaN,-1.235726,-1.468903,0.0767885,14.1074,NaN,NaN,-0.0537111,0.8127691,1.917025E-06,1.054853,8.852647E-09,1.346347
982.3642,-1.131955,0.0005538563,NaN,-0.4569452,0.001003771,NaN,1.234841,-14.7944,NaN,-1.248914,-1.468049,0.07026183,14.10653,NaN,NaN,-0.05459904,0.8125651,1.925369E-06,1.053621,1.064079E-08,1.347426
982.379,-1.131955,0.0005538563,NaN,-0.4569452,0.001003771,NaN,1.234841,-14.7944,NaN,-1.248914,-1.468049,0.07026183,14.10653,NaN,NaN,-0.05459904,0.8125651,1.925369E-06,1.053621,1.064079E-08,1.347426
982.3935,-1.139421,0.0005537492,NaN,-0.4594196,0.001004185,NaN,1.234688,-14.79491,NaN,-1.261987,-1.46755,0.06389481,14.10607,NaN,NaN,-0.05546951,0.8120378,1.928945E-06,1.052919,1.082705E-08,1.349914
982.4091,-1.14181,0.0005542849,NaN,-0.4601032,0.001005367,NaN,1.230667,-14.7952,NaN,-1.263992,-1.466817,0.07264341,14.10533,NaN,NaN,-0.05441383,0.8117262,1.853844E-06,1.051865,1.441031E-08,1.351994
982.424,-1.141078,0.0005536918,NaN,-0.4597427,0.001005805,NaN,1.227588,-14.79496,NaN,-1.258655,-1.466682,0.08112316,14.10515,NaN,NaN,-0.05337862,0.8119557,1.769205E-06,1.051659,1.519262E-08,1.347303
982.4398,-1.141078,0.0005536918,NaN,-0.4597427,0.001005805,NaN,1.227588,-14.79496,NaN,-1.258655,-1.466682,0.08112316,14.10515,NaN,NaN,-0.05337862,0.8119557,1.769205E-06,1.051659,1.519262E-08,1.347303
982.4542,-1.1384,0.0005526932,NaN,-0.4587391,0.001005325,NaN,1.225075,-14.79486,NaN,-1.249841,-1.466084,0.08935877,14.1045,NaN,NaN,-0.05236361,0.8120353,1.701256E-06,1.050785,1.310646E-08,1.346423
982.4686,-1.134531,0.0005533483,NaN,-0.4573503,0.001005083,NaN,1.222913,-14.79584,NaN,-1.23943,-1.477572,0.09738538,14.11675,NaN,NaN,-0.05136846,0.81143,1.641651E-06,1.06752,1.239866E-08,1.356753
982.4837,-1.130164,0.000554817,NaN,-0.4558141,0.001005007,NaN,1.221152,-14.79445,NaN,-1.228807,-1.481812,0.1045722,14.12105,NaN,NaN,-0.05047585,0.8128949,1.590391E-06,1.073639,1.183986E-08,1.35077
982.4986,-1.130164,0.000554817,NaN,-0.4558141,0.001005007,NaN,1.221152,-14.79445,NaN,-1.228807,-1.481812,0.1045722,14.12105,NaN,NaN,-0.05047585,0.8128949,1.590391E-06,1.073639,1.183986E-08,1.35077
982.5128,-1.125509,0.0005548681,NaN,-0.4541973,0.001005527,NaN,1.219511,-14.79404,NaN,-1.218256,-1.478455,0.1115958,14.11746,NaN,NaN,-0.04960075,0.8132417,1.541515E-06,1.068744,1.332998E-08,1.346202
982.5284,-1.120699,0.0005543095,NaN,-0.4525402,0.001006425,NaN,1.217955,-14.79424,NaN,-1.207819,-1.471291,0.1184704,14.1099,NaN,NaN,-0.04874279,0.8129022,1.49264E-06,1.058321,1.183986E-08,1.346699
982.5447,-1.115813,0.0005533576,NaN,-0.4508668,0.001007395,NaN,1.216461,-14.79474,NaN,-1.197515,-1.466568,0.1252033,14.10496,NaN,NaN,-0.04790163,0.8122747,1.448532E-06,1.051467,1.064777E-08,1.347753
982.5584,-1.115813,0.0005533576,NaN,-0.4508668,0.001007395,NaN,1.216461,-14.79474,NaN,-1.197515,-1.466568,0.1252033,14.10496,NaN,NaN,-0.04790163,0.8122747,1.448532E-06,1.051467,1.064777E-08,1.347753
982.5726,-1.111122,0.0005518482,NaN,-0.4492684,0.001006723,NaN,1.21521,-14.79436,NaN,-1.187827,-1.466997,0.1311442,14.10536,NaN,NaN,-0.04716007,0.8126607,1.411577E-06,1.05207,9.902712E-09,1.345213
982.5883,-1.106571,0.0005521958,NaN,-0.4477219,0.001006358,NaN,1.213962,-14.79532,NaN,-1.178601,-1.47794,0.1369598,14.11704,NaN,NaN,-0.04643303,0.8120542,1.375814E-06,1.06802,1.064777E-08,1.354331
982.603,-1.102125,0.0005515809,NaN,-0.4462133,0.001005374,NaN,1.212723,-14.79512,NaN,-1.169665,-1.472017,0.1426637,14.11076,NaN,NaN,-0.04572022,0.8121331,1.341244E-06,1.059405,8.561607E-09,1.351237
982.6181,-1.102125,0.0005515809,NaN,-0.4462133,0.001005374,NaN,1.212723,-14.79512,NaN,-1.169665,-1.472017,0.1426637,14.11076,NaN,NaN,-0.04572022,0.8121331,1.341244E-06,1.059405,8.561607E-09,1.351237
982.6323,-1.097983,0.0005504976,NaN,-0.4448112,0.001005447,NaN,1.211707,-14.79409,NaN,-1.16141,-1.471031,0.1476008,14.10959,NaN,NaN,-0.04510451,0.8131307,1.311441E-06,1.057933,7.965561E-09,1.346108
982.649,-1.094044,0.000549097,NaN,-0.4434789,0.001005355,NaN,1.210668,-14.79435,NaN,-1.153638,-1.467639,0.1524308,14.10604,NaN,NaN,-0.04450084,0.8127801,1.279255E-06,1.053008,8.710619E-09,1.345435
982.663,-1.090249,0.0005489194,NaN,-0.4421943,0.00100621,NaN,1.209621,-14.79486,NaN,-1.146155,-1.467058,0.157172,14.10549,NaN,NaN,-0.04390899,0.8122532,1.251837E-06,1.052186,8.710619E-09,1.34838
982.6779,-1.090249,0.0005489194,NaN,-0.4421943,0.00100621,NaN,1.209621,-14.79486,NaN,-1.146155,-1.467058,0.157172,14.10549,NaN,NaN,-0.04390899,0.8122532,1.251837E-06,1.052186,8.710619E-09,1.34838
982.692,-1.086559,0.0005483088,NaN,-0.4409441,0.00100498,NaN,1.208578,-14.79546,NaN,-1.138867,-1.477779,0.1618244,14.11688,NaN,NaN,-0.04332872,0.8119863,1.220842E-06,1.067792,7.667538E-09,1.35319
982.7076,-1.083167,0.0005472257,NaN,-0.4397972,0.001005171,NaN,1.207768,-14.79467,NaN,-1.132203,-1.468355,0.1657324,14.10684,NaN,NaN,-0.04284298,0.8125801,1.195808E-06,1.054074,1.034975E-08,1.347484
982.7225,-1.079974,0.0005459423,NaN,-0.4387174,0.001004739,NaN,1.206929,-14.79495,NaN,-1.125982,-1.467977,0.1695451,14.10648,NaN,NaN,-0.04236674,0.8122846,1.169582E-06,1.053535,1.094579E-08,1.347759
982.7375,-1.079974,0.0005459423,NaN,-0.4387174,0.001004739,NaN,1.206929,-14.79495,NaN,-1.125982,-1.467977,0.1695451,14.10648,NaN,NaN,-0.04236674,0.8122846,1.169582E-06,1.053535,1.094579E-08,1.347759
982.7518,-1.076919,0.0005444161,NaN,-0.4376828,0.001003855,NaN,1.206075,-14.79483,NaN,-1.12002,-1.46753,0.1732904,14.10599,NaN,NaN,-0.04189982,0.8123837,1.144548E-06,1.05288,7.667538E-09,1.347309
982.7677,-1.073961,0.0005448784,NaN,-0.43668,0.001003324,NaN,1.205219,-14.79558,NaN,-1.114227,-1.478953,0.1769672,14.11814,NaN,NaN,-0.04144203,0.8119844,1.114746E-06,1.069516,7.667538E-09,1.356057
982.7826,-1.071294,0.0005443359,NaN,-0.435778,0.001003427,NaN,1.204603,-14.79589,NaN,-1.109034,-1.472616,0.1799218,14.11149,NaN,NaN,-0.04107639,0.8115472,1.09448E-06,1.060315,1.064777E-08,1.354463
982.7975,-1.071294,0.0005443359,NaN,-0.435778,0.001003427,NaN,1.204603,-14.79589,NaN,-1.109034,-1.472616,0.1799218,14.11149,NaN,NaN,-0.04107639,0.8115472,1.09448E-06,1.060315,1.064777E-08,1.354463
982.8119,-1.068818,0.0005451505,NaN,-0.4349408,0.001003803,NaN,1.203954,-14.79633,NaN,-1.104262,-1.477126,0.1827914,14.11629,NaN,NaN,-0.04071791,0.8112153,1.075407E-06,1.066878,1.243591E-08,1.35982
982.8275,-1.066472,0.0005461714,NaN,-0.4341466,0.001004758,NaN,1.203283,-14.79468,NaN,-1.099726,-1.473315,0.1856131,14.11208,NaN,NaN,-0.04036643,0.8127761,1.056333E-06,1.061294,1.571416E-08,1.347224
982.8433,-1.064217,0.0005479449,NaN,-0.4333819,0.001005681,NaN,1.202605,-14.79519,NaN,-1.095338,-1.480637,0.1883855,14.11987,NaN,NaN,-0.04002183,0.8124548,1.03726E-06,1.07196,1.303196E-08,1.353552
982.8572,-1.064217,0.0005479449,NaN,-0.4333819,0.001005681,NaN,1.202605,-14.79519,NaN,-1.095338,-1.480637,0.1883855,14.11987,NaN,NaN,-0.04002183,0.8124548,1.03726E-06,1.07196,1.303196E-08,1.353552
982.8714,-1.062244,0.000547968,NaN,-0.4327156,0.00100544,NaN,1.20217,-14.79436,NaN,-1.091529,-1.473796,0.1904573,14.11256,NaN,NaN,-0.03976716,0.813155,1.021763E-06,1.061993,1.332998E-08,1.346685
982.8869,-1.060455,0.0005472352,NaN,-0.4321119,0.001005606,NaN,1.201699,-14.79451,NaN,-1.088121,-1.468582,0.1924541,14.10706,NaN,NaN,-0.03951749,0.812874,1.00865E-06,1.054412,1.422405E-08,1.34516
982.9019,-1.058789,0.0005459208,NaN,-0.431549,0.001004876,NaN,1.201197,-14.79401,NaN,-1.084928,-1.46775,0.1944213,14.10611,NaN,NaN,-0.03927268,0.8133458,9.967288E-07,1.053179,1.511812E-08,1.342032
982.9169,-1.058789,0.0005459208,NaN,-0.431549,0.001004876,NaN,1.201197,-14.79401,NaN,-1.084928,-1.46775,0.1944213,14.10611,NaN,NaN,-0.03927268,0.8133458,9.967288E-07,1.053179,1.511812E-08,1.342032
982.9314,-1.057422,0.0005462926,NaN,-0.4310904,0.00100424,NaN,1.200929,-14.79533,NaN,-1.082338,-1.478897,0.1957096,14.11808,NaN,NaN,-0.03911586,0.8123751,9.883842E-07,1.069457,1.303195E-08,1.35334
982.9471,-1.056248,0.0005457337,NaN,-0.4306974,0.001004172,NaN,1.200613,-14.7943,NaN,-1.08015,-1.469478,0.1969365,14.10802,NaN,NaN,-0.0389621,0.8132217,9.812316E-07,1.055737,1.392602E-08,1.345112
982.9622,-1.055198,0.000546488,NaN,-0.4303462,0.001003504,NaN,1.200258,-14.79422,NaN,-1.078169,-1.480864,0.1981513,14.12004,NaN,NaN,-0.03881133,0.8136399,9.740789E-07,1.072299,1.273393E-08,1.347516
982.977,-1.055198,0.000546488,NaN,-0.4303462,0.001003504,NaN,1.200258,-14.79422,NaN,-1.078169,-1.480864,0.1981513,14.12004,NaN,NaN,-0.03881133,0.8136399,9.740789E-07,1.072299,1.273393E-08,1.347516
982.9912,-1.05423,0.0005473254,NaN,-0.430022,0.001003776,NaN,1.199884,-14.79513,NaN,-1.076302,-1.472067,0.1993515,14.11083,NaN,NaN,-0.03866349,0.8125757,9.669263E-07,1.059517,1.392602E-08,1.350167
983.007,-1.053535,0.00054829,NaN,-0.4297928,0.001004657,NaN,1.199752,-14.79496,NaN,-1.074979,-1.470586,0.1998881,14.10924,NaN,NaN,-0.03860174,0.8127059,9.645421E-07,1.057356,1.422405E-08,1.349061
983.0231,-1.053012,0.0005497946,NaN,-0.4296228,0.001005438,NaN,1.199572,-14.79528,NaN,-1.074019,-1.478713,0.2003735,14.11786,NaN,NaN,-0.03854121,0.8126063,9.645421E-07,1.069184,1.273393E-08,1.352752
983.0367,-1.053012,0.0005497946,NaN,-0.4296228,0.001005438,NaN,1.199572,-14.79528,NaN,-1.074019,-1.478713,0.2003735,14.11786,NaN,NaN,-0.03854121,0.8126063,9.645421E-07,1.069184,1.273393E-08,1.352752
983.0519,-1.052599,0.0005499772,NaN,-0.4294898,0.001006681,NaN,1.199351,-14.79414,NaN,-1.073239,-1.470587,0.2008613,14.10914,NaN,NaN,-0.03848183,0.8135787,9.621579E-07,1.057335,1.452207E-08,1.3443
983.0666,-1.052256,0.0005493819,NaN,-0.4293801,0.001007696,NaN,1.199107,-14.79426,NaN,-1.072549,-1.468754,0.2013495,14.10721,NaN,NaN,-0.03842359,0.8134218,9.573895E-07,1.05467,1.839637E-08,1.344261
983.0815,-1.052175,0.0005482041,NaN,-0.4293622,0.00100646,NaN,1.199102,-14.79459,NaN,-1.072384,-1.476634,0.2011894,14.11559,NaN,NaN,-0.03844969,0.8133289,9.609657E-07,1.066151,1.541614E-08,1.347952
983.0963,-1.052175,0.0005482041,NaN,-0.4293622,0.00100646,NaN,1.199102,-14.79459,NaN,-1.072384,-1.476634,0.2011894,14.11559,NaN,NaN,-0.03844969,0.8133289,9.609657E-07,1.066151,1.541614E-08,1.347952
983.1105,-1.052257,0.0005480266,NaN,-0.4294001,0.001006422,NaN,1.199046,-14.7948,NaN,-1.072564,-1.469726,0.2009913,14.10831,NaN,NaN,-0.03847527,0.8129752,9.64542E-07,1.056106,1.660823E-08,1.347014
983.1262,-1.052441,0.0005493261,NaN,-0.4294721,0.001006485,NaN,1.198942,-14.79449,NaN,-1.072906,-1.480754,0.2008102,14.11992,NaN,NaN,-0.03850032,0.8135958,9.633499E-07,1.072132,1.780033E-08,1.348467
983.1412,-1.052687,0.0005506675,NaN,-0.4295647,0.001007972,NaN,1.198811,-14.79563,NaN,-1.073321,-1.47233,0.2006435,14.11112,NaN,NaN,-0.03852484,0.8123137,9.657341E-07,1.059899,1.422405E-08,1.354491
983.1564,-1.052687,0.0005506675,NaN,-0.4295647,0.001007972,NaN,1.198811,-14.79563,NaN,-1.073321,-1.47233,0.2006435,14.11112,NaN,NaN,-0.03852484,0.8123137,9.657341E-07,1.059899,1.422405E-08,1.354491
983.1707,-1.053188,0.0005505806,NaN,-0.4297467,0.001008179,NaN,1.198914,-14.79415,NaN,-1.074244,-1.469003,0.1998423,14.10742,NaN,NaN,-0.03863208,0.8136963,9.693103E-07,1.055007,1.332998E-08,1.341655
983.1862,-1.053846,0.0005520068,NaN,-0.4299826,0.001008627,NaN,1.198961,-14.79469,NaN,-1.075495,-1.481191,0.1990173,14.12039,NaN,NaN,-0.03873722,0.8135194,9.752708E-07,1.07277,1.124382E-08,1.347181
983.201,-1.054599,0.0005530924,NaN,-0.4302503,0.001010242,NaN,1.198955,-14.79469,NaN,-1.076891,-1.46919,0.198223,14.10769,NaN,NaN,-0.03884025,0.8133239,9.788471E-07,1.055303,1.183986E-08,1.345875
983.2161,-1.054599,0.0005530924,NaN,-0.4302503,0.001010242,NaN,1.198955,-14.79469,NaN,-1.076891,-1.46919,0.198223,14.10769,NaN,NaN,-0.03884025,0.8133239,9.788471E-07,1.055303,1.183986E-08,1.345875
983.2305,-1.055625,0.0005531063,NaN,-0.4306134,0.001011118,NaN,1.199166,-14.79471,NaN,-1.07882,-1.467723,0.1968103,14.10614,NaN,NaN,-0.03902443,0.8132664,9.883838E-07,1.05317,1.124382E-08,1.343077
983.2461,-1.056816,0.0005537973,NaN,-0.4310329,0.001011024,NaN,1.199307,-14.79564,NaN,-1.081082,-1.476935,0.1953919,14.116,NaN,NaN,-0.03920498,0.8126277,1.000305E-06,1.066613,8.561608E-09,1.348705
983.262,-1.058105,0.0005534812,NaN,-0.4314849,0.001010889,NaN,1.199388,-14.79507,NaN,-1.083483,-1.468427,0.1940187,14.10695,NaN,NaN,-0.03938194,0.8130252,1.008649E-06,1.054225,8.263585E-09,1.341899
983.2757,-1.058105,0.0005534812,NaN,-0.4314849,0.001010889,NaN,1.199388,-14.79507,NaN,-1.083483,-1.468427,0.1940187,14.10695,NaN,NaN,-0.03938194,0.8130252,1.008649E-06,1.054225,8.263585E-09,1.341899
983.2899,-1.05945,0.0005532595,NaN,-0.4319545,0.001010068,NaN,1.19943,-14.79628,NaN,-1.085931,-1.476943,0.1926868,14.1161,NaN,NaN,-0.0395554,0.8120838,1.015802E-06,1.066664,7.667539E-09,1.351082
983.3057,-1.06104,0.0005527661,NaN,-0.4325098,0.001009188,NaN,1.199691,-14.79657,NaN,-1.088857,-1.477875,0.1907429,14.11712,NaN,NaN,-0.03980864,0.8118159,1.030107E-06,1.068026,5.283353E-09,1.352231
983.3206,-1.062777,0.0005518834,NaN,-0.4331146,0.001008439,NaN,1.199884,-14.79658,NaN,-1.092081,-1.47953,0.1888076,14.11886,NaN,NaN,-0.04005688,0.81184,1.04322E-06,1.07043,4.389283E-09,1.352
983.3358,-1.062777,0.0005518834,NaN,-0.4331146,0.001008439,NaN,1.199884,-14.79658,NaN,-1.092081,-1.47953,0.1888076,14.11886,NaN,NaN,-0.04005688,0.81184,1.04322E-06,1.07043,4.389283E-09,1.352
983.35,-1.064597,0.0005509912,NaN,-0.4337464,0.001009013,NaN,1.200016,-14.79515,NaN,-1.09542,-1.478584,0.1869278,14.11769,NaN,NaN,-0.04030021,0.8132448,1.056333E-06,1.069011,8.130046E-10,1.33889
983.3659,-1.06646,0.0005498111,NaN,-0.4343919,0.001010134,NaN,1.200108,-14.79478,NaN,-1.098788,-1.473263,0.1850993,14.11202,NaN,NaN,-0.04053874,0.8134964,1.067062E-06,1.061253,-9.751348E-10,1.340515
983.381,-1.068561,0.000548161,NaN,-0.4351196,0.001010481,NaN,1.200413,-14.79504,NaN,-1.102618,-1.468881,0.1826666,14.10741,NaN,NaN,-0.04085575,0.8131349,1.078983E-06,1.05488,2.303121E-09,1.340881
983.3961,-1.068561,0.000548161,NaN,-0.4351196,0.001010481,NaN,1.200413,-14.79504,NaN,-1.102618,-1.468881,0.1826666,14.10741,NaN,NaN,-0.04085575,0.8131349,1.078983E-06,1.05488,2.303121E-09,1.340881
983.4102,-1.070799,0.0005488861,NaN,-0.4358937,0.001011032,NaN,1.200644,-14.79591,NaN,-1.106731,-1.479957,0.180259,14.11922,NaN,NaN,-0.04116651,0.8125939,1.095672E-06,1.071024,4.985329E-09,1.347708
983.4259,-1.073114,0.0005504617,NaN,-0.4366921,0.00101144,NaN,1.200814,-14.79547,NaN,-1.110945,-1.48355,0.1779174,14.12296,NaN,NaN,-0.04147113,0.8131037,1.104017E-06,1.076237,5.879399E-09,1.345814
983.4408,-1.075466,0.0005504569,NaN,-0.4375017,0.001011916,NaN,1.200941,-14.79442,NaN,-1.115175,-1.471364,0.1756367,14.10997,NaN,NaN,-0.04176974,0.81398,1.114746E-06,1.058483,4.240271E-09,1.336031
983.4561,-1.075466,0.0005504569,NaN,-0.4375017,0.001011916,NaN,1.200941,-14.79442,NaN,-1.115175,-1.471364,0.1756367,14.10997,NaN,NaN,-0.04176974,0.81398,1.114746E-06,1.058483,4.240271E-09,1.336031
983.4701,-1.078048,0.0005518525,NaN,-0.4383912,0.001012218,NaN,1.201272,-14.79483,NaN,-1.119852,-1.482924,0.1727591,14.12225,NaN,NaN,-0.04214564,0.8139116,1.125475E-06,1.075327,4.538295E-09,1.341839
983.4858,-1.080762,0.0005537716,NaN,-0.4393248,0.001012784,NaN,1.201525,-14.79384,NaN,-1.1248,-1.483252,0.1699236,14.12249,NaN,NaN,-0.04251414,0.8149156,1.13978E-06,1.075782,4.538295E-09,1.336482
983.5021,-1.083547,0.0005540898,NaN,-0.4402804,0.001013794,NaN,1.201715,-14.79413,NaN,-1.129836,-1.478844,0.1671632,14.11783,NaN,NaN,-0.04287536,0.8145744,1.151701E-06,1.069358,3.942248E-09,1.339094
983.5157,-1.083547,0.0005540898,NaN,-0.4402804,0.001013794,NaN,1.201715,-14.79413,NaN,-1.129836,-1.478844,0.1671632,14.11783,NaN,NaN,-0.04287536,0.8145744,1.151701E-06,1.069358,3.942248E-09,1.339094
983.5302,-1.086581,0.0005535437,NaN,-0.4413221,0.001013944,NaN,1.202087,-14.79399,NaN,-1.13535,-1.470778,0.1638176,14.10926,NaN,NaN,-0.04331262,0.8145666,1.173158E-06,1.057597,1.111028E-09,1.330903
983.5461,-1.089756,0.0005543925,NaN,-0.4424104,0.001013778,NaN,1.202372,-14.79491,NaN,-1.141139,-1.480843,0.1605325,14.12004,NaN,NaN,-0.04374126,0.8139442,1.189848E-06,1.072293,5.149813E-10,1.340788
983.5611,-1.093005,0.0005558151,NaN,-0.4435216,0.001013419,NaN,1.202588,-14.79461,NaN,-1.147014,-1.484109,0.1573336,14.12345,NaN,NaN,-0.04416145,0.8143095,1.201769E-06,1.07704,4.09126E-09,1.340006
983.5759,-1.093005,0.0005558151,NaN,-0.4435216,0.001013419,NaN,1.202588,-14.79461,NaN,-1.147014,-1.484109,0.1573336,14.12345,NaN,NaN,-0.04416145,0.8143095,1.201769E-06,1.07704,4.09126E-09,1.340006
983.5902,-1.096286,0.0005555091,NaN,-0.4446413,0.001012004,NaN,1.202757,-14.79407,NaN,-1.152883,-1.471203,0.1542147,14.10972,NaN,NaN,-0.04457335,0.8146824,1.216074E-06,1.058226,2.601144E-09,1.329594
983.6058,-1.099791,0.0005546997,NaN,-0.4458381,0.001010945,NaN,1.203106,-14.79375,NaN,-1.159177,-1.472102,0.1505142,14.11063,NaN,NaN,-0.0450603,0.815041,1.230379E-06,1.059524,2.154109E-09,1.332283
983.6208,-1.103419,0.0005533253,NaN,-0.4470752,0.001009461,NaN,1.203373,-14.79356,NaN,-1.165717,-1.469696,0.1468881,14.10806,NaN,NaN,-0.04553764,0.8151703,1.247068E-06,1.056012,-3.045826E-10,1.328867
983.6358,-1.103419,0.0005533253,NaN,-0.4470752,0.001009461,NaN,1.203373,-14.79356,NaN,-1.165717,-1.469696,0.1468881,14.10806,NaN,NaN,-0.04553764,0.8151703,1.247068E-06,1.056012,-3.045826E-10,1.328867
983.651,-1.107108,0.0005521973,NaN,-0.4483308,0.001008878,NaN,1.203575,-14.79471,NaN,-1.172322,-1.469474,0.1433538,14.10798,NaN,NaN,-0.04600558,0.8140324,1.257797E-06,1.055739,-1.198652E-09,1.335563
983.6657,-1.110819,0.0005526753,NaN,-0.4495914,0.001008002,NaN,1.203732,-14.79522,NaN,-1.178907,-1.48112,0.1399057,14.12037,NaN,NaN,-0.04646431,0.8138707,1.269718E-06,1.072718,-3.806355E-09,1.341551
983.6807,-1.114746,0.0005519981,NaN,-0.4509264,0.001008678,NaN,1.204057,-14.7945,NaN,-1.185904,-1.47014,0.1358828,14.10867,NaN,NaN,-0.04699714,0.8144042,1.285215E-06,1.056713,-5.370977E-09,1.335085
983.6957,-1.114746,0.0005519981,NaN,-0.4509264,0.001008678,NaN,1.204057,-14.7945,NaN,-1.185904,-1.47014,0.1358828,14.10867,NaN,NaN,-0.04699714,0.8144042,1.285215E-06,1.056713,-5.370977E-09,1.335085
983.7098,-1.11879,0.0005523437,NaN,-0.4522994,0.001009777,NaN,1.204301,-14.79511,NaN,-1.193134,-1.469067,0.1319474,14.10761,NaN,NaN,-0.04751948,0.8137834,1.301905E-06,1.055175,-7.755163E-09,1.338477
983.7256,-1.122888,0.0005536791,NaN,-0.4536886,0.001011013,NaN,1.204484,-14.79634,NaN,-1.200419,-1.476647,0.1281094,14.11579,NaN,NaN,-0.04803152,0.8127881,1.312633E-06,1.066262,-7.848295E-09,1.348359
983.7404,-1.127003,0.0005554181,NaN,-0.4550809,0.001011742,NaN,1.204621,-14.7957,NaN,-1.207673,-1.483046,0.1243637,14.12247,NaN,NaN,-0.0485335,0.8135629,1.325746E-06,1.075549,-9.506049E-09,1.344362
983.7556,-1.127003,0.0005554181,NaN,-0.4550809,0.001011742,NaN,1.204621,-14.7957,NaN,-1.207673,-1.483046,0.1243637,14.12247,NaN,NaN,-0.0485335,0.8135629,1.325746E-06,1.075549,-9.506049E-09,1.344362
983.7703,-1.131329,0.0005556917,NaN,-0.4565458,0.001011,NaN,1.204915,-14.79574,NaN,-1.215329,-1.482154,0.120051,14.12153,NaN,NaN,-0.04910871,0.8135207,1.341244E-06,1.074254,-1.027905E-08,1.343881
983.7856,-1.135766,0.0005552392,NaN,-0.4580469,0.001010916,NaN,1.205129,-14.79487,NaN,-1.223209,-1.475844,0.1158368,14.11476,NaN,NaN,-0.0496726,0.8142874,1.354357E-06,1.065049,-9.459483E-09,1.337607
983.8006,-1.140254,0.0005543216,NaN,-0.4595624,0.001011305,NaN,1.205285,-14.7954,NaN,-1.231133,-1.4691,0.1117248,14.10768,NaN,NaN,-0.05022538,0.8136113,1.365085E-06,1.055242,-1.188092E-08,1.337627
