JMolnar6/NonAnthroHands_User_Study/HandsLoggerWithURDF/tempdata/files/Reachy_PID0_JointMotion_gesture_8_41.csv
Time,r_shoulder,r_shoulder_x,r_upper_arm,r_forearm,r_wrist,r_wrist2hand,
604.9044,-0.0140286,-6.788499E-09,NaN,-0.9013762,-1.335067E-07,NaN,-1.559498,-2.92738E-07,NaN,-2.095502,1.790515E-05,0.3741017,-4.874057E-09,NaN,NaN,-0.09249986,-2.933672E-10,-1.855512E-08,-1.113914E-07,3.098793E-09,-2.861022E-08
604.9212,-0.01402786,-6.787715E-09,NaN,-0.9014273,-1.335067E-07,NaN,-1.559529,-2.926752E-07,NaN,-2.09566,1.790562E-05,0.374126,-4.935228E-09,NaN,NaN,-0.09249693,-2.933672E-10,-1.95982E-08,-1.1139E-07,-1.669578E-09,-2.622604E-08
604.9344,-0.01402786,-6.787715E-09,NaN,-0.9014273,-1.335067E-07,NaN,-1.559529,-2.926752E-07,NaN,-2.09566,1.790562E-05,0.374126,-4.935228E-09,NaN,NaN,-0.09249693,-2.933672E-10,-1.95982E-08,-1.1139E-07,-1.669578E-09,-2.622604E-08
604.9486,-0.01402699,-6.786931E-09,NaN,-0.901547,-1.335067E-07,NaN,-1.559047,-2.926135E-07,NaN,-2.096409,1.790609E-05,0.3755146,-4.995274E-09,NaN,NaN,-0.09236483,-2.933672E-10,-2.481361E-08,-1.113887E-07,7.146075E-10,-2.861022E-08
604.9625,-0.01402604,-6.786148E-09,NaN,-0.9017086,-1.335068E-07,NaN,-1.558656,-2.925502E-07,NaN,-2.09744,1.790656E-05,0.3771212,-5.05704E-09,NaN,NaN,-0.09223572,-2.933672E-10,-1.848062E-08,-1.113874E-07,-1.669578E-09,-2.622604E-08
604.9774,-0.01402604,-6.786148E-09,NaN,-0.9017086,-1.335068E-07,NaN,-1.558656,-2.925502E-07,NaN,-2.09744,1.790656E-05,0.3771212,-5.05704E-09,NaN,NaN,-0.09223572,-2.933672E-10,-1.848062E-08,-1.113874E-07,-1.669578E-09,-2.622604E-08
604.991,-0.01402502,-6.785364E-09,NaN,-0.9018953,-1.335068E-07,NaN,-1.558383,-2.92488E-07,NaN,-2.098599,1.790703E-05,0.3786924,-5.117669E-09,NaN,NaN,-0.09210906,-2.933672E-10,-1.341422E-08,-1.113861E-07,3.098793E-09,-2.861022E-08
605.0065,-0.01402408,-6.784581E-09,NaN,-0.9020274,-1.335068E-07,NaN,-1.558694,-2.92424E-07,NaN,-2.099218,1.79075E-05,0.3788474,-5.180011E-09,NaN,NaN,-0.09211403,-2.933672E-10,-5.367594E-09,-1.113847E-07,3.098793E-09,-2.622604E-08
605.0212,-0.01402321,-6.783798E-09,NaN,-0.9021251,-1.335069E-07,NaN,-1.558949,-2.923612E-07,NaN,-2.099568,1.790797E-05,0.3787365,-5.241203E-09,NaN,NaN,-0.09211843,-2.933672E-10,-9.763436E-09,-1.113834E-07,1.025135E-08,-2.861022E-08
605.0358,-0.01402321,-6.783798E-09,NaN,-0.9021251,-1.335069E-07,NaN,-1.558949,-2.923612E-07,NaN,-2.099568,1.790797E-05,0.3787365,-5.241203E-09,NaN,NaN,-0.09211843,-2.933672E-10,-9.763436E-09,-1.113834E-07,1.025135E-08,-2.861022E-08
605.0496,-0.01402239,-6.783014E-09,NaN,-0.9022012,-1.335069E-07,NaN,-1.559105,-2.922968E-07,NaN,-2.099787,1.790844E-05,0.3786237,-5.304092E-09,NaN,NaN,-0.09212279,-2.933672E-10,-1.356323E-08,-1.113821E-07,3.098793E-09,-2.622604E-08
605.065,-0.0140216,-6.782231E-09,NaN,-0.9022637,-1.335069E-07,NaN,-1.559201,-2.922334E-07,NaN,-2.099942,1.790891E-05,0.3785339,-5.365822E-09,NaN,NaN,-0.09212716,-2.933672E-10,-1.609643E-08,-1.113808E-07,3.098793E-09,-2.861022E-08
605.0798,-0.0140216,-6.782231E-09,NaN,-0.9022637,-1.335069E-07,NaN,-1.559201,-2.922334E-07,NaN,-2.099942,1.790891E-05,0.3785339,-5.365822E-09,NaN,NaN,-0.09212716,-2.933672E-10,-1.609643E-08,-1.113808E-07,3.098793E-09,-2.861022E-08
605.0935,-0.01402097,-6.781447E-09,NaN,-0.9022501,-1.335069E-07,NaN,-1.559785,-2.921684E-07,NaN,-2.099471,1.790938E-05,0.3770997,-5.42924E-09,NaN,NaN,-0.09226073,-2.887106E-10,-1.31907E-08,-1.113795E-07,-4.053764E-09,-2.622604E-08
605.109,-0.01402045,-6.780664E-09,NaN,-0.9021894,-1.33507E-07,NaN,-1.560264,-2.921046E-07,NaN,-2.098697,1.790985E-05,0.3754514,-5.491487E-09,NaN,NaN,-0.09239128,-2.887106E-10,-2.131184E-08,-1.113783E-07,-6.43795E-09,-2.861022E-08
605.1235,-0.01402,-6.779881E-09,NaN,-0.9021001,-1.33507E-07,NaN,-1.560615,-2.920391E-07,NaN,-2.097785,1.791032E-05,0.3738415,-5.555413E-09,NaN,NaN,-0.09251938,-2.887106E-10,-2.85389E-08,-1.11377E-07,-6.43795E-09,-2.622604E-08
605.1382,-0.01402,-6.779881E-09,NaN,-0.9021001,-1.33507E-07,NaN,-1.560615,-2.920391E-07,NaN,-2.097785,1.791032E-05,0.3738415,-5.555413E-09,NaN,NaN,-0.09251938,-2.887106E-10,-2.85389E-08,-1.11377E-07,-6.43795E-09,-2.622604E-08
605.1523,-0.01401971,-6.779097E-09,NaN,-0.9019243,-1.33507E-07,NaN,-1.561406,-2.919747E-07,NaN,-2.09622,1.791079E-05,0.3709264,-5.618161E-09,NaN,NaN,-0.09277432,-2.887106E-10,-2.868791E-08,-1.113757E-07,-8.822136E-09,-2.861022E-08
605.1677,-0.01401956,-6.778314E-09,NaN,-0.9016957,-1.335071E-07,NaN,-1.562063,-2.919144E-07,NaN,-2.094348,1.791126E-05,0.3678376,-5.676922E-09,NaN,NaN,-0.0930239,-2.887106E-10,-3.956576E-08,-1.113744E-07,-1.120632E-08,-2.622604E-08
605.1821,-0.01401949,-6.777531E-09,NaN,-0.9014357,-1.335071E-07,NaN,-1.562576,-2.918523E-07,NaN,-2.092343,1.791174E-05,0.3648211,-5.737432E-09,NaN,NaN,-0.09326873,-2.887106E-10,-4.865547E-08,-1.113731E-07,-1.120632E-08,-2.861022E-08
605.1964,-0.01401949,-6.777531E-09,NaN,-0.9014357,-1.335071E-07,NaN,-1.562576,-2.918523E-07,NaN,-2.092343,1.791174E-05,0.3648211,-5.737432E-09,NaN,NaN,-0.09326873,-2.887106E-10,-4.865547E-08,-1.113731E-07,-1.120632E-08,-2.861022E-08
605.2128,-0.01401947,-6.776747E-09,NaN,-0.9011574,-1.335071E-07,NaN,-1.563003,-2.917913E-07,NaN,-2.09029,1.791221E-05,0.361891,-5.796828E-09,NaN,NaN,-0.09350887,-2.887106E-10,-5.528648E-08,-1.113719E-07,-1.359051E-08,-2.622604E-08
605.2274,-0.01401961,-6.775964E-09,NaN,-0.9007998,-1.335071E-07,NaN,-1.56389,-2.917286E-07,NaN,-2.087637,1.791268E-05,0.3576629,-5.857959E-09,NaN,NaN,-0.09387362,-2.887106E-10,-5.55845E-08,-1.113706E-07,-1.597469E-08,-2.861022E-08
605.2404,-0.01401987,-6.77518E-09,NaN,-0.9003948,-1.335072E-07,NaN,-1.564647,-2.91667E-07,NaN,-2.08471,1.791315E-05,0.3532866,-5.917968E-09,NaN,NaN,-0.09423088,-2.933672E-10,-6.683488E-08,-1.113694E-07,-1.359051E-08,-2.622604E-08
605.255,-0.01401987,-6.77518E-09,NaN,-0.9003948,-1.335072E-07,NaN,-1.564647,-2.91667E-07,NaN,-2.08471,1.791315E-05,0.3532866,-5.917968E-09,NaN,NaN,-0.09423088,-2.933672E-10,-6.683488E-08,-1.113694E-07,-1.359051E-08,-2.622604E-08
605.269,-0.01402022,-6.774397E-09,NaN,-0.8999624,-1.335072E-07,NaN,-1.565261,-2.916036E-07,NaN,-2.081674,1.791361E-05,0.3490062,-5.979699E-09,NaN,NaN,-0.09458125,-2.887106E-10,-7.689317E-08,-1.113681E-07,-1.597469E-08,-2.861022E-08
605.2842,-0.01402062,-6.773615E-09,NaN,-0.899515,-1.335072E-07,NaN,-1.565786,-2.915415E-07,NaN,-2.078609,1.791408E-05,0.3448351,-6.040292E-09,NaN,NaN,-0.09492487,-2.887106E-10,-8.538683E-08,-1.113669E-07,-8.822134E-09,-2.622604E-08
605.2992,-0.01402062,-6.773615E-09,NaN,-0.899515,-1.335072E-07,NaN,-1.565786,-2.915415E-07,NaN,-2.078609,1.791408E-05,0.3448351,-6.040292E-09,NaN,NaN,-0.09492487,-2.887106E-10,-8.538683E-08,-1.113669E-07,-8.822134E-09,-2.622604E-08
605.3129,-0.01402117,-6.772832E-09,NaN,-0.8989911,-1.335073E-07,NaN,-1.566757,-2.914776E-07,NaN,-2.074964,1.791454E-05,0.3393749,-6.102592E-09,NaN,NaN,-0.09539108,-2.887106E-10,-8.829256E-08,-1.113656E-07,-1.120632E-08,-2.861022E-08
605.3281,-0.01402184,-6.772049E-09,NaN,-0.8984223,-1.335073E-07,NaN,-1.567586,-2.914148E-07,NaN,-2.07106,1.791501E-05,0.3338016,-6.163747E-09,NaN,NaN,-0.09584785,-2.933672E-10,-1.008095E-07,-1.113644E-07,-1.669576E-09,-2.622604E-08
605.3428,-0.0140226,-6.771266E-09,NaN,-0.8978283,-1.335073E-07,NaN,-1.568266,-2.913504E-07,NaN,-2.067063,1.791548E-05,0.3283509,-6.226599E-09,NaN,NaN,-0.09629578,-2.933672E-10,-1.104208E-07,-1.113631E-07,-6.437948E-09,-2.861022E-08
605.3575,-0.0140226,-6.771266E-09,NaN,-0.8978283,-1.335073E-07,NaN,-1.568266,-2.913504E-07,NaN,-2.067063,1.791548E-05,0.3283509,-6.226599E-09,NaN,NaN,-0.09629578,-2.933672E-10,-1.104208E-07,-1.113631E-07,-6.437948E-09,-2.861022E-08
605.3716,-0.01402353,-6.770483E-09,NaN,-0.8971522,-1.335073E-07,NaN,-1.569342,-2.912871E-07,NaN,-2.062463,1.791594E-05,0.3216336,-6.288282E-09,NaN,NaN,-0.09686431,-2.933672E-10,-1.136245E-07,-1.113619E-07,-6.437948E-09,-2.622604E-08
605.3872,-0.0140246,-6.7697E-09,NaN,-0.8964283,-1.335074E-07,NaN,-1.570247,-2.91225E-07,NaN,-2.057601,1.791641E-05,0.3148469,-6.348826E-09,NaN,NaN,-0.09742146,-2.933672E-10,-1.270356E-07,-1.113607E-07,3.098795E-09,-2.861022E-08
605.402,-0.01402575,-6.768917E-09,NaN,-0.8956783,-1.335074E-07,NaN,-1.570979,-2.911611E-07,NaN,-2.052651,1.791687E-05,0.3082034,-6.411083E-09,NaN,NaN,-0.09796781,-2.933672E-10,-1.391055E-07,-1.113595E-07,-4.053762E-09,-2.622604E-08
605.4164,-0.01402575,-6.768917E-09,NaN,-0.8956783,-1.335074E-07,NaN,-1.570979,-2.911611E-07,NaN,-2.052651,1.791687E-05,0.3082034,-6.411083E-09,NaN,NaN,-0.09796781,-2.933672E-10,-1.391055E-07,-1.113595E-07,-4.053762E-09,-2.622604E-08
605.4303,-0.01402697,-6.768134E-09,NaN,-0.8949155,-1.335074E-07,NaN,-1.571416,-2.910984E-07,NaN,-2.047684,1.791734E-05,0.3015167,-6.472191E-09,NaN,NaN,-0.09850318,-2.933672E-10,-1.594456E-07,-1.113583E-07,-1.669576E-09,-2.861022E-08
605.4459,-0.01402835,-6.767352E-09,NaN,-0.894079,-1.335075E-07,NaN,-1.571988,-2.91034E-07,NaN,-2.042156,1.791781E-05,0.2934754,-6.535001E-09,NaN,NaN,-0.09915726,-2.933672E-10,-1.780721E-07,-1.11357E-07,7.146093E-10,-2.622604E-08
605.4603,-0.01402996,-6.766569E-09,NaN,-0.8932006,-1.335075E-07,NaN,-1.572071,-2.909708E-07,NaN,-2.03639,1.791827E-05,0.2853076,-6.596649E-09,NaN,NaN,-0.09979815,-2.933672E-10,-2.126427E-07,-1.113558E-07,5.482981E-09,-2.861022E-08
605.475,-0.01402996,-6.766569E-09,NaN,-0.8932006,-1.335075E-07,NaN,-1.572071,-2.909708E-07,NaN,-2.03639,1.791827E-05,0.2853076,-6.596649E-09,NaN,NaN,-0.09979815,-2.933672E-10,-2.126427E-07,-1.113558E-07,5.482981E-09,-2.861022E-08
605.491,-0.01403185,-6.765787E-09,NaN,-0.8923004,-1.335075E-07,NaN,-1.57178,-2.909059E-07,NaN,-2.030561,1.791874E-05,0.2773736,-6.659986E-09,NaN,NaN,-0.1004267,-2.933672E-10,-2.41104E-07,-1.113546E-07,7.867166E-09,-2.622604E-08
605.5052,-0.01403396,-6.765004E-09,NaN,-0.8913907,-1.335075E-07,NaN,-1.571376,-2.908421E-07,NaN,-2.024756,1.791921E-05,0.2697545,-6.722157E-09,NaN,NaN,-0.1010433,-2.980239E-10,-2.599539E-07,-1.113534E-07,3.098795E-09,-2.861022E-08
605.519,-0.01403396,-6.765004E-09,NaN,-0.8913907,-1.335075E-07,NaN,-1.571376,-2.908421E-07,NaN,-2.024756,1.791921E-05,0.2697545,-6.722157E-09,NaN,NaN,-0.1010433,-2.980239E-10,-2.599539E-07,-1.113534E-07,3.098795E-09,-2.861022E-08
605.5329,-0.01403644,-6.764222E-09,NaN,-0.8904099,-1.335075E-07,NaN,-1.571503,-2.907795E-07,NaN,-2.01843,1.791967E-05,0.2609753,-6.783179E-09,NaN,NaN,-0.1017774,-2.980239E-10,-2.657654E-07,-1.113522E-07,5.482981E-09,-2.622604E-08
605.5483,-0.01403928,-6.763439E-09,NaN,-0.8893898,-1.335076E-07,NaN,-1.571526,-2.907152E-07,NaN,-2.011892,1.792015E-05,0.252141,-6.845906E-09,NaN,NaN,-0.1024969,-3.026805E-10,-2.837213E-07,-1.11351E-07,7.867166E-09,-2.861022E-08
605.5626,-0.01404244,-6.762657E-09,NaN,-0.8883498,-1.335076E-07,NaN,-1.571415,-2.906521E-07,NaN,-2.0053,1.792061E-05,0.2434869,-6.907475E-09,NaN,NaN,-0.1032023,-3.026805E-10,-3.013791E-07,-1.113499E-07,1.740391E-08,-2.622604E-08
605.5774,-0.01404244,-6.762657E-09,NaN,-0.8883498,-1.335076E-07,NaN,-1.571415,-2.906521E-07,NaN,-2.0053,1.792061E-05,0.2434869,-6.907475E-09,NaN,NaN,-0.1032023,-3.026805E-10,-3.013791E-07,-1.113499E-07,1.740391E-08,-2.622604E-08
605.5912,-0.01404603,-6.761874E-09,NaN,-0.887233,-1.335076E-07,NaN,-1.571687,-2.905872E-07,NaN,-1.998151,1.792108E-05,0.2335921,-6.970736E-09,NaN,NaN,-0.1040234,-3.073371E-10,-3.074141E-07,-1.113487E-07,2.455647E-08,-2.861022E-08
605.6067,-0.01405005,-6.761092E-09,NaN,-0.8860737,-1.335076E-07,NaN,-1.571712,-2.905235E-07,NaN,-1.990779,1.792155E-05,0.2236716,-7.03283E-09,NaN,NaN,-0.1048282,-3.073371E-10,-3.289463E-07,-1.113475E-07,1.97881E-08,-2.622604E-08
605.6212,-0.01405441,-6.760309E-09,NaN,-0.8848935,-1.335076E-07,NaN,-1.571531,-2.90461E-07,NaN,-1.983358,1.792201E-05,0.2139851,-7.093778E-09,NaN,NaN,-0.1056173,-3.073371E-10,-3.464552E-07,-1.113463E-07,1.263554E-08,-2.861022E-08
605.6361,-0.01405441,-6.760309E-09,NaN,-0.8848935,-1.335076E-07,NaN,-1.571531,-2.90461E-07,NaN,-1.983358,1.792201E-05,0.2139851,-7.093778E-09,NaN,NaN,-0.1056173,-3.073371E-10,-3.464552E-07,-1.113463E-07,1.263554E-08,-2.861022E-08
605.65,-0.01405904,-6.759527E-09,NaN,-0.8837056,-1.335076E-07,NaN,-1.57129,-2.903967E-07,NaN,-1.975973,1.792248E-05,0.2045763,-7.15643E-09,NaN,NaN,-0.1063912,-3.073371E-10,-3.593447E-07,-1.113452E-07,1.263554E-08,-2.622604E-08
605.6655,-0.01406406,-6.758745E-09,NaN,-0.8824489,-1.335076E-07,NaN,-1.571499,-2.903336E-07,NaN,-1.968083,1.792294E-05,0.1939345,-7.217927E-09,NaN,NaN,-0.1072793,-3.073371E-10,-3.620269E-07,-1.11344E-07,7.867167E-09,-2.861022E-08
605.6801,-0.01406946,-6.757963E-09,NaN,-0.8811555,-1.335077E-07,NaN,-1.571525,-2.902689E-07,NaN,-1.960001,1.792341E-05,0.1833071,-7.281116E-09,NaN,NaN,-0.1081499,-3.073371E-10,-3.76481E-07,-1.113428E-07,3.098796E-09,-2.622604E-08
605.6965,-0.01406946,-6.757963E-09,NaN,-0.8811555,-1.335077E-07,NaN,-1.571525,-2.902689E-07,NaN,-1.960001,1.792341E-05,0.1833071,-7.281116E-09,NaN,NaN,-0.1081499,-3.073371E-10,-3.76481E-07,-1.113428E-07,3.098796E-09,-2.622604E-08
605.7086,-0.01407517,-6.757181E-09,NaN,-0.8798452,-1.335077E-07,NaN,-1.571387,-2.902053E-07,NaN,-1.951888,1.792388E-05,0.1729159,-7.343137E-09,NaN,NaN,-0.1090035,-3.119937E-10,-3.89594E-07,-1.113417E-07,3.098796E-09,-2.861022E-08
605.7239,-0.01408112,-6.756399E-09,NaN,-0.8785303,-1.335077E-07,NaN,-1.571197,-2.9014E-07,NaN,-1.943824,1.792435E-05,0.1627945,-7.406843E-09,NaN,NaN,-0.1098406,-3.119937E-10,-3.974916E-07,-1.113405E-07,3.098796E-09,-2.622604E-08
605.7387,-0.01408112,-6.756399E-09,NaN,-0.8785303,-1.335077E-07,NaN,-1.571197,-2.9014E-07,NaN,-1.943824,1.792435E-05,0.1627945,-7.406843E-09,NaN,NaN,-0.1098406,-3.119937E-10,-3.974916E-07,-1.113405E-07,3.098796E-09,-2.622604E-08
605.7526,-0.01408745,-6.755617E-09,NaN,-0.8771492,-1.335077E-07,NaN,-1.571409,-2.900759E-07,NaN,-1.935266,1.792481E-05,0.1514121,-7.469374E-09,NaN,NaN,-0.1107906,-3.119937E-10,-3.957035E-07,-1.113394E-07,7.867167E-09,-2.861022E-08
605.7678,-0.01409413,-6.754835E-09,NaN,-0.8757334,-1.335077E-07,NaN,-1.571419,-2.900129E-07,NaN,-1.926528,1.792528E-05,0.1400938,-7.530748E-09,NaN,NaN,-0.1117219,-3.119937E-10,-4.057617E-07,-1.113382E-07,3.098796E-09,-2.622604E-08
605.7834,-0.01410111,-6.754053E-09,NaN,-0.8743026,-1.335077E-07,NaN,-1.571272,-2.899482E-07,NaN,-1.91777,1.792574E-05,0.1290356,-7.593819E-09,NaN,NaN,-0.1126351,-3.119937E-10,-4.140319E-07,-1.113371E-07,7.146101E-10,-2.861022E-08
605.7982,-0.01410111,-6.754053E-09,NaN,-0.8743026,-1.335077E-07,NaN,-1.571272,-2.899482E-07,NaN,-1.91777,1.792574E-05,0.1290356,-7.593819E-09,NaN,NaN,-0.1126351,-3.119937E-10,-4.140319E-07,-1.113371E-07,7.146101E-10,-2.861022E-08
605.8119,-0.01410851,-6.753271E-09,NaN,-0.8727995,-1.335077E-07,NaN,-1.571428,-2.898848E-07,NaN,-1.908491,1.792621E-05,0.1167282,-7.655724E-09,NaN,NaN,-0.1136598,-3.119937E-10,-4.135103E-07,-1.11336E-07,3.098796E-09,-2.622604E-08
605.826,-0.01411631,-6.752489E-09,NaN,-0.8712587,-1.335078E-07,NaN,-1.571365,-2.898196E-07,NaN,-1.899026,1.792668E-05,0.1045574,-7.719314E-09,NaN,NaN,-0.1146644,-3.119937E-10,-4.207002E-07,-1.113348E-07,3.098796E-09,-2.861022E-08
605.8406,-0.01412444,-6.751708E-09,NaN,-0.8697014,-1.335078E-07,NaN,-1.571174,-2.897556E-07,NaN,-1.889542,1.792714E-05,0.09268632,-7.781729E-09,NaN,NaN,-0.1156494,-3.119937E-10,-4.238294E-07,-1.113337E-07,7.146101E-10,-2.622604E-08
605.8552,-0.01412444,-6.751708E-09,NaN,-0.8697014,-1.335078E-07,NaN,-1.571174,-2.897556E-07,NaN,-1.889542,1.792714E-05,0.09268632,-7.781729E-09,NaN,NaN,-0.1156494,-3.119937E-10,-4.238294E-07,-1.113337E-07,7.146101E-10,-2.622604E-08
605.8694,-0.01413282,-6.750926E-09,NaN,-0.8681409,-1.335078E-07,NaN,-1.570977,-2.896927E-07,NaN,-1.880121,1.792761E-05,0.08111836,-7.842996E-09,NaN,NaN,-0.1166151,-3.119937E-10,-4.218923E-07,-1.113326E-07,3.098796E-09,-2.861022E-08
605.8847,-0.01413902,-6.750144E-09,NaN,-0.867417,-1.335078E-07,NaN,-1.567216,-2.896282E-07,NaN,-1.877717,1.792807E-05,0.08843696,-7.905959E-09,NaN,NaN,-0.1160102,-3.119937E-10,-4.587168E-07,-1.113315E-07,-8.822132E-09,-2.622604E-08
605.8992,-0.01413902,-6.750144E-09,NaN,-0.867417,-1.335078E-07,NaN,-1.567216,-2.896282E-07,NaN,-1.877717,1.792807E-05,0.08843696,-7.905959E-09,NaN,NaN,-0.1160102,-3.119937E-10,-4.587168E-07,-1.113315E-07,-8.822132E-09,-2.622604E-08
605.9131,-0.0141425,-6.749363E-09,NaN,-0.8672127,-1.335078E-07,NaN,-1.565179,-2.895648E-07,NaN,-1.878713,1.792854E-05,0.09633413,-7.967761E-09,NaN,NaN,-0.1154172,-3.166503E-10,-4.205698E-07,-1.113304E-07,-8.822132E-09,-2.861022E-08
605.9285,-0.0141435,-6.748581E-09,NaN,-0.8673282,-1.335078E-07,NaN,-1.564051,-2.894997E-07,NaN,-1.881391,1.792901E-05,0.1037378,-8.031249E-09,NaN,NaN,-0.1148358,-3.166503E-10,-3.994846E-07,-1.113293E-07,-1.669575E-09,-2.622604E-08
605.9431,-0.01414344,-6.7478E-09,NaN,-0.8676405,-1.335078E-07,NaN,-1.563302,-2.894357E-07,NaN,-1.884891,1.792948E-05,0.1108335,-8.093568E-09,NaN,NaN,-0.1142658,-3.213069E-10,-3.867441E-07,-1.113281E-07,7.867168E-09,-2.861022E-08
605.9578,-0.01414344,-6.7478E-09,NaN,-0.8676405,-1.335078E-07,NaN,-1.563302,-2.894357E-07,NaN,-1.884891,1.792948E-05,0.1108335,-8.093568E-09,NaN,NaN,-0.1142658,-3.213069E-10,-3.867441E-07,-1.113281E-07,7.867168E-09,-2.861022E-08
605.9717,-0.01414305,-6.747018E-09,NaN,-0.8680035,-1.335079E-07,NaN,-1.563019,-2.89373E-07,NaN,-1.888202,1.792995E-05,0.1161697,-8.154736E-09,NaN,NaN,-0.1138363,-3.213069E-10,-3.740037E-07,-1.11327E-07,3.098797E-09,-2.622604E-08
605.9871,-0.01414252,-6.746236E-09,NaN,-0.8683963,-1.335079E-07,NaN,-1.562699,-2.893085E-07,NaN,-1.891412,1.793042E-05,0.1213212,-8.217603E-09,NaN,NaN,-0.1134152,-3.259635E-10,-3.682667E-07,-1.11326E-07,1.025135E-08,-2.861022E-08
606.0018,-0.01414194,-6.745455E-09,NaN,-0.8688057,-1.335079E-07,NaN,-1.562355,-2.892452E-07,NaN,-1.894553,1.793088E-05,0.1263812,-8.279312E-09,NaN,NaN,-0.1130023,-3.259635E-10,-3.613749E-07,-1.113249E-07,1.263554E-08,-2.622604E-08
606.0166,-0.01414194,-6.745455E-09,NaN,-0.8688057,-1.335079E-07,NaN,-1.562355,-2.892452E-07,NaN,-1.894553,1.793088E-05,0.1263812,-8.279312E-09,NaN,NaN,-0.1130023,-3.259635E-10,-3.613749E-07,-1.113249E-07,1.263554E-08,-2.622604E-08
606.0305,-0.01414145,-6.744674E-09,NaN,-0.8691542,-1.335079E-07,NaN,-1.562324,-2.891802E-07,NaN,-1.897062,1.793135E-05,0.1297984,-8.342708E-09,NaN,NaN,-0.1127269,-3.306201E-10,-3.514656E-07,-1.113238E-07,1.263554E-08,-2.861022E-08
606.0457,-0.01414104,-6.743893E-09,NaN,-0.8694634,-1.335079E-07,NaN,-1.562186,-2.891164E-07,NaN,-1.899248,1.793182E-05,0.1330926,-8.404935E-09,NaN,NaN,-0.1124569,-3.306201E-10,-3.46809E-07,-1.113227E-07,1.263554E-08,-2.622604E-08
606.0601,-0.01414068,-6.743111E-09,NaN,-0.8697471,-1.33508E-07,NaN,-1.561991,-2.900973E-07,NaN,-1.901261,1.793229E-05,0.1363453,-7.42249E-09,NaN,NaN,-0.1121922,-3.306201E-10,-3.414074E-07,-1.113213E-07,1.501972E-08,-2.861022E-08
606.076,-0.01414068,-6.743111E-09,NaN,-0.8697471,-1.33508E-07,NaN,-1.561991,-2.900973E-07,NaN,-1.901261,1.793229E-05,0.1363453,-7.42249E-09,NaN,NaN,-0.1121922,-3.306201E-10,-3.414074E-07,-1.113213E-07,1.501972E-08,-2.861022E-08
606.0898,-0.01414035,-6.74233E-09,NaN,-0.8700138,-1.335084E-07,NaN,-1.561777,-2.898432E-07,NaN,-1.903174,1.793275E-05,0.1395457,-7.674951E-09,NaN,NaN,-0.1119327,-3.306201E-10,-3.355959E-07,-1.113193E-07,1.740391E-08,-2.622604E-08
606.104,-0.01414017,-6.741549E-09,NaN,-0.8701994,-1.335087E-07,NaN,-1.561887,-2.896082E-07,NaN,-1.904444,1.793322E-05,0.1411428,-7.908434E-09,NaN,NaN,-0.1118076,-3.352767E-10,-3.264317E-07,-1.113172E-07,1.025135E-08,-2.861022E-08
606.1187,-0.01414017,-6.741549E-09,NaN,-0.8701994,-1.335087E-07,NaN,-1.561887,-2.896082E-07,NaN,-1.904444,1.793322E-05,0.1411428,-7.908434E-09,NaN,NaN,-0.1118076,-3.352767E-10,-3.264317E-07,-1.113172E-07,1.025135E-08,-2.861022E-08
606.1324,-0.01414011,-6.740768E-09,NaN,-0.8703341,-1.33509E-07,NaN,-1.561886,-2.893833E-07,NaN,-1.905392,1.793369E-05,0.142647,-8.131763E-09,NaN,NaN,-0.111685,-3.352767E-10,-3.231535E-07,-1.11315E-07,1.025135E-08,-2.622604E-08
606.1479,-0.01414012,-6.739987E-09,NaN,-0.8704369,-1.335093E-07,NaN,-1.561822,-2.891655E-07,NaN,-1.906176,1.793416E-05,0.1441459,-8.347967E-09,NaN,NaN,-0.1115648,-3.399333E-10,-3.189811E-07,-1.113129E-07,7.867166E-09,-2.861022E-08
606.1622,-0.01414017,-6.739206E-09,NaN,-0.8705195,-1.335096E-07,NaN,-1.561734,-2.889518E-07,NaN,-1.906871,1.793462E-05,0.1456281,-8.560008E-09,NaN,NaN,-0.1114469,-3.399333E-10,-3.141382E-07,-1.113108E-07,5.482981E-09,-2.622604E-08
606.1782,-0.01414017,-6.739206E-09,NaN,-0.8705195,-1.335096E-07,NaN,-1.561734,-2.889518E-07,NaN,-1.906871,1.793462E-05,0.1456281,-8.560008E-09,NaN,NaN,-0.1114469,-3.399333E-10,-3.141382E-07,-1.113108E-07,5.482981E-09,-2.622604E-08
606.1907,-0.01414039,-6.738424E-09,NaN,-0.8705198,-1.335099E-07,NaN,-1.561972,-2.887423E-07,NaN,-1.906937,1.793509E-05,0.1455431,-8.767964E-09,NaN,NaN,-0.1114608,-3.445899E-10,-3.065387E-07,-1.113086E-07,-1.669576E-09,-2.861022E-08
606.2061,-0.01414074,-6.737643E-09,NaN,-0.8704713,-1.335102E-07,NaN,-1.562091,-2.885367E-07,NaN,-1.906697,1.793556E-05,0.145397,-8.971917E-09,NaN,NaN,-0.1114743,-3.585598E-10,-3.050485E-07,-1.113065E-07,-1.669576E-09,-2.622604E-08
606.2206,-0.01414116,-6.736862E-09,NaN,-0.8703928,-1.335104E-07,NaN,-1.562141,-2.883323E-07,NaN,-1.906306,1.793604E-05,0.1452793,-9.174769E-09,NaN,NaN,-0.1114876,-3.725296E-10,-3.022918E-07,-1.113044E-07,5.482981E-09,-2.861022E-08
606.2354,-0.01414116,-6.736862E-09,NaN,-0.8703928,-1.335104E-07,NaN,-1.562141,-2.883323E-07,NaN,-1.906306,1.793604E-05,0.1452793,-9.174769E-09,NaN,NaN,-0.1114876,-3.725296E-10,-3.022918E-07,-1.113044E-07,5.482981E-09,-2.861022E-08
606.2497,-0.01414176,-6.736081E-09,NaN,-0.8702268,-1.335107E-07,NaN,-1.562496,-2.881318E-07,NaN,-1.905265,1.793651E-05,0.1436338,-9.373714E-09,NaN,NaN,-0.11163,-3.864994E-10,-2.958098E-07,-1.113023E-07,3.098795E-09,-2.622604E-08
606.2648,-0.01414249,-6.7353E-09,NaN,-0.8700076,-1.33511E-07,NaN,-1.562719,-2.879322E-07,NaN,-1.903915,1.793699E-05,0.1419629,-9.571656E-09,NaN,NaN,-0.1117695,-4.004692E-10,-2.951393E-07,-1.113002E-07,3.098795E-09,-2.861022E-08
606.2792,-0.01414249,-6.7353E-09,NaN,-0.8700076,-1.33511E-07,NaN,-1.562719,-2.879322E-07,NaN,-1.903915,1.793699E-05,0.1419629,-9.571656E-09,NaN,NaN,-0.1117695,-4.004692E-10,-2.951393E-07,-1.113002E-07,3.098795E-09,-2.861022E-08
606.2931,-0.01414331,-6.734519E-09,NaN,-0.8697565,-1.335113E-07,NaN,-1.562866,-2.877337E-07,NaN,-1.902421,1.793746E-05,0.1403525,-9.768619E-09,NaN,NaN,-0.1119064,-4.144391E-10,-2.933511E-07,-1.112981E-07,3.098795E-09,-2.622604E-08
606.3085,-0.01414418,-6.733738E-09,NaN,-0.8694868,-1.335115E-07,NaN,-1.562977,-2.875389E-07,NaN,-1.900867,1.793792E-05,0.1387883,-9.961791E-09,NaN,NaN,-0.1120406,-4.190957E-10,-2.906689E-07,-1.11296E-07,3.098795E-09,-2.861022E-08
606.3229,-0.01414522,-6.732956E-09,NaN,-0.8691376,-1.335118E-07,NaN,-1.563399,-2.873451E-07,NaN,-1.898715,1.793839E-05,0.1357148,-1.015407E-08,NaN,NaN,-0.1123015,-4.330655E-10,-2.847829E-07,-1.112939E-07,3.098795E-09,-2.622604E-08
606.3379,-0.01414522,-6.732956E-09,NaN,-0.8691376,-1.335118E-07,NaN,-1.563399,-2.873451E-07,NaN,-1.898715,1.793839E-05,0.1357148,-1.015407E-08,NaN,NaN,-0.1123015,-4.330655E-10,-2.847829E-07,-1.112939E-07,3.098795E-09,-2.622604E-08
606.3516,-0.01414638,-6.732176E-09,NaN,-0.8687408,-1.33512E-07,NaN,-1.563691,-2.871521E-07,NaN,-1.896288,1.793885E-05,0.1326461,-1.034548E-08,NaN,NaN,-0.1125573,-4.377221E-10,-2.847829E-07,-1.112919E-07,5.482981E-09,-2.861022E-08
606.369,-0.01414763,-6.731395E-09,NaN,-0.8683164,-1.335123E-07,NaN,-1.563905,-2.8696E-07,NaN,-1.893742,1.793932E-05,0.1296646,-1.053603E-08,NaN,NaN,-0.1128081,-4.516919E-10,-2.828458E-07,-1.112898E-07,7.867166E-09,-2.622604E-08
606.3826,-0.01414895,-6.730614E-09,NaN,-0.8678769,-1.335125E-07,NaN,-1.564082,-2.867715E-07,NaN,-1.891156,1.793978E-05,0.1267558,-1.072291E-08,NaN,NaN,-0.113054,-4.563485E-10,-2.809087E-07,-1.112877E-07,7.867166E-09,-2.861022E-08
606.3963,-0.01414895,-6.730614E-09,NaN,-0.8678769,-1.335125E-07,NaN,-1.564082,-2.867715E-07,NaN,-1.891156,1.793978E-05,0.1267558,-1.072291E-08,NaN,NaN,-0.113054,-4.563485E-10,-2.809087E-07,-1.112877E-07,7.867166E-09,-2.861022E-08
606.4101,-0.01415063,-6.729834E-09,NaN,-0.8673608,-1.335128E-07,NaN,-1.564555,-2.865838E-07,NaN,-1.887989,1.794025E-05,0.1223594,-1.090902E-08,NaN,NaN,-0.1134244,-4.703184E-10,-2.755442E-07,-1.112857E-07,5.482981E-09,-2.622604E-08
606.4252,-0.01415265,-6.729053E-09,NaN,-0.8667996,-1.335131E-07,NaN,-1.564894,-2.863968E-07,NaN,-1.884564,1.794071E-05,0.1180022,-1.109439E-08,NaN,NaN,-0.1137876,-4.842882E-10,-2.753952E-07,-1.112837E-07,7.867166E-09,-2.861022E-08
606.4398,-0.01415265,-6.729053E-09,NaN,-0.8667996,-1.335131E-07,NaN,-1.564894,-2.863968E-07,NaN,-1.884564,1.794071E-05,0.1180022,-1.109439E-08,NaN,NaN,-0.1137876,-4.842882E-10,-2.753952E-07,-1.112837E-07,7.867166E-09,-2.861022E-08
606.4538,-0.01415497,-6.728272E-09,NaN,-0.8662131,-1.335133E-07,NaN,-1.565153,-2.862135E-07,NaN,-1.881036,1.794116E-05,0.1137575,-1.127619E-08,NaN,NaN,-0.1141437,-4.842882E-10,-2.739051E-07,-1.112816E-07,1.025135E-08,-2.622604E-08
606.4693,-0.01415774,-6.727492E-09,NaN,-0.8655444,-1.335136E-07,NaN,-1.565676,-2.860307E-07,NaN,-1.876904,1.794162E-05,0.1080547,-1.145731E-08,NaN,NaN,-0.1146222,-4.936014E-10,-2.692112E-07,-1.112796E-07,7.867166E-09,-2.861022E-08
606.4838,-0.01416093,-6.726712E-09,NaN,-0.8648278,-1.335138E-07,NaN,-1.566055,-2.858487E-07,NaN,-1.872509,1.794207E-05,0.1024279,-1.163779E-08,NaN,NaN,-0.1150913,-4.936014E-10,-2.688387E-07,-1.112776E-07,5.482981E-09,-2.622604E-08
606.4985,-0.01416093,-6.726712E-09,NaN,-0.8648278,-1.335138E-07,NaN,-1.566055,-2.858487E-07,NaN,-1.872509,1.794207E-05,0.1024279,-1.163779E-08,NaN,NaN,-0.1150913,-4.936014E-10,-2.688387E-07,-1.112776E-07,5.482981E-09,-2.622604E-08
606.5126,-0.01416447,-6.725931E-09,NaN,-0.864085,-1.335141E-07,NaN,-1.566349,-2.856673E-07,NaN,-1.868016,1.794253E-05,0.09693994,-1.181762E-08,NaN,NaN,-0.1155512,-5.029147E-10,-2.671623E-07,-1.112756E-07,1.025135E-08,-2.861022E-08
606.5277,-0.01416826,-6.725151E-09,NaN,-0.8633292,-1.335143E-07,NaN,-1.566599,-2.854894E-07,NaN,-1.863507,1.794298E-05,0.0915742,-1.199393E-08,NaN,NaN,-0.1160021,-5.029147E-10,-2.644056E-07,-1.112736E-07,7.867166E-09,-2.622604E-08
606.5427,-0.01417247,-6.724371E-09,NaN,-0.8624995,-1.335146E-07,NaN,-1.567106,-2.85312E-07,NaN,-1.858445,1.794344E-05,0.08475929,-1.216968E-08,NaN,NaN,-0.1165736,-5.122279E-10,-2.572531E-07,-1.112716E-07,1.263554E-08,-2.861022E-08
606.5571,-0.01417247,-6.724371E-09,NaN,-0.8624995,-1.335146E-07,NaN,-1.567106,-2.85312E-07,NaN,-1.858445,1.794344E-05,0.08475929,-1.216968E-08,NaN,NaN,-0.1165736,-5.122279E-10,-2.572531E-07,-1.112716E-07,1.263554E-08,-2.861022E-08
606.571,-0.01417706,-6.723591E-09,NaN,-0.8616279,-1.335148E-07,NaN,-1.567475,-2.851353E-07,NaN,-1.853151,1.79439E-05,0.07805151,-1.234488E-08,NaN,NaN,-0.1171339,-5.122279E-10,-2.552042E-07,-1.112696E-07,1.263554E-08,-2.622604E-08
606.5864,-0.01418197,-6.722812E-09,NaN,-0.8607343,-1.335151E-07,NaN,-1.567763,-2.849618E-07,NaN,-1.847782,1.794436E-05,0.0715017,-1.251671E-08,NaN,NaN,-0.1176832,-5.215411E-10,-2.51572E-07,-1.112676E-07,7.867166E-09,-2.861022E-08
606.6012,-0.0141871,-6.722032E-09,NaN,-0.8598313,-1.335153E-07,NaN,-1.568008,-2.847889E-07,NaN,-1.842413,1.794482E-05,0.06509408,-1.268807E-08,NaN,NaN,-0.1182217,-5.308543E-10,-2.48331E-07,-1.112656E-07,7.867166E-09,-2.622604E-08
606.616,-0.0141871,-6.722032E-09,NaN,-0.8598313,-1.335153E-07,NaN,-1.568008,-2.847889E-07,NaN,-1.842413,1.794482E-05,0.06509408,-1.268807E-08,NaN,NaN,-0.1182217,-5.308543E-10,-2.48331E-07,-1.112656E-07,7.867166E-09,-2.622604E-08
606.6299,-0.01419263,-6.721252E-09,NaN,-0.858857,-1.335156E-07,NaN,-1.568484,-2.846164E-07,NaN,-1.836508,1.794528E-05,0.05725243,-1.285897E-08,NaN,NaN,-0.1188791,-5.401675E-10,-2.423891E-07,-1.112637E-07,7.867166E-09,-2.861022E-08
606.6448,-0.01419852,-6.720473E-09,NaN,-0.8578432,-1.335158E-07,NaN,-1.568825,-2.844472E-07,NaN,-1.830385,1.794574E-05,0.04955068,-1.302659E-08,NaN,NaN,-0.1195237,-5.494807E-10,-2.391854E-07,-1.112617E-07,1.025135E-08,-2.622604E-08
606.6606,-0.01420471,-6.719693E-09,NaN,-0.8568095,-1.33516E-07,NaN,-1.569089,-2.842784E-07,NaN,-1.824199,1.79462E-05,0.04202517,-1.319381E-08,NaN,NaN,-0.1201556,-5.58794E-10,-2.342913E-07,-1.112597E-07,1.025135E-08,-2.861022E-08
606.6751,-0.01420471,-6.719693E-09,NaN,-0.8568095,-1.33516E-07,NaN,-1.569089,-2.842784E-07,NaN,-1.824199,1.79462E-05,0.04202517,-1.319381E-08,NaN,NaN,-0.1201556,-5.58794E-10,-2.342913E-07,-1.112597E-07,1.025135E-08,-2.861022E-08
606.6882,-0.01421135,-6.718914E-09,NaN,-0.8556988,-1.335163E-07,NaN,-1.569548,-2.8411E-07,NaN,-1.817451,1.794666E-05,0.03309088,-1.336065E-08,NaN,NaN,-0.1209045,-5.681072E-10,-2.253972E-07,-1.112578E-07,5.48298E-09,-2.622604E-08
606.7033,-0.0142184,-6.718134E-09,NaN,-0.8545456,-1.335165E-07,NaN,-1.569869,-2.839419E-07,NaN,-1.810479,1.794711E-05,0.0243299,-1.352712E-08,NaN,NaN,-0.1216387,-5.681072E-10,-2.181515E-07,-1.112559E-07,7.867166E-09,-2.861022E-08
606.7183,-0.0142184,-6.718134E-09,NaN,-0.8545456,-1.335165E-07,NaN,-1.569869,-2.839419E-07,NaN,-1.810479,1.794711E-05,0.0243299,-1.352712E-08,NaN,NaN,-0.1216387,-5.681072E-10,-2.181515E-07,-1.112559E-07,7.867166E-09,-2.861022E-08
606.7319,-0.01422577,-6.717355E-09,NaN,-0.8533713,-1.335168E-07,NaN,-1.570111,-2.837771E-07,NaN,-1.803447,1.794757E-05,0.01576614,-1.369039E-08,NaN,NaN,-0.1223586,-5.774204E-10,-2.101421E-07,-1.112539E-07,5.482981E-09,-2.622604E-08
606.7474,-0.01423338,-6.716576E-09,NaN,-0.8521893,-1.33517E-07,NaN,-1.570308,-2.836125E-07,NaN,-1.796435,1.794802E-05,0.0073842,-1.385336E-08,NaN,NaN,-0.1230643,-5.774204E-10,-2.018533E-07,-1.11252E-07,5.482981E-09,-2.861022E-08
606.762,-0.01424138,-6.715797E-09,NaN,-0.8509384,-1.335172E-07,NaN,-1.57065,-2.834483E-07,NaN,-1.788909,1.794848E-05,-0.002412392,-1.401602E-08,NaN,NaN,-0.1238857,-5.867336E-10,-1.904912E-07,-1.112501E-07,7.146093E-10,-2.622604E-08
606.7766,-0.01424138,-6.715797E-09,NaN,-0.8509384,-1.335172E-07,NaN,-1.57065,-2.834483E-07,NaN,-1.788909,1.794848E-05,-0.002412392,-1.401602E-08,NaN,NaN,-0.1238857,-5.867336E-10,-1.904912E-07,-1.112501E-07,7.146093E-10,-2.622604E-08
606.7906,-0.01424975,-6.715018E-09,NaN,-0.8496507,-1.335175E-07,NaN,-1.570729,-2.832871E-07,NaN,-1.781189,1.794894E-05,-0.01207779,-1.417557E-08,NaN,NaN,-0.1246909,-5.960468E-10,-1.873619E-07,-1.112482E-07,7.146093E-10,-2.861022E-08
606.806,-0.01425842,-6.714239E-09,NaN,-0.8483459,-1.335177E-07,NaN,-1.570641,-2.831262E-07,NaN,-1.773429,1.79494E-05,-0.02152202,-1.433489E-08,NaN,NaN,-0.1254805,-6.0536E-10,-1.838229E-07,-1.112463E-07,7.146093E-10,-2.622604E-08
606.8206,-0.01426729,-6.71346E-09,NaN,-0.8470365,-1.33518E-07,NaN,-1.570505,-2.829656E-07,NaN,-1.765706,1.794987E-05,-0.03073338,-1.449397E-08,NaN,NaN,-0.1262545,-6.193299E-10,-1.755528E-07,-1.112444E-07,7.146093E-10,-2.861022E-08
606.8353,-0.01426729,-6.71346E-09,NaN,-0.8470365,-1.33518E-07,NaN,-1.570505,-2.829656E-07,NaN,-1.765706,1.794987E-05,-0.03073338,-1.449397E-08,NaN,NaN,-0.1262545,-6.193299E-10,-1.755528E-07,-1.112444E-07,7.146093E-10,-2.861022E-08
606.8494,-0.01427589,-6.712682E-09,NaN,-0.8457305,-1.335182E-07,NaN,-1.570396,-2.828079E-07,NaN,-1.758056,1.795031E-05,-0.03972654,-1.465001E-08,NaN,NaN,-0.1270124,-6.146733E-10,-1.648984E-07,-1.112425E-07,5.482981E-09,-2.622604E-08
606.8645,-0.01428434,-6.711903E-09,NaN,-0.8444325,-1.335184E-07,NaN,-1.570336,-2.826505E-07,NaN,-1.750496,1.795077E-05,-0.04852322,-1.480589E-08,NaN,NaN,-0.1277554,-6.239865E-10,-1.526795E-07,-1.112406E-07,3.098795E-09,-2.861022E-08
606.8793,-0.01428434,-6.711903E-09,NaN,-0.8444325,-1.335184E-07,NaN,-1.570336,-2.826505E-07,NaN,-1.750496,1.795077E-05,-0.04852322,-1.480589E-08,NaN,NaN,-0.1277554,-6.239865E-10,-1.526795E-07,-1.112406E-07,3.098795E-09,-2.861022E-08
606.8931,-0.0142927,-6.711125E-09,NaN,-0.8431451,-1.335186E-07,NaN,-1.570313,-2.824932E-07,NaN,-1.743036,1.795122E-05,-0.05713977,-1.49616E-08,NaN,NaN,-0.1284839,-6.193299E-10,-1.389704E-07,-1.112387E-07,-1.669576E-09,-2.622604E-08
606.9086,-0.01430081,-6.710346E-09,NaN,-0.8419393,-1.335189E-07,NaN,-1.570159,-2.823389E-07,NaN,-1.736251,1.795168E-05,-0.06402265,-1.511433E-08,NaN,NaN,-0.1290688,-6.286431E-10,-1.314453E-07,-1.112369E-07,7.146093E-10,-2.861022E-08
606.923,-0.01430866,-6.709568E-09,NaN,-0.8407894,-1.335191E-07,NaN,-1.570113,-2.821847E-07,NaN,-1.729843,1.795214E-05,-0.07076205,-1.526696E-08,NaN,NaN,-0.1296422,-6.379563E-10,-1.208655E-07,-1.11235E-07,3.098795E-09,-2.622604E-08
606.9396,-0.01430866,-6.709568E-09,NaN,-0.8407894,-1.335191E-07,NaN,-1.570113,-2.821847E-07,NaN,-1.729843,1.795214E-05,-0.07076205,-1.526696E-08,NaN,NaN,-0.1296422,-6.379563E-10,-1.208655E-07,-1.11235E-07,3.098795E-09,-2.622604E-08
606.9536,-0.01431626,-6.70879E-09,NaN,-0.839679,-1.335193E-07,NaN,-1.5701,-2.820306E-07,NaN,-1.72367,1.79526E-05,-0.07737894,-1.541949E-08,NaN,NaN,-0.1302044,-6.472695E-10,-1.088701E-07,-1.112331E-07,3.098795E-09,-2.861022E-08
606.9669,-0.01432367,-6.708011E-09,NaN,-0.8385981,-1.335195E-07,NaN,-1.570095,-2.818794E-07,NaN,-1.717657,1.795306E-05,-0.0838678,-1.556911E-08,NaN,NaN,-0.1307556,-6.565827E-10,-9.814124E-08,-1.112313E-07,7.867166E-09,-2.622604E-08
606.9817,-0.01433074,-6.707233E-09,NaN,-0.8376094,-1.335198E-07,NaN,-1.569969,-2.817282E-07,NaN,-1.712341,1.795352E-05,-0.08867182,-1.571869E-08,NaN,NaN,-0.1311667,-6.658959E-10,-9.389441E-08,-1.112294E-07,7.867166E-09,-2.861022E-08
606.9962,-0.01433074,-6.707233E-09,NaN,-0.8376094,-1.335198E-07,NaN,-1.569969,-2.817282E-07,NaN,-1.712341,1.795352E-05,-0.08867182,-1.571869E-08,NaN,NaN,-0.1311667,-6.658959E-10,-9.389441E-08,-1.112294E-07,7.867166E-09,-2.861022E-08
607.0099,-0.01433746,-6.706455E-09,NaN,-0.8366821,-1.3352E-07,NaN,-1.569898,-2.815771E-07,NaN,-1.707404,1.795398E-05,-0.09338729,-1.586823E-08,NaN,NaN,-0.1315697,-6.752092E-10,-8.771043E-08,-1.112276E-07,5.482981E-09,-2.622604E-08
607.0252,-0.01434388,-6.705677E-09,NaN,-0.8357968,-1.335202E-07,NaN,-1.569849,-2.814289E-07,NaN,-1.702691,1.795443E-05,-0.09801506,-1.601485E-08,NaN,NaN,-0.1319648,-6.752092E-10,-8.107941E-08,-1.112258E-07,5.482981E-09,-2.861022E-08
607.04,-0.01434388,-6.705677E-09,NaN,-0.8357968,-1.335202E-07,NaN,-1.569849,-2.814289E-07,NaN,-1.702691,1.795443E-05,-0.09801506,-1.601485E-08,NaN,NaN,-0.1319648,-6.752092E-10,-8.107941E-08,-1.112258E-07,5.482981E-09,-2.861022E-08
607.0541,-0.01434987,-6.7049E-09,NaN,-0.8350106,-1.335205E-07,NaN,-1.569703,-2.812807E-07,NaN,-1.698697,1.795489E-05,-0.1010011,-1.61615E-08,NaN,NaN,-0.1322229,-6.845224E-10,-8.08559E-08,-1.11224E-07,-4.053762E-09,-2.622604E-08
607.0693,-0.01435544,-6.704122E-09,NaN,-0.8342893,-1.335207E-07,NaN,-1.569608,-2.811352E-07,NaN,-1.695084,1.795534E-05,-0.1039346,-1.630534E-08,NaN,NaN,-0.1324759,-6.845224E-10,-7.847171E-08,-1.112222E-07,-4.053762E-09,-2.861022E-08
607.0839,-0.01436066,-6.703345E-09,NaN,-0.8336111,-1.335209E-07,NaN,-1.569535,-2.809898E-07,NaN,-1.691685,1.795579E-05,-0.1068149,-1.644926E-08,NaN,NaN,-0.132724,-6.798658E-10,-7.534247E-08,-1.112203E-07,-8.822134E-09,-2.622604E-08
607.0988,-0.01436066,-6.703345E-09,NaN,-0.8336111,-1.335209E-07,NaN,-1.569535,-2.809898E-07,NaN,-1.691685,1.795579E-05,-0.1068149,-1.644926E-08,NaN,NaN,-0.132724,-6.798658E-10,-7.534247E-08,-1.112203E-07,-8.822134E-09,-2.622604E-08
607.1129,-0.01436562,-6.702567E-09,NaN,-0.8329626,-1.335211E-07,NaN,-1.56947,-2.808442E-07,NaN,-1.68842,1.795625E-05,-0.1096399,-1.659325E-08,NaN,NaN,-0.1329672,-6.89179E-10,-7.169169E-08,-1.112185E-07,-6.437948E-09,-2.861022E-08
607.128,-0.01437017,-6.70179E-09,NaN,-0.8324047,-1.335213E-07,NaN,-1.569319,-2.807014E-07,NaN,-1.685817,1.795671E-05,-0.110862,-1.673449E-08,NaN,NaN,-0.1330764,-6.984922E-10,-7.556599E-08,-1.112167E-07,-6.437948E-09,-2.622604E-08
607.1439,-0.01437433,-6.701013E-09,NaN,-0.8319051,-1.335215E-07,NaN,-1.569212,-2.805584E-07,NaN,-1.683557,1.795716E-05,-0.1120648,-1.687585E-08,NaN,NaN,-0.1331834,-6.984922E-10,-7.69071E-08,-1.11215E-07,-8.822134E-09,-2.861022E-08
607.1573,-0.01437433,-6.701013E-09,NaN,-0.8319051,-1.335215E-07,NaN,-1.569212,-2.805584E-07,NaN,-1.683557,1.795716E-05,-0.1120648,-1.687585E-08,NaN,NaN,-0.1331834,-6.984922E-10,-7.69071E-08,-1.11215E-07,-8.822134E-09,-2.861022E-08
607.1712,-0.01437818,-6.700235E-09,NaN,-0.8314437,-1.335218E-07,NaN,-1.569122,-2.804153E-07,NaN,-1.681484,1.795761E-05,-0.1132473,-1.701734E-08,NaN,NaN,-0.1332883,-6.938356E-10,-7.772666E-08,-1.112132E-07,-6.437948E-09,-2.622604E-08
607.1868,-0.01438177,-6.699458E-09,NaN,-0.8310081,-1.33522E-07,NaN,-1.569041,-2.80275E-07,NaN,-1.679519,1.795806E-05,-0.1144076,-1.715613E-08,NaN,NaN,-0.1333912,-6.938356E-10,-7.780117E-08,-1.112114E-07,-6.437948E-09,-2.861022E-08
607.2012,-0.01438497,-6.698682E-09,NaN,-0.8306595,-1.335222E-07,NaN,-1.568884,-2.801344E-07,NaN,-1.678196,1.795851E-05,-0.1140006,-1.729508E-08,NaN,NaN,-0.1333628,-6.89179E-10,-8.577329E-08,-1.112096E-07,-4.053763E-09,-2.622604E-08
607.2158,-0.01438497,-6.698682E-09,NaN,-0.8306595,-1.335222E-07,NaN,-1.568884,-2.801344E-07,NaN,-1.678196,1.795851E-05,-0.1140006,-1.729508E-08,NaN,NaN,-0.1333628,-6.89179E-10,-8.577329E-08,-1.112096E-07,-4.053763E-09,-2.622604E-08
607.2318,-0.0143878,-6.697905E-09,NaN,-0.8303662,-1.335206E-07,NaN,-1.568764,-2.829379E-07,NaN,-1.677195,1.795895E-05,-0.1136053,-1.470742E-08,NaN,NaN,-0.133335,-6.705526E-10,-9.083968E-08,-1.112101E-07,-1.669577E-09,-2.861022E-08
607.2463,-0.01439031,-6.69713E-09,NaN,-0.8301083,-1.335187E-07,NaN,-1.568662,-2.857413E-07,NaN,-1.676361,1.79594E-05,-0.1132204,-1.228245E-08,NaN,NaN,-0.1333077,-6.565827E-10,-9.478849E-08,-1.112106E-07,7.146088E-10,-2.622604E-08
607.2633,-0.01439258,-6.696354E-09,NaN,-0.8298736,-1.335169E-07,NaN,-1.568567,-2.885447E-07,NaN,-1.675618,1.795984E-05,-0.112844,-9.980358E-09,NaN,NaN,-0.1332809,-6.426129E-10,-9.799224E-08,-1.112111E-07,3.098795E-09,-2.861022E-08
607.2741,-0.01439258,-6.696354E-09,NaN,-0.8298736,-1.335169E-07,NaN,-1.568567,-2.885447E-07,NaN,-1.675618,1.795984E-05,-0.112844,-9.980358E-09,NaN,NaN,-0.1332809,-6.426129E-10,-9.799224E-08,-1.112111E-07,3.098795E-09,-2.861022E-08
607.2881,-0.01439447,-6.695578E-09,NaN,-0.8297233,-1.33515E-07,NaN,-1.5684,-2.913482E-07,NaN,-1.675498,1.79603E-05,-0.1109312,-7.771897E-09,NaN,NaN,-0.1331254,-6.379563E-10,-1.087211E-07,-1.112116E-07,3.098795E-09,-2.622604E-08
607.3036,-0.01439599,-6.694803E-09,NaN,-0.8296259,-1.335132E-07,NaN,-1.568267,-2.941516E-07,NaN,-1.675683,1.796075E-05,-0.1090588,-5.635561E-09,NaN,NaN,-0.1329729,-6.146733E-10,-1.167677E-07,-1.112121E-07,7.867166E-09,-2.861022E-08
607.3181,-0.01439599,-6.694803E-09,NaN,-0.8296259,-1.335132E-07,NaN,-1.568267,-2.941516E-07,NaN,-1.675683,1.796075E-05,-0.1090588,-5.635561E-09,NaN,NaN,-0.1329729,-6.146733E-10,-1.167677E-07,-1.112121E-07,7.867166E-09,-2.861022E-08
607.3319,-0.0143972,-6.694028E-09,NaN,-0.8295616,-1.335114E-07,NaN,-1.56815,-2.96955E-07,NaN,-1.676018,1.79612E-05,-0.1072253,-3.555536E-09,NaN,NaN,-0.1328234,-6.007034E-10,-1.231752E-07,-1.112127E-07,1.025135E-08,-2.622604E-08
607.3476,-0.01439808,-6.693253E-09,NaN,-0.8295857,-1.335096E-07,NaN,-1.567962,-2.997585E-07,NaN,-1.676999,1.796165E-05,-0.1038837,-1.520184E-09,NaN,NaN,-0.1325476,-5.867336E-10,-1.354687E-07,-1.112132E-07,1.025135E-08,-2.861022E-08
607.362,-0.01439877,-6.692478E-09,NaN,-0.8296642,-1.335079E-07,NaN,-1.567809,-3.025619E-07,NaN,-1.678288,1.796211E-05,-0.1006101,4.790635E-10,NaN,NaN,-0.1322772,-5.727638E-10,-1.46123E-07,-1.112138E-07,1.025135E-08,-2.622604E-08
607.3768,-0.01439877,-6.692478E-09,NaN,-0.8296642,-1.335079E-07,NaN,-1.567809,-3.025619E-07,NaN,-1.678288,1.796211E-05,-0.1006101,4.790635E-10,NaN,NaN,-0.1322772,-5.727638E-10,-1.46123E-07,-1.112138E-07,1.025135E-08,-2.622604E-08
607.3907,-0.01439935,-6.691703E-09,NaN,-0.8297759,-1.335061E-07,NaN,-1.56767,-3.053653E-07,NaN,-1.679721,1.796257E-05,-0.09740239,2.448519E-09,NaN,NaN,-0.132012,-5.58794E-10,-1.537971E-07,-1.112144E-07,1.263554E-08,-2.861022E-08
607.4063,-0.01439987,-6.690928E-09,NaN,-0.8299077,-1.335043E-07,NaN,-1.567538,-3.081688E-07,NaN,-1.681216,1.796303E-05,-0.09425789,4.392841E-09,NaN,NaN,-0.1317521,-5.494807E-10,-1.610987E-07,-1.112149E-07,1.501972E-08,-2.622604E-08
607.4208,-0.01440022,-6.690153E-09,NaN,-0.8301206,-1.335026E-07,NaN,-1.567327,-3.109722E-07,NaN,-1.683304,1.796348E-05,-0.08962742,6.315473E-09,NaN,NaN,-0.131368,-5.355109E-10,-1.758508E-07,-1.112154E-07,1.740391E-08,-2.861022E-08
607.4354,-0.01440022,-6.690153E-09,NaN,-0.8301206,-1.335026E-07,NaN,-1.567327,-3.109722E-07,NaN,-1.683304,1.796348E-05,-0.08962742,6.315473E-09,NaN,NaN,-0.131368,-5.355109E-10,-1.758508E-07,-1.112154E-07,1.740391E-08,-2.861022E-08
607.4495,-0.01440046,-6.689379E-09,NaN,-0.8303825,-1.335021E-07,NaN,-1.567149,-3.10841E-07,NaN,-1.685665,1.796395E-05,-0.0850898,5.480431E-09,NaN,NaN,-0.1309914,-5.355109E-10,-1.871757E-07,-1.112146E-07,1.978809E-08,-2.861022E-08
607.4647,-0.01440062,-6.688605E-09,NaN,-0.8306735,-1.335019E-07,NaN,-1.566984,-3.105654E-07,NaN,-1.688145,1.796442E-05,-0.0806426,4.642007E-09,NaN,NaN,-0.1306221,-5.355109E-10,-1.959674E-07,-1.112138E-07,1.740391E-08,-2.861022E-08
607.4796,-0.01440062,-6.688605E-09,NaN,-0.8306735,-1.335019E-07,NaN,-1.566984,-3.105654E-07,NaN,-1.688145,1.796442E-05,-0.0806426,4.642007E-09,NaN,NaN,-0.1306221,-5.355109E-10,-1.959674E-07,-1.112138E-07,1.740391E-08,-2.861022E-08
607.4933,-0.0144006,-6.687832E-09,NaN,-0.8310505,-1.335016E-07,NaN,-1.566735,-3.107894E-07,NaN,-1.691239,1.796488E-05,-0.074732,4.416075E-09,NaN,NaN,-0.1301309,-5.168845E-10,-2.115391E-07,-1.112148E-07,1.501972E-08,-2.861022E-08
607.5106,-0.01440045,-6.687059E-09,NaN,-0.8314788,-1.335018E-07,NaN,-1.566521,-3.107841E-07,NaN,-1.69461,1.796535E-05,-0.06893918,4.051131E-09,NaN,NaN,-0.1296492,-5.122279E-10,-2.224914E-07,-1.112162E-07,7.867165E-09,-2.861022E-08
607.524,-0.01440022,-6.686286E-09,NaN,-0.831937,-1.335023E-07,NaN,-1.566321,-3.106377E-07,NaN,-1.698094,1.796582E-05,-0.0632612,3.617368E-09,NaN,NaN,-0.129177,-5.075713E-10,-2.319537E-07,-1.112177E-07,5.482979E-09,-2.861022E-08
607.5378,-0.01440022,-6.686286E-09,NaN,-0.831937,-1.335023E-07,NaN,-1.566321,-3.106377E-07,NaN,-1.698094,1.796582E-05,-0.0632612,3.617368E-09,NaN,NaN,-0.129177,-5.075713E-10,-2.319537E-07,-1.112177E-07,5.482979E-09,-2.861022E-08
607.5517,-0.01439993,-6.685513E-09,NaN,-0.8324114,-1.33503E-07,NaN,-1.566128,-3.10397E-07,NaN,-1.70161,1.796629E-05,-0.05769408,3.147035E-09,NaN,NaN,-0.1287141,-5.075713E-10,-2.402611E-07,-1.112194E-07,7.867165E-09,-2.861022E-08
607.5673,-0.01439948,-6.684739E-09,NaN,-0.832963,-1.335037E-07,NaN,-1.565831,-3.100939E-07,NaN,-1.70569,1.796676E-05,-0.05067903,2.660536E-09,NaN,NaN,-0.1281309,-5.075713E-10,-2.532251E-07,-1.112211E-07,1.263554E-08,-2.861022E-08
607.5817,-0.0143989,-6.683965E-09,NaN,-0.8335599,-1.335042E-07,NaN,-1.565572,-3.097602E-07,NaN,-1.710014,1.796722E-05,-0.04380319,2.217635E-09,NaN,NaN,-0.1275591,-4.936014E-10,-2.626501E-07,-1.112236E-07,1.501972E-08,-2.622604E-08
607.5962,-0.0143989,-6.683965E-09,NaN,-0.8335599,-1.335042E-07,NaN,-1.565572,-3.097602E-07,NaN,-1.710014,1.796722E-05,-0.04380319,2.217635E-09,NaN,NaN,-0.1275591,-4.936014E-10,-2.626501E-07,-1.112236E-07,1.501972E-08,-2.622604E-08
607.6133,-0.01439825,-6.683191E-09,NaN,-0.834182,-1.335047E-07,NaN,-1.565329,-3.094266E-07,NaN,-1.714428,1.796769E-05,-0.03706369,1.829937E-09,NaN,NaN,-0.1269986,-4.842882E-10,-2.705104E-07,-1.112262E-07,1.263554E-08,-2.861022E-08
607.6268,-0.01439754,-6.682416E-09,NaN,-0.8348169,-1.335052E-07,NaN,-1.565091,-3.090929E-07,NaN,-1.718856,1.796815E-05,-0.03045567,1.483185E-09,NaN,NaN,-0.126449,-4.796316E-10,-2.77067E-07,-1.112287E-07,5.48298E-09,-2.622604E-08
607.6401,-0.01439668,-6.681642E-09,NaN,-0.835526,-1.335057E-07,NaN,-1.564732,-3.087593E-07,NaN,-1.723833,1.796863E-05,-0.02241348,1.166908E-09,NaN,NaN,-0.1257809,-4.796316E-10,-2.878144E-07,-1.112313E-07,5.48298E-09,-2.861022E-08
607.6548,-0.01439668,-6.681642E-09,NaN,-0.835526,-1.335057E-07,NaN,-1.564732,-3.087593E-07,NaN,-1.723833,1.796863E-05,-0.02241348,1.166908E-09,NaN,NaN,-0.1257809,-4.796316E-10,-2.878144E-07,-1.112313E-07,5.48298E-09,-2.861022E-08
607.6689,-0.01439569,-6.680867E-09,NaN,-0.8362779,-1.335062E-07,NaN,-1.564416,-3.084257E-07,NaN,-1.729039,1.79691E-05,-0.01453041,8.734115E-10,NaN,NaN,-0.1251259,-4.74975E-10,-2.93896E-07,-1.112339E-07,3.098794E-09,-2.622604E-08
607.6844,-0.01439462,-6.680093E-09,NaN,-0.8370528,-1.335068E-07,NaN,-1.564117,-3.08092E-07,NaN,-1.734322,1.796957E-05,-0.00680422,5.970432E-10,NaN,NaN,-0.1244837,-4.74975E-10,-3.003687E-07,-1.112364E-07,5.48298E-09,-2.861022E-08
607.6989,-0.01439462,-6.680093E-09,NaN,-0.8370528,-1.335068E-07,NaN,-1.564117,-3.08092E-07,NaN,-1.734322,1.796957E-05,-0.00680422,5.970432E-10,NaN,NaN,-0.1244837,-4.74975E-10,-3.003687E-07,-1.112364E-07,5.48298E-09,-2.861022E-08
607.7128,-0.01439337,-6.679318E-09,NaN,-0.8379076,-1.335072E-07,NaN,-1.563684,-3.077738E-07,NaN,-1.74018,1.797005E-05,0.002338353,3.25388E-10,NaN,NaN,-0.1237249,-4.796316E-10,-3.084106E-07,-1.112358E-07,7.146084E-10,-2.622604E-08
607.728,-0.01439185,-6.678543E-09,NaN,-0.838808,-1.335069E-07,NaN,-1.563301,-3.077463E-07,NaN,-1.746274,1.797051E-05,0.01130072,3.353703E-10,NaN,NaN,-0.1229809,-4.796316E-10,-3.118496E-07,-1.112345E-07,7.146084E-10,-2.861022E-08
607.7426,-0.01439006,-6.677767E-09,NaN,-0.8397324,-1.335061E-07,NaN,-1.562937,-3.078666E-07,NaN,-1.752442,1.797098E-05,0.02008421,4.860889E-10,NaN,NaN,-0.1222515,-4.936014E-10,-3.155283E-07,-1.112328E-07,7.146084E-10,-2.622604E-08
607.7571,-0.01439006,-6.677767E-09,NaN,-0.8397324,-1.335061E-07,NaN,-1.562937,-3.078666E-07,NaN,-1.752442,1.797098E-05,0.02008421,4.860889E-10,NaN,NaN,-0.1222515,-4.936014E-10,-3.155283E-07,-1.112328E-07,7.146084E-10,-2.622604E-08
607.7714,-0.01438804,-6.676992E-09,NaN,-0.8406675,-1.33505E-07,NaN,-1.562581,-3.080715E-07,NaN,-1.758603,1.797142E-05,0.02869598,7.155652E-10,NaN,NaN,-0.1215364,-4.889448E-10,-3.169067E-07,-1.112309E-07,7.146084E-10,-2.861022E-08
607.7864,-0.01438778,-6.676217E-09,NaN,-0.8407736,-1.335037E-07,NaN,-1.564257,-3.083243E-07,NaN,-1.757827,1.797188E-05,0.018258,9.884102E-10,NaN,NaN,-0.1223869,-4.936014E-10,-2.868063E-07,-1.112289E-07,-1.669577E-09,-2.622604E-08
607.8031,-0.01438881,-6.675442E-09,NaN,-0.8403693,-1.335023E-07,NaN,-1.565122,-3.086008E-07,NaN,-1.75369,1.797232E-05,0.008089791,1.281207E-09,NaN,NaN,-0.1232207,-4.889448E-10,-2.741403E-07,-1.112269E-07,3.098794E-09,-2.861022E-08
607.8168,-0.01438881,-6.675442E-09,NaN,-0.8403693,-1.335023E-07,NaN,-1.565122,-3.086008E-07,NaN,-1.75369,1.797232E-05,0.008089791,1.281207E-09,NaN,NaN,-0.1232207,-4.889448E-10,-2.741403E-07,-1.112269E-07,3.098794E-09,-2.861022E-08
607.8307,-0.01439094,-6.674667E-09,NaN,-0.8396517,-1.335009E-07,NaN,-1.565602,-3.088884E-07,NaN,-1.747922,1.797277E-05,-0.001747484,1.582287E-09,NaN,NaN,-0.1240381,-4.936014E-10,-2.593509E-07,-1.112248E-07,7.146084E-10,-2.622604E-08
607.8448,-0.01439431,-6.673893E-09,NaN,-0.838744,-1.334994E-07,NaN,-1.5659,-3.091781E-07,NaN,-1.741382,1.79732E-05,-0.01133021,1.883019E-09,NaN,NaN,-0.1248395,-4.842882E-10,-2.436674E-07,-1.112227E-07,5.48298E-09,-2.861022E-08
607.8595,-0.01439431,-6.673893E-09,NaN,-0.838744,-1.334994E-07,NaN,-1.5659,-3.091781E-07,NaN,-1.741382,1.79732E-05,-0.01133021,1.883019E-09,NaN,NaN,-0.1248395,-4.842882E-10,-2.436674E-07,-1.112227E-07,5.48298E-09,-2.861022E-08
607.8733,-0.01439854,-6.673118E-09,NaN,-0.8377923,-1.334979E-07,NaN,-1.565958,-3.094694E-07,NaN,-1.735072,1.797364E-05,-0.01912693,2.183427E-09,NaN,NaN,-0.1254959,-4.842882E-10,-2.337582E-07,-1.112206E-07,5.48298E-09,-2.622604E-08
607.8887,-0.01440337,-6.672344E-09,NaN,-0.8368178,-1.334964E-07,NaN,-1.56604,-3.097561E-07,NaN,-1.72891,1.797409E-05,-0.02676534,2.477861E-09,NaN,NaN,-0.1261393,-4.842882E-10,-2.225451E-07,-1.112184E-07,1.025135E-08,-2.861022E-08
607.9033,-0.01440861,-6.67157E-09,NaN,-0.8358335,-1.334949E-07,NaN,-1.566126,-3.100382E-07,NaN,-1.722862,1.797453E-05,-0.03425495,2.766444E-09,NaN,NaN,-0.1267702,-4.842882E-10,-2.113692E-07,-1.112163E-07,1.263554E-08,-2.622604E-08
607.918,-0.01440861,-6.67157E-09,NaN,-0.8358335,-1.334949E-07,NaN,-1.566126,-3.100382E-07,NaN,-1.722862,1.797453E-05,-0.03425495,2.766444E-09,NaN,NaN,-0.1267702,-4.842882E-10,-2.113692E-07,-1.112163E-07,1.263554E-08,-2.622604E-08
607.932,-0.01441394,-6.670795E-09,NaN,-0.8349168,-1.334933E-07,NaN,-1.566078,-3.103128E-07,NaN,-1.717484,1.797496E-05,-0.04003316,3.046477E-09,NaN,NaN,-0.1272593,-4.74975E-10,-2.050362E-07,-1.112142E-07,1.025135E-08,-2.861022E-08
607.9473,-0.01441923,-6.670024E-09,NaN,-0.8340461,-1.334918E-07,NaN,-1.566085,-3.103815E-07,NaN,-1.712469,1.79754E-05,-0.0457055,3.119951E-09,NaN,NaN,-0.1277388,-4.703184E-10,-1.982562E-07,-1.112121E-07,7.867166E-09,-2.622604E-08
607.9619,-0.01442444,-6.669254E-09,NaN,-0.8332075,-1.334903E-07,NaN,-1.566113,-3.104466E-07,NaN,-1.707672,1.797584E-05,-0.05127218,3.189083E-09,NaN,NaN,-0.128209,-4.656618E-10,-1.905076E-07,-1.1121E-07,7.867166E-09,-2.622604E-08
607.9767,-0.01442444,-6.669254E-09,NaN,-0.8332075,-1.334903E-07,NaN,-1.566113,-3.104466E-07,NaN,-1.707672,1.797584E-05,-0.05127218,3.189083E-09,NaN,NaN,-0.128209,-4.656618E-10,-1.905076E-07,-1.1121E-07,7.867166E-09,-2.622604E-08
607.9907,-0.01442956,-6.668484E-09,NaN,-0.8323925,-1.334888E-07,NaN,-1.566145,-3.105078E-07,NaN,-1.703016,1.797627E-05,-0.05673065,3.253969E-09,NaN,NaN,-0.1286699,-4.563486E-10,-1.825354E-07,-1.112079E-07,7.867166E-09,-2.622604E-08
608.006,-0.01443442,-6.667714E-09,NaN,-0.8316651,-1.334873E-07,NaN,-1.56607,-3.105681E-07,NaN,-1.699037,1.797671E-05,-0.06052476,3.317506E-09,NaN,NaN,-0.1289925,-4.51692E-10,-1.805238E-07,-1.112058E-07,3.098795E-09,-2.622604E-08
608.0206,-0.01443898,-6.666944E-09,NaN,-0.830995,-1.334858E-07,NaN,-1.566043,-3.106246E-07,NaN,-1.695418,1.797714E-05,-0.06425166,3.376906E-09,NaN,NaN,-0.1293088,-4.423787E-10,-1.77022E-07,-1.112037E-07,3.098795E-09,-2.622604E-08
608.0352,-0.01443898,-6.666944E-09,NaN,-0.830995,-1.334858E-07,NaN,-1.566043,-3.106246E-07,NaN,-1.695418,1.797714E-05,-0.06425166,3.376906E-09,NaN,NaN,-0.1293088,-4.423787E-10,-1.77022E-07,-1.112037E-07,3.098795E-09,-2.622604E-08
608.0492,-0.01444329,-6.666175E-09,NaN,-0.8303632,-1.334843E-07,NaN,-1.566035,-3.106773E-07,NaN,-1.692004,1.797758E-05,-0.06791016,3.432242E-09,NaN,NaN,-0.1296189,-4.377221E-10,-1.726262E-07,-1.112016E-07,3.098795E-09,-2.622604E-08
608.0645,-0.01444739,-6.665406E-09,NaN,-0.8297579,-1.334829E-07,NaN,-1.566035,-3.107261E-07,NaN,-1.688717,1.797802E-05,-0.0714982,3.483594E-09,NaN,NaN,-0.1299228,-4.330655E-10,-1.677833E-07,-1.111996E-07,3.098795E-09,-2.622604E-08
608.0825,-0.01445115,-6.664637E-09,NaN,-0.8292409,-1.334814E-07,NaN,-1.565943,-3.107713E-07,NaN,-1.686092,1.797846E-05,-0.07346408,3.531046E-09,NaN,NaN,-0.1300915,-4.284089E-10,-1.701675E-07,-1.111975E-07,3.098795E-09,-2.622604E-08
608.0946,-0.01445115,-6.664637E-09,NaN,-0.8292409,-1.334814E-07,NaN,-1.565943,-3.107713E-07,NaN,-1.686092,1.797846E-05,-0.07346408,3.531046E-09,NaN,NaN,-0.1300915,-4.284089E-10,-1.701675E-07,-1.111975E-07,3.098795E-09,-2.622604E-08
608.1084,-0.01445457,-6.663868E-09,NaN,-0.8287808,-1.334799E-07,NaN,-1.565895,-3.108127E-07,NaN,-1.683807,1.797889E-05,-0.07539773,3.574667E-09,NaN,NaN,-0.1302569,-4.237523E-10,-1.698695E-07,-1.111955E-07,7.146093E-10,-2.622604E-08
608.1227,-0.01445769,-6.663099E-09,NaN,-0.8283579,-1.334784E-07,NaN,-1.565865,-3.108534E-07,NaN,-1.681709,1.797933E-05,-0.07729742,3.617365E-09,NaN,NaN,-0.1304191,-4.190957E-10,-1.689009E-07,-1.111934E-07,7.146093E-10,-2.622604E-08
608.1374,-0.01445769,-6.663099E-09,NaN,-0.8283579,-1.334784E-07,NaN,-1.565865,-3.108534E-07,NaN,-1.681709,1.797933E-05,-0.07729742,3.617365E-09,NaN,NaN,-0.1304191,-4.190957E-10,-1.689009E-07,-1.111934E-07,7.146093E-10,-2.622604E-08
608.1513,-0.0144604,-6.662331E-09,NaN,-0.828029,-1.33477E-07,NaN,-1.565757,-3.108903E-07,NaN,-1.680292,1.797977E-05,-0.0776118,3.656331E-09,NaN,NaN,-0.1304488,-4.144391E-10,-1.745633E-07,-1.111914E-07,7.146093E-10,-2.622604E-08
608.1666,-0.01446272,-6.661562E-09,NaN,-0.8277597,-1.334755E-07,NaN,-1.56569,-3.109238E-07,NaN,-1.679219,1.79802E-05,-0.07792598,3.691693E-09,NaN,NaN,-0.1304778,-4.051259E-10,-1.775436E-07,-1.111893E-07,-4.053762E-09,-2.622604E-08
608.1815,-0.0144647,-6.660795E-09,NaN,-0.8275284,-1.33474E-07,NaN,-1.565641,-3.109537E-07,NaN,-1.678324,1.798064E-05,-0.07823767,3.723471E-09,NaN,NaN,-0.1305064,-3.958127E-10,-1.795552E-07,-1.111873E-07,-6.437948E-09,-2.622604E-08
608.1957,-0.0144647,-6.660795E-09,NaN,-0.8275284,-1.33474E-07,NaN,-1.565641,-3.109537E-07,NaN,-1.678324,1.798064E-05,-0.07823767,3.723471E-09,NaN,NaN,-0.1305064,-3.958127E-10,-1.795552E-07,-1.111873E-07,-6.437948E-09,-2.622604E-08
608.2097,-0.01446642,-6.660027E-09,NaN,-0.8273215,-1.334726E-07,NaN,-1.5656,-3.109801E-07,NaN,-1.677526,1.798107E-05,-0.07854466,3.751724E-09,NaN,NaN,-0.1305343,-3.864994E-10,-1.808218E-07,-1.111853E-07,-6.437948E-09,-2.622604E-08
608.225,-0.01446778,-6.659259E-09,NaN,-0.8271999,-1.334711E-07,NaN,-1.565481,-3.110031E-07,NaN,-1.677356,1.79815E-05,-0.07729784,3.776532E-09,NaN,NaN,-0.1304324,-3.771862E-10,-1.887939E-07,-1.111833E-07,-8.822134E-09,-2.622604E-08
608.2396,-0.01446778,-6.659259E-09,NaN,-0.8271999,-1.334711E-07,NaN,-1.565481,-3.110031E-07,NaN,-1.677356,1.79815E-05,-0.07729784,3.776532E-09,NaN,NaN,-0.1304324,-3.771862E-10,-1.887939E-07,-1.111833E-07,-8.822134E-09,-2.622604E-08
608.2536,-0.0144688,-6.658492E-09,NaN,-0.8271316,-1.334697E-07,NaN,-1.565399,-3.110256E-07,NaN,-1.677492,1.798194E-05,-0.07608022,3.800784E-09,NaN,NaN,-0.1303325,-3.67873E-10,-1.946054E-07,-1.111812E-07,-1.359051E-08,-2.622604E-08
608.2692,-0.01446966,-6.657724E-09,NaN,-0.8270963,-1.334683E-07,NaN,-1.565332,-3.110447E-07,NaN,-1.67778,1.798237E-05,-0.07488942,3.821658E-09,NaN,NaN,-0.1302346,-3.585598E-10,-1.990757E-07,-1.111792E-07,-1.835888E-08,-2.622604E-08
608.2836,-0.01447043,-6.656957E-09,NaN,-0.8270817,-1.334668E-07,NaN,-1.565272,-3.110606E-07,NaN,-1.678142,1.79828E-05,-0.07372309,3.839231E-09,NaN,NaN,-0.1301385,-3.492466E-10,-2.028755E-07,-1.111772E-07,-1.359051E-08,-2.622604E-08
608.2983,-0.01447043,-6.656957E-09,NaN,-0.8270817,-1.334668E-07,NaN,-1.565272,-3.110606E-07,NaN,-1.678142,1.79828E-05,-0.07372309,3.839231E-09,NaN,NaN,-0.1301385,-3.492466E-10,-2.028755E-07,-1.111772E-07,-1.359051E-08,-2.622604E-08
608.3121,-0.01447104,-6.65619E-09,NaN,-0.8271476,-1.334654E-07,NaN,-1.565133,-3.110732E-07,NaN,-1.679114,1.798324E-05,-0.07103102,3.853559E-09,NaN,NaN,-0.1299151,-3.399334E-10,-2.132318E-07,-1.111753E-07,-1.120632E-08,-2.622604E-08
608.3274,-0.01447153,-6.655424E-09,NaN,-0.8272629,-1.33464E-07,NaN,-1.56503,-3.110827E-07,NaN,-1.680374,1.798367E-05,-0.06839586,3.864713E-09,NaN,NaN,-0.129696,-3.306201E-10,-2.202354E-07,-1.111733E-07,-8.822134E-09,-2.622604E-08
608.342,-0.01447194,-6.654657E-09,NaN,-0.8274081,-1.334625E-07,NaN,-1.56494,-3.110919E-07,NaN,-1.681769,1.79841E-05,-0.06581496,3.875576E-09,NaN,NaN,-0.1294812,-3.213069E-10,-2.257861E-07,-1.111713E-07,-6.437948E-09,-2.622604E-08
608.3568,-0.01447194,-6.654657E-09,NaN,-0.8274081,-1.334625E-07,NaN,-1.56494,-3.110919E-07,NaN,-1.681769,1.79841E-05,-0.06581496,3.875576E-09,NaN,NaN,-0.1294812,-3.213069E-10,-2.257861E-07,-1.111713E-07,-6.437948E-09,-2.622604E-08
608.3707,-0.01447218,-6.653891E-09,NaN,-0.8276405,-1.334611E-07,NaN,-1.564772,-3.110979E-07,NaN,-1.683795,1.798453E-05,-0.0617348,3.883335E-09,NaN,NaN,-0.1291413,-3.119937E-10,-2.367384E-07,-1.111693E-07,-4.053763E-09,-2.622604E-08
608.3869,-0.0144723,-6.653125E-09,NaN,-0.8279256,-1.334597E-07,NaN,-1.564639,-3.11101E-07,NaN,-1.686113,1.798497E-05,-0.05773855,3.888045E-09,NaN,NaN,-0.1288081,-3.026805E-10,-2.450086E-07,-1.111674E-07,-6.437948E-09,-2.622604E-08
608.4016,-0.01447234,-6.652359E-09,NaN,-0.8282419,-1.334583E-07,NaN,-1.56452,-3.11101E-07,NaN,-1.68856,1.79854E-05,-0.053823,3.889763E-09,NaN,NaN,-0.1284813,-2.933673E-10,-2.517886E-07,-1.111654E-07,3.098795E-09,-2.622604E-08
608.416,-0.01447234,-6.652359E-09,NaN,-0.8282419,-1.334583E-07,NaN,-1.56452,-3.11101E-07,NaN,-1.68856,1.79854E-05,-0.053823,3.889763E-09,NaN,NaN,-0.1284813,-2.933673E-10,-2.517886E-07,-1.111654E-07,3.098795E-09,-2.622604E-08
608.429,-0.01447232,-6.651593E-09,NaN,-0.8285762,-1.334569E-07,NaN,-1.564408,-3.110982E-07,NaN,-1.691054,1.798583E-05,-0.0499847,3.888552E-09,NaN,NaN,-0.128161,-2.840541E-10,-2.577863E-07,-1.111635E-07,-1.669577E-09,-2.622604E-08
608.4443,-0.01447215,-6.650828E-09,NaN,-0.8289893,-1.334555E-07,NaN,-1.564203,-3.110924E-07,NaN,-1.694128,1.798626E-05,-0.04466694,3.88447E-09,NaN,NaN,-0.1277177,-2.700842E-10,-2.704151E-07,-1.111615E-07,-1.669577E-09,-2.622604E-08
608.4588,-0.01447215,-6.650828E-09,NaN,-0.8289893,-1.334555E-07,NaN,-1.564203,-3.110924E-07,NaN,-1.694128,1.798626E-05,-0.04466694,3.88447E-09,NaN,NaN,-0.1277177,-2.700842E-10,-2.704151E-07,-1.111615E-07,-1.669577E-09,-2.622604E-08
608.4729,-0.01447186,-6.650063E-09,NaN,-0.8294491,-1.334541E-07,NaN,-1.564034,-3.110867E-07,NaN,-1.69746,1.798669E-05,-0.03945693,3.880393E-09,NaN,NaN,-0.127283,-2.60771E-10,-2.784989E-07,-1.111596E-07,-4.053763E-09,-2.622604E-08
608.4883,-0.01447149,-6.649298E-09,NaN,-0.8299358,-1.334527E-07,NaN,-1.563879,-3.110781E-07,NaN,-1.700898,1.798712E-05,-0.03435133,3.873501E-09,NaN,NaN,-0.1268568,-2.468012E-10,-2.852045E-07,-1.111577E-07,-4.053763E-09,-2.622604E-08
608.5028,-0.01447107,-6.648533E-09,NaN,-0.8304369,-1.334513E-07,NaN,-1.563731,-3.110668E-07,NaN,-1.704363,1.798756E-05,-0.029346,3.863848E-09,NaN,NaN,-0.126439,-2.37488E-10,-2.900474E-07,-1.111557E-07,-1.669577E-09,-2.622604E-08
608.5174,-0.01447107,-6.648533E-09,NaN,-0.8304369,-1.334513E-07,NaN,-1.563731,-3.110668E-07,NaN,-1.704363,1.798756E-05,-0.029346,3.863848E-09,NaN,NaN,-0.126439,-2.37488E-10,-2.900474E-07,-1.111557E-07,-1.669577E-09,-2.622604E-08
608.5315,-0.0144705,-6.647768E-09,NaN,-0.8310139,-1.334499E-07,NaN,-1.563475,-3.110528E-07,NaN,-1.708392,1.798799E-05,-0.02287864,3.851483E-09,NaN,NaN,-0.1259001,-2.281747E-10,-2.996586E-07,-1.111538E-07,3.098795E-09,-2.622604E-08
608.5484,-0.01446981,-6.647004E-09,NaN,-0.8316351,-1.334485E-07,NaN,-1.563259,-3.110362E-07,NaN,-1.712665,1.798842E-05,-0.01654148,3.836472E-09,NaN,NaN,-0.1253717,-2.188615E-10,-3.065504E-07,-1.111519E-07,-1.669577E-09,-2.622604E-08
608.5615,-0.01446905,-6.64624E-09,NaN,-0.8322809,-1.334472E-07,NaN,-1.563059,-3.110197E-07,NaN,-1.717028,1.798886E-05,-0.01033117,3.82168E-09,NaN,NaN,-0.1248537,-2.142049E-10,-3.117751E-07,-1.1115E-07,3.098795E-09,-2.622604E-08
608.5762,-0.01446905,-6.64624E-09,NaN,-0.8322809,-1.334472E-07,NaN,-1.563059,-3.110197E-07,NaN,-1.717028,1.798886E-05,-0.01033117,3.82168E-09,NaN,NaN,-0.1248537,-2.142049E-10,-3.117751E-07,-1.1115E-07,3.098795E-09,-2.622604E-08
608.5901,-0.01446811,-6.645475E-09,NaN,-0.8330082,-1.334458E-07,NaN,-1.562741,-3.110007E-07,NaN,-1.721979,1.798929E-05,-0.002678613,3.804283E-09,NaN,NaN,-0.1242165,-2.048917E-10,-3.20604E-07,-1.111481E-07,-6.437948E-09,-2.622604E-08
608.6055,-0.01446705,-6.644711E-09,NaN,-0.8337826,-1.334444E-07,NaN,-1.562468,-3.109791E-07,NaN,-1.727179,1.798973E-05,0.00482065,3.784329E-09,NaN,NaN,-0.1235918,-2.002351E-10,-3.258739E-07,-1.111463E-07,-4.053763E-09,-2.622604E-08
608.6201,-0.0144659,-6.643948E-09,NaN,-0.8345825,-1.334431E-07,NaN,-1.562213,-3.10955E-07,NaN,-1.732467,1.799017E-05,0.01216993,3.761867E-09,NaN,NaN,-0.1229793,-1.909218E-10,-3.29229E-07,-1.111444E-07,-1.669577E-09,-2.622604E-08
608.6348,-0.0144659,-6.643948E-09,NaN,-0.8345825,-1.334431E-07,NaN,-1.562213,-3.10955E-07,NaN,-1.732467,1.799017E-05,0.01216993,3.761867E-09,NaN,NaN,-0.1229793,-1.909218E-10,-3.29229E-07,-1.111444E-07,-1.669577E-09,-2.622604E-08
608.6489,-0.01446469,-6.643184E-09,NaN,-0.8353946,-1.334417E-07,NaN,-1.561964,-3.109313E-07,NaN,-1.737761,1.79906E-05,0.01937528,3.73977E-09,NaN,NaN,-0.1223789,-1.816086E-10,-3.305608E-07,-1.111425E-07,7.146088E-10,-2.622604E-08
608.6661,-0.0144632,-6.642421E-09,NaN,-0.8362799,-1.334403E-07,NaN,-1.561571,-3.109051E-07,NaN,-1.743596,1.799104E-05,0.02801106,3.715212E-09,NaN,NaN,-0.1216609,-1.76952E-10,-3.340718E-07,-1.111406E-07,-4.053763E-09,-2.622604E-08
608.6796,-0.0144632,-6.642421E-09,NaN,-0.8362799,-1.334403E-07,NaN,-1.561571,-3.109051E-07,NaN,-1.743596,1.799104E-05,0.02801106,3.715212E-09,NaN,NaN,-0.1216609,-1.76952E-10,-3.340718E-07,-1.111406E-07,-4.053763E-09,-2.622604E-08
608.6933,-0.01446139,-6.641657E-09,NaN,-0.8372064,-1.33439E-07,NaN,-1.561228,-3.108764E-07,NaN,-1.749649,1.799148E-05,0.03647552,3.68824E-09,NaN,NaN,-0.1209569,-1.722954E-10,-3.364374E-07,-1.111388E-07,-1.669577E-09,-2.622604E-08
608.7077,-0.01445931,-6.640894E-09,NaN,-0.8381542,-1.334376E-07,NaN,-1.560906,-3.108455E-07,NaN,-1.755768,1.799191E-05,0.04476994,3.658898E-09,NaN,NaN,-0.1202668,-1.676388E-10,-3.362325E-07,-1.111369E-07,5.48298E-09,-2.622604E-08
608.7223,-0.01445702,-6.640131E-09,NaN,-0.8391109,-1.334363E-07,NaN,-1.560592,-3.10815E-07,NaN,-1.761878,1.799235E-05,0.05290153,3.630061E-09,NaN,NaN,-0.1195903,-1.629822E-10,-3.359904E-07,-1.111351E-07,7.867166E-09,-2.622604E-08
608.7369,-0.01445702,-6.640131E-09,NaN,-0.8391109,-1.334363E-07,NaN,-1.560592,-3.10815E-07,NaN,-1.761878,1.799235E-05,0.05290153,3.630061E-09,NaN,NaN,-0.1195903,-1.629822E-10,-3.359904E-07,-1.111351E-07,7.867166E-09,-2.622604E-08
608.7507,-0.0144543,-6.639368E-09,NaN,-0.8400688,-1.334349E-07,NaN,-1.56028,-3.107822E-07,NaN,-1.767939,1.799279E-05,0.06087653,3.598894E-09,NaN,NaN,-0.1189269,-1.583256E-10,-3.34016E-07,-1.111332E-07,3.098795E-09,-2.622604E-08
608.7661,-0.01445131,-6.638605E-09,NaN,-0.8410233,-1.334336E-07,NaN,-1.55997,-3.107471E-07,NaN,-1.773935,1.799323E-05,0.06869685,3.565432E-09,NaN,NaN,-0.1182765,-1.53669E-10,-3.308122E-07,-1.111314E-07,7.146093E-10,-2.622604E-08
608.7808,-0.01444813,-6.637843E-09,NaN,-0.8419713,-1.334323E-07,NaN,-1.559661,-3.107097E-07,NaN,-1.779855,1.799366E-05,0.07636555,3.529738E-09,NaN,NaN,-0.1176389,-1.443557E-10,-3.27832E-07,-1.111296E-07,-6.437948E-09,-2.622604E-08
608.7956,-0.01444813,-6.637843E-09,NaN,-0.8419713,-1.334323E-07,NaN,-1.559661,-3.107097E-07,NaN,-1.779855,1.799366E-05,0.07636555,3.529738E-09,NaN,NaN,-0.1176389,-1.443557E-10,-3.27832E-07,-1.111296E-07,-6.437948E-09,-2.622604E-08
608.8092,-0.01444506,-6.63708E-09,NaN,-0.8428418,-1.334309E-07,NaN,-1.559548,-3.10673E-07,NaN,-1.78512,1.79941E-05,0.08230623,3.494665E-09,NaN,NaN,-0.1171431,-1.396991E-10,-3.22244E-07,-1.111277E-07,-6.437948E-09,-2.622604E-08
608.8245,-0.01444214,-6.636318E-09,NaN,-0.8436606,-1.334296E-07,NaN,-1.559367,-3.106341E-07,NaN,-1.790031,1.799454E-05,0.0881316,3.457384E-09,NaN,NaN,-0.116657,-1.350425E-10,-3.18705E-07,-1.111259E-07,-6.437948E-09,-2.622604E-08
608.8395,-0.01444214,-6.636318E-09,NaN,-0.8436606,-1.334296E-07,NaN,-1.559367,-3.106341E-07,NaN,-1.790031,1.799454E-05,0.0881316,3.457384E-09,NaN,NaN,-0.116657,-1.350425E-10,-3.18705E-07,-1.111259E-07,-6.437948E-09,-2.622604E-08
608.8534,-0.0144394,-6.635556E-09,NaN,-0.8444437,-1.334283E-07,NaN,-1.559158,-3.10593E-07,NaN,-1.794731,1.799498E-05,0.0938544,3.417933E-09,NaN,NaN,-0.1161805,-1.303859E-10,-3.149797E-07,-1.111241E-07,-1.120632E-08,-2.622604E-08
608.8687,-0.01443679,-6.634794E-09,NaN,-0.8452014,-1.33427E-07,NaN,-1.558939,-3.105498E-07,NaN,-1.799292,1.799541E-05,0.09947013,3.376364E-09,NaN,NaN,-0.1157134,-1.210727E-10,-3.103604E-07,-1.111223E-07,-8.822134E-09,-2.622604E-08
608.8832,-0.01443449,-6.634032E-09,NaN,-0.8458707,-1.334256E-07,NaN,-1.558935,-3.122534E-07,NaN,-1.803174,1.799588E-05,0.1033974,4.925662E-09,NaN,NaN,-0.1153847,-1.303859E-10,-3.049587E-07,-1.111216E-07,-1.597469E-08,-2.861022E-08
608.8978,-0.01443449,-6.634032E-09,NaN,-0.8458707,-1.334256E-07,NaN,-1.558935,-3.122534E-07,NaN,-1.803174,1.799588E-05,0.1033974,4.925662E-09,NaN,NaN,-0.1153847,-1.303859E-10,-3.049587E-07,-1.111216E-07,-1.597469E-08,-2.861022E-08
608.9116,-0.01443252,-6.633272E-09,NaN,-0.8464824,-1.334244E-07,NaN,-1.558852,-3.139571E-07,NaN,-1.8067,1.799634E-05,0.1072451,6.358612E-09,NaN,NaN,-0.1150624,-1.350425E-10,-3.015315E-07,-1.111211E-07,-8.822134E-09,-2.622604E-08
608.9268,-0.01443081,-6.632511E-09,NaN,-0.8470558,-1.334235E-07,NaN,-1.558735,-3.156607E-07,NaN,-1.810022,1.799682E-05,0.1110311,7.704197E-09,NaN,NaN,-0.1147465,-1.396991E-10,-2.971356E-07,-1.111208E-07,-1.359051E-08,-2.861022E-08
608.9415,-0.01442931,-6.63175E-09,NaN,-0.847603,-1.334227E-07,NaN,-1.558606,-3.173644E-07,NaN,-1.81322,1.79973E-05,0.1147486,8.983716E-09,NaN,NaN,-0.1144368,-1.443557E-10,-2.928888E-07,-1.111206E-07,-1.120632E-08,-2.622604E-08
608.9561,-0.01442931,-6.63175E-09,NaN,-0.847603,-1.334227E-07,NaN,-1.558606,-3.173644E-07,NaN,-1.81322,1.79973E-05,0.1147486,8.983716E-09,NaN,NaN,-0.1144368,-1.443557E-10,-2.928888E-07,-1.111206E-07,-1.120632E-08,-2.622604E-08
608.9723,-0.01442816,-6.630989E-09,NaN,-0.8480623,-1.334219E-07,NaN,-1.558707,-3.19068E-07,NaN,-1.815755,1.799779E-05,0.116815,1.021282E-08,NaN,NaN,-0.1142625,-1.53669E-10,-2.881949E-07,-1.111205E-07,-8.822134E-09,-2.861022E-08
608.9861,-0.01442718,-6.630227E-09,NaN,-0.8484653,-1.334213E-07,NaN,-1.55872,-3.207717E-07,NaN,-1.817949,1.799828E-05,0.1188349,1.140303E-08,NaN,NaN,-0.1140916,-1.629822E-10,-2.852147E-07,-1.111204E-07,-6.437948E-09,-2.622604E-08
608.9998,-0.01442718,-6.630227E-09,NaN,-0.8484653,-1.334213E-07,NaN,-1.55872,-3.207717E-07,NaN,-1.817949,1.799828E-05,0.1188349,1.140303E-08,NaN,NaN,-0.1140916,-1.629822E-10,-2.852147E-07,-1.111204E-07,-6.437948E-09,-2.622604E-08
609.015,-0.01442632,-6.629466E-09,NaN,-0.8488318,-1.334207E-07,NaN,-1.558694,-3.224753E-07,NaN,-1.819959,1.799877E-05,0.1208306,1.256279E-08,NaN,NaN,-0.113924,-1.676388E-10,-2.817129E-07,-1.111204E-07,-8.822134E-09,-2.861022E-08
609.0291,-0.01442565,-6.628704E-09,NaN,-0.8491047,-1.334201E-07,NaN,-1.558893,-3.24179E-07,NaN,-1.821285,1.799926E-05,0.121214,1.369835E-08,NaN,NaN,-0.113889,-1.676388E-10,-2.77019E-07,-1.111204E-07,-8.822134E-09,-2.622604E-08
609.0435,-0.0144251,-6.627943E-09,NaN,-0.8493187,-1.334195E-07,NaN,-1.558994,-3.258826E-07,NaN,-1.822269,1.799976E-05,0.1215841,1.481429E-08,NaN,NaN,-0.1138547,-1.76952E-10,-2.756034E-07,-1.111203E-07,-1.120632E-08,-2.861022E-08
609.0583,-0.0144251,-6.627943E-09,NaN,-0.8493187,-1.334195E-07,NaN,-1.558994,-3.258826E-07,NaN,-1.822269,1.799976E-05,0.1215841,1.481429E-08,NaN,NaN,-0.1138547,-1.76952E-10,-2.756034E-07,-1.111203E-07,-1.120632E-08,-2.861022E-08
609.072,-0.01442464,-6.627181E-09,NaN,-0.8494954,-1.33419E-07,NaN,-1.559048,-3.275863E-07,NaN,-1.823076,1.800026E-05,0.1219645,1.591398E-08,NaN,NaN,-0.1138211,-1.909219E-10,-2.732192E-07,-1.111203E-07,-1.597469E-08,-2.622604E-08
609.0874,-0.01442423,-6.626418E-09,NaN,-0.8496482,-1.334184E-07,NaN,-1.559084,-3.292899E-07,NaN,-1.823788,1.800076E-05,0.122345,1.699993E-08,NaN,NaN,-0.1137882,-2.002351E-10,-2.703135E-07,-1.111203E-07,-6.437949E-09,-2.861022E-08
609.1022,-0.01442397,-6.625656E-09,NaN,-0.8497163,-1.334178E-07,NaN,-1.559357,-3.309936E-07,NaN,-1.823871,1.800124E-05,0.1211421,1.807398E-08,NaN,NaN,-0.1138852,-1.909219E-10,-2.675568E-07,-1.111203E-07,-6.437949E-09,-2.622604E-08
609.1166,-0.01442397,-6.625656E-09,NaN,-0.8497163,-1.334178E-07,NaN,-1.559357,-3.309936E-07,NaN,-1.823871,1.800124E-05,0.1211421,1.807398E-08,NaN,NaN,-0.1138852,-1.909219E-10,-2.675568E-07,-1.111203E-07,-6.437949E-09,-2.622604E-08
609.1309,-0.01442384,-6.624893E-09,NaN,-0.8497319,-1.334173E-07,NaN,-1.559529,-3.326973E-07,NaN,-1.823646,1.800175E-05,0.1199551,1.913748E-08,NaN,NaN,-0.1139803,-2.002351E-10,-2.667372E-07,-1.111202E-07,-6.437949E-09,-2.861022E-08
609.1462,-0.01442379,-6.62413E-09,NaN,-0.8497166,-1.334167E-07,NaN,-1.559651,-3.344009E-07,NaN,-1.82327,1.800226E-05,0.1188094,2.019147E-08,NaN,NaN,-0.1140735,-2.048917E-10,-2.649491E-07,-1.111202E-07,-6.437949E-09,-2.622604E-08
609.1605,-0.01442378,-6.623367E-09,NaN,-0.8496824,-1.334161E-07,NaN,-1.559752,-3.361046E-07,NaN,-1.822821,1.800277E-05,0.1176943,2.123669E-08,NaN,NaN,-0.114165,-2.095483E-10,-2.628629E-07,-1.111201E-07,-4.053763E-09,-2.861022E-08
609.1752,-0.01442378,-6.623367E-09,NaN,-0.8496824,-1.334161E-07,NaN,-1.559752,-3.361046E-07,NaN,-1.822821,1.800277E-05,0.1176943,2.123669E-08,NaN,NaN,-0.114165,-2.095483E-10,-2.628629E-07,-1.111201E-07,-4.053763E-09,-2.861022E-08
609.1892,-0.01442394,-6.622603E-09,NaN,-0.8495674,-1.334155E-07,NaN,-1.560087,-3.378082E-07,NaN,-1.821762,1.800328E-05,0.1150258,2.227372E-08,NaN,NaN,-0.1143839,-2.142049E-10,-2.615218E-07,-1.111201E-07,7.146084E-10,-2.622604E-08
609.2044,-0.01442421,-6.62184E-09,NaN,-0.849403,-1.334149E-07,NaN,-1.560316,-3.395119E-07,NaN,-1.820414,1.800379E-05,0.1124034,2.330297E-08,NaN,NaN,-0.1145985,-2.281748E-10,-2.611493E-07,-1.1112E-07,3.098794E-09,-2.861022E-08
609.219,-0.01442421,-6.62184E-09,NaN,-0.849403,-1.334149E-07,NaN,-1.560316,-3.395119E-07,NaN,-1.820414,1.800379E-05,0.1124034,2.330297E-08,NaN,NaN,-0.1145985,-2.281748E-10,-2.611493E-07,-1.1112E-07,3.098794E-09,-2.861022E-08
609.2332,-0.01442456,-6.621075E-09,NaN,-0.8492088,-1.334143E-07,NaN,-1.560492,-3.412155E-07,NaN,-1.818933,1.800429E-05,0.1098512,2.432478E-08,NaN,NaN,-0.114809,-2.328314E-10,-2.600317E-07,-1.111199E-07,1.025135E-08,-2.622604E-08
609.2486,-0.01442508,-6.620311E-09,NaN,-0.8489279,-1.334137E-07,NaN,-1.560882,-3.429192E-07,NaN,-1.81682,1.80048E-05,0.1057789,2.53394E-08,NaN,NaN,-0.1151446,-2.37488E-10,-2.57424E-07,-1.111198E-07,1.025135E-08,-2.861022E-08
609.265,-0.01442573,-6.619546E-09,NaN,-0.8485947,-1.33413E-07,NaN,-1.561158,-3.446228E-07,NaN,-1.814414,1.800531E-05,0.1017848,2.634702E-08,NaN,NaN,-0.1154736,-2.421446E-10,-2.573867E-07,-1.111197E-07,3.098795E-09,-2.622604E-08
609.2784,-0.01442573,-6.619546E-09,NaN,-0.8485947,-1.33413E-07,NaN,-1.561158,-3.446228E-07,NaN,-1.814414,1.800531E-05,0.1017848,2.634702E-08,NaN,NaN,-0.1154736,-2.421446E-10,-2.573867E-07,-1.111197E-07,3.098795E-09,-2.622604E-08
609.2925,-0.01442647,-6.618782E-09,NaN,-0.8482307,-1.334124E-07,NaN,-1.561377,-3.463265E-07,NaN,-1.81188,1.800583E-05,0.0978891,2.734779E-08,NaN,NaN,-0.1157962,-2.514578E-10,-2.555986E-07,-1.111196E-07,3.098795E-09,-2.861022E-08
609.3068,-0.01442726,-6.618016E-09,NaN,-0.8478493,-1.334117E-07,NaN,-1.561566,-3.480301E-07,NaN,-1.809302,1.800633E-05,0.09407942,2.834185E-08,NaN,NaN,-0.1161125,-2.514578E-10,-2.536987E-07,-1.111195E-07,-1.669577E-09,-2.622604E-08
609.3214,-0.01442821,-6.617251E-09,NaN,-0.8473896,-1.334111E-07,NaN,-1.561966,-3.497338E-07,NaN,-1.806143,1.800685E-05,0.08877044,2.932929E-08,NaN,NaN,-0.1165519,-2.60771E-10,-2.5124E-07,-1.111194E-07,-1.669577E-09,-2.861022E-08
609.3359,-0.01442821,-6.617251E-09,NaN,-0.8473896,-1.334111E-07,NaN,-1.561966,-3.497338E-07,NaN,-1.806143,1.800685E-05,0.08877044,2.932929E-08,NaN,NaN,-0.1165519,-2.60771E-10,-2.5124E-07,-1.111194E-07,-1.669577E-09,-2.861022E-08
609.3498,-0.01442929,-6.616485E-09,NaN,-0.8468837,-1.3341E-07,NaN,-1.562256,-3.514374E-07,NaN,-1.802725,1.800735E-05,0.0835663,3.03102E-08,NaN,NaN,-0.1169828,-2.561144E-10,-2.501224E-07,-1.111202E-07,-1.669577E-09,-2.622604E-08
609.3651,-0.01443044,-6.615719E-09,NaN,-0.8463514,-1.334089E-07,NaN,-1.562489,-3.531411E-07,NaN,-1.799203,1.800786E-05,0.07848348,3.128466E-08,NaN,NaN,-0.1174051,-2.60771E-10,-2.478872E-07,-1.11121E-07,-1.669577E-09,-2.861022E-08
609.3798,-0.01443044,-6.615719E-09,NaN,-0.8463514,-1.334089E-07,NaN,-1.562489,-3.531411E-07,NaN,-1.799203,1.800786E-05,0.07848348,3.128466E-08,NaN,NaN,-0.1174051,-2.60771E-10,-2.478872E-07,-1.11121E-07,-1.669577E-09,-2.861022E-08
609.3936,-0.01443183,-6.614952E-09,NaN,-0.845736,-1.334079E-07,NaN,-1.562908,-3.548448E-07,NaN,-1.79508,1.800837E-05,0.07193143,3.225273E-08,NaN,NaN,-0.1179485,-2.561144E-10,-2.434169E-07,-1.111219E-07,-1.669577E-09,-2.622604E-08
609.4088,-0.01443357,-6.614186E-09,NaN,-0.845072,-1.334069E-07,NaN,-1.563211,-3.565484E-07,NaN,-1.790693,1.800888E-05,0.06551462,3.321447E-08,NaN,NaN,-0.1184813,-2.654276E-10,-2.409209E-07,-1.111228E-07,7.146088E-10,-2.861022E-08
609.4236,-0.01443561,-6.613419E-09,NaN,-0.844381,-1.334059E-07,NaN,-1.563453,-3.582521E-07,NaN,-1.786209,1.800939E-05,0.05924366,3.416993E-08,NaN,NaN,-0.1190037,-2.654276E-10,-2.380152E-07,-1.111236E-07,7.146088E-10,-2.622604E-08
609.4383,-0.01443561,-6.613419E-09,NaN,-0.844381,-1.334059E-07,NaN,-1.563453,-3.582521E-07,NaN,-1.786209,1.800939E-05,0.05924366,3.416993E-08,NaN,NaN,-0.1190037,-2.654276E-10,-2.380152E-07,-1.111236E-07,7.146088E-10,-2.622604E-08
609.4523,-0.0144379,-6.612652E-09,NaN,-0.8436764,-1.334049E-07,NaN,-1.563662,-3.599557E-07,NaN,-1.781708,1.800991E-05,0.05310595,3.511915E-08,NaN,NaN,-0.1195158,-2.747408E-10,-2.342713E-07,-1.111245E-07,5.48298E-09,-2.861022E-08
609.4675,-0.01444057,-6.611884E-09,NaN,-0.8428974,-1.334039E-07,NaN,-1.564045,-3.616594E-07,NaN,-1.776655,1.801041E-05,0.04551769,3.60622E-08,NaN,NaN,-0.1201472,-2.700842E-10,-2.282549E-07,-1.111253E-07,7.146088E-10,-2.622604E-08
609.4833,-0.01444363,-6.611117E-09,NaN,-0.8420759,-1.334029E-07,NaN,-1.564321,-3.63363E-07,NaN,-1.771372,1.801092E-05,0.03808837,3.699911E-08,NaN,NaN,-0.1207662,-2.700842E-10,-2.22965E-07,-1.111262E-07,3.098795E-09,-2.861022E-08
609.4968,-0.01444363,-6.611117E-09,NaN,-0.8420759,-1.334029E-07,NaN,-1.564321,-3.63363E-07,NaN,-1.771372,1.801092E-05,0.03808837,3.699911E-08,NaN,NaN,-0.1207662,-2.700842E-10,-2.22965E-07,-1.111262E-07,3.098795E-09,-2.861022E-08
609.5104,-0.01444699,-6.610349E-09,NaN,-0.8412318,-1.334018E-07,NaN,-1.56454,-3.650667E-07,NaN,-1.766013,1.801141E-05,0.03082313,3.792993E-08,NaN,NaN,-0.1213731,-2.60771E-10,-2.181548E-07,-1.11127E-07,3.098795E-09,-2.622604E-08
609.5258,-0.0144506,-6.60958E-09,NaN,-0.8403775,-1.334008E-07,NaN,-1.564727,-3.667703E-07,NaN,-1.760654,1.801192E-05,0.02371035,3.88547E-08,NaN,NaN,-0.1219681,-2.60771E-10,-2.115098E-07,-1.111278E-07,3.098795E-09,-2.861022E-08
609.5403,-0.01445459,-6.608812E-09,NaN,-0.8394516,-1.333998E-07,NaN,-1.565062,-3.68474E-07,NaN,-1.75476,1.801244E-05,0.01516996,3.977345E-08,NaN,NaN,-0.1226808,-2.654276E-10,-2.017565E-07,-1.111286E-07,7.146088E-10,-2.622604E-08
609.557,-0.01445459,-6.608812E-09,NaN,-0.8394516,-1.333998E-07,NaN,-1.565062,-3.68474E-07,NaN,-1.75476,1.801244E-05,0.01516996,3.977345E-08,NaN,NaN,-0.1226808,-2.654276E-10,-2.017565E-07,-1.111286E-07,7.146088E-10,-2.622604E-08
609.5711,-0.01445894,-6.608042E-09,NaN,-0.8384855,-1.333998E-07,NaN,-1.565297,-3.681928E-07,NaN,-1.748649,1.801294E-05,0.006811415,3.886484E-08,NaN,NaN,-0.1233795,-2.60771E-10,-1.94902E-07,-1.111296E-07,3.098795E-09,-2.861022E-08
609.5852,-0.0144636,-6.607273E-09,NaN,-0.837499,-1.333999E-07,NaN,-1.565478,-3.680938E-07,NaN,-1.742474,1.801344E-05,-0.001366046,3.824978E-08,NaN,NaN,-0.1240645,-2.514578E-10,-1.863152E-07,-1.111314E-07,7.146088E-10,-2.622604E-08
609.5987,-0.0144636,-6.607273E-09,NaN,-0.837499,-1.333999E-07,NaN,-1.565478,-3.680938E-07,NaN,-1.742474,1.801344E-05,-0.001366046,3.824978E-08,NaN,NaN,-0.1240645,-2.514578E-10,-1.863152E-07,-1.111314E-07,7.146088E-10,-2.622604E-08
609.6129,-0.01446869,-6.606504E-09,NaN,-0.8364349,-1.334E-07,NaN,-1.565777,-3.679948E-07,NaN,-1.735739,1.801395E-05,-0.01094231,3.771722E-08,NaN,NaN,-0.1248655,-2.561144E-10,-1.74059E-07,-1.111333E-07,7.146088E-10,-2.861022E-08
609.6277,-0.0144742,-6.605734E-09,NaN,-0.8353278,-1.334003E-07,NaN,-1.565978,-3.678958E-07,NaN,-1.728779,1.801445E-05,-0.02031241,3.724576E-08,NaN,NaN,-0.1256507,-2.514578E-10,-1.628459E-07,-1.111353E-07,7.146088E-10,-2.622604E-08
609.6424,-0.01448003,-6.604965E-09,NaN,-0.8341991,-1.334006E-07,NaN,-1.566125,-3.677967E-07,NaN,-1.721759,1.801496E-05,-0.02948167,3.681971E-08,NaN,NaN,-0.1264205,-2.514578E-10,-1.507014E-07,-1.111373E-07,-4.053763E-09,-2.861022E-08
609.6572,-0.01448003,-6.604965E-09,NaN,-0.8341991,-1.334006E-07,NaN,-1.566125,-3.677967E-07,NaN,-1.721759,1.801496E-05,-0.02948167,3.681971E-08,NaN,NaN,-0.1264205,-2.514578E-10,-1.507014E-07,-1.111373E-07,-4.053763E-09,-2.861022E-08
609.6713,-0.01448611,-6.604195E-09,NaN,-0.8330621,-1.334009E-07,NaN,-1.566238,-3.676977E-07,NaN,-1.714758,1.801547E-05,-0.0384606,3.642751E-08,NaN,NaN,-0.1271752,-2.514578E-10,-1.381099E-07,-1.111393E-07,7.146088E-10,-2.622604E-08
609.687,-0.01448986,-6.603424E-09,NaN,-0.8327566,-1.334012E-07,NaN,-1.564893,-3.675987E-07,NaN,-1.714696,1.801597E-05,-0.02852533,3.60607E-08,NaN,NaN,-0.126363,-2.514578E-10,-1.890719E-07,-1.111412E-07,3.098795E-09,-2.861022E-08
609.7011,-0.0144908,-6.602654E-09,NaN,-0.8329641,-1.334015E-07,NaN,-1.564178,-3.674997E-07,NaN,-1.717991,1.801648E-05,-0.01886968,3.571304E-08,NaN,NaN,-0.1255667,-2.514578E-10,-2.149906E-07,-1.111432E-07,3.098795E-09,-2.622604E-08
609.7161,-0.0144908,-6.602654E-09,NaN,-0.8329641,-1.334015E-07,NaN,-1.564178,-3.674997E-07,NaN,-1.717991,1.801648E-05,-0.01886968,3.571304E-08,NaN,NaN,-0.1255667,-2.514578E-10,-2.149906E-07,-1.111432E-07,3.098795E-09,-2.622604E-08
609.7299,-0.01449035,-6.601883E-09,NaN,-0.8334872,-1.334018E-07,NaN,-1.563712,-3.674006E-07,NaN,-1.722934,1.801699E-05,-0.009469645,3.537996E-08,NaN,NaN,-0.1247861,-2.514578E-10,-2.334331E-07,-1.111451E-07,3.098795E-09,-2.861022E-08
609.7453,-0.01448925,-6.601113E-09,NaN,-0.8342028,-1.334021E-07,NaN,-1.563338,-3.673016E-07,NaN,-1.728669,1.801749E-05,-0.0002774596,3.505809E-08,NaN,NaN,-0.1240208,-2.468012E-10,-2.45673E-07,-1.11147E-07,3.098795E-09,-2.622604E-08
609.7599,-0.01448925,-6.601113E-09,NaN,-0.8342028,-1.334021E-07,NaN,-1.563338,-3.673016E-07,NaN,-1.728669,1.801749E-05,-0.0002774596,3.505809E-08,NaN,NaN,-0.1240208,-2.468012E-10,-2.45673E-07,-1.11147E-07,3.098795E-09,-2.622604E-08
609.7739,-0.0144879,-6.600342E-09,NaN,-0.8349647,-1.334023E-07,NaN,-1.563134,-3.672026E-07,NaN,-1.734191,1.8018E-05,0.007160519,3.474495E-08,NaN,NaN,-0.1233999,-2.468012E-10,-2.503902E-07,-1.111489E-07,-1.669577E-09,-2.861022E-08
609.7892,-0.01448627,-6.59957E-09,NaN,-0.8357517,-1.334026E-07,NaN,-1.562894,-3.671036E-07,NaN,-1.739581,1.80185E-05,0.01445558,3.443872E-08,NaN,NaN,-0.1227912,-2.421446E-10,-2.542854E-07,-1.111508E-07,-4.053763E-09,-2.622604E-08
609.8038,-0.0144844,-6.598799E-09,NaN,-0.8365507,-1.334029E-07,NaN,-1.56264,-3.670046E-07,NaN,-1.744873,1.801901E-05,0.02161431,3.413806E-08,NaN,NaN,-0.1221944,-2.468012E-10,-2.573495E-07,-1.111527E-07,-4.053763E-09,-2.861022E-08
609.8185,-0.0144844,-6.598799E-09,NaN,-0.8365507,-1.334029E-07,NaN,-1.56264,-3.670046E-07,NaN,-1.744873,1.801901E-05,0.02161431,3.413806E-08,NaN,NaN,-0.1221944,-2.468012E-10,-2.573495E-07,-1.111527E-07,-4.053763E-09,-2.861022E-08
609.8325,-0.0144826,-6.598027E-09,NaN,-0.8372842,-1.334031E-07,NaN,-1.562535,-3.669055E-07,NaN,-1.749505,1.801951E-05,0.02706499,3.384199E-08,NaN,NaN,-0.1217388,-2.421446E-10,-2.568559E-07,-1.111546E-07,-6.437948E-09,-2.622604E-08
609.8488,-0.01448093,-6.597255E-09,NaN,-0.837974,-1.334034E-07,NaN,-1.562374,-3.668065E-07,NaN,-1.753787,1.802002E-05,0.0324152,3.354977E-08,NaN,NaN,-0.1212921,-2.421446E-10,-2.572005E-07,-1.111565E-07,-1.359051E-08,-2.861022E-08
609.8633,-0.01447939,-6.596483E-09,NaN,-0.8386336,-1.334037E-07,NaN,-1.56219,-3.667075E-07,NaN,-1.757865,1.802052E-05,0.03766952,3.326087E-08,NaN,NaN,-0.1208541,-2.328314E-10,-2.5802E-07,-1.111584E-07,-1.597469E-08,-2.622604E-08
609.877,-0.01447939,-6.596483E-09,NaN,-0.8386336,-1.334037E-07,NaN,-1.56219,-3.667075E-07,NaN,-1.757865,1.802052E-05,0.03766952,3.326087E-08,NaN,NaN,-0.1208541,-2.328314E-10,-2.5802E-07,-1.111584E-07,-1.597469E-08,-2.622604E-08
609.891,-0.01447795,-6.595711E-09,NaN,-0.8392717,-1.334039E-07,NaN,-1.561998,-3.666085E-07,NaN,-1.761811,1.802103E-05,0.04282498,3.297489E-08,NaN,NaN,-0.1204247,-2.328314E-10,-2.586906E-07,-1.111603E-07,-1.835888E-08,-2.861022E-08
609.9063,-0.01447681,-6.594938E-09,NaN,-0.8398244,-1.334042E-07,NaN,-1.561978,-3.665095E-07,NaN,-1.765089,1.802153E-05,0.04630612,3.269153E-08,NaN,NaN,-0.1201332,-2.281748E-10,-2.564927E-07,-1.111621E-07,-2.074306E-08,-2.622604E-08
609.9209,-0.01447584,-6.594165E-09,NaN,-0.8403218,-1.334045E-07,NaN,-1.561895,-3.664104E-07,NaN,-1.768019,1.802202E-05,0.04972347,3.241057E-08,NaN,NaN,-0.1198473,-2.235181E-10,-2.561388E-07,-1.11164E-07,-1.835888E-08,-2.861022E-08
609.9355,-0.01447584,-6.594165E-09,NaN,-0.8403218,-1.334045E-07,NaN,-1.561895,-3.664104E-07,NaN,-1.768019,1.802202E-05,0.04972347,3.241057E-08,NaN,NaN,-0.1198473,-2.235181E-10,-2.561388E-07,-1.11164E-07,-1.835888E-08,-2.861022E-08
609.9509,-0.01447498,-6.593392E-09,NaN,-0.840783,-1.334048E-07,NaN,-1.561785,-3.663114E-07,NaN,-1.770755,1.802252E-05,0.05308388,3.213185E-08,NaN,NaN,-0.1195671,-2.142049E-10,-2.548163E-07,-1.111659E-07,-1.835888E-08,-2.622604E-08
609.965,-0.01447416,-6.592619E-09,NaN,-0.8412197,-1.33405E-07,NaN,-1.561666,-3.662124E-07,NaN,-1.773373,1.802304E-05,0.05638265,3.185524E-08,NaN,NaN,-0.1192923,-2.188615E-10,-2.538105E-07,-1.111677E-07,-1.359051E-08,-2.861022E-08
609.9796,-0.01447416,-6.592619E-09,NaN,-0.8412197,-1.33405E-07,NaN,-1.561666,-3.662124E-07,NaN,-1.773373,1.802304E-05,0.05638265,3.185524E-08,NaN,NaN,-0.1192923,-2.188615E-10,-2.538105E-07,-1.111677E-07,-1.359051E-08,-2.861022E-08
609.9935,-0.01447353,-6.591845E-09,NaN,-0.8415699,-1.334053E-07,NaN,-1.561731,-3.661134E-07,NaN,-1.775339,1.802354E-05,0.05804133,3.158065E-08,NaN,NaN,-0.1191524,-2.142049E-10,-2.515008E-07,-1.111696E-07,-6.437948E-09,-2.622604E-08
610.0094,-0.01447301,-6.591072E-09,NaN,-0.8418652,-1.334056E-07,NaN,-1.561725,-3.660143E-07,NaN,-1.776973,1.802405E-05,0.05967095,3.1308E-08,NaN,NaN,-0.1190152,-2.188615E-10,-2.505322E-07,-1.111714E-07,-1.120632E-08,-2.861022E-08
610.0236,-0.01447256,-6.590298E-09,NaN,-0.8421254,-1.334059E-07,NaN,-1.561688,-3.659153E-07,NaN,-1.77843,1.802455E-05,0.06128004,3.103725E-08,NaN,NaN,-0.1188807,-2.142049E-10,-2.492283E-07,-1.111733E-07,-1.35905E-08,-2.622604E-08
610.0383,-0.01447256,-6.590298E-09,NaN,-0.8421254,-1.334059E-07,NaN,-1.561688,-3.659153E-07,NaN,-1.77843,1.802455E-05,0.06128004,3.103725E-08,NaN,NaN,-0.1188807,-2.142049E-10,-2.492283E-07,-1.111733E-07,-1.35905E-08,-2.622604E-08
610.0523,-0.0144723,-6.589524E-09,NaN,-0.8422933,-1.334062E-07,NaN,-1.561832,-3.658163E-07,NaN,-1.779213,1.802505E-05,0.06128467,3.076834E-08,NaN,NaN,-0.1188782,-2.142049E-10,-2.462109E-07,-1.111751E-07,-8.822133E-09,-2.861022E-08
610.0677,-0.01447217,-6.588749E-09,NaN,-0.8424036,-1.334065E-07,NaN,-1.561894,-3.657173E-07,NaN,-1.779662,1.802555E-05,0.06129392,3.050124E-08,NaN,NaN,-0.1188757,-2.142049E-10,-2.452051E-07,-1.11177E-07,-4.053762E-09,-2.622604E-08
610.0823,-0.01447211,-6.587975E-09,NaN,-0.8424777,-1.334068E-07,NaN,-1.561921,-3.656183E-07,NaN,-1.779942,1.802607E-05,0.06131597,3.023592E-08,NaN,NaN,-0.1188733,-2.235181E-10,-2.438267E-07,-1.111788E-07,-4.053762E-09,-2.861022E-08
610.0969,-0.01447211,-6.587975E-09,NaN,-0.8424777,-1.334068E-07,NaN,-1.561921,-3.656183E-07,NaN,-1.779942,1.802607E-05,0.06131597,3.023592E-08,NaN,NaN,-0.1188733,-2.235181E-10,-2.438267E-07,-1.111788E-07,-4.053762E-09,-2.861022E-08
610.1109,-0.01447211,-6.5872E-09,NaN,-0.8425293,-1.334071E-07,NaN,-1.561932,-3.655192E-07,NaN,-1.780134,1.802657E-05,0.06134317,2.997237E-08,NaN,NaN,-0.118871,-2.188615E-10,-2.423366E-07,-1.111806E-07,-1.669576E-09,-2.622604E-08
610.1272,-0.0144723,-6.586425E-09,NaN,-0.842499,-1.334074E-07,NaN,-1.562132,-3.654202E-07,NaN,-1.779704,1.802707E-05,0.05979451,2.971054E-08,NaN,NaN,-0.1189981,-2.188615E-10,-2.390211E-07,-1.111825E-07,-1.669576E-09,-2.861022E-08
610.1417,-0.01447261,-6.585649E-09,NaN,-0.8424184,-1.334077E-07,NaN,-1.562249,-3.653212E-07,NaN,-1.778975,1.802757E-05,0.05828052,2.945044E-08,NaN,NaN,-0.1191227,-2.142049E-10,-2.377545E-07,-1.111843E-07,-1.669576E-09,-2.622604E-08
610.1553,-0.01447261,-6.585649E-09,NaN,-0.8424184,-1.334077E-07,NaN,-1.562249,-3.653212E-07,NaN,-1.778975,1.802757E-05,0.05828052,2.945044E-08,NaN,NaN,-0.1191227,-2.142049E-10,-2.377545E-07,-1.111843E-07,-1.669576E-09,-2.622604E-08
610.1694,-0.01447299,-6.584874E-09,NaN,-0.842307,-1.33408E-07,NaN,-1.562327,-3.652222E-07,NaN,-1.778103,1.802808E-05,0.05680961,2.919204E-08,NaN,NaN,-0.1192449,-2.281748E-10,-2.362271E-07,-1.111861E-07,7.146097E-10,-2.861022E-08
610.1846,-0.01447341,-6.584098E-09,NaN,-0.8421772,-1.334083E-07,NaN,-1.562388,-3.651232E-07,NaN,-1.777165,1.802858E-05,0.05537352,2.893542E-08,NaN,NaN,-0.1193646,-2.281748E-10,-2.344762E-07,-1.11188E-07,7.146097E-10,-2.622604E-08
610.1991,-0.01447341,-6.584098E-09,NaN,-0.8421772,-1.334083E-07,NaN,-1.562388,-3.651232E-07,NaN,-1.777165,1.802858E-05,0.05537352,2.893542E-08,NaN,NaN,-0.1193646,-2.281748E-10,-2.344762E-07,-1.11188E-07,7.146097E-10,-2.622604E-08
610.213,-0.01447402,-6.583322E-09,NaN,-0.8419672,-1.334086E-07,NaN,-1.562632,-3.650241E-07,NaN,-1.775625,1.802907E-05,0.05239122,2.868047E-08,NaN,NaN,-0.1196114,-2.235182E-10,-2.306764E-07,-1.111898E-07,3.098795E-09,-2.861022E-08
610.2281,-0.01447474,-6.582547E-09,NaN,-0.8417087,-1.334089E-07,NaN,-1.562789,-3.649251E-07,NaN,-1.773804,1.802956E-05,0.04947333,2.842719E-08,NaN,NaN,-0.1198534,-2.188616E-10,-2.287951E-07,-1.111916E-07,5.482981E-09,-2.622604E-08
610.2428,-0.01447554,-6.58177E-09,NaN,-0.8414214,-1.334092E-07,NaN,-1.562905,-3.648261E-07,NaN,-1.771857,1.803006E-05,0.04662658,2.817556E-08,NaN,NaN,-0.1200907,-2.142049E-10,-2.264482E-07,-1.111934E-07,5.482981E-09,-2.861022E-08
610.2576,-0.01447554,-6.58177E-09,NaN,-0.8414214,-1.334092E-07,NaN,-1.562905,-3.648261E-07,NaN,-1.771857,1.803006E-05,0.04662658,2.817556E-08,NaN,NaN,-0.1200907,-2.142049E-10,-2.264482E-07,-1.111934E-07,5.482981E-09,-2.861022E-08
610.2716,-0.01447653,-6.580994E-09,NaN,-0.8410484,-1.334095E-07,NaN,-1.563186,-3.647271E-07,NaN,-1.769285,1.803055E-05,0.04226597,2.792556E-08,NaN,NaN,-0.1204527,-2.048917E-10,-2.224063E-07,-1.111952E-07,1.025135E-08,-2.622604E-08
610.2868,-0.01447765,-6.580218E-09,NaN,-0.840624,-1.334099E-07,NaN,-1.563375,-3.646281E-07,NaN,-1.766428,1.803105E-05,0.03800025,2.767718E-08,NaN,NaN,-0.1208076,-2.095483E-10,-2.196495E-07,-1.11197E-07,1.263554E-08,-2.861022E-08
610.3018,-0.01447887,-6.579441E-09,NaN,-0.8401698,-1.334102E-07,NaN,-1.563519,-3.64529E-07,NaN,-1.76345,1.803154E-05,0.03383307,2.743042E-08,NaN,NaN,-0.1211555,-2.002351E-10,-2.168556E-07,-1.111988E-07,1.501972E-08,-2.622604E-08
610.3166,-0.01447887,-6.579441E-09,NaN,-0.8401698,-1.334102E-07,NaN,-1.563519,-3.64529E-07,NaN,-1.76345,1.803154E-05,0.03383307,2.743042E-08,NaN,NaN,-0.1211555,-2.002351E-10,-2.168556E-07,-1.111988E-07,1.501972E-08,-2.622604E-08
610.3303,-0.01448024,-6.578664E-09,NaN,-0.8396994,-1.334105E-07,NaN,-1.56364,-3.6443E-07,NaN,-1.760433,1.803203E-05,0.0297549,2.718527E-08,NaN,NaN,-0.1214966,-1.909219E-10,-2.14043E-07,-1.112006E-07,2.217228E-08,-2.861022E-08
610.3458,-0.01448198,-6.577888E-09,NaN,-0.8391516,-1.334108E-07,NaN,-1.563919,-3.64331E-07,NaN,-1.756842,1.803252E-05,0.02418675,2.69417E-08,NaN,NaN,-0.1219605,-1.816086E-10,-2.074306E-07,-1.112024E-07,2.217228E-08,-2.622604E-08
610.3603,-0.01448409,-6.577111E-09,NaN,-0.8385586,-1.334112E-07,NaN,-1.56411,-3.64232E-07,NaN,-1.752999,1.8033E-05,0.01873858,2.669972E-08,NaN,NaN,-0.1224152,-1.722954E-10,-2.022728E-07,-1.112042E-07,2.455647E-08,-2.861022E-08
610.3749,-0.01448409,-6.577111E-09,NaN,-0.8385586,-1.334112E-07,NaN,-1.56411,-3.64232E-07,NaN,-1.752999,1.8033E-05,0.01873858,2.669972E-08,NaN,NaN,-0.1224152,-1.722954E-10,-2.022728E-07,-1.112042E-07,2.455647E-08,-2.861022E-08
610.3889,-0.01448649,-6.576334E-09,NaN,-0.8379402,-1.334115E-07,NaN,-1.564258,-3.641329E-07,NaN,-1.749058,1.803349E-05,0.01341141,2.645931E-08,NaN,NaN,-0.1228611,-1.629822E-10,-1.978141E-07,-1.11206E-07,2.217228E-08,-2.622604E-08
610.4064,-0.01448913,-6.575557E-09,NaN,-0.8373091,-1.334118E-07,NaN,-1.564381,-3.640339E-07,NaN,-1.745097,1.803398E-05,0.008196035,2.622046E-08,NaN,NaN,-0.1232981,-1.536689E-10,-1.936837E-07,-1.112078E-07,1.740391E-08,-2.861022E-08
610.4219,-0.01449218,-6.574779E-09,NaN,-0.8366035,-1.334122E-07,NaN,-1.564644,-3.639349E-07,NaN,-1.740579,1.803448E-05,0.001516955,2.598316E-08,NaN,NaN,-0.1238561,-1.490123E-10,-1.852924E-07,-1.112096E-07,1.501972E-08,-2.622604E-08
610.4335,-0.01449218,-6.574779E-09,NaN,-0.8366035,-1.334122E-07,NaN,-1.564644,-3.639349E-07,NaN,-1.740579,1.803448E-05,0.001516955,2.598316E-08,NaN,NaN,-0.1238561,-1.490123E-10,-1.852924E-07,-1.112096E-07,1.501972E-08,-2.622604E-08
610.4476,-0.01449561,-6.574002E-09,NaN,-0.8358551,-1.334125E-07,NaN,-1.564822,-3.638359E-07,NaN,-1.735824,1.803497E-05,-0.005018016,2.574741E-08,NaN,NaN,-0.1244031,-1.396991E-10,-1.785683E-07,-1.112113E-07,1.263554E-08,-2.861022E-08
610.4628,-0.01449935,-6.573225E-09,NaN,-0.8350837,-1.334129E-07,NaN,-1.564958,-3.637369E-07,NaN,-1.730985,1.803545E-05,-0.01141129,2.551318E-08,NaN,NaN,-0.1249393,-1.303859E-10,-1.720118E-07,-1.112131E-07,1.025135E-08,-2.622604E-08
610.4773,-0.01449935,-6.573225E-09,NaN,-0.8350837,-1.334129E-07,NaN,-1.564958,-3.637369E-07,NaN,-1.730985,1.803545E-05,-0.01141129,2.551318E-08,NaN,NaN,-0.1249393,-1.303859E-10,-1.720118E-07,-1.112131E-07,1.025135E-08,-2.622604E-08
610.4915,-0.01450356,-6.572447E-09,NaN,-0.8342322,-1.334132E-07,NaN,-1.565207,-3.636378E-07,NaN,-1.725566,1.803595E-05,-0.0192381,2.528047E-08,NaN,NaN,-0.1255945,-1.257293E-10,-1.610967E-07,-1.112149E-07,1.501973E-08,-2.861022E-08
610.5067,-0.01450819,-6.571669E-09,NaN,-0.8333351,-1.334136E-07,NaN,-1.565371,-3.635388E-07,NaN,-1.719902,1.803644E-05,-0.02689549,2.504928E-08,NaN,NaN,-0.1262368,-1.16416E-10,-1.524913E-07,-1.112167E-07,1.740391E-08,-2.622604E-08
610.5212,-0.01451316,-6.570891E-09,NaN,-0.8324139,-1.334139E-07,NaN,-1.565491,-3.634398E-07,NaN,-1.714159,1.803694E-05,-0.03438895,2.481958E-08,NaN,NaN,-0.1268665,-1.117594E-10,-1.43029E-07,-1.112184E-07,1.97881E-08,-2.861022E-08
610.5359,-0.01451316,-6.570891E-09,NaN,-0.8324139,-1.334139E-07,NaN,-1.565491,-3.634398E-07,NaN,-1.714159,1.803694E-05,-0.03438895,2.481958E-08,NaN,NaN,-0.1268665,-1.117594E-10,-1.43029E-07,-1.112184E-07,1.97881E-08,-2.861022E-08
610.5497,-0.01451839,-6.570113E-09,NaN,-0.8314818,-1.334143E-07,NaN,-1.565585,-3.633408E-07,NaN,-1.708416,1.803743E-05,-0.04172733,2.459138E-08,NaN,NaN,-0.1274839,-1.024462E-10,-1.32859E-07,-1.112202E-07,2.217228E-08,-2.622604E-08
610.5652,-0.01452403,-6.569335E-09,NaN,-0.830478,-1.334146E-07,NaN,-1.565775,-3.632418E-07,NaN,-1.702142,1.803794E-05,-0.05047543,2.436466E-08,NaN,NaN,-0.1282185,-9.778958E-11,-1.178833E-07,-1.11222E-07,1.740391E-08,-2.861022E-08
610.5801,-0.01453006,-6.568557E-09,NaN,-0.8294343,-1.33415E-07,NaN,-1.565892,-3.631427E-07,NaN,-1.695653,1.803844E-05,-0.05903646,2.413941E-08,NaN,NaN,-0.1289388,-9.313296E-11,-1.040252E-07,-1.112237E-07,1.978809E-08,-2.622604E-08
610.5944,-0.01453006,-6.568557E-09,NaN,-0.8294343,-1.33415E-07,NaN,-1.565892,-3.631427E-07,NaN,-1.695653,1.803844E-05,-0.05903646,2.413941E-08,NaN,NaN,-0.1289388,-9.313296E-11,-1.040252E-07,-1.112237E-07,1.978809E-08,-2.622604E-08
610.6085,-0.01453639,-6.567778E-09,NaN,-0.8283707,-1.334153E-07,NaN,-1.565968,-3.630437E-07,NaN,-1.689106,1.803895E-05,-0.06741747,2.391562E-08,NaN,NaN,-0.1296449,-9.313296E-11,-8.949661E-08,-1.112255E-07,1.978809E-08,-2.861022E-08
610.6238,-0.01454295,-6.567E-09,NaN,-0.8272996,-1.334157E-07,NaN,-1.56602,-3.629447E-07,NaN,-1.682576,1.803945E-05,-0.07562628,2.369328E-08,NaN,NaN,-0.1303371,-8.847634E-11,-7.593655E-08,-1.112272E-07,1.740391E-08,-2.622604E-08
610.6386,-0.01454295,-6.567E-09,NaN,-0.8272996,-1.334157E-07,NaN,-1.56602,-3.629447E-07,NaN,-1.682576,1.803945E-05,-0.07562628,2.369328E-08,NaN,NaN,-0.1303371,-8.847634E-11,-7.593655E-08,-1.112272E-07,1.740391E-08,-2.622604E-08
610.6525,-0.01454925,-6.566221E-09,NaN,-0.826229,-1.334161E-07,NaN,-1.566056,-3.628457E-07,NaN,-1.676101,1.803995E-05,-0.0836681,2.347239E-08,NaN,NaN,-0.1310149,-8.847634E-11,-6.36431E-08,-1.11229E-07,1.740391E-08,-2.861022E-08
610.6678,-0.01455542,-6.565442E-09,NaN,-0.8251635,-1.334164E-07,NaN,-1.566077,-3.627466E-07,NaN,-1.6697,1.804046E-05,-0.09154727,2.325293E-08,NaN,NaN,-0.1316795,-8.847634E-11,-5.08281E-08,-1.112307E-07,1.978809E-08,-2.622604E-08
610.6824,-0.01456152,-6.564663E-09,NaN,-0.824106,-1.334168E-07,NaN,-1.566087,-3.626476E-07,NaN,-1.663381,1.804096E-05,-0.09926752,2.30349E-08,NaN,NaN,-0.132331,-8.381973E-11,-3.749156E-08,-1.112324E-07,1.978809E-08,-2.861022E-08
610.6981,-0.01456152,-6.564663E-09,NaN,-0.824106,-1.334168E-07,NaN,-1.566087,-3.626476E-07,NaN,-1.663381,1.804096E-05,-0.09926752,2.30349E-08,NaN,NaN,-0.132331,-8.381973E-11,-3.749156E-08,-1.112324E-07,1.978809E-08,-2.861022E-08
610.7119,-0.01456737,-6.563883E-09,NaN,-0.8231274,-1.334172E-07,NaN,-1.566021,-3.625486E-07,NaN,-1.657722,1.804147E-05,-0.1052897,2.281828E-08,NaN,NaN,-0.1328404,-7.916311E-11,-3.242517E-08,-1.112342E-07,1.978809E-08,-2.622604E-08
610.726,-0.01457297,-6.563103E-09,NaN,-0.8222018,-1.334175E-07,NaN,-1.565986,-3.624496E-07,NaN,-1.652424,1.804197E-05,-0.1111966,2.260307E-08,NaN,NaN,-0.1333399,-7.916311E-11,-2.616668E-08,-1.112359E-07,2.217228E-08,-2.861022E-08
610.7407,-0.01457834,-6.562324E-09,NaN,-0.8213132,-1.334179E-07,NaN,-1.565961,-3.623506E-07,NaN,-1.647345,1.804248E-05,-0.1169882,2.238926E-08,NaN,NaN,-0.1338295,-7.916311E-11,-1.767302E-08,-1.112376E-07,2.217228E-08,-2.622604E-08
610.7552,-0.01457834,-6.562324E-09,NaN,-0.8213132,-1.334179E-07,NaN,-1.565961,-3.623506E-07,NaN,-1.647345,1.804248E-05,-0.1169882,2.238926E-08,NaN,NaN,-0.1338295,-7.916311E-11,-1.767302E-08,-1.112376E-07,2.217228E-08,-2.622604E-08
610.7691,-0.01458353,-6.561543E-09,NaN,-0.8204513,-1.334183E-07,NaN,-1.565938,-3.622515E-07,NaN,-1.642411,1.804299E-05,-0.1226652,2.217683E-08,NaN,NaN,-0.1343096,-7.916311E-11,-9.030347E-09,-1.112394E-07,2.217228E-08,-2.861022E-08
610.7845,-0.01458838,-6.560763E-09,NaN,-0.8196791,-1.334187E-07,NaN,-1.565868,-3.621525E-07,NaN,-1.638159,1.80435E-05,-0.1266942,2.196578E-08,NaN,NaN,-0.134651,-7.916311E-11,-1.007343E-08,-1.112411E-07,2.217228E-08,-2.622604E-08
610.7993,-0.01458838,-6.560763E-09,NaN,-0.8196791,-1.334187E-07,NaN,-1.565868,-3.621525E-07,NaN,-1.638159,1.80435E-05,-0.1266942,2.196578E-08,NaN,NaN,-0.134651,-7.916311E-11,-1.007343E-08,-1.112411E-07,2.217228E-08,-2.622604E-08
610.8131,-0.0145929,-6.559982E-09,NaN,-0.8189657,-1.334191E-07,NaN,-1.565824,-3.620535E-07,NaN,-1.634271,1.8044E-05,-0.1306456,2.175611E-08,NaN,NaN,-0.1349857,-7.45065E-11,-7.987266E-09,-1.112428E-07,2.217228E-08,-2.861022E-08
610.8283,-0.01459713,-6.559202E-09,NaN,-0.8182917,-1.334194E-07,NaN,-1.56579,-3.619545E-07,NaN,-1.630592,1.80445E-05,-0.1345197,2.154779E-08,NaN,NaN,-0.1353138,-6.984988E-11,-4.410987E-09,-1.112445E-07,1.978809E-08,-2.622604E-08
610.8431,-0.01460114,-6.55842E-09,NaN,-0.8176451,-1.334198E-07,NaN,-1.565759,-3.618555E-07,NaN,-1.627044,1.8045E-05,-0.1383173,2.134083E-08,NaN,NaN,-0.1356355,-6.519327E-11,-8.965051E-11,-1.112462E-07,1.978809E-08,-2.861022E-08
610.8577,-0.01460114,-6.55842E-09,NaN,-0.8176451,-1.334198E-07,NaN,-1.565759,-3.618555E-07,NaN,-1.627044,1.8045E-05,-0.1383173,2.134083E-08,NaN,NaN,-0.1356355,-6.519327E-11,-8.965051E-11,-1.112462E-07,1.978809E-08,-2.861022E-08
610.8717,-0.01460479,-6.557639E-09,NaN,-0.8170877,-1.334202E-07,NaN,-1.565698,-3.617564E-07,NaN,-1.624161,1.80455E-05,-0.1405098,2.113521E-08,NaN,NaN,-0.1358216,-5.588004E-11,-6.050115E-09,-1.112479E-07,2.932484E-08,-2.622604E-08
610.8884,-0.01460807,-6.556858E-09,NaN,-0.8165876,-1.334206E-07,NaN,-1.565656,-3.616574E-07,NaN,-1.621624,1.8046E-05,-0.1426591,2.093093E-08,NaN,NaN,-0.1360041,-5.122343E-11,-9.030346E-09,-1.112496E-07,2.455647E-08,-2.861022E-08
610.9018,-0.01461105,-6.556077E-09,NaN,-0.8161253,-1.33421E-07,NaN,-1.565621,-3.615584E-07,NaN,-1.619278,1.80465E-05,-0.1447658,2.072797E-08,NaN,NaN,-0.136183,-4.656682E-11,-9.626393E-09,-1.112513E-07,2.694065E-08,-2.622604E-08
610.9164,-0.01461105,-6.556077E-09,NaN,-0.8161253,-1.33421E-07,NaN,-1.565621,-3.615584E-07,NaN,-1.619278,1.80465E-05,-0.1447658,2.072797E-08,NaN,NaN,-0.136183,-4.656682E-11,-9.626393E-09,-1.112513E-07,2.694065E-08,-2.622604E-08
610.9303,-0.0146136,-6.555295E-09,NaN,-0.8157576,-1.334214E-07,NaN,-1.565567,-3.614594E-07,NaN,-1.617617,1.804701E-05,-0.1453035,2.052633E-08,NaN,NaN,-0.1362292,-4.191021E-11,-2.065325E-08,-1.11253E-07,3.170902E-08,-2.861022E-08
610.9456,-0.01461574,-6.554513E-09,NaN,-0.81545,-1.334218E-07,NaN,-1.565527,-3.613603E-07,NaN,-1.616303,1.804751E-05,-0.1458292,2.0326E-08,NaN,NaN,-0.1362745,-3.72536E-11,-2.795482E-08,-1.112547E-07,2.694065E-08,-2.622604E-08
610.9601,-0.01461754,-6.553731E-09,NaN,-0.8151808,-1.334221E-07,NaN,-1.565493,-3.612613E-07,NaN,-1.615173,1.804802E-05,-0.1463438,2.012696E-08,NaN,NaN,-0.1363188,-3.72536E-11,-3.346825E-08,-1.112564E-07,3.170902E-08,-2.861022E-08
610.9747,-0.01461754,-6.553731E-09,NaN,-0.8151808,-1.334221E-07,NaN,-1.565493,-3.612613E-07,NaN,-1.615173,1.804802E-05,-0.1463438,2.012696E-08,NaN,NaN,-0.1363188,-3.72536E-11,-3.346825E-08,-1.112564E-07,3.170902E-08,-2.861022E-08
610.9908,-0.01461909,-6.552949E-09,NaN,-0.8149366,-1.334225E-07,NaN,-1.565463,-3.611623E-07,NaN,-1.614141,1.804852E-05,-0.1468477,1.992922E-08,NaN,NaN,-0.1363623,-3.72536E-11,-3.778959E-08,-1.112581E-07,3.409321E-08,-2.622604E-08
611.0051,-0.01462024,-6.552167E-09,NaN,-0.8147781,-1.334229E-07,NaN,-1.565415,-3.610633E-07,NaN,-1.613741,1.804903E-05,-0.1458154,1.973277E-08,NaN,NaN,-0.1362757,-3.72536E-11,-5.313779E-08,-1.112598E-07,3.64774E-08,-2.861022E-08
611.0186,-0.01462024,-6.552167E-09,NaN,-0.8147781,-1.334229E-07,NaN,-1.565415,-3.610633E-07,NaN,-1.613741,1.804903E-05,-0.1458154,1.973277E-08,NaN,NaN,-0.1362757,-3.72536E-11,-5.313779E-08,-1.112598E-07,3.64774E-08,-2.861022E-08
611.0325,-0.01462112,-6.551384E-09,NaN,-0.8146732,-1.334233E-07,NaN,-1.565377,-3.609643E-07,NaN,-1.613652,1.804954E-05,-0.144801,1.953759E-08,NaN,NaN,-0.1361908,-3.72536E-11,-6.371761E-08,-1.112615E-07,3.64774E-08,-2.622604E-08
611.048,-0.01462185,-6.550601E-09,NaN,-0.814602,-1.334237E-07,NaN,-1.565343,-3.608652E-07,NaN,-1.613718,1.805005E-05,-0.1438051,1.934368E-08,NaN,NaN,-0.1361076,-3.72536E-11,-7.221127E-08,-1.112631E-07,3.409321E-08,-2.861022E-08
611.0624,-0.01462252,-6.549818E-09,NaN,-0.8145518,-1.334241E-07,NaN,-1.56531,-3.607662E-07,NaN,-1.613862,1.805055E-05,-0.1428279,1.915102E-08,NaN,NaN,-0.136026,-3.259698E-11,-7.995988E-08,-1.112648E-07,2.932484E-08,-2.622604E-08
611.0769,-0.01462252,-6.549818E-09,NaN,-0.8145518,-1.334241E-07,NaN,-1.56531,-3.607662E-07,NaN,-1.613862,1.805055E-05,-0.1428279,1.915102E-08,NaN,NaN,-0.136026,-3.259698E-11,-7.995988E-08,-1.112648E-07,2.932484E-08,-2.622604E-08
611.0908,-0.01462301,-6.549036E-09,NaN,-0.8145825,-1.334245E-07,NaN,-1.56526,-3.606672E-07,NaN,-1.614618,1.805105E-05,-0.140343,1.895962E-08,NaN,NaN,-0.1358167,-2.794037E-11,-9.94804E-08,-1.112665E-07,2.932484E-08,-2.861022E-08
611.1062,-0.01462338,-6.548252E-09,NaN,-0.8146632,-1.334249E-07,NaN,-1.565216,-3.605682E-07,NaN,-1.615667,1.805155E-05,-0.1379038,1.876946E-08,NaN,NaN,-0.1356115,-2.328376E-11,-1.133385E-07,-1.112682E-07,2.694066E-08,-2.622604E-08
611.1208,-0.01462368,-6.547469E-09,NaN,-0.8147742,-1.334254E-07,NaN,-1.565175,-3.604692E-07,NaN,-1.616853,1.805205E-05,-0.1355107,1.858053E-08,NaN,NaN,-0.1354104,-2.328376E-11,-1.248124E-07,-1.112698E-07,2.217228E-08,-2.861022E-08
611.1354,-0.01462368,-6.547469E-09,NaN,-0.8147742,-1.334254E-07,NaN,-1.565175,-3.604692E-07,NaN,-1.616853,1.805205E-05,-0.1355107,1.858053E-08,NaN,NaN,-0.1354104,-2.328376E-11,-1.248124E-07,-1.112698E-07,2.217228E-08,-2.861022E-08
611.1496,-0.0146238,-6.546685E-09,NaN,-0.8149728,-1.334258E-07,NaN,-1.565113,-3.603701E-07,NaN,-1.618673,1.805255E-05,-0.1316355,1.839283E-08,NaN,NaN,-0.1350839,-1.862715E-11,-1.4627E-07,-1.112715E-07,2.694065E-08,-2.622604E-08
611.165,-0.01462379,-6.545901E-09,NaN,-0.8152246,-1.334262E-07,NaN,-1.565056,-3.602711E-07,NaN,-1.620789,1.805306E-05,-0.1278326,1.820635E-08,NaN,NaN,-0.1347639,-1.862715E-11,-1.625123E-07,-1.112731E-07,2.455647E-08,-2.861022E-08
611.1794,-0.01462379,-6.545901E-09,NaN,-0.8152246,-1.334262E-07,NaN,-1.565056,-3.602711E-07,NaN,-1.620789,1.805306E-05,-0.1278326,1.820635E-08,NaN,NaN,-0.1347639,-1.862715E-11,-1.625123E-07,-1.112731E-07,2.455647E-08,-2.861022E-08
611.1938,-0.0146237,-6.545117E-09,NaN,-0.815508,-1.334266E-07,NaN,-1.565001,-3.601721E-07,NaN,-1.623036,1.805357E-05,-0.1241019,1.802108E-08,NaN,NaN,-0.13445,-2.328376E-11,-1.759979E-07,-1.112748E-07,2.932484E-08,-2.622604E-08
611.2086,-0.01462356,-6.544333E-09,NaN,-0.8158097,-1.33427E-07,NaN,-1.564946,-3.600731E-07,NaN,-1.625333,1.805408E-05,-0.1204428,1.783701E-08,NaN,NaN,-0.1341424,-2.794037E-11,-1.879933E-07,-1.112764E-07,3.170903E-08,-2.861022E-08
611.2233,-0.01462325,-6.543549E-09,NaN,-0.8161907,-1.334274E-07,NaN,-1.564859,-3.599741E-07,NaN,-1.628212,1.805459E-05,-0.1153226,1.765414E-08,NaN,NaN,-0.1337115,-2.794037E-11,-2.079609E-07,-1.112781E-07,3.170903E-08,-2.622604E-08
611.2379,-0.01462325,-6.543549E-09,NaN,-0.8161907,-1.334274E-07,NaN,-1.564859,-3.599741E-07,NaN,-1.628212,1.805459E-05,-0.1153226,1.765414E-08,NaN,NaN,-0.1337115,-2.794037E-11,-2.079609E-07,-1.112781E-07,3.170903E-08,-2.622604E-08
