JMolnar6/NonAnthroHands_User_Study/HandsLoggerWithURDF/tempdata/files/Reachy_PID0_JointMotion_gesture_7_2.csv
Time,r_shoulder,r_shoulder_x,r_upper_arm,r_forearm,r_wrist,r_wrist2hand,
318.9722,-0.1038825,-0.3274182,0.4631788,-2.133963,-0.3543289,-0.01689264
318.9866,-0.1041708,-0.3274151,0.4632226,-2.134121,-0.3544007,-0.01695375
319.0009,-0.1044559,-0.327412,0.4632656,-2.134278,-0.3544711,-0.01701366
319.0155,-0.1044559,-0.327412,0.4632656,-2.134278,-0.3544711,-0.01701366
319.0298,-0.1047376,-0.327409,0.4633079,-2.134434,-0.3545401,-0.01707239
319.0449,-0.1050161,-0.327406,0.4633493,-2.134588,-0.3546078,-0.01712997
319.0594,-0.1050161,-0.327406,0.4633493,-2.134588,-0.3546078,-0.01712997
319.0735,-0.1052914,-0.327403,0.4633901,-2.134741,-0.3546742,-0.01718641
319.0887,-0.1055636,-0.3274,0.4634301,-2.134892,-0.3547392,-0.01724175
319.1035,-0.1058326,-0.3273971,0.4634694,-2.135042,-0.354803,-0.01729601
319.1181,-0.1058326,-0.3273971,0.4634694,-2.135042,-0.354803,-0.01729601
319.1324,-0.1060985,-0.3273942,0.4635079,-2.13519,-0.3548656,-0.0173492
319.1478,-0.1063613,-0.3273914,0.4635458,-2.135338,-0.3549269,-0.01740134
319.1625,-0.1066211,-0.3273885,0.4635829,-2.135484,-0.354987,-0.01745247
319.1772,-0.1066211,-0.3273885,0.4635829,-2.135484,-0.354987,-0.01745247
319.1912,-0.1068779,-0.3273857,0.4636194,-2.135628,-0.355046,-0.01750259
319.2067,-0.1071318,-0.327383,0.4636552,-2.135772,-0.3551038,-0.01755172
319.222,-0.1073827,-0.3273802,0.4636904,-2.135913,-0.3551605,-0.01759989
319.237,-0.1073827,-0.3273802,0.4636904,-2.135913,-0.3551605,-0.01759989
319.251,-0.1076308,-0.3273775,0.4637249,-2.136054,-0.3552161,-0.01764712
319.2652,-0.107876,-0.3273748,0.4637588,-2.136193,-0.3552706,-0.01769342
319.2797,-0.107876,-0.3273748,0.4637588,-2.136193,-0.3552706,-0.01769342
319.2937,-0.1081183,-0.3273722,0.463792,-2.136331,-0.3553241,-0.01773881
319.3091,-0.1083579,-0.3273695,0.4638246,-2.136468,-0.3553765,-0.01778331
319.3237,-0.1085947,-0.3273669,0.4638566,-2.136604,-0.3554279,-0.01782694
319.3382,-0.1085947,-0.3273669,0.4638566,-2.136604,-0.3554279,-0.01782694
319.3522,-0.1088288,-0.3273644,0.463888,-2.136738,-0.3554783,-0.01786971
319.3677,-0.1090602,-0.3273619,0.4639189,-2.136871,-0.3555277,-0.01791164
319.3825,-0.1092889,-0.3273593,0.4639491,-2.137002,-0.3555762,-0.01795275
319.3972,-0.1092889,-0.3273593,0.4639491,-2.137002,-0.3555762,-0.01795275
319.4112,-0.109515,-0.3273568,0.4639788,-2.137133,-0.3556237,-0.01799306
319.4269,-0.1097385,-0.3273543,0.4640079,-2.137262,-0.3556703,-0.01803257
319.4414,-0.1099594,-0.3273519,0.4640365,-2.13739,-0.355716,-0.0180713
319.4562,-0.1099594,-0.3273519,0.4640365,-2.13739,-0.355716,-0.0180713
319.4703,-0.1101778,-0.3273495,0.4640645,-2.137517,-0.3557608,-0.01810928
319.4874,-0.1103936,-0.3273471,0.464092,-2.137643,-0.3558048,-0.01814651
319.501,-0.110607,-0.3273447,0.4641189,-2.137767,-0.3558479,-0.018183
319.5149,-0.110607,-0.3273447,0.4641189,-2.137767,-0.3558479,-0.018183
319.5288,-0.1108179,-0.3273424,0.4641454,-2.13789,-0.3558902,-0.01821879
319.5442,-0.1110264,-0.3273401,0.4641713,-2.138012,-0.3559316,-0.01825387
319.5587,-0.1110264,-0.3273401,0.4641713,-2.138012,-0.3559316,-0.01825387
319.5724,-0.1112324,-0.3273378,0.4641967,-2.138133,-0.3559723,-0.01828826
319.5879,-0.1114361,-0.3273355,0.4642217,-2.138253,-0.3560121,-0.01832198
319.6026,-0.1116375,-0.3273333,0.4642462,-2.138371,-0.3560512,-0.01835504
319.6172,-0.1116375,-0.3273333,0.4642462,-2.138371,-0.3560512,-0.01835504
319.6313,-0.1118365,-0.327331,0.4642701,-2.138489,-0.3560896,-0.01838744
319.6467,-0.1120333,-0.3273288,0.4642937,-2.138605,-0.3561272,-0.01841921
319.6614,-0.1122278,-0.3273267,0.4643167,-2.13872,-0.356164,-0.01845036
319.676,-0.1122278,-0.3273267,0.4643167,-2.13872,-0.356164,-0.01845036
319.6902,-0.11242,-0.3273245,0.4643393,-2.138834,-0.3562002,-0.0184809
319.7056,-0.11261,-0.3273224,0.4643615,-2.138947,-0.3562357,-0.01851083
319.7202,-0.1127979,-0.3273203,0.4643832,-2.139059,-0.3562705,-0.01854018
319.7352,-0.1127979,-0.3273203,0.4643832,-2.139059,-0.3562705,-0.01854018
319.7489,-0.1129835,-0.3273182,0.4644046,-2.139169,-0.3563046,-0.01856895
319.7653,-0.1131671,-0.3273161,0.4644254,-2.139279,-0.3563381,-0.01859716
319.78,-0.1133485,-0.3273141,0.4644459,-2.139388,-0.3563709,-0.01862482
319.7936,-0.1133485,-0.3273141,0.4644459,-2.139388,-0.3563709,-0.01862482
319.8076,-0.1135278,-0.3273121,0.4644659,-2.139495,-0.3564031,-0.01865193
319.8227,-0.1137051,-0.3273101,0.4644856,-2.139601,-0.3564346,-0.01867851
319.8373,-0.1137051,-0.3273101,0.4644856,-2.139601,-0.3564346,-0.01867851
319.8512,-0.1138803,-0.3273081,0.4645048,-2.139707,-0.3564656,-0.01870457
319.8664,-0.1140535,-0.3273061,0.4645237,-2.139811,-0.3564959,-0.01873012
319.881,-0.1142247,-0.3273042,0.4645422,-2.139915,-0.3565257,-0.01875516
319.8957,-0.1142247,-0.3273042,0.4645422,-2.139915,-0.3565257,-0.01875516
319.9098,-0.1143939,-0.3273023,0.4645603,-2.140017,-0.356555,-0.01877971
319.9251,-0.1145612,-0.3273004,0.464578,-2.140118,-0.3565837,-0.01880379
319.9398,-0.1145612,-0.3273004,0.464578,-2.140118,-0.3565837,-0.01880379
319.9535,-0.1147266,-0.3272985,0.4645954,-2.140218,-0.3566118,-0.01882738
319.969,-0.11489,-0.3272966,0.4646124,-2.140317,-0.3566393,-0.01885052
319.9839,-0.1150516,-0.3272948,0.4646291,-2.140416,-0.3566664,-0.0188732
320.0007,-0.1144841,-0.3272906,0.4644749,-2.140898,-0.3566908,-0.01889516
320.0132,-0.1144841,-0.3272906,0.4644749,-2.140898,-0.3566908,-0.01889516
320.0273,-0.1134601,-0.3272853,0.4642486,-2.141494,-0.3567626,-0.01891675
320.0445,-0.1121533,-0.3272796,0.4640144,-2.142094,-0.3568541,-0.01893796
320.058,-0.1121533,-0.3272796,0.4640144,-2.142094,-0.3568541,-0.01893796
320.0727,-0.1114023,-0.3272762,0.4639665,-2.142276,-0.3569504,-0.01895906
320.0862,-0.1110041,-0.327274,0.4640111,-2.142305,-0.3569938,-0.0189797
320.1008,-0.1108296,-0.3272724,0.4640815,-2.142292,-0.3570106,-0.0189999
320.1154,-0.1108296,-0.3272724,0.4640815,-2.142292,-0.3570106,-0.0189999
320.1292,-0.1107966,-0.3272711,0.4641502,-2.14228,-0.3570195,-0.01901968
320.1445,-0.11158,-0.3272713,0.46438,-2.141895,-0.3570305,-0.01903933
320.1595,-0.11158,-0.3272713,0.46438,-2.141895,-0.3570305,-0.01903933
320.1729,-0.1128738,-0.3272718,0.4646724,-2.141412,-0.3569951,-0.01905854
320.1883,-0.1144834,-0.3272722,0.4649647,-2.140936,-0.3569413,-0.01907732
320.2028,-0.1162849,-0.3272723,0.465235,-2.1405,-0.3568865,-0.0190957
320.2175,-0.1162849,-0.3272723,0.465235,-2.1405,-0.3568865,-0.0190957
320.2315,-0.1189279,-0.3272742,0.4656512,-2.139723,-0.3568393,-0.01911399
320.2468,-0.1220893,-0.3272763,0.4661181,-2.138873,-0.3567497,-0.01913185
320.2618,-0.1255637,-0.3272777,0.4665757,-2.138049,-0.3566446,-0.0191493
320.2764,-0.1255637,-0.3272777,0.4665757,-2.138049,-0.3566446,-0.0191493
320.2904,-0.1299487,-0.3272808,0.4671746,-2.136897,-0.3565426,-0.01916664
320.3058,-0.1348882,-0.3272834,0.4678142,-2.13569,-0.3563991,-0.01918357
320.3203,-0.140156,-0.3272847,0.4684342,-2.134529,-0.3562428,-0.0192001
320.337,-0.140156,-0.3272847,0.4684342,-2.134529,-0.3562428,-0.0192001
320.351,-0.1456081,-0.3272851,0.4690157,-2.133444,-0.3560907,-0.01921627
320.3643,-0.1518818,-0.3272863,0.4697293,-2.132047,-0.3559481,-0.01923237
320.3788,-0.1518818,-0.3272863,0.4697293,-2.132047,-0.3559481,-0.01923237
320.3929,-0.1586459,-0.3272869,0.4704806,-2.130603,-0.3557667,-0.01924807
320.4081,-0.1656903,-0.3272868,0.4712111,-2.129209,-0.3555739,-0.01926341
320.4225,-0.1728815,-0.327286,0.4719021,-2.127893,-0.3553858,-0.0192784
320.4372,-0.1728815,-0.327286,0.4719021,-2.127893,-0.3553858,-0.0192784
320.4511,-0.1808632,-0.3272862,0.4727239,-2.126271,-0.3552053,-0.01929334
320.4669,-0.1893088,-0.3272857,0.4735804,-2.124606,-0.3549868,-0.01930791
320.4812,-0.1980108,-0.3272844,0.474413,-2.122998,-0.3547579,-0.01932212
320.4951,-0.1980108,-0.3272844,0.474413,-2.122998,-0.3547579,-0.01932212
320.5087,-0.2075659,-0.3272838,0.4753744,-2.121088,-0.3545308,-0.01933626
320.5231,-0.2176177,-0.3272822,0.4763618,-2.119151,-0.3542664,-0.01935003
320.5369,-0.2176177,-0.3272822,0.4763618,-2.119151,-0.3542664,-0.01935003
320.5502,-0.2279397,-0.3272797,0.4773163,-2.117286,-0.3539943,-0.01936347
320.5649,-0.2383885,-0.3272757,0.4782205,-2.11552,-0.3537299,-0.01937659
320.5793,-0.2383885,-0.3272757,0.4782205,-2.11552,-0.3537299,-0.01937659
320.5927,-0.2496015,-0.3272728,0.4792459,-2.113468,-0.3534727,-0.01938967
320.6077,-0.2612483,-0.3272687,0.4802954,-2.111393,-0.3531805,-0.0194024
320.6217,-0.2731191,-0.3272625,0.4813119,-2.10939,-0.3528812,-0.01941482
320.6362,-0.2731191,-0.3272625,0.4813119,-2.10939,-0.3528812,-0.01941482
320.65,-0.2858094,-0.3272568,0.4824494,-2.107104,-0.3525824,-0.01942717
320.665,-0.2989618,-0.3272491,0.4836036,-2.104806,-0.3522495,-0.01943919
320.6794,-0.2989618,-0.3272491,0.4836036,-2.104806,-0.3522495,-0.01943919
320.6932,-0.3123499,-0.3272389,0.4847169,-2.102594,-0.3519119,-0.0194509
320.7085,-0.32583,-0.3272263,0.4857729,-2.100495,-0.3515852,-0.01946233
320.7263,-0.3400397,-0.3272143,0.486944,-2.098125,-0.3512629,-0.01947371
320.7408,-0.3546489,-0.3272004,0.4881306,-2.095745,-0.3509091,-0.01948479
320.7539,-0.3546489,-0.3272004,0.4881306,-2.095745,-0.3509091,-0.01948479
320.7682,-0.3694479,-0.3271841,0.4892768,-2.093451,-0.3505519,-0.01949558
320.7823,-0.3843043,-0.3271657,0.4903663,-2.09127,-0.3502059,-0.0195061
320.7961,-0.3843043,-0.3271657,0.4903663,-2.09127,-0.3502059,-0.0195061
320.81,-0.3998629,-0.3271481,0.4915712,-2.088819,-0.3498616,-0.01951659
320.8253,-0.4157978,-0.3271287,0.4927894,-2.08636,-0.3494869,-0.01952678
320.8398,-0.4157978,-0.3271287,0.4927894,-2.08636,-0.3494869,-0.01952678
320.8539,-0.4319026,-0.3271069,0.4939655,-2.083989,-0.3491105,-0.01953669
320.8692,-0.448775,-0.3270854,0.4952549,-2.081353,-0.3487303,-0.01954656
320.8838,-0.4660594,-0.3270614,0.4965496,-2.078722,-0.3483217,-0.01955614
320.8986,-0.4660594,-0.3270614,0.4965496,-2.078722,-0.3483217,-0.01955614
320.9124,-0.4835304,-0.3270344,0.4977942,-2.076193,-0.3479142,-0.01956546
320.9279,-0.5010455,-0.3270048,0.4989741,-2.073793,-0.3475219,-0.01957455
320.9424,-0.5192431,-0.326976,0.5002622,-2.07114,-0.347129,-0.01958361
320.9569,-0.5192431,-0.326976,0.5002622,-2.07114,-0.347129,-0.01958361
320.9707,-0.5377937,-0.326945,0.5015547,-2.068493,-0.3467103,-0.01959239
320.9876,-0.5564885,-0.3269113,0.5027981,-2.065948,-0.3462941,-0.01960093
321.0022,-0.5751954,-0.3268754,0.5039783,-2.06353,-0.3458935,-0.01960926
321.0188,-0.5751954,-0.3268754,0.5039783,-2.06353,-0.3458935,-0.01960926
321.033,-0.59456,-0.3268406,0.5052673,-2.060859,-0.3454893,-0.01961755
321.047,-0.6142569,-0.3268038,0.5065592,-2.058196,-0.345061,-0.01962559
321.0608,-0.6340801,-0.3267644,0.5078012,-2.055635,-0.3446367,-0.01963341
321.0815,-0.6538997,-0.3267229,0.5089791,-2.053204,-0.344229,-0.01964103
321.0897,-0.6538997,-0.3267229,0.5089791,-2.053204,-0.344229,-0.01964103
321.1035,-0.6743622,-0.3266827,0.510265,-2.050524,-0.3438156,-0.01964861
321.1195,-0.6743622,-0.3266827,0.510265,-2.050524,-0.3438156,-0.01964861
321.1329,-0.6951432,-0.3266404,0.5115513,-2.047853,-0.3433802,-0.01965595
321.1482,-0.7160373,-0.3265957,0.5127861,-2.045288,-0.3429506,-0.01966309
321.1629,-0.7371359,-0.3265496,0.5140075,-2.042742,-0.3425306,-0.0196701
321.1776,-0.7371359,-0.3265496,0.5140075,-2.042742,-0.3425306,-0.0196701
321.1915,-0.7582747,-0.326502,0.5151824,-2.040294,-0.3421189,-0.01967691
321.2068,-0.7793502,-0.3264532,0.5162989,-2.037968,-0.3417236,-0.01968355
321.2213,-0.8002975,-0.3264039,0.5173575,-2.035766,-0.3413469,-0.01969003
321.236,-0.8002975,-0.3264039,0.5173575,-2.035766,-0.3413469,-0.01969003
321.2498,-0.8210766,-0.3263549,0.5183622,-2.03368,-0.3409884,-0.01969637
321.265,-0.8416629,-0.3263066,0.5193177,-2.031703,-0.3406467,-0.01970256
321.2798,-0.8416629,-0.3263066,0.5193177,-2.031703,-0.3406467,-0.01970256
321.2938,-0.8620418,-0.3262594,0.520228,-2.029825,-0.3403206,-0.0197086
321.3111,-0.8822051,-0.3262136,0.5210963,-2.028041,-0.340009,-0.0197145
321.3257,-0.9021485,-0.3261695,0.5219252,-2.026346,-0.339711,-0.01972027
321.3391,-0.9021485,-0.3261695,0.5219252,-2.026346,-0.339711,-0.01972027
321.353,-0.9218703,-0.3261271,0.5227167,-2.024736,-0.3394259,-0.01972591
321.3673,-0.9413702,-0.3260864,0.5234724,-2.023207,-0.3391532,-0.01973141
321.3818,-0.960649,-0.3260475,0.5241938,-2.021758,-0.3388925,-0.0197368
321.3965,-0.960649,-0.3260475,0.5241938,-2.021758,-0.3388925,-0.0197368
321.4102,-0.9797083,-0.3260105,0.5248821,-2.020385,-0.3386433,-0.01974206
321.4255,-0.9985497,-0.3259752,0.5255384,-2.019085,-0.3384055,-0.0197472
321.4401,-1.017175,-0.3259416,0.5261638,-2.017859,-0.3381785,-0.01975223
321.4548,-1.017175,-0.3259416,0.5261638,-2.017859,-0.3381785,-0.01975223
321.4686,-1.035588,-0.3259098,0.526759,-2.016702,-0.3379623,-0.01975714
321.4839,-1.053789,-0.3258796,0.5273252,-2.015614,-0.3377565,-0.01976195
321.4985,-1.053789,-0.3258796,0.5273252,-2.015614,-0.3377565,-0.01976195
321.5123,-1.071781,-0.325851,0.527863,-2.014593,-0.3375609,-0.01976665
321.5278,-1.089566,-0.325824,0.5283733,-2.013637,-0.3373752,-0.01977125
321.5422,-1.107147,-0.3257985,0.528857,-2.012745,-0.3371992,-0.01977574
321.5565,-1.107147,-0.3257985,0.528857,-2.012745,-0.3371992,-0.01977574
321.5705,-1.124526,-0.3257745,0.5293148,-2.011914,-0.3370326,-0.01978013
321.5858,-1.141706,-0.325752,0.5297473,-2.011145,-0.3368753,-0.01978442
321.6002,-1.158688,-0.3257308,0.5301554,-2.010434,-0.3367269,-0.01978863
321.6148,-1.158688,-0.3257308,0.5301554,-2.010434,-0.3367269,-0.01978863
321.6318,-1.175475,-0.325711,0.5305398,-2.009782,-0.3365874,-0.01979274
321.6458,-1.192069,-0.3256925,0.530901,-2.009185,-0.3364564,-0.01979676
321.6594,-1.192069,-0.3256925,0.530901,-2.009185,-0.3364564,-0.01979676
321.6733,-1.208472,-0.3256753,0.5312397,-2.008643,-0.3363337,-0.0198007
321.6873,-1.224687,-0.3256593,0.5315566,-2.008155,-0.3362191,-0.01980455
321.7019,-1.240716,-0.3256445,0.5318524,-2.007719,-0.3361125,-0.01980831
321.7164,-1.240716,-0.3256445,0.5318524,-2.007719,-0.3361125,-0.01980831
321.7302,-1.25656,-0.3256309,0.5321275,-2.007334,-0.3360136,-0.019812
321.7454,-1.272001,-0.3256176,0.5323316,-2.007112,-0.3359332,-0.01981558
321.7599,-1.272001,-0.3256176,0.5323316,-2.007112,-0.3359332,-0.01981558
321.7737,-1.287124,-0.3256058,0.5325011,-2.006971,-0.3358703,-0.0198191
321.7888,-1.301984,-0.3255955,0.5326524,-2.00688,-0.3358164,-0.01982255
321.8034,-1.316616,-0.3255869,0.5327908,-2.006824,-0.3357683,-0.01982593
321.8221,-1.330316,-0.3255774,0.5327493,-2.007177,-0.3357613,-0.01982916
321.8323,-1.330316,-0.3255774,0.5327493,-2.007177,-0.3357613,-0.01982916
321.8463,-1.343372,-0.32557,0.5326456,-2.007673,-0.335792,-0.01983236
321.8614,-1.355969,-0.3255655,0.5325317,-2.008207,-0.3358338,-0.01983552
321.8758,-1.355969,-0.3255655,0.5325317,-2.008207,-0.3358338,-0.01983552
321.8896,-1.367496,-0.3255614,0.5322545,-2.009119,-0.3359127,-0.01983853
321.9048,-1.378302,-0.3255598,0.5319332,-2.010137,-0.336023,-0.01984153
321.9193,-1.378302,-0.3255598,0.5319332,-2.010137,-0.336023,-0.01984153
321.9331,-1.388609,-0.3255599,0.5316179,-2.011159,-0.3361382,-0.01984448
321.9485,-1.39856,-0.3255613,0.5313204,-2.012155,-0.3362491,-0.01984738
321.9629,-1.407516,-0.3255621,0.5308712,-2.013497,-0.3363899,-0.01985013
321.9794,-1.407516,-0.3255621,0.5308712,-2.013497,-0.3363899,-0.01985013
321.9933,-1.41581,-0.3255639,0.5303838,-2.014928,-0.3365592,-0.01985287
322.0073,-1.423653,-0.3255668,0.5299062,-2.01635,-0.336732,-0.01985557
322.0215,-1.431178,-0.3255712,0.5294502,-2.017735,-0.3368996,-0.01985822
322.0352,-1.431178,-0.3255712,0.5294502,-2.017735,-0.3368996,-0.01985822
322.0492,-1.437744,-0.3255749,0.5288461,-2.019457,-0.3370942,-0.01986072
322.0643,-1.44368,-0.3255801,0.5282069,-2.021257,-0.337317,-0.01986322
322.0786,-1.44368,-0.3255801,0.5282069,-2.021257,-0.337317,-0.01986322
322.0925,-1.449195,-0.3255874,0.5275816,-2.023038,-0.3375424,-0.01986568
322.1078,-1.453693,-0.3255943,0.5268131,-2.025147,-0.3377935,-0.019868
322.122,-1.457532,-0.3256026,0.5260178,-2.027317,-0.3380708,-0.01987032
322.1366,-1.457532,-0.3256026,0.5260178,-2.027317,-0.3380708,-0.01987032
322.1542,-1.460942,-0.3256126,0.5252445,-2.029449,-0.338348,-0.01987262
322.1687,-1.464066,-0.3256243,0.5245047,-2.031516,-0.3386157,-0.01987487
322.1802,-1.46627,-0.3256348,0.5236267,-2.033894,-0.3389027,-0.01987696
322.1945,-1.46627,-0.3256348,0.5236267,-2.033894,-0.3389027,-0.01987696
322.2085,-1.467886,-0.3256457,0.5227219,-2.036325,-0.3392157,-0.01987906
322.2237,-1.469125,-0.3256572,0.5218392,-2.038713,-0.3395289,-0.01988113
322.2381,-1.469125,-0.3256572,0.5218392,-2.038713,-0.3395289,-0.01988113
322.2522,-1.469393,-0.325667,0.5208211,-2.041409,-0.3398606,-0.01988305
322.2672,-1.469051,-0.3256764,0.5197824,-2.044143,-0.3402174,-0.01988498
322.2815,-1.468326,-0.3256858,0.5187728,-2.046819,-0.3405722,-0.01988688
322.2961,-1.468326,-0.3256858,0.5187728,-2.046819,-0.3405722,-0.01988688
322.3099,-1.467364,-0.3256953,0.5178038,-2.04941,-0.3409152,-0.01988875
322.3251,-1.465528,-0.3257027,0.5167032,-2.052294,-0.3412699,-0.01989045
322.3416,-1.463151,-0.3257088,0.5155801,-2.055213,-0.3416499,-0.01989216
322.3549,-1.463151,-0.3257088,0.5155801,-2.055213,-0.3416499,-0.01989216
322.3689,-1.460441,-0.3257142,0.5144847,-2.058072,-0.342029,-0.01989386
322.3831,-1.457536,-0.3257192,0.5134299,-2.060843,-0.3423966,-0.01989553
322.3976,-1.457536,-0.3257192,0.5134299,-2.060843,-0.3423966,-0.01989553
322.4113,-1.45379,-0.3257216,0.512244,-2.063904,-0.342772,-0.01989701
322.4266,-1.449531,-0.3257229,0.5110351,-2.066997,-0.3431739,-0.01989851
322.441,-1.444968,-0.3257237,0.5098552,-2.070024,-0.3435754,-0.0199
322.4555,-1.444968,-0.3257237,0.5098552,-2.070024,-0.3435754,-0.0199
322.4694,-1.439503,-0.3257231,0.5085471,-2.073337,-0.3439842,-0.01990131
322.4846,-1.433495,-0.3257214,0.507222,-2.076667,-0.3444184,-0.01990263
322.4992,-1.433495,-0.3257214,0.507222,-2.076667,-0.3444184,-0.01990263
322.5129,-1.42717,-0.3257189,0.5059326,-2.079916,-0.3448505,-0.01990395
322.5283,-1.420672,-0.3257159,0.5046918,-2.083057,-0.3452686,-0.01990524
322.5428,-1.413365,-0.3257101,0.5033274,-2.08647,-0.3456849,-0.01990633
322.5572,-1.413365,-0.3257101,0.5033274,-2.08647,-0.3456849,-0.01990633
322.571,-1.405578,-0.3257023,0.5019433,-2.089896,-0.3461271,-0.01990744
322.5863,-1.397523,-0.325693,0.5005926,-2.093241,-0.3465685,-0.01990854
322.6006,-1.389333,-0.3256827,0.4992898,-2.096478,-0.3469967,-0.01990964
322.6152,-1.389333,-0.3256827,0.4992898,-2.096478,-0.3469967,-0.01990964
322.6289,-1.380363,-0.3256695,0.4978635,-2.099985,-0.3474187,-0.0199105
322.6442,-1.370942,-0.3256539,0.4964159,-2.103504,-0.3478677,-0.01991139
322.6587,-1.370942,-0.3256539,0.4964159,-2.103504,-0.3478677,-0.01991139
322.6722,-1.361274,-0.3256365,0.4950017,-2.106938,-0.3483171,-0.01991229
322.6895,-1.350766,-0.3256156,0.4934665,-2.11064,-0.3487597,-0.01991296
322.7038,-1.339771,-0.3255917,0.4919149,-2.11434,-0.3492292,-0.01991365
322.7173,-1.339771,-0.3255917,0.4919149,-2.11434,-0.3492292,-0.01991365
322.7311,-1.328517,-0.3255655,0.490403,-2.117941,-0.3496979,-0.01991436
322.7452,-1.317147,-0.3255378,0.488946,-2.121415,-0.3501518,-0.01991507
322.7597,-1.317147,-0.3255378,0.488946,-2.121415,-0.3501518,-0.01991507
322.7735,-1.305023,-0.325507,0.4873727,-2.125147,-0.3505886,-0.01991551
322.7887,-1.292476,-0.3254732,0.4857799,-2.128875,-0.3510524,-0.01991599
322.8031,-1.279716,-0.3254374,0.4842234,-2.132505,-0.3515172,-0.01991648
322.8173,-1.279716,-0.3254374,0.4842234,-2.132505,-0.3515172,-0.01991648
322.8315,-1.266146,-0.3253978,0.4825509,-2.136392,-0.3519656,-0.01991671
322.8467,-1.252124,-0.3253548,0.4808622,-2.140266,-0.3524416,-0.01991698
322.8613,-1.237876,-0.3253092,0.4792149,-2.14403,-0.3529183,-0.01991728
322.8758,-1.237876,-0.3253092,0.4792149,-2.14403,-0.3529183,-0.01991728
322.8896,-1.223546,-0.3252618,0.4776258,-2.147657,-0.3533804,-0.01991758
322.905,-1.208496,-0.3252113,0.4759259,-2.151531,-0.353815,-0.01991758
322.9193,-1.208496,-0.3252113,0.4759259,-2.151531,-0.353815,-0.01991758
322.9331,-1.193056,-0.3251577,0.4742056,-2.155394,-0.354277,-0.01991762
322.9483,-1.177436,-0.3251018,0.4725228,-2.159148,-0.3547419,-0.0199177
322.9628,-1.161767,-0.3250445,0.4708959,-2.162767,-0.355194,-0.01991779
322.9774,-1.161767,-0.3250445,0.4708959,-2.162767,-0.355194,-0.01991779
322.9912,-1.145405,-0.3249843,0.4691582,-2.166637,-0.3556139,-0.01991756
323.0064,-1.128677,-0.3249213,0.4673974,-2.170494,-0.3560626,-0.01991736
323.0209,-1.111787,-0.324856,0.4656725,-2.174241,-0.3565161,-0.01991721
323.0351,-1.111787,-0.324856,0.4656725,-2.174241,-0.3565161,-0.01991721
323.0513,-1.094138,-0.3247871,0.4638372,-2.178238,-0.3569394,-0.01991674
323.0654,-1.076087,-0.3247145,0.4619825,-2.182211,-0.3573924,-0.01991632
323.0798,-1.076087,-0.3247145,0.4619825,-2.182211,-0.3573924,-0.01991632
323.0938,-1.057857,-0.3246392,0.4601668,-2.186,-0.3578553,-0.01991588
323.1082,-1.039592,-0.3245622,0.458361,-2.188242,-0.3584206,-0.01991399
323.1223,-1.020652,-0.3244822,0.4564373,-2.189265,-0.3589976,-0.01991136
323.1366,-1.020652,-0.3244822,0.4564373,-2.189265,-0.3589976,-0.01991136
323.1506,-1.001368,-0.3243991,0.4544979,-2.189229,-0.3596099,-0.01990893
323.1658,-0.9819477,-0.3243137,0.4526131,-2.188629,-0.3602072,-0.01990699
323.1804,-0.9625232,-0.3242271,0.4508059,-2.187925,-0.3607655,-0.01990557
323.1954,-0.9625232,-0.3242271,0.4508059,-2.187925,-0.3607655,-0.01990557
323.209,-0.9424493,-0.324138,0.4489093,-2.18777,-0.3612635,-0.01990416
323.2242,-0.9220511,-0.324046,0.4469951,-2.187827,-0.3617952,-0.01990286
323.2388,-0.9220511,-0.324046,0.4469951,-2.187827,-0.3617952,-0.01990286
323.2526,-0.9015342,-0.323952,0.4451235,-2.187883,-0.3623453,-0.0199016
323.2683,-0.8803008,-0.3238547,0.4431534,-2.188246,-0.3628726,-0.01990004
323.2827,-0.8587055,-0.3237537,0.4411706,-2.188504,-0.3634467,-0.01989846
323.2968,-0.8587055,-0.3237537,0.4411706,-2.188504,-0.3634467,-0.01989846
323.3109,-0.8369731,-0.3236499,0.4392399,-2.188531,-0.3640373,-0.01989694
323.3264,-0.8152452,-0.3235447,0.4373858,-2.188374,-0.3646174,-0.01989558
323.3408,-0.7928834,-0.3234369,0.435445,-2.188525,-0.3651557,-0.01989402
323.3549,-0.7928834,-0.3234369,0.435445,-2.188525,-0.3651557,-0.01989402
323.3691,-0.7702165,-0.3233262,0.4334935,-2.188654,-0.3657303,-0.01989252
323.3861,-0.7474525,-0.3232134,0.4315916,-2.188642,-0.3663183,-0.01989111
323.3996,-0.7474525,-0.3232134,0.4315916,-2.188642,-0.3663183,-0.01989111
323.4135,-0.723995,-0.3230973,0.429597,-2.188895,-0.3668786,-0.01988947
323.4279,-0.7001996,-0.3229776,0.4275949,-2.189059,-0.3674794,-0.01988787
323.4424,-0.6762912,-0.3228552,0.4256485,-2.189032,-0.3680924,-0.01988637
323.4569,-0.6762912,-0.3228552,0.4256485,-2.189032,-0.3680924,-0.01988637
323.4708,-0.6524116,-0.3227314,0.4237812,-2.188856,-0.3686931,-0.01988504
323.4862,-0.6280946,-0.322606,0.4218682,-2.188917,-0.3692581,-0.01988359
323.5006,-0.6036043,-0.3224787,0.4199668,-2.18897,-0.3698449,-0.01988221
323.5154,-0.6036043,-0.3224787,0.4199668,-2.18897,-0.3698449,-0.01988221
323.5293,-0.5791073,-0.3223507,0.4181212,-2.188924,-0.3704363,-0.01988094
323.5446,-0.5547088,-0.3222229,0.4163477,-2.188787,-0.3710158,-0.01987979
323.5593,-0.5547088,-0.3222229,0.4163477,-2.188787,-0.3710158,-0.01987979
323.5728,-0.5304744,-0.3220966,0.4146475,-2.188607,-0.3715758,-0.01987877
323.5882,-0.5064445,-0.3219727,0.413016,-2.18843,-0.3721151,-0.01987788
323.6028,-0.482644,-0.3218522,0.4114474,-2.18828,-0.3726355,-0.0198771
323.6171,-0.482644,-0.3218522,0.4114474,-2.18828,-0.3726355,-0.0198771
323.6313,-0.4590875,-0.3217355,0.4099365,-2.188161,-0.3731396,-0.01987641
323.6465,-0.4357831,-0.3216231,0.4084794,-2.188066,-0.3736293,-0.01987579
323.6613,-0.412735,-0.3215152,0.4070731,-2.187985,-0.3741062,-0.01987524
323.6754,-0.412735,-0.3215152,0.4070731,-2.187985,-0.3741062,-0.01987524
323.6924,-0.3899448,-0.321412,0.4057153,-2.187908,-0.3745709,-0.01987474
323.7054,-0.3674121,-0.3213136,0.4044042,-2.18783,-0.3750238,-0.01987429
323.72,-0.345136,-0.3212199,0.4031383,-2.18775,-0.3754648,-0.01987391
323.7336,-0.345136,-0.3212199,0.4031383,-2.18775,-0.3754648,-0.01987391
323.7475,-0.3231145,-0.321131,0.4019164,-2.187668,-0.3758942,-0.01987358
323.7627,-0.3013456,-0.3210467,0.4007373,-2.187587,-0.3763121,-0.01987332
323.7773,-0.3013456,-0.3210467,0.4007373,-2.187587,-0.3763121,-0.01987332
323.7912,-0.2862003,-0.3209876,0.4010619,-2.184031,-0.3768168,-0.01987632
323.8064,-0.2752853,-0.3209621,0.4021526,-2.180719,-0.3767702,-0.01988045
323.8209,-0.2670779,-0.3209642,0.4033959,-2.178634,-0.376456,-0.01988436
323.8355,-0.2670779,-0.3209642,0.4033959,-2.178634,-0.376456,-0.01988436
323.8495,-0.260609,-0.3209842,0.4045291,-2.17738,-0.3761195,-0.01988744
323.8648,-0.2552613,-0.3210173,0.4055108,-2.176681,-0.3758249,-0.01989011
323.8795,-0.2552613,-0.3210173,0.4055108,-2.176681,-0.3758249,-0.01989011
323.8933,-0.2506416,-0.321059,0.4063625,-2.176346,-0.3755786,-0.01989257
323.9087,-0.2464993,-0.3211064,0.4071168,-2.176246,-0.3753715,-0.0198949
323.9233,-0.2427129,-0.3337619,0.4068659,-2.179401,-0.3790187,-0.01990593
323.9377,-0.2427129,-0.3337619,0.4068659,-2.179401,-0.3790187,-0.01990593
323.9517,-0.2392519,-0.3540351,0.4073019,-2.183417,-0.3824091,-0.01991535
323.9672,-0.2360486,-0.3788694,0.4081256,-2.186914,-0.3852363,-0.01992225
323.9817,-0.2330364,-0.4063851,0.4090266,-2.188632,-0.3877377,-0.01992661
323.9963,-0.2330364,-0.4063851,0.4090266,-2.188632,-0.3877377,-0.01992661
324.0122,-0.2301591,-0.4346671,0.4099995,-2.188537,-0.3897369,-0.01992955
324.0265,-0.2273756,-0.4632943,0.4109314,-2.187561,-0.3915053,-0.01993271
324.0403,-0.2246599,-0.4920049,0.4118263,-2.186485,-0.3931032,-0.01993639
324.0551,-0.2246599,-0.4920049,0.4118263,-2.186485,-0.3931032,-0.01993639
324.0691,-0.2219921,-0.5198746,0.4127458,-2.185536,-0.3943303,-0.01993982
324.0839,-0.21936,-0.5471026,0.4135771,-2.185006,-0.3954818,-0.01994353
324.0986,-0.21936,-0.5471026,0.4135771,-2.185006,-0.3954818,-0.01994353
324.1127,-0.2167577,-0.5738126,0.414334,-2.184868,-0.3966146,-0.01994731
324.1281,-0.2141823,-0.6000821,0.4150392,-2.184957,-0.3977375,-0.01995096
324.1429,-0.2116282,-0.6251984,0.4157718,-2.184917,-0.3986056,-0.01995386
324.1573,-0.2116282,-0.6251984,0.4157718,-2.184917,-0.3986056,-0.01995386
324.1713,-0.2090929,-0.6494932,0.41644,-2.184855,-0.3994612,-0.01995678
324.1869,-0.2065763,-0.6731727,0.4170676,-2.184814,-0.4003214,-0.01995974
324.2014,-0.2040797,-0.6963658,0.4176763,-2.184797,-0.4011727,-0.01996268
324.2172,-0.2040797,-0.6963658,0.4176763,-2.184797,-0.4011727,-0.01996268
324.2305,-0.2015989,-0.7183921,0.4183367,-2.184598,-0.4017637,-0.019965
324.2455,-0.1991326,-0.7396035,0.4189471,-2.184417,-0.4023395,-0.01996744
324.2602,-0.1966817,-0.7602186,0.4195238,-2.184323,-0.4029227,-0.01996997
324.2747,-0.1966817,-0.7602186,0.4195238,-2.184323,-0.4029227,-0.01996997
324.2908,-0.1942424,-0.7796122,0.4201436,-2.184115,-0.4032647,-0.01997195
324.3051,-0.1918135,-0.7981709,0.4207094,-2.183967,-0.4036085,-0.01997405
324.3188,-0.1918135,-0.7981709,0.4207094,-2.183967,-0.4036085,-0.01997405
324.3329,-0.1893969,-0.8161342,0.4212404,-2.183919,-0.4039736,-0.01997625
324.348,-0.186995,-0.8336512,0.4217561,-2.183941,-0.4043482,-0.01997843
324.3632,-0.1846036,-0.8500534,0.4223247,-2.183794,-0.4044821,-0.01997999
324.3776,-0.1846036,-0.8500534,0.4223247,-2.183794,-0.4044821,-0.01997999
324.3916,-0.1822211,-0.865701,0.4228445,-2.183656,-0.4046187,-0.01998166
324.407,-0.1798495,-0.8808171,0.4233327,-2.183593,-0.4047782,-0.01998345
324.4214,-0.1774912,-0.8955398,0.4238077,-2.183593,-0.4049495,-0.01998524
324.4361,-0.1774912,-0.8955398,0.4238077,-2.183593,-0.4049495,-0.01998524
324.4501,-0.1751418,-0.9091937,0.4243363,-2.18343,-0.4048843,-0.01998644
324.4656,-0.1727992,-0.9221352,0.4248157,-2.183287,-0.4048272,-0.01998777
324.4801,-0.1704655,-0.9345842,0.4252634,-2.183227,-0.4047989,-0.01998922
324.4949,-0.1704655,-0.9345842,0.4252634,-2.183227,-0.4047989,-0.01998922
324.5089,-0.1681362,-0.9459151,0.4257553,-2.183042,-0.4045509,-0.01999014
324.5243,-0.1658098,-0.9565154,0.4261942,-2.18291,-0.4043245,-0.01999123
324.5387,-0.1658098,-0.9565154,0.4261942,-2.18291,-0.4043245,-0.01999123
324.5526,-0.1634892,-0.9666236,0.4266005,-2.182876,-0.4041378,-0.01999244
324.569,-0.1611782,-0.9763871,0.4269944,-2.182911,-0.4039775,-0.01999365
324.5828,-0.1588725,-0.9851354,0.4274427,-2.182775,-0.4035947,-0.01999428
324.5973,-0.1588725,-0.9851354,0.4274427,-2.182775,-0.4035947,-0.01999428
324.6113,-0.15657,-0.9932285,0.4278426,-2.182651,-0.4032321,-0.01999506
324.6269,-0.1542733,-1.000888,0.4282122,-2.182602,-0.4029092,-0.01999597
324.6414,-0.1519864,-1.00825,0.4285709,-2.182617,-0.4026137,-0.01999691
324.6563,-0.1519864,-1.00825,0.4285709,-2.182617,-0.4026137,-0.01999691
324.6701,-0.1497049,-1.014636,0.428984,-2.182467,-0.4020984,-0.01999729
324.6856,-0.147426,-1.020404,0.4293486,-2.182337,-0.4016071,-0.01999782
324.7003,-0.1451526,-1.025771,0.4296826,-2.182289,-0.4011595,-0.01999849
324.7151,-0.1451526,-1.025771,0.4296826,-2.182289,-0.4011595,-0.01999849
324.7292,-0.1428807,-1.030109,0.4300615,-2.182115,-0.400508,-0.01999866
324.7445,-0.1406083,-1.033807,0.4303882,-2.181995,-0.3998928,-0.01999902
324.7591,-0.1406083,-1.033807,0.4303882,-2.181995,-0.3998928,-0.01999902
324.7729,-0.138339,-1.037099,0.4306832,-2.181957,-0.3993323,-0.01999949
324.7884,-0.1360781,-1.040133,0.4309685,-2.181972,-0.3988113,-0.02
324.8031,-0.1338221,-1.042235,0.4313109,-2.181822,-0.398079,-0.01999996
324.8174,-0.1338221,-1.042235,0.4313109,-2.181822,-0.398079,-0.01999996
324.8337,-0.1315682,-1.043765,0.4316041,-2.181643,-0.3973838,-0.02000004
324.8472,-0.12932,-1.044942,0.4318679,-2.181479,-0.3967434,-0.02000022
324.8619,-0.1270823,-1.045901,0.4321239,-2.18134,-0.3961414,-0.02000046
324.8768,-0.1270823,-1.045901,0.4321239,-2.18134,-0.3961414,-0.02000046
324.8904,-0.1248514,-1.045963,0.4324373,-2.181023,-0.3953297,-0.02000018
324.9057,-0.1226245,-1.045485,0.4327015,-2.180673,-0.3945585,-0.02000002
324.9202,-0.1204198,-1.044682,0.4329471,-2.180335,-0.393841,-0.01999998
324.9351,-0.1204198,-1.044682,0.4329471,-2.180335,-0.393841,-0.01999998
324.9491,-0.1182383,-1.042924,0.4332496,-2.17982,-0.3929276,-0.01999946
324.9644,-0.1161009,-1.040598,0.433523,-2.179271,-0.3920579,-0.01999907
324.979,-0.1161009,-1.040598,0.433523,-2.179271,-0.3920579,-0.01999907
324.9931,-0.1140114,-1.037938,0.4337844,-2.17874,-0.3912456,-0.01999881
325.0084,-0.1119668,-1.035088,0.4340472,-2.178239,-0.3904754,-0.01999861
325.0231,-0.1099542,-1.031373,0.4343681,-2.17757,-0.3895044,-0.01999791
325.0376,-0.1099542,-1.031373,0.4343681,-2.17757,-0.3895044,-0.01999791
325.0517,-0.1079866,-1.027152,0.4346552,-2.17687,-0.3885761,-0.01999733
325.0672,-0.1060641,-1.022642,0.4349242,-2.17619,-0.3877068,-0.01999689
325.0817,-0.1041825,-1.017975,0.4351896,-2.175544,-0.3868822,-0.01999651
325.0987,-0.1041825,-1.017975,0.4351896,-2.175544,-0.3868822,-0.01999651
325.1125,-0.1023284,-1.012473,0.4355081,-2.174732,-0.3858628,-0.01999566
325.1271,-0.1005141,-1.006487,0.4357897,-2.173892,-0.3848899,-0.01999494
325.1403,-0.0987398,-1.000233,0.4360511,-2.173076,-0.3839788,-0.01999436
325.1549,-0.0987398,-1.000233,0.4360511,-2.173076,-0.3839788,-0.01999436
325.1691,-0.09699344,-0.9930822,0.4363575,-2.172098,-0.3828903,-0.01999335
325.1845,-0.09528641,-0.9854174,0.4366248,-2.171101,-0.3818585,-0.01999249
325.1991,-0.09528641,-0.9854174,0.4366248,-2.171101,-0.3818585,-0.01999249
325.2132,-0.09361799,-0.9774731,0.4368717,-2.170136,-0.3808952,-0.01999179
325.2287,-0.09198372,-0.9693925,0.4371136,-2.169216,-0.3799842,-0.01999117
325.2435,-0.09037107,-0.9605012,0.4374042,-2.16814,-0.3788922,-0.01999011
325.258,-0.09037107,-0.9605012,0.4374042,-2.16814,-0.3788922,-0.01999011
325.2724,-0.08879083,-0.9511557,0.4376566,-2.167046,-0.377854,-0.0199892
325.2874,-0.08724293,-0.9415737,0.4378877,-2.165983,-0.3768832,-0.01998843
325.3019,-0.08572392,-0.9318883,0.4381128,-2.164966,-0.3759649,-0.01998775
325.3169,-0.08572392,-0.9318883,0.4381128,-2.164966,-0.3759649,-0.01998775
325.3308,-0.08422256,-0.9214192,0.4383837,-2.163794,-0.374871,-0.01998665
325.3462,-0.08274923,-0.9105184,0.4386156,-2.162605,-0.3738329,-0.01998571
325.3612,-0.08130422,-0.8994011,0.4388258,-2.16145,-0.3728634,-0.0199849
325.3774,-0.08130422,-0.8994011,0.4388258,-2.16145,-0.3728634,-0.0199849
325.3904,-0.07988466,-0.8881991,0.4390297,-2.160343,-0.3719477,-0.0199842
325.4049,-0.07848721,-0.8769929,0.4392331,-2.159282,-0.371074,-0.01998355
325.4193,-0.07848721,-0.8769929,0.4392331,-2.159282,-0.371074,-0.01998355
325.4335,-0.07710908,-0.865832,0.4394374,-2.158264,-0.3702354,-0.01998295
325.4488,-0.07574819,-0.8547464,0.4396421,-2.157282,-0.3694275,-0.01998239
325.4637,-0.07440975,-0.844516,0.4398039,-2.156532,-0.368856,-0.01998231
325.4782,-0.07440975,-0.844516,0.4398039,-2.156532,-0.368856,-0.01998231
325.4923,-0.0730814,-0.8348507,0.4400047,-2.155867,-0.3682882,-0.01998216
325.5078,-0.07175995,-0.825572,0.4402256,-2.155227,-0.3677078,-0.01998192
325.5222,-0.07044566,-0.8165697,0.4404507,-2.154595,-0.3671255,-0.01998165
325.5368,-0.07044566,-0.8165697,0.4404507,-2.154595,-0.3671255,-0.01998165
325.551,-0.06914617,-0.8085371,0.4406317,-2.154165,-0.3667554,-0.01998183
325.5664,-0.06785265,-0.8011314,0.4408479,-2.153795,-0.3663748,-0.01998191
325.581,-0.06656372,-0.7941411,0.4410812,-2.153432,-0.3659712,-0.01998191
325.5957,-0.06656372,-0.7941411,0.4410812,-2.153432,-0.3659712,-0.01998191
325.6096,-0.06528678,-0.7881969,0.4412752,-2.15326,-0.3657616,-0.0199823
325.6248,-0.06401424,-0.782918,0.4415047,-2.153135,-0.3655299,-0.01998257
325.6417,-0.06274532,-0.778069,0.44175,-2.153003,-0.365267,-0.01998273
325.6554,-0.06274532,-0.778069,0.44175,-2.153003,-0.365267,-0.01998273
325.6696,-0.06148161,-0.7735043,0.4419961,-2.152851,-0.3649872,-0.01998285
325.6837,-0.06023125,-0.7698954,0.4421963,-2.152881,-0.3649049,-0.0199834
325.6982,-0.06023125,-0.7698954,0.4421963,-2.152881,-0.3649049,-0.0199834
325.7123,-0.05898739,-0.7668868,0.4424303,-2.152952,-0.3648012,-0.01998383
325.7278,-0.057749,-0.7642587,0.4426802,-2.153015,-0.3646646,-0.01998415
325.7424,-0.05651724,-0.7618751,0.4429314,-2.153054,-0.3645085,-0.01998442
325.7573,-0.05651724,-0.7618751,0.4429314,-2.153054,-0.3645085,-0.01998442
325.7711,-0.05529969,-0.7604134,0.4431373,-2.153273,-0.3645465,-0.01998511
325.7865,-0.0540897,-0.7595223,0.4433775,-2.15353,-0.3645599,-0.01998569
325.8014,-0.05288601,-0.7589844,0.443634,-2.153774,-0.3645369,-0.01998615
325.816,-0.05288601,-0.7589844,0.443634,-2.153774,-0.3645369,-0.01998615
325.8301,-0.05169525,-0.7594211,0.4438512,-2.15419,-0.3646933,-0.01998699
325.8455,-0.05051587,-0.7604577,0.4441054,-2.154635,-0.3648174,-0.0199877
325.8602,-0.04935095,-0.7618571,0.4443798,-2.155054,-0.3648978,-0.01998829
325.8749,-0.04935095,-0.7618571,0.4443798,-2.155054,-0.3648978,-0.01998829
325.8885,-0.04820136,-0.7634725,0.4446581,-2.155436,-0.3649489,-0.01998881
325.9063,-0.04707291,-0.7659749,0.444891,-2.155985,-0.3651879,-0.01998974
325.9196,-0.04707291,-0.7659749,0.444891,-2.155985,-0.3651879,-0.01998974
325.9338,-0.045965,-0.7690096,0.4451622,-2.156558,-0.3653948,-0.01999054
325.9481,-0.04487588,-0.7723573,0.4454532,-2.157104,-0.3655574,-0.01999122
325.9628,-0.0438037,-0.775882,0.4457476,-2.157614,-0.3656896,-0.01999182
325.9775,-0.0438037,-0.775882,0.4457476,-2.157614,-0.3656896,-0.01999182
325.9916,-0.04275285,-0.7802613,0.445995,-2.158289,-0.3660103,-0.01999284
326.007,-0.04172154,-0.7851452,0.4462803,-2.158988,-0.3662974,-0.01999373
326.0215,-0.04070752,-0.790317,0.4465853,-2.15966,-0.3665382,-0.01999449
326.0364,-0.04070752,-0.790317,0.4465853,-2.15966,-0.3665382,-0.01999449
326.0506,-0.03971492,-0.7964042,0.4468494,-2.160494,-0.3669562,-0.01999564
326.0659,-0.03874125,-0.803026,0.4471532,-2.161343,-0.3673325,-0.01999663
326.0804,-0.03778395,-0.8099464,0.4474765,-2.162156,-0.3676566,-0.01999749
326.0952,-0.03778395,-0.8099464,0.4474765,-2.162156,-0.3676566,-0.01999749
326.1091,-0.03684089,-0.8170192,0.4478025,-2.162922,-0.3679434,-0.01999826
326.1246,-0.0359168,-0.8249159,0.4480783,-2.163846,-0.368418,-0.01999945
326.139,-0.0359168,-0.8249159,0.4480783,-2.163846,-0.368418,-0.01999945
326.1529,-0.0350092,-0.8332833,0.4483917,-2.164786,-0.3688549,-0.0200005
326.1683,-0.03411578,-0.8419024,0.448725,-2.16569,-0.3692402,-0.02000142
326.1841,-0.03323472,-0.8506376,0.4490618,-2.166547,-0.3695874,-0.02000225
326.1979,-0.03323472,-0.8506376,0.4490618,-2.166547,-0.3695874,-0.02000225
326.2117,-0.03237135,-0.8601668,0.4493477,-2.167562,-0.3701245,-0.0200035
326.2272,-0.03152298,-0.8701413,0.4496722,-2.168592,-0.3706229,-0.02000462
326.2418,-0.03068735,-0.8803449,0.4500176,-2.169586,-0.3710676,-0.02000559
326.2563,-0.03068735,-0.8803449,0.4500176,-2.169586,-0.3710676,-0.02000559
326.2704,-0.02986972,-0.8914053,0.4503185,-2.170734,-0.3716918,-0.02000696
326.2871,-0.02906674,-0.902943,0.4506603,-2.17189,-0.3722692,-0.02000817
326.3005,-0.02827588,-0.9147226,0.4510234,-2.173001,-0.3727872,-0.02000923
326.3157,-0.02827588,-0.9147226,0.4510234,-2.173001,-0.3727872,-0.02000923
326.3293,-0.0274954,-0.926598,0.4513902,-2.174056,-0.3732606,-0.02001019
326.3448,-0.02673147,-0.9392411,0.4517027,-2.175263,-0.373926,-0.02001159
326.3594,-0.02673147,-0.9392411,0.4517027,-2.175263,-0.373926,-0.02001159
326.3733,-0.02598057,-0.9522996,0.452054,-2.176477,-0.3745494,-0.02001284
326.3888,-0.02524033,-0.9655553,0.4524272,-2.177649,-0.3751143,-0.02001395
326.4033,-0.02450924,-0.9788728,0.4528053,-2.178765,-0.3756343,-0.02001495
326.4178,-0.02450924,-0.9788728,0.4528053,-2.178765,-0.3756343,-0.02001495
326.432,-0.02379417,-0.9929305,0.4531278,-2.180034,-0.3763497,-0.02001639
326.4493,-0.02309111,-1.007381,0.4534902,-2.181311,-0.3770227,-0.02001768
326.4629,-0.02239766,-1.022008,0.4538757,-2.182544,-0.3776354,-0.02001883
326.4769,-0.02239766,-1.022008,0.4538757,-2.182544,-0.3776354,-0.02001883
326.4909,-0.0217206,-1.03744,0.4542051,-2.183745,-0.3784496,-0.02002016
326.5061,-0.02105507,-1.053299,0.4545644,-2.184428,-0.379247,-0.0200209
326.5207,-0.02039844,-1.06935,0.4549522,-2.184574,-0.3799843,-0.02002134
326.5354,-0.02039844,-1.06935,0.4549522,-2.184574,-0.3799843,-0.02002134
326.5495,-0.01974931,-1.085447,0.4553601,-2.184384,-0.3806526,-0.02002176
326.5651,-0.0191157,-1.102262,0.4557245,-2.184292,-0.3814902,-0.02002279
326.5797,-0.0191157,-1.102262,0.4557245,-2.184292,-0.3814902,-0.02002279
326.5937,-0.01849228,-1.119444,0.4561354,-2.184226,-0.3822645,-0.02002372
326.609,-0.0178765,-1.136775,0.4565714,-2.184157,-0.3829625,-0.0200245
326.6237,-0.01726722,-1.154121,0.4570133,-2.184086,-0.3836006,-0.02002518
326.6382,-0.01726722,-1.154121,0.4570133,-2.184086,-0.3836006,-0.02002518
326.6524,-0.01667323,-1.17216,0.4573982,-2.184227,-0.3844262,-0.02002633
326.6679,-0.01608833,-1.190545,0.4578196,-2.184362,-0.3852051,-0.02002724
326.6826,-0.01550996,-1.209062,0.4582628,-2.184405,-0.3859171,-0.02002794
326.6971,-0.01550996,-1.209062,0.4582628,-2.184405,-0.3859171,-0.02002794
326.7136,-0.01494684,-1.228339,0.4586587,-2.184571,-0.386805,-0.02002903
326.7276,-0.01439174,-1.247999,0.4590959,-2.184673,-0.3876356,-0.02002989
326.7413,-0.01384206,-1.267808,0.459557,-2.184666,-0.3883901,-0.02003055
326.7558,-0.01384206,-1.267808,0.459557,-2.184666,-0.3883901,-0.02003055
326.7701,-0.01329705,-1.287619,0.4600257,-2.184581,-0.3890796,-0.02003112
326.7854,-0.01276668,-1.308098,0.4604407,-2.184676,-0.3899472,-0.02003217
326.8,-0.01276668,-1.308098,0.4604407,-2.184676,-0.3899472,-0.02003217
326.8143,-0.01224294,-1.328899,0.4608916,-2.184766,-0.3907626,-0.020033
326.8296,-0.01172342,-1.349805,0.4613631,-2.18478,-0.391507,-0.02003363
326.8444,-0.01120765,-1.370682,0.4618402,-2.184726,-0.3921906,-0.02003416
326.8592,-0.01120765,-1.370682,0.4618402,-2.184726,-0.3921906,-0.02003416
326.8731,-0.0105195,-1.378842,0.4631988,-2.181147,-0.3889556,-0.02002605
326.8885,-0.009764898,-1.379123,0.4637984,-2.177555,-0.38592,-0.02002101
326.9032,-0.008947654,-1.374583,0.4638416,-2.174426,-0.3835978,-0.0200177
326.9178,-0.008947654,-1.374583,0.4638416,-2.174426,-0.3835978,-0.0200177
326.9321,-0.00815784,-1.367118,0.46373,-2.171806,-0.3817662,-0.02001537
326.9474,-0.007426174,-1.357902,0.4636383,-2.169612,-0.3802165,-0.02001349
326.9619,-0.00674957,-1.347658,0.4636072,-2.167737,-0.3788303,-0.02001179
326.9776,-0.00674957,-1.347658,0.4636072,-2.167737,-0.3788303,-0.02001179
326.9917,-0.006115266,-1.336827,0.463629,-2.166091,-0.3775478,-0.02001016
327.0062,-0.005510971,-1.325683,0.463694,-2.164608,-0.3763482,-0.02000863
327.0207,-0.00492751,-1.314395,0.4637887,-2.163242,-0.3752046,-0.02000714
327.0355,-0.00492751,-1.314395,0.4637887,-2.163242,-0.3752046,-0.02000714
327.0497,-0.00435869,-1.303066,0.4638993,-2.161959,-0.3741067,-0.0200057
327.0651,-0.003800527,-1.291763,0.4640171,-2.16074,-0.3730494,-0.0200043
327.0798,-0.003800527,-1.291763,0.4640171,-2.16074,-0.3730494,-0.0200043
327.094,-0.003250496,-1.280524,0.4634165,-2.159489,-0.3711278,-0.02000021
327.1094,-0.002707065,-1.269373,0.4619909,-2.158265,-0.369374,-0.01999662
327.1243,-0.002169284,-1.258325,0.460115,-2.157094,-0.3678639,-0.01999372
327.1389,-0.002169284,-1.258325,0.460115,-2.157094,-0.3678639,-0.01999372
327.153,-0.001636551,-1.247389,0.4573108,-2.155896,-0.3656109,-0.01998852
327.1684,-0.001108534,-1.236568,0.4536042,-2.154733,-0.3635948,-0.01998403
327.183,-0.0005850317,-1.225867,0.4494333,-2.15363,-0.3618567,-0.01998034
327.1977,-0.0005850317,-1.225867,0.4494333,-2.15363,-0.3618567,-0.01998034
327.2118,-6.592501E-05,-1.215284,0.4450741,-2.152585,-0.3602977,-0.01997712
327.2282,0.0004488711,-1.204822,0.4399265,-2.151512,-0.3579452,-0.01997148
327.2431,0.0009593687,-1.194479,0.4339584,-2.150473,-0.3558133,-0.01996651
327.2567,0.0009593687,-1.194479,0.4339584,-2.150473,-0.3558133,-0.01996651
327.2708,0.001465571,-1.184255,0.4275821,-2.149491,-0.3539534,-0.01996231
327.2861,0.001967475,-1.174148,0.42106,-2.148567,-0.3522722,-0.01995859
327.3008,0.002465092,-1.164158,0.4137772,-2.147617,-0.3497992,-0.0199525
327.3157,0.002465092,-1.164158,0.4137772,-2.147617,-0.3497992,-0.0199525
327.3297,0.00295839,-1.154283,0.405703,-2.146702,-0.3475572,-0.01994709
327.3456,0.003447349,-1.144522,0.3972526,-2.145846,-0.3455934,-0.01994247
327.36,0.003931951,-1.134874,0.388688,-2.145049,-0.3438133,-0.01993836
327.3749,0.003931951,-1.134874,0.388688,-2.145049,-0.3438133,-0.01993836
327.3887,0.004412203,-1.125338,0.3793855,-2.144228,-0.3412452,-0.01993191
327.4042,0.004888072,-1.115912,0.369318,-2.143444,-0.3389184,-0.01992618
327.4188,0.004888072,-1.115912,0.369318,-2.143444,-0.3389184,-0.01992618
327.4332,0.005359541,-1.106596,0.3589044,-2.142721,-0.3368757,-0.01992125
327.4485,0.005826616,-1.097387,0.3476495,-2.141981,-0.3341129,-0.01991423
327.4629,0.006289272,-1.088286,0.3355991,-2.141287,-0.3316325,-0.01990804
327.4789,0.006289272,-1.088286,0.3355991,-2.141287,-0.3316325,-0.01990804
327.4927,0.006747494,-1.07929,0.3232071,-2.140658,-0.3294573,-0.01990271
327.5072,0.007201277,-1.070399,0.3107494,-2.140092,-0.3274826,-0.01989792
327.5219,0.007650634,-1.06161,0.2975956,-2.139507,-0.3247313,-0.01989093
327.5367,0.007650634,-1.06161,0.2975956,-2.139507,-0.3247313,-0.01989093
327.5506,0.008095548,-1.052925,0.283727,-2.138964,-0.3222407,-0.0198847
327.5661,0.008536014,-1.04434,0.2695688,-2.138484,-0.3200458,-0.01987928
327.5808,0.00897203,-1.035855,0.2553825,-2.138064,-0.3180487,-0.01987441
327.5958,0.00897203,-1.035855,0.2553825,-2.138064,-0.3180487,-0.01987441
327.6096,0.009403618,-1.027469,0.2405261,-2.137624,-0.315275,-0.01986738
327.6251,0.009830769,-1.01918,0.2249802,-2.137228,-0.3127674,-0.01986112
327.6397,0.009830769,-1.01918,0.2249802,-2.137228,-0.3127674,-0.01986112
327.6538,0.01025348,-1.010988,0.2091714,-2.136892,-0.3105589,-0.01985569
327.6693,0.01067179,-1.002892,0.1925897,-2.136543,-0.3076406,-0.01984832
327.684,0.01108567,-0.99489,0.1752871,-2.136242,-0.3050261,-0.01984182
327.6986,0.01108567,-0.99489,0.1752871,-2.136242,-0.3050261,-0.01984182
327.7126,0.01149515,-0.9869815,0.1577238,-2.136006,-0.3027299,-0.01983619
327.7279,0.01190022,-0.9791653,0.1401743,-2.135829,-0.3006451,-0.01983115
327.7435,0.01230093,-0.9714404,0.1219949,-2.135635,-0.2977928,-0.01982405
327.7581,0.01230093,-0.9714404,0.1219949,-2.135635,-0.2977928,-0.01982405
327.7713,0.01269728,-0.9638058,0.1031712,-2.135486,-0.2952198,-0.01981777
327.7867,0.01308927,-0.9562604,0.08413365,-2.135396,-0.2929545,-0.0198123
327.8013,0.01347693,-0.9488034,0.06514318,-2.135362,-0.2908967,-0.01980738
327.8159,0.01347693,-0.9488034,0.06514318,-2.135362,-0.2908967,-0.01980738
327.8299,0.0138603,-0.9414335,0.04554714,-2.135309,-0.2880708,-0.01980049
327.8454,0.01423937,-0.93415,0.02532928,-2.135298,-0.2855265,-0.01979438
327.8602,0.01461417,-0.9269518,0.004919983,-2.135345,-0.2832917,-0.01978911
327.8748,0.01461417,-0.9269518,0.004919983,-2.135345,-0.2832917,-0.01978911
327.8887,0.01498474,-0.919838,-0.01619782,-2.135377,-0.2803547,-0.01978206
327.9043,0.0153511,-0.9128075,-0.03797039,-2.135455,-0.2777347,-0.01977589
327.9189,0.0153511,-0.9128075,-0.03797039,-2.135455,-0.2777347,-0.01977589
327.9329,0.01571325,-0.9058595,-0.05993501,-2.135592,-0.2754422,-0.01977058
327.9481,0.01607123,-0.898993,-0.08181766,-2.135781,-0.2733689,-0.01976585
327.9629,0.01642507,-0.892207,-0.1034902,-2.136015,-0.2714463,-0.01976151
327.9775,0.01642507,-0.892207,-0.1034902,-2.136015,-0.2714463,-0.01976151
327.9915,0.01677478,-0.8855008,-0.1248979,-2.13629,-0.2696407,-0.01975749
328.0088,0.01712042,-0.8788733,-0.1460191,-2.136599,-0.2679355,-0.01975372
328.022,0.01746199,-0.8723238,-0.1668466,-2.136941,-0.2663217,-0.01975021
328.0358,0.01746199,-0.8723238,-0.1668466,-2.136941,-0.2663217,-0.01975021
328.0499,0.01779954,-0.8658512,-0.1873798,-2.137311,-0.2647941,-0.01974691
328.065,0.0181331,-0.8594547,-0.2076205,-2.137709,-0.2633491,-0.01974383
328.0794,0.0181331,-0.8594547,-0.2076205,-2.137709,-0.2633491,-0.01974383
328.0938,0.0184627,-0.8531334,-0.2275716,-2.138131,-0.2619837,-0.01974095
328.1088,0.01878837,-0.8468866,-0.2472368,-2.138576,-0.2606954,-0.01973827
328.1233,0.01911014,-0.8407132,-0.2666196,-2.139043,-0.2594817,-0.01973579
328.1379,0.01911014,-0.8407132,-0.2666196,-2.139043,-0.2594817,-0.01973579
328.1521,0.01942806,-0.8346125,-0.2857237,-2.139529,-0.2583404,-0.01973348
328.1674,0.01974215,-0.8285837,-0.3045529,-2.140034,-0.2572693,-0.01973134
328.1822,0.02005245,-0.8226259,-0.3231108,-2.140555,-0.2562662,-0.01972938
328.1967,0.02005245,-0.8226259,-0.3231108,-2.140555,-0.2562662,-0.01972938
328.2106,0.02035899,-0.8167384,-0.3414012,-2.141091,-0.2553291,-0.01972757
328.2259,0.02066182,-0.8109202,-0.3594277,-2.141641,-0.254456,-0.01972592
328.2404,0.02096096,-0.8051707,-0.3771938,-2.142204,-0.2536449,-0.01972443
328.2551,0.02096096,-0.8051707,-0.3771938,-2.142204,-0.2536449,-0.01972443
328.2689,0.02125646,-0.799489,-0.3947032,-2.142778,-0.2528939,-0.01972307
328.2842,0.02154834,-0.7938743,-0.4119594,-2.143363,-0.2522012,-0.01972186
328.3009,0.02183665,-0.7883258,-0.428966,-2.143956,-0.251565,-0.01972077
328.3154,0.02183665,-0.7883258,-0.428966,-2.143956,-0.251565,-0.01972077
328.3284,0.02212143,-0.7828429,-0.4457264,-2.144557,-0.2509836,-0.01971981
328.3424,0.0224027,-0.7774248,-0.462244,-2.145165,-0.2504552,-0.01971896
328.3571,0.0224027,-0.7774248,-0.462244,-2.145165,-0.2504552,-0.01971896
328.3721,0.02268051,-0.7720705,-0.4785223,-2.145779,-0.2499783,-0.01971824
328.386,0.02295489,-0.7667796,-0.4945647,-2.146398,-0.2495511,-0.01971763
328.4007,0.02322588,-0.7615512,-0.5103743,-2.147021,-0.2491722,-0.01971713
328.4152,0.02322588,-0.7615512,-0.5103743,-2.147021,-0.2491722,-0.01971713
328.4292,0.02349352,-0.7563846,-0.5259546,-2.147647,-0.2488399,-0.01971673
328.4445,0.02375784,-0.751279,-0.5413088,-2.148275,-0.2485529,-0.01971643
328.4592,0.02375784,-0.751279,-0.5413088,-2.148275,-0.2485529,-0.01971643
328.473,0.02401888,-0.7462338,-0.5564401,-2.148905,-0.2483098,-0.01971622
328.4883,0.02427667,-0.7412483,-0.5713517,-2.149536,-0.248109,-0.01971611
328.5029,0.02453126,-0.7363217,-0.5860467,-2.150167,-0.2479492,-0.01971608
328.5175,0.02453126,-0.7363217,-0.5860467,-2.150167,-0.2479492,-0.01971608
328.5313,0.02478268,-0.7314535,-0.6005282,-2.150797,-0.247829,-0.01971614
328.5467,0.02503096,-0.7266428,-0.6147992,-2.151427,-0.2477473,-0.01971628
328.5612,0.02527615,-0.7218891,-0.6288628,-2.152054,-0.2477027,-0.01971649
328.5757,0.02527615,-0.7218891,-0.6288628,-2.152054,-0.2477027,-0.01971649
328.5894,0.02551827,-0.7171917,-0.642722,-2.152679,-0.247694,-0.01971678
328.6047,0.02575736,-0.7125499,-0.6563796,-2.153301,-0.2477199,-0.01971714
328.6213,0.02599347,-0.7079631,-0.6698386,-2.15392,-0.2477794,-0.01971757
328.6347,0.02599347,-0.7079631,-0.6698386,-2.15392,-0.2477794,-0.01971757
328.6485,0.02622661,-0.7034306,-0.6831019,-2.154535,-0.2478713,-0.01971806
328.6627,0.02645684,-0.6989518,-0.6961722,-2.155146,-0.2479945,-0.01971862
328.6773,0.02645684,-0.6989518,-0.6961722,-2.155146,-0.2479945,-0.01971862
328.6913,0.02668417,-0.6945261,-0.7090524,-2.155752,-0.2481478,-0.01971923
328.7064,0.02690866,-0.6901528,-0.7217453,-2.156353,-0.2483303,-0.0197199
328.7209,0.02713033,-0.6858313,-0.7342533,-2.156949,-0.2485409,-0.01972063
328.7356,0.02713033,-0.6858313,-0.7342533,-2.156949,-0.2485409,-0.01972063
328.7494,0.02734921,-0.6815611,-0.7465795,-2.157538,-0.2487787,-0.01972141
328.7647,0.02756535,-0.6773415,-0.7587262,-2.158122,-0.2490425,-0.01972225
328.7793,0.02756535,-0.6773415,-0.7587262,-2.158122,-0.2490425,-0.01972225
328.7933,0.02777877,-0.673172,-0.7706962,-2.158699,-0.2493316,-0.01972312
328.8086,0.0279895,-0.6690519,-0.7824919,-2.15927,-0.249645,-0.01972405
328.8232,0.02819759,-0.6649806,-0.794116,-2.159833,-0.2499817,-0.01972502
328.8377,0.02819759,-0.6649806,-0.794116,-2.159833,-0.2499817,-0.01972502
328.8516,0.02840306,-0.6609577,-0.8055708,-2.16039,-0.2503409,-0.01972603
328.8669,0.02860594,-0.6569825,-0.8168589,-2.160939,-0.2507217,-0.01972709
328.8813,0.02880627,-0.6530545,-0.8279827,-2.16148,-0.2511234,-0.01972818
328.8959,0.02880627,-0.6530545,-0.8279827,-2.16148,-0.2511234,-0.01972818
328.9098,0.02900408,-0.6491731,-0.8389445,-2.162014,-0.251545,-0.01972931
328.9249,0.02919939,-0.6453378,-0.8497468,-2.16254,-0.2519858,-0.01973047
328.9415,0.02939225,-0.6415479,-0.8603917,-2.163058,-0.2524451,-0.01973167
328.9548,0.02939225,-0.6415479,-0.8603917,-2.163058,-0.2524451,-0.01973167
328.9688,0.02958268,-0.6378031,-0.8708817,-2.163568,-0.2529221,-0.01973289
328.9831,0.02977071,-0.6341027,-0.881219,-2.164069,-0.253416,-0.01973416
328.9974,0.02977071,-0.6341027,-0.881219,-2.164069,-0.253416,-0.01973416
329.0114,0.02995638,-0.6304463,-0.8914058,-2.164562,-0.2539262,-0.01973544
329.0266,0.0301397,-0.6268333,-0.9014442,-2.165047,-0.2544519,-0.01973676
329.0412,0.03032072,-0.6232632,-0.9113365,-2.165523,-0.2549925,-0.01973811
329.0557,0.03032072,-0.6232632,-0.9113365,-2.165523,-0.2549925,-0.01973811
329.0695,0.03049946,-0.6197355,-0.9210847,-2.16599,-0.2555473,-0.01973948
329.0849,0.03067595,-0.6162497,-0.930691,-2.166449,-0.2561157,-0.01974087
329.0993,0.03067595,-0.6162497,-0.930691,-2.166449,-0.2561157,-0.01974087
329.1133,0.03085021,-0.6128053,-0.9401574,-2.166899,-0.2566971,-0.01974229
329.1286,0.03102228,-0.6094019,-0.949486,-2.16734,-0.2572908,-0.01974373
329.143,0.03119219,-0.6060389,-0.9586787,-2.167773,-0.2578963,-0.01974518
329.1574,0.03119219,-0.6060389,-0.9586787,-2.167773,-0.2578963,-0.01974518
329.1713,0.03135996,-0.6027158,-0.9677375,-2.168196,-0.258513,-0.01974666
329.1867,0.03152562,-0.5994323,-0.9766644,-2.168611,-0.2591404,-0.01974816
329.2014,0.03168919,-0.5961878,-0.9854612,-2.169017,-0.2597778,-0.01974967
329.2158,0.03168919,-0.5961878,-0.9854612,-2.169017,-0.2597778,-0.01974967
329.2296,0.03185071,-0.5929819,-0.99413,-2.169414,-0.2604248,-0.0197512
329.2448,0.03201019,-0.5898141,-1.002673,-2.169803,-0.2610809,-0.01975274
329.2615,0.03216767,-0.5866839,-1.011091,-2.170182,-0.2617455,-0.0197543
329.2759,0.03216767,-0.5866839,-1.011091,-2.170182,-0.2617455,-0.0197543
329.2897,0.03232317,-0.583591,-1.019386,-2.170553,-0.2624183,-0.01975587
329.3028,0.03247672,-0.5805348,-1.027561,-2.170915,-0.2630986,-0.01975746
329.3173,0.03247672,-0.5805348,-1.027561,-2.170915,-0.2630986,-0.01975746
329.3312,0.03262833,-0.577515,-1.035616,-2.171269,-0.2637861,-0.01975906
329.3466,0.03277804,-0.5745311,-1.043554,-2.171614,-0.2644803,-0.01976067
329.3609,0.03292588,-0.5715827,-1.051377,-2.17195,-0.2651807,-0.01976229
329.3756,0.03292588,-0.5715827,-1.051377,-2.17195,-0.2651807,-0.01976229
329.3895,0.03307185,-0.5686693,-1.059085,-2.172278,-0.265887,-0.01976391
329.4046,0.033216,-0.5657907,-1.066681,-2.172598,-0.2665987,-0.01976555
329.4192,0.033216,-0.5657907,-1.066681,-2.172598,-0.2665987,-0.01976555
329.4337,0.03335834,-0.5629462,-1.074167,-2.172909,-0.2673155,-0.0197672
329.4485,0.03349889,-0.5601356,-1.081543,-2.173212,-0.268037,-0.01976886
329.4632,0.03363768,-0.5573584,-1.088812,-2.173506,-0.2687627,-0.01977052
329.4778,0.03363768,-0.5573584,-1.088812,-2.173506,-0.2687627,-0.01977052
329.4916,0.03377473,-0.5546143,-1.095975,-2.173792,-0.2694924,-0.01977219
329.5068,0.03391006,-0.5519028,-1.103034,-2.174071,-0.2702257,-0.01977387
329.5215,0.0340437,-0.5492236,-1.109989,-2.174341,-0.2709622,-0.01977555
329.5361,0.0340437,-0.5492236,-1.109989,-2.174341,-0.2709622,-0.01977555
329.5498,0.03417566,-0.5465763,-1.116843,-2.174603,-0.2717016,-0.01977723
329.5652,0.03430597,-0.5439605,-1.123598,-2.174857,-0.2724436,-0.01977892
329.5818,0.03443465,-0.5413758,-1.130253,-2.175104,-0.2731879,-0.01978061
329.5955,0.03443465,-0.5413758,-1.130253,-2.175104,-0.2731879,-0.01978061
329.609,0.03456173,-0.5388218,-1.136812,-2.175343,-0.2739342,-0.01978231
329.6232,0.03468721,-0.5362983,-1.143275,-2.175575,-0.2746822,-0.01978401
329.6378,0.03468721,-0.5362983,-1.143275,-2.175575,-0.2746822,-0.01978401
329.6518,0.03481112,-0.5338048,-1.149644,-2.175798,-0.2754315,-0.01978571
329.6671,0.03493349,-0.531341,-1.15592,-2.176015,-0.2761821,-0.01978741
329.6816,0.03505433,-0.5289065,-1.162104,-2.176224,-0.2769334,-0.01978911
329.696,0.03505433,-0.5289065,-1.162104,-2.176224,-0.2769334,-0.01978911
329.71,0.03517366,-0.5265011,-1.168198,-2.176426,-0.2776854,-0.01979082
329.7252,0.0352915,-0.5241242,-1.174203,-2.176621,-0.2784378,-0.01979252
329.7397,0.0352915,-0.5241242,-1.174203,-2.176621,-0.2784378,-0.01979252
329.7535,0.03540787,-0.5217757,-1.18012,-2.17681,-0.2791903,-0.01979423
329.7688,0.03552279,-0.5194551,-1.185951,-2.176991,-0.2799427,-0.01979594
329.7838,0.03563628,-0.5171621,-1.191697,-2.177165,-0.2806948,-0.01979764
329.7979,0.03563628,-0.5171621,-1.191697,-2.177165,-0.2806948,-0.01979764
329.812,0.03574835,-0.5148965,-1.197359,-2.177333,-0.2814463,-0.01979934
329.8271,0.03585902,-0.5126579,-1.202938,-2.177494,-0.2821971,-0.01980105
329.8416,0.03596832,-0.5104459,-1.208436,-2.177648,-0.2829469,-0.01980275
329.8563,0.03596832,-0.5104459,-1.208436,-2.177648,-0.2829469,-0.01980275
329.8698,0.03607626,-0.5082603,-1.213853,-2.177796,-0.2836961,-0.01980445
329.8853,0.03618285,-0.5061007,-1.219191,-2.177938,-0.2844439,-0.01980614
329.9017,0.03628812,-0.5039667,-1.22445,-2.178074,-0.2851901,-0.01980784
329.9164,0.03628812,-0.5039667,-1.22445,-2.178074,-0.2851901,-0.01980784
329.9303,0.03639208,-0.5018583,-1.228928,-2.178269,-0.2868317,-0.01981179
329.9442,0.03649474,-0.4997749,-1.232509,-2.178474,-0.2883486,-0.01981541
329.9577,0.03649474,-0.4997749,-1.232509,-2.178474,-0.2883486,-0.01981541
329.9716,0.03659613,-0.4977164,-1.235564,-2.178666,-0.2896526,-0.01981849
329.9869,0.03669625,-0.4956824,-1.238344,-2.17884,-0.2908231,-0.01982124
330.0013,0.03679514,-0.4936726,-1.240278,-2.179067,-0.2928172,-0.0198261
330.0158,0.03679514,-0.4936726,-1.240278,-2.179067,-0.2928172,-0.0198261
330.0298,0.03689279,-0.4916868,-1.241307,-2.179298,-0.2946489,-0.01983053
330.0451,0.03698923,-0.4897246,-1.241825,-2.179512,-0.2962442,-0.01983436
330.0597,0.03698923,-0.4897246,-1.241825,-2.179512,-0.2962442,-0.01983436
330.0736,0.03708448,-0.4877858,-1.241396,-2.179773,-0.2985849,-0.01984014
330.0889,0.03717854,-0.4858701,-1.240034,-2.180036,-0.3007186,-0.01984537
330.1035,0.03727144,-0.4839772,-1.238167,-2.180278,-0.3025889,-0.01984993
330.1179,0.03727144,-0.4839772,-1.238167,-2.180278,-0.3025889,-0.01984993
330.1319,0.03736319,-0.4821068,-1.236074,-2.180497,-0.3042902,-0.01985407
330.1471,0.03745381,-0.4802588,-1.233198,-2.180764,-0.3067858,-0.01986033
330.1617,0.0375433,-0.4784328,-1.229482,-2.181036,-0.3090979,-0.0198661
330.1762,0.0375433,-0.4784328,-1.229482,-2.181036,-0.3090979,-0.0198661
330.1901,0.03763169,-0.4766285,-1.225319,-2.181288,-0.311152,-0.01987121
330.2054,0.037719,-0.4748457,-1.220973,-2.181516,-0.3130342,-0.01987588
330.2196,0.037719,-0.4748457,-1.220973,-2.181516,-0.3130342,-0.01987588
330.2355,0.03780523,-0.4730842,-1.215882,-2.181794,-0.3157033,-0.0198827
330.2498,0.03789039,-0.4713437,-1.209985,-2.182077,-0.3181831,-0.01988901
330.2642,0.0379745,-0.4696239,-1.203673,-2.182327,-0.3203982,-0.01989462
330.2778,0.0379745,-0.4696239,-1.203673,-2.182327,-0.3203982,-0.01989462
330.2917,0.03805758,-0.4679246,-1.196519,-2.182528,-0.3233335,-0.01990214
330.3066,0.03813964,-0.4662455,-1.188529,-2.182615,-0.3260428,-0.01990899
330.3213,0.03822069,-0.4645865,-1.180125,-2.182593,-0.3284622,-0.01991509
330.3357,0.03822069,-0.4645865,-1.180125,-2.182593,-0.3284622,-0.01991509
330.3496,0.03830074,-0.4629472,-1.171581,-2.182513,-0.3306823,-0.01992071
330.365,0.03837981,-0.4613274,-1.162346,-2.182499,-0.3336641,-0.01992855
330.3794,0.03837981,-0.4613274,-1.162346,-2.182499,-0.3336641,-0.01992855
330.3936,0.03845792,-0.459727,-1.152362,-2.182505,-0.3364406,-0.01993584
330.4087,0.03853507,-0.4581456,-1.142018,-2.182496,-0.3389357,-0.01994236
330.4233,0.03861127,-0.4565831,-1.131574,-2.182468,-0.3412343,-0.01994838
330.4391,0.03861127,-0.4565831,-1.131574,-2.182468,-0.3412343,-0.01994838
330.4518,0.03868654,-0.4550392,-1.120473,-2.182507,-0.3442936,-0.01995664
330.4675,0.0387609,-0.4535137,-1.108652,-2.182547,-0.3471455,-0.01996429
330.4817,0.03883434,-0.4520063,-1.096497,-2.182549,-0.3497119,-0.01997114
330.4963,0.03883434,-0.4520063,-1.096497,-2.182549,-0.3497119,-0.01997114
330.5103,0.03890689,-0.4505169,-1.08358,-2.182593,-0.3529684,-0.01998007
330.5258,0.03897855,-0.4490453,-1.069909,-2.182622,-0.3559775,-0.01998828
330.54,0.03904934,-0.4475912,-1.055903,-2.182607,-0.3586777,-0.01999563
330.5568,0.03904934,-0.4475912,-1.055903,-2.182607,-0.3586777,-0.01999563
330.5708,0.03911927,-0.4461545,-1.041835,-2.18256,-0.3611611,-0.02000242
330.5843,0.03918835,-0.4447348,-1.027158,-2.182582,-0.3643876,-0.0200115
330.5983,0.03918835,-0.4447348,-1.027158,-2.182582,-0.3643876,-0.0200115
330.6124,0.03925659,-0.4433321,-1.011811,-2.182611,-0.3673949,-0.02001992
330.6275,0.039324,-0.4419461,-0.996178,-2.182608,-0.3701049,-0.0200275
330.6421,0.0393906,-0.4405766,-0.9805183,-2.182573,-0.3726012,-0.02003451
330.6568,0.0393906,-0.4405766,-0.9805183,-2.182573,-0.3726012,-0.02003451
330.6705,0.03945639,-0.4392235,-0.9642782,-2.182603,-0.3758394,-0.02004384
330.6858,0.03952138,-0.4378864,-0.9473932,-2.182637,-0.3788571,-0.02005249
330.7004,0.03958558,-0.4365653,-0.9302454,-2.182633,-0.3815746,-0.02006027
330.7152,0.03958558,-0.4365653,-0.9302454,-2.182633,-0.3815746,-0.02006027
330.7291,0.03964901,-0.4352599,-0.912409,-2.182676,-0.3849658,-0.0200702
330.7445,0.03971168,-0.4339701,-0.89389,-2.182705,-0.3880982,-0.02007934
330.7591,0.03971168,-0.4339701,-0.89389,-2.182705,-0.3880982,-0.02007934
330.7727,0.03977358,-0.4326957,-0.8751035,-2.182688,-0.3909087,-0.02008753
330.7882,0.03983475,-0.4314364,-0.8563215,-2.182634,-0.3934884,-0.02009509
330.8028,0.03989517,-0.4301922,-0.8376882,-2.182569,-0.3958962,-0.02010222
330.8172,0.03989517,-0.4301922,-0.8376882,-2.182569,-0.3958962,-0.02010222
330.8314,0.03995487,-0.4289627,-0.8192675,-2.182511,-0.3981804,-0.02010904
330.8466,0.04001386,-0.427748,-0.8010818,-2.18247,-0.400362,-0.02011562
330.8632,0.04007213,-0.4265477,-0.7831382,-2.182443,-0.4024511,-0.02012196
330.8767,0.04007213,-0.4265477,-0.7831382,-2.182443,-0.4024511,-0.02012196
330.8907,0.04012971,-0.4253617,-0.7654378,-2.182425,-0.4044532,-0.02012806
330.9049,0.04018659,-0.4241898,-0.7479792,-2.18241,-0.4063719,-0.02013394
330.9195,0.04018659,-0.4241898,-0.7479792,-2.18241,-0.4063719,-0.02013394
330.9334,0.04024279,-0.4230319,-0.7307597,-2.182394,-0.4082099,-0.02013961
330.9488,0.04029823,-0.4218879,-0.714214,-2.171732,-0.410946,-0.02013051
330.9634,0.04035299,-0.4207576,-0.697677,-2.155034,-0.413483,-0.02012738
330.9781,0.04035299,-0.4207576,-0.697677,-2.155034,-0.413483,-0.02012738
330.9921,0.0404071,-0.4196407,-0.6811278,-2.135615,-0.4156921,-0.02012663
331.0074,0.04046059,-0.4185371,-0.6646253,-2.115056,-0.4176379,-0.0201269
331.022,0.04051347,-0.4174465,-0.6482431,-2.092871,-0.4194757,-0.02012606
331.0366,0.04051347,-0.4174465,-0.6482431,-2.092871,-0.4194757,-0.02012606
331.0509,0.04056576,-0.416369,-0.631928,-2.069958,-0.421099,-0.02012601
331.0661,0.04061745,-0.4153042,-0.6156962,-2.046874,-0.4225147,-0.02012625
331.0807,0.04066856,-0.414252,-0.5995658,-2.023879,-0.4237401,-0.02012656
331.0956,0.04066856,-0.414252,-0.5995658,-2.023879,-0.4237401,-0.02012656
331.1094,0.04071908,-0.4132124,-0.583579,-1.999856,-0.4248753,-0.0201255
331.1247,0.04076904,-0.4121852,-0.5676976,-1.975404,-0.4258072,-0.02012492
331.1412,0.04081843,-0.4111701,-0.5519418,-1.950933,-0.4265486,-0.02012449
331.155,0.04081843,-0.4111701,-0.5519418,-1.950933,-0.4265486,-0.02012449
331.1691,0.04086726,-0.4101671,-0.5363463,-1.925396,-0.4271881,-0.02012284
331.1831,0.04091554,-0.409176,-0.5208875,-1.899424,-0.4276316,-0.02012165
331.1978,0.04091554,-0.409176,-0.5208875,-1.899424,-0.4276316,-0.02012165
331.2116,0.04096328,-0.4081967,-0.5055835,-1.873444,-0.4278986,-0.02012062
331.2271,0.04101048,-0.407229,-0.4904465,-1.847658,-0.4280059,-0.02011962
331.2417,0.04105715,-0.4062728,-0.4754942,-1.820919,-0.4280144,-0.0201175
331.2564,0.04105715,-0.4062728,-0.4754942,-1.820919,-0.4280144,-0.0201175
331.2703,0.04110329,-0.4053279,-0.4607173,-1.793809,-0.4278605,-0.02011577
331.2856,0.04114892,-0.4043943,-0.4461265,-1.766735,-0.4275639,-0.02011423
331.3003,0.04119404,-0.4034718,-0.4317285,-1.739885,-0.427139,-0.02011273
331.3151,0.04119404,-0.4034718,-0.4317285,-1.739885,-0.427139,-0.02011273
331.3291,0.04123864,-0.4025602,-0.4175286,-1.713203,-0.4266007,-0.02011116
331.3445,0.04128274,-0.4016595,-0.4035297,-1.686792,-0.4259544,-0.02010963
331.3592,0.04128274,-0.4016595,-0.4035297,-1.686792,-0.4259544,-0.02010963
331.373,0.04132634,-0.4007694,-0.3897349,-1.660714,-0.4252099,-0.02010814
331.3885,0.04136944,-0.39989,-0.3761463,-1.634995,-0.4243758,-0.02010667
331.4028,0.04141204,-0.399021,-0.3627652,-1.609646,-0.4234595,-0.02010522
331.4174,0.04141204,-0.399021,-0.3627652,-1.609646,-0.4234595,-0.02010522
331.4335,0.04145415,-0.3981624,-0.3495927,-1.58467,-0.4224679,-0.02010383
331.4479,0.04149576,-0.397314,-0.3366292,-1.560065,-0.4214071,-0.02010251
331.4616,0.04153688,-0.3964757,-0.3238748,-1.535828,-0.4202829,-0.02010124
331.4762,0.04153688,-0.3964757,-0.3238748,-1.535828,-0.4202829,-0.02010124
331.4898,0.04157751,-0.3956473,-0.3113294,-1.511954,-0.4191003,-0.02009999
331.5055,0.04161765,-0.3948289,-0.2989925,-1.488441,-0.4178642,-0.02009873
331.5201,0.0416573,-0.3940202,-0.2868636,-1.465282,-0.4165786,-0.02009744
331.5349,0.0416573,-0.3940202,-0.2868636,-1.465282,-0.4165786,-0.02009744
331.5489,0.04169647,-0.3932212,-0.2749417,-1.442474,-0.4152474,-0.02009616
331.5644,0.04173515,-0.3924317,-0.263226,-1.420011,-0.4138741,-0.02009492
331.579,0.04173515,-0.3924317,-0.263226,-1.420011,-0.4138741,-0.02009492
331.5934,0.04177335,-0.3916517,-0.2517156,-1.397889,-0.4124618,-0.02009371
331.6088,0.04181108,-0.3908809,-0.2404094,-1.376104,-0.4110133,-0.02009255
331.623,0.04184833,-0.3901194,-0.2293063,-1.354651,-0.4095313,-0.02009142
331.6376,0.04184833,-0.3901194,-0.2293063,-1.354651,-0.4095313,-0.02009142
331.6517,0.04188511,-0.389367,-0.2184051,-1.333524,-0.4080185,-0.02009034
331.6672,0.04192142,-0.3886236,-0.2077047,-1.31272,-0.4064774,-0.02008929
331.6818,0.04195726,-0.3878891,-0.1972037,-1.292235,-0.4049107,-0.02008829
331.6986,0.04195726,-0.3878891,-0.1972037,-1.292235,-0.4049107,-0.02008829
331.7126,0.04199265,-0.3871634,-0.1869008,-1.272063,-0.4033215,-0.02008731
331.7258,0.04202758,-0.3864463,-0.1767942,-1.2522,-0.4017128,-0.02008636
331.7404,0.04206206,-0.3857379,-0.1668823,-1.232642,-0.4000881,-0.02008545
331.7549,0.04206206,-0.3857379,-0.1668823,-1.232642,-0.4000881,-0.02008545
331.7689,0.04209609,-0.3850379,-0.1571631,-1.213385,-0.398451,-0.02008455
331.7842,0.04212967,-0.3843463,-0.1476343,-1.194423,-0.396805,-0.02008367
331.799,0.04212967,-0.3843463,-0.1476343,-1.194423,-0.396805,-0.02008367
331.8131,0.04216282,-0.383663,-0.1382937,-1.175754,-0.3951539,-0.02008281
331.8287,0.04219554,-0.3829879,-0.1291389,-1.157373,-0.3935013,-0.02008196
331.8433,0.04222783,-0.3823209,-0.1201671,-1.139275,-0.3918507,-0.02008112
331.858,0.04222783,-0.3823209,-0.1201671,-1.139275,-0.3918507,-0.02008112
331.8719,0.0422597,-0.3816618,-0.1113759,-1.121457,-0.3902055,-0.02008027
331.8873,0.04229116,-0.3810107,-0.1027623,-1.103914,-0.3885688,-0.02007942
331.9021,0.0423222,-0.3803673,-0.09432355,-1.086643,-0.3869437,-0.02007858
331.9169,0.0423222,-0.3803673,-0.09432355,-1.086643,-0.3869437,-0.02007858
331.9308,0.04235284,-0.3797317,-0.08605685,-1.069639,-0.3853328,-0.02007772
331.9462,0.04238307,-0.3791037,-0.0779593,-1.052899,-0.3837385,-0.02007686
331.963,0.04241291,-0.3784832,-0.07002801,-1.036419,-0.3821633,-0.02007599
331.9764,0.04241291,-0.3784832,-0.07002801,-1.036419,-0.3821633,-0.02007599
331.9903,0.04244236,-0.3778701,-0.06226009,-1.020194,-0.3806092,-0.02007512
332.0049,0.04247142,-0.3772644,-0.05465265,-1.004222,-0.3790781,-0.02007423
332.0194,0.04247142,-0.3772644,-0.05465265,-1.004222,-0.3790781,-0.02007423
332.0334,0.04250011,-0.3766659,-0.04720283,-0.988498,-0.3775716,-0.02007333
332.0489,0.04252842,-0.3760747,-0.03990777,-0.9730185,-0.3760911,-0.02007243
332.0636,0.04255636,-0.3754905,-0.03276465,-0.9577801,-0.3746381,-0.0200715
332.0781,0.04255636,-0.3754905,-0.03276465,-0.9577801,-0.3746381,-0.0200715
332.0923,0.04258394,-0.3749132,-0.02577065,-0.9427789,-0.3732138,-0.02007056
332.1078,0.04261116,-0.3743429,-0.01892299,-0.9280117,-0.371819,-0.02006961
332.1226,0.04263802,-0.3737795,-0.01221891,-0.9134746,-0.3704548,-0.02006864
332.1371,0.04263802,-0.3737795,-0.01221891,-0.9134746,-0.3704548,-0.02006864
332.1512,0.04266453,-0.3732228,-0.005655707,-0.8991644,-0.3691218,-0.02006766
332.1667,0.0426907,-0.3726728,0.0007693213,-0.8850775,-0.3678207,-0.02006666
332.1814,0.04271653,-0.3721293,0.007058829,-0.8712105,-0.366552,-0.02006565
332.1961,0.04271653,-0.3721293,0.007058829,-0.8712105,-0.366552,-0.02006565
332.21,0.04274203,-0.3715924,0.01321544,-0.8575602,-0.3653162,-0.02006462
332.2275,0.04276719,-0.3710619,0.01924174,-0.8441232,-0.3641137,-0.02006358
332.241,0.04279203,-0.3705377,0.0251403,-0.8308963,-0.3629445,-0.02006252
332.2546,0.04279203,-0.3705377,0.0251403,-0.8308963,-0.3629445,-0.02006252
332.2687,0.04281655,-0.3700198,0.03091362,-0.8178763,-0.3618091,-0.02006144
332.2841,0.04284076,-0.3695081,0.0365642,-0.8050599,-0.3607073,-0.02006034
332.2986,0.04284076,-0.3695081,0.0365642,-0.8050599,-0.3607073,-0.02006034
332.3128,0.04286465,-0.3690026,0.0420945,-0.7924441,-0.3596394,-0.02005923
332.3281,0.04288823,-0.3685031,0.04750692,-0.7800258,-0.3586053,-0.0200581
332.3429,0.04291151,-0.3680096,0.05280386,-0.7678019,-0.3576048,-0.02005694
332.3575,0.04291151,-0.3680096,0.05280386,-0.7678019,-0.3576048,-0.02005694
332.3716,0.04293449,-0.367522,0.05798766,-0.7557696,-0.356638,-0.02005577
332.3872,0.04295717,-0.3670402,0.06306063,-0.7439258,-0.3557045,-0.02005458
332.4018,0.04297956,-0.3665642,0.06802505,-0.7322676,-0.3548043,-0.02005337
332.4165,0.04297956,-0.3665642,0.06802505,-0.7322676,-0.3548043,-0.02005337
332.4306,0.04300167,-0.3660939,0.07288316,-0.7207921,-0.353937,-0.02005214
332.446,0.0430235,-0.3656292,0.07763717,-0.7094966,-0.3531024,-0.02005089
332.4608,0.04304504,-0.3651701,0.08228926,-0.6983782,-0.3523001,-0.02004961
332.4753,0.04304504,-0.3651701,0.08228926,-0.6983782,-0.3523001,-0.02004961
332.4913,0.04306632,-0.3647165,0.08684158,-0.6874343,-0.3515299,-0.02004831
332.5055,0.04308731,-0.3642683,0.09129621,-0.676662,-0.3507912,-0.02004699
332.5193,0.04308731,-0.3642683,0.09129621,-0.676662,-0.3507912,-0.02004699
332.5348,0.04310805,-0.3638255,0.09565525,-0.6660587,-0.3500838,-0.02004564
332.5485,0.04312852,-0.3633879,0.09992073,-0.6556219,-0.3494073,-0.02004427
332.5636,0.04314873,-0.3629557,0.1040947,-0.6453489,-0.3487611,-0.02004287
332.5781,0.04314873,-0.3629557,0.1040947,-0.6453489,-0.3487611,-0.02004287
332.592,0.04316868,-0.3625285,0.108179,-0.6352372,-0.3481448,-0.02004145
332.6074,0.04318838,-0.3621065,0.1121757,-0.6252843,-0.3475581,-0.02003999
332.622,0.04320784,-0.3616896,0.1160867,-0.6154877,-0.3470003,-0.02003852
332.6371,0.04320784,-0.3616896,0.1160867,-0.6154877,-0.3470003,-0.02003852
332.6509,0.04322704,-0.3612776,0.1199139,-0.605845,-0.346471,-0.02003701
332.6663,0.04324601,-0.3608706,0.123659,-0.5963538,-0.3459698,-0.02003548
332.6811,0.04326473,-0.3604684,0.127324,-0.5870116,-0.3454961,-0.02003392
332.6959,0.04326473,-0.3604684,0.127324,-0.5870116,-0.3454961,-0.02003392
332.7101,0.04328322,-0.360071,0.1309106,-0.5778163,-0.3450494,-0.02003233
332.7254,0.04330148,-0.3596784,0.1344206,-0.5687655,-0.3446293,-0.0200307
332.7396,0.04330148,-0.3596784,0.1344206,-0.5687655,-0.3446293,-0.0200307
332.756,0.0433195,-0.3592905,0.1378556,-0.559857,-0.3442351,-0.02002905
332.7701,0.0433373,-0.3589072,0.1412175,-0.5510884,-0.3438663,-0.02002736
332.7841,0.04335488,-0.3585285,0.1445225,-0.5426022,-0.3435432,-0.02002595
332.7983,0.04335488,-0.3585285,0.1445225,-0.5426022,-0.3435432,-0.02002595
332.8124,0.04337224,-0.3581544,0.1477565,-0.5343338,-0.3432454,-0.02002439
332.8279,0.04338939,-0.3577847,0.1509179,-0.5262359,-0.342967,-0.02002273
332.8423,0.04340632,-0.3574194,0.1540098,-0.5182848,-0.3427075,-0.02002103
332.8573,0.04340632,-0.3574194,0.1540098,-0.5182848,-0.3427075,-0.02002103
332.8711,0.04342305,-0.3570585,0.157171,-0.5116962,-0.34265,-0.02002234
332.8866,0.04343958,-0.3567019,0.1602594,-0.5059326,-0.3426225,-0.02002236
332.9012,0.0434559,-0.3563496,0.1632488,-0.5006065,-0.3425756,-0.02002186
332.9162,0.0434559,-0.3563496,0.1632488,-0.5006065,-0.3425756,-0.02002186
332.9302,0.04347204,-0.3560015,0.1662935,-0.496759,-0.3426969,-0.02002442
332.9455,0.04348798,-0.3556575,0.1692597,-0.4937695,-0.3428204,-0.02002552
332.9603,0.04350373,-0.3553177,0.1721297,-0.4912104,-0.3429048,-0.02002603
332.975,0.04350373,-0.3553177,0.1721297,-0.4912104,-0.3429048,-0.02002603
332.9889,0.04351928,-0.3549819,0.1749225,-0.4888762,-0.3429572,-0.02002629
333.0043,0.04353466,-0.3546501,0.1778031,-0.4878953,-0.3431821,-0.0200299
333.0208,0.04354985,-0.3543223,0.1806296,-0.4876896,-0.3434103,-0.020032
333.0345,0.04354985,-0.3543223,0.1806296,-0.4876896,-0.3434103,-0.020032
333.0485,0.04356486,-0.3539985,0.1833789,-0.4878524,-0.3435978,-0.02003346
333.0631,0.04357968,-0.3536784,0.1860668,-0.4881882,-0.3437498,-0.02003464
333.0776,0.04357968,-0.3536784,0.1860668,-0.4881882,-0.3437498,-0.02003464
333.0916,0.04359433,-0.3533622,0.1888569,-0.489831,-0.34407,-0.02003918
333.1071,0.04360881,-0.3530498,0.1916038,-0.4922058,-0.344387,-0.02004214
333.1216,0.04362312,-0.3527411,0.1942839,-0.4949071,-0.3446567,-0.02004442
333.1363,0.04362312,-0.3527411,0.1942839,-0.4949071,-0.3446567,-0.02004442
333.1505,0.04363738,-0.3524362,0.1981647,-0.5084321,-0.3465299,-0.02007603
333.1659,0.04365151,-0.3521349,0.2018446,-0.5280749,-0.3483906,-0.02009398
333.1806,0.04366546,-0.3518372,0.2050899,-0.5504515,-0.3498255,-0.020106
333.1953,0.04366546,-0.3518372,0.2050899,-0.5504515,-0.3498255,-0.020106
333.2093,0.04367922,-0.351543,0.2080436,-0.5739413,-0.3508836,-0.02011513
333.2247,0.04369279,-0.3512524,0.2108615,-0.5977675,-0.3516806,-0.0201226
333.2393,0.04369279,-0.3512524,0.2108615,-0.5977675,-0.3516806,-0.0201226
333.2533,0.04370619,-0.3509652,0.2136433,-0.6215587,-0.3523067,-0.02012895
333.2687,0.04371944,-0.3506814,0.2164408,-0.6451385,-0.3528199,-0.02013442
333.2833,0.04373253,-0.350401,0.2192757,-0.6684248,-0.3532548,-0.02013915
333.2989,0.04373253,-0.350401,0.2192757,-0.6684248,-0.3532548,-0.02013915
333.3129,0.04374547,-0.350124,0.224714,-0.6913618,-0.3574857,-0.02014756
333.3273,0.04375828,-0.3498502,0.2305481,-0.713929,-0.3631247,-0.02015199
333.3417,0.04377095,-0.3495797,0.2360249,-0.736138,-0.369056,-0.02015514
333.3563,0.04377095,-0.3495797,0.2360249,-0.736138,-0.369056,-0.02015514
333.3705,0.04378349,-0.3493124,0.2399685,-0.7580113,-0.3731422,-0.02015629
333.3858,0.04379591,-0.3490482,0.2434758,-0.7795599,-0.3764873,-0.02015859
333.4005,0.0438082,-0.3487872,0.2469301,-0.800783,-0.3795969,-0.0201609
333.4152,0.0438082,-0.3487872,0.2469301,-0.800783,-0.3795969,-0.0201609
333.4294,0.04382036,-0.3485292,0.2503983,-0.8216792,-0.3826207,-0.02016295
333.4449,0.0438324,-0.3482743,0.252802,-0.8422589,-0.3836178,-0.02016358
333.4596,0.0438324,-0.3482743,0.252802,-0.8422589,-0.3836178,-0.02016358
333.4733,0.04384433,-0.3480224,0.2552112,-0.8625298,-0.3840274,-0.02016516
333.4888,0.04385613,-0.3477735,0.2578322,-0.8824861,-0.3843615,-0.02016658
333.5036,0.04386782,-0.3475276,0.2606074,-0.9021259,-0.3847181,-0.02016769
333.5182,0.04386782,-0.3475276,0.2606074,-0.9021259,-0.3847181,-0.02016769
333.5323,0.0438794,-0.3472845,0.2624389,-0.9214608,-0.382934,-0.02016779
333.5475,0.04389087,-0.3470443,0.2644267,-0.9405017,-0.3807219,-0.02016866
333.5644,0.04390222,-0.3468069,0.2666768,-0.9592414,-0.3785462,-0.0201693
333.5779,0.04390222,-0.3468069,0.2666768,-0.9592414,-0.3785462,-0.0201693
333.5927,0.04391347,-0.3465724,0.2681139,-0.9776869,-0.3741596,-0.02016921
333.6062,0.04392461,-0.3463406,0.2698268,-0.9958487,-0.3695032,-0.02016967
333.6208,0.04393564,-0.3461115,0.2718313,-1.013718,-0.3649717,-0.02016985
333.6354,0.04393564,-0.3461115,0.2718313,-1.013718,-0.3649717,-0.02016985
333.6495,0.04394656,-0.3458852,0.2740036,-1.031294,-0.3605739,-0.02016975
333.6653,0.04395739,-0.3456615,0.275369,-1.04859,-0.3538361,-0.02016934
333.6796,0.04395739,-0.3456615,0.275369,-1.04859,-0.3538361,-0.02016934
333.6937,0.04396811,-0.3454404,0.2770393,-1.065617,-0.347,-0.02016926
333.7092,0.04397873,-0.345222,0.278964,-1.082368,-0.3403512,-0.02016889
333.7242,0.04398924,-0.3450061,0.2810269,-1.098843,-0.3338709,-0.0201683
333.7386,0.04398924,-0.3450061,0.2810269,-1.098843,-0.3338709,-0.0201683
333.7526,0.04399967,-0.3447928,0.2823703,-1.115051,-0.3249764,-0.02016769
333.7679,0.04400999,-0.344582,0.2840448,-1.131006,-0.3161563,-0.02016716
333.7827,0.04402021,-0.3443737,0.2859388,-1.146701,-0.3075703,-0.02016636
333.7974,0.04402021,-0.3443737,0.2859388,-1.146701,-0.3075703,-0.02016636
333.8113,0.04403034,-0.3441679,0.2872376,-1.162138,-0.2965776,-0.02016562
333.8286,0.04404037,-0.3439644,0.2888872,-1.177332,-0.2857843,-0.02016479
333.8422,0.04405031,-0.3437634,0.2907405,-1.192274,-0.2752649,-0.02016369
333.8567,0.04405031,-0.3437634,0.2907405,-1.192274,-0.2752649,-0.02016369
333.8696,0.04406014,-0.3435648,0.2927019,-1.206968,-0.2649859,-0.02016241
333.8849,0.0440699,-0.3433685,0.2941325,-1.221419,-0.2522961,-0.02016132
333.8994,0.0440699,-0.3433685,0.2941325,-1.221419,-0.2522961,-0.02016132
333.9135,0.04407955,-0.3431745,0.2958657,-1.235641,-0.2398949,-0.02016003
333.929,0.04408912,-0.3429828,0.2977585,-1.249629,-0.2277892,-0.02015852
333.9435,0.04409859,-0.3427934,0.2997364,-1.263385,-0.2159519,-0.02015686
333.9582,0.04409859,-0.3427934,0.2997364,-1.263385,-0.2159519,-0.02015686
333.9722,0.04410798,-0.3426062,0.3012824,-1.276913,-0.2017473,-0.02015538
333.9878,0.04411727,-0.3424212,0.3030844,-1.290227,-0.1878814,-0.02015366
334.0025,0.04412648,-0.3422384,0.3050135,-1.303322,-0.1743305,-0.02015178
334.0171,0.04412648,-0.3422384,0.3050135,-1.303322,-0.1743305,-0.02015178
334.0311,0.0441356,-0.3420577,0.3066033,-1.316199,-0.1584723,-0.02015001
334.0466,0.04414463,-0.3418792,0.3084244,-1.328871,-0.1429853,-0.02014803
334.0611,0.04415357,-0.3417028,0.310358,-1.341336,-0.127839,-0.02014591
334.0757,0.04415357,-0.3417028,0.310358,-1.341336,-0.127839,-0.02014591
334.0896,0.04416243,-0.3415285,0.3123504,-1.353598,-0.1130139,-0.0201437
334.1071,0.0441712,-0.3413562,0.3140589,-1.365655,-0.09592773,-0.02014156
334.1208,0.04417988,-0.341186,0.3159432,-1.377522,-0.07922087,-0.02013928
334.1352,0.04417988,-0.341186,0.3159432,-1.377522,-0.07922087,-0.02013928
334.1482,0.04418848,-0.3410178,0.3179109,-1.389198,-0.0628677,-0.02013693
334.1633,0.04419699,-0.3408515,0.3199209,-1.400688,-0.04685289,-0.02013453
334.178,0.04419699,-0.3408515,0.3199209,-1.400688,-0.04685289,-0.02013453
334.192,0.04420543,-0.3406873,0.3217122,-1.411987,-0.02862026,-0.02013217
334.2073,0.04421378,-0.3405249,0.3236385,-1.423111,-0.01077463,-0.02012974
334.2217,0.04422204,-0.3403645,0.3256272,-1.434059,0.00670352,-0.02012731
334.2365,0.04422204,-0.3403645,0.3256272,-1.434059,0.00670352,-0.02012731
334.2504,0.04423023,-0.340206,0.3274539,-1.444828,0.02635869,-0.02012488
334.2658,0.04423833,-0.3400494,0.3293956,-1.455431,0.04560725,-0.02012246
334.2805,0.04424635,-0.3398946,0.3313898,-1.46587,0.06446554,-0.02012004
334.2955,0.04424635,-0.3398946,0.3313898,-1.46587,0.06446554,-0.02012004
334.3093,0.04425429,-0.3397417,0.3334085,-1.476148,0.08294497,-0.02011767
334.3247,0.04426215,-0.3395905,0.335306,-1.486261,0.1035745,-0.02011531
334.3393,0.04426215,-0.3395905,0.335306,-1.486261,0.1035745,-0.02011531
334.3531,0.04426993,-0.3394412,0.3372822,-1.496222,0.1237879,-0.02011302
334.3685,0.04427763,-0.3392936,0.3392929,-1.506034,0.1435975,-0.02011079
334.3831,0.04428525,-0.3391478,0.3413184,-1.515699,0.1630133,-0.02010865
334.399,0.04428525,-0.3391478,0.3413184,-1.515699,0.1630133,-0.02010865
334.4128,0.0442928,-0.3390037,0.3432701,-1.525213,0.1845565,-0.02010655
334.4272,0.04430027,-0.3388613,0.3452726,-1.534587,0.205672,-0.02010456
334.4417,0.04430765,-0.3387206,0.3472958,-1.543826,0.2263697,-0.02010268
334.4563,0.04430765,-0.3387206,0.3472958,-1.543826,0.2263697,-0.02010268
334.4702,0.04431497,-0.3385815,0.3492847,-1.552924,0.249169,-0.0201009
334.4855,0.0443222,-0.3384441,0.3513083,-1.561892,0.2715191,-0.02009924
334.5002,0.04432936,-0.3383084,0.353345,-1.570734,0.2934295,-0.02009773
334.5149,0.04432936,-0.3383084,0.353345,-1.570734,0.2934295,-0.02009773
334.5288,0.04433644,-0.3381742,0.3553848,-1.579452,0.3149093,-0.02009635
334.5445,0.04434345,-0.3380417,0.3574291,-1.588042,0.3384773,-0.02009512
334.5591,0.04434345,-0.3380417,0.3574291,-1.588042,0.3384773,-0.02009512
334.573,0.04435038,-0.3379107,0.3594827,-1.596515,0.3615836,-0.02009404
334.5882,0.04435724,-0.3377813,0.3615373,-1.604872,0.3842376,-0.02009311
334.603,0.04436402,-0.3376534,0.3635886,-1.613117,0.4064484,-0.02009233
334.6177,0.04436402,-0.3376534,0.3635886,-1.613117,0.4064484,-0.02009233
334.6324,0.04437072,-0.337527,0.3656341,-1.621252,0.428225,-0.02009169
334.6484,0.04437735,-0.3374021,0.3676723,-1.629278,0.4495761,-0.02009119
334.6617,0.04438391,-0.3372788,0.3697018,-1.637197,0.4705105,-0.02009083
334.6779,0.04438391,-0.3372788,0.3697018,-1.637197,0.4705105,-0.02009083
334.6913,0.04439038,-0.3371569,0.3716359,-1.645015,0.4885198,-0.02009051
334.7054,0.04439679,-0.3370364,0.373578,-1.652728,0.5061792,-0.02009031
334.7201,0.04440312,-0.3369174,0.375516,-1.660338,0.523495,-0.02009023
334.7348,0.04440312,-0.3369174,0.375516,-1.660338,0.523495,-0.02009023
334.7486,0.04440938,-0.3367999,0.377444,-1.667846,0.5404741,-0.02009025
334.7642,0.04441556,-0.3366837,0.3792292,-1.675253,0.5545987,-0.02009022
334.7788,0.04441556,-0.3366837,0.3792292,-1.675253,0.5545987,-0.02009022
334.7928,0.04442167,-0.3365689,0.3810366,-1.682559,0.5684522,-0.0200903
334.8081,0.04442771,-0.3364555,0.3828441,-1.689766,0.582038,-0.02009048
334.8228,0.04443368,-0.3363434,0.384642,-1.696873,0.5953608,-0.02009072
334.8375,0.04443368,-0.3363434,0.384642,-1.696873,0.5953608,-0.02009072
334.8516,0.04443957,-0.3362327,0.3862518,-1.703881,0.6058913,-0.02009083
334.867,0.0444454,-0.3361233,0.3878989,-1.710789,0.6162243,-0.02009104
334.8814,0.04445116,-0.3360152,0.3895519,-1.717601,0.62636,-0.02009132
334.8961,0.04445116,-0.3360152,0.3895519,-1.717601,0.62636,-0.02009132
334.9105,0.04445685,-0.3359084,0.3909907,-1.724313,0.6337583,-0.02009141
334.9255,0.04446247,-0.3358029,0.3924815,-1.730927,0.6410231,-0.02009161
334.9399,0.04446247,-0.3358029,0.3924815,-1.730927,0.6410231,-0.02009161
334.9561,0.04446802,-0.3356987,0.3939848,-1.737447,0.6481517,-0.02009186
334.9705,0.04447351,-0.3355957,0.3954828,-1.743873,0.6551442,-0.02009216
334.9841,0.04447893,-0.3354939,0.3967184,-1.750201,0.6594474,-0.02009218
334.9984,0.04447893,-0.3354939,0.3967184,-1.750201,0.6594474,-0.02009218
335.0125,0.04448428,-0.3353934,0.3980203,-1.756432,0.6636807,-0.02009231
335.028,0.04448957,-0.335294,0.3993415,-1.762572,0.6678384,-0.02009249
335.0426,0.0444948,-0.3351958,0.4006608,-1.768622,0.6719184,-0.02009271
335.0573,0.0444948,-0.3351958,0.4006608,-1.768622,0.6719184,-0.02009271
335.0712,0.04449996,-0.3350989,0.4016775,-1.774575,0.6733529,-0.02009258
335.0865,0.04450505,-0.335003,0.4027783,-1.780435,0.6747767,-0.02009257
335.1012,0.04451009,-0.3349084,0.4039072,-1.786206,0.6761817,-0.02009262
335.1162,0.04451009,-0.3349084,0.4039072,-1.786206,0.6761817,-0.02009262
335.1302,0.04451505,-0.3348148,0.4047172,-1.791883,0.6749866,-0.02009232
335.1454,0.04451995,-0.3347224,0.4056305,-1.797467,0.673835,-0.02009213
335.1601,0.0445248,-0.3346311,0.406582,-1.802966,0.672717,-0.020092
335.1749,0.0445248,-0.3346311,0.406582,-1.802966,0.672717,-0.020092
335.1888,0.04452959,-0.3345409,0.407542,-1.808383,0.6716256,-0.0200919
335.2042,0.04453431,-0.3344517,0.4081357,-1.813707,0.6679692,-0.02009138
335.2185,0.04453431,-0.3344517,0.4081357,-1.813707,0.6679692,-0.02009138
335.2349,0.04453897,-0.3343637,0.4088461,-1.818941,0.6644047,-0.02009099
335.2489,0.04454358,-0.3342766,0.4096029,-1.824094,0.6609232,-0.02009066
335.2627,0.04454813,-0.3341907,0.4103735,-1.829167,0.6575153,-0.02009035
335.2773,0.04454813,-0.3341907,0.4103735,-1.829167,0.6575153,-0.02009035
335.291,0.04455262,-0.3341057,0.4107438,-1.834153,0.6515789,-0.0200896
335.3063,0.04455705,-0.3340218,0.4112489,-1.83905,0.6457786,-0.02008897
335.3212,0.04456142,-0.3339389,0.4118114,-1.84387,0.640108,-0.0200884
335.3357,0.04456142,-0.3339389,0.4118114,-1.84387,0.640108,-0.0200884
335.3496,0.04456574,-0.333857,0.4119676,-1.848605,0.6319528,-0.02008741
335.3651,0.04457,-0.3337761,0.4122804,-1.853255,0.6239776,-0.02008653
335.3797,0.04457,-0.3337761,0.4122804,-1.853255,0.6239776,-0.02008653
335.3939,0.04457421,-0.3336961,0.4126633,-1.857831,0.6161783,-0.02008574
335.4091,0.04457837,-0.3336171,0.4130745,-1.862336,0.6085405,-0.02008497
335.4238,0.04458246,-0.333539,0.4130345,-1.86676,0.5984486,-0.02008375
335.4383,0.04458246,-0.333539,0.4130345,-1.86676,0.5984486,-0.02008375
335.4524,0.04458651,-0.3334619,0.4131613,-1.871101,0.5885692,-0.02008262
335.4679,0.0445905,-0.3333857,0.4133665,-1.875372,0.578906,-0.02008158
335.4824,0.04459444,-0.3333104,0.4136061,-1.879577,0.5694426,-0.02008057
335.4969,0.04459444,-0.3333104,0.4136061,-1.879577,0.5694426,-0.02008057
335.513,0.04459833,-0.3332361,0.4133677,-1.883705,0.5575596,-0.02007912
335.5274,0.04460217,-0.3331626,0.4133124,-1.887754,0.5459188,-0.02007774
335.5408,0.04460596,-0.33309,0.4133471,-1.891737,0.5345328,-0.02007645
335.5552,0.04460596,-0.33309,0.4133471,-1.891737,0.5345328,-0.02007645
335.5693,0.04460969,-0.3330183,0.4129086,-1.895648,0.5207724,-0.02007478
335.5847,0.04461338,-0.3329474,0.4126756,-1.899483,0.5072893,-0.02007316
335.5994,0.04461338,-0.3329474,0.4126756,-1.899483,0.5072893,-0.02007316
335.6131,0.04461702,-0.3328774,0.4125467,-1.903256,0.4941017,-0.02007167
335.6286,0.04462062,-0.3328082,0.4124683,-1.906971,0.481188,-0.02007023
335.6432,0.04462416,-0.3327399,0.4118741,-1.910621,0.4659259,-0.02006842
335.6576,0.04462416,-0.3327399,0.4118741,-1.910621,0.4659259,-0.02006842
335.6721,0.04462766,-0.3326724,0.4114906,-1.914197,0.4509603,-0.02006661
335.6873,0.04463112,-0.3326056,0.4112185,-1.917715,0.4363223,-0.02006495
335.702,0.04463453,-0.3325397,0.4110024,-1.921181,0.4219886,-0.02006336
335.7166,0.04463453,-0.3325397,0.4110024,-1.921181,0.4219886,-0.02006336
335.7307,0.04463788,-0.3324746,0.4102498,-1.924586,0.4053382,-0.02006143
335.7464,0.0446412,-0.3324102,0.409721,-1.927922,0.3890033,-0.02005951
335.7608,0.04464447,-0.3323467,0.4093144,-1.931205,0.3730269,-0.02005775
335.7752,0.04464447,-0.3323467,0.4093144,-1.931205,0.3730269,-0.02005775
335.7914,0.0446477,-0.3322839,0.4083849,-1.934434,0.354779,-0.02005574
335.8054,0.04465089,-0.3322218,0.407701,-1.937597,0.3368756,-0.02005375
335.8189,0.04465089,-0.3322218,0.407701,-1.937597,0.3368756,-0.02005375
335.8331,0.04465403,-0.3321605,0.4071533,-1.940712,0.3193664,-0.02005193
335.8483,0.04465714,-0.3321,0.4066767,-1.943783,0.3022233,-0.02005021
335.863,0.0446602,-0.3320402,0.4056349,-1.946807,0.2828285,-0.02004831
335.8774,0.0446602,-0.3320402,0.4056349,-1.946807,0.2828285,-0.02004831
335.8915,0.04466321,-0.3319811,0.4048386,-1.94977,0.263788,-0.02004641
335.9069,0.0446662,-0.3319227,0.4041834,-1.952689,0.2451659,-0.0200447
335.9214,0.04466914,-0.331865,0.4036034,-1.955568,0.2269336,-0.02004309
335.9361,0.04466914,-0.331865,0.4036034,-1.955568,0.2269336,-0.02004309
335.9501,0.04467208,-0.3318079,0.4045247,-1.95841,0.2150835,-0.020042
335.9656,0.04467497,-0.3317515,0.4049674,-1.961244,0.2035805,-0.02004114
335.9801,0.04467782,-0.3316958,0.4051547,-1.964041,0.1922161,-0.02004011
335.995,0.04467782,-0.3316958,0.4051547,-1.964041,0.1922161,-0.02004011
336.0089,0.04468064,-0.3316408,0.4052373,-1.966796,0.181035,-0.02003905
336.0242,0.04468342,-0.3315864,0.4052812,-1.969506,0.1700586,-0.02003798
336.0388,0.04468342,-0.3315864,0.4052812,-1.969506,0.1700586,-0.02003798
336.0528,0.04468616,-0.3315327,0.4053142,-1.972174,0.1592938,-0.02003694
336.0703,0.04468887,-0.3314796,0.4053482,-1.9748,0.1487411,-0.02003593
336.0837,0.04469158,-0.3314272,0.4039977,-1.968206,0.1377599,-0.03503453
336.0984,0.04469158,-0.3314272,0.4039977,-1.968206,0.1377599,-0.03503453
336.1115,0.04469429,-0.3313754,0.4033908,-1.964779,0.1273108,-0.04973923
336.127,0.04469697,-0.3313242,0.4031074,-1.962934,0.1172205,-0.06415567
336.1412,0.04469962,-0.3312736,0.4029766,-1.961895,0.1074073,-0.07828949
336.156,0.04469962,-0.3312736,0.4029766,-1.961895,0.1074073,-0.07828949
336.1698,0.04470222,-0.3312236,0.4031517,-1.963329,0.09793387,-0.08882076
336.1851,0.04470479,-0.3311743,0.4032601,-1.964287,0.08863156,-0.09914556
336.1998,0.04470479,-0.3311743,0.4032601,-1.964287,0.08863156,-0.09914556
336.2136,0.04470732,-0.3311255,0.4033602,-1.965033,0.07951698,-0.1092679
336.2292,0.04470981,-0.3310772,0.4036396,-1.96775,0.07066908,-0.1158586
336.2439,0.04471226,-0.3310296,0.4038437,-1.969723,0.06197321,-0.12232
336.2585,0.04471226,-0.3310296,0.4038437,-1.969723,0.06197321,-0.12232
336.2724,0.04471468,-0.3309825,0.4040301,-1.97134,0.05344641,-0.1286548
336.2877,0.04471707,-0.330936,0.4042212,-1.972787,0.04509542,-0.1348654
336.3024,0.04471942,-0.3308901,0.4045185,-1.976218,0.03695944,-0.1376209
336.3171,0.04471942,-0.3308901,0.4045185,-1.976218,0.03695944,-0.1376209
336.3311,0.04472173,-0.3308446,0.4047647,-1.978892,0.02896835,-0.1403224
336.3462,0.04472401,-0.3307998,0.4049975,-1.981189,0.02113143,-0.142971
336.3631,0.04472627,-0.3307555,0.4052313,-1.983295,0.01345195,-0.1455676
336.3765,0.04472627,-0.3307555,0.4052313,-1.983295,0.01345195,-0.1455676
336.3903,0.04472848,-0.3307117,0.4054988,-1.987361,0.005936048,-0.14478
336.4046,0.04473066,-0.3306684,0.4057376,-1.990645,-0.001441471,-0.1440079
336.4189,0.04473066,-0.3306684,0.4057376,-1.990645,-0.001441471,-0.1440079
336.4329,0.04473281,-0.3306256,0.4059686,-1.993527,-0.00867711,-0.143251
336.4484,0.04473492,-0.3305834,0.4061805,-1.998255,-0.01578711,-0.1391756
336.4629,0.044737,-0.3305416,0.4063794,-2.002133,-0.02276311,-0.1351801
336.4774,0.044737,-0.3305416,0.4063794,-2.002133,-0.02276311,-0.1351801
336.4915,0.04473905,-0.3305004,0.4065749,-2.005564,-0.02960531,-0.131263
336.5068,0.04474107,-0.3304596,0.4067698,-2.008747,-0.03631563,-0.1274227
336.5214,0.04474306,-0.3304194,0.4068871,-2.013838,-0.04294421,-0.1203245
336.5361,0.04474306,-0.3304194,0.4068871,-2.013838,-0.04294421,-0.1203245
336.5504,0.04474501,-0.3303796,0.4070158,-2.018099,-0.04943989,-0.1133654
336.5655,0.04474694,-0.3303403,0.4071502,-2.021914,-0.05580823,-0.1065428
336.5803,0.04474883,-0.3303015,0.4072866,-2.02547,-0.06205416,-0.09985401
336.5952,0.04474883,-0.3303015,0.4072866,-2.02547,-0.06205416,-0.09985401
336.6089,0.04475069,-0.3302631,0.4072896,-2.030918,-0.06826019,-0.0899631
336.6241,0.04475252,-0.3302252,0.4073282,-2.03552,-0.07433172,-0.08026615
336.6386,0.04475252,-0.3302252,0.4073282,-2.03552,-0.07433172,-0.08026615
336.6549,0.04475433,-0.3301878,0.4073826,-2.039659,-0.08027963,-0.07075934
336.6691,0.04475609,-0.3301508,0.4072688,-2.045579,-0.08621475,-0.05810569
336.6827,0.04475783,-0.3301142,0.4072108,-2.050591,-0.09201127,-0.04570017
336.6974,0.04475783,-0.3301142,0.4072108,-2.050591,-0.09201127,-0.04570017
336.7115,0.04475954,-0.3300782,0.4071774,-2.055102,-0.0976852,-0.03353791
336.7265,0.04476122,-0.3300425,0.4071541,-2.059309,-0.1032472,-0.02161413
336.7411,0.04476287,-0.3300073,0.4069078,-2.065363,-0.1088381,-0.00659092
336.7556,0.04476287,-0.3300073,0.4069078,-2.065363,-0.1088381,-0.00659092
336.7711,0.04476449,-0.3299724,0.40674,-2.070538,-0.1142854,0.008137711
336.7851,0.04476609,-0.3299381,0.4066077,-2.075217,-0.1196107,0.02257755
336.8001,0.04476766,-0.3299041,0.406491,-2.07959,-0.1248271,0.03673425
336.8147,0.04476766,-0.3299041,0.406491,-2.07959,-0.1248271,0.03673425
336.8285,0.0447692,-0.3298705,0.4063157,-2.084235,-0.1299815,0.05140545
336.8439,0.04477072,-0.3298374,0.4061685,-2.088542,-0.1350246,0.06578898
336.8586,0.04477072,-0.3298374,0.4061685,-2.088542,-0.1350246,0.06578898
336.8725,0.04477222,-0.3298046,0.4060353,-2.09262,-0.1399649,0.07989049
336.888,0.04477369,-0.3297723,0.4059101,-2.096525,-0.1448074,0.0937155
336.9025,0.04477514,-0.3297403,0.4057908,-2.100283,-0.1495549,0.1072694
336.917,0.04477514,-0.3297403,0.4057908,-2.100283,-0.1495549,0.1072694
336.9334,0.04477657,-0.3297088,0.4056768,-2.103912,-0.1542094,0.1205576
336.9467,0.04477797,-0.3296776,0.4055682,-2.107419,-0.1587723,0.1335852
336.9614,0.04477936,-0.3296468,0.4055506,-2.110326,-0.1631921,0.1455653
336.9763,0.04477936,-0.3296468,0.4055506,-2.110326,-0.1631921,0.1455653
336.9898,0.04478073,-0.3296164,0.405507,-2.113292,-0.1675408,0.1573104
337.005,0.04478208,-0.3295863,0.4054559,-2.116237,-0.1718104,0.1688253
337.0197,0.04478208,-0.3295863,0.4054559,-2.116237,-0.1718104,0.1688253
337.0338,0.04478342,-0.3295566,0.4057951,-2.117089,-0.1757547,0.1767811
337.049,0.04478474,-0.3295273,0.4059889,-2.118579,-0.1797011,0.184581
337.0637,0.04478605,-0.3294983,0.406123,-2.120346,-0.1836063,0.1922278
337.0782,0.04478605,-0.3294983,0.406123,-2.120346,-0.1836063,0.1922278
337.0923,0.04478734,-0.3294697,0.4062357,-2.122213,-0.187449,0.1997248
337.108,0.04478862,-0.3294414,0.4067687,-2.12207,-0.1909546,0.2037415
337.1224,0.04478989,-0.3294135,0.4071366,-2.122617,-0.1944816,0.2076794
337.137,0.04478989,-0.3294135,0.4071366,-2.122617,-0.1944816,0.2076794
337.1511,0.04479114,-0.3293859,0.4074356,-2.123481,-0.19798,0.2115401
337.1665,0.04479237,-0.3293586,0.4077081,-2.124482,-0.2014262,0.2153251
337.1812,0.0447936,-0.3293317,0.4084295,-2.123509,-0.2045245,0.2157025
337.1958,0.0447936,-0.3293317,0.4084295,-2.123509,-0.2045245,0.2157025
337.2116,0.04479482,-0.3293051,0.4089683,-2.123254,-0.2076611,0.2160726
337.2258,0.04479602,-0.3292787,0.4094291,-2.123345,-0.2107812,0.2164355
337.2393,0.04479602,-0.3292787,0.4094291,-2.123345,-0.2107812,0.2164355
337.2534,0.04479722,-0.3292527,0.4103358,-2.121581,-0.2135618,0.2134579
337.2686,0.04479842,-0.3292271,0.4110382,-2.120603,-0.2163993,0.2105387
337.2831,0.04479959,-0.3292017,0.4116514,-2.120015,-0.2192326,0.2076768
337.2978,0.04479959,-0.3292017,0.4116514,-2.120015,-0.2192326,0.2076768
337.3118,0.04480075,-0.3291767,0.4122256,-2.119626,-0.2220329,0.2048709
337.3272,0.04480191,-0.3291519,0.4132845,-2.117327,-0.2244773,0.1987869
337.3416,0.04480306,-0.3291274,0.4141318,-2.115794,-0.2269874,0.1928221
337.3563,0.04480306,-0.3291274,0.4141318,-2.115794,-0.2269874,0.1928221
337.3702,0.0448042,-0.3291033,0.4148842,-2.114654,-0.2295018,0.1869743
337.3859,0.04480533,-0.3290794,0.4155928,-2.113724,-0.2319912,0.1812411
337.4004,0.04480646,-0.3290558,0.4168022,-2.110905,-0.2341222,0.1722871
337.415,0.04480646,-0.3290558,0.4168022,-2.110905,-0.2341222,0.1722871
337.4289,0.04480758,-0.3290324,0.4177859,-2.108869,-0.2363316,0.1635087
337.4445,0.04480869,-0.3290094,0.4186661,-2.107244,-0.2385551,0.1549024
337.4591,0.04480869,-0.3290094,0.4186661,-2.107244,-0.2385551,0.1549024
337.4729,0.04480979,-0.3289866,0.420032,-2.103842,-0.2404363,0.1431316
337.4881,0.04481089,-0.3289641,0.4211516,-2.101284,-0.2424117,0.1315916
337.5038,0.04481199,-0.3289419,0.4221565,-2.099177,-0.2444123,0.1202778
337.5184,0.04481199,-0.3289419,0.4221565,-2.099177,-0.2444123,0.1202778
337.5324,0.04481307,-0.3289199,0.423104,-2.097327,-0.2464044,0.1091859
337.5467,0.04481415,-0.3288982,0.424569,-2.093637,-0.2480422,0.09497833
337.5612,0.04481522,-0.3288767,0.4257855,-2.090766,-0.2497769,0.08104929
337.5759,0.04481522,-0.3288767,0.4257855,-2.090766,-0.2497769,0.08104929
337.5897,0.04481629,-0.3288555,0.4268833,-2.088341,-0.2515421,0.06739335
337.6051,0.04481735,-0.3288346,0.4279196,-2.08618,-0.2533044,0.05400518
337.6209,0.04409045,-0.3288162,0.4271289,-2.090797,-0.2561688,0.05255342
337.6343,0.04409045,-0.3288162,0.4271289,-2.090797,-0.2561688,0.05255342
337.6482,0.04290864,-0.3287992,0.4271614,-2.092965,-0.2585449,0.05113033
337.6634,0.0414456,-0.3287827,0.4275301,-2.093991,-0.2606655,0.04973523
337.6781,0.0414456,-0.3287827,0.4275301,-2.093991,-0.2606655,0.04973523
337.6921,0.03981177,-0.3287663,0.4280222,-2.094494,-0.2626556,0.04836752
337.7076,0.03807735,-0.32875,0.4285521,-2.094768,-0.2645707,0.04702661
337.7222,0.03628691,-0.3287337,0.4290875,-2.094945,-0.2664346,0.04571199
337.7369,0.03628691,-0.3287337,0.4290875,-2.094945,-0.2664346,0.04571199
337.7515,0.03446873,-0.3287174,0.4296173,-2.095089,-0.2682572,0.04442313
337.7663,0.03264072,-0.3287011,0.4301386,-2.095225,-0.2700426,0.04315955
337.783,0.03081417,-0.3286848,0.430651,-2.095365,-0.2717925,0.04192074
337.7965,0.03081417,-0.3286848,0.430651,-2.095365,-0.2717925,0.04192074
337.8105,0.0289962,-0.3286687,0.4311553,-2.095512,-0.273508,0.04070621
337.8247,0.02719123,-0.3286526,0.4316521,-2.095669,-0.2751895,0.0395155
337.8394,0.02719123,-0.3286526,0.4316521,-2.095669,-0.2751895,0.0395155
337.8533,0.025402,-0.3286367,0.432142,-2.095834,-0.2768378,0.03834813
337.8687,0.02363017,-0.3286209,0.4326253,-2.096007,-0.2784533,0.03720366
337.8833,0.0218767,-0.3286052,0.4331025,-2.096188,-0.2800366,0.03608162
337.8981,0.0218767,-0.3286052,0.4331025,-2.096188,-0.2800366,0.03608162
337.9121,0.02014212,-0.3285897,0.4335736,-2.096376,-0.2815883,0.03498159
337.9276,0.0184267,-0.3285744,0.4340388,-2.09657,-0.2831089,0.03390313
337.9421,0.01673051,-0.3285592,0.4344983,-2.096772,-0.2845992,0.03284581
337.9568,0.01673051,-0.3285592,0.4344983,-2.096772,-0.2845992,0.03284581
337.9708,0.01505351,-0.3285441,0.4349521,-2.096979,-0.2860596,0.03180923
337.9864,0.01339562,-0.3285293,0.4354004,-2.097192,-0.2874908,0.03079298
338.0009,0.01175669,-0.3285145,0.4358431,-2.09741,-0.2888933,0.02979665
338.0156,0.01175669,-0.3285145,0.4358431,-2.09741,-0.2888933,0.02979665
338.0298,0.01013655,-0.3285,0.4362802,-2.097634,-0.2902678,0.02881985
338.0451,0.008535012,-0.3284855,0.4367119,-2.097862,-0.2916148,0.02786221
338.0618,0.006951886,-0.3284713,0.4371383,-2.098096,-0.2929349,0.02692335
338.0751,0.006951886,-0.3284713,0.4371383,-2.098096,-0.2929349,0.02692335
338.089,0.005386972,-0.3284572,0.4375592,-2.098334,-0.2942286,0.0260029
338.1034,0.003840068,-0.3284432,0.4379748,-2.098576,-0.2954963,0.0251005
338.1179,0.003840068,-0.3284432,0.4379748,-2.098576,-0.2954963,0.0251005
