JMolnar6/NonAnthroHands_User_Study/HandsLoggerWithURDF/tempdata/files/Reachy_JointMotion_gesture_5_23.csv
Time,r_shoulder,r_shoulder_x,r_upper_arm,r_forearm,r_wrist,r_wrist2hand,
247.5825,0.04500334,-2.247888E-08,NaN,-0.327001,-1.366317E-07,NaN,0.4613452,-2.548778E-09,NaN,-2.148233,8.415878E-06,-0.529588,-2.93165E-08,NaN,NaN,-0.02002521,-5.587984E-11,-3.924657E-07,-1.144346E-07,1.362175E-08,-2.861022E-08
247.6,0.04500333,-2.247781E-08,NaN,-0.327001,-1.366306E-07,NaN,0.4604723,-2.477767E-09,NaN,-2.148254,8.416507E-06,-0.5317779,-2.938532E-08,NaN,NaN,-0.02002436,-5.587984E-11,-3.811408E-07,-1.144322E-07,1.481384E-08,-2.622604E-08
247.6163,0.04500333,-2.247781E-08,NaN,-0.327001,-1.366306E-07,NaN,0.4604723,-2.477767E-09,NaN,-2.148254,8.416507E-06,-0.5317779,-2.938532E-08,NaN,NaN,-0.02002436,-5.587984E-11,-3.811408E-07,-1.144322E-07,1.481384E-08,-2.622604E-08
247.6325,0.04500333,-2.247674E-08,NaN,-0.327001,-1.366295E-07,NaN,0.4597287,-2.406593E-09,NaN,-2.148293,8.41714E-06,-0.534332,-2.945429E-08,NaN,NaN,-0.02002488,-6.053645E-11,-3.894854E-07,-1.144299E-07,1.839012E-08,-2.861022E-08
247.6503,0.04500332,-2.247567E-08,NaN,-0.327001,-1.366284E-07,NaN,0.4591904,-2.336673E-09,NaN,-2.148333,8.417768E-06,-0.5368273,-2.952201E-08,NaN,NaN,-0.02002535,-6.053645E-11,-3.948498E-07,-1.144275E-07,1.958221E-08,-2.622604E-08
247.6674,0.04500333,-2.24746E-08,NaN,-0.327001,-1.366273E-07,NaN,0.4596843,-2.266573E-09,NaN,-2.148342,8.418401E-06,-0.5369775,-2.958992E-08,NaN,NaN,-0.02002647,-6.519307E-11,-4.082609E-07,-1.144251E-07,1.958221E-08,-2.861022E-08
247.6846,0.04500333,-2.247353E-08,NaN,-0.327001,-1.366262E-07,NaN,0.4601167,-2.196294E-09,NaN,-2.148328,8.419034E-06,-0.5366895,-2.9658E-08,NaN,NaN,-0.02002612,-6.984968E-11,-4.043866E-07,-1.144228E-07,2.19664E-08,-2.622604E-08
247.7031,0.04500333,-2.247245E-08,NaN,-0.327001,-1.366252E-07,NaN,0.4603801,-2.125838E-09,NaN,-2.148309,8.419667E-06,-0.5364016,-2.972626E-08,NaN,NaN,-0.02002578,-7.45063E-11,-3.987242E-07,-1.144204E-07,2.435058E-08,-2.861022E-08
247.7186,0.04500333,-2.247245E-08,NaN,-0.327001,-1.366252E-07,NaN,0.4603801,-2.125838E-09,NaN,-2.148309,8.419667E-06,-0.5364016,-2.972626E-08,NaN,NaN,-0.02002578,-7.45063E-11,-3.987242E-07,-1.144204E-07,2.435058E-08,-2.861022E-08
247.7346,0.04500334,-2.247138E-08,NaN,-0.327001,-1.366241E-07,NaN,0.461446,-2.055211E-09,NaN,-2.148266,8.4203E-06,-0.5339013,-2.979469E-08,NaN,NaN,-0.02002639,-7.916291E-11,-4.070688E-07,-1.144181E-07,1.958221E-08,-2.622604E-08
247.7521,0.04500335,-2.247031E-08,NaN,-0.327001,-1.36623E-07,NaN,0.4623301,-1.985826E-09,NaN,-2.148207,8.420933E-06,-0.5310654,-2.986188E-08,NaN,NaN,-0.0200257,-8.381953E-11,-3.984261E-07,-1.144158E-07,1.719803E-08,-2.861022E-08
247.769,0.04500335,-2.246924E-08,NaN,-0.327001,-1.36622E-07,NaN,0.4629827,-1.916249E-09,NaN,-2.148149,8.421566E-06,-0.5283053,-2.992926E-08,NaN,NaN,-0.02002512,-8.847614E-11,-3.915716E-07,-1.144135E-07,1.958221E-08,-2.622604E-08
247.7858,0.04500335,-2.246817E-08,NaN,-0.327001,-1.366209E-07,NaN,0.4634964,-1.847894E-09,NaN,-2.148099,8.422199E-06,-0.5256474,-2.999542E-08,NaN,NaN,-0.02002471,-9.313276E-11,-3.859092E-07,-1.144112E-07,1.958221E-08,-2.861022E-08
247.8029,0.04500337,-2.24671E-08,NaN,-0.327001,-1.366198E-07,NaN,0.4648419,-1.779327E-09,NaN,-2.148029,8.422828E-06,-0.520815,-3.006179E-08,NaN,NaN,-0.02002521,-9.313276E-11,-3.927637E-07,-1.144089E-07,2.19664E-08,-2.622604E-08
247.8203,0.04500337,-2.246603E-08,NaN,-0.327001,-1.366192E-07,NaN,0.4660151,-1.620519E-09,NaN,-2.147943,8.423456E-06,-0.5156851,-3.021841E-08,NaN,NaN,-0.02002439,-9.778937E-11,-3.83525E-07,-1.144056E-07,2.554268E-08,-2.861022E-08
247.8373,0.04500337,-2.246603E-08,NaN,-0.327001,-1.366192E-07,NaN,0.4660151,-1.620519E-09,NaN,-2.147943,8.423456E-06,-0.5156851,-3.021841E-08,NaN,NaN,-0.02002439,-9.778937E-11,-3.83525E-07,-1.144056E-07,2.554268E-08,-2.861022E-08
247.8535,0.04500338,-2.246496E-08,NaN,-0.327001,-1.366185E-07,NaN,0.4669556,-1.47596E-09,NaN,-2.147859,8.424094E-06,-0.5106717,-3.036077E-08,NaN,NaN,-0.02002365,-1.117592E-10,-3.745843E-07,-1.144023E-07,2.315849E-08,-2.622604E-08
247.8713,0.04500339,-2.246389E-08,NaN,-0.3270009,-1.366178E-07,NaN,0.4686573,-1.33831E-09,NaN,-2.147756,8.424731E-06,-0.5035435,-3.049623E-08,NaN,NaN,-0.02002387,-1.257291E-10,-3.775645E-07,-1.14399E-07,2.077431E-08,-2.861022E-08
247.8886,0.0450034,-2.246282E-08,NaN,-0.3270009,-1.36617E-07,NaN,0.4701425,-1.204618E-09,NaN,-2.147639,8.425369E-06,-0.4961784,-3.062774E-08,NaN,NaN,-0.02002283,-1.396989E-10,-3.653456E-07,-1.143957E-07,2.077431E-08,-2.622604E-08
247.9057,0.04500341,-2.246175E-08,NaN,-0.3270009,-1.366163E-07,NaN,0.4713688,-1.073399E-09,NaN,-2.147526,8.425997E-06,-0.488982,-3.075677E-08,NaN,NaN,-0.0200219,-1.443555E-10,-3.543187E-07,-1.143924E-07,2.554268E-08,-2.861022E-08
247.9231,0.04500342,-2.246068E-08,NaN,-0.3270009,-1.366155E-07,NaN,0.4724322,-9.446107E-10,NaN,-2.147421,8.426635E-06,-0.4819765,-3.088337E-08,NaN,NaN,-0.02002116,-1.583253E-10,-3.45527E-07,-1.143891E-07,2.315849E-08,-2.622604E-08
247.94,0.04500342,-2.246068E-08,NaN,-0.3270009,-1.366155E-07,NaN,0.4724322,-9.446107E-10,NaN,-2.147421,8.426635E-06,-0.4819765,-3.088337E-08,NaN,NaN,-0.02002116,-1.583253E-10,-3.45527E-07,-1.143891E-07,2.315849E-08,-2.622604E-08
247.9565,0.04500343,-2.245961E-08,NaN,-0.3270009,-1.366147E-07,NaN,0.4743051,-8.167909E-10,NaN,-2.147301,8.427263E-06,-0.4728742,-3.1009E-08,NaN,NaN,-0.02002128,-1.629819E-10,-3.489543E-07,-1.143857E-07,2.19664E-08,-2.861022E-08
247.9737,0.04500344,-2.245855E-08,NaN,-0.3270009,-1.36614E-07,NaN,0.4759786,-6.913392E-10,NaN,-2.147167,8.427896E-06,-0.4635646,-3.113226E-08,NaN,NaN,-0.02002014,-1.722952E-10,-3.343511E-07,-1.143824E-07,2.19664E-08,-2.622604E-08
247.9912,0.04500346,-2.245748E-08,NaN,-0.3270008,-1.366132E-07,NaN,0.4773969,-5.66793E-10,NaN,-2.147035,8.428525E-06,-0.4544567,-3.125462E-08,NaN,NaN,-0.02001908,-1.769518E-10,-3.219832E-07,-1.143792E-07,2.077431E-08,-2.861022E-08
248.0079,0.04500347,-2.245641E-08,NaN,-0.3270008,-1.366119E-07,NaN,0.4795565,-7.564874E-10,NaN,-2.146888,8.429149E-06,-0.4433047,-3.106274E-08,NaN,NaN,-0.02001894,-1.816084E-10,-3.1945E-07,-1.143767E-07,2.077431E-08,-2.622604E-08
248.0253,0.04500348,-2.245534E-08,NaN,-0.3270008,-1.366105E-07,NaN,0.4814735,-9.409102E-10,NaN,-2.146729,8.429777E-06,-0.4320027,-3.087612E-08,NaN,NaN,-0.02001761,-1.909216E-10,-3.011216E-07,-1.143742E-07,1.839012E-08,-2.861022E-08
248.0421,0.0450035,-2.245427E-08,NaN,-0.3270007,-1.366092E-07,NaN,0.4831112,-1.121572E-09,NaN,-2.146575,8.430401E-06,-0.4209503,-3.069326E-08,NaN,NaN,-0.02001641,-1.955782E-10,-2.862204E-07,-1.143717E-07,1.600594E-08,-2.622604E-08
248.0599,0.0450035,-2.245427E-08,NaN,-0.3270007,-1.366092E-07,NaN,0.4831112,-1.121572E-09,NaN,-2.146575,8.430401E-06,-0.4209503,-3.069326E-08,NaN,NaN,-0.02001641,-1.955782E-10,-2.862204E-07,-1.143717E-07,1.600594E-08,-2.622604E-08
248.076,0.04500351,-2.24532E-08,NaN,-0.3270007,-1.366078E-07,NaN,0.4854747,-1.297135E-09,NaN,-2.146409,8.43103E-06,-0.4078899,-3.05155E-08,NaN,NaN,-0.02001609,-2.048915E-10,-2.823461E-07,-1.143692E-07,1.362175E-08,-2.861022E-08
248.0937,0.04500353,-2.245213E-08,NaN,-0.3270007,-1.366064E-07,NaN,0.4875804,-1.46911E-09,NaN,-2.146233,8.431644E-06,-0.3947229,-3.034133E-08,NaN,NaN,-0.02001465,-2.002349E-10,-2.61708E-07,-1.143668E-07,1.481384E-08,-2.622604E-08
248.1109,0.04500354,-2.245107E-08,NaN,-0.3270006,-1.366051E-07,NaN,0.4893963,-1.636159E-09,NaN,-2.146064,8.432268E-06,-0.3818448,-3.017207E-08,NaN,NaN,-0.02001335,-2.048915E-10,-2.43305E-07,-1.143643E-07,1.362175E-08,-2.861022E-08
248.1279,0.04500356,-2.245E-08,NaN,-0.3270006,-1.366037E-07,NaN,0.4910228,-1.798379E-09,NaN,-2.145908,8.432883E-06,-0.3692712,-3.000766E-08,NaN,NaN,-0.02001222,-2.002349E-10,-2.277333E-07,-1.143619E-07,1.004547E-08,-2.622604E-08
248.1449,0.04500358,-2.244893E-08,NaN,-0.3270006,-1.366024E-07,NaN,0.4934337,-1.955864E-09,NaN,-2.145744,8.433507E-06,-0.3546914,-2.984797E-08,NaN,NaN,-0.02001186,-2.048915E-10,-2.22965E-07,-1.143594E-07,8.853379E-09,-2.861022E-08
248.1618,0.0450036,-2.244786E-08,NaN,-0.3270006,-1.36601E-07,NaN,0.4956082,-2.108708E-09,NaN,-2.14557,8.434122E-06,-0.3400265,-2.969292E-08,NaN,NaN,-0.02001042,-2.002349E-10,-2.012465E-07,-1.14357E-07,6.469194E-09,-2.622604E-08
248.179,0.0450036,-2.244786E-08,NaN,-0.3270006,-1.36601E-07,NaN,0.4956082,-2.108708E-09,NaN,-2.14557,8.434122E-06,-0.3400265,-2.969292E-08,NaN,NaN,-0.02001042,-2.002349E-10,-2.012465E-07,-1.14357E-07,6.469194E-09,-2.622604E-08
248.1953,0.04500361,-2.24468E-08,NaN,-0.3270005,-1.365997E-07,NaN,0.497501,-2.259828E-09,NaN,-2.145402,8.434746E-06,-0.3256754,-2.95396E-08,NaN,NaN,-0.0200091,-2.048915E-10,-1.799006E-07,-1.143546E-07,7.661287E-09,-2.861022E-08
248.2137,0.04500363,-2.244573E-08,NaN,-0.3270005,-1.365983E-07,NaN,0.500113,-2.406431E-09,NaN,-2.145229,8.43537E-06,-0.3093641,-2.939079E-08,NaN,NaN,-0.02000854,-2.095481E-10,-1.730647E-07,-1.143522E-07,1.004547E-08,-2.622604E-08
248.2316,0.04500365,-2.244466E-08,NaN,-0.3270005,-1.36597E-07,NaN,0.5024483,-2.548606E-09,NaN,-2.145048,8.435998E-06,-0.2930202,-2.924642E-08,NaN,NaN,-0.02000706,-2.188613E-10,-1.459539E-07,-1.143498E-07,1.362175E-08,-2.861022E-08
248.2476,0.04500367,-2.244359E-08,NaN,-0.3270004,-1.365957E-07,NaN,0.5044812,-2.68644E-09,NaN,-2.144878,8.436613E-06,-0.2770322,-2.910638E-08,NaN,NaN,-0.02000574,-2.142047E-10,-1.230992E-07,-1.143474E-07,1.839012E-08,-2.622604E-08
248.2648,0.04500369,-2.244253E-08,NaN,-0.3270004,-1.365943E-07,NaN,0.5063148,-2.820018E-09,NaN,-2.144724,8.437237E-06,-0.261411,-2.89706E-08,NaN,NaN,-0.0200046,-2.188613E-10,-1.021631E-07,-1.14345E-07,2.077431E-08,-2.861022E-08
248.2824,0.04500371,-2.244146E-08,NaN,-0.3270004,-1.36593E-07,NaN,0.5089226,-2.949425E-09,NaN,-2.144568,8.437852E-06,-0.2438287,-2.883899E-08,NaN,NaN,-0.02000406,-2.142047E-10,-9.258912E-08,-1.143426E-07,2.435059E-08,-2.622604E-08
248.299,0.04500371,-2.244146E-08,NaN,-0.3270004,-1.36593E-07,NaN,0.5089226,-2.949425E-09,NaN,-2.144568,8.437852E-06,-0.2438287,-2.883899E-08,NaN,NaN,-0.02000406,-2.142047E-10,-9.258912E-08,-1.143426E-07,2.435059E-08,-2.622604E-08
248.3151,0.04500373,-2.24404E-08,NaN,-0.3270003,-1.365917E-07,NaN,0.5112748,-3.074741E-09,NaN,-2.144407,8.438476E-06,-0.2262322,-2.871147E-08,NaN,NaN,-0.02000275,-2.188613E-10,-6.53945E-08,-1.143402E-07,2.315849E-08,-2.861022E-08
248.333,0.04500375,-2.243933E-08,NaN,-0.3270003,-1.365904E-07,NaN,0.5133342,-3.196047E-09,NaN,-2.144257,8.43909E-06,-0.2090125,-2.858796E-08,NaN,NaN,-0.02000159,-2.142047E-10,-3.983901E-08,-1.143379E-07,2.077431E-08,-2.622604E-08
248.3502,0.04500378,-2.243826E-08,NaN,-0.3270003,-1.365891E-07,NaN,0.516104,-3.313422E-09,NaN,-2.144108,8.439719E-06,-0.1898762,-2.846838E-08,NaN,NaN,-0.020001,-2.235179E-10,-2.657698E-08,-1.143355E-07,1.839012E-08,-2.861022E-08
248.3671,0.0450038,-2.24372E-08,NaN,-0.3270003,-1.365878E-07,NaN,0.5185811,-3.428356E-09,NaN,-2.143958,8.440334E-06,-0.1707744,-2.835125E-08,NaN,NaN,-0.01999983,-2.188613E-10,3.523366E-09,-1.143332E-07,1.719803E-08,-2.622604E-08
248.3841,0.04500382,-2.243613E-08,NaN,-0.3270002,-1.365865E-07,NaN,0.5207472,-3.539484E-09,NaN,-2.143822,8.440958E-06,-0.1520877,-2.823792E-08,NaN,NaN,-0.01999884,-2.235179E-10,3.317668E-08,-1.143309E-07,1.481384E-08,-2.861022E-08
248.4011,0.04500384,-2.243507E-08,NaN,-0.3270002,-1.365851E-07,NaN,0.5227079,-3.646882E-09,NaN,-2.143706,8.441572E-06,-0.1338224,-2.812832E-08,NaN,NaN,-0.01999803,-2.188613E-10,5.955173E-08,-1.143285E-07,1.600594E-08,-2.622604E-08
248.4184,0.04500384,-2.243507E-08,NaN,-0.3270002,-1.365851E-07,NaN,0.5227079,-3.646882E-09,NaN,-2.143706,8.441572E-06,-0.1338224,-2.812832E-08,NaN,NaN,-0.01999803,-2.188613E-10,5.955173E-08,-1.143285E-07,1.600594E-08,-2.622604E-08
248.4351,0.04500386,-2.2434E-08,NaN,-0.3270002,-1.365839E-07,NaN,0.5254368,-3.750647E-09,NaN,-2.143595,8.442192E-06,-0.1136364,-2.802235E-08,NaN,NaN,-0.01999762,-2.188613E-10,7.340981E-08,-1.143262E-07,1.839012E-08,-2.861022E-08
248.4526,0.04500389,-2.243294E-08,NaN,-0.3270001,-1.365826E-07,NaN,0.5278971,-3.850828E-09,NaN,-2.143486,8.442807E-06,-0.09349774,-2.791996E-08,NaN,NaN,-0.01999685,-2.142047E-10,1.067884E-07,-1.143239E-07,1.839012E-08,-2.622604E-08
248.4697,0.04500391,-2.243187E-08,NaN,-0.3270001,-1.365813E-07,NaN,0.5300581,-3.947489E-09,NaN,-2.143393,8.443426E-06,-0.07379048,-2.78211E-08,NaN,NaN,-0.01999624,-2.142047E-10,1.377828E-07,-1.143216E-07,1.719803E-08,-2.861022E-08
248.4873,0.04500394,-2.243081E-08,NaN,-0.3270001,-1.3658E-07,NaN,0.5329253,-4.040704E-09,NaN,-2.143307,8.444041E-06,-0.05220717,-2.772568E-08,NaN,NaN,-0.01999596,-2.095481E-10,1.568563E-07,-1.143193E-07,1.719803E-08,-2.622604E-08
248.504,0.04500397,-2.242974E-08,NaN,-0.3270001,-1.365787E-07,NaN,0.5354905,-4.130537E-09,NaN,-2.143229,8.44466E-06,-0.03071517,-2.763364E-08,NaN,NaN,-0.01999556,-2.095481E-10,1.941092E-07,-1.14317E-07,1.600593E-08,-2.861022E-08
248.521,0.04500399,-2.242868E-08,NaN,-0.327,-1.365774E-07,NaN,0.5377409,-4.218466E-09,NaN,-2.143167,8.445275E-06,-0.009689132,-2.75435E-08,NaN,NaN,-0.01999532,-2.048915E-10,2.259977E-07,-1.143147E-07,1.362175E-08,-2.622604E-08
248.5382,0.04500399,-2.242868E-08,NaN,-0.327,-1.365774E-07,NaN,0.5377409,-4.218466E-09,NaN,-2.143167,8.445275E-06,-0.009689132,-2.75435E-08,NaN,NaN,-0.01999532,-2.048915E-10,2.259977E-07,-1.143147E-07,1.362175E-08,-2.622604E-08
248.5545,0.04500402,-2.242762E-08,NaN,-0.327,-1.365761E-07,NaN,0.5406894,-4.303121E-09,NaN,-2.143119,8.445894E-06,0.0131854,-2.745664E-08,NaN,NaN,-0.01999529,-2.048915E-10,2.474554E-07,-1.143124E-07,1.600593E-08,-2.861022E-08
248.572,0.04500404,-2.242655E-08,NaN,-0.327,-1.365749E-07,NaN,0.5433306,-4.384561E-09,NaN,-2.14308,8.446509E-06,0.0359398,-2.737299E-08,NaN,NaN,-0.01999535,-2.002349E-10,2.856023E-07,-1.143102E-07,1.362175E-08,-2.622604E-08
248.5893,0.04500407,-2.242549E-08,NaN,-0.3269999,-1.365736E-07,NaN,0.5456542,-4.462848E-09,NaN,-2.143061,8.447128E-06,0.05820185,-2.729249E-08,NaN,NaN,-0.01999559,-2.002349E-10,3.189809E-07,-1.143079E-07,1.242966E-08,-2.861022E-08
248.6063,0.04500409,-2.242442E-08,NaN,-0.3269999,-1.365723E-07,NaN,0.5477684,-4.538049E-09,NaN,-2.143064,8.447739E-06,0.07997009,-2.721508E-08,NaN,NaN,-0.01999596,-1.909217E-10,3.496773E-07,-1.143057E-07,1.362175E-08,-2.622604E-08
248.6235,0.04500412,-2.242336E-08,NaN,-0.3269999,-1.365711E-07,NaN,0.5506456,-4.610224E-09,NaN,-2.143084,8.448358E-06,0.1035935,-2.71407E-08,NaN,NaN,-0.01999635,-1.909217E-10,3.70837E-07,-1.143034E-07,1.242966E-08,-2.861022E-08
248.6404,0.04500415,-2.24223E-08,NaN,-0.3269998,-1.365698E-07,NaN,0.5532485,-4.680844E-09,NaN,-2.143116,8.448968E-06,0.1270959,-2.706787E-08,NaN,NaN,-0.01999711,-1.816084E-10,4.089839E-07,-1.143012E-07,1.242966E-08,-2.622604E-08
248.658,0.04500415,-2.24223E-08,NaN,-0.3269998,-1.365698E-07,NaN,0.5532485,-4.680844E-09,NaN,-2.143116,8.448968E-06,0.1270959,-2.706787E-08,NaN,NaN,-0.01999711,-1.816084E-10,4.089839E-07,-1.143012E-07,1.242966E-08,-2.622604E-08
248.6741,0.04500418,-2.242123E-08,NaN,-0.3269998,-1.365685E-07,NaN,0.5555497,-4.748525E-09,NaN,-2.143167,8.449588E-06,0.1500978,-2.699798E-08,NaN,NaN,-0.01999803,-1.816084E-10,4.435546E-07,-1.14299E-07,1.242966E-08,-2.861022E-08
248.6921,0.04500421,-2.242017E-08,NaN,-0.3269998,-1.365673E-07,NaN,0.5585539,-4.813328E-09,NaN,-2.143238,8.450198E-06,0.174908,-2.693096E-08,NaN,NaN,-0.01999881,-1.722952E-10,4.638202E-07,-1.142968E-07,1.123756E-08,-2.622604E-08
248.7087,0.04500424,-2.241911E-08,NaN,-0.3269998,-1.36566E-07,NaN,0.5612563,-4.875309E-09,NaN,-2.143325,8.450808E-06,0.1995618,-2.686677E-08,NaN,NaN,-0.02000018,-1.62982E-10,5.043514E-07,-1.142946E-07,1.242966E-08,-2.861022E-08
248.726,0.04500427,-2.241804E-08,NaN,-0.3269997,-1.365648E-07,NaN,0.5636442,-4.934522E-09,NaN,-2.14343,8.451423E-06,0.2236866,-2.680535E-08,NaN,NaN,-0.02000167,-1.583254E-10,5.424984E-07,-1.142924E-07,1.719803E-08,-2.622604E-08
248.7432,0.04500429,-2.241698E-08,NaN,-0.3269997,-1.365636E-07,NaN,0.5658239,-4.991022E-09,NaN,-2.143556,8.452047E-06,0.2472805,-2.674664E-08,NaN,NaN,-0.02000321,-1.62982E-10,5.76473E-07,-1.142902E-07,1.600593E-08,-2.861022E-08
248.7617,0.04500433,-2.241592E-08,NaN,-0.3269997,-1.365623E-07,NaN,0.5687662,-5.046272E-09,NaN,-2.143705,8.452662E-06,0.2726826,-2.668918E-08,NaN,NaN,-0.02000444,-1.583254E-10,5.985267E-07,-1.14288E-07,7.661284E-09,-2.622604E-08
248.7772,0.04500433,-2.241592E-08,NaN,-0.3269997,-1.365623E-07,NaN,0.5687662,-5.046272E-09,NaN,-2.143705,8.452662E-06,0.2726826,-2.668918E-08,NaN,NaN,-0.02000444,-1.583254E-10,5.985267E-07,-1.14288E-07,7.661284E-09,-2.622604E-08
248.7937,0.04500436,-2.241486E-08,NaN,-0.3269996,-1.365611E-07,NaN,0.5714422,-5.098886E-09,NaN,-2.14387,8.453286E-06,0.2979345,-2.663436E-08,NaN,NaN,-0.02000653,-1.62982E-10,6.366737E-07,-1.142858E-07,8.853377E-09,-2.861022E-08
248.8119,0.04500438,-2.24138E-08,NaN,-0.3269996,-1.365599E-07,NaN,0.5738197,-5.148916E-09,NaN,-2.144054,8.453901E-06,0.3226541,-2.658212E-08,NaN,NaN,-0.02000868,-1.583254E-10,6.730325E-07,-1.142836E-07,5.277098E-09,-2.622604E-08
248.8289,0.04500441,-2.241273E-08,NaN,-0.3269996,-1.365586E-07,NaN,0.5759958,-5.196412E-09,NaN,-2.144255,8.454515E-06,0.3468342,-2.653242E-08,NaN,NaN,-0.02001083,-1.536687E-10,7.064111E-07,-1.142814E-07,4.085005E-09,-2.861022E-08
248.8458,0.04500443,-2.241167E-08,NaN,-0.3269995,-1.365574E-07,NaN,0.578034,-5.241422E-09,NaN,-2.144472,8.455135E-06,0.3705057,-2.64852E-08,NaN,NaN,-0.020013,-1.490121E-10,7.403858E-07,-1.142793E-07,4.085005E-09,-2.622604E-08
248.8627,0.04500446,-2.241061E-08,NaN,-0.3269995,-1.365562E-07,NaN,0.5799665,-5.285407E-09,NaN,-2.144705,8.455759E-06,0.3936923,-2.6439E-08,NaN,NaN,-0.02001522,-1.443555E-10,7.701881E-07,-1.142771E-07,-3.067552E-09,-2.861022E-08
248.8801,0.04500448,-2.240955E-08,NaN,-0.3269995,-1.36555E-07,NaN,0.5818092,-5.326977E-09,NaN,-2.144951,8.456383E-06,0.4164106,-2.639523E-08,NaN,NaN,-0.02001749,-1.396989E-10,7.970102E-07,-1.14275E-07,-6.833663E-10,-2.622604E-08
248.897,0.04500448,-2.240955E-08,NaN,-0.3269995,-1.36555E-07,NaN,0.5818092,-5.326977E-09,NaN,-2.144951,8.456383E-06,0.4164106,-2.639523E-08,NaN,NaN,-0.02001749,-1.396989E-10,7.970102E-07,-1.14275E-07,-6.833663E-10,-2.622604E-08
248.9132,0.0450045,-2.240849E-08,NaN,-0.3269995,-1.365538E-07,NaN,0.5826672,-5.366176E-09,NaN,-2.145199,8.457007E-06,0.4363887,-2.635382E-08,NaN,NaN,-0.02002041,-1.350423E-10,8.351572E-07,-1.142729E-07,4.085005E-09,-2.861022E-08
248.9307,0.04500451,-2.240743E-08,NaN,-0.3269995,-1.365526E-07,NaN,0.5835928,-5.403053E-09,NaN,-2.145452,8.457635E-06,0.4555822,-2.631474E-08,NaN,NaN,-0.02002222,-1.350423E-10,8.524425E-07,-1.142708E-07,1.700819E-09,-2.622604E-08
248.9481,0.04500453,-2.240637E-08,NaN,-0.3269994,-1.365514E-07,NaN,0.5846491,-5.437654E-09,NaN,-2.145712,8.458259E-06,0.4744084,-2.627793E-08,NaN,NaN,-0.0200241,-1.303857E-10,8.691318E-07,-1.142686E-07,5.277098E-09,-2.861022E-08
248.9652,0.04500454,-2.240531E-08,NaN,-0.3269994,-1.365502E-07,NaN,0.5848518,-5.470023E-09,NaN,-2.145969,8.458883E-06,0.4906268,-2.624335E-08,NaN,NaN,-0.02002681,-1.257291E-10,8.989341E-07,-1.142665E-07,2.892912E-09,-2.622604E-08
248.9824,0.04500455,-2.240425E-08,NaN,-0.3269994,-1.36549E-07,NaN,0.5851864,-5.501616E-09,NaN,-2.146223,8.459507E-06,0.506155,-2.620955E-08,NaN,NaN,-0.02002837,-1.210725E-10,9.09663E-07,-1.142644E-07,5.277098E-09,-2.861022E-08
248.9991,0.04500455,-2.240425E-08,NaN,-0.3269994,-1.36549E-07,NaN,0.5851864,-5.501616E-09,NaN,-2.146223,8.459507E-06,0.506155,-2.620955E-08,NaN,NaN,-0.02002837,-1.210725E-10,9.09663E-07,-1.142644E-07,5.277098E-09,-2.861022E-08
249.0158,0.04500457,-2.240319E-08,NaN,-0.3269994,-1.365478E-07,NaN,0.5856904,-5.531035E-09,NaN,-2.146481,8.460135E-06,0.521399,-2.617792E-08,NaN,NaN,-0.02003002,-1.210725E-10,9.209878E-07,-1.142623E-07,8.853377E-09,-2.622604E-08
249.0334,0.04500457,-2.240212E-08,NaN,-0.3269994,-1.365466E-07,NaN,0.5853674,-5.55832E-09,NaN,-2.146732,8.460764E-06,0.5341207,-2.614843E-08,NaN,NaN,-0.02003254,-1.210725E-10,9.448297E-07,-1.142602E-07,6.469191E-09,-2.861022E-08
249.0503,0.04500458,-2.240106E-08,NaN,-0.3269994,-1.365454E-07,NaN,0.5851911,-5.583513E-09,NaN,-2.146974,8.461388E-06,0.5462185,-2.612103E-08,NaN,NaN,-0.02003386,-1.164159E-10,9.507901E-07,-1.142582E-07,6.469191E-09,-2.622604E-08
249.0672,0.04500459,-2.24E-08,NaN,-0.3269994,-1.365442E-07,NaN,0.5852002,-5.608073E-09,NaN,-2.147217,8.462011E-06,0.5580993,-2.609426E-08,NaN,NaN,-0.02003527,-1.117593E-10,9.597309E-07,-1.142561E-07,6.469191E-09,-2.861022E-08
249.0844,0.0450046,-2.239894E-08,NaN,-0.3269994,-1.36543E-07,NaN,0.5853004,-5.632011E-09,NaN,-2.147464,8.462635E-06,0.5697908,-2.606812E-08,NaN,NaN,-0.02003681,-1.071026E-10,9.698637E-07,-1.14254E-07,6.469191E-09,-2.622604E-08
249.1014,0.0450046,-2.239788E-08,NaN,-0.3269994,-1.365418E-07,NaN,0.5845263,-5.653929E-09,NaN,-2.147701,8.463264E-06,0.5790213,-2.604399E-08,NaN,NaN,-0.02003919,-1.071026E-10,9.907253E-07,-1.14252E-07,6.469191E-09,-2.861022E-08
249.1188,0.0450046,-2.239788E-08,NaN,-0.3269994,-1.365418E-07,NaN,0.5845263,-5.653929E-09,NaN,-2.147701,8.463264E-06,0.5790213,-2.604399E-08,NaN,NaN,-0.02003919,-1.071026E-10,9.907253E-07,-1.14252E-07,6.469191E-09,-2.861022E-08
249.1351,0.0450046,-2.239682E-08,NaN,-0.3269994,-1.365407E-07,NaN,0.5838766,-5.67386E-09,NaN,-2.147922,8.463892E-06,0.587676,-2.602185E-08,NaN,NaN,-0.02004027,-1.071026E-10,9.978779E-07,-1.142499E-07,6.469191E-09,-2.622604E-08
249.1527,0.04500461,-2.239576E-08,NaN,-0.3269994,-1.365395E-07,NaN,0.5834114,-5.693259E-09,NaN,-2.14814,8.464516E-06,0.5961718,-2.600024E-08,NaN,NaN,-0.02004141,-1.02446E-10,1.000858E-06,-1.142479E-07,4.085005E-09,-2.861022E-08
249.17,0.0450046,-2.23947E-08,NaN,-0.3269994,-1.365383E-07,NaN,0.5821435,-5.710723E-09,NaN,-2.148345,8.46514E-06,0.6022912,-2.598057E-08,NaN,NaN,-0.02004344,-9.778942E-11,1.016951E-06,-1.142458E-07,4.085005E-09,-2.622604E-08
249.1871,0.0450046,-2.239364E-08,NaN,-0.3269994,-1.365372E-07,NaN,0.5810404,-5.726288E-09,NaN,-2.148533,8.465769E-06,0.6079053,-2.596279E-08,NaN,NaN,-0.02004423,-9.778942E-11,1.015163E-06,-1.142438E-07,1.700819E-09,-2.861022E-08
249.2042,0.0450046,-2.239258E-08,NaN,-0.3269994,-1.36536E-07,NaN,0.5801491,-5.739992E-09,NaN,-2.148716,8.466393E-06,0.6134261,-2.594688E-08,NaN,NaN,-0.02004508,-9.31328E-11,1.016951E-06,-1.142418E-07,-6.833663E-10,-2.622604E-08
249.2214,0.04500461,-2.239152E-08,NaN,-0.3269994,-1.365349E-07,NaN,0.5793774,-5.751872E-09,NaN,-2.148903,8.467021E-06,0.618883,-2.593278E-08,NaN,NaN,-0.02004608,-9.31328E-11,1.020528E-06,-1.142397E-07,-6.833663E-10,-2.861022E-08
249.2382,0.04500461,-2.239152E-08,NaN,-0.3269994,-1.365349E-07,NaN,0.5793774,-5.751872E-09,NaN,-2.148903,8.467021E-06,0.618883,-2.593278E-08,NaN,NaN,-0.02004608,-9.31328E-11,1.020528E-06,-1.142397E-07,-6.833663E-10,-2.861022E-08
249.2543,0.0450046,-2.239046E-08,NaN,-0.3269994,-1.365337E-07,NaN,0.5777591,-5.763379E-09,NaN,-2.149076,8.467645E-06,0.6220136,-2.591907E-08,NaN,NaN,-0.02004793,-8.847618E-11,1.036025E-06,-1.142377E-07,2.892912E-09,-2.622604E-08
249.2722,0.0450046,-2.238941E-08,NaN,-0.3269994,-1.365325E-07,NaN,0.5762863,-5.773106E-09,NaN,-2.149228,8.468273E-06,0.6246812,-2.590713E-08,NaN,NaN,-0.02004847,-8.847618E-11,1.034833E-06,-1.142357E-07,4.085005E-09,-2.861022E-08
249.2894,0.04500459,-2.238835E-08,NaN,-0.3269994,-1.365314E-07,NaN,0.5750238,-5.781085E-09,NaN,-2.149374,8.468902E-06,0.6273049,-2.589694E-08,NaN,NaN,-0.02004907,-8.847618E-11,1.033641E-06,-1.142337E-07,6.469191E-09,-2.622604E-08
249.3077,0.04500458,-2.238729E-08,NaN,-0.3269995,-1.365303E-07,NaN,0.5729852,-5.788768E-09,NaN,-2.149506,8.46953E-06,0.6276758,-2.588705E-08,NaN,NaN,-0.02005059,-8.847618E-11,1.044369E-06,-1.142317E-07,6.469191E-09,-2.861022E-08
249.3234,0.04500457,-2.238623E-08,NaN,-0.3269995,-1.365291E-07,NaN,0.5711339,-5.794745E-09,NaN,-2.149616,8.470154E-06,0.627649,-2.587886E-08,NaN,NaN,-0.02005085,-8.381957E-11,1.037217E-06,-1.142298E-07,7.661284E-09,-2.622604E-08
249.3402,0.04500457,-2.238517E-08,NaN,-0.3269995,-1.36528E-07,NaN,0.56952,-5.799051E-09,NaN,-2.149722,8.470778E-06,0.627638,-2.587234E-08,NaN,NaN,-0.02005119,-7.916295E-11,1.032448E-06,-1.142278E-07,7.661284E-09,-2.861022E-08
249.3572,0.04500457,-2.238517E-08,NaN,-0.3269995,-1.36528E-07,NaN,0.56952,-5.799051E-09,NaN,-2.149722,8.470778E-06,0.627638,-2.587234E-08,NaN,NaN,-0.02005119,-7.916295E-11,1.032448E-06,-1.142278E-07,7.661284E-09,-2.861022E-08
249.3731,0.04500457,-2.238411E-08,NaN,-0.3269995,-1.365269E-07,NaN,0.5680518,-5.801722E-09,NaN,-2.14983,8.471402E-06,0.627672,-2.586747E-08,NaN,NaN,-0.02005167,-7.450634E-11,1.028872E-06,-1.142258E-07,7.661284E-09,-2.622604E-08
249.3908,0.04500455,-2.238305E-08,NaN,-0.3269995,-1.365257E-07,NaN,0.5657617,-5.804197E-09,NaN,-2.149926,8.47203E-06,0.6254904,-2.586278E-08,NaN,NaN,-0.02005303,-7.450634E-11,1.037217E-06,-1.142239E-07,5.277098E-09,-2.861022E-08
249.4078,0.04500454,-2.238199E-08,NaN,-0.3269995,-1.365246E-07,NaN,0.5636401,-5.805071E-09,NaN,-2.149997,8.472654E-06,0.6229475,-2.58597E-08,NaN,NaN,-0.02005308,-6.984972E-11,1.031256E-06,-1.142219E-07,4.085005E-09,-2.622604E-08
249.4249,0.04500454,-2.238094E-08,NaN,-0.3269995,-1.365235E-07,NaN,0.5617532,-5.804371E-09,NaN,-2.150063,8.473283E-06,0.6204625,-2.58582E-08,NaN,NaN,-0.02005318,-6.984972E-11,1.024104E-06,-1.1422E-07,4.085005E-09,-2.861022E-08
249.4416,0.04500453,-2.237988E-08,NaN,-0.3269995,-1.365224E-07,NaN,0.5600171,-5.802134E-09,NaN,-2.150131,8.473916E-06,0.6180676,-2.585823E-08,NaN,NaN,-0.02005342,-6.984972E-11,1.019335E-06,-1.14218E-07,4.085005E-09,-2.622604E-08
249.459,0.04500453,-2.237988E-08,NaN,-0.3269995,-1.365224E-07,NaN,0.5600171,-5.802134E-09,NaN,-2.150131,8.473916E-06,0.6180676,-2.585823E-08,NaN,NaN,-0.02005342,-6.984972E-11,1.019335E-06,-1.14218E-07,4.085005E-09,-2.622604E-08
249.4754,0.04500451,-2.237882E-08,NaN,-0.3269995,-1.365212E-07,NaN,0.5574667,-5.799794E-09,NaN,-2.150187,8.474544E-06,0.6135026,-2.585836E-08,NaN,NaN,-0.02005452,-6.519311E-11,1.025296E-06,-1.142161E-07,4.085005E-09,-2.861022E-08
249.4934,0.0450045,-2.237776E-08,NaN,-0.3269995,-1.365201E-07,NaN,0.5550953,-5.795947E-09,NaN,-2.150218,8.475173E-06,0.6086229,-2.586E-08,NaN,NaN,-0.02005433,-6.053649E-11,1.016355E-06,-1.142142E-07,5.087266E-10,-2.622604E-08
249.5103,0.04500449,-2.23767E-08,NaN,-0.3269995,-1.36519E-07,NaN,0.5529695,-5.790618E-09,NaN,-2.150244,8.475806E-06,0.6038471,-2.586312E-08,NaN,NaN,-0.0200542,-6.053649E-11,1.007415E-06,-1.142122E-07,-1.875459E-09,-2.861022E-08
249.5273,0.04500447,-2.237564E-08,NaN,-0.3269996,-1.365179E-07,NaN,0.5501004,-5.785253E-09,NaN,-2.150256,8.476434E-06,0.5969621,-2.586628E-08,NaN,NaN,-0.02005498,-5.587988E-11,1.009799E-06,-1.142103E-07,-4.259645E-09,-2.622604E-08
249.5442,0.04500446,-2.237458E-08,NaN,-0.3269996,-1.365168E-07,NaN,0.5474545,-5.778438E-09,NaN,-2.150244,8.477067E-06,0.5898229,-2.587089E-08,NaN,NaN,-0.02005453,-5.587988E-11,9.99666E-07,-1.142084E-07,-7.835924E-09,-2.861022E-08
249.5611,0.04500445,-2.237353E-08,NaN,-0.3269996,-1.365157E-07,NaN,0.5450805,-5.770205E-09,NaN,-2.150229,8.477696E-06,0.5828403,-2.587692E-08,NaN,NaN,-0.02005416,-5.122327E-11,9.883411E-07,-1.142065E-07,-7.835924E-09,-2.622604E-08
249.5784,0.04500445,-2.237353E-08,NaN,-0.3269996,-1.365157E-07,NaN,0.5450805,-5.770205E-09,NaN,-2.150229,8.477696E-06,0.5828403,-2.587692E-08,NaN,NaN,-0.02005416,-5.122327E-11,9.883411E-07,-1.142065E-07,-7.835924E-09,-2.622604E-08
249.5948,0.04500443,-2.237247E-08,NaN,-0.3269997,-1.365146E-07,NaN,0.5419801,-5.760574E-09,NaN,-2.150203,8.478324E-06,0.5737923,-2.588434E-08,NaN,NaN,-0.02005471,-4.656666E-11,9.907253E-07,-1.142046E-07,-9.028017E-09,-2.861022E-08
249.6128,0.04500441,-2.237141E-08,NaN,-0.3269997,-1.365135E-07,NaN,0.5391185,-5.750989E-09,NaN,-2.150154,8.478957E-06,0.5645366,-2.589172E-08,NaN,NaN,-0.02005404,-4.656666E-11,9.74632E-07,-1.142027E-07,-6.643831E-09,-2.622604E-08
249.6295,0.04500439,-2.237035E-08,NaN,-0.3269997,-1.365124E-07,NaN,0.5365406,-5.740037E-09,NaN,-2.150102,8.479586E-06,0.5554808,-2.590047E-08,NaN,NaN,-0.02005346,-4.191004E-11,9.567507E-07,-1.142008E-07,-4.259645E-09,-2.861022E-08
249.647,0.04500438,-2.236929E-08,NaN,-0.3269998,-1.365113E-07,NaN,0.5341513,-5.727742E-09,NaN,-2.150056,8.480214E-06,0.546649,-2.591056E-08,NaN,NaN,-0.02005302,-3.725343E-11,9.454258E-07,-1.14199E-07,-5.451738E-09,-2.622604E-08
249.6642,0.04500436,-2.236824E-08,NaN,-0.3269998,-1.365103E-07,NaN,0.5309785,-5.715548E-09,NaN,-2.150002,8.480843E-06,0.5357637,-2.592054E-08,NaN,NaN,-0.02005342,-3.259682E-11,9.484061E-07,-1.141971E-07,-6.64383E-09,-2.861022E-08
249.6812,0.04500434,-2.236718E-08,NaN,-0.3269998,-1.365092E-07,NaN,0.5280231,-5.702037E-09,NaN,-2.149926,8.481471E-06,0.5246966,-2.593185E-08,NaN,NaN,-0.02005257,-2.794021E-11,9.299286E-07,-1.141952E-07,-6.64383E-09,-2.622604E-08
249.6983,0.04500434,-2.236718E-08,NaN,-0.3269998,-1.365092E-07,NaN,0.5280231,-5.702037E-09,NaN,-2.149926,8.481471E-06,0.5246966,-2.593185E-08,NaN,NaN,-0.02005257,-2.794021E-11,9.299286E-07,-1.141952E-07,-6.64383E-09,-2.622604E-08
249.715,0.04500432,-2.236612E-08,NaN,-0.3269998,-1.365081E-07,NaN,0.5253447,-5.687236E-09,NaN,-2.149845,8.482099E-06,0.5138593,-2.594444E-08,NaN,NaN,-0.02005178,-2.32836E-11,9.120472E-07,-1.141934E-07,-6.64383E-09,-2.861022E-08
249.7326,0.0450043,-2.236506E-08,NaN,-0.3269999,-1.36507E-07,NaN,0.5219488,-5.671168E-09,NaN,-2.149757,8.482728E-06,0.5010182,-2.59583E-08,NaN,NaN,-0.02005188,-1.862699E-11,9.09663E-07,-1.141915E-07,-5.451738E-09,-2.622604E-08
249.7499,0.04500428,-2.236401E-08,NaN,-0.3269999,-1.365059E-07,NaN,0.5188128,-5.655272E-09,NaN,-2.149646,8.483365E-06,0.4880506,-2.597199E-08,NaN,NaN,-0.02005078,-1.862699E-11,8.923777E-07,-1.141897E-07,-6.64383E-09,-2.861022E-08
249.7666,0.04500426,-2.236295E-08,NaN,-0.3269999,-1.365049E-07,NaN,0.5159771,-5.63813E-09,NaN,-2.149534,8.484003E-06,0.4753593,-2.598692E-08,NaN,NaN,-0.02004978,-1.862699E-11,8.733042E-07,-1.141879E-07,-6.64383E-09,-2.622604E-08
249.7838,0.04500424,-2.236189E-08,NaN,-0.327,-1.365038E-07,NaN,0.5133442,-5.619768E-09,NaN,-2.149431,8.484641E-06,0.4629641,-2.600307E-08,NaN,NaN,-0.02004893,-1.862699E-11,8.57807E-07,-1.14186E-07,-9.028016E-09,-2.861022E-08
249.8008,0.04500422,-2.236084E-08,NaN,-0.327,-1.365027E-07,NaN,0.5099406,-5.601624E-09,NaN,-2.149324,8.485274E-06,0.4485718,-2.601901E-08,NaN,NaN,-0.02004886,-1.397037E-11,8.500584E-07,-1.141842E-07,-5.451737E-09,-2.622604E-08
249.8179,0.04500422,-2.236084E-08,NaN,-0.327,-1.365027E-07,NaN,0.5099406,-5.601624E-09,NaN,-2.149324,8.485274E-06,0.4485718,-2.601901E-08,NaN,NaN,-0.02004886,-1.397037E-11,8.500584E-07,-1.141842E-07,-5.451737E-09,-2.622604E-08
249.8356,0.0450042,-2.235978E-08,NaN,-0.327,-1.365017E-07,NaN,0.5067775,-5.58228E-09,NaN,-2.149197,8.485907E-06,0.4340765,-2.603615E-08,NaN,NaN,-0.02004762,-9.31376E-12,8.274086E-07,-1.141824E-07,-3.067551E-09,-2.861022E-08
249.8523,0.04500418,-2.235872E-08,NaN,-0.3270001,-1.365006E-07,NaN,0.5039074,-5.561757E-09,NaN,-2.149068,8.48654E-06,0.4198835,-2.605446E-08,NaN,NaN,-0.02004646,-4.657147E-12,8.06547E-07,-1.141806E-07,-3.067551E-09,-2.622604E-08
249.8696,0.04500415,-2.235767E-08,NaN,-0.3270001,-1.364996E-07,NaN,0.5003314,-5.541494E-09,NaN,-2.148937,8.487173E-06,0.4037389,-2.607251E-08,NaN,NaN,-0.02004609,-5.342948E-16,7.999905E-07,-1.141788E-07,-5.451737E-09,-2.861022E-08
249.8868,0.04500413,-2.235661E-08,NaN,-0.3270001,-1.364985E-07,NaN,0.4970371,-5.520069E-09,NaN,-2.148787,8.48781E-06,0.387544,-2.609173E-08,NaN,NaN,-0.02004468,-5.342948E-16,7.743604E-07,-1.14177E-07,-6.643829E-09,-2.622604E-08
249.9037,0.04500411,-2.235555E-08,NaN,-0.3270001,-1.364975E-07,NaN,0.4940573,-5.497506E-09,NaN,-2.148638,8.488448E-06,0.3716943,-2.611208E-08,NaN,NaN,-0.02004337,-5.342948E-16,7.505186E-07,-1.141752E-07,-1.875458E-09,-2.861022E-08
249.921,0.04500409,-2.23545E-08,NaN,-0.3270002,-1.364964E-07,NaN,0.4912908,-5.475242E-09,NaN,-2.148501,8.489085E-06,0.3562045,-2.613214E-08,NaN,NaN,-0.02004222,-5.342948E-16,7.254847E-07,-1.141734E-07,1.700821E-09,-2.622604E-08
249.9385,0.04500409,-2.23545E-08,NaN,-0.3270002,-1.364964E-07,NaN,0.4912908,-5.475242E-09,NaN,-2.148501,8.489085E-06,0.3562045,-2.613214E-08,NaN,NaN,-0.02004222,-5.342948E-16,7.254847E-07,-1.141734E-07,1.700821E-09,-2.622604E-08
249.9549,0.04500406,-2.235344E-08,NaN,-0.3270002,-1.364954E-07,NaN,0.4877626,-5.451859E-09,NaN,-2.148366,8.489718E-06,0.338763,-2.615331E-08,NaN,NaN,-0.02004174,4.656078E-12,7.16544E-07,-1.141716E-07,2.892913E-09,-2.861022E-08
249.9723,0.04500404,-2.235238E-08,NaN,-0.3270002,-1.364944E-07,NaN,0.4844953,-5.427377E-09,NaN,-2.148215,8.490351E-06,0.3212907,-2.617558E-08,NaN,NaN,-0.02004029,9.312691E-12,6.885298E-07,-1.141699E-07,2.892913E-09,-2.622604E-08
249.9895,0.04500402,-2.235132E-08,NaN,-0.3270003,-1.364933E-07,NaN,0.481533,-5.404645E-09,NaN,-2.148067,8.490989E-06,0.3041854,-2.619611E-08,NaN,NaN,-0.02003895,9.312691E-12,6.623038E-07,-1.141681E-07,6.469192E-09,-2.861022E-08
