JMolnar6/NonAnthroHands_User_Study/HandsLoggerWithURDF/tempdata/files/Reachy_JointMotion_gesture_12_57.csv
Time,r_shoulder,r_shoulder_x,r_upper_arm,r_forearm,r_wrist,r_wrist2hand,
826.166,-0.6806982,1.61953E-09,NaN,-0.6783605,-1.322611E-07,NaN,0.1011979,-4.962149E-07,NaN,-0.6504251,2.299115E-05,0.09086623,9.080572E-08,NaN,NaN,0.1327438,1.396973E-10,-2.200079E-06,-1.099699E-07,1.048171E-08,-2.861022E-08
826.1824,-0.6762283,1.620165E-09,NaN,-0.6744202,-1.322611E-07,NaN,0.1003605,-4.962316E-07,NaN,-0.6489239,2.299155E-05,0.09257781,9.082358E-08,NaN,NaN,0.1328581,1.396973E-10,-2.18935E-06,-1.099701E-07,8.097528E-09,-2.622604E-08
826.1977,-0.6762283,1.620165E-09,NaN,-0.6744202,-1.322611E-07,NaN,0.1003605,-4.962316E-07,NaN,-0.6489239,2.299155E-05,0.09257781,9.082358E-08,NaN,NaN,0.1328581,1.396973E-10,-2.18935E-06,-1.099701E-07,8.097528E-09,-2.622604E-08
826.2127,-0.6716771,1.6208E-09,NaN,-0.6704041,-1.322612E-07,NaN,0.09945127,-4.962478E-07,NaN,-0.6474116,2.299195E-05,0.09449287,9.084105E-08,NaN,NaN,0.1329703,1.396973E-10,-2.184582E-06,-1.099703E-07,6.011366E-09,-2.861022E-08
826.2295,-0.6671019,1.621434E-09,NaN,-0.6663616,-1.322613E-07,NaN,0.09862047,-4.962637E-07,NaN,-0.6458883,2.299234E-05,0.09641968,9.085812E-08,NaN,NaN,0.1330804,1.396973E-10,-2.182198E-06,-1.099705E-07,5.713342E-09,-2.622604E-08
826.2451,-0.6625358,1.622069E-09,NaN,-0.6623214,-1.322613E-07,NaN,0.09789555,-4.962791E-07,NaN,-0.6443607,2.299274E-05,0.09829392,9.087479E-08,NaN,NaN,0.1331884,1.396973E-10,-2.177429E-06,-1.099707E-07,5.713342E-09,-2.861022E-08
826.261,-0.6582279,1.622704E-09,NaN,-0.6585004,-1.322614E-07,NaN,0.09781948,-4.962942E-07,NaN,-0.6430897,2.299314E-05,0.09942767,9.089109E-08,NaN,NaN,0.1335758,1.396973E-10,-2.173853E-06,-1.099709E-07,7.501481E-09,-2.622604E-08
826.2769,-0.6582279,1.622704E-09,NaN,-0.6585004,-1.322614E-07,NaN,0.09781948,-4.962942E-07,NaN,-0.6430897,2.299314E-05,0.09942767,9.089109E-08,NaN,NaN,0.1335758,1.396973E-10,-2.173853E-06,-1.099709E-07,7.501481E-09,-2.622604E-08
826.2918,-0.6540899,1.623339E-09,NaN,-0.6548245,-1.322614E-07,NaN,0.09791837,-4.963089E-07,NaN,-0.6418499,2.299353E-05,0.1002604,9.090702E-08,NaN,NaN,0.1339553,1.396973E-10,-2.159548E-06,-1.099711E-07,5.117295E-09,-2.861022E-08
826.3086,-0.6500705,1.623975E-09,NaN,-0.6512501,-1.322615E-07,NaN,0.09802589,-4.963232E-07,NaN,-0.6406449,2.299393E-05,0.1009893,9.092257E-08,NaN,NaN,0.1343274,1.396973E-10,-2.147627E-06,-1.099713E-07,3.925202E-09,-2.622604E-08
826.3243,-0.6461396,1.62461E-09,NaN,-0.6477513,-1.322615E-07,NaN,0.09810195,-4.963372E-07,NaN,-0.6394698,2.299433E-05,0.1016848,9.093777E-08,NaN,NaN,0.1346922,1.396973E-10,-2.136898E-06,-1.099715E-07,5.713342E-09,-2.861022E-08
826.3409,-0.6425081,1.625245E-09,NaN,-0.6445125,-1.322616E-07,NaN,0.09870285,-4.963508E-07,NaN,-0.6385725,2.299472E-05,0.1016955,9.095261E-08,NaN,NaN,0.1353314,1.396973E-10,-2.121401E-06,-1.099717E-07,2.137063E-09,-2.622604E-08
826.3565,-0.6425081,1.625245E-09,NaN,-0.6445125,-1.322616E-07,NaN,0.09870285,-4.963508E-07,NaN,-0.6385725,2.299472E-05,0.1016955,9.095261E-08,NaN,NaN,0.1353314,1.396973E-10,-2.121401E-06,-1.099717E-07,2.137063E-09,-2.622604E-08
826.3713,-0.6390687,1.62588E-09,NaN,-0.6414416,-1.322617E-07,NaN,0.09938579,-4.963669E-07,NaN,-0.6377175,2.299512E-05,0.1014614,9.096994E-08,NaN,NaN,0.1359578,1.396973E-10,-2.101135E-06,-1.099719E-07,2.73311E-09,-2.861022E-08
826.3877,-0.6357582,1.626516E-09,NaN,-0.6384839,-1.322617E-07,NaN,0.1000124,-4.963825E-07,NaN,-0.6369016,2.299552E-05,0.1011702,9.098687E-08,NaN,NaN,0.136572,1.396973E-10,-2.08087E-06,-1.099721E-07,-8.431689E-10,-2.622604E-08
826.4037,-0.6325393,1.627151E-09,NaN,-0.6356066,-1.322618E-07,NaN,0.1005624,-4.963978E-07,NaN,-0.6361157,2.299591E-05,0.1008836,9.100342E-08,NaN,NaN,0.137174,1.396973E-10,-2.062988E-06,-1.099723E-07,9.449704E-10,-2.861022E-08
826.4195,-0.6325393,1.627151E-09,NaN,-0.6356066,-1.322618E-07,NaN,0.1005624,-4.963978E-07,NaN,-0.6361157,2.299591E-05,0.1008836,9.100342E-08,NaN,NaN,0.137174,1.396973E-10,-2.062988E-06,-1.099723E-07,9.449704E-10,-2.861022E-08
826.4348,-0.6296175,1.627787E-09,NaN,-0.6329899,-1.322618E-07,NaN,0.1016036,-4.964128E-07,NaN,-0.6356049,2.299631E-05,0.09994435,9.101959E-08,NaN,NaN,0.1380459,1.396973E-10,-2.043915E-06,-1.099725E-07,9.449704E-10,-2.622604E-08
826.451,-0.6268845,1.628422E-09,NaN,-0.63054,-1.322619E-07,NaN,0.1027034,-4.964273E-07,NaN,-0.6351319,2.299671E-05,0.09878605,9.103539E-08,NaN,NaN,0.1389004,1.396973E-10,-2.021265E-06,-1.099727E-07,-8.431689E-10,-2.861022E-08
826.4672,-0.6242762,1.629058E-09,NaN,-0.6282008,-1.322619E-07,NaN,0.1037283,-4.964415E-07,NaN,-0.6346925,2.29971E-05,0.09759279,9.105082E-08,NaN,NaN,0.1397382,1.396973E-10,-1.996827E-06,-1.099729E-07,-1.439215E-09,-2.622604E-08
826.4827,-0.6217542,1.629694E-09,NaN,-0.6259384,-1.32262E-07,NaN,0.1046605,-4.964554E-07,NaN,-0.6342775,2.29975E-05,0.09642439,9.10659E-08,NaN,NaN,0.1405595,1.396973E-10,-1.975369E-06,-1.099731E-07,9.449704E-10,-2.861022E-08
826.4987,-0.6217542,1.629694E-09,NaN,-0.6259384,-1.32262E-07,NaN,0.1046605,-4.964554E-07,NaN,-0.6342775,2.29975E-05,0.09642439,9.10659E-08,NaN,NaN,0.1405595,1.396973E-10,-1.975369E-06,-1.099731E-07,9.449704E-10,-2.861022E-08
826.5135,-0.6195221,1.63033E-09,NaN,-0.6239319,-1.322621E-07,NaN,0.106067,-4.964689E-07,NaN,-0.6341322,2.29979E-05,0.09462402,9.108063E-08,NaN,NaN,0.1416463,1.396973E-10,-1.952719E-06,-1.099733E-07,2.137063E-09,-2.622604E-08
826.53,-0.6174731,1.630965E-09,NaN,-0.6220882,-1.322621E-07,NaN,0.107519,-4.96482E-07,NaN,-0.6340182,2.299829E-05,0.09262215,9.109501E-08,NaN,NaN,0.1427115,1.396973E-10,-1.924705E-06,-1.099735E-07,3.489241E-10,-2.861022E-08
826.5457,-0.6155429,1.631601E-09,NaN,-0.6203508,-1.322622E-07,NaN,0.1088839,-4.964948E-07,NaN,-0.6339318,2.299869E-05,0.09060209,9.110906E-08,NaN,NaN,0.1437559,1.396973E-10,-1.896691E-06,-1.099737E-07,2.137063E-09,-2.622604E-08
826.5616,-0.6136929,1.632237E-09,NaN,-0.6186852,-1.322622E-07,NaN,0.1101438,-4.965101E-07,NaN,-0.6338639,2.299909E-05,0.08862352,9.11256E-08,NaN,NaN,0.1447797,1.396973E-10,-1.869273E-06,-1.099739E-07,4.521249E-09,-2.861022E-08
826.5789,-0.6136929,1.632237E-09,NaN,-0.6186852,-1.322622E-07,NaN,0.1101438,-4.965101E-07,NaN,-0.6338639,2.299909E-05,0.08862352,9.11256E-08,NaN,NaN,0.1447797,1.396973E-10,-1.869273E-06,-1.099739E-07,4.521249E-09,-2.861022E-08
826.5928,-0.6121256,1.632874E-09,NaN,-0.6172705,-1.322623E-07,NaN,0.1118619,-4.96525E-07,NaN,-0.6340604,2.299948E-05,0.08603171,9.114177E-08,NaN,NaN,0.146065,1.396973E-10,-1.843643E-06,-1.099741E-07,2.137063E-09,-2.622604E-08
826.6091,-0.6107352,1.63351E-09,NaN,-0.6160138,-1.322623E-07,NaN,0.1136144,-4.965396E-07,NaN,-0.6342823,2.299988E-05,0.08325347,9.115757E-08,NaN,NaN,0.147325,1.396973E-10,-1.812052E-06,-1.099743E-07,2.73311E-09,-2.861022E-08
826.6248,-0.6094579,1.634146E-09,NaN,-0.6148587,-1.322624E-07,NaN,0.1152685,-4.965538E-07,NaN,-0.6345258,2.300028E-05,0.0804721,9.117301E-08,NaN,NaN,0.1485602,1.30384E-10,-1.780462E-06,-1.099745E-07,5.713342E-09,-2.622604E-08
826.6407,-0.6082547,1.634782E-09,NaN,-0.6137704,-1.322625E-07,NaN,0.1168062,-4.965677E-07,NaN,-0.6347826,2.300068E-05,0.07774742,9.118809E-08,NaN,NaN,0.1497712,1.30384E-10,-1.751852E-06,-1.099747E-07,7.501481E-09,-2.861022E-08
826.6565,-0.6082547,1.634782E-09,NaN,-0.6137704,-1.322625E-07,NaN,0.1168062,-4.965677E-07,NaN,-0.6347826,2.300068E-05,0.07774742,9.118809E-08,NaN,NaN,0.1497712,1.30384E-10,-1.751852E-06,-1.099747E-07,7.501481E-09,-2.861022E-08
826.6716,-0.6073273,1.635418E-09,NaN,-0.6129276,-1.322625E-07,NaN,0.118786,-4.965812E-07,NaN,-0.635299,2.300108E-05,0.07442746,9.120282E-08,NaN,NaN,0.15124,1.30384E-10,-1.723242E-06,-1.099749E-07,7.501481E-09,-2.622604E-08
826.688,-0.606571,1.636055E-09,NaN,-0.612238,-1.322626E-07,NaN,0.1207896,-4.965943E-07,NaN,-0.6358352,2.300148E-05,0.07093459,9.121721E-08,NaN,NaN,0.1526799,1.257274E-10,-1.687479E-06,-1.099751E-07,7.501481E-09,-2.861022E-08
826.704,-0.605922,1.636691E-09,NaN,-0.6116451,-1.322626E-07,NaN,0.1226844,-4.966071E-07,NaN,-0.6363877,2.300188E-05,0.06745236,9.123126E-08,NaN,NaN,0.1540914,1.210708E-10,-1.652312E-06,-1.099753E-07,8.693574E-09,-2.622604E-08
826.7195,-0.605922,1.636691E-09,NaN,-0.6116451,-1.322626E-07,NaN,0.1226844,-4.966071E-07,NaN,-0.6363877,2.300188E-05,0.06745236,9.123126E-08,NaN,NaN,0.1540914,1.210708E-10,-1.652312E-06,-1.099753E-07,8.693574E-09,-2.622604E-08
826.7347,-0.6055664,1.637328E-09,NaN,-0.6113139,-1.322627E-07,NaN,0.1249898,-4.966196E-07,NaN,-0.6372031,2.300228E-05,0.06337874,9.124498E-08,NaN,NaN,0.1557569,1.164142E-10,-1.62251E-06,-1.099755E-07,7.501481E-09,-2.861022E-08
826.7509,-0.6053912,1.637965E-09,NaN,-0.6111444,-1.322627E-07,NaN,0.1272875,-4.966317E-07,NaN,-0.6380386,2.300268E-05,0.05914812,9.125837E-08,NaN,NaN,0.1573896,1.117576E-10,-1.586747E-06,-1.099757E-07,5.713342E-09,-2.622604E-08
826.7667,-0.6053268,1.638602E-09,NaN,-0.6110751,-1.322628E-07,NaN,0.1294483,-4.966464E-07,NaN,-0.6388891,2.300308E-05,0.05494812,9.127427E-08,NaN,NaN,0.1589902,1.07101E-10,-1.549792E-06,-1.099758E-07,4.521249E-09,-2.861022E-08
826.7825,-0.6053295,1.639238E-09,NaN,-0.6110677,-1.322629E-07,NaN,0.1314587,-4.966607E-07,NaN,-0.639746,2.300348E-05,0.05083889,9.128981E-08,NaN,NaN,0.1605595,1.024443E-10,-1.515817E-06,-1.09976E-07,2.137063E-09,-2.622604E-08
826.7983,-0.6053295,1.639238E-09,NaN,-0.6110677,-1.322629E-07,NaN,0.1314587,-4.966607E-07,NaN,-0.639746,2.300348E-05,0.05083889,9.128981E-08,NaN,NaN,0.1605595,1.024443E-10,-1.515817E-06,-1.09976E-07,2.137063E-09,-2.622604E-08
826.8135,-0.6055986,1.639875E-09,NaN,-0.6112975,-1.322629E-07,NaN,0.1338701,-4.966747E-07,NaN,-0.6408564,2.300388E-05,0.04617428,9.130499E-08,NaN,NaN,0.1623795,9.778773E-11,-1.481247E-06,-1.099762E-07,5.117295E-09,-2.861022E-08
826.8305,-0.6060294,1.640512E-09,NaN,-0.6116722,-1.32263E-07,NaN,0.1362807,-4.966882E-07,NaN,-0.6419775,2.300428E-05,0.04136467,9.131981E-08,NaN,NaN,0.1641638,9.313111E-11,-1.441908E-06,-1.099764E-07,5.713342E-09,-2.622604E-08
826.8458,-0.6065568,1.641149E-09,NaN,-0.6121341,-1.32263E-07,NaN,0.1385593,-4.966336E-07,NaN,-0.6431057,2.300468E-05,0.03659373,9.126639E-08,NaN,NaN,0.1659131,9.313111E-11,-1.401376E-06,-1.099766E-07,9.449703E-10,-2.861022E-08
826.8616,-0.6071408,1.641785E-09,NaN,-0.6126473,-1.322631E-07,NaN,0.1406893,-4.965799E-07,NaN,-0.6442337,2.300507E-05,0.03192146,9.121398E-08,NaN,NaN,0.167628,9.313111E-11,-1.360845E-06,-1.099768E-07,-1.439215E-09,-2.622604E-08
826.8773,-0.6071408,1.641785E-09,NaN,-0.6126473,-1.322631E-07,NaN,0.1406893,-4.965799E-07,NaN,-0.6442337,2.300507E-05,0.03192146,9.121398E-08,NaN,NaN,0.167628,9.313111E-11,-1.360845E-06,-1.099768E-07,-1.439215E-09,-2.622604E-08
826.8928,-0.6079819,1.642422E-09,NaN,-0.6133894,-1.322631E-07,NaN,0.1432109,-4.965273E-07,NaN,-0.6456107,2.300546E-05,0.02670624,9.116256E-08,NaN,NaN,0.169591,9.778773E-11,-1.325082E-06,-1.09977E-07,9.449703E-10,-2.861022E-08
826.9091,-0.6089757,1.643059E-09,NaN,-0.6142681,-1.322632E-07,NaN,0.1457267,-4.964756E-07,NaN,-0.6469937,2.300585E-05,0.02135476,9.111211E-08,NaN,NaN,0.1715153,1.024443E-10,-1.287532E-06,-1.099772E-07,3.329156E-09,-2.622604E-08
826.9247,-0.6100576,1.643695E-09,NaN,-0.615226,-1.322633E-07,NaN,0.1481041,-4.964277E-07,NaN,-0.6483796,2.300625E-05,0.01605212,9.106544E-08,NaN,NaN,0.1734019,1.07101E-10,-1.242828E-06,-1.099773E-07,2.73311E-09,-2.861022E-08
826.941,-0.611188,1.644332E-09,NaN,-0.6162278,-1.322633E-07,NaN,0.1503259,-4.963807E-07,NaN,-0.6497612,2.300664E-05,0.01085881,9.101966E-08,NaN,NaN,0.1752516,1.117576E-10,-1.203489E-06,-1.099775E-07,3.329156E-09,-2.622604E-08
826.9564,-0.611188,1.644332E-09,NaN,-0.6162278,-1.322633E-07,NaN,0.1503259,-4.963807E-07,NaN,-0.6497612,2.300664E-05,0.01085881,9.101966E-08,NaN,NaN,0.1752516,1.117576E-10,-1.203489E-06,-1.099775E-07,3.329156E-09,-2.622604E-08
826.9719,-0.6125684,1.644969E-09,NaN,-0.6174517,-1.322634E-07,NaN,0.1529238,-4.962753E-07,NaN,-0.6513889,2.300703E-05,0.005138192,9.091548E-08,NaN,NaN,0.1773465,1.117576E-10,-1.16117E-06,-1.099777E-07,3.925202E-09,-2.861022E-08
826.9879,-0.6140939,1.645605E-09,NaN,-0.6188048,-1.322634E-07,NaN,0.1555087,-4.961663E-07,NaN,-0.6530188,2.300743E-05,-0.000709157,9.080767E-08,NaN,NaN,0.1794003,1.117576E-10,-1.118254E-06,-1.099779E-07,2.73311E-09,-2.622604E-08
827.0037,-0.6157,1.646242E-09,NaN,-0.6202301,-1.322635E-07,NaN,0.1579477,-4.960593E-07,NaN,-0.6546479,2.300783E-05,-0.006497403,9.070193E-08,NaN,NaN,0.1814139,1.117576E-10,-1.074147E-06,-1.099782E-07,5.117295E-09,-2.861022E-08
827.0193,-0.6157,1.646242E-09,NaN,-0.6202301,-1.322635E-07,NaN,0.1579477,-4.960593E-07,NaN,-0.6546479,2.300783E-05,-0.006497403,9.070193E-08,NaN,NaN,0.1814139,1.117576E-10,-1.074147E-06,-1.099782E-07,5.117295E-09,-2.861022E-08
827.0345,-0.6173475,1.646879E-09,NaN,-0.6216927,-1.322635E-07,NaN,0.1602245,-4.960221E-07,NaN,-0.656269,2.300823E-05,-0.01216597,9.066597E-08,NaN,NaN,0.183388,1.07101E-10,-1.030636E-06,-1.099784E-07,6.905434E-09,-2.622604E-08
827.051,-0.6192388,1.647517E-09,NaN,-0.6233709,-1.322636E-07,NaN,0.1628615,-4.959855E-07,NaN,-0.6581337,2.300863E-05,-0.01834628,9.063066E-08,NaN,NaN,0.1856049,1.024443E-10,-9.907005E-07,-1.099786E-07,4.521249E-09,-2.861022E-08
827.0675,-0.6212682,1.648155E-09,NaN,-0.6251718,-1.322636E-07,NaN,0.165479,-4.959496E-07,NaN,-0.6599971,2.300903E-05,-0.02464465,9.0596E-08,NaN,NaN,0.1877784,9.778773E-11,-9.489773E-07,-1.099788E-07,5.117295E-09,-2.622604E-08
827.084,-0.6233715,1.648793E-09,NaN,-0.6270384,-1.322637E-07,NaN,0.1679444,-4.959143E-07,NaN,-0.6618562,2.300943E-05,-0.03087453,9.056195E-08,NaN,NaN,0.1899093,9.313111E-11,-9.024857E-07,-1.099791E-07,8.097527E-09,-2.861022E-08
827.0986,-0.6233715,1.648793E-09,NaN,-0.6270384,-1.322637E-07,NaN,0.1679444,-4.959143E-07,NaN,-0.6618562,2.300943E-05,-0.03087453,9.056195E-08,NaN,NaN,0.1899093,9.313111E-11,-9.024857E-07,-1.099791E-07,8.097527E-09,-2.861022E-08
827.1135,-0.6255096,1.64943E-09,NaN,-0.6289359,-1.322638E-07,NaN,0.1702417,-4.95812E-07,NaN,-0.663704,2.300982E-05,-0.03697522,9.046085E-08,NaN,NaN,0.1919984,9.313111E-11,-8.619545E-07,-1.099793E-07,9.885667E-09,-2.622604E-08
827.1301,-0.6278859,1.650067E-09,NaN,-0.6310433,-1.322638E-07,NaN,0.1728838,-4.957116E-07,NaN,-0.6657929,2.301022E-05,-0.04357245,9.03617E-08,NaN,NaN,0.1943281,9.313111E-11,-8.267878E-07,-1.099795E-07,9.28962E-09,-2.861022E-08
827.1462,-0.630394,1.650704E-09,NaN,-0.6332671,-1.322639E-07,NaN,0.175501,-4.956132E-07,NaN,-0.6678774,2.301062E-05,-0.05028003,9.026446E-08,NaN,NaN,0.1966121,9.313111E-11,-7.814882E-07,-1.099797E-07,6.905434E-09,-2.622604E-08
827.1622,-0.6329697,1.651342E-09,NaN,-0.6355504,-1.322639E-07,NaN,0.1779609,-4.955166E-07,NaN,-0.6699543,2.301101E-05,-0.05691063,9.01691E-08,NaN,NaN,0.1988514,9.778773E-11,-7.349966E-07,-1.0998E-07,5.713341E-09,-2.861022E-08
827.178,-0.6329697,1.651342E-09,NaN,-0.6355504,-1.322639E-07,NaN,0.1779609,-4.955166E-07,NaN,-0.6699543,2.301101E-05,-0.05691063,9.01691E-08,NaN,NaN,0.1988514,9.778773E-11,-7.349966E-07,-1.0998E-07,5.713341E-09,-2.861022E-08
827.1932,-0.635574,1.651979E-09,NaN,-0.6378589,-1.32264E-07,NaN,0.1802479,-4.954247E-07,NaN,-0.6720166,2.30114E-05,-0.06340334,9.007839E-08,NaN,NaN,0.2010469,1.024443E-10,-6.908892E-07,-1.099802E-07,6.905434E-09,-2.622604E-08
827.2098,-0.6384115,1.652617E-09,NaN,-0.6403718,-1.32264E-07,NaN,0.1828648,-4.953345E-07,NaN,-0.6743179,2.301179E-05,-0.07037774,8.998942E-08,NaN,NaN,0.2034807,1.024443E-10,-6.509541E-07,-1.099804E-07,6.905434E-09,-2.861022E-08
827.2253,-0.6413749,1.653254E-09,NaN,-0.6429952,-1.322641E-07,NaN,0.1854524,-4.95246E-07,NaN,-0.6766118,2.301219E-05,-0.07745568,8.990217E-08,NaN,NaN,0.2058669,1.024443E-10,-6.032703E-07,-1.099806E-07,6.905434E-09,-2.622604E-08
827.2413,-0.6443999,1.653892E-09,NaN,-0.6456723,-1.322641E-07,NaN,0.1878786,-4.951592E-07,NaN,-0.6788949,2.301259E-05,-0.08444898,8.981658E-08,NaN,NaN,0.2082064,1.024443E-10,-5.591629E-07,-1.099808E-07,6.905434E-09,-2.861022E-08
827.2573,-0.6443999,1.653892E-09,NaN,-0.6456723,-1.322641E-07,NaN,0.1878786,-4.951592E-07,NaN,-0.6788949,2.301259E-05,-0.08444898,8.981658E-08,NaN,NaN,0.2082064,1.024443E-10,-5.591629E-07,-1.099808E-07,6.905434E-09,-2.861022E-08
827.2725,-0.6474479,1.654529E-09,NaN,-0.6483692,-1.322642E-07,NaN,0.1901282,-4.95074E-07,NaN,-0.6811606,2.301298E-05,-0.09129646,8.973264E-08,NaN,NaN,0.2105001,1.024443E-10,-5.138634E-07,-1.09981E-07,1.048171E-08,-2.622604E-08
827.2891,-0.6507245,1.655167E-09,NaN,-0.6512654,-1.322643E-07,NaN,0.1926933,-4.949904E-07,NaN,-0.6836632,2.301338E-05,-0.09861119,8.965031E-08,NaN,NaN,0.2130302,1.024443E-10,-4.757164E-07,-1.099812E-07,1.107776E-08,-2.861022E-08
827.3057,-0.6541216,1.655804E-09,NaN,-0.6542666,-1.322643E-07,NaN,0.1952258,-4.949085E-07,NaN,-0.6861556,2.301377E-05,-0.1060234,8.956956E-08,NaN,NaN,0.2155109,1.07101E-10,-4.304169E-07,-1.099815E-07,1.226985E-08,-2.622604E-08
827.3207,-0.6575747,1.656442E-09,NaN,-0.6573161,-1.322644E-07,NaN,0.1975937,-4.94828E-07,NaN,-0.6886344,2.301417E-05,-0.113344,8.949036E-08,NaN,NaN,0.2179429,1.07101E-10,-3.880976E-07,-1.099817E-07,1.226985E-08,-2.861022E-08
827.3367,-0.6575747,1.656442E-09,NaN,-0.6573161,-1.322644E-07,NaN,0.1975937,-4.94828E-07,NaN,-0.6886344,2.301417E-05,-0.113344,8.949036E-08,NaN,NaN,0.2179429,1.07101E-10,-3.880976E-07,-1.099817E-07,1.226985E-08,-2.861022E-08
827.3519,-0.6610451,1.65708E-09,NaN,-0.6603802,-1.322644E-07,NaN,0.1997825,-4.947491E-07,NaN,-0.691093,2.301456E-05,-0.1205117,8.941267E-08,NaN,NaN,0.2203273,1.117576E-10,-3.42798E-07,-1.099819E-07,1.28659E-08,-2.622604E-08
827.3687,-0.6647403,1.657718E-09,NaN,-0.6636388,-1.322645E-07,NaN,0.2022727,-4.946717E-07,NaN,-0.6937864,2.301495E-05,-0.1281325,8.933647E-08,NaN,NaN,0.2229464,1.164142E-10,-3.016708E-07,-1.099821E-07,1.226985E-08,-2.861022E-08
827.3843,-0.6685508,1.658355E-09,NaN,-0.6669971,-1.322645E-07,NaN,0.204728,-4.945985E-07,NaN,-0.6964673,2.301534E-05,-0.1358454,8.926442E-08,NaN,NaN,0.2255143,1.210708E-10,-2.551792E-07,-1.099823E-07,1.584613E-08,-2.622604E-08
827.4003,-0.672412,1.658993E-09,NaN,-0.6703986,-1.322646E-07,NaN,0.2070166,-4.945265E-07,NaN,-0.6991319,2.301574E-05,-0.1434605,8.919374E-08,NaN,NaN,0.2280319,1.210708E-10,-2.080915E-07,-1.099825E-07,1.942241E-08,-2.861022E-08
827.4159,-0.672412,1.658993E-09,NaN,-0.6703986,-1.322646E-07,NaN,0.2070166,-4.945265E-07,NaN,-0.6991319,2.301574E-05,-0.1434605,8.919374E-08,NaN,NaN,0.2280319,1.210708E-10,-2.080915E-07,-1.099825E-07,1.942241E-08,-2.861022E-08
827.431,-0.6762854,1.65963E-09,NaN,-0.6738098,-1.322647E-07,NaN,0.2091244,-4.94456E-07,NaN,-0.7017738,2.301612E-05,-0.1509161,8.912441E-08,NaN,NaN,0.2305001,1.30384E-10,-1.663683E-07,-1.099827E-07,1.942241E-08,-2.622604E-08
827.4474,-0.6803798,1.660268E-09,NaN,-0.6774111,-1.322647E-07,NaN,0.2115202,-4.943868E-07,NaN,-0.7046486,2.301652E-05,-0.1588113,8.905641E-08,NaN,NaN,0.2332014,1.30384E-10,-1.24645E-07,-1.099829E-07,1.733625E-08,-2.861022E-08
827.4632,-0.6845849,1.660906E-09,NaN,-0.6811071,-1.322648E-07,NaN,0.2138798,-4.943188E-07,NaN,-0.7075086,2.301692E-05,-0.1667937,8.898971E-08,NaN,NaN,0.2358498,1.30384E-10,-7.994154E-08,-1.099831E-07,2.001845E-08,-2.622604E-08
827.4788,-0.6845849,1.660906E-09,NaN,-0.6811071,-1.322648E-07,NaN,0.2138798,-4.943188E-07,NaN,-0.7075086,2.301692E-05,-0.1667937,8.898971E-08,NaN,NaN,0.2358498,1.30384E-10,-7.994154E-08,-1.099831E-07,2.001845E-08,-2.622604E-08
827.4942,-0.6888354,1.661543E-09,NaN,-0.6848413,-1.322648E-07,NaN,0.2160714,-4.942522E-07,NaN,-0.71035,2.30173E-05,-0.1746727,8.892428E-08,NaN,NaN,0.2384464,1.396973E-10,-3.166178E-08,-1.099833E-07,1.733625E-08,-2.861022E-08
827.5103,-0.6930932,1.662181E-09,NaN,-0.6885807,-1.322649E-07,NaN,0.2180815,-4.941867E-07,NaN,-0.7131664,2.301769E-05,-0.1823863,8.88601E-08,NaN,NaN,0.2409922,1.490105E-10,1.125356E-08,-1.099836E-07,1.495206E-08,-2.622604E-08
827.5262,-0.6975688,1.662818E-09,NaN,-0.6925059,-1.322649E-07,NaN,0.2203667,-4.941226E-07,NaN,-0.7162139,2.301808E-05,-0.1905262,8.879714E-08,NaN,NaN,0.2437693,1.536671E-10,5.178472E-08,-1.099838E-07,1.375997E-08,-2.861022E-08
827.5419,-0.7021505,1.663456E-09,NaN,-0.696521,-1.32265E-07,NaN,0.222615,-4.940596E-07,NaN,-0.7192447,2.301847E-05,-0.198749,8.873538E-08,NaN,NaN,0.2464922,1.583237E-10,9.708425E-08,-1.09984E-07,8.097527E-09,-2.622604E-08
827.5574,-0.7021505,1.663456E-09,NaN,-0.696521,-1.32265E-07,NaN,0.222615,-4.940596E-07,NaN,-0.7192447,2.301847E-05,-0.198749,8.873538E-08,NaN,NaN,0.2464922,1.583237E-10,9.708425E-08,-1.09984E-07,8.097527E-09,-2.622604E-08
827.5729,-0.7067728,1.664094E-09,NaN,-0.7005697,-1.322651E-07,NaN,0.2246952,-4.939978E-07,NaN,-0.7222546,2.301886E-05,-0.2068636,8.86748E-08,NaN,NaN,0.2491618,1.629803E-10,1.423838E-07,-1.099842E-07,6.607411E-09,-2.861022E-08
827.5901,-0.7113976,1.664731E-09,NaN,-0.7046193,-1.322651E-07,NaN,0.2265938,-4.9394E-07,NaN,-0.7252373,2.301925E-05,-0.2148073,8.861819E-08,NaN,NaN,0.251779,1.676369E-10,1.858952E-07,-1.099844E-07,6.011365E-09,-2.622604E-08
827.605,-0.7162374,1.665369E-09,NaN,-0.7088506,-1.322652E-07,NaN,0.2287553,-4.938832E-07,NaN,-0.7284496,2.301964E-05,-0.2231644,8.856266E-08,NaN,NaN,0.2546263,1.722935E-10,2.267244E-07,-1.099846E-07,6.309388E-09,-2.861022E-08
827.6201,-0.7211789,1.666007E-09,NaN,-0.7131674,-1.322652E-07,NaN,0.2308801,-4.938275E-07,NaN,-0.7316434,2.302003E-05,-0.2316007,8.850827E-08,NaN,NaN,0.257418,1.722935E-10,2.741101E-07,-1.099848E-07,7.501481E-09,-2.622604E-08
827.636,-0.7211789,1.666007E-09,NaN,-0.7131674,-1.322652E-07,NaN,0.2308801,-4.938275E-07,NaN,-0.7316434,2.302003E-05,-0.2316007,8.850827E-08,NaN,NaN,0.257418,1.722935E-10,2.741101E-07,-1.099848E-07,7.501481E-09,-2.622604E-08
827.6511,-0.7261563,1.666645E-09,NaN,-0.7175133,-1.322653E-07,NaN,0.2328371,-4.93773E-07,NaN,-0.7348145,2.302043E-05,-0.2399241,8.845491E-08,NaN,NaN,0.260155,1.722935E-10,3.203037E-07,-1.09985E-07,1.197183E-08,-2.861022E-08
827.6677,-0.7311317,1.667282E-09,NaN,-0.7218558,-1.322653E-07,NaN,0.2346133,-4.937194E-07,NaN,-0.7379565,2.302082E-05,-0.248072,8.840257E-08,NaN,NaN,0.2628383,1.722935E-10,3.653052E-07,-1.099852E-07,1.167381E-08,-2.622604E-08
827.6833,-0.7363194,1.66792E-09,NaN,-0.7263764,-1.322654E-07,NaN,0.2366408,-4.936668E-07,NaN,-0.7413263,2.302121E-05,-0.2566208,8.835121E-08,NaN,NaN,0.2657503,1.722935E-10,4.025581E-07,-1.099854E-07,9.140609E-09,-2.861022E-08
827.6992,-0.7363194,1.66792E-09,NaN,-0.7263764,-1.322654E-07,NaN,0.2366408,-4.936668E-07,NaN,-0.7413263,2.302121E-05,-0.2566208,8.835121E-08,NaN,NaN,0.2657503,1.722935E-10,4.025581E-07,-1.099854E-07,9.140609E-09,-2.861022E-08
827.7141,-0.7416047,1.668558E-09,NaN,-0.7309781,-1.322655E-07,NaN,0.2386324,-4.936152E-07,NaN,-0.7446764,2.30216E-05,-0.2652453,8.830082E-08,NaN,NaN,0.2686055,1.722935E-10,4.478576E-07,-1.099856E-07,1.137578E-08,-2.622604E-08
827.7306,-0.7469215,1.669196E-09,NaN,-0.7356046,-1.322655E-07,NaN,0.2404574,-4.935645E-07,NaN,-0.7480019,2.302199E-05,-0.273753,8.825138E-08,NaN,NaN,0.2714047,1.722935E-10,4.943492E-07,-1.099858E-07,1.048171E-08,-2.861022E-08
827.7463,-0.7522318,1.669833E-09,NaN,-0.7402239,-1.322656E-07,NaN,0.2421031,-4.935148E-07,NaN,-0.7512966,2.302238E-05,-0.2820807,8.820287E-08,NaN,NaN,0.2741491,1.722935E-10,5.408408E-07,-1.09986E-07,8.842585E-09,-2.622604E-08
827.7626,-0.7577522,1.670471E-09,NaN,-0.7450176,-1.322656E-07,NaN,0.2439889,-4.93466E-07,NaN,-0.7548177,2.302277E-05,-0.2907975,8.815529E-08,NaN,NaN,0.2771209,1.722935E-10,5.798818E-07,-1.099862E-07,7.128952E-09,-2.861022E-08
827.778,-0.7577522,1.670471E-09,NaN,-0.7450176,-1.322656E-07,NaN,0.2439889,-4.93466E-07,NaN,-0.7548177,2.302277E-05,-0.2907975,8.815529E-08,NaN,NaN,0.2771209,1.722935E-10,5.798818E-07,-1.099862E-07,7.128952E-09,-2.861022E-08
827.7929,-0.7633662,1.671109E-09,NaN,-0.7498883,-1.322657E-07,NaN,0.2458402,-4.934209E-07,NaN,-0.7583179,2.302316E-05,-0.2995868,8.811143E-08,NaN,NaN,0.2800348,1.722935E-10,6.227972E-07,-1.099864E-07,4.595754E-09,-2.622604E-08
827.8091,-0.7690071,1.671747E-09,NaN,-0.7547798,-1.322657E-07,NaN,0.2475266,-4.933766E-07,NaN,-0.7617922,2.302355E-05,-0.3082556,8.806839E-08,NaN,NaN,0.2828915,1.722935E-10,6.689908E-07,-1.099866E-07,3.478167E-09,-2.861022E-08
827.8248,-0.7746374,1.672385E-09,NaN,-0.7596603,-1.322658E-07,NaN,0.2490358,-4.933331E-07,NaN,-0.7652341,2.302395E-05,-0.3167406,8.802616E-08,NaN,NaN,0.2856923,1.722935E-10,7.125021E-07,-1.099868E-07,2.211568E-09,-2.622604E-08
827.8409,-0.7804758,1.673023E-09,NaN,-0.7647119,-1.322659E-07,NaN,0.2507746,-4.932904E-07,NaN,-0.7689008,2.302434E-05,-0.3256031,8.798472E-08,NaN,NaN,0.2887194,1.722935E-10,7.464768E-07,-1.09987E-07,3.594582E-09,-2.861022E-08
827.8563,-0.7804758,1.673023E-09,NaN,-0.7647119,-1.322659E-07,NaN,0.2507746,-4.932904E-07,NaN,-0.7689008,2.302434E-05,-0.3256031,8.798472E-08,NaN,NaN,0.2887194,1.722935E-10,7.464768E-07,-1.09987E-07,3.594582E-09,-2.861022E-08
827.8716,-0.7864039,1.673661E-09,NaN,-0.7698364,-1.322659E-07,NaN,0.2524806,-4.932485E-07,NaN,-0.7725459,2.302473E-05,-0.3345353,8.794407E-08,NaN,NaN,0.2916873,1.722935E-10,7.899881E-07,-1.099872E-07,5.876323E-09,-2.622604E-08
827.8877,-0.7923547,1.674299E-09,NaN,-0.7749779,-1.32266E-07,NaN,0.2540241,-4.932074E-07,NaN,-0.7761638,2.302512E-05,-0.3433438,8.790417E-08,NaN,NaN,0.2945972,1.722935E-10,8.364797E-07,-1.099874E-07,5.652805E-09,-2.861022E-08
827.9034,-0.7982906,1.674937E-09,NaN,-0.7801048,-1.32266E-07,NaN,0.2553931,-4.93167E-07,NaN,-0.7797478,2.302551E-05,-0.3519649,8.786502E-08,NaN,NaN,0.2974499,1.722935E-10,8.773089E-07,-1.099876E-07,6.770392E-09,-2.622604E-08
827.9191,-0.7982906,1.674937E-09,NaN,-0.7801048,-1.32266E-07,NaN,0.2553931,-4.93167E-07,NaN,-0.7797478,2.302551E-05,-0.3519649,8.786502E-08,NaN,NaN,0.2974499,1.722935E-10,8.773089E-07,-1.099876E-07,6.770392E-09,-2.622604E-08
827.934,-0.8044329,1.675575E-09,NaN,-0.7853996,-1.322661E-07,NaN,0.2569816,-4.931273E-07,NaN,-0.7835552,2.30259E-05,-0.3609526,8.78266E-08,NaN,NaN,0.3005279,1.722935E-10,9.133697E-07,-1.099877E-07,5.950828E-09,-2.861022E-08
827.9502,-0.8106612,1.676213E-09,NaN,-0.7907635,-1.322661E-07,NaN,0.2585394,-4.930884E-07,NaN,-0.7873406,2.302629E-05,-0.3700071,8.77889E-08,NaN,NaN,0.3035458,1.722935E-10,9.568811E-07,-1.099879E-07,6.025334E-09,-2.622604E-08
827.9661,-0.816908,1.676851E-09,NaN,-0.7961407,-1.322662E-07,NaN,0.2599375,-4.930502E-07,NaN,-0.7910976,2.302668E-05,-0.3789351,8.775191E-08,NaN,NaN,0.3065046,1.722935E-10,9.971142E-07,-1.099881E-07,5.727311E-09,-2.861022E-08
827.9815,-0.8231357,1.677489E-09,NaN,-0.8014999,-1.322663E-07,NaN,0.2611641,-4.930155E-07,NaN,-0.7948196,2.302707E-05,-0.3876725,8.771843E-08,NaN,NaN,0.3094054,1.722935E-10,1.041222E-06,-1.099883E-07,3.79016E-09,-2.622604E-08
827.9975,-0.8231357,1.677489E-09,NaN,-0.8014999,-1.322663E-07,NaN,0.2611641,-4.930155E-07,NaN,-0.7948196,2.302707E-05,-0.3876725,8.771843E-08,NaN,NaN,0.3094054,1.722935E-10,1.041222E-06,-1.099883E-07,3.79016E-09,-2.622604E-08
828.0125,-0.8295685,1.678127E-09,NaN,-0.807024,-1.322663E-07,NaN,0.2626007,-4.929814E-07,NaN,-0.7987636,2.302747E-05,-0.3967661,8.768557E-08,NaN,NaN,0.3125304,1.722935E-10,1.073408E-06,-1.099885E-07,3.939171E-09,-2.861022E-08
828.0291,-0.8360837,1.678765E-09,NaN,-0.8126135,-1.322664E-07,NaN,0.2640091,-4.929479E-07,NaN,-0.8026854,2.302786E-05,-0.4059239,8.765333E-08,NaN,NaN,0.3155944,1.722935E-10,1.112449E-06,-1.099887E-07,9.589392E-10,-2.622604E-08
828.0444,-0.8426131,1.679404E-09,NaN,-0.8182128,-1.322664E-07,NaN,0.2652609,-4.92915E-07,NaN,-0.8065779,2.302825E-05,-0.4149525,8.762168E-08,NaN,NaN,0.3185984,1.722935E-10,1.155067E-06,-1.099889E-07,9.589392E-10,-2.861022E-08
828.0603,-0.8491194,1.680042E-09,NaN,-0.8237908,-1.322665E-07,NaN,0.2663446,-4.928827E-07,NaN,-0.8104343,2.302864E-05,-0.4237877,8.759061E-08,NaN,NaN,0.3215435,1.722935E-10,1.194406E-06,-1.099891E-07,2.747079E-09,-2.622604E-08
828.0759,-0.8491194,1.680042E-09,NaN,-0.8237908,-1.322665E-07,NaN,0.2663446,-4.928827E-07,NaN,-0.8104343,2.302864E-05,-0.4237877,8.759061E-08,NaN,NaN,0.3215435,1.722935E-10,1.194406E-06,-1.099891E-07,2.747079E-09,-2.622604E-08
828.0919,-0.8558296,1.68068E-09,NaN,-0.829531,-1.322665E-07,NaN,0.2676293,-4.92851E-07,NaN,-0.8145114,2.302903E-05,-0.4329691,8.756012E-08,NaN,NaN,0.3247119,1.722935E-10,1.228082E-06,-1.099893E-07,3.343125E-09,-2.861022E-08
828.1073,-0.8626186,1.681318E-09,NaN,-0.835333,-1.322666E-07,NaN,0.2688883,-4.928199E-07,NaN,-0.8185663,2.302942E-05,-0.4422123,8.75302E-08,NaN,NaN,0.3278185,1.722935E-10,1.270104E-06,-1.099895E-07,5.727311E-09,-2.622604E-08
828.1226,-0.8694178,1.681957E-09,NaN,-0.8411413,-1.322666E-07,NaN,0.2699941,-4.927893E-07,NaN,-0.8225912,2.302981E-05,-0.4513238,8.750082E-08,NaN,NaN,0.3308643,1.722935E-10,1.313317E-06,-1.099896E-07,4.237195E-09,-2.861022E-08
828.1387,-0.8694178,1.681957E-09,NaN,-0.8411413,-1.322666E-07,NaN,0.2699941,-4.927893E-07,NaN,-0.8225912,2.302981E-05,-0.4513238,8.750082E-08,NaN,NaN,0.3308643,1.722935E-10,1.313317E-06,-1.099896E-07,4.237195E-09,-2.861022E-08
828.1533,-0.8764393,1.682595E-09,NaN,-0.8471258,-1.322667E-07,NaN,0.2712737,-4.927592E-07,NaN,-0.8268411,2.30302E-05,-0.4607858,8.747198E-08,NaN,NaN,0.3341314,1.722935E-10,1.349229E-06,-1.099898E-07,6.323357E-09,-2.622604E-08
828.1696,-0.8835465,1.683233E-09,NaN,-0.8531777,-1.322668E-07,NaN,0.2725057,-4.927297E-07,NaN,-0.8310732,2.303059E-05,-0.4703012,8.744367E-08,NaN,NaN,0.3373348,1.722935E-10,1.387674E-06,-1.0999E-07,7.813473E-09,-2.861022E-08
828.1851,-0.8906653,1.683872E-09,NaN,-0.8592374,-1.322668E-07,NaN,0.2735687,-4.927035E-07,NaN,-0.8352774,2.303099E-05,-0.4796726,8.741871E-08,NaN,NaN,0.3404754,1.722935E-10,1.42895E-06,-1.099902E-07,8.409519E-09,-2.622604E-08
828.2014,-0.8977558,1.68451E-09,NaN,-0.865272,-1.322669E-07,NaN,0.2744578,-4.926777E-07,NaN,-0.8394455,2.303138E-05,-0.4888366,8.739421E-08,NaN,NaN,0.3435544,1.722935E-10,1.466799E-06,-1.099904E-07,1.079371E-08,-2.861022E-08
828.2164,-0.8977558,1.68451E-09,NaN,-0.865272,-1.322669E-07,NaN,0.2744578,-4.926777E-07,NaN,-0.8394455,2.303138E-05,-0.4888366,8.739421E-08,NaN,NaN,0.3435544,1.722935E-10,1.466799E-06,-1.099904E-07,1.079371E-08,-2.861022E-08
828.2317,-0.905049,1.685149E-09,NaN,-0.8714646,-1.322669E-07,NaN,0.2755247,-4.926524E-07,NaN,-0.8438324,2.303177E-05,-0.4983222,8.737015E-08,NaN,NaN,0.346854,1.722935E-10,1.49824E-06,-1.099906E-07,1.019766E-08,-2.622604E-08
828.2477,-0.9124143,1.685787E-09,NaN,-0.8777127,-1.32267E-07,NaN,0.276565,-4.926276E-07,NaN,-0.8481979,2.303216E-05,-0.5078585,8.734652E-08,NaN,NaN,0.3500893,1.722935E-10,1.535344E-06,-1.099908E-07,6.62138E-09,-2.861022E-08
828.2635,-0.9197815,1.686426E-09,NaN,-0.8839604,-1.32267E-07,NaN,0.2774545,-4.926031E-07,NaN,-0.852532,2.303255E-05,-0.5172539,8.732333E-08,NaN,NaN,0.3532612,1.722935E-10,1.573789E-06,-1.099909E-07,6.62138E-09,-2.622604E-08
828.2791,-0.9197815,1.686426E-09,NaN,-0.8839604,-1.32267E-07,NaN,0.2774545,-4.926031E-07,NaN,-0.852532,2.303255E-05,-0.5172539,8.732333E-08,NaN,NaN,0.3532612,1.722935E-10,1.573789E-06,-1.099909E-07,6.62138E-09,-2.622604E-08
828.2942,-0.9271137,1.687064E-09,NaN,-0.8901777,-1.322671E-07,NaN,0.278184,-4.925791E-07,NaN,-0.856827,2.303294E-05,-0.526445,8.730056E-08,NaN,NaN,0.3563709,1.722935E-10,1.612532E-06,-1.099911E-07,4.83324E-09,-2.861022E-08
828.3101,-0.9346464,1.687703E-09,NaN,-0.8965492,-1.322671E-07,NaN,0.2790889,-4.925556E-07,NaN,-0.861338,2.303333E-05,-0.5359532,8.72782E-08,NaN,NaN,0.3597006,1.722935E-10,1.642782E-06,-1.099913E-07,6.025333E-09,-2.622604E-08
828.3259,-0.9422469,1.688342E-09,NaN,-0.9029722,-1.322671E-07,NaN,0.2799732,-4.925324E-07,NaN,-0.8658277,2.303372E-05,-0.5455125,8.725623E-08,NaN,NaN,0.3629653,1.722935E-10,1.679289E-06,-1.099915E-07,9.005565E-09,-2.861022E-08
828.3423,-0.9498451,1.68898E-09,NaN,-0.9093914,-1.322672E-07,NaN,0.2807125,-4.925096E-07,NaN,-0.870285,2.303411E-05,-0.5549306,8.723467E-08,NaN,NaN,0.3661661,1.722935E-10,1.718628E-06,-1.099917E-07,7.813473E-09,-2.622604E-08
828.3573,-0.9498451,1.68898E-09,NaN,-0.9093914,-1.322672E-07,NaN,0.2807125,-4.925096E-07,NaN,-0.870285,2.303411E-05,-0.5549306,8.723467E-08,NaN,NaN,0.3661661,1.722935E-10,1.718628E-06,-1.099917E-07,7.813473E-09,-2.622604E-08
828.3724,-0.9574041,1.689619E-09,NaN,-0.9157774,-1.322672E-07,NaN,0.2812972,-4.924872E-07,NaN,-0.8747021,2.30345E-05,-0.5641438,8.721349E-08,NaN,NaN,0.3693041,1.722935E-10,1.757818E-06,-1.099919E-07,6.025333E-09,-2.861022E-08
828.3887,-0.9651632,1.690258E-09,NaN,-0.9223154,-1.322673E-07,NaN,0.2820502,-4.924651E-07,NaN,-0.879334,2.30349E-05,-0.5736666,8.71927E-08,NaN,NaN,0.3726615,1.722935E-10,1.788068E-06,-1.09992E-07,5.429287E-09,-2.622604E-08
828.4042,-0.9729868,1.690897E-09,NaN,-0.9289018,-1.322673E-07,NaN,0.2827857,-4.924463E-07,NaN,-0.8839454,2.303529E-05,-0.5832387,8.71751E-08,NaN,NaN,0.3759534,1.722935E-10,1.822862E-06,-1.099922E-07,4.237194E-09,-2.861022E-08
828.4198,-0.9729868,1.690897E-09,NaN,-0.9289018,-1.322673E-07,NaN,0.2827857,-4.924463E-07,NaN,-0.8839454,2.303529E-05,-0.5832387,8.71751E-08,NaN,NaN,0.3759534,1.722935E-10,1.822862E-06,-1.099922E-07,4.237194E-09,-2.861022E-08
828.4349,-0.9808038,1.691535E-09,NaN,-0.9354816,-1.322674E-07,NaN,0.2833806,-4.924278E-07,NaN,-0.8885242,2.303568E-05,-0.5926681,8.715781E-08,NaN,NaN,0.3791808,1.722935E-10,1.859221E-06,-1.099924E-07,2.449054E-09,-2.622604E-08
828.4509,-0.988578,1.692174E-09,NaN,-0.9420258,-1.322674E-07,NaN,0.2838257,-4.924096E-07,NaN,-0.8930621,2.303607E-05,-0.6018916,8.714083E-08,NaN,NaN,0.382345,1.722935E-10,1.897442E-06,-1.099926E-07,6.025333E-09,-2.861022E-08
828.4667,-0.9965522,1.692813E-09,NaN,-0.9487199,-1.322674E-07,NaN,0.284432,-4.923917E-07,NaN,-0.8978136,2.303646E-05,-0.6114175,8.712414E-08,NaN,NaN,0.385728,1.722935E-10,1.926053E-06,-1.099927E-07,2.449055E-09,-2.622604E-08
828.4824,-1.004588,1.693452E-09,NaN,-0.9554597,-1.322675E-07,NaN,0.2850237,-4.923741E-07,NaN,-0.9025459,2.303685E-05,-0.6209903,8.710774E-08,NaN,NaN,0.3890451,1.722935E-10,1.960623E-06,-1.099929E-07,3.045101E-09,-2.861022E-08
828.4983,-1.004588,1.693452E-09,NaN,-0.9554597,-1.322675E-07,NaN,0.2850237,-4.923741E-07,NaN,-0.9025459,2.303685E-05,-0.6209903,8.710774E-08,NaN,NaN,0.3890451,1.722935E-10,1.960623E-06,-1.099929E-07,3.045101E-09,-2.861022E-08
828.5131,-1.012612,1.694091E-09,NaN,-0.9621901,-1.322675E-07,NaN,0.2854791,-4.923567E-07,NaN,-0.9072453,2.303724E-05,-0.6304193,8.709164E-08,NaN,NaN,0.3922971,1.722935E-10,1.997169E-06,-1.099931E-07,2.449055E-09,-2.622604E-08
828.5302,-1.020591,1.69473E-09,NaN,-0.9688827,-1.322676E-07,NaN,0.2857895,-4.923397E-07,NaN,-0.9119033,2.303763E-05,-0.6396412,8.707581E-08,NaN,NaN,0.3954854,1.722935E-10,2.033006E-06,-1.099933E-07,2.449055E-09,-2.861022E-08
828.5451,-1.028769,1.695369E-09,NaN,-0.9757234,-1.322676E-07,NaN,0.2862543,-4.923229E-07,NaN,-0.9167737,2.303802E-05,-0.6491588,8.706026E-08,NaN,NaN,0.3988921,1.722935E-10,2.060498E-06,-1.099935E-07,6.025333E-09,-2.622604E-08
828.5608,-1.037005,1.696008E-09,NaN,-0.982607,-1.322677E-07,NaN,0.2867071,-4.923064E-07,NaN,-0.9216262,2.303842E-05,-0.6587212,8.704497E-08,NaN,NaN,0.4022323,1.722935E-10,2.09425E-06,-1.099936E-07,4.83324E-09,-2.861022E-08
828.5765,-1.037005,1.696008E-09,NaN,-0.982607,-1.322677E-07,NaN,0.2867071,-4.923064E-07,NaN,-0.9216262,2.303842E-05,-0.6587212,8.704497E-08,NaN,NaN,0.4022323,1.722935E-10,2.09425E-06,-1.099936E-07,4.83324E-09,-2.861022E-08
828.5913,-1.045226,1.696647E-09,NaN,-0.9894788,-1.322677E-07,NaN,0.2870279,-4.922902E-07,NaN,-0.9264457,2.303881E-05,-0.6681383,8.702995E-08,NaN,NaN,0.4055071,1.722935E-10,2.131391E-06,-1.099938E-07,2.449055E-09,-2.622604E-08
828.6093,-1.053398,1.697286E-09,NaN,-0.9963105,-1.322677E-07,NaN,0.2872086,-4.922742E-07,NaN,-0.931223,2.30392E-05,-0.6773477,8.70152E-08,NaN,NaN,0.4087177,1.722935E-10,2.165887E-06,-1.09994E-07,6.025333E-09,-2.861022E-08
828.6234,-1.06177,1.697925E-09,NaN,-1.003289,-1.322678E-07,NaN,0.2875371,-4.922613E-07,NaN,-0.9362116,2.303959E-05,-0.6868467,8.700352E-08,NaN,NaN,0.4121463,1.722935E-10,2.190274E-06,-1.099941E-07,6.025333E-09,-2.622604E-08
828.6396,-1.06177,1.697925E-09,NaN,-1.003289,-1.322678E-07,NaN,0.2875371,-4.922613E-07,NaN,-0.9362116,2.303959E-05,-0.6868467,8.700352E-08,NaN,NaN,0.4121463,1.722935E-10,2.190274E-06,-1.099941E-07,6.025333E-09,-2.622604E-08
828.654,-1.070196,1.698564E-09,NaN,-1.010308,-1.322678E-07,NaN,0.2878562,-4.922485E-07,NaN,-0.9411838,2.303998E-05,-0.6963881,8.699204E-08,NaN,NaN,0.4155079,1.722935E-10,2.222618E-06,-1.099943E-07,8.409518E-09,-2.861022E-08
828.6703,-1.078603,1.699203E-09,NaN,-1.017312,-1.322679E-07,NaN,0.2880474,-4.92236E-07,NaN,-0.9461228,2.304037E-05,-0.7057831,8.698074E-08,NaN,NaN,0.4188037,1.722935E-10,2.257673E-06,-1.099945E-07,1.19858E-08,-2.622604E-08
828.6859,-1.086957,1.699842E-09,NaN,-1.024274,-1.322679E-07,NaN,0.2881036,-4.922237E-07,NaN,-0.9510188,2.304076E-05,-0.71497,8.696964E-08,NaN,NaN,0.4220349,1.722935E-10,2.29027E-06,-1.099947E-07,1.317789E-08,-2.861022E-08
828.7016,-1.095512,1.700482E-09,NaN,-1.031382,-1.32268E-07,NaN,0.2883011,-4.922115E-07,NaN,-0.956125,2.304115E-05,-0.7244408,8.695873E-08,NaN,NaN,0.4254837,1.722935E-10,2.31467E-06,-1.099948E-07,1.317789E-08,-2.622604E-08
828.7169,-1.095512,1.700482E-09,NaN,-1.031382,-1.32268E-07,NaN,0.2883011,-4.922115E-07,NaN,-0.956125,2.304115E-05,-0.7244408,8.695873E-08,NaN,NaN,0.4254837,1.722935E-10,2.31467E-06,-1.099948E-07,1.317789E-08,-2.622604E-08
828.7321,-1.104117,1.701121E-09,NaN,-1.038527,-1.32268E-07,NaN,0.2884913,-4.921996E-07,NaN,-0.9612163,2.304154E-05,-0.7339515,8.6948E-08,NaN,NaN,0.4288651,1.722935E-10,2.34641E-06,-1.09995E-07,1.317789E-08,-2.861022E-08
828.7484,-1.1127,1.70176E-09,NaN,-1.045656,-1.32268E-07,NaN,0.2885581,-4.921878E-07,NaN,-0.9662742,2.304194E-05,-0.7433149,8.693744E-08,NaN,NaN,0.4321803,1.722935E-10,2.376808E-06,-1.099952E-07,1.317789E-08,-2.622604E-08
828.7642,-1.121226,1.702399E-09,NaN,-1.052742,-1.322681E-07,NaN,0.2884946,-4.921683E-07,NaN,-0.9712883,2.304233E-05,-0.75247,8.69191E-08,NaN,NaN,0.4354306,1.722935E-10,2.406908E-06,-1.099953E-07,1.317789E-08,-2.861022E-08
828.7798,-1.121226,1.702399E-09,NaN,-1.052742,-1.322681E-07,NaN,0.2884946,-4.921683E-07,NaN,-0.9712883,2.304233E-05,-0.75247,8.69191E-08,NaN,NaN,0.4354306,1.722935E-10,2.406908E-06,-1.099953E-07,1.317789E-08,-2.861022E-08
828.7946,-1.129954,1.703038E-09,NaN,-1.059971,-1.322681E-07,NaN,0.2885662,-4.92149E-07,NaN,-0.9765114,2.304271E-05,-0.7619038,8.690108E-08,NaN,NaN,0.438898,1.769501E-10,2.428441E-06,-1.099955E-07,1.19858E-08,-2.622604E-08
828.8107,-1.138728,1.703677E-09,NaN,-1.067235,-1.322682E-07,NaN,0.2886326,-4.921301E-07,NaN,-0.9817213,2.30431E-05,-0.7713751,8.688338E-08,NaN,NaN,0.4422978,1.816068E-10,2.458615E-06,-1.099957E-07,1.675417E-08,-2.861022E-08
828.8266,-1.147477,1.704316E-09,NaN,-1.074481,-1.322682E-07,NaN,0.2885797,-4.921114E-07,NaN,-0.9868974,2.304349E-05,-0.7806983,8.6866E-08,NaN,NaN,0.4456309,1.816068E-10,2.490951E-06,-1.099959E-07,1.794626E-08,-2.622604E-08
828.842,-1.156165,1.704956E-09,NaN,-1.081682,-1.322683E-07,NaN,0.2884016,-4.920931E-07,NaN,-0.9920287,2.304388E-05,-0.7898132,8.684891E-08,NaN,NaN,0.4488987,1.816068E-10,2.522467E-06,-1.09996E-07,1.317789E-08,-2.861022E-08
828.8576,-1.156165,1.704956E-09,NaN,-1.081682,-1.322683E-07,NaN,0.2884016,-4.920931E-07,NaN,-0.9920287,2.304388E-05,-0.7898132,8.684891E-08,NaN,NaN,0.4488987,1.816068E-10,2.522467E-06,-1.09996E-07,1.317789E-08,-2.861022E-08
828.8727,-1.165055,1.705595E-09,NaN,-1.089026,-1.322683E-07,NaN,0.2883523,-4.92078E-07,NaN,-0.997368,2.304427E-05,-0.7992021,8.683496E-08,NaN,NaN,0.4523835,1.816068E-10,2.543999E-06,-1.099962E-07,8.409518E-09,-2.622604E-08
828.8889,-1.173989,1.706234E-09,NaN,-1.096403,-1.322683E-07,NaN,0.2882997,-4.92063E-07,NaN,-1.002696,2.304466E-05,-0.8086261,8.682124E-08,NaN,NaN,0.4558001,1.816068E-10,2.572609E-06,-1.099964E-07,4.83324E-09,-2.861022E-08
828.9047,-1.182893,1.706873E-09,NaN,-1.103759,-1.322684E-07,NaN,0.288132,-4.920483E-07,NaN,-1.007989,2.304505E-05,-0.8179014,8.680776E-08,NaN,NaN,0.4591499,1.816068E-10,2.601667E-06,-1.099965E-07,6.486811E-11,-2.622604E-08
828.9201,-1.191734,1.707512E-09,NaN,-1.111068,-1.322684E-07,NaN,0.287844,-4.920338E-07,NaN,-1.013237,2.304544E-05,-0.8269688,8.679451E-08,NaN,NaN,0.462434,1.816068E-10,2.629234E-06,-1.099967E-07,2.449054E-09,-2.861022E-08
828.9357,-1.191734,1.707512E-09,NaN,-1.111068,-1.322684E-07,NaN,0.287844,-4.920338E-07,NaN,-1.013237,2.304544E-05,-0.8269688,8.679451E-08,NaN,NaN,0.462434,1.816068E-10,2.629234E-06,-1.099967E-07,2.449054E-09,-2.861022E-08
828.9506,-1.200776,1.708152E-09,NaN,-1.11852,-1.322685E-07,NaN,0.2876787,-4.920195E-07,NaN,-1.018691,2.304584E-05,-0.8363059,8.678148E-08,NaN,NaN,0.4659347,1.816068E-10,2.649648E-06,-1.099968E-07,2.449054E-09,-2.622604E-08
828.9671,-1.20986,1.708791E-09,NaN,-1.126002,-1.322685E-07,NaN,0.2875119,-4.920055E-07,NaN,-1.024136,2.304622E-05,-0.8456757,8.676867E-08,NaN,NaN,0.469367,1.862634E-10,2.676619E-06,-1.09997E-07,6.486811E-11,-2.861022E-08
828.9827,-1.218911,1.70943E-09,NaN,-1.133463,-1.322686E-07,NaN,0.287234,-4.919917E-07,NaN,-1.029545,2.304661E-05,-0.8548964,8.675607E-08,NaN,NaN,0.4727321,1.862634E-10,2.706273E-06,-1.099972E-07,1.256961E-09,-2.622604E-08
828.9984,-1.218911,1.70943E-09,NaN,-1.133463,-1.322686E-07,NaN,0.287234,-4.919917E-07,NaN,-1.029545,2.304661E-05,-0.8548964,8.675607E-08,NaN,NaN,0.4727321,1.862634E-10,2.706273E-06,-1.099972E-07,1.256961E-09,-2.622604E-08
829.0134,-1.228178,1.71007E-09,NaN,-1.141076,-1.322686E-07,NaN,0.2870544,-4.919781E-07,NaN,-1.035168,2.3047E-05,-0.8643933,8.674369E-08,NaN,NaN,0.4763122,1.862634E-10,2.726985E-06,-1.099973E-07,6.486811E-11,-2.861022E-08
829.0299,-1.23749,1.710709E-09,NaN,-1.148724,-1.322686E-07,NaN,0.2868544,-4.919647E-07,NaN,-1.040787,2.304739E-05,-0.8739145,8.673152E-08,NaN,NaN,0.4798224,1.862634E-10,2.756043E-06,-1.099975E-07,2.449054E-09,-2.622604E-08
829.0455,-1.246766,1.711348E-09,NaN,-1.156351,-1.322687E-07,NaN,0.2865325,-4.919515E-07,NaN,-1.046372,2.304779E-05,-0.8832772,8.671955E-08,NaN,NaN,0.4832639,1.862634E-10,2.785547E-06,-1.099977E-07,-3.51141E-09,-2.861022E-08
829.0612,-1.255973,1.711988E-09,NaN,-1.16393,-1.322687E-07,NaN,0.2860902,-4.919385E-07,NaN,-1.05191,2.304818E-05,-0.8924251,8.670778E-08,NaN,NaN,0.4866379,1.862634E-10,2.814455E-06,-1.099978E-07,-3.51141E-09,-2.622604E-08
829.0767,-1.255973,1.711988E-09,NaN,-1.16393,-1.322687E-07,NaN,0.2860902,-4.919385E-07,NaN,-1.05191,2.304818E-05,-0.8924251,8.670778E-08,NaN,NaN,0.4866379,1.862634E-10,2.814455E-06,-1.099978E-07,-3.51141E-09,-2.622604E-08
829.0916,-1.265383,1.712627E-09,NaN,-1.171649,-1.322688E-07,NaN,0.2857547,-4.919285E-07,NaN,-1.057654,2.304857E-05,-0.9018294,8.669903E-08,NaN,NaN,0.4902268,1.862634E-10,2.829207E-06,-1.09998E-07,-4.703503E-09,-2.861022E-08
829.1082,-1.274827,1.713267E-09,NaN,-1.179394,-1.322688E-07,NaN,0.2854165,-4.919186E-07,NaN,-1.06339,2.304896E-05,-0.9112563,8.669042E-08,NaN,NaN,0.4937456,1.862634E-10,2.854837E-06,-1.099982E-07,-5.895596E-09,-2.622604E-08
829.1248,-1.284229,1.713906E-09,NaN,-1.187114,-1.322689E-07,NaN,0.2849722,-4.919089E-07,NaN,-1.06909,2.304935E-05,-0.9205293,8.668194E-08,NaN,NaN,0.4971955,1.862634E-10,2.881809E-06,-1.099983E-07,-4.703503E-09,-2.861022E-08
829.1398,-1.284229,1.713906E-09,NaN,-1.187114,-1.322689E-07,NaN,0.2849722,-4.919089E-07,NaN,-1.06909,2.304935E-05,-0.9205293,8.668194E-08,NaN,NaN,0.4971955,1.862634E-10,2.881809E-06,-1.099983E-07,-4.703503E-09,-2.861022E-08
829.1541,-1.293558,1.714546E-09,NaN,-1.194784,-1.322689E-07,NaN,0.2844195,-4.919925E-07,NaN,-1.074739,2.304974E-05,-0.9295933,8.676671E-08,NaN,NaN,0.5005777,1.862634E-10,2.907587E-06,-1.099984E-07,-9.471875E-09,-2.622604E-08
829.1708,-1.292752,1.715185E-09,NaN,-1.194951,-1.322692E-07,NaN,0.2773021,-4.918683E-07,NaN,-1.070437,2.305014E-05,-0.9210804,8.66438E-08,NaN,NaN,0.4934928,1.769501E-10,3.265662E-06,-1.09998E-07,-1.066397E-08,-2.861022E-08
829.1861,-1.286277,1.715825E-09,NaN,-1.191028,-1.322694E-07,NaN,0.2661588,-4.917578E-07,NaN,-1.064228,2.305054E-05,-0.9029261,8.653455E-08,NaN,NaN,0.4865391,1.676369E-10,3.252251E-06,-1.099977E-07,-1.066397E-08,-2.622604E-08
829.2018,-1.276874,1.716464E-09,NaN,-1.184787,-1.322696E-07,NaN,0.2556224,-4.916382E-07,NaN,-1.057082,2.305094E-05,-0.8819306,8.641612E-08,NaN,NaN,0.4797185,1.583237E-10,3.123505E-06,-1.099974E-07,-5.895596E-09,-2.861022E-08
829.2176,-1.276874,1.716464E-09,NaN,-1.184787,-1.322696E-07,NaN,0.2556224,-4.916382E-07,NaN,-1.057082,2.305094E-05,-0.8819306,8.641612E-08,NaN,NaN,0.4797185,1.583237E-10,3.123505E-06,-1.099974E-07,-5.895596E-09,-2.861022E-08
829.2325,-1.26622,1.717104E-09,NaN,-1.17738,-1.322695E-07,NaN,0.2468391,-4.91659E-07,NaN,-1.049357,2.305133E-05,-0.8608731,8.643823E-08,NaN,NaN,0.4730304,1.583237E-10,2.981497E-06,-1.099975E-07,-5.895596E-09,-2.622604E-08
829.249,-1.255431,1.717744E-09,NaN,-1.1696,-1.322695E-07,NaN,0.2401718,-4.916682E-07,NaN,-1.041327,2.305172E-05,-0.8410043,8.644859E-08,NaN,NaN,0.4662932,1.583237E-10,2.859159E-06,-1.099976E-07,-5.895596E-09,-2.861022E-08
829.2646,-1.244678,1.718384E-09,NaN,-1.161656,-1.322696E-07,NaN,0.2346383,-4.916686E-07,NaN,-1.033219,2.305211E-05,-0.8221079,8.645025E-08,NaN,NaN,0.4596882,1.583237E-10,2.762301E-06,-1.099977E-07,-3.51141E-09,-2.622604E-08
829.2804,-1.234026,1.719024E-09,NaN,-1.153653,-1.322696E-07,NaN,0.2297039,-4.916662E-07,NaN,-1.025115,2.30525E-05,-0.8039259,8.644902E-08,NaN,NaN,0.4532129,1.629803E-10,2.687274E-06,-1.099979E-07,-5.895596E-09,-2.861022E-08
829.2962,-1.234026,1.719024E-09,NaN,-1.153653,-1.322696E-07,NaN,0.2297039,-4.916662E-07,NaN,-1.025115,2.30525E-05,-0.8039259,8.644902E-08,NaN,NaN,0.4532129,1.629803E-10,2.687274E-06,-1.099979E-07,-5.895596E-09,-2.861022E-08
829.311,-1.223491,1.719663E-09,NaN,-1.145644,-1.322696E-07,NaN,0.2250766,-4.916637E-07,NaN,-1.017078,2.305289E-05,-0.786263,8.644778E-08,NaN,NaN,0.4468645,1.629803E-10,2.619362E-06,-1.099981E-07,-5.895596E-09,-2.622604E-08
829.3273,-1.213377,1.720303E-09,NaN,-1.137831,-1.322697E-07,NaN,0.221198,-4.916585E-07,NaN,-1.009174,2.305328E-05,-0.7694461,8.644371E-08,NaN,NaN,0.4404606,1.629803E-10,2.54868E-06,-1.099982E-07,-3.51141E-09,-2.861022E-08
829.3429,-1.203509,1.720943E-09,NaN,-1.130133,-1.322697E-07,NaN,0.2175303,-4.916532E-07,NaN,-1.001493,2.305367E-05,-0.7531226,8.643968E-08,NaN,NaN,0.4341824,1.676369E-10,2.487958E-06,-1.099984E-07,-1.127225E-09,-2.622604E-08
829.3587,-1.203509,1.720943E-09,NaN,-1.130133,-1.322697E-07,NaN,0.2175303,-4.916532E-07,NaN,-1.001493,2.305367E-05,-0.7531226,8.643968E-08,NaN,NaN,0.4341824,1.676369E-10,2.487958E-06,-1.099984E-07,-1.127225E-09,-2.622604E-08
829.3736,-1.193811,1.721583E-09,NaN,-1.122517,-1.322697E-07,NaN,0.2139252,-4.91648E-07,NaN,-0.9939972,2.305406E-05,-0.7371402,8.64357E-08,NaN,NaN,0.4280273,1.676369E-10,2.427236E-06,-1.099985E-07,1.256961E-09,-2.861022E-08
829.39,-1.184248,1.722223E-09,NaN,-1.114968,-1.322698E-07,NaN,0.2103437,-4.916428E-07,NaN,-0.9866655,2.305445E-05,-0.7214333,8.643175E-08,NaN,NaN,0.4219929,1.676369E-10,2.365098E-06,-1.099987E-07,3.641147E-09,-2.622604E-08
829.4056,-1.175097,1.722863E-09,NaN,-1.107653,-1.322698E-07,NaN,0.2073724,-4.916377E-07,NaN,-0.9795004,2.305484E-05,-0.7064362,8.642785E-08,NaN,NaN,0.4158966,1.676369E-10,2.301992E-06,-1.099988E-07,-1.127225E-09,-2.861022E-08
829.4209,-1.166187,1.723502E-09,NaN,-1.100477,-1.322699E-07,NaN,0.2045521,-4.916326E-07,NaN,-0.9725749,2.305523E-05,-0.6918493,8.6424E-08,NaN,NaN,0.40992,1.676369E-10,2.242387E-06,-1.09999E-07,-1.127225E-09,-2.622604E-08
829.4369,-1.166187,1.723502E-09,NaN,-1.100477,-1.322699E-07,NaN,0.2045521,-4.916326E-07,NaN,-0.9725749,2.305523E-05,-0.6918493,8.6424E-08,NaN,NaN,0.40992,1.676369E-10,2.242387E-06,-1.09999E-07,-1.127225E-09,-2.622604E-08
829.4515,-1.15744,1.724142E-09,NaN,-1.093398,-1.322699E-07,NaN,0.2017655,-4.916276E-07,NaN,-0.9658363,2.305562E-05,-0.6775504,8.642018E-08,NaN,NaN,0.4040607,1.676369E-10,2.180994E-06,-1.099992E-07,3.641147E-09,-2.861022E-08
829.4677,-1.14882,1.724782E-09,NaN,-1.086393,-1.3227E-07,NaN,0.1989872,-4.916226E-07,NaN,-0.9592552,2.305601E-05,-0.6634904,8.64164E-08,NaN,NaN,0.3983161,1.722935E-10,2.121091E-06,-1.099993E-07,6.025333E-09,-2.622604E-08
829.4835,-1.1406,1.725422E-09,NaN,-1.079627,-1.3227E-07,NaN,0.196811,-4.916176E-07,NaN,-0.9528179,2.30564E-05,-0.6501209,8.641266E-08,NaN,NaN,0.3925041,1.722935E-10,2.057166E-06,-1.099995E-07,3.641147E-09,-2.861022E-08
829.4993,-1.1406,1.725422E-09,NaN,-1.079627,-1.3227E-07,NaN,0.196811,-4.916176E-07,NaN,-0.9528179,2.30564E-05,-0.6501209,8.641266E-08,NaN,NaN,0.3925041,1.722935E-10,2.057166E-06,-1.099995E-07,3.641147E-09,-2.861022E-08
829.5137,-1.132616,1.726062E-09,NaN,-1.073005,-1.3227E-07,NaN,0.194784,-4.916155E-07,NaN,-0.9466072,2.305679E-05,-0.6371409,8.641179E-08,NaN,NaN,0.3868061,1.722935E-10,1.999647E-06,-1.099996E-07,8.409518E-09,-2.622604E-08
829.5302,-1.12479,1.726702E-09,NaN,-1.066484,-1.322701E-07,NaN,0.1927855,-4.916134E-07,NaN,-0.9405707,2.305718E-05,-0.6244268,8.64109E-08,NaN,NaN,0.38122,1.769501E-10,1.943619E-06,-1.099998E-07,8.409518E-09,-2.861022E-08
829.5458,-1.117084,1.727342E-09,NaN,-1.060039,-1.322701E-07,NaN,0.1907883,-4.916113E-07,NaN,-0.934679,2.305757E-05,-0.6119293,8.640999E-08,NaN,NaN,0.3757432,1.769501E-10,1.887292E-06,-1.099999E-07,8.409518E-09,-2.622604E-08
829.5615,-1.109769,1.727982E-09,NaN,-1.053834,-1.322702E-07,NaN,0.1893863,-4.916091E-07,NaN,-0.9289083,2.305796E-05,-0.6001084,8.640906E-08,NaN,NaN,0.3701937,1.769501E-10,1.826943E-06,-1.100001E-07,8.409518E-09,-2.861022E-08
829.5768,-1.109769,1.727982E-09,NaN,-1.053834,-1.322702E-07,NaN,0.1893863,-4.916091E-07,NaN,-0.9289083,2.305796E-05,-0.6001084,8.640906E-08,NaN,NaN,0.3701937,1.769501E-10,1.826943E-06,-1.100001E-07,8.409518E-09,-2.861022E-08
829.5918,-1.102685,1.728621E-09,NaN,-1.047775,-1.322702E-07,NaN,0.1881305,-4.915108E-07,NaN,-0.9233515,2.305834E-05,-0.5886584,8.631203E-08,NaN,NaN,0.3647533,1.816067E-10,1.770914E-06,-1.100002E-07,1.19858E-08,-2.622604E-08
829.608,-1.095755,1.729261E-09,NaN,-1.041819,-1.322703E-07,NaN,0.1868968,-4.914144E-07,NaN,-0.917957,2.305873E-05,-0.5774531,8.621686E-08,NaN,NaN,0.3594196,1.862633E-10,1.718462E-06,-1.100004E-07,8.409518E-09,-2.861022E-08
829.6235,-1.088939,1.7299E-09,NaN,-1.03594,-1.322703E-07,NaN,0.185656,-4.913198E-07,NaN,-0.9126959,2.305912E-05,-0.5664425,8.612351E-08,NaN,NaN,0.3541904,1.909199E-10,1.66452E-06,-1.100005E-07,6.025333E-09,-2.622604E-08
829.6409,-1.082504,1.730539E-09,NaN,-1.030299,-1.322703E-07,NaN,0.1850023,-4.912271E-07,NaN,-0.9075365,2.30595E-05,-0.5560938,8.603195E-08,NaN,NaN,0.3488836,1.955765E-10,1.605213E-06,-1.100007E-07,8.409518E-09,-2.861022E-08
829.6548,-1.082504,1.730539E-09,NaN,-1.030299,-1.322703E-07,NaN,0.1850023,-4.912271E-07,NaN,-0.9075365,2.30595E-05,-0.5560938,8.603195E-08,NaN,NaN,0.3488836,1.955765E-10,1.605213E-06,-1.100007E-07,8.409518E-09,-2.861022E-08
829.6699,-1.076295,1.731178E-09,NaN,-1.024808,-1.322704E-07,NaN,0.1844905,-4.91136E-07,NaN,-0.9025796,2.305989E-05,-0.5460971,8.594213E-08,NaN,NaN,0.343681,2.002331E-10,1.555742E-06,-1.100008E-07,1.07937E-08,-2.622604E-08
829.6861,-1.070235,1.731817E-09,NaN,-1.019419,-1.322704E-07,NaN,0.1839933,-4.908973E-07,NaN,-0.8977748,2.306028E-05,-0.5363239,8.570458E-08,NaN,NaN,0.3385806,2.002331E-10,1.505376E-06,-1.099996E-07,1.07937E-08,-2.861022E-08
829.7015,-1.064284,1.732457E-09,NaN,-1.014107,-1.3227E-07,NaN,0.1834801,-4.908155E-07,NaN,-0.8930932,2.306067E-05,-0.5267235,8.562403E-08,NaN,NaN,0.3335801,2.002331E-10,1.457096E-06,-1.09998E-07,1.07937E-08,-2.622604E-08
829.7171,-1.064284,1.732457E-09,NaN,-1.014107,-1.3227E-07,NaN,0.1834801,-4.908155E-07,NaN,-0.8930932,2.306067E-05,-0.5267235,8.562403E-08,NaN,NaN,0.3335801,2.002331E-10,1.457096E-06,-1.09998E-07,1.07937E-08,-2.622604E-08
829.7321,-1.058704,1.733098E-09,NaN,-1.009033,-1.322694E-07,NaN,0.1835454,-4.908171E-07,NaN,-0.8884971,2.306106E-05,-0.5177701,8.562685E-08,NaN,NaN,0.3284976,2.002331E-10,1.40673E-06,-1.099963E-07,7.217425E-09,-2.861022E-08
829.7483,-1.053345,1.733738E-09,NaN,-1.004108,-1.322687E-07,NaN,0.1837473,-4.908637E-07,NaN,-0.8840934,2.306145E-05,-0.5091498,8.567472E-08,NaN,NaN,0.3235149,2.002331E-10,1.360834E-06,-1.099945E-07,8.409518E-09,-2.622604E-08
829.7642,-1.04813,1.734378E-09,NaN,-0.9992858,-1.322679E-07,NaN,0.1839558,-4.909347E-07,NaN,-0.8798327,2.306184E-05,-0.500732,8.5747E-08,NaN,NaN,0.3186301,2.002331E-10,1.317323E-06,-1.099927E-07,9.60161E-09,-2.861022E-08
829.7796,-1.04813,1.734378E-09,NaN,-0.9992858,-1.322679E-07,NaN,0.1839558,-4.909347E-07,NaN,-0.8798327,2.306184E-05,-0.500732,8.5747E-08,NaN,NaN,0.3186301,2.002331E-10,1.317323E-06,-1.099927E-07,9.60161E-09,-2.861022E-08
829.7949,-1.043298,1.735018E-09,NaN,-0.9947131,-1.32267E-07,NaN,0.1847322,-4.910184E-07,NaN,-0.8756621,2.306223E-05,-0.4929605,8.583194E-08,NaN,NaN,0.3136609,2.002331E-10,1.266957E-06,-1.099908E-07,1.317789E-08,-2.622604E-08
829.8109,-1.038693,1.735659E-09,NaN,-0.990297,-1.322661E-07,NaN,0.185629,-4.911088E-07,NaN,-0.8716863,2.306262E-05,-0.4855057,8.592365E-08,NaN,NaN,0.3087894,2.002331E-10,1.22434E-06,-1.099889E-07,9.60161E-09,-2.861022E-08
829.8265,-1.034232,1.736299E-09,NaN,-0.9859867,-1.322652E-07,NaN,0.1865147,-4.912002E-07,NaN,-0.8678523,2.306302E-05,-0.4782315,8.601633E-08,NaN,NaN,0.3040136,2.002331E-10,1.182319E-06,-1.09987E-07,1.317789E-08,-2.622604E-08
829.842,-1.029872,1.736938E-09,NaN,-0.9817543,-1.322643E-07,NaN,0.1873589,-4.914392E-07,NaN,-0.8641297,2.30634E-05,-0.4710866,8.625653E-08,NaN,NaN,0.2993314,2.048898E-10,1.14447E-06,-1.099866E-07,1.436998E-08,-2.861022E-08
829.8578,-1.029872,1.736938E-09,NaN,-0.9817543,-1.322643E-07,NaN,0.1873589,-4.914392E-07,NaN,-0.8641297,2.30634E-05,-0.4710866,8.625653E-08,NaN,NaN,0.2993314,2.048898E-10,1.14447E-06,-1.099866E-07,1.436998E-08,-2.861022E-08
829.873,-1.025867,1.737578E-09,NaN,-0.977757,-1.322638E-07,NaN,0.1887601,-4.915211E-07,NaN,-0.8604714,2.306379E-05,-0.4645572,8.633962E-08,NaN,NaN,0.2945608,2.095464E-10,1.09619E-06,-1.099864E-07,1.556207E-08,-2.622604E-08
829.8892,-1.022073,1.738217E-09,NaN,-0.9739086,-1.322636E-07,NaN,0.1902823,-4.915194E-07,NaN,-0.8569914,2.306417E-05,-0.4583243,8.63392E-08,NaN,NaN,0.2898842,2.14203E-10,1.056851E-06,-1.099864E-07,1.675417E-08,-2.861022E-08
829.9049,-1.018412,1.738856E-09,NaN,-0.970161,-1.322634E-07,NaN,0.1917922,-4.914697E-07,NaN,-0.8536408,2.306456E-05,-0.4522541,8.629078E-08,NaN,NaN,0.2852993,2.188596E-10,1.018406E-06,-1.099864E-07,1.794626E-08,-2.622604E-08
829.9206,-1.014842,1.739496E-09,NaN,-0.9664873,-1.322634E-07,NaN,0.1932565,-4.913928E-07,NaN,-0.8503912,2.306494E-05,-0.4462956,8.621504E-08,NaN,NaN,0.2808043,2.235162E-10,9.802588E-07,-1.099866E-07,1.675417E-08,-2.861022E-08
829.9362,-1.014842,1.739496E-09,NaN,-0.9664873,-1.322634E-07,NaN,0.1932565,-4.913928E-07,NaN,-0.8503912,2.306494E-05,-0.4462956,8.621504E-08,NaN,NaN,0.2808043,2.235162E-10,9.802588E-07,-1.099866E-07,1.675417E-08,-2.861022E-08
829.9512,-1.011618,1.740135E-09,NaN,-0.9630448,-1.322634E-07,NaN,0.1952729,-4.913003E-07,NaN,-0.8471943,2.306533E-05,-0.4409411,8.61238E-08,NaN,NaN,0.2762174,2.281728E-10,9.370455E-07,-1.099867E-07,1.675417E-08,-2.622604E-08
829.9674,-1.008599,1.740774E-09,NaN,-0.959749,-1.322634E-07,NaN,0.1974055,-4.912011E-07,NaN,-0.8441677,2.306572E-05,-0.4358667,8.602585E-08,NaN,NaN,0.2717207,2.328294E-10,9.027728E-07,-1.099869E-07,1.556207E-08,-2.861022E-08
829.9832,-1.005707,1.741413E-09,NaN,-0.956552,-1.322635E-07,NaN,0.1995178,-4.910981E-07,NaN,-0.8412632,2.30661E-05,-0.4309363,8.592413E-08,NaN,NaN,0.2673123,2.37486E-10,8.711824E-07,-1.099871E-07,1.913835E-08,-2.622604E-08
829.9989,-1.005707,1.741413E-09,NaN,-0.956552,-1.322635E-07,NaN,0.1995178,-4.910981E-07,NaN,-0.8412632,2.30661E-05,-0.4309363,8.592413E-08,NaN,NaN,0.2673123,2.37486E-10,8.711824E-07,-1.099871E-07,1.913835E-08,-2.622604E-08
830.0139,-1.0029,1.742053E-09,NaN,-0.9534262,-1.322635E-07,NaN,0.2015755,-4.90845E-07,NaN,-0.838453,2.306649E-05,-0.4260986,8.567221E-08,NaN,NaN,0.2629903,2.37486E-10,8.389958E-07,-1.099859E-07,1.913835E-08,-2.861022E-08
830.0304,-1.000429,1.742693E-09,NaN,-0.9505285,-1.322631E-07,NaN,0.2041777,-4.910632E-07,NaN,-0.8356872,2.306688E-05,-0.4218519,8.589168E-08,NaN,NaN,0.258573,2.328294E-10,8.02637E-07,-1.099857E-07,1.794626E-08,-2.622604E-08
830.0461,-0.9981575,1.743333E-09,NaN,-0.9477754,-1.32263E-07,NaN,0.2068889,-4.912065E-07,NaN,-0.8330855,2.306726E-05,-0.4178681,8.603627E-08,NaN,NaN,0.2542427,2.328294E-10,7.719406E-07,-1.099858E-07,2.152254E-08,-2.861022E-08
830.0616,-0.9960074,1.743973E-09,NaN,-0.9451187,-1.322625E-07,NaN,0.2095708,-4.913931E-07,NaN,-0.8305999,2.306765E-05,-0.4140095,8.62241E-08,NaN,NaN,0.2499973,2.188596E-10,7.448205E-07,-1.099833E-07,1.913835E-08,-2.622604E-08
830.0773,-0.9960074,1.743973E-09,NaN,-0.9451187,-1.322625E-07,NaN,0.2095708,-4.913931E-07,NaN,-0.8305999,2.306765E-05,-0.4140095,8.62241E-08,NaN,NaN,0.2499973,2.188596E-10,7.448205E-07,-1.099833E-07,1.913835E-08,-2.622604E-08
830.0922,-0.9939362,1.744613E-09,NaN,-0.9425305,-1.322613E-07,NaN,0.2121885,-4.919399E-07,NaN,-0.8282027,2.306803E-05,-0.4102246,8.67722E-08,NaN,NaN,0.2458353,2.095464E-10,7.159123E-07,-1.099802E-07,2.271463E-08,-2.861022E-08
830.1088,-0.9921937,1.745252E-09,NaN,-0.9401668,-1.322597E-07,NaN,0.2153434,-4.926396E-07,NaN,-0.8258435,2.30684E-05,-0.4070183,8.747315E-08,NaN,NaN,0.2415748,2.002331E-10,6.816396E-07,-1.099768E-07,2.271463E-08,-2.622604E-08
830.1245,-0.9906436,1.745891E-09,NaN,-0.9379453,-1.322578E-07,NaN,0.2185995,-4.934187E-07,NaN,-0.8236428,2.306878E-05,-0.404058,8.825344E-08,NaN,NaN,0.2373981,1.955765E-10,6.554136E-07,-1.099732E-07,2.033045E-08,-2.861022E-08
830.1414,-0.9892097,1.746531E-09,NaN,-0.9358177,-1.322557E-07,NaN,0.2218173,-4.94236E-07,NaN,-0.8215529,2.306915E-05,-0.4012046,8.9072E-08,NaN,NaN,0.2333035,1.862633E-10,6.303796E-07,-1.099695E-07,2.033045E-08,-2.622604E-08
830.1558,-0.9892097,1.746531E-09,NaN,-0.9358177,-1.322557E-07,NaN,0.2218173,-4.94236E-07,NaN,-0.8215529,2.306915E-05,-0.4012046,8.9072E-08,NaN,NaN,0.2333035,1.862633E-10,6.303796E-07,-1.099695E-07,2.033045E-08,-2.622604E-08
830.1707,-0.9878486,1.74717E-09,NaN,-0.9337553,-1.322535E-07,NaN,0.2249612,-4.950654E-07,NaN,-0.8195462,2.306953E-05,-0.3984067,8.990268E-08,NaN,NaN,0.2292891,1.769501E-10,6.065378E-07,-1.099658E-07,2.033045E-08,-2.861022E-08
830.1873,-0.9868082,1.747809E-09,NaN,-0.9319138,-1.322512E-07,NaN,0.2286356,-4.958926E-07,NaN,-0.8175722,2.30699E-05,-0.3961758,9.073114E-08,NaN,NaN,0.2251735,1.676368E-10,5.773315E-07,-1.09962E-07,2.152254E-08,-2.622604E-08
830.2026,-0.9859545,1.748448E-09,NaN,-0.9302117,-1.32249E-07,NaN,0.2324032,-4.96709E-07,NaN,-0.8157519,2.307028E-05,-0.3941747,9.154896E-08,NaN,NaN,0.2211388,1.53667E-10,5.57066E-07,-1.099582E-07,2.390673E-08,-2.861022E-08
830.2182,-0.9859545,1.748448E-09,NaN,-0.9302117,-1.32249E-07,NaN,0.2324032,-4.96709E-07,NaN,-0.8157519,2.307028E-05,-0.3941747,9.154896E-08,NaN,NaN,0.2211388,1.53667E-10,5.57066E-07,-1.099582E-07,2.390673E-08,-2.861022E-08
830.2333,-0.9852114,1.749087E-09,NaN,-0.9286007,-1.322467E-07,NaN,0.2361234,-4.975123E-07,NaN,-0.8140373,2.307064E-05,-0.3922628,9.235352E-08,NaN,NaN,0.2171834,1.490104E-10,5.362043E-07,-1.099544E-07,2.271463E-08,-2.622604E-08
830.2496,-0.984535,1.749726E-09,NaN,-0.9270514,-1.322444E-07,NaN,0.2397601,-4.982969E-07,NaN,-0.812401,2.3071E-05,-0.390389,9.313943E-08,NaN,NaN,0.2133056,1.443538E-10,5.129585E-07,-1.099507E-07,2.390673E-08,-2.861022E-08
830.2654,-0.9841719,1.750364E-09,NaN,-0.9257192,-1.322421E-07,NaN,0.2439212,-4.990633E-07,NaN,-0.8107935,2.307137E-05,-0.3890714,9.390708E-08,NaN,NaN,0.2093238,1.396972E-10,4.885206E-07,-1.099469E-07,2.211859E-08,-2.622604E-08
830.2809,-0.9839899,1.751003E-09,NaN,-0.9245234,-1.322398E-07,NaN,0.2481674,-4.998117E-07,NaN,-0.8093353,2.307173E-05,-0.3879679,9.465681E-08,NaN,NaN,0.2054204,1.350405E-10,4.68255E-07,-1.099431E-07,1.97344E-08,-2.861022E-08
830.2969,-0.9839899,1.751003E-09,NaN,-0.9245234,-1.322398E-07,NaN,0.2481674,-4.998117E-07,NaN,-0.8093353,2.307173E-05,-0.3879679,9.465681E-08,NaN,NaN,0.2054204,1.350405E-10,4.68255E-07,-1.099431E-07,1.97344E-08,-2.861022E-08
830.3118,-0.9839128,1.751641E-09,NaN,-0.9234155,-1.322376E-07,NaN,0.2523569,-5.005397E-07,NaN,-0.8079783,2.307209E-05,-0.3869366,9.538614E-08,NaN,NaN,0.2015936,1.303839E-10,4.539499E-07,-1.099394E-07,2.033045E-08,-2.622604E-08
830.3281,-0.9838966,1.752279E-09,NaN,-0.9223658,-1.322353E-07,NaN,0.2564537,-5.012478E-07,NaN,-0.806695,2.307246E-05,-0.3859267,9.60955E-08,NaN,NaN,0.1978419,1.257273E-10,4.354725E-07,-1.099357E-07,1.97344E-08,-2.861022E-08
830.3437,-0.9841853,1.752917E-09,NaN,-0.9215291,-1.32233E-07,NaN,0.2610682,-5.019362E-07,NaN,-0.8054381,2.307282E-05,-0.3854629,9.678526E-08,NaN,NaN,0.1939838,1.210707E-10,4.152069E-07,-1.099319E-07,1.913835E-08,-2.622604E-08
830.3592,-0.9841853,1.752917E-09,NaN,-0.9215291,-1.32233E-07,NaN,0.2610682,-5.019362E-07,NaN,-0.8054381,2.307282E-05,-0.3854629,9.678526E-08,NaN,NaN,0.1939838,1.210707E-10,4.152069E-07,-1.099319E-07,1.913835E-08,-2.622604E-08
830.3743,-0.9846492,1.753555E-09,NaN,-0.9208281,-1.322308E-07,NaN,0.2657604,-5.026083E-07,NaN,-0.8043269,2.307319E-05,-0.3851996,9.745863E-08,NaN,NaN,0.1902016,1.164141E-10,3.991136E-07,-1.099282E-07,1.556208E-08,-2.861022E-08
830.3906,-0.9852124,1.754193E-09,NaN,-0.9202141,-1.322285E-07,NaN,0.2703871,-5.032614E-07,NaN,-0.8033128,2.307355E-05,-0.3849931,9.811311E-08,NaN,NaN,0.1864938,1.117575E-10,3.842125E-07,-1.099245E-07,1.735022E-08,-2.622604E-08
830.4067,-0.9858305,1.754831E-09,NaN,-0.9196565,-1.322263E-07,NaN,0.2749116,-5.038961E-07,NaN,-0.8023682,2.307391E-05,-0.384792,9.874907E-08,NaN,NaN,0.1828586,1.071009E-10,3.705034E-07,-1.099208E-07,1.97344E-08,-2.861022E-08
830.4224,-0.986748,1.755468E-09,NaN,-0.9193087,-1.32224E-07,NaN,0.2799496,-5.045126E-07,NaN,-0.8014475,2.307428E-05,-0.3851281,9.936687E-08,NaN,NaN,0.1791147,1.024443E-10,3.538141E-07,-1.099172E-07,1.913835E-08,-2.622604E-08
830.4383,-0.986748,1.755468E-09,NaN,-0.9193087,-1.32224E-07,NaN,0.2799496,-5.045126E-07,NaN,-0.8014475,2.307428E-05,-0.3851281,9.936687E-08,NaN,NaN,0.1791147,1.024443E-10,3.538141E-07,-1.099172E-07,1.913835E-08,-2.622604E-08
830.4528,-0.9878358,1.756106E-09,NaN,-0.9190912,-1.322218E-07,NaN,0.285056,-5.051113E-07,NaN,-0.8006684,2.307464E-05,-0.3856479,9.996688E-08,NaN,NaN,0.1754446,9.778765E-11,3.412971E-07,-1.099135E-07,2.033045E-08,-2.861022E-08
830.4694,-0.9890178,1.756743E-09,NaN,-0.9189544,-1.322196E-07,NaN,0.2900871,-5.056925E-07,NaN,-0.7999818,2.3075E-05,-0.386207,1.005494E-07,NaN,NaN,0.1718466,9.313103E-11,3.311643E-07,-1.099099E-07,1.675417E-08,-2.622604E-08
830.4846,-0.9902493,1.75738E-09,NaN,-0.9188673,-1.322174E-07,NaN,0.2950071,-5.062566E-07,NaN,-0.7993606,2.307537E-05,-0.3867554,1.011149E-07,NaN,NaN,0.1683191,8.847442E-11,3.198394E-07,-1.099062E-07,1.675417E-08,-2.861022E-08
830.5007,-0.9917739,1.758017E-09,NaN,-0.9189815,-1.322151E-07,NaN,0.3004356,-5.06804E-07,NaN,-0.7987617,2.307573E-05,-0.387831,1.016635E-07,NaN,NaN,0.1646808,8.38178E-11,3.01362E-07,-1.099026E-07,1.854231E-08,-2.622604E-08
830.5161,-0.9917739,1.758017E-09,NaN,-0.9189815,-1.322151E-07,NaN,0.3004356,-5.06804E-07,NaN,-0.7987617,2.307573E-05,-0.387831,1.016635E-07,NaN,NaN,0.1646808,8.38178E-11,3.01362E-07,-1.099026E-07,1.854231E-08,-2.622604E-08
830.5313,-0.993462,1.758654E-09,NaN,-0.9192187,-1.322129E-07,NaN,0.3059229,-5.073349E-07,NaN,-0.7983013,2.30761E-05,-0.3890749,1.021958E-07,NaN,NaN,0.1611142,7.916118E-11,2.918252E-07,-1.09899E-07,1.675417E-08,-2.861022E-08
830.5477,-0.9952357,1.75929E-09,NaN,-0.9195291,-1.322107E-07,NaN,0.3113237,-5.078525E-07,NaN,-0.7979308,2.307646E-05,-0.3903414,1.027147E-07,NaN,NaN,0.1576177,7.450457E-11,2.852687E-07,-1.098954E-07,1.615812E-08,-2.622604E-08
830.5634,-0.9970492,1.759927E-09,NaN,-0.9198822,-1.322085E-07,NaN,0.316603,-5.083543E-07,NaN,-0.7976226,2.307683E-05,-0.3915815,1.032178E-07,NaN,NaN,0.1541897,6.519135E-11,2.751359E-07,-1.098918E-07,1.377394E-08,-2.861022E-08
830.5791,-0.9970492,1.759927E-09,NaN,-0.9198822,-1.322085E-07,NaN,0.316603,-5.083543E-07,NaN,-0.7976226,2.307683E-05,-0.3915815,1.032178E-07,NaN,NaN,0.1541897,6.519135E-11,2.751359E-07,-1.098918E-07,1.377394E-08,-2.861022E-08
830.5938,-0.9991466,1.760563E-09,NaN,-0.9204323,-1.322063E-07,NaN,0.3223871,-5.088405E-07,NaN,-0.797337,2.307719E-05,-0.3933429,1.037053E-07,NaN,NaN,0.1506489,6.053473E-11,2.62619E-07,-1.098883E-07,1.556208E-08,-2.622604E-08
830.6104,-1.001396,1.761199E-09,NaN,-0.9210981,-1.322041E-07,NaN,0.3282171,-5.093114E-07,NaN,-0.7971882,2.307756E-05,-0.3952554,1.041775E-07,NaN,NaN,0.1471779,5.122151E-11,2.554664E-07,-1.098847E-07,1.436999E-08,-2.861022E-08
830.6257,-1.003721,1.761835E-09,NaN,-0.9218301,-1.32202E-07,NaN,0.3339499,-5.097674E-07,NaN,-0.7971258,2.307792E-05,-0.3971739,1.046349E-07,NaN,NaN,0.1437752,4.656489E-11,2.477178E-07,-1.098811E-07,1.735022E-08,-2.622604E-08
830.6414,-1.006077,1.762472E-09,NaN,-0.9225984,-1.321998E-07,NaN,0.3395523,-5.102087E-07,NaN,-0.7971221,2.307829E-05,-0.3990516,1.050775E-07,NaN,NaN,0.1404391,3.725167E-11,2.399692E-07,-1.098776E-07,1.854231E-08,-2.861022E-08
830.6588,-1.006077,1.762472E-09,NaN,-0.9225984,-1.321998E-07,NaN,0.3395523,-5.102087E-07,NaN,-0.7971221,2.307829E-05,-0.3990516,1.050775E-07,NaN,NaN,0.1404391,3.725167E-11,2.399692E-07,-1.098776E-07,1.854231E-08,-2.861022E-08
830.6723,-1.008709,1.763107E-09,NaN,-0.9235575,-1.321976E-07,NaN,0.3456571,-5.106385E-07,NaN,-0.797141,2.307865E-05,-0.4014444,1.055087E-07,NaN,NaN,0.1369884,3.259506E-11,2.274522E-07,-1.098741E-07,1.675417E-08,-2.622604E-08
830.6884,-1.011484,1.763743E-09,NaN,-0.9246257,-1.321955E-07,NaN,0.3517977,-5.110542E-07,NaN,-0.797294,2.307902E-05,-0.4039733,1.059257E-07,NaN,NaN,0.1336058,2.793844E-11,2.238759E-07,-1.098706E-07,1.615813E-08,-2.861022E-08
830.7042,-1.014326,1.764379E-09,NaN,-0.9257537,-1.321933E-07,NaN,0.3578315,-5.114561E-07,NaN,-0.7975298,2.307938E-05,-0.4064935,1.063288E-07,NaN,NaN,0.1302896,2.793844E-11,2.185115E-07,-1.098671E-07,1.377394E-08,-2.622604E-08
830.7197,-1.014326,1.764379E-09,NaN,-0.9257537,-1.321933E-07,NaN,0.3578315,-5.114561E-07,NaN,-0.7975298,2.307938E-05,-0.4064935,1.063288E-07,NaN,NaN,0.1302896,2.793844E-11,2.185115E-07,-1.098671E-07,1.377394E-08,-2.622604E-08
830.7346,-1.017463,1.765014E-09,NaN,-0.9270846,-1.321912E-07,NaN,0.3643602,-5.118443E-07,NaN,-0.7978044,2.307973E-05,-0.4095298,1.067183E-07,NaN,NaN,0.1268585,2.793844E-11,2.101669E-07,-1.098636E-07,1.615813E-08,-2.861022E-08
830.751,-1.020751,1.76565E-09,NaN,-0.9285289,-1.32189E-07,NaN,0.3709033,-5.122192E-07,NaN,-0.7982202,2.308009E-05,-0.4126847,1.070945E-07,NaN,NaN,0.123495,2.793844E-11,2.059945E-07,-1.098601E-07,1.735022E-08,-2.622604E-08
830.7668,-1.024105,1.766285E-09,NaN,-0.9300331,-1.321869E-07,NaN,0.3773194,-5.125838E-07,NaN,-0.7987218,2.308045E-05,-0.4158111,1.074605E-07,NaN,NaN,0.1201976,2.793844E-11,2.053985E-07,-1.098567E-07,1.794626E-08,-2.861022E-08
830.7823,-1.02748,1.76692E-09,NaN,-0.9315657,-1.321848E-07,NaN,0.383581,-5.129356E-07,NaN,-0.7992787,2.308081E-05,-0.4188656,1.078136E-07,NaN,NaN,0.1169649,2.793844E-11,2.024183E-07,-1.098532E-07,1.794626E-08,-2.622604E-08
830.7983,-1.02748,1.76692E-09,NaN,-0.9315657,-1.321848E-07,NaN,0.383581,-5.129356E-07,NaN,-0.7992787,2.308081E-05,-0.4188656,1.078136E-07,NaN,NaN,0.1169649,2.793844E-11,2.024183E-07,-1.098532E-07,1.794626E-08,-2.622604E-08
830.8133,-1.031121,1.767555E-09,NaN,-0.9332808,-1.321827E-07,NaN,0.3903346,-5.132748E-07,NaN,-0.7998618,2.308117E-05,-0.4224201,1.081541E-07,NaN,NaN,0.1136155,2.793844E-11,1.934776E-07,-1.098498E-07,1.794626E-08,-2.861022E-08
830.8296,-1.034892,1.76819E-09,NaN,-0.9350942,-1.321805E-07,NaN,0.3971007,-5.136017E-07,NaN,-0.8005755,2.308153E-05,-0.4260804,1.084822E-07,NaN,NaN,0.1103322,2.793844E-11,1.910934E-07,-1.098464E-07,1.615813E-08,-2.622604E-08
830.845,-1.038716,1.768824E-09,NaN,-0.9369565,-1.321784E-07,NaN,0.403739,-5.139163E-07,NaN,-0.8013666,2.308188E-05,-0.4297026,1.087983E-07,NaN,NaN,0.1071134,2.793844E-11,1.893052E-07,-1.098429E-07,1.556208E-08,-2.861022E-08
830.8608,-1.042549,1.769459E-09,NaN,-0.9388387,-1.321763E-07,NaN,0.4102215,-5.14222E-07,NaN,-0.8022063,2.308225E-05,-0.4332445,1.091052E-07,NaN,NaN,0.1039577,2.328183E-11,1.86325E-07,-1.098395E-07,1.436999E-08,-2.622604E-08
830.8765,-1.042549,1.769459E-09,NaN,-0.9388387,-1.321763E-07,NaN,0.4102215,-5.14222E-07,NaN,-0.8022063,2.308225E-05,-0.4332445,1.091052E-07,NaN,NaN,0.1039577,2.328183E-11,1.86325E-07,-1.098395E-07,1.436999E-08,-2.622604E-08
830.8914,-1.046641,1.770093E-09,NaN,-0.9408968,-1.321742E-07,NaN,0.417199,-5.145159E-07,NaN,-0.803072,2.308261E-05,-0.4372854,1.094005E-07,NaN,NaN,0.1006838,1.862522E-11,1.767883E-07,-1.098362E-07,1.258185E-08,-2.861022E-08
830.9081,-1.050855,1.770727E-09,NaN,-0.9430468,-1.321721E-07,NaN,0.4241818,-5.147984E-07,NaN,-0.8040648,2.308298E-05,-0.4414206,1.096843E-07,NaN,NaN,0.09747459,1.396861E-11,1.761922E-07,-1.098328E-07,1.377394E-08,-2.622604E-08
830.9235,-1.055114,1.771361E-09,NaN,-0.9452399,-1.321701E-07,NaN,0.4310295,-5.150696E-07,NaN,-0.8051306,2.308334E-05,-0.4455054,1.099568E-07,NaN,NaN,0.09432841,9.311994E-12,1.750001E-07,-1.098294E-07,1.258185E-08,-2.861022E-08
830.9393,-1.055114,1.771361E-09,NaN,-0.9452399,-1.321701E-07,NaN,0.4310295,-5.150696E-07,NaN,-0.8051306,2.308334E-05,-0.4455054,1.099568E-07,NaN,NaN,0.09432841,9.311994E-12,1.750001E-07,-1.098294E-07,1.258185E-08,-2.861022E-08
830.9539,-1.059377,1.771995E-09,NaN,-0.9474478,-1.32168E-07,NaN,0.4377151,-5.153326E-07,NaN,-0.8062409,2.30837E-05,-0.4494992,1.102211E-07,NaN,NaN,0.09124394,4.655381E-12,1.744041E-07,-1.09826E-07,1.258185E-08,-2.622604E-08
830.9706,-1.063893,1.772629E-09,NaN,-0.949827,-1.321659E-07,NaN,0.4448958,-5.155848E-07,NaN,-0.8073792,2.308406E-05,-0.4539891,1.104746E-07,NaN,NaN,0.08803988,9.311994E-12,1.678476E-07,-1.098227E-07,1.317789E-08,-2.861022E-08
830.9858,-1.068525,1.773263E-09,NaN,-0.952293,-1.321638E-07,NaN,0.4520724,-5.158262E-07,NaN,-0.8086417,2.308442E-05,-0.4585604,1.107174E-07,NaN,NaN,0.08489909,4.655381E-12,1.642713E-07,-1.098194E-07,1.377394E-08,-2.622604E-08
831.0016,-1.073197,1.773896E-09,NaN,-0.9547973,-1.321618E-07,NaN,0.4591057,-5.160601E-07,NaN,-0.8099736,2.308479E-05,-0.463069,1.109526E-07,NaN,NaN,0.08182001,-1.231654E-15,1.648673E-07,-1.09816E-07,1.436999E-08,-2.861022E-08
831.0174,-1.073197,1.773896E-09,NaN,-0.9547973,-1.321618E-07,NaN,0.4591057,-5.160601E-07,NaN,-0.8099736,2.308479E-05,-0.463069,1.109526E-07,NaN,NaN,0.08182001,-1.231654E-15,1.648673E-07,-1.09816E-07,1.436999E-08,-2.861022E-08
831.0325,-1.077866,1.77453E-09,NaN,-0.9573118,-1.321597E-07,NaN,0.4659705,-5.162837E-07,NaN,-0.8113462,2.308515E-05,-0.4674755,1.111775E-07,NaN,NaN,0.07880132,-4.657844E-12,1.648673E-07,-1.098127E-07,1.377394E-08,-2.622604E-08
831.049,-1.082784,1.775163E-09,NaN,-0.9599937,-1.321577E-07,NaN,0.4733302,-5.164973E-07,NaN,-0.8127491,2.308551E-05,-0.4723755,1.113924E-07,NaN,NaN,0.07566174,-9.314457E-12,1.60695E-07,-1.098094E-07,1.258185E-08,-2.861022E-08
831.0646,-1.087813,1.775796E-09,NaN,-0.9627577,-1.321556E-07,NaN,0.4806765,-5.167009E-07,NaN,-0.8142735,2.308588E-05,-0.4773443,1.115973E-07,NaN,NaN,0.07258419,-1.397107E-11,1.583108E-07,-1.098062E-07,1.258185E-08,-2.622604E-08
831.0801,-1.092876,1.776428E-09,NaN,-0.9655554,-1.321536E-07,NaN,0.4878717,-5.168977E-07,NaN,-0.8158637,2.308624E-05,-0.4822381,1.117954E-07,NaN,NaN,0.06956711,-1.862768E-11,1.60695E-07,-1.098029E-07,9.00557E-09,-2.861022E-08
831.0959,-1.092876,1.776428E-09,NaN,-0.9655554,-1.321536E-07,NaN,0.4878717,-5.168977E-07,NaN,-0.8158637,2.308624E-05,-0.4822381,1.117954E-07,NaN,NaN,0.06956711,-1.862768E-11,1.60695E-07,-1.098029E-07,9.00557E-09,-2.861022E-08
831.1108,-1.09793,1.777061E-09,NaN,-0.9683594,-1.321516E-07,NaN,0.4948922,-5.170849E-07,NaN,-0.8174907,2.30866E-05,-0.4870196,1.119839E-07,NaN,NaN,0.0666092,-2.328429E-11,1.636753E-07,-1.097996E-07,7.813477E-09,-2.622604E-08
831.1273,-1.10323,1.777694E-09,NaN,-0.9713269,-1.321496E-07,NaN,0.5024077,-5.172627E-07,NaN,-0.8191509,2.308697E-05,-0.4922924,1.121631E-07,NaN,NaN,0.06352919,-2.794091E-11,1.571187E-07,-1.097964E-07,6.621384E-09,-2.861022E-08
831.1428,-1.108635,1.778326E-09,NaN,-0.9743722,-1.321475E-07,NaN,0.5099007,-5.174341E-07,NaN,-0.8209298,2.308732E-05,-0.4976216,1.123358E-07,NaN,NaN,0.06051006,-2.328429E-11,1.574168E-07,-1.097931E-07,7.813477E-09,-2.622604E-08
831.16,-1.114069,1.778958E-09,NaN,-0.9774469,-1.321459E-07,NaN,0.517235,-5.172558E-07,NaN,-0.8227707,2.308769E-05,-0.5028641,1.121588E-07,NaN,NaN,0.05755026,-2.328429E-11,1.589069E-07,-1.097925E-07,4.237198E-09,-2.861022E-08
831.1745,-1.114069,1.778958E-09,NaN,-0.9774469,-1.321459E-07,NaN,0.517235,-5.172558E-07,NaN,-0.8227707,2.308769E-05,-0.5028641,1.121588E-07,NaN,NaN,0.05755026,-2.328429E-11,1.589069E-07,-1.097925E-07,4.237198E-09,-2.861022E-08
831.189,-1.119489,1.779588E-09,NaN,-0.9805239,-1.321451E-07,NaN,0.5243889,-5.167508E-07,NaN,-0.8246444,2.308805E-05,-0.5079848,1.116551E-07,NaN,NaN,0.05464849,-1.862768E-11,1.574168E-07,-1.097925E-07,3.045105E-09,-2.622604E-08
831.2057,-1.125151,1.780219E-09,NaN,-0.9837612,-1.321448E-07,NaN,0.5320383,-5.160779E-07,NaN,-0.8265545,2.308843E-05,-0.5135949,1.109835E-07,NaN,NaN,0.05162353,-2.328429E-11,1.496682E-07,-1.097928E-07,3.641152E-09,-2.861022E-08
831.2214,-1.130914,1.78085E-09,NaN,-0.9870721,-1.321447E-07,NaN,0.5396563,-5.152517E-07,NaN,-0.8285806,2.30888E-05,-0.5192493,1.101586E-07,NaN,NaN,0.04865837,-1.862768E-11,1.499662E-07,-1.097934E-07,6.609198E-10,-2.622604E-08
831.2369,-1.130914,1.78085E-09,NaN,-0.9870721,-1.321447E-07,NaN,0.5396563,-5.152517E-07,NaN,-0.8285806,2.30888E-05,-0.5192493,1.101586E-07,NaN,NaN,0.04865837,-1.862768E-11,1.499662E-07,-1.097934E-07,6.609198E-10,-2.622604E-08
831.2519,-1.1367,1.781481E-09,NaN,-0.9904083,-1.321449E-07,NaN,0.5471084,-5.143795E-07,NaN,-0.8306648,2.308919E-05,-0.524806,1.092877E-07,NaN,NaN,0.04575147,-2.794091E-11,1.541385E-07,-1.097941E-07,-2.319312E-09,-2.861022E-08
831.2683,-1.142467,1.782111E-09,NaN,-0.9937433,-1.321451E-07,NaN,0.5543747,-5.134877E-07,NaN,-0.8327778,2.308956E-05,-0.5302318,1.083972E-07,NaN,NaN,0.04290158,-2.794091E-11,1.550326E-07,-1.097948E-07,-1.723266E-09,-2.622604E-08
831.2842,-1.148474,1.782742E-09,NaN,-0.9972352,-1.321455E-07,NaN,0.5621372,-5.125937E-07,NaN,-0.8349307,2.308994E-05,-0.5361457,1.075044E-07,NaN,NaN,0.03992747,-3.259752E-11,1.499662E-07,-1.097956E-07,-2.319312E-09,-2.861022E-08
831.3,-1.154577,1.783373E-09,NaN,-1.000797,-1.321458E-07,NaN,0.5698596,-5.117058E-07,NaN,-0.8371966,2.309032E-05,-0.5420922,1.066177E-07,NaN,NaN,0.03701218,-3.259752E-11,1.523504E-07,-1.097965E-07,-4.107452E-09,-2.622604E-08
831.3156,-1.154577,1.783373E-09,NaN,-1.000797,-1.321458E-07,NaN,0.5698596,-5.117058E-07,NaN,-0.8371966,2.309032E-05,-0.5420922,1.066177E-07,NaN,NaN,0.03701218,-3.259752E-11,1.523504E-07,-1.097965E-07,-4.107452E-09,-2.622604E-08
831.3303,-1.160697,1.784003E-09,NaN,-1.00438,-1.321462E-07,NaN,0.5774093,-5.108268E-07,NaN,-0.8395166,2.30907E-05,-0.5479303,1.0574E-07,NaN,NaN,0.03415417,-3.725413E-11,1.553306E-07,-1.097973E-07,-6.491637E-09,-2.861022E-08
831.3466,-1.166794,1.784634E-09,NaN,-1.007959,-1.321466E-07,NaN,0.5847684,-5.099621E-07,NaN,-0.8418614,2.309108E-05,-0.553629,1.048766E-07,NaN,NaN,0.0313522,-3.725413E-11,1.571188E-07,-1.097981E-07,-7.087684E-09,-2.622604E-08
831.3625,-1.173129,1.785265E-09,NaN,-1.011691,-1.32147E-07,NaN,0.5926247,-5.091144E-07,NaN,-0.8442499,2.309146E-05,-0.5598152,1.040301E-07,NaN,NaN,0.02842507,-3.725413E-11,1.520524E-07,-1.09799E-07,-9.47187E-09,-2.861022E-08
831.3779,-1.173129,1.785265E-09,NaN,-1.011691,-1.32147E-07,NaN,0.5926247,-5.091144E-07,NaN,-0.8442499,2.309146E-05,-0.5598152,1.040301E-07,NaN,NaN,0.02842507,-3.725413E-11,1.520524E-07,-1.09799E-07,-9.47187E-09,-2.861022E-08
831.3931,-1.179554,1.785895E-09,NaN,-1.01549,-1.321474E-07,NaN,0.6004321,-5.082833E-07,NaN,-0.8467484,2.309184E-05,-0.5660224,1.032002E-07,NaN,NaN,0.02555584,-3.259752E-11,1.4788E-07,-1.097998E-07,-7.68373E-09,-2.622604E-08
831.4094,-1.185992,1.786526E-09,NaN,-1.019306,-1.321478E-07,NaN,0.6080606,-5.074684E-07,NaN,-0.8492969,2.309222E-05,-0.5721111,1.023865E-07,NaN,NaN,0.02274298,-3.725413E-11,1.487741E-07,-1.098007E-07,-7.087684E-09,-2.861022E-08
831.4249,-1.192403,1.787157E-09,NaN,-1.023115,-1.321482E-07,NaN,0.6154943,-5.066694E-07,NaN,-0.8518661,2.30926E-05,-0.5780526,1.015888E-07,NaN,NaN,0.01998528,-3.259752E-11,1.493702E-07,-1.098015E-07,-7.087684E-09,-2.622604E-08
831.4408,-1.199048,1.787787E-09,NaN,-1.027075,-1.321486E-07,NaN,0.623426,-5.058832E-07,NaN,-0.8544829,2.309299E-05,-0.5844814,1.008038E-07,NaN,NaN,0.01710154,-3.725413E-11,1.425156E-07,-1.098023E-07,-7.087684E-09,-2.861022E-08
831.4562,-1.199048,1.787787E-09,NaN,-1.027075,-1.321486E-07,NaN,0.623426,-5.058832E-07,NaN,-0.8544829,2.309299E-05,-0.5844814,1.008038E-07,NaN,NaN,0.01710154,-3.725413E-11,1.425156E-07,-1.098023E-07,-7.087684E-09,-2.861022E-08
831.4714,-1.20578,1.788418E-09,NaN,-1.031097,-1.321491E-07,NaN,0.6313006,-5.051152E-07,NaN,-0.8572067,2.309336E-05,-0.5909197,1.000371E-07,NaN,NaN,0.01427486,-3.259752E-11,1.451978E-07,-1.098032E-07,-8.279777E-09,-2.622604E-08
831.4875,-1.212521,1.789048E-09,NaN,-1.035134,-1.321495E-07,NaN,0.6389903,-5.043622E-07,NaN,-0.8599762,2.309375E-05,-0.59723,9.928531E-08,NaN,NaN,0.01150372,-3.725413E-11,1.454959E-07,-1.09804E-07,-8.279777E-09,-2.861022E-08
831.5034,-1.219229,1.789679E-09,NaN,-1.03916,-1.321499E-07,NaN,0.6464815,-5.036239E-07,NaN,-0.8627623,2.309412E-05,-0.6033861,9.854826E-08,NaN,NaN,0.008786908,-3.259752E-11,1.4639E-07,-1.098048E-07,-7.087684E-09,-2.622604E-08
831.5188,-1.219229,1.789679E-09,NaN,-1.03916,-1.321499E-07,NaN,0.6464815,-5.036239E-07,NaN,-0.8627623,2.309412E-05,-0.6033861,9.854826E-08,NaN,NaN,0.008786908,-3.259752E-11,1.4639E-07,-1.098048E-07,-7.087684E-09,-2.622604E-08
831.534,-1.22617,1.79031E-09,NaN,-1.043334,-1.321502E-07,NaN,0.6544719,-5.029028E-07,NaN,-0.8656002,2.309451E-05,-0.6100297,9.782846E-08,NaN,NaN,0.005943264,-3.725413E-11,1.404295E-07,-1.098056E-07,-5.895592E-09,-2.861022E-08
831.5502,-1.233194,1.79094E-09,NaN,-1.047568,-1.321506E-07,NaN,0.6623968,-5.021959E-07,NaN,-0.8685417,2.309489E-05,-0.6166717,9.712274E-08,NaN,NaN,0.003155891,-3.259752E-11,1.413236E-07,-1.098065E-07,-4.703499E-09,-2.622604E-08
831.566,-1.240221,1.791571E-09,NaN,-1.051813,-1.32151E-07,NaN,0.6701317,-5.015056E-07,NaN,-0.8715247,2.309527E-05,-0.6231767,9.643366E-08,NaN,NaN,0.0004232754,-3.725413E-11,1.425157E-07,-1.098073E-07,-5.895592E-09,-2.861022E-08
831.5814,-1.247212,1.792201E-09,NaN,-1.056044,-1.321514E-07,NaN,0.6776646,-5.008287E-07,NaN,-0.87452,2.309565E-05,-0.6295211,9.575805E-08,NaN,NaN,-0.002255761,-3.259752E-11,1.446018E-07,-1.098081E-07,-3.511406E-09,-2.622604E-08
831.5972,-1.247212,1.792201E-09,NaN,-1.056044,-1.321514E-07,NaN,0.6776646,-5.008287E-07,NaN,-0.87452,2.309565E-05,-0.6295211,9.575805E-08,NaN,NaN,-0.002255761,-3.259752E-11,1.446018E-07,-1.098081E-07,-3.511406E-09,-2.622604E-08
831.6121,-1.254434,1.792832E-09,NaN,-1.060421,-1.321518E-07,NaN,0.685698,-5.001679E-07,NaN,-0.8775714,2.309603E-05,-0.6363537,9.509849E-08,NaN,NaN,-0.005062372,-3.725413E-11,1.368532E-07,-1.098089E-07,1.256966E-09,-2.861022E-08
831.6287,-1.261734,1.793463E-09,NaN,-1.064855,-1.321522E-07,NaN,0.6936579,-4.9952E-07,NaN,-0.8807231,2.309641E-05,-0.6431737,9.445183E-08,NaN,NaN,-0.007813441,-3.259752E-11,1.383434E-07,-1.098097E-07,3.641151E-09,-2.622604E-08
831.6441,-1.269034,1.794093E-09,NaN,-1.069296,-1.321526E-07,NaN,0.7014229,-4.988848E-07,NaN,-0.8839119,2.30968E-05,-0.6498483,9.381783E-08,NaN,NaN,-0.01051047,-3.725413E-11,1.398335E-07,-1.098105E-07,2.449059E-09,-2.861022E-08
831.6602,-1.276293,1.794724E-09,NaN,-1.073721,-1.32153E-07,NaN,0.7089831,-4.982648E-07,NaN,-0.8871087,2.309717E-05,-0.6563566,9.319906E-08,NaN,NaN,-0.01315461,-3.259752E-11,1.389394E-07,-1.098113E-07,3.641151E-09,-2.622604E-08
831.6771,-1.276293,1.794724E-09,NaN,-1.073721,-1.32153E-07,NaN,0.7089831,-4.982648E-07,NaN,-0.8871087,2.309717E-05,-0.6563566,9.319906E-08,NaN,NaN,-0.01315461,-3.259752E-11,1.389394E-07,-1.098113E-07,3.641151E-09,-2.622604E-08
831.6907,-1.283782,1.795354E-09,NaN,-1.07829,-1.321534E-07,NaN,0.7170451,-4.976569E-07,NaN,-0.8903661,2.309756E-05,-0.6633543,9.259238E-08,NaN,NaN,-0.01592701,-3.725413E-11,1.347671E-07,-1.098121E-07,6.487277E-11,-2.861022E-08
831.707,-1.291345,1.795985E-09,NaN,-1.082912,-1.321538E-07,NaN,0.7250259,-4.970637E-07,NaN,-0.8937204,2.309793E-05,-0.6703287,9.20004E-08,NaN,NaN,-0.01864453,-3.259752E-11,1.33277E-07,-1.098129E-07,-2.319313E-09,-2.622604E-08
