JMolnar6/NonAnthroHands_User_Study/HandsLoggerWithURDF/tempdata/files/Reachy_JointMotion_gesture_1_3.csv
Time,r_shoulder,r_shoulder_x,r_upper_arm,r_forearm,r_wrist,r_wrist2hand,
50.30609,-0.126137,-3.387083E-08,NaN,-0.3266097,-1.381611E-07,NaN,0.4655161,5.99077E-08,NaN,-0.4863156,1.502628E-06,-0.3848941,-5.606624E-09,NaN,NaN,-0.01996842,3.119927E-10,1.315968E-07,-1.163741E-07,2.169631E-08,-2.622604E-08
50.32296,-0.1261683,-3.38697E-08,NaN,-0.3266122,-1.381629E-07,NaN,0.4656044,6.002962E-08,NaN,-0.4862598,1.503438E-06,-0.3849575,-5.725931E-09,NaN,NaN,-0.01996834,3.026795E-10,1.317458E-07,-1.163729E-07,1.692794E-08,-2.861022E-08
50.34067,-0.1254726,-3.386856E-08,NaN,-0.3266128,-1.381646E-07,NaN,0.4651594,6.014899E-08,NaN,-0.4866128,1.504248E-06,-0.3845856,-5.842685E-09,NaN,NaN,-0.01996868,2.933663E-10,1.302557E-07,-1.163716E-07,2.169631E-08,-2.622604E-08
50.35733,-0.1254726,-3.386856E-08,NaN,-0.3266128,-1.381646E-07,NaN,0.4651594,6.014899E-08,NaN,-0.4866128,1.504248E-06,-0.3845856,-5.842685E-09,NaN,NaN,-0.01996868,2.933663E-10,1.302557E-07,-1.163716E-07,2.169631E-08,-2.622604E-08
50.37344,-0.1243225,-3.386742E-08,NaN,-0.3266129,-1.381663E-07,NaN,0.4645631,6.026621E-08,NaN,-0.4870849,1.505059E-06,-0.3840921,-5.957291E-09,NaN,NaN,-0.01996912,2.840531E-10,1.299576E-07,-1.163704E-07,1.931212E-08,-2.861022E-08
50.39132,-0.1228911,-3.386629E-08,NaN,-0.326613,-1.38168E-07,NaN,0.4639623,6.038097E-08,NaN,-0.4875615,1.505869E-06,-0.3835971,-6.069435E-09,NaN,NaN,-0.01996956,2.747399E-10,1.287655E-07,-1.163691E-07,1.931212E-08,-2.622604E-08
50.40852,-0.122017,-3.386515E-08,NaN,-0.3266147,-1.381697E-07,NaN,0.4639349,6.049366E-08,NaN,-0.4875948,1.506679E-06,-0.3835717,-6.179512E-09,NaN,NaN,-0.01996956,2.654267E-10,1.298086E-07,-1.163678E-07,2.169631E-08,-2.861022E-08
50.42575,-0.1214972,-3.3864E-08,NaN,-0.3266171,-1.381714E-07,NaN,0.4641093,6.06046E-08,NaN,-0.4874687,1.50748E-06,-0.383711,-6.287836E-09,NaN,NaN,-0.0199694,2.6077E-10,1.296596E-07,-1.163666E-07,2.169631E-08,-2.622604E-08
50.44284,-0.1212026,-3.386286E-08,NaN,-0.3266198,-1.381731E-07,NaN,0.4643336,6.071355E-08,NaN,-0.4873019,1.508281E-06,-0.3838903,-6.394167E-09,NaN,NaN,-0.01996922,2.514568E-10,1.296596E-07,-1.163653E-07,2.408049E-08,-2.861022E-08
50.45979,-0.1212026,-3.386286E-08,NaN,-0.3266198,-1.381731E-07,NaN,0.4643336,6.071355E-08,NaN,-0.4873019,1.508281E-06,-0.3838903,-6.394167E-09,NaN,NaN,-0.01996922,2.514568E-10,1.296596E-07,-1.163653E-07,2.408049E-08,-2.861022E-08
50.47624,-0.1217774,-3.386172E-08,NaN,-0.326625,-1.381748E-07,NaN,0.4650822,6.082054E-08,NaN,-0.4867315,1.509077E-06,-0.3844965,-6.498543E-09,NaN,NaN,-0.01996863,2.421436E-10,1.321928E-07,-1.163641E-07,2.169631E-08,-2.622604E-08
50.49352,-0.1228969,-3.386058E-08,NaN,-0.3266312,-1.381764E-07,NaN,0.46596,6.092561E-08,NaN,-0.4860612,1.509864E-06,-0.3852058,-6.600999E-09,NaN,NaN,-0.01996796,2.37487E-10,1.324908E-07,-1.163628E-07,2.408049E-08,-2.861022E-08
50.51092,-0.1243545,-3.385944E-08,NaN,-0.3266376,-1.381781E-07,NaN,0.4668197,6.102881E-08,NaN,-0.4854068,1.510651E-06,-0.3858976,-6.701576E-09,NaN,NaN,-0.01996731,2.328304E-10,1.35322E-07,-1.163616E-07,2.646468E-08,-2.622604E-08
50.52792,-0.1260187,-3.38583E-08,NaN,-0.3266438,-1.381798E-07,NaN,0.4676176,6.113016E-08,NaN,-0.4848036,1.511433E-06,-0.3865364,-6.800309E-09,NaN,NaN,-0.01996671,2.328304E-10,1.371102E-07,-1.163604E-07,2.408049E-08,-2.861022E-08
50.54504,-0.1285342,-3.385715E-08,NaN,-0.3266519,-1.381814E-07,NaN,0.4688863,6.123005E-08,NaN,-0.4838468,1.512216E-06,-0.3875583,-6.897584E-09,NaN,NaN,-0.01996574,2.328304E-10,1.384513E-07,-1.163591E-07,2.646468E-08,-2.622604E-08
50.56323,-0.1315749,-3.385601E-08,NaN,-0.3266604,-1.381831E-07,NaN,0.4702524,6.132816E-08,NaN,-0.4828196,1.512998E-06,-0.3886571,-6.993081E-09,NaN,NaN,-0.0199647,2.328304E-10,1.420276E-07,-1.163579E-07,3.361724E-08,-2.861022E-08
50.57937,-0.1315749,-3.385601E-08,NaN,-0.3266604,-1.381831E-07,NaN,0.4702524,6.132816E-08,NaN,-0.4828196,1.512998E-06,-0.3886571,-6.993081E-09,NaN,NaN,-0.0199647,2.328304E-10,1.420276E-07,-1.163579E-07,3.361724E-08,-2.861022E-08
50.59552,-0.1349332,-3.385486E-08,NaN,-0.3266684,-1.381847E-07,NaN,0.4715799,6.142453E-08,NaN,-0.4818278,1.51378E-06,-0.3897215,-7.086832E-09,NaN,NaN,-0.0199637,2.328304E-10,1.444117E-07,-1.163567E-07,2.884887E-08,-2.622604E-08
50.61323,-0.1392056,-3.385372E-08,NaN,-0.3266779,-1.381863E-07,NaN,0.473373,6.151919E-08,NaN,-0.4804937,1.514562E-06,-0.3911654,-7.178873E-09,NaN,NaN,-0.01996234,2.328304E-10,1.47094E-07,-1.163555E-07,3.123305E-08,-2.861022E-08
50.62996,-0.1440352,-3.385257E-08,NaN,-0.3266871,-1.381879E-07,NaN,0.4752448,6.161252E-08,NaN,-0.4791082,1.515345E-06,-0.392671,-7.269588E-09,NaN,NaN,-0.01996092,2.328304E-10,1.488821E-07,-1.163543E-07,2.646468E-08,-2.622604E-08
50.64683,-0.1491952,-3.385142E-08,NaN,-0.326695,-1.381896E-07,NaN,0.4770577,6.170421E-08,NaN,-0.4777772,1.516127E-06,-0.3941257,-7.358655E-09,NaN,NaN,-0.01995955,2.328304E-10,1.523094E-07,-1.163531E-07,2.646468E-08,-2.861022E-08
50.66386,-0.1545414,-3.385028E-08,NaN,-0.3267014,-1.381912E-07,NaN,0.4787754,6.179392E-08,NaN,-0.476529,1.516909E-06,-0.3955008,-7.445749E-09,NaN,NaN,-0.01995825,2.328304E-10,1.545445E-07,-1.163519E-07,2.40805E-08,-2.622604E-08
50.68119,-0.1607106,-3.384913E-08,NaN,-0.3267089,-1.381928E-07,NaN,0.4809523,6.188205E-08,NaN,-0.474956,1.517692E-06,-0.3972532,-7.531263E-09,NaN,NaN,-0.01995657,2.37487E-10,1.582698E-07,-1.163507E-07,2.169631E-08,-2.861022E-08
50.69821,-0.1607106,-3.384913E-08,NaN,-0.3267089,-1.381928E-07,NaN,0.4809523,6.188205E-08,NaN,-0.474956,1.517692E-06,-0.3972532,-7.531263E-09,NaN,NaN,-0.01995657,2.37487E-10,1.582698E-07,-1.163507E-07,2.169631E-08,-2.861022E-08
50.71453,-0.1673718,-3.384798E-08,NaN,-0.3267155,-1.381944E-07,NaN,0.4832081,6.196863E-08,NaN,-0.4733364,1.518483E-06,-0.3990691,-7.615226E-09,NaN,NaN,-0.01995484,2.328304E-10,1.625911E-07,-1.163495E-07,1.931213E-08,-2.622604E-08
50.73225,-0.1743145,-3.384683E-08,NaN,-0.3267203,-1.38196E-07,NaN,0.4854061,6.205404E-08,NaN,-0.4717729,1.51927E-06,-0.4008363,-7.698024E-09,NaN,NaN,-0.01995315,2.328304E-10,1.642303E-07,-1.163483E-07,1.931213E-08,-2.861022E-08
50.74964,-0.1821335,-3.384569E-08,NaN,-0.3267256,-1.381976E-07,NaN,0.4880717,6.213796E-08,NaN,-0.4698888,1.520057E-06,-0.4029897,-7.779329E-09,NaN,NaN,-0.01995107,2.328304E-10,1.655714E-07,-1.163471E-07,1.692794E-08,-2.622604E-08
50.76637,-0.1904711,-3.384454E-08,NaN,-0.3267293,-1.381992E-07,NaN,0.4908056,6.222042E-08,NaN,-0.4679718,1.520844E-06,-0.4051982,-7.859168E-09,NaN,NaN,-0.01994895,2.328304E-10,1.695947E-07,-1.163459E-07,1.454376E-08,-2.861022E-08
50.78321,-0.1990999,-3.384338E-08,NaN,-0.3267309,-1.382007E-07,NaN,0.4934669,6.230145E-08,NaN,-0.4661266,1.521631E-06,-0.4073465,-7.937572E-09,NaN,NaN,-0.01994688,2.328304E-10,1.73767E-07,-1.163448E-07,1.215957E-08,-2.622604E-08
50.80005,-0.2078757,-3.384223E-08,NaN,-0.3267315,-1.382023E-07,NaN,0.4960201,6.238141E-08,NaN,-0.4643809,1.522418E-06,-0.4094065,-8.014919E-09,NaN,NaN,-0.01994488,2.328304E-10,1.767472E-07,-1.163436E-07,1.454376E-08,-2.861022E-08
50.81732,-0.2078757,-3.384223E-08,NaN,-0.3267315,-1.382023E-07,NaN,0.4960201,6.238141E-08,NaN,-0.4643809,1.522418E-06,-0.4094065,-8.014919E-09,NaN,NaN,-0.01994488,2.328304E-10,1.767472E-07,-1.163436E-07,1.454376E-08,-2.861022E-08
50.83371,-0.2174355,-3.384108E-08,NaN,-0.3267327,-1.382039E-07,NaN,0.4990433,6.245999E-08,NaN,-0.4623294,1.523205E-06,-0.411859,-8.090878E-09,NaN,NaN,-0.01994247,2.328304E-10,1.798765E-07,-1.163424E-07,1.215957E-08,-2.622604E-08
50.85139,-0.2274485,-3.383993E-08,NaN,-0.3267331,-1.382055E-07,NaN,0.5021404,6.25372E-08,NaN,-0.4602478,1.523992E-06,-0.4143738,-8.165475E-09,NaN,NaN,-0.01994,2.328304E-10,1.834528E-07,-1.163413E-07,9.775386E-09,-2.861022E-08
50.86819,-0.2377045,-3.383878E-08,NaN,-0.3267325,-1.38207E-07,NaN,0.5051702,6.261273E-08,NaN,-0.4582377,1.524779E-06,-0.4168343,-8.238387E-09,NaN,NaN,-0.01993757,2.328304E-10,1.85986E-07,-1.163401E-07,1.454376E-08,-2.622604E-08
50.8856,-0.2487988,-3.383763E-08,NaN,-0.3267326,-1.382086E-07,NaN,0.5086845,6.268696E-08,NaN,-0.4559258,1.525566E-06,-0.4197015,-8.309997E-09,NaN,NaN,-0.0199347,2.328304E-10,1.925425E-07,-1.16339E-07,1.215957E-08,-2.861022E-08
50.90208,-0.2603738,-3.383647E-08,NaN,-0.3267315,-1.382101E-07,NaN,0.5122653,6.276027E-08,NaN,-0.4535967,1.526353E-06,-0.4226256,-8.380685E-09,NaN,NaN,-0.01993179,2.328304E-10,1.958207E-07,-1.163378E-07,1.454376E-08,-2.622604E-08
50.91936,-0.2603738,-3.383647E-08,NaN,-0.3267315,-1.382101E-07,NaN,0.5122653,6.276027E-08,NaN,-0.4535967,1.526353E-06,-0.4226256,-8.380685E-09,NaN,NaN,-0.01993179,2.328304E-10,1.958207E-07,-1.163378E-07,1.454376E-08,-2.622604E-08
50.93553,-0.2722027,-3.383532E-08,NaN,-0.3267294,-1.382117E-07,NaN,0.5157659,6.283232E-08,NaN,-0.451354,1.527139E-06,-0.425485,-8.450116E-09,NaN,NaN,-0.01992893,2.328304E-10,2.010361E-07,-1.163367E-07,1.454376E-08,-2.861022E-08
50.95334,-0.2848701,-3.383416E-08,NaN,-0.3267277,-1.382132E-07,NaN,0.5197542,6.290313E-08,NaN,-0.4488256,1.527926E-06,-0.4287568,-8.518313E-09,NaN,NaN,-0.01992561,2.328304E-10,2.066986E-07,-1.163356E-07,1.692794E-08,-2.622604E-08
50.97014,-0.2980117,-3.383301E-08,NaN,-0.3267248,-1.382147E-07,NaN,0.5238031,6.297273E-08,NaN,-0.4462931,1.528713E-06,-0.4320816,-8.585298E-09,NaN,NaN,-0.01992224,2.328304E-10,2.12212E-07,-1.163344E-07,1.692794E-08,-2.861022E-08
50.98763,-0.3113965,-3.383185E-08,NaN,-0.32672,-1.382163E-07,NaN,0.5277632,6.30415E-08,NaN,-0.4438579,1.5295E-06,-0.435335,-8.65145E-09,NaN,NaN,-0.01991893,2.328304E-10,2.181725E-07,-1.163333E-07,1.454376E-08,-2.622604E-08
51.00444,-0.3248783,-3.38307E-08,NaN,-0.3267131,-1.382178E-07,NaN,0.531596,6.31091E-08,NaN,-0.4415452,1.530287E-06,-0.4384861,-8.716434E-09,NaN,NaN,-0.01991569,2.328304E-10,2.218978E-07,-1.163322E-07,1.215957E-08,-2.861022E-08
51.0216,-0.3390928,-3.382954E-08,NaN,-0.3267069,-1.382193E-07,NaN,0.5359358,6.317555E-08,NaN,-0.4389565,1.531074E-06,-0.4420716,-8.780273E-09,NaN,NaN,-0.01991196,2.328304E-10,2.24878E-07,-1.163311E-07,1.692794E-08,-2.622604E-08
51.03874,-0.3390928,-3.382954E-08,NaN,-0.3267069,-1.382193E-07,NaN,0.5359358,6.317555E-08,NaN,-0.4389565,1.531074E-06,-0.4420716,-8.780273E-09,NaN,NaN,-0.01991196,2.328304E-10,2.24878E-07,-1.163311E-07,1.692794E-08,-2.622604E-08
51.05487,-0.3537085,-3.382838E-08,NaN,-0.3266989,-1.382208E-07,NaN,0.5403492,6.324088E-08,NaN,-0.4363608,1.531861E-06,-0.4457232,-8.842989E-09,NaN,NaN,-0.01990815,2.328304E-10,2.297954E-07,-1.1633E-07,1.215957E-08,-2.861022E-08
51.07238,-0.3685154,-3.382722E-08,NaN,-0.3266883,-1.382223E-07,NaN,0.5446836,6.33051E-08,NaN,-0.4338573,1.532648E-06,-0.4493127,-8.904604E-09,NaN,NaN,-0.0199044,2.328304E-10,2.330736E-07,-1.163289E-07,1.215957E-08,-2.622604E-08
51.08953,-0.3841087,-3.382607E-08,NaN,-0.3266779,-1.382239E-07,NaN,0.5495499,6.336825E-08,NaN,-0.4310803,1.533435E-06,-0.4533604,-8.96514E-09,NaN,NaN,-0.01990011,2.328304E-10,2.37842E-07,-1.163278E-07,1.215957E-08,-2.861022E-08
51.10758,-0.4001312,-3.382491E-08,NaN,-0.326665,-1.382253E-07,NaN,0.5544868,6.343034E-08,NaN,-0.4283078,1.534222E-06,-0.4574721,-9.024619E-09,NaN,NaN,-0.01989576,2.328304E-10,2.420143E-07,-1.163267E-07,1.454376E-08,-2.622604E-08
51.12347,-0.4163564,-3.382375E-08,NaN,-0.3266491,-1.382268E-07,NaN,0.5593342,6.349139E-08,NaN,-0.4256409,1.535009E-06,-0.4615131,-9.08306E-09,NaN,NaN,-0.01989147,2.328304E-10,2.490179E-07,-1.163256E-07,1.454376E-08,-2.861022E-08
51.14098,-0.4326411,-3.382259E-08,NaN,-0.3266306,-1.382283E-07,NaN,0.5640503,6.355143E-08,NaN,-0.4231056,1.535796E-06,-0.4654497,-9.140482E-09,NaN,NaN,-0.01988725,2.328304E-10,2.557234E-07,-1.163245E-07,1.215957E-08,-2.622604E-08
51.15767,-0.4326411,-3.382259E-08,NaN,-0.3266306,-1.382283E-07,NaN,0.5640503,6.355143E-08,NaN,-0.4231056,1.535796E-06,-0.4654497,-9.140482E-09,NaN,NaN,-0.01988725,2.328304E-10,2.557234E-07,-1.163245E-07,1.215957E-08,-2.622604E-08
51.17381,-0.4496233,-3.382143E-08,NaN,-0.3266126,-1.382298E-07,NaN,0.5693182,6.361046E-08,NaN,-0.4203112,1.536583E-06,-0.4698677,-9.196905E-09,NaN,NaN,-0.01988244,2.328304E-10,2.597467E-07,-1.163234E-07,1.454376E-08,-2.861022E-08
51.19154,-0.4669728,-3.382026E-08,NaN,-0.3265924,-1.382313E-07,NaN,0.5746688,6.366887E-08,NaN,-0.417522,1.53737E-06,-0.4743627,-9.252703E-09,NaN,NaN,-0.01987754,2.328304E-10,2.628759E-07,-1.163223E-07,1.215957E-08,-2.622604E-08
51.20885,-0.4844807,-3.38191E-08,NaN,-0.3265694,-1.382328E-07,NaN,0.5799378,6.372632E-08,NaN,-0.4148359,1.538157E-06,-0.4787949,-9.30754E-09,NaN,NaN,-0.0198727,2.328304E-10,2.716676E-07,-1.163212E-07,1.692794E-08,-2.861022E-08
51.22579,-0.5027429,-3.381794E-08,NaN,-0.3265466,-1.382342E-07,NaN,0.585788,6.378282E-08,NaN,-0.4118949,1.538944E-06,-0.4837364,-9.361426E-09,NaN,NaN,-0.01986722,2.328304E-10,2.747969E-07,-1.163202E-07,1.215957E-08,-2.622604E-08
51.24245,-0.5214031,-3.381678E-08,NaN,-0.326521,-1.382357E-07,NaN,0.5917187,6.383839E-08,NaN,-0.4089712,1.539731E-06,-0.4887533,-9.414386E-09,NaN,NaN,-0.01986167,2.328304E-10,2.788202E-07,-1.163191E-07,1.215957E-08,-2.861022E-08
51.25936,-0.5214031,-3.381678E-08,NaN,-0.326521,-1.382357E-07,NaN,0.5917187,6.383839E-08,NaN,-0.4089712,1.539731E-06,-0.4887533,-9.414386E-09,NaN,NaN,-0.01986167,2.328304E-10,2.788202E-07,-1.163191E-07,1.215957E-08,-2.861022E-08
51.27612,-0.5402352,-3.381562E-08,NaN,-0.3264922,-1.382372E-07,NaN,0.5975574,6.389305E-08,NaN,-0.4061641,1.540517E-06,-0.4936985,-9.466433E-09,NaN,NaN,-0.01985619,2.328304E-10,2.844826E-07,-1.16318E-07,5.007013E-09,-2.622604E-08
51.29359,-0.5598246,-3.381445E-08,NaN,-0.3264631,-1.382386E-07,NaN,0.6039943,6.394682E-08,NaN,-0.4031191,1.541304E-06,-0.4991717,-9.51759E-09,NaN,NaN,-0.01985001,2.328304E-10,2.916352E-07,-1.16317E-07,2.622827E-09,-2.861022E-08
51.31035,-0.5798082,-3.381329E-08,NaN,-0.3264308,-1.382401E-07,NaN,0.6105111,6.399972E-08,NaN,-0.4001038,1.542091E-06,-0.5047212,-9.567874E-09,NaN,NaN,-0.01984377,2.328304E-10,2.938703E-07,-1.163159E-07,2.386416E-10,-2.622604E-08
51.32724,-0.5999558,-3.381212E-08,NaN,-0.326395,-1.382415E-07,NaN,0.6169308,6.405176E-08,NaN,-0.3972152,1.542878E-06,-0.5101951,-9.6173E-09,NaN,NaN,-0.01983759,2.328304E-10,2.987877E-07,-1.163149E-07,-6.913916E-09,-2.861022E-08
51.34446,-0.620122,-3.381096E-08,NaN,-0.3263564,-1.382429E-07,NaN,0.6232079,6.410296E-08,NaN,-0.3944776,1.543665E-06,-0.5155566,-9.665886E-09,NaN,NaN,-0.01983148,2.328304E-10,3.043012E-07,-1.163138E-07,-6.913916E-09,-2.622604E-08
51.3611,-0.6409436,-3.380979E-08,NaN,-0.3263184,-1.382444E-07,NaN,0.6301195,6.415333E-08,NaN,-0.3915132,1.544452E-06,-0.5214857,-9.713647E-09,NaN,NaN,-0.01982459,2.328304E-10,3.119007E-07,-1.163128E-07,-4.52973E-09,-2.861022E-08
51.37825,-0.6409436,-3.380979E-08,NaN,-0.3263184,-1.382444E-07,NaN,0.6301195,6.415333E-08,NaN,-0.3915132,1.544452E-06,-0.5214857,-9.713647E-09,NaN,NaN,-0.01982459,2.328304E-10,3.119007E-07,-1.163128E-07,-4.52973E-09,-2.861022E-08
51.39442,-0.66209,-3.380863E-08,NaN,-0.3262781,-1.382458E-07,NaN,0.6371314,6.420325E-08,NaN,-0.3885754,1.545239E-06,-0.527512,-9.760954E-09,NaN,NaN,-0.0198176,2.328304E-10,3.117517E-07,-1.163117E-07,-9.298102E-09,-2.622604E-08
51.41198,-0.683352,-3.380746E-08,NaN,-0.3262348,-1.382472E-07,NaN,0.6440585,6.425237E-08,NaN,-0.3857586,1.546026E-06,-0.5334749,-9.807462E-09,NaN,NaN,-0.01981067,2.328304E-10,3.227786E-07,-1.163107E-07,-1.406647E-08,-2.861022E-08
51.42907,-0.7048185,-3.380629E-08,NaN,-0.3261901,-1.382487E-07,NaN,0.6510962,6.430071E-08,NaN,-0.3829759,1.546813E-06,-0.5395484,-9.853188E-09,NaN,NaN,-0.01980354,2.328304E-10,3.263549E-07,-1.163097E-07,-1.645066E-08,-2.622604E-08
51.44593,-0.7263237,-3.380512E-08,NaN,-0.3261436,-1.382501E-07,NaN,0.6580681,6.434827E-08,NaN,-0.3803051,1.5476E-06,-0.5455777,-9.898145E-09,NaN,NaN,-0.0197964,2.328304E-10,3.367857E-07,-1.163087E-07,-2.360322E-08,-2.861022E-08
51.46302,-0.7477631,-3.380395E-08,NaN,-0.3260958,-1.382515E-07,NaN,0.6649221,6.439508E-08,NaN,-0.3777675,1.548387E-06,-0.5515184,-9.942347E-09,NaN,NaN,-0.01978932,2.328304E-10,3.381268E-07,-1.163076E-07,-2.121903E-08,-2.622604E-08
51.47978,-0.7477631,-3.380395E-08,NaN,-0.3260958,-1.382515E-07,NaN,0.6649221,6.439508E-08,NaN,-0.3777675,1.548387E-06,-0.5515184,-9.942347E-09,NaN,NaN,-0.01978932,2.328304E-10,3.381268E-07,-1.163076E-07,-2.121903E-08,-2.622604E-08
51.49594,-0.7690713,-3.380278E-08,NaN,-0.3260475,-1.382529E-07,NaN,0.6716508,6.444115E-08,NaN,-0.3753624,1.549174E-06,-0.5573654,-9.985813E-09,NaN,NaN,-0.01978228,2.328304E-10,3.440873E-07,-1.163066E-07,-2.121903E-08,-2.861022E-08
51.51369,-0.7902077,-3.380162E-08,NaN,-0.3259994,-1.382543E-07,NaN,0.6782605,6.448651E-08,NaN,-0.3730814,1.549961E-06,-0.5631247,-1.002855E-08,NaN,NaN,-0.01977528,2.328304E-10,3.497497E-07,-1.163056E-07,-1.287438E-08,-2.622604E-08
51.53049,-0.8111478,-3.380045E-08,NaN,-0.3259519,-1.382557E-07,NaN,0.6847595,6.453115E-08,NaN,-0.370915,1.550748E-06,-0.5688041,-1.007059E-08,NaN,NaN,-0.01976831,2.328304E-10,3.53773E-07,-1.163046E-07,-2.241113E-08,-2.861022E-08
51.5475,-0.8318768,-3.379928E-08,NaN,-0.3259056,-1.382571E-07,NaN,0.6911547,6.45751E-08,NaN,-0.3688545,1.551535E-06,-0.5744097,-1.011193E-08,NaN,NaN,-0.01976139,2.328304E-10,3.619686E-07,-1.163036E-07,-2.241113E-08,-2.622604E-08
51.56424,-0.8523864,-3.379811E-08,NaN,-0.3258607,-1.382585E-07,NaN,0.6974508,6.461836E-08,NaN,-0.3668929,1.552322E-06,-0.5799453,-1.015258E-08,NaN,NaN,-0.01975451,2.328304E-10,3.689722E-07,-1.163026E-07,-2.002694E-08,-2.861022E-08
51.58108,-0.8726722,-3.379694E-08,NaN,-0.3258175,-1.382598E-07,NaN,0.7036505,6.466131E-08,NaN,-0.3650245,1.553109E-06,-0.5854128,-1.019292E-08,NaN,NaN,-0.0197477,2.328304E-10,3.761247E-07,-1.163016E-07,-1.525857E-08,-2.622604E-08
51.59797,-0.8726722,-3.379694E-08,NaN,-0.3258175,-1.382598E-07,NaN,0.7036505,6.466131E-08,NaN,-0.3650245,1.553109E-06,-0.5854128,-1.019292E-08,NaN,NaN,-0.0197477,2.328304E-10,3.761247E-07,-1.163016E-07,-1.525857E-08,-2.622604E-08
51.61422,-0.8927326,-3.379576E-08,NaN,-0.3257759,-1.382608E-07,NaN,0.7097551,6.469207E-08,NaN,-0.3632449,1.553886E-06,-0.5908129,-1.022106E-08,NaN,NaN,-0.01974095,2.421436E-10,3.804461E-07,-1.163031E-07,-1.645066E-08,-2.861022E-08
51.6318,-0.9125673,-3.379459E-08,NaN,-0.3257361,-1.382622E-07,NaN,0.7157647,6.473584E-08,NaN,-0.3615502,1.554668E-06,-0.596145,-1.026223E-08,NaN,NaN,-0.01973427,2.468002E-10,3.829793E-07,-1.163049E-07,-1.525857E-08,-2.622604E-08
51.64981,-0.9321771,-3.379342E-08,NaN,-0.3256982,-1.382638E-07,NaN,0.7216789,6.478582E-08,NaN,-0.3599373,1.555446E-06,-0.6014084,-1.03096E-08,NaN,NaN,-0.01972768,2.561134E-10,3.864065E-07,-1.16307E-07,-2.002694E-08,-2.861022E-08
51.66536,-0.9515637,-3.379225E-08,NaN,-0.325662,-1.382656E-07,NaN,0.7274966,6.483878E-08,NaN,-0.3584035,1.556228E-06,-0.6066012,-1.035996E-08,NaN,NaN,-0.01972118,2.6077E-10,3.841714E-07,-1.163091E-07,-2.241112E-08,-2.622604E-08
51.68233,-0.9707288,-3.379107E-08,NaN,-0.3256276,-1.382675E-07,NaN,0.7332165,6.489328E-08,NaN,-0.3569464,1.557006E-06,-0.611722,-1.041186E-08,NaN,NaN,-0.01971477,2.700833E-10,3.883437E-07,-1.163113E-07,-2.002694E-08,-2.861022E-08
51.69897,-0.9707288,-3.379107E-08,NaN,-0.3256276,-1.382675E-07,NaN,0.7332165,6.489328E-08,NaN,-0.3569464,1.557006E-06,-0.611722,-1.041186E-08,NaN,NaN,-0.01971477,2.700833E-10,3.883437E-07,-1.163113E-07,-2.002694E-08,-2.861022E-08
51.71497,-0.9896745,-3.37899E-08,NaN,-0.325595,-1.382695E-07,NaN,0.7388374,6.49479E-08,NaN,-0.3555637,1.557788E-06,-0.6167688,-1.046389E-08,NaN,NaN,-0.01970847,2.747399E-10,3.907279E-07,-1.163136E-07,-1.764275E-08,-2.622604E-08
51.73241,-1.008403,-3.378873E-08,NaN,-0.325564,-1.382714E-07,NaN,0.7443578,6.500231E-08,NaN,-0.3542534,1.558566E-06,-0.6217398,-1.05157E-08,NaN,NaN,-0.01970228,2.840531E-10,3.9192E-07,-1.163158E-07,-2.002694E-08,-2.861022E-08
51.74936,-1.026917,-3.378756E-08,NaN,-0.3255348,-1.382734E-07,NaN,0.7497759,6.505616E-08,NaN,-0.3530133,1.559348E-06,-0.6266329,-1.056696E-08,NaN,NaN,-0.0196962,2.887097E-10,4.026488E-07,-1.163181E-07,-2.360322E-08,-2.622604E-08
51.76625,-1.045218,-3.378639E-08,NaN,-0.3255072,-1.382754E-07,NaN,0.7550905,6.510912E-08,NaN,-0.3518416,1.560126E-06,-0.6314464,-1.061732E-08,NaN,NaN,-0.01969026,2.980229E-10,4.05629E-07,-1.163203E-07,-2.479531E-08,-2.861022E-08
51.78281,-1.063309,-3.378521E-08,NaN,-0.3254811,-1.382774E-07,NaN,0.7603,6.51612E-08,NaN,-0.3507364,1.560917E-06,-0.6361784,-1.066681E-08,NaN,NaN,-0.01968443,2.933663E-10,4.080132E-07,-1.163226E-07,-2.360322E-08,-2.622604E-08
51.79947,-1.063309,-3.378521E-08,NaN,-0.3254811,-1.382774E-07,NaN,0.7603,6.51612E-08,NaN,-0.3507364,1.560917E-06,-0.6361784,-1.066681E-08,NaN,NaN,-0.01968443,2.933663E-10,4.080132E-07,-1.163226E-07,-2.360322E-08,-2.622604E-08
51.81565,-1.081192,-3.378404E-08,NaN,-0.3254566,-1.382794E-07,NaN,0.765403,6.521206E-08,NaN,-0.3496958,1.561695E-06,-0.640827,-1.071509E-08,NaN,NaN,-0.01967874,3.026795E-10,4.114405E-07,-1.163248E-07,-2.241112E-08,-2.861022E-08
51.83341,-1.09887,-3.378286E-08,NaN,-0.3254336,-1.382814E-07,NaN,0.7703981,6.52621E-08,NaN,-0.3487181,1.562487E-06,-0.6453905,-1.076255E-08,NaN,NaN,-0.01967317,2.980229E-10,4.130796E-07,-1.163271E-07,-2.241112E-08,-2.622604E-08
51.84999,-1.116345,-3.378169E-08,NaN,-0.3254121,-1.382834E-07,NaN,0.7752841,6.531097E-08,NaN,-0.3478016,1.563269E-06,-0.6498672,-1.080883E-08,NaN,NaN,-0.01966776,3.073361E-10,4.156128E-07,-1.163293E-07,-2.121903E-08,-2.861022E-08
51.86657,-1.133619,-3.378051E-08,NaN,-0.3253919,-1.382854E-07,NaN,0.7800598,6.53587E-08,NaN,-0.3469444,1.564065E-06,-0.6542557,-1.085398E-08,NaN,NaN,-0.01966248,3.026795E-10,4.120365E-07,-1.163316E-07,-2.181508E-08,-2.622604E-08
51.88321,-1.150695,-3.377933E-08,NaN,-0.3253731,-1.382874E-07,NaN,0.7847241,6.540566E-08,NaN,-0.3461449,1.564847E-06,-0.6585545,-1.089836E-08,NaN,NaN,-0.01965735,3.119927E-10,4.130796E-07,-1.163338E-07,-2.300717E-08,-2.861022E-08
51.90034,-1.167574,-3.377816E-08,NaN,-0.3253557,-1.382894E-07,NaN,0.7892758,6.545152E-08,NaN,-0.3454014,1.565634E-06,-0.662762,-1.094163E-08,NaN,NaN,-0.01965237,3.166493E-10,4.130796E-07,-1.16336E-07,-2.181508E-08,-2.622604E-08
51.91689,-1.167574,-3.377816E-08,NaN,-0.3253557,-1.382894E-07,NaN,0.7892758,6.545152E-08,NaN,-0.3454014,1.565634E-06,-0.662762,-1.094163E-08,NaN,NaN,-0.01965237,3.166493E-10,4.130796E-07,-1.16336E-07,-2.181508E-08,-2.622604E-08
51.9333,-1.18426,-3.377698E-08,NaN,-0.3253395,-1.382913E-07,NaN,0.793714,6.549629E-08,NaN,-0.3447123,1.566417E-06,-0.6668771,-1.098382E-08,NaN,NaN,-0.01964753,3.259626E-10,4.114405E-07,-1.163382E-07,-2.121903E-08,-2.861022E-08
51.95096,-1.200754,-3.377581E-08,NaN,-0.3253246,-1.382933E-07,NaN,0.7980381,6.554036E-08,NaN,-0.3440761,1.567213E-06,-0.6708984,-1.10253E-08,NaN,NaN,-0.01964284,3.21306E-10,4.092053E-07,-1.163404E-07,-2.121903E-08,-2.622604E-08
51.96754,-1.216837,-3.377463E-08,NaN,-0.3253101,-1.382953E-07,NaN,0.8019328,6.558302E-08,NaN,-0.3435892,1.567995E-06,-0.6745399,-1.106538E-08,NaN,NaN,-0.01963871,3.306192E-10,4.103974E-07,-1.163426E-07,-2.241112E-08,-2.861022E-08
51.98438,-1.232595,-3.377345E-08,NaN,-0.3252971,-1.382972E-07,NaN,0.8056241,6.562466E-08,NaN,-0.3431807,1.568791E-06,-0.6780079,-1.110444E-08,NaN,NaN,-0.01963478,3.259626E-10,4.093543E-07,-1.163448E-07,-2.181508E-08,-2.622604E-08
52.00117,-1.248082,-3.377227E-08,NaN,-0.3252859,-1.382992E-07,NaN,0.8091928,6.566566E-08,NaN,-0.3428205,1.569574E-06,-0.6813754,-1.114286E-08,NaN,NaN,-0.01963097,3.352758E-10,4.087583E-07,-1.16347E-07,-2.181508E-08,-2.861022E-08
52.0187,-1.248082,-3.377227E-08,NaN,-0.3252859,-1.382992E-07,NaN,0.8091928,6.566566E-08,NaN,-0.3428205,1.569574E-06,-0.6813754,-1.114286E-08,NaN,NaN,-0.01963097,3.352758E-10,4.087583E-07,-1.16347E-07,-2.181508E-08,-2.861022E-08
52.03426,-1.262607,-3.377109E-08,NaN,-0.3252741,-1.383011E-07,NaN,0.8116146,6.570567E-08,NaN,-0.3428167,1.57037E-06,-0.6837103,-1.118028E-08,NaN,NaN,-0.01962863,3.306192E-10,4.065231E-07,-1.163491E-07,-2.092101E-08,-2.622604E-08
52.05174,-1.276465,-3.376991E-08,NaN,-0.3252647,-1.38303E-07,NaN,0.8136517,6.574471E-08,NaN,-0.3429404,1.571162E-06,-0.6857109,-1.121674E-08,NaN,NaN,-0.01962657,3.259626E-10,4.071192E-07,-1.163513E-07,-2.121903E-08,-2.861022E-08
52.06828,-1.289846,-3.376873E-08,NaN,-0.3252586,-1.38305E-07,NaN,0.8155738,6.57828E-08,NaN,-0.3430975,1.571948E-06,-0.6876214,-1.125225E-08,NaN,NaN,-0.01962455,3.21306E-10,4.057781E-07,-1.163535E-07,-2.062299E-08,-2.622604E-08
52.08542,-1.302872,-3.376755E-08,NaN,-0.3252556,-1.383069E-07,NaN,0.8174593,6.582032E-08,NaN,-0.3432561,1.572726E-06,-0.6895104,-1.128718E-08,NaN,NaN,-0.01962257,3.21306E-10,4.05331E-07,-1.163556E-07,-1.972892E-08,-2.861022E-08
52.10188,-1.314891,-3.376637E-08,NaN,-0.3252529,-1.383088E-07,NaN,0.8182639,6.585691E-08,NaN,-0.343727,1.573499E-06,-0.6904248,-1.132119E-08,NaN,NaN,-0.01962201,3.259626E-10,4.023508E-07,-1.163578E-07,-1.972892E-08,-2.622604E-08
52.11874,-1.314891,-3.376637E-08,NaN,-0.3252529,-1.383088E-07,NaN,0.8182639,6.585691E-08,NaN,-0.343727,1.573499E-06,-0.6904248,-1.132119E-08,NaN,NaN,-0.01962201,3.259626E-10,4.023508E-07,-1.163578E-07,-1.972892E-08,-2.622604E-08
52.13478,-1.326227,-3.376519E-08,NaN,-0.3252521,-1.383107E-07,NaN,0.8187408,6.589259E-08,NaN,-0.3442896,1.574267E-06,-0.6910545,-1.13543E-08,NaN,NaN,-0.01962172,3.352758E-10,4.004136E-07,-1.163599E-07,-1.972892E-08,-2.861022E-08
52.15226,-1.337086,-3.3764E-08,NaN,-0.325253,-1.383126E-07,NaN,0.8191499,6.592774E-08,NaN,-0.3448569,1.575045E-06,-0.6916343,-1.138687E-08,NaN,NaN,-0.01962146,3.352758E-10,4.007117E-07,-1.16362E-07,-1.898386E-08,-2.622604E-08
52.17005,-1.346872,-3.376282E-08,NaN,-0.3252537,-1.383145E-07,NaN,0.8185133,6.596202E-08,NaN,-0.3457188,1.575813E-06,-0.6912711,-1.141857E-08,NaN,NaN,-0.01962253,3.44589E-10,3.984765E-07,-1.163642E-07,-1.957991E-08,-2.861022E-08
52.18645,-1.355941,-3.376164E-08,NaN,-0.3252557,-1.383164E-07,NaN,0.8175995,6.599544E-08,NaN,-0.34665,1.576591E-06,-0.6906683,-1.14494E-08,NaN,NaN,-0.0196238,3.44589E-10,3.941551E-07,-1.163663E-07,-1.928188E-08,-2.622604E-08
52.20234,-1.364522,-3.376045E-08,NaN,-0.3252593,-1.383183E-07,NaN,0.8166696,6.602837E-08,NaN,-0.3475643,1.577359E-06,-0.6900616,-1.147975E-08,NaN,NaN,-0.01962505,3.539022E-10,3.901318E-07,-1.163684E-07,-1.870446E-08,-2.861022E-08
52.21925,-1.364522,-3.376045E-08,NaN,-0.3252593,-1.383183E-07,NaN,0.8166696,6.602837E-08,NaN,-0.3475643,1.577359E-06,-0.6900616,-1.147975E-08,NaN,NaN,-0.01962505,3.539022E-10,3.901318E-07,-1.163684E-07,-1.870446E-08,-2.861022E-08
52.23542,-1.37276,-3.375927E-08,NaN,-0.3252651,-1.383202E-07,NaN,0.8157907,6.606047E-08,NaN,-0.3484376,1.578137E-06,-0.6895097,-1.150927E-08,NaN,NaN,-0.01962624,3.539022E-10,3.867046E-07,-1.163705E-07,-1.882553E-08,-2.622604E-08
52.25331,-1.380019,-3.375809E-08,NaN,-0.3252706,-1.383221E-07,NaN,0.813923,6.609175E-08,NaN,-0.3495871,1.578905E-06,-0.6880632,-1.153798E-08,NaN,NaN,-0.01962873,3.632154E-10,3.840223E-07,-1.163726E-07,-1.826674E-08,-2.861022E-08
52.27009,-1.386633,-3.37569E-08,NaN,-0.3252781,-1.383239E-07,NaN,0.8118045,6.612259E-08,NaN,-0.350798,1.579687E-06,-0.686398,-1.156623E-08,NaN,NaN,-0.01963139,3.632154E-10,3.752307E-07,-1.163747E-07,-1.77452E-08,-2.622604E-08
52.28679,-1.392813,-3.375572E-08,NaN,-0.3252881,-1.383258E-07,NaN,0.8096889,6.615264E-08,NaN,-0.3519872,1.580474E-06,-0.6847437,-1.15937E-08,NaN,NaN,-0.01963398,3.585588E-10,3.697172E-07,-1.163768E-07,-1.722366E-08,-2.861022E-08
52.30342,-1.398694,-3.375454E-08,NaN,-0.3253004,-1.383276E-07,NaN,0.8076419,6.618226E-08,NaN,-0.3531303,1.581257E-06,-0.6831579,-1.162075E-08,NaN,NaN,-0.01963647,3.585588E-10,3.639058E-07,-1.163788E-07,-1.632959E-08,-2.622604E-08
52.3205,-1.403634,-3.375335E-08,NaN,-0.3253122,-1.383299E-07,NaN,0.8046452,6.622873E-08,NaN,-0.3545466,1.582048E-06,-0.6807123,-1.166464E-08,NaN,NaN,-0.01964014,3.492456E-10,3.586904E-07,-1.1638E-07,-1.677662E-08,-2.861022E-08
52.33768,-1.403634,-3.375335E-08,NaN,-0.3253122,-1.383299E-07,NaN,0.8046452,6.622873E-08,NaN,-0.3545466,1.582048E-06,-0.6807123,-1.166464E-08,NaN,NaN,-0.01964014,3.492456E-10,3.586904E-07,-1.1638E-07,-1.677662E-08,-2.861022E-08
52.35372,-1.407962,-3.375217E-08,NaN,-0.3253253,-1.383322E-07,NaN,0.8014265,6.627168E-08,NaN,-0.3560186,1.58284E-06,-0.6780724,-1.170503E-08,NaN,NaN,-0.01964395,3.399324E-10,3.534749E-07,-1.16381E-07,-1.677662E-08,-2.622604E-08
52.37096,-1.411887,-3.375098E-08,NaN,-0.3253399,-1.383339E-07,NaN,0.7982378,6.629497E-08,NaN,-0.3574625,1.583622E-06,-0.6754662,-1.172574E-08,NaN,NaN,-0.01964765,3.399324E-10,3.461734E-07,-1.16383E-07,-1.603157E-08,-2.861022E-08
52.38781,-1.414813,-3.374979E-08,NaN,-0.3253538,-1.383357E-07,NaN,0.7941465,6.631969E-08,NaN,-0.3591766,1.584404E-06,-0.6720444,-1.174788E-08,NaN,NaN,-0.01965242,3.399324E-10,3.40809E-07,-1.16385E-07,-1.692564E-08,-2.622604E-08
52.40436,-1.417099,-3.374861E-08,NaN,-0.3253683,-1.383374E-07,NaN,0.7898872,6.634478E-08,NaN,-0.3609336,1.585187E-06,-0.6684775,-1.177039E-08,NaN,NaN,-0.01965726,3.399324E-10,3.332094E-07,-1.16387E-07,-1.573354E-08,-2.861022E-08
52.4219,-1.418972,-3.374742E-08,NaN,-0.3253838,-1.383392E-07,NaN,0.7857097,6.636953E-08,NaN,-0.3626477,1.585969E-06,-0.6649913,-1.179257E-08,NaN,NaN,-0.01966192,3.399324E-10,3.28888E-07,-1.16389E-07,-1.632959E-08,-2.622604E-08
52.4382,-1.418972,-3.374742E-08,NaN,-0.3253838,-1.383392E-07,NaN,0.7857097,6.636953E-08,NaN,-0.3626477,1.585969E-06,-0.6649913,-1.179257E-08,NaN,NaN,-0.01966192,3.399324E-10,3.28888E-07,-1.16389E-07,-1.632959E-08,-2.622604E-08
52.45449,-1.41985,-3.374623E-08,NaN,-0.3253978,-1.38341E-07,NaN,0.7807001,6.639361E-08,NaN,-0.3646221,1.586751E-06,-0.6607546,-1.181408E-08,NaN,NaN,-0.01966754,3.399324E-10,3.232256E-07,-1.163911E-07,-1.632959E-08,-2.861022E-08
52.47174,-1.420098,-3.374505E-08,NaN,-0.3254118,-1.383428E-07,NaN,0.7755721,6.641739E-08,NaN,-0.3666283,1.587533E-06,-0.6564175,-1.183528E-08,NaN,NaN,-0.01967318,3.399324E-10,3.15477E-07,-1.163931E-07,-1.513749E-08,-2.622604E-08
52.48922,-1.419949,-3.374386E-08,NaN,-0.325426,-1.383446E-07,NaN,0.7705674,6.644086E-08,NaN,-0.3685812,1.588316E-06,-0.652198,-1.185617E-08,NaN,NaN,-0.01967861,3.399324E-10,3.104106E-07,-1.163951E-07,-1.424343E-08,-2.861022E-08
52.50603,-1.419551,-3.374267E-08,NaN,-0.3254405,-1.383465E-07,NaN,0.7657416,6.646368E-08,NaN,-0.3704579,1.589098E-06,-0.6481448,-1.187642E-08,NaN,NaN,-0.01968379,3.399324E-10,3.03109E-07,-1.163971E-07,-1.364738E-08,-2.622604E-08
52.5228,-1.418269,-3.374148E-08,NaN,-0.325453,-1.383482E-07,NaN,0.7601464,6.648623E-08,NaN,-0.3725936,1.58988E-06,-0.6433986,-1.189639E-08,NaN,NaN,-0.01968985,3.399324E-10,2.968505E-07,-1.163991E-07,-1.275331E-08,-2.861022E-08
52.53931,-1.418269,-3.374148E-08,NaN,-0.325453,-1.383482E-07,NaN,0.7601464,6.648623E-08,NaN,-0.3725936,1.58988E-06,-0.6433986,-1.189639E-08,NaN,NaN,-0.01968985,3.399324E-10,2.968505E-07,-1.163991E-07,-1.275331E-08,-2.861022E-08
52.55579,-1.416438,-3.374029E-08,NaN,-0.3254643,-1.3835E-07,NaN,0.7544499,6.650815E-08,NaN,-0.3747638,1.590663E-06,-0.6385661,-1.191573E-08,NaN,NaN,-0.01969593,3.399324E-10,2.913371E-07,-1.164011E-07,-1.245529E-08,-2.622604E-08
52.57328,-1.414268,-3.37391E-08,NaN,-0.3254751,-1.383518E-07,NaN,0.7488827,6.652981E-08,NaN,-0.3768838,1.591445E-06,-0.633855,-1.193481E-08,NaN,NaN,-0.01970178,3.399324E-10,2.826944E-07,-1.164031E-07,-1.305133E-08,-2.861022E-08
52.59028,-1.411165,-3.37379E-08,NaN,-0.3254831,-1.383536E-07,NaN,0.7425907,6.655085E-08,NaN,-0.3792679,1.592227E-06,-0.6284936,-1.195328E-08,NaN,NaN,-0.01970841,3.399324E-10,2.730087E-07,-1.164051E-07,-1.245529E-08,-2.622604E-08
52.60674,-1.40749,-3.373671E-08,NaN,-0.3254895,-1.383554E-07,NaN,0.7362433,6.657131E-08,NaN,-0.381679,1.593009E-06,-0.6230878,-1.197117E-08,NaN,NaN,-0.019715,3.399324E-10,2.666011E-07,-1.164071E-07,-1.275331E-08,-2.861022E-08
52.62375,-1.403469,-3.373552E-08,NaN,-0.3254946,-1.383571E-07,NaN,0.7300684,6.659153E-08,NaN,-0.3840287,1.593792E-06,-0.6178424,-1.198882E-08,NaN,NaN,-0.01972132,3.399324E-10,2.603427E-07,-1.164091E-07,-1.424342E-08,-2.622604E-08
52.64067,-1.399247,-3.373433E-08,NaN,-0.325499,-1.383589E-07,NaN,0.7241195,6.661117E-08,NaN,-0.3862931,1.594574E-06,-0.6128042,-1.200589E-08,NaN,NaN,-0.01972735,3.399324E-10,2.533391E-07,-1.164111E-07,-1.39454E-08,-2.861022E-08
52.65801,-1.399247,-3.373433E-08,NaN,-0.325499,-1.383589E-07,NaN,0.7241195,6.661117E-08,NaN,-0.3862931,1.594574E-06,-0.6128042,-1.200589E-08,NaN,NaN,-0.01972735,3.399324E-10,2.533391E-07,-1.164111E-07,-1.39454E-08,-2.861022E-08
52.67355,-1.394189,-3.373314E-08,NaN,-0.3255006,-1.383607E-07,NaN,0.7175164,6.663059E-08,NaN,-0.388819,1.595356E-06,-0.6071818,-1.202273E-08,NaN,NaN,-0.01973406,3.399324E-10,2.478257E-07,-1.16413E-07,-1.305133E-08,-2.622604E-08
52.69141,-1.388625,-3.373195E-08,NaN,-0.3255011,-1.383624E-07,NaN,0.7108793,6.664945E-08,NaN,-0.3913732,1.596139E-06,-0.601534,-1.203902E-08,NaN,NaN,-0.01974071,3.399324E-10,2.414182E-07,-1.16415E-07,-1.334935E-08,-2.861022E-08
52.7094,-1.382767,-3.373076E-08,NaN,-0.3255012,-1.383642E-07,NaN,0.7044222,6.666775E-08,NaN,-0.3938678,1.596921E-06,-0.5960522,-1.205475E-08,NaN,NaN,-0.0197471,3.399324E-10,2.333716E-07,-1.164169E-07,-1.096517E-08,-2.622604E-08
52.72489,-1.376021,-3.372957E-08,NaN,-0.3254988,-1.383659E-07,NaN,0.6973562,6.668586E-08,NaN,-0.3966293,1.597703E-06,-0.5900298,-1.207029E-08,NaN,NaN,-0.01975409,3.399324E-10,2.271131E-07,-1.164189E-07,-1.036912E-08,-2.861022E-08
52.74181,-1.368743,-3.372837E-08,NaN,-0.3254944,-1.383676E-07,NaN,0.6902977,6.670343E-08,NaN,-0.3994108,1.598485E-06,-0.5840197,-1.208528E-08,NaN,NaN,-0.01976098,3.399324E-10,2.171293E-07,-1.164208E-07,-9.177029E-09,-2.622604E-08
52.75834,-1.368743,-3.372837E-08,NaN,-0.3254944,-1.383676E-07,NaN,0.6902977,6.670343E-08,NaN,-0.3994108,1.598485E-06,-0.5840197,-1.208528E-08,NaN,NaN,-0.01976098,3.399324E-10,2.171293E-07,-1.164208E-07,-9.177029E-09,-2.622604E-08
52.77405,-1.361162,-3.372718E-08,NaN,-0.3254886,-1.383694E-07,NaN,0.6834566,6.672082E-08,NaN,-0.402121,1.599268E-06,-0.5782088,-1.21001E-08,NaN,NaN,-0.01976759,3.399324E-10,2.096787E-07,-1.164228E-07,-1.036912E-08,-2.861022E-08
52.79122,-1.353421,-3.372599E-08,NaN,-0.3254819,-1.383711E-07,NaN,0.6768805,6.673768E-08,NaN,-0.4047352,1.60005E-06,-0.572639,-1.21144E-08,NaN,NaN,-0.01977385,3.399324E-10,2.047613E-07,-1.164247E-07,-1.156121E-08,-2.622604E-08
52.80772,-1.344885,-3.372479E-08,NaN,-0.3254721,-1.383733E-07,NaN,0.669761,6.658444E-08,NaN,-0.4076137,1.600842E-06,-0.5665901,-1.195142E-08,NaN,NaN,-0.01978065,3.306192E-10,1.974598E-07,-1.164242E-07,-1.215726E-08,-2.622604E-08
52.82355,-1.335883,-3.37236E-08,NaN,-0.32546,-1.38375E-07,NaN,0.6626631,6.64312E-08,NaN,-0.4105133,1.601633E-06,-0.5605655,-1.178347E-08,NaN,NaN,-0.01978736,3.21306E-10,1.901582E-07,-1.164233E-07,-1.305133E-08,-2.622604E-08
52.83969,-1.335883,-3.37236E-08,NaN,-0.32546,-1.38375E-07,NaN,0.6626631,6.64312E-08,NaN,-0.4105133,1.601633E-06,-0.5605655,-1.178347E-08,NaN,NaN,-0.01978736,3.21306E-10,1.901582E-07,-1.164233E-07,-1.305133E-08,-2.622604E-08
52.85499,-1.326627,-3.37224E-08,NaN,-0.3254462,-1.383765E-07,NaN,0.6557824,6.627796E-08,NaN,-0.4133431,1.602425E-06,-0.5547388,-1.16122E-08,NaN,NaN,-0.01979378,3.119927E-10,1.841977E-07,-1.164222E-07,-1.364738E-08,-2.622604E-08
52.87133,-1.317249,-3.372121E-08,NaN,-0.3254311,-1.383778E-07,NaN,0.6491654,6.612471E-08,NaN,-0.4160776,1.603216E-06,-0.5491505,-1.143878E-08,NaN,NaN,-0.01979988,3.026795E-10,1.788333E-07,-1.164211E-07,-1.39454E-08,-2.622604E-08
52.88782,-1.307106,-3.372002E-08,NaN,-0.325413,-1.38379E-07,NaN,0.6420472,6.597147E-08,NaN,-0.4190835,1.604008E-06,-0.5431241,-1.12641E-08,NaN,NaN,-0.01980646,2.933663E-10,1.712337E-07,-1.164198E-07,-1.632959E-08,-2.622604E-08
52.90312,-1.296524,-3.371882E-08,NaN,-0.3253924,-1.383802E-07,NaN,0.6349654,6.581823E-08,NaN,-0.4221108,1.604795E-06,-0.5371347,-1.10888E-08,NaN,NaN,-0.01981293,2.887097E-10,1.643792E-07,-1.164185E-07,-1.692563E-08,-2.622604E-08
52.91949,-1.296524,-3.371882E-08,NaN,-0.3253924,-1.383802E-07,NaN,0.6349654,6.581823E-08,NaN,-0.4221108,1.604795E-06,-0.5371347,-1.10888E-08,NaN,NaN,-0.01981293,2.887097E-10,1.643792E-07,-1.164185E-07,-1.692563E-08,-2.622604E-08
52.9342,-1.28571,-3.371763E-08,NaN,-0.3253699,-1.383813E-07,NaN,0.6281071,6.566498E-08,NaN,-0.425066,1.605586E-06,-0.5313475,-1.091336E-08,NaN,NaN,-0.01981913,2.793965E-10,1.566306E-07,-1.164173E-07,-1.618058E-08,-2.622604E-08
52.95083,-1.274796,-3.371643E-08,NaN,-0.3253461,-1.383823E-07,NaN,0.6215175,6.551174E-08,NaN,-0.4279224,1.606378E-06,-0.5258017,-1.07381E-08,NaN,NaN,-0.01982502,2.700833E-10,1.514152E-07,-1.164159E-07,-1.543552E-08,-2.622604E-08
52.96659,-1.263136,-3.371523E-08,NaN,-0.3253193,-1.383834E-07,NaN,0.6144725,6.53585E-08,NaN,-0.4310534,1.60717E-06,-0.5198615,-1.056329E-08,NaN,NaN,-0.01983131,2.6077E-10,1.469448E-07,-1.164146E-07,-1.543552E-08,-2.622604E-08
52.98226,-1.251055,-3.371403E-08,NaN,-0.3252897,-1.383844E-07,NaN,0.6074803,6.520526E-08,NaN,-0.4342034,1.607966E-06,-0.5139728,-1.03891E-08,NaN,NaN,-0.01983751,2.514568E-10,1.411334E-07,-1.164133E-07,-1.483947E-08,-2.622604E-08
