JMolnar6/NonAnthroHands_User_Study/HandsLoggerWithURDF/tempdata/files/Reachy_JointMotion_gesture_3_12.csv
Time,r_shoulder,r_shoulder_x,r_upper_arm,r_forearm,r_wrist,r_wrist2hand,
136.5047,0.04504839,-2.862781E-08,NaN,-0.3271612,-1.37639E-07,NaN,0.2758748,5.600912E-08,NaN,-2.150448,4.692149E-06,-0.3666624,-1.829278E-08,NaN,NaN,-0.02003348,-2.002351E-10,-5.765711E-07,-1.151341E-07,-3.450438E-08,-2.861022E-08
136.5208,0.04504822,-2.862666E-08,NaN,-0.3271605,-1.376386E-07,NaN,0.2761976,5.603207E-08,NaN,-2.15041,4.692839E-06,-0.3665438,-1.83133E-08,NaN,NaN,-0.0200331,-1.955785E-10,-5.718027E-07,-1.151327E-07,-3.212019E-08,-2.622604E-08
136.5374,0.04504822,-2.862666E-08,NaN,-0.3271605,-1.376386E-07,NaN,0.2761976,5.603207E-08,NaN,-2.15041,4.692839E-06,-0.3665438,-1.83133E-08,NaN,NaN,-0.0200331,-1.955785E-10,-5.718027E-07,-1.151327E-07,-3.212019E-08,-2.622604E-08
136.5525,0.04504805,-2.86255E-08,NaN,-0.3271599,-1.376382E-07,NaN,0.2772545,5.605473E-08,NaN,-2.150452,4.693537E-06,-0.3673322,-1.833354E-08,NaN,NaN,-0.02003547,-2.002351E-10,-6.085341E-07,-1.151313E-07,-3.569647E-08,-2.861022E-08
136.5691,0.04504788,-2.862435E-08,NaN,-0.3271593,-1.376377E-07,NaN,0.2791366,5.607783E-08,NaN,-2.150517,4.694226E-06,-0.3679756,-1.835421E-08,NaN,NaN,-0.02003735,-1.955785E-10,-6.358405E-07,-1.151299E-07,-3.331228E-08,-2.622604E-08
136.5854,0.04504771,-2.862319E-08,NaN,-0.3271587,-1.376367E-07,NaN,0.2814561,5.603614E-08,NaN,-2.150572,4.694916E-06,-0.3684086,-1.83101E-08,NaN,NaN,-0.0200386,-2.002351E-10,-6.549885E-07,-1.151278E-07,-3.212019E-08,-2.861022E-08
136.6012,0.04504754,-2.862204E-08,NaN,-0.327158,-1.376354E-07,NaN,0.2839621,5.596461E-08,NaN,-2.150614,4.695591E-06,-0.3687167,-1.823613E-08,NaN,NaN,-0.02003948,-1.955785E-10,-6.695637E-07,-1.151254E-07,-3.331228E-08,-2.622604E-08
136.6175,0.04504754,-2.862204E-08,NaN,-0.327158,-1.376354E-07,NaN,0.2839621,5.596461E-08,NaN,-2.150614,4.695591E-06,-0.3687167,-1.823613E-08,NaN,NaN,-0.02003948,-1.955785E-10,-6.695637E-07,-1.151254E-07,-3.331228E-08,-2.622604E-08
136.6324,0.04504738,-2.862089E-08,NaN,-0.3271574,-1.376337E-07,NaN,0.2857923,5.587783E-08,NaN,-2.150563,4.696271E-06,-0.3680547,-1.814691E-08,NaN,NaN,-0.02003742,-1.955785E-10,-6.395006E-07,-1.151228E-07,-3.331228E-08,-2.861022E-08
136.6489,0.04504721,-2.861973E-08,NaN,-0.3271568,-1.37632E-07,NaN,0.2867986,5.578383E-08,NaN,-2.150482,4.696942E-06,-0.3675042,-1.805046E-08,NaN,NaN,-0.02003576,-1.862652E-10,-6.154166E-07,-1.151201E-07,-2.9736E-08,-2.622604E-08
136.6647,0.04504705,-2.861858E-08,NaN,-0.3271562,-1.376301E-07,NaN,0.2873443,5.568623E-08,NaN,-2.150405,4.697622E-06,-0.3671452,-1.79504E-08,NaN,NaN,-0.02003468,-1.862652E-10,-5.999939E-07,-1.151174E-07,-2.9736E-08,-2.861022E-08
136.6807,0.04504688,-2.861742E-08,NaN,-0.3271556,-1.376282E-07,NaN,0.2876699,5.558863E-08,NaN,-2.150339,4.698301E-06,-0.3668988,-1.785034E-08,NaN,NaN,-0.02003395,-1.862652E-10,-5.888926E-07,-1.151147E-07,-2.377554E-08,-2.622604E-08
136.6963,0.04504688,-2.861742E-08,NaN,-0.3271556,-1.376282E-07,NaN,0.2876699,5.558863E-08,NaN,-2.150339,4.698301E-06,-0.3668988,-1.785034E-08,NaN,NaN,-0.02003395,-1.862652E-10,-5.888926E-07,-1.151147E-07,-2.377554E-08,-2.622604E-08
136.7116,0.04504673,-2.861627E-08,NaN,-0.327155,-1.376263E-07,NaN,0.2871566,5.5491E-08,NaN,-2.150202,4.698981E-06,-0.3658027,-1.775025E-08,NaN,NaN,-0.02003063,-1.862652E-10,-5.389364E-07,-1.15112E-07,-2.139135E-08,-2.861022E-08
136.7281,0.04504657,-2.861512E-08,NaN,-0.3271544,-1.376244E-07,NaN,0.2857676,5.539476E-08,NaN,-2.150052,4.699661E-06,-0.36488,-1.765155E-08,NaN,NaN,-0.02002789,-1.862652E-10,-4.974367E-07,-1.151093E-07,-1.900717E-08,-2.622604E-08
136.7437,0.04504642,-2.861397E-08,NaN,-0.3271538,-1.376224E-07,NaN,0.283915,5.530059E-08,NaN,-2.149915,4.700341E-06,-0.3641825,-1.75549E-08,NaN,NaN,-0.02002582,-1.862652E-10,-4.653992E-07,-1.151065E-07,-1.900717E-08,-2.861022E-08
136.7594,0.04504642,-2.861397E-08,NaN,-0.3271538,-1.376224E-07,NaN,0.283915,5.530059E-08,NaN,-2.149915,4.700341E-06,-0.3641825,-1.75549E-08,NaN,NaN,-0.02002582,-1.862652E-10,-4.653992E-07,-1.151065E-07,-1.900717E-08,-2.861022E-08
136.7742,0.04504626,-2.861281E-08,NaN,-0.3271532,-1.376205E-07,NaN,0.2811202,5.520913E-08,NaN,-2.149716,4.701021E-06,-0.3627132,-1.746097E-08,NaN,NaN,-0.02002143,-1.862652E-10,-3.981205E-07,-1.151038E-07,-1.900717E-08,-2.622604E-08
136.7907,0.04504611,-2.861166E-08,NaN,-0.3271526,-1.376186E-07,NaN,0.2774208,5.512034E-08,NaN,-2.149512,4.701701E-06,-0.3614627,-1.736971E-08,NaN,NaN,-0.02001773,-1.862652E-10,-3.409E-07,-1.151011E-07,-2.139135E-08,-2.861022E-08
136.8062,0.04504596,-2.861051E-08,NaN,-0.327152,-1.376166E-07,NaN,0.2732637,5.503417E-08,NaN,-2.149327,4.702371E-06,-0.3604641,-1.728107E-08,NaN,NaN,-0.02001479,-1.76952E-10,-2.950044E-07,-1.150984E-07,-1.900717E-08,-2.622604E-08
136.8221,0.0450458,-2.860935E-08,NaN,-0.3271514,-1.376147E-07,NaN,0.2689255,5.495056E-08,NaN,-2.149164,4.703051E-06,-0.3596169,-1.719499E-08,NaN,NaN,-0.0200123,-1.76952E-10,-2.558889E-07,-1.150957E-07,-2.019926E-08,-2.861022E-08
136.8392,0.0450458,-2.860935E-08,NaN,-0.3271514,-1.376147E-07,NaN,0.2689255,5.495056E-08,NaN,-2.149164,4.703051E-06,-0.3596169,-1.719499E-08,NaN,NaN,-0.0200123,-1.76952E-10,-2.558889E-07,-1.150957E-07,-2.019926E-08,-2.861022E-08
136.853,0.04504566,-2.86082E-08,NaN,-0.3271509,-1.376128E-07,NaN,0.2637988,5.486947E-08,NaN,-2.148937,4.703722E-06,-0.3579485,-1.711142E-08,NaN,NaN,-0.02000734,-1.676388E-10,-1.791479E-07,-1.15093E-07,-1.781508E-08,-2.622604E-08
136.869,0.04504551,-2.860705E-08,NaN,-0.3271503,-1.376109E-07,NaN,0.2578542,5.479083E-08,NaN,-2.148705,4.704402E-06,-0.3564804,-1.70303E-08,NaN,NaN,-0.02000304,-1.676388E-10,-1.117947E-07,-1.150903E-07,-1.662298E-08,-2.861022E-08
136.8846,0.04504536,-2.86059E-08,NaN,-0.3271497,-1.376089E-07,NaN,0.2515077,5.471461E-08,NaN,-2.148491,4.705082E-06,-0.3552604,-1.695161E-08,NaN,NaN,-0.01999947,-1.676388E-10,-5.710741E-08,-1.150876E-07,-1.781508E-08,-2.622604E-08
136.9003,0.04504521,-2.860474E-08,NaN,-0.3271492,-1.37607E-07,NaN,0.2450214,5.464075E-08,NaN,-2.148299,4.705762E-06,-0.3541951,-1.687528E-08,NaN,NaN,-0.01999636,-1.676388E-10,-9.423697E-09,-1.15085E-07,-1.781508E-08,-2.861022E-08
136.9159,0.04504521,-2.860474E-08,NaN,-0.3271492,-1.37607E-07,NaN,0.2450214,5.464075E-08,NaN,-2.148299,4.705762E-06,-0.3541951,-1.687528E-08,NaN,NaN,-0.01999636,-1.676388E-10,-9.423697E-09,-1.15085E-07,-1.781508E-08,-2.861022E-08
136.931,0.04504506,-2.860359E-08,NaN,-0.3271486,-1.376051E-07,NaN,0.2377791,5.456922E-08,NaN,-2.148044,4.706437E-06,-0.3523148,-1.680126E-08,NaN,NaN,-0.01999083,-1.629822E-10,7.670501E-08,-1.150823E-07,-2.139136E-08,-2.622604E-08
136.9474,0.04504492,-2.860244E-08,NaN,-0.3271481,-1.376032E-07,NaN,0.2297492,5.449996E-08,NaN,-2.147785,4.707112E-06,-0.3506441,-1.672953E-08,NaN,NaN,-0.01998598,-1.583255E-10,1.555321E-07,-1.150796E-07,-2.019926E-08,-2.861022E-08
136.9629,0.04504477,-2.860129E-08,NaN,-0.3271475,-1.376013E-07,NaN,0.2213476,5.443222E-08,NaN,-2.147547,4.707787E-06,-0.3492301,-1.665931E-08,NaN,NaN,-0.01998189,-1.536689E-10,2.205012E-07,-1.15077E-07,-2.139136E-08,-2.622604E-08
136.979,0.04504477,-2.860129E-08,NaN,-0.3271475,-1.376013E-07,NaN,0.2213476,5.443222E-08,NaN,-2.147547,4.707787E-06,-0.3492301,-1.665931E-08,NaN,NaN,-0.01998189,-1.536689E-10,2.205012E-07,-1.15077E-07,-2.139136E-08,-2.622604E-08
136.9937,0.04504463,-2.860014E-08,NaN,-0.3271469,-1.375995E-07,NaN,0.2128357,5.436739E-08,NaN,-2.14733,4.708463E-06,-0.347979,-1.6592E-08,NaN,NaN,-0.01997827,-1.490123E-10,2.778707E-07,-1.150744E-07,-1.900717E-08,-2.861022E-08
137.0103,0.04504449,-2.859899E-08,NaN,-0.3271464,-1.375976E-07,NaN,0.2035938,5.430471E-08,NaN,-2.147053,4.709138E-06,-0.3459206,-1.652684E-08,NaN,NaN,-0.01997229,-1.443557E-10,3.756223E-07,-1.150718E-07,-2.019926E-08,-2.622604E-08
137.0259,0.04504434,-2.859784E-08,NaN,-0.3271458,-1.375957E-07,NaN,0.1935914,5.424412E-08,NaN,-2.146775,4.709813E-06,-0.3440814,-1.646377E-08,NaN,NaN,-0.01996701,-1.396991E-10,4.583237E-07,-1.150691E-07,-1.42388E-08,-2.861022E-08
137.0415,0.0450442,-2.859668E-08,NaN,-0.3271452,-1.375938E-07,NaN,0.1832453,5.418559E-08,NaN,-2.146518,4.710489E-06,-0.3425071,-1.640276E-08,NaN,NaN,-0.01996251,-1.350425E-10,5.289552E-07,-1.150665E-07,-1.066252E-08,-2.622604E-08
137.0575,0.0450442,-2.859668E-08,NaN,-0.3271452,-1.375938E-07,NaN,0.1832453,5.418559E-08,NaN,-2.146518,4.710489E-06,-0.3425071,-1.640276E-08,NaN,NaN,-0.01996251,-1.350425E-10,5.289552E-07,-1.150665E-07,-1.066252E-08,-2.622604E-08
137.0725,0.04504406,-2.859553E-08,NaN,-0.3271447,-1.37592E-07,NaN,0.1728165,5.412907E-08,NaN,-2.146283,4.711159E-06,-0.3411032,-1.634376E-08,NaN,NaN,-0.0199585,-1.303859E-10,5.942223E-07,-1.15064E-07,-1.185461E-08,-2.861022E-08
137.0902,0.04504392,-2.859438E-08,NaN,-0.3271441,-1.375901E-07,NaN,0.1616822,5.407453E-08,NaN,-2.14599,4.71183E-06,-0.3388986,-1.628673E-08,NaN,NaN,-0.01995218,-1.303859E-10,6.997226E-07,-1.150614E-07,-9.470428E-09,-2.622604E-08
137.1053,0.04504379,-2.859323E-08,NaN,-0.3271436,-1.375883E-07,NaN,0.1498128,5.402192E-08,NaN,-2.145698,4.712496E-06,-0.3369224,-1.623164E-08,NaN,NaN,-0.01994658,-1.257293E-10,7.94792E-07,-1.150588E-07,-5.894149E-09,-2.861022E-08
137.1215,0.04504365,-2.859208E-08,NaN,-0.327143,-1.375864E-07,NaN,0.1376263,5.397122E-08,NaN,-2.145428,4.713162E-06,-0.3352183,-1.617846E-08,NaN,NaN,-0.01994177,-1.210727E-10,8.746622E-07,-1.150562E-07,-9.470428E-09,-2.622604E-08
137.1379,0.04504365,-2.859208E-08,NaN,-0.327143,-1.375864E-07,NaN,0.1376263,5.397122E-08,NaN,-2.145428,4.713162E-06,-0.3352183,-1.617846E-08,NaN,NaN,-0.01994177,-1.210727E-10,8.746622E-07,-1.150562E-07,-9.470428E-09,-2.622604E-08
137.1537,0.04504351,-2.859093E-08,NaN,-0.3271425,-1.375846E-07,NaN,0.1253836,5.392238E-08,NaN,-2.145182,4.713827E-06,-0.3336911,-1.612714E-08,NaN,NaN,-0.01993748,-1.164161E-10,9.508072E-07,-1.150537E-07,-1.662299E-08,-2.861022E-08
137.1709,0.04504338,-2.858978E-08,NaN,-0.327142,-1.375827E-07,NaN,0.1124582,5.387537E-08,NaN,-2.144878,4.714493E-06,-0.3313691,-1.607765E-08,NaN,NaN,-0.01993092,-1.117595E-10,1.061225E-06,-1.150511E-07,-1.543089E-08,-2.622604E-08
137.1876,0.04504324,-2.858863E-08,NaN,-0.3271414,-1.375809E-07,NaN,0.09882182,5.383086E-08,NaN,-2.144578,4.715154E-06,-0.3292838,-1.603065E-08,NaN,NaN,-0.0199251,-1.024462E-10,1.159721E-06,-1.150486E-07,-8.278334E-09,-2.861022E-08
137.2035,0.0450431,-2.858748E-08,NaN,-0.3271409,-1.375791E-07,NaN,0.0848937,5.378808E-08,NaN,-2.144301,4.715825E-06,-0.327477,-1.59854E-08,NaN,NaN,-0.01992008,-1.024462E-10,1.247489E-06,-1.150461E-07,-3.509963E-09,-2.622604E-08
137.2202,0.04504297,-2.858633E-08,NaN,-0.3271404,-1.375773E-07,NaN,0.07093464,5.368553E-08,NaN,-2.144047,4.716491E-06,-0.325853,-1.588037E-08,NaN,NaN,-0.01991559,-9.778962E-11,1.325869E-06,-1.150435E-07,2.450501E-09,-2.861022E-08
137.2369,0.04504297,-2.858633E-08,NaN,-0.3271404,-1.375773E-07,NaN,0.07093464,5.368553E-08,NaN,-2.144047,4.716491E-06,-0.325853,-1.588037E-08,NaN,NaN,-0.01991559,-9.778962E-11,1.325869E-06,-1.150435E-07,2.450501E-09,-2.861022E-08
137.2532,0.04504283,-2.858518E-08,NaN,-0.3271398,-1.375755E-07,NaN,0.05631441,5.364664E-08,NaN,-2.143739,4.717162E-06,-0.3234393,-1.5839E-08,NaN,NaN,-0.0199089,-9.778962E-11,1.443291E-06,-1.15041E-07,8.410965E-09,-2.622604E-08
137.2704,0.0450427,-2.858403E-08,NaN,-0.3271393,-1.375737E-07,NaN,0.04100599,5.360939E-08,NaN,-2.143435,4.717827E-06,-0.3212699,-1.579927E-08,NaN,NaN,-0.01990296,-9.3133E-11,1.54894E-06,-1.150385E-07,2.450501E-09,-2.861022E-08
137.2868,0.04504256,-2.858288E-08,NaN,-0.3271388,-1.375718E-07,NaN,0.02543004,5.357374E-08,NaN,-2.143156,4.718498E-06,-0.3193847,-1.576113E-08,NaN,NaN,-0.01989783,-9.3133E-11,1.639539E-06,-1.15036E-07,1.258408E-09,-2.622604E-08
137.3033,0.04504243,-2.858173E-08,NaN,-0.3271382,-1.375701E-07,NaN,0.009847173,5.353965E-08,NaN,-2.1429,4.719164E-06,-0.3176873,-1.572456E-08,NaN,NaN,-0.01989323,-8.847639E-11,1.718813E-06,-1.150335E-07,-1.125777E-09,-2.861022E-08
137.3204,0.0450423,-2.858059E-08,NaN,-0.3271377,-1.375683E-07,NaN,-0.006376557,5.35071E-08,NaN,-2.142591,4.719835E-06,-0.3152047,-1.568954E-08,NaN,NaN,-0.01988648,-8.847639E-11,1.839065E-06,-1.15031E-07,6.63154E-11,-2.622604E-08
137.3391,0.0450423,-2.858059E-08,NaN,-0.3271377,-1.375683E-07,NaN,-0.006376557,5.35071E-08,NaN,-2.142591,4.719835E-06,-0.3152047,-1.568954E-08,NaN,NaN,-0.01988648,-8.847639E-11,1.839065E-06,-1.15031E-07,6.63154E-11,-2.622604E-08
137.3529,0.04504217,-2.857944E-08,NaN,-0.3271371,-1.375665E-07,NaN,-0.02326683,5.347607E-08,NaN,-2.142289,4.7205E-06,-0.3129732,-1.565602E-08,NaN,NaN,-0.01988049,-8.381977E-11,1.948291E-06,-1.150286E-07,-3.509963E-09,-2.861022E-08
137.3698,0.04504204,-2.857829E-08,NaN,-0.3271366,-1.375647E-07,NaN,-0.04040156,5.344651E-08,NaN,-2.142011,4.721171E-06,-0.311031,-1.562398E-08,NaN,NaN,-0.01987531,-8.381977E-11,2.041125E-06,-1.150261E-07,-5.894149E-09,-2.622604E-08
137.3861,0.04504191,-2.857714E-08,NaN,-0.3271361,-1.375629E-07,NaN,-0.0575203,5.34184E-08,NaN,-2.141757,4.721837E-06,-0.309281,-1.55934E-08,NaN,NaN,-0.01987067,-7.916316E-11,2.127552E-06,-1.150237E-07,-8.278334E-09,-2.861022E-08
137.4023,0.04504178,-2.857599E-08,NaN,-0.3271356,-1.375611E-07,NaN,-0.07526075,5.339172E-08,NaN,-2.141453,4.722508E-06,-0.3067496,-1.556423E-08,NaN,NaN,-0.01986394,-7.916316E-11,2.25138E-06,-1.150212E-07,-9.470427E-09,-2.622604E-08
137.418,0.04504178,-2.857599E-08,NaN,-0.3271356,-1.375611E-07,NaN,-0.07526075,5.339172E-08,NaN,-2.141453,4.722508E-06,-0.3067496,-1.556423E-08,NaN,NaN,-0.01986394,-7.916316E-11,2.25138E-06,-1.150212E-07,-9.470427E-09,-2.622604E-08
137.4337,0.04504165,-2.857485E-08,NaN,-0.3271351,-1.375594E-07,NaN,-0.09364717,5.336643E-08,NaN,-2.141155,4.723173E-06,-0.3044756,-1.553646E-08,NaN,NaN,-0.01985797,-7.450654E-11,2.357179E-06,-1.150188E-07,-1.066252E-08,-2.861022E-08
137.4502,0.04504153,-2.85737E-08,NaN,-0.3271345,-1.375576E-07,NaN,-0.1122561,5.33425E-08,NaN,-2.140883,4.723844E-06,-0.3024954,-1.551005E-08,NaN,NaN,-0.01985282,-7.450654E-11,2.452248E-06,-1.150163E-07,-1.662298E-08,-2.622604E-08
137.4664,0.0450414,-2.857255E-08,NaN,-0.327134,-1.375559E-07,NaN,-0.1308272,5.331992E-08,NaN,-2.140635,4.72451E-06,-0.3007111,-1.548498E-08,NaN,NaN,-0.01984821,-6.984992E-11,2.541506E-06,-1.150139E-07,-1.42388E-08,-2.861022E-08
137.482,0.04504127,-2.85714E-08,NaN,-0.3271335,-1.375541E-07,NaN,-0.150002,5.329935E-08,NaN,-2.140337,4.725181E-06,-0.2981487,-1.546194E-08,NaN,NaN,-0.01984156,-6.984992E-11,2.666974E-06,-1.150115E-07,-1.42388E-08,-2.622604E-08
137.4977,0.04504127,-2.85714E-08,NaN,-0.3271335,-1.375541E-07,NaN,-0.150002,5.329935E-08,NaN,-2.140337,4.725181E-06,-0.2981487,-1.546194E-08,NaN,NaN,-0.01984156,-6.984992E-11,2.666974E-06,-1.150115E-07,-1.42388E-08,-2.622604E-08
137.5131,0.04504115,-2.857026E-08,NaN,-0.327133,-1.375524E-07,NaN,-0.1698031,5.327935E-08,NaN,-2.140049,4.725846E-06,-0.2958494,-1.543946E-08,NaN,NaN,-0.01983568,-6.519331E-11,2.781415E-06,-1.150091E-07,-1.304671E-08,-2.861022E-08
137.5294,0.04504103,-2.856911E-08,NaN,-0.3271325,-1.375506E-07,NaN,-0.1898059,5.319829E-08,NaN,-2.139785,4.726517E-06,-0.2938478,-1.535592E-08,NaN,NaN,-0.01983062,-6.519331E-11,2.880657E-06,-1.150067E-07,-1.185461E-08,-2.622604E-08
137.5467,0.0450409,-2.856796E-08,NaN,-0.327132,-1.375489E-07,NaN,-0.2097501,5.312039E-08,NaN,-2.139546,4.727183E-06,-0.2920454,-1.527554E-08,NaN,NaN,-0.01982611,-6.053669E-11,2.971852E-06,-1.150043E-07,-1.304671E-08,-2.861022E-08
137.561,0.04504078,-2.856682E-08,NaN,-0.3271315,-1.375472E-07,NaN,-0.2295124,5.304488E-08,NaN,-2.139326,4.727854E-06,-0.2903773,-1.519755E-08,NaN,NaN,-0.01982197,-6.053669E-11,3.055596E-06,-1.15002E-07,-1.304671E-08,-2.622604E-08
137.5769,0.04504078,-2.856682E-08,NaN,-0.3271315,-1.375472E-07,NaN,-0.2295124,5.304488E-08,NaN,-2.139326,4.727854E-06,-0.2903773,-1.519755E-08,NaN,NaN,-0.01982197,-6.053669E-11,3.055596E-06,-1.15002E-07,-1.304671E-08,-2.622604E-08
137.5919,0.04504065,-2.856567E-08,NaN,-0.327131,-1.375455E-07,NaN,-0.2490395,5.297171E-08,NaN,-2.139123,4.728524E-06,-0.2888114,-1.51219E-08,NaN,NaN,-0.01981811,-6.053669E-11,3.135913E-06,-1.149996E-07,-7.086242E-09,-2.861022E-08
137.6083,0.04504052,-2.856452E-08,NaN,-0.3271305,-1.375437E-07,NaN,-0.2683099,5.290084E-08,NaN,-2.138934,4.729195E-06,-0.2873318,-1.504855E-08,NaN,NaN,-0.01981449,-6.053669E-11,3.208929E-06,-1.149972E-07,-8.278334E-09,-2.622604E-08
137.6239,0.0450404,-2.856338E-08,NaN,-0.32713,-1.37542E-07,NaN,-0.2873166,5.283222E-08,NaN,-2.138757,4.729866E-06,-0.2859302,-1.497745E-08,NaN,NaN,-0.01981109,-6.053669E-11,3.279858E-06,-1.149949E-07,-7.086242E-09,-2.861022E-08
137.6397,0.0450404,-2.856338E-08,NaN,-0.32713,-1.37542E-07,NaN,-0.2873166,5.283222E-08,NaN,-2.138757,4.729866E-06,-0.2859302,-1.497745E-08,NaN,NaN,-0.01981109,-6.053669E-11,3.279858E-06,-1.149949E-07,-7.086242E-09,-2.861022E-08
137.6546,0.04504027,-2.856223E-08,NaN,-0.3271295,-1.375403E-07,NaN,-0.3060583,5.276581E-08,NaN,-2.138591,4.730537E-06,-0.284602,-1.490856E-08,NaN,NaN,-0.0198079,-6.053669E-11,3.347361E-06,-1.149925E-07,-1.185461E-08,-2.622604E-08
137.6708,0.04504015,-2.856109E-08,NaN,-0.327129,-1.375386E-07,NaN,-0.3245368,5.270156E-08,NaN,-2.138436,4.731207E-06,-0.2833439,-1.484183E-08,NaN,NaN,-0.0198049,-6.053669E-11,3.410542E-06,-1.149902E-07,-1.42388E-08,-2.861022E-08
137.6867,0.04504002,-2.855994E-08,NaN,-0.3271285,-1.375369E-07,NaN,-0.3427546,5.263943E-08,NaN,-2.138291,4.731878E-06,-0.2821533,-1.477723E-08,NaN,NaN,-0.01980207,-6.053669E-11,3.470295E-06,-1.149879E-07,-1.304671E-08,-2.622604E-08
137.7022,0.0450399,-2.85588E-08,NaN,-0.327128,-1.375348E-07,NaN,-0.3607148,5.255869E-08,NaN,-2.138156,4.732549E-06,-0.2810282,-1.4694E-08,NaN,NaN,-0.01979944,-6.053669E-11,3.526324E-06,-1.14988E-07,-1.304671E-08,-2.861022E-08
137.718,0.0450399,-2.85588E-08,NaN,-0.327128,-1.375348E-07,NaN,-0.3607148,5.255869E-08,NaN,-2.138156,4.732549E-06,-0.2810282,-1.4694E-08,NaN,NaN,-0.01979944,-6.053669E-11,3.526324E-06,-1.14988E-07,-1.304671E-08,-2.861022E-08
137.7328,0.04503978,-2.855765E-08,NaN,-0.3271275,-1.37533E-07,NaN,-0.3784206,5.251964E-08,NaN,-2.13803,4.73321E-06,-0.2799664,-1.465246E-08,NaN,NaN,-0.01979697,-5.122347E-11,3.580415E-06,-1.149886E-07,-1.304671E-08,-2.622604E-08
137.7493,0.04503965,-2.855651E-08,NaN,-0.327127,-1.375316E-07,NaN,-0.3958753,5.250253E-08,NaN,-2.137913,4.733881E-06,-0.278966,-1.463288E-08,NaN,NaN,-0.01979467,-5.122347E-11,3.631079E-06,-1.149894E-07,-9.470427E-09,-2.861022E-08
137.7647,0.04503953,-2.855537E-08,NaN,-0.3271265,-1.375304E-07,NaN,-0.4130822,5.249781E-08,NaN,-2.137805,4.734542E-06,-0.2780252,-1.462569E-08,NaN,NaN,-0.01979253,-4.191025E-11,3.680998E-06,-1.149903E-07,-1.066252E-08,-2.622604E-08
137.7805,0.04503941,-2.855422E-08,NaN,-0.327126,-1.375292E-07,NaN,-0.4300446,5.250035E-08,NaN,-2.137706,4.735213E-06,-0.2771421,-1.462575E-08,NaN,NaN,-0.01979054,-4.191025E-11,3.724658E-06,-1.149912E-07,-1.304671E-08,-2.861022E-08
137.7963,0.04503941,-2.855422E-08,NaN,-0.327126,-1.375292E-07,NaN,-0.4300446,5.250035E-08,NaN,-2.137706,4.735213E-06,-0.2771421,-1.462575E-08,NaN,NaN,-0.01979054,-4.191025E-11,3.724658E-06,-1.149912E-07,-1.304671E-08,-2.861022E-08
137.8115,0.04503928,-2.855308E-08,NaN,-0.3271255,-1.375281E-07,NaN,-0.4467657,5.250719E-08,NaN,-2.137615,4.735874E-06,-0.2763151,-1.463012E-08,NaN,NaN,-0.0197887,-3.259702E-11,3.769213E-06,-1.149922E-07,-1.781508E-08,-2.622604E-08
137.8277,0.04503916,-2.855193E-08,NaN,-0.3271251,-1.375271E-07,NaN,-0.4632487,5.251615E-08,NaN,-2.137532,4.736545E-06,-0.2755424,-1.463661E-08,NaN,NaN,-0.019787,-3.259702E-11,3.809893E-06,-1.149932E-07,-1.30467E-08,-2.861022E-08
137.8465,0.04503904,-2.855079E-08,NaN,-0.3271246,-1.375261E-07,NaN,-0.4794969,5.252578E-08,NaN,-2.137456,4.737206E-06,-0.2748223,-1.464377E-08,NaN,NaN,-0.01978543,-2.32838E-11,3.848338E-06,-1.149943E-07,-5.894147E-09,-2.622604E-08
137.8607,0.04503892,-2.854965E-08,NaN,-0.3271241,-1.375251E-07,NaN,-0.4955133,5.253607E-08,NaN,-2.137388,4.737877E-06,-0.2741532,-1.465159E-08,NaN,NaN,-0.019784,-2.32838E-11,3.883206E-06,-1.149953E-07,-3.509961E-09,-2.861022E-08
137.8747,0.04503892,-2.854965E-08,NaN,-0.3271241,-1.375251E-07,NaN,-0.4955133,5.253607E-08,NaN,-2.137388,4.737877E-06,-0.2741532,-1.465159E-08,NaN,NaN,-0.019784,-2.32838E-11,3.883206E-06,-1.149953E-07,-3.509961E-09,-2.861022E-08
137.8896,0.04503879,-2.85485E-08,NaN,-0.3271236,-1.375241E-07,NaN,-0.5113011,5.25463E-08,NaN,-2.137327,4.738538E-06,-0.2735336,-1.465936E-08,NaN,NaN,-0.01978269,-1.397057E-11,3.917777E-06,-1.149963E-07,-3.509961E-09,-2.622604E-08
137.9056,0.04503867,-2.854736E-08,NaN,-0.3271232,-1.375231E-07,NaN,-0.5268634,5.255648E-08,NaN,-2.137273,4.739209E-06,-0.2729619,-1.466708E-08,NaN,NaN,-0.0197815,-1.397057E-11,3.94907E-06,-1.149973E-07,-8.278333E-09,-2.861022E-08
137.9215,0.04503855,-2.854622E-08,NaN,-0.3271227,-1.375221E-07,NaN,-0.5422032,5.256661E-08,NaN,-2.137226,4.73987E-06,-0.2724367,-1.467474E-08,NaN,NaN,-0.01978043,-4.657346E-12,3.978723E-06,-1.149984E-07,-1.30467E-08,-2.622604E-08
137.9369,0.04503855,-2.854622E-08,NaN,-0.3271227,-1.375221E-07,NaN,-0.5422032,5.256661E-08,NaN,-2.137226,4.73987E-06,-0.2724367,-1.467474E-08,NaN,NaN,-0.01978043,-4.657346E-12,3.978723E-06,-1.149984E-07,-1.30467E-08,-2.622604E-08
137.9522,0.04503842,-2.854508E-08,NaN,-0.3271222,-1.375211E-07,NaN,-0.5573235,5.257598E-08,NaN,-2.137185,4.740541E-06,-0.2719564,-1.468165E-08,NaN,NaN,-0.01977947,-4.657346E-12,4.006588E-06,-1.149994E-07,-1.781508E-08,-2.861022E-08
137.9683,0.0450383,-2.854394E-08,NaN,-0.3271217,-1.375202E-07,NaN,-0.5722273,5.258531E-08,NaN,-2.137151,4.741202E-06,-0.2715196,-1.468853E-08,NaN,NaN,-0.01977862,-7.329207E-16,4.031622E-06,-1.150004E-07,-1.30467E-08,-2.622604E-08
137.9839,0.04503818,-2.854279E-08,NaN,-0.3271213,-1.375192E-07,NaN,-0.5869176,5.259461E-08,NaN,-2.137123,4.741868E-06,-0.271125,-1.469537E-08,NaN,NaN,-0.01977787,-7.329207E-16,4.055762E-06,-1.150014E-07,-1.543089E-08,-2.861022E-08
137.9996,0.04503818,-2.854279E-08,NaN,-0.3271213,-1.375192E-07,NaN,-0.5869176,5.259461E-08,NaN,-2.137123,4.741868E-06,-0.271125,-1.469537E-08,NaN,NaN,-0.01977787,-7.329207E-16,4.055762E-06,-1.150014E-07,-1.543089E-08,-2.861022E-08
138.0149,0.04503806,-2.854165E-08,NaN,-0.3271208,-1.375182E-07,NaN,-0.6013972,5.266571E-08,NaN,-2.137101,4.74252E-06,-0.2707713,-1.476401E-08,NaN,NaN,-0.01977722,1.396911E-11,4.077964E-06,-1.150024E-07,-1.543089E-08,-2.622604E-08
138.031,0.04503794,-2.854051E-08,NaN,-0.3271203,-1.375173E-07,NaN,-0.6156691,5.273487E-08,NaN,-2.137084,4.743181E-06,-0.270457,-1.48307E-08,NaN,NaN,-0.01977666,1.862572E-11,4.095846E-06,-1.150034E-07,-1.543089E-08,-2.861022E-08
138.047,0.04503782,-2.853937E-08,NaN,-0.3271198,-1.375163E-07,NaN,-0.629736,5.274098E-08,NaN,-2.137074,4.743833E-06,-0.270181,-1.483435E-08,NaN,NaN,-0.0197762,3.259556E-11,4.113727E-06,-1.150044E-07,-1.066252E-08,-2.622604E-08
138.0625,0.0450377,-2.853823E-08,NaN,-0.3271194,-1.375154E-07,NaN,-0.6436008,5.274712E-08,NaN,-2.137068,4.744494E-06,-0.2699419,-1.483804E-08,NaN,NaN,-0.01977582,3.725217E-11,4.13146E-06,-1.150054E-07,-1.066252E-08,-2.861022E-08
138.0786,0.0450377,-2.853823E-08,NaN,-0.3271194,-1.375154E-07,NaN,-0.6436008,5.274712E-08,NaN,-2.137068,4.744494E-06,-0.2699419,-1.483804E-08,NaN,NaN,-0.01977582,3.725217E-11,4.13146E-06,-1.150054E-07,-1.066252E-08,-2.861022E-08
138.0935,0.04503758,-2.853709E-08,NaN,-0.3271189,-1.375144E-07,NaN,-0.6572663,5.275258E-08,NaN,-2.137068,4.745146E-06,-0.2697387,-1.484104E-08,NaN,NaN,-0.01977553,5.122201E-11,4.145318E-06,-1.150064E-07,-1.066252E-08,-2.622604E-08
138.1097,0.04503746,-2.853595E-08,NaN,-0.3271184,-1.375135E-07,NaN,-0.6707351,5.275808E-08,NaN,-2.137073,4.745807E-06,-0.26957,-1.484409E-08,NaN,NaN,-0.01977533,5.587862E-11,4.157388E-06,-1.150074E-07,-1.304671E-08,-2.861022E-08
138.1253,0.04503734,-2.85348E-08,NaN,-0.327118,-1.375125E-07,NaN,-0.6840101,5.276363E-08,NaN,-2.137082,4.74646E-06,-0.2694348,-1.484718E-08,NaN,NaN,-0.0197752,6.984846E-11,4.166179E-06,-1.150084E-07,-1.304671E-08,-2.622604E-08
138.141,0.04503722,-2.853366E-08,NaN,-0.3271175,-1.375116E-07,NaN,-0.6970938,5.276851E-08,NaN,-2.137097,4.747121E-06,-0.2693319,-1.48496E-08,NaN,NaN,-0.01977515,7.450508E-11,4.174226E-06,-1.150093E-07,-1.304671E-08,-2.861022E-08
138.1569,0.04503722,-2.853366E-08,NaN,-0.3271175,-1.375116E-07,NaN,-0.6970938,5.276851E-08,NaN,-2.137097,4.747121E-06,-0.2693319,-1.48496E-08,NaN,NaN,-0.01977515,7.450508E-11,4.174226E-06,-1.150093E-07,-1.304671E-08,-2.861022E-08
138.172,0.0450371,-2.853252E-08,NaN,-0.3271171,-1.375107E-07,NaN,-0.709989,5.283533E-08,NaN,-2.137115,4.747773E-06,-0.2692603,-1.491397E-08,NaN,NaN,-0.01977517,8.847491E-11,4.180932E-06,-1.150103E-07,-1.066252E-08,-2.622604E-08
138.1885,0.04503698,-2.853138E-08,NaN,-0.3271166,-1.375097E-07,NaN,-0.7226982,5.2901E-08,NaN,-2.137139,4.748434E-06,-0.2692189,-1.497718E-08,NaN,NaN,-0.01977525,9.313153E-11,4.185402E-06,-1.150113E-07,-5.894148E-09,-2.861022E-08
138.2038,0.04503686,-2.853024E-08,NaN,-0.3271162,-1.375088E-07,NaN,-0.735224,5.290362E-08,NaN,-2.137167,4.749095E-06,-0.2692066,-1.497734E-08,NaN,NaN,-0.01977541,9.778815E-11,4.187637E-06,-1.150123E-07,-3.509963E-09,-2.622604E-08
138.2197,0.04503686,-2.853024E-08,NaN,-0.3271162,-1.375088E-07,NaN,-0.735224,5.290362E-08,NaN,-2.137167,4.749095E-06,-0.2692066,-1.497734E-08,NaN,NaN,-0.01977541,9.778815E-11,4.187637E-06,-1.150123E-07,-3.509963E-09,-2.622604E-08
138.2346,0.04503674,-2.85291E-08,NaN,-0.3271157,-1.375079E-07,NaN,-0.747569,5.290563E-08,NaN,-2.137198,4.749761E-06,-0.2692225,-1.497689E-08,NaN,NaN,-0.01977563,9.778815E-11,4.19017E-06,-1.150132E-07,1.258409E-09,-2.861022E-08
138.2507,0.04503663,-2.852797E-08,NaN,-0.3271153,-1.375069E-07,NaN,-0.7597356,5.290774E-08,NaN,-2.137234,4.750427E-06,-0.2692656,-1.497655E-08,NaN,NaN,-0.01977591,9.778815E-11,4.190319E-06,-1.150142E-07,-3.509963E-09,-2.622604E-08
138.2667,0.04503651,-2.852683E-08,NaN,-0.3271149,-1.37506E-07,NaN,-0.7717264,5.290926E-08,NaN,-2.137273,4.751093E-06,-0.2693349,-1.497561E-08,NaN,NaN,-0.01977625,9.778815E-11,4.189053E-06,-1.150152E-07,-1.125777E-09,-2.861022E-08
138.2829,0.04503639,-2.852569E-08,NaN,-0.3271144,-1.375051E-07,NaN,-0.7835438,5.291091E-08,NaN,-2.137316,4.751758E-06,-0.2694295,-1.49748E-08,NaN,NaN,-0.01977665,9.778815E-11,4.184955E-06,-1.150161E-07,1.258409E-09,-2.622604E-08
138.2987,0.04503639,-2.852569E-08,NaN,-0.3271144,-1.375051E-07,NaN,-0.7835438,5.291091E-08,NaN,-2.137316,4.751758E-06,-0.2694295,-1.49748E-08,NaN,NaN,-0.01977665,9.778815E-11,4.184955E-06,-1.150161E-07,1.258409E-09,-2.622604E-08
138.3144,0.04503627,-2.852455E-08,NaN,-0.327114,-1.375042E-07,NaN,-0.7951902,5.291196E-08,NaN,-2.137363,4.752424E-06,-0.2695485,-1.497339E-08,NaN,NaN,-0.0197771,9.778815E-11,4.180858E-06,-1.150171E-07,1.258409E-09,-2.861022E-08
138.3307,0.04503615,-2.852341E-08,NaN,-0.3271135,-1.375033E-07,NaN,-0.806668,5.29751E-08,NaN,-2.137413,4.75309E-06,-0.2696911,-1.503408E-08,NaN,NaN,-0.01977761,9.778815E-11,4.174972E-06,-1.15018E-07,-1.125777E-09,-2.622604E-08
138.3487,0.04503603,-2.852227E-08,NaN,-0.3271131,-1.375024E-07,NaN,-0.8179797,5.303647E-08,NaN,-2.137467,4.753756E-06,-0.2698563,-1.509299E-08,NaN,NaN,-0.01977816,9.778815E-11,4.16849E-06,-1.15019E-07,-8.278334E-09,-2.861022E-08
138.3633,0.04503591,-2.852113E-08,NaN,-0.3271126,-1.375014E-07,NaN,-0.8291274,5.309678E-08,NaN,-2.137523,4.754421E-06,-0.2700434,-1.515085E-08,NaN,NaN,-0.01977876,9.778815E-11,4.159698E-06,-1.150199E-07,-5.894149E-09,-2.622604E-08
138.3799,0.04503591,-2.852113E-08,NaN,-0.3271126,-1.375014E-07,NaN,-0.8291274,5.309678E-08,NaN,-2.137523,4.754421E-06,-0.2700434,-1.515085E-08,NaN,NaN,-0.01977876,9.778815E-11,4.159698E-06,-1.150199E-07,-5.894149E-09,-2.622604E-08
138.3954,0.0450358,-2.852E-08,NaN,-0.3271122,-1.375005E-07,NaN,-0.8401136,5.315608E-08,NaN,-2.137583,4.755087E-06,-0.2702515,-1.520769E-08,NaN,NaN,-0.0197794,9.778815E-11,4.151726E-06,-1.150209E-07,-5.894149E-09,-2.861022E-08
138.4128,0.04503568,-2.851886E-08,NaN,-0.3271117,-1.374996E-07,NaN,-0.8509404,5.321366E-08,NaN,-2.137645,4.755753E-06,-0.2704799,-1.526282E-08,NaN,NaN,-0.01978009,9.778815E-11,4.143158E-06,-1.150218E-07,-5.894149E-09,-2.622604E-08
138.4291,0.04503557,-2.851772E-08,NaN,-0.3271113,-1.374987E-07,NaN,-0.8616101,5.327027E-08,NaN,-2.137711,4.756419E-06,-0.2707277,-1.531697E-08,NaN,NaN,-0.01978082,9.778815E-11,4.135036E-06,-1.150227E-07,-3.509963E-09,-2.861022E-08
138.4454,0.04503545,-2.851658E-08,NaN,-0.3271108,-1.374978E-07,NaN,-0.872125,5.332593E-08,NaN,-2.137779,4.757084E-06,-0.2709943,-1.537018E-08,NaN,NaN,-0.01978159,9.778815E-11,4.126617E-06,-1.150237E-07,-3.509963E-09,-2.622604E-08
138.4622,0.04503534,-2.851544E-08,NaN,-0.3271104,-1.37497E-07,NaN,-0.8824871,5.337996E-08,NaN,-2.13785,4.75775E-06,-0.2712789,-1.542175E-08,NaN,NaN,-0.0197824,9.778815E-11,4.114175E-06,-1.150246E-07,-3.509963E-09,-2.861022E-08
138.479,0.04503534,-2.851544E-08,NaN,-0.3271104,-1.37497E-07,NaN,-0.8824871,5.337996E-08,NaN,-2.13785,4.75775E-06,-0.2712789,-1.542175E-08,NaN,NaN,-0.0197824,9.778815E-11,4.114175E-06,-1.150246E-07,-3.509963E-09,-2.861022E-08
138.4958,0.04503522,-2.851431E-08,NaN,-0.32711,-1.374961E-07,NaN,-0.8926987,5.343308E-08,NaN,-2.137923,4.758416E-06,-0.2715809,-1.547242E-08,NaN,NaN,-0.01978325,9.778815E-11,4.103148E-06,-1.150255E-07,-3.509963E-09,-2.622604E-08
138.5122,0.04503511,-2.851317E-08,NaN,-0.3271096,-1.374952E-07,NaN,-0.9027619,5.348532E-08,NaN,-2.137999,4.759082E-06,-0.2718995,-1.55222E-08,NaN,NaN,-0.01978413,9.778815E-11,4.090929E-06,-1.150264E-07,-3.509963E-09,-2.861022E-08
138.5287,0.04503499,-2.851203E-08,NaN,-0.3271092,-1.374943E-07,NaN,-0.9126788,5.347464E-08,NaN,-2.138077,4.759747E-06,-0.2722341,-1.550907E-08,NaN,NaN,-0.01978504,9.778815E-11,4.078934E-06,-1.150273E-07,-8.278334E-09,-2.622604E-08
138.5475,0.04503487,-2.851089E-08,NaN,-0.3271087,-1.374934E-07,NaN,-0.9224514,5.346362E-08,NaN,-2.138158,4.760413E-06,-0.2725839,-1.54956E-08,NaN,NaN,-0.01978599,9.778815E-11,4.064405E-06,-1.150283E-07,-8.278334E-09,-2.861022E-08
138.5641,0.04503476,-2.850976E-08,NaN,-0.3271083,-1.374925E-07,NaN,-0.9320818,5.345296E-08,NaN,-2.138241,4.761079E-06,-0.2729485,-1.548248E-08,NaN,NaN,-0.01978697,9.778815E-11,4.049355E-06,-1.150292E-07,-5.894149E-09,-2.622604E-08
138.5813,0.04503464,-2.850862E-08,NaN,-0.3271079,-1.374917E-07,NaN,-0.941572,5.344266E-08,NaN,-2.138325,4.761745E-06,-0.2733272,-1.546973E-08,NaN,NaN,-0.01978798,9.778815E-11,4.032293E-06,-1.150301E-07,-8.278334E-09,-2.861022E-08
138.5977,0.04503464,-2.850862E-08,NaN,-0.3271079,-1.374917E-07,NaN,-0.941572,5.344266E-08,NaN,-2.138325,4.761745E-06,-0.2733272,-1.546973E-08,NaN,NaN,-0.01978798,9.778815E-11,4.032293E-06,-1.150301E-07,-8.278334E-09,-2.861022E-08
138.6166,0.04503453,-2.850748E-08,NaN,-0.3271075,-1.374908E-07,NaN,-0.950924,5.343201E-08,NaN,-2.138412,4.76241E-06,-0.2737193,-1.545663E-08,NaN,NaN,-0.01978901,9.778815E-11,4.014933E-06,-1.15031E-07,-5.894149E-09,-2.622604E-08
138.6336,0.04503441,-2.850635E-08,NaN,-0.3271071,-1.374899E-07,NaN,-0.9601398,5.342172E-08,NaN,-2.138501,4.763076E-06,-0.2741244,-1.544388E-08,NaN,NaN,-0.01979007,9.778815E-11,3.995338E-06,-1.150319E-07,-3.509963E-09,-2.861022E-08
138.6505,0.0450343,-2.850521E-08,NaN,-0.3271067,-1.374891E-07,NaN,-0.9692212,5.347388E-08,NaN,-2.138591,4.763742E-06,-0.2745418,-1.549359E-08,NaN,NaN,-0.01979116,9.778815E-11,3.976264E-06,-1.150328E-07,1.258408E-09,-2.622604E-08
138.6669,0.04503418,-2.850407E-08,NaN,-0.3271062,-1.374882E-07,NaN,-0.9781703,5.352518E-08,NaN,-2.138683,4.764408E-06,-0.274971,-1.554243E-08,NaN,NaN,-0.01979227,9.778815E-11,3.958309E-06,-1.150337E-07,1.258408E-09,-2.861022E-08
138.6838,0.04503407,-2.850294E-08,NaN,-0.3271058,-1.374873E-07,NaN,-0.9869888,5.351281E-08,NaN,-2.138777,4.765073E-06,-0.2754115,-1.55276E-08,NaN,NaN,-0.01979341,9.778815E-11,3.938118E-06,-1.150345E-07,1.258408E-09,-2.622604E-08
138.7007,0.04503395,-2.85018E-08,NaN,-0.3271054,-1.374865E-07,NaN,-0.9956787,5.350083E-08,NaN,-2.138873,4.765739E-06,-0.2758628,-1.551317E-08,NaN,NaN,-0.01979457,9.778815E-11,3.917554E-06,-1.150354E-07,1.258408E-09,-2.861022E-08
138.7174,0.04503395,-2.85018E-08,NaN,-0.3271054,-1.374865E-07,NaN,-0.9956787,5.350083E-08,NaN,-2.138873,4.765739E-06,-0.2758628,-1.551317E-08,NaN,NaN,-0.01979457,9.778815E-11,3.917554E-06,-1.150354E-07,1.258408E-09,-2.861022E-08
138.7335,0.04503384,-2.850066E-08,NaN,-0.327105,-1.374856E-07,NaN,-1.004242,5.348853E-08,NaN,-2.13897,4.766405E-06,-0.2763243,-1.549841E-08,NaN,NaN,-0.01979574,9.778815E-11,3.896692E-06,-1.150363E-07,6.02678E-09,-2.622604E-08
138.7508,0.04503373,-2.849953E-08,NaN,-0.3271046,-1.374848E-07,NaN,-1.01268,5.347592E-08,NaN,-2.139068,4.767071E-06,-0.2767956,-1.548334E-08,NaN,NaN,-0.01979694,9.778815E-11,3.874341E-06,-1.150372E-07,6.02678E-09,-2.861022E-08
138.7675,0.04503362,-2.849839E-08,NaN,-0.3271042,-1.374839E-07,NaN,-1.020994,5.34637E-08,NaN,-2.139168,4.767736E-06,-0.2772762,-1.546867E-08,NaN,NaN,-0.01979816,9.778815E-11,3.852436E-06,-1.150381E-07,3.642594E-09,-2.622604E-08
138.7849,0.04503351,-2.849726E-08,NaN,-0.3271037,-1.374831E-07,NaN,-1.029188,5.345187E-08,NaN,-2.139269,4.768402E-06,-0.2777656,-1.545438E-08,NaN,NaN,-0.01979939,9.778815E-11,3.831127E-06,-1.150389E-07,6.02678E-09,-2.861022E-08
138.802,0.0450334,-2.849612E-08,NaN,-0.3271033,-1.374827E-07,NaN,-1.037261,5.351614E-08,NaN,-2.139371,4.769082E-06,-0.2782634,-1.551619E-08,NaN,NaN,-0.01980064,8.381831E-11,3.806838E-06,-1.150373E-07,1.258408E-09,-2.622604E-08
138.8182,0.0450334,-2.849612E-08,NaN,-0.3271033,-1.374827E-07,NaN,-1.037261,5.351614E-08,NaN,-2.139371,4.769082E-06,-0.2782634,-1.551619E-08,NaN,NaN,-0.01980064,8.381831E-11,3.806838E-06,-1.150373E-07,1.258408E-09,-2.622604E-08
138.8338,0.04503328,-2.849499E-08,NaN,-0.3271029,-1.374819E-07,NaN,-1.045217,5.353935E-08,NaN,-2.139475,4.769757E-06,-0.2787692,-1.553696E-08,NaN,NaN,-0.01980191,7.450508E-11,3.782549E-06,-1.150353E-07,6.02678E-09,-2.861022E-08
138.8529,0.04503317,-2.849385E-08,NaN,-0.3271025,-1.374808E-07,NaN,-1.053056,5.347907E-08,NaN,-2.13958,4.770428E-06,-0.2792825,-1.547421E-08,NaN,NaN,-0.01980319,6.984847E-11,3.757963E-06,-1.15033E-07,3.642594E-09,-2.622604E-08
138.8684,0.04503306,-2.849272E-08,NaN,-0.3271021,-1.374796E-07,NaN,-1.060781,5.340821E-08,NaN,-2.139686,4.771103E-06,-0.2798029,-1.540089E-08,NaN,NaN,-0.01980449,6.053524E-11,3.732333E-06,-1.150307E-07,6.02678E-09,-2.861022E-08
138.8853,0.04503295,-2.849158E-08,NaN,-0.3271017,-1.374782E-07,NaN,-1.068392,5.33326E-08,NaN,-2.139792,4.771774E-06,-0.2803302,-1.532281E-08,NaN,NaN,-0.0198058,5.587863E-11,3.707597E-06,-1.150283E-07,1.079515E-08,-2.622604E-08
138.9019,0.04503284,-2.849045E-08,NaN,-0.3271013,-1.374768E-07,NaN,-1.075892,5.325512E-08,NaN,-2.1399,4.772445E-06,-0.2808637,-1.524286E-08,NaN,NaN,-0.01980712,5.122202E-11,3.683606E-06,-1.150259E-07,1.079515E-08,-2.861022E-08
138.9185,0.04503284,-2.849045E-08,NaN,-0.3271013,-1.374768E-07,NaN,-1.075892,5.325512E-08,NaN,-2.1399,4.772445E-06,-0.2808637,-1.524286E-08,NaN,NaN,-0.01980712,5.122202E-11,3.683606E-06,-1.150259E-07,1.079515E-08,-2.861022E-08
138.9347,0.04503272,-2.848931E-08,NaN,-0.3271009,-1.374754E-07,NaN,-1.083282,5.317793E-08,NaN,-2.140009,4.773116E-06,-0.2814032,-1.51632E-08,NaN,NaN,-0.01980846,4.656541E-11,3.656485E-06,-1.150235E-07,8.410966E-09,-2.622604E-08
138.9525,0.04503261,-2.848818E-08,NaN,-0.3271005,-1.374735E-07,NaN,-1.090564,5.302601E-08,NaN,-2.140119,4.773795E-06,-0.2819484,-1.50088E-08,NaN,NaN,-0.0198098,4.19088E-11,3.630557E-06,-1.150235E-07,1.317934E-08,-2.861022E-08
138.9693,0.0450325,-2.848704E-08,NaN,-0.3271002,-1.37472E-07,NaN,-1.09774,5.291647E-08,NaN,-2.140229,4.774475E-06,-0.2824988,-1.489678E-08,NaN,NaN,-0.01981116,4.19088E-11,3.604033E-06,-1.15024E-07,1.079515E-08,-2.622604E-08
138.9861,0.04503239,-2.848591E-08,NaN,-0.3270998,-1.374708E-07,NaN,-1.10481,5.282954E-08,NaN,-2.14034,4.77516E-06,-0.2830541,-1.480737E-08,NaN,NaN,-0.01981252,4.19088E-11,3.577807E-06,-1.150246E-07,1.794771E-08,-2.861022E-08
139.0024,0.04503228,-2.848477E-08,NaN,-0.3270994,-1.374697E-07,NaN,-1.111776,5.275636E-08,NaN,-2.140452,4.775839E-06,-0.2836141,-1.473172E-08,NaN,NaN,-0.01981389,5.122202E-11,3.550836E-06,-1.150254E-07,2.510027E-08,-2.622604E-08
139.0195,0.04503228,-2.848477E-08,NaN,-0.3270994,-1.374697E-07,NaN,-1.111776,5.275636E-08,NaN,-2.140452,4.775839E-06,-0.2836141,-1.473172E-08,NaN,NaN,-0.01981389,5.122202E-11,3.550836E-06,-1.150254E-07,2.510027E-08,-2.622604E-08
139.0356,0.04503217,-2.848364E-08,NaN,-0.327099,-1.374688E-07,NaN,-1.118641,5.269177E-08,NaN,-2.140564,4.776533E-06,-0.2841783,-1.466466E-08,NaN,NaN,-0.01981527,5.122202E-11,3.522524E-06,-1.150262E-07,2.03319E-08,-2.861022E-08
139.0533,0.04503207,-2.84825E-08,NaN,-0.3270986,-1.374679E-07,NaN,-1.125404,5.263209E-08,NaN,-2.140678,4.777223E-06,-0.2847465,-1.460251E-08,NaN,NaN,-0.01981666,5.587863E-11,3.495255E-06,-1.150271E-07,2.03319E-08,-2.622604E-08
139.0697,0.04503196,-2.848137E-08,NaN,-0.3270982,-1.374671E-07,NaN,-1.132069,5.257582E-08,NaN,-2.140791,4.777912E-06,-0.2853183,-1.454378E-08,NaN,NaN,-0.01981805,6.053524E-11,3.467092E-06,-1.15028E-07,2.03319E-08,-2.861022E-08
139.0865,0.04503185,-2.848023E-08,NaN,-0.3270978,-1.374662E-07,NaN,-1.138635,5.25222E-08,NaN,-2.140906,4.778602E-06,-0.2858936,-1.44877E-08,NaN,NaN,-0.01981945,6.519186E-11,3.439078E-06,-1.150289E-07,2.510027E-08,-2.622604E-08
139.103,0.04503174,-2.84791E-08,NaN,-0.3270974,-1.374654E-07,NaN,-1.145106,5.247047E-08,NaN,-2.14102,4.7793E-06,-0.2864719,-1.443351E-08,NaN,NaN,-0.01982086,6.053524E-11,3.410467E-06,-1.150298E-07,2.271608E-08,-2.861022E-08
139.1203,0.04503163,-2.847796E-08,NaN,-0.3270971,-1.374646E-07,NaN,-1.151481,5.24199E-08,NaN,-2.141135,4.779989E-06,-0.287053,-1.438048E-08,NaN,NaN,-0.01982228,6.519186E-11,3.382304E-06,-1.150307E-07,2.986864E-08,-2.622604E-08
139.1369,0.04503163,-2.847796E-08,NaN,-0.3270971,-1.374646E-07,NaN,-1.151481,5.24199E-08,NaN,-2.141135,4.779989E-06,-0.287053,-1.438048E-08,NaN,NaN,-0.01982228,6.519186E-11,3.382304E-06,-1.150307E-07,2.986864E-08,-2.622604E-08
139.1531,0.04503153,-2.847683E-08,NaN,-0.3270967,-1.374638E-07,NaN,-1.157762,5.236976E-08,NaN,-2.141251,4.780688E-06,-0.2876368,-1.432788E-08,NaN,NaN,-0.01982369,6.053524E-11,3.355184E-06,-1.150316E-07,2.986864E-08,-2.861022E-08
139.1702,0.04503142,-2.847569E-08,NaN,-0.3270963,-1.374631E-07,NaN,-1.163952,5.232075E-08,NaN,-2.141367,4.781377E-06,-0.2882228,-1.427641E-08,NaN,NaN,-0.01982511,6.519186E-11,3.327617E-06,-1.150324E-07,3.225282E-08,-2.622604E-08
139.1876,0.04503131,-2.847456E-08,NaN,-0.3270959,-1.374623E-07,NaN,-1.17005,5.227284E-08,NaN,-2.141484,4.782076E-06,-0.2888108,-1.422604E-08,NaN,NaN,-0.01982654,6.053524E-11,3.299006E-06,-1.150333E-07,2.986864E-08,-2.861022E-08
139.204,0.0450312,-2.847342E-08,NaN,-0.3270955,-1.374615E-07,NaN,-1.176059,5.222601E-08,NaN,-2.1416,4.782765E-06,-0.2894006,-1.417676E-08,NaN,NaN,-0.01982797,6.519186E-11,3.272035E-06,-1.150342E-07,2.986864E-08,-2.622604E-08
139.2209,0.04503109,-2.847229E-08,NaN,-0.3270951,-1.374607E-07,NaN,-1.181979,5.218025E-08,NaN,-2.141717,4.783464E-06,-0.2899921,-1.412854E-08,NaN,NaN,-0.0198294,6.053524E-11,3.243276E-06,-1.150351E-07,2.748445E-08,-2.861022E-08
139.2376,0.04503109,-2.847229E-08,NaN,-0.3270951,-1.374607E-07,NaN,-1.181979,5.218025E-08,NaN,-2.141717,4.783464E-06,-0.2899921,-1.412854E-08,NaN,NaN,-0.0198294,6.053524E-11,3.243276E-06,-1.150351E-07,2.748445E-08,-2.861022E-08
139.2538,0.04503099,-2.847115E-08,NaN,-0.3270947,-1.3746E-07,NaN,-1.187812,5.219719E-08,NaN,-2.141834,4.784153E-06,-0.2905848,-1.414302E-08,NaN,NaN,-0.01983083,6.519186E-11,3.213921E-06,-1.15036E-07,2.748445E-08,-2.622604E-08
139.2711,0.04503088,-2.847002E-08,NaN,-0.3270943,-1.374592E-07,NaN,-1.19356,5.221395E-08,NaN,-2.141951,4.784852E-06,-0.2911787,-1.415733E-08,NaN,NaN,-0.01983227,6.053524E-11,3.186056E-06,-1.150369E-07,3.225282E-08,-2.861022E-08
139.2883,0.04503077,-2.846888E-08,NaN,-0.327094,-1.374584E-07,NaN,-1.199223,5.223054E-08,NaN,-2.142069,4.785541E-06,-0.2917736,-1.417146E-08,NaN,NaN,-0.0198337,6.519186E-11,3.157595E-06,-1.150377E-07,2.986864E-08,-2.622604E-08
139.3047,0.04503066,-2.846775E-08,NaN,-0.3270936,-1.374577E-07,NaN,-1.204802,5.218456E-08,NaN,-2.142186,4.78624E-06,-0.2923691,-1.412303E-08,NaN,NaN,-0.01983514,6.053524E-11,3.127941E-06,-1.150386E-07,2.510027E-08,-2.861022E-08
139.3215,0.04503056,-2.846661E-08,NaN,-0.3270933,-1.374569E-07,NaN,-1.2103,5.213893E-08,NaN,-2.142304,4.786924E-06,-0.2929651,-1.407494E-08,NaN,NaN,-0.01983658,6.984847E-11,3.098884E-06,-1.150395E-07,2.986864E-08,-2.622604E-08
139.3383,0.04503056,-2.846661E-08,NaN,-0.3270933,-1.374569E-07,NaN,-1.2103,5.213893E-08,NaN,-2.142304,4.786924E-06,-0.2929651,-1.407494E-08,NaN,NaN,-0.01983658,6.984847E-11,3.098884E-06,-1.150395E-07,2.986864E-08,-2.622604E-08
139.3544,0.04503046,-2.846548E-08,NaN,-0.3270929,-1.374562E-07,NaN,-1.215716,5.209433E-08,NaN,-2.142422,4.787622E-06,-0.2935615,-1.402789E-08,NaN,NaN,-0.01983802,6.519185E-11,3.069231E-06,-1.150404E-07,3.225282E-08,-2.861022E-08
139.373,0.04503035,-2.846434E-08,NaN,-0.3270926,-1.374554E-07,NaN,-1.221053,5.205075E-08,NaN,-2.14254,4.788312E-06,-0.294158,-1.398186E-08,NaN,NaN,-0.01983946,6.984847E-11,3.039428E-06,-1.150412E-07,3.463701E-08,-2.622604E-08
139.3886,0.04503025,-2.846321E-08,NaN,-0.3270922,-1.374546E-07,NaN,-1.226311,5.200747E-08,NaN,-2.142658,4.78901E-06,-0.2947545,-1.393612E-08,NaN,NaN,-0.01984089,6.519185E-11,3.01052E-06,-1.150421E-07,3.463701E-08,-2.861022E-08
139.4051,0.04503014,-2.846207E-08,NaN,-0.3270918,-1.374539E-07,NaN,-1.231492,5.202762E-08,NaN,-2.142776,4.7897E-06,-0.2953508,-1.395381E-08,NaN,NaN,-0.01984233,6.984847E-11,2.981314E-06,-1.150429E-07,3.463701E-08,-2.622604E-08
139.4217,0.04503004,-2.846094E-08,NaN,-0.3270915,-1.374531E-07,NaN,-1.236596,5.204753E-08,NaN,-2.142894,4.790398E-06,-0.2959467,-1.397127E-08,NaN,NaN,-0.01984376,6.519185E-11,2.952256E-06,-1.150438E-07,3.463701E-08,-2.861022E-08
139.4384,0.04503004,-2.846094E-08,NaN,-0.3270915,-1.374531E-07,NaN,-1.236596,5.204753E-08,NaN,-2.142894,4.790398E-06,-0.2959467,-1.397127E-08,NaN,NaN,-0.01984376,6.519185E-11,2.952256E-06,-1.150438E-07,3.463701E-08,-2.861022E-08
139.4548,0.04502993,-2.84598E-08,NaN,-0.3270911,-1.374524E-07,NaN,-1.241625,5.20672E-08,NaN,-2.143011,4.791088E-06,-0.2965421,-1.398848E-08,NaN,NaN,-0.0198452,6.984847E-11,2.923348E-06,-1.150446E-07,3.225282E-08,-2.622604E-08
139.472,0.04502983,-2.845867E-08,NaN,-0.3270908,-1.374517E-07,NaN,-1.246579,5.202346E-08,NaN,-2.143129,4.791777E-06,-0.2971373,-1.394229E-08,NaN,NaN,-0.01984663,7.450508E-11,2.893993E-06,-1.150455E-07,2.748445E-08,-2.861022E-08
139.4895,0.04502973,-2.845753E-08,NaN,-0.3270904,-1.374509E-07,NaN,-1.25146,5.198073E-08,NaN,-2.143247,4.792466E-06,-0.2977316,-1.389711E-08,NaN,NaN,-0.01984806,7.91617E-11,2.865532E-06,-1.150463E-07,3.225282E-08,-2.622604E-08
139.5054,0.04502962,-2.84564E-08,NaN,-0.3270901,-1.374502E-07,NaN,-1.256269,5.193898E-08,NaN,-2.143364,4.793165E-06,-0.2983248,-1.38529E-08,NaN,NaN,-0.01984949,7.450508E-11,2.837219E-06,-1.150472E-07,3.225282E-08,-2.861022E-08
139.5225,0.04502952,-2.845526E-08,NaN,-0.3270897,-1.374494E-07,NaN,-1.261006,5.18982E-08,NaN,-2.143482,4.793854E-06,-0.2989168,-1.380967E-08,NaN,NaN,-0.01985092,7.91617E-11,2.807864E-06,-1.15048E-07,2.986864E-08,-2.622604E-08
139.5392,0.04502952,-2.845526E-08,NaN,-0.3270897,-1.374494E-07,NaN,-1.261006,5.18982E-08,NaN,-2.143482,4.793854E-06,-0.2989168,-1.380967E-08,NaN,NaN,-0.01985092,7.91617E-11,2.807864E-06,-1.15048E-07,2.986864E-08,-2.622604E-08
139.5556,0.04502942,-2.845413E-08,NaN,-0.3270893,-1.374487E-07,NaN,-1.264913,5.191945E-08,NaN,-2.143668,4.794544E-06,-0.3004167,-1.382846E-08,NaN,NaN,-0.01985474,8.381831E-11,2.733358E-06,-1.150488E-07,2.986864E-08,-2.861022E-08
139.5726,0.04502931,-2.845299E-08,NaN,-0.327089,-1.37448E-07,NaN,-1.267911,5.194044E-08,NaN,-2.14387,4.795228E-06,-0.3017544,-1.3847E-08,NaN,NaN,-0.0198581,9.313154E-11,2.668091E-06,-1.150497E-07,2.748445E-08,-2.622604E-08
139.5899,0.04502921,-2.845186E-08,NaN,-0.3270886,-1.374473E-07,NaN,-1.270402,5.196117E-08,NaN,-2.144064,4.795927E-06,-0.3028767,-1.386527E-08,NaN,NaN,-0.0198609,8.847492E-11,2.614447E-06,-1.150505E-07,2.510027E-08,-2.861022E-08
139.607,0.0450291,-2.845072E-08,NaN,-0.3270883,-1.374465E-07,NaN,-1.271881,5.198094E-08,NaN,-2.144317,4.796611E-06,-0.3047819,-1.388259E-08,NaN,NaN,-0.0198658,9.778815E-11,2.520868E-06,-1.150513E-07,2.271608E-08,-2.622604E-08
139.6243,0.045029,-2.844959E-08,NaN,-0.3270879,-1.374458E-07,NaN,-1.272392,5.193794E-08,NaN,-2.144576,4.797309E-06,-0.3064609,-1.383713E-08,NaN,NaN,-0.01987007,9.313153E-11,2.439135E-06,-1.150521E-07,2.03319E-08,-2.861022E-08
139.6408,0.0450289,-2.844845E-08,NaN,-0.3270876,-1.374451E-07,NaN,-1.272391,5.189592E-08,NaN,-2.144822,4.797994E-06,-0.3078893,-1.379266E-08,NaN,NaN,-0.01987369,1.024448E-10,2.370962E-06,-1.15053E-07,2.271608E-08,-2.622604E-08
139.6578,0.0450289,-2.844845E-08,NaN,-0.3270876,-1.374451E-07,NaN,-1.272391,5.189592E-08,NaN,-2.144822,4.797994E-06,-0.3078893,-1.379266E-08,NaN,NaN,-0.01987369,1.024448E-10,2.370962E-06,-1.15053E-07,2.271608E-08,-2.622604E-08
139.674,0.04502879,-2.844732E-08,NaN,-0.3270872,-1.374444E-07,NaN,-1.271396,5.185488E-08,NaN,-2.145122,4.798692E-06,-0.3100786,-1.374917E-08,NaN,NaN,-0.01987937,9.778814E-11,2.264419E-06,-1.150538E-07,2.271608E-08,-2.861022E-08
139.6918,0.04502869,-2.844618E-08,NaN,-0.3270868,-1.374437E-07,NaN,-1.269462,5.181408E-08,NaN,-2.145427,4.799382E-06,-0.3120273,-1.370591E-08,NaN,NaN,-0.01988439,1.024448E-10,2.169945E-06,-1.150546E-07,2.510027E-08,-2.622604E-08
139.7088,0.04502858,-2.844505E-08,NaN,-0.3270865,-1.37443E-07,NaN,-1.267046,5.18368E-08,NaN,-2.145715,4.80008E-06,-0.313713,-1.372618E-08,NaN,NaN,-0.01988872,9.778814E-11,2.088436E-06,-1.150554E-07,2.986864E-08,-2.861022E-08
139.7256,0.04502847,-2.844391E-08,NaN,-0.3270862,-1.374422E-07,NaN,-1.264428,5.185922E-08,NaN,-2.145985,4.80077E-06,-0.3152393,-1.374615E-08,NaN,NaN,-0.01989263,1.024448E-10,2.015234E-06,-1.150562E-07,2.986864E-08,-2.622604E-08
139.7425,0.04502837,-2.844278E-08,NaN,-0.3270858,-1.374415E-07,NaN,-1.260985,5.188066E-08,NaN,-2.146312,4.801468E-06,-0.3175811,-1.376513E-08,NaN,NaN,-0.0198988,9.778814E-11,1.903289E-06,-1.15057E-07,2.986864E-08,-2.861022E-08
139.7597,0.04502837,-2.844278E-08,NaN,-0.3270858,-1.374415E-07,NaN,-1.260985,5.188066E-08,NaN,-2.146312,4.801468E-06,-0.3175811,-1.376513E-08,NaN,NaN,-0.0198988,9.778814E-11,1.903289E-06,-1.15057E-07,2.986864E-08,-2.861022E-08
139.777,0.04502827,-2.844164E-08,NaN,-0.3270855,-1.374408E-07,NaN,-1.256698,5.190183E-08,NaN,-2.146647,4.802157E-06,-0.3197065,-1.378385E-08,NaN,NaN,-0.01990436,1.024448E-10,1.801551E-06,-1.150578E-07,2.986864E-08,-2.622604E-08
139.7937,0.04502816,-2.844051E-08,NaN,-0.3270852,-1.374401E-07,NaN,-1.251987,5.186013E-08,NaN,-2.146967,4.802856E-06,-0.3215744,-1.37397E-08,NaN,NaN,-0.01990924,9.778814E-11,1.713085E-06,-1.150586E-07,3.463701E-08,-2.861022E-08
139.8107,0.04502806,-2.843937E-08,NaN,-0.3270848,-1.374394E-07,NaN,-1.246364,5.181939E-08,NaN,-2.147341,4.80354E-06,-0.3241878,-1.369651E-08,NaN,NaN,-0.0199162,1.071014E-10,1.587431E-06,-1.150594E-07,3.702119E-08,-2.622604E-08
139.8276,0.04502796,-2.843823E-08,NaN,-0.3270845,-1.374387E-07,NaN,-1.239873,5.177888E-08,NaN,-2.147722,4.804239E-06,-0.3265474,-1.365355E-08,NaN,NaN,-0.01992247,1.024447E-10,1.474573E-06,-1.150602E-07,3.225282E-08,-2.861022E-08
139.8447,0.04502785,-2.84371E-08,NaN,-0.3270842,-1.37438E-07,NaN,-1.232967,5.173932E-08,NaN,-2.148082,4.804923E-06,-0.3286268,-1.361153E-08,NaN,NaN,-0.01992798,1.11758E-10,1.37617E-06,-1.15061E-07,3.225282E-08,-2.622604E-08
139.8616,0.04502775,-2.843596E-08,NaN,-0.3270839,-1.374373E-07,NaN,-1.225921,5.170068E-08,NaN,-2.148421,4.805622E-06,-0.330529,-1.357044E-08,NaN,NaN,-0.01993302,1.071014E-10,1.284937E-06,-1.150618E-07,3.225282E-08,-2.861022E-08
139.8788,0.04502775,-2.843596E-08,NaN,-0.3270839,-1.374373E-07,NaN,-1.225921,5.170068E-08,NaN,-2.148421,4.805622E-06,-0.330529,-1.357044E-08,NaN,NaN,-0.01993302,1.071014E-10,1.284937E-06,-1.150618E-07,3.225282E-08,-2.861022E-08
139.8962,0.04502765,-2.843483E-08,NaN,-0.3270835,-1.374366E-07,NaN,-1.218121,5.166294E-08,NaN,-2.148816,4.806306E-06,-0.3332279,-1.353025E-08,NaN,NaN,-0.01994035,1.164146E-10,1.156005E-06,-1.150626E-07,2.986864E-08,-2.622604E-08
139.9129,0.04502754,-2.843369E-08,NaN,-0.3270832,-1.37436E-07,NaN,-1.20954,5.162537E-08,NaN,-2.14922,4.807005E-06,-0.3356976,-1.349023E-08,NaN,NaN,-0.01994703,1.11758E-10,1.040223E-06,-1.150633E-07,2.986864E-08,-2.861022E-08
139.9299,0.04502744,-2.843256E-08,NaN,-0.3270829,-1.374353E-07,NaN,-1.200597,5.15887E-08,NaN,-2.149605,4.807694E-06,-0.3378939,-1.34511E-08,NaN,NaN,-0.01995296,1.164146E-10,9.36213E-07,-1.150641E-07,2.748445E-08,-2.622604E-08
139.9471,0.04502733,-2.843142E-08,NaN,-0.3270825,-1.374346E-07,NaN,-1.190807,5.155288E-08,NaN,-2.150044,4.808383E-06,-0.3408179,-1.341283E-08,NaN,NaN,-0.01996102,1.210712E-10,7.989733E-07,-1.150649E-07,2.510027E-08,-2.861022E-08
139.9634,0.04502723,-2.843029E-08,NaN,-0.3270822,-1.374339E-07,NaN,-1.180212,5.15172E-08,NaN,-2.150489,4.809073E-06,-0.3434768,-1.33747E-08,NaN,NaN,-0.01996832,1.257278E-10,6.725369E-07,-1.150657E-07,2.510027E-08,-2.622604E-08
139.9805,0.04502713,-2.842915E-08,NaN,-0.3270819,-1.374332E-07,NaN,-1.169259,5.148166E-08,NaN,-2.150912,4.809771E-06,-0.3458408,-1.333671E-08,NaN,NaN,-0.01997482,1.210712E-10,5.612252E-07,-1.150664E-07,2.510027E-08,-2.861022E-08
