JMolnar6/NonAnthroHands_User_Study/HandsLoggerWithURDF/tempdata/files/Reachy_JointMotion_gesture_13_63.csv
Time,r_shoulder,r_shoulder_x,r_upper_arm,r_forearm,r_wrist,r_wrist2hand,
1140.803,-0.226354,0.0008114435,NaN,-0.4430518,0.002423081,NaN,-0.3910231,-15.00096,NaN,-0.9679201,-1.468288,0.4108819,14.13634,NaN,NaN,0.3349879,0.8055949,0.305797,1.076331,2.199418E-08,1.314481
1140.819,-0.226354,0.0008114435,NaN,-0.4430518,0.002423081,NaN,-0.3910231,-15.00096,NaN,-0.9679201,-1.468288,0.4108819,14.13634,NaN,NaN,0.3349879,0.8055949,0.305797,1.076331,2.199418E-08,1.314481
1140.833,-0.2268249,0.0008107407,NaN,-0.4416291,0.002422845,NaN,-0.3926398,-15.00103,NaN,-0.9686897,-1.478921,0.416794,14.14741,NaN,NaN,0.3343907,0.8055162,0.3094899,1.091679,2.527243E-08,1.318756
1140.848,-0.227311,0.0008096858,NaN,-0.440158,0.002420599,NaN,-0.3942466,-15.00184,NaN,-0.9694231,-1.479731,0.4230017,14.14831,NaN,NaN,0.3337407,0.8046618,0.3132982,1.092831,2.974278E-08,1.322952
1140.862,-0.2278045,0.0008087917,NaN,-0.4386639,0.002421479,NaN,-0.395886,-15.0006,NaN,-0.9701759,-1.468833,0.4293233,14.13686,NaN,NaN,0.3330451,0.8059791,0.3172444,1.07712,2.795464E-08,1.312132
1140.877,-0.2278045,0.0008087917,NaN,-0.4386639,0.002421479,NaN,-0.395886,-15.0006,NaN,-0.9701759,-1.468833,0.4293233,14.13686,NaN,NaN,0.3330451,0.8059791,0.3172444,1.07712,2.795464E-08,1.312132
1140.892,-0.2283003,0.0008087772,NaN,-0.4371622,0.002424912,NaN,-0.3975417,-15.00066,NaN,-0.9709284,-1.470379,0.4356428,14.13846,NaN,NaN,0.3322921,0.8058805,0.3212569,1.079343,1.692778E-08,1.311751
1140.907,-0.2287625,0.0008080395,NaN,-0.4357672,0.002426183,NaN,-0.3991252,-15.00134,NaN,-0.971489,-1.468842,0.4410936,14.13692,NaN,NaN,0.3312299,0.8051652,0.3251301,1.077117,1.245743E-08,1.318236
1140.922,-0.2292018,0.0008072454,NaN,-0.4344441,0.002427582,NaN,-0.400699,-15.00077,NaN,-0.972074,-1.468755,0.4460812,14.13676,NaN,NaN,0.3301497,0.8057023,0.3288472,1.076982,2.139813E-08,1.313492
1140.937,-0.2292018,0.0008072454,NaN,-0.4344441,0.002427582,NaN,-0.400699,-15.00077,NaN,-0.972074,-1.468755,0.4460812,14.13676,NaN,NaN,0.3301497,0.8057023,0.3288472,1.076982,2.139813E-08,1.313492
1140.952,-0.2296251,0.0008066411,NaN,-0.4331711,0.002429491,NaN,-0.4022014,-15.00202,NaN,-0.9726168,-1.469494,0.4507645,14.13764,NaN,NaN,0.3290446,0.8044335,0.3323568,1.078043,3.242499E-08,1.321411
1140.968,-0.2300367,0.0008063567,NaN,-0.4319346,0.002434308,NaN,-0.4036419,-15.00138,NaN,-0.9731262,-1.465561,0.4552515,14.13348,NaN,NaN,0.3279241,0.8050539,0.3357215,1.072362,3.182894E-08,1.317533
1140.983,-0.2304062,0.0008062375,NaN,-0.4308307,0.002439822,NaN,-0.4049655,-15.00192,NaN,-0.97343,-1.464911,0.4587834,14.13284,NaN,NaN,0.3265319,0.8045007,0.3388259,1.071419,2.855069E-08,1.321367
1140.998,-0.2304062,0.0008062375,NaN,-0.4308307,0.002439822,NaN,-0.4049655,-15.00192,NaN,-0.97343,-1.464911,0.4587834,14.13284,NaN,NaN,0.3265319,0.8045007,0.3388259,1.071419,2.855069E-08,1.321367
1141.014,-0.230748,0.000807157,NaN,-0.4298135,0.002445495,NaN,-0.4058183,-15.00324,NaN,-0.9738974,-1.475299,0.4614836,14.14376,NaN,NaN,0.3254332,0.8032189,0.3414395,1.086399,2.110011E-08,1.331083
1141.028,-0.2310712,0.0008075141,NaN,-0.428854,0.002451133,NaN,-0.4070134,-15.00266,NaN,-0.9740492,-1.466284,0.4642219,14.13435,NaN,NaN,0.3240147,0.8038434,0.3441059,1.073415,2.080208E-08,1.326949
1141.043,-0.2313814,0.0008069787,NaN,-0.4279345,0.002454034,NaN,-0.4077004,-15.00168,NaN,-0.974571,-1.465397,0.4664381,14.13332,NaN,NaN,0.3230557,0.8048065,0.346391,1.072128,2.22922E-08,1.317491
1141.058,-0.2313814,0.0008069787,NaN,-0.4279345,0.002454034,NaN,-0.4077004,-15.00168,NaN,-0.974571,-1.465397,0.4664381,14.13332,NaN,NaN,0.3230557,0.8048065,0.346391,1.072128,2.22922E-08,1.317491
1141.072,-0.2316493,0.0008066031,NaN,-0.4271483,0.002453908,NaN,-0.4079198,-15.00175,NaN,-0.9747477,-1.477824,0.4674051,14.14624,NaN,NaN,0.3218812,0.8047767,0.3481539,1.090052,2.497441E-08,1.321798
1141.088,-0.2318897,0.000806054,NaN,-0.4264477,0.002456247,NaN,-0.4083057,-15.00165,NaN,-0.9749314,-1.467416,0.4680785,14.1354,NaN,NaN,0.3207036,0.8049383,0.3499091,1.075035,2.497441E-08,1.31755
1141.103,-0.232112,0.0008057479,NaN,-0.4258029,0.00245906,NaN,-0.4084871,-15.00161,NaN,-0.9752239,-1.468714,0.4683746,14.13673,NaN,NaN,0.3196996,0.8049556,0.3513874,1.076902,2.080208E-08,1.316798
1141.119,-0.232112,0.0008057479,NaN,-0.4258029,0.00245906,NaN,-0.4084871,-15.00161,NaN,-0.9752239,-1.468714,0.4683746,14.13673,NaN,NaN,0.3196996,0.8049556,0.3513874,1.076902,2.080208E-08,1.316798
1141.132,-0.232289,0.0008055355,NaN,-0.4253002,0.002463666,NaN,-0.4078101,-15.00194,NaN,-0.9754555,-1.46615,0.4670715,14.13409,NaN,NaN,0.3188156,0.8046009,0.3520841,1.073197,2.467639E-08,1.319474
1141.148,-0.2324372,0.0008062577,NaN,-0.4248872,0.002468177,NaN,-0.4074318,-15.00298,NaN,-0.9754677,-1.477218,0.4655717,14.14569,NaN,NaN,0.3177331,0.8035762,0.3527911,1.089158,2.884871E-08,1.32783
1141.163,-0.2325666,0.0008060934,NaN,-0.4245313,0.002470592,NaN,-0.4068916,-15.00228,NaN,-0.9756794,-1.471282,0.4637617,14.13947,NaN,NaN,0.3169027,0.8043179,0.3532756,1.080613,2.914673E-08,1.321999
1141.178,-0.2325666,0.0008060934,NaN,-0.4245313,0.002470592,NaN,-0.4068916,-15.00228,NaN,-0.9756794,-1.471282,0.4637617,14.13947,NaN,NaN,0.3169027,0.8043179,0.3532756,1.080613,2.914673E-08,1.321999
1141.192,-0.2326838,0.0008059436,NaN,-0.4242123,0.002474213,NaN,-0.4063398,-15.00237,NaN,-0.9757559,-1.468111,0.461857,14.13618,NaN,NaN,0.3160139,0.8042237,0.3536034,1.076036,3.242499E-08,1.322815
1141.209,-0.2327599,0.0008064894,NaN,-0.4240221,0.002476536,NaN,-0.4048648,-15.00217,NaN,-0.9759303,-1.479774,0.4583859,14.14826,NaN,NaN,0.3153887,0.8044287,0.3531874,1.092845,2.974278E-08,1.325243
1141.223,-0.23281,0.0008057881,NaN,-0.4239121,0.002477314,NaN,-0.4036595,-15.00154,NaN,-0.9758529,-1.468231,0.4547322,14.13621,NaN,NaN,0.3145434,0.8051696,0.3527673,1.076209,3.689534E-08,1.319468
1141.238,-0.23281,0.0008057881,NaN,-0.4239121,0.002477314,NaN,-0.4036595,-15.00154,NaN,-0.9758529,-1.468231,0.4547322,14.13621,NaN,NaN,0.3145434,0.8051696,0.3527673,1.076209,3.689534E-08,1.319468
1141.252,-0.2328437,0.0008047545,NaN,-0.4238522,0.002477159,NaN,-0.4024009,-15.002,NaN,-0.9759389,-1.469071,0.4508969,14.13712,NaN,NaN,0.3139014,0.8047011,0.3522129,1.077418,3.778941E-08,1.320175
1141.268,-0.2328668,0.0008043013,NaN,-0.4238235,0.002476449,NaN,-0.4011023,-15.00207,NaN,-0.9759462,-1.480183,0.4469773,14.14867,NaN,NaN,0.3132561,0.8046228,0.3515027,1.093441,3.451115E-08,1.323464
1141.283,-0.2328511,0.0008033196,NaN,-0.423918,0.002476584,NaN,-0.3989147,-15.00178,NaN,-0.9760185,-1.468244,0.4415469,14.13623,NaN,NaN,0.3128359,0.8050269,0.3500684,1.076221,3.331906E-08,1.319378
1141.298,-0.2328511,0.0008033196,NaN,-0.423918,0.002476584,NaN,-0.3989147,-15.00178,NaN,-0.9760185,-1.468244,0.4415469,14.13623,NaN,NaN,0.3128359,0.8050269,0.3500684,1.076221,3.331906E-08,1.319378
1141.312,-0.2328111,0.0008028757,NaN,-0.4240882,0.002475447,NaN,-0.3969351,-15.00284,NaN,-0.9758931,-1.477304,0.4359094,14.14575,NaN,NaN,0.3122506,0.8039689,0.3486025,1.089288,2.944476E-08,1.326822
1141.328,-0.2327561,0.0008022516,NaN,-0.4243043,0.002476701,NaN,-0.394979,-15.00213,NaN,-0.9758723,-1.46814,0.4301776,14.13617,NaN,NaN,0.3118055,0.8047315,0.3470487,1.076082,3.153092E-08,1.320975
1141.343,-0.2326919,0.0008011262,NaN,-0.4245478,0.002477235,NaN,-0.3929875,-15.00227,NaN,-0.9758092,-1.466588,0.4243942,14.13456,NaN,NaN,0.311386,0.8045868,0.345358,1.073838,3.182894E-08,1.319576
1141.358,-0.2326919,0.0008011262,NaN,-0.4245478,0.002477235,NaN,-0.3929875,-15.00227,NaN,-0.9758092,-1.466588,0.4243942,14.13456,NaN,NaN,0.311386,0.8045868,0.345358,1.073838,3.182894E-08,1.319576
1141.372,-0.2325893,0.0008008208,NaN,-0.4249117,0.002476625,NaN,-0.3901305,-15.0024,NaN,-0.9757999,-1.478668,0.417142,14.14712,NaN,NaN,0.3111673,0.804478,0.342955,1.091255,3.12329E-08,1.324408
1141.388,-0.2324631,0.0008001509,NaN,-0.4253483,0.002477912,NaN,-0.3874317,-15.00217,NaN,-0.975635,-1.467806,0.4096657,14.1358,NaN,NaN,0.3108185,0.8047971,0.3404992,1.075589,2.259022E-08,1.31963
1141.404,-0.2323226,0.0007992719,NaN,-0.4258277,0.002478929,NaN,-0.3847954,-15.00223,NaN,-0.9755276,-1.466917,0.4021486,14.13487,NaN,NaN,0.3105602,0.8047213,0.3379787,1.074299,2.825267E-08,1.319569
1141.418,-0.2323226,0.0007992719,NaN,-0.4258277,0.002478929,NaN,-0.3847954,-15.00223,NaN,-0.9755276,-1.466917,0.4021486,14.13487,NaN,NaN,0.3105602,0.8047213,0.3379787,1.074299,2.825267E-08,1.319569
1141.432,-0.232141,0.0007991873,NaN,-0.4264359,0.002479274,NaN,-0.3812765,-15.00308,NaN,-0.9754703,-1.478315,0.3931285,14.1468,NaN,NaN,0.3104902,0.8038917,0.3346982,1.090739,2.884871E-08,1.327433
1141.448,-0.2319343,0.000799112,NaN,-0.427121,0.002482244,NaN,-0.3778645,-15.00213,NaN,-0.9752763,-1.470684,0.3838411,14.13879,NaN,NaN,0.3103103,0.804893,0.3313119,1.079747,2.586848E-08,1.318912
1141.463,-0.2317129,0.0007989802,NaN,-0.4278502,0.002486362,NaN,-0.3745494,-15.00262,NaN,-0.9751024,-1.46673,0.3745535,14.13471,NaN,NaN,0.3101806,0.804408,0.3278734,1.074036,2.765662E-08,1.322112
1141.478,-0.2317129,0.0007989802,NaN,-0.4278502,0.002486362,NaN,-0.3745494,-15.00262,NaN,-0.9751024,-1.46673,0.3745535,14.13471,NaN,NaN,0.3101806,0.804408,0.3278734,1.074036,2.765662E-08,1.322112
1141.492,-0.2314833,0.0007980791,NaN,-0.4286035,0.00248787,NaN,-0.3712733,-15.00272,NaN,-0.9749135,-1.465867,0.3653241,14.13382,NaN,NaN,0.3100764,0.8043076,0.3243728,1.072789,1.931197E-08,1.321097
1141.508,-0.2312165,0.000797464,NaN,-0.4294728,0.002485973,NaN,-0.3671625,-15.00233,NaN,-0.9747878,-1.477726,0.354701,14.14609,NaN,NaN,0.3101304,0.8047255,0.3201976,1.089884,1.603371E-08,1.322969
1141.523,-0.2309277,0.0007963965,NaN,-0.4304096,0.002485639,NaN,-0.3631301,-15.00273,NaN,-0.9745696,-1.46648,0.3438239,14.13443,NaN,NaN,0.310094,0.8044153,0.3159331,1.073653,2.110011E-08,1.32182
1141.538,-0.2309277,0.0007963965,NaN,-0.4304096,0.002485639,NaN,-0.3631301,-15.00273,NaN,-0.9745696,-1.46648,0.3438239,14.13443,NaN,NaN,0.310094,0.8044153,0.3159331,1.073653,2.110011E-08,1.32182
1141.553,-0.2306264,0.0007966977,NaN,-0.4313839,0.002486623,NaN,-0.3592073,-15.00287,NaN,-0.9743487,-1.478438,0.3329792,14.14685,NaN,NaN,0.3100728,0.8042892,0.3116387,1.090891,2.437836E-08,1.32618
1141.568,-0.2303185,0.000797186,NaN,-0.4323768,0.002485836,NaN,-0.3553638,-15.00236,NaN,-0.974115,-1.480218,0.3222485,14.14865,NaN,NaN,0.3100621,0.8047493,0.3073295,1.09346,2.22922E-08,1.323678
1141.583,-0.229975,0.0007969839,NaN,-0.4334815,0.002485592,NaN,-0.3501059,-15.00192,NaN,-0.9741006,-1.472293,0.3096934,14.14036,NaN,NaN,0.3104869,0.8052426,0.3019287,1.082029,2.139813E-08,1.319001
1141.599,-0.229975,0.0007969839,NaN,-0.4334815,0.002485592,NaN,-0.3501059,-15.00192,NaN,-0.9741006,-1.472293,0.3096934,14.14036,NaN,NaN,0.3104869,0.8052426,0.3019287,1.082029,2.139813E-08,1.319001
1141.613,-0.2296106,0.0007967533,NaN,-0.4346499,0.002488375,NaN,-0.3449204,-15.00307,NaN,-0.974084,-1.466004,0.2969121,14.13391,NaN,NaN,0.3108841,0.8040883,0.2964425,1.072939,1.603371E-08,1.326022
1141.628,-0.2292348,0.0007966787,NaN,-0.4358523,0.002490899,NaN,-0.3399735,-15.00384,NaN,-0.9740164,-1.471355,0.2842931,14.13954,NaN,NaN,0.3112147,0.8033183,0.2910154,1.080646,1.513965E-08,1.327602
1141.643,-0.2288534,0.0007971158,NaN,-0.4370704,0.002493822,NaN,-0.3352263,-15.00384,NaN,-0.9739029,-1.475485,0.2719139,14.1438,NaN,NaN,0.3114917,0.8032911,0.285656,1.086587,1.931197E-08,1.326521
1141.658,-0.2288534,0.0007971158,NaN,-0.4370704,0.002493822,NaN,-0.3352263,-15.00384,NaN,-0.9739029,-1.475485,0.2719139,14.1438,NaN,NaN,0.3114917,0.8032911,0.285656,1.086587,1.931197E-08,1.326521
1141.672,-0.2284372,0.00079682,NaN,-0.4383971,0.00249302,NaN,-0.3303001,-15.00381,NaN,-0.9737123,-1.47904,0.2587534,14.14748,NaN,NaN,0.3115988,0.8032735,0.2800831,1.091703,1.633174E-08,1.328291
1141.688,-0.2280012,0.0007967688,NaN,-0.4397848,0.002492359,NaN,-0.325604,-15.00424,NaN,-0.9733999,-1.480038,0.2455388,14.14854,NaN,NaN,0.3115313,0.8028216,0.274509,1.09313,1.45436E-08,1.330344
1141.703,-0.2275546,0.0007967165,NaN,-0.4412038,0.002493037,NaN,-0.3211423,-15.00321,NaN,-0.9729989,-1.47466,0.2325194,14.14287,NaN,NaN,0.3113579,0.8038933,0.2689792,1.085399,1.931197E-08,1.323204
1141.718,-0.2275546,0.0007967165,NaN,-0.4412038,0.002493037,NaN,-0.3211423,-15.00321,NaN,-0.9729989,-1.47466,0.2325194,14.14287,NaN,NaN,0.3113579,0.8038933,0.2689792,1.085399,1.931197E-08,1.323204
1141.732,-0.2270702,0.0007964,NaN,-0.4427403,0.002491699,NaN,-0.3168523,-15.00441,NaN,-0.9733894,-1.477543,0.2190345,14.14597,NaN,NaN,0.3117384,0.8026672,0.2637051,1.089543,1.692779E-08,1.329418
1141.748,-0.2265646,0.0007958047,NaN,-0.4443421,0.002490786,NaN,-0.3125398,-15.00402,NaN,-0.9738185,-1.472821,0.2052624,14.14104,NaN,NaN,0.3121099,0.8030814,0.2582623,1.082746,2.050407E-08,1.325069
1141.763,-0.2260478,0.0007950343,NaN,-0.445977,0.002490092,NaN,-0.3082019,-15.0042,NaN,-0.9741437,-1.471883,0.1914555,14.14007,NaN,NaN,0.3124562,0.8029025,0.2527469,1.081388,2.229221E-08,1.325453
1141.778,-0.2260478,0.0007950343,NaN,-0.445977,0.002490092,NaN,-0.3082019,-15.0042,NaN,-0.9741437,-1.471883,0.1914555,14.14007,NaN,NaN,0.3124562,0.8029025,0.2527469,1.081388,2.229221E-08,1.325453
1141.794,-0.2255263,0.0007955867,NaN,-0.4476248,0.002491305,NaN,-0.3045545,-15.00344,NaN,-0.974555,-1.480405,0.1783116,14.14882,NaN,NaN,0.3128144,0.8036186,0.247791,1.093654,1.871593E-08,1.324678
1141.808,-0.2249709,0.0007954806,NaN,-0.4493779,0.002494239,NaN,-0.3009806,-15.00305,NaN,-0.975498,-1.466797,0.164633,14.13466,NaN,NaN,0.31348,0.8041527,0.2429323,1.074049,2.110011E-08,1.319978
1141.823,-0.2243969,0.0007952167,NaN,-0.4511877,0.002493098,NaN,-0.2977291,-15.00381,NaN,-0.9765872,-1.478442,0.1509801,14.14682,NaN,NaN,0.3141323,0.8034233,0.2381689,1.090834,1.692779E-08,1.326764
1141.838,-0.2243969,0.0007952167,NaN,-0.4511877,0.002493098,NaN,-0.2977291,-15.00381,NaN,-0.9765872,-1.478442,0.1509801,14.14682,NaN,NaN,0.3141323,0.8034233,0.2381689,1.090834,1.692779E-08,1.326764
1141.852,-0.2238138,0.0007943297,NaN,-0.4530243,0.002492939,NaN,-0.2947704,-15.0028,NaN,-0.9777575,-1.468312,0.1375772,14.13623,NaN,NaN,0.3147718,0.8045211,0.2334988,1.076252,1.573569E-08,1.319269
1141.868,-0.2232275,0.000793524,NaN,-0.4548691,0.002490926,NaN,-0.2920285,-15.00397,NaN,-0.9789764,-1.479315,0.1244629,14.14777,NaN,NaN,0.3153989,0.8033608,0.2289204,1.092114,1.573569E-08,1.326303
1141.883,-0.2226085,0.0007931404,NaN,-0.4568154,0.002493811,NaN,-0.289342,-15.00285,NaN,-0.9807365,-1.468779,0.1107994,14.13674,NaN,NaN,0.3163279,0.8045795,0.2244317,1.076948,1.275546E-08,1.31823
1141.898,-0.2226085,0.0007931404,NaN,-0.4568154,0.002493811,NaN,-0.289342,-15.00285,NaN,-0.9807365,-1.468779,0.1107994,14.13674,NaN,NaN,0.3163279,0.8045795,0.2244317,1.076948,1.275546E-08,1.31823
1141.912,-0.2219719,0.0007925131,NaN,-0.4588152,0.002496155,NaN,-0.2869517,-15.00323,NaN,-0.9826335,-1.467171,0.09714531,14.1351,NaN,NaN,0.3172386,0.8042048,0.2200311,1.074623,6.794997E-09,1.320244
1141.928,-0.2213271,0.0007917565,NaN,-0.4608389,0.002498117,NaN,-0.2848344,-15.00336,NaN,-0.9845779,-1.467671,0.08374079,14.13562,NaN,NaN,0.3181314,0.8040765,0.2157167,1.075338,1.037128E-08,1.320983
1141.943,-0.22068,0.0007915365,NaN,-0.4628682,0.002500819,NaN,-0.2829194,-15.0039,NaN,-0.9865267,-1.472611,0.07063651,14.14079,NaN,NaN,0.3190068,0.8035442,0.2114869,1.082453,9.77523E-09,1.325232
1141.958,-0.22068,0.0007915365,NaN,-0.4628682,0.002500819,NaN,-0.2829194,-15.0039,NaN,-0.9865267,-1.472611,0.07063651,14.14079,NaN,NaN,0.3190068,0.8035442,0.2114869,1.082453,9.77523E-09,1.325232
1141.972,-0.2200008,0.0007910637,NaN,-0.4649965,0.002503444,NaN,-0.2810688,-15.00342,NaN,-0.9889669,-1.468387,0.05701087,14.13636,NaN,NaN,0.3201793,0.8040367,0.2073401,1.076366,1.037128E-08,1.321368
1141.989,-0.2193047,0.000790979,NaN,-0.467176,0.002505102,NaN,-0.279503,-15.00421,NaN,-0.9914945,-1.476047,0.04341595,14.14438,NaN,NaN,0.3213288,0.8032467,0.2032745,1.087404,1.096732E-08,1.327788
1142.003,-0.2186012,0.0007910615,NaN,-0.4693771,0.00250477,NaN,-0.2781928,-15.00384,NaN,-0.9940401,-1.481025,0.03007616,14.1495,NaN,NaN,0.3224557,0.8035851,0.1992887,1.094575,1.096732E-08,1.327674
1142.018,-0.2186012,0.0007910615,NaN,-0.4693771,0.00250477,NaN,-0.2781928,-15.00384,NaN,-0.9940401,-1.481025,0.03007616,14.1495,NaN,NaN,0.3224557,0.8035851,0.1992887,1.094575,1.096732E-08,1.327674
1142.032,-0.2178627,0.0007909996,NaN,-0.4716863,0.002505991,NaN,-0.2770016,-15.00242,NaN,-0.9970747,-1.473216,0.01622774,14.14129,NaN,NaN,0.3238748,0.8050876,0.195381,1.083346,6.198952E-09,1.318642
1142.047,-0.2171058,0.0007908166,NaN,-0.4740514,0.002507785,NaN,-0.2761135,-15.00266,NaN,-1.000189,-1.469116,0.002426441,14.13704,NaN,NaN,0.325266,0.804872,0.19155,1.077424,7.391044E-09,1.31966
1142.064,-0.2163407,0.0007914397,NaN,-0.4764402,0.0025083,NaN,-0.2754843,-15.00261,NaN,-1.003311,-1.47939,-0.01110512,14.14771,NaN,NaN,0.3266299,0.8049227,0.1877941,1.092243,7.987091E-09,1.321144
1142.078,-0.2163407,0.0007914397,NaN,-0.4764402,0.0025083,NaN,-0.2754843,-15.00261,NaN,-1.003311,-1.47939,-0.01110512,14.14771,NaN,NaN,0.3266299,0.8049227,0.1877941,1.092243,7.987091E-09,1.321144
1142.092,-0.2155738,0.0007915379,NaN,-0.4788329,0.002510642,NaN,-0.2750372,-15.00296,NaN,-1.006408,-1.46832,-0.02432533,14.13621,NaN,NaN,0.3279673,0.8046843,0.1841118,1.076264,5.602905E-09,1.320637
1142.108,-0.2147755,0.0007909283,NaN,-0.4813217,0.002510505,NaN,-0.2746715,-15.00307,NaN,-1.009966,-1.470797,-0.03804715,14.13879,NaN,NaN,0.3295926,0.8045742,0.1805017,1.079833,9.77523E-09,1.32025
1142.123,-0.2139615,0.0007897155,NaN,-0.4838584,0.002509753,NaN,-0.2745672,-15.00282,NaN,-1.013584,-1.467916,-0.05173289,14.13577,NaN,NaN,0.331186,0.8048246,0.1769624,1.075675,5.900929E-09,1.317773
1142.138,-0.2139615,0.0007897155,NaN,-0.4838584,0.002509753,NaN,-0.2745672,-15.00282,NaN,-1.013584,-1.467916,-0.05173289,14.13577,NaN,NaN,0.331186,0.8048246,0.1769624,1.075675,5.900929E-09,1.317773
1142.152,-0.213141,0.0007890832,NaN,-0.486413,0.002511253,NaN,-0.2746932,-15.00371,NaN,-1.017198,-1.469748,-0.06515809,14.13776,NaN,NaN,0.3327482,0.8039318,0.1734926,1.078316,7.093021E-09,1.323583
1142.167,-0.2123201,0.000788947,NaN,-0.4889672,0.002514414,NaN,-0.2749805,-15.00371,NaN,-1.020776,-1.46923,-0.07827815,14.13721,NaN,NaN,0.3342799,0.8039289,0.1700907,1.077566,4.112789E-09,1.324347
1142.183,-0.2114689,0.0007895081,NaN,-0.4916143,0.002517771,NaN,-0.2753568,-15.00432,NaN,-1.024802,-1.476069,-0.09189774,14.14436,NaN,NaN,0.3360958,0.803327,0.1667556,1.087417,4.708836E-09,1.328673
1142.198,-0.2114689,0.0007895081,NaN,-0.4916143,0.002517771,NaN,-0.2753568,-15.00432,NaN,-1.024802,-1.476069,-0.09189774,14.14436,NaN,NaN,0.3360958,0.803327,0.1667556,1.087417,4.708836E-09,1.328673
1142.211,-0.2106027,0.0007898003,NaN,-0.4943063,0.002519584,NaN,-0.2759796,-15.0041,NaN,-1.028877,-1.476417,-0.1054827,14.14469,NaN,NaN,0.337876,0.8035358,0.1634858,1.087918,2.026627E-09,1.326668
1142.227,-0.2097308,0.0007897786,NaN,-0.4970139,0.002522697,NaN,-0.2768169,-15.00358,NaN,-1.032939,-1.468693,-0.1188078,14.13663,NaN,NaN,0.3396213,0.8041106,0.1602802,1.076793,6.496975E-09,1.322807
1142.242,-0.2088593,0.0007888277,NaN,-0.4997189,0.002522707,NaN,-0.2778006,-15.00282,NaN,-1.036958,-1.467532,-0.1318287,14.13534,NaN,NaN,0.3413325,0.8048583,0.1571374,1.075118,1.156337E-08,1.318364
1142.257,-0.2088593,0.0007888277,NaN,-0.4997189,0.002522707,NaN,-0.2778006,-15.00282,NaN,-1.036958,-1.467532,-0.1318287,14.13534,NaN,NaN,0.3413325,0.8048583,0.1571374,1.075118,1.156337E-08,1.318364
1142.271,-0.2079579,0.0007886337,NaN,-0.5025147,0.002523281,NaN,-0.2788832,-15.00413,NaN,-1.041413,-1.474696,-0.1453452,14.14292,NaN,NaN,0.3433243,0.803567,0.1540563,1.085455,9.179184E-09,1.327883
1142.287,-0.2070421,0.0007884734,NaN,-0.5053536,0.002525618,NaN,-0.280198,-15.00289,NaN,-1.045908,-1.470297,-0.1588266,14.13824,NaN,NaN,0.3452771,0.8048241,0.1510355,1.079123,1.06693E-08,1.318997
1142.302,-0.2061213,0.0007882779,NaN,-0.5082061,0.002524005,NaN,-0.2817114,-15.00269,NaN,-1.050382,-1.478765,-0.1720479,14.14702,NaN,NaN,0.3471916,0.8050107,0.148074,1.091341,1.186139E-08,1.320826
1142.317,-0.2061213,0.0007882779,NaN,-0.5082061,0.002524005,NaN,-0.2817114,-15.00269,NaN,-1.050382,-1.478765,-0.1720479,14.14702,NaN,NaN,0.3471916,0.8050107,0.148074,1.091341,1.186139E-08,1.320826
1142.332,-0.2051677,0.0007880197,NaN,-0.5111588,0.002523815,NaN,-0.2833771,-15.00396,NaN,-1.055295,-1.472101,-0.1857539,14.14019,NaN,NaN,0.3493827,0.8037967,0.1451706,1.081707,1.543767E-08,1.326076
1142.347,-0.204198,0.0007874185,NaN,-0.5141596,0.002524046,NaN,-0.2852898,-15.00287,NaN,-1.060247,-1.46921,-0.1994073,14.13708,NaN,NaN,0.3515309,0.8048777,0.1423241,1.077544,1.633174E-08,1.319208
1142.362,-0.2032226,0.0007867668,NaN,-0.5171763,0.002525204,NaN,-0.2874007,-15.00344,NaN,-1.065173,-1.467831,-0.212786,14.1357,NaN,NaN,0.353637,0.8043014,0.1395334,1.075553,1.45436E-08,1.321513
1142.377,-0.2032226,0.0007867668,NaN,-0.5171763,0.002525204,NaN,-0.2874007,-15.00344,NaN,-1.065173,-1.467831,-0.212786,14.1357,NaN,NaN,0.353637,0.8043014,0.1395334,1.075553,1.45436E-08,1.321513
1142.392,-0.2022478,0.0007862223,NaN,-0.5201892,0.002525454,NaN,-0.2896358,-15.00367,NaN,-1.070043,-1.472898,-0.2258518,14.14098,NaN,NaN,0.3557018,0.8040705,0.1367974,1.082856,1.186139E-08,1.324462
1142.407,-0.2012437,0.0007855828,NaN,-0.5232908,0.002527113,NaN,-0.2919903,-15.00356,NaN,-1.075328,-1.468737,-0.2394003,14.13665,NaN,NaN,0.3580403,0.8041878,0.1341151,1.076856,1.245744E-08,1.323056
1142.422,-0.200226,0.0007851734,NaN,-0.5264328,0.002525833,NaN,-0.2945528,-15.00305,NaN,-1.080637,-1.479425,-0.252905,14.14769,NaN,NaN,0.360333,0.8046986,0.1314854,1.092263,1.156337E-08,1.322752
1142.437,-0.200226,0.0007851734,NaN,-0.5264328,0.002525833,NaN,-0.2945528,-15.00305,NaN,-1.080637,-1.479425,-0.252905,14.14769,NaN,NaN,0.360333,0.8046986,0.1314854,1.092263,1.156337E-08,1.322752
1142.451,-0.1992042,0.0007848428,NaN,-0.5295854,0.002522802,NaN,-0.297285,-15.00291,NaN,-1.085913,-1.480994,-0.2661432,14.1493,NaN,NaN,0.3625807,0.8047966,0.1289072,1.094527,1.305348E-08,1.322263
1142.467,-0.1981844,0.0007835648,NaN,-0.5327303,0.002518904,NaN,-0.3001203,-15.00315,NaN,-1.091125,-1.469204,-0.2790746,14.13706,NaN,NaN,0.3647844,0.8046684,0.1263796,1.077511,1.215941E-08,1.318614
1142.482,-0.1971359,0.0007826963,NaN,-0.535961,0.002517205,NaN,-0.3030841,-15.00269,NaN,-1.096742,-1.474585,-0.2924896,14.1426,NaN,NaN,0.3672589,0.8051043,0.1239016,1.085272,8.285112E-09,1.321671
1142.497,-0.1971359,0.0007826963,NaN,-0.535961,0.002517205,NaN,-0.3030841,-15.00269,NaN,-1.096742,-1.474585,-0.2924896,14.1426,NaN,NaN,0.3672589,0.8051043,0.1239016,1.085272,8.285112E-09,1.321671
1142.511,-0.1960746,0.0007825478,NaN,-0.5392296,0.002517365,NaN,-0.3062408,-15.00246,NaN,-1.102377,-1.474963,-0.3058597,14.14297,NaN,NaN,0.369685,0.8053101,0.1214722,1.085819,7.838078E-09,1.320153
1142.527,-0.19501,0.0007828185,NaN,-0.5425068,0.002517158,NaN,-0.3095498,-15.00361,NaN,-1.107973,-1.480976,-0.3189632,14.14933,NaN,NaN,0.3720635,0.8041077,0.1190903,1.094489,6.794997E-09,1.323933
1142.545,-0.1939478,0.0007830462,NaN,-0.5457743,0.002515455,NaN,-0.3129459,-15.00322,NaN,-1.113502,-1.481926,-0.3317615,14.15028,NaN,NaN,0.3743955,0.8044591,0.1167552,1.095863,9.179182E-09,1.322345
1142.558,-0.1939478,0.0007830462,NaN,-0.5457743,0.002515455,NaN,-0.3129459,-15.00322,NaN,-1.113502,-1.481926,-0.3317615,14.15028,NaN,NaN,0.3743955,0.8044591,0.1167552,1.095863,9.179182E-09,1.322345
1142.571,-0.1928575,0.0007827325,NaN,-0.549126,0.002514522,NaN,-0.3164816,-15.00337,NaN,-1.119425,-1.470697,-0.3450423,14.13862,NaN,NaN,0.3769957,0.8044212,0.1144659,1.079665,1.111633E-08,1.31985
1142.588,-0.1917547,0.0007824289,NaN,-0.552514,0.002513313,NaN,-0.3201958,-15.00253,NaN,-1.125363,-1.474816,-0.3582751,14.14281,NaN,NaN,0.379545,0.8052402,0.1122215,1.085605,4.41081E-09,1.317923
1142.602,-0.1906492,0.0007826838,NaN,-0.555909,0.002512249,NaN,-0.3240451,-15.0035,NaN,-1.131257,-1.481148,-0.3712406,14.14949,NaN,NaN,0.3820443,0.8042211,0.1100211,1.094736,5.006857E-09,1.322753
1142.617,-0.1906492,0.0007826838,NaN,-0.555909,0.002512249,NaN,-0.3240451,-15.0035,NaN,-1.131257,-1.481148,-0.3712406,14.14949,NaN,NaN,0.3820443,0.8042211,0.1100211,1.094736,5.006857E-09,1.322753
1142.631,-0.1895123,0.0007831001,NaN,-0.5593975,0.002510818,NaN,-0.3280822,-15.00295,NaN,-1.137551,-1.482303,-0.3846777,14.15064,NaN,NaN,0.3848086,0.8047221,0.1078638,1.096409,2.175636E-09,1.319405
1142.647,-0.1883614,0.0007846941,NaN,-0.5629275,0.002507756,NaN,-0.3323073,-15.00266,NaN,-1.143862,-1.476018,-0.3980477,14.14408,NaN,NaN,0.3875189,0.805073,0.1057488,1.087348,3.874968E-10,1.316612
1142.662,-0.1872069,0.0007859023,NaN,-0.566467,0.002504278,NaN,-0.3366636,-15.00273,NaN,-1.150128,-1.480305,-0.4111371,14.14854,NaN,NaN,0.390176,0.8049526,0.1036753,1.093533,2.920694E-09,1.316581
1142.677,-0.1872069,0.0007859023,NaN,-0.566467,0.002504278,NaN,-0.3366636,-15.00273,NaN,-1.150128,-1.480305,-0.4111371,14.14854,NaN,NaN,0.390176,0.8049526,0.1036753,1.093533,2.920694E-09,1.316581
1142.691,-0.1860552,0.0007867783,NaN,-0.5699963,0.002502801,NaN,-0.3410823,-15.00407,NaN,-1.15632,-1.477877,-0.423915,14.14611,NaN,NaN,0.392781,0.8036149,0.1016425,1.090002,3.106959E-09,1.324082
1142.707,-0.1848756,0.0007880596,NaN,-0.5736082,0.002504682,NaN,-0.3456624,-15.00247,NaN,-1.162889,-1.473232,-0.4371666,14.14113,NaN,NaN,0.3956489,0.8052161,0.09964948,1.083316,-3.728949E-09,1.31677
1142.722,-0.1836842,0.0007891121,NaN,-0.5772541,0.002504969,NaN,-0.3503962,-15.00389,NaN,-1.169464,-1.475484,-0.4503565,14.14359,NaN,NaN,0.3984607,0.8037702,0.09769557,1.086547,-4.600317E-09,1.320492
1142.737,-0.1836842,0.0007891121,NaN,-0.5772541,0.002504969,NaN,-0.3503962,-15.00389,NaN,-1.169464,-1.475484,-0.4503565,14.14359,NaN,NaN,0.3984607,0.8037702,0.09769557,1.086547,-4.600317E-09,1.320492
1142.752,-0.1824909,0.0007898234,NaN,-0.5809045,0.002502826,NaN,-0.3552346,-15.00229,NaN,-1.175989,-1.46995,-0.4632727,14.13769,NaN,NaN,0.4012173,0.8053765,0.09577998,1.078578,-8.046211E-09,1.310622
1142.767,-0.1813014,0.0007907467,NaN,-0.5845411,0.002497906,NaN,-0.360116,-15.00376,NaN,-1.182436,-1.47204,-0.4758838,14.14001,NaN,NaN,0.4039199,0.8038957,0.09390195,1.081592,-5.699278E-09,1.318246
1142.782,-0.1800847,0.0007913641,NaN,-0.5882577,0.002492137,NaN,-0.36517,-15.00331,NaN,-1.189249,-1.470319,-0.4889697,14.13817,NaN,NaN,0.4068834,0.8043379,0.09206074,1.079115,-4.879714E-09,1.315904
1142.797,-0.1800847,0.0007913641,NaN,-0.5882577,0.002492137,NaN,-0.36517,-15.00331,NaN,-1.189249,-1.470319,-0.4889697,14.13817,NaN,NaN,0.4068834,0.8043379,0.09206074,1.079115,-4.879714E-09,1.315904
1142.811,-0.178857,0.0007924442,NaN,-0.5920061,0.002488381,NaN,-0.3703629,-15.0044,NaN,-1.196067,-1.475526,-0.5019894,14.14369,NaN,NaN,0.4097889,0.8032321,0.09025564,1.086621,-3.687621E-09,1.323303
1142.827,-0.1776278,0.0007938045,NaN,-0.5957573,0.002482834,NaN,-0.3756432,-15.00396,NaN,-1.202832,-1.478531,-0.5147358,14.14676,NaN,NaN,0.4126374,0.803638,0.08848593,1.090956,-6.220819E-09,1.321995
1142.842,-0.176403,0.000794424,NaN,-0.5994932,0.002476322,NaN,-0.3809508,-15.00325,NaN,-1.209517,-1.468495,-0.52718,14.1363,NaN,NaN,0.4154301,0.8044312,0.08675093,1.07651,-4.730702E-09,1.317603
1142.857,-0.176403,0.000794424,NaN,-0.5994932,0.002476322,NaN,-0.3809508,-15.00325,NaN,-1.209517,-1.468495,-0.52718,14.1363,NaN,NaN,0.4154301,0.8044312,0.08675093,1.07651,-4.730702E-09,1.317603
1142.871,-0.1751513,0.000795249,NaN,-0.6033075,0.002471409,NaN,-0.3864441,-15.00299,NaN,-1.21656,-1.473226,-0.5400979,14.14119,NaN,NaN,0.4184818,0.8046894,0.08504995,1.083337,-6.667853E-09,1.315284
1142.887,-0.1738889,0.0007958445,NaN,-0.6071525,0.002467654,NaN,-0.3920621,-15.00433,NaN,-1.223607,-1.47977,-0.5529439,14.14812,NaN,NaN,0.4214739,0.8033179,0.08338232,1.092773,-6.071807E-09,1.32353
1142.902,-0.1726255,0.0007959146,NaN,-0.6109989,0.002466842,NaN,-0.3977504,-15.00302,NaN,-1.230599,-1.472146,-0.5655171,14.14011,NaN,NaN,0.4244073,0.8047008,0.08174739,1.081812,-1.143622E-08,1.315457
1142.917,-0.1726255,0.0007959146,NaN,-0.6109989,0.002466842,NaN,-0.3977504,-15.00302,NaN,-1.230599,-1.472146,-0.5655171,14.14011,NaN,NaN,0.4244073,0.8047008,0.08174739,1.081812,-1.143622E-08,1.315457
1142.932,-0.171332,0.0007954448,NaN,-0.6149333,0.002466229,NaN,-0.4036661,-15.00359,NaN,-1.237958,-1.470477,-0.5785513,14.13843,NaN,NaN,0.427597,0.8041286,0.08014452,1.079404,-1.307535E-08,1.316216
1142.947,-0.1700262,0.0007952051,NaN,-0.6189037,0.002467828,NaN,-0.409711,-15.00405,NaN,-1.245324,-1.47076,-0.5914949,14.13877,NaN,NaN,0.4307243,0.8036734,0.07857308,1.07981,-1.486349E-08,1.318699
1142.962,-0.1687187,0.000794559,NaN,-0.6228781,0.00246742,NaN,-0.4158196,-15.00423,NaN,-1.252637,-1.473094,-0.6041557,14.1412,NaN,NaN,0.4337904,0.8034781,0.07703245,1.083171,-1.337338E-08,1.319864
1142.977,-0.1687187,0.000794559,NaN,-0.6228781,0.00246742,NaN,-0.4158196,-15.00423,NaN,-1.252637,-1.473094,-0.6041557,14.1412,NaN,NaN,0.4337904,0.8034781,0.07703245,1.083171,-1.337338E-08,1.319864
1142.991,-0.1674157,0.000794666,NaN,-0.6268371,0.002467788,NaN,-0.4219314,-15.00422,NaN,-1.259866,-1.480371,-0.6165126,14.14874,NaN,NaN,0.4367962,0.8034632,0.07552203,1.093653,-8.903028E-09,1.323202
1143.007,-0.166086,0.0007943395,NaN,-0.6308734,0.002468837,NaN,-0.4282535,-15.00316,NaN,-1.267438,-1.473168,-0.6293325,14.14118,NaN,NaN,0.440057,0.8045837,0.07404123,1.083293,-6.816865E-09,1.314202
1143.023,-0.1647461,0.0007938291,NaN,-0.6349386,0.002466898,NaN,-0.4346752,-15.00386,NaN,-1.275011,-1.480418,-0.6420642,14.14878,NaN,NaN,0.443254,0.8038539,0.07258946,1.093745,-1.128721E-08,1.31953
1143.036,-0.1647461,0.0007938291,NaN,-0.6349386,0.002466898,NaN,-0.4346752,-15.00386,NaN,-1.275011,-1.480418,-0.6420642,14.14878,NaN,NaN,0.443254,0.8038539,0.07258946,1.093745,-1.128721E-08,1.31953
1143.051,-0.1634061,0.0007927472,NaN,-0.639003,0.002465869,NaN,-0.4411371,-15.00361,NaN,-1.282525,-1.469265,-0.6545202,14.13719,NaN,NaN,0.4463883,0.804223,0.07116616,1.077675,-9.797096E-09,1.315979
1143.067,-0.1620716,0.0007916383,NaN,-0.6430488,0.002466722,NaN,-0.4475855,-15.00358,NaN,-1.289951,-1.466402,-0.6666799,14.1342,NaN,NaN,0.4494612,0.8042392,0.06977077,1.073541,-1.426744E-08,1.314714
1143.082,-0.160711,0.0007908305,NaN,-0.6471694,0.002465194,NaN,-0.4542576,-15.00399,NaN,-1.297712,-1.478875,-0.6793,14.14719,NaN,NaN,0.4527875,0.8038682,0.06840274,1.091519,-1.605558E-08,1.320775
1143.097,-0.160711,0.0007908305,NaN,-0.6471694,0.002465194,NaN,-0.4542576,-15.00399,NaN,-1.297712,-1.478875,-0.6793,14.14719,NaN,NaN,0.4527875,0.8038682,0.06840274,1.091519,-1.605558E-08,1.320775
1143.111,-0.1593408,0.0007899232,NaN,-0.6513171,0.002464762,NaN,-0.4610149,-15.00341,NaN,-1.305474,-1.473043,-0.6918266,14.14108,NaN,NaN,0.4560489,0.804482,0.06706153,1.083116,-1.635361E-08,1.314863
1143.127,-0.1579708,0.0007902507,NaN,-0.6554624,0.002466134,NaN,-0.467796,-15.00462,NaN,-1.313177,-1.479077,-0.7040811,14.14745,NaN,NaN,0.4592463,0.8032503,0.06574662,1.091804,-1.843977E-08,1.323549
1143.142,-0.156607,0.0007905939,NaN,-0.6595877,0.002469399,NaN,-0.4745499,-15.00331,NaN,-1.320789,-1.471665,-0.7160449,14.13964,NaN,NaN,0.462381,0.8046104,0.0644575,1.081139,-1.36714E-08,1.311964
1143.157,-0.156607,0.0007905939,NaN,-0.6595877,0.002469399,NaN,-0.4745499,-15.00331,NaN,-1.320789,-1.471665,-0.7160449,14.13964,NaN,NaN,0.462381,0.8046104,0.0644575,1.081139,-1.36714E-08,1.311964
1143.172,-0.1552172,0.0007906965,NaN,-0.6637868,0.002471326,NaN,-0.4815425,-15.00352,NaN,-1.32873,-1.467698,-0.7284637,14.13553,NaN,NaN,0.465768,0.8044063,0.06319365,1.075412,-1.128721E-08,1.315884
1143.187,-0.1538181,0.0007903881,NaN,-0.6680117,0.002472053,NaN,-0.4886062,-15.00473,NaN,-1.336672,-1.473342,-0.7407842,14.14151,NaN,NaN,0.4690888,0.8032094,0.06195458,1.083548,-1.188326E-08,1.323467
1143.202,-0.1524197,0.0007902693,NaN,-0.6722334,0.002470774,NaN,-0.495678,-15.00344,NaN,-1.344554,-1.479414,-0.7528369,14.14767,NaN,NaN,0.4723445,0.8044515,0.06073981,1.092296,-1.128721E-08,1.318823
1143.217,-0.1524197,0.0007902693,NaN,-0.6722334,0.002470774,NaN,-0.495678,-15.00344,NaN,-1.344554,-1.479414,-0.7528369,14.14767,NaN,NaN,0.4723445,0.8044515,0.06073981,1.092296,-1.128721E-08,1.318823
1143.231,-0.1509921,0.0007900312,NaN,-0.6765385,0.002473049,NaN,-0.5030231,-15.00348,NaN,-1.352773,-1.468092,-0.7653301,14.1359,NaN,NaN,0.4758501,0.804517,0.05954886,1.075966,-8.306979E-09,1.315837
1143.247,-0.1495536,0.000789633,NaN,-0.680875,0.002473432,NaN,-0.510439,-15.00442,NaN,-1.361001,-1.474435,-0.7777116,14.14258,NaN,NaN,0.4792872,0.8035723,0.05838126,1.085112,-7.710932E-09,1.322164
1143.262,-0.1481151,0.0007890852,NaN,-0.6852109,0.002473364,NaN,-0.5178554,-15.00492,NaN,-1.369168,-1.475526,-0.7898214,14.14376,NaN,NaN,0.4826569,0.8030456,0.05723655,1.086677,-6.51884E-09,1.325314
1143.277,-0.1481151,0.0007890852,NaN,-0.6852109,0.002473364,NaN,-0.5178554,-15.00492,NaN,-1.369168,-1.475526,-0.7898214,14.14376,NaN,NaN,0.4826569,0.8030456,0.05723655,1.086677,-6.51884E-09,1.325314
1143.291,-0.1466829,0.0007884001,NaN,-0.6895269,0.002473373,NaN,-0.5252235,-15.00346,NaN,-1.377243,-1.473972,-0.8016456,14.14201,NaN,NaN,0.4859606,0.8045052,0.05611429,1.084449,-4.7307E-09,1.315232
1143.307,-0.1452246,0.0007876232,NaN,-0.693916,0.002474847,NaN,-0.5328566,-15.00372,NaN,-1.385634,-1.467521,-0.8139039,14.13533,NaN,NaN,0.4895132,0.8042624,0.05501404,1.075143,-6.51884E-09,1.316911
1143.322,-0.1437576,0.00078798,NaN,-0.6983295,0.002476041,NaN,-0.5405355,-15.00432,NaN,-1.394026,-1.479122,-0.8260528,14.14743,NaN,NaN,0.4929964,0.8036799,0.05393536,1.091867,-5.326747E-09,1.322217
1143.337,-0.1437576,0.00078798,NaN,-0.6983295,0.002476041,NaN,-0.5405355,-15.00432,NaN,-1.394026,-1.479122,-0.8260528,14.14743,NaN,NaN,0.4929964,0.8036799,0.05393536,1.091867,-5.326747E-09,1.322217
1143.351,-0.142292,0.000787919,NaN,-0.702738,0.002473905,NaN,-0.5481955,-15.00392,NaN,-1.402354,-1.481322,-0.83794,14.14968,NaN,NaN,0.4964113,0.8040425,0.05287784,1.095044,-5.326747E-09,1.320812
1143.368,-0.1408337,0.0007876236,NaN,-0.7071235,0.002471946,NaN,-0.5557935,-15.00338,NaN,-1.410585,-1.473705,-0.8495508,14.14172,NaN,NaN,0.4997593,0.8046634,0.05184104,1.084071,-4.730701E-09,1.317167
1143.381,-0.1393498,0.0007880121,NaN,-0.7115799,0.00247309,NaN,-0.5636708,-15.00367,NaN,-1.419125,-1.473516,-0.8615845,14.14155,NaN,NaN,0.5033554,0.8043661,0.05082457,1.083794,-8.903026E-09,1.320642
1143.396,-0.1393498,0.0007880121,NaN,-0.7115799,0.00247309,NaN,-0.5636708,-15.00367,NaN,-1.419125,-1.473516,-0.8615845,14.14155,NaN,NaN,0.5033554,0.8043661,0.05082457,1.083794,-8.903026E-09,1.320642
1143.41,-0.1378576,0.0007872128,NaN,-0.716059,0.002471855,NaN,-0.5715799,-15.00365,NaN,-1.427667,-1.469444,-0.8735088,14.13731,NaN,NaN,0.5068812,0.8043901,0.04982803,1.077922,-7.710933E-09,1.3142
1143.426,-0.1363673,0.0007860764,NaN,-0.7205318,0.002470548,NaN,-0.5794563,-15.00396,NaN,-1.436144,-1.468534,-0.8851801,14.13639,NaN,NaN,0.5103379,0.8040785,0.04885103,1.076607,-6.518841E-09,1.314737
1143.441,-0.1348847,0.0007854365,NaN,-0.7249805,0.002471452,NaN,-0.5872599,-15.00457,NaN,-1.444523,-1.470622,-0.8965837,14.13862,NaN,NaN,0.5137269,0.8034645,0.04789319,1.079614,-5.922794E-09,1.318461
1143.456,-0.1348847,0.0007854365,NaN,-0.7249805,0.002471452,NaN,-0.5872599,-15.00457,NaN,-1.444523,-1.470622,-0.8965837,14.13862,NaN,NaN,0.5137269,0.8034645,0.04789319,1.079614,-5.922794E-09,1.318461
1143.47,-0.1333767,0.0007859755,NaN,-0.7294991,0.002472436,NaN,-0.5953576,-15.00366,NaN,-1.453204,-1.479306,-0.9083959,14.14752,NaN,NaN,0.5173632,0.8043455,0.04695413,1.092123,6.337166E-10,1.316335
1143.488,-0.1318607,0.0007857891,NaN,-0.7340396,0.002474126,NaN,-0.6034741,-15.00369,NaN,-1.46189,-1.46812,-0.9201005,14.1359,NaN,NaN,0.5209284,0.804419,0.04603348,1.075992,-3.538609E-09,1.313392
1143.501,-0.1303468,0.000786265,NaN,-0.7385729,0.002475104,NaN,-0.6115451,-15.00408,NaN,-1.470509,-1.479243,-0.9315619,14.14749,NaN,NaN,0.5244237,0.8040361,0.04513089,1.09203,-2.346516E-09,1.319143
1143.516,-0.1303468,0.000786265,NaN,-0.7385729,0.002475104,NaN,-0.6115451,-15.00408,NaN,-1.470509,-1.479243,-0.9315619,14.14749,NaN,NaN,0.5244237,0.8040361,0.04513089,1.09203,-2.346516E-09,1.319143
1143.53,-0.1288044,0.0007867542,NaN,-0.7431858,0.002477367,NaN,-0.6199368,-15.00355,NaN,-1.479441,-1.474717,-0.9434165,14.14273,NaN,NaN,0.5281643,0.8045849,0.04424598,1.085507,3.767009E-11,1.310359
1143.546,-0.1272524,0.0007867896,NaN,-0.7478262,0.002477453,NaN,-0.6283448,-15.00483,NaN,-1.488384,-1.477812,-0.9551607,14.14606,NaN,NaN,0.5318318,0.8032752,0.04337844,1.089957,3.767009E-11,1.320658
1143.562,-0.1257019,0.000786327,NaN,-0.7524621,0.002478544,NaN,-0.6367002,-15.00427,NaN,-1.497262,-1.46852,-0.9666646,14.13637,NaN,NaN,0.5354274,0.8038913,0.0425279,1.076576,3.613949E-09,1.316588
1143.576,-0.1257019,0.000786327,NaN,-0.7524621,0.002478544,NaN,-0.6367002,-15.00427,NaN,-1.497262,-1.46852,-0.9666646,14.13637,NaN,NaN,0.5354274,0.8038913,0.0425279,1.076576,3.613949E-09,1.316588
1143.59,-0.1241593,0.0007862628,NaN,-0.7570745,0.002479147,NaN,-0.6449659,-15.00507,NaN,-1.50604,-1.476048,-0.9779119,14.14426,NaN,NaN,0.5389525,0.8030905,0.04169404,1.087421,5.998134E-09,1.323048
1143.605,-0.1225911,0.0007855735,NaN,-0.7617562,0.002479354,NaN,-0.6535492,-15.00414,NaN,-1.515107,-1.469128,-0.9895304,14.137,NaN,NaN,0.5427224,0.8040487,0.04087652,1.077462,4.806042E-09,1.315979
1143.62,-0.1210155,0.0007860608,NaN,-0.7664588,0.002481613,NaN,-0.6621289,-15.00479,NaN,-1.52418,-1.479069,-1.001045,14.14737,NaN,NaN,0.5464185,0.8033928,0.04007504,1.091784,8.382321E-09,1.322272
1143.635,-0.1210155,0.0007860608,NaN,-0.7664588,0.002481613,NaN,-0.6621289,-15.00479,NaN,-1.52418,-1.479069,-1.001045,14.14737,NaN,NaN,0.5464185,0.8033928,0.04007504,1.091784,8.382321E-09,1.322272
1143.65,-0.1194427,0.0007868044,NaN,-0.7711527,0.002482567,NaN,-0.6706414,-15.0041,NaN,-1.533184,-1.481796,-1.012332,14.15013,NaN,NaN,0.5500423,0.8040444,0.03928927,1.095717,5.998135E-09,1.319347
1143.666,-0.1178787,0.0007875211,NaN,-0.7758202,0.002486817,NaN,-0.679054,-15.00317,NaN,-1.542083,-1.471797,-1.023373,14.13966,NaN,NaN,0.553595,0.8050767,0.03851891,1.081314,7.190228E-09,1.313218
1143.681,-0.1177072,0.0007876885,NaN,-0.7765849,0.002486922,NaN,-0.6709176,-15.0037,NaN,-1.535957,-1.48,-1.012167,14.14824,NaN,NaN,0.5454672,0.8045166,0.0377637,1.093145,1.315069E-08,1.316708
1143.696,-0.1177072,0.0007876885,NaN,-0.7765849,0.002486922,NaN,-0.6709176,-15.0037,NaN,-1.535957,-1.48,-1.012167,14.14824,NaN,NaN,0.5454672,0.8045166,0.0377637,1.093145,1.315069E-08,1.316708
1143.71,-0.1183451,0.0007880346,NaN,-0.7749671,0.002486343,NaN,-0.6591333,-15.00405,NaN,-1.524482,-1.482153,-0.9947547,14.15049,NaN,NaN,0.5374935,0.8041134,0.03702327,1.09624,1.19586E-08,1.318128
1143.725,-0.1194637,0.0007876887,NaN,-0.7718884,0.002486909,NaN,-0.6459509,-15.00322,NaN,-1.510491,-1.46911,-0.9758037,14.13688,NaN,NaN,0.5296744,0.8050802,0.03629734,1.077451,1.672697E-08,1.310747
1143.74,-0.1208553,0.0007874446,NaN,-0.7679307,0.002485758,NaN,-0.6323768,-15.00384,NaN,-1.495387,-1.479571,-0.9564477,14.14782,NaN,NaN,0.5220079,0.8044354,0.03558565,1.092539,1.434279E-08,1.314996
1143.755,-0.1208553,0.0007874446,NaN,-0.7679307,0.002485758,NaN,-0.6323768,-15.00384,NaN,-1.495387,-1.479571,-0.9564477,14.14782,NaN,NaN,0.5220079,0.8044354,0.03558565,1.092539,1.434279E-08,1.314996
1143.77,-0.1223577,0.000786876,NaN,-0.7635603,0.002485786,NaN,-0.6192588,-15.00401,NaN,-1.480267,-1.470315,-0.9376979,14.1382,NaN,NaN,0.5148051,0.8043307,0.0348879,1.079182,1.076651E-08,1.313353
1143.785,-0.1239147,0.0007865951,NaN,-0.7589585,0.002487608,NaN,-0.6064323,-15.00354,NaN,-1.465211,-1.468895,-0.9192172,14.13666,NaN,NaN,0.5077435,0.804782,0.03420385,1.077126,8.382322E-09,1.313581
1143.8,-0.1239147,0.0007865951,NaN,-0.7589585,0.002487608,NaN,-0.6064323,-15.00354,NaN,-1.465211,-1.468895,-0.9192172,14.13666,NaN,NaN,0.5077435,0.804782,0.03420385,1.077126,8.382322E-09,1.313581
1143.814,-0.1254942,0.0007871788,NaN,-0.7542364,0.002491305,NaN,-0.5939084,-15.00471,NaN,-1.450302,-1.474886,-0.9009452,14.14299,NaN,NaN,0.5008203,0.8035956,0.0335332,1.085762,7.19023E-09,1.319388
1143.83,-0.127041,0.000787856,NaN,-0.7495666,0.002494248,NaN,-0.5820709,-15.00494,NaN,-1.435996,-1.476624,-0.8835739,14.14481,NaN,NaN,0.4943465,0.8033268,0.03287569,1.088259,4.806044E-09,1.322906
1143.845,-0.1285615,0.0007884143,NaN,-0.7449487,0.002494874,NaN,-0.5706065,-15.0046,NaN,-1.422043,-1.480318,-0.8665944,14.1486,NaN,NaN,0.4879998,0.8036292,0.03223109,1.09358,4.806044E-09,1.319169
1143.86,-0.1285615,0.0007884143,NaN,-0.7449487,0.002494874,NaN,-0.5706065,-15.0046,NaN,-1.422043,-1.480318,-0.8665944,14.1486,NaN,NaN,0.4879998,0.8036292,0.03223109,1.09358,4.806044E-09,1.319169
1143.874,-0.1300596,0.0007885014,NaN,-0.7403827,0.002493979,NaN,-0.5594531,-15.00444,NaN,-1.408373,-1.479536,-0.8498771,14.14777,NaN,NaN,0.4817775,0.8037735,0.03159912,1.092452,7.19023E-09,1.317346
1143.89,-0.1315373,0.0007874893,NaN,-0.7358683,0.002491659,NaN,-0.5485747,-15.00414,NaN,-1.394952,-1.468786,-0.8334007,14.13658,NaN,NaN,0.4756772,0.8041694,0.03097953,1.076964,7.19023E-09,1.311722
1143.905,-0.1329595,0.0007869035,NaN,-0.7315094,0.002491721,NaN,-0.5383021,-15.00448,NaN,-1.38218,-1.470352,-0.8178816,14.13824,NaN,NaN,0.4700103,0.8038193,0.0303721,1.079222,1.076651E-08,1.315724
1143.92,-0.1329595,0.0007869035,NaN,-0.7315094,0.002491721,NaN,-0.5383021,-15.00448,NaN,-1.38218,-1.470352,-0.8178816,14.13824,NaN,NaN,0.4700103,0.8038193,0.0303721,1.079222,1.076651E-08,1.315724
1143.934,-0.134343,0.0007862233,NaN,-0.7272643,0.002492404,NaN,-0.5283663,-15.00389,NaN,-1.369763,-1.470286,-0.8027682,14.13811,NaN,NaN,0.4644546,0.8043965,0.02977657,1.079125,1.076651E-08,1.312089
1143.951,-0.1356978,0.0007853193,NaN,-0.723107,0.002493032,NaN,-0.518707,-15.00414,NaN,-1.357623,-1.46786,-0.7879107,14.13561,NaN,NaN,0.4590078,0.8041368,0.02919273,1.075624,1.315069E-08,1.313209
1143.966,-0.1370293,0.000784463,NaN,-0.7190215,0.002493058,NaN,-0.5092858,-15.00379,NaN,-1.345716,-1.47001,-0.7732839,14.1378,NaN,NaN,0.4536678,0.8044831,0.02862033,1.078722,1.19586E-08,1.312688
1143.981,-0.1383047,0.0007840308,NaN,-0.7151022,0.002494591,NaN,-0.5003957,-15.00492,NaN,-1.334446,-1.470846,-0.7596265,14.13878,NaN,NaN,0.4487462,0.8033426,0.02805915,1.079926,1.19586E-08,1.319014
1143.995,-0.1383047,0.0007840308,NaN,-0.7151022,0.002494591,NaN,-0.5003957,-15.00492,NaN,-1.334446,-1.470846,-0.7596265,14.13878,NaN,NaN,0.4487462,0.8033426,0.02805915,1.079926,1.19586E-08,1.319014
1144.008,-0.1395415,0.0007840494,NaN,-0.7113013,0.002494414,NaN,-0.4918136,-15.00486,NaN,-1.323506,-1.480229,-0.7463697,14.1485,NaN,NaN,0.4439214,0.8033707,0.02750898,1.093441,7.190231E-09,1.319342
1144.024,-0.1407501,0.0007833019,NaN,-0.7075894,0.002493973,NaN,-0.4834815,-15.00381,NaN,-1.312819,-1.468815,-0.733349,14.13658,NaN,NaN,0.4391911,0.8045431,0.02696959,1.07702,5.998138E-09,1.311292
1144.039,-0.1407501,0.0007833019,NaN,-0.7075894,0.002493973,NaN,-0.4834815,-15.00381,NaN,-1.312819,-1.468815,-0.733349,14.13658,NaN,NaN,0.4391911,0.8045431,0.02696959,1.07702,5.998138E-09,1.311292
1144.053,-0.1419002,0.0007832681,NaN,-0.7040527,0.002495401,NaN,-0.4756465,-15.00482,NaN,-1.302774,-1.473608,-0.7212912,14.14166,NaN,NaN,0.4348673,0.8035274,0.02644078,1.083933,7.190231E-09,1.318272
1144.069,-0.1430109,0.0007839558,NaN,-0.7006383,0.002496351,NaN,-0.4681064,-15.00401,NaN,-1.293046,-1.480599,-0.7096205,14.14883,NaN,NaN,0.4306285,0.8043033,0.02592234,1.094008,9.574416E-09,1.315702
1144.084,-0.1440934,0.0007840439,NaN,-0.6973137,0.00249746,NaN,-0.4608002,-15.00448,NaN,-1.283555,-1.472147,-0.6981634,14.14009,NaN,NaN,0.4264729,0.8039163,0.02541406,1.081815,1.076651E-08,1.313889
1144.099,-0.1440934,0.0007840439,NaN,-0.6973137,0.00249746,NaN,-0.4608002,-15.00448,NaN,-1.283555,-1.472147,-0.6981634,14.14009,NaN,NaN,0.4264729,0.8039163,0.02541406,1.081815,1.076651E-08,1.313889
1144.114,-0.1451542,0.0007836029,NaN,-0.6940586,0.002498503,NaN,-0.4536819,-15.00411,NaN,-1.274259,-1.468406,-0.6868929,14.13616,NaN,NaN,0.4223987,0.8042842,0.02491575,1.076422,1.255465E-08,1.310782
1144.129,-0.1461611,0.0007831454,NaN,-0.6909649,0.002499903,NaN,-0.446983,-15.0043,NaN,-1.265571,-1.467168,-0.6765715,14.13489,NaN,NaN,0.4187181,0.8040853,0.02442721,1.074633,1.19586E-08,1.310817
1144.144,-0.1471318,0.00078241,NaN,-0.6879836,0.002502148,NaN,-0.4405482,-15.00463,NaN,-1.257164,-1.465703,-0.6666259,14.1334,NaN,NaN,0.4151099,0.8037391,0.02394825,1.072519,9.574416E-09,1.312583
1144.159,-0.1471318,0.00078241,NaN,-0.6879836,0.002502148,NaN,-0.4405482,-15.00463,NaN,-1.257164,-1.465703,-0.6666259,14.1334,NaN,NaN,0.4151099,0.8037391,0.02394825,1.072519,9.574416E-09,1.312583
1144.175,-0.1480765,0.0007817225,NaN,-0.685084,0.00250363,NaN,-0.4343246,-15.00458,NaN,-1.248967,-1.466849,-0.6568702,14.13457,NaN,NaN,0.4115725,0.8037913,0.02347868,1.074165,1.136256E-08,1.31237
1144.189,-0.1490015,0.000780583,NaN,-0.6822473,0.002504639,NaN,-0.4282657,-15.00485,NaN,-1.240941,-1.465189,-0.6472749,14.13287,NaN,NaN,0.4081045,0.8034988,0.02301832,1.071772,1.255465E-08,1.312376
1144.204,-0.1498745,0.000779271,NaN,-0.6795663,0.002504843,NaN,-0.4225743,-15.0053,NaN,-1.233506,-1.466164,-0.6386084,14.13393,NaN,NaN,0.4050182,0.803041,0.02256698,1.073178,1.374674E-08,1.314989
1144.218,-0.1498745,0.000779271,NaN,-0.6795663,0.002504843,NaN,-0.4225743,-15.0053,NaN,-1.233506,-1.466164,-0.6386084,14.13393,NaN,NaN,0.4050182,0.803041,0.02256698,1.073178,1.374674E-08,1.314989
1144.233,-0.1507128,0.0007780478,NaN,-0.6769922,0.002504252,NaN,-0.417127,-15.00603,NaN,-1.226328,-1.470418,-0.6303017,14.13841,NaN,NaN,0.4019926,0.8023065,0.0221245,1.079304,1.017046E-08,1.320389
1144.249,-0.1515266,0.0007769173,NaN,-0.6744952,0.002505505,NaN,-0.4118746,-15.00545,NaN,-1.21934,-1.465361,-0.6221596,14.13311,NaN,NaN,0.3990264,0.802887,0.02169069,1.072027,7.786277E-09,1.315774
1144.264,-0.152322,0.0007766753,NaN,-0.6720563,0.002506282,NaN,-0.4067685,-15.00649,NaN,-1.212502,-1.478213,-0.6141501,14.14653,NaN,NaN,0.3961184,0.8018902,0.02126539,1.090533,1.017046E-08,1.325542
1144.279,-0.152322,0.0007766753,NaN,-0.6720563,0.002506282,NaN,-0.4067685,-15.00649,NaN,-1.212502,-1.478213,-0.6141501,14.14653,NaN,NaN,0.3961184,0.8018902,0.02126539,1.090533,1.017046E-08,1.325542
1144.293,-0.1530669,0.0007761322,NaN,-0.6697685,0.002506423,NaN,-0.4019858,-15.00649,NaN,-1.206239,-1.472938,-0.6070451,14.14108,NaN,NaN,0.3935811,0.8019485,0.02084842,1.082948,1.076651E-08,1.322389
1144.308,-0.1537785,0.0007768521,NaN,-0.6675833,0.002508394,NaN,-0.3974295,-15.00539,NaN,-1.200213,-1.481202,-0.6002821,14.1495,NaN,NaN,0.3910939,0.8030006,0.02043963,1.094831,1.19586E-08,1.321262
1144.324,-0.1544668,0.0007770616,NaN,-0.6654707,0.002510803,NaN,-0.3930542,-15.00655,NaN,-1.194355,-1.469924,-0.5936584,14.13789,NaN,NaN,0.3886554,0.8019965,0.02003886,1.078564,1.285267E-08,1.326057
1144.339,-0.1544668,0.0007770616,NaN,-0.6654707,0.002510803,NaN,-0.3930542,-15.00655,NaN,-1.194355,-1.469924,-0.5936584,14.13789,NaN,NaN,0.3886554,0.8019965,0.02003886,1.078564,1.285267E-08,1.326057
1144.353,-0.1551023,0.0007764383,NaN,-0.6635166,0.002510386,NaN,-0.3890004,-15.00458,NaN,-1.189078,-1.471074,-0.5879115,14.13887,NaN,NaN,0.3865786,0.803952,0.01964594,1.080214,1.434279E-08,1.313617
1144.369,-0.1557033,0.0007756152,NaN,-0.6616684,0.002508619,NaN,-0.3851731,-15.00589,NaN,-1.184028,-1.473294,-0.5824811,14.1413,NaN,NaN,0.3845427,0.8026443,0.01926074,1.083413,1.285267E-08,1.318457
1144.383,-0.1562809,0.0007747021,NaN,-0.6598933,0.002508009,NaN,-0.3815216,-15.00577,NaN,-1.179136,-1.468356,-0.5771627,14.13618,NaN,NaN,0.3825468,0.8027744,0.01888308,1.076307,1.523686E-08,1.315391
1144.398,-0.1562809,0.0007747021,NaN,-0.6598933,0.002508009,NaN,-0.3815216,-15.00577,NaN,-1.179136,-1.468356,-0.5771627,14.13618,NaN,NaN,0.3825468,0.8027744,0.01888308,1.076307,1.523686E-08,1.315391
1144.414,-0.1568418,0.000773882,NaN,-0.6581711,0.002505997,NaN,-0.3779908,-15.00666,NaN,-1.174363,-1.478266,-0.5719231,14.14653,NaN,NaN,0.38059,0.8018865,0.01851284,1.090573,1.404476E-08,1.322018
1144.428,-0.1573545,0.0007740746,NaN,-0.6565935,0.002505768,NaN,-0.3747213,-15.0063,NaN,-1.170139,-1.48094,-0.5675368,14.14926,NaN,NaN,0.3789854,0.8022184,0.01814984,1.094422,1.464081E-08,1.321046
1144.443,-0.1578358,0.0007747493,NaN,-0.6551117,0.002508091,NaN,-0.3716507,-15.00556,NaN,-1.166115,-1.477374,-0.5634542,14.14551,NaN,NaN,0.3774125,0.8029876,0.01779398,1.089303,1.225662E-08,1.314886
1144.458,-0.1578358,0.0007747493,NaN,-0.6551117,0.002508091,NaN,-0.3716507,-15.00556,NaN,-1.166115,-1.477374,-0.5634542,14.14551,NaN,NaN,0.3774125,0.8029876,0.01779398,1.089303,1.225662E-08,1.314886
1144.473,-0.1582959,0.0007754042,NaN,-0.6536954,0.002512023,NaN,-0.3687391,-15.00506,NaN,-1.162226,-1.472879,-0.5594641,14.1408,NaN,NaN,0.3758705,0.803521,0.01744508,1.082834,1.076651E-08,1.31273
1144.488,-0.1587413,0.0007757276,NaN,-0.6523256,0.002511857,NaN,-0.3659342,-15.00568,NaN,-1.158437,-1.479646,-0.5555297,14.14787,NaN,NaN,0.3743587,0.8028855,0.01710303,1.09258,9.276391E-09,1.317036
1144.504,-0.1591401,0.000775234,NaN,-0.6510952,0.002511794,NaN,-0.3633637,-15.00476,NaN,-1.155182,-1.468054,-0.5524235,14.13579,NaN,NaN,0.3731904,0.8039063,0.01676768,1.075901,7.786275E-09,1.310254
1144.519,-0.1591401,0.000775234,NaN,-0.6510952,0.002511794,NaN,-0.3633637,-15.00476,NaN,-1.155182,-1.468054,-0.5524235,14.13579,NaN,NaN,0.3731904,0.8039063,0.01676768,1.075901,7.786275E-09,1.310254
1144.533,-0.159509,0.0007743179,NaN,-0.6499557,0.00251082,NaN,-0.36098,-15.00457,NaN,-1.152109,-1.469874,-0.5496019,14.13765,NaN,NaN,0.3720452,0.8040946,0.01643891,1.07852,8.382322E-09,1.309592
1144.548,-0.1598581,0.0007741672,NaN,-0.6488774,0.002513468,NaN,-0.358746,-15.00483,NaN,-1.149154,-1.468321,-0.5468501,14.13605,NaN,NaN,0.3709226,0.8038267,0.01611659,1.076276,1.151157E-08,1.31123
1144.564,-0.1601936,0.0007729628,NaN,-0.6478416,0.00251283,NaN,-0.356609,-15.00471,NaN,-1.146284,-1.466697,-0.5441301,14.13435,NaN,NaN,0.3698219,0.803923,0.01580059,1.073934,1.136255E-08,1.308933
1144.578,-0.1601936,0.0007729628,NaN,-0.6478416,0.00251283,NaN,-0.356609,-15.00471,NaN,-1.146284,-1.466697,-0.5441301,14.13435,NaN,NaN,0.3698219,0.803923,0.01580059,1.073934,1.136255E-08,1.308933
1144.593,-0.1604839,0.0007715645,NaN,-0.6469409,0.00251054,NaN,-0.3546855,-15.00572,NaN,-1.143933,-1.472904,-0.5422133,14.1409,NaN,NaN,0.3690566,0.8029197,0.01549079,1.082881,8.23331E-09,1.316394
1144.608,-0.1607454,0.0007697183,NaN,-0.6461275,0.002507854,NaN,-0.3529386,-15.00565,NaN,-1.14175,-1.466964,-0.5405616,14.13474,NaN,NaN,0.3683066,0.8029997,0.01518706,1.074331,8.23331E-09,1.315909
1144.623,-0.1609883,0.0007683327,NaN,-0.6453714,0.00250748,NaN,-0.3513333,-15.00563,NaN,-1.139669,-1.466956,-0.5389581,14.13472,NaN,NaN,0.3675714,0.803015,0.01488928,1.074316,1.046848E-08,1.314679
1144.638,-0.1609883,0.0007683327,NaN,-0.6453714,0.00250748,NaN,-0.3513333,-15.00563,NaN,-1.139669,-1.466956,-0.5389581,14.13472,NaN,NaN,0.3675714,0.803015,0.01488928,1.074316,1.046848E-08,1.314679
1144.653,-0.1611833,0.0007672749,NaN,-0.6447586,0.002506337,NaN,-0.3499619,-15.00679,NaN,-1.138113,-1.47498,-0.5381312,14.14316,NaN,NaN,0.3671644,0.8018663,0.01459734,1.085874,9.574414E-09,1.321411
1144.668,-0.1613482,0.0007674097,NaN,-0.6442367,0.002506491,NaN,-0.3487763,-15.00625,NaN,-1.136718,-1.481133,-0.5375416,14.14947,NaN,NaN,0.3667656,0.8023549,0.01431114,1.09473,7.786275E-09,1.321534
1144.683,-0.1614941,0.0007679665,NaN,-0.6437733,0.002506215,NaN,-0.3477332,-15.00575,NaN,-1.135418,-1.481768,-0.536974,14.15009,NaN,NaN,0.3663747,0.8028442,0.01403054,1.095654,5.551101E-09,1.317921
1144.698,-0.1614941,0.0007679665,NaN,-0.6437733,0.002506215,NaN,-0.3477332,-15.00575,NaN,-1.135418,-1.481768,-0.536974,14.15009,NaN,NaN,0.3663747,0.8028442,0.01403054,1.095654,5.551101E-09,1.317921
1144.713,-0.1616276,0.0007675567,NaN,-0.6433479,0.002505149,NaN,-0.3467742,-15.00534,NaN,-1.134178,-1.471294,-0.5363921,14.13921,NaN,NaN,0.3659915,0.8033738,0.01375544,1.080583,5.998136E-09,1.314377
1144.729,-0.1617177,0.0007676924,NaN,-0.6430524,0.002506927,NaN,-0.3460035,-15.00542,NaN,-1.133433,-1.472471,-0.5365666,14.14043,NaN,NaN,0.3659296,0.8033058,0.01348574,1.082281,3.762961E-09,1.316175
1144.743,-0.1617807,0.0007676538,NaN,-0.6428384,0.002505395,NaN,-0.3453938,-15.00549,NaN,-1.132827,-1.479783,-0.5369674,14.14802,NaN,NaN,0.3658692,0.8032088,0.01322133,1.092813,5.178572E-09,1.314929
1144.759,-0.1617807,0.0007676538,NaN,-0.6428384,0.002505395,NaN,-0.3453938,-15.00549,NaN,-1.132827,-1.479783,-0.5369674,14.14802,NaN,NaN,0.3658692,0.8032088,0.01322133,1.092813,5.178572E-09,1.314929
1144.773,-0.161827,0.0007673064,NaN,-0.6426755,0.002505423,NaN,-0.344912,-15.00523,NaN,-1.132297,-1.472039,-0.5373765,14.13997,NaN,NaN,0.36581,0.8035417,0.0129621,1.081665,7.041217E-09,1.313226
1144.788,-0.1618627,0.0007673651,NaN,-0.642545,0.002505454,NaN,-0.3445041,-15.00672,NaN,-1.131812,-1.477166,-0.5377545,14.14542,NaN,NaN,0.365752,0.8020489,0.01270796,1.089043,6.8177E-09,1.32029
1144.803,-0.1618571,0.0007673892,NaN,-0.6425395,0.002505925,NaN,-0.3442746,-15.00555,NaN,-1.131808,-1.473048,-0.5388693,14.14106,NaN,NaN,0.3660088,0.8032413,0.01245879,1.083131,4.731537E-09,1.316172
1144.818,-0.1618571,0.0007673892,NaN,-0.6425395,0.002505925,NaN,-0.3442746,-15.00555,NaN,-1.131808,-1.473048,-0.5388693,14.14106,NaN,NaN,0.3660088,0.8032413,0.01245879,1.083131,4.731537E-09,1.316172
1144.832,-0.1618263,0.0007681464,NaN,-0.6426107,0.002511762,NaN,-0.344199,-15.00543,NaN,-1.13193,-1.469273,-0.5401925,14.13713,NaN,NaN,0.366261,0.8033662,0.01221452,1.077694,5.02956E-09,1.317917
1144.848,-0.1617801,0.0007689573,NaN,-0.6427288,0.002514153,NaN,-0.3442449,-15.00607,NaN,-1.132115,-1.479661,-0.5415058,14.14796,NaN,NaN,0.3665083,0.8027281,0.01197503,1.092658,6.966711E-09,1.318663
1144.863,-0.1617246,0.0007694251,NaN,-0.6428754,0.002518989,NaN,-0.3443584,-15.00576,NaN,-1.132332,-1.467361,-0.5427698,14.13519,NaN,NaN,0.3667507,0.8031552,0.01174025,1.074957,5.625607E-09,1.318099
1144.879,-0.1617246,0.0007694251,NaN,-0.6428754,0.002518989,NaN,-0.3443584,-15.00576,NaN,-1.132332,-1.467361,-0.5427698,14.13519,NaN,NaN,0.3667507,0.8031552,0.01174025,1.074957,5.625607E-09,1.318099
1144.892,-0.1616284,0.0007693687,NaN,-0.6431435,0.002521641,NaN,-0.3446452,-15.00553,NaN,-1.133019,-1.467525,-0.5447512,14.13533,NaN,NaN,0.3673021,0.8033803,0.01151006,1.075189,4.657031E-09,1.314471
1144.908,-0.1615075,0.0007694573,NaN,-0.6434852,0.002526021,NaN,-0.3450799,-15.006,NaN,-1.133821,-1.465581,-0.5469233,14.13336,NaN,NaN,0.367843,0.802906,0.01128439,1.072388,7.562758E-09,1.319917
1144.923,-0.1613723,0.0007699568,NaN,-0.6438709,0.002528232,NaN,-0.3456302,-15.00655,NaN,-1.134674,-1.478451,-0.5490681,14.14674,NaN,NaN,0.3683734,0.8023995,0.01106315,1.090917,1.054299E-08,1.319634
1144.938,-0.1613723,0.0007699568,NaN,-0.6438709,0.002528232,NaN,-0.3456302,-15.00655,NaN,-1.134674,-1.478451,-0.5490681,14.14674,NaN,NaN,0.3683734,0.8023995,0.01106315,1.090917,1.054299E-08,1.319634
1144.952,-0.1611934,0.0007700609,NaN,-0.6443865,0.002529814,NaN,-0.3463861,-15.00567,NaN,-1.136002,-1.467002,-0.5519079,14.13482,NaN,NaN,0.3692071,0.8033773,0.01084624,1.074455,1.248014E-08,1.314467
1144.968,-0.1609886,0.0007698779,NaN,-0.6449799,0.002531852,NaN,-0.347303,-15.00573,NaN,-1.137442,-1.467206,-0.5549114,14.13503,NaN,NaN,0.3700249,0.803322,0.01063359,1.074752,1.83661E-08,1.313138
1144.983,-0.160769,0.0007706032,NaN,-0.6456186,0.002533404,NaN,-0.3483379,-15.00592,NaN,-1.138928,-1.478365,-0.5578641,14.14662,NaN,NaN,0.3708266,0.8031629,0.01042511,1.090826,1.70995E-08,1.317648
1144.998,-0.160769,0.0007706032,NaN,-0.6456186,0.002533404,NaN,-0.3483379,-15.00592,NaN,-1.138928,-1.478365,-0.5578641,14.14662,NaN,NaN,0.3708266,0.8031629,0.01042511,1.090826,1.70995E-08,1.317648
1145.012,-0.1605413,0.0007713433,NaN,-0.6462823,0.00253391,NaN,-0.3494316,-15.00672,NaN,-1.140427,-1.479505,-0.5607307,14.14786,NaN,NaN,0.3716125,0.8023249,0.01022071,1.092453,1.650345E-08,1.320473
1145.028,-0.1602743,0.0007715318,NaN,-0.6470629,0.002535793,NaN,-0.3506966,-15.00609,NaN,-1.142373,-1.467872,-0.5642776,14.13576,NaN,NaN,0.3726969,0.8030549,0.01002032,1.075718,1.70995E-08,1.314862
1145.043,-0.1599846,0.000771731,NaN,-0.6479121,0.002535347,NaN,-0.3520992,-15.00663,NaN,-1.144413,-1.478077,-0.5679795,14.14637,NaN,NaN,0.3737603,0.8025024,0.009823862,1.090407,1.948368E-08,1.319435
1145.058,-0.1599846,0.000771731,NaN,-0.6479121,0.002535347,NaN,-0.3520992,-15.00663,NaN,-1.144413,-1.478077,-0.5679795,14.14637,NaN,NaN,0.3737603,0.8025024,0.009823862,1.090407,1.948368E-08,1.319435
1145.073,-0.1596823,0.0007713404,NaN,-0.6487997,0.002534705,NaN,-0.3536054,-15.00552,NaN,-1.146484,-1.473355,-0.571621,14.14138,NaN,NaN,0.3748029,0.8036322,0.009631259,1.083621,1.955819E-08,1.312753
1145.088,-0.1593737,0.0007706503,NaN,-0.6497069,0.002534037,NaN,-0.3551607,-15.00549,NaN,-1.148556,-1.467281,-0.5751651,14.13508,NaN,NaN,0.375825,0.8036638,0.009442431,1.074867,1.829159E-08,1.31012
1145.103,-0.1590273,0.0007703888,NaN,-0.6507267,0.002531998,NaN,-0.356888,-15.00582,NaN,-1.151063,-1.478861,-0.5793756,14.14712,NaN,NaN,0.3771408,0.8033502,0.009257298,1.091552,1.903665E-08,1.31601
1145.118,-0.1590273,0.0007703888,NaN,-0.6507267,0.002531998,NaN,-0.356888,-15.00582,NaN,-1.151063,-1.478861,-0.5793756,14.14712,NaN,NaN,0.3771408,0.8033502,0.009257298,1.091552,1.903665E-08,1.31601
1145.132,-0.1586594,0.0007702255,NaN,-0.6518112,0.002528664,NaN,-0.3587475,-15.00597,NaN,-1.153654,-1.481063,-0.5837253,14.14941,NaN,NaN,0.3784312,0.8031595,0.009075805,1.094718,1.948368E-08,1.316397
1145.148,-0.1582802,0.0007695967,NaN,-0.6529307,0.002525018,NaN,-0.3607038,-15.00536,NaN,-1.156267,-1.474713,-0.5880004,14.14277,NaN,NaN,0.3796963,0.8038171,0.008897873,1.08558,1.866412E-08,1.315279
1145.164,-0.1578957,0.0007686602,NaN,-0.6540666,0.002522859,NaN,-0.3627028,-15.00508,NaN,-1.158872,-1.469427,-0.592165,14.13725,NaN,NaN,0.3809366,0.8041134,0.008723424,1.077961,1.404476E-08,1.308951
1145.177,-0.1578957,0.0007686602,NaN,-0.6540666,0.002522859,NaN,-0.3627028,-15.00508,NaN,-1.158872,-1.469427,-0.592165,14.13725,NaN,NaN,0.3809366,0.8041134,0.008723424,1.077961,1.404476E-08,1.308951
1145.192,-0.1574744,0.000768139,NaN,-0.6553121,0.002524028,NaN,-0.3648777,-15.00548,NaN,-1.161901,-1.467301,-0.5969817,14.13508,NaN,NaN,0.3824663,0.8037074,0.008552393,1.07489,1.851511E-08,1.312918
1145.207,-0.1570325,0.0007682682,NaN,-0.6566194,0.002523497,NaN,-0.3671796,-15.00545,NaN,-1.165006,-1.47872,-0.6019214,14.14691,NaN,NaN,0.3839664,0.8037527,0.008384725,1.09134,2.075028E-08,1.313717
1145.222,-0.1565803,0.0007688683,NaN,-0.6579589,0.00252554,NaN,-0.3695714,-15.00679,NaN,-1.168125,-1.474749,-0.6067731,14.14289,NaN,NaN,0.385437,0.8024266,0.008220343,1.085592,2.402854E-08,1.319439
1145.237,-0.1565803,0.0007688683,NaN,-0.6579589,0.00252554,NaN,-0.3695714,-15.00679,NaN,-1.168125,-1.474749,-0.6067731,14.14289,NaN,NaN,0.385437,0.8024266,0.008220343,1.085592,2.402854E-08,1.319439
1145.252,-0.1560882,0.0007694686,NaN,-0.6594165,0.002527162,NaN,-0.3721758,-15.00657,NaN,-1.171675,-1.475007,-0.6122577,14.14312,NaN,NaN,0.3871926,0.8026289,0.008059178,1.085958,2.060127E-08,1.317273
1145.267,-0.1555742,0.0007697485,NaN,-0.6609403,0.002527537,NaN,-0.3749197,-15.00647,NaN,-1.175302,-1.475732,-0.61784,14.14385,NaN,NaN,0.3889141,0.8027135,0.007901181,1.086996,2.015424E-08,1.315236
1145.283,-0.1550494,0.0007695308,NaN,-0.6624978,0.002529299,NaN,-0.3777543,-15.00566,NaN,-1.178938,-1.466774,-0.6233141,14.13449,NaN,NaN,0.3906018,0.8035644,0.007746279,1.074105,1.881313E-08,1.311966
1145.297,-0.1550494,0.0007695308,NaN,-0.6624978,0.002529299,NaN,-0.3777543,-15.00566,NaN,-1.178938,-1.466774,-0.6233141,14.13449,NaN,NaN,0.3906018,0.8035644,0.007746279,1.074105,1.881313E-08,1.311966
1145.312,-0.1545204,0.0007693567,NaN,-0.6640691,0.002529439,NaN,-0.3806216,-15.00664,NaN,-1.182551,-1.475851,-0.6286494,14.144,NaN,NaN,0.3922565,0.802609,0.007594415,1.087179,1.911115E-08,1.316154
1145.328,-0.1539555,0.0007702599,NaN,-0.6657463,0.002531049,NaN,-0.3836756,-15.00604,NaN,-1.186569,-1.481277,-0.6346079,14.14955,NaN,NaN,0.3941925,0.8031629,0.007445524,1.09499,1.613092E-08,1.316591
1145.343,-0.1533716,0.0007704422,NaN,-0.6674811,0.002533345,NaN,-0.3868466,-15.00629,NaN,-1.19065,-1.468515,-0.6406567,14.13634,NaN,NaN,0.3960907,0.8030694,0.007299558,1.076604,1.732302E-08,1.313922
1145.358,-0.1533716,0.0007704422,NaN,-0.6674811,0.002533345,NaN,-0.3868466,-15.00629,NaN,-1.19065,-1.468515,-0.6406567,14.13634,NaN,NaN,0.3960907,0.8030694,0.007299558,1.076604,1.732302E-08,1.313922
1145.372,-0.1527789,0.0007715858,NaN,-0.6692433,0.002536106,NaN,-0.3900929,-15.00657,NaN,-1.194728,-1.478183,-0.6465909,14.14637,NaN,NaN,0.3979518,0.8028028,0.007156456,1.09052,1.613092E-08,1.320071
1145.387,-0.1521835,0.0007724785,NaN,-0.6710145,0.00253848,NaN,-0.3933613,-15.00694,NaN,-1.198775,-1.47756,-0.6523794,14.14574,NaN,NaN,0.3997765,0.8024366,0.007016157,1.089613,1.553488E-08,1.318775
1145.402,-0.1515535,0.0007728221,NaN,-0.6728879,0.002540518,NaN,-0.3968231,-15.00659,NaN,-1.203216,-1.472327,-0.6587806,14.14029,NaN,NaN,0.401879,0.8028249,0.006878603,1.082084,1.672697E-08,1.315545
1145.417,-0.1515535,0.0007728221,NaN,-0.6728879,0.002540518,NaN,-0.3968231,-15.00659,NaN,-1.203216,-1.472327,-0.6587806,14.14029,NaN,NaN,0.401879,0.8028249,0.006878603,1.082084,1.672697E-08,1.315545
1145.431,-0.1509054,0.0007719946,NaN,-0.6748154,0.002539668,NaN,-0.4003956,-15.00572,NaN,-1.207712,-1.468062,-0.6652577,14.13578,NaN,NaN,0.4039407,0.8037047,0.006743752,1.075941,1.762104E-08,1.312374
1145.447,-0.1502495,0.0007706851,NaN,-0.6767675,0.002537958,NaN,-0.4040348,-15.00581,NaN,-1.212201,-1.467892,-0.6716099,14.1356,NaN,NaN,0.4059619,0.8036049,0.006611547,1.075689,1.344871E-08,1.313066
1145.462,-0.1495918,0.0007702949,NaN,-0.6787259,0.002537406,NaN,-0.4076881,-15.00697,NaN,-1.21665,-1.477492,-0.6778077,14.14567,NaN,NaN,0.4079435,0.8024574,0.006481932,1.089515,1.315069E-08,1.322508
1145.477,-0.1495918,0.0007702949,NaN,-0.6787259,0.002537406,NaN,-0.4076881,-15.00697,NaN,-1.21665,-1.477492,-0.6778077,14.14567,NaN,NaN,0.4079435,0.8024574,0.006481932,1.089515,1.315069E-08,1.322508
1145.491,-0.1489002,0.0007710344,NaN,-0.680784,0.002537925,NaN,-0.411544,-15.00628,NaN,-1.221486,-1.481241,-0.684607,14.14948,NaN,NaN,0.4102001,0.8031115,0.006354857,1.094914,1.374674E-08,1.318646
1145.507,-0.1481913,0.0007711426,NaN,-0.6828939,0.002539067,NaN,-0.4155041,-15.00514,NaN,-1.226371,-1.470603,-0.6914676,14.13836,NaN,NaN,0.4124126,0.8043748,0.006230281,1.079612,1.553488E-08,1.309954
1145.522,-0.1474753,0.0007711415,NaN,-0.685026,0.002537578,NaN,-0.4195218,-15.00527,NaN,-1.231242,-1.479645,-0.6981937,14.14776,NaN,NaN,0.4145818,0.8042451,0.006108145,1.092647,1.493883E-08,1.311963
1145.536,-0.1474753,0.0007711415,NaN,-0.685026,0.002537578,NaN,-0.4195218,-15.00527,NaN,-1.231242,-1.479645,-0.6981937,14.14776,NaN,NaN,0.4145818,0.8042451,0.006108145,1.092647,1.493883E-08,1.311963
1145.551,-0.1467223,0.0007704979,NaN,-0.6872668,0.002537299,NaN,-0.4237782,-15.00553,NaN,-1.236507,-1.467515,-0.7055035,14.13517,NaN,NaN,0.4170223,0.8040935,0.005988396,1.075153,1.344871E-08,1.310832
1145.567,-0.1459506,0.0007699464,NaN,-0.689564,0.002538292,NaN,-0.4281473,-15.00596,NaN,-1.241824,-1.467704,-0.7128518,14.13541,NaN,NaN,0.4194151,0.8036572,0.005871005,1.07542,1.523685E-08,1.313431
1145.581,-0.1451713,0.0007697127,NaN,-0.6918854,0.002538694,NaN,-0.4325722,-15.00663,NaN,-1.247126,-1.475476,-0.7200496,14.14353,NaN,NaN,0.4217611,0.8029966,0.005755913,1.086615,1.58329E-08,1.317338
1145.596,-0.1451713,0.0007697127,NaN,-0.6918854,0.002538694,NaN,-0.4325722,-15.00663,NaN,-1.247126,-1.475476,-0.7200496,14.14353,NaN,NaN,0.4217611,0.8029966,0.005755913,1.086615,1.58329E-08,1.317338
1145.61,-0.1443909,0.000769567,NaN,-0.6942113,0.002536214,NaN,-0.4369983,-15.00596,NaN,-1.252379,-1.480701,-0.7270736,14.14888,NaN,NaN,0.4240611,0.8036251,0.005643077,1.094143,1.58329E-08,1.317122
1145.626,-0.1435774,0.0007690646,NaN,-0.696634,0.002535043,NaN,-0.441645,-15.00502,NaN,-1.258001,-1.471314,-0.7346733,14.13906,NaN,NaN,0.4266297,0.8046597,0.005532446,1.080633,1.97072E-08,1.310361
1145.641,-0.1427477,0.0007691383,NaN,-0.699105,0.002536655,NaN,-0.4463826,-15.00633,NaN,-1.263663,-1.47042,-0.7423046,14.13825,NaN,NaN,0.4291482,0.8033622,0.005423993,1.079337,2.030325E-08,1.31861
1145.656,-0.1427477,0.0007691383,NaN,-0.699105,0.002536655,NaN,-0.4463826,-15.00633,NaN,-1.263663,-1.47042,-0.7423046,14.13825,NaN,NaN,0.4291482,0.8033622,0.005423993,1.079337,2.030325E-08,1.31861
1145.67,-0.1419123,0.0007695481,NaN,-0.7015945,0.00254028,NaN,-0.4511597,-15.00615,NaN,-1.269301,-1.469287,-0.7497823,14.13705,NaN,NaN,0.4316174,0.8035436,0.005317666,1.077701,2.238941E-08,1.316805
1145.686,-0.1410771,0.0007702062,NaN,-0.7040842,0.002540834,NaN,-0.4559266,-15.00535,NaN,-1.274883,-1.478592,-0.7570827,14.14661,NaN,NaN,0.4340382,0.8043321,0.00521342,1.091104,1.940918E-08,1.313142
1145.701,-0.1402097,0.0007700262,NaN,-0.7066672,0.002541351,NaN,-0.4609246,-15.00545,NaN,-1.280825,-1.467938,-0.7649487,14.13554,NaN,NaN,0.4367252,0.8043132,0.005111211,1.075738,1.702499E-08,1.309828
1145.716,-0.1402097,0.0007700262,NaN,-0.7066672,0.002541351,NaN,-0.4609246,-15.00545,NaN,-1.280825,-1.467938,-0.7649487,14.13554,NaN,NaN,0.4367252,0.8043132,0.005111211,1.075738,1.702499E-08,1.309828
1145.73,-0.1393271,0.0007705505,NaN,-0.7092957,0.002543143,NaN,-0.4660051,-15.00661,NaN,-1.286803,-1.474536,-0.7728338,14.14251,NaN,NaN,0.4393598,0.8031432,0.005011017,1.085248,2.000522E-08,1.319786
1145.745,-0.1384394,0.0007703534,NaN,-0.7119403,0.002543679,NaN,-0.4711147,-15.00517,NaN,-1.292753,-1.47114,-0.7805593,14.13885,NaN,NaN,0.4419429,0.8045753,0.004912785,1.080363,2.417755E-08,1.310507
1145.76,-0.1375529,0.0007703195,NaN,-0.7145828,0.002544613,NaN,-0.4762052,-15.00642,NaN,-1.298643,-1.473823,-0.7881034,14.14175,NaN,NaN,0.4444752,0.803313,0.004816477,1.084228,2.417755E-08,1.315616
1145.776,-0.1375529,0.0007703195,NaN,-0.7145828,0.002544613,NaN,-0.4762052,-15.00642,NaN,-1.298643,-1.473823,-0.7881034,14.14175,NaN,NaN,0.4444752,0.803313,0.004816477,1.084228,2.417755E-08,1.315616
1145.79,-0.1366345,0.0007699489,NaN,-0.7173166,0.002546238,NaN,-0.4815387,-15.00558,NaN,-1.304883,-1.467206,-0.7962013,14.13481,NaN,NaN,0.4472717,0.8041621,0.004722052,1.074699,2.656173E-08,1.312308
1145.807,-0.1357016,0.0007698177,NaN,-0.720094,0.002545523,NaN,-0.4869464,-15.00667,NaN,-1.311159,-1.478437,-0.8043064,14.14658,NaN,NaN,0.4500136,0.8030977,0.004629487,1.090892,2.35815E-08,1.322456
1145.82,-0.1347643,0.0007692921,NaN,-0.7228855,0.002546124,NaN,-0.4923725,-15.00582,NaN,-1.317402,-1.467347,-0.812247,14.13501,NaN,NaN,0.4527018,0.8040342,0.004538736,1.074931,2.000522E-08,1.313946
1145.835,-0.1347643,0.0007692921,NaN,-0.7228855,0.002546124,NaN,-0.4923725,-15.00582,NaN,-1.317402,-1.467347,-0.812247,14.13501,NaN,NaN,0.4527018,0.8040342,0.004538736,1.074931,2.000522E-08,1.313946
1145.85,-0.1337921,0.0007690111,NaN,-0.7257776,0.002545204,NaN,-0.4980741,-15.0071,NaN,-1.324005,-1.476949,-0.8207241,14.14511,NaN,NaN,0.455651,0.8027731,0.004449755,1.088772,1.881313E-08,1.323623
1145.865,-0.1328039,0.000768479,NaN,-0.7287181,0.002546089,NaN,-0.5038534,-15.00607,NaN,-1.330647,-1.467384,-0.8291905,14.13511,NaN,NaN,0.4585427,0.8038562,0.004362526,1.07501,1.762104E-08,1.315124
1145.88,-0.1318108,0.0007683588,NaN,-0.7316749,0.002547813,NaN,-0.5096468,-15.00648,NaN,-1.337256,-1.466741,-0.837482,14.13447,NaN,NaN,0.4613777,0.8034419,0.004277009,1.074078,1.821708E-08,1.315168
