JMolnar6/NonAnthroHands_User_Study/HandsLoggerWithURDF/tempdata/files/Reachy_JointMotion_gesture_4_19.csv
Time,r_shoulder,r_shoulder_x,r_upper_arm,r_forearm,r_wrist,r_wrist2hand,
210.8618,0.04500178,-2.446464E-08,NaN,-0.3269987,-1.368704E-07,NaN,0.4714307,1.073642E-08,NaN,-0.5219509,7.213243E-06,-0.3837692,-4.700684E-09,NaN,NaN,-0.01997086,-5.122325E-11,1.490083E-07,-1.147225E-07,4.462179E-09,-2.622604E-08
210.8794,0.04500178,-2.446464E-08,NaN,-0.3269987,-1.368704E-07,NaN,0.4714307,1.073642E-08,NaN,-0.5219509,7.213243E-06,-0.3837692,-4.700684E-09,NaN,NaN,-0.01997086,-5.122325E-11,1.490083E-07,-1.147225E-07,4.462179E-09,-2.622604E-08
210.8947,0.04500179,-2.446354E-08,NaN,-0.3269987,-1.368683E-07,NaN,0.471572,1.051699E-08,NaN,-0.5231068,7.213876E-06,-0.3839586,-4.478935E-09,NaN,NaN,-0.01997449,-5.122325E-11,1.19057E-07,-1.147187E-07,6.846365E-09,-2.861022E-08
210.9123,0.0450018,-2.446245E-08,NaN,-0.3269987,-1.368661E-07,NaN,0.4717017,1.03034E-08,NaN,-0.5249623,7.21451E-06,-0.3841621,-4.263029E-09,NaN,NaN,-0.01997652,-5.122325E-11,1.019207E-07,-1.147149E-07,6.846365E-09,-2.622604E-08
210.929,0.04500181,-2.446135E-08,NaN,-0.3269987,-1.36864E-07,NaN,0.4717869,1.009554E-08,NaN,-0.5271323,7.215143E-06,-0.3843269,-4.05285E-09,NaN,NaN,-0.01997789,-5.122325E-11,9.134083E-08,-1.147111E-07,4.462179E-09,-2.861022E-08
210.9461,0.04500182,-2.446025E-08,NaN,-0.3269987,-1.368619E-07,NaN,0.4718376,9.894713E-09,NaN,-0.5294331,7.215777E-06,-0.3844539,-3.849701E-09,NaN,NaN,-0.01997898,-5.122325E-11,8.120804E-08,-1.147073E-07,4.462179E-09,-2.622604E-08
210.9635,0.04500182,-2.445915E-08,NaN,-0.3269987,-1.368598E-07,NaN,0.471722,9.699359E-09,NaN,-0.5305436,7.216405E-06,-0.3843564,-3.652026E-09,NaN,NaN,-0.01997635,-4.656664E-11,1.016226E-07,-1.147035E-07,4.462179E-09,-2.861022E-08
210.9804,0.04500181,-2.445806E-08,NaN,-0.3269987,-1.368577E-07,NaN,0.4716081,9.509377E-09,NaN,-0.5309568,7.217039E-06,-0.3842283,-3.459724E-09,NaN,NaN,-0.0199752,-4.656664E-11,1.105633E-07,-1.146997E-07,9.230551E-09,-2.622604E-08
210.997,0.04500181,-2.445806E-08,NaN,-0.3269987,-1.368577E-07,NaN,0.4716081,9.509377E-09,NaN,-0.5309568,7.217039E-06,-0.3842283,-3.459724E-09,NaN,NaN,-0.0199752,-4.656664E-11,1.105633E-07,-1.146997E-07,9.230551E-09,-2.622604E-08
211.013,0.04500181,-2.445696E-08,NaN,-0.3269987,-1.368556E-07,NaN,0.4715328,9.324661E-09,NaN,-0.5310379,7.217672E-06,-0.3841276,-3.272687E-09,NaN,NaN,-0.01997465,-4.656664E-11,1.153317E-07,-1.14696E-07,4.462179E-09,-2.861022E-08
211.0304,0.0450018,-2.445586E-08,NaN,-0.3269987,-1.368535E-07,NaN,0.4713433,9.145104E-09,NaN,-0.5297281,7.218306E-06,-0.3838597,-3.09081E-09,NaN,NaN,-0.01997078,-4.656664E-11,1.472202E-07,-1.146922E-07,9.230551E-09,-2.622604E-08
211.0479,0.04500179,-2.445477E-08,NaN,-0.3269987,-1.368514E-07,NaN,0.4711831,8.970608E-09,NaN,-0.5276461,7.218934E-06,-0.3835983,-2.913994E-09,NaN,NaN,-0.01996853,-4.191003E-11,1.665917E-07,-1.146885E-07,9.230551E-09,-2.861022E-08
211.0658,0.04500178,-2.445367E-08,NaN,-0.3269987,-1.368493E-07,NaN,0.4710746,8.796849E-09,NaN,-0.5252169,7.219568E-06,-0.3833871,-2.737913E-09,NaN,NaN,-0.01996695,-4.191003E-11,1.807478E-07,-1.146847E-07,1.399892E-08,-2.622604E-08
211.0813,0.04500177,-2.445258E-08,NaN,-0.3269987,-1.368468E-07,NaN,0.4710031,8.546511E-09,NaN,-0.5226437,7.220187E-06,-0.3832201,-2.485251E-09,NaN,NaN,-0.01996565,-2.794019E-11,1.907316E-07,-1.146819E-07,1.399892E-08,-2.861022E-08
211.0976,0.04500177,-2.445258E-08,NaN,-0.3269987,-1.368468E-07,NaN,0.4710031,8.546511E-09,NaN,-0.5226437,7.220187E-06,-0.3832201,-2.485251E-09,NaN,NaN,-0.01996565,-2.794019E-11,1.907316E-07,-1.146819E-07,1.399892E-08,-2.861022E-08
211.1139,0.04500176,-2.445148E-08,NaN,-0.3269987,-1.368444E-07,NaN,0.4708046,8.311051E-09,NaN,-0.5187903,7.22082E-06,-0.3828846,-2.247465E-09,NaN,NaN,-0.01996082,-2.794019E-11,2.293256E-07,-1.146792E-07,1.161474E-08,-2.622604E-08
211.1315,0.04500174,-2.445038E-08,NaN,-0.3269987,-1.36842E-07,NaN,0.470625,8.226055E-09,NaN,-0.514238,7.221444E-06,-0.3825517,-2.160144E-09,NaN,NaN,-0.0199576,-2.328358E-11,2.546576E-07,-1.146764E-07,9.230551E-09,-2.861022E-08
211.1486,0.04500173,-2.444929E-08,NaN,-0.3269987,-1.368396E-07,NaN,0.470492,8.145648E-09,NaN,-0.5093938,7.222068E-06,-0.3822675,-2.077411E-09,NaN,NaN,-0.01995505,-2.328358E-11,2.746251E-07,-1.146737E-07,1.399892E-08,-2.622604E-08
211.1651,0.0450017,-2.44482E-08,NaN,-0.3269987,-1.368373E-07,NaN,0.4702424,8.069744E-09,NaN,-0.5032186,7.222692E-06,-0.3818264,-1.99918E-09,NaN,NaN,-0.01994893,-2.328358E-11,3.215638E-07,-1.146711E-07,1.399892E-08,-2.861022E-08
211.1815,0.04500168,-2.44471E-08,NaN,-0.3269987,-1.368349E-07,NaN,0.4700196,7.998259E-09,NaN,-0.4963396,7.223316E-06,-0.3813984,-1.925368E-09,NaN,NaN,-0.01994454,-2.328358E-11,3.549424E-07,-1.146684E-07,1.399892E-08,-2.622604E-08
211.1986,0.04500168,-2.44471E-08,NaN,-0.3269987,-1.368349E-07,NaN,0.4700196,7.998259E-09,NaN,-0.4963396,7.223316E-06,-0.3813984,-1.925368E-09,NaN,NaN,-0.01994454,-2.328358E-11,3.549424E-07,-1.146684E-07,1.399892E-08,-2.622604E-08
211.2149,0.04500166,-2.444601E-08,NaN,-0.3269987,-1.368326E-07,NaN,0.4698496,7.929695E-09,NaN,-0.4891854,7.22394E-06,-0.3810277,-1.854478E-09,NaN,NaN,-0.01994085,-2.328358E-11,3.82733E-07,-1.146658E-07,9.230551E-09,-2.861022E-08
211.2325,0.04500164,-2.444491E-08,NaN,-0.3269987,-1.368303E-07,NaN,0.4697006,7.863995E-09,NaN,-0.4818153,7.224564E-06,-0.3806842,-1.78645E-09,NaN,NaN,-0.01993695,-2.328358E-11,4.095551E-07,-1.146631E-07,1.399892E-08,-2.622604E-08
211.2492,0.04500163,-2.444382E-08,NaN,-0.3269987,-1.36828E-07,NaN,0.4695762,7.801104E-09,NaN,-0.474389,7.225188E-06,-0.3803755,-1.721232E-09,NaN,NaN,-0.01993336,-2.328358E-11,4.329499E-07,-1.146605E-07,1.638311E-08,-2.861022E-08
211.266,0.04500161,-2.444273E-08,NaN,-0.3269987,-1.368257E-07,NaN,0.4694703,7.740967E-09,NaN,-0.4669974,7.225812E-06,-0.3800968,-1.658768E-09,NaN,NaN,-0.01992989,-2.328358E-11,4.553017E-07,-1.146579E-07,1.161474E-08,-2.622604E-08
211.283,0.0450016,-2.444163E-08,NaN,-0.3269987,-1.368234E-07,NaN,0.4693766,7.68353E-09,NaN,-0.4596833,7.226436E-06,-0.3798407,-1.599006E-09,NaN,NaN,-0.01992645,-2.328358E-11,4.758653E-07,-1.146553E-07,6.846365E-09,-2.861022E-08
211.3002,0.04500159,-2.444054E-08,NaN,-0.3269987,-1.368212E-07,NaN,0.4692909,7.62874E-09,NaN,-0.4524662,7.22706E-06,-0.3796018,-1.541889E-09,NaN,NaN,-0.01992301,-2.328358E-11,4.950878E-07,-1.146527E-07,6.846365E-09,-2.622604E-08
211.3166,0.04500159,-2.444054E-08,NaN,-0.3269987,-1.368212E-07,NaN,0.4692909,7.62874E-09,NaN,-0.4524662,7.22706E-06,-0.3796018,-1.541889E-09,NaN,NaN,-0.01992301,-2.328358E-11,4.950878E-07,-1.146527E-07,6.846365E-09,-2.622604E-08
211.3323,0.04500157,-2.443945E-08,NaN,-0.3269987,-1.368189E-07,NaN,0.4692112,7.576547E-09,NaN,-0.4453544,7.227683E-06,-0.3793765,-1.487368E-09,NaN,NaN,-0.01991955,-2.328358E-11,5.138632E-07,-1.146501E-07,4.46218E-09,-2.861022E-08
211.3499,0.04500156,-2.443835E-08,NaN,-0.3269987,-1.368166E-07,NaN,0.4691366,7.526899E-09,NaN,-0.4383512,7.228307E-06,-0.3791629,-1.435394E-09,NaN,NaN,-0.01991607,-2.328358E-11,5.318936E-07,-1.146475E-07,9.230551E-09,-2.622604E-08
211.367,0.04500154,-2.443726E-08,NaN,-0.3269987,-1.368144E-07,NaN,0.4690672,7.478332E-09,NaN,-0.4314572,7.228931E-06,-0.3789598,-1.3845E-09,NaN,NaN,-0.01991255,-2.328358E-11,5.493279E-07,-1.146449E-07,1.161474E-08,-2.861022E-08
211.3839,0.04500153,-2.443617E-08,NaN,-0.3269987,-1.368121E-07,NaN,0.4690029,7.432239E-09,NaN,-0.4246717,7.229555E-06,-0.3787667,-1.336081E-09,NaN,NaN,-0.01990901,-2.328358E-11,5.667623E-07,-1.146424E-07,1.161474E-08,-2.622604E-08
211.4004,0.04500152,-2.443508E-08,NaN,-0.3269987,-1.368099E-07,NaN,0.4689442,7.388572E-09,NaN,-0.4179935,7.230179E-06,-0.3785831,-1.290088E-09,NaN,NaN,-0.01990543,-2.328358E-11,5.828555E-07,-1.146398E-07,1.399892E-08,-2.861022E-08
211.4172,0.04500152,-2.443508E-08,NaN,-0.3269987,-1.368099E-07,NaN,0.4689442,7.388572E-09,NaN,-0.4179935,7.230179E-06,-0.3785831,-1.290088E-09,NaN,NaN,-0.01990543,-2.328358E-11,5.828555E-07,-1.146398E-07,1.399892E-08,-2.861022E-08
211.4333,0.04500151,-2.443398E-08,NaN,-0.3269987,-1.368077E-07,NaN,0.4688913,7.347282E-09,NaN,-0.4114212,7.230803E-06,-0.3784089,-1.246472E-09,NaN,NaN,-0.01990181,-2.328358E-11,5.982037E-07,-1.146373E-07,1.161474E-08,-2.622604E-08
211.4512,0.0450015,-2.443289E-08,NaN,-0.3269987,-1.36806E-07,NaN,0.4688443,7.207721E-09,NaN,-0.4049532,7.231427E-06,-0.378244,-1.104589E-09,NaN,NaN,-0.01989815,-1.397035E-11,6.123598E-07,-1.146355E-07,1.161474E-08,-2.622604E-08
211.4679,0.04500148,-2.44318E-08,NaN,-0.3269987,-1.368047E-07,NaN,0.4688034,7.123007E-09,NaN,-0.3985878,7.23206E-06,-0.3780883,-1.01756E-09,NaN,NaN,-0.01989445,-9.313742E-12,6.265159E-07,-1.14634E-07,1.161474E-08,-2.622604E-08
211.4846,0.04500147,-2.443071E-08,NaN,-0.3269987,-1.368037E-07,NaN,0.4687687,7.068161E-09,NaN,-0.3923236,7.232708E-06,-0.3779416,-9.604045E-10,NaN,NaN,-0.0198907,-1.397035E-11,6.400759E-07,-1.146328E-07,1.161474E-08,-2.622604E-08
211.5011,0.04500146,-2.442962E-08,NaN,-0.3269987,-1.368028E-07,NaN,0.4687403,7.031354E-09,NaN,-0.3861589,7.23335E-06,-0.3778039,-9.212942E-10,NaN,NaN,-0.01988691,-1.397035E-11,6.530399E-07,-1.146316E-07,1.399892E-08,-2.622604E-08
211.5183,0.04500146,-2.442962E-08,NaN,-0.3269987,-1.368028E-07,NaN,0.4687403,7.031354E-09,NaN,-0.3861589,7.23335E-06,-0.3778039,-9.212942E-10,NaN,NaN,-0.01988691,-1.397035E-11,6.530399E-07,-1.146316E-07,1.399892E-08,-2.622604E-08
211.5347,0.04500145,-2.442853E-08,NaN,-0.3269987,-1.368021E-07,NaN,0.4687182,7.005202E-09,NaN,-0.3800921,7.233993E-06,-0.377675,-8.928432E-10,NaN,NaN,-0.01988307,-1.397035E-11,6.649609E-07,-1.146305E-07,1.399892E-08,-2.622604E-08
211.5522,0.04500144,-2.442744E-08,NaN,-0.3269987,-1.368014E-07,NaN,0.4687026,6.985276E-09,NaN,-0.3741216,7.234635E-06,-0.377555,-8.70623E-10,NaN,NaN,-0.01987918,-1.397035E-11,6.770308E-07,-1.146295E-07,9.23055E-09,-2.622604E-08
211.5687,0.04500143,-2.442635E-08,NaN,-0.3269987,-1.368007E-07,NaN,0.4686933,6.970056E-09,NaN,-0.3682461,7.235278E-06,-0.3774436,-8.531119E-10,NaN,NaN,-0.01987524,-1.397035E-11,6.888027E-07,-1.146284E-07,9.23055E-09,-2.622604E-08
211.587,0.04500142,-2.442526E-08,NaN,-0.3269987,-1.368E-07,NaN,0.4686904,6.956629E-09,NaN,-0.3624639,7.23592E-06,-0.3773407,-8.373973E-10,NaN,NaN,-0.01987125,-1.397035E-11,6.992336E-07,-1.146274E-07,1.161474E-08,-2.622604E-08
211.6024,0.04500141,-2.442417E-08,NaN,-0.3269987,-1.367994E-07,NaN,0.4686939,6.944965E-09,NaN,-0.3567735,7.236572E-06,-0.3772464,-8.234483E-10,NaN,NaN,-0.0198672,-2.328358E-11,7.095153E-07,-1.146264E-07,9.230551E-09,-2.622604E-08
211.6193,0.04500141,-2.442417E-08,NaN,-0.3269987,-1.367994E-07,NaN,0.4686939,6.944965E-09,NaN,-0.3567735,7.236572E-06,-0.3772464,-8.234483E-10,NaN,NaN,-0.0198672,-2.328358E-11,7.095153E-07,-1.146264E-07,9.230551E-09,-2.622604E-08
211.6356,0.0450014,-2.442308E-08,NaN,-0.3269987,-1.367987E-07,NaN,0.4687037,6.935035E-09,NaN,-0.3511735,7.237215E-06,-0.3771604,-8.112348E-10,NaN,NaN,-0.01986309,-2.328358E-11,7.18009E-07,-1.146254E-07,6.846365E-09,-2.622604E-08
211.6528,0.04500138,-2.442199E-08,NaN,-0.3269987,-1.367981E-07,NaN,0.46872,6.925391E-09,NaN,-0.3456626,7.237858E-06,-0.3770828,-7.993096E-10,NaN,NaN,-0.01985893,-2.328358E-11,7.279928E-07,-1.146244E-07,6.846365E-09,-2.622604E-08
211.6694,0.04500137,-2.44209E-08,NaN,-0.3269987,-1.367975E-07,NaN,0.4687427,6.916029E-09,NaN,-0.3402391,7.2385E-06,-0.3770134,-7.876669E-10,NaN,NaN,-0.0198547,-2.328358E-11,7.358904E-07,-1.146234E-07,6.846365E-09,-2.622604E-08
211.6866,0.04500136,-2.44198E-08,NaN,-0.3269987,-1.367969E-07,NaN,0.4687717,6.908357E-09,NaN,-0.3349019,7.239143E-06,-0.3769521,-7.777153E-10,NaN,NaN,-0.0198504,-2.328358E-11,7.449801E-07,-1.146224E-07,6.846365E-09,-2.622604E-08
211.7033,0.04500135,-2.441872E-08,NaN,-0.3269987,-1.367962E-07,NaN,0.468807,6.900927E-09,NaN,-0.3296494,7.23979E-06,-0.3768989,-7.680073E-10,NaN,NaN,-0.01984605,-2.794019E-11,7.531757E-07,-1.146214E-07,-3.061924E-10,-2.622604E-08
211.7203,0.04500134,-2.441763E-08,NaN,-0.3269987,-1.367956E-07,NaN,0.4688487,6.893738E-09,NaN,-0.3244804,7.240428E-06,-0.3768536,-7.585405E-10,NaN,NaN,-0.01984162,-2.328358E-11,7.600302E-07,-1.146204E-07,2.077993E-09,-2.622604E-08
211.737,0.04500134,-2.441763E-08,NaN,-0.3269987,-1.367956E-07,NaN,0.4688487,6.893738E-09,NaN,-0.3244804,7.240428E-06,-0.3768536,-7.585405E-10,NaN,NaN,-0.01984162,-2.328358E-11,7.600302E-07,-1.146204E-07,2.077993E-09,-2.622604E-08
211.7533,0.04500133,-2.441654E-08,NaN,-0.3269987,-1.36795E-07,NaN,0.4688967,6.888198E-09,NaN,-0.3193935,7.241066E-06,-0.3768163,-7.507225E-10,NaN,NaN,-0.01983713,-1.862697E-11,7.668847E-07,-1.146195E-07,2.077993E-09,-2.622604E-08
211.7709,0.04500132,-2.441545E-08,NaN,-0.3269987,-1.367944E-07,NaN,0.468951,6.882859E-09,NaN,-0.3143875,7.241704E-06,-0.3767868,-7.431072E-10,NaN,NaN,-0.01983257,-1.397036E-11,7.738883E-07,-1.146185E-07,-3.061924E-10,-2.622604E-08
211.7883,0.04500131,-2.441436E-08,NaN,-0.3269987,-1.367938E-07,NaN,0.4690116,6.877714E-09,NaN,-0.309461,7.242342E-06,-0.376765,-7.356868E-10,NaN,NaN,-0.01982793,-9.313742E-12,7.801468E-07,-1.146175E-07,-5.074564E-09,-2.622604E-08
211.8048,0.04500129,-2.441327E-08,NaN,-0.3269987,-1.367932E-07,NaN,0.4690785,6.874179E-09,NaN,-0.3046128,7.24298E-06,-0.3767509,-7.298757E-10,NaN,NaN,-0.01982321,-4.65713E-12,7.865543E-07,-1.146165E-07,-7.45875E-09,-2.622604E-08
211.8214,0.04500128,-2.441218E-08,NaN,-0.3269987,-1.367926E-07,NaN,0.4691516,6.870808E-09,NaN,-0.2998416,7.243618E-06,-0.3767444,-7.24229E-10,NaN,NaN,-0.01981842,-5.169476E-16,7.911736E-07,-1.146156E-07,-7.45875E-09,-2.622604E-08
211.8384,0.04500128,-2.441218E-08,NaN,-0.3269987,-1.367926E-07,NaN,0.4691516,6.870808E-09,NaN,-0.2998416,7.243618E-06,-0.3767444,-7.24229E-10,NaN,NaN,-0.01981842,-5.169476E-16,7.911736E-07,-1.146156E-07,-7.45875E-09,-2.622604E-08
211.8551,0.04500127,-2.441109E-08,NaN,-0.3269987,-1.36792E-07,NaN,0.469231,6.867597E-09,NaN,-0.2951463,7.244256E-06,-0.3767454,-7.187426E-10,NaN,NaN,-0.01981355,4.656096E-12,7.972831E-07,-1.146146E-07,-1.222712E-08,-2.622604E-08
211.8724,0.04500126,-2.441E-08,NaN,-0.3269987,-1.367913E-07,NaN,0.4693166,6.865958E-09,NaN,-0.2905255,7.244903E-06,-0.3767539,-7.148278E-10,NaN,NaN,-0.01980859,-5.169476E-16,8.011574E-07,-1.146137E-07,-1.699549E-08,-2.622604E-08
211.8892,0.04500125,-2.440892E-08,NaN,-0.3269987,-1.367907E-07,NaN,0.4694085,6.864445E-09,NaN,-0.2859782,7.24555E-06,-0.3767698,-7.110401E-10,NaN,NaN,-0.01980355,-4.65713E-12,8.068199E-07,-1.146127E-07,-1.222712E-08,-2.622604E-08
211.9058,0.04500124,-2.440783E-08,NaN,-0.3269987,-1.367901E-07,NaN,0.4695065,6.863058E-09,NaN,-0.2815031,7.246188E-06,-0.376793,-7.073777E-10,NaN,NaN,-0.01979842,-5.169476E-16,8.102471E-07,-1.146118E-07,-9.842935E-09,-2.622604E-08
211.9232,0.04500123,-2.440674E-08,NaN,-0.3269987,-1.367895E-07,NaN,0.4696108,6.863206E-09,NaN,-0.2770992,7.246826E-06,-0.3768235,-7.052504E-10,NaN,NaN,-0.01979319,4.656096E-12,8.136744E-07,-1.146108E-07,-7.45875E-09,-2.622604E-08
211.9399,0.04500123,-2.440674E-08,NaN,-0.3269987,-1.367895E-07,NaN,0.4696108,6.863206E-09,NaN,-0.2770992,7.246826E-06,-0.3768235,-7.052504E-10,NaN,NaN,-0.01979319,4.656096E-12,8.136744E-07,-1.146108E-07,-7.45875E-09,-2.622604E-08
211.9566,0.04500122,-2.440565E-08,NaN,-0.3269987,-1.367889E-07,NaN,0.4697212,6.863445E-09,NaN,-0.2727652,7.247473E-06,-0.3768612,-7.032152E-10,NaN,NaN,-0.01978788,-5.169476E-16,8.175487E-07,-1.146099E-07,-9.842935E-09,-2.622604E-08
211.9737,0.04500121,-2.440456E-08,NaN,-0.3269987,-1.367883E-07,NaN,0.4698378,6.863777E-09,NaN,-0.2685001,7.24812E-06,-0.3769061,-7.01272E-10,NaN,NaN,-0.01978247,-4.65713E-12,8.203799E-07,-1.146089E-07,-9.842935E-09,-2.622604E-08
211.991,0.04500119,-2.440348E-08,NaN,-0.3269987,-1.367877E-07,NaN,0.4699605,6.86561E-09,NaN,-0.2643028,7.248758E-06,-0.376958,-7.0083E-10,NaN,NaN,-0.01977697,-5.169476E-16,8.236581E-07,-1.14608E-07,-7.45875E-09,-2.622604E-08
212.0083,0.04500119,-2.440239E-08,NaN,-0.3269987,-1.367872E-07,NaN,0.4700894,6.867503E-09,NaN,-0.2601722,7.249396E-06,-0.3770171,-7.004471E-10,NaN,NaN,-0.01977136,4.656096E-12,8.258933E-07,-1.146071E-07,-3.061928E-10,-2.622604E-08
212.0256,0.04500118,-2.44013E-08,NaN,-0.3269987,-1.367866E-07,NaN,0.4702244,6.869452E-09,NaN,-0.2561073,7.250034E-06,-0.377083,-7.001218E-10,NaN,NaN,-0.01976565,9.312709E-12,8.272344E-07,-1.146061E-07,2.077993E-09,-2.622604E-08
212.042,0.04500117,-2.440022E-08,NaN,-0.3269987,-1.36786E-07,NaN,0.4703654,6.871458E-09,NaN,-0.252107,7.250672E-06,-0.3771559,-6.998521E-10,NaN,NaN,-0.01975983,1.396932E-11,8.296186E-07,-1.146052E-07,-3.061928E-10,-2.622604E-08
212.0591,0.04500117,-2.440022E-08,NaN,-0.3269987,-1.36786E-07,NaN,0.4703654,6.871458E-09,NaN,-0.252107,7.250672E-06,-0.3771559,-6.998521E-10,NaN,NaN,-0.01975983,1.396932E-11,8.296186E-07,-1.146052E-07,-3.061928E-10,-2.622604E-08
212.0754,0.04500116,-2.439913E-08,NaN,-0.3269987,-1.367854E-07,NaN,0.4705126,6.874933E-09,NaN,-0.2481702,7.251329E-06,-0.3772357,-7.010527E-10,NaN,NaN,-0.01975391,4.656096E-12,8.323008E-07,-1.146043E-07,-5.074564E-09,-2.622604E-08
212.0933,0.04500116,-2.439804E-08,NaN,-0.3269987,-1.367848E-07,NaN,0.4706658,6.878436E-09,NaN,-0.244296,7.251972E-06,-0.3773223,-7.022812E-10,NaN,NaN,-0.01974788,9.312709E-12,8.328969E-07,-1.146034E-07,-2.690379E-09,-2.622604E-08
212.1102,0.04500115,-2.439695E-08,NaN,-0.3269987,-1.367842E-07,NaN,0.470825,6.881968E-09,NaN,-0.2404834,7.252624E-06,-0.3774157,-7.035377E-10,NaN,NaN,-0.01974174,4.656096E-12,8.33791E-07,-1.146024E-07,-2.690379E-09,-2.622604E-08
212.1285,0.04500114,-2.439587E-08,NaN,-0.3269987,-1.367836E-07,NaN,0.4709903,6.886938E-09,NaN,-0.2367314,7.253266E-06,-0.3775158,-7.062331E-10,NaN,NaN,-0.01973547,9.312709E-12,8.358771E-07,-1.146015E-07,6.846364E-09,-2.622604E-08
212.1443,0.04500113,-2.439478E-08,NaN,-0.3269987,-1.36783E-07,NaN,0.4711616,6.891907E-09,NaN,-0.233039,7.253918E-06,-0.3776225,-7.089264E-10,NaN,NaN,-0.01972909,4.656096E-12,8.382613E-07,-1.146006E-07,6.846364E-09,-2.622604E-08
212.1613,0.04500113,-2.439369E-08,NaN,-0.3269987,-1.367825E-07,NaN,0.4713389,6.896874E-09,NaN,-0.2294054,7.254561E-06,-0.3777359,-7.11619E-10,NaN,NaN,-0.01972259,9.312709E-12,8.373672E-07,-1.145997E-07,9.230551E-09,-2.622604E-08
212.1786,0.04500113,-2.439369E-08,NaN,-0.3269987,-1.367825E-07,NaN,0.4713389,6.896874E-09,NaN,-0.2294054,7.254561E-06,-0.3777359,-7.11619E-10,NaN,NaN,-0.01972259,9.312709E-12,8.373672E-07,-1.145997E-07,9.230551E-09,-2.622604E-08
212.1947,0.04500112,-2.439261E-08,NaN,-0.3269987,-1.367823E-07,NaN,0.4715221,6.980566E-09,NaN,-0.2258294,7.255213E-06,-0.3778557,-7.930403E-10,NaN,NaN,-0.01971597,4.656096E-12,8.382613E-07,-1.145979E-07,9.230551E-09,-2.622604E-08
212.2122,0.04500111,-2.439152E-08,NaN,-0.3269987,-1.367821E-07,NaN,0.4717112,7.051443E-09,NaN,-0.2223104,7.25587E-06,-0.3779821,-8.616479E-10,NaN,NaN,-0.01970921,-4.65713E-12,8.394534E-07,-1.14596E-07,4.462179E-09,-2.622604E-08
212.2292,0.0450011,-2.439043E-08,NaN,-0.3269987,-1.367819E-07,NaN,0.4719063,7.116814E-09,NaN,-0.2188472,7.256522E-06,-0.378115,-9.247493E-10,NaN,NaN,-0.01970232,-9.313742E-12,8.406456E-07,-1.14594E-07,6.846365E-09,-2.622604E-08
212.2468,0.0450011,-2.438934E-08,NaN,-0.3269987,-1.367816E-07,NaN,0.4721073,7.179597E-09,NaN,-0.2154391,7.257174E-06,-0.3782542,-9.852644E-10,NaN,NaN,-0.01969531,-1.397036E-11,8.409436E-07,-1.145921E-07,6.846365E-09,-2.622604E-08
212.2633,0.04500109,-2.438826E-08,NaN,-0.3269987,-1.367813E-07,NaN,0.4723141,7.239838E-09,NaN,-0.2120852,7.257826E-06,-0.3783998,-1.043238E-09,NaN,NaN,-0.01968816,-1.862697E-11,8.400495E-07,-1.145901E-07,9.230551E-09,-2.622604E-08
212.2804,0.04500108,-2.438717E-08,NaN,-0.3269987,-1.36781E-07,NaN,0.4725267,7.298996E-09,NaN,-0.2087846,7.258478E-06,-0.3785516,-1.100129E-09,NaN,NaN,-0.01968086,-2.328358E-11,8.391554E-07,-1.145882E-07,6.846365E-09,-2.622604E-08
212.2974,0.04500108,-2.438717E-08,NaN,-0.3269987,-1.36781E-07,NaN,0.4725267,7.298996E-09,NaN,-0.2087846,7.258478E-06,-0.3785516,-1.100129E-09,NaN,NaN,-0.01968086,-2.328358E-11,8.391554E-07,-1.145882E-07,6.846365E-09,-2.622604E-08
212.314,0.04500107,-2.438608E-08,NaN,-0.3269987,-1.367807E-07,NaN,0.4727452,7.35709E-09,NaN,-0.2055365,7.259135E-06,-0.3787097,-1.155957E-09,NaN,NaN,-0.01967343,-3.259681E-11,8.394534E-07,-1.145862E-07,2.077993E-09,-2.622604E-08
212.3318,0.04500107,-2.4385E-08,NaN,-0.3269987,-1.367804E-07,NaN,0.4729694,7.414143E-09,NaN,-0.20234,7.259791E-06,-0.378874,-1.210743E-09,NaN,NaN,-0.01966585,-4.191003E-11,8.382613E-07,-1.145843E-07,4.462179E-09,-2.622604E-08
212.3489,0.04500106,-2.438391E-08,NaN,-0.3269987,-1.367801E-07,NaN,0.4731993,7.471585E-09,NaN,-0.1991944,7.260443E-06,-0.3790444,-1.265918E-09,NaN,NaN,-0.01965813,-4.656664E-11,8.382613E-07,-1.145823E-07,-3.061924E-10,-2.622604E-08
212.3653,0.04500105,-2.438282E-08,NaN,-0.3269987,-1.367788E-07,NaN,0.473435,7.559158E-09,NaN,-0.1960987,7.261081E-06,-0.3792209,-1.351215E-09,NaN,NaN,-0.01965025,-4.656664E-11,8.382613E-07,-1.145806E-07,-2.690378E-09,-2.861022E-08
212.3824,0.04500104,-2.438173E-08,NaN,-0.3269987,-1.367772E-07,NaN,0.4736763,7.60156E-09,NaN,-0.1930523,7.261719E-06,-0.3794034,-1.391335E-09,NaN,NaN,-0.01964222,-5.122325E-11,8.364732E-07,-1.145786E-07,-5.074564E-09,-2.622604E-08
212.3998,0.04500104,-2.438173E-08,NaN,-0.3269987,-1.367772E-07,NaN,0.4736763,7.60156E-09,NaN,-0.1930523,7.261719E-06,-0.3794034,-1.391335E-09,NaN,NaN,-0.01964222,-5.122325E-11,8.364732E-07,-1.145786E-07,-5.074564E-09,-2.622604E-08
212.4161,0.04500104,-2.438065E-08,NaN,-0.3269987,-1.367754E-07,NaN,0.4739232,7.620761E-09,NaN,-0.1900543,7.262343E-06,-0.3795918,-1.408245E-09,NaN,NaN,-0.01963403,-4.656664E-11,8.346851E-07,-1.145765E-07,-2.690378E-09,-2.861022E-08
212.4336,0.04500103,-2.437956E-08,NaN,-0.3269987,-1.367734E-07,NaN,0.4741757,7.627048E-09,NaN,-0.187104,7.262972E-06,-0.3797861,-1.412236E-09,NaN,NaN,-0.01962568,-4.656664E-11,8.317048E-07,-1.145743E-07,-2.690378E-09,-2.622604E-08
212.4508,0.04500102,-2.437847E-08,NaN,-0.3269987,-1.367714E-07,NaN,0.4744338,7.626304E-09,NaN,-0.1842006,7.263596E-06,-0.3799862,-1.409188E-09,NaN,NaN,-0.01961716,-3.725342E-11,8.299167E-07,-1.14572E-07,-7.45875E-09,-2.861022E-08
212.468,0.04500102,-2.437739E-08,NaN,-0.3269987,-1.367693E-07,NaN,0.4746973,7.621473E-09,NaN,-0.1813433,7.26422E-06,-0.3801921,-1.40205E-09,NaN,NaN,-0.01960848,-2.794019E-11,8.287246E-07,-1.145698E-07,-7.45875E-09,-2.622604E-08
212.485,0.04500101,-2.43763E-08,NaN,-0.3269987,-1.367673E-07,NaN,0.4749663,7.198631E-09,NaN,-0.1785315,7.264848E-06,-0.3804037,-9.768978E-10,NaN,NaN,-0.01959963,-2.328358E-11,8.275325E-07,-1.145673E-07,-1.461131E-08,-2.861022E-08
212.5018,0.045001,-2.437521E-08,NaN,-0.3269987,-1.367656E-07,NaN,0.4752407,7.279744E-09,NaN,-0.1757644,7.265482E-06,-0.3806209,-1.0557E-09,NaN,NaN,-0.0195906,-2.328358E-11,8.263403E-07,-1.145641E-07,-1.937968E-08,-2.622604E-08
212.5187,0.045001,-2.437521E-08,NaN,-0.3269987,-1.367656E-07,NaN,0.4752407,7.279744E-09,NaN,-0.1757644,7.265482E-06,-0.3806209,-1.0557E-09,NaN,NaN,-0.0195906,-2.328358E-11,8.263403E-07,-1.145641E-07,-1.937968E-08,-2.622604E-08
212.5354,0.04500099,-2.437413E-08,NaN,-0.3269987,-1.367638E-07,NaN,0.4755204,7.353755E-09,NaN,-0.1730413,7.266115E-06,-0.3808437,-1.127399E-09,NaN,NaN,-0.01958141,-2.328358E-11,8.239562E-07,-1.145608E-07,-1.222712E-08,-2.861022E-08
212.5531,0.04500099,-2.437304E-08,NaN,-0.3269987,-1.367621E-07,NaN,0.4758055,7.416594E-09,NaN,-0.1703615,7.266749E-06,-0.381072,-1.187924E-09,NaN,NaN,-0.01957203,-2.328358E-11,8.21572E-07,-1.145575E-07,-1.699549E-08,-2.622604E-08
212.5697,0.04500098,-2.437196E-08,NaN,-0.3269987,-1.367603E-07,NaN,0.4760957,7.475505E-09,NaN,-0.1677243,7.267382E-06,-0.3813057,-1.24452E-09,NaN,NaN,-0.01956247,-2.328358E-11,8.185917E-07,-1.145542E-07,-1.937968E-08,-2.861022E-08
212.5867,0.04500097,-2.437087E-08,NaN,-0.3269987,-1.367585E-07,NaN,0.4763911,7.533379E-09,NaN,-0.1651291,7.268015E-06,-0.3815448,-1.300078E-09,NaN,NaN,-0.01955273,-2.328358E-11,8.162075E-07,-1.145509E-07,-1.699549E-08,-2.622604E-08
212.6038,0.04500096,-2.436979E-08,NaN,-0.3269987,-1.367567E-07,NaN,0.4767523,7.590234E-09,NaN,-0.1627184,7.268649E-06,-0.3818522,-1.354615E-09,NaN,NaN,-0.01954705,-2.328358E-11,8.105451E-07,-1.145476E-07,-1.937968E-08,-2.861022E-08
212.6211,0.04500096,-2.43687E-08,NaN,-0.3269987,-1.367549E-07,NaN,0.4771197,7.646086E-09,NaN,-0.160432,7.269282E-06,-0.3821676,-1.408149E-09,NaN,NaN,-0.01953948,-2.328358E-11,8.066708E-07,-1.145443E-07,-1.699549E-08,-2.622604E-08
212.638,0.04500096,-2.43687E-08,NaN,-0.3269987,-1.367549E-07,NaN,0.4771197,7.646086E-09,NaN,-0.160432,7.269282E-06,-0.3821676,-1.408149E-09,NaN,NaN,-0.01953948,-2.328358E-11,8.066708E-07,-1.145443E-07,-1.699549E-08,-2.622604E-08
212.6543,0.04500095,-2.436762E-08,NaN,-0.3269987,-1.367531E-07,NaN,0.477481,7.702369E-09,NaN,-0.1582228,7.269916E-06,-0.3824776,-1.462112E-09,NaN,NaN,-0.01953102,-2.328358E-11,8.033925E-07,-1.14541E-07,-1.937968E-08,-2.861022E-08
212.6737,0.04500095,-2.436653E-08,NaN,-0.3269987,-1.367513E-07,NaN,0.4783768,7.759069E-09,NaN,-0.1572842,7.270549E-06,-0.3833426,-1.516493E-09,NaN,NaN,-0.01956126,-2.328358E-11,7.726961E-07,-1.145377E-07,-1.699549E-08,-2.622604E-08
212.6889,0.04500096,-2.436545E-08,NaN,-0.3269987,-1.367495E-07,NaN,0.4792688,7.816181E-09,NaN,-0.1571026,7.271183E-06,-0.3842168,-1.571286E-09,NaN,NaN,-0.01957528,-2.328358E-11,7.530266E-07,-1.145344E-07,-1.461131E-08,-2.861022E-08
212.7061,0.04500096,-2.436436E-08,NaN,-0.3269987,-1.367477E-07,NaN,0.4800557,7.882162E-09,NaN,-0.1572757,7.271821E-06,-0.3849907,-1.634947E-09,NaN,NaN,-0.01958237,-2.794019E-11,7.375294E-07,-1.145311E-07,-1.461131E-08,-2.622604E-08
212.7231,0.04500096,-2.436328E-08,NaN,-0.3269987,-1.367459E-07,NaN,0.4807489,7.948373E-09,NaN,-0.1576132,7.272463E-06,-0.3856721,-1.698837E-09,NaN,NaN,-0.01958648,-3.725342E-11,7.232243E-07,-1.145279E-07,-2.690379E-09,-2.861022E-08
212.74,0.04500097,-2.43622E-08,NaN,-0.3269987,-1.367441E-07,NaN,0.4819241,8.014807E-09,NaN,-0.1592413,7.273106E-06,-0.386855,-1.762952E-09,NaN,NaN,-0.01962929,-4.656664E-11,6.788188E-07,-1.145246E-07,-7.458751E-09,-2.622604E-08
212.7574,0.04500097,-2.43622E-08,NaN,-0.3269987,-1.367441E-07,NaN,0.4819241,8.014807E-09,NaN,-0.1592413,7.273106E-06,-0.386855,-1.762952E-09,NaN,NaN,-0.01962929,-4.656664E-11,6.788188E-07,-1.145246E-07,-7.458751E-09,-2.622604E-08
212.7737,0.04500098,-2.436111E-08,NaN,-0.3269987,-1.367423E-07,NaN,0.4830391,8.081463E-09,NaN,-0.1616152,7.273748E-06,-0.3879897,-1.827287E-09,NaN,NaN,-0.01965447,-5.587986E-11,6.496126E-07,-1.145214E-07,-5.074565E-09,-2.861022E-08
212.7919,0.04500099,-2.436003E-08,NaN,-0.3269987,-1.367406E-07,NaN,0.4840124,8.148334E-09,NaN,-0.1643172,7.274391E-06,-0.3889869,-1.891838E-09,NaN,NaN,-0.01967198,-6.519309E-11,6.275588E-07,-1.145182E-07,-5.074565E-09,-2.622604E-08
212.8083,0.04500101,-2.435895E-08,NaN,-0.3269987,-1.367388E-07,NaN,0.4853946,8.215418E-09,NaN,-0.1683678,7.275034E-06,-0.3904143,-1.956602E-09,NaN,NaN,-0.01972367,-7.450631E-11,5.801732E-07,-1.145149E-07,-7.458751E-09,-2.861022E-08
212.8253,0.04500102,-2.435786E-08,NaN,-0.3269987,-1.36737E-07,NaN,0.4866641,8.282711E-09,NaN,-0.1731701,7.275676E-06,-0.3917419,-2.021575E-09,NaN,NaN,-0.01975686,-8.381953E-11,5.447084E-07,-1.145117E-07,-1.222712E-08,-2.622604E-08
212.8422,0.04500103,-2.435678E-08,NaN,-0.3269987,-1.367353E-07,NaN,0.4877574,8.350207E-09,NaN,-0.178283,7.276319E-06,-0.3928982,-2.08675E-09,NaN,NaN,-0.01978161,-9.313276E-11,5.13416E-07,-1.145086E-07,-5.074565E-09,-2.861022E-08
212.8596,0.04500103,-2.435678E-08,NaN,-0.3269987,-1.367353E-07,NaN,0.4877574,8.350207E-09,NaN,-0.178283,7.276319E-06,-0.3928982,-2.08675E-09,NaN,NaN,-0.01978161,-9.313276E-11,5.13416E-07,-1.145086E-07,-5.074565E-09,-2.861022E-08
212.8761,0.04500106,-2.43557E-08,NaN,-0.3269987,-1.367335E-07,NaN,0.4891962,8.417902E-09,NaN,-0.1847192,7.276961E-06,-0.3944231,-2.152125E-09,NaN,NaN,-0.0198352,-1.02446E-10,4.564935E-07,-1.145054E-07,-5.074565E-09,-2.622604E-08
