JMolnar6/NonAnthroHands_User_Study/HandsLoggerWithURDF/tempdata/files/Reachy_JointMotion_gesture_11_52.csv
Time,r_shoulder,r_shoulder_x,r_upper_arm,r_forearm,r_wrist,r_wrist2hand,
764.7004,-0.8507375,-3.898707E-10,NaN,-0.3614694,-1.324315E-07,NaN,1.152458,-5.090678E-07,NaN,-0.6746281,2.177607E-05,0.431787,8.582931E-08,NaN,NaN,-0.01023694,-2.095479E-10,-7.421288E-07,-1.100774E-07,-1.855118E-09,-2.622604E-08
764.7168,-0.8507375,-3.898707E-10,NaN,-0.3614694,-1.324315E-07,NaN,1.152458,-5.090678E-07,NaN,-0.6746281,2.177607E-05,0.431787,8.582931E-08,NaN,NaN,-0.01023694,-2.095479E-10,-7.421288E-07,-1.100774E-07,-1.855118E-09,-2.622604E-08
764.731,-0.8485622,-3.891974E-10,NaN,-0.3607157,-1.324312E-07,NaN,1.15236,-5.093821E-07,NaN,-0.6718259,2.177648E-05,0.4328628,8.614494E-08,NaN,NaN,-0.01006608,-2.048913E-10,-7.480893E-07,-1.100779E-07,1.72116E-09,-2.861022E-08
764.7473,-0.8462778,-3.885247E-10,NaN,-0.3599236,-1.324311E-07,NaN,1.152171,-5.09115E-07,NaN,-0.6687365,2.177689E-05,0.4341232,8.587926E-08,NaN,NaN,-0.009898541,-2.002347E-10,-7.540498E-07,-1.10079E-07,6.489532E-09,-2.622604E-08
764.7632,-0.843935,-3.878513E-10,NaN,-0.3591118,-1.324308E-07,NaN,1.152009,-5.094311E-07,NaN,-0.6655362,2.17773E-05,0.4354138,8.619666E-08,NaN,NaN,-0.009734381,-1.955781E-10,-7.540498E-07,-1.100795E-07,2.913253E-09,-2.861022E-08
764.7789,-0.843935,-3.878513E-10,NaN,-0.3591118,-1.324308E-07,NaN,1.152009,-5.094311E-07,NaN,-0.6655362,2.17773E-05,0.4354138,8.619666E-08,NaN,NaN,-0.009734381,-1.955781E-10,-7.540498E-07,-1.100795E-07,2.913253E-09,-2.861022E-08
764.7941,-0.8417785,-3.871786E-10,NaN,-0.3583687,-1.324307E-07,NaN,1.152246,-5.091658E-07,NaN,-0.6627982,2.177771E-05,0.4362018,8.593272E-08,NaN,NaN,-0.009657628,-1.909215E-10,-7.468972E-07,-1.100805E-07,-1.855119E-09,-2.622604E-08
764.8104,-0.8397473,-3.865052E-10,NaN,-0.3576705,-1.324304E-07,NaN,1.152626,-5.094835E-07,NaN,-0.6603978,2.177812E-05,0.436751,8.625182E-08,NaN,NaN,-0.009582506,-1.862649E-10,-7.373605E-07,-1.100811E-07,-3.047211E-09,-2.861022E-08
764.8264,-0.8378029,-3.858324E-10,NaN,-0.3570029,-1.324303E-07,NaN,1.15302,-5.092171E-07,NaN,-0.6581765,2.177853E-05,0.4372146,8.598673E-08,NaN,NaN,-0.00950884,-1.816083E-10,-7.302079E-07,-1.100821E-07,1.72116E-09,-2.622604E-08
764.8419,-0.835921,-3.851591E-10,NaN,-0.3563568,-1.324299E-07,NaN,1.153393,-5.095337E-07,NaN,-0.6560572,2.177894E-05,0.4376499,8.630469E-08,NaN,NaN,-0.009436569,-1.769517E-10,-7.194791E-07,-1.100826E-07,-1.855119E-09,-2.861022E-08
764.8575,-0.835921,-3.851591E-10,NaN,-0.3563568,-1.324299E-07,NaN,1.153393,-5.095337E-07,NaN,-0.6560572,2.177894E-05,0.4376499,8.630469E-08,NaN,NaN,-0.009436569,-1.769517E-10,-7.194791E-07,-1.100826E-07,-1.855119E-09,-2.861022E-08
764.8726,-0.8342987,-3.844863E-10,NaN,-0.3558037,-1.324299E-07,NaN,1.154091,-5.09269E-07,NaN,-0.6544909,2.177935E-05,0.4375989,8.604132E-08,NaN,NaN,-0.009449808,-1.722951E-10,-7.004056E-07,-1.100837E-07,-1.855119E-09,-2.622604E-08
764.8889,-0.8328454,-3.838137E-10,NaN,-0.3553095,-1.324301E-07,NaN,1.154868,-5.089163E-07,NaN,-0.6532938,2.177977E-05,0.4373409,8.568996E-08,NaN,NaN,-0.00946278,-1.816083E-10,-6.872926E-07,-1.100849E-07,5.290672E-10,-2.861022E-08
764.9046,-0.831504,-3.831403E-10,NaN,-0.3548536,-1.324299E-07,NaN,1.155611,-5.091907E-07,NaN,-0.6522804,2.178018E-05,0.4370299,8.596567E-08,NaN,NaN,-0.009475397,-1.769517E-10,-6.682191E-07,-1.100855E-07,2.913253E-09,-2.622604E-08
764.9203,-0.8302383,-3.824667E-10,NaN,-0.3544231,-1.324294E-07,NaN,1.156296,-5.096317E-07,NaN,-0.6513605,2.178058E-05,0.4367191,8.640805E-08,NaN,NaN,-0.009487662,-1.676384E-10,-6.53914E-07,-1.100858E-07,1.72116E-09,-2.861022E-08
764.9363,-0.8302383,-3.824667E-10,NaN,-0.3544231,-1.324294E-07,NaN,1.156296,-5.096317E-07,NaN,-0.6513605,2.178058E-05,0.4367191,8.640805E-08,NaN,NaN,-0.009487662,-1.676384E-10,-6.53914E-07,-1.100858E-07,1.72116E-09,-2.861022E-08
764.9513,-0.8292376,-3.817938E-10,NaN,-0.3540868,-1.324292E-07,NaN,1.157283,-5.094072E-07,NaN,-0.6509799,2.178099E-05,0.4359468,8.61849E-08,NaN,NaN,-0.009583755,-1.629818E-10,-6.27688E-07,-1.100868E-07,-5.431397E-09,-2.622604E-08
764.9676,-0.828407,-3.811211E-10,NaN,-0.3538098,-1.324294E-07,NaN,1.158331,-5.09077E-07,NaN,-0.6509522,2.178142E-05,0.4349876,8.585607E-08,NaN,NaN,-0.009677927,-1.722951E-10,-6.038462E-07,-1.100879E-07,-6.62349E-09,-2.861022E-08
764.9835,-0.8276866,-3.804475E-10,NaN,-0.3535701,-1.324292E-07,NaN,1.159329,-5.09365E-07,NaN,-0.6510909,2.178182E-05,0.4339927,8.614537E-08,NaN,NaN,-0.009770122,-1.629818E-10,-5.847727E-07,-1.100885E-07,-3.047212E-09,-2.622604E-08
764.9988,-0.8276866,-3.804475E-10,NaN,-0.3535701,-1.324292E-07,NaN,1.159329,-5.09365E-07,NaN,-0.6510909,2.178182E-05,0.4339927,8.614537E-08,NaN,NaN,-0.009770122,-1.629818E-10,-5.847727E-07,-1.100885E-07,-3.047212E-09,-2.622604E-08
765.0139,-0.8270382,-3.797746E-10,NaN,-0.3533545,-1.324292E-07,NaN,1.160257,-5.090891E-07,NaN,-0.6513056,2.178223E-05,0.4330137,8.587084E-08,NaN,NaN,-0.009860391,-1.583252E-10,-5.656992E-07,-1.100896E-07,-4.239304E-09,-2.861022E-08
765.0305,-0.8266501,-3.79101E-10,NaN,-0.3532315,-1.324289E-07,NaN,1.161477,-5.09405E-07,NaN,-0.6520422,2.178264E-05,0.4315868,8.6188E-08,NaN,NaN,-0.01003293,-1.536686E-10,-5.347048E-07,-1.100901E-07,-1.855119E-09,-2.622604E-08
765.0463,-0.8264267,-3.78428E-10,NaN,-0.3531658,-1.324288E-07,NaN,1.162747,-5.091451E-07,NaN,-0.6531146,2.178306E-05,0.4299871,8.59295E-08,NaN,NaN,-0.01020203,-1.583252E-10,-5.037103E-07,-1.100911E-07,-6.630259E-10,-2.861022E-08
765.0624,-0.8263078,-3.777544E-10,NaN,-0.3531356,-1.324285E-07,NaN,1.163956,-5.094682E-07,NaN,-0.6543363,2.178347E-05,0.4283653,8.625389E-08,NaN,NaN,-0.01036767,-1.49012E-10,-4.703317E-07,-1.100916E-07,-3.047212E-09,-2.622604E-08
765.0778,-0.8263078,-3.777544E-10,NaN,-0.3531356,-1.324285E-07,NaN,1.163956,-5.094682E-07,NaN,-0.6543363,2.178347E-05,0.4283653,8.625389E-08,NaN,NaN,-0.01036767,-1.49012E-10,-4.703317E-07,-1.100916E-07,-3.047212E-09,-2.622604E-08
765.0929,-0.8262548,-3.770813E-10,NaN,-0.3531274,-1.324285E-07,NaN,1.165085,-5.092126E-07,NaN,-0.6556171,2.178388E-05,0.4267724,8.599967E-08,NaN,NaN,-0.01052992,-1.443554E-10,-4.441057E-07,-1.100926E-07,-1.855119E-09,-2.861022E-08
765.1094,-0.8264547,-3.764085E-10,NaN,-0.3532086,-1.324287E-07,NaN,1.166496,-5.088717E-07,NaN,-0.6574029,2.17843E-05,0.4247433,8.566012E-08,NaN,NaN,-0.01077297,-1.443554E-10,-4.107271E-07,-1.100938E-07,-5.431398E-09,-2.622604E-08
765.1251,-0.8268126,-3.757348E-10,NaN,-0.3533444,-1.324285E-07,NaN,1.167943,-5.091576E-07,NaN,-0.659508,2.178472E-05,0.4225548,8.594736E-08,NaN,NaN,-0.01101118,-1.443554E-10,-3.773485E-07,-1.100944E-07,-4.239305E-09,-2.861022E-08
765.1407,-0.8272682,-3.750609E-10,NaN,-0.3535132,-1.32428E-07,NaN,1.169319,-5.095536E-07,NaN,-0.6617462,2.178513E-05,0.4203574,8.634461E-08,NaN,NaN,-0.01124456,-1.396988E-10,-3.45162E-07,-1.100947E-07,-6.623491E-09,-2.622604E-08
765.158,-0.8272682,-3.750609E-10,NaN,-0.3535132,-1.32428E-07,NaN,1.169319,-5.095536E-07,NaN,-0.6617462,2.178513E-05,0.4203574,8.634461E-08,NaN,NaN,-0.01124456,-1.396988E-10,-3.45162E-07,-1.100947E-07,-6.623491E-09,-2.622604E-08
765.172,-0.827783,-3.743876E-10,NaN,-0.3537013,-1.324279E-07,NaN,1.170605,-5.093356E-07,NaN,-0.6640276,2.178555E-05,0.4182015,8.612797E-08,NaN,NaN,-0.01147321,-1.49012E-10,-3.117834E-07,-1.100956E-07,-9.007676E-09,-2.861022E-08
765.1882,-0.8285453,-3.737145E-10,NaN,-0.3539774,-1.32428E-07,NaN,1.172162,-5.090146E-07,NaN,-0.6667988,2.178597E-05,0.4156163,8.580833E-08,NaN,NaN,-0.01178127,-1.536686E-10,-2.772127E-07,-1.100968E-07,-1.258396E-08,-2.622604E-08
765.2043,-0.8294594,-3.730406E-10,NaN,-0.354306,-1.324278E-07,NaN,1.173743,-5.093115E-07,NaN,-0.6698738,2.178638E-05,0.4128852,8.610663E-08,NaN,NaN,-0.01208322,-1.536686E-10,-2.390657E-07,-1.100973E-07,-1.139186E-08,-2.861022E-08
765.2197,-0.8294594,-3.730406E-10,NaN,-0.354306,-1.324278E-07,NaN,1.173743,-5.093115E-07,NaN,-0.6698738,2.178638E-05,0.4128852,8.610663E-08,NaN,NaN,-0.01208322,-1.536686E-10,-2.390657E-07,-1.100973E-07,-1.139186E-08,-2.861022E-08
765.2348,-0.830465,-3.723672E-10,NaN,-0.3546653,-1.324278E-07,NaN,1.17524,-5.090445E-07,NaN,-0.6730664,2.17868E-05,0.4101589,8.584095E-08,NaN,NaN,-0.01237906,-1.536686E-10,-2.03303E-07,-1.100983E-07,-1.258396E-08,-2.622604E-08
765.2508,-0.8315235,-3.716932E-10,NaN,-0.3550417,-1.324275E-07,NaN,1.176638,-5.09369E-07,NaN,-0.6762873,2.178721E-05,0.4074869,8.616675E-08,NaN,NaN,-0.01266894,-1.49012E-10,-1.723085E-07,-1.100988E-07,-9.007676E-09,-2.861022E-08
765.2669,-0.8328233,-3.710197E-10,NaN,-0.3555036,-1.324275E-07,NaN,1.178296,-5.091176E-07,NaN,-0.6799829,2.178762E-05,0.4043921,8.591675E-08,NaN,NaN,-0.01303691,-1.443554E-10,-1.329695E-07,-1.100998E-07,-7.815584E-09,-2.622604E-08
765.2826,-0.8342686,-3.703457E-10,NaN,-0.3560157,-1.324272E-07,NaN,1.179963,-5.094518E-07,NaN,-0.6839676,2.178803E-05,0.4011652,8.625228E-08,NaN,NaN,-0.01339759,-1.443554E-10,-9.720671E-08,-1.101003E-07,-5.431398E-09,-2.861022E-08
765.2986,-0.8342686,-3.703457E-10,NaN,-0.3560157,-1.324272E-07,NaN,1.179963,-5.094518E-07,NaN,-0.6839676,2.178803E-05,0.4011652,8.625228E-08,NaN,NaN,-0.01339759,-1.443554E-10,-9.720671E-08,-1.101003E-07,-5.431398E-09,-2.861022E-08
765.3137,-0.835799,-3.696722E-10,NaN,-0.3565558,-1.324271E-07,NaN,1.181533,-5.092072E-07,NaN,-0.6880556,2.178845E-05,0.3979569,8.6009E-08,NaN,NaN,-0.013751,-1.443554E-10,-5.905974E-08,-1.101012E-07,-6.623491E-09,-2.622604E-08
765.3304,-0.8373763,-3.689988E-10,NaN,-0.3571106,-1.324273E-07,NaN,1.182994,-5.088742E-07,NaN,-0.6921575,2.178888E-05,0.3948154,8.567736E-08,NaN,NaN,-0.0140973,-1.536686E-10,-2.329695E-08,-1.101024E-07,-7.815584E-09,-2.861022E-08
765.3459,-0.8391888,-3.683246E-10,NaN,-0.3577486,-1.324272E-07,NaN,1.184706,-5.091678E-07,NaN,-0.69672,2.178929E-05,0.3912556,8.597232E-08,NaN,NaN,-0.01452048,-1.49012E-10,1.723421E-08,-1.10103E-07,-1.85512E-09,-2.622604E-08
765.3617,-0.8411407,-3.676501E-10,NaN,-0.3584343,-1.324267E-07,NaN,1.186412,-5.095741E-07,NaN,-0.7015578,2.178971E-05,0.3875778,8.637996E-08,NaN,NaN,-0.01493528,-1.49012E-10,6.134164E-08,-1.101033E-07,-6.623491E-09,-2.861022E-08
765.3774,-0.8411407,-3.676501E-10,NaN,-0.3584343,-1.324267E-07,NaN,1.186412,-5.095741E-07,NaN,-0.7015578,2.178971E-05,0.3875778,8.637996E-08,NaN,NaN,-0.01493528,-1.49012E-10,6.134164E-08,-1.101033E-07,-6.623491E-09,-2.861022E-08
765.3928,-0.8431718,-3.669763E-10,NaN,-0.3591457,-1.324265E-07,NaN,1.188009,-5.093664E-07,NaN,-0.7064852,2.179012E-05,0.3839326,8.617354E-08,NaN,NaN,-0.01534175,-1.49012E-10,9.829652E-08,-1.101042E-07,-5.431398E-09,-2.622604E-08
765.4092,-0.8452438,-3.663027E-10,NaN,-0.3598694,-1.324267E-07,NaN,1.189488,-5.090554E-07,NaN,-0.7114131,2.179056E-05,0.3803663,8.586392E-08,NaN,NaN,-0.01574004,-1.583253E-10,1.340593E-07,-1.101053E-07,-5.431398E-09,-2.861022E-08
765.4251,-0.8475453,-3.656282E-10,NaN,-0.3606742,-1.324265E-07,NaN,1.191209,-5.093621E-07,NaN,-0.7167882,2.179097E-05,0.3763845,8.6172E-08,NaN,NaN,-0.01621409,-1.536686E-10,1.769747E-07,-1.101058E-07,-1.139186E-08,-2.622604E-08
765.4409,-0.8499806,-3.649542E-10,NaN,-0.3615243,-1.324265E-07,NaN,1.192907,-5.091047E-07,NaN,-0.7224256,2.17914E-05,0.3722992,8.591595E-08,NaN,NaN,-0.01667876,-1.629819E-10,2.246584E-07,-1.101068E-07,-1.496814E-08,-2.861022E-08
765.4564,-0.8499806,-3.649542E-10,NaN,-0.3615243,-1.324265E-07,NaN,1.192907,-5.091047E-07,NaN,-0.7224256,2.17914E-05,0.3722992,8.591595E-08,NaN,NaN,-0.01667876,-1.629819E-10,2.246584E-07,-1.101068E-07,-1.496814E-08,-2.861022E-08
765.4715,-0.8524892,-3.642795E-10,NaN,-0.3623978,-1.324262E-07,NaN,1.194487,-5.094386E-07,NaN,-0.7281396,2.179182E-05,0.3682607,8.625115E-08,NaN,NaN,-0.01713411,-1.583253E-10,2.663816E-07,-1.101072E-07,-1.735233E-08,-2.622604E-08
765.4876,-0.8550332,-3.636053E-10,NaN,-0.3632816,-1.324262E-07,NaN,1.195942,-5.091965E-07,NaN,-0.7338417,2.179225E-05,0.3643131,8.60104E-08,NaN,NaN,-0.01758032,-1.676385E-10,3.033365E-07,-1.101082E-07,-1.735233E-08,-2.861022E-08
765.5037,-0.8578014,-3.629312E-10,NaN,-0.3642443,-1.324264E-07,NaN,1.197629,-5.088688E-07,NaN,-0.7399783,2.179268E-05,0.3599506,8.568405E-08,NaN,NaN,-0.01810124,-1.676385E-10,3.462518E-07,-1.101093E-07,-1.735233E-08,-2.622604E-08
765.5192,-0.8578014,-3.629312E-10,NaN,-0.3642443,-1.324264E-07,NaN,1.197629,-5.088688E-07,NaN,-0.7399783,2.179268E-05,0.3599506,8.568405E-08,NaN,NaN,-0.01810124,-1.676385E-10,3.462518E-07,-1.101093E-07,-1.735233E-08,-2.622604E-08
765.5343,-0.860698,-3.622562E-10,NaN,-0.3652502,-1.324263E-07,NaN,1.199281,-5.091704E-07,NaN,-0.7463648,2.179311E-05,0.3554996,8.5987E-08,NaN,NaN,-0.01861187,-1.676385E-10,3.903593E-07,-1.101099E-07,-1.496814E-08,-2.861022E-08
765.5519,-0.8636625,-3.615809E-10,NaN,-0.3662774,-1.324258E-07,NaN,1.200803,-5.095817E-07,NaN,-0.7528158,2.179353E-05,0.35111,8.639965E-08,NaN,NaN,-0.01911227,-1.629819E-10,4.296983E-07,-1.101102E-07,-1.258396E-08,-2.622604E-08
765.5666,-0.866657,-3.609062E-10,NaN,-0.3673128,-1.324256E-07,NaN,1.202195,-5.093817E-07,NaN,-0.7592433,2.179397E-05,0.346823,8.620099E-08,NaN,NaN,-0.01960264,-1.629819E-10,4.64269E-07,-1.10111E-07,-9.007676E-09,-2.861022E-08
765.5822,-0.8698707,-3.602315E-10,NaN,-0.3684252,-1.324258E-07,NaN,1.203813,-5.090783E-07,NaN,-0.7660933,2.179441E-05,0.3421195,8.589898E-08,NaN,NaN,-0.02016677,-1.676385E-10,5.095686E-07,-1.101121E-07,-1.019977E-08,-2.622604E-08
765.5977,-0.8698707,-3.602315E-10,NaN,-0.3684252,-1.324258E-07,NaN,1.203813,-5.090783E-07,NaN,-0.7660933,2.179441E-05,0.3421195,8.589898E-08,NaN,NaN,-0.02016677,-1.676385E-10,5.095686E-07,-1.101121E-07,-1.019977E-08,-2.622604E-08
765.6128,-0.8732077,-3.59556E-10,NaN,-0.3695787,-1.324256E-07,NaN,1.20538,-5.093925E-07,NaN,-0.7731814,2.179483E-05,0.3373434,8.621448E-08,NaN,NaN,-0.02071975,-1.629819E-10,5.489076E-07,-1.101126E-07,-1.139186E-08,-2.861022E-08
765.6293,-0.8766074,-3.588808E-10,NaN,-0.3707516,-1.324256E-07,NaN,1.206811,-5.091424E-07,NaN,-0.7803229,2.179527E-05,0.3326435,8.596574E-08,NaN,NaN,-0.02126168,-1.629819E-10,5.882467E-07,-1.101136E-07,-6.62349E-09,-2.622604E-08
765.6448,-0.8800321,-3.58205E-10,NaN,-0.3719307,-1.324253E-07,NaN,1.208108,-5.094834E-07,NaN,-0.7874298,2.17957E-05,0.3280574,8.630807E-08,NaN,NaN,-0.02179276,-1.583253E-10,6.275857E-07,-1.10114E-07,-3.047212E-09,-2.861022E-08
765.6613,-0.8836713,-3.575296E-10,NaN,-0.3731851,-1.324253E-07,NaN,1.209625,-5.092484E-07,NaN,-0.7949479,2.179613E-05,0.3230509,8.607434E-08,NaN,NaN,-0.02239672,-1.583253E-10,6.657327E-07,-1.10115E-07,5.29067E-10,-2.622604E-08
765.6778,-0.8836713,-3.575296E-10,NaN,-0.3731851,-1.324253E-07,NaN,1.209625,-5.092484E-07,NaN,-0.7949479,2.179613E-05,0.3230509,8.607434E-08,NaN,NaN,-0.02239672,-1.583253E-10,6.657327E-07,-1.10115E-07,5.29067E-10,-2.622604E-08
765.6915,-0.8874288,-3.568542E-10,NaN,-0.3744787,-1.324256E-07,NaN,1.211078,-5.089275E-07,NaN,-0.8026932,2.179657E-05,0.3179888,8.575488E-08,NaN,NaN,-0.02298876,-1.676385E-10,7.122243E-07,-1.101161E-07,5.29067E-10,-2.861022E-08
765.7081,-0.8912443,-3.56178E-10,NaN,-0.3757897,-1.324254E-07,NaN,1.212389,-5.092359E-07,NaN,-0.8104814,2.1797E-05,0.3130177,8.606456E-08,NaN,NaN,-0.02356898,-1.629819E-10,7.563318E-07,-1.101166E-07,-1.855119E-09,-2.622604E-08
765.7234,-0.8950799,-3.555022E-10,NaN,-0.3771052,-1.324255E-07,NaN,1.213566,-5.089857E-07,NaN,-0.8182247,2.179744E-05,0.3081709,8.581576E-08,NaN,NaN,-0.02413762,-1.722951E-10,7.98055E-07,-1.101176E-07,-3.047212E-09,-2.861022E-08
765.7395,-0.8950799,-3.555022E-10,NaN,-0.3771052,-1.324255E-07,NaN,1.213566,-5.089857E-07,NaN,-0.8182247,2.179744E-05,0.3081709,8.581576E-08,NaN,NaN,-0.02413762,-1.722951E-10,7.98055E-07,-1.101176E-07,-3.047212E-09,-2.861022E-08
765.7542,-0.8991256,-3.548256E-10,NaN,-0.3784942,-1.324252E-07,NaN,1.214959,-5.093294E-07,NaN,-0.8263685,2.179787E-05,0.3028975,8.616083E-08,NaN,NaN,-0.02477832,-1.676385E-10,8.385862E-07,-1.10118E-07,-6.630259E-10,-2.622604E-08
765.7709,-0.9032851,-3.541494E-10,NaN,-0.3799206,-1.324252E-07,NaN,1.216275,-5.090999E-07,NaN,-0.8347295,2.179831E-05,0.2975866,8.593264E-08,NaN,NaN,-0.02540638,-1.769518E-10,8.838857E-07,-1.101189E-07,-5.431398E-09,-2.861022E-08
765.7865,-0.9074978,-3.534725E-10,NaN,-0.3813628,-1.324249E-07,NaN,1.217445,-5.094554E-07,NaN,-0.8431233,2.179874E-05,0.2923816,8.628945E-08,NaN,NaN,-0.02602193,-1.722952E-10,9.291853E-07,-1.101193E-07,-5.431398E-09,-2.622604E-08
765.8024,-0.9117261,-3.52796E-10,NaN,-0.3828076,-1.324249E-07,NaN,1.218483,-5.092317E-07,NaN,-0.8514629,2.179919E-05,0.2873103,8.606713E-08,NaN,NaN,-0.0266252,-1.816084E-10,9.661402E-07,-1.101202E-07,-1.855119E-09,-2.861022E-08
765.8182,-0.9117261,-3.52796E-10,NaN,-0.3828076,-1.324249E-07,NaN,1.218483,-5.092317E-07,NaN,-0.8514629,2.179919E-05,0.2873103,8.606713E-08,NaN,NaN,-0.0266252,-1.816084E-10,9.661402E-07,-1.101202E-07,-1.855119E-09,-2.861022E-08
765.8331,-0.9161604,-3.521195E-10,NaN,-0.3843244,-1.324251E-07,NaN,1.219733,-5.089192E-07,NaN,-0.8601931,2.179961E-05,0.2818038,8.575602E-08,NaN,NaN,-0.02729981,-1.769518E-10,1.010248E-06,-1.101213E-07,5.290668E-10,-2.622604E-08
765.8495,-0.920704,-3.514422E-10,NaN,-0.385877,-1.324249E-07,NaN,1.220895,-5.092329E-07,NaN,-0.8691308,2.180004E-05,0.2762797,8.607104E-08,NaN,NaN,-0.02796112,-1.722952E-10,1.051971E-06,-1.101218E-07,1.12579E-08,-2.861022E-08
765.8653,-0.9252965,-3.507653E-10,NaN,-0.3874435,-1.32425E-07,NaN,1.22191,-5.08988E-07,NaN,-0.8780922,2.180048E-05,0.270876,8.582749E-08,NaN,NaN,-0.02860926,-1.722952E-10,1.090118E-06,-1.101228E-07,8.873716E-09,-2.622604E-08
765.8811,-0.9299002,-3.500877E-10,NaN,-0.3890111,-1.324245E-07,NaN,1.222798,-5.094554E-07,NaN,-0.8869907,2.180091E-05,0.265614,8.629621E-08,NaN,NaN,-0.02924451,-1.676386E-10,1.129457E-06,-1.101236E-07,7.681623E-09,-2.861022E-08
765.8972,-0.9299002,-3.500877E-10,NaN,-0.3890111,-1.324245E-07,NaN,1.222798,-5.094554E-07,NaN,-0.8869907,2.180091E-05,0.265614,8.629621E-08,NaN,NaN,-0.02924451,-1.676386E-10,1.129457E-06,-1.101236E-07,7.681623E-09,-2.861022E-08
765.9119,-0.9347059,-3.494105E-10,NaN,-0.3906493,-1.324245E-07,NaN,1.223894,-5.092116E-07,NaN,-0.8962705,2.180134E-05,0.2599058,8.605382E-08,NaN,NaN,-0.02995043,-1.676386E-10,1.172372E-06,-1.101246E-07,8.873716E-09,-2.622604E-08
765.9285,-0.9396168,-3.487333E-10,NaN,-0.3923215,-1.324248E-07,NaN,1.224892,-5.088937E-07,NaN,-0.9057489,2.180178E-05,0.2542019,8.573716E-08,NaN,NaN,-0.03064243,-1.722952E-10,1.214096E-06,-1.101257E-07,1.006581E-08,-2.861022E-08
765.9443,-0.9445724,-3.480556E-10,NaN,-0.3940061,-1.324252E-07,NaN,1.225746,-5.079413E-07,NaN,-0.9152426,2.180221E-05,0.2486318,8.478608E-08,NaN,NaN,-0.03132067,-1.769518E-10,1.247474E-06,-1.101269E-07,1.006581E-08,-2.622604E-08
765.96,-0.9445724,-3.480556E-10,NaN,-0.3940061,-1.324252E-07,NaN,1.225746,-5.079413E-07,NaN,-0.9152426,2.180221E-05,0.2486318,8.478608E-08,NaN,NaN,-0.03132067,-1.769518E-10,1.247474E-06,-1.101269E-07,1.006581E-08,-2.622604E-08
765.9749,-0.9497496,-3.473776E-10,NaN,-0.3957674,-1.324257E-07,NaN,1.226783,-5.069821E-07,NaN,-0.9251483,2.180263E-05,0.2426141,8.382822E-08,NaN,NaN,-0.03206869,-1.816084E-10,1.286813E-06,-1.101281E-07,1.006581E-08,-2.861022E-08
765.9911,-0.9550424,-3.466995E-10,NaN,-0.3975656,-1.324262E-07,NaN,1.227698,-5.060275E-07,NaN,-0.9352615,2.180304E-05,0.2366284,8.287498E-08,NaN,NaN,-0.03280195,-1.816084E-10,1.329728E-06,-1.101294E-07,8.277669E-09,-2.622604E-08
766.0071,-0.9603847,-3.460214E-10,NaN,-0.3993773,-1.324262E-07,NaN,1.228461,-5.05541E-07,NaN,-0.945389,2.180345E-05,0.2307933,8.238987E-08,NaN,NaN,-0.03352064,-1.816084E-10,1.367875E-06,-1.101286E-07,1.12579E-08,-2.622604E-08
766.0229,-0.9657353,-3.453433E-10,NaN,-0.4011885,-1.324254E-07,NaN,1.2291,-5.05349E-07,NaN,-0.9554403,2.180384E-05,0.2251166,8.219917E-08,NaN,NaN,-0.03422506,-1.769518E-10,1.40483E-06,-1.101272E-07,9.469762E-09,-2.622604E-08
766.0391,-0.9657353,-3.453433E-10,NaN,-0.4011885,-1.324254E-07,NaN,1.2291,-5.05349E-07,NaN,-0.9554403,2.180384E-05,0.2251166,8.219917E-08,NaN,NaN,-0.03422506,-1.769518E-10,1.40483E-06,-1.101272E-07,9.469762E-09,-2.622604E-08
766.0537,-0.9712839,-3.446653E-10,NaN,-0.4030681,-1.324243E-07,NaN,1.229939,-5.046218E-07,NaN,-0.9658559,2.180424E-05,0.2189749,8.147328E-08,NaN,NaN,-0.03499874,-1.769518E-10,1.439401E-06,-1.101251E-07,1.185395E-08,-2.622604E-08
766.0701,-0.9769315,-3.439878E-10,NaN,-0.4049792,-1.32423E-07,NaN,1.23066,-5.045492E-07,NaN,-0.9764527,2.180462E-05,0.2128857,8.140203E-08,NaN,NaN,-0.03575717,-1.676385E-10,1.477548E-06,-1.101228E-07,8.277668E-09,-2.622604E-08
766.0856,-0.9826169,-3.433105E-10,NaN,-0.4068999,-1.324214E-07,NaN,1.231243,-5.045315E-07,NaN,-0.9870481,2.180502E-05,0.2069537,8.138573E-08,NaN,NaN,-0.03650055,-1.629819E-10,1.513311E-06,-1.101204E-07,7.681622E-09,-2.622604E-08
766.1013,-0.9883019,-3.426334E-10,NaN,-0.4088175,-1.324198E-07,NaN,1.231716,-5.045451E-07,NaN,-0.9975569,2.180541E-05,0.2011809,8.140073E-08,NaN,NaN,-0.03722922,-1.583253E-10,1.546689E-06,-1.101179E-07,7.085575E-09,-2.622604E-08
766.117,-0.9883019,-3.426334E-10,NaN,-0.4088175,-1.324198E-07,NaN,1.231716,-5.045451E-07,NaN,-0.9975569,2.180541E-05,0.2011809,8.140073E-08,NaN,NaN,-0.03722922,-1.583253E-10,1.546689E-06,-1.101179E-07,7.085575E-09,-2.622604E-08
766.1323,-0.9941784,-3.419564E-10,NaN,-0.4108014,-1.324181E-07,NaN,1.232386,-5.045753E-07,NaN,-1.008421,2.18058E-05,0.194927,8.143231E-08,NaN,NaN,-0.03802665,-1.536687E-10,1.578876E-06,-1.101154E-07,5.297436E-09,-2.622604E-08
766.1488,-1.000149,-3.412795E-10,NaN,-0.4128149,-1.324164E-07,NaN,1.232934,-5.046443E-07,NaN,-1.019458,2.180619E-05,0.1887517,8.150273E-08,NaN,NaN,-0.03880836,-1.490121E-10,1.60987E-06,-1.101128E-07,8.277668E-09,-2.622604E-08
766.1647,-1.006152,-3.406027E-10,NaN,-0.4148363,-1.324149E-07,NaN,1.233354,-5.040292E-07,NaN,-1.030487,2.180658E-05,0.1827401,8.088893E-08,NaN,NaN,-0.03957459,-1.443555E-10,1.63848E-06,-1.101098E-07,7.085576E-09,-2.622604E-08
766.1817,-1.01215,-3.399261E-10,NaN,-0.4168532,-1.324133E-07,NaN,1.233675,-5.039818E-07,NaN,-1.041424,2.180698E-05,0.1768886,8.084293E-08,NaN,NaN,-0.04032567,-1.443555E-10,1.664706E-06,-1.101067E-07,6.489529E-09,-2.622604E-08
766.1961,-1.01215,-3.399261E-10,NaN,-0.4168532,-1.324133E-07,NaN,1.233675,-5.039818E-07,NaN,-1.041424,2.180698E-05,0.1768886,8.084293E-08,NaN,NaN,-0.04032567,-1.443555E-10,1.664706E-06,-1.101067E-07,6.489529E-09,-2.622604E-08
766.2109,-1.018336,-3.392496E-10,NaN,-0.4189351,-1.324117E-07,NaN,1.234185,-5.039437E-07,NaN,-1.052708,2.180737E-05,0.1705423,8.080625E-08,NaN,NaN,-0.04114508,-1.443555E-10,1.690933E-06,-1.101037E-07,1.185395E-08,-2.622604E-08
766.2277,-1.024613,-3.385732E-10,NaN,-0.4210453,-1.324101E-07,NaN,1.234572,-5.039063E-07,NaN,-1.06416,2.180776E-05,0.1643008,8.077023E-08,NaN,NaN,-0.04194831,-1.396989E-10,1.719543E-06,-1.101007E-07,8.873715E-09,-2.622604E-08
766.2434,-1.030918,-3.37897E-10,NaN,-0.4231623,-1.324085E-07,NaN,1.234842,-5.038695E-07,NaN,-1.075597,2.180815E-05,0.1582265,8.073487E-08,NaN,NaN,-0.04273568,-1.350423E-10,1.742192E-06,-1.100976E-07,8.873715E-09,-2.622604E-08
766.2592,-1.030918,-3.37897E-10,NaN,-0.4231623,-1.324085E-07,NaN,1.234842,-5.038695E-07,NaN,-1.075597,2.180815E-05,0.1582265,8.073487E-08,NaN,NaN,-0.04273568,-1.350423E-10,1.742192E-06,-1.100976E-07,8.873715E-09,-2.622604E-08
766.2742,-1.037216,-3.372208E-10,NaN,-0.4252733,-1.324069E-07,NaN,1.235025,-5.038306E-07,NaN,-1.086937,2.180855E-05,0.1523117,8.069733E-08,NaN,NaN,-0.0435075,-1.303857E-10,1.760074E-06,-1.100946E-07,8.873715E-09,-2.622604E-08
766.2908,-1.043698,-3.365448E-10,NaN,-0.4274483,-1.324053E-07,NaN,1.235386,-5.037895E-07,NaN,-1.098618,2.180894E-05,0.1458916,8.065765E-08,NaN,NaN,-0.04434722,-1.257291E-10,1.783916E-06,-1.100915E-07,8.575692E-09,-2.622604E-08
766.3064,-1.050267,-3.35869E-10,NaN,-0.4296504,-1.324037E-07,NaN,1.235625,-5.037463E-07,NaN,-1.11046,2.180933E-05,0.1395997,8.061588E-08,NaN,NaN,-0.04517038,-1.210725E-10,1.811334E-06,-1.100885E-07,7.085576E-09,-2.622604E-08
766.3219,-1.056862,-3.351932E-10,NaN,-0.4318579,-1.324021E-07,NaN,1.235761,-5.036983E-07,NaN,-1.122284,2.180972E-05,0.1334753,8.056923E-08,NaN,NaN,-0.04597729,-1.210725E-10,1.830407E-06,-1.100855E-07,8.277669E-09,-2.622604E-08
766.3378,-1.056862,-3.351932E-10,NaN,-0.4318579,-1.324021E-07,NaN,1.235761,-5.036983E-07,NaN,-1.122284,2.180972E-05,0.1334753,8.056923E-08,NaN,NaN,-0.04597729,-1.210725E-10,1.830407E-06,-1.100855E-07,8.277669E-09,-2.622604E-08
766.3527,-1.063445,-3.345175E-10,NaN,-0.4340585,-1.324005E-07,NaN,1.235819,-5.036483E-07,NaN,-1.134004,2.181012E-05,0.127509,8.052063E-08,NaN,NaN,-0.04676831,-1.210725E-10,1.847097E-06,-1.100825E-07,6.48953E-09,-2.622604E-08
766.3695,-1.070211,-3.338419E-10,NaN,-0.4363219,-1.323989E-07,NaN,1.236042,-5.035964E-07,NaN,-1.146061,2.181051E-05,0.121031,8.047011E-08,NaN,NaN,-0.04762682,-1.164158E-10,1.864978E-06,-1.100795E-07,4.403367E-09,-2.622604E-08
766.3848,-1.077061,-3.331664E-10,NaN,-0.4386112,-1.323973E-07,NaN,1.23615,-5.035398E-07,NaN,-1.158272,2.18109E-05,0.1146995,8.041489E-08,NaN,NaN,-0.04846842,-1.117592E-10,1.880475E-06,-1.100766E-07,6.787553E-09,-2.622604E-08
766.4007,-1.083933,-3.32491E-10,NaN,-0.4409049,-1.323957E-07,NaN,1.236167,-5.034813E-07,NaN,-1.17046,2.18113E-05,0.1085332,8.035787E-08,NaN,NaN,-0.04929344,-1.117592E-10,1.898356E-06,-1.100736E-07,7.085577E-09,-2.622604E-08
766.4163,-1.083933,-3.32491E-10,NaN,-0.4409049,-1.323957E-07,NaN,1.236167,-5.034813E-07,NaN,-1.17046,2.18113E-05,0.1085332,8.035787E-08,NaN,NaN,-0.04929344,-1.117592E-10,1.898356E-06,-1.100736E-07,7.085577E-09,-2.622604E-08
766.4313,-1.09079,-3.318157E-10,NaN,-0.4431905,-1.323942E-07,NaN,1.236115,-5.034183E-07,NaN,-1.182541,2.181169E-05,0.1025229,8.029628E-08,NaN,NaN,-0.05010221,-1.071026E-10,1.909085E-06,-1.100706E-07,6.042495E-09,-2.622604E-08
766.4476,-1.097828,-3.311405E-10,NaN,-0.445538,-1.323926E-07,NaN,1.236213,-5.033537E-07,NaN,-1.194953,2.181208E-05,0.09599973,8.023303E-08,NaN,NaN,-0.05097812,-1.02446E-10,1.924582E-06,-1.100677E-07,2.913252E-09,-2.622604E-08
766.4636,-1.104946,-3.304655E-10,NaN,-0.4479103,-1.32391E-07,NaN,1.236207,-5.032874E-07,NaN,-1.207515,2.181248E-05,0.08963408,8.016814E-08,NaN,NaN,-0.05183678,-1.02446E-10,1.937696E-06,-1.100647E-07,4.105345E-09,-2.622604E-08
766.4791,-1.104946,-3.304655E-10,NaN,-0.4479103,-1.32391E-07,NaN,1.236207,-5.032874E-07,NaN,-1.207515,2.181248E-05,0.08963408,8.016814E-08,NaN,NaN,-0.05183678,-1.02446E-10,1.937696E-06,-1.100647E-07,4.105345E-09,-2.622604E-08
766.4945,-1.112084,-3.297904E-10,NaN,-0.4502858,-1.323895E-07,NaN,1.23612,-5.032167E-07,NaN,-1.220048,2.181288E-05,0.0834301,8.009884E-08,NaN,NaN,-0.05267855,-1.02446E-10,1.948424E-06,-1.100618E-07,5.893484E-09,-2.622604E-08
766.5106,-1.119203,-3.291154E-10,NaN,-0.4526522,-1.323879E-07,NaN,1.235974,-5.031445E-07,NaN,-1.232471,2.181327E-05,0.07737952,8.002802E-08,NaN,NaN,-0.05350376,-9.778939E-11,1.953193E-06,-1.100589E-07,6.936565E-09,-2.622604E-08
766.5269,-1.126501,-3.284405E-10,NaN,-0.4550796,-1.323863E-07,NaN,1.235961,-5.03068E-07,NaN,-1.245219,2.181366E-05,0.07082005,7.995289E-08,NaN,NaN,-0.05439578,-9.778939E-11,1.957961E-06,-1.10056E-07,3.881827E-09,-2.622604E-08
766.5422,-1.133877,-3.277656E-10,NaN,-0.4575307,-1.323848E-07,NaN,1.235856,-5.0299E-07,NaN,-1.258113,2.181405E-05,0.06442164,7.987637E-08,NaN,NaN,-0.05527025,-9.313277E-11,1.96273E-06,-1.100531E-07,8.352176E-09,-2.622604E-08
766.5581,-1.133877,-3.277656E-10,NaN,-0.4575307,-1.323848E-07,NaN,1.235856,-5.0299E-07,NaN,-1.258113,2.181405E-05,0.06442164,7.987637E-08,NaN,NaN,-0.05527025,-9.313277E-11,1.96273E-06,-1.100531E-07,8.352176E-09,-2.622604E-08
766.5731,-1.141269,-3.270909E-10,NaN,-0.4599841,-1.323832E-07,NaN,1.235681,-5.029107E-07,NaN,-1.270975,2.181445E-05,0.0581811,7.979847E-08,NaN,NaN,-0.05612753,-9.313277E-11,1.965114E-06,-1.100502E-07,9.860918E-09,-2.622604E-08
766.5895,-1.14864,-3.264163E-10,NaN,-0.4624273,-1.323817E-07,NaN,1.235455,-5.028273E-07,NaN,-1.283722,2.181485E-05,0.0520914,7.97164E-08,NaN,NaN,-0.05696794,-9.313277E-11,1.96273E-06,-1.100473E-07,1.211472E-08,-2.622604E-08
766.6057,-1.150929,-3.257417E-10,NaN,-0.4630791,-1.323802E-07,NaN,1.231586,-5.027425E-07,NaN,-1.285413,2.181524E-05,0.0610211,7.963308E-08,NaN,NaN,-0.05588302,-9.313277E-11,1.887628E-06,-1.100445E-07,1.330681E-08,-2.622604E-08
766.6212,-1.150091,-3.250672E-10,NaN,-0.4626852,-1.323786E-07,NaN,1.228574,-5.026537E-07,NaN,-1.279765,2.181564E-05,0.06968266,7.954569E-08,NaN,NaN,-0.05481909,-9.313277E-11,1.823255E-06,-1.100416E-07,7.867888E-09,-2.622604E-08
766.6373,-1.150091,-3.250672E-10,NaN,-0.4626852,-1.323786E-07,NaN,1.228574,-5.026537E-07,NaN,-1.279765,2.181564E-05,0.06968266,7.954569E-08,NaN,NaN,-0.05481909,-9.313277E-11,1.823255E-06,-1.100416E-07,7.867888E-09,-2.622604E-08
766.6522,-1.147307,-3.243928E-10,NaN,-0.4616478,-1.323771E-07,NaN,1.226088,-5.025638E-07,NaN,-1.270643,2.181603E-05,0.07811135,7.945714E-08,NaN,NaN,-0.0537759,-8.847616E-11,1.758882E-06,-1.100388E-07,5.185679E-09,-2.622604E-08
766.6685,-1.143332,-3.237185E-10,NaN,-0.4602254,-1.323756E-07,NaN,1.223933,-5.024727E-07,NaN,-1.259927,2.181643E-05,0.08633585,7.936745E-08,NaN,NaN,-0.05275311,-8.847616E-11,1.696893E-06,-1.100359E-07,6.508157E-09,-2.622604E-08
766.6841,-1.13886,-3.230443E-10,NaN,-0.4586562,-1.32374E-07,NaN,1.222161,-5.023777E-07,NaN,-1.249003,2.181682E-05,0.09372512,7.927383E-08,NaN,NaN,-0.0518334,-8.847616E-11,1.642057E-06,-1.100331E-07,1.02707E-08,-2.622604E-08
766.7009,-1.134102,-3.223702E-10,NaN,-0.4570069,-1.323725E-07,NaN,1.220507,-5.022816E-07,NaN,-1.238154,2.181722E-05,0.1009515,7.917917E-08,NaN,NaN,-0.05093171,-8.847616E-11,1.596757E-06,-1.100303E-07,6.768927E-09,-2.622604E-08
766.7153,-1.134102,-3.223702E-10,NaN,-0.4570069,-1.323725E-07,NaN,1.220507,-5.022816E-07,NaN,-1.238154,2.181722E-05,0.1009515,7.917917E-08,NaN,NaN,-0.05093171,-8.847616E-11,1.596757E-06,-1.100303E-07,6.768927E-09,-2.622604E-08
766.7303,-1.12919,-3.216961E-10,NaN,-0.4553178,-1.32371E-07,NaN,1.218937,-5.021845E-07,NaN,-1.227423,2.181762E-05,0.1080266,7.90835E-08,NaN,NaN,-0.05004769,-8.847616E-11,1.549074E-06,-1.100275E-07,7.141456E-09,-2.622604E-08
766.747,-1.124205,-3.210221E-10,NaN,-0.4536128,-1.323695E-07,NaN,1.217428,-5.020837E-07,NaN,-1.216829,2.181801E-05,0.1149574,7.8984E-08,NaN,NaN,-0.04918098,-8.847616E-11,1.504966E-06,-1.100247E-07,6.768927E-09,-2.622604E-08
766.7629,-1.119415,-3.203482E-10,NaN,-0.4519833,-1.32368E-07,NaN,1.216154,-5.019818E-07,NaN,-1.206855,2.181841E-05,0.1210951,7.888359E-08,NaN,NaN,-0.04841436,-8.847616E-11,1.464435E-06,-1.100219E-07,8.929595E-09,-2.622604E-08
766.7785,-1.119415,-3.203482E-10,NaN,-0.4519833,-1.32368E-07,NaN,1.216154,-5.019818E-07,NaN,-1.206855,2.181841E-05,0.1210951,7.888359E-08,NaN,NaN,-0.04841436,-8.847616E-11,1.464435E-06,-1.100219E-07,8.929595E-09,-2.622604E-08
766.7934,-1.114767,-3.196743E-10,NaN,-0.4504061,-1.323665E-07,NaN,1.214885,-5.018791E-07,NaN,-1.197346,2.181881E-05,0.1271068,7.878227E-08,NaN,NaN,-0.04766274,-8.847616E-11,1.426288E-06,-1.100191E-07,7.290467E-09,-2.622604E-08
766.8094,-1.110226,-3.190006E-10,NaN,-0.4488671,-1.32365E-07,NaN,1.213626,-5.017727E-07,NaN,-1.188131,2.18192E-05,0.1330028,7.867724E-08,NaN,NaN,-0.04692584,-8.847616E-11,1.386949E-06,-1.100164E-07,8.333548E-09,-2.622604E-08
766.8255,-1.10577,-3.183269E-10,NaN,-0.4473578,-1.323635E-07,NaN,1.212384,-5.016655E-07,NaN,-1.179128,2.18196E-05,0.1387853,7.85714E-08,NaN,NaN,-0.04620337,-8.847616E-11,1.348802E-06,-1.100136E-07,9.227618E-09,-2.622604E-08
766.841,-1.101605,-3.176532E-10,NaN,-0.4459501,-1.32362E-07,NaN,1.211363,-5.015574E-07,NaN,-1.170768,2.182E-05,0.1437994,7.846476E-08,NaN,NaN,-0.04557819,-8.847616E-11,1.319E-06,-1.100108E-07,6.843432E-09,-2.622604E-08
766.8566,-1.101605,-3.176532E-10,NaN,-0.4459501,-1.32362E-07,NaN,1.211363,-5.015574E-07,NaN,-1.170768,2.182E-05,0.1437994,7.846476E-08,NaN,NaN,-0.04557819,-8.847616E-11,1.319E-06,-1.100108E-07,6.843432E-09,-2.622604E-08
766.8717,-1.097637,-3.169797E-10,NaN,-0.4446093,-1.323606E-07,NaN,1.210323,-5.014458E-07,NaN,-1.162873,2.182039E-05,0.1487067,7.835451E-08,NaN,NaN,-0.04496523,-8.847616E-11,1.293966E-06,-1.100081E-07,5.949362E-09,-2.622604E-08
766.8881,-1.093808,-3.163062E-10,NaN,-0.4433146,-1.323591E-07,NaN,1.209277,-5.013334E-07,NaN,-1.15526,2.182079E-05,0.153523,7.824356E-08,NaN,NaN,-0.04436428,-8.847616E-11,1.264164E-06,-1.100054E-07,6.545409E-09,-2.622604E-08
766.9039,-1.090081,-3.156328E-10,NaN,-0.4420532,-1.323576E-07,NaN,1.208236,-5.012203E-07,NaN,-1.147841,2.182119E-05,0.1582486,7.813191E-08,NaN,NaN,-0.04377509,-8.847616E-11,1.234361E-06,-1.100027E-07,5.204304E-09,-2.622604E-08
766.9194,-1.090081,-3.156328E-10,NaN,-0.4420532,-1.323576E-07,NaN,1.208236,-5.012203E-07,NaN,-1.147841,2.182119E-05,0.1582486,7.813191E-08,NaN,NaN,-0.04377509,-8.847616E-11,1.234361E-06,-1.100027E-07,5.204304E-09,-2.622604E-08
766.9343,-1.086652,-3.149595E-10,NaN,-0.4408946,-1.323561E-07,NaN,1.207424,-5.011037E-07,NaN,-1.141045,2.182158E-05,0.1622279,7.801675E-08,NaN,NaN,-0.04328059,-8.847616E-11,1.211711E-06,-1.1E-07,3.267153E-09,-2.622604E-08
766.9506,-1.08342,-3.142862E-10,NaN,-0.4398028,-1.323547E-07,NaN,1.206584,-5.009866E-07,NaN,-1.134693,2.182198E-05,0.1661131,7.790099E-08,NaN,NaN,-0.04279577,-8.847616E-11,1.185485E-06,-1.099973E-07,4.608258E-09,-2.622604E-08
766.9664,-1.080326,-3.13613E-10,NaN,-0.438756,-1.323532E-07,NaN,1.20573,-5.008688E-07,NaN,-1.1286,2.182238E-05,0.1699289,7.778463E-08,NaN,NaN,-0.04232044,-8.847616E-11,1.160451E-06,-1.099946E-07,6.69442E-09,-2.622604E-08
766.9821,-1.077329,-3.129399E-10,NaN,-0.4377411,-1.323518E-07,NaN,1.204875,-5.007476E-07,NaN,-1.122679,2.182277E-05,0.1736744,7.766485E-08,NaN,NaN,-0.0418544,-8.847616E-11,1.128265E-06,-1.099919E-07,7.58849E-09,-2.622604E-08
766.998,-1.077329,-3.129399E-10,NaN,-0.4377411,-1.323518E-07,NaN,1.204875,-5.007476E-07,NaN,-1.122679,2.182277E-05,0.1736744,7.766485E-08,NaN,NaN,-0.0418544,-8.847616E-11,1.128265E-06,-1.099919E-07,7.58849E-09,-2.622604E-08
767.0128,-1.074623,-3.122669E-10,NaN,-0.436827,-1.323503E-07,NaN,1.204256,-5.006259E-07,NaN,-1.11736,2.182317E-05,0.1766954,7.754456E-08,NaN,NaN,-0.04148067,-8.847616E-11,1.106807E-06,-1.099892E-07,1.116477E-08,-2.622604E-08
767.0294,-1.072109,-3.115939E-10,NaN,-0.4359778,-1.323489E-07,NaN,1.203604,-5.005037E-07,NaN,-1.112463,2.182357E-05,0.179633,7.742375E-08,NaN,NaN,-0.04111426,-8.847616E-11,1.08535E-06,-1.099865E-07,1.205884E-08,-2.622604E-08
767.0449,-1.069725,-3.10921E-10,NaN,-0.4351715,-1.323474E-07,NaN,1.202931,-5.00381E-07,NaN,-1.107804,2.182396E-05,0.182521,7.730244E-08,NaN,NaN,-0.040755,-8.847616E-11,1.065084E-06,-1.099839E-07,9.972676E-09,-2.622604E-08
767.0611,-1.067432,-3.102482E-10,NaN,-0.4343949,-1.32346E-07,NaN,1.202251,-5.002549E-07,NaN,-1.103294,2.182436E-05,0.185358,7.717781E-08,NaN,NaN,-0.04040278,-8.847616E-11,1.048395E-06,-1.099812E-07,6.992444E-09,-2.622604E-08
767.0762,-1.067432,-3.102482E-10,NaN,-0.4343949,-1.32346E-07,NaN,1.202251,-5.002549E-07,NaN,-1.103294,2.182436E-05,0.185358,7.717781E-08,NaN,NaN,-0.04040278,-8.847616E-11,1.048395E-06,-1.099812E-07,6.992444E-09,-2.622604E-08
767.0911,-1.065422,-3.095754E-10,NaN,-0.4337168,-1.323445E-07,NaN,1.201812,-5.001285E-07,NaN,-1.099366,2.182476E-05,0.1874916,7.705275E-08,NaN,NaN,-0.04014063,-8.847616E-11,1.03409E-06,-1.099786E-07,6.694421E-09,-2.622604E-08
767.1078,-1.063596,-3.089027E-10,NaN,-0.4331015,-1.323431E-07,NaN,1.201336,-5.000016E-07,NaN,-1.095839,2.182515E-05,0.1895523,7.692728E-08,NaN,NaN,-0.03988363,-8.847616E-11,1.023361E-06,-1.09976E-07,3.118142E-09,-2.622604E-08
767.1232,-1.061893,-3.082301E-10,NaN,-0.4325269,-1.323417E-07,NaN,1.200832,-4.998743E-07,NaN,-1.09253,2.182555E-05,0.1915817,7.680139E-08,NaN,NaN,-0.03963163,-8.847616E-11,1.010248E-06,-1.099734E-07,3.118142E-09,-2.622604E-08
767.14,-1.060273,-3.075576E-10,NaN,-0.4319798,-1.323403E-07,NaN,1.200316,-4.997438E-07,NaN,-1.08935,2.182594E-05,0.1935782,7.667227E-08,NaN,NaN,-0.03938457,-8.847616E-11,9.983268E-07,-1.099707E-07,3.714189E-09,-2.622604E-08
767.1547,-1.060273,-3.075576E-10,NaN,-0.4319798,-1.323403E-07,NaN,1.200316,-4.997438E-07,NaN,-1.08935,2.182594E-05,0.1935782,7.667227E-08,NaN,NaN,-0.03938457,-8.847616E-11,9.983268E-07,-1.099707E-07,3.714189E-09,-2.622604E-08
767.1697,-1.058929,-3.068851E-10,NaN,-0.4315289,-1.323388E-07,NaN,1.200042,-4.99613E-07,NaN,-1.086732,2.182634E-05,0.1948912,7.654281E-08,NaN,NaN,-0.03922553,-8.847616E-11,9.911741E-07,-1.099681E-07,2.224072E-09,-2.622604E-08
767.1858,-1.057762,-3.062127E-10,NaN,-0.4311385,-1.323374E-07,NaN,1.199726,-4.994818E-07,NaN,-1.084496,2.182674E-05,0.1961422,7.641302E-08,NaN,NaN,-0.03906961,-8.847616E-11,9.840215E-07,-1.099656E-07,3.118142E-09,-2.622604E-08
767.2015,-1.056711,-3.055404E-10,NaN,-0.4307869,-1.32336E-07,NaN,1.199375,-4.993502E-07,NaN,-1.082457,2.182713E-05,0.197379,7.628291E-08,NaN,NaN,-0.03891671,-8.847616E-11,9.744848E-07,-1.09963E-07,2.820119E-09,-2.622604E-08
767.2203,-1.055735,-3.048682E-10,NaN,-0.4304605,-1.323346E-07,NaN,1.199008,-4.992156E-07,NaN,-1.080529,2.182753E-05,0.1985996,7.614965E-08,NaN,NaN,-0.0387668,-8.847616E-11,9.661402E-07,-1.099604E-07,1.628026E-09,-2.622604E-08
767.2352,-1.055735,-3.048682E-10,NaN,-0.4304605,-1.323346E-07,NaN,1.199008,-4.992156E-07,NaN,-1.080529,2.182753E-05,0.1985996,7.614965E-08,NaN,NaN,-0.0387668,-8.847616E-11,9.661402E-07,-1.099604E-07,1.628026E-09,-2.622604E-08
767.2482,-1.055029,-3.04196E-10,NaN,-0.430228,-1.323332E-07,NaN,1.198881,-4.990806E-07,NaN,-1.079144,2.182793E-05,0.1991549,7.601612E-08,NaN,NaN,-0.03870302,-8.847616E-11,9.673323E-07,-1.099578E-07,-1.948252E-09,-2.622604E-08
767.2648,-1.054492,-3.03524E-10,NaN,-0.4300539,-1.323318E-07,NaN,1.198708,-4.989454E-07,NaN,-1.078122,2.182832E-05,0.19966,7.588235E-08,NaN,NaN,-0.03864049,-8.381954E-11,9.661402E-07,-1.099553E-07,-4.928484E-09,-2.622604E-08
767.2805,-1.054064,-3.02852E-10,NaN,-0.4299165,-1.323304E-07,NaN,1.198494,-4.9881E-07,NaN,-1.077279,2.182872E-05,0.2001668,7.574832E-08,NaN,NaN,-0.03857915,-8.381954E-11,9.63756E-07,-1.099527E-07,-4.928484E-09,-2.622604E-08
767.2964,-1.054064,-3.02852E-10,NaN,-0.4299165,-1.323304E-07,NaN,1.198494,-4.9881E-07,NaN,-1.077279,2.182872E-05,0.2001668,7.574832E-08,NaN,NaN,-0.03857915,-8.381954E-11,9.63756E-07,-1.099527E-07,-4.928484E-09,-2.622604E-08
767.3114,-1.053923,-3.021801E-10,NaN,-0.4298791,-1.32329E-07,NaN,1.198506,-4.986716E-07,NaN,-1.077005,2.182911E-05,0.2000273,7.561123E-08,NaN,NaN,-0.0386022,-8.381954E-11,9.661402E-07,-1.099502E-07,-4.332438E-09,-2.622604E-08
767.328,-1.05396,-3.015083E-10,NaN,-0.4299027,-1.323276E-07,NaN,1.19846,-4.985329E-07,NaN,-1.077096,2.182951E-05,0.1998537,7.547396E-08,NaN,NaN,-0.03862479,-8.381954E-11,9.685244E-07,-1.099477E-07,-7.908716E-09,-2.622604E-08
767.3437,-1.054108,-3.008366E-10,NaN,-0.4299637,-1.323262E-07,NaN,1.198363,-4.98394E-07,NaN,-1.07736,2.18299E-05,0.1996977,7.53365E-08,NaN,NaN,-0.0386469,-7.916293E-11,9.721007E-07,-1.099452E-07,-8.802786E-09,-2.622604E-08
767.3598,-1.054108,-3.008366E-10,NaN,-0.4299637,-1.323262E-07,NaN,1.198363,-4.98394E-07,NaN,-1.07736,2.18299E-05,0.1996977,7.53365E-08,NaN,NaN,-0.0386469,-7.916293E-11,9.721007E-07,-1.099452E-07,-8.802786E-09,-2.622604E-08
767.3747,-1.054325,-3.001649E-10,NaN,-0.4300473,-1.323249E-07,NaN,1.198237,-4.98255E-07,NaN,-1.077704,2.18303E-05,0.1995562,7.519887E-08,NaN,NaN,-0.03866855,-7.916293E-11,9.744849E-07,-1.099427E-07,-8.206739E-09,-2.622604E-08
767.3912,-1.0548,-2.994934E-10,NaN,-0.4302216,-1.323235E-07,NaN,1.198343,-4.981158E-07,NaN,-1.078558,2.183069E-05,0.1987792,7.506107E-08,NaN,NaN,-0.03877296,-7.916293E-11,9.75677E-07,-1.099402E-07,-5.226507E-09,-2.622604E-08
767.4069,-1.055436,-2.988219E-10,NaN,-0.4304505,-1.323221E-07,NaN,1.198391,-4.979735E-07,NaN,-1.079742,2.183109E-05,0.1979801,7.492027E-08,NaN,NaN,-0.03887532,-7.916293E-11,9.816375E-07,-1.099377E-07,-6.120577E-09,-2.622604E-08
767.4223,-1.056168,-2.981504E-10,NaN,-0.430712,-1.323208E-07,NaN,1.198388,-4.978312E-07,NaN,-1.081073,2.183149E-05,0.1972111,7.477935E-08,NaN,NaN,-0.03897562,-7.916293E-11,9.840218E-07,-1.099352E-07,-4.332438E-09,-2.622604E-08
767.4386,-1.056168,-2.981504E-10,NaN,-0.430712,-1.323208E-07,NaN,1.198388,-4.978312E-07,NaN,-1.081073,2.183149E-05,0.1972111,7.477935E-08,NaN,NaN,-0.03897562,-7.916293E-11,9.840218E-07,-1.099352E-07,-4.332438E-09,-2.622604E-08
767.4532,-1.056957,-2.97479E-10,NaN,-0.430992,-1.323194E-07,NaN,1.198352,-4.976887E-07,NaN,-1.082463,2.183188E-05,0.1964692,7.463833E-08,NaN,NaN,-0.03907394,-7.916293E-11,9.887901E-07,-1.099327E-07,-7.31267E-09,-2.622604E-08
767.4698,-1.057995,-2.968077E-10,NaN,-0.4313592,-1.32318E-07,NaN,1.198543,-4.975462E-07,NaN,-1.084345,2.183228E-05,0.1951029,7.44972E-08,NaN,NaN,-0.03925351,-7.916293E-11,9.959427E-07,-1.099302E-07,-6.716623E-09,-2.622604E-08
767.4855,-1.059184,-2.961364E-10,NaN,-0.4317779,-1.323167E-07,NaN,1.198671,-4.974036E-07,NaN,-1.086541,2.183267E-05,0.1937299,7.435597E-08,NaN,NaN,-0.03942954,-7.916293E-11,1.006672E-06,-1.099278E-07,-7.908716E-09,-2.622604E-08
767.5017,-1.060461,-2.954651E-10,NaN,-0.4322259,-1.323153E-07,NaN,1.198744,-4.97258E-07,NaN,-1.088867,2.183307E-05,0.1923994,7.42118E-08,NaN,NaN,-0.03960208,-7.916293E-11,1.015016E-06,-1.099253E-07,-9.398832E-09,-2.622604E-08
767.5172,-1.060461,-2.954651E-10,NaN,-0.4322259,-1.323153E-07,NaN,1.198744,-4.97258E-07,NaN,-1.088867,2.183307E-05,0.1923994,7.42118E-08,NaN,NaN,-0.03960208,-7.916293E-11,1.015016E-06,-1.099253E-07,-9.398832E-09,-2.622604E-08
767.5322,-1.061789,-2.947939E-10,NaN,-0.4326899,-1.32314E-07,NaN,1.198781,-4.971124E-07,NaN,-1.091237,2.183347E-05,0.191108,7.40676E-08,NaN,NaN,-0.03977121,-7.916293E-11,1.018592E-06,-1.099229E-07,-9.398832E-09,-2.622604E-08
767.5487,-1.063358,-2.941227E-10,NaN,-0.4332384,-1.323126E-07,NaN,1.199038,-4.969668E-07,NaN,-1.094085,2.183386E-05,0.1892022,7.392335E-08,NaN,NaN,-0.04002019,-7.916293E-11,1.030513E-06,-1.099204E-07,-9.994879E-09,-2.622604E-08
767.5645,-1.065072,-2.934516E-10,NaN,-0.4338357,-1.323113E-07,NaN,1.199227,-4.968211E-07,NaN,-1.09723,2.183426E-05,0.1873057,7.377905E-08,NaN,NaN,-0.04026426,-7.916293E-11,1.043626E-06,-1.09918E-07,-9.398832E-09,-2.622604E-08
767.5803,-1.066868,-2.927805E-10,NaN,-0.4344598,-1.323103E-07,NaN,1.199356,-4.962794E-07,NaN,-1.100492,2.183466E-05,0.1854635,7.323878E-08,NaN,NaN,-0.04050351,-7.916293E-11,1.051971E-06,-1.099167E-07,-8.206739E-09,-2.622604E-08
767.5961,-1.066868,-2.927805E-10,NaN,-0.4344598,-1.323103E-07,NaN,1.199356,-4.962794E-07,NaN,-1.100492,2.183466E-05,0.1854635,7.323878E-08,NaN,NaN,-0.04050351,-7.916293E-11,1.051971E-06,-1.099167E-07,-8.206739E-09,-2.622604E-08
767.6113,-1.068707,-2.921094E-10,NaN,-0.4350973,-1.323098E-07,NaN,1.199448,-4.955395E-07,NaN,-1.103782,2.183507E-05,0.1836713,7.250026E-08,NaN,NaN,-0.04073803,-8.381954E-11,1.061508E-06,-1.099157E-07,-1.088895E-08,-2.622604E-08
767.628,-1.070783,-2.914384E-10,NaN,-0.435817,-1.323095E-07,NaN,1.19975,-4.947237E-07,NaN,-1.107537,2.183547E-05,0.1812732,7.168588E-08,NaN,NaN,-0.04105111,-8.847616E-11,1.075813E-06,-1.099149E-07,-9.994879E-09,-2.622604E-08
767.6434,-1.072996,-2.907673E-10,NaN,-0.4365832,-1.323093E-07,NaN,1.199979,-4.938731E-07,NaN,-1.111575,2.183588E-05,0.1789012,7.083663E-08,NaN,NaN,-0.04135803,-9.313277E-11,1.090118E-06,-1.099142E-07,-1.059093E-08,-2.622604E-08
767.6589,-1.072996,-2.907673E-10,NaN,-0.4365832,-1.323093E-07,NaN,1.199979,-4.938731E-07,NaN,-1.111575,2.183588E-05,0.1789012,7.083663E-08,NaN,NaN,-0.04135803,-9.313277E-11,1.090118E-06,-1.099142E-07,-1.059093E-08,-2.622604E-08
767.6741,-1.075286,-2.900963E-10,NaN,-0.4373737,-1.323093E-07,NaN,1.200147,-4.930081E-07,NaN,-1.115715,2.183628E-05,0.176594,6.997293E-08,NaN,NaN,-0.04165888,-9.778939E-11,1.099655E-06,-1.099135E-07,-6.865635E-09,-2.622604E-08
767.6904,-1.077613,-2.894253E-10,NaN,-0.4381754,-1.323093E-07,NaN,1.200274,-4.921401E-07,NaN,-1.119872,2.183669E-05,0.1743466,6.910636E-08,NaN,NaN,-0.04195379,-1.02446E-10,1.109191E-06,-1.099129E-07,-4.928484E-09,-2.622604E-08
767.7066,-1.080171,-2.887542E-10,NaN,-0.4390572,-1.323093E-07,NaN,1.200603,-4.912778E-07,NaN,-1.124478,2.18371E-05,0.1715009,6.824544E-08,NaN,NaN,-0.04232607,-1.071026E-10,1.123497E-06,-1.099123E-07,-5.524531E-09,-2.622604E-08
767.7219,-1.082861,-2.880832E-10,NaN,-0.439983,-1.323093E-07,NaN,1.200854,-4.904267E-07,NaN,-1.129355,2.18375E-05,0.1686981,6.73957E-08,NaN,NaN,-0.04269102,-1.164158E-10,1.13661E-06,-1.099118E-07,-5.226507E-09,-2.622604E-08
767.7393,-1.082861,-2.880832E-10,NaN,-0.439983,-1.323093E-07,NaN,1.200854,-4.904267E-07,NaN,-1.129355,2.18375E-05,0.1686981,6.73957E-08,NaN,NaN,-0.04269102,-1.164158E-10,1.13661E-06,-1.099118E-07,-5.226507E-09,-2.622604E-08
767.7528,-1.085622,-2.874122E-10,NaN,-0.4409311,-1.323094E-07,NaN,1.201044,-4.895894E-07,NaN,-1.134322,2.183791E-05,0.1659693,6.655974E-08,NaN,NaN,-0.04304876,-1.210725E-10,1.152107E-06,-1.099112E-07,-8.504763E-09,-2.622604E-08
767.7692,-1.088414,-2.867412E-10,NaN,-0.4418882,-1.323095E-07,NaN,1.201191,-4.887656E-07,NaN,-1.139293,2.183832E-05,0.1633093,6.573729E-08,NaN,NaN,-0.04339945,-1.257291E-10,1.161643E-06,-1.099107E-07,-7.908716E-09,-2.622604E-08
767.785,-1.091432,-2.860702E-10,NaN,-0.4429234,-1.323095E-07,NaN,1.201529,-4.87955E-07,NaN,-1.144701,2.183872E-05,0.160058,6.492809E-08,NaN,NaN,-0.04382639,-1.303857E-10,1.177141E-06,-1.099101E-07,-8.355751E-09,-2.622604E-08
767.8004,-1.094577,-2.853991E-10,NaN,-0.4440005,-1.323096E-07,NaN,1.201787,-4.871603E-07,NaN,-1.150366,2.183913E-05,0.1568658,6.41347E-08,NaN,NaN,-0.04424492,-1.350423E-10,1.190254E-06,-1.099096E-07,-8.504762E-09,-2.622604E-08
767.8163,-1.094577,-2.853991E-10,NaN,-0.4440005,-1.323096E-07,NaN,1.201787,-4.871603E-07,NaN,-1.150366,2.183913E-05,0.1568658,6.41347E-08,NaN,NaN,-0.04424492,-1.350423E-10,1.190254E-06,-1.099096E-07,-8.504762E-09,-2.622604E-08
767.8316,-1.097787,-2.847281E-10,NaN,-0.4450978,-1.323097E-07,NaN,1.201983,-4.863782E-07,NaN,-1.15611,2.183953E-05,0.1537557,6.335398E-08,NaN,NaN,-0.04465519,-1.396989E-10,1.202175E-06,-1.09909E-07,-9.24982E-09,-2.622604E-08
767.8478,-1.101023,-2.840571E-10,NaN,-0.4462021,-1.323098E-07,NaN,1.202135,-4.856114E-07,NaN,-1.161846,2.183994E-05,0.1507224,6.258852E-08,NaN,NaN,-0.04505739,-1.443555E-10,1.214096E-06,-1.099085E-07,-9.24982E-09,-2.622604E-08
767.864,-1.104481,-2.833861E-10,NaN,-0.4473826,-1.323098E-07,NaN,1.202467,-4.848595E-07,NaN,-1.168007,2.184034E-05,0.1471048,6.183801E-08,NaN,NaN,-0.0455348,-1.490121E-10,1.229593E-06,-1.09908E-07,-9.026303E-09,-2.622604E-08
767.8793,-1.104481,-2.833861E-10,NaN,-0.4473826,-1.323098E-07,NaN,1.202467,-4.848595E-07,NaN,-1.168007,2.184034E-05,0.1471048,6.183801E-08,NaN,NaN,-0.0455348,-1.490121E-10,1.229593E-06,-1.09908E-07,-9.026303E-09,-2.622604E-08
767.8946,-1.10806,-2.827151E-10,NaN,-0.448603,-1.323099E-07,NaN,1.202718,-4.841195E-07,NaN,-1.174415,2.184075E-05,0.1435613,6.109933E-08,NaN,NaN,-0.04600282,-1.536687E-10,1.24509E-06,-1.099074E-07,-1.006938E-08,-2.622604E-08
767.9106,-1.111698,-2.820442E-10,NaN,-0.4498417,-1.3231E-07,NaN,1.202908,-4.833939E-07,NaN,-1.180889,2.184116E-05,0.1401069,6.037508E-08,NaN,NaN,-0.04646161,-1.583253E-10,1.258203E-06,-1.099069E-07,-1.014389E-08,-2.622604E-08
