JMolnar6/NonAnthroHands_User_Study/HandsLoggerWithURDF/tempdata/files/Reachy_PID0_JointMotion_gesture_3_14.csv
Time,r_shoulder,r_shoulder_x,r_upper_arm,r_forearm,r_wrist,r_wrist2hand,
164.6978,0.04501113,-2.780158E-08,NaN,-0.3270271,-1.372686E-07,NaN,0.304542,5.794109E-08,NaN,-2.147657,5.187853E-06,-0.357973,-3.545178E-08,NaN,NaN,-0.02000668,-4.14439E-10,-1.950983E-07,-1.148043E-07,2.424352E-08,-2.622604E-08
164.7117,0.0450111,-2.780047E-08,NaN,-0.327027,-1.372694E-07,NaN,0.3044256,5.804059E-08,NaN,-2.147649,5.188556E-06,-0.3579658,-3.554888E-08,NaN,NaN,-0.02000664,-4.14439E-10,-1.941298E-07,-1.148041E-07,2.543561E-08,-2.622604E-08
164.7258,0.04501107,-2.779935E-08,NaN,-0.3270269,-1.372701E-07,NaN,0.305056,5.81383E-08,NaN,-2.147721,5.189259E-06,-0.3588653,-3.564418E-08,NaN,NaN,-0.02000932,-4.097824E-10,-2.375667E-07,-1.148039E-07,2.543561E-08,-2.622604E-08
164.7394,0.04501107,-2.779935E-08,NaN,-0.3270269,-1.372701E-07,NaN,0.305056,5.81383E-08,NaN,-2.147721,5.189259E-06,-0.3588653,-3.564418E-08,NaN,NaN,-0.02000932,-4.097824E-10,-2.375667E-07,-1.148039E-07,2.543561E-08,-2.622604E-08
164.7532,0.04501103,-2.779824E-08,NaN,-0.3270268,-1.372709E-07,NaN,0.3065204,5.823425E-08,NaN,-2.147814,5.189967E-06,-0.3596146,-3.573774E-08,NaN,NaN,-0.0200115,-4.097824E-10,-2.719138E-07,-1.148038E-07,2.78198E-08,-2.622604E-08
164.769,0.045011,-2.779712E-08,NaN,-0.3270267,-1.372716E-07,NaN,0.3084274,5.832848E-08,NaN,-2.147897,5.19068E-06,-0.3601519,-3.582957E-08,NaN,NaN,-0.02001305,-4.14439E-10,-2.96538E-07,-1.148036E-07,2.901189E-08,-2.622604E-08
164.7831,0.04501097,-2.779601E-08,NaN,-0.3270266,-1.372723E-07,NaN,0.3105258,5.842102E-08,NaN,-2.147967,5.191387E-06,-0.3605637,-3.591972E-08,NaN,NaN,-0.02001425,-4.190956E-10,-3.152483E-07,-1.148034E-07,2.305143E-08,-2.622604E-08
164.7978,0.04501097,-2.779601E-08,NaN,-0.3270266,-1.372723E-07,NaN,0.3105258,5.842102E-08,NaN,-2.147967,5.191387E-06,-0.3605637,-3.591972E-08,NaN,NaN,-0.02001425,-4.190956E-10,-3.152483E-07,-1.148034E-07,2.305143E-08,-2.622604E-08
164.8117,0.04501095,-2.779489E-08,NaN,-0.3270265,-1.372731E-07,NaN,0.3119478,5.851191E-08,NaN,-2.147946,5.192095E-06,-0.3600036,-3.600821E-08,NaN,NaN,-0.02001253,-4.237523E-10,-2.878581E-07,-1.148032E-07,2.424352E-08,-2.622604E-08
164.8272,0.04501092,-2.779378E-08,NaN,-0.3270264,-1.372738E-07,NaN,0.3125493,5.860118E-08,NaN,-2.147895,5.192798E-06,-0.3595582,-3.609508E-08,NaN,NaN,-0.02001121,-4.237523E-10,-2.657671E-07,-1.148031E-07,2.305143E-08,-2.622604E-08
164.8417,0.04501089,-2.779266E-08,NaN,-0.3270263,-1.372746E-07,NaN,0.312697,5.868887E-08,NaN,-2.147848,5.193501E-06,-0.3593037,-3.618036E-08,NaN,NaN,-0.02001047,-4.237523E-10,-2.541442E-07,-1.148029E-07,2.305143E-08,-2.622604E-08
164.8564,0.04501089,-2.779266E-08,NaN,-0.3270263,-1.372746E-07,NaN,0.312697,5.868887E-08,NaN,-2.147848,5.193501E-06,-0.3593037,-3.618036E-08,NaN,NaN,-0.02001047,-4.237523E-10,-2.541442E-07,-1.148029E-07,2.305143E-08,-2.622604E-08
164.8702,0.04501087,-2.779155E-08,NaN,-0.3270262,-1.372753E-07,NaN,0.3118874,5.877498E-08,NaN,-2.147732,5.194208E-06,-0.3582537,-3.626408E-08,NaN,NaN,-0.02000735,-4.237523E-10,-2.059762E-07,-1.148027E-07,2.305143E-08,-2.622604E-08
164.8857,0.04501085,-2.779043E-08,NaN,-0.3270262,-1.37276E-07,NaN,0.3101518,5.885957E-08,NaN,-2.147605,5.194916E-06,-0.3574082,-3.634627E-08,NaN,NaN,-0.02000488,-4.237523E-10,-1.679782E-07,-1.148026E-07,2.78198E-08,-2.622604E-08
164.9003,0.04501083,-2.778932E-08,NaN,-0.3270261,-1.372767E-07,NaN,0.307936,5.894266E-08,NaN,-2.147495,5.195629E-06,-0.3568003,-3.642696E-08,NaN,NaN,-0.02000311,-4.284089E-10,-1.39368E-07,-1.148024E-07,2.543561E-08,-2.622604E-08
164.915,0.04501083,-2.778932E-08,NaN,-0.3270261,-1.372767E-07,NaN,0.307936,5.894266E-08,NaN,-2.147495,5.195629E-06,-0.3568003,-3.642696E-08,NaN,NaN,-0.02000311,-4.284089E-10,-1.39368E-07,-1.148024E-07,2.543561E-08,-2.622604E-08
164.9292,0.0450108,-2.77882E-08,NaN,-0.327026,-1.372775E-07,NaN,0.3055149,5.902429E-08,NaN,-2.147403,5.196341E-06,-0.3563301,-3.650619E-08,NaN,NaN,-0.02000175,-4.330655E-10,-1.173888E-07,-1.148022E-07,2.662771E-08,-2.622604E-08
164.9445,0.04501078,-2.778708E-08,NaN,-0.3270259,-1.372782E-07,NaN,0.3022771,5.910447E-08,NaN,-2.147245,5.197044E-06,-0.3550255,-3.658397E-08,NaN,NaN,-0.0199979,-4.284089E-10,-5.398432E-08,-1.148021E-07,2.424352E-08,-2.622604E-08
164.959,0.04501078,-2.778708E-08,NaN,-0.3270259,-1.372782E-07,NaN,0.3022771,5.910447E-08,NaN,-2.147245,5.197044E-06,-0.3550255,-3.658397E-08,NaN,NaN,-0.0199979,-4.284089E-10,-5.398432E-08,-1.148021E-07,2.424352E-08,-2.622604E-08
164.973,0.04501076,-2.778596E-08,NaN,-0.3270258,-1.372789E-07,NaN,0.2981951,5.918324E-08,NaN,-2.147079,5.197757E-06,-0.3539114,-3.666034E-08,NaN,NaN,-0.01999466,-4.330655E-10,-2.277286E-09,-1.148019E-07,2.305143E-08,-2.622604E-08
164.9897,0.04501074,-2.778485E-08,NaN,-0.3270257,-1.372796E-07,NaN,0.293687,5.926063E-08,NaN,-2.14693,5.198469E-06,-0.3530339,-3.673533E-08,NaN,NaN,-0.01999212,-4.377221E-10,3.937146E-08,-1.148017E-07,2.185933E-08,-2.622604E-08
165.0039,0.04501072,-2.778373E-08,NaN,-0.3270256,-1.372803E-07,NaN,0.2890152,5.933666E-08,NaN,-2.1468,5.199182E-06,-0.3522995,-3.680897E-08,NaN,NaN,-0.01999,-4.423787E-10,7.312259E-08,-1.148016E-07,2.424352E-08,-2.622604E-08
165.0176,0.04501072,-2.778373E-08,NaN,-0.3270256,-1.372803E-07,NaN,0.2890152,5.933666E-08,NaN,-2.1468,5.199182E-06,-0.3522995,-3.680897E-08,NaN,NaN,-0.01999,-4.423787E-10,7.312259E-08,-1.148016E-07,2.424352E-08,-2.622604E-08
165.0316,0.0450107,-2.778261E-08,NaN,-0.3270255,-1.37281E-07,NaN,0.2835605,5.941137E-08,NaN,-2.146605,5.19989E-06,-0.3507384,-3.688127E-08,NaN,NaN,-0.01998543,-4.470353E-10,1.479264E-07,-1.148014E-07,2.424352E-08,-2.622604E-08
165.0472,0.04501068,-2.778149E-08,NaN,-0.3270254,-1.372818E-07,NaN,0.2772935,5.948406E-08,NaN,-2.146405,5.200597E-06,-0.349378,-3.695157E-08,NaN,NaN,-0.0199815,-4.516919E-10,2.120014E-07,-1.148013E-07,2.305143E-08,-2.622604E-08
165.0614,0.04501066,-2.778038E-08,NaN,-0.3270254,-1.372825E-07,NaN,0.2706317,5.955549E-08,NaN,-2.146222,5.2013E-06,-0.3482639,-3.70206E-08,NaN,NaN,-0.0199783,-4.516919E-10,2.626653E-07,-1.148011E-07,2.305143E-08,-2.622604E-08
165.0761,0.04501066,-2.778038E-08,NaN,-0.3270254,-1.372825E-07,NaN,0.2706317,5.955549E-08,NaN,-2.146222,5.2013E-06,-0.3482639,-3.70206E-08,NaN,NaN,-0.0199783,-4.516919E-10,2.626653E-07,-1.148011E-07,2.305143E-08,-2.622604E-08
165.0898,0.04501064,-2.777926E-08,NaN,-0.3270253,-1.372832E-07,NaN,0.2630878,5.962567E-08,NaN,-2.145982,5.202003E-06,-0.3463951,-3.708839E-08,NaN,NaN,-0.01997288,-4.516919E-10,3.508802E-07,-1.148009E-07,2.424352E-08,-2.622604E-08
165.1052,0.04501063,-2.777814E-08,NaN,-0.3270252,-1.372839E-07,NaN,0.2547033,5.969464E-08,NaN,-2.145741,5.202706E-06,-0.344769,-3.715496E-08,NaN,NaN,-0.01996822,-4.516919E-10,4.262801E-07,-1.148008E-07,2.185933E-08,-2.622604E-08
165.1198,0.04501063,-2.777814E-08,NaN,-0.3270252,-1.372839E-07,NaN,0.2547033,5.969464E-08,NaN,-2.145741,5.202706E-06,-0.344769,-3.715496E-08,NaN,NaN,-0.01996822,-4.516919E-10,4.262801E-07,-1.148008E-07,2.185933E-08,-2.622604E-08
165.1338,0.04501061,-2.777702E-08,NaN,-0.3270251,-1.372846E-07,NaN,0.2459287,5.976241E-08,NaN,-2.145524,5.203409E-06,-0.3434134,-3.722034E-08,NaN,NaN,-0.01996436,-4.516919E-10,4.88716E-07,-1.148006E-07,2.305143E-08,-2.622604E-08
165.1495,0.04501059,-2.77759E-08,NaN,-0.327025,-1.372853E-07,NaN,0.2370402,5.994674E-08,NaN,-2.145329,5.204108E-06,-0.3422258,-3.740228E-08,NaN,NaN,-0.01996098,-4.516919E-10,5.441483E-07,-1.148005E-07,2.662771E-08,-2.861022E-08
165.164,0.04501058,-2.777479E-08,NaN,-0.3270249,-1.37286E-07,NaN,0.2274193,6.01276E-08,NaN,-2.145075,5.204802E-06,-0.3402317,-3.758074E-08,NaN,NaN,-0.01995526,-4.516919E-10,6.395157E-07,-1.148003E-07,2.543561E-08,-2.622604E-08
165.1788,0.04501058,-2.777479E-08,NaN,-0.3270249,-1.37286E-07,NaN,0.2274193,6.01276E-08,NaN,-2.145075,5.204802E-06,-0.3402317,-3.758074E-08,NaN,NaN,-0.01995526,-4.516919E-10,6.395157E-07,-1.148003E-07,2.543561E-08,-2.622604E-08
165.1926,0.04501056,-2.777367E-08,NaN,-0.3270248,-1.372867E-07,NaN,0.2170408,6.030505E-08,NaN,-2.14482,5.205491E-06,-0.3384601,-3.775579E-08,NaN,NaN,-0.01995024,-4.516919E-10,7.219192E-07,-1.148002E-07,2.662771E-08,-2.861022E-08
165.2083,0.04501055,-2.777255E-08,NaN,-0.3270247,-1.372874E-07,NaN,0.2063246,6.047915E-08,NaN,-2.144587,5.206176E-06,-0.3369534,-3.79275E-08,NaN,NaN,-0.01994599,-4.516919E-10,7.952328E-07,-1.148E-07,2.305143E-08,-2.622604E-08
165.2226,0.04501053,-2.777143E-08,NaN,-0.3270246,-1.372881E-07,NaN,0.1955324,6.064998E-08,NaN,-2.144376,5.206851E-06,-0.335616,-3.809593E-08,NaN,NaN,-0.01994223,-4.423787E-10,8.572217E-07,-1.147998E-07,2.185933E-08,-2.861022E-08
165.2375,0.04501053,-2.777143E-08,NaN,-0.3270246,-1.372881E-07,NaN,0.1955324,6.064998E-08,NaN,-2.144376,5.206851E-06,-0.335616,-3.809593E-08,NaN,NaN,-0.01994223,-4.423787E-10,8.572217E-07,-1.147998E-07,2.185933E-08,-2.861022E-08
165.2513,0.04501052,-2.777031E-08,NaN,-0.3270245,-1.372888E-07,NaN,0.1840367,6.08176E-08,NaN,-2.144106,5.207535E-06,-0.3334764,-3.826115E-08,NaN,NaN,-0.01993618,-4.423787E-10,9.63467E-07,-1.147997E-07,2.543561E-08,-2.622604E-08
165.2677,0.04501051,-2.776919E-08,NaN,-0.3270245,-1.372894E-07,NaN,0.1718106,6.098207E-08,NaN,-2.143838,5.20822E-06,-0.331567,-3.842323E-08,NaN,NaN,-0.01993084,-4.423787E-10,1.052278E-06,-1.147995E-07,2.066724E-08,-2.861022E-08
165.2823,0.04501049,-2.776807E-08,NaN,-0.3270244,-1.372901E-07,NaN,0.1592739,6.114345E-08,NaN,-2.143592,5.208904E-06,-0.3299292,-3.858221E-08,NaN,NaN,-0.01992629,-4.423787E-10,1.134681E-06,-1.147994E-07,1.709096E-08,-2.622604E-08
165.2961,0.04501049,-2.776807E-08,NaN,-0.3270244,-1.372901E-07,NaN,0.1592739,6.114345E-08,NaN,-2.143592,5.208904E-06,-0.3299292,-3.858221E-08,NaN,NaN,-0.01992629,-4.423787E-10,1.134681E-06,-1.147994E-07,1.709096E-08,-2.622604E-08
165.3101,0.04501048,-2.776695E-08,NaN,-0.3270243,-1.372908E-07,NaN,0.1459314,6.13018E-08,NaN,-2.143293,5.209588E-06,-0.3275588,-3.873816E-08,NaN,NaN,-0.01991967,-4.423787E-10,1.24793E-06,-1.147992E-07,1.828306E-08,-2.861022E-08
165.3253,0.04501047,-2.776583E-08,NaN,-0.3270242,-1.372915E-07,NaN,0.1318269,6.145718E-08,NaN,-2.143001,5.210273E-06,-0.3254586,-3.889116E-08,NaN,NaN,-0.01991387,-4.423787E-10,1.350003E-06,-1.147991E-07,8.746312E-09,-2.622604E-08
165.3398,0.04501047,-2.776583E-08,NaN,-0.3270242,-1.372915E-07,NaN,0.1318269,6.145718E-08,NaN,-2.143001,5.210273E-06,-0.3254586,-3.889116E-08,NaN,NaN,-0.01991387,-4.423787E-10,1.350003E-06,-1.147991E-07,8.746312E-09,-2.622604E-08
165.3536,0.04501046,-2.776471E-08,NaN,-0.3270241,-1.372922E-07,NaN,0.117414,6.160965E-08,NaN,-2.142735,5.210957E-06,-0.3236519,-3.904124E-08,NaN,NaN,-0.01990892,-4.423787E-10,1.438367E-06,-1.147989E-07,7.554219E-09,-2.861022E-08
165.3689,0.04501044,-2.776359E-08,NaN,-0.327024,-1.372928E-07,NaN,0.1029676,6.175928E-08,NaN,-2.142494,5.211642E-06,-0.3220345,-3.918846E-08,NaN,NaN,-0.0199045,-4.423787E-10,1.515704E-06,-1.147988E-07,7.554219E-09,-2.622604E-08
165.3835,0.04501043,-2.776247E-08,NaN,-0.3270239,-1.372935E-07,NaN,0.08786023,6.190611E-08,NaN,-2.142199,5.212326E-06,-0.3196301,-3.93329E-08,NaN,NaN,-0.01989791,-4.423787E-10,1.628953E-06,-1.147986E-07,2.785848E-09,-2.861022E-08
165.3981,0.04501043,-2.776247E-08,NaN,-0.3270239,-1.372935E-07,NaN,0.08786023,6.190611E-08,NaN,-2.142199,5.212326E-06,-0.3196301,-3.93329E-08,NaN,NaN,-0.01989791,-4.423787E-10,1.628953E-06,-1.147986E-07,2.785848E-09,-2.861022E-08
165.4122,0.04501042,-2.776136E-08,NaN,-0.3270238,-1.372942E-07,NaN,0.07206921,6.205019E-08,NaN,-2.14191,5.21301E-06,-0.3174737,-3.947459E-08,NaN,NaN,-0.01989206,-4.423787E-10,1.734602E-06,-1.147985E-07,-3.174616E-09,-2.622604E-08
165.4276,0.04501041,-2.776024E-08,NaN,-0.3270237,-1.372948E-07,NaN,0.05601794,6.219159E-08,NaN,-2.141645,5.213695E-06,-0.3156028,-3.961359E-08,NaN,NaN,-0.01988703,-4.423787E-10,1.824009E-06,-1.147984E-07,4.016625E-10,-2.861022E-08
165.4423,0.0450104,-2.775912E-08,NaN,-0.3270237,-1.372955E-07,NaN,0.03996741,6.233035E-08,NaN,-2.141403,5.214379E-06,-0.3139202,-3.974996E-08,NaN,NaN,-0.01988253,-4.423787E-10,1.904773E-06,-1.147982E-07,1.593755E-09,-2.622604E-08
165.4588,0.0450104,-2.775912E-08,NaN,-0.3270237,-1.372955E-07,NaN,0.03996741,6.233035E-08,NaN,-2.141403,5.214379E-06,-0.3139202,-3.974996E-08,NaN,NaN,-0.01988253,-4.423787E-10,1.904773E-06,-1.147982E-07,1.593755E-09,-2.622604E-08
165.4707,0.04501039,-2.7758E-08,NaN,-0.3270236,-1.372962E-07,NaN,0.02328033,6.246653E-08,NaN,-2.141109,5.215064E-06,-0.3114522,-3.988374E-08,NaN,NaN,-0.0198759,-4.423787E-10,2.023834E-06,-1.147981E-07,2.785848E-09,-2.861022E-08
165.4861,0.04501038,-2.775688E-08,NaN,-0.3270235,-1.372969E-07,NaN,0.005932905,6.260017E-08,NaN,-2.140822,5.215753E-06,-0.309238,-4.0015E-08,NaN,NaN,-0.01987002,-4.423787E-10,2.132612E-06,-1.147979E-07,3.977941E-09,-2.622604E-08
165.5007,0.04501037,-2.775576E-08,NaN,-0.3270234,-1.372975E-07,NaN,-0.01165125,6.273134E-08,NaN,-2.140559,5.216433E-06,-0.3073136,-4.014377E-08,NaN,NaN,-0.01986496,-4.284089E-10,2.22485E-06,-1.147978E-07,6.362127E-09,-2.861022E-08
165.5156,0.04501037,-2.775576E-08,NaN,-0.3270234,-1.372975E-07,NaN,-0.01165125,6.273134E-08,NaN,-2.140559,5.216433E-06,-0.3073136,-4.014377E-08,NaN,NaN,-0.01986496,-4.284089E-10,2.22485E-06,-1.147978E-07,6.362127E-09,-2.861022E-08
165.5296,0.04501036,-2.775464E-08,NaN,-0.3270233,-1.372982E-07,NaN,-0.02997673,6.286007E-08,NaN,-2.140249,5.217127E-06,-0.3046719,-4.02701E-08,NaN,NaN,-0.01985798,-4.284089E-10,2.354192E-06,-1.147976E-07,6.362127E-09,-2.622604E-08
165.5469,0.04501035,-2.775352E-08,NaN,-0.3270232,-1.372988E-07,NaN,-0.04899608,6.298641E-08,NaN,-2.139951,5.217807E-06,-0.3023221,-4.039405E-08,NaN,NaN,-0.01985187,-4.14439E-10,2.470421E-06,-1.147975E-07,9.938406E-09,-2.861022E-08
165.5604,0.04501034,-2.77524E-08,NaN,-0.3270231,-1.372995E-07,NaN,-0.06825243,6.311042E-08,NaN,-2.13968,5.218496E-06,-0.3002823,-4.051567E-08,NaN,NaN,-0.01984661,-4.097824E-10,2.570259E-06,-1.147974E-07,6.362127E-09,-2.622604E-08
165.5741,0.04501034,-2.77524E-08,NaN,-0.3270231,-1.372995E-07,NaN,-0.06825243,6.311042E-08,NaN,-2.13968,5.218496E-06,-0.3002823,-4.051567E-08,NaN,NaN,-0.01984661,-4.097824E-10,2.570259E-06,-1.147974E-07,6.362127E-09,-2.622604E-08
165.5879,0.04501033,-2.775128E-08,NaN,-0.327023,-1.373001E-07,NaN,-0.08747143,6.323214E-08,NaN,-2.139435,5.21919E-06,-0.2984466,-4.063498E-08,NaN,NaN,-0.01984191,-4.051258E-10,2.663838E-06,-1.147972E-07,7.554219E-09,-2.861022E-08
165.6032,0.04501032,-2.775016E-08,NaN,-0.3270229,-1.373008E-07,NaN,-0.1072911,6.33516E-08,NaN,-2.139141,5.219888E-06,-0.295837,-4.075205E-08,NaN,NaN,-0.0198352,-4.051258E-10,2.789604E-06,-1.147971E-07,1.709096E-08,-2.622604E-08
165.6177,0.04501032,-2.775016E-08,NaN,-0.3270229,-1.373008E-07,NaN,-0.1072911,6.33516E-08,NaN,-2.139141,5.219888E-06,-0.295837,-4.075205E-08,NaN,NaN,-0.0198352,-4.051258E-10,2.789604E-06,-1.147971E-07,1.709096E-08,-2.622604E-08
165.6315,0.04501032,-2.774905E-08,NaN,-0.3270229,-1.373014E-07,NaN,-0.1277303,6.346886E-08,NaN,-2.138857,5.220582E-06,-0.2934955,-4.086692E-08,NaN,NaN,-0.01982927,-4.004692E-10,2.905535E-06,-1.147969E-07,1.589887E-08,-2.861022E-08
165.6469,0.04501031,-2.774793E-08,NaN,-0.3270228,-1.373021E-07,NaN,-0.1483621,6.358396E-08,NaN,-2.138599,5.221281E-06,-0.2914542,-4.097963E-08,NaN,NaN,-0.01982415,-4.004692E-10,3.008055E-06,-1.147968E-07,1.11305E-08,-2.622604E-08
165.6614,0.0450103,-2.774681E-08,NaN,-0.3270227,-1.373027E-07,NaN,-0.1689258,6.369695E-08,NaN,-2.138365,5.221975E-06,-0.2896142,-4.109022E-08,NaN,NaN,-0.01981959,-3.958126E-10,3.100741E-06,-1.147967E-07,1.589887E-08,-2.861022E-08
165.6761,0.0450103,-2.774681E-08,NaN,-0.3270227,-1.373027E-07,NaN,-0.1689258,6.369695E-08,NaN,-2.138365,5.221975E-06,-0.2896142,-4.109022E-08,NaN,NaN,-0.01981959,-3.958126E-10,3.100741E-06,-1.147967E-07,1.589887E-08,-2.861022E-08
165.6899,0.04501029,-2.774569E-08,NaN,-0.3270226,-1.373033E-07,NaN,-0.1892984,6.380787E-08,NaN,-2.138151,5.222673E-06,-0.2879103,-4.119873E-08,NaN,NaN,-0.0198154,-3.958126E-10,3.189552E-06,-1.147965E-07,1.589887E-08,-2.622604E-08
165.7052,0.04501028,-2.774457E-08,NaN,-0.3270225,-1.37304E-07,NaN,-0.2094267,6.391674E-08,NaN,-2.137954,5.223367E-06,-0.2863106,-4.130521E-08,NaN,NaN,-0.01981151,-3.91156E-10,3.267038E-06,-1.147964E-07,1.351468E-08,-2.861022E-08
165.7198,0.04501028,-2.774457E-08,NaN,-0.3270225,-1.37304E-07,NaN,-0.2094267,6.391674E-08,NaN,-2.137954,5.223367E-06,-0.2863106,-4.130521E-08,NaN,NaN,-0.01981151,-3.91156E-10,3.267038E-06,-1.147964E-07,1.351468E-08,-2.861022E-08
165.7341,0.04501026,-2.774345E-08,NaN,-0.3270224,-1.373046E-07,NaN,-0.2292894,6.402362E-08,NaN,-2.13777,5.224066E-06,-0.284799,-4.14097E-08,NaN,NaN,-0.01980785,-3.91156E-10,3.341692E-06,-1.147963E-07,9.938404E-09,-2.622604E-08
165.7495,0.04501025,-2.774233E-08,NaN,-0.3270223,-1.373053E-07,NaN,-0.2488796,6.412855E-08,NaN,-2.137599,5.22476E-06,-0.2833673,-4.151223E-08,NaN,NaN,-0.01980442,-3.864994E-10,3.415751E-06,-1.147961E-07,8.746311E-09,-2.861022E-08
165.7643,0.04501024,-2.774121E-08,NaN,-0.3270222,-1.373059E-07,NaN,-0.2681963,6.423156E-08,NaN,-2.137439,5.225454E-06,-0.2820107,-4.161284E-08,NaN,NaN,-0.0198012,-3.818428E-10,3.484296E-06,-1.14796E-07,9.938404E-09,-2.622604E-08
165.779,0.04501024,-2.774121E-08,NaN,-0.3270222,-1.373059E-07,NaN,-0.2681963,6.423156E-08,NaN,-2.137439,5.225454E-06,-0.2820107,-4.161284E-08,NaN,NaN,-0.0198012,-3.818428E-10,3.484296E-06,-1.14796E-07,9.938404E-09,-2.622604E-08
165.7929,0.04501023,-2.774009E-08,NaN,-0.3270221,-1.373065E-07,NaN,-0.2872412,6.433268E-08,NaN,-2.13729,5.226148E-06,-0.2807259,-4.171157E-08,NaN,NaN,-0.01979818,-3.771862E-10,3.551948E-06,-1.147959E-07,3.97794E-09,-2.861022E-08
165.8086,0.04501022,-2.773896E-08,NaN,-0.327022,-1.373071E-07,NaN,-0.3060171,6.443196E-08,NaN,-2.137151,5.226841E-06,-0.2795104,-4.180845E-08,NaN,NaN,-0.01979535,-3.725296E-10,3.61349E-06,-1.147957E-07,3.97794E-09,-2.622604E-08
165.823,0.04501021,-2.773784E-08,NaN,-0.327022,-1.373078E-07,NaN,-0.3245271,6.452943E-08,NaN,-2.137022,5.227535E-06,-0.2783619,-4.190353E-08,NaN,NaN,-0.01979271,-3.67873E-10,3.672796E-06,-1.147956E-07,7.554219E-09,-2.861022E-08
165.8386,0.04501021,-2.773784E-08,NaN,-0.327022,-1.373078E-07,NaN,-0.3245271,6.452943E-08,NaN,-2.137022,5.227535E-06,-0.2783619,-4.190353E-08,NaN,NaN,-0.01979271,-3.67873E-10,3.672796E-06,-1.147956E-07,7.554219E-09,-2.861022E-08
165.8526,0.0450102,-2.773672E-08,NaN,-0.3270219,-1.373084E-07,NaN,-0.3427745,6.462513E-08,NaN,-2.136903,5.228234E-06,-0.2772783,-4.199684E-08,NaN,NaN,-0.01979024,-3.67873E-10,3.726738E-06,-1.147955E-07,8.746311E-09,-2.622604E-08
165.867,0.04501019,-2.77356E-08,NaN,-0.3270218,-1.37309E-07,NaN,-0.3607629,6.47191E-08,NaN,-2.136792,5.228932E-06,-0.2762577,-4.208841E-08,NaN,NaN,-0.01978793,-3.632163E-10,3.778594E-06,-1.147954E-07,8.746311E-09,-2.861022E-08
165.8817,0.04501018,-2.773448E-08,NaN,-0.3270217,-1.373096E-07,NaN,-0.3784955,6.481136E-08,NaN,-2.136691,5.229635E-06,-0.2752982,-4.217828E-08,NaN,NaN,-0.01978579,-3.632163E-10,3.827172E-06,-1.147952E-07,1.11305E-08,-2.622604E-08
165.8963,0.04501018,-2.773448E-08,NaN,-0.3270217,-1.373096E-07,NaN,-0.3784955,6.481136E-08,NaN,-2.136691,5.229635E-06,-0.2752982,-4.217828E-08,NaN,NaN,-0.01978579,-3.632163E-10,3.827172E-06,-1.147952E-07,1.11305E-08,-2.622604E-08
165.9102,0.04501016,-2.773336E-08,NaN,-0.3270216,-1.373103E-07,NaN,-0.3959759,6.490193E-08,NaN,-2.136598,5.230329E-06,-0.2743979,-4.226646E-08,NaN,NaN,-0.0197838,-3.539031E-10,3.876793E-06,-1.147951E-07,1.232259E-08,-2.861022E-08
165.927,0.04501015,-2.773224E-08,NaN,-0.3270215,-1.373109E-07,NaN,-0.4132072,6.499087E-08,NaN,-2.136513,5.231037E-06,-0.2735549,-4.235301E-08,NaN,NaN,-0.01978196,-3.585597E-10,3.921496E-06,-1.14795E-07,1.470678E-08,-2.622604E-08
165.9402,0.04501013,-2.773112E-08,NaN,-0.3270214,-1.373115E-07,NaN,-0.430193,6.50782E-08,NaN,-2.136436,5.23174E-06,-0.2727676,-4.243795E-08,NaN,NaN,-0.01978027,-3.585597E-10,3.964411E-06,-1.147948E-07,1.351468E-08,-2.861022E-08
165.9545,0.04501013,-2.773112E-08,NaN,-0.3270214,-1.373115E-07,NaN,-0.430193,6.50782E-08,NaN,-2.136436,5.23174E-06,-0.2727676,-4.243795E-08,NaN,NaN,-0.01978027,-3.585597E-10,3.964411E-06,-1.147948E-07,1.351468E-08,-2.861022E-08
165.9688,0.04501012,-2.773E-08,NaN,-0.3270213,-1.373121E-07,NaN,-0.4469364,6.516397E-08,NaN,-2.136367,5.232443E-06,-0.2720343,-4.252132E-08,NaN,NaN,-0.01977871,-3.585597E-10,4.005986E-06,-1.147947E-07,8.746312E-09,-2.622604E-08
165.984,0.0450101,-2.772888E-08,NaN,-0.3270212,-1.373127E-07,NaN,-0.4634407,6.524819E-08,NaN,-2.136306,5.233137E-06,-0.2713532,-4.260315E-08,NaN,NaN,-0.01977728,-3.492465E-10,4.043239E-06,-1.147946E-07,1.11305E-08,-2.861022E-08
165.999,0.0450101,-2.772888E-08,NaN,-0.3270212,-1.373127E-07,NaN,-0.4634407,6.524819E-08,NaN,-2.136306,5.233137E-06,-0.2713532,-4.260315E-08,NaN,NaN,-0.01977728,-3.492465E-10,4.043239E-06,-1.147946E-07,1.11305E-08,-2.861022E-08
166.0127,0.04501009,-2.772776E-08,NaN,-0.3270212,-1.373133E-07,NaN,-0.4797092,6.533089E-08,NaN,-2.136251,5.23384E-06,-0.2707229,-4.268346E-08,NaN,NaN,-0.01977599,-3.492465E-10,4.078704E-06,-1.147945E-07,1.351468E-08,-2.622604E-08
166.0281,0.04501007,-2.772663E-08,NaN,-0.3270211,-1.373139E-07,NaN,-0.4957449,6.541212E-08,NaN,-2.136204,5.234543E-06,-0.2701416,-4.27623E-08,NaN,NaN,-0.01977481,-3.492465E-10,4.111486E-06,-1.147944E-07,8.746311E-09,-2.861022E-08
166.0429,0.04501006,-2.772551E-08,NaN,-0.327021,-1.373145E-07,NaN,-0.5115512,6.54919E-08,NaN,-2.136164,5.235246E-06,-0.2696079,-4.283968E-08,NaN,NaN,-0.01977376,-3.492465E-10,4.137712E-06,-1.147942E-07,6.362125E-09,-2.622604E-08
166.0576,0.04501006,-2.772551E-08,NaN,-0.327021,-1.373145E-07,NaN,-0.5115512,6.54919E-08,NaN,-2.136164,5.235246E-06,-0.2696079,-4.283968E-08,NaN,NaN,-0.01977376,-3.492465E-10,4.137712E-06,-1.147942E-07,6.362125E-09,-2.622604E-08
166.0714,0.04501005,-2.772439E-08,NaN,-0.3270209,-1.373151E-07,NaN,-0.527131,6.557025E-08,NaN,-2.13613,5.23594E-06,-0.2691203,-4.291564E-08,NaN,NaN,-0.01977281,-3.399333E-10,4.165578E-06,-1.147941E-07,1.11305E-08,-2.861022E-08
166.0867,0.04501003,-2.772327E-08,NaN,-0.3270208,-1.373157E-07,NaN,-0.5424875,6.56472E-08,NaN,-2.136103,5.236643E-06,-0.2686773,-4.29902E-08,NaN,NaN,-0.01977198,-3.399333E-10,4.190016E-06,-1.14794E-07,8.746312E-09,-2.622604E-08
166.1012,0.04501002,-2.772214E-08,NaN,-0.3270207,-1.373163E-07,NaN,-0.5576237,6.572279E-08,NaN,-2.136081,5.237337E-06,-0.2682775,-4.306339E-08,NaN,NaN,-0.01977125,-3.306201E-10,4.213858E-06,-1.147939E-07,1.593755E-09,-2.861022E-08
166.1169,0.04501002,-2.772214E-08,NaN,-0.3270207,-1.373163E-07,NaN,-0.5576237,6.572279E-08,NaN,-2.136081,5.237337E-06,-0.2682775,-4.306339E-08,NaN,NaN,-0.01977125,-3.306201E-10,4.213858E-06,-1.147939E-07,1.593755E-09,-2.861022E-08
166.1309,0.04501,-2.772102E-08,NaN,-0.3270206,-1.373169E-07,NaN,-0.5725426,6.579703E-08,NaN,-2.136066,5.238045E-06,-0.2679195,-4.313524E-08,NaN,NaN,-0.01977063,-3.352767E-10,4.23755E-06,-1.147937E-07,3.977941E-09,-2.622604E-08
166.1452,0.04500999,-2.77199E-08,NaN,-0.3270205,-1.373175E-07,NaN,-0.5872472,6.586925E-08,NaN,-2.136057,5.238739E-06,-0.267602,-4.320507E-08,NaN,NaN,-0.01977009,-3.259635E-10,4.256922E-06,-1.147936E-07,3.977941E-09,-2.861022E-08
166.1599,0.04500999,-2.77199E-08,NaN,-0.3270205,-1.373175E-07,NaN,-0.5872472,6.586925E-08,NaN,-2.136057,5.238739E-06,-0.267602,-4.320507E-08,NaN,NaN,-0.01977009,-3.259635E-10,4.256922E-06,-1.147936E-07,3.977941E-09,-2.861022E-08
166.1737,0.04500997,-2.771877E-08,NaN,-0.3270204,-1.373181E-07,NaN,-0.6017404,6.59402E-08,NaN,-2.136053,5.239442E-06,-0.2673236,-4.327362E-08,NaN,NaN,-0.01976965,-3.259635E-10,4.274952E-06,-1.147935E-07,3.977941E-09,-2.622604E-08
166.1889,0.04500996,-2.771765E-08,NaN,-0.3270203,-1.373187E-07,NaN,-0.6160251,6.60099E-08,NaN,-2.136055,5.240136E-06,-0.2670832,-4.334092E-08,NaN,NaN,-0.0197693,-3.166503E-10,4.291045E-06,-1.147934E-07,1.593755E-09,-2.861022E-08
166.2034,0.04500994,-2.771653E-08,NaN,-0.3270203,-1.373193E-07,NaN,-0.6301043,6.607836E-08,NaN,-2.136062,5.240839E-06,-0.2668794,-4.340699E-08,NaN,NaN,-0.01976904,-3.166503E-10,4.304307E-06,-1.147933E-07,6.362126E-09,-2.622604E-08
166.218,0.04500994,-2.771653E-08,NaN,-0.3270203,-1.373193E-07,NaN,-0.6301043,6.607836E-08,NaN,-2.136062,5.240839E-06,-0.2668794,-4.340699E-08,NaN,NaN,-0.01976904,-3.166503E-10,4.304307E-06,-1.147933E-07,6.362126E-09,-2.622604E-08
166.2319,0.04500993,-2.771541E-08,NaN,-0.3270202,-1.373199E-07,NaN,-0.6439807,6.614563E-08,NaN,-2.136074,5.241537E-06,-0.2667111,-4.347186E-08,NaN,NaN,-0.01976886,-3.119937E-10,4.316526E-06,-1.147932E-07,6.362126E-09,-2.861022E-08
166.2472,0.04500991,-2.771428E-08,NaN,-0.3270201,-1.373204E-07,NaN,-0.6576571,6.621172E-08,NaN,-2.13609,5.242245E-06,-0.266577,-4.353555E-08,NaN,NaN,-0.01976876,-3.166503E-10,4.326063E-06,-1.14793E-07,1.11305E-08,-2.622604E-08
166.2618,0.0450099,-2.771316E-08,NaN,-0.32702,-1.37321E-07,NaN,-0.6711363,6.627665E-08,NaN,-2.136112,5.242943E-06,-0.266476,-4.359809E-08,NaN,NaN,-0.01976873,-3.119937E-10,4.33262E-06,-1.147929E-07,1.828306E-08,-2.861022E-08
166.2766,0.0450099,-2.771316E-08,NaN,-0.32702,-1.37321E-07,NaN,-0.6711363,6.627665E-08,NaN,-2.136112,5.242943E-06,-0.266476,-4.359809E-08,NaN,NaN,-0.01976873,-3.119937E-10,4.33262E-06,-1.147929E-07,1.828306E-08,-2.861022E-08
166.2904,0.04500988,-2.771204E-08,NaN,-0.3270199,-1.373216E-07,NaN,-0.684421,6.634045E-08,NaN,-2.136138,5.243642E-06,-0.2664071,-4.36595E-08,NaN,NaN,-0.01976878,-3.07337E-10,4.339474E-06,-1.147928E-07,1.828306E-08,-2.622604E-08
166.306,0.04500987,-2.771091E-08,NaN,-0.3270198,-1.373222E-07,NaN,-0.6975139,6.640313E-08,NaN,-2.136168,5.24434E-06,-0.2663691,-4.371979E-08,NaN,NaN,-0.01976889,-3.026804E-10,4.343497E-06,-1.147927E-07,1.828306E-08,-2.861022E-08
166.3204,0.04500985,-2.770979E-08,NaN,-0.3270197,-1.373228E-07,NaN,-0.7104177,6.646473E-08,NaN,-2.136203,5.245048E-06,-0.2663609,-4.377899E-08,NaN,NaN,-0.01976908,-3.07337E-10,4.344541E-06,-1.147926E-07,2.066724E-08,-2.622604E-08
166.3352,0.04500985,-2.770979E-08,NaN,-0.3270197,-1.373228E-07,NaN,-0.7104177,6.646473E-08,NaN,-2.136203,5.245048E-06,-0.2663609,-4.377899E-08,NaN,NaN,-0.01976908,-3.07337E-10,4.344541E-06,-1.147926E-07,2.066724E-08,-2.622604E-08
166.3492,0.04500983,-2.770867E-08,NaN,-0.3270196,-1.373233E-07,NaN,-0.7231351,6.652526E-08,NaN,-2.136242,5.245746E-06,-0.2663816,-4.383713E-08,NaN,NaN,-0.01976933,-3.026804E-10,4.345733E-06,-1.147925E-07,1.828306E-08,-2.861022E-08
166.3647,0.04500981,-2.770754E-08,NaN,-0.3270195,-1.373239E-07,NaN,-0.7356685,6.658475E-08,NaN,-2.136284,5.246454E-06,-0.2664301,-4.389422E-08,NaN,NaN,-0.01976964,-3.07337E-10,4.345509E-06,-1.147924E-07,1.828306E-08,-2.622604E-08
166.3793,0.04500981,-2.770754E-08,NaN,-0.3270195,-1.373239E-07,NaN,-0.7356685,6.658475E-08,NaN,-2.136284,5.246454E-06,-0.2664301,-4.389422E-08,NaN,NaN,-0.01976964,-3.07337E-10,4.345509E-06,-1.147924E-07,1.828306E-08,-2.622604E-08
166.3945,0.04500979,-2.770642E-08,NaN,-0.3270195,-1.373245E-07,NaN,-0.7480206,6.66432E-08,NaN,-2.136331,5.247161E-06,-0.2665055,-4.395029E-08,NaN,NaN,-0.01977002,-3.119937E-10,4.346627E-06,-1.147923E-07,2.066724E-08,-2.861022E-08
166.41,0.04500977,-2.770529E-08,NaN,-0.3270194,-1.37325E-07,NaN,-0.7601939,6.670066E-08,NaN,-2.136381,5.24786E-06,-0.2666068,-4.400535E-08,NaN,NaN,-0.01977045,-3.07337E-10,4.34305E-06,-1.147921E-07,1.828306E-08,-2.622604E-08
166.4242,0.04500975,-2.770417E-08,NaN,-0.3270193,-1.373256E-07,NaN,-0.772191,6.675712E-08,NaN,-2.136435,5.248558E-06,-0.2667331,-4.405942E-08,NaN,NaN,-0.01977093,-3.026804E-10,4.3394E-06,-1.14792E-07,1.589887E-08,-2.861022E-08
166.4379,0.04500975,-2.770417E-08,NaN,-0.3270193,-1.373256E-07,NaN,-0.772191,6.675712E-08,NaN,-2.136435,5.248558E-06,-0.2667331,-4.405942E-08,NaN,NaN,-0.01977093,-3.026804E-10,4.3394E-06,-1.14792E-07,1.589887E-08,-2.861022E-08
166.4517,0.04500974,-2.770304E-08,NaN,-0.3270192,-1.373262E-07,NaN,-0.7840142,6.681262E-08,NaN,-2.136492,5.249257E-06,-0.2668834,-4.411253E-08,NaN,NaN,-0.01977147,-2.980238E-10,4.332322E-06,-1.147919E-07,1.11305E-08,-2.622604E-08
166.4671,0.04500972,-2.770192E-08,NaN,-0.3270191,-1.373268E-07,NaN,-0.795666,6.686717E-08,NaN,-2.136553,5.249955E-06,-0.267057,-4.416468E-08,NaN,NaN,-0.01977206,-2.933672E-10,4.326734E-06,-1.147918E-07,8.746312E-09,-2.861022E-08
166.4816,0.0450097,-2.770079E-08,NaN,-0.327019,-1.373273E-07,NaN,-0.8071489,6.692079E-08,NaN,-2.136616,5.250654E-06,-0.267253,-4.421591E-08,NaN,NaN,-0.01977269,-2.887106E-10,4.320028E-06,-1.147917E-07,1.11305E-08,-2.622604E-08
166.4963,0.0450097,-2.770079E-08,NaN,-0.327019,-1.373273E-07,NaN,-0.8071489,6.692079E-08,NaN,-2.136616,5.250654E-06,-0.267253,-4.421591E-08,NaN,NaN,-0.01977269,-2.887106E-10,4.320028E-06,-1.147917E-07,1.11305E-08,-2.622604E-08
166.5103,0.04500968,-2.769967E-08,NaN,-0.3270189,-1.373274E-07,NaN,-0.8184651,6.674784E-08,NaN,-2.136683,5.251352E-06,-0.2674705,-4.404056E-08,NaN,NaN,-0.01977338,-2.84054E-10,4.31213E-06,-1.147941E-07,8.746312E-09,-2.861022E-08
166.5257,0.04500966,-2.769855E-08,NaN,-0.3270188,-1.373279E-07,NaN,-0.8296171,6.66219E-08,NaN,-2.136753,5.252046E-06,-0.2677087,-4.391224E-08,NaN,NaN,-0.0197741,-2.793974E-10,4.302817E-06,-1.147969E-07,6.362126E-09,-2.622604E-08
166.5402,0.04500964,-2.769742E-08,NaN,-0.3270187,-1.373287E-07,NaN,-0.8406071,6.652102E-08,NaN,-2.136825,5.25274E-06,-0.2679669,-4.380896E-08,NaN,NaN,-0.01977487,-2.747408E-10,4.290449E-06,-1.147999E-07,1.11305E-08,-2.861022E-08
166.5549,0.04500964,-2.769742E-08,NaN,-0.3270187,-1.373287E-07,NaN,-0.8406071,6.652102E-08,NaN,-2.136825,5.25274E-06,-0.2679669,-4.380896E-08,NaN,NaN,-0.01977487,-2.747408E-10,4.290449E-06,-1.147999E-07,1.11305E-08,-2.861022E-08
166.569,0.04500962,-2.76963E-08,NaN,-0.3270186,-1.373297E-07,NaN,-0.8514374,6.643417E-08,NaN,-2.136901,5.25343E-06,-0.2682443,-4.371973E-08,NaN,NaN,-0.01977568,-2.654276E-10,4.279646E-06,-1.14803E-07,8.746312E-09,-2.622604E-08
166.5843,0.04500961,-2.769517E-08,NaN,-0.3270186,-1.373308E-07,NaN,-0.8621104,6.635617E-08,NaN,-2.136979,5.254124E-06,-0.2685401,-4.363934E-08,NaN,NaN,-0.01977653,-2.60771E-10,4.267427E-06,-1.148061E-07,8.746312E-09,-2.861022E-08
166.599,0.04500961,-2.769517E-08,NaN,-0.3270186,-1.373308E-07,NaN,-0.8621104,6.635617E-08,NaN,-2.136979,5.254124E-06,-0.2685401,-4.363934E-08,NaN,NaN,-0.01977653,-2.60771E-10,4.267427E-06,-1.148061E-07,8.746312E-09,-2.861022E-08
166.6131,0.04500959,-2.769405E-08,NaN,-0.3270185,-1.373319E-07,NaN,-0.8726281,6.628333E-08,NaN,-2.137059,5.254818E-06,-0.2688536,-4.356412E-08,NaN,NaN,-0.01977741,-2.561144E-10,4.254538E-06,-1.148093E-07,6.362126E-09,-2.622604E-08
166.6289,0.04500957,-2.769292E-08,NaN,-0.3270184,-1.373331E-07,NaN,-0.8829929,6.621345E-08,NaN,-2.137142,5.255507E-06,-0.2691842,-4.349187E-08,NaN,NaN,-0.01977833,-2.468011E-10,4.23986E-06,-1.148125E-07,8.746312E-09,-2.861022E-08
166.6434,0.04500955,-2.76918E-08,NaN,-0.3270183,-1.373343E-07,NaN,-0.8932068,6.614578E-08,NaN,-2.137227,5.256196E-06,-0.2695311,-4.342183E-08,NaN,NaN,-0.01977928,-2.374879E-10,4.224735E-06,-1.148157E-07,1.351468E-08,-2.622604E-08
166.6577,0.04500955,-2.76918E-08,NaN,-0.3270183,-1.373343E-07,NaN,-0.8932068,6.614578E-08,NaN,-2.137227,5.256196E-06,-0.2695311,-4.342183E-08,NaN,NaN,-0.01977928,-2.374879E-10,4.224735E-06,-1.148157E-07,1.351468E-08,-2.622604E-08
166.6738,0.04500953,-2.769067E-08,NaN,-0.3270182,-1.373355E-07,NaN,-0.903272,6.607956E-08,NaN,-2.137314,5.256886E-06,-0.2698937,-4.335324E-08,NaN,NaN,-0.01978027,-2.281747E-10,4.208791E-06,-1.148189E-07,1.589887E-08,-2.861022E-08
166.688,0.04500951,-2.768955E-08,NaN,-0.3270181,-1.373367E-07,NaN,-0.9131906,6.601408E-08,NaN,-2.137403,5.257575E-06,-0.2702714,-4.328539E-08,NaN,NaN,-0.01978128,-2.188615E-10,4.192921E-06,-1.148221E-07,1.11305E-08,-2.622604E-08
166.7017,0.04500949,-2.768843E-08,NaN,-0.327018,-1.373378E-07,NaN,-0.9229647,6.594931E-08,NaN,-2.137495,5.258265E-06,-0.2706634,-4.321825E-08,NaN,NaN,-0.01978233,-2.095482E-10,4.174667E-06,-1.148253E-07,1.351468E-08,-2.861022E-08
166.7163,0.04500949,-2.768843E-08,NaN,-0.327018,-1.373378E-07,NaN,-0.9229647,6.594931E-08,NaN,-2.137495,5.258265E-06,-0.2706634,-4.321825E-08,NaN,NaN,-0.01978233,-2.095482E-10,4.174667E-06,-1.148253E-07,1.351468E-08,-2.861022E-08
166.7303,0.04500948,-2.76873E-08,NaN,-0.3270179,-1.37339E-07,NaN,-0.9325963,6.588524E-08,NaN,-2.137589,5.258954E-06,-0.2710693,-4.315181E-08,NaN,NaN,-0.0197834,-2.00235E-10,4.157084E-06,-1.148284E-07,1.11305E-08,-2.622604E-08
166.7456,0.04500946,-2.768618E-08,NaN,-0.3270178,-1.373402E-07,NaN,-0.9420875,6.582186E-08,NaN,-2.137684,5.259643E-06,-0.2714883,-4.308607E-08,NaN,NaN,-0.0197845,-1.909218E-10,4.13801E-06,-1.148316E-07,1.11305E-08,-2.861022E-08
166.76,0.04500946,-2.768618E-08,NaN,-0.3270178,-1.373402E-07,NaN,-0.9420875,6.582186E-08,NaN,-2.137684,5.259643E-06,-0.2714883,-4.308607E-08,NaN,NaN,-0.0197845,-1.909218E-10,4.13801E-06,-1.148316E-07,1.11305E-08,-2.861022E-08
166.774,0.04500944,-2.768505E-08,NaN,-0.3270178,-1.373414E-07,NaN,-0.9514403,6.575915E-08,NaN,-2.137781,5.260333E-06,-0.27192,-4.3021E-08,NaN,NaN,-0.01978563,-1.816085E-10,4.119458E-06,-1.148347E-07,8.746314E-09,-2.622604E-08
166.7891,0.04500942,-2.768393E-08,NaN,-0.3270177,-1.373426E-07,NaN,-0.9606566,6.569569E-08,NaN,-2.13788,5.261031E-06,-0.2723638,-4.295518E-08,NaN,NaN,-0.01978678,-1.816085E-10,4.099044E-06,-1.148378E-07,1.589887E-08,-2.861022E-08
166.8036,0.0450094,-2.76828E-08,NaN,-0.3270176,-1.373438E-07,NaN,-0.9697384,6.563292E-08,NaN,-2.137981,5.261721E-06,-0.272819,-4.289003E-08,NaN,NaN,-0.01978796,-1.722953E-10,4.07997E-06,-1.14841E-07,1.589887E-08,-2.622604E-08
166.8183,0.0450094,-2.76828E-08,NaN,-0.3270176,-1.373438E-07,NaN,-0.9697384,6.563292E-08,NaN,-2.137981,5.261721E-06,-0.272819,-4.289003E-08,NaN,NaN,-0.01978796,-1.722953E-10,4.07997E-06,-1.14841E-07,1.589887E-08,-2.622604E-08
166.8323,0.04500938,-2.768168E-08,NaN,-0.3270175,-1.37345E-07,NaN,-0.9786876,6.55701E-08,NaN,-2.138083,5.262419E-06,-0.2732853,-4.282485E-08,NaN,NaN,-0.01978915,-1.722953E-10,4.05896E-06,-1.148441E-07,1.828306E-08,-2.861022E-08
166.8477,0.04500936,-2.768055E-08,NaN,-0.3270174,-1.373461E-07,NaN,-0.987506,6.550794E-08,NaN,-2.138186,5.263118E-06,-0.2737621,-4.276033E-08,NaN,NaN,-0.01979037,-1.722953E-10,4.034596E-06,-1.148472E-07,2.066724E-08,-2.622604E-08
166.8635,0.04500933,-2.767943E-08,NaN,-0.3270173,-1.373473E-07,NaN,-0.9961956,6.544644E-08,NaN,-2.138292,5.263807E-06,-0.2742489,-4.269647E-08,NaN,NaN,-0.0197916,-1.629821E-10,4.012468E-06,-1.148503E-07,2.78198E-08,-2.861022E-08
166.8771,0.04500933,-2.767943E-08,NaN,-0.3270173,-1.373473E-07,NaN,-0.9961956,6.544644E-08,NaN,-2.138292,5.263807E-06,-0.2742489,-4.269647E-08,NaN,NaN,-0.0197916,-1.629821E-10,4.012468E-06,-1.148503E-07,2.78198E-08,-2.861022E-08
166.8907,0.04500931,-2.76783E-08,NaN,-0.3270172,-1.373485E-07,NaN,-1.004758,6.538487E-08,NaN,-2.138398,5.264496E-06,-0.2747451,-4.263254E-08,NaN,NaN,-0.01979285,-1.536688E-10,3.98952E-06,-1.148533E-07,2.78198E-08,-2.622604E-08
166.9063,0.04500929,-2.767718E-08,NaN,-0.3270171,-1.373496E-07,NaN,-1.013196,6.532394E-08,NaN,-2.138506,5.265195E-06,-0.2752504,-4.256925E-08,NaN,NaN,-0.01979413,-1.536688E-10,3.966498E-06,-1.148564E-07,2.543561E-08,-2.861022E-08
166.9208,0.04500927,-2.767605E-08,NaN,-0.327017,-1.373508E-07,NaN,-1.02151,6.526293E-08,NaN,-2.138615,5.265893E-06,-0.2757643,-4.250588E-08,NaN,NaN,-0.01979541,-1.536688E-10,3.940719E-06,-1.148595E-07,2.543561E-08,-2.622604E-08
166.9356,0.04500927,-2.767605E-08,NaN,-0.327017,-1.373508E-07,NaN,-1.02151,6.526293E-08,NaN,-2.138615,5.265893E-06,-0.2757643,-4.250588E-08,NaN,NaN,-0.01979541,-1.536688E-10,3.940719E-06,-1.148595E-07,2.543561E-08,-2.622604E-08
166.9494,0.04500924,-2.767492E-08,NaN,-0.3270169,-1.37352E-07,NaN,-1.029702,6.520256E-08,NaN,-2.138725,5.266592E-06,-0.2762863,-4.244314E-08,NaN,NaN,-0.01979672,-1.536688E-10,3.916802E-06,-1.148625E-07,2.78198E-08,-2.861022E-08
166.9667,0.04500922,-2.76738E-08,NaN,-0.3270169,-1.373531E-07,NaN,-1.037775,6.51428E-08,NaN,-2.138836,5.26729E-06,-0.276816,-4.238102E-08,NaN,NaN,-0.01979804,-1.536688E-10,3.89229E-06,-1.148655E-07,3.020399E-08,-2.622604E-08
166.9803,0.0450092,-2.767267E-08,NaN,-0.3270168,-1.373543E-07,NaN,-1.045729,6.508294E-08,NaN,-2.138948,5.267989E-06,-0.277353,-4.23188E-08,NaN,NaN,-0.01979937,-1.536688E-10,3.865542E-06,-1.148686E-07,2.78198E-08,-2.861022E-08
166.9951,0.0450092,-2.767267E-08,NaN,-0.3270168,-1.373543E-07,NaN,-1.045729,6.508294E-08,NaN,-2.138948,5.267989E-06,-0.277353,-4.23188E-08,NaN,NaN,-0.01979937,-1.536688E-10,3.865542E-06,-1.148686E-07,2.78198E-08,-2.861022E-08
167.008,0.04500918,-2.767155E-08,NaN,-0.3270167,-1.373554E-07,NaN,-1.053567,6.502369E-08,NaN,-2.139062,5.268687E-06,-0.2778969,-4.22572E-08,NaN,NaN,-0.01980072,-1.536688E-10,3.839167E-06,-1.148716E-07,2.305143E-08,-2.622604E-08
167.0231,0.04500915,-2.767042E-08,NaN,-0.3270166,-1.373566E-07,NaN,-1.06129,6.496504E-08,NaN,-2.139176,5.269386E-06,-0.2784473,-4.219618E-08,NaN,NaN,-0.01980208,-1.536688E-10,3.81309E-06,-1.148746E-07,2.066724E-08,-2.861022E-08
167.0375,0.04500915,-2.767042E-08,NaN,-0.3270166,-1.373566E-07,NaN,-1.06129,6.496504E-08,NaN,-2.139176,5.269386E-06,-0.2784473,-4.219618E-08,NaN,NaN,-0.01980208,-1.536688E-10,3.81309E-06,-1.148746E-07,2.066724E-08,-2.861022E-08
167.0515,0.04500913,-2.766929E-08,NaN,-0.3270165,-1.373577E-07,NaN,-1.0689,6.490626E-08,NaN,-2.139291,5.270075E-06,-0.2790038,-4.213505E-08,NaN,NaN,-0.01980346,-1.443556E-10,3.786268E-06,-1.148776E-07,2.305143E-08,-2.622604E-08
167.0668,0.04500911,-2.766817E-08,NaN,-0.3270164,-1.373589E-07,NaN,-1.076398,6.484807E-08,NaN,-2.139407,5.270774E-06,-0.279566,-4.20745E-08,NaN,NaN,-0.01980483,-1.443556E-10,3.757807E-06,-1.148806E-07,2.305143E-08,-2.861022E-08
167.0813,0.04500909,-2.766704E-08,NaN,-0.3270163,-1.3736E-07,NaN,-1.083786,6.479046E-08,NaN,-2.139524,5.271472E-06,-0.2801335,-4.201453E-08,NaN,NaN,-0.01980623,-1.443556E-10,3.732177E-06,-1.148836E-07,2.543561E-08,-2.622604E-08
167.0959,0.04500909,-2.766704E-08,NaN,-0.3270163,-1.3736E-07,NaN,-1.083786,6.479046E-08,NaN,-2.139524,5.271472E-06,-0.2801335,-4.201453E-08,NaN,NaN,-0.01980623,-1.443556E-10,3.732177E-06,-1.148836E-07,2.543561E-08,-2.622604E-08
167.1101,0.04500907,-2.766591E-08,NaN,-0.3270162,-1.373611E-07,NaN,-1.091066,6.47327E-08,NaN,-2.139641,5.272171E-06,-0.2807061,-4.195441E-08,NaN,NaN,-0.01980763,-1.443556E-10,3.703865E-06,-1.148865E-07,2.305143E-08,-2.861022E-08
167.1254,0.04500904,-2.766479E-08,NaN,-0.3270161,-1.373622E-07,NaN,-1.098239,6.467551E-08,NaN,-2.139759,5.27286E-06,-0.2812834,-4.189486E-08,NaN,NaN,-0.01980903,-1.350424E-10,3.676148E-06,-1.148895E-07,2.305143E-08,-2.622604E-08
167.1405,0.04500902,-2.766366E-08,NaN,-0.3270161,-1.373634E-07,NaN,-1.105307,6.461817E-08,NaN,-2.139878,5.273559E-06,-0.2818651,-4.183517E-08,NaN,NaN,-0.01981045,-1.350424E-10,3.647836E-06,-1.148924E-07,2.066724E-08,-2.861022E-08
167.1544,0.04500902,-2.766366E-08,NaN,-0.3270161,-1.373634E-07,NaN,-1.105307,6.461817E-08,NaN,-2.139878,5.273559E-06,-0.2818651,-4.183517E-08,NaN,NaN,-0.01981045,-1.350424E-10,3.647836E-06,-1.148924E-07,2.066724E-08,-2.861022E-08
167.1685,0.045009,-2.766254E-08,NaN,-0.327016,-1.373645E-07,NaN,-1.112272,6.456139E-08,NaN,-2.139997,5.274257E-06,-0.2824507,-4.177603E-08,NaN,NaN,-0.01981187,-1.350424E-10,3.619971E-06,-1.148954E-07,1.589887E-08,-2.622604E-08
167.1838,0.04500898,-2.766141E-08,NaN,-0.3270159,-1.373656E-07,NaN,-1.119134,6.450516E-08,NaN,-2.140117,5.274946E-06,-0.2830401,-4.171744E-08,NaN,NaN,-0.0198133,-1.257291E-10,3.591063E-06,-1.148983E-07,1.351468E-08,-2.861022E-08
167.1988,0.04500898,-2.766141E-08,NaN,-0.3270159,-1.373656E-07,NaN,-1.119134,6.450516E-08,NaN,-2.140117,5.274946E-06,-0.2830401,-4.171744E-08,NaN,NaN,-0.0198133,-1.257291E-10,3.591063E-06,-1.148983E-07,1.351468E-08,-2.861022E-08
167.2127,0.04500895,-2.766028E-08,NaN,-0.3270158,-1.373667E-07,NaN,-1.125895,6.444876E-08,NaN,-2.140237,5.275645E-06,-0.283633,-4.165868E-08,NaN,NaN,-0.01981474,-1.257291E-10,3.562155E-06,-1.149012E-07,1.351468E-08,-2.622604E-08
167.2282,0.04500893,-2.765916E-08,NaN,-0.3270157,-1.373678E-07,NaN,-1.132557,6.439289E-08,NaN,-2.140358,5.276348E-06,-0.284229,-4.160045E-08,NaN,NaN,-0.01981619,-1.303858E-10,3.532501E-06,-1.149041E-07,1.11305E-08,-2.861022E-08
167.2427,0.04500891,-2.765803E-08,NaN,-0.3270157,-1.37369E-07,NaN,-1.139121,6.433756E-08,NaN,-2.140479,5.277042E-06,-0.2848278,-4.154277E-08,NaN,NaN,-0.01981764,-1.257291E-10,3.503295E-06,-1.14907E-07,1.589887E-08,-2.622604E-08
167.2593,0.04500891,-2.765803E-08,NaN,-0.3270157,-1.37369E-07,NaN,-1.139121,6.433756E-08,NaN,-2.140479,5.277042E-06,-0.2848278,-4.154277E-08,NaN,NaN,-0.01981764,-1.257291E-10,3.503295E-06,-1.14907E-07,1.589887E-08,-2.622604E-08
167.2731,0.04500889,-2.76569E-08,NaN,-0.3270156,-1.373701E-07,NaN,-1.145588,6.428274E-08,NaN,-2.140601,5.277736E-06,-0.2854293,-4.148559E-08,NaN,NaN,-0.01981909,-1.210725E-10,3.474387E-06,-1.149099E-07,1.351468E-08,-2.861022E-08
167.2863,0.04500886,-2.765577E-08,NaN,-0.3270155,-1.373712E-07,NaN,-1.151961,6.422773E-08,NaN,-2.140723,5.27843E-06,-0.286033,-4.142822E-08,NaN,NaN,-0.01982055,-1.164159E-10,3.446372E-06,-1.149128E-07,1.828306E-08,-2.622604E-08
167.3009,0.04500884,-2.765465E-08,NaN,-0.3270155,-1.373723E-07,NaN,-1.15824,6.417323E-08,NaN,-2.140845,5.279124E-06,-0.2866389,-4.137137E-08,NaN,NaN,-0.01982202,-1.117593E-10,3.417911E-06,-1.149156E-07,1.589887E-08,-2.861022E-08
167.3154,0.04500884,-2.765465E-08,NaN,-0.3270155,-1.373723E-07,NaN,-1.15824,6.417323E-08,NaN,-2.140845,5.279124E-06,-0.2866389,-4.137137E-08,NaN,NaN,-0.01982202,-1.117593E-10,3.417911E-06,-1.149156E-07,1.589887E-08,-2.861022E-08
167.3306,0.04500882,-2.765352E-08,NaN,-0.3270154,-1.373734E-07,NaN,-1.164426,6.411923E-08,NaN,-2.140967,5.279818E-06,-0.2872466,-4.131501E-08,NaN,NaN,-0.01982348,-1.071027E-10,3.38796E-06,-1.149185E-07,2.066724E-08,-2.622604E-08
167.3446,0.0450088,-2.765239E-08,NaN,-0.3270154,-1.373745E-07,NaN,-1.170521,6.406501E-08,NaN,-2.14109,5.280521E-06,-0.2878558,-4.125844E-08,NaN,NaN,-0.01982495,-1.117593E-10,3.357263E-06,-1.149213E-07,1.828306E-08,-2.861022E-08
167.3592,0.0450088,-2.765239E-08,NaN,-0.3270154,-1.373745E-07,NaN,-1.170521,6.406501E-08,NaN,-2.14109,5.280521E-06,-0.2878558,-4.125844E-08,NaN,NaN,-0.01982495,-1.117593E-10,3.357263E-06,-1.149213E-07,1.828306E-08,-2.861022E-08
167.3729,0.04500877,-2.765126E-08,NaN,-0.3270153,-1.373756E-07,NaN,-1.176527,6.40113E-08,NaN,-2.141213,5.281215E-06,-0.2884664,-4.120237E-08,NaN,NaN,-0.01982642,-1.071027E-10,3.328653E-06,-1.149242E-07,2.066724E-08,-2.622604E-08
167.3882,0.04500875,-2.765013E-08,NaN,-0.3270153,-1.373767E-07,NaN,-1.182445,6.395807E-08,NaN,-2.141336,5.281918E-06,-0.2890782,-4.114678E-08,NaN,NaN,-0.01982789,-1.117593E-10,3.299596E-06,-1.14927E-07,2.066724E-08,-2.861022E-08
167.4026,0.04500873,-2.764901E-08,NaN,-0.3270152,-1.373777E-07,NaN,-1.188275,6.390461E-08,NaN,-2.141459,5.282612E-06,-0.2896908,-4.109097E-08,NaN,NaN,-0.01982936,-1.071027E-10,3.269794E-06,-1.149298E-07,2.066724E-08,-2.622604E-08
167.4174,0.04500873,-2.764901E-08,NaN,-0.3270152,-1.373777E-07,NaN,-1.188275,6.390461E-08,NaN,-2.141459,5.282612E-06,-0.2896908,-4.109097E-08,NaN,NaN,-0.01982936,-1.071027E-10,3.269794E-06,-1.149298E-07,2.066724E-08,-2.622604E-08
167.4315,0.04500871,-2.764788E-08,NaN,-0.3270151,-1.373788E-07,NaN,-1.194019,6.385093E-08,NaN,-2.141583,5.283315E-06,-0.2903042,-4.103493E-08,NaN,NaN,-0.01983084,-1.117593E-10,3.240737E-06,-1.149326E-07,2.066724E-08,-2.861022E-08
167.4469,0.04500869,-2.764675E-08,NaN,-0.3270151,-1.373799E-07,NaN,-1.199679,6.379773E-08,NaN,-2.141706,5.284009E-06,-0.2909181,-4.097938E-08,NaN,NaN,-0.01983231,-1.071027E-10,3.210189E-06,-1.149354E-07,2.066724E-08,-2.622604E-08
167.4614,0.04500866,-2.764562E-08,NaN,-0.327015,-1.37381E-07,NaN,-1.205255,6.374501E-08,NaN,-2.14183,5.284712E-06,-0.2915322,-4.092431E-08,NaN,NaN,-0.01983378,-1.117593E-10,3.17994E-06,-1.149382E-07,2.066724E-08,-2.861022E-08
167.4762,0.04500866,-2.764562E-08,NaN,-0.327015,-1.37381E-07,NaN,-1.205255,6.374501E-08,NaN,-2.14183,5.284712E-06,-0.2915322,-4.092431E-08,NaN,NaN,-0.01983378,-1.117593E-10,3.17994E-06,-1.149382E-07,2.066724E-08,-2.861022E-08
167.4899,0.04500864,-2.764449E-08,NaN,-0.327015,-1.373821E-07,NaN,-1.21075,6.369205E-08,NaN,-2.141953,5.285406E-06,-0.2921465,-4.086899E-08,NaN,NaN,-0.01983526,-1.071027E-10,3.150733E-06,-1.14941E-07,2.305143E-08,-2.622604E-08
167.5054,0.04500862,-2.764337E-08,NaN,-0.3270149,-1.373831E-07,NaN,-1.216163,6.363956E-08,NaN,-2.142077,5.286109E-06,-0.2927607,-4.081415E-08,NaN,NaN,-0.01983673,-1.117593E-10,3.121229E-06,-1.149437E-07,2.305143E-08,-2.861022E-08
167.5199,0.04500862,-2.764337E-08,NaN,-0.3270149,-1.373831E-07,NaN,-1.216163,6.363956E-08,NaN,-2.142077,5.286109E-06,-0.2927607,-4.081415E-08,NaN,NaN,-0.01983673,-1.117593E-10,3.121229E-06,-1.149437E-07,2.305143E-08,-2.861022E-08
167.5341,0.0450086,-2.764224E-08,NaN,-0.3270148,-1.373842E-07,NaN,-1.221496,6.358754E-08,NaN,-2.1422,5.286803E-06,-0.2933747,-4.075978E-08,NaN,NaN,-0.01983819,-1.071027E-10,3.090533E-06,-1.149465E-07,2.543561E-08,-2.622604E-08
167.549,0.04500857,-2.764111E-08,NaN,-0.3270148,-1.373853E-07,NaN,-1.226751,6.353596E-08,NaN,-2.142323,5.287501E-06,-0.2939883,-4.070585E-08,NaN,NaN,-0.01983966,-1.071027E-10,3.061476E-06,-1.149492E-07,2.543561E-08,-2.861022E-08
167.5647,0.04500855,-2.763998E-08,NaN,-0.3270147,-1.373863E-07,NaN,-1.231928,6.348413E-08,NaN,-2.142447,5.2882E-06,-0.2946014,-4.065166E-08,NaN,NaN,-0.01984113,-1.071027E-10,3.030034E-06,-1.14952E-07,2.78198E-08,-2.622604E-08
167.5786,0.04500855,-2.763998E-08,NaN,-0.3270147,-1.373863E-07,NaN,-1.231928,6.348413E-08,NaN,-2.142447,5.2882E-06,-0.2946014,-4.065166E-08,NaN,NaN,-0.01984113,-1.071027E-10,3.030034E-06,-1.14952E-07,2.78198E-08,-2.622604E-08
167.5934,0.04500853,-2.763885E-08,NaN,-0.3270147,-1.373874E-07,NaN,-1.237029,6.343274E-08,NaN,-2.14257,5.288894E-06,-0.2952142,-4.059793E-08,NaN,NaN,-0.0198426,-1.024461E-10,3.000381E-06,-1.149547E-07,2.305143E-08,-2.861022E-08
167.6077,0.04500851,-2.763773E-08,NaN,-0.3270146,-1.373884E-07,NaN,-1.242054,6.33818E-08,NaN,-2.142693,5.289588E-06,-0.295826,-4.054463E-08,NaN,NaN,-0.01984406,-9.778947E-11,2.970429E-06,-1.149574E-07,1.589887E-08,-2.622604E-08
167.622,0.04500848,-2.76366E-08,NaN,-0.3270145,-1.373895E-07,NaN,-1.247004,6.333129E-08,NaN,-2.142816,5.290286E-06,-0.2964368,-4.049177E-08,NaN,NaN,-0.01984552,-9.778947E-11,2.941223E-06,-1.149601E-07,1.351468E-08,-2.861022E-08
167.6367,0.04500848,-2.76366E-08,NaN,-0.3270145,-1.373895E-07,NaN,-1.247004,6.333129E-08,NaN,-2.142816,5.290286E-06,-0.2964368,-4.049177E-08,NaN,NaN,-0.01984552,-9.778947E-11,2.941223E-06,-1.149601E-07,1.351468E-08,-2.861022E-08
167.6506,0.04500846,-2.763547E-08,NaN,-0.3270145,-1.373905E-07,NaN,-1.251118,6.314254E-08,NaN,-2.143007,5.29098E-06,-0.2979557,-4.030067E-08,NaN,NaN,-0.01984937,-9.313286E-11,2.867015E-06,-1.149628E-07,1.351468E-08,-2.622604E-08
167.6658,0.04500844,-2.763434E-08,NaN,-0.3270144,-1.373916E-07,NaN,-1.254321,6.295691E-08,NaN,-2.143214,5.291674E-06,-0.2993115,-4.011269E-08,NaN,NaN,-0.01985276,-8.847624E-11,2.801301E-06,-1.149655E-07,1.589887E-08,-2.861022E-08
167.6804,0.04500841,-2.763321E-08,NaN,-0.3270144,-1.373926E-07,NaN,-1.257014,6.2852E-08,NaN,-2.143413,5.292363E-06,-0.3004518,-4.000542E-08,NaN,NaN,-0.01985559,-7.916302E-11,2.745869E-06,-1.149682E-07,1.589887E-08,-2.622604E-08
167.695,0.04500841,-2.763321E-08,NaN,-0.3270144,-1.373926E-07,NaN,-1.257014,6.2852E-08,NaN,-2.143413,5.292363E-06,-0.3004518,-4.000542E-08,NaN,NaN,-0.01985559,-7.916302E-11,2.745869E-06,-1.149682E-07,1.589887E-08,-2.622604E-08
167.7093,0.04500838,-2.763209E-08,NaN,-0.3270143,-1.373937E-07,NaN,-1.259451,6.274858E-08,NaN,-2.1436,5.293066E-06,-0.3014662,-3.989965E-08,NaN,NaN,-0.0198581,-7.916302E-11,2.696844E-06,-1.149709E-07,1.589887E-08,-2.861022E-08
167.7244,0.04500836,-2.763096E-08,NaN,-0.3270142,-1.373947E-07,NaN,-1.260996,6.264593E-08,NaN,-2.143847,5.293765E-06,-0.3033236,-3.979465E-08,NaN,NaN,-0.01986285,-6.984979E-11,2.605276E-06,-1.149735E-07,2.305143E-08,-2.622604E-08
167.7392,0.04500836,-2.763096E-08,NaN,-0.3270142,-1.373947E-07,NaN,-1.260996,6.264593E-08,NaN,-2.143847,5.293765E-06,-0.3033236,-3.979465E-08,NaN,NaN,-0.01986285,-6.984979E-11,2.605276E-06,-1.149735E-07,2.305143E-08,-2.622604E-08
167.753,0.04500834,-2.762983E-08,NaN,-0.3270142,-1.373958E-07,NaN,-1.261625,6.254474E-08,NaN,-2.144104,5.294463E-06,-0.3049838,-3.969111E-08,NaN,NaN,-0.01986705,-6.053657E-11,2.524959E-06,-1.149762E-07,2.78198E-08,-2.861022E-08
167.7684,0.04500831,-2.76287E-08,NaN,-0.3270141,-1.373968E-07,NaN,-1.261764,6.244497E-08,NaN,-2.144349,5.295162E-06,-0.3064071,-3.958899E-08,NaN,NaN,-0.01987064,-5.122335E-11,2.457085E-06,-1.149788E-07,2.78198E-08,-2.622604E-08
167.7831,0.04500828,-2.762757E-08,NaN,-0.3270141,-1.373978E-07,NaN,-1.261675,6.23466E-08,NaN,-2.144579,5.29586E-06,-0.3076887,-3.948827E-08,NaN,NaN,-0.01987385,-4.191012E-11,2.394723E-06,-1.149815E-07,2.78198E-08,-2.861022E-08
167.7992,0.04500828,-2.762757E-08,NaN,-0.3270141,-1.373978E-07,NaN,-1.261675,6.23466E-08,NaN,-2.144579,5.29586E-06,-0.3076887,-3.948827E-08,NaN,NaN,-0.01987385,-4.191012E-11,2.394723E-06,-1.149815E-07,2.78198E-08,-2.861022E-08
167.8118,0.04500825,-2.762645E-08,NaN,-0.327014,-1.373989E-07,NaN,-1.260729,6.22489E-08,NaN,-2.144868,5.296559E-06,-0.3097998,-3.938822E-08,NaN,NaN,-0.01987932,-3.25969E-11,2.292129E-06,-1.149841E-07,2.543561E-08,-2.622604E-08
167.827,0.04500822,-2.762532E-08,NaN,-0.3270139,-1.373999E-07,NaN,-1.258901,6.215256E-08,NaN,-2.145166,5.297257E-06,-0.3117039,-3.928952E-08,NaN,NaN,-0.01988421,-2.328367E-11,2.200077E-06,-1.149867E-07,2.305143E-08,-2.861022E-08
167.8416,0.04500819,-2.762419E-08,NaN,-0.3270139,-1.374009E-07,NaN,-1.256618,6.205754E-08,NaN,-2.14545,5.29796E-06,-0.3133605,-3.919216E-08,NaN,NaN,-0.01988845,-1.397045E-11,2.119499E-06,-1.149893E-07,2.78198E-08,-2.622604E-08
167.8573,0.04500819,-2.762419E-08,NaN,-0.3270139,-1.374009E-07,NaN,-1.256618,6.205754E-08,NaN,-2.14545,5.29796E-06,-0.3133605,-3.919216E-08,NaN,NaN,-0.01988845,-1.397045E-11,2.119499E-06,-1.149893E-07,2.78198E-08,-2.622604E-08
167.871,0.04500817,-2.762306E-08,NaN,-0.3270138,-1.374019E-07,NaN,-1.253385,6.196385E-08,NaN,-2.145789,5.298663E-06,-0.3157735,-3.90961E-08,NaN,NaN,-0.01989477,-4.657221E-12,2.002338E-06,-1.149919E-07,3.020399E-08,-2.861022E-08
167.8853,0.04500814,-2.762193E-08,NaN,-0.3270138,-1.374029E-07,NaN,-1.249249,6.187142E-08,NaN,-2.146134,5.299366E-06,-0.3179399,-3.900132E-08,NaN,NaN,-0.01990041,4.656005E-12,1.899427E-06,-1.149945E-07,2.78198E-08,-2.622604E-08
167.8999,0.04500814,-2.762193E-08,NaN,-0.3270138,-1.374029E-07,NaN,-1.249249,6.187142E-08,NaN,-2.146134,5.299366E-06,-0.3179399,-3.900132E-08,NaN,NaN,-0.01990041,4.656005E-12,1.899427E-06,-1.149945E-07,2.78198E-08,-2.622604E-08
167.9139,0.04500811,-2.762081E-08,NaN,-0.3270137,-1.37404E-07,NaN,-1.244665,6.178025E-08,NaN,-2.146461,5.300069E-06,-0.3198352,-3.89078E-08,NaN,NaN,-0.01990533,1.396923E-11,1.809964E-06,-1.149971E-07,2.305143E-08,-2.861022E-08
167.9292,0.04500808,-2.761968E-08,NaN,-0.3270136,-1.37405E-07,NaN,-1.239909,6.16889E-08,NaN,-2.146769,5.300773E-06,-0.3215623,-3.88141E-08,NaN,NaN,-0.01990981,2.328246E-11,1.725957E-06,-1.149997E-07,1.828306E-08,-2.622604E-08
167.9438,0.04500805,-2.761855E-08,NaN,-0.3270136,-1.37406E-07,NaN,-1.234362,6.159878E-08,NaN,-2.147132,5.30148E-06,-0.3240958,-3.872163E-08,NaN,NaN,-0.01991656,2.793907E-11,1.602285E-06,-1.150022E-07,2.066724E-08,-2.861022E-08
167.9583,0.04500805,-2.761855E-08,NaN,-0.3270136,-1.37406E-07,NaN,-1.234362,6.159878E-08,NaN,-2.147132,5.30148E-06,-0.3240958,-3.872163E-08,NaN,NaN,-0.01991656,2.793907E-11,1.602285E-06,-1.150022E-07,2.066724E-08,-2.861022E-08
167.9721,0.04500802,-2.761742E-08,NaN,-0.3270135,-1.37407E-07,NaN,-1.228001,6.150988E-08,NaN,-2.147504,5.302183E-06,-0.326406,-3.863037E-08,NaN,NaN,-0.01992268,3.725229E-11,1.493171E-06,-1.150048E-07,1.589887E-08,-2.622604E-08
167.9874,0.04500799,-2.761629E-08,NaN,-0.3270135,-1.37408E-07,NaN,-1.221246,6.142216E-08,NaN,-2.14786,5.302891E-06,-0.3284505,-3.85403E-08,NaN,NaN,-0.01992808,4.19089E-11,1.396742E-06,-1.150073E-07,1.351468E-08,-2.861022E-08
168.0021,0.04500796,-2.761516E-08,NaN,-0.3270134,-1.37409E-07,NaN,-1.21436,6.13349E-08,NaN,-2.148195,5.303598E-06,-0.3303246,-3.845069E-08,NaN,NaN,-0.01993304,4.656552E-11,1.30849E-06,-1.150099E-07,1.11305E-08,-2.622604E-08
168.0169,0.04500796,-2.761516E-08,NaN,-0.3270134,-1.37409E-07,NaN,-1.21436,6.13349E-08,NaN,-2.148195,5.303598E-06,-0.3303246,-3.845069E-08,NaN,NaN,-0.01993304,4.656552E-11,1.30849E-06,-1.150099E-07,1.11305E-08,-2.622604E-08
168.0307,0.04500794,-2.761403E-08,NaN,-0.3270133,-1.3741E-07,NaN,-1.206721,6.12488E-08,NaN,-2.148587,5.304306E-06,-0.3329988,-3.836223E-08,NaN,NaN,-0.01994029,5.122213E-11,1.180377E-06,-1.150124E-07,8.746314E-09,-2.861022E-08
168.0461,0.04500791,-2.76129E-08,NaN,-0.3270133,-1.37411E-07,NaN,-1.1983,6.116382E-08,NaN,-2.148988,5.305013E-06,-0.3354456,-3.82749E-08,NaN,NaN,-0.01994689,5.587874E-11,1.066793E-06,-1.150149E-07,1.351469E-08,-2.622604E-08
168.0608,0.04500788,-2.761177E-08,NaN,-0.3270132,-1.37412E-07,NaN,-1.189516,6.107996E-08,NaN,-2.149372,5.305721E-06,-0.3376202,-3.818869E-08,NaN,NaN,-0.01995275,6.053535E-11,9.647947E-07,-1.150174E-07,1.828306E-08,-2.861022E-08
168.0756,0.04500788,-2.761177E-08,NaN,-0.3270132,-1.37412E-07,NaN,-1.189516,6.107996E-08,NaN,-2.149372,5.305721E-06,-0.3376202,-3.818869E-08,NaN,NaN,-0.01995275,6.053535E-11,9.647947E-07,-1.150174E-07,1.828306E-08,-2.861022E-08
168.0895,0.04500785,-2.761064E-08,NaN,-0.3270132,-1.37413E-07,NaN,-1.179884,6.099718E-08,NaN,-2.149809,5.306429E-06,-0.3405236,-3.810356E-08,NaN,NaN,-0.01996074,6.519197E-11,8.300137E-07,-1.1502E-07,1.828306E-08,-2.622604E-08
168.1046,0.04500781,-2.760951E-08,NaN,-0.3270131,-1.374139E-07,NaN,-1.169443,6.091545E-08,NaN,-2.150252,5.307136E-06,-0.3431625,-3.801948E-08,NaN,NaN,-0.01996797,6.984859E-11,7.079732E-07,-1.150224E-07,2.066724E-08,-2.861022E-08
168.1194,0.04500781,-2.760951E-08,NaN,-0.3270131,-1.374139E-07,NaN,-1.169443,6.091545E-08,NaN,-2.150252,5.307136E-06,-0.3431625,-3.801948E-08,NaN,NaN,-0.01996797,6.984859E-11,7.079732E-07,-1.150224E-07,2.066724E-08,-2.861022E-08
168.1332,0.04500778,-2.760838E-08,NaN,-0.327013,-1.374149E-07,NaN,-1.158642,6.083477E-08,NaN,-2.150674,5.307844E-06,-0.3455073,-3.793645E-08,NaN,NaN,-0.0199744,7.45052E-11,5.985242E-07,-1.150249E-07,2.305143E-08,-2.622604E-08
168.1496,0.04500775,-2.760725E-08,NaN,-0.327013,-1.374159E-07,NaN,-1.147757,6.075441E-08,NaN,-2.151069,5.308551E-06,-0.3476603,-3.785373E-08,NaN,NaN,-0.01998032,7.916182E-11,4.989099E-07,-1.150274E-07,1.828306E-08,-2.861022E-08
168.1642,0.04500772,-2.760611E-08,NaN,-0.3270129,-1.374169E-07,NaN,-1.136178,6.067506E-08,NaN,-2.15152,5.309259E-06,-0.3505946,-3.777204E-08,NaN,NaN,-0.01998855,8.381843E-11,3.639054E-07,-1.150299E-07,1.589887E-08,-2.622604E-08
168.1787,0.04500772,-2.760611E-08,NaN,-0.3270129,-1.374169E-07,NaN,-1.136178,6.067506E-08,NaN,-2.15152,5.309259E-06,-0.3505946,-3.777204E-08,NaN,NaN,-0.01998855,8.381843E-11,3.639054E-07,-1.150299E-07,1.589887E-08,-2.622604E-08
