JMolnar6/NonAnthroHands_User_Study/HandsLoggerWithURDF/tempdata/files/Reachy_JointMotion_gesture_3_15.csv
Time,r_shoulder,r_shoulder_x,r_upper_arm,r_forearm,r_wrist,r_wrist2hand,
328.2935,0.04500323,0.000555878,NaN,-0.3269998,0.0002946247,NaN,0.3133979,-14.17149,NaN,-2.146417,-1.458126,-0.3547328,14.14375,NaN,NaN,-0.01999685,0.8059078,-4.907084E-08,1.017215,-1.14659E-08,1.43768
328.3112,0.04500323,0.0005565961,NaN,-0.3269998,0.0002955873,NaN,0.3138916,-14.17168,NaN,-2.146503,-1.456289,-0.3556782,14.14184,NaN,NaN,-0.01999965,0.8057216,-9.407235E-08,1.014553,-9.081715E-09,1.440609
328.3243,0.04500322,0.0005567297,NaN,-0.3269998,0.0002953702,NaN,0.3152225,-14.1719,NaN,-2.14661,-1.46886,-0.3564709,14.15495,NaN,NaN,-0.02000196,0.805426,-1.318095E-07,1.032695,-7.889622E-09,1.440088
328.3391,0.04500322,0.0005567297,NaN,-0.3269998,0.0002953702,NaN,0.3152225,-14.1719,NaN,-2.14661,-1.46886,-0.3564709,14.15495,NaN,NaN,-0.02000196,0.805426,-1.318095E-07,1.032695,-7.889622E-09,1.440088
328.3535,0.04500322,0.0005566204,NaN,-0.3269998,0.0002957148,NaN,0.3169974,-14.17118,NaN,-2.146708,-1.459354,-0.357051,14.14498,NaN,NaN,-0.02000363,0.806283,-1.588551E-07,1.018985,-6.69753E-09,1.435469
328.3691,0.04500322,0.0005560264,NaN,-0.3269998,0.000295475,NaN,0.3189652,-14.17146,NaN,-2.146792,-1.464743,-0.3575052,14.15061,NaN,NaN,-0.02000494,0.8059515,-1.791952E-07,1.026763,-7.889622E-09,1.438141
328.3839,0.04500323,0.0005559786,NaN,-0.3269998,0.0002960479,NaN,0.3202557,-14.17188,NaN,-2.146785,-1.457762,-0.3569868,14.14337,NaN,NaN,-0.02000336,0.8056169,-1.553906E-07,1.016669,-7.889622E-09,1.439166
328.3998,0.04500323,0.0005559786,NaN,-0.3269998,0.0002960479,NaN,0.3202557,-14.17188,NaN,-2.146785,-1.457762,-0.3569868,14.14337,NaN,NaN,-0.02000336,0.8056169,-1.553906E-07,1.016669,-7.889622E-09,1.439166
328.4141,0.04500323,0.0005558621,NaN,-0.3269998,0.0002957845,NaN,0.3207266,-14.17215,NaN,-2.146749,-1.468847,-0.3565843,14.15493,NaN,NaN,-0.02000218,0.8052766,-1.363358E-07,1.032665,-1.027381E-08,1.441728
328.4286,0.04500324,0.0005560548,NaN,-0.3269998,0.000295954,NaN,0.3207461,-14.17265,NaN,-2.146716,-1.464076,-0.3563724,14.14999,NaN,NaN,-0.02000157,0.8048331,-1.26352E-07,1.025758,-7.889623E-09,1.442448
328.4434,0.04500324,0.0005559052,NaN,-0.3269998,0.0002955298,NaN,0.3205552,-14.17168,NaN,-2.146694,-1.469003,-0.3562706,14.155,NaN,NaN,-0.02000129,0.8057202,-1.20168E-07,1.032875,-9.081716E-09,1.439547
328.4583,0.04500324,0.0005559052,NaN,-0.3269998,0.0002955298,NaN,0.3205552,-14.17168,NaN,-2.146694,-1.469003,-0.3562706,14.155,NaN,NaN,-0.02000129,0.8057202,-1.20168E-07,1.032875,-9.081716E-09,1.439547
328.4727,0.04500325,0.0005560481,NaN,-0.3269998,0.0002959577,NaN,0.3195265,-14.17199,NaN,-2.146602,-1.459775,-0.3553152,14.1454,NaN,NaN,-0.01999846,0.8055471,-7.550177E-08,1.019536,-9.081716E-09,1.438166
328.4884,0.04500325,0.0005563367,NaN,-0.3269998,0.0002958175,NaN,0.3176274,-14.17283,NaN,-2.146496,-1.467993,-0.3545363,14.15403,NaN,NaN,-0.0199962,0.8046212,-3.884491E-08,1.031383,-1.027381E-08,1.445108
328.5034,0.04500326,0.0005563749,NaN,-0.3269998,0.0002962279,NaN,0.3152745,-14.17132,NaN,-2.146404,-1.458123,-0.3539813,14.14363,NaN,NaN,-0.0199946,0.8062615,-1.246985E-08,1.017177,-1.385009E-08,1.433057
328.519,0.04500326,0.0005563749,NaN,-0.3269998,0.0002962279,NaN,0.3152745,-14.17132,NaN,-2.146404,-1.458123,-0.3539813,14.14363,NaN,NaN,-0.0199946,0.8062615,-1.246985E-08,1.017177,-1.385009E-08,1.433057
328.5324,0.04500327,0.0005556189,NaN,-0.3269998,0.0002957183,NaN,0.3119813,-14.17173,NaN,-2.146249,-1.467887,-0.3526503,14.15383,NaN,NaN,-0.0199907,0.8057719,5.123261E-08,1.03127,-1.385009E-08,1.440945
328.548,0.04500327,0.0005548513,NaN,-0.3269998,0.0002949414,NaN,0.3077895,-14.17189,NaN,-2.146089,-1.470816,-0.3515408,14.15688,NaN,NaN,-0.01998749,0.8055437,1.026416E-07,1.035486,-1.265799E-08,1.440299
328.5631,0.04500328,0.0005551175,NaN,-0.3269998,0.0002956611,NaN,0.3031498,-14.17168,NaN,-2.145948,-1.458709,-0.3506814,14.14425,NaN,NaN,-0.01998502,0.8059676,1.419807E-07,1.018009,-1.14659E-08,1.438091
328.578,0.04500328,0.0005551175,NaN,-0.3269998,0.0002956611,NaN,0.3031498,-14.17168,NaN,-2.145948,-1.458709,-0.3506814,14.14425,NaN,NaN,-0.01998502,0.8059676,1.419807E-07,1.018009,-1.14659E-08,1.438091
328.5922,0.04500329,0.0005549414,NaN,-0.3269998,0.0002960097,NaN,0.2983386,-14.17069,NaN,-2.145828,-1.457046,-0.3499706,14.1424,NaN,NaN,-0.01998299,0.806945,1.741672E-07,1.015613,-7.889623E-09,1.429608
328.609,0.0450033,0.0005545828,NaN,-0.3269998,0.0002963262,NaN,0.2927404,-14.17098,NaN,-2.145644,-1.456889,-0.348435,14.14226,NaN,NaN,-0.01997852,0.8066448,2.444262E-07,1.015379,-1.929159E-09,1.430538
328.6227,0.04500331,0.0005550513,NaN,-0.3269998,0.0002962507,NaN,0.2863297,-14.17207,NaN,-2.145455,-1.467636,-0.347102,14.15358,NaN,NaN,-0.01997468,0.8054965,3.071601E-07,1.0309,-7.370662E-10,1.440348
328.6376,0.04500331,0.0005550513,NaN,-0.3269998,0.0002962507,NaN,0.2863297,-14.17207,NaN,-2.145455,-1.467636,-0.347102,14.15358,NaN,NaN,-0.01997468,0.8054965,3.071601E-07,1.0309,-7.370662E-10,1.440348
328.6516,0.04500331,0.0005552765,NaN,-0.3269998,0.0002957356,NaN,0.2795262,-14.17217,NaN,-2.145284,-1.470466,-0.3460157,14.15652,NaN,NaN,-0.01997158,0.805338,3.57377E-07,1.034979,-1.929159E-09,1.440294
328.6672,0.04500332,0.0005556857,NaN,-0.3269998,0.0002960076,NaN,0.272592,-14.17083,NaN,-2.145133,-1.46341,-0.3450815,14.14906,NaN,NaN,-0.01996892,0.8067781,4.005903E-07,1.024824,-3.121252E-09,1.430841
328.6822,0.04500333,0.0005557053,NaN,-0.3269998,0.0002964686,NaN,0.2649032,-14.17085,NaN,-2.14492,-1.45683,-0.3433287,14.14218,NaN,NaN,-0.01996387,0.8068296,4.843349E-07,1.01531,-4.313345E-09,1.428502
328.6971,0.04500333,0.0005557053,NaN,-0.3269998,0.0002964686,NaN,0.2649032,-14.17085,NaN,-2.14492,-1.45683,-0.3433287,14.14218,NaN,NaN,-0.01996387,0.8068296,4.843349E-07,1.01531,-4.313345E-09,1.428502
328.7115,0.04500334,0.0005557502,NaN,-0.3269998,0.0002962494,NaN,0.2564322,-14.17173,NaN,-2.144704,-1.46781,-0.3417878,14.15373,NaN,NaN,-0.01995948,0.8058867,5.569035E-07,1.031172,-7.370662E-10,1.436933
328.7271,0.04500335,0.0005558269,NaN,-0.3269998,0.0002967592,NaN,0.2475982,-14.17073,NaN,-2.144506,-1.457608,-0.3405021,14.14299,NaN,NaN,-0.01995584,0.8070239,6.165081E-07,1.016454,1.64712E-09,1.427849
328.7422,0.04500336,0.0005556182,NaN,-0.3269998,0.0002971758,NaN,0.2386626,-14.1708,NaN,-2.14433,-1.455858,-0.3393768,14.14116,NaN,NaN,-0.01995266,0.8069429,6.689602E-07,1.013914,4.031305E-09,1.426884
328.7586,0.04500336,0.0005556182,NaN,-0.3269998,0.0002971758,NaN,0.2386626,-14.1708,NaN,-2.14433,-1.455858,-0.3393768,14.14116,NaN,NaN,-0.01995266,0.8069429,6.689602E-07,1.013914,4.031305E-09,1.426884
328.7714,0.04500337,0.0005550973,NaN,-0.3269998,0.000297473,NaN,0.2289986,-14.17099,NaN,-2.144093,-1.455731,-0.3374406,14.14103,NaN,NaN,-0.01994715,0.8067398,7.588142E-07,1.01372,6.415491E-09,1.427468
328.7871,0.04500338,0.0005543302,NaN,-0.3269998,0.0002977728,NaN,0.2185792,-14.1711,NaN,-2.143856,-1.454909,-0.335726,14.14017,NaN,NaN,-0.01994232,0.8066164,8.403236E-07,1.012524,9.991769E-09,1.427261
328.8018,0.0450034,0.0005538575,NaN,-0.3269998,0.0002974783,NaN,0.2078245,-14.17245,NaN,-2.143638,-1.467283,-0.3342746,14.15322,NaN,NaN,-0.01993826,0.8052238,9.09018E-07,1.030398,1.118386E-08,1.440887
328.8177,0.0450034,0.0005538575,NaN,-0.3269998,0.0002974783,NaN,0.2078245,-14.17245,NaN,-2.143638,-1.467283,-0.3342746,14.15322,NaN,NaN,-0.01993826,0.8052238,9.09018E-07,1.030398,1.118386E-08,1.440887
328.8321,0.04500341,0.000554267,NaN,-0.3269998,0.0002979495,NaN,0.1962398,-14.17256,NaN,-2.143367,-1.461792,-0.3320828,14.1475,NaN,NaN,-0.01993208,0.8051735,1.01422E-06,1.022457,1.476014E-08,1.438751
328.8465,0.04500343,0.0005543389,NaN,-0.3269998,0.0002984221,NaN,0.1838694,-14.17103,NaN,-2.1431,-1.456742,-0.3301532,14.14207,NaN,NaN,-0.01992671,0.8067344,1.108693E-06,1.015183,1.714433E-08,1.427963
328.8612,0.04500344,0.0005543921,NaN,-0.3269998,0.0002982029,NaN,0.1711665,-14.17212,NaN,-2.142858,-1.467665,-0.3285094,14.15357,NaN,NaN,-0.01992216,0.8055795,1.186925E-06,1.030956,1.952851E-08,1.438136
328.876,0.04500344,0.0005543921,NaN,-0.3269998,0.0002982029,NaN,0.1711665,-14.17212,NaN,-2.142858,-1.467665,-0.3285094,14.15357,NaN,NaN,-0.01992216,0.8055795,1.186925E-06,1.030956,1.952851E-08,1.438136
328.8904,0.04500345,0.0005548393,NaN,-0.3269998,0.0002989612,NaN,0.1584064,-14.1712,NaN,-2.14264,-1.457852,-0.3270477,14.14325,NaN,NaN,-0.01991813,0.8066213,1.255619E-06,1.016797,1.714433E-08,1.428634
328.9063,0.04500346,0.0005548897,NaN,-0.3269998,0.0002994429,NaN,0.1449628,-14.1711,NaN,-2.142366,-1.455982,-0.3247921,14.14127,NaN,NaN,-0.01991187,0.8067043,1.364099E-06,1.014084,1.714433E-08,1.427808
328.921,0.04500348,0.0005540438,NaN,-0.3269998,0.0002992205,NaN,0.1308129,-14.17208,NaN,-2.142097,-1.461233,-0.322777,14.14684,NaN,NaN,-0.01990635,0.8056865,1.461255E-06,1.021659,1.356805E-08,1.435841
328.936,0.04500348,0.0005540438,NaN,-0.3269998,0.0002992205,NaN,0.1308129,-14.17208,NaN,-2.142097,-1.461233,-0.322777,14.14684,NaN,NaN,-0.01990635,0.8056865,1.461255E-06,1.021659,1.356805E-08,1.435841
328.9503,0.04500349,0.0005532159,NaN,-0.3269998,0.0002985474,NaN,0.11638,-14.17128,NaN,-2.14185,-1.468079,-0.3210406,14.15388,NaN,NaN,-0.01990162,0.806402,1.545297E-06,1.031548,1.476014E-08,1.432244
328.9659,0.0450035,0.0005529022,NaN,-0.3269998,0.0002984251,NaN,0.1019251,-14.17296,NaN,-2.141626,-1.464887,-0.319486,14.15069,NaN,NaN,-0.01989741,0.8047439,1.619952E-06,1.026894,1.476014E-08,1.441978
328.9811,0.04500352,0.0005533823,NaN,-0.3269998,0.0002983018,NaN,0.08681247,-14.17194,NaN,-2.141348,-1.469089,-0.3171401,14.15495,NaN,NaN,-0.01989101,0.8056672,1.732158E-06,1.032971,1.476014E-08,1.438193
328.9957,0.04500352,0.0005533823,NaN,-0.3269998,0.0002983018,NaN,0.08681247,-14.17194,NaN,-2.141348,-1.469089,-0.3171401,14.15495,NaN,NaN,-0.01989101,0.8056672,1.732158E-06,1.032971,1.476014E-08,1.438193
329.01,0.04500353,0.0005537766,NaN,-0.3269998,0.0002989718,NaN,0.07101817,-14.17152,NaN,-2.141075,-1.457242,-0.315041,14.14257,NaN,NaN,-0.01988536,0.8062615,1.834231E-06,1.015877,1.476014E-08,1.430909
329.0266,0.04500355,0.0005539836,NaN,-0.3269998,0.0002992992,NaN,0.05496534,-14.17156,NaN,-2.140825,-1.459457,-0.3132258,14.14488,NaN,NaN,-0.01988051,0.8061898,1.92334E-06,1.019073,1.595223E-08,1.431228
329.0406,0.04500356,0.0005539855,NaN,-0.3269998,0.0002989353,NaN,0.03891454,-14.1717,NaN,-2.140598,-1.468578,-0.3115971,14.15439,NaN,NaN,-0.01987618,0.8059611,2.002465E-06,1.032245,1.952851E-08,1.435144
329.0555,0.04500356,0.0005539855,NaN,-0.3269998,0.0002989353,NaN,0.03891454,-14.1717,NaN,-2.140598,-1.468578,-0.3115971,14.15439,NaN,NaN,-0.01987618,0.8059611,2.002465E-06,1.032245,1.952851E-08,1.435144
329.0694,0.04500358,0.0005544163,NaN,-0.3269998,0.0002997498,NaN,0.02222631,-14.17117,NaN,-2.140319,-1.456856,-0.3091815,14.14212,NaN,NaN,-0.01986974,0.8066608,2.119737E-06,1.015326,2.668107E-08,1.431393
329.0851,0.04500359,0.000554989,NaN,-0.3269998,0.0002997407,NaN,0.004877813,-14.17187,NaN,-2.140046,-1.467161,-0.3070193,14.15294,NaN,NaN,-0.01986404,0.8058853,2.221065E-06,1.030209,2.668107E-08,1.437169
329.0999,0.04500359,0.000554989,NaN,-0.3269998,0.0002997407,NaN,0.004877813,-14.17187,NaN,-2.140046,-1.467161,-0.3070193,14.15294,NaN,NaN,-0.01986404,0.8058853,2.221065E-06,1.030209,2.668107E-08,1.437169
329.1143,0.04500361,0.0005552054,NaN,-0.3269998,0.000299837,NaN,-0.01270653,-14.17112,NaN,-2.139797,-1.462655,-0.305146,14.14816,NaN,NaN,-0.01985915,0.8066605,2.314942E-06,1.02371,2.668107E-08,1.430706
329.1299,0.04500363,0.0005557254,NaN,-0.3269998,0.0002997776,NaN,-0.03103295,-14.17219,NaN,-2.139501,-1.467741,-0.3025537,14.15356,NaN,NaN,-0.01985235,0.8055117,2.442347E-06,1.031039,2.548898E-08,1.438709
329.1449,0.04500365,0.0005559588,NaN,-0.3269998,0.0002995378,NaN,-0.05005309,-14.17162,NaN,-2.139217,-1.467056,-0.3002531,14.15278,NaN,NaN,-0.0198464,0.806054,2.557682E-06,1.030053,2.072061E-08,1.435039
329.1599,0.04500365,0.0005559588,NaN,-0.3269998,0.0002995378,NaN,-0.05005309,-14.17162,NaN,-2.139217,-1.467056,-0.3002531,14.15278,NaN,NaN,-0.0198464,0.806054,2.557682E-06,1.030053,2.072061E-08,1.435039
329.1742,0.04500366,0.0005565006,NaN,-0.3269998,0.0002997123,NaN,-0.06930929,-14.1723,NaN,-2.138959,-1.464954,-0.2982614,14.15063,NaN,NaN,-0.0198413,0.805382,2.65603E-06,1.026992,2.310479E-08,1.438004
329.1898,0.04500367,0.000556545,NaN,-0.3269998,0.0002993768,NaN,-0.08852727,-14.17141,NaN,-2.138727,-1.467426,-0.2964724,14.1531,NaN,NaN,-0.01983676,0.8062015,2.746331E-06,1.030566,2.548898E-08,1.434223
329.2048,0.04500369,0.0005565168,NaN,-0.3269998,0.0002988591,NaN,-0.1083468,-14.17162,NaN,-2.138447,-1.469018,-0.2939082,14.15476,NaN,NaN,-0.01983021,0.8059366,2.873289E-06,1.032852,1.833642E-08,1.434712
329.2209,0.04500371,0.0005561866,NaN,-0.3269998,0.0002989472,NaN,-0.1287858,-14.17014,NaN,-2.138176,-1.458046,-0.2916119,14.14318,NaN,NaN,-0.01982443,0.8075567,2.989518E-06,1.017032,2.429688E-08,1.426012
329.2357,0.04500371,0.0005561866,NaN,-0.3269998,0.0002989472,NaN,-0.1287858,-14.17014,NaN,-2.138176,-1.458046,-0.2916119,14.14318,NaN,NaN,-0.01982443,0.8075567,2.989518E-06,1.017032,2.429688E-08,1.426012
329.2487,0.04500373,0.0005562804,NaN,-0.3269998,0.0002987898,NaN,-0.1494164,-14.17232,NaN,-2.13793,-1.466655,-0.2896148,14.15239,NaN,NaN,-0.01981947,0.8053041,3.088462E-06,1.029456,2.906526E-08,1.438516
329.2642,0.04500374,0.0005555946,NaN,-0.3269998,0.0002978999,NaN,-0.1699784,-14.17086,NaN,-2.137709,-1.470387,-0.2878178,14.15613,NaN,NaN,-0.01981505,0.8066639,3.184127E-06,1.034861,2.429688E-08,1.434892
329.2791,0.04500374,0.0005555946,NaN,-0.3269998,0.0002978999,NaN,-0.1699784,-14.17086,NaN,-2.137709,-1.470387,-0.2878178,14.15613,NaN,NaN,-0.01981505,0.8066639,3.184127E-06,1.034861,2.429688E-08,1.434892
329.2935,0.04500376,0.0005551784,NaN,-0.3269998,0.0002983157,NaN,-0.1903486,-14.17102,NaN,-2.137506,-1.456499,-0.2861558,14.14163,NaN,NaN,-0.019811,0.8067256,3.268468E-06,1.014778,2.429688E-08,1.427695
329.3089,0.04500377,0.0005554035,NaN,-0.3269998,0.0002981633,NaN,-0.210474,-14.17202,NaN,-2.137321,-1.467821,-0.2845969,14.15354,NaN,NaN,-0.01980724,0.8056504,3.348636E-06,1.031125,2.429688E-08,1.438098
329.3239,0.04500379,0.0005547138,NaN,-0.3269998,0.0002980124,NaN,-0.2303334,-14.17163,NaN,-2.137148,-1.457585,-0.2831252,14.14283,NaN,NaN,-0.01980371,0.8061727,3.423887E-06,1.016348,2.429688E-08,1.431531
329.339,0.04500379,0.0005547138,NaN,-0.3269998,0.0002980124,NaN,-0.2303334,-14.17163,NaN,-2.137148,-1.457585,-0.2831252,14.14283,NaN,NaN,-0.01980371,0.8061727,3.423887E-06,1.016348,2.429688E-08,1.431531
329.3536,0.0450038,0.0005538242,NaN,-0.3269998,0.0002981014,NaN,-0.24992,-14.17135,NaN,-2.136988,-1.456118,-0.2817325,14.14126,NaN,NaN,-0.01980041,0.8064455,3.495562E-06,1.014226,2.429688E-08,1.427188
329.3689,0.04500381,0.0005524235,NaN,-0.3269998,0.0002978,NaN,-0.2692328,-14.17231,NaN,-2.13684,-1.45975,-0.2804139,14.14514,NaN,NaN,-0.01979731,0.8054595,3.565746E-06,1.019464,1.952851E-08,1.433835
329.3839,0.04500382,0.0005521829,NaN,-0.3269998,0.0002976163,NaN,-0.2882735,-14.17272,NaN,-2.136701,-1.467116,-0.2791663,14.15284,NaN,NaN,-0.01979441,0.8049738,3.630119E-06,1.030088,2.072061E-08,1.439184
329.3987,0.04500382,0.0005521829,NaN,-0.3269998,0.0002976163,NaN,-0.2882735,-14.17272,NaN,-2.136701,-1.467116,-0.2791663,14.15284,NaN,NaN,-0.01979441,0.8049738,3.630119E-06,1.030088,2.072061E-08,1.439184
329.413,0.04500384,0.000552598,NaN,-0.3269998,0.0002976194,NaN,-0.3070448,-14.17301,NaN,-2.136573,-1.467403,-0.2779872,14.15316,NaN,NaN,-0.01979169,0.8046724,3.689426E-06,1.030491,2.310479E-08,1.441271
329.4287,0.04500385,0.0005529394,NaN,-0.3269998,0.0002973402,NaN,-0.32555,-14.17279,NaN,-2.136454,-1.469365,-0.2768742,14.15516,NaN,NaN,-0.01978915,0.8048372,3.748435E-06,1.03332,2.668107E-08,1.440078
329.4445,0.04500386,0.0005530506,NaN,-0.3269998,0.0002977851,NaN,-0.3437925,-14.17081,NaN,-2.136345,-1.457362,-0.2758253,14.14251,NaN,NaN,-0.01978678,0.8069988,3.802228E-06,1.01605,2.19127E-08,1.426577
329.4586,0.04500386,0.0005530506,NaN,-0.3269998,0.0002977851,NaN,-0.3437925,-14.17081,NaN,-2.136345,-1.457362,-0.2758253,14.14251,NaN,NaN,-0.01978678,0.8069988,3.802228E-06,1.01605,2.19127E-08,1.426577
329.4728,0.04500387,0.0005532382,NaN,-0.3269998,0.0002983295,NaN,-0.3617756,-14.17174,NaN,-2.136244,-1.456134,-0.2748386,14.14131,NaN,NaN,-0.01978457,0.8060662,3.854233E-06,1.014259,1.833642E-08,1.429652
329.4885,0.04500388,0.000552729,NaN,-0.3269998,0.0002985894,NaN,-0.3795028,-14.17129,NaN,-2.136152,-1.455055,-0.2739122,14.14012,NaN,NaN,-0.01978253,0.8064979,3.903854E-06,1.012694,1.595224E-08,1.425256
329.5034,0.04500389,0.000551883,NaN,-0.3269998,0.0002984469,NaN,-0.3969775,-14.17243,NaN,-2.136069,-1.46085,-0.2730442,14.14628,NaN,NaN,-0.01978064,0.8053344,3.946471E-06,1.021057,1.356805E-08,1.434528
329.5182,0.04500389,0.000551883,NaN,-0.3269998,0.0002984469,NaN,-0.3969775,-14.17243,NaN,-2.136069,-1.46085,-0.2730442,14.14628,NaN,NaN,-0.01978064,0.8053344,3.946471E-06,1.021057,1.356805E-08,1.434528
329.5324,0.0450039,0.0005511692,NaN,-0.3269998,0.0002987304,NaN,-0.414203,-14.17167,NaN,-2.135993,-1.456825,-0.2722329,14.142,NaN,NaN,-0.01977889,0.8061187,3.988194E-06,1.015253,9.991773E-09,1.428316
329.5481,0.04500391,0.0005498701,NaN,-0.3269998,0.0002985292,NaN,-0.4311827,-14.17236,NaN,-2.135925,-1.459227,-0.2714765,14.14457,NaN,NaN,-0.01977729,0.8054032,4.027682E-06,1.018715,8.79968E-09,1.432899
329.5633,0.04500392,0.0005496866,NaN,-0.3269998,0.0002984201,NaN,-0.4479199,-14.17276,NaN,-2.135865,-1.466395,-0.2707734,14.15207,NaN,NaN,-0.01977582,0.8049508,4.066276E-06,1.029053,6.415494E-09,1.437984
329.5781,0.04500392,0.0005496866,NaN,-0.3269998,0.0002984201,NaN,-0.4479199,-14.17276,NaN,-2.135865,-1.466395,-0.2707734,14.15207,NaN,NaN,-0.01977582,0.8049508,4.066276E-06,1.029053,6.415494E-09,1.437984
329.5922,0.04500394,0.0005500967,NaN,-0.3269998,0.0002992677,NaN,-0.4644179,-14.17192,NaN,-2.135813,-1.456163,-0.2701219,14.14134,NaN,NaN,-0.01977448,0.8059174,4.101591E-06,1.014305,4.031309E-09,1.429982
329.6079,0.04500394,0.0005505776,NaN,-0.3269998,0.0002992364,NaN,-0.4806799,-14.17243,NaN,-2.135767,-1.466644,-0.2695204,14.15231,NaN,NaN,-0.01977327,0.8053658,4.133182E-06,1.029437,6.415494E-09,1.438974
329.6229,0.04500395,0.0005508162,NaN,-0.3269998,0.000299248,NaN,-0.496709,-14.17293,NaN,-2.135728,-1.463874,-0.2689673,14.14945,NaN,NaN,-0.01977218,0.8048722,4.162984E-06,1.025417,1.647123E-09,1.438157
329.6389,0.04500395,0.0005508162,NaN,-0.3269998,0.000299248,NaN,-0.496709,-14.17293,NaN,-2.135728,-1.463874,-0.2689673,14.14945,NaN,NaN,-0.01977218,0.8048722,4.162984E-06,1.025417,1.647123E-09,1.438157
329.6531,0.04500396,0.0005506263,NaN,-0.3269998,0.0002995558,NaN,-0.5125085,-14.17165,NaN,-2.135696,-1.456911,-0.2684611,14.14207,NaN,NaN,-0.0197712,0.8062007,4.188614E-06,1.015384,6.415494E-09,1.429844
329.6677,0.04500397,0.0005510274,NaN,-0.3269998,0.00030012,NaN,-0.5280815,-14.17244,NaN,-2.135671,-1.458366,-0.2680004,14.14365,NaN,NaN,-0.01977033,0.8053846,4.216181E-06,1.017471,4.031309E-09,1.43389
329.6836,0.04500397,0.0005513282,NaN,-0.3269998,0.0002998912,NaN,-0.543431,-14.1728,NaN,-2.135652,-1.468575,-0.2675837,14.1543,NaN,NaN,-0.01976958,0.8049379,4.241067E-06,1.032197,8.79968E-09,1.440263
329.6972,0.04500397,0.0005513282,NaN,-0.3269998,0.0002998912,NaN,-0.543431,-14.1728,NaN,-2.135652,-1.468575,-0.2675837,14.1543,NaN,NaN,-0.01976958,0.8049379,4.241067E-06,1.032197,8.79968E-09,1.440263
329.7115,0.04500398,0.000551178,NaN,-0.3269998,0.0002999354,NaN,-0.5585601,-14.1717,NaN,-2.135638,-1.460545,-0.2672096,14.14584,NaN,NaN,-0.01976892,0.8061389,4.265057E-06,1.020627,4.031309E-09,1.431186
329.7272,0.04500399,0.0005512418,NaN,-0.3269998,0.0003003982,NaN,-0.5734719,-14.17231,NaN,-2.135631,-1.45748,-0.2668768,14.14269,NaN,NaN,-0.01976836,0.8055393,4.286068E-06,1.016184,6.415494E-09,1.431868
329.7421,0.045004,0.0005517997,NaN,-0.3269998,0.0003011475,NaN,-0.5881693,-14.1719,NaN,-2.135629,-1.457494,-0.2665838,14.14265,NaN,NaN,-0.0197679,0.8059368,4.304247E-06,1.016201,8.79968E-09,1.430016
329.7572,0.045004,0.0005517997,NaN,-0.3269998,0.0003011475,NaN,-0.5881693,-14.1719,NaN,-2.135629,-1.457494,-0.2665838,14.14265,NaN,NaN,-0.0197679,0.8059368,4.304247E-06,1.016201,8.79968E-09,1.430016
329.7718,0.045004,0.0005522972,NaN,-0.3269998,0.0003011696,NaN,-0.6026552,-14.17312,NaN,-2.135632,-1.46661,-0.2663294,14.15226,NaN,NaN,-0.01976752,0.8046545,4.321384E-06,1.029352,1.118387E-08,1.44037
329.7873,0.04500401,0.0005524936,NaN,-0.3269998,0.0003007778,NaN,-0.6169325,-14.1737,NaN,-2.135641,-1.469016,-0.2661124,14.15481,NaN,NaN,-0.01976724,0.8040211,4.33405E-06,1.032805,1.118387E-08,1.443362
329.8022,0.04500402,0.0005529879,NaN,-0.3269998,0.000300534,NaN,-0.6310042,-14.17289,NaN,-2.135655,-1.468698,-0.2659315,14.15439,NaN,NaN,-0.01976704,0.8048204,4.347908E-06,1.032362,8.799681E-09,1.43873
329.8172,0.04500402,0.0005529879,NaN,-0.3269998,0.000300534,NaN,-0.6310042,-14.17289,NaN,-2.135655,-1.468698,-0.2659315,14.15439,NaN,NaN,-0.01976704,0.8048204,4.347908E-06,1.032362,8.799681E-09,1.43873
329.8312,0.04500403,0.0005528298,NaN,-0.3269998,0.0003005703,NaN,-0.6448731,-14.17241,NaN,-2.135674,-1.458207,-0.2657856,14.14343,NaN,NaN,-0.01976692,0.8054444,4.360127E-06,1.017235,1.118387E-08,1.433956
329.8479,0.04500403,0.0005532812,NaN,-0.3269998,0.0003011042,NaN,-0.6585419,-14.17174,NaN,-2.135697,-1.457938,-0.2656734,14.14308,NaN,NaN,-0.01976687,0.8060883,4.369664E-06,1.016852,6.415495E-09,1.429297
329.8618,0.04500404,0.0005536875,NaN,-0.3269998,0.0003009837,NaN,-0.6720135,-14.17301,NaN,-2.135725,-1.466617,-0.2655938,14.15225,NaN,NaN,-0.01976691,0.804754,4.375326E-06,1.029377,8.799681E-09,1.439802
329.8772,0.04500404,0.0005536875,NaN,-0.3269998,0.0003009837,NaN,-0.6720135,-14.17301,NaN,-2.135725,-1.466617,-0.2655938,14.15225,NaN,NaN,-0.01976691,0.804754,4.375326E-06,1.029377,8.799681E-09,1.439802
329.891,0.04500404,0.0005535139,NaN,-0.3269998,0.0003004985,NaN,-0.6852905,-14.17256,NaN,-2.135758,-1.466547,-0.2655458,14.15212,NaN,NaN,-0.01976702,0.8051564,4.383671E-06,1.029273,4.03131E-09,1.436228
329.9066,0.04500405,0.0005528685,NaN,-0.3269998,0.0003003211,NaN,-0.6983758,-14.17183,NaN,-2.135795,-1.458859,-0.2655281,14.14404,NaN,NaN,-0.01976719,0.8059581,4.386651E-06,1.018185,6.415495E-09,1.43153
329.9216,0.04500405,0.0005529159,NaN,-0.3269998,0.0003007744,NaN,-0.7112719,-14.17217,NaN,-2.135836,-1.457909,-0.2655399,14.14306,NaN,NaN,-0.01976742,0.8055983,4.389482E-06,1.0168,6.415495E-09,1.431668
329.9365,0.04500405,0.0005529159,NaN,-0.3269998,0.0003007744,NaN,-0.7112719,-14.17217,NaN,-2.135836,-1.457909,-0.2655399,14.14306,NaN,NaN,-0.01976742,0.8055983,4.389482E-06,1.0168,6.415495E-09,1.431668
329.9508,0.04500405,0.0005527759,NaN,-0.3269998,0.0003011504,NaN,-0.7239815,-14.17182,NaN,-2.135881,-1.456245,-0.2655801,14.14128,NaN,NaN,-0.01976772,0.805938,4.387545E-06,1.014394,1.647124E-09,1.428584
329.9663,0.04500406,0.0005517848,NaN,-0.3269998,0.0003004176,NaN,-0.7365072,-14.17282,NaN,-2.13593,-1.456437,-0.2656477,14.14158,NaN,NaN,-0.01976808,0.8049177,4.385832E-06,1.01466,-7.37062E-10,1.433148
329.9814,0.04500406,0.0005504245,NaN,-0.3269998,0.0002994832,NaN,-0.7488515,-14.17336,NaN,-2.135983,-1.4611,-0.2657417,14.14648,NaN,NaN,-0.0197685,0.8043507,4.383E-06,1.021382,6.415495E-09,1.439971
329.9964,0.04500406,0.0005504245,NaN,-0.3269998,0.0002994832,NaN,-0.7488515,-14.17336,NaN,-2.135983,-1.4611,-0.2657417,14.14648,NaN,NaN,-0.0197685,0.8043507,4.383E-06,1.021382,6.415495E-09,1.439971
330.0107,0.04500407,0.0005490176,NaN,-0.3269998,0.0002989385,NaN,-0.7610171,-14.17265,NaN,-2.136039,-1.457397,-0.2658612,14.14256,NaN,NaN,-0.01976898,0.8050766,4.379424E-06,1.016049,4.03131E-09,1.4364
330.0264,0.04500407,0.0005478523,NaN,-0.3269998,0.0002979902,NaN,-0.7730063,-14.17322,NaN,-2.136098,-1.468159,-0.2660052,14.1538,NaN,NaN,-0.01976951,0.8044419,4.373539E-06,1.031571,-7.37062E-10,1.439047
330.0411,0.04500407,0.0005469511,NaN,-0.3269998,0.0002979685,NaN,-0.7848217,-14.17254,NaN,-2.136161,-1.457877,-0.266173,14.14305,NaN,NaN,-0.01977008,0.8052586,4.370111E-06,1.016756,1.647124E-09,1.433359
330.0572,0.04500407,0.0005469511,NaN,-0.3269998,0.0002979685,NaN,-0.7848217,-14.17254,NaN,-2.136161,-1.457877,-0.266173,14.14305,NaN,NaN,-0.01977008,0.8052586,4.370111E-06,1.016756,1.647124E-09,1.433359
330.0704,0.04500408,0.000546954,NaN,-0.3269998,0.0002977599,NaN,-0.7964658,-14.17303,NaN,-2.136227,-1.467016,-0.2663635,14.1526,NaN,NaN,-0.01977071,0.8047069,4.36117E-06,1.029937,4.03131E-09,1.441687
330.0859,0.04500408,0.0005471363,NaN,-0.3269998,0.0002973859,NaN,-0.8079408,-14.17395,NaN,-2.136296,-1.468797,-0.2665761,14.15452,NaN,NaN,-0.01977138,0.8037217,4.354241E-06,1.032474,1.647124E-09,1.444677
330.1006,0.04500408,0.0005467714,NaN,-0.3269998,0.0002973137,NaN,-0.8192492,-14.17271,NaN,-2.136369,-1.459082,-0.2668098,14.14431,NaN,NaN,-0.0197721,0.8050849,4.343215E-06,1.018492,6.415495E-09,1.436485
330.1156,0.04500408,0.0005467714,NaN,-0.3269998,0.0002973137,NaN,-0.8192492,-14.17271,NaN,-2.136369,-1.459082,-0.2668098,14.14431,NaN,NaN,-0.0197721,0.8050849,4.343215E-06,1.018492,6.415495E-09,1.436485
330.1298,0.04500409,0.0005462283,NaN,-0.3269998,0.00029718,NaN,-0.8303934,-14.17291,NaN,-2.136444,-1.46051,-0.2670639,14.1458,NaN,NaN,-0.01977286,0.8048568,4.33189E-06,1.020542,4.03131E-09,1.437387
330.1471,0.04500409,0.0005459953,NaN,-0.3269998,0.0002966686,NaN,-0.8413756,-14.17393,NaN,-2.136521,-1.46913,-0.2673375,14.15485,NaN,NaN,-0.01977367,0.80374,4.320341E-06,1.032956,4.03131E-09,1.446334
330.1604,0.0450041,0.0005464188,NaN,-0.3269998,0.0002971668,NaN,-0.8521982,-14.17326,NaN,-2.136602,-1.460606,-0.26763,14.14593,NaN,NaN,-0.01977451,0.8045304,4.30924E-06,1.020678,1.647124E-09,1.43882
330.1756,0.0450041,0.0005464188,NaN,-0.3269998,0.0002971668,NaN,-0.8521982,-14.17326,NaN,-2.136602,-1.460606,-0.26763,14.14593,NaN,NaN,-0.01977451,0.8045304,4.30924E-06,1.020678,1.647124E-09,1.43882
330.1898,0.0450041,0.0005463948,NaN,-0.3269998,0.0002974066,NaN,-0.8628634,-14.17247,NaN,-2.136685,-1.45913,-0.2679406,14.1443,NaN,NaN,-0.0197754,0.8053041,4.298958E-06,1.018552,4.03131E-09,1.434178
330.2054,0.0450041,0.0005463906,NaN,-0.3269998,0.0002974334,NaN,-0.8733734,-14.17366,NaN,-2.13677,-1.46378,-0.2682686,14.14925,NaN,NaN,-0.01977632,0.8040711,4.285026E-06,1.025244,4.03131E-09,1.441309
330.2206,0.0450041,0.000546873,NaN,-0.3269998,0.000297302,NaN,-0.8837304,-14.17353,NaN,-2.136858,-1.469062,-0.2686133,14.1547,NaN,NaN,-0.01977727,0.8041223,4.269827E-06,1.032852,8.799681E-09,1.443695
330.2353,0.0450041,0.000546873,NaN,-0.3269998,0.000297302,NaN,-0.8837304,-14.17353,NaN,-2.136858,-1.469062,-0.2686133,14.1547,NaN,NaN,-0.01977727,0.8041223,4.269827E-06,1.032852,8.799681E-09,1.443695
330.2495,0.0450041,0.0005476862,NaN,-0.3269998,0.0002972785,NaN,-0.8939366,-14.17382,NaN,-2.136948,-1.46938,-0.268974,14.15504,NaN,NaN,-0.01977826,0.8038036,4.25649E-06,1.033296,8.799681E-09,1.445123
330.2662,0.0450041,0.0005480032,NaN,-0.3269998,0.0002977044,NaN,-0.9039942,-14.17253,NaN,-2.13704,-1.459127,-0.2693501,14.14428,NaN,NaN,-0.01977927,0.8052377,4.23913E-06,1.018545,1.118387E-08,1.433776
330.2801,0.0450041,0.0005485012,NaN,-0.3269998,0.000298052,NaN,-0.9139052,-14.17349,NaN,-2.137134,-1.46218,-0.2697409,14.14754,NaN,NaN,-0.01978032,0.8042426,4.220653E-06,1.022933,8.799681E-09,1.440735
330.2949,0.0450041,0.0005485012,NaN,-0.3269998,0.000298052,NaN,-0.9139052,-14.17349,NaN,-2.137134,-1.46218,-0.2697409,14.14754,NaN,NaN,-0.01978032,0.8042426,4.220653E-06,1.022933,8.799681E-09,1.440735
330.3091,0.0450041,0.0005490592,NaN,-0.3269998,0.0002979142,NaN,-0.9236717,-14.17318,NaN,-2.13723,-1.468972,-0.2701458,14.15455,NaN,NaN,-0.0197814,0.8044772,4.202399E-06,1.032724,1.356805E-08,1.44309
330.3249,0.0450041,0.000548703,NaN,-0.3269998,0.0002970425,NaN,-0.9332958,-14.1724,NaN,-2.137328,-1.471579,-0.2705642,14.15718,NaN,NaN,-0.0197825,0.8051789,4.182134E-06,1.036496,1.595224E-08,1.441676
330.3396,0.0450041,0.000548703,NaN,-0.3269998,0.0002970425,NaN,-0.9332958,-14.1724,NaN,-2.137328,-1.471579,-0.2705642,14.15718,NaN,NaN,-0.0197825,0.8051789,4.182134E-06,1.036496,1.595224E-08,1.441676
330.3541,0.0450041,0.0005490395,NaN,-0.3269998,0.0002976443,NaN,-0.9427795,-14.17262,NaN,-2.137428,-1.459339,-0.2709955,14.14445,NaN,NaN,-0.01978363,0.8051656,4.163656E-06,1.018822,8.799681E-09,1.434644
330.3698,0.0450041,0.0005493396,NaN,-0.3269998,0.0002974413,NaN,-0.9521248,-14.17325,NaN,-2.137529,-1.468335,-0.2714392,14.15385,NaN,NaN,-0.01978478,0.8044561,4.142199E-06,1.031789,8.799681E-09,1.440605
330.3845,0.0450041,0.0005495846,NaN,-0.3269998,0.0002978866,NaN,-0.9613336,-14.17254,NaN,-2.137632,-1.458907,-0.2718946,14.14397,NaN,NaN,-0.01978595,0.8052791,4.121262E-06,1.018197,6.415495E-09,1.433645
330.3994,0.0450041,0.0005495846,NaN,-0.3269998,0.0002978866,NaN,-0.9613336,-14.17254,NaN,-2.137632,-1.458907,-0.2718946,14.14397,NaN,NaN,-0.01978595,0.8052791,4.121262E-06,1.018197,6.415495E-09,1.433645
330.4138,0.0450041,0.0005493905,NaN,-0.3269998,0.0002980659,NaN,-0.970408,-14.17264,NaN,-2.137737,-1.459572,-0.2723614,14.14465,NaN,NaN,-0.01978715,0.8051338,4.100923E-06,1.019141,4.03131E-09,1.434022
330.4292,0.0450041,0.0005494501,NaN,-0.3269998,0.000298194,NaN,-0.9793499,-14.17353,NaN,-2.137843,-1.462866,-0.2728388,14.14815,NaN,NaN,-0.01978837,0.8042024,4.078869E-06,1.023875,6.415495E-09,1.440024
330.4443,0.0450041,0.0005496032,NaN,-0.3269998,0.0002978628,NaN,-0.988161,-14.17345,NaN,-2.137951,-1.46927,-0.2733265,14.15478,NaN,NaN,-0.01978961,0.8041877,4.056517E-06,1.033099,4.03131E-09,1.441426
330.4591,0.0450041,0.0005496032,NaN,-0.3269998,0.0002978628,NaN,-0.988161,-14.17345,NaN,-2.137951,-1.46927,-0.2733265,14.15478,NaN,NaN,-0.01978961,0.8041877,4.056517E-06,1.033099,4.03131E-09,1.441426
330.4745,0.0450041,0.0005500715,NaN,-0.3269998,0.0002978672,NaN,-0.9968433,-14.17393,NaN,-2.13806,-1.467133,-0.273824,14.15258,NaN,NaN,-0.01979087,0.8037094,4.032079E-06,1.029994,-7.37062E-10,1.444162
330.4891,0.0450041,0.0005503833,NaN,-0.3269998,0.0002983238,NaN,-1.005399,-14.17255,NaN,-2.13817,-1.458951,-0.2743307,14.14394,NaN,NaN,-0.01979215,0.8051762,4.008386E-06,1.018222,1.647124E-09,1.433399
330.5037,0.0450041,0.0005505732,NaN,-0.3269998,0.0002985327,NaN,-1.013829,-14.17334,NaN,-2.138282,-1.461401,-0.2748462,14.14655,NaN,NaN,-0.01979344,0.8043442,3.984022E-06,1.021736,4.03131E-09,1.438159
330.5189,0.0450041,0.0005505732,NaN,-0.3269998,0.0002985327,NaN,-1.013829,-14.17334,NaN,-2.138282,-1.461401,-0.2748462,14.14655,NaN,NaN,-0.01979344,0.8043442,3.984022E-06,1.021736,4.03131E-09,1.438159
330.5328,0.0450041,0.0005509834,NaN,-0.3269998,0.000298335,NaN,-1.022136,-14.17361,NaN,-2.138394,-1.469346,-0.27537,14.15481,NaN,NaN,-0.01979475,0.8039782,3.959733E-06,1.033175,6.415495E-09,1.443751
330.5486,0.0450041,0.000551135,NaN,-0.3269998,0.0002987279,NaN,-1.030321,-14.17261,NaN,-2.138508,-1.458591,-0.2759017,14.14355,NaN,NaN,-0.01979608,0.8051391,3.933806E-06,1.017691,8.799681E-09,1.433617
330.5634,0.04500409,0.000550931,NaN,-0.3269998,0.0002982708,NaN,-1.038386,-14.17363,NaN,-2.138623,-1.469234,-0.2764409,14.15471,NaN,NaN,-0.01979742,0.8040451,3.907878E-06,1.033031,1.118387E-08,1.44062
330.5786,0.04500409,0.000550931,NaN,-0.3269998,0.0002982708,NaN,-1.038386,-14.17363,NaN,-2.138623,-1.469234,-0.2764409,14.15471,NaN,NaN,-0.01979742,0.8040451,3.907878E-06,1.033031,1.118387E-08,1.44062
330.5929,0.04500409,0.0005507167,NaN,-0.3269998,0.0002978735,NaN,-1.046334,-14.17409,NaN,-2.138739,-1.467195,-0.2769872,14.15261,NaN,NaN,-0.01979877,0.8035998,3.882173E-06,1.030072,1.118387E-08,1.444221
330.6096,0.04500408,0.0005509154,NaN,-0.3269998,0.0002974286,NaN,-1.054165,-14.17383,NaN,-2.138856,-1.470014,-0.2775402,14.1555,NaN,NaN,-0.01980014,0.8038075,3.8555E-06,1.034131,1.356805E-08,1.445224
330.6237,0.04500408,0.0005511813,NaN,-0.3269998,0.0002972053,NaN,-1.061881,-14.17339,NaN,-2.138973,-1.466424,-0.2780994,14.15172,NaN,NaN,-0.01980152,0.8042862,3.828827E-06,1.028961,8.79968E-09,1.440705
330.6385,0.04500408,0.0005511813,NaN,-0.3269998,0.0002972053,NaN,-1.061881,-14.17339,NaN,-2.138973,-1.466424,-0.2780994,14.15172,NaN,NaN,-0.01980152,0.8042862,3.828827E-06,1.028961,8.79968E-09,1.440705
330.6526,0.04500408,0.0005512272,NaN,-0.3269998,0.0002973281,NaN,-1.069484,-14.17231,NaN,-2.139092,-1.460609,-0.2786645,14.14557,NaN,NaN,-0.01980291,0.8054252,3.802452E-06,1.020593,6.415494E-09,1.434292
330.6691,0.04500407,0.0005508421,NaN,-0.3269998,0.0002975583,NaN,-1.076975,-14.17248,NaN,-2.139211,-1.457166,-0.2792352,14.14199,NaN,NaN,-0.0198043,0.805268,3.775481E-06,1.015615,6.415494E-09,1.433504
330.6833,0.04500407,0.0005509609,NaN,-0.3269998,0.0002973784,NaN,-1.084357,-14.17349,NaN,-2.139331,-1.467649,-0.279811,14.153,NaN,NaN,-0.01980571,0.8041999,3.748062E-06,1.03073,4.031309E-09,1.442747
330.6978,0.04500407,0.0005509609,NaN,-0.3269998,0.0002973784,NaN,-1.084357,-14.17349,NaN,-2.139331,-1.467649,-0.279811,14.153,NaN,NaN,-0.01980571,0.8041999,3.748062E-06,1.03073,4.031309E-09,1.442747
330.7119,0.04500407,0.0005505772,NaN,-0.3269998,0.000297396,NaN,-1.09163,-14.17249,NaN,-2.139452,-1.45901,-0.2803917,14.14392,NaN,NaN,-0.01980713,0.8053076,3.720048E-06,1.01829,4.031309E-09,1.436185
330.7274,0.04500406,0.0005505856,NaN,-0.3269998,0.0002977108,NaN,-1.098797,-14.1725,NaN,-2.139573,-1.460053,-0.2809768,14.14499,NaN,NaN,-0.01980856,0.80527,3.693524E-06,1.01979,-7.370629E-10,1.435424
330.7424,0.04500406,0.0005510558,NaN,-0.3269998,0.0002975938,NaN,-1.105858,-14.17297,NaN,-2.139694,-1.468255,-0.2815662,14.15356,NaN,NaN,-0.01980999,0.8047183,3.664914E-06,1.031616,-7.370629E-10,1.440744
330.7573,0.04500406,0.0005510558,NaN,-0.3269998,0.0002975938,NaN,-1.105858,-14.17297,NaN,-2.139694,-1.468255,-0.2815662,14.15356,NaN,NaN,-0.01980999,0.8047183,3.664914E-06,1.031616,-7.370629E-10,1.440744
330.7717,0.04500405,0.0005512189,NaN,-0.3269998,0.0002979905,NaN,-1.112816,-14.17227,NaN,-2.139817,-1.45861,-0.2821594,14.14347,NaN,NaN,-0.01981143,0.8055389,3.637198E-06,1.017715,1.647123E-09,1.432863
330.7875,0.04500405,0.0005508321,NaN,-0.3269998,0.0002977675,NaN,-1.119671,-14.17287,NaN,-2.13994,-1.464616,-0.2827561,14.14977,NaN,NaN,-0.01981288,0.8048855,3.609631E-06,1.026373,-3.121249E-09,1.438042
330.8022,0.04500405,0.0005501637,NaN,-0.3269998,0.0002969605,NaN,-1.126426,-14.17236,NaN,-2.140063,-1.470807,-0.2833561,14.15615,NaN,NaN,-0.01981433,0.8052932,3.580424E-06,1.035308,-5.505434E-09,1.436969
330.8172,0.04500405,0.0005501637,NaN,-0.3269998,0.0002969605,NaN,-1.126426,-14.17236,NaN,-2.140063,-1.470807,-0.2833561,14.15615,NaN,NaN,-0.01981433,0.8052932,3.580424E-06,1.035308,-5.505434E-09,1.436969
330.8315,0.04500404,0.000549768,NaN,-0.3269998,0.0002972373,NaN,-1.133082,-14.17236,NaN,-2.140187,-1.458934,-0.2839591,14.14378,NaN,NaN,-0.01981579,0.8055007,3.551665E-06,1.018169,-7.370629E-10,1.43413
330.8473,0.04500404,0.0005494964,NaN,-0.3269998,0.0002976069,NaN,-1.13964,-14.17299,NaN,-2.140311,-1.457996,-0.2845648,14.14286,NaN,NaN,-0.01981725,0.8048695,3.523949E-06,1.016804,-3.121249E-09,1.436078
330.862,0.04500404,0.0005497611,NaN,-0.3269998,0.0002974227,NaN,-1.146101,-14.17338,NaN,-2.140435,-1.468178,-0.2851729,14.15347,NaN,NaN,-0.01981872,0.8044295,3.495637E-06,1.031485,-7.88962E-09,1.442591
330.8779,0.04500404,0.0005497611,NaN,-0.3269998,0.0002974227,NaN,-1.146101,-14.17338,NaN,-2.140435,-1.468178,-0.2851729,14.15347,NaN,NaN,-0.01981872,0.8044295,3.495637E-06,1.031485,-7.88962E-09,1.442591
330.8922,0.04500403,0.0005502545,NaN,-0.3269998,0.0002975811,NaN,-1.152467,-14.17412,NaN,-2.14056,-1.465329,-0.2857832,14.15056,NaN,NaN,-0.01982019,0.8037136,3.465238E-06,1.027352,-7.88962E-09,1.444316
330.9069,0.04500403,0.0005504268,NaN,-0.3269998,0.0002979919,NaN,-1.15874,-14.17266,NaN,-2.140685,-1.458187,-0.2863955,14.143,NaN,NaN,-0.01982166,0.8052487,3.436628E-06,1.017082,-7.88962E-09,1.433104
330.9216,0.04500403,0.0005504529,NaN,-0.3269998,0.0002976861,NaN,-1.16492,-14.17291,NaN,-2.14081,-1.468025,-0.2870094,14.15325,NaN,NaN,-0.01982314,0.8049241,3.405932E-06,1.03127,-5.505434E-09,1.43713
330.9365,0.04500403,0.0005504529,NaN,-0.3269998,0.0002976861,NaN,-1.16492,-14.17291,NaN,-2.14081,-1.468025,-0.2870094,14.15325,NaN,NaN,-0.01982314,0.8049241,3.405932E-06,1.03127,-5.505434E-09,1.43713
330.9506,0.04500402,0.0005501754,NaN,-0.3269998,0.0002978995,NaN,-1.17101,-14.17245,NaN,-2.140935,-1.458115,-0.2876247,14.14289,NaN,NaN,-0.01982462,0.8055138,3.375384E-06,1.016976,-7.88962E-09,1.432749
330.9661,0.04500402,0.000550528,NaN,-0.3269998,0.0002977392,NaN,-1.17701,-14.17287,NaN,-2.141061,-1.467851,-0.2882412,14.15305,NaN,NaN,-0.0198261,0.8050117,3.346327E-06,1.031018,-1.02738E-08,1.440428
330.981,0.04500401,0.0005504311,NaN,-0.3269998,0.0002979727,NaN,-1.182921,-14.17209,NaN,-2.141186,-1.458411,-0.2888588,14.14315,NaN,NaN,-0.01982758,0.8059065,3.316972E-06,1.017406,-1.02738E-08,1.431976
330.9964,0.04500401,0.0005504311,NaN,-0.3269998,0.0002979727,NaN,-1.182921,-14.17209,NaN,-2.141186,-1.458411,-0.2888588,14.14315,NaN,NaN,-0.01982758,0.8059065,3.316972E-06,1.017406,-1.02738E-08,1.431976
331.0106,0.04500401,0.0005501016,NaN,-0.3269998,0.0002974876,NaN,-1.188745,-14.17225,NaN,-2.141312,-1.468591,-0.2894771,14.15376,NaN,NaN,-0.01982906,0.8056659,3.285531E-06,1.032097,-1.02738E-08,1.434114
331.0262,0.04500401,0.0005491219,NaN,-0.3269998,0.0002964751,NaN,-1.194484,-14.17265,NaN,-2.141438,-1.471384,-0.290096,14.15668,NaN,NaN,-0.01983054,0.8051878,3.255877E-06,1.036112,-1.02738E-08,1.441792
331.0411,0.045004,0.0005487047,NaN,-0.3269998,0.000296778,NaN,-1.200138,-14.17209,NaN,-2.141563,-1.45949,-0.2907152,14.14425,NaN,NaN,-0.01983202,0.8059345,3.225926E-06,1.018958,-1.02738E-08,1.43252
331.0562,0.045004,0.0005487047,NaN,-0.3269998,0.000296778,NaN,-1.200138,-14.17209,NaN,-2.141563,-1.45949,-0.2907152,14.14425,NaN,NaN,-0.01983202,0.8059345,3.225926E-06,1.018958,-1.02738E-08,1.43252
331.0716,0.045004,0.000548625,NaN,-0.3269998,0.0002971473,NaN,-1.205709,-14.17291,NaN,-2.141689,-1.45955,-0.2913347,14.14438,NaN,NaN,-0.01983351,0.8051093,3.195975E-06,1.019028,-7.88962E-09,1.436422
331.0868,0.04500399,0.0005487996,NaN,-0.3269998,0.0002970781,NaN,-1.211197,-14.17357,NaN,-2.141815,-1.466842,-0.2919541,14.15202,NaN,NaN,-0.01983499,0.8043937,3.165427E-06,1.029538,-1.02738E-08,1.442373
331.1019,0.04500398,0.0005492548,NaN,-0.3269998,0.0002968865,NaN,-1.216605,-14.17328,NaN,-2.141941,-1.470341,-0.2925734,14.15562,NaN,NaN,-0.01983647,0.8046239,3.134582E-06,1.034584,-1.02738E-08,1.442475
331.1155,0.04500398,0.0005492548,NaN,-0.3269998,0.0002968865,NaN,-1.216605,-14.17328,NaN,-2.141941,-1.470341,-0.2925734,14.15562,NaN,NaN,-0.01983647,0.8046239,3.134582E-06,1.034584,-1.02738E-08,1.442475
331.1296,0.04500397,0.0005495919,NaN,-0.3269998,0.0002971983,NaN,-1.221933,-14.17245,NaN,-2.142066,-1.461883,-0.2931923,14.14675,NaN,NaN,-0.01983795,0.8055905,3.103736E-06,1.022404,-5.505433E-09,1.434108
331.1452,0.04500397,0.000550052,NaN,-0.3269998,0.0002970423,NaN,-1.227182,-14.17332,NaN,-2.142192,-1.46923,-0.2938107,14.15448,NaN,NaN,-0.01983943,0.8046501,3.073189E-06,1.032994,-3.121248E-09,1.442152
331.1601,0.04500396,0.0005498229,NaN,-0.3269998,0.0002962764,NaN,-1.232354,-14.17131,NaN,-2.142317,-1.470077,-0.2944284,14.15518,NaN,NaN,-0.0198409,0.806618,3.042492E-06,1.034261,-7.88962E-09,1.434699
331.1752,0.04500396,0.0005498229,NaN,-0.3269998,0.0002962764,NaN,-1.232354,-14.17131,NaN,-2.142317,-1.470077,-0.2944284,14.15518,NaN,NaN,-0.0198409,0.806618,3.042492E-06,1.034261,-7.88962E-09,1.434699
331.1894,0.04500395,0.0005492196,NaN,-0.3269998,0.0002953141,NaN,-1.23745,-14.17262,NaN,-2.142442,-1.46999,-0.2950453,14.15519,NaN,NaN,-0.01984238,0.80529,3.011647E-06,1.034106,-7.88962E-09,1.438259
331.2052,0.04500394,0.0005489543,NaN,-0.3269998,0.0002954576,NaN,-1.24247,-14.17162,NaN,-2.142567,-1.459132,-0.2956611,14.1438,NaN,NaN,-0.01984385,0.8064437,2.982292E-06,1.018459,-1.265799E-08,1.430012
331.2201,0.04500394,0.0005489879,NaN,-0.3269998,0.0002955009,NaN,-1.247416,-14.17319,NaN,-2.142692,-1.463702,-0.2962764,14.14872,NaN,NaN,-0.01984532,0.8048282,2.952638E-06,1.025039,-1.504218E-08,1.439185
331.235,0.04500394,0.0005489879,NaN,-0.3269998,0.0002955009,NaN,-1.247416,-14.17319,NaN,-2.142692,-1.463702,-0.2962764,14.14872,NaN,NaN,-0.01984532,0.8048282,2.952638E-06,1.025039,-1.504218E-08,1.439185
331.2491,0.04500393,0.0005484424,NaN,-0.3269998,0.0002947128,NaN,-1.252288,-14.17181,NaN,-2.142817,-1.470952,-0.2968903,14.15612,NaN,NaN,-0.01984679,0.8060902,2.920601E-06,1.035516,-1.265799E-08,1.436038
331.265,0.04500392,0.0005481662,NaN,-0.3269998,0.0002942895,NaN,-1.257088,-14.17341,NaN,-2.142941,-1.467468,-0.2975027,14.15261,NaN,NaN,-0.01984825,0.80453,2.890798E-06,1.030438,-1.027381E-08,1.440558
331.2797,0.04500392,0.0005481662,NaN,-0.3269998,0.0002942895,NaN,-1.257088,-14.17341,NaN,-2.142941,-1.467468,-0.2975027,14.15261,NaN,NaN,-0.01984825,0.80453,2.890798E-06,1.030438,-1.027381E-08,1.440558
331.2961,0.04500392,0.0005475046,NaN,-0.3269998,0.0002941811,NaN,-1.261055,-14.1723,NaN,-2.143135,-1.458418,-0.2990229,14.1431,NaN,NaN,-0.0198521,0.8057466,2.815101E-06,1.017409,-1.027381E-08,1.436217
331.3096,0.04500391,0.0005471017,NaN,-0.3269998,0.0002941758,NaN,-1.264112,-14.1723,NaN,-2.143343,-1.461883,-0.3003797,14.1467,NaN,NaN,-0.0198555,0.8057121,2.749088E-06,1.022411,-5.505435E-09,1.433204
331.3246,0.0450039,0.0005470273,NaN,-0.3269998,0.0002946705,NaN,-1.266662,-14.17243,NaN,-2.143543,-1.457431,-0.3015209,14.14207,NaN,NaN,-0.01985833,0.8056033,2.694252E-06,1.01598,-5.505435E-09,1.43479
331.3391,0.0450039,0.0005470273,NaN,-0.3269998,0.0002946705,NaN,-1.266662,-14.17243,NaN,-2.143543,-1.457431,-0.3015209,14.14207,NaN,NaN,-0.01985833,0.8056033,2.694252E-06,1.01598,-5.505435E-09,1.43479
331.3534,0.04500389,0.0005468981,NaN,-0.3269998,0.0002944178,NaN,-1.268958,-14.1731,NaN,-2.143732,-1.468407,-0.3025358,14.15356,NaN,NaN,-0.01986083,0.8048729,2.644035E-06,1.031818,-7.889621E-09,1.439751
331.369,0.04500388,0.0005467883,NaN,-0.3269998,0.0002939983,NaN,-1.270364,-14.17312,NaN,-2.143981,-1.46926,-0.3043932,14.15444,NaN,NaN,-0.01986559,0.8048176,2.554107E-06,1.033042,-1.027381E-08,1.439927
331.3838,0.04500387,0.0005468134,NaN,-0.3269998,0.0002942285,NaN,-1.270856,-14.172,NaN,-2.14424,-1.461835,-0.3060533,14.14661,NaN,NaN,-0.0198698,0.8060348,2.474013E-06,1.022352,-1.504218E-08,1.432981
331.3988,0.04500387,0.0005468134,NaN,-0.3269998,0.0002942285,NaN,-1.270856,-14.172,NaN,-2.14424,-1.461835,-0.3060533,14.14661,NaN,NaN,-0.0198698,0.8060348,2.474013E-06,1.022352,-1.504218E-08,1.432981
331.4131,0.04500386,0.0005471015,NaN,-0.3269998,0.0002940689,NaN,-1.270859,-14.17289,NaN,-2.144487,-1.468156,-0.3074763,14.15328,NaN,NaN,-0.01987339,0.805081,2.40517E-06,1.031465,-1.504218E-08,1.439378
331.4287,0.04500385,0.0005474132,NaN,-0.3269998,0.0002937416,NaN,-1.270638,-14.17307,NaN,-2.144718,-1.469177,-0.3087572,14.15433,NaN,NaN,-0.0198766,0.8048583,2.343405E-06,1.032922,-1.981055E-08,1.439615
331.4439,0.04500384,0.0005475305,NaN,-0.3269998,0.000294031,NaN,-1.26956,-14.17152,NaN,-2.145008,-1.459224,-0.3108673,14.14382,NaN,NaN,-0.01988207,0.8065274,2.241034E-06,1.018584,-1.742636E-08,1.429817
331.4588,0.04500384,0.0005475305,NaN,-0.3269998,0.000294031,NaN,-1.26956,-14.17152,NaN,-2.145008,-1.459224,-0.3108673,14.14382,NaN,NaN,-0.01988207,0.8065274,2.241034E-06,1.018584,-1.742636E-08,1.429817
331.4731,0.04500383,0.0005479405,NaN,-0.3269998,0.0002938558,NaN,-1.267605,-14.17271,NaN,-2.145308,-1.467988,-0.3127703,14.15306,NaN,NaN,-0.01988697,0.8052413,2.148423E-06,1.031218,-1.742636E-08,1.439402
331.4885,0.04500382,0.0005479422,NaN,-0.3269998,0.0002938243,NaN,-1.265194,-14.17223,NaN,-2.145593,-1.462122,-0.3144256,14.14688,NaN,NaN,-0.01989121,0.8057658,2.068702E-06,1.022741,-1.981055E-08,1.435424
331.5045,0.04500381,0.0005472883,NaN,-0.3269998,0.0002936069,NaN,-1.262592,-14.17288,NaN,-2.145862,-1.45969,-0.3159286,14.14438,NaN,NaN,-0.01989505,0.8051054,1.996394E-06,1.019203,-1.742636E-08,1.436066
331.5184,0.04500381,0.0005472883,NaN,-0.3269998,0.0002936069,NaN,-1.262592,-14.17288,NaN,-2.145862,-1.45969,-0.3159286,14.14438,NaN,NaN,-0.01989505,0.8051054,1.996394E-06,1.019203,-1.742636E-08,1.436066
331.5338,0.04500379,0.0005474655,NaN,-0.3269998,0.0002933751,NaN,-1.25917,-14.17261,NaN,-2.146188,-1.467579,-0.3182502,14.15253,NaN,NaN,-0.01990115,0.8052866,1.882959E-06,1.030575,-1.742636E-08,1.43851
331.5479,0.04500378,0.0005475991,NaN,-0.3269998,0.0002929129,NaN,-1.254904,-14.17302,NaN,-2.146524,-1.469295,-0.3203571,14.15433,NaN,NaN,-0.01990666,0.8048057,1.782674E-06,1.033028,-1.742636E-08,1.439092
331.5628,0.04500376,0.0005474192,NaN,-0.3269998,0.0002930211,NaN,-1.250217,-14.17177,NaN,-2.146845,-1.45884,-0.3222072,14.14333,NaN,NaN,-0.01991148,0.8061785,1.693462E-06,1.017963,-1.504218E-08,1.432813
331.5778,0.04500376,0.0005474192,NaN,-0.3269998,0.0002930211,NaN,-1.250217,-14.17177,NaN,-2.146845,-1.45884,-0.3222072,14.14333,NaN,NaN,-0.01991148,0.8061785,1.693462E-06,1.017963,-1.504218E-08,1.432813
331.5922,0.04500375,0.0005473036,NaN,-0.3269998,0.0002933626,NaN,-1.244617,-14.17228,NaN,-2.147221,-1.457412,-0.3248036,14.14188,NaN,NaN,-0.0199184,0.8056478,1.567999E-06,1.015884,-1.504218E-08,1.430455
331.6076,0.04500374,0.0005469424,NaN,-0.3269998,0.0002931036,NaN,-1.238149,-14.17365,NaN,-2.147602,-1.465689,-0.3271466,14.15063,NaN,NaN,-0.01992462,0.8042117,1.460134E-06,1.027816,-1.742636E-08,1.440437
331.6228,0.04500372,0.0005464285,NaN,-0.3269998,0.0002927127,NaN,-1.231265,-14.17359,NaN,-2.147964,-1.465772,-0.3292099,14.15069,NaN,NaN,-0.01993009,0.8042472,1.362177E-06,1.027927,-1.504218E-08,1.440287
331.6382,0.04500372,0.0005464285,NaN,-0.3269998,0.0002927127,NaN,-1.231265,-14.17359,NaN,-2.147964,-1.465772,-0.3292099,14.15069,NaN,NaN,-0.01993009,0.8042472,1.362177E-06,1.027927,-1.504218E-08,1.440287
331.652,0.04500371,0.000545508,NaN,-0.3269998,0.0002919805,NaN,-1.224242,-14.17321,NaN,-2.148304,-1.466653,-0.3310963,14.15156,NaN,NaN,-0.01993508,0.8045872,1.27426E-06,1.029198,-1.265799E-08,1.440007
331.6675,0.0450037,0.0005450468,NaN,-0.3269998,0.0002913996,NaN,-1.216464,-14.17409,NaN,-2.1487,-1.468235,-0.3337798,14.15326,NaN,NaN,-0.01994237,0.8036652,1.145477E-06,1.031454,-1.027381E-08,1.444796
331.6826,0.04500368,0.000545233,NaN,-0.3269998,0.0002919702,NaN,-1.207904,-14.1723,NaN,-2.149105,-1.458191,-0.3362344,14.14267,NaN,NaN,-0.019949,0.8055758,1.029397E-06,1.017013,-1.027381E-08,1.43107
331.6973,0.04500368,0.000545233,NaN,-0.3269998,0.0002919702,NaN,-1.207904,-14.1723,NaN,-2.149105,-1.458191,-0.3362344,14.14267,NaN,NaN,-0.019949,0.8055758,1.029397E-06,1.017013,-1.027381E-08,1.43107
331.7139,0.04500367,0.0005455644,NaN,-0.3269998,0.000292581,NaN,-1.198982,-14.17249,NaN,-2.149491,-1.457424,-0.338416,14.14187,NaN,NaN,-0.01995489,0.8053623,9.256847E-07,1.015893,-1.265799E-08,1.43212
331.7282,0.04500365,0.0005456899,NaN,-0.3269998,0.000292392,NaN,-1.189959,-14.17321,NaN,-2.149856,-1.467648,-0.3404191,14.15258,NaN,NaN,-0.01996031,0.8045721,8.33223E-07,1.030636,-7.889622E-09,1.438491
331.7422,0.04500364,0.0005453073,NaN,-0.3269998,0.0002924628,NaN,-1.180218,-14.17312,NaN,-2.150277,-1.458335,-0.343214,14.14287,NaN,NaN,-0.01996803,0.8047685,7.008261E-07,1.017194,-7.889622E-09,1.437125
331.7569,0.04500364,0.0005453073,NaN,-0.3269998,0.0002924628,NaN,-1.180218,-14.17312,NaN,-2.150277,-1.458335,-0.343214,14.14287,NaN,NaN,-0.01996803,0.8047685,7.008261E-07,1.017194,-7.889622E-09,1.437125
331.7711,0.04500363,0.0005450795,NaN,-0.3269998,0.0002927978,NaN,-1.169726,-14.17219,NaN,-2.150707,-1.457372,-0.3457771,14.14175,NaN,NaN,-0.0199751,0.8056594,5.84001E-07,1.015804,-1.027381E-08,1.43006
