JMolnar6/NonAnthroHands_User_Study/HandsLoggerWithURDF/tempdata/files/Reachy_PID0_JointMotion_gesture_11_4.csv
Time,r_shoulder,r_shoulder_x,r_upper_arm,r_forearm,r_wrist,r_wrist2hand,
698.9513,-0.7459012,-0.3253215,1.17482,-0.5769579,0.4418712,-0.007338759
698.9668,-0.7451482,-0.3250723,1.175071,-0.5761551,0.4419749,-0.007310115
698.9824,-0.744404,-0.3248261,1.175323,-0.5753647,0.442074,-0.007282047
698.9982,-0.744404,-0.3248261,1.175323,-0.5753647,0.442074,-0.007282047
699.0131,-0.7436684,-0.3245828,1.175574,-0.5745867,0.4421684,-0.007254545
699.0299,-0.7429412,-0.3243425,1.175825,-0.5738209,0.4422584,-0.007227597
699.045,-0.7422224,-0.3241049,1.176077,-0.5730671,0.4423439,-0.007201193
699.0608,-0.7415118,-0.3238702,1.176328,-0.5723251,0.442425,-0.007175323
699.0765,-0.7415118,-0.3238702,1.176328,-0.5723251,0.442425,-0.007175323
699.0914,-0.7408094,-0.3236383,1.176579,-0.5715946,0.442502,-0.007149972
699.1081,-0.7401152,-0.3234092,1.176829,-0.5708756,0.4425748,-0.007125135
699.1238,-0.7394289,-0.3231828,1.17708,-0.5701678,0.4426436,-0.007100799
699.1393,-0.7394289,-0.3231828,1.17708,-0.5701678,0.4426436,-0.007100799
699.1543,-0.7387505,-0.3229591,1.17733,-0.5694712,0.4427085,-0.007076953
699.1707,-0.73808,-0.3227381,1.17758,-0.5687854,0.4427696,-0.007053589
699.1865,-0.7374171,-0.3225197,1.17783,-0.5681104,0.4428268,-0.007030699
699.202,-0.7367619,-0.3223039,1.178079,-0.5674459,0.4428805,-0.007008271
699.2177,-0.7367619,-0.3223039,1.178079,-0.5674459,0.4428805,-0.007008271
699.2325,-0.7361142,-0.3220907,1.178328,-0.5667919,0.4429305,-0.006986297
699.249,-0.735474,-0.32188,1.178576,-0.5661481,0.442977,-0.006964767
699.2645,-0.7348412,-0.3216718,1.178824,-0.5655144,0.4430202,-0.006943674
699.2802,-0.7342156,-0.3214661,1.179072,-0.5648906,0.44306,-0.006923005
699.2958,-0.7342156,-0.3214661,1.179072,-0.5648906,0.44306,-0.006923005
699.3109,-0.7335973,-0.3212629,1.179319,-0.5642766,0.4430965,-0.006902756
699.3272,-0.732986,-0.3210621,1.179565,-0.5636723,0.4431299,-0.006882918
699.343,-0.7323818,-0.3208637,1.179811,-0.5630774,0.4431601,-0.006863483
699.3586,-0.7323818,-0.3208637,1.179811,-0.5630774,0.4431601,-0.006863483
699.3736,-0.7317846,-0.3206676,1.180057,-0.5624919,0.4431874,-0.00684444
699.39,-0.7311942,-0.3204739,1.180301,-0.5619155,0.4432117,-0.006825782
699.4057,-0.7306106,-0.3202825,1.180545,-0.5613482,0.4432332,-0.006807504
699.4213,-0.7300338,-0.3200934,1.180789,-0.5607898,0.4432518,-0.006789598
699.437,-0.7300338,-0.3200934,1.180789,-0.5607898,0.4432518,-0.006789598
699.452,-0.7294635,-0.3199065,1.181032,-0.5602402,0.4432678,-0.006772054
699.4688,-0.7288998,-0.3197219,1.181274,-0.5596992,0.443281,-0.006754869
699.484,-0.7283427,-0.3195395,1.181515,-0.5591667,0.4432917,-0.006738032
699.4998,-0.7283427,-0.3195395,1.181515,-0.5591667,0.4432917,-0.006738032
699.5147,-0.7277919,-0.3193592,1.181756,-0.5586425,0.4432998,-0.006721537
699.5311,-0.7272475,-0.3191811,1.181996,-0.5581266,0.4433055,-0.006705379
699.5467,-0.7267093,-0.3190052,1.182235,-0.5576189,0.4433088,-0.006689548
699.5623,-0.7261773,-0.3188313,1.182473,-0.5571191,0.4433097,-0.00667404
699.5779,-0.7261773,-0.3188313,1.182473,-0.5571191,0.4433097,-0.00667404
699.5931,-0.7256515,-0.3186595,1.18271,-0.5566272,0.4433084,-0.006658848
699.6096,-0.7251317,-0.3184898,1.182947,-0.5561429,0.4433048,-0.006643967
699.6252,-0.7246179,-0.318322,1.183183,-0.5556663,0.4432991,-0.006629386
699.6409,-0.72411,-0.3181563,1.183417,-0.5551972,0.4432913,-0.006615106
699.6565,-0.72411,-0.3181563,1.183417,-0.5551972,0.4432913,-0.006615106
699.6715,-0.723608,-0.3179926,1.183651,-0.5547355,0.4432814,-0.006601117
699.6876,-0.7231117,-0.3178308,1.183884,-0.5542811,0.4432696,-0.006587411
699.7034,-0.7226211,-0.317671,1.184116,-0.5538338,0.4432558,-0.00657399
699.7191,-0.7226211,-0.317671,1.184116,-0.5538338,0.4432558,-0.00657399
699.7356,-0.7221362,-0.317513,1.184348,-0.5533936,0.4432402,-0.006560841
699.7507,-0.7216569,-0.317357,1.184578,-0.5529603,0.4432227,-0.00654796
699.7662,-0.7211831,-0.3172028,1.184807,-0.5525338,0.4432034,-0.006535344
699.7819,-0.7207147,-0.3170505,1.185035,-0.552114,0.4431825,-0.006522984
699.7974,-0.7207147,-0.3170505,1.185035,-0.552114,0.4431825,-0.006522984
699.8123,-0.7202517,-0.3168999,1.185262,-0.5517008,0.4431598,-0.006510878
699.8286,-0.719794,-0.3167512,1.185488,-0.5512942,0.4431355,-0.006499019
699.8444,-0.7193416,-0.3166043,1.185713,-0.550894,0.4431097,-0.006487401
699.86,-0.7188945,-0.3164591,1.185937,-0.5505,0.4430823,-0.006476023
699.8757,-0.7188945,-0.3164591,1.185937,-0.5505,0.4430823,-0.006476023
699.8908,-0.7184525,-0.3163156,1.18616,-0.5501123,0.4430534,-0.006464879
699.907,-0.7180155,-0.3161739,1.186382,-0.5497307,0.4430231,-0.006453964
699.9227,-0.7175836,-0.3160338,1.186603,-0.5493551,0.4429913,-0.006443273
699.9382,-0.7175836,-0.3160338,1.186603,-0.5493551,0.4429913,-0.006443273
699.9541,-0.7169462,-0.3158186,1.186447,-0.5484929,0.4434187,-0.006348086
699.9697,-0.7161824,-0.3155583,1.186155,-0.5473128,0.4440595,-0.006254875
699.9854,-0.7153423,-0.3152715,1.185862,-0.5459925,0.4447606,-0.00616365
700.0015,-0.7144579,-0.3149697,1.185609,-0.5446177,0.4454616,-0.00607436
700.0165,-0.7144579,-0.3149697,1.185609,-0.5446177,0.4454616,-0.00607436
700.0317,-0.7137595,-0.314737,1.185778,-0.5437218,0.4456822,-0.006071707
700.0477,-0.7131811,-0.3145477,1.186122,-0.5431552,0.4456618,-0.006069082
700.0634,-0.7126805,-0.3143857,1.186499,-0.542749,0.4455547,-0.006066415
700.0792,-0.7126805,-0.3143857,1.186499,-0.542749,0.4455547,-0.006066415
700.0942,-0.7122309,-0.3142414,1.186859,-0.5424212,0.445424,-0.00606371
700.1106,-0.7120255,-0.3141853,1.187568,-0.5426252,0.4448337,-0.006145774
700.1264,-0.7119746,-0.3141837,1.188387,-0.5431732,0.4440355,-0.006226048
700.142,-0.71202,-0.3142144,1.189183,-0.543878,0.4431851,-0.006304543
700.1578,-0.71202,-0.3142144,1.189183,-0.543878,0.4431851,-0.006304543
700.1727,-0.7121257,-0.3142647,1.189921,-0.5446499,0.44234,-0.00638133
700.189,-0.7124794,-0.3144038,1.190977,-0.5459391,0.4410587,-0.006541227
700.2049,-0.7129875,-0.3145968,1.192117,-0.5475563,0.4395909,-0.006697763
700.2204,-0.7135908,-0.314822,1.193215,-0.5493144,0.4380881,-0.006850986
700.2375,-0.7135908,-0.314822,1.193215,-0.5493144,0.4380881,-0.006850986
700.2512,-0.7142513,-0.3150658,1.194237,-0.5511234,0.436607,-0.007001
700.2677,-0.7151554,-0.3153968,1.195561,-0.5534334,0.4347032,-0.007232568
700.2833,-0.7162089,-0.3157796,1.19695,-0.5560554,0.4326287,-0.007459342
700.2988,-0.7162089,-0.3157796,1.19695,-0.5560554,0.4326287,-0.007459342
700.3138,-0.7173518,-0.3161923,1.198281,-0.5588022,0.4305342,-0.007681401
700.3302,-0.7185461,-0.3166214,1.199522,-0.5615843,0.4284755,-0.007898869
700.3459,-0.7199782,-0.3171354,1.201051,-0.5648521,0.4260041,-0.008196414
700.3615,-0.7215535,-0.3176987,1.202628,-0.5684165,0.4233763,-0.008487867
700.3774,-0.7215535,-0.3176987,1.202628,-0.5684165,0.4233763,-0.008487867
700.3923,-0.7232122,-0.3182894,1.20413,-0.572091,0.4207425,-0.008773306
700.4086,-0.7249164,-0.3188942,1.20553,-0.5757859,0.4181575,-0.009052884
700.4242,-0.7268525,-0.3195815,1.207202,-0.579952,0.415168,-0.009411152
700.4396,-0.7268525,-0.3195815,1.207202,-0.579952,0.415168,-0.009411152
700.4547,-0.7289259,-0.3203159,1.208905,-0.5844005,0.412036,-0.009762134
700.4713,-0.731077,-0.3210753,1.210517,-0.5889449,0.4089116,-0.01010592
700.4869,-0.7332676,-0.3218465,1.212013,-0.5934959,0.4058488,-0.01044268
700.5031,-0.7356847,-0.3226981,1.21377,-0.5985043,0.402388,-0.01085683
700.5176,-0.7356847,-0.3226981,1.21377,-0.5985043,0.402388,-0.01085683
700.5331,-0.7382336,-0.3235944,1.215537,-0.6037816,0.3987983,-0.0112626
700.5493,-0.7408544,-0.3245136,1.217199,-0.6091415,0.39523,-0.0116601
700.565,-0.7435094,-0.3254425,1.218734,-0.6144948,0.3917356,-0.0120495
700.5806,-0.7463856,-0.3264498,1.220515,-0.6202925,0.387848,-0.01251507
700.5963,-0.7463856,-0.3264498,1.220515,-0.6202925,0.387848,-0.01251507
700.6111,-0.7493883,-0.3274997,1.222289,-0.6263463,0.3838451,-0.01297127
700.6277,-0.7524576,-0.3285704,1.223945,-0.63247,0.3798775,-0.01341822
700.6432,-0.7555559,-0.3296488,1.225462,-0.6385749,0.375996,-0.01385609
700.6591,-0.7555559,-0.3296488,1.225462,-0.6385749,0.375996,-0.01385609
700.6736,-0.7588706,-0.3308036,1.227214,-0.6451117,0.3717243,-0.01436901
700.69,-0.7623067,-0.3319992,1.228943,-0.6518925,0.3673511,-0.01487166
700.7057,-0.7658044,-0.3332135,1.23054,-0.6587313,0.3630271,-0.01536415
700.7214,-0.7693262,-0.3344337,1.23199,-0.6655398,0.3588013,-0.01584667
700.7374,-0.7693262,-0.3344337,1.23199,-0.6655398,0.3588013,-0.01584667
700.7532,-0.7730596,-0.3357286,1.233666,-0.6727684,0.3541863,-0.01640321
700.7687,-0.7769097,-0.3370623,1.235303,-0.6802295,0.3494838,-0.01694866
700.7841,-0.7808167,-0.338413,1.236797,-0.6877376,0.3448448,-0.0174831
700.8,-0.7808167,-0.338413,1.236797,-0.6877376,0.3448448,-0.0174831
700.8147,-0.7849545,-0.3398446,1.238493,-0.6956955,0.3398097,-0.01809042
700.8306,-0.789219,-0.3413178,1.24012,-0.7038933,0.3347037,-0.01868563
700.8458,-0.7935449,-0.342809,1.24158,-0.7121348,0.3296804,-0.01926885
700.8609,-0.7978912,-0.3443041,1.242873,-0.7203271,0.3247834,-0.01984031
700.8759,-0.7978912,-0.3443041,1.242873,-0.7203271,0.3247834,-0.01984031
700.8926,-0.802444,-0.3458715,1.24437,-0.728918,0.3194998,-0.02048384
700.9061,-0.8071066,-0.3474747,1.245797,-0.7377197,0.3141608,-0.02111458
700.9208,-0.8118182,-0.3490917,1.247061,-0.7465466,0.3089161,-0.02173267
700.9356,-0.8118182,-0.3490917,1.247061,-0.7465466,0.3089161,-0.02173267
700.9496,-0.8165408,-0.3507096,1.248166,-0.7553111,0.3038057,-0.02233835
700.965,-0.8214629,-0.3523974,1.249476,-0.7644626,0.2983001,-0.02301534
700.9796,-0.8214629,-0.3523974,1.249476,-0.7644626,0.2983001,-0.02301534
700.9937,-0.8264887,-0.3541189,1.250706,-0.7738149,0.2927539,-0.02367891
701.009,-0.8315582,-0.3558523,1.251773,-0.7831832,0.2873158,-0.02432921
701.0238,-0.8366338,-0.3575849,1.252684,-0.7924803,0.2820216,-0.0249665
701.0385,-0.8366338,-0.3575849,1.252684,-0.7924803,0.2820216,-0.0249665
701.0525,-0.8419049,-0.359386,1.2538,-0.8021552,0.2763228,-0.0256744
701.0679,-0.8472754,-0.3612191,1.254826,-0.8120221,0.2706009,-0.02636832
701.0826,-0.8526856,-0.3630628,1.255688,-0.8218968,0.2650019,-0.02704837
701.0972,-0.8526856,-0.3630628,1.255688,-0.8218968,0.2650019,-0.02704837
701.1115,-0.8583108,-0.3649811,1.25673,-0.8321803,0.2589933,-0.02779815
701.127,-0.864046,-0.3669344,1.257656,-0.8426648,0.2529859,-0.0285331
701.1426,-0.8698258,-0.3688993,1.258405,-0.8531558,0.2471212,-0.02925339
701.1562,-0.8698258,-0.3688993,1.258405,-0.8531558,0.2471212,-0.02925339
701.1703,-0.8756093,-0.370862,1.259002,-0.8635623,0.2414221,-0.02995933
701.1859,-0.8815845,-0.3728912,1.259797,-0.8743297,0.2353014,-0.03073446
701.2004,-0.8876536,-0.3749501,1.26048,-0.8852721,0.2291992,-0.03149428
701.2148,-0.8876536,-0.3749501,1.26048,-0.8852721,0.2291992,-0.03149428
701.2287,-0.8937558,-0.3770169,1.261003,-0.8962056,0.2232488,-0.03223899
701.2441,-0.8998533,-0.3790788,1.261388,-0.9070444,0.2174665,-0.0329689
701.2588,-0.8998533,-0.3790788,1.261388,-0.9070444,0.2174665,-0.0329689
701.2728,-0.9061363,-0.3812053,1.261976,-0.9182351,0.2112442,-0.03376751
701.288,-0.9125081,-0.3833598,1.262446,-0.9295933,0.2050632,-0.03455037
701.3028,-0.9189084,-0.3855205,1.262765,-0.940936,0.1990449,-0.0353177
701.3176,-0.9189084,-0.3855205,1.262765,-0.940936,0.1990449,-0.0353177
701.3317,-0.9255139,-0.3877521,1.263261,-0.9526627,0.1925827,-0.03615297
701.3471,-0.9322188,-0.3900144,1.26362,-0.9645671,0.1861913,-0.03697175
701.3618,-0.9389573,-0.3922842,1.263825,-0.9764566,0.1799771,-0.03777429
701.3768,-0.9389573,-0.3922842,1.263825,-0.9764566,0.1799771,-0.03777429
701.3906,-0.9456886,-0.3945478,1.263911,-0.9882417,0.1739409,-0.03856094
701.4072,-0.9526023,-0.3968745,1.26419,-1.000365,0.1674374,-0.03941517
701.4216,-0.9595999,-0.3992269,1.264341,-1.012643,0.1610267,-0.04025254
701.4354,-0.9595999,-0.3992269,1.264341,-1.012643,0.1610267,-0.04025254
701.4498,-0.96662,-0.4015833,1.264357,-1.024891,0.1547958,-0.04107335
701.4647,-0.9736251,-0.4039312,1.264272,-1.037028,0.1487397,-0.04187794
701.4792,-0.9736251,-0.4039312,1.264272,-1.037028,0.1487397,-0.04187794
701.493,-0.980807,-0.4063404,1.264376,-1.049495,0.1421979,-0.04274974
701.5083,-0.988068,-0.4087739,1.264353,-1.06211,0.1357752,-0.04360436
701.523,-0.9953475,-0.41121,1.264212,-1.074692,0.1295334,-0.0444421
701.5374,-0.9953475,-0.41121,1.264212,-1.074692,0.1295334,-0.0444421
701.5517,-1.002824,-0.4137135,1.264235,-1.087638,0.122805,-0.0453464
701.5671,-1.01039,-0.4162442,1.264123,-1.100743,0.1162216,-0.04623287
701.585,-1.01798,-0.4187787,1.263898,-1.113817,0.1098235,-0.04710185
701.5963,-1.01798,-0.4187787,1.263898,-1.113817,0.1098235,-0.04710185
701.6104,-1.025554,-0.4213037,1.263591,-1.126773,0.1035993,-0.0479537
701.6258,-1.033302,-0.4238887,1.26345,-1.140049,0.09687354,-0.04887184
701.6403,-1.041125,-0.4264959,1.26319,-1.153461,0.09030791,-0.04977189
701.6552,-1.041125,-0.4264959,1.26319,-1.153461,0.09030791,-0.04977189
701.6692,-1.048961,-0.4291039,1.262836,-1.16683,0.08392101,-0.05065421
701.6864,-1.056773,-0.4317003,1.262415,-1.180074,0.07770198,-0.05151917
701.7001,-1.064754,-0.434355,1.262146,-1.193632,0.07097743,-0.05245015
701.7136,-1.064754,-0.434355,1.262146,-1.193632,0.07097743,-0.05245015
701.7291,-1.072806,-0.4370307,1.261771,-1.207321,0.06442253,-0.05336281
701.7428,-1.080868,-0.4397061,1.261318,-1.220965,0.05803982,-0.05425752
701.7573,-1.080868,-0.4397061,1.261318,-1.220965,0.05803982,-0.05425752
701.7715,-1.083899,-0.4405956,1.256556,-1.223492,0.06700211,-0.05322549
701.7867,-1.083835,-0.440453,1.252928,-1.218682,0.07568438,-0.0522135
701.8014,-1.081834,-0.4396707,1.249961,-1.210401,0.08407187,-0.05122128
701.8159,-1.081834,-0.4396707,1.249961,-1.210401,0.08407187,-0.05122128
701.83,-1.078639,-0.4385022,1.247386,-1.200525,0.09222281,-0.05024851
701.8455,-1.074935,-0.4371834,1.24525,-1.190441,0.09950983,-0.0493779
701.8601,-1.070935,-0.4357807,1.243238,-1.180429,0.106621,-0.04852435
701.8749,-1.070935,-0.4357807,1.243238,-1.180429,0.106621,-0.04852435
701.889,-1.066769,-0.4343344,1.241314,-1.170527,0.1135775,-0.04768753
701.9044,-1.062518,-0.4328687,1.239458,-1.160753,0.1203876,-0.0468671
701.9193,-1.062518,-0.4328687,1.239458,-1.160753,0.1203876,-0.0468671
701.9332,-1.058452,-0.4314753,1.237868,-1.151593,0.1263968,-0.04614586
701.9506,-1.054516,-0.4301314,1.236282,-1.142889,0.1322714,-0.04543874
701.964,-1.050679,-0.4288232,1.234707,-1.134469,0.1380334,-0.04474548
701.9782,-1.050679,-0.4288232,1.234707,-1.134469,0.1380334,-0.04474548
701.9921,-1.047135,-0.4276194,1.233375,-1.126726,0.1430247,-0.04414891
702.0071,-1.043789,-0.4264835,1.232022,-1.119459,0.1478992,-0.04356404
702.0215,-1.040579,-0.4253936,1.230662,-1.112474,0.1526852,-0.04299061
702.0364,-1.040579,-0.4253936,1.230662,-1.112474,0.1526852,-0.04299061
702.0502,-1.037467,-0.4243363,1.229309,-1.105677,0.1573821,-0.0424284
702.0657,-1.034646,-0.4233803,1.228208,-1.0995,0.1613338,-0.04196036
702.0803,-1.032018,-0.4224898,1.227082,-1.093759,0.165179,-0.04150149
702.0951,-1.032018,-0.4224898,1.227082,-1.093759,0.165179,-0.04150149
702.1091,-1.02952,-0.4216427,1.22594,-1.08827,0.1689575,-0.0410516
702.1246,-1.027114,-0.4208257,1.224801,-1.082942,0.1726681,-0.04061051
702.1395,-1.027114,-0.4208257,1.224801,-1.082942,0.1726681,-0.04061051
702.1534,-1.024992,-0.4201077,1.223918,-1.078211,0.1756582,-0.04026123
702.1689,-1.023055,-0.4194528,1.223007,-1.073894,0.1785514,-0.03991881
702.1834,-1.021241,-0.4188392,1.222072,-1.069807,0.1813978,-0.03958307
702.1978,-1.021241,-0.4188392,1.222072,-1.069807,0.1813978,-0.03958307
702.2122,-1.019728,-0.4183304,1.221385,-1.066338,0.1835482,-0.03933708
702.2285,-1.018409,-0.4178876,1.220659,-1.063285,0.185615,-0.03909592
702.2424,-1.017215,-0.4174871,1.2199,-1.060451,0.1876537,-0.03885945
702.257,-1.017215,-0.4174871,1.2199,-1.060451,0.1876537,-0.03885945
702.2709,-1.016106,-0.4171142,1.219129,-1.057744,0.1896622,-0.03862761
702.2863,-1.015269,-0.4168367,1.218614,-1.055595,0.1909927,-0.03848349
702.301,-1.014606,-0.4166189,1.218062,-1.053823,0.1922491,-0.0383422
702.3153,-1.014606,-0.4166189,1.218062,-1.053823,0.1922491,-0.0383422
702.3293,-1.014054,-0.4164386,1.217473,-1.052243,0.1934931,-0.03820366
702.3449,-1.013574,-0.416282,1.216869,-1.050765,0.1947235,-0.03806781
702.3596,-1.013574,-0.416282,1.216869,-1.050765,0.1947235,-0.03806781
702.3735,-1.013357,-0.4162177,1.216519,-1.049826,0.1952939,-0.03801781
702.3889,-1.013304,-0.4162104,1.216127,-1.049244,0.1958026,-0.0379688
702.4039,-1.013355,-0.4162373,1.215692,-1.048834,0.196315,-0.03792072
702.4184,-1.013355,-0.4162373,1.215692,-1.048834,0.196315,-0.03792072
702.4327,-1.013685,-0.4163623,1.215496,-1.048988,0.1961875,-0.03795676
702.448,-1.014189,-0.4165468,1.215244,-1.049501,0.1960153,-0.03799209
702.4627,-1.014799,-0.4167671,1.21494,-1.05018,0.1958629,-0.03802669
702.4774,-1.014799,-0.4167671,1.21494,-1.05018,0.1958629,-0.03802669
702.4937,-1.015472,-0.4170081,1.214606,-1.050932,0.195728,-0.03806058
702.5071,-1.016398,-0.4173378,1.214517,-1.052189,0.1949632,-0.03817699
702.5216,-1.017478,-0.4177201,1.214372,-1.053771,0.1941666,-0.03829111
702.5364,-1.017478,-0.4177201,1.214372,-1.053771,0.1941666,-0.03829111
702.55,-1.01865,-0.4181328,1.214174,-1.055493,0.1934023,-0.03840295
702.5654,-1.019873,-0.4185621,1.213944,-1.057268,0.1926678,-0.03851257
702.58,-1.02134,-0.4190764,1.213952,-1.05953,0.1913142,-0.03870321
702.5948,-1.02134,-0.4190764,1.213952,-1.05953,0.1913142,-0.03870321
702.6089,-1.022951,-0.4196402,1.213899,-1.062101,0.189945,-0.03889011
702.6246,-1.024647,-0.4202314,1.213788,-1.064795,0.1886207,-0.0390733
702.6392,-1.024647,-0.4202314,1.213788,-1.064795,0.1886207,-0.0390733
702.6531,-1.026603,-0.4209135,1.213895,-1.068005,0.1866924,-0.03933605
702.6686,-1.028713,-0.4216474,1.213928,-1.071527,0.1847681,-0.03959363
702.6831,-1.030911,-0.4224093,1.213895,-1.075168,0.182903,-0.0398461
702.6978,-1.030911,-0.4224093,1.213895,-1.075168,0.182903,-0.0398461
702.7121,-1.033153,-0.4231846,1.21382,-1.078836,0.1810925,-0.04009359
702.7275,-1.035629,-0.4240414,1.213966,-1.082966,0.1786817,-0.04041937
702.7441,-1.038241,-0.4249434,1.214038,-1.087374,0.1762904,-0.04073874
702.7577,-1.038241,-0.4249434,1.214038,-1.087374,0.1762904,-0.04073874
702.7719,-1.040926,-0.4258684,1.214045,-1.09188,0.1739675,-0.04105179
702.7864,-1.043644,-0.426803,1.214011,-1.096395,0.1717081,-0.04135867
702.8013,-1.046589,-0.4278162,1.214188,-1.101357,0.1688541,-0.04174267
702.8152,-1.046589,-0.4278162,1.214188,-1.101357,0.1688541,-0.04174267
702.8293,-1.049661,-0.4288717,1.214287,-1.106583,0.1660375,-0.04211911
702.8446,-1.052799,-0.4299478,1.214322,-1.111893,0.1632985,-0.04248811
702.8593,-1.052799,-0.4299478,1.214322,-1.111893,0.1632985,-0.04248811
702.8736,-1.056183,-0.4311082,1.214547,-1.117678,0.1599766,-0.042933
702.8885,-1.059703,-0.4323137,1.214683,-1.123734,0.1567116,-0.04336911
702.9033,-1.063293,-0.4335405,1.214749,-1.129871,0.1535354,-0.04379662
702.9179,-1.063293,-0.4335405,1.214749,-1.129871,0.1535354,-0.04379662
702.9321,-1.066911,-0.4347743,1.214768,-1.135997,0.1504415,-0.04421571
702.9473,-1.070749,-0.4360838,1.214975,-1.142546,0.1467668,-0.04470969
702.9621,-1.074706,-0.4374321,1.215099,-1.149337,0.1431638,-0.04519394
702.9768,-1.074706,-0.4374321,1.215099,-1.149337,0.1431638,-0.04519394
702.9909,-1.07872,-0.4387973,1.215157,-1.156188,0.1396552,-0.04566864
703.0062,-1.082752,-0.4401662,1.215169,-1.163015,0.1362347,-0.04613399
703.0219,-1.086996,-0.4416082,1.215358,-1.170251,0.1322389,-0.04667331
703.0367,-1.086996,-0.4416082,1.215358,-1.170251,0.1322389,-0.04667331
703.0506,-1.091353,-0.4430867,1.215464,-1.177717,0.1283295,-0.04720201
703.0649,-1.095761,-0.44458,1.215508,-1.185233,0.1245198,-0.04772029
703.0793,-1.095761,-0.44458,1.215508,-1.185233,0.1245198,-0.04772029
703.0933,-1.1004,-0.4461523,1.215707,-1.193189,0.1201461,-0.04831149
703.1086,-1.105161,-0.4477638,1.215817,-1.201383,0.1158735,-0.04889105
703.1232,-1.109978,-0.449391,1.215862,-1.209626,0.1117086,-0.04945919
703.138,-1.109978,-0.449391,1.215862,-1.209626,0.1117086,-0.04945919
703.152,-1.114808,-0.45102,1.21586,-1.217827,0.1076454,-0.05001616
703.1674,-1.119845,-0.4527195,1.216007,-1.226419,0.1030241,-0.05064527
703.1818,-1.124988,-0.4544527,1.216076,-1.235221,0.0985118,-0.051262
703.1966,-1.124988,-0.4544527,1.216076,-1.235221,0.0985118,-0.051262
703.2107,-1.130174,-0.4561975,1.216085,-1.244055,0.09410992,-0.05186659
703.2261,-1.135365,-0.4579412,1.216052,-1.252834,0.08981321,-0.05245931
703.2408,-1.140755,-0.4597532,1.216154,-1.261993,0.08496738,-0.05312343
703.2556,-1.140755,-0.4597532,1.216154,-1.261993,0.08496738,-0.05312343
703.2696,-1.146245,-0.4615969,1.216184,-1.271353,0.0802366,-0.0537745
703.2849,-1.151773,-0.4634505,1.216159,-1.280736,0.07561901,-0.05441277
703.3004,-1.157301,-0.4653013,1.216093,-1.290057,0.07110998,-0.0550385
703.3152,-1.157301,-0.4653013,1.216093,-1.290057,0.07110998,-0.0550385
703.329,-1.163025,-0.4672191,1.216149,-1.299749,0.06606193,-0.05573499
703.3433,-1.168845,-0.4691671,1.216139,-1.309635,0.06113249,-0.05641779
703.358,-1.168845,-0.4691671,1.216139,-1.309635,0.06113249,-0.05641779
703.3719,-1.174699,-0.4711237,1.216079,-1.319535,0.05631872,-0.05708718
703.3873,-1.180769,-0.4731532,1.216121,-1.329839,0.05097816,-0.05782647
703.4018,-1.186946,-0.4752158,1.216097,-1.340346,0.04576216,-0.05855123
703.4164,-1.186946,-0.4752158,1.216097,-1.340346,0.04576216,-0.05855123
703.4304,-1.193161,-0.4772878,1.216022,-1.350868,0.04066737,-0.05926176
703.4458,-1.199374,-0.4793557,1.215908,-1.361318,0.03568968,-0.05995833
703.4617,-1.200933,-0.4797913,1.213133,-1.361763,0.04408477,-0.05889773
703.4753,-1.200933,-0.4797913,1.213133,-1.361763,0.04408477,-0.05889773
703.4892,-1.199625,-0.4792637,1.210849,-1.355528,0.05229567,-0.05785766
703.5048,-1.196543,-0.4781465,1.208915,-1.346132,0.06033059,-0.05683793
703.5197,-1.196543,-0.4781465,1.208915,-1.346132,0.06033059,-0.05683793
703.5338,-1.19238,-0.4766784,1.207228,-1.335291,0.0681961,-0.05583816
703.5488,-1.187571,-0.4750075,1.205712,-1.323838,0.07589844,-0.05485798
703.5658,-1.182388,-0.473224,1.204316,-1.312176,0.08344368,-0.05389701
703.5795,-1.182388,-0.473224,1.204316,-1.312176,0.08344368,-0.05389701
703.5934,-1.176999,-0.4713821,1.203005,-1.300501,0.0908375,-0.05295486
703.6079,-1.171509,-0.4695141,1.201756,-1.288907,0.09808501,-0.05203116
703.6224,-1.16598,-0.4676394,1.200553,-1.277438,0.1051907,-0.05112556
703.6369,-1.16598,-0.4676394,1.200553,-1.277438,0.1051907,-0.05112556
703.6525,-1.160453,-0.4657692,1.199388,-1.266116,0.1121586,-0.0502377
703.6668,-1.154952,-0.4639102,1.198253,-1.254948,0.118992,-0.04936722
703.681,-1.14949,-0.4620663,1.197144,-1.24394,0.1256943,-0.04851379
703.6957,-1.14949,-0.4620663,1.197144,-1.24394,0.1256943,-0.04851379
703.7099,-1.144078,-0.4602396,1.196058,-1.23309,0.1322681,-0.04767707
703.7253,-1.138719,-0.4584313,1.194994,-1.222399,0.1387162,-0.04685675
703.74,-1.138719,-0.4584313,1.194994,-1.222399,0.1387162,-0.04685675
703.7541,-1.133417,-0.4566422,1.193951,-1.211864,0.1450411,-0.04605248
703.7697,-1.128174,-0.4548723,1.192928,-1.201485,0.151245,-0.04526396
703.7842,-1.122989,-0.453122,1.191925,-1.191258,0.1573302,-0.04449088
703.799,-1.122989,-0.453122,1.191925,-1.191258,0.1573302,-0.04449088
703.813,-1.117864,-0.451391,1.19094,-1.181182,0.163299,-0.04373294
703.8295,-1.112798,-0.4496794,1.189975,-1.171255,0.1691534,-0.04298984
703.8442,-1.107791,-0.4479869,1.189027,-1.161474,0.1748955,-0.0422613
703.8578,-1.107791,-0.4479869,1.189027,-1.161474,0.1748955,-0.0422613
703.8719,-1.102842,-0.4463135,1.188099,-1.151837,0.1805274,-0.04154701
703.887,-1.09795,-0.4446589,1.187188,-1.142344,0.186051,-0.04084671
703.9017,-1.093115,-0.443023,1.186296,-1.13299,0.1914684,-0.04016012
703.9165,-1.093115,-0.443023,1.186296,-1.13299,0.1914684,-0.04016012
703.9303,-1.088337,-0.4414055,1.185421,-1.123775,0.1967815,-0.03948697
703.9457,-1.083615,-0.4398063,1.184564,-1.114697,0.2019921,-0.038827
703.9603,-1.078947,-0.4382253,1.183725,-1.105752,0.2071022,-0.03817996
703.9753,-1.078947,-0.4382253,1.183725,-1.105752,0.2071022,-0.03817996
703.9893,-1.074335,-0.4366621,1.182904,-1.096941,0.2121136,-0.03754558
704.0049,-1.069775,-0.4351166,1.182099,-1.08826,0.2170282,-0.03692362
704.0193,-1.069775,-0.4351166,1.182099,-1.08826,0.2170282,-0.03692362
704.0334,-1.06527,-0.4335887,1.181312,-1.079707,0.2218476,-0.03631383
704.0488,-1.060816,-0.4320782,1.180542,-1.071282,0.2265738,-0.03571599
704.0637,-1.056415,-0.4305848,1.179789,-1.062982,0.2312083,-0.03512985
704.0781,-1.056415,-0.4305848,1.179789,-1.062982,0.2312083,-0.03512985
704.0945,-1.052065,-0.4291084,1.179053,-1.054805,0.2357529,-0.03455519
704.1088,-1.047765,-0.4276488,1.178334,-1.046749,0.2402094,-0.03399178
704.1224,-1.043516,-0.4262058,1.17763,-1.038813,0.2445792,-0.03343939
704.1372,-1.043516,-0.4262058,1.17763,-1.038813,0.2445792,-0.03343939
704.1511,-1.039316,-0.4247793,1.176943,-1.030995,0.2488642,-0.03289783
704.1662,-1.035165,-0.423369,1.176273,-1.023294,0.2530657,-0.03236686
704.1808,-1.031063,-0.4219749,1.175618,-1.015707,0.2571855,-0.0318463
704.1957,-1.031063,-0.4219749,1.175618,-1.015707,0.2571855,-0.0318463
704.2098,-1.027008,-0.4205966,1.174979,-1.008234,0.261225,-0.03133592
704.2251,-1.023001,-0.4192342,1.174355,-1.000871,0.2651857,-0.03083554
704.2397,-1.023001,-0.4192342,1.174355,-1.000871,0.2651857,-0.03083554
704.2538,-1.01904,-0.4178873,1.173747,-0.993619,0.2690691,-0.03034495
704.2692,-1.015125,-0.4165558,1.173155,-0.9864748,0.2728767,-0.02986397
704.2838,-1.011256,-0.4152396,1.172577,-0.9794372,0.2766098,-0.02939241
704.2986,-1.011256,-0.4152396,1.172577,-0.9794372,0.2766098,-0.02939241
704.3127,-1.007432,-0.4139385,1.172014,-0.9725047,0.2802699,-0.02893008
704.3282,-1.003652,-0.4126523,1.171466,-0.9656759,0.2838584,-0.02847681
704.3426,-0.9999167,-0.4113808,1.170933,-0.9589492,0.2873765,-0.0280324
704.3595,-0.9999167,-0.4113808,1.170933,-0.9589492,0.2873765,-0.0280324
704.3735,-0.9962245,-0.410124,1.170414,-0.9523231,0.2908256,-0.02759671
704.3869,-0.9925752,-0.4088816,1.16991,-0.9457963,0.294207,-0.02716954
704.4016,-0.9889684,-0.4076535,1.16942,-0.9393671,0.2975219,-0.02675074
704.4161,-0.9889684,-0.4076535,1.16942,-0.9393671,0.2975219,-0.02675074
704.4298,-0.9854035,-0.4064396,1.168943,-0.9330344,0.3007717,-0.02634014
704.4452,-0.9818801,-0.4052396,1.168481,-0.9267966,0.3039574,-0.02593758
704.4598,-0.9818801,-0.4052396,1.168481,-0.9267966,0.3039574,-0.02593758
704.4738,-0.9783976,-0.4040534,1.168032,-0.9206523,0.3070804,-0.0255429
704.4891,-0.9749556,-0.4028809,1.167596,-0.9146003,0.3101417,-0.02515595
704.504,-0.9715536,-0.401722,1.167174,-0.9086392,0.3131426,-0.02477658
704.5186,-0.9715536,-0.401722,1.167174,-0.9086392,0.3131426,-0.02477658
704.5326,-0.9681911,-0.4005764,1.166765,-0.9027676,0.3160841,-0.02440465
704.548,-0.9648677,-0.399444,1.166368,-0.8969843,0.3189675,-0.02403999
704.5626,-0.9615829,-0.3983247,1.165985,-0.8912879,0.3217936,-0.02368248
704.5775,-0.9615829,-0.3983247,1.165985,-0.8912879,0.3217936,-0.02368248
704.5916,-0.9583362,-0.3972184,1.165614,-0.8856773,0.3245637,-0.02333198
704.6069,-0.9551272,-0.3961248,1.165256,-0.8801511,0.3272788,-0.02298834
704.6216,-0.9519555,-0.3950439,1.16491,-0.8747081,0.3299399,-0.02265143
704.6373,-0.9519555,-0.3950439,1.16491,-0.8747081,0.3299399,-0.02265143
704.6513,-0.9488206,-0.3939755,1.164576,-0.8693472,0.332548,-0.02232112
704.6656,-0.945722,-0.3929195,1.164254,-0.864067,0.335104,-0.02199729
704.6802,-0.9426595,-0.3918757,1.163944,-0.8588665,0.337609,-0.0216798
704.6946,-0.9426595,-0.3918757,1.163944,-0.8588665,0.337609,-0.0216798
704.7087,-0.9396325,-0.3908441,1.163646,-0.8537445,0.3400639,-0.02136852
704.7242,-0.9366406,-0.3898244,1.163359,-0.8486998,0.3424697,-0.02106335
704.7387,-0.9366406,-0.3898244,1.163359,-0.8486998,0.3424697,-0.02106335
704.7527,-0.9336833,-0.3888165,1.163083,-0.8437313,0.3448271,-0.02076416
704.7681,-0.9307604,-0.3878203,1.162819,-0.8388379,0.3471373,-0.02047084
704.7827,-0.9278715,-0.3868357,1.162566,-0.8340185,0.3494009,-0.02018326
704.7975,-0.9278715,-0.3868357,1.162566,-0.8340185,0.3494009,-0.02018326
704.8114,-0.925016,-0.3858625,1.162324,-0.829272,0.3516189,-0.01990132
704.8265,-0.9221936,-0.3849007,1.162092,-0.8245974,0.3537922,-0.0196249
704.8414,-0.9194039,-0.38395,1.161871,-0.8199934,0.3559214,-0.01935391
704.8562,-0.9194039,-0.38395,1.161871,-0.8199934,0.3559214,-0.01935391
704.8703,-0.9166466,-0.3830104,1.16166,-0.8154593,0.3580076,-0.01908823
704.8857,-0.9139212,-0.3820817,1.16146,-0.8109937,0.3600514,-0.01882776
704.9023,-0.9112275,-0.3811638,1.16127,-0.8065959,0.3620537,-0.01857239
704.9161,-0.9112275,-0.3811638,1.16127,-0.8065959,0.3620537,-0.01857239
704.9299,-0.9085649,-0.3802567,1.16109,-0.8022648,0.3640152,-0.01832204
704.9442,-0.9059332,-0.37936,1.16092,-0.7979994,0.3659367,-0.01807659
704.959,-0.9059332,-0.37936,1.16092,-0.7979994,0.3659367,-0.01807659
704.9727,-0.903332,-0.3784739,1.160759,-0.7937987,0.3678188,-0.01783596
704.9882,-0.9007609,-0.3775981,1.160608,-0.7896618,0.3696624,-0.01760005
705.0029,-0.8982196,-0.3767325,1.160467,-0.7855877,0.3714682,-0.01736877
705.0173,-0.8982196,-0.3767325,1.160467,-0.7855877,0.3714682,-0.01736877
705.0313,-0.8957077,-0.375877,1.160334,-0.7815756,0.3732368,-0.01714203
705.0468,-0.893225,-0.3750314,1.160211,-0.7776244,0.3749689,-0.01691973
705.0615,-0.8907709,-0.3741958,1.160097,-0.7737333,0.3766653,-0.0167018
705.076,-0.8907709,-0.3741958,1.160097,-0.7737333,0.3766653,-0.0167018
705.0901,-0.8883453,-0.3733699,1.159992,-0.7699015,0.3783265,-0.01648814
705.1056,-0.8859478,-0.3725537,1.159895,-0.7661279,0.3799532,-0.01627868
705.1204,-0.883578,-0.371747,1.159807,-0.7624118,0.3815461,-0.01607333
705.1351,-0.883578,-0.371747,1.159807,-0.7624118,0.3815461,-0.01607333
705.1489,-0.8812357,-0.3709498,1.159728,-0.7587523,0.3831058,-0.01587201
705.1642,-0.8789204,-0.3701619,1.159657,-0.7551485,0.3846328,-0.01567465
