JMolnar6/NonAnthroHands_User_Study/HandsLoggerWithURDF/tempdata/files/Reachy_JointMotion_gesture_5_24.csv
Time,r_shoulder,r_shoulder_x,r_upper_arm,r_forearm,r_wrist,r_wrist2hand,
254.3038,0.04500327,-2.212477E-08,NaN,-0.3270012,-1.363904E-07,NaN,0.452157,5.364624E-09,NaN,-2.148612,8.625574E-06,-0.5244298,-3.649146E-08,NaN,NaN,-0.02002794,-4.051257E-10,-4.264157E-07,-1.13843E-07,1.004547E-08,-2.861022E-08
254.3216,0.04500327,-2.212373E-08,NaN,-0.3270012,-1.363897E-07,NaN,0.4515093,5.363268E-09,NaN,-2.14865,8.626184E-06,-0.5271505,-3.64879E-08,NaN,NaN,-0.02002845,-4.00469E-10,-4.323762E-07,-1.138424E-07,8.853382E-09,-2.622604E-08
254.3385,0.04500327,-2.212373E-08,NaN,-0.3270012,-1.363897E-07,NaN,0.4515093,5.363268E-09,NaN,-2.14865,8.626184E-06,-0.5271505,-3.64879E-08,NaN,NaN,-0.02002845,-4.00469E-10,-4.323762E-07,-1.138424E-07,8.853382E-09,-2.622604E-08
254.354,0.04500327,-2.212269E-08,NaN,-0.3270012,-1.363889E-07,NaN,0.4510662,5.362095E-09,NaN,-2.148689,8.626795E-06,-0.5298086,-3.648453E-08,NaN,NaN,-0.0200289,-3.958124E-10,-4.374426E-07,-1.138418E-07,1.242966E-08,-2.861022E-08
254.3723,0.04500327,-2.212165E-08,NaN,-0.3270012,-1.363882E-07,NaN,0.451655,5.361106E-09,NaN,-2.148697,8.6274E-06,-0.5301178,-3.648134E-08,NaN,NaN,-0.02003001,-3.864992E-10,-4.517477E-07,-1.138412E-07,1.242966E-08,-2.622604E-08
254.3906,0.04500327,-2.212062E-08,NaN,-0.3270012,-1.363874E-07,NaN,0.4521809,5.360293E-09,NaN,-2.148683,8.628015E-06,-0.5299855,-3.647832E-08,NaN,NaN,-0.02002965,-3.864992E-10,-4.469793E-07,-1.138406E-07,7.661289E-09,-2.861022E-08
254.4079,0.04500327,-2.211958E-08,NaN,-0.3270012,-1.363867E-07,NaN,0.4525367,5.359651E-09,NaN,-2.148663,8.628625E-06,-0.5298501,-3.647547E-08,NaN,NaN,-0.0200293,-3.818426E-10,-4.43105E-07,-1.1384E-07,4.085011E-09,-2.622604E-08
254.4254,0.04500327,-2.211854E-08,NaN,-0.3270012,-1.363859E-07,NaN,0.4527876,5.359184E-09,NaN,-2.148646,8.62924E-06,-0.529753,-3.64728E-08,NaN,NaN,-0.02002908,-3.818426E-10,-4.407208E-07,-1.138394E-07,5.277103E-09,-2.861022E-08
254.4423,0.04500328,-2.21175E-08,NaN,-0.3270012,-1.363852E-07,NaN,0.4538921,5.360296E-09,NaN,-2.148606,8.629851E-06,-0.527427,-3.647171E-08,NaN,NaN,-0.02002976,-3.77186E-10,-4.484694E-07,-1.138388E-07,7.661288E-09,-2.622604E-08
254.4605,0.04500329,-2.211647E-08,NaN,-0.3270012,-1.363845E-07,NaN,0.4548411,5.361545E-09,NaN,-2.148549,8.630465E-06,-0.5247502,-3.647076E-08,NaN,NaN,-0.0200291,-3.77186E-10,-4.42807E-07,-1.138382E-07,1.242966E-08,-2.861022E-08
254.4777,0.04500329,-2.211647E-08,NaN,-0.3270012,-1.363845E-07,NaN,0.4548411,5.361545E-09,NaN,-2.148549,8.630465E-06,-0.5247502,-3.647076E-08,NaN,NaN,-0.0200291,-3.77186E-10,-4.42807E-07,-1.138382E-07,1.242966E-08,-2.861022E-08
254.4948,0.04500329,-2.211543E-08,NaN,-0.3270012,-1.363837E-07,NaN,0.4555706,5.362927E-09,NaN,-2.148492,8.631076E-06,-0.5221395,-3.646993E-08,NaN,NaN,-0.02002852,-3.725294E-10,-4.365485E-07,-1.138376E-07,1.481385E-08,-2.622604E-08
254.5119,0.0450033,-2.211439E-08,NaN,-0.3270011,-1.363835E-07,NaN,0.4570732,5.673213E-09,NaN,-2.148416,8.6317E-06,-0.5173691,-3.677802E-08,NaN,NaN,-0.02002891,-3.818426E-10,-4.410188E-07,-1.138363E-07,1.362175E-08,-2.861022E-08
254.5295,0.04500331,-2.211335E-08,NaN,-0.3270011,-1.363834E-07,NaN,0.4583721,5.977556E-09,NaN,-2.148325,8.632328E-06,-0.5123126,-3.708017E-08,NaN,NaN,-0.02002803,-3.958124E-10,-4.311841E-07,-1.138349E-07,1.242966E-08,-2.622604E-08
254.5472,0.04500332,-2.211232E-08,NaN,-0.3270011,-1.363832E-07,NaN,0.459423,6.277482E-09,NaN,-2.148236,8.632943E-06,-0.5073779,-3.73779E-08,NaN,NaN,-0.02002726,-3.958124E-10,-4.216473E-07,-1.138335E-07,1.123757E-08,-2.861022E-08
254.5642,0.04500332,-2.211128E-08,NaN,-0.3270011,-1.363831E-07,NaN,0.4603208,6.573076E-09,NaN,-2.148156,8.633567E-06,-0.502589,-3.76713E-08,NaN,NaN,-0.02002666,-4.051257E-10,-4.147928E-07,-1.138322E-07,1.123757E-08,-2.622604E-08
254.5818,0.04500333,-2.211024E-08,NaN,-0.3270011,-1.36383E-07,NaN,0.4620381,6.864425E-09,NaN,-2.148058,8.634182E-06,-0.4956642,-3.796046E-08,NaN,NaN,-0.02002695,-4.051257E-10,-4.192632E-07,-1.138308E-07,1.123757E-08,-2.861022E-08
254.6001,0.04500334,-2.210921E-08,NaN,-0.3270011,-1.363829E-07,NaN,0.4635683,7.15161E-09,NaN,-2.147945,8.63481E-06,-0.4884855,-3.824545E-08,NaN,NaN,-0.02002594,-4.190955E-10,-4.071932E-07,-1.138295E-07,1.123757E-08,-2.622604E-08
254.6169,0.04500334,-2.210921E-08,NaN,-0.3270011,-1.363829E-07,NaN,0.4635683,7.15161E-09,NaN,-2.147945,8.63481E-06,-0.4884855,-3.824545E-08,NaN,NaN,-0.02002594,-4.190955E-10,-4.071932E-07,-1.138295E-07,1.123757E-08,-2.622604E-08
254.6336,0.04500335,-2.210817E-08,NaN,-0.3270011,-1.363827E-07,NaN,0.4648532,7.433274E-09,NaN,-2.147834,8.635425E-06,-0.4814647,-3.852493E-08,NaN,NaN,-0.02002503,-4.190955E-10,-3.949743E-07,-1.138281E-07,1.362175E-08,-2.861022E-08
254.6514,0.04500337,-2.210714E-08,NaN,-0.327001,-1.363826E-07,NaN,0.4668882,7.71097E-09,NaN,-2.147706,8.636049E-06,-0.4723639,-3.880043E-08,NaN,NaN,-0.02002505,-4.284087E-10,-3.961664E-07,-1.138268E-07,1.242966E-08,-2.622604E-08
254.6703,0.04500338,-2.21061E-08,NaN,-0.327001,-1.363825E-07,NaN,0.4686926,7.983362E-09,NaN,-2.147564,8.636664E-06,-0.4630682,-3.907064E-08,NaN,NaN,-0.02002384,-4.284087E-10,-3.811162E-07,-1.138255E-07,7.66129E-09,-2.861022E-08
254.6872,0.04500339,-2.210506E-08,NaN,-0.327001,-1.363823E-07,NaN,0.4702264,8.251963E-09,NaN,-2.147426,8.637287E-06,-0.4539805,-3.933705E-08,NaN,NaN,-0.02002275,-4.377219E-10,-3.669601E-07,-1.138242E-07,8.853383E-09,-2.622604E-08
254.7066,0.0450034,-2.210403E-08,NaN,-0.327001,-1.363822E-07,NaN,0.4715869,8.515439E-09,NaN,-2.147299,8.637902E-06,-0.4451212,-3.959834E-08,NaN,NaN,-0.02002184,-4.377219E-10,-3.557842E-07,-1.138228E-07,1.004548E-08,-2.861022E-08
254.7209,0.04500341,-2.210299E-08,NaN,-0.3270009,-1.363821E-07,NaN,0.4737474,8.775302E-09,NaN,-2.147158,8.638526E-06,-0.4341955,-3.985601E-08,NaN,NaN,-0.02002176,-4.470351E-10,-3.550392E-07,-1.138215E-07,8.853383E-09,-2.622604E-08
254.7387,0.04500341,-2.210299E-08,NaN,-0.3270009,-1.363821E-07,NaN,0.4737474,8.775302E-09,NaN,-2.147158,8.638526E-06,-0.4341955,-3.985601E-08,NaN,NaN,-0.02002176,-4.470351E-10,-3.550392E-07,-1.138215E-07,8.853383E-09,-2.622604E-08
254.7556,0.04500343,-2.210196E-08,NaN,-0.3270009,-1.36382E-07,NaN,0.4756948,9.030209E-09,NaN,-2.147003,8.63915E-06,-0.4231023,-4.010873E-08,NaN,NaN,-0.02002046,-4.563483E-10,-3.40138E-07,-1.138202E-07,8.853383E-09,-2.861022E-08
254.7733,0.04500344,-2.210092E-08,NaN,-0.3270009,-1.363818E-07,NaN,0.4773765,9.281671E-09,NaN,-2.146852,8.639774E-06,-0.4122477,-4.0358E-08,NaN,NaN,-0.02001927,-4.656616E-10,-3.255349E-07,-1.138189E-07,8.853383E-09,-2.622604E-08
254.7905,0.04500346,-2.209989E-08,NaN,-0.3270009,-1.363817E-07,NaN,0.4797907,9.528344E-09,NaN,-2.146688,8.640398E-06,-0.3993772,-4.060249E-08,NaN,NaN,-0.02001894,-4.749748E-10,-3.234487E-07,-1.138176E-07,8.853383E-09,-2.861022E-08
254.8074,0.04500347,-2.209885E-08,NaN,-0.3270008,-1.363816E-07,NaN,0.4819494,9.771735E-09,NaN,-2.146514,8.641022E-06,-0.3863951,-4.084369E-08,NaN,NaN,-0.0200175,-4.84288E-10,-3.029596E-07,-1.138163E-07,8.853383E-09,-2.622604E-08
254.8251,0.04500349,-2.209782E-08,NaN,-0.3270008,-1.363814E-07,NaN,0.4838193,1.001049E-08,NaN,-2.146346,8.641641E-06,-0.3736975,-4.108026E-08,NaN,NaN,-0.02001619,-4.889446E-10,-2.839606E-07,-1.13815E-07,8.853383E-09,-2.861022E-08
254.8418,0.0450035,-2.209678E-08,NaN,-0.3270008,-1.363813E-07,NaN,0.4855004,1.024471E-08,NaN,-2.146191,8.642265E-06,-0.3613005,-4.131229E-08,NaN,NaN,-0.02001505,-4.982578E-10,-2.671968E-07,-1.138137E-07,1.242966E-08,-2.622604E-08
254.8592,0.0450035,-2.209678E-08,NaN,-0.3270008,-1.363813E-07,NaN,0.4855004,1.024471E-08,NaN,-2.146191,8.642265E-06,-0.3613005,-4.131229E-08,NaN,NaN,-0.02001505,-4.982578E-10,-2.671968E-07,-1.138137E-07,1.242966E-08,-2.622604E-08
254.8752,0.04500352,-2.209574E-08,NaN,-0.3270007,-1.363812E-07,NaN,0.4879665,1.047589E-08,NaN,-2.146027,8.642875E-06,-0.346893,-4.154128E-08,NaN,NaN,-0.02001466,-4.936012E-10,-2.6295E-07,-1.138124E-07,1.362175E-08,-2.861022E-08
254.8934,0.04500354,-2.209471E-08,NaN,-0.3270007,-1.363811E-07,NaN,0.490196,1.070267E-08,NaN,-2.145854,8.643499E-06,-0.3323971,-4.176588E-08,NaN,NaN,-0.02001322,-5.029144E-10,-2.400767E-07,-1.138112E-07,8.853383E-09,-2.622604E-08
254.91,0.04500356,-2.209367E-08,NaN,-0.3270007,-1.363809E-07,NaN,0.4921437,1.092656E-08,NaN,-2.145687,8.64411E-06,-0.3182115,-4.198759E-08,NaN,NaN,-0.02001189,-4.982578E-10,-2.188798E-07,-1.138099E-07,1.004548E-08,-2.861022E-08
254.9275,0.04500358,-2.209264E-08,NaN,-0.3270006,-1.363808E-07,NaN,0.4948108,1.11462E-08,NaN,-2.145514,8.644733E-06,-0.3020622,-4.220504E-08,NaN,NaN,-0.02001131,-5.07571E-10,-2.087098E-07,-1.138086E-07,1.123757E-08,-2.622604E-08
254.9443,0.0450036,-2.20916E-08,NaN,-0.3270006,-1.363807E-07,NaN,0.497201,1.136309E-08,NaN,-2.145334,8.645344E-06,-0.2858769,-4.241975E-08,NaN,NaN,-0.02000983,-5.029144E-10,-1.824837E-07,-1.138074E-07,8.853382E-09,-2.861022E-08
254.9615,0.04500362,-2.209057E-08,NaN,-0.3270006,-1.363805E-07,NaN,0.4992887,1.157445E-08,NaN,-2.145164,8.645968E-06,-0.2700443,-4.262892E-08,NaN,NaN,-0.0200085,-5.122276E-10,-1.581203E-07,-1.138061E-07,1.004547E-08,-2.622604E-08
254.9789,0.04500362,-2.209057E-08,NaN,-0.3270006,-1.363805E-07,NaN,0.4992887,1.157445E-08,NaN,-2.145164,8.645968E-06,-0.2700443,-4.262892E-08,NaN,NaN,-0.0200085,-5.122276E-10,-1.581203E-07,-1.138061E-07,1.004547E-08,-2.622604E-08
254.9953,0.04500364,-2.208953E-08,NaN,-0.3270006,-1.363804E-07,NaN,0.5020838,1.178322E-08,NaN,-2.144992,8.646587E-06,-0.2522776,-4.283551E-08,NaN,NaN,-0.02000785,-5.168843E-10,-1.47615E-07,-1.138049E-07,1.123757E-08,-2.861022E-08
255.0128,0.04500366,-2.208849E-08,NaN,-0.3270005,-1.363803E-07,NaN,0.5045899,1.198804E-08,NaN,-2.144816,8.647206E-06,-0.2345132,-4.303815E-08,NaN,NaN,-0.02000644,-5.168843E-10,-1.182597E-07,-1.138036E-07,1.242966E-08,-2.622604E-08
255.03,0.04500368,-2.208746E-08,NaN,-0.3270005,-1.363802E-07,NaN,0.5067862,1.21904E-08,NaN,-2.144652,8.64783E-06,-0.2171355,-4.323832E-08,NaN,NaN,-0.0200052,-5.215409E-10,-9.195919E-08,-1.138024E-07,1.600594E-08,-2.861022E-08
255.0472,0.0450037,-2.208642E-08,NaN,-0.3270005,-1.363801E-07,NaN,0.5087777,1.238893E-08,NaN,-2.144507,8.64845E-06,-0.2001528,-4.343466E-08,NaN,NaN,-0.02000413,-5.215409E-10,-6.938394E-08,-1.138011E-07,1.719803E-08,-2.622604E-08
255.0639,0.04500372,-2.208539E-08,NaN,-0.3270004,-1.3638E-07,NaN,0.5115388,1.258371E-08,NaN,-2.144364,8.649074E-06,-0.1812299,-4.362725E-08,NaN,NaN,-0.02000358,-5.261975E-10,-5.701597E-08,-1.137999E-07,1.839012E-08,-2.861022E-08
255.081,0.04500375,-2.208435E-08,NaN,-0.3270004,-1.363798E-07,NaN,0.5140358,1.277622E-08,NaN,-2.144219,8.649693E-06,-0.162324,-4.381758E-08,NaN,NaN,-0.02000244,-5.261975E-10,-2.39354E-08,-1.137987E-07,2.077431E-08,-2.622604E-08
255.098,0.04500375,-2.208435E-08,NaN,-0.3270004,-1.363798E-07,NaN,0.5140358,1.277622E-08,NaN,-2.144219,8.649693E-06,-0.162324,-4.381758E-08,NaN,NaN,-0.02000244,-5.261975E-10,-2.39354E-08,-1.137987E-07,2.077431E-08,-2.622604E-08
255.1145,0.04500376,-2.208332E-08,NaN,-0.3270004,-1.363793E-07,NaN,0.5162348,1.23629E-08,NaN,-2.144087,8.650312E-06,-0.1438228,-4.340207E-08,NaN,NaN,-0.02000145,-5.261975E-10,3.035705E-09,-1.137981E-07,1.600594E-08,-2.861022E-08
255.1323,0.04500379,-2.208228E-08,NaN,-0.3270003,-1.363788E-07,NaN,0.5191406,1.196065E-08,NaN,-2.14396,8.650923E-06,-0.1234257,-4.299763E-08,NaN,NaN,-0.02000093,-5.168843E-10,1.912896E-08,-1.137976E-07,2.077431E-08,-2.622604E-08
255.1492,0.04500382,-2.208125E-08,NaN,-0.3270003,-1.363783E-07,NaN,0.5217469,1.156779E-08,NaN,-2.143835,8.651542E-06,-0.103092,-4.260258E-08,NaN,NaN,-0.02000003,-5.168843E-10,5.131546E-08,-1.13797E-07,1.958221E-08,-2.861022E-08
255.166,0.04500384,-2.208021E-08,NaN,-0.3270003,-1.363778E-07,NaN,0.5240386,1.118419E-08,NaN,-2.143726,8.652152E-06,-0.08319955,-4.221679E-08,NaN,NaN,-0.01999932,-5.07571E-10,8.022371E-08,-1.137965E-07,2.19664E-08,-2.622604E-08
255.183,0.04500386,-2.207917E-08,NaN,-0.3270003,-1.363773E-07,NaN,0.526122,1.080966E-08,NaN,-2.143638,8.652772E-06,-0.0637527,-4.184008E-08,NaN,NaN,-0.01999878,-5.07571E-10,1.085359E-07,-1.13796E-07,2.19664E-08,-2.861022E-08
255.1999,0.04500386,-2.207917E-08,NaN,-0.3270003,-1.363773E-07,NaN,0.526122,1.080966E-08,NaN,-2.143638,8.652772E-06,-0.0637527,-4.184008E-08,NaN,NaN,-0.01999878,-5.07571E-10,1.085359E-07,-1.13796E-07,2.19664E-08,-2.861022E-08
255.2168,0.04500389,-2.207814E-08,NaN,-0.3270002,-1.363769E-07,NaN,0.528971,1.044261E-08,NaN,-2.143559,8.653382E-06,-0.04240543,-4.147084E-08,NaN,NaN,-0.01999852,-4.982578E-10,1.246292E-07,-1.137955E-07,2.077431E-08,-2.622604E-08
255.2341,0.04500391,-2.20771E-08,NaN,-0.3270002,-1.363764E-07,NaN,0.5315467,1.00829E-08,NaN,-2.143486,8.654001E-06,-0.02113129,-4.110895E-08,NaN,NaN,-0.01999814,-4.982578E-10,1.591999E-07,-1.13795E-07,1.839012E-08,-2.861022E-08
255.2524,0.04500394,-2.207607E-08,NaN,-0.3270002,-1.363759E-07,NaN,0.5338206,9.731801E-09,NaN,-2.143429,8.654612E-06,-0.00031217,-4.075567E-08,NaN,NaN,-0.01999792,-4.889446E-10,1.913864E-07,-1.137944E-07,1.719803E-08,-2.622604E-08
255.2684,0.04500397,-2.207504E-08,NaN,-0.3270001,-1.363754E-07,NaN,0.5367986,9.387721E-09,NaN,-2.143385,8.655231E-06,0.02236206,-4.04094E-08,NaN,NaN,-0.01999788,-4.889446E-10,2.107579E-07,-1.137939E-07,1.839012E-08,-2.861022E-08
255.2855,0.04500399,-2.2074E-08,NaN,-0.3270001,-1.36375E-07,NaN,0.539472,9.050529E-09,NaN,-2.14335,8.655841E-06,0.04492185,-4.007002E-08,NaN,NaN,-0.01999797,-4.796314E-10,2.495009E-07,-1.137934E-07,1.481384E-08,-2.622604E-08
255.3027,0.04500402,-2.207297E-08,NaN,-0.3270001,-1.363745E-07,NaN,0.5418293,8.720088E-09,NaN,-2.143334,8.656461E-06,0.0669939,-3.97374E-08,NaN,NaN,-0.01999821,-4.796314E-10,2.825815E-07,-1.137929E-07,1.481384E-08,-2.861022E-08
255.3193,0.04500402,-2.207297E-08,NaN,-0.3270001,-1.363745E-07,NaN,0.5418293,8.720088E-09,NaN,-2.143334,8.656461E-06,0.0669939,-3.97374E-08,NaN,NaN,-0.01999821,-4.796314E-10,2.825815E-07,-1.137929E-07,1.481384E-08,-2.861022E-08
255.3358,0.04500405,-2.207194E-08,NaN,-0.3270001,-1.36374E-07,NaN,0.544883,8.397683E-09,NaN,-2.143336,8.657071E-06,0.09089273,-3.941281E-08,NaN,NaN,-0.0199985,-4.703182E-10,3.034431E-07,-1.137924E-07,1.719803E-08,-2.622604E-08
255.3536,0.04500408,-2.20709E-08,NaN,-0.327,-1.363736E-07,NaN,0.5476289,8.081741E-09,NaN,-2.143349,8.657695E-06,0.1146511,-3.909468E-08,NaN,NaN,-0.01999913,-4.749748E-10,3.403979E-07,-1.137919E-07,1.481384E-08,-2.861022E-08
255.3705,0.0450041,-2.206987E-08,NaN,-0.327,-1.363731E-07,NaN,0.5500566,7.772136E-09,NaN,-2.143383,8.658305E-06,0.1378973,-3.87829E-08,NaN,NaN,-0.0199999,-4.656616E-10,3.773528E-07,-1.137914E-07,1.719803E-08,-2.622604E-08
255.3876,0.04500413,-2.206883E-08,NaN,-0.327,-1.363726E-07,NaN,0.5522738,7.46874E-09,NaN,-2.143438,8.658924E-06,0.1606301,-3.847732E-08,NaN,NaN,-0.02000079,-4.656616E-10,4.131156E-07,-1.137909E-07,1.839012E-08,-2.861022E-08
255.4044,0.04500416,-2.20678E-08,NaN,-0.3269999,-1.363722E-07,NaN,0.5552528,7.171435E-09,NaN,-2.143513,8.659539E-06,0.1851947,-3.817783E-08,NaN,NaN,-0.02000152,-4.563483E-10,4.357654E-07,-1.137904E-07,1.958221E-08,-2.622604E-08
255.4215,0.04500419,-2.206677E-08,NaN,-0.3269999,-1.363717E-07,NaN,0.5579593,6.881515E-09,NaN,-2.143604,8.660163E-06,0.209622,-3.788573E-08,NaN,NaN,-0.02000289,-4.563483E-10,4.721242E-07,-1.137899E-07,1.839012E-08,-2.861022E-08
255.4385,0.04500419,-2.206677E-08,NaN,-0.3269999,-1.363717E-07,NaN,0.5579593,6.881515E-09,NaN,-2.143604,8.660163E-06,0.209622,-3.788573E-08,NaN,NaN,-0.02000289,-4.563483E-10,4.721242E-07,-1.137899E-07,1.839012E-08,-2.861022E-08
255.4551,0.04500422,-2.206573E-08,NaN,-0.3269999,-1.363712E-07,NaN,0.5603642,6.597422E-09,NaN,-2.143713,8.660778E-06,0.2335315,-3.759946E-08,NaN,NaN,-0.02000437,-4.470351E-10,5.096751E-07,-1.137894E-07,1.719803E-08,-2.622604E-08
255.4726,0.04500425,-2.20647E-08,NaN,-0.3269998,-1.363708E-07,NaN,0.5634707,6.319039E-09,NaN,-2.143846,8.661402E-06,0.2592247,-3.731889E-08,NaN,NaN,-0.02000554,-4.470351E-10,5.33517E-07,-1.137889E-07,1.242966E-08,-2.861022E-08
255.4897,0.04500428,-2.206366E-08,NaN,-0.3269998,-1.363703E-07,NaN,0.5662792,6.046259E-09,NaN,-2.143995,8.662017E-06,0.2847484,-3.704393E-08,NaN,NaN,-0.02000752,-4.377219E-10,5.72856E-07,-1.137885E-07,1.600593E-08,-2.622604E-08
255.5064,0.04500431,-2.206263E-08,NaN,-0.3269998,-1.363699E-07,NaN,0.5687733,5.778963E-09,NaN,-2.144162,8.662641E-06,0.3097276,-3.677445E-08,NaN,NaN,-0.02000955,-4.377219E-10,6.127912E-07,-1.13788E-07,1.600593E-08,-2.861022E-08
255.5238,0.04500434,-2.20616E-08,NaN,-0.3269998,-1.363694E-07,NaN,0.5710581,5.518462E-09,NaN,-2.144348,8.663255E-06,0.3341594,-3.651177E-08,NaN,NaN,-0.0200116,-4.284087E-10,6.461698E-07,-1.137875E-07,1.719803E-08,-2.622604E-08
255.5408,0.04500436,-2.206056E-08,NaN,-0.3269997,-1.36369E-07,NaN,0.5732002,5.263215E-09,NaN,-2.144552,8.663879E-06,0.3580762,-3.625434E-08,NaN,NaN,-0.02001367,-4.284087E-10,6.795484E-07,-1.13787E-07,1.362175E-08,-2.861022E-08
255.558,0.04500436,-2.206056E-08,NaN,-0.3269997,-1.36369E-07,NaN,0.5732002,5.263215E-09,NaN,-2.144552,8.663879E-06,0.3580762,-3.625434E-08,NaN,NaN,-0.02001367,-4.284087E-10,6.795484E-07,-1.13787E-07,1.362175E-08,-2.861022E-08
255.5741,0.04500439,-2.205953E-08,NaN,-0.3269997,-1.363685E-07,NaN,0.5752332,5.013111E-09,NaN,-2.144771,8.664494E-06,0.3815029,-3.600206E-08,NaN,NaN,-0.02001579,-4.190955E-10,7.087547E-07,-1.137865E-07,1.839012E-08,-2.622604E-08
255.5923,0.04500442,-2.20585E-08,NaN,-0.3269997,-1.36368E-07,NaN,0.5771737,4.768053E-09,NaN,-2.145005,8.665118E-06,0.4044564,-3.575482E-08,NaN,NaN,-0.02001797,-4.190955E-10,7.379609E-07,-1.13786E-07,1.958221E-08,-2.861022E-08
255.6092,0.04500443,-2.205746E-08,NaN,-0.3269997,-1.363676E-07,NaN,0.5781268,4.527944E-09,NaN,-2.145241,8.665737E-06,0.4246634,-3.551253E-08,NaN,NaN,-0.0200208,-4.097823E-10,7.749158E-07,-1.137856E-07,1.958221E-08,-2.622604E-08
255.6265,0.04500445,-2.205643E-08,NaN,-0.3269996,-1.363671E-07,NaN,0.5791464,4.294095E-09,NaN,-2.145484,8.666366E-06,0.4440822,-3.52765E-08,NaN,NaN,-0.02002255,-4.097823E-10,7.951814E-07,-1.137851E-07,1.839012E-08,-2.861022E-08
255.6435,0.04500447,-2.205539E-08,NaN,-0.3269996,-1.363667E-07,NaN,0.580295,4.064977E-09,NaN,-2.145735,8.666985E-06,0.4631299,-3.504521E-08,NaN,NaN,-0.02002436,-4.00469E-10,8.142549E-07,-1.137846E-07,1.719803E-08,-2.622604E-08
255.6611,0.04500449,-2.205436E-08,NaN,-0.3269996,-1.363663E-07,NaN,0.5814906,3.840492E-09,NaN,-2.145996,8.667614E-06,0.48184,-3.481854E-08,NaN,NaN,-0.02002633,-4.00469E-10,8.339244E-07,-1.137841E-07,1.600593E-08,-2.861022E-08
255.6781,0.04500449,-2.205436E-08,NaN,-0.3269996,-1.363663E-07,NaN,0.5814906,3.840492E-09,NaN,-2.145996,8.667614E-06,0.48184,-3.481854E-08,NaN,NaN,-0.02002633,-4.00469E-10,8.339244E-07,-1.137841E-07,1.600593E-08,-2.861022E-08
255.6943,0.0450045,-2.205333E-08,NaN,-0.3269996,-1.363658E-07,NaN,0.5817745,3.620555E-09,NaN,-2.146253,8.668233E-06,0.4979294,-3.459643E-08,NaN,NaN,-0.02002907,-3.911558E-10,8.649188E-07,-1.137836E-07,1.481384E-08,-2.622604E-08
255.712,0.04500451,-2.205229E-08,NaN,-0.3269996,-1.363654E-07,NaN,0.5821602,3.40507E-09,NaN,-2.146507,8.668861E-06,0.513317,-3.437876E-08,NaN,NaN,-0.02003061,-3.911558E-10,8.762436E-07,-1.137832E-07,1.600593E-08,-2.861022E-08
255.729,0.04500452,-2.205126E-08,NaN,-0.3269996,-1.363649E-07,NaN,0.5827017,3.195368E-09,NaN,-2.146763,8.669481E-06,0.5284163,-3.416688E-08,NaN,NaN,-0.02003222,-3.818426E-10,8.869725E-07,-1.137827E-07,1.481384E-08,-2.622604E-08
255.7464,0.04500453,-2.205022E-08,NaN,-0.3269996,-1.363645E-07,NaN,0.5824099,2.98992E-09,NaN,-2.147011,8.670109E-06,0.5409947,-3.395925E-08,NaN,NaN,-0.0200347,-3.818426E-10,9.108143E-07,-1.137822E-07,1.362175E-08,-2.861022E-08
255.7632,0.04500454,-2.204919E-08,NaN,-0.3269996,-1.363641E-07,NaN,0.5822613,2.788645E-09,NaN,-2.14725,8.670729E-06,0.5529495,-3.375579E-08,NaN,NaN,-0.02003597,-3.725294E-10,9.179669E-07,-1.137818E-07,1.242966E-08,-2.622604E-08
255.7802,0.04500454,-2.204816E-08,NaN,-0.3269996,-1.363636E-07,NaN,0.5822967,2.591456E-09,NaN,-2.147489,8.671357E-06,0.5646892,-3.355642E-08,NaN,NaN,-0.02003731,-3.725294E-10,9.257155E-07,-1.137813E-07,1.362175E-08,-2.861022E-08
255.7984,0.04500454,-2.204816E-08,NaN,-0.3269996,-1.363636E-07,NaN,0.5822967,2.591456E-09,NaN,-2.147489,8.671357E-06,0.5646892,-3.355642E-08,NaN,NaN,-0.02003731,-3.725294E-10,9.257155E-07,-1.137813E-07,1.362175E-08,-2.861022E-08
255.8136,0.04500454,-2.204712E-08,NaN,-0.3269996,-1.363632E-07,NaN,0.5815203,2.39828E-09,NaN,-2.147718,8.671981E-06,0.5739853,-3.336107E-08,NaN,NaN,-0.02003956,-3.632162E-10,9.45385E-07,-1.137808E-07,1.362175E-08,-2.622604E-08
255.8309,0.04500455,-2.204609E-08,NaN,-0.3269996,-1.363627E-07,NaN,0.5809002,2.20903E-09,NaN,-2.147933,8.672614E-06,0.5827195,-3.316963E-08,NaN,NaN,-0.02004057,-3.632162E-10,9.471731E-07,-1.137804E-07,1.362175E-08,-2.861022E-08
255.8478,0.04500455,-2.204506E-08,NaN,-0.3269996,-1.363623E-07,NaN,0.580479,2.025051E-09,NaN,-2.148147,8.673238E-06,0.5913011,-3.298347E-08,NaN,NaN,-0.02004166,-3.53903E-10,9.501534E-07,-1.137799E-07,1.242966E-08,-2.622604E-08
255.8648,0.04500456,-2.204402E-08,NaN,-0.3269996,-1.363619E-07,NaN,0.5801632,1.844822E-09,NaN,-2.148364,8.673871E-06,0.5997588,-3.280106E-08,NaN,NaN,-0.02004289,-3.53903E-10,9.567099E-07,-1.137795E-07,1.242966E-08,-2.861022E-08
255.8821,0.04500455,-2.204299E-08,NaN,-0.3269996,-1.363614E-07,NaN,0.5789868,1.668274E-09,NaN,-2.148568,8.674495E-06,0.6058268,-3.262233E-08,NaN,NaN,-0.02004496,-3.445897E-10,9.745912E-07,-1.13779E-07,1.481384E-08,-2.622604E-08
255.8993,0.04500455,-2.204299E-08,NaN,-0.3269996,-1.363614E-07,NaN,0.5789868,1.668274E-09,NaN,-2.148568,8.674495E-06,0.6058268,-3.262233E-08,NaN,NaN,-0.02004496,-3.445897E-10,9.745912E-07,-1.13779E-07,1.481384E-08,-2.622604E-08
255.9156,0.04500455,-2.204195E-08,NaN,-0.3269996,-1.36361E-07,NaN,0.5779443,1.495328E-09,NaN,-2.148754,8.675128E-06,0.6113769,-3.24472E-08,NaN,NaN,-0.02004573,-3.445897E-10,9.745912E-07,-1.137786E-07,1.719803E-08,-2.861022E-08
255.9332,0.04500455,-2.204092E-08,NaN,-0.3269996,-1.363606E-07,NaN,0.577099,1.325919E-09,NaN,-2.148936,8.675752E-06,0.6168276,-3.227562E-08,NaN,NaN,-0.02004656,-3.352765E-10,9.781675E-07,-1.137781E-07,1.600593E-08,-2.622604E-08
255.9504,0.04500455,-2.203989E-08,NaN,-0.3269996,-1.363602E-07,NaN,0.5754639,1.159973E-09,NaN,-2.149103,8.676385E-06,0.6199672,-3.210749E-08,NaN,NaN,-0.02004829,-3.352765E-10,9.936647E-07,-1.137777E-07,1.481384E-08,-2.861022E-08
255.9675,0.04500454,-2.203885E-08,NaN,-0.3269996,-1.363597E-07,NaN,0.574004,9.988405E-10,NaN,-2.14925,8.677009E-06,0.6226568,-3.194417E-08,NaN,NaN,-0.02004877,-3.259633E-10,9.912804E-07,-1.137772E-07,1.123756E-08,-2.622604E-08
255.9845,0.04500454,-2.203782E-08,NaN,-0.3269996,-1.363593E-07,NaN,0.5727683,8.41009E-10,NaN,-2.149393,8.677642E-06,0.6253095,-3.178416E-08,NaN,NaN,-0.02004933,-3.259633E-10,9.888962E-07,-1.137768E-07,1.004547E-08,-2.861022E-08
256.0013,0.04500454,-2.203678E-08,NaN,-0.3269996,-1.363588E-07,NaN,0.5716653,9.483573E-10,NaN,-2.149539,8.678261E-06,0.6279547,-3.188932E-08,NaN,NaN,-0.02005002,-3.166501E-10,9.888962E-07,-1.137782E-07,1.123756E-08,-2.622604E-08
256.0188,0.04500454,-2.203678E-08,NaN,-0.3269996,-1.363588E-07,NaN,0.5716653,9.483573E-10,NaN,-2.149539,8.678261E-06,0.6279547,-3.188932E-08,NaN,NaN,-0.02005002,-3.166501E-10,9.888962E-07,-1.137782E-07,1.123756E-08,-2.622604E-08
256.0347,0.04500453,-2.203575E-08,NaN,-0.3269996,-1.363583E-07,NaN,0.5697278,5.190638E-10,NaN,-2.149671,8.67889E-06,0.6283324,-3.145784E-08,NaN,NaN,-0.02005159,-3.166501E-10,1.000817E-06,-1.137807E-07,8.853377E-09,-2.861022E-08
256.0528,0.04500452,-2.203472E-08,NaN,-0.3269996,-1.363581E-07,NaN,0.5679464,1.363138E-10,NaN,-2.149781,8.679513E-06,0.6282991,-3.107291E-08,NaN,NaN,-0.02005185,-3.119935E-10,9.960488E-07,-1.137834E-07,1.123756E-08,-2.622604E-08
256.0695,0.04500452,-2.203369E-08,NaN,-0.3269996,-1.363581E-07,NaN,0.5663874,-2.162757E-10,NaN,-2.149885,8.680142E-06,0.6282745,-3.071815E-08,NaN,NaN,-0.02005216,-3.119935E-10,9.948567E-07,-1.137863E-07,4.085005E-09,-2.861022E-08
256.0867,0.04500451,-2.203266E-08,NaN,-0.3269996,-1.363582E-07,NaN,0.5640636,-5.50557E-10,NaN,-2.149975,8.680766E-06,0.6260505,-3.038169E-08,NaN,NaN,-0.0200534,-3.073369E-10,1.004393E-06,-1.137891E-07,4.085005E-09,-2.622604E-08
256.1039,0.0450045,-2.203162E-08,NaN,-0.3269996,-1.363583E-07,NaN,0.5619385,-8.711067E-10,NaN,-2.150042,8.681394E-06,0.6234789,-3.005897E-08,NaN,NaN,-0.02005339,-3.073369E-10,9.966449E-07,-1.13792E-07,5.087262E-10,-2.861022E-08
256.1207,0.04500449,-2.203059E-08,NaN,-0.3269996,-1.363585E-07,NaN,0.5600624,-1.182418E-09,NaN,-2.150104,8.682018E-06,0.6209731,-2.974549E-08,NaN,NaN,-0.02005346,-3.026803E-10,9.871081E-07,-1.13795E-07,5.277098E-09,-2.622604E-08
256.1378,0.04500449,-2.203059E-08,NaN,-0.3269996,-1.363585E-07,NaN,0.5600624,-1.182418E-09,NaN,-2.150104,8.682018E-06,0.6209731,-2.974549E-08,NaN,NaN,-0.02005346,-3.026803E-10,9.871081E-07,-1.13795E-07,5.277098E-09,-2.622604E-08
256.1542,0.04500448,-2.202956E-08,NaN,-0.3269997,-1.363587E-07,NaN,0.5574397,-1.486078E-09,NaN,-2.150153,8.682647E-06,0.6163194,-2.943967E-08,NaN,NaN,-0.02005447,-3.026803E-10,9.942607E-07,-1.137979E-07,5.087264E-10,-2.861022E-08
256.1718,0.04500446,-2.202853E-08,NaN,-0.3269997,-1.363589E-07,NaN,0.555031,-1.703454E-09,NaN,-2.15018,8.683275E-06,0.6113678,-2.922013E-08,NaN,NaN,-0.02005423,-2.980237E-10,9.853201E-07,-1.138008E-07,-1.875459E-09,-2.622604E-08
256.1889,0.04500445,-2.20275E-08,NaN,-0.3269997,-1.363591E-07,NaN,0.5528845,-1.91642E-09,NaN,-2.150203,8.683904E-06,0.6065297,-2.9005E-08,NaN,NaN,-0.02005407,-2.887104E-10,9.757833E-07,-1.138037E-07,-3.067552E-09,-2.861022E-08
256.2061,0.04500444,-2.202647E-08,NaN,-0.3269997,-1.363593E-07,NaN,0.5509067,-2.126475E-09,NaN,-2.150229,8.684532E-06,0.601832,-2.879278E-08,NaN,NaN,-0.02005407,-2.793972E-10,9.698228E-07,-1.138066E-07,-4.259645E-09,-2.622604E-08
256.2232,0.04500442,-2.202544E-08,NaN,-0.3269997,-1.363596E-07,NaN,0.5481279,-2.333678E-09,NaN,-2.150245,8.685161E-06,0.5950089,-2.858342E-08,NaN,NaN,-0.02005493,-2.70084E-10,9.769755E-07,-1.138095E-07,-4.259645E-09,-2.861022E-08
256.24,0.04500442,-2.202544E-08,NaN,-0.3269997,-1.363596E-07,NaN,0.5481279,-2.333678E-09,NaN,-2.150245,8.685161E-06,0.5950089,-2.858342E-08,NaN,NaN,-0.02005493,-2.70084E-10,9.769755E-07,-1.138095E-07,-4.259645E-09,-2.861022E-08
256.2568,0.04500441,-2.202441E-08,NaN,-0.3269998,-1.363598E-07,NaN,0.5455418,-2.538077E-09,NaN,-2.150237,8.685794E-06,0.5879177,-2.837686E-08,NaN,NaN,-0.0200545,-2.607708E-10,9.644585E-07,-1.138124E-07,-5.451738E-09,-2.622604E-08
256.2742,0.0450044,-2.202338E-08,NaN,-0.3269998,-1.3636E-07,NaN,0.5432124,-2.739734E-09,NaN,-2.150224,8.686427E-06,0.5809752,-2.817304E-08,NaN,NaN,-0.02005413,-2.514576E-10,9.519416E-07,-1.138153E-07,-5.451738E-09,-2.861022E-08
256.2913,0.04500438,-2.202235E-08,NaN,-0.3269998,-1.363603E-07,NaN,0.5401495,-2.938698E-09,NaN,-2.150199,8.68706E-06,0.5719628,-2.797192E-08,NaN,NaN,-0.02005468,-2.421444E-10,9.5671E-07,-1.138181E-07,-9.028017E-09,-2.622604E-08
256.3079,0.04500436,-2.202131E-08,NaN,-0.3269998,-1.363605E-07,NaN,0.537322,-3.135022E-09,NaN,-2.150151,8.687693E-06,0.5627407,-2.777344E-08,NaN,NaN,-0.02005399,-2.328311E-10,9.412128E-07,-1.13821E-07,-6.643831E-09,-2.861022E-08
256.3251,0.04500435,-2.202028E-08,NaN,-0.3269999,-1.363607E-07,NaN,0.5347766,-3.328755E-09,NaN,-2.150099,8.688326E-06,0.5537174,-2.757755E-08,NaN,NaN,-0.02005339,-2.235179E-10,9.269077E-07,-1.138239E-07,-7.835924E-09,-2.622604E-08
256.3455,0.04500433,-2.201925E-08,NaN,-0.3269999,-1.363609E-07,NaN,0.5324184,-3.519949E-09,NaN,-2.150053,8.688959E-06,0.5449171,-2.73842E-08,NaN,NaN,-0.02005294,-2.142047E-10,9.161788E-07,-1.138267E-07,-9.028017E-09,-2.861022E-08
256.3614,0.04500431,-2.201822E-08,NaN,-0.3269999,-1.363612E-07,NaN,0.529276,-3.708658E-09,NaN,-2.15,8.689596E-06,0.5340624,-2.719333E-08,NaN,NaN,-0.02005333,-2.095481E-10,9.203511E-07,-1.138295E-07,-1.14122E-08,-2.622604E-08
256.3762,0.04500431,-2.201822E-08,NaN,-0.3269999,-1.363612E-07,NaN,0.529276,-3.708658E-09,NaN,-2.15,8.689596E-06,0.5340624,-2.719333E-08,NaN,NaN,-0.02005333,-2.095481E-10,9.203511E-07,-1.138295E-07,-1.14122E-08,-2.622604E-08
256.3926,0.04500429,-2.201719E-08,NaN,-0.327,-1.363614E-07,NaN,0.5263505,-3.894926E-09,NaN,-2.149923,8.690229E-06,0.5230254,-2.70049E-08,NaN,NaN,-0.02005247,-2.002348E-10,9.024697E-07,-1.138323E-07,-1.14122E-08,-2.861022E-08
256.4106,0.04500427,-2.201615E-08,NaN,-0.327,-1.363616E-07,NaN,0.5237013,-4.0788E-09,NaN,-2.149843,8.690867E-06,0.5122178,-2.681887E-08,NaN,NaN,-0.02005167,-1.955782E-10,8.857804E-07,-1.138351E-07,-1.379639E-08,-2.622604E-08
256.428,0.04500425,-2.201512E-08,NaN,-0.327,-1.363618E-07,NaN,0.5203342,-4.260332E-09,NaN,-2.149754,8.691504E-06,0.4994056,-2.663519E-08,NaN,NaN,-0.02005175,-1.909216E-10,8.822041E-07,-1.138379E-07,-1.618057E-08,-2.861022E-08
256.4446,0.04500423,-2.201409E-08,NaN,-0.3270001,-1.363621E-07,NaN,0.5172265,-4.439561E-09,NaN,-2.149644,8.692142E-06,0.4864666,-2.64538E-08,NaN,NaN,-0.02005064,-1.86265E-10,8.637267E-07,-1.138407E-07,-1.379639E-08,-2.622604E-08
256.4616,0.04500422,-2.201306E-08,NaN,-0.3270001,-1.363623E-07,NaN,0.5144187,-4.616539E-09,NaN,-2.149532,8.692775E-06,0.4738034,-2.627467E-08,NaN,NaN,-0.02004963,-1.769518E-10,8.458452E-07,-1.138435E-07,-1.26043E-08,-2.861022E-08
256.4789,0.04500422,-2.201306E-08,NaN,-0.3270001,-1.363623E-07,NaN,0.5144187,-4.616539E-09,NaN,-2.149532,8.692775E-06,0.4738034,-2.627467E-08,NaN,NaN,-0.02004963,-1.769518E-10,8.458452E-07,-1.138435E-07,-1.26043E-08,-2.861022E-08
256.4953,0.04500419,-2.201203E-08,NaN,-0.3270001,-1.363625E-07,NaN,0.5109066,-4.791306E-09,NaN,-2.149416,8.693412E-06,0.4591696,-2.609774E-08,NaN,NaN,-0.02004948,-1.722952E-10,8.398848E-07,-1.138463E-07,-1.26043E-08,-2.622604E-08
256.5128,0.04500417,-2.201099E-08,NaN,-0.3270001,-1.363628E-07,NaN,0.5076686,-4.963911E-09,NaN,-2.14928,8.69405E-06,0.4444509,-2.592298E-08,NaN,NaN,-0.0200482,-1.676386E-10,8.166389E-07,-1.13849E-07,-1.26043E-08,-2.861022E-08
256.5298,0.04500415,-2.200996E-08,NaN,-0.3270002,-1.36363E-07,NaN,0.5047401,-5.13439E-09,NaN,-2.149144,8.694693E-06,0.430046,-2.575035E-08,NaN,NaN,-0.02004702,-1.676386E-10,7.945852E-07,-1.138518E-07,-1.26043E-08,-2.622604E-08
256.5468,0.04500413,-2.200893E-08,NaN,-0.3270002,-1.363632E-07,NaN,0.5020213,-5.302787E-09,NaN,-2.149019,8.695331E-06,0.415972,-2.557979E-08,NaN,NaN,-0.02004599,-1.62982E-10,7.761078E-07,-1.138545E-07,-1.14122E-08,-2.861022E-08
256.564,0.0450041,-2.20079E-08,NaN,-0.3270002,-1.363634E-07,NaN,0.4985375,-5.469142E-09,NaN,-2.148893,8.695968E-06,0.3999268,-2.541128E-08,NaN,NaN,-0.02004569,-1.583254E-10,7.713394E-07,-1.138573E-07,-1.498848E-08,-2.622604E-08
256.5814,0.04500408,-2.200687E-08,NaN,-0.3270003,-1.363637E-07,NaN,0.4953051,-5.633495E-09,NaN,-2.148748,8.696606E-06,0.3838168,-2.524478E-08,NaN,NaN,-0.0200443,-1.536687E-10,7.480936E-07,-1.1386E-07,-1.26043E-08,-2.861022E-08
256.5981,0.04500408,-2.200687E-08,NaN,-0.3270003,-1.363637E-07,NaN,0.4953051,-5.633495E-09,NaN,-2.148748,8.696606E-06,0.3838168,-2.524478E-08,NaN,NaN,-0.0200443,-1.536687E-10,7.480936E-07,-1.1386E-07,-1.26043E-08,-2.861022E-08
256.6145,0.04500406,-2.200583E-08,NaN,-0.3270003,-1.363639E-07,NaN,0.4923727,-5.795884E-09,NaN,-2.148603,8.697249E-06,0.3680437,-2.508023E-08,NaN,NaN,-0.02004301,-1.536687E-10,7.248477E-07,-1.138627E-07,-1.26043E-08,-2.622604E-08
256.6323,0.04500404,-2.20048E-08,NaN,-0.3270003,-1.363641E-07,NaN,0.4887392,-5.956351E-09,NaN,-2.14846,8.697886E-06,0.3503432,-2.491761E-08,NaN,NaN,-0.02004245,-1.490121E-10,7.141189E-07,-1.138654E-07,-9.028017E-09,-2.861022E-08
256.6498,0.04500401,-2.200377E-08,NaN,-0.3270003,-1.363648E-07,NaN,0.4853972,-6.019247E-09,NaN,-2.1483,8.698529E-06,0.3326291,-2.485256E-08,NaN,NaN,-0.02004096,-1.490121E-10,6.861047E-07,-1.138671E-07,-9.028017E-09,-2.622604E-08
256.6666,0.04500399,-2.200274E-08,NaN,-0.3270004,-1.363654E-07,NaN,0.4823754,-6.096248E-09,NaN,-2.148143,8.699167E-06,0.3152929,-2.477342E-08,NaN,NaN,-0.02003957,-1.443555E-10,6.598787E-07,-1.138688E-07,-5.451739E-09,-2.861022E-08
256.6837,0.04500397,-2.200171E-08,NaN,-0.3270004,-1.363659E-07,NaN,0.4795712,-6.178624E-09,NaN,-2.147999,8.69981E-06,0.2983468,-2.468889E-08,NaN,NaN,-0.02003835,-1.443555E-10,6.372289E-07,-1.138704E-07,-9.028017E-09,-2.622604E-08
256.7009,0.04500395,-2.200067E-08,NaN,-0.3270004,-1.36366E-07,NaN,0.4760086,-6.359145E-09,NaN,-2.147861,8.700447E-06,0.2794707,-2.450622E-08,NaN,NaN,-0.0200377,-1.396989E-10,6.241158E-07,-1.13873E-07,-1.498848E-08,-2.861022E-08
256.7175,0.04500395,-2.200067E-08,NaN,-0.3270004,-1.36366E-07,NaN,0.4760086,-6.359145E-09,NaN,-2.147861,8.700447E-06,0.2794707,-2.450622E-08,NaN,NaN,-0.0200377,-1.396989E-10,6.241158E-07,-1.13873E-07,-1.498848E-08,-2.861022E-08
