JMolnar6/NonAnthroHands_User_Study/HandsLoggerWithURDF/tempdata/files/Reachy_JointMotion_gesture_11_56.csv
Time,r_shoulder,r_shoulder_x,r_upper_arm,r_forearm,r_wrist,r_wrist2hand,
813.9559,-0.6863064,1.234384E-09,NaN,-0.6835033,-1.323103E-07,NaN,0.1006649,-5.361192E-07,NaN,-0.6518924,2.275922E-05,0.0901833,1.299428E-07,NaN,NaN,0.1323161,-4.377225E-10,-2.206204E-06,-1.099724E-07,-9.347306E-09,-2.622604E-08
813.9711,-0.6820013,1.235032E-09,NaN,-0.6797073,-1.323093E-07,NaN,0.1003588,-5.360395E-07,NaN,-0.6506327,2.27596E-05,0.09125412,1.298643E-07,NaN,NaN,0.1327204,-4.284093E-10,-2.194283E-06,-1.0997E-07,-7.559167E-09,-2.861022E-08
813.9897,-0.6775157,1.23568E-09,NaN,-0.6757523,-1.323083E-07,NaN,0.09952673,-5.359584E-07,NaN,-0.6491304,2.275999E-05,0.09296501,1.297846E-07,NaN,NaN,0.1328351,-4.284093E-10,-2.185939E-06,-1.099675E-07,-9.347306E-09,-2.622604E-08
814.0034,-0.6729489,1.236328E-09,NaN,-0.6717218,-1.323074E-07,NaN,0.09862296,-5.35876E-07,NaN,-0.647617,2.276037E-05,0.09487929,1.297035E-07,NaN,NaN,0.1329478,-4.19096E-10,-2.178786E-06,-1.099651E-07,-1.232754E-08,-2.861022E-08
814.0194,-0.6729489,1.236328E-09,NaN,-0.6717218,-1.323074E-07,NaN,0.09862296,-5.35876E-07,NaN,-0.647617,2.276037E-05,0.09487929,1.297035E-07,NaN,NaN,0.1329478,-4.19096E-10,-2.178786E-06,-1.099651E-07,-1.232754E-08,-2.861022E-08
814.0344,-0.6683584,1.236976E-09,NaN,-0.667665,-1.323064E-07,NaN,0.09779768,-5.357896E-07,NaN,-0.6460924,2.276076E-05,0.09680523,1.296184E-07,NaN,NaN,0.1330584,-4.19096E-10,-2.178786E-06,-1.099627E-07,-1.202952E-08,-2.622604E-08
814.0505,-0.6637773,1.237624E-09,NaN,-0.6636107,-1.323055E-07,NaN,0.09707831,-5.35702E-07,NaN,-0.6445636,2.276115E-05,0.09867854,1.295321E-07,NaN,NaN,0.1331668,-4.097828E-10,-2.17521E-06,-1.099603E-07,-1.05394E-08,-2.861022E-08
814.0663,-0.6594546,1.238272E-09,NaN,-0.6597757,-1.323045E-07,NaN,0.09700801,-5.356133E-07,NaN,-0.6432913,2.276154E-05,0.09981132,1.294446E-07,NaN,NaN,0.1335546,-4.097828E-10,-2.169249E-06,-1.099579E-07,-9.049282E-09,-2.622604E-08
814.082,-0.655302,1.23892E-09,NaN,-0.6560859,-1.323036E-07,NaN,0.09711263,-5.355234E-07,NaN,-0.6420503,2.276192E-05,0.1006432,1.29356E-07,NaN,NaN,0.1339346,-4.004696E-10,-2.156136E-06,-1.099555E-07,-1.05394E-08,-2.861022E-08
814.098,-0.655302,1.23892E-09,NaN,-0.6560859,-1.323036E-07,NaN,0.09711263,-5.355234E-07,NaN,-0.6420503,2.276192E-05,0.1006432,1.29356E-07,NaN,NaN,0.1339346,-4.004696E-10,-2.156136E-06,-1.099555E-07,-1.05394E-08,-2.861022E-08
814.1132,-0.6512683,1.239568E-09,NaN,-0.6524978,-1.323026E-07,NaN,0.09722582,-5.354324E-07,NaN,-0.6408441,2.276231E-05,0.101371,1.292663E-07,NaN,NaN,0.1343071,-4.004696E-10,-2.143023E-06,-1.099531E-07,-1.232754E-08,-2.622604E-08
814.1299,-0.6473232,1.240216E-09,NaN,-0.6489853,-1.323017E-07,NaN,0.09730753,-5.353376E-07,NaN,-0.6396679,2.276269E-05,0.1020656,1.291727E-07,NaN,NaN,0.1346723,-3.911564E-10,-2.12991E-06,-1.099507E-07,-1.590382E-08,-2.861022E-08
814.1458,-0.6436777,1.240863E-09,NaN,-0.6457329,-1.323007E-07,NaN,0.09791424,-5.351502E-07,NaN,-0.6387693,2.276308E-05,0.1020753,1.289867E-07,NaN,NaN,0.1353119,-3.95813E-10,-2.114413E-06,-1.099483E-07,-1.590382E-08,-2.622604E-08
814.162,-0.6402245,1.241509E-09,NaN,-0.6426485,-1.322998E-07,NaN,0.09860294,-5.349636E-07,NaN,-0.6379132,2.276348E-05,0.1018403,1.288014E-07,NaN,NaN,0.1359387,-4.051262E-10,-2.100108E-06,-1.09946E-07,-1.411568E-08,-2.861022E-08
814.1775,-0.6402245,1.241509E-09,NaN,-0.6426485,-1.322998E-07,NaN,0.09860294,-5.349636E-07,NaN,-0.6379132,2.276348E-05,0.1018403,1.288014E-07,NaN,NaN,0.1359387,-4.051262E-10,-2.100108E-06,-1.09946E-07,-1.411568E-08,-2.861022E-08
814.1928,-0.6369003,1.242156E-09,NaN,-0.6396774,-1.322989E-07,NaN,0.0992353,-5.34775E-07,NaN,-0.6370962,2.276386E-05,0.1015481,1.286141E-07,NaN,NaN,0.1365532,-4.004696E-10,-2.079842E-06,-1.099436E-07,-1.649986E-08,-2.622604E-08
814.2093,-0.6336679,1.242803E-09,NaN,-0.6367868,-1.322979E-07,NaN,0.09979092,-5.345872E-07,NaN,-0.6363091,2.276424E-05,0.1012605,1.284276E-07,NaN,NaN,0.1371557,-4.051262E-10,-2.061961E-06,-1.099413E-07,-1.649986E-08,-2.861022E-08
814.2253,-0.6307327,1.243449E-09,NaN,-0.6341568,-1.32297E-07,NaN,0.100838,-5.344003E-07,NaN,-0.6357972,2.276461E-05,0.1003202,1.282419E-07,NaN,NaN,0.1380279,-4.004696E-10,-2.041695E-06,-1.099389E-07,-1.530777E-08,-2.622604E-08
814.2412,-0.6279865,1.244095E-09,NaN,-0.6316938,-1.322961E-07,NaN,0.1019435,-5.342141E-07,NaN,-0.635323,2.276498E-05,0.09916093,1.28057E-07,NaN,NaN,0.1388828,-4.051262E-10,-2.02143E-06,-1.099366E-07,-1.471172E-08,-2.861022E-08
814.2571,-0.6279865,1.244095E-09,NaN,-0.6316938,-1.322961E-07,NaN,0.1019435,-5.342141E-07,NaN,-0.635323,2.276498E-05,0.09916093,1.28057E-07,NaN,NaN,0.1388828,-4.051262E-10,-2.02143E-06,-1.099366E-07,-1.471172E-08,-2.861022E-08
814.2725,-0.6253651,1.244742E-09,NaN,-0.6293415,-1.322952E-07,NaN,0.1029742,-5.340286E-07,NaN,-0.6348826,2.276535E-05,0.09796668,1.278729E-07,NaN,NaN,0.1397209,-4.051262E-10,-1.99878E-06,-1.099343E-07,-1.590382E-08,-2.622604E-08
814.2887,-0.6228302,1.245387E-09,NaN,-0.6270661,-1.322942E-07,NaN,0.1039121,-5.338439E-07,NaN,-0.6344665,2.276571E-05,0.09679725,1.276895E-07,NaN,NaN,0.1405426,-4.051262E-10,-1.974342E-06,-1.09932E-07,-1.709591E-08,-2.861022E-08
814.3047,-0.6205854,1.246033E-09,NaN,-0.6250468,-1.322933E-07,NaN,0.1053244,-5.336601E-07,NaN,-0.6343201,2.276609E-05,0.09499583,1.275069E-07,NaN,NaN,0.1416297,-4.097828E-10,-1.951096E-06,-1.099297E-07,-1.649986E-08,-2.622604E-08
814.3203,-0.6185238,1.246679E-09,NaN,-0.6231904,-1.322924E-07,NaN,0.1067822,-5.334741E-07,NaN,-0.634205,2.276645E-05,0.09299292,1.273222E-07,NaN,NaN,0.1426953,-4.097828E-10,-1.92487E-06,-1.099274E-07,-1.351963E-08,-2.861022E-08
814.337,-0.6185238,1.246679E-09,NaN,-0.6231904,-1.322924E-07,NaN,0.1067822,-5.334741E-07,NaN,-0.634205,2.276645E-05,0.09299292,1.273222E-07,NaN,NaN,0.1426953,-4.097828E-10,-1.92487E-06,-1.099274E-07,-1.351963E-08,-2.861022E-08
814.3514,-0.6165811,1.247324E-09,NaN,-0.6214404,-1.322915E-07,NaN,0.1081528,-5.332888E-07,NaN,-0.6341174,2.276682E-05,0.09097183,1.271382E-07,NaN,NaN,0.1437399,-4.097828E-10,-1.898048E-06,-1.099251E-07,-1.590382E-08,-2.622604E-08
814.3681,-0.6147187,1.24797E-09,NaN,-0.6197623,-1.322906E-07,NaN,0.1094184,-5.331043E-07,NaN,-0.6340485,2.27672E-05,0.08899222,1.26955E-07,NaN,NaN,0.1447641,-4.19096E-10,-1.869438E-06,-1.099228E-07,-1.471172E-08,-2.861022E-08
814.3837,-0.6131392,1.248615E-09,NaN,-0.6183351,-1.322897E-07,NaN,0.1111424,-5.329205E-07,NaN,-0.634244,2.276756E-05,0.08639931,1.267725E-07,NaN,NaN,0.1460497,-4.19096E-10,-1.843212E-06,-1.099205E-07,-1.769196E-08,-2.622604E-08
814.3995,-0.6131392,1.248615E-09,NaN,-0.6183351,-1.322897E-07,NaN,0.1111424,-5.329205E-07,NaN,-0.634244,2.276756E-05,0.08639931,1.267725E-07,NaN,NaN,0.1460497,-4.19096E-10,-1.843212E-06,-1.099205E-07,-1.769196E-08,-2.622604E-08
814.4145,-0.6117369,1.24926E-09,NaN,-0.6170661,-1.322888E-07,NaN,0.1129006,-5.327375E-07,NaN,-0.6344647,2.276793E-05,0.08362,1.265908E-07,NaN,NaN,0.14731,-4.19096E-10,-1.815198E-06,-1.099182E-07,-1.709591E-08,-2.861022E-08
814.4311,-0.6104476,1.249905E-09,NaN,-0.6158988,-1.322879E-07,NaN,0.1145604,-5.325552E-07,NaN,-0.6347072,2.27683E-05,0.08083756,1.264098E-07,NaN,NaN,0.1485455,-4.19096E-10,-1.783607E-06,-1.09916E-07,-1.8288E-08,-2.622604E-08
814.4469,-0.6092325,1.25055E-09,NaN,-0.6147984,-1.32287E-07,NaN,0.1161039,-5.323736E-07,NaN,-0.6349628,2.276867E-05,0.07811177,1.262294E-07,NaN,NaN,0.1497568,-4.19096E-10,-1.753805E-06,-1.099137E-07,-1.8288E-08,-2.861022E-08
814.4648,-0.6082935,1.251195E-09,NaN,-0.6139435,-1.322861E-07,NaN,0.1180895,-5.321926E-07,NaN,-0.6354781,2.276904E-05,0.07479068,1.260498E-07,NaN,NaN,0.1512259,-4.284093E-10,-1.722214E-06,-1.099115E-07,-1.8288E-08,-2.622604E-08
814.478,-0.6082935,1.251195E-09,NaN,-0.6139435,-1.322861E-07,NaN,0.1180895,-5.321926E-07,NaN,-0.6354781,2.276904E-05,0.07479068,1.260498E-07,NaN,NaN,0.1512259,-4.284093E-10,-1.722214E-06,-1.099115E-07,-1.8288E-08,-2.622604E-08
814.4932,-0.6075258,1.251839E-09,NaN,-0.613242,-1.322852E-07,NaN,0.1200989,-5.320096E-07,NaN,-0.6360132,2.276942E-05,0.07129671,1.25868E-07,NaN,NaN,0.152666,-4.377225E-10,-1.689432E-06,-1.099093E-07,-1.173149E-08,-2.861022E-08
814.5104,-0.6068653,1.252484E-09,NaN,-0.6126373,-1.322843E-07,NaN,0.1219995,-5.318271E-07,NaN,-0.6365646,2.276979E-05,0.06781335,1.256869E-07,NaN,NaN,0.1540779,-4.377225E-10,-1.656053E-06,-1.09907E-07,-1.292359E-08,-2.622604E-08
814.5259,-0.6062732,1.253128E-09,NaN,-0.6120946,-1.322834E-07,NaN,0.123773,-5.316455E-07,NaN,-0.6371241,2.277015E-05,0.06440072,1.255064E-07,NaN,NaN,0.1554621,-4.377225E-10,-1.626251E-06,-1.099048E-07,-1.471173E-08,-2.861022E-08
814.5419,-0.6059506,1.253773E-09,NaN,-0.611792,-1.322825E-07,NaN,0.1259723,-5.314645E-07,NaN,-0.6379393,2.277052E-05,0.06041022,1.253267E-07,NaN,NaN,0.1571007,-4.377225E-10,-1.593468E-06,-1.099026E-07,-1.709591E-08,-2.622604E-08
814.5577,-0.6059506,1.253773E-09,NaN,-0.611792,-1.322825E-07,NaN,0.1259723,-5.314645E-07,NaN,-0.6379393,2.277052E-05,0.06041022,1.253267E-07,NaN,NaN,0.1571007,-4.377225E-10,-1.593468E-06,-1.099026E-07,-1.709591E-08,-2.622604E-08
814.5732,-0.6057937,1.254417E-09,NaN,-0.6116379,-1.322816E-07,NaN,0.1281859,-5.312841E-07,NaN,-0.638769,2.277089E-05,0.05625896,1.251477E-07,NaN,NaN,0.158707,-4.377225E-10,-1.553533E-06,-1.099004E-07,-2.007614E-08,-2.861022E-08
814.5895,-0.6057386,1.255061E-09,NaN,-0.6115759,-1.322807E-07,NaN,0.1302809,-5.311044E-07,NaN,-0.63961,2.277127E-05,0.05213094,1.249693E-07,NaN,NaN,0.1602818,-4.470357E-10,-1.513598E-06,-1.098982E-07,-2.305638E-08,-2.622604E-08
814.6061,-0.6057452,1.255704E-09,NaN,-0.6115707,-1.322799E-07,NaN,0.1322387,-5.309254E-07,NaN,-0.6404551,2.277163E-05,0.04808679,1.247915E-07,NaN,NaN,0.1618258,-4.470357E-10,-1.479028E-06,-1.09896E-07,-1.828801E-08,-2.861022E-08
814.6213,-0.6060148,1.256348E-09,NaN,-0.6117997,-1.32279E-07,NaN,0.1346051,-5.307469E-07,NaN,-0.6415523,2.277201E-05,0.04348264,1.246144E-07,NaN,NaN,0.163621,-4.563489E-10,-1.444457E-06,-1.098938E-07,-1.94801E-08,-2.622604E-08
814.6371,-0.6060148,1.256348E-09,NaN,-0.6117997,-1.32279E-07,NaN,0.1346051,-5.307469E-07,NaN,-0.6415523,2.277201E-05,0.04348264,1.246144E-07,NaN,NaN,0.163621,-4.563489E-10,-1.444457E-06,-1.098938E-07,-1.94801E-08,-2.622604E-08
814.6523,-0.606444,1.256992E-09,NaN,-0.6121715,-1.322781E-07,NaN,0.1369767,-5.305691E-07,NaN,-0.6426592,2.277238E-05,0.03872914,1.244379E-07,NaN,NaN,0.165381,-4.563489E-10,-1.402138E-06,-1.098917E-07,-1.649987E-08,-2.861022E-08
814.6689,-0.6069686,1.257635E-09,NaN,-0.6126294,-1.322772E-07,NaN,0.1392203,-5.30392E-07,NaN,-0.6437731,2.277275E-05,0.03401117,1.24262E-07,NaN,NaN,0.1671064,-4.656621E-10,-1.362799E-06,-1.098895E-07,-1.590382E-08,-2.622604E-08
814.6848,-0.607549,1.258279E-09,NaN,-0.613138,-1.322764E-07,NaN,0.1413179,-5.302153E-07,NaN,-0.6448865,2.277313E-05,0.02938959,1.240867E-07,NaN,NaN,0.168798,-4.749753E-10,-1.324652E-06,-1.098873E-07,-1.590382E-08,-2.861022E-08
814.7009,-0.6083862,1.258922E-09,NaN,-0.613875,-1.322755E-07,NaN,0.1438079,-5.300365E-07,NaN,-0.6462491,2.27735E-05,0.02422407,1.239091E-07,NaN,NaN,0.1707379,-4.749753E-10,-1.287697E-06,-1.098852E-07,-1.471173E-08,-2.622604E-08
814.7167,-0.6083862,1.258922E-09,NaN,-0.613875,-1.322755E-07,NaN,0.1438079,-5.300365E-07,NaN,-0.6462491,2.27735E-05,0.02422407,1.239091E-07,NaN,NaN,0.1707379,-4.749753E-10,-1.287697E-06,-1.098852E-07,-1.471173E-08,-2.622604E-08
814.7319,-0.6093757,1.259565E-09,NaN,-0.6147484,-1.322746E-07,NaN,0.1462938,-5.298583E-07,NaN,-0.6476177,2.277387E-05,0.01892059,1.237322E-07,NaN,NaN,0.1726398,-4.749753E-10,-1.246569E-06,-1.09883E-07,-1.351964E-08,-2.861022E-08
814.7483,-0.6104532,1.260208E-09,NaN,-0.615701,-1.322738E-07,NaN,0.1486425,-5.296807E-07,NaN,-0.6489894,2.277423E-05,0.01366458,1.235559E-07,NaN,NaN,0.1745044,-4.749753E-10,-1.203654E-06,-1.098809E-07,-1.232754E-08,-2.622604E-08
814.7645,-0.6115792,1.260851E-09,NaN,-0.6166974,-1.322729E-07,NaN,0.1508368,-5.295037E-07,NaN,-0.6503571,2.27746E-05,0.008516748,1.233802E-07,NaN,NaN,0.1763324,-4.749753E-10,-1.166103E-06,-1.098788E-07,-1.05394E-08,-2.861022E-08
814.7802,-0.6129553,1.261494E-09,NaN,-0.6179158,-1.32272E-07,NaN,0.1534072,-5.293273E-07,NaN,-0.6519711,2.277497E-05,0.002841324,1.232051E-07,NaN,NaN,0.1784062,-4.749753E-10,-1.125572E-06,-1.098767E-07,-8.751265E-09,-2.622604E-08
814.7964,-0.6129553,1.261494E-09,NaN,-0.6179158,-1.32272E-07,NaN,0.1534072,-5.293273E-07,NaN,-0.6519711,2.277497E-05,0.002841324,1.232051E-07,NaN,NaN,0.1784062,-4.749753E-10,-1.125572E-06,-1.098767E-07,-8.751265E-09,-2.622604E-08
814.8114,-0.6144764,1.262137E-09,NaN,-0.6192635,-1.322712E-07,NaN,0.1559655,-5.291515E-07,NaN,-0.6535876,2.277534E-05,-0.002962034,1.230305E-07,NaN,NaN,0.1804392,-4.749753E-10,-1.084445E-06,-1.098746E-07,-1.05394E-08,-2.861022E-08
814.829,-0.6160782,1.262779E-09,NaN,-0.6206835,-1.322703E-07,NaN,0.1583791,-5.289763E-07,NaN,-0.6552036,2.27757E-05,-0.008707354,1.228565E-07,NaN,NaN,0.1824324,-4.749753E-10,-1.042722E-06,-1.098725E-07,-6.36708E-09,-2.622604E-08
814.844,-0.6177214,1.263422E-09,NaN,-0.6221408,-1.322695E-07,NaN,0.1606313,-5.288016E-07,NaN,-0.6568118,2.277607E-05,-0.01433392,1.226831E-07,NaN,NaN,0.1843866,-4.749753E-10,-9.992102E-07,-1.098704E-07,-9.347312E-09,-2.861022E-08
814.8599,-0.6177214,1.263422E-09,NaN,-0.6221408,-1.322695E-07,NaN,0.1606313,-5.288016E-07,NaN,-0.6568118,2.277607E-05,-0.01433392,1.226831E-07,NaN,NaN,0.1843866,-4.749753E-10,-9.992102E-07,-1.098704E-07,-9.347312E-09,-2.861022E-08
814.8753,-0.6196085,1.264064E-09,NaN,-0.6238138,-1.322686E-07,NaN,0.1632437,-5.286274E-07,NaN,-0.6586639,2.277644E-05,-0.02047239,1.225103E-07,NaN,NaN,0.186584,-4.749753E-10,-9.604672E-07,-1.098683E-07,-7.559173E-09,-2.622604E-08
814.8916,-0.6216338,1.264706E-09,NaN,-0.6256095,-1.322678E-07,NaN,0.1658375,-5.284538E-07,NaN,-0.6605151,2.277681E-05,-0.02673,1.223379E-07,NaN,NaN,0.1887382,-4.749753E-10,-9.163598E-07,-1.098662E-07,-5.174987E-09,-2.861022E-08
814.9081,-0.623733,1.265348E-09,NaN,-0.6274709,-1.322669E-07,NaN,0.1682801,-5.282807E-07,NaN,-0.6623621,2.277717E-05,-0.03292008,1.221661E-07,NaN,NaN,0.1908503,-4.749753E-10,-8.734444E-07,-1.098641E-07,-4.578941E-09,-2.622604E-08
814.9234,-0.6258671,1.26599E-09,NaN,-0.6293634,-1.322661E-07,NaN,0.1705554,-5.281082E-07,NaN,-0.664198,2.277754E-05,-0.03898181,1.219948E-07,NaN,NaN,0.192921,-4.749753E-10,-8.317212E-07,-1.09862E-07,1.97757E-09,-2.861022E-08
814.9396,-0.6258671,1.26599E-09,NaN,-0.6293634,-1.322661E-07,NaN,0.1705554,-5.281082E-07,NaN,-0.664198,2.277754E-05,-0.03898181,1.219948E-07,NaN,NaN,0.192921,-4.749753E-10,-8.317212E-07,-1.09862E-07,1.97757E-09,-2.861022E-08
814.9545,-0.6282395,1.266631E-09,NaN,-0.6314659,-1.322653E-07,NaN,0.1731755,-5.279361E-07,NaN,-0.6662754,2.277791E-05,-0.04554022,1.21824E-07,NaN,NaN,0.1952326,-4.749753E-10,-7.894019E-07,-1.0986E-07,1.894308E-10,-2.622604E-08
814.9724,-0.6307437,1.267273E-09,NaN,-0.6336848,-1.322644E-07,NaN,0.1757716,-5.277645E-07,NaN,-0.6683486,2.277827E-05,-0.05220998,1.216537E-07,NaN,NaN,0.1974989,-4.749753E-10,-7.441024E-07,-1.098579E-07,7.854772E-10,-2.861022E-08
814.9869,-0.6333154,1.267915E-09,NaN,-0.6359632,-1.322636E-07,NaN,0.1782113,-5.275934E-07,NaN,-0.6704144,2.277864E-05,-0.05880364,1.214839E-07,NaN,NaN,0.1997208,-4.749753E-10,-6.999949E-07,-1.098559E-07,4.361756E-09,-2.622604E-08
815.0023,-0.6359159,1.268556E-09,NaN,-0.6382669,-1.322627E-07,NaN,0.1804788,-5.274227E-07,NaN,-0.672466,2.277901E-05,-0.06526022,1.213146E-07,NaN,NaN,0.2018992,-4.749753E-10,-6.582717E-07,-1.098538E-07,4.957802E-09,-2.861022E-08
815.0185,-0.6359159,1.268556E-09,NaN,-0.6382669,-1.322627E-07,NaN,0.1804788,-5.274227E-07,NaN,-0.672466,2.277901E-05,-0.06526022,1.213146E-07,NaN,NaN,0.2018992,-4.749753E-10,-6.582717E-07,-1.098538E-07,4.957802E-09,-2.861022E-08
815.0335,-0.6387497,1.269197E-09,NaN,-0.6407751,-1.322619E-07,NaN,0.1830763,-5.272526E-07,NaN,-0.6747567,2.277938E-05,-0.07219861,1.211457E-07,NaN,NaN,0.2043164,-4.749753E-10,-6.171445E-07,-1.098518E-07,6.745942E-09,-2.622604E-08
815.0502,-0.6417095,1.269838E-09,NaN,-0.6433939,-1.322611E-07,NaN,0.1856453,-5.270828E-07,NaN,-0.6770402,2.277974E-05,-0.07924145,1.209773E-07,NaN,NaN,0.2066862,-4.749753E-10,-5.742291E-07,-1.098498E-07,6.745942E-09,-2.861022E-08
815.0659,-0.6447309,1.270479E-09,NaN,-0.6460664,-1.322603E-07,NaN,0.1880536,-5.269135E-07,NaN,-0.6793132,2.278011E-05,-0.08620047,1.208093E-07,NaN,NaN,0.2090096,-4.749753E-10,-5.283335E-07,-1.098478E-07,6.745942E-09,-2.622604E-08
815.0816,-0.6477752,1.27112E-09,NaN,-0.6487588,-1.322594E-07,NaN,0.1902862,-5.267447E-07,NaN,-0.681569,2.278048E-05,-0.09301441,1.206418E-07,NaN,NaN,0.2112875,-4.749753E-10,-4.848222E-07,-1.098458E-07,1.151431E-08,-2.861022E-08
815.0975,-0.6477752,1.27112E-09,NaN,-0.6487588,-1.322594E-07,NaN,0.1902862,-5.267447E-07,NaN,-0.681569,2.278048E-05,-0.09301441,1.206418E-07,NaN,NaN,0.2112875,-4.749753E-10,-4.848222E-07,-1.098458E-07,1.151431E-08,-2.861022E-08
815.1123,-0.6510482,1.27176E-09,NaN,-0.6516505,-1.322586E-07,NaN,0.1928341,-5.265763E-07,NaN,-0.6840619,2.278085E-05,-0.1002957,1.204747E-07,NaN,NaN,0.2138022,-4.749753E-10,-4.448871E-07,-1.098438E-07,1.091827E-08,-2.622604E-08
815.1291,-0.6544419,1.272401E-09,NaN,-0.6546473,-1.322578E-07,NaN,0.1953503,-5.264084E-07,NaN,-0.6865448,2.278121E-05,-0.1076754,1.20308E-07,NaN,NaN,0.2162678,-4.749753E-10,-4.013757E-07,-1.098418E-07,1.270641E-08,-2.861022E-08
815.1447,-0.6578915,1.273041E-09,NaN,-0.6576924,-1.32257E-07,NaN,0.1977027,-5.262408E-07,NaN,-0.6890144,2.278158E-05,-0.1149642,1.201417E-07,NaN,NaN,0.218685,-4.749753E-10,-3.578643E-07,-1.098398E-07,1.270641E-08,-2.622604E-08
815.1609,-0.6613586,1.273682E-09,NaN,-0.6607522,-1.322562E-07,NaN,0.1998765,-5.260736E-07,NaN,-0.6914639,2.278195E-05,-0.1221007,1.199758E-07,NaN,NaN,0.2210548,-4.749753E-10,-3.191213E-07,-1.098378E-07,1.330245E-08,-2.861022E-08
815.1766,-0.6613586,1.273682E-09,NaN,-0.6607522,-1.322562E-07,NaN,0.1998765,-5.260736E-07,NaN,-0.6914639,2.278195E-05,-0.1221007,1.199758E-07,NaN,NaN,0.2210548,-4.749753E-10,-3.191213E-07,-1.098378E-07,1.330245E-08,-2.861022E-08
815.1914,-0.6650504,1.274322E-09,NaN,-0.6640067,-1.322554E-07,NaN,0.2023518,-5.259068E-07,NaN,-0.6941486,2.278232E-05,-0.1296905,1.198104E-07,NaN,NaN,0.2236596,-4.749753E-10,-2.77994E-07,-1.098358E-07,1.091827E-08,-2.622604E-08
815.2078,-0.6688576,1.274962E-09,NaN,-0.6673608,-1.322546E-07,NaN,0.204793,-5.257405E-07,NaN,-0.6968208,2.278268E-05,-0.1373732,1.196453E-07,NaN,NaN,0.2262135,-4.749753E-10,-2.344827E-07,-1.098338E-07,7.938035E-09,-2.861022E-08
815.2236,-0.6727155,1.275602E-09,NaN,-0.6707581,-1.322537E-07,NaN,0.2070681,-5.255745E-07,NaN,-0.699477,2.278305E-05,-0.1449588,1.194806E-07,NaN,NaN,0.2287174,-4.749753E-10,-1.87395E-07,-1.098319E-07,9.130128E-09,-2.622604E-08
815.2397,-0.6727155,1.275602E-09,NaN,-0.6707581,-1.322537E-07,NaN,0.2070681,-5.255745E-07,NaN,-0.699477,2.278305E-05,-0.1449588,1.194806E-07,NaN,NaN,0.2287174,-4.749753E-10,-1.87395E-07,-1.098319E-07,9.130128E-09,-2.622604E-08
815.2547,-0.6768167,1.276241E-09,NaN,-0.6743652,-1.322529E-07,NaN,0.209614,-5.254089E-07,NaN,-0.7023723,2.278342E-05,-0.1529977,1.193163E-07,NaN,NaN,0.2314536,-4.749753E-10,-1.468638E-07,-1.098299E-07,1.270641E-08,-2.861022E-08
815.2709,-0.6810415,1.276881E-09,NaN,-0.6780785,-1.322521E-07,NaN,0.2120993,-5.252436E-07,NaN,-0.7052575,2.278379E-05,-0.1611187,1.191523E-07,NaN,NaN,0.2341364,-4.749753E-10,-9.918011E-08,-1.09828E-07,1.121629E-08,-2.622604E-08
815.2867,-0.6853194,1.277521E-09,NaN,-0.6818368,-1.322513E-07,NaN,0.214397,-5.250787E-07,NaN,-0.7081274,2.278415E-05,-0.1691275,1.189887E-07,NaN,NaN,0.2367666,-4.749753E-10,-5.268849E-08,-1.09826E-07,1.240838E-08,-2.861022E-08
815.3027,-0.6896089,1.27816E-09,NaN,-0.685604,-1.322505E-07,NaN,0.2164989,-5.249142E-07,NaN,-0.7109742,2.278452E-05,-0.1769627,1.188255E-07,NaN,NaN,0.2393452,-4.749753E-10,-6.196871E-09,-1.098241E-07,9.130128E-09,-2.622604E-08
815.3184,-0.6896089,1.27816E-09,NaN,-0.685604,-1.322505E-07,NaN,0.2164989,-5.249142E-07,NaN,-0.7109742,2.278452E-05,-0.1769627,1.188255E-07,NaN,NaN,0.2393452,-4.749753E-10,-6.196871E-09,-1.098241E-07,9.130128E-09,-2.622604E-08
815.3334,-0.6941183,1.278799E-09,NaN,-0.689559,-1.322498E-07,NaN,0.2188684,-5.2475E-07,NaN,-0.7140534,2.278489E-05,-0.1852187,1.186626E-07,NaN,NaN,0.2421546,-4.749753E-10,3.552638E-08,-1.098222E-07,6.149896E-09,-2.861022E-08
815.3498,-0.6987349,1.279438E-09,NaN,-0.6936051,-1.32249E-07,NaN,0.2211943,-5.245862E-07,NaN,-0.7171163,2.278526E-05,-0.1935522,1.185E-07,NaN,NaN,0.2449092,-4.749753E-10,8.2018E-08,-1.098203E-07,8.534082E-09,-2.622604E-08
815.3659,-0.7033927,1.280077E-09,NaN,-0.6976852,-1.322482E-07,NaN,0.2233471,-5.244227E-07,NaN,-0.7201585,2.278562E-05,-0.2017733,1.183378E-07,NaN,NaN,0.2476098,-4.749753E-10,1.279136E-07,-1.098184E-07,7.341989E-09,-2.861022E-08
815.3816,-0.7080532,1.280716E-09,NaN,-0.7017661,-1.322474E-07,NaN,0.2253146,-5.242623E-07,NaN,-0.7231734,2.278599E-05,-0.2098204,1.181787E-07,NaN,NaN,0.2502575,-4.749753E-10,1.678487E-07,-1.098164E-07,8.236059E-09,-2.622604E-08
815.3978,-0.7080532,1.280716E-09,NaN,-0.7017661,-1.322474E-07,NaN,0.2253146,-5.242623E-07,NaN,-0.7231734,2.278599E-05,-0.2098204,1.181787E-07,NaN,NaN,0.2502575,-4.749753E-10,1.678487E-07,-1.098164E-07,8.236059E-09,-2.622604E-08
815.4128,-0.7129284,1.281355E-09,NaN,-0.7060288,-1.322466E-07,NaN,0.227544,-5.241022E-07,NaN,-0.7264174,2.278636E-05,-0.2182793,1.180199E-07,NaN,NaN,0.2531346,-4.749753E-10,2.083799E-07,-1.098146E-07,1.181234E-08,-2.861022E-08
815.4294,-0.717905,1.281994E-09,NaN,-0.7103767,-1.322458E-07,NaN,0.2297338,-5.239423E-07,NaN,-0.7296426,2.278673E-05,-0.2268147,1.178614E-07,NaN,NaN,0.2559555,-4.749753E-10,2.498051E-07,-1.098127E-07,1.330245E-08,-2.622604E-08
815.4448,-0.7229173,1.282633E-09,NaN,-0.7147534,-1.32245E-07,NaN,0.2317534,-5.237827E-07,NaN,-0.7328446,2.278709E-05,-0.235235,1.177031E-07,NaN,NaN,0.2587212,-4.749753E-10,2.971908E-07,-1.098108E-07,1.181234E-08,-2.861022E-08
815.4608,-0.7279273,1.283271E-09,NaN,-0.7191265,-1.322442E-07,NaN,0.2335898,-5.236234E-07,NaN,-0.7360169,2.278747E-05,-0.2434777,1.17545E-07,NaN,NaN,0.2614326,-4.842886E-10,3.454705E-07,-1.098089E-07,1.121629E-08,-2.622604E-08
815.478,-0.7279273,1.283271E-09,NaN,-0.7191265,-1.322442E-07,NaN,0.2335898,-5.236234E-07,NaN,-0.7360169,2.278747E-05,-0.2434777,1.17545E-07,NaN,NaN,0.2614326,-4.842886E-10,3.454705E-07,-1.098089E-07,1.121629E-08,-2.622604E-08
815.4922,-0.7331491,1.28391E-09,NaN,-0.7236773,-1.322435E-07,NaN,0.235677,-5.234643E-07,NaN,-0.7394166,2.278784E-05,-0.2521204,1.173872E-07,NaN,NaN,0.2643722,-4.842886E-10,3.836175E-07,-1.09807E-07,1.225937E-08,-2.861022E-08
815.5084,-0.7384681,1.284548E-09,NaN,-0.7283087,-1.322427E-07,NaN,0.237726,-5.233054E-07,NaN,-0.742796,2.278821E-05,-0.2608366,1.172296E-07,NaN,NaN,0.2672544,-4.936018E-10,4.262348E-07,-1.098051E-07,1.345146E-08,-2.622604E-08
815.524,-0.7438182,1.285186E-09,NaN,-0.7329648,-1.322419E-07,NaN,0.2396062,-5.231468E-07,NaN,-0.7461503,2.278858E-05,-0.2694341,1.170723E-07,NaN,NaN,0.2700801,-4.936018E-10,4.727265E-07,-1.098033E-07,1.419652E-08,-2.861022E-08
815.5403,-0.7491615,1.285825E-09,NaN,-0.7376132,-1.322411E-07,NaN,0.241305,-5.229883E-07,NaN,-0.7494733,2.278895E-05,-0.2778498,1.169152E-07,NaN,NaN,0.2728504,-4.936018E-10,5.153438E-07,-1.098014E-07,1.568664E-08,-2.622604E-08
815.5556,-0.7491615,1.285825E-09,NaN,-0.7376132,-1.322411E-07,NaN,0.241305,-5.229883E-07,NaN,-0.7494733,2.278895E-05,-0.2778498,1.169152E-07,NaN,NaN,0.2728504,-4.936018E-10,5.153438E-07,-1.098014E-07,1.568664E-08,-2.622604E-08
815.5707,-0.7547144,1.286463E-09,NaN,-0.7424357,-1.322404E-07,NaN,0.2432434,-5.228301E-07,NaN,-0.7530222,2.278932E-05,-0.2866536,1.167583E-07,NaN,NaN,0.2758477,-4.936018E-10,5.543848E-07,-1.097996E-07,1.605917E-08,-2.861022E-08
815.5871,-0.7603604,1.287101E-09,NaN,-0.7473348,-1.322396E-07,NaN,0.2451452,-5.226722E-07,NaN,-0.7565497,2.278968E-05,-0.2955281,1.166017E-07,NaN,NaN,0.2787865,-4.936018E-10,5.981942E-07,-1.097977E-07,1.576115E-08,-2.622604E-08
815.603,-0.7660332,1.287738E-09,NaN,-0.7522544,-1.322388E-07,NaN,0.2468802,-5.225144E-07,NaN,-0.7600507,2.279005E-05,-0.3042803,1.164452E-07,NaN,NaN,0.2816678,-4.936018E-10,6.455799E-07,-1.097959E-07,8.757599E-09,-2.861022E-08
815.6188,-0.7660332,1.287738E-09,NaN,-0.7522544,-1.322388E-07,NaN,0.2468802,-5.225144E-07,NaN,-0.7600507,2.279005E-05,-0.3042803,1.164452E-07,NaN,NaN,0.2816678,-4.936018E-10,6.455799E-07,-1.097959E-07,8.757599E-09,-2.861022E-08
815.6345,-0.7716949,1.288376E-09,NaN,-0.7571626,-1.322381E-07,NaN,0.2484361,-5.223598E-07,NaN,-0.7635188,2.279042E-05,-0.312847,1.162918E-07,NaN,NaN,0.2844925,-4.936018E-10,6.899854E-07,-1.097941E-07,9.614416E-09,-2.622604E-08
815.6504,-0.7775643,1.289013E-09,NaN,-0.7622416,-1.322373E-07,NaN,0.2502211,-5.222052E-07,NaN,-0.7672113,2.279079E-05,-0.3217904,1.161386E-07,NaN,NaN,0.2875431,-4.936018E-10,7.275363E-07,-1.097923E-07,1.10114E-08,-2.861022E-08
815.6663,-0.783523,1.289651E-09,NaN,-0.7673932,-1.322366E-07,NaN,0.2519715,-5.220508E-07,NaN,-0.7708818,2.279115E-05,-0.3308016,1.159855E-07,NaN,NaN,0.2905341,-4.936018E-10,7.722398E-07,-1.097905E-07,1.617209E-08,-2.622604E-08
815.6819,-0.7895042,1.290288E-09,NaN,-0.7725614,-1.322358E-07,NaN,0.2535575,-5.218966E-07,NaN,-0.7745244,2.279152E-05,-0.3396876,1.158325E-07,NaN,NaN,0.2934666,-4.936018E-10,8.169433E-07,-1.097887E-07,1.643286E-08,-2.861022E-08
815.6979,-0.7895042,1.290288E-09,NaN,-0.7725614,-1.322358E-07,NaN,0.2535575,-5.218966E-07,NaN,-0.7745244,2.279152E-05,-0.3396876,1.158325E-07,NaN,NaN,0.2934666,-4.936018E-10,8.169433E-07,-1.097887E-07,1.643286E-08,-2.861022E-08
815.7131,-0.7954701,1.290925E-09,NaN,-0.7777147,-1.32235E-07,NaN,0.2549672,-5.217425E-07,NaN,-0.7781328,2.279189E-05,-0.3483845,1.156797E-07,NaN,NaN,0.2963416,-4.936018E-10,8.607527E-07,-1.097868E-07,1.531527E-08,-2.622604E-08
815.7295,-0.801642,1.291562E-09,NaN,-0.7830356,-1.322343E-07,NaN,0.2565961,-5.215886E-07,NaN,-0.7819642,2.279226E-05,-0.3574473,1.155271E-07,NaN,NaN,0.2994413,-4.936018E-10,8.968134E-07,-1.09785E-07,1.397417E-08,-2.861022E-08
815.7453,-0.8078995,1.292199E-09,NaN,-0.7884253,-1.322335E-07,NaN,0.2581927,-5.214347E-07,NaN,-0.785773,2.279262E-05,-0.3665753,1.153746E-07,NaN,NaN,0.3024805,-4.936018E-10,9.370466E-07,-1.097833E-07,1.293109E-08,-2.622604E-08
815.7611,-0.8141753,1.292835E-09,NaN,-0.793828,-1.322328E-07,NaN,0.2596278,-5.21281E-07,NaN,-0.789553,2.279299E-05,-0.3755752,1.152222E-07,NaN,NaN,0.3054602,-4.936018E-10,9.784718E-07,-1.097815E-07,1.30801E-08,-2.861022E-08
815.7769,-0.8141753,1.292835E-09,NaN,-0.793828,-1.322328E-07,NaN,0.2596278,-5.21281E-07,NaN,-0.789553,2.279299E-05,-0.3755752,1.152222E-07,NaN,NaN,0.3054602,-4.936018E-10,9.784718E-07,-1.097815E-07,1.30801E-08,-2.861022E-08
815.7917,-0.8204318,1.293472E-09,NaN,-0.7992124,-1.32232E-07,NaN,0.2608899,-5.211275E-07,NaN,-0.7932976,2.279336E-05,-0.3843831,1.150699E-07,NaN,NaN,0.3083814,-4.936018E-10,1.021387E-06,-1.097797E-07,1.114295E-08,-2.622604E-08
815.8081,-0.8268928,1.294108E-09,NaN,-0.8047614,-1.322313E-07,NaN,0.2623616,-5.209741E-07,NaN,-0.7972638,2.279373E-05,-0.3935463,1.149178E-07,NaN,NaN,0.3115265,-4.936018E-10,1.056256E-06,-1.097779E-07,1.218603E-08,-2.861022E-08
815.824,-0.8334358,1.294745E-09,NaN,-0.8103755,-1.322306E-07,NaN,0.2638036,-5.208236E-07,NaN,-0.8012074,2.279409E-05,-0.4027723,1.147686E-07,NaN,NaN,0.3146102,-4.936018E-10,1.100065E-06,-1.097762E-07,1.099394E-08,-2.622604E-08
815.8399,-0.8334358,1.294745E-09,NaN,-0.8103755,-1.322306E-07,NaN,0.2638036,-5.208236E-07,NaN,-0.8012074,2.279409E-05,-0.4027723,1.147686E-07,NaN,NaN,0.3146102,-4.936018E-10,1.100065E-06,-1.097762E-07,1.099394E-08,-2.622604E-08
815.8546,-0.8399929,1.295381E-09,NaN,-0.815999,-1.322298E-07,NaN,0.2650875,-5.206732E-07,NaN,-0.8051212,2.279446E-05,-0.4118677,1.146195E-07,NaN,NaN,0.3176335,-4.936018E-10,1.143577E-06,-1.097744E-07,1.278208E-08,-2.861022E-08
815.8713,-0.8465267,1.296017E-09,NaN,-0.821601,-1.322291E-07,NaN,0.2662019,-5.205229E-07,NaN,-0.8089986,2.279483E-05,-0.4207683,1.144705E-07,NaN,NaN,0.3205976,-4.936018E-10,1.185598E-06,-1.097727E-07,1.069592E-08,-2.622604E-08
815.8868,-0.8532639,1.296653E-09,NaN,-0.8273647,-1.322283E-07,NaN,0.2675169,-5.203726E-07,NaN,-0.8130963,2.27952E-05,-0.4300143,1.143215E-07,NaN,NaN,0.3237845,-5.02915E-10,1.221361E-06,-1.097709E-07,1.30801E-08,-2.861022E-08
815.9026,-0.8600796,1.297289E-09,NaN,-0.8331902,-1.322276E-07,NaN,0.268805,-5.202224E-07,NaN,-0.8171715,2.279557E-05,-0.4393208,1.141726E-07,NaN,NaN,0.3269093,-5.02915E-10,1.261296E-06,-1.097692E-07,1.248405E-08,-2.622604E-08
815.9179,-0.8600796,1.297289E-09,NaN,-0.8331902,-1.322276E-07,NaN,0.268805,-5.202224E-07,NaN,-0.8171715,2.279557E-05,-0.4393208,1.141726E-07,NaN,NaN,0.3269093,-5.02915E-10,1.261296E-06,-1.097692E-07,1.248405E-08,-2.622604E-08
815.9329,-0.8669052,1.297925E-09,NaN,-0.8390217,-1.322269E-07,NaN,0.2699385,-5.200723E-07,NaN,-0.8212162,2.279594E-05,-0.4484943,1.140238E-07,NaN,NaN,0.3299729,-5.02915E-10,1.301827E-06,-1.097674E-07,1.158998E-08,-2.861022E-08
815.9493,-0.8737035,1.298561E-09,NaN,-0.8448285,-1.322261E-07,NaN,0.2709064,-5.199223E-07,NaN,-0.8252236,2.279631E-05,-0.4574707,1.13875E-07,NaN,NaN,0.3329764,-5.02915E-10,1.34355E-06,-1.097657E-07,1.129196E-08,-2.622604E-08
815.9655,-0.8807043,1.299197E-09,NaN,-0.8507946,-1.322254E-07,NaN,0.2720665,-5.197751E-07,NaN,-0.8294499,2.279667E-05,-0.466783,1.137291E-07,NaN,NaN,0.3362021,-5.02915E-10,1.380058E-06,-1.09764E-07,8.013705E-09,-2.861022E-08
815.9807,-0.8877802,1.299832E-09,NaN,-0.8568189,-1.322247E-07,NaN,0.2732024,-5.196279E-07,NaN,-0.8336541,2.279704E-05,-0.4761535,1.135832E-07,NaN,NaN,0.3393648,-5.02915E-10,1.420887E-06,-1.097623E-07,7.119636E-09,-2.622604E-08
815.9979,-0.8877802,1.299832E-09,NaN,-0.8568189,-1.322247E-07,NaN,0.2732024,-5.196279E-07,NaN,-0.8336541,2.279704E-05,-0.4761535,1.135832E-07,NaN,NaN,0.3393648,-5.02915E-10,1.420887E-06,-1.097623E-07,7.119636E-09,-2.622604E-08
816.0115,-0.8948619,1.300468E-09,NaN,-0.8628459,-1.32224E-07,NaN,0.2741874,-5.194807E-07,NaN,-0.8378273,2.279741E-05,-0.4853888,1.134373E-07,NaN,NaN,0.3424656,-5.02915E-10,1.463803E-06,-1.097606E-07,6.225566E-09,-2.861022E-08
816.028,-0.9019125,1.301103E-09,NaN,-0.8688455,-1.322232E-07,NaN,0.2750111,-5.193336E-07,NaN,-0.8419623,2.279778E-05,-0.494425,1.132914E-07,NaN,NaN,0.3455055,-5.02915E-10,1.505079E-06,-1.097589E-07,3.84138E-09,-2.622604E-08
816.0433,-0.9091647,1.301738E-09,NaN,-0.8750017,-1.322225E-07,NaN,0.2760187,-5.191864E-07,NaN,-0.846315,2.279814E-05,-0.5037882,1.131456E-07,NaN,NaN,0.3487669,-5.02915E-10,1.539053E-06,-1.097572E-07,2.649287E-09,-2.861022E-08
816.0589,-0.9091647,1.301738E-09,NaN,-0.8750017,-1.322225E-07,NaN,0.2760187,-5.191864E-07,NaN,-0.846315,2.279814E-05,-0.5037882,1.131456E-07,NaN,NaN,0.3487669,-5.02915E-10,1.539053E-06,-1.097572E-07,2.649287E-09,-2.861022E-08
816.0739,-0.9164885,1.302374E-09,NaN,-0.881213,-1.322218E-07,NaN,0.277005,-5.190392E-07,NaN,-0.8506463,2.279851E-05,-0.5132072,1.129997E-07,NaN,NaN,0.3519646,-5.02915E-10,1.576753E-06,-1.097555E-07,2.053241E-09,-2.622604E-08
816.0901,-0.9238142,1.303008E-09,NaN,-0.8874239,-1.322211E-07,NaN,0.2778445,-5.188949E-07,NaN,-0.854946,2.279888E-05,-0.5224892,1.128567E-07,NaN,NaN,0.3550997,-5.02915E-10,1.617135E-06,-1.097538E-07,1.457194E-09,-2.861022E-08
816.1061,-0.9311048,1.303643E-09,NaN,-0.8936046,-1.322204E-07,NaN,0.2785269,-5.187505E-07,NaN,-0.8592068,2.279925E-05,-0.5315701,1.127136E-07,NaN,NaN,0.3581734,-5.02915E-10,1.65558E-06,-1.097521E-07,3.245334E-09,-2.622604E-08
816.1216,-0.9385967,1.304278E-09,NaN,-0.8999398,-1.322197E-07,NaN,0.2793854,-5.186061E-07,NaN,-0.8636841,2.279961E-05,-0.5409697,1.125704E-07,NaN,NaN,0.3614677,-5.02915E-10,1.687022E-06,-1.097505E-07,4.437426E-09,-2.861022E-08
816.1373,-0.9385967,1.304278E-09,NaN,-0.8999398,-1.322197E-07,NaN,0.2793854,-5.186061E-07,NaN,-0.8636841,2.279961E-05,-0.5409697,1.125704E-07,NaN,NaN,0.3614677,-5.02915E-10,1.687022E-06,-1.097505E-07,4.437426E-09,-2.861022E-08
816.1522,-0.9461566,1.304913E-09,NaN,-0.9063268,-1.322189E-07,NaN,0.2802254,-5.184616E-07,NaN,-0.8681406,2.279998E-05,-0.5504228,1.124272E-07,NaN,NaN,0.3646978,-5.02915E-10,1.724871E-06,-1.097488E-07,7.417658E-09,-2.622604E-08
816.1683,-0.9537145,1.305548E-09,NaN,-0.9127104,-1.322182E-07,NaN,0.2809227,-5.183171E-07,NaN,-0.8725654,2.280035E-05,-0.559737,1.12284E-07,NaN,NaN,0.3678645,-5.02915E-10,1.763167E-06,-1.097471E-07,9.801845E-09,-2.861022E-08
816.1838,-0.9612335,1.306182E-09,NaN,-0.9190613,-1.322175E-07,NaN,0.2814673,-5.181725E-07,NaN,-0.8769505,2.280072E-05,-0.5688486,1.121407E-07,NaN,NaN,0.3709692,-5.02915E-10,1.801537E-06,-1.097455E-07,1.099394E-08,-2.622604E-08
816.1995,-0.9612335,1.306182E-09,NaN,-0.9190613,-1.322175E-07,NaN,0.2814673,-5.181725E-07,NaN,-0.8769505,2.280072E-05,-0.5688486,1.121407E-07,NaN,NaN,0.3709692,-5.02915E-10,1.801537E-06,-1.097455E-07,1.099394E-08,-2.622604E-08
816.2145,-0.9689533,1.306816E-09,NaN,-0.9255645,-1.322168E-07,NaN,0.2821805,-5.180307E-07,NaN,-0.8815508,2.280108E-05,-0.5782711,1.120002E-07,NaN,NaN,0.374294,-5.02915E-10,1.832085E-06,-1.097438E-07,1.039789E-08,-2.861022E-08
816.2307,-0.9767379,1.307451E-09,NaN,-0.9321165,-1.322161E-07,NaN,0.2828782,-5.178889E-07,NaN,-0.8861315,2.280145E-05,-0.5877448,1.118596E-07,NaN,NaN,0.3775539,-5.02915E-10,1.868816E-06,-1.097422E-07,1.218603E-08,-2.622604E-08
816.2464,-0.9845164,1.308085E-09,NaN,-0.9386624,-1.322154E-07,NaN,0.283437,-5.177469E-07,NaN,-0.8906801,2.280182E-05,-0.597078,1.117189E-07,NaN,NaN,0.3807499,-5.02915E-10,1.905324E-06,-1.097405E-07,1.039789E-08,-2.861022E-08
816.2621,-0.9922522,1.308719E-09,NaN,-0.945173,-1.322147E-07,NaN,0.2838479,-5.176047E-07,NaN,-0.8951883,2.280219E-05,-0.6062072,1.115781E-07,NaN,NaN,0.3838833,-5.02915E-10,1.93833E-06,-1.097389E-07,8.013705E-09,-2.622604E-08
816.2779,-0.9922522,1.308719E-09,NaN,-0.945173,-1.322147E-07,NaN,0.2838479,-5.176047E-07,NaN,-0.8951883,2.280219E-05,-0.6062072,1.115781E-07,NaN,NaN,0.3838833,-5.02915E-10,1.93833E-06,-1.097389E-07,8.013705E-09,-2.622604E-08
816.2927,-1.000189,1.309353E-09,NaN,-0.9518339,-1.32214E-07,NaN,0.2844203,-5.174626E-07,NaN,-0.8999105,2.280255E-05,-0.61564,1.114372E-07,NaN,NaN,0.3872362,-5.02915E-10,1.967983E-06,-1.097373E-07,8.013705E-09,-2.861022E-08
816.3091,-1.008187,1.309987E-09,NaN,-0.9585409,-1.322133E-07,NaN,0.2849796,-5.173231E-07,NaN,-0.9046143,2.280292E-05,-0.6251216,1.112991E-07,NaN,NaN,0.3905236,-5.02915E-10,2.000691E-06,-1.097357E-07,6.225566E-09,-2.622604E-08
816.3245,-1.016174,1.31062E-09,NaN,-0.9652389,-1.322126E-07,NaN,0.2854042,-5.171835E-07,NaN,-0.9092857,2.280329E-05,-0.6344612,1.111608E-07,NaN,NaN,0.3937467,-5.02915E-10,2.035523E-06,-1.09734E-07,6.821612E-09,-2.861022E-08
816.3403,-1.024116,1.311254E-09,NaN,-0.9718995,-1.322119E-07,NaN,0.2856855,-5.170438E-07,NaN,-0.913916,2.280366E-05,-0.6435956,1.110223E-07,NaN,NaN,0.3969065,-5.02915E-10,2.070094E-06,-1.097324E-07,8.013705E-09,-2.622604E-08
816.3561,-1.024116,1.311254E-09,NaN,-0.9718995,-1.322119E-07,NaN,0.2856855,-5.170438E-07,NaN,-0.913916,2.280366E-05,-0.6435956,1.110223E-07,NaN,NaN,0.3969065,-5.02915E-10,2.070094E-06,-1.097324E-07,8.013705E-09,-2.622604E-08
816.3712,-1.032258,1.311887E-09,NaN,-0.9787087,-1.322113E-07,NaN,0.2861215,-5.169039E-07,NaN,-0.9187592,2.280402E-05,-0.6530269,1.108837E-07,NaN,NaN,0.4002854,-5.02915E-10,2.09645E-06,-1.097308E-07,9.205798E-09,-2.861022E-08
816.3871,-1.040458,1.312521E-09,NaN,-0.9855611,-1.322106E-07,NaN,0.2865469,-5.167639E-07,NaN,-0.9235851,2.280439E-05,-0.6625047,1.10745E-07,NaN,NaN,0.4035982,-5.02915E-10,2.130741E-06,-1.097292E-07,1.516626E-08,-2.622604E-08
816.403,-1.048644,1.313154E-09,NaN,-0.9924021,-1.322099E-07,NaN,0.2868417,-5.166266E-07,NaN,-0.9283785,2.280476E-05,-0.6718391,1.106089E-07,NaN,NaN,0.4068463,-5.02915E-10,2.16575E-06,-1.097276E-07,1.993463E-08,-2.861022E-08
816.4185,-1.048644,1.313154E-09,NaN,-0.9924021,-1.322099E-07,NaN,0.2868417,-5.166266E-07,NaN,-0.9283785,2.280476E-05,-0.6718391,1.106089E-07,NaN,NaN,0.4068463,-5.02915E-10,2.16575E-06,-1.097276E-07,1.993463E-08,-2.861022E-08
816.4333,-1.057048,1.313788E-09,NaN,-0.9994043,-1.322092E-07,NaN,0.2872657,-5.164891E-07,NaN,-0.9333901,2.280513E-05,-0.6814766,1.104727E-07,NaN,NaN,0.4103115,-5.122282E-10,2.190159E-06,-1.097261E-07,1.635835E-08,-2.622604E-08
816.4498,-1.065514,1.314421E-09,NaN,-1.006454,-1.322085E-07,NaN,0.2876588,-5.163513E-07,NaN,-0.9383898,2.28055E-05,-0.6911521,1.103363E-07,NaN,NaN,0.4137092,-5.122282E-10,2.223463E-06,-1.097245E-07,9.205795E-09,-2.861022E-08
816.4656,-1.073967,1.315054E-09,NaN,-1.013494,-1.322077E-07,NaN,0.287908,-5.164731E-07,NaN,-0.9433594,2.280586E-05,-0.7006729,1.104594E-07,NaN,NaN,0.4170403,-5.02915E-10,2.259095E-06,-1.097248E-07,1.158998E-08,-2.622604E-08
816.4811,-1.082367,1.315686E-09,NaN,-1.020493,-1.322072E-07,NaN,0.2880117,-5.164204E-07,NaN,-0.9482879,2.280621E-05,-0.709978,1.104079E-07,NaN,NaN,0.4203061,-4.889452E-10,2.293163E-06,-1.097254E-07,1.158998E-08,-2.861022E-08
816.4971,-1.082367,1.315686E-09,NaN,-1.020493,-1.322072E-07,NaN,0.2880117,-5.164204E-07,NaN,-0.9482879,2.280621E-05,-0.709978,1.104079E-07,NaN,NaN,0.4203061,-4.889452E-10,2.293163E-06,-1.097254E-07,1.158998E-08,-2.861022E-08
816.5194,-1.090968,1.316319E-09,NaN,-1.027638,-1.322071E-07,NaN,0.2882516,-5.162811E-07,NaN,-0.9534277,2.280657E-05,-0.7195619,1.102699E-07,NaN,NaN,0.4237888,-4.749753E-10,2.317527E-06,-1.097262E-07,6.821609E-09,-2.622604E-08
816.5283,-1.09962,1.316951E-09,NaN,-1.034821,-1.32207E-07,NaN,0.2884803,-5.160909E-07,NaN,-0.9585527,2.280693E-05,-0.7291815,1.10081E-07,NaN,NaN,0.4272034,-4.703187E-10,2.34759E-06,-1.097271E-07,5.629516E-09,-2.861022E-08
816.5437,-1.10825,1.317583E-09,NaN,-1.041987,-1.322071E-07,NaN,0.2885826,-5.158762E-07,NaN,-0.9636442,2.280729E-05,-0.7386504,1.098676E-07,NaN,NaN,0.4305513,-4.563489E-10,2.382682E-06,-1.097281E-07,6.821609E-09,-2.622604E-08
816.5598,-1.10825,1.317583E-09,NaN,-1.041987,-1.322071E-07,NaN,0.2885826,-5.158762E-07,NaN,-0.9636442,2.280729E-05,-0.7386504,1.098676E-07,NaN,NaN,0.4305513,-4.563489E-10,2.382682E-06,-1.097281E-07,6.821609E-09,-2.622604E-08
816.5748,-1.116822,1.318215E-09,NaN,-1.04911,-1.322072E-07,NaN,0.2885524,-5.156487E-07,NaN,-0.9686916,2.280765E-05,-0.7479081,1.096414E-07,NaN,NaN,0.4338334,-4.516923E-10,2.416806E-06,-1.097291E-07,4.437423E-09,-2.861022E-08
816.591,-1.125594,1.318847E-09,NaN,-1.056376,-1.322073E-07,NaN,0.2886568,-5.154172E-07,NaN,-0.9739479,2.280801E-05,-0.7574428,1.094112E-07,NaN,NaN,0.4373322,-4.377225E-10,2.439902E-06,-1.097301E-07,2.053238E-09,-2.622604E-08
816.6069,-1.134414,1.319479E-09,NaN,-1.063677,-1.322075E-07,NaN,0.2887545,-5.151845E-07,NaN,-0.9791903,2.280837E-05,-0.7670129,1.091798E-07,NaN,NaN,0.4407627,-4.330659E-10,2.468214E-06,-1.097311E-07,3.24533E-09,-2.861022E-08
816.6222,-1.143208,1.320111E-09,NaN,-1.070959,-1.322077E-07,NaN,0.2887312,-5.149536E-07,NaN,-0.9843984,2.280872E-05,-0.7764328,1.089501E-07,NaN,NaN,0.444126,-4.19096E-10,2.502115E-06,-1.097321E-07,8.013702E-09,-2.622604E-08
816.6379,-1.143208,1.320111E-09,NaN,-1.070959,-1.322077E-07,NaN,0.2887312,-5.149536E-07,NaN,-0.9843984,2.280872E-05,-0.7764328,1.089501E-07,NaN,NaN,0.444126,-4.19096E-10,2.502115E-06,-1.097321E-07,8.013702E-09,-2.622604E-08
816.6526,-1.15194,1.320742E-09,NaN,-1.078195,-1.322078E-07,NaN,0.2885811,-5.147271E-07,NaN,-0.9895613,2.280909E-05,-0.7856422,1.087249E-07,NaN,NaN,0.4474233,-4.144394E-10,2.532811E-06,-1.097332E-07,1.039789E-08,-2.861022E-08
816.6699,-1.160873,1.321373E-09,NaN,-1.085573,-1.32208E-07,NaN,0.2885596,-5.14505E-07,NaN,-0.9949318,2.280944E-05,-0.7951242,1.085041E-07,NaN,NaN,0.4509369,-4.004696E-10,2.554492E-06,-1.097342E-07,1.158998E-08,-2.622604E-08
816.6846,-1.169851,1.322005E-09,NaN,-1.092985,-1.322082E-07,NaN,0.2885335,-5.142873E-07,NaN,-1.00029,2.280981E-05,-0.8046396,1.082876E-07,NaN,NaN,0.454382,-3.95813E-10,2.584741E-06,-1.097352E-07,1.516626E-08,-2.861022E-08
816.7003,-1.178798,1.322636E-09,NaN,-1.100375,-1.322084E-07,NaN,0.2883909,-5.140765E-07,NaN,-1.005614,2.281016E-05,-0.8140042,1.080781E-07,NaN,NaN,0.4577595,-3.818432E-10,2.614693E-06,-1.097362E-07,6.821607E-09,-2.622604E-08
816.7161,-1.178798,1.322636E-09,NaN,-1.100375,-1.322084E-07,NaN,0.2883909,-5.140765E-07,NaN,-1.005614,2.281016E-05,-0.8140042,1.080781E-07,NaN,NaN,0.4577595,-3.818432E-10,2.614693E-06,-1.097362E-07,6.821607E-09,-2.622604E-08
816.7311,-1.18768,1.323266E-09,NaN,-1.107719,-1.322086E-07,NaN,0.2881265,-5.138699E-07,NaN,-1.010891,2.281053E-05,-0.823159,1.078727E-07,NaN,NaN,0.4610709,-3.771866E-10,2.645389E-06,-1.097372E-07,1.039789E-08,-2.861022E-08
816.7476,-1.196765,1.323897E-09,NaN,-1.115204,-1.322087E-07,NaN,0.2879847,-5.136673E-07,NaN,-1.016375,2.281088E-05,-0.8325822,1.076714E-07,NaN,NaN,0.4645983,-3.678733E-10,2.66327E-06,-1.097382E-07,1.039789E-08,-2.622604E-08
816.7632,-1.20589,1.324528E-09,NaN,-1.122719,-1.322089E-07,NaN,0.2878402,-5.131819E-07,NaN,-1.021848,2.281125E-05,-0.8420362,1.071872E-07,NaN,NaN,0.4680568,-3.678733E-10,2.692477E-06,-1.097392E-07,1.278207E-08,-2.861022E-08
816.7787,-1.20589,1.324528E-09,NaN,-1.122719,-1.322089E-07,NaN,0.2878402,-5.131819E-07,NaN,-1.021848,2.281125E-05,-0.8420362,1.071872E-07,NaN,NaN,0.4680568,-3.678733E-10,2.692477E-06,-1.097392E-07,1.278207E-08,-2.861022E-08
816.7935,-1.214982,1.325159E-09,NaN,-1.130212,-1.322091E-07,NaN,0.2875834,-5.127087E-07,NaN,-1.027286,2.281162E-05,-0.8513394,1.067153E-07,NaN,NaN,0.4714476,-3.7253E-10,2.723322E-06,-1.097402E-07,1.278207E-08,-2.622604E-08
816.8097,-1.224005,1.325789E-09,NaN,-1.137656,-1.322093E-07,NaN,0.28721,-5.122448E-07,NaN,-1.032677,2.281199E-05,-0.8604336,1.062527E-07,NaN,NaN,0.4747719,-3.678733E-10,2.752678E-06,-1.097412E-07,1.039789E-08,-2.861022E-08
816.8256,-1.233232,1.32642E-09,NaN,-1.145242,-1.322094E-07,NaN,0.2869532,-5.117927E-07,NaN,-1.038273,2.281236E-05,-0.8697922,1.058019E-07,NaN,NaN,0.4783121,-3.7253E-10,2.76743E-06,-1.097422E-07,1.278207E-08,-2.622604E-08
816.8414,-1.242496,1.32705E-09,NaN,-1.152856,-1.322096E-07,NaN,0.2866952,-5.113494E-07,NaN,-1.04386,2.281272E-05,-0.8791794,1.053598E-07,NaN,NaN,0.4817831,-3.678733E-10,2.793805E-06,-1.097432E-07,1.278207E-08,-2.861022E-08
816.8569,-1.242496,1.32705E-09,NaN,-1.152856,-1.322096E-07,NaN,0.2866952,-5.113494E-07,NaN,-1.04386,2.281272E-05,-0.8791794,1.053598E-07,NaN,NaN,0.4817831,-3.678733E-10,2.793805E-06,-1.097432E-07,1.278207E-08,-2.861022E-08
816.872,-1.251722,1.327681E-09,NaN,-1.160445,-1.322098E-07,NaN,0.2863293,-5.109176E-07,NaN,-1.049412,2.28131E-05,-0.8884158,1.049292E-07,NaN,NaN,0.4851861,-3.7253E-10,2.820627E-06,-1.097442E-07,1.516626E-08,-2.622604E-08
816.8881,-1.260878,1.328311E-09,NaN,-1.167986,-1.322099E-07,NaN,0.2858519,-5.104941E-07,NaN,-1.054915,2.281346E-05,-0.8974443,1.045071E-07,NaN,NaN,0.4885224,-3.678733E-10,2.846406E-06,-1.097452E-07,1.397416E-08,-2.861022E-08
816.9041,-1.270238,1.328941E-09,NaN,-1.175666,-1.322101E-07,NaN,0.285485,-5.100817E-07,NaN,-1.060622,2.281383E-05,-0.9067337,1.040959E-07,NaN,NaN,0.4920744,-3.7253E-10,2.863542E-06,-1.097462E-07,1.397416E-08,-2.622604E-08
816.9191,-1.270238,1.328941E-09,NaN,-1.175666,-1.322101E-07,NaN,0.285485,-5.100817E-07,NaN,-1.060622,2.281383E-05,-0.9067337,1.040959E-07,NaN,NaN,0.4920744,-3.7253E-10,2.863542E-06,-1.097462E-07,1.397416E-08,-2.622604E-08
816.9339,-1.279632,1.329571E-09,NaN,-1.183373,-1.322103E-07,NaN,0.2851185,-5.096774E-07,NaN,-1.066322,2.28142E-05,-0.9160495,1.036928E-07,NaN,NaN,0.4955569,-3.678733E-10,2.888874E-06,-1.097472E-07,6.821608E-09,-2.861022E-08
816.9503,-1.288985,1.330201E-09,NaN,-1.191055,-1.322104E-07,NaN,0.2846483,-5.092837E-07,NaN,-1.071985,2.281457E-05,-0.9252146,1.033004E-07,NaN,NaN,0.4989713,-3.7253E-10,2.915547E-06,-1.097481E-07,4.437422E-09,-2.622604E-08
816.9659,-1.298264,1.330831E-09,NaN,-1.198687,-1.322106E-07,NaN,0.2840717,-5.088976E-07,NaN,-1.077599,2.281493E-05,-0.9341736,1.029156E-07,NaN,NaN,0.5023187,-3.678733E-10,2.938942E-06,-1.097491E-07,5.629515E-09,-2.861022E-08
816.9821,-1.297426,1.331461E-09,NaN,-1.198816,-1.322108E-07,NaN,0.2770082,-5.085219E-07,NaN,-1.073251,2.281531E-05,-0.9255886,1.025411E-07,NaN,NaN,0.4951996,-3.7253E-10,3.298805E-06,-1.097501E-07,1.039789E-08,-2.622604E-08
816.9973,-1.297426,1.331461E-09,NaN,-1.198816,-1.322108E-07,NaN,0.2770082,-5.085219E-07,NaN,-1.073251,2.281531E-05,-0.9255886,1.025411E-07,NaN,NaN,0.4951996,-3.7253E-10,3.298805E-06,-1.097501E-07,1.039789E-08,-2.622604E-08
817.0128,-1.290897,1.332091E-09,NaN,-1.194853,-1.32211E-07,NaN,0.265903,-5.081535E-07,NaN,-1.066986,2.281567E-05,-0.9073726,1.02174E-07,NaN,NaN,0.4882123,-3.678733E-10,3.281818E-06,-1.09751E-07,1.516626E-08,-2.861022E-08
817.0296,-1.281437,1.33272E-09,NaN,-1.188573,-1.322111E-07,NaN,0.2553935,-5.077922E-07,NaN,-1.059782,2.281604E-05,-0.8863181,1.01814E-07,NaN,NaN,0.4813589,-3.7253E-10,3.151581E-06,-1.09752E-07,1.039789E-08,-2.622604E-08
817.0438,-1.270728,1.33335E-09,NaN,-1.181132,-1.322113E-07,NaN,0.2466301,-5.074408E-07,NaN,-1.052001,2.281641E-05,-0.865201,1.014638E-07,NaN,NaN,0.4746387,-3.678733E-10,3.010914E-06,-1.09753E-07,1.755044E-08,-2.861022E-08
817.0597,-1.270728,1.33335E-09,NaN,-1.181132,-1.322113E-07,NaN,0.2466301,-5.074408E-07,NaN,-1.052001,2.281641E-05,-0.865201,1.014638E-07,NaN,NaN,0.4746387,-3.678733E-10,3.010914E-06,-1.09753E-07,1.755044E-08,-2.861022E-08
817.0745,-1.259888,1.333979E-09,NaN,-1.173321,-1.322115E-07,NaN,0.239977,-5.070962E-07,NaN,-1.043919,2.281678E-05,-0.8452693,1.011204E-07,NaN,NaN,0.4678699,-3.7253E-10,2.889172E-06,-1.097539E-07,1.516626E-08,-2.622604E-08
817.0906,-1.249088,1.334609E-09,NaN,-1.165348,-1.322116E-07,NaN,0.2344529,-5.067611E-07,NaN,-1.035761,2.281714E-05,-0.8263071,1.007866E-07,NaN,NaN,0.4612341,-3.678733E-10,2.792985E-06,-1.097549E-07,1.278207E-08,-2.861022E-08
817.1066,-1.238388,1.335238E-09,NaN,-1.157318,-1.322118E-07,NaN,0.2295246,-5.064325E-07,NaN,-1.02761,2.281752E-05,-0.8080571,1.004593E-07,NaN,NaN,0.4547284,-3.7253E-10,2.714381E-06,-1.097558E-07,1.516626E-08,-2.622604E-08
817.1218,-1.227808,1.335868E-09,NaN,-1.149283,-1.32212E-07,NaN,0.2249011,-5.061131E-07,NaN,-1.019527,2.281789E-05,-0.7903249,1.001411E-07,NaN,NaN,0.4483504,-3.771866E-10,2.648202E-06,-1.097568E-07,8.0137E-09,-2.861022E-08
817.1378,-1.227808,1.335868E-09,NaN,-1.149283,-1.32212E-07,NaN,0.2249011,-5.061131E-07,NaN,-1.019527,2.281789E-05,-0.7903249,1.001411E-07,NaN,NaN,0.4483504,-3.771866E-10,2.648202E-06,-1.097568E-07,8.0137E-09,-2.861022E-08
817.1524,-1.217648,1.336497E-09,NaN,-1.141443,-1.322122E-07,NaN,0.2210252,-5.057998E-07,NaN,-1.011579,2.281826E-05,-0.7734374,9.982916E-08,NaN,NaN,0.4419174,-3.818432E-10,2.578306E-06,-1.097577E-07,8.0137E-09,-2.622604E-08
817.1687,-1.207736,1.337126E-09,NaN,-1.133719,-1.322123E-07,NaN,0.2173587,-5.054955E-07,NaN,-1.003856,2.281863E-05,-0.7570432,9.95261E-08,NaN,NaN,0.4356106,-3.771866E-10,2.513542E-06,-1.097586E-07,3.245328E-09,-2.861022E-08
817.1841,-1.197993,1.337755E-09,NaN,-1.126076,-1.322125E-07,NaN,0.2137541,-5.051971E-07,NaN,-0.9963186,2.2819E-05,-0.7409903,9.922893E-08,NaN,NaN,0.4294276,-3.818432E-10,2.452186E-06,-1.097596E-07,8.0137E-09,-2.622604E-08
817.1995,-1.197993,1.337755E-09,NaN,-1.126076,-1.322125E-07,NaN,0.2137541,-5.051971E-07,NaN,-0.9963186,2.2819E-05,-0.7409903,9.922893E-08,NaN,NaN,0.4294276,-3.818432E-10,2.452186E-06,-1.097596E-07,8.0137E-09,-2.622604E-08
817.2146,-1.188682,1.338385E-09,NaN,-1.118674,-1.322127E-07,NaN,0.210761,-5.049072E-07,NaN,-0.9889656,2.281936E-05,-0.7256695,9.894038E-08,NaN,NaN,0.4231856,-3.771866E-10,2.387888E-06,-1.097605E-07,5.629514E-09,-2.861022E-08
817.2308,-1.17962,1.339014E-09,NaN,-1.111413,-1.322128E-07,NaN,0.2079094,-5.04623E-07,NaN,-0.9818621,2.281974E-05,-0.710767,9.865742E-08,NaN,NaN,0.4170662,-3.818432E-10,2.329326E-06,-1.097614E-07,5.629514E-09,-2.622604E-08
817.2465,-1.170724,1.339643E-09,NaN,-1.104248,-1.32213E-07,NaN,0.2050832,-5.043443E-07,NaN,-0.9749522,2.28201E-05,-0.6961557,9.837998E-08,NaN,NaN,0.4110668,-3.771866E-10,2.271435E-06,-1.097624E-07,3.245328E-09,-2.861022E-08
817.262,-1.161957,1.340271E-09,NaN,-1.097158,-1.322132E-07,NaN,0.2022595,-5.040739E-07,NaN,-0.968205,2.282047E-05,-0.6817855,9.811075E-08,NaN,NaN,0.405185,-3.818432E-10,2.215034E-06,-1.097633E-07,3.245328E-09,-2.622604E-08
817.2776,-1.161957,1.340271E-09,NaN,-1.097158,-1.322132E-07,NaN,0.2022595,-5.040739E-07,NaN,-0.968205,2.282047E-05,-0.6817855,9.811075E-08,NaN,NaN,0.405185,-3.818432E-10,2.215034E-06,-1.097633E-07,3.245328E-09,-2.622604E-08
817.2925,-1.153593,1.3409E-09,NaN,-1.090307,-1.322133E-07,NaN,0.2000339,-5.038086E-07,NaN,-0.9616097,2.282084E-05,-0.6681055,9.784676E-08,NaN,NaN,0.3992384,-3.771866E-10,2.151257E-06,-1.097642E-07,3.245328E-09,-2.861022E-08
817.3089,-1.145466,1.341529E-09,NaN,-1.083599,-1.322135E-07,NaN,0.1979534,-5.035513E-07,NaN,-0.955245,2.282121E-05,-0.654817,9.759072E-08,NaN,NaN,0.3934085,-3.818432E-10,2.091802E-06,-1.097651E-07,8.611427E-10,-2.622604E-08
817.324,-1.137498,1.342157E-09,NaN,-1.076991,-1.322137E-07,NaN,0.1958995,-5.03299E-07,NaN,-0.9490573,2.282157E-05,-0.6417975,9.733965E-08,NaN,NaN,0.387693,-3.771866E-10,2.034879E-06,-1.09766E-07,8.611427E-10,-2.861022E-08
817.3399,-1.137498,1.342157E-09,NaN,-1.076991,-1.322137E-07,NaN,0.1958995,-5.03299E-07,NaN,-0.9490573,2.282157E-05,-0.6417975,9.733965E-08,NaN,NaN,0.387693,-3.771866E-10,2.034879E-06,-1.09766E-07,8.611427E-10,-2.861022E-08
817.3547,-1.12965,1.342786E-09,NaN,-1.070459,-1.322139E-07,NaN,0.1938456,-5.030544E-07,NaN,-0.9430171,2.282195E-05,-0.6289983,9.709629E-08,NaN,NaN,0.3820894,-3.818432E-10,1.976765E-06,-1.097669E-07,3.245328E-09,-2.622604E-08
817.3713,-1.122196,1.343414E-09,NaN,-1.064166,-1.32214E-07,NaN,0.1923864,-5.028145E-07,NaN,-0.9371042,2.282231E-05,-0.6168773,9.685765E-08,NaN,NaN,0.3764156,-3.771866E-10,1.914478E-06,-1.097679E-07,-1.523043E-09,-2.861022E-08
817.3864,-1.114973,1.344043E-09,NaN,-1.05802,-1.322142E-07,NaN,0.1910714,-5.025792E-07,NaN,-0.9314077,2.282268E-05,-0.6051303,9.662365E-08,NaN,NaN,0.3708532,-3.818432E-10,1.859344E-06,-1.097688E-07,-3.907229E-09,-2.622604E-08
817.4022,-1.107903,1.344671E-09,NaN,-1.051975,-1.322144E-07,NaN,0.1897775,-5.023513E-07,NaN,-0.925876,2.282305E-05,-0.5936319,9.639701E-08,NaN,NaN,0.3654,-3.771866E-10,1.804805E-06,-1.097697E-07,-7.483507E-09,-2.861022E-08
817.4178,-1.107903,1.344671E-09,NaN,-1.051975,-1.322144E-07,NaN,0.1897775,-5.023513E-07,NaN,-0.925876,2.282305E-05,-0.5936319,9.639701E-08,NaN,NaN,0.3654,-3.771866E-10,1.804805E-06,-1.097697E-07,-7.483507E-09,-2.861022E-08
817.4327,-1.100949,1.345299E-09,NaN,-1.046007,-1.322145E-07,NaN,0.1884761,-5.021278E-07,NaN,-0.9204798,2.282342E-05,-0.5823322,9.617477E-08,NaN,NaN,0.3600536,-3.818432E-10,1.750565E-06,-1.097706E-07,-6.291415E-09,-2.622604E-08
817.4489,-1.094379,1.345927E-09,NaN,-1.040278,-1.322147E-07,NaN,0.187762,-5.019115E-07,NaN,-0.9151907,2.282378E-05,-0.5716967,9.595967E-08,NaN,NaN,0.3546319,-3.771866E-10,1.691258E-06,-1.097714E-07,-8.675601E-09,-2.861022E-08
817.4643,-1.088035,1.346555E-09,NaN,-1.034697,-1.322149E-07,NaN,0.1871883,-5.016993E-07,NaN,-0.9101064,2.282416E-05,-0.5614167,9.574874E-08,NaN,NaN,0.3493168,-3.818432E-10,1.638806E-06,-1.097723E-07,-7.483508E-09,-2.622604E-08
817.4801,-1.08184,1.347183E-09,NaN,-1.029218,-1.32215E-07,NaN,0.1866286,-5.01494E-07,NaN,-0.9051762,2.282452E-05,-0.5513641,9.554472E-08,NaN,NaN,0.3441059,-3.771866E-10,1.587546E-06,-1.097732E-07,-3.309508E-10,-2.861022E-08
817.4961,-1.08184,1.347183E-09,NaN,-1.029218,-1.32215E-07,NaN,0.1866286,-5.01494E-07,NaN,-0.9051762,2.282452E-05,-0.5513641,9.554472E-08,NaN,NaN,0.3441059,-3.771866E-10,1.587546E-06,-1.097732E-07,-3.309508E-10,-2.861022E-08
817.5109,-1.075754,1.347811E-09,NaN,-1.023817,-1.322152E-07,NaN,0.1860527,-5.012927E-07,NaN,-0.9003713,2.282489E-05,-0.5414883,9.534466E-08,NaN,NaN,0.3389972,-3.818432E-10,1.539267E-06,-1.097741E-07,-3.309508E-10,-2.622604E-08
817.5273,-1.070043,1.348439E-09,NaN,-1.018653,-1.322153E-07,NaN,0.1860558,-5.010952E-07,NaN,-0.8956565,2.282526E-05,-0.5322622,9.514847E-08,NaN,NaN,0.3338085,-3.771866E-10,1.482344E-06,-1.09775E-07,-1.523044E-09,-2.861022E-08
817.5443,-1.064553,1.349067E-09,NaN,-1.013638,-1.322155E-07,NaN,0.1861944,-5.009044E-07,NaN,-0.8911363,2.282563E-05,-0.5233727,9.495891E-08,NaN,NaN,0.3287217,-3.818432E-10,1.435257E-06,-1.097759E-07,-2.715137E-09,-2.622604E-08
817.5582,-1.064553,1.349067E-09,NaN,-1.013638,-1.322155E-07,NaN,0.1861944,-5.009044E-07,NaN,-0.8911363,2.282563E-05,-0.5233727,9.495891E-08,NaN,NaN,0.3287217,-3.818432E-10,1.435257E-06,-1.097759E-07,-2.715137E-09,-2.622604E-08
817.5732,-1.059207,1.349694E-09,NaN,-1.008725,-1.322156E-07,NaN,0.1863393,-5.007172E-07,NaN,-0.8867609,2.282599E-05,-0.5146896,9.477302E-08,NaN,NaN,0.3237348,-3.771866E-10,1.386977E-06,-1.097767E-07,-5.099322E-09,-2.861022E-08
817.5892,-1.053964,1.350322E-09,NaN,-1.003889,-1.322158E-07,NaN,0.1864588,-5.005365E-07,NaN,-0.8825017,2.282637E-05,-0.5061618,9.459355E-08,NaN,NaN,0.3188457,-3.818432E-10,1.339293E-06,-1.097776E-07,-7.483508E-09,-2.622604E-08
817.6051,-1.049087,1.35095E-09,NaN,-0.9992895,-1.32216E-07,NaN,0.1871488,-5.003593E-07,NaN,-0.8783182,2.282673E-05,-0.4982689,9.441756E-08,NaN,NaN,0.3138723,-3.771866E-10,1.289821E-06,-1.097785E-07,-9.867694E-09,-2.861022E-08
817.6204,-1.044425,1.351577E-09,NaN,-0.9948385,-1.322161E-07,NaN,0.1879687,-5.001883E-07,NaN,-0.8743204,2.28271E-05,-0.490694,9.424779E-08,NaN,NaN,0.3089967,-3.818432E-10,1.246608E-06,-1.097794E-07,-6.291415E-09,-2.622604E-08
817.6365,-1.044425,1.351577E-09,NaN,-0.9948385,-1.322161E-07,NaN,0.1879687,-5.001883E-07,NaN,-0.8743204,2.28271E-05,-0.490694,9.424779E-08,NaN,NaN,0.3089967,-3.818432E-10,1.246608E-06,-1.097794E-07,-6.291415E-09,-2.622604E-08
817.6509,-1.039902,1.352204E-09,NaN,-0.9904891,-1.322163E-07,NaN,0.1887865,-5.000206E-07,NaN,-0.870459,2.282747E-05,-0.4833047,9.408139E-08,NaN,NaN,0.3042167,-3.771866E-10,1.2025E-06,-1.097802E-07,-5.099323E-09,-2.861022E-08
817.6741,-1.035477,1.352832E-09,NaN,-0.9862153,-1.322164E-07,NaN,0.1895695,-4.998561E-07,NaN,-0.8667058,2.282784E-05,-0.4760497,9.39182E-08,NaN,NaN,0.2995305,-3.818432E-10,1.158393E-06,-1.097811E-07,-5.099323E-09,-2.622604E-08
817.6827,-1.031407,1.353459E-09,NaN,-0.9821754,-1.322166E-07,NaN,0.1909146,-4.996976E-07,NaN,-0.8630164,2.28282E-05,-0.4694151,9.376099E-08,NaN,NaN,0.2947561,-3.771866E-10,1.111305E-06,-1.097819E-07,-6.291415E-09,-2.861022E-08
817.6987,-1.031407,1.353459E-09,NaN,-0.9821754,-1.322166E-07,NaN,0.1909146,-4.996976E-07,NaN,-0.8630164,2.28282E-05,-0.4694151,9.376099E-08,NaN,NaN,0.2947561,-3.771866E-10,1.111305E-06,-1.097819E-07,-6.291415E-09,-2.861022E-08
817.7134,-1.027547,1.354086E-09,NaN,-0.9782836,-1.322167E-07,NaN,0.1923832,-4.995422E-07,NaN,-0.8595046,2.282857E-05,-0.4630801,9.360681E-08,NaN,NaN,0.2900756,-3.7253E-10,1.07137E-06,-1.097828E-07,-6.291415E-09,-2.622604E-08
817.73,-1.023821,1.354713E-09,NaN,-0.9744922,-1.322169E-07,NaN,0.193841,-4.993926E-07,NaN,-0.856122,2.282893E-05,-0.4569105,9.345844E-08,NaN,NaN,0.285487,-3.678733E-10,1.032925E-06,-1.097836E-07,-3.90723E-09,-2.861022E-08
817.7454,-1.020187,1.35534E-09,NaN,-0.9707745,-1.322171E-07,NaN,0.1952545,-4.992459E-07,NaN,-0.8528402,2.28293E-05,-0.4508548,9.331293E-08,NaN,NaN,0.2809883,-3.7253E-10,9.947784E-07,-1.097845E-07,-2.715137E-09,-2.622604E-08
817.7614,-1.016899,1.355966E-09,NaN,-0.9672881,-1.322172E-07,NaN,0.1972218,-4.991019E-07,NaN,-0.8496124,2.282967E-05,-0.4454053,9.317022E-08,NaN,NaN,0.2763978,-3.678733E-10,9.530551E-07,-1.097853E-07,-3.90723E-09,-2.861022E-08
817.7769,-1.016899,1.355966E-09,NaN,-0.9672881,-1.322172E-07,NaN,0.1972218,-4.991019E-07,NaN,-0.8496124,2.282967E-05,-0.4454053,9.317022E-08,NaN,NaN,0.2763978,-3.678733E-10,9.530551E-07,-1.097853E-07,-3.90723E-09,-2.861022E-08
817.7928,-1.013816,1.356593E-09,NaN,-0.9639484,-1.322174E-07,NaN,0.1993057,-4.989635E-07,NaN,-0.8465552,2.283004E-05,-0.4402376,9.303309E-08,NaN,NaN,0.2718976,-3.7253E-10,9.175903E-07,-1.097862E-07,-2.715137E-09,-2.622604E-08
817.8082,-1.01086,1.35722E-09,NaN,-0.9607075,-1.322175E-07,NaN,0.20137,-4.988277E-07,NaN,-0.8436204,2.283041E-05,-0.4352156,9.289861E-08,NaN,NaN,0.2674857,-3.678733E-10,8.836157E-07,-1.09787E-07,-3.30951E-10,-2.861022E-08
817.8235,-1.00799,1.357846E-09,NaN,-0.9575378,-1.322177E-07,NaN,0.2033802,-4.986974E-07,NaN,-0.8407801,2.283078E-05,-0.4302877,9.276954E-08,NaN,NaN,0.2631603,-3.7253E-10,8.511312E-07,-1.097879E-07,2.053235E-09,-2.622604E-08
817.8395,-1.00799,1.357846E-09,NaN,-0.9575378,-1.322177E-07,NaN,0.2033802,-4.986974E-07,NaN,-0.8407801,2.283078E-05,-0.4302877,9.276954E-08,NaN,NaN,0.2631603,-3.7253E-10,8.511312E-07,-1.097879E-07,2.053235E-09,-2.622604E-08
817.8539,-1.005458,1.358473E-09,NaN,-0.9545965,-1.322178E-07,NaN,0.2059364,-4.985695E-07,NaN,-0.8379855,2.283114E-05,-0.4259527,9.264296E-08,NaN,NaN,0.2587397,-3.678733E-10,8.132822E-07,-1.097887E-07,4.43742E-09,-2.861022E-08
817.8705,-1.003125,1.359099E-09,NaN,-0.9517998,-1.32218E-07,NaN,0.2086019,-4.984441E-07,NaN,-0.8353554,2.283151E-05,-0.421882,9.251881E-08,NaN,NaN,0.2544061,-3.7253E-10,7.816918E-07,-1.097895E-07,8.013699E-09,-2.622604E-08
817.8864,-1.000914,1.359726E-09,NaN,-0.9490997,-1.322181E-07,NaN,0.2112387,-4.98324E-07,NaN,-0.8328417,2.283188E-05,-0.4179378,9.239988E-08,NaN,NaN,0.2501575,-3.678733E-10,7.536776E-07,-1.097904E-07,6.821606E-09,-2.861022E-08
817.9021,-0.9987826,1.360352E-09,NaN,-0.9464681,-1.322183E-07,NaN,0.2138118,-4.982061E-07,NaN,-0.8304167,2.283225E-05,-0.4140689,9.228323E-08,NaN,NaN,0.2459923,-3.7253E-10,7.229812E-07,-1.097912E-07,5.629514E-09,-2.622604E-08
817.9178,-0.9987826,1.360352E-09,NaN,-0.9464681,-1.322183E-07,NaN,0.2138118,-4.982061E-07,NaN,-0.8304167,2.283225E-05,-0.4140689,9.228323E-08,NaN,NaN,0.2459923,-3.7253E-10,7.229812E-07,-1.097912E-07,5.629514E-09,-2.622604E-08
817.9326,-0.9969807,1.360978E-09,NaN,-0.9440615,-1.322185E-07,NaN,0.2169235,-4.980932E-07,NaN,-0.8280307,2.283262E-05,-0.4107803,9.217165E-08,NaN,NaN,0.2417287,-3.678733E-10,6.916887E-07,-1.09792E-07,5.629514E-09,-2.861022E-08
817.9495,-0.9953718,1.361604E-09,NaN,-0.9417971,-1.322186E-07,NaN,0.2201367,-4.979826E-07,NaN,-0.8258036,2.283299E-05,-0.407739,9.206221E-08,NaN,NaN,0.2375491,-3.7253E-10,6.645686E-07,-1.097928E-07,6.821606E-09,-2.622604E-08
817.9645,-0.9938794,1.36223E-09,NaN,-0.9396269,-1.322188E-07,NaN,0.2233121,-4.97874E-07,NaN,-0.8236876,2.283335E-05,-0.4048058,9.195487E-08,NaN,NaN,0.2334514,-3.678733E-10,6.407268E-07,-1.097936E-07,9.205792E-09,-2.861022E-08
817.9803,-0.9924603,1.362856E-09,NaN,-0.9375221,-1.322189E-07,NaN,0.2264142,-4.977703E-07,NaN,-0.8216548,2.283372E-05,-0.4019296,9.185241E-08,NaN,NaN,0.2294342,-3.7253E-10,6.16885E-07,-1.097945E-07,5.629513E-09,-2.622604E-08
817.9962,-0.9924603,1.362856E-09,NaN,-0.9375221,-1.322189E-07,NaN,0.2264142,-4.977703E-07,NaN,-0.8216548,2.283372E-05,-0.4019296,9.185241E-08,NaN,NaN,0.2294342,-3.7253E-10,6.16885E-07,-1.097945E-07,5.629513E-09,-2.622604E-08
818.0112,-0.9913629,1.363482E-09,NaN,-0.9356384,-1.322191E-07,NaN,0.2300481,-4.976685E-07,NaN,-0.8196558,2.283409E-05,-0.3996221,9.175191E-08,NaN,NaN,0.2253157,-3.678733E-10,5.864866E-07,-1.097953E-07,5.629513E-09,-2.861022E-08
818.0278,-0.9904528,1.364108E-09,NaN,-0.9338944,-1.322192E-07,NaN,0.2337756,-4.975715E-07,NaN,-0.8178108,2.283446E-05,-0.3975454,9.165617E-08,NaN,NaN,0.2212783,-3.7253E-10,5.644329E-07,-1.097961E-07,6.821606E-09,-2.622604E-08
818.0431,-0.9896536,1.364734E-09,NaN,-0.9322416,-1.322194E-07,NaN,0.2374561,-4.974764E-07,NaN,-0.8160718,2.283483E-05,-0.3955593,9.156226E-08,NaN,NaN,0.2173201,-3.678733E-10,5.417831E-07,-1.097969E-07,6.821606E-09,-2.861022E-08
818.0601,-0.9889217,1.36536E-09,NaN,-0.9306508,-1.322196E-07,NaN,0.2410538,-4.97383E-07,NaN,-0.8144112,2.28352E-05,-0.3936124,9.147013E-08,NaN,NaN,0.2134396,-3.7253E-10,5.191333E-07,-1.097977E-07,8.013698E-09,-2.622604E-08
818.0745,-0.9889217,1.36536E-09,NaN,-0.9306508,-1.322196E-07,NaN,0.2410538,-4.97383E-07,NaN,-0.8144112,2.28352E-05,-0.3936124,9.147013E-08,NaN,NaN,0.2134396,-3.7253E-10,5.191333E-07,-1.097977E-07,8.013698E-09,-2.622604E-08
818.0887,-0.9885039,1.365986E-09,NaN,-0.9292774,-1.322197E-07,NaN,0.2451769,-4.972942E-07,NaN,-0.8127803,2.283556E-05,-0.3922235,9.13826E-08,NaN,NaN,0.2094551,-3.678733E-10,4.952915E-07,-1.097985E-07,8.013698E-09,-2.861022E-08
818.106,-0.9882678,1.366611E-09,NaN,-0.9280406,-1.322199E-07,NaN,0.2493856,-4.972071E-07,NaN,-0.811299,2.283593E-05,-0.3910496,9.129674E-08,NaN,NaN,0.2055492,-3.7253E-10,4.774101E-07,-1.097993E-07,8.609745E-09,-2.622604E-08
818.1213,-0.9881371,1.367237E-09,NaN,-0.9268919,-1.3222E-07,NaN,0.253538,-4.971216E-07,NaN,-0.8099189,2.28363E-05,-0.3899492,9.121251E-08,NaN,NaN,0.2017199,-3.678733E-10,4.601247E-07,-1.098001E-07,5.629513E-09,-2.861022E-08
818.1372,-0.9881371,1.367237E-09,NaN,-0.9268919,-1.3222E-07,NaN,0.253538,-4.971216E-07,NaN,-0.8099189,2.28363E-05,-0.3899492,9.121251E-08,NaN,NaN,0.2017199,-3.678733E-10,4.601247E-07,-1.098001E-07,5.629513E-09,-2.861022E-08
818.1521,-0.9883363,1.367862E-09,NaN,-0.9259745,-1.322202E-07,NaN,0.2582065,-4.970405E-07,NaN,-0.808583,2.283667E-05,-0.3894076,9.113271E-08,NaN,NaN,0.1977857,-3.7253E-10,4.368789E-07,-1.098009E-07,3.841373E-09,-2.622604E-08
818.1688,-0.9887267,1.368488E-09,NaN,-0.9252035,-1.322203E-07,NaN,0.2629436,-4.96961E-07,NaN,-0.8074026,2.283704E-05,-0.3890671,9.105443E-08,NaN,NaN,0.193929,-3.678733E-10,4.225738E-07,-1.098017E-07,1.457188E-09,-2.861022E-08
818.184,-0.989226,1.369113E-09,NaN,-0.9245265,-1.322205E-07,NaN,0.2676063,-4.968858E-07,NaN,-0.8063258,2.283741E-05,-0.3887816,9.098046E-08,NaN,NaN,0.190148,-3.7253E-10,4.076727E-07,-1.098024E-07,1.457188E-09,-2.622604E-08
818.1996,-0.989226,1.369113E-09,NaN,-0.9245265,-1.322205E-07,NaN,0.2676063,-4.968858E-07,NaN,-0.8063258,2.283741E-05,-0.3887816,9.098046E-08,NaN,NaN,0.190148,-3.7253E-10,4.076727E-07,-1.098024E-07,1.457188E-09,-2.622604E-08
818.2145,-0.9897858,1.369739E-09,NaN,-0.9239106,-1.322206E-07,NaN,0.2721602,-4.968119E-07,NaN,-0.8053231,2.283777E-05,-0.3884996,9.09079E-08,NaN,NaN,0.1864412,-3.678733E-10,3.909834E-07,-1.098032E-07,-3.309516E-10,-2.861022E-08
818.2311,-0.9906492,1.370364E-09,NaN,-0.9235077,-1.322208E-07,NaN,0.2772228,-4.967395E-07,NaN,-0.8043475,2.283815E-05,-0.3887523,9.083672E-08,NaN,NaN,0.1826271,-3.7253E-10,3.713138E-07,-1.09804E-07,-3.309516E-10,-2.622604E-08
818.2465,-0.9916852,1.370989E-09,NaN,-0.9232376,-1.322209E-07,NaN,0.2823507,-4.966712E-07,NaN,-0.8035157,2.283851E-05,-0.3891885,9.076971E-08,NaN,NaN,0.1788881,-3.678733E-10,3.60585E-07,-1.098048E-07,1.457188E-09,-2.861022E-08
818.2626,-0.9928169,1.371614E-09,NaN,-0.9230498,-1.322211E-07,NaN,0.2874017,-4.966042E-07,NaN,-0.8027783,2.283888E-05,-0.3896648,9.070396E-08,NaN,NaN,0.1752225,-3.7253E-10,3.534325E-07,-1.098056E-07,8.611413E-10,-2.622604E-08
818.278,-0.9928169,1.371614E-09,NaN,-0.9230498,-1.322211E-07,NaN,0.2874017,-4.966042E-07,NaN,-0.8027783,2.283888E-05,-0.3896648,9.070396E-08,NaN,NaN,0.1752225,-3.7253E-10,3.534325E-07,-1.098056E-07,8.611413E-10,-2.622604E-08
818.2935,-0.9939991,1.372239E-09,NaN,-0.9229132,-1.322212E-07,NaN,0.2923404,-4.965413E-07,NaN,-0.8021075,2.283925E-05,-0.3901314,9.064229E-08,NaN,NaN,0.1716288,-3.678733E-10,3.421076E-07,-1.098063E-07,1.457188E-09,-2.861022E-08
818.3095,-0.9954756,1.372865E-09,NaN,-0.9229783,-1.322214E-07,NaN,0.2977864,-4.964795E-07,NaN,-0.8014601,2.283961E-05,-0.3911249,9.058178E-08,NaN,NaN,0.1679256,-3.632167E-10,3.230341E-07,-1.098071E-07,2.650948E-10,-2.622604E-08
818.325,-0.9971174,1.37349E-09,NaN,-0.9231677,-1.322215E-07,NaN,0.3032916,-4.964189E-07,NaN,-0.8009521,2.283997E-05,-0.3922888,9.052241E-08,NaN,NaN,0.1642954,-3.585601E-10,3.140934E-07,-1.098079E-07,8.611413E-10,-2.861022E-08
818.3408,-0.9988459,1.374115E-09,NaN,-0.9234313,-1.322217E-07,NaN,0.3087105,-4.963622E-07,NaN,-0.8005347,2.284034E-05,-0.3934773,9.046698E-08,NaN,NaN,0.1607364,-3.539035E-10,3.039606E-07,-1.098086E-07,2.053234E-09,-2.622604E-08
818.3564,-0.9988459,1.374115E-09,NaN,-0.9234313,-1.322217E-07,NaN,0.3087105,-4.963622E-07,NaN,-0.8005347,2.284034E-05,-0.3934773,9.046698E-08,NaN,NaN,0.1607364,-3.539035E-10,3.039606E-07,-1.098086E-07,2.053234E-09,-2.622604E-08
818.3716,-1.000615,1.374739E-09,NaN,-0.9237386,-1.322218E-07,NaN,0.3140076,-4.963065E-07,NaN,-0.8001803,2.28407E-05,-0.3946411,9.04126E-08,NaN,NaN,0.1572473,-3.492469E-10,2.938278E-07,-1.098094E-07,3.245327E-09,-2.861022E-08
818.3879,-1.002669,1.375364E-09,NaN,-0.9242435,-1.322219E-07,NaN,0.319809,-4.962519E-07,NaN,-0.7998497,2.284106E-05,-0.3963267,9.035924E-08,NaN,NaN,0.1536465,-3.445903E-10,2.84291E-07,-1.098102E-07,2.053234E-09,-2.622604E-08
818.4036,-1.004877,1.375989E-09,NaN,-0.9248649,-1.322221E-07,NaN,0.3256562,-4.962011E-07,NaN,-0.7996565,2.284143E-05,-0.3981649,9.03097E-08,NaN,NaN,0.1501167,-3.399337E-10,2.735622E-07,-1.098109E-07,3.841373E-09,-2.861022E-08
818.4192,-1.004877,1.375989E-09,NaN,-0.9248649,-1.322221E-07,NaN,0.3256562,-4.962011E-07,NaN,-0.7996565,2.284143E-05,-0.3981649,9.03097E-08,NaN,NaN,0.1501167,-3.399337E-10,2.735622E-07,-1.098109E-07,3.841373E-09,-2.861022E-08
818.4341,-1.00716,1.376613E-09,NaN,-0.9255531,-1.322222E-07,NaN,0.3314061,-4.961512E-07,NaN,-0.7995505,2.284179E-05,-0.4000112,9.026109E-08,NaN,NaN,0.1466563,-3.352771E-10,2.676018E-07,-1.098117E-07,5.033466E-09,-2.622604E-08
818.4503,-1.009475,1.377238E-09,NaN,-0.9262783,-1.322224E-07,NaN,0.3370256,-4.961051E-07,NaN,-0.7995038,2.284216E-05,-0.4018181,9.021621E-08,NaN,NaN,0.1432637,-3.306205E-10,2.610452E-07,-1.098124E-07,3.841373E-09,-2.861022E-08
818.4661,-1.012067,1.377862E-09,NaN,-0.927195,-1.322225E-07,NaN,0.3431469,-4.960598E-07,NaN,-0.7994807,2.284252E-05,-0.4041406,9.017216E-08,NaN,NaN,0.1397577,-3.259639E-10,2.485283E-07,-1.098132E-07,3.841373E-09,-2.622604E-08
818.4818,-1.014803,1.378486E-09,NaN,-0.9282214,-1.322227E-07,NaN,0.3493041,-4.960153E-07,NaN,-0.7995923,2.284288E-05,-0.4066009,9.012894E-08,NaN,NaN,0.1363207,-3.213073E-10,2.401836E-07,-1.098139E-07,6.821606E-09,-2.861022E-08
818.4977,-1.014803,1.378486E-09,NaN,-0.9282214,-1.322227E-07,NaN,0.3493041,-4.960153E-07,NaN,-0.7995923,2.284288E-05,-0.4066009,9.012894E-08,NaN,NaN,0.1363207,-3.213073E-10,2.401836E-07,-1.098139E-07,6.821606E-09,-2.861022E-08
818.5126,-1.017607,1.37911E-09,NaN,-0.9293082,-1.322228E-07,NaN,0.3553546,-4.959744E-07,NaN,-0.7997875,2.284325E-05,-0.4090541,9.008934E-08,NaN,NaN,0.1329513,-3.166507E-10,2.372034E-07,-1.098147E-07,8.013698E-09,-2.622604E-08
818.5289,-1.020434,1.379734E-09,NaN,-0.9304258,-1.322229E-07,NaN,0.3612665,-4.959343E-07,NaN,-0.8000382,2.284361E-05,-0.4114544,9.005048E-08,NaN,NaN,0.129648,-3.11994E-10,2.336271E-07,-1.098154E-07,6.821606E-09,-2.861022E-08
818.5447,-1.023532,1.380358E-09,NaN,-0.9317293,-1.322231E-07,NaN,0.3676783,-4.958949E-07,NaN,-0.8003129,2.284399E-05,-0.414365,9.001234E-08,NaN,NaN,0.1262293,-3.166507E-10,2.205141E-07,-1.098161E-07,8.609745E-09,-2.622604E-08
818.5601,-1.026766,1.380982E-09,NaN,-0.9331364,-1.322232E-07,NaN,0.3741162,-4.95859E-07,NaN,-0.8007197,2.284436E-05,-0.417399,8.997772E-08,NaN,NaN,0.1228782,-3.11994E-10,2.175339E-07,-1.098169E-07,8.609745E-09,-2.861022E-08
818.5774,-1.026766,1.380982E-09,NaN,-0.9331364,-1.322232E-07,NaN,0.3741162,-4.95859E-07,NaN,-0.8007197,2.284436E-05,-0.417399,8.997772E-08,NaN,NaN,0.1228782,-3.11994E-10,2.175339E-07,-1.098169E-07,8.609745E-09,-2.861022E-08
818.5908,-1.030061,1.381606E-09,NaN,-0.9345978,-1.322234E-07,NaN,0.3804378,-4.958238E-07,NaN,-0.8012066,2.284473E-05,-0.4204114,8.994375E-08,NaN,NaN,0.1195928,-3.11994E-10,2.139576E-07,-1.098176E-07,1.039788E-08,-2.622604E-08
818.6074,-1.033371,1.38223E-09,NaN,-0.9360844,-1.322235E-07,NaN,0.3866131,-4.95792E-07,NaN,-0.8017452,2.28451E-05,-0.4233581,8.991321E-08,NaN,NaN,0.1163719,-3.073374E-10,2.097853E-07,-1.098184E-07,1.218602E-08,-2.861022E-08
818.623,-1.036947,1.382854E-09,NaN,-0.9377521,-1.322236E-07,NaN,0.393287,-4.957636E-07,NaN,-0.802309,2.284548E-05,-0.4268104,8.988605E-08,NaN,NaN,0.1130341,-3.166507E-10,2.008446E-07,-1.098191E-07,1.337812E-08,-2.622604E-08
818.639,-1.036947,1.382854E-09,NaN,-0.9377521,-1.322236E-07,NaN,0.393287,-4.957636E-07,NaN,-0.802309,2.284548E-05,-0.4268104,8.988605E-08,NaN,NaN,0.1130341,-3.166507E-10,2.008446E-07,-1.098191E-07,1.337812E-08,-2.622604E-08
818.6534,-1.040652,1.383477E-09,NaN,-0.9395174,-1.322238E-07,NaN,0.3999769,-4.957357E-07,NaN,-0.8030022,2.284585E-05,-0.4303721,8.985938E-08,NaN,NaN,0.1097622,-3.11994E-10,1.966722E-07,-1.098198E-07,1.158998E-08,-2.861022E-08
818.6699,-1.044409,1.384101E-09,NaN,-0.9413316,-1.322239E-07,NaN,0.4065416,-4.957082E-07,NaN,-0.803772,2.284623E-05,-0.4338983,8.983318E-08,NaN,NaN,0.1065546,-3.213073E-10,1.954802E-07,-1.098205E-07,1.158998E-08,-2.622604E-08
818.6855,-1.048177,1.384725E-09,NaN,-0.9431658,-1.322241E-07,NaN,0.4129526,-4.95684E-07,NaN,-0.8045897,2.28466E-05,-0.4373466,8.981027E-08,NaN,NaN,0.1034098,-3.166507E-10,1.924999E-07,-1.098213E-07,9.801838E-09,-2.861022E-08
818.7012,-1.052204,1.385348E-09,NaN,-0.9451764,-1.322242E-07,NaN,0.419861,-4.956603E-07,NaN,-0.8054343,2.284698E-05,-0.4412964,8.978777E-08,NaN,NaN,0.1001467,-3.213073E-10,1.841553E-07,-1.09822E-07,1.337812E-08,-2.622604E-08
818.7167,-1.052204,1.385348E-09,NaN,-0.9451764,-1.322242E-07,NaN,0.419861,-4.956603E-07,NaN,-0.8054343,2.284698E-05,-0.4412964,8.978777E-08,NaN,NaN,0.1001467,-3.213073E-10,1.841553E-07,-1.09822E-07,1.337812E-08,-2.622604E-08
818.7319,-1.056354,1.385972E-09,NaN,-0.9472793,-1.322244E-07,NaN,0.4267759,-4.956369E-07,NaN,-0.8064055,2.284735E-05,-0.4453422,8.976566E-08,NaN,NaN,0.09694801,-3.166507E-10,1.835592E-07,-1.098227E-07,1.457021E-08,-2.861022E-08
818.7484,-1.06055,1.386596E-09,NaN,-0.9494259,-1.322245E-07,NaN,0.4335569,-4.956167E-07,NaN,-0.8074498,2.284773E-05,-0.4493392,8.974676E-08,NaN,NaN,0.09381215,-3.213073E-10,1.823671E-07,-1.098234E-07,1.516626E-08,-2.622604E-08
818.764,-1.064751,1.387219E-09,NaN,-0.9515878,-1.322246E-07,NaN,0.440177,-4.955969E-07,NaN,-0.8085382,2.284811E-05,-0.4532467,8.972819E-08,NaN,NaN,0.09073778,-3.166507E-10,1.847513E-07,-1.098241E-07,1.337812E-08,-2.861022E-08
818.7796,-1.064751,1.387219E-09,NaN,-0.9515878,-1.322246E-07,NaN,0.440177,-4.955969E-07,NaN,-0.8085382,2.284811E-05,-0.4532467,8.972819E-08,NaN,NaN,0.09073778,-3.166507E-10,1.847513E-07,-1.098241E-07,1.337812E-08,-2.861022E-08
818.7949,-1.069205,1.387843E-09,NaN,-0.9539216,-1.322248E-07,NaN,0.447294,-4.955774E-07,NaN,-0.8096554,2.284849E-05,-0.4576523,8.970993E-08,NaN,NaN,0.08754363,-3.213073E-10,1.758106E-07,-1.098248E-07,1.278207E-08,-2.622604E-08
818.8107,-1.073777,1.388467E-09,NaN,-0.9563429,-1.322249E-07,NaN,0.4544079,-4.95561E-07,NaN,-0.8108968,2.284886E-05,-0.4621407,8.969481E-08,NaN,NaN,0.08441257,-3.166507E-10,1.764067E-07,-1.098255E-07,1.337812E-08,-2.861022E-08
818.8266,-1.078389,1.38909E-09,NaN,-0.9588029,-1.322251E-07,NaN,0.4613795,-4.955449E-07,NaN,-0.8122075,2.284924E-05,-0.4665676,8.967994E-08,NaN,NaN,0.08134302,-3.213073E-10,1.764067E-07,-1.098262E-07,1.039788E-08,-2.622604E-08
818.842,-1.082999,1.389714E-09,NaN,-0.9612738,-1.322252E-07,NaN,0.4681837,-4.95529E-07,NaN,-0.8135586,2.284962E-05,-0.4708939,8.966531E-08,NaN,NaN,0.07833368,-3.166507E-10,1.746185E-07,-1.098269E-07,1.039788E-08,-2.861022E-08
818.8577,-1.082999,1.389714E-09,NaN,-0.9612738,-1.322252E-07,NaN,0.4681837,-4.95529E-07,NaN,-0.8135586,2.284962E-05,-0.4708939,8.966531E-08,NaN,NaN,0.07833368,-3.166507E-10,1.746185E-07,-1.098269E-07,1.039788E-08,-2.861022E-08
818.8729,-1.087859,1.390337E-09,NaN,-0.9639125,-1.322254E-07,NaN,0.4754844,-4.955162E-07,NaN,-0.8149409,2.285E-05,-0.4757155,8.965375E-08,NaN,NaN,0.07520325,-3.213073E-10,1.650818E-07,-1.098276E-07,1.039788E-08,-2.622604E-08
818.889,-1.09283,1.390961E-09,NaN,-0.9666341,-1.322255E-07,NaN,0.4827726,-4.955036E-07,NaN,-0.8164446,2.285037E-05,-0.4806072,8.964236E-08,NaN,NaN,0.07213468,-3.166507E-10,1.638897E-07,-1.098283E-07,1.218602E-08,-2.861022E-08
818.9047,-1.097836,1.391585E-09,NaN,-0.9693899,-1.322256E-07,NaN,0.4899107,-4.954912E-07,NaN,-0.818014,2.285075E-05,-0.4854251,8.963116E-08,NaN,NaN,0.0691264,-3.213073E-10,1.638897E-07,-1.09829E-07,1.278207E-08,-2.622604E-08
818.9203,-1.102835,1.392208E-09,NaN,-0.9721524,-1.322258E-07,NaN,0.496875,-4.954817E-07,NaN,-0.81962,2.285113E-05,-0.490132,8.962295E-08,NaN,NaN,0.06617711,-3.166507E-10,1.623996E-07,-1.098297E-07,9.801838E-09,-2.861022E-08
818.936,-1.102835,1.392208E-09,NaN,-0.9721524,-1.322258E-07,NaN,0.496875,-4.954817E-07,NaN,-0.81962,2.285113E-05,-0.490132,8.962295E-08,NaN,NaN,0.06617711,-3.166507E-10,1.623996E-07,-1.098297E-07,9.801838E-09,-2.861022E-08
818.9507,-1.10808,1.392832E-09,NaN,-0.9750789,-1.322259E-07,NaN,0.504336,-4.954724E-07,NaN,-0.8212599,2.285151E-05,-0.495332,8.961485E-08,NaN,NaN,0.06310557,-3.213073E-10,1.561411E-07,-1.098304E-07,8.609746E-09,-2.622604E-08
818.967,-1.113431,1.393455E-09,NaN,-0.9780839,-1.322261E-07,NaN,0.5117753,-4.954631E-07,NaN,-0.8230185,2.285188E-05,-0.5005895,8.960686E-08,NaN,NaN,0.06009473,-3.166507E-10,1.55545E-07,-1.098311E-07,8.013699E-09,-2.861022E-08
818.9824,-1.118811,1.394079E-09,NaN,-0.9811188,-1.322262E-07,NaN,0.5190567,-4.954568E-07,NaN,-0.8248389,2.285226E-05,-0.5057615,8.960181E-08,NaN,NaN,0.05714305,-3.213073E-10,1.537569E-07,-1.098318E-07,7.417653E-09,-2.622604E-08
818.9982,-1.118811,1.394079E-09,NaN,-0.9811188,-1.322262E-07,NaN,0.5190567,-4.954568E-07,NaN,-0.8248389,2.285226E-05,-0.5057615,8.960181E-08,NaN,NaN,0.05714305,-3.213073E-10,1.537569E-07,-1.098318E-07,7.417653E-09,-2.622604E-08
819.0132,-1.124456,1.394703E-09,NaN,-0.9843294,-1.322263E-07,NaN,0.5268241,-4.954505E-07,NaN,-0.8267106,2.285264E-05,-0.5114239,8.959682E-08,NaN,NaN,0.05406918,-3.166507E-10,1.483925E-07,-1.098325E-07,1.278207E-08,-2.861022E-08
819.0296,-1.130214,1.395326E-09,NaN,-0.9876225,-1.322265E-07,NaN,0.5345472,-4.954472E-07,NaN,-0.8287073,2.285302E-05,-0.5171252,8.95947E-08,NaN,NaN,0.05105606,-3.213073E-10,1.492865E-07,-1.098332E-07,1.218602E-08,-2.622604E-08
819.0451,-1.136002,1.39595E-09,NaN,-0.990946,-1.322266E-07,NaN,0.5420939,-4.954438E-07,NaN,-0.8307675,2.285339E-05,-0.5227228,8.959258E-08,NaN,NaN,0.04810213,-3.166507E-10,1.507767E-07,-1.098338E-07,1.278207E-08,-2.861022E-08
819.061,-1.141775,1.396573E-09,NaN,-0.994271,-1.322268E-07,NaN,0.5494474,-4.954404E-07,NaN,-0.8328599,2.285377E-05,-0.5281851,8.959044E-08,NaN,NaN,0.04520613,-3.213073E-10,1.504786E-07,-1.098345E-07,1.337812E-08,-2.622604E-08
819.0763,-1.141775,1.396573E-09,NaN,-0.994271,-1.322268E-07,NaN,0.5494474,-4.954404E-07,NaN,-0.8328599,2.285377E-05,-0.5281851,8.959044E-08,NaN,NaN,0.04520613,-3.213073E-10,1.504786E-07,-1.098345E-07,1.337812E-08,-2.622604E-08
819.0925,-1.14779,1.397197E-09,NaN,-0.9977546,-1.322269E-07,NaN,0.5572916,-4.954398E-07,NaN,-0.8349937,2.285415E-05,-0.5341316,8.959113E-08,NaN,NaN,0.0421868,-3.166507E-10,1.439221E-07,-1.098352E-07,1.457021E-08,-2.861022E-08
819.1075,-1.153901,1.39782E-09,NaN,-1.001309,-1.32227E-07,NaN,0.5650926,-4.953896E-07,NaN,-0.837242,2.285453E-05,-0.5401092,8.954216E-08,NaN,NaN,0.03922718,-3.166507E-10,1.469024E-07,-1.098358E-07,1.516626E-08,-2.622604E-08
819.1229,-1.16003,1.398442E-09,NaN,-1.004885,-1.322272E-07,NaN,0.5727189,-4.953403E-07,NaN,-0.8395456,2.285491E-05,-0.5459775,8.949409E-08,NaN,NaN,0.03632571,-3.166507E-10,1.460083E-07,-1.098365E-07,1.814649E-08,-2.861022E-08
819.1391,-1.16003,1.398442E-09,NaN,-1.004885,-1.322272E-07,NaN,0.5727189,-4.953403E-07,NaN,-0.8395456,2.285491E-05,-0.5459775,8.949409E-08,NaN,NaN,0.03632571,-3.166507E-10,1.460083E-07,-1.098365E-07,1.814649E-08,-2.861022E-08
819.1536,-1.166137,1.399065E-09,NaN,-1.008457,-1.322273E-07,NaN,0.580153,-4.952918E-07,NaN,-0.841875,2.285531E-05,-0.551706,8.944694E-08,NaN,NaN,0.03348113,-3.213073E-10,1.466043E-07,-1.098372E-07,2.231881E-08,-2.622604E-08
819.1701,-1.17248,1.399687E-09,NaN,-1.012184,-1.322275E-07,NaN,0.5880823,-4.952471E-07,NaN,-0.8442481,2.285569E-05,-0.5579203,8.940349E-08,NaN,NaN,0.03051222,-3.166507E-10,1.4273E-07,-1.098378E-07,2.172277E-08,-2.861022E-08
819.1856,-1.178914,1.40031E-09,NaN,-1.015976,-1.322276E-07,NaN,0.5959618,-4.952033E-07,NaN,-0.8467318,2.285607E-05,-0.5641558,8.936085E-08,NaN,NaN,0.02760204,-3.166507E-10,1.406439E-07,-1.098385E-07,2.4703E-08,-2.622604E-08
819.201,-1.185361,1.400933E-09,NaN,-1.019786,-1.322278E-07,NaN,0.6036615,-4.951602E-07,NaN,-0.8492663,2.285646E-05,-0.5702727,8.9319E-08,NaN,NaN,0.02474903,-3.166507E-10,1.406439E-07,-1.098391E-07,2.768323E-08,-2.861022E-08
819.2167,-1.185361,1.400933E-09,NaN,-1.019786,-1.322278E-07,NaN,0.6036615,-4.951602E-07,NaN,-0.8492663,2.285646E-05,-0.5702727,8.9319E-08,NaN,NaN,0.02474903,-3.166507E-10,1.406439E-07,-1.098391E-07,2.768323E-08,-2.861022E-08
819.2316,-1.191781,1.401556E-09,NaN,-1.023589,-1.322279E-07,NaN,0.6111653,-4.951207E-07,NaN,-0.8518222,2.285684E-05,-0.5762424,8.928076E-08,NaN,NaN,0.02195196,-3.166507E-10,1.403458E-07,-1.098398E-07,2.649114E-08,-2.622604E-08
819.248,-1.198435,1.402178E-09,NaN,-1.027543,-1.32228E-07,NaN,0.6191658,-4.950819E-07,NaN,-0.8544255,2.285723E-05,-0.5826982,8.924322E-08,NaN,NaN,0.01902963,-3.166507E-10,1.317032E-07,-1.098405E-07,2.649114E-08,-2.861022E-08
819.2636,-1.205176,1.402801E-09,NaN,-1.03156,-1.322282E-07,NaN,0.6271083,-4.950438E-07,NaN,-0.8571364,2.285762E-05,-0.5891637,8.920638E-08,NaN,NaN,0.01616511,-3.166507E-10,1.314051E-07,-1.098411E-07,2.649114E-08,-2.622604E-08
819.2792,-1.205176,1.402801E-09,NaN,-1.03156,-1.322282E-07,NaN,0.6271083,-4.950438E-07,NaN,-0.8571364,2.285762E-05,-0.5891637,8.920638E-08,NaN,NaN,0.01616511,-3.166507E-10,1.314051E-07,-1.098411E-07,2.649114E-08,-2.622604E-08
819.2944,-1.211924,1.403424E-09,NaN,-1.035591,-1.322283E-07,NaN,0.6348653,-4.950092E-07,NaN,-0.8598937,2.2858E-05,-0.5955013,8.917304E-08,NaN,NaN,0.01335687,-3.11994E-10,1.340873E-07,-1.098417E-07,2.172277E-08,-2.861022E-08
819.3106,-1.218641,1.404047E-09,NaN,-1.039611,-1.322285E-07,NaN,0.6424227,-4.949752E-07,NaN,-0.8626682,2.285838E-05,-0.6016845,8.914032E-08,NaN,NaN,0.01060369,-3.11994E-10,1.331933E-07,-1.098424E-07,2.053067E-08,-2.622604E-08
819.3262,-1.22559,1.40467E-09,NaN,-1.04378,-1.322286E-07,NaN,0.6504781,-4.949418E-07,NaN,-0.8654943,2.285877E-05,-0.6083542,8.91082E-08,NaN,NaN,0.007724396,-3.11994E-10,1.239545E-07,-1.09843E-07,1.814649E-08,-2.861022E-08
819.3419,-1.232622,1.405293E-09,NaN,-1.048008,-1.322287E-07,NaN,0.6584674,-4.949119E-07,NaN,-0.8684247,2.285915E-05,-0.6150224,8.907949E-08,NaN,NaN,0.004902075,-3.11994E-10,1.224644E-07,-1.098437E-07,1.695439E-08,-2.622604E-08
819.3572,-1.232622,1.405293E-09,NaN,-1.048008,-1.322287E-07,NaN,0.6584674,-4.949119E-07,NaN,-0.8684247,2.285915E-05,-0.6150224,8.907949E-08,NaN,NaN,0.004902075,-3.11994E-10,1.224644E-07,-1.098437E-07,1.695439E-08,-2.622604E-08
819.3729,-1.239657,1.405916E-09,NaN,-1.052248,-1.322289E-07,NaN,0.6662657,-4.948824E-07,NaN,-0.8713971,2.285954E-05,-0.6215537,8.90513E-08,NaN,NaN,0.002135192,-3.11994E-10,1.221664E-07,-1.098443E-07,1.57623E-08,-2.861022E-08
819.3888,-1.246656,1.406539E-09,NaN,-1.056473,-1.32229E-07,NaN,0.6738612,-4.948535E-07,NaN,-0.8743824,2.285993E-05,-0.6279241,8.902362E-08,NaN,NaN,-0.0005774393,-3.11994E-10,1.239545E-07,-1.098449E-07,1.57623E-08,-2.622604E-08
819.4046,-1.253886,1.407163E-09,NaN,-1.060845,-1.322291E-07,NaN,0.6819559,-4.948251E-07,NaN,-0.8774236,2.286031E-05,-0.6347818,8.899644E-08,NaN,NaN,-0.003416984,-3.11994E-10,1.162059E-07,-1.098456E-07,1.695439E-08,-2.861022E-08
819.42,-1.261194,1.407786E-09,NaN,-1.065274,-1.322293E-07,NaN,0.6899767,-4.948E-07,NaN,-0.8805658,2.28607E-05,-0.641627,8.897258E-08,NaN,NaN,-0.006200334,-3.11994E-10,1.179941E-07,-1.098462E-07,1.337811E-08,-2.622604E-08
819.4359,-1.261194,1.407786E-09,NaN,-1.065274,-1.322293E-07,NaN,0.6899767,-4.948E-07,NaN,-0.8805658,2.28607E-05,-0.641627,8.897258E-08,NaN,NaN,-0.006200334,-3.11994E-10,1.179941E-07,-1.098462E-07,1.337811E-08,-2.622604E-08
819.4506,-1.268501,1.408409E-09,NaN,-1.06971,-1.322294E-07,NaN,0.6978017,-4.947753E-07,NaN,-0.8837455,2.286108E-05,-0.6483269,8.894915E-08,NaN,NaN,-0.008929014,-3.11994E-10,1.197822E-07,-1.098468E-07,1.457021E-08,-2.861022E-08
819.4668,-1.275768,1.409033E-09,NaN,-1.07413,-1.322295E-07,NaN,0.705421,-4.94751E-07,NaN,-0.8869337,2.286147E-05,-0.6548603,8.892613E-08,NaN,NaN,-0.0116042,-3.11994E-10,1.227624E-07,-1.098475E-07,1.218602E-08,-2.622604E-08
819.4824,-1.283264,1.409656E-09,NaN,-1.078694,-1.322297E-07,NaN,0.713541,-4.9473E-07,NaN,-0.8901825,2.286185E-05,-0.6618822,8.890635E-08,NaN,NaN,-0.01440702,-3.11994E-10,1.156099E-07,-1.098481E-07,9.801836E-09,-2.861022E-08
819.4982,-1.283264,1.409656E-09,NaN,-1.078694,-1.322297E-07,NaN,0.713541,-4.9473E-07,NaN,-0.8901825,2.286185E-05,-0.6618822,8.890635E-08,NaN,NaN,-0.01440702,-3.11994E-10,1.156099E-07,-1.098481E-07,9.801836E-09,-2.861022E-08
