JMolnar6/NonAnthroHands_User_Study/HandsLoggerWithURDF/tempdata/files/Reachy_PID0_JointMotion_gesture_7_33.csv
Time,r_shoulder,r_shoulder_x,r_upper_arm,r_forearm,r_wrist,r_wrist2hand,
394.8907,-0.0980624,-1.585412E-08,NaN,-0.3272947,-1.352285E-07,NaN,0.4577366,3.876761E-09,NaN,-2.162965,1.241931E-05,-0.3641495,7.884549E-09,NaN,NaN,-0.05045301,1.9092E-10,-2.808995E-07,-1.135372E-07,-1.359515E-08,-2.622604E-08
394.9059,-0.09841775,-1.585319E-08,NaN,-0.3272932,-1.352283E-07,NaN,0.4578393,3.96498E-09,NaN,-2.162819,1.241987E-05,-0.3640773,7.773791E-09,NaN,NaN,-0.04985607,1.9092E-10,-2.818308E-07,-1.135379E-07,-1.359515E-08,-2.861022E-08
394.9213,-0.09804177,-1.585226E-08,NaN,-0.3272894,-1.35228E-07,NaN,0.4577778,4.053199E-09,NaN,-2.16306,1.242043E-05,-0.3639796,7.663751E-09,NaN,NaN,-0.04927047,1.9092E-10,-2.733185E-07,-1.135385E-07,-1.240306E-08,-2.622604E-08
394.9351,-0.09804177,-1.585226E-08,NaN,-0.3272894,-1.35228E-07,NaN,0.4577778,4.053199E-09,NaN,-2.16306,1.242043E-05,-0.3639796,7.663751E-09,NaN,NaN,-0.04927047,1.9092E-10,-2.733185E-07,-1.135385E-07,-1.240306E-08,-2.622604E-08
394.9492,-0.0972072,-1.585133E-08,NaN,-0.3272845,-1.352278E-07,NaN,0.4576375,4.141418E-09,NaN,-2.163414,1.242098E-05,-0.3639306,7.554426E-09,NaN,NaN,-0.0486964,1.9092E-10,-2.647317E-07,-1.135392E-07,-1.121097E-08,-2.861022E-08
394.9647,-0.09608755,-1.585039E-08,NaN,-0.3272791,-1.352275E-07,NaN,0.4574833,4.229638E-09,NaN,-2.163775,1.242154E-05,-0.3639084,7.44581E-09,NaN,NaN,-0.04813365,1.9092E-10,-2.581938E-07,-1.135399E-07,-8.826783E-09,-2.622604E-08
394.9792,-0.09608755,-1.585039E-08,NaN,-0.3272791,-1.352275E-07,NaN,0.4574833,4.229638E-09,NaN,-2.163775,1.242154E-05,-0.3639084,7.44581E-09,NaN,NaN,-0.04813365,1.9092E-10,-2.581938E-07,-1.135399E-07,-8.826783E-09,-2.622604E-08
394.9935,-0.09552153,-1.584946E-08,NaN,-0.3272761,-1.352273E-07,NaN,0.4575055,4.317857E-09,NaN,-2.16372,1.24221E-05,-0.3639191,7.337899E-09,NaN,NaN,-0.04758233,1.9092E-10,-2.602428E-07,-1.135406E-07,-5.250504E-09,-2.861022E-08
395.0086,-0.09530625,-1.584853E-08,NaN,-0.3272743,-1.35227E-07,NaN,0.4576247,4.406076E-09,NaN,-2.163513,1.242266E-05,-0.3638804,7.230689E-09,NaN,NaN,-0.0470418,1.9092E-10,-2.62124E-07,-1.135413E-07,-8.826783E-09,-2.622604E-08
395.0232,-0.09531147,-1.58476E-08,NaN,-0.327273,-1.352268E-07,NaN,0.4577742,4.494295E-09,NaN,-2.163266,1.242322E-05,-0.3638118,7.124175E-09,NaN,NaN,-0.0465118,1.9092E-10,-2.63074E-07,-1.135419E-07,-6.442597E-09,-2.861022E-08
395.0379,-0.09531147,-1.58476E-08,NaN,-0.327273,-1.352268E-07,NaN,0.4577742,4.494295E-09,NaN,-2.163266,1.242322E-05,-0.3638118,7.124175E-09,NaN,NaN,-0.0465118,1.9092E-10,-2.63074E-07,-1.135419E-07,-6.442597E-09,-2.861022E-08
395.052,-0.09545542,-1.584667E-08,NaN,-0.3272721,-1.352266E-07,NaN,0.4579239,4.582514E-09,NaN,-2.163022,1.242379E-05,-0.3637328,7.018353E-09,NaN,NaN,-0.04599217,1.9092E-10,-2.643592E-07,-1.135426E-07,-2.866319E-09,-2.622604E-08
395.0673,-0.09641438,-1.584574E-08,NaN,-0.3272725,-1.352263E-07,NaN,0.4582287,4.670734E-09,NaN,-2.162405,1.242436E-05,-0.3636763,6.913217E-09,NaN,NaN,-0.04548307,1.955767E-10,-2.718656E-07,-1.135433E-07,-8.826783E-09,-2.861022E-08
395.0839,-0.09788214,-1.584481E-08,NaN,-0.3272732,-1.352261E-07,NaN,0.4586011,4.758953E-09,NaN,-2.161691,1.242493E-05,-0.3635731,6.808764E-09,NaN,NaN,-0.0449839,1.955767E-10,-2.787761E-07,-1.13544E-07,-1.121097E-08,-2.622604E-08
395.0974,-0.09788214,-1.584481E-08,NaN,-0.3272732,-1.352261E-07,NaN,0.4586011,4.758953E-09,NaN,-2.161691,1.242493E-05,-0.3635731,6.808764E-09,NaN,NaN,-0.0449839,1.955767E-10,-2.787761E-07,-1.13544E-07,-1.121097E-08,-2.622604E-08
395.1112,-0.09966388,-1.584388E-08,NaN,-0.3272736,-1.352259E-07,NaN,0.4589773,4.847172E-09,NaN,-2.160985,1.242551E-05,-0.3634464,6.704989E-09,NaN,NaN,-0.04449444,1.955767E-10,-2.84066E-07,-1.135446E-07,-1.001888E-08,-2.861022E-08
395.127,-0.1016357,-1.584295E-08,NaN,-0.3272738,-1.352256E-07,NaN,0.4593327,4.935391E-09,NaN,-2.160321,1.242608E-05,-0.3633154,6.601887E-09,NaN,NaN,-0.04401453,1.955767E-10,-2.881265E-07,-1.135453E-07,-1.121097E-08,-2.622604E-08
395.1401,-0.1044473,-1.584202E-08,NaN,-0.3272758,-1.352254E-07,NaN,0.4598274,5.02361E-09,NaN,-2.159318,1.242665E-05,-0.3632103,6.499455E-09,NaN,NaN,-0.04354436,1.955767E-10,-2.985946E-07,-1.13546E-07,-1.359515E-08,-2.861022E-08
395.1546,-0.1044473,-1.584202E-08,NaN,-0.3272758,-1.352254E-07,NaN,0.4598274,5.02361E-09,NaN,-2.159318,1.242665E-05,-0.3632103,6.499455E-09,NaN,NaN,-0.04354436,1.955767E-10,-2.985946E-07,-1.13546E-07,-1.359515E-08,-2.861022E-08
395.1686,-0.1077753,-1.584109E-08,NaN,-0.3272778,-1.352252E-07,NaN,0.4603771,5.11183E-09,NaN,-2.158243,1.242722E-05,-0.3630618,6.397688E-09,NaN,NaN,-0.04308335,1.955767E-10,-3.067157E-07,-1.135466E-07,-1.121097E-08,-2.622604E-08
395.1837,-0.1114144,-1.584016E-08,NaN,-0.3272793,-1.35225E-07,NaN,0.4609206,5.200049E-09,NaN,-2.157196,1.242779E-05,-0.3628928,6.296582E-09,NaN,NaN,-0.04263129,2.002333E-10,-3.144271E-07,-1.135473E-07,-1.240306E-08,-2.861022E-08
395.1983,-0.1114144,-1.584016E-08,NaN,-0.3272793,-1.35225E-07,NaN,0.4609206,5.200049E-09,NaN,-2.157196,1.242779E-05,-0.3628928,6.296582E-09,NaN,NaN,-0.04263129,2.002333E-10,-3.144271E-07,-1.135473E-07,-1.240306E-08,-2.861022E-08
395.2126,-0.1159622,-1.583923E-08,NaN,-0.3272823,-1.352248E-07,NaN,0.4616005,5.288268E-09,NaN,-2.155822,1.242837E-05,-0.3627421,6.196132E-09,NaN,NaN,-0.0421884,2.002333E-10,-3.286018E-07,-1.13548E-07,-1.001887E-08,-2.622604E-08
395.2279,-0.1210628,-1.583829E-08,NaN,-0.3272848,-1.352245E-07,NaN,0.4623255,5.376487E-09,NaN,-2.154395,1.242894E-05,-0.3625474,6.096334E-09,NaN,NaN,-0.04175411,2.002333E-10,-3.394424E-07,-1.135487E-07,-1.121097E-08,-2.861022E-08
395.2423,-0.1264897,-1.583736E-08,NaN,-0.3272859,-1.352243E-07,NaN,0.4630338,5.464706E-09,NaN,-2.153016,1.242951E-05,-0.362334,5.997184E-09,NaN,NaN,-0.04132825,2.002333E-10,-3.516427E-07,-1.135493E-07,-1.359515E-08,-2.622604E-08
395.257,-0.1264897,-1.583736E-08,NaN,-0.3272859,-1.352243E-07,NaN,0.4630338,5.464706E-09,NaN,-2.153016,1.242951E-05,-0.362334,5.997184E-09,NaN,NaN,-0.04132825,2.002333E-10,-3.516427E-07,-1.135493E-07,-1.359515E-08,-2.622604E-08
395.271,-0.1320992,-1.583643E-08,NaN,-0.3272862,-1.352241E-07,NaN,0.4637039,5.552926E-09,NaN,-2.151713,1.243009E-05,-0.362121,5.898677E-09,NaN,NaN,-0.04091069,2.002333E-10,-3.602482E-07,-1.1355E-07,-1.359515E-08,-2.861022E-08
395.2864,-0.1385283,-1.58355E-08,NaN,-0.3272873,-1.352239E-07,NaN,0.4645,5.641145E-09,NaN,-2.150101,1.243066E-05,-0.361933,5.80081E-09,NaN,NaN,-0.04050162,2.002333E-10,-3.757081E-07,-1.135506E-07,-1.597934E-08,-2.622604E-08
395.3008,-0.1454462,-1.583457E-08,NaN,-0.3272877,-1.352237E-07,NaN,0.4653371,5.729364E-09,NaN,-2.148443,1.243123E-05,-0.3617042,5.703578E-09,NaN,NaN,-0.04010049,2.002333E-10,-3.899387E-07,-1.135513E-07,-1.240306E-08,-2.861022E-08
395.3157,-0.1454462,-1.583457E-08,NaN,-0.3272877,-1.352237E-07,NaN,0.4653371,5.729364E-09,NaN,-2.148443,1.243123E-05,-0.3617042,5.703578E-09,NaN,NaN,-0.04010049,2.002333E-10,-3.899387E-07,-1.135513E-07,-1.240306E-08,-2.861022E-08
395.3295,-0.1526425,-1.583364E-08,NaN,-0.3272875,-1.352235E-07,NaN,0.4661558,5.817583E-09,NaN,-2.146838,1.24318E-05,-0.3614586,5.606978E-09,NaN,NaN,-0.03970714,2.002333E-10,-4.030145E-07,-1.13552E-07,-1.359515E-08,-2.622604E-08
395.3448,-0.1599838,-1.583271E-08,NaN,-0.3272867,-1.352233E-07,NaN,0.4669349,5.905803E-09,NaN,-2.145312,1.243237E-05,-0.3612141,5.511005E-09,NaN,NaN,-0.03932145,2.048899E-10,-4.151217E-07,-1.135526E-07,-1.478725E-08,-2.861022E-08
395.3593,-0.1599838,-1.583271E-08,NaN,-0.3272867,-1.352233E-07,NaN,0.4669349,5.905803E-09,NaN,-2.145312,1.243237E-05,-0.3612141,5.511005E-09,NaN,NaN,-0.03932145,2.048899E-10,-4.151217E-07,-1.135526E-07,-1.478725E-08,-2.861022E-08
395.3731,-0.168114,-1.583178E-08,NaN,-0.3272867,-1.352231E-07,NaN,0.4678393,5.994022E-09,NaN,-2.143481,1.243294E-05,-0.3609915,5.415654E-09,NaN,NaN,-0.0389436,2.095465E-10,-4.335991E-07,-1.135533E-07,-1.121097E-08,-2.622604E-08
395.3894,-0.1767063,-1.583085E-08,NaN,-0.3272861,-1.352229E-07,NaN,0.4687813,6.082241E-09,NaN,-2.141609,1.243351E-05,-0.3607285,5.320923E-09,NaN,NaN,-0.03857309,2.095465E-10,-4.48463E-07,-1.135539E-07,-1.359515E-08,-2.861022E-08
395.4041,-0.1855533,-1.582992E-08,NaN,-0.3272847,-1.352227E-07,NaN,0.4697014,6.17046E-09,NaN,-2.139795,1.243408E-05,-0.3604499,5.226807E-09,NaN,NaN,-0.03820975,2.095465E-10,-4.632152E-07,-1.135546E-07,-1.478724E-08,-2.622604E-08
395.4179,-0.1855533,-1.582992E-08,NaN,-0.3272847,-1.352227E-07,NaN,0.4697014,6.17046E-09,NaN,-2.139795,1.243408E-05,-0.3604499,5.226807E-09,NaN,NaN,-0.03820975,2.095465E-10,-4.632152E-07,-1.135546E-07,-1.478724E-08,-2.622604E-08
395.4316,-0.1952518,-1.582899E-08,NaN,-0.327284,-1.352225E-07,NaN,0.470746,6.258679E-09,NaN,-2.137682,1.243465E-05,-0.3601849,5.133301E-09,NaN,NaN,-0.03785379,2.095465E-10,-4.806123E-07,-1.135552E-07,-1.478724E-08,-2.861022E-08
395.4469,-0.2054453,-1.582806E-08,NaN,-0.3272823,-1.352223E-07,NaN,0.4718198,6.346899E-09,NaN,-2.135543,1.243521E-05,-0.3598793,5.040402E-09,NaN,NaN,-0.03750471,2.142031E-10,-5.000956E-07,-1.135559E-07,-1.836352E-08,-2.622604E-08
395.4613,-0.2159074,-1.582712E-08,NaN,-0.3272795,-1.352221E-07,NaN,0.4728624,6.435118E-09,NaN,-2.133478,1.243578E-05,-0.3595603,4.948107E-09,NaN,NaN,-0.03716239,2.095465E-10,-5.169339E-07,-1.135566E-07,-1.717143E-08,-2.861022E-08
395.4758,-0.2159074,-1.582712E-08,NaN,-0.3272795,-1.352221E-07,NaN,0.4728624,6.435118E-09,NaN,-2.133478,1.243578E-05,-0.3595603,4.948107E-09,NaN,NaN,-0.03716239,2.095465E-10,-5.169339E-07,-1.135566E-07,-1.717143E-08,-2.861022E-08
395.4898,-0.2264946,-1.582619E-08,NaN,-0.3272752,-1.352219E-07,NaN,0.4738543,6.523337E-09,NaN,-2.131514,1.243635E-05,-0.3592452,4.85641E-09,NaN,NaN,-0.03682671,2.142031E-10,-5.304194E-07,-1.135572E-07,-2.074771E-08,-2.622604E-08
395.505,-0.2378445,-1.582526E-08,NaN,-0.327272,-1.352217E-07,NaN,0.4749622,6.611556E-09,NaN,-2.129266,1.243692E-05,-0.3589495,4.765309E-09,NaN,NaN,-0.03649787,2.095465E-10,-5.489713E-07,-1.135579E-07,-1.717143E-08,-2.861022E-08
395.5197,-0.2378445,-1.582526E-08,NaN,-0.327272,-1.352217E-07,NaN,0.4749622,6.611556E-09,NaN,-2.129266,1.243692E-05,-0.3589495,4.765309E-09,NaN,NaN,-0.03649787,2.095465E-10,-5.489713E-07,-1.135579E-07,-1.717143E-08,-2.861022E-08
395.5338,-0.2496266,-1.582433E-08,NaN,-0.3272675,-1.352215E-07,NaN,0.4760966,6.699775E-09,NaN,-2.126996,1.243748E-05,-0.3586159,4.6748E-09,NaN,NaN,-0.03617539,2.142031E-10,-5.653626E-07,-1.135585E-07,-1.597934E-08,-2.622604E-08
395.549,-0.2616311,-1.58234E-08,NaN,-0.3272609,-1.352213E-07,NaN,0.4771993,6.787995E-09,NaN,-2.1248,1.243806E-05,-0.3582701,4.584877E-09,NaN,NaN,-0.03585913,2.095465E-10,-5.800403E-07,-1.135591E-07,-1.478724E-08,-2.861022E-08
395.5638,-0.2737252,-1.582247E-08,NaN,-0.3272525,-1.352212E-07,NaN,0.4782509,6.876214E-09,NaN,-2.122707,1.243862E-05,-0.3579292,4.495539E-09,NaN,NaN,-0.03554903,2.142031E-10,-5.947924E-07,-1.135598E-07,-1.478724E-08,-2.622604E-08
395.5786,-0.2737252,-1.582247E-08,NaN,-0.3272525,-1.352212E-07,NaN,0.4782509,6.876214E-09,NaN,-2.122707,1.243862E-05,-0.3579292,4.495539E-09,NaN,NaN,-0.03554903,2.142031E-10,-5.947924E-07,-1.135598E-07,-1.478724E-08,-2.622604E-08
395.5923,-0.2865532,-1.582154E-08,NaN,-0.3272449,-1.35221E-07,NaN,0.4794186,6.964433E-09,NaN,-2.120332,1.243919E-05,-0.3576043,4.406781E-09,NaN,NaN,-0.03524524,2.095465E-10,-6.137914E-07,-1.135604E-07,-1.717143E-08,-2.861022E-08
395.6092,-0.2997892,-1.582061E-08,NaN,-0.3272358,-1.352208E-07,NaN,0.48061,7.052652E-09,NaN,-2.117938,1.243976E-05,-0.3572424,4.318598E-09,NaN,NaN,-0.0349473,2.142031E-10,-6.320453E-07,-1.135611E-07,-1.836352E-08,-2.622604E-08
395.6221,-0.3132262,-1.581968E-08,NaN,-0.3272245,-1.352206E-07,NaN,0.4817669,7.140871E-09,NaN,-2.115622,1.244033E-05,-0.35687,4.230988E-09,NaN,NaN,-0.03465512,2.095465E-10,-6.453819E-07,-1.135617E-07,-1.955562E-08,-2.861022E-08
395.6368,-0.3132262,-1.581968E-08,NaN,-0.3272245,-1.352206E-07,NaN,0.4817669,7.140871E-09,NaN,-2.115622,1.244033E-05,-0.35687,4.230988E-09,NaN,NaN,-0.03465512,2.095465E-10,-6.453819E-07,-1.135617E-07,-1.955562E-08,-2.861022E-08
395.6509,-0.3274617,-1.581875E-08,NaN,-0.3272136,-1.352204E-07,NaN,0.483039,7.229091E-09,NaN,-2.11303,1.244089E-05,-0.356506,4.143947E-09,NaN,NaN,-0.03436888,2.142031E-10,-6.671376E-07,-1.135624E-07,-1.836352E-08,-2.622604E-08
395.666,-0.3421396,-1.581781E-08,NaN,-0.3272005,-1.352203E-07,NaN,0.4843266,7.31731E-09,NaN,-2.110432,1.244147E-05,-0.3561056,4.057471E-09,NaN,NaN,-0.03408813,2.095465E-10,-6.821877E-07,-1.13563E-07,-1.240306E-08,-2.861022E-08
395.6827,-0.3570344,-1.581688E-08,NaN,-0.3271846,-1.352201E-07,NaN,0.485571,7.405529E-09,NaN,-2.107928,1.244203E-05,-0.3556975,3.971556E-09,NaN,NaN,-0.03381281,2.142031E-10,-6.98877E-07,-1.135637E-07,-1.121097E-08,-2.622604E-08
395.6963,-0.3570344,-1.581688E-08,NaN,-0.3271846,-1.352201E-07,NaN,0.485571,7.405529E-09,NaN,-2.107928,1.244203E-05,-0.3556975,3.971556E-09,NaN,NaN,-0.03381281,2.142031E-10,-6.98877E-07,-1.135637E-07,-1.121097E-08,-2.622604E-08
395.7102,-0.3720029,-1.581595E-08,NaN,-0.3271663,-1.352199E-07,NaN,0.4867545,7.493749E-09,NaN,-2.105544,1.24426E-05,-0.3552984,3.886199E-09,NaN,NaN,-0.03354282,2.188597E-10,-7.137781E-07,-1.135643E-07,-1.836352E-08,-2.861022E-08
395.7244,-0.3876834,-1.581502E-08,NaN,-0.3271486,-1.352198E-07,NaN,0.4880467,7.581968E-09,NaN,-2.102896,1.244316E-05,-0.3549117,3.801397E-09,NaN,NaN,-0.03327832,2.235163E-10,-7.327026E-07,-1.135649E-07,-2.074771E-08,-2.622604E-08
395.739,-0.3876834,-1.581502E-08,NaN,-0.3271486,-1.352198E-07,NaN,0.4880467,7.581968E-09,NaN,-2.102896,1.244316E-05,-0.3549117,3.801397E-09,NaN,NaN,-0.03327832,2.235163E-10,-7.327026E-07,-1.135649E-07,-2.074771E-08,-2.622604E-08
395.7527,-0.403746,-1.581408E-08,NaN,-0.3271289,-1.352196E-07,NaN,0.4893523,7.670187E-09,NaN,-2.100246,1.244372E-05,-0.354492,3.717144E-09,NaN,NaN,-0.03301891,2.328295E-10,-7.489449E-07,-1.135656E-07,-2.074771E-08,-2.861022E-08
395.7683,-0.4199815,-1.581315E-08,NaN,-0.3271067,-1.352194E-07,NaN,0.490615,7.758406E-09,NaN,-2.097688,1.244428E-05,-0.3540665,3.633439E-09,NaN,NaN,-0.0327645,2.374861E-10,-7.63101E-07,-1.135662E-07,-2.074771E-08,-2.622604E-08
395.7828,-0.4362577,-1.581222E-08,NaN,-0.3270822,-1.352193E-07,NaN,0.4918175,7.846626E-09,NaN,-2.09525,1.244485E-05,-0.3536508,3.550277E-09,NaN,NaN,-0.03251502,2.421428E-10,-7.784492E-07,-1.135668E-07,-1.478724E-08,-2.861022E-08
395.7975,-0.4362577,-1.581222E-08,NaN,-0.3270822,-1.352193E-07,NaN,0.4918175,7.846626E-09,NaN,-2.09525,1.244485E-05,-0.3536508,3.550277E-09,NaN,NaN,-0.03251502,2.421428E-10,-7.784492E-07,-1.135668E-07,-1.478724E-08,-2.861022E-08
395.8116,-0.4532195,-1.581129E-08,NaN,-0.3270587,-1.352191E-07,NaN,0.4931294,7.934845E-09,NaN,-2.09255,1.24454E-05,-0.353244,3.467655E-09,NaN,NaN,-0.03227062,2.561126E-10,-7.957345E-07,-1.135675E-07,-8.826779E-09,-2.622604E-08
395.8267,-0.4705415,-1.581036E-08,NaN,-0.3270333,-1.35219E-07,NaN,0.4944525,8.023064E-09,NaN,-2.089849,1.244596E-05,-0.3528056,3.385569E-09,NaN,NaN,-0.0320309,2.607692E-10,-8.109337E-07,-1.135681E-07,-5.2505E-09,-2.861022E-08
395.8414,-0.4880172,-1.580943E-08,NaN,-0.3270054,-1.352188E-07,NaN,0.495731,8.111283E-09,NaN,-2.087243,1.244653E-05,-0.3523633,3.304016E-09,NaN,NaN,-0.0317958,2.607692E-10,-8.253879E-07,-1.135687E-07,-5.2505E-09,-2.622604E-08
395.856,-0.4880172,-1.580943E-08,NaN,-0.3270054,-1.352188E-07,NaN,0.495731,8.111283E-09,NaN,-2.087243,1.244653E-05,-0.3523633,3.304016E-09,NaN,NaN,-0.0317958,2.607692E-10,-8.253879E-07,-1.135687E-07,-5.2505E-09,-2.622604E-08
395.8702,-0.5062447,-1.58085E-08,NaN,-0.3269778,-1.352186E-07,NaN,0.4971175,8.199502E-09,NaN,-2.084378,1.24471E-05,-0.3519233,3.222992E-09,NaN,NaN,-0.03156547,2.654258E-10,-8.425242E-07,-1.135694E-07,-6.442593E-09,-2.861022E-08
395.8853,-0.5248685,-1.580757E-08,NaN,-0.3269476,-1.352185E-07,NaN,0.4985074,8.287722E-09,NaN,-2.081524,1.244766E-05,-0.3514533,3.142494E-09,NaN,NaN,-0.03133954,2.654258E-10,-8.537001E-07,-1.1357E-07,-8.826779E-09,-2.622604E-08
395.9001,-0.5436634,-1.580664E-08,NaN,-0.3269142,-1.352183E-07,NaN,0.4998446,8.375941E-09,NaN,-2.07878,1.244823E-05,-0.3509826,3.062519E-09,NaN,NaN,-0.03111796,2.700824E-10,-8.65323E-07,-1.135706E-07,-1.121096E-08,-2.861022E-08
395.9148,-0.5436634,-1.580664E-08,NaN,-0.3269142,-1.352183E-07,NaN,0.4998446,8.375941E-09,NaN,-2.07878,1.244823E-05,-0.3509826,3.062519E-09,NaN,NaN,-0.03111796,2.700824E-10,-8.65323E-07,-1.135706E-07,-1.121096E-08,-2.861022E-08
395.9287,-0.5624871,-1.580571E-08,NaN,-0.3268784,-1.352182E-07,NaN,0.5011139,8.46416E-09,NaN,-2.076171,1.244878E-05,-0.3505259,2.983063E-09,NaN,NaN,-0.03090066,2.840522E-10,-8.78138E-07,-1.135712E-07,-1.240306E-08,-2.622604E-08
395.9444,-0.5819781,-1.580477E-08,NaN,-0.3268433,-1.35218E-07,NaN,0.5024862,8.552379E-09,NaN,-2.073315,1.244935E-05,-0.3500745,2.904123E-09,NaN,NaN,-0.03068777,2.887088E-10,-8.948273E-07,-1.135719E-07,-7.634686E-09,-2.861022E-08
395.9584,-0.5819781,-1.580477E-08,NaN,-0.3268433,-1.35218E-07,NaN,0.5024862,8.552379E-09,NaN,-2.073315,1.244935E-05,-0.3500745,2.904123E-09,NaN,NaN,-0.03068777,2.887088E-10,-8.948273E-07,-1.135719E-07,-7.634686E-09,-2.861022E-08
395.9745,-0.6018072,-1.580384E-08,NaN,-0.3268059,-1.352179E-07,NaN,0.5038609,8.640598E-09,NaN,-2.070472,1.244991E-05,-0.3495964,2.825695E-09,NaN,NaN,-0.03047896,2.887088E-10,-9.103245E-07,-1.135725E-07,-1.240306E-08,-2.622604E-08
395.9888,-0.6217657,-1.580291E-08,NaN,-0.3267659,-1.352177E-07,NaN,0.5051841,8.728818E-09,NaN,-2.067735,1.245048E-05,-0.3491192,2.747777E-09,NaN,NaN,-0.03027417,2.887088E-10,-9.216494E-07,-1.135732E-07,-1.121096E-08,-2.861022E-08
396.0023,-0.6417218,-1.580198E-08,NaN,-0.3267238,-1.352176E-07,NaN,0.5064408,8.817037E-09,NaN,-2.065133,1.245105E-05,-0.3486569,2.670365E-09,NaN,NaN,-0.03007333,2.887088E-10,-9.314841E-07,-1.135739E-07,-1.001887E-08,-2.622604E-08
396.0171,-0.6417218,-1.580198E-08,NaN,-0.3267238,-1.352176E-07,NaN,0.5064408,8.817037E-09,NaN,-2.065133,1.245105E-05,-0.3486569,2.670365E-09,NaN,NaN,-0.03007333,2.887088E-10,-9.314841E-07,-1.135739E-07,-1.001887E-08,-2.622604E-08
396.0309,-0.662321,-1.580105E-08,NaN,-0.3266827,-1.352174E-07,NaN,0.5078018,8.905256E-09,NaN,-2.062284,1.245162E-05,-0.3481964,2.593455E-09,NaN,NaN,-0.02987657,2.887088E-10,-9.445972E-07,-1.135746E-07,-1.121096E-08,-2.861022E-08
396.0461,-0.6832383,-1.580012E-08,NaN,-0.3266396,-1.352173E-07,NaN,0.5091637,8.993475E-09,NaN,-2.059447,1.245218E-05,-0.3477108,2.517045E-09,NaN,NaN,-0.02968357,2.933654E-10,-9.589023E-07,-1.135753E-07,-1.121096E-08,-2.622604E-08
396.0606,-0.7042679,-1.579919E-08,NaN,-0.326594,-1.352171E-07,NaN,0.5104733,9.081695E-09,NaN,-2.056719,1.245275E-05,-0.3472282,2.441131E-09,NaN,NaN,-0.02949427,2.980221E-10,-9.681411E-07,-1.13576E-07,-1.240306E-08,-2.861022E-08
396.0753,-0.7042679,-1.579919E-08,NaN,-0.326594,-1.352171E-07,NaN,0.5104733,9.081695E-09,NaN,-2.056719,1.245275E-05,-0.3472282,2.441131E-09,NaN,NaN,-0.02949427,2.980221E-10,-9.681411E-07,-1.13576E-07,-1.240306E-08,-2.861022E-08
396.0908,-0.7255009,-1.579826E-08,NaN,-0.3265471,-1.35217E-07,NaN,0.5117674,9.169914E-09,NaN,-2.054011,1.245331E-05,-0.3467558,2.365709E-09,NaN,NaN,-0.02930868,3.026787E-10,-9.761877E-07,-1.135767E-07,-1.240306E-08,-2.622604E-08
396.1046,-0.7467728,-1.579732E-08,NaN,-0.3264986,-1.352169E-07,NaN,0.5130137,9.258133E-09,NaN,-2.051404,1.245387E-05,-0.34629,2.290777E-09,NaN,NaN,-0.02912668,3.073353E-10,-9.845323E-07,-1.135774E-07,-1.121096E-08,-2.861022E-08
396.1193,-0.7467728,-1.579732E-08,NaN,-0.3264986,-1.352169E-07,NaN,0.5130137,9.258133E-09,NaN,-2.051404,1.245387E-05,-0.34629,2.290777E-09,NaN,NaN,-0.02912668,3.073353E-10,-9.845323E-07,-1.135774E-07,-1.121096E-08,-2.861022E-08
396.1332,-0.76798,-1.579639E-08,NaN,-0.3264489,-1.352168E-07,NaN,0.5142,9.346352E-09,NaN,-2.048922,1.245444E-05,-0.3458394,2.216331E-09,NaN,NaN,-0.0289482,3.073353E-10,-9.904928E-07,-1.135781E-07,-1.359515E-08,-2.622604E-08
396.1488,-0.7890577,-1.579546E-08,NaN,-0.3263988,-1.352166E-07,NaN,0.5153264,9.434571E-09,NaN,-2.046565,1.245501E-05,-0.3454068,2.142369E-09,NaN,NaN,-0.02877318,3.119919E-10,-9.940691E-07,-1.135788E-07,-8.826778E-09,-2.861022E-08
396.1635,-0.8099657,-1.579452E-08,NaN,-0.3263489,-1.352165E-07,NaN,0.5163969,9.522791E-09,NaN,-2.044326,1.245557E-05,-0.344992,2.068887E-09,NaN,NaN,-0.02860156,3.166485E-10,-1.000924E-06,-1.135795E-07,-6.442593E-09,-2.622604E-08
396.1783,-0.8099657,-1.579452E-08,NaN,-0.3263489,-1.352165E-07,NaN,0.5163969,9.522791E-09,NaN,-2.044326,1.245557E-05,-0.344992,2.068887E-09,NaN,NaN,-0.02860156,3.166485E-10,-1.000924E-06,-1.135795E-07,-6.442593E-09,-2.622604E-08
396.192,-0.8306795,-1.579359E-08,NaN,-0.3262997,-1.352164E-07,NaN,0.5174164,9.61101E-09,NaN,-2.042197,1.245613E-05,-0.3445937,1.995882E-09,NaN,NaN,-0.02843328,3.213051E-10,-1.0045E-06,-1.135802E-07,-8.826778E-09,-2.861022E-08
396.2073,-0.8511845,-1.579266E-08,NaN,-0.3262517,-1.352163E-07,NaN,0.5183889,9.699229E-09,NaN,-2.04017,1.245669E-05,-0.344211,1.92335E-09,NaN,NaN,-0.02826826,3.352749E-10,-1.00748E-06,-1.135809E-07,-1.121096E-08,-2.622604E-08
396.2221,-0.8714725,-1.579173E-08,NaN,-0.3262052,-1.352165E-07,NaN,0.5193176,9.523307E-09,NaN,-2.03824,1.245726E-05,-0.3438426,2.112429E-09,NaN,NaN,-0.02810646,3.352749E-10,-1.009566E-06,-1.135797E-07,-1.121096E-08,-2.861022E-08
396.2369,-0.8714725,-1.579173E-08,NaN,-0.3262052,-1.352165E-07,NaN,0.5193176,9.523307E-09,NaN,-2.03824,1.245726E-05,-0.3438426,2.112429E-09,NaN,NaN,-0.02810646,3.352749E-10,-1.009566E-06,-1.135797E-07,-1.121096E-08,-2.861022E-08
396.2529,-0.8915392,-1.57908E-08,NaN,-0.3261603,-1.352163E-07,NaN,0.5202053,9.198179E-09,NaN,-2.0364,1.245783E-05,-0.3434879,2.448464E-09,NaN,NaN,-0.02794781,3.352749E-10,-1.012546E-06,-1.13578E-07,-1.359515E-08,-2.622604E-08
396.2671,-0.9113827,-1.578987E-08,NaN,-0.3261172,-1.352159E-07,NaN,0.5210539,8.828577E-09,NaN,-2.034647,1.24584E-05,-0.3431461,2.827178E-09,NaN,NaN,-0.02779224,3.213051E-10,-1.013738E-06,-1.135761E-07,-1.359515E-08,-2.861022E-08
396.2808,-0.931003,-1.578894E-08,NaN,-0.3260758,-1.352154E-07,NaN,0.5218652,8.438288E-09,NaN,-2.032977,1.245897E-05,-0.342817,3.225141E-09,NaN,NaN,-0.02763971,3.119919E-10,-1.015229E-06,-1.135742E-07,-1.121096E-08,-2.622604E-08
396.2956,-0.931003,-1.578894E-08,NaN,-0.3260758,-1.352154E-07,NaN,0.5218652,8.438288E-09,NaN,-2.032977,1.245897E-05,-0.342817,3.225141E-09,NaN,NaN,-0.02763971,3.119919E-10,-1.015229E-06,-1.135742E-07,-1.121096E-08,-2.622604E-08
396.3093,-0.9504009,-1.578801E-08,NaN,-0.3260362,-1.352148E-07,NaN,0.5226408,8.039245E-09,NaN,-2.031388,1.245954E-05,-0.3424999,3.630711E-09,NaN,NaN,-0.02749014,2.980221E-10,-1.012248E-06,-1.135721E-07,-1.597934E-08,-2.861022E-08
396.3243,-0.9695779,-1.578707E-08,NaN,-0.3259985,-1.352141E-07,NaN,0.5233817,7.638867E-09,NaN,-2.029876,1.24601E-05,-0.3421947,4.036695E-09,NaN,NaN,-0.02734348,2.887088E-10,-1.009268E-06,-1.135701E-07,-1.597934E-08,-2.622604E-08
396.3388,-0.9695779,-1.578707E-08,NaN,-0.3259985,-1.352141E-07,NaN,0.5233817,7.638867E-09,NaN,-2.029876,1.24601E-05,-0.3421947,4.036695E-09,NaN,NaN,-0.02734348,2.887088E-10,-1.009268E-06,-1.135701E-07,-1.597934E-08,-2.622604E-08
396.3528,-0.9885358,-1.578614E-08,NaN,-0.3259626,-1.352134E-07,NaN,0.5240892,7.241578E-09,NaN,-2.028441,1.246066E-05,-0.3419011,4.438857E-09,NaN,NaN,-0.02719968,2.793956E-10,-1.008076E-06,-1.13568E-07,-1.597934E-08,-2.861022E-08
396.3684,-1.007277,-1.578521E-08,NaN,-0.3259284,-1.352127E-07,NaN,0.5247644,6.850266E-09,NaN,-2.02708,1.246121E-05,-0.3416187,4.834453E-09,NaN,NaN,-0.02705868,2.74739E-10,-1.005096E-06,-1.13566E-07,-1.597934E-08,-2.622604E-08
396.383,-1.025802,-1.578428E-08,NaN,-0.325896,-1.35212E-07,NaN,0.5254081,6.464916E-09,NaN,-2.025791,1.246176E-05,-0.3413474,5.223618E-09,NaN,NaN,-0.02692042,2.654258E-10,-1.003904E-06,-1.135639E-07,-1.359515E-08,-2.861022E-08
396.3976,-1.025802,-1.578428E-08,NaN,-0.325896,-1.35212E-07,NaN,0.5254081,6.464916E-09,NaN,-2.025791,1.246176E-05,-0.3413474,5.223618E-09,NaN,NaN,-0.02692042,2.654258E-10,-1.003904E-06,-1.135639E-07,-1.359515E-08,-2.861022E-08
396.4116,-1.044116,-1.578335E-08,NaN,-0.3258652,-1.352113E-07,NaN,0.5260215,6.08832E-09,NaN,-2.024572,1.246232E-05,-0.3410869,5.603651E-09,NaN,NaN,-0.02678486,2.561126E-10,-1.000328E-06,-1.135619E-07,-1.121096E-08,-2.622604E-08
396.4269,-1.062219,-1.578242E-08,NaN,-0.3258361,-1.352106E-07,NaN,0.5266052,5.718961E-09,NaN,-2.023422,1.246287E-05,-0.3408369,5.976147E-09,NaN,NaN,-0.02665195,2.467994E-10,-9.961552E-07,-1.135598E-07,-1.359515E-08,-2.861022E-08
396.4414,-1.080114,-1.578149E-08,NaN,-0.3258086,-1.352102E-07,NaN,0.5271603,5.339602E-09,NaN,-2.022339,1.246343E-05,-0.3405974,6.3584E-09,NaN,NaN,-0.02652162,2.374861E-10,-9.93175E-07,-1.135569E-07,-8.826778E-09,-2.622604E-08
396.4561,-1.080114,-1.578149E-08,NaN,-0.3258086,-1.352102E-07,NaN,0.5271603,5.339602E-09,NaN,-2.022339,1.246343E-05,-0.3405974,6.3584E-09,NaN,NaN,-0.02652162,2.374861E-10,-9.93175E-07,-1.135569E-07,-8.826778E-09,-2.622604E-08
396.47,-1.097804,-1.578056E-08,NaN,-0.3257827,-1.352099E-07,NaN,0.5276874,4.952137E-09,NaN,-2.021321,1.246399E-05,-0.340368,6.748564E-09,NaN,NaN,-0.02639383,2.328295E-10,-9.901948E-07,-1.135539E-07,-6.442593E-09,-2.861022E-08
396.4854,-1.11529,-1.577964E-08,NaN,-0.3257582,-1.352095E-07,NaN,0.5281875,4.566628E-09,NaN,-2.020366,1.246455E-05,-0.3401486,7.136619E-09,NaN,NaN,-0.02626854,2.235163E-10,-9.854265E-07,-1.135509E-07,-1.121096E-08,-2.622604E-08
396.4998,-1.11529,-1.577964E-08,NaN,-0.3257582,-1.352095E-07,NaN,0.5281875,4.566628E-09,NaN,-2.020366,1.246455E-05,-0.3401486,7.136619E-09,NaN,NaN,-0.02626854,2.235163E-10,-9.854265E-07,-1.135509E-07,-1.121096E-08,-2.622604E-08
396.5138,-1.132576,-1.577871E-08,NaN,-0.3257352,-1.352091E-07,NaN,0.5286611,4.187291E-09,NaN,-2.019474,1.246512E-05,-0.3399389,7.518378E-09,NaN,NaN,-0.02614569,2.142031E-10,-9.824463E-07,-1.135479E-07,-4.058407E-09,-2.861022E-08
396.5293,-1.149663,-1.577778E-08,NaN,-0.3257136,-1.352086E-07,NaN,0.5291092,3.815433E-09,NaN,-2.018643,1.246568E-05,-0.3397387,7.892559E-09,NaN,NaN,-0.02602523,2.095465E-10,-9.746977E-07,-1.13545E-07,7.099641E-10,-2.622604E-08
396.5458,-1.166554,-1.577685E-08,NaN,-0.3256934,-1.352082E-07,NaN,0.5295325,3.450924E-09,NaN,-2.01787,1.246623E-05,-0.3395479,8.259311E-09,NaN,NaN,-0.02590713,2.048899E-10,-9.693333E-07,-1.13542E-07,-1.674222E-09,-2.861022E-08
396.5592,-1.166554,-1.577685E-08,NaN,-0.3256934,-1.352082E-07,NaN,0.5295325,3.450924E-09,NaN,-2.01787,1.246623E-05,-0.3395479,8.259311E-09,NaN,NaN,-0.02590713,2.048899E-10,-9.693333E-07,-1.13542E-07,-1.674222E-09,-2.861022E-08
396.5733,-1.18325,-1.577592E-08,NaN,-0.3256745,-1.352078E-07,NaN,0.5299315,3.095048E-09,NaN,-2.017156,1.24668E-05,-0.3393662,8.617369E-09,NaN,NaN,-0.02579132,1.955766E-10,-9.633728E-07,-1.13539E-07,7.099641E-10,-2.622604E-08
396.5873,-1.199755,-1.577499E-08,NaN,-0.3256569,-1.352073E-07,NaN,0.5303071,2.747644E-09,NaN,-2.016498,1.246736E-05,-0.3391934,8.966905E-09,NaN,NaN,-0.02567778,1.9092E-10,-9.580084E-07,-1.13536E-07,7.099641E-10,-2.861022E-08
396.602,-1.21607,-1.577406E-08,NaN,-0.3256406,-1.352069E-07,NaN,0.5306599,2.408554E-09,NaN,-2.015895,1.246791E-05,-0.3390294,9.308084E-09,NaN,NaN,-0.02556646,1.9092E-10,-9.520479E-07,-1.135331E-07,-8.826779E-09,-2.622604E-08
396.6164,-1.21607,-1.577406E-08,NaN,-0.3256406,-1.352069E-07,NaN,0.5306599,2.408554E-09,NaN,-2.015895,1.246791E-05,-0.3390294,9.308084E-09,NaN,NaN,-0.02556646,1.9092E-10,-9.520479E-07,-1.135331E-07,-8.826779E-09,-2.622604E-08
396.6304,-1.232197,-1.577313E-08,NaN,-0.3256254,-1.352064E-07,NaN,0.5309905,2.079038E-09,NaN,-2.015345,1.246848E-05,-0.3388739,9.639659E-09,NaN,NaN,-0.02545731,1.862634E-10,-9.442993E-07,-1.135301E-07,-8.826779E-09,-2.861022E-08
396.6457,-1.248139,-1.57722E-08,NaN,-0.3256115,-1.35206E-07,NaN,0.5312995,1.757499E-09,NaN,-2.014848,1.246905E-05,-0.3387267,9.963231E-09,NaN,NaN,-0.02535028,1.816068E-10,-9.365507E-07,-1.135272E-07,-8.826779E-09,-2.622604E-08
396.6602,-1.263898,-1.577127E-08,NaN,-0.3255987,-1.352056E-07,NaN,0.5315876,1.4452E-09,NaN,-2.014402,1.246962E-05,-0.3385877,1.027754E-08,NaN,NaN,-0.02524535,1.769502E-10,-9.27014E-07,-1.135242E-07,-8.826779E-09,-2.861022E-08
396.6747,-1.263898,-1.577127E-08,NaN,-0.3255987,-1.352056E-07,NaN,0.5315876,1.4452E-09,NaN,-2.014402,1.246962E-05,-0.3385877,1.027754E-08,NaN,NaN,-0.02524535,1.769502E-10,-9.27014E-07,-1.135242E-07,-8.826779E-09,-2.861022E-08
396.6887,-1.279255,-1.577035E-08,NaN,-0.3255862,-1.352051E-07,NaN,0.5318044,1.081371E-09,NaN,-2.014119,1.247019E-05,-0.3384666,1.064337E-08,NaN,NaN,-0.02514244,1.722936E-10,-9.186693E-07,-1.135213E-07,-4.058408E-09,-2.622604E-08
396.7038,-1.294295,-1.576942E-08,NaN,-0.3255751,-1.352047E-07,NaN,0.5319857,7.248014E-10,NaN,-2.013918,1.247076E-05,-0.3383637,1.100192E-08,NaN,NaN,-0.02504155,1.67637E-10,-9.091326E-07,-1.135183E-07,-4.058408E-09,-2.861022E-08
396.7187,-1.294295,-1.576942E-08,NaN,-0.3255751,-1.352047E-07,NaN,0.5319857,7.248014E-10,NaN,-2.013918,1.247076E-05,-0.3383637,1.100192E-08,NaN,NaN,-0.02504155,1.67637E-10,-9.091326E-07,-1.135183E-07,-4.058408E-09,-2.861022E-08
396.7325,-1.309072,-1.576849E-08,NaN,-0.3255656,-1.352042E-07,NaN,0.5321484,3.753446E-10,NaN,-2.013766,1.247133E-05,-0.3382707,1.135335E-08,NaN,NaN,-0.02494264,1.629804E-10,-9.001919E-07,-1.135153E-07,-1.121096E-08,-2.622604E-08
396.748,-1.322895,-1.576756E-08,NaN,-0.3255554,-1.352038E-07,NaN,0.53213,3.427328E-11,NaN,-2.014026,1.247189E-05,-0.3382168,1.169638E-08,NaN,NaN,-0.02484557,1.583238E-10,-8.900591E-07,-1.135123E-07,-8.826779E-09,-2.861022E-08
396.7625,-1.336059,-1.576663E-08,NaN,-0.3255474,-1.352034E-07,NaN,0.532048,-2.985762E-10,NaN,-2.014429,1.247246E-05,-0.3382026,1.203118E-08,NaN,NaN,-0.02475044,1.536671E-10,-8.781382E-07,-1.135093E-07,-1.359515E-08,-2.622604E-08
396.7771,-1.336059,-1.576663E-08,NaN,-0.3255474,-1.352034E-07,NaN,0.532048,-2.985762E-10,NaN,-2.014429,1.247246E-05,-0.3382026,1.203118E-08,NaN,NaN,-0.02475044,1.536671E-10,-8.781382E-07,-1.135093E-07,-1.359515E-08,-2.622604E-08
396.7912,-1.348754,-1.57657E-08,NaN,-0.3255424,-1.352029E-07,NaN,0.5319555,-6.219522E-10,NaN,-2.014869,1.247303E-05,-0.338201,1.235651E-08,NaN,NaN,-0.0246572,1.490105E-10,-8.656212E-07,-1.135064E-07,-1.121096E-08,-2.861022E-08
396.8062,-1.361102,-1.576477E-08,NaN,-0.3255401,-1.352025E-07,NaN,0.5318677,-9.374513E-10,NaN,-2.015313,1.24736E-05,-0.3382014,1.267396E-08,NaN,NaN,-0.02456578,1.396973E-10,-8.560845E-07,-1.135034E-07,-6.442593E-09,-2.622604E-08
396.8206,-1.37245,-1.576384E-08,NaN,-0.325538,-1.35202E-07,NaN,0.5316181,-1.245227E-09,NaN,-2.016129,1.247417E-05,-0.3382335,1.298367E-08,NaN,NaN,-0.02447606,1.350407E-10,-8.423754E-07,-1.135005E-07,-1.674222E-09,-2.861022E-08
396.8351,-1.37245,-1.576384E-08,NaN,-0.325538,-1.35202E-07,NaN,0.5316181,-1.245227E-09,NaN,-2.016129,1.247417E-05,-0.3382335,1.298367E-08,NaN,NaN,-0.02447606,1.350407E-10,-8.423754E-07,-1.135005E-07,-1.674222E-09,-2.861022E-08
396.8523,-1.383124,-1.576291E-08,NaN,-0.3255373,-1.352016E-07,NaN,0.5313203,-1.544017E-09,NaN,-2.017053,1.247474E-05,-0.3382991,1.32844E-08,NaN,NaN,-0.02438814,1.350407E-10,-8.298584E-07,-1.134975E-07,-4.058407E-09,-2.622604E-08
396.8654,-1.393327,-1.576198E-08,NaN,-0.325538,-1.352012E-07,NaN,0.5310245,-1.835411E-09,NaN,-2.017987,1.24753E-05,-0.3383723,1.357773E-08,NaN,NaN,-0.02430196,1.303841E-10,-8.167454E-07,-1.134946E-07,-1.674222E-09,-2.861022E-08
396.8801,-1.403193,-1.576105E-08,NaN,-0.3255396,-1.352007E-07,NaN,0.5307435,-2.118138E-09,NaN,-2.0189,1.247587E-05,-0.3384432,1.38624E-08,NaN,NaN,-0.02421747,1.303841E-10,-8.042284E-07,-1.134917E-07,-1.121096E-08,-2.622604E-08
396.8933,-1.403193,-1.576105E-08,NaN,-0.3255396,-1.352007E-07,NaN,0.5307435,-2.118138E-09,NaN,-2.0189,1.247587E-05,-0.3384432,1.38624E-08,NaN,NaN,-0.02421747,1.303841E-10,-8.042284E-07,-1.134917E-07,-1.121096E-08,-2.622604E-08
396.9071,-1.412077,-1.576013E-08,NaN,-0.3255407,-1.352003E-07,NaN,0.5303088,-2.393786E-09,NaN,-2.020164,1.247644E-05,-0.3385421,1.413998E-08,NaN,NaN,-0.02413453,1.257275E-10,-7.893273E-07,-1.134888E-07,-1.359515E-08,-2.861022E-08
396.9223,-1.420306,-1.57592E-08,NaN,-0.3255427,-1.351998E-07,NaN,0.5298329,-2.661076E-09,NaN,-2.021521,1.2477E-05,-0.3386723,1.44092E-08,NaN,NaN,-0.02405327,1.257275E-10,-7.768103E-07,-1.134859E-07,-8.826778E-09,-2.622604E-08
396.9367,-1.420306,-1.57592E-08,NaN,-0.3255427,-1.351998E-07,NaN,0.5298329,-2.661076E-09,NaN,-2.021521,1.2477E-05,-0.3386723,1.44092E-08,NaN,NaN,-0.02405327,1.257275E-10,-7.768103E-07,-1.134859E-07,-8.826778E-09,-2.622604E-08
396.9506,-1.428089,-1.575827E-08,NaN,-0.3255458,-1.351994E-07,NaN,0.5293653,-2.921588E-09,NaN,-2.022872,1.247757E-05,-0.3388079,1.467165E-08,NaN,NaN,-0.02397361,1.210709E-10,-7.625052E-07,-1.134831E-07,-6.442593E-09,-2.861022E-08
396.9659,-1.43483,-1.575734E-08,NaN,-0.3255484,-1.35199E-07,NaN,0.5287501,-3.174038E-09,NaN,-2.024563,1.247814E-05,-0.3389703,1.492603E-08,NaN,NaN,-0.02389542,1.164143E-10,-7.452198E-07,-1.134802E-07,-1.121096E-08,-2.622604E-08
396.9804,-1.440888,-1.575641E-08,NaN,-0.3255526,-1.351985E-07,NaN,0.5281026,-3.420003E-09,NaN,-2.026327,1.24787E-05,-0.339162,1.517393E-08,NaN,NaN,-0.02381881,1.210709E-10,-7.303187E-07,-1.134773E-07,-1.121096E-08,-2.861022E-08
396.9948,-1.440888,-1.575641E-08,NaN,-0.3255526,-1.351985E-07,NaN,0.5281026,-3.420003E-09,NaN,-2.026327,1.24787E-05,-0.339162,1.517393E-08,NaN,NaN,-0.02381881,1.210709E-10,-7.303187E-07,-1.134773E-07,-1.121096E-08,-2.861022E-08
397.0086,-1.446491,-1.575548E-08,NaN,-0.3255591,-1.351981E-07,NaN,0.5274726,-3.658195E-09,NaN,-2.028065,1.247926E-05,-0.3393565,1.541406E-08,NaN,NaN,-0.02374371,1.164143E-10,-7.166096E-07,-1.134745E-07,-1.121096E-08,-2.622604E-08
397.0238,-1.451783,-1.575455E-08,NaN,-0.325568,-1.351976E-07,NaN,0.5268716,-3.890175E-09,NaN,-2.02975,1.247982E-05,-0.3395441,1.564797E-08,NaN,NaN,-0.02367009,1.210709E-10,-7.034966E-07,-1.134716E-07,-1.597934E-08,-2.861022E-08
397.0397,-1.451783,-1.575455E-08,NaN,-0.325568,-1.351976E-07,NaN,0.5268716,-3.890175E-09,NaN,-2.02975,1.247982E-05,-0.3395441,1.564797E-08,NaN,NaN,-0.02367009,1.210709E-10,-7.034966E-07,-1.134716E-07,-1.597934E-08,-2.861022E-08
397.0522,-1.456131,-1.575362E-08,NaN,-0.3255763,-1.351972E-07,NaN,0.5261289,-4.114658E-09,NaN,-2.031756,1.248039E-05,-0.3397521,1.587438E-08,NaN,NaN,-0.02359781,1.164143E-10,-6.879994E-07,-1.134688E-07,-8.826778E-09,-2.622604E-08
397.0675,-1.459866,-1.575269E-08,NaN,-0.3255858,-1.351968E-07,NaN,0.5253552,-4.3332E-09,NaN,-2.033827,1.248095E-05,-0.3399884,1.609486E-08,NaN,NaN,-0.02352699,1.210709E-10,-6.725022E-07,-1.13466E-07,-1.121096E-08,-2.861022E-08
397.0821,-1.4632,-1.575176E-08,NaN,-0.3255968,-1.351963E-07,NaN,0.5245997,-4.544503E-09,NaN,-2.035866,1.248152E-05,-0.3402273,1.630809E-08,NaN,NaN,-0.02345757,1.164143E-10,-6.540247E-07,-1.134632E-07,-1.121096E-08,-2.622604E-08
397.0965,-1.4632,-1.575176E-08,NaN,-0.3255968,-1.351963E-07,NaN,0.5245997,-4.544503E-09,NaN,-2.035866,1.248152E-05,-0.3402273,1.630809E-08,NaN,NaN,-0.02345757,1.164143E-10,-6.540247E-07,-1.134632E-07,-1.121096E-08,-2.622604E-08
397.1107,-1.46554,-1.575084E-08,NaN,-0.3256068,-1.351959E-07,NaN,0.5237054,-4.750123E-09,NaN,-2.038222,1.248208E-05,-0.3404862,1.651564E-08,NaN,NaN,-0.0233894,1.210709E-10,-6.367393E-07,-1.134604E-07,-6.442591E-09,-2.861022E-08
397.1258,-1.467244,-1.574991E-08,NaN,-0.3256173,-1.351955E-07,NaN,0.5227866,-4.950174E-09,NaN,-2.040628,1.248264E-05,-0.3407723,1.671762E-08,NaN,NaN,-0.02332261,1.164143E-10,-6.188579E-07,-1.134576E-07,7.099659E-10,-2.622604E-08
397.1404,-1.468541,-1.574898E-08,NaN,-0.3256286,-1.35195E-07,NaN,0.5218931,-5.143352E-09,NaN,-2.042986,1.24832E-05,-0.3410588,1.691273E-08,NaN,NaN,-0.02325715,1.210709E-10,-6.009765E-07,-1.134548E-07,3.094152E-09,-2.861022E-08
397.1547,-1.468541,-1.574898E-08,NaN,-0.3256286,-1.35195E-07,NaN,0.5218931,-5.143352E-09,NaN,-2.042986,1.24832E-05,-0.3410588,1.691273E-08,NaN,NaN,-0.02325715,1.210709E-10,-6.009765E-07,-1.134548E-07,3.094152E-09,-2.861022E-08
397.1684,-1.469576,-1.574805E-08,NaN,-0.3256408,-1.351946E-07,NaN,0.521037,-5.319367E-09,NaN,-2.045269,1.248377E-05,-0.3413355,1.709068E-08,NaN,NaN,-0.02319298,1.117577E-10,-5.872675E-07,-1.134521E-07,3.094152E-09,-2.622604E-08
397.1835,-1.469715,-1.574712E-08,NaN,-0.3256512,-1.351942E-07,NaN,0.5200464,-5.490394E-09,NaN,-2.047853,1.248434E-05,-0.3416255,1.726363E-08,NaN,NaN,-0.02312994,1.024444E-10,-5.67598E-07,-1.134493E-07,7.099659E-10,-2.861022E-08
397.2001,-1.46929,-1.574618E-08,NaN,-0.3256612,-1.351938E-07,NaN,0.5190307,-5.656528E-09,NaN,-2.050481,1.24849E-05,-0.3419427,1.74317E-08,NaN,NaN,-0.02306818,9.31312E-11,-5.503126E-07,-1.134466E-07,7.099659E-10,-2.622604E-08
397.2139,-1.46929,-1.574618E-08,NaN,-0.3256612,-1.351938E-07,NaN,0.5190307,-5.656528E-09,NaN,-2.050481,1.24849E-05,-0.3419427,1.74317E-08,NaN,NaN,-0.02306818,9.31312E-11,-5.503126E-07,-1.134466E-07,7.099659E-10,-2.622604E-08
397.2275,-1.468512,-1.574525E-08,NaN,-0.325671,-1.351933E-07,NaN,0.5180399,-5.816453E-09,NaN,-2.053058,1.248546E-05,-0.3422607,1.759355E-08,NaN,NaN,-0.02300765,8.381798E-11,-5.306431E-07,-1.134438E-07,7.099659E-10,-2.861022E-08
397.2416,-1.467515,-1.574432E-08,NaN,-0.3256809,-1.351929E-07,NaN,0.5170866,-5.971703E-09,NaN,-2.055556,1.248602E-05,-0.3425689,1.775073E-08,NaN,NaN,-0.02294831,7.450476E-11,-5.133577E-07,-1.134411E-07,3.094152E-09,-2.622604E-08
397.256,-1.467515,-1.574432E-08,NaN,-0.3256809,-1.351929E-07,NaN,0.5170866,-5.971703E-09,NaN,-2.055556,1.248602E-05,-0.3425689,1.775073E-08,NaN,NaN,-0.02294831,7.450476E-11,-5.133577E-07,-1.134411E-07,3.094152E-09,-2.622604E-08
397.27,-1.465657,-1.574339E-08,NaN,-0.3256886,-1.351925E-07,NaN,0.5159997,-6.120957E-09,NaN,-2.058353,1.248658E-05,-0.3428873,1.790191E-08,NaN,NaN,-0.02288999,6.519153E-11,-4.919001E-07,-1.134384E-07,7.862523E-09,-2.861022E-08
397.2849,-1.463265,-1.574246E-08,NaN,-0.3256949,-1.351921E-07,NaN,0.5148874,-6.265749E-09,NaN,-2.061189,1.248714E-05,-0.3432333,1.804863E-08,NaN,NaN,-0.02283286,5.587831E-11,-4.728266E-07,-1.134357E-07,7.862523E-09,-2.622604E-08
397.2995,-1.463265,-1.574246E-08,NaN,-0.3256949,-1.351921E-07,NaN,0.5148874,-6.265749E-09,NaN,-2.061189,1.248714E-05,-0.3432333,1.804863E-08,NaN,NaN,-0.02283286,5.587831E-11,-4.728266E-07,-1.134357E-07,7.862523E-09,-2.622604E-08
397.3135,-1.460546,-1.574153E-08,NaN,-0.3257006,-1.351916E-07,NaN,0.5138013,-6.406162E-09,NaN,-2.063968,1.248769E-05,-0.3435804,1.819097E-08,NaN,NaN,-0.02277687,5.587831E-11,-4.549452E-07,-1.13433E-07,7.862523E-09,-2.861022E-08
397.3289,-1.456905,-1.57406E-08,NaN,-0.3257034,-1.351912E-07,NaN,0.5125852,-6.540871E-09,NaN,-2.067039,1.248825E-05,-0.3439364,1.832761E-08,NaN,NaN,-0.02272182,4.656509E-11,-4.334875E-07,-1.134303E-07,1.263089E-08,-2.622604E-08
397.3431,-1.4527,-1.573967E-08,NaN,-0.3257049,-1.351908E-07,NaN,0.5113499,-6.671399E-09,NaN,-2.070136,1.24888E-05,-0.3443193,1.846007E-08,NaN,NaN,-0.0226679,4.656509E-11,-4.126259E-07,-1.134276E-07,1.024671E-08,-2.861022E-08
397.3576,-1.4527,-1.573967E-08,NaN,-0.3257049,-1.351908E-07,NaN,0.5113499,-6.671399E-09,NaN,-2.070136,1.24888E-05,-0.3443193,1.846007E-08,NaN,NaN,-0.0226679,4.656509E-11,-4.126259E-07,-1.134276E-07,1.024671E-08,-2.861022E-08
397.3715,-1.448157,-1.573874E-08,NaN,-0.3257058,-1.351903E-07,NaN,0.5101478,-6.796422E-09,NaN,-2.07316,1.248935E-05,-0.3447017,1.858702E-08,NaN,NaN,-0.02261506,3.725186E-11,-3.911682E-07,-1.13425E-07,1.024671E-08,-2.622604E-08
397.3866,-1.44342,-1.573781E-08,NaN,-0.3257066,-1.351899E-07,NaN,0.508992,-6.917459E-09,NaN,-2.076084,1.24899E-05,-0.3450716,1.870999E-08,NaN,NaN,-0.02256326,2.793864E-11,-3.703066E-07,-1.134223E-07,1.024671E-08,-2.861022E-08
397.4013,-1.437854,-1.573688E-08,NaN,-0.325706,-1.351895E-07,NaN,0.5077103,-7.034583E-09,NaN,-2.079288,1.249046E-05,-0.3454427,1.882904E-08,NaN,NaN,-0.0225123,1.862541E-11,-3.458687E-07,-1.134197E-07,7.862523E-09,-2.622604E-08
397.4157,-1.437854,-1.573688E-08,NaN,-0.325706,-1.351895E-07,NaN,0.5077103,-7.034583E-09,NaN,-2.079288,1.249046E-05,-0.3454427,1.882904E-08,NaN,NaN,-0.0225123,1.862541E-11,-3.458687E-07,-1.134197E-07,7.862523E-09,-2.622604E-08
397.4297,-1.431788,-1.573595E-08,NaN,-0.3257043,-1.351891E-07,NaN,0.5064074,-7.146459E-09,NaN,-2.082512,1.249101E-05,-0.3458406,1.894284E-08,NaN,NaN,-0.02246238,9.312185E-12,-3.220268E-07,-1.13417E-07,7.862523E-09,-2.861022E-08
397.4449,-1.425434,-1.573502E-08,NaN,-0.325702,-1.351886E-07,NaN,0.505136,-7.254603E-09,NaN,-2.085662,1.249157E-05,-0.346239,1.905292E-08,NaN,NaN,-0.02241347,-1.040834E-15,-2.98185E-07,-1.134144E-07,5.478337E-09,-2.622604E-08
397.4593,-1.425434,-1.573502E-08,NaN,-0.325702,-1.351886E-07,NaN,0.505136,-7.254603E-09,NaN,-2.085662,1.249157E-05,-0.346239,1.905292E-08,NaN,NaN,-0.02241347,-1.040834E-15,-2.98185E-07,-1.134144E-07,5.478337E-09,-2.622604E-08
397.4734,-1.418197,-1.573409E-08,NaN,-0.3256967,-1.351882E-07,NaN,0.5037402,-7.35909E-09,NaN,-2.08909,1.249212E-05,-0.3466378,1.915933E-08,NaN,NaN,-0.02236534,-9.314266E-12,-2.713629E-07,-1.134118E-07,1.024671E-08,-2.861022E-08
397.4883,-1.410435,-1.573316E-08,NaN,-0.3256893,-1.351878E-07,NaN,0.5023276,-7.458577E-09,NaN,-2.092527,1.249267E-05,-0.3470635,1.926075E-08,NaN,NaN,-0.02231819,-1.397088E-11,-2.46925E-07,-1.134092E-07,1.501508E-08,-2.622604E-08
397.5029,-1.402374,-1.573224E-08,NaN,-0.3256802,-1.351874E-07,NaN,0.5009524,-7.554575E-09,NaN,-2.095876,1.249322E-05,-0.3474885,1.935867E-08,NaN,NaN,-0.02227199,-2.32841E-11,-2.230831E-07,-1.134066E-07,1.501508E-08,-2.861022E-08
397.5186,-1.402374,-1.573224E-08,NaN,-0.3256802,-1.351874E-07,NaN,0.5009524,-7.554575E-09,NaN,-2.095876,1.249322E-05,-0.3474885,1.935867E-08,NaN,NaN,-0.02227199,-2.32841E-11,-2.230831E-07,-1.134066E-07,1.501508E-08,-2.861022E-08
397.5344,-1.394161,-1.573131E-08,NaN,-0.3256701,-1.35187E-07,NaN,0.4996283,-7.647154E-09,NaN,-2.099111,1.249377E-05,-0.3478999,1.945318E-08,NaN,NaN,-0.02222671,-2.794072E-11,-2.016255E-07,-1.13404E-07,1.501508E-08,-2.622604E-08
397.5485,-1.385156,-1.573038E-08,NaN,-0.3256569,-1.351866E-07,NaN,0.4981839,-7.734966E-09,NaN,-2.102612,1.249433E-05,-0.3483025,1.954292E-08,NaN,NaN,-0.0221821,-3.725394E-11,-1.783797E-07,-1.134014E-07,1.263089E-08,-2.861022E-08
397.5617,-1.375692,-1.572945E-08,NaN,-0.3256412,-1.351861E-07,NaN,0.4967196,-7.819519E-09,NaN,-2.106121,1.249487E-05,-0.3487323,1.962941E-08,NaN,NaN,-0.02213841,-4.191055E-11,-1.533457E-07,-1.133988E-07,1.501508E-08,-2.622604E-08
397.5753,-1.375692,-1.572945E-08,NaN,-0.3256412,-1.351861E-07,NaN,0.4967196,-7.819519E-09,NaN,-2.106121,1.249487E-05,-0.3487323,1.962941E-08,NaN,NaN,-0.02213841,-4.191055E-11,-1.533457E-07,-1.133988E-07,1.501508E-08,-2.622604E-08
397.589,-1.365979,-1.572852E-08,NaN,-0.3256238,-1.351857E-07,NaN,0.4952897,-7.900876E-09,NaN,-2.109543,1.249543E-05,-0.349163,1.971269E-08,NaN,NaN,-0.0220956,-5.122378E-11,-1.271196E-07,-1.133962E-07,1.739926E-08,-2.861022E-08
397.6041,-1.35615,-1.572759E-08,NaN,-0.3256052,-1.351853E-07,NaN,0.4939098,-7.97769E-09,NaN,-2.11285,1.249598E-05,-0.3495811,1.979143E-08,NaN,NaN,-0.02205364,-5.588039E-11,-1.026817E-07,-1.133937E-07,1.263089E-08,-2.622604E-08
397.6187,-1.35615,-1.572759E-08,NaN,-0.3256052,-1.351853E-07,NaN,0.4939098,-7.97769E-09,NaN,-2.11285,1.249598E-05,-0.3495811,1.979143E-08,NaN,NaN,-0.02205364,-5.588039E-11,-1.026817E-07,-1.133937E-07,1.263089E-08,-2.622604E-08
397.6324,-1.34556,-1.572666E-08,NaN,-0.3255835,-1.351849E-07,NaN,0.4924096,-8.05146E-09,NaN,-2.116423,1.249653E-05,-0.349986,1.986713E-08,NaN,NaN,-0.02201227,-6.053701E-11,-7.526361E-08,-1.133911E-07,1.739926E-08,-2.861022E-08
397.6476,-1.334536,-1.572573E-08,NaN,-0.3255592,-1.351845E-07,NaN,0.4908875,-8.122247E-09,NaN,-2.120003,1.249707E-05,-0.3504193,1.993985E-08,NaN,NaN,-0.02197175,-6.053701E-11,-4.844152E-08,-1.133886E-07,2.216764E-08,-2.622604E-08
397.6621,-1.323286,-1.57248E-08,NaN,-0.325533,-1.351841E-07,NaN,0.4893996,-8.188697E-09,NaN,-2.123492,1.249762E-05,-0.3508547,2.000822E-08,NaN,NaN,-0.02193205,-6.519362E-11,-2.221548E-08,-1.133861E-07,2.693601E-08,-2.861022E-08
397.6765,-1.323286,-1.57248E-08,NaN,-0.325533,-1.351841E-07,NaN,0.4893996,-8.188697E-09,NaN,-2.123492,1.249762E-05,-0.3508547,2.000822E-08,NaN,NaN,-0.02193205,-6.519362E-11,-2.221548E-08,-1.133861E-07,2.693601E-08,-2.861022E-08
397.6904,-1.311212,-1.572387E-08,NaN,-0.3255031,-1.351837E-07,NaN,0.4877932,-8.252304E-09,NaN,-2.127244,1.249817E-05,-0.351277,2.007376E-08,NaN,NaN,-0.02189289,-6.519362E-11,9.374979E-09,-1.133835E-07,2.693601E-08,-2.622604E-08
397.7055,-1.29867,-1.572294E-08,NaN,-0.3254701,-1.351833E-07,NaN,0.4861698,-8.31313E-09,NaN,-2.130991,1.249872E-05,-0.3517277,2.013651E-08,NaN,NaN,-0.02185455,-6.985024E-11,4.036939E-08,-1.13381E-07,2.455182E-08,-2.861022E-08
397.7201,-1.285887,-1.572202E-08,NaN,-0.3254346,-1.351828E-07,NaN,0.4845864,-8.369812E-09,NaN,-2.134634,1.249926E-05,-0.3521796,2.019512E-08,NaN,NaN,-0.02181699,-6.985024E-11,6.719148E-08,-1.133785E-07,2.693601E-08,-2.622604E-08
397.7345,-1.285887,-1.572202E-08,NaN,-0.3254346,-1.351828E-07,NaN,0.4845864,-8.369812E-09,NaN,-2.134634,1.249926E-05,-0.3521796,2.019512E-08,NaN,NaN,-0.02181699,-6.985024E-11,6.719148E-08,-1.133785E-07,2.693601E-08,-2.622604E-08
397.7484,-1.273005,-1.572109E-08,NaN,-0.3253975,-1.351824E-07,NaN,0.4830597,-8.423847E-09,NaN,-2.138145,1.249981E-05,-0.3526178,2.025108E-08,NaN,NaN,-0.02178017,-7.450685E-11,9.341753E-08,-1.13376E-07,3.170438E-08,-2.861022E-08
397.7641,-1.259388,-1.572016E-08,NaN,-0.3253571,-1.35182E-07,NaN,0.4814201,-8.475284E-09,NaN,-2.141909,1.250035E-05,-0.3530318,2.030444E-08,NaN,NaN,-0.0217438,-7.450685E-11,1.262001E-07,-1.133736E-07,2.455182E-08,-2.622604E-08
397.7784,-1.259388,-1.572016E-08,NaN,-0.3253571,-1.35182E-07,NaN,0.4814201,-8.475284E-09,NaN,-2.141909,1.250035E-05,-0.3530318,2.030444E-08,NaN,NaN,-0.0217438,-7.450685E-11,1.262001E-07,-1.133736E-07,2.455182E-08,-2.622604E-08
397.7921,-1.245364,-1.571923E-08,NaN,-0.3253138,-1.351816E-07,NaN,0.4797599,-8.524176E-09,NaN,-2.145666,1.25009E-05,-0.353474,2.035527E-08,NaN,NaN,-0.02170818,-7.916347E-11,1.577905E-07,-1.133711E-07,1.978345E-08,-2.861022E-08
397.8074,-1.231143,-1.57183E-08,NaN,-0.3252683,-1.351812E-07,NaN,0.4781364,-8.569159E-09,NaN,-2.14932,1.250145E-05,-0.3539192,2.040218E-08,NaN,NaN,-0.0216733,-7.916347E-11,1.846126E-07,-1.133686E-07,1.739926E-08,-2.622604E-08
397.8218,-1.216858,-1.571737E-08,NaN,-0.3252214,-1.351808E-07,NaN,0.4765674,-8.61172E-09,NaN,-2.152844,1.250199E-05,-0.3543522,2.044667E-08,NaN,NaN,-0.02163912,-7.916347E-11,2.126268E-07,-1.133662E-07,1.501508E-08,-2.861022E-08
397.8366,-1.216858,-1.571737E-08,NaN,-0.3252214,-1.351808E-07,NaN,0.4765674,-8.61172E-09,NaN,-2.152844,1.250199E-05,-0.3543522,2.044667E-08,NaN,NaN,-0.02163912,-7.916347E-11,2.126268E-07,-1.133662E-07,1.501508E-08,-2.861022E-08
397.8502,-1.201865,-1.571645E-08,NaN,-0.3251715,-1.351804E-07,NaN,0.4748858,-8.651912E-09,NaN,-2.156623,1.250254E-05,-0.3547565,2.048879E-08,NaN,NaN,-0.0216053,-7.916347E-11,2.448133E-07,-1.133637E-07,1.263089E-08,-2.622604E-08
397.8656,-1.186488,-1.571552E-08,NaN,-0.3251187,-1.3518E-07,NaN,0.473181,-8.679912E-09,NaN,-2.160393,1.250308E-05,-0.35519,2.051872E-08,NaN,NaN,-0.02157218,-7.916347E-11,2.764038E-07,-1.133613E-07,5.478336E-09,-2.861022E-08
397.8822,-1.170935,-1.571459E-08,NaN,-0.3250637,-1.351792E-07,NaN,0.4715118,-8.846713E-09,NaN,-2.16406,1.250363E-05,-0.3556285,2.068745E-08,NaN,NaN,-0.02153975,-7.916347E-11,3.05014E-07,-1.133598E-07,3.094151E-09,-2.622604E-08
397.8964,-1.170935,-1.571459E-08,NaN,-0.3250637,-1.351792E-07,NaN,0.4715118,-8.846713E-09,NaN,-2.16406,1.250363E-05,-0.3556285,2.068745E-08,NaN,NaN,-0.02153975,-7.916347E-11,3.05014E-07,-1.133598E-07,3.094151E-09,-2.622604E-08
397.9095,-1.154608,-1.571367E-08,NaN,-0.325005,-1.351784E-07,NaN,0.4697304,-8.9918E-09,NaN,-2.167978,1.250417E-05,-0.3560398,2.083447E-08,NaN,NaN,-0.02150765,-7.916347E-11,3.413729E-07,-1.133584E-07,7.09965E-10,-2.861022E-08
397.9233,-1.137862,-1.571274E-08,NaN,-0.3249428,-1.351777E-07,NaN,0.4679301,-9.137295E-09,NaN,-2.171878,1.250471E-05,-0.3564811,2.09819E-08,NaN,NaN,-0.02147623,-6.985024E-11,3.747515E-07,-1.133571E-07,5.478336E-09,-2.622604E-08
397.9379,-1.137862,-1.571274E-08,NaN,-0.3249428,-1.351777E-07,NaN,0.4679301,-9.137295E-09,NaN,-2.171878,1.250471E-05,-0.3564811,2.09819E-08,NaN,NaN,-0.02147623,-6.985024E-11,3.747515E-07,-1.133571E-07,5.478336E-09,-2.622604E-08
397.9518,-1.120924,-1.571181E-08,NaN,-0.3248778,-1.35177E-07,NaN,0.4661706,-9.274173E-09,NaN,-2.175659,1.250525E-05,-0.356927,2.112072E-08,NaN,NaN,-0.02144546,-6.053702E-11,4.057459E-07,-1.133557E-07,1.024671E-08,-2.861022E-08
397.9669,-1.103934,-1.571088E-08,NaN,-0.3248111,-1.351763E-07,NaN,0.4644715,-9.404013E-09,NaN,-2.179297,1.25058E-05,-0.3573607,2.125249E-08,NaN,NaN,-0.02141531,-5.588041E-11,4.385284E-07,-1.133544E-07,1.024671E-08,-2.622604E-08
397.9813,-1.086256,-1.570996E-08,NaN,-0.3247414,-1.351756E-07,NaN,0.4626674,-9.528358E-09,NaN,-2.183178,1.250634E-05,-0.3577549,2.137878E-08,NaN,NaN,-0.0213854,-5.12238E-11,4.71907E-07,-1.133531E-07,7.099654E-10,-2.861022E-08
397.9971,-1.086256,-1.570996E-08,NaN,-0.3247414,-1.351756E-07,NaN,0.4626674,-9.528358E-09,NaN,-2.183178,1.250634E-05,-0.3577549,2.137878E-08,NaN,NaN,-0.0213854,-5.12238E-11,4.71907E-07,-1.133531E-07,7.099654E-10,-2.861022E-08
398.0097,-1.068219,-1.570903E-08,NaN,-0.3246685,-1.35175E-07,NaN,0.4608255,-9.647317E-09,NaN,-2.186628,1.250689E-05,-0.358212,2.149967E-08,NaN,NaN,-0.02135567,-4.656718E-11,5.142263E-07,-1.133517E-07,7.099654E-10,-2.622604E-08
398.0247,-1.050031,-1.57081E-08,NaN,-0.3245933,-1.351743E-07,NaN,0.4589778,-9.762405E-09,NaN,-2.188525,1.250743E-05,-0.3587759,2.161669E-08,NaN,NaN,-0.02132533,-4.191057E-11,5.785993E-07,-1.133504E-07,-1.67422E-09,-2.861022E-08
398.0394,-1.050031,-1.57081E-08,NaN,-0.3245933,-1.351743E-07,NaN,0.4589778,-9.762405E-09,NaN,-2.188525,1.250743E-05,-0.3587759,2.161669E-08,NaN,NaN,-0.02132533,-4.191057E-11,5.785993E-07,-1.133504E-07,-1.67422E-09,-2.861022E-08
398.0534,-1.031096,-1.570717E-08,NaN,-0.3245144,-1.351737E-07,NaN,0.4570144,-9.8737E-09,NaN,-2.189317,1.250798E-05,-0.3593451,2.172992E-08,NaN,NaN,-0.02129498,-3.725396E-11,6.542972E-07,-1.133491E-07,7.099654E-10,-2.622604E-08
398.0686,-1.011772,-1.570625E-08,NaN,-0.3244318,-1.35173E-07,NaN,0.4550398,-9.982688E-09,NaN,-2.189182,1.250852E-05,-0.3599458,2.184085E-08,NaN,NaN,-0.02126543,-3.259735E-11,7.246307E-07,-1.133478E-07,7.862523E-09,-2.861022E-08
398.0831,-0.9922827,-1.570532E-08,NaN,-0.3243463,-1.351724E-07,NaN,0.4531239,-1.0088E-08,NaN,-2.188578,1.250908E-05,-0.3605319,2.194809E-08,NaN,NaN,-0.02123693,-3.725396E-11,7.830432E-07,-1.133465E-07,7.862523E-09,-2.622604E-08
398.0978,-0.9922827,-1.570532E-08,NaN,-0.3243463,-1.351724E-07,NaN,0.4531239,-1.0088E-08,NaN,-2.188578,1.250908E-05,-0.3605319,2.194809E-08,NaN,NaN,-0.02123693,-3.725396E-11,7.830432E-07,-1.133465E-07,7.862523E-09,-2.622604E-08
398.1116,-0.9727716,-1.57044E-08,NaN,-0.3242592,-1.351717E-07,NaN,0.4512884,-1.018971E-08,NaN,-2.187913,1.250962E-05,-0.3610812,2.205173E-08,NaN,NaN,-0.02120943,-3.259735E-11,8.337072E-07,-1.133453E-07,5.478337E-09,-2.861022E-08
398.127,-0.9526004,-1.570347E-08,NaN,-0.3241692,-1.351711E-07,NaN,0.4493661,-1.028788E-08,NaN,-2.187802,1.251017E-05,-0.3615719,2.215184E-08,NaN,NaN,-0.02118243,-2.794074E-11,8.843712E-07,-1.13344E-07,5.478337E-09,-2.622604E-08
398.1415,-0.9320984,-1.570255E-08,NaN,-0.3240761,-1.351705E-07,NaN,0.4474283,-1.0384E-08,NaN,-2.187886,1.251071E-05,-0.3620976,2.22499E-08,NaN,NaN,-0.02115601,-2.328412E-11,9.320549E-07,-1.133427E-07,5.478337E-09,-2.861022E-08
398.1561,-0.9320984,-1.570255E-08,NaN,-0.3240761,-1.351705E-07,NaN,0.4474283,-1.0384E-08,NaN,-2.187886,1.251071E-05,-0.3620976,2.22499E-08,NaN,NaN,-0.02115601,-2.328412E-11,9.320549E-07,-1.133427E-07,5.478337E-09,-2.861022E-08
398.1702,-0.9114742,-1.570162E-08,NaN,-0.3239807,-1.351698E-07,NaN,0.4455349,-1.04767E-08,NaN,-2.187951,1.251126E-05,-0.3626423,2.234453E-08,NaN,NaN,-0.02113013,-2.794074E-11,9.779504E-07,-1.133414E-07,5.478337E-09,-2.622604E-08
398.1854,-0.8908594,-1.570069E-08,NaN,-0.3238843,-1.351692E-07,NaN,0.44371,-1.056604E-08,NaN,-2.187922,1.251181E-05,-0.3631849,2.24358E-08,NaN,NaN,-0.02110479,-2.328412E-11,1.024442E-06,-1.133401E-07,7.862523E-09,-2.861022E-08
398.2,-0.8696089,-1.569977E-08,NaN,-0.3237854,-1.351685E-07,NaN,0.4417927,-1.065209E-08,NaN,-2.188198,1.251235E-05,-0.3636924,2.252379E-08,NaN,NaN,-0.02107965,-1.862751E-11,1.076894E-06,-1.133389E-07,7.862523E-09,-2.622604E-08
398.2166,-0.8696089,-1.569977E-08,NaN,-0.3237854,-1.351685E-07,NaN,0.4417927,-1.065209E-08,NaN,-2.188198,1.251235E-05,-0.3636924,2.252379E-08,NaN,NaN,-0.02107965,-1.862751E-11,1.076894E-06,-1.133389E-07,7.862523E-09,-2.622604E-08
398.2304,-0.8480477,-1.569884E-08,NaN,-0.3236839,-1.351679E-07,NaN,0.4398601,-1.073632E-08,NaN,-2.188408,1.25129E-05,-0.3642419,2.260996E-08,NaN,NaN,-0.02105497,-1.39709E-11,1.125174E-06,-1.133376E-07,5.478337E-09,-2.861022E-08
398.2435,-0.8263813,-1.569792E-08,NaN,-0.3235803,-1.351673E-07,NaN,0.4379744,-1.081737E-08,NaN,-2.188428,1.251344E-05,-0.3648078,2.269294E-08,NaN,NaN,-0.02103082,-9.314287E-12,1.172262E-06,-1.133364E-07,3.094152E-09,-2.622604E-08
398.258,-0.8263813,-1.569792E-08,NaN,-0.3235803,-1.351673E-07,NaN,0.4379744,-1.081737E-08,NaN,-2.188428,1.251344E-05,-0.3648078,2.269294E-08,NaN,NaN,-0.02103082,-9.314287E-12,1.172262E-06,-1.133364E-07,3.094152E-09,-2.622604E-08
398.272,-0.8040115,-1.569699E-08,NaN,-0.3234735,-1.351666E-07,NaN,0.4359945,-1.089529E-08,NaN,-2.188679,1.251399E-05,-0.3653454,2.277279E-08,NaN,NaN,-0.02100689,-4.657674E-12,1.224714E-06,-1.133351E-07,5.478337E-09,-2.861022E-08
398.287,-0.7812931,-1.569607E-08,NaN,-0.3233631,-1.35166E-07,NaN,0.4340056,-1.097155E-08,NaN,-2.188828,1.251453E-05,-0.3659233,2.285099E-08,NaN,NaN,-0.02098344,-1.061651E-15,1.272397E-06,-1.133339E-07,3.094152E-09,-2.622604E-08
398.3015,-0.7584504,-1.569514E-08,NaN,-0.32325,-1.351654E-07,NaN,0.4320707,-1.104478E-08,NaN,-2.188786,1.251508E-05,-0.3665138,2.292615E-08,NaN,NaN,-0.02096055,4.655551E-12,1.324849E-06,-1.133326E-07,3.094152E-09,-2.861022E-08
398.3159,-0.7584504,-1.569514E-08,NaN,-0.32325,-1.351654E-07,NaN,0.4320707,-1.104478E-08,NaN,-2.188786,1.251508E-05,-0.3665138,2.292615E-08,NaN,NaN,-0.02096055,4.655551E-12,1.324849E-06,-1.133326E-07,3.094152E-09,-2.861022E-08
398.3298,-0.7356251,-1.569422E-08,NaN,-0.3231355,-1.351648E-07,NaN,0.4302136,-1.111504E-08,NaN,-2.188603,1.251563E-05,-0.3670923,2.299834E-08,NaN,NaN,-0.02093823,-1.061651E-15,1.371341E-06,-1.133314E-07,7.099659E-10,-2.622604E-08
398.3453,-0.7121785,-1.569329E-08,NaN,-0.3230186,-1.351641E-07,NaN,0.4282706,-1.118379E-08,NaN,-2.188757,1.251618E-05,-0.3676302,2.306904E-08,NaN,NaN,-0.02091613,4.655551E-12,1.416641E-06,-1.133302E-07,-1.67422E-09,-2.861022E-08
398.3597,-0.7121785,-1.569329E-08,NaN,-0.3230186,-1.351641E-07,NaN,0.4282706,-1.118379E-08,NaN,-2.188757,1.251618E-05,-0.3676302,2.306904E-08,NaN,NaN,-0.02091613,4.655551E-12,1.416641E-06,-1.133302E-07,-1.67422E-09,-2.861022E-08
398.3737,-0.6884394,-1.569236E-08,NaN,-0.322899,-1.351635E-07,NaN,0.4263178,-1.124966E-08,NaN,-2.1889,1.251673E-05,-0.368205,2.313684E-08,NaN,NaN,-0.02089448,9.312164E-12,1.460748E-06,-1.133289E-07,-1.67422E-09,-2.622604E-08
398.3889,-0.6646157,-1.569144E-08,NaN,-0.3227773,-1.351629E-07,NaN,0.4244155,-1.13127E-08,NaN,-2.188901,1.251728E-05,-0.3687938,2.320182E-08,NaN,NaN,-0.02087331,1.396878E-11,1.504855E-06,-1.133277E-07,-4.058406E-09,-2.861022E-08
398.4036,-0.6408383,-1.569051E-08,NaN,-0.3226548,-1.351623E-07,NaN,0.4225875,-1.137438E-08,NaN,-2.188768,1.251783E-05,-0.3693734,2.326543E-08,NaN,NaN,-0.02085265,1.862539E-11,1.547175E-06,-1.133265E-07,-4.058406E-09,-2.622604E-08
398.4182,-0.6408383,-1.569051E-08,NaN,-0.3226548,-1.351623E-07,NaN,0.4225875,-1.137438E-08,NaN,-2.188768,1.251783E-05,-0.3693734,2.326543E-08,NaN,NaN,-0.02085265,1.862539E-11,1.547175E-06,-1.133265E-07,-4.058406E-09,-2.622604E-08
398.4321,-0.6166341,-1.568959E-08,NaN,-0.3225311,-1.351617E-07,NaN,0.4207101,-1.14333E-08,NaN,-2.188866,1.251838E-05,-0.3699202,2.332629E-08,NaN,NaN,-0.02083225,2.3282E-11,1.59158E-06,-1.133253E-07,-1.67422E-09,-2.861022E-08
398.4475,-0.5922627,-1.568866E-08,NaN,-0.322406,-1.351611E-07,NaN,0.4188416,-1.148954E-08,NaN,-2.188941,1.251893E-05,-0.3704908,2.338446E-08,NaN,NaN,-0.02081228,2.793861E-11,1.63539E-06,-1.13324E-07,7.099659E-10,-2.622604E-08
398.4621,-0.5678882,-1.568774E-08,NaN,-0.3222802,-1.351605E-07,NaN,0.4170269,-1.154454E-08,NaN,-2.188901,1.251948E-05,-0.3710673,2.344139E-08,NaN,NaN,-0.02079276,3.259523E-11,1.678007E-06,-1.133228E-07,-4.058406E-09,-2.861022E-08
398.4783,-0.5678882,-1.568774E-08,NaN,-0.3222802,-1.351605E-07,NaN,0.4170269,-1.154454E-08,NaN,-2.188901,1.251948E-05,-0.3710673,2.344139E-08,NaN,NaN,-0.02079276,3.259523E-11,1.678007E-06,-1.133228E-07,-4.058406E-09,-2.861022E-08
398.4906,-0.5436137,-1.568681E-08,NaN,-0.3221548,-1.351599E-07,NaN,0.415283,-1.159692E-08,NaN,-2.188762,1.252003E-05,-0.3716322,2.349571E-08,NaN,NaN,-0.02077373,3.725184E-11,1.715856E-06,-1.133216E-07,7.099659E-10,-2.622604E-08
398.5057,-0.5195038,-1.568589E-08,NaN,-0.3220311,-1.351592E-07,NaN,0.4136113,-1.164674E-08,NaN,-2.188578,1.252058E-05,-0.372178,2.354746E-08,NaN,NaN,-0.0207552,4.190845E-11,1.752215E-06,-1.133204E-07,-1.67422E-09,-2.861022E-08
398.5203,-0.4955983,-1.568496E-08,NaN,-0.3219099,-1.351586E-07,NaN,0.4120075,-1.169545E-08,NaN,-2.188396,1.252113E-05,-0.3727032,2.359811E-08,NaN,NaN,-0.02073713,3.725184E-11,1.783209E-06,-1.133192E-07,7.099659E-10,-2.622604E-08
398.5359,-0.4955983,-1.568496E-08,NaN,-0.3219099,-1.351586E-07,NaN,0.4120075,-1.169545E-08,NaN,-2.188396,1.252113E-05,-0.3727032,2.359811E-08,NaN,NaN,-0.02073713,3.725184E-11,1.783209E-06,-1.133192E-07,7.099659E-10,-2.622604E-08
398.5499,-0.4719216,-1.568404E-08,NaN,-0.3217919,-1.35158E-07,NaN,0.4104657,-1.174167E-08,NaN,-2.188244,1.252168E-05,-0.3732097,2.364626E-08,NaN,NaN,-0.02071952,4.190845E-11,1.811521E-06,-1.133181E-07,-6.442591E-09,-2.861022E-08
398.5643,-0.4484878,-1.568312E-08,NaN,-0.3216778,-1.351574E-07,NaN,0.408981,-1.178543E-08,NaN,-2.188125,1.252223E-05,-0.3737002,2.369196E-08,NaN,NaN,-0.02070233,4.656506E-11,1.837748E-06,-1.133169E-07,-6.442591E-09,-2.622604E-08
398.5788,-0.4484878,-1.568312E-08,NaN,-0.3216778,-1.351574E-07,NaN,0.408981,-1.178543E-08,NaN,-2.188125,1.252223E-05,-0.3737002,2.369196E-08,NaN,NaN,-0.02070233,4.656506E-11,1.837748E-06,-1.133169E-07,-6.442591E-09,-2.622604E-08
398.5925,-0.4253052,-1.568219E-08,NaN,-0.321568,-1.351568E-07,NaN,0.4075494,-1.182822E-08,NaN,-2.188031,1.252278E-05,-0.3741768,2.373668E-08,NaN,NaN,-0.02068553,5.122167E-11,1.863675E-06,-1.133157E-07,-4.058406E-09,-2.861022E-08
398.6077,-0.4023776,-1.568127E-08,NaN,-0.3214626,-1.351562E-07,NaN,0.406168,-1.186862E-08,NaN,-2.187952,1.252334E-05,-0.3746408,2.377902E-08,NaN,NaN,-0.0206691,4.656506E-11,1.887815E-06,-1.133145E-07,-1.67422E-09,-2.622604E-08
398.6223,-0.3797065,-1.568034E-08,NaN,-0.3213619,-1.351556E-07,NaN,0.4048344,-1.190811E-08,NaN,-2.187876,1.252389E-05,-0.375093,2.382044E-08,NaN,NaN,-0.02065305,5.122167E-11,1.910465E-06,-1.133133E-07,7.099659E-10,-2.861022E-08
398.6372,-0.3797065,-1.568034E-08,NaN,-0.3213619,-1.351556E-07,NaN,0.4048344,-1.190811E-08,NaN,-2.187876,1.252389E-05,-0.375093,2.382044E-08,NaN,NaN,-0.02065305,5.122167E-11,1.910465E-06,-1.133133E-07,7.099659E-10,-2.861022E-08
398.6509,-0.3572918,-1.567942E-08,NaN,-0.3212659,-1.35155E-07,NaN,0.4035471,-1.194669E-08,NaN,-2.187799,1.252446E-05,-0.3755336,2.386096E-08,NaN,NaN,-0.02063736,4.656506E-11,1.931625E-06,-1.133122E-07,3.094152E-09,-2.622604E-08
398.6661,-0.3351322,-1.56785E-08,NaN,-0.3211746,-1.351544E-07,NaN,0.4023045,-1.198297E-08,NaN,-2.187719,1.252501E-05,-0.3759628,2.389917E-08,NaN,NaN,-0.02062202,5.122167E-11,1.952189E-06,-1.13311E-07,3.094152E-09,-2.861022E-08
398.6838,-0.3132261,-1.567757E-08,NaN,-0.3210879,-1.351538E-07,NaN,0.4011053,-1.201841E-08,NaN,-2.187638,1.252557E-05,-0.3763805,2.393655E-08,NaN,NaN,-0.02060705,5.587828E-11,1.970517E-06,-1.133098E-07,3.094152E-09,-2.622604E-08
398.6956,-0.3132261,-1.567757E-08,NaN,-0.3210879,-1.351538E-07,NaN,0.4011053,-1.201841E-08,NaN,-2.187638,1.252557E-05,-0.3763805,2.393655E-08,NaN,NaN,-0.02060705,5.587828E-11,1.970517E-06,-1.133098E-07,3.094152E-09,-2.622604E-08
398.7096,-0.2979448,-1.567665E-08,NaN,-0.3210264,-1.351532E-07,NaN,0.4014094,-1.205162E-08,NaN,-2.184081,1.252612E-05,-0.3768888,2.397169E-08,NaN,NaN,-0.02059563,6.05349E-11,1.933413E-06,-1.133087E-07,5.478337E-09,-2.861022E-08
398.7248,-0.2868951,-1.567573E-08,NaN,-0.3209988,-1.351527E-07,NaN,0.4024804,-1.208264E-08,NaN,-2.180769,1.252668E-05,-0.3768468,2.400464E-08,NaN,NaN,-0.02058564,5.587828E-11,1.867401E-06,-1.133075E-07,1.024671E-08,-2.622604E-08
398.7396,-0.2868951,-1.567573E-08,NaN,-0.3209988,-1.351527E-07,NaN,0.4024804,-1.208264E-08,NaN,-2.180769,1.252668E-05,-0.3768468,2.400464E-08,NaN,NaN,-0.02058564,5.587828E-11,1.867401E-06,-1.133075E-07,1.024671E-08,-2.622604E-08
398.7535,-0.2785544,-1.56748E-08,NaN,-0.3209998,-1.351521E-07,NaN,0.4037055,-1.211292E-08,NaN,-2.178702,1.252724E-05,-0.3765355,2.403686E-08,NaN,NaN,-0.02057571,6.05349E-11,1.801985E-06,-1.133064E-07,3.094151E-09,-2.861022E-08
398.7689,-0.2719537,-1.567388E-08,NaN,-0.3210187,-1.351515E-07,NaN,0.4048217,-1.214106E-08,NaN,-2.177473,1.252779E-05,-0.376201,2.406694E-08,NaN,NaN,-0.02056522,6.519151E-11,1.750576E-06,-1.133052E-07,-1.67422E-09,-2.622604E-08
398.7837,-0.2664756,-1.567295E-08,NaN,-0.3210506,-1.351509E-07,NaN,0.4057867,-1.216711E-08,NaN,-2.176801,1.252834E-05,-0.375908,2.409493E-08,NaN,NaN,-0.0205546,6.984813E-11,1.706915E-06,-1.133041E-07,3.094151E-09,-2.861022E-08
398.7984,-0.2664756,-1.567295E-08,NaN,-0.3210506,-1.351509E-07,NaN,0.4057867,-1.216711E-08,NaN,-2.176801,1.252834E-05,-0.375908,2.409493E-08,NaN,NaN,-0.0205546,6.984813E-11,1.706915E-06,-1.133041E-07,3.094151E-09,-2.861022E-08
398.8123,-0.2617269,-1.567203E-08,NaN,-0.3210913,-1.351503E-07,NaN,0.4066222,-1.219252E-08,NaN,-2.176496,1.25289E-05,-0.3756631,2.412227E-08,NaN,NaN,-0.02054401,7.450474E-11,1.667427E-06,-1.133029E-07,3.094151E-09,-2.622604E-08
398.8285,-0.2574571,-1.567111E-08,NaN,-0.3211377,-1.351497E-07,NaN,0.4073606,-1.221589E-08,NaN,-2.176425,1.252945E-05,-0.3754575,2.414758E-08,NaN,NaN,-0.02053355,7.916136E-11,1.630174E-06,-1.133018E-07,-4.058406E-09,-2.861022E-08
398.8432,-0.2535067,-1.567018E-08,NaN,-0.3211877,-1.351492E-07,NaN,0.4080301,-1.223868E-08,NaN,-2.176502,1.253001E-05,-0.3752804,2.41723E-08,NaN,NaN,-0.02052324,8.381797E-11,1.596945E-06,-1.133007E-07,7.099654E-10,-2.622604E-08
398.8567,-0.2535067,-1.567018E-08,NaN,-0.3211877,-1.351492E-07,NaN,0.4080301,-1.223868E-08,NaN,-2.176502,1.253001E-05,-0.3752804,2.41723E-08,NaN,NaN,-0.02052324,8.381797E-11,1.596945E-06,-1.133007E-07,7.099654E-10,-2.622604E-08
398.8707,-0.2498116,-1.566926E-08,NaN,-0.3338443,-1.351486E-07,NaN,0.4077109,-1.225948E-08,NaN,-2.179784,1.253056E-05,-0.3789589,2.419504E-08,NaN,NaN,-0.02052193,8.847459E-11,1.448827E-06,-1.132996E-07,-1.67422E-09,-2.861022E-08
398.886,-0.2463761,-1.566834E-08,NaN,-0.3541205,-1.35148E-07,NaN,0.408092,-1.227833E-08,NaN,-2.183891,1.253111E-05,-0.3823791,2.421582E-08,NaN,NaN,-0.02051928,9.31312E-11,1.324104E-06,-1.132984E-07,-1.67422E-09,-2.622604E-08
398.9003,-0.2431577,-1.566741E-08,NaN,-0.3789573,-1.351474E-07,NaN,0.408865,-1.229668E-08,NaN,-2.187281,1.253167E-05,-0.385246,2.42361E-08,NaN,NaN,-0.02051413,9.778782E-11,1.242744E-06,-1.132973E-07,3.094151E-09,-2.861022E-08
398.915,-0.2431577,-1.566741E-08,NaN,-0.3789573,-1.351474E-07,NaN,0.408865,-1.229668E-08,NaN,-2.187281,1.253167E-05,-0.385246,2.42361E-08,NaN,NaN,-0.02051413,9.778782E-11,1.242744E-06,-1.132973E-07,3.094151E-09,-2.861022E-08
398.9293,-0.240104,-1.566649E-08,NaN,-0.4057184,-1.351469E-07,NaN,0.4097932,-1.231313E-08,NaN,-2.188646,1.253222E-05,-0.387532,2.425449E-08,NaN,NaN,-0.02050622,1.024444E-10,1.212495E-06,-1.132962E-07,7.099654E-10,-2.622604E-08
398.9445,-0.2371692,-1.566556E-08,NaN,-0.4335398,-1.351463E-07,NaN,0.4106995,-1.232771E-08,NaN,-2.188433,1.253278E-05,-0.3895511,2.427102E-08,NaN,NaN,-0.02049794,1.071011E-10,1.188057E-06,-1.132951E-07,3.094151E-09,-2.861022E-08
398.9602,-0.2343209,-1.566464E-08,NaN,-0.4618865,-1.351457E-07,NaN,0.4115832,-1.234189E-08,NaN,-2.187478,1.253334E-05,-0.391358,2.428713E-08,NaN,NaN,-0.02049015,1.117577E-10,1.156466E-06,-1.13294E-07,7.862523E-09,-2.622604E-08
398.9736,-0.2343209,-1.566464E-08,NaN,-0.4618865,-1.351457E-07,NaN,0.4115832,-1.234189E-08,NaN,-2.187478,1.253334E-05,-0.391358,2.428713E-08,NaN,NaN,-0.02049015,1.117577E-10,1.156466E-06,-1.13294E-07,7.862523E-09,-2.622604E-08
398.9877,-0.2315377,-1.566372E-08,NaN,-0.4904271,-1.351452E-07,NaN,0.4124467,-1.235424E-08,NaN,-2.186469,1.25339E-05,-0.3929855,2.430142E-08,NaN,NaN,-0.02048299,1.164143E-10,1.115488E-06,-1.132929E-07,7.862523E-09,-2.861022E-08
399.0031,-0.2288017,-1.566279E-08,NaN,-0.5181949,-1.351446E-07,NaN,0.4133419,-1.236622E-08,NaN,-2.185577,1.253446E-05,-0.3942354,2.431533E-08,NaN,NaN,-0.02047573,1.210709E-10,1.073765E-06,-1.132918E-07,3.094152E-09,-2.622604E-08
399.0178,-0.2288017,-1.566279E-08,NaN,-0.5181949,-1.351446E-07,NaN,0.4133419,-1.236622E-08,NaN,-2.185577,1.253446E-05,-0.3942354,2.431533E-08,NaN,NaN,-0.02047573,1.210709E-10,1.073765E-06,-1.132918E-07,3.094152E-09,-2.622604E-08
399.0318,-0.2261016,-1.566187E-08,NaN,-0.5453629,-1.35144E-07,NaN,0.4141516,-1.237643E-08,NaN,-2.185075,1.253501E-05,-0.3954054,2.432748E-08,NaN,NaN,-0.02046892,1.257275E-10,1.028465E-06,-1.132907E-07,4.286244E-09,-2.861022E-08
399.0473,-0.2234317,-1.566095E-08,NaN,-0.5720388,-1.351435E-07,NaN,0.4148883,-1.238489E-08,NaN,-2.184938,1.253557E-05,-0.3965536,2.433787E-08,NaN,NaN,-0.02046237,1.303841E-10,9.801855E-07,-1.132896E-07,7.862523E-09,-2.622604E-08
399.0623,-0.2207895,-1.566002E-08,NaN,-0.5982901,-1.351429E-07,NaN,0.4155743,-1.239305E-08,NaN,-2.185014,1.253613E-05,-0.3976889,2.434798E-08,NaN,NaN,-0.0204559,1.350407E-10,9.319057E-07,-1.132885E-07,1.14388E-08,-2.861022E-08
399.0768,-0.2207895,-1.566002E-08,NaN,-0.5982901,-1.351429E-07,NaN,0.4155743,-1.239305E-08,NaN,-2.185014,1.253613E-05,-0.3976889,2.434798E-08,NaN,NaN,-0.0204559,1.350407E-10,9.319057E-07,-1.132885E-07,1.14388E-08,-2.861022E-08
399.0905,-0.2181693,-1.56591E-08,NaN,-0.6233981,-1.351423E-07,NaN,0.4162884,-1.239952E-08,NaN,-2.184957,1.253669E-05,-0.3985665,2.435638E-08,NaN,NaN,-0.02044889,1.396973E-10,8.96739E-07,-1.132874E-07,1.024671E-08,-2.622604E-08
399.1069,-0.2155685,-1.565818E-08,NaN,-0.6476905,-1.351418E-07,NaN,0.4169382,-1.240573E-08,NaN,-2.184883,1.253725E-05,-0.3994301,2.436453E-08,NaN,NaN,-0.0204421,1.443539E-10,8.612742E-07,-1.132864E-07,1.14388E-08,-2.861022E-08
399.1214,-0.212987,-1.565725E-08,NaN,-0.6713715,-1.351412E-07,NaN,0.4175469,-1.241028E-08,NaN,-2.184835,1.253782E-05,-0.4002975,2.437101E-08,NaN,NaN,-0.02043555,1.396973E-10,8.255114E-07,-1.132853E-07,6.67043E-09,-2.622604E-08
399.1352,-0.212987,-1.565725E-08,NaN,-0.6713715,-1.351412E-07,NaN,0.4175469,-1.241028E-08,NaN,-2.184835,1.253782E-05,-0.4002975,2.437101E-08,NaN,NaN,-0.02043555,1.396973E-10,8.255114E-07,-1.132853E-07,6.67043E-09,-2.622604E-08
399.1493,-0.2104209,-1.565633E-08,NaN,-0.6938067,-1.351407E-07,NaN,0.4181968,-1.241319E-08,NaN,-2.184625,1.253838E-05,-0.4009151,2.437586E-08,NaN,NaN,-0.0204286,1.396973E-10,7.971992E-07,-1.132842E-07,4.286245E-09,-2.861022E-08
399.1643,-0.2078688,-1.56554E-08,NaN,-0.7153769,-1.351401E-07,NaN,0.4187923,-1.241591E-08,NaN,-2.184448,1.253894E-05,-0.4015244,2.438052E-08,NaN,NaN,-0.02042197,1.443539E-10,7.653107E-07,-1.132831E-07,1.902059E-09,-2.622604E-08
399.179,-0.2078688,-1.56554E-08,NaN,-0.7153769,-1.351401E-07,NaN,0.4187923,-1.241591E-08,NaN,-2.184448,1.253894E-05,-0.4015244,2.438052E-08,NaN,NaN,-0.02042197,1.443539E-10,7.653107E-07,-1.132831E-07,1.902059E-09,-2.622604E-08
399.1929,-0.2053321,-1.565448E-08,NaN,-0.7363184,-1.351396E-07,NaN,0.4193525,-1.241705E-08,NaN,-2.184367,1.25395E-05,-0.402145,2.438359E-08,NaN,NaN,-0.02041561,1.490105E-10,7.337202E-07,-1.132821E-07,-4.821268E-10,-2.861022E-08
399.209,-0.2028128,-1.565356E-08,NaN,-0.7567788,-1.35139E-07,NaN,0.4198963,-1.241803E-08,NaN,-2.184363,1.254006E-05,-0.4027661,2.438651E-08,NaN,NaN,-0.02040943,1.490105E-10,7.006396E-07,-1.13281E-07,-5.250498E-09,-2.622604E-08
399.2235,-0.2003068,-1.565263E-08,NaN,-0.7760885,-1.351385E-07,NaN,0.4204925,-1.241744E-08,NaN,-2.184201,1.254062E-05,-0.4031377,2.438786E-08,NaN,NaN,-0.02040278,1.490105E-10,6.741156E-07,-1.1328E-07,-6.442591E-09,-2.861022E-08
399.2379,-0.2003068,-1.565263E-08,NaN,-0.7760885,-1.351385E-07,NaN,0.4204925,-1.241744E-08,NaN,-2.184201,1.254062E-05,-0.4031377,2.438786E-08,NaN,NaN,-0.02040278,1.490105E-10,6.741156E-07,-1.1328E-07,-6.442591E-09,-2.861022E-08
399.2518,-0.197813,-1.565171E-08,NaN,-0.7946073,-1.351379E-07,NaN,0.421039,-1.241674E-08,NaN,-2.184057,1.254119E-05,-0.4035044,2.43891E-08,NaN,NaN,-0.02039641,1.490105E-10,6.487836E-07,-1.132789E-07,-4.058406E-09,-2.622604E-08
399.2675,-0.1953326,-1.565079E-08,NaN,-0.8125578,-1.351374E-07,NaN,0.421553,-1.241451E-08,NaN,-2.18399,1.254175E-05,-0.4038874,2.438881E-08,NaN,NaN,-0.0203903,1.490105E-10,6.207694E-07,-1.132779E-07,-5.250499E-09,-2.861022E-08
399.2822,-0.1928681,-1.564986E-08,NaN,-0.8300788,-1.351368E-07,NaN,0.4220525,-1.241078E-08,NaN,-2.183988,1.254231E-05,-0.4042759,2.438702E-08,NaN,NaN,-0.02038436,1.536671E-10,5.915632E-07,-1.132768E-07,-2.866313E-09,-2.622604E-08
399.297,-0.1928681,-1.564986E-08,NaN,-0.8300788,-1.351368E-07,NaN,0.4220525,-1.241078E-08,NaN,-2.183988,1.254231E-05,-0.4042759,2.438702E-08,NaN,NaN,-0.02038436,1.536671E-10,5.915632E-07,-1.132768E-07,-2.866313E-09,-2.622604E-08
399.3109,-0.1904149,-1.564894E-08,NaN,-0.8464952,-1.351363E-07,NaN,0.4226053,-1.240704E-08,NaN,-2.183821,1.254288E-05,-0.4044206,2.438521E-08,NaN,NaN,-0.02037796,1.443539E-10,5.712976E-07,-1.132758E-07,-4.821272E-10,-2.861022E-08
399.3264,-0.1879713,-1.564801E-08,NaN,-0.8621634,-1.351358E-07,NaN,0.423109,-1.240183E-08,NaN,-2.183674,1.254345E-05,-0.4045668,2.438193E-08,NaN,NaN,-0.02037184,1.350407E-10,5.51032E-07,-1.132747E-07,-1.67422E-09,-2.622604E-08
399.3409,-0.185539,-1.564709E-08,NaN,-0.877304,-1.351352E-07,NaN,0.4235807,-1.239659E-08,NaN,-2.183608,1.254401E-05,-0.4047353,2.437863E-08,NaN,NaN,-0.02036599,1.350407E-10,5.25998E-07,-1.132737E-07,1.902059E-09,-2.861022E-08
399.3554,-0.185539,-1.564709E-08,NaN,-0.877304,-1.351352E-07,NaN,0.4235807,-1.239659E-08,NaN,-2.183608,1.254401E-05,-0.4047353,2.437863E-08,NaN,NaN,-0.02036599,1.350407E-10,5.25998E-07,-1.132737E-07,1.902059E-09,-2.861022E-08
399.3717,-0.1831138,-1.564617E-08,NaN,-0.8912917,-1.351347E-07,NaN,0.4240966,-1.238991E-08,NaN,-2.183416,1.254456E-05,-0.4046772,2.437389E-08,NaN,NaN,-0.02035975,1.350407E-10,5.093087E-07,-1.132727E-07,-1.078174E-09,-2.622604E-08
399.3858,-0.180694,-1.564524E-08,NaN,-0.9045144,-1.351341E-07,NaN,0.4245598,-1.238465E-08,NaN,-2.183278,1.254511E-05,-0.4046343,2.437056E-08,NaN,NaN,-0.02035381,1.350407E-10,4.896392E-07,-1.132717E-07,-3.462359E-09,-2.861022E-08
399.3995,-0.180694,-1.564524E-08,NaN,-0.9045144,-1.351341E-07,NaN,0.4245598,-1.238465E-08,NaN,-2.183278,1.254511E-05,-0.4046343,2.437056E-08,NaN,NaN,-0.02035381,1.350407E-10,4.896392E-07,-1.132717E-07,-3.462359E-09,-2.861022E-08
399.4138,-0.1782822,-1.564432E-08,NaN,-0.9172112,-1.351336E-07,NaN,0.42499,-1.237795E-08,NaN,-2.183238,1.254567E-05,-0.4046251,2.436579E-08,NaN,NaN,-0.02034812,1.350407E-10,4.675855E-07,-1.132706E-07,-4.654452E-09,-2.622604E-08
399.4303,-0.1758818,-1.56434E-08,NaN,-0.9295301,-1.351331E-07,NaN,0.4254073,-1.236984E-08,NaN,-2.183269,1.254623E-05,-0.4046369,2.435962E-08,NaN,NaN,-0.02034258,1.257275E-10,4.461278E-07,-1.132696E-07,-2.270266E-09,-2.861022E-08
399.4435,-0.1734885,-1.564247E-08,NaN,-0.9408013,-1.351326E-07,NaN,0.4258788,-1.236176E-08,NaN,-2.183128,1.25468E-05,-0.40442,2.435347E-08,NaN,NaN,-0.02033658,1.164142E-10,4.318227E-07,-1.132686E-07,-1.67422E-09,-2.622604E-08
399.4581,-0.1734885,-1.564247E-08,NaN,-0.9408013,-1.351326E-07,NaN,0.4258788,-1.236176E-08,NaN,-2.183128,1.25468E-05,-0.40442,2.435347E-08,NaN,NaN,-0.02033658,1.164142E-10,4.318227E-07,-1.132686E-07,-1.67422E-09,-2.622604E-08
399.4722,-0.1711002,-1.564155E-08,NaN,-0.9513852,-1.35132E-07,NaN,0.426302,-1.23523E-08,NaN,-2.182999,1.254735E-05,-0.4042177,2.434594E-08,NaN,NaN,-0.02033085,1.164142E-10,4.151334E-07,-1.132676E-07,-1.078173E-09,-2.861022E-08
399.4878,-0.1687194,-1.564062E-08,NaN,-0.9615037,-1.351315E-07,NaN,0.4266946,-1.234289E-08,NaN,-2.182945,1.25479E-05,-0.4040498,2.433847E-08,NaN,NaN,-0.02032539,1.164142E-10,3.918876E-07,-1.132666E-07,-2.270266E-09,-2.622604E-08
399.5023,-0.1663494,-1.56397E-08,NaN,-0.9712938,-1.35131E-07,NaN,0.4270757,-1.233213E-08,NaN,-2.182956,1.254846E-05,-0.4039045,2.432964E-08,NaN,NaN,-0.02032008,1.164142E-10,3.71026E-07,-1.132656E-07,1.139195E-10,-2.861022E-08
399.5172,-0.1663494,-1.56397E-08,NaN,-0.9712938,-1.35131E-07,NaN,0.4270757,-1.233213E-08,NaN,-2.182956,1.254846E-05,-0.4039045,2.432964E-08,NaN,NaN,-0.02032008,1.164142E-10,3.71026E-07,-1.132656E-07,1.139195E-10,-2.861022E-08
399.5313,-0.1639859,-1.563878E-08,NaN,-0.9800784,-1.351304E-07,NaN,0.4275114,-1.232145E-08,NaN,-2.182801,1.254901E-05,-0.4035337,2.43209E-08,NaN,NaN,-0.02031432,1.164142E-10,3.608932E-07,-1.132646E-07,-2.270266E-09,-2.622604E-08
399.5469,-0.1616263,-1.563785E-08,NaN,-0.9882139,-1.351299E-07,NaN,0.4278983,-1.230944E-08,NaN,-2.182667,1.254957E-05,-0.4031818,2.431082E-08,NaN,NaN,-0.02030883,1.164142E-10,3.477802E-07,-1.132636E-07,-3.462359E-09,-2.861022E-08
399.5613,-0.1592731,-1.563693E-08,NaN,-0.9959193,-1.351294E-07,NaN,0.4282546,-1.229612E-08,NaN,-2.182616,1.255012E-05,-0.4028691,2.429944E-08,NaN,NaN,-0.02030361,1.164142E-10,3.304948E-07,-1.132626E-07,-4.058406E-09,-2.622604E-08
399.5761,-0.1592731,-1.563693E-08,NaN,-0.9959193,-1.351294E-07,NaN,0.4282546,-1.229612E-08,NaN,-2.182616,1.255012E-05,-0.4028691,2.429944E-08,NaN,NaN,-0.02030361,1.164142E-10,3.304948E-07,-1.132626E-07,-4.058406E-09,-2.622604E-08
399.5901,-0.1569222,-1.563601E-08,NaN,-1.002567,-1.351289E-07,NaN,0.4286557,-1.228294E-08,NaN,-2.182438,1.255067E-05,-0.4023471,2.428819E-08,NaN,NaN,-0.02029799,1.164142E-10,3.20362E-07,-1.132616E-07,-3.462359E-09,-2.861022E-08
399.6054,-0.1545716,-1.563508E-08,NaN,-1.008546,-1.351283E-07,NaN,0.4290043,-1.226988E-08,NaN,-2.182314,1.255123E-05,-0.4018569,2.427707E-08,NaN,NaN,-0.02029267,1.164142E-10,3.078451E-07,-1.132606E-07,-3.462359E-09,-2.622604E-08
399.6201,-0.1522248,-1.563416E-08,NaN,-1.014092,-1.351278E-07,NaN,0.4293216,-1.225547E-08,NaN,-2.182288,1.255179E-05,-0.4014156,2.426458E-08,NaN,NaN,-0.0202876,1.164142E-10,2.94732E-07,-1.132596E-07,-2.270266E-09,-2.861022E-08
399.6359,-0.1522248,-1.563416E-08,NaN,-1.014092,-1.351278E-07,NaN,0.4293216,-1.225547E-08,NaN,-2.182288,1.255179E-05,-0.4014156,2.426458E-08,NaN,NaN,-0.0202876,1.164142E-10,2.94732E-07,-1.132596E-07,-2.270266E-09,-2.861022E-08
399.6499,-0.1498865,-1.563324E-08,NaN,-1.019351,-1.351273E-07,NaN,0.4296284,-1.223979E-08,NaN,-2.182332,1.255234E-05,-0.4010094,2.425084E-08,NaN,NaN,-0.02028267,1.210708E-10,2.786388E-07,-1.132587E-07,-7.801504E-10,-2.622604E-08
399.6644,-0.1475532,-1.563231E-08,NaN,-1.023652,-1.351268E-07,NaN,0.4299911,-1.222429E-08,NaN,-2.182203,1.25529E-05,-0.4003895,2.423728E-08,NaN,NaN,-0.02027727,1.257275E-10,2.744665E-07,-1.132577E-07,-2.56829E-09,-2.861022E-08
399.679,-0.1475532,-1.563231E-08,NaN,-1.023652,-1.351268E-07,NaN,0.4299911,-1.222429E-08,NaN,-2.182203,1.25529E-05,-0.4003895,2.423728E-08,NaN,NaN,-0.02027727,1.257275E-10,2.744665E-07,-1.132577E-07,-2.56829E-09,-2.861022E-08
399.6927,-0.145222,-1.563139E-08,NaN,-1.027354,-1.351263E-07,NaN,0.4303062,-1.220755E-08,NaN,-2.182085,1.255346E-05,-0.3997987,2.422247E-08,NaN,NaN,-0.02027215,1.303841E-10,2.661218E-07,-1.132567E-07,-1.972243E-09,-2.622604E-08
399.708,-0.1428962,-1.563046E-08,NaN,-1.030678,-1.351258E-07,NaN,0.4305924,-1.219102E-08,NaN,-2.182043,1.255402E-05,-0.3992557,2.420787E-08,NaN,NaN,-0.02026728,1.350407E-10,2.55393E-07,-1.132557E-07,-7.801504E-10,-2.861022E-08
399.7227,-0.1405805,-1.562954E-08,NaN,-1.033758,-1.351253E-07,NaN,0.4308696,-1.217326E-08,NaN,-2.182066,1.255458E-05,-0.3987477,2.419205E-08,NaN,NaN,-0.02026255,1.396973E-10,2.440681E-07,-1.132548E-07,-4.821272E-10,-2.622604E-08
399.7376,-0.1405805,-1.562954E-08,NaN,-1.033758,-1.351253E-07,NaN,0.4308696,-1.217326E-08,NaN,-2.182066,1.255458E-05,-0.3987477,2.419205E-08,NaN,NaN,-0.02026255,1.396973E-10,2.440681E-07,-1.132548E-07,-4.821272E-10,-2.622604E-08
399.7516,-0.1382711,-1.562862E-08,NaN,-1.035915,-1.351248E-07,NaN,0.431203,-1.215572E-08,NaN,-2.18192,1.255514E-05,-0.3980279,2.417644E-08,NaN,NaN,-0.02025738,1.396973E-10,2.375116E-07,-1.132538E-07,-1.078174E-09,-2.861022E-08
399.7673,-0.1359649,-1.562769E-08,NaN,-1.037507,-1.351243E-07,NaN,0.431487,-1.213699E-08,NaN,-2.181753,1.255571E-05,-0.3973437,2.415964E-08,NaN,NaN,-0.02025242,1.396973E-10,2.333393E-07,-1.132529E-07,-3.164336E-09,-2.622604E-08
399.782,-0.133665,-1.562677E-08,NaN,-1.038748,-1.351237E-07,NaN,0.4317411,-1.211849E-08,NaN,-2.181602,1.255626E-05,-0.3967139,2.414308E-08,NaN,NaN,-0.02024767,1.443539E-10,2.255907E-07,-1.132519E-07,-3.760383E-09,-2.861022E-08
399.7966,-0.133665,-1.562677E-08,NaN,-1.038748,-1.351237E-07,NaN,0.4317411,-1.211849E-08,NaN,-2.181602,1.255626E-05,-0.3967139,2.414308E-08,NaN,NaN,-0.02024767,1.443539E-10,2.255907E-07,-1.132519E-07,-3.760383E-09,-2.861022E-08
399.8108,-0.1313679,-1.562585E-08,NaN,-1.039012,-1.351232E-07,NaN,0.4320421,-1.209881E-08,NaN,-2.181279,1.255682E-05,-0.3958876,2.412533E-08,NaN,NaN,-0.02024254,1.490105E-10,2.243986E-07,-1.132509E-07,-4.654452E-09,-2.622604E-08
399.826,-0.1290715,-1.562492E-08,NaN,-1.038693,-1.351227E-07,NaN,0.4322895,-1.207939E-08,NaN,-2.180931,1.255739E-05,-0.3951121,2.410784E-08,NaN,NaN,-0.02023765,1.490105E-10,2.190342E-07,-1.1325E-07,-2.866313E-09,-2.861022E-08
399.8407,-0.12679,-1.5624E-08,NaN,-1.038016,-1.351222E-07,NaN,0.4325158,-1.205881E-08,NaN,-2.180599,1.255795E-05,-0.3943933,2.40892E-08,NaN,NaN,-0.02023296,1.490105E-10,2.136698E-07,-1.13249E-07,-2.56829E-09,-2.622604E-08
399.8555,-0.12679,-1.5624E-08,NaN,-1.038016,-1.351222E-07,NaN,0.4325158,-1.205881E-08,NaN,-2.180599,1.255795E-05,-0.3943933,2.40892E-08,NaN,NaN,-0.02023296,1.490105E-10,2.136698E-07,-1.13249E-07,-2.56829E-09,-2.622604E-08
399.8697,-0.1245367,-1.562307E-08,NaN,-1.037126,-1.351217E-07,NaN,0.4327457,-1.20385E-08,NaN,-2.180293,1.255851E-05,-0.393714,2.407082E-08,NaN,NaN,-0.02022843,1.490105E-10,2.089014E-07,-1.132481E-07,-3.760383E-09,-2.861022E-08
399.8849,-0.1223082,-1.562215E-08,NaN,-1.03535,-1.351212E-07,NaN,0.4330412,-1.201708E-08,NaN,-2.179811,1.255908E-05,-0.3928268,2.405134E-08,NaN,NaN,-0.02022348,1.490105E-10,2.077093E-07,-1.132472E-07,-4.058406E-09,-2.622604E-08
399.9006,-0.1201238,-1.562123E-08,NaN,-1.033046,-1.351207E-07,NaN,0.4333094,-1.199595E-08,NaN,-2.179293,1.255965E-05,-0.3919766,2.403215E-08,NaN,NaN,-0.02021872,1.443539E-10,2.071132E-07,-1.132462E-07,-1.376197E-09,-2.861022E-08
399.9156,-0.1201238,-1.562123E-08,NaN,-1.033046,-1.351207E-07,NaN,0.4333094,-1.199595E-08,NaN,-2.179293,1.255965E-05,-0.3919766,2.403215E-08,NaN,NaN,-0.02021872,1.443539E-10,2.071132E-07,-1.132462E-07,-1.376197E-09,-2.861022E-08
399.9285,-0.1179868,-1.56203E-08,NaN,-1.030434,-1.351202E-07,NaN,0.4335651,-1.19737E-08,NaN,-2.178787,1.256021E-05,-0.3911803,2.401182E-08,NaN,NaN,-0.02021416,1.443539E-10,2.053251E-07,-1.132453E-07,-7.801507E-10,-2.622604E-08
399.9437,-0.1158943,-1.561938E-08,NaN,-1.027647,-1.351197E-07,NaN,0.4338213,-1.195175E-08,NaN,-2.178309,1.256078E-05,-0.390424,2.399181E-08,NaN,NaN,-0.02020976,1.396973E-10,1.993646E-07,-1.132444E-07,1.139189E-10,-2.861022E-08
399.9581,-0.1158943,-1.561938E-08,NaN,-1.027647,-1.351197E-07,NaN,0.4338213,-1.195175E-08,NaN,-2.178309,1.256078E-05,-0.390424,2.399181E-08,NaN,NaN,-0.02020976,1.396973E-10,1.993646E-07,-1.132444E-07,1.139189E-10,-2.861022E-08
399.9721,-0.1138335,-1.561846E-08,NaN,-1.024004,-1.351193E-07,NaN,0.4341352,-1.192868E-08,NaN,-2.17766,1.256134E-05,-0.3894655,2.397067E-08,NaN,NaN,-0.02020494,1.396973E-10,2.04133E-07,-1.132434E-07,4.119421E-10,-2.622604E-08
399.9876,-0.1118181,-1.561753E-08,NaN,-1.01986,-1.351188E-07,NaN,0.434415,-1.191031E-08,NaN,-2.176979,1.25619E-05,-0.3885489,2.395424E-08,NaN,NaN,-0.02020032,1.443539E-10,2.083053E-07,-1.132425E-07,-1.67422E-09,-2.861022E-08
400.0023,-0.1098481,-1.561661E-08,NaN,-1.015429,-1.351183E-07,NaN,0.4346767,-1.189076E-08,NaN,-2.176316,1.256246E-05,-0.3876906,2.393662E-08,NaN,NaN,-0.02019591,1.443539E-10,2.089014E-07,-1.132416E-07,-2.270267E-09,-2.622604E-08
400.0171,-0.1098481,-1.561661E-08,NaN,-1.015429,-1.351183E-07,NaN,0.4346767,-1.189076E-08,NaN,-2.176316,1.256246E-05,-0.3876906,2.393662E-08,NaN,NaN,-0.02019591,1.443539E-10,2.089014E-07,-1.132416E-07,-2.270267E-09,-2.622604E-08
400.0312,-0.1079113,-1.561568E-08,NaN,-1.010082,-1.351178E-07,NaN,0.4349869,-1.187146E-08,NaN,-2.175487,1.256303E-05,-0.3866479,2.391926E-08,NaN,NaN,-0.02019113,1.443539E-10,2.17246E-07,-1.132407E-07,-2.866313E-09,-2.861022E-08
400.0467,-0.1060198,-1.561476E-08,NaN,-1.004204,-1.351173E-07,NaN,0.4352597,-1.1851E-08,NaN,-2.174635,1.256359E-05,-0.3856581,2.390073E-08,NaN,NaN,-0.02018658,1.443539E-10,2.202263E-07,-1.132398E-07,-3.46236E-09,-2.622604E-08
400.0613,-0.1041726,-1.561384E-08,NaN,-0.9980283,-1.351168E-07,NaN,0.4355134,-1.183081E-08,NaN,-2.17381,1.256416E-05,-0.3847338,2.388248E-08,NaN,NaN,-0.02018224,1.443539E-10,2.249946E-07,-1.132389E-07,-4.952476E-09,-2.861022E-08
400.0762,-0.1041726,-1.561384E-08,NaN,-0.9980283,-1.351168E-07,NaN,0.4355134,-1.183081E-08,NaN,-2.17381,1.256416E-05,-0.3847338,2.388248E-08,NaN,NaN,-0.02018224,1.443539E-10,2.249946E-07,-1.132389E-07,-4.952476E-09,-2.861022E-08
400.09,-0.1023648,-1.561291E-08,NaN,-0.9916981,-1.351163E-07,NaN,0.4357632,-1.180947E-08,NaN,-2.173026,1.256472E-05,-0.3838591,2.386307E-08,NaN,NaN,-0.02017806,1.443539E-10,2.243986E-07,-1.13238E-07,-3.760383E-09,-2.622604E-08
400.1055,-0.1005831,-1.561199E-08,NaN,-0.9845392,-1.351158E-07,NaN,0.4360647,-1.178842E-08,NaN,-2.172082,1.256528E-05,-0.3827962,2.384396E-08,NaN,NaN,-0.02017349,1.443539E-10,2.321472E-07,-1.13237E-07,-4.058406E-09,-2.861022E-08
400.1202,-0.09883882,-1.561107E-08,NaN,-0.9769084,-1.351154E-07,NaN,0.4363289,-1.176765E-08,NaN,-2.171116,1.256585E-05,-0.3817837,2.382512E-08,NaN,NaN,-0.02016913,1.443539E-10,2.375116E-07,-1.132361E-07,-1.376198E-09,-2.622604E-08
400.135,-0.09883882,-1.561107E-08,NaN,-0.9769084,-1.351154E-07,NaN,0.4363289,-1.176765E-08,NaN,-2.171116,1.256585E-05,-0.3817837,2.382512E-08,NaN,NaN,-0.02016913,1.443539E-10,2.375116E-07,-1.132361E-07,-1.376198E-09,-2.622604E-08
400.1488,-0.09713182,-1.561014E-08,NaN,-0.9690236,-1.351149E-07,NaN,0.4365727,-1.174716E-08,NaN,-2.170179,1.256641E-05,-0.3808362,2.380657E-08,NaN,NaN,-0.02016498,1.443539E-10,2.416839E-07,-1.132353E-07,-1.972244E-09,-2.861022E-08
400.1653,-0.09545814,-1.560922E-08,NaN,-0.9610175,-1.351144E-07,NaN,0.436811,-1.172553E-08,NaN,-2.169282,1.256698E-05,-0.3799388,2.378687E-08,NaN,NaN,-0.02016098,1.443539E-10,2.452602E-07,-1.132344E-07,-4.058407E-09,-2.622604E-08
400.179,-0.09545814,-1.560922E-08,NaN,-0.9610175,-1.351144E-07,NaN,0.436811,-1.172553E-08,NaN,-2.169282,1.256698E-05,-0.3799388,2.378687E-08,NaN,NaN,-0.02016098,1.443539E-10,2.452602E-07,-1.132344E-07,-4.058407E-09,-2.622604E-08
400.1928,-0.09380578,-1.56083E-08,NaN,-0.9522099,-1.351139E-07,NaN,0.437098,-1.170419E-08,NaN,-2.168227,1.256754E-05,-0.3788588,2.376747E-08,NaN,NaN,-0.02015661,1.443539E-10,2.524127E-07,-1.132335E-07,-4.821283E-10,-2.861022E-08
400.2083,-0.09218581,-1.560737E-08,NaN,-0.9429533,-1.351134E-07,NaN,0.4373465,-1.168173E-08,NaN,-2.167152,1.25681E-05,-0.3778316,2.374695E-08,NaN,NaN,-0.02015244,1.443539E-10,2.565851E-07,-1.132326E-07,1.902057E-09,-2.622604E-08
400.2226,-0.09059843,-1.560645E-08,NaN,-0.933463,-1.35113E-07,NaN,0.4375739,-1.165958E-08,NaN,-2.166107,1.256867E-05,-0.376871,2.372673E-08,NaN,NaN,-0.02014849,1.443539E-10,2.631416E-07,-1.132317E-07,1.306011E-09,-2.861022E-08
400.2375,-0.09059843,-1.560645E-08,NaN,-0.933463,-1.35113E-07,NaN,0.4375739,-1.165958E-08,NaN,-2.166107,1.256867E-05,-0.376871,2.372673E-08,NaN,NaN,-0.02014849,1.443539E-10,2.631416E-07,-1.132317E-07,1.306011E-09,-2.861022E-08
400.2514,-0.08903289,-1.560552E-08,NaN,-0.9231089,-1.351125E-07,NaN,0.4378421,-1.163632E-08,NaN,-2.164907,1.256923E-05,-0.3757448,2.370541E-08,NaN,NaN,-0.0201442,1.443539E-10,2.726783E-07,-1.132308E-07,1.604034E-09,-2.622604E-08
400.2669,-0.08749937,-1.56046E-08,NaN,-0.912274,-1.35112E-07,NaN,0.4380701,-1.161338E-08,NaN,-2.163695,1.25698E-05,-0.3746811,2.368441E-08,NaN,NaN,-0.02014014,1.443539E-10,2.81619E-07,-1.132299E-07,1.604034E-09,-2.861022E-08
400.2816,-0.0859974,-1.560368E-08,NaN,-0.9011924,-1.351115E-07,NaN,0.4382771,-1.158936E-08,NaN,-2.162521,1.257036E-05,-0.3736899,2.366232E-08,NaN,NaN,-0.02013629,1.443539E-10,2.851953E-07,-1.132291E-07,1.007988E-09,-2.622604E-08
400.2965,-0.0859974,-1.560368E-08,NaN,-0.9011924,-1.351115E-07,NaN,0.4382771,-1.158936E-08,NaN,-2.162521,1.257036E-05,-0.3736899,2.366232E-08,NaN,NaN,-0.02013629,1.443539E-10,2.851953E-07,-1.132291E-07,1.007988E-09,-2.622604E-08
400.3104,-0.08452332,-1.560275E-08,NaN,-0.8900073,-1.351111E-07,NaN,0.4384786,-1.156567E-08,NaN,-2.161399,1.257092E-05,-0.372755,2.364057E-08,NaN,NaN,-0.02013261,1.443539E-10,2.905597E-07,-1.132282E-07,-1.376198E-09,-2.861022E-08
400.3261,-0.08307317,-1.560183E-08,NaN,-0.8788064,-1.351106E-07,NaN,0.4386805,-1.15409E-08,NaN,-2.160326,1.257149E-05,-0.3718635,2.361774E-08,NaN,NaN,-0.02012905,1.443539E-10,2.923479E-07,-1.132273E-07,1.139181E-10,-2.622604E-08
400.3405,-0.0816437,-1.560091E-08,NaN,-0.8676436,-1.351101E-07,NaN,0.4388838,-1.151649E-08,NaN,-2.159298,1.257205E-05,-0.3710081,2.359527E-08,NaN,NaN,-0.02012558,1.443539E-10,2.94136E-07,-1.132265E-07,2.498104E-09,-2.861022E-08
400.3553,-0.0816437,-1.560091E-08,NaN,-0.8676436,-1.351101E-07,NaN,0.4388838,-1.151649E-08,NaN,-2.159298,1.257205E-05,-0.3710081,2.359527E-08,NaN,NaN,-0.02012558,1.443539E-10,2.94136E-07,-1.132265E-07,2.498104E-09,-2.861022E-08
400.3694,-0.08023251,-1.559998E-08,NaN,-0.8565515,-1.351097E-07,NaN,0.4390881,-1.149102E-08,NaN,-2.158307,1.257261E-05,-0.3701842,2.357173E-08,NaN,NaN,-0.02012221,1.396973E-10,2.953281E-07,-1.132256E-07,2.200081E-09,-2.622604E-08
400.389,-0.0788379,-1.559906E-08,NaN,-0.8455501,-1.351092E-07,NaN,0.4392924,-1.146593E-08,NaN,-2.157349,1.257318E-05,-0.369389,2.354857E-08,NaN,NaN,-0.02011892,1.350407E-10,2.995005E-07,-1.132247E-07,-1.84105E-10,-2.861022E-08
400.4026,-0.07746536,-1.559813E-08,NaN,-0.8354129,-1.351087E-07,NaN,0.4394532,-1.143978E-08,NaN,-2.156621,1.257374E-05,-0.368829,2.352436E-08,NaN,NaN,-0.02011619,1.303841E-10,2.947321E-07,-1.132239E-07,7.099647E-10,-2.622604E-08
400.4187,-0.07746536,-1.559813E-08,NaN,-0.8354129,-1.351087E-07,NaN,0.4394532,-1.143978E-08,NaN,-2.156621,1.257374E-05,-0.368829,2.352436E-08,NaN,NaN,-0.02011619,1.303841E-10,2.947321E-07,-1.132239E-07,7.099647E-10,-2.622604E-08
400.43,-0.07610279,-1.559721E-08,NaN,-0.8258458,-1.351083E-07,NaN,0.4396529,-1.141401E-08,NaN,-2.155975,1.25743E-05,-0.3682719,2.350053E-08,NaN,NaN,-0.02011342,1.257275E-10,2.917519E-07,-1.13223E-07,7.099647E-10,-2.861022E-08
400.4432,-0.0747472,-1.559629E-08,NaN,-0.816668,-1.351078E-07,NaN,0.4398726,-1.138721E-08,NaN,-2.155354,1.257485E-05,-0.3677014,2.347566E-08,NaN,NaN,-0.02011063,1.210708E-10,2.905598E-07,-1.132222E-07,1.139183E-10,-2.622604E-08
400.4579,-0.0747472,-1.559629E-08,NaN,-0.816668,-1.351078E-07,NaN,0.4398726,-1.138721E-08,NaN,-2.155354,1.257485E-05,-0.3677014,2.347566E-08,NaN,NaN,-0.02011063,1.210708E-10,2.905598E-07,-1.132222E-07,1.139183E-10,-2.622604E-08
400.4719,-0.0734053,-1.559536E-08,NaN,-0.8085295,-1.351074E-07,NaN,0.4400545,-1.13608E-08,NaN,-2.154938,1.257541E-05,-0.3673348,2.345119E-08,NaN,NaN,-0.0201083,1.164142E-10,2.863874E-07,-1.132213E-07,-1.078175E-09,-2.861022E-08
400.4875,-0.07206805,-1.559444E-08,NaN,-0.8010606,-1.351069E-07,NaN,0.4402735,-1.133337E-08,NaN,-2.15458,1.257597E-05,-0.3669524,2.342569E-08,NaN,NaN,-0.02010591,1.117576E-10,2.822151E-07,-1.132205E-07,-3.46236E-09,-2.622604E-08
400.5018,-0.07073432,-1.559352E-08,NaN,-0.7940332,-1.351065E-07,NaN,0.4405095,-1.130635E-08,NaN,-2.154225,1.257653E-05,-0.3665442,2.34006E-08,NaN,NaN,-0.02010348,1.07101E-10,2.81023E-07,-1.132197E-07,-4.058407E-09,-2.861022E-08
400.5166,-0.07073432,-1.559352E-08,NaN,-0.7940332,-1.351065E-07,NaN,0.4405095,-1.130635E-08,NaN,-2.154225,1.257653E-05,-0.3665442,2.34006E-08,NaN,NaN,-0.02010348,1.07101E-10,2.81023E-07,-1.132197E-07,-4.058407E-09,-2.861022E-08
400.5306,-0.06940573,-1.559259E-08,NaN,-0.7873065,-1.35106E-07,NaN,0.4407469,-1.127832E-08,NaN,-2.153858,1.257709E-05,-0.3661242,2.33745E-08,NaN,NaN,-0.02010104,1.024444E-10,2.798309E-07,-1.132188E-07,-2.866314E-09,-2.622604E-08
400.5463,-0.0680906,-1.559167E-08,NaN,-0.7815548,-1.351056E-07,NaN,0.4409385,-1.125071E-08,NaN,-2.153679,1.257765E-05,-0.3659078,2.334883E-08,NaN,NaN,-0.02009908,9.778777E-11,2.726784E-07,-1.13218E-07,-1.674221E-09,-2.861022E-08
400.5609,-0.06678148,-1.559074E-08,NaN,-0.7764238,-1.351051E-07,NaN,0.4411642,-1.12235E-08,NaN,-2.153549,1.25782E-05,-0.3656744,2.332356E-08,NaN,NaN,-0.02009708,9.313116E-11,2.649298E-07,-1.132172E-07,7.099645E-10,-2.622604E-08
400.5756,-0.06678148,-1.559074E-08,NaN,-0.7764238,-1.351051E-07,NaN,0.4411642,-1.12235E-08,NaN,-2.153549,1.25782E-05,-0.3656744,2.332356E-08,NaN,NaN,-0.02009708,9.313116E-11,2.649298E-07,-1.132172E-07,7.099645E-10,-2.622604E-08
400.5897,-0.0654774,-1.558982E-08,NaN,-0.7716947,-1.351046E-07,NaN,0.4414061,-1.119529E-08,NaN,-2.153415,1.257876E-05,-0.3654122,2.329729E-08,NaN,NaN,-0.02009501,8.847454E-11,2.607574E-07,-1.132163E-07,-4.821283E-10,-2.861022E-08
400.605,-0.06417973,-1.55889E-08,NaN,-0.7672323,-1.351042E-07,NaN,0.4416496,-1.116751E-08,NaN,-2.153264,1.257932E-05,-0.3651345,2.327143E-08,NaN,NaN,-0.02009293,8.381792E-11,2.559891E-07,-1.132155E-07,7.099645E-10,-2.622604E-08
400.6198,-0.06417973,-1.55889E-08,NaN,-0.7672323,-1.351042E-07,NaN,0.4416496,-1.116751E-08,NaN,-2.153264,1.257932E-05,-0.3651345,2.327143E-08,NaN,NaN,-0.02009293,8.381792E-11,2.559891E-07,-1.132155E-07,7.099645E-10,-2.622604E-08
400.6338,-0.06289631,-1.558797E-08,NaN,-0.7637144,-1.351037E-07,NaN,0.4418477,-1.113873E-08,NaN,-2.153296,1.257987E-05,-0.3650554,2.324459E-08,NaN,NaN,-0.02009133,7.916131E-11,2.470483E-07,-1.132147E-07,1.139181E-10,-2.861022E-08
400.6493,-0.06162012,-1.558705E-08,NaN,-0.7607894,-1.351033E-07,NaN,0.4420801,-1.111038E-08,NaN,-2.153372,1.258042E-05,-0.3649551,2.321818E-08,NaN,NaN,-0.02008965,7.450469E-11,2.392997E-07,-1.132139E-07,-1.078175E-09,-2.622604E-08
400.6639,-0.06034999,-1.558613E-08,NaN,-0.75824,-1.351029E-07,NaN,0.4423289,-1.108105E-08,NaN,-2.15344,1.258098E-05,-0.3648221,2.319078E-08,NaN,NaN,-0.02008791,6.984808E-11,2.333393E-07,-1.13213E-07,-1.674221E-09,-2.861022E-08
400.6786,-0.06034999,-1.558613E-08,NaN,-0.75824,-1.351029E-07,NaN,0.4423289,-1.108105E-08,NaN,-2.15344,1.258098E-05,-0.3648221,2.319078E-08,NaN,NaN,-0.02008791,6.984808E-11,2.333393E-07,-1.13213E-07,-1.674221E-09,-2.861022E-08
400.6947,-0.05909283,-1.55852E-08,NaN,-0.7566934,-1.351024E-07,NaN,0.442538,-1.105217E-08,NaN,-2.153686,1.258153E-05,-0.3648736,2.316383E-08,NaN,NaN,-0.0200866,6.519146E-11,2.226104E-07,-1.132122E-07,-2.270268E-09,-2.622604E-08
400.7079,-0.05784194,-1.558428E-08,NaN,-0.7557672,-1.35102E-07,NaN,0.4427824,-1.102231E-08,NaN,-2.153966,1.258209E-05,-0.3648947,2.313591E-08,NaN,NaN,-0.0200852,6.053485E-11,2.124776E-07,-1.132114E-07,-1.078175E-09,-2.861022E-08
400.7224,-0.0565963,-1.558336E-08,NaN,-0.7552248,-1.351015E-07,NaN,0.4430428,-1.132252E-08,NaN,-2.154228,1.258264E-05,-0.3648762,2.343805E-08,NaN,NaN,-0.02008372,6.053485E-11,2.059211E-07,-1.132106E-07,-1.078175E-09,-2.622604E-08
400.7373,-0.0565963,-1.558336E-08,NaN,-0.7552248,-1.351015E-07,NaN,0.4430428,-1.132252E-08,NaN,-2.154228,1.258264E-05,-0.3648762,2.343805E-08,NaN,NaN,-0.02008372,6.053485E-11,2.059211E-07,-1.132106E-07,-1.078175E-09,-2.622604E-08
400.7511,-0.05535709,-1.558243E-08,NaN,-0.7549196,-1.351011E-07,NaN,0.443304,-1.161531E-08,NaN,-2.154459,1.258319E-05,-0.3648328,2.373278E-08,NaN,NaN,-0.02008221,6.519146E-11,1.996627E-07,-1.132098E-07,-2.270268E-09,-2.861022E-08
400.7668,-0.05413184,-1.558151E-08,NaN,-0.7555192,-1.351006E-07,NaN,0.443519,-1.190225E-08,NaN,-2.15486,1.258375E-05,-0.3649792,2.402165E-08,NaN,NaN,-0.02008116,6.984808E-11,1.856556E-07,-1.13209E-07,-5.2505E-09,-2.622604E-08
400.7814,-0.05292099,-1.558058E-08,NaN,-0.7566729,-1.351002E-07,NaN,0.4437709,-1.218204E-08,NaN,-2.155292,1.258431E-05,-0.3650976,2.430337E-08,NaN,NaN,-0.02008003,6.984808E-11,1.764168E-07,-1.132082E-07,-6.442592E-09,-2.861022E-08
400.7961,-0.05292099,-1.558058E-08,NaN,-0.7566729,-1.351002E-07,NaN,0.4437709,-1.218204E-08,NaN,-2.155292,1.258431E-05,-0.3650976,2.430337E-08,NaN,NaN,-0.02008003,6.984808E-11,1.764168E-07,-1.132082E-07,-6.442592E-09,-2.861022E-08
400.8102,-0.05172644,-1.557966E-08,NaN,-0.7581608,-1.350998E-07,NaN,0.4440434,-1.245622E-08,NaN,-2.1557,1.258486E-05,-0.3651747,2.45795E-08,NaN,NaN,-0.02007881,7.450469E-11,1.671781E-07,-1.132074E-07,-4.654453E-09,-2.622604E-08
400.8254,-0.05054837,-1.557874E-08,NaN,-0.7598468,-1.350993E-07,NaN,0.4443204,-1.272351E-08,NaN,-2.156074,1.258541E-05,-0.3652238,2.484871E-08,NaN,NaN,-0.02007756,7.916131E-11,1.591315E-07,-1.132066E-07,-4.654453E-09,-2.861022E-08
400.8404,-0.04939216,-1.557781E-08,NaN,-0.7624085,-1.350989E-07,NaN,0.4445521,-1.298688E-08,NaN,-2.156617,1.258597E-05,-0.3654624,2.511402E-08,NaN,NaN,-0.02007676,8.381792E-11,1.445284E-07,-1.132058E-07,-5.846545E-09,-2.622604E-08
400.8551,-0.04939216,-1.557781E-08,NaN,-0.7624085,-1.350989E-07,NaN,0.4445521,-1.298688E-08,NaN,-2.156617,1.258597E-05,-0.3654624,2.511402E-08,NaN,NaN,-0.02007676,8.381792E-11,1.445284E-07,-1.132058E-07,-5.846545E-09,-2.622604E-08
400.8693,-0.04825707,-1.557689E-08,NaN,-0.7654953,-1.350985E-07,NaN,0.4448226,-1.324498E-08,NaN,-2.157186,1.258653E-05,-0.3656693,2.537406E-08,NaN,NaN,-0.02007586,8.381792E-11,1.340976E-07,-1.13205E-07,-5.846545E-09,-2.861022E-08
400.8845,-0.04714127,-1.557597E-08,NaN,-0.7688903,-1.35098E-07,NaN,0.4451133,-1.349649E-08,NaN,-2.15773,1.258708E-05,-0.3658321,2.56275E-08,NaN,NaN,-0.02007488,8.381792E-11,1.257529E-07,-1.132043E-07,-5.250499E-09,-2.622604E-08
400.9008,-0.04604283,-1.557504E-08,NaN,-0.7724591,-1.350976E-07,NaN,0.4454077,-1.374296E-08,NaN,-2.158237,1.258764E-05,-0.3659645,2.587591E-08,NaN,NaN,-0.02007385,8.847454E-11,1.168122E-07,-1.132035E-07,-4.654453E-09,-2.861022E-08
400.9145,-0.04604283,-1.557504E-08,NaN,-0.7724591,-1.350976E-07,NaN,0.4454077,-1.374296E-08,NaN,-2.158237,1.258764E-05,-0.3659645,2.587591E-08,NaN,NaN,-0.02007385,8.847454E-11,1.168122E-07,-1.132035E-07,-4.654453E-09,-2.861022E-08
400.9283,-0.04496607,-1.557412E-08,NaN,-0.7768804,-1.350972E-07,NaN,0.4456549,-1.398307E-08,NaN,-2.158911,1.258819E-05,-0.3662861,2.611795E-08,NaN,NaN,-0.02007327,9.313116E-11,1.01911E-07,-1.132027E-07,-4.654453E-09,-2.622604E-08
400.9445,-0.04390921,-1.557319E-08,NaN,-0.7818049,-1.350968E-07,NaN,0.4459402,-1.421836E-08,NaN,-2.159608,1.258875E-05,-0.3665742,2.635517E-08,NaN,NaN,-0.0200726,9.778777E-11,9.148024E-08,-1.132019E-07,-6.442592E-09,-2.861022E-08
400.9592,-0.04390921,-1.557319E-08,NaN,-0.7818049,-1.350968E-07,NaN,0.4459402,-1.421836E-08,NaN,-2.159608,1.258875E-05,-0.3665742,2.635517E-08,NaN,NaN,-0.0200726,9.778777E-11,9.148024E-08,-1.132019E-07,-6.442592E-09,-2.861022E-08
400.9722,-0.04287003,-1.557227E-08,NaN,-0.787016,-1.350963E-07,NaN,0.4462455,-1.444892E-08,NaN,-2.160277,1.25893E-05,-0.3668157,2.658766E-08,NaN,NaN,-0.02007182,1.024444E-10,7.896326E-08,-1.132011E-07,-5.2505E-09,-2.622604E-08
400.9877,-0.04185258,-1.557135E-08,NaN,-0.7931415,-1.350959E-07,NaN,0.4465097,-1.467343E-08,NaN,-2.161109,1.258986E-05,-0.3672351,2.68141E-08,NaN,NaN,-0.02007145,9.778777E-11,6.257198E-08,-1.132004E-07,-2.866314E-09,-2.861022E-08
401.0023,-0.04085445,-1.557042E-08,NaN,-0.7998009,-1.350955E-07,NaN,0.4468137,-1.483425E-08,NaN,-2.161957,1.259042E-05,-0.3676127,2.697686E-08,NaN,NaN,-0.02007097,9.778777E-11,5.005501E-08,-1.131997E-07,-1.674221E-09,-2.622604E-08
401.0169,-0.04085445,-1.557042E-08,NaN,-0.7998009,-1.350955E-07,NaN,0.4468137,-1.483425E-08,NaN,-2.161957,1.259042E-05,-0.3676127,2.697686E-08,NaN,NaN,-0.02007097,9.778777E-11,5.005501E-08,-1.131997E-07,-1.674221E-09,-2.622604E-08
401.031,-0.03987306,-1.55695E-08,NaN,-0.8067582,-1.35095E-07,NaN,0.4471375,-1.498757E-08,NaN,-2.162768,1.259099E-05,-0.3679378,2.713211E-08,NaN,NaN,-0.02007038,9.313116E-11,3.813408E-08,-1.13199E-07,-1.078175E-09,-2.861022E-08
401.0465,-0.03890626,-1.556858E-08,NaN,-0.8138674,-1.350946E-07,NaN,0.447464,-1.513636E-08,NaN,-2.163532,1.259154E-05,-0.3682255,2.728283E-08,NaN,NaN,-0.02006974,9.313116E-11,2.531909E-08,-1.131983E-07,-1.674221E-09,-2.622604E-08
401.0611,-0.03795871,-1.556765E-08,NaN,-0.8217999,-1.350942E-07,NaN,0.44774,-1.528071E-08,NaN,-2.164454,1.25921E-05,-0.3687015,2.742911E-08,NaN,NaN,-0.02006954,9.778777E-11,8.033739E-09,-1.131976E-07,-1.078175E-09,-2.861022E-08
401.0759,-0.03795871,-1.556765E-08,NaN,-0.8217999,-1.350942E-07,NaN,0.44774,-1.528071E-08,NaN,-2.164454,1.25921E-05,-0.3687015,2.742911E-08,NaN,NaN,-0.02006954,9.778777E-11,8.033739E-09,-1.131976E-07,-1.078175E-09,-2.861022E-08
401.0898,-0.037028,-1.556673E-08,NaN,-0.8302024,-1.350938E-07,NaN,0.4480538,-1.54207E-08,NaN,-2.165391,1.259266E-05,-0.3691398,2.757104E-08,NaN,NaN,-0.02006923,9.778777E-11,-7.761491E-09,-1.13197E-07,-1.674221E-09,-2.622604E-08
401.1053,-0.03611182,-1.55658E-08,NaN,-0.8388561,-1.350934E-07,NaN,0.4483877,-1.555642E-08,NaN,-2.166292,1.259322E-05,-0.3695262,2.770869E-08,NaN,NaN,-0.02006882,9.778777E-11,-1.81923E-08,-1.131963E-07,-4.058407E-09,-2.861022E-08
401.1203,-0.03520833,-1.556488E-08,NaN,-0.8476254,-1.350934E-07,NaN,0.4487251,-1.555411E-08,NaN,-2.167147,1.259377E-05,-0.3698744,2.770831E-08,NaN,NaN,-0.02006834,9.778777E-11,-3.011323E-08,-1.131947E-07,-4.654453E-09,-2.622604E-08
401.1349,-0.03520833,-1.556488E-08,NaN,-0.8476254,-1.350934E-07,NaN,0.4487251,-1.555411E-08,NaN,-2.167147,1.259377E-05,-0.3698744,2.770831E-08,NaN,NaN,-0.02006834,9.778777E-11,-3.011323E-08,-1.131947E-07,-4.654453E-09,-2.622604E-08
401.1491,-0.0343228,-1.556396E-08,NaN,-0.8571882,-1.350934E-07,NaN,0.4490113,-1.557005E-08,NaN,-2.168159,1.259433E-05,-0.370413,2.772618E-08,NaN,NaN,-0.02006831,9.778777E-11,-4.620648E-08,-1.131931E-07,-4.058407E-09,-2.861022E-08
401.1646,-0.03345259,-1.556303E-08,NaN,-0.8671958,-1.350933E-07,NaN,0.4493362,-1.559402E-08,NaN,-2.169186,1.25949E-05,-0.3709128,2.775207E-08,NaN,NaN,-0.02006817,8.847455E-11,-5.753137E-08,-1.131914E-07,-4.654453E-09,-2.622604E-08
401.1792,-0.03345259,-1.556303E-08,NaN,-0.8671958,-1.350933E-07,NaN,0.4493362,-1.559402E-08,NaN,-2.169186,1.25949E-05,-0.3709128,2.775207E-08,NaN,NaN,-0.02006817,8.847455E-11,-5.753137E-08,-1.131914E-07,-4.654453E-09,-2.622604E-08
401.1952,-0.03259546,-1.556211E-08,NaN,-0.877432,-1.350932E-07,NaN,0.4496822,-1.562022E-08,NaN,-2.170177,1.259546E-05,-0.3713588,2.778019E-08,NaN,NaN,-0.02006791,8.847455E-11,-6.82602E-08,-1.131896E-07,-6.740616E-09,-2.861022E-08
401.2096,-0.0317566,-1.556119E-08,NaN,-0.8885245,-1.35093E-07,NaN,0.4499834,-1.564719E-08,NaN,-2.171322,1.259602E-05,-0.3719847,2.780909E-08,NaN,NaN,-0.02006807,8.847455E-11,-8.733369E-08,-1.131879E-07,-7.634686E-09,-2.622604E-08
401.2231,-0.03093274,-1.556026E-08,NaN,-0.9000939,-1.350929E-07,NaN,0.4503257,-1.567493E-08,NaN,-2.172474,1.259658E-05,-0.3725638,2.783876E-08,NaN,NaN,-0.0200681,8.847455E-11,-1.016388E-07,-1.131862E-07,-8.230733E-09,-2.861022E-08
401.2379,-0.03093274,-1.556026E-08,NaN,-0.9000939,-1.350929E-07,NaN,0.4503257,-1.567493E-08,NaN,-2.172474,1.259658E-05,-0.3725638,2.783876E-08,NaN,NaN,-0.0200681,8.847455E-11,-1.016388E-07,-1.131862E-07,-8.230733E-09,-2.861022E-08
401.2519,-0.03012134,-1.555934E-08,NaN,-0.9119045,-1.350928E-07,NaN,0.4506895,-1.570201E-08,NaN,-2.173582,1.259713E-05,-0.3730831,2.786776E-08,NaN,NaN,-0.020068,8.847455E-11,-1.117716E-07,-1.131845E-07,-8.230733E-09,-2.622604E-08
401.2672,-0.02932063,-1.555842E-08,NaN,-0.9238105,-1.350926E-07,NaN,0.451057,-1.572703E-08,NaN,-2.174633,1.259769E-05,-0.3735578,2.789471E-08,NaN,NaN,-0.02006782,8.847455E-11,-1.248846E-07,-1.131828E-07,-9.720848E-09,-2.861022E-08
401.2831,-0.02853672,-1.555749E-08,NaN,-0.9364837,-1.350925E-07,NaN,0.4513699,-1.575145E-08,NaN,-2.175836,1.259825E-05,-0.3742249,2.792105E-08,NaN,NaN,-0.02006811,8.847455E-11,-1.415739E-07,-1.131811E-07,-1.031689E-08,-2.622604E-08
