JMolnar6/NonAnthroHands_User_Study/HandsLoggerWithURDF/tempdata/files/Reachy_PID0_JointMotion_gesture_4_20.csv
Time,r_shoulder,r_shoulder_x,r_upper_arm,r_forearm,r_wrist,r_wrist2hand,
233.1991,0.04500187,-2.39953E-08,NaN,-0.3269989,-1.366316E-07,NaN,0.4710144,-6.423436E-08,NaN,-0.5248995,7.497561E-06,-0.3829814,3.832945E-08,NaN,NaN,-0.01996953,-3.771861E-10,1.774304E-07,-1.143661E-07,1.686379E-08,-2.622604E-08
233.2124,0.04500188,-2.399421E-08,NaN,-0.3269989,-1.366301E-07,NaN,0.471162,-6.540038E-08,NaN,-0.5260084,7.498194E-06,-0.3831795,3.888293E-08,NaN,NaN,-0.01997312,-3.585597E-10,1.497142E-07,-1.143649E-07,1.209542E-08,-2.861022E-08
233.228,0.04500189,-2.399312E-08,NaN,-0.3269989,-1.366285E-07,NaN,0.4712977,-6.656639E-08,NaN,-0.5278176,7.498837E-06,-0.3833913,3.943282E-08,NaN,NaN,-0.01997514,-3.492464E-10,1.333229E-07,-1.143638E-07,1.209542E-08,-2.622604E-08
233.2428,0.0450019,-2.399203E-08,NaN,-0.3269989,-1.366269E-07,NaN,0.4713891,-6.773241E-08,NaN,-0.5299421,7.499484E-06,-0.3835644,3.997913E-08,NaN,NaN,-0.01997651,-3.399332E-10,1.21253E-07,-1.143626E-07,1.44796E-08,-2.861022E-08
233.2575,0.0450019,-2.399203E-08,NaN,-0.3269989,-1.366269E-07,NaN,0.4713891,-6.773241E-08,NaN,-0.5299421,7.499484E-06,-0.3835644,3.997913E-08,NaN,NaN,-0.01997651,-3.399332E-10,1.21253E-07,-1.143626E-07,1.44796E-08,-2.861022E-08
233.2715,0.0450019,-2.399094E-08,NaN,-0.3269989,-1.366254E-07,NaN,0.4713006,-6.889842E-08,NaN,-0.5309649,7.500117E-06,-0.3835026,4.05219E-08,NaN,NaN,-0.01997404,-3.166502E-10,1.418166E-07,-1.143614E-07,1.209542E-08,-2.622604E-08
233.2869,0.04500189,-2.398985E-08,NaN,-0.3269989,-1.366238E-07,NaN,0.4712045,-7.006444E-08,NaN,-0.531333,7.500755E-06,-0.3834011,4.106115E-08,NaN,NaN,-0.019973,-2.980237E-10,1.498632E-07,-1.143602E-07,1.686379E-08,-2.861022E-08
233.3017,0.04500189,-2.398876E-08,NaN,-0.3269989,-1.366222E-07,NaN,0.4711415,-7.123045E-08,NaN,-0.5313897,7.501407E-06,-0.3833207,4.159689E-08,NaN,NaN,-0.01997251,-2.887105E-10,1.531415E-07,-1.143591E-07,1.44796E-08,-2.622604E-08
233.3163,0.04500189,-2.398876E-08,NaN,-0.3269989,-1.366222E-07,NaN,0.4711415,-7.123045E-08,NaN,-0.5313897,7.501407E-06,-0.3833207,4.159689E-08,NaN,NaN,-0.01997251,-2.887105E-10,1.531415E-07,-1.143591E-07,1.44796E-08,-2.622604E-08
233.3304,0.04500189,-2.398767E-08,NaN,-0.3269989,-1.366206E-07,NaN,0.4711072,-7.239647E-08,NaN,-0.5312986,7.502059E-06,-0.3832667,4.212916E-08,NaN,NaN,-0.01997224,-2.793973E-10,1.550786E-07,-1.143579E-07,1.44796E-08,-2.861022E-08
233.3458,0.04500188,-2.398658E-08,NaN,-0.3269989,-1.366191E-07,NaN,0.4709451,-7.356248E-08,NaN,-0.5299052,7.502711E-06,-0.383035,4.265797E-08,NaN,NaN,-0.01996853,-2.70084E-10,1.85924E-07,-1.143567E-07,1.209542E-08,-2.622604E-08
233.3625,0.04500186,-2.398549E-08,NaN,-0.3269989,-1.366175E-07,NaN,0.4708027,-7.47285E-08,NaN,-0.5277821,7.503368E-06,-0.3828004,4.318335E-08,NaN,NaN,-0.01996638,-2.654274E-10,2.036564E-07,-1.143555E-07,1.686379E-08,-2.861022E-08
233.3765,0.04500186,-2.398549E-08,NaN,-0.3269989,-1.366175E-07,NaN,0.4708027,-7.47285E-08,NaN,-0.5277821,7.503368E-06,-0.3828004,4.318335E-08,NaN,NaN,-0.01996638,-2.654274E-10,2.036564E-07,-1.143555E-07,1.686379E-08,-2.861022E-08
233.3892,0.04500186,-2.39844E-08,NaN,-0.3269989,-1.366159E-07,NaN,0.4707066,-7.589451E-08,NaN,-0.5253323,7.504015E-06,-0.3826099,4.370532E-08,NaN,NaN,-0.01996487,-2.46801E-10,2.167694E-07,-1.143543E-07,1.686379E-08,-2.622604E-08
233.4048,0.04500185,-2.398331E-08,NaN,-0.3269989,-1.366148E-07,NaN,0.4706448,-7.498829E-08,NaN,-0.5227484,7.504662E-06,-0.3824599,4.228439E-08,NaN,NaN,-0.01996363,-2.328311E-10,2.269022E-07,-1.143553E-07,7.327044E-09,-2.861022E-08
233.4193,0.04500185,-2.398331E-08,NaN,-0.3269989,-1.366148E-07,NaN,0.4706448,-7.498829E-08,NaN,-0.5227484,7.504662E-06,-0.3824599,4.228439E-08,NaN,NaN,-0.01996363,-2.328311E-10,2.269022E-07,-1.143553E-07,7.327044E-09,-2.861022E-08
233.4334,0.04500183,-2.398222E-08,NaN,-0.3269989,-1.366145E-07,NaN,0.4704553,-7.450364E-08,NaN,-0.5188891,7.505309E-06,-0.3821396,4.139422E-08,NaN,NaN,-0.01995886,-2.235179E-10,2.650492E-07,-1.143554E-07,1.209542E-08,-2.622604E-08
233.4488,0.04500182,-2.398113E-08,NaN,-0.3269989,-1.366142E-07,NaN,0.4702844,-7.401898E-08,NaN,-0.5143333,7.505971E-06,-0.3818208,4.05853E-08,NaN,NaN,-0.01995571,-2.281745E-10,2.894871E-07,-1.143554E-07,1.44796E-08,-2.861022E-08
233.465,0.0450018,-2.398004E-08,NaN,-0.3269989,-1.36614E-07,NaN,0.4701599,-7.353433E-08,NaN,-0.5094866,7.506618E-06,-0.3815502,3.983708E-08,NaN,NaN,-0.01995321,-2.188613E-10,3.088586E-07,-1.143554E-07,1.686379E-08,-2.622604E-08
233.4784,0.0450018,-2.398004E-08,NaN,-0.3269989,-1.36614E-07,NaN,0.4701599,-7.353433E-08,NaN,-0.5094866,7.506618E-06,-0.3815502,3.983708E-08,NaN,NaN,-0.01995321,-2.188613E-10,3.088586E-07,-1.143554E-07,1.686379E-08,-2.622604E-08
233.4926,0.04500178,-2.397895E-08,NaN,-0.3269989,-1.366137E-07,NaN,0.4699192,-7.304968E-08,NaN,-0.5033097,7.507279E-06,-0.3811224,3.913443E-08,NaN,NaN,-0.01994716,-2.235179E-10,3.546051E-07,-1.143554E-07,1.209542E-08,-2.861022E-08
233.5082,0.04500176,-2.397785E-08,NaN,-0.3269989,-1.366135E-07,NaN,0.4697054,-7.256502E-08,NaN,-0.4964291,7.507931E-06,-0.3807074,3.846624E-08,NaN,NaN,-0.01994282,-2.188613E-10,3.866426E-07,-1.143554E-07,1.44796E-08,-2.622604E-08
233.5227,0.04500174,-2.397676E-08,NaN,-0.3269989,-1.366132E-07,NaN,0.4695442,-7.208037E-08,NaN,-0.4892735,7.508588E-06,-0.3803496,3.782436E-08,NaN,NaN,-0.01993918,-2.188613E-10,4.118256E-07,-1.143554E-07,9.71123E-09,-2.861022E-08
233.5374,0.04500174,-2.397676E-08,NaN,-0.3269989,-1.366132E-07,NaN,0.4695442,-7.208037E-08,NaN,-0.4892735,7.508588E-06,-0.3803496,3.782436E-08,NaN,NaN,-0.01993918,-2.188613E-10,4.118256E-07,-1.143554E-07,9.71123E-09,-2.861022E-08
233.5514,0.04500173,-2.397567E-08,NaN,-0.3269989,-1.366129E-07,NaN,0.4694227,-7.159571E-08,NaN,-0.482047,7.50924E-06,-0.380043,3.720276E-08,NaN,NaN,-0.01993582,-2.095481E-10,4.359655E-07,-1.143553E-07,7.327044E-09,-2.622604E-08
233.5671,0.04500171,-2.397458E-08,NaN,-0.3269989,-1.366126E-07,NaN,0.4693063,-7.111106E-08,NaN,-0.4747015,7.509906E-06,-0.3797489,3.659705E-08,NaN,NaN,-0.01993207,-2.142047E-10,4.593603E-07,-1.143553E-07,7.327044E-09,-2.861022E-08
233.5818,0.0450017,-2.397349E-08,NaN,-0.3269989,-1.366123E-07,NaN,0.4692039,-7.062641E-08,NaN,-0.4673454,7.510567E-06,-0.3794778,3.600397E-08,NaN,NaN,-0.01992856,-2.095481E-10,4.81265E-07,-1.143552E-07,2.558673E-09,-2.622604E-08
233.5962,0.0450017,-2.397349E-08,NaN,-0.3269989,-1.366123E-07,NaN,0.4692039,-7.062641E-08,NaN,-0.4673454,7.510567E-06,-0.3794778,3.600397E-08,NaN,NaN,-0.01992856,-2.095481E-10,4.81265E-07,-1.143552E-07,2.558673E-09,-2.622604E-08
233.6126,0.04500168,-2.39724E-08,NaN,-0.3269989,-1.36612E-07,NaN,0.4691143,-7.014175E-08,NaN,-0.4600452,7.511233E-06,-0.3792289,3.542113E-08,NaN,NaN,-0.01992513,-2.095481E-10,5.012326E-07,-1.143552E-07,7.327044E-09,-2.861022E-08
233.6272,0.04500167,-2.397131E-08,NaN,-0.3269989,-1.366117E-07,NaN,0.4690342,-6.96571E-08,NaN,-0.4528317,7.511894E-06,-0.3789982,3.484677E-08,NaN,NaN,-0.01992172,-2.095481E-10,5.203061E-07,-1.143551E-07,2.558673E-09,-2.622604E-08
233.6406,0.04500165,-2.397022E-08,NaN,-0.3269989,-1.366113E-07,NaN,0.4689612,-6.917244E-08,NaN,-0.4457186,7.512555E-06,-0.3787821,3.427958E-08,NaN,NaN,-0.01991831,-2.095481E-10,5.384855E-07,-1.143551E-07,1.744871E-10,-2.861022E-08
233.6553,0.04500165,-2.397022E-08,NaN,-0.3269989,-1.366113E-07,NaN,0.4689612,-6.917244E-08,NaN,-0.4457186,7.512555E-06,-0.3787821,3.427958E-08,NaN,NaN,-0.01991831,-2.095481E-10,5.384855E-07,-1.143551E-07,1.744871E-10,-2.861022E-08
233.6694,0.04500164,-2.396913E-08,NaN,-0.3269989,-1.36611E-07,NaN,0.468894,-6.868779E-08,NaN,-0.4387119,7.513216E-06,-0.3785782,3.37186E-08,NaN,NaN,-0.01991487,-2.095481E-10,5.553238E-07,-1.143551E-07,1.744871E-10,-2.622604E-08
233.6847,0.04500162,-2.396804E-08,NaN,-0.3269989,-1.366107E-07,NaN,0.4688321,-6.820314E-08,NaN,-0.4318131,7.513877E-06,-0.3783851,3.316312E-08,NaN,NaN,-0.0199114,-2.095481E-10,5.723111E-07,-1.14355E-07,1.744871E-10,-2.861022E-08
233.6998,0.04500162,-2.396804E-08,NaN,-0.3269989,-1.366107E-07,NaN,0.4688321,-6.820314E-08,NaN,-0.4318131,7.513877E-06,-0.3783851,3.316312E-08,NaN,NaN,-0.0199114,-2.095481E-10,5.723111E-07,-1.14355E-07,1.744871E-10,-2.861022E-08
233.7138,0.04500161,-2.396695E-08,NaN,-0.3269989,-1.366104E-07,NaN,0.4687756,-6.771848E-08,NaN,-0.4250225,7.514543E-06,-0.378202,3.261262E-08,NaN,NaN,-0.01990789,-2.095481E-10,5.882554E-07,-1.14355E-07,1.744871E-10,-2.622604E-08
233.7292,0.04500159,-2.396586E-08,NaN,-0.3269989,-1.366102E-07,NaN,0.4687244,-6.723383E-08,NaN,-0.4183389,7.515214E-06,-0.3780284,3.206669E-08,NaN,NaN,-0.01990435,-2.142047E-10,6.033055E-07,-1.14355E-07,2.558673E-09,-2.861022E-08
233.7439,0.04500158,-2.396477E-08,NaN,-0.3269989,-1.366099E-07,NaN,0.4686789,-6.674917E-08,NaN,-0.4117612,7.51587E-06,-0.3778641,3.152504E-08,NaN,NaN,-0.01990077,-2.048914E-10,6.183557E-07,-1.143549E-07,4.942859E-09,-2.622604E-08
233.7587,0.04500158,-2.396477E-08,NaN,-0.3269989,-1.366099E-07,NaN,0.4686789,-6.674917E-08,NaN,-0.4117612,7.51587E-06,-0.3778641,3.152504E-08,NaN,NaN,-0.01990077,-2.048914E-10,6.183557E-07,-1.143549E-07,4.942859E-09,-2.622604E-08
233.7727,0.04500157,-2.396368E-08,NaN,-0.3269989,-1.366096E-07,NaN,0.4686392,-6.626452E-08,NaN,-0.4052878,7.516536E-06,-0.3777089,3.098745E-08,NaN,NaN,-0.01989715,-2.048914E-10,6.320647E-07,-1.143549E-07,4.942859E-09,-2.861022E-08
233.7882,0.04500156,-2.396258E-08,NaN,-0.3269989,-1.366093E-07,NaN,0.4686055,-6.577987E-08,NaN,-0.3989172,7.517193E-06,-0.3775627,3.045375E-08,NaN,NaN,-0.0198935,-2.002348E-10,6.468169E-07,-1.143549E-07,2.558673E-09,-2.622604E-08
233.8028,0.04500155,-2.396149E-08,NaN,-0.3269989,-1.366091E-07,NaN,0.4685779,-6.529521E-08,NaN,-0.3926477,7.517859E-06,-0.3774254,2.99238E-08,NaN,NaN,-0.01988979,-2.048914E-10,6.599299E-07,-1.143549E-07,2.558673E-09,-2.861022E-08
233.8176,0.04500155,-2.396149E-08,NaN,-0.3269989,-1.366091E-07,NaN,0.4685779,-6.529521E-08,NaN,-0.3926477,7.517859E-06,-0.3774254,2.99238E-08,NaN,NaN,-0.01988979,-2.048914E-10,6.599299E-07,-1.143549E-07,2.558673E-09,-2.861022E-08
233.8317,0.04500154,-2.39604E-08,NaN,-0.3269989,-1.366088E-07,NaN,0.4685564,-6.481056E-08,NaN,-0.3864778,7.518515E-06,-0.3772968,2.939751E-08,NaN,NaN,-0.01988604,-2.002348E-10,6.724469E-07,-1.143549E-07,-4.593884E-09,-2.622604E-08
233.847,0.04500153,-2.395931E-08,NaN,-0.3269989,-1.366086E-07,NaN,0.4685411,-6.43259E-08,NaN,-0.3804059,7.519181E-06,-0.3771769,2.887479E-08,NaN,NaN,-0.01988224,-2.048914E-10,6.845169E-07,-1.143549E-07,-4.593884E-09,-2.861022E-08
233.8628,0.04500151,-2.395822E-08,NaN,-0.3269989,-1.366083E-07,NaN,0.4685321,-6.384125E-08,NaN,-0.3744305,7.519847E-06,-0.3770657,2.835558E-08,NaN,NaN,-0.01987839,-2.09548E-10,6.958417E-07,-1.143549E-07,-2.209699E-09,-2.622604E-08
233.8776,0.04500151,-2.395822E-08,NaN,-0.3269989,-1.366083E-07,NaN,0.4685321,-6.384125E-08,NaN,-0.3744305,7.519847E-06,-0.3770657,2.835558E-08,NaN,NaN,-0.01987839,-2.09548E-10,6.958417E-07,-1.143549E-07,-2.209699E-09,-2.622604E-08
233.8915,0.0450015,-2.395713E-08,NaN,-0.3269989,-1.366081E-07,NaN,0.4685294,-6.335659E-08,NaN,-0.36855,7.520513E-06,-0.3769629,2.783983E-08,NaN,NaN,-0.01987449,-2.142047E-10,7.064215E-07,-1.143549E-07,1.744871E-10,-2.861022E-08
233.906,0.04500149,-2.395604E-08,NaN,-0.3269989,-1.366079E-07,NaN,0.4685329,-6.287194E-08,NaN,-0.3627629,7.521178E-06,-0.3768685,2.732749E-08,NaN,NaN,-0.01987053,-2.188613E-10,7.155112E-07,-1.14355E-07,1.744871E-10,-2.622604E-08
233.9218,0.04500148,-2.395495E-08,NaN,-0.3269989,-1.366077E-07,NaN,0.4685427,-6.238729E-08,NaN,-0.3570678,7.521849E-06,-0.3767825,2.681852E-08,NaN,NaN,-0.01986652,-2.235179E-10,7.24601E-07,-1.14355E-07,-4.593884E-09,-2.861022E-08
233.9356,0.04500148,-2.395495E-08,NaN,-0.3269989,-1.366077E-07,NaN,0.4685427,-6.238729E-08,NaN,-0.3570678,7.521849E-06,-0.3767825,2.681852E-08,NaN,NaN,-0.01986652,-2.235179E-10,7.24601E-07,-1.14355E-07,-4.593884E-09,-2.861022E-08
233.9495,0.04500147,-2.395386E-08,NaN,-0.3269989,-1.366075E-07,NaN,0.4685588,-6.190263E-08,NaN,-0.3514631,7.522515E-06,-0.3767047,2.631289E-08,NaN,NaN,-0.01986245,-2.188613E-10,7.347338E-07,-1.14355E-07,1.744871E-10,-2.622604E-08
233.9651,0.04500146,-2.395277E-08,NaN,-0.3269989,-1.366073E-07,NaN,0.4685811,-6.141798E-08,NaN,-0.3459475,7.523186E-06,-0.376635,2.581056E-08,NaN,NaN,-0.01985832,-2.235179E-10,7.438235E-07,-1.143551E-07,1.744871E-10,-2.861022E-08
233.9799,0.04500146,-2.395277E-08,NaN,-0.3269989,-1.366073E-07,NaN,0.4685811,-6.141798E-08,NaN,-0.3459475,7.523186E-06,-0.376635,2.581056E-08,NaN,NaN,-0.01985832,-2.235179E-10,7.438235E-07,-1.143551E-07,1.744871E-10,-2.861022E-08
233.994,0.04500145,-2.395168E-08,NaN,-0.3269989,-1.366071E-07,NaN,0.4686098,-6.093332E-08,NaN,-0.3405195,7.523842E-06,-0.3765735,2.531151E-08,NaN,NaN,-0.01985413,-2.142046E-10,7.523171E-07,-1.143551E-07,2.558673E-09,-2.622604E-08
234.0097,0.04500144,-2.395059E-08,NaN,-0.3269989,-1.366069E-07,NaN,0.4686446,-6.044867E-08,NaN,-0.3351778,7.524513E-06,-0.3765199,2.481572E-08,NaN,NaN,-0.01984987,-2.188612E-10,7.588736E-07,-1.143552E-07,1.744871E-10,-2.861022E-08
234.024,0.04500142,-2.39495E-08,NaN,-0.3269989,-1.366067E-07,NaN,0.4686857,-5.996402E-08,NaN,-0.3299209,7.52517E-06,-0.3764742,2.432316E-08,NaN,NaN,-0.01984555,-2.09548E-10,7.672183E-07,-1.143553E-07,1.744871E-10,-2.622604E-08
234.0387,0.04500142,-2.39495E-08,NaN,-0.3269989,-1.366067E-07,NaN,0.4686857,-5.996402E-08,NaN,-0.3299209,7.52517E-06,-0.3764742,2.432316E-08,NaN,NaN,-0.01984555,-2.09548E-10,7.672183E-07,-1.143553E-07,1.744871E-10,-2.622604E-08
234.0529,0.04500141,-2.394841E-08,NaN,-0.3269989,-1.366065E-07,NaN,0.4687331,-5.947936E-08,NaN,-0.3247476,7.52584E-06,-0.3764363,2.38338E-08,NaN,NaN,-0.01984116,-2.142046E-10,7.754139E-07,-1.143553E-07,-2.209699E-09,-2.861022E-08
234.0684,0.0450014,-2.394732E-08,NaN,-0.3269989,-1.366063E-07,NaN,0.4687867,-5.899471E-08,NaN,-0.3196564,7.526502E-06,-0.3764062,2.334762E-08,NaN,NaN,-0.0198367,-2.142046E-10,7.822684E-07,-1.143554E-07,1.744871E-10,-2.622604E-08
234.0831,0.04500139,-2.394622E-08,NaN,-0.3269989,-1.366062E-07,NaN,0.4688465,-5.851005E-08,NaN,-0.3146462,7.527172E-06,-0.3763838,2.28646E-08,NaN,NaN,-0.01983217,-2.235179E-10,7.886759E-07,-1.143555E-07,4.942859E-09,-2.861022E-08
234.0977,0.04500139,-2.394622E-08,NaN,-0.3269989,-1.366062E-07,NaN,0.4688465,-5.851005E-08,NaN,-0.3146462,7.527172E-06,-0.3763838,2.28646E-08,NaN,NaN,-0.01983217,-2.235179E-10,7.886759E-07,-1.143555E-07,4.942859E-09,-2.861022E-08
234.1139,0.04500138,-2.394513E-08,NaN,-0.3269989,-1.36606E-07,NaN,0.4689125,-5.80254E-08,NaN,-0.3097155,7.527834E-06,-0.3763689,2.238473E-08,NaN,NaN,-0.01982756,-2.235179E-10,7.949344E-07,-1.143556E-07,4.942859E-09,-2.622604E-08
234.1273,0.04500137,-2.394404E-08,NaN,-0.3269989,-1.366059E-07,NaN,0.4689846,-5.754075E-08,NaN,-0.3048632,7.528504E-06,-0.3763616,2.190797E-08,NaN,NaN,-0.01982288,-2.328311E-10,8.005969E-07,-1.143557E-07,2.558673E-09,-2.861022E-08
234.1421,0.04500136,-2.394295E-08,NaN,-0.3269989,-1.366057E-07,NaN,0.469063,-5.705609E-08,NaN,-0.300088,7.529161E-06,-0.3763618,2.14343E-08,NaN,NaN,-0.01981812,-2.281745E-10,8.055143E-07,-1.143557E-07,2.558673E-09,-2.622604E-08
234.1566,0.04500136,-2.394295E-08,NaN,-0.3269989,-1.366057E-07,NaN,0.469063,-5.705609E-08,NaN,-0.300088,7.529161E-06,-0.3763618,2.14343E-08,NaN,NaN,-0.01981812,-2.281745E-10,8.055143E-07,-1.143557E-07,2.558673E-09,-2.622604E-08
234.1706,0.04500135,-2.394186E-08,NaN,-0.3269989,-1.366056E-07,NaN,0.4691475,-5.657144E-08,NaN,-0.2953887,7.529827E-06,-0.3763694,2.096372E-08,NaN,NaN,-0.01981328,-2.374877E-10,8.108787E-07,-1.143558E-07,4.942859E-09,-2.861022E-08
234.1861,0.04500134,-2.394077E-08,NaN,-0.3269989,-1.366055E-07,NaN,0.4692381,-5.608678E-08,NaN,-0.2907641,7.530483E-06,-0.3763843,2.049618E-08,NaN,NaN,-0.01980835,-2.374877E-10,8.157961E-07,-1.143559E-07,7.327044E-09,-2.622604E-08
234.2009,0.04500132,-2.393968E-08,NaN,-0.3269989,-1.366054E-07,NaN,0.4693349,-5.560213E-08,NaN,-0.286213,7.531135E-06,-0.3764066,2.003169E-08,NaN,NaN,-0.01980334,-2.328311E-10,8.204155E-07,-1.143561E-07,1.744871E-10,-2.861022E-08
234.2157,0.04500132,-2.393968E-08,NaN,-0.3269989,-1.366054E-07,NaN,0.4693349,-5.560213E-08,NaN,-0.286213,7.531135E-06,-0.3764066,2.003169E-08,NaN,NaN,-0.01980334,-2.328311E-10,8.204155E-07,-1.143561E-07,1.744871E-10,-2.861022E-08
234.2299,0.04500131,-2.393859E-08,NaN,-0.3269989,-1.366053E-07,NaN,0.4694378,-5.511748E-08,NaN,-0.2817341,7.531792E-06,-0.376436,1.957021E-08,NaN,NaN,-0.01979824,-2.328311E-10,8.236938E-07,-1.143562E-07,1.744871E-10,-2.622604E-08
234.2453,0.0450013,-2.39375E-08,NaN,-0.3269989,-1.366052E-07,NaN,0.4695469,-5.463282E-08,NaN,-0.2773265,7.532463E-06,-0.3764725,1.911173E-08,NaN,NaN,-0.01979305,-2.421443E-10,8.274191E-07,-1.143563E-07,1.744871E-10,-2.861022E-08
234.26,0.0450013,-2.39375E-08,NaN,-0.3269989,-1.366052E-07,NaN,0.4695469,-5.463282E-08,NaN,-0.2773265,7.532463E-06,-0.3764725,1.911173E-08,NaN,NaN,-0.01979305,-2.421443E-10,8.274191E-07,-1.143563E-07,1.744871E-10,-2.861022E-08
234.274,0.04500129,-2.393641E-08,NaN,-0.3269989,-1.366051E-07,NaN,0.469662,-5.414817E-08,NaN,-0.2729889,7.533124E-06,-0.3765162,1.865622E-08,NaN,NaN,-0.01978776,-2.374877E-10,8.314424E-07,-1.143564E-07,4.942859E-09,-2.622604E-08
234.2894,0.04500128,-2.393532E-08,NaN,-0.3269989,-1.36605E-07,NaN,0.4697831,-5.366351E-08,NaN,-0.2687202,7.533795E-06,-0.3765669,1.820367E-08,NaN,NaN,-0.01978238,-2.421443E-10,8.342736E-07,-1.143566E-07,-2.209699E-09,-2.861022E-08
234.3043,0.04500127,-2.393423E-08,NaN,-0.3269989,-1.366049E-07,NaN,0.4699104,-5.317886E-08,NaN,-0.2645194,7.534451E-06,-0.3766246,1.775406E-08,NaN,NaN,-0.01977691,-2.328311E-10,8.360617E-07,-1.143567E-07,-2.209699E-09,-2.622604E-08
234.3189,0.04500127,-2.393423E-08,NaN,-0.3269989,-1.366049E-07,NaN,0.4699104,-5.317886E-08,NaN,-0.2645194,7.534451E-06,-0.3766246,1.775406E-08,NaN,NaN,-0.01977691,-2.328311E-10,8.360617E-07,-1.143567E-07,-2.209699E-09,-2.622604E-08
234.3329,0.04500126,-2.393314E-08,NaN,-0.3269989,-1.366048E-07,NaN,0.4700437,-5.26942E-08,NaN,-0.2603853,7.535122E-06,-0.3766892,1.730737E-08,NaN,NaN,-0.01977133,-2.374877E-10,8.382969E-07,-1.143568E-07,2.558673E-09,-2.861022E-08
234.3484,0.04500125,-2.393205E-08,NaN,-0.3269989,-1.366048E-07,NaN,0.470183,-5.220955E-08,NaN,-0.256317,7.535783E-06,-0.3767607,1.686357E-08,NaN,NaN,-0.01976565,-2.374877E-10,8.411281E-07,-1.14357E-07,1.744871E-10,-2.622604E-08
234.3641,0.04500123,-2.393095E-08,NaN,-0.3269989,-1.366047E-07,NaN,0.4703284,-5.17249E-08,NaN,-0.2523133,7.53644E-06,-0.376839,1.642266E-08,NaN,NaN,-0.01975987,-2.328311E-10,8.438103E-07,-1.143571E-07,-2.209699E-09,-2.861022E-08
234.3792,0.04500123,-2.393095E-08,NaN,-0.3269989,-1.366047E-07,NaN,0.4703284,-5.17249E-08,NaN,-0.2523133,7.53644E-06,-0.376839,1.642266E-08,NaN,NaN,-0.01975987,-2.328311E-10,8.438103E-07,-1.143571E-07,-2.209699E-09,-2.861022E-08
234.3918,0.04500123,-2.392986E-08,NaN,-0.3269989,-1.366046E-07,NaN,0.4704797,-5.124024E-08,NaN,-0.2483732,7.537097E-06,-0.3769241,1.598461E-08,NaN,NaN,-0.01975397,-2.281745E-10,8.450024E-07,-1.143573E-07,1.744871E-10,-2.622604E-08
234.4073,0.04500122,-2.392877E-08,NaN,-0.3269989,-1.366046E-07,NaN,0.4706371,-5.075559E-08,NaN,-0.2444957,7.537753E-06,-0.3770159,1.554941E-08,NaN,NaN,-0.01974797,-2.235179E-10,8.458965E-07,-1.143575E-07,2.558673E-09,-2.861022E-08
234.4218,0.04500121,-2.392768E-08,NaN,-0.3269989,-1.36605E-07,NaN,0.4708004,-5.027093E-08,NaN,-0.2406799,7.538415E-06,-0.3771144,1.511703E-08,NaN,NaN,-0.01974185,-2.235179E-10,8.473866E-07,-1.143567E-07,7.327044E-09,-2.622604E-08
234.4367,0.04500121,-2.392768E-08,NaN,-0.3269989,-1.36605E-07,NaN,0.4708004,-5.027093E-08,NaN,-0.2406799,7.538415E-06,-0.3771144,1.511703E-08,NaN,NaN,-0.01974185,-2.235179E-10,8.473866E-07,-1.143567E-07,7.327044E-09,-2.622604E-08
234.4508,0.04500121,-2.392659E-08,NaN,-0.3269989,-1.366053E-07,NaN,0.4709697,-4.978628E-08,NaN,-0.2369248,7.53909E-06,-0.3772194,1.468745E-08,NaN,NaN,-0.01973562,-2.374877E-10,8.479827E-07,-1.143559E-07,2.558673E-09,-2.861022E-08
234.4664,0.0450012,-2.39255E-08,NaN,-0.3269989,-1.366056E-07,NaN,0.4711449,-4.930163E-08,NaN,-0.2332293,7.539751E-06,-0.377331,1.426066E-08,NaN,NaN,-0.01972926,-2.374877E-10,8.497708E-07,-1.14355E-07,4.942859E-09,-2.622604E-08
234.4811,0.04500119,-2.392441E-08,NaN,-0.3269989,-1.366059E-07,NaN,0.471326,-4.844681E-08,NaN,-0.2295925,7.540403E-06,-0.3774492,1.345267E-08,NaN,NaN,-0.01972279,-2.328311E-10,8.509629E-07,-1.14354E-07,1.209542E-08,-2.622604E-08
234.4959,0.04500119,-2.392441E-08,NaN,-0.3269989,-1.366059E-07,NaN,0.471326,-4.844681E-08,NaN,-0.2295925,7.540403E-06,-0.3774492,1.345267E-08,NaN,NaN,-0.01972279,-2.328311E-10,8.509629E-07,-1.14354E-07,1.209542E-08,-2.622604E-08
234.5101,0.04500118,-2.392332E-08,NaN,-0.3269989,-1.366062E-07,NaN,0.471513,-4.762229E-08,NaN,-0.2260136,7.54106E-06,-0.3775738,1.266604E-08,NaN,NaN,-0.01971619,-2.328311E-10,8.509629E-07,-1.143529E-07,9.711231E-09,-2.622604E-08
234.5254,0.04500118,-2.392223E-08,NaN,-0.3269989,-1.366064E-07,NaN,0.4717059,-4.682303E-08,NaN,-0.2224916,7.541717E-06,-0.3777048,1.189755E-08,NaN,NaN,-0.01970946,-2.281745E-10,8.512609E-07,-1.143518E-07,9.711231E-09,-2.622604E-08
234.5401,0.04500117,-2.392114E-08,NaN,-0.3269989,-1.366066E-07,NaN,0.4719046,-4.604584E-08,NaN,-0.2190255,7.542378E-06,-0.3778422,1.114543E-08,NaN,NaN,-0.0197026,-2.281745E-10,8.500688E-07,-1.143507E-07,9.711231E-09,-2.622604E-08
234.5548,0.04500117,-2.392114E-08,NaN,-0.3269989,-1.366066E-07,NaN,0.4719046,-4.604584E-08,NaN,-0.2190255,7.542378E-06,-0.3778422,1.114543E-08,NaN,NaN,-0.0197026,-2.281745E-10,8.500688E-07,-1.143507E-07,9.711231E-09,-2.622604E-08
234.5689,0.04500116,-2.392005E-08,NaN,-0.3269989,-1.366068E-07,NaN,0.4721091,-4.528787E-08,NaN,-0.2156146,7.543039E-06,-0.3779858,1.040796E-08,NaN,NaN,-0.01969561,-2.235179E-10,8.491747E-07,-1.143496E-07,1.209542E-08,-2.622604E-08
234.5843,0.04500115,-2.391896E-08,NaN,-0.3269989,-1.366071E-07,NaN,0.4723195,-4.45479E-08,NaN,-0.2122579,7.5437E-06,-0.3781357,9.684851E-09,NaN,NaN,-0.01968848,-2.188613E-10,8.494728E-07,-1.143485E-07,9.711231E-09,-2.622604E-08
234.599,0.04500115,-2.391896E-08,NaN,-0.3269989,-1.366071E-07,NaN,0.4723195,-4.45479E-08,NaN,-0.2122579,7.5437E-06,-0.3781357,9.684851E-09,NaN,NaN,-0.01968848,-2.188613E-10,8.494728E-07,-1.143485E-07,9.711231E-09,-2.622604E-08
234.6151,0.04500115,-2.391788E-08,NaN,-0.3269989,-1.366073E-07,NaN,0.4725356,-4.382494E-08,NaN,-0.2089545,7.544366E-06,-0.3782919,8.975817E-09,NaN,NaN,-0.01968121,-2.188613E-10,8.491747E-07,-1.143474E-07,7.327045E-09,-2.622604E-08
234.6285,0.04500114,-2.391679E-08,NaN,-0.3269989,-1.366075E-07,NaN,0.4727574,-4.311811E-08,NaN,-0.2057036,7.545037E-06,-0.3784541,8.28059E-09,NaN,NaN,-0.0196738,-2.188613E-10,8.500688E-07,-1.143463E-07,7.327045E-09,-2.622604E-08
234.6434,0.04500113,-2.39157E-08,NaN,-0.3269989,-1.366077E-07,NaN,0.472985,-4.242669E-08,NaN,-0.2025045,7.545707E-06,-0.3786225,7.598894E-09,NaN,NaN,-0.01966625,-2.188613E-10,8.488767E-07,-1.143452E-07,2.558674E-09,-2.622604E-08
234.6579,0.04500113,-2.39157E-08,NaN,-0.3269989,-1.366077E-07,NaN,0.472985,-4.242669E-08,NaN,-0.2025045,7.545707E-06,-0.3786225,7.598894E-09,NaN,NaN,-0.01966625,-2.188613E-10,8.488767E-07,-1.143452E-07,2.558674E-09,-2.622604E-08
234.672,0.04500112,-2.391461E-08,NaN,-0.3269989,-1.366079E-07,NaN,0.4732182,-4.175003E-08,NaN,-0.1993562,7.546378E-06,-0.3787969,6.930466E-09,NaN,NaN,-0.01965854,-2.188613E-10,8.485787E-07,-1.143441E-07,-2.209698E-09,-2.622604E-08
234.6873,0.04500112,-2.391352E-08,NaN,-0.3269989,-1.366081E-07,NaN,0.4734571,-4.108616E-08,NaN,-0.1962579,7.547044E-06,-0.3789773,6.27363E-09,NaN,NaN,-0.01965068,-2.188613E-10,8.476846E-07,-1.14343E-07,-2.209698E-09,-2.622604E-08
234.7022,0.04500111,-2.391243E-08,NaN,-0.3269989,-1.366083E-07,NaN,0.4737016,-4.043603E-08,NaN,-0.1932089,7.547715E-06,-0.3791637,5.629576E-09,NaN,NaN,-0.01964267,-2.281745E-10,8.467905E-07,-1.143419E-07,1.74488E-10,-2.622604E-08
234.7168,0.04500111,-2.391243E-08,NaN,-0.3269989,-1.366083E-07,NaN,0.4737016,-4.043603E-08,NaN,-0.1932089,7.547715E-06,-0.3791637,5.629576E-09,NaN,NaN,-0.01964267,-2.281745E-10,8.467905E-07,-1.143419E-07,1.74488E-10,-2.622604E-08
234.7312,0.0450011,-2.391134E-08,NaN,-0.3269989,-1.366085E-07,NaN,0.4739516,-3.979919E-08,NaN,-0.1902084,7.548376E-06,-0.3793559,4.998052E-09,NaN,NaN,-0.01963451,-2.281745E-10,8.444063E-07,-1.143409E-07,-9.362255E-09,-2.622604E-08
234.7472,0.04500109,-2.391024E-08,NaN,-0.3269989,-1.366087E-07,NaN,0.4742072,-3.917384E-08,NaN,-0.1872556,7.549037E-06,-0.3795539,4.377399E-09,NaN,NaN,-0.01962618,-2.281745E-10,8.426182E-07,-1.143398E-07,1.74488E-10,-2.622604E-08
234.7614,0.04500109,-2.390915E-08,NaN,-0.3269989,-1.366089E-07,NaN,0.4744682,-3.856105E-08,NaN,-0.1843498,7.549698E-06,-0.3797577,3.768818E-09,NaN,NaN,-0.01961769,-2.281745E-10,8.411281E-07,-1.143387E-07,-2.209698E-09,-2.622604E-08
234.7763,0.04500109,-2.390915E-08,NaN,-0.3269989,-1.366089E-07,NaN,0.4744682,-3.856105E-08,NaN,-0.1843498,7.549698E-06,-0.3797577,3.768818E-09,NaN,NaN,-0.01961769,-2.281745E-10,8.411281E-07,-1.143387E-07,-2.209698E-09,-2.622604E-08
234.7902,0.04500108,-2.390806E-08,NaN,-0.3269989,-1.366091E-07,NaN,0.4747347,-3.796049E-08,NaN,-0.1814902,7.550359E-06,-0.3799672,3.172071E-09,NaN,NaN,-0.01960903,-2.281745E-10,8.3934E-07,-1.143377E-07,2.558674E-09,-2.622604E-08
234.8055,0.04500107,-2.390697E-08,NaN,-0.3269989,-1.366093E-07,NaN,0.4750066,-3.737043E-08,NaN,-0.178676,7.551021E-06,-0.3801824,2.585515E-09,NaN,NaN,-0.01960021,-2.281745E-10,8.381479E-07,-1.143366E-07,1.74488E-10,-2.622604E-08
234.8203,0.04500106,-2.390588E-08,NaN,-0.3269989,-1.366095E-07,NaN,0.4752839,-3.679202E-08,NaN,-0.1759066,7.551682E-06,-0.380403,2.010361E-09,NaN,NaN,-0.01959121,-2.281745E-10,8.378498E-07,-1.143355E-07,-4.593883E-09,-2.622604E-08
234.8349,0.04500106,-2.390588E-08,NaN,-0.3269989,-1.366095E-07,NaN,0.4752839,-3.679202E-08,NaN,-0.1759066,7.551682E-06,-0.380403,2.010361E-09,NaN,NaN,-0.01959121,-2.281745E-10,8.378498E-07,-1.143355E-07,-4.593883E-09,-2.622604E-08
234.8504,0.04500106,-2.390479E-08,NaN,-0.3269989,-1.366097E-07,NaN,0.4755664,-3.6225E-08,NaN,-0.1731812,7.552343E-06,-0.3806292,1.44639E-09,NaN,NaN,-0.01958203,-2.281745E-10,8.348696E-07,-1.143345E-07,1.74488E-10,-2.622604E-08
234.8655,0.04500105,-2.39037E-08,NaN,-0.3269989,-1.366089E-07,NaN,0.4758542,-3.584574E-08,NaN,-0.1704991,7.553004E-06,-0.3808608,1.07003E-09,NaN,NaN,-0.01957267,-2.374877E-10,8.321874E-07,-1.143337E-07,1.74488E-10,-2.622604E-08
234.8792,0.04500105,-2.39037E-08,NaN,-0.3269989,-1.366089E-07,NaN,0.4758542,-3.584574E-08,NaN,-0.1704991,7.553004E-06,-0.3808608,1.07003E-09,NaN,NaN,-0.01957267,-2.374877E-10,8.321874E-07,-1.143337E-07,1.74488E-10,-2.622604E-08
234.8934,0.04500104,-2.390261E-08,NaN,-0.3269989,-1.366078E-07,NaN,0.4761472,-3.551185E-08,NaN,-0.1678597,7.553647E-06,-0.3810978,7.389157E-10,NaN,NaN,-0.01956314,-2.374877E-10,8.306973E-07,-1.143326E-07,2.558674E-09,-2.622604E-08
234.9086,0.04500103,-2.390152E-08,NaN,-0.3269989,-1.366064E-07,NaN,0.4764453,-3.520694E-08,NaN,-0.1652623,7.554289E-06,-0.3813401,4.366946E-10,NaN,NaN,-0.01955342,-2.421443E-10,8.27717E-07,-1.143314E-07,1.74488E-10,-2.622604E-08
234.9232,0.04500103,-2.390043E-08,NaN,-0.3269989,-1.36605E-07,NaN,0.4767484,-3.49206E-08,NaN,-0.1627062,7.554927E-06,-0.3815876,1.529567E-10,NaN,NaN,-0.01954351,-2.468009E-10,8.247368E-07,-1.143302E-07,-4.593883E-09,-2.622604E-08
234.938,0.04500103,-2.390043E-08,NaN,-0.3269989,-1.36605E-07,NaN,0.4767484,-3.49206E-08,NaN,-0.1627062,7.554927E-06,-0.3815876,1.529567E-10,NaN,NaN,-0.01954351,-2.468009E-10,8.247368E-07,-1.143302E-07,-4.593883E-09,-2.622604E-08
234.952,0.04500102,-2.389934E-08,NaN,-0.3269989,-1.366034E-07,NaN,0.4770566,-3.464682E-08,NaN,-0.1601908,7.555556E-06,-0.3818402,-1.182842E-10,NaN,NaN,-0.01953341,-2.468009E-10,8.220546E-07,-1.143289E-07,1.74488E-10,-2.622604E-08
234.9676,0.04500101,-2.389825E-08,NaN,-0.3269989,-1.366019E-07,NaN,0.4773697,-3.438254E-08,NaN,-0.1577154,7.556184E-06,-0.3820979,-3.800697E-10,NaN,NaN,-0.01952311,-2.468009E-10,8.181803E-07,-1.143276E-07,-4.593883E-09,-2.622604E-08
234.9823,0.045001,-2.389716E-08,NaN,-0.3269989,-1.366003E-07,NaN,0.4776876,-3.412474E-08,NaN,-0.1552793,7.556813E-06,-0.3823605,-6.354132E-10,NaN,NaN,-0.01951261,-2.468009E-10,8.157961E-07,-1.143263E-07,-4.593883E-09,-2.622604E-08
234.997,0.045001,-2.389716E-08,NaN,-0.3269989,-1.366003E-07,NaN,0.4776876,-3.412474E-08,NaN,-0.1552793,7.556813E-06,-0.3823605,-6.354132E-10,NaN,NaN,-0.01951261,-2.468009E-10,8.157961E-07,-1.143263E-07,-4.593883E-09,-2.622604E-08
235.0113,0.045001,-2.389607E-08,NaN,-0.3269989,-1.365987E-07,NaN,0.4780102,-3.387329E-08,NaN,-0.152882,7.557441E-06,-0.382628,-8.844385E-10,NaN,NaN,-0.01950192,-2.468009E-10,8.128159E-07,-1.143249E-07,-6.978069E-09,-2.622604E-08
235.0267,0.04500099,-2.389498E-08,NaN,-0.3269989,-1.365971E-07,NaN,0.4783376,-3.362665E-08,NaN,-0.1505228,7.558075E-06,-0.3829003,-1.128675E-09,NaN,NaN,-0.01949102,-2.514575E-10,8.089416E-07,-1.143236E-07,-9.362255E-09,-2.622604E-08
235.0414,0.04500098,-2.389389E-08,NaN,-0.3269989,-1.365965E-07,NaN,0.4787366,-3.320808E-08,NaN,-0.148344,7.558713E-06,-0.3832466,-1.544875E-09,NaN,NaN,-0.01948497,-2.514575E-10,8.026831E-07,-1.143221E-07,-1.413063E-08,-2.622604E-08
235.0561,0.04500098,-2.389389E-08,NaN,-0.3269989,-1.365965E-07,NaN,0.4787366,-3.320808E-08,NaN,-0.148344,7.558713E-06,-0.3832466,-1.544875E-09,NaN,NaN,-0.01948497,-2.514575E-10,8.026831E-07,-1.143221E-07,-1.413063E-08,-2.622604E-08
235.0702,0.04500097,-2.38928E-08,NaN,-0.3269989,-1.365963E-07,NaN,0.4791403,-3.275822E-08,NaN,-0.1462863,7.559365E-06,-0.3835991,-1.992383E-09,NaN,NaN,-0.01947668,-2.607708E-10,7.973187E-07,-1.143207E-07,-1.174644E-08,-2.622604E-08
235.0856,0.04500097,-2.389172E-08,NaN,-0.3269989,-1.365962E-07,NaN,0.4795361,-3.229456E-08,NaN,-0.1443021,7.560007E-06,-0.3839443,-2.453709E-09,NaN,NaN,-0.01946735,-2.607708E-10,7.943385E-07,-1.143196E-07,-1.174644E-08,-2.622604E-08
235.1002,0.04500096,-2.389063E-08,NaN,-0.3269989,-1.365963E-07,NaN,0.4799249,-3.182581E-08,NaN,-0.142369,7.56065E-06,-0.3842828,-2.92015E-09,NaN,NaN,-0.01945749,-2.607708E-10,7.919543E-07,-1.143184E-07,-6.978069E-09,-2.622604E-08
235.1159,0.04500096,-2.389063E-08,NaN,-0.3269989,-1.365963E-07,NaN,0.4799249,-3.182581E-08,NaN,-0.142369,7.56065E-06,-0.3842828,-2.92015E-09,NaN,NaN,-0.01945749,-2.607708E-10,7.919543E-07,-1.143184E-07,-6.978069E-09,-2.622604E-08
235.13,0.04500096,-2.388954E-08,NaN,-0.3269989,-1.365964E-07,NaN,0.4809157,-3.135768E-08,NaN,-0.1416883,7.561297E-06,-0.3852422,-3.385978E-09,NaN,NaN,-0.01949475,-2.654274E-10,7.570856E-07,-1.143174E-07,-4.593883E-09,-2.622604E-08
235.1445,0.04500097,-2.388845E-08,NaN,-0.3269989,-1.365966E-07,NaN,0.4818901,-3.089438E-08,NaN,-0.1417593,7.56194E-06,-0.3861972,-3.846987E-09,NaN,NaN,-0.01951246,-2.654274E-10,7.377141E-07,-1.143164E-07,2.558674E-09,-2.622604E-08
235.1591,0.04500097,-2.388845E-08,NaN,-0.3269989,-1.365966E-07,NaN,0.4818901,-3.089438E-08,NaN,-0.1417593,7.56194E-06,-0.3861972,-3.846987E-09,NaN,NaN,-0.01951246,-2.654274E-10,7.377141E-07,-1.143164E-07,2.558674E-09,-2.622604E-08
235.1731,0.04500097,-2.388736E-08,NaN,-0.3269989,-1.365968E-07,NaN,0.4827462,-3.043722E-08,NaN,-0.1421793,7.562582E-06,-0.3870385,-4.301862E-09,NaN,NaN,-0.01952183,-2.654274E-10,7.213228E-07,-1.143153E-07,2.558674E-09,-2.622604E-08
235.1886,0.04500098,-2.388627E-08,NaN,-0.3269989,-1.36597E-07,NaN,0.4841106,-2.998749E-08,NaN,-0.1439715,7.563229E-06,-0.3884081,-4.749321E-09,NaN,NaN,-0.01957571,-2.70084E-10,6.73043E-07,-1.143144E-07,1.744884E-10,-2.622604E-08
235.2033,0.04500099,-2.388519E-08,NaN,-0.3269989,-1.365972E-07,NaN,0.485369,-2.954503E-08,NaN,-0.1465514,7.563872E-06,-0.3896835,-5.189507E-09,NaN,NaN,-0.01960749,-2.70084E-10,6.447308E-07,-1.143134E-07,-2.209697E-09,-2.622604E-08
