JMolnar6/NonAnthroHands_User_Study/HandsLoggerWithURDF/tempdata/files/Reachy_JointMotion_gesture_1_1.csv
Time,r_shoulder,r_shoulder_x,r_upper_arm,r_forearm,r_wrist,r_wrist2hand,
31.1179,-0.1485461,-3.3544E-08,NaN,-0.32433,-1.289461E-07,NaN,0.4490266,6.655642E-08,NaN,-0.492411,7.39488E-07,-0.3789072,-1.994192E-08,NaN,NaN,-0.0199719,1.443548E-10,1.135663E-07,-1.095661E-07,1.255073E-08,-3.099441E-08
31.14127,-0.1461937,-3.355349E-08,NaN,-0.3243823,-1.29011E-07,NaN,0.4482549,6.637316E-08,NaN,-0.4931386,7.411224E-07,-0.3781344,-1.955422E-08,NaN,NaN,-0.01997271,1.396982E-10,1.114801E-07,-1.096167E-07,1.493492E-08,-3.099441E-08
31.15233,-0.1461937,-3.355349E-08,NaN,-0.3243823,-1.29011E-07,NaN,0.4482549,6.637316E-08,NaN,-0.4931386,7.411224E-07,-0.3781344,-1.955422E-08,NaN,NaN,-0.01997271,1.396982E-10,1.114801E-07,-1.096167E-07,1.493492E-08,-3.099441E-08
31.16786,-0.1445124,-3.355821E-08,NaN,-0.3244068,-1.290433E-07,NaN,0.4477891,6.628153E-08,NaN,-0.4935671,7.419467E-07,-0.3776867,-1.936225E-08,NaN,NaN,-0.01997316,1.30385E-10,1.10139E-07,-1.096419E-07,1.255073E-08,-2.861022E-08
31.18613,-0.1426626,-3.356289E-08,NaN,-0.3244306,-1.290755E-07,NaN,0.4473646,6.61899E-08,NaN,-0.4939617,7.427569E-07,-0.3772748,-1.917153E-08,NaN,NaN,-0.01997358,1.350416E-10,1.09692E-07,-1.09667E-07,1.493492E-08,-3.099441E-08
31.20542,-0.1407147,-3.356756E-08,NaN,-0.324454,-1.291076E-07,NaN,0.4469896,6.609827E-08,NaN,-0.494315,7.435812E-07,-0.376905,-1.898205E-08,NaN,NaN,-0.01997396,1.257283E-10,1.089469E-07,-1.09692E-07,1.493492E-08,-2.861022E-08
31.22031,-0.1394409,-3.357221E-08,NaN,-0.3244794,-1.291396E-07,NaN,0.4471722,6.600663E-08,NaN,-0.4942189,7.443914E-07,-0.3769885,-1.879379E-08,NaN,NaN,-0.01997393,1.30385E-10,1.09543E-07,-1.09717E-07,1.016654E-08,-3.099441E-08
31.23706,-0.1394409,-3.357221E-08,NaN,-0.3244794,-1.291396E-07,NaN,0.4471722,6.600663E-08,NaN,-0.4942189,7.443914E-07,-0.3769885,-1.879379E-08,NaN,NaN,-0.01997393,1.30385E-10,1.09543E-07,-1.09717E-07,1.016654E-08,-3.099441E-08
31.25386,-0.1385966,-3.357683E-08,NaN,-0.3245059,-1.291715E-07,NaN,0.4475378,6.5915E-08,NaN,-0.4939732,7.452063E-07,-0.3772203,-1.860676E-08,NaN,NaN,-0.01997378,1.30385E-10,1.116291E-07,-1.097418E-07,5.398173E-09,-2.861022E-08
31.27131,-0.1380262,-3.358143E-08,NaN,-0.3245328,-1.292033E-07,NaN,0.4479362,6.582337E-08,NaN,-0.4937001,7.460212E-07,-0.3774781,-1.842094E-08,NaN,NaN,-0.01997361,1.30385E-10,1.138643E-07,-1.097666E-07,7.782358E-09,-3.099441E-08
31.28852,-0.1383567,-3.358601E-08,NaN,-0.3245622,-1.29235E-07,NaN,0.448828,6.573174E-08,NaN,-0.4930323,7.468361E-07,-0.3781347,-1.823633E-08,NaN,NaN,-0.01997308,1.30385E-10,1.160995E-07,-1.097913E-07,7.782358E-09,-2.861022E-08
31.30493,-0.1392528,-3.359057E-08,NaN,-0.3245924,-1.292666E-07,NaN,0.4498351,6.564011E-08,NaN,-0.4922733,7.47651E-07,-0.3788827,-1.805292E-08,NaN,NaN,-0.01997247,1.30385E-10,1.175896E-07,-1.098159E-07,1.016654E-08,-3.099441E-08
31.32214,-0.1405011,-3.35951E-08,NaN,-0.3246227,-1.292981E-07,NaN,0.4508173,6.554848E-08,NaN,-0.4915372,7.484659E-07,-0.3796082,-1.78707E-08,NaN,NaN,-0.01997189,1.30385E-10,1.178876E-07,-1.098404E-07,5.398172E-09,-2.861022E-08
31.33937,-0.1405011,-3.35951E-08,NaN,-0.3246227,-1.292981E-07,NaN,0.4508173,6.554848E-08,NaN,-0.4915372,7.484659E-07,-0.3796082,-1.78707E-08,NaN,NaN,-0.01997189,1.30385E-10,1.178876E-07,-1.098404E-07,5.398172E-09,-2.861022E-08
31.35586,-0.1426937,-3.359961E-08,NaN,-0.3246549,-1.293295E-07,NaN,0.4522524,6.545685E-08,NaN,-0.4904461,7.492808E-07,-0.3806992,-1.768966E-08,NaN,NaN,-0.01997097,1.30385E-10,1.193777E-07,-1.098648E-07,1.016654E-08,-3.099441E-08
31.37329,-0.1454715,-3.36041E-08,NaN,-0.3246872,-1.293607E-07,NaN,0.4537698,6.536521E-08,NaN,-0.489295,7.500958E-07,-0.3818544,-1.75098E-08,NaN,NaN,-0.01997,1.30385E-10,1.213149E-07,-1.098892E-07,1.016654E-08,-2.861022E-08
31.39049,-0.1486058,-3.360857E-08,NaN,-0.3247188,-1.293919E-07,NaN,0.4552366,6.527358E-08,NaN,-0.4881913,7.509107E-07,-0.3829659,-1.733111E-08,NaN,NaN,-0.01996907,1.30385E-10,1.250402E-07,-1.099134E-07,1.016654E-08,-3.099441E-08
31.40804,-0.1519514,-3.361302E-08,NaN,-0.3247494,-1.29423E-07,NaN,0.4566177,6.518195E-08,NaN,-0.4871637,7.517256E-07,-0.384006,-1.715358E-08,NaN,NaN,-0.01996819,1.30385E-10,1.278714E-07,-1.099376E-07,1.016654E-08,-2.861022E-08
31.42466,-0.156144,-3.361745E-08,NaN,-0.3247814,-1.29454E-07,NaN,0.458441,6.509032E-08,NaN,-0.4858001,7.525405E-07,-0.3854053,-1.697721E-08,NaN,NaN,-0.01996699,1.30385E-10,1.315967E-07,-1.099617E-07,1.016654E-08,-3.099441E-08
31.44177,-0.1608521,-3.362185E-08,NaN,-0.3248129,-1.294849E-07,NaN,0.4603452,6.499869E-08,NaN,-0.4843821,7.533554E-07,-0.3868689,-1.680197E-08,NaN,NaN,-0.01996573,1.30385E-10,1.341299E-07,-1.099858E-07,1.016654E-08,-2.861022E-08
31.45884,-0.1608521,-3.362185E-08,NaN,-0.3248129,-1.294849E-07,NaN,0.4603452,6.499869E-08,NaN,-0.4843821,7.533554E-07,-0.3868689,-1.680197E-08,NaN,NaN,-0.01996573,1.30385E-10,1.341299E-07,-1.099858E-07,1.016654E-08,-2.861022E-08
31.47537,-0.1658649,-3.362624E-08,NaN,-0.3248432,-1.295157E-07,NaN,0.4621995,6.490706E-08,NaN,-0.4830131,7.541703E-07,-0.3882906,-1.662788E-08,NaN,NaN,-0.0199645,1.30385E-10,1.387492E-07,-1.100097E-07,1.493492E-08,-3.099441E-08
31.49306,-0.1717764,-3.36306E-08,NaN,-0.3248744,-1.295464E-07,NaN,0.4645023,6.481542E-08,NaN,-0.4813125,7.549852E-07,-0.3900784,-1.645492E-08,NaN,NaN,-0.01996292,1.30385E-10,1.420275E-07,-1.100336E-07,1.016654E-08,-2.861022E-08
31.51175,-0.1782288,-3.363494E-08,NaN,-0.3249045,-1.29577E-07,NaN,0.4668746,6.472379E-08,NaN,-0.4795713,7.558001E-07,-0.3919219,-1.628309E-08,NaN,NaN,-0.0199613,1.30385E-10,1.424745E-07,-1.100574E-07,7.782358E-09,-3.099441E-08
31.5267,-0.1849944,-3.363926E-08,NaN,-0.3249325,-1.296075E-07,NaN,0.4691816,6.463216E-08,NaN,-0.4778952,7.56615E-07,-0.3937113,-1.611236E-08,NaN,NaN,-0.01995973,1.30385E-10,1.436666E-07,-1.100811E-07,5.398172E-09,-2.861022E-08
31.54377,-0.1919289,-3.364356E-08,NaN,-0.3249585,-1.296379E-07,NaN,0.4713877,6.454053E-08,NaN,-0.4763119,7.574299E-07,-0.3954186,-1.594275E-08,NaN,NaN,-0.01995822,1.30385E-10,1.466469E-07,-1.101047E-07,7.782358E-09,-3.099441E-08
31.56089,-0.1996685,-3.364784E-08,NaN,-0.3249849,-1.296682E-07,NaN,0.474042,6.44489E-08,NaN,-0.4744119,7.582448E-07,-0.3974955,-1.577425E-08,NaN,NaN,-0.01995634,1.30385E-10,1.502231E-07,-1.101283E-07,1.255073E-08,-2.861022E-08
31.57805,-0.1996685,-3.364784E-08,NaN,-0.3249849,-1.296682E-07,NaN,0.474042,6.44489E-08,NaN,-0.4744119,7.582448E-07,-0.3974955,-1.577425E-08,NaN,NaN,-0.01995634,1.30385E-10,1.502231E-07,-1.101283E-07,1.255073E-08,-2.861022E-08
31.59406,-0.2078822,-3.365209E-08,NaN,-0.3250097,-1.296984E-07,NaN,0.4767691,6.435727E-08,NaN,-0.4724742,7.590597E-07,-0.3996326,-1.560683E-08,NaN,NaN,-0.01995442,1.30385E-10,1.532034E-07,-1.101517E-07,1.255073E-08,-3.099441E-08
31.61142,-0.21636,-3.365633E-08,NaN,-0.3250321,-1.297285E-07,NaN,0.479434,6.426563E-08,NaN,-0.4706015,7.598746E-07,-0.4017195,-1.544051E-08,NaN,NaN,-0.01995253,1.30385E-10,1.582698E-07,-1.101751E-07,1.73191E-08,-2.861022E-08
31.62847,-0.2256962,-3.366054E-08,NaN,-0.3250545,-1.297585E-07,NaN,0.4825591,6.4174E-08,NaN,-0.4684159,7.606989E-07,-0.4041881,-1.527526E-08,NaN,NaN,-0.01995026,1.257283E-10,1.621441E-07,-1.101984E-07,1.016654E-08,-3.099441E-08
31.64713,-0.2355335,-3.366473E-08,NaN,-0.3250746,-1.297884E-07,NaN,0.4857485,6.408237E-08,NaN,-0.4662058,7.615184E-07,-0.4067105,-1.511109E-08,NaN,NaN,-0.01994794,1.30385E-10,1.698927E-07,-1.102217E-07,7.782358E-09,-2.861022E-08
31.66265,-0.2456449,-3.366891E-08,NaN,-0.3250915,-1.298183E-07,NaN,0.488862,6.399074E-08,NaN,-0.4640758,7.62338E-07,-0.4091719,-1.494798E-08,NaN,NaN,-0.01994568,1.350416E-10,1.700417E-07,-1.102448E-07,7.782358E-09,-3.099441E-08
31.67967,-0.2456449,-3.366891E-08,NaN,-0.3250915,-1.298183E-07,NaN,0.488862,6.399074E-08,NaN,-0.4640758,7.62338E-07,-0.4091719,-1.494798E-08,NaN,NaN,-0.01994568,1.350416E-10,1.700417E-07,-1.102448E-07,7.782358E-09,-3.099441E-08
31.69599,-0.2566142,-3.367306E-08,NaN,-0.3251078,-1.29848E-07,NaN,0.4924364,6.389911E-08,NaN,-0.4616492,7.631669E-07,-0.4120181,-1.478594E-08,NaN,NaN,-0.01994302,1.30385E-10,1.74214E-07,-1.102679E-07,1.016654E-08,-2.861022E-08
31.71345,-0.2680774,-3.367719E-08,NaN,-0.3251211,-1.298776E-07,NaN,0.4960679,6.380748E-08,NaN,-0.4592112,7.640004E-07,-0.4149133,-1.462495E-08,NaN,NaN,-0.01994032,1.257283E-10,1.773433E-07,-1.102909E-07,1.493492E-08,-3.099441E-08
31.73076,-0.2798032,-3.36813E-08,NaN,-0.3251306,-1.299072E-07,NaN,0.4996152,6.371585E-08,NaN,-0.4568647,7.64834E-07,-0.4177411,-1.4465E-08,NaN,NaN,-0.01993768,1.257283E-10,1.824097E-07,-1.103138E-07,1.016654E-08,-2.861022E-08
31.74762,-0.291645,-3.36854E-08,NaN,-0.3251368,-1.299366E-07,NaN,0.5030418,6.362421E-08,NaN,-0.4546357,7.656722E-07,-0.4204727,-1.43061E-08,NaN,NaN,-0.0199351,1.210717E-10,1.86731E-07,-1.103367E-07,7.782358E-09,-3.099441E-08
31.76447,-0.3042382,-3.368947E-08,NaN,-0.3251425,-1.29966E-07,NaN,0.5069446,6.353258E-08,NaN,-0.4521194,7.665058E-07,-0.4236074,-1.414822E-08,NaN,NaN,-0.01993209,1.210717E-10,1.894132E-07,-1.103594E-07,3.013986E-09,-2.861022E-08
31.78148,-0.3172512,-3.369352E-08,NaN,-0.3251461,-1.299953E-07,NaN,0.5109174,6.344095E-08,NaN,-0.4495897,7.673393E-07,-0.4268044,-1.399138E-08,NaN,NaN,-0.01992901,1.210717E-10,1.959697E-07,-1.103821E-07,3.013986E-09,-3.099441E-08
31.79847,-0.3172512,-3.369352E-08,NaN,-0.3251461,-1.299953E-07,NaN,0.5109174,6.344095E-08,NaN,-0.4495897,7.673393E-07,-0.4268044,-1.399138E-08,NaN,NaN,-0.01992901,1.210717E-10,1.959697E-07,-1.103821E-07,3.013986E-09,-3.099441E-08
31.81511,-0.3304739,-3.369755E-08,NaN,-0.3251482,-1.300244E-07,NaN,0.5148169,6.334932E-08,NaN,-0.4471475,7.681729E-07,-0.4299454,-1.383555E-08,NaN,NaN,-0.01992597,1.210717E-10,2.031223E-07,-1.104048E-07,3.013986E-09,-2.861022E-08
31.83249,-0.3445011,-3.370156E-08,NaN,-0.3251506,-1.300535E-07,NaN,0.5192147,6.325769E-08,NaN,-0.4444206,7.690064E-07,-0.4335107,-1.368073E-08,NaN,NaN,-0.01992247,1.210717E-10,2.077416E-07,-1.104273E-07,5.398172E-09,-3.099441E-08
31.8493,-0.3589755,-3.370555E-08,NaN,-0.3251516,-1.300825E-07,NaN,0.5236796,6.316606E-08,NaN,-0.441692,7.6984E-07,-0.4371368,-1.352693E-08,NaN,NaN,-0.01991891,1.210717E-10,2.12957E-07,-1.104498E-07,5.398172E-09,-2.861022E-08
31.86624,-0.3736707,-3.370952E-08,NaN,-0.3251513,-1.301114E-07,NaN,0.5280604,6.307442E-08,NaN,-0.4390645,7.706735E-07,-0.4406981,-1.337412E-08,NaN,NaN,-0.01991538,1.210717E-10,2.180234E-07,-1.104722E-07,5.398172E-09,-3.099441E-08
31.88343,-0.3884433,-3.371347E-08,NaN,-0.3251501,-1.301402E-07,NaN,0.532317,6.298279E-08,NaN,-0.4365646,7.715071E-07,-0.4441625,-1.32223E-08,NaN,NaN,-0.01991192,1.210717E-10,2.189175E-07,-1.104945E-07,1.016654E-08,-2.861022E-08
31.90039,-0.4039305,-3.37174E-08,NaN,-0.3251497,-1.301689E-07,NaN,0.5370874,6.289116E-08,NaN,-0.4337937,7.723406E-07,-0.44807,-1.307147E-08,NaN,NaN,-0.01990795,1.210717E-10,2.294973E-07,-1.105167E-07,5.398172E-09,-3.099441E-08
31.91721,-0.4039305,-3.37174E-08,NaN,-0.3251497,-1.301689E-07,NaN,0.5370874,6.289116E-08,NaN,-0.4337937,7.723406E-07,-0.44807,-1.307147E-08,NaN,NaN,-0.01990795,1.210717E-10,2.294973E-07,-1.105167E-07,5.398172E-09,-3.099441E-08
31.93334,-0.4198026,-3.372131E-08,NaN,-0.3251481,-1.301975E-07,NaN,0.5419349,6.279953E-08,NaN,-0.4310219,7.731742E-07,-0.452049,-1.292162E-08,NaN,NaN,-0.0199039,1.210717E-10,2.324776E-07,-1.105389E-07,5.398172E-09,-2.861022E-08
31.95136,-0.4358502,-3.37252E-08,NaN,-0.3251452,-1.30226E-07,NaN,0.5467053,6.27079E-08,NaN,-0.4283487,7.740171E-07,-0.45597,-1.277274E-08,NaN,NaN,-0.01989988,1.117585E-10,2.366499E-07,-1.10561E-07,3.013986E-09,-3.099441E-08
31.9684,-0.4526691,-3.372907E-08,NaN,-0.3251428,-1.302545E-07,NaN,0.5520161,6.261627E-08,NaN,-0.4254087,7.748506E-07,-0.4603593,-1.262484E-08,NaN,NaN,-0.01989533,1.117585E-10,2.464847E-07,-1.105831E-07,3.013986E-09,-2.861022E-08
31.9853,-0.4699025,-3.373292E-08,NaN,-0.3251389,-1.302828E-07,NaN,0.5574017,6.252463E-08,NaN,-0.4224799,7.756842E-07,-0.4648187,-1.247789E-08,NaN,NaN,-0.01989071,1.117585E-10,2.519981E-07,-1.106051E-07,6.298002E-10,-3.099441E-08
32.00205,-0.4873247,-3.373675E-08,NaN,-0.3251323,-1.303111E-07,NaN,0.5626982,6.2433E-08,NaN,-0.419663,7.765177E-07,-0.4692096,-1.23319E-08,NaN,NaN,-0.01988613,1.071019E-10,2.563195E-07,-1.10627E-07,3.013986E-09,-2.861022E-08
32.01938,-0.4873247,-3.373675E-08,NaN,-0.3251323,-1.303111E-07,NaN,0.5626982,6.2433E-08,NaN,-0.419663,7.765177E-07,-0.4692096,-1.23319E-08,NaN,NaN,-0.01988613,1.071019E-10,2.563195E-07,-1.10627E-07,3.013986E-09,-2.861022E-08
32.03542,-0.5055203,-3.374057E-08,NaN,-0.3251256,-1.303392E-07,NaN,0.5685498,6.234137E-08,NaN,-0.4165958,7.773466E-07,-0.474085,-1.218685E-08,NaN,NaN,-0.01988097,1.071019E-10,2.624289E-07,-1.106489E-07,3.013986E-09,-3.099441E-08
32.05319,-0.5241264,-3.374436E-08,NaN,-0.3251159,-1.303673E-07,NaN,0.5744732,6.224974E-08,NaN,-0.4135519,7.781802E-07,-0.4790288,-1.204275E-08,NaN,NaN,-0.01987575,1.024453E-10,2.710716E-07,-1.106707E-07,-6.522757E-09,-2.861022E-08
32.06981,-0.5429125,-3.374813E-08,NaN,-0.3251027,-1.303953E-07,NaN,0.5803027,6.215811E-08,NaN,-0.4106302,7.790137E-07,-0.4839003,-1.189959E-08,NaN,NaN,-0.01987058,9.778867E-11,2.75691E-07,-1.106925E-07,-1.754386E-09,-3.099441E-08
32.08683,-0.5617332,-3.375189E-08,NaN,-0.3250866,-1.304232E-07,NaN,0.5859954,6.206648E-08,NaN,-0.4078552,7.798473E-07,-0.4886652,-1.175735E-08,NaN,NaN,-0.01986547,9.313205E-11,2.813534E-07,-1.107142E-07,3.013986E-09,-2.861022E-08
32.10384,-0.5812246,-3.375563E-08,NaN,-0.3250709,-1.30451E-07,NaN,0.5922757,6.197484E-08,NaN,-0.4048404,7.806808E-07,-0.4939502,-1.161604E-08,NaN,NaN,-0.01985969,8.847544E-11,2.832905E-07,-1.107358E-07,6.298002E-10,-3.099441E-08
32.12099,-0.6010563,-3.375934E-08,NaN,-0.3250526,-1.304787E-07,NaN,0.5986473,6.188321E-08,NaN,-0.4018458,7.815144E-07,-0.4993233,-1.147565E-08,NaN,NaN,-0.01985382,8.381882E-11,2.849297E-07,-1.107573E-07,6.298002E-10,-2.861022E-08
32.13769,-0.6010563,-3.375934E-08,NaN,-0.3250526,-1.304787E-07,NaN,0.5986473,6.188321E-08,NaN,-0.4018458,7.815144E-07,-0.4993233,-1.147565E-08,NaN,NaN,-0.01985382,8.381882E-11,2.849297E-07,-1.107573E-07,6.298002E-10,-2.861022E-08
32.1555,-0.6210188,-3.376304E-08,NaN,-0.3250313,-1.305064E-07,NaN,0.6049372,6.217186E-08,NaN,-0.3989674,7.823386E-07,-0.504636,-1.17247E-08,NaN,NaN,-0.01984801,8.381882E-11,2.856747E-07,-1.107787E-07,-6.522757E-09,-3.099441E-08
32.17163,-0.641708,-3.376672E-08,NaN,-0.32501,-1.305338E-07,NaN,0.6118518,6.244709E-08,NaN,-0.3958528,7.831582E-07,-0.510504,-1.196765E-08,NaN,NaN,-0.01984148,8.847544E-11,2.868668E-07,-1.108E-07,-4.138571E-09,-2.861022E-08
32.1888,-0.6627674,-3.377038E-08,NaN,-0.3249856,-1.305612E-07,NaN,0.6188585,6.270975E-08,NaN,-0.3927695,7.83987E-07,-0.5164611,-1.22039E-08,NaN,NaN,-0.01983485,8.381882E-11,3.008739E-07,-1.108213E-07,-6.522757E-09,-3.099441E-08
32.20593,-0.6839714,-3.377402E-08,NaN,-0.3249576,-1.305885E-07,NaN,0.6257745,6.296187E-08,NaN,-0.3898154,7.848066E-07,-0.5223498,-1.243429E-08,NaN,NaN,-0.01982829,8.847544E-11,3.044502E-07,-1.108425E-07,-8.906943E-09,-2.861022E-08
32.22257,-0.7051774,-3.377765E-08,NaN,-0.3249269,-1.306158E-07,NaN,0.6325514,6.320448E-08,NaN,-0.3870155,7.856355E-07,-0.5281308,-1.265894E-08,NaN,NaN,-0.01982178,8.381882E-11,3.080264E-07,-1.108636E-07,-6.522757E-09,-3.099441E-08
32.23956,-0.7051774,-3.377765E-08,NaN,-0.3249269,-1.306158E-07,NaN,0.6325514,6.320448E-08,NaN,-0.3870155,7.856355E-07,-0.5281308,-1.265894E-08,NaN,NaN,-0.01982178,8.381882E-11,3.080264E-07,-1.108636E-07,-6.522757E-09,-3.099441E-08
32.2559,-0.7265168,-3.378125E-08,NaN,-0.3248951,-1.306429E-07,NaN,0.6394305,6.343846E-08,NaN,-0.3842537,7.864551E-07,-0.5340173,-1.287795E-08,NaN,NaN,-0.01981505,8.847544E-11,3.159241E-07,-1.108846E-07,-4.138571E-09,-2.861022E-08
32.27354,-0.7478506,-3.378484E-08,NaN,-0.3248621,-1.306699E-07,NaN,0.646253,6.36645E-08,NaN,-0.3815984,7.87284E-07,-0.5398698,-1.309143E-08,NaN,NaN,-0.01980831,8.381882E-11,3.217355E-07,-1.109056E-07,-4.138571E-09,-3.099441E-08
32.2904,-0.7690917,-3.378841E-08,NaN,-0.3248281,-1.306969E-07,NaN,0.6529703,6.388392E-08,NaN,-0.3790688,7.881035E-07,-0.5456464,-1.33002E-08,NaN,NaN,-0.0198016,8.847544E-11,3.245667E-07,-1.109264E-07,-6.522757E-09,-2.861022E-08
32.30754,-0.7901855,-3.379196E-08,NaN,-0.324794,-1.307238E-07,NaN,0.6595734,6.409647E-08,NaN,-0.3766647,7.889278E-07,-0.5513403,-1.350365E-08,NaN,NaN,-0.01979491,8.381882E-11,3.293351E-07,-1.109473E-07,-5.330664E-09,-3.099441E-08
32.32432,-0.8110983,-3.379549E-08,NaN,-0.3247601,-1.307505E-07,NaN,0.6660665,6.430256E-08,NaN,-0.3743792,7.897473E-07,-0.5569552,-1.370187E-08,NaN,NaN,-0.01978826,7.91622E-11,3.346995E-07,-1.10968E-07,-4.138571E-09,-2.861022E-08
32.34114,-0.8318101,-3.3799E-08,NaN,-0.3247271,-1.307773E-07,NaN,0.6724555,6.450255E-08,NaN,-0.372204,7.905622E-07,-0.5624968,-1.389497E-08,NaN,NaN,-0.01978164,7.91622E-11,3.414051E-07,-1.109887E-07,-4.138571E-09,-3.099441E-08
32.35852,-0.8318101,-3.3799E-08,NaN,-0.3247271,-1.307773E-07,NaN,0.6724555,6.450255E-08,NaN,-0.372204,7.905622E-07,-0.5624968,-1.389497E-08,NaN,NaN,-0.01978164,7.91622E-11,3.414051E-07,-1.109887E-07,-4.138571E-09,-3.099441E-08
32.37452,-0.8523086,-3.38025E-08,NaN,-0.3246951,-1.308039E-07,NaN,0.6787459,6.469673E-08,NaN,-0.3701318,7.913678E-07,-0.5679697,-1.408304E-08,NaN,NaN,-0.01977507,8.847543E-11,3.427462E-07,-1.110093E-07,-7.71485E-09,-2.861022E-08
32.39209,-0.8725875,-3.380597E-08,NaN,-0.3246645,-1.308304E-07,NaN,0.6849411,6.488535E-08,NaN,-0.3681563,7.921827E-07,-0.5733764,-1.426619E-08,NaN,NaN,-0.01976853,8.847543E-11,3.466205E-07,-1.110299E-07,-8.906943E-09,-3.099441E-08
32.40926,-0.8926434,-3.380944E-08,NaN,-0.3246355,-1.308569E-07,NaN,0.6910431,6.506934E-08,NaN,-0.3662724,7.929883E-07,-0.5787181,-1.444522E-08,NaN,NaN,-0.01976206,9.778865E-11,3.488557E-07,-1.110504E-07,-5.330664E-09,-2.861022E-08
32.4265,-0.9124753,-3.381288E-08,NaN,-0.324608,-1.308833E-07,NaN,0.6970527,6.524819E-08,NaN,-0.3644761,7.938032E-07,-0.5839952,-1.46195E-08,NaN,NaN,-0.01975564,9.778865E-11,3.515379E-07,-1.110708E-07,-7.714849E-09,-3.099441E-08
32.44342,-0.9320834,-3.38163E-08,NaN,-0.3245822,-1.309095E-07,NaN,0.7029697,6.542206E-08,NaN,-0.3627638,7.946088E-07,-0.5892068,-1.478913E-08,NaN,NaN,-0.0197493,1.071019E-10,3.5273E-07,-1.110911E-07,-1.754385E-09,-2.861022E-08
32.46104,-0.9514689,-3.381971E-08,NaN,-0.324558,-1.309358E-07,NaN,0.7087936,6.55911E-08,NaN,-0.3611327,7.954237E-07,-0.5943517,-1.49542E-08,NaN,NaN,-0.01974303,1.071019E-10,3.558592E-07,-1.111114E-07,6.298007E-10,-3.099441E-08
32.47677,-0.9514689,-3.381971E-08,NaN,-0.324558,-1.309358E-07,NaN,0.7087936,6.55911E-08,NaN,-0.3611327,7.954237E-07,-0.5943517,-1.49542E-08,NaN,NaN,-0.01974303,1.071019E-10,3.558592E-07,-1.111114E-07,6.298007E-10,-3.099441E-08
32.49261,-0.9706333,-3.38231E-08,NaN,-0.3245355,-1.309619E-07,NaN,0.7145231,6.575476E-08,NaN,-0.3595802,7.962293E-07,-0.5994284,-1.511409E-08,NaN,NaN,-0.01973684,1.164151E-10,3.591374E-07,-1.111316E-07,-5.622922E-10,-2.861022E-08
32.51056,-0.9895787,-3.382647E-08,NaN,-0.3245146,-1.309879E-07,NaN,0.7201571,6.591388E-08,NaN,-0.3581039,7.970442E-07,-0.6044352,-1.52696E-08,NaN,NaN,-0.01973074,1.164151E-10,3.636078E-07,-1.111518E-07,-4.138571E-09,-3.099441E-08
32.52765,-1.008307,-3.382982E-08,NaN,-0.3244953,-1.310139E-07,NaN,0.7256942,6.606929E-08,NaN,-0.3567016,7.978498E-07,-0.6093702,-1.542153E-08,NaN,NaN,-0.01972474,1.257283E-10,3.66141E-07,-1.111719E-07,-1.754385E-09,-2.861022E-08
32.54415,-1.026821,-3.383316E-08,NaN,-0.3244776,-1.310398E-07,NaN,0.731133,6.622037E-08,NaN,-0.3553714,7.986647E-07,-0.6142316,-1.556925E-08,NaN,NaN,-0.01971884,1.257283E-10,3.656939E-07,-1.111919E-07,-1.754385E-09,-3.099441E-08
32.56088,-1.045122,-3.383648E-08,NaN,-0.3244613,-1.310656E-07,NaN,0.7364719,6.636724E-08,NaN,-0.3541112,7.994703E-07,-0.6190174,-1.571283E-08,NaN,NaN,-0.01971305,1.350416E-10,3.737405E-07,-1.112118E-07,6.298007E-10,-2.861022E-08
32.57795,-1.045122,-3.383648E-08,NaN,-0.3244613,-1.310656E-07,NaN,0.7364719,6.636724E-08,NaN,-0.3541112,7.994703E-07,-0.6190174,-1.571283E-08,NaN,NaN,-0.01971305,1.350416E-10,3.737405E-07,-1.112118E-07,6.298007E-10,-2.861022E-08
32.59447,-1.063213,-3.383978E-08,NaN,-0.3244465,-1.310913E-07,NaN,0.7417095,6.650998E-08,NaN,-0.3529192,8.002852E-07,-0.6237258,-1.585236E-08,NaN,NaN,-0.01970736,1.350416E-10,3.755287E-07,-1.112317E-07,-5.622922E-10,-3.099441E-08
32.61175,-1.081097,-3.384306E-08,NaN,-0.3244332,-1.31117E-07,NaN,0.7468444,6.664939E-08,NaN,-0.3517934,8.010908E-07,-0.628355,-1.598862E-08,NaN,NaN,-0.01970179,1.443548E-10,3.79701E-07,-1.112515E-07,-1.754385E-09,-2.861022E-08
32.62849,-1.098775,-3.384633E-08,NaN,-0.3244212,-1.311425E-07,NaN,0.7518752,6.678486E-08,NaN,-0.3507322,8.019057E-07,-0.6329033,-1.612097E-08,NaN,NaN,-0.01969635,1.443548E-10,3.808931E-07,-1.112713E-07,-5.622922E-10,-3.099441E-08
32.64582,-1.11625,-3.384958E-08,NaN,-0.3244106,-1.31168E-07,NaN,0.7568007,6.691645E-08,NaN,-0.3497336,8.027159E-07,-0.637369,-1.624948E-08,NaN,NaN,-0.01969103,1.490114E-10,3.850654E-07,-1.11291E-07,-5.622922E-10,-2.861022E-08
32.66418,-1.133524,-3.385281E-08,NaN,-0.3244013,-1.311934E-07,NaN,0.7616196,6.704425E-08,NaN,-0.3487961,8.035355E-07,-0.6417505,-1.637424E-08,NaN,NaN,-0.01968585,1.443548E-10,3.843204E-07,-1.113106E-07,-2.350431E-09,-3.099441E-08
32.6796,-1.133524,-3.385281E-08,NaN,-0.3244013,-1.311934E-07,NaN,0.7616196,6.704425E-08,NaN,-0.3487961,8.035355E-07,-0.6417505,-1.637424E-08,NaN,NaN,-0.01968585,1.443548E-10,3.843204E-07,-1.113106E-07,-2.350431E-09,-3.099441E-08
32.69553,-1.1506,-3.385603E-08,NaN,-0.3243932,-1.312188E-07,NaN,0.7663308,6.716905E-08,NaN,-0.3479178,8.043457E-07,-0.6460462,-1.649602E-08,NaN,NaN,-0.01968079,1.490114E-10,3.846184E-07,-1.113302E-07,-5.330663E-09,-2.861022E-08
32.7131,-1.16748,-3.385922E-08,NaN,-0.3243864,-1.31244E-07,NaN,0.7709333,6.729021E-08,NaN,-0.3470972,8.051653E-07,-0.6502547,-1.661417E-08,NaN,NaN,-0.01967586,1.443548E-10,3.890888E-07,-1.113497E-07,-5.330663E-09,-3.099441E-08
32.73014,-1.184166,-3.38624E-08,NaN,-0.3243807,-1.312692E-07,NaN,0.775426,6.74078E-08,NaN,-0.3463326,8.059756E-07,-0.6543747,-1.672877E-08,NaN,NaN,-0.01967108,1.490114E-10,3.878967E-07,-1.113691E-07,-3.542524E-09,-2.861022E-08
32.74673,-1.20066,-3.386557E-08,NaN,-0.3243762,-1.312943E-07,NaN,0.779808,6.752189E-08,NaN,-0.3456224,8.067951E-07,-0.658405,-1.683988E-08,NaN,NaN,-0.01966643,1.443548E-10,3.934101E-07,-1.113885E-07,-4.734617E-09,-3.099441E-08
32.76325,-1.216964,-3.386872E-08,NaN,-0.3243728,-1.313193E-07,NaN,0.7840788,6.763326E-08,NaN,-0.344965,8.076054E-07,-0.6623445,-1.694828E-08,NaN,NaN,-0.01966192,1.490114E-10,3.956453E-07,-1.114078E-07,-4.138571E-09,-2.861022E-08
32.78022,-1.232861,-3.387185E-08,NaN,-0.3243697,-1.313443E-07,NaN,0.7879273,6.774125E-08,NaN,-0.3444584,8.084249E-07,-0.6659111,-1.705332E-08,NaN,NaN,-0.01965795,1.443548E-10,3.91771E-07,-1.114271E-07,-4.734617E-09,-3.099441E-08
32.79687,-1.232861,-3.387185E-08,NaN,-0.3243697,-1.313443E-07,NaN,0.7879273,6.774125E-08,NaN,-0.3444584,8.084249E-07,-0.6659111,-1.705332E-08,NaN,NaN,-0.01965795,1.443548E-10,3.91771E-07,-1.114271E-07,-4.734617E-09,-3.099441E-08
32.81306,-1.248434,-3.387496E-08,NaN,-0.3243676,-1.313691E-07,NaN,0.7915756,6.785649E-08,NaN,-0.3440304,8.092399E-07,-0.6693074,-1.71656E-08,NaN,NaN,-0.01965417,1.396982E-10,3.910259E-07,-1.114463E-07,-5.92671E-09,-2.861022E-08
32.83046,-1.263739,-3.387806E-08,NaN,-0.3243663,-1.313939E-07,NaN,0.795103,6.796829E-08,NaN,-0.3436503,8.100454E-07,-0.6726048,-1.727446E-08,NaN,NaN,-0.01965051,1.396982E-10,3.91175E-07,-1.114654E-07,-5.03264E-09,-3.099441E-08
32.84719,-1.278083,-3.388114E-08,NaN,-0.3243645,-1.314186E-07,NaN,0.7975006,6.807672E-08,NaN,-0.3436314,8.108557E-07,-0.6748869,-1.737994E-08,NaN,NaN,-0.01964825,1.30385E-10,3.881947E-07,-1.114844E-07,-5.628686E-09,-2.861022E-08
32.86369,-1.291763,-3.388421E-08,NaN,-0.3243641,-1.314433E-07,NaN,0.7995178,6.818184E-08,NaN,-0.3437407,8.116519E-07,-0.6768394,-1.748213E-08,NaN,NaN,-0.01964628,1.350416E-10,3.864066E-07,-1.115034E-07,-5.330663E-09,-3.099441E-08
32.8804,-1.304968,-3.388725E-08,NaN,-0.3243652,-1.314678E-07,NaN,0.8014204,6.828373E-08,NaN,-0.3438829,8.124575E-07,-0.6787019,-1.758109E-08,NaN,NaN,-0.01964436,1.257283E-10,3.813402E-07,-1.115224E-07,-5.03264E-09,-2.861022E-08
32.89725,-1.304968,-3.388725E-08,NaN,-0.3243652,-1.314678E-07,NaN,0.8014204,6.828373E-08,NaN,-0.3438829,8.124575E-07,-0.6787019,-1.758109E-08,NaN,NaN,-0.01964436,1.257283E-10,3.813402E-07,-1.115224E-07,-5.03264E-09,-2.861022E-08
32.91336,-1.317819,-3.389028E-08,NaN,-0.3243675,-1.314923E-07,NaN,0.8032862,6.838314E-08,NaN,-0.3440256,8.132538E-07,-0.6805424,-1.767757E-08,NaN,NaN,-0.0196425,1.257283E-10,3.773168E-07,-1.115412E-07,-5.330663E-09,-3.099441E-08
32.93061,-1.329665,-3.38933E-08,NaN,-0.3243693,-1.315167E-07,NaN,0.8040866,6.847944E-08,NaN,-0.3444852,8.140594E-07,-0.6814241,-1.777093E-08,NaN,NaN,-0.01964199,1.164151E-10,3.743366E-07,-1.115601E-07,-4.585605E-09,-2.861022E-08
32.94727,-1.340831,-3.38963E-08,NaN,-0.3243725,-1.31541E-07,NaN,0.804564,6.857267E-08,NaN,-0.3450376,8.148556E-07,-0.682026,-1.786124E-08,NaN,NaN,-0.01964173,1.164151E-10,3.715054E-07,-1.115788E-07,-4.734616E-09,-3.099441E-08
32.96393,-1.351521,-3.389928E-08,NaN,-0.3243774,-1.315653E-07,NaN,0.8049761,6.86636E-08,NaN,-0.3455951,8.156612E-07,-0.6825806,-1.794924E-08,NaN,NaN,-0.01964149,1.071019E-10,3.679291E-07,-1.115975E-07,-4.362087E-09,-2.861022E-08
32.98087,-1.361868,-3.390225E-08,NaN,-0.3243847,-1.315895E-07,NaN,0.8053947,6.875156E-08,NaN,-0.3461308,8.164575E-07,-0.6831508,-1.803429E-08,NaN,NaN,-0.01964122,1.071019E-10,3.6629E-07,-1.116161E-07,-4.362087E-09,-3.099441E-08
32.99783,-1.361868,-3.390225E-08,NaN,-0.3243847,-1.315895E-07,NaN,0.8053947,6.875156E-08,NaN,-0.3461308,8.164575E-07,-0.6831508,-1.803429E-08,NaN,NaN,-0.01964122,1.071019E-10,3.6629E-07,-1.116161E-07,-4.362087E-09,-3.099441E-08
33.01367,-1.371228,-3.39052E-08,NaN,-0.3243921,-1.316136E-07,NaN,0.8047873,6.883663E-08,NaN,-0.346963,8.172631E-07,-0.6827953,-1.811644E-08,NaN,NaN,-0.01964227,9.778866E-11,3.628627E-07,-1.116347E-07,-3.766041E-09,-2.861022E-08
33.03093,-1.379927,-3.390814E-08,NaN,-0.3244021,-1.316376E-07,NaN,0.8038932,6.891955E-08,NaN,-0.347872,8.180593E-07,-0.6821906,-1.819645E-08,NaN,NaN,-0.01964356,9.778866E-11,3.594354E-07,-1.116532E-07,-3.82192E-09,-3.099441E-08
33.04773,-1.388175,-3.391106E-08,NaN,-0.3244153,-1.316615E-07,NaN,0.8029675,6.899968E-08,NaN,-0.3487719,8.188649E-07,-0.6815673,-1.827366E-08,NaN,NaN,-0.01964481,8.847544E-11,3.528789E-07,-1.116717E-07,-3.672908E-09,-2.861022E-08
33.06469,-1.395376,-3.391396E-08,NaN,-0.3244292,-1.316854E-07,NaN,0.8010517,6.907705E-08,NaN,-0.3499584,8.196612E-07,-0.6800514,-1.834812E-08,NaN,NaN,-0.01964727,8.847544E-11,3.478125E-07,-1.1169E-07,-2.629827E-09,-3.099441E-08
33.08149,-1.401889,-3.391685E-08,NaN,-0.3244456,-1.317092E-07,NaN,0.7988986,6.915244E-08,NaN,-0.351204,8.204621E-07,-0.6783308,-1.842059E-08,NaN,NaN,-0.01964988,7.916221E-11,3.443853E-07,-1.117084E-07,-3.225873E-09,-2.861022E-08
33.09794,-1.401889,-3.391685E-08,NaN,-0.3244456,-1.317092E-07,NaN,0.7988986,6.915244E-08,NaN,-0.351204,8.204621E-07,-0.6783308,-1.842059E-08,NaN,NaN,-0.01964988,7.916221E-11,3.443853E-07,-1.117084E-07,-3.225873E-09,-2.861022E-08
33.11392,-1.407942,-3.391972E-08,NaN,-0.324465,-1.317329E-07,NaN,0.7967633,6.922517E-08,NaN,-0.3524223,8.212537E-07,-0.6766356,-1.849041E-08,NaN,NaN,-0.0196524,7.916221E-11,3.387228E-07,-1.117266E-07,-2.92785E-09,-3.099441E-08
33.13134,-1.412952,-3.392258E-08,NaN,-0.3244846,-1.317566E-07,NaN,0.7936985,6.929601E-08,NaN,-0.3539122,8.220546E-07,-0.6741027,-1.855833E-08,NaN,NaN,-0.01965604,6.984899E-11,3.370837E-07,-1.117448E-07,-2.92785E-09,-2.861022E-08
33.14812,-1.417284,-3.392542E-08,NaN,-0.324506,-1.317802E-07,NaN,0.7904426,6.936427E-08,NaN,-0.3554473,8.228462E-07,-0.671406,-1.862369E-08,NaN,NaN,-0.01965978,6.984899E-11,3.335074E-07,-1.11763E-07,-3.374885E-09,-3.099441E-08
33.1648,-1.421173,-3.392825E-08,NaN,-0.3245295,-1.318037E-07,NaN,0.7872446,6.943002E-08,NaN,-0.3569425,8.236472E-07,-0.6687697,-1.868652E-08,NaN,NaN,-0.01966339,6.053576E-11,3.28739E-07,-1.117811E-07,-3.076862E-09,-2.861022E-08
33.18271,-1.424765,-3.393106E-08,NaN,-0.3245547,-1.318271E-07,NaN,0.7841643,6.94933E-08,NaN,-0.3583747,8.244388E-07,-0.6662461,-1.87469E-08,NaN,NaN,-0.01966686,6.053576E-11,3.223315E-07,-1.117991E-07,-1.288723E-09,-3.099441E-08
33.19834,-1.424765,-3.393106E-08,NaN,-0.3245547,-1.318271E-07,NaN,0.7841643,6.94933E-08,NaN,-0.3583747,8.244388E-07,-0.6662461,-1.87469E-08,NaN,NaN,-0.01966686,6.053576E-11,3.223315E-07,-1.117991E-07,-1.288723E-09,-3.099441E-08
33.21429,-1.427429,-3.393385E-08,NaN,-0.3245789,-1.318505E-07,NaN,0.7802106,6.955415E-08,NaN,-0.3600728,8.252397E-07,-0.6629339,-1.880485E-08,NaN,NaN,-0.01967137,5.122254E-11,3.15477E-07,-1.118171E-07,-1.586746E-09,-2.861022E-08
33.23151,-1.429497,-3.393663E-08,NaN,-0.3246034,-1.318738E-07,NaN,0.7760836,6.961335E-08,NaN,-0.3618161,8.260313E-07,-0.6594715,-1.886114E-08,NaN,NaN,-0.01967597,5.122254E-11,3.105596E-07,-1.11835E-07,-9.906994E-10,-3.099441E-08
33.24865,-1.431181,-3.39394E-08,NaN,-0.3246286,-1.31897E-07,NaN,0.7720247,6.967021E-08,NaN,-0.3635207,8.268322E-07,-0.6560767,-1.891509E-08,NaN,NaN,-0.01968042,4.190932E-11,3.0296E-07,-1.118528E-07,-9.906994E-10,-2.861022E-08
33.26483,-1.432617,-3.394215E-08,NaN,-0.3246543,-1.319201E-07,NaN,0.7680959,6.972477E-08,NaN,-0.3651625,8.276238E-07,-0.6528038,-1.896675E-08,NaN,NaN,-0.01968468,4.190932E-11,2.965525E-07,-1.118706E-07,-6.926762E-10,-3.099441E-08
33.28114,-1.433163,-3.394488E-08,NaN,-0.3246782,-1.319428E-07,NaN,0.7633399,6.976968E-08,NaN,-0.3670737,8.284201E-07,-0.6487851,-1.900875E-08,NaN,NaN,-0.0196899,4.190932E-11,2.880589E-07,-1.118878E-07,-6.926762E-10,-2.861022E-08
33.29729,-1.433163,-3.394488E-08,NaN,-0.3246782,-1.319428E-07,NaN,0.7633399,6.976968E-08,NaN,-0.3670737,8.284201E-07,-0.6487851,-1.900875E-08,NaN,NaN,-0.0196899,4.190932E-11,2.880589E-07,-1.118878E-07,-6.926762E-10,-2.861022E-08
33.31281,-1.433147,-3.39476E-08,NaN,-0.3247014,-1.319651E-07,NaN,0.7584404,6.980849E-08,NaN,-0.3690286,8.292117E-07,-0.6446422,-1.904465E-08,NaN,NaN,-0.01969517,5.122254E-11,2.825454E-07,-1.119047E-07,-6.926762E-10,-2.861022E-08
33.32926,-1.432777,-3.39503E-08,NaN,-0.3247245,-1.319871E-07,NaN,0.7536339,6.984335E-08,NaN,-0.3709412,8.299986E-07,-0.6405883,-1.907659E-08,NaN,NaN,-0.01970025,6.984899E-11,2.742008E-07,-1.119214E-07,1.393486E-09,-2.861022E-08
33.34554,-1.432186,-3.395299E-08,NaN,-0.3247476,-1.320083E-07,NaN,0.748982,6.98997E-08,NaN,-0.3727866,8.307949E-07,-0.6366775,-1.913003E-08,NaN,NaN,-0.01970512,6.984899E-11,2.700285E-07,-1.119372E-07,2.013936E-10,-2.622604E-08
33.36124,-1.430731,-3.395567E-08,NaN,-0.3247682,-1.32029E-07,NaN,0.7435611,6.994699E-08,NaN,-0.3749023,8.315818E-07,-0.6320755,-1.917439E-08,NaN,NaN,-0.01971084,7.45056E-11,2.63621E-07,-1.119527E-07,7.9744E-10,-2.861022E-08
33.37727,-1.430731,-3.395567E-08,NaN,-0.3247682,-1.32029E-07,NaN,0.7435611,6.994699E-08,NaN,-0.3749023,8.315818E-07,-0.6320755,-1.917439E-08,NaN,NaN,-0.01971084,7.45056E-11,2.63621E-07,-1.119527E-07,7.9744E-10,-2.861022E-08
33.39214,-1.428738,-3.395833E-08,NaN,-0.3247876,-1.320494E-07,NaN,0.7380306,6.998881E-08,NaN,-0.3770584,8.323734E-07,-0.6273795,-1.921326E-08,NaN,NaN,-0.01971658,6.984899E-11,2.566174E-07,-1.119679E-07,2.013936E-10,-2.622604E-08
33.40893,-1.426415,-3.396098E-08,NaN,-0.3248062,-1.320696E-07,NaN,0.7326204,7.00266E-08,NaN,-0.3791672,8.331604E-07,-0.6227962,-1.924811E-08,NaN,NaN,-0.01972211,6.519237E-11,2.487198E-07,-1.119829E-07,1.69151E-09,-2.861022E-08
33.42442,-1.423894,-3.396361E-08,NaN,-0.3248242,-1.320895E-07,NaN,0.7273898,7.006111E-08,NaN,-0.3812034,8.33938E-07,-0.6183779,-1.927966E-08,NaN,NaN,-0.01972739,6.984899E-11,2.411202E-07,-1.119978E-07,1.989533E-09,-2.622604E-08
33.44026,-1.420531,-3.396622E-08,NaN,-0.3248395,-1.321098E-07,NaN,0.721451,7.010328E-08,NaN,-0.3835108,8.34725E-07,-0.6133256,-1.931887E-08,NaN,NaN,-0.01973343,6.519237E-11,2.339677E-07,-1.120117E-07,2.883602E-09,-2.861022E-08
33.45628,-1.420531,-3.396622E-08,NaN,-0.3248395,-1.321098E-07,NaN,0.721451,7.010328E-08,NaN,-0.3835108,8.34725E-07,-0.6133256,-1.931887E-08,NaN,NaN,-0.01973343,6.519237E-11,2.339677E-07,-1.120117E-07,2.883602E-09,-2.861022E-08
33.47103,-1.416653,-3.396882E-08,NaN,-0.3248529,-1.3213E-07,NaN,0.7154369,7.014209E-08,NaN,-0.3858548,8.355119E-07,-0.6082101,-1.935472E-08,NaN,NaN,-0.01973946,6.053576E-11,2.25623E-07,-1.120255E-07,1.989533E-09,-2.622604E-08
33.48757,-1.412466,-3.397141E-08,NaN,-0.3248651,-1.3215E-07,NaN,0.7095685,7.017829E-08,NaN,-0.3881464,8.362989E-07,-0.6032296,-1.938796E-08,NaN,NaN,-0.01974526,5.587915E-11,2.201096E-07,-1.120392E-07,7.974399E-10,-2.861022E-08
33.50281,-1.408102,-3.397398E-08,NaN,-0.3248763,-1.321699E-07,NaN,0.7039024,7.021261E-08,NaN,-0.3903599,8.370858E-07,-0.5984337,-1.941931E-08,NaN,NaN,-0.0197508,5.122253E-11,2.140001E-07,-1.120528E-07,-6.926761E-10,-2.622604E-08
33.51882,-1.408102,-3.397398E-08,NaN,-0.3248763,-1.321699E-07,NaN,0.7039024,7.021261E-08,NaN,-0.3903599,8.370858E-07,-0.5984337,-1.941931E-08,NaN,NaN,-0.0197508,5.122253E-11,2.140001E-07,-1.120528E-07,-6.926761E-10,-2.622604E-08
33.5334,-1.402918,-3.397654E-08,NaN,-0.3248845,-1.321897E-07,NaN,0.6975874,7.024508E-08,NaN,-0.392846,8.378727E-07,-0.5930601,-1.944881E-08,NaN,NaN,-0.019757,4.656592E-11,2.081886E-07,-1.120663E-07,-3.374885E-09,-2.861022E-08
33.55006,-1.397239,-3.397908E-08,NaN,-0.3248905,-1.322094E-07,NaN,0.6912287,7.027644E-08,NaN,-0.3953652,8.386597E-07,-0.5876518,-1.94772E-08,NaN,NaN,-0.01976317,4.190931E-11,2.017811E-07,-1.120798E-07,-3.672908E-09,-2.622604E-08
33.56543,-1.391273,-3.398161E-08,NaN,-0.3248948,-1.322291E-07,NaN,0.6850378,7.030599E-08,NaN,-0.397827,8.394466E-07,-0.5823973,-1.950379E-08,NaN,NaN,-0.0197691,3.72527E-11,1.937345E-07,-1.120932E-07,-3.970932E-09,-2.861022E-08
33.58114,-1.385151,-3.398413E-08,NaN,-0.3248979,-1.322487E-07,NaN,0.6790679,7.033449E-08,NaN,-0.4002052,8.402336E-07,-0.5773437,-1.952931E-08,NaN,NaN,-0.01977476,3.259609E-11,1.87774E-07,-1.121066E-07,-4.865001E-09,-2.622604E-08
33.59742,-1.385151,-3.398413E-08,NaN,-0.3248979,-1.322487E-07,NaN,0.6790679,7.033449E-08,NaN,-0.4002052,8.402336E-07,-0.5773437,-1.952931E-08,NaN,NaN,-0.01977476,3.259609E-11,1.87774E-07,-1.121066E-07,-4.865001E-09,-2.622604E-08
33.61215,-1.378228,-3.398663E-08,NaN,-0.3248991,-1.322683E-07,NaN,0.6725076,7.036193E-08,NaN,-0.4028583,8.410205E-07,-0.5717681,-1.955379E-08,NaN,NaN,-0.01978099,2.793947E-11,1.810685E-07,-1.121199E-07,-6.057094E-09,-2.861022E-08
33.63087,-1.370831,-3.398911E-08,NaN,-0.3248994,-1.322873E-07,NaN,0.6659331,7.037818E-08,NaN,-0.4055417,8.418028E-07,-0.5661848,-1.956706E-08,NaN,NaN,-0.01978716,2.793947E-11,1.765982E-07,-1.121342E-07,-5.163025E-09,-2.622604E-08
33.6438,-1.363166,-3.399159E-08,NaN,-0.3248991,-1.323064E-07,NaN,0.6595455,7.039426E-08,NaN,-0.408163,8.425758E-07,-0.5607721,-1.958017E-08,NaN,NaN,-0.01979307,3.72527E-11,1.698927E-07,-1.121485E-07,-5.461048E-09,-2.861022E-08
33.65946,-1.363166,-3.399159E-08,NaN,-0.3248991,-1.323064E-07,NaN,0.6595455,7.039426E-08,NaN,-0.408163,8.425758E-07,-0.5607721,-1.958017E-08,NaN,NaN,-0.01979307,3.72527E-11,1.698927E-07,-1.121485E-07,-5.461048E-09,-2.861022E-08
33.67466,-1.354637,-3.399404E-08,NaN,-0.324896,-1.323254E-07,NaN,0.6526154,7.041023E-08,NaN,-0.4110595,8.433582E-07,-0.5548832,-1.959316E-08,NaN,NaN,-0.0197995,3.72527E-11,1.603559E-07,-1.121627E-07,-4.566978E-09,-2.622604E-08
33.69087,-1.3456,-3.399649E-08,NaN,-0.3248906,-1.323444E-07,NaN,0.645714,7.042538E-08,NaN,-0.4139744,8.441405E-07,-0.5490252,-1.960533E-08,NaN,NaN,-0.01980582,3.72527E-11,1.558856E-07,-1.121769E-07,-3.672909E-09,-2.861022E-08
33.70654,-1.336281,-3.399892E-08,NaN,-0.3248835,-1.323633E-07,NaN,0.639037,7.043974E-08,NaN,-0.416813,8.449229E-07,-0.5433708,-1.961671E-08,NaN,NaN,-0.01981187,3.72527E-11,1.494781E-07,-1.121911E-07,-3.374885E-09,-2.622604E-08
33.72233,-1.326823,-3.400134E-08,NaN,-0.3248751,-1.323822E-07,NaN,0.6326287,7.045332E-08,NaN,-0.4195498,8.457052E-07,-0.5379585,-1.962732E-08,NaN,NaN,-0.01981761,3.72527E-11,1.427725E-07,-1.122053E-07,-2.480816E-09,-2.861022E-08
33.7377,-1.326823,-3.400134E-08,NaN,-0.3248751,-1.323822E-07,NaN,0.6326287,7.045332E-08,NaN,-0.4195498,8.457052E-07,-0.5379585,-1.962732E-08,NaN,NaN,-0.01981761,3.72527E-11,1.427725E-07,-1.122053E-07,-2.480816E-09,-2.861022E-08
33.75308,-1.316591,-3.400374E-08,NaN,-0.3248635,-1.324011E-07,NaN,0.6257402,7.046616E-08,NaN,-0.4225568,8.464921E-07,-0.5321286,-1.963717E-08,NaN,NaN,-0.01982379,3.259609E-11,1.36514E-07,-1.122194E-07,-2.182793E-09,-2.622604E-08
33.76888,-1.305913,-3.400613E-08,NaN,-0.3248493,-1.324199E-07,NaN,0.6188928,7.047754E-08,NaN,-0.4255821,8.472791E-07,-0.5263404,-1.964559E-08,NaN,NaN,-0.01982986,2.793948E-11,1.298085E-07,-1.122335E-07,-2.778839E-09,-2.861022E-08
33.78637,-1.295,-3.40085E-08,NaN,-0.3248332,-1.324386E-07,NaN,0.6122677,7.048821E-08,NaN,-0.428532,8.480614E-07,-0.5207525,-1.965329E-08,NaN,NaN,-0.01983569,2.793948E-11,1.23252E-07,-1.122475E-07,-9.906996E-10,-2.622604E-08
