JMolnar6/NonAnthroHands_User_Study/HandsLoggerWithURDF/tempdata/files/Reachy_JointMotion_gesture_4_20.csv
Time,r_shoulder,r_shoulder_x,r_upper_arm,r_forearm,r_wrist,r_wrist2hand,
218.7618,0.04500197,-2.403574E-08,NaN,-0.3269987,-1.366802E-07,NaN,0.4705475,-2.109193E-08,NaN,-0.5273627,7.473396E-06,-0.38213,1.509687E-08,NaN,NaN,-0.01996819,-3.632163E-10,1.786612E-07,-1.144365E-07,2.077989E-09,-2.861022E-08
218.7796,0.04500197,-2.403574E-08,NaN,-0.3269987,-1.366802E-07,NaN,0.4705475,-2.109193E-08,NaN,-0.5273627,7.473396E-06,-0.38213,1.509687E-08,NaN,NaN,-0.01996819,-3.632163E-10,1.786612E-07,-1.144365E-07,2.077989E-09,-2.861022E-08
218.7955,0.04500198,-2.403465E-08,NaN,-0.3269987,-1.36679E-07,NaN,0.470703,-2.225794E-08,NaN,-0.5284323,7.474061E-06,-0.3823386,1.580118E-08,NaN,NaN,-0.01997175,-3.725295E-10,1.502E-07,-1.144343E-07,-3.061964E-10,-2.622604E-08
218.8131,0.04500199,-2.403355E-08,NaN,-0.3269987,-1.366779E-07,NaN,0.4708463,-2.342395E-08,NaN,-0.5302027,7.474718E-06,-0.3825605,1.650092E-08,NaN,NaN,-0.01997377,-3.725295E-10,1.320206E-07,-1.144321E-07,-2.690382E-09,-2.861022E-08
218.8304,0.04500199,-2.403246E-08,NaN,-0.3269987,-1.366768E-07,NaN,0.4709453,-2.458996E-08,NaN,-0.532289,7.475375E-06,-0.3827437,1.719611E-08,NaN,NaN,-0.01997514,-3.725295E-10,1.195036E-07,-1.144298E-07,-3.061964E-10,-2.622604E-08
218.8473,0.04500199,-2.403136E-08,NaN,-0.3269987,-1.366756E-07,NaN,0.4708656,-2.575598E-08,NaN,-0.5332744,7.476031E-06,-0.3826931,1.788679E-08,NaN,NaN,-0.01997273,-3.725295E-10,1.394712E-07,-1.144276E-07,2.077989E-09,-2.861022E-08
218.864,0.04500199,-2.403027E-08,NaN,-0.3269987,-1.366745E-07,NaN,0.4707785,-2.692199E-08,NaN,-0.5336058,7.476688E-06,-0.3826028,1.857299E-08,NaN,NaN,-0.01997172,-3.725295E-10,1.485609E-07,-1.144254E-07,2.077989E-09,-2.622604E-08
218.8813,0.04500198,-2.402918E-08,NaN,-0.3269987,-1.366733E-07,NaN,0.4707245,-2.8088E-08,NaN,-0.5336263,7.477345E-06,-0.3825336,1.925473E-08,NaN,NaN,-0.01997126,-3.725295E-10,1.519881E-07,-1.144232E-07,2.077989E-09,-2.861022E-08
218.8989,0.04500198,-2.402918E-08,NaN,-0.3269987,-1.366733E-07,NaN,0.4707245,-2.8088E-08,NaN,-0.5336263,7.477345E-06,-0.3825336,1.925473E-08,NaN,NaN,-0.01997126,-3.725295E-10,1.519881E-07,-1.144232E-07,2.077989E-09,-2.861022E-08
218.9149,0.04500197,-2.402808E-08,NaN,-0.3269987,-1.366721E-07,NaN,0.4705549,-2.925401E-08,NaN,-0.5322665,7.478001E-06,-0.3822948,1.993204E-08,NaN,NaN,-0.01996752,-3.725295E-10,1.826845E-07,-1.144209E-07,4.462175E-09,-2.622604E-08
218.9325,0.04500196,-2.402699E-08,NaN,-0.3269987,-1.36671E-07,NaN,0.4704134,-3.042002E-08,NaN,-0.5301399,7.478667E-06,-0.3820606,2.060496E-08,NaN,NaN,-0.01996539,-3.818428E-10,1.998209E-07,-1.144187E-07,6.846361E-09,-2.861022E-08
218.9496,0.04500195,-2.402589E-08,NaN,-0.3269987,-1.366698E-07,NaN,0.4703228,-3.158603E-08,NaN,-0.527669,7.479324E-06,-0.3818752,2.127351E-08,NaN,NaN,-0.01996389,-3.864994E-10,2.126359E-07,-1.144165E-07,1.161473E-08,-2.622604E-08
218.9663,0.04500194,-2.40248E-08,NaN,-0.3269987,-1.366686E-07,NaN,0.4702688,-3.275204E-08,NaN,-0.5250558,7.479976E-06,-0.3817331,2.193772E-08,NaN,NaN,-0.01996267,-3.864994E-10,2.229177E-07,-1.144143E-07,9.230547E-09,-2.861022E-08
218.9835,0.04500192,-2.402371E-08,NaN,-0.3269987,-1.366674E-07,NaN,0.4700888,-3.391806E-08,NaN,-0.5211637,7.480633E-06,-0.3814228,2.259761E-08,NaN,NaN,-0.01995798,-3.91156E-10,2.618097E-07,-1.144121E-07,1.399892E-08,-2.622604E-08
219.0006,0.04500191,-2.402261E-08,NaN,-0.3269987,-1.366662E-07,NaN,0.4699275,-3.508407E-08,NaN,-0.5165736,7.48128E-06,-0.381115,2.325322E-08,NaN,NaN,-0.01995487,-3.864994E-10,2.874397E-07,-1.144098E-07,1.399892E-08,-2.861022E-08
219.018,0.04500191,-2.402261E-08,NaN,-0.3269987,-1.366662E-07,NaN,0.4699275,-3.508407E-08,NaN,-0.5165736,7.48128E-06,-0.381115,2.325322E-08,NaN,NaN,-0.01995487,-3.864994E-10,2.874397E-07,-1.144098E-07,1.399892E-08,-2.861022E-08
219.0339,0.04500189,-2.402152E-08,NaN,-0.3269987,-1.36665E-07,NaN,0.4698125,-3.625008E-08,NaN,-0.5116922,7.481936E-06,-0.3808553,2.390458E-08,NaN,NaN,-0.01995242,-3.91156E-10,3.068112E-07,-1.144076E-07,1.399892E-08,-2.622604E-08
219.0518,0.04500187,-2.402043E-08,NaN,-0.3269987,-1.366638E-07,NaN,0.4695816,-3.741609E-08,NaN,-0.5054807,7.482583E-06,-0.3804392,2.45517E-08,NaN,NaN,-0.01994645,-3.864994E-10,3.540479E-07,-1.144054E-07,1.876729E-08,-2.861022E-08
219.0685,0.04500185,-2.401934E-08,NaN,-0.3269987,-1.366626E-07,NaN,0.4693775,-3.85821E-08,NaN,-0.4985659,7.483245E-06,-0.380036,2.519463E-08,NaN,NaN,-0.01994218,-3.958126E-10,3.867559E-07,-1.144032E-07,1.399892E-08,-2.622604E-08
219.0856,0.04500183,-2.401824E-08,NaN,-0.3269987,-1.366614E-07,NaN,0.4692255,-3.974811E-08,NaN,-0.4913765,7.483892E-06,-0.3796895,2.583337E-08,NaN,NaN,-0.0199386,-3.91156E-10,4.133545E-07,-1.144009E-07,9.230547E-09,-2.861022E-08
219.1025,0.04500181,-2.401715E-08,NaN,-0.3269987,-1.366602E-07,NaN,0.4691127,-4.091412E-08,NaN,-0.4841167,7.484548E-06,-0.3793939,2.646798E-08,NaN,NaN,-0.01993529,-3.958126E-10,4.369728E-07,-1.143987E-07,9.230547E-09,-2.622604E-08
219.1196,0.04500181,-2.401715E-08,NaN,-0.3269987,-1.366602E-07,NaN,0.4691127,-4.091412E-08,NaN,-0.4841167,7.484548E-06,-0.3793939,2.646798E-08,NaN,NaN,-0.01993529,-3.958126E-10,4.369728E-07,-1.143987E-07,9.230547E-09,-2.622604E-08
219.1363,0.04500179,-2.401606E-08,NaN,-0.3269987,-1.36659E-07,NaN,0.4690047,-4.208013E-08,NaN,-0.4767384,7.485196E-06,-0.3791106,2.709846E-08,NaN,NaN,-0.01993159,-3.91156E-10,4.626028E-07,-1.143965E-07,4.462176E-09,-2.861022E-08
219.1541,0.04500178,-2.401497E-08,NaN,-0.3269987,-1.366577E-07,NaN,0.4689104,-4.324615E-08,NaN,-0.46935,7.485852E-06,-0.37885,2.772485E-08,NaN,NaN,-0.01992813,-4.004692E-10,4.851036E-07,-1.143943E-07,6.846361E-09,-2.622604E-08
219.1706,0.04500176,-2.401387E-08,NaN,-0.3269987,-1.366565E-07,NaN,0.4688286,-4.441216E-08,NaN,-0.462018,7.486504E-06,-0.3786114,2.834718E-08,NaN,NaN,-0.01992475,-4.051258E-10,5.044751E-07,-1.14392E-07,6.846361E-09,-2.861022E-08
219.1875,0.04500175,-2.401278E-08,NaN,-0.3269987,-1.366553E-07,NaN,0.4687561,-4.557817E-08,NaN,-0.4547731,7.487156E-06,-0.3783906,2.896546E-08,NaN,NaN,-0.01992139,-4.051258E-10,5.245916E-07,-1.143898E-07,2.07799E-09,-2.622604E-08
219.2045,0.04500173,-2.401169E-08,NaN,-0.3269987,-1.36654E-07,NaN,0.4686904,-4.674418E-08,NaN,-0.4476293,7.487808E-06,-0.3781842,2.957973E-08,NaN,NaN,-0.01991803,-4.051258E-10,5.435161E-07,-1.143876E-07,2.07799E-09,-2.861022E-08
219.2231,0.04500172,-2.40106E-08,NaN,-0.3269987,-1.366528E-07,NaN,0.4686304,-4.791019E-08,NaN,-0.4405921,7.488461E-06,-0.3779898,3.019001E-08,NaN,NaN,-0.01991464,-4.051258E-10,5.619935E-07,-1.143854E-07,-7.458754E-09,-2.622604E-08
219.2381,0.04500172,-2.40106E-08,NaN,-0.3269987,-1.366528E-07,NaN,0.4686304,-4.791019E-08,NaN,-0.4405921,7.488461E-06,-0.3779898,3.019001E-08,NaN,NaN,-0.01991464,-4.051258E-10,5.619935E-07,-1.143854E-07,-7.458754E-09,-2.622604E-08
219.2541,0.0450017,-2.40095E-08,NaN,-0.3269987,-1.366515E-07,NaN,0.4685756,-4.90762E-08,NaN,-0.4336635,7.489117E-06,-0.3778059,3.079633E-08,NaN,NaN,-0.01991122,-4.097824E-10,5.771927E-07,-1.143831E-07,-2.690382E-09,-2.861022E-08
219.2717,0.04500169,-2.400841E-08,NaN,-0.3269987,-1.366503E-07,NaN,0.4685259,-5.024221E-08,NaN,-0.4268435,7.489769E-06,-0.3776319,3.139871E-08,NaN,NaN,-0.01990776,-4.097824E-10,5.93435E-07,-1.143809E-07,-3.061964E-10,-2.622604E-08
219.2887,0.04500167,-2.400732E-08,NaN,-0.3269987,-1.36649E-07,NaN,0.4684815,-5.140823E-08,NaN,-0.420131,7.490421E-06,-0.3774672,3.199719E-08,NaN,NaN,-0.01990428,-4.097824E-10,6.086342E-07,-1.143789E-07,-5.074568E-09,-2.861022E-08
219.3054,0.04500166,-2.400623E-08,NaN,-0.3269987,-1.366473E-07,NaN,0.4684426,-5.257424E-08,NaN,-0.4135248,7.491074E-06,-0.3773116,3.259177E-08,NaN,NaN,-0.01990075,-4.097824E-10,6.244294E-07,-1.143777E-07,-7.458754E-09,-2.622604E-08
219.3225,0.04500164,-2.400513E-08,NaN,-0.3269987,-1.366457E-07,NaN,0.4684094,-5.374025E-08,NaN,-0.4070234,7.491726E-06,-0.3771649,3.318251E-08,NaN,NaN,-0.01989718,-4.097824E-10,6.393306E-07,-1.143765E-07,-1.222713E-08,-2.861022E-08
219.3391,0.04500164,-2.400513E-08,NaN,-0.3269987,-1.366457E-07,NaN,0.4684094,-5.374025E-08,NaN,-0.4070234,7.491726E-06,-0.3771649,3.318251E-08,NaN,NaN,-0.01989718,-4.097824E-10,6.393306E-07,-1.143765E-07,-1.222713E-08,-2.861022E-08
219.3553,0.04500163,-2.400404E-08,NaN,-0.3269987,-1.366441E-07,NaN,0.4683821,-5.490626E-08,NaN,-0.4006252,7.492378E-06,-0.377027,3.37694E-08,NaN,NaN,-0.01989357,-4.097824E-10,6.530396E-07,-1.143753E-07,-1.222713E-08,-2.622604E-08
219.3725,0.04500162,-2.400295E-08,NaN,-0.3269987,-1.366425E-07,NaN,0.4683607,-5.607227E-08,NaN,-0.3943286,7.49303E-06,-0.3768978,3.435249E-08,NaN,NaN,-0.01988991,-4.097824E-10,6.655566E-07,-1.143742E-07,-9.842939E-09,-2.861022E-08
219.3894,0.04500161,-2.400186E-08,NaN,-0.3269987,-1.36641E-07,NaN,0.4683453,-5.723828E-08,NaN,-0.388132,7.493687E-06,-0.3767772,3.493178E-08,NaN,NaN,-0.0198862,-4.14439E-10,6.773286E-07,-1.14373E-07,-7.458754E-09,-2.622604E-08
219.4062,0.0450016,-2.400076E-08,NaN,-0.3269987,-1.366394E-07,NaN,0.468336,-5.840429E-08,NaN,-0.3820338,7.494343E-06,-0.3766652,3.550732E-08,NaN,NaN,-0.01988245,-4.190956E-10,6.889514E-07,-1.143719E-07,-9.842939E-09,-2.861022E-08
219.4231,0.04500159,-2.399967E-08,NaN,-0.3269987,-1.366379E-07,NaN,0.4683329,-5.95703E-08,NaN,-0.3760325,7.49499E-06,-0.3765615,3.607913E-08,NaN,NaN,-0.01987865,-4.14439E-10,7.007234E-07,-1.143707E-07,-1.222712E-08,-2.622604E-08
219.44,0.04500159,-2.399967E-08,NaN,-0.3269987,-1.366379E-07,NaN,0.4683329,-5.95703E-08,NaN,-0.3760325,7.49499E-06,-0.3765615,3.607913E-08,NaN,NaN,-0.01987865,-4.14439E-10,7.007234E-07,-1.143707E-07,-1.222712E-08,-2.622604E-08
219.4566,0.04500158,-2.399858E-08,NaN,-0.3269987,-1.366363E-07,NaN,0.4683358,-6.073632E-08,NaN,-0.3701265,7.495637E-06,-0.3764662,3.664722E-08,NaN,NaN,-0.01987479,-4.097824E-10,7.105581E-07,-1.143696E-07,-1.69955E-08,-2.861022E-08
219.4736,0.04500157,-2.399749E-08,NaN,-0.3269987,-1.366348E-07,NaN,0.468345,-6.190233E-08,NaN,-0.3643144,7.496285E-06,-0.3763792,3.721162E-08,NaN,NaN,-0.01987089,-4.051258E-10,7.202439E-07,-1.143684E-07,-1.69955E-08,-2.622604E-08
219.4907,0.04500156,-2.399639E-08,NaN,-0.3269987,-1.366332E-07,NaN,0.4683603,-6.306835E-08,NaN,-0.3585946,7.496918E-06,-0.3763003,3.777236E-08,NaN,NaN,-0.01986692,-3.864993E-10,7.311218E-07,-1.143673E-07,-1.461131E-08,-2.861022E-08
219.5074,0.04500154,-2.39953E-08,NaN,-0.3269987,-1.366316E-07,NaN,0.4683818,-6.423436E-08,NaN,-0.3529657,7.497561E-06,-0.3762295,3.832945E-08,NaN,NaN,-0.0198629,-3.771861E-10,7.408075E-07,-1.143661E-07,-1.222713E-08,-2.622604E-08
219.5244,0.04500153,-2.399421E-08,NaN,-0.3269987,-1.366301E-07,NaN,0.4684094,-6.540038E-08,NaN,-0.3474261,7.498194E-06,-0.3761667,3.888293E-08,NaN,NaN,-0.01985881,-3.585597E-10,7.497482E-07,-1.143649E-07,-1.222713E-08,-2.861022E-08
219.5412,0.04500152,-2.399312E-08,NaN,-0.3269987,-1.366285E-07,NaN,0.4684432,-6.656639E-08,NaN,-0.3419746,7.498837E-06,-0.3761118,3.943282E-08,NaN,NaN,-0.01985467,-3.492464E-10,7.582419E-07,-1.143638E-07,-1.461131E-08,-2.622604E-08
219.5587,0.04500152,-2.399312E-08,NaN,-0.3269987,-1.366285E-07,NaN,0.4684432,-6.656639E-08,NaN,-0.3419746,7.498837E-06,-0.3761118,3.943282E-08,NaN,NaN,-0.01985467,-3.492464E-10,7.582419E-07,-1.143638E-07,-1.461131E-08,-2.622604E-08
219.5743,0.04500151,-2.399203E-08,NaN,-0.3269987,-1.366269E-07,NaN,0.4684832,-6.773241E-08,NaN,-0.3366098,7.499484E-06,-0.3760648,3.997913E-08,NaN,NaN,-0.01985046,-3.399332E-10,7.647984E-07,-1.143626E-07,-1.69955E-08,-2.861022E-08
219.5921,0.0450015,-2.399094E-08,NaN,-0.3269987,-1.366254E-07,NaN,0.4685293,-6.889842E-08,NaN,-0.3313301,7.500117E-06,-0.3760255,4.05219E-08,NaN,NaN,-0.01984618,-3.166502E-10,7.707588E-07,-1.143614E-07,-2.176387E-08,-2.622604E-08
219.6086,0.04500149,-2.398985E-08,NaN,-0.3269987,-1.366238E-07,NaN,0.4685815,-7.006444E-08,NaN,-0.3261343,7.500755E-06,-0.3759939,4.106115E-08,NaN,NaN,-0.01984184,-2.980237E-10,7.779114E-07,-1.143602E-07,-2.176387E-08,-2.861022E-08
219.626,0.04500148,-2.398876E-08,NaN,-0.3269987,-1.366222E-07,NaN,0.4686399,-7.123045E-08,NaN,-0.3210211,7.501407E-06,-0.3759699,4.159689E-08,NaN,NaN,-0.01983743,-2.887105E-10,7.838719E-07,-1.143591E-07,-1.937968E-08,-2.622604E-08
219.6424,0.04500147,-2.398767E-08,NaN,-0.3269987,-1.366206E-07,NaN,0.4687043,-7.239647E-08,NaN,-0.3159891,7.502059E-06,-0.3759535,4.212916E-08,NaN,NaN,-0.01983294,-2.793973E-10,7.899814E-07,-1.143579E-07,-1.69955E-08,-2.861022E-08
219.6594,0.04500147,-2.398767E-08,NaN,-0.3269987,-1.366206E-07,NaN,0.4687043,-7.239647E-08,NaN,-0.3159891,7.502059E-06,-0.3759535,4.212916E-08,NaN,NaN,-0.01983294,-2.793973E-10,7.899814E-07,-1.143579E-07,-1.69955E-08,-2.861022E-08
219.6752,0.04500145,-2.398658E-08,NaN,-0.3269987,-1.366191E-07,NaN,0.4687749,-7.356248E-08,NaN,-0.3110371,7.502711E-06,-0.3759446,4.265797E-08,NaN,NaN,-0.01982838,-2.70084E-10,7.960908E-07,-1.143567E-07,-1.461131E-08,-2.622604E-08
219.6928,0.04500144,-2.398549E-08,NaN,-0.3269987,-1.366175E-07,NaN,0.4688515,-7.47285E-08,NaN,-0.3061638,7.503368E-06,-0.375943,4.318335E-08,NaN,NaN,-0.01982374,-2.654274E-10,8.017533E-07,-1.143555E-07,-1.461131E-08,-2.861022E-08
219.7094,0.04500143,-2.39844E-08,NaN,-0.3269987,-1.366159E-07,NaN,0.4689342,-7.589451E-08,NaN,-0.3013679,7.504015E-06,-0.3759488,4.370532E-08,NaN,NaN,-0.01981903,-2.46801E-10,8.074157E-07,-1.143543E-07,-1.222713E-08,-2.622604E-08
219.7264,0.04500142,-2.398331E-08,NaN,-0.3269987,-1.366148E-07,NaN,0.4690229,-7.498829E-08,NaN,-0.2966482,7.504662E-06,-0.3759619,4.228439E-08,NaN,NaN,-0.01981423,-2.328311E-10,8.118861E-07,-1.143553E-07,-5.074569E-09,-2.861022E-08
219.7445,0.04500141,-2.398222E-08,NaN,-0.3269987,-1.366145E-07,NaN,0.4691178,-7.450364E-08,NaN,-0.2920035,7.505309E-06,-0.3759822,4.139422E-08,NaN,NaN,-0.01980935,-2.235179E-10,8.163564E-07,-1.143554E-07,-7.458755E-09,-2.622604E-08
219.7599,0.04500141,-2.398222E-08,NaN,-0.3269987,-1.366145E-07,NaN,0.4691178,-7.450364E-08,NaN,-0.2920035,7.505309E-06,-0.3759822,4.139422E-08,NaN,NaN,-0.01980935,-2.235179E-10,8.163564E-07,-1.143554E-07,-7.458755E-09,-2.622604E-08
219.7756,0.0450014,-2.398113E-08,NaN,-0.3269987,-1.366142E-07,NaN,0.4692186,-7.401898E-08,NaN,-0.2874327,7.505971E-06,-0.3760096,4.05853E-08,NaN,NaN,-0.01980438,-2.281745E-10,8.211248E-07,-1.143554E-07,2.077988E-09,-2.861022E-08
219.793,0.04500139,-2.398004E-08,NaN,-0.3269987,-1.36614E-07,NaN,0.4693255,-7.353433E-08,NaN,-0.2829344,7.506618E-06,-0.3760442,3.983708E-08,NaN,NaN,-0.01979933,-2.188613E-10,8.23658E-07,-1.143554E-07,4.462174E-09,-2.622604E-08
219.8097,0.04500138,-2.397895E-08,NaN,-0.3269987,-1.366137E-07,NaN,0.4694384,-7.304968E-08,NaN,-0.2785077,7.507279E-06,-0.3760858,3.913443E-08,NaN,NaN,-0.01979419,-2.235179E-10,8.272343E-07,-1.143554E-07,4.462174E-09,-2.861022E-08
219.8262,0.04500137,-2.397785E-08,NaN,-0.3269987,-1.366135E-07,NaN,0.4695573,-7.256502E-08,NaN,-0.2741513,7.507931E-06,-0.3761343,3.846624E-08,NaN,NaN,-0.01978895,-2.188613E-10,8.308106E-07,-1.143554E-07,4.462174E-09,-2.622604E-08
219.8427,0.04500135,-2.397676E-08,NaN,-0.3269987,-1.366132E-07,NaN,0.4696822,-7.208037E-08,NaN,-0.2698641,7.508588E-06,-0.3761898,3.782436E-08,NaN,NaN,-0.01978362,-2.188613E-10,8.330458E-07,-1.143554E-07,2.077988E-09,-2.861022E-08
219.8597,0.04500135,-2.397676E-08,NaN,-0.3269987,-1.366132E-07,NaN,0.4696822,-7.208037E-08,NaN,-0.2698641,7.508588E-06,-0.3761898,3.782436E-08,NaN,NaN,-0.01978362,-2.188613E-10,8.330458E-07,-1.143554E-07,2.077988E-09,-2.861022E-08
219.8754,0.04500134,-2.397567E-08,NaN,-0.3269987,-1.366129E-07,NaN,0.4698131,-7.159571E-08,NaN,-0.2656451,7.50924E-06,-0.3762522,3.720276E-08,NaN,NaN,-0.01977819,-2.095481E-10,8.346849E-07,-1.143553E-07,4.462174E-09,-2.622604E-08
219.8931,0.04500133,-2.397458E-08,NaN,-0.3269987,-1.366126E-07,NaN,0.46995,-7.111106E-08,NaN,-0.2614931,7.509906E-06,-0.3763214,3.659705E-08,NaN,NaN,-0.01977267,-2.142047E-10,8.36473E-07,-1.143553E-07,-3.061973E-10,-2.861022E-08
219.9095,0.04500132,-2.397349E-08,NaN,-0.3269987,-1.366123E-07,NaN,0.4700928,-7.062641E-08,NaN,-0.2574071,7.510567E-06,-0.3763974,3.600397E-08,NaN,NaN,-0.01976703,-2.095481E-10,8.391552E-07,-1.143552E-07,-3.061973E-10,-2.622604E-08
219.9263,0.04500131,-2.39724E-08,NaN,-0.3269987,-1.36612E-07,NaN,0.4702416,-7.014175E-08,NaN,-0.253386,7.511233E-06,-0.37648,3.542113E-08,NaN,NaN,-0.01976129,-2.095481E-10,8.409434E-07,-1.143552E-07,-5.074569E-09,-2.861022E-08
219.943,0.0450013,-2.397131E-08,NaN,-0.3269987,-1.366117E-07,NaN,0.4703963,-6.96571E-08,NaN,-0.2494289,7.511894E-06,-0.3765694,3.484677E-08,NaN,NaN,-0.01975545,-2.095481E-10,8.433275E-07,-1.143551E-07,-5.074569E-09,-2.622604E-08
219.9603,0.04500129,-2.397022E-08,NaN,-0.3269987,-1.366113E-07,NaN,0.4705569,-6.917244E-08,NaN,-0.2455346,7.512555E-06,-0.3766653,3.427958E-08,NaN,NaN,-0.01974949,-2.095481E-10,8.451157E-07,-1.143551E-07,-7.458755E-09,-2.861022E-08
219.977,0.04500129,-2.397022E-08,NaN,-0.3269987,-1.366113E-07,NaN,0.4705569,-6.917244E-08,NaN,-0.2455346,7.512555E-06,-0.3766653,3.427958E-08,NaN,NaN,-0.01974949,-2.095481E-10,8.451157E-07,-1.143551E-07,-7.458755E-09,-2.861022E-08
219.9928,0.04500128,-2.396913E-08,NaN,-0.3269987,-1.36611E-07,NaN,0.4707234,-6.868779E-08,NaN,-0.2417023,7.513216E-06,-0.3767678,3.37186E-08,NaN,NaN,-0.01974342,-2.095481E-10,8.469038E-07,-1.143551E-07,-9.842941E-09,-2.622604E-08
220.0103,0.04500127,-2.396804E-08,NaN,-0.3269987,-1.366107E-07,NaN,0.4708957,-6.820314E-08,NaN,-0.2379308,7.513877E-06,-0.3768769,3.316312E-08,NaN,NaN,-0.01973724,-2.095481E-10,8.480959E-07,-1.14355E-07,-9.842941E-09,-2.861022E-08
220.0274,0.04500126,-2.396695E-08,NaN,-0.3269987,-1.366104E-07,NaN,0.4710739,-6.771848E-08,NaN,-0.2342193,7.514543E-06,-0.3769924,3.261262E-08,NaN,NaN,-0.01973093,-2.095481E-10,8.49586E-07,-1.14355E-07,-7.458755E-09,-2.622604E-08
220.0439,0.04500125,-2.396586E-08,NaN,-0.3269987,-1.366102E-07,NaN,0.471258,-6.723383E-08,NaN,-0.2305668,7.515214E-06,-0.3771143,3.206669E-08,NaN,NaN,-0.01972451,-2.142047E-10,8.510761E-07,-1.14355E-07,-9.842941E-09,-2.861022E-08
220.0611,0.04500125,-2.396477E-08,NaN,-0.3269987,-1.366099E-07,NaN,0.4714479,-6.674917E-08,NaN,-0.2269724,7.51587E-06,-0.3772426,3.152504E-08,NaN,NaN,-0.01971796,-2.048914E-10,8.510761E-07,-1.143549E-07,-7.458755E-09,-2.622604E-08
220.0775,0.04500125,-2.396477E-08,NaN,-0.3269987,-1.366099E-07,NaN,0.4714479,-6.674917E-08,NaN,-0.2269724,7.51587E-06,-0.3772426,3.152504E-08,NaN,NaN,-0.01971796,-2.048914E-10,8.510761E-07,-1.143549E-07,-7.458755E-09,-2.622604E-08
220.0936,0.04500124,-2.396368E-08,NaN,-0.3269987,-1.366096E-07,NaN,0.4716435,-6.626452E-08,NaN,-0.2234351,7.516536E-06,-0.3773772,3.098745E-08,NaN,NaN,-0.01971128,-2.048914E-10,8.516722E-07,-1.143549E-07,-9.842941E-09,-2.861022E-08
220.1112,0.04500123,-2.396258E-08,NaN,-0.3269987,-1.366093E-07,NaN,0.471845,-6.577987E-08,NaN,-0.219954,7.517193E-06,-0.3775181,3.045375E-08,NaN,NaN,-0.01970448,-2.002348E-10,8.519702E-07,-1.143549E-07,-9.842941E-09,-2.622604E-08
220.1279,0.04500122,-2.396149E-08,NaN,-0.3269987,-1.366091E-07,NaN,0.4720522,-6.529521E-08,NaN,-0.2165283,7.517859E-06,-0.3776652,2.99238E-08,NaN,NaN,-0.01969754,-2.048914E-10,8.507781E-07,-1.143549E-07,-5.074569E-09,-2.861022E-08
220.1448,0.04500122,-2.39604E-08,NaN,-0.3269987,-1.366088E-07,NaN,0.4722652,-6.481056E-08,NaN,-0.213157,7.518515E-06,-0.3778185,2.939751E-08,NaN,NaN,-0.01969046,-2.002348E-10,8.507781E-07,-1.143549E-07,-9.842941E-09,-2.622604E-08
220.1615,0.04500121,-2.395931E-08,NaN,-0.3269987,-1.366086E-07,NaN,0.4724838,-6.43259E-08,NaN,-0.2098393,7.519181E-06,-0.3779779,2.887479E-08,NaN,NaN,-0.01968325,-2.048914E-10,8.510761E-07,-1.143549E-07,-5.074569E-09,-2.861022E-08
220.1783,0.04500121,-2.395931E-08,NaN,-0.3269987,-1.366086E-07,NaN,0.4724838,-6.43259E-08,NaN,-0.2098393,7.519181E-06,-0.3779779,2.887479E-08,NaN,NaN,-0.01968325,-2.048914E-10,8.510761E-07,-1.143549E-07,-5.074569E-09,-2.861022E-08
220.1942,0.0450012,-2.395822E-08,NaN,-0.3269987,-1.366083E-07,NaN,0.4727082,-6.384125E-08,NaN,-0.2065744,7.519847E-06,-0.3781434,2.835558E-08,NaN,NaN,-0.01967589,-2.09548E-10,8.5048E-07,-1.143549E-07,-2.690383E-09,-2.622604E-08
220.2122,0.04500119,-2.395713E-08,NaN,-0.3269987,-1.366081E-07,NaN,0.4729382,-6.335659E-08,NaN,-0.2033613,7.520513E-06,-0.3783149,2.783983E-08,NaN,NaN,-0.01966839,-2.142047E-10,8.5048E-07,-1.143549E-07,-7.458755E-09,-2.861022E-08
220.229,0.04500119,-2.395604E-08,NaN,-0.3269987,-1.366079E-07,NaN,0.4731738,-6.287194E-08,NaN,-0.2001994,7.521178E-06,-0.3784924,2.732749E-08,NaN,NaN,-0.01966074,-2.188613E-10,8.492879E-07,-1.14355E-07,-9.842941E-09,-2.622604E-08
220.2459,0.04500118,-2.395495E-08,NaN,-0.3269987,-1.366077E-07,NaN,0.473415,-6.238729E-08,NaN,-0.1970877,7.521849E-06,-0.3786758,2.681852E-08,NaN,NaN,-0.01965295,-2.235179E-10,8.472018E-07,-1.14355E-07,-2.690383E-09,-2.861022E-08
220.2639,0.04500117,-2.395386E-08,NaN,-0.3269987,-1.366075E-07,NaN,0.4736617,-6.190263E-08,NaN,-0.1940255,7.522515E-06,-0.378865,2.631289E-08,NaN,NaN,-0.01964499,-2.188613E-10,8.454136E-07,-1.14355E-07,-7.458755E-09,-2.622604E-08
220.2802,0.04500116,-2.395277E-08,NaN,-0.3269987,-1.366073E-07,NaN,0.473914,-6.141798E-08,NaN,-0.191012,7.523186E-06,-0.3790601,2.581056E-08,NaN,NaN,-0.01963689,-2.235179E-10,8.436255E-07,-1.143551E-07,-7.458755E-09,-2.861022E-08
220.2971,0.04500116,-2.395277E-08,NaN,-0.3269987,-1.366073E-07,NaN,0.473914,-6.141798E-08,NaN,-0.191012,7.523186E-06,-0.3790601,2.581056E-08,NaN,NaN,-0.01963689,-2.235179E-10,8.436255E-07,-1.143551E-07,-7.458755E-09,-2.861022E-08
220.3132,0.04500116,-2.395168E-08,NaN,-0.3269987,-1.366071E-07,NaN,0.4741717,-6.093332E-08,NaN,-0.1880464,7.523842E-06,-0.3792609,2.531151E-08,NaN,NaN,-0.01962862,-2.142046E-10,8.427314E-07,-1.143551E-07,-7.458755E-09,-2.622604E-08
220.3306,0.04500115,-2.395059E-08,NaN,-0.3269987,-1.366069E-07,NaN,0.4744349,-6.044867E-08,NaN,-0.1851279,7.524513E-06,-0.3794674,2.481572E-08,NaN,NaN,-0.01962018,-2.188612E-10,8.403472E-07,-1.143552E-07,-1.461131E-08,-2.861022E-08
220.3478,0.04500114,-2.39495E-08,NaN,-0.3269987,-1.366067E-07,NaN,0.4747035,-5.996402E-08,NaN,-0.1822559,7.52517E-06,-0.3796796,2.432316E-08,NaN,NaN,-0.01961158,-2.09548E-10,8.397512E-07,-1.143553E-07,-1.69955E-08,-2.622604E-08
220.3647,0.04500113,-2.394841E-08,NaN,-0.3269987,-1.366065E-07,NaN,0.4749774,-5.947936E-08,NaN,-0.1794295,7.52584E-06,-0.3798973,2.38338E-08,NaN,NaN,-0.01960282,-2.142046E-10,8.397512E-07,-1.143553E-07,-1.461131E-08,-2.861022E-08
220.3817,0.04500113,-2.394732E-08,NaN,-0.3269987,-1.366063E-07,NaN,0.4752566,-5.899471E-08,NaN,-0.1766481,7.526502E-06,-0.3801205,2.334762E-08,NaN,NaN,-0.01959387,-2.142046E-10,8.379631E-07,-1.143554E-07,-1.222713E-08,-2.622604E-08
220.3986,0.04500113,-2.394732E-08,NaN,-0.3269987,-1.366063E-07,NaN,0.4752566,-5.899471E-08,NaN,-0.1766481,7.526502E-06,-0.3801205,2.334762E-08,NaN,NaN,-0.01959387,-2.142046E-10,8.379631E-07,-1.143554E-07,-1.222713E-08,-2.622604E-08
220.4151,0.04500112,-2.394622E-08,NaN,-0.3269987,-1.366062E-07,NaN,0.4755411,-5.851005E-08,NaN,-0.1739109,7.527172E-06,-0.3803492,2.28646E-08,NaN,NaN,-0.01958475,-2.235179E-10,8.361749E-07,-1.143555E-07,-1.937969E-08,-2.861022E-08
220.4326,0.04500111,-2.394513E-08,NaN,-0.3269987,-1.36606E-07,NaN,0.4758308,-5.80254E-08,NaN,-0.1712172,7.527834E-06,-0.3805832,2.238473E-08,NaN,NaN,-0.01957546,-2.235179E-10,8.334927E-07,-1.143556E-07,-1.937969E-08,-2.622604E-08
220.45,0.0450011,-2.394404E-08,NaN,-0.3269987,-1.366059E-07,NaN,0.4761256,-5.754075E-08,NaN,-0.1685664,7.528504E-06,-0.3808226,2.190797E-08,NaN,NaN,-0.01956599,-2.328311E-10,8.305125E-07,-1.143557E-07,-1.69955E-08,-2.861022E-08
220.4666,0.0450011,-2.394295E-08,NaN,-0.3269987,-1.366057E-07,NaN,0.4764256,-5.705609E-08,NaN,-0.1659577,7.529161E-06,-0.3810672,2.14343E-08,NaN,NaN,-0.01955633,-2.281745E-10,8.287244E-07,-1.143557E-07,-2.176387E-08,-2.622604E-08
220.4837,0.04500109,-2.394186E-08,NaN,-0.3269987,-1.366056E-07,NaN,0.4767305,-5.657144E-08,NaN,-0.1633905,7.529827E-06,-0.381317,2.096372E-08,NaN,NaN,-0.01954648,-2.374877E-10,8.248501E-07,-1.143558E-07,-1.69955E-08,-2.861022E-08
220.5004,0.04500108,-2.394077E-08,NaN,-0.3269987,-1.366055E-07,NaN,0.4770404,-5.608678E-08,NaN,-0.1608642,7.530483E-06,-0.3815718,2.049618E-08,NaN,NaN,-0.01953644,-2.374877E-10,8.221679E-07,-1.143559E-07,-1.461131E-08,-2.622604E-08
220.5177,0.04500108,-2.394077E-08,NaN,-0.3269987,-1.366055E-07,NaN,0.4770404,-5.608678E-08,NaN,-0.1608642,7.530483E-06,-0.3815718,2.049618E-08,NaN,NaN,-0.01953644,-2.374877E-10,8.221679E-07,-1.143559E-07,-1.461131E-08,-2.622604E-08
220.534,0.04500107,-2.393968E-08,NaN,-0.3269987,-1.366054E-07,NaN,0.4774174,-5.560213E-08,NaN,-0.1585212,7.531135E-06,-0.3818963,2.003169E-08,NaN,NaN,-0.01953067,-2.328311E-10,8.156114E-07,-1.143561E-07,-9.842943E-09,-2.861022E-08
220.5516,0.04500107,-2.393859E-08,NaN,-0.3269987,-1.366053E-07,NaN,0.4778003,-5.511748E-08,NaN,-0.1563015,7.531792E-06,-0.3822283,1.957021E-08,NaN,NaN,-0.01952291,-2.328311E-10,8.11141E-07,-1.143562E-07,-5.074572E-09,-2.622604E-08
220.5685,0.04500106,-2.39375E-08,NaN,-0.3269987,-1.366052E-07,NaN,0.4781765,-5.463282E-08,NaN,-0.154158,7.532463E-06,-0.3825543,1.911173E-08,NaN,NaN,-0.01951423,-2.421443E-10,8.075647E-07,-1.143563E-07,-2.690386E-09,-2.861022E-08
220.5858,0.04500106,-2.393641E-08,NaN,-0.3269987,-1.366051E-07,NaN,0.4791018,-5.414817E-08,NaN,-0.1532832,7.533124E-06,-0.3834495,1.865622E-08,NaN,NaN,-0.01954608,-2.374877E-10,7.747822E-07,-1.143564E-07,-9.842943E-09,-2.622604E-08
220.6028,0.04500107,-2.393532E-08,NaN,-0.3269987,-1.36605E-07,NaN,0.4800199,-5.366351E-08,NaN,-0.1531652,7.533795E-06,-0.3843502,1.820367E-08,NaN,NaN,-0.01956095,-2.421443E-10,7.542185E-07,-1.143566E-07,-1.222713E-08,-2.861022E-08
220.6199,0.04500107,-2.393532E-08,NaN,-0.3269987,-1.36605E-07,NaN,0.4800199,-5.366351E-08,NaN,-0.1531652,7.533795E-06,-0.3843502,1.820367E-08,NaN,NaN,-0.01956095,-2.421443E-10,7.542185E-07,-1.143566E-07,-1.222713E-08,-2.861022E-08
220.6363,0.04500107,-2.393423E-08,NaN,-0.3269987,-1.366049E-07,NaN,0.4808294,-5.317886E-08,NaN,-0.1534009,7.534451E-06,-0.3851471,1.775406E-08,NaN,NaN,-0.01956856,-2.328311E-10,7.378273E-07,-1.143567E-07,-2.690387E-09,-2.622604E-08
220.6537,0.04500108,-2.393314E-08,NaN,-0.3269987,-1.366048E-07,NaN,0.4821043,-5.26942E-08,NaN,-0.1550155,7.535122E-06,-0.3864305,1.730737E-08,NaN,NaN,-0.0196149,-2.374877E-10,6.961041E-07,-1.143568E-07,-3.062008E-10,-2.861022E-08
220.6709,0.04500109,-2.393205E-08,NaN,-0.3269987,-1.366048E-07,NaN,0.4832906,-5.220955E-08,NaN,-0.1574185,7.535783E-06,-0.3876375,1.686357E-08,NaN,NaN,-0.01964207,-2.374877E-10,6.674939E-07,-1.14357E-07,-5.074572E-09,-2.622604E-08
220.6882,0.0450011,-2.393095E-08,NaN,-0.3269987,-1.366047E-07,NaN,0.4843162,-5.17249E-08,NaN,-0.160169,7.53644E-06,-0.3886879,1.642266E-08,NaN,NaN,-0.01966088,-2.328311E-10,6.457382E-07,-1.143571E-07,-7.458758E-09,-2.861022E-08
220.7046,0.04500111,-2.392986E-08,NaN,-0.3269987,-1.366046E-07,NaN,0.4852118,-5.124024E-08,NaN,-0.1630593,7.537097E-06,-0.3896087,1.598461E-08,NaN,NaN,-0.01967581,-2.281745E-10,6.260686E-07,-1.143573E-07,-9.842944E-09,-2.622604E-08
220.722,0.04500112,-2.392877E-08,NaN,-0.3269987,-1.366046E-07,NaN,0.4865493,-5.075559E-08,NaN,-0.1672087,7.537753E-06,-0.3909909,1.554941E-08,NaN,NaN,-0.01972709,-2.235179E-10,5.786829E-07,-1.143575E-07,-7.458759E-09,-2.861022E-08
220.7394,0.04500112,-2.392877E-08,NaN,-0.3269987,-1.366046E-07,NaN,0.4865493,-5.075559E-08,NaN,-0.1672087,7.537753E-06,-0.3909909,1.554941E-08,NaN,NaN,-0.01972709,-2.235179E-10,5.786829E-07,-1.143575E-07,-7.458759E-09,-2.861022E-08
220.7559,0.04500114,-2.392768E-08,NaN,-0.3269987,-1.36605E-07,NaN,0.487794,-5.027093E-08,NaN,-0.1720672,7.538415E-06,-0.3922928,1.511703E-08,NaN,NaN,-0.01976022,-2.235179E-10,5.429201E-07,-1.143567E-07,-9.842944E-09,-2.622604E-08
220.7729,0.04500115,-2.392659E-08,NaN,-0.3269987,-1.366053E-07,NaN,0.4888745,-4.978628E-08,NaN,-0.1772159,7.53909E-06,-0.3934351,1.468745E-08,NaN,NaN,-0.01978505,-2.374877E-10,5.146079E-07,-1.143559E-07,-5.074573E-09,-2.861022E-08
