JMolnar6/NonAnthroHands_User_Study/HandsLoggerWithURDF/tempdata/files/Reachy_PID0_JointMotion_gesture_9_43.csv
Time,r_shoulder,r_shoulder_x,r_upper_arm,r_forearm,r_wrist,r_wrist2hand,
629.2352,-0.01407691,-5.827959E-09,NaN,-0.9029991,-1.336796E-07,NaN,-1.560603,-4.051332E-07,NaN,-2.100694,1.849389E-05,0.37568,7.782537E-08,NaN,NaN,-0.0923419,4.004679E-10,-4.156539E-08,-1.118469E-07,3.098798E-09,-2.861022E-08
629.249,-0.01407596,-5.827142E-09,NaN,-0.9030308,-1.336797E-07,NaN,-1.560623,-4.052543E-07,NaN,-2.100779,1.849438E-05,0.3756703,7.794796E-08,NaN,NaN,-0.09234205,4.051245E-10,-4.208693E-08,-1.118473E-07,5.482984E-09,-2.622604E-08
629.265,-0.01407489,-5.826327E-09,NaN,-0.9031314,-1.336798E-07,NaN,-1.560127,-4.052052E-07,NaN,-2.101455,1.849488E-05,0.377019,7.790032E-08,NaN,NaN,-0.09221295,4.004679E-10,-4.692981E-08,-1.118475E-07,7.146124E-10,-2.622604E-08
629.2804,-0.01407372,-5.825511E-09,NaN,-0.9032741,-1.3368E-07,NaN,-1.559719,-4.051626E-07,NaN,-2.102416,1.849538E-05,0.3785915,7.785919E-08,NaN,NaN,-0.0920868,4.051245E-10,-4.074583E-08,-1.118476E-07,5.482984E-09,-2.622604E-08
629.2935,-0.01407372,-5.825511E-09,NaN,-0.9032741,-1.3368E-07,NaN,-1.559719,-4.051626E-07,NaN,-2.102416,1.849538E-05,0.3785915,7.785919E-08,NaN,NaN,-0.0920868,4.051245E-10,-4.074583E-08,-1.118476E-07,5.482984E-09,-2.622604E-08
629.3076,-0.01407249,-5.824695E-09,NaN,-0.9034421,-1.336801E-07,NaN,-1.559431,-4.052828E-07,NaN,-2.103506,1.849587E-05,0.3801309,7.798091E-08,NaN,NaN,-0.09196305,4.051245E-10,-3.51579E-08,-1.118481E-07,5.482984E-09,-2.861022E-08
629.3226,-0.01407122,-5.82388E-09,NaN,-0.903625,-1.336803E-07,NaN,-1.559212,-4.0523E-07,NaN,-2.104649,1.849638E-05,0.3816162,7.792958E-08,NaN,NaN,-0.09184162,4.004679E-10,-3.120909E-08,-1.118482E-07,7.86717E-09,-2.622604E-08
629.3374,-0.01407122,-5.82388E-09,NaN,-0.903625,-1.336803E-07,NaN,-1.559212,-4.0523E-07,NaN,-2.104649,1.849638E-05,0.3816162,7.792958E-08,NaN,NaN,-0.09184162,4.004679E-10,-3.120909E-08,-1.118482E-07,7.86717E-09,-2.622604E-08
629.3513,-0.01407003,-5.823064E-09,NaN,-0.9037469,-1.336804E-07,NaN,-1.559548,-4.051838E-07,NaN,-2.105217,1.849688E-05,0.3817041,7.788483E-08,NaN,NaN,-0.09185177,3.958113E-10,-2.353499E-08,-1.118484E-07,7.86717E-09,-2.622604E-08
629.3686,-0.01406892,-5.822249E-09,NaN,-0.9038307,-1.336806E-07,NaN,-1.559816,-4.051412E-07,NaN,-2.105499,1.849738E-05,0.3815289,7.784371E-08,NaN,NaN,-0.09186126,3.911547E-10,-2.830336E-08,-1.118485E-07,5.482984E-09,-2.622604E-08
629.3821,-0.01406789,-5.821433E-09,NaN,-0.9038906,-1.336806E-07,NaN,-1.559975,-4.052614E-07,NaN,-2.105641,1.849788E-05,0.3813549,7.796544E-08,NaN,NaN,-0.09187062,3.911547E-10,-3.225217E-08,-1.11849E-07,7.86717E-09,-2.861022E-08
629.3956,-0.01406789,-5.821433E-09,NaN,-0.9038906,-1.336806E-07,NaN,-1.559975,-4.052614E-07,NaN,-2.105641,1.849788E-05,0.3813549,7.796544E-08,NaN,NaN,-0.09187062,3.911547E-10,-3.225217E-08,-1.11849E-07,7.86717E-09,-2.861022E-08
629.4096,-0.01406702,-5.820617E-09,NaN,-0.9038681,-1.336808E-07,NaN,-1.56059,-4.052115E-07,NaN,-2.105123,1.849838E-05,0.3798549,7.791694E-08,NaN,NaN,-0.09200914,3.864981E-10,-3.016601E-08,-1.118492E-07,1.025136E-08,-2.622604E-08
629.4247,-0.01406628,-5.819802E-09,NaN,-0.9037948,-1.33681E-07,NaN,-1.561085,-4.05168E-07,NaN,-2.104286,1.849888E-05,0.3781444,7.787497E-08,NaN,NaN,-0.09214457,3.818414E-10,-3.873418E-08,-1.118493E-07,1.025136E-08,-2.622604E-08
629.4394,-0.01406628,-5.819802E-09,NaN,-0.9037948,-1.33681E-07,NaN,-1.561085,-4.05168E-07,NaN,-2.104286,1.849888E-05,0.3781444,7.787497E-08,NaN,NaN,-0.09214457,3.818414E-10,-3.873418E-08,-1.118493E-07,1.025136E-08,-2.622604E-08
629.4532,-0.01406562,-5.818985E-09,NaN,-0.9036905,-1.336811E-07,NaN,-1.561445,-4.052874E-07,NaN,-2.103302,1.849938E-05,0.3764758,7.799588E-08,NaN,NaN,-0.09227746,3.818414E-10,-4.596124E-08,-1.118498E-07,1.263554E-08,-2.861022E-08
629.4687,-0.01406501,-5.818169E-09,NaN,-0.9035674,-1.336812E-07,NaN,-1.561725,-4.052366E-07,NaN,-2.102255,1.849988E-05,0.3748672,7.794657E-08,NaN,NaN,-0.09240786,3.771848E-10,-5.110214E-08,-1.118499E-07,7.867169E-09,-2.622604E-08
629.4835,-0.01406456,-5.817353E-09,NaN,-0.9033642,-1.336814E-07,NaN,-1.56248,-4.051924E-07,NaN,-2.100595,1.850038E-05,0.3719502,7.790378E-08,NaN,NaN,-0.09266502,3.725282E-10,-5.005906E-08,-1.118501E-07,3.098798E-09,-2.622604E-08
629.498,-0.01406456,-5.817353E-09,NaN,-0.9033642,-1.336814E-07,NaN,-1.56248,-4.051924E-07,NaN,-2.100595,1.850038E-05,0.3719502,7.790378E-08,NaN,NaN,-0.09266502,3.725282E-10,-5.005906E-08,-1.118501E-07,3.098798E-09,-2.622604E-08
629.5121,-0.01406422,-5.816537E-09,NaN,-0.9031123,-1.336816E-07,NaN,-1.563119,-4.051517E-07,NaN,-2.098644,1.850088E-05,0.3688478,7.786459E-08,NaN,NaN,-0.09291675,3.771848E-10,-6.026636E-08,-1.118502E-07,7.146119E-10,-2.622604E-08
629.5273,-0.01406396,-5.815721E-09,NaN,-0.9028315,-1.336816E-07,NaN,-1.563621,-4.052739E-07,NaN,-2.09657,1.850138E-05,0.3658123,7.798824E-08,NaN,NaN,-0.09316366,3.771848E-10,-6.898354E-08,-1.118507E-07,7.146119E-10,-2.861022E-08
629.5417,-0.01406376,-5.814905E-09,NaN,-0.9025341,-1.336818E-07,NaN,-1.564039,-4.052229E-07,NaN,-2.094453,1.850188E-05,0.3628619,7.793877E-08,NaN,NaN,-0.09340584,3.725282E-10,-7.554005E-08,-1.118508E-07,-1.669574E-09,-2.622604E-08
629.5568,-0.01406376,-5.814905E-09,NaN,-0.9025341,-1.336818E-07,NaN,-1.564039,-4.052229E-07,NaN,-2.094453,1.850188E-05,0.3628619,7.793877E-08,NaN,NaN,-0.09340584,3.725282E-10,-7.554005E-08,-1.118508E-07,-1.669574E-09,-2.622604E-08
629.5707,-0.01406371,-5.814089E-09,NaN,-0.9021586,-1.33682E-07,NaN,-1.564921,-4.051785E-07,NaN,-2.09174,1.850238E-05,0.3586189,7.789584E-08,NaN,NaN,-0.09377261,3.678716E-10,-7.62106E-08,-1.11851E-07,7.146119E-10,-2.622604E-08
629.586,-0.01406379,-5.813273E-09,NaN,-0.9017364,-1.336822E-07,NaN,-1.565675,-4.051377E-07,NaN,-2.088754,1.850288E-05,0.3542235,7.785651E-08,NaN,NaN,-0.09413182,3.63215E-10,-8.760999E-08,-1.118511E-07,5.482983E-09,-2.622604E-08
629.6005,-0.01406394,-5.812457E-09,NaN,-0.9012874,-1.336822E-07,NaN,-1.566283,-4.052597E-07,NaN,-2.08566,1.850338E-05,0.349923,7.798003E-08,NaN,NaN,-0.09448411,3.63215E-10,-9.751926E-08,-1.118515E-07,7.867169E-09,-2.861022E-08
629.6152,-0.01406394,-5.812457E-09,NaN,-0.9012874,-1.336822E-07,NaN,-1.566283,-4.052597E-07,NaN,-2.08566,1.850338E-05,0.349923,7.798003E-08,NaN,NaN,-0.09448411,3.63215E-10,-9.751926E-08,-1.118515E-07,7.867169E-09,-2.861022E-08
629.6291,-0.01406427,-5.811641E-09,NaN,-0.9007546,-1.336824E-07,NaN,-1.567307,-4.052115E-07,NaN,-2.081948,1.850388E-05,0.3443559,7.793327E-08,NaN,NaN,-0.09495888,3.585584E-10,-1.00425E-07,-1.118517E-07,3.098798E-09,-2.622604E-08
629.6442,-0.01406473,-5.810825E-09,NaN,-0.9001724,-1.336825E-07,NaN,-1.568172,-4.051697E-07,NaN,-2.07796,1.850437E-05,0.338679,7.789298E-08,NaN,NaN,-0.09542405,3.585584E-10,-1.131655E-07,-1.118518E-07,5.482983E-09,-2.622604E-08
629.6609,-0.01406529,-5.810008E-09,NaN,-0.8995622,-1.336826E-07,NaN,-1.568877,-4.052908E-07,NaN,-2.073871,1.850486E-05,0.3331288,7.80156E-08,NaN,NaN,-0.09588024,3.585584E-10,-1.242668E-07,-1.118523E-07,-4.05376E-09,-2.861022E-08
629.6743,-0.01406529,-5.810008E-09,NaN,-0.8995622,-1.336826E-07,NaN,-1.568877,-4.052908E-07,NaN,-2.073871,1.850486E-05,0.3331288,7.80156E-08,NaN,NaN,-0.09588024,3.585584E-10,-1.242668E-07,-1.118523E-07,-4.05376E-09,-2.861022E-08
629.6884,-0.0140659,-5.809193E-09,NaN,-0.8989377,-1.336828E-07,NaN,-1.569484,-4.052417E-07,NaN,-2.069766,1.850536E-05,0.3277142,7.796791E-08,NaN,NaN,-0.09632761,3.585584E-10,-1.335056E-07,-1.118524E-07,-4.05376E-09,-2.622604E-08
629.7028,-0.01406667,-5.808377E-09,NaN,-0.8982377,-1.336829E-07,NaN,-1.570522,-4.05199E-07,NaN,-2.065094,1.850585E-05,0.3210251,7.792673E-08,NaN,NaN,-0.09689555,3.63215E-10,-1.365603E-07,-1.118526E-07,-1.669574E-09,-2.622604E-08
629.7173,-0.01406667,-5.808377E-09,NaN,-0.8982377,-1.336829E-07,NaN,-1.570522,-4.05199E-07,NaN,-2.065094,1.850585E-05,0.3210251,7.792673E-08,NaN,NaN,-0.09689555,3.63215E-10,-1.365603E-07,-1.118526E-07,-1.669574E-09,-2.622604E-08
629.7311,-0.01406757,-5.807562E-09,NaN,-0.8974943,-1.336831E-07,NaN,-1.571323,-4.051599E-07,NaN,-2.060174,1.850634E-05,0.31417,7.78891E-08,NaN,NaN,-0.09745193,3.678716E-10,-1.541437E-07,-1.118527E-07,3.098798E-09,-2.622604E-08
629.7477,-0.01406856,-5.806745E-09,NaN,-0.8967274,-1.336831E-07,NaN,-1.571697,-4.052836E-07,NaN,-2.055159,1.850683E-05,0.3072616,7.801434E-08,NaN,NaN,-0.09799712,3.678716E-10,-1.817108E-07,-1.118532E-07,7.146119E-10,-2.861022E-08
629.7609,-0.0140696,-5.805929E-09,NaN,-0.8959495,-1.336833E-07,NaN,-1.571675,-4.05237E-07,NaN,-2.050138,1.850732E-05,0.3004676,7.796921E-08,NaN,NaN,-0.09853167,3.678716E-10,-2.089054E-07,-1.118533E-07,-4.05376E-09,-2.622604E-08
629.7758,-0.0140696,-5.805929E-09,NaN,-0.8959495,-1.336833E-07,NaN,-1.571675,-4.05237E-07,NaN,-2.050138,1.850732E-05,0.3004676,7.796921E-08,NaN,NaN,-0.09853167,3.678716E-10,-2.089054E-07,-1.118533E-07,-4.05376E-09,-2.622604E-08
629.7896,-0.0140708,-5.805114E-09,NaN,-0.895099,-1.336835E-07,NaN,-1.571902,-4.05194E-07,NaN,-2.044571,1.850781E-05,0.2924788,7.792772E-08,NaN,NaN,-0.09918525,3.725282E-10,-2.261908E-07,-1.118534E-07,-6.437945E-09,-2.622604E-08
629.8051,-0.01407213,-5.804298E-09,NaN,-0.8942074,-1.336837E-07,NaN,-1.571834,-4.051546E-07,NaN,-2.038779,1.85083E-05,0.2844352,7.788978E-08,NaN,NaN,-0.09982578,3.771848E-10,-2.534599E-07,-1.118536E-07,-1.669574E-09,-2.622604E-08
629.8195,-0.01407213,-5.804298E-09,NaN,-0.8942074,-1.336837E-07,NaN,-1.571834,-4.051546E-07,NaN,-2.038779,1.85083E-05,0.2844352,7.788978E-08,NaN,NaN,-0.09982578,3.771848E-10,-2.534599E-07,-1.118536E-07,-1.669574E-09,-2.622604E-08
629.8336,-0.01407355,-5.803482E-09,NaN,-0.8932946,-1.336837E-07,NaN,-1.571558,-4.052781E-07,NaN,-2.032928,1.850879E-05,0.2766223,7.801472E-08,NaN,NaN,-0.100454,3.771848E-10,-2.758862E-07,-1.11854E-07,7.146119E-10,-2.861022E-08
629.8491,-0.01407533,-5.802666E-09,NaN,-0.8923033,-1.336839E-07,NaN,-1.57171,-4.052312E-07,NaN,-2.026514,1.850929E-05,0.2676459,7.79693E-08,NaN,NaN,-0.1011995,3.771848E-10,-2.846033E-07,-1.118542E-07,7.867169E-09,-2.622604E-08
629.8636,-0.0140775,-5.801851E-09,NaN,-0.8912682,-1.33684E-07,NaN,-1.571691,-4.051907E-07,NaN,-2.019871,1.850978E-05,0.258627,7.793033E-08,NaN,NaN,-0.1019301,3.818414E-10,-3.05763E-07,-1.118543E-07,1.025136E-08,-2.622604E-08
629.8784,-0.0140775,-5.801851E-09,NaN,-0.8912682,-1.33684E-07,NaN,-1.571691,-4.051907E-07,NaN,-2.019871,1.850978E-05,0.258627,7.793033E-08,NaN,NaN,-0.1019301,3.818414E-10,-3.05763E-07,-1.118543E-07,1.025136E-08,-2.622604E-08
629.8923,-0.01408,-5.801035E-09,NaN,-0.8902106,-1.336842E-07,NaN,-1.571515,-4.051538E-07,NaN,-2.013168,1.851027E-05,0.2498174,7.789487E-08,NaN,NaN,-0.1026466,3.864981E-10,-3.240914E-07,-1.118544E-07,1.025136E-08,-2.622604E-08
629.9077,-0.01408276,-5.800219E-09,NaN,-0.8891438,-1.336842E-07,NaN,-1.571298,-4.050565E-07,NaN,-2.006491,1.851076E-05,0.2412569,7.779912E-08,NaN,NaN,-0.1033492,3.818414E-10,-3.374279E-07,-1.118548E-07,1.501973E-08,-2.861022E-08
629.9223,-0.01408592,-5.799403E-09,NaN,-0.8880069,-1.336843E-07,NaN,-1.571559,-4.049526E-07,NaN,-1.999296,1.851124E-05,0.2314651,7.769669E-08,NaN,NaN,-0.1041675,3.864981E-10,-3.398866E-07,-1.118553E-07,1.97881E-08,-2.622604E-08
629.9369,-0.01408592,-5.799403E-09,NaN,-0.8880069,-1.336843E-07,NaN,-1.571559,-4.049526E-07,NaN,-1.999296,1.851124E-05,0.2314651,7.769669E-08,NaN,NaN,-0.1041675,3.864981E-10,-3.398866E-07,-1.118553E-07,1.97881E-08,-2.622604E-08
629.9529,-0.01408947,-5.798586E-09,NaN,-0.8868318,-1.336843E-07,NaN,-1.571631,-4.048478E-07,NaN,-1.991897,1.851172E-05,0.2216251,7.759338E-08,NaN,NaN,-0.1049695,3.864981E-10,-3.57768E-07,-1.118557E-07,2.217228E-08,-2.861022E-08
629.9673,-0.01409334,-5.79777E-09,NaN,-0.8856384,-1.336844E-07,NaN,-1.571507,-4.047422E-07,NaN,-1.984456,1.851219E-05,0.211992,7.74892E-08,NaN,NaN,-0.1057559,3.911547E-10,-3.740103E-07,-1.118562E-07,2.455647E-08,-2.622604E-08
629.982,-0.01409747,-5.796954E-09,NaN,-0.8844391,-1.336845E-07,NaN,-1.571304,-4.046385E-07,NaN,-1.977054,1.851268E-05,0.2026173,7.738699E-08,NaN,NaN,-0.106527,3.864981E-10,-3.855587E-07,-1.118567E-07,2.932484E-08,-2.861022E-08
629.9953,-0.01409747,-5.796954E-09,NaN,-0.8844391,-1.336845E-07,NaN,-1.571304,-4.046385E-07,NaN,-1.977054,1.851268E-05,0.2026173,7.738699E-08,NaN,NaN,-0.106527,3.864981E-10,-3.855587E-07,-1.118567E-07,2.932484E-08,-2.861022E-08
630.0093,-0.01410198,-5.79614E-09,NaN,-0.8831721,-1.336845E-07,NaN,-1.571527,-4.047084E-07,NaN,-1.969148,1.851315E-05,0.1920036,7.745841E-08,NaN,NaN,-0.1074125,3.864981E-10,-3.89731E-07,-1.118571E-07,2.932484E-08,-2.622604E-08
630.0245,-0.01410686,-5.795326E-09,NaN,-0.8818691,-1.336846E-07,NaN,-1.57155,-4.047769E-07,NaN,-1.961052,1.851363E-05,0.181404,7.752836E-08,NaN,NaN,-0.1082805,3.864981E-10,-4.053772E-07,-1.118576E-07,2.455647E-08,-2.861022E-08
630.0391,-0.01410686,-5.795326E-09,NaN,-0.8818691,-1.336846E-07,NaN,-1.57155,-4.047769E-07,NaN,-1.961052,1.851363E-05,0.181404,7.752836E-08,NaN,NaN,-0.1082805,3.864981E-10,-4.053772E-07,-1.118576E-07,2.455647E-08,-2.861022E-08
630.0531,-0.01411206,-5.79451E-09,NaN,-0.8805496,-1.336847E-07,NaN,-1.5714,-4.046722E-07,NaN,-1.952925,1.85141E-05,0.1710449,7.74252E-08,NaN,NaN,-0.1091315,3.911547E-10,-4.184903E-07,-1.11858E-07,2.694065E-08,-2.622604E-08
630.0686,-0.01411769,-5.793696E-09,NaN,-0.8791566,-1.336848E-07,NaN,-1.57158,-4.047412E-07,NaN,-1.944268,1.851457E-05,0.1594518,7.749566E-08,NaN,NaN,-0.1100954,3.958113E-10,-4.196824E-07,-1.118585E-07,2.694065E-08,-2.861022E-08
630.0834,-0.01412374,-5.792881E-09,NaN,-0.8777246,-1.336848E-07,NaN,-1.57153,-4.046371E-07,NaN,-1.935415,1.851504E-05,0.1479435,7.739302E-08,NaN,NaN,-0.1110402,4.004679E-10,-4.338385E-07,-1.118589E-07,2.455647E-08,-2.622604E-08
630.098,-0.01412374,-5.792881E-09,NaN,-0.8777246,-1.336848E-07,NaN,-1.57153,-4.046371E-07,NaN,-1.935415,1.851504E-05,0.1479435,7.739302E-08,NaN,NaN,-0.1110402,4.004679E-10,-4.338385E-07,-1.118589E-07,2.455647E-08,-2.622604E-08
630.1119,-0.01413012,-5.792067E-09,NaN,-0.8762748,-1.336849E-07,NaN,-1.571331,-4.047066E-07,NaN,-1.926536,1.851551E-05,0.1367199,7.746397E-08,NaN,NaN,-0.1119667,4.051245E-10,-4.40991E-07,-1.118594E-07,2.217228E-08,-2.861022E-08
630.1271,-0.01413677,-5.791254E-09,NaN,-0.8748205,-1.33685E-07,NaN,-1.571115,-4.047774E-07,NaN,-1.917712,1.851598E-05,0.1257945,7.753628E-08,NaN,NaN,-0.1128752,4.097811E-10,-4.438222E-07,-1.118599E-07,1.97881E-08,-2.622604E-08
630.1419,-0.0141438,-5.790439E-09,NaN,-0.8733007,-1.33685E-07,NaN,-1.5713,-4.046751E-07,NaN,-1.908404,1.851646E-05,0.1136061,7.743549E-08,NaN,NaN,-0.1138952,4.051245E-10,-4.365207E-07,-1.118603E-07,1.501973E-08,-2.861022E-08
630.1566,-0.0141438,-5.790439E-09,NaN,-0.8733007,-1.33685E-07,NaN,-1.5713,-4.046751E-07,NaN,-1.908404,1.851646E-05,0.1136061,7.743549E-08,NaN,NaN,-0.1138952,4.051245E-10,-4.365207E-07,-1.118603E-07,1.501973E-08,-2.861022E-08
630.1705,-0.0141512,-5.789626E-09,NaN,-0.8717472,-1.336851E-07,NaN,-1.571302,-4.047464E-07,NaN,-1.898927,1.851693E-05,0.1015235,7.750823E-08,NaN,NaN,-0.1148952,4.097811E-10,-4.412146E-07,-1.118607E-07,1.025135E-08,-2.622604E-08
630.186,-0.01415891,-5.788811E-09,NaN,-0.87018,-1.336852E-07,NaN,-1.571167,-4.046446E-07,NaN,-1.889439,1.851741E-05,0.0897148,7.740787E-08,NaN,NaN,-0.1158757,4.051245E-10,-4.43487E-07,-1.118612E-07,1.501973E-08,-2.861022E-08
630.2007,-0.01416685,-5.787998E-09,NaN,-0.8686112,-1.336852E-07,NaN,-1.570997,-4.047162E-07,NaN,-1.880017,1.851789E-05,0.07819637,7.7481E-08,NaN,NaN,-0.116837,4.097811E-10,-4.411773E-07,-1.118616E-07,1.501973E-08,-2.622604E-08
630.2164,-0.01416685,-5.787998E-09,NaN,-0.8686112,-1.336852E-07,NaN,-1.570997,-4.047162E-07,NaN,-1.880017,1.851789E-05,0.07819637,7.7481E-08,NaN,NaN,-0.116837,4.097811E-10,-4.411773E-07,-1.118616E-07,1.501973E-08,-2.622604E-08
630.2313,-0.01417262,-5.787185E-09,NaN,-0.8678801,-1.336853E-07,NaN,-1.567242,-4.047892E-07,NaN,-1.877614,1.851836E-05,0.08555866,7.755546E-08,NaN,NaN,-0.1162277,4.144377E-10,-4.869052E-07,-1.118621E-07,1.501973E-08,-2.861022E-08
630.2454,-0.01417567,-5.786371E-09,NaN,-0.8676692,-1.336854E-07,NaN,-1.565205,-4.04689E-07,NaN,-1.87861,1.851883E-05,0.09351082,7.745682E-08,NaN,NaN,-0.1156305,4.190943E-10,-4.482367E-07,-1.118625E-07,1.740391E-08,-2.622604E-08
630.2593,-0.01417567,-5.786371E-09,NaN,-0.8676692,-1.336854E-07,NaN,-1.565205,-4.04689E-07,NaN,-1.87861,1.851883E-05,0.09351082,7.745682E-08,NaN,NaN,-0.1156305,4.190943E-10,-4.482367E-07,-1.118625E-07,1.740391E-08,-2.622604E-08
630.2729,-0.01417637,-5.785558E-09,NaN,-0.8677786,-1.336855E-07,NaN,-1.564075,-4.047623E-07,NaN,-1.88129,1.85193E-05,0.1009696,7.753161E-08,NaN,NaN,-0.1150449,4.237509E-10,-4.270771E-07,-1.11863E-07,2.217228E-08,-2.861022E-08
630.2883,-0.01417625,-5.784744E-09,NaN,-0.8680158,-1.336855E-07,NaN,-1.563627,-4.046626E-07,NaN,-1.884214,1.851977E-05,0.1065659,7.743331E-08,NaN,NaN,-0.1146001,4.284075E-10,-4.103877E-07,-1.118634E-07,2.455647E-08,-2.622604E-08
630.3027,-0.01417581,-5.783931E-09,NaN,-0.8683309,-1.336856E-07,NaN,-1.563233,-4.047362E-07,NaN,-1.887256,1.852024E-05,0.1119349,7.750842E-08,NaN,NaN,-0.114164,4.330641E-10,-4.028999E-07,-1.118639E-07,2.455647E-08,-2.861022E-08
630.3174,-0.01417581,-5.783931E-09,NaN,-0.8683309,-1.336856E-07,NaN,-1.563233,-4.047362E-07,NaN,-1.887256,1.852024E-05,0.1119349,7.750842E-08,NaN,NaN,-0.114164,4.330641E-10,-4.028999E-07,-1.118639E-07,2.455647E-08,-2.861022E-08
630.3314,-0.01417521,-5.783118E-09,NaN,-0.8686926,-1.336857E-07,NaN,-1.56285,-4.046368E-07,NaN,-1.890339,1.852071E-05,0.1171919,7.741046E-08,NaN,NaN,-0.1137365,4.377207E-10,-3.94667E-07,-1.118643E-07,1.97881E-08,-2.622604E-08
630.3467,-0.01417453,-5.782305E-09,NaN,-0.8690814,-1.336857E-07,NaN,-1.562476,-4.047135E-07,NaN,-1.893426,1.852118E-05,0.1223444,7.748871E-08,NaN,NaN,-0.1133173,4.423774E-10,-3.872909E-07,-1.118647E-07,1.97881E-08,-2.861022E-08
630.3614,-0.01417394,-5.781494E-09,NaN,-0.8694159,-1.336858E-07,NaN,-1.562429,-4.047887E-07,NaN,-1.895916,1.852165E-05,0.1258459,7.756535E-08,NaN,NaN,-0.1130358,4.47034E-10,-3.765248E-07,-1.118652E-07,1.97881E-08,-2.622604E-08
630.3759,-0.01417394,-5.781494E-09,NaN,-0.8694159,-1.336858E-07,NaN,-1.562429,-4.047887E-07,NaN,-1.895916,1.852165E-05,0.1258459,7.756535E-08,NaN,NaN,-0.1130358,4.47034E-10,-3.765248E-07,-1.118652E-07,1.97881E-08,-2.622604E-08
630.39,-0.01417342,-5.78068E-09,NaN,-0.8697155,-1.336859E-07,NaN,-1.562281,-4.046908E-07,NaN,-1.898103,1.852213E-05,0.1292206,7.746892E-08,NaN,NaN,-0.1127597,4.377207E-10,-3.717192E-07,-1.118656E-07,1.740391E-08,-2.861022E-08
630.4054,-0.01417294,-5.779869E-09,NaN,-0.869992,-1.33686E-07,NaN,-1.562079,-4.047662E-07,NaN,-1.900125,1.852261E-05,0.1325509,7.754581E-08,NaN,NaN,-0.112489,4.377207E-10,-3.659078E-07,-1.11866E-07,2.455647E-08,-2.622604E-08
630.42,-0.01417294,-5.779869E-09,NaN,-0.869992,-1.33686E-07,NaN,-1.562079,-4.047662E-07,NaN,-1.900125,1.852261E-05,0.1325509,7.754581E-08,NaN,NaN,-0.112489,4.377207E-10,-3.659078E-07,-1.11866E-07,2.455647E-08,-2.622604E-08
630.4343,-0.01417263,-5.779055E-09,NaN,-0.8701838,-1.33686E-07,NaN,-1.562184,-4.046685E-07,NaN,-1.901472,1.852308E-05,0.1342807,7.744963E-08,NaN,NaN,-0.1123531,4.377207E-10,-3.5652E-07,-1.118665E-07,2.694065E-08,-2.861022E-08
630.4496,-0.01417243,-5.778244E-09,NaN,-0.8703225,-1.336861E-07,NaN,-1.562173,-4.047441E-07,NaN,-1.902482,1.852355E-05,0.1359196,7.752675E-08,NaN,NaN,-0.1122198,4.377207E-10,-3.527575E-07,-1.118669E-07,2.932484E-08,-2.622604E-08
630.4641,-0.01417231,-5.777431E-09,NaN,-0.8704277,-1.336862E-07,NaN,-1.562098,-4.046495E-07,NaN,-1.903318,1.852402E-05,0.1375516,7.743365E-08,NaN,NaN,-0.1120891,4.377207E-10,-3.476911E-07,-1.118673E-07,2.694065E-08,-2.861022E-08
630.4789,-0.01417231,-5.777431E-09,NaN,-0.8704277,-1.336862E-07,NaN,-1.562098,-4.046495E-07,NaN,-1.903318,1.852402E-05,0.1375516,7.743365E-08,NaN,NaN,-0.1120891,4.377207E-10,-3.476911E-07,-1.118673E-07,2.694065E-08,-2.861022E-08
630.4927,-0.01417224,-5.77662E-09,NaN,-0.8705118,-1.336862E-07,NaN,-1.561998,-4.047282E-07,NaN,-1.904061,1.852449E-05,0.1391644,7.751378E-08,NaN,NaN,-0.1119609,4.377207E-10,-3.421777E-07,-1.118678E-07,2.455647E-08,-2.622604E-08
630.5102,-0.01417233,-5.775809E-09,NaN,-0.8705131,-1.336863E-07,NaN,-1.562221,-4.048052E-07,NaN,-1.904173,1.852496E-05,0.1392064,7.759227E-08,NaN,NaN,-0.1119647,4.377207E-10,-3.336095E-07,-1.118682E-07,2.455647E-08,-2.861022E-08
630.5236,-0.01417255,-5.774997E-09,NaN,-0.8704652,-1.336865E-07,NaN,-1.562326,-4.045558E-07,NaN,-1.903977,1.852544E-05,0.1391867,7.734435E-08,NaN,NaN,-0.1119683,4.330641E-10,-3.314488E-07,-1.118668E-07,1.501973E-08,-2.622604E-08
630.5372,-0.01417255,-5.774997E-09,NaN,-0.8704652,-1.336865E-07,NaN,-1.562326,-4.045558E-07,NaN,-1.903977,1.852544E-05,0.1391867,7.734435E-08,NaN,NaN,-0.1119683,4.330641E-10,-3.314488E-07,-1.118668E-07,1.501973E-08,-2.622604E-08
630.5512,-0.01417284,-5.774186E-09,NaN,-0.8703871,-1.336862E-07,NaN,-1.562364,-4.047714E-07,NaN,-1.90363,1.852591E-05,0.1391926,7.756141E-08,NaN,NaN,-0.111972,4.330641E-10,-3.27798E-07,-1.118669E-07,1.025135E-08,-2.861022E-08
630.5667,-0.01417319,-5.773374E-09,NaN,-0.8702908,-1.336862E-07,NaN,-1.562374,-4.045932E-07,NaN,-1.903209,1.852638E-05,0.1392117,7.738471E-08,NaN,NaN,-0.1119755,4.284075E-10,-3.234767E-07,-1.118653E-07,3.098797E-09,-2.622604E-08
630.5811,-0.0141737,-5.772563E-09,NaN,-0.8701142,-1.336857E-07,NaN,-1.562702,-4.048473E-07,NaN,-1.902176,1.852685E-05,0.137691,7.764033E-08,NaN,NaN,-0.1121083,4.284075E-10,-3.171437E-07,-1.118653E-07,5.482983E-09,-2.861022E-08
630.5956,-0.0141737,-5.772563E-09,NaN,-0.8701142,-1.336857E-07,NaN,-1.562702,-4.048473E-07,NaN,-1.902176,1.852685E-05,0.137691,7.764033E-08,NaN,NaN,-0.1121083,4.284075E-10,-3.171437E-07,-1.118653E-07,5.482983E-09,-2.861022E-08
630.6096,-0.01417433,-5.771752E-09,NaN,-0.869889,-1.336856E-07,NaN,-1.562906,-4.046901E-07,NaN,-1.900853,1.852732E-05,0.1361413,7.748459E-08,NaN,NaN,-0.1122385,4.284075E-10,-3.158398E-07,-1.118637E-07,5.482983E-09,-2.622604E-08
630.6249,-0.01417504,-5.770942E-09,NaN,-0.8696346,-1.33685E-07,NaN,-1.563038,-4.049534E-07,NaN,-1.899396,1.852779E-05,0.1346481,7.774939E-08,NaN,NaN,-0.1123662,4.284075E-10,-3.132321E-07,-1.118637E-07,7.146115E-10,-2.861022E-08
630.6396,-0.01417504,-5.770942E-09,NaN,-0.8696346,-1.33685E-07,NaN,-1.563038,-4.049534E-07,NaN,-1.899396,1.852779E-05,0.1346481,7.774939E-08,NaN,NaN,-0.1123662,4.284075E-10,-3.132321E-07,-1.118637E-07,7.146115E-10,-2.861022E-08
630.6536,-0.01417593,-5.77013E-09,NaN,-0.8692942,-1.336849E-07,NaN,-1.563462,-4.047995E-07,NaN,-1.897305,1.852827E-05,0.131651,7.759704E-08,NaN,NaN,-0.1126207,4.237509E-10,-3.073462E-07,-1.118621E-07,5.482983E-09,-2.622604E-08
630.6689,-0.01417696,-5.769319E-09,NaN,-0.8689021,-1.336845E-07,NaN,-1.56375,-4.047392E-07,NaN,-1.894919,1.852874E-05,0.1286613,7.753817E-08,NaN,NaN,-0.1128703,4.190943E-10,-3.072717E-07,-1.118603E-07,5.482983E-09,-2.861022E-08
630.6849,-0.01417807,-5.768507E-09,NaN,-0.86848,-1.336839E-07,NaN,-1.563959,-4.047251E-07,NaN,-1.892406,1.852922E-05,0.1257583,7.752566E-08,NaN,NaN,-0.1131149,4.144377E-10,-3.05111E-07,-1.118583E-07,3.098797E-09,-2.622604E-08
630.6982,-0.01417807,-5.768507E-09,NaN,-0.86848,-1.336839E-07,NaN,-1.563959,-4.047251E-07,NaN,-1.892406,1.852922E-05,0.1257583,7.752566E-08,NaN,NaN,-0.1131149,4.144377E-10,-3.05111E-07,-1.118583E-07,3.098797E-09,-2.622604E-08
630.7123,-0.01417924,-5.767697E-09,NaN,-0.8680411,-1.336831E-07,NaN,-1.56413,-4.050607E-07,NaN,-1.889847,1.852968E-05,0.1229269,7.786271E-08,NaN,NaN,-0.1133548,4.144377E-10,-3.024288E-07,-1.118581E-07,3.098797E-09,-2.861022E-08
630.7275,-0.01418058,-5.766887E-09,NaN,-0.8675246,-1.336828E-07,NaN,-1.564595,-4.04944E-07,NaN,-1.886705,1.853016E-05,0.1186061,7.774751E-08,NaN,NaN,-0.1137194,4.097811E-10,-2.957978E-07,-1.118564E-07,3.098797E-09,-2.622604E-08
630.7421,-0.01418225,-5.766076E-09,NaN,-0.8669624,-1.336823E-07,NaN,-1.564927,-4.049002E-07,NaN,-1.883302,1.853063E-05,0.1143238,7.770524E-08,NaN,NaN,-0.1140768,4.051245E-10,-2.949037E-07,-1.118545E-07,5.482983E-09,-2.861022E-08
630.7567,-0.01418225,-5.766076E-09,NaN,-0.8669624,-1.336823E-07,NaN,-1.564927,-4.049002E-07,NaN,-1.883302,1.853063E-05,0.1143238,7.770524E-08,NaN,NaN,-0.1140768,4.051245E-10,-2.949037E-07,-1.118545E-07,5.482983E-09,-2.861022E-08
630.7708,-0.0141842,-5.765265E-09,NaN,-0.8663747,-1.336817E-07,NaN,-1.56518,-4.048912E-07,NaN,-1.879796,1.853111E-05,0.1101525,7.76977E-08,NaN,NaN,-0.1144272,3.911547E-10,-2.924823E-07,-1.118526E-07,3.098797E-09,-2.622604E-08
630.7862,-0.01418638,-5.764454E-09,NaN,-0.8657737,-1.33681E-07,NaN,-1.565392,-4.04902E-07,NaN,-1.876263,1.853158E-05,0.1060769,7.771005E-08,NaN,NaN,-0.1147707,3.864981E-10,-2.892785E-07,-1.118505E-07,5.482983E-09,-2.861022E-08
630.8018,-0.01418895,-5.763643E-09,NaN,-0.8650979,-1.336803E-07,NaN,-1.565881,-4.049211E-07,NaN,-1.872165,1.853205E-05,0.1005309,7.773058E-08,NaN,NaN,-0.1152369,3.818414E-10,-2.833553E-07,-1.118485E-07,3.098797E-09,-2.622604E-08
630.8165,-0.01418895,-5.763643E-09,NaN,-0.8650979,-1.336803E-07,NaN,-1.565881,-4.049211E-07,NaN,-1.872165,1.853205E-05,0.1005309,7.773058E-08,NaN,NaN,-0.1152369,3.818414E-10,-2.833553E-07,-1.118485E-07,3.098797E-09,-2.622604E-08
630.8302,-0.01419189,-5.762833E-09,NaN,-0.864379,-1.336796E-07,NaN,-1.566234,-4.049453E-07,NaN,-1.867822,1.853252E-05,0.09505759,7.77563E-08,NaN,NaN,-0.115694,3.771848E-10,-2.81977E-07,-1.118465E-07,-4.05376E-09,-2.861022E-08
630.8443,-0.01419515,-5.762022E-09,NaN,-0.8636368,-1.336788E-07,NaN,-1.566509,-4.049717E-07,NaN,-1.863389,1.853299E-05,0.08971822,7.778428E-08,NaN,NaN,-0.1161421,3.725282E-10,-2.79332E-07,-1.118444E-07,-6.437946E-09,-2.622604E-08
630.859,-0.01419515,-5.762022E-09,NaN,-0.8636368,-1.336788E-07,NaN,-1.566509,-4.049717E-07,NaN,-1.863389,1.853299E-05,0.08971822,7.778428E-08,NaN,NaN,-0.1161421,3.725282E-10,-2.79332E-07,-1.118444E-07,-6.437946E-09,-2.622604E-08
630.8729,-0.01419886,-5.761212E-09,NaN,-0.8628141,-1.336781E-07,NaN,-1.567025,-4.049948E-07,NaN,-1.858368,1.853346E-05,0.08293577,7.780882E-08,NaN,NaN,-0.1167109,3.678716E-10,-2.7285E-07,-1.118424E-07,-4.05376E-09,-2.861022E-08
630.8883,-0.014203,-5.760402E-09,NaN,-0.8619454,-1.336773E-07,NaN,-1.567398,-4.050172E-07,NaN,-1.853096,1.853393E-05,0.07626244,7.783282E-08,NaN,NaN,-0.1172684,3.63215E-10,-2.694227E-07,-1.118404E-07,-4.05376E-09,-2.622604E-08
630.9028,-0.01420749,-5.759592E-09,NaN,-0.8610522,-1.336765E-07,NaN,-1.567688,-4.050392E-07,NaN,-1.847739,1.853439E-05,0.06974748,7.785628E-08,NaN,NaN,-0.1178151,3.63215E-10,-2.652318E-07,-1.118383E-07,-6.437946E-09,-2.861022E-08
630.9176,-0.01420749,-5.759592E-09,NaN,-0.8610522,-1.336765E-07,NaN,-1.567688,-4.050392E-07,NaN,-1.847739,1.853439E-05,0.06974748,7.785628E-08,NaN,NaN,-0.1178151,3.63215E-10,-2.652318E-07,-1.118383E-07,-6.437946E-09,-2.861022E-08
630.9316,-0.01421223,-5.758782E-09,NaN,-0.860148,-1.336758E-07,NaN,-1.567933,-4.050578E-07,NaN,-1.842378,1.853486E-05,0.06337448,7.787639E-08,NaN,NaN,-0.1183511,3.585584E-10,-2.591782E-07,-1.118363E-07,-8.822131E-09,-2.622604E-08
630.947,-0.01421738,-5.757972E-09,NaN,-0.8591715,-1.33675E-07,NaN,-1.568408,-4.050731E-07,NaN,-1.836479,1.853532E-05,0.05556716,7.789326E-08,NaN,NaN,-0.119006,3.678716E-10,-2.516904E-07,-1.118343E-07,-1.120632E-08,-2.861022E-08
630.9612,-0.01422292,-5.757163E-09,NaN,-0.858155,-1.336742E-07,NaN,-1.568749,-4.050881E-07,NaN,-1.830359,1.853579E-05,0.04789902,7.790974E-08,NaN,NaN,-0.119648,3.63215E-10,-2.473411E-07,-1.118323E-07,-8.822132E-09,-2.622604E-08
630.9761,-0.01422292,-5.757163E-09,NaN,-0.858155,-1.336742E-07,NaN,-1.568749,-4.050881E-07,NaN,-1.830359,1.853579E-05,0.04789902,7.790974E-08,NaN,NaN,-0.119648,3.63215E-10,-2.473411E-07,-1.118323E-07,-8.822132E-09,-2.622604E-08
630.9899,-0.01422877,-5.756354E-09,NaN,-0.8571182,-1.336735E-07,NaN,-1.569013,-4.050999E-07,NaN,-1.824177,1.853626E-05,0.04040645,7.7923E-08,NaN,NaN,-0.1202775,3.63215E-10,-2.418602E-07,-1.118303E-07,-1.120632E-08,-2.861022E-08
631.0052,-0.01423484,-5.755544E-09,NaN,-0.8560736,-1.336727E-07,NaN,-1.569233,-4.051085E-07,NaN,-1.818007,1.853673E-05,0.03307417,7.793312E-08,NaN,NaN,-0.1208946,3.63215E-10,-2.363154E-07,-1.118283E-07,-6.437946E-09,-2.622604E-08
631.02,-0.0142413,-5.754735E-09,NaN,-0.8549594,-1.336719E-07,NaN,-1.569655,-4.05114E-07,NaN,-1.811312,1.85372E-05,0.02432329,7.794013E-08,NaN,NaN,-0.121629,3.678716E-10,-2.251977E-07,-1.118263E-07,-4.05376E-09,-2.861022E-08
631.0347,-0.0142413,-5.754735E-09,NaN,-0.8549594,-1.336719E-07,NaN,-1.569655,-4.05114E-07,NaN,-1.811312,1.85372E-05,0.02432329,7.794013E-08,NaN,NaN,-0.121629,3.678716E-10,-2.251977E-07,-1.118263E-07,-4.05376E-09,-2.861022E-08
631.0486,-0.01424813,-5.753927E-09,NaN,-0.8538074,-1.336712E-07,NaN,-1.569949,-4.051165E-07,NaN,-1.804412,1.853766E-05,0.01574202,7.794412E-08,NaN,NaN,-0.1223491,3.725282E-10,-2.176912E-07,-1.118243E-07,-4.05376E-09,-2.622604E-08
631.064,-0.01425525,-5.753118E-09,NaN,-0.8526371,-1.336704E-07,NaN,-1.57017,-4.051188E-07,NaN,-1.79746,1.853814E-05,0.007352638,7.794796E-08,NaN,NaN,-0.123055,3.725282E-10,-2.097005E-07,-1.118223E-07,-4.05376E-09,-2.861022E-08
631.0784,-0.01425525,-5.753118E-09,NaN,-0.8526371,-1.336704E-07,NaN,-1.57017,-4.051188E-07,NaN,-1.79746,1.853814E-05,0.007352638,7.794796E-08,NaN,NaN,-0.123055,3.725282E-10,-2.097005E-07,-1.118223E-07,-4.05376E-09,-2.861022E-08
631.0944,-0.01426282,-5.752309E-09,NaN,-0.8513915,-1.336697E-07,NaN,-1.570556,-4.051182E-07,NaN,-1.789958,1.853861E-05,-0.00242972,7.794883E-08,NaN,NaN,-0.1238765,3.725282E-10,-1.967551E-07,-1.118204E-07,-8.822132E-09,-2.622604E-08
631.1086,-0.01427079,-5.751501E-09,NaN,-0.850105,-1.336689E-07,NaN,-1.570685,-4.051146E-07,NaN,-1.782243,1.853909E-05,-0.01207999,7.79468E-08,NaN,NaN,-0.124682,3.771848E-10,-1.929553E-07,-1.118184E-07,-6.437947E-09,-2.861022E-08
631.1223,-0.01427909,-5.750692E-09,NaN,-0.848799,-1.336682E-07,NaN,-1.570639,-4.051082E-07,NaN,-1.774479,1.853957E-05,-0.02152364,7.794191E-08,NaN,NaN,-0.1254717,3.678716E-10,-1.872929E-07,-1.118164E-07,-8.822132E-09,-2.622604E-08
631.137,-0.01427909,-5.750692E-09,NaN,-0.848799,-1.336682E-07,NaN,-1.570639,-4.051082E-07,NaN,-1.774479,1.853957E-05,-0.02152364,7.794191E-08,NaN,NaN,-0.1254717,3.678716E-10,-1.872929E-07,-1.118164E-07,-8.822132E-09,-2.622604E-08
631.1522,-0.01428762,-5.749884E-09,NaN,-0.8474868,-1.336674E-07,NaN,-1.570524,-4.051018E-07,NaN,-1.766746,1.854005E-05,-0.03074137,7.793705E-08,NaN,NaN,-0.1262458,3.678716E-10,-1.788365E-07,-1.118145E-07,-4.053761E-09,-2.861022E-08
631.1661,-0.0142959,-5.749076E-09,NaN,-0.846177,-1.336667E-07,NaN,-1.570417,-4.050927E-07,NaN,-1.759085,1.854054E-05,-0.03974125,7.792939E-08,NaN,NaN,-0.1270039,3.678716E-10,-1.673253E-07,-1.118126E-07,7.146106E-10,-2.622604E-08
631.1807,-0.01430404,-5.748268E-09,NaN,-0.8448746,-1.336659E-07,NaN,-1.57035,-4.050808E-07,NaN,-1.751513,1.854102E-05,-0.04854201,7.791899E-08,NaN,NaN,-0.1277472,3.678716E-10,-1.539888E-07,-1.118106E-07,7.146106E-10,-2.861022E-08
631.1951,-0.01430404,-5.748268E-09,NaN,-0.8448746,-1.336659E-07,NaN,-1.57035,-4.050808E-07,NaN,-1.751513,1.854102E-05,-0.04854201,7.791899E-08,NaN,NaN,-0.1277472,3.678716E-10,-1.539888E-07,-1.118106E-07,7.146106E-10,-2.861022E-08
631.2092,-0.01431211,-5.747459E-09,NaN,-0.8435826,-1.336652E-07,NaN,-1.570319,-4.050661E-07,NaN,-1.74404,1.85415E-05,-0.05715993,7.79059E-08,NaN,NaN,-0.1284758,3.678716E-10,-1.411738E-07,-1.118087E-07,-1.669575E-09,-2.622604E-08
631.2245,-0.01432012,-5.746651E-09,NaN,-0.8423027,-1.336645E-07,NaN,-1.570308,-4.050517E-07,NaN,-1.73667,1.854198E-05,-0.0656049,7.789299E-08,NaN,NaN,-0.1291902,3.678716E-10,-1.287313E-07,-1.118068E-07,-1.669575E-09,-2.861022E-08
631.2391,-0.01432012,-5.746651E-09,NaN,-0.8423027,-1.336645E-07,NaN,-1.570308,-4.050517E-07,NaN,-1.73667,1.854198E-05,-0.0656049,7.789299E-08,NaN,NaN,-0.1291902,3.678716E-10,-1.287313E-07,-1.118068E-07,-1.669575E-09,-2.861022E-08
631.2531,-0.01432792,-5.745843E-09,NaN,-0.8411055,-1.336637E-07,NaN,-1.570161,-4.050347E-07,NaN,-1.729975,1.854246E-05,-0.07232084,7.787744E-08,NaN,NaN,-0.1297612,3.678716E-10,-1.210572E-07,-1.118049E-07,-4.053761E-09,-2.622604E-08
631.2686,-0.01433546,-5.745035E-09,NaN,-0.8399644,-1.33663E-07,NaN,-1.570111,-4.05015E-07,NaN,-1.723659,1.854294E-05,-0.0788963,7.78593E-08,NaN,NaN,-0.1303211,3.678716E-10,-1.109244E-07,-1.11803E-07,-1.669575E-09,-2.861022E-08
631.2833,-0.01434277,-5.744227E-09,NaN,-0.8388633,-1.336622E-07,NaN,-1.570091,-4.049928E-07,NaN,-1.717575,1.854342E-05,-0.08535076,7.783863E-08,NaN,NaN,-0.1308699,3.63215E-10,-9.959953E-08,-1.118011E-07,7.146106E-10,-2.622604E-08
631.2982,-0.01434277,-5.744227E-09,NaN,-0.8388633,-1.336622E-07,NaN,-1.570091,-4.049928E-07,NaN,-1.717575,1.854342E-05,-0.08535076,7.783863E-08,NaN,NaN,-0.1308699,3.63215E-10,-9.959953E-08,-1.118011E-07,7.146106E-10,-2.622604E-08
631.3119,-0.0143497,-5.743419E-09,NaN,-0.837861,-1.336615E-07,NaN,-1.569958,-4.049682E-07,NaN,-1.712225,1.85439E-05,-0.09012377,7.781546E-08,NaN,NaN,-0.1312788,3.63215E-10,-9.520369E-08,-1.117992E-07,5.482982E-09,-2.861022E-08
631.3271,-0.01435625,-5.742611E-09,NaN,-0.8369241,-1.336608E-07,NaN,-1.569885,-4.049439E-07,NaN,-1.707271,1.854438E-05,-0.09480982,7.779268E-08,NaN,NaN,-0.1316796,3.63215E-10,-8.857267E-08,-1.117973E-07,5.482982E-09,-2.622604E-08
631.3418,-0.01436248,-5.741803E-09,NaN,-0.8360319,-1.336601E-07,NaN,-1.569834,-4.049171E-07,NaN,-1.702552,1.854486E-05,-0.09940916,7.776746E-08,NaN,NaN,-0.1320725,3.63215E-10,-8.223967E-08,-1.117954E-07,5.482982E-09,-2.861022E-08
631.3563,-0.01436248,-5.741803E-09,NaN,-0.8360319,-1.336601E-07,NaN,-1.569834,-4.049171E-07,NaN,-1.702552,1.854486E-05,-0.09940916,7.776746E-08,NaN,NaN,-0.1320725,3.63215E-10,-8.223967E-08,-1.117954E-07,5.482982E-09,-2.861022E-08
631.3702,-0.01436846,-5.740996E-09,NaN,-0.8351711,-1.336593E-07,NaN,-1.56979,-4.04888E-07,NaN,-1.697983,1.854534E-05,-0.1039192,7.773983E-08,NaN,NaN,-0.1324578,3.63215E-10,-7.434205E-08,-1.117935E-07,7.867168E-09,-2.622604E-08
631.3876,-0.01437405,-5.740188E-09,NaN,-0.834403,-1.336586E-07,NaN,-1.569649,-4.048565E-07,NaN,-1.694095,1.854582E-05,-0.1067899,7.770986E-08,NaN,NaN,-0.1327062,3.63215E-10,-7.478909E-08,-1.117916E-07,5.482983E-09,-2.861022E-08
631.4012,-0.01437926,-5.73938E-09,NaN,-0.8336954,-1.336579E-07,NaN,-1.569555,-4.048256E-07,NaN,-1.690569,1.85463E-05,-0.1096095,7.76804E-08,NaN,NaN,-0.1329498,3.63215E-10,-7.218139E-08,-1.117898E-07,7.867168E-09,-2.622604E-08
631.4147,-0.01437926,-5.73938E-09,NaN,-0.8336954,-1.336579E-07,NaN,-1.569555,-4.048256E-07,NaN,-1.690569,1.85463E-05,-0.1096095,7.76804E-08,NaN,NaN,-0.1329498,3.63215E-10,-7.218139E-08,-1.117898E-07,7.867168E-09,-2.622604E-08
631.4285,-0.01438415,-5.738572E-09,NaN,-0.8330284,-1.336572E-07,NaN,-1.569481,-4.047923E-07,NaN,-1.687247,1.854678E-05,-0.1123774,7.764864E-08,NaN,NaN,-0.1331886,3.63215E-10,-6.897763E-08,-1.117879E-07,5.482983E-09,-2.861022E-08
631.4435,-0.0143888,-5.737765E-09,NaN,-0.8323894,-1.336564E-07,NaN,-1.569415,-4.047567E-07,NaN,-1.684052,1.854726E-05,-0.115092,7.761459E-08,NaN,NaN,-0.1334227,3.63215E-10,-6.532685E-08,-1.117861E-07,3.098797E-09,-2.622604E-08
631.4584,-0.0143888,-5.737765E-09,NaN,-0.8323894,-1.336564E-07,NaN,-1.569415,-4.047567E-07,NaN,-1.684052,1.854726E-05,-0.115092,7.761459E-08,NaN,NaN,-0.1334227,3.63215E-10,-6.532685E-08,-1.117861E-07,3.098797E-09,-2.622604E-08
631.472,-0.01439306,-5.736958E-09,NaN,-0.8318399,-1.336557E-07,NaN,-1.569267,-4.047189E-07,NaN,-1.681517,1.854774E-05,-0.1162074,7.757832E-08,NaN,NaN,-0.1335229,3.63215E-10,-6.97972E-08,-1.117842E-07,7.14611E-10,-2.861022E-08
631.4873,-0.01439695,-5.736152E-09,NaN,-0.831348,-1.33655E-07,NaN,-1.56916,-4.051294E-07,NaN,-1.679322,1.854823E-05,-0.1173052,7.799031E-08,NaN,NaN,-0.1336212,3.539018E-10,-7.203238E-08,-1.117839E-07,7.14611E-10,-2.622604E-08
631.502,-0.01440053,-5.735345E-09,NaN,-0.8308939,-1.336547E-07,NaN,-1.56907,-4.049568E-07,NaN,-1.677312,1.854872E-05,-0.1183843,7.78192E-08,NaN,NaN,-0.1337175,3.492452E-10,-7.247942E-08,-1.117824E-07,-1.669575E-09,-2.861022E-08
631.5168,-0.01440053,-5.735345E-09,NaN,-0.8308939,-1.336547E-07,NaN,-1.56907,-4.049568E-07,NaN,-1.677312,1.854872E-05,-0.1183843,7.78192E-08,NaN,NaN,-0.1337175,3.492452E-10,-7.247942E-08,-1.117824E-07,-1.669575E-09,-2.861022E-08
631.5306,-0.01440366,-5.734537E-09,NaN,-0.8305345,-1.336542E-07,NaN,-1.568911,-4.048441E-07,NaN,-1.675982,1.85492E-05,-0.1178995,7.770798E-08,NaN,NaN,-0.1336827,3.492452E-10,-8.179264E-08,-1.117807E-07,-4.05376E-09,-2.622604E-08
631.546,-0.01440638,-5.73373E-09,NaN,-0.830235,-1.336536E-07,NaN,-1.56879,-4.047618E-07,NaN,-1.674994,1.854968E-05,-0.1174279,7.762723E-08,NaN,NaN,-0.1336486,3.492452E-10,-8.745508E-08,-1.11779E-07,-1.120632E-08,-2.861022E-08
631.5607,-0.01440874,-5.732923E-09,NaN,-0.829974,-1.33653E-07,NaN,-1.568686,-4.046952E-07,NaN,-1.674183,1.855016E-05,-0.1169681,7.756216E-08,NaN,NaN,-0.1336152,3.492452E-10,-9.192544E-08,-1.117772E-07,-6.437946E-09,-2.622604E-08
631.575,-0.01440874,-5.732923E-09,NaN,-0.829974,-1.33653E-07,NaN,-1.568686,-4.046952E-07,NaN,-1.674183,1.855016E-05,-0.1169681,7.756216E-08,NaN,NaN,-0.1336152,3.492452E-10,-9.192544E-08,-1.117772E-07,-6.437946E-09,-2.622604E-08
631.589,-0.01441085,-5.732117E-09,NaN,-0.8297378,-1.336524E-07,NaN,-1.568591,-4.050831E-07,NaN,-1.673466,1.855065E-05,-0.1165181,7.795156E-08,NaN,NaN,-0.1335824,3.445886E-10,-9.542721E-08,-1.117769E-07,-6.437946E-09,-2.861022E-08
631.6043,-0.01441255,-5.73131E-09,NaN,-0.8295873,-1.336521E-07,NaN,-1.568425,-4.048969E-07,NaN,-1.673376,1.855113E-05,-0.1145341,7.776681E-08,NaN,NaN,-0.1334209,3.445886E-10,-1.078697E-07,-1.117755E-07,-1.120632E-08,-2.622604E-08
631.6204,-0.01441388,-5.730502E-09,NaN,-0.8294904,-1.336516E-07,NaN,-1.568293,-4.047736E-07,NaN,-1.673591,1.855161E-05,-0.1125917,7.764503E-08,NaN,NaN,-0.1332627,3.445886E-10,-1.153948E-07,-1.117739E-07,-8.822132E-09,-2.861022E-08
631.6337,-0.01441388,-5.730502E-09,NaN,-0.8294904,-1.336516E-07,NaN,-1.568293,-4.047736E-07,NaN,-1.673591,1.855161E-05,-0.1125917,7.764503E-08,NaN,NaN,-0.1332627,3.445886E-10,-1.153948E-07,-1.117739E-07,-8.822132E-09,-2.861022E-08
631.6476,-0.01441491,-5.729695E-09,NaN,-0.829427,-1.336511E-07,NaN,-1.568176,-4.046809E-07,NaN,-1.673956,1.85521E-05,-0.1106893,7.755388E-08,NaN,NaN,-0.1331075,3.445886E-10,-1.223983E-07,-1.117722E-07,-6.437947E-09,-2.622604E-08
631.663,-0.01441583,-5.728889E-09,NaN,-0.8293845,-1.336504E-07,NaN,-1.568066,-4.050518E-07,NaN,-1.674394,1.855259E-05,-0.1088248,7.792625E-08,NaN,NaN,-0.1329554,3.39932E-10,-1.282098E-07,-1.117719E-07,-6.437947E-09,-2.861022E-08
631.6774,-0.01441583,-5.728889E-09,NaN,-0.8293845,-1.336504E-07,NaN,-1.568066,-4.050518E-07,NaN,-1.674394,1.855259E-05,-0.1088248,7.792625E-08,NaN,NaN,-0.1329554,3.39932E-10,-1.282098E-07,-1.117719E-07,-6.437947E-09,-2.861022E-08
631.6933,-0.01441653,-5.728082E-09,NaN,-0.8294228,-1.336502E-07,NaN,-1.567883,-4.048516E-07,NaN,-1.67544,1.855308E-05,-0.1054527,7.772758E-08,NaN,NaN,-0.132677,3.39932E-10,-1.423659E-07,-1.117705E-07,-6.437947E-09,-2.622604E-08
631.7076,-0.0144171,-5.727275E-09,NaN,-0.8295109,-1.336497E-07,NaN,-1.567733,-4.047175E-07,NaN,-1.676773,1.855356E-05,-0.1021488,7.7595E-08,NaN,NaN,-0.132404,3.445886E-10,-1.522006E-07,-1.117689E-07,-8.822132E-09,-2.861022E-08
631.7213,-0.0144176,-5.726469E-09,NaN,-0.8296292,-1.336492E-07,NaN,-1.567597,-4.050648E-07,NaN,-1.67824,1.855406E-05,-0.09891121,7.79438E-08,NaN,NaN,-0.1321364,3.445886E-10,-1.603218E-07,-1.117687E-07,-8.822132E-09,-2.622604E-08
631.7358,-0.0144176,-5.726469E-09,NaN,-0.8296292,-1.336492E-07,NaN,-1.567597,-4.050648E-07,NaN,-1.67824,1.855406E-05,-0.09891121,7.79438E-08,NaN,NaN,-0.1321364,3.445886E-10,-1.603218E-07,-1.117687E-07,-8.822132E-09,-2.622604E-08
631.7498,-0.01441791,-5.725662E-09,NaN,-0.8298351,-1.33649E-07,NaN,-1.567387,-4.048499E-07,NaN,-1.680335,1.855455E-05,-0.09419111,7.773044E-08,NaN,NaN,-0.1317447,3.492452E-10,-1.760425E-07,-1.117673E-07,-4.053761E-09,-2.861022E-08
631.765,-0.0144181,-5.724854E-09,NaN,-0.8300939,-1.336486E-07,NaN,-1.56721,-4.047071E-07,NaN,-1.682721,1.855503E-05,-0.08956541,7.758911E-08,NaN,NaN,-0.1313608,3.539018E-10,-1.879634E-07,-1.117657E-07,7.146106E-10,-2.622604E-08
631.7795,-0.0144181,-5.724854E-09,NaN,-0.8300939,-1.336486E-07,NaN,-1.56721,-4.047071E-07,NaN,-1.682721,1.855503E-05,-0.08956541,7.758911E-08,NaN,NaN,-0.1313608,3.539018E-10,-1.879634E-07,-1.117657E-07,7.146106E-10,-2.622604E-08
631.7934,-0.01441821,-5.724048E-09,NaN,-0.8303844,-1.336481E-07,NaN,-1.567046,-4.050459E-07,NaN,-1.685235,1.855552E-05,-0.08503158,7.792936E-08,NaN,NaN,-0.1309843,3.585584E-10,-1.976492E-07,-1.117656E-07,5.482982E-09,-2.861022E-08
631.8089,-0.01441826,-5.723241E-09,NaN,-0.830693,-1.336479E-07,NaN,-1.566888,-4.048254E-07,NaN,-1.687795,1.855602E-05,-0.08058646,7.771043E-08,NaN,NaN,-0.1306152,3.585584E-10,-2.065899E-07,-1.117642E-07,1.025135E-08,-2.622604E-08
631.8234,-0.01441815,-5.722435E-09,NaN,-0.8310807,-1.336475E-07,NaN,-1.566643,-4.046771E-07,NaN,-1.690932,1.855651E-05,-0.07467734,7.756363E-08,NaN,NaN,-0.1301241,3.63215E-10,-2.219381E-07,-1.117626E-07,1.025135E-08,-2.861022E-08
631.838,-0.01441815,-5.722435E-09,NaN,-0.8310807,-1.336475E-07,NaN,-1.566643,-4.046771E-07,NaN,-1.690932,1.855651E-05,-0.07467734,7.756363E-08,NaN,NaN,-0.1301241,3.63215E-10,-2.219381E-07,-1.117626E-07,1.025135E-08,-2.861022E-08
631.852,-0.01441792,-5.721629E-09,NaN,-0.8315156,-1.336469E-07,NaN,-1.566432,-4.050134E-07,NaN,-1.694327,1.8557E-05,-0.06888572,7.790139E-08,NaN,NaN,-0.1296426,3.585584E-10,-2.322571E-07,-1.117625E-07,7.867168E-09,-2.622604E-08
631.8673,-0.0144176,-5.720822E-09,NaN,-0.8319776,-1.336467E-07,NaN,-1.566234,-4.047905E-07,NaN,-1.697826,1.855749E-05,-0.0632088,7.767998E-08,NaN,NaN,-0.1291705,3.63215E-10,-2.419801E-07,-1.117611E-07,7.867168E-09,-2.861022E-08
631.8823,-0.01441724,-5.720015E-09,NaN,-0.8324543,-1.336464E-07,NaN,-1.566042,-4.046397E-07,NaN,-1.701351,1.855799E-05,-0.05764269,7.753075E-08,NaN,NaN,-0.1287076,3.63215E-10,-2.496915E-07,-1.117595E-07,1.025135E-08,-2.622604E-08
631.8969,-0.01441724,-5.720015E-09,NaN,-0.8324543,-1.336464E-07,NaN,-1.566042,-4.046397E-07,NaN,-1.701351,1.855799E-05,-0.05764269,7.753075E-08,NaN,NaN,-0.1287076,3.63215E-10,-2.496915E-07,-1.117595E-07,1.025135E-08,-2.622604E-08
631.9105,-0.01441672,-5.719209E-09,NaN,-0.8330071,-1.336458E-07,NaN,-1.565747,-4.049708E-07,NaN,-1.705439,1.855848E-05,-0.05062867,7.78633E-08,NaN,NaN,-0.1281246,3.678716E-10,-2.617987E-07,-1.117594E-07,1.263554E-08,-2.861022E-08
631.9263,-0.01441607,-5.718402E-09,NaN,-0.8336045,-1.336456E-07,NaN,-1.56549,-4.047428E-07,NaN,-1.709768,1.855897E-05,-0.04375383,7.763677E-08,NaN,NaN,-0.127553,3.725282E-10,-2.721177E-07,-1.11758E-07,1.263554E-08,-2.622604E-08
631.9407,-0.01441535,-5.717594E-09,NaN,-0.8342267,-1.336452E-07,NaN,-1.565248,-4.04587E-07,NaN,-1.714187,1.855946E-05,-0.03701529,7.748253E-08,NaN,NaN,-0.1269925,3.725282E-10,-2.79382E-07,-1.117565E-07,1.263554E-08,-2.861022E-08
631.9552,-0.01441535,-5.717594E-09,NaN,-0.8342267,-1.336452E-07,NaN,-1.565248,-4.04587E-07,NaN,-1.714187,1.855946E-05,-0.03701529,7.748253E-08,NaN,NaN,-0.1269925,3.725282E-10,-2.79382E-07,-1.117565E-07,1.263554E-08,-2.861022E-08
631.9714,-0.01441445,-5.716788E-09,NaN,-0.8349307,-1.336447E-07,NaN,-1.564893,-4.04916E-07,NaN,-1.719192,1.855996E-05,-0.02884748,7.781301E-08,NaN,NaN,-0.1263138,3.678716E-10,-2.896638E-07,-1.117564E-07,1.740391E-08,-2.622604E-08
631.9857,-0.01441342,-5.715981E-09,NaN,-0.835682,-1.336445E-07,NaN,-1.56458,-4.046859E-07,NaN,-1.724446,1.856045E-05,-0.02084129,7.758443E-08,NaN,NaN,-0.1256483,3.678716E-10,-2.971889E-07,-1.11755E-07,1.740391E-08,-2.861022E-08
631.9991,-0.01441342,-5.715981E-09,NaN,-0.835682,-1.336445E-07,NaN,-1.56458,-4.046859E-07,NaN,-1.724446,1.856045E-05,-0.02084129,7.758443E-08,NaN,NaN,-0.1256483,3.678716E-10,-2.971889E-07,-1.11755E-07,1.740391E-08,-2.861022E-08
632.0131,-0.0144123,-5.715175E-09,NaN,-0.8364592,-1.336441E-07,NaN,-1.564283,-4.049761E-07,NaN,-1.729785,1.856095E-05,-0.01299392,7.78761E-08,NaN,NaN,-0.1249959,3.63215E-10,-3.029631E-07,-1.11755E-07,1.978809E-08,-2.622604E-08
632.0286,-0.01441112,-5.714369E-09,NaN,-0.8372489,-1.33644E-07,NaN,-1.563993,-4.04722E-07,NaN,-1.73513,1.856144E-05,-0.00529952,7.762353E-08,NaN,NaN,-0.1243563,3.63215E-10,-3.065953E-07,-1.117537E-07,1.740391E-08,-2.861022E-08
632.0428,-0.0144097,-5.713563E-09,NaN,-0.8381119,-1.336437E-07,NaN,-1.563563,-4.049972E-07,NaN,-1.741013,1.856194E-05,0.003813418,7.790019E-08,NaN,NaN,-0.1236,3.585584E-10,-3.140645E-07,-1.117537E-07,2.217228E-08,-2.622604E-08
632.0574,-0.0144097,-5.713563E-09,NaN,-0.8381119,-1.336437E-07,NaN,-1.563563,-4.049972E-07,NaN,-1.741013,1.856194E-05,0.003813418,7.790019E-08,NaN,NaN,-0.1236,3.585584E-10,-3.140645E-07,-1.117537E-07,2.217228E-08,-2.622604E-08
632.0712,-0.01440794,-5.712755E-09,NaN,-0.8390165,-1.336436E-07,NaN,-1.563181,-4.04734E-07,NaN,-1.747114,1.856243E-05,0.01274723,7.763852E-08,NaN,NaN,-0.1228584,3.585584E-10,-3.176594E-07,-1.117524E-07,2.217228E-08,-2.861022E-08
632.0879,-0.01440592,-5.711949E-09,NaN,-0.8399426,-1.336432E-07,NaN,-1.562819,-4.050031E-07,NaN,-1.753281,1.856292E-05,0.02150281,7.790911E-08,NaN,NaN,-0.1221314,3.63215E-10,-3.210587E-07,-1.117525E-07,1.978809E-08,-2.622604E-08
632.1013,-0.01440367,-5.711142E-09,NaN,-0.8408778,-1.33643E-07,NaN,-1.562464,-4.051325E-07,NaN,-1.759436,1.856341E-05,0.03008722,7.804002E-08,NaN,NaN,-0.1214187,3.678716E-10,-3.219434E-07,-1.11753E-07,2.217228E-08,-2.861022E-08
632.116,-0.01440367,-5.711142E-09,NaN,-0.8408778,-1.33643E-07,NaN,-1.562464,-4.051325E-07,NaN,-1.759436,1.856341E-05,0.03008722,7.804002E-08,NaN,NaN,-0.1214187,3.678716E-10,-3.219434E-07,-1.11753E-07,2.217228E-08,-2.861022E-08
632.1298,-0.01440329,-5.710334E-09,NaN,-0.840983,-1.336429E-07,NaN,-1.564152,-4.052084E-07,NaN,-1.75865,1.85639E-05,0.01962004,7.811736E-08,NaN,NaN,-0.1222714,3.725282E-10,-2.937057E-07,-1.117537E-07,1.740391E-08,-2.622604E-08
632.1452,-0.01440424,-5.709528E-09,NaN,-0.8405771,-1.336431E-07,NaN,-1.565026,-4.050867E-07,NaN,-1.754503,1.85644E-05,0.009422453,7.799715E-08,NaN,NaN,-0.1231075,3.63215E-10,-2.808907E-07,-1.117526E-07,2.217228E-08,-2.861022E-08
632.1597,-0.01440424,-5.709528E-09,NaN,-0.8405771,-1.336431E-07,NaN,-1.565026,-4.050867E-07,NaN,-1.754503,1.85644E-05,0.009422453,7.799715E-08,NaN,NaN,-0.1231075,3.63215E-10,-2.808907E-07,-1.117526E-07,2.217228E-08,-2.861022E-08
632.1737,-0.01440625,-5.708721E-09,NaN,-0.8398577,-1.336428E-07,NaN,-1.565511,-4.052509E-07,NaN,-1.748724,1.856489E-05,-0.000442531,7.816293E-08,NaN,NaN,-0.1239272,3.63215E-10,-2.650955E-07,-1.11753E-07,2.217228E-08,-2.622604E-08
632.1893,-0.01440928,-5.707914E-09,NaN,-0.8390172,-1.336428E-07,NaN,-1.565657,-4.051734E-07,NaN,-1.742745,1.856538E-05,-0.008482198,7.808684E-08,NaN,NaN,-0.1246014,3.492452E-10,-2.537334E-07,-1.117519E-07,2.217228E-08,-2.861022E-08
632.2039,-0.01441312,-5.707108E-09,NaN,-0.8381058,-1.336426E-07,NaN,-1.565789,-4.051931E-07,NaN,-1.736699,1.856586E-05,-0.01634447,7.810807E-08,NaN,NaN,-0.1252624,3.445886E-10,-2.430418E-07,-1.117504E-07,1.978809E-08,-2.622604E-08
632.2186,-0.01441312,-5.707108E-09,NaN,-0.8381058,-1.336426E-07,NaN,-1.565789,-4.051931E-07,NaN,-1.736699,1.856586E-05,-0.01634447,7.810807E-08,NaN,NaN,-0.1252624,3.445886E-10,-2.430418E-07,-1.117504E-07,1.978809E-08,-2.622604E-08
632.2324,-0.01441756,-5.706302E-09,NaN,-0.8371547,-1.336422E-07,NaN,-1.565907,-4.052631E-07,NaN,-1.730656,1.856634E-05,-0.02404815,7.81796E-08,NaN,NaN,-0.1259104,3.352754E-10,-2.316424E-07,-1.117489E-07,1.978809E-08,-2.861022E-08
632.2478,-0.01442245,-5.705496E-09,NaN,-0.8361833,-1.336416E-07,NaN,-1.566011,-4.053599E-07,NaN,-1.724655,1.856683E-05,-0.03159634,7.827788E-08,NaN,NaN,-0.1265458,3.259621E-10,-2.199077E-07,-1.117473E-07,2.217228E-08,-2.622604E-08
632.2646,-0.01442747,-5.70469E-09,NaN,-0.8352731,-1.336411E-07,NaN,-1.565972,-4.054688E-07,NaN,-1.719288,1.856731E-05,-0.03742906,7.838827E-08,NaN,NaN,-0.1270393,3.166489E-10,-2.13612E-07,-1.117457E-07,2.455647E-08,-2.861022E-08
632.2779,-0.01442747,-5.70469E-09,NaN,-0.8352731,-1.336411E-07,NaN,-1.565972,-4.054688E-07,NaN,-1.719288,1.856731E-05,-0.03742906,7.838827E-08,NaN,NaN,-0.1270393,3.166489E-10,-2.13612E-07,-1.117457E-07,2.455647E-08,-2.861022E-08
632.2919,-0.01443248,-5.703884E-09,NaN,-0.8344047,-1.336404E-07,NaN,-1.565986,-4.055839E-07,NaN,-1.714267,1.856779E-05,-0.04315387,7.85049E-08,NaN,NaN,-0.1275232,3.119923E-10,-2.061986E-07,-1.11744E-07,2.694065E-08,-2.622604E-08
632.3062,-0.01443743,-5.703078E-09,NaN,-0.833566,-1.336398E-07,NaN,-1.566019,-4.056995E-07,NaN,-1.709453,1.856827E-05,-0.04877172,7.862199E-08,NaN,NaN,-0.1279976,3.073357E-10,-1.979657E-07,-1.117423E-07,2.694065E-08,-2.861022E-08
632.3207,-0.01444232,-5.702272E-09,NaN,-0.8327494,-1.336391E-07,NaN,-1.566056,-4.058155E-07,NaN,-1.704776,1.856876E-05,-0.05428023,7.873956E-08,NaN,NaN,-0.1284627,2.980225E-10,-1.902916E-07,-1.117407E-07,2.932484E-08,-2.622604E-08
632.3357,-0.01444232,-5.702272E-09,NaN,-0.8327494,-1.336391E-07,NaN,-1.566056,-4.058155E-07,NaN,-1.704776,1.856876E-05,-0.05428023,7.873956E-08,NaN,NaN,-0.1284627,2.980225E-10,-1.902916E-07,-1.117407E-07,2.932484E-08,-2.622604E-08
632.3494,-0.01444696,-5.701466E-09,NaN,-0.8320193,-1.336385E-07,NaN,-1.565982,-4.059292E-07,NaN,-1.700775,1.856924E-05,-0.05812269,7.885476E-08,NaN,NaN,-0.1287893,2.887093E-10,-1.871624E-07,-1.11739E-07,2.217228E-08,-2.861022E-08
632.3643,-0.01445132,-5.70066E-09,NaN,-0.8313459,-1.336378E-07,NaN,-1.565958,-4.060406E-07,NaN,-1.697132,1.856972E-05,-0.06189707,7.896764E-08,NaN,NaN,-0.1291096,2.793961E-10,-1.82692E-07,-1.117373E-07,2.217228E-08,-2.622604E-08
632.3793,-0.01445132,-5.70066E-09,NaN,-0.8313459,-1.336378E-07,NaN,-1.565958,-4.060406E-07,NaN,-1.697132,1.856972E-05,-0.06189707,7.896764E-08,NaN,NaN,-0.1291096,2.793961E-10,-1.82692E-07,-1.117373E-07,2.217228E-08,-2.622604E-08
632.3929,-0.01445544,-5.699855E-09,NaN,-0.8307105,-1.336372E-07,NaN,-1.565953,-4.061497E-07,NaN,-1.693694,1.857021E-05,-0.06560224,7.907826E-08,NaN,NaN,-0.1294235,2.700828E-10,-1.783707E-07,-1.117357E-07,1.501972E-08,-2.861022E-08
632.4084,-0.01445917,-5.699049E-09,NaN,-0.8301708,-1.336365E-07,NaN,-1.565858,-4.062538E-07,NaN,-1.690956,1.857069E-05,-0.06768266,7.918383E-08,NaN,NaN,-0.129602,2.607696E-10,-1.805314E-07,-1.11734E-07,1.501972E-08,-2.622604E-08
632.4228,-0.01446253,-5.698244E-09,NaN,-0.8296924,-1.336358E-07,NaN,-1.565811,-4.063529E-07,NaN,-1.68858,1.857118E-05,-0.06972961,7.928444E-08,NaN,NaN,-0.129777,2.514564E-10,-1.800844E-07,-1.117324E-07,1.740391E-08,-2.861022E-08
632.4374,-0.01446253,-5.698244E-09,NaN,-0.8296924,-1.336358E-07,NaN,-1.565811,-4.063529E-07,NaN,-1.68858,1.857118E-05,-0.06972961,7.928444E-08,NaN,NaN,-0.129777,2.514564E-10,-1.800844E-07,-1.117324E-07,1.740391E-08,-2.861022E-08
632.4517,-0.01446557,-5.697438E-09,NaN,-0.829254,-1.336352E-07,NaN,-1.565784,-4.0645E-07,NaN,-1.686402,1.857166E-05,-0.07174101,7.938304E-08,NaN,NaN,-0.1299486,2.421432E-10,-1.786687E-07,-1.117307E-07,1.501972E-08,-2.622604E-08
632.4668,-0.01446836,-5.696632E-09,NaN,-0.8288424,-1.336345E-07,NaN,-1.565764,-4.065422E-07,NaN,-1.684339,1.857214E-05,-0.07371459,7.947681E-08,NaN,NaN,-0.1301168,2.3283E-10,-1.768806E-07,-1.117291E-07,1.025135E-08,-2.861022E-08
632.4815,-0.01447078,-5.695827E-09,NaN,-0.8285184,-1.336338E-07,NaN,-1.565659,-4.066326E-07,NaN,-1.682921,1.857263E-05,-0.07409944,7.956869E-08,NaN,NaN,-0.1301524,2.235167E-10,-1.809784E-07,-1.117275E-07,1.025135E-08,-2.622604E-08
632.4959,-0.01447078,-5.695827E-09,NaN,-0.8285184,-1.336338E-07,NaN,-1.565659,-4.066326E-07,NaN,-1.682921,1.857263E-05,-0.07409944,7.956869E-08,NaN,NaN,-0.1301524,2.235167E-10,-1.809784E-07,-1.117275E-07,1.025135E-08,-2.622604E-08
632.5098,-0.01447284,-5.695021E-09,NaN,-0.8282499,-1.336332E-07,NaN,-1.565596,-4.067183E-07,NaN,-1.681829,1.857311E-05,-0.07448258,7.965589E-08,NaN,NaN,-0.1301873,2.142035E-10,-1.838096E-07,-1.117258E-07,1.263554E-08,-2.861022E-08
632.5252,-0.0144746,-5.694216E-09,NaN,-0.8280168,-1.336325E-07,NaN,-1.565549,-4.067994E-07,NaN,-1.680906,1.857359E-05,-0.07486193,7.97385E-08,NaN,NaN,-0.1302215,2.048903E-10,-1.852998E-07,-1.117242E-07,1.263554E-08,-2.622604E-08
632.5398,-0.0144746,-5.694216E-09,NaN,-0.8280168,-1.336325E-07,NaN,-1.565549,-4.067994E-07,NaN,-1.680906,1.857359E-05,-0.07486193,7.97385E-08,NaN,NaN,-0.1302215,2.048903E-10,-1.852998E-07,-1.117242E-07,1.263554E-08,-2.622604E-08
632.5571,-0.01447594,-5.69341E-09,NaN,-0.827876,-1.336319E-07,NaN,-1.565426,-4.068788E-07,NaN,-1.680649,1.857406E-05,-0.07368579,7.981943E-08,NaN,NaN,-0.1301257,2.048903E-10,-1.926013E-07,-1.117226E-07,1.263554E-08,-2.861022E-08
632.5702,-0.01447694,-5.692605E-09,NaN,-0.8277927,-1.336312E-07,NaN,-1.565342,-4.069537E-07,NaN,-1.680718,1.857454E-05,-0.07253817,7.98959E-08,NaN,NaN,-0.1300318,1.95577E-10,-1.976677E-07,-1.11721E-07,1.978809E-08,-2.622604E-08
632.5848,-0.01447777,-5.6918E-09,NaN,-0.8277453,-1.336306E-07,NaN,-1.565275,-4.070243E-07,NaN,-1.680949,1.857501E-05,-0.07141645,7.996798E-08,NaN,NaN,-0.1299398,1.95577E-10,-2.0184E-07,-1.117194E-07,1.978809E-08,-2.861022E-08
632.5984,-0.01447777,-5.6918E-09,NaN,-0.8277453,-1.336306E-07,NaN,-1.565275,-4.070243E-07,NaN,-1.680949,1.857501E-05,-0.07141645,7.996798E-08,NaN,NaN,-0.1299398,1.95577E-10,-2.0184E-07,-1.117194E-07,1.978809E-08,-2.861022E-08
632.6122,-0.0144785,-5.690995E-09,NaN,-0.8277203,-1.336299E-07,NaN,-1.565216,-4.070934E-07,NaN,-1.68126,1.857549E-05,-0.07031801,8.00386E-08,NaN,NaN,-0.1298495,1.862638E-10,-2.049693E-07,-1.117178E-07,2.217228E-08,-2.622604E-08
632.6274,-0.01447907,-5.69019E-09,NaN,-0.8277769,-1.336293E-07,NaN,-1.565075,-4.071582E-07,NaN,-1.682183,1.857597E-05,-0.06769148,8.010495E-08,NaN,NaN,-0.1296317,1.769506E-10,-2.142825E-07,-1.117162E-07,2.932484E-08,-2.861022E-08
632.6418,-0.01447952,-5.689385E-09,NaN,-0.8278836,-1.336286E-07,NaN,-1.56497,-4.072189E-07,NaN,-1.683398,1.857645E-05,-0.06512093,8.016711E-08,NaN,NaN,-0.1294182,1.676373E-10,-2.212116E-07,-1.117146E-07,2.694065E-08,-2.622604E-08
632.6564,-0.01447952,-5.689385E-09,NaN,-0.8278836,-1.336286E-07,NaN,-1.56497,-4.072189E-07,NaN,-1.683398,1.857645E-05,-0.06512093,8.016711E-08,NaN,NaN,-0.1294182,1.676373E-10,-2.212116E-07,-1.117146E-07,2.694065E-08,-2.622604E-08
632.6701,-0.01447989,-5.688579E-09,NaN,-0.8280208,-1.33628E-07,NaN,-1.564881,-4.072783E-07,NaN,-1.684748,1.857693E-05,-0.06260364,8.022801E-08,NaN,NaN,-0.1292088,1.583241E-10,-2.269485E-07,-1.11713E-07,2.694065E-08,-2.861022E-08
632.6855,-0.01448022,-5.687774E-09,NaN,-0.8281761,-1.336274E-07,NaN,-1.564798,-4.073336E-07,NaN,-1.686157,1.85774E-05,-0.06013668,8.028483E-08,NaN,NaN,-0.1290036,1.490109E-10,-2.313071E-07,-1.117114E-07,2.455647E-08,-2.622604E-08
632.7002,-0.01448039,-5.686969E-09,NaN,-0.8284112,-1.336267E-07,NaN,-1.564629,-4.073877E-07,NaN,-1.688159,1.857788E-05,-0.05616599,8.034048E-08,NaN,NaN,-0.128673,1.396977E-10,-2.421849E-07,-1.117099E-07,2.694065E-08,-2.861022E-08
632.7148,-0.01448039,-5.686969E-09,NaN,-0.8284112,-1.336267E-07,NaN,-1.564629,-4.073877E-07,NaN,-1.688159,1.857788E-05,-0.05616599,8.034048E-08,NaN,NaN,-0.128673,1.396977E-10,-2.421849E-07,-1.117099E-07,2.694065E-08,-2.861022E-08
632.7288,-0.01448045,-5.686164E-09,NaN,-0.8286946,-1.336261E-07,NaN,-1.564496,-4.074379E-07,NaN,-1.690434,1.857835E-05,-0.05227728,8.039216E-08,NaN,NaN,-0.128349,1.303844E-10,-2.500826E-07,-1.117083E-07,2.932484E-08,-2.622604E-08
632.744,-0.01448043,-5.685361E-09,NaN,-0.8290064,-1.336255E-07,NaN,-1.564377,-4.073E-07,NaN,-1.692829,1.857882E-05,-0.04846747,8.02558E-08,NaN,NaN,-0.1280312,1.257278E-10,-2.564901E-07,-1.117067E-07,3.170902E-08,-2.861022E-08
632.7584,-0.01448043,-5.685361E-09,NaN,-0.8290064,-1.336255E-07,NaN,-1.564377,-4.073E-07,NaN,-1.692829,1.857882E-05,-0.04846747,8.02558E-08,NaN,NaN,-0.1280312,1.257278E-10,-2.564901E-07,-1.117067E-07,3.170902E-08,-2.861022E-08
632.7728,-0.01448025,-5.684556E-09,NaN,-0.8294038,-1.336248E-07,NaN,-1.564168,-4.073489E-07,NaN,-1.69584,1.85793E-05,-0.04317797,8.030621E-08,NaN,NaN,-0.1275904,1.164146E-10,-2.672189E-07,-1.117052E-07,3.409321E-08,-2.622604E-08
632.7879,-0.01447994,-5.683752E-09,NaN,-0.829852,-1.336242E-07,NaN,-1.563997,-4.073939E-07,NaN,-1.699128,1.857977E-05,-0.03799618,8.035274E-08,NaN,NaN,-0.1271582,1.071014E-10,-2.758616E-07,-1.117036E-07,3.409321E-08,-2.861022E-08
632.8027,-0.01447954,-5.682948E-09,NaN,-0.8303298,-1.336236E-07,NaN,-1.563841,-4.074352E-07,NaN,-1.702532,1.858024E-05,-0.03291853,8.039549E-08,NaN,NaN,-0.1267345,9.778815E-11,-2.823249E-07,-1.117021E-07,2.694065E-08,-2.622604E-08
632.8174,-0.01447954,-5.682948E-09,NaN,-0.8303298,-1.336236E-07,NaN,-1.563841,-4.074352E-07,NaN,-1.702532,1.858024E-05,-0.03291853,8.039549E-08,NaN,NaN,-0.1267345,9.778815E-11,-2.823249E-07,-1.117021E-07,2.694065E-08,-2.622604E-08
632.8312,-0.01447909,-5.682145E-09,NaN,-0.8308235,-1.33623E-07,NaN,-1.563692,-4.072914E-07,NaN,-1.705969,1.85807E-05,-0.02794076,8.025322E-08,NaN,NaN,-0.1263191,9.313153E-11,-2.877453E-07,-1.117005E-07,2.932484E-08,-2.861022E-08
632.8466,-0.01447849,-5.681341E-09,NaN,-0.8313943,-1.336223E-07,NaN,-1.563434,-4.073316E-07,NaN,-1.709972,1.858118E-05,-0.02150001,8.029497E-08,NaN,NaN,-0.1257825,8.381831E-11,-2.97431E-07,-1.11699E-07,2.932484E-08,-2.622604E-08
632.8632,-0.01447777,-5.680537E-09,NaN,-0.83201,-1.336217E-07,NaN,-1.563217,-4.07371E-07,NaN,-1.71422,1.858165E-05,-0.01518906,8.033586E-08,NaN,NaN,-0.1252565,7.450508E-11,-3.047419E-07,-1.116975E-07,3.409321E-08,-2.861022E-08
632.877,-0.01447777,-5.680537E-09,NaN,-0.83201,-1.336217E-07,NaN,-1.563217,-4.07371E-07,NaN,-1.71422,1.858165E-05,-0.01518906,8.033586E-08,NaN,NaN,-0.1252565,7.450508E-11,-3.047419E-07,-1.116975E-07,3.409321E-08,-2.861022E-08
632.8909,-0.01447697,-5.679733E-09,NaN,-0.8326507,-1.336211E-07,NaN,-1.563016,-4.074067E-07,NaN,-1.71856,1.858211E-05,-0.009004591,8.037306E-08,NaN,NaN,-0.1247407,6.984847E-11,-3.100318E-07,-1.11696E-07,2.932484E-08,-2.622604E-08
632.905,-0.01447612,-5.67893E-09,NaN,-0.8333039,-1.336205E-07,NaN,-1.562822,-4.072546E-07,NaN,-1.722915,1.858256E-05,-0.002941499,8.022256E-08,NaN,NaN,-0.124235,6.984847E-11,-3.13473E-07,-1.116944E-07,2.694065E-08,-2.861022E-08
632.9197,-0.01447612,-5.67893E-09,NaN,-0.8333039,-1.336205E-07,NaN,-1.562822,-4.072546E-07,NaN,-1.722915,1.858256E-05,-0.002941499,8.022256E-08,NaN,NaN,-0.124235,6.984847E-11,-3.13473E-07,-1.116944E-07,2.694065E-08,-2.861022E-08
632.9335,-0.01447511,-5.678127E-09,NaN,-0.8340312,-1.336199E-07,NaN,-1.5625,-4.072896E-07,NaN,-1.727821,1.858302E-05,0.004569431,8.025905E-08,NaN,NaN,-0.12361,6.519185E-11,-3.213404E-07,-1.116929E-07,2.932484E-08,-2.622604E-08
632.9487,-0.01447399,-5.677324E-09,NaN,-0.834801,-1.336193E-07,NaN,-1.562224,-4.07321E-07,NaN,-1.732958,1.858348E-05,0.01192998,8.029195E-08,NaN,NaN,-0.1229972,6.519185E-11,-3.253404E-07,-1.116914E-07,3.170902E-08,-2.861022E-08
632.9632,-0.01447279,-5.67652E-09,NaN,-0.8355936,-1.336186E-07,NaN,-1.561967,-4.073517E-07,NaN,-1.738173,1.858394E-05,0.0191427,8.032415E-08,NaN,NaN,-0.1223964,6.519185E-11,-3.283766E-07,-1.116899E-07,2.932484E-08,-2.622604E-08
632.9781,-0.01447279,-5.67652E-09,NaN,-0.8355936,-1.336186E-07,NaN,-1.561967,-4.073517E-07,NaN,-1.738173,1.858394E-05,0.0191427,8.032415E-08,NaN,NaN,-0.1223964,6.519185E-11,-3.283766E-07,-1.116899E-07,2.932484E-08,-2.622604E-08
632.9919,-0.0144713,-5.675717E-09,NaN,-0.8364659,-1.33618E-07,NaN,-1.56157,-4.073789E-07,NaN,-1.743965,1.858439E-05,0.02778421,8.035284E-08,NaN,NaN,-0.121678,6.519185E-11,-3.345885E-07,-1.116884E-07,2.694065E-08,-2.861022E-08
633.0074,-0.01446947,-5.674914E-09,NaN,-0.8373836,-1.336174E-07,NaN,-1.561226,-4.074026E-07,NaN,-1.749994,1.858485E-05,0.03625371,8.037809E-08,NaN,NaN,-0.1209738,6.519185E-11,-3.345326E-07,-1.116869E-07,2.455647E-08,-2.622604E-08
633.0234,-0.01446734,-5.674113E-09,NaN,-0.8383251,-1.336168E-07,NaN,-1.560903,-4.072417E-07,NaN,-1.756099,1.858532E-05,0.04455276,8.021871E-08,NaN,NaN,-0.1202833,5.587863E-11,-3.347748E-07,-1.116854E-07,2.217228E-08,-2.861022E-08
633.0369,-0.01446734,-5.674113E-09,NaN,-0.8383251,-1.336168E-07,NaN,-1.560903,-4.072417E-07,NaN,-1.756099,1.858532E-05,0.04455276,8.021871E-08,NaN,NaN,-0.1202833,5.587863E-11,-3.347748E-07,-1.116854E-07,2.217228E-08,-2.861022E-08
633.0507,-0.01446497,-5.67331E-09,NaN,-0.8392771,-1.336162E-07,NaN,-1.560588,-4.072651E-07,NaN,-1.762199,1.858578E-05,0.05268878,8.024366E-08,NaN,NaN,-0.1196064,5.122202E-11,-3.338993E-07,-1.11684E-07,1.740391E-08,-2.622604E-08
633.0662,-0.01446217,-5.672508E-09,NaN,-0.8402314,-1.336156E-07,NaN,-1.560276,-4.07288E-07,NaN,-1.768253,1.858623E-05,0.06066809,8.026807E-08,NaN,NaN,-0.1189427,5.122202E-11,-3.318877E-07,-1.116825E-07,1.263554E-08,-2.861022E-08
633.0809,-0.01445909,-5.671705E-09,NaN,-0.8411829,-1.33615E-07,NaN,-1.559965,-4.073075E-07,NaN,-1.774243,1.858669E-05,0.06849259,8.028911E-08,NaN,NaN,-0.118292,5.122202E-11,-3.286839E-07,-1.11681E-07,7.86717E-09,-2.622604E-08
633.0955,-0.01445909,-5.671705E-09,NaN,-0.8411829,-1.33615E-07,NaN,-1.559965,-4.073075E-07,NaN,-1.774243,1.858669E-05,0.06849259,8.028911E-08,NaN,NaN,-0.118292,5.122202E-11,-3.286839E-07,-1.11681E-07,7.86717E-09,-2.622604E-08
633.1093,-0.01445583,-5.670903E-09,NaN,-0.8421285,-1.336144E-07,NaN,-1.559656,-4.073267E-07,NaN,-1.780158,1.858714E-05,0.07616539,8.030975E-08,NaN,NaN,-0.1176541,5.122202E-11,-3.255547E-07,-1.116795E-07,5.482984E-09,-2.861022E-08
633.1247,-0.01445244,-5.670101E-09,NaN,-0.843066,-1.336138E-07,NaN,-1.559347,-4.073453E-07,NaN,-1.785995,1.85876E-05,0.08368933,8.032994E-08,NaN,NaN,-0.1170287,5.122202E-11,-3.219039E-07,-1.116781E-07,7.146128E-10,-2.622604E-08
633.1415,-0.0144492,-5.6693E-09,NaN,-0.8439251,-1.336132E-07,NaN,-1.559242,-4.073607E-07,NaN,-1.791174,1.858806E-05,0.0894873,8.034685E-08,NaN,NaN,-0.1165449,5.122202E-11,-3.166885E-07,-1.116766E-07,-4.053759E-09,-2.861022E-08
633.155,-0.0144492,-5.6693E-09,NaN,-0.8439251,-1.336132E-07,NaN,-1.559242,-4.073607E-07,NaN,-1.791174,1.858806E-05,0.0894873,8.034685E-08,NaN,NaN,-0.1165449,5.122202E-11,-3.166885E-07,-1.116766E-07,-4.053759E-09,-2.861022E-08
633.1689,-0.01444614,-5.668498E-09,NaN,-0.844732,-1.336126E-07,NaN,-1.559066,-4.073758E-07,NaN,-1.796,1.858851E-05,0.09517138,8.036338E-08,NaN,NaN,-0.1160706,5.122202E-11,-3.130377E-07,-1.116752E-07,-4.053759E-09,-2.622604E-08
633.1833,-0.01444327,-5.667698E-09,NaN,-0.845503,-1.33612E-07,NaN,-1.558861,-4.072007E-07,NaN,-1.800615,1.858898E-05,0.1007562,8.018982E-08,NaN,NaN,-0.1156056,4.190879E-11,-3.089399E-07,-1.116737E-07,-1.669573E-09,-2.861022E-08
633.1982,-0.01444327,-5.667698E-09,NaN,-0.845503,-1.33612E-07,NaN,-1.558861,-4.072007E-07,NaN,-1.800615,1.858898E-05,0.1007562,8.018982E-08,NaN,NaN,-0.1156056,4.190879E-11,-3.089399E-07,-1.116737E-07,-1.669573E-09,-2.861022E-08
633.212,-0.01444075,-5.666897E-09,NaN,-0.8461792,-1.336114E-07,NaN,-1.558865,-4.07213E-07,NaN,-1.804515,1.858944E-05,0.1046561,8.020367E-08,NaN,NaN,-0.115279,3.725218E-11,-3.035754E-07,-1.116723E-07,7.146128E-10,-2.622604E-08
633.2269,-0.01443859,-5.666096E-09,NaN,-0.8467938,-1.336108E-07,NaN,-1.558785,-4.07225E-07,NaN,-1.808041,1.85899E-05,0.108478,8.021719E-08,NaN,NaN,-0.1149588,3.725218E-11,-3.002227E-07,-1.116709E-07,3.098799E-09,-2.861022E-08
633.2416,-0.01443673,-5.665296E-09,NaN,-0.8473676,-1.336102E-07,NaN,-1.55867,-4.072339E-07,NaN,-1.811355,1.859035E-05,0.1122392,8.022757E-08,NaN,NaN,-0.1146449,3.259557E-11,-2.956778E-07,-1.116694E-07,-1.669573E-09,-2.622604E-08
633.2563,-0.01443673,-5.665296E-09,NaN,-0.8473676,-1.336102E-07,NaN,-1.55867,-4.072339E-07,NaN,-1.811355,1.859035E-05,0.1122392,8.022757E-08,NaN,NaN,-0.1146449,3.259557E-11,-2.956778E-07,-1.116694E-07,-1.669573E-09,-2.622604E-08
633.2701,-0.01443509,-5.664495E-09,NaN,-0.8479136,-1.336096E-07,NaN,-1.558543,-4.072425E-07,NaN,-1.814539,1.859081E-05,0.1159327,8.02377E-08,NaN,NaN,-0.1143372,2.793895E-11,-2.911329E-07,-1.11668E-07,-4.053759E-09,-2.861022E-08
633.2856,-0.01443383,-5.663695E-09,NaN,-0.8483709,-1.33609E-07,NaN,-1.558646,-4.072481E-07,NaN,-1.817057,1.859127E-05,0.1179758,8.024475E-08,NaN,NaN,-0.1141648,2.328234E-11,-2.865136E-07,-1.116666E-07,-1.669573E-09,-2.622604E-08
633.3004,-0.0144328,-5.662895E-09,NaN,-0.8487712,-1.336084E-07,NaN,-1.558662,-4.072534E-07,NaN,-1.819235,1.859172E-05,0.1199724,8.02516E-08,NaN,NaN,-0.1139958,1.862573E-11,-2.838314E-07,-1.116652E-07,-4.053759E-09,-2.861022E-08
633.3149,-0.0144328,-5.662895E-09,NaN,-0.8487712,-1.336084E-07,NaN,-1.558662,-4.072534E-07,NaN,-1.819235,1.859172E-05,0.1199724,8.02516E-08,NaN,NaN,-0.1139958,1.862573E-11,-2.838314E-07,-1.116652E-07,-4.053759E-09,-2.861022E-08
633.3287,-0.0144319,-5.662095E-09,NaN,-0.8491346,-1.336078E-07,NaN,-1.558637,-4.074562E-07,NaN,-1.821228,1.859217E-05,0.1219455,8.045591E-08,NaN,NaN,-0.1138301,2.328234E-11,-2.798826E-07,-1.116653E-07,-4.053759E-09,-2.622604E-08
633.3439,-0.01443107,-5.661296E-09,NaN,-0.8494735,-1.336076E-07,NaN,-1.558597,-4.072944E-07,NaN,-1.823114,1.859263E-05,0.1238865,8.029564E-08,NaN,NaN,-0.1136677,3.725218E-11,-2.761573E-07,-1.116657E-07,7.146128E-10,-2.861022E-08
633.3588,-0.01443107,-5.661296E-09,NaN,-0.8494735,-1.336076E-07,NaN,-1.558597,-4.072944E-07,NaN,-1.823114,1.859263E-05,0.1238865,8.029564E-08,NaN,NaN,-0.1136677,3.725218E-11,-2.761573E-07,-1.116657E-07,7.146128E-10,-2.861022E-08
633.3727,-0.0144304,-5.660497E-09,NaN,-0.8497266,-1.336077E-07,NaN,-1.558796,-4.073044E-07,NaN,-1.824355,1.859309E-05,0.1242126,8.030716E-08,NaN,NaN,-0.1136378,3.725218E-11,-2.725065E-07,-1.116662E-07,3.098799E-09,-2.622604E-08
633.3881,-0.01442985,-5.659698E-09,NaN,-0.8499256,-1.336078E-07,NaN,-1.558899,-4.072747E-07,NaN,-1.825274,1.859356E-05,0.1245237,8.02789E-08,NaN,NaN,-0.1136084,4.190879E-11,-2.710164E-07,-1.116669E-07,7.146128E-10,-2.861022E-08
633.4027,-0.01442937,-5.6589E-09,NaN,-0.8500902,-1.336081E-07,NaN,-1.558957,-4.072228E-07,NaN,-1.826026,1.859403E-05,0.1248459,8.022857E-08,NaN,NaN,-0.1135796,4.65654E-11,-2.684832E-07,-1.116676E-07,7.146128E-10,-2.622604E-08
633.4174,-0.01442937,-5.6589E-09,NaN,-0.8500902,-1.336081E-07,NaN,-1.558957,-4.072228E-07,NaN,-1.826026,1.859403E-05,0.1248459,8.022857E-08,NaN,NaN,-0.1135796,4.65654E-11,-2.684832E-07,-1.116676E-07,7.146128E-10,-2.622604E-08
633.4333,-0.01442906,-5.658101E-09,NaN,-0.8501636,-1.336084E-07,NaN,-1.559244,-4.071607E-07,NaN,-1.826113,1.85945E-05,0.1235904,8.016789E-08,NaN,NaN,-0.1136807,5.122202E-11,-2.65801E-07,-1.116683E-07,-4.053759E-09,-2.861022E-08
633.4477,-0.01442889,-5.657302E-09,NaN,-0.8501804,-1.336087E-07,NaN,-1.559425,-4.070911E-07,NaN,-1.825875,1.859498E-05,0.1223528,8.009986E-08,NaN,NaN,-0.1137798,5.122202E-11,-2.649069E-07,-1.116691E-07,-8.822131E-09,-2.622604E-08
633.4611,-0.0144288,-5.656503E-09,NaN,-0.850164,-1.336091E-07,NaN,-1.559554,-4.070201E-07,NaN,-1.825477,1.859546E-05,0.1211586,8.003028E-08,NaN,NaN,-0.113877,5.587863E-11,-2.630443E-07,-1.116698E-07,-1.120632E-08,-2.861022E-08
633.4758,-0.0144288,-5.656503E-09,NaN,-0.850164,-1.336091E-07,NaN,-1.559554,-4.070201E-07,NaN,-1.825477,1.859546E-05,0.1211586,8.003028E-08,NaN,NaN,-0.113877,5.587863E-11,-2.630443E-07,-1.116698E-07,-1.120632E-08,-2.861022E-08
633.4896,-0.01442877,-5.655704E-09,NaN,-0.850127,-1.336094E-07,NaN,-1.55966,-4.069475E-07,NaN,-1.825001,1.859593E-05,0.1199964,7.995917E-08,NaN,NaN,-0.1139723,6.519185E-11,-2.611816E-07,-1.116706E-07,-1.597469E-08,-2.622604E-08
633.5063,-0.01442889,-5.654905E-09,NaN,-0.8500083,-1.336098E-07,NaN,-1.560001,-4.068762E-07,NaN,-1.823914,1.85964E-05,0.1172821,7.98894E-08,NaN,NaN,-0.114195,6.984847E-11,-2.583504E-07,-1.116714E-07,-1.597469E-08,-2.861022E-08
633.5197,-0.01442889,-5.654905E-09,NaN,-0.8500083,-1.336098E-07,NaN,-1.560001,-4.068762E-07,NaN,-1.823914,1.85964E-05,0.1172821,7.98894E-08,NaN,NaN,-0.114195,6.984847E-11,-2.583504E-07,-1.116714E-07,-1.597469E-08,-2.861022E-08
633.5334,-0.01442913,-5.654107E-09,NaN,-0.8498397,-1.336101E-07,NaN,-1.560235,-4.068063E-07,NaN,-1.822536,1.859687E-05,0.1146141,7.982093E-08,NaN,NaN,-0.1144133,7.916169E-11,-2.582014E-07,-1.116721E-07,-1.35905E-08,-2.622604E-08
633.5488,-0.01442945,-5.653308E-09,NaN,-0.849641,-1.336105E-07,NaN,-1.560416,-4.067376E-07,NaN,-1.821025,1.859735E-05,0.1120174,7.975373E-08,NaN,NaN,-0.1146274,8.381831E-11,-2.570093E-07,-1.116729E-07,-1.35905E-08,-2.861022E-08
633.5633,-0.01442982,-5.65251E-09,NaN,-0.8494246,-1.336109E-07,NaN,-1.560572,-4.066702E-07,NaN,-1.819459,1.859782E-05,0.1094806,7.968779E-08,NaN,NaN,-0.1148372,9.313153E-11,-2.550721E-07,-1.116737E-07,-1.120632E-08,-2.622604E-08
633.5781,-0.01442982,-5.65251E-09,NaN,-0.8494246,-1.336109E-07,NaN,-1.560572,-4.066702E-07,NaN,-1.819459,1.859782E-05,0.1094806,7.968779E-08,NaN,NaN,-0.1148372,9.313153E-11,-2.550721E-07,-1.116737E-07,-1.120632E-08,-2.622604E-08
633.5919,-0.01443035,-5.651711E-09,NaN,-0.849129,-1.336113E-07,NaN,-1.560953,-4.06604E-07,NaN,-1.817298,1.85983E-05,0.105419,7.962307E-08,NaN,NaN,-0.1151723,9.778815E-11,-2.53433E-07,-1.116744E-07,-6.437946E-09,-2.861022E-08
633.6075,-0.014431,-5.650913E-09,NaN,-0.8487858,-1.336116E-07,NaN,-1.561226,-4.065418E-07,NaN,-1.814865,1.859877E-05,0.1014331,7.956238E-08,NaN,NaN,-0.1155008,1.071014E-10,-2.53582E-07,-1.116752E-07,-4.05376E-09,-2.622604E-08
633.6218,-0.01443172,-5.650114E-09,NaN,-0.8484147,-1.33612E-07,NaN,-1.561442,-4.064808E-07,NaN,-1.812315,1.859924E-05,0.09754484,7.950282E-08,NaN,NaN,-0.1158229,1.11758E-10,-2.527997E-07,-1.116759E-07,-1.669575E-09,-2.861022E-08
633.6366,-0.01443172,-5.650114E-09,NaN,-0.8484147,-1.33612E-07,NaN,-1.561442,-4.064808E-07,NaN,-1.812315,1.859924E-05,0.09754484,7.950282E-08,NaN,NaN,-0.1158229,1.11758E-10,-2.527997E-07,-1.116759E-07,-1.669575E-09,-2.861022E-08
633.6508,-0.01443263,-5.649316E-09,NaN,-0.8479589,-1.336123E-07,NaN,-1.561861,-4.064208E-07,NaN,-1.809149,1.859971E-05,0.09216336,7.944436E-08,NaN,NaN,-0.116268,1.210712E-10,-2.501548E-07,-1.116767E-07,-1.669575E-09,-2.622604E-08
633.6661,-0.01443366,-5.648518E-09,NaN,-0.8474527,-1.336127E-07,NaN,-1.562163,-4.063619E-07,NaN,-1.805706,1.860019E-05,0.08688908,7.938697E-08,NaN,NaN,-0.1167044,1.257278E-10,-2.486274E-07,-1.116774E-07,-4.05376E-09,-2.861022E-08
633.6808,-0.01443478,-5.64772E-09,NaN,-0.8469178,-1.336131E-07,NaN,-1.562406,-4.06307E-07,NaN,-1.80215,1.860066E-05,0.08173867,7.933347E-08,NaN,NaN,-0.1171322,1.35041E-10,-2.464295E-07,-1.116782E-07,-4.05376E-09,-2.622604E-08
633.6954,-0.01443478,-5.64772E-09,NaN,-0.8469178,-1.336131E-07,NaN,-1.562406,-4.06307E-07,NaN,-1.80215,1.860066E-05,0.08173867,7.933347E-08,NaN,NaN,-0.1171322,1.35041E-10,-2.464295E-07,-1.116782E-07,-4.05376E-09,-2.622604E-08
633.7093,-0.01443595,-5.646922E-09,NaN,-0.8463675,-1.336134E-07,NaN,-1.562616,-4.06253E-07,NaN,-1.798565,1.860114E-05,0.07669932,7.928095E-08,NaN,NaN,-0.1175516,1.303844E-10,-2.444178E-07,-1.116789E-07,-1.669575E-09,-2.861022E-08
633.7256,-0.01443736,-5.646124E-09,NaN,-0.8457409,-1.336138E-07,NaN,-1.563022,-4.061999E-07,NaN,-1.794415,1.860161E-05,0.07018589,7.922939E-08,NaN,NaN,-0.1180922,1.396977E-10,-2.394259E-07,-1.116797E-07,7.14611E-10,-2.622604E-08
633.7404,-0.01443911,-5.645326E-09,NaN,-0.84507,-1.336141E-07,NaN,-1.563317,-4.061507E-07,NaN,-1.790019,1.860209E-05,0.0638053,7.918161E-08,NaN,NaN,-0.1186221,1.443543E-10,-2.370417E-07,-1.116804E-07,-1.669575E-09,-2.861022E-08
633.7539,-0.01443911,-5.645326E-09,NaN,-0.84507,-1.336141E-07,NaN,-1.563317,-4.061507E-07,NaN,-1.790019,1.860209E-05,0.0638053,7.918161E-08,NaN,NaN,-0.1186221,1.443543E-10,-2.370417E-07,-1.116804E-07,-1.669575E-09,-2.861022E-08
633.7682,-0.01444114,-5.644528E-09,NaN,-0.8443748,-1.336145E-07,NaN,-1.563554,-4.061023E-07,NaN,-1.785535,1.860256E-05,0.057569,7.913469E-08,NaN,NaN,-0.1191417,1.536675E-10,-2.349928E-07,-1.116812E-07,-8.822132E-09,-2.622604E-08
633.7833,-0.01444339,-5.643731E-09,NaN,-0.8436676,-1.336148E-07,NaN,-1.563759,-4.058964E-07,NaN,-1.781039,1.860303E-05,0.05146489,7.893028E-08,NaN,NaN,-0.1196511,1.629807E-10,-2.308205E-07,-1.116819E-07,-8.822132E-09,-2.861022E-08
633.7979,-0.01444339,-5.643731E-09,NaN,-0.8436676,-1.336148E-07,NaN,-1.563759,-4.058964E-07,NaN,-1.781039,1.860303E-05,0.05146489,7.893028E-08,NaN,NaN,-0.1196511,1.629807E-10,-2.308205E-07,-1.116819E-07,-8.822132E-09,-2.861022E-08
633.8117,-0.01444603,-5.642934E-09,NaN,-0.842887,-1.336152E-07,NaN,-1.564138,-4.056944E-07,NaN,-1.775995,1.86035E-05,0.04390955,7.87298E-08,NaN,NaN,-0.1202799,1.862638E-10,-2.249904E-07,-1.116826E-07,-4.053761E-09,-2.622604E-08
633.827,-0.01444903,-5.642138E-09,NaN,-0.8420645,-1.336155E-07,NaN,-1.56441,-4.054963E-07,NaN,-1.77072,1.860398E-05,0.0365125,7.853318E-08,NaN,NaN,-0.1208963,1.95577E-10,-2.19328E-07,-1.116833E-07,-6.437947E-09,-2.861022E-08
633.8416,-0.01445235,-5.641342E-09,NaN,-0.8412199,-1.336159E-07,NaN,-1.564625,-4.05302E-07,NaN,-1.76537,1.860447E-05,0.02927876,7.834035E-08,NaN,NaN,-0.1215007,2.002336E-10,-2.137866E-07,-1.116841E-07,-1.120632E-08,-2.622604E-08
633.8562,-0.01445235,-5.641342E-09,NaN,-0.8412199,-1.336159E-07,NaN,-1.564625,-4.05302E-07,NaN,-1.76537,1.860447E-05,0.02927876,7.834035E-08,NaN,NaN,-0.1215007,2.002336E-10,-2.137866E-07,-1.116841E-07,-1.120632E-08,-2.622604E-08
633.8703,-0.0144561,-5.640545E-09,NaN,-0.8402961,-1.336163E-07,NaN,-1.564985,-4.051142E-07,NaN,-1.759447,1.860496E-05,0.02062259,7.815405E-08,NaN,NaN,-0.1222225,2.048903E-10,-2.059717E-07,-1.116848E-07,-8.822132E-09,-2.861022E-08
633.8859,-0.01446027,-5.639747E-09,NaN,-0.8393276,-1.336162E-07,NaN,-1.565237,-4.028011E-07,NaN,-1.753288,1.860545E-05,0.01215161,7.591051E-08,NaN,NaN,-0.1229302,2.095469E-10,-1.983162E-07,-1.116867E-07,-1.120632E-08,-2.622604E-08
633.9003,-0.01446477,-5.638949E-09,NaN,-0.8383358,-1.336162E-07,NaN,-1.565431,-4.004879E-07,NaN,-1.747056,1.860592E-05,0.003865162,7.372083E-08,NaN,NaN,-0.123624,2.188601E-10,-1.899343E-07,-1.116888E-07,-1.120632E-08,-2.861022E-08
633.9149,-0.01446477,-5.638949E-09,NaN,-0.8383358,-1.336162E-07,NaN,-1.565431,-4.004879E-07,NaN,-1.747056,1.860592E-05,0.003865162,7.372083E-08,NaN,NaN,-0.123624,2.188601E-10,-1.899343E-07,-1.116888E-07,-1.120632E-08,-2.861022E-08
633.9291,-0.01446954,-5.638151E-09,NaN,-0.837334,-1.336164E-07,NaN,-1.565592,-3.981748E-07,NaN,-1.740833,1.86064E-05,-0.004248221,7.157423E-08,NaN,NaN,-0.1243043,2.188601E-10,-1.808632E-07,-1.116909E-07,-8.822132E-09,-2.622604E-08
633.9442,-0.01447469,-5.637354E-09,NaN,-0.8362613,-1.336166E-07,NaN,-1.565877,-3.958617E-07,NaN,-1.734086,1.860687E-05,-0.01376403,6.946276E-08,NaN,NaN,-0.1251005,2.281733E-10,-1.677129E-07,-1.116931E-07,-8.822132E-09,-2.861022E-08
633.9588,-0.01447469,-5.637354E-09,NaN,-0.8362613,-1.336166E-07,NaN,-1.565877,-3.958617E-07,NaN,-1.734086,1.860687E-05,-0.01376403,6.946276E-08,NaN,NaN,-0.1251005,2.281733E-10,-1.677129E-07,-1.116931E-07,-8.822132E-09,-2.861022E-08
633.974,-0.01448022,-5.636556E-09,NaN,-0.8351497,-1.336168E-07,NaN,-1.566069,-3.935486E-07,NaN,-1.727132,1.860734E-05,-0.0230761,6.738057E-08,NaN,NaN,-0.1258811,2.328299E-10,-1.567606E-07,-1.116953E-07,-1.120632E-08,-2.622604E-08
633.988,-0.01448606,-5.635759E-09,NaN,-0.8340189,-1.336171E-07,NaN,-1.566208,-3.912354E-07,NaN,-1.720126,1.86078E-05,-0.03218921,6.532333E-08,NaN,NaN,-0.1266464,2.467998E-10,-1.452867E-07,-1.116975E-07,-1.35905E-08,-2.861022E-08
634.0038,-0.01449212,-5.634961E-09,NaN,-0.8328815,-1.336174E-07,NaN,-1.566316,-3.889223E-07,NaN,-1.713145,1.860827E-05,-0.04111345,6.328784E-08,NaN,NaN,-0.1273967,2.421432E-10,-1.335893E-07,-1.116998E-07,-1.35905E-08,-2.622604E-08
634.0184,-0.01449212,-5.634961E-09,NaN,-0.8328815,-1.336174E-07,NaN,-1.566316,-3.889223E-07,NaN,-1.713145,1.860827E-05,-0.04111345,6.328784E-08,NaN,NaN,-0.1273967,2.421432E-10,-1.335893E-07,-1.116998E-07,-1.35905E-08,-2.622604E-08
634.0324,-0.01449584,-5.634163E-09,NaN,-0.8325766,-1.336177E-07,NaN,-1.564987,-3.866092E-07,NaN,-1.713103,1.860873E-05,-0.03113182,6.127173E-08,NaN,NaN,-0.1265802,2.514564E-10,-1.780692E-07,-1.11702E-07,-2.551143E-08,-2.861022E-08
634.0466,-0.01449674,-5.633366E-09,NaN,-0.8327852,-1.336181E-07,NaN,-1.56428,-3.84296E-07,NaN,-1.71642,1.860919E-05,-0.02142957,5.927324E-08,NaN,NaN,-0.1257796,2.514564E-10,-2.063558E-07,-1.117043E-07,-2.312725E-08,-2.622604E-08
634.061,-0.01449626,-5.632569E-09,NaN,-0.8333098,-1.336184E-07,NaN,-1.563817,-3.819829E-07,NaN,-1.721386,1.860964E-05,-0.01198194,5.729105E-08,NaN,NaN,-0.1249948,2.607696E-10,-2.246936E-07,-1.117066E-07,-2.789562E-08,-2.861022E-08
634.0755,-0.01449626,-5.632569E-09,NaN,-0.8333098,-1.336184E-07,NaN,-1.563817,-3.819829E-07,NaN,-1.721386,1.860964E-05,-0.01198194,5.729105E-08,NaN,NaN,-0.1249948,2.607696E-10,-2.246936E-07,-1.117066E-07,-2.789562E-08,-2.861022E-08
634.0895,-0.01449528,-5.631772E-09,NaN,-0.8339579,-1.336188E-07,NaN,-1.563572,-3.796698E-07,NaN,-1.72657,1.861011E-05,-0.004306995,5.532417E-08,NaN,NaN,-0.1243549,2.56113E-10,-2.326983E-07,-1.117088E-07,-2.312725E-08,-2.622604E-08
634.1046,-0.01449406,-5.630976E-09,NaN,-0.8346791,-1.336197E-07,NaN,-1.563318,-3.773567E-07,NaN,-1.731841,1.861057E-05,0.003214353,5.337185E-08,NaN,NaN,-0.1237274,2.607696E-10,-2.395202E-07,-1.117102E-07,-2.789562E-08,-2.861022E-08
634.1193,-0.01449406,-5.630976E-09,NaN,-0.8346791,-1.336197E-07,NaN,-1.563318,-3.773567E-07,NaN,-1.731841,1.861057E-05,0.003214353,5.337185E-08,NaN,NaN,-0.1237274,2.607696E-10,-2.395202E-07,-1.117102E-07,-2.789562E-08,-2.861022E-08
634.1333,-0.01449256,-5.630179E-09,NaN,-0.8354424,-1.336205E-07,NaN,-1.563058,-3.750435E-07,NaN,-1.737124,1.861102E-05,0.01059208,5.143352E-08,NaN,NaN,-0.1231123,2.654262E-10,-2.452921E-07,-1.117115E-07,-2.789562E-08,-2.622604E-08
634.1487,-0.01449079,-5.629383E-09,NaN,-0.8362281,-1.336212E-07,NaN,-1.562796,-3.727304E-07,NaN,-1.742379,1.861148E-05,0.01782814,4.950875E-08,NaN,NaN,-0.1225092,2.700828E-10,-2.499347E-07,-1.117128E-07,-3.266399E-08,-2.861022E-08
634.1633,-0.01448904,-5.628586E-09,NaN,-0.8369548,-1.336216E-07,NaN,-1.562684,-3.704173E-07,NaN,-1.747011,1.861194E-05,0.0233538,4.759719E-08,NaN,NaN,-0.1220474,2.747394E-10,-2.499068E-07,-1.117151E-07,-3.743236E-08,-2.622604E-08
634.178,-0.01448904,-5.628586E-09,NaN,-0.8369548,-1.336216E-07,NaN,-1.562684,-3.704173E-07,NaN,-1.747011,1.861194E-05,0.0233538,4.759719E-08,NaN,NaN,-0.1220474,2.747394E-10,-2.499068E-07,-1.117151E-07,-3.743236E-08,-2.622604E-08
634.1921,-0.01448739,-5.62779E-09,NaN,-0.8376418,-1.33622E-07,NaN,-1.562518,-3.681041E-07,NaN,-1.75131,1.861239E-05,0.02877705,4.569856E-08,NaN,NaN,-0.1215946,2.79396E-10,-2.511455E-07,-1.117174E-07,-3.504817E-08,-2.861022E-08
634.2075,-0.01448584,-5.626996E-09,NaN,-0.8383014,-1.336227E-07,NaN,-1.562332,-3.680608E-07,NaN,-1.755414,1.861285E-05,0.03410254,4.59874E-08,NaN,NaN,-0.1211507,2.840526E-10,-2.51816E-07,-1.117188E-07,-3.504817E-08,-2.622604E-08
634.222,-0.01448438,-5.626203E-09,NaN,-0.8389409,-1.336232E-07,NaN,-1.562138,-3.681537E-07,NaN,-1.759391,1.861331E-05,0.03932763,4.634642E-08,NaN,NaN,-0.1207155,2.980225E-10,-2.53064E-07,-1.117199E-07,-3.743236E-08,-2.861022E-08
634.2369,-0.01448438,-5.626203E-09,NaN,-0.8389409,-1.336232E-07,NaN,-1.562138,-3.681537E-07,NaN,-1.759391,1.861331E-05,0.03932763,4.634642E-08,NaN,NaN,-0.1207155,2.980225E-10,-2.53064E-07,-1.117199E-07,-3.743236E-08,-2.861022E-08
634.2509,-0.01448322,-5.625409E-09,NaN,-0.839496,-1.336236E-07,NaN,-1.562114,-3.68329E-07,NaN,-1.762702,1.861378E-05,0.0428775,4.673488E-08,NaN,NaN,-0.1204183,3.026791E-10,-2.512572E-07,-1.11721E-07,-3.504817E-08,-2.622604E-08
634.2662,-0.01448222,-5.624616E-09,NaN,-0.8399963,-1.33624E-07,NaN,-1.562027,-3.685587E-07,NaN,-1.765665,1.861425E-05,0.04636248,4.713533E-08,NaN,NaN,-0.1201268,3.119923E-10,-2.502327E-07,-1.11722E-07,-3.504817E-08,-2.861022E-08
634.2809,-0.01448134,-5.623822E-09,NaN,-0.8404607,-1.336241E-07,NaN,-1.561914,-3.663326E-07,NaN,-1.768435,1.861474E-05,0.04978895,4.514819E-08,NaN,NaN,-0.1198411,3.073357E-10,-2.493759E-07,-1.11724E-07,-3.02798E-08,-2.622604E-08
634.2964,-0.01448134,-5.623822E-09,NaN,-0.8404607,-1.336241E-07,NaN,-1.561914,-3.663326E-07,NaN,-1.768435,1.861474E-05,0.04978895,4.514819E-08,NaN,NaN,-0.1198411,3.073357E-10,-2.493759E-07,-1.11724E-07,-3.02798E-08,-2.622604E-08
634.3104,-0.01448065,-5.623028E-09,NaN,-0.8408315,-1.336246E-07,NaN,-1.561973,-3.665019E-07,NaN,-1.770512,1.86152E-05,0.05157603,4.550932E-08,NaN,NaN,-0.1196904,3.213055E-10,-2.469359E-07,-1.117252E-07,-2.074306E-08,-2.861022E-08
634.3246,-0.0144801,-5.622235E-09,NaN,-0.8411428,-1.33625E-07,NaN,-1.56196,-3.667556E-07,NaN,-1.772237,1.861567E-05,0.0533332,4.591672E-08,NaN,NaN,-0.1195427,3.306187E-10,-2.456879E-07,-1.117263E-07,-2.312724E-08,-2.622604E-08
634.3394,-0.0144801,-5.622235E-09,NaN,-0.8411428,-1.33625E-07,NaN,-1.56196,-3.667556E-07,NaN,-1.772237,1.861567E-05,0.0533332,4.591672E-08,NaN,NaN,-0.1195427,3.306187E-10,-2.456879E-07,-1.117263E-07,-2.312724E-08,-2.622604E-08
634.3533,-0.01447962,-5.621442E-09,NaN,-0.8414161,-1.336253E-07,NaN,-1.561917,-3.670541E-07,NaN,-1.773775,1.861614E-05,0.05506724,4.633855E-08,NaN,NaN,-0.1193978,3.445886E-10,-2.444213E-07,-1.117273E-07,-2.312724E-08,-2.861022E-08
634.3685,-0.01447919,-5.62065E-09,NaN,-0.8416646,-1.336256E-07,NaN,-1.561862,-3.673799E-07,NaN,-1.775207,1.861662E-05,0.05677202,4.676328E-08,NaN,NaN,-0.1192558,3.445886E-10,-2.436017E-07,-1.117282E-07,-2.312724E-08,-2.622604E-08
634.3832,-0.01447894,-5.619857E-09,NaN,-0.8418275,-1.336259E-07,NaN,-1.561992,-3.677252E-07,NaN,-1.776,1.861708E-05,0.05686806,4.718805E-08,NaN,NaN,-0.1192459,3.585584E-10,-2.410313E-07,-1.117292E-07,-2.312724E-08,-2.861022E-08
634.3979,-0.01447894,-5.619857E-09,NaN,-0.8418275,-1.336259E-07,NaN,-1.561992,-3.677252E-07,NaN,-1.776,1.861708E-05,0.05686806,4.718805E-08,NaN,NaN,-0.1192459,3.585584E-10,-2.410313E-07,-1.117292E-07,-2.312724E-08,-2.861022E-08
634.4118,-0.0144788,-5.619064E-09,NaN,-0.8419366,-1.336261E-07,NaN,-1.562045,-3.680834E-07,NaN,-1.776477,1.861757E-05,0.05696621,4.761004E-08,NaN,NaN,-0.1192363,3.492452E-10,-2.399137E-07,-1.117301E-07,-1.835887E-08,-2.622604E-08
634.4275,-0.01447875,-5.618272E-09,NaN,-0.8420122,-1.336264E-07,NaN,-1.562065,-3.684484E-07,NaN,-1.776793,1.861805E-05,0.05707455,4.802649E-08,NaN,NaN,-0.1192268,3.539018E-10,-2.386843E-07,-1.117311E-07,-1.597469E-08,-2.861022E-08
634.4432,-0.01447873,-5.617478E-09,NaN,-0.8420668,-1.336265E-07,NaN,-1.562071,-3.663555E-07,NaN,-1.777026,1.861854E-05,0.05718594,4.607215E-08,NaN,NaN,-0.1192176,3.445886E-10,-2.374922E-07,-1.11733E-07,-1.835887E-08,-2.622604E-08
634.4566,-0.01447873,-5.617478E-09,NaN,-0.8420668,-1.336265E-07,NaN,-1.562071,-3.663555E-07,NaN,-1.777026,1.861854E-05,0.05718594,4.607215E-08,NaN,NaN,-0.1192176,3.445886E-10,-2.374922E-07,-1.11733E-07,-1.835887E-08,-2.622604E-08
634.4705,-0.0144789,-5.616684E-09,NaN,-0.8420404,-1.336269E-07,NaN,-1.562262,-3.66609E-07,NaN,-1.776639,1.861901E-05,0.05572007,4.643709E-08,NaN,NaN,-0.1193379,3.539018E-10,-2.352571E-07,-1.117341E-07,-2.074306E-08,-2.861022E-08
634.4858,-0.01447919,-5.615892E-09,NaN,-0.8419642,-1.336273E-07,NaN,-1.562372,-3.66925E-07,NaN,-1.775953,1.861949E-05,0.05428766,4.684259E-08,NaN,NaN,-0.1194558,3.585584E-10,-2.341208E-07,-1.117352E-07,-1.835887E-08,-2.622604E-08
634.5003,-0.01447956,-5.615099E-09,NaN,-0.8418577,-1.336276E-07,NaN,-1.562444,-3.672703E-07,NaN,-1.775125,1.861996E-05,0.05289634,4.725975E-08,NaN,NaN,-0.1195714,3.678716E-10,-2.32519E-07,-1.117361E-07,-1.35905E-08,-2.861022E-08
634.5151,-0.01447956,-5.615099E-09,NaN,-0.8418577,-1.336276E-07,NaN,-1.562444,-3.672703E-07,NaN,-1.775125,1.861996E-05,0.05289634,4.725975E-08,NaN,NaN,-0.1195714,3.678716E-10,-2.32519E-07,-1.117361E-07,-1.35905E-08,-2.861022E-08
634.5293,-0.01448011,-5.614306E-09,NaN,-0.8416635,-1.336279E-07,NaN,-1.562688,-3.676326E-07,NaN,-1.773655,1.862044E-05,0.04996124,4.767991E-08,NaN,NaN,-0.1198142,3.725282E-10,-2.289427E-07,-1.11737E-07,-1.120631E-08,-2.622604E-08
634.5446,-0.0144808,-5.613514E-09,NaN,-0.8414161,-1.336281E-07,NaN,-1.562844,-3.680036E-07,NaN,-1.771884,1.862092E-05,0.04709122,4.809738E-08,NaN,NaN,-0.1200522,3.818414E-10,-2.26931E-07,-1.11738E-07,-8.822129E-09,-2.861022E-08
634.5588,-0.0144808,-5.613514E-09,NaN,-0.8414161,-1.336281E-07,NaN,-1.562844,-3.680036E-07,NaN,-1.771884,1.862092E-05,0.04709122,4.809738E-08,NaN,NaN,-0.1200522,3.818414E-10,-2.26931E-07,-1.11738E-07,-8.822129E-09,-2.861022E-08
634.575,-0.01448157,-5.612721E-09,NaN,-0.841137,-1.336284E-07,NaN,-1.562957,-3.683809E-07,NaN,-1.769976,1.86214E-05,0.0442917,4.851221E-08,NaN,NaN,-0.1202856,3.818414E-10,-2.245282E-07,-1.117389E-07,-8.822129E-09,-2.622604E-08
634.5894,-0.01448239,-5.611928E-09,NaN,-0.8408396,-1.336286E-07,NaN,-1.563051,-3.6876E-07,NaN,-1.768013,1.862188E-05,0.04155366,4.892165E-08,NaN,NaN,-0.1205143,3.911546E-10,-2.223862E-07,-1.117398E-07,-8.822129E-09,-2.861022E-08
634.603,-0.01448339,-5.611134E-09,NaN,-0.8404628,-1.336287E-07,NaN,-1.563313,-3.666789E-07,NaN,-1.765461,1.862236E-05,0.03729707,4.696117E-08,NaN,NaN,-0.120868,3.911546E-10,-2.181952E-07,-1.117416E-07,-1.35905E-08,-2.622604E-08
634.6176,-0.01448339,-5.611134E-09,NaN,-0.8404628,-1.336287E-07,NaN,-1.563313,-3.666789E-07,NaN,-1.765461,1.862236E-05,0.03729707,4.696117E-08,NaN,NaN,-0.120868,3.911546E-10,-2.181952E-07,-1.117416E-07,-1.35905E-08,-2.622604E-08
634.6316,-0.01448451,-5.610341E-09,NaN,-0.8400388,-1.336291E-07,NaN,-1.56349,-3.669371E-07,NaN,-1.762641,1.862284E-05,0.03313245,4.731651E-08,NaN,NaN,-0.1212148,3.958112E-10,-2.15215E-07,-1.117428E-07,-1.120631E-08,-2.861022E-08
634.6467,-0.01448572,-5.609548E-09,NaN,-0.8395875,-1.336295E-07,NaN,-1.563625,-3.67258E-07,NaN,-1.759709,1.862332E-05,0.02906334,4.771545E-08,NaN,NaN,-0.1215547,3.958112E-10,-2.123186E-07,-1.117437E-07,-6.437943E-09,-2.622604E-08
634.6611,-0.01448707,-5.608756E-09,NaN,-0.8391213,-1.336298E-07,NaN,-1.563738,-3.676032E-07,NaN,-1.756741,1.86238E-05,0.02508082,4.812334E-08,NaN,NaN,-0.121888,4.004679E-10,-2.091148E-07,-1.117447E-07,-4.053757E-09,-2.861022E-08
634.6758,-0.01448707,-5.608756E-09,NaN,-0.8391213,-1.336298E-07,NaN,-1.563738,-3.676032E-07,NaN,-1.756741,1.86238E-05,0.02508082,4.812334E-08,NaN,NaN,-0.121888,4.004679E-10,-2.091148E-07,-1.117447E-07,-4.053757E-09,-2.861022E-08
634.6896,-0.01448878,-5.607963E-09,NaN,-0.8385788,-1.336301E-07,NaN,-1.564005,-3.679638E-07,NaN,-1.753202,1.862429E-05,0.01960694,4.853441E-08,NaN,NaN,-0.1223442,4.004679E-10,-2.036619E-07,-1.117456E-07,-4.053757E-09,-2.622604E-08
634.7051,-0.01449085,-5.60717E-09,NaN,-0.8379916,-1.336303E-07,NaN,-1.564187,-3.683346E-07,NaN,-1.749411,1.862477E-05,0.0142514,4.894579E-08,NaN,NaN,-0.1227914,4.004679E-10,-1.989751E-07,-1.117465E-07,-8.822129E-09,-2.861022E-08
634.7197,-0.01449085,-5.60717E-09,NaN,-0.8379916,-1.336303E-07,NaN,-1.564187,-3.683346E-07,NaN,-1.749411,1.862477E-05,0.0142514,4.894579E-08,NaN,NaN,-0.1227914,4.004679E-10,-1.989751E-07,-1.117465E-07,-8.822129E-09,-2.861022E-08
634.7337,-0.01449322,-5.606378E-09,NaN,-0.8373794,-1.336306E-07,NaN,-1.564326,-3.687078E-07,NaN,-1.745522,1.862526E-05,0.009014525,4.935183E-08,NaN,NaN,-0.1232299,4.004679E-10,-1.941368E-07,-1.117473E-07,-6.437943E-09,-2.622604E-08
634.7493,-0.01449605,-5.605584E-09,NaN,-0.8366852,-1.336306E-07,NaN,-1.564597,-3.666211E-07,NaN,-1.741038,1.862574E-05,0.002316955,4.738737E-08,NaN,NaN,-0.1237892,4.051245E-10,-1.869563E-07,-1.117492E-07,-4.053757E-09,-2.861022E-08
634.7636,-0.01449931,-5.60479E-09,NaN,-0.8359435,-1.33631E-07,NaN,-1.56478,-3.668777E-07,NaN,-1.736297,1.862622E-05,-0.004234998,4.774228E-08,NaN,NaN,-0.1243375,4.051245E-10,-1.794871E-07,-1.117503E-07,-1.669572E-09,-2.622604E-08
634.7784,-0.01449931,-5.60479E-09,NaN,-0.8359435,-1.33631E-07,NaN,-1.56478,-3.668777E-07,NaN,-1.736297,1.862622E-05,-0.004234998,4.774228E-08,NaN,NaN,-0.1243375,4.051245E-10,-1.794871E-07,-1.117503E-07,-1.669572E-09,-2.622604E-08
634.7926,-0.01450292,-5.603998E-09,NaN,-0.8351758,-1.336314E-07,NaN,-1.564918,-3.671943E-07,NaN,-1.731462,1.86267E-05,-0.01064436,4.813796E-08,NaN,NaN,-0.124875,4.051245E-10,-1.724277E-07,-1.117512E-07,7.146141E-10,-2.861022E-08
634.8079,-0.01450678,-5.603205E-09,NaN,-0.8343955,-1.336317E-07,NaN,-1.565031,-3.675384E-07,NaN,-1.726615,1.862719E-05,-0.01692026,4.854549E-08,NaN,NaN,-0.125402,4.004679E-10,-1.657036E-07,-1.117521E-07,3.0988E-09,-2.622604E-08
634.8227,-0.01451107,-5.602412E-09,NaN,-0.8335416,-1.33632E-07,NaN,-1.565261,-3.67898E-07,NaN,-1.721223,1.862769E-05,-0.02463328,4.895621E-08,NaN,NaN,-0.1260481,3.911546E-10,-1.541924E-07,-1.11753E-07,3.0988E-09,-2.861022E-08
634.8373,-0.01451107,-5.602412E-09,NaN,-0.8335416,-1.33632E-07,NaN,-1.565261,-3.67898E-07,NaN,-1.721223,1.862769E-05,-0.02463328,4.895621E-08,NaN,NaN,-0.1260481,3.911546E-10,-1.541924E-07,-1.11753E-07,3.0988E-09,-2.861022E-08
634.8531,-0.01451575,-5.60162E-09,NaN,-0.8326461,-1.336322E-07,NaN,-1.565412,-3.682678E-07,NaN,-1.715604,1.862817E-05,-0.03218027,4.936725E-08,NaN,NaN,-0.1266815,3.911546E-10,-1.430538E-07,-1.117539E-07,3.0988E-09,-2.622604E-08
634.8675,-0.01452073,-5.600827E-09,NaN,-0.8317289,-1.336325E-07,NaN,-1.565522,-3.686403E-07,NaN,-1.709913,1.862865E-05,-0.03956649,4.977296E-08,NaN,NaN,-0.1273025,3.958112E-10,-1.340758E-07,-1.117547E-07,3.0988E-09,-2.861022E-08
634.8813,-0.01452596,-5.600033E-09,NaN,-0.8308025,-1.336325E-07,NaN,-1.565607,-3.665516E-07,NaN,-1.704228,1.862914E-05,-0.04680024,4.780617E-08,NaN,NaN,-0.1279113,3.911546E-10,-1.245018E-07,-1.117565E-07,1.025136E-08,-2.622604E-08
634.8957,-0.01452596,-5.600033E-09,NaN,-0.8308025,-1.336325E-07,NaN,-1.565607,-3.665516E-07,NaN,-1.704228,1.862914E-05,-0.04680024,4.780617E-08,NaN,NaN,-0.1279113,3.911546E-10,-1.245018E-07,-1.117565E-07,1.025136E-08,-2.622604E-08
634.9109,-0.01453158,-5.59924E-09,NaN,-0.8298051,-1.336329E-07,NaN,-1.565785,-3.668081E-07,NaN,-1.698012,1.862962E-05,-0.05544462,4.816081E-08,NaN,NaN,-0.1286376,3.958112E-10,-1.081106E-07,-1.117576E-07,1.025136E-08,-2.861022E-08
634.9247,-0.01453758,-5.598447E-09,NaN,-0.8287685,-1.336333E-07,NaN,-1.565892,-3.671246E-07,NaN,-1.691583,1.86301E-05,-0.06390443,4.855622E-08,NaN,NaN,-0.1293496,3.958112E-10,-9.440149E-08,-1.117586E-07,1.263554E-08,-2.622604E-08
634.9394,-0.01453758,-5.598447E-09,NaN,-0.8287685,-1.336333E-07,NaN,-1.565892,-3.671246E-07,NaN,-1.691583,1.86301E-05,-0.06390443,4.855622E-08,NaN,NaN,-0.1293496,3.958112E-10,-9.440149E-08,-1.117586E-07,1.263554E-08,-2.622604E-08
634.9534,-0.01454387,-5.597654E-09,NaN,-0.8277122,-1.336336E-07,NaN,-1.565961,-3.674685E-07,NaN,-1.685094,1.863059E-05,-0.07218674,4.896348E-08,NaN,NaN,-0.1300477,3.958112E-10,-8.173551E-08,-1.117594E-07,1.025136E-08,-2.861022E-08
634.9688,-0.01454997,-5.596861E-09,NaN,-0.826649,-1.336338E-07,NaN,-1.566006,-3.678279E-07,NaN,-1.678622,1.863108E-05,-0.08029895,4.937393E-08,NaN,NaN,-0.1307312,3.911546E-10,-6.862248E-08,-1.117603E-07,1.263554E-08,-2.622604E-08
634.9835,-0.01455599,-5.596068E-09,NaN,-0.8255861,-1.336341E-07,NaN,-1.566035,-3.681948E-07,NaN,-1.672205,1.863156E-05,-0.08824637,4.978188E-08,NaN,NaN,-0.1314013,3.911546E-10,-5.670156E-08,-1.117611E-07,1.501973E-08,-2.861022E-08
634.9981,-0.01455599,-5.596068E-09,NaN,-0.8255861,-1.336341E-07,NaN,-1.566035,-3.681948E-07,NaN,-1.672205,1.863156E-05,-0.08824637,4.978188E-08,NaN,NaN,-0.1314013,3.911546E-10,-5.670156E-08,-1.117611E-07,1.501973E-08,-2.861022E-08
635.0121,-0.01456197,-5.595276E-09,NaN,-0.8245283,-1.336343E-07,NaN,-1.566051,-3.685671E-07,NaN,-1.665861,1.863204E-05,-0.09603317,5.018739E-08,NaN,NaN,-0.1320582,3.911546E-10,-4.343952E-08,-1.117619E-07,1.263554E-08,-2.622604E-08
635.0274,-0.01456793,-5.594481E-09,NaN,-0.8234784,-1.336344E-07,NaN,-1.566056,-3.664769E-07,NaN,-1.659598,1.863253E-05,-0.103663,4.821849E-08,NaN,NaN,-0.1327023,3.958112E-10,-2.987947E-08,-1.117637E-07,1.263554E-08,-2.861022E-08
635.0421,-0.01457369,-5.593688E-09,NaN,-0.8225073,-1.336348E-07,NaN,-1.565989,-3.667337E-07,NaN,-1.653994,1.863302E-05,-0.1095981,4.857296E-08,NaN,NaN,-0.1332044,3.86498E-10,-2.481307E-08,-1.117648E-07,1.501973E-08,-2.622604E-08
635.0568,-0.01457369,-5.593688E-09,NaN,-0.8225073,-1.336348E-07,NaN,-1.565989,-3.667337E-07,NaN,-1.653994,1.863302E-05,-0.1095981,4.857296E-08,NaN,NaN,-0.1332044,3.86498E-10,-2.481307E-08,-1.117648E-07,1.501973E-08,-2.622604E-08
635.0709,-0.01457921,-5.592895E-09,NaN,-0.8215891,-1.336347E-07,NaN,-1.565951,-3.672557E-07,NaN,-1.648751,1.86335E-05,-0.1154193,4.917339E-08,NaN,NaN,-0.1336967,3.818414E-10,-1.766051E-08,-1.117632E-07,1.740391E-08,-2.861022E-08
635.0862,-0.01458452,-5.592102E-09,NaN,-0.8207078,-1.336338E-07,NaN,-1.565923,-3.680596E-07,NaN,-1.643725,1.863396E-05,-0.1211267,5.004034E-08,NaN,NaN,-0.1341794,3.818414E-10,-9.01784E-09,-1.117609E-07,1.97881E-08,-2.622604E-08
635.1008,-0.01458966,-5.59131E-09,NaN,-0.8198531,-1.336324E-07,NaN,-1.565898,-3.690077E-07,NaN,-1.638844,1.863442E-05,-0.126721,5.103923E-08,NaN,NaN,-0.1346526,3.818414E-10,-6.731895E-10,-1.117582E-07,1.740391E-08,-2.861022E-08
635.1158,-0.01458966,-5.59131E-09,NaN,-0.8198531,-1.336324E-07,NaN,-1.565898,-3.690077E-07,NaN,-1.638844,1.863442E-05,-0.126721,5.103923E-08,NaN,NaN,-0.1346526,3.818414E-10,-6.731895E-10,-1.117582E-07,1.740391E-08,-2.861022E-08
635.1294,-0.01459447,-5.590516E-09,NaN,-0.819088,-1.336301E-07,NaN,-1.565829,-3.691574E-07,NaN,-1.634644,1.863489E-05,-0.1306704,5.112469E-08,NaN,NaN,-0.1349873,3.771848E-10,-1.716271E-09,-1.117579E-07,1.740391E-08,-2.622604E-08
635.1458,-0.01459894,-5.589723E-09,NaN,-0.8183817,-1.336292E-07,NaN,-1.565784,-3.699884E-07,NaN,-1.630807,1.863536E-05,-0.1345432,5.190487E-08,NaN,NaN,-0.1353154,3.678716E-10,-3.751663E-10,-1.117576E-07,1.740391E-08,-2.861022E-08
635.1605,-0.01460313,-5.588931E-09,NaN,-0.8177147,-1.336287E-07,NaN,-1.565749,-3.70661E-07,NaN,-1.627179,1.863583E-05,-0.1383401,5.253712E-08,NaN,NaN,-0.135637,3.725282E-10,3.350124E-09,-1.117576E-07,1.740391E-08,-2.622604E-08
635.174,-0.01460313,-5.588931E-09,NaN,-0.8177147,-1.336287E-07,NaN,-1.565749,-3.70661E-07,NaN,-1.627179,1.863583E-05,-0.1383401,5.253712E-08,NaN,NaN,-0.135637,3.725282E-10,3.350124E-09,-1.117576E-07,1.740391E-08,-2.622604E-08
635.188,-0.0146069,-5.588139E-09,NaN,-0.8171443,-1.336291E-07,NaN,-1.565686,-3.710278E-07,NaN,-1.624254,1.863631E-05,-0.1405322,5.287203E-08,NaN,NaN,-0.1358231,3.585584E-10,-2.461329E-09,-1.117569E-07,1.740391E-08,-2.861022E-08
635.2031,-0.01461026,-5.587347E-09,NaN,-0.816636,-1.336295E-07,NaN,-1.565643,-3.713616E-07,NaN,-1.621695,1.863677E-05,-0.1426811,5.318055E-08,NaN,NaN,-0.1360056,3.585584E-10,-5.143538E-09,-1.117562E-07,1.740391E-08,-2.622604E-08
635.2176,-0.01461026,-5.587347E-09,NaN,-0.816636,-1.336295E-07,NaN,-1.565643,-3.713616E-07,NaN,-1.621695,1.863677E-05,-0.1426811,5.318055E-08,NaN,NaN,-0.1360056,3.585584E-10,-5.143538E-09,-1.117562E-07,1.740391E-08,-2.622604E-08
635.2316,-0.01461329,-5.586555E-09,NaN,-0.8161684,-1.3363E-07,NaN,-1.565608,-3.716671E-07,NaN,-1.619336,1.863726E-05,-0.1447874,5.346603E-08,NaN,NaN,-0.1361845,3.445886E-10,-6.633654E-09,-1.117555E-07,1.740391E-08,-2.861022E-08
635.2469,-0.01461607,-5.585763E-09,NaN,-0.815728,-1.336306E-07,NaN,-1.565577,-3.719541E-07,NaN,-1.617096,1.863773E-05,-0.146852,5.373737E-08,NaN,NaN,-0.1363598,3.399319E-10,-7.378712E-09,-1.117548E-07,1.97881E-08,-2.622604E-08
635.2614,-0.01461845,-5.584971E-09,NaN,-0.8153756,-1.336311E-07,NaN,-1.565526,-3.722266E-07,NaN,-1.615504,1.863821E-05,-0.1473491,5.39977E-08,NaN,NaN,-0.1364026,3.306187E-10,-1.766051E-08,-1.117542E-07,2.694066E-08,-2.861022E-08
635.2759,-0.01461845,-5.584971E-09,NaN,-0.8153756,-1.336311E-07,NaN,-1.565526,-3.722266E-07,NaN,-1.615504,1.863821E-05,-0.1473491,5.39977E-08,NaN,NaN,-0.1364026,3.306187E-10,-1.766051E-08,-1.117542E-07,2.694066E-08,-2.861022E-08
635.2899,-0.01462046,-5.584179E-09,NaN,-0.8150792,-1.336317E-07,NaN,-1.565488,-3.724856E-07,NaN,-1.614241,1.86387E-05,-0.1478347,5.424719E-08,NaN,NaN,-0.1364444,3.259621E-10,-2.540912E-08,-1.117535E-07,2.455647E-08,-2.622604E-08
635.3053,-0.01462216,-5.583388E-09,NaN,-0.8148185,-1.336323E-07,NaN,-1.565456,-3.727346E-07,NaN,-1.61315,1.863918E-05,-0.14831,5.44889E-08,NaN,NaN,-0.1364854,3.166489E-10,-3.122057E-08,-1.117529E-07,2.455647E-08,-2.861022E-08
635.3199,-0.01462216,-5.583388E-09,NaN,-0.8148185,-1.336323E-07,NaN,-1.565456,-3.727346E-07,NaN,-1.61315,1.863918E-05,-0.14831,5.44889E-08,NaN,NaN,-0.1364854,3.166489E-10,-3.122057E-08,-1.117529E-07,2.455647E-08,-2.861022E-08
635.334,-0.01462342,-5.582596E-09,NaN,-0.8146504,-1.336329E-07,NaN,-1.565409,-3.72977E-07,NaN,-1.612727,1.863966E-05,-0.1472497,5.472581E-08,NaN,NaN,-0.1363965,3.119923E-10,-4.671778E-08,-1.117523E-07,2.932484E-08,-2.622604E-08
635.3494,-0.01462433,-5.581804E-09,NaN,-0.8145402,-1.336335E-07,NaN,-1.565371,-3.732105E-07,NaN,-1.612633,1.864014E-05,-0.1462076,5.495517E-08,NaN,NaN,-0.1363092,3.073357E-10,-5.848969E-08,-1.117517E-07,3.409321E-08,-2.861022E-08
635.364,-0.01462508,-5.581012E-09,NaN,-0.8144662,-1.33634E-07,NaN,-1.565337,-3.734384E-07,NaN,-1.612705,1.864061E-05,-0.1451844,5.517997E-08,NaN,NaN,-0.1362236,3.073357E-10,-6.743039E-08,-1.117511E-07,3.886158E-08,-2.622604E-08
635.3801,-0.01462574,-5.58022E-09,NaN,-0.814415,-1.336346E-07,NaN,-1.565305,-3.736608E-07,NaN,-1.612858,1.864109E-05,-0.1441804,5.540029E-08,NaN,NaN,-0.1361397,3.026791E-10,-7.547702E-08,-1.117505E-07,4.362995E-08,-2.861022E-08
635.3931,-0.01462574,-5.58022E-09,NaN,-0.814415,-1.336346E-07,NaN,-1.565305,-3.736608E-07,NaN,-1.612858,1.864109E-05,-0.1441804,5.540029E-08,NaN,NaN,-0.1361397,3.026791E-10,-7.547702E-08,-1.117505E-07,4.362995E-08,-2.861022E-08
635.4073,-0.01462623,-5.579428E-09,NaN,-0.8144457,-1.336352E-07,NaN,-1.565256,-3.738753E-07,NaN,-1.613626,1.864157E-05,-0.1416695,5.56134E-08,NaN,NaN,-0.1359283,3.026791E-10,-9.365644E-08,-1.117499E-07,4.601414E-08,-2.622604E-08
635.4222,-0.0146266,-5.578636E-09,NaN,-0.814527,-1.336358E-07,NaN,-1.565213,-3.74085E-07,NaN,-1.614687,1.864206E-05,-0.1392047,5.582226E-08,NaN,NaN,-0.1357209,2.887093E-10,-1.079616E-07,-1.117493E-07,4.362995E-08,-2.861022E-08
635.4379,-0.0146266,-5.578636E-09,NaN,-0.814527,-1.336358E-07,NaN,-1.565213,-3.74085E-07,NaN,-1.614687,1.864206E-05,-0.1392047,5.582226E-08,NaN,NaN,-0.1357209,2.887093E-10,-1.079616E-07,-1.117493E-07,4.362995E-08,-2.861022E-08
635.4522,-0.01462688,-5.577844E-09,NaN,-0.814639,-1.336364E-07,NaN,-1.565173,-3.742901E-07,NaN,-1.615887,1.864253E-05,-0.1367863,5.602695E-08,NaN,NaN,-0.1355176,2.887093E-10,-1.203295E-07,-1.117486E-07,4.362995E-08,-2.622604E-08
635.4667,-0.01462713,-5.577053E-09,NaN,-0.8147695,-1.336369E-07,NaN,-1.565133,-3.744907E-07,NaN,-1.617148,1.864302E-05,-0.1344142,5.622756E-08,NaN,NaN,-0.1353183,2.747394E-10,-1.316544E-07,-1.117481E-07,4.601414E-08,-2.861022E-08
635.481,-0.01462721,-5.57626E-09,NaN,-0.8149801,-1.336375E-07,NaN,-1.565071,-3.74687E-07,NaN,-1.619003,1.86435E-05,-0.1305597,5.642417E-08,NaN,NaN,-0.1349936,2.747394E-10,-1.51771E-07,-1.117475E-07,4.362995E-08,-2.622604E-08
635.4952,-0.01462721,-5.57626E-09,NaN,-0.8149801,-1.336375E-07,NaN,-1.565071,-3.74687E-07,NaN,-1.619003,1.86435E-05,-0.1305597,5.642417E-08,NaN,NaN,-0.1349936,2.747394E-10,-1.51771E-07,-1.117475E-07,4.362995E-08,-2.622604E-08
635.5091,-0.01462717,-5.575468E-09,NaN,-0.8152393,-1.336371E-07,NaN,-1.565015,-3.755144E-07,NaN,-1.621135,1.864396E-05,-0.1267774,5.725203E-08,NaN,NaN,-0.1346753,2.747394E-10,-1.678642E-07,-1.117456E-07,4.124577E-08,-2.861022E-08
635.5242,-0.01462705,-5.574675E-09,NaN,-0.8155272,-1.33636E-07,NaN,-1.56496,-3.765452E-07,NaN,-1.623387,1.864442E-05,-0.1230671,5.828361E-08,NaN,NaN,-0.1343632,2.747394E-10,-1.816478E-07,-1.117432E-07,3.64774E-08,-2.622604E-08
635.5388,-0.01462705,-5.574675E-09,NaN,-0.8155272,-1.33636E-07,NaN,-1.56496,-3.765452E-07,NaN,-1.623387,1.864442E-05,-0.1230671,5.828361E-08,NaN,NaN,-0.1343632,2.747394E-10,-1.816478E-07,-1.117432E-07,3.64774E-08,-2.622604E-08
635.5528,-0.01462676,-5.573882E-09,NaN,-0.8159009,-1.336344E-07,NaN,-1.564876,-3.776797E-07,NaN,-1.626258,1.864488E-05,-0.1178971,5.9419E-08,NaN,NaN,-0.133928,2.654262E-10,-2.03925E-07,-1.117405E-07,3.886158E-08,-2.861022E-08
635.5681,-0.01462634,-5.57309E-09,NaN,-0.8163258,-1.336325E-07,NaN,-1.564798,-3.788623E-07,NaN,-1.629409,1.864533E-05,-0.1128248,6.060259E-08,NaN,NaN,-0.1335013,2.700828E-10,-2.215084E-07,-1.117377E-07,3.886158E-08,-2.622604E-08
635.5828,-0.01462583,-5.572297E-09,NaN,-0.8167804,-1.336306E-07,NaN,-1.564721,-3.811525E-07,NaN,-1.632676,1.864578E-05,-0.1078493,6.289397E-08,NaN,NaN,-0.133083,2.654262E-10,-2.367076E-07,-1.117345E-07,3.64774E-08,-2.861022E-08
635.5976,-0.01462583,-5.572297E-09,NaN,-0.8167804,-1.336306E-07,NaN,-1.564721,-3.811525E-07,NaN,-1.632676,1.864578E-05,-0.1078493,6.289397E-08,NaN,NaN,-0.133083,2.654262E-10,-2.367076E-07,-1.117345E-07,3.64774E-08,-2.861022E-08
635.6113,-0.01462527,-5.571505E-09,NaN,-0.8172514,-1.336289E-07,NaN,-1.564643,-3.821482E-07,NaN,-1.635978,1.864623E-05,-0.1029692,6.389082E-08,NaN,NaN,-0.1326728,2.654262E-10,-2.501932E-07,-1.117305E-07,4.124577E-08,-2.622604E-08
