JMolnar6/NonAnthroHands_User_Study/HandsLoggerWithURDF/tempdata/files/Reachy_PID0_JointMotion_gesture_9_3.csv
Time,r_shoulder,r_shoulder_x,r_upper_arm,r_forearm,r_wrist,r_wrist2hand,
556.9803,-0.01417009,-0.896931,-1.556598,-2.077856,0.3665308,-0.0932052
556.9949,-0.01417009,-0.896931,-1.556598,-2.077856,0.3665308,-0.0932052
557.0083,-0.01416883,-0.8970351,-1.55665,-2.078266,0.3667127,-0.09318851
557.0235,-0.01416757,-0.897138,-1.556702,-2.07867,0.3668908,-0.09317215
557.0382,-0.01416757,-0.897138,-1.556702,-2.07867,0.3668908,-0.09317215
557.0521,-0.01416633,-0.8972396,-1.556754,-2.079068,0.3670653,-0.09315611
557.0678,-0.01416508,-0.8973401,-1.556805,-2.07946,0.3672361,-0.09314038
557.0819,-0.01416384,-0.8974393,-1.556856,-2.079847,0.3674034,-0.09312496
557.0964,-0.01416384,-0.8974393,-1.556856,-2.079847,0.3674034,-0.09312496
557.1107,-0.01416261,-0.8975374,-1.556907,-2.080229,0.3675672,-0.09310983
557.1257,-0.01416139,-0.8976342,-1.556957,-2.080605,0.3677277,-0.093095
557.1402,-0.01416016,-0.8977299,-1.557007,-2.080976,0.3678848,-0.09308047
557.1548,-0.01416016,-0.8977299,-1.557007,-2.080976,0.3678848,-0.09308047
557.1689,-0.01415895,-0.8978245,-1.557057,-2.081341,0.3680387,-0.09306622
557.1846,-0.01415774,-0.897918,-1.557106,-2.081701,0.3681895,-0.09305224
557.199,-0.01415774,-0.897918,-1.557106,-2.081701,0.3681895,-0.09305224
557.2126,-0.01415653,-0.8980103,-1.557155,-2.082056,0.368337,-0.09303854
557.2301,-0.01415533,-0.8981015,-1.557204,-2.082406,0.3684816,-0.0930251
557.2435,-0.01415414,-0.8981916,-1.557253,-2.082751,0.3686231,-0.09301193
557.2583,-0.01415414,-0.8981916,-1.557253,-2.082751,0.3686231,-0.09301193
557.2714,-0.01415295,-0.8982807,-1.557301,-2.083091,0.3687617,-0.09299901
557.2864,-0.01415177,-0.8983687,-1.557349,-2.083427,0.3688974,-0.09298635
557.3009,-0.01415059,-0.8984556,-1.557397,-2.083757,0.3690304,-0.09297393
557.3156,-0.01415059,-0.8984556,-1.557397,-2.083757,0.3690304,-0.09297393
557.3295,-0.01414942,-0.8985415,-1.557444,-2.084083,0.3691605,-0.09296175
557.3445,-0.01414825,-0.8986264,-1.557491,-2.084404,0.3692879,-0.09294982
557.3591,-0.01414825,-0.8986264,-1.557491,-2.084404,0.3692879,-0.09294982
557.3733,-0.01414708,-0.8987103,-1.557537,-2.084721,0.3694127,-0.09293811
557.3884,-0.01414592,-0.8987931,-1.557583,-2.085033,0.3695349,-0.09292664
557.4031,-0.01414476,-0.898875,-1.557629,-2.085341,0.3696546,-0.09291539
557.4173,-0.01414476,-0.898875,-1.557629,-2.085341,0.3696546,-0.09291539
557.4318,-0.01414361,-0.8989559,-1.557675,-2.085644,0.3697717,-0.09290435
557.4469,-0.01414245,-0.8990358,-1.55772,-2.085943,0.3698865,-0.09289353
557.4615,-0.01414131,-0.8991148,-1.557765,-2.086238,0.3699988,-0.09288292
557.4761,-0.01414131,-0.8991148,-1.557765,-2.086238,0.3699988,-0.09288292
557.4904,-0.01414016,-0.8991928,-1.557809,-2.086528,0.3701088,-0.09287252
557.5056,-0.01413902,-0.8992699,-1.557854,-2.086815,0.3702165,-0.09286232
557.5201,-0.01413788,-0.8993461,-1.557898,-2.087097,0.3703219,-0.09285232
557.5358,-0.01413788,-0.8993461,-1.557898,-2.087097,0.3703219,-0.09285232
557.551,-0.01413674,-0.8994214,-1.557941,-2.087376,0.3704252,-0.09284252
557.5641,-0.01413561,-0.8994958,-1.557984,-2.08765,0.3705263,-0.09283291
557.5785,-0.01413561,-0.8994958,-1.557984,-2.08765,0.3705263,-0.09283291
557.5925,-0.01413448,-0.8995693,-1.558027,-2.087921,0.3706252,-0.09282348
557.6077,-0.01413335,-0.8996419,-1.558069,-2.088188,0.3707221,-0.09281424
557.6221,-0.01413223,-0.8997136,-1.558112,-2.088451,0.370817,-0.09280518
557.6367,-0.01413223,-0.8997136,-1.558112,-2.088451,0.370817,-0.09280518
557.6506,-0.01413111,-0.8997845,-1.558154,-2.08871,0.3709099,-0.0927963
557.666,-0.01412999,-0.8998545,-1.558195,-2.088965,0.3710008,-0.09278759
557.6804,-0.01412888,-0.8999237,-1.558236,-2.089217,0.3710898,-0.09277906
557.6951,-0.01412888,-0.8999237,-1.558236,-2.089217,0.3710898,-0.09277906
557.709,-0.01412777,-0.8999921,-1.558277,-2.089466,0.371177,-0.09277068
557.7245,-0.01412666,-0.9000596,-1.558317,-2.089711,0.3712623,-0.09276247
557.739,-0.01412666,-0.9000596,-1.558317,-2.089711,0.3712623,-0.09276247
557.7529,-0.01412556,-0.9001264,-1.558357,-2.089952,0.3713458,-0.09275442
557.7684,-0.01412446,-0.9001924,-1.558397,-2.09019,0.3714276,-0.09274653
557.783,-0.01412336,-0.9002575,-1.558437,-2.090425,0.3715076,-0.09273879
557.7978,-0.01412336,-0.9002575,-1.558437,-2.090425,0.3715076,-0.09273879
557.8114,-0.01412227,-0.9003219,-1.558476,-2.090656,0.371586,-0.0927312
557.8288,-0.01412118,-0.9003855,-1.558514,-2.090884,0.3716627,-0.09272376
557.8422,-0.01412009,-0.9004484,-1.558553,-2.091109,0.3717378,-0.09271646
557.857,-0.01412009,-0.9004484,-1.558553,-2.091109,0.3717378,-0.09271646
557.8698,-0.01411901,-0.9005105,-1.558591,-2.09133,0.3718114,-0.09270931
557.8851,-0.01411793,-0.9005719,-1.558628,-2.091548,0.3718833,-0.09270229
557.8995,-0.01411793,-0.9005719,-1.558628,-2.091548,0.3718833,-0.09270229
557.9133,-0.01411685,-0.9006325,-1.558666,-2.091764,0.3719538,-0.09269542
557.9285,-0.01411578,-0.9006924,-1.558703,-2.091976,0.3720227,-0.09268867
557.9431,-0.0141147,-0.9007516,-1.55874,-2.092185,0.3720903,-0.09268206
557.9575,-0.0141147,-0.9007516,-1.55874,-2.092185,0.3720903,-0.09268206
557.9716,-0.01411364,-0.9008101,-1.558776,-2.092391,0.3721563,-0.09267558
557.9868,-0.01411257,-0.9008679,-1.558812,-2.092595,0.372221,-0.09266923
558.0023,-0.01411139,-0.9009943,-1.558337,-2.093388,0.3736532,-0.09253375
558.0161,-0.01411139,-0.9009943,-1.558337,-2.093388,0.3736532,-0.09253375
558.0299,-0.01411012,-0.9011625,-1.557955,-2.094463,0.3752994,-0.09240135
558.0451,-0.01410876,-0.9013557,-1.55769,-2.095666,0.3769085,-0.09227145
558.0598,-0.01410876,-0.9013557,-1.55769,-2.095666,0.3769085,-0.09227145
558.0739,-0.01410745,-0.9014943,-1.558005,-2.096328,0.3770967,-0.09227325
558.0892,-0.01410622,-0.9015984,-1.558265,-2.09672,0.3770215,-0.09227453
558.1039,-0.01410506,-0.9016808,-1.558424,-2.096981,0.3769446,-0.09227585
558.1185,-0.01410506,-0.9016808,-1.558424,-2.096981,0.3769446,-0.09227585
558.1357,-0.01410395,-0.9017495,-1.558524,-2.097176,0.3768902,-0.09227723
558.1489,-0.014103,-0.901742,-1.559111,-2.096746,0.3754868,-0.09240787
558.1633,-0.01410217,-0.9016874,-1.559592,-2.096012,0.3738714,-0.09253555
558.1768,-0.01410217,-0.9016874,-1.559592,-2.096012,0.3738714,-0.09253555
558.1907,-0.01410141,-0.9016042,-1.559946,-2.095139,0.3722944,-0.09266083
558.2059,-0.0141007,-0.9015035,-1.560226,-2.094206,0.3707737,-0.09278376
558.2205,-0.01410015,-0.9013233,-1.56098,-2.092659,0.3679312,-0.09303358
558.2354,-0.01410015,-0.9013233,-1.56098,-2.092659,0.3679312,-0.09303358
558.249,-0.01409971,-0.9010947,-1.561615,-2.090822,0.364909,-0.09327814
558.2644,-0.01409935,-0.9008374,-1.562115,-2.08886,0.3619545,-0.09351801
558.2785,-0.01409935,-0.9008374,-1.562115,-2.08886,0.3619545,-0.09351801
558.2925,-0.01409916,-0.9004942,-1.563041,-2.086262,0.3577105,-0.09388254
558.3079,-0.0140991,-0.9000994,-1.56382,-2.083372,0.3533276,-0.09423961
558.3229,-0.01409914,-0.8996747,-1.564448,-2.080364,0.3490451,-0.09458981
558.3372,-0.01409914,-0.8996747,-1.564448,-2.080364,0.3490451,-0.09458981
558.3511,-0.01409923,-0.8992333,-1.564985,-2.077322,0.3448736,-0.09493326
558.3665,-0.01409948,-0.8987143,-1.565966,-2.073698,0.339412,-0.09539931
558.3811,-0.01409986,-0.8981498,-1.566804,-2.069814,0.3338389,-0.09585592
558.3957,-0.01409986,-0.8981498,-1.566804,-2.069814,0.3338389,-0.09585592
558.4095,-0.01410032,-0.8975597,-1.567492,-2.065835,0.328389,-0.09630371
558.4248,-0.01410083,-0.8969564,-1.568088,-2.061842,0.3230709,-0.09674283
558.4439,-0.01410151,-0.8962785,-1.569112,-2.057284,0.3164656,-0.09730268
558.4551,-0.01410151,-0.8962785,-1.569112,-2.057284,0.3164656,-0.09730268
558.4691,-0.0141023,-0.8955575,-1.569981,-2.052482,0.3097861,-0.09785128
558.4835,-0.01410318,-0.8948131,-1.570696,-2.047601,0.3032553,-0.09838928
558.4977,-0.01410318,-0.8948131,-1.570696,-2.047601,0.3032553,-0.09838928
558.5116,-0.01410424,-0.8939883,-1.571658,-2.042122,0.2953235,-0.09904584
558.527,-0.01410544,-0.8931177,-1.572079,-2.036379,0.2871278,-0.0996889
558.5414,-0.01410673,-0.8922226,-1.571971,-2.030553,0.2790808,-0.1003195
558.5561,-0.01410673,-0.8922226,-1.571971,-2.030553,0.2790808,-0.1003195
558.5701,-0.01410809,-0.8913164,-1.571592,-2.024743,0.2713332,-0.100938
558.5857,-0.01410969,-0.8903382,-1.57165,-2.01841,0.2624555,-0.101674
558.6,-0.01411164,-0.8893198,-1.571579,-2.011867,0.2535659,-0.1023955
558.6149,-0.01411164,-0.8893198,-1.571579,-2.011867,0.2535659,-0.1023955
558.629,-0.01411389,-0.8882813,-1.5714,-2.005273,0.2448895,-0.1031029
558.6441,-0.01411639,-0.887235,-1.571209,-1.998709,0.2364503,-0.1037967
558.6586,-0.01411639,-0.887235,-1.571209,-1.998709,0.2364503,-0.1037967
558.6725,-0.01411927,-0.8861193,-1.571496,-1.991626,0.2267556,-0.1046062
558.6878,-0.01412252,-0.8849657,-1.571584,-1.984338,0.2170112,-0.1053997
558.7025,-0.0141261,-0.883794,-1.571468,-1.977006,0.2074707,-0.1061777
558.7173,-0.0141261,-0.883794,-1.571468,-1.977006,0.2074707,-0.1061777
558.7313,-0.01413012,-0.8825469,-1.571675,-1.96913,0.1966975,-0.1070699
558.7484,-0.01413456,-0.881259,-1.571633,-1.961045,0.1859695,-0.1079445
558.7618,-0.01413936,-0.8799516,-1.571421,-1.952922,0.1755122,-0.1088021
558.7752,-0.01413936,-0.8799516,-1.571421,-1.952922,0.1755122,-0.1088021
558.7894,-0.01414442,-0.878638,-1.571184,-1.944846,0.1653473,-0.1096431
558.8045,-0.01414988,-0.8772573,-1.571383,-1.936275,0.1539293,-0.110597
558.8188,-0.01414988,-0.8772573,-1.571383,-1.936275,0.1539293,-0.110597
558.8329,-0.01415572,-0.8758413,-1.571402,-1.927524,0.1425714,-0.1115321
558.8483,-0.01416188,-0.8744098,-1.571271,-1.918751,0.1314676,-0.112449
558.8629,-0.01416828,-0.8729752,-1.571095,-1.910034,0.1206424,-0.113348
558.8773,-0.01416828,-0.8729752,-1.571095,-1.910034,0.1206424,-0.113348
558.8913,-0.01417506,-0.8714758,-1.571284,-1.900834,0.1085425,-0.1143588
558.9065,-0.0141822,-0.8699431,-1.571274,-1.891465,0.09655946,-0.1153497
558.9214,-0.01418963,-0.8683967,-1.571128,-1.882084,0.08485483,-0.1163213
558.936,-0.01418963,-0.8683967,-1.571128,-1.882084,0.08485483,-0.1163213
558.9498,-0.01419496,-0.8676804,-1.567304,-1.879687,0.09204608,-0.1157222
558.9653,-0.01419761,-0.8674795,-1.565227,-1.880673,0.09988688,-0.1151349
558.9799,-0.01419761,-0.8674795,-1.565227,-1.880673,0.09988688,-0.1151349
558.9937,-0.01419813,-0.8675959,-1.564081,-1.883333,0.1072286,-0.1145591
559.0091,-0.01419776,-0.8679076,-1.563326,-1.88681,0.1142588,-0.1139944
559.0236,-0.01419713,-0.8682691,-1.563043,-1.890097,0.1195293,-0.1135703
559.04,-0.01419638,-0.8686597,-1.562724,-1.893281,0.1246142,-0.1131544
559.0539,-0.01419638,-0.8686597,-1.562724,-1.893281,0.1246142,-0.1131544
559.068,-0.01419558,-0.8690666,-1.562381,-1.896396,0.1296087,-0.1127466
559.0821,-0.01419474,-0.8694816,-1.562032,-1.899456,0.1345108,-0.1123469
559.0967,-0.01419474,-0.8694816,-1.562032,-1.899456,0.1345108,-0.1123469
559.1104,-0.01419402,-0.8698305,-1.56201,-1.901891,0.1377718,-0.1120843
559.1257,-0.01419339,-0.870137,-1.561884,-1.904007,0.1409079,-0.1118269
559.1403,-0.01419281,-0.870416,-1.561701,-1.905951,0.1440052,-0.1115746
559.155,-0.01419281,-0.870416,-1.561701,-1.905951,0.1440052,-0.1115746
559.169,-0.0141924,-0.8706074,-1.56183,-1.907217,0.1455097,-0.1114565
559.1846,-0.01419212,-0.8707439,-1.56184,-1.908143,0.1469242,-0.1113408
559.199,-0.01419212,-0.8707439,-1.56184,-1.908143,0.1469242,-0.1113408
559.213,-0.01419191,-0.8708459,-1.561784,-1.908896,0.1483367,-0.1112273
559.2283,-0.01419175,-0.8709261,-1.561702,-1.909556,0.1497349,-0.1111161
559.2429,-0.01419176,-0.8709244,-1.561949,-1.909585,0.1495692,-0.1111364
559.2574,-0.01419176,-0.8709244,-1.561949,-1.909585,0.1495692,-0.1111364
559.2715,-0.01419191,-0.8708729,-1.562075,-1.909306,0.1493422,-0.1111563
559.2867,-0.01419212,-0.8707907,-1.562133,-1.908878,0.1491454,-0.1111758
559.3018,-0.01419238,-0.87069,-1.56216,-1.908379,0.1489661,-0.1111949
559.316,-0.01419238,-0.87069,-1.56216,-1.908379,0.1489661,-0.1111949
559.332,-0.01419281,-0.870509,-1.56251,-1.907267,0.1472537,-0.1113431
559.3466,-0.01419336,-0.8702793,-1.562735,-1.905866,0.1455125,-0.1114883
559.3611,-0.01419399,-0.8700204,-1.562886,-1.904333,0.1438321,-0.1116306
559.3742,-0.01419399,-0.8700204,-1.562886,-1.904333,0.1438321,-0.1116306
559.3882,-0.01419481,-0.8696755,-1.563333,-1.902166,0.140654,-0.1118996
559.4033,-0.01419575,-0.8692789,-1.563642,-1.899706,0.1374837,-0.1121632
559.4178,-0.01419575,-0.8692789,-1.563642,-1.899706,0.1374837,-0.1121632
559.4319,-0.01419679,-0.8688523,-1.563869,-1.897119,0.1344042,-0.1124217
559.4471,-0.01419788,-0.868409,-1.564056,-1.894488,0.1314002,-0.1126752
559.4617,-0.01419914,-0.8678881,-1.564542,-1.891275,0.1269122,-0.1130531
559.4761,-0.01419914,-0.8678881,-1.564542,-1.891275,0.1269122,-0.1130531
559.4902,-0.01420061,-0.8673216,-1.564892,-1.887802,0.1224631,-0.1134235
559.5054,-0.01420235,-0.8667296,-1.565161,-1.884226,0.1181286,-0.1137867
559.5201,-0.01420429,-0.8661243,-1.565389,-1.880626,0.1138936,-0.1141428
559.5347,-0.01420429,-0.8661243,-1.565389,-1.880626,0.1138936,-0.1141428
559.5486,-0.01420662,-0.8654444,-1.565897,-1.87646,0.1081928,-0.1146213
559.564,-0.01420932,-0.8647214,-1.566266,-1.872051,0.1025653,-0.1150904
559.5784,-0.01420932,-0.8647214,-1.566266,-1.872051,0.1025653,-0.1150904
559.5924,-0.01421234,-0.863975,-1.566555,-1.867553,0.09707521,-0.1155504
559.6082,-0.01421581,-0.8631483,-1.56709,-1.862468,0.09014644,-0.1161307
559.6224,-0.01421971,-0.8622756,-1.567478,-1.857133,0.08332758,-0.1166996
559.6392,-0.01421971,-0.8622756,-1.567478,-1.857133,0.08332758,-0.1166996
559.653,-0.01422396,-0.8613785,-1.567781,-1.851714,0.0766705,-0.1172575
559.6663,-0.01422847,-0.8604703,-1.568037,-1.846292,0.07015851,-0.1178044
559.6807,-0.01423339,-0.85949,-1.568529,-1.840332,0.06221567,-0.1184699
559.6952,-0.01423339,-0.85949,-1.568529,-1.840332,0.06221567,-0.1184699
559.709,-0.0142387,-0.8584697,-1.568883,-1.834154,0.05441299,-0.1191225
559.7244,-0.01424432,-0.8574291,-1.569158,-1.827913,0.04678906,-0.1197622
559.739,-0.01424432,-0.8574291,-1.569158,-1.827913,0.04678906,-0.1197622
559.7529,-0.0142504,-0.8563115,-1.569631,-1.82111,0.03775896,-0.1205188
559.7683,-0.0142569,-0.8551512,-1.569963,-1.814084,0.02890271,-0.1212606
559.7828,-0.01426373,-0.8539699,-1.570215,-1.806999,0.02024605,-0.1219879
559.7974,-0.01426373,-0.8539699,-1.570215,-1.806999,0.02024605,-0.1219879
559.8114,-0.01427081,-0.8527808,-1.570421,-1.799934,0.0117733,-0.1227009
559.8267,-0.01427829,-0.8515229,-1.570731,-1.792357,0.001863716,-0.1235294
559.8414,-0.01428615,-0.8502283,-1.570767,-1.784586,-0.007899203,-0.1243417
559.8561,-0.01428615,-0.8502283,-1.570767,-1.784586,-0.007899203,-0.1243417
559.8698,-0.0142943,-0.8489166,-1.570649,-1.776777,-0.01742836,-0.125138
559.8852,-0.01430268,-0.8476005,-1.570501,-1.769004,-0.02671877,-0.1259187
559.8999,-0.01430268,-0.8476005,-1.570501,-1.769004,-0.02671877,-0.1259187
559.9138,-0.01431079,-0.8462877,-1.570394,-1.761306,-0.03578977,-0.1266832
559.929,-0.01431875,-0.844983,-1.57034,-1.753699,-0.04466482,-0.1274327
559.9445,-0.01432663,-0.843689,-1.570322,-1.746192,-0.05336003,-0.1281676
559.959,-0.01432663,-0.843689,-1.570322,-1.746192,-0.05336003,-0.1281676
559.9731,-0.01433427,-0.8424768,-1.570167,-1.73936,-0.06032009,-0.1287587
559.9872,-0.01434164,-0.8413205,-1.570123,-1.732908,-0.06713291,-0.1293382
560.0017,-0.01434879,-0.8402038,-1.570114,-1.726689,-0.07382248,-0.1299063
560.0167,-0.01434879,-0.8402038,-1.570114,-1.726689,-0.07382248,-0.1299063
560.0303,-0.01435575,-0.8391166,-1.570113,-1.720633,-0.08038285,-0.1304633
560.0457,-0.01436237,-0.8381218,-1.569989,-1.715274,-0.08525613,-0.1308801
560.0603,-0.01436865,-0.8371884,-1.56992,-1.710294,-0.09003957,-0.1312888
560.075,-0.01436865,-0.8371884,-1.56992,-1.710294,-0.09003957,-0.1312888
560.0887,-0.01437464,-0.836297,-1.569873,-1.705539,-0.09473423,-0.1316894
560.1043,-0.0143804,-0.8354357,-1.569833,-1.700931,-0.09933764,-0.1320821
560.119,-0.0143804,-0.8354357,-1.569833,-1.700931,-0.09933764,-0.1320821
560.1332,-0.01438579,-0.834666,-1.569692,-1.697002,-0.1022987,-0.1323379
560.1483,-0.01439081,-0.8339562,-1.569599,-1.693434,-0.105207,-0.1325887
560.1628,-0.01439553,-0.8332868,-1.569526,-1.690071,-0.1080621,-0.1328346
560.1773,-0.01439553,-0.8332868,-1.569526,-1.690071,-0.1080621,-0.1328346
560.1914,-0.01439981,-0.8327144,-1.56937,-1.687407,-0.1093144,-0.1329463
560.2067,-0.01440367,-0.8322045,-1.56926,-1.685104,-0.1105474,-0.1330559
560.2211,-0.01440718,-0.8317354,-1.56917,-1.682998,-0.1117598,-0.1331633
560.2378,-0.01440718,-0.8317354,-1.56917,-1.682998,-0.1117598,-0.1331633
560.2518,-0.01441043,-0.8312937,-1.569089,-1.681006,-0.1129495,-0.1332687
560.2651,-0.01441329,-0.8309401,-1.568929,-1.679659,-0.1125709,-0.1332427
560.2795,-0.01441329,-0.8309401,-1.568929,-1.679659,-0.1125709,-0.1332427
560.2933,-0.01441576,-0.8306424,-1.568809,-1.678635,-0.1122036,-0.1332172
560.3087,-0.01441792,-0.8303806,-1.568705,-1.67778,-0.1118462,-0.1331922
560.3235,-0.01441983,-0.8301422,-1.56861,-1.677015,-0.1114968,-0.1331676
560.338,-0.01441983,-0.8301422,-1.56861,-1.677015,-0.1114968,-0.1331676
560.3519,-0.01442137,-0.8299885,-1.568441,-1.676875,-0.1096101,-0.1330144
560.3672,-0.01442253,-0.8298878,-1.568307,-1.67704,-0.1077635,-0.1328641
560.3818,-0.01442349,-0.8298203,-1.568189,-1.677355,-0.1059553,-0.1327167
560.3965,-0.01442349,-0.8298203,-1.568189,-1.677355,-0.1059553,-0.1327167
560.4103,-0.0144242,-0.8298412,-1.567999,-1.678317,-0.102638,-0.132443
560.4257,-0.01442475,-0.8299167,-1.567844,-1.679587,-0.09938844,-0.1321746
560.4404,-0.01442522,-0.8300254,-1.567704,-1.681001,-0.09620441,-0.1319115
560.455,-0.01442522,-0.8300254,-1.567704,-1.681001,-0.09620441,-0.1319115
560.4689,-0.01442564,-0.8301542,-1.567571,-1.682477,-0.0930832,-0.1316535
560.4938,-0.0144259,-0.830364,-1.567358,-1.684546,-0.08847517,-0.1312713
560.4992,-0.0144259,-0.830364,-1.567358,-1.684546,-0.08847517,-0.1312713
560.5125,-0.01442603,-0.830623,-1.567178,-1.68689,-0.08395966,-0.1308966
560.5301,-0.01442609,-0.8309112,-1.567012,-1.689352,-0.07953425,-0.1305292
560.5435,-0.0144261,-0.831216,-1.566853,-1.691856,-0.07519563,-0.130169
560.5582,-0.0144261,-0.831216,-1.566853,-1.691856,-0.07519563,-0.130169
560.571,-0.01442595,-0.8315991,-1.566602,-1.694936,-0.06938956,-0.1296867
560.5863,-0.01442567,-0.8320287,-1.566387,-1.698274,-0.06369942,-0.1292137
560.6008,-0.01442532,-0.8324852,-1.566186,-1.701715,-0.05812246,-0.12875
560.6155,-0.01442532,-0.8324852,-1.566186,-1.701715,-0.05812246,-0.12875
560.6293,-0.0144248,-0.8330255,-1.565887,-1.705757,-0.0510986,-0.1281661
560.6446,-0.01442414,-0.833615,-1.565626,-1.71006,-0.04421444,-0.1275937
560.6592,-0.01442414,-0.833615,-1.565626,-1.71006,-0.04421444,-0.1275937
560.6731,-0.0144234,-0.8342323,-1.565381,-1.714464,-0.0374669,-0.1270325
560.6884,-0.0144226,-0.834864,-1.565143,-1.718886,-0.03085103,-0.1264822
560.7031,-0.01442164,-0.8355711,-1.564782,-1.72386,-0.02280119,-0.1258135
560.7177,-0.01442164,-0.8355711,-1.564782,-1.72386,-0.02280119,-0.1258135
560.7318,-0.01442055,-0.8363214,-1.564466,-1.729064,-0.0149106,-0.1251578
560.7471,-0.01441939,-0.837095,-1.564166,-1.734346,-0.007177033,-0.1245151
560.7617,-0.01441816,-0.8378797,-1.563873,-1.73963,0.0004054909,-0.1238849
560.7763,-0.01441816,-0.8378797,-1.563873,-1.73963,0.0004054909,-0.1238849
560.7903,-0.01441662,-0.8387368,-1.563436,-1.745451,0.009409696,-0.1231377
560.8057,-0.01441476,-0.8396349,-1.56305,-1.751489,0.01823682,-0.1224053
560.8199,-0.01441476,-0.8396349,-1.56305,-1.751489,0.01823682,-0.1224053
560.8361,-0.01441262,-0.8405542,-1.562685,-1.757592,0.02688715,-0.1216872
560.8503,-0.01441226,-0.8406511,-1.564342,-1.756794,0.01648838,-0.1225347
560.8641,-0.01441321,-0.8402416,-1.565197,-1.752654,0.006358849,-0.1233656
560.8781,-0.01441321,-0.8402416,-1.565197,-1.752654,0.006358849,-0.1233656
560.8921,-0.01441519,-0.8395214,-1.56567,-1.746892,-0.003442209,-0.1241802
560.9074,-0.01441835,-0.8386127,-1.565964,-1.740362,-0.01299021,-0.1249788
560.9219,-0.01442235,-0.837661,-1.566019,-1.734064,-0.02075354,-0.1256324
560.9366,-0.01442235,-0.837661,-1.566019,-1.734064,-0.02075354,-0.1256324
560.9506,-0.01442693,-0.836687,-1.566098,-1.727916,-0.02835941,-0.1262732
560.9659,-0.0144319,-0.8357036,-1.566181,-1.721882,-0.0358171,-0.1269014
560.9803,-0.01443714,-0.8347188,-1.566258,-1.715944,-0.04312659,-0.1275173
560.9952,-0.01443714,-0.8347188,-1.566258,-1.715944,-0.04312659,-0.1275173
561.0089,-0.01444238,-0.8338069,-1.566205,-1.71067,-0.04872927,-0.1279918
561.0244,-0.01444751,-0.832944,-1.566205,-1.705756,-0.05422893,-0.128457
561.039,-0.01444751,-0.832944,-1.566205,-1.705756,-0.05422893,-0.128457
561.053,-0.01445251,-0.8321152,-1.566223,-1.701056,-0.05962556,-0.1289131
561.0683,-0.01445722,-0.8313804,-1.56614,-1.697069,-0.06336143,-0.1292309
561.083,-0.01446161,-0.830707,-1.566109,-1.69346,-0.06703179,-0.1295425
561.0976,-0.01446161,-0.830707,-1.566109,-1.69346,-0.06703179,-0.1295425
561.1111,-0.01446571,-0.8300745,-1.566098,-1.690064,-0.070635,-0.1298479
561.1288,-0.01446959,-0.82947,-1.566094,-1.686801,-0.07416888,-0.1301474
561.1421,-0.01447312,-0.8289549,-1.566002,-1.6842,-0.07608245,-0.1303117
561.1567,-0.01447312,-0.8289549,-1.566002,-1.6842,-0.07608245,-0.1303117
561.1707,-0.01447629,-0.8284972,-1.565952,-1.681942,-0.07796466,-0.1304728
561.1851,-0.01447917,-0.828077,-1.56592,-1.67987,-0.07981376,-0.1306307
561.1996,-0.01447917,-0.828077,-1.56592,-1.67987,-0.07981376,-0.1306307
561.2134,-0.01448164,-0.827751,-1.565812,-1.67848,-0.08007919,-0.1306563
561.2288,-0.01448371,-0.8274848,-1.565745,-1.677433,-0.08034518,-0.1306813
561.2433,-0.01448544,-0.8272566,-1.565695,-1.676565,-0.08060945,-0.1307058
561.258,-0.01448544,-0.8272566,-1.565695,-1.676565,-0.08060945,-0.1307058
561.2719,-0.01448693,-0.8270528,-1.565653,-1.675793,-0.08086989,-0.1307299
561.2875,-0.01448804,-0.8269344,-1.565535,-1.675647,-0.07957807,-0.1306241
561.3021,-0.01448893,-0.8268692,-1.565452,-1.675809,-0.07831609,-0.1305205
561.3166,-0.01448893,-0.8268692,-1.565452,-1.675809,-0.07831609,-0.1305205
561.3309,-0.01448969,-0.8268371,-1.565385,-1.676122,-0.07708166,-0.1304188
561.3462,-0.01449038,-0.8268256,-1.565324,-1.676508,-0.07587248,-0.1303192
561.3608,-0.01449091,-0.8268945,-1.565186,-1.677504,-0.07313898,-0.1300922
561.3754,-0.01449091,-0.8268945,-1.565186,-1.677504,-0.07313898,-0.1300922
561.3895,-0.01449132,-0.8270128,-1.565082,-1.678788,-0.07046302,-0.1298696
561.4047,-0.01449166,-0.8271611,-1.564993,-1.680207,-0.06784195,-0.1296514
561.4213,-0.01449195,-0.8273271,-1.56491,-1.681682,-0.06527305,-0.1294375
561.4356,-0.01449195,-0.8273271,-1.56491,-1.681682,-0.06527305,-0.1294375
561.449,-0.01449209,-0.8275726,-1.564744,-1.683749,-0.06120389,-0.1290985
561.4632,-0.01449212,-0.8278662,-1.564612,-1.686089,-0.05721815,-0.1287661
561.4776,-0.01449212,-0.8278662,-1.564612,-1.686089,-0.05721815,-0.1287661
561.4916,-0.01449206,-0.8281881,-1.564495,-1.688547,-0.05331279,-0.1284402
561.5068,-0.01449185,-0.8285952,-1.56429,-1.69162,-0.04793086,-0.1279913
561.5213,-0.0144915,-0.8290532,-1.564121,-1.69497,-0.04265799,-0.1275513
561.5361,-0.0144915,-0.8290532,-1.564121,-1.69497,-0.04265799,-0.1275513
561.5499,-0.01449107,-0.8295406,-1.563967,-1.698433,-0.0374906,-0.1271199
561.5652,-0.01449059,-0.8300438,-1.563818,-1.70193,-0.03242459,-0.1266969
561.5799,-0.01449059,-0.8300438,-1.563818,-1.70193,-0.03242459,-0.1266969
561.5936,-0.01448996,-0.8306239,-1.563565,-1.705991,-0.02589849,-0.1261529
561.6091,-0.0144892,-0.8312488,-1.56335,-1.710297,-0.01950353,-0.1256196
561.6238,-0.01448837,-0.8318985,-1.56315,-1.714693,-0.01323626,-0.1250967
561.6383,-0.01448837,-0.8318985,-1.56315,-1.714693,-0.01323626,-0.1250967
561.6525,-0.01448737,-0.83263,-1.562835,-1.719678,-0.005528448,-0.1244548
561.6678,-0.01448624,-0.8334086,-1.562564,-1.724912,0.002025174,-0.1238254
561.6824,-0.01448501,-0.8342128,-1.562309,-1.730232,0.009428049,-0.1232083
561.6967,-0.01448501,-0.8342128,-1.562309,-1.730232,0.009428049,-0.1232083
561.7129,-0.01448364,-0.8350293,-1.562061,-1.735559,0.0166861,-0.1226034
561.7272,-0.01448196,-0.8359189,-1.56167,-1.741425,0.02537308,-0.121881
561.7405,-0.01447995,-0.8368497,-1.56133,-1.747509,0.0338878,-0.1211728
561.7553,-0.01447995,-0.8368497,-1.56133,-1.747509,0.0338878,-0.1211728
561.7692,-0.01447766,-0.8378017,-1.561008,-1.75366,0.04223179,-0.1204784
561.7845,-0.01447515,-0.8387625,-1.560694,-1.759799,0.05041216,-0.1197977
561.799,-0.01447515,-0.8387625,-1.560694,-1.759799,0.05041216,-0.1197977
561.8129,-0.01447222,-0.8397246,-1.560383,-1.765891,0.05843513,-0.1191303
561.8281,-0.01446901,-0.8406832,-1.560073,-1.771916,0.06630258,-0.1184759
561.8426,-0.01446563,-0.8416352,-1.559764,-1.777865,0.07401758,-0.1178344
561.8571,-0.01446563,-0.8416352,-1.559764,-1.777865,0.07401758,-0.1178344
561.8712,-0.01446234,-0.8425097,-1.559648,-1.783159,0.08000396,-0.1173348
561.8863,-0.01445922,-0.8433325,-1.559466,-1.788098,0.08587456,-0.1168449
561.9011,-0.01445627,-0.8441195,-1.559255,-1.792826,0.09164155,-0.1163647
561.9158,-0.01445627,-0.8441195,-1.559255,-1.792826,0.09164155,-0.1163647
561.9296,-0.01445346,-0.8448811,-1.559036,-1.797414,0.09730054,-0.115894
561.9449,-0.01445097,-0.8455542,-1.559029,-1.801324,0.1012703,-0.1155617
561.9594,-0.01445097,-0.8455542,-1.559029,-1.801324,0.1012703,-0.1155617
561.9734,-0.0144488,-0.8461697,-1.558943,-1.804876,0.1051602,-0.115236
561.9889,-0.01444689,-0.8467469,-1.558824,-1.808225,0.1089873,-0.1149167
562.0033,-0.0144452,-0.8472978,-1.558693,-1.811449,0.112745,-0.1146036
562.0197,-0.0144452,-0.8472978,-1.558693,-1.811449,0.112745,-0.1146036
562.0339,-0.01444387,-0.8477607,-1.558791,-1.814009,0.1148508,-0.114426
562.0471,-0.01444279,-0.8481674,-1.558801,-1.816229,0.1169099,-0.1142519
562.0616,-0.01444186,-0.8485373,-1.558771,-1.818264,0.1189438,-0.1140812
562.076,-0.01444186,-0.8485373,-1.558771,-1.818264,0.1189438,-0.1140812
562.09,-0.01444113,-0.8488138,-1.558967,-1.819614,0.1193645,-0.1140431
562.1052,-0.01444053,-0.8490312,-1.559064,-1.820622,0.1197717,-0.1140058
562.1197,-0.01444053,-0.8490312,-1.559064,-1.820622,0.1197717,-0.1140058
562.1339,-0.01444001,-0.8492113,-1.559115,-1.821453,0.1201882,-0.1139693
562.1489,-0.01443954,-0.8493675,-1.559148,-1.822189,0.1206041,-0.1139334
562.1635,-0.01443923,-0.849439,-1.559417,-1.822295,0.1194357,-0.1140276
562.1778,-0.01443923,-0.849439,-1.559417,-1.822295,0.1194357,-0.1140276
562.192,-0.01443904,-0.8494578,-1.559585,-1.822093,0.118283,-0.1141199
562.2073,-0.01443894,-0.8494458,-1.559704,-1.82174,0.1171708,-0.1142104
562.2219,-0.01443888,-0.8494149,-1.559803,-1.821314,0.1160884,-0.1142991
562.2368,-0.01443888,-0.8494149,-1.559803,-1.821314,0.1160884,-0.1142991
562.2507,-0.01443898,-0.8493031,-1.560132,-1.820276,0.1134518,-0.1145154
562.266,-0.0144392,-0.8491418,-1.560358,-1.81895,0.1108611,-0.1147275
562.2805,-0.01443949,-0.8489508,-1.560531,-1.81749,0.1083399,-0.1149354
562.2952,-0.01443949,-0.8489508,-1.560531,-1.81749,0.1083399,-0.1149354
562.3093,-0.01443996,-0.848673,-1.560916,-1.815398,0.1042977,-0.1152685
562.3265,-0.01444056,-0.8483428,-1.561189,-1.813013,0.1003336,-0.1155952
562.3401,-0.01444124,-0.8479818,-1.561404,-1.8105,0.09646718,-0.1159154
562.3536,-0.01444124,-0.8479818,-1.561404,-1.8105,0.09646718,-0.1159154
562.3677,-0.01444198,-0.8476034,-1.56159,-1.807942,0.09268607,-0.1162293
562.3835,-0.01444288,-0.8471466,-1.561986,-1.804802,0.08740499,-0.1166665
562.3975,-0.01444288,-0.8471466,-1.561986,-1.804802,0.08740499,-0.1166665
562.4111,-0.0144439,-0.8466436,-1.562273,-1.801404,0.08222861,-0.117095
562.4263,-0.014445,-0.8461142,-1.562503,-1.797901,0.07717282,-0.1175152
562.441,-0.01444616,-0.8455709,-1.562703,-1.794373,0.07222561,-0.1179271
562.4559,-0.01444616,-0.8455709,-1.562703,-1.794373,0.07222561,-0.1179271
562.4698,-0.01444752,-0.8449522,-1.563094,-1.790281,0.0658023,-0.1184603
562.4852,-0.0144492,-0.8442897,-1.563378,-1.785944,0.05951099,-0.1189831
562.4999,-0.0144492,-0.8442897,-1.563378,-1.785944,0.05951099,-0.1189831
562.514,-0.01445116,-0.8436031,-1.563605,-1.781519,0.05336164,-0.1194956
562.5293,-0.01445355,-0.8428354,-1.563996,-1.776506,0.04576562,-0.1201274
562.545,-0.01445636,-0.8420212,-1.564276,-1.771244,0.03833031,-0.1207468
562.5583,-0.01445636,-0.8420212,-1.564276,-1.771244,0.03833031,-0.1207468
562.5724,-0.0144595,-0.8411819,-1.564497,-1.765896,0.03105984,-0.1213541
562.5878,-0.0144629,-0.8403308,-1.564684,-1.760544,0.02394223,-0.1219495
562.6024,-0.01446671,-0.839407,-1.56502,-1.754655,0.01539721,-0.1226625
562.618,-0.01446671,-0.839407,-1.56502,-1.754655,0.01539721,-0.1226625
562.6319,-0.01447089,-0.8384424,-1.565256,-1.748546,0.007034209,-0.1233616
562.6462,-0.01447538,-0.837457,-1.565438,-1.742374,-0.001147595,-0.124047
562.6608,-0.01448011,-0.8364632,-1.565588,-1.736214,-0.009158981,-0.1247189
562.6753,-0.01448011,-0.8364632,-1.565588,-1.736214,-0.009158981,-0.1247189
562.6891,-0.01448522,-0.8353993,-1.565858,-1.729531,-0.01857397,-0.125507
562.7044,-0.01449069,-0.8342969,-1.566038,-1.722642,-0.02778726,-0.1262796
562.7191,-0.01449069,-0.8342969,-1.566038,-1.722642,-0.02778726,-0.1262796
562.733,-0.01449646,-0.8331757,-1.566168,-1.715701,-0.03680415,-0.1270371
562.7483,-0.01449995,-0.8328795,-1.564819,-1.715662,-0.02689961,-0.1262276
562.7628,-0.01450066,-0.8330921,-1.564102,-1.718962,-0.01727374,-0.125434
562.7772,-0.01450066,-0.8330921,-1.564102,-1.718962,-0.01727374,-0.125434
562.7913,-0.01450011,-0.8336179,-1.563635,-1.723901,-0.007903654,-0.124656
562.8068,-0.01449894,-0.8343345,-1.563261,-1.729627,0.001258802,-0.1238932
562.8215,-0.01449751,-0.8350964,-1.563057,-1.735138,0.008667096,-0.1232748
562.836,-0.01449751,-0.8350964,-1.563057,-1.735138,0.008667096,-0.1232748
562.85,-0.01449577,-0.8358828,-1.562819,-1.740516,0.01593295,-0.1226686
562.8656,-0.0144938,-0.8366809,-1.562566,-1.745794,0.02306308,-0.1220742
562.8801,-0.01449164,-0.8374825,-1.562307,-1.750988,0.03005737,-0.1214915
562.8944,-0.01449164,-0.8374825,-1.562307,-1.750988,0.03005737,-0.1214915
562.9106,-0.0144896,-0.8382134,-1.562207,-1.75553,0.03534399,-0.1210496
562.9247,-0.01448771,-0.8388975,-1.562051,-1.759724,0.04053238,-0.1206164
562.9384,-0.01448771,-0.8388975,-1.562051,-1.759724,0.04053238,-0.1206164
562.9523,-0.01448599,-0.8395495,-1.561871,-1.763716,0.04562831,-0.1201917
562.9677,-0.01448462,-0.8401095,-1.561859,-1.767003,0.04905282,-0.1199047
562.9822,-0.01448354,-0.8406101,-1.56178,-1.769924,0.05241538,-0.1196233
562.9966,-0.01448354,-0.8406101,-1.56178,-1.769924,0.05241538,-0.1196233
563.0104,-0.01448261,-0.841072,-1.561673,-1.772642,0.05572261,-0.1193475
563.0259,-0.01448175,-0.8415077,-1.561557,-1.775239,0.05896947,-0.1190771
563.0405,-0.01448107,-0.8418562,-1.561627,-1.77718,0.06057705,-0.1189413
563.0552,-0.01448107,-0.8418562,-1.561627,-1.77718,0.06057705,-0.1189413
563.0692,-0.01448051,-0.8421491,-1.561624,-1.778789,0.06215633,-0.1188083
563.0846,-0.01448003,-0.8424065,-1.56159,-1.780221,0.06371628,-0.1186778
563.0992,-0.01448003,-0.8424065,-1.56159,-1.780221,0.06371628,-0.1186778
563.1132,-0.01447974,-0.8425715,-1.561739,-1.780978,0.06367259,-0.1186793
563.1285,-0.01447957,-0.8426787,-1.561805,-1.781401,0.06363422,-0.1186808
563.1432,-0.01447949,-0.8427497,-1.561835,-1.781655,0.0636098,-0.1186822
563.1575,-0.01447949,-0.8427497,-1.561835,-1.781655,0.0636098,-0.1186822
563.1717,-0.01447946,-0.8427981,-1.56185,-1.781822,0.06359154,-0.1186836
563.1872,-0.01447961,-0.8427647,-1.562054,-1.781368,0.06199816,-0.1188144
563.2027,-0.01447988,-0.8426809,-1.562175,-1.780614,0.06044005,-0.1189426
563.2172,-0.01447988,-0.8426809,-1.562175,-1.780614,0.06044005,-0.1189426
563.2312,-0.01448023,-0.8425665,-1.562257,-1.779718,0.05892611,-0.1190683
563.2452,-0.01448063,-0.8424336,-1.562321,-1.778756,0.05744792,-0.1191915
563.2599,-0.01448063,-0.8424336,-1.562321,-1.778756,0.05744792,-0.1191915
563.2737,-0.0144812,-0.8422205,-1.562569,-1.777193,0.0544242,-0.1194417
563.289,-0.01448189,-0.8419591,-1.56273,-1.775349,0.05146547,-0.119687
563.3038,-0.01448266,-0.8416688,-1.56285,-1.773379,0.04857888,-0.1199275
563.3185,-0.01448266,-0.8416688,-1.56285,-1.773379,0.04857888,-0.1199275
563.3325,-0.01448362,-0.8412927,-1.563136,-1.770785,0.04417909,-0.1202927
563.3476,-0.01448471,-0.8408654,-1.563329,-1.767906,0.03987478,-0.1206508
563.3624,-0.01448589,-0.8404084,-1.563476,-1.764906,0.03566999,-0.1210018
563.377,-0.01448589,-0.8404084,-1.563476,-1.764906,0.03566999,-0.1210018
563.391,-0.01448718,-0.8399351,-1.5636,-1.761867,0.03155502,-0.1213459
563.4065,-0.01448883,-0.8393845,-1.563884,-1.758255,0.02595059,-0.1218127
563.4207,-0.01449084,-0.8387887,-1.564079,-1.754392,0.02046675,-0.1222703
563.4357,-0.01449084,-0.8387887,-1.564079,-1.754392,0.02046675,-0.1222703
563.4495,-0.01449315,-0.8381676,-1.564229,-1.75043,0.01510478,-0.122719
563.465,-0.0144957,-0.8375337,-1.564355,-1.746449,0.009855393,-0.1231589
563.4792,-0.0144957,-0.8375337,-1.564355,-1.746449,0.009855393,-0.1231589
563.4955,-0.01449865,-0.8368254,-1.564622,-1.741911,0.003142705,-0.1237195
563.5091,-0.01450198,-0.8360744,-1.564804,-1.737137,-0.003425246,-0.1242692
563.5232,-0.01450562,-0.8353004,-1.564942,-1.732278,-0.009850675,-0.1248081
563.5377,-0.01450562,-0.8353004,-1.564942,-1.732278,-0.009850675,-0.1248081
563.5518,-0.01450974,-0.8344463,-1.565195,-1.72684,-0.01770928,-0.1254658
563.567,-0.01451428,-0.8335466,-1.565362,-1.721158,-0.02539779,-0.1261107
563.5814,-0.01451916,-0.8326228,-1.565485,-1.715396,-0.03292159,-0.1267428
563.5961,-0.01451916,-0.8326228,-1.565485,-1.715396,-0.03292159,-0.1267428
563.6102,-0.0145243,-0.8316883,-1.565582,-1.709635,-0.04028963,-0.1273626
563.6255,-0.01452985,-0.830682,-1.565775,-1.703342,-0.04906714,-0.1280997
563.64,-0.01453579,-0.8296359,-1.565894,-1.696837,-0.05765688,-0.1288222
563.6547,-0.01453579,-0.8296359,-1.565894,-1.696837,-0.05765688,-0.1288222
563.6685,-0.01454204,-0.8285699,-1.565973,-1.690272,-0.06606588,-0.1295306
563.6842,-0.01454851,-0.8274964,-1.566027,-1.683725,-0.07430206,-0.1302251
563.6988,-0.01454851,-0.8274964,-1.566027,-1.683725,-0.07430206,-0.1302251
563.7126,-0.01455473,-0.8264235,-1.566064,-1.677233,-0.08237065,-0.1309051
563.7282,-0.01456082,-0.8253557,-1.566087,-1.670816,-0.09027602,-0.1315718
563.7426,-0.01456683,-0.8242959,-1.566099,-1.664481,-0.09802192,-0.1322254
563.7573,-0.01456683,-0.8242959,-1.566099,-1.664481,-0.09802192,-0.1322254
563.7714,-0.01457261,-0.823315,-1.566034,-1.658805,-0.1040688,-0.1327369
563.7881,-0.01457812,-0.8223872,-1.565999,-1.653492,-0.11,-0.1332384
563.8013,-0.01458341,-0.8214964,-1.565974,-1.648397,-0.1158155,-0.1337301
563.8159,-0.01458341,-0.8214964,-1.565974,-1.648397,-0.1158155,-0.1337301
563.8298,-0.01458853,-0.8206323,-1.565953,-1.643448,-0.121516,-0.1342121
563.845,-0.01459331,-0.8198579,-1.565883,-1.639181,-0.1255676,-0.1345554
563.8595,-0.01459331,-0.8198579,-1.565883,-1.639181,-0.1255676,-0.1345554
563.8734,-0.01459775,-0.8191423,-1.565838,-1.635278,-0.1295412,-0.1348919
563.8887,-0.01460191,-0.8184663,-1.565804,-1.631584,-0.1334372,-0.1352219
563.9034,-0.01460585,-0.8178176,-1.565774,-1.628021,-0.1372562,-0.1355454
563.918,-0.01460585,-0.8178176,-1.565774,-1.628021,-0.1372562,-0.1355454
563.9319,-0.01460942,-0.8172581,-1.565713,-1.625125,-0.1394695,-0.1357333
563.9474,-0.01461263,-0.816756,-1.56567,-1.622574,-0.1416392,-0.1359175
563.962,-0.01461555,-0.8162917,-1.565635,-1.620213,-0.1437661,-0.1360981
563.9766,-0.01461555,-0.8162917,-1.565635,-1.620213,-0.1437661,-0.1360981
563.9908,-0.01461803,-0.815922,-1.56558,-1.618539,-0.1443232,-0.136146
564.0061,-0.0146201,-0.8156124,-1.565539,-1.617212,-0.144868,-0.1361929
564.0206,-0.01462184,-0.8153413,-1.565506,-1.616068,-0.1454014,-0.1362388
564.0355,-0.01462184,-0.8153413,-1.565506,-1.616068,-0.1454014,-0.1362388
564.0494,-0.01462332,-0.8150951,-1.565475,-1.615023,-0.1459237,-0.1362839
564.0668,-0.01462441,-0.8149347,-1.565426,-1.61461,-0.1449093,-0.1361988
564.08,-0.01462526,-0.814828,-1.565387,-1.614509,-0.1439124,-0.1361154
564.0945,-0.01462526,-0.814828,-1.565387,-1.614509,-0.1439124,-0.1361154
564.1085,-0.01462597,-0.814755,-1.565353,-1.614562,-0.1429338,-0.1360337
564.1227,-0.01462662,-0.8147029,-1.56532,-1.614693,-0.1419737,-0.1359535
564.1375,-0.01462662,-0.8147029,-1.56532,-1.614693,-0.1419737,-0.1359535
564.1512,-0.01462709,-0.8147319,-1.565268,-1.615437,-0.1395052,-0.1357457
564.1665,-0.01462745,-0.8148108,-1.565224,-1.616474,-0.1370821,-0.1355419
564.1812,-0.01462773,-0.81492,-1.565182,-1.617649,-0.1347049,-0.1353421
564.1959,-0.01462773,-0.81492,-1.565182,-1.617649,-0.1347049,-0.1353421
564.2098,-0.01462783,-0.8151169,-1.565118,-1.619457,-0.1308451,-0.135017
564.225,-0.01462781,-0.8153669,-1.565061,-1.621561,-0.1270573,-0.1346982
564.2396,-0.01462781,-0.8153669,-1.565061,-1.621561,-0.1270573,-0.1346982
564.2535,-0.0146277,-0.8156486,-1.565005,-1.623797,-0.1233417,-0.1343857
564.269,-0.01462754,-0.8159486,-1.564949,-1.626083,-0.1196972,-0.1340793
564.2837,-0.01462721,-0.8163279,-1.564862,-1.628951,-0.1145912,-0.1336496
564.2983,-0.01462721,-0.8163279,-1.564862,-1.628951,-0.1145912,-0.1336496
564.3121,-0.01462677,-0.8167543,-1.564781,-1.632082,-0.109582,-0.1332284
564.3279,-0.01462625,-0.817208,-1.564701,-1.635319,-0.1046688,-0.1328154
564.3421,-0.01462567,-0.8176764,-1.564621,-1.638588,-0.0998498,-0.1324104
564.3566,-0.01462567,-0.8176764,-1.564621,-1.638588,-0.0998498,-0.1324104
564.3727,-0.01462494,-0.8182212,-1.564495,-1.642421,-0.09358674,-0.1318842
564.3873,-0.01462408,-0.8188105,-1.56438,-1.646501,-0.08744381,-0.1313682
564.4005,-0.01462315,-0.8194248,-1.564266,-1.650674,-0.0814189,-0.1308623
564.4149,-0.01462315,-0.8194248,-1.564266,-1.650674,-0.0814189,-0.1308623
564.4289,-0.01462204,-0.820121,-1.564096,-1.655436,-0.07396802,-0.1302371
564.444,-0.01462072,-0.8208646,-1.563938,-1.66045,-0.06666073,-0.1296241
564.4585,-0.01462072,-0.8208646,-1.563938,-1.66045,-0.06666073,-0.1296241
564.4732,-0.01461915,-0.8216342,-1.563783,-1.665554,-0.05949404,-0.1290231
564.4877,-0.01461738,-0.8224163,-1.563626,-1.670665,-0.05246487,-0.1284339
564.5025,-0.01461525,-0.8232719,-1.563391,-1.676318,-0.04402103,-0.1277269
564.517,-0.01461525,-0.8232719,-1.563391,-1.676318,-0.04402103,-0.1277269
564.5312,-0.01461277,-0.8241691,-1.563175,-1.682191,-0.03574134,-0.1270338
564.5466,-0.01460999,-0.8250879,-1.562964,-1.688132,-0.02762179,-0.1263543
564.5615,-0.014607,-0.8260159,-1.562752,-1.694065,-0.01965827,-0.1256881
564.5759,-0.014607,-0.8260159,-1.562752,-1.694065,-0.01965827,-0.1256881
564.5897,-0.01460365,-0.8270148,-1.562437,-1.700525,-0.01028922,-0.1249056
564.6061,-0.01459996,-0.8280529,-1.56215,-1.707193,-0.001103504,-0.1241385
564.6198,-0.01459996,-0.8280529,-1.56215,-1.707193,-0.001103504,-0.1241385
564.6335,-0.01459598,-0.8291105,-1.561871,-1.713917,0.007903343,-0.1233864
564.6487,-0.01459417,-0.829344,-1.563059,-1.713736,-0.002045702,-0.1242006
564.6657,-0.01459431,-0.8290695,-1.563671,-1.710208,-0.01170214,-0.1249989
564.6789,-0.01459431,-0.8290695,-1.563671,-1.710208,-0.01170214,-0.1249989
564.6927,-0.01459543,-0.8284826,-1.564011,-1.705047,-0.02108567,-0.1257814
564.707,-0.01459736,-0.8277056,-1.564219,-1.699108,-0.03024484,-0.1265486
564.7216,-0.01459999,-0.826884,-1.564255,-1.693392,-0.03764523,-0.1271714
564.7361,-0.01459999,-0.826884,-1.564255,-1.693392,-0.03764523,-0.1271714
564.7499,-0.0146031,-0.8260386,-1.564307,-1.687816,-0.04489985,-0.127782
564.7653,-0.01460656,-0.8251823,-1.564362,-1.682344,-0.05201197,-0.1283806
564.7797,-0.01460656,-0.8251823,-1.564362,-1.682344,-0.05201197,-0.1283806
564.7938,-0.01461008,-0.8243923,-1.564325,-1.677535,-0.05743036,-0.1288382
564.809,-0.01461355,-0.8236468,-1.564329,-1.673082,-0.06274898,-0.1292868
564.8237,-0.01461693,-0.8229321,-1.564347,-1.668836,-0.06796626,-0.1297266
564.8381,-0.01461693,-0.8229321,-1.564347,-1.668836,-0.06796626,-0.1297266
564.8522,-0.01462022,-0.8222396,-1.564369,-1.664725,-0.07308146,-0.1301578
564.868,-0.01462326,-0.8216333,-1.564321,-1.661284,-0.0765496,-0.1304512
564.8822,-0.01462602,-0.8210828,-1.564307,-1.658195,-0.0799548,-0.1307388
564.8968,-0.01462602,-0.8210828,-1.564307,-1.658195,-0.0799548,-0.1307388
564.9108,-0.01462854,-0.8205692,-1.564306,-1.655303,-0.08329558,-0.1310208
564.9261,-0.01463086,-0.8200807,-1.56431,-1.652531,-0.08657139,-0.1312973
564.941,-0.01463286,-0.8196792,-1.564258,-1.650413,-0.08824124,-0.1314391
564.9553,-0.01463286,-0.8196792,-1.564258,-1.650413,-0.08824124,-0.1314391
564.9714,-0.01463452,-0.8193331,-1.564234,-1.648629,-0.089882,-0.1315781
564.9853,-0.0146359,-0.8190229,-1.564222,-1.647024,-0.09149238,-0.1317144
564.9993,-0.0146359,-0.8190229,-1.564222,-1.647024,-0.09149238,-0.1317144
565.0132,-0.0146369,-0.8188054,-1.564163,-1.646094,-0.09153208,-0.1317187
565.0284,-0.01463771,-0.8186461,-1.56413,-1.645501,-0.09157385,-0.1317229
565.0428,-0.01463839,-0.8185235,-1.564108,-1.645079,-0.09161621,-0.131727
565.0573,-0.01463839,-0.8185235,-1.564108,-1.645079,-0.09161621,-0.131727
565.0716,-0.01463901,-0.818424,-1.56409,-1.644747,-0.09165822,-0.131731
565.087,-0.01463947,-0.8184086,-1.564025,-1.645037,-0.09016038,-0.1316057
565.1015,-0.01463981,-0.8184436,-1.563981,-1.645627,-0.08869378,-0.1314828
565.1162,-0.01463981,-0.8184436,-1.563981,-1.645627,-0.08869378,-0.1314828
565.13,-0.01464007,-0.8185095,-1.563946,-1.646364,-0.08725681,-0.1313623
565.1456,-0.01464029,-0.8185942,-1.563915,-1.647168,-0.08584823,-0.1312442
565.16,-0.01464029,-0.8185942,-1.563915,-1.647168,-0.08584823,-0.1312442
565.1741,-0.01464036,-0.8187594,-1.563833,-1.648574,-0.08292685,-0.1309991
565.1896,-0.01464031,-0.8189737,-1.563772,-1.650263,-0.08006419,-0.1307588
565.2042,-0.01464019,-0.8192171,-1.563719,-1.65208,-0.07725821,-0.1305231
565.2189,-0.01464019,-0.8192171,-1.563719,-1.65208,-0.07725821,-0.1305231
565.2329,-0.0146399,-0.8195468,-1.563611,-1.654521,-0.07296463,-0.1301629
565.25,-0.01463949,-0.8199282,-1.563525,-1.657249,-0.06875643,-0.1298096
565.2635,-0.01463899,-0.8203399,-1.563446,-1.6601,-0.06463092,-0.1294633
565.2781,-0.01463899,-0.8203399,-1.563446,-1.6601,-0.06463092,-0.1294633
565.2919,-0.01463844,-0.8207684,-1.56337,-1.662993,-0.06058571,-0.1291237
565.3066,-0.01463774,-0.8212746,-1.563226,-1.666459,-0.05507215,-0.1286615
565.3209,-0.01463692,-0.8218266,-1.563104,-1.670179,-0.04966802,-0.1282084
565.3354,-0.01463692,-0.8218266,-1.563104,-1.670179,-0.04966802,-0.1282084
565.3494,-0.01463602,-0.8224043,-1.56299,-1.673998,-0.04436996,-0.1277641
565.3647,-0.01463507,-0.8229952,-1.562879,-1.67784,-0.03917485,-0.1273285
565.3794,-0.01463507,-0.8229952,-1.562879,-1.67784,-0.03917485,-0.1273285
565.3934,-0.01463397,-0.8236611,-1.562685,-1.682239,-0.03252772,-0.1267721
565.4088,-0.01463273,-0.8243701,-1.562517,-1.686877,-0.02601272,-0.1262267
565.4234,-0.01463126,-0.8251027,-1.562358,-1.691599,-0.01962585,-0.1256919
565.438,-0.01463126,-0.8251027,-1.562358,-1.691599,-0.01962585,-0.1256919
565.4522,-0.01462942,-0.8259157,-1.562104,-1.696905,-0.01180532,-0.1250383
565.4675,-0.01462722,-0.8267748,-1.561882,-1.702455,-0.004140195,-0.1243975
565.4823,-0.01462472,-0.8276584,-1.56167,-1.708087,0.003374125,-0.1237692
565.4968,-0.01462472,-0.8276584,-1.56167,-1.708087,0.003374125,-0.1237692
565.5112,-0.01462198,-0.8285532,-1.561461,-1.713721,0.01074263,-0.1231533
565.5275,-0.01461884,-0.829451,-1.561252,-1.719316,0.01797025,-0.1225493
565.5418,-0.01461543,-0.8303466,-1.561043,-1.724852,0.02505852,-0.1219572
565.5565,-0.01461543,-0.8303466,-1.561043,-1.724852,0.02505852,-0.1219572
565.5706,-0.01461186,-0.831237,-1.560832,-1.73032,0.03201012,-0.1213768
565.5851,-0.01460819,-0.8321199,-1.560622,-1.735714,0.03882759,-0.1208077
565.5999,-0.01460819,-0.8321199,-1.560622,-1.735714,0.03882759,-0.1208077
565.6133,-0.01460446,-0.8329945,-1.56041,-1.741035,0.0455134,-0.1202497
565.6285,-0.01460069,-0.8338599,-1.560199,-1.746279,0.05206994,-0.1197027
565.6433,-0.0145969,-0.8347157,-1.559988,-1.75145,0.05849958,-0.1191665
565.6578,-0.0145969,-0.8347157,-1.559988,-1.75145,0.05849958,-0.1191665
565.672,-0.01459311,-0.8355619,-1.559777,-1.756546,0.06480464,-0.1186407
565.6874,-0.01458932,-0.8363982,-1.559567,-1.761569,0.07098739,-0.1181253
565.7021,-0.01458553,-0.8372248,-1.559359,-1.766519,0.07705007,-0.11762
565.7169,-0.01458553,-0.8372248,-1.559359,-1.766519,0.07705007,-0.11762
565.7309,-0.01458175,-0.8380417,-1.559151,-1.771398,0.08299489,-0.1171246
565.7463,-0.01457799,-0.8388488,-1.558944,-1.776207,0.08882401,-0.1166389
565.7607,-0.01457423,-0.8396464,-1.55874,-1.780946,0.09453957,-0.1161627
565.7756,-0.01457423,-0.8396464,-1.55874,-1.780946,0.09453957,-0.1161627
565.7894,-0.01457049,-0.8404345,-1.558537,-1.785618,0.1001437,-0.1156959
565.8071,-0.01456677,-0.8412132,-1.558336,-1.790222,0.1056383,-0.1152383
565.8206,-0.01456306,-0.8419825,-1.558136,-1.79476,0.1110256,-0.1147896
565.8344,-0.01456306,-0.8419825,-1.558136,-1.79476,0.1110256,-0.1147896
565.8483,-0.01455936,-0.8427427,-1.55794,-1.799232,0.1163075,-0.1143498
565.8635,-0.01455568,-0.8434939,-1.557745,-1.80364,0.121486,-0.1139185
565.8778,-0.01455568,-0.8434939,-1.557745,-1.80364,0.121486,-0.1139185
565.8918,-0.01455201,-0.8442361,-1.557553,-1.807985,0.126563,-0.1134958
565.9072,-0.01454836,-0.8449694,-1.557364,-1.812267,0.1315403,-0.1130813
565.9218,-0.01454472,-0.8456939,-1.557177,-1.816488,0.13642,-0.1126749
565.9365,-0.01454472,-0.8456939,-1.557177,-1.816488,0.13642,-0.1126749
565.9504,-0.0145411,-0.8464099,-1.556993,-1.820648,0.1412037,-0.1122766
565.9659,-0.0145375,-0.8471172,-1.556812,-1.824748,0.1458934,-0.111886
565.9804,-0.01453391,-0.8478161,-1.556634,-1.82879,0.1504907,-0.1115031
565.9951,-0.01453391,-0.8478161,-1.556634,-1.82879,0.1504907,-0.1115031
566.0091,-0.01453034,-0.8485067,-1.556459,-1.832773,0.1549974,-0.1111278
566.0244,-0.01452678,-0.849189,-1.556287,-1.836699,0.1594153,-0.1107598
566.0394,-0.01452678,-0.849189,-1.556287,-1.836699,0.1594153,-0.1107598
566.0533,-0.01452324,-0.8498632,-1.556119,-1.840569,0.163746,-0.110399
566.0685,-0.01451971,-0.8505293,-1.555954,-1.844383,0.1679911,-0.1100453
566.0831,-0.01451621,-0.8511875,-1.555792,-1.848143,0.1721524,-0.1096985
566.0997,-0.01451621,-0.8511875,-1.555792,-1.848143,0.1721524,-0.1096985
566.1136,-0.01451271,-0.8518378,-1.555633,-1.851849,0.1762314,-0.1093585
566.1268,-0.01450924,-0.8524803,-1.555478,-1.855501,0.1802296,-0.1090252
566.1415,-0.01450578,-0.8531151,-1.555326,-1.859101,0.1841487,-0.1086985
566.1563,-0.01450578,-0.8531151,-1.555326,-1.859101,0.1841487,-0.1086985
566.1701,-0.01450234,-0.8537424,-1.555178,-1.86265,0.1879901,-0.1083782
566.1853,-0.01449891,-0.8543622,-1.555034,-1.866147,0.1917554,-0.1080641
566.1998,-0.01449891,-0.8543622,-1.555034,-1.866147,0.1917554,-0.1080641
566.2137,-0.0144955,-0.8549746,-1.554893,-1.869594,0.1954459,-0.1077562
566.2292,-0.01449211,-0.8555796,-1.554755,-1.872992,0.1990632,-0.1074544
566.2436,-0.01448873,-0.8561774,-1.554621,-1.876342,0.2026086,-0.1071585
566.2582,-0.01448873,-0.8561774,-1.554621,-1.876342,0.2026086,-0.1071585
566.2723,-0.01448537,-0.8567681,-1.554491,-1.879643,0.2060836,-0.1068683
566.2877,-0.01448203,-0.8573518,-1.554364,-1.882897,0.2094895,-0.1065839
566.3023,-0.01447871,-0.8579285,-1.554241,-1.886104,0.2128276,-0.1063051
566.3171,-0.01447871,-0.8579285,-1.554241,-1.886104,0.2128276,-0.1063051
566.3328,-0.0144754,-0.8584983,-1.554122,-1.889265,0.2160993,-0.1060317
566.3463,-0.01447211,-0.8590612,-1.554006,-1.89238,0.2193059,-0.1057637
566.3608,-0.01446883,-0.8596175,-1.553894,-1.895452,0.2224486,-0.1055009
566.3751,-0.01446883,-0.8596175,-1.553894,-1.895452,0.2224486,-0.1055009
566.3915,-0.01446558,-0.8601671,-1.553785,-1.898479,0.2255286,-0.1052433
566.4059,-0.01446234,-0.8607102,-1.55368,-1.901462,0.2285472,-0.1049908
566.4192,-0.01446234,-0.8607102,-1.55368,-1.901462,0.2285472,-0.1049908
566.4331,-0.01445911,-0.8612468,-1.553578,-1.904403,0.2315056,-0.1047432
566.4485,-0.01445591,-0.8617769,-1.55348,-1.907302,0.234405,-0.1045005
566.4651,-0.01445272,-0.8623008,-1.553386,-1.910159,0.2372465,-0.1042625
566.477,-0.01445272,-0.8623008,-1.553386,-1.910159,0.2372465,-0.1042625
566.4912,-0.01444955,-0.8628184,-1.553295,-1.912975,0.2400313,-0.1040292
566.5067,-0.01444639,-0.8633298,-1.553207,-1.91575,0.2427605,-0.1038005
566.5212,-0.01444326,-0.8638351,-1.553123,-1.918486,0.2454351,-0.1035762
566.5358,-0.01444326,-0.8638351,-1.553123,-1.918486,0.2454351,-0.1035762
566.5497,-0.01444014,-0.8643343,-1.553042,-1.921183,0.2480562,-0.1033564
566.5651,-0.01443703,-0.8648276,-1.552965,-1.923841,0.250625,-0.1031408
566.5796,-0.01443703,-0.8648276,-1.552965,-1.923841,0.250625,-0.1031408
566.5934,-0.01443395,-0.865315,-1.55289,-1.92646,0.2531424,-0.1029295
566.6089,-0.01443088,-0.8657966,-1.55282,-1.929042,0.2556094,-0.1027224
566.6234,-0.01442783,-0.8662724,-1.552752,-1.931587,0.258027,-0.1025193
566.6393,-0.01442783,-0.8662724,-1.552752,-1.931587,0.258027,-0.1025193
566.6521,-0.0144248,-0.8667426,-1.552688,-1.934096,0.2603962,-0.1023202
566.6675,-0.01442178,-0.8672072,-1.552626,-1.936568,0.2627181,-0.102125
566.6821,-0.01441878,-0.8676662,-1.552569,-1.939005,0.2649934,-0.1019336
566.6975,-0.01441878,-0.8676662,-1.552569,-1.939005,0.2649934,-0.1019336
566.7115,-0.0144158,-0.8681197,-1.552514,-1.941407,0.2672231,-0.1017459
566.7256,-0.01441284,-0.8685678,-1.552462,-1.943775,0.2694081,-0.101562
566.7401,-0.01440989,-0.8690106,-1.552413,-1.946109,0.2715494,-0.1013817
566.7547,-0.01440989,-0.8690106,-1.552413,-1.946109,0.2715494,-0.1013817
566.7685,-0.01440696,-0.869448,-1.552367,-1.948409,0.2736477,-0.1012049
566.7839,-0.01440405,-0.8698803,-1.552324,-1.950676,0.275704,-0.1010315
566.7983,-0.01440405,-0.8698803,-1.552324,-1.950676,0.275704,-0.1010315
566.8123,-0.01440116,-0.8703073,-1.552284,-1.95291,0.277719,-0.1008616
566.8275,-0.01439828,-0.8707293,-1.552247,-1.955112,0.2796936,-0.100695
566.842,-0.01439542,-0.8711463,-1.552213,-1.957283,0.2816286,-0.1005316
566.8566,-0.01439542,-0.8711463,-1.552213,-1.957283,0.2816286,-0.1005316
566.8704,-0.01439258,-0.8715582,-1.552181,-1.959423,0.2835248,-0.1003715
566.8857,-0.01438975,-0.8719653,-1.552152,-1.961532,0.2853829,-0.1002145
566.9003,-0.01438694,-0.8723675,-1.552126,-1.96361,0.2872037,-0.1000606
566.915,-0.01438694,-0.8723675,-1.552126,-1.96361,0.2872037,-0.1000606
