JMolnar6/NonAnthroHands_User_Study/HandsLoggerWithURDF/tempdata/files/Reachy_JointMotion_gesture_6_27.csv
Time,r_shoulder,r_shoulder_x,r_upper_arm,r_forearm,r_wrist,r_wrist2hand,
286.9508,0.04500352,-2.045923E-08,NaN,-0.3270002,-1.361386E-07,NaN,0.4605003,-2.641946E-08,NaN,-2.153879,9.635536E-06,-0.3665385,-1.207607E-09,NaN,NaN,-0.6155112,2.887093E-10,-9.018239E-07,-1.14236E-07,-6.833716E-10,-2.622604E-08
286.9668,0.04500353,-2.04582E-08,NaN,-0.3270002,-1.361386E-07,NaN,0.4613028,-2.643234E-08,NaN,-2.15206,9.636165E-06,-0.3660357,-1.192639E-09,NaN,NaN,-0.6188355,2.887093E-10,-9.626951E-07,-1.142354E-07,-2.471511E-09,-2.861022E-08
286.9825,0.04500353,-2.045718E-08,NaN,-0.3270002,-1.361386E-07,NaN,0.4617617,-2.644493E-08,NaN,-2.150922,9.636793E-06,-0.3657118,-1.177968E-09,NaN,NaN,-0.6220944,2.887093E-10,-9.992775E-07,-1.142348E-07,-8.732526E-11,-2.622604E-08
286.998,0.04500353,-2.045718E-08,NaN,-0.3270002,-1.361386E-07,NaN,0.4617617,-2.644493E-08,NaN,-2.150922,9.636793E-06,-0.3657118,-1.177968E-09,NaN,NaN,-0.6220944,2.887093E-10,-9.992775E-07,-1.142348E-07,-8.732526E-11,-2.622604E-08
287.0134,0.04500354,-2.045615E-08,NaN,-0.3270002,-1.361386E-07,NaN,0.4620628,-2.645722E-08,NaN,-2.150125,9.637421E-06,-0.3654866,-1.163587E-09,NaN,NaN,-0.6252893,2.887093E-10,-1.027217E-06,-1.142342E-07,-8.732526E-11,-2.861022E-08
287.0299,0.04500354,-2.045513E-08,NaN,-0.3270002,-1.361385E-07,NaN,0.4622912,-2.64692E-08,NaN,-2.149506,9.63805E-06,-0.365315,-1.149526E-09,NaN,NaN,-0.6284215,2.887093E-10,-1.048898E-06,-1.142336E-07,-6.833717E-10,-2.622604E-08
287.0457,0.04500354,-2.04541E-08,NaN,-0.3270002,-1.361385E-07,NaN,0.461665,-2.64809E-08,NaN,-2.150911,9.638678E-06,-0.3656868,-1.135744E-09,NaN,NaN,-0.6281663,2.887093E-10,-1.003599E-06,-1.14233E-07,-4.25965E-09,-2.861022E-08
287.0612,0.04500353,-2.045308E-08,NaN,-0.3270002,-1.361385E-07,NaN,0.4613604,-2.649233E-08,NaN,-2.15169,9.639307E-06,-0.3659009,-1.122235E-09,NaN,NaN,-0.6279163,2.887093E-10,-9.771493E-07,-1.142324E-07,-4.25965E-09,-2.622604E-08
287.0767,0.04500353,-2.045308E-08,NaN,-0.3270002,-1.361385E-07,NaN,0.4613604,-2.649233E-08,NaN,-2.15169,9.639307E-06,-0.3659009,-1.122235E-09,NaN,NaN,-0.6279163,2.887093E-10,-9.771493E-07,-1.142324E-07,-4.25965E-09,-2.622604E-08
287.0922,0.04500353,-2.045205E-08,NaN,-0.3270002,-1.361384E-07,NaN,0.4612012,-2.650348E-08,NaN,-2.152162,9.639935E-06,-0.366028,-1.108994E-09,NaN,NaN,-0.6276712,2.887093E-10,-9.629932E-07,-1.142318E-07,-4.25965E-09,-2.861022E-08
287.1083,0.04500352,-2.045103E-08,NaN,-0.3270002,-1.361384E-07,NaN,0.4611056,-2.651438E-08,NaN,-2.152483,9.640564E-06,-0.3661094,-1.096016E-09,NaN,NaN,-0.627431,2.887093E-10,-9.525624E-07,-1.142313E-07,5.277093E-09,-2.622604E-08
287.1244,0.04500351,-2.045E-08,NaN,-0.3270002,-1.361384E-07,NaN,0.4602114,-2.652498E-08,NaN,-2.154664,9.641197E-06,-0.3666869,-1.08333E-09,NaN,NaN,-0.6238617,2.840527E-10,-8.810368E-07,-1.142307E-07,5.277093E-09,-2.861022E-08
287.14,0.04500351,-2.045E-08,NaN,-0.3270002,-1.361384E-07,NaN,0.4602114,-2.652498E-08,NaN,-2.154664,9.641197E-06,-0.3666869,-1.08333E-09,NaN,NaN,-0.6238617,2.840527E-10,-8.810368E-07,-1.142307E-07,5.277093E-09,-2.861022E-08
287.1553,0.0450035,-2.044898E-08,NaN,-0.3270002,-1.361384E-07,NaN,0.4596693,-2.653533E-08,NaN,-2.156121,9.641825E-06,-0.3670782,-1.070896E-09,NaN,NaN,-0.6203626,2.840527E-10,-8.362588E-07,-1.142301E-07,2.29686E-09,-2.622604E-08
287.1715,0.04500349,-2.044795E-08,NaN,-0.3270002,-1.361383E-07,NaN,0.4592893,-2.654544E-08,NaN,-2.157213,9.642454E-06,-0.3673662,-1.058708E-09,NaN,NaN,-0.6169322,2.840527E-10,-8.00347E-07,-1.142295E-07,2.892907E-09,-2.861022E-08
287.1875,0.04500348,-2.044693E-08,NaN,-0.3270002,-1.361383E-07,NaN,0.4589843,-2.65553E-08,NaN,-2.158116,9.643087E-06,-0.3675978,-1.046762E-09,NaN,NaN,-0.613569,2.793961E-10,-7.721093E-07,-1.142289E-07,5.873139E-09,-2.622604E-08
287.2032,0.04500347,-2.04459E-08,NaN,-0.3270002,-1.361383E-07,NaN,0.4578823,-2.656489E-08,NaN,-2.160846,9.64372E-06,-0.3683256,-1.035089E-09,NaN,NaN,-0.6069381,2.747395E-10,-6.830004E-07,-1.142284E-07,1.18336E-08,-2.861022E-08
287.2191,0.04500347,-2.04459E-08,NaN,-0.3270002,-1.361383E-07,NaN,0.4578823,-2.656489E-08,NaN,-2.160846,9.64372E-06,-0.3683256,-1.035089E-09,NaN,NaN,-0.6069381,2.747395E-10,-6.830004E-07,-1.142284E-07,1.18336E-08,-2.861022E-08
287.2339,0.04500345,-2.044488E-08,NaN,-0.3270002,-1.361382E-07,NaN,0.457142,-2.657425E-08,NaN,-2.162827,9.644353E-06,-0.368859,-1.023647E-09,NaN,NaN,-0.6004373,2.700829E-10,-6.208626E-07,-1.142278E-07,6.469185E-09,-2.622604E-08
287.252,0.04500344,-2.044385E-08,NaN,-0.3270002,-1.361382E-07,NaN,0.4565726,-2.658338E-08,NaN,-2.164421,9.644986E-06,-0.3692818,-1.012433E-09,NaN,NaN,-0.5940642,2.654263E-10,-5.698261E-07,-1.142272E-07,2.892906E-09,-2.861022E-08
287.2661,0.04500343,-2.044283E-08,NaN,-0.3270002,-1.361382E-07,NaN,0.4560862,-2.659229E-08,NaN,-2.165803,9.645619E-06,-0.369642,-1.001441E-09,NaN,NaN,-0.587816,2.607697E-10,-5.265383E-07,-1.142267E-07,6.469185E-09,-2.622604E-08
287.2823,0.04500341,-2.04418E-08,NaN,-0.3270002,-1.361382E-07,NaN,0.4547997,-2.660098E-08,NaN,-2.16899,9.646243E-06,-0.3705043,-9.906679E-10,NaN,NaN,-0.5783566,2.654263E-10,-4.271475E-07,-1.142261E-07,6.469185E-09,-2.861022E-08
287.298,0.04500341,-2.04418E-08,NaN,-0.3270002,-1.361382E-07,NaN,0.4547997,-2.660098E-08,NaN,-2.16899,9.646243E-06,-0.3705043,-9.906679E-10,NaN,NaN,-0.5783566,2.654263E-10,-4.271475E-07,-1.142261E-07,6.469185E-09,-2.861022E-08
287.3128,0.04500339,-2.044078E-08,NaN,-0.3270002,-1.361381E-07,NaN,0.4538839,-2.660942E-08,NaN,-2.171411,9.646876E-06,-0.3711637,-9.801444E-10,NaN,NaN,-0.5690829,2.607697E-10,-3.522692E-07,-1.142255E-07,5.277092E-09,-2.622604E-08
287.3292,0.04500337,-2.043975E-08,NaN,-0.3270002,-1.361381E-07,NaN,0.4531477,-2.661766E-08,NaN,-2.173424,9.647509E-06,-0.3717057,-9.698302E-10,NaN,NaN,-0.5599911,2.561131E-10,-2.920685E-07,-1.14225E-07,3.488952E-09,-2.861022E-08
287.3449,0.04500335,-2.043873E-08,NaN,-0.3270002,-1.361381E-07,NaN,0.452502,-2.662568E-08,NaN,-2.175208,9.648133E-06,-0.3721791,-9.597213E-10,NaN,NaN,-0.5510776,2.607697E-10,-2.398399E-07,-1.142244E-07,2.892906E-09,-2.622604E-08
287.361,0.04500333,-2.04377E-08,NaN,-0.3270002,-1.36138E-07,NaN,0.451049,-2.663351E-08,NaN,-2.178777,9.648757E-06,-0.3731641,-9.498133E-10,NaN,NaN,-0.5390052,2.654263E-10,-1.361278E-07,-1.142239E-07,1.004546E-08,-2.861022E-08
287.3766,0.04500333,-2.04377E-08,NaN,-0.3270002,-1.36138E-07,NaN,0.451049,-2.663351E-08,NaN,-2.178777,9.648757E-06,-0.3731641,-9.498133E-10,NaN,NaN,-0.5390052,2.654263E-10,-1.361278E-07,-1.142239E-07,1.004546E-08,-2.861022E-08
287.3919,0.04500331,-2.043668E-08,NaN,-0.3270002,-1.36138E-07,NaN,0.4499763,-2.66411E-08,NaN,-2.181562,9.64938E-06,-0.3739374,-9.40138E-10,NaN,NaN,-0.5271698,2.700829E-10,-5.327738E-08,-1.142233E-07,1.064151E-08,-2.622604E-08
287.4082,0.04500329,-2.043565E-08,NaN,-0.3270002,-1.36138E-07,NaN,0.4490913,-2.66485E-08,NaN,-2.183924,9.650004E-06,-0.3745862,-9.306552E-10,NaN,NaN,-0.5155665,2.747395E-10,1.385235E-08,-1.142228E-07,5.277092E-09,-2.861022E-08
287.424,0.04500326,-2.043462E-08,NaN,-0.3270002,-1.36138E-07,NaN,0.4483318,-2.665575E-08,NaN,-2.185349,9.650628E-06,-0.3750836,-9.213258E-10,NaN,NaN,-0.5041896,2.793961E-10,1.109334E-07,-1.142222E-07,6.469185E-09,-2.622604E-08
287.4396,0.04500326,-2.043462E-08,NaN,-0.3270002,-1.36138E-07,NaN,0.4483318,-2.665575E-08,NaN,-2.185349,9.650628E-06,-0.3750836,-9.213258E-10,NaN,NaN,-0.5041896,2.793961E-10,1.109334E-07,-1.142222E-07,6.469185E-09,-2.622604E-08
287.4547,0.04500323,-2.04336E-08,NaN,-0.3270001,-1.361379E-07,NaN,0.4467695,-2.666281E-08,NaN,-2.187701,9.651261E-06,-0.3760386,-9.121822E-10,NaN,NaN,-0.4897015,2.700829E-10,2.706739E-07,-1.142202E-07,7.065232E-09,-2.861022E-08
287.4708,0.04500319,-2.043257E-08,NaN,-0.3270001,-1.361375E-07,NaN,0.445616,-2.667128E-08,NaN,-2.188015,9.65189E-06,-0.3766834,-9.016309E-10,NaN,NaN,-0.4754966,2.654263E-10,4.424842E-07,-1.142193E-07,8.85337E-09,-2.622604E-08
287.487,0.04500315,-2.043154E-08,NaN,-0.3270001,-1.361373E-07,NaN,0.4446408,-2.667879E-08,NaN,-2.187219,9.652518E-06,-0.3771947,-8.920315E-10,NaN,NaN,-0.4615707,2.607697E-10,5.825551E-07,-1.142186E-07,1.898616E-08,-2.861022E-08
287.5024,0.04500312,-2.043052E-08,NaN,-0.3270001,-1.361371E-07,NaN,0.4437391,-2.668572E-08,NaN,-2.186167,9.653147E-06,-0.3776857,-8.830118E-10,NaN,NaN,-0.4479187,2.561131E-10,6.852241E-07,-1.14218E-07,1.600593E-08,-2.622604E-08
287.5187,0.04500312,-2.043052E-08,NaN,-0.3270001,-1.361371E-07,NaN,0.4437391,-2.668572E-08,NaN,-2.186167,9.653147E-06,-0.3776857,-8.830118E-10,NaN,NaN,-0.4479187,2.561131E-10,6.852241E-07,-1.14218E-07,1.600593E-08,-2.622604E-08
287.5337,0.04500308,-2.042949E-08,NaN,-0.327,-1.361366E-07,NaN,0.4419951,-2.662542E-08,NaN,-2.18728,9.653766E-06,-0.3787726,-9.412212E-10,NaN,NaN,-0.4312016,2.514565E-10,8.071156E-07,-1.142165E-07,1.719802E-08,-2.861022E-08
287.5503,0.04500305,-2.042847E-08,NaN,-0.327,-1.361358E-07,NaN,0.4406672,-2.66281E-08,NaN,-2.187395,9.654376E-06,-0.3796103,-9.364509E-10,NaN,NaN,-0.4148118,2.467999E-10,9.266229E-07,-1.142147E-07,1.18336E-08,-2.622604E-08
287.5659,0.04500301,-2.042744E-08,NaN,-0.327,-1.361347E-07,NaN,0.4395469,-2.666295E-08,NaN,-2.186955,9.654977E-06,-0.3803073,-8.994896E-10,NaN,NaN,-0.3987434,2.467999E-10,1.033315E-06,-1.142127E-07,1.18336E-08,-2.861022E-08
287.5815,0.04500298,-2.042642E-08,NaN,-0.3269999,-1.361335E-07,NaN,0.4385319,-2.671529E-08,NaN,-2.186379,9.655572E-06,-0.3809405,-8.450455E-10,NaN,NaN,-0.3829905,2.514565E-10,1.116762E-06,-1.142106E-07,9.449417E-09,-2.622604E-08
287.5976,0.04500298,-2.042642E-08,NaN,-0.3269999,-1.361335E-07,NaN,0.4385319,-2.671529E-08,NaN,-2.186379,9.655572E-06,-0.3809405,-8.450455E-10,NaN,NaN,-0.3829905,2.514565E-10,1.116762E-06,-1.142106E-07,9.449417E-09,-2.622604E-08
287.6126,0.04500294,-2.042539E-08,NaN,-0.3269999,-1.361322E-07,NaN,0.4366864,-2.677773E-08,NaN,-2.187838,9.656183E-06,-0.3821293,-7.804958E-10,NaN,NaN,-0.3642134,2.421432E-10,1.224348E-06,-1.142085E-07,9.449417E-09,-2.861022E-08
287.629,0.0450029,-2.042437E-08,NaN,-0.3269999,-1.361308E-07,NaN,0.4352648,-2.684302E-08,NaN,-2.188108,9.656793E-06,-0.383047,-7.130864E-10,NaN,NaN,-0.3458037,2.3283E-10,1.337895E-06,-1.142064E-07,1.421779E-08,-2.622604E-08
287.6449,0.04500286,-2.042334E-08,NaN,-0.3269998,-1.361295E-07,NaN,0.4340534,-2.691113E-08,NaN,-2.187672,9.657393E-06,-0.3838151,-6.428637E-10,NaN,NaN,-0.327755,2.3283E-10,1.435051E-06,-1.142043E-07,1.540988E-08,-2.861022E-08
287.6606,0.04500283,-2.042232E-08,NaN,-0.3269998,-1.361281E-07,NaN,0.4329494,-2.697917E-08,NaN,-2.187022,9.658003E-06,-0.3845147,-5.727019E-10,NaN,NaN,-0.3100607,2.235168E-10,1.509705E-06,-1.142022E-07,1.540988E-08,-2.622604E-08
287.6761,0.04500283,-2.042232E-08,NaN,-0.3269998,-1.361281E-07,NaN,0.4329494,-2.697917E-08,NaN,-2.187022,9.658003E-06,-0.3845147,-5.727019E-10,NaN,NaN,-0.3100607,2.235168E-10,1.509705E-06,-1.142022E-07,1.540988E-08,-2.622604E-08
287.6911,0.04500278,-2.042129E-08,NaN,-0.3269998,-1.361268E-07,NaN,0.431007,-2.704574E-08,NaN,-2.188391,9.658604E-06,-0.385775,-5.040083E-10,NaN,NaN,-0.2893804,2.235168E-10,1.598665E-06,-1.142E-07,8.257324E-09,-2.861022E-08
287.7075,0.04500274,-2.042027E-08,NaN,-0.3269998,-1.361254E-07,NaN,0.4294885,-2.711087E-08,NaN,-2.188597,9.659214E-06,-0.3867748,-4.367524E-10,NaN,NaN,-0.2691048,2.142036E-10,1.691649E-06,-1.141979E-07,4.681045E-09,-2.622604E-08
287.7234,0.0450027,-2.041924E-08,NaN,-0.3269997,-1.36124E-07,NaN,0.4281849,-2.717317E-08,NaN,-2.188128,9.659824E-06,-0.3876283,-3.723203E-10,NaN,NaN,-0.2492269,2.048903E-10,1.768837E-06,-1.141958E-07,4.681045E-09,-2.861022E-08
287.7405,0.04500266,-2.041822E-08,NaN,-0.3269997,-1.361226E-07,NaN,0.4269969,-2.723271E-08,NaN,-2.187469,9.660434E-06,-0.3884067,-3.106538E-10,NaN,NaN,-0.2297392,1.955771E-10,1.82412E-06,-1.141936E-07,4.681045E-09,-2.622604E-08
287.7554,0.04500266,-2.041822E-08,NaN,-0.3269997,-1.361226E-07,NaN,0.4269969,-2.723271E-08,NaN,-2.187469,9.660434E-06,-0.3884067,-3.106538E-10,NaN,NaN,-0.2297392,1.955771E-10,1.82412E-06,-1.141936E-07,4.681045E-09,-2.622604E-08
287.7699,0.04500262,-2.04172E-08,NaN,-0.3269997,-1.361213E-07,NaN,0.4256664,-2.728954E-08,NaN,-2.187375,9.661045E-06,-0.3892832,-2.516975E-10,NaN,NaN,-0.2098419,1.862639E-10,1.87076E-06,-1.141915E-07,3.488952E-09,-2.861022E-08
287.7866,0.04500259,-2.041617E-08,NaN,-0.3269996,-1.361199E-07,NaN,0.4244835,-2.734513E-08,NaN,-2.187169,9.661655E-06,-0.3900718,-1.939866E-10,NaN,NaN,-0.1903348,1.769506E-10,1.908013E-06,-1.141894E-07,3.488952E-09,-2.622604E-08
287.8022,0.04500256,-2.041515E-08,NaN,-0.3269996,-1.361185E-07,NaN,0.423394,-2.739807E-08,NaN,-2.18694,9.662265E-06,-0.3907995,-1.389105E-10,NaN,NaN,-0.1712102,1.676374E-10,1.935283E-06,-1.141873E-07,2.296859E-09,-2.861022E-08
287.8182,0.04500256,-2.041515E-08,NaN,-0.3269996,-1.361185E-07,NaN,0.423394,-2.739807E-08,NaN,-2.18694,9.662265E-06,-0.3907995,-1.389105E-10,NaN,NaN,-0.1712102,1.676374E-10,1.935283E-06,-1.141873E-07,2.296859E-09,-2.861022E-08
287.8333,0.04500252,-2.041413E-08,NaN,-0.3269996,-1.361172E-07,NaN,0.4223719,-2.744844E-08,NaN,-2.186743,9.662876E-06,-0.391482,-8.641614E-11,NaN,NaN,-0.1524607,1.583242E-10,1.955697E-06,-1.141852E-07,8.257324E-09,-2.622604E-08
287.8498,0.04500249,-2.04131E-08,NaN,-0.3269995,-1.361158E-07,NaN,0.421405,-2.749627E-08,NaN,-2.186591,9.663486E-06,-0.3921276,-3.645475E-11,NaN,NaN,-0.1340789,1.490109E-10,1.968363E-06,-1.141832E-07,8.257324E-09,-2.861022E-08
287.8659,0.04500246,-2.041208E-08,NaN,-0.3269995,-1.361145E-07,NaN,0.4204872,-2.754162E-08,NaN,-2.186476,9.664082E-06,-0.3927404,1.102769E-11,NaN,NaN,-0.1160576,1.490109E-10,1.974473E-06,-1.141811E-07,7.065231E-09,-2.622604E-08
287.8817,0.04500243,-2.041106E-08,NaN,-0.3269995,-1.361131E-07,NaN,0.4196153,-2.758454E-08,NaN,-2.18638,9.664677E-06,-0.3933228,5.607837E-11,NaN,NaN,-0.09838964,1.490109E-10,1.975814E-06,-1.14179E-07,9.449417E-09,-2.861022E-08
287.8971,0.04500243,-2.041106E-08,NaN,-0.3269995,-1.361131E-07,NaN,0.4196153,-2.758454E-08,NaN,-2.18638,9.664677E-06,-0.3933228,5.607837E-11,NaN,NaN,-0.09838964,1.490109E-10,1.975814E-06,-1.14179E-07,9.449417E-09,-2.861022E-08
287.912,0.04500241,-2.041003E-08,NaN,-0.3269995,-1.361118E-07,NaN,0.4190085,-2.762508E-08,NaN,-2.185837,9.665273E-06,-0.3937305,9.874675E-11,NaN,NaN,-0.08186026,1.490109E-10,1.96881E-06,-1.14177E-07,1.421779E-08,-2.622604E-08
287.9286,0.04500239,-2.040901E-08,NaN,-0.3269995,-1.361105E-07,NaN,0.41836,-2.766328E-08,NaN,-2.185615,9.665869E-06,-0.3941522,1.3908E-10,NaN,NaN,-0.06565525,1.490109E-10,1.955399E-06,-1.141749E-07,1.064151E-08,-2.861022E-08
287.9442,0.04500236,-2.040799E-08,NaN,-0.3269995,-1.361091E-07,NaN,0.4177121,-2.77006E-08,NaN,-2.185592,9.666464E-06,-0.3945711,1.785333E-10,NaN,NaN,-0.04976801,1.490109E-10,1.938561E-06,-1.141729E-07,9.449417E-09,-2.622604E-08
287.9604,0.04500234,-2.040696E-08,NaN,-0.3269995,-1.361078E-07,NaN,0.4170837,-2.773565E-08,NaN,-2.185638,9.66707E-06,-0.3949798,2.157157E-10,NaN,NaN,-0.03419224,1.396977E-10,1.91904E-06,-1.141708E-07,9.449417E-09,-2.861022E-08
287.9759,0.04500234,-2.040696E-08,NaN,-0.3269995,-1.361078E-07,NaN,0.4170837,-2.773565E-08,NaN,-2.185638,9.66707E-06,-0.3949798,2.157157E-10,NaN,NaN,-0.03419224,1.396977E-10,1.91904E-06,-1.141708E-07,9.449417E-09,-2.861022E-08
287.9909,0.04500233,-2.040594E-08,NaN,-0.3269995,-1.361065E-07,NaN,0.4174181,-2.776847E-08,NaN,-2.183756,9.667666E-06,-0.3947573,2.506665E-10,NaN,NaN,-0.02225493,1.396977E-10,1.894752E-06,-1.141688E-07,5.873138E-09,-2.622604E-08
288.0072,0.04500232,-2.040492E-08,NaN,-0.3269995,-1.361052E-07,NaN,0.4174364,-2.779911E-08,NaN,-2.183184,9.668262E-06,-0.3946716,2.834333E-10,NaN,NaN,-0.01055264,1.396977E-10,1.856307E-06,-1.141668E-07,3.488953E-09,-2.861022E-08
288.0231,0.04500231,-2.040389E-08,NaN,-0.3269995,-1.361038E-07,NaN,0.4173132,-2.78276E-08,NaN,-2.183423,9.668857E-06,-0.3946689,3.140577E-10,NaN,NaN,0.0009201542,1.396977E-10,1.815477E-06,-1.141647E-07,5.873138E-09,-2.622604E-08
288.0384,0.04500231,-2.040389E-08,NaN,-0.3269995,-1.361038E-07,NaN,0.4173132,-2.78276E-08,NaN,-2.183423,9.668857E-06,-0.3946689,3.140577E-10,NaN,NaN,0.0009201542,1.396977E-10,1.815477E-06,-1.141647E-07,5.873138E-09,-2.622604E-08
288.0536,0.0450023,-2.040287E-08,NaN,-0.3269995,-1.361025E-07,NaN,0.4171302,-2.785399E-08,NaN,-2.183932,9.669453E-06,-0.3947254,3.425823E-10,NaN,NaN,0.01216829,1.396977E-10,1.781205E-06,-1.141627E-07,5.873138E-09,-2.861022E-08
288.0701,0.04500229,-2.040185E-08,NaN,-0.3269995,-1.361012E-07,NaN,0.4178628,-2.787832E-08,NaN,-2.182448,9.670059E-06,-0.394204,3.690463E-10,NaN,NaN,0.01986306,1.303845E-10,1.748944E-06,-1.141607E-07,4.681046E-09,-2.622604E-08
288.0861,0.04500229,-2.040083E-08,NaN,-0.3269995,-1.360995E-07,NaN,0.4182595,-2.80048E-08,NaN,-2.182105,9.670654E-06,-0.3938332,4.976596E-10,NaN,NaN,0.02740618,1.303845E-10,1.705432E-06,-1.141597E-07,5.873138E-09,-2.861022E-08
288.1014,0.04500229,-2.039981E-08,NaN,-0.3269995,-1.360978E-07,NaN,0.4184963,-2.811318E-08,NaN,-2.182417,9.67125E-06,-0.3935626,6.081775E-10,NaN,NaN,0.03480138,1.303845E-10,1.663038E-06,-1.141587E-07,7.065231E-09,-2.622604E-08
288.1176,0.04500229,-2.039981E-08,NaN,-0.3269995,-1.360978E-07,NaN,0.4184963,-2.811318E-08,NaN,-2.182417,9.67125E-06,-0.3935626,6.081775E-10,NaN,NaN,0.03480138,1.303845E-10,1.663038E-06,-1.141587E-07,7.065231E-09,-2.622604E-08
288.1325,0.04500229,-2.039878E-08,NaN,-0.3269995,-1.360962E-07,NaN,0.4186578,-2.821084E-08,NaN,-2.182909,9.671846E-06,-0.3933652,7.079859E-10,NaN,NaN,0.04205183,1.303845E-10,1.624892E-06,-1.141577E-07,7.065231E-09,-2.861022E-08
288.1492,0.04500229,-2.039776E-08,NaN,-0.3269995,-1.360946E-07,NaN,0.419719,-2.830224E-08,NaN,-2.181379,9.672442E-06,-0.3926019,8.015263E-10,NaN,NaN,0.04582725,1.303845E-10,1.594046E-06,-1.141568E-07,7.065231E-09,-2.622604E-08
288.1648,0.04500229,-2.039674E-08,NaN,-0.3269995,-1.36093E-07,NaN,0.4204241,-2.83889E-08,NaN,-2.180762,9.673037E-06,-0.3920166,8.903254E-10,NaN,NaN,0.04952814,1.303845E-10,1.557091E-06,-1.141559E-07,7.065231E-09,-2.861022E-08
288.1805,0.04500229,-2.039572E-08,NaN,-0.3269995,-1.360915E-07,NaN,0.4209541,-2.847232E-08,NaN,-2.180578,9.673633E-06,-0.3915511,9.758878E-10,NaN,NaN,0.05315651,1.303845E-10,1.520434E-06,-1.14155E-07,7.065231E-09,-2.622604E-08
288.1964,0.04500229,-2.039572E-08,NaN,-0.3269995,-1.360915E-07,NaN,0.4209541,-2.847232E-08,NaN,-2.180578,9.673633E-06,-0.3915511,9.758878E-10,NaN,NaN,0.05315651,1.303845E-10,1.520434E-06,-1.14155E-07,7.065231E-09,-2.622604E-08
288.2115,0.04500229,-2.03947E-08,NaN,-0.3269995,-1.360899E-07,NaN,0.4214084,-2.855256E-08,NaN,-2.180594,9.674229E-06,-0.3911451,1.058273E-09,NaN,NaN,0.05671376,1.303845E-10,1.483927E-06,-1.141541E-07,4.681045E-09,-2.861022E-08
288.2296,0.0450023,-2.039368E-08,NaN,-0.3269995,-1.360884E-07,NaN,0.4227544,-2.862968E-08,NaN,-2.178788,9.67482E-06,-0.3901605,1.137541E-09,NaN,NaN,0.0568682,1.350411E-10,1.452411E-06,-1.141533E-07,4.681045E-09,-2.622604E-08
288.2437,0.04500231,-2.039266E-08,NaN,-0.3269995,-1.360869E-07,NaN,0.4237101,-2.870375E-08,NaN,-2.177683,9.675416E-06,-0.3894105,1.213753E-09,NaN,NaN,0.05701953,1.350411E-10,1.420448E-06,-1.141524E-07,1.104767E-09,-2.861022E-08
288.2597,0.04500231,-2.039266E-08,NaN,-0.3269995,-1.360869E-07,NaN,0.4237101,-2.870375E-08,NaN,-2.177683,9.675416E-06,-0.3894105,1.213753E-09,NaN,NaN,0.05701953,1.350411E-10,1.420448E-06,-1.141524E-07,1.104767E-09,-2.861022E-08
288.2743,0.04500232,-2.039164E-08,NaN,-0.3269995,-1.360853E-07,NaN,0.4244857,-2.877623E-08,NaN,-2.176925,9.676011E-06,-0.3887839,1.288382E-09,NaN,NaN,0.05716785,1.350411E-10,1.388038E-06,-1.141515E-07,1.104767E-09,-2.622604E-08
288.2911,0.04500232,-2.039061E-08,NaN,-0.3269995,-1.360838E-07,NaN,0.425179,-2.884575E-08,NaN,-2.176339,9.676603E-06,-0.3882186,1.360047E-09,NaN,NaN,0.05731326,1.396977E-10,1.355404E-06,-1.141506E-07,1.104767E-09,-2.861022E-08
288.3066,0.04500233,-2.038959E-08,NaN,-0.3269995,-1.360823E-07,NaN,0.4267452,-2.891378E-08,NaN,-2.173926,9.677198E-06,-0.3870883,1.430218E-09,NaN,NaN,0.05412272,1.396977E-10,1.327688E-06,-1.141497E-07,4.681045E-09,-2.622604E-08
288.3224,0.04500234,-2.038857E-08,NaN,-0.3269995,-1.360808E-07,NaN,0.4279138,-2.898034E-08,NaN,-2.172227,9.677794E-06,-0.3861972,1.498925E-09,NaN,NaN,0.05099467,1.396977E-10,1.298854E-06,-1.141489E-07,-8.732615E-11,-2.861022E-08
288.3382,0.04500234,-2.038857E-08,NaN,-0.3269995,-1.360808E-07,NaN,0.4279138,-2.898034E-08,NaN,-2.172227,9.677794E-06,-0.3861972,1.498925E-09,NaN,NaN,0.05099467,1.396977E-10,1.298854E-06,-1.141489E-07,-8.732615E-11,-2.861022E-08
288.3535,0.04500235,-2.038755E-08,NaN,-0.3269995,-1.360793E-07,NaN,0.4288938,-2.904547E-08,NaN,-2.170892,9.67839E-06,-0.3854354,1.566196E-09,NaN,NaN,0.04792789,1.396977E-10,1.270691E-06,-1.14148E-07,-1.279419E-09,-2.622604E-08
288.3698,0.04500236,-2.038654E-08,NaN,-0.3269995,-1.360778E-07,NaN,0.4297825,-2.910777E-08,NaN,-2.169748,9.678985E-06,-0.3847414,1.630646E-09,NaN,NaN,0.04492124,1.396977E-10,1.242081E-06,-1.141471E-07,-1.279419E-09,-2.861022E-08
288.3857,0.04500238,-2.038552E-08,NaN,-0.3269995,-1.360763E-07,NaN,0.4315226,-2.916872E-08,NaN,-2.166795,9.679581E-06,-0.3835016,1.693743E-09,NaN,NaN,0.03864045,1.396977E-10,1.216898E-06,-1.141463E-07,1.104767E-09,-2.622604E-08
288.4013,0.0450024,-2.03845E-08,NaN,-0.3269995,-1.360748E-07,NaN,0.4328601,-2.922835E-08,NaN,-2.164578,9.680177E-06,-0.3825046,1.755514E-09,NaN,NaN,0.03248273,1.396977E-10,1.189554E-06,-1.141454E-07,-2.471512E-09,-2.861022E-08
288.4172,0.0450024,-2.03845E-08,NaN,-0.3269995,-1.360748E-07,NaN,0.4328601,-2.922835E-08,NaN,-2.164578,9.680177E-06,-0.3825046,1.755514E-09,NaN,NaN,0.03248273,1.396977E-10,1.189554E-06,-1.141454E-07,-2.471512E-09,-2.861022E-08
288.4323,0.04500242,-2.038348E-08,NaN,-0.3269995,-1.360733E-07,NaN,0.4340021,-2.928526E-08,NaN,-2.162746,9.680773E-06,-0.3816419,1.81457E-09,NaN,NaN,0.0264457,1.396977E-10,1.161838E-06,-1.141446E-07,-1.279419E-09,-2.622604E-08
