JMolnar6/NonAnthroHands_User_Study/HandsLoggerWithURDF/tempdata/files/Reachy_PID0_JointMotion_gesture_13_62.csv
Time,r_shoulder,r_shoulder_x,r_upper_arm,r_forearm,r_wrist,r_wrist2hand,
870.0677,-0.2233556,2.577246E-09,NaN,-0.4518521,-1.32058E-07,NaN,-0.0177746,-5.283607E-07,NaN,-0.6565289,2.357277E-05,0.01213258,1.483215E-07,NaN,NaN,0.1808288,-4.191074E-11,-6.024504E-07,-1.098715E-07,-7.971713E-09,-2.861022E-08
870.0814,-0.2238813,2.577877E-09,NaN,-0.4502602,-1.320571E-07,NaN,-0.0164544,-5.283135E-07,NaN,-0.6539642,2.357313E-05,0.01466469,1.482756E-07,NaN,NaN,0.1799995,-3.259751E-11,-6.000662E-07,-1.098706E-07,-2.011249E-09,-2.622604E-08
870.0976,-0.2238813,2.577877E-09,NaN,-0.4502602,-1.320571E-07,NaN,-0.0164544,-5.283135E-07,NaN,-0.6539642,2.357313E-05,0.01466469,1.482756E-07,NaN,NaN,0.1799995,-3.259751E-11,-6.000662E-07,-1.098706E-07,-2.011249E-09,-2.622604E-08
870.1101,-0.2244139,2.578509E-09,NaN,-0.4486467,-1.320561E-07,NaN,-0.0150382,-5.282643E-07,NaN,-0.6513846,2.35735E-05,0.01722742,1.482276E-07,NaN,NaN,0.1791864,-3.259751E-11,-5.976821E-07,-1.098697E-07,-2.011249E-09,-2.861022E-08
870.1265,-0.2249483,2.57914E-09,NaN,-0.447027,-1.320552E-07,NaN,-0.01352916,-5.28216E-07,NaN,-0.6488215,2.357387E-05,0.01974387,1.481805E-07,NaN,NaN,0.1783894,-2.79409E-11,-5.941058E-07,-1.098688E-07,-3.203342E-09,-2.622604E-08
870.1404,-0.2254484,2.579771E-09,NaN,-0.4455155,-1.320543E-07,NaN,-0.01164457,-5.281657E-07,NaN,-0.6468132,2.357424E-05,0.02149782,1.481315E-07,NaN,NaN,0.1779221,-2.328429E-11,-5.947018E-07,-1.09868E-07,-6.77962E-09,-2.861022E-08
870.1549,-0.2254484,2.579771E-09,NaN,-0.4455155,-1.320543E-07,NaN,-0.01164457,-5.281657E-07,NaN,-0.6468132,2.357424E-05,0.02149782,1.481315E-07,NaN,NaN,0.1779221,-2.328429E-11,-5.947018E-07,-1.09868E-07,-6.77962E-09,-2.861022E-08
870.1692,-0.2259253,2.580403E-09,NaN,-0.4440772,-1.320534E-07,NaN,-0.009733152,-5.281164E-07,NaN,-0.6449581,2.357462E-05,0.02290077,1.480835E-07,NaN,NaN,0.177464,-2.79409E-11,-5.887413E-07,-1.098671E-07,-1.393218E-08,-2.622604E-08
870.1843,-0.2263857,2.581034E-09,NaN,-0.4426903,-1.320525E-07,NaN,-0.007913932,-5.280652E-07,NaN,-0.6431908,2.357499E-05,0.02417312,1.480335E-07,NaN,NaN,0.1770148,-3.259751E-11,-5.815888E-07,-1.098662E-07,-1.274009E-08,-2.861022E-08
870.1987,-0.2263857,2.581034E-09,NaN,-0.4426903,-1.320525E-07,NaN,-0.007913932,-5.280652E-07,NaN,-0.6431908,2.357499E-05,0.02417312,1.480335E-07,NaN,NaN,0.1770148,-3.259751E-11,-5.815888E-07,-1.098662E-07,-1.274009E-08,-2.861022E-08
870.2126,-0.2268008,2.581665E-09,NaN,-0.4414459,-1.320517E-07,NaN,-0.005882955,-5.280149E-07,NaN,-0.6420039,2.357537E-05,0.02470361,1.479844E-07,NaN,NaN,0.1768886,-3.725413E-11,-5.792046E-07,-1.098654E-07,-1.870055E-08,-2.622604E-08
870.2282,-0.2271861,2.582296E-09,NaN,-0.4402947,-1.320508E-07,NaN,-0.003947064,-5.279627E-07,NaN,-0.640974,2.357574E-05,0.02493176,1.479334E-07,NaN,NaN,0.1767648,-3.259751E-11,-5.690718E-07,-1.098645E-07,-1.750846E-08,-2.861022E-08
870.2427,-0.2275513,2.582927E-09,NaN,-0.4392061,-1.320499E-07,NaN,-0.002183492,-5.279114E-07,NaN,-0.6400254,2.357611E-05,0.02507714,1.478834E-07,NaN,NaN,0.1766434,-3.725413E-11,-5.601311E-07,-1.098637E-07,-1.512427E-08,-2.622604E-08
870.2575,-0.2275513,2.582927E-09,NaN,-0.4392061,-1.320499E-07,NaN,-0.002183492,-5.279114E-07,NaN,-0.6400254,2.357611E-05,0.02507714,1.478834E-07,NaN,NaN,0.1766434,-3.725413E-11,-5.601311E-07,-1.098637E-07,-1.512427E-08,-2.622604E-08
870.2714,-0.2279025,2.583558E-09,NaN,-0.4381608,-1.32049E-07,NaN,-0.0005733115,-5.278583E-07,NaN,-0.6391218,2.357648E-05,0.02521532,1.478315E-07,NaN,NaN,0.1765244,-3.259751E-11,-5.505944E-07,-1.098628E-07,-1.393218E-08,-2.861022E-08
870.287,-0.2282104,2.584188E-09,NaN,-0.4372514,-1.320481E-07,NaN,0.001240783,-5.278061E-07,NaN,-0.638771,2.357686E-05,0.02467368,1.477806E-07,NaN,NaN,0.1767219,-3.725413E-11,-5.416537E-07,-1.09862E-07,-1.274009E-08,-2.622604E-08
870.3016,-0.2284901,2.584819E-09,NaN,-0.4364299,-1.320472E-07,NaN,0.002964938,-5.27752E-07,NaN,-0.6385564,2.357722E-05,0.02386467,1.477278E-07,NaN,NaN,0.1769155,-3.259751E-11,-5.303289E-07,-1.098611E-07,-1.393218E-08,-2.861022E-08
870.3163,-0.2284901,2.584819E-09,NaN,-0.4364299,-1.320472E-07,NaN,0.002964938,-5.27752E-07,NaN,-0.6385564,2.357722E-05,0.02386467,1.477278E-07,NaN,NaN,0.1769155,-3.259751E-11,-5.303289E-07,-1.098611E-07,-1.393218E-08,-2.861022E-08
870.3303,-0.228751,2.58545E-09,NaN,-0.4356661,-1.320464E-07,NaN,0.004523637,-5.27699E-07,NaN,-0.6384056,2.35776E-05,0.02299623,1.476759E-07,NaN,NaN,0.1771052,-3.725413E-11,-5.160238E-07,-1.098603E-07,-1.512427E-08,-2.622604E-08
870.3458,-0.2289993,2.586081E-09,NaN,-0.4349414,-1.320455E-07,NaN,0.005933807,-5.276441E-07,NaN,-0.6382843,2.357797E-05,0.02213979,1.476223E-07,NaN,NaN,0.1772912,-3.259751E-11,-5.046989E-07,-1.098594E-07,-1.393218E-08,-2.861022E-08
870.3606,-0.2292055,2.586711E-09,NaN,-0.4343485,-1.320446E-07,NaN,0.007549504,-5.275902E-07,NaN,-0.6387016,2.357834E-05,0.02062332,1.475696E-07,NaN,NaN,0.1777878,-3.725413E-11,-4.963542E-07,-1.098586E-07,-1.03559E-08,-2.622604E-08
870.3751,-0.2292055,2.586711E-09,NaN,-0.4343485,-1.320446E-07,NaN,0.007549504,-5.275902E-07,NaN,-0.6387016,2.357834E-05,0.02062332,1.475696E-07,NaN,NaN,0.1777878,-3.725413E-11,-4.963542E-07,-1.098586E-07,-1.03559E-08,-2.622604E-08
870.3915,-0.2293846,2.587342E-09,NaN,-0.4338396,-1.320437E-07,NaN,0.009074712,-5.275345E-07,NaN,-0.6392411,2.357871E-05,0.01885781,1.475152E-07,NaN,NaN,0.1782746,-3.259751E-11,-4.80857E-07,-1.098578E-07,-1.154799E-08,-2.861022E-08
870.4047,-0.2295462,2.587972E-09,NaN,-0.4333846,-1.320429E-07,NaN,0.0104323,-5.274798E-07,NaN,-0.6398307,2.357909E-05,0.01705065,1.474617E-07,NaN,NaN,0.1787518,-3.725413E-11,-4.647638E-07,-1.098569E-07,-1.750846E-08,-2.622604E-08
870.4196,-0.2295462,2.587972E-09,NaN,-0.4333846,-1.320429E-07,NaN,0.0104323,-5.274798E-07,NaN,-0.6398307,2.357909E-05,0.01705065,1.474617E-07,NaN,NaN,0.1787518,-3.725413E-11,-4.647638E-07,-1.098569E-07,-1.750846E-08,-2.622604E-08
870.4335,-0.229663,2.588603E-09,NaN,-0.4330696,-1.32042E-07,NaN,0.01195265,-5.274262E-07,NaN,-0.6409616,2.357946E-05,0.01458414,1.474092E-07,NaN,NaN,0.1795338,-3.259751E-11,-4.522468E-07,-1.098561E-07,-1.393218E-08,-2.861022E-08
870.4488,-0.2297515,2.589233E-09,NaN,-0.4328424,-1.320411E-07,NaN,0.01334403,-5.273706E-07,NaN,-0.6422087,2.357983E-05,0.01188654,1.473549E-07,NaN,NaN,0.1803005,-3.725413E-11,-4.355575E-07,-1.098553E-07,-2.227683E-08,-2.622604E-08
870.4633,-0.2298219,2.589863E-09,NaN,-0.4326703,-1.320403E-07,NaN,0.01453831,-5.273161E-07,NaN,-0.643496,2.35802E-05,0.009169828,1.473017E-07,NaN,NaN,0.1810521,-3.259751E-11,-4.194642E-07,-1.098545E-07,-1.870055E-08,-2.861022E-08
870.478,-0.2298219,2.589863E-09,NaN,-0.4326703,-1.320403E-07,NaN,0.01453831,-5.273161E-07,NaN,-0.643496,2.35802E-05,0.009169828,1.473017E-07,NaN,NaN,0.1810521,-3.259751E-11,-4.194642E-07,-1.098545E-07,-1.870055E-08,-2.861022E-08
870.4919,-0.2298806,2.590494E-09,NaN,-0.432533,-1.320394E-07,NaN,0.01555998,-5.272598E-07,NaN,-0.6447881,2.358057E-05,0.006505055,1.472466E-07,NaN,NaN,0.1817889,-2.79409E-11,-4.009868E-07,-1.098536E-07,-1.989264E-08,-2.622604E-08
870.5076,-0.2298988,2.591124E-09,NaN,-0.4325223,-1.320386E-07,NaN,0.01675901,-5.272045E-07,NaN,-0.6465937,2.358093E-05,0.003221843,1.471925E-07,NaN,NaN,0.1828255,-2.328429E-11,-3.878738E-07,-1.098528E-07,-1.870055E-08,-2.861022E-08
870.5222,-0.2298927,2.591754E-09,NaN,-0.4325888,-1.320377E-07,NaN,0.01784802,-5.271474E-07,NaN,-0.6484953,2.358131E-05,-0.000272708,1.471366E-07,NaN,NaN,0.1838418,-2.79409E-11,-3.670121E-07,-1.09852E-07,-1.989264E-08,-2.622604E-08
870.5371,-0.2298927,2.591754E-09,NaN,-0.4325888,-1.320377E-07,NaN,0.01784802,-5.271474E-07,NaN,-0.6484953,2.358131E-05,-0.000272708,1.471366E-07,NaN,NaN,0.1838418,-2.79409E-11,-3.670121E-07,-1.09852E-07,-1.989264E-08,-2.622604E-08
870.5511,-0.2298715,2.592384E-09,NaN,-0.4327025,-1.320369E-07,NaN,0.01875382,-5.270913E-07,NaN,-0.6504218,2.358168E-05,-0.003773248,1.470818E-07,NaN,NaN,0.1848381,-2.328429E-11,-3.485347E-07,-1.098512E-07,-1.631637E-08,-2.861022E-08
870.5679,-0.2298409,2.593014E-09,NaN,-0.4328448,-1.32036E-07,NaN,0.01949507,-5.270335E-07,NaN,-0.65234,2.358206E-05,-0.007209976,1.470252E-07,NaN,NaN,0.1858148,-2.79409E-11,-3.306533E-07,-1.098504E-07,-1.870055E-08,-2.622604E-08
870.5815,-0.2297716,2.593644E-09,NaN,-0.4331089,-1.320352E-07,NaN,0.02040762,-5.269767E-07,NaN,-0.6547593,2.358242E-05,-0.01125111,1.469697E-07,NaN,NaN,0.1870866,-2.328429E-11,-3.181363E-07,-1.098496E-07,-1.631637E-08,-2.861022E-08
870.5961,-0.2297716,2.593644E-09,NaN,-0.4331089,-1.320352E-07,NaN,0.02040762,-5.269767E-07,NaN,-0.6547593,2.358242E-05,-0.01125111,1.469697E-07,NaN,NaN,0.1870866,-2.328429E-11,-3.181363E-07,-1.098496E-07,-1.631637E-08,-2.861022E-08
870.6102,-0.2296782,2.594274E-09,NaN,-0.4334469,-1.320343E-07,NaN,0.02120724,-5.269182E-07,NaN,-0.6572636,2.35828E-05,-0.01549271,1.469124E-07,NaN,NaN,0.1883334,-2.79409E-11,-3.002549E-07,-1.098488E-07,-1.512427E-08,-2.622604E-08
870.6256,-0.2295703,2.594904E-09,NaN,-0.4338289,-1.320335E-07,NaN,0.02181927,-5.268607E-07,NaN,-0.6597815,2.358317E-05,-0.01972665,1.468562E-07,NaN,NaN,0.1895558,-2.328429E-11,-2.799893E-07,-1.09848E-07,-5.587529E-09,-2.861022E-08
870.6415,-0.2294537,2.595534E-09,NaN,-0.4342365,-1.320327E-07,NaN,0.02226244,-5.268015E-07,NaN,-0.6622802,2.358354E-05,-0.02388247,1.467982E-07,NaN,NaN,0.1907542,-2.79409E-11,-2.603198E-07,-1.098472E-07,-7.971714E-09,-2.622604E-08
870.6553,-0.2294537,2.595534E-09,NaN,-0.4342365,-1.320327E-07,NaN,0.02226244,-5.268015E-07,NaN,-0.6622802,2.358354E-05,-0.02388247,1.467982E-07,NaN,NaN,0.1907542,-2.79409E-11,-2.603198E-07,-1.098472E-07,-7.971714E-09,-2.622604E-08
870.6694,-0.2292991,2.596164E-09,NaN,-0.4347625,-1.320318E-07,NaN,0.02286091,-5.267433E-07,NaN,-0.6652687,2.358391E-05,-0.02862671,1.467413E-07,NaN,NaN,0.1922433,-2.328429E-11,-2.454186E-07,-1.098464E-07,-7.971714E-09,-2.861022E-08
870.6849,-0.2291216,2.596793E-09,NaN,-0.4353593,-1.32031E-07,NaN,0.02333825,-5.266863E-07,NaN,-0.6683307,2.358429E-05,-0.03355843,1.466854E-07,NaN,NaN,0.1937032,-2.79409E-11,-2.257491E-07,-1.098456E-07,-4.395435E-09,-2.622604E-08
870.6992,-0.2291216,2.596793E-09,NaN,-0.4353593,-1.32031E-07,NaN,0.02333825,-5.266863E-07,NaN,-0.6683307,2.358429E-05,-0.03355843,1.466854E-07,NaN,NaN,0.1937032,-2.79409E-11,-2.257491E-07,-1.098456E-07,-4.395435E-09,-2.622604E-08
870.7131,-0.2289304,2.597423E-09,NaN,-0.435997,-1.320302E-07,NaN,0.02362159,-5.266274E-07,NaN,-0.6713958,2.358465E-05,-0.03846826,1.466278E-07,NaN,NaN,0.1951344,-2.328429E-11,-2.036954E-07,-1.098448E-07,-7.971714E-09,-2.861022E-08
870.7287,-0.2286984,2.598052E-09,NaN,-0.4367617,-1.320294E-07,NaN,0.02400647,-5.265697E-07,NaN,-0.6749542,2.358503E-05,-0.0439682,1.465713E-07,NaN,NaN,0.1968517,-2.79409E-11,-1.876022E-07,-1.09844E-07,-7.971714E-09,-2.622604E-08
870.7432,-0.2284421,2.598682E-09,NaN,-0.4376013,-1.320285E-07,NaN,0.02422817,-5.265102E-07,NaN,-0.6785818,2.35854E-05,-0.04964122,1.46513E-07,NaN,NaN,0.1985354,-2.79409E-11,-1.631642E-07,-1.098432E-07,-1.154799E-08,-2.861022E-08
870.7579,-0.2284421,2.598682E-09,NaN,-0.4376013,-1.320285E-07,NaN,0.02422817,-5.265102E-07,NaN,-0.6785818,2.35854E-05,-0.04964122,1.46513E-07,NaN,NaN,0.1985354,-2.79409E-11,-1.631642E-07,-1.098432E-07,-1.154799E-08,-2.861022E-08
870.772,-0.2281717,2.599311E-09,NaN,-0.4384832,-1.320277E-07,NaN,0.02422537,-5.264517E-07,NaN,-0.6822043,2.358578E-05,-0.05527227,1.464559E-07,NaN,NaN,0.2001861,-2.79409E-11,-1.387263E-07,-1.098424E-07,-1.154799E-08,-2.622604E-08
870.7874,-0.2278935,2.59994E-09,NaN,-0.4393872,-1.320269E-07,NaN,0.02402849,-5.263916E-07,NaN,-0.685788,2.358615E-05,-0.06079113,1.463969E-07,NaN,NaN,0.2018045,-2.79409E-11,-1.160766E-07,-1.098417E-07,-1.03559E-08,-2.861022E-08
870.8022,-0.2275788,2.60057E-09,NaN,-0.4404055,-1.320261E-07,NaN,0.0239427,-5.263325E-07,NaN,-0.6898398,2.358652E-05,-0.06686405,1.463391E-07,NaN,NaN,0.2037051,-2.79409E-11,-9.581099E-08,-1.098409E-07,-1.154799E-08,-2.622604E-08
870.817,-0.2275788,2.60057E-09,NaN,-0.4404055,-1.320261E-07,NaN,0.0239427,-5.263325E-07,NaN,-0.6898398,2.358652E-05,-0.06686405,1.463391E-07,NaN,NaN,0.2037051,-2.79409E-11,-9.581099E-08,-1.098409E-07,-1.154799E-08,-2.622604E-08
870.8308,-0.2272425,2.601199E-09,NaN,-0.4414895,-1.320253E-07,NaN,0.0237138,-5.262718E-07,NaN,-0.6939439,2.35869E-05,-0.07309711,1.462796E-07,NaN,NaN,0.2055686,-2.79409E-11,-7.316122E-08,-1.098401E-07,-7.971714E-09,-2.861022E-08
870.8464,-0.2268943,2.601828E-09,NaN,-0.4426091,-1.320245E-07,NaN,0.02327604,-5.262121E-07,NaN,-0.6980308,2.358727E-05,-0.07927904,1.462212E-07,NaN,NaN,0.2073956,-2.79409E-11,-4.693518E-08,-1.098393E-07,-1.03559E-08,-2.622604E-08
870.861,-0.2265402,2.602457E-09,NaN,-0.4437457,-1.320236E-07,NaN,0.0226551,-5.261535E-07,NaN,-0.7020688,2.358764E-05,-0.08534022,1.461639E-07,NaN,NaN,0.2091868,-2.79409E-11,-2.517949E-08,-1.098386E-07,-1.154799E-08,-2.861022E-08
870.876,-0.2265402,2.602457E-09,NaN,-0.4437457,-1.320236E-07,NaN,0.0226551,-5.261535E-07,NaN,-0.7020688,2.358764E-05,-0.08534022,1.461639E-07,NaN,NaN,0.2091868,-2.79409E-11,-2.517949E-08,-1.098386E-07,-1.154799E-08,-2.861022E-08
870.8898,-0.2261508,2.603086E-09,NaN,-0.4449922,-1.320228E-07,NaN,0.02213418,-5.260932E-07,NaN,-0.7065643,2.358801E-05,-0.09194566,1.461048E-07,NaN,NaN,0.2112569,-2.79409E-11,-7.00007E-09,-1.098378E-07,-6.77962E-09,-2.622604E-08
870.9064,-0.225741,2.603715E-09,NaN,-0.4463009,-1.32022E-07,NaN,0.02146835,-5.260341E-07,NaN,-0.7111028,2.358839E-05,-0.0987035,1.460468E-07,NaN,NaN,0.2132865,-2.79409E-11,1.266946E-08,-1.09837E-07,-5.587528E-09,-2.861022E-08
870.92,-0.2253204,2.604345E-09,NaN,-0.4476418,-1.320212E-07,NaN,0.02059321,-5.259731E-07,NaN,-0.7156155,2.358876E-05,-0.1053995,1.459872E-07,NaN,NaN,0.2152764,-2.79409E-11,3.949155E-08,-1.098363E-07,-5.587528E-09,-2.622604E-08
870.9348,-0.2253204,2.604345E-09,NaN,-0.4476418,-1.320212E-07,NaN,0.02059321,-5.259731E-07,NaN,-0.7156155,2.358876E-05,-0.1053995,1.459872E-07,NaN,NaN,0.2152764,-2.79409E-11,3.949155E-08,-1.098363E-07,-5.587528E-09,-2.622604E-08
870.9489,-0.2248617,2.604974E-09,NaN,-0.4491013,-1.320204E-07,NaN,0.01976167,-5.259133E-07,NaN,-0.7205897,2.358913E-05,-0.1126434,1.459286E-07,NaN,NaN,0.2175413,-2.79409E-11,5.707492E-08,-1.098355E-07,-7.971714E-09,-2.861022E-08
870.9637,-0.2243813,2.605602E-09,NaN,-0.4506271,-1.320197E-07,NaN,0.01874528,-5.258518E-07,NaN,-0.7256038,2.358951E-05,-0.1200266,1.458683E-07,NaN,NaN,0.2197619,-2.79409E-11,7.942666E-08,-1.098348E-07,-7.971714E-09,-2.622604E-08
870.9785,-0.2243813,2.605602E-09,NaN,-0.4506271,-1.320197E-07,NaN,0.01874528,-5.258518E-07,NaN,-0.7256038,2.358951E-05,-0.1200266,1.458683E-07,NaN,NaN,0.2197619,-2.79409E-11,7.942666E-08,-1.098348E-07,-7.971714E-09,-2.622604E-08
870.9926,-0.2238895,2.606231E-09,NaN,-0.4521869,-1.320189E-07,NaN,0.01749316,-5.257916E-07,NaN,-0.7305856,2.358988E-05,-0.1273289,1.458093E-07,NaN,NaN,0.221939,-2.79409E-11,1.044606E-07,-1.09834E-07,-1.154799E-08,-2.861022E-08
871.0078,-0.2233926,2.60686E-09,NaN,-0.4537605,-1.320181E-07,NaN,0.0160432,-5.257324E-07,NaN,-0.7355032,2.359025E-05,-0.1344807,1.457514E-07,NaN,NaN,0.2240734,-2.328429E-11,1.297926E-07,-1.098333E-07,-9.163807E-09,-2.622604E-08
871.0227,-0.2228616,2.607489E-09,NaN,-0.4554403,-1.320173E-07,NaN,0.01465022,-5.256715E-07,NaN,-0.7408587,2.359062E-05,-0.1421487,1.456917E-07,NaN,NaN,0.22648,-2.328429E-11,1.497601E-07,-1.098325E-07,-8.191572E-10,-2.861022E-08
871.0373,-0.2228616,2.607489E-09,NaN,-0.4554403,-1.320173E-07,NaN,0.01465022,-5.256715E-07,NaN,-0.7408587,2.359062E-05,-0.1421487,1.456917E-07,NaN,NaN,0.22648,-2.328429E-11,1.497601E-07,-1.098325E-07,-8.191572E-10,-2.861022E-08
871.0533,-0.2223116,2.608117E-09,NaN,-0.4571778,-1.320165E-07,NaN,0.01309773,-5.256118E-07,NaN,-0.7462396,2.359099E-05,-0.1499465,1.456332E-07,NaN,NaN,0.2288395,-2.328429E-11,1.724099E-07,-1.098318E-07,-8.191572E-10,-2.622604E-08
871.0667,-0.2217522,2.608746E-09,NaN,-0.4589429,-1.320157E-07,NaN,0.01133058,-5.255503E-07,NaN,-0.7515784,2.359136E-05,-0.1576567,1.455729E-07,NaN,NaN,0.2311528,-2.328429E-11,1.974439E-07,-1.09831E-07,-5.587529E-09,-2.861022E-08
871.0815,-0.2211894,2.609374E-09,NaN,-0.4607172,-1.320149E-07,NaN,0.009381869,-5.254899E-07,NaN,-0.7568451,2.359174E-05,-0.1652101,1.455138E-07,NaN,NaN,0.2334208,-2.328429E-11,2.221798E-07,-1.098303E-07,-4.395436E-09,-2.622604E-08
871.0963,-0.2211894,2.609374E-09,NaN,-0.4607172,-1.320149E-07,NaN,0.009381869,-5.254899E-07,NaN,-0.7568451,2.359174E-05,-0.1652101,1.455138E-07,NaN,NaN,0.2334208,-2.328429E-11,2.221798E-07,-1.098303E-07,-4.395436E-09,-2.622604E-08
871.1102,-0.2205935,2.610003E-09,NaN,-0.4625937,-1.320142E-07,NaN,0.007479929,-5.254307E-07,NaN,-0.7625403,2.359211E-05,-0.1732734,1.454558E-07,NaN,NaN,0.2359582,-2.328429E-11,2.406572E-07,-1.098295E-07,-3.203343E-09,-2.861022E-08
871.1258,-0.2199798,2.610631E-09,NaN,-0.4645247,-1.320134E-07,NaN,0.005420769,-5.253697E-07,NaN,-0.7682536,2.359248E-05,-0.1814605,1.45396E-07,NaN,NaN,0.2384461,-2.328429E-11,2.659892E-07,-1.098288E-07,-8.191574E-10,-2.622604E-08
871.1404,-0.2193575,2.61126E-09,NaN,-0.4664803,-1.320126E-07,NaN,0.003151992,-5.253098E-07,NaN,-0.7739184,2.359286E-05,-0.1895509,1.453374E-07,NaN,NaN,0.2408852,-2.328429E-11,2.922152E-07,-1.098281E-07,2.757121E-09,-2.861022E-08
871.1552,-0.2193575,2.61126E-09,NaN,-0.4664803,-1.320126E-07,NaN,0.003151992,-5.253098E-07,NaN,-0.7739184,2.359286E-05,-0.1895509,1.453374E-07,NaN,NaN,0.2408852,-2.328429E-11,2.922152E-07,-1.098281E-07,2.757121E-09,-2.861022E-08
871.1703,-0.2186994,2.611888E-09,NaN,-0.4685471,-1.320118E-07,NaN,0.0008727962,-5.252483E-07,NaN,-0.7800162,2.359323E-05,-0.1981556,1.452771E-07,NaN,NaN,0.2435905,-2.328429E-11,3.14269E-07,-1.098274E-07,6.3334E-09,-2.622604E-08
871.1849,-0.2180219,2.612516E-09,NaN,-0.4706727,-1.320111E-07,NaN,-0.001599546,-5.251878E-07,NaN,-0.7861305,2.35936E-05,-0.2068706,1.452179E-07,NaN,NaN,0.2462429,-2.328429E-11,3.396009E-07,-1.098266E-07,8.717585E-09,-2.861022E-08
871.1993,-0.2180219,2.612516E-09,NaN,-0.4706727,-1.320111E-07,NaN,-0.001599546,-5.251878E-07,NaN,-0.7861305,2.35936E-05,-0.2068706,1.452179E-07,NaN,NaN,0.2462429,-2.328429E-11,3.396009E-07,-1.098266E-07,8.717585E-09,-2.861022E-08
871.2136,-0.2173353,2.613145E-09,NaN,-0.472825,-1.320103E-07,NaN,-0.00430186,-5.251257E-07,NaN,-0.7921919,2.359398E-05,-0.2154699,1.45157E-07,NaN,NaN,0.2488434,-2.328429E-11,3.673171E-07,-1.098259E-07,8.717585E-09,-2.622604E-08
871.2284,-0.2166459,2.613773E-09,NaN,-0.474984,-1.320095E-07,NaN,-0.007187992,-5.250647E-07,NaN,-0.7981697,2.359435E-05,-0.2238851,1.450973E-07,NaN,NaN,0.2513928,-2.328429E-11,3.941392E-07,-1.098252E-07,3.949213E-09,-2.861022E-08
871.2431,-0.2159244,2.614401E-09,NaN,-0.4772421,-1.320088E-07,NaN,-0.01006487,-5.250049E-07,NaN,-0.8045586,2.359472E-05,-0.2327882,1.450387E-07,NaN,NaN,0.2542062,-2.328429E-11,4.129147E-07,-1.098245E-07,3.729348E-10,-2.622604E-08
871.2578,-0.2159244,2.614401E-09,NaN,-0.4772421,-1.320088E-07,NaN,-0.01006487,-5.250049E-07,NaN,-0.8045586,2.359472E-05,-0.2327882,1.450387E-07,NaN,NaN,0.2542062,-2.328429E-11,4.129147E-07,-1.098245E-07,3.729348E-10,-2.622604E-08
871.2718,-0.2151862,2.615029E-09,NaN,-0.4795508,-1.32008E-07,NaN,-0.0131037,-5.249433E-07,NaN,-0.8109519,2.35951E-05,-0.2417945,1.449784E-07,NaN,NaN,0.2569646,-3.259751E-11,4.394387E-07,-1.098237E-07,3.729348E-10,-2.861022E-08
871.2872,-0.2144407,2.615657E-09,NaN,-0.4818802,-1.320073E-07,NaN,-0.01634588,-5.248829E-07,NaN,-0.8172844,2.359548E-05,-0.2506805,1.449192E-07,NaN,NaN,0.259669,-3.259751E-11,4.698371E-07,-1.09823E-07,-2.011251E-09,-2.622604E-08
871.3019,-0.2136939,2.616285E-09,NaN,-0.4842119,-1.320065E-07,NaN,-0.01975048,-5.248207E-07,NaN,-0.8235278,2.359585E-05,-0.2593781,1.448583E-07,NaN,NaN,0.2623204,-3.259751E-11,4.975533E-07,-1.098223E-07,-8.191581E-10,-2.861022E-08
871.3172,-0.2136939,2.616285E-09,NaN,-0.4842119,-1.320065E-07,NaN,-0.01975048,-5.248207E-07,NaN,-0.8235278,2.359585E-05,-0.2593781,1.448583E-07,NaN,NaN,0.2623204,-3.259751E-11,4.975533E-07,-1.098223E-07,-8.191581E-10,-2.861022E-08
871.3306,-0.212916,2.616914E-09,NaN,-0.4866392,-1.320058E-07,NaN,-0.02315436,-5.247597E-07,NaN,-0.8301739,2.359622E-05,-0.2685607,1.447985E-07,NaN,NaN,0.2652335,-3.259751E-11,5.160308E-07,-1.098216E-07,-5.58753E-09,-2.622604E-08
871.3459,-0.2121223,2.617542E-09,NaN,-0.4891141,-1.32005E-07,NaN,-0.02671384,-5.246999E-07,NaN,-0.8368191,2.359659E-05,-0.2778413,1.447399E-07,NaN,NaN,0.2680899,-3.259751E-11,5.422568E-07,-1.098209E-07,-3.203344E-09,-2.861022E-08
871.3605,-0.2113221,2.61817E-09,NaN,-0.4916072,-1.320042E-07,NaN,-0.03046631,-5.246383E-07,NaN,-0.8433993,2.359696E-05,-0.2869931,1.446796E-07,NaN,NaN,0.2708903,-2.79409E-11,5.71314E-07,-1.098202E-07,-5.58753E-09,-2.622604E-08
871.3755,-0.2113221,2.61817E-09,NaN,-0.4916072,-1.320042E-07,NaN,-0.03046631,-5.246383E-07,NaN,-0.8433993,2.359696E-05,-0.2869931,1.446796E-07,NaN,NaN,0.2708903,-2.79409E-11,5.71314E-07,-1.098202E-07,-5.58753E-09,-2.622604E-08
871.3896,-0.2104878,2.618798E-09,NaN,-0.4942049,-1.320035E-07,NaN,-0.03427457,-5.245779E-07,NaN,-0.8503872,2.359733E-05,-0.296634,1.446204E-07,NaN,NaN,0.2739496,-2.79409E-11,5.942618E-07,-1.098195E-07,-3.203344E-09,-2.861022E-08
871.405,-0.2096362,2.619426E-09,NaN,-0.496855,-1.320028E-07,NaN,-0.03826931,-5.245158E-07,NaN,-0.8573745,2.35977E-05,-0.3063576,1.445595E-07,NaN,NaN,0.2769492,-2.328429E-11,6.204879E-07,-1.098188E-07,-5.58753E-09,-2.622604E-08
871.4198,-0.2096362,2.619426E-09,NaN,-0.496855,-1.320028E-07,NaN,-0.03826931,-5.245158E-07,NaN,-0.8573745,2.35977E-05,-0.3063576,1.445595E-07,NaN,NaN,0.2769492,-2.328429E-11,6.204879E-07,-1.098188E-07,-5.58753E-09,-2.622604E-08
871.4357,-0.2087775,2.620053E-09,NaN,-0.4995253,-1.32002E-07,NaN,-0.04247075,-5.244548E-07,NaN,-0.8642943,2.359808E-05,-0.3159331,1.444997E-07,NaN,NaN,0.27989,-2.328429E-11,6.492471E-07,-1.098181E-07,-1.03559E-08,-2.861022E-08
871.4493,-0.2079181,2.620681E-09,NaN,-0.5021961,-1.320013E-07,NaN,-0.04682522,-5.243949E-07,NaN,-0.8711175,2.359845E-05,-0.3252953,1.444411E-07,NaN,NaN,0.2827732,-2.328429E-11,6.760692E-07,-1.098174E-07,-4.395437E-09,-2.622604E-08
871.4637,-0.2070281,2.621309E-09,NaN,-0.5049597,-1.320005E-07,NaN,-0.05121039,-5.243334E-07,NaN,-0.8783278,2.359882E-05,-0.3351261,1.443807E-07,NaN,NaN,0.2859135,-2.328429E-11,6.960368E-07,-1.098167E-07,-4.395437E-09,-2.861022E-08
871.4785,-0.2070281,2.621309E-09,NaN,-0.5049597,-1.320005E-07,NaN,-0.05121039,-5.243334E-07,NaN,-0.8783278,2.359882E-05,-0.3351261,1.443807E-07,NaN,NaN,0.2859135,-2.328429E-11,6.960368E-07,-1.098167E-07,-4.395437E-09,-2.861022E-08
871.4922,-0.2061233,2.621936E-09,NaN,-0.5077679,-1.319998E-07,NaN,-0.05574686,-5.242729E-07,NaN,-0.8855277,2.359919E-05,-0.3450345,1.443215E-07,NaN,NaN,0.2889926,-2.328429E-11,7.237529E-07,-1.09816E-07,1.565027E-09,-2.622604E-08
871.5076,-0.2052132,2.622564E-09,NaN,-0.5105906,-1.319991E-07,NaN,-0.06045986,-5.242108E-07,NaN,-0.8926542,2.359957E-05,-0.3547918,1.442606E-07,NaN,NaN,0.2920114,-2.328429E-11,7.522141E-07,-1.098153E-07,-8.191585E-10,-2.861022E-08
871.5223,-0.2043037,2.623191E-09,NaN,-0.5134097,-1.319983E-07,NaN,-0.06530151,-5.241498E-07,NaN,-0.8996803,2.359994E-05,-0.364333,1.442009E-07,NaN,NaN,0.2949709,-2.328429E-11,7.805264E-07,-1.098146E-07,-2.011251E-09,-2.622604E-08
871.5383,-0.2043037,2.623191E-09,NaN,-0.5134097,-1.319983E-07,NaN,-0.06530151,-5.241498E-07,NaN,-0.8996803,2.359994E-05,-0.364333,1.442009E-07,NaN,NaN,0.2949709,-2.328429E-11,7.805264E-07,-1.098146E-07,-2.011251E-09,-2.622604E-08
871.5509,-0.2033646,2.623819E-09,NaN,-0.5163185,-1.319976E-07,NaN,-0.07018172,-5.2409E-07,NaN,-0.9070857,2.360031E-05,-0.3743434,1.441422E-07,NaN,NaN,0.2981862,-2.328429E-11,8.01239E-07,-1.098139E-07,-6.779623E-09,-2.861022E-08
871.5663,-0.2024114,2.624446E-09,NaN,-0.5192691,-1.319969E-07,NaN,-0.07520414,-5.240284E-07,NaN,-0.9144776,2.360069E-05,-0.3844252,1.440819E-07,NaN,NaN,0.3013387,-2.328429E-11,8.26869E-07,-1.098133E-07,-5.58753E-09,-2.622604E-08
871.5811,-0.2014536,2.625074E-09,NaN,-0.5222321,-1.319962E-07,NaN,-0.08038895,-5.23968E-07,NaN,-0.9217939,2.360106E-05,-0.3943479,1.440227E-07,NaN,NaN,0.3044294,-2.328429E-11,8.53393E-07,-1.098126E-07,-3.203345E-09,-2.861022E-08
871.5956,-0.2014536,2.625074E-09,NaN,-0.5222321,-1.319962E-07,NaN,-0.08038895,-5.23968E-07,NaN,-0.9217939,2.360106E-05,-0.3943479,1.440227E-07,NaN,NaN,0.3044294,-2.328429E-11,8.53393E-07,-1.098126E-07,-3.203345E-09,-2.861022E-08
871.6098,-0.2004633,2.625701E-09,NaN,-0.5252939,-1.319954E-07,NaN,-0.08566728,-5.239086E-07,NaN,-0.9294952,2.360143E-05,-0.4047423,1.439646E-07,NaN,NaN,0.3077733,-2.328429E-11,8.72243E-07,-1.098119E-07,-1.03559E-08,-2.622604E-08
871.6252,-0.1994572,2.626328E-09,NaN,-0.5284026,-1.319947E-07,NaN,-0.09111335,-5.238476E-07,NaN,-0.9371853,2.36018E-05,-0.4151903,1.439048E-07,NaN,NaN,0.3110518,-2.328429E-11,8.991396E-07,-1.098112E-07,-7.971716E-09,-2.861022E-08
871.64,-0.1984459,2.626956E-09,NaN,-0.5315258,-1.31994E-07,NaN,-0.09672932,-5.237877E-07,NaN,-0.944799,2.360218E-05,-0.4254596,1.438461E-07,NaN,NaN,0.3142662,-2.328429E-11,9.247323E-07,-1.098106E-07,-1.214404E-08,-2.622604E-08
871.6547,-0.1984459,2.626956E-09,NaN,-0.5315258,-1.31994E-07,NaN,-0.09672932,-5.237877E-07,NaN,-0.944799,2.360218E-05,-0.4254596,1.438461E-07,NaN,NaN,0.3142662,-2.328429E-11,9.247323E-07,-1.098106E-07,-1.214404E-08,-2.622604E-08
871.6686,-0.1974357,2.627583E-09,NaN,-0.534644,-1.319933E-07,NaN,-0.1024559,-5.23726E-07,NaN,-0.9523082,2.360256E-05,-0.4354903,1.437857E-07,NaN,NaN,0.3174175,-3.259751E-11,9.519642E-07,-1.098099E-07,-1.870055E-08,-2.861022E-08
871.6841,-0.1963963,2.62821E-09,NaN,-0.5378497,-1.319926E-07,NaN,-0.1082484,-5.236656E-07,NaN,-0.9601827,2.360293E-05,-0.4459791,1.437264E-07,NaN,NaN,0.3208207,-3.259751E-11,9.701064E-07,-1.098092E-07,-2.168078E-08,-2.622604E-08
871.6998,-0.1963963,2.62821E-09,NaN,-0.5378497,-1.319926E-07,NaN,-0.1082484,-5.236656E-07,NaN,-0.9601827,2.360293E-05,-0.4459791,1.437264E-07,NaN,NaN,0.3208207,-3.259751E-11,9.701064E-07,-1.098092E-07,-2.168078E-08,-2.622604E-08
871.7137,-0.1953437,2.628837E-09,NaN,-0.5410944,-1.319919E-07,NaN,-0.1141725,-5.236062E-07,NaN,-0.968038,2.36033E-05,-0.4565175,1.436682E-07,NaN,NaN,0.3241574,-3.259751E-11,9.98549E-07,-1.098086E-07,-1.870055E-08,-2.861022E-08
871.728,-0.1942874,2.629464E-09,NaN,-0.5443485,-1.319912E-07,NaN,-0.1202354,-5.235451E-07,NaN,-0.9758126,2.360367E-05,-0.4668754,1.436084E-07,NaN,NaN,0.3274288,-2.79409E-11,1.027937E-06,-1.098079E-07,-1.154799E-08,-2.622604E-08
871.7428,-0.1932335,2.630091E-09,NaN,-0.5475938,-1.319904E-07,NaN,-0.1263841,-5.234851E-07,NaN,-0.9834801,2.360405E-05,-0.4769938,1.435496E-07,NaN,NaN,0.330636,-2.79409E-11,1.051844E-06,-1.098072E-07,-1.393218E-08,-2.861022E-08
871.7574,-0.1932335,2.630091E-09,NaN,-0.5475938,-1.319904E-07,NaN,-0.1263841,-5.234851E-07,NaN,-0.9834801,2.360405E-05,-0.4769938,1.435496E-07,NaN,NaN,0.330636,-2.79409E-11,1.051844E-06,-1.098072E-07,-1.393218E-08,-2.861022E-08
871.7715,-0.1921512,2.630719E-09,NaN,-0.5509235,-1.319897E-07,NaN,-0.1326074,-5.234234E-07,NaN,-0.9915056,2.360442E-05,-0.4875728,1.434892E-07,NaN,NaN,0.334094,-2.79409E-11,1.067546E-06,-1.098066E-07,-1.393218E-08,-2.622604E-08
871.7866,-0.1910564,2.631346E-09,NaN,-0.55429,-1.31989E-07,NaN,-0.1389519,-5.233629E-07,NaN,-0.9995108,2.360479E-05,-0.4981939,1.434298E-07,NaN,NaN,0.3374845,-2.79409E-11,1.093884E-06,-1.098059E-07,-1.095195E-08,-2.861022E-08
871.8012,-0.1899586,2.631972E-09,NaN,-0.5576638,-1.319883E-07,NaN,-0.1454189,-5.233035E-07,NaN,-1.007435,2.360516E-05,-0.5086268,1.433717E-07,NaN,NaN,0.3408085,-2.79409E-11,1.117651E-06,-1.098053E-07,-1.03559E-08,-2.622604E-08
871.8158,-0.1899586,2.631972E-09,NaN,-0.5576638,-1.319883E-07,NaN,-0.1454189,-5.233035E-07,NaN,-1.007435,2.360516E-05,-0.5086268,1.433717E-07,NaN,NaN,0.3408085,-2.79409E-11,1.117651E-06,-1.098053E-07,-1.03559E-08,-2.622604E-08
871.8298,-0.1888294,2.632599E-09,NaN,-0.5611315,-1.319876E-07,NaN,-0.1520131,-5.232423E-07,NaN,-1.015723,2.360554E-05,-0.5195201,1.433117E-07,NaN,NaN,0.3443811,-2.79409E-11,1.133894E-06,-1.098046E-07,-1.393218E-08,-2.861022E-08
871.8452,-0.1876861,2.633226E-09,NaN,-0.5646409,-1.319873E-07,NaN,-0.1587484,-5.234793E-07,NaN,-1.023995,2.360591E-05,-0.530435,1.435499E-07,NaN,NaN,0.3478839,-2.79409E-11,1.159375E-06,-1.098037E-07,-1.750846E-08,-2.622604E-08
871.86,-0.1876861,2.633226E-09,NaN,-0.5646409,-1.319873E-07,NaN,-0.1587484,-5.234793E-07,NaN,-1.023995,2.360591E-05,-0.530435,1.435499E-07,NaN,NaN,0.3478839,-2.79409E-11,1.159375E-06,-1.098037E-07,-1.750846E-08,-2.622604E-08
871.8739,-0.1865391,2.633852E-09,NaN,-0.5681601,-1.31987E-07,NaN,-0.1656085,-5.236946E-07,NaN,-1.032187,2.360629E-05,-0.5411426,1.437665E-07,NaN,NaN,0.351318,-2.79409E-11,1.184408E-06,-1.098027E-07,-7.375667E-09,-2.861022E-08
871.8893,-0.1853947,2.634478E-09,NaN,-0.5716694,-1.319868E-07,NaN,-0.1725311,-5.238944E-07,NaN,-1.04027,2.360667E-05,-0.5515921,1.439674E-07,NaN,NaN,0.3546848,-2.79409E-11,1.210336E-06,-1.098018E-07,-7.971714E-09,-2.622604E-08
871.9042,-0.1842224,2.635104E-09,NaN,-0.5752615,-1.319865E-07,NaN,-0.1795546,-5.240817E-07,NaN,-1.048698,2.360704E-05,-0.5624949,1.441559E-07,NaN,NaN,0.3582991,-2.79409E-11,1.22181E-06,-1.098009E-07,-6.779621E-09,-2.861022E-08
871.9191,-0.1842224,2.635104E-09,NaN,-0.5752615,-1.319865E-07,NaN,-0.1795546,-5.240817E-07,NaN,-1.048698,2.360704E-05,-0.5624949,1.441559E-07,NaN,NaN,0.3582991,-2.79409E-11,1.22181E-06,-1.098009E-07,-6.779621E-09,-2.861022E-08
871.9329,-0.1830382,2.63573E-09,NaN,-0.5788879,-1.319863E-07,NaN,-0.1866846,-5.242596E-07,NaN,-1.057103,2.360741E-05,-0.5734155,1.443351E-07,NaN,NaN,0.361843,-1.862768E-11,1.244609E-06,-1.098E-07,-9.759853E-09,-2.622604E-08
871.9483,-0.181852,2.636356E-09,NaN,-0.5825191,-1.319861E-07,NaN,-0.1939094,-5.244311E-07,NaN,-1.065424,2.360779E-05,-0.5841284,1.445078E-07,NaN,NaN,0.3653173,-1.862768E-11,1.266961E-06,-1.097991E-07,-1.512427E-08,-2.861022E-08
871.9639,-0.1806695,2.636982E-09,NaN,-0.5861367,-1.319859E-07,NaN,-0.2011734,-5.245964E-07,NaN,-1.073635,2.360816E-05,-0.594584,1.446743E-07,NaN,NaN,0.3687236,-1.862768E-11,1.289909E-06,-1.097983E-07,-1.095195E-08,-2.622604E-08
871.978,-0.1806695,2.636982E-09,NaN,-0.5861367,-1.319859E-07,NaN,-0.2011734,-5.245964E-07,NaN,-1.073635,2.360816E-05,-0.594584,1.446743E-07,NaN,NaN,0.3687236,-1.862768E-11,1.289909E-06,-1.097983E-07,-1.095195E-08,-2.622604E-08
871.9918,-0.1794597,2.637608E-09,NaN,-0.5898345,-1.319856E-07,NaN,-0.2085491,-5.247556E-07,NaN,-1.082184,2.360854E-05,-0.6054964,1.448347E-07,NaN,NaN,0.3723766,-1.862768E-11,1.30019E-06,-1.097974E-07,-1.274009E-08,-2.861022E-08
872.0083,-0.1782388,2.638234E-09,NaN,-0.5935644,-1.319854E-07,NaN,-0.2160204,-5.249087E-07,NaN,-1.09071,2.360892E-05,-0.6164172,1.44989E-07,NaN,NaN,0.3759584,-1.862768E-11,1.321797E-06,-1.097965E-07,-1.005788E-08,-2.622604E-08
872.0218,-0.1770163,2.63886E-09,NaN,-0.5972973,-1.319852E-07,NaN,-0.2235693,-5.250588E-07,NaN,-1.099153,2.360929E-05,-0.627124,1.451403E-07,NaN,NaN,0.3794699,-1.862768E-11,1.343553E-06,-1.097957E-07,-4.097413E-09,-2.861022E-08
872.0364,-0.1770163,2.63886E-09,NaN,-0.5972973,-1.319852E-07,NaN,-0.2235693,-5.250588E-07,NaN,-1.099153,2.360929E-05,-0.627124,1.451403E-07,NaN,NaN,0.3794699,-1.862768E-11,1.343553E-06,-1.097957E-07,-4.097413E-09,-2.861022E-08
872.0507,-0.1757635,2.639486E-09,NaN,-0.6011196,-1.31985E-07,NaN,-0.2312789,-5.25203E-07,NaN,-1.107942,2.360967E-05,-0.6382837,1.452857E-07,NaN,NaN,0.3832262,-1.862768E-11,1.354431E-06,-1.097948E-07,-2.90532E-09,-2.622604E-08
872.0657,-0.1744978,2.640112E-09,NaN,-0.6049793,-1.319848E-07,NaN,-0.2390982,-5.253443E-07,NaN,-1.116714,2.361005E-05,-0.6494299,1.454283E-07,NaN,NaN,0.3869092,-1.862768E-11,1.376037E-06,-1.09794E-07,-7.077645E-09,-2.861022E-08
872.0802,-0.1732299,2.640738E-09,NaN,-0.6088445,-1.319846E-07,NaN,-0.246993,-5.254828E-07,NaN,-1.125405,2.361042E-05,-0.6603453,1.45568E-07,NaN,NaN,0.39052,-1.862768E-11,1.394366E-06,-1.097931E-07,-5.885552E-09,-2.622604E-08
872.0948,-0.1732299,2.640738E-09,NaN,-0.6088445,-1.319846E-07,NaN,-0.246993,-5.254828E-07,NaN,-1.125405,2.361042E-05,-0.6603453,1.45568E-07,NaN,NaN,0.39052,-1.862768E-11,1.394366E-06,-1.097931E-07,-5.885552E-09,-2.622604E-08
872.1091,-0.1719661,2.641364E-09,NaN,-0.6126955,-1.319844E-07,NaN,-0.2549017,-5.256157E-07,NaN,-1.133984,2.361079E-05,-0.6709902,1.457021E-07,NaN,NaN,0.39406,-9.314452E-12,1.414482E-06,-1.097923E-07,-3.203344E-09,-2.861022E-08
872.1244,-0.1706753,2.64199E-09,NaN,-0.6166252,-1.319842E-07,NaN,-0.2629494,-5.257459E-07,NaN,-1.142889,2.361117E-05,-0.6820859,1.458335E-07,NaN,NaN,0.3978441,-9.314452E-12,1.421933E-06,-1.097914E-07,-2.458286E-09,-2.622604E-08
872.139,-0.1706753,2.64199E-09,NaN,-0.6166252,-1.319842E-07,NaN,-0.2629494,-5.257459E-07,NaN,-1.142889,2.361117E-05,-0.6820859,1.458335E-07,NaN,NaN,0.3978441,-9.314452E-12,1.421933E-06,-1.097914E-07,-2.458286E-09,-2.622604E-08
872.1532,-0.1693738,2.642615E-09,NaN,-0.6205851,-1.31984E-07,NaN,-0.2710756,-5.258707E-07,NaN,-1.151772,2.361154E-05,-0.6931641,1.459595E-07,NaN,NaN,0.4015544,-9.314452E-12,1.437132E-06,-1.097906E-07,-1.117181E-09,-2.861022E-08
872.1686,-0.1680717,2.643241E-09,NaN,-0.6245456,-1.319838E-07,NaN,-0.2792497,-5.25993E-07,NaN,-1.160571,2.361192E-05,-0.704013,1.46083E-07,NaN,NaN,0.405192,-9.314452E-12,1.455311E-06,-1.097897E-07,-1.415204E-09,-2.622604E-08
872.1832,-0.1667748,2.643867E-09,NaN,-0.6284887,-1.319836E-07,NaN,-0.2874168,-5.261099E-07,NaN,-1.169256,2.36123E-05,-0.7145946,1.462011E-07,NaN,NaN,0.4087583,-9.314452E-12,1.470511E-06,-1.097889E-07,-2.90532E-09,-2.861022E-08
872.1982,-0.1667748,2.643867E-09,NaN,-0.6284887,-1.319836E-07,NaN,-0.2874168,-5.261099E-07,NaN,-1.169256,2.36123E-05,-0.7145946,1.462011E-07,NaN,NaN,0.4087583,-9.314452E-12,1.470511E-06,-1.097889E-07,-2.90532E-09,-2.861022E-08
872.212,-0.1654513,2.644493E-09,NaN,-0.6325079,-1.319834E-07,NaN,-0.2957366,-5.262245E-07,NaN,-1.178261,2.361268E-05,-0.7256289,1.463169E-07,NaN,NaN,0.4125684,-1.397106E-11,1.471107E-06,-1.097881E-07,-1.013238E-08,-2.622604E-08
872.2293,-0.1641179,2.645118E-09,NaN,-0.6365553,-1.319832E-07,NaN,-0.3041233,-5.263367E-07,NaN,-1.187246,2.361305E-05,-0.7366355,1.464304E-07,NaN,NaN,0.416304,-1.397106E-11,1.484816E-06,-1.097872E-07,-8.120727E-09,-2.861022E-08
872.2429,-0.1627843,2.645744E-09,NaN,-0.6406018,-1.31983E-07,NaN,-0.3125408,-5.26444E-07,NaN,-1.196146,2.361343E-05,-0.7474097,1.465388E-07,NaN,NaN,0.4199664,-1.397106E-11,1.494352E-06,-1.097864E-07,-8.865785E-09,-2.622604E-08
872.2566,-0.1627843,2.645744E-09,NaN,-0.6406018,-1.31983E-07,NaN,-0.3125408,-5.26444E-07,NaN,-1.196146,2.361343E-05,-0.7474097,1.465388E-07,NaN,NaN,0.4199664,-1.397106E-11,1.494352E-06,-1.097864E-07,-8.865785E-09,-2.622604E-08
872.2706,-0.1614211,2.64637E-09,NaN,-0.6447339,-1.319828E-07,NaN,-0.3211551,-5.265489E-07,NaN,-1.205375,2.361381E-05,-0.7586288,1.46645E-07,NaN,NaN,0.4238707,-1.397106E-11,1.498823E-06,-1.097856E-07,-1.039315E-08,-2.861022E-08
872.2859,-0.1600463,2.646996E-09,NaN,-0.6488996,-1.319826E-07,NaN,-0.3298445,-5.26649E-07,NaN,-1.21459,2.361418E-05,-0.7697994,1.467463E-07,NaN,NaN,0.4276987,-1.397106E-11,1.51134E-06,-1.097848E-07,-8.53051E-09,-2.622604E-08
872.3004,-0.1586706,2.647621E-09,NaN,-0.6530668,-1.319824E-07,NaN,-0.3385593,-5.26747E-07,NaN,-1.223723,2.361456E-05,-0.7807255,1.468455E-07,NaN,NaN,0.4314516,-1.397106E-11,1.519982E-06,-1.09784E-07,-1.303811E-08,-2.861022E-08
872.3149,-0.1586706,2.647621E-09,NaN,-0.6530668,-1.319824E-07,NaN,-0.3385593,-5.26747E-07,NaN,-1.223723,2.361456E-05,-0.7807255,1.468455E-07,NaN,NaN,0.4314516,-1.397106E-11,1.519982E-06,-1.09784E-07,-1.303811E-08,-2.861022E-08
872.3288,-0.1573004,2.648247E-09,NaN,-0.6572163,-1.319822E-07,NaN,-0.3472427,-5.268431E-07,NaN,-1.232743,2.361494E-05,-0.7913786,1.469428E-07,NaN,NaN,0.435131,-1.397106E-11,1.527731E-06,-1.097831E-07,-9.089304E-09,-2.622604E-08
872.3441,-0.1559038,2.648873E-09,NaN,-0.6614408,-1.31982E-07,NaN,-0.3561085,-5.269343E-07,NaN,-1.242071,2.361531E-05,-0.8024747,1.470353E-07,NaN,NaN,0.4390518,-1.397106E-11,1.527433E-06,-1.097823E-07,-7.152153E-09,-2.861022E-08
872.3588,-0.1559038,2.648873E-09,NaN,-0.6614408,-1.31982E-07,NaN,-0.3561085,-5.269343E-07,NaN,-1.242071,2.361531E-05,-0.8024747,1.470353E-07,NaN,NaN,0.4390518,-1.397106E-11,1.527433E-06,-1.097823E-07,-7.152153E-09,-2.861022E-08
872.3729,-0.1544978,2.649498E-09,NaN,-0.6656919,-1.319818E-07,NaN,-0.3650215,-5.270237E-07,NaN,-1.25138,2.361569E-05,-0.8135188,1.471259E-07,NaN,NaN,0.442896,-1.397106E-11,1.535778E-06,-1.097815E-07,-8.493257E-09,-2.622604E-08
872.3883,-0.1530923,2.650124E-09,NaN,-0.66994,-1.319816E-07,NaN,-0.3739356,-5.271085E-07,NaN,-1.260605,2.361606E-05,-0.8243229,1.472118E-07,NaN,NaN,0.4466649,-4.657839E-12,1.543228E-06,-1.097807E-07,-5.215001E-09,-2.861022E-08
872.403,-0.1516934,2.650749E-09,NaN,-0.6741671,-1.319803E-07,NaN,-0.3828004,-5.25295E-07,NaN,-1.269714,2.361643E-05,-0.83486,1.45305E-07,NaN,NaN,0.4503599,4.655386E-12,1.547103E-06,-1.097817E-07,-5.364013E-09,-2.622604E-08
872.418,-0.1516934,2.650749E-09,NaN,-0.6741671,-1.319803E-07,NaN,-0.3828004,-5.25295E-07,NaN,-1.269714,2.361643E-05,-0.83486,1.45305E-07,NaN,NaN,0.4503599,4.655386E-12,1.547103E-06,-1.097817E-07,-5.364013E-09,-2.622604E-08
872.4317,-0.1502686,2.651374E-09,NaN,-0.6784669,-1.319789E-07,NaN,-0.3918638,-5.234816E-07,NaN,-1.279125,2.36168E-05,-0.8458372,1.433324E-07,NaN,NaN,0.4542961,9.311999E-12,1.54144E-06,-1.09783E-07,-2.979827E-09,-2.861022E-08
872.447,-0.1488348,2.652E-09,NaN,-0.6827915,-1.319776E-07,NaN,-0.4009621,-5.216682E-07,NaN,-1.28852,2.361718E-05,-0.8567544,1.413154E-07,NaN,NaN,0.4581554,9.311999E-12,1.543824E-06,-1.097843E-07,-1.787734E-09,-2.622604E-08
872.4618,-0.1474022,2.652625E-09,NaN,-0.6871117,-1.319765E-07,NaN,-0.4100452,-5.198548E-07,NaN,-1.29783,2.361757E-05,-0.8674334,1.392694E-07,NaN,NaN,0.4619391,9.311999E-12,1.544122E-06,-1.097858E-07,2.980637E-09,-2.861022E-08
872.4767,-0.1474022,2.652625E-09,NaN,-0.6871117,-1.319765E-07,NaN,-0.4100452,-5.198548E-07,NaN,-1.29783,2.361757E-05,-0.8674334,1.392694E-07,NaN,NaN,0.4619391,9.311999E-12,1.544122E-06,-1.097858E-07,2.980637E-09,-2.861022E-08
872.4919,-0.1459406,2.65325E-09,NaN,-0.6915141,-1.319754E-07,NaN,-0.4193653,-5.180414E-07,NaN,-1.307452,2.361795E-05,-0.8785412,1.372058E-07,NaN,NaN,0.4659623,1.862522E-11,1.537864E-06,-1.097872E-07,5.364823E-09,-2.622604E-08
872.5069,-0.1444684,2.653875E-09,NaN,-0.6959468,-1.319743E-07,NaN,-0.4287232,-5.162279E-07,NaN,-1.317065,2.361833E-05,-0.8895738,1.351329E-07,NaN,NaN,0.4699068,2.793845E-11,1.538162E-06,-1.097888E-07,6.258893E-09,-2.861022E-08
872.5215,-0.1429967,2.6545E-09,NaN,-0.7003776,-1.319734E-07,NaN,-0.4380593,-5.144145E-07,NaN,-1.326596,2.361872E-05,-0.9003625,1.330568E-07,NaN,NaN,0.4737741,3.725167E-11,1.53399E-06,-1.097903E-07,7.450986E-09,-2.622604E-08
872.5353,-0.1429967,2.6545E-09,NaN,-0.7003776,-1.319734E-07,NaN,-0.4380593,-5.144145E-07,NaN,-1.326596,2.361872E-05,-0.9003625,1.330568E-07,NaN,NaN,0.4737741,3.725167E-11,1.53399E-06,-1.097903E-07,7.450986E-09,-2.622604E-08
872.5493,-0.1415317,2.655125E-09,NaN,-0.7047875,-1.319725E-07,NaN,-0.4473245,-5.126011E-07,NaN,-1.336012,2.36191E-05,-0.9108868,1.309819E-07,NaN,NaN,0.4775656,4.65649E-11,1.528625E-06,-1.097919E-07,4.17273E-09,-2.861022E-08
872.5643,-0.1400408,2.65575E-09,NaN,-0.7092692,-1.319716E-07,NaN,-0.4568194,-5.107877E-07,NaN,-1.345718,2.361948E-05,-0.9218319,1.289115E-07,NaN,NaN,0.4815965,5.587812E-11,1.516704E-06,-1.097936E-07,2.384591E-09,-2.622604E-08
872.5789,-0.1400408,2.65575E-09,NaN,-0.7092692,-1.319716E-07,NaN,-0.4568194,-5.107877E-07,NaN,-1.345718,2.361948E-05,-0.9218319,1.289115E-07,NaN,NaN,0.4815965,5.587812E-11,1.516704E-06,-1.097936E-07,2.384591E-09,-2.622604E-08
872.5928,-0.1385415,2.656375E-09,NaN,-0.7137743,-1.319708E-07,NaN,-0.4663278,-5.089743E-07,NaN,-1.35541,2.361986E-05,-0.9327006,1.268479E-07,NaN,NaN,0.4855486,6.519135E-11,1.508956E-06,-1.097953E-07,4.050094E-13,-2.861022E-08
872.6083,-0.1370441,2.657E-09,NaN,-0.7182732,-1.3197E-07,NaN,-0.4757937,-5.071608E-07,NaN,-1.365018,2.362024E-05,-0.9433338,1.247928E-07,NaN,NaN,0.4894233,7.450457E-11,1.501207E-06,-1.09797E-07,-5.956414E-10,-2.622604E-08
872.6227,-0.1355543,2.657625E-09,NaN,-0.722748,-1.319693E-07,NaN,-0.4851745,-5.053474E-07,NaN,-1.374507,2.362063E-05,-0.9537113,1.227476E-07,NaN,NaN,0.493222,7.916118E-11,1.491968E-06,-1.097987E-07,4.768776E-09,-2.861022E-08
872.6376,-0.1355543,2.657625E-09,NaN,-0.722748,-1.319693E-07,NaN,-0.4851745,-5.053474E-07,NaN,-1.374507,2.362063E-05,-0.9537113,1.227476E-07,NaN,NaN,0.493222,7.916118E-11,1.491968E-06,-1.097987E-07,4.768776E-09,-2.861022E-08
872.6516,-0.1340392,2.658251E-09,NaN,-0.7272925,-1.319685E-07,NaN,-0.4948018,-5.03534E-07,NaN,-1.384282,2.362101E-05,-0.9644988,1.20713E-07,NaN,NaN,0.49726,8.38178E-11,1.475279E-06,-1.098004E-07,5.960869E-09,-2.622604E-08
872.6672,-0.1325161,2.658876E-09,NaN,-0.7318588,-1.319679E-07,NaN,-0.5044301,-5.017206E-07,NaN,-1.394045,2.362141E-05,-0.9752077,1.186897E-07,NaN,NaN,0.5012191,8.38178E-11,1.462762E-06,-1.098022E-07,2.980637E-09,-2.861022E-08
872.6817,-0.1309953,2.659501E-09,NaN,-0.7364177,-1.319672E-07,NaN,-0.5140021,-4.999072E-07,NaN,-1.403723,2.36218E-05,-0.9856889,1.166781E-07,NaN,NaN,0.5051006,8.38178E-11,1.449053E-06,-1.09804E-07,4.050094E-13,-2.622604E-08
872.6965,-0.1309953,2.659501E-09,NaN,-0.7364177,-1.319672E-07,NaN,-0.5140021,-4.999072E-07,NaN,-1.403723,2.36218E-05,-0.9856889,1.166781E-07,NaN,NaN,0.5051006,8.38178E-11,1.449053E-06,-1.09804E-07,4.050094E-13,-2.622604E-08
872.7106,-0.1294459,2.660127E-09,NaN,-0.741056,-1.319666E-07,NaN,-0.5238525,-4.980938E-07,NaN,-1.413697,2.362219E-05,-0.9965668,1.146785E-07,NaN,NaN,0.5092198,8.38178E-11,1.426999E-06,-1.098058E-07,4.050094E-13,-2.861022E-08
872.726,-0.127887,2.660752E-09,NaN,-0.7457213,-1.319661E-07,NaN,-0.5337036,-4.962803E-07,NaN,-1.423667,2.362258E-05,-1.00736,1.126912E-07,NaN,NaN,0.5132585,8.38178E-11,1.410906E-06,-1.098076E-07,2.980637E-09,-2.622604E-08
872.7404,-0.1263298,2.661378E-09,NaN,-0.7503821,-1.319655E-07,NaN,-0.5434917,-4.944669E-07,NaN,-1.433554,2.362297E-05,-1.017926,1.107162E-07,NaN,NaN,0.5172181,8.38178E-11,1.391236E-06,-1.098095E-07,6.556916E-09,-2.861022E-08
872.7553,-0.1263298,2.661378E-09,NaN,-0.7503821,-1.319655E-07,NaN,-0.5434917,-4.944669E-07,NaN,-1.433554,2.362297E-05,-1.017926,1.107162E-07,NaN,NaN,0.5172181,8.38178E-11,1.391236E-06,-1.098095E-07,6.556916E-09,-2.861022E-08
872.7693,-0.1247804,2.662004E-09,NaN,-0.7550189,-1.31965E-07,NaN,-0.5531769,-4.926535E-07,NaN,-1.443323,2.362336E-05,-1.028245,1.087536E-07,NaN,NaN,0.5211001,8.38178E-11,1.368587E-06,-1.098113E-07,1.788544E-09,-2.622604E-08
872.7859,-0.1232056,2.662629E-09,NaN,-0.7597249,-1.319645E-07,NaN,-0.5631382,-4.908401E-07,NaN,-1.453366,2.362375E-05,-1.038941,1.068035E-07,NaN,NaN,0.5252198,8.847442E-11,1.341169E-06,-1.098132E-07,-1.787734E-09,-2.861022E-08
872.7994,-0.1232056,2.662629E-09,NaN,-0.7597249,-1.319645E-07,NaN,-0.5631382,-4.908401E-07,NaN,-1.453366,2.362375E-05,-1.038941,1.068035E-07,NaN,NaN,0.5252198,8.847442E-11,1.341169E-06,-1.098132E-07,-1.787734E-09,-2.861022E-08
872.8132,-0.1216234,2.663255E-09,NaN,-0.7644513,-1.319641E-07,NaN,-0.5730796,-4.890267E-07,NaN,-1.4634,2.362413E-05,-1.049556,1.048658E-07,NaN,NaN,0.529259,9.313103E-11,1.319115E-06,-1.098151E-07,2.384591E-09,-2.622604E-08
872.8286,-0.1200441,2.663881E-09,NaN,-0.7691689,-1.319636E-07,NaN,-0.5829418,-4.872132E-07,NaN,-1.473349,2.362453E-05,-1.059956,1.029405E-07,NaN,NaN,0.533219,9.313103E-11,1.297061E-06,-1.09817E-07,8.345055E-09,-2.861022E-08
872.8431,-0.1184737,2.664507E-09,NaN,-0.7738597,-1.319632E-07,NaN,-0.5926903,-4.853998E-07,NaN,-1.483177,2.362493E-05,-1.070119,1.010276E-07,NaN,NaN,0.5371014,9.313103E-11,1.270835E-06,-1.09819E-07,1.132529E-08,-2.622604E-08
872.858,-0.1184737,2.664507E-09,NaN,-0.7738597,-1.319632E-07,NaN,-0.5926903,-4.853998E-07,NaN,-1.483177,2.362493E-05,-1.070119,1.010276E-07,NaN,NaN,0.5371014,9.313103E-11,1.270835E-06,-1.09819E-07,1.132529E-08,-2.622604E-08
872.8717,-0.1182946,2.665133E-09,NaN,-0.7746474,-1.319629E-07,NaN,-0.5866963,-4.835864E-07,NaN,-1.477937,2.362532E-05,-1.05812,9.912701E-08,NaN,NaN,0.5292972,9.313103E-11,1.476471E-06,-1.098209E-07,1.728575E-08,-2.861022E-08
872.8872,-0.1189244,2.66576E-09,NaN,-0.7730524,-1.319625E-07,NaN,-0.5770321,-4.81773E-07,NaN,-1.467229,2.362572E-05,-1.039582,9.723871E-08,NaN,NaN,0.5216406,9.313103E-11,1.4872E-06,-1.098229E-07,1.847785E-08,-2.622604E-08
872.9019,-0.1200351,2.666386E-09,NaN,-0.7699962,-1.319622E-07,NaN,-0.5657838,-4.799596E-07,NaN,-1.453992,2.362611E-05,-1.019489,9.536262E-08,NaN,NaN,0.5141323,9.313103E-11,1.475875E-06,-1.098249E-07,1.490157E-08,-2.861022E-08
872.9166,-0.1200351,2.666386E-09,NaN,-0.7699962,-1.319622E-07,NaN,-0.5657838,-4.799596E-07,NaN,-1.453992,2.362611E-05,-1.019489,9.536262E-08,NaN,NaN,0.5141323,9.313103E-11,1.475875E-06,-1.098249E-07,1.490157E-08,-2.861022E-08
872.9305,-0.1213819,2.667012E-09,NaN,-0.7661651,-1.319619E-07,NaN,-0.5544023,-4.781461E-07,NaN,-1.440053,2.362651E-05,-0.9996939,9.349868E-08,NaN,NaN,0.5070843,9.313103E-11,1.456801E-06,-1.098269E-07,1.013319E-08,-2.622604E-08
872.946,-0.1228562,2.667639E-09,NaN,-0.7618792,-1.319617E-07,NaN,-0.5430405,-4.763327E-07,NaN,-1.425849,2.362691E-05,-0.9801056,9.164682E-08,NaN,NaN,0.5001742,9.313103E-11,1.439516E-06,-1.098289E-07,1.490157E-08,-2.861022E-08
872.9606,-0.1243948,2.668265E-09,NaN,-0.757336,-1.319614E-07,NaN,-0.5318547,-4.745193E-07,NaN,-1.411629,2.36273E-05,-0.9607201,8.980695E-08,NaN,NaN,0.4933996,9.313103E-11,1.418058E-06,-1.098309E-07,1.490157E-08,-2.622604E-08
872.9752,-0.1243948,2.668265E-09,NaN,-0.757336,-1.319614E-07,NaN,-0.5318547,-4.745193E-07,NaN,-1.411629,2.36273E-05,-0.9607201,8.980695E-08,NaN,NaN,0.4933996,9.313103E-11,1.418058E-06,-1.098309E-07,1.490157E-08,-2.622604E-08
872.9908,-0.1259616,2.668892E-09,NaN,-0.7526566,-1.319612E-07,NaN,-0.5209026,-4.727058E-07,NaN,-1.397515,2.362769E-05,-0.9415616,8.797902E-08,NaN,NaN,0.4867576,9.778765E-11,1.397793E-06,-1.098329E-07,1.370947E-08,-2.861022E-08
873.0052,-0.127499,2.669518E-09,NaN,-0.7480196,-1.31961E-07,NaN,-0.5105669,-4.708924E-07,NaN,-1.383979,2.362807E-05,-0.9233252,8.616295E-08,NaN,NaN,0.4805596,1.071009E-10,1.370375E-06,-1.09835E-07,8.941102E-09,-2.622604E-08
873.0198,-0.127499,2.669518E-09,NaN,-0.7480196,-1.31961E-07,NaN,-0.5105669,-4.708924E-07,NaN,-1.383979,2.362807E-05,-0.9233252,8.616295E-08,NaN,NaN,0.4805596,1.071009E-10,1.370375E-06,-1.09835E-07,8.941102E-09,-2.622604E-08
873.0338,-0.129012,2.670145E-09,NaN,-0.7434285,-1.319609E-07,NaN,-0.5005688,-4.690789E-07,NaN,-1.370782,2.362847E-05,-0.9055221,8.435866E-08,NaN,NaN,0.4744833,1.071009E-10,1.347725E-06,-1.098371E-07,8.941102E-09,-2.861022E-08
873.0502,-0.1305036,2.670773E-09,NaN,-0.7388854,-1.319615E-07,NaN,-0.4908568,-4.690571E-07,NaN,-1.357857,2.362885E-05,-0.8880101,8.434449E-08,NaN,NaN,0.4685261,1.071009E-10,1.323883E-06,-1.098369E-07,7.749009E-09,-2.622604E-08
873.0638,-0.1319755,2.6714E-09,NaN,-0.7343915,-1.319619E-07,NaN,-0.4813963,-4.698071E-07,NaN,-1.345169,2.362923E-05,-0.8707628,8.510091E-08,NaN,NaN,0.4626857,1.117575E-10,1.298253E-06,-1.098363E-07,5.364824E-09,-2.861022E-08
873.0785,-0.1319755,2.6714E-09,NaN,-0.7343915,-1.319619E-07,NaN,-0.4813963,-4.698071E-07,NaN,-1.345169,2.362923E-05,-0.8707628,8.510091E-08,NaN,NaN,0.4626857,1.117575E-10,1.298253E-06,-1.098363E-07,5.364824E-09,-2.861022E-08
873.0924,-0.1333923,2.672028E-09,NaN,-0.7300516,-1.319621E-07,NaN,-0.4724933,-4.706279E-07,NaN,-1.333122,2.362961E-05,-0.8544833,8.592711E-08,NaN,NaN,0.4572735,1.071009E-10,1.266663E-06,-1.098355E-07,6.556917E-09,-2.622604E-08
873.1078,-0.1347708,2.672656E-09,NaN,-0.7258244,-1.319621E-07,NaN,-0.4639016,-4.714785E-07,NaN,-1.321423,2.362999E-05,-0.8386452,8.678221E-08,NaN,NaN,0.4519676,1.071009E-10,1.241033E-06,-1.098346E-07,8.941102E-09,-2.861022E-08
873.1223,-0.1361205,2.673283E-09,NaN,-0.7216843,-1.31961E-07,NaN,-0.4555674,-4.70844E-07,NaN,-1.309992,2.363036E-05,-0.8230863,8.605718E-08,NaN,NaN,0.4467657,1.024443E-10,1.217489E-06,-1.098355E-07,8.941102E-09,-2.622604E-08
873.1369,-0.1361205,2.673283E-09,NaN,-0.7216843,-1.31961E-07,NaN,-0.4555674,-4.70844E-07,NaN,-1.309992,2.363036E-05,-0.8230863,8.605718E-08,NaN,NaN,0.4467657,1.024443E-10,1.217489E-06,-1.098355E-07,8.941102E-09,-2.622604E-08
873.1511,-0.1374107,2.67391E-09,NaN,-0.71772,-1.319598E-07,NaN,-0.4477504,-4.702094E-07,NaN,-1.299211,2.363074E-05,-0.8085,8.52642E-08,NaN,NaN,0.4419796,1.024443E-10,1.185302E-06,-1.098366E-07,4.172731E-09,-2.861022E-08
873.1664,-0.1386604,2.674537E-09,NaN,-0.7138801,-1.319597E-07,NaN,-0.4402282,-4.711558E-07,NaN,-1.288766,2.363112E-05,-0.7943452,8.60842E-08,NaN,NaN,0.4372875,1.024443E-10,1.158778E-06,-1.098359E-07,2.980638E-09,-2.622604E-08
873.181,-0.1398808,2.675164E-09,NaN,-0.710133,-1.319585E-07,NaN,-0.4329446,-4.70626E-07,NaN,-1.278574,2.363149E-05,-0.7804489,8.536048E-08,NaN,NaN,0.4326874,1.071009E-10,1.136128E-06,-1.098368E-07,2.384591E-09,-2.861022E-08
873.1956,-0.1398808,2.675164E-09,NaN,-0.710133,-1.319585E-07,NaN,-0.4329446,-4.70626E-07,NaN,-1.278574,2.363149E-05,-0.7804489,8.536048E-08,NaN,NaN,0.4326874,1.071009E-10,1.136128E-06,-1.098368E-07,2.384591E-09,-2.861022E-08
873.2097,-0.1410782,2.675791E-09,NaN,-0.706459,-1.319584E-07,NaN,-0.425856,-4.716186E-07,NaN,-1.268589,2.363186E-05,-0.7667801,8.619825E-08,NaN,NaN,0.4281775,1.071009E-10,1.110796E-06,-1.09836E-07,4.768777E-09,-2.622604E-08
873.225,-0.1422204,2.676418E-09,NaN,-0.7029503,-1.319572E-07,NaN,-0.4192025,-4.711326E-07,NaN,-1.25922,2.363225E-05,-0.7540728,8.549336E-08,NaN,NaN,0.4240697,1.071009E-10,1.077418E-06,-1.098369E-07,3.576684E-09,-2.861022E-08
873.2397,-0.1422204,2.676418E-09,NaN,-0.7029503,-1.319572E-07,NaN,-0.4192025,-4.711326E-07,NaN,-1.25922,2.363225E-05,-0.7540728,8.549336E-08,NaN,NaN,0.4240697,1.071009E-10,1.077418E-06,-1.098369E-07,3.576684E-09,-2.861022E-08
873.2537,-0.143325,2.677045E-09,NaN,-0.6995579,-1.319571E-07,NaN,-0.4128105,-4.721481E-07,NaN,-1.250151,2.363262E-05,-0.7417853,8.633418E-08,NaN,NaN,0.4200427,1.117575E-10,1.052682E-06,-1.098361E-07,5.96087E-09,-2.622604E-08
873.2693,-0.1444024,2.677672E-09,NaN,-0.6962515,-1.319559E-07,NaN,-0.4066322,-4.716855E-07,NaN,-1.241306,2.3633E-05,-0.729732,8.563602E-08,NaN,NaN,0.4160947,1.117575E-10,1.030032E-06,-1.09837E-07,4.768777E-09,-2.861022E-08
873.2841,-0.1454587,2.678299E-09,NaN,-0.6930123,-1.319558E-07,NaN,-0.4006234,-4.727143E-07,NaN,-1.232644,2.363338E-05,-0.7178794,8.647677E-08,NaN,NaN,0.412224,1.024443E-10,1.00619E-06,-1.098362E-07,5.364824E-09,-2.622604E-08
873.2985,-0.1454587,2.678299E-09,NaN,-0.6930123,-1.319558E-07,NaN,-0.4006234,-4.727143E-07,NaN,-1.232644,2.363338E-05,-0.7178794,8.647677E-08,NaN,NaN,0.412224,1.024443E-10,1.00619E-06,-1.098362E-07,5.364824E-09,-2.622604E-08
873.3145,-0.1464617,2.678926E-09,NaN,-0.6899329,-1.319546E-07,NaN,-0.3949929,-4.722652E-07,NaN,-1.22458,2.363375E-05,-0.7069708,8.578091E-08,NaN,NaN,0.408743,9.778765E-11,9.765371E-07,-1.09837E-07,3.576684E-09,-2.861022E-08
873.3288,-0.1474286,2.679553E-09,NaN,-0.6869649,-1.319545E-07,NaN,-0.3896018,-4.73303E-07,NaN,-1.21679,2.363413E-05,-0.6964661,8.662156E-08,NaN,NaN,0.4053304,9.313103E-11,9.529932E-07,-1.098362E-07,1.788545E-09,-2.622604E-08
873.3423,-0.1483697,2.68018E-09,NaN,-0.684078,-1.319532E-07,NaN,-0.3844065,-4.728612E-07,NaN,-1.209201,2.363451E-05,-0.6861691,8.592558E-08,NaN,NaN,0.4019848,8.381781E-11,9.318336E-07,-1.098371E-07,-1.191687E-09,-2.861022E-08
873.3571,-0.1483697,2.68018E-09,NaN,-0.684078,-1.319532E-07,NaN,-0.3844065,-4.728612E-07,NaN,-1.209201,2.363451E-05,-0.6861691,8.592558E-08,NaN,NaN,0.4019848,8.381781E-11,9.318336E-07,-1.098371E-07,-1.191687E-09,-2.861022E-08
873.3711,-0.1492552,2.680808E-09,NaN,-0.681358,-1.319531E-07,NaN,-0.3795759,-4.73902E-07,NaN,-1.202215,2.363489E-05,-0.6767936,8.676331E-08,NaN,NaN,0.3990185,7.916119E-11,9.027763E-07,-1.098363E-07,-5.956406E-10,-2.622604E-08
873.3863,-0.1501038,2.681434E-09,NaN,-0.6787522,-1.319519E-07,NaN,-0.3749806,-4.734638E-07,NaN,-1.195493,2.363527E-05,-0.6677989,8.606592E-08,NaN,NaN,0.3961107,6.984797E-11,8.817657E-07,-1.098372E-07,2.98429E-10,-2.861022E-08
873.4008,-0.1509266,2.682061E-09,NaN,-0.6762279,-1.319507E-07,NaN,-0.3705726,-4.730255E-07,NaN,-1.188958,2.363565E-05,-0.6589842,8.532889E-08,NaN,NaN,0.3932599,6.053474E-11,8.662685E-07,-1.098382E-07,2.980638E-09,-2.622604E-08
873.4154,-0.1509266,2.682061E-09,NaN,-0.6762279,-1.319507E-07,NaN,-0.3705726,-4.730255E-07,NaN,-1.188958,2.363565E-05,-0.6589842,8.532889E-08,NaN,NaN,0.3932599,6.053474E-11,8.662685E-07,-1.098382E-07,2.980638E-09,-2.622604E-08
873.4293,-0.1517302,2.682688E-09,NaN,-0.6737646,-1.319506E-07,NaN,-0.3663007,-4.740965E-07,NaN,-1.18257,2.363603E-05,-0.6503141,8.616124E-08,NaN,NaN,0.390465,5.587813E-11,8.446618E-07,-1.098375E-07,2.980638E-09,-2.861022E-08
873.4447,-0.1524828,2.683314E-09,NaN,-0.6714541,-1.319494E-07,NaN,-0.362326,-4.736887E-07,NaN,-1.176753,2.363641E-05,-0.6425407,8.546661E-08,NaN,NaN,0.3880385,4.190829E-11,8.199258E-07,-1.098383E-07,3.874708E-09,-2.622604E-08
873.4594,-0.1524828,2.683314E-09,NaN,-0.6714541,-1.319494E-07,NaN,-0.362326,-4.736887E-07,NaN,-1.176753,2.363641E-05,-0.6425407,8.546661E-08,NaN,NaN,0.3880385,4.190829E-11,8.199258E-07,-1.098383E-07,3.874708E-09,-2.622604E-08
873.4749,-0.1532017,2.683942E-09,NaN,-0.6692476,-1.319493E-07,NaN,-0.3585569,-4.747586E-07,NaN,-1.171168,2.363678E-05,-0.6351333,8.630747E-08,NaN,NaN,0.38566,4.190829E-11,8.038326E-07,-1.098375E-07,2.984291E-10,-2.861022E-08
873.4888,-0.153897,2.684568E-09,NaN,-0.6671145,-1.319481E-07,NaN,-0.3549563,-4.743503E-07,NaN,-1.165745,2.363715E-05,-0.627883,8.561918E-08,NaN,NaN,0.3833282,3.725168E-11,7.883353E-07,-1.098384E-07,1.192499E-09,-2.622604E-08
873.5033,-0.1545751,2.685195E-09,NaN,-0.665036,-1.319483E-07,NaN,-0.3514751,-4.746978E-07,NaN,-1.16045,2.363752E-05,-0.6207505,8.574305E-08,NaN,NaN,0.381042,3.725168E-11,7.736577E-07,-1.098372E-07,8.944755E-10,-2.861022E-08
873.5182,-0.1545751,2.685195E-09,NaN,-0.665036,-1.319483E-07,NaN,-0.3514751,-4.746978E-07,NaN,-1.16045,2.363752E-05,-0.6207505,8.574305E-08,NaN,NaN,0.381042,3.725168E-11,7.736577E-07,-1.098372E-07,8.944755E-10,-2.861022E-08
873.5321,-0.1552041,2.685822E-09,NaN,-0.6631047,-1.319484E-07,NaN,-0.3482549,-4.756581E-07,NaN,-1.155709,2.363789E-05,-0.6144889,8.652475E-08,NaN,NaN,0.3791144,3.725168E-11,7.500394E-07,-1.098357E-07,4.058975E-13,-2.622604E-08
873.5475,-0.1558007,2.686449E-09,NaN,-0.6612722,-1.319467E-07,NaN,-0.3452254,-4.759511E-07,NaN,-1.151179,2.363825E-05,-0.608573,8.65125E-08,NaN,NaN,0.3772249,3.725168E-11,7.39087E-07,-1.098366E-07,4.058975E-13,-2.861022E-08
873.5622,-0.1563752,2.687075E-09,NaN,-0.6595086,-1.319448E-07,NaN,-0.3423532,-4.762441E-07,NaN,-1.146793,2.363862E-05,-0.6027887,8.640801E-08,NaN,NaN,0.3753725,3.725168E-11,7.257505E-07,-1.098377E-07,1.043487E-09,-2.622604E-08
873.5768,-0.1563752,2.687075E-09,NaN,-0.6595086,-1.319448E-07,NaN,-0.3423532,-4.762441E-07,NaN,-1.146793,2.363862E-05,-0.6027887,8.640801E-08,NaN,NaN,0.3753725,3.725168E-11,7.257505E-07,-1.098377E-07,1.043487E-09,-2.622604E-08
873.5907,-0.1568982,2.687701E-09,NaN,-0.6578997,-1.31943E-07,NaN,-0.3397496,-4.765371E-07,NaN,-1.142967,2.3639E-05,-0.5978484,8.62364E-08,NaN,NaN,0.3738702,3.259507E-11,7.044418E-07,-1.098388E-07,3.278661E-09,-2.861022E-08
873.607,-0.1573879,2.688327E-09,NaN,-0.6563928,-1.319411E-07,NaN,-0.3373416,-4.768301E-07,NaN,-1.139346,2.363936E-05,-0.593226,8.601612E-08,NaN,NaN,0.3723976,3.259507E-11,6.943835E-07,-1.0984E-07,1.937557E-09,-2.622604E-08
873.6206,-0.1578552,2.688953E-09,NaN,-0.6549554,-1.319393E-07,NaN,-0.3350893,-4.771231E-07,NaN,-1.135857,2.363973E-05,-0.588707,8.576069E-08,NaN,NaN,0.3709539,3.259507E-11,6.87231E-07,-1.098412E-07,7.454639E-10,-2.861022E-08
873.6355,-0.1578552,2.688953E-09,NaN,-0.6549554,-1.319393E-07,NaN,-0.3350893,-4.771231E-07,NaN,-1.135857,2.363973E-05,-0.588707,8.576069E-08,NaN,NaN,0.3709539,3.259507E-11,6.87231E-07,-1.098412E-07,7.454639E-10,-2.861022E-08
873.6493,-0.1583069,2.689579E-09,NaN,-0.653567,-1.319393E-07,NaN,-0.3329374,-4.777388E-07,NaN,-1.132466,2.36401E-05,-0.584252,8.593792E-08,NaN,NaN,0.3695385,3.259507E-11,6.772099E-07,-1.098398E-07,-7.446521E-10,-2.622604E-08
873.6646,-0.1587115,2.690206E-09,NaN,-0.6523195,-1.319393E-07,NaN,-0.330999,-4.789035E-07,NaN,-1.129603,2.364047E-05,-0.5806156,8.675218E-08,NaN,NaN,0.3684647,2.793846E-11,6.59105E-07,-1.098383E-07,-2.085756E-09,-2.861022E-08
873.6791,-0.1587115,2.690206E-09,NaN,-0.6523195,-1.319393E-07,NaN,-0.330999,-4.789035E-07,NaN,-1.129603,2.364047E-05,-0.5806156,8.675218E-08,NaN,NaN,0.3684647,2.793846E-11,6.59105E-07,-1.098383E-07,-2.085756E-09,-2.861022E-08
873.6929,-0.1590859,2.690832E-09,NaN,-0.6511642,-1.319376E-07,NaN,-0.3292295,-4.793986E-07,NaN,-1.126919,2.364083E-05,-0.577283,8.679852E-08,NaN,NaN,0.3674122,3.259507E-11,6.526603E-07,-1.098391E-07,-1.486056E-10,-2.622604E-08
873.7081,-0.1594403,2.691458E-09,NaN,-0.6500707,-1.319357E-07,NaN,-0.3276,-4.798937E-07,NaN,-1.124347,2.364119E-05,-0.5740352,8.677315E-08,NaN,NaN,0.3663804,4.19083E-11,6.465136E-07,-1.098402E-07,6.709583E-10,-2.861022E-08
873.7228,-0.159781,2.692083E-09,NaN,-0.6490201,-1.319337E-07,NaN,-0.326059,-4.803888E-07,NaN,-1.121854,2.364156E-05,-0.5708293,8.669551E-08,NaN,NaN,0.3653688,4.19083E-11,6.405531E-07,-1.098412E-07,1.639534E-09,-2.622604E-08
873.7377,-0.159781,2.692083E-09,NaN,-0.6490201,-1.319337E-07,NaN,-0.326059,-4.803888E-07,NaN,-1.121854,2.364156E-05,-0.5708293,8.669551E-08,NaN,NaN,0.3653688,4.19083E-11,6.405531E-07,-1.098412E-07,1.639534E-09,-2.622604E-08
873.7517,-0.1600763,2.692709E-09,NaN,-0.6481051,-1.319318E-07,NaN,-0.3247115,-4.808839E-07,NaN,-1.119875,2.364193E-05,-0.5684184,8.657986E-08,NaN,NaN,0.3646908,4.19083E-11,6.263597E-07,-1.098422E-07,7.491185E-11,-2.861022E-08
873.767,-0.1603427,2.693334E-09,NaN,-0.6472777,-1.319299E-07,NaN,-0.3235236,-4.81379E-07,NaN,-1.118058,2.364229E-05,-0.5662909,8.643668E-08,NaN,NaN,0.3640264,4.19083E-11,6.230815E-07,-1.098433E-07,-2.976172E-10,-2.622604E-08
873.7818,-0.1605904,2.693959E-09,NaN,-0.6465079,-1.319281E-07,NaN,-0.3224683,-4.818741E-07,NaN,-1.116339,2.364266E-05,-0.5642258,8.627366E-08,NaN,NaN,0.3633751,4.19083E-11,6.194307E-07,-1.098444E-07,7.082112E-10,-2.861022E-08
873.7963,-0.1605904,2.693959E-09,NaN,-0.6465079,-1.319281E-07,NaN,-0.3224683,-4.818741E-07,NaN,-1.116339,2.364266E-05,-0.5642258,8.627366E-08,NaN,NaN,0.3633751,4.19083E-11,6.194307E-07,-1.098444E-07,7.082112E-10,-2.861022E-08
873.8105,-0.1607901,2.694585E-09,NaN,-0.6458815,-1.319262E-07,NaN,-0.321629,-4.823692E-07,NaN,-1.115138,2.364303E-05,-0.5629311,8.609644E-08,NaN,NaN,0.3630503,4.19083E-11,6.085529E-07,-1.098455E-07,1.229752E-09,-2.622604E-08
873.826,-0.1609598,2.69521E-09,NaN,-0.6453463,-1.319244E-07,NaN,-0.3209607,-4.828643E-07,NaN,-1.114095,2.36434E-05,-0.5618914,8.590917E-08,NaN,NaN,0.3627322,4.19083E-11,6.087018E-07,-1.098466E-07,4.470754E-09,-2.861022E-08
873.8406,-0.1611103,2.695835E-09,NaN,-0.6448696,-1.319244E-07,NaN,-0.3204275,-4.835979E-07,NaN,-1.11314,2.364376E-05,-0.5608872,8.609717E-08,NaN,NaN,0.3624204,4.19083E-11,6.085529E-07,-1.098452E-07,3.055144E-09,-2.622604E-08
873.8561,-0.1611103,2.695835E-09,NaN,-0.6448696,-1.319244E-07,NaN,-0.3204275,-4.835979E-07,NaN,-1.11314,2.364376E-05,-0.5608872,8.609717E-08,NaN,NaN,0.3624204,4.19083E-11,6.085529E-07,-1.098452E-07,3.055144E-09,-2.622604E-08
873.8693,-0.1612484,2.696461E-09,NaN,-0.6444312,-1.319227E-07,NaN,-0.3199722,-4.841972E-07,NaN,-1.112239,2.364413E-05,-0.5598775,8.609733E-08,NaN,NaN,0.3621147,4.656491E-11,6.067274E-07,-1.098461E-07,5.308944E-09,-2.861022E-08
873.886,-0.161343,2.697086E-09,NaN,-0.6441228,-1.319208E-07,NaN,-0.3196883,-4.847965E-07,NaN,-1.111829,2.364449E-05,-0.5596164,8.605849E-08,NaN,NaN,0.3621287,5.122152E-11,5.98271E-07,-1.098471E-07,-2.137983E-10,-2.622604E-08
873.8993,-0.161343,2.697086E-09,NaN,-0.6441228,-1.319208E-07,NaN,-0.3196883,-4.847965E-07,NaN,-1.111829,2.364449E-05,-0.5596164,8.605849E-08,NaN,NaN,0.3621287,5.122152E-11,5.98271E-07,-1.098471E-07,-2.137983E-10,-2.622604E-08
873.9135,-0.1614105,2.69771E-09,NaN,-0.643896,-1.31919E-07,NaN,-0.3195509,-4.853958E-07,NaN,-1.111554,2.364486E-05,-0.559598,8.599126E-08,NaN,NaN,0.3621428,5.587813E-11,5.97675E-07,-1.098481E-07,-1.573529E-09,-2.861022E-08
873.9286,-0.1614612,2.698335E-09,NaN,-0.6437206,-1.319171E-07,NaN,-0.3195342,-4.859951E-07,NaN,-1.11135,2.364522E-05,-0.5596005,8.590343E-08,NaN,NaN,0.3621567,5.587813E-11,5.997239E-07,-1.098491E-07,-1.21497E-09,-2.622604E-08
873.9432,-0.1615012,2.698961E-09,NaN,-0.6435777,-1.31917E-07,NaN,-0.3195859,-4.867549E-07,NaN,-1.111184,2.364559E-05,-0.5595805,8.61139E-08,NaN,NaN,0.3621702,5.587813E-11,6.025178E-07,-1.098476E-07,-2.192859E-09,-2.861022E-08
873.9594,-0.1615012,2.698961E-09,NaN,-0.6435777,-1.31917E-07,NaN,-0.3195859,-4.867549E-07,NaN,-1.111184,2.364559E-05,-0.5595805,8.61139E-08,NaN,NaN,0.3621702,5.587813E-11,6.025178E-07,-1.098476E-07,-2.192859E-09,-2.861022E-08
873.9718,-0.1615001,2.699585E-09,NaN,-0.6435599,-1.319153E-07,NaN,-0.3198003,-4.873778E-07,NaN,-1.111496,2.364595E-05,-0.5602899,8.613276E-08,NaN,NaN,0.3624973,6.053474E-11,5.957006E-07,-1.098485E-07,-3.347699E-09,-2.622604E-08
873.9873,-0.1614735,2.70021E-09,NaN,-0.6436189,-1.319135E-07,NaN,-0.3201553,-4.880007E-07,NaN,-1.111929,2.364632E-05,-0.561223,8.611181E-08,NaN,NaN,0.3628183,6.053474E-11,5.990906E-07,-1.098494E-07,-3.142808E-09,-2.861022E-08
874.002,-0.1614315,2.700834E-09,NaN,-0.643725,-1.319116E-07,NaN,-0.3206255,-4.886236E-07,NaN,-1.11242,2.364669E-05,-0.5621581,8.606185E-08,NaN,NaN,0.363133,6.053474E-11,6.017356E-07,-1.098504E-07,-3.757481E-09,-2.622604E-08
874.0167,-0.1614315,2.700834E-09,NaN,-0.643725,-1.319116E-07,NaN,-0.3206255,-4.886236E-07,NaN,-1.11242,2.364669E-05,-0.5621581,8.606185E-08,NaN,NaN,0.363133,6.053474E-11,6.017356E-07,-1.098504E-07,-3.757481E-09,-2.622604E-08
874.0308,-0.1613448,2.701459E-09,NaN,-0.6439643,-1.319097E-07,NaN,-0.3212907,-4.892465E-07,NaN,-1.113394,2.364706E-05,-0.5638014,8.599079E-08,NaN,NaN,0.3637554,6.053474E-11,5.976005E-07,-1.098514E-07,-4.753995E-09,-2.861022E-08
874.0461,-0.1612312,2.702083E-09,NaN,-0.6442846,-1.319079E-07,NaN,-0.322111,-4.898694E-07,NaN,-1.114487,2.364742E-05,-0.5656408,8.590447E-08,NaN,NaN,0.3643658,6.053474E-11,6.045668E-07,-1.098524E-07,-6.812218E-09,-2.622604E-08
874.0607,-0.1611015,2.702708E-09,NaN,-0.6446535,-1.319078E-07,NaN,-0.3230505,-4.906522E-07,NaN,-1.115632,2.364778E-05,-0.5674574,8.612032E-08,NaN,NaN,0.3649643,6.519136E-11,6.105273E-07,-1.098509E-07,-5.657379E-09,-2.861022E-08
874.0756,-0.1611015,2.702708E-09,NaN,-0.6446535,-1.319078E-07,NaN,-0.3230505,-4.906522E-07,NaN,-1.115632,2.364778E-05,-0.5674574,8.612032E-08,NaN,NaN,0.3649643,6.519136E-11,6.105273E-07,-1.098509E-07,-5.657379E-09,-2.861022E-08
874.0896,-0.1609627,2.703332E-09,NaN,-0.6450507,-1.319063E-07,NaN,-0.3240508,-4.912959E-07,NaN,-1.116796,2.364816E-05,-0.5692112,8.614519E-08,NaN,NaN,0.3655511,6.053474E-11,6.152584E-07,-1.098513E-07,-5.638752E-09,-2.622604E-08
874.1053,-0.1607834,2.703957E-09,NaN,-0.6455681,-1.319047E-07,NaN,-0.32521,-4.919395E-07,NaN,-1.118414,2.364854E-05,-0.5716558,8.613237E-08,NaN,NaN,0.3664401,5.122152E-11,6.139918E-07,-1.098517E-07,-6.584044E-09,-2.861022E-08
874.1199,-0.1607834,2.703957E-09,NaN,-0.6455681,-1.319047E-07,NaN,-0.32521,-4.919395E-07,NaN,-1.118414,2.364854E-05,-0.5716558,8.613237E-08,NaN,NaN,0.3664401,5.122152E-11,6.139918E-07,-1.098517E-07,-6.584044E-09,-2.861022E-08
874.1338,-0.1605803,2.704581E-09,NaN,-0.6461573,-1.319028E-07,NaN,-0.3265012,-4.925831E-07,NaN,-1.120132,2.364892E-05,-0.574286,8.609209E-08,NaN,NaN,0.367312,5.122152E-11,6.172701E-07,-1.098526E-07,-7.394295E-09,-2.622604E-08
874.1503,-0.1603635,2.705205E-09,NaN,-0.6467881,-1.319009E-07,NaN,-0.3278971,-4.932268E-07,NaN,-1.121888,2.364929E-05,-0.5768822,8.603183E-08,NaN,NaN,0.3681669,5.122152E-11,6.238266E-07,-1.098536E-07,-4.462957E-09,-2.861022E-08
874.1637,-0.1601394,2.705829E-09,NaN,-0.6474417,-1.318991E-07,NaN,-0.3293447,-4.938704E-07,NaN,-1.123649,2.364966E-05,-0.5794029,8.595709E-08,NaN,NaN,0.369005,5.122152E-11,6.283714E-07,-1.098545E-07,-5.780779E-09,-2.622604E-08
874.1786,-0.1601394,2.705829E-09,NaN,-0.6474417,-1.318991E-07,NaN,-0.3293447,-4.938704E-07,NaN,-1.123649,2.364966E-05,-0.5794029,8.595709E-08,NaN,NaN,0.369005,5.122152E-11,6.283714E-07,-1.098545E-07,-5.780779E-09,-2.622604E-08
874.1926,-0.1598763,2.706454E-09,NaN,-0.648211,-1.31899E-07,NaN,-0.3309507,-4.946649E-07,NaN,-1.125852,2.365003E-05,-0.5825995,8.617728E-08,NaN,NaN,0.3701404,4.656491E-11,6.254657E-07,-1.098531E-07,-6.56309E-09,-2.861022E-08
874.2079,-0.1595908,2.707078E-09,NaN,-0.649048,-1.318974E-07,NaN,-0.332684,-4.953207E-07,NaN,-1.128146,2.36504E-05,-0.5859648,8.620783E-08,NaN,NaN,0.3712539,4.656491E-11,6.329163E-07,-1.098539E-07,-6.097428E-09,-2.622604E-08
874.2225,-0.1592928,2.707702E-09,NaN,-0.6499231,-1.318955E-07,NaN,-0.3345165,-4.959765E-07,NaN,-1.130466,2.365076E-05,-0.5892802,8.620128E-08,NaN,NaN,0.3723456,4.656491E-11,6.42751E-07,-1.098548E-07,-7.215015E-09,-2.861022E-08
874.2371,-0.1592928,2.707702E-09,NaN,-0.6499231,-1.318955E-07,NaN,-0.3345165,-4.959765E-07,NaN,-1.130466,2.365076E-05,-0.5892802,8.620128E-08,NaN,NaN,0.3723456,4.656491E-11,6.42751E-07,-1.098548E-07,-7.215015E-09,-2.861022E-08
874.2512,-0.1589532,2.708326E-09,NaN,-0.6509221,-1.318937E-07,NaN,-0.3365441,-4.966323E-07,NaN,-1.133235,2.365113E-05,-0.5932527,8.616767E-08,NaN,NaN,0.3737296,4.656491E-11,6.429E-07,-1.098557E-07,-9.152166E-09,-2.622604E-08
874.2665,-0.1585898,2.708949E-09,NaN,-0.651993,-1.318919E-07,NaN,-0.3387139,-4.972881E-07,NaN,-1.136092,2.36515E-05,-0.5973672,8.611438E-08,NaN,NaN,0.3750868,4.656491E-11,6.533309E-07,-1.098567E-07,-6.76798E-09,-2.861022E-08
874.2812,-0.1582135,2.709573E-09,NaN,-0.6531032,-1.318901E-07,NaN,-0.340986,-4.979439E-07,NaN,-1.138972,2.365186E-05,-0.6014094,8.60468E-08,NaN,NaN,0.3764175,5.122152E-11,6.606325E-07,-1.098576E-07,-9.114913E-09,-2.622604E-08
874.2961,-0.1582135,2.709573E-09,NaN,-0.6531032,-1.318901E-07,NaN,-0.340986,-4.979439E-07,NaN,-1.138972,2.365186E-05,-0.6014094,8.60468E-08,NaN,NaN,0.3764175,5.122152E-11,6.606325E-07,-1.098576E-07,-9.114913E-09,-2.622604E-08
874.3101,-0.1578312,2.710197E-09,NaN,-0.6542327,-1.318883E-07,NaN,-0.343302,-4.985997E-07,NaN,-1.141841,2.365223E-05,-0.6053426,8.596894E-08,NaN,NaN,0.377722,5.122152E-11,6.690516E-07,-1.098586E-07,-8.258096E-09,-2.861022E-08
874.3254,-0.1574114,2.710821E-09,NaN,-0.6554735,-1.318883E-07,NaN,-0.3457837,-4.994059E-07,NaN,-1.145133,2.36526E-05,-0.6099199,8.61886E-08,NaN,NaN,0.3793147,4.656491E-11,6.712868E-07,-1.098571E-07,-6.469957E-09,-2.622604E-08
874.3403,-0.1569708,2.711444E-09,NaN,-0.6567772,-1.318867E-07,NaN,-0.348385,-5.000705E-07,NaN,-1.148497,2.365296E-05,-0.6146303,8.621819E-08,NaN,NaN,0.3808765,6.053474E-11,6.819411E-07,-1.098579E-07,-3.862254E-09,-2.861022E-08
874.355,-0.1569708,2.711444E-09,NaN,-0.6567772,-1.318867E-07,NaN,-0.348385,-5.000705E-07,NaN,-1.148497,2.365296E-05,-0.6146303,8.621819E-08,NaN,NaN,0.3808765,6.053474E-11,6.819411E-07,-1.098579E-07,-3.862254E-09,-2.861022E-08
874.3692,-0.1565196,2.712068E-09,NaN,-0.6581137,-1.318849E-07,NaN,-0.3510737,-5.00735E-07,NaN,-1.151871,2.365333E-05,-0.61926,8.621251E-08,NaN,NaN,0.3824077,6.984797E-11,6.917759E-07,-1.098588E-07,9.061178E-10,-2.622604E-08
874.3845,-0.156064,2.712691E-09,NaN,-0.6594643,-1.318831E-07,NaN,-0.3537962,-5.013996E-07,NaN,-1.155224,2.365371E-05,-0.6237713,8.618112E-08,NaN,NaN,0.3839089,7.450458E-11,6.992265E-07,-1.098597E-07,3.100714E-10,-2.861022E-08
874.4012,-0.1555721,2.713315E-09,NaN,-0.6609221,-1.318813E-07,NaN,-0.3566893,-5.020642E-07,NaN,-1.158988,2.365409E-05,-0.6289155,8.613101E-08,NaN,NaN,0.3856944,7.91612E-11,6.999715E-07,-1.098607E-07,3.100714E-10,-2.622604E-08
874.4147,-0.1555721,2.713315E-09,NaN,-0.6609221,-1.318813E-07,NaN,-0.3566893,-5.020642E-07,NaN,-1.158988,2.365409E-05,-0.6289155,8.613101E-08,NaN,NaN,0.3856944,7.91612E-11,6.999715E-07,-1.098607E-07,3.100714E-10,-2.622604E-08
874.4288,-0.1550606,2.713938E-09,NaN,-0.6624392,-1.318795E-07,NaN,-0.3596973,-5.027287E-07,NaN,-1.162817,2.365446E-05,-0.634177,8.606734E-08,NaN,NaN,0.3874452,9.313104E-11,7.089122E-07,-1.098616E-07,-1.627079E-09,-2.861022E-08
874.4445,-0.1545396,2.714562E-09,NaN,-0.663986,-1.318777E-07,NaN,-0.3627855,-5.033933E-07,NaN,-1.166648,2.365485E-05,-0.6393448,8.599388E-08,NaN,NaN,0.3891616,1.024443E-10,7.206841E-07,-1.098625E-07,-5.054346E-09,-2.622604E-08
874.4578,-0.1545396,2.714562E-09,NaN,-0.663986,-1.318777E-07,NaN,-0.3627855,-5.033933E-07,NaN,-1.166648,2.365485E-05,-0.6393448,8.599388E-08,NaN,NaN,0.3891616,1.024443E-10,7.206841E-07,-1.098625E-07,-5.054346E-09,-2.622604E-08
874.4717,-0.1539794,2.715185E-09,NaN,-0.6656486,-1.31876E-07,NaN,-0.3660824,-5.040578E-07,NaN,-1.170896,2.365523E-05,-0.645128,8.59134E-08,NaN,NaN,0.3911582,1.117575E-10,7.227703E-07,-1.098635E-07,-4.309288E-09,-2.861022E-08
874.4872,-0.1533983,2.71581E-09,NaN,-0.6673747,-1.318761E-07,NaN,-0.3695071,-5.048768E-07,NaN,-1.175211,2.365562E-05,-0.6510033,8.613669E-08,NaN,NaN,0.393116,1.117575E-10,7.32754E-07,-1.09862E-07,-5.352369E-09,-2.622604E-08
874.5017,-0.1528071,2.716434E-09,NaN,-0.6691322,-1.318745E-07,NaN,-0.3730131,-5.055515E-07,NaN,-1.179524,2.365601E-05,-0.656765,8.616902E-08,NaN,NaN,0.3950354,1.117575E-10,7.405026E-07,-1.098627E-07,-5.948416E-09,-2.861022E-08
874.5164,-0.1528071,2.716434E-09,NaN,-0.6691322,-1.318745E-07,NaN,-0.3730131,-5.055515E-07,NaN,-1.179524,2.365601E-05,-0.656765,8.616902E-08,NaN,NaN,0.3950354,1.117575E-10,7.405026E-07,-1.098627E-07,-5.948416E-09,-2.861022E-08
874.5303,-0.1522125,2.717057E-09,NaN,-0.670901,-1.318727E-07,NaN,-0.376543,-5.062262E-07,NaN,-1.183804,2.36564E-05,-0.6623816,8.616728E-08,NaN,NaN,0.3969171,1.164141E-10,7.479532E-07,-1.098636E-07,-5.650392E-09,-2.622604E-08
874.5458,-0.1515828,2.717681E-09,NaN,-0.6727734,-1.31871E-07,NaN,-0.3802579,-5.06901E-07,NaN,-1.188476,2.365678E-05,-0.6686042,8.61407E-08,NaN,NaN,0.3990757,1.257273E-10,7.473571E-07,-1.098645E-07,-7.587543E-09,-2.861022E-08
874.5604,-0.1509348,2.718305E-09,NaN,-0.6747008,-1.318692E-07,NaN,-0.3840785,-5.075757E-07,NaN,-1.193201,2.365717E-05,-0.6749108,8.609604E-08,NaN,NaN,0.4011922,1.303839E-10,7.592781E-07,-1.098654E-07,-8.034577E-09,-2.622604E-08
874.5751,-0.1509348,2.718305E-09,NaN,-0.6747008,-1.318692E-07,NaN,-0.3840785,-5.075757E-07,NaN,-1.193201,2.365717E-05,-0.6749108,8.609604E-08,NaN,NaN,0.4011922,1.303839E-10,7.592781E-07,-1.098654E-07,-8.034577E-09,-2.622604E-08
874.5895,-0.1502788,2.718929E-09,NaN,-0.6766534,-1.318675E-07,NaN,-0.3879646,-5.082504E-07,NaN,-1.197914,2.365755E-05,-0.6810979,8.603825E-08,NaN,NaN,0.4032674,1.350405E-10,7.701559E-07,-1.098664E-07,-6.693473E-09,-2.861022E-08
874.6047,-0.1496209,2.719553E-09,NaN,-0.6786126,-1.318658E-07,NaN,-0.3918637,-5.089252E-07,NaN,-1.202585,2.365794E-05,-0.6871335,8.597099E-08,NaN,NaN,0.4053018,1.396972E-10,7.802887E-07,-1.098673E-07,-8.630623E-09,-2.622604E-08
874.6197,-0.1496209,2.719553E-09,NaN,-0.6786126,-1.318658E-07,NaN,-0.3918637,-5.089252E-07,NaN,-1.202585,2.365794E-05,-0.6871335,8.597099E-08,NaN,NaN,0.4053018,1.396972E-10,7.802887E-07,-1.098673E-07,-8.630623E-09,-2.622604E-08
874.6336,-0.148929,2.720177E-09,NaN,-0.6806717,-1.318659E-07,NaN,-0.3959562,-5.097459E-07,NaN,-1.207638,2.365833E-05,-0.6937656,8.619848E-08,NaN,NaN,0.40761,1.350405E-10,7.814808E-07,-1.098658E-07,-1.012074E-08,-2.861022E-08
874.6489,-0.1482198,2.720801E-09,NaN,-0.6827827,-1.318643E-07,NaN,-0.4001482,-5.104216E-07,NaN,-1.212739,2.365872E-05,-0.7004672,8.623332E-08,NaN,NaN,0.4098733,1.396972E-10,7.911666E-07,-1.098665E-07,-1.250493E-08,-2.622604E-08
874.6635,-0.1475035,2.721426E-09,NaN,-0.6849161,-1.318626E-07,NaN,-0.4043967,-5.110973E-07,NaN,-1.217822,2.36591E-05,-0.7070392,8.623348E-08,NaN,NaN,0.4120923,1.490104E-10,8.001073E-07,-1.098674E-07,-1.339899E-08,-2.861022E-08
874.6793,-0.1475035,2.721426E-09,NaN,-0.6849161,-1.318626E-07,NaN,-0.4043967,-5.110973E-07,NaN,-1.217822,2.36591E-05,-0.7070392,8.623348E-08,NaN,NaN,0.4120923,1.490104E-10,8.001073E-07,-1.098674E-07,-1.339899E-08,-2.861022E-08
874.6934,-0.1467503,2.72205E-09,NaN,-0.687158,-1.318608E-07,NaN,-0.4088759,-5.11773E-07,NaN,-1.223295,2.365949E-05,-0.714191,8.620835E-08,NaN,NaN,0.4145814,1.490104E-10,8.010014E-07,-1.098682E-07,-1.339899E-08,-2.622604E-08
874.7076,-0.1459783,2.722674E-09,NaN,-0.6894565,-1.318591E-07,NaN,-0.4134642,-5.124487E-07,NaN,-1.228817,2.365988E-05,-0.721389,8.616479E-08,NaN,NaN,0.4170221,1.53667E-10,8.0875E-07,-1.098691E-07,-1.280295E-08,-2.861022E-08
874.7222,-0.1451987,2.723298E-09,NaN,-0.6917791,-1.318574E-07,NaN,-0.4181077,-5.131243E-07,NaN,-1.234321,2.366026E-05,-0.728441,8.610787E-08,NaN,NaN,0.419415,1.583236E-10,8.179887E-07,-1.0987E-07,-1.578318E-08,-2.622604E-08
874.7369,-0.1451987,2.723298E-09,NaN,-0.6917791,-1.318574E-07,NaN,-0.4181077,-5.131243E-07,NaN,-1.234321,2.366026E-05,-0.728441,8.610787E-08,NaN,NaN,0.419415,1.583236E-10,8.179887E-07,-1.0987E-07,-1.578318E-08,-2.622604E-08
874.751,-0.144418,2.723922E-09,NaN,-0.6941063,-1.318557E-07,NaN,-0.4227515,-5.138E-07,NaN,-1.239772,2.366065E-05,-0.7353213,8.604129E-08,NaN,NaN,0.4217609,1.629802E-10,8.254393E-07,-1.098709E-07,-1.846539E-08,-2.861022E-08
874.7662,-0.1436041,2.724547E-09,NaN,-0.6965302,-1.31854E-07,NaN,-0.427608,-5.144757E-07,NaN,-1.24559,2.366103E-05,-0.7427734,8.596778E-08,NaN,NaN,0.4243746,1.722934E-10,8.293135E-07,-1.098718E-07,-1.757132E-08,-2.622604E-08
874.7806,-0.1427741,2.725172E-09,NaN,-0.6990024,-1.318542E-07,NaN,-0.4325517,-5.153019E-07,NaN,-1.251445,2.366142E-05,-0.7502642,8.619497E-08,NaN,NaN,0.4269373,1.722934E-10,8.388503E-07,-1.098703E-07,-2.263771E-08,-2.861022E-08
874.7953,-0.1427741,2.725172E-09,NaN,-0.6990024,-1.318542E-07,NaN,-0.4325517,-5.153019E-07,NaN,-1.251445,2.366142E-05,-0.7502642,8.619497E-08,NaN,NaN,0.4269373,1.722934E-10,8.388503E-07,-1.098703E-07,-2.263771E-08,-2.861022E-08
874.8096,-0.1419384,2.725796E-09,NaN,-0.7014931,-1.318526E-07,NaN,-0.4375342,-5.15983E-07,NaN,-1.257273,2.366181E-05,-0.7576053,8.623054E-08,NaN,NaN,0.4294497,1.769501E-10,8.465989E-07,-1.09871E-07,-2.323376E-08,-2.622604E-08
874.825,-0.1411029,2.726421E-09,NaN,-0.7039839,-1.31851E-07,NaN,-0.4425057,-5.166641E-07,NaN,-1.263041,2.366219E-05,-0.7647714,8.623221E-08,NaN,NaN,0.431913,1.816067E-10,8.534534E-07,-1.098719E-07,-2.770411E-08,-2.861022E-08
874.8396,-0.1411029,2.726421E-09,NaN,-0.7039839,-1.31851E-07,NaN,-0.4425057,-5.166641E-07,NaN,-1.263041,2.366219E-05,-0.7647714,8.623221E-08,NaN,NaN,0.431913,1.816067E-10,8.534534E-07,-1.098719E-07,-2.770411E-08,-2.861022E-08
874.8536,-0.1402352,2.727045E-09,NaN,-0.7065681,-1.318493E-07,NaN,-0.4477005,-5.173452E-07,NaN,-1.269167,2.366258E-05,-0.7724996,8.620915E-08,NaN,NaN,0.4346416,1.862633E-10,8.522613E-07,-1.098727E-07,-2.88962E-08,-2.622604E-08
874.8694,-0.1393523,2.72767E-09,NaN,-0.7091979,-1.318476E-07,NaN,-0.4529748,-5.180263E-07,NaN,-1.275326,2.366297E-05,-0.7802534,8.616809E-08,NaN,NaN,0.4373171,1.909199E-10,8.615E-07,-1.098736E-07,-2.621399E-08,-2.861022E-08
874.8839,-0.1384644,2.728295E-09,NaN,-0.7118436,-1.318459E-07,NaN,-0.4582774,-5.187074E-07,NaN,-1.281454,2.366335E-05,-0.7878513,8.611396E-08,NaN,NaN,0.4399401,1.955765E-10,8.671624E-07,-1.098745E-07,-2.442585E-08,-2.622604E-08
874.8992,-0.1384644,2.728295E-09,NaN,-0.7118436,-1.318459E-07,NaN,-0.4582774,-5.187074E-07,NaN,-1.281454,2.366335E-05,-0.7878513,8.611396E-08,NaN,NaN,0.4399401,1.955765E-10,8.671624E-07,-1.098745E-07,-2.442585E-08,-2.622604E-08
874.9125,-0.1375411,2.728919E-09,NaN,-0.7145917,-1.318442E-07,NaN,-0.4638381,-5.193885E-07,NaN,-1.287948,2.366374E-05,-0.7959946,8.605039E-08,NaN,NaN,0.4428254,2.002331E-10,8.659703E-07,-1.098754E-07,-2.621399E-08,-2.861022E-08
874.9291,-0.1366013,2.729544E-09,NaN,-0.7173901,-1.318426E-07,NaN,-0.469484,-5.200696E-07,NaN,-1.294479,2.366412E-05,-0.8041436,8.598005E-08,NaN,NaN,0.4456545,2.095463E-10,8.707387E-07,-1.098763E-07,-2.621399E-08,-2.622604E-08
874.9437,-0.1356558,2.730169E-09,NaN,-0.7202065,-1.318428E-07,NaN,-0.4751545,-5.209026E-07,NaN,-1.300979,2.366451E-05,-0.8121243,8.621228E-08,NaN,NaN,0.4484281,2.095463E-10,8.734209E-07,-1.098747E-07,-2.442585E-08,-2.861022E-08
874.9574,-0.1356558,2.730169E-09,NaN,-0.7202065,-1.318428E-07,NaN,-0.4751545,-5.209026E-07,NaN,-1.300979,2.366451E-05,-0.8121243,8.621228E-08,NaN,NaN,0.4484281,2.095463E-10,8.734209E-07,-1.098747E-07,-2.442585E-08,-2.861022E-08
874.9716,-0.1347114,2.730794E-09,NaN,-0.7230213,-1.318413E-07,NaN,-0.4807996,-5.215869E-07,NaN,-1.307412,2.36649E-05,-0.8199162,8.624952E-08,NaN,NaN,0.4511473,2.142029E-10,8.766992E-07,-1.098754E-07,-2.263771E-08,-2.622604E-08
874.9871,-0.1337352,2.731418E-09,NaN,-0.7259271,-1.318396E-07,NaN,-0.4866902,-5.222713E-07,NaN,-1.314186,2.366529E-05,-0.828244,8.625298E-08,NaN,NaN,0.454127,2.188595E-10,8.755071E-07,-1.098762E-07,-2.084957E-08,-2.861022E-08
875.0014,-0.1327449,2.732043E-09,NaN,-0.7288752,-1.31838E-07,NaN,-0.4926449,-5.229556E-07,NaN,-1.320989,2.366569E-05,-0.8365709,8.623179E-08,NaN,NaN,0.4570484,2.235162E-10,8.778912E-07,-1.098771E-07,-1.786934E-08,-2.622604E-08
875.0162,-0.1327449,2.732043E-09,NaN,-0.7288752,-1.31838E-07,NaN,-0.4926449,-5.229556E-07,NaN,-1.320989,2.366569E-05,-0.8365709,8.623179E-08,NaN,NaN,0.4570484,2.235162E-10,8.778912E-07,-1.098771E-07,-1.786934E-08,-2.622604E-08
875.03,-0.1317508,2.732668E-09,NaN,-0.731836,-1.318363E-07,NaN,-0.4986078,-5.236399E-07,NaN,-1.327752,2.366609E-05,-0.8447286,8.619266E-08,NaN,NaN,0.4599127,2.281728E-10,8.826596E-07,-1.098779E-07,-1.906144E-08,-2.861022E-08
875.0453,-0.1307589,2.733292E-09,NaN,-0.7347912,-1.318347E-07,NaN,-0.5045339,-5.243243E-07,NaN,-1.334443,2.366649E-05,-0.852697,8.614049E-08,NaN,NaN,0.4627208,2.37486E-10,8.829576E-07,-1.098788E-07,-2.025353E-08,-2.622604E-08
875.0601,-0.1297362,2.733918E-09,NaN,-0.7378342,-1.31833E-07,NaN,-0.5107179,-5.250086E-07,NaN,-1.341468,2.366689E-05,-0.8611889,8.607891E-08,NaN,NaN,0.4657876,2.421426E-10,8.737189E-07,-1.098797E-07,-1.846539E-08,-2.861022E-08
875.0748,-0.1297362,2.733918E-09,NaN,-0.7378342,-1.31833E-07,NaN,-0.5107179,-5.250086E-07,NaN,-1.341468,2.366689E-05,-0.8611889,8.607891E-08,NaN,NaN,0.4657876,2.421426E-10,8.737189E-07,-1.098797E-07,-1.846539E-08,-2.861022E-08
875.0889,-0.1287001,2.734543E-09,NaN,-0.7409171,-1.318314E-07,NaN,-0.5169566,-5.256929E-07,NaN,-1.348518,2.36673E-05,-0.86967,8.601056E-08,NaN,NaN,0.4687946,2.467992E-10,8.755071E-07,-1.098805E-07,-2.323376E-08,-2.622604E-08
875.1042,-0.1276608,2.735168E-09,NaN,-0.7440104,-1.318299E-07,NaN,-0.5231923,-5.263773E-07,NaN,-1.355527,2.366771E-05,-0.8779797,8.593739E-08,NaN,NaN,0.4717426,2.561124E-10,8.758051E-07,-1.098814E-07,-2.800213E-08,-2.861022E-08
875.1194,-0.1276608,2.735168E-09,NaN,-0.7440104,-1.318299E-07,NaN,-0.5231923,-5.263773E-07,NaN,-1.355527,2.366771E-05,-0.8779797,8.593739E-08,NaN,NaN,0.4717426,2.561124E-10,8.758051E-07,-1.098814E-07,-2.800213E-08,-2.861022E-08
875.1332,-0.1265876,2.735794E-09,NaN,-0.7472007,-1.318299E-07,NaN,-0.5297171,-5.272855E-07,NaN,-1.362878,2.366812E-05,-0.8867964,8.623994E-08,NaN,NaN,0.4749466,2.561124E-10,8.701426E-07,-1.098817E-07,-2.323376E-08,-2.622604E-08
875.1484,-0.1254995,2.736419E-09,NaN,-0.7504357,-1.318298E-07,NaN,-0.5362985,-5.257802E-07,NaN,-1.370261,2.366854E-05,-0.8955875,8.427645E-08,NaN,NaN,0.478088,2.561124E-10,8.686525E-07,-1.098832E-07,-2.740609E-08,-2.861022E-08
