JMolnar6/NonAnthroHands_User_Study/HandsLoggerWithURDF/tempdata/files/Reachy_PID0_JointMotion_gesture_8_2.csv
Time,r_shoulder,r_shoulder_x,r_upper_arm,r_forearm,r_wrist,r_wrist2hand,
431.7623,0.04490181,-0.3297661,0.3225168,-0.5184,-0.3510443,-0.02005262
431.7771,0.04490181,-0.3297661,0.3225168,-0.5184,-0.3510443,-0.02005262
431.7907,0.0449022,-0.3297354,0.3240666,-0.518398,-0.35132,-0.02005201
431.808,0.04490259,-0.329705,0.3256007,-0.5183959,-0.351594,-0.0200514
431.8217,0.04490297,-0.329675,0.3271194,-0.5183936,-0.3518664,-0.0200508
431.8353,0.04490297,-0.329675,0.3271194,-0.5183936,-0.3518664,-0.0200508
431.8492,0.04490336,-0.3296454,0.3286228,-0.5183913,-0.3521371,-0.0200502
431.8648,0.04490374,-0.3296161,0.330111,-0.5183887,-0.352406,-0.0200496
431.8791,0.04490374,-0.3296161,0.330111,-0.5183887,-0.352406,-0.0200496
431.8929,0.04490412,-0.3295872,0.3315842,-0.518386,-0.3526733,-0.020049
431.9083,0.0449045,-0.3295586,0.3330425,-0.5183831,-0.3529389,-0.02004841
431.9229,0.04490488,-0.3295303,0.3344861,-0.5183802,-0.3532027,-0.02004782
431.939,0.04490488,-0.3295303,0.3344861,-0.5183802,-0.3532027,-0.02004782
431.9515,0.04490526,-0.3295024,0.335915,-0.5183771,-0.3534649,-0.02004723
431.9669,0.04490564,-0.3294749,0.3373295,-0.5183738,-0.3537253,-0.02004664
431.9816,0.04490601,-0.3294476,0.3387297,-0.5183704,-0.3539841,-0.02004605
431.9963,0.04490601,-0.3294476,0.3387297,-0.5183704,-0.3539841,-0.02004605
432.0101,0.04490638,-0.3294207,0.3401157,-0.5183669,-0.3542411,-0.02004547
432.0257,0.04490675,-0.3293941,0.3414876,-0.5183634,-0.3544964,-0.02004489
432.0402,0.04490712,-0.3293678,0.3428457,-0.5183597,-0.3547501,-0.02004431
432.0549,0.04490712,-0.3293678,0.3428457,-0.5183597,-0.3547501,-0.02004431
432.0692,0.04490749,-0.3293419,0.3441899,-0.5183558,-0.355002,-0.02004373
432.0862,0.04490786,-0.3293162,0.3455206,-0.5183519,-0.3552522,-0.02004316
432.0999,0.04490786,-0.3293162,0.3455206,-0.5183519,-0.3552522,-0.02004316
432.1138,0.04490822,-0.3292909,0.3468376,-0.5183479,-0.3555008,-0.02004258
432.1283,0.04490859,-0.3292658,0.3481413,-0.5183437,-0.3557476,-0.02004201
432.1425,0.04490895,-0.3292411,0.3494318,-0.5183395,-0.3559927,-0.02004145
432.1569,0.04490895,-0.3292411,0.3494318,-0.5183395,-0.3559927,-0.02004145
432.171,0.04490931,-0.3292167,0.3507091,-0.5183352,-0.3562361,-0.02004088
432.1863,0.04490967,-0.3291925,0.3519734,-0.5183308,-0.3564779,-0.02004032
432.2008,0.04491002,-0.3291686,0.3532248,-0.5183262,-0.3567179,-0.02003976
432.2155,0.04491002,-0.3291686,0.3532248,-0.5183262,-0.3567179,-0.02003976
432.2296,0.04491038,-0.329145,0.3544635,-0.5183216,-0.3569563,-0.0200392
432.245,0.04491074,-0.3291217,0.3556895,-0.518317,-0.3571929,-0.02003865
432.2597,0.04491074,-0.3291217,0.3556895,-0.518317,-0.3571929,-0.02003865
432.2736,0.04491109,-0.3290987,0.3569031,-0.5183122,-0.3574279,-0.0200381
432.2893,0.04491144,-0.329076,0.3581042,-0.5183074,-0.3576612,-0.02003755
432.3039,0.04491179,-0.3290535,0.3592931,-0.5183025,-0.3578928,-0.020037
432.3184,0.04491179,-0.3290535,0.3592931,-0.5183025,-0.3578928,-0.020037
432.3326,0.04491214,-0.3290313,0.3604698,-0.5182975,-0.3581228,-0.02003646
432.348,0.04491249,-0.3290094,0.3616346,-0.5182924,-0.3583511,-0.02003592
432.3625,0.04491283,-0.3289877,0.3627873,-0.5182873,-0.3585777,-0.02003539
432.3783,0.04491283,-0.3289877,0.3627873,-0.5182873,-0.3585777,-0.02003539
432.3924,0.04491318,-0.3289663,0.3639283,-0.5182821,-0.3588027,-0.02003485
432.4062,0.04491352,-0.3289451,0.3650576,-0.5182769,-0.359026,-0.02003432
432.4209,0.04491386,-0.3289242,0.3661754,-0.5182716,-0.3592477,-0.02003379
432.4355,0.04491386,-0.3289242,0.3661754,-0.5182716,-0.3592477,-0.02003379
432.4495,0.0449142,-0.3289035,0.3672817,-0.5182662,-0.3594677,-0.02003326
432.4649,0.04491454,-0.3288831,0.3683766,-0.5182608,-0.359686,-0.02003274
432.4803,0.04491488,-0.3288629,0.3694603,-0.5182553,-0.3599028,-0.02003222
432.494,0.04491488,-0.3288629,0.3694603,-0.5182553,-0.3599028,-0.02003222
432.508,0.04491521,-0.328843,0.3705329,-0.5182498,-0.3601179,-0.0200317
432.5233,0.04491555,-0.3288233,0.3715945,-0.5182443,-0.3603314,-0.02003118
432.5379,0.04491555,-0.3288233,0.3715945,-0.5182443,-0.3603314,-0.02003118
432.5519,0.04491588,-0.3288038,0.3726452,-0.5182387,-0.3605432,-0.02003067
432.5673,0.04491621,-0.3287846,0.3736851,-0.518233,-0.3607535,-0.02003016
432.5821,0.04491654,-0.3287656,0.3747143,-0.5182273,-0.3609621,-0.02002966
432.597,0.04491654,-0.3287656,0.3747143,-0.5182273,-0.3609621,-0.02002966
432.6109,0.04491687,-0.3287469,0.3757329,-0.5182216,-0.3611692,-0.02002915
432.6263,0.0449172,-0.3287283,0.376741,-0.5182158,-0.3613746,-0.02002865
432.6407,0.04491753,-0.32871,0.3777388,-0.5182101,-0.3615785,-0.02002816
432.6572,0.04491753,-0.32871,0.3777388,-0.5182101,-0.3615785,-0.02002816
432.6703,0.04491785,-0.3286919,0.3787262,-0.5182042,-0.3617808,-0.02002766
432.6851,0.04491818,-0.328674,0.3797036,-0.5181983,-0.3619815,-0.02002717
432.699,0.04491818,-0.328674,0.3797036,-0.5181983,-0.3619815,-0.02002717
432.7132,0.0449185,-0.3286563,0.3806708,-0.5181924,-0.3621807,-0.02002668
432.7286,0.04491882,-0.3286389,0.381628,-0.5181865,-0.3623782,-0.02002619
432.743,0.04491914,-0.3286216,0.3825754,-0.5181805,-0.3625743,-0.02002571
432.7576,0.04491914,-0.3286216,0.3825754,-0.5181805,-0.3625743,-0.02002571
432.7719,0.04491946,-0.3286046,0.383513,-0.5181745,-0.3627688,-0.02002523
432.7884,0.04491979,-0.3285877,0.3845834,-0.5193989,-0.3631529,-0.02002814
432.8019,0.04492012,-0.3285711,0.3856318,-0.5213213,-0.3635468,-0.02002959
432.8167,0.04492012,-0.3285711,0.3856318,-0.5213213,-0.3635468,-0.02002959
432.8308,0.04492044,-0.3285547,0.3866276,-0.5235575,-0.3638998,-0.02003044
432.8463,0.04492076,-0.3285384,0.3875813,-0.5259238,-0.3642132,-0.02003102
432.861,0.04492107,-0.3285224,0.388367,-0.5271017,-0.3643082,-0.02002819
432.8755,0.04492107,-0.3285224,0.388367,-0.5271017,-0.3643082,-0.02002819
432.8895,0.04492137,-0.3285065,0.389148,-0.5275819,-0.3643731,-0.02002672
432.905,0.04492168,-0.3284909,0.3899595,-0.5277286,-0.364464,-0.02002579
432.9194,0.04492168,-0.3284909,0.3899595,-0.5277286,-0.364464,-0.02002579
432.9356,0.04492197,-0.3284754,0.3906537,-0.5264854,-0.3643936,-0.0200218
432.9498,0.04492227,-0.32846,0.3913689,-0.5244689,-0.3643302,-0.0200193
432.9634,0.04492256,-0.3284449,0.3921257,-0.5221035,-0.3643159,-0.02001741
432.9781,0.04492256,-0.3284449,0.3921257,-0.5221035,-0.3643159,-0.02001741
432.9919,0.04492286,-0.32843,0.3929089,-0.5195924,-0.3643441,-0.02001578
433.0072,0.04492315,-0.3284152,0.3935595,-0.515802,-0.3642097,-0.02001088
433.0217,0.04492343,-0.3284006,0.3942185,-0.5113117,-0.3640787,-0.02000747
433.0363,0.04492343,-0.3284006,0.3942185,-0.5113117,-0.3640787,-0.02000747
433.0503,0.04492372,-0.3283862,0.3949118,-0.5065277,-0.3639956,-0.02000468
433.0657,0.04492401,-0.3283719,0.3956278,-0.501644,-0.3639561,-0.02000214
433.0802,0.04492428,-0.3283578,0.3962035,-0.4955226,-0.3637515,-0.01999607
433.095,0.04492428,-0.3283578,0.3962035,-0.4955226,-0.3637515,-0.01999607
433.1087,0.04492456,-0.328344,0.3967837,-0.4887401,-0.3635504,-0.01999157
433.1243,0.04492483,-0.3283302,0.3973976,-0.4817011,-0.3633994,-0.01998772
433.1388,0.04492483,-0.3283302,0.3973976,-0.4817011,-0.3633994,-0.01998772
433.1529,0.04492511,-0.3283167,0.3980165,-0.474454,-0.3632714,-0.01998364
433.1683,0.04492538,-0.3283033,0.3986447,-0.467153,-0.3631754,-0.01997986
433.183,0.04492566,-0.32829,0.399277,-0.4598865,-0.3631074,-0.01997618
433.1973,0.04492566,-0.32829,0.399277,-0.4598865,-0.3631074,-0.01997618
433.2134,0.04492594,-0.328277,0.399907,-0.4526962,-0.3630606,-0.01997253
433.2279,0.04492621,-0.3282641,0.4005307,-0.445601,-0.3630297,-0.01996888
433.2413,0.04492649,-0.3282513,0.4011462,-0.4386092,-0.3630112,-0.01996521
433.256,0.04492649,-0.3282513,0.4011462,-0.4386092,-0.3630112,-0.01996521
433.2697,0.04492676,-0.3282388,0.4017528,-0.4317238,-0.3630032,-0.01996152
433.285,0.04492703,-0.3282263,0.4023505,-0.4249455,-0.3630045,-0.0199578
433.2997,0.04492703,-0.3282263,0.4023505,-0.4249455,-0.3630045,-0.0199578
433.3136,0.04492731,-0.328214,0.4029397,-0.4182737,-0.3630145,-0.01995405
433.3289,0.04492758,-0.3282019,0.4035209,-0.411707,-0.3630328,-0.01995027
433.3434,0.04492785,-0.3281899,0.4040944,-0.4052443,-0.3630593,-0.01994644
433.3579,0.04492785,-0.3281899,0.4040944,-0.4052443,-0.3630593,-0.01994644
433.3723,0.04492811,-0.3281781,0.4046609,-0.3988838,-0.3630938,-0.01994259
433.3875,0.04492838,-0.3281664,0.4052206,-0.3926242,-0.3631361,-0.01993869
433.4022,0.04492865,-0.3281549,0.405774,-0.3864637,-0.3631862,-0.01993475
433.4169,0.04492865,-0.3281549,0.405774,-0.3864637,-0.3631862,-0.01993475
433.4309,0.04492892,-0.3281434,0.4063214,-0.3804008,-0.3632438,-0.01993076
433.4467,0.04492918,-0.3281322,0.4068632,-0.374434,-0.3633089,-0.01992673
433.4611,0.04492944,-0.328121,0.4073995,-0.3685618,-0.3633815,-0.01992265
433.4757,0.04492944,-0.328121,0.4073995,-0.3685618,-0.3633815,-0.01992265
433.4895,0.04492971,-0.32811,0.4079307,-0.3627826,-0.3634613,-0.01991852
433.5063,0.04492997,-0.3280992,0.4084571,-0.3570951,-0.3635483,-0.01991434
433.5198,0.04492997,-0.3280992,0.4084571,-0.3570951,-0.3635483,-0.01991434
433.5335,0.04493023,-0.3280884,0.4089788,-0.3514977,-0.3636424,-0.0199101
433.549,0.04493049,-0.3280778,0.4094962,-0.345989,-0.3637435,-0.01990581
433.5635,0.04493075,-0.3280673,0.4100094,-0.3405676,-0.3638515,-0.01990146
433.5781,0.04493075,-0.3280673,0.4100094,-0.3405676,-0.3638515,-0.01990146
433.5921,0.04493101,-0.328057,0.4105188,-0.3352321,-0.3639662,-0.01989705
433.6071,0.04493127,-0.3280468,0.4110244,-0.3299813,-0.3640877,-0.01989258
433.6218,0.04493152,-0.3280367,0.4115266,-0.3248136,-0.3642158,-0.01988804
433.6366,0.04493152,-0.3280367,0.4115266,-0.3248136,-0.3642158,-0.01988804
433.6505,0.04493178,-0.3280267,0.4120255,-0.3197279,-0.3643503,-0.01988343
433.666,0.04493203,-0.3280168,0.4125213,-0.3147228,-0.3644914,-0.01987876
433.6804,0.04493229,-0.3280071,0.4130142,-0.3097971,-0.3646387,-0.01987401
433.6952,0.04493229,-0.3280071,0.4130142,-0.3097971,-0.3646387,-0.01987401
433.7091,0.04493254,-0.3279974,0.4135045,-0.3049494,-0.3647924,-0.01986919
433.7246,0.04493279,-0.3279879,0.4139922,-0.3001786,-0.3649523,-0.01986429
433.7391,0.04493279,-0.3279879,0.4139922,-0.3001786,-0.3649523,-0.01986429
433.753,0.04493304,-0.3279786,0.4144777,-0.2954834,-0.3651183,-0.01985932
433.7684,0.04493329,-0.3279693,0.414961,-0.2908627,-0.3652903,-0.01985426
433.7865,0.04493354,-0.3279601,0.4154423,-0.2863152,-0.3654683,-0.01984913
433.7988,0.04493354,-0.3279601,0.4154423,-0.2863152,-0.3654683,-0.01984913
433.8126,0.04493379,-0.327951,0.4159219,-0.2818398,-0.3656523,-0.0198439
433.8268,0.04493404,-0.3279421,0.4163999,-0.2774354,-0.365842,-0.01983859
433.8413,0.04493428,-0.3279333,0.4168764,-0.2731008,-0.3660376,-0.01983319
433.856,0.04493428,-0.3279333,0.4168764,-0.2731008,-0.3660376,-0.01983319
433.8699,0.04493453,-0.3279245,0.4173516,-0.2688349,-0.3662389,-0.01982769
433.8851,0.04493478,-0.3279159,0.4178256,-0.2646367,-0.3664459,-0.0198221
433.8998,0.04493478,-0.3279159,0.4178256,-0.2646367,-0.3664459,-0.0198221
433.9138,0.04493502,-0.3279074,0.4182987,-0.260505,-0.3666585,-0.01981641
433.9291,0.04493526,-0.3278989,0.4187709,-0.2564388,-0.3668766,-0.01981062
433.9437,0.0449355,-0.3278906,0.4192424,-0.2524371,-0.3671002,-0.01980473
433.9584,0.0449355,-0.3278906,0.4192424,-0.2524371,-0.3671002,-0.01980473
433.9724,0.04493574,-0.3278824,0.4197133,-0.2484989,-0.3673292,-0.01979873
433.9878,0.04493598,-0.3278743,0.4201838,-0.2446231,-0.3675637,-0.01979262
434.0023,0.04493622,-0.3278663,0.420654,-0.2408088,-0.3678034,-0.0197864
434.0171,0.04493622,-0.3278663,0.420654,-0.2408088,-0.3678034,-0.0197864
434.0313,0.04493646,-0.3278584,0.421124,-0.237055,-0.3680485,-0.01978006
434.0469,0.0449367,-0.3278505,0.421594,-0.2333606,-0.3682987,-0.01977361
434.0613,0.04493693,-0.3278428,0.422064,-0.2297249,-0.3685541,-0.01976703
434.0768,0.04493693,-0.3278428,0.422064,-0.2297249,-0.3685541,-0.01976703
434.0907,0.04493717,-0.3278351,0.4225342,-0.2261468,-0.3688147,-0.01976033
434.1052,0.0449374,-0.3278276,0.4230046,-0.2226255,-0.3690804,-0.01975351
434.1198,0.0449374,-0.3278276,0.4230046,-0.2226255,-0.3690804,-0.01975351
434.1337,0.04493764,-0.3278201,0.4234754,-0.21916,-0.3693511,-0.01974655
434.1489,0.04493787,-0.3278128,0.4239467,-0.2157495,-0.3696268,-0.01973947
434.1635,0.0449381,-0.3278055,0.4244186,-0.2123931,-0.3699074,-0.01973224
434.1782,0.0449381,-0.3278055,0.4244186,-0.2123931,-0.3699074,-0.01973224
434.1921,0.04493833,-0.3277983,0.4248911,-0.2090899,-0.3701929,-0.01972489
434.2074,0.04493856,-0.3277912,0.4253644,-0.2058391,-0.3704833,-0.01971739
434.222,0.0449388,-0.3277841,0.4258386,-0.2026398,-0.3707784,-0.01970974
434.2369,0.0449388,-0.3277841,0.4258386,-0.2026398,-0.3707784,-0.01970974
434.251,0.04493902,-0.3277772,0.4263136,-0.1994914,-0.3710783,-0.01970195
434.2663,0.04493925,-0.3277703,0.4267897,-0.1963928,-0.371383,-0.01969401
434.2809,0.04493948,-0.3277636,0.4272668,-0.1933434,-0.3716922,-0.01968591
434.2958,0.04493948,-0.3277636,0.4272668,-0.1933434,-0.3716922,-0.01968591
434.3097,0.0449397,-0.3277569,0.427745,-0.1903424,-0.372006,-0.01967766
434.3254,0.04493993,-0.3277502,0.4282244,-0.1873889,-0.3723244,-0.01966925
434.3395,0.04493993,-0.3277502,0.4282244,-0.1873889,-0.3723244,-0.01966925
434.3557,0.04494015,-0.3277437,0.4287051,-0.1844824,-0.3726473,-0.01966067
434.3692,0.04494037,-0.3277372,0.4291871,-0.1816219,-0.3729746,-0.01965193
434.3837,0.0449406,-0.3277309,0.4296704,-0.1788068,-0.3733062,-0.01964302
434.3984,0.0449406,-0.3277309,0.4296704,-0.1788068,-0.3733062,-0.01964302
434.4122,0.04494082,-0.3277245,0.4301551,-0.1760364,-0.3736423,-0.01963394
434.4274,0.04494104,-0.3277183,0.4306412,-0.17331,-0.3739825,-0.01962467
434.4419,0.04494126,-0.3277121,0.4311287,-0.1706268,-0.374327,-0.01961523
434.4567,0.04494126,-0.3277121,0.4311287,-0.1706268,-0.374327,-0.01961523
434.4707,0.04494148,-0.3277061,0.4316178,-0.1679861,-0.3746756,-0.01960561
434.4861,0.0449417,-0.3277,0.4321084,-0.1653874,-0.3750283,-0.0195958
434.5007,0.04494192,-0.3276941,0.4326004,-0.1628299,-0.3753849,-0.0195858
434.5154,0.04494192,-0.3276941,0.4326004,-0.1628299,-0.3753849,-0.0195858
434.5294,0.04494213,-0.3276882,0.4330941,-0.160313,-0.3757455,-0.01957561
434.545,0.04494235,-0.3276824,0.4335892,-0.157836,-0.37611,-0.01956523
434.5595,0.04494235,-0.3276824,0.4335892,-0.157836,-0.37611,-0.01956523
434.5734,0.04494257,-0.3276767,0.4340859,-0.1553984,-0.3764783,-0.01955465
434.5888,0.04494278,-0.3276711,0.4345842,-0.1529994,-0.3768502,-0.01954386
434.6035,0.04494299,-0.3276654,0.435084,-0.1506385,-0.3772258,-0.01953288
434.6179,0.04494299,-0.3276654,0.435084,-0.1506385,-0.3772258,-0.01953288
434.6342,0.04494321,-0.3276599,0.4356513,-0.1484579,-0.3776732,-0.01952659
434.6484,0.04494342,-0.3276545,0.4362202,-0.1463983,-0.3781257,-0.01951812
434.662,0.04494363,-0.3276491,0.4367784,-0.1444122,-0.3785698,-0.01950865
434.6765,0.04494363,-0.3276491,0.4367784,-0.1444122,-0.3785698,-0.01950865
434.6904,0.04494385,-0.3276438,0.437915,-0.1436898,-0.3796132,-0.01954375
434.7055,0.04494407,-0.3276385,0.4390322,-0.1437234,-0.3806508,-0.0195602
434.7202,0.04494429,-0.3276333,0.4400293,-0.1441089,-0.381574,-0.01956869
434.7349,0.04494429,-0.3276333,0.4400293,-0.1441089,-0.381574,-0.01956869
434.7489,0.04494451,-0.3276282,0.4409221,-0.1446557,-0.3823946,-0.01957374
434.7644,0.04494473,-0.3276231,0.4423359,-0.1464866,-0.3837554,-0.01962303
434.7788,0.04494473,-0.3276231,0.4423359,-0.1464866,-0.3837554,-0.01962303
434.7928,0.04494496,-0.3276181,0.4436707,-0.1490627,-0.3850487,-0.01965213
434.8081,0.04494518,-0.3276132,0.444848,-0.1519643,-0.3861883,-0.01967241
434.8227,0.04494539,-0.3276083,0.4458961,-0.154994,-0.3871986,-0.01968857
434.8376,0.04494539,-0.3276083,0.4458961,-0.154994,-0.3871986,-0.01968857
434.8516,0.04494562,-0.3276035,0.4474109,-0.1592744,-0.388694,-0.01974409
434.8673,0.04494584,-0.3275987,0.448823,-0.1642612,-0.3900978,-0.01977989
434.8816,0.04494607,-0.327594,0.4500624,-0.1695357,-0.3913319,-0.01980666
434.8963,0.04494607,-0.327594,0.4500624,-0.1695357,-0.3913319,-0.01980666
434.9125,0.0449463,-0.3275893,0.4516722,-0.1761197,-0.3929574,-0.01986481
434.9266,0.04494653,-0.3275847,0.4531381,-0.1834152,-0.3944509,-0.01990368
434.9402,0.04494675,-0.3275802,0.454406,-0.1909818,-0.3957499,-0.01993328
434.9547,0.04494675,-0.3275802,0.454406,-0.1909818,-0.3957499,-0.01993328
434.9687,0.04494697,-0.3275757,0.4555128,-0.1986125,-0.396887,-0.01995773
434.9841,0.04494717,-0.3275713,0.4559816,-0.2047706,-0.397355,-0.01994638
434.9986,0.04494717,-0.3275713,0.4559816,-0.2047706,-0.397355,-0.01994638
435.0126,0.04494738,-0.3275669,0.4563813,-0.2100156,-0.3977315,-0.01994741
435.0281,0.04494758,-0.3275626,0.456822,-0.2147907,-0.398137,-0.0199529
435.0425,0.04494779,-0.3275583,0.4573001,-0.2193058,-0.3985737,-0.01995981
435.0569,0.04494779,-0.3275583,0.4573001,-0.2193058,-0.3985737,-0.01995981
435.0711,0.044948,-0.3275541,0.4577935,-0.2236615,-0.3990226,-0.01996697
435.0865,0.0449482,-0.3275499,0.4582844,-0.2279059,-0.3994671,-0.01997391
435.101,0.04494841,-0.3275458,0.4587621,-0.2320629,-0.3998972,-0.01998048
435.1158,0.04494841,-0.3275458,0.4587621,-0.2320629,-0.3998972,-0.01998048
435.1299,0.0449485,-0.3275417,0.4592209,-0.2361442,-0.4003073,-0.01998662
435.1452,0.04494857,-0.3275377,0.4596584,-0.2401562,-0.400695,-0.01999233
435.1596,0.04494857,-0.3275377,0.4596584,-0.2401562,-0.400695,-0.01999233
435.1737,0.04494862,-0.3275337,0.4600738,-0.2441023,-0.4010595,-0.01999763
435.1911,0.04494867,-0.3275298,0.4604674,-0.2479848,-0.4014009,-0.02000254
435.2047,0.04422129,-0.3275283,0.4617994,-0.2513962,-0.4025155,-0.0200061
435.2193,0.04422129,-0.3275283,0.4617994,-0.2513962,-0.4025155,-0.0200061
435.2324,0.04303926,-0.3275274,0.4633949,-0.2546289,-0.4038098,-0.02000921
435.2477,0.0415761,-0.3275265,0.4650012,-0.2577989,-0.405074,-0.02001211
435.2622,0.03994218,-0.3275256,0.4665343,-0.2609454,-0.4062476,-0.02001483
435.2766,0.03994218,-0.3275256,0.4665343,-0.2609454,-0.4062476,-0.02001483
435.2905,0.0374793,-0.3275257,0.4689019,-0.2636674,-0.4080912,-0.02001646
435.3058,0.03450516,-0.3275258,0.4714609,-0.2662534,-0.4100486,-0.02001779
435.3206,0.03122183,-0.3275255,0.473976,-0.2688125,-0.4119307,-0.020019
435.3352,0.03122183,-0.3275255,0.473976,-0.2688125,-0.4119307,-0.020019
435.3492,0.02702936,-0.3275261,0.4772885,-0.2709697,-0.4144462,-0.02001924
435.3647,0.02228247,-0.3275263,0.4807518,-0.2730186,-0.4170412,-0.02001926
435.3793,0.02228247,-0.3275263,0.4807518,-0.2730186,-0.4170412,-0.02001926
435.3933,0.01720669,-0.327526,0.4841339,-0.2750669,-0.4195319,-0.02001924
435.4087,0.01194525,-0.3275252,0.4873662,-0.277144,-0.4218746,-0.02001917
435.4233,0.005860682,-0.3275254,0.491349,-0.2788444,-0.42483,-0.02001815
435.4377,0.005860682,-0.3275254,0.491349,-0.2788444,-0.42483,-0.02001815
435.4521,-0.0007162122,-0.327525,0.4954645,-0.2804474,-0.4278653,-0.02001694
435.4672,-0.007575268,-0.327524,0.4994903,-0.2820562,-0.430802,-0.02001571
435.4828,-0.01458309,-0.3275225,0.50336,-0.2836999,-0.4335955,-0.02001447
435.4977,-0.01458309,-0.3275225,0.50336,-0.2836999,-0.4335955,-0.02001447
435.5116,-0.02238351,-0.3275218,0.507975,-0.284977,-0.4370094,-0.02001229
435.5258,-0.03064985,-0.3275205,0.5127151,-0.2861651,-0.4405066,-0.02000994
435.5403,-0.03917463,-0.3275185,0.5173572,-0.2873678,-0.4439059,-0.02000761
435.5551,-0.03917463,-0.3275185,0.5173572,-0.2873678,-0.4439059,-0.02000761
435.5688,-0.04855464,-0.3275172,0.5227516,-0.2882155,-0.4479317,-0.02000435
435.5844,-0.0584333,-0.3275149,0.5282546,-0.2889935,-0.452028,-0.02000095
435.5988,-0.0584333,-0.3275149,0.5282546,-0.2889935,-0.452028,-0.02000095
435.6132,-0.06858422,-0.3275114,0.5336379,-0.2898058,-0.45601,-0.0199976
435.6284,-0.07886386,-0.3275063,0.5388345,-0.2906798,-0.4598315,-0.01999429
435.6429,-0.08990975,-0.3275022,0.5447738,-0.2912203,-0.4642898,-0.01998999
435.6573,-0.08990975,-0.3275022,0.5447738,-0.2912203,-0.4642898,-0.01998999
435.6715,-0.1013913,-0.3274968,0.5508186,-0.2916977,-0.4688281,-0.01998555
435.6871,-0.1130988,-0.3274894,0.5567428,-0.292212,-0.4732598,-0.01998118
435.7018,-0.1248993,-0.3274801,0.5624805,-0.292791,-0.477538,-0.01997687
435.7164,-0.1248993,-0.3274801,0.5624805,-0.292791,-0.477538,-0.01997687
435.7305,-0.1374373,-0.3274718,0.5689811,-0.293046,-0.4824813,-0.0199715
435.746,-0.1503865,-0.3274619,0.5755898,-0.2932445,-0.4875139,-0.01996602
435.7616,-0.1635401,-0.3274499,0.5820749,-0.2934865,-0.4924422,-0.01996061
435.7762,-0.1635401,-0.3274499,0.5820749,-0.2934865,-0.4924422,-0.01996061
435.7896,-0.1774954,-0.3274382,0.5893459,-0.2934165,-0.4980564,-0.01995413
435.8046,-0.1918965,-0.3274244,0.5967146,-0.2933081,-0.503751,-0.01994755
435.8191,-0.1918965,-0.3274244,0.5967146,-0.2933081,-0.503751,-0.01994755
435.8331,-0.2065176,-0.3274079,0.603942,-0.2932617,-0.5093266,-0.01994108
435.8485,-0.2212156,-0.3273889,0.610961,-0.2933038,-0.5147343,-0.01993469
435.8633,-0.2366289,-0.3273706,0.6187754,-0.2930556,-0.5208528,-0.0199271
435.8777,-0.2366289,-0.3273706,0.6187754,-0.2930556,-0.5208528,-0.0199271
435.8917,-0.2524273,-0.3273503,0.6266935,-0.2927751,-0.5270667,-0.01991941
435.9072,-0.2684017,-0.3273275,0.6344739,-0.2925582,-0.5331709,-0.01991183
435.9218,-0.2844198,-0.3273025,0.6420477,-0.2924311,-0.5391131,-0.01990434
435.9378,-0.2844198,-0.3273025,0.6420477,-0.2924311,-0.5391131,-0.01990434
435.9507,-0.3011265,-0.3272783,0.6504539,-0.2920243,-0.5458086,-0.01989556
435.966,-0.3181964,-0.3272523,0.6589711,-0.2915911,-0.5526112,-0.01988668
435.9808,-0.3354229,-0.3272238,0.6673484,-0.2912267,-0.5593047,-0.01987794
435.9955,-0.3354229,-0.3272238,0.6673484,-0.2912267,-0.5593047,-0.01987794
436.0095,-0.3534042,-0.3271956,0.6765918,-0.2905959,-0.5667824,-0.01986786
436.0267,-0.3717846,-0.3271648,0.6859381,-0.2899565,-0.5743594,-0.01985773
436.0403,-0.390339,-0.3271309,0.6951267,-0.2894036,-0.5818111,-0.01984777
436.0541,-0.390339,-0.3271309,0.6951267,-0.2894036,-0.5818111,-0.01984777
436.0681,-0.4089249,-0.3270945,0.7040856,-0.2889622,-0.5890823,-0.01983794
436.0833,-0.428181,-0.3270588,0.7139338,-0.2882779,-0.597173,-0.01982662
436.0978,-0.428181,-0.3270588,0.7139338,-0.2882779,-0.597173,-0.01982662
436.112,-0.4477779,-0.3270209,0.7238938,-0.2875909,-0.6053789,-0.01981522
436.1272,-0.4675068,-0.3269803,0.7336988,-0.2869913,-0.6134663,-0.01980402
436.1417,-0.4872361,-0.3269375,0.7432737,-0.2865036,-0.6213751,-0.01979298
436.1565,-0.4872361,-0.3269375,0.7432737,-0.2865036,-0.6213751,-0.01979298
436.1707,-0.5076111,-0.3268958,0.7537848,-0.285786,-0.6301546,-0.01978035
436.186,-0.5283068,-0.3268521,0.764415,-0.2850718,-0.6390592,-0.01976769
436.2008,-0.5491174,-0.3268058,0.774884,-0.2844494,-0.647841,-0.01975528
436.2154,-0.5491174,-0.3268058,0.774884,-0.2844494,-0.647841,-0.01975528
436.2297,-0.5706413,-0.3267599,0.7863274,-0.2836129,-0.6575288,-0.01974128
436.2451,-0.5925233,-0.3267112,0.7978783,-0.2827977,-0.6673299,-0.01972731
436.2598,-0.5925233,-0.3267112,0.7978783,-0.2827977,-0.6673299,-0.01972731
436.2737,-0.6145388,-0.3266592,0.8092442,-0.2820917,-0.6769854,-0.01971366
436.2911,-0.6365459,-0.3266048,0.8203452,-0.2815176,-0.6864304,-0.01970025
436.3051,-0.6586764,-0.3265496,0.8315605,-0.2809761,-0.6960143,-0.01968645
436.3185,-0.6586764,-0.3265496,0.8315605,-0.2809761,-0.6960143,-0.01968645
436.3326,-0.6807918,-0.3264935,0.842629,-0.2805244,-0.7054987,-0.0196728
436.348,-0.702805,-0.3264368,0.8534688,-0.2801787,-0.7148113,-0.0196594
436.3625,-0.7246619,-0.3263802,0.8640619,-0.2799379,-0.7239377,-0.01964625
436.3772,-0.7246619,-0.3263802,0.8640619,-0.2799379,-0.7239377,-0.01964625
436.3911,-0.7463289,-0.3263242,0.87441,-0.2797953,-0.7328807,-0.01963335
436.4066,-0.767786,-0.3262694,0.8845192,-0.2797426,-0.7416456,-0.01962073
436.4211,-0.7890212,-0.326216,0.8943942,-0.2797727,-0.7502365,-0.01960841
436.4359,-0.7890212,-0.326216,0.8943942,-0.2797727,-0.7502365,-0.01960841
436.4501,-0.8100282,-0.3261642,0.9040379,-0.2798791,-0.7586551,-0.01959643
436.4655,-0.8308038,-0.3261144,0.9134514,-0.2800568,-0.7669011,-0.01958478
436.4802,-0.8513471,-0.3260664,0.9226345,-0.2803014,-0.7749732,-0.01957351
436.4949,-0.8513471,-0.3260664,0.9226345,-0.2803014,-0.7749732,-0.01957351
436.5089,-0.8716585,-0.3260204,0.9315864,-0.2806092,-0.7828689,-0.01956262
436.5245,-0.8917391,-0.3259764,0.9403054,-0.2809768,-0.7905856,-0.01955213
436.539,-0.8917391,-0.3259764,0.9403054,-0.2809768,-0.7905856,-0.01955213
436.5551,-0.9115906,-0.3259344,0.9487898,-0.2814015,-0.7981203,-0.01954203
436.5693,-0.9312152,-0.3258942,0.9570379,-0.2818804,-0.8054702,-0.01953235
436.5832,-0.9506149,-0.3258559,0.965048,-0.282411,-0.8126323,-0.01952307
436.5978,-0.9506149,-0.3258559,0.965048,-0.282411,-0.8126323,-0.01952307
436.6117,-0.9697923,-0.3258195,0.9728187,-0.2829909,-0.8196043,-0.0195142
436.6273,-0.9887496,-0.3257849,0.9803486,-0.2836176,-0.8263835,-0.01950574
436.6418,-1.007489,-0.325752,0.987637,-0.284289,-0.8329684,-0.01949769
436.6561,-1.007489,-0.325752,0.987637,-0.284289,-0.8329684,-0.01949769
436.6702,-1.026014,-0.3257208,0.9946831,-0.2850027,-0.8393571,-0.01949005
436.6856,-1.044326,-0.3256913,1.001487,-0.2857566,-0.8455482,-0.01948281
436.7003,-1.062427,-0.3256634,1.008048,-0.2865487,-0.8515406,-0.01947596
436.715,-1.062427,-0.3256634,1.008048,-0.2865487,-0.8515406,-0.01947596
436.7292,-1.080321,-0.3256371,1.014366,-0.2873767,-0.8573337,-0.0194695
436.7446,-1.098009,-0.3256123,1.020443,-0.2882388,-0.8629269,-0.01946343
436.759,-1.098009,-0.3256123,1.020443,-0.2882388,-0.8629269,-0.01946343
436.7733,-1.115494,-0.3255889,1.026278,-0.289133,-0.86832,-0.01945772
436.7888,-1.132777,-0.325567,1.031874,-0.2900572,-0.8735133,-0.01945241
436.8053,-1.149863,-0.3255464,1.03723,-0.2910098,-0.878507,-0.01944744
436.8193,-1.149863,-0.3255464,1.03723,-0.2910098,-0.878507,-0.01944744
436.8339,-1.166752,-0.3255272,1.04235,-0.2919888,-0.8833015,-0.01944282
436.8498,-1.183447,-0.3255093,1.047234,-0.2929925,-0.8878979,-0.01943856
436.8654,-1.19995,-0.3254926,1.051885,-0.2940193,-0.8922974,-0.01943463
436.8809,-1.216263,-0.3254772,1.056304,-0.2950674,-0.8965009,-0.01943102
436.8965,-1.216263,-0.3254772,1.056304,-0.2950674,-0.8965009,-0.01943102
436.9112,-1.232168,-0.3254622,1.060065,-0.2962054,-0.900111,-0.01942832
436.9276,-1.24775,-0.3254487,1.063485,-0.2973825,-0.9034234,-0.01942596
436.9427,-1.263063,-0.3254369,1.066677,-0.2985758,-0.9065441,-0.01942383
436.9579,-1.263063,-0.3254369,1.066677,-0.2985758,-0.9065441,-0.01942383
436.9729,-1.277415,-0.3254244,1.068274,-0.3000029,-0.9081966,-0.01942385
436.9893,-1.291103,-0.3254143,1.069313,-0.3015026,-0.9093539,-0.01942424
437.005,-1.304316,-0.3254074,1.07016,-0.3030046,-0.9103562,-0.01942465
437.0208,-1.317175,-0.3254037,1.070922,-0.3044837,-0.9112996,-0.01942509
437.0386,-1.317175,-0.3254037,1.070922,-0.3044837,-0.9112996,-0.01942509
437.0534,-1.32903,-0.3254001,1.070233,-0.3061602,-0.910906,-0.01942747
437.0697,-1.340204,-0.3253989,1.069095,-0.3078802,-0.910114,-0.01943012
437.0853,-1.350902,-0.3253993,1.067851,-0.3095786,-0.9092427,-0.01943272
437.1008,-1.361256,-0.3254009,1.066596,-0.3112347,-0.9083763,-0.01943527
437.1167,-1.361256,-0.3254009,1.066596,-0.3112347,-0.9083763,-0.01943527
437.1321,-1.370624,-0.3254019,1.063987,-0.3130745,-0.9062588,-0.01943957
437.15,-1.37933,-0.325404,1.060997,-0.3149453,-0.9038026,-0.01944408
437.1657,-1.387585,-0.3254076,1.057963,-0.3167847,-0.9013191,-0.01944844
437.1813,-1.395522,-0.3254131,1.054974,-0.3185735,-0.8988891,-0.01945263
437.1968,-1.395522,-0.3254131,1.054974,-0.3185735,-0.8988891,-0.01945263
437.2118,-1.402496,-0.3254182,1.05072,-0.3205422,-0.8952881,-0.0194584
437.228,-1.408837,-0.3254251,1.046149,-0.3225365,-0.8914029,-0.01946428
437.2437,-1.414752,-0.3254343,1.041587,-0.3244937,-0.8875362,-0.01946992
437.2593,-1.414752,-0.3254343,1.041587,-0.3244937,-0.8875362,-0.01946992
437.2746,-1.420375,-0.3254456,1.037118,-0.3263943,-0.8837653,-0.01947532
437.2909,-1.425062,-0.3254563,1.031473,-0.3284759,-0.8789039,-0.01948215
437.3076,-1.429141,-0.3254682,1.025569,-0.3305798,-0.8738096,-0.01948903
437.3218,-1.43282,-0.3254815,1.019722,-0.3326424,-0.8687756,-0.01949564
437.3373,-1.43282,-0.3254815,1.019722,-0.3326424,-0.8687756,-0.01949564
437.3522,-1.436232,-0.3254963,1.014014,-0.3346441,-0.8638765,-0.01950196
437.3686,-1.438735,-0.3255098,1.007217,-0.3368313,-0.8579684,-0.01950956
437.3845,-1.440653,-0.3255236,1.000218,-0.3390398,-0.851877,-0.01951716
437.4,-1.442197,-0.325538,0.99332,-0.3412039,-0.8458849,-0.01952447
437.4155,-1.442197,-0.325538,0.99332,-0.3412039,-0.8458849,-0.01952447
437.4304,-1.443499,-0.325553,0.986601,-0.3433038,-0.8400637,-0.01953144
437.4468,-1.443914,-0.3255662,0.9788814,-0.3455964,-0.8333145,-0.01953956
437.462,-1.443771,-0.3255789,0.9710121,-0.3479098,-0.82643,-0.01954767
437.4771,-1.443771,-0.3255789,0.9710121,-0.3479098,-0.82643,-0.01954767
437.492,-1.443277,-0.3255914,0.9632845,-0.3501766,-0.8196807,-0.01955543
437.5084,-1.442564,-0.325604,0.955772,-0.3523764,-0.8131343,-0.01956283
437.5238,-1.440988,-0.3256143,0.9473433,-0.3547774,-0.8057395,-0.01957128
437.5394,-1.440988,-0.3256143,0.9473433,-0.3547774,-0.8057395,-0.01957128
437.5543,-1.438876,-0.3256234,0.9388117,-0.3572001,-0.7982517,-0.01957968
437.5704,-1.436436,-0.3256318,0.9304568,-0.3595741,-0.7909304,-0.01958772
437.5858,-1.433799,-0.3256398,0.9223482,-0.3618783,-0.7838401,-0.01959538
437.6013,-1.430321,-0.3256451,0.9134046,-0.3643931,-0.7759783,-0.01960399
437.6165,-1.430321,-0.3256451,0.9134046,-0.3643931,-0.7759783,-0.01960399
437.6313,-1.426329,-0.3256487,0.9044015,-0.3669301,-0.7680634,-0.01961252
437.6475,-1.42203,-0.325651,0.8956055,-0.3694161,-0.7603422,-0.01962068
437.6632,-1.417555,-0.3256527,0.887082,-0.3718294,-0.7528753,-0.01962846
437.6789,-1.417555,-0.3256527,0.887082,-0.3718294,-0.7528753,-0.01962846
437.6937,-1.412261,-0.3256527,0.8778019,-0.3744633,-0.7447125,-0.01963707
437.7099,-1.406474,-0.3256518,0.8685017,-0.3771203,-0.7365329,-0.01964558
437.7252,-1.400401,-0.3256501,0.8594342,-0.379724,-0.7285702,-0.01965372
437.7404,-1.394173,-0.3256479,0.8506606,-0.3822516,-0.720881,-0.01966147
437.756,-1.394173,-0.3256479,0.8506606,-0.3822516,-0.720881,-0.01966147
437.7708,-1.387145,-0.325643,0.8412013,-0.3850081,-0.7125641,-0.01966997
437.7871,-1.379644,-0.3256361,0.8317553,-0.3877874,-0.7042612,-0.01967837
437.8023,-1.371877,-0.3256278,0.8225627,-0.3905104,-0.6961936,-0.01968641
437.8182,-1.371877,-0.3256278,0.8225627,-0.3905104,-0.6961936,-0.01968641
437.833,-1.363246,-0.3256161,0.8127484,-0.3934689,-0.6875589,-0.01969512
437.8491,-1.354109,-0.3256018,0.8030015,-0.3964427,-0.678988,-0.01970367
437.8645,-1.34469,-0.3255855,0.7935529,-0.3993491,-0.6706933,-0.01971183
437.8797,-1.34469,-0.3255855,0.7935529,-0.3993491,-0.6706933,-0.01971183
437.8946,-1.335135,-0.3255679,0.7844519,-0.402165,-0.6627207,-0.01971955
437.9104,-1.324805,-0.3255471,0.7748043,-0.4052182,-0.6542544,-0.01972787
437.9261,-1.314031,-0.3255237,0.7652366,-0.4082884,-0.6458644,-0.01973604
437.9413,-1.303024,-0.3254983,0.755962,-0.4112923,-0.6377452,-0.01974385
437.9571,-1.303024,-0.3254983,0.755962,-0.4112923,-0.6377452,-0.01974385
437.9723,-1.291915,-0.3254716,0.7470276,-0.4142057,-0.6299407,-0.01975125
437.9883,-1.28006,-0.3254419,0.7375929,-0.4173674,-0.6216885,-0.01975917
438.0038,-1.267787,-0.3254094,0.7282501,-0.4205473,-0.6135234,-0.01976695
438.0187,-1.267787,-0.3254094,0.7282501,-0.4205473,-0.6135234,-0.01976695
438.0336,-1.255301,-0.3253749,0.7192019,-0.4236586,-0.6056295,-0.0197744
438.0499,-1.242734,-0.3253391,0.7104935,-0.4266761,-0.5980487,-0.01978145
438.0656,-1.22944,-0.3253003,0.7013341,-0.4299484,-0.5900683,-0.01978896
438.0807,-1.215744,-0.3252587,0.6922804,-0.4332376,-0.5821877,-0.01979634
438.0968,-1.215744,-0.3252587,0.6922804,-0.4332376,-0.5821877,-0.01979634
438.1113,-1.201854,-0.325215,0.6835234,-0.436454,-0.5745788,-0.01980339
438.1275,-1.187899,-0.32517,0.6751054,-0.4395714,-0.5672807,-0.01981006
438.1428,-1.173234,-0.3251221,0.6662817,-0.4429489,-0.5596275,-0.01981714
438.1581,-1.173234,-0.3251221,0.6662817,-0.4429489,-0.5596275,-0.01981714
438.1728,-1.158183,-0.3250713,0.657575,-0.4463408,-0.5520837,-0.01982408
438.19,-1.142953,-0.3250184,0.6491644,-0.449655,-0.5448099,-0.01983071
438.2044,-1.127673,-0.3249642,0.6410893,-0.452865,-0.5378419,-0.01983699
438.2195,-1.127673,-0.3249642,0.6410893,-0.452865,-0.5378419,-0.01983699
438.2346,-1.111699,-0.3249071,0.6326488,-0.4563389,-0.5305582,-0.01984361
438.2511,-1.095354,-0.3248472,0.6243331,-0.4598245,-0.5233905,-0.01985011
438.2664,-1.078845,-0.3247852,0.6163104,-0.4632275,-0.5164881,-0.0198563
438.282,-1.062301,-0.3247219,0.6086171,-0.466521,-0.5098842,-0.01986217
438.2975,-1.062301,-0.3247219,0.6086171,-0.466521,-0.5098842,-0.01986217
438.312,-1.045077,-0.3246558,0.6005935,-0.4700814,-0.5029989,-0.01986833
438.328,-1.027498,-0.324587,0.5926995,-0.4736504,-0.496233,-0.01987437
438.3433,-1.009768,-0.324516,0.5850931,-0.477132,-0.4897256,-0.01988013
438.3588,-1.009768,-0.324516,0.5850931,-0.477132,-0.4897256,-0.01988013
438.374,-0.9912893,-0.3244414,0.5771897,-0.4808816,-0.4829676,-0.01988615
438.3904,-0.9724177,-0.3243632,0.5694411,-0.4846283,-0.4763499,-0.01989202
438.4059,-0.9533778,-0.3242823,0.5619987,-0.4882732,-0.4700056,-0.01989761
438.4215,-0.9343116,-0.3241997,0.5548912,-0.4917901,-0.4639605,-0.01990288
438.4367,-0.9343116,-0.3241997,0.5548912,-0.4917901,-0.4639605,-0.01990288
438.4517,-0.9145807,-0.3241142,0.5475217,-0.4955702,-0.4576994,-0.01990836
438.4678,-0.8945144,-0.3240258,0.5402976,-0.4993479,-0.4515704,-0.01991371
438.4834,-0.8743212,-0.323935,0.533358,-0.5030251,-0.4456934,-0.01991881
438.4988,-0.8743212,-0.323935,0.533358,-0.5030251,-0.4456934,-0.01991881
438.5142,-0.8541326,-0.3238431,0.526731,-0.5065752,-0.4400935,-0.01992361
438.5306,-0.8333036,-0.3237488,0.5198566,-0.5103947,-0.4342924,-0.01992861
438.5463,-0.8121589,-0.3236518,0.5131197,-0.5142121,-0.4286146,-0.01993348
438.5619,-0.7909043,-0.3235527,0.5066529,-0.5179272,-0.4231734,-0.01993812
438.5772,-0.7909043,-0.3235527,0.5066529,-0.5179272,-0.4231734,-0.01993812
438.5923,-0.7696695,-0.3234528,0.5004837,-0.5215122,-0.4179931,-0.01994251
438.6086,-0.7478082,-0.3233507,0.4940847,-0.5253689,-0.4126286,-0.01994706
438.6244,-0.7256444,-0.323246,0.4878187,-0.5292214,-0.4073816,-0.0199515
438.6406,-0.7033832,-0.3231395,0.481811,-0.5329681,-0.4023582,-0.01995573
438.6559,-0.7033832,-0.3231395,0.481811,-0.5329681,-0.4023582,-0.01995573
438.6709,-0.6811538,-0.3230322,0.476088,-0.5365809,-0.3975812,-0.01995972
438.6872,-0.6583099,-0.322923,0.4701512,-0.5404665,-0.3926354,-0.01996386
438.7028,-0.635175,-0.3228113,0.4643426,-0.5443454,-0.3878012,-0.0199679
438.7205,-0.6119541,-0.3226979,0.4587811,-0.548115,-0.383178,-0.01997174
438.734,-0.6119541,-0.3226979,0.4587811,-0.548115,-0.383178,-0.01997174
438.7492,-0.5887761,-0.3225838,0.4534914,-0.551747,-0.3787872,-0.01997536
438.7656,-0.5651666,-0.3224685,0.4481105,-0.5555555,-0.3743303,-0.01997903
438.7814,-0.5413846,-0.3223519,0.4428803,-0.5593269,-0.3700027,-0.01998258
438.7968,-0.5413846,-0.3223519,0.4428803,-0.5593269,-0.3700027,-0.01998258
438.8113,-0.5175936,-0.3222346,0.437882,-0.5629848,-0.365871,-0.01998595
438.8272,-0.4938965,-0.3221177,0.4331292,-0.5665098,-0.3619471,-0.01998913
438.8422,-0.4703577,-0.3220023,0.4286105,-0.5699041,-0.3582217,-0.01999212
438.8573,-0.4703577,-0.3220023,0.4286105,-0.5699041,-0.3582217,-0.01999212
438.8714,-0.447017,-0.3218893,0.4243081,-0.5731768,-0.3546795,-0.01999495
438.887,-0.4238987,-0.3217794,0.4202044,-0.5763375,-0.3513055,-0.01999762
438.9019,-0.4010172,-0.3216732,0.4162843,-0.5793943,-0.348086,-0.02000017
438.917,-0.4010172,-0.3216732,0.4162843,-0.5793943,-0.348086,-0.02000017
438.931,-0.3783804,-0.3215711,0.4125353,-0.5823542,-0.34501,-0.02000258
438.9467,-0.3559924,-0.3214732,0.408947,-0.5852221,-0.3420681,-0.02000489
438.9612,-0.3338548,-0.3213797,0.4055111,-0.5880023,-0.3392525,-0.02000709
438.9759,-0.3338548,-0.3213797,0.4055111,-0.5880023,-0.3392525,-0.02000709
438.9922,-0.3119675,-0.3212907,0.4022201,-0.5906978,-0.3365565,-0.02000919
439.0065,-0.2903292,-0.3212062,0.3990678,-0.5933112,-0.3339742,-0.02001119
439.0202,-0.2689384,-0.3211262,0.3960484,-0.5958449,-0.3315005,-0.0200131
439.0349,-0.2689384,-0.3211262,0.3960484,-0.5958449,-0.3315005,-0.0200131
439.049,-0.2477928,-0.3210505,0.3931565,-0.5983007,-0.3291305,-0.02001492
439.0644,-0.2332637,-0.3209997,0.3938504,-0.59699,-0.3295989,-0.02001444
439.0789,-0.2332637,-0.3209997,0.3938504,-0.59699,-0.3295989,-0.02001444
439.0927,-0.2229578,-0.3209817,0.3956008,-0.5945494,-0.3309531,-0.02001318
439.1081,-0.2153526,-0.3209874,0.3974101,-0.5920092,-0.3323865,-0.02001187
439.1228,-0.2094789,-0.3210108,0.3989632,-0.5897117,-0.3336278,-0.02001075
439.1376,-0.2094789,-0.3210108,0.3989632,-0.5897117,-0.3336278,-0.02001075
439.1518,-0.2047194,-0.3210468,0.4002152,-0.5877206,-0.3346268,-0.02000987
439.1671,-0.2006812,-0.3210913,0.4012128,-0.5860009,-0.3354132,-0.02000918
439.1817,-0.1971137,-0.3211411,0.4020212,-0.5844934,-0.3360372,-0.02000864
439.1965,-0.1971137,-0.3211411,0.4020212,-0.5844934,-0.3360372,-0.02000864
439.2108,-0.1938574,-0.3211942,0.4052739,-0.5831248,-0.3400716,-0.02001357
439.2261,-0.1908106,-0.3212492,0.4091495,-0.5818427,-0.3455615,-0.02001462
439.2406,-0.1879082,-0.3213052,0.4128558,-0.5806237,-0.351438,-0.02001438
439.2566,-0.1879082,-0.3213052,0.4128558,-0.5806237,-0.351438,-0.02001438
439.2707,-0.185109,-0.3213617,0.4162181,-0.5794552,-0.3573174,-0.02001381
439.2851,-0.1823864,-0.3214183,0.4181483,-0.5783353,-0.361568,-0.02001078
439.2997,-0.1823864,-0.3214183,0.4181483,-0.5783353,-0.361568,-0.02001078
439.3137,-0.1797232,-0.3214746,0.4195121,-0.5772588,-0.3650133,-0.02000961
439.329,-0.1771087,-0.3215307,0.4207273,-0.5762162,-0.3681271,-0.02000911
439.3437,-0.1745358,-0.3215864,0.4219277,-0.5751982,-0.3710948,-0.02000882
439.358,-0.1745358,-0.3215864,0.4219277,-0.5751982,-0.3710948,-0.02000882
439.3723,-0.1719996,-0.3216417,0.4220362,-0.5742067,-0.372484,-0.02000603
439.3875,-0.1694973,-0.3216964,0.4218437,-0.5732428,-0.3731599,-0.02000508
439.4022,-0.1670267,-0.3217506,0.4216954,-0.5723003,-0.3735964,-0.02000472
439.4171,-0.1670267,-0.3217506,0.4216954,-0.5723003,-0.3735964,-0.02000472
439.431,-0.1645863,-0.3218043,0.4205613,-0.5713807,-0.3724716,-0.02000193
439.4464,-0.1621752,-0.3218575,0.4192238,-0.5704867,-0.3706803,-0.02000099
439.4611,-0.1597926,-0.3219102,0.4180102,-0.5696115,-0.3687029,-0.02000065
439.4761,-0.1597926,-0.3219102,0.4180102,-0.5696115,-0.3687029,-0.02000065
439.4898,-0.1574378,-0.3219624,0.4169822,-0.5687479,-0.366714,-0.02000044
439.5053,-0.1551105,-0.322014,0.4150102,-0.5679003,-0.3632772,-0.01999766
439.521,-0.1528101,-0.3220651,0.4128456,-0.567075,-0.3592369,-0.01999669
439.5355,-0.1528101,-0.3220651,0.4128456,-0.567075,-0.3592369,-0.01999669
439.5486,-0.1505362,-0.3221157,0.4108113,-0.5662664,-0.3550555,-0.0199963
439.564,-0.1482886,-0.3221658,0.4089721,-0.5654678,-0.3509015,-0.01999607
439.5786,-0.1482886,-0.3221658,0.4089721,-0.5654678,-0.3509015,-0.01999607
439.5923,-0.1460668,-0.3222154,0.4062009,-0.5646833,-0.3453386,-0.01999333
439.6077,-0.1438706,-0.3222645,0.403252,-0.5639201,-0.3392094,-0.01999238
439.6221,-0.1416997,-0.322313,0.4004515,-0.5631725,-0.3329752,-0.01999201
439.6368,-0.1416997,-0.322313,0.4004515,-0.5631725,-0.3329752,-0.01999201
439.651,-0.1395538,-0.3223611,0.3967533,-0.5624408,-0.3253137,-0.01998935
439.6663,-0.1374325,-0.3224087,0.3929316,-0.5617307,-0.3171091,-0.01998847
439.6812,-0.1353356,-0.3224558,0.3893109,-0.5610347,-0.3088363,-0.01998817
439.6956,-0.1353356,-0.3224558,0.3893109,-0.5610347,-0.3088363,-0.01998817
439.7096,-0.1332629,-0.3225025,0.3859507,-0.560345,-0.3006665,-0.01998803
439.7252,-0.1312139,-0.3225486,0.3817122,-0.5596637,-0.2911621,-0.01998561
439.7398,-0.1312139,-0.3225486,0.3817122,-0.5596637,-0.2911621,-0.01998561
439.7539,-0.1291886,-0.3225943,0.3773483,-0.5589995,-0.2811651,-0.01998483
439.7692,-0.1271865,-0.3226396,0.3731829,-0.5583464,-0.2711352,-0.0199846
439.7863,-0.1252074,-0.3226843,0.3692802,-0.5576971,-0.2612384,-0.01998454
439.7999,-0.1252074,-0.3226843,0.3692802,-0.5576971,-0.2612384,-0.01998454
439.8131,-0.1232511,-0.3227286,0.3645021,-0.5570533,-0.2500334,-0.01998242
439.8284,-0.1213173,-0.3227725,0.3596089,-0.5564238,-0.2383648,-0.01998181
439.8427,-0.1194057,-0.3228159,0.3549278,-0.5558028,-0.2266925,-0.0199817
439.8574,-0.1194057,-0.3228159,0.3549278,-0.5558028,-0.2266925,-0.0199817
439.8714,-0.1175161,-0.3228588,0.3494014,-0.555188,-0.2136869,-0.01997988
439.8868,-0.1156482,-0.3229013,0.343811,-0.5545863,-0.200236,-0.01997944
439.9013,-0.1138018,-0.3229434,0.3384825,-0.5539905,-0.1868137,-0.01997945
439.9161,-0.1138018,-0.3229434,0.3384825,-0.5539905,-0.1868137,-0.01997945
439.9302,-0.1119766,-0.322985,0.3334742,-0.5533929,-0.1735891,-0.0199796
439.9457,-0.1101724,-0.3230262,0.3276342,-0.5527929,-0.1591157,-0.01997828
439.9603,-0.108389,-0.323067,0.3217234,-0.5521998,-0.144241,-0.01997807
439.975,-0.108389,-0.323067,0.3217234,-0.5521998,-0.144241,-0.01997807
439.9891,-0.106626,-0.3231074,0.316067,-0.5516083,-0.1294247,-0.01997821
440.0047,-0.1048834,-0.3231474,0.3107276,-0.5510123,-0.1148305,-0.01997846
440.0196,-0.1048834,-0.3231474,0.3107276,-0.5510123,-0.1148305,-0.01997846
440.0336,-0.1031608,-0.3231869,0.3045547,-0.5504097,-0.09900931,-0.01997771
440.05,-0.1014579,-0.3232261,0.2983155,-0.5498102,-0.08281062,-0.01997774
440.0649,-0.0997747,-0.3232648,0.2923384,-0.5492089,-0.06669431,-0.01997802
440.0784,-0.0997747,-0.3232648,0.2923384,-0.5492089,-0.06669431,-0.01997802
440.0925,-0.09811081,-0.3233031,0.2855554,-0.5486005,-0.04932508,-0.01997773
440.1078,-0.09646606,-0.323341,0.2787527,-0.5479926,-0.03159381,-0.01997796
440.1223,-0.09484023,-0.3233785,0.2722565,-0.54738,-0.01397377,-0.01997833
440.1371,-0.09484023,-0.3233785,0.2722565,-0.54738,-0.01397377,-0.01997833
440.1511,-0.09323309,-0.3234157,0.2661234,-0.5467572,0.00336845,-0.01997874
440.1667,-0.09164444,-0.3234524,0.2591943,-0.5461196,0.02187997,-0.01997911
440.1815,-0.09007405,-0.3234888,0.2522308,-0.5454764,0.04071409,-0.01997957
440.1964,-0.09007405,-0.3234888,0.2522308,-0.5454764,0.04071409,-0.01997957
440.2104,-0.08852173,-0.3235248,0.2455579,-0.5448247,0.05941308,-0.01998002
440.2257,-0.08698726,-0.3235604,0.2392372,-0.544161,0.07781502,-0.01998044
440.2404,-0.08547044,-0.3235956,0.2321162,-0.543479,0.09736221,-0.01998147
440.2553,-0.08547044,-0.3235956,0.2321162,-0.543479,0.09736221,-0.01998147
440.2694,-0.08397106,-0.3236305,0.2249568,-0.5427882,0.1172124,-0.01998212
440.285,-0.08248892,-0.323665,0.2180866,-0.5420865,0.1369091,-0.01998259
440.3007,-0.08102383,-0.3236992,0.2115695,-0.5413718,0.1562903,-0.01998298
440.3148,-0.08102383,-0.3236992,0.2115695,-0.5413718,0.1562903,-0.01998298
440.3287,-0.0795756,-0.323733,0.2042587,-0.5406366,0.1767886,-0.01998462
440.3438,-0.07814401,-0.3237664,0.1969099,-0.5398898,0.1975697,-0.01998541
440.3583,-0.07814401,-0.3237664,0.1969099,-0.5398898,0.1975697,-0.01998541
440.3726,-0.0767289,-0.3237995,0.18985,-0.5391307,0.21818,-0.01998584
440.3882,-0.07533006,-0.3238322,0.1820214,-0.5383502,0.2399291,-0.0199879
440.404,-0.07394731,-0.3238646,0.1741915,-0.5375566,0.2619501,-0.01998873
440.4174,-0.07394731,-0.3238646,0.1741915,-0.5375566,0.2619501,-0.01998873
440.4316,-0.07258046,-0.3238967,0.1666846,-0.5367498,0.2837781,-0.01998909
440.4471,-0.07122934,-0.3239284,0.1595604,-0.53593,0.3052476,-0.01998927
440.462,-0.06989376,-0.3239598,0.1516806,-0.5350873,0.3277639,-0.01999175
440.4768,-0.06989376,-0.3239598,0.1516806,-0.5350873,0.3277639,-0.01999175
440.4908,-0.06857353,-0.3239909,0.1437752,-0.5342306,0.3505171,-0.01999262
440.5062,-0.06726851,-0.3240216,0.1361652,-0.5333615,0.3730623,-0.01999287
440.5204,-0.06597848,-0.324052,0.1289167,-0.5324816,0.3952385,-0.01999289
440.5345,-0.06597848,-0.324052,0.1289167,-0.5324816,0.3952385,-0.01999289
440.5514,-0.0647033,-0.3240821,0.1220137,-0.5315927,0.4169958,-0.01999282
440.5652,-0.06344279,-0.3241119,0.1154206,-0.5306967,0.4383262,-0.01999273
440.5796,-0.06344279,-0.3241119,0.1154206,-0.5306967,0.4383262,-0.01999273
440.5934,-0.06219678,-0.3241414,0.1091029,-0.5297953,0.4592361,-0.01999261
440.6076,-0.06096509,-0.3241706,0.1041274,-0.5289032,0.4783187,-0.01998935
440.6208,-0.05974758,-0.3241994,0.09973379,-0.5280184,0.4963517,-0.01998814
440.6359,-0.05974758,-0.3241994,0.09973379,-0.5280184,0.4963517,-0.01998814
440.6493,-0.05854408,-0.324228,0.09555189,-0.5271398,0.5137866,-0.01998765
440.6647,-0.05735441,-0.3242562,0.09146816,-0.526266,0.5308051,-0.01998737
440.6794,-0.05735441,-0.3242562,0.09146816,-0.526266,0.5308051,-0.01998737
440.6933,-0.05617844,-0.3242842,0.08854499,-0.5254098,0.5460828,-0.0199838
440.7087,-0.05501598,-0.3243119,0.08606839,-0.5245705,0.5603951,-0.01998238
440.7236,-0.05386691,-0.3243393,0.0836999,-0.523745,0.5741892,-0.0199817
440.7384,-0.05386691,-0.3243393,0.0836999,-0.523745,0.5741892,-0.0199817
440.7525,-0.05273105,-0.3243664,0.08242317,-0.5229434,0.5862606,-0.01997787
440.7679,-0.05160826,-0.3243932,0.08152113,-0.5221652,0.5974124,-0.01997627
440.7825,-0.05049839,-0.3244197,0.08066152,-0.5214049,0.6081018,-0.01997543
440.7975,-0.05049839,-0.3244197,0.08066152,-0.5214049,0.6081018,-0.01997543
440.8113,-0.04940129,-0.3244459,0.07975912,-0.5206568,0.6185111,-0.01997479
440.827,-0.04831681,-0.3244719,0.07988338,-0.5199319,0.6273413,-0.01997081
440.8416,-0.04724481,-0.3244976,0.08036005,-0.5192326,0.6353371,-0.01996901
440.8583,-0.04724481,-0.3244976,0.08036005,-0.5192326,0.6353371,-0.01996901
440.8713,-0.04618514,-0.324523,0.08086585,-0.5185534,0.6429334,-0.01996797
440.886,-0.04513767,-0.3245481,0.08131333,-0.517888,0.6503054,-0.01996716
440.9005,-0.04410225,-0.324573,0.08276221,-0.5172465,0.6561633,-0.01996304
440.9153,-0.04410225,-0.324573,0.08276221,-0.5172465,0.6561633,-0.01996304
440.9293,-0.04307874,-0.3245976,0.08454372,-0.5166329,0.6612406,-0.01996109
440.9447,-0.04206701,-0.3246219,0.08633321,-0.5160407,0.6659682,-0.01995992
440.9593,-0.04206701,-0.3246219,0.08633321,-0.5160407,0.6659682,-0.01995992
440.9736,-0.04106692,-0.324646,0.08910091,-0.5154768,0.6691697,-0.01995565
440.989,-0.04007834,-0.3246699,0.09215622,-0.5149435,0.671616,-0.0199536
441.0038,-0.03910114,-0.3246934,0.09517085,-0.5144326,0.6737527,-0.01995236
441.0186,-0.03910114,-0.3246934,0.09517085,-0.5144326,0.6737527,-0.01995236
441.0327,-0.03813518,-0.3247167,0.09805679,-0.5139353,0.6757603,-0.01995138
441.0482,-0.03718034,-0.3247398,0.1018711,-0.5134602,0.6763614,-0.01994711
441.063,-0.03623648,-0.3247626,0.1059563,-0.5130135,0.6762784,-0.019945
441.0778,-0.03623648,-0.3247626,0.1059563,-0.5130135,0.6762784,-0.019945
441.0917,-0.03530349,-0.3247852,0.109991,-0.512588,0.6759374,-0.01994368
441.1083,-0.03438124,-0.3248076,0.1138858,-0.5121748,0.6755114,-0.01994264
441.1219,-0.0334696,-0.3248296,0.1186941,-0.5117829,0.6737228,-0.0199383
441.1367,-0.0334696,-0.3248296,0.1186941,-0.5117829,0.6737228,-0.0199383
441.1508,-0.03256845,-0.3248515,0.1237562,-0.5114194,0.6712909,-0.01993614
441.1663,-0.03167768,-0.3248731,0.1287483,-0.5110764,0.6686407,-0.01993479
441.1813,-0.03079716,-0.3248945,0.1335788,-0.5107449,0.6659447,-0.01993372
441.1962,-0.03079716,-0.3248945,0.1335788,-0.5107449,0.6659447,-0.01993372
441.2102,-0.02992677,-0.3249156,0.1393014,-0.5104333,0.6619245,-0.01992935
441.2257,-0.0290664,-0.3249365,0.1452544,-0.5101495,0.6572995,-0.01992718
441.2405,-0.02821594,-0.3249573,0.1511132,-0.5098855,0.6524941,-0.01992583
441.2553,-0.02821594,-0.3249573,0.1511132,-0.5098855,0.6524941,-0.01992583
441.2694,-0.02737526,-0.3249777,0.1578486,-0.5096455,0.6463336,-0.01992133
441.2849,-0.02654426,-0.324998,0.1647706,-0.5094354,0.639582,-0.01991912
441.2996,-0.02654426,-0.324998,0.1647706,-0.5094354,0.639582,-0.01991912
441.3138,-0.02572283,-0.325018,0.1715497,-0.5092449,0.632681,-0.01991776
441.3293,-0.02491085,-0.3250378,0.1780974,-0.5090629,0.6258078,-0.01991671
441.345,-0.02410822,-0.3250574,0.1854793,-0.5088969,0.6176772,-0.01991229
441.3586,-0.02410822,-0.3250574,0.1854793,-0.5088969,0.6176772,-0.01991229
441.3731,-0.02331484,-0.3250768,0.193031,-0.5087563,0.6090143,-0.01991013
441.3884,-0.02253058,-0.325096,0.2004301,-0.5086325,0.6002437,-0.01990882
441.403,-0.02175535,-0.325115,0.2075879,-0.5085152,0.5915354,-0.01990783
441.418,-0.02175535,-0.325115,0.2075879,-0.5085152,0.5915354,-0.01990783
441.4321,-0.02098905,-0.3251337,0.215574,-0.508412,0.5815937,-0.01990348
441.4477,-0.02023157,-0.3251523,0.2237147,-0.508333,0.5711492,-0.01990141
441.4625,-0.01948282,-0.3251707,0.231684,-0.5082692,0.560628,-0.01990023
441.4775,-0.01948282,-0.3251707,0.231684,-0.5082692,0.560628,-0.01990023
441.4914,-0.01874268,-0.3251888,0.2404707,-0.5082238,0.5488334,-0.01989588
441.5067,-0.01801107,-0.3252068,0.249369,-0.508204,0.536545,-0.0198939
441.5216,-0.01728788,-0.3252245,0.2580478,-0.5081985,0.5242069,-0.01989282
441.5363,-0.01728788,-0.3252245,0.2580478,-0.5081985,0.5242069,-0.01989282
441.5504,-0.01657301,-0.3252421,0.266422,-0.5081956,0.511994,-0.01989209
441.566,-0.01586638,-0.3252595,0.2755796,-0.5082014,0.4985927,-0.01988808
441.5816,-0.01516789,-0.3252767,0.2848357,-0.5082266,0.4847488,-0.01988637
441.5954,-0.01516789,-0.3252767,0.2848357,-0.5082266,0.4847488,-0.01988637
441.6094,-0.01447744,-0.3252937,0.2938648,-0.5082621,0.4708919,-0.01988555
441.6248,-0.01379493,-0.3253105,0.3025821,-0.5082971,0.4571895,-0.01988509
441.6397,-0.01379493,-0.3253105,0.3025821,-0.5082971,0.4571895,-0.01988509
441.6539,-0.01312029,-0.3253271,0.3120829,-0.5083377,0.4423132,-0.01988151
441.6694,-0.01245342,-0.3253435,0.3216694,-0.5083948,0.4270186,-0.01988017
441.6842,-0.01179423,-0.3253598,0.3310122,-0.5084593,0.4117381,-0.01987971
441.699,-0.01179423,-0.3253598,0.3310122,-0.5084593,0.4117381,-0.01987971
441.7132,-0.01114263,-0.3253759,0.3411276,-0.5085325,0.3952404,-0.01987647
441.7288,-0.01049854,-0.3253918,0.3512851,-0.5086219,0.3783322,-0.01987546
441.7435,-0.009861859,-0.3254075,0.3611513,-0.5087161,0.3614637,-0.01987531
441.7579,-0.009861859,-0.3254075,0.3611513,-0.5087161,0.3614637,-0.01987531
441.7731,-0.009232513,-0.3254231,0.3706468,-0.5088036,0.3448071,-0.01987553
441.788,-0.008610417,-0.3254385,0.3808897,-0.5088884,0.3270107,-0.01987311
441.8026,-0.007995486,-0.3254537,0.3911678,-0.5089813,0.3088495,-0.01987269
441.8182,-0.007995486,-0.3254537,0.3911678,-0.5089813,0.3088495,-0.01987269
441.8329,-0.007387638,-0.3254687,0.4011526,-0.5090734,0.2907607,-0.01987305
441.8471,-0.006786789,-0.3254836,0.410765,-0.5091547,0.2729096,-0.01987375
441.862,-0.006192854,-0.3254983,0.4174226,-0.5091975,0.2586484,-0.0198801
441.8765,-0.006192854,-0.3254983,0.4174226,-0.5091975,0.2586484,-0.0198801
441.8906,-0.005605757,-0.3255128,0.4229035,-0.5091738,0.2462048,-0.01988294
441.9063,-0.005025423,-0.3255272,0.42808,-0.5091017,0.2345565,-0.01988463
441.9211,-0.004451774,-0.3255413,0.4332216,-0.5090024,0.2233018,-0.019886
441.9359,-0.004451774,-0.3255413,0.4332216,-0.5090024,0.2233018,-0.019886
441.95,-0.003884731,-0.3255554,0.4383795,-0.5088888,0.2122893,-0.01988736
441.9656,-0.003324219,-0.3255693,0.4435356,-0.5087679,0.2014661,-0.01988877
441.9803,-0.002770162,-0.325583,0.4486574,-0.5086426,0.190816,-0.01989026
441.9952,-0.002770162,-0.325583,0.4486574,-0.5086426,0.190816,-0.01989026
442.0092,-0.002261075,-0.3382011,0.463213,-0.5121908,0.1675263,-0.01991056
442.0245,-0.001787222,-0.3585299,0.4776938,-0.5167943,0.1424001,-0.01993123
442.0391,-0.001787222,-0.3585299,0.4776938,-0.5167943,0.1424001,-0.01993123
442.0555,-0.001337616,-0.3835239,0.4898237,-0.5213658,0.1186938,-0.01994769
442.0688,-0.0009036136,-0.4112859,0.4996288,-0.5255534,0.09700777,-0.0199599
442.0837,-0.000476436,-0.4398787,0.5071521,-0.5290785,0.07784975,-0.01996822
442.0983,-0.000476436,-0.4398787,0.5071521,-0.5290785,0.07784975,-0.01996822
442.1127,-5.423697E-05,-0.4688571,0.5134636,-0.5321824,0.06025032,-0.01997414
442.1281,0.0003639752,-0.4979447,0.5190846,-0.535015,0.04370114,-0.01997833
442.1429,0.0007786685,-0.5269698,0.5242695,-0.5376672,0.02792584,-0.01998118
442.1576,0.0007786685,-0.5269698,0.5242695,-0.5376672,0.02792584,-0.01998118
442.1718,0.00119391,-0.5550652,0.5286504,-0.5399444,0.01345485,-0.01998276
442.1874,0.001607122,-0.5824605,0.5327897,-0.5420643,-0.0003856858,-0.01998344
442.202,0.002017069,-0.6093009,0.536832,-0.5441145,-0.01382799,-0.01998333
442.2168,0.002017069,-0.6093009,0.536832,-0.5441145,-0.01382799,-0.01998333
442.2311,0.002427771,-0.6349166,0.54031,-0.5458741,-0.02627115,-0.01998262
442.2467,0.002835878,-0.659661,0.5436878,-0.5475394,-0.03829756,-0.01998136
442.2614,0.003240001,-0.6837563,0.5470511,-0.5491794,-0.05007585,-0.01997953
442.2758,0.003240001,-0.6837563,0.5470511,-0.5491794,-0.05007585,-0.01997953
442.2921,0.003639679,-0.7073429,0.5503755,-0.5508121,-0.06163238,-0.01997716
442.3056,0.004040258,-0.7297479,0.5531595,-0.5521803,-0.07230298,-0.01997466
442.3203,0.004438057,-0.7513224,0.5558471,-0.5534684,-0.08262684,-0.01997184
442.3353,0.004438057,-0.7513224,0.5558471,-0.5534684,-0.08262684,-0.01997184
442.3492,0.004831678,-0.7722873,0.5585238,-0.5547397,-0.09275584,-0.01996862
442.3648,0.005220734,-0.7927818,0.5611713,-0.5560095,-0.1027108,-0.019965
442.3798,0.005220734,-0.7927818,0.5611713,-0.5560095,-0.1027108,-0.019965
442.3936,0.005611398,-0.8121323,0.5633063,-0.5570167,-0.1118398,-0.01996164
442.4092,0.005999556,-0.8306892,0.5653672,-0.5579479,-0.1206721,-0.01995813
442.4242,0.006383691,-0.8486728,0.5674386,-0.5588669,-0.1293544,-0.01995432
442.4387,0.006383691,-0.8486728,0.5674386,-0.5588669,-0.1293544,-0.01995432
442.4531,0.006770039,-0.8654601,0.5690613,-0.5595286,-0.1372764,-0.019951
442.4686,0.00715413,-0.8814332,0.5706615,-0.5601256,-0.1449639,-0.0199476
442.4831,0.007534342,-0.8968322,0.5723104,-0.5607222,-0.1525548,-0.01994395
442.4982,0.007534342,-0.8968322,0.5723104,-0.5607222,-0.1525548,-0.01994395
442.512,0.007910233,-0.9118077,0.5739812,-0.5613328,-0.1600599,-0.01994003
442.5286,0.008289032,-0.9256931,0.5751979,-0.5616922,-0.1668357,-0.01993683
442.5421,0.008666229,-0.9388432,0.5763852,-0.5619886,-0.1733956,-0.01993365
442.5569,0.008666229,-0.9388432,0.5763852,-0.5619886,-0.1733956,-0.01993365
442.5712,0.009040102,-0.9514806,0.5776207,-0.5622855,-0.1798774,-0.01993027
442.5879,0.009410097,-0.9637451,0.5788844,-0.5625982,-0.1862946,-0.01992669
442.6014,0.009783803,-0.9749629,0.5797084,-0.5626615,-0.1920114,-0.01992401
442.6159,0.009783803,-0.9749629,0.5797084,-0.5626615,-0.1920114,-0.01992401
442.6302,0.01015659,-0.9854846,0.5805169,-0.5626655,-0.1975401,-0.0199214
442.646,0.0105266,-0.9955297,0.5813878,-0.5626746,-0.2030175,-0.01991862
442.6608,0.01089312,-1.005236,0.5823011,-0.5627044,-0.208457,-0.01991565
442.6753,0.01089312,-1.005236,0.5823011,-0.5627044,-0.208457,-0.01991565
442.6895,0.01126399,-1.013928,0.5827904,-0.5624899,-0.2132248,-0.01991373
442.705,0.01163459,-1.021956,0.5832782,-0.5622216,-0.2178313,-0.01991191
442.7198,0.01163459,-1.021956,0.5832782,-0.5622216,-0.2178313,-0.01991191
442.7338,0.01200293,-1.029539,0.5838414,-0.5619645,-0.2224117,-0.01990993
442.7494,0.0123764,-1.036051,0.5840275,-0.5614704,-0.2263637,-0.01990904
442.765,0.01275028,-1.041874,0.5842512,-0.5609351,-0.2301991,-0.01990823
442.7798,0.01275028,-1.041874,0.5842512,-0.5609351,-0.2301991,-0.01990823
442.7933,0.01312239,-1.047248,0.5845788,-0.5604234,-0.2340467,-0.01990721
442.8082,0.01349167,-1.05232,0.5849819,-0.5599494,-0.2379125,-0.01990596
442.8228,0.01386607,-1.056421,0.5849848,-0.5592465,-0.2411552,-0.01990592
442.8376,0.01386607,-1.056421,0.5849848,-0.5592465,-0.2411552,-0.01990592
442.8518,0.01424128,-1.059908,0.5850084,-0.5585047,-0.2442824,-0.01990598
442.8676,0.01461511,-1.062999,0.5851278,-0.5577875,-0.2474262,-0.01990586
442.8826,0.01498635,-1.065834,0.5853218,-0.5571095,-0.2505966,-0.01990551
442.8969,0.01498635,-1.065834,0.5853218,-0.5571095,-0.2505966,-0.01990551
442.9111,0.01536289,-1.067737,0.5851153,-0.5562055,-0.2531523,-0.01990646
442.9267,0.01574066,-1.069057,0.5849344,-0.555266,-0.2556055,-0.01990753
442.9412,0.01611736,-1.070014,0.5848566,-0.5543551,-0.2580903,-0.01990839
442.9561,0.01611736,-1.070014,0.5848566,-0.5543551,-0.2580903,-0.01990839
442.9702,0.01650015,-1.069986,0.5844217,-0.5532277,-0.2599985,-0.01991053
442.9856,0.01688471,-1.069348,0.5840443,-0.5520753,-0.2618384,-0.01991274
443.0002,0.01726485,-1.068339,0.5837985,-0.5509617,-0.2637425,-0.01991467
443.0159,0.01726485,-1.068339,0.5837985,-0.5509617,-0.2637425,-0.01991467
443.0299,0.0176383,-1.067106,0.5836566,-0.5499008,-0.2657164,-0.01991632
443.0444,0.01801316,-1.06498,0.5831261,-0.5486282,-0.2671034,-0.01991933
443.0589,0.01801316,-1.06498,0.5831261,-0.5486282,-0.2671034,-0.01991933
443.073,0.01838166,-1.062313,0.5826421,-0.5473313,-0.2684217,-0.01992243
443.0883,0.01874141,-1.059326,0.5822815,-0.5460734,-0.2698044,-0.01992526
443.1031,0.01909234,-1.056156,0.5820212,-0.5448691,-0.2712601,-0.0199278
443.118,0.01909234,-1.056156,0.5820212,-0.5448691,-0.2712601,-0.0199278
443.1321,0.01944372,-1.052126,0.5813639,-0.5434558,-0.2721274,-0.01993176
443.1477,0.01978831,-1.047584,0.5807539,-0.542021,-0.2729326,-0.01993581
443.1625,0.02012414,-1.04275,0.5802711,-0.5406281,-0.2738117,-0.01993958
443.1771,0.02012414,-1.04275,0.5802711,-0.5406281,-0.2738117,-0.01993958
443.1917,0.02045979,-1.036994,0.5794272,-0.5390327,-0.2741292,-0.01994475
443.2068,0.02078789,-1.030698,0.5786642,-0.5374264,-0.2744181,-0.01994992
443.2213,0.02110671,-1.024099,0.5780529,-0.5358727,-0.2748102,-0.01995473
443.2361,0.02110671,-1.024099,0.5780529,-0.5358727,-0.2748102,-0.01995473
443.2523,0.02141676,-1.017342,0.5775634,-0.5343856,-0.2753094,-0.01995918
443.2666,0.02172736,-1.009756,0.5766751,-0.5327033,-0.2752329,-0.01996507
443.2802,0.02203142,-1.001694,0.575843,-0.5310104,-0.2751164,-0.01997101
443.2948,0.02203142,-1.001694,0.575843,-0.5310104,-0.2751164,-0.01997101
443.3088,0.02232729,-0.9933769,0.5751492,-0.5293693,-0.2750975,-0.0199766
443.3243,0.0226154,-0.9849386,0.5745714,-0.5277942,-0.2751855,-0.01998183
443.339,0.0226154,-0.9849386,0.5745714,-0.5277942,-0.2751855,-0.01998183
443.353,0.02290467,-0.9757016,0.5735825,-0.5260257,-0.2746902,-0.01998854
443.3684,0.02318806,-0.9660152,0.5726489,-0.524248,-0.274158,-0.01999529
443.3833,0.02346392,-0.9560955,0.571857,-0.5225238,-0.2737303,-0.02000168
443.3979,0.02346392,-0.9560955,0.571857,-0.5225238,-0.2737303,-0.02000168
443.4122,0.02374027,-0.9453145,0.5706875,-0.5206119,-0.2727419,-0.02000952
443.4277,0.02401016,-0.9340523,0.5696067,-0.5187007,-0.2717479,-0.02001729
443.4421,0.02427217,-0.9225445,0.568692,-0.5168527,-0.270886,-0.02002463
443.4568,0.02427217,-0.9225445,0.568692,-0.5168527,-0.270886,-0.02002463
443.471,0.02452694,-0.9109364,0.5679143,-0.5150818,-0.2701612,-0.02003151
443.4866,0.02477562,-0.8993179,0.5672296,-0.5133845,-0.269546,-0.020038
443.501,0.02501931,-0.8877443,0.5666034,-0.5117527,-0.2690123,-0.02004417
443.5178,0.02501931,-0.8877443,0.5666034,-0.5117527,-0.2690123,-0.02004417
443.5308,0.02525884,-0.8762496,0.5660136,-0.5101783,-0.2685388,-0.0200501
443.5452,0.02549485,-0.8648543,0.5654473,-0.5086547,-0.2681114,-0.0200558
443.56,0.02549485,-0.8648543,0.5654473,-0.5086547,-0.2681114,-0.0200558
443.5739,0.02572097,-0.8543324,0.5654213,-0.5074303,-0.2684214,-0.02005942
443.5893,0.02594424,-0.8443939,0.5654075,-0.506313,-0.2688669,-0.02006256
443.6042,0.02616691,-0.8348582,0.5652892,-0.5052307,-0.2692756,-0.02006572
443.6189,0.02616691,-0.8348582,0.5652892,-0.5052307,-0.2692756,-0.02006572
443.6331,0.02638283,-0.8263747,0.5656024,-0.5044138,-0.2703255,-0.02006703
443.6485,0.02659782,-0.8185759,0.5658498,-0.5036698,-0.2714289,-0.0200681
443.6636,0.02681344,-0.8112332,0.5659429,-0.5029318,-0.2724343,-0.02006936
443.6779,0.02681344,-0.8112332,0.5659429,-0.5029318,-0.2724343,-0.02006936
443.692,0.02702963,-0.8042042,0.5659074,-0.5021825,-0.2733307,-0.02007085
443.7076,0.02723959,-0.7981613,0.5663218,-0.5016766,-0.2748536,-0.02007052
443.7222,0.02744811,-0.7927523,0.5666893,-0.5012309,-0.276427,-0.02006995
443.737,0.02744811,-0.7927523,0.5666893,-0.5012309,-0.276427,-0.02006995
443.751,0.0276566,-0.7877576,0.5669136,-0.5007826,-0.2778991,-0.02006959
443.7684,0.02786511,-0.7830405,0.567014,-0.5003164,-0.2792562,-0.02006949
443.7821,0.02806715,-0.7792772,0.5675669,-0.5000876,-0.281234,-0.02006754
443.7959,0.02806715,-0.7792772,0.5675669,-0.5000876,-0.281234,-0.02006754
443.8096,0.02826717,-0.776118,0.5680712,-0.4999124,-0.2832536,-0.02006538
443.825,0.02846659,-0.773345,0.5684272,-0.4997285,-0.2851609,-0.02006344
443.8398,0.02846659,-0.773345,0.5684272,-0.4997285,-0.2851609,-0.02006344
443.8539,0.02865966,-0.7715842,0.5691902,-0.4997748,-0.287654,-0.02005972
443.8691,0.02885066,-0.7704547,0.5698646,-0.4998625,-0.2901508,-0.02005586
443.8839,0.02904106,-0.7697194,0.5703611,-0.4999293,-0.2925019,-0.02005233
443.8988,0.02904106,-0.7697194,0.5703611,-0.4999293,-0.2925019,-0.02005233
443.9134,0.02923111,-0.7692303,0.5707059,-0.4999614,-0.2946988,-0.02004917
443.9286,0.02941466,-0.7696545,0.5714785,-0.5002155,-0.2974777,-0.02004417
443.9431,0.02959495,-0.7706405,0.5721864,-0.5005088,-0.3002687,-0.02003902
443.9579,0.02959495,-0.7706405,0.5721864,-0.5005088,-0.3002687,-0.02003902
443.9721,0.02977287,-0.7719685,0.5727314,-0.5007797,-0.3029194,-0.02003417
443.9879,0.02994883,-0.7735014,0.5731319,-0.5010142,-0.305416,-0.0200297
444.0021,0.03011703,-0.7759156,0.5739611,-0.5014701,-0.30849,-0.02002334
444.0191,0.03011703,-0.7759156,0.5739611,-0.5014701,-0.30849,-0.02002334
444.0319,0.03028069,-0.7788624,0.5747226,-0.5019616,-0.3115683,-0.02001682
444.0464,0.03044152,-0.7821246,0.5753167,-0.5024273,-0.3144969,-0.02001065
444.061,0.03060037,-0.7855667,0.5757603,-0.502853,-0.3172607,-0.02000489
444.0757,0.03060037,-0.7855667,0.5757603,-0.502853,-0.3172607,-0.02000489
444.0896,0.03075152,-0.7898662,0.5766227,-0.5034966,-0.320587,-0.01999721
444.1053,0.0308986,-0.7946755,0.5774107,-0.5041718,-0.3239056,-0.0199894
444.1201,0.03104343,-0.7997777,0.5780253,-0.5048168,-0.3270633,-0.01998197
444.1349,0.03104343,-0.7997777,0.5780253,-0.5048168,-0.3270633,-0.01998197
444.1489,0.0311806,-0.8057998,0.5790097,-0.5056739,-0.3307453,-0.01997269
444.1645,0.03131421,-0.8123626,0.5798798,-0.506552,-0.3343811,-0.01996337
444.1791,0.03131421,-0.8123626,0.5798798,-0.506552,-0.3343811,-0.01996337
444.1932,0.03144618,-0.81923,0.5805477,-0.5073894,-0.3378233,-0.01995455
444.2086,0.03157731,-0.8262545,0.5810403,-0.5081733,-0.3410639,-0.01994627
444.2234,0.03170137,-0.8341064,0.581923,-0.5091644,-0.3448249,-0.01993608
444.2381,0.03170137,-0.8341064,0.581923,-0.5091644,-0.3448249,-0.01993608
444.2523,0.03182255,-0.8424342,0.5827153,-0.510176,-0.3485484,-0.01992584
444.2696,0.03194268,-0.8510185,0.5833226,-0.5111475,-0.3520858,-0.01991608
444.2832,0.03206244,-0.859723,0.5837648,-0.5120656,-0.3554249,-0.01990686
444.2971,0.03206244,-0.859723,0.5837648,-0.5120656,-0.3554249,-0.01990686
444.3112,0.03217519,-0.8692244,0.5845948,-0.5131904,-0.3592765,-0.0198957
444.3264,0.0322853,-0.8791755,0.5853347,-0.5143339,-0.3630857,-0.01988451
444.3412,0.03239386,-0.8893593,0.5858897,-0.5154344,-0.3667033,-0.01987383
444.3559,0.03239386,-0.8893593,0.5858897,-0.5154344,-0.3667033,-0.01987383
444.37,0.03249439,-0.9004025,0.5867854,-0.5167361,-0.3707967,-0.01986128
444.3855,0.03259009,-0.9119257,0.5875543,-0.5180454,-0.3748109,-0.01984883
444.4002,0.03268273,-0.9236926,0.5881136,-0.5193015,-0.3786038,-0.01983699
444.4151,0.03268273,-0.9236926,0.5881136,-0.5193015,-0.3786038,-0.01983699
444.4291,0.03277333,-0.9355568,0.5884913,-0.5204926,-0.3821691,-0.01982583
444.4447,0.03285508,-0.9481894,0.5892313,-0.5218812,-0.3862079,-0.01981277
444.4593,0.03285508,-0.9481894,0.5892313,-0.5218812,-0.3862079,-0.01981277
444.4735,0.03293109,-0.9612381,0.5898713,-0.5232776,-0.3901791,-0.01979979
444.4888,0.03300326,-0.9744841,0.5903224,-0.524622,-0.3939398,-0.0197874
444.5035,0.03307281,-0.987792,0.5906053,-0.5259022,-0.3974798,-0.0197757
444.5193,0.03307281,-0.987792,0.5906053,-0.5259022,-0.3974798,-0.0197757
444.5334,0.03313266,-1.00184,0.5912497,-0.5273798,-0.4014874,-0.01976209
444.5479,0.03318584,-1.016279,0.5917974,-0.5288638,-0.4054253,-0.01974856
444.5626,0.03323435,-1.030895,0.5921595,-0.5302938,-0.4091508,-0.01973568
444.5771,0.03323435,-1.030895,0.5921595,-0.5302938,-0.4091508,-0.01973568
444.5912,0.03327135,-1.046314,0.5928382,-0.5319159,-0.4133089,-0.01972098
444.6067,0.03329995,-1.062157,0.5933868,-0.5335342,-0.4173637,-0.01970649
444.6213,0.03332286,-1.078189,0.5937281,-0.5350889,-0.4211789,-0.01969275
444.6361,0.03332286,-1.078189,0.5937281,-0.5350889,-0.4211789,-0.01969275
444.6504,0.03334459,-1.094265,0.5938869,-0.5365702,-0.424749,-0.01967982
444.666,0.03336133,-1.111056,0.5943778,-0.5382425,-0.4287491,-0.01966507
444.6807,0.03337794,-1.128211,0.5947584,-0.5399145,-0.4326572,-0.01965051
444.6955,0.03337794,-1.128211,0.5947584,-0.5399145,-0.4326572,-0.01965051
444.7095,0.03339517,-1.145513,0.5949486,-0.5415263,-0.4363382,-0.01963668
444.7249,0.03341299,-1.162826,0.5949723,-0.5430656,-0.4397851,-0.01962366
444.7401,0.03342664,-1.180831,0.5953288,-0.5447959,-0.4436592,-0.0196088
444.7543,0.03342664,-1.180831,0.5953288,-0.5447959,-0.4436592,-0.0196088
444.7707,0.03344045,-1.199179,0.5955799,-0.5465246,-0.4474422,-0.01959416
444.7856,0.03345502,-1.217656,0.5956455,-0.5481914,-0.4509992,-0.01958027
444.7987,0.03345502,-1.217656,0.5956455,-0.5481914,-0.4509992,-0.01958027
444.8128,0.03346551,-1.236889,0.5959993,-0.5500438,-0.4549501,-0.01956467
444.8281,0.03347636,-1.2565,0.5962148,-0.5518851,-0.4587781,-0.01954941
444.8427,0.03348814,-1.276255,0.5962241,-0.5536557,-0.4623553,-0.01953501
444.8575,0.03348814,-1.276255,0.5962241,-0.5536557,-0.4623553,-0.01953501
444.8717,0.03350071,-1.296009,0.5960595,-0.5553449,-0.4656807,-0.01952153
444.8872,0.03350902,-1.316428,0.5962031,-0.5572144,-0.4693978,-0.01950636
444.9018,0.03351772,-1.337163,0.5962374,-0.5590737,-0.4730079,-0.01949147
444.9165,0.03351772,-1.337163,0.5962374,-0.5590737,-0.4730079,-0.01949147
444.9308,0.03352737,-1.357998,0.5960896,-0.5608644,-0.4763841,-0.01947743
444.9463,0.03353786,-1.3788,0.5957847,-0.5625755,-0.4795215,-0.01946429
444.9615,0.03367603,-1.386884,0.5881931,-0.5599359,-0.472363,-0.01949349
444.9755,0.03367603,-1.386884,0.5881931,-0.5599359,-0.472363,-0.01949349
444.9895,0.03390519,-1.387119,0.5806479,-0.5562814,-0.4635545,-0.01952998
445.005,0.03416552,-1.382515,0.5748171,-0.5526824,-0.4556358,-0.01956335
445.0207,0.03441193,-1.374955,0.5706254,-0.5494215,-0.4490442,-0.01959165
445.0343,0.03441193,-1.374955,0.5706254,-0.5494215,-0.4490442,-0.01959165
445.0484,0.03462833,-1.365615,0.5675933,-0.5465195,-0.4435759,-0.01961556
445.0636,0.03481588,-1.355222,0.5652754,-0.5439215,-0.4389165,-0.01963622
445.0782,0.03481588,-1.355222,0.5652754,-0.5439215,-0.4389165,-0.01963622
445.0921,0.03498118,-1.344227,0.5633616,-0.5415621,-0.4348032,-0.01965463
445.1077,0.03513094,-1.33291,0.5691368,-0.5309466,-0.4376491,-0.03467046
445.1223,0.03527023,-1.321444,0.5724403,-0.523437,-0.4386249,-0.04939154
445.137,0.03527023,-1.321444,0.5724403,-0.523437,-0.4386249,-0.04939154
445.1511,0.03540254,-1.309937,0.5744854,-0.5175221,-0.438609,-0.06382397
445.1667,0.03553018,-1.298455,0.5759225,-0.5124599,-0.4381072,-0.07797345
445.1815,0.03565459,-1.28704,0.5753219,-0.5097513,-0.4358155,-0.08852022
445.1961,0.03565459,-1.28704,0.5753219,-0.5097513,-0.4358155,-0.08852022
445.2098,0.03577668,-1.275716,0.5752162,-0.5066895,-0.4339645,-0.09886006
445.2253,0.03589703,-1.264499,0.5753618,-0.5035088,-0.4323705,-0.108997
445.24,0.03589703,-1.264499,0.5753618,-0.5035088,-0.4323705,-0.108997
445.2542,0.03601598,-1.253397,0.5738606,-0.5021988,-0.4293405,-0.115602
445.2697,0.03613374,-1.242416,0.5730492,-0.5002767,-0.4269485,-0.1220773
445.2861,0.03625044,-1.231557,0.5725718,-0.4980944,-0.4249056,-0.1284255
445.2997,0.03625044,-1.231557,0.5725718,-0.4980944,-0.4249056,-0.1284255
445.3138,0.03636615,-1.220823,0.5722514,-0.4958225,-0.4230602,-0.1346491
445.3282,0.03648089,-1.210212,0.5702431,-0.4954282,-0.4197462,-0.1374174
445.3427,0.0365947,-1.199725,0.5689024,-0.4944047,-0.417056,-0.1401314
445.3571,0.0365947,-1.199725,0.5689024,-0.4944047,-0.417056,-0.1401314
445.3712,0.03670757,-1.18936,0.5678887,-0.493099,-0.4147087,-0.1427919
445.3867,0.0368195,-1.179117,0.5670336,-0.4916794,-0.4125574,-0.1454001
445.4013,0.03693047,-1.168994,0.5645243,-0.4921212,-0.4089604,-0.1446241
445.4158,0.03693047,-1.168994,0.5645243,-0.4921212,-0.4089604,-0.1446241
445.43,0.03704049,-1.158991,0.5626882,-0.4919065,-0.4059896,-0.143863
445.4455,0.03714953,-1.149105,0.561189,-0.4913839,-0.4033663,-0.1431167
445.4601,0.0372576,-1.139336,0.5598601,-0.4907227,-0.4009452,-0.1423849
445.4748,0.0372576,-1.139336,0.5598601,-0.4907227,-0.4009452,-0.1423849
445.4886,0.03736466,-1.129682,0.5569328,-0.4919086,-0.3971233,-0.1383342
445.5042,0.03747071,-1.120142,0.5546818,-0.492412,-0.3939272,-0.1343627
445.5189,0.03747071,-1.120142,0.5546818,-0.492412,-0.3939272,-0.1343627
445.5327,0.03757574,-1.110714,0.5527766,-0.4925835,-0.3910826,-0.1304689
445.5502,0.03767974,-1.101398,0.5494099,-0.4945049,-0.3869605,-0.1233182
445.5638,0.03778269,-1.092191,0.5467578,-0.49568,-0.3834996,-0.1163075
445.5773,0.03778269,-1.092191,0.5467578,-0.49568,-0.3834996,-0.1163075
445.5914,0.03788459,-1.083094,0.5444752,-0.4964821,-0.3804123,-0.1094341
445.6067,0.03798544,-1.074104,0.5423918,-0.4970931,-0.3775495,-0.1026952
445.6212,0.03808522,-1.06522,0.5388514,-0.4995231,-0.3734134,-0.09275522
445.636,0.03808522,-1.06522,0.5388514,-0.4995231,-0.3734134,-0.09275522
445.6501,0.03818392,-1.056441,0.5359807,-0.5012227,-0.3698924,-0.08300995
445.6655,0.03828155,-1.047766,0.533466,-0.5025475,-0.366727,-0.07345556
445.6802,0.03837809,-1.039193,0.5311516,-0.5036713,-0.3637817,-0.06408834
445.6949,0.03837809,-1.039193,0.5311516,-0.5036713,-0.3637817,-0.06408834
445.709,0.03847353,-1.030722,0.5274624,-0.5066102,-0.359637,-0.05157153
445.7244,0.03856788,-1.022351,0.5244281,-0.5088,-0.3560892,-0.03929994
445.739,0.03856788,-1.022351,0.5244281,-0.5088,-0.3560892,-0.03929994
445.7532,0.03866114,-1.014079,0.5217484,-0.5105973,-0.3528917,-0.02726878
445.7687,0.0387533,-1.005905,0.5178368,-0.5141153,-0.3486262,-0.01214021
445.7832,0.03884435,-0.9978275,0.5146031,-0.5168234,-0.3449784,0.002691911
445.798,0.03884435,-0.9978275,0.5146031,-0.5168234,-0.3449784,0.002691911
445.812,0.03893431,-0.9898456,0.5117386,-0.5191008,-0.3416943,0.01723342
445.8284,0.03902317,-0.9819582,0.5090904,-0.5211334,-0.3386412,0.03148998
445.842,0.03911094,-0.9741641,0.5062629,-0.5234758,-0.3354635,0.04625924
445.8567,0.03911094,-0.9741641,0.5062629,-0.5234758,-0.3354635,0.04625924
445.8706,0.03919761,-0.9664624,0.5036637,-0.5255481,-0.3325146,0.06073905
445.886,0.03928319,-0.9588519,0.5012158,-0.527454,-0.3297277,0.07493509
445.9007,0.03936768,-0.9513315,0.4988803,-0.5292445,-0.3270672,0.0888529
445.9157,0.03936768,-0.9513315,0.4988803,-0.5292445,-0.3270672,0.0888529
445.9297,0.03945109,-0.9439002,0.4966382,-0.5309455,-0.3245134,0.1024979
445.945,0.03953341,-0.936557,0.4944796,-0.5325705,-0.3220553,0.1158756
445.9596,0.03953341,-0.936557,0.4944796,-0.5325705,-0.3220553,0.1158756
445.9737,0.03961466,-0.9293008,0.4923989,-0.5341266,-0.3196861,0.128991
445.9895,0.03969483,-0.9221306,0.4906891,-0.5351522,-0.3176639,0.1410573
446.004,0.03977393,-0.9150454,0.4889401,-0.5362796,-0.3156305,0.1528871
446.0186,0.03977393,-0.9150454,0.4889401,-0.5362796,-0.3156305,0.1528871
446.0329,0.03985198,-0.9080442,0.4872048,-0.5374296,-0.3136257,0.164485
446.0483,0.03992897,-0.901126,0.4855089,-0.5385644,-0.3116697,0.1758556
446.0631,0.04000491,-0.8942899,0.4850693,-0.5377001,-0.3108379,0.1836701
446.0797,0.04000491,-0.8942899,0.4850693,-0.5377001,-0.3108379,0.1836701
446.0925,0.04007982,-0.8875348,0.4842405,-0.5374847,-0.3097017,0.1913315
446.1071,0.04015369,-0.8808599,0.4832436,-0.5375717,-0.3084311,0.1988427
446.1216,0.04022654,-0.8742642,0.4821903,-0.5377929,-0.3071168,0.2062067
446.1364,0.04022654,-0.8742642,0.4821903,-0.5377929,-0.3071168,0.2062067
446.1504,0.04029837,-0.8677468,0.4823231,-0.5360973,-0.3068569,0.210093
446.1659,0.04036919,-0.8613067,0.4820446,-0.5351064,-0.3062668,0.2139032
446.1805,0.04043901,-0.854943,0.4815805,-0.5344573,-0.3055226,0.2176387
446.1953,0.04043901,-0.854943,0.4815805,-0.5344573,-0.3055226,0.2176387
446.2094,0.04050784,-0.8486549,0.4822329,-0.5320031,-0.3057708,0.2179678
446.2245,0.04057568,-0.8424415,0.4824388,-0.5303205,-0.3056545,0.2182904
446.2396,0.04057568,-0.8424415,0.4824388,-0.5303205,-0.3056545,0.2182904
446.2536,0.04064255,-0.8363019,0.4824365,-0.5290232,-0.3053613,0.2186067
446.269,0.04070845,-0.8302351,0.4823455,-0.5279231,-0.304991,0.2189168
446.2838,0.04077339,-0.8242404,0.4834234,-0.524958,-0.3056615,0.2158875
446.2983,0.04077339,-0.8242404,0.4834234,-0.524958,-0.3056615,0.2158875
446.3124,0.04083738,-0.818317,0.4840674,-0.522746,-0.305979,0.2129177
446.3279,0.04090044,-0.8124639,0.4845029,-0.5209207,-0.3061211,0.2100061
446.3435,0.04096256,-0.8066803,0.4848433,-0.5193031,-0.3061822,0.2071516
446.3579,0.04096256,-0.8066803,0.4848433,-0.5193031,-0.3061822,0.2071516
446.3712,0.04102377,-0.8009655,0.4863672,-0.5158361,-0.3073029,0.2010199
446.3864,0.04108407,-0.7953186,0.4874429,-0.5131387,-0.3080578,0.1950083
446.401,0.04114347,-0.7897388,0.4882984,-0.5108452,-0.3086271,0.1891146
446.4157,0.04114347,-0.7897388,0.4882984,-0.5108452,-0.3086271,0.1891146
446.4298,0.04120199,-0.7842253,0.4903014,-0.5068087,-0.3102283,0.1800032
446.4451,0.04125963,-0.7787774,0.4918159,-0.5036017,-0.311425,0.1710705
446.4597,0.04125963,-0.7787774,0.4918159,-0.5036017,-0.311425,0.1710705
446.4735,0.0413164,-0.7733943,0.4930877,-0.5008366,-0.3124132,0.1623129
446.489,0.04137231,-0.7680752,0.4942407,-0.4983238,-0.3132972,0.153727
446.5038,0.04142737,-0.7628193,0.4966372,-0.4940049,-0.3153036,0.1419762
446.5186,0.04142737,-0.7628193,0.4966372,-0.4940049,-0.3153036,0.1419762
446.5323,0.0414816,-0.7576259,0.4985507,-0.49049,-0.3169087,0.1304558
446.5478,0.041535,-0.7524943,0.5002205,-0.487412,-0.3183044,0.1191612
446.5626,0.04158758,-0.7474237,0.5017673,-0.4845911,-0.3195927,0.1080881
446.5772,0.04158758,-0.7474237,0.5017673,-0.4845911,-0.3195927,0.1080881
446.5909,0.04163935,-0.7424135,0.5046148,-0.4799776,-0.3220625,0.09389888
446.6083,0.04169034,-0.7374628,0.5069565,-0.476178,-0.3241084,0.07998785
446.622,0.04174053,-0.7325711,0.5090405,-0.472827,-0.3259311,0.06634954
446.636,0.04174053,-0.7325711,0.5090405,-0.472827,-0.3259311,0.06634954
446.6498,0.04178996,-0.7277375,0.5124136,-0.4677928,-0.3289313,0.04965325
446.6652,0.04183862,-0.7229615,0.5152323,-0.4636263,-0.3314595,0.03328428
446.6795,0.04183862,-0.7229615,0.5152323,-0.4636263,-0.3314595,0.03328428
446.6934,0.04188653,-0.7182423,0.5177686,-0.4599417,-0.3337386,0.0172362
446.7087,0.04193368,-0.7135793,0.52016,-0.4565496,-0.3358866,0.001502739
446.7235,0.04198005,-0.7089717,0.5156434,-0.4621328,-0.3317017,0.001076874
446.738,0.04198005,-0.7089717,0.5156434,-0.4621328,-0.3317017,0.001076874
446.752,0.04202566,-0.704419,0.5135846,-0.4647923,-0.3296515,0.0006596475
446.7676,0.04207056,-0.6999205,0.5126816,-0.4660272,-0.328647,0.0002508607
446.7824,0.04211475,-0.6954755,0.5123188,-0.4665709,-0.3281648,-0.0001497253
446.7971,0.04211475,-0.6954755,0.5123188,-0.4665709,-0.3281648,-0.0001497253
446.8109,0.04215826,-0.6910835,0.5122018,-0.4667817,-0.3279462,-0.0005423314
446.8261,0.04220108,-0.6867437,0.5121911,-0.466834,-0.3278624,-0.0009271571
446.8409,0.04224324,-0.6824557,0.5122224,-0.4668129,-0.3278495,-0.001304376
446.8557,0.04224324,-0.6824557,0.5122224,-0.4668129,-0.3278495,-0.001304376
446.8698,0.04228473,-0.6782186,0.5122689,-0.4667602,-0.327873,-0.00167416
446.887,0.04232557,-0.674032,0.5123203,-0.4666955,-0.3279197,-0.00203665
446.9005,0.04236577,-0.6698953,0.5123727,-0.4666283,-0.3279834,-0.002391995
446.9143,0.04236577,-0.6698953,0.5123727,-0.4666283,-0.3279834,-0.002391995
446.9283,0.04240533,-0.6658078,0.5124248,-0.4665631,-0.3280609,-0.002740329
446.9435,0.04244427,-0.6617691,0.5123403,-0.4664637,-0.3284564,-0.003080799
446.9582,0.04244427,-0.6617691,0.5123403,-0.4664637,-0.3284564,-0.003080799
446.972,0.04248258,-0.6577784,0.5120023,-0.4663505,-0.3289731,-0.003414277
446.9888,0.0425203,-0.6538353,0.5114262,-0.4662375,-0.3295099,-0.003741156
447.0022,0.04255741,-0.6499391,0.5106622,-0.4661312,-0.3300338,-0.00406164
447.0168,0.04255741,-0.6499391,0.5106622,-0.4661312,-0.3300338,-0.00406164
447.0312,0.04259393,-0.6460894,0.5096263,-0.4659953,-0.3308437,-0.004374867
447.0464,0.04262988,-0.6422855,0.5082427,-0.4658496,-0.3317457,-0.004681699
447.0611,0.04266525,-0.6385269,0.5065575,-0.4657076,-0.3326429,-0.0049825
447.0757,0.04266525,-0.6385269,0.5065575,-0.4657076,-0.3326429,-0.0049825
447.0898,0.04270006,-0.6348131,0.5045086,-0.4655362,-0.3338125,-0.005276449
447.1052,0.04273432,-0.6311435,0.5020449,-0.4653565,-0.3350552,-0.00556441
447.1197,0.04273432,-0.6311435,0.5020449,-0.4653565,-0.3350552,-0.00556441
447.1338,0.04276804,-0.6275177,0.4992334,-0.4651825,-0.3362746,-0.005846746
447.1489,0.04280121,-0.623935,0.4961625,-0.4650198,-0.3374442,-0.006123629
447.165,0.04283386,-0.6203951,0.4927767,-0.464831,-0.3388681,-0.006394138
447.1795,0.04283386,-0.6203951,0.4927767,-0.464831,-0.3388681,-0.006394138
447.1932,0.04286598,-0.6168973,0.489019,-0.464635,-0.340357,-0.006659125
447.2074,0.0428976,-0.6134413,0.4849482,-0.4644451,-0.3418179,-0.00691893
447.2221,0.04292871,-0.6100264,0.480645,-0.4642669,-0.3432245,-0.00717372
447.2366,0.04292871,-0.6100264,0.480645,-0.4642669,-0.3432245,-0.00717372
447.2507,0.04295932,-0.6066521,0.4760489,-0.4640622,-0.3448799,-0.007422551
447.2662,0.04298945,-0.6033182,0.4710992,-0.4638502,-0.3465951,-0.007666278
447.2807,0.04301909,-0.6000239,0.4658509,-0.4636444,-0.3482767,-0.007905243
447.2956,0.04301909,-0.6000239,0.4658509,-0.4636444,-0.3482767,-0.007905243
447.3095,0.04304826,-0.5967689,0.4602509,-0.4634104,-0.3502024,-0.008138547
447.3251,0.04307697,-0.5935527,0.4542527,-0.4631691,-0.352176,-0.00836707
447.3396,0.04307697,-0.5935527,0.4542527,-0.4631691,-0.352176,-0.00836707
447.3538,0.04310522,-0.5903748,0.4479253,-0.462935,-0.3541029,-0.008591145
447.3691,0.04313301,-0.5872349,0.4413581,-0.4627139,-0.3559576,-0.008810932
447.3838,0.04316036,-0.5841323,0.4344991,-0.4624668,-0.3580426,-0.00902543
447.3986,0.04316036,-0.5841323,0.4344991,-0.4624668,-0.3580426,-0.00902543
447.4123,0.04318728,-0.5810667,0.427293,-0.462213,-0.3601715,-0.009235509
447.4278,0.04321377,-0.5780377,0.4197978,-0.4619664,-0.3622524,-0.009441496
447.4433,0.04323983,-0.5750448,0.4120936,-0.4617327,-0.3642598,-0.009643534
447.4579,0.04323983,-0.5750448,0.4120936,-0.4617327,-0.3642598,-0.009643534
447.471,0.04326548,-0.5720875,0.4041224,-0.4614722,-0.3664941,-0.009840606
447.4861,0.04329072,-0.5691655,0.395824,-0.4612044,-0.3687694,-0.01003359
447.5007,0.04331555,-0.5662783,0.3872529,-0.4609436,-0.3709936,-0.01022282
447.5155,0.04331555,-0.5662783,0.3872529,-0.4609436,-0.3709936,-0.01022282
447.5296,0.04333999,-0.5634256,0.3783572,-0.4606537,-0.3734413,-0.01040732
447.5448,0.04336404,-0.5606069,0.3690913,-0.4603564,-0.3759199,-0.01058799
447.5594,0.04336404,-0.5606069,0.3690913,-0.4603564,-0.3759199,-0.01058799
447.5734,0.04338771,-0.5578218,0.3595227,-0.4600668,-0.378336,-0.01076518
447.5888,0.043411,-0.5550698,0.3497393,-0.4597914,-0.3806644,-0.010939
447.6037,0.04343392,-0.5523507,0.3396909,-0.459489,-0.3832037,-0.01110838
447.6183,0.04343392,-0.5523507,0.3396909,-0.459489,-0.3832037,-0.01110838
447.6323,0.04345647,-0.549664,0.329323,-0.4591797,-0.3857715,-0.01127423
447.6476,0.04347866,-0.5470093,0.3186926,-0.4588782,-0.3882771,-0.01143686
447.6622,0.04350051,-0.5443863,0.3078782,-0.4585905,-0.3906954,-0.01159642
447.6768,0.04350051,-0.5443863,0.3078782,-0.4585905,-0.3906954,-0.01159642
447.6906,0.043522,-0.5417946,0.2968233,-0.4582749,-0.3933223,-0.01175177
447.706,0.04354315,-0.5392338,0.2854692,-0.4579518,-0.3959765,-0.01190387
447.7217,0.04356396,-0.5367035,0.2738689,-0.4576361,-0.3985669,-0.01205303
447.7364,0.04356396,-0.5367035,0.2738689,-0.4576361,-0.3985669,-0.01205303
447.7508,0.04358445,-0.5342034,0.2619719,-0.45729,-0.4013639,-0.01219819
447.7648,0.0436046,-0.5317331,0.2497334,-0.456936,-0.4041792,-0.0123403
447.7792,0.0436046,-0.5317331,0.2497334,-0.456936,-0.4041792,-0.0123403
447.7933,0.04362444,-0.5292922,0.2372194,-0.4565903,-0.4069209,-0.01247968
447.8086,0.04364397,-0.5268805,0.2245158,-0.4562595,-0.409564,-0.01261646
447.8234,0.04366318,-0.5244975,0.2116984,-0.4559458,-0.4121081,-0.01275067
447.8379,0.04366318,-0.5244975,0.2116984,-0.4559458,-0.4121081,-0.01275067
447.852,0.04368208,-0.5221429,0.1988264,-0.4556492,-0.4145604,-0.01288236
447.8677,0.04370069,-0.5198165,0.1859428,-0.4553686,-0.416929,-0.01301154
447.8823,0.043719,-0.5175177,0.1730784,-0.455103,-0.4192215,-0.01313825
447.8972,0.043719,-0.5175177,0.1730784,-0.455103,-0.4192215,-0.01313825
447.911,0.04373702,-0.5152463,0.1602541,-0.4548514,-0.4214438,-0.01326252
447.9264,0.04375475,-0.5130021,0.1474844,-0.4546127,-0.4236007,-0.01338439
447.941,0.04377221,-0.5107846,0.1347788,-0.4543864,-0.425696,-0.01350391
447.9557,0.04377221,-0.5107846,0.1347788,-0.4543864,-0.425696,-0.01350391
447.9697,0.04378938,-0.5085936,0.1221437,-0.4541716,-0.4277327,-0.0136211
447.9871,0.04380628,-0.5064287,0.1095831,-0.4539678,-0.4297132,-0.01373603
448.0009,0.04382291,-0.5042896,0.09709956,-0.4537748,-0.4316396,-0.01384872
448.0142,0.04382291,-0.5042896,0.09709956,-0.4537748,-0.4316396,-0.01384872
448.0284,0.04383928,-0.502176,0.08469456,-0.4535919,-0.4335134,-0.01395923
448.0437,0.0438554,-0.5000877,0.07236888,-0.4534189,-0.4353364,-0.01406759
448.058,0.0438554,-0.5000877,0.07236888,-0.4534189,-0.4353364,-0.01406759
448.0724,0.04387125,-0.4980242,0.06012287,-0.4532555,-0.4371099,-0.01417385
448.0876,0.04388686,-0.4959854,0.04795647,-0.4531014,-0.438835,-0.01427806
448.1023,0.04390221,-0.4939708,0.0358695,-0.4529563,-0.4405131,-0.01438024
448.1171,0.04390221,-0.4939708,0.0358695,-0.4529563,-0.4405131,-0.01438024
448.1311,0.04391732,-0.4919803,0.02386159,-0.45282,-0.4421452,-0.01448045
448.1465,0.0439322,-0.4900136,0.01193231,-0.4526922,-0.4437324,-0.01457871
448.1613,0.04394684,-0.4880702,8.118525E-05,-0.4525727,-0.4452756,-0.01467507
448.1758,0.04394684,-0.4880702,8.118525E-05,-0.4525727,-0.4452756,-0.01467507
448.19,0.04396124,-0.4861501,-0.01169232,-0.4524613,-0.4467759,-0.01476957
448.2053,0.04397542,-0.4842529,-0.02338877,-0.4523576,-0.4482342,-0.01486225
448.2198,0.04397542,-0.4842529,-0.02338877,-0.4523576,-0.4482342,-0.01486225
448.2341,0.04398938,-0.4823783,-0.03500874,-0.4522616,-0.4496515,-0.01495314
448.2515,0.04400311,-0.4805261,-0.04655276,-0.452173,-0.4510286,-0.01504227
448.2651,0.04401662,-0.4786959,-0.05802141,-0.4520915,-0.4523664,-0.01512969
448.2795,0.04401662,-0.4786959,-0.05802141,-0.4520915,-0.4523664,-0.01512969
448.2925,0.04402992,-0.4768876,-0.06941521,-0.4520171,-0.4536656,-0.01521543
448.3078,0.04404301,-0.4751009,-0.08073472,-0.4519494,-0.4549273,-0.01529952
448.3223,0.04405589,-0.4733354,-0.09198049,-0.4518883,-0.4561521,-0.01538199
448.3371,0.04405589,-0.4733354,-0.09198049,-0.4518883,-0.4561521,-0.01538199
448.3511,0.04406857,-0.4715911,-0.1031531,-0.4518336,-0.4573408,-0.01546287
448.3665,0.04408105,-0.4698675,-0.1142529,-0.4517852,-0.4584942,-0.0155422
448.3812,0.04409334,-0.4681645,-0.1252806,-0.4517427,-0.4596131,-0.01562
448.3958,0.04409334,-0.4681645,-0.1252806,-0.4517427,-0.4596131,-0.01562
448.4097,0.04410543,-0.4664818,-0.1362366,-0.4517061,-0.460698,-0.01569632
448.4254,0.04411732,-0.4648192,-0.1471214,-0.4516752,-0.4617499,-0.01577117
448.4399,0.04411732,-0.4648192,-0.1471214,-0.4516752,-0.4617499,-0.01577117
448.4539,0.04412903,-0.4631764,-0.1579355,-0.4516498,-0.4627693,-0.0158446
448.4693,0.04414055,-0.4615532,-0.1686793,-0.4516297,-0.4637569,-0.01591662
448.4841,0.04415189,-0.4599494,-0.1793534,-0.4516148,-0.4647133,-0.01598727
448.4986,0.04415189,-0.4599494,-0.1793534,-0.4516148,-0.4647133,-0.01598727
448.5127,0.04416305,-0.4583648,-0.1899582,-0.4516048,-0.4656392,-0.01605657
448.53,0.04417404,-0.456799,-0.2004941,-0.4515998,-0.4665353,-0.01612454
448.5433,0.04418485,-0.4552519,-0.2109617,-0.4515994,-0.4674021,-0.01619123
448.5569,0.04418485,-0.4552519,-0.2109617,-0.4515994,-0.4674021,-0.01619123
448.572,0.04419549,-0.4537232,-0.2213613,-0.4516036,-0.4682402,-0.01625665
448.5865,0.04420596,-0.4522128,-0.2316934,-0.4516122,-0.4690503,-0.01632082
448.6008,0.04421627,-0.4507204,-0.2419583,-0.451625,-0.4698328,-0.01638377
448.6154,0.04421627,-0.4507204,-0.2419583,-0.451625,-0.4698328,-0.01638377
448.6295,0.04422641,-0.4492458,-0.2521566,-0.451642,-0.4705883,-0.01644552
448.6447,0.0442364,-0.4477888,-0.2622886,-0.4516629,-0.4713174,-0.01650611
448.6595,0.0442364,-0.4477888,-0.2622886,-0.4516629,-0.4713174,-0.01650611
448.6733,0.04424622,-0.4463492,-0.2723547,-0.4516877,-0.4720207,-0.01656556
448.6885,0.04425589,-0.4449268,-0.2823553,-0.4517162,-0.4726985,-0.01662387
448.7035,0.04426541,-0.4435213,-0.2922909,-0.4517484,-0.4733514,-0.01668109
448.718,0.04426541,-0.4435213,-0.2922909,-0.4517484,-0.4733514,-0.01668109
448.7321,0.04427477,-0.4421326,-0.3021618,-0.451784,-0.47398,-0.01673723
448.7475,0.04428399,-0.4407605,-0.3119683,-0.4518229,-0.4745846,-0.01679231
448.7621,0.04429307,-0.4394047,-0.3217109,-0.4518651,-0.4751658,-0.01684635
448.7768,0.04429307,-0.4394047,-0.3217109,-0.4518651,-0.4751658,-0.01684635
448.7907,0.044302,-0.4380651,-0.33139,-0.4519105,-0.4757241,-0.01689937
448.806,0.04431079,-0.4367415,-0.3410058,-0.4519588,-0.4762599,-0.0169514
448.8216,0.04431944,-0.4354337,-0.3505588,-0.45201,-0.4767735,-0.01700245
448.8364,0.04431944,-0.4354337,-0.3505588,-0.45201,-0.4767735,-0.01700245
448.8506,0.04432795,-0.4341415,-0.3600494,-0.452064,-0.4772656,-0.01705255
448.8647,0.04433633,-0.4328647,-0.3694778,-0.4521208,-0.4777364,-0.01710171
448.8792,0.04433633,-0.4328647,-0.3694778,-0.4521208,-0.4777364,-0.01710171
448.8932,0.04434457,-0.4316032,-0.3788444,-0.4521801,-0.4781864,-0.01714996
448.9084,0.04435269,-0.4303567,-0.3881496,-0.4522419,-0.478616,-0.01719729
448.9232,0.04436068,-0.429125,-0.3973938,-0.4523061,-0.4790257,-0.01724375
448.9377,0.04436068,-0.429125,-0.3973938,-0.4523061,-0.4790257,-0.01724375
448.9518,0.04436854,-0.4279081,-0.4065772,-0.4523726,-0.4794157,-0.01728935
448.967,0.04437628,-0.4267057,-0.4157001,-0.4524414,-0.4797865,-0.01733409
448.9818,0.04438389,-0.4255176,-0.424763,-0.4525122,-0.4801385,-0.01737801
448.9966,0.04438389,-0.4255176,-0.424763,-0.4525122,-0.4801385,-0.01737801
449.0105,0.04439139,-0.4243437,-0.4337662,-0.4525852,-0.480472,-0.01742111
449.0259,0.04439876,-0.4231838,-0.4427099,-0.4526601,-0.4807873,-0.01746341
449.0406,0.04440602,-0.4220378,-0.4515945,-0.4527369,-0.4810849,-0.01750493
449.0552,0.04440602,-0.4220378,-0.4515945,-0.4527369,-0.4810849,-0.01750493
449.0694,0.04441317,-0.4209054,-0.4604203,-0.4528154,-0.4813651,-0.01754568
449.0844,0.0444202,-0.4197865,-0.4691876,-0.4528958,-0.4816282,-0.01758569
449.1002,0.04442712,-0.418681,-0.4778968,-0.4529777,-0.4818746,-0.01762495
449.1148,0.04442712,-0.418681,-0.4778968,-0.4529777,-0.4818746,-0.01762495
449.1289,0.04443393,-0.4175887,-0.4865482,-0.4530613,-0.4821045,-0.01766349
449.1431,0.04444063,-0.4165094,-0.495142,-0.4531464,-0.4823183,-0.01770133
449.1574,0.04444063,-0.4165094,-0.495142,-0.4531464,-0.4823183,-0.01770133
449.1713,0.04444723,-0.415443,-0.5036786,-0.4532329,-0.4825163,-0.01773847
449.1899,0.04445372,-0.4143893,-0.5121582,-0.4533208,-0.4826989,-0.01777493
449.2029,0.04446011,-0.4133482,-0.5205812,-0.4534101,-0.4828663,-0.01781072
449.2159,0.04446011,-0.4133482,-0.5205812,-0.4534101,-0.4828663,-0.01781072
449.2301,0.0444664,-0.4123195,-0.5289478,-0.4535005,-0.4830187,-0.01784586
449.2454,0.04447259,-0.4113031,-0.5372584,-0.4535922,-0.4831566,-0.01788035
449.2603,0.04447868,-0.4102988,-0.5455133,-0.453685,-0.4832802,-0.01791423
449.2747,0.04447868,-0.4102988,-0.5455133,-0.453685,-0.4832802,-0.01791423
449.289,0.04448467,-0.4093065,-0.5537127,-0.4537789,-0.4833897,-0.01794748
449.3044,0.04449057,-0.4083261,-0.5618569,-0.4538738,-0.4834855,-0.01798013
449.319,0.04449057,-0.4083261,-0.5618569,-0.4538738,-0.4834855,-0.01798013
449.333,0.04449638,-0.4073573,-0.5699462,-0.4539697,-0.4835678,-0.01801219
449.3486,0.04450209,-0.4064001,-0.577981,-0.4540666,-0.4836369,-0.01804367
449.3631,0.04450772,-0.4054543,-0.5859615,-0.4541643,-0.4836931,-0.01807458
449.3787,0.04450772,-0.4054543,-0.5859615,-0.4541643,-0.4836931,-0.01807458
449.3928,0.04451326,-0.4045198,-0.5938879,-0.4542628,-0.4837365,-0.01810494
449.407,0.0445187,-0.4035965,-0.6017605,-0.454362,-0.4837676,-0.01813475
449.4217,0.04452406,-0.4026841,-0.6095797,-0.454462,-0.4837864,-0.01816402
449.4362,0.04452406,-0.4026841,-0.6095797,-0.454462,-0.4837864,-0.01816402
449.4502,0.04452934,-0.4017827,-0.6173456,-0.4545627,-0.4837932,-0.01819277
449.4656,0.04453453,-0.400892,-0.6250587,-0.454664,-0.4837884,-0.01822101
449.4803,0.04453963,-0.4000119,-0.6327191,-0.4547659,-0.4837721,-0.01824874
449.4949,0.04453963,-0.4000119,-0.6327191,-0.4547659,-0.4837721,-0.01824874
449.5088,0.04454466,-0.3991424,-0.6403271,-0.4548684,-0.4837445,-0.01827598
449.5241,0.04454961,-0.3982832,-0.647883,-0.4549714,-0.4837059,-0.01830273
449.5389,0.04454961,-0.3982832,-0.647883,-0.4549714,-0.4837059,-0.01830273
449.5532,0.04455448,-0.3974343,-0.6553871,-0.4550749,-0.4836565,-0.01832901
449.5683,0.04455927,-0.3965955,-0.6628397,-0.4551788,-0.4835966,-0.01835482
449.5831,0.04456399,-0.3957667,-0.6702409,-0.4552831,-0.4835263,-0.01838017
449.5975,0.04456399,-0.3957667,-0.6702409,-0.4552831,-0.4835263,-0.01838017
449.6117,0.04456863,-0.3949478,-0.6775911,-0.4553878,-0.4834459,-0.01840508
449.627,0.0445732,-0.3941386,-0.6848906,-0.4554928,-0.4833555,-0.01842954
449.6438,0.04457769,-0.3933392,-0.6921396,-0.4555981,-0.4832554,-0.01845357
449.6572,0.04457769,-0.3933392,-0.6921396,-0.4555981,-0.4832554,-0.01845357
449.6713,0.04458211,-0.3925492,-0.6993383,-0.4557037,-0.4831457,-0.01847719
449.6854,0.04458646,-0.3917687,-0.7064871,-0.4558095,-0.4830267,-0.01850038
449.7003,0.04459074,-0.3909975,-0.7135862,-0.4559156,-0.4828987,-0.01852318
449.7148,0.04459074,-0.3909975,-0.7135862,-0.4559156,-0.4828987,-0.01852318
449.7289,0.04459495,-0.3902355,-0.7206357,-0.4560218,-0.4827615,-0.01854558
449.7441,0.0445991,-0.3894826,-0.7276359,-0.4561283,-0.4826155,-0.01856758
449.7585,0.0445991,-0.3894826,-0.7276359,-0.4561283,-0.4826155,-0.01856758
449.7726,0.04460318,-0.3887387,-0.7345871,-0.4562349,-0.4824609,-0.0185892
449.7881,0.0446072,-0.3880037,-0.7414895,-0.4563416,-0.482298,-0.01861044
449.8029,0.04461114,-0.3872774,-0.7482216,-0.4564992,-0.4818351,-0.01863271
449.8174,0.04461114,-0.3872774,-0.7482216,-0.4564992,-0.4818351,-0.01863271
449.8316,0.04461503,-0.3865598,-0.7546737,-0.4566836,-0.4812524,-0.01865487
449.847,0.04461885,-0.3858508,-0.7608557,-0.4568762,-0.4806468,-0.01867664
449.8616,0.04462261,-0.3851502,-0.7668117,-0.4570685,-0.4800514,-0.01869796
449.8763,0.04462261,-0.3851502,-0.7668117,-0.4570685,-0.4800514,-0.01869796
449.8901,0.04462631,-0.384458,-0.7724655,-0.4573078,-0.4791817,-0.01872023
449.9057,0.04462995,-0.383774,-0.7777452,-0.4575689,-0.4782178,-0.0187423
449.9223,0.04463353,-0.3830982,-0.7826904,-0.4578336,-0.4772533,-0.01876393
449.9359,0.04463353,-0.3830982,-0.7826904,-0.4578336,-0.4772533,-0.01876393
449.9497,0.04463705,-0.3824305,-0.7872437,-0.4581445,-0.4760238,-0.01878647
449.9641,0.04464052,-0.3817708,-0.7913556,-0.4584743,-0.4747162,-0.01880876
449.9784,0.04464052,-0.3817708,-0.7913556,-0.4584743,-0.4747162,-0.01880876
449.9925,0.04464392,-0.3811189,-0.7950851,-0.4588044,-0.4734245,-0.01883057
450.0075,0.04464728,-0.3804747,-0.7985132,-0.4591267,-0.472177,-0.01885185
450.0222,0.04465057,-0.3798383,-0.8015896,-0.4594893,-0.4706809,-0.018874
450.0368,0.04465057,-0.3798383,-0.8015896,-0.4594893,-0.4706809,-0.018874
450.0508,0.04465381,-0.3792095,-0.8042599,-0.4598678,-0.4691146,-0.01889591
450.0662,0.044657,-0.3785882,-0.8065768,-0.4602445,-0.4675694,-0.01891735
450.0806,0.04466014,-0.3779743,-0.8086152,-0.4606122,-0.466073,-0.01893826
450.0956,0.04466014,-0.3779743,-0.8086152,-0.4606122,-0.466073,-0.01893826
450.1092,0.04466322,-0.3773677,-0.8103194,-0.4610188,-0.4643305,-0.01896004
450.1247,0.04466625,-0.3767684,-0.8116301,-0.4614398,-0.4625221,-0.01898159
450.1393,0.04466625,-0.3767684,-0.8116301,-0.4614398,-0.4625221,-0.01898159
450.1537,0.04466923,-0.3761762,-0.8125978,-0.4618578,-0.4607406,-0.01900266
450.1688,0.04467217,-0.3755911,-0.8131711,-0.4623154,-0.4587133,-0.01902456
450.1836,0.04467504,-0.375013,-0.8133034,-0.4627859,-0.4566302,-0.01904621
450.198,0.04467504,-0.375013,-0.8133034,-0.4627859,-0.4566302,-0.01904621
450.2142,0.04467788,-0.3744417,-0.8130581,-0.4632512,-0.4545861,-0.01906735
450.2284,0.04468067,-0.3738773,-0.8125201,-0.463704,-0.4526083,-0.01908793
450.2419,0.0446834,-0.3733196,-0.8116396,-0.4641913,-0.4503961,-0.01910932
450.2566,0.0446834,-0.3733196,-0.8116396,-0.4641913,-0.4503961,-0.01910932
450.2704,0.0446861,-0.3727686,-0.8103606,-0.4646893,-0.4481326,-0.01913046
450.2856,0.04468874,-0.3722242,-0.8087378,-0.4651808,-0.4459108,-0.01915111
450.3002,0.04469134,-0.3716862,-0.8068486,-0.465659,-0.443758,-0.01917121
450.3152,0.04469134,-0.3716862,-0.8068486,-0.465659,-0.443758,-0.01917121
450.329,0.0446939,-0.3711547,-0.804636,-0.4661707,-0.4413705,-0.01919211
450.3442,0.04469641,-0.3706295,-0.8020386,-0.4666919,-0.4389347,-0.01921276
450.3589,0.04469641,-0.3706295,-0.8020386,-0.4666919,-0.4389347,-0.01921276
450.3729,0.04469888,-0.3701106,-0.7991082,-0.4672057,-0.4365449,-0.01923293
450.3884,0.0447013,-0.3695979,-0.7957929,-0.4677538,-0.4339199,-0.01925386
450.403,0.04470369,-0.3690913,-0.7920436,-0.4683098,-0.4312561,-0.01927451
450.4176,0.04470369,-0.3690913,-0.7920436,-0.4683098,-0.4312561,-0.01927451
450.4317,0.04470603,-0.3685908,-0.7879262,-0.4688565,-0.4286502,-0.01929465
450.4472,0.04470833,-0.3680962,-0.7835281,-0.4693869,-0.4261293,-0.0193142
450.4621,0.0447106,-0.3676075,-0.7787983,-0.4699468,-0.4233828,-0.01933449
450.4765,0.0447106,-0.3676075,-0.7787983,-0.4699468,-0.4233828,-0.01933449
450.4925,0.04471282,-0.3671247,-0.7736782,-0.4705127,-0.4206008,-0.01935451
450.5067,0.044715,-0.3666476,-0.7682242,-0.4710683,-0.4178783,-0.01937402
450.5213,0.04471714,-0.3661762,-0.7625164,-0.4716071,-0.4152425,-0.01939297
450.535,0.04471714,-0.3661762,-0.7625164,-0.4716071,-0.4152425,-0.01939297
450.5489,0.04471925,-0.3657105,-0.7564967,-0.4721745,-0.4123795,-0.01941264
450.5642,0.04472132,-0.3652503,-0.7501005,-0.472747,-0.409483,-0.01943206
450.5787,0.04472132,-0.3652503,-0.7501005,-0.472747,-0.409483,-0.01943206
450.5927,0.04472335,-0.3647956,-0.7433817,-0.4733086,-0.4066496,-0.01945097
450.6093,0.04472534,-0.3643464,-0.7362581,-0.4741168,-0.403631,-0.01947143
450.6228,0.0447273,-0.3639024,-0.7287124,-0.4750522,-0.4005898,-0.01949123
450.6372,0.0447273,-0.3639024,-0.7287124,-0.4750522,-0.4005898,-0.01949123
450.6513,0.04472923,-0.3634638,-0.7208183,-0.4760301,-0.3976125,-0.01951032
450.667,0.04473112,-0.3630305,-0.7126622,-0.477012,-0.3947256,-0.01952875
450.6815,0.04473297,-0.3626023,-0.70432,-0.4779807,-0.3919325,-0.01954658
450.6962,0.04473297,-0.3626023,-0.70432,-0.4779807,-0.3919325,-0.01954658
450.7101,0.04473479,-0.3621792,-0.6958507,-0.4789295,-0.3892283,-0.01956385
450.7256,0.04473659,-0.3617612,-0.6872985,-0.4798562,-0.3866065,-0.01958061
450.7402,0.04473834,-0.3613482,-0.6786951,-0.4807604,-0.3840607,-0.01959688
450.7549,0.04473834,-0.3613482,-0.6786951,-0.4807604,-0.3840607,-0.01959688
450.7711,0.04474007,-0.3609401,-0.6700632,-0.4816426,-0.3815858,-0.01961271
450.7854,0.04474176,-0.3605369,-0.6614189,-0.4825036,-0.3791776,-0.01962809
450.799,0.04474176,-0.3605369,-0.6614189,-0.4825036,-0.3791776,-0.01962809
450.8129,0.04474343,-0.3601385,-0.6527735,-0.483344,-0.3768331,-0.01964306
450.8282,0.04474507,-0.3597448,-0.6441352,-0.4841647,-0.3745495,-0.01965763
450.8427,0.04474667,-0.3593559,-0.63551,-0.4849663,-0.372325,-0.01967181
450.8575,0.04474667,-0.3593559,-0.63551,-0.4849663,-0.372325,-0.01967181
450.8715,0.04474825,-0.3589716,-0.6269022,-0.4857493,-0.3701578,-0.01968561
450.8869,0.04474979,-0.3585919,-0.6183152,-0.4865142,-0.3680465,-0.01969904
450.9016,0.04475131,-0.3582167,-0.6097514,-0.4872616,-0.36599,-0.01971211
