JMolnar6/NonAnthroHands_User_Study/HandsLoggerWithURDF/tempdata/files/ReachyParticipant0_JointMotion_gesture_1_2.csv
Time,r_shoulder,r_shoulder_x,r_upper_arm,r_forearm,r_wrist,r_wrist2hand,
398.1204,-0.1308313,-3.314251E-08,NaN,-0.3263191,-1.264302E-07,NaN,0.4619259,7.199584E-08,NaN,-0.4874656,6.820258E-07,-0.3834346,-2.85584E-08,NaN,NaN,-0.01997044,9.313202E-11,1.284024E-07,-1.076041E-07,5.140886E-09,-2.861022E-08
398.1359,-0.1308313,-3.314251E-08,NaN,-0.3263191,-1.264302E-07,NaN,0.4619259,7.199584E-08,NaN,-0.4874656,6.820258E-07,-0.3834346,-2.85584E-08,NaN,NaN,-0.01997044,9.313202E-11,1.284024E-07,-1.076041E-07,5.140886E-09,-2.861022E-08
398.1513,-0.1300848,-3.314911E-08,NaN,-0.3263226,-1.26469E-07,NaN,0.461512,7.193044E-08,NaN,-0.4878093,6.82822E-07,-0.3830754,-2.848979E-08,NaN,NaN,-0.01997076,9.778864E-11,1.279554E-07,-1.076344E-07,-2.011671E-09,-3.099441E-08
398.1651,-0.1288835,-3.315569E-08,NaN,-0.3263249,-1.265077E-07,NaN,0.4609464,7.186512E-08,NaN,-0.4882724,6.836276E-07,-0.3825943,-2.842126E-08,NaN,NaN,-0.01997118,9.313202E-11,1.272103E-07,-1.076646E-07,-6.780042E-09,-2.861022E-08
398.1795,-0.1288835,-3.315569E-08,NaN,-0.3263249,-1.265077E-07,NaN,0.4609464,7.186512E-08,NaN,-0.4882724,6.836276E-07,-0.3825943,-2.842126E-08,NaN,NaN,-0.01997118,9.313202E-11,1.272103E-07,-1.076646E-07,-6.780042E-09,-2.861022E-08
398.1935,-0.1274008,-3.316224E-08,NaN,-0.3263266,-1.265462E-07,NaN,0.460376,7.179988E-08,NaN,-0.4887399,6.844239E-07,-0.3821115,-2.835282E-08,NaN,NaN,-0.01997161,9.778864E-11,1.260182E-07,-1.076948E-07,-4.395857E-09,-3.099441E-08
398.2089,-0.1264756,-3.316876E-08,NaN,-0.3263305,-1.265847E-07,NaN,0.4603762,7.173401E-08,NaN,-0.4887637,6.852295E-07,-0.3820956,-2.828375E-08,NaN,NaN,-0.01997159,9.313202E-11,1.257202E-07,-1.077248E-07,3.725149E-10,-2.861022E-08
398.2236,-0.1259049,-3.317524E-08,NaN,-0.3263355,-1.26623E-07,NaN,0.4605772,7.166824E-08,NaN,-0.488628,6.860257E-07,-0.3822436,-2.821477E-08,NaN,NaN,-0.01997143,9.778864E-11,1.264653E-07,-1.077547E-07,-2.011671E-09,-3.099441E-08
398.2386,-0.1259049,-3.317524E-08,NaN,-0.3263355,-1.26623E-07,NaN,0.4605772,7.166824E-08,NaN,-0.488628,6.860257E-07,-0.3822436,-2.821477E-08,NaN,NaN,-0.01997143,9.778864E-11,1.264653E-07,-1.077547E-07,-2.011671E-09,-3.099441E-08
398.2526,-0.1255598,-3.31817E-08,NaN,-0.3263411,-1.266613E-07,NaN,0.4608279,7.160256E-08,NaN,-0.4884515,6.868313E-07,-0.3824315,-2.81459E-08,NaN,NaN,-0.01997124,9.313202E-11,1.284024E-07,-1.077846E-07,3.725149E-10,-2.861022E-08
398.2682,-0.125358,-3.318813E-08,NaN,-0.3263469,-1.266994E-07,NaN,0.4610723,7.153697E-08,NaN,-0.4882794,6.876276E-07,-0.3826135,-2.807711E-08,NaN,NaN,-0.01997106,9.778864E-11,1.300415E-07,-1.078143E-07,3.725149E-10,-3.099441E-08
398.2832,-0.1259739,-3.319454E-08,NaN,-0.3263551,-1.267373E-07,NaN,0.4618216,7.147076E-08,NaN,-0.4877167,6.884331E-07,-0.3832059,-2.800771E-08,NaN,NaN,-0.01997049,9.313202E-11,1.324257E-07,-1.07844E-07,2.756701E-09,-2.861022E-08
398.298,-0.1259739,-3.319454E-08,NaN,-0.3263551,-1.267373E-07,NaN,0.4618216,7.147076E-08,NaN,-0.4877167,6.884331E-07,-0.3832059,-2.800771E-08,NaN,NaN,-0.01997049,9.313202E-11,1.324257E-07,-1.07844E-07,2.756701E-09,-2.861022E-08
398.3119,-0.1271016,-3.320091E-08,NaN,-0.3263643,-1.267752E-07,NaN,0.4626985,7.140466E-08,NaN,-0.4870552,6.892294E-07,-0.3839001,-2.793842E-08,NaN,NaN,-0.01996984,9.778864E-11,1.333198E-07,-1.078735E-07,3.725149E-10,-3.099441E-08
398.3274,-0.1285467,-3.320725E-08,NaN,-0.3263736,-1.26813E-07,NaN,0.4635612,7.133794E-08,NaN,-0.4864067,6.90035E-07,-0.3845803,-2.786852E-08,NaN,NaN,-0.0199692,9.313202E-11,1.324257E-07,-1.07903E-07,5.140886E-09,-2.861022E-08
398.342,-0.1301856,-3.321357E-08,NaN,-0.3263828,-1.268506E-07,NaN,0.4643669,7.127063E-08,NaN,-0.4858058,6.908313E-07,-0.3852119,-2.779802E-08,NaN,NaN,-0.01996861,9.778864E-11,1.330218E-07,-1.079323E-07,5.140886E-09,-3.099441E-08
398.3571,-0.1301856,-3.321357E-08,NaN,-0.3263828,-1.268506E-07,NaN,0.4643669,7.127063E-08,NaN,-0.4858058,6.908313E-07,-0.3852119,-2.779802E-08,NaN,NaN,-0.01996861,9.778864E-11,1.330218E-07,-1.079323E-07,5.140886E-09,-3.099441E-08
398.3712,-0.1326676,-3.321986E-08,NaN,-0.3263939,-1.268881E-07,NaN,0.4656445,7.120344E-08,NaN,-0.4848476,6.916368E-07,-0.386227,-2.772765E-08,NaN,NaN,-0.01996765,9.313202E-11,1.371941E-07,-1.079616E-07,7.525072E-09,-2.861022E-08
398.3877,-0.1356698,-3.322612E-08,NaN,-0.3264054,-1.269255E-07,NaN,0.4670219,7.113638E-08,NaN,-0.4838165,6.924331E-07,-0.3873211,-2.76574E-08,NaN,NaN,-0.01996663,9.778864E-11,1.409194E-07,-1.079907E-07,1.706182E-08,-3.099441E-08
398.4015,-0.1389868,-3.323235E-08,NaN,-0.3264163,-1.269628E-07,NaN,0.4683629,7.106943E-08,NaN,-0.482819,6.932387E-07,-0.3883829,-2.758727E-08,NaN,NaN,-0.01996564,9.313202E-11,1.452407E-07,-1.080198E-07,1.706182E-08,-2.861022E-08
398.4163,-0.1389868,-3.323235E-08,NaN,-0.3264163,-1.269628E-07,NaN,0.4683629,7.106943E-08,NaN,-0.482819,6.932387E-07,-0.3883829,-2.758727E-08,NaN,NaN,-0.01996564,9.313202E-11,1.452407E-07,-1.080198E-07,1.706182E-08,-2.861022E-08
398.4303,-0.1432162,-3.323855E-08,NaN,-0.3264289,-1.27E-07,NaN,0.4701682,7.10026E-08,NaN,-0.4814775,6.94035E-07,-0.3898229,-2.751725E-08,NaN,NaN,-0.01996428,9.778864E-11,1.48966E-07,-1.080488E-07,1.467763E-08,-3.099441E-08
398.4458,-0.1480019,-3.324473E-08,NaN,-0.3264411,-1.27037E-07,NaN,0.4720528,7.093517E-08,NaN,-0.4800836,6.948405E-07,-0.3913251,-2.744664E-08,NaN,NaN,-0.01996288,9.313202E-11,1.523933E-07,-1.080776E-07,1.467763E-08,-2.861022E-08
398.4604,-0.1531176,-3.325087E-08,NaN,-0.326452,-1.27074E-07,NaN,0.4738794,7.086786E-08,NaN,-0.4787439,6.956368E-07,-0.3927774,-2.737616E-08,NaN,NaN,-0.01996152,9.778864E-11,1.537344E-07,-1.081064E-07,1.229344E-08,-3.099441E-08
398.4752,-0.1531176,-3.325087E-08,NaN,-0.326452,-1.27074E-07,NaN,0.4738794,7.086786E-08,NaN,-0.4787439,6.956368E-07,-0.3927774,-2.737616E-08,NaN,NaN,-0.01996152,9.778864E-11,1.537344E-07,-1.081064E-07,1.229344E-08,-3.099441E-08
398.491,-0.1584195,-3.325699E-08,NaN,-0.3264615,-1.271108E-07,NaN,0.4756117,7.080068E-08,NaN,-0.4774868,6.964424E-07,-0.3941511,-2.73058E-08,NaN,NaN,-0.01996023,9.778864E-11,1.546284E-07,-1.081351E-07,1.229344E-08,-2.861022E-08
398.505,-0.1645445,-3.326308E-08,NaN,-0.326472,-1.271475E-07,NaN,0.4778006,7.073361E-08,NaN,-0.4759041,6.972433E-07,-0.3958997,-2.723556E-08,NaN,NaN,-0.01995857,1.071019E-10,1.576087E-07,-1.081637E-07,9.909259E-09,-3.099441E-08
398.5198,-0.1645445,-3.326308E-08,NaN,-0.326472,-1.271475E-07,NaN,0.4778006,7.073361E-08,NaN,-0.4759041,6.972433E-07,-0.3958997,-2.723556E-08,NaN,NaN,-0.01995857,1.071019E-10,1.576087E-07,-1.081637E-07,9.909259E-09,-3.099441E-08
398.5341,-0.1711618,-3.326915E-08,NaN,-0.3264815,-1.271841E-07,NaN,0.4800681,7.066595E-08,NaN,-0.4742746,6.980582E-07,-0.3977115,-2.716473E-08,NaN,NaN,-0.01995686,1.071019E-10,1.595458E-07,-1.081922E-07,1.229344E-08,-2.861022E-08
398.5499,-0.1780611,-3.327518E-08,NaN,-0.3264893,-1.272206E-07,NaN,0.4822783,7.059842E-08,NaN,-0.4727013,6.988638E-07,-0.3994754,-2.709403E-08,NaN,NaN,-0.01995519,1.164151E-10,1.592478E-07,-1.082206E-07,7.525073E-09,-3.099441E-08
398.5649,-0.1851088,-3.328119E-08,NaN,-0.3264952,-1.272569E-07,NaN,0.484394,7.053102E-08,NaN,-0.4712124,6.996787E-07,-0.4011616,-2.702346E-08,NaN,NaN,-0.01995358,1.164151E-10,1.598438E-07,-1.082489E-07,5.140887E-09,-2.861022E-08
398.58,-0.1851088,-3.328119E-08,NaN,-0.3264952,-1.272569E-07,NaN,0.484394,7.053102E-08,NaN,-0.4712124,6.996787E-07,-0.4011616,-2.702346E-08,NaN,NaN,-0.01995358,1.164151E-10,1.598438E-07,-1.082489E-07,5.140887E-09,-2.861022E-08
398.5936,-0.1929486,-3.328717E-08,NaN,-0.3265019,-1.272932E-07,NaN,0.4869776,7.046374E-08,NaN,-0.4694024,7.004843E-07,-0.4032352,-2.695301E-08,NaN,NaN,-0.01995158,1.257283E-10,1.638672E-07,-1.082771E-07,9.909259E-09,-3.099441E-08
398.6101,-0.2012539,-3.329312E-08,NaN,-0.3265073,-1.273293E-07,NaN,0.4896407,7.039658E-08,NaN,-0.4675501,7.012992E-07,-0.4053743,-2.688268E-08,NaN,NaN,-0.01994953,1.257283E-10,1.680395E-07,-1.083053E-07,2.756702E-09,-2.861022E-08
398.6242,-0.2098172,-3.329905E-08,NaN,-0.3265105,-1.273654E-07,NaN,0.4922433,7.032953E-08,NaN,-0.4657586,7.021048E-07,-0.4074637,-2.681247E-08,NaN,NaN,-0.01994752,1.350415E-10,1.702746E-07,-1.083333E-07,5.140888E-09,-3.099441E-08
398.6391,-0.2098172,-3.329905E-08,NaN,-0.3265105,-1.273654E-07,NaN,0.4922433,7.032953E-08,NaN,-0.4657586,7.021048E-07,-0.4074637,-2.681247E-08,NaN,NaN,-0.01994752,1.350415E-10,1.702746E-07,-1.083333E-07,5.140888E-09,-3.099441E-08
398.653,-0.2192351,-3.330495E-08,NaN,-0.3265139,-1.274013E-07,NaN,0.495321,7.02619E-08,NaN,-0.4636536,7.02915E-07,-0.4099484,-2.674167E-08,NaN,NaN,-0.01994511,1.396982E-10,1.74149E-07,-1.083613E-07,5.140888E-09,-2.861022E-08
398.6682,-0.2291512,-3.331082E-08,NaN,-0.3265158,-1.274371E-07,NaN,0.4984666,7.019438E-08,NaN,-0.4615222,7.037253E-07,-0.4124897,-2.6671E-08,NaN,NaN,-0.01994264,1.443548E-10,1.804074E-07,-1.083891E-07,2.756702E-09,-3.099441E-08
398.6832,-0.2393391,-3.331667E-08,NaN,-0.3265164,-1.274728E-07,NaN,0.5015374,7.012699E-08,NaN,-0.4594693,7.045355E-07,-0.4149703,-2.660045E-08,NaN,NaN,-0.01994022,1.443548E-10,1.854738E-07,-1.084169E-07,-2.011669E-09,-2.861022E-08
398.698,-0.2393391,-3.331667E-08,NaN,-0.3265164,-1.274728E-07,NaN,0.5015374,7.012699E-08,NaN,-0.4594693,7.045355E-07,-0.4149703,-2.660045E-08,NaN,NaN,-0.01994022,1.443548E-10,1.854738E-07,-1.084169E-07,-2.011669E-09,-2.861022E-08
398.7119,-0.2496554,-3.332249E-08,NaN,-0.3265162,-1.275084E-07,NaN,0.5044953,7.005973E-08,NaN,-0.4575224,7.053364E-07,-0.4173599,-2.653002E-08,NaN,NaN,-0.01993787,1.53668E-10,1.894971E-07,-1.084446E-07,3.725162E-10,-3.099441E-08
398.7273,-0.2607374,-3.332828E-08,NaN,-0.3265167,-1.275439E-07,NaN,0.5079322,6.999257E-08,NaN,-0.4552779,7.061467E-07,-0.4201526,-2.645972E-08,NaN,NaN,-0.01993509,1.53668E-10,1.941165E-07,-1.084721E-07,-2.011669E-09,-2.861022E-08
398.7421,-0.2722546,-3.333404E-08,NaN,-0.3265163,-1.275792E-07,NaN,0.5114424,6.992553E-08,NaN,-0.4530102,7.069476E-07,-0.4230086,-2.638952E-08,NaN,NaN,-0.01993224,1.629812E-10,2.00524E-07,-1.084996E-07,-2.011669E-09,-3.099441E-08
398.7569,-0.2722546,-3.333404E-08,NaN,-0.3265163,-1.275792E-07,NaN,0.5114424,6.992553E-08,NaN,-0.4530102,7.069476E-07,-0.4230086,-2.638952E-08,NaN,NaN,-0.01993224,1.629812E-10,2.00524E-07,-1.084996E-07,-2.011669E-09,-3.099441E-08
398.771,-0.2839974,-3.333978E-08,NaN,-0.3265149,-1.276145E-07,NaN,0.5148818,6.985861E-08,NaN,-0.4508208,7.077579E-07,-0.4258084,-2.631944E-08,NaN,NaN,-0.01992944,1.629812E-10,2.066335E-07,-1.08527E-07,-4.395855E-09,-2.861022E-08
398.7864,-0.2958328,-3.334549E-08,NaN,-0.3265128,-1.276496E-07,NaN,0.5182107,6.979108E-08,NaN,-0.4487371,7.085588E-07,-0.4285202,-2.624877E-08,NaN,NaN,-0.0199267,1.722945E-10,2.112529E-07,-1.085543E-07,-4.395855E-09,-3.099441E-08
398.8012,-0.3084052,-3.335118E-08,NaN,-0.3265116,-1.276847E-07,NaN,0.5220397,6.972368E-08,NaN,-0.4463597,7.09369E-07,-0.431657,-2.617822E-08,NaN,NaN,-0.01992349,1.722945E-10,2.169153E-07,-1.085816E-07,-6.780041E-09,-2.861022E-08
398.8162,-0.3084052,-3.335118E-08,NaN,-0.3265116,-1.276847E-07,NaN,0.5220397,6.972368E-08,NaN,-0.4463597,7.09369E-07,-0.431657,-2.617822E-08,NaN,NaN,-0.01992349,1.722945E-10,2.169153E-07,-1.085816E-07,-6.780041E-09,-2.861022E-08
398.8301,-0.3213885,-3.335684E-08,NaN,-0.3265093,-1.277196E-07,NaN,0.5259475,6.96564E-08,NaN,-0.443962,7.1017E-07,-0.4348631,-2.610779E-08,NaN,NaN,-0.01992022,1.816077E-10,2.234718E-07,-1.086087E-07,-4.395855E-09,-3.099441E-08
398.8477,-0.3345759,-3.336248E-08,NaN,-0.326506,-1.277544E-07,NaN,0.5297841,6.958923E-08,NaN,-0.441646,7.109802E-07,-0.4380135,-2.603748E-08,NaN,NaN,-0.019917,1.816077E-10,2.280912E-07,-1.086357E-07,-6.780041E-09,-2.861022E-08
398.8611,-0.3478363,-3.336809E-08,NaN,-0.3265011,-1.277891E-07,NaN,0.5335066,6.952218E-08,NaN,-0.4394393,7.117811E-07,-0.4410731,-2.596728E-08,NaN,NaN,-0.01991384,1.909209E-10,2.288362E-07,-1.086627E-07,-6.780041E-09,-3.099441E-08
398.8783,-0.3478363,-3.336809E-08,NaN,-0.3265011,-1.277891E-07,NaN,0.5335066,6.952218E-08,NaN,-0.4394393,7.117811E-07,-0.4410731,-2.596728E-08,NaN,NaN,-0.01991384,1.909209E-10,2.288362E-07,-1.086627E-07,-6.780041E-09,-3.099441E-08
398.889,-0.3618155,-3.337367E-08,NaN,-0.3264974,-1.278238E-07,NaN,0.53775,6.945523E-08,NaN,-0.4369468,7.125914E-07,-0.4445797,-2.589719E-08,NaN,NaN,-0.01991017,1.909209E-10,2.364358E-07,-1.086896E-07,-4.395855E-09,-2.861022E-08
398.9045,-0.376188,-3.337922E-08,NaN,-0.3264921,-1.278583E-07,NaN,0.5420747,6.93884E-08,NaN,-0.4344395,7.134063E-07,-0.4481588,-2.582722E-08,NaN,NaN,-0.01990643,1.862643E-10,2.38969E-07,-1.087163E-07,-4.395855E-09,-3.099441E-08
398.9191,-0.376188,-3.337922E-08,NaN,-0.3264921,-1.278583E-07,NaN,0.5420747,6.93884E-08,NaN,-0.4344395,7.134063E-07,-0.4481588,-2.582722E-08,NaN,NaN,-0.01990643,1.862643E-10,2.38969E-07,-1.087163E-07,-4.395855E-09,-3.099441E-08
398.9332,-0.3907479,-3.338475E-08,NaN,-0.3264845,-1.278926E-07,NaN,0.5463247,6.932167E-08,NaN,-0.4320186,7.142165E-07,-0.4516794,-2.575736E-08,NaN,NaN,-0.01990274,1.862643E-10,2.422473E-07,-1.08743E-07,-4.395855E-09,-2.861022E-08
398.9486,-0.4060927,-3.339026E-08,NaN,-0.3264772,-1.279269E-07,NaN,0.5511131,6.925505E-08,NaN,-0.42932,7.150314E-07,-0.4556638,-2.56876E-08,NaN,NaN,-0.01989852,1.816077E-10,2.450785E-07,-1.087696E-07,-4.395855E-09,-3.099441E-08
398.9646,-0.4218669,-3.339574E-08,NaN,-0.3264675,-1.279611E-07,NaN,0.5559746,6.918853E-08,NaN,-0.4266222,7.158417E-07,-0.4597142,-2.561794E-08,NaN,NaN,-0.01989423,1.816077E-10,2.507409E-07,-1.087962E-07,-6.780041E-09,-2.861022E-08
398.9782,-0.4218669,-3.339574E-08,NaN,-0.3264675,-1.279611E-07,NaN,0.5559746,6.918853E-08,NaN,-0.4266222,7.158417E-07,-0.4597142,-2.561794E-08,NaN,NaN,-0.01989423,1.816077E-10,2.507409E-07,-1.087962E-07,-6.780041E-09,-2.861022E-08
398.9922,-0.4378451,-3.34012E-08,NaN,-0.3264548,-1.279952E-07,NaN,0.5607474,6.912211E-08,NaN,-0.4240271,7.166566E-07,-0.4636942,-2.554839E-08,NaN,NaN,-0.01989001,1.769511E-10,2.575954E-07,-1.088226E-07,-2.011669E-09,-3.099441E-08
399.0078,-0.4538845,-3.340663E-08,NaN,-0.3264395,-1.280297E-07,NaN,0.5653891,6.903048E-08,NaN,-0.4215611,7.174762E-07,-0.4675695,-2.541791E-08,NaN,NaN,-0.01988586,1.676379E-10,2.64599E-07,-1.088497E-07,-4.395855E-09,-2.861022E-08
399.0228,-0.4706234,-3.341203E-08,NaN,-0.3264248,-1.280645E-07,NaN,0.570586,6.893885E-08,NaN,-0.4188341,7.182864E-07,-0.4719291,-2.52616E-08,NaN,NaN,-0.01988112,1.676379E-10,2.684733E-07,-1.08877E-07,-9.164227E-09,-3.099441E-08
399.0377,-0.4706234,-3.341203E-08,NaN,-0.3264248,-1.280645E-07,NaN,0.570586,6.893885E-08,NaN,-0.4188341,7.182864E-07,-0.4719291,-2.52616E-08,NaN,NaN,-0.01988112,1.676379E-10,2.684733E-07,-1.08877E-07,-9.164227E-09,-3.099441E-08
399.0518,-0.4877321,-3.341741E-08,NaN,-0.3264078,-1.280995E-07,NaN,0.5758662,6.884721E-08,NaN,-0.4161104,7.191013E-07,-0.4763659,-2.508671E-08,NaN,NaN,-0.01987629,1.629813E-10,2.745828E-07,-1.089043E-07,-9.164227E-09,-2.861022E-08
399.0671,-0.5050017,-3.342276E-08,NaN,-0.3263882,-1.281345E-07,NaN,0.5810646,6.875558E-08,NaN,-0.4134878,7.199022E-07,-0.4807394,-2.489857E-08,NaN,NaN,-0.01987153,1.722945E-10,2.800962E-07,-1.089317E-07,-9.164227E-09,-3.099441E-08
399.082,-0.5223,-3.342809E-08,NaN,-0.3263662,-1.281694E-07,NaN,0.5861359,6.866395E-08,NaN,-0.410993,7.207171E-07,-0.4850126,-2.470109E-08,NaN,NaN,-0.01986683,1.722945E-10,2.857586E-07,-1.08959E-07,-9.164227E-09,-2.861022E-08
399.098,-0.5223,-3.342809E-08,NaN,-0.3263662,-1.281694E-07,NaN,0.5861359,6.866395E-08,NaN,-0.410993,7.207171E-07,-0.4850126,-2.470109E-08,NaN,NaN,-0.01986683,1.722945E-10,2.857586E-07,-1.08959E-07,-9.164227E-09,-2.861022E-08
399.1119,-0.5402721,-3.343339E-08,NaN,-0.3263451,-1.282043E-07,NaN,0.591797,6.857232E-08,NaN,-0.4082416,7.215227E-07,-0.4898051,-2.449713E-08,NaN,NaN,-0.01986147,1.816077E-10,2.911231E-07,-1.089863E-07,-6.780041E-09,-3.099441E-08
399.1262,-0.5585927,-3.343867E-08,NaN,-0.3263218,-1.282391E-07,NaN,0.5975515,6.848069E-08,NaN,-0.4054958,7.22333E-07,-0.4946852,-2.428879E-08,NaN,NaN,-0.01985603,1.862643E-10,2.924642E-07,-1.090135E-07,-6.780041E-09,-2.861022E-08
399.1408,-0.5770556,-3.344393E-08,NaN,-0.326296,-1.282739E-07,NaN,0.6032254,6.838906E-08,NaN,-0.4028534,7.231386E-07,-0.4995035,-2.407763E-08,NaN,NaN,-0.01985065,1.955776E-10,2.997657E-07,-1.090406E-07,-9.164227E-09,-3.099441E-08
399.1556,-0.5770556,-3.344393E-08,NaN,-0.326296,-1.282739E-07,NaN,0.6032254,6.838906E-08,NaN,-0.4028534,7.231386E-07,-0.4995035,-2.407763E-08,NaN,NaN,-0.01985065,1.955776E-10,2.997657E-07,-1.090406E-07,-9.164227E-09,-3.099441E-08
399.1696,-0.5962588,-3.344916E-08,NaN,-0.3262704,-1.283085E-07,NaN,0.6095161,6.829742E-08,NaN,-0.3999627,7.239581E-07,-0.5048669,-2.386476E-08,NaN,NaN,-0.01984457,1.909209E-10,3.061732E-07,-1.090677E-07,-9.164227E-09,-2.861022E-08
399.1852,-0.615847,-3.345437E-08,NaN,-0.3262419,-1.28343E-07,NaN,0.6158951,6.820579E-08,NaN,-0.3970923,7.247637E-07,-0.5103135,-2.365102E-08,NaN,NaN,-0.01983841,2.002342E-10,3.195843E-07,-1.090947E-07,-1.154841E-08,-3.099441E-08
399.1999,-0.615847,-3.345437E-08,NaN,-0.3262419,-1.28343E-07,NaN,0.6158951,6.820579E-08,NaN,-0.3970923,7.247637E-07,-0.5103135,-2.365102E-08,NaN,NaN,-0.01983841,2.002342E-10,3.195843E-07,-1.090947E-07,-1.154841E-08,-3.099441E-08
399.2141,-0.6355952,-3.345955E-08,NaN,-0.3262102,-1.283774E-07,NaN,0.6221804,6.811416E-08,NaN,-0.3943408,7.255879E-07,-0.5156868,-2.343701E-08,NaN,NaN,-0.01983234,1.909209E-10,3.194353E-07,-1.091216E-07,-1.631678E-08,-2.861022E-08
399.2296,-0.6553612,-3.346471E-08,NaN,-0.3261758,-1.284117E-07,NaN,0.628324,6.802253E-08,NaN,-0.3917337,7.264075E-07,-0.5209476,-2.322317E-08,NaN,NaN,-0.01982633,1.862643E-10,3.225645E-07,-1.091485E-07,-1.631678E-08,-3.099441E-08
399.2444,-0.6757838,-3.346984E-08,NaN,-0.3261422,-1.284459E-07,NaN,0.635111,6.79309E-08,NaN,-0.3888957,7.272317E-07,-0.5267841,-2.300983E-08,NaN,NaN,-0.01981954,1.769511E-10,3.258427E-07,-1.091752E-07,-1.870097E-08,-2.861022E-08
399.259,-0.6757838,-3.346984E-08,NaN,-0.3261422,-1.284459E-07,NaN,0.635111,6.79309E-08,NaN,-0.3888957,7.272317E-07,-0.5267841,-2.300983E-08,NaN,NaN,-0.01981954,1.769511E-10,3.258427E-07,-1.091752E-07,-1.870097E-08,-2.861022E-08
399.2735,-0.6965336,-3.347495E-08,NaN,-0.3261062,-1.2848E-07,NaN,0.6419997,6.783927E-08,NaN,-0.3860802,7.280513E-07,-0.5327181,-2.279721E-08,NaN,NaN,-0.01981265,1.722945E-10,3.332933E-07,-1.092019E-07,-1.39326E-08,-3.099441E-08
399.2887,-0.7174022,-3.348003E-08,NaN,-0.3260674,-1.28514E-07,NaN,0.6488022,6.774764E-08,NaN,-0.3833816,7.288709E-07,-0.5385867,-2.25855E-08,NaN,NaN,-0.01980584,1.676379E-10,3.383597E-07,-1.092285E-07,-1.154841E-08,-2.861022E-08
399.3036,-0.7382579,-3.34851E-08,NaN,-0.3260264,-1.285479E-07,NaN,0.6554669,6.7656E-08,NaN,-0.3808252,7.296904E-07,-0.5443471,-2.23748E-08,NaN,NaN,-0.01979911,1.629813E-10,3.441712E-07,-1.09255E-07,-9.164225E-09,-3.099441E-08
399.3182,-0.7382579,-3.34851E-08,NaN,-0.3260264,-1.285479E-07,NaN,0.6554669,6.7656E-08,NaN,-0.3808252,7.296904E-07,-0.5443471,-2.23748E-08,NaN,NaN,-0.01979911,1.629813E-10,3.441712E-07,-1.09255E-07,-9.164225E-09,-3.099441E-08
399.3345,-0.7592393,-3.349014E-08,NaN,-0.3259848,-1.285817E-07,NaN,0.6622426,6.756437E-08,NaN,-0.3782986,7.3051E-07,-0.55022,-2.216522E-08,NaN,NaN,-0.01979215,1.583247E-10,3.450652E-07,-1.092814E-07,-9.164225E-09,-2.861022E-08
399.3489,-0.7802117,-3.349515E-08,NaN,-0.3259422,-1.286153E-07,NaN,0.6689619,6.747274E-08,NaN,-0.3758699,7.313203E-07,-0.5560575,-2.19568E-08,NaN,NaN,-0.01978518,1.629813E-10,3.55794E-07,-1.093077E-07,-1.035632E-08,-3.099441E-08
399.3623,-0.8010907,-3.350014E-08,NaN,-0.325899,-1.286489E-07,NaN,0.6755726,6.738111E-08,NaN,-0.3735597,7.321398E-07,-0.5618142,-2.17496E-08,NaN,NaN,-0.01977827,1.583247E-10,3.568371E-07,-1.09334E-07,-1.154841E-08,-2.861022E-08
399.3771,-0.8010907,-3.350014E-08,NaN,-0.325899,-1.286489E-07,NaN,0.6755726,6.738111E-08,NaN,-0.3735597,7.321398E-07,-0.5618142,-2.17496E-08,NaN,NaN,-0.01977827,1.583247E-10,3.568371E-07,-1.09334E-07,-1.154841E-08,-2.861022E-08
399.391,-0.8218235,-3.350511E-08,NaN,-0.3258558,-1.286823E-07,NaN,0.6820647,6.728948E-08,NaN,-0.3713684,7.329501E-07,-0.5674823,-2.154365E-08,NaN,NaN,-0.01977142,1.629813E-10,3.575822E-07,-1.093601E-07,-1.035632E-08,-3.099441E-08
399.4063,-0.8423776,-3.351005E-08,NaN,-0.325813,-1.287157E-07,NaN,0.6884415,6.719785E-08,NaN,-0.3692898,7.337696E-07,-0.5730651,-2.133895E-08,NaN,NaN,-0.01976462,1.583247E-10,3.619035E-07,-1.093861E-07,-1.154841E-08,-2.861022E-08
399.4222,-0.8627334,-3.351497E-08,NaN,-0.3257711,-1.287489E-07,NaN,0.6947089,6.710621E-08,NaN,-0.3673163,7.345799E-07,-0.578568,-2.113553E-08,NaN,NaN,-0.01975787,1.629813E-10,3.703972E-07,-1.094121E-07,-1.035632E-08,-3.099441E-08
399.4359,-0.8627334,-3.351497E-08,NaN,-0.3257711,-1.287489E-07,NaN,0.6947089,6.710621E-08,NaN,-0.3673163,7.345799E-07,-0.578568,-2.113553E-08,NaN,NaN,-0.01975787,1.629813E-10,3.703972E-07,-1.094121E-07,-1.035632E-08,-3.099441E-08
399.4499,-0.8828793,-3.351986E-08,NaN,-0.3257304,-1.28782E-07,NaN,0.7008724,6.701458E-08,NaN,-0.3654409,7.354041E-07,-0.5839956,-2.09334E-08,NaN,NaN,-0.01975118,1.536681E-10,3.729304E-07,-1.09438E-07,-1.39326E-08,-2.861022E-08
399.4656,-0.902809,-3.352474E-08,NaN,-0.3256911,-1.288151E-07,NaN,0.7069353,6.692295E-08,NaN,-0.3636575,7.362144E-07,-0.5893506,-2.073254E-08,NaN,NaN,-0.01974456,1.583247E-10,3.756126E-07,-1.094638E-07,-1.154841E-08,-3.099441E-08
399.4804,-0.9225194,-3.352959E-08,NaN,-0.3256534,-1.28848E-07,NaN,0.7128997,6.683132E-08,NaN,-0.3619613,7.370339E-07,-0.5946343,-2.053297E-08,NaN,NaN,-0.019738,1.536681E-10,3.799339E-07,-1.094895E-07,-4.395853E-09,-2.861022E-08
399.4951,-0.9225194,-3.352959E-08,NaN,-0.3256534,-1.28848E-07,NaN,0.7128997,6.683132E-08,NaN,-0.3619613,7.370339E-07,-0.5946343,-2.053297E-08,NaN,NaN,-0.019738,1.536681E-10,3.799339E-07,-1.094895E-07,-4.395853E-09,-2.861022E-08
399.5092,-0.9420096,-3.353442E-08,NaN,-0.3256173,-1.288808E-07,NaN,0.7187663,6.673969E-08,NaN,-0.3603483,7.378535E-07,-0.5998469,-2.033468E-08,NaN,NaN,-0.01973152,1.490114E-10,3.844043E-07,-1.095151E-07,-5.587946E-09,-3.099441E-08
399.5246,-0.9612797,-3.353922E-08,NaN,-0.3255829,-1.289135E-07,NaN,0.724535,6.664806E-08,NaN,-0.3588153,7.386777E-07,-0.6049878,-2.013766E-08,NaN,NaN,-0.01972513,1.396982E-10,3.908118E-07,-1.095406E-07,-4.395853E-09,-2.861022E-08
399.5395,-0.9612797,-3.353922E-08,NaN,-0.3255829,-1.289135E-07,NaN,0.724535,6.664806E-08,NaN,-0.3588153,7.386777E-07,-0.6049878,-2.013766E-08,NaN,NaN,-0.01972513,1.396982E-10,3.908118E-07,-1.095406E-07,-4.395853E-09,-2.861022E-08
399.5535,-0.980331,-3.3544E-08,NaN,-0.3255502,-1.289461E-07,NaN,0.7302054,6.655642E-08,NaN,-0.3573593,7.39488E-07,-0.6100559,-1.994192E-08,NaN,NaN,-0.01971884,1.443548E-10,3.987094E-07,-1.095661E-07,-2.011668E-09,-3.099441E-08
399.5691,-0.999165,-3.354876E-08,NaN,-0.3255191,-1.289786E-07,NaN,0.7357762,6.646479E-08,NaN,-0.3559778,7.403122E-07,-0.6150497,-1.974744E-08,NaN,NaN,-0.01971265,1.350416E-10,4.022857E-07,-1.095914E-07,3.72518E-10,-2.861022E-08
399.5848,-1.017784,-3.355349E-08,NaN,-0.3254898,-1.29011E-07,NaN,0.7412465,6.637316E-08,NaN,-0.3546686,7.411224E-07,-0.6199675,-1.955422E-08,NaN,NaN,-0.01970656,1.396982E-10,4.028817E-07,-1.096167E-07,-8.195749E-10,-3.099441E-08
399.5986,-1.017784,-3.355349E-08,NaN,-0.3254898,-1.29011E-07,NaN,0.7412465,6.637316E-08,NaN,-0.3546686,7.411224E-07,-0.6199675,-1.955422E-08,NaN,NaN,-0.01970656,1.396982E-10,4.028817E-07,-1.096167E-07,-8.195749E-10,-3.099441E-08
399.6128,-1.036189,-3.355821E-08,NaN,-0.325462,-1.290433E-07,NaN,0.7466149,6.628153E-08,NaN,-0.3534296,7.419467E-07,-0.6248078,-1.936225E-08,NaN,NaN,-0.01970059,1.30385E-10,4.003485E-07,-1.096419E-07,-3.203761E-09,-2.861022E-08
399.6279,-1.054383,-3.356289E-08,NaN,-0.3254358,-1.290755E-07,NaN,0.7518802,6.61899E-08,NaN,-0.3522587,7.427569E-07,-0.6295687,-1.917153E-08,NaN,NaN,-0.01969475,1.350416E-10,4.021367E-07,-1.09667E-07,-4.395853E-09,-3.099441E-08
399.6427,-1.072369,-3.356756E-08,NaN,-0.3254112,-1.291076E-07,NaN,0.7570407,6.609827E-08,NaN,-0.3511541,7.435812E-07,-0.6342484,-1.898205E-08,NaN,NaN,-0.01968902,1.257283E-10,4.034778E-07,-1.09692E-07,3.72518E-10,-2.861022E-08
399.6575,-1.072369,-3.356756E-08,NaN,-0.3254112,-1.291076E-07,NaN,0.7570407,6.609827E-08,NaN,-0.3511541,7.435812E-07,-0.6342484,-1.898205E-08,NaN,NaN,-0.01968902,1.257283E-10,4.034778E-07,-1.09692E-07,3.72518E-10,-2.861022E-08
399.6714,-1.090148,-3.357221E-08,NaN,-0.3253881,-1.291396E-07,NaN,0.7620955,6.600663E-08,NaN,-0.3501138,7.443914E-07,-0.6388453,-1.879379E-08,NaN,NaN,-0.01968342,1.30385E-10,4.037758E-07,-1.09717E-07,2.756704E-09,-3.099441E-08
399.687,-1.107723,-3.357683E-08,NaN,-0.3253665,-1.291715E-07,NaN,0.7670429,6.5915E-08,NaN,-0.3491362,7.452063E-07,-0.6433577,-1.860676E-08,NaN,NaN,-0.01967796,1.30385E-10,4.080972E-07,-1.097418E-07,1.564611E-09,-2.861022E-08
399.7016,-1.125096,-3.358143E-08,NaN,-0.3253463,-1.292033E-07,NaN,0.7718819,6.582337E-08,NaN,-0.3482193,7.460212E-07,-0.6477839,-1.842094E-08,NaN,NaN,-0.01967263,1.30385E-10,4.030308E-07,-1.097666E-07,5.140889E-09,-3.099441E-08
399.7167,-1.125096,-3.358143E-08,NaN,-0.3253463,-1.292033E-07,NaN,0.7718819,6.582337E-08,NaN,-0.3482193,7.460212E-07,-0.6477839,-1.842094E-08,NaN,NaN,-0.01967263,1.30385E-10,4.030308E-07,-1.097666E-07,5.140889E-09,-3.099441E-08
399.7307,-1.142269,-3.358601E-08,NaN,-0.3253274,-1.29235E-07,NaN,0.7766113,6.573174E-08,NaN,-0.3473616,7.468361E-07,-0.6521224,-1.823633E-08,NaN,NaN,-0.01966744,1.30385E-10,4.039248E-07,-1.097913E-07,5.140889E-09,-2.861022E-08
399.7463,-1.159246,-3.359057E-08,NaN,-0.3253099,-1.292666E-07,NaN,0.7812301,6.564011E-08,NaN,-0.3465613,7.47651E-07,-0.6563719,-1.805292E-08,NaN,NaN,-0.01966239,1.30385E-10,4.022857E-07,-1.098159E-07,3.72518E-10,-3.099441E-08
399.761,-1.176027,-3.35951E-08,NaN,-0.3252937,-1.292981E-07,NaN,0.7857372,6.554848E-08,NaN,-0.3458167,7.484659E-07,-0.6605309,-1.78707E-08,NaN,NaN,-0.01965749,1.30385E-10,4.025837E-07,-1.098404E-07,-1.415621E-09,-2.861022E-08
399.776,-1.176027,-3.35951E-08,NaN,-0.3252937,-1.292981E-07,NaN,0.7857372,6.554848E-08,NaN,-0.3458167,7.484659E-07,-0.6605309,-1.78707E-08,NaN,NaN,-0.01965749,1.30385E-10,4.025837E-07,-1.098404E-07,-1.415621E-09,-2.861022E-08
399.7899,-1.192615,-3.359961E-08,NaN,-0.3252787,-1.293295E-07,NaN,0.7901318,6.545685E-08,NaN,-0.3451263,7.492808E-07,-0.6645982,-1.768966E-08,NaN,NaN,-0.01965273,1.30385E-10,4.033288E-07,-1.098648E-07,-2.607714E-09,-3.099441E-08
399.8054,-1.209013,-3.36041E-08,NaN,-0.325265,-1.293607E-07,NaN,0.794413,6.536521E-08,NaN,-0.3444885,7.500958E-07,-0.6685725,-1.75098E-08,NaN,NaN,-0.01964812,1.30385E-10,4.046699E-07,-1.098892E-07,-4.395853E-09,-2.861022E-08
399.8223,-1.225222,-3.360857E-08,NaN,-0.3252524,-1.293919E-07,NaN,0.7985802,6.527358E-08,NaN,-0.3439017,7.509107E-07,-0.672453,-1.733111E-08,NaN,NaN,-0.01964367,1.30385E-10,4.031798E-07,-1.099134E-07,-5.587946E-09,-3.099441E-08
399.8361,-1.225222,-3.360857E-08,NaN,-0.3252524,-1.293919E-07,NaN,0.7985802,6.527358E-08,NaN,-0.3439017,7.509107E-07,-0.672453,-1.733111E-08,NaN,NaN,-0.01964367,1.30385E-10,4.031798E-07,-1.099134E-07,-5.587946E-09,-3.099441E-08
399.8493,-1.241245,-3.361302E-08,NaN,-0.325241,-1.29423E-07,NaN,0.8026326,6.518195E-08,NaN,-0.3433644,7.517256E-07,-0.6762385,-1.715358E-08,NaN,NaN,-0.01963937,1.30385E-10,4.025837E-07,-1.099376E-07,-5.587946E-09,-2.861022E-08
399.8647,-1.257084,-3.361745E-08,NaN,-0.3252307,-1.29454E-07,NaN,0.8065699,6.509032E-08,NaN,-0.342875,7.525405E-07,-0.6799282,-1.697721E-08,NaN,NaN,-0.01963522,1.30385E-10,4.034778E-07,-1.099617E-07,-7.376086E-09,-3.099441E-08
399.8792,-1.257084,-3.361745E-08,NaN,-0.3252307,-1.29454E-07,NaN,0.8065699,6.509032E-08,NaN,-0.342875,7.525405E-07,-0.6799282,-1.697721E-08,NaN,NaN,-0.01963522,1.30385E-10,4.034778E-07,-1.099617E-07,-7.376086E-09,-3.099441E-08
399.8947,-1.272741,-3.362185E-08,NaN,-0.3252215,-1.294849E-07,NaN,0.8103915,6.499869E-08,NaN,-0.3424322,7.533554E-07,-0.6835212,-1.680197E-08,NaN,NaN,-0.01963122,1.30385E-10,4.042228E-07,-1.099858E-07,-7.674108E-09,-2.861022E-08
399.9091,-1.287997,-3.362624E-08,NaN,-0.3252126,-1.295157E-07,NaN,0.8137783,6.490706E-08,NaN,-0.3421313,7.541703E-07,-0.686727,-1.662788E-08,NaN,NaN,-0.01962779,1.30385E-10,4.006465E-07,-1.100097E-07,-7.674108E-09,-3.099441E-08
399.9235,-1.302937,-3.36306E-08,NaN,-0.3252049,-1.295464E-07,NaN,0.81696,6.481542E-08,NaN,-0.3419026,7.549852E-07,-0.6897563,-1.645492E-08,NaN,NaN,-0.01962455,1.30385E-10,3.961762E-07,-1.100336E-07,-7.376085E-09,-2.861022E-08
399.9384,-1.302937,-3.36306E-08,NaN,-0.3252049,-1.295464E-07,NaN,0.81696,6.481542E-08,NaN,-0.3419026,7.549852E-07,-0.6897563,-1.645492E-08,NaN,NaN,-0.01962455,1.30385E-10,3.961762E-07,-1.100336E-07,-7.376085E-09,-2.861022E-08
399.9526,-1.317616,-3.363494E-08,NaN,-0.3251989,-1.29577E-07,NaN,0.8200195,6.472379E-08,NaN,-0.3417161,7.558001E-07,-0.6926836,-1.628309E-08,NaN,NaN,-0.01962143,1.30385E-10,3.945371E-07,-1.100574E-07,-7.078062E-09,-3.099441E-08
399.9679,-1.332069,-3.363926E-08,NaN,-0.3251944,-1.296075E-07,NaN,0.8229817,6.463216E-08,NaN,-0.3415608,7.56615E-07,-0.695531,-1.611236E-08,NaN,NaN,-0.01961845,1.30385E-10,3.872355E-07,-1.100811E-07,-7.078062E-09,-2.861022E-08
399.9831,-1.345592,-3.364356E-08,NaN,-0.3251889,-1.296379E-07,NaN,0.824787,6.454053E-08,NaN,-0.3417486,7.574299E-07,-0.697332,-1.594275E-08,NaN,NaN,-0.01961692,1.30385E-10,3.832122E-07,-1.101047E-07,-7.376085E-09,-3.099441E-08
399.998,-1.345592,-3.364356E-08,NaN,-0.3251889,-1.296379E-07,NaN,0.824787,6.454053E-08,NaN,-0.3417486,7.574299E-07,-0.697332,-1.594275E-08,NaN,NaN,-0.01961692,1.30385E-10,3.832122E-07,-1.101047E-07,-7.376085E-09,-3.099441E-08
400.0119,-1.358473,-3.364784E-08,NaN,-0.3251854,-1.296682E-07,NaN,0.826204,6.44489E-08,NaN,-0.3420569,7.582448E-07,-0.6987923,-1.577425E-08,NaN,NaN,-0.01961567,1.30385E-10,3.791889E-07,-1.101283E-07,-7.078062E-09,-2.861022E-08
400.0276,-1.370897,-3.365209E-08,NaN,-0.3251842,-1.296984E-07,NaN,0.8275055,6.435727E-08,NaN,-0.3423938,7.590597E-07,-0.7001598,-1.560683E-08,NaN,NaN,-0.01961445,1.30385E-10,3.778478E-07,-1.101517E-07,-6.780038E-09,-3.099441E-08
400.0421,-1.382982,-3.365633E-08,NaN,-0.3251844,-1.297285E-07,NaN,0.8287716,6.426563E-08,NaN,-0.3427272,7.598746E-07,-0.7015046,-1.544051E-08,NaN,NaN,-0.01961327,1.30385E-10,3.702482E-07,-1.101751E-07,-5.550692E-09,-2.861022E-08
400.058,-1.382982,-3.365633E-08,NaN,-0.3251844,-1.297285E-07,NaN,0.8287716,6.426563E-08,NaN,-0.3427272,7.598746E-07,-0.7015046,-1.544051E-08,NaN,NaN,-0.01961327,1.30385E-10,3.702482E-07,-1.101751E-07,-5.550692E-09,-2.861022E-08
400.0721,-1.394074,-3.366054E-08,NaN,-0.3251842,-1.297585E-07,NaN,0.82895,6.4174E-08,NaN,-0.343365,7.606989E-07,-0.7018653,-1.527526E-08,NaN,NaN,-0.01961352,1.257283E-10,3.647347E-07,-1.101984E-07,-5.23055E-09,-3.099441E-08
400.0867,-1.404495,-3.366473E-08,NaN,-0.3251852,-1.297884E-07,NaN,0.8288037,6.408237E-08,NaN,-0.3440892,7.615184E-07,-0.7019418,-1.511109E-08,NaN,NaN,-0.01961405,1.30385E-10,3.633936E-07,-1.102217E-07,-5.23055E-09,-2.861022E-08
400.1014,-1.414452,-3.366891E-08,NaN,-0.3251876,-1.298183E-07,NaN,0.8285974,6.399074E-08,NaN,-0.3448136,7.62338E-07,-0.7019739,-1.494798E-08,NaN,NaN,-0.01961459,1.350416E-10,3.617545E-07,-1.102448E-07,-6.273631E-09,-3.099441E-08
400.116,-1.414452,-3.366891E-08,NaN,-0.3251876,-1.298183E-07,NaN,0.8285974,6.399074E-08,NaN,-0.3448136,7.62338E-07,-0.7019739,-1.494798E-08,NaN,NaN,-0.01961459,1.350416E-10,3.617545E-07,-1.102448E-07,-6.273631E-09,-3.099441E-08
400.1302,-1.423346,-3.367306E-08,NaN,-0.3251895,-1.29848E-07,NaN,0.8273467,6.389911E-08,NaN,-0.3458254,7.631669E-07,-0.7010614,-1.478594E-08,NaN,NaN,-0.01961645,1.30385E-10,3.575821E-07,-1.102679E-07,-5.826597E-09,-2.861022E-08
400.1456,-1.431535,-3.367719E-08,NaN,-0.3251929,-1.298776E-07,NaN,0.8258278,6.380748E-08,NaN,-0.3469017,7.640004E-07,-0.6999158,-1.462495E-08,NaN,NaN,-0.01961848,1.257283E-10,3.56241E-07,-1.102909E-07,-5.677585E-09,-3.099441E-08
400.1602,-1.439246,-3.36813E-08,NaN,-0.3251989,-1.299072E-07,NaN,0.8243057,6.371585E-08,NaN,-0.3479578,7.64834E-07,-0.6987771,-1.4465E-08,NaN,NaN,-0.01962045,1.257283E-10,3.55347E-07,-1.103138E-07,-5.975608E-09,-2.861022E-08
400.1751,-1.439246,-3.36813E-08,NaN,-0.3251989,-1.299072E-07,NaN,0.8243057,6.371585E-08,NaN,-0.3479578,7.64834E-07,-0.6987771,-1.4465E-08,NaN,NaN,-0.01962045,1.257283E-10,3.55347E-07,-1.103138E-07,-5.975608E-09,-2.861022E-08
400.1891,-1.446623,-3.36854E-08,NaN,-0.3252075,-1.299366E-07,NaN,0.8228465,6.362421E-08,NaN,-0.3489691,7.656722E-07,-0.6977032,-1.43061E-08,NaN,NaN,-0.01962235,1.210717E-10,3.504296E-07,-1.103367E-07,-7.763748E-09,-3.099441E-08
400.2049,-1.453033,-3.368947E-08,NaN,-0.3252161,-1.29966E-07,NaN,0.8204058,6.353258E-08,NaN,-0.3502505,7.665058E-07,-0.6957393,-1.414822E-08,NaN,NaN,-0.01962548,1.210717E-10,3.458102E-07,-1.103594E-07,-8.657818E-09,-2.861022E-08
400.2195,-1.453033,-3.368947E-08,NaN,-0.3252161,-1.29966E-07,NaN,0.8204058,6.353258E-08,NaN,-0.3502505,7.665058E-07,-0.6957393,-1.414822E-08,NaN,NaN,-0.01962548,1.210717E-10,3.458102E-07,-1.103594E-07,-8.657818E-09,-2.861022E-08
400.2337,-1.458806,-3.369352E-08,NaN,-0.3252265,-1.299953E-07,NaN,0.8177253,6.344095E-08,NaN,-0.3515888,7.673393E-07,-0.6935654,-1.399138E-08,NaN,NaN,-0.01962877,1.210717E-10,3.411909E-07,-1.103821E-07,-7.465725E-09,-3.099441E-08
400.2492,-1.464156,-3.369755E-08,NaN,-0.3252393,-1.300244E-07,NaN,0.8150602,6.334932E-08,NaN,-0.3529018,7.681729E-07,-0.6914127,-1.383555E-08,NaN,NaN,-0.01963196,1.210717E-10,3.377636E-07,-1.104048E-07,-6.273632E-09,-2.861022E-08
400.2644,-1.469216,-3.370156E-08,NaN,-0.3252541,-1.300535E-07,NaN,0.8124766,6.325769E-08,NaN,-0.3541653,7.690064E-07,-0.6893396,-1.368073E-08,NaN,NaN,-0.01963503,1.210717E-10,3.364225E-07,-1.104273E-07,-5.677586E-09,-3.099441E-08
400.279,-1.469216,-3.370156E-08,NaN,-0.3252541,-1.300535E-07,NaN,0.8124766,6.325769E-08,NaN,-0.3541653,7.690064E-07,-0.6893396,-1.368073E-08,NaN,NaN,-0.01963503,1.210717E-10,3.364225E-07,-1.104273E-07,-5.677586E-09,-3.099441E-08
400.2949,-1.473344,-3.370555E-08,NaN,-0.3252682,-1.300825E-07,NaN,0.8089549,6.316606E-08,NaN,-0.355697,7.6984E-07,-0.6864157,-1.352693E-08,NaN,NaN,-0.01963926,1.210717E-10,3.286739E-07,-1.104498E-07,-4.783516E-09,-2.861022E-08
400.3093,-1.47687,-3.370952E-08,NaN,-0.3252832,-1.301114E-07,NaN,0.8052242,6.307442E-08,NaN,-0.3572809,7.706735E-07,-0.6833081,-1.337412E-08,NaN,NaN,-0.0196436,1.210717E-10,3.204783E-07,-1.104722E-07,-4.485493E-09,-3.099441E-08
400.3231,-1.480002,-3.371347E-08,NaN,-0.3252994,-1.301402E-07,NaN,0.801537,6.298279E-08,NaN,-0.3588337,7.715071E-07,-0.6802458,-1.32223E-08,NaN,NaN,-0.01964781,1.210717E-10,3.160079E-07,-1.104945E-07,-6.571655E-09,-2.861022E-08
400.3377,-1.480002,-3.371347E-08,NaN,-0.3252994,-1.301402E-07,NaN,0.801537,6.298279E-08,NaN,-0.3588337,7.715071E-07,-0.6802458,-1.32223E-08,NaN,NaN,-0.01964781,1.210717E-10,3.160079E-07,-1.104945E-07,-6.571655E-09,-2.861022E-08
400.3519,-1.482144,-3.37174E-08,NaN,-0.3253145,-1.301689E-07,NaN,0.7969616,6.289116E-08,NaN,-0.3606528,7.723406E-07,-0.6763798,-1.307147E-08,NaN,NaN,-0.01965305,1.210717E-10,3.115376E-07,-1.105167E-07,-6.869679E-09,-3.099441E-08
400.3683,-1.483655,-3.372131E-08,NaN,-0.3253299,-1.301975E-07,NaN,0.7922326,6.279953E-08,NaN,-0.3625118,7.731742E-07,-0.6723809,-1.292162E-08,NaN,NaN,-0.01965834,1.210717E-10,3.051301E-07,-1.105389E-07,-6.869679E-09,-2.861022E-08
400.3821,-1.484762,-3.37252E-08,NaN,-0.3253459,-1.30226E-07,NaN,0.7875997,6.27079E-08,NaN,-0.3643254,7.740171E-07,-0.6684749,-1.277274E-08,NaN,NaN,-0.01966344,1.117585E-10,3.020009E-07,-1.10561E-07,-6.273632E-09,-3.099441E-08
400.397,-1.484762,-3.37252E-08,NaN,-0.3253459,-1.30226E-07,NaN,0.7875997,6.27079E-08,NaN,-0.3643254,7.740171E-07,-0.6684749,-1.277274E-08,NaN,NaN,-0.01966344,1.117585E-10,3.020009E-07,-1.10561E-07,-6.273632E-09,-3.099441E-08
400.411,-1.48561,-3.372907E-08,NaN,-0.3253626,-1.302545E-07,NaN,0.783124,6.261627E-08,NaN,-0.3660697,7.748506E-07,-0.6647158,-1.262484E-08,NaN,NaN,-0.01966831,1.117585E-10,2.985736E-07,-1.105831E-07,-5.677586E-09,-2.861022E-08
400.4267,-1.485565,-3.373292E-08,NaN,-0.3253774,-1.302828E-07,NaN,0.7778362,6.252463E-08,NaN,-0.3680728,7.756842E-07,-0.6602227,-1.247789E-08,NaN,NaN,-0.01967412,1.117585E-10,2.948483E-07,-1.106051E-07,-5.08154E-09,-3.099441E-08
400.4413,-1.484958,-3.373675E-08,NaN,-0.3253916,-1.303111E-07,NaN,0.7724231,6.2433E-08,NaN,-0.370114,7.765177E-07,-0.6556211,-1.23319E-08,NaN,NaN,-0.01967997,1.071019E-10,2.899309E-07,-1.10627E-07,-5.08154E-09,-2.861022E-08
400.4563,-1.484958,-3.373675E-08,NaN,-0.3253916,-1.303111E-07,NaN,0.7724231,6.2433E-08,NaN,-0.370114,7.765177E-07,-0.6556211,-1.23319E-08,NaN,NaN,-0.01967997,1.071019E-10,2.899309E-07,-1.10627E-07,-5.08154E-09,-2.861022E-08
400.4702,-1.484,-3.374057E-08,NaN,-0.3254055,-1.303392E-07,NaN,0.767122,6.234137E-08,NaN,-0.3721092,7.773466E-07,-0.6511254,-1.218685E-08,NaN,NaN,-0.01968561,1.071019E-10,2.842685E-07,-1.106489E-07,-3.889447E-09,-3.099441E-08
400.4859,-1.482824,-3.374436E-08,NaN,-0.3254194,-1.303673E-07,NaN,0.7619928,6.224974E-08,NaN,-0.3740344,7.781802E-07,-0.6467887,-1.204275E-08,NaN,NaN,-0.019691,1.024453E-10,2.77116E-07,-1.106707E-07,-3.889447E-09,-2.861022E-08
400.5006,-1.480789,-3.374813E-08,NaN,-0.3254309,-1.303953E-07,NaN,0.7561033,6.215811E-08,NaN,-0.3762237,7.790137E-07,-0.641767,-1.189959E-08,NaN,NaN,-0.01969724,9.778867E-11,2.699634E-07,-1.106925E-07,-2.697354E-09,-3.099441E-08
400.5156,-1.480789,-3.374813E-08,NaN,-0.3254309,-1.303953E-07,NaN,0.7561033,6.215811E-08,NaN,-0.3762237,7.790137E-07,-0.641767,-1.189959E-08,NaN,NaN,-0.01969724,9.778867E-11,2.699634E-07,-1.106925E-07,-2.697354E-09,-3.099441E-08
400.5294,-1.478222,-3.375189E-08,NaN,-0.3254411,-1.304232E-07,NaN,0.750118,6.206648E-08,NaN,-0.3784502,7.798473E-07,-0.636663,-1.175735E-08,NaN,NaN,-0.01970349,9.313205E-11,2.623638E-07,-1.107142E-07,-2.697354E-09,-2.861022E-08
400.546,-1.47533,-3.375563E-08,NaN,-0.3254504,-1.30451E-07,NaN,0.7442676,6.197484E-08,NaN,-0.3806278,7.806808E-07,-0.6316849,-1.161604E-08,NaN,NaN,-0.0197095,8.847544E-11,2.555093E-07,-1.107358E-07,-3.889447E-09,-3.099441E-08
400.5598,-1.47533,-3.375563E-08,NaN,-0.3254504,-1.30451E-07,NaN,0.7442676,6.197484E-08,NaN,-0.3806278,7.806808E-07,-0.6316849,-1.161604E-08,NaN,NaN,-0.0197095,8.847544E-11,2.555093E-07,-1.107358E-07,-3.889447E-09,-3.099441E-08
400.5739,-1.471519,-3.375934E-08,NaN,-0.3254567,-1.304787E-07,NaN,0.7377115,6.188321E-08,NaN,-0.3830711,7.815144E-07,-0.6260737,-1.147565E-08,NaN,NaN,-0.01971626,8.381882E-11,2.473137E-07,-1.107573E-07,-2.697354E-09,-2.861022E-08
400.5891,-1.467144,-3.376304E-08,NaN,-0.3254611,-1.305064E-07,NaN,0.7311117,6.217186E-08,NaN,-0.3855413,7.823386E-07,-0.6204282,-1.17247E-08,NaN,NaN,-0.01972297,8.381882E-11,2.404591E-07,-1.107787E-07,-2.101308E-09,-3.099441E-08
400.6037,-1.462434,-3.376672E-08,NaN,-0.3254641,-1.305338E-07,NaN,0.724694,6.244709E-08,NaN,-0.3879494,7.831582E-07,-0.6149512,-1.196765E-08,NaN,NaN,-0.01972941,8.847544E-11,2.333066E-07,-1.108E-07,-2.697354E-09,-2.861022E-08
400.6185,-1.462434,-3.376672E-08,NaN,-0.3254641,-1.305338E-07,NaN,0.724694,6.244709E-08,NaN,-0.3879494,7.831582E-07,-0.6149512,-1.196765E-08,NaN,NaN,-0.01972941,8.847544E-11,2.333066E-07,-1.108E-07,-2.697354E-09,-2.861022E-08
400.6326,-1.457532,-3.377038E-08,NaN,-0.3254661,-1.305612E-07,NaN,0.7185113,6.270975E-08,NaN,-0.3902709,7.83987E-07,-0.6096895,-1.22039E-08,NaN,NaN,-0.01973554,8.381882E-11,2.246639E-07,-1.108213E-07,-4.485493E-09,-3.099441E-08
400.6483,-1.451802,-3.377402E-08,NaN,-0.3254665,-1.305885E-07,NaN,0.711698,6.296187E-08,NaN,-0.3928548,7.848066E-07,-0.6038656,-1.243429E-08,NaN,NaN,-0.01974231,8.847544E-11,2.172133E-07,-1.108425E-07,-3.889447E-09,-2.861022E-08
400.6629,-1.445575,-3.377765E-08,NaN,-0.3254658,-1.306158E-07,NaN,0.7048634,6.320448E-08,NaN,-0.395466,7.856355E-07,-0.5980274,-1.265894E-08,NaN,NaN,-0.01974901,8.381882E-11,2.108058E-07,-1.108636E-07,-5.677586E-09,-3.099441E-08
400.6779,-1.445575,-3.377765E-08,NaN,-0.3254658,-1.306158E-07,NaN,0.7048634,6.320448E-08,NaN,-0.395466,7.856355E-07,-0.5980274,-1.265894E-08,NaN,NaN,-0.01974901,8.381882E-11,2.108058E-07,-1.108636E-07,-5.677586E-09,-3.099441E-08
400.6918,-1.439061,-3.378125E-08,NaN,-0.3254644,-1.306429E-07,NaN,0.6982179,6.343846E-08,NaN,-0.3980159,7.864551E-07,-0.5923632,-1.287795E-08,NaN,NaN,-0.01975545,8.847544E-11,2.054414E-07,-1.108846E-07,-6.869679E-09,-2.861022E-08
400.7075,-1.432394,-3.378484E-08,NaN,-0.3254625,-1.306699E-07,NaN,0.6918126,6.36645E-08,NaN,-0.4004795,7.87284E-07,-0.5869182,-1.309143E-08,NaN,NaN,-0.01976158,8.381882E-11,2.018651E-07,-1.109056E-07,-6.869679E-09,-3.099441E-08
400.7222,-1.424931,-3.378841E-08,NaN,-0.325458,-1.306969E-07,NaN,0.6848233,6.388392E-08,NaN,-0.4032116,7.881035E-07,-0.5809554,-1.33002E-08,NaN,NaN,-0.01976829,8.847544E-11,1.941166E-07,-1.109264E-07,-6.273633E-09,-2.861022E-08
400.7369,-1.424931,-3.378841E-08,NaN,-0.325458,-1.306969E-07,NaN,0.6848233,6.388392E-08,NaN,-0.4032116,7.881035E-07,-0.5809554,-1.33002E-08,NaN,NaN,-0.01976829,8.847544E-11,1.941166E-07,-1.109264E-07,-6.273633E-09,-2.861022E-08
400.7513,-1.416998,-3.379196E-08,NaN,-0.3254514,-1.307238E-07,NaN,0.6778325,6.409647E-08,NaN,-0.4059707,7.889278E-07,-0.5749961,-1.350365E-08,NaN,NaN,-0.01977493,8.381882E-11,1.87262E-07,-1.109473E-07,-6.273633E-09,-3.099441E-08
400.7667,-1.408803,-3.379549E-08,NaN,-0.3254432,-1.307505E-07,NaN,0.6710434,6.430256E-08,NaN,-0.4086659,7.897473E-07,-0.569221,-1.370187E-08,NaN,NaN,-0.0197813,7.91622E-11,1.769802E-07,-1.10968E-07,-6.869679E-09,-2.861022E-08
400.7824,-1.400476,-3.3799E-08,NaN,-0.3254341,-1.307773E-07,NaN,0.6645056,6.450255E-08,NaN,-0.4112712,7.905622E-07,-0.5636737,-1.389497E-08,NaN,NaN,-0.01978736,7.91622E-11,1.692316E-07,-1.109887E-07,-6.869679E-09,-3.099441E-08
400.7964,-1.400476,-3.3799E-08,NaN,-0.3254341,-1.307773E-07,NaN,0.6645056,6.450255E-08,NaN,-0.4112712,7.905622E-07,-0.5636737,-1.389497E-08,NaN,NaN,-0.01978736,7.91622E-11,1.692316E-07,-1.109887E-07,-6.869679E-09,-3.099441E-08
