JMolnar6/NonAnthroHands_User_Study/HandsLoggerWithURDF/tempdata/files/Reachy_PID0_JointMotion_gesture_10_1.csv
Time,r_shoulder,r_shoulder_x,r_upper_arm,r_forearm,r_wrist,r_wrist2hand,
615.9966,-0.0543927,-0.5823836,-0.2971646,-0.8769251,0.4686946,-0.485104
616.0103,-0.0526289,-0.5823366,-0.297271,-0.8762279,0.4692219,-0.4850801
616.0256,-0.0508863,-0.5822902,-0.2973702,-0.8755381,0.46974,-0.4850566
616.0402,-0.04916462,-0.5822445,-0.2974626,-0.8748556,0.4702492,-0.4850337
616.0571,-0.04916462,-0.5822445,-0.2974626,-0.8748556,0.4702492,-0.4850337
616.07,-0.04746362,-0.5821995,-0.2975484,-0.8741806,0.4707496,-0.4850112
616.0844,-0.04578305,-0.582155,-0.2976276,-0.8735128,0.4712414,-0.4849891
616.0989,-0.04578305,-0.582155,-0.2976276,-0.8735128,0.4712414,-0.4849891
616.1127,-0.04412267,-0.5821111,-0.2977004,-0.8728522,0.4717247,-0.4849675
616.1283,-0.04248223,-0.5820678,-0.2977671,-0.8721988,0.4721996,-0.4849463
616.1428,-0.04086149,-0.5820252,-0.2978276,-0.8715524,0.4726664,-0.4849255
616.1577,-0.04086149,-0.5820252,-0.2978276,-0.8715524,0.4726664,-0.4849255
616.1718,-0.03926021,-0.5819831,-0.2978823,-0.870913,0.473125,-0.4849052
616.1871,-0.03767817,-0.5819416,-0.2979311,-0.8702806,0.4735758,-0.4848852
616.2018,-0.03611513,-0.5819007,-0.2979743,-0.8696551,0.4740188,-0.4848657
616.2166,-0.03611513,-0.5819007,-0.2979743,-0.8696551,0.4740188,-0.4848657
616.2307,-0.03457086,-0.5818603,-0.298012,-0.8690363,0.4744542,-0.4848465
616.2461,-0.03304513,-0.5818205,-0.2980444,-0.8684243,0.4748821,-0.4848277
616.2607,-0.03153773,-0.5817812,-0.2980715,-0.867819,0.4753026,-0.4848093
616.2755,-0.03153773,-0.5817812,-0.2980715,-0.867819,0.4753026,-0.4848093
616.2895,-0.03004843,-0.5817425,-0.2980935,-0.8672202,0.4757159,-0.4847913
616.3047,-0.02857702,-0.5817043,-0.2981105,-0.8666281,0.476122,-0.4847736
616.3205,-0.02712328,-0.5816666,-0.2981227,-0.8660424,0.4765212,-0.4847563
616.3353,-0.02712328,-0.5816666,-0.2981227,-0.8660424,0.4765212,-0.4847563
616.3492,-0.02568699,-0.5816295,-0.2981302,-0.8654631,0.4769135,-0.4847393
616.3635,-0.02426796,-0.5815928,-0.2981331,-0.8648902,0.477299,-0.4847227
616.3781,-0.02426796,-0.5815928,-0.2981331,-0.8648902,0.477299,-0.4847227
616.3922,-0.02286596,-0.5815567,-0.2981315,-0.8643236,0.4776779,-0.4847064
616.4076,-0.0214808,-0.581521,-0.2981255,-0.8637633,0.4780504,-0.4846904
616.4224,-0.02011228,-0.5814859,-0.2981152,-0.8632091,0.4784164,-0.4846748
616.4368,-0.02011228,-0.5814859,-0.2981152,-0.8632091,0.4784164,-0.4846748
616.4511,-0.01876019,-0.5814512,-0.2981008,-0.862661,0.4787761,-0.4846594
616.4692,-0.01742434,-0.581417,-0.2980824,-0.862119,0.4791296,-0.4846444
616.4819,-0.01610453,-0.5813832,-0.2980601,-0.8615829,0.479477,-0.4846297
616.4955,-0.01610453,-0.5813832,-0.2980601,-0.8615829,0.479477,-0.4846297
616.51,-0.01480056,-0.58135,-0.2980339,-0.8610529,0.4798185,-0.4846152
616.5253,-0.01351226,-0.5813172,-0.298004,-0.8605286,0.4801541,-0.4846011
616.54,-0.01223943,-0.5812848,-0.2979705,-0.8600103,0.4804839,-0.4845872
616.5549,-0.01223943,-0.5812848,-0.2979705,-0.8600103,0.4804839,-0.4845872
616.5689,-0.01098188,-0.5812529,-0.2979335,-0.8594976,0.4808081,-0.4845736
616.5851,-0.009739431,-0.5812215,-0.297893,-0.8589907,0.4811268,-0.4845603
616.5997,-0.009739431,-0.5812215,-0.297893,-0.8589907,0.4811268,-0.4845603
616.6136,-0.008511902,-0.5811904,-0.2978493,-0.8584894,0.4814399,-0.4845472
616.6281,-0.007299113,-0.5811598,-0.2978022,-0.8579937,0.4817477,-0.4845344
616.6427,-0.006100887,-0.5811296,-0.2977521,-0.8575035,0.4820502,-0.4845219
616.6574,-0.006100887,-0.5811296,-0.2977521,-0.8575035,0.4820502,-0.4845219
616.6715,-0.00491705,-0.5810997,-0.2976989,-0.8570188,0.4823475,-0.4845096
616.6869,-0.003747427,-0.5810704,-0.2976427,-0.8565395,0.4826397,-0.4844976
616.7017,-0.002591849,-0.5810414,-0.2975836,-0.8560656,0.4829269,-0.4844858
616.7162,-0.002591849,-0.5810414,-0.2975836,-0.8560656,0.4829269,-0.4844858
616.7302,-0.001450147,-0.5810128,-0.2975218,-0.855597,0.4832091,-0.4844742
616.7458,-0.0003221534,-0.5809847,-0.2974572,-0.8551336,0.4834866,-0.4844629
616.7606,0.0007922958,-0.5809569,-0.29739,-0.8546754,0.4837592,-0.4844518
616.7752,0.0007922958,-0.5809569,-0.29739,-0.8546754,0.4837592,-0.4844518
616.7891,0.001893363,-0.5809295,-0.2973202,-0.8542224,0.4840272,-0.484441
616.8046,0.00298121,-0.5809025,-0.297248,-0.8537745,0.4842906,-0.4844303
616.8196,0.00298121,-0.5809025,-0.297248,-0.8537745,0.4842906,-0.4844303
616.8334,0.004055995,-0.5808758,-0.2971733,-0.8533316,0.4845495,-0.4844199
616.8508,0.005117875,-0.5808495,-0.2970963,-0.8528937,0.4848039,-0.4844097
616.8643,0.006167005,-0.5808236,-0.2970171,-0.8524607,0.485054,-0.4843996
616.8777,0.006167005,-0.5808236,-0.2970171,-0.8524607,0.485054,-0.4843996
616.8918,0.007203538,-0.580798,-0.2969357,-0.8520327,0.4852997,-0.4843898
616.9073,0.008227626,-0.5807728,-0.2968522,-0.8516094,0.4855413,-0.4843802
616.9217,0.009239418,-0.580748,-0.2967666,-0.8511909,0.4857787,-0.4843708
616.9365,0.009239418,-0.580748,-0.2967666,-0.8511909,0.4857787,-0.4843708
616.9504,0.01023906,-0.5807234,-0.296679,-0.8507772,0.486012,-0.4843616
616.9658,0.0112267,-0.5806992,-0.2965896,-0.8503681,0.4862413,-0.4843525
616.9803,0.01220248,-0.5806754,-0.2964983,-0.8499637,0.4864667,-0.4843437
616.9951,0.01220248,-0.5806754,-0.2964983,-0.8499637,0.4864667,-0.4843437
617.0099,0.01350749,-0.5806382,-0.2970453,-0.8496114,0.4873494,-0.4842891
617.0245,0.01500905,-0.5805934,-0.2977051,-0.849205,0.4882871,-0.4842354
617.0392,0.01500905,-0.5805934,-0.2977051,-0.849205,0.4882871,-0.4842354
617.0532,0.01662468,-0.5805442,-0.2983884,-0.8487518,0.4892342,-0.4841828
617.0685,0.01830313,-0.5804927,-0.2990636,-0.8482653,0.4901792,-0.4841313
617.0854,0.01967169,-0.5804536,-0.2990794,-0.8477101,0.4904577,-0.4841267
617.098,0.01967169,-0.5804536,-0.2990794,-0.8477101,0.4904577,-0.4841267
617.1118,0.02084349,-0.5804223,-0.2989556,-0.8472015,0.4906631,-0.4841224
617.1282,0.02188896,-0.5803956,-0.2987832,-0.846738,0.4908408,-0.4841182
617.1428,0.02285199,-0.580372,-0.2985955,-0.8463104,0.4910014,-0.4841141
617.1565,0.02285199,-0.580372,-0.2985955,-0.8463104,0.4910014,-0.4841141
617.1705,0.02341907,-0.5803638,-0.2977674,-0.8458619,0.4904948,-0.4841559
617.1859,0.02374001,-0.5803644,-0.2968268,-0.8454913,0.4899194,-0.4841971
617.2005,0.02390808,-0.5803696,-0.2958659,-0.8451858,0.4893249,-0.4842374
617.215,0.02390808,-0.5803696,-0.2958659,-0.8451858,0.4893249,-0.4842374
617.2289,0.02364159,-0.580391,-0.2942769,-0.8448812,0.4880678,-0.4843228
617.2442,0.02310895,-0.580422,-0.2925944,-0.8446691,0.4867498,-0.4844067
617.259,0.02310895,-0.580422,-0.2925944,-0.8446691,0.4867498,-0.4844067
617.2728,0.02241501,-0.5804582,-0.2909124,-0.8445311,0.4854235,-0.4844889
617.2884,0.02162499,-0.5804974,-0.2892615,-0.8444461,0.4841031,-0.4845694
617.3031,0.02043854,-0.5805516,-0.2870101,-0.8443493,0.4821371,-0.4846943
617.3176,0.02043854,-0.5805516,-0.2870101,-0.8443493,0.4821371,-0.4846943
617.3319,0.01901362,-0.5806143,-0.2846862,-0.8443357,0.4801274,-0.4848168
617.347,0.0174485,-0.5806814,-0.2823783,-0.8443892,0.4781238,-0.4849369
617.3615,0.01580423,-0.5807506,-0.2801148,-0.8444907,0.4761395,-0.4850545
617.3764,0.01580423,-0.5807506,-0.2801148,-0.8444907,0.4761395,-0.4850545
617.3904,0.01377778,-0.5808344,-0.277261,-0.8445762,0.473517,-0.4852158
617.4077,0.01152548,-0.5809259,-0.2743487,-0.8447419,0.4708642,-0.485374
617.4211,0.009144513,-0.5810212,-0.2714652,-0.8449723,0.4682294,-0.485529
617.4352,0.009144513,-0.5810212,-0.2714652,-0.8449723,0.4682294,-0.485529
617.4488,0.006354206,-0.5811318,-0.2679924,-0.8451996,0.4649557,-0.4857269
617.4641,0.003324864,-0.5812503,-0.2644745,-0.8455166,0.4616606,-0.4859209
617.4785,0.003324864,-0.5812503,-0.2644745,-0.8455166,0.4616606,-0.4859209
617.4925,0.000162266,-0.5813724,-0.2610004,-0.8459042,0.4583926,-0.4861111
617.508,-0.003067958,-0.5814958,-0.2575984,-0.8463412,0.4551648,-0.4862975
617.5226,-0.006666202,-0.5816329,-0.2536272,-0.8467607,0.4513068,-0.4865262
617.537,-0.006666202,-0.5816329,-0.2536272,-0.8467607,0.4513068,-0.4865262
617.5512,-0.01047438,-0.5817767,-0.2496289,-0.8472589,0.4474445,-0.4867504
617.567,-0.01439437,-0.5819234,-0.2456862,-0.8478197,0.443622,-0.4869702
617.5812,-0.01836539,-0.5820707,-0.2418255,-0.8484244,0.4398507,-0.4871855
617.5964,-0.01836539,-0.5820707,-0.2418255,-0.8484244,0.4398507,-0.4871855
617.61,-0.02269094,-0.5822312,-0.2374009,-0.8490065,0.4354495,-0.4874426
617.6253,-0.0272148,-0.5823978,-0.2329621,-0.849664,0.4310578,-0.4876946
617.64,-0.03184008,-0.5825669,-0.2285893,-0.8503816,0.4267159,-0.4879416
617.655,-0.03184008,-0.5825669,-0.2285893,-0.8503816,0.4267159,-0.4879416
617.6688,-0.03684797,-0.5827498,-0.2236518,-0.8510895,0.4217395,-0.4882296
617.6852,-0.0420683,-0.5829391,-0.2187132,-0.851882,0.4167819,-0.4885119
617.6997,-0.0420683,-0.5829391,-0.2187132,-0.851882,0.4167819,-0.4885119
617.7137,-0.04739557,-0.5831306,-0.2138543,-0.8527404,0.4118827,-0.4887887
617.7278,-0.05276449,-0.5833222,-0.2091009,-0.853644,0.4070531,-0.48906
617.7424,-0.05847603,-0.5835263,-0.2037989,-0.8545235,0.4015917,-0.4893718
617.7571,-0.05847603,-0.5835263,-0.2037989,-0.8545235,0.4015917,-0.4893718
617.7712,-0.06437222,-0.5837357,-0.1985123,-0.8554766,0.396166,-0.4896774
617.7866,-0.07035519,-0.5839468,-0.1933147,-0.856488,0.3908099,-0.489977
617.8011,-0.07636446,-0.5841574,-0.1882301,-0.8575391,0.385533,-0.4902707
617.8157,-0.07636446,-0.5841574,-0.1882301,-0.8575391,0.385533,-0.4902707
617.8297,-0.08270413,-0.5843802,-0.1826,-0.8585615,0.3796206,-0.4906044
617.8451,-0.08921804,-0.5846081,-0.1769965,-0.8596541,0.3737572,-0.4909315
617.8599,-0.08921804,-0.5846081,-0.1769965,-0.8596541,0.3737572,-0.4909315
617.8738,-0.09580955,-0.5848372,-0.1714904,-0.8608025,0.3679727,-0.4912522
617.8891,-0.1027604,-0.5850793,-0.1654375,-0.8619351,0.3615465,-0.4916123
617.9038,-0.1099005,-0.5853265,-0.1594237,-0.8631472,0.3551791,-0.4919653
617.9183,-0.1099005,-0.5853265,-0.1594237,-0.8631472,0.3551791,-0.4919653
617.9324,-0.1171246,-0.5855749,-0.1535198,-0.8644212,0.3488988,-0.4923114
617.9478,-0.1243675,-0.5858223,-0.1477486,-0.8657368,0.3427144,-0.4926505
617.9646,-0.1319311,-0.5860814,-0.1414443,-0.8670229,0.3358877,-0.4930288
617.9783,-0.1319311,-0.5860814,-0.1414443,-0.8670229,0.3358877,-0.4930288
617.9919,-0.1396571,-0.586345,-0.1351927,-0.868378,0.3291354,-0.4933996
618.0062,-0.1474481,-0.5866092,-0.1290581,-0.8697877,0.3224802,-0.493763
618.0208,-0.1552437,-0.5868722,-0.1230615,-0.8712339,0.3159294,-0.4941193
618.0355,-0.1552437,-0.5868722,-0.1230615,-0.8712339,0.3159294,-0.4941193
618.0492,-0.1633488,-0.5871467,-0.1165337,-0.8726465,0.308731,-0.4945143
618.0646,-0.171607,-0.5874254,-0.1100675,-0.8741251,0.301619,-0.4949014
618.079,-0.171607,-0.5874254,-0.1100675,-0.8741251,0.301619,-0.4949014
618.0931,-0.1799221,-0.5877044,-0.1037244,-0.8756561,0.2946125,-0.4952809
618.1085,-0.1885762,-0.5879956,-0.09684958,-0.8771665,0.2869527,-0.4956987
618.123,-0.1973993,-0.5882912,-0.09004725,-0.8787524,0.2793888,-0.4961082
618.1379,-0.1973993,-0.5882912,-0.09004725,-0.8787524,0.2793888,-0.4961082
618.1519,-0.2062862,-0.588587,-0.08337904,-0.8803971,0.2719381,-0.4965096
618.1672,-0.2151722,-0.5888811,-0.07686508,-0.8820812,0.2646073,-0.496903
618.1819,-0.2243594,-0.5891864,-0.06983133,-0.8837322,0.2566213,-0.4973344
618.1965,-0.2243594,-0.5891864,-0.06983133,-0.8837322,0.2566213,-0.4973344
618.2105,-0.2336899,-0.5894954,-0.06288011,-0.8854486,0.2487439,-0.4977572
618.226,-0.2430662,-0.5898043,-0.05606773,-0.887217,0.2409884,-0.4981717
618.2425,-0.2524281,-0.5901113,-0.0494127,-0.8890202,0.2333602,-0.4985779
618.2562,-0.2524281,-0.5901113,-0.0494127,-0.8890202,0.2333602,-0.4985779
618.2701,-0.2620812,-0.5904293,-0.04223925,-0.8907871,0.2250711,-0.4990219
618.2845,-0.2718691,-0.5907508,-0.03515422,-0.8926167,0.2169003,-0.4994571
618.2991,-0.2718691,-0.5907508,-0.03515422,-0.8926167,0.2169003,-0.4994571
618.3129,-0.2816955,-0.5910721,-0.02821206,-0.8944967,0.2088587,-0.4998836
618.3282,-0.2918434,-0.591405,-0.02075163,-0.896354,0.2001521,-0.5003474
618.3429,-0.3021424,-0.5917414,-0.01338858,-0.8982837,0.1915719,-0.5008021
618.3575,-0.3021424,-0.5917414,-0.01338858,-0.8982837,0.1915719,-0.5008021
618.3718,-0.3124877,-0.5920776,-0.006177953,-0.9002704,0.1831286,-0.5012478
618.387,-0.3228146,-0.5924115,0.0008627372,-0.9022955,0.1748263,-0.5016845
618.4017,-0.3334259,-0.592756,0.008411439,-0.9042867,0.1658558,-0.5021585
618.4164,-0.3334259,-0.592756,0.008411439,-0.9042867,0.1658558,-0.5021585
618.4305,-0.3441637,-0.5931036,0.01585633,-0.9063411,0.1570214,-0.502623
618.4457,-0.3549303,-0.5934506,0.02314636,-0.9084461,0.1483312,-0.5030783
618.4605,-0.365666,-0.5937952,0.03026536,-0.9105853,0.1397881,-0.5035246
618.4752,-0.365666,-0.5937952,0.03026536,-0.9105853,0.1397881,-0.5035246
618.489,-0.3766769,-0.5941505,0.0378917,-0.9126884,0.1305707,-0.5040078
618.5045,-0.3878066,-0.5945087,0.04541105,-0.9148526,0.121497,-0.5044815
618.5213,-0.3989587,-0.5948662,0.05277334,-0.9170662,0.1125737,-0.5049458
618.5349,-0.3989587,-0.5948662,0.05277334,-0.9170662,0.1125737,-0.5049458
618.5491,-0.4104169,-0.5952348,0.06064257,-0.9192577,0.1029727,-0.5054466
618.5629,-0.4220108,-0.5956065,0.06839728,-0.9215201,0.09352314,-0.5059375
618.5776,-0.4220108,-0.5956065,0.06839728,-0.9215201,0.09352314,-0.5059375
618.5916,-0.4336354,-0.5959772,0.07598672,-0.923839,0.08423136,-0.5064187
618.6071,-0.4452263,-0.5963454,0.0833957,-0.9261963,0.07509913,-0.5068904
618.6217,-0.457087,-0.5967239,0.09130351,-0.9285219,0.0652843,-0.5073985
618.6365,-0.457087,-0.5967239,0.09130351,-0.9285219,0.0652843,-0.5073985
618.6505,-0.4690593,-0.5971049,0.09909293,-0.9309099,0.05562861,-0.5078966
618.6658,-0.4810458,-0.5974849,0.1067164,-0.9333484,0.04613673,-0.5083848
618.6805,-0.4929867,-0.5978621,0.1141599,-0.9358215,0.03680947,-0.5088634
618.6953,-0.4929867,-0.5978621,0.1141599,-0.9358215,0.03680947,-0.5088634
618.7093,-0.5051889,-0.5982497,0.1221026,-0.9382619,0.02679272,-0.5093784
618.7247,-0.5174958,-0.5986397,0.1299254,-0.940763,0.01694167,-0.5098831
618.7393,-0.5174958,-0.5986397,0.1299254,-0.940763,0.01694167,-0.5098831
618.7534,-0.529811,-0.5990286,0.1375815,-0.9433137,0.007259943,-0.5103779
618.7689,-0.542419,-0.5994284,0.1457363,-0.9458459,-0.003114065,-0.5109087
618.7833,-0.555149,-0.5998307,0.1537646,-0.9484489,-0.01331441,-0.511429
618.8,-0.5678961,-0.6002318,0.161619,-0.9511086,-0.023338,-0.511939
618.8136,-0.5678961,-0.6002318,0.161619,-0.9511086,-0.023338,-0.511939
618.8276,-0.580596,-0.6006297,0.1692862,-0.9538077,-0.03318521,-0.512439
618.8417,-0.593553,-0.6010379,0.1774461,-0.9564804,-0.04373126,-0.5129749
618.8563,-0.593553,-0.6010379,0.1774461,-0.9564804,-0.04373126,-0.5129749
618.8703,-0.6066086,-0.6014481,0.1854773,-0.9592159,-0.05409711,-0.5135002
618.8854,-0.6196654,-0.6018569,0.1933351,-0.9620026,-0.06428097,-0.5140151
618.9003,-0.6326638,-0.6022627,0.2010074,-0.9648251,-0.07428399,-0.51452
618.9149,-0.6326638,-0.6022627,0.2010074,-0.9648251,-0.07428399,-0.51452
618.9288,-0.6459114,-0.6026786,0.2091735,-0.9676211,-0.08499343,-0.5150607
618.9445,-0.6592512,-0.6030967,0.2172104,-0.9704787,-0.09551649,-0.5155907
618.9589,-0.6592512,-0.6030967,0.2172104,-0.9704787,-0.09551649,-0.5155907
618.9731,-0.672587,-0.6035132,0.2250741,-0.9733864,-0.1058524,-0.5161103
618.9884,-0.6862039,-0.6039403,0.2334312,-0.9762826,-0.1168967,-0.5166655
619.0032,-0.6999309,-0.6043696,0.2416531,-0.9792503,-0.1277461,-0.5172098
619.0174,-0.6999309,-0.6043696,0.2416531,-0.9792503,-0.1277461,-0.5172098
619.0317,-0.713663,-0.6047972,0.2496955,-0.9822755,-0.1384007,-0.5177434
619.0472,-0.727336,-0.6052216,0.2575467,-0.9853411,-0.1488629,-0.5182666
619.0616,-0.7412551,-0.6056558,0.2658865,-0.9883886,-0.1600414,-0.5188253
619.0782,-0.7412551,-0.6056558,0.2658865,-0.9883886,-0.1600414,-0.5188253
619.0912,-0.7552614,-0.6060919,0.2740903,-0.9915002,-0.1710192,-0.519373
619.1056,-0.7692574,-0.6065261,0.2821161,-0.9946637,-0.1817976,-0.51991
619.1202,-0.7831838,-0.6069571,0.2899531,-0.9978639,-0.1923796,-0.5204365
619.1362,-0.7831838,-0.6069571,0.2899531,-0.9978639,-0.1923796,-0.5204365
619.1486,-0.7973486,-0.6073981,0.2982801,-1.001047,-0.2036858,-0.5209985
619.164,-0.811595,-0.6078409,0.3064715,-1.004293,-0.2147856,-0.5215495
619.1786,-0.811595,-0.6078409,0.3064715,-1.004293,-0.2147856,-0.5215495
619.1926,-0.8258264,-0.6082819,0.3144858,-1.00759,-0.225681,-0.5220897
619.208,-0.8403288,-0.6087332,0.3229896,-1.010885,-0.2373018,-0.5226652
619.2225,-0.8549308,-0.6091865,0.3313521,-1.014253,-0.2487071,-0.5232294
619.2372,-0.8549308,-0.6091865,0.3313521,-1.014253,-0.2487071,-0.5232294
619.2513,-0.8695273,-0.6096377,0.3395317,-1.017678,-0.2598999,-0.5237825
619.2669,-0.8840544,-0.6100854,0.3475181,-1.021145,-0.2708848,-0.5243248
619.2816,-0.8988177,-0.6105428,0.3559899,-1.024604,-0.282604,-0.5249025
619.2959,-0.8988177,-0.6105428,0.3559899,-1.024604,-0.282604,-0.5249025
619.3099,-0.9136583,-0.6110018,0.3643207,-1.028128,-0.2941025,-0.5254688
619.3255,-0.9284787,-0.6114587,0.3724707,-1.031705,-0.3053844,-0.526024
619.34,-0.9284787,-0.6114587,0.3724707,-1.031705,-0.3053844,-0.526024
619.3561,-0.9435644,-0.6119259,0.3811063,-1.035288,-0.3174014,-0.5266144
619.3705,-0.9587435,-0.6123947,0.3895963,-1.038945,-0.3291884,-0.5271932
619.384,-0.9739106,-0.6128612,0.3979006,-1.04266,-0.3407506,-0.5277606
619.3985,-0.9739106,-0.6128612,0.3979006,-1.04266,-0.3407506,-0.5277606
619.4123,-0.9890016,-0.613324,0.4060097,-1.046416,-0.3520938,-0.528317
619.4277,-1.004323,-0.6137965,0.414601,-1.050173,-0.3641816,-0.5289085
619.4421,-1.019715,-0.6142704,0.4230477,-1.053996,-0.3760347,-0.5294884
619.4566,-1.019715,-0.6142704,0.4230477,-1.053996,-0.3760347,-0.5294884
619.4708,-1.03508,-0.6147422,0.4313115,-1.057871,-0.3876591,-0.530057
619.486,-1.050358,-0.6152102,0.439383,-1.061782,-0.3990609,-0.5306144
619.5009,-1.054112,-0.615221,0.4250378,-1.066355,-0.3782469,-0.5296418
619.5152,-1.054112,-0.615221,0.4250378,-1.066355,-0.3782469,-0.5296418
619.5292,-1.050803,-0.6150143,0.4090652,-1.069572,-0.3583683,-0.5286934
619.5448,-1.043185,-0.6146841,0.3928726,-1.071495,-0.3393066,-0.527766
619.5594,-1.043185,-0.6146841,0.3928726,-1.071495,-0.3393066,-0.527766
619.5734,-1.033312,-0.6142952,0.3776345,-1.072347,-0.3218794,-0.526904
619.5892,-1.022106,-0.6138713,0.3628992,-1.072464,-0.3049881,-0.5260593
619.6033,-1.010138,-0.6134272,0.348629,-1.072073,-0.2885634,-0.5252314
619.618,-1.010138,-0.6134272,0.348629,-1.072073,-0.2885634,-0.5252314
619.6321,-0.9977591,-0.6129723,0.3347725,-1.071341,-0.2725577,-0.5244198
619.6483,-0.9855322,-0.6125264,0.3219354,-1.07035,-0.2578744,-0.5236703
619.663,-0.9734543,-0.6120884,0.3094951,-1.069255,-0.2435176,-0.5229354
619.6769,-0.9734543,-0.6120884,0.3094951,-1.069255,-0.2435176,-0.5229354
619.6903,-0.961523,-0.6116574,0.2973704,-1.068103,-0.2294758,-0.5222148
619.7057,-0.9497362,-0.6112332,0.2855208,-1.066922,-0.2157395,-0.5215085
619.7203,-0.938437,-0.6108291,0.2745708,-1.065685,-0.2032217,-0.5208619
619.735,-0.938437,-0.6108291,0.2745708,-1.065685,-0.2032217,-0.5208619
619.7489,-0.9274876,-0.6104397,0.2639283,-1.06448,-0.1909608,-0.520228
619.7643,-0.9168023,-0.6100615,0.2535293,-1.063309,-0.1789548,-0.5196064
619.7787,-0.9168023,-0.6100615,0.2535293,-1.063309,-0.1789548,-0.5196064
619.7928,-0.9066725,-0.609706,0.2439896,-1.062122,-0.1681117,-0.519043
619.8081,-0.8969286,-0.6093666,0.2347212,-1.060996,-0.1574852,-0.5184906
619.8228,-0.8874655,-0.6090389,0.2256617,-1.059923,-0.1470754,-0.5179489
619.8375,-0.8874655,-0.6090389,0.2256617,-1.059923,-0.1470754,-0.5179489
619.8515,-0.8782175,-0.6087202,0.2167854,-1.058889,-0.1368805,-0.5174178
619.8671,-0.8694881,-0.6084225,0.2087223,-1.057836,-0.1277969,-0.5169432
619.8814,-0.8611161,-0.6081394,0.2008967,-1.056843,-0.1188931,-0.5164776
619.8962,-0.8611161,-0.6081394,0.2008967,-1.056843,-0.1188931,-0.5164776
619.9101,-0.8530011,-0.6078668,0.1932492,-1.0559,-0.1101691,-0.5160213
619.9274,-0.8450804,-0.6076021,0.1857558,-1.054996,-0.1016233,-0.5155738
619.941,-0.8376597,-0.6073574,0.1790449,-1.054069,-0.09414303,-0.5151811
619.9593,-0.8376597,-0.6073574,0.1790449,-1.054069,-0.09414303,-0.5151811
619.9685,-0.8305789,-0.6071264,0.1725447,-1.053201,-0.08680918,-0.5147959
619.9838,-0.8237385,-0.6069049,0.1661958,-1.052384,-0.07962193,-0.5144182
619.9984,-0.8237385,-0.6069049,0.1661958,-1.052384,-0.07962193,-0.5144182
620.0123,-0.8174211,-0.6067043,0.1606112,-1.051557,-0.07346369,-0.5140939
620.0277,-0.8114528,-0.6065174,0.1552155,-1.0508,-0.06742405,-0.5137758
620.0424,-0.8057256,-0.6063401,0.1499477,-1.050102,-0.06150366,-0.5134639
620.0571,-0.8057256,-0.6063401,0.1499477,-1.050102,-0.06150366,-0.5134639
620.0711,-0.8001722,-0.6061694,0.144784,-1.049447,-0.05570172,-0.5131581
620.0867,-0.7950951,-0.6060175,0.1403514,-1.048771,-0.05089364,-0.5129042
620.1013,-0.790333,-0.6058778,0.1360826,-1.04816,-0.04617744,-0.5126551
620.116,-0.790333,-0.6058778,0.1360826,-1.04816,-0.04617744,-0.5126551
620.13,-0.7857856,-0.6057462,0.1319192,-1.047602,-0.04155368,-0.5124109
620.1453,-0.7813905,-0.6056204,0.1278383,-1.047086,-0.03702175,-0.5121716
620.16,-0.7813905,-0.6056204,0.1278383,-1.047086,-0.03702175,-0.5121716
620.1738,-0.7774532,-0.6055124,0.1244661,-1.046545,-0.03345208,-0.5119827
620.1894,-0.7738144,-0.6054158,0.1212372,-1.046068,-0.02994976,-0.5117975
620.2059,-0.7703752,-0.6053266,0.1180929,-1.045645,-0.02651548,-0.5116159
620.2194,-0.7703752,-0.6053266,0.1180929,-1.045645,-0.02651548,-0.5116159
620.2334,-0.7674182,-0.6052561,0.1156442,-1.045211,-0.02401747,-0.5114837
620.2477,-0.7647703,-0.6051973,0.1133207,-1.044851,-0.02156549,-0.511354
620.2622,-0.762324,-0.6051458,0.1110623,-1.044553,-0.01916057,-0.5112268
620.2766,-0.762324,-0.6051458,0.1110623,-1.044553,-0.01916057,-0.5112268
620.2908,-0.7600126,-0.605099,0.1088464,-1.044302,-0.01680263,-0.5111021
620.3063,-0.7581385,-0.605069,0.107299,-1.04403,-0.01535695,-0.5110257
620.3208,-0.7565412,-0.6050492,0.1058565,-1.043825,-0.01393707,-0.5109506
620.3356,-0.7565412,-0.6050492,0.1058565,-1.043825,-0.01393707,-0.5109506
620.3493,-0.7551209,-0.6050357,0.1044615,-1.043677,-0.0125441,-0.5108771
620.3647,-0.7538158,-0.605026,0.1030922,-1.043572,-0.01117817,-0.510805
620.3795,-0.7538158,-0.605026,0.1030922,-1.043572,-0.01117817,-0.510805
620.3935,-0.7529315,-0.6050316,0.1023748,-1.043444,-0.01070322,-0.5107801
620.4088,-0.7523094,-0.6050463,0.1017459,-1.043381,-0.01023543,-0.5107556
620.4233,-0.751851,-0.6050664,0.1011482,-1.043376,-0.009776082,-0.5107316
620.4378,-0.751851,-0.6050664,0.1011482,-1.043376,-0.009776082,-0.5107316
620.4523,-0.7518392,-0.6051031,0.1011929,-1.04336,-0.0101894,-0.5107539
620.4678,-0.7521006,-0.6051497,0.1013105,-1.043421,-0.01059286,-0.5107756
620.4818,-0.7525284,-0.6052017,0.1014424,-1.043546,-0.01098803,-0.510797
620.4979,-0.7525284,-0.6052017,0.1014424,-1.043546,-0.01098803,-0.510797
620.5119,-0.7530562,-0.6052567,0.1015673,-1.043719,-0.01137555,-0.5108178
620.5255,-0.7539873,-0.6053268,0.1023124,-1.043872,-0.01262001,-0.5108842
620.5403,-0.7551613,-0.6054052,0.1031141,-1.044094,-0.01383882,-0.5109491
620.5549,-0.7551613,-0.6054052,0.1031141,-1.044094,-0.01383882,-0.5109491
620.5689,-0.756479,-0.605488,0.1039164,-1.044374,-0.01503374,-0.5110128
620.5845,-0.7578788,-0.6055728,0.1046988,-1.044698,-0.01620568,-0.5110752
620.5991,-0.7578788,-0.6055728,0.1046988,-1.044698,-0.01620568,-0.5110752
620.613,-0.7596667,-0.605672,0.1060889,-1.045,-0.01822089,-0.5111822
620.6284,-0.7616844,-0.6057788,0.1075224,-1.045369,-0.02019574,-0.511287
620.6429,-0.7638338,-0.6058893,0.1089437,-1.045795,-0.02213229,-0.5113898
620.6581,-0.7638338,-0.6058893,0.1089437,-1.045795,-0.02213229,-0.5113898
620.6721,-0.7663984,-0.606015,0.1109657,-1.046212,-0.0248991,-0.5115364
620.6873,-0.7692058,-0.6061484,0.1130181,-1.046706,-0.02761128,-0.5116799
620.702,-0.7721492,-0.6062853,0.1150437,-1.047265,-0.03027123,-0.5118207
620.7172,-0.7721492,-0.6062853,0.1150437,-1.047265,-0.03027123,-0.5118207
620.7305,-0.7751625,-0.6064233,0.1170226,-1.047871,-0.03288047,-0.5119587
620.7459,-0.7785493,-0.606575,0.1195838,-1.048458,-0.03631053,-0.5121398
620.7604,-0.7821495,-0.6067331,0.1221618,-1.049115,-0.03967328,-0.5123173
620.7763,-0.7821495,-0.6067331,0.1221618,-1.049115,-0.03967328,-0.5123173
620.7902,-0.785864,-0.606894,0.1247024,-1.04983,-0.04297142,-0.5124913
620.8046,-0.7896317,-0.6070553,0.1271865,-1.050588,-0.04620679,-0.5126618
620.8192,-0.7896317,-0.6070553,0.1271865,-1.050588,-0.04620679,-0.5126618
620.833,-0.7937592,-0.6072297,0.1302436,-1.051325,-0.05025506,-0.5128749
620.8482,-0.7980883,-0.6074101,0.1333074,-1.052129,-0.05422399,-0.5130837
620.8629,-0.8025211,-0.6075928,0.1363236,-1.052991,-0.0581167,-0.5132884
620.8775,-0.8025211,-0.6075928,0.1363236,-1.052991,-0.0581167,-0.5132884
620.8916,-0.8073418,-0.6077892,0.1399078,-1.053844,-0.06281307,-0.5135349
620.9069,-0.8123781,-0.6079918,0.1434872,-1.054774,-0.06741755,-0.5137765
620.9216,-0.8175235,-0.6081964,0.1470066,-1.055768,-0.07193375,-0.5140133
620.9363,-0.8175235,-0.6081964,0.1470066,-1.055768,-0.07193375,-0.5140133
620.9505,-0.8227123,-0.6084009,0.1504475,-1.056809,-0.07636422,-0.5142455
620.9657,-0.8282486,-0.6086178,0.154441,-1.057832,-0.08159378,-0.5145189
620.9801,-0.8339725,-0.60884,0.1584189,-1.058924,-0.08672103,-0.514787
620.9949,-0.8339725,-0.60884,0.1584189,-1.058924,-0.08672103,-0.514787
621.0089,-0.8397852,-0.6090636,0.1623286,-1.060074,-0.09174994,-0.5150497
621.0244,-0.8456256,-0.6092865,0.1661527,-1.061266,-0.09668341,-0.5153073
621.0389,-0.8456256,-0.6092865,0.1661527,-1.061266,-0.09668341,-0.5153073
621.055,-0.8518013,-0.6095216,0.1705227,-1.062439,-0.1024122,-0.5156057
621.0692,-0.8581541,-0.6097616,0.1748691,-1.063679,-0.1080286,-0.5158982
621.0827,-0.8645862,-0.6100026,0.1791398,-1.064974,-0.1135371,-0.5161849
621.0973,-0.8645862,-0.6100026,0.1791398,-1.064974,-0.1135371,-0.5161849
621.1113,-0.8713824,-0.6102565,0.1839527,-1.066264,-0.1198341,-0.5165119
621.1264,-0.8783706,-0.6105154,0.188732,-1.06763,-0.1260071,-0.5168323
621.1412,-0.8854443,-0.6107752,0.1934247,-1.069059,-0.1320614,-0.5171464
621.1558,-0.8854443,-0.6107752,0.1934247,-1.069059,-0.1320614,-0.5171464
621.1698,-0.8925382,-0.6110339,0.1980136,-1.070534,-0.1380005,-0.5174544
621.1852,-0.8999571,-0.6113042,0.203132,-1.071994,-0.1447276,-0.5178022
621.1997,-0.8999571,-0.6113042,0.203132,-1.071994,-0.1447276,-0.5178022
621.2151,-0.907541,-0.6115788,0.2082084,-1.073522,-0.151322,-0.5181432
621.2292,-0.9151914,-0.6118539,0.2131922,-1.075107,-0.1577892,-0.5184774
621.2437,-0.9228474,-0.6121275,0.2180672,-1.076733,-0.1641334,-0.518805
621.2585,-0.9228474,-0.6121275,0.2180672,-1.076733,-0.1641334,-0.518805
621.2725,-0.9308172,-0.6124126,0.223467,-1.078343,-0.171265,-0.5191722
621.2878,-0.9389426,-0.6127017,0.2288188,-1.08002,-0.178255,-0.5195321
621.3026,-0.947126,-0.612991,0.2340724,-1.081751,-0.1851098,-0.5198849
621.3173,-0.947126,-0.612991,0.2340724,-1.081751,-0.1851098,-0.5198849
621.3334,-0.955653,-0.6132924,0.239848,-1.083481,-0.1927467,-0.5202767
621.3472,-0.9643512,-0.6135979,0.2455669,-1.085286,-0.2002311,-0.5206608
621.3619,-0.9731144,-0.6139036,0.2511781,-1.087153,-0.2075701,-0.5210372
621.3754,-0.9731144,-0.6139036,0.2511781,-1.087153,-0.2075701,-0.5210372
621.3895,-0.9818774,-0.6142074,0.2566658,-1.089064,-0.2147687,-0.5214063
621.4048,-0.9909459,-0.6145223,0.2626648,-1.090966,-0.2227519,-0.5218141
621.4192,-0.9909459,-0.6145223,0.2626648,-1.090966,-0.2227519,-0.5218141
621.4332,-1.00016,-0.6148406,0.2686006,-1.092935,-0.2305751,-0.5222138
621.4484,-1.00942,-0.6151587,0.2744247,-1.094959,-0.2382459,-0.5226057
621.463,-1.018667,-0.6154748,0.280122,-1.097024,-0.2457696,-0.5229899
621.4774,-1.018667,-0.6154748,0.280122,-1.097024,-0.2457696,-0.5229899
621.4914,-1.028209,-0.6158018,0.2863274,-1.099079,-0.2540798,-0.5234126
621.5069,-1.037888,-0.6161321,0.2924653,-1.101199,-0.2622221,-0.5238269
621.5214,-1.047606,-0.6164621,0.2984874,-1.103373,-0.2702048,-0.524233
621.5359,-1.047606,-0.6164621,0.2984874,-1.103373,-0.2702048,-0.524233
621.5499,-1.05765,-0.6168036,0.3050156,-1.105552,-0.2789697,-0.5246773
621.5652,-1.067847,-0.6171485,0.3114687,-1.107805,-0.2875558,-0.5251127
621.5796,-1.067847,-0.6171485,0.3114687,-1.107805,-0.2875558,-0.5251127
621.5939,-1.078091,-0.6174929,0.3177976,-1.110118,-0.2959726,-0.5255395
621.6089,-1.088317,-0.6178349,0.3239878,-1.112475,-0.3042265,-0.525958
621.6235,-1.098831,-0.6181875,0.3306748,-1.114829,-0.3132674,-0.5264143
621.64,-1.109474,-0.6185431,0.3372819,-1.11725,-0.3221231,-0.5268616
621.6536,-1.109474,-0.6185431,0.3372819,-1.11725,-0.3221231,-0.5268616
621.6678,-1.120146,-0.6188978,0.3437625,-1.119725,-0.3308034,-0.5273001
621.6819,-1.130787,-0.61925,0.3501023,-1.122238,-0.3393151,-0.52773
621.6963,-1.130787,-0.61925,0.3501023,-1.122238,-0.3393151,-0.52773
621.7101,-1.141708,-0.6196128,0.3569367,-1.12475,-0.3486173,-0.5281976
621.7255,-1.152748,-0.6199784,0.3636885,-1.127327,-0.3577271,-0.5286559
621.74,-1.152748,-0.6199784,0.3636885,-1.127327,-0.3577271,-0.5286559
621.7542,-1.163812,-0.6203431,0.3703109,-1.129956,-0.366655,-0.5291052
621.7692,-1.175186,-0.620719,0.3774259,-1.132597,-0.3763692,-0.5295919
621.7839,-1.186697,-0.6210977,0.3844518,-1.135313,-0.3858803,-0.5300688
621.7984,-1.186697,-0.6210977,0.3844518,-1.135313,-0.3858803,-0.5300688
621.8122,-1.198239,-0.6214754,0.3913408,-1.138087,-0.3951996,-0.5305364
621.8278,-1.209748,-0.6218503,0.3980794,-1.140902,-0.4043354,-0.5309949
621.8422,-1.221529,-0.6222354,0.4053019,-1.143724,-0.4142635,-0.5314906
621.857,-1.221529,-0.6222354,0.4053019,-1.143724,-0.4142635,-0.5314906
621.8708,-1.233424,-0.622623,0.4124323,-1.146612,-0.4239834,-0.5319764
621.886,-1.245334,-0.6230094,0.4194246,-1.149552,-0.4335061,-0.5324526
621.9007,-1.257198,-0.6233929,0.4262654,-1.152528,-0.4428401,-0.5329196
621.9166,-1.257198,-0.6233929,0.4262654,-1.152528,-0.4428401,-0.5329196
621.9293,-1.258233,-0.6233647,0.4133139,-1.155985,-0.4216542,-0.5319455
621.9466,-1.252646,-0.6231118,0.3984376,-1.158147,-0.4016115,-0.5309961
621.9599,-1.252646,-0.6231118,0.3984376,-1.158147,-0.4016115,-0.5309961
621.9738,-1.243037,-0.6227259,0.3831748,-1.159107,-0.3824818,-0.5300682
621.9883,-1.231016,-0.6222605,0.3680992,-1.159111,-0.3640611,-0.52916
622.0026,-1.217579,-0.6217474,0.3533961,-1.15841,-0.3462207,-0.5282702
622.017,-1.217579,-0.6217474,0.3533961,-1.15841,-0.3462207,-0.5282702
622.0309,-1.203342,-0.6212065,0.3390985,-1.157216,-0.3288795,-0.5273983
622.0462,-1.188684,-0.6206506,0.325188,-1.155689,-0.311985,-0.5265438
622.0607,-1.173836,-0.6200879,0.3116342,-1.153944,-0.2955024,-0.5257062
622.0756,-1.173836,-0.6200879,0.3116342,-1.153944,-0.2955024,-0.5257062
622.0894,-1.158943,-0.6195238,0.298408,-1.152059,-0.2794074,-0.5248851
622.1048,-1.14409,-0.6189618,0.285486,-1.150085,-0.2636821,-0.5240803
622.1192,-1.14409,-0.6189618,0.285486,-1.150085,-0.2636821,-0.5240803
622.1334,-1.129331,-0.6184039,0.2728499,-1.148057,-0.2483126,-0.5232914
622.1486,-1.114698,-0.6178516,0.2604857,-1.145997,-0.2332872,-0.522518
622.1631,-1.100209,-0.6173057,0.2483825,-1.143918,-0.2185961,-0.5217599
622.1777,-1.100209,-0.6173057,0.2483825,-1.143918,-0.2185961,-0.5217599
622.1917,-1.085876,-0.6167666,0.2365316,-1.141828,-0.2042301,-0.5210168
622.2072,-1.071703,-0.6162347,0.2249254,-1.139733,-0.1901807,-0.5202883
622.2217,-1.057694,-0.6157101,0.2135577,-1.137635,-0.17644,-0.5195741
622.2364,-1.057694,-0.6157101,0.2135577,-1.137635,-0.17644,-0.5195741
622.2523,-1.043849,-0.6151928,0.2024226,-1.135537,-0.1630004,-0.518874
622.2665,-1.03017,-0.6146827,0.191515,-1.133438,-0.1498545,-0.5181877
622.2809,-1.016653,-0.61418,0.1808297,-1.131339,-0.1369951,-0.5175149
622.2944,-1.016653,-0.61418,0.1808297,-1.131339,-0.1369951,-0.5175149
622.3083,-1.003299,-0.6136844,0.170362,-1.129241,-0.1244153,-0.5168553
622.3235,-0.9901059,-0.6131958,0.1601075,-1.127143,-0.1121084,-0.5162087
622.338,-0.9901059,-0.6131958,0.1601075,-1.127143,-0.1121084,-0.5162087
622.3521,-0.9770715,-0.6127143,0.1500616,-1.125045,-0.1000678,-0.5155748
622.3674,-0.9641944,-0.6122397,0.1402201,-1.122946,-0.08828714,-0.5149534
622.382,-0.9514726,-0.6117718,0.1305788,-1.120848,-0.07676013,-0.5143442
622.3966,-0.9514726,-0.6117718,0.1305788,-1.120848,-0.07676013,-0.5143442
622.4106,-0.9389045,-0.6113107,0.1211337,-1.118749,-0.06548072,-0.5137469
622.4259,-0.926488,-0.6108562,0.1118807,-1.11665,-0.05444303,-0.5131613
622.4406,-0.9142216,-0.6104082,0.1028161,-1.114551,-0.04364127,-0.5125872
622.4552,-0.9142216,-0.6104082,0.1028161,-1.114551,-0.04364127,-0.5125872
622.4691,-0.9021032,-0.6099667,0.09393581,-1.11245,-0.03306984,-0.5120245
622.4844,-0.8901312,-0.6095315,0.08523631,-1.11035,-0.02272328,-0.5114727
622.499,-0.8901312,-0.6095315,0.08523631,-1.11035,-0.02272328,-0.5114727
622.5128,-0.8783038,-0.6091025,0.0767139,-1.108249,-0.01259625,-0.5109318
622.5282,-0.8666191,-0.6086797,0.06836503,-1.106147,-0.002683572,-0.5104015
622.5449,-0.8550755,-0.6082628,0.0601862,-1.104045,0.007019807,-0.5098816
622.5583,-0.8550755,-0.6082628,0.0601862,-1.104045,0.007019807,-0.5098816
622.5724,-0.8436712,-0.607852,0.05217399,-1.101943,0.01651881,-0.5093718
622.5867,-0.8324046,-0.607447,0.04432508,-1.099841,0.02581822,-0.5088721
622.6013,-0.821274,-0.6070479,0.03663617,-1.097739,0.03492272,-0.5083821
622.6157,-0.821274,-0.6070479,0.03663617,-1.097739,0.03492272,-0.5083821
622.6298,-0.8102778,-0.6066544,0.02910407,-1.095638,0.04383686,-0.5079018
622.6449,-0.7994142,-0.6062666,0.02172565,-1.093537,0.05256507,-0.5074309
622.6595,-0.7994142,-0.6062666,0.02172565,-1.093537,0.05256507,-0.5074309
622.6734,-0.7886817,-0.6058843,0.01449783,-1.091437,0.06111167,-0.5069692
622.6888,-0.7780788,-0.6055074,0.007417617,-1.089337,0.06948087,-0.5065165
622.7036,-0.7676038,-0.6051359,0.0004820651,-1.087239,0.07767677,-0.5060727
622.718,-0.7676038,-0.6051359,0.0004820651,-1.087239,0.07767677,-0.5060727
622.7321,-0.7572551,-0.6047697,-0.006311703,-1.085143,0.08570336,-0.5056376
622.7473,-0.7470313,-0.6044087,-0.01296651,-1.083048,0.09356453,-0.505211
622.7618,-0.7369308,-0.6040529,-0.01948511,-1.080955,0.1012641,-0.5047927
622.7766,-0.7369308,-0.6040529,-0.01948511,-1.080955,0.1012641,-0.5047927
622.7908,-0.7269521,-0.6037021,-0.02587021,-1.078864,0.1088057,-0.5043827
622.806,-0.7170938,-0.6033564,-0.03212445,-1.076777,0.116193,-0.5039807
622.8204,-0.7073544,-0.6030155,-0.03825043,-1.074691,0.1234294,-0.5035865
622.8353,-0.7073544,-0.6030155,-0.03825043,-1.074691,0.1234294,-0.5035865
622.8512,-0.6977325,-0.6026795,-0.04425068,-1.07261,0.1305185,-0.5032001
622.8653,-0.6882266,-0.6023483,-0.05012769,-1.070531,0.1374634,-0.5028212
622.8788,-0.6882266,-0.6023483,-0.05012769,-1.070531,0.1374634,-0.5028212
622.8925,-0.6788353,-0.6020218,-0.05588388,-1.068456,0.1442676,-0.5024498
622.9078,-0.6695572,-0.6016999,-0.06152163,-1.066386,0.1509341,-0.5020856
622.9224,-0.660391,-0.6013826,-0.06704329,-1.064319,0.157466,-0.5017285
622.9372,-0.660391,-0.6013826,-0.06704329,-1.064319,0.157466,-0.5017285
622.951,-0.6513354,-0.6010697,-0.07245114,-1.062257,0.1638663,-0.5013784
622.9662,-0.6423889,-0.6007614,-0.07774741,-1.0602,0.170138,-0.5010352
622.9807,-0.6335502,-0.6004574,-0.0829343,-1.058148,0.176284,-0.5006987
622.9954,-0.6335502,-0.6004574,-0.0829343,-1.058148,0.176284,-0.5006987
623.0093,-0.6248181,-0.6001577,-0.08801395,-1.056102,0.1823069,-0.5003688
623.0249,-0.6161912,-0.5998622,-0.09298845,-1.054061,0.1882096,-0.5000453
623.0395,-0.6161912,-0.5998622,-0.09298845,-1.054061,0.1882096,-0.5000453
623.0535,-0.6076683,-0.5995709,-0.09785989,-1.052026,0.1939947,-0.4997281
623.0687,-0.5992482,-0.5992838,-0.1026303,-1.049998,0.1996647,-0.4994172
623.0834,-0.5909294,-0.5990008,-0.1073016,-1.047976,0.2052222,-0.4991123
623.0977,-0.5909294,-0.5990008,-0.1073016,-1.047976,0.2052222,-0.4991123
623.1116,-0.582711,-0.5987217,-0.1118757,-1.045961,0.2106697,-0.4988135
623.1271,-0.5745916,-0.5984465,-0.1163546,-1.043952,0.2160095,-0.4985204
623.1437,-0.56657,-0.5981753,-0.1207401,-1.041951,0.2212439,-0.4982331
623.1595,-0.56657,-0.5981753,-0.1207401,-1.041951,0.2212439,-0.4982331
623.1711,-0.558645,-0.5979079,-0.125034,-1.039958,0.2263754,-0.4979514
623.1857,-0.5508155,-0.5976443,-0.1292382,-1.037972,0.231406,-0.4976752
623.2,-0.5508155,-0.5976443,-0.1292382,-1.037972,0.231406,-0.4976752
623.2137,-0.5430804,-0.5973844,-0.1333543,-1.035994,0.236338,-0.4974044
623.2288,-0.5354384,-0.5971282,-0.1373841,-1.034025,0.2411735,-0.4971389
623.2434,-0.5278885,-0.5968755,-0.1413292,-1.032063,0.2459146,-0.4968787
623.2581,-0.5278885,-0.5968755,-0.1413292,-1.032063,0.2459146,-0.4968787
623.272,-0.5204296,-0.5966265,-0.1451914,-1.030111,0.2505632,-0.4966235
623.2872,-0.5130605,-0.5963809,-0.1489721,-1.028167,0.2551213,-0.4963733
623.3018,-0.5057801,-0.5961389,-0.152673,-1.026232,0.2595909,-0.496128
623.3164,-0.5057801,-0.5961389,-0.152673,-1.026232,0.2595909,-0.496128
623.3302,-0.4985874,-0.5959002,-0.1562957,-1.024306,0.2639739,-0.4958875
623.3456,-0.4914814,-0.5956649,-0.1598416,-1.02239,0.268272,-0.4956517
623.3604,-0.4844609,-0.5954329,-0.1633123,-1.020483,0.2724871,-0.4954205
623.3749,-0.4844609,-0.5954329,-0.1633123,-1.020483,0.2724871,-0.4954205
623.3887,-0.4775249,-0.5952042,-0.1667091,-1.018586,0.2766209,-0.4951938
623.4041,-0.4706725,-0.5949787,-0.1700336,-1.016699,0.2806751,-0.4949716
623.4189,-0.4706725,-0.5949787,-0.1700336,-1.016699,0.2806751,-0.4949716
623.4329,-0.4639026,-0.5947564,-0.1732872,-1.014822,0.2846514,-0.4947538
623.4501,-0.4572142,-0.5945372,-0.1764711,-1.012955,0.2885514,-0.4945402
623.4636,-0.4506064,-0.5943211,-0.1795868,-1.011098,0.2923767,-0.4943308
623.4782,-0.4506064,-0.5943211,-0.1795868,-1.011098,0.2923767,-0.4943308
623.491,-0.4440781,-0.594108,-0.1826355,-1.009252,0.2961288,-0.4941255
623.5063,-0.4376284,-0.5938979,-0.1856186,-1.007416,0.2998093,-0.4939241
623.5209,-0.4312563,-0.5936908,-0.1885373,-1.005592,0.3034197,-0.4937268
623.5355,-0.4312563,-0.5936908,-0.1885373,-1.005592,0.3034197,-0.4937268
