JMolnar6/NonAnthroHands_User_Study/HandsLoggerWithURDF/tempdata/files/Reachy_PID0_JointMotion_gesture_2_7.csv
Time,r_shoulder,r_shoulder_x,r_upper_arm,r_forearm,r_wrist,r_wrist2hand,
104.2765,0.04452434,-3.138451E-08,NaN,-1.899098,-1.382606E-07,NaN,0.4857743,5.020276E-08,NaN,-2.177932,3.030538E-06,-0.3513168,-1.913948E-08,NaN,NaN,-0.0199638,2.421435E-10,5.285017E-07,-1.160123E-07,1.425041E-08,-2.861022E-08
104.2912,0.044519,-3.138327E-08,NaN,-1.90016,-1.382607E-07,NaN,0.485712,5.014239E-08,NaN,-2.178131,3.031301E-06,-0.3515172,-1.907661E-08,NaN,NaN,-0.01996423,2.328303E-10,5.225412E-07,-1.160112E-07,1.425041E-08,-2.622604E-08
104.3057,0.0445113,-3.138203E-08,NaN,-1.901685,-1.382607E-07,NaN,0.4856936,5.008405E-08,NaN,-2.178391,3.032056E-06,-0.3517009,-1.901578E-08,NaN,NaN,-0.01996457,2.328303E-10,5.189649E-07,-1.160102E-07,1.425041E-08,-2.861022E-08
104.3205,0.04450374,-3.138079E-08,NaN,-1.903489,-1.382607E-07,NaN,0.4857017,5.002702E-08,NaN,-2.17865,3.032819E-06,-0.3518464,-1.895625E-08,NaN,NaN,-0.01996479,2.23517E-10,5.213491E-07,-1.160091E-07,1.66346E-08,-2.622604E-08
104.335,0.04450374,-3.138079E-08,NaN,-1.903489,-1.382607E-07,NaN,0.4857017,5.002702E-08,NaN,-2.17865,3.032819E-06,-0.3518464,-1.895625E-08,NaN,NaN,-0.01996479,2.23517E-10,5.213491E-07,-1.160091E-07,1.66346E-08,-2.622604E-08
104.3492,0.04449722,-3.137955E-08,NaN,-1.905456,-1.382607E-07,NaN,0.4857186,4.997127E-08,NaN,-2.178888,3.033583E-06,-0.3519647,-1.8898E-08,NaN,NaN,-0.01996496,2.142038E-10,5.177728E-07,-1.160081E-07,1.782669E-08,-2.861022E-08
104.3647,0.044499,-3.137831E-08,NaN,-1.906754,-1.382607E-07,NaN,0.4857871,4.991747E-08,NaN,-2.17888,3.034347E-06,-0.3518425,-1.88417E-08,NaN,NaN,-0.01996461,2.048906E-10,5.237333E-07,-1.16007E-07,1.66346E-08,-2.622604E-08
104.3793,0.044499,-3.137831E-08,NaN,-1.906754,-1.382607E-07,NaN,0.4857871,4.991747E-08,NaN,-2.17888,3.034347E-06,-0.3518425,-1.88417E-08,NaN,NaN,-0.01996461,2.048906E-10,5.237333E-07,-1.16007E-07,1.66346E-08,-2.622604E-08
104.3933,0.04450383,-3.137707E-08,NaN,-1.907633,-1.382608E-07,NaN,0.4858092,4.986488E-08,NaN,-2.178792,3.035101E-06,-0.3517264,-1.878662E-08,NaN,NaN,-0.01996436,2.048906E-10,5.285016E-07,-1.16006E-07,1.782669E-08,-2.861022E-08
104.4091,0.04450962,-3.137583E-08,NaN,-1.90825,-1.382608E-07,NaN,0.4858013,4.981277E-08,NaN,-2.178691,3.035865E-06,-0.351642,-1.873201E-08,NaN,NaN,-0.0199642,1.955773E-10,5.320779E-07,-1.160049E-07,1.66346E-08,-2.622604E-08
104.4233,0.04451538,-3.137459E-08,NaN,-1.908703,-1.382608E-07,NaN,0.4857819,4.976184E-08,NaN,-2.178597,3.036629E-06,-0.35158,-1.867859E-08,NaN,NaN,-0.0199641,1.862641E-10,5.332701E-07,-1.160039E-07,1.425041E-08,-2.861022E-08
104.4379,0.04451538,-3.137459E-08,NaN,-1.908703,-1.382608E-07,NaN,0.4857819,4.976184E-08,NaN,-2.178597,3.036629E-06,-0.35158,-1.867859E-08,NaN,NaN,-0.0199641,1.862641E-10,5.332701E-07,-1.160039E-07,1.425041E-08,-2.861022E-08
104.4517,0.04453056,-3.137335E-08,NaN,-1.908291,-1.382608E-07,NaN,0.4858093,4.971206E-08,NaN,-2.178294,3.037393E-06,-0.3513091,-1.862631E-08,NaN,NaN,-0.01996356,1.769509E-10,5.380384E-07,-1.160028E-07,1.186623E-08,-2.622604E-08
104.4673,0.04454874,-3.137211E-08,NaN,-1.907348,-1.382608E-07,NaN,0.4857933,4.966412E-08,NaN,-2.177942,3.038152E-06,-0.3510634,-1.857588E-08,NaN,NaN,-0.01996314,1.722943E-10,5.463831E-07,-1.160018E-07,4.71367E-09,-2.861022E-08
104.4828,0.04456697,-3.137087E-08,NaN,-1.906082,-1.382608E-07,NaN,0.4857522,4.961728E-08,NaN,-2.177602,3.038911E-06,-0.3508612,-1.852655E-08,NaN,NaN,-0.01996282,1.676377E-10,5.511515E-07,-1.160008E-07,-1.246794E-09,-2.622604E-08
104.4975,0.04456697,-3.137087E-08,NaN,-1.906082,-1.382608E-07,NaN,0.4857522,4.961728E-08,NaN,-2.177602,3.038911E-06,-0.3508612,-1.852655E-08,NaN,NaN,-0.01996282,1.676377E-10,5.511515E-07,-1.160008E-07,-1.246794E-09,-2.622604E-08
104.5107,0.04459403,-3.136963E-08,NaN,-1.90386,-1.382608E-07,NaN,0.4857527,4.957152E-08,NaN,-2.177066,3.03967E-06,-0.3504681,-1.847828E-08,NaN,NaN,-0.01996211,1.629811E-10,5.594961E-07,-1.159998E-07,7.097856E-09,-2.861022E-08
104.5276,0.04462271,-3.136839E-08,NaN,-1.901058,-1.382609E-07,NaN,0.48571,4.95268E-08,NaN,-2.176497,3.040433E-06,-0.3501125,-1.843108E-08,NaN,NaN,-0.01996153,1.536678E-10,5.678408E-07,-1.159988E-07,8.289949E-09,-2.622604E-08
104.5407,0.04465004,-3.136715E-08,NaN,-1.897912,-1.382609E-07,NaN,0.4856442,4.948383E-08,NaN,-2.175953,3.041192E-06,-0.3498088,-1.838561E-08,NaN,NaN,-0.01996109,1.490112E-10,5.726092E-07,-1.159977E-07,5.905763E-09,-2.861022E-08
104.5552,0.04465004,-3.136715E-08,NaN,-1.897912,-1.382609E-07,NaN,0.4856442,4.948383E-08,NaN,-2.175953,3.041192E-06,-0.3498088,-1.838561E-08,NaN,NaN,-0.01996109,1.490112E-10,5.726092E-07,-1.159977E-07,5.905763E-09,-2.861022E-08
104.5696,0.04467518,-3.136591E-08,NaN,-1.894568,-1.382609E-07,NaN,0.4855735,4.943329E-08,NaN,-2.175449,3.041951E-06,-0.3495417,-1.833257E-08,NaN,NaN,-0.01996071,1.490112E-10,5.773775E-07,-1.159982E-07,1.305832E-08,-2.622604E-08
104.5847,0.04470811,-3.136467E-08,NaN,-1.890354,-1.382613E-07,NaN,0.4855528,4.940343E-08,NaN,-2.174757,3.04271E-06,-0.3490795,-1.830022E-08,NaN,NaN,-0.01995992,1.490112E-10,5.83338E-07,-1.15999E-07,1.425041E-08,-2.861022E-08
104.5994,0.04470811,-3.136467E-08,NaN,-1.890354,-1.382613E-07,NaN,0.4855528,4.940343E-08,NaN,-2.174757,3.04271E-06,-0.3490795,-1.830022E-08,NaN,NaN,-0.01995992,1.490112E-10,5.83338E-07,-1.15999E-07,1.425041E-08,-2.861022E-08
104.6135,0.04474155,-3.136343E-08,NaN,-1.885625,-1.382619E-07,NaN,0.4854931,4.938476E-08,NaN,-2.174037,3.043465E-06,-0.3486528,-1.827907E-08,NaN,NaN,-0.01995925,1.536678E-10,5.892985E-07,-1.16E-07,1.305832E-08,-2.622604E-08
104.629,0.04477283,-3.136219E-08,NaN,-1.880598,-1.382627E-07,NaN,0.4854117,4.93729E-08,NaN,-2.173343,3.044228E-06,-0.3482777,-1.826472E-08,NaN,NaN,-0.0199587,1.490112E-10,5.964511E-07,-1.16001E-07,1.782669E-08,-2.861022E-08
104.6436,0.0448014,-3.136095E-08,NaN,-1.87541,-1.382635E-07,NaN,0.4853257,4.936491E-08,NaN,-2.172689,3.044983E-06,-0.3479404,-1.825425E-08,NaN,NaN,-0.01995824,1.536678E-10,6.036036E-07,-1.160021E-07,1.901879E-08,-2.622604E-08
104.6585,0.0448014,-3.136095E-08,NaN,-1.87541,-1.382635E-07,NaN,0.4853257,4.936491E-08,NaN,-2.172689,3.044983E-06,-0.3479404,-1.825425E-08,NaN,NaN,-0.01995824,1.536678E-10,6.036036E-07,-1.160021E-07,1.901879E-08,-2.622604E-08
104.6723,0.04483757,-3.135971E-08,NaN,-1.869385,-1.38264E-07,NaN,0.485288,4.932723E-08,NaN,-2.17185,3.045737E-06,-0.3474129,-1.821409E-08,NaN,NaN,-0.01995736,1.583244E-10,6.155245E-07,-1.160042E-07,1.66346E-08,-2.861022E-08
104.6877,0.04487354,-3.135847E-08,NaN,-1.862872,-1.382645E-07,NaN,0.4852115,4.929603E-08,NaN,-2.170985,3.046492E-06,-0.3469238,-1.81804E-08,NaN,NaN,-0.01995662,1.62981E-10,6.238692E-07,-1.160063E-07,1.186623E-08,-2.622604E-08
104.7023,0.0449067,-3.135723E-08,NaN,-1.856087,-1.382651E-07,NaN,0.4851139,4.926837E-08,NaN,-2.170148,3.047241E-06,-0.3464888,-1.815027E-08,NaN,NaN,-0.019956,1.722943E-10,6.345981E-07,-1.160085E-07,1.186623E-08,-2.861022E-08
104.7171,0.0449067,-3.135723E-08,NaN,-1.856087,-1.382651E-07,NaN,0.4851139,4.926837E-08,NaN,-2.170148,3.047241E-06,-0.3464888,-1.815027E-08,NaN,NaN,-0.019956,1.722943E-10,6.345981E-07,-1.160085E-07,1.186623E-08,-2.861022E-08
104.7312,0.0449469,-3.135599E-08,NaN,-1.848403,-1.382658E-07,NaN,0.4850563,4.92414E-08,NaN,-2.169132,3.047996E-06,-0.3458801,-1.812082E-08,NaN,NaN,-0.01995502,1.769509E-10,6.500953E-07,-1.160107E-07,1.305832E-08,-2.622604E-08
104.7473,0.04498561,-3.135475E-08,NaN,-1.840201,-1.382664E-07,NaN,0.4849586,4.92158E-08,NaN,-2.168097,3.04875E-06,-0.3453201,-1.809275E-08,NaN,NaN,-0.01995419,1.816075E-10,6.59632E-07,-1.160129E-07,1.067414E-08,-2.861022E-08
104.7619,0.04502039,-3.135351E-08,NaN,-1.831717,-1.382671E-07,NaN,0.4848411,4.919086E-08,NaN,-2.167102,3.049505E-06,-0.3448206,-1.806534E-08,NaN,NaN,-0.01995351,1.862641E-10,6.679767E-07,-1.160152E-07,9.482044E-09,-2.622604E-08
104.7758,0.04502039,-3.135351E-08,NaN,-1.831717,-1.382671E-07,NaN,0.4848411,4.919086E-08,NaN,-2.167102,3.049505E-06,-0.3448206,-1.806534E-08,NaN,NaN,-0.01995351,1.862641E-10,6.679767E-07,-1.160152E-07,9.482044E-09,-2.622604E-08
104.7897,0.0450512,-3.135227E-08,NaN,-1.823097,-1.382678E-07,NaN,0.4847207,4.916657E-08,NaN,-2.166157,3.050259E-06,-0.3443661,-1.803857E-08,NaN,NaN,-0.01995291,1.909207E-10,6.751292E-07,-1.160174E-07,9.482044E-09,-2.861022E-08
104.805,0.04508917,-3.135103E-08,NaN,-1.81367,-1.382685E-07,NaN,0.4846461,4.91429E-08,NaN,-2.165037,3.051013E-06,-0.3437342,-1.801243E-08,NaN,NaN,-0.01995193,1.955773E-10,6.882423E-07,-1.160196E-07,7.097859E-09,-2.622604E-08
104.8195,0.04508917,-3.135103E-08,NaN,-1.81367,-1.382685E-07,NaN,0.4846461,4.91429E-08,NaN,-2.165037,3.051013E-06,-0.3437342,-1.801243E-08,NaN,NaN,-0.01995193,1.955773E-10,6.882423E-07,-1.160196E-07,7.097859E-09,-2.622604E-08
104.8336,0.0451254,-3.134979E-08,NaN,-1.803789,-1.382691E-07,NaN,0.4845351,4.911986E-08,NaN,-2.1639,3.051768E-06,-0.343148,-1.798692E-08,NaN,NaN,-0.01995109,2.002339E-10,6.965869E-07,-1.160218E-07,9.482044E-09,-2.861022E-08
104.8489,0.04515753,-3.134855E-08,NaN,-1.793674,-1.382698E-07,NaN,0.4844057,4.909672E-08,NaN,-2.162801,3.052522E-06,-0.3426208,-1.796131E-08,NaN,NaN,-0.01995039,2.048905E-10,7.073158E-07,-1.16024E-07,7.097859E-09,-2.622604E-08
104.8637,0.04518572,-3.134731E-08,NaN,-1.783459,-1.382705E-07,NaN,0.4842737,4.90742E-08,NaN,-2.161752,3.053277E-06,-0.3421385,-1.793632E-08,NaN,NaN,-0.01994977,2.095471E-10,7.132763E-07,-1.160262E-07,9.482044E-09,-2.861022E-08
104.8785,0.04518572,-3.134731E-08,NaN,-1.783459,-1.382705E-07,NaN,0.4842737,4.90742E-08,NaN,-2.161752,3.053277E-06,-0.3421385,-1.793632E-08,NaN,NaN,-0.01994977,2.095471E-10,7.132763E-07,-1.160262E-07,9.482044E-09,-2.861022E-08
104.8924,0.04522138,-3.134607E-08,NaN,-1.772467,-1.382712E-07,NaN,0.4841847,4.905156E-08,NaN,-2.160528,3.054031E-06,-0.3414842,-1.791122E-08,NaN,NaN,-0.01994879,2.142038E-10,7.263893E-07,-1.160284E-07,1.186623E-08,-2.622604E-08
104.908,0.04525486,-3.134483E-08,NaN,-1.761047,-1.382719E-07,NaN,0.4840601,4.902954E-08,NaN,-2.159289,3.054786E-06,-0.3408777,-1.788672E-08,NaN,NaN,-0.01994796,2.188604E-10,7.34734E-07,-1.160305E-07,1.425042E-08,-2.861022E-08
104.9223,0.04528389,-3.134359E-08,NaN,-1.749415,-1.382725E-07,NaN,0.4839181,4.90074E-08,NaN,-2.158089,3.05554E-06,-0.3403313,-1.786211E-08,NaN,NaN,-0.01994726,2.23517E-10,7.442707E-07,-1.160327E-07,1.067414E-08,-2.622604E-08
104.937,0.04528389,-3.134359E-08,NaN,-1.749415,-1.382725E-07,NaN,0.4839181,4.90074E-08,NaN,-2.158089,3.05554E-06,-0.3403313,-1.786211E-08,NaN,NaN,-0.01994726,2.23517E-10,7.442707E-07,-1.160327E-07,1.067414E-08,-2.622604E-08
104.951,0.04531956,-3.134235E-08,NaN,-1.736943,-1.382732E-07,NaN,0.4838111,4.898514E-08,NaN,-2.156718,3.056294E-06,-0.3396293,-1.783739E-08,NaN,NaN,-0.01994623,2.281736E-10,7.538075E-07,-1.160349E-07,8.289952E-09,-2.861022E-08
104.9664,0.04535159,-3.134111E-08,NaN,-1.724011,-1.382743E-07,NaN,0.4836682,4.899487E-08,NaN,-2.15534,3.057058E-06,-0.3389842,-1.784465E-08,NaN,NaN,-0.01994537,2.23517E-10,7.704967E-07,-1.160361E-07,4.713673E-09,-2.622604E-08
104.9811,0.04537809,-3.133987E-08,NaN,-1.710854,-1.382749E-07,NaN,0.4835095,4.906868E-08,NaN,-2.15401,3.057822E-06,-0.3384047,-1.791599E-08,NaN,NaN,-0.01994465,2.188604E-10,7.764572E-07,-1.160382E-07,3.52158E-09,-2.861022E-08
104.997,0.04537809,-3.133987E-08,NaN,-1.710854,-1.382749E-07,NaN,0.4835095,4.906868E-08,NaN,-2.15401,3.057822E-06,-0.3384047,-1.791599E-08,NaN,NaN,-0.01994465,2.188604E-10,7.764572E-07,-1.160382E-07,3.52158E-09,-2.861022E-08
105.0097,0.0454011,-3.133863E-08,NaN,-1.697618,-1.382755E-07,NaN,0.4833491,4.9144E-08,NaN,-2.152738,3.058586E-06,-0.3378754,-1.798885E-08,NaN,NaN,-0.01994404,2.142038E-10,7.85994E-07,-1.160403E-07,-1.246791E-09,-2.622604E-08
105.0261,0.04543033,-3.133739E-08,NaN,-1.68363,-1.382761E-07,NaN,0.4832292,4.92187E-08,NaN,-2.151302,3.05934E-06,-0.337187,-1.806108E-08,NaN,NaN,-0.01994308,2.188604E-10,7.99107E-07,-1.160425E-07,-4.82307E-09,-2.861022E-08
105.0396,0.04543033,-3.133739E-08,NaN,-1.68363,-1.382761E-07,NaN,0.4832292,4.92187E-08,NaN,-2.151302,3.05934E-06,-0.337187,-1.806108E-08,NaN,NaN,-0.01994308,2.188604E-10,7.99107E-07,-1.160425E-07,-4.82307E-09,-2.861022E-08
105.0536,0.04545709,-3.133615E-08,NaN,-1.669243,-1.382767E-07,NaN,0.4830758,4.92921E-08,NaN,-2.149857,3.060104E-06,-0.3365525,-1.813202E-08,NaN,NaN,-0.01994227,2.142038E-10,8.086437E-07,-1.160447E-07,-7.207256E-09,-2.622604E-08
105.069,0.04548209,-3.133491E-08,NaN,-1.654677,-1.382774E-07,NaN,0.4829045,4.936423E-08,NaN,-2.148457,3.060858E-06,-0.3359815,-1.820167E-08,NaN,NaN,-0.0199416,2.188604E-10,8.146042E-07,-1.160469E-07,-9.591441E-09,-2.861022E-08
105.0835,0.04550547,-3.133367E-08,NaN,-1.640064,-1.38278E-07,NaN,0.4827303,4.94351E-08,NaN,-2.147116,3.061622E-06,-0.3354601,-1.827008E-08,NaN,NaN,-0.01994102,2.142038E-10,8.265251E-07,-1.16049E-07,-1.55519E-08,-2.622604E-08
105.0985,0.04550547,-3.133367E-08,NaN,-1.640064,-1.38278E-07,NaN,0.4827303,4.94351E-08,NaN,-2.147116,3.061622E-06,-0.3354601,-1.827008E-08,NaN,NaN,-0.01994102,2.142038E-10,8.265251E-07,-1.16049E-07,-1.55519E-08,-2.622604E-08
105.1122,0.04553313,-3.133243E-08,NaN,-1.624727,-1.382787E-07,NaN,0.4825965,4.950405E-08,NaN,-2.14561,3.062386E-06,-0.3347849,-1.833655E-08,NaN,NaN,-0.01994012,2.095471E-10,8.384461E-07,-1.160512E-07,-1.316772E-08,-2.861022E-08
105.1279,0.04556048,-3.133119E-08,NaN,-1.609015,-1.382793E-07,NaN,0.4824274,4.957182E-08,NaN,-2.144096,3.063135E-06,-0.3341646,-1.840186E-08,NaN,NaN,-0.01993938,2.142038E-10,8.467907E-07,-1.160533E-07,-9.591441E-09,-2.622604E-08
105.1426,0.04558639,-3.132995E-08,NaN,-1.593142,-1.382799E-07,NaN,0.4822412,4.963773E-08,NaN,-2.142628,3.063894E-06,-0.333608,-1.84653E-08,NaN,NaN,-0.01993878,2.095471E-10,8.551354E-07,-1.160555E-07,-1.078353E-08,-2.861022E-08
105.1573,0.04558639,-3.132995E-08,NaN,-1.593142,-1.382799E-07,NaN,0.4822412,4.963773E-08,NaN,-2.142628,3.063894E-06,-0.333608,-1.84653E-08,NaN,NaN,-0.01993878,2.095471E-10,8.551354E-07,-1.160555E-07,-1.078353E-08,-2.861022E-08
105.1713,0.04561643,-3.132871E-08,NaN,-1.57648,-1.382806E-07,NaN,0.4820872,4.970252E-08,NaN,-2.140999,3.064653E-06,-0.3329135,-1.852762E-08,NaN,NaN,-0.01993789,2.048905E-10,8.646721E-07,-1.160576E-07,-7.207254E-09,-2.622604E-08
105.1866,0.04564564,-3.132747E-08,NaN,-1.559409,-1.382812E-07,NaN,0.4818974,4.976549E-08,NaN,-2.13937,3.065403E-06,-0.3322816,-1.858812E-08,NaN,NaN,-0.01993717,2.095471E-10,8.718247E-07,-1.160598E-07,-4.823069E-09,-2.861022E-08
105.2013,0.04567353,-3.132623E-08,NaN,-1.542164,-1.382818E-07,NaN,0.481691,4.982739E-08,NaN,-2.137795,3.066162E-06,-0.3317178,-1.864756E-08,NaN,NaN,-0.01993659,2.048905E-10,8.813614E-07,-1.160619E-07,-4.823069E-09,-2.622604E-08
105.2158,0.04567353,-3.132623E-08,NaN,-1.542164,-1.382818E-07,NaN,0.481691,4.982739E-08,NaN,-2.137795,3.066162E-06,-0.3317178,-1.864756E-08,NaN,NaN,-0.01993659,2.048905E-10,8.813614E-07,-1.160619E-07,-4.823069E-09,-2.622604E-08
105.23,0.0457003,-3.132499E-08,NaN,-1.524889,-1.382825E-07,NaN,0.4814834,4.988754E-08,NaN,-2.136286,3.066921E-06,-0.3312066,-1.870524E-08,NaN,NaN,-0.01993611,2.002339E-10,8.861298E-07,-1.16064E-07,-6.015162E-09,-2.861022E-08
105.2453,0.04573133,-3.132375E-08,NaN,-1.506911,-1.382831E-07,NaN,0.4813124,4.994597E-08,NaN,-2.134622,3.06768E-06,-0.3305549,-1.87612E-08,NaN,NaN,-0.01993533,1.955773E-10,8.944745E-07,-1.160661E-07,-4.823069E-09,-2.622604E-08
105.2601,0.04576158,-3.132251E-08,NaN,-1.488582,-1.382842E-07,NaN,0.4811088,5.001753E-08,NaN,-2.132956,3.068444E-06,-0.3299613,-1.88303E-08,NaN,NaN,-0.01993471,1.816075E-10,9.004349E-07,-1.160642E-07,-6.015162E-09,-2.861022E-08
105.2747,0.04576158,-3.132251E-08,NaN,-1.488582,-1.382842E-07,NaN,0.4811088,5.001753E-08,NaN,-2.132956,3.068444E-06,-0.3299613,-1.88303E-08,NaN,NaN,-0.01993471,1.816075E-10,9.004349E-07,-1.160642E-07,-6.015162E-09,-2.861022E-08
105.2907,0.04579052,-3.132127E-08,NaN,-1.470121,-1.382845E-07,NaN,0.4808901,5.00418E-08,NaN,-2.131341,3.069193E-06,-0.3294324,-1.88521E-08,NaN,NaN,-0.01993423,1.816075E-10,9.052033E-07,-1.160631E-07,-3.630976E-09,-2.622604E-08
105.3049,0.04581831,-3.132003E-08,NaN,-1.451661,-1.382846E-07,NaN,0.4806702,5.006229E-08,NaN,-2.129792,3.069957E-06,-0.3289542,-1.887011E-08,NaN,NaN,-0.01993383,1.722942E-10,9.075875E-07,-1.16062E-07,-2.438883E-09,-2.861022E-08
105.3186,0.04581831,-3.132003E-08,NaN,-1.451661,-1.382846E-07,NaN,0.4806702,5.006229E-08,NaN,-2.129792,3.069957E-06,-0.3289542,-1.887011E-08,NaN,NaN,-0.01993383,1.722942E-10,9.075875E-07,-1.16062E-07,-2.438883E-09,-2.861022E-08
105.3326,0.04584517,-3.131879E-08,NaN,-1.433283,-1.382846E-07,NaN,0.4804547,5.007977E-08,NaN,-2.128306,3.070712E-06,-0.3285161,-1.888511E-08,NaN,NaN,-0.01993351,1.722942E-10,9.111638E-07,-1.160609E-07,-2.438883E-09,-2.622604E-08
105.3477,0.04587122,-3.131755E-08,NaN,-1.415038,-1.382847E-07,NaN,0.4802447,5.009499E-08,NaN,-2.126876,3.071475E-06,-0.3281114,-1.889784E-08,NaN,NaN,-0.01993324,1.62981E-10,9.13548E-07,-1.160597E-07,-1.24679E-09,-2.861022E-08
105.3625,0.04589657,-3.131631E-08,NaN,-1.396957,-1.382846E-07,NaN,0.48004,5.010939E-08,NaN,-2.125497,3.07223E-06,-0.3277363,-1.890976E-08,NaN,NaN,-0.01993302,1.62981E-10,9.147401E-07,-1.160585E-07,-3.630976E-09,-2.622604E-08
105.3773,0.04589657,-3.131631E-08,NaN,-1.396957,-1.382846E-07,NaN,0.48004,5.010939E-08,NaN,-2.125497,3.07223E-06,-0.3277363,-1.890976E-08,NaN,NaN,-0.01993302,1.62981E-10,9.147401E-07,-1.160585E-07,-3.630976E-09,-2.622604E-08
105.3914,0.04591621,-3.131507E-08,NaN,-1.379817,-1.382846E-07,NaN,0.4798123,5.012227E-08,NaN,-2.124382,3.072993E-06,-0.3275595,-1.892015E-08,NaN,NaN,-0.01993318,1.536678E-10,9.063954E-07,-1.160573E-07,-6.015162E-09,-2.861022E-08
105.4069,0.04593529,-3.131383E-08,NaN,-1.363332,-1.382846E-07,NaN,0.4796247,5.013509E-08,NaN,-2.123368,3.073748E-06,-0.3273837,-1.893048E-08,NaN,NaN,-0.01993328,1.536678E-10,9.016271E-07,-1.160561E-07,-8.399347E-09,-2.622604E-08
105.4213,0.04595446,-3.131259E-08,NaN,-1.347321,-1.382845E-07,NaN,0.4794587,5.014783E-08,NaN,-2.122391,3.074512E-06,-0.3271991,-1.894073E-08,NaN,NaN,-0.01993333,1.443546E-10,8.968587E-07,-1.160548E-07,-8.399347E-09,-2.861022E-08
105.4358,0.04595446,-3.131259E-08,NaN,-1.347321,-1.382845E-07,NaN,0.4794587,5.014783E-08,NaN,-2.122391,3.074512E-06,-0.3271991,-1.894073E-08,NaN,NaN,-0.01993333,1.443546E-10,8.968587E-07,-1.160548E-07,-8.399347E-09,-2.861022E-08
105.45,0.04597363,-3.131135E-08,NaN,-1.331673,-1.382845E-07,NaN,0.4793001,5.016049E-08,NaN,-2.12143,3.075261E-06,-0.3270153,-1.89509E-08,NaN,NaN,-0.01993336,1.490112E-10,8.992429E-07,-1.160536E-07,-8.399347E-09,-2.622604E-08
105.4668,0.04598767,-3.131011E-08,NaN,-1.31708,-1.382844E-07,NaN,0.4791171,5.017308E-08,NaN,-2.1207,3.076025E-06,-0.3270068,-1.8961E-08,NaN,NaN,-0.01993375,1.396979E-10,8.920903E-07,-1.160524E-07,-4.823068E-09,-2.861022E-08
105.4801,0.04600148,-3.130887E-08,NaN,-1.303199,-1.382844E-07,NaN,0.478969,5.018631E-08,NaN,-2.120044,3.076779E-06,-0.3269863,-1.897173E-08,NaN,NaN,-0.01993405,1.396979E-10,8.831497E-07,-1.160512E-07,-1.24679E-09,-2.622604E-08
105.4947,0.04600148,-3.130887E-08,NaN,-1.303199,-1.382844E-07,NaN,0.478969,5.018631E-08,NaN,-2.120044,3.076779E-06,-0.3269863,-1.897173E-08,NaN,NaN,-0.01993405,1.396979E-10,8.831497E-07,-1.160512E-07,-1.24679E-09,-2.622604E-08
105.5088,0.04601562,-3.130763E-08,NaN,-1.289818,-1.382843E-07,NaN,0.4788378,5.019945E-08,NaN,-2.119403,3.077543E-06,-0.3269479,-1.898238E-08,NaN,NaN,-0.01993429,1.303847E-10,8.795733E-07,-1.160501E-07,-1.24679E-09,-2.861022E-08
105.524,0.04602994,-3.130639E-08,NaN,-1.276804,-1.382843E-07,NaN,0.4787108,5.021251E-08,NaN,-2.118762,3.078293E-06,-0.3269026,-1.899294E-08,NaN,NaN,-0.01993451,1.350413E-10,8.75997E-07,-1.160489E-07,-2.438882E-09,-2.622604E-08
105.5386,0.04602994,-3.130639E-08,NaN,-1.276804,-1.382843E-07,NaN,0.4787108,5.021251E-08,NaN,-2.118762,3.078293E-06,-0.3269026,-1.899294E-08,NaN,NaN,-0.01993451,1.350413E-10,8.75997E-07,-1.160489E-07,-2.438882E-09,-2.622604E-08
105.5524,0.04603939,-3.130515E-08,NaN,-1.264835,-1.382842E-07,NaN,0.4785583,5.022548E-08,NaN,-2.118339,3.079057E-06,-0.3270233,-1.900342E-08,NaN,NaN,-0.01993507,1.257281E-10,8.658643E-07,-1.160477E-07,-1.842836E-09,-2.861022E-08
105.5687,0.04604871,-3.130391E-08,NaN,-1.253562,-1.382842E-07,NaN,0.4784384,5.023908E-08,NaN,-2.117978,3.079806E-06,-0.3271262,-1.901453E-08,NaN,NaN,-0.01993554,1.303847E-10,8.581156E-07,-1.160465E-07,-1.24679E-09,-2.622604E-08
105.5832,0.04605845,-3.130267E-08,NaN,-1.242767,-1.382841E-07,NaN,0.4783339,5.025259E-08,NaN,-2.117624,3.08057E-06,-0.3272061,-1.902554E-08,NaN,NaN,-0.01993594,1.210715E-10,8.521552E-07,-1.160453E-07,-3.034929E-09,-2.861022E-08
105.597,0.04605845,-3.130267E-08,NaN,-1.242767,-1.382841E-07,NaN,0.4783339,5.025259E-08,NaN,-2.117624,3.08057E-06,-0.3272061,-1.902554E-08,NaN,NaN,-0.01993594,1.210715E-10,8.521552E-07,-1.160453E-07,-3.034929E-09,-2.861022E-08
105.6111,0.04606366,-3.130143E-08,NaN,-1.233076,-1.382841E-07,NaN,0.4782082,5.026601E-08,NaN,-2.117479,3.081324E-06,-0.3274384,-1.903646E-08,NaN,NaN,-0.01993664,1.210715E-10,8.390421E-07,-1.160442E-07,-1.842836E-09,-2.622604E-08
105.6263,0.04606895,-3.130019E-08,NaN,-1.224108,-1.38284E-07,NaN,0.4781154,5.028004E-08,NaN,-2.117386,3.082088E-06,-0.3276442,-1.9048E-08,NaN,NaN,-0.01993723,1.117582E-10,8.312935E-07,-1.16043E-07,-6.50743E-10,-2.861022E-08
105.641,0.04607481,-3.129895E-08,NaN,-1.215625,-1.382839E-07,NaN,0.4780368,5.029398E-08,NaN,-2.117288,3.082838E-06,-0.3278208,-1.905944E-08,NaN,NaN,-0.01993775,1.164148E-10,8.24141E-07,-1.160418E-07,-1.246789E-09,-2.622604E-08
105.6554,0.04607481,-3.129895E-08,NaN,-1.215625,-1.382839E-07,NaN,0.4780368,5.029398E-08,NaN,-2.117288,3.082838E-06,-0.3278208,-1.905944E-08,NaN,NaN,-0.01993775,1.164148E-10,8.24141E-07,-1.160418E-07,-1.246789E-09,-2.622604E-08
105.6696,0.04608108,-3.129771E-08,NaN,-1.207478,-1.382839E-07,NaN,0.4779604,5.030781E-08,NaN,-2.117172,3.083592E-06,-0.3279803,-1.907078E-08,NaN,NaN,-0.01993823,1.164148E-10,8.169884E-07,-1.160407E-07,1.137396E-09,-2.861022E-08
105.6849,0.04608283,-3.129647E-08,NaN,-1.200337,-1.382838E-07,NaN,0.4778577,5.032154E-08,NaN,-2.117256,3.084342E-06,-0.328295,-1.908201E-08,NaN,NaN,-0.01993903,1.210715E-10,8.056635E-07,-1.160395E-07,5.413499E-10,-2.622604E-08
105.6995,0.04608283,-3.129647E-08,NaN,-1.200337,-1.382838E-07,NaN,0.4778577,5.032154E-08,NaN,-2.117256,3.084342E-06,-0.328295,-1.908201E-08,NaN,NaN,-0.01993903,1.210715E-10,8.056635E-07,-1.160395E-07,5.413499E-10,-2.622604E-08
105.7135,0.04608459,-3.129523E-08,NaN,-1.193847,-1.382838E-07,NaN,0.4777859,5.033588E-08,NaN,-2.117389,3.085106E-06,-0.3285839,-1.909386E-08,NaN,NaN,-0.01993973,1.117582E-10,7.973189E-07,-1.160384E-07,5.413499E-10,-2.861022E-08
105.729,0.04608691,-3.129399E-08,NaN,-1.187786,-1.382837E-07,NaN,0.4777282,5.034942E-08,NaN,-2.117515,3.085855E-06,-0.3288423,-1.91049E-08,NaN,NaN,-0.01994034,1.164148E-10,7.883782E-07,-1.160372E-07,5.413499E-10,-2.622604E-08
105.7439,0.04608966,-3.129275E-08,NaN,-1.182018,-1.382837E-07,NaN,0.4776731,5.036285E-08,NaN,-2.11762,3.08661E-06,-0.3290814,-1.911584E-08,NaN,NaN,-0.01994091,1.164148E-10,7.806296E-07,-1.160361E-07,-5.469658E-11,-2.861022E-08
105.7584,0.04608966,-3.129275E-08,NaN,-1.182018,-1.382837E-07,NaN,0.4776731,5.036285E-08,NaN,-2.11762,3.08661E-06,-0.3290814,-1.911584E-08,NaN,NaN,-0.01994091,1.164148E-10,7.806296E-07,-1.160361E-07,-5.469658E-11,-2.861022E-08
105.7723,0.04608799,-3.129151E-08,NaN,-1.177217,-1.382836E-07,NaN,0.4775918,5.037691E-08,NaN,-2.117923,3.087359E-06,-0.3294735,-1.912739E-08,NaN,NaN,-0.01994179,1.210715E-10,7.687087E-07,-1.16035E-07,-6.50743E-10,-2.622604E-08
105.7872,0.04608635,-3.129027E-08,NaN,-1.173034,-1.382835E-07,NaN,0.4775418,5.039086E-08,NaN,-2.11827,3.088114E-06,-0.3298373,-1.913885E-08,NaN,NaN,-0.01994257,1.210715E-10,7.573838E-07,-1.160338E-07,-6.50743E-10,-2.861022E-08
105.8018,0.04608531,-3.128903E-08,NaN,-1.16925,-1.382835E-07,NaN,0.4775061,5.04047E-08,NaN,-2.118607,3.088863E-06,-0.3301678,-1.915019E-08,NaN,NaN,-0.01994327,1.257281E-10,7.490391E-07,-1.160327E-07,-5.469658E-11,-2.622604E-08
105.8166,0.04608531,-3.128903E-08,NaN,-1.16925,-1.382835E-07,NaN,0.4775061,5.04047E-08,NaN,-2.118607,3.088863E-06,-0.3301678,-1.915019E-08,NaN,NaN,-0.01994327,1.257281E-10,7.490391E-07,-1.160327E-07,-5.469658E-11,-2.622604E-08
105.8305,0.04607716,-3.128779E-08,NaN,-1.166491,-1.382834E-07,NaN,0.4774506,5.041845E-08,NaN,-2.119135,3.089618E-06,-0.3306414,-1.916144E-08,NaN,NaN,-0.01994425,1.257281E-10,7.335419E-07,-1.160316E-07,-5.469658E-11,-2.861022E-08
105.8478,0.0460663,-3.128655E-08,NaN,-1.164377,-1.382834E-07,NaN,0.4774288,5.043281E-08,NaN,-2.119697,3.090367E-06,-0.3310792,-1.91733E-08,NaN,NaN,-0.0199451,1.303847E-10,7.210249E-07,-1.160305E-07,1.137396E-09,-2.622604E-08
105.8613,0.04605499,-3.128531E-08,NaN,-1.162669,-1.382833E-07,NaN,0.4774209,5.044705E-08,NaN,-2.120239,3.091131E-06,-0.3314784,-1.918506E-08,NaN,NaN,-0.01994587,1.210714E-10,7.102961E-07,-1.160293E-07,-5.469658E-11,-2.861022E-08
105.875,0.04605499,-3.128531E-08,NaN,-1.162669,-1.382833E-07,NaN,0.4774209,5.044705E-08,NaN,-2.120239,3.091131E-06,-0.3314784,-1.918506E-08,NaN,NaN,-0.01994587,1.210714E-10,7.102961E-07,-1.160293E-07,-5.469658E-11,-2.861022E-08
105.8889,0.04604418,-3.128407E-08,NaN,-1.161221,-1.382833E-07,NaN,0.4774143,5.046119E-08,NaN,-2.120747,3.091881E-06,-0.3318517,-1.91967E-08,NaN,NaN,-0.01994658,1.257281E-10,7.025475E-07,-1.160282E-07,1.733443E-09,-2.622604E-08
105.9042,0.04602483,-3.128283E-08,NaN,-1.160699,-1.382832E-07,NaN,0.4773826,5.047523E-08,NaN,-2.121439,3.092635E-06,-0.3323745,-1.920824E-08,NaN,NaN,-0.0199476,1.257281E-10,6.888384E-07,-1.160271E-07,2.925536E-09,-2.861022E-08
105.9186,0.04602483,-3.128283E-08,NaN,-1.160699,-1.382832E-07,NaN,0.4773826,5.047523E-08,NaN,-2.121439,3.092635E-06,-0.3323745,-1.920824E-08,NaN,NaN,-0.0199476,1.257281E-10,6.888384E-07,-1.160271E-07,2.925536E-09,-2.861022E-08
105.9341,0.04600277,-3.128159E-08,NaN,-1.160753,-1.382831E-07,NaN,0.4773831,5.048987E-08,NaN,-2.122164,3.093385E-06,-0.3328634,-1.922039E-08,NaN,NaN,-0.01994851,1.303847E-10,6.775136E-07,-1.16026E-07,2.925536E-09,-2.622604E-08
105.9482,0.04598062,-3.128035E-08,NaN,-1.16116,-1.382831E-07,NaN,0.4773972,5.05044E-08,NaN,-2.122867,3.094149E-06,-0.3333138,-1.923242E-08,NaN,NaN,-0.01994932,1.210714E-10,6.649966E-07,-1.160249E-07,3.521582E-09,-2.861022E-08
105.9627,0.04595945,-3.127911E-08,NaN,-1.161784,-1.38283E-07,NaN,0.4774129,5.051881E-08,NaN,-2.123535,3.094903E-06,-0.3337373,-1.924434E-08,NaN,NaN,-0.01995008,1.210714E-10,6.536717E-07,-1.160238E-07,2.925536E-09,-2.622604E-08
105.9775,0.04595945,-3.127911E-08,NaN,-1.161784,-1.38283E-07,NaN,0.4774129,5.051881E-08,NaN,-2.123535,3.094903E-06,-0.3337373,-1.924434E-08,NaN,NaN,-0.01995008,1.210714E-10,6.536717E-07,-1.160238E-07,2.925536E-09,-2.622604E-08
105.9914,0.04593018,-3.127787E-08,NaN,-1.1633,-1.38283E-07,NaN,0.4774028,5.053383E-08,NaN,-2.124386,3.095653E-06,-0.3343115,-1.925685E-08,NaN,NaN,-0.01995115,1.210714E-10,6.381745E-07,-1.160227E-07,2.329489E-09,-2.861022E-08
106.0069,0.0458991,-3.127663E-08,NaN,-1.165361,-1.382829E-07,NaN,0.477425,5.054872E-08,NaN,-2.125267,3.096412E-06,-0.3348508,-1.926924E-08,NaN,NaN,-0.01995211,1.117582E-10,6.250615E-07,-1.160216E-07,1.137397E-09,-2.622604E-08
106.0215,0.04586887,-3.127539E-08,NaN,-1.167747,-1.382829E-07,NaN,0.4774612,5.056349E-08,NaN,-2.126123,3.097157E-06,-0.3353496,-1.928152E-08,NaN,NaN,-0.01995297,1.164148E-10,6.143326E-07,-1.160206E-07,5.413502E-10,-2.861022E-08
106.036,0.04586887,-3.127539E-08,NaN,-1.167747,-1.382829E-07,NaN,0.4774612,5.056349E-08,NaN,-2.126123,3.097157E-06,-0.3353496,-1.928152E-08,NaN,NaN,-0.01995297,1.164148E-10,6.143326E-07,-1.160206E-07,5.413502E-10,-2.861022E-08
106.0502,0.04583099,-3.127415E-08,NaN,-1.171085,-1.382828E-07,NaN,0.4774748,5.057744E-08,NaN,-2.127158,3.097911E-06,-0.3359917,-1.929297E-08,NaN,NaN,-0.01995412,1.117582E-10,5.982394E-07,-1.160195E-07,2.329489E-09,-2.622604E-08
106.0654,0.0457924,-3.127291E-08,NaN,-1.174996,-1.382827E-07,NaN,0.4775211,5.059199E-08,NaN,-2.128215,3.098656E-06,-0.3365926,-1.930503E-08,NaN,NaN,-0.01995514,1.164148E-10,5.863184E-07,-1.160184E-07,5.413502E-10,-2.861022E-08
106.08,0.04575579,-3.127168E-08,NaN,-1.179241,-1.382827E-07,NaN,0.4775807,5.060643E-08,NaN,-2.129238,3.099411E-06,-0.3371486,-1.931697E-08,NaN,NaN,-0.01995605,1.117582E-10,5.755896E-07,-1.160173E-07,-3.034928E-09,-2.622604E-08
106.0947,0.04575579,-3.127168E-08,NaN,-1.179241,-1.382827E-07,NaN,0.4775807,5.060643E-08,NaN,-2.129238,3.099411E-06,-0.3371486,-1.931697E-08,NaN,NaN,-0.01995605,1.117582E-10,5.755896E-07,-1.160173E-07,-3.034928E-09,-2.622604E-08
106.1089,0.04572181,-3.127044E-08,NaN,-1.183673,-1.382826E-07,NaN,0.4776414,5.062076E-08,NaN,-2.130215,3.100156E-06,-0.3376723,-1.93288E-08,NaN,NaN,-0.0199569,1.164148E-10,5.636687E-07,-1.160163E-07,-3.034928E-09,-2.861022E-08
106.124,0.04568081,-3.12692E-08,NaN,-1.188963,-1.382826E-07,NaN,0.4776731,5.063497E-08,NaN,-2.131364,3.100915E-06,-0.3383486,-1.934052E-08,NaN,NaN,-0.01995807,1.071016E-10,5.487675E-07,-1.160152E-07,-4.823068E-09,-2.622604E-08
106.1396,0.04568081,-3.12692E-08,NaN,-1.188963,-1.382826E-07,NaN,0.4776731,5.063497E-08,NaN,-2.131364,3.100915E-06,-0.3383486,-1.934052E-08,NaN,NaN,-0.01995807,1.071016E-10,5.487675E-07,-1.160152E-07,-4.823068E-09,-2.622604E-08
106.1534,0.04563982,-3.126796E-08,NaN,-1.194757,-1.382825E-07,NaN,0.4777368,5.064979E-08,NaN,-2.132533,3.10166E-06,-0.3389867,-1.935284E-08,NaN,NaN,-0.01995912,1.117582E-10,5.362505E-07,-1.160141E-07,-2.438882E-09,-2.861022E-08
