JMolnar6/NonAnthroHands_User_Study/HandsLoggerWithURDF/tempdata/files/Reachy_JointMotion_gesture_1_6.csv
Time,r_shoulder,r_shoulder_x,r_upper_arm,r_forearm,r_wrist,r_wrist2hand,
83.2169,0.04377253,-3.183994E-08,NaN,-1.879604,-1.382004E-07,NaN,0.4859868,3.91916E-08,NaN,-2.177014,2.752591E-06,-0.3527616,-9.058267E-09,NaN,NaN,-0.01996754,2.095473E-10,4.844649E-07,-1.158082E-07,-2.089774E-08,-2.622604E-08
83.23059,0.04377425,-3.183871E-08,NaN,-1.880899,-1.381991E-07,NaN,0.4859291,3.920668E-08,NaN,-2.177242,2.753327E-06,-0.3529446,-9.070749E-09,NaN,NaN,-0.01996792,2.095473E-10,4.808886E-07,-1.158064E-07,-2.089774E-08,-2.861022E-08
83.24751,0.04377391,-3.183747E-08,NaN,-1.882654,-1.381976E-07,NaN,0.4859142,3.922093E-08,NaN,-2.17753,2.754068E-06,-0.3531111,-9.082419E-09,NaN,NaN,-0.01996821,2.048907E-10,4.73736E-07,-1.158045E-07,-2.089774E-08,-2.622604E-08
83.26304,0.04377368,-3.183624E-08,NaN,-1.884685,-1.381962E-07,NaN,0.4859252,3.923509E-08,NaN,-2.177816,2.754803E-06,-0.35324,-9.093991E-09,NaN,NaN,-0.01996839,2.048907E-10,4.713518E-07,-1.158027E-07,-1.612937E-08,-2.861022E-08
83.27895,0.04377368,-3.183624E-08,NaN,-1.884685,-1.381962E-07,NaN,0.4859252,3.923509E-08,NaN,-2.177816,2.754803E-06,-0.35324,-9.093991E-09,NaN,NaN,-0.01996839,2.048907E-10,4.713518E-07,-1.158027E-07,-1.612937E-08,-2.861022E-08
83.29373,0.04378213,-3.183501E-08,NaN,-1.886115,-1.381948E-07,NaN,0.485995,3.92495E-08,NaN,-2.177857,2.755539E-06,-0.3531196,-9.10582E-09,NaN,NaN,-0.01996803,2.048907E-10,4.761202E-07,-1.158008E-07,-1.732146E-08,-2.622604E-08
83.31162,0.0437943,-3.183377E-08,NaN,-1.887168,-1.381934E-07,NaN,0.4860208,3.926382E-08,NaN,-2.177814,2.756275E-06,-0.3529997,-9.117548E-09,NaN,NaN,-0.01996775,2.048907E-10,4.820807E-07,-1.15799E-07,-2.447402E-08,-2.861022E-08
83.32583,0.04380773,-3.183254E-08,NaN,-1.887985,-1.38192E-07,NaN,0.4860171,3.927802E-08,NaN,-2.177753,2.757011E-06,-0.3529078,-9.129172E-09,NaN,NaN,-0.01996756,2.048907E-10,4.880412E-07,-1.157971E-07,-2.447402E-08,-2.622604E-08
83.34175,0.04382129,-3.183131E-08,NaN,-1.888651,-1.381906E-07,NaN,0.4860018,3.929248E-08,NaN,-2.177697,2.757746E-06,-0.3528365,-9.141039E-09,NaN,NaN,-0.01996742,2.048907E-10,4.892333E-07,-1.157953E-07,-2.208983E-08,-2.861022E-08
83.35732,0.04382129,-3.183131E-08,NaN,-1.888651,-1.381906E-07,NaN,0.4860018,3.929248E-08,NaN,-2.177697,2.757746E-06,-0.3528365,-9.141039E-09,NaN,NaN,-0.01996742,2.048907E-10,4.892333E-07,-1.157953E-07,-2.208983E-08,-2.861022E-08
83.37246,0.0438445,-3.183008E-08,NaN,-1.888461,-1.381892E-07,NaN,0.4860321,3.930718E-08,NaN,-2.177427,2.758487E-06,-0.352556,-9.153155E-09,NaN,NaN,-0.01996684,2.002341E-10,4.97578E-07,-1.157935E-07,-2.447402E-08,-2.622604E-08
83.38896,0.04387077,-3.182884E-08,NaN,-1.887744,-1.381878E-07,NaN,0.4860187,3.932177E-08,NaN,-2.177106,2.759223E-06,-0.3523002,-9.165161E-09,NaN,NaN,-0.01996638,2.002341E-10,5.035384E-07,-1.157916E-07,-1.970565E-08,-2.861022E-08
83.40414,0.04389706,-3.182761E-08,NaN,-1.886704,-1.381864E-07,NaN,0.4859802,3.933661E-08,NaN,-2.176795,2.759958E-06,-0.3520873,-9.177411E-09,NaN,NaN,-0.01996603,2.002341E-10,5.071147E-07,-1.157898E-07,-2.328192E-08,-2.622604E-08
83.4198,0.04389706,-3.182761E-08,NaN,-1.886704,-1.381864E-07,NaN,0.4859802,3.933661E-08,NaN,-2.176795,2.759958E-06,-0.3520873,-9.177411E-09,NaN,NaN,-0.01996603,2.002341E-10,5.071147E-07,-1.157898E-07,-2.328192E-08,-2.622604E-08
83.43487,0.04392224,-3.182639E-08,NaN,-1.885471,-1.38185E-07,NaN,0.4859347,3.935168E-08,NaN,-2.176511,2.760694E-06,-0.3519046,-9.189902E-09,NaN,NaN,-0.01996575,2.002341E-10,5.118831E-07,-1.15788E-07,-2.089774E-08,-2.861022E-08
83.4512,0.04395603,-3.182516E-08,NaN,-1.883361,-1.381837E-07,NaN,0.485938,3.936699E-08,NaN,-2.176029,2.76143E-06,-0.3515206,-9.202628E-09,NaN,NaN,-0.01996504,2.002341E-10,5.214198E-07,-1.157862E-07,-1.851355E-08,-2.622604E-08
83.46698,0.04399141,-3.182393E-08,NaN,-1.880721,-1.381823E-07,NaN,0.4859005,3.938254E-08,NaN,-2.175509,2.762166E-06,-0.3511673,-9.215584E-09,NaN,NaN,-0.01996444,2.002341E-10,5.297645E-07,-1.157844E-07,-1.612937E-08,-2.861022E-08
83.48261,0.04402553,-3.18227E-08,NaN,-1.877766,-1.381809E-07,NaN,0.4858401,3.939831E-08,NaN,-2.175009,2.762901E-06,-0.3508617,-9.228769E-09,NaN,NaN,-0.01996397,2.002341E-10,5.333408E-07,-1.157826E-07,-8.97681E-09,-2.622604E-08
83.49847,0.04402553,-3.18227E-08,NaN,-1.877766,-1.381809E-07,NaN,0.4858401,3.939831E-08,NaN,-2.175009,2.762901E-06,-0.3508617,-9.228769E-09,NaN,NaN,-0.01996397,2.002341E-10,5.333408E-07,-1.157826E-07,-8.97681E-09,-2.622604E-08
83.51335,0.04405751,-3.182147E-08,NaN,-1.87463,-1.381795E-07,NaN,0.4857741,3.941395E-08,NaN,-2.174542,2.763642E-06,-0.3505904,-9.241823E-09,NaN,NaN,-0.01996357,1.955774E-10,5.381092E-07,-1.157808E-07,-1.851355E-08,-2.861022E-08
83.52967,0.04409748,-3.182024E-08,NaN,-1.870634,-1.381782E-07,NaN,0.4857568,3.942981E-08,NaN,-2.173886,2.764382E-06,-0.3501235,-9.255104E-09,NaN,NaN,-0.01996275,1.909208E-10,5.500301E-07,-1.15779E-07,-2.089774E-08,-2.622604E-08
83.54544,0.04413797,-3.181901E-08,NaN,-1.866127,-1.381768E-07,NaN,0.4856997,3.94459E-08,NaN,-2.173197,2.765118E-06,-0.3496913,-9.268607E-09,NaN,NaN,-0.01996206,1.909208E-10,5.60759E-07,-1.157773E-07,-2.208983E-08,-2.861022E-08
83.56087,0.04417626,-3.181778E-08,NaN,-1.861325,-1.381755E-07,NaN,0.4856209,3.94622E-08,NaN,-2.172532,2.765854E-06,-0.34931,-9.282323E-09,NaN,NaN,-0.01996149,1.909208E-10,5.655273E-07,-1.157755E-07,-2.328193E-08,-2.622604E-08
83.57674,0.04417626,-3.181778E-08,NaN,-1.861325,-1.381755E-07,NaN,0.4856209,3.94622E-08,NaN,-2.172532,2.765854E-06,-0.34931,-9.282323E-09,NaN,NaN,-0.01996149,1.909208E-10,5.655273E-07,-1.157755E-07,-2.328193E-08,-2.622604E-08
83.59166,0.04421176,-3.181655E-08,NaN,-1.856363,-1.381741E-07,NaN,0.4855371,3.947837E-08,NaN,-2.171906,2.766589E-06,-0.3489662,-9.295898E-09,NaN,NaN,-0.01996099,1.909208E-10,5.702957E-07,-1.157737E-07,-2.328193E-08,-2.861022E-08
83.60828,0.0442549,-3.181532E-08,NaN,-1.850562,-1.381728E-07,NaN,0.4855009,3.949474E-08,NaN,-2.171095,2.767325E-06,-0.3484324,-9.309686E-09,NaN,NaN,-0.01996009,1.909208E-10,5.822166E-07,-1.15772E-07,-2.566611E-08,-2.622604E-08
83.62414,0.04429774,-3.181409E-08,NaN,-1.844272,-1.381714E-07,NaN,0.4854259,3.951133E-08,NaN,-2.170255,2.768066E-06,-0.3479369,-9.323688E-09,NaN,NaN,-0.01995932,1.862642E-10,5.917533E-07,-1.157702E-07,-2.68582E-08,-2.861022E-08
83.63977,0.04429774,-3.181409E-08,NaN,-1.844272,-1.381714E-07,NaN,0.4854259,3.951133E-08,NaN,-2.170255,2.768066E-06,-0.3479369,-9.323688E-09,NaN,NaN,-0.01995932,1.862642E-10,5.917533E-07,-1.157702E-07,-2.68582E-08,-2.861022E-08
83.65486,0.04433765,-3.181286E-08,NaN,-1.837708,-1.381701E-07,NaN,0.4853299,3.952812E-08,NaN,-2.169444,2.768801E-06,-0.347495,-9.337894E-09,NaN,NaN,-0.01995868,1.862642E-10,6.024822E-07,-1.157685E-07,-2.566611E-08,-2.622604E-08
83.67116,0.04437428,-3.181163E-08,NaN,-1.831005,-1.381687E-07,NaN,0.4852296,3.954476E-08,NaN,-2.168675,2.769542E-06,-0.3470932,-9.351951E-09,NaN,NaN,-0.01995812,1.816076E-10,6.084427E-07,-1.157667E-07,-2.447402E-08,-2.861022E-08
83.68723,0.0444184,-3.18104E-08,NaN,-1.823485,-1.381674E-07,NaN,0.4851754,3.956161E-08,NaN,-2.167724,2.770277E-06,-0.3465074,-9.366213E-09,NaN,NaN,-0.01995717,1.816076E-10,6.227478E-07,-1.15765E-07,-2.208983E-08,-2.622604E-08
83.70264,0.04446151,-3.180918E-08,NaN,-1.815495,-1.381661E-07,NaN,0.4850832,3.957865E-08,NaN,-2.166749,2.771018E-06,-0.3459631,-9.380676E-09,NaN,NaN,-0.01995635,1.76951E-10,6.310925E-07,-1.157633E-07,-2.68582E-08,-2.861022E-08
83.71867,0.04446151,-3.180918E-08,NaN,-1.815495,-1.381661E-07,NaN,0.4850832,3.957865E-08,NaN,-2.166749,2.771018E-06,-0.3459631,-9.380676E-09,NaN,NaN,-0.01995635,1.76951E-10,6.310925E-07,-1.157633E-07,-2.68582E-08,-2.861022E-08
83.73354,0.04450108,-3.180795E-08,NaN,-1.807253,-1.381647E-07,NaN,0.4849712,3.95959E-08,NaN,-2.165806,2.771758E-06,-0.3454747,-9.395338E-09,NaN,NaN,-0.01995567,1.722944E-10,6.406292E-07,-1.157616E-07,-2.328192E-08,-2.622604E-08
83.75011,0.04453697,-3.180672E-08,NaN,-1.798891,-1.381634E-07,NaN,0.4848555,3.961333E-08,NaN,-2.164908,2.772494E-06,-0.3450286,-9.410191E-09,NaN,NaN,-0.01995507,1.722944E-10,6.477817E-07,-1.157599E-07,-2.566611E-08,-2.861022E-08
83.76579,0.04458034,-3.180549E-08,NaN,-1.789733,-1.381621E-07,NaN,0.484784,3.963096E-08,NaN,-2.163832,2.77323E-06,-0.3444046,-9.425234E-09,NaN,NaN,-0.01995409,1.722944E-10,6.668552E-07,-1.157581E-07,-3.281867E-08,-2.622604E-08
83.78139,0.04462205,-3.180426E-08,NaN,-1.780125,-1.381608E-07,NaN,0.4846757,3.964842E-08,NaN,-2.162735,2.773965E-06,-0.3438252,-9.44011E-09,NaN,NaN,-0.01995325,1.722944E-10,6.775841E-07,-1.157564E-07,-3.639494E-08,-2.861022E-08
83.79895,0.04462205,-3.180426E-08,NaN,-1.780125,-1.381608E-07,NaN,0.4846757,3.964842E-08,NaN,-2.162735,2.773965E-06,-0.3438252,-9.44011E-09,NaN,NaN,-0.01995325,1.722944E-10,6.775841E-07,-1.157564E-07,-3.639494E-08,-2.861022E-08
83.8123,0.04465968,-3.180303E-08,NaN,-1.770284,-1.381595E-07,NaN,0.4845487,3.966608E-08,NaN,-2.161674,2.774711E-06,-0.3433035,-9.455176E-09,NaN,NaN,-0.01995254,1.629812E-10,6.847366E-07,-1.157547E-07,-3.639494E-08,-2.622604E-08
83.82851,0.04469334,-3.18018E-08,NaN,-1.760343,-1.381582E-07,NaN,0.4844187,3.968391E-08,NaN,-2.160661,2.775446E-06,-0.3428259,-9.47043E-09,NaN,NaN,-0.01995192,1.629812E-10,6.918892E-07,-1.157531E-07,-3.043448E-08,-2.861022E-08
83.84454,0.04473455,-3.180057E-08,NaN,-1.749624,-1.381569E-07,NaN,0.484331,3.970158E-08,NaN,-2.159473,2.776182E-06,-0.3421767,-9.48551E-09,NaN,NaN,-0.01995094,1.629812E-10,7.061943E-07,-1.157514E-07,-2.805029E-08,-2.622604E-08
83.86026,0.0447735,-3.179934E-08,NaN,-1.738475,-1.381556E-07,NaN,0.4842076,3.971943E-08,NaN,-2.158267,2.776918E-06,-0.3415747,-9.500775E-09,NaN,NaN,-0.01995009,1.629812E-10,7.193073E-07,-1.157497E-07,-2.566611E-08,-2.861022E-08
83.87588,0.0447735,-3.179934E-08,NaN,-1.738475,-1.381556E-07,NaN,0.4842076,3.971943E-08,NaN,-2.158267,2.776918E-06,-0.3415747,-9.500775E-09,NaN,NaN,-0.01995009,1.629812E-10,7.193073E-07,-1.157497E-07,-2.566611E-08,-2.861022E-08
83.89092,0.04480791,-3.179811E-08,NaN,-1.727111,-1.381543E-07,NaN,0.4840668,3.973747E-08,NaN,-2.157099,2.777654E-06,-0.341032,-9.516222E-09,NaN,NaN,-0.01994939,1.629812E-10,7.240757E-07,-1.15748E-07,-1.851355E-08,-2.622604E-08
83.90698,0.04483814,-3.179688E-08,NaN,-1.715666,-1.38153E-07,NaN,0.4839239,3.975568E-08,NaN,-2.155983,2.778389E-06,-0.3405348,-9.531846E-09,NaN,NaN,-0.01994877,1.629812E-10,7.324203E-07,-1.157464E-07,-1.851355E-08,-2.861022E-08
83.92285,0.04487604,-3.179565E-08,NaN,-1.70346,-1.381517E-07,NaN,0.4838209,3.977371E-08,NaN,-2.154695,2.779135E-06,-0.3398723,-9.547295E-09,NaN,NaN,-0.01994781,1.536679E-10,7.419571E-07,-1.157447E-07,-1.612936E-08,-2.622604E-08
83.93833,0.04487604,-3.179565E-08,NaN,-1.70346,-1.381517E-07,NaN,0.4838209,3.977371E-08,NaN,-2.154695,2.779135E-06,-0.3398723,-9.547295E-09,NaN,NaN,-0.01994781,1.536679E-10,7.419571E-07,-1.157447E-07,-1.612936E-08,-2.622604E-08
83.9536,0.04491116,-3.179442E-08,NaN,-1.690842,-1.381504E-07,NaN,0.4836835,3.979192E-08,NaN,-2.153393,2.77988E-06,-0.3392594,-9.562921E-09,NaN,NaN,-0.01994698,1.443547E-10,7.526859E-07,-1.15743E-07,-1.612936E-08,-2.861022E-08
83.96973,0.04494137,-3.17932E-08,NaN,-1.678028,-1.381491E-07,NaN,0.4835302,3.981031E-08,NaN,-2.15213,2.780625E-06,-0.338707,-9.578723E-09,NaN,NaN,-0.0199463,1.350415E-10,7.586464E-07,-1.157414E-07,-1.732146E-08,-2.622604E-08
83.9857,0.04496726,-3.179197E-08,NaN,-1.665149,-1.381479E-07,NaN,0.4833755,3.982887E-08,NaN,-2.150922,2.781361E-06,-0.3382015,-9.594697E-09,NaN,NaN,-0.01994571,1.350415E-10,7.681832E-07,-1.157397E-07,-1.732146E-08,-2.861022E-08
84.00127,0.04500101,-3.179074E-08,NaN,-1.651527,-1.381466E-07,NaN,0.4832582,3.984724E-08,NaN,-2.149545,2.782096E-06,-0.3375365,-9.610485E-09,NaN,NaN,-0.01994477,1.350415E-10,7.78912E-07,-1.157381E-07,-1.732146E-08,-2.622604E-08
84.01688,0.04500101,-3.179074E-08,NaN,-1.651527,-1.381466E-07,NaN,0.4832582,3.984724E-08,NaN,-2.149545,2.782096E-06,-0.3375365,-9.610485E-09,NaN,NaN,-0.01994477,1.350415E-10,7.78912E-07,-1.157381E-07,-1.732146E-08,-2.622604E-08
84.03168,0.04503151,-3.178951E-08,NaN,-1.63751,-1.381453E-07,NaN,0.4831079,3.986579E-08,NaN,-2.148155,2.782841E-06,-0.3369236,-9.626445E-09,NaN,NaN,-0.01994399,1.257282E-10,7.860646E-07,-1.157365E-07,-1.374518E-08,-2.861022E-08
84.04827,0.04505841,-3.178828E-08,NaN,-1.623313,-1.381441E-07,NaN,0.4829414,3.988415E-08,NaN,-2.146809,2.783587E-06,-0.3363723,-9.642221E-09,NaN,NaN,-0.01994335,1.16415E-10,7.908329E-07,-1.157348E-07,-1.01689E-08,-2.622604E-08
84.06387,0.04508343,-3.178705E-08,NaN,-1.609069,-1.381428E-07,NaN,0.4827718,3.990268E-08,NaN,-2.145518,2.784332E-06,-0.3358688,-9.658169E-09,NaN,NaN,-0.01994279,1.071018E-10,8.015618E-07,-1.157332E-07,-1.493727E-08,-2.861022E-08
84.07993,0.04508343,-3.178705E-08,NaN,-1.609069,-1.381428E-07,NaN,0.4827718,3.990268E-08,NaN,-2.145518,2.784332E-06,-0.3358688,-9.658169E-09,NaN,NaN,-0.01994279,1.071018E-10,8.015618E-07,-1.157332E-07,-1.493727E-08,-2.861022E-08
84.09464,0.04511273,-3.178582E-08,NaN,-1.594097,-1.381415E-07,NaN,0.482641,3.992139E-08,NaN,-2.144062,2.785077E-06,-0.3352118,-9.674291E-09,NaN,NaN,-0.01994191,1.024452E-10,8.110985E-07,-1.157316E-07,-1.374518E-08,-2.622604E-08
84.11139,0.04514175,-3.178459E-08,NaN,-1.578746,-1.381403E-07,NaN,0.482475,3.994026E-08,NaN,-2.142596,2.785822E-06,-0.3346089,-9.690579E-09,NaN,NaN,-0.01994118,9.778857E-11,8.182511E-07,-1.1573E-07,-1.01689E-08,-2.861022E-08
84.12672,0.04516888,-3.178336E-08,NaN,-1.563232,-1.38139E-07,NaN,0.4822921,3.99593E-08,NaN,-2.141174,2.786567E-06,-0.3340681,-9.707031E-09,NaN,NaN,-0.0199406,9.313195E-11,8.289799E-07,-1.157284E-07,-1.01689E-08,-2.622604E-08
84.14245,0.04519482,-3.178213E-08,NaN,-1.547686,-1.381378E-07,NaN,0.4821065,3.997849E-08,NaN,-2.139812,2.787312E-06,-0.333576,-9.723641E-09,NaN,NaN,-0.0199401,8.847534E-11,8.349404E-07,-1.157268E-07,-7.784713E-09,-2.861022E-08
84.15808,0.04519482,-3.178213E-08,NaN,-1.547686,-1.381378E-07,NaN,0.4821065,3.997849E-08,NaN,-2.139812,2.787312E-06,-0.333576,-9.723641E-09,NaN,NaN,-0.0199401,8.847534E-11,8.349404E-07,-1.157268E-07,-7.784713E-09,-2.861022E-08
84.17287,0.04522508,-3.17809E-08,NaN,-1.531428,-1.381366E-07,NaN,0.4819579,3.999714E-08,NaN,-2.138285,2.788057E-06,-0.3329367,-9.739704E-09,NaN,NaN,-0.01993929,8.381872E-11,8.468613E-07,-1.157252E-07,-8.976806E-09,-2.622604E-08
84.18941,0.04525464,-3.177967E-08,NaN,-1.514807,-1.381353E-07,NaN,0.4817753,4.001595E-08,NaN,-2.136752,2.788802E-06,-0.3323523,-9.755935E-09,NaN,NaN,-0.01993863,7.916211E-11,8.540139E-07,-1.157236E-07,-6.59262E-09,-2.861022E-08
84.2051,0.04528296,-3.177844E-08,NaN,-1.498037,-1.381341E-07,NaN,0.4815764,4.003493E-08,NaN,-2.135265,2.789547E-06,-0.3318304,-9.772329E-09,NaN,NaN,-0.01993811,7.450549E-11,8.623585E-07,-1.15722E-07,-8.976806E-09,-2.622604E-08
84.22145,0.04531021,-3.177722E-08,NaN,-1.481251,-1.381328E-07,NaN,0.4813754,4.005407E-08,NaN,-2.133839,2.790292E-06,-0.3313574,-9.788883E-09,NaN,NaN,-0.01993769,6.984888E-11,8.647427E-07,-1.157204E-07,-8.976806E-09,-2.861022E-08
84.2368,0.04531021,-3.177722E-08,NaN,-1.481251,-1.381328E-07,NaN,0.4813754,4.005407E-08,NaN,-2.133839,2.790292E-06,-0.3313574,-9.788883E-09,NaN,NaN,-0.01993769,6.984888E-11,8.647427E-07,-1.157204E-07,-8.976806E-09,-2.861022E-08
84.2516,0.04534174,-3.177599E-08,NaN,-1.463769,-1.381316E-07,NaN,0.4812091,4.007337E-08,NaN,-2.132253,2.791038E-06,-0.3307432,-9.805596E-09,NaN,NaN,-0.01993696,6.519226E-11,8.742795E-07,-1.157189E-07,-8.976806E-09,-2.622604E-08
84.26788,0.04537249,-3.177476E-08,NaN,-1.445937,-1.381304E-07,NaN,0.4810099,4.009247E-08,NaN,-2.130661,2.791783E-06,-0.3301849,-9.822112E-09,NaN,NaN,-0.01993639,6.053565E-11,8.8024E-07,-1.157173E-07,-1.01689E-08,-2.861022E-08
84.28335,0.04540193,-3.177353E-08,NaN,-1.427971,-1.381292E-07,NaN,0.4807954,4.011173E-08,NaN,-2.129118,2.792528E-06,-0.3296888,-9.838785E-09,NaN,NaN,-0.01993595,5.587903E-11,8.850083E-07,-1.157157E-07,-8.976806E-09,-2.622604E-08
84.30033,0.04543024,-3.17723E-08,NaN,-1.410003,-1.38128E-07,NaN,0.4805793,4.013114E-08,NaN,-2.127638,2.793273E-06,-0.3292414,-9.855615E-09,NaN,NaN,-0.0199356,4.656581E-11,8.897767E-07,-1.157142E-07,-8.976806E-09,-2.861022E-08
84.31473,0.04543024,-3.17723E-08,NaN,-1.410003,-1.38128E-07,NaN,0.4805793,4.013114E-08,NaN,-2.127638,2.793273E-06,-0.3292414,-9.855615E-09,NaN,NaN,-0.0199356,4.656581E-11,8.897767E-07,-1.157142E-07,-8.976806E-09,-2.861022E-08
84.3297,0.0454576,-3.177107E-08,NaN,-1.392114,-1.381268E-07,NaN,0.4803672,4.015071E-08,NaN,-2.126219,2.794013E-06,-0.3288322,-9.872598E-09,NaN,NaN,-0.01993532,3.725258E-11,8.909688E-07,-1.157126E-07,-5.400527E-09,-2.622604E-08
84.34628,0.04548417,-3.176984E-08,NaN,-1.374353,-1.381255E-07,NaN,0.4801604,4.017007E-08,NaN,-2.124855,2.794749E-06,-0.328455,-9.889374E-09,NaN,NaN,-0.01993508,3.259597E-11,8.945451E-07,-1.157111E-07,-3.016341E-09,-2.861022E-08
84.36193,0.04551003,-3.176861E-08,NaN,-1.356749,-1.381243E-07,NaN,0.4799584,4.018923E-08,NaN,-2.12354,2.795485E-06,-0.3281058,-9.905949E-09,NaN,NaN,-0.01993489,2.793936E-11,8.945451E-07,-1.157096E-07,-3.016341E-09,-2.622604E-08
84.37756,0.04551003,-3.176861E-08,NaN,-1.356749,-1.381243E-07,NaN,0.4799584,4.018923E-08,NaN,-2.12354,2.795485E-06,-0.3281058,-9.905949E-09,NaN,NaN,-0.01993489,2.793936E-11,8.945451E-07,-1.157096E-07,-3.016341E-09,-2.622604E-08
84.39249,0.04553023,-3.176738E-08,NaN,-1.340082,-1.381231E-07,NaN,0.4797339,4.020855E-08,NaN,-2.122488,2.796221E-06,-0.3279518,-9.922683E-09,NaN,NaN,-0.01993508,2.328275E-11,8.897767E-07,-1.15708E-07,-1.824249E-09,-2.861022E-08
84.40884,0.04554987,-3.176615E-08,NaN,-1.324064,-1.381219E-07,NaN,0.4795488,4.022802E-08,NaN,-2.121536,2.796956E-06,-0.3277977,-9.93957E-09,NaN,NaN,-0.0199352,1.862614E-11,8.862004E-07,-1.157065E-07,5.599372E-10,-2.622604E-08
84.42503,0.04556959,-3.176492E-08,NaN,-1.308516,-1.381207E-07,NaN,0.4793848,4.024764E-08,NaN,-2.120619,2.797692E-06,-0.327634,-9.956605E-09,NaN,NaN,-0.01993528,1.396952E-11,8.850083E-07,-1.15705E-07,1.75203E-09,-2.861022E-08
84.44028,0.04558931,-3.176369E-08,NaN,-1.293326,-1.381195E-07,NaN,0.4792277,4.026705E-08,NaN,-2.119717,2.798428E-06,-0.3274703,-9.973435E-09,NaN,NaN,-0.01993534,9.31291E-12,8.844123E-07,-1.157035E-07,-1.824249E-09,-2.622604E-08
84.45606,0.04558931,-3.176369E-08,NaN,-1.293326,-1.381195E-07,NaN,0.4792277,4.026705E-08,NaN,-2.119717,2.798428E-06,-0.3274703,-9.973435E-09,NaN,NaN,-0.01993534,9.31291E-12,8.844123E-07,-1.157035E-07,-1.824249E-09,-2.622604E-08
84.47097,0.04560397,-3.176246E-08,NaN,-1.279185,-1.381184E-07,NaN,0.4790466,4.028661E-08,NaN,-2.119045,2.799164E-06,-0.3274795,-9.990414E-09,NaN,NaN,-0.01993574,4.656297E-12,8.790478E-07,-1.157019E-07,-6.321557E-10,-2.861022E-08
84.48764,0.0456184,-3.176124E-08,NaN,-1.265751,-1.381172E-07,NaN,0.4788999,4.030633E-08,NaN,-2.118445,2.799899E-06,-0.327476,-1.000754E-08,NaN,NaN,-0.01993607,-3.157197E-16,8.718953E-07,-1.157004E-07,-6.321557E-10,-2.622604E-08
84.50349,0.04563315,-3.176001E-08,NaN,-1.252812,-1.381161E-07,NaN,0.4787697,4.033248E-08,NaN,-2.117861,2.80063E-06,-0.327454,-1.003112E-08,NaN,NaN,-0.01993633,9.31291E-12,8.671269E-07,-1.157021E-07,2.348076E-09,-2.861022E-08
84.51853,0.04563315,-3.176001E-08,NaN,-1.252812,-1.381161E-07,NaN,0.4787697,4.033248E-08,NaN,-2.117861,2.80063E-06,-0.327454,-1.003112E-08,NaN,NaN,-0.01993633,9.31291E-12,8.671269E-07,-1.157021E-07,2.348076E-09,-2.861022E-08
84.53348,0.04564809,-3.175878E-08,NaN,-1.240235,-1.381159E-07,NaN,0.4786434,4.039946E-08,NaN,-2.117275,2.801376E-06,-0.3274245,-1.009552E-08,NaN,NaN,-0.01993656,9.31291E-12,8.635506E-07,-1.157045E-07,5.599371E-10,-2.622604E-08
84.54999,0.04565822,-3.175755E-08,NaN,-1.228698,-1.381161E-07,NaN,0.4784919,4.048766E-08,NaN,-2.116905,2.802121E-06,-0.327559,-1.018115E-08,NaN,NaN,-0.01993713,1.396952E-11,8.540139E-07,-1.157072E-07,5.599371E-10,-2.861022E-08
84.56583,0.04566823,-3.175632E-08,NaN,-1.217852,-1.381167E-07,NaN,0.4783727,4.058688E-08,NaN,-2.116596,2.80287E-06,-0.3276752,-1.027781E-08,NaN,NaN,-0.0199376,1.396952E-11,8.43285E-07,-1.157102E-07,3.540169E-09,-2.622604E-08
84.58145,0.04567865,-3.175509E-08,NaN,-1.20748,-1.381175E-07,NaN,0.4782685,4.069231E-08,NaN,-2.116294,2.803615E-06,-0.3277679,-1.038069E-08,NaN,NaN,-0.01993801,1.862614E-11,8.349404E-07,-1.157132E-07,6.520401E-09,-2.861022E-08
84.597,0.04567865,-3.175509E-08,NaN,-1.20748,-1.381175E-07,NaN,0.4782685,4.069231E-08,NaN,-2.116294,2.803615E-06,-0.3277679,-1.038069E-08,NaN,NaN,-0.01993801,1.862614E-11,8.349404E-07,-1.157132E-07,6.520401E-09,-2.861022E-08
84.61251,0.04568935,-3.175386E-08,NaN,-1.197446,-1.381184E-07,NaN,0.4781673,4.080007E-08,NaN,-2.115982,2.80437E-06,-0.3278484,-1.048592E-08,NaN,NaN,-0.01993839,1.396952E-11,8.295759E-07,-1.157163E-07,9.500633E-09,-2.622604E-08
84.62866,0.04569544,-3.175263E-08,NaN,-1.188426,-1.381194E-07,NaN,0.4780408,4.090768E-08,NaN,-2.115879,2.805115E-06,-0.328087,-1.059099E-08,NaN,NaN,-0.01993908,1.862614E-11,8.188471E-07,-1.157195E-07,1.128877E-08,-2.861022E-08
84.644,0.04570147,-3.17514E-08,NaN,-1.18007,-1.381204E-07,NaN,0.4779459,4.101443E-08,NaN,-2.115831,2.80586E-06,-0.3283031,-1.069521E-08,NaN,NaN,-0.01993969,2.328275E-11,8.093103E-07,-1.157226E-07,1.248087E-08,-2.622604E-08
84.65967,0.04570147,-3.17514E-08,NaN,-1.18007,-1.381204E-07,NaN,0.4779459,4.101443E-08,NaN,-2.115831,2.80586E-06,-0.3283031,-1.069521E-08,NaN,NaN,-0.01993969,2.328275E-11,8.093103E-07,-1.157226E-07,1.248087E-08,-2.622604E-08
84.67482,0.04570797,-3.175017E-08,NaN,-1.172161,-1.381214E-07,NaN,0.4778654,4.111966E-08,NaN,-2.115782,2.806605E-06,-0.328492,-1.079792E-08,NaN,NaN,-0.01994021,2.793936E-11,7.997736E-07,-1.157258E-07,1.248087E-08,-2.861022E-08
84.69101,0.04571484,-3.174894E-08,NaN,-1.164563,-1.381224E-07,NaN,0.4777876,4.122304E-08,NaN,-2.115718,2.80736E-06,-0.3286646,-1.089878E-08,NaN,NaN,-0.0199407,2.328275E-11,7.908329E-07,-1.157289E-07,1.486505E-08,-2.622604E-08
84.70697,0.04571742,-3.174771E-08,NaN,-1.157951,-1.381235E-07,NaN,0.4776845,4.13239E-08,NaN,-2.115856,2.808105E-06,-0.3289914,-1.099713E-08,NaN,NaN,-0.0199415,2.793936E-11,7.795081E-07,-1.157321E-07,1.4269E-08,-2.861022E-08
84.72248,0.04571985,-3.174648E-08,NaN,-1.151977,-1.381245E-07,NaN,0.4776126,4.142266E-08,NaN,-2.116043,2.80885E-06,-0.3292923,-1.109337E-08,NaN,NaN,-0.0199422,3.259597E-11,7.687792E-07,-1.157352E-07,1.367296E-08,-2.622604E-08
84.73847,0.04571985,-3.174648E-08,NaN,-1.151977,-1.381245E-07,NaN,0.4776126,4.142266E-08,NaN,-2.116043,2.80885E-06,-0.3292923,-1.109337E-08,NaN,NaN,-0.0199422,3.259597E-11,7.687792E-07,-1.157352E-07,1.367296E-08,-2.622604E-08
84.75326,0.04572279,-3.174526E-08,NaN,-1.146422,-1.381256E-07,NaN,0.477555,4.151935E-08,NaN,-2.116224,2.809595E-06,-0.3295625,-1.118755E-08,NaN,NaN,-0.01994282,3.725258E-11,7.610306E-07,-1.157384E-07,1.069273E-08,-2.861022E-08
84.76938,0.04572614,-3.174403E-08,NaN,-1.14115,-1.381266E-07,NaN,0.4775,4.161402E-08,NaN,-2.116384,2.810349E-06,-0.3298133,-1.127971E-08,NaN,NaN,-0.0199434,3.259597E-11,7.497057E-07,-1.157415E-07,1.248087E-08,-2.622604E-08
84.78675,0.04572525,-3.17428E-08,NaN,-1.136838,-1.381276E-07,NaN,0.4774193,4.170635E-08,NaN,-2.11674,2.811094E-06,-0.3302156,-1.136953E-08,NaN,NaN,-0.01994428,3.725258E-11,7.330165E-07,-1.157446E-07,1.486505E-08,-2.861022E-08
84.80088,0.04572431,-3.174157E-08,NaN,-1.133137,-1.381286E-07,NaN,0.4773698,4.179639E-08,NaN,-2.117141,2.81184E-06,-0.3305893,-1.145707E-08,NaN,NaN,-0.01994506,4.190919E-11,7.228837E-07,-1.157477E-07,1.486505E-08,-2.622604E-08
84.81631,0.04572431,-3.174157E-08,NaN,-1.133137,-1.381286E-07,NaN,0.4773698,4.179639E-08,NaN,-2.117141,2.81184E-06,-0.3305893,-1.145707E-08,NaN,NaN,-0.01994506,4.190919E-11,7.228837E-07,-1.157477E-07,1.486505E-08,-2.622604E-08
84.83135,0.04572396,-3.174034E-08,NaN,-1.12983,-1.381297E-07,NaN,0.4773344,4.188419E-08,NaN,-2.11753,2.812594E-06,-0.3309294,-1.154236E-08,NaN,NaN,-0.01994575,3.725258E-11,7.121548E-07,-1.157508E-07,1.605714E-08,-2.861022E-08
84.84779,0.04572407,-3.173911E-08,NaN,-1.12678,-1.381307E-07,NaN,0.4773018,4.197014E-08,NaN,-2.117893,2.813339E-06,-0.3312472,-1.16258E-08,NaN,NaN,-0.0199464,4.190919E-11,7.032141E-07,-1.157539E-07,1.486505E-08,-2.622604E-08
84.86352,0.04571754,-3.173788E-08,NaN,-1.124664,-1.381317E-07,NaN,0.4772448,4.203579E-08,NaN,-2.118446,2.814084E-06,-0.331715,-1.168894E-08,NaN,NaN,-0.01994736,4.656581E-11,6.88313E-07,-1.157569E-07,1.426901E-08,-2.861022E-08
84.87931,0.04571754,-3.173788E-08,NaN,-1.124664,-1.381317E-07,NaN,0.4772448,4.203579E-08,NaN,-2.118446,2.814084E-06,-0.331715,-1.168894E-08,NaN,NaN,-0.01994736,4.656581E-11,6.88313E-07,-1.157569E-07,1.426901E-08,-2.861022E-08
84.89397,0.04570866,-3.173665E-08,NaN,-1.123133,-1.381327E-07,NaN,0.4772204,4.21E-08,NaN,-2.119038,2.814824E-06,-0.3321513,-1.175065E-08,NaN,NaN,-0.01994821,5.587903E-11,6.75796E-07,-1.1576E-07,1.248087E-08,-2.622604E-08
84.91031,0.04569947,-3.173542E-08,NaN,-1.12197,-1.381337E-07,NaN,0.4772103,4.216244E-08,NaN,-2.119614,2.81557E-06,-0.3325514,-1.181059E-08,NaN,NaN,-0.01994896,6.053565E-11,6.668553E-07,-1.15763E-07,1.248087E-08,-2.861022E-08
84.92582,0.04569082,-3.173419E-08,NaN,-1.12104,-1.381348E-07,NaN,0.4772024,4.222352E-08,NaN,-2.120158,2.81631E-06,-0.3329266,-1.186915E-08,NaN,NaN,-0.01994966,6.984887E-11,6.567225E-07,-1.157661E-07,1.367296E-08,-2.622604E-08
84.94167,0.04567396,-3.173296E-08,NaN,-1.121019,-1.381358E-07,NaN,0.4771701,4.228289E-08,NaN,-2.120889,2.817055E-06,-0.3334515,-1.192602E-08,NaN,NaN,-0.01995067,7.450549E-11,6.418214E-07,-1.157691E-07,1.367296E-08,-2.861022E-08
84.95731,0.04567396,-3.173296E-08,NaN,-1.121019,-1.381358E-07,NaN,0.4771701,4.228289E-08,NaN,-2.120889,2.817055E-06,-0.3334515,-1.192602E-08,NaN,NaN,-0.01995067,7.450549E-11,6.418214E-07,-1.157691E-07,1.367296E-08,-2.861022E-08
84.97221,0.04565448,-3.173173E-08,NaN,-1.121559,-1.381368E-07,NaN,0.4771703,4.234095E-08,NaN,-2.121653,2.817795E-06,-0.3339428,-1.198157E-08,NaN,NaN,-0.01995157,8.381871E-11,6.287083E-07,-1.157721E-07,1.128877E-08,-2.622604E-08
84.98905,0.045635,-3.17305E-08,NaN,-1.122442,-1.381378E-07,NaN,0.4771845,4.239701E-08,NaN,-2.122396,2.81854E-06,-0.3343956,-1.203512E-08,NaN,NaN,-0.01995237,8.847532E-11,6.155953E-07,-1.157751E-07,1.367296E-08,-2.861022E-08
85.00422,0.04561652,-3.172928E-08,NaN,-1.123533,-1.381388E-07,NaN,0.4772005,4.245182E-08,NaN,-2.123105,2.819281E-06,-0.3348214,-1.208743E-08,NaN,NaN,-0.01995312,9.778855E-11,6.090388E-07,-1.157781E-07,1.248087E-08,-2.622604E-08
85.01993,0.04561652,-3.172928E-08,NaN,-1.123533,-1.381388E-07,NaN,0.4772005,4.245182E-08,NaN,-2.123105,2.819281E-06,-0.3348214,-1.208743E-08,NaN,NaN,-0.01995312,9.778855E-11,6.090388E-07,-1.157781E-07,1.248087E-08,-2.622604E-08
85.0347,0.04559025,-3.172805E-08,NaN,-1.125509,-1.381398E-07,NaN,0.4771909,4.250506E-08,NaN,-2.123995,2.820026E-06,-0.3353978,-1.213816E-08,NaN,NaN,-0.01995418,1.024452E-10,5.929455E-07,-1.157811E-07,1.54611E-08,-2.861022E-08
85.05119,0.04556226,-3.172682E-08,NaN,-1.128022,-1.381408E-07,NaN,0.4772137,4.25571E-08,NaN,-2.124914,2.820766E-06,-0.335939,-1.21877E-08,NaN,NaN,-0.01995512,1.117584E-10,5.804285E-07,-1.157841E-07,1.486505E-08,-2.622604E-08
85.06681,0.04553513,-3.172559E-08,NaN,-1.130854,-1.381418E-07,NaN,0.4772505,4.260797E-08,NaN,-2.125809,2.821511E-06,-0.3364395,-1.223606E-08,NaN,NaN,-0.01995597,1.16415E-10,5.702958E-07,-1.15787E-07,1.367296E-08,-2.861022E-08
85.08259,0.04550972,-3.172436E-08,NaN,-1.133872,-1.381428E-07,NaN,0.4772893,4.265734E-08,NaN,-2.126665,2.822252E-06,-0.3369111,-1.228292E-08,NaN,NaN,-0.01995675,1.257282E-10,5.583748E-07,-1.1579E-07,1.188482E-08,-2.622604E-08
85.09823,0.04550972,-3.172436E-08,NaN,-1.133872,-1.381428E-07,NaN,0.4772893,4.265734E-08,NaN,-2.126665,2.822252E-06,-0.3369111,-1.228292E-08,NaN,NaN,-0.01995675,1.257282E-10,5.583748E-07,-1.1579E-07,1.188482E-08,-2.622604E-08
