JMolnar6/NonAnthroHands_User_Study/HandsLoggerWithURDF/tempdata/files/Reachy_JointMotion_gesture_1_2.csv
Time,r_shoulder,r_shoulder_x,r_upper_arm,r_forearm,r_wrist,r_wrist2hand,
40.58334,-0.1241991,-3.427175E-08,NaN,-0.3266155,-1.36457E-07,NaN,0.4656479,5.630896E-08,NaN,-0.4862073,1.118119E-06,-0.385014,-2.176082E-09,NaN,NaN,-0.01996824,1.30385E-10,1.336829E-07,-1.150876E-07,1.527019E-08,-2.622604E-08
40.59999,-0.1241991,-3.427175E-08,NaN,-0.3266155,-1.36457E-07,NaN,0.4656479,5.630896E-08,NaN,-0.4862073,1.118119E-06,-0.385014,-2.176082E-09,NaN,NaN,-0.01996824,1.30385E-10,1.336829E-07,-1.150876E-07,1.527019E-08,-2.622604E-08
40.61354,-0.1230636,-3.427148E-08,NaN,-0.3266157,-1.364629E-07,NaN,0.465047,5.644862E-08,NaN,-0.4866835,1.118897E-06,-0.3845161,-2.313074E-09,NaN,NaN,-0.01996869,1.257283E-10,1.321928E-07,-1.150923E-07,2.003856E-08,-2.622604E-08
40.6297,-0.1216468,-3.42712E-08,NaN,-0.3266158,-1.364695E-07,NaN,0.4644417,5.659979E-08,NaN,-0.487164,1.11967E-06,-0.3840167,-2.461565E-09,NaN,NaN,-0.01996913,1.30385E-10,1.307027E-07,-1.150976E-07,2.242274E-08,-2.622604E-08
40.64512,-0.1200588,-3.427092E-08,NaN,-0.326616,-1.364764E-07,NaN,0.4638795,5.675537E-08,NaN,-0.4876106,1.120452E-06,-0.3835545,-2.614463E-09,NaN,NaN,-0.01996954,1.30385E-10,1.299576E-07,-1.151032E-07,2.003856E-08,-2.622604E-08
40.66078,-0.119098,-3.427064E-08,NaN,-0.3266177,-1.364836E-07,NaN,0.4638992,5.691255E-08,NaN,-0.4876067,1.121239E-06,-0.3835683,-2.768953E-09,NaN,NaN,-0.0199695,1.257283E-10,1.304047E-07,-1.151089E-07,1.765437E-08,-2.622604E-08
40.67651,-0.119098,-3.427064E-08,NaN,-0.3266177,-1.364836E-07,NaN,0.4638992,5.691255E-08,NaN,-0.4876067,1.121239E-06,-0.3835683,-2.768953E-09,NaN,NaN,-0.0199695,1.257283E-10,1.304047E-07,-1.151089E-07,1.765437E-08,-2.622604E-08
40.69147,-0.1185359,-3.427035E-08,NaN,-0.3266203,-1.36491E-07,NaN,0.4641156,5.706888E-08,NaN,-0.4874472,1.122026E-06,-0.3837425,-2.922595E-09,NaN,NaN,-0.01996931,1.210717E-10,1.307027E-07,-1.151147E-07,1.765437E-08,-2.622604E-08
40.70797,-0.118227,-3.427006E-08,NaN,-0.3266231,-1.364984E-07,NaN,0.4643736,5.722336E-08,NaN,-0.4872537,1.122813E-06,-0.3839494,-3.07438E-09,NaN,NaN,-0.01996911,1.164151E-10,1.315968E-07,-1.151206E-07,1.527019E-08,-2.622604E-08
40.72346,-0.1180787,-3.426976E-08,NaN,-0.326626,-1.365058E-07,NaN,0.4646176,5.737533E-08,NaN,-0.4870709,1.1236E-06,-0.3841437,-3.223658E-09,NaN,NaN,-0.01996891,1.117585E-10,1.326399E-07,-1.151264E-07,2.003856E-08,-2.622604E-08
40.73939,-0.1180787,-3.426976E-08,NaN,-0.326626,-1.365058E-07,NaN,0.4646176,5.737533E-08,NaN,-0.4870709,1.1236E-06,-0.3841437,-3.223658E-09,NaN,NaN,-0.01996891,1.117585E-10,1.326399E-07,-1.151264E-07,2.003856E-08,-2.622604E-08
40.75435,-0.1187587,-3.426947E-08,NaN,-0.3266313,-1.365133E-07,NaN,0.4653641,5.752451E-08,NaN,-0.4865033,1.124387E-06,-0.3847467,-3.370135E-09,NaN,NaN,-0.01996833,1.071019E-10,1.34577E-07,-1.151323E-07,2.242274E-08,-2.622604E-08
40.77002,-0.1199571,-3.426916E-08,NaN,-0.3266375,-1.365207E-07,NaN,0.4662344,5.767059E-08,NaN,-0.4858407,1.125174E-06,-0.3854484,-3.513523E-09,NaN,NaN,-0.01996767,1.024453E-10,1.359181E-07,-1.151381E-07,2.003856E-08,-2.622604E-08
40.78597,-0.1214766,-3.426886E-08,NaN,-0.3266438,-1.365282E-07,NaN,0.4670874,5.781365E-08,NaN,-0.4851938,1.125961E-06,-0.3861332,-3.653884E-09,NaN,NaN,-0.01996702,9.778866E-11,1.368122E-07,-1.151439E-07,1.765437E-08,-2.622604E-08
40.80134,-0.1231918,-3.426855E-08,NaN,-0.3266498,-1.365356E-07,NaN,0.467881,5.795375E-08,NaN,-0.4845962,1.126748E-06,-0.386767,-3.791282E-09,NaN,NaN,-0.01996643,9.313204E-11,1.369612E-07,-1.151498E-07,1.765437E-08,-2.622604E-08
40.81749,-0.1231918,-3.426855E-08,NaN,-0.3266498,-1.365356E-07,NaN,0.467881,5.795375E-08,NaN,-0.4845962,1.126748E-06,-0.386767,-3.791282E-09,NaN,NaN,-0.01996643,9.313204E-11,1.369612E-07,-1.151498E-07,1.765437E-08,-2.622604E-08
40.83219,-0.1257512,-3.426824E-08,NaN,-0.3266579,-1.36543E-07,NaN,0.4691483,5.809094E-08,NaN,-0.4836432,1.127535E-06,-0.3877864,-3.925776E-09,NaN,NaN,-0.01996546,8.847543E-11,1.405375E-07,-1.151556E-07,2.003856E-08,-2.622604E-08
40.84845,-0.1288312,-3.426792E-08,NaN,-0.3266663,-1.365503E-07,NaN,0.4705151,5.822529E-08,NaN,-0.4826183,1.128322E-06,-0.3888844,-4.057422E-09,NaN,NaN,-0.01996442,8.381881E-11,1.438157E-07,-1.151613E-07,1.765437E-08,-2.622604E-08
40.86419,-0.1322257,-3.42676E-08,NaN,-0.3266741,-1.365572E-07,NaN,0.4718446,5.834896E-08,NaN,-0.4816274,1.129108E-06,-0.3899493,-4.178391E-09,NaN,NaN,-0.01996342,8.847543E-11,1.447098E-07,-1.151665E-07,1.765437E-08,-2.622604E-08
40.87991,-0.1322257,-3.42676E-08,NaN,-0.3266741,-1.365572E-07,NaN,0.4718446,5.834896E-08,NaN,-0.4816274,1.129108E-06,-0.3899493,-4.178391E-09,NaN,NaN,-0.01996342,8.847543E-11,1.447098E-07,-1.151665E-07,1.765437E-08,-2.622604E-08
40.89481,-0.1365322,-3.426728E-08,NaN,-0.3266836,-1.365638E-07,NaN,0.4736412,5.846358E-08,NaN,-0.4802935,1.129905E-06,-0.391395,-4.290305E-09,NaN,NaN,-0.01996205,8.847543E-11,1.46796E-07,-1.151715E-07,1.527019E-08,-2.622604E-08
40.91081,-0.1413945,-3.426695E-08,NaN,-0.3266927,-1.365702E-07,NaN,0.4755171,5.857207E-08,NaN,-0.4789076,1.130706E-06,-0.392903,-4.396087E-09,NaN,NaN,-0.01996063,8.847543E-11,1.481371E-07,-1.151763E-07,1.2886E-08,-2.622604E-08
40.92662,-0.146586,-3.426662E-08,NaN,-0.3267005,-1.365764E-07,NaN,0.4773345,5.86761E-08,NaN,-0.4775759,1.131502E-06,-0.3943604,-4.497398E-09,NaN,NaN,-0.01995926,9.313204E-11,1.524584E-07,-1.15181E-07,1.2886E-08,-2.622604E-08
40.9425,-0.151963,-3.426628E-08,NaN,-0.3267068,-1.365826E-07,NaN,0.4790569,5.87766E-08,NaN,-0.4763269,1.132303E-06,-0.3957383,-4.595183E-09,NaN,NaN,-0.01995796,9.313204E-11,1.551406E-07,-1.151856E-07,1.050182E-08,-2.622604E-08
40.95804,-0.151963,-3.426628E-08,NaN,-0.3267068,-1.365826E-07,NaN,0.4790569,5.87766E-08,NaN,-0.4763269,1.132303E-06,-0.3957383,-4.595183E-09,NaN,NaN,-0.01995796,9.313204E-11,1.551406E-07,-1.151856E-07,1.050182E-08,-2.622604E-08
40.97304,-0.1581624,-3.426594E-08,NaN,-0.3267142,-1.365887E-07,NaN,0.4812389,5.887416E-08,NaN,-0.4747529,1.133104E-06,-0.3974942,-4.690021E-09,NaN,NaN,-0.01995628,9.313204E-11,1.579719E-07,-1.151902E-07,5.733447E-09,-2.622604E-08
40.98934,-0.1648532,-3.42656E-08,NaN,-0.3267206,-1.365947E-07,NaN,0.4834999,5.896918E-08,NaN,-0.4731323,1.133905E-06,-0.3993135,-4.78232E-09,NaN,NaN,-0.01995454,9.313204E-11,1.622932E-07,-1.151948E-07,9.650751E-10,-2.622604E-08
41.00484,-0.1718251,-3.426525E-08,NaN,-0.3267253,-1.366007E-07,NaN,0.4857031,5.90617E-08,NaN,-0.4715678,1.134706E-06,-0.4010842,-4.872121E-09,NaN,NaN,-0.01995284,9.313204E-11,1.658695E-07,-1.151993E-07,-1.419111E-09,-2.622604E-08
41.02081,-0.1789446,-3.42649E-08,NaN,-0.3267281,-1.366067E-07,NaN,0.4878112,5.915213E-08,NaN,-0.4700876,1.135507E-06,-0.4027764,-4.959824E-09,NaN,NaN,-0.01995122,9.313204E-11,1.670616E-07,-1.152038E-07,9.650751E-10,-2.622604E-08
41.03621,-0.1789446,-3.42649E-08,NaN,-0.3267281,-1.366067E-07,NaN,0.4878112,5.915213E-08,NaN,-0.4700876,1.135507E-06,-0.4027764,-4.959824E-09,NaN,NaN,-0.01995122,9.313204E-11,1.670616E-07,-1.152038E-07,9.650751E-10,-2.622604E-08
41.0513,-0.1868555,-3.426454E-08,NaN,-0.3267318,-1.366127E-07,NaN,0.4903902,5.924032E-08,NaN,-0.4682871,1.136307E-06,-0.4048592,-5.045288E-09,NaN,NaN,-0.0199492,9.313204E-11,1.710849E-07,-1.152083E-07,-1.419111E-09,-2.622604E-08
41.06739,-0.195231,-3.426418E-08,NaN,-0.3267341,-1.366186E-07,NaN,0.493049,5.932667E-08,NaN,-0.4664441,1.137108E-06,-0.4070075,-5.128911E-09,NaN,NaN,-0.01994712,9.313204E-11,1.745121E-07,-1.152128E-07,-1.419111E-09,-2.622604E-08
41.08459,-0.2038638,-3.426382E-08,NaN,-0.3267352,-1.366245E-07,NaN,0.4956481,5.941104E-08,NaN,-0.4646624,1.137909E-06,-0.4091071,-5.210558E-09,NaN,NaN,-0.01994508,9.313204E-11,1.767473E-07,-1.152173E-07,3.349261E-09,-2.622604E-08
41.0989,-0.2038638,-3.426382E-08,NaN,-0.3267352,-1.366245E-07,NaN,0.4956481,5.941104E-08,NaN,-0.4646624,1.137909E-06,-0.4091071,-5.210558E-09,NaN,NaN,-0.01994508,9.313204E-11,1.767473E-07,-1.152173E-07,3.349261E-09,-2.622604E-08
41.11388,-0.2126222,-3.426345E-08,NaN,-0.3267355,-1.366304E-07,NaN,0.4981488,5.949347E-08,NaN,-0.4629709,1.13871E-06,-0.411127,-5.290258E-09,NaN,NaN,-0.01994311,9.313204E-11,1.794295E-07,-1.152218E-07,3.349261E-09,-2.622604E-08
41.1303,-0.2221511,-3.426308E-08,NaN,-0.3267366,-1.366363E-07,NaN,0.5011299,5.957417E-08,NaN,-0.4609667,1.139506E-06,-0.4135485,-5.368227E-09,NaN,NaN,-0.01994071,9.313204E-11,1.833038E-07,-1.152262E-07,-1.419111E-09,-2.622604E-08
41.14608,-0.232125,-3.426271E-08,NaN,-0.326737,-1.366422E-07,NaN,0.5041907,5.965283E-08,NaN,-0.4589271,1.140303E-06,-0.4160373,-5.444149E-09,NaN,NaN,-0.01993825,9.313204E-11,1.873271E-07,-1.152306E-07,-3.803296E-09,-2.622604E-08
41.16143,-0.2423368,-3.426234E-08,NaN,-0.3267365,-1.36648E-07,NaN,0.5071878,5.972982E-08,NaN,-0.4569552,1.141094E-06,-0.4184749,-5.518415E-09,NaN,NaN,-0.01993583,9.778866E-11,1.907544E-07,-1.15235E-07,-3.803296E-09,-2.622604E-08
41.17707,-0.2423368,-3.426234E-08,NaN,-0.3267365,-1.36648E-07,NaN,0.5071878,5.972982E-08,NaN,-0.4569552,1.141094E-06,-0.4184749,-5.518415E-09,NaN,NaN,-0.01993583,9.778866E-11,1.907544E-07,-1.15235E-07,-3.803296E-09,-2.622604E-08
41.1922,-0.2526557,-3.426196E-08,NaN,-0.3267353,-1.366539E-07,NaN,0.5100811,5.980502E-08,NaN,-0.4550797,1.141886E-06,-0.420829,-5.590878E-09,NaN,NaN,-0.01993348,1.024453E-10,1.962678E-07,-1.152394E-07,-3.803296E-09,-2.622604E-08
41.20894,-0.2637268,-3.426157E-08,NaN,-0.3267349,-1.366597E-07,NaN,0.5134668,5.987863E-08,NaN,-0.4529003,1.142678E-06,-0.4235984,-5.661757E-09,NaN,NaN,-0.01993068,1.071019E-10,2.038674E-07,-1.152438E-07,-6.187482E-09,-2.622604E-08
41.2244,-0.2752249,-3.426118E-08,NaN,-0.3267337,-1.366655E-07,NaN,0.5169323,5.99505E-08,NaN,-0.4506924,1.143469E-06,-0.4264365,-5.730898E-09,NaN,NaN,-0.01992781,1.117585E-10,2.083378E-07,-1.152482E-07,-6.187482E-09,-2.622604E-08
41.24023,-0.2869432,-3.426079E-08,NaN,-0.3267315,-1.366712E-07,NaN,0.5203301,6.002067E-08,NaN,-0.4485585,1.144261E-06,-0.4292209,-5.79834E-09,NaN,NaN,-0.01992498,1.164151E-10,2.162354E-07,-1.152525E-07,-6.187482E-09,-2.622604E-08
41.25584,-0.2869432,-3.426079E-08,NaN,-0.3267315,-1.366712E-07,NaN,0.5203301,6.002067E-08,NaN,-0.4485585,1.144261E-06,-0.4292209,-5.79834E-09,NaN,NaN,-0.01992498,1.164151E-10,2.162354E-07,-1.152525E-07,-6.187482E-09,-2.622604E-08
41.27059,-0.2987511,-3.42604E-08,NaN,-0.3267286,-1.36677E-07,NaN,0.5236191,6.008918E-08,NaN,-0.4465272,1.145052E-06,-0.4319181,-5.864115E-09,NaN,NaN,-0.01992223,1.210717E-10,2.192156E-07,-1.152569E-07,9.650751E-10,-2.622604E-08
41.28727,-0.3112941,-3.426001E-08,NaN,-0.3267265,-1.366827E-07,NaN,0.5274158,6.015622E-08,NaN,-0.4442008,1.145844E-06,-0.4350474,-5.928428E-09,NaN,NaN,-0.01991899,1.257283E-10,2.251761E-07,-1.152612E-07,3.349261E-09,-2.622604E-08
41.30242,-0.3242469,-3.425961E-08,NaN,-0.3267234,-1.366885E-07,NaN,0.5312935,6.022184E-08,NaN,-0.4418527,1.146636E-06,-0.4382477,-5.991313E-09,NaN,NaN,-0.01991569,1.30385E-10,2.293484E-07,-1.152655E-07,9.650751E-10,-2.622604E-08
41.31839,-0.3242469,-3.425961E-08,NaN,-0.3267234,-1.366885E-07,NaN,0.5312935,6.022184E-08,NaN,-0.4418527,1.146636E-06,-0.4382477,-5.991313E-09,NaN,NaN,-0.01991569,1.30385E-10,2.293484E-07,-1.152655E-07,9.650751E-10,-2.622604E-08
41.33323,-0.3374032,-3.425921E-08,NaN,-0.3267186,-1.366942E-07,NaN,0.5350991,6.028588E-08,NaN,-0.4395843,1.147427E-06,-0.441391,-6.052621E-09,NaN,NaN,-0.01991243,1.350416E-10,2.327757E-07,-1.152698E-07,9.650751E-10,-2.622604E-08
41.34967,-0.3506325,-3.42588E-08,NaN,-0.326712,-1.366998E-07,NaN,0.5387902,6.034855E-08,NaN,-0.437424,1.148219E-06,-0.4444424,-6.112559E-09,NaN,NaN,-0.01990925,1.396982E-10,2.356069E-07,-1.152741E-07,3.349261E-09,-2.622604E-08
41.36559,-0.3645803,-3.42584E-08,NaN,-0.3267064,-1.367055E-07,NaN,0.5430083,6.040953E-08,NaN,-0.4349777,1.14901E-06,-0.4479465,-6.170802E-09,NaN,NaN,-0.01990554,1.443548E-10,2.418654E-07,-1.152784E-07,-3.803296E-09,-2.622604E-08
41.38101,-0.3789218,-3.425798E-08,NaN,-0.3266991,-1.367112E-07,NaN,0.547309,6.04692E-08,NaN,-0.4325159,1.149802E-06,-0.4515241,-6.227731E-09,NaN,NaN,-0.01990176,1.490114E-10,2.461867E-07,-1.152827E-07,-1.419111E-09,-2.622604E-08
41.39665,-0.3789218,-3.425798E-08,NaN,-0.3266991,-1.367112E-07,NaN,0.547309,6.04692E-08,NaN,-0.4325159,1.149802E-06,-0.4515241,-6.227731E-09,NaN,NaN,-0.01990176,1.490114E-10,2.461867E-07,-1.152827E-07,-1.419111E-09,-2.622604E-08
41.41153,-0.3934507,-3.425757E-08,NaN,-0.3266894,-1.367168E-07,NaN,0.5515345,6.05274E-08,NaN,-0.4301394,1.150594E-06,-0.4550424,-6.2832E-09,NaN,NaN,-0.01989804,1.53668E-10,2.536373E-07,-1.152869E-07,9.650751E-10,-2.622604E-08
41.428,-0.4080366,-3.425715E-08,NaN,-0.3266777,-1.367224E-07,NaN,0.5556415,6.058434E-08,NaN,-0.4278764,1.151385E-06,-0.458466,-6.337413E-09,NaN,NaN,-0.01989439,1.583246E-10,2.582566E-07,-1.152911E-07,9.650751E-10,-2.622604E-08
41.44363,-0.4233255,-3.425673E-08,NaN,-0.3266668,-1.36728E-07,NaN,0.560297,6.063988E-08,NaN,-0.4253364,1.152177E-06,-0.462365,-6.390218E-09,NaN,NaN,-0.01989018,1.629812E-10,2.63174E-07,-1.152954E-07,9.650751E-10,-2.622604E-08
41.45934,-0.4233255,-3.425673E-08,NaN,-0.3266668,-1.36728E-07,NaN,0.560297,6.063988E-08,NaN,-0.4253364,1.152177E-06,-0.462365,-6.390218E-09,NaN,NaN,-0.01989018,1.629812E-10,2.63174E-07,-1.152954E-07,9.650751E-10,-2.622604E-08
41.47456,-0.4389925,-3.42563E-08,NaN,-0.3266541,-1.367336E-07,NaN,0.5650386,6.069421E-08,NaN,-0.4227872,1.152968E-06,-0.4663419,-6.44182E-09,NaN,NaN,-0.01988589,1.676378E-10,2.682404E-07,-1.152996E-07,3.349261E-09,-2.622604E-08
41.49089,-0.4548315,-3.425587E-08,NaN,-0.3266389,-1.367391E-07,NaN,0.5697027,6.074719E-08,NaN,-0.4203288,1.15376E-06,-0.470258,-6.492065E-09,NaN,NaN,-0.01988166,1.722944E-10,2.74946E-07,-1.153038E-07,9.650751E-10,-2.622604E-08
41.50663,-0.4707125,-3.425544E-08,NaN,-0.3266215,-1.367447E-07,NaN,0.5742441,6.079883E-08,NaN,-0.4179889,1.154552E-06,-0.4740764,-6.54098E-09,NaN,NaN,-0.01987751,1.76951E-10,2.771811E-07,-1.153079E-07,9.650751E-10,-2.622604E-08
41.52225,-0.4872814,-3.4255E-08,NaN,-0.3266051,-1.367502E-07,NaN,0.5793589,6.084935E-08,NaN,-0.4153813,1.155343E-06,-0.478396,-6.588767E-09,NaN,NaN,-0.01987272,1.816076E-10,2.859728E-07,-1.153121E-07,9.650751E-10,-2.622604E-08
41.53777,-0.4872814,-3.4255E-08,NaN,-0.3266051,-1.367502E-07,NaN,0.5793589,6.084935E-08,NaN,-0.4153813,1.155343E-06,-0.478396,-6.588767E-09,NaN,NaN,-0.01987272,1.816076E-10,2.859728E-07,-1.153121E-07,9.650751E-10,-2.622604E-08
41.55298,-0.5042136,-3.425456E-08,NaN,-0.3265866,-1.367557E-07,NaN,0.5845641,6.089859E-08,NaN,-0.4127707,1.156135E-06,-0.4827986,-6.635273E-09,NaN,NaN,-0.01986787,1.862643E-10,2.868669E-07,-1.153162E-07,5.733447E-09,-2.622604E-08
41.57028,-0.5213032,-3.425411E-08,NaN,-0.3265657,-1.367612E-07,NaN,0.5896896,6.094674E-08,NaN,-0.4102558,1.156926E-06,-0.4871391,-6.680697E-09,NaN,NaN,-0.01986306,1.909209E-10,2.967016E-07,-1.153204E-07,5.733447E-09,-2.622604E-08
41.58488,-0.5384203,-3.425367E-08,NaN,-0.3265426,-1.367667E-07,NaN,0.5946884,6.099366E-08,NaN,-0.4078642,1.157718E-06,-0.4913788,-6.724886E-09,NaN,NaN,-0.01985835,1.955775E-10,3.00725E-07,-1.153245E-07,5.733447E-09,-2.622604E-08
41.60046,-0.5562111,-3.425322E-08,NaN,-0.3265204,-1.367722E-07,NaN,0.6002886,6.103954E-08,NaN,-0.4052145,1.15851E-06,-0.4961486,-6.768039E-09,NaN,NaN,-0.01985295,2.002341E-10,3.048973E-07,-1.153286E-07,1.050182E-08,-2.622604E-08
41.61645,-0.5562111,-3.425322E-08,NaN,-0.3265204,-1.367722E-07,NaN,0.6002886,6.103954E-08,NaN,-0.4052145,1.15851E-06,-0.4961486,-6.768039E-09,NaN,NaN,-0.01985295,2.002341E-10,3.048973E-07,-1.153286E-07,1.050182E-08,-2.622604E-08
41.63132,-0.5743511,-3.425277E-08,NaN,-0.3264962,-1.367776E-07,NaN,0.6059843,6.108423E-08,NaN,-0.4025678,1.159306E-06,-0.5010074,-6.810001E-09,NaN,NaN,-0.01984748,2.002341E-10,3.101127E-07,-1.153327E-07,8.117633E-09,-2.622604E-08
41.64762,-0.5926346,-3.425232E-08,NaN,-0.3264695,-1.36783E-07,NaN,0.6115983,6.112793E-08,NaN,-0.4000218,1.160102E-06,-0.5058027,-6.850969E-09,NaN,NaN,-0.01984207,2.002341E-10,3.154771E-07,-1.153368E-07,1.050182E-08,-2.622604E-08
41.66303,-0.6109318,-3.425186E-08,NaN,-0.3264406,-1.367884E-07,NaN,0.6170814,6.117047E-08,NaN,-0.3976036,1.160903E-06,-0.5104939,-6.890791E-09,NaN,NaN,-0.01983673,1.955775E-10,3.180103E-07,-1.153409E-07,1.050182E-08,-2.622604E-08
41.67913,-0.6109318,-3.425186E-08,NaN,-0.3264406,-1.367884E-07,NaN,0.6170814,6.117047E-08,NaN,-0.3976036,1.160903E-06,-0.5104939,-6.890791E-09,NaN,NaN,-0.01983673,1.955775E-10,3.180103E-07,-1.153409E-07,1.050182E-08,-2.622604E-08
41.69375,-0.629889,-3.42514E-08,NaN,-0.3264127,-1.367938E-07,NaN,0.6231969,6.121208E-08,NaN,-0.3949372,1.161699E-06,-0.5157473,-6.929665E-09,NaN,NaN,-0.01983066,1.955775E-10,3.190534E-07,-1.153449E-07,1.2886E-08,-2.622604E-08
41.71031,-0.6491818,-3.425093E-08,NaN,-0.3263828,-1.367992E-07,NaN,0.6294138,6.125275E-08,NaN,-0.3922798,1.1625E-06,-0.5210962,-6.96761E-09,NaN,NaN,-0.01982449,1.909209E-10,3.227787E-07,-1.15349E-07,8.117632E-09,-2.622604E-08
41.7259,-0.668605,-3.425046E-08,NaN,-0.3263502,-1.368046E-07,NaN,0.6355469,6.129233E-08,NaN,-0.3897278,1.163296E-06,-0.5263802,-7.004468E-09,NaN,NaN,-0.0198184,1.909209E-10,3.259079E-07,-1.15353E-07,8.117632E-09,-2.622604E-08
41.74194,-0.6880286,-3.424999E-08,NaN,-0.3263156,-1.368099E-07,NaN,0.6415448,6.133103E-08,NaN,-0.3873079,1.164093E-06,-0.5315564,-7.040441E-09,NaN,NaN,-0.0198124,1.909209E-10,3.291862E-07,-1.15357E-07,1.050182E-08,-2.622604E-08
41.75743,-0.6880286,-3.424999E-08,NaN,-0.3263156,-1.368099E-07,NaN,0.6415448,6.133103E-08,NaN,-0.3873079,1.164093E-06,-0.5315564,-7.040441E-09,NaN,NaN,-0.0198124,1.909209E-10,3.291862E-07,-1.15357E-07,1.050182E-08,-2.622604E-08
41.77243,-0.7080992,-3.424952E-08,NaN,-0.326282,-1.368152E-07,NaN,0.6482091,6.136867E-08,NaN,-0.3846504,1.164889E-06,-0.5373299,-7.075358E-09,NaN,NaN,-0.01980557,1.909209E-10,3.367858E-07,-1.15361E-07,1.050182E-08,-2.622604E-08
41.78867,-0.7284927,-3.424904E-08,NaN,-0.3262464,-1.368205E-07,NaN,0.6549813,6.140546E-08,NaN,-0.3820079,1.16569E-06,-0.543206,-7.109423E-09,NaN,NaN,-0.01979867,1.862643E-10,3.406601E-07,-1.15365E-07,1.2886E-08,-2.622604E-08
41.80421,-0.7490038,-3.424856E-08,NaN,-0.3262081,-1.368258E-07,NaN,0.6616672,6.144123E-08,NaN,-0.3794754,1.166486E-06,-0.5490153,-7.142476E-09,NaN,NaN,-0.01979185,1.862643E-10,3.460245E-07,-1.15369E-07,5.733446E-09,-2.622604E-08
41.82002,-0.7695027,-3.424808E-08,NaN,-0.3261678,-1.368311E-07,NaN,0.6682128,6.147619E-08,NaN,-0.3770792,1.167282E-06,-0.5547127,-7.174712E-09,NaN,NaN,-0.01978512,1.862643E-10,3.5273E-07,-1.15373E-07,3.34926E-09,-2.622604E-08
41.83558,-0.7695027,-3.424808E-08,NaN,-0.3261678,-1.368311E-07,NaN,0.6682128,6.147619E-08,NaN,-0.3770792,1.167282E-06,-0.5547127,-7.174712E-09,NaN,NaN,-0.01978512,1.862643E-10,3.5273E-07,-1.15373E-07,3.34926E-09,-2.622604E-08
41.85091,-0.7901291,-3.424759E-08,NaN,-0.3261269,-1.368364E-07,NaN,0.6748714,6.151018E-08,NaN,-0.3747085,1.168079E-06,-0.5605237,-7.205971E-09,NaN,NaN,-0.01977816,1.862643E-10,3.573494E-07,-1.153769E-07,3.34926E-09,-2.622604E-08
41.86708,-0.8107494,-3.42471E-08,NaN,-0.3260852,-1.368416E-07,NaN,0.6814715,6.154337E-08,NaN,-0.3724316,1.16887E-06,-0.5662962,-7.236448E-09,NaN,NaN,-0.01977122,1.909209E-10,3.64651E-07,-1.153809E-07,-1.419111E-09,-2.622604E-08
41.88269,-0.8312793,-3.424661E-08,NaN,-0.3260428,-1.368468E-07,NaN,0.6879594,6.157563E-08,NaN,-0.3702688,1.169662E-06,-0.5719835,-7.265984E-09,NaN,NaN,-0.01976435,1.955775E-10,3.661411E-07,-1.153848E-07,-4.99539E-09,-2.622604E-08
41.89837,-0.8312793,-3.424661E-08,NaN,-0.3260428,-1.368468E-07,NaN,0.6879594,6.157563E-08,NaN,-0.3702688,1.169662E-06,-0.5719835,-7.265984E-09,NaN,NaN,-0.01976435,1.955775E-10,3.661411E-07,-1.153848E-07,-4.99539E-09,-2.622604E-08
41.91333,-0.8516665,-3.424611E-08,NaN,-0.3260003,-1.368521E-07,NaN,0.6943246,6.160715E-08,NaN,-0.3682211,1.170463E-06,-0.5775772,-7.294771E-09,NaN,NaN,-0.01975755,1.909209E-10,3.65098E-07,-1.153887E-07,-1.214795E-08,-2.622604E-08
41.92958,-0.8718787,-3.424561E-08,NaN,-0.3259583,-1.368572E-07,NaN,0.7005705,6.163793E-08,NaN,-0.3662824,1.171259E-06,-0.5830807,-7.322825E-09,NaN,NaN,-0.0197508,1.909209E-10,3.719525E-07,-1.153926E-07,-8.571668E-09,-2.622604E-08
41.94559,-0.8918962,-3.424511E-08,NaN,-0.3259172,-1.368624E-07,NaN,0.7067034,6.166781E-08,NaN,-0.3644452,1.17206E-06,-0.5884998,-7.349988E-09,NaN,NaN,-0.01974412,1.862643E-10,3.802972E-07,-1.153965E-07,-7.379575E-09,-2.622604E-08
41.96087,-0.9117076,-3.424461E-08,NaN,-0.3258771,-1.368676E-07,NaN,0.7127284,6.169699E-08,NaN,-0.3627027,1.172856E-06,-0.593839,-7.376448E-09,NaN,NaN,-0.01973751,1.862643E-10,3.859596E-07,-1.154004E-07,-8.571668E-09,-2.622604E-08
41.97683,-0.9117076,-3.424461E-08,NaN,-0.3258771,-1.368676E-07,NaN,0.7127284,6.169699E-08,NaN,-0.3627027,1.172856E-06,-0.593839,-7.376448E-09,NaN,NaN,-0.01973751,1.862643E-10,3.859596E-07,-1.154004E-07,-8.571668E-09,-2.622604E-08
41.99186,-0.9313065,-3.42441E-08,NaN,-0.3258385,-1.368727E-07,NaN,0.7186494,6.172531E-08,NaN,-0.3610489,1.173648E-06,-0.5991013,-7.402043E-09,NaN,NaN,-0.01973099,1.909209E-10,3.865557E-07,-1.154043E-07,-1.334004E-08,-2.622604E-08
42.0083,-0.95069,-3.424359E-08,NaN,-0.3258013,-1.368778E-07,NaN,0.7244684,6.175296E-08,NaN,-0.3594791,1.174439E-06,-0.6042882,-7.42697E-09,NaN,NaN,-0.01972454,1.955775E-10,3.875987E-07,-1.154081E-07,-1.334004E-08,-2.622604E-08
42.02386,-0.9698568,-3.424307E-08,NaN,-0.3257658,-1.36883E-07,NaN,0.7301863,6.177977E-08,NaN,-0.3579893,1.175236E-06,-0.6093999,-7.451062E-09,NaN,NaN,-0.01971818,1.955775E-10,3.925161E-07,-1.15412E-07,-1.095585E-08,-2.622604E-08
42.03952,-0.9698568,-3.424307E-08,NaN,-0.3257658,-1.36883E-07,NaN,0.7301863,6.177977E-08,NaN,-0.3579893,1.175236E-06,-0.6093999,-7.451062E-09,NaN,NaN,-0.01971818,1.955775E-10,3.925161E-07,-1.15412E-07,-1.095585E-08,-2.622604E-08
42.0561,-0.9888073,-3.424256E-08,NaN,-0.3257319,-1.368881E-07,NaN,0.7358032,6.18019E-08,NaN,-0.3565764,1.176032E-06,-0.614436,-7.470466E-09,NaN,NaN,-0.01971192,1.909209E-10,3.977315E-07,-1.154158E-07,-7.379574E-09,-2.861022E-08
42.07064,-1.007543,-3.424204E-08,NaN,-0.3256996,-1.368931E-07,NaN,0.7413186,6.182361E-08,NaN,-0.3552374,1.176824E-06,-0.6193956,-7.489453E-09,NaN,NaN,-0.01970576,1.909209E-10,4.008608E-07,-1.154196E-07,-9.76376E-09,-2.622604E-08
42.09093,-1.026064,-3.424152E-08,NaN,-0.3256689,-1.368982E-07,NaN,0.7467318,6.184455E-08,NaN,-0.3539701,1.17762E-06,-0.6242774,-7.507677E-09,NaN,NaN,-0.01969973,1.862643E-10,4.007117E-07,-1.154234E-07,-6.187481E-09,-2.861022E-08
42.10193,-1.044374,-3.424099E-08,NaN,-0.3256399,-1.369033E-07,NaN,0.7520415,6.186493E-08,NaN,-0.352772,1.178411E-06,-0.6290796,-7.525334E-09,NaN,NaN,-0.01969381,1.862643E-10,4.03394E-07,-1.154272E-07,-2.611202E-09,-2.622604E-08
42.11766,-1.044374,-3.424099E-08,NaN,-0.3256399,-1.369033E-07,NaN,0.7520415,6.186493E-08,NaN,-0.352772,1.178411E-06,-0.6290796,-7.525334E-09,NaN,NaN,-0.01969381,1.862643E-10,4.03394E-07,-1.154272E-07,-2.611202E-09,-2.622604E-08
42.13248,-1.062474,-3.424046E-08,NaN,-0.3256124,-1.369083E-07,NaN,0.7572466,6.188475E-08,NaN,-0.3516412,1.179203E-06,-0.6338009,-7.542431E-09,NaN,NaN,-0.01968801,1.862643E-10,4.0399E-07,-1.15431E-07,-2.270164E-10,-2.861022E-08
42.14885,-1.080366,-3.423993E-08,NaN,-0.3255864,-1.369133E-07,NaN,0.7623459,6.190402E-08,NaN,-0.3505757,1.179985E-06,-0.6384394,-7.558978E-09,NaN,NaN,-0.01968234,1.955775E-10,4.04288E-07,-1.154347E-07,-2.611202E-09,-2.622604E-08
42.16432,-1.098054,-3.42394E-08,NaN,-0.325562,-1.369183E-07,NaN,0.767338,6.192275E-08,NaN,-0.3495736,1.180782E-06,-0.6429937,-7.574987E-09,NaN,NaN,-0.0196768,1.909209E-10,4.045861E-07,-1.154385E-07,-2.270164E-10,-2.861022E-08
42.17995,-1.098054,-3.42394E-08,NaN,-0.325562,-1.369183E-07,NaN,0.767338,6.192275E-08,NaN,-0.3495736,1.180782E-06,-0.6429937,-7.574987E-09,NaN,NaN,-0.0196768,1.909209E-10,4.045861E-07,-1.154385E-07,-2.270164E-10,-2.861022E-08
42.19512,-1.115538,-3.423886E-08,NaN,-0.325539,-1.369233E-07,NaN,0.7722218,6.194077E-08,NaN,-0.3486332,1.181573E-06,-0.6474621,-7.590294E-09,NaN,NaN,-0.01967139,1.909209E-10,4.096525E-07,-1.154422E-07,3.349262E-09,-2.622604E-08
42.21183,-1.132821,-3.423832E-08,NaN,-0.3255174,-1.369283E-07,NaN,0.7769962,6.195829E-08,NaN,-0.3477525,1.182369E-06,-0.6518431,-7.605088E-09,NaN,NaN,-0.01966613,1.862643E-10,4.059272E-07,-1.15446E-07,2.753216E-09,-2.861022E-08
42.22741,-1.149906,-3.423778E-08,NaN,-0.3254973,-1.369333E-07,NaN,0.7816601,6.19753E-08,NaN,-0.3469301,1.183161E-06,-0.6561352,-7.61938E-09,NaN,NaN,-0.01966101,1.862643E-10,4.063742E-07,-1.154497E-07,3.349262E-09,-2.622604E-08
42.24317,-1.166795,-3.423724E-08,NaN,-0.3254784,-1.369382E-07,NaN,0.7862124,6.199182E-08,NaN,-0.346164,1.183957E-06,-0.6603371,-7.633181E-09,NaN,NaN,-0.01965603,1.816077E-10,4.074173E-07,-1.154534E-07,2.753216E-09,-2.861022E-08
42.25856,-1.166795,-3.423724E-08,NaN,-0.3254784,-1.369382E-07,NaN,0.7862124,6.199182E-08,NaN,-0.346164,1.183957E-06,-0.6603371,-7.633181E-09,NaN,NaN,-0.01965603,1.816077E-10,4.074173E-07,-1.154534E-07,2.753216E-09,-2.861022E-08
42.27352,-1.183489,-3.423669E-08,NaN,-0.3254609,-1.369431E-07,NaN,0.7906523,6.200768E-08,NaN,-0.3454528,1.184749E-06,-0.6644474,-7.646319E-09,NaN,NaN,-0.01965121,1.816077E-10,4.056292E-07,-1.154571E-07,9.650766E-10,-2.622604E-08
42.28994,-1.199992,-3.423614E-08,NaN,-0.3254445,-1.36948E-07,NaN,0.794979,6.202306E-08,NaN,-0.3447949,1.185541E-06,-0.6684651,-7.658985E-09,NaN,NaN,-0.01964653,1.769511E-10,4.03245E-07,-1.154608E-07,3.349262E-09,-2.861022E-08
42.3055,-1.216305,-3.423558E-08,NaN,-0.3254295,-1.369529E-07,NaN,0.7991915,6.203798E-08,NaN,-0.3441885,1.186327E-06,-0.6723888,-7.671188E-09,NaN,NaN,-0.019642,1.722944E-10,4.008608E-07,-1.154644E-07,4.541355E-09,-2.622604E-08
42.32129,-1.232431,-3.423503E-08,NaN,-0.3254156,-1.369578E-07,NaN,0.8032892,6.205246E-08,NaN,-0.3436323,1.18711E-06,-0.6762176,-7.682941E-09,NaN,NaN,-0.01963763,1.676378E-10,4.016058E-07,-1.154681E-07,7.521587E-09,-2.861022E-08
42.33693,-1.232431,-3.423503E-08,NaN,-0.3254156,-1.369578E-07,NaN,0.8032892,6.205246E-08,NaN,-0.3436323,1.18711E-06,-0.6762176,-7.682941E-09,NaN,NaN,-0.01963763,1.676378E-10,4.016058E-07,-1.154681E-07,7.521587E-09,-2.861022E-08
42.35217,-1.248371,-3.423447E-08,NaN,-0.3254028,-1.369627E-07,NaN,0.8072717,6.206648E-08,NaN,-0.3431247,1.187878E-06,-0.6799506,-7.694245E-09,NaN,NaN,-0.0196334,1.769511E-10,4.045861E-07,-1.154717E-07,6.329494E-09,-2.622604E-08
42.36841,-1.264128,-3.423391E-08,NaN,-0.3253912,-1.369676E-07,NaN,0.8111383,6.207989E-08,NaN,-0.3426641,1.188656E-06,-0.683587,-7.704934E-09,NaN,NaN,-0.01962933,1.769511E-10,4.03394E-07,-1.154754E-07,7.521587E-09,-2.861022E-08
42.38412,-1.279704,-3.423334E-08,NaN,-0.3253807,-1.369724E-07,NaN,0.8148888,6.209288E-08,NaN,-0.3422492,1.189429E-06,-0.687126,-7.715201E-09,NaN,NaN,-0.01962542,1.816077E-10,4.051821E-07,-1.15479E-07,8.117634E-09,-2.622604E-08
42.40001,-1.295101,-3.423277E-08,NaN,-0.3253711,-1.369772E-07,NaN,0.8185229,6.210545E-08,NaN,-0.3418785,1.190206E-06,-0.690567,-7.72505E-09,NaN,NaN,-0.01962166,1.816077E-10,4.020529E-07,-1.154826E-07,8.71368E-09,-2.861022E-08
42.41516,-1.295101,-3.423277E-08,NaN,-0.3253711,-1.369772E-07,NaN,0.8185229,6.210545E-08,NaN,-0.3418785,1.190206E-06,-0.690567,-7.72505E-09,NaN,NaN,-0.01962166,1.816077E-10,4.020529E-07,-1.154826E-07,8.71368E-09,-2.861022E-08
42.43008,-1.310321,-3.42322E-08,NaN,-0.3253626,-1.36982E-07,NaN,0.8220404,6.211761E-08,NaN,-0.3415506,1.190984E-06,-0.6939094,-7.734489E-09,NaN,NaN,-0.01961807,1.816077E-10,3.972845E-07,-1.154862E-07,9.60775E-09,-2.622604E-08
42.44667,-1.325366,-3.423163E-08,NaN,-0.3253551,-1.369868E-07,NaN,0.8254411,6.212936E-08,NaN,-0.3412642,1.191761E-06,-0.6971528,-7.743526E-09,NaN,NaN,-0.01961463,1.816077E-10,3.993707E-07,-1.154898E-07,9.011703E-09,-2.861022E-08
42.46239,-1.340017,-3.423106E-08,NaN,-0.3253478,-1.369916E-07,NaN,0.8284014,6.214072E-08,NaN,-0.3411134,1.192539E-06,-0.7000018,-7.752171E-09,NaN,NaN,-0.01961175,1.816077E-10,3.980296E-07,-1.154934E-07,7.968622E-09,-2.622604E-08
42.47808,-1.340017,-3.423106E-08,NaN,-0.3253478,-1.369916E-07,NaN,0.8284014,6.214072E-08,NaN,-0.3411134,1.192539E-06,-0.7000018,-7.752171E-09,NaN,NaN,-0.01961175,1.816077E-10,3.980296E-07,-1.154934E-07,7.968622E-09,-2.622604E-08
42.49321,-1.354359,-3.423048E-08,NaN,-0.3253416,-1.369963E-07,NaN,0.8311554,6.21517E-08,NaN,-0.3410294,1.193317E-06,-0.7026715,-7.760431E-09,NaN,NaN,-0.01960905,1.816077E-10,3.941553E-07,-1.154969E-07,7.223564E-09,-2.861022E-08
42.50957,-1.368447,-3.42299E-08,NaN,-0.325337,-1.370011E-07,NaN,0.8337874,6.21623E-08,NaN,-0.340983,1.194094E-06,-0.7052382,-7.768314E-09,NaN,NaN,-0.01960644,1.816077E-10,3.923671E-07,-1.155005E-07,8.266645E-09,-2.622604E-08
42.52542,-1.382316,-3.422932E-08,NaN,-0.3253337,-1.370058E-07,NaN,0.8363233,6.217253E-08,NaN,-0.3409634,1.194872E-06,-0.7077246,-7.775826E-09,NaN,NaN,-0.01960394,1.816077E-10,3.925161E-07,-1.15504E-07,8.266645E-09,-2.861022E-08
42.54216,-1.395262,-3.422873E-08,NaN,-0.3253294,-1.370105E-07,NaN,0.8376912,6.218222E-08,NaN,-0.341278,1.19565E-06,-0.7091514,-7.7828E-09,NaN,NaN,-0.01960295,1.816077E-10,3.926652E-07,-1.155076E-07,8.043128E-09,-2.622604E-08
42.55637,-1.395262,-3.422873E-08,NaN,-0.3253294,-1.370105E-07,NaN,0.8376912,6.218222E-08,NaN,-0.341278,1.19565E-06,-0.7091514,-7.7828E-09,NaN,NaN,-0.01960295,1.816077E-10,3.926652E-07,-1.155076E-07,8.043128E-09,-2.622604E-08
42.57131,-1.407572,-3.422814E-08,NaN,-0.3253269,-1.370152E-07,NaN,0.8386703,6.219156E-08,NaN,-0.3417078,1.196427E-06,-0.7102352,-7.789419E-09,NaN,NaN,-0.01960227,1.816077E-10,3.90281E-07,-1.155111E-07,8.508789E-09,-2.861022E-08
42.58815,-1.419432,-3.422755E-08,NaN,-0.3253262,-1.370199E-07,NaN,0.8395372,6.220073E-08,NaN,-0.3421618,1.197205E-06,-0.7112275,-7.79587E-09,NaN,NaN,-0.01960165,1.816077E-10,3.896849E-07,-1.155146E-07,8.285272E-09,-2.622604E-08
42.60336,-1.430958,-3.422696E-08,NaN,-0.3253267,-1.370246E-07,NaN,0.8403735,6.220955E-08,NaN,-0.3426088,1.197982E-06,-0.7122005,-7.80198E-09,NaN,NaN,-0.01960107,1.816077E-10,3.867047E-07,-1.155181E-07,8.061755E-09,-2.861022E-08
42.61951,-1.430958,-3.422696E-08,NaN,-0.3253267,-1.370246E-07,NaN,0.8403735,6.220955E-08,NaN,-0.3426088,1.197982E-06,-0.7122005,-7.80198E-09,NaN,NaN,-0.01960107,1.816077E-10,3.867047E-07,-1.155181E-07,8.061755E-09,-2.861022E-08
42.63421,-1.441499,-3.422636E-08,NaN,-0.3253267,-1.370293E-07,NaN,0.8401175,6.228426E-08,NaN,-0.343353,1.19876E-06,-0.7121825,-7.87398E-09,NaN,NaN,-0.01960189,1.816077E-10,3.838734E-07,-1.155216E-07,7.316697E-09,-2.622604E-08
42.65044,-1.451375,-3.422577E-08,NaN,-0.3253278,-1.37034E-07,NaN,0.8395405,6.23577E-08,NaN,-0.3441793,1.199538E-06,-0.7118821,-7.944695E-09,NaN,NaN,-0.01960297,1.816077E-10,3.792541E-07,-1.155252E-07,7.61472E-09,-2.861022E-08
42.66593,-1.460792,-3.422517E-08,NaN,-0.3253302,-1.370386E-07,NaN,0.8389101,6.242988E-08,NaN,-0.3450026,1.200315E-06,-0.7115421,-8.014157E-09,NaN,NaN,-0.01960403,1.816077E-10,3.77764E-07,-1.155287E-07,7.316696E-09,-2.622604E-08
42.68172,-1.469882,-3.422456E-08,NaN,-0.3253336,-1.370433E-07,NaN,0.8382996,6.250012E-08,NaN,-0.3457966,1.201093E-06,-0.7112274,-8.081686E-09,NaN,NaN,-0.01960508,1.816077E-10,3.78062E-07,-1.155322E-07,7.316696E-09,-2.861022E-08
42.69758,-1.469882,-3.422456E-08,NaN,-0.3253336,-1.370433E-07,NaN,0.8382996,6.250012E-08,NaN,-0.3457966,1.201093E-06,-0.7112274,-8.081686E-09,NaN,NaN,-0.01960508,1.816077E-10,3.78062E-07,-1.155322E-07,7.316696E-09,-2.861022E-08
42.71261,-1.477998,-3.422396E-08,NaN,-0.3253364,-1.370479E-07,NaN,0.8366506,6.256882E-08,NaN,-0.3468694,1.201871E-06,-0.7099692,-8.147675E-09,NaN,NaN,-0.01960745,1.816077E-10,3.732936E-07,-1.155357E-07,8.210765E-09,-2.622604E-08
42.72881,-1.485469,-3.422335E-08,NaN,-0.3253407,-1.370526E-07,NaN,0.8347247,6.263637E-08,NaN,-0.3480092,1.202648E-06,-0.7084671,-8.212504E-09,NaN,NaN,-0.01961,1.816077E-10,3.719525E-07,-1.155392E-07,7.912742E-09,-2.861022E-08
42.74496,-1.492503,-3.422274E-08,NaN,-0.3253477,-1.370572E-07,NaN,0.8327854,6.270243E-08,NaN,-0.3491333,1.203426E-06,-0.7069604,-8.275847E-09,NaN,NaN,-0.01961249,1.816077E-10,3.639059E-07,-1.155427E-07,8.210765E-09,-2.622604E-08
42.76015,-1.499232,-3.422212E-08,NaN,-0.325357,-1.370618E-07,NaN,0.8309022,6.276702E-08,NaN,-0.3502166,1.204203E-06,-0.7055107,-8.337732E-09,NaN,NaN,-0.0196149,1.816077E-10,3.607767E-07,-1.155462E-07,8.210765E-09,-2.861022E-08
42.77593,-1.499232,-3.422212E-08,NaN,-0.325357,-1.370618E-07,NaN,0.8309022,6.276702E-08,NaN,-0.3502166,1.204203E-06,-0.7055107,-8.337732E-09,NaN,NaN,-0.0196149,1.816077E-10,3.607767E-07,-1.155462E-07,8.210765E-09,-2.861022E-08
42.79073,-1.505013,-3.422151E-08,NaN,-0.325366,-1.370664E-07,NaN,0.8280317,6.283019E-08,NaN,-0.3515697,1.204981E-06,-0.7031636,-8.398189E-09,NaN,NaN,-0.01961852,1.816077E-10,3.554122E-07,-1.155496E-07,9.998905E-09,-2.622604E-08
42.80718,-1.510174,-3.422089E-08,NaN,-0.3253765,-1.37071E-07,NaN,0.8249224,6.289196E-08,NaN,-0.3529803,1.205759E-06,-0.7006056,-8.457242E-09,NaN,NaN,-0.01962228,1.816077E-10,3.498988E-07,-1.155531E-07,9.998905E-09,-2.861022E-08
42.82364,-1.514923,-3.422027E-08,NaN,-0.325389,-1.370756E-07,NaN,0.821833,6.295414E-08,NaN,-0.3543657,1.206532E-06,-0.698072,-8.516716E-09,NaN,NaN,-0.01962595,1.862643E-10,3.415541E-07,-1.155565E-07,9.998905E-09,-2.861022E-08
42.83875,-1.514923,-3.422027E-08,NaN,-0.325389,-1.370756E-07,NaN,0.821833,6.295414E-08,NaN,-0.3543657,1.206532E-06,-0.698072,-8.516716E-09,NaN,NaN,-0.01962595,1.862643E-10,3.415541E-07,-1.155565E-07,9.998905E-09,-2.861022E-08
42.85385,-1.518665,-3.421964E-08,NaN,-0.3254009,-1.370801E-07,NaN,0.8178061,6.301499E-08,NaN,-0.3560168,1.207305E-06,-0.6946877,-8.574849E-09,NaN,NaN,-0.01963072,1.909209E-10,3.354447E-07,-1.155599E-07,9.998905E-09,-2.861022E-08
42.87006,-1.521757,-3.421902E-08,NaN,-0.3254138,-1.370847E-07,NaN,0.8135969,6.307452E-08,NaN,-0.3577115,1.208077E-06,-0.6911441,-8.631668E-09,NaN,NaN,-0.01963557,1.955775E-10,3.303783E-07,-1.155634E-07,8.806812E-09,-2.861022E-08
42.88573,-1.524428,-3.421839E-08,NaN,-0.3254282,-1.370892E-07,NaN,0.8094618,6.313276E-08,NaN,-0.3593658,1.20885E-06,-0.6876741,-8.6872E-09,NaN,NaN,-0.01964024,2.002341E-10,3.245668E-07,-1.155668E-07,6.422626E-09,-2.861022E-08
42.90137,-1.526823,-3.421776E-08,NaN,-0.3254438,-1.370937E-07,NaN,0.8054639,6.318938E-08,NaN,-0.360956,1.209623E-06,-0.6843333,-8.741115E-09,NaN,NaN,-0.01964472,2.048907E-10,3.190534E-07,-1.155702E-07,6.422626E-09,-2.861022E-08
42.91687,-1.526823,-3.421776E-08,NaN,-0.3254438,-1.370937E-07,NaN,0.8054639,6.318938E-08,NaN,-0.360956,1.209623E-06,-0.6843333,-8.741115E-09,NaN,NaN,-0.01964472,2.048907E-10,3.190534E-07,-1.155702E-07,6.422626E-09,-2.861022E-08
42.93198,-1.528306,-3.421712E-08,NaN,-0.325458,-1.370982E-07,NaN,0.8006029,6.324478E-08,NaN,-0.3628034,1.210396E-06,-0.6802095,-8.793799E-09,NaN,NaN,-0.01965023,2.095473E-10,3.129439E-07,-1.155735E-07,6.422626E-09,-2.861022E-08
42.94846,-1.529209,-3.421649E-08,NaN,-0.3254721,-1.371026E-07,NaN,0.7955887,6.329932E-08,NaN,-0.3646917,1.211169E-06,-0.6759515,-8.845629E-09,NaN,NaN,-0.01965579,2.142039E-10,3.065364E-07,-1.155769E-07,4.038441E-09,-2.861022E-08
42.964,-1.529742,-3.421585E-08,NaN,-0.3254866,-1.371071E-07,NaN,0.7906661,6.335267E-08,NaN,-0.3665385,1.211942E-06,-0.6717814,-8.896266E-09,NaN,NaN,-0.01966117,2.188605E-10,3.01172E-07,-1.155803E-07,5.230533E-09,-2.861022E-08
42.97993,-1.529742,-3.421585E-08,NaN,-0.3254866,-1.371071E-07,NaN,0.7906661,6.335267E-08,NaN,-0.3665385,1.211942E-06,-0.6717814,-8.896266E-09,NaN,NaN,-0.01966117,2.188605E-10,3.01172E-07,-1.155803E-07,5.230533E-09,-2.861022E-08
42.9949,-1.530042,-3.421521E-08,NaN,-0.3255015,-1.371116E-07,NaN,0.7858974,6.340449E-08,NaN,-0.3683199,1.212715E-06,-0.6677544,-8.945383E-09,NaN,NaN,-0.01966631,2.235171E-10,2.983408E-07,-1.155836E-07,4.634487E-09,-2.861022E-08
43.01119,-1.529465,-3.421457E-08,NaN,-0.3255143,-1.37116E-07,NaN,0.7803198,6.345517E-08,NaN,-0.370362,1.213488E-06,-0.6629952,-8.993364E-09,NaN,NaN,-0.01967238,2.281738E-10,2.908902E-07,-1.15587E-07,4.038441E-09,-2.861022E-08
43.0279,-1.52834,-3.421392E-08,NaN,-0.3255263,-1.371204E-07,NaN,0.7746206,6.350474E-08,NaN,-0.3724438,1.214261E-06,-0.65813,-9.040226E-09,NaN,NaN,-0.01967848,2.328304E-10,2.843337E-07,-1.155903E-07,6.422626E-09,-2.861022E-08
43.04244,-1.526874,-3.421327E-08,NaN,-0.3255378,-1.371248E-07,NaN,0.7690384,6.355321E-08,NaN,-0.3744807,1.215034E-06,-0.6533749,-9.085994E-09,NaN,NaN,-0.01968436,2.37487E-10,2.780752E-07,-1.155936E-07,7.018673E-09,-2.861022E-08
43.05818,-1.526874,-3.421327E-08,NaN,-0.3255378,-1.371248E-07,NaN,0.7690384,6.355321E-08,NaN,-0.3744807,1.215034E-06,-0.6533749,-9.085994E-09,NaN,NaN,-0.01968436,2.37487E-10,2.780752E-07,-1.155936E-07,7.018673E-09,-2.861022E-08
43.07323,-1.5252,-3.421262E-08,NaN,-0.3255492,-1.371292E-07,NaN,0.7636344,6.360096E-08,NaN,-0.3764478,1.215812E-06,-0.6487843,-9.131046E-09,NaN,NaN,-0.01968999,2.37487E-10,2.736048E-07,-1.155969E-07,9.402859E-09,-2.861022E-08
43.0898,-1.522674,-3.421197E-08,NaN,-0.325558,-1.371336E-07,NaN,0.7574818,6.364731E-08,NaN,-0.3786784,1.216589E-06,-0.6435186,-9.174689E-09,NaN,NaN,-0.01969644,2.37487E-10,2.674954E-07,-1.156002E-07,9.998906E-09,-2.861022E-08
43.10532,-1.519622,-3.421131E-08,NaN,-0.3255654,-1.37138E-07,NaN,0.7512424,6.369262E-08,NaN,-0.3809458,1.217367E-06,-0.6381783,-9.217296E-09,NaN,NaN,-0.01970289,2.37487E-10,2.610878E-07,-1.156035E-07,1.059495E-08,-2.861022E-08
43.1212,-1.516253,-3.421066E-08,NaN,-0.3255718,-1.371424E-07,NaN,0.7451466,6.373693E-08,NaN,-0.3831635,1.218145E-06,-0.6329715,-9.258895E-09,NaN,NaN,-0.01970911,2.37487E-10,2.555744E-07,-1.156068E-07,8.210767E-09,-2.861022E-08
43.13671,-1.516253,-3.421066E-08,NaN,-0.3255718,-1.371424E-07,NaN,0.7451466,6.373693E-08,NaN,-0.3831635,1.218145E-06,-0.6329715,-9.258895E-09,NaN,NaN,-0.01970911,2.37487E-10,2.555744E-07,-1.156068E-07,8.210767E-09,-2.861022E-08
43.15142,-1.512697,-3.421E-08,NaN,-0.3255775,-1.371467E-07,NaN,0.7392532,6.378024E-08,NaN,-0.3853065,1.218922E-06,-0.6279505,-9.299504E-09,NaN,NaN,-0.01971505,2.37487E-10,2.496139E-07,-1.156101E-07,8.210767E-09,-2.861022E-08
43.16782,-1.508311,-3.420934E-08,NaN,-0.3255805,-1.37151E-07,NaN,0.7326729,6.382258E-08,NaN,-0.3877151,1.2197E-06,-0.622313,-9.339142E-09,NaN,NaN,-0.01972171,2.37487E-10,2.420144E-07,-1.156133E-07,9.40286E-09,-2.861022E-08
43.18366,-1.503422,-3.420867E-08,NaN,-0.3255819,-1.371554E-07,NaN,0.7260398,6.386397E-08,NaN,-0.3901574,1.220477E-06,-0.616632,-9.377829E-09,NaN,NaN,-0.01972834,2.37487E-10,2.345638E-07,-1.156166E-07,8.806813E-09,-2.861022E-08
43.19934,-1.503422,-3.420867E-08,NaN,-0.3255819,-1.371554E-07,NaN,0.7260398,6.386397E-08,NaN,-0.3901574,1.220477E-06,-0.616632,-9.377829E-09,NaN,NaN,-0.01972834,2.37487E-10,2.345638E-07,-1.156166E-07,8.806813E-09,-2.861022E-08
43.21458,-1.498235,-3.4208E-08,NaN,-0.3255827,-1.371597E-07,NaN,0.719575,6.390443E-08,NaN,-0.3925457,1.221255E-06,-0.6111063,-9.415584E-09,NaN,NaN,-0.01973472,2.37487E-10,2.281563E-07,-1.156198E-07,8.806813E-09,-2.861022E-08
43.23095,-1.492884,-3.420734E-08,NaN,-0.3255832,-1.37164E-07,NaN,0.7133338,6.394398E-08,NaN,-0.3948541,1.222033E-06,-0.6057851,-9.452426E-09,NaN,NaN,-0.0197408,2.37487E-10,2.233879E-07,-1.15623E-07,1.1191E-08,-2.861022E-08
43.24693,-1.486724,-3.420666E-08,NaN,-0.3255818,-1.371682E-07,NaN,0.7064665,6.398263E-08,NaN,-0.3974309,1.22281E-06,-0.5999057,-9.488367E-09,NaN,NaN,-0.01974751,2.37487E-10,2.171294E-07,-1.156262E-07,8.210766E-09,-2.861022E-08
43.26236,-1.480079,-3.420599E-08,NaN,-0.3255788,-1.371725E-07,NaN,0.6995767,6.402004E-08,NaN,-0.4000384,1.223588E-06,-0.5940104,-9.523078E-09,NaN,NaN,-0.01975418,2.37487E-10,2.102749E-07,-1.156294E-07,8.806813E-09,-2.861022E-08
