JMolnar6/NonAnthroHands_User_Study/HandsLoggerWithURDF/tempdata/files/Reachy_PID0_JointMotion_gesture_8_40.csv
Time,r_shoulder,r_shoulder_x,r_upper_arm,r_forearm,r_wrist,r_wrist2hand,
570.8649,0.04493347,-8.182148E-09,NaN,-0.3276622,-1.3378E-07,NaN,0.4350467,-1.628234E-07,NaN,-0.5151727,1.706355E-05,-0.3750542,3.921478E-08,NaN,NaN,-0.01999615,-9.313301E-11,-2.281391E-08,-1.118341E-07,3.691343E-09,-2.861022E-08
570.8805,0.04493374,-8.181333E-09,NaN,-0.3276566,-1.337811E-07,NaN,0.4355779,-1.622537E-07,NaN,-0.51644,1.706402E-05,-0.3753339,3.864667E-08,NaN,NaN,-0.01999952,-8.381978E-11,-5.142414E-08,-1.118359E-07,6.075529E-09,-2.622604E-08
570.8942,0.04493374,-8.181333E-09,NaN,-0.3276566,-1.337811E-07,NaN,0.4355779,-1.622537E-07,NaN,-0.51644,1.706402E-05,-0.3753339,3.864667E-08,NaN,NaN,-0.01999952,-8.381978E-11,-5.142414E-08,-1.118359E-07,6.075529E-09,-2.622604E-08
570.9081,0.04493401,-8.180516E-09,NaN,-0.3276511,-1.337821E-07,NaN,0.4360934,-1.603269E-07,NaN,-0.518405,1.706451E-05,-0.3756259,3.682368E-08,NaN,NaN,-0.02000132,-8.381978E-11,-6.647431E-08,-1.118386E-07,6.075529E-09,-2.622604E-08
570.9234,0.04493427,-8.1797E-09,NaN,-0.3276457,-1.337828E-07,NaN,0.4365607,-1.605689E-07,NaN,-0.5206828,1.706499E-05,-0.375878,3.714937E-08,NaN,NaN,-0.02000248,-7.450656E-11,-7.77992E-08,-1.118395E-07,1.307157E-09,-2.861022E-08
570.9379,0.04493427,-8.1797E-09,NaN,-0.3276457,-1.337828E-07,NaN,0.4365607,-1.605689E-07,NaN,-0.5206828,1.706499E-05,-0.375878,3.714937E-08,NaN,NaN,-0.02000248,-7.450656E-11,-7.77992E-08,-1.118395E-07,1.307157E-09,-2.861022E-08
570.9519,0.04493453,-8.178883E-09,NaN,-0.3276403,-1.337831E-07,NaN,0.4368437,-1.609928E-07,NaN,-0.5218577,1.706547E-05,-0.3758948,3.764061E-08,NaN,NaN,-0.01999979,-6.984995E-11,-5.663955E-08,-1.1184E-07,-1.077029E-09,-2.622604E-08
570.9675,0.04493478,-8.178067E-09,NaN,-0.327635,-1.337831E-07,NaN,0.437115,-1.615104E-07,NaN,-0.5223759,1.706595E-05,-0.375871,3.821238E-08,NaN,NaN,-0.01999851,-6.053672E-11,-4.591071E-08,-1.118403E-07,-1.077029E-09,-2.861022E-08
570.9819,0.04493503,-8.177252E-09,NaN,-0.3276298,-1.337829E-07,NaN,0.4374162,-1.62078E-07,NaN,-0.52258,1.706644E-05,-0.3758675,3.882361E-08,NaN,NaN,-0.0199978,-6.519334E-11,-4.024827E-08,-1.118404E-07,3.691343E-09,-2.622604E-08
570.9966,0.04493503,-8.177252E-09,NaN,-0.3276298,-1.337829E-07,NaN,0.4374162,-1.62078E-07,NaN,-0.52258,1.706644E-05,-0.3758675,3.882361E-08,NaN,NaN,-0.0199978,-6.519334E-11,-4.024827E-08,-1.118404E-07,3.691343E-09,-2.622604E-08
571.0104,0.04493527,-8.176436E-09,NaN,-0.3276246,-1.337825E-07,NaN,0.4377425,-1.626701E-07,NaN,-0.522634,1.706691E-05,-0.3758895,3.945097E-08,NaN,NaN,-0.01999731,-5.588011E-11,-3.622496E-08,-1.118405E-07,3.691343E-09,-2.861022E-08
571.0259,0.04493551,-8.175621E-09,NaN,-0.3276195,-1.337826E-07,NaN,0.4379374,-1.632244E-07,NaN,-0.5213841,1.706738E-05,-0.3757341,4.003383E-08,NaN,NaN,-0.01999338,-4.191027E-11,-3.740428E-09,-1.118415E-07,3.691343E-09,-2.622604E-08
571.0405,0.04493575,-8.174807E-09,NaN,-0.3276144,-1.33783E-07,NaN,0.4381481,-1.636598E-07,NaN,-0.5194023,1.706787E-05,-0.3755756,4.049242E-08,NaN,NaN,-0.01999101,-4.191027E-11,1.622713E-08,-1.118428E-07,-1.077029E-09,-2.861022E-08
571.0551,0.04493575,-8.174807E-09,NaN,-0.3276144,-1.33783E-07,NaN,0.4381481,-1.636598E-07,NaN,-0.5194023,1.706787E-05,-0.3755756,4.049242E-08,NaN,NaN,-0.01999101,-4.191027E-11,1.622713E-08,-1.118428E-07,-1.077029E-09,-2.861022E-08
571.0692,0.04493599,-8.173992E-09,NaN,-0.3276094,-1.337836E-07,NaN,0.4384016,-1.640285E-07,NaN,-0.5170914,1.706834E-05,-0.3754608,4.087989E-08,NaN,NaN,-0.01998927,-3.259705E-11,2.99362E-08,-1.118442E-07,-1.077029E-09,-2.622604E-08
571.0869,0.04493624,-8.173178E-09,NaN,-0.3276044,-1.337844E-07,NaN,0.4386856,-1.634848E-07,NaN,-0.5146438,1.706883E-05,-0.3753861,4.035158E-08,NaN,NaN,-0.01998781,-3.725366E-11,4.185712E-08,-1.118458E-07,1.307157E-09,-2.861022E-08
571.0995,0.04493624,-8.173178E-09,NaN,-0.3276044,-1.337844E-07,NaN,0.4386856,-1.634848E-07,NaN,-0.5146438,1.706883E-05,-0.3753861,4.035158E-08,NaN,NaN,-0.01998781,-3.725366E-11,4.185712E-08,-1.118458E-07,1.307157E-09,-2.861022E-08
571.1134,0.04493647,-8.172363E-09,NaN,-0.3275996,-1.337853E-07,NaN,0.4388376,-1.629287E-07,NaN,-0.5109195,1.706931E-05,-0.3751418,3.980816E-08,NaN,NaN,-0.01998283,-2.794044E-11,8.089816E-08,-1.118474E-07,1.307157E-09,-2.622604E-08
571.1287,0.0449367,-8.171549E-09,NaN,-0.3275947,-1.337863E-07,NaN,0.4390036,-1.623713E-07,NaN,-0.5064965,1.706979E-05,-0.374899,3.92612E-08,NaN,NaN,-0.01997945,-2.328382E-11,1.071242E-07,-1.118491E-07,3.691343E-09,-2.861022E-08
571.1453,0.04493693,-8.170733E-09,NaN,-0.32759,-1.337872E-07,NaN,0.4392118,-1.604553E-07,NaN,-0.5017802,1.707028E-05,-0.3747042,3.745338E-08,NaN,NaN,-0.01997673,-2.794043E-11,1.288799E-07,-1.118517E-07,3.691343E-09,-2.861022E-08
571.1588,0.04493693,-8.170733E-09,NaN,-0.32759,-1.337872E-07,NaN,0.4392118,-1.604553E-07,NaN,-0.5017802,1.707028E-05,-0.3747042,3.745338E-08,NaN,NaN,-0.01997673,-2.794043E-11,1.288799E-07,-1.118517E-07,3.691343E-09,-2.861022E-08
571.1731,0.04493715,-8.169917E-09,NaN,-0.3275852,-1.337879E-07,NaN,0.4392986,-1.607029E-07,NaN,-0.4957322,1.707076E-05,-0.3743531,3.778826E-08,NaN,NaN,-0.01997045,-1.862721E-11,1.764146E-07,-1.118526E-07,3.691343E-09,-2.622604E-08
571.1872,0.04493738,-8.169102E-09,NaN,-0.3275805,-1.337882E-07,NaN,0.4394074,-1.611302E-07,NaN,-0.4889785,1.707124E-05,-0.3740151,3.828569E-08,NaN,NaN,-0.0199659,-9.313984E-12,2.093462E-07,-1.118531E-07,6.075529E-09,-2.861022E-08
571.2019,0.0449376,-8.168286E-09,NaN,-0.3275759,-1.337881E-07,NaN,0.4395639,-1.616487E-07,NaN,-0.4819474,1.707172E-05,-0.3737343,3.886072E-08,NaN,NaN,-0.01996204,-9.313984E-12,2.367643E-07,-1.118533E-07,6.075529E-09,-2.622604E-08
571.2165,0.0449376,-8.168286E-09,NaN,-0.3275759,-1.337881E-07,NaN,0.4395639,-1.616487E-07,NaN,-0.4819474,1.707172E-05,-0.3737343,3.886072E-08,NaN,NaN,-0.01996204,-9.313984E-12,2.367643E-07,-1.118533E-07,6.075529E-09,-2.622604E-08
571.2305,0.04493783,-8.167471E-09,NaN,-0.3275714,-1.337879E-07,NaN,0.4397548,-1.622148E-07,NaN,-0.474843,1.70722E-05,-0.373505,3.947232E-08,NaN,NaN,-0.01995846,-4.657371E-12,2.626923E-07,-1.118533E-07,6.075529E-09,-2.861022E-08
571.2459,0.04493805,-8.166655E-09,NaN,-0.3275669,-1.337876E-07,NaN,0.4399455,-1.610947E-07,NaN,-0.4676175,1.707268E-05,-0.3732883,3.841561E-08,NaN,NaN,-0.01995448,-7.580742E-16,2.893654E-07,-1.118549E-07,3.691343E-09,-2.861022E-08
571.2603,0.04493827,-8.16584E-09,NaN,-0.3275625,-1.337877E-07,NaN,0.4401445,-1.599745E-07,NaN,-0.4603795,1.707317E-05,-0.3730946,3.737418E-08,NaN,NaN,-0.01995075,9.312467E-12,3.133563E-07,-1.118569E-07,8.459715E-09,-2.622604E-08
571.275,0.04493827,-8.16584E-09,NaN,-0.3275625,-1.337877E-07,NaN,0.4401445,-1.599745E-07,NaN,-0.4603795,1.707317E-05,-0.3730946,3.737418E-08,NaN,NaN,-0.01995075,9.312467E-12,3.133563E-07,-1.118569E-07,8.459715E-09,-2.622604E-08
571.2891,0.0449385,-8.165025E-09,NaN,-0.3275581,-1.33788E-07,NaN,0.4403506,-1.588544E-07,NaN,-0.4531952,1.707367E-05,-0.3729232,3.634569E-08,NaN,NaN,-0.01994711,1.396908E-11,3.361551E-07,-1.118591E-07,3.691343E-09,-2.861022E-08
571.3043,0.04493872,-8.164211E-09,NaN,-0.3275538,-1.337885E-07,NaN,0.4405605,-1.577342E-07,NaN,-0.4460955,1.707416E-05,-0.3727698,3.532841E-08,NaN,NaN,-0.01994349,2.793892E-11,3.570167E-07,-1.118614E-07,1.307157E-09,-2.622604E-08
571.3193,0.04493872,-8.164211E-09,NaN,-0.3275538,-1.337885E-07,NaN,0.4405605,-1.577342E-07,NaN,-0.4460955,1.707416E-05,-0.3727698,3.532841E-08,NaN,NaN,-0.01994349,2.793892E-11,3.570167E-07,-1.118614E-07,1.307157E-09,-2.622604E-08
571.333,0.04493894,-8.163396E-09,NaN,-0.3275495,-1.337892E-07,NaN,0.4407716,-1.566141E-07,NaN,-0.4390944,1.707467E-05,-0.3726308,3.432107E-08,NaN,NaN,-0.01993986,3.725215E-11,3.772823E-07,-1.118637E-07,-1.077028E-09,-2.861022E-08
571.3486,0.04493917,-8.162582E-09,NaN,-0.3275453,-1.337898E-07,NaN,0.4409828,-1.554939E-07,NaN,-0.4321977,1.707517E-05,-0.3725038,3.332271E-08,NaN,NaN,-0.0199362,5.122198E-11,3.948657E-07,-1.118661E-07,-1.077028E-09,-2.622604E-08
571.3632,0.04493939,-8.161766E-09,NaN,-0.3275412,-1.337905E-07,NaN,0.4411936,-1.543738E-07,NaN,-0.4254071,1.707568E-05,-0.3723873,3.233264E-08,NaN,NaN,-0.01993253,5.122198E-11,4.133431E-07,-1.118685E-07,3.691343E-09,-2.861022E-08
571.3781,0.04493939,-8.161766E-09,NaN,-0.3275412,-1.337905E-07,NaN,0.4411936,-1.543738E-07,NaN,-0.4254071,1.707568E-05,-0.3723873,3.233264E-08,NaN,NaN,-0.01993253,5.122198E-11,4.133431E-07,-1.118685E-07,3.691343E-09,-2.861022E-08
571.392,0.04493961,-8.160951E-09,NaN,-0.3275371,-1.337913E-07,NaN,0.441404,-1.532536E-07,NaN,-0.4187227,1.70762E-05,-0.3722806,3.135031E-08,NaN,NaN,-0.01992882,5.58786E-11,4.313735E-07,-1.118709E-07,-3.461214E-09,-2.622604E-08
571.4073,0.04493983,-8.160136E-09,NaN,-0.327533,-1.33792E-07,NaN,0.4416144,-1.521334E-07,NaN,-0.4121437,1.707672E-05,-0.3721831,3.037533E-08,NaN,NaN,-0.01992508,5.58786E-11,4.485098E-07,-1.118733E-07,-8.229586E-09,-2.861022E-08
571.4239,0.04494005,-8.15932E-09,NaN,-0.327529,-1.337928E-07,NaN,0.4418249,-1.510133E-07,NaN,-0.4056688,1.707723E-05,-0.3720945,2.940738E-08,NaN,NaN,-0.0199213,6.519182E-11,4.649011E-07,-1.118758E-07,-8.229586E-09,-2.622604E-08
571.4376,0.04494005,-8.15932E-09,NaN,-0.327529,-1.337928E-07,NaN,0.4418249,-1.510133E-07,NaN,-0.4056688,1.707723E-05,-0.3720945,2.940738E-08,NaN,NaN,-0.0199213,6.519182E-11,4.649011E-07,-1.118758E-07,-8.229586E-09,-2.622604E-08
571.4518,0.04494027,-8.158505E-09,NaN,-0.3275251,-1.337936E-07,NaN,0.4420359,-1.498931E-07,NaN,-0.3992964,1.707775E-05,-0.3720147,2.844625E-08,NaN,NaN,-0.01991748,6.519182E-11,4.806963E-07,-1.118782E-07,-1.299796E-08,-2.861022E-08
571.4661,0.04494049,-8.15769E-09,NaN,-0.3275212,-1.337944E-07,NaN,0.4422477,-1.48773E-07,NaN,-0.3930251,1.707827E-05,-0.3719435,2.749174E-08,NaN,NaN,-0.01991362,7.450505E-11,4.963425E-07,-1.118806E-07,-1.776633E-08,-2.622604E-08
571.4805,0.04494071,-8.156873E-09,NaN,-0.3275174,-1.337952E-07,NaN,0.4424604,-1.476528E-07,NaN,-0.3868533,1.70788E-05,-0.3718809,2.654371E-08,NaN,NaN,-0.01990972,6.984843E-11,5.118397E-07,-1.118831E-07,-1.299796E-08,-2.861022E-08
571.4951,0.04494071,-8.156873E-09,NaN,-0.3275174,-1.337952E-07,NaN,0.4424604,-1.476528E-07,NaN,-0.3868533,1.70788E-05,-0.3718809,2.654371E-08,NaN,NaN,-0.01990972,6.984843E-11,5.118397E-07,-1.118831E-07,-1.299796E-08,-2.861022E-08
571.5089,0.04494092,-8.156057E-09,NaN,-0.3275136,-1.33796E-07,NaN,0.4426743,-1.465327E-07,NaN,-0.3807794,1.707932E-05,-0.3718266,2.560204E-08,NaN,NaN,-0.01990577,8.381827E-11,5.258468E-07,-1.118855E-07,-1.299796E-08,-2.622604E-08
571.5241,0.04494114,-8.155241E-09,NaN,-0.3275098,-1.337969E-07,NaN,0.4428895,-1.454125E-07,NaN,-0.3748019,1.707984E-05,-0.3717806,2.466664E-08,NaN,NaN,-0.01990177,8.847489E-11,5.391088E-07,-1.11888E-07,-1.061377E-08,-2.861022E-08
571.5389,0.04494114,-8.155241E-09,NaN,-0.3275098,-1.337969E-07,NaN,0.4428895,-1.454125E-07,NaN,-0.3748019,1.707984E-05,-0.3717806,2.466664E-08,NaN,NaN,-0.01990177,8.847489E-11,5.391088E-07,-1.11888E-07,-1.061377E-08,-2.861022E-08
571.5529,0.04494135,-8.154425E-09,NaN,-0.3275061,-1.337977E-07,NaN,0.4431062,-1.442923E-07,NaN,-0.3689193,1.708037E-05,-0.3717429,2.373742E-08,NaN,NaN,-0.01989773,9.31315E-11,5.510298E-07,-1.118904E-07,-1.299796E-08,-2.622604E-08
571.5697,0.04494157,-8.153608E-09,NaN,-0.3275025,-1.337986E-07,NaN,0.4433245,-1.431722E-07,NaN,-0.36313,1.70809E-05,-0.3717132,2.281431E-08,NaN,NaN,-0.01989363,8.847489E-11,5.638448E-07,-1.118929E-07,-1.061377E-08,-2.861022E-08
571.583,0.04494178,-8.152791E-09,NaN,-0.3274989,-1.337994E-07,NaN,0.4435444,-1.42052E-07,NaN,-0.3574326,1.708141E-05,-0.3716916,2.189726E-08,NaN,NaN,-0.01988948,9.778811E-11,5.769578E-07,-1.118953E-07,-8.229586E-09,-2.622604E-08
571.5979,0.04494178,-8.152791E-09,NaN,-0.3274989,-1.337994E-07,NaN,0.4435444,-1.42052E-07,NaN,-0.3574326,1.708141E-05,-0.3716916,2.189726E-08,NaN,NaN,-0.01988948,9.778811E-11,5.769578E-07,-1.118953E-07,-8.229586E-09,-2.622604E-08
571.6118,0.044942,-8.151974E-09,NaN,-0.3274953,-1.338003E-07,NaN,0.4437662,-1.409319E-07,NaN,-0.3518256,1.708195E-05,-0.3716778,2.098621E-08,NaN,NaN,-0.01988528,9.778811E-11,5.878356E-07,-1.118978E-07,-3.461214E-09,-2.861022E-08
571.6272,0.04494221,-8.151157E-09,NaN,-0.3274918,-1.338012E-07,NaN,0.4439899,-1.398117E-07,NaN,-0.3463076,1.708247E-05,-0.3716719,2.00811E-08,NaN,NaN,-0.01988102,1.071013E-10,5.990115E-07,-1.119002E-07,-5.8454E-09,-2.622604E-08
571.6419,0.04494242,-8.15034E-09,NaN,-0.3274883,-1.338021E-07,NaN,0.4442156,-1.386916E-07,NaN,-0.3408772,1.7083E-05,-0.3716737,1.918189E-08,NaN,NaN,-0.0198767,1.024447E-10,6.089953E-07,-1.119027E-07,-8.229586E-09,-2.861022E-08
571.6569,0.04494242,-8.15034E-09,NaN,-0.3274883,-1.338021E-07,NaN,0.4442156,-1.386916E-07,NaN,-0.3408772,1.7083E-05,-0.3716737,1.918189E-08,NaN,NaN,-0.0198767,1.024447E-10,6.089953E-07,-1.119027E-07,-8.229586E-09,-2.861022E-08
571.671,0.04494263,-8.149523E-09,NaN,-0.3274849,-1.33803E-07,NaN,0.4444434,-1.375714E-07,NaN,-0.335533,1.708352E-05,-0.3716832,1.828854E-08,NaN,NaN,-0.01987232,1.117579E-10,6.19277E-07,-1.119052E-07,-5.8454E-09,-2.622604E-08
571.6862,0.04494284,-8.148705E-09,NaN,-0.3274815,-1.338039E-07,NaN,0.4446734,-1.364512E-07,NaN,-0.3302736,1.708406E-05,-0.3717002,1.7401E-08,NaN,NaN,-0.01986787,1.024447E-10,6.292608E-07,-1.119076E-07,-1.077029E-09,-2.861022E-08
571.7017,0.04494305,-8.147887E-09,NaN,-0.3274781,-1.338048E-07,NaN,0.4449057,-1.353311E-07,NaN,-0.3250977,1.708458E-05,-0.3717246,1.651924E-08,NaN,NaN,-0.01986337,1.024447E-10,6.382015E-07,-1.119101E-07,-1.077029E-09,-2.622604E-08
571.7156,0.04494305,-8.147887E-09,NaN,-0.3274781,-1.338048E-07,NaN,0.4449057,-1.353311E-07,NaN,-0.3250977,1.708458E-05,-0.3717246,1.651924E-08,NaN,NaN,-0.01986337,1.024447E-10,6.382015E-07,-1.119101E-07,-1.077029E-09,-2.622604E-08
571.7296,0.04494326,-8.147069E-09,NaN,-0.3274748,-1.338058E-07,NaN,0.4451402,-1.342109E-07,NaN,-0.320004,1.70851E-05,-0.3717565,1.56432E-08,NaN,NaN,-0.01985878,9.77881E-11,6.456521E-07,-1.119126E-07,1.307157E-09,-2.861022E-08
571.7449,0.04494347,-8.146251E-09,NaN,-0.3274716,-1.338067E-07,NaN,0.4453772,-1.330908E-07,NaN,-0.3149911,1.708562E-05,-0.3717956,1.477286E-08,NaN,NaN,-0.01985414,1.024447E-10,6.539967E-07,-1.11915E-07,-1.077029E-09,-2.622604E-08
571.7593,0.04494347,-8.146251E-09,NaN,-0.3274716,-1.338067E-07,NaN,0.4453772,-1.330908E-07,NaN,-0.3149911,1.708562E-05,-0.3717956,1.477286E-08,NaN,NaN,-0.01985414,1.024447E-10,6.539967E-07,-1.11915E-07,-1.077029E-09,-2.622604E-08
571.7732,0.04494368,-8.145433E-09,NaN,-0.3274683,-1.338076E-07,NaN,0.4456167,-1.319706E-07,NaN,-0.3100577,1.708612E-05,-0.3718419,1.390826E-08,NaN,NaN,-0.01984941,1.071013E-10,6.614473E-07,-1.119175E-07,3.691343E-09,-2.861022E-08
571.7887,0.04494388,-8.144616E-09,NaN,-0.3274651,-1.338086E-07,NaN,0.4458587,-1.308505E-07,NaN,-0.3052027,1.708664E-05,-0.3718954,1.304928E-08,NaN,NaN,-0.01984462,1.024447E-10,6.69941E-07,-1.1192E-07,8.459715E-09,-2.622604E-08
571.8033,0.04494409,-8.143799E-09,NaN,-0.327462,-1.338096E-07,NaN,0.4461034,-1.297303E-07,NaN,-0.3004248,1.708714E-05,-0.371956,1.219587E-08,NaN,NaN,-0.01983975,1.117579E-10,6.772426E-07,-1.119225E-07,1.08439E-08,-2.861022E-08
571.8179,0.04494409,-8.143799E-09,NaN,-0.327462,-1.338096E-07,NaN,0.4461034,-1.297303E-07,NaN,-0.3004248,1.708714E-05,-0.371956,1.219587E-08,NaN,NaN,-0.01983975,1.117579E-10,6.772426E-07,-1.119225E-07,1.08439E-08,-2.861022E-08
571.8319,0.04494429,-8.142981E-09,NaN,-0.3274589,-1.338106E-07,NaN,0.4463508,-1.286102E-07,NaN,-0.2957227,1.708765E-05,-0.3720236,1.134801E-08,NaN,NaN,-0.0198348,1.071013E-10,6.842461E-07,-1.11925E-07,1.799646E-08,-2.622604E-08
571.8473,0.0449445,-8.142164E-09,NaN,-0.3274558,-1.338115E-07,NaN,0.4466009,-1.2749E-07,NaN,-0.2910953,1.708815E-05,-0.372098,1.050566E-08,NaN,NaN,-0.01982977,1.164146E-10,6.906536E-07,-1.119275E-07,1.799646E-08,-2.861022E-08
571.8618,0.0449447,-8.141347E-09,NaN,-0.3274528,-1.338125E-07,NaN,0.4468539,-1.263698E-07,NaN,-0.2865413,1.708866E-05,-0.3721794,9.668769E-09,NaN,NaN,-0.01982465,1.164146E-10,6.95422E-07,-1.119299E-07,2.038064E-08,-2.622604E-08
571.8765,0.0449447,-8.141347E-09,NaN,-0.3274528,-1.338125E-07,NaN,0.4468539,-1.263698E-07,NaN,-0.2865413,1.708866E-05,-0.3721794,9.668769E-09,NaN,NaN,-0.01982465,1.164146E-10,6.95422E-07,-1.119299E-07,2.038064E-08,-2.622604E-08
571.8904,0.04494491,-8.140529E-09,NaN,-0.3274498,-1.338135E-07,NaN,0.4471098,-1.252497E-07,NaN,-0.2820596,1.708917E-05,-0.3722675,8.837317E-09,NaN,NaN,-0.01981945,1.210712E-10,7.013825E-07,-1.119324E-07,1.799646E-08,-2.861022E-08
571.9059,0.04494511,-8.139711E-09,NaN,-0.3274468,-1.338146E-07,NaN,0.4473687,-1.241295E-07,NaN,-0.277649,1.708969E-05,-0.3723624,8.011263E-09,NaN,NaN,-0.01981416,1.210712E-10,7.07343E-07,-1.119349E-07,1.799646E-08,-2.622604E-08
571.9205,0.04494531,-8.138893E-09,NaN,-0.3274439,-1.338156E-07,NaN,0.4476305,-1.230094E-07,NaN,-0.2733085,1.709019E-05,-0.3724639,7.190572E-09,NaN,NaN,-0.01980878,1.35041E-10,7.128564E-07,-1.119374E-07,2.276483E-08,-2.861022E-08
571.9352,0.04494531,-8.138893E-09,NaN,-0.3274439,-1.338156E-07,NaN,0.4476305,-1.230094E-07,NaN,-0.2733085,1.709019E-05,-0.3724639,7.190572E-09,NaN,NaN,-0.01980878,1.35041E-10,7.128564E-07,-1.119374E-07,2.276483E-08,-2.861022E-08
571.9495,0.04494551,-8.138075E-09,NaN,-0.327441,-1.338166E-07,NaN,0.4478954,-1.218892E-07,NaN,-0.2690369,1.70907E-05,-0.372572,6.37521E-09,NaN,NaN,-0.01980331,1.35041E-10,7.177738E-07,-1.119399E-07,2.514902E-08,-2.622604E-08
571.9645,0.04494571,-8.137257E-09,NaN,-0.3274382,-1.338176E-07,NaN,0.4481634,-1.207691E-07,NaN,-0.2648331,1.70912E-05,-0.3726867,5.565141E-09,NaN,NaN,-0.01979774,1.490108E-10,7.222441E-07,-1.119424E-07,2.991739E-08,-2.861022E-08
571.9806,0.04494591,-8.136439E-09,NaN,-0.3274354,-1.338187E-07,NaN,0.4484347,-1.196489E-07,NaN,-0.2606961,1.709172E-05,-0.3728079,4.760332E-09,NaN,NaN,-0.01979207,1.490108E-10,7.264164E-07,-1.119449E-07,3.230157E-08,-2.622604E-08
571.9948,0.04494591,-8.136439E-09,NaN,-0.3274354,-1.338187E-07,NaN,0.4484347,-1.196489E-07,NaN,-0.2606961,1.709172E-05,-0.3728079,4.760332E-09,NaN,NaN,-0.01979207,1.490108E-10,7.264164E-07,-1.119449E-07,3.230157E-08,-2.622604E-08
572.0081,0.04494611,-8.135621E-09,NaN,-0.3274326,-1.338197E-07,NaN,0.4487092,-1.185287E-07,NaN,-0.2566247,1.709223E-05,-0.3729355,3.960747E-09,NaN,NaN,-0.0197863,1.583241E-10,7.308868E-07,-1.119474E-07,2.991739E-08,-2.861022E-08
572.0233,0.04494631,-8.134803E-09,NaN,-0.3274299,-1.338208E-07,NaN,0.4489869,-1.174086E-07,NaN,-0.252618,1.709275E-05,-0.3730695,3.166354E-09,NaN,NaN,-0.01978043,1.629807E-10,7.34761E-07,-1.119499E-07,3.468576E-08,-2.622604E-08
572.0377,0.04494631,-8.134803E-09,NaN,-0.3274299,-1.338208E-07,NaN,0.4489869,-1.174086E-07,NaN,-0.252618,1.709275E-05,-0.3730695,3.166354E-09,NaN,NaN,-0.01978043,1.629807E-10,7.34761E-07,-1.119499E-07,3.468576E-08,-2.622604E-08
572.053,0.04494651,-8.133985E-09,NaN,-0.3274271,-1.338219E-07,NaN,0.449268,-1.162884E-07,NaN,-0.2486749,1.709325E-05,-0.3732098,2.377118E-09,NaN,NaN,-0.01977445,1.676373E-10,7.380393E-07,-1.119524E-07,3.230157E-08,-2.861022E-08
572.067,0.0449467,-8.133167E-09,NaN,-0.3274245,-1.338229E-07,NaN,0.4495524,-1.151682E-07,NaN,-0.2447944,1.709377E-05,-0.3733563,1.593006E-09,NaN,NaN,-0.01976837,1.629807E-10,7.419136E-07,-1.119549E-07,3.230157E-08,-2.622604E-08
572.0817,0.0449469,-8.132348E-09,NaN,-0.3274218,-1.33824E-07,NaN,0.4498403,-1.140481E-07,NaN,-0.2409755,1.709429E-05,-0.3735091,8.13985E-10,NaN,NaN,-0.01976217,1.676373E-10,7.46682E-07,-1.119574E-07,3.230157E-08,-2.861022E-08
572.0964,0.0449469,-8.132348E-09,NaN,-0.3274218,-1.33824E-07,NaN,0.4498403,-1.140481E-07,NaN,-0.2409755,1.709429E-05,-0.3735091,8.13985E-10,NaN,NaN,-0.01976217,1.676373E-10,7.46682E-07,-1.119574E-07,3.230157E-08,-2.861022E-08
572.1104,0.0449471,-8.131529E-09,NaN,-0.3274192,-1.338251E-07,NaN,0.4501316,-1.129279E-07,NaN,-0.2372173,1.709481E-05,-0.373668,4.002126E-11,NaN,NaN,-0.01975585,1.722939E-10,7.487681E-07,-1.119599E-07,2.991738E-08,-2.622604E-08
572.1259,0.04494729,-8.13071E-09,NaN,-0.3274166,-1.338262E-07,NaN,0.4504264,-1.118078E-07,NaN,-0.2335187,1.709532E-05,-0.373833,-7.289178E-10,NaN,NaN,-0.01974942,1.769505E-10,7.520464E-07,-1.119624E-07,2.991738E-08,-2.861022E-08
572.1406,0.04494748,-8.129891E-09,NaN,-0.327414,-1.338273E-07,NaN,0.4507248,-1.106876E-07,NaN,-0.2298789,1.709583E-05,-0.3740041,-1.492865E-09,NaN,NaN,-0.01974286,1.769505E-10,7.538345E-07,-1.119649E-07,2.038064E-08,-2.622604E-08
572.1552,0.04494748,-8.129891E-09,NaN,-0.327414,-1.338273E-07,NaN,0.4507248,-1.106876E-07,NaN,-0.2298789,1.709583E-05,-0.3740041,-1.492865E-09,NaN,NaN,-0.01974286,1.769505E-10,7.538345E-07,-1.119649E-07,2.038064E-08,-2.622604E-08
572.1693,0.04494768,-8.129073E-09,NaN,-0.3274115,-1.338284E-07,NaN,0.4510266,-1.095674E-07,NaN,-0.2262969,1.709635E-05,-0.3741812,-2.251852E-09,NaN,NaN,-0.01973618,1.769505E-10,7.568148E-07,-1.119674E-07,2.038064E-08,-2.861022E-08
572.1848,0.04494787,-8.128254E-09,NaN,-0.327409,-1.338295E-07,NaN,0.4513322,-1.084473E-07,NaN,-0.2227717,1.709687E-05,-0.3743642,-3.005912E-09,NaN,NaN,-0.01972938,1.769505E-10,7.589009E-07,-1.119699E-07,2.276483E-08,-2.622604E-08
572.1993,0.04494787,-8.128254E-09,NaN,-0.327409,-1.338295E-07,NaN,0.4513322,-1.084473E-07,NaN,-0.2227717,1.709687E-05,-0.3743642,-3.005912E-09,NaN,NaN,-0.01972938,1.769505E-10,7.589009E-07,-1.119699E-07,2.276483E-08,-2.622604E-08
572.2134,0.04494806,-8.127435E-09,NaN,-0.3274065,-1.338307E-07,NaN,0.4516413,-1.073271E-07,NaN,-0.2193025,1.709738E-05,-0.3745531,-3.755076E-09,NaN,NaN,-0.01972244,1.862637E-10,7.60391E-07,-1.119724E-07,2.038064E-08,-2.861022E-08
572.2286,0.04494825,-8.126615E-09,NaN,-0.3274041,-1.338318E-07,NaN,0.4519541,-1.062069E-07,NaN,-0.2158885,1.709789E-05,-0.3747478,-4.499377E-09,NaN,NaN,-0.01971538,1.909203E-10,7.612851E-07,-1.119749E-07,1.799646E-08,-2.622604E-08
572.2454,0.04494844,-8.125795E-09,NaN,-0.3274017,-1.338329E-07,NaN,0.4522706,-1.050868E-07,NaN,-0.2125286,1.709841E-05,-0.3749484,-5.238845E-09,NaN,NaN,-0.01970818,1.909203E-10,7.618812E-07,-1.119774E-07,1.561227E-08,-2.861022E-08
572.2589,0.04494844,-8.125795E-09,NaN,-0.3274017,-1.338329E-07,NaN,0.4522706,-1.050868E-07,NaN,-0.2125286,1.709841E-05,-0.3749484,-5.238845E-09,NaN,NaN,-0.01970818,1.909203E-10,7.618812E-07,-1.119774E-07,1.561227E-08,-2.861022E-08
572.2731,0.04494863,-8.124975E-09,NaN,-0.3273993,-1.338341E-07,NaN,0.4525907,-1.039666E-07,NaN,-0.2092221,1.709894E-05,-0.3751547,-5.973513E-09,NaN,NaN,-0.01970084,1.862637E-10,7.630733E-07,-1.119799E-07,1.799646E-08,-2.622604E-08
572.2872,0.04494882,-8.124156E-09,NaN,-0.3273969,-1.338352E-07,NaN,0.4529146,-1.028464E-07,NaN,-0.2059681,1.709945E-05,-0.3753667,-6.703412E-09,NaN,NaN,-0.01969336,1.909203E-10,7.645634E-07,-1.119824E-07,1.08439E-08,-2.861022E-08
572.3019,0.04494901,-8.123336E-09,NaN,-0.3273946,-1.338364E-07,NaN,0.4532422,-1.017263E-07,NaN,-0.2027658,1.709997E-05,-0.3755843,-7.428572E-09,NaN,NaN,-0.01968573,1.95577E-10,7.654575E-07,-1.119849E-07,1.799646E-08,-2.622604E-08
572.3165,0.04494901,-8.123336E-09,NaN,-0.3273946,-1.338364E-07,NaN,0.4532422,-1.017263E-07,NaN,-0.2027658,1.709997E-05,-0.3755843,-7.428572E-09,NaN,NaN,-0.01968573,1.95577E-10,7.654575E-07,-1.119849E-07,1.799646E-08,-2.622604E-08
572.3304,0.0449492,-8.122516E-09,NaN,-0.3273923,-1.338376E-07,NaN,0.4535736,-1.006061E-07,NaN,-0.1996144,1.710048E-05,-0.3758075,-8.149024E-09,NaN,NaN,-0.01967797,2.048902E-10,7.675436E-07,-1.119874E-07,1.08439E-08,-2.861022E-08
572.346,0.04494938,-8.121696E-09,NaN,-0.32739,-1.338387E-07,NaN,0.4539088,-9.948596E-08,NaN,-0.196513,1.7101E-05,-0.3760363,-8.864798E-09,NaN,NaN,-0.01967005,2.002336E-10,7.684377E-07,-1.119899E-07,8.459713E-09,-2.622604E-08
572.3604,0.04494957,-8.120876E-09,NaN,-0.3273878,-1.338399E-07,NaN,0.4542477,-9.83658E-08,NaN,-0.1934609,1.710152E-05,-0.3762705,-9.575925E-09,NaN,NaN,-0.01966197,2.048902E-10,7.678416E-07,-1.119924E-07,1.08439E-08,-2.861022E-08
572.375,0.04494957,-8.120876E-09,NaN,-0.3273878,-1.338399E-07,NaN,0.4542477,-9.83658E-08,NaN,-0.1934609,1.710152E-05,-0.3762705,-9.575925E-09,NaN,NaN,-0.01966197,2.048902E-10,7.678416E-07,-1.119924E-07,1.08439E-08,-2.861022E-08
572.389,0.04494976,-8.120055E-09,NaN,-0.3273856,-1.338411E-07,NaN,0.4545904,-9.724563E-08,NaN,-0.1904572,1.710204E-05,-0.3765101,-1.028244E-08,NaN,NaN,-0.01965374,2.095468E-10,7.675436E-07,-1.11995E-07,8.459713E-09,-2.622604E-08
572.4045,0.04494994,-8.119234E-09,NaN,-0.3273834,-1.338423E-07,NaN,0.4549368,-9.612547E-08,NaN,-0.1875013,1.710256E-05,-0.3767551,-1.098436E-08,NaN,NaN,-0.01964535,2.142034E-10,7.675436E-07,-1.119975E-07,3.691341E-09,-2.861022E-08
572.4191,0.04494994,-8.119234E-09,NaN,-0.3273834,-1.338423E-07,NaN,0.4549368,-9.612547E-08,NaN,-0.1875013,1.710256E-05,-0.3767551,-1.098436E-08,NaN,NaN,-0.01964535,2.142034E-10,7.675436E-07,-1.119975E-07,3.691341E-09,-2.861022E-08
572.4333,0.04495012,-8.118413E-09,NaN,-0.3273813,-1.338435E-07,NaN,0.455287,-9.50053E-08,NaN,-0.1845923,1.710308E-05,-0.3770054,-1.168173E-08,NaN,NaN,-0.01963679,2.142034E-10,7.684377E-07,-1.12E-07,6.075527E-09,-2.622604E-08
572.4488,0.04495031,-8.117593E-09,NaN,-0.3273791,-1.338447E-07,NaN,0.455641,-9.388514E-08,NaN,-0.1817296,1.710359E-05,-0.377261,-1.237457E-08,NaN,NaN,-0.01962807,2.1886E-10,7.687357E-07,-1.120025E-07,1.08439E-08,-2.861022E-08
572.4634,0.04495049,-8.116772E-09,NaN,-0.327377,-1.338459E-07,NaN,0.4559988,-9.276498E-08,NaN,-0.1789123,1.710411E-05,-0.3775217,-1.306291E-08,NaN,NaN,-0.01961918,2.1886E-10,7.687357E-07,-1.12005E-07,8.459713E-09,-2.622604E-08
572.478,0.04495049,-8.116772E-09,NaN,-0.327377,-1.338459E-07,NaN,0.4559988,-9.276498E-08,NaN,-0.1789123,1.710411E-05,-0.3775217,-1.306291E-08,NaN,NaN,-0.01961918,2.1886E-10,7.687357E-07,-1.12005E-07,8.459713E-09,-2.622604E-08
572.4919,0.04495067,-8.115951E-09,NaN,-0.3273749,-1.338471E-07,NaN,0.4563603,-9.164481E-08,NaN,-0.1761397,1.710463E-05,-0.3777876,-1.374678E-08,NaN,NaN,-0.01961012,2.235166E-10,7.678416E-07,-1.120075E-07,1.307156E-09,-2.861022E-08
572.5074,0.04495085,-8.11513E-09,NaN,-0.3273729,-1.338483E-07,NaN,0.4567255,-9.052465E-08,NaN,-0.1734112,1.710516E-05,-0.3780585,-1.442621E-08,NaN,NaN,-0.01960088,2.1886E-10,7.657555E-07,-1.1201E-07,3.691341E-09,-2.622604E-08
572.5233,0.04495104,-8.114308E-09,NaN,-0.3273709,-1.338496E-07,NaN,0.4570945,-8.940449E-08,NaN,-0.1707261,1.710567E-05,-0.3783344,-1.510124E-08,NaN,NaN,-0.01959146,2.235166E-10,7.645634E-07,-1.120125E-07,6.075527E-09,-2.861022E-08
572.5378,0.04495104,-8.114308E-09,NaN,-0.3273709,-1.338496E-07,NaN,0.4570945,-8.940449E-08,NaN,-0.1707261,1.710567E-05,-0.3783344,-1.510124E-08,NaN,NaN,-0.01959146,2.235166E-10,7.645634E-07,-1.120125E-07,6.075527E-09,-2.861022E-08
572.5509,0.04495122,-8.113487E-09,NaN,-0.3273689,-1.338508E-07,NaN,0.4574671,-8.828432E-08,NaN,-0.1680836,1.710619E-05,-0.3786152,-1.577188E-08,NaN,NaN,-0.01958185,2.1886E-10,7.636693E-07,-1.12015E-07,1.307156E-09,-2.622604E-08
572.5663,0.04495139,-8.112665E-09,NaN,-0.3273669,-1.33852E-07,NaN,0.4578434,-8.716416E-08,NaN,-0.1654831,1.710671E-05,-0.3789009,-1.643816E-08,NaN,NaN,-0.01957207,2.1886E-10,7.627752E-07,-1.120175E-07,-1.07703E-09,-2.861022E-08
572.5807,0.04495157,-8.111844E-09,NaN,-0.3273649,-1.338533E-07,NaN,0.4582234,-8.6044E-08,NaN,-0.1629239,1.710724E-05,-0.3791914,-1.710012E-08,NaN,NaN,-0.0195621,2.142034E-10,7.609871E-07,-1.1202E-07,-1.07703E-09,-2.622604E-08
572.5951,0.04495157,-8.111844E-09,NaN,-0.3273649,-1.338533E-07,NaN,0.4582234,-8.6044E-08,NaN,-0.1629239,1.710724E-05,-0.3791914,-1.710012E-08,NaN,NaN,-0.0195621,2.142034E-10,7.609871E-07,-1.1202E-07,-1.07703E-09,-2.622604E-08
572.6091,0.04495175,-8.111022E-09,NaN,-0.327363,-1.338545E-07,NaN,0.458607,-8.492383E-08,NaN,-0.1604054,1.710775E-05,-0.3794866,-1.775778E-08,NaN,NaN,-0.01955194,2.1886E-10,7.60093E-07,-1.120225E-07,-1.07703E-09,-2.861022E-08
572.6243,0.04495193,-8.1102E-09,NaN,-0.327361,-1.338558E-07,NaN,0.4589942,-8.380367E-08,NaN,-0.1579269,1.710828E-05,-0.3797864,-1.841118E-08,NaN,NaN,-0.01954158,2.142034E-10,7.571127E-07,-1.12025E-07,6.075527E-09,-2.622604E-08
572.6392,0.04495193,-8.1102E-09,NaN,-0.327361,-1.338558E-07,NaN,0.4589942,-8.380367E-08,NaN,-0.1579269,1.710828E-05,-0.3797864,-1.841118E-08,NaN,NaN,-0.01954158,2.142034E-10,7.571127E-07,-1.12025E-07,6.075527E-09,-2.622604E-08
572.6531,0.04495211,-8.109377E-09,NaN,-0.3273592,-1.33857E-07,NaN,0.4593848,-8.268351E-08,NaN,-0.1554878,1.710879E-05,-0.3800907,-1.906033E-08,NaN,NaN,-0.01953102,2.1886E-10,7.553246E-07,-1.120275E-07,6.075527E-09,-2.861022E-08
572.6686,0.04495228,-8.108555E-09,NaN,-0.3273573,-1.338583E-07,NaN,0.459779,-8.156334E-08,NaN,-0.1530875,1.710931E-05,-0.3803995,-1.970527E-08,NaN,NaN,-0.01952027,2.1886E-10,7.526424E-07,-1.1203E-07,-1.07703E-09,-2.622604E-08
572.6834,0.04495246,-8.107732E-09,NaN,-0.3273554,-1.338595E-07,NaN,0.4601766,-8.044318E-08,NaN,-0.1507252,1.710983E-05,-0.3807127,-2.034602E-08,NaN,NaN,-0.01950931,2.1886E-10,7.502582E-07,-1.120325E-07,-3.461216E-09,-2.861022E-08
572.6981,0.04495246,-8.107732E-09,NaN,-0.3273554,-1.338595E-07,NaN,0.4601766,-8.044318E-08,NaN,-0.1507252,1.710983E-05,-0.3807127,-2.034602E-08,NaN,NaN,-0.01950931,2.1886E-10,7.502582E-07,-1.120325E-07,-3.461216E-09,-2.861022E-08
572.7121,0.04495263,-8.10691E-09,NaN,-0.3273536,-1.338608E-07,NaN,0.4606441,-7.932302E-08,NaN,-0.1485434,1.711036E-05,-0.381099,-2.098261E-08,NaN,NaN,-0.01950312,2.1886E-10,7.451918E-07,-1.12035E-07,-5.845401E-09,-2.622604E-08
572.7274,0.04495281,-8.106087E-09,NaN,-0.3273518,-1.338621E-07,NaN,0.4611151,-7.820285E-08,NaN,-0.1464827,1.711088E-05,-0.3814911,-2.161506E-08,NaN,NaN,-0.01949474,2.142034E-10,7.428076E-07,-1.120375E-07,-8.229588E-09,-2.861022E-08
572.7421,0.04495298,-8.105264E-09,NaN,-0.3273501,-1.338634E-07,NaN,0.461577,-7.708269E-08,NaN,-0.1444955,1.711141E-05,-0.3818756,-2.224341E-08,NaN,NaN,-0.01948532,2.095468E-10,7.389334E-07,-1.1204E-07,-1.061377E-08,-2.622604E-08
572.7568,0.04495298,-8.105264E-09,NaN,-0.3273501,-1.338634E-07,NaN,0.461577,-7.708269E-08,NaN,-0.1444955,1.711141E-05,-0.3818756,-2.224341E-08,NaN,NaN,-0.01948532,2.095468E-10,7.389334E-07,-1.1204E-07,-1.061377E-08,-2.622604E-08
572.7708,0.04495316,-8.104441E-09,NaN,-0.3273483,-1.338647E-07,NaN,0.4620309,-7.596253E-08,NaN,-0.1425593,1.711193E-05,-0.3822528,-2.286769E-08,NaN,NaN,-0.01947538,2.095468E-10,7.371452E-07,-1.120425E-07,-3.461216E-09,-2.861022E-08
572.7883,0.04495335,-8.103617E-09,NaN,-0.3273466,-1.33866E-07,NaN,0.4630817,-7.484236E-08,NaN,-0.1418757,1.711245E-05,-0.3832467,-2.34879E-08,NaN,NaN,-0.01951201,2.095468E-10,7.049587E-07,-1.12045E-07,-8.229588E-09,-2.622604E-08
572.8018,0.04495353,-8.102793E-09,NaN,-0.3273449,-1.338673E-07,NaN,0.4641154,-7.37222E-08,NaN,-0.1419434,1.711296E-05,-0.384236,-2.41041E-08,NaN,NaN,-0.01952933,2.142034E-10,6.83203E-07,-1.120475E-07,-1.299796E-08,-2.861022E-08
572.8156,0.04495353,-8.102793E-09,NaN,-0.3273449,-1.338673E-07,NaN,0.4641154,-7.37222E-08,NaN,-0.1419434,1.711296E-05,-0.384236,-2.41041E-08,NaN,NaN,-0.01952933,2.142034E-10,6.83203E-07,-1.120475E-07,-1.299796E-08,-2.861022E-08
572.8296,0.04495371,-8.101969E-09,NaN,-0.3273432,-1.338686E-07,NaN,0.4650301,-7.260203E-08,NaN,-0.1423603,1.711349E-05,-0.3851112,-2.471629E-08,NaN,NaN,-0.0195384,2.048902E-10,6.685999E-07,-1.1205E-07,-1.776633E-08,-2.622604E-08
572.8446,0.04495389,-8.101145E-09,NaN,-0.3273415,-1.338699E-07,NaN,0.4658415,-7.148187E-08,NaN,-0.1429368,1.711401E-05,-0.3858845,-2.532451E-08,NaN,NaN,-0.01954392,2.048902E-10,6.56679E-07,-1.120525E-07,-1.061377E-08,-2.861022E-08
572.8591,0.04495389,-8.101145E-09,NaN,-0.3273415,-1.338699E-07,NaN,0.4658415,-7.148187E-08,NaN,-0.1429368,1.711401E-05,-0.3858845,-2.532451E-08,NaN,NaN,-0.01954392,2.048902E-10,6.56679E-07,-1.120525E-07,-1.061377E-08,-2.861022E-08
572.8732,0.04495408,-8.10032E-09,NaN,-0.3273399,-1.338712E-07,NaN,0.4671875,-7.036171E-08,NaN,-0.144796,1.711454E-05,-0.3872111,-2.592878E-08,NaN,NaN,-0.01959531,2.002336E-10,6.161478E-07,-1.12055E-07,-8.229588E-09,-2.622604E-08
572.8885,0.04495426,-8.099494E-09,NaN,-0.3273382,-1.338725E-07,NaN,0.4684529,-6.924154E-08,NaN,-0.1474003,1.711505E-05,-0.3884684,-2.652912E-08,NaN,NaN,-0.01962573,2.002336E-10,5.887297E-07,-1.120575E-07,-8.229588E-09,-2.861022E-08
572.903,0.04495445,-8.098669E-09,NaN,-0.3273366,-1.338738E-07,NaN,0.4695593,-6.812138E-08,NaN,-0.1503296,1.711556E-05,-0.3895705,-2.712557E-08,NaN,NaN,-0.01964698,2.002336E-10,5.681661E-07,-1.1206E-07,-3.461216E-09,-2.622604E-08
572.9178,0.04495445,-8.098669E-09,NaN,-0.3273366,-1.338738E-07,NaN,0.4695593,-6.812138E-08,NaN,-0.1503296,1.711556E-05,-0.3895705,-2.712557E-08,NaN,NaN,-0.01964698,2.002336E-10,5.681661E-07,-1.1206E-07,-3.461216E-09,-2.622604E-08
572.9319,0.04495464,-8.097844E-09,NaN,-0.3273351,-1.338751E-07,NaN,0.4711156,-6.700122E-08,NaN,-0.1546011,1.711606E-05,-0.3911426,-2.771815E-08,NaN,NaN,-0.01970817,2.048902E-10,5.213764E-07,-1.120625E-07,3.691341E-09,-2.861022E-08
572.9473,0.04495483,-8.097019E-09,NaN,-0.3273335,-1.338764E-07,NaN,0.4725361,-6.588105E-08,NaN,-0.1596235,1.711658E-05,-0.3925909,-2.830688E-08,NaN,NaN,-0.01974749,2.002336E-10,4.865077E-07,-1.12065E-07,3.691341E-09,-2.622604E-08
572.9621,0.04495501,-8.096194E-09,NaN,-0.327332,-1.338778E-07,NaN,0.4737623,-6.476089E-08,NaN,-0.1649537,1.711709E-05,-0.3938489,-2.889179E-08,NaN,NaN,-0.01977678,2.002336E-10,4.567054E-07,-1.120674E-07,3.691341E-09,-2.861022E-08
572.9767,0.04495501,-8.096194E-09,NaN,-0.327332,-1.338778E-07,NaN,0.4737623,-6.476089E-08,NaN,-0.1649537,1.711709E-05,-0.3938489,-2.889179E-08,NaN,NaN,-0.01977678,2.002336E-10,4.567054E-07,-1.120674E-07,3.691341E-09,-2.861022E-08
572.9908,0.04495519,-8.095369E-09,NaN,-0.3273305,-1.338791E-07,NaN,0.474833,-6.364073E-08,NaN,-0.1703834,1.71176E-05,-0.3949518,-2.94729E-08,NaN,NaN,-0.01980091,1.95577E-10,4.304793E-07,-1.120699E-07,3.691341E-09,-2.622604E-08
573.0077,0.04495539,-8.094544E-09,NaN,-0.327329,-1.338804E-07,NaN,0.4763056,-6.252056E-08,NaN,-0.1770338,1.711811E-05,-0.396477,-3.005023E-08,NaN,NaN,-0.01985821,1.95577E-10,3.771332E-07,-1.120724E-07,6.075527E-09,-2.861022E-08
573.0213,0.04495558,-8.093719E-09,NaN,-0.3273275,-1.338818E-07,NaN,0.4776562,-6.14004E-08,NaN,-0.1843534,1.711861E-05,-0.3978933,-3.062382E-08,NaN,NaN,-0.01989673,1.95577E-10,3.321317E-07,-1.120749E-07,3.691341E-09,-2.622604E-08
573.0355,0.04495558,-8.093719E-09,NaN,-0.3273275,-1.338818E-07,NaN,0.4776562,-6.14004E-08,NaN,-0.1843534,1.711861E-05,-0.3978933,-3.062382E-08,NaN,NaN,-0.01989673,1.95577E-10,3.321317E-07,-1.120749E-07,3.691341E-09,-2.622604E-08
573.0496,0.04495576,-8.092893E-09,NaN,-0.3273261,-1.338831E-07,NaN,0.4788215,-6.028024E-08,NaN,-0.1919238,1.711912E-05,-0.3991297,-3.119369E-08,NaN,NaN,-0.01992617,2.002336E-10,2.954748E-07,-1.120774E-07,1.307155E-09,-2.861022E-08
573.066,0.04495595,-8.092068E-09,NaN,-0.3273246,-1.338845E-07,NaN,0.4798321,-5.916008E-08,NaN,-0.1995486,1.711962E-05,-0.4002129,-3.175985E-08,NaN,NaN,-0.01995056,2.002336E-10,2.641824E-07,-1.120799E-07,-1.07703E-09,-2.622604E-08
573.0811,0.04495612,-8.091243E-09,NaN,-0.3273232,-1.338858E-07,NaN,0.4802061,-5.803992E-08,NaN,-0.2056955,1.712013E-05,-0.4006308,-3.232234E-08,NaN,NaN,-0.01993901,2.002336E-10,2.71633E-07,-1.120823E-07,-1.07703E-09,-2.861022E-08
573.0944,0.04495612,-8.091243E-09,NaN,-0.3273232,-1.338858E-07,NaN,0.4802061,-5.803992E-08,NaN,-0.2056955,1.712013E-05,-0.4006308,-3.232234E-08,NaN,NaN,-0.01993901,2.002336E-10,2.71633E-07,-1.120823E-07,-1.07703E-09,-2.861022E-08
573.1083,0.04495629,-8.090418E-09,NaN,-0.3273218,-1.338872E-07,NaN,0.4805112,-5.691976E-08,NaN,-0.2109271,1.712065E-05,-0.4009601,-3.288118E-08,NaN,NaN,-0.01993994,1.909203E-10,2.647784E-07,-1.120848E-07,-1.07703E-09,-2.622604E-08
573.1235,0.04495646,-8.089593E-09,NaN,-0.3273204,-1.338885E-07,NaN,0.4808567,-5.57996E-08,NaN,-0.2156878,1.712115E-05,-0.4013204,-3.343639E-08,NaN,NaN,-0.01994538,1.955769E-10,2.522615E-07,-1.120873E-07,3.691341E-09,-2.861022E-08
573.1381,0.04495646,-8.089593E-09,NaN,-0.3273204,-1.338885E-07,NaN,0.4808567,-5.57996E-08,NaN,-0.2156878,1.712115E-05,-0.4013204,-3.343639E-08,NaN,NaN,-0.01994538,1.955769E-10,2.522615E-07,-1.120873E-07,3.691341E-09,-2.861022E-08
573.1522,0.04495663,-8.088768E-09,NaN,-0.327319,-1.338899E-07,NaN,0.4812389,-5.467944E-08,NaN,-0.2201882,1.712166E-05,-0.4017138,-3.3988E-08,NaN,NaN,-0.01995225,1.909203E-10,2.388504E-07,-1.120898E-07,-1.07703E-09,-2.622604E-08
573.1675,0.0449568,-8.087942E-09,NaN,-0.3273177,-1.338913E-07,NaN,0.4816354,-5.355928E-08,NaN,-0.224529,1.712216E-05,-0.4021208,-3.453602E-08,NaN,NaN,-0.01995938,1.955769E-10,2.233532E-07,-1.120922E-07,1.307155E-09,-2.861022E-08
573.1822,0.04495697,-8.087116E-09,NaN,-0.3273163,-1.338926E-07,NaN,0.4820285,-5.243912E-08,NaN,-0.2287587,1.712267E-05,-0.402525,-3.508049E-08,NaN,NaN,-0.0199663,1.955769E-10,2.090481E-07,-1.120947E-07,1.307155E-09,-2.622604E-08
573.197,0.04495697,-8.087116E-09,NaN,-0.3273163,-1.338926E-07,NaN,0.4820285,-5.243912E-08,NaN,-0.2287587,1.712267E-05,-0.402525,-3.508049E-08,NaN,NaN,-0.0199663,1.955769E-10,2.090481E-07,-1.120947E-07,1.307155E-09,-2.622604E-08
573.2109,0.04495715,-8.08629E-09,NaN,-0.327315,-1.33894E-07,NaN,0.4824074,-5.131896E-08,NaN,-0.232901,1.712318E-05,-0.4029159,-3.562142E-08,NaN,NaN,-0.01997284,1.955769E-10,1.959351E-07,-1.120972E-07,-5.845402E-09,-2.861022E-08
573.2263,0.04495721,-8.085464E-09,NaN,-0.3273137,-1.338954E-07,NaN,0.4827666,-5.01988E-08,NaN,-0.2369678,1.712369E-05,-0.4032882,-3.615884E-08,NaN,NaN,-0.01997896,1.909203E-10,1.81928E-07,-1.120996E-07,-8.229588E-09,-2.622604E-08
573.2411,0.04495724,-8.084638E-09,NaN,-0.3273124,-1.338968E-07,NaN,0.4831035,-4.907864E-08,NaN,-0.2409654,1.71242E-05,-0.4036393,-3.669277E-08,NaN,NaN,-0.01998466,1.909203E-10,1.676229E-07,-1.121021E-07,-1.061377E-08,-2.861022E-08
573.2558,0.04495724,-8.084638E-09,NaN,-0.3273124,-1.338968E-07,NaN,0.4831035,-4.907864E-08,NaN,-0.2409654,1.71242E-05,-0.4036393,-3.669277E-08,NaN,NaN,-0.01998466,1.909203E-10,1.676229E-07,-1.121021E-07,-1.061377E-08,-2.861022E-08
573.2699,0.04495726,-8.083812E-09,NaN,-0.3273111,-1.338982E-07,NaN,0.4834175,-4.795848E-08,NaN,-0.2448973,1.712471E-05,-0.4039683,-3.722324E-08,NaN,NaN,-0.01998994,1.862637E-10,1.539138E-07,-1.121046E-07,-3.461216E-09,-2.622604E-08
573.2853,0.04495727,-8.082986E-09,NaN,-0.3273098,-1.338995E-07,NaN,0.4837089,-4.683832E-08,NaN,-0.2487657,1.712521E-05,-0.4042753,-3.775026E-08,NaN,NaN,-0.01999484,1.909203E-10,1.413968E-07,-1.12107E-07,3.691341E-09,-2.861022E-08
573.3004,0.04422988,-8.08216E-09,NaN,-0.3273098,-1.339009E-07,NaN,0.4849623,-4.571816E-08,NaN,-0.2521671,1.712572E-05,-0.4053837,-3.827386E-08,NaN,NaN,-0.01999819,1.909203E-10,1.282838E-07,-1.121095E-07,3.691341E-09,-2.622604E-08
573.3147,0.04422988,-8.08216E-09,NaN,-0.3273098,-1.339009E-07,NaN,0.4849623,-4.571816E-08,NaN,-0.2521671,1.712572E-05,-0.4053837,-3.827386E-08,NaN,NaN,-0.01999819,1.909203E-10,1.282838E-07,-1.121095E-07,3.691341E-09,-2.622604E-08
573.3308,0.04304784,-8.081334E-09,NaN,-0.32731,-1.339023E-07,NaN,0.4864821,-4.4598E-08,NaN,-0.255391,1.712622E-05,-0.4066784,-3.879406E-08,NaN,NaN,-0.02000106,1.955769E-10,1.190451E-07,-1.121119E-07,1.307156E-09,-2.861022E-08
573.3449,0.04158466,-8.080508E-09,NaN,-0.32731,-1.339037E-07,NaN,0.4880094,-4.347784E-08,NaN,-0.2585522,1.712673E-05,-0.4079427,-3.931088E-08,NaN,NaN,-0.02000372,1.955769E-10,1.086143E-07,-1.121144E-07,-1.07703E-09,-2.622604E-08
573.3586,0.04158466,-8.080508E-09,NaN,-0.32731,-1.339037E-07,NaN,0.4880094,-4.347784E-08,NaN,-0.2585522,1.712673E-05,-0.4079427,-3.931088E-08,NaN,NaN,-0.02000372,1.955769E-10,1.086143E-07,-1.121144E-07,-1.07703E-09,-2.622604E-08
573.3727,0.03922239,-8.079682E-09,NaN,-0.3273114,-1.339051E-07,NaN,0.4904198,-4.235768E-08,NaN,-0.2612849,1.712723E-05,-0.4099173,-3.982435E-08,NaN,NaN,-0.02000511,2.002336E-10,9.877951E-08,-1.121168E-07,-5.845401E-09,-2.861022E-08
573.3879,0.03630431,-8.078856E-09,NaN,-0.3273127,-1.339065E-07,NaN,0.4930196,-4.123752E-08,NaN,-0.2638855,1.712775E-05,-0.4120001,-4.033448E-08,NaN,NaN,-0.0200062,1.955769E-10,8.894474E-08,-1.121193E-07,-5.845401E-09,-2.622604E-08
573.4026,0.03304875,-8.07803E-09,NaN,-0.3273134,-1.339079E-07,NaN,0.4955591,-4.011736E-08,NaN,-0.2664645,1.712825E-05,-0.4139901,-4.08413E-08,NaN,NaN,-0.02000722,1.955769E-10,8.030207E-08,-1.121217E-07,-1.07703E-09,-2.861022E-08
573.4172,0.03304875,-8.07803E-09,NaN,-0.3273134,-1.339079E-07,NaN,0.4955591,-4.011736E-08,NaN,-0.2664645,1.712825E-05,-0.4139901,-4.08413E-08,NaN,NaN,-0.02000722,1.955769E-10,8.030207E-08,-1.121217E-07,-1.07703E-09,-2.861022E-08
573.4312,0.0295945,-8.077204E-09,NaN,-0.3273137,-1.339093E-07,NaN,0.4979649,-3.89972E-08,NaN,-0.2690543,1.712877E-05,-0.4158392,-4.134484E-08,NaN,NaN,-0.02000819,1.909203E-10,7.195742E-08,-1.121242E-07,-3.461216E-09,-2.622604E-08
573.4468,0.02530137,-8.076378E-09,NaN,-0.3273152,-1.339107E-07,NaN,0.5011706,-3.787704E-08,NaN,-0.2712536,1.712926E-05,-0.4183403,-4.18451E-08,NaN,NaN,-0.020008,2.002336E-10,6.331475E-08,-1.121266E-07,-5.845401E-09,-2.861022E-08
573.4614,0.02049847,-8.075552E-09,NaN,-0.3273162,-1.339122E-07,NaN,0.5045272,-3.675688E-08,NaN,-0.2733413,1.712977E-05,-0.4209304,-4.234212E-08,NaN,NaN,-0.02000757,2.002336E-10,5.854638E-08,-1.121291E-07,-8.229588E-09,-2.622604E-08
573.4761,0.02049847,-8.075552E-09,NaN,-0.3273162,-1.339122E-07,NaN,0.5045272,-3.675688E-08,NaN,-0.2733413,1.712977E-05,-0.4209304,-4.234212E-08,NaN,NaN,-0.02000757,2.002336E-10,5.854638E-08,-1.121291E-07,-8.229588E-09,-2.622604E-08
573.4914,0.01539496,-8.074726E-09,NaN,-0.3273166,-1.339136E-07,NaN,0.5078034,-3.563672E-08,NaN,-0.2754211,1.713027E-05,-0.4234227,-4.283591E-08,NaN,NaN,-0.02000711,2.095468E-10,5.079778E-08,-1.121315E-07,-8.229588E-09,-2.861022E-08
573.5056,0.01012371,-8.0739E-09,NaN,-0.3273166,-1.33915E-07,NaN,0.5109311,-3.451656E-08,NaN,-0.2775226,1.71308E-05,-0.4257713,-4.332649E-08,NaN,NaN,-0.02000666,2.002336E-10,4.424126E-08,-1.121339E-07,-5.845402E-09,-2.622604E-08
573.5203,0.004040685,-8.073074E-09,NaN,-0.3273175,-1.339164E-07,NaN,0.5148358,-3.33964E-08,NaN,-0.2792466,1.713132E-05,-0.4287636,-4.381389E-08,NaN,NaN,-0.0200051,2.002336E-10,4.096301E-08,-1.121364E-07,-1.299796E-08,-2.861022E-08
573.5351,0.004040685,-8.073074E-09,NaN,-0.3273175,-1.339164E-07,NaN,0.5148358,-3.33964E-08,NaN,-0.2792466,1.713132E-05,-0.4287636,-4.381389E-08,NaN,NaN,-0.0200051,2.002336E-10,4.096301E-08,-1.121364E-07,-1.299796E-08,-2.861022E-08
573.5493,-0.002527549,-8.072248E-09,NaN,-0.3273179,-1.339178E-07,NaN,0.518877,-3.227624E-08,NaN,-0.28087,1.713185E-05,-0.4318427,-4.429813E-08,NaN,NaN,-0.02000335,1.95577E-10,3.857882E-08,-1.121388E-07,-1.538215E-08,-2.622604E-08
573.5646,-0.009373508,-8.071422E-09,NaN,-0.3273177,-1.339193E-07,NaN,0.5228255,-3.115608E-08,NaN,-0.2824961,1.713236E-05,-0.4348218,-4.477922E-08,NaN,NaN,-0.02000162,2.048902E-10,3.05322E-08,-1.121412E-07,-2.015052E-08,-2.861022E-08
573.5792,-0.009373508,-8.071422E-09,NaN,-0.3273177,-1.339193E-07,NaN,0.5228255,-3.115608E-08,NaN,-0.2824961,1.713236E-05,-0.4348218,-4.477922E-08,NaN,NaN,-0.02000162,2.048902E-10,3.05322E-08,-1.121412E-07,-2.015052E-08,-2.861022E-08
573.5953,-0.01709383,-8.070596E-09,NaN,-0.3273181,-1.339207E-07,NaN,0.5275478,-3.003592E-08,NaN,-0.2837568,1.713288E-05,-0.4384416,-4.525718E-08,NaN,NaN,-0.01999884,2.048902E-10,2.54658E-08,-1.121437E-07,-1.776633E-08,-2.622604E-08
573.6097,-0.02533184,-8.06977E-09,NaN,-0.3273179,-1.339221E-07,NaN,0.5323852,-2.891576E-08,NaN,-0.2849366,1.71334E-05,-0.4421311,-4.573205E-08,NaN,NaN,-0.01999591,2.048902E-10,2.308161E-08,-1.121461E-07,-1.538215E-08,-2.861022E-08
573.6232,-0.03386099,-8.068944E-09,NaN,-0.3273167,-1.339235E-07,NaN,0.5371053,-2.779559E-08,NaN,-0.2861395,1.713392E-05,-0.445702,-4.620383E-08,NaN,NaN,-0.01999303,2.048902E-10,1.77172E-08,-1.121485E-07,-1.061377E-08,-2.622604E-08
573.638,-0.03386099,-8.068944E-09,NaN,-0.3273167,-1.339235E-07,NaN,0.5371053,-2.779559E-08,NaN,-0.2861395,1.713392E-05,-0.445702,-4.620383E-08,NaN,NaN,-0.01999303,2.048902E-10,1.77172E-08,-1.121485E-07,-1.061377E-08,-2.622604E-08
573.6518,-0.04253755,-8.068117E-09,NaN,-0.3273149,-1.33925E-07,NaN,0.5416418,-2.667543E-08,NaN,-0.2873934,1.713444E-05,-0.4491099,-4.667255E-08,NaN,NaN,-0.01999022,2.048902E-10,1.205476E-08,-1.121509E-07,-1.061377E-08,-2.861022E-08
573.6672,-0.05199883,-8.06729E-09,NaN,-0.327314,-1.339264E-07,NaN,0.5469322,-2.555527E-08,NaN,-0.2883034,1.713496E-05,-0.4531592,-4.713823E-08,NaN,NaN,-0.01998633,2.048902E-10,6.988361E-09,-1.121533E-07,-8.229588E-09,-2.622604E-08
573.6818,-0.06191409,-8.066463E-09,NaN,-0.3273122,-1.339279E-07,NaN,0.5523323,-2.443511E-08,NaN,-0.2891399,1.713548E-05,-0.4572867,-4.760088E-08,NaN,NaN,-0.01998229,2.142034E-10,3.412082E-09,-1.121558E-07,-1.061377E-08,-2.861022E-08
573.6963,-0.06191409,-8.066463E-09,NaN,-0.3273122,-1.339279E-07,NaN,0.5523323,-2.443511E-08,NaN,-0.2891399,1.713548E-05,-0.4572867,-4.760088E-08,NaN,NaN,-0.01998229,2.142034E-10,3.412082E-09,-1.121558E-07,-1.061377E-08,-2.861022E-08
573.7105,-0.07207338,-8.065636E-09,NaN,-0.3273096,-1.339293E-07,NaN,0.5576144,-2.331495E-08,NaN,-0.2900032,1.713601E-05,-0.4613048,-4.806053E-08,NaN,NaN,-0.01997831,2.095468E-10,1.027896E-09,-1.121582E-07,-5.845401E-09,-2.622604E-08
573.7259,-0.08234359,-8.064809E-09,NaN,-0.327306,-1.339307E-07,NaN,0.5627116,-2.219478E-08,NaN,-0.290921,1.713653E-05,-0.4651657,-4.851719E-08,NaN,NaN,-0.01997442,2.048902E-10,-1.058266E-09,-1.121606E-07,-3.461216E-09,-2.861022E-08
573.7405,-0.0933689,-8.063982E-09,NaN,-0.3273033,-1.339322E-07,NaN,0.5685758,-2.107462E-08,NaN,-0.2915044,1.713705E-05,-0.4696904,-4.897089E-08,NaN,NaN,-0.01996941,2.002336E-10,-2.250359E-09,-1.12163E-07,-3.461216E-09,-2.622604E-08
573.7552,-0.0933689,-8.063982E-09,NaN,-0.3273033,-1.339322E-07,NaN,0.5685758,-2.107462E-08,NaN,-0.2915044,1.713705E-05,-0.4696904,-4.897089E-08,NaN,NaN,-0.01996941,2.002336E-10,-2.250359E-09,-1.12163E-07,-3.461216E-09,-2.622604E-08
573.7695,-0.104823,-8.063155E-09,NaN,-0.3272998,-1.339336E-07,NaN,0.5745496,-1.995446E-08,NaN,-0.2920215,1.713756E-05,-0.4743008,-4.942165E-08,NaN,NaN,-0.01996426,2.048902E-10,-4.485533E-09,-1.121654E-07,-5.845401E-09,-2.861022E-08
573.7845,-0.1164987,-8.062327E-09,NaN,-0.3272944,-1.339351E-07,NaN,0.5803991,-1.88343E-08,NaN,-0.2925721,1.713809E-05,-0.4788013,-4.986948E-08,NaN,NaN,-0.01995922,2.002336E-10,-4.932568E-09,-1.121678E-07,-3.461216E-09,-2.622604E-08
573.7993,-0.1164987,-8.062327E-09,NaN,-0.3272944,-1.339351E-07,NaN,0.5803991,-1.88343E-08,NaN,-0.2925721,1.713809E-05,-0.4788013,-4.986948E-08,NaN,NaN,-0.01995922,2.002336E-10,-4.932568E-09,-1.121678E-07,-3.461216E-09,-2.622604E-08
573.8137,-0.1289933,-8.061499E-09,NaN,-0.3272896,-1.339365E-07,NaN,0.587033,-1.771414E-08,NaN,-0.2928002,1.713861E-05,-0.4839811,-5.03144E-08,NaN,NaN,-0.01995304,1.95577E-10,2.828382E-10,-1.121702E-07,-3.461216E-09,-2.861022E-08
573.8286,-0.1419506,-8.060671E-09,NaN,-0.3272829,-1.33938E-07,NaN,0.5937626,-1.659398E-08,NaN,-0.2929801,1.713914E-05,-0.4892348,-5.075643E-08,NaN,NaN,-0.01994677,1.909204E-10,-2.250359E-09,-1.121726E-07,-1.07703E-09,-2.622604E-08
573.8434,-0.1551446,-8.059843E-09,NaN,-0.3272736,-1.339394E-07,NaN,0.600349,-1.547381E-08,NaN,-0.2932122,1.713967E-05,-0.4943628,-5.119559E-08,NaN,NaN,-0.01994063,1.862638E-10,-3.293441E-09,-1.12175E-07,3.691341E-09,-2.861022E-08
573.858,-0.1551446,-8.059843E-09,NaN,-0.3272736,-1.339394E-07,NaN,0.600349,-1.547381E-08,NaN,-0.2932122,1.713967E-05,-0.4943628,-5.119559E-08,NaN,NaN,-0.01994063,1.862638E-10,-3.293441E-09,-1.12175E-07,3.691341E-09,-2.861022E-08
573.8741,-0.1684321,-8.059016E-09,NaN,-0.327262,-1.339409E-07,NaN,0.6067257,-1.435365E-08,NaN,-0.2935232,1.714019E-05,-0.4993176,-5.16319E-08,NaN,NaN,-0.01993462,1.909204E-10,-2.995417E-09,-1.121774E-07,6.075527E-09,-2.622604E-08
573.8874,-0.182451,-8.058188E-09,NaN,-0.327251,-1.339423E-07,NaN,0.6138901,-1.323349E-08,NaN,-0.2935335,1.714071E-05,-0.5049709,-5.206538E-08,NaN,NaN,-0.01992737,1.95577E-10,-2.846406E-09,-1.121798E-07,3.691341E-09,-2.861022E-08
573.9021,-0.1968712,-8.057359E-09,NaN,-0.3272382,-1.339438E-07,NaN,0.6211545,-1.211333E-08,NaN,-0.2935018,1.714122E-05,-0.5107119,-5.249605E-08,NaN,NaN,-0.01992001,2.002336E-10,-2.995417E-09,-1.121821E-07,-1.07703E-09,-2.622604E-08
573.9167,-0.1968712,-8.057359E-09,NaN,-0.3272382,-1.339438E-07,NaN,0.6211545,-1.211333E-08,NaN,-0.2935018,1.714122E-05,-0.5107119,-5.249605E-08,NaN,NaN,-0.01992001,2.002336E-10,-2.995417E-09,-1.121821E-07,-1.07703E-09,-2.622604E-08
573.9307,-0.2114834,-8.056531E-09,NaN,-0.3272229,-1.339452E-07,NaN,0.6282794,-1.099317E-08,NaN,-0.2935245,1.714174E-05,-0.5163373,-5.292392E-08,NaN,NaN,-0.01991279,2.048902E-10,-5.528615E-09,-1.121845E-07,-3.461216E-09,-2.861022E-08
573.946,-0.226155,-8.055702E-09,NaN,-0.3272054,-1.339467E-07,NaN,0.6351968,-9.87301E-09,NaN,-0.2936279,1.714225E-05,-0.521796,-5.334902E-08,NaN,NaN,-0.01990569,2.095468E-10,-1.207278E-09,-1.121869E-07,-1.07703E-09,-2.622604E-08
573.9617,-0.2415308,-8.054873E-09,NaN,-0.3271889,-1.339482E-07,NaN,0.6429332,-8.752849E-09,NaN,-0.2934408,1.714276E-05,-0.5279907,-5.377135E-08,NaN,NaN,-0.01989727,2.142034E-10,1.474931E-09,-1.121893E-07,-3.461216E-09,-2.861022E-08
573.9751,-0.2415308,-8.054873E-09,NaN,-0.3271889,-1.339482E-07,NaN,0.6429332,-8.752849E-09,NaN,-0.2934408,1.714276E-05,-0.5279907,-5.377135E-08,NaN,NaN,-0.01989727,2.142034E-10,1.474931E-09,-1.121893E-07,-3.461216E-09,-2.861022E-08
573.9891,-0.2572851,-8.054045E-09,NaN,-0.3271705,-1.339496E-07,NaN,0.6507757,-7.632688E-09,NaN,-0.2932179,1.714328E-05,-0.5342838,-5.419094E-08,NaN,NaN,-0.01988875,2.1886E-10,2.518012E-09,-1.121916E-07,-5.845401E-09,-2.622604E-08
574.0045,-0.2732114,-8.053216E-09,NaN,-0.3271496,-1.339511E-07,NaN,0.6584766,-6.512527E-09,NaN,-0.2930549,1.71438E-05,-0.5404626,-5.46078E-08,NaN,NaN,-0.01988039,2.235166E-10,7.286383E-09,-1.12194E-07,-3.461216E-09,-2.861022E-08
574.0193,-0.2732114,-8.053216E-09,NaN,-0.3271496,-1.339511E-07,NaN,0.6584766,-6.512527E-09,NaN,-0.2930549,1.71438E-05,-0.5404626,-5.46078E-08,NaN,NaN,-0.01988039,2.235166E-10,7.286383E-09,-1.12194E-07,-3.461216E-09,-2.861022E-08
574.0336,-0.2899073,-8.052387E-09,NaN,-0.327129,-1.339526E-07,NaN,0.6670255,-5.392367E-09,NaN,-0.2926141,1.714432E-05,-0.5474037,-5.502196E-08,NaN,NaN,-0.01987068,2.281732E-10,9.819581E-09,-1.121964E-07,3.691341E-09,-2.622604E-08
574.0486,-0.3070173,-8.051559E-09,NaN,-0.3271059,-1.33954E-07,NaN,0.6756711,-4.272206E-09,NaN,-0.2921553,1.714484E-05,-0.5544345,-5.543344E-08,NaN,NaN,-0.01986091,2.281732E-10,1.01176E-08,-1.121988E-07,3.691341E-09,-2.861022E-08
574.0634,-0.3243159,-8.05073E-09,NaN,-0.3270798,-1.339555E-07,NaN,0.6841567,-3.152045E-09,NaN,-0.2917742,1.714537E-05,-0.5613345,-5.584224E-08,NaN,NaN,-0.01985132,2.235166E-10,1.235278E-08,-1.122011E-07,-1.07703E-09,-2.622604E-08
574.0782,-0.3243159,-8.05073E-09,NaN,-0.3270798,-1.339555E-07,NaN,0.6841567,-3.152045E-09,NaN,-0.2917742,1.714537E-05,-0.5613345,-5.584224E-08,NaN,NaN,-0.01985132,2.235166E-10,1.235278E-08,-1.122011E-07,-1.07703E-09,-2.622604E-08
574.0927,-0.3416606,-8.049901E-09,NaN,-0.3270512,-1.339569E-07,NaN,0.6924123,-2.031884E-09,NaN,-0.2914959,1.714588E-05,-0.5680504,-5.624838E-08,NaN,NaN,-0.0198419,2.328299E-10,1.443894E-08,-1.122035E-07,-8.229588E-09,-2.861022E-08
574.1077,-0.3596898,-8.049073E-09,NaN,-0.3270232,-1.339584E-07,NaN,0.7015346,-9.11723E-10,NaN,-0.290963,1.714641E-05,-0.5755599,-5.665189E-08,NaN,NaN,-0.01983099,2.281733E-10,2.084644E-08,-1.122058E-07,-8.229588E-09,-2.622604E-08
574.1222,-0.3780739,-8.048243E-09,NaN,-0.326993,-1.339599E-07,NaN,0.710762,2.084379E-10,NaN,-0.2904178,1.714691E-05,-0.5831746,-5.705278E-08,NaN,NaN,-0.01981999,2.374865E-10,2.144249E-08,-1.122082E-07,-8.229588E-09,-2.861022E-08
574.1381,-0.3780739,-8.048243E-09,NaN,-0.326993,-1.339599E-07,NaN,0.710762,2.084379E-10,NaN,-0.2904178,1.714691E-05,-0.5831746,-5.705278E-08,NaN,NaN,-0.01981999,2.374865E-10,2.144249E-08,-1.122082E-07,-8.229588E-09,-2.861022E-08
574.152,-0.3966042,-8.047413E-09,NaN,-0.3269601,-1.339614E-07,NaN,0.7198333,1.328599E-09,NaN,-0.2899514,1.714743E-05,-0.5906668,-5.745107E-08,NaN,NaN,-0.01980919,2.374865E-10,2.621086E-08,-1.122105E-07,-1.061377E-08,-2.622604E-08
574.1666,-0.4151486,-8.046584E-09,NaN,-0.3269251,-1.339628E-07,NaN,0.7286754,2.44876E-09,NaN,-0.2895887,1.714794E-05,-0.5979782,-5.784677E-08,NaN,NaN,-0.01979857,2.467997E-10,3.57476E-08,-1.122129E-07,-3.461216E-09,-2.861022E-08
574.1813,-0.4343525,-8.045754E-09,NaN,-0.326891,-1.339643E-07,NaN,0.7384274,3.568921E-09,NaN,-0.2889834,1.714847E-05,-0.6061308,-5.82399E-08,NaN,NaN,-0.01978636,2.421431E-10,4.126102E-08,-1.122152E-07,-1.07703E-09,-2.622604E-08
574.1956,-0.4343525,-8.045754E-09,NaN,-0.326891,-1.339643E-07,NaN,0.7384274,3.568921E-09,NaN,-0.2889834,1.714847E-05,-0.6061308,-5.82399E-08,NaN,NaN,-0.01978636,2.421431E-10,4.126102E-08,-1.122152E-07,-1.07703E-09,-2.622604E-08
574.2096,-0.4538906,-8.044925E-09,NaN,-0.3268549,-1.339658E-07,NaN,0.7482921,4.689082E-09,NaN,-0.2883719,1.714901E-05,-0.6143993,-5.863048E-08,NaN,NaN,-0.01977411,2.328299E-10,4.871161E-08,-1.122176E-07,1.307156E-09,-2.861022E-08
574.2248,-0.4735569,-8.044095E-09,NaN,-0.3268162,-1.339673E-07,NaN,0.7579963,5.809242E-09,NaN,-0.2878438,1.714954E-05,-0.6225426,-5.901853E-08,NaN,NaN,-0.01976211,2.235166E-10,5.198986E-08,-1.122199E-07,3.691341E-09,-2.622604E-08
574.2396,-0.4735569,-8.044095E-09,NaN,-0.3268162,-1.339673E-07,NaN,0.7579963,5.809242E-09,NaN,-0.2878438,1.714954E-05,-0.6225426,-5.901853E-08,NaN,NaN,-0.01976211,2.235166E-10,5.198986E-08,-1.122199E-07,3.691341E-09,-2.622604E-08
574.2537,-0.4939497,-8.043266E-09,NaN,-0.3267778,-1.339687E-07,NaN,0.7686458,6.929403E-09,NaN,-0.2870881,1.715006E-05,-0.6315598,-5.940406E-08,NaN,NaN,-0.01974849,2.235166E-10,5.899341E-08,-1.122222E-07,1.08439E-08,-2.861022E-08
574.269,-0.5147138,-8.042435E-09,NaN,-0.3267367,-1.339702E-07,NaN,0.7793971,8.049565E-09,NaN,-0.2863438,1.715058E-05,-0.6406819,-5.978708E-08,NaN,NaN,-0.01973489,2.235166E-10,6.674201E-08,-1.122246E-07,1.08439E-08,-2.622604E-08
574.2838,-0.5356243,-8.041605E-09,NaN,-0.3266923,-1.339717E-07,NaN,0.7899655,9.169725E-09,NaN,-0.2857003,1.71511E-05,-0.6496578,-6.016761E-08,NaN,NaN,-0.0197216,2.1886E-10,7.285148E-08,-1.122268E-07,6.075527E-09,-2.861022E-08
574.2986,-0.5356243,-8.041605E-09,NaN,-0.3266923,-1.339717E-07,NaN,0.7899655,9.169725E-09,NaN,-0.2857003,1.71511E-05,-0.6496578,-6.016761E-08,NaN,NaN,-0.0197216,2.1886E-10,7.285148E-08,-1.122268E-07,6.075527E-09,-2.861022E-08
574.3125,-0.5565391,-8.040774E-09,NaN,-0.3266454,-1.339736E-07,NaN,0.800274,1.028989E-08,NaN,-0.2851806,1.715163E-05,-0.6584256,-6.054569E-08,NaN,NaN,-0.01970855,2.095468E-10,8.119613E-08,-1.122282E-07,1.322808E-08,-2.622604E-08
574.3279,-0.5780972,-8.039944E-09,NaN,-0.3265993,-1.339754E-07,NaN,0.8115528,1.141005E-08,NaN,-0.2844589,1.715215E-05,-0.6681024,-6.09213E-08,NaN,NaN,-0.01969373,2.048902E-10,9.117991E-08,-1.122295E-07,1.322808E-08,-2.861022E-08
574.3427,-0.5999694,-8.039113E-09,NaN,-0.326551,-1.339768E-07,NaN,0.8229402,1.253021E-08,NaN,-0.2837549,1.715267E-05,-0.6778969,-6.129448E-08,NaN,NaN,-0.01967895,2.002336E-10,9.74384E-08,-1.122317E-07,1.08439E-08,-2.622604E-08
574.3572,-0.5999694,-8.039113E-09,NaN,-0.326551,-1.339768E-07,NaN,0.8229402,1.253021E-08,NaN,-0.2837549,1.715267E-05,-0.6778969,-6.129448E-08,NaN,NaN,-0.01967895,2.002336E-10,9.74384E-08,-1.122317E-07,1.08439E-08,-2.622604E-08
574.3714,-0.6219474,-8.038283E-09,NaN,-0.3264999,-1.339782E-07,NaN,0.8341434,1.365037E-08,NaN,-0.2831521,1.71532E-05,-0.6875469,-6.166523E-08,NaN,NaN,-0.01966452,1.95577E-10,1.038459E-07,-1.12234E-07,1.08439E-08,-2.861022E-08
574.3867,-0.6438998,-8.037452E-09,NaN,-0.3264467,-1.339797E-07,NaN,0.8450807,1.477053E-08,NaN,-0.2826731,1.715373E-05,-0.6969844,-6.203358E-08,NaN,NaN,-0.01965041,1.909203E-10,1.104024E-07,-1.122363E-07,1.561227E-08,-2.622604E-08
574.4025,-0.6659651,-8.036621E-09,NaN,-0.3263932,-1.339811E-07,NaN,0.8561345,1.589069E-08,NaN,-0.2822221,1.715426E-05,-0.706562,-6.239953E-08,NaN,NaN,-0.01963592,1.862637E-10,1.160649E-07,-1.122386E-07,1.799645E-08,-2.861022E-08
574.4175,-0.6659651,-8.036621E-09,NaN,-0.3263932,-1.339811E-07,NaN,0.8561345,1.589069E-08,NaN,-0.2822221,1.715426E-05,-0.706562,-6.239953E-08,NaN,NaN,-0.01963592,1.862637E-10,1.160649E-07,-1.122386E-07,1.799645E-08,-2.861022E-08
574.4304,-0.6880089,-8.03579E-09,NaN,-0.3263388,-1.339826E-07,NaN,0.8670378,1.701085E-08,NaN,-0.2818558,1.715479E-05,-0.7160349,-6.276311E-08,NaN,NaN,-0.01962165,1.769505E-10,1.236644E-07,-1.122409E-07,2.276483E-08,-2.622604E-08
574.447,-0.7099469,-8.034958E-09,NaN,-0.3262841,-1.339841E-07,NaN,0.8777062,1.813101E-08,NaN,-0.2815909,1.715531E-05,-0.725328,-6.312433E-08,NaN,NaN,-0.0196077,1.769505E-10,1.267937E-07,-1.122432E-07,2.514901E-08,-2.861022E-08
574.4602,-0.7317265,-8.034127E-09,NaN,-0.3262294,-1.339855E-07,NaN,0.8881208,1.925118E-08,NaN,-0.2814271,1.715583E-05,-0.7344255,-6.34832E-08,NaN,NaN,-0.01959406,1.816071E-10,1.296249E-07,-1.122455E-07,2.991738E-08,-2.622604E-08
574.4749,-0.7317265,-8.034127E-09,NaN,-0.3262294,-1.339855E-07,NaN,0.8881208,1.925118E-08,NaN,-0.2814271,1.715583E-05,-0.7344255,-6.34832E-08,NaN,NaN,-0.01959406,1.816071E-10,1.296249E-07,-1.122455E-07,2.991738E-08,-2.622604E-08
574.4893,-0.7533153,-8.033296E-09,NaN,-0.3261755,-1.33987E-07,NaN,0.8982833,2.037134E-08,NaN,-0.2813581,1.715635E-05,-0.7433302,-6.383974E-08,NaN,NaN,-0.01958076,1.769505E-10,1.334992E-07,-1.122478E-07,2.991738E-08,-2.861022E-08
574.5042,-0.774694,-8.032464E-09,NaN,-0.3261227,-1.339885E-07,NaN,0.9081994,2.14915E-08,NaN,-0.2813762,1.715687E-05,-0.7520474,-6.419397E-08,NaN,NaN,-0.01956778,1.722939E-10,1.415458E-07,-1.122501E-07,2.514901E-08,-2.622604E-08
574.519,-0.774694,-8.032464E-09,NaN,-0.3261227,-1.339885E-07,NaN,0.9081994,2.14915E-08,NaN,-0.2813762,1.715687E-05,-0.7520474,-6.419397E-08,NaN,NaN,-0.01956778,1.722939E-10,1.415458E-07,-1.122501E-07,2.514901E-08,-2.622604E-08
574.5331,-0.795851,-8.031633E-09,NaN,-0.3260714,-1.3399E-07,NaN,0.9178743,2.261166E-08,NaN,-0.2814744,1.715739E-05,-0.7605813,-6.454589E-08,NaN,NaN,-0.01955516,1.676373E-10,1.473573E-07,-1.122524E-07,2.75332E-08,-2.861022E-08
574.5485,-0.8167802,-8.030801E-09,NaN,-0.3260217,-1.339914E-07,NaN,0.9273112,2.373182E-08,NaN,-0.2816465,1.715791E-05,-0.768934,-6.489554E-08,NaN,NaN,-0.01954292,1.676373E-10,1.592782E-07,-1.122547E-07,2.276483E-08,-2.622604E-08
574.5631,-0.8374786,-8.029969E-09,NaN,-0.3259739,-1.339929E-07,NaN,0.9365115,2.485199E-08,NaN,-0.2818876,1.715842E-05,-0.7771056,-6.524291E-08,NaN,NaN,-0.01953107,1.676373E-10,1.647917E-07,-1.122569E-07,1.799646E-08,-2.861022E-08
574.5778,-0.8374786,-8.029969E-09,NaN,-0.3259739,-1.339929E-07,NaN,0.9365115,2.485199E-08,NaN,-0.2818876,1.715842E-05,-0.7771056,-6.524291E-08,NaN,NaN,-0.01953107,1.676373E-10,1.647917E-07,-1.122569E-07,1.799646E-08,-2.861022E-08
574.5916,-0.8579454,-8.029136E-09,NaN,-0.325928,-1.339944E-07,NaN,0.9454755,2.597215E-08,NaN,-0.2821933,1.715895E-05,-0.7850953,-6.558803E-08,NaN,NaN,-0.01951965,1.583241E-10,1.69113E-07,-1.122592E-07,1.561227E-08,-2.622604E-08
574.6071,-0.8781811,-8.028304E-09,NaN,-0.325884,-1.339959E-07,NaN,0.9542024,2.709231E-08,NaN,-0.2825599,1.715947E-05,-0.7929009,-6.593091E-08,NaN,NaN,-0.01950864,1.583241E-10,1.801398E-07,-1.122615E-07,1.322809E-08,-2.861022E-08
574.6218,-0.8981868,-8.027472E-09,NaN,-0.3258419,-1.339974E-07,NaN,0.962691,2.821247E-08,NaN,-0.2829843,1.715999E-05,-0.8005202,-6.627155E-08,NaN,NaN,-0.01949807,1.583241E-10,1.936999E-07,-1.122638E-07,1.322809E-08,-2.622604E-08
574.6366,-0.8981868,-8.027472E-09,NaN,-0.3258419,-1.339974E-07,NaN,0.962691,2.821247E-08,NaN,-0.2829843,1.715999E-05,-0.8005202,-6.627155E-08,NaN,NaN,-0.01949807,1.583241E-10,1.936999E-07,-1.122638E-07,1.322809E-08,-2.622604E-08
574.6504,-0.9179643,-8.02664E-09,NaN,-0.3258018,-1.339988E-07,NaN,0.9709401,2.933263E-08,NaN,-0.2834636,1.716052E-05,-0.8079507,-6.660999E-08,NaN,NaN,-0.01948794,1.490108E-10,2.012995E-07,-1.122661E-07,1.561227E-08,-2.861022E-08
574.6679,-0.9375156,-8.025808E-09,NaN,-0.3257636,-1.340003E-07,NaN,0.978948,3.045279E-08,NaN,-0.2839949,1.716104E-05,-0.8151898,-6.694624E-08,NaN,NaN,-0.01947824,1.443542E-10,2.018955E-07,-1.122683E-07,1.442018E-08,-2.622604E-08
574.6815,-0.9568429,-8.024975E-09,NaN,-0.3257272,-1.340018E-07,NaN,0.9867137,3.157295E-08,NaN,-0.2845758,1.716156E-05,-0.8222352,-6.72803E-08,NaN,NaN,-0.01946899,1.443542E-10,2.059189E-07,-1.122706E-07,9.651806E-09,-2.861022E-08
574.6951,-0.9568429,-8.024975E-09,NaN,-0.3257272,-1.340018E-07,NaN,0.9867137,3.157295E-08,NaN,-0.2845758,1.716156E-05,-0.8222352,-6.72803E-08,NaN,NaN,-0.01946899,1.443542E-10,2.059189E-07,-1.122706E-07,9.651806E-09,-2.861022E-08
574.7091,-0.9759486,-8.024143E-09,NaN,-0.3256926,-1.340033E-07,NaN,0.9942362,3.269311E-08,NaN,-0.2852039,1.716207E-05,-0.8290848,-6.761218E-08,NaN,NaN,-0.01946018,1.443542E-10,2.144125E-07,-1.122729E-07,8.459714E-09,-2.622604E-08
574.7243,-0.9948351,-8.023311E-09,NaN,-0.3256598,-1.340048E-07,NaN,1.001515,3.381327E-08,NaN,-0.2858767,1.716258E-05,-0.8357368,-6.794192E-08,NaN,NaN,-0.0194518,1.443542E-10,2.235022E-07,-1.122751E-07,1.203599E-08,-2.861022E-08
574.7391,-0.9948351,-8.023311E-09,NaN,-0.3256598,-1.340048E-07,NaN,1.001515,3.381327E-08,NaN,-0.2858767,1.716258E-05,-0.8357368,-6.794192E-08,NaN,NaN,-0.0194518,1.443542E-10,2.235022E-07,-1.122751E-07,1.203599E-08,-2.861022E-08
574.753,-1.013505,-8.022479E-09,NaN,-0.3256287,-1.340062E-07,NaN,1.008548,3.493343E-08,NaN,-0.286592,1.716309E-05,-0.8421896,-6.826951E-08,NaN,NaN,-0.01944386,1.396976E-10,2.278236E-07,-1.122774E-07,1.08439E-08,-2.622604E-08
574.7686,-1.03196,-8.021646E-09,NaN,-0.3255993,-1.340077E-07,NaN,1.015337,3.605359E-08,NaN,-0.2873476,1.71636E-05,-0.8484421,-6.859499E-08,NaN,NaN,-0.01943637,1.396976E-10,2.293137E-07,-1.122796E-07,1.203599E-08,-2.861022E-08
574.783,-1.050204,-8.020812E-09,NaN,-0.3255715,-1.340092E-07,NaN,1.021881,3.717375E-08,NaN,-0.2881414,1.716411E-05,-0.854493,-6.891834E-08,NaN,NaN,-0.0194293,1.396976E-10,2.302078E-07,-1.122819E-07,1.203599E-08,-2.622604E-08
574.7978,-1.050204,-8.020812E-09,NaN,-0.3255715,-1.340092E-07,NaN,1.021881,3.717375E-08,NaN,-0.2881414,1.716411E-05,-0.854493,-6.891834E-08,NaN,NaN,-0.0194293,1.396976E-10,2.302078E-07,-1.122819E-07,1.203599E-08,-2.622604E-08
574.8118,-1.068238,-8.019981E-09,NaN,-0.3255453,-1.340107E-07,NaN,1.02818,3.829391E-08,NaN,-0.2889712,1.716462E-05,-0.8603418,-6.92396E-08,NaN,NaN,-0.01942265,1.396976E-10,2.360192E-07,-1.122841E-07,9.651806E-09,-2.861022E-08
574.8272,-1.086064,-8.01915E-09,NaN,-0.3255206,-1.340121E-07,NaN,1.034236,3.941407E-08,NaN,-0.289835,1.716514E-05,-0.8659882,-6.955877E-08,NaN,NaN,-0.01941641,1.443542E-10,2.409366E-07,-1.122863E-07,7.267621E-09,-2.622604E-08
574.8419,-1.103686,-8.018318E-09,NaN,-0.3254974,-1.340136E-07,NaN,1.040048,4.053423E-08,NaN,-0.2907308,1.716566E-05,-0.8714319,-6.987587E-08,NaN,NaN,-0.01941057,1.396976E-10,2.491322E-07,-1.122886E-07,8.459714E-09,-2.861022E-08
574.8566,-1.103686,-8.018318E-09,NaN,-0.3254974,-1.340136E-07,NaN,1.040048,4.053423E-08,NaN,-0.2907308,1.716566E-05,-0.8714319,-6.987587E-08,NaN,NaN,-0.01941057,1.396976E-10,2.491322E-07,-1.122886E-07,8.459714E-09,-2.861022E-08
574.8708,-1.121106,-8.017487E-09,NaN,-0.3254757,-1.340151E-07,NaN,1.045618,4.165439E-08,NaN,-0.2916567,1.716617E-05,-0.8766733,-7.019091E-08,NaN,NaN,-0.01940514,1.490108E-10,2.504733E-07,-1.122908E-07,1.322809E-08,-2.622604E-08
574.8862,-1.138325,-8.016656E-09,NaN,-0.3254554,-1.340166E-07,NaN,1.050947,4.277455E-08,NaN,-0.2926108,1.71667E-05,-0.8817127,-7.05039E-08,NaN,NaN,-0.01940008,1.443542E-10,2.527085E-07,-1.12293E-07,1.203599E-08,-2.861022E-08
574.9011,-1.155346,-8.015824E-09,NaN,-0.3254364,-1.340181E-07,NaN,1.056038,4.389471E-08,NaN,-0.2935913,1.716721E-05,-0.8865508,-7.081486E-08,NaN,NaN,-0.01939542,1.490108E-10,2.501753E-07,-1.122953E-07,1.322809E-08,-2.622604E-08
574.9157,-1.155346,-8.015824E-09,NaN,-0.3254364,-1.340181E-07,NaN,1.056038,4.389471E-08,NaN,-0.2935913,1.716721E-05,-0.8865508,-7.081486E-08,NaN,NaN,-0.01939542,1.490108E-10,2.501753E-07,-1.122953E-07,1.322809E-08,-2.622604E-08
574.9319,-1.172172,-8.014992E-09,NaN,-0.3254187,-1.340195E-07,NaN,1.060891,4.501487E-08,NaN,-0.2945963,1.716773E-05,-0.8911887,-7.112381E-08,NaN,NaN,-0.01939112,1.443542E-10,2.510694E-07,-1.122975E-07,1.322809E-08,-2.861022E-08
574.9461,-1.188805,-8.01416E-09,NaN,-0.3254023,-1.34021E-07,NaN,1.065509,4.613503E-08,NaN,-0.2956243,1.716823E-05,-0.8956273,-7.143075E-08,NaN,NaN,-0.01938718,1.583241E-10,2.486852E-07,-1.122997E-07,1.442018E-08,-2.622604E-08
574.9596,-1.188805,-8.01416E-09,NaN,-0.3254023,-1.34021E-07,NaN,1.065509,4.613503E-08,NaN,-0.2956243,1.716823E-05,-0.8956273,-7.143075E-08,NaN,NaN,-0.01938718,1.583241E-10,2.486852E-07,-1.122997E-07,1.442018E-08,-2.622604E-08
574.9737,-1.205246,-8.013328E-09,NaN,-0.3253872,-1.340225E-07,NaN,1.069894,4.725519E-08,NaN,-0.2966734,1.716874E-05,-0.899868,-7.173569E-08,NaN,NaN,-0.01938358,1.583241E-10,2.530065E-07,-1.123019E-07,1.442018E-08,-2.861022E-08
574.9891,-1.221278,-8.012496E-09,NaN,-0.3253725,-1.34024E-07,NaN,1.07362,4.837535E-08,NaN,-0.2978107,1.716926E-05,-0.9035127,-7.203866E-08,NaN,NaN,-0.01938093,1.629807E-10,2.603081E-07,-1.123041E-07,1.322809E-08,-2.622604E-08
575.0034,-1.236985,-8.011663E-09,NaN,-0.3253593,-1.340254E-07,NaN,1.077002,4.949551E-08,NaN,-0.2989866,1.716978E-05,-0.9068581,-7.233966E-08,NaN,NaN,-0.01937867,1.629807E-10,2.612022E-07,-1.123063E-07,1.203599E-08,-2.861022E-08
575.0183,-1.236985,-8.011663E-09,NaN,-0.3253593,-1.340254E-07,NaN,1.077002,4.949551E-08,NaN,-0.2989866,1.716978E-05,-0.9068581,-7.233966E-08,NaN,NaN,-0.01937867,1.629807E-10,2.612022E-07,-1.123063E-07,1.203599E-08,-2.861022E-08
575.032,-1.252422,-8.010831E-09,NaN,-0.3253478,-1.340269E-07,NaN,1.080157,5.061567E-08,NaN,-0.3001785,1.717029E-05,-0.9100099,-7.263871E-08,NaN,NaN,-0.01937663,1.676373E-10,2.632883E-07,-1.123085E-07,1.322809E-08,-2.622604E-08
575.0475,-1.267624,-8.009999E-09,NaN,-0.3253381,-1.340284E-07,NaN,1.083118,5.173583E-08,NaN,-0.301377,1.717083E-05,-0.9130006,-7.293581E-08,NaN,NaN,-0.01937483,1.583241E-10,2.622452E-07,-1.123108E-07,1.442018E-08,-2.861022E-08
575.0621,-1.281888,-8.009167E-09,NaN,-0.3253275,-1.340299E-07,NaN,1.084495,5.285599E-08,NaN,-0.3028002,1.717134E-05,-0.9145284,-7.323099E-08,NaN,NaN,-0.01937526,1.629807E-10,2.580729E-07,-1.123129E-07,1.620832E-08,-2.622604E-08
575.0767,-1.281888,-8.009167E-09,NaN,-0.3253275,-1.340299E-07,NaN,1.084495,5.285599E-08,NaN,-0.3028002,1.717134E-05,-0.9145284,-7.323099E-08,NaN,NaN,-0.01937526,1.629807E-10,2.580729E-07,-1.123129E-07,1.620832E-08,-2.622604E-08
575.0907,-1.295501,-8.008334E-09,NaN,-0.3253192,-1.340314E-07,NaN,1.085313,5.397615E-08,NaN,-0.3042938,1.717186E-05,-0.9155582,-7.352424E-08,NaN,NaN,-0.0193761,1.629807E-10,2.616492E-07,-1.123151E-07,1.740041E-08,-2.861022E-08
575.1061,-1.308649,-8.007502E-09,NaN,-0.325314,-1.340328E-07,NaN,1.085938,5.509631E-08,NaN,-0.3057898,1.717238E-05,-0.9164292,-7.38156E-08,NaN,NaN,-0.01937694,1.676373E-10,2.644804E-07,-1.123173E-07,1.918855E-08,-2.622604E-08
575.1208,-1.321449,-8.00667E-09,NaN,-0.3253117,-1.340343E-07,NaN,1.086478,5.621647E-08,NaN,-0.3072638,1.71729E-05,-0.9172391,-7.410506E-08,NaN,NaN,-0.01937783,1.676373E-10,2.656725E-07,-1.123195E-07,1.97846E-08,-2.861022E-08
575.1377,-1.321449,-8.00667E-09,NaN,-0.3253117,-1.340343E-07,NaN,1.086478,5.621647E-08,NaN,-0.3072638,1.71729E-05,-0.9172391,-7.410506E-08,NaN,NaN,-0.01937783,1.676373E-10,2.656725E-07,-1.123195E-07,1.97846E-08,-2.861022E-08
575.15,-1.333249,-8.005838E-09,NaN,-0.3253095,-1.340358E-07,NaN,1.085569,5.733663E-08,NaN,-0.3089298,1.71734E-05,-0.9167121,-7.439264E-08,NaN,NaN,-0.01938068,1.816071E-10,2.677587E-07,-1.123217E-07,1.829448E-08,-2.622604E-08
575.165,-1.34437,-8.005006E-09,NaN,-0.325309,-1.340373E-07,NaN,1.084214,5.845679E-08,NaN,-0.3106375,1.717392E-05,-0.9157866,-7.467836E-08,NaN,NaN,-0.01938384,1.816071E-10,2.646294E-07,-1.123239E-07,1.740041E-08,-2.861022E-08
575.1797,-1.34437,-8.005006E-09,NaN,-0.325309,-1.340373E-07,NaN,1.084214,5.845679E-08,NaN,-0.3106375,1.717392E-05,-0.9157866,-7.467836E-08,NaN,NaN,-0.01938384,1.816071E-10,2.646294E-07,-1.123239E-07,1.740041E-08,-2.861022E-08
575.1936,-1.355018,-8.004172E-09,NaN,-0.32531,-1.340387E-07,NaN,1.082757,5.957695E-08,NaN,-0.3123237,1.717443E-05,-0.9147833,-7.496222E-08,NaN,NaN,-0.01938695,1.816071E-10,2.606061E-07,-1.12326E-07,1.710239E-08,-2.622604E-08
575.2103,-1.364596,-8.003339E-09,NaN,-0.3253107,-1.340402E-07,NaN,1.079939,6.069711E-08,NaN,-0.3141898,1.717494E-05,-0.9125231,-7.524424E-08,NaN,NaN,-0.01939182,1.816071E-10,2.580729E-07,-1.123282E-07,1.650634E-08,-2.861022E-08
575.2239,-1.37346,-8.002506E-09,NaN,-0.3253127,-1.340417E-07,NaN,1.076764,6.181727E-08,NaN,-0.3160809,1.717545E-05,-0.9099464,-7.552443E-08,NaN,NaN,-0.01939686,1.816071E-10,2.568808E-07,-1.123304E-07,1.680436E-08,-2.622604E-08
575.2385,-1.37346,-8.002506E-09,NaN,-0.3253127,-1.340417E-07,NaN,1.076764,6.181727E-08,NaN,-0.3160809,1.717545E-05,-0.9099464,-7.552443E-08,NaN,NaN,-0.01939686,1.816071E-10,2.568808E-07,-1.123304E-07,1.680436E-08,-2.622604E-08
575.2528,-1.381839,-8.001673E-09,NaN,-0.3253163,-1.340432E-07,NaN,1.073572,6.293744E-08,NaN,-0.3179346,1.717597E-05,-0.9073675,-7.58028E-08,NaN,NaN,-0.01940173,1.816071E-10,2.561358E-07,-1.123325E-07,1.59103E-08,-2.861022E-08
575.268,-1.389877,-8.00084E-09,NaN,-0.3253221,-1.340447E-07,NaN,1.070448,6.40576E-08,NaN,-0.3197328,1.717649E-05,-0.9048636,-7.607937E-08,NaN,NaN,-0.01940641,1.816071E-10,2.521124E-07,-1.123347E-07,1.680436E-08,-2.622604E-08
575.2824,-1.396939,-8.000007E-09,NaN,-0.3253276,-1.340461E-07,NaN,1.066071,6.517777E-08,NaN,-0.3217013,1.717702E-05,-0.9011989,-7.635413E-08,NaN,NaN,-0.01941271,1.769505E-10,2.485362E-07,-1.123368E-07,1.620832E-08,-2.861022E-08
575.297,-1.396939,-8.000007E-09,NaN,-0.3253276,-1.340461E-07,NaN,1.066071,6.517777E-08,NaN,-0.3217013,1.717702E-05,-0.9011989,-7.635413E-08,NaN,NaN,-0.01941271,1.769505E-10,2.485362E-07,-1.123368E-07,1.620832E-08,-2.861022E-08
575.311,-1.403358,-7.999174E-09,NaN,-0.325335,-1.340476E-07,NaN,1.061388,6.629793E-08,NaN,-0.3236912,1.717754E-05,-0.8972601,-7.662712E-08,NaN,NaN,-0.01941912,1.769505E-10,2.430227E-07,-1.12339E-07,1.620832E-08,-2.622604E-08
575.3262,-1.409345,-7.998341E-09,NaN,-0.3253448,-1.340491E-07,NaN,1.056723,6.741809E-08,NaN,-0.325642,1.717806E-05,-0.8933476,-7.689833E-08,NaN,NaN,-0.0194253,1.769505E-10,2.431717E-07,-1.123411E-07,1.553777E-08,-2.861022E-08
575.3408,-1.415036,-7.997508E-09,NaN,-0.3253569,-1.340506E-07,NaN,1.052158,6.853826E-08,NaN,-0.3275353,1.717858E-05,-0.8895366,-7.716778E-08,NaN,NaN,-0.01943122,1.862637E-10,2.427247E-07,-1.123433E-07,1.494172E-08,-2.622604E-08
575.3556,-1.415036,-7.997508E-09,NaN,-0.3253569,-1.340506E-07,NaN,1.052158,6.853826E-08,NaN,-0.3275353,1.717858E-05,-0.8895366,-7.716778E-08,NaN,NaN,-0.01943122,1.862637E-10,2.427247E-07,-1.123433E-07,1.494172E-08,-2.622604E-08
575.3696,-1.419788,-7.996674E-09,NaN,-0.3253685,-1.34052E-07,NaN,1.046417,6.965842E-08,NaN,-0.3296033,1.71791E-05,-0.8846334,-7.743549E-08,NaN,NaN,-0.01943861,1.862637E-10,2.364662E-07,-1.123454E-07,1.494172E-08,-2.861022E-08
575.3849,-1.42393,-7.99584E-09,NaN,-0.3253812,-1.340535E-07,NaN,1.040419,7.077858E-08,NaN,-0.331692,1.717962E-05,-0.8794987,-7.770145E-08,NaN,NaN,-0.01944606,1.862637E-10,2.291646E-07,-1.123476E-07,1.508491E-08,-2.622604E-08
575.3995,-1.42393,-7.99584E-09,NaN,-0.3253812,-1.340535E-07,NaN,1.040419,7.077858E-08,NaN,-0.331692,1.717962E-05,-0.8794987,-7.770145E-08,NaN,NaN,-0.01944606,1.862637E-10,2.291646E-07,-1.123476E-07,1.508491E-08,-2.622604E-08
575.4148,-1.427671,-7.995006E-09,NaN,-0.3253955,-1.34055E-07,NaN,1.034481,7.189875E-08,NaN,-0.3337393,1.718014E-05,-0.8744264,-7.796569E-08,NaN,NaN,-0.01945323,1.816071E-10,2.236512E-07,-1.123497E-07,1.46565E-08,-2.861022E-08
575.4288,-1.430416,-7.994172E-09,NaN,-0.3254088,-1.340564E-07,NaN,1.027444,7.301891E-08,NaN,-0.3359657,1.718066E-05,-0.868333,-7.822821E-08,NaN,NaN,-0.0194617,1.862637E-10,2.193299E-07,-1.123518E-07,1.387419E-08,-2.622604E-08
575.4434,-1.432522,-7.993338E-09,NaN,-0.3254227,-1.340579E-07,NaN,1.020226,7.413907E-08,NaN,-0.3382064,1.718117E-05,-0.8620779,-7.848903E-08,NaN,NaN,-0.01947014,1.862637E-10,2.139655E-07,-1.123539E-07,1.350166E-08,-2.861022E-08
575.4583,-1.432522,-7.993338E-09,NaN,-0.3254227,-1.340579E-07,NaN,1.020226,7.413907E-08,NaN,-0.3382064,1.718117E-05,-0.8620779,-7.848903E-08,NaN,NaN,-0.01947014,1.862637E-10,2.139655E-07,-1.123539E-07,1.350166E-08,-2.861022E-08
575.472,-1.434218,-7.992505E-09,NaN,-0.3254376,-1.340594E-07,NaN,1.013137,7.525924E-08,NaN,-0.3403965,1.718169E-05,-0.8559486,-7.874815E-08,NaN,NaN,-0.01947823,1.862637E-10,2.094951E-07,-1.123561E-07,1.372518E-08,-2.622604E-08
575.4894,-1.435648,-7.991672E-09,NaN,-0.3254534,-1.340608E-07,NaN,1.006251,7.63794E-08,NaN,-0.3425173,1.71822E-05,-0.8500127,-7.900559E-08,NaN,NaN,-0.01948594,1.909203E-10,2.063659E-07,-1.123582E-07,1.305463E-08,-2.861022E-08
575.503,-1.436177,-7.99084E-09,NaN,-0.3254675,-1.340623E-07,NaN,0.9983677,7.749956E-08,NaN,-0.3448196,1.718272E-05,-0.8431502,-7.926137E-08,NaN,NaN,-0.01949485,1.862637E-10,2.041307E-07,-1.123603E-07,1.230957E-08,-2.622604E-08
575.517,-1.436177,-7.99084E-09,NaN,-0.3254675,-1.340623E-07,NaN,0.9983677,7.749956E-08,NaN,-0.3448196,1.718272E-05,-0.8431502,-7.926137E-08,NaN,NaN,-0.01949485,1.862637E-10,2.041307E-07,-1.123603E-07,1.230957E-08,-2.622604E-08
575.5306,-1.436138,-7.990007E-09,NaN,-0.3254812,-1.340638E-07,NaN,0.9903436,7.861973E-08,NaN,-0.3471381,1.718324E-05,-0.8361606,-7.951548E-08,NaN,NaN,-0.01950373,1.909203E-10,1.987663E-07,-1.123624E-07,1.126649E-08,-2.861022E-08
575.5458,-1.435742,-7.989174E-09,NaN,-0.3254949,-1.340652E-07,NaN,0.98247,7.973989E-08,NaN,-0.349408,1.718376E-05,-0.8293145,-7.976794E-08,NaN,NaN,-0.01951224,1.862637E-10,1.931038E-07,-1.123645E-07,1.067044E-08,-2.622604E-08
575.5602,-1.435122,-7.988341E-09,NaN,-0.3255087,-1.340667E-07,NaN,0.9748182,8.086005E-08,NaN,-0.35161,1.718427E-05,-0.8226781,-8.001876E-08,NaN,NaN,-0.01952036,1.909203E-10,1.880374E-07,-1.123666E-07,1.037242E-08,-2.861022E-08
575.5749,-1.435122,-7.988341E-09,NaN,-0.3255087,-1.340667E-07,NaN,0.9748182,8.086005E-08,NaN,-0.35161,1.718427E-05,-0.8226781,-8.001876E-08,NaN,NaN,-0.01952036,1.909203E-10,1.880374E-07,-1.123666E-07,1.037242E-08,-2.861022E-08
575.5889,-1.433635,-7.987508E-09,NaN,-0.3255202,-1.340677E-07,NaN,0.9662412,8.198022E-08,NaN,-0.354006,1.718479E-05,-0.8151833,-8.026795E-08,NaN,NaN,-0.01952957,1.816071E-10,1.838651E-07,-1.123662E-07,1.022341E-08,-2.622604E-08
575.6039,-1.431611,-7.986674E-09,NaN,-0.3255305,-1.34068E-07,NaN,0.9575616,8.310038E-08,NaN,-0.3564219,1.718529E-05,-0.8075954,-8.051551E-08,NaN,NaN,-0.01953872,1.769505E-10,1.789477E-07,-1.123652E-07,1.14155E-08,-2.861022E-08
575.619,-1.431611,-7.986674E-09,NaN,-0.3255305,-1.34068E-07,NaN,0.9575616,8.310038E-08,NaN,-0.3564219,1.718529E-05,-0.8075954,-8.051551E-08,NaN,NaN,-0.01953872,1.769505E-10,1.789477E-07,-1.123652E-07,1.14155E-08,-2.861022E-08
575.6326,-1.429255,-7.985841E-09,NaN,-0.3255402,-1.340677E-07,NaN,0.9490616,8.422055E-08,NaN,-0.3587891,1.71858E-05,-0.8001767,-8.076146E-08,NaN,NaN,-0.01954749,1.629807E-10,1.737323E-07,-1.123638E-07,1.14155E-08,-2.622604E-08
575.6481,-1.425974,-7.985008E-09,NaN,-0.3255471,-1.340672E-07,NaN,0.9397091,8.534071E-08,NaN,-0.3613589,1.718629E-05,-0.7919682,-8.10058E-08,NaN,NaN,-0.01955725,1.629807E-10,1.661327E-07,-1.123623E-07,1.171352E-08,-2.861022E-08
575.6628,-1.422124,-7.984175E-09,NaN,-0.3255522,-1.340664E-07,NaN,0.9303206,8.646087E-08,NaN,-0.3639435,1.718677E-05,-0.7837281,-8.124855E-08,NaN,NaN,-0.01956687,1.629807E-10,1.606193E-07,-1.123606E-07,1.171352E-08,-2.622604E-08
575.6773,-1.422124,-7.984175E-09,NaN,-0.3255522,-1.340664E-07,NaN,0.9303206,8.646087E-08,NaN,-0.3639435,1.718677E-05,-0.7837281,-8.124855E-08,NaN,NaN,-0.01956687,1.629807E-10,1.606193E-07,-1.123606E-07,1.171352E-08,-2.622604E-08
575.6911,-1.417931,-7.983343E-09,NaN,-0.325556,-1.340656E-07,NaN,0.9211702,8.758104E-08,NaN,-0.3664708,1.718726E-05,-0.7757108,-8.148972E-08,NaN,NaN,-0.01957607,1.536674E-10,1.543608E-07,-1.123589E-07,1.111748E-08,-2.861022E-08
575.7066,-1.413542,-7.982511E-09,NaN,-0.325559,-1.340648E-07,NaN,0.9123197,8.87012E-08,NaN,-0.3689203,1.718774E-05,-0.7679741,-8.172931E-08,NaN,NaN,-0.01958481,1.490108E-10,1.500395E-07,-1.123571E-07,1.081945E-08,-2.622604E-08
575.7212,-1.408318,-7.981678E-09,NaN,-0.3255599,-1.340639E-07,NaN,0.9027091,8.982136E-08,NaN,-0.3715777,1.718821E-05,-0.7595362,-8.196735E-08,NaN,NaN,-0.01959443,1.490108E-10,1.446751E-07,-1.123554E-07,9.776372E-09,-2.861022E-08
575.7359,-1.408318,-7.981678E-09,NaN,-0.3255599,-1.340639E-07,NaN,0.9027091,8.982136E-08,NaN,-0.3715777,1.718821E-05,-0.7595362,-8.196735E-08,NaN,NaN,-0.01959443,1.490108E-10,1.446751E-07,-1.123554E-07,9.776372E-09,-2.861022E-08
575.7498,-1.402591,-7.980846E-09,NaN,-0.3255599,-1.34063E-07,NaN,0.8930897,9.094153E-08,NaN,-0.3742537,1.718869E-05,-0.751092,-8.220384E-08,NaN,NaN,-0.01960391,1.443542E-10,1.378205E-07,-1.123536E-07,9.329337E-09,-2.622604E-08
575.7651,-1.396572,-7.980014E-09,NaN,-0.3255593,-1.34062E-07,NaN,0.883716,9.206169E-08,NaN,-0.3768748,1.718918E-05,-0.7428774,-8.24388E-08,NaN,NaN,-0.01961299,1.396976E-10,1.318601E-07,-1.123519E-07,9.180326E-09,-2.861022E-08
575.7808,-1.390394,-7.979182E-09,NaN,-0.3255582,-1.340611E-07,NaN,0.8746477,9.318185E-08,NaN,-0.3794194,1.718966E-05,-0.7349479,-8.267222E-08,NaN,NaN,-0.01962163,1.257278E-10,1.272407E-07,-1.123501E-07,9.329337E-09,-2.622604E-08
575.7955,-1.390394,-7.979182E-09,NaN,-0.3255582,-1.340611E-07,NaN,0.8746477,9.318185E-08,NaN,-0.3794194,1.718966E-05,-0.7349479,-8.267222E-08,NaN,NaN,-0.01962163,1.257278E-10,1.272407E-07,-1.123501E-07,9.329337E-09,-2.622604E-08
575.8094,-1.383414,-7.97835E-09,NaN,-0.3255546,-1.340602E-07,NaN,0.8648805,9.430202E-08,NaN,-0.3821852,1.719013E-05,-0.7263765,-8.290414E-08,NaN,NaN,-0.01963106,1.257278E-10,1.223233E-07,-1.123484E-07,9.031314E-09,-2.861022E-08
575.8235,-1.375959,-7.977519E-09,NaN,-0.3255489,-1.340593E-07,NaN,0.8551294,9.542218E-08,NaN,-0.384972,1.71906E-05,-0.7178217,-8.313454E-08,NaN,NaN,-0.01964036,1.257278E-10,1.168099E-07,-1.123466E-07,9.478349E-09,-2.622604E-08
575.8385,-1.375959,-7.977519E-09,NaN,-0.3255489,-1.340593E-07,NaN,0.8551294,9.542218E-08,NaN,-0.384972,1.71906E-05,-0.7178217,-8.313454E-08,NaN,NaN,-0.01964036,1.257278E-10,1.168099E-07,-1.123466E-07,9.478349E-09,-2.622604E-08
575.8519,-1.368235,-7.976689E-09,NaN,-0.3255419,-1.340587E-07,NaN,0.8456391,9.291988E-08,NaN,-0.3877031,1.719108E-05,-0.7095095,-7.991981E-08,NaN,NaN,-0.01964927,1.257278E-10,1.123395E-07,-1.123443E-07,9.925383E-09,-2.622604E-08
575.8672,-1.359648,-7.975857E-09,NaN,-0.3255315,-1.340568E-07,NaN,0.8355134,9.092983E-08,NaN,-0.3906633,1.719156E-05,-0.7006158,-7.744722E-08,NaN,NaN,-0.01965887,1.164146E-10,1.060811E-07,-1.123412E-07,1.081945E-08,-2.861022E-08
575.8819,-1.350552,-7.975026E-09,NaN,-0.3255185,-1.340542E-07,NaN,0.8254579,8.893978E-08,NaN,-0.3936383,1.719203E-05,-0.6917882,-7.514635E-08,NaN,NaN,-0.01966831,1.117579E-10,9.952455E-08,-1.123377E-07,1.081945E-08,-2.622604E-08
575.8977,-1.350552,-7.975026E-09,NaN,-0.3255185,-1.340542E-07,NaN,0.8254579,8.893978E-08,NaN,-0.3936383,1.719203E-05,-0.6917882,-7.514635E-08,NaN,NaN,-0.01966831,1.117579E-10,9.952455E-08,-1.123377E-07,1.081945E-08,-2.622604E-08
575.9103,-1.341176,-7.974195E-09,NaN,-0.3255035,-1.340512E-07,NaN,0.8157082,8.694973E-08,NaN,-0.3965471,1.71925E-05,-0.6832443,-7.297474E-08,NaN,NaN,-0.01967731,9.77881E-11,9.62463E-08,-1.12334E-07,9.478349E-09,-2.861022E-08
575.9257,-1.331661,-7.973364E-09,NaN,-0.3254871,-1.340481E-07,NaN,0.8063142,8.495967E-08,NaN,-0.3993672,1.719296E-05,-0.6750311,-7.090119E-08,NaN,NaN,-0.01968584,1.024447E-10,9.326607E-08,-1.123302E-07,8.435268E-09,-2.622604E-08
575.9402,-1.321372,-7.972534E-09,NaN,-0.3254676,-1.340449E-07,NaN,0.796361,8.296962E-08,NaN,-0.4024195,1.719342E-05,-0.6663107,-6.890277E-08,NaN,NaN,-0.019695,9.77881E-11,8.73056E-08,-1.123263E-07,9.329337E-09,-2.861022E-08
575.9553,-1.321372,-7.972534E-09,NaN,-0.3254676,-1.340449E-07,NaN,0.796361,8.296962E-08,NaN,-0.4024195,1.719342E-05,-0.6663107,-6.890277E-08,NaN,NaN,-0.019695,9.77881E-11,8.73056E-08,-1.123263E-07,9.329337E-09,-2.861022E-08
575.9689,-1.310638,-7.971703E-09,NaN,-0.3254455,-1.340416E-07,NaN,0.7864903,8.097957E-08,NaN,-0.4054885,1.719388E-05,-0.6576688,-6.696261E-08,NaN,NaN,-0.01970398,1.024447E-10,8.104711E-08,-1.123225E-07,8.882303E-09,-2.622604E-08
575.9843,-1.299669,-7.970874E-09,NaN,-0.3254214,-1.340383E-07,NaN,0.7769197,7.898952E-08,NaN,-0.4084926,1.719435E-05,-0.649305,-6.50683E-08,NaN,NaN,-0.01971257,9.313149E-11,7.657676E-08,-1.123186E-07,9.10582E-09,-2.861022E-08
575.9989,-1.299669,-7.970874E-09,NaN,-0.3254214,-1.340383E-07,NaN,0.7769197,7.898952E-08,NaN,-0.4084926,1.719435E-05,-0.649305,-6.50683E-08,NaN,NaN,-0.01971257,9.313149E-11,7.657676E-08,-1.123186E-07,9.10582E-09,-2.861022E-08
576.0132,-1.287871,-7.970044E-09,NaN,-0.3253936,-1.340354E-07,NaN,0.766838,7.699946E-08,NaN,-0.4117382,1.719481E-05,-0.64048,-6.321072E-08,NaN,NaN,-0.0197217,1.024447E-10,6.793409E-08,-1.123172E-07,9.627361E-09,-2.622604E-08
576.0282,-1.2756,-7.969215E-09,NaN,-0.3253626,-1.340333E-07,NaN,0.7568781,7.500941E-08,NaN,-0.4149947,1.71953E-05,-0.6317691,-6.138315E-08,NaN,NaN,-0.01973065,9.77881E-11,6.435781E-08,-1.123165E-07,8.58428E-09,-2.861022E-08
576.043,-1.263083,-7.968385E-09,NaN,-0.3253291,-1.340317E-07,NaN,0.7472504,7.301936E-08,NaN,-0.418176,1.719577E-05,-0.623365,-5.958062E-08,NaN,NaN,-0.01973917,1.117579E-10,5.869537E-08,-1.123161E-07,8.062739E-09,-2.622604E-08
576.0574,-1.263083,-7.968385E-09,NaN,-0.3253291,-1.340317E-07,NaN,0.7472504,7.301936E-08,NaN,-0.418176,1.719577E-05,-0.623365,-5.958062E-08,NaN,NaN,-0.01973917,1.117579E-10,5.869537E-08,-1.123161E-07,8.062739E-09,-2.622604E-08
576.0736,-1.250464,-7.967556E-09,NaN,-0.325294,-1.340304E-07,NaN,0.7379974,7.102931E-08,NaN,-0.4212585,1.719625E-05,-0.6153075,-5.779949E-08,NaN,NaN,-0.01974724,1.164146E-10,5.3927E-08,-1.123159E-07,9.245518E-09,-2.861022E-08
576.088,-1.237105,-7.966726E-09,NaN,-0.3252557,-1.340293E-07,NaN,0.7282944,6.903925E-08,NaN,-0.4245845,1.719674E-05,-0.6068494,-5.603702E-08,NaN,NaN,-0.01975577,1.210712E-10,4.826456E-08,-1.123158E-07,9.469035E-09,-2.622604E-08
576.1014,-1.223337,-7.965896E-09,NaN,-0.3252144,-1.340282E-07,NaN,0.7187151,6.70492E-08,NaN,-0.4279233,1.719724E-05,-0.598508,-5.429123E-08,NaN,NaN,-0.01976413,1.164146E-10,4.141003E-08,-1.123157E-07,1.032585E-08,-2.861022E-08
576.1162,-1.223337,-7.965896E-09,NaN,-0.3252144,-1.340282E-07,NaN,0.7187151,6.70492E-08,NaN,-0.4279233,1.719724E-05,-0.598508,-5.429123E-08,NaN,NaN,-0.01976413,1.164146E-10,4.141003E-08,-1.123157E-07,1.032585E-08,-2.861022E-08
576.13,-1.209369,-7.965068E-09,NaN,-0.3251709,-1.340272E-07,NaN,0.7094535,6.505915E-08,NaN,-0.4311881,1.719772E-05,-0.5904593,-5.25606E-08,NaN,NaN,-0.01977211,1.210712E-10,3.962189E-08,-1.123157E-07,1.069838E-08,-2.622604E-08
576.1451,-1.195334,-7.964239E-09,NaN,-0.325126,-1.340263E-07,NaN,0.7005508,6.306909E-08,NaN,-0.4343542,1.719821E-05,-0.5827417,-5.084403E-08,NaN,NaN,-0.01977967,1.210712E-10,3.574759E-08,-1.123156E-07,1.017684E-08,-2.861022E-08
576.1597,-1.195334,-7.964239E-09,NaN,-0.325126,-1.340263E-07,NaN,0.7005508,6.306909E-08,NaN,-0.4343542,1.719821E-05,-0.5827417,-5.084403E-08,NaN,NaN,-0.01977967,1.210712E-10,3.574759E-08,-1.123156E-07,1.017684E-08,-2.861022E-08
576.1738,-1.180587,-7.96341E-09,NaN,-0.3250781,-1.340253E-07,NaN,0.6912349,6.107904E-08,NaN,-0.4377739,1.719869E-05,-0.5746604,-4.914068E-08,NaN,NaN,-0.01978765,1.35041E-10,2.94891E-08,-1.123156E-07,1.017684E-08,-2.622604E-08
576.1891,-1.165454,-7.962582E-09,NaN,-0.3250273,-1.340243E-07,NaN,0.6820464,5.908899E-08,NaN,-0.4412072,1.719919E-05,-0.5666986,-4.74499E-08,NaN,NaN,-0.01979547,1.303844E-10,2.591282E-08,-1.123155E-07,9.431782E-09,-2.861022E-08
576.2036,-1.150142,-7.961753E-09,NaN,-0.3249743,-1.340233E-07,NaN,0.6731695,5.709893E-08,NaN,-0.444564,1.719967E-05,-0.5590224,-4.577122E-08,NaN,NaN,-0.01980293,1.396976E-10,2.144247E-08,-1.123155E-07,9.580793E-09,-2.622604E-08
576.2184,-1.150142,-7.961753E-09,NaN,-0.3249743,-1.340233E-07,NaN,0.6731695,5.709893E-08,NaN,-0.444564,1.719967E-05,-0.5590224,-4.577122E-08,NaN,NaN,-0.01980293,1.396976E-10,2.144247E-08,-1.123155E-07,9.580793E-09,-2.622604E-08
576.2324,-1.134053,-7.960924E-09,NaN,-0.3249176,-1.340223E-07,NaN,0.6639215,5.510887E-08,NaN,-0.4481785,1.720017E-05,-0.5510219,-4.410425E-08,NaN,NaN,-0.01981075,1.396976E-10,1.876026E-08,-1.123154E-07,1.002783E-08,-2.861022E-08
576.2479,-1.117543,-7.960096E-09,NaN,-0.3248573,-1.340213E-07,NaN,0.654833,5.311882E-08,NaN,-0.4517967,1.720066E-05,-0.5431689,-4.244871E-08,NaN,NaN,-0.01981839,1.443542E-10,1.458794E-08,-1.123153E-07,7.345618E-09,-2.622604E-08
576.2623,-1.100837,-7.959267E-09,NaN,-0.3247943,-1.340203E-07,NaN,0.6460803,5.112876E-08,NaN,-0.4553252,1.720115E-05,-0.5356219,-4.080436E-08,NaN,NaN,-0.01982565,1.490108E-10,1.011759E-08,-1.123152E-07,6.451549E-09,-2.861022E-08
576.2769,-1.100837,-7.959267E-09,NaN,-0.3247943,-1.340203E-07,NaN,0.6460803,5.112876E-08,NaN,-0.4553252,1.720115E-05,-0.5356219,-4.080436E-08,NaN,NaN,-0.01982565,1.490108E-10,1.011759E-08,-1.123152E-07,6.451549E-09,-2.861022E-08
576.291,-1.084077,-7.958438E-09,NaN,-0.3247296,-1.340192E-07,NaN,0.6376971,4.913871E-08,NaN,-0.4587385,1.720163E-05,-0.5284124,-3.917101E-08,NaN,NaN,-0.01983252,1.583241E-10,-3.132206E-10,-1.12315E-07,6.749572E-09,-2.622604E-08
576.3066,-1.066626,-7.95761E-09,NaN,-0.3246618,-1.340182E-07,NaN,0.628989,4.714865E-08,NaN,-0.4624074,1.720212E-05,-0.5209246,-3.754851E-08,NaN,NaN,-0.01983968,1.629807E-10,-7.763801E-09,-1.123149E-07,6.153526E-09,-2.861022E-08
576.3211,-1.048814,-7.956781E-09,NaN,-0.3245909,-1.340171E-07,NaN,0.6204339,4.515859E-08,NaN,-0.4660803,1.720261E-05,-0.5135787,-3.593671E-08,NaN,NaN,-0.01984669,1.676373E-10,-1.849264E-08,-1.123147E-07,6.749572E-09,-2.622604E-08
576.3356,-1.048814,-7.956781E-09,NaN,-0.3245909,-1.340171E-07,NaN,0.6204339,4.515859E-08,NaN,-0.4660803,1.720261E-05,-0.5135787,-3.593671E-08,NaN,NaN,-0.01984669,1.676373E-10,-1.849264E-08,-1.123147E-07,6.749572E-09,-2.622604E-08
576.3516,-1.030848,-7.955953E-09,NaN,-0.3245177,-1.34016E-07,NaN,0.6121936,4.316854E-08,NaN,-0.4696642,1.720311E-05,-0.5065185,-3.43355E-08,NaN,NaN,-0.01985335,1.629807E-10,-2.594322E-08,-1.123145E-07,7.643641E-09,-2.861022E-08
576.3658,-1.012861,-7.955125E-09,NaN,-0.3244432,-1.340149E-07,NaN,0.6043006,4.117848E-08,NaN,-0.4731329,1.72036E-05,-0.4997736,-3.274479E-08,NaN,NaN,-0.01985966,1.676373E-10,-3.22017E-08,-1.123143E-07,9.431781E-09,-2.622604E-08
576.381,-0.9942083,-7.954298E-09,NaN,-0.324366,-1.340137E-07,NaN,0.5961056,3.918842E-08,NaN,-0.4768647,1.720409E-05,-0.4927737,-3.116447E-08,NaN,NaN,-0.01986623,1.676373E-10,-3.518194E-08,-1.123141E-07,1.121992E-08,-2.861022E-08
576.3941,-0.9942083,-7.954298E-09,NaN,-0.324366,-1.340137E-07,NaN,0.5961056,3.918842E-08,NaN,-0.4768647,1.720409E-05,-0.4927737,-3.116447E-08,NaN,NaN,-0.01986623,1.676373E-10,-3.518194E-08,-1.123141E-07,1.121992E-08,-2.861022E-08
576.4081,-0.9752148,-7.95347E-09,NaN,-0.324286,-1.340126E-07,NaN,0.5880584,3.719837E-08,NaN,-0.4806008,1.720459E-05,-0.4859098,-2.959447E-08,NaN,NaN,-0.01987265,1.676373E-10,-4.23345E-08,-1.123139E-07,1.241201E-08,-2.622604E-08
576.4232,-0.9560865,-7.952642E-09,NaN,-0.3242038,-1.340114E-07,NaN,0.5803126,3.520831E-08,NaN,-0.4842451,1.720508E-05,-0.4793171,-2.803469E-08,NaN,NaN,-0.01987877,1.676373E-10,-4.769891E-08,-1.123136E-07,1.181597E-08,-2.861022E-08
576.4377,-0.9560865,-7.952642E-09,NaN,-0.3242038,-1.340114E-07,NaN,0.5803126,3.520831E-08,NaN,-0.4842451,1.720508E-05,-0.4793171,-2.803469E-08,NaN,NaN,-0.01987877,1.676373E-10,-4.769891E-08,-1.123136E-07,1.181597E-08,-2.861022E-08
576.4518,-0.9362255,-7.951814E-09,NaN,-0.3241181,-1.340102E-07,NaN,0.5722948,3.321826E-08,NaN,-0.4881546,1.720557E-05,-0.4724963,-2.648507E-08,NaN,NaN,-0.01988513,1.722939E-10,-5.425542E-08,-1.123133E-07,1.241201E-08,-2.622604E-08
576.4672,-0.915987,-7.950987E-09,NaN,-0.3240288,-1.34009E-07,NaN,0.5644466,3.12282E-08,NaN,-0.4920573,1.720608E-05,-0.4658293,-2.494552E-08,NaN,NaN,-0.01989131,1.629807E-10,-6.379216E-08,-1.12313E-07,1.300806E-08,-2.861022E-08
576.4816,-0.8955955,-7.950159E-09,NaN,-0.3239367,-1.340078E-07,NaN,0.5569153,2.923814E-08,NaN,-0.4958545,1.720656E-05,-0.4594451,-2.341599E-08,NaN,NaN,-0.01989719,1.676373E-10,-6.796449E-08,-1.123127E-07,9.431781E-09,-2.622604E-08
576.4963,-0.8955955,-7.950159E-09,NaN,-0.3239367,-1.340078E-07,NaN,0.5569153,2.923814E-08,NaN,-0.4958545,1.720656E-05,-0.4594451,-2.341599E-08,NaN,NaN,-0.01989719,1.676373E-10,-6.796449E-08,-1.123127E-07,9.431781E-09,-2.622604E-08
576.5101,-0.8751932,-7.949331E-09,NaN,-0.323843,-1.340065E-07,NaN,0.5497277,2.724809E-08,NaN,-0.4995197,1.720707E-05,-0.4533681,-2.18964E-08,NaN,NaN,-0.01990273,1.629807E-10,-7.481903E-08,-1.123124E-07,1.121992E-08,-2.861022E-08
576.5259,-0.8541416,-7.948503E-09,NaN,-0.3237467,-1.340053E-07,NaN,0.5422992,2.525803E-08,NaN,-0.5034456,1.720756E-05,-0.4470944,-2.038669E-08,NaN,NaN,-0.01990846,1.676373E-10,-8.137554E-08,-1.12312E-07,1.002783E-08,-2.622604E-08
576.5404,-0.8327699,-7.947675E-09,NaN,-0.3236473,-1.34004E-07,NaN,0.5350279,2.326798E-08,NaN,-0.5073655,1.720805E-05,-0.440963,-1.888678E-08,NaN,NaN,-0.01991403,1.676373E-10,-8.375972E-08,-1.123116E-07,1.002783E-08,-2.861022E-08
576.5551,-0.8327699,-7.947675E-09,NaN,-0.3236473,-1.34004E-07,NaN,0.5350279,2.326798E-08,NaN,-0.5073655,1.720805E-05,-0.440963,-1.888678E-08,NaN,NaN,-0.01991403,1.676373E-10,-8.375972E-08,-1.123116E-07,1.002783E-08,-2.861022E-08
576.5694,-0.8112862,-7.946848E-09,NaN,-0.3235458,-1.340027E-07,NaN,0.5280491,2.127792E-08,NaN,-0.5111814,1.720853E-05,-0.4350905,-1.739661E-08,NaN,NaN,-0.01991935,1.769505E-10,-8.7336E-08,-1.123113E-07,5.259456E-09,-2.622604E-08
576.5846,-0.7898219,-7.94602E-09,NaN,-0.3234432,-1.340014E-07,NaN,0.5213889,1.928786E-08,NaN,-0.5148664,1.720903E-05,-0.4295004,-1.591612E-08,NaN,NaN,-0.01992437,1.676373E-10,-9.568065E-08,-1.123109E-07,6.451549E-09,-2.861022E-08
576.5995,-0.7898219,-7.94602E-09,NaN,-0.3234432,-1.340014E-07,NaN,0.5213889,1.928786E-08,NaN,-0.5148664,1.720903E-05,-0.4295004,-1.591612E-08,NaN,NaN,-0.01992437,1.676373E-10,-9.568065E-08,-1.123109E-07,6.451549E-09,-2.861022E-08
576.6134,-0.767732,-7.945192E-09,NaN,-0.3233384,-1.340001E-07,NaN,0.5144998,1.729781E-08,NaN,-0.5188184,1.720953E-05,-0.4237258,-1.444525E-08,NaN,NaN,-0.01992955,1.676373E-10,-1.040253E-07,-1.123104E-07,7.643641E-09,-2.622604E-08
576.6287,-0.7453411,-7.944364E-09,NaN,-0.3232311,-1.339987E-07,NaN,0.5077577,1.530775E-08,NaN,-0.522765,1.721003E-05,-0.4180824,-1.298392E-08,NaN,NaN,-0.0199346,1.676373E-10,-1.093897E-07,-1.1231E-07,8.835734E-09,-2.861022E-08
576.6444,-0.7228546,-7.943536E-09,NaN,-0.3231218,-1.339974E-07,NaN,0.5012912,1.33177E-08,NaN,-0.5266057,1.721052E-05,-0.4126803,-1.153209E-08,NaN,NaN,-0.01993941,1.722939E-10,-1.105818E-07,-1.123095E-07,1.47962E-08,-2.622604E-08
576.6581,-0.7228546,-7.943536E-09,NaN,-0.3231218,-1.339974E-07,NaN,0.5012912,1.33177E-08,NaN,-0.5266057,1.721052E-05,-0.4126803,-1.153209E-08,NaN,NaN,-0.01993941,1.722939E-10,-1.105818E-07,-1.123095E-07,1.47962E-08,-2.622604E-08
576.6722,-0.6996744,-7.942709E-09,NaN,-0.3230094,-1.33996E-07,NaN,0.4946162,1.132764E-08,NaN,-0.5307142,1.721101E-05,-0.407111,-1.008968E-08,NaN,NaN,-0.01994436,1.676373E-10,-1.12668E-07,-1.123091E-07,1.241201E-08,-2.861022E-08
576.6876,-0.6761549,-7.941881E-09,NaN,-0.3228936,-1.339946E-07,NaN,0.4881031,9.337583E-09,NaN,-0.5348059,1.72115E-05,-0.4016837,-8.656635E-09,NaN,NaN,-0.01994917,1.769505E-10,-1.150522E-07,-1.123086E-07,1.241201E-08,-2.622604E-08
576.7021,-0.6525205,-7.941054E-09,NaN,-0.3227751,-1.339933E-07,NaN,0.481876,7.347527E-09,NaN,-0.5387779,1.7212E-05,-0.396504,-7.232895E-09,NaN,NaN,-0.01995373,1.769505E-10,-1.213106E-07,-1.123081E-07,1.121992E-08,-2.861022E-08
576.7171,-0.6525205,-7.941054E-09,NaN,-0.3227751,-1.339933E-07,NaN,0.481876,7.347527E-09,NaN,-0.5387779,1.7212E-05,-0.396504,-7.232895E-09,NaN,NaN,-0.01995373,1.769505E-10,-1.213106E-07,-1.123081E-07,1.121992E-08,-2.861022E-08
576.7308,-0.6289126,-7.940227E-09,NaN,-0.3226553,-1.339918E-07,NaN,0.4759568,5.357472E-09,NaN,-0.5426036,1.721248E-05,-0.3915916,-5.8184E-09,NaN,NaN,-0.01995803,1.862637E-10,-1.293573E-07,-1.123076E-07,1.002783E-08,-2.622604E-08
576.7465,-0.6048646,-7.9394E-09,NaN,-0.3225339,-1.339904E-07,NaN,0.4699631,3.367416E-09,NaN,-0.5465955,1.721297E-05,-0.3866276,-4.413088E-09,NaN,NaN,-0.01996235,1.909203E-10,-1.377019E-07,-1.12307E-07,8.835735E-09,-2.861022E-08
576.7612,-0.5806406,-7.938573E-09,NaN,-0.3224107,-1.33989E-07,NaN,0.4641448,1.37736E-09,NaN,-0.5505443,1.721348E-05,-0.3818165,-3.0169E-09,NaN,NaN,-0.01996653,1.95577E-10,-1.460466E-07,-1.123065E-07,1.360411E-08,-2.622604E-08
576.7758,-0.5806406,-7.938573E-09,NaN,-0.3224107,-1.33989E-07,NaN,0.4641448,1.37736E-09,NaN,-0.5505443,1.721348E-05,-0.3818165,-3.0169E-09,NaN,NaN,-0.01996653,1.95577E-10,-1.460466E-07,-1.123065E-07,1.360411E-08,-2.622604E-08
576.79,-0.5564071,-7.937746E-09,NaN,-0.3222867,-1.339875E-07,NaN,0.4585835,-6.126952E-10,NaN,-0.5543755,1.721398E-05,-0.3772263,-1.629777E-09,NaN,NaN,-0.01997049,2.002336E-10,-1.534972E-07,-1.123059E-07,1.360411E-08,-2.861022E-08
576.8054,-0.5322692,-7.93692E-09,NaN,-0.322163,-1.33986E-07,NaN,0.4532909,-2.602751E-09,NaN,-0.5580708,1.721448E-05,-0.3728673,-2.51659E-10,NaN,NaN,-0.01997423,2.095468E-10,-1.597556E-07,-1.123054E-07,1.360411E-08,-2.622604E-08
576.8201,-0.5082924,-7.936093E-09,NaN,-0.3220408,-1.339845E-07,NaN,0.4482536,-4.592807E-09,NaN,-0.5616329,1.721499E-05,-0.3687282,1.117511E-09,NaN,NaN,-0.01997776,2.142034E-10,-1.663121E-07,-1.123048E-07,1.47962E-08,-2.861022E-08
576.8348,-0.5082924,-7.936093E-09,NaN,-0.3220408,-1.339845E-07,NaN,0.4482536,-4.592807E-09,NaN,-0.5616329,1.721499E-05,-0.3687282,1.117511E-09,NaN,NaN,-0.01997776,2.142034E-10,-1.663121E-07,-1.123048E-07,1.47962E-08,-2.861022E-08
576.8491,-0.4845174,-7.935266E-09,NaN,-0.321921,-1.33983E-07,NaN,0.4434517,-6.582862E-09,NaN,-0.5650713,1.721551E-05,-0.3647918,2.477793E-09,NaN,NaN,-0.01998108,2.1886E-10,-1.704845E-07,-1.123041E-07,1.718039E-08,-2.622604E-08
576.8659,-0.4609689,-7.934439E-09,NaN,-0.3218044,-1.339815E-07,NaN,0.438866,-8.572918E-09,NaN,-0.5683956,1.721603E-05,-0.3610411,3.829243E-09,NaN,NaN,-0.01998424,2.1886E-10,-1.77637E-07,-1.123035E-07,1.241201E-08,-2.861022E-08
576.8794,-0.4609689,-7.934439E-09,NaN,-0.3218044,-1.339815E-07,NaN,0.438866,-8.572918E-09,NaN,-0.5683956,1.721603E-05,-0.3610411,3.829243E-09,NaN,NaN,-0.01998424,2.1886E-10,-1.77637E-07,-1.123035E-07,1.241201E-08,-2.861022E-08
576.8954,-0.4376615,-7.933611E-09,NaN,-0.3216916,-1.3398E-07,NaN,0.4344799,-1.056297E-08,NaN,-0.5716141,1.721655E-05,-0.3574613,5.171918E-09,NaN,NaN,-0.01998724,2.1886E-10,-1.809153E-07,-1.123029E-07,8.835735E-09,-2.622604E-08
576.9085,-0.4146034,-7.932783E-09,NaN,-0.321583,-1.339785E-07,NaN,0.4302801,-1.255303E-08,NaN,-0.5747337,1.721707E-05,-0.3540401,6.505877E-09,NaN,NaN,-0.01999009,2.281732E-10,-1.838955E-07,-1.123022E-07,4.067363E-09,-2.861022E-08
576.9233,-0.3917989,-7.931956E-09,NaN,-0.3214789,-1.339769E-07,NaN,0.4262552,-1.454309E-08,NaN,-0.5777595,1.721759E-05,-0.3507672,7.831175E-09,NaN,NaN,-0.01999281,2.281732E-10,-1.844916E-07,-1.123016E-07,2.87527E-09,-2.622604E-08
576.938,-0.3917989,-7.931956E-09,NaN,-0.3214789,-1.339769E-07,NaN,0.4262552,-1.454309E-08,NaN,-0.5777595,1.721759E-05,-0.3507672,7.831175E-09,NaN,NaN,-0.01999281,2.281732E-10,-1.844916E-07,-1.123016E-07,2.87527E-09,-2.622604E-08
576.9519,-0.3692493,-7.931128E-09,NaN,-0.3213795,-1.339754E-07,NaN,0.4223962,-1.653314E-08,NaN,-0.5806955,1.721811E-05,-0.3476339,9.147868E-09,NaN,NaN,-0.0199954,2.328299E-10,-1.865777E-07,-1.123009E-07,2.87527E-09,-2.861022E-08
576.9673,-0.3469547,-7.9303E-09,NaN,-0.3212847,-1.339738E-07,NaN,0.418695,-1.85232E-08,NaN,-0.5835447,1.721863E-05,-0.3446328,1.045601E-08,NaN,NaN,-0.01999789,2.374865E-10,-1.880678E-07,-1.123002E-07,2.87527E-09,-2.622604E-08
576.982,-0.3249139,-7.929472E-09,NaN,-0.3211946,-1.339722E-07,NaN,0.4151446,-2.051326E-08,NaN,-0.58631,1.721916E-05,-0.3417575,1.175567E-08,NaN,NaN,-0.02000025,2.281732E-10,-1.910481E-07,-1.122995E-07,4.910847E-10,-2.861022E-08
576.9968,-0.3249139,-7.929472E-09,NaN,-0.3211946,-1.339722E-07,NaN,0.4151446,-2.051326E-08,NaN,-0.58631,1.721916E-05,-0.3417575,1.175567E-08,NaN,NaN,-0.02000025,2.281732E-10,-1.910481E-07,-1.122995E-07,4.910847E-10,-2.861022E-08
577.0108,-0.3031251,-7.928644E-09,NaN,-0.3211091,-1.339706E-07,NaN,0.4117389,-2.250331E-08,NaN,-0.5889934,1.721968E-05,-0.339002,1.304688E-08,NaN,NaN,-0.02000251,2.328299E-10,-1.928362E-07,-1.122988E-07,-4.277287E-09,-2.622604E-08
577.0262,-0.2815861,-7.927816E-09,NaN,-0.3210283,-1.33969E-07,NaN,0.4084721,-2.449337E-08,NaN,-0.5915969,1.722021E-05,-0.3363613,1.432971E-08,NaN,NaN,-0.02000467,2.281732E-10,-1.940283E-07,-1.12298E-07,-6.661473E-09,-2.861022E-08
577.0413,-0.2666682,-7.926987E-09,NaN,-0.3209725,-1.339673E-07,NaN,0.4089,-2.648342E-08,NaN,-0.5904536,1.722072E-05,-0.3366825,1.560421E-08,NaN,NaN,-0.02000432,2.328299E-10,-1.853856E-07,-1.122973E-07,-4.277287E-09,-2.622604E-08
577.0558,-0.2666682,-7.926987E-09,NaN,-0.3209725,-1.339673E-07,NaN,0.4089,-2.648342E-08,NaN,-0.5904536,1.722072E-05,-0.3366825,1.560421E-08,NaN,NaN,-0.02000432,2.328299E-10,-1.853856E-07,-1.122973E-07,-4.277287E-09,-2.622604E-08
577.0699,-0.2559779,-7.926158E-09,NaN,-0.3209501,-1.339657E-07,NaN,0.410411,-2.847348E-08,NaN,-0.5881838,1.722125E-05,-0.3379227,1.687044E-08,NaN,NaN,-0.02000315,2.281732E-10,-1.719746E-07,-1.122965E-07,-1.893101E-09,-2.861022E-08
577.0854,-0.2479928,-7.92533E-09,NaN,-0.3209537,-1.339641E-07,NaN,0.4119816,-3.046354E-08,NaN,-0.585812,1.722176E-05,-0.339245,1.812845E-08,NaN,NaN,-0.02000193,2.374865E-10,-1.609477E-07,-1.122958E-07,2.87527E-09,-2.622604E-08
577.1005,-0.2417435,-7.924501E-09,NaN,-0.3209751,-1.339624E-07,NaN,0.4132884,-3.245359E-08,NaN,-0.5836779,1.722229E-05,-0.3403667,1.937829E-08,NaN,NaN,-0.02000092,2.281732E-10,-1.496228E-07,-1.12295E-07,7.643642E-09,-2.861022E-08
577.1152,-0.2417435,-7.924501E-09,NaN,-0.3209751,-1.339624E-07,NaN,0.4132884,-3.245359E-08,NaN,-0.5836779,1.722229E-05,-0.3403667,1.937829E-08,NaN,NaN,-0.02000092,2.281732E-10,-1.496228E-07,-1.12295E-07,7.643642E-09,-2.861022E-08
577.129,-0.2366129,-7.923672E-09,NaN,-0.3210094,-1.339607E-07,NaN,0.4142879,-3.444365E-08,NaN,-0.5818452,1.722281E-05,-0.3412379,2.062002E-08,NaN,NaN,-0.02000016,2.328299E-10,-1.394901E-07,-1.122942E-07,5.259456E-09,-2.622604E-08
577.1454,-0.2322078,-7.922844E-09,NaN,-0.3210523,-1.33959E-07,NaN,0.4150301,-3.64337E-08,NaN,-0.5802794,1.722334E-05,-0.3418911,2.185368E-08,NaN,NaN,-0.0199996,2.235166E-10,-1.320395E-07,-1.122934E-07,2.875271E-09,-2.861022E-08
577.159,-0.2322078,-7.922844E-09,NaN,-0.3210523,-1.33959E-07,NaN,0.4150301,-3.64337E-08,NaN,-0.5802794,1.722334E-05,-0.3418911,2.185368E-08,NaN,NaN,-0.0199996,2.235166E-10,-1.320395E-07,-1.122934E-07,2.875271E-09,-2.861022E-08
577.1733,-0.2282776,-7.922014E-09,NaN,-0.3211007,-1.339573E-07,NaN,0.4155828,-3.842376E-08,NaN,-0.5789217,1.722387E-05,-0.3423786,2.307934E-08,NaN,NaN,-0.01999921,2.235166E-10,-1.26526E-07,-1.122925E-07,7.643642E-09,-2.622604E-08
577.1887,-0.2246629,-7.921185E-09,NaN,-0.3211525,-1.339556E-07,NaN,0.4185798,-4.041382E-08,NaN,-0.5776988,1.72244E-05,-0.3462526,2.429703E-08,NaN,NaN,-0.02000445,2.142034E-10,-1.664611E-07,-1.122917E-07,2.875271E-09,-2.861022E-08
577.2032,-0.2212617,-7.920355E-09,NaN,-0.3212065,-1.339539E-07,NaN,0.4222155,-4.240387E-08,NaN,-0.5765584,1.722491E-05,-0.351582,2.550683E-08,NaN,NaN,-0.02000572,2.235166E-10,-1.742098E-07,-1.122908E-07,-1.893101E-09,-2.622604E-08
577.22,-0.2212617,-7.920355E-09,NaN,-0.3212065,-1.339539E-07,NaN,0.4222155,-4.240387E-08,NaN,-0.5765584,1.722491E-05,-0.351582,2.550683E-08,NaN,NaN,-0.02000572,2.235166E-10,-1.742098E-07,-1.122908E-07,-1.893101E-09,-2.622604E-08
577.2321,-0.2180091,-7.919525E-09,NaN,-0.3212615,-1.339522E-07,NaN,0.4256966,-4.439393E-08,NaN,-0.5754777,1.722543E-05,-0.3573052,2.670876E-08,NaN,NaN,-0.02000567,2.235166E-10,-1.710805E-07,-1.1229E-07,-4.277287E-09,-2.861022E-08
577.2475,-0.2148637,-7.918696E-09,NaN,-0.3213171,-1.339504E-07,NaN,0.4288435,-4.638398E-08,NaN,-0.5744439,1.722595E-05,-0.3630385,2.79029E-08,NaN,NaN,-0.02000527,2.328299E-10,-1.636299E-07,-1.122891E-07,-1.893101E-09,-2.622604E-08
