JMolnar6/NonAnthroHands_User_Study/HandsLoggerWithURDF/tempdata/files/Reachy_PID0_JointMotion_gesture_8_4.csv
Time,r_shoulder,r_shoulder_x,r_upper_arm,r_forearm,r_wrist,r_wrist2hand,
477.6577,0.04487636,-0.3311647,0.2586358,-0.518351,-0.3405518,-0.02007795
477.6715,0.04487685,-0.3311173,0.2608208,-0.5183576,-0.3408803,-0.02007725
477.6869,0.04487735,-0.3310704,0.2629844,-0.5183638,-0.3412076,-0.02007656
477.7015,0.04487784,-0.3310241,0.2651267,-0.5183697,-0.3415335,-0.02007587
477.7164,0.04487784,-0.3310241,0.2651267,-0.5183697,-0.3415335,-0.02007587
477.7307,0.04487833,-0.3309783,0.2672479,-0.5183753,-0.3418582,-0.02007517
477.7462,0.04487881,-0.3309331,0.2693483,-0.5183805,-0.3421816,-0.02007448
477.761,0.04487929,-0.3308884,0.271428,-0.5183854,-0.3425037,-0.02007379
477.7756,0.04487929,-0.3308884,0.271428,-0.5183854,-0.3425037,-0.02007379
477.7897,0.04487978,-0.3308443,0.2734872,-0.5183899,-0.3428244,-0.0200731
477.8051,0.04488026,-0.3308007,0.2755261,-0.5183941,-0.3431437,-0.02007241
477.8198,0.04488026,-0.3308007,0.2755261,-0.5183941,-0.3431437,-0.02007241
477.8345,0.04488073,-0.3307576,0.2775448,-0.5183979,-0.3434616,-0.02007172
477.8498,0.04488121,-0.330715,0.2795436,-0.5184015,-0.3437781,-0.02007103
477.8667,0.04488168,-0.3306729,0.2815226,-0.5184048,-0.3440932,-0.02007034
477.8801,0.04488216,-0.3306313,0.2834821,-0.5184078,-0.3444068,-0.02006965
477.8939,0.04488216,-0.3306313,0.2834821,-0.5184078,-0.3444068,-0.02006965
477.9082,0.04488263,-0.3305903,0.2854221,-0.5184104,-0.344719,-0.02006896
477.9233,0.04488309,-0.3305497,0.2873429,-0.5184128,-0.3450296,-0.02006828
477.938,0.04488309,-0.3305497,0.2873429,-0.5184128,-0.3450296,-0.02006828
477.9522,0.04488356,-0.3305096,0.2892447,-0.518415,-0.3453388,-0.02006759
477.9679,0.04488402,-0.33047,0.2911275,-0.5184168,-0.3456464,-0.02006691
477.9825,0.04488448,-0.3304309,0.2929916,-0.5184184,-0.3459525,-0.02006623
477.9972,0.04488448,-0.3304309,0.2929916,-0.5184184,-0.3459525,-0.02006623
478.0113,0.04488494,-0.3303922,0.2948372,-0.5184198,-0.3462571,-0.02006555
478.0269,0.0448854,-0.330354,0.2966645,-0.5184209,-0.3465601,-0.02006487
478.0415,0.04488585,-0.3303162,0.2984735,-0.5184218,-0.3468616,-0.02006419
478.0563,0.04488585,-0.3303162,0.2984735,-0.5184218,-0.3468616,-0.02006419
478.0704,0.04488631,-0.3302789,0.3002645,-0.5184225,-0.3471614,-0.02006351
478.0858,0.04488676,-0.330242,0.3020376,-0.5184229,-0.3474597,-0.02006284
478.1005,0.04488721,-0.3302056,0.303793,-0.5184231,-0.3477564,-0.02006217
478.1173,0.04488721,-0.3302056,0.303793,-0.5184231,-0.3477564,-0.02006217
478.1313,0.04488765,-0.3301696,0.3055309,-0.518423,-0.3480514,-0.02006149
478.1445,0.0448881,-0.3301341,0.3072515,-0.5184228,-0.3483449,-0.02006082
478.1591,0.0448881,-0.3301341,0.3072515,-0.5184228,-0.3483449,-0.02006082
478.1734,0.04488854,-0.330099,0.3089548,-0.5184223,-0.3486367,-0.02006016
478.1888,0.04488899,-0.3300643,0.310641,-0.5184216,-0.3489268,-0.02005949
478.2035,0.04488943,-0.33003,0.3123104,-0.5184208,-0.3492153,-0.02005883
478.2182,0.04488943,-0.33003,0.3123104,-0.5184208,-0.3492153,-0.02005883
478.2325,0.04488987,-0.3299961,0.313963,-0.5184197,-0.3495022,-0.02005817
478.2481,0.0448903,-0.3299626,0.3155991,-0.5184184,-0.3497874,-0.02005751
478.2631,0.04489074,-0.3299295,0.3172187,-0.518417,-0.350071,-0.02005685
478.2776,0.04489074,-0.3299295,0.3172187,-0.518417,-0.350071,-0.02005685
478.2915,0.04489117,-0.3298968,0.3188221,-0.5184154,-0.3503528,-0.0200562
478.307,0.0448916,-0.3298646,0.3204093,-0.5184136,-0.350633,-0.02005555
478.3216,0.04489203,-0.3298327,0.3219806,-0.5184116,-0.3509115,-0.0200549
478.3363,0.04489203,-0.3298327,0.3219806,-0.5184116,-0.3509115,-0.0200549
478.3504,0.04489246,-0.3298011,0.3235361,-0.5184096,-0.3511883,-0.02005425
478.368,0.04489288,-0.32977,0.3250759,-0.5184073,-0.3514635,-0.0200536
478.3817,0.04489331,-0.3297392,0.3266002,-0.5184048,-0.3517369,-0.02005296
478.3956,0.04489331,-0.3297392,0.3266002,-0.5184048,-0.3517369,-0.02005296
478.4094,0.04489373,-0.3297088,0.3281091,-0.5184023,-0.3520086,-0.02005232
478.4248,0.04489415,-0.3296788,0.3296028,-0.5183995,-0.3522787,-0.02005169
478.4395,0.04489415,-0.3296788,0.3296028,-0.5183995,-0.3522787,-0.02005169
478.4541,0.04489457,-0.3296491,0.3310814,-0.5183967,-0.352547,-0.02005106
478.4691,0.04489499,-0.3296198,0.3325451,-0.5183937,-0.3528136,-0.02005042
478.4841,0.0448954,-0.3295908,0.3339939,-0.5183905,-0.3530785,-0.02004979
478.4989,0.0448954,-0.3295908,0.3339939,-0.5183905,-0.3530785,-0.02004979
478.5131,0.04489581,-0.3295622,0.3354282,-0.5183873,-0.3533418,-0.02004917
478.5287,0.04489622,-0.3295339,0.3368479,-0.5183839,-0.3536032,-0.02004855
478.5432,0.04489663,-0.3295059,0.3382533,-0.5183803,-0.353863,-0.02004793
478.5579,0.04489663,-0.3295059,0.3382533,-0.5183803,-0.353863,-0.02004793
478.5722,0.04489704,-0.3294783,0.3396444,-0.5183767,-0.3541211,-0.02004731
478.5881,0.04489745,-0.329451,0.3410214,-0.518373,-0.3543774,-0.02004669
478.6025,0.04489785,-0.329424,0.3423844,-0.5183691,-0.3546321,-0.02004609
478.6182,0.04489785,-0.329424,0.3423844,-0.5183691,-0.3546321,-0.02004609
478.6323,0.04489826,-0.3293974,0.3437336,-0.5183651,-0.354885,-0.02004548
478.6468,0.04489866,-0.3293711,0.3450691,-0.5183611,-0.3551363,-0.02004487
478.6624,0.04489907,-0.3293451,0.3465308,-0.5195864,-0.3555735,-0.02004753
478.6761,0.04489907,-0.3293451,0.3465308,-0.5195864,-0.3555735,-0.02004753
478.6903,0.04489948,-0.3293194,0.3479663,-0.5215095,-0.3560193,-0.02004878
478.7061,0.04489988,-0.329294,0.3493461,-0.5237464,-0.3564238,-0.02004945
478.7206,0.04490029,-0.329269,0.350681,-0.5261137,-0.3567885,-0.02004988
478.7354,0.04490029,-0.329269,0.350681,-0.5261137,-0.3567885,-0.02004988
478.7495,0.04490067,-0.3292442,0.3518479,-0.5272935,-0.3569379,-0.02004701
478.7649,0.04490106,-0.3292197,0.3530078,-0.5277758,-0.3570581,-0.02004546
478.7797,0.04490106,-0.3292197,0.3530078,-0.5277758,-0.3570581,-0.02004546
478.7937,0.04490145,-0.3291955,0.3541951,-0.5279244,-0.3572042,-0.02004442
478.8091,0.04490183,-0.3291715,0.3552643,-0.5266838,-0.357192,-0.02004043
478.8239,0.0449022,-0.3291479,0.3563513,-0.5246699,-0.3571878,-0.02003788
478.8383,0.0449022,-0.3291479,0.3563513,-0.5246699,-0.3571878,-0.02003788
478.8547,0.04490257,-0.3291246,0.3574759,-0.5223068,-0.3572326,-0.02003591
478.869,0.04490295,-0.3291015,0.3586224,-0.5197976,-0.3573199,-0.02003419
478.8828,0.04490332,-0.3290787,0.3596342,-0.5160099,-0.3572474,-0.02002931
478.8974,0.04490332,-0.3290787,0.3596342,-0.5160099,-0.3572474,-0.02002931
478.9116,0.04490368,-0.3290562,0.3606501,-0.5115221,-0.3571794,-0.02002587
478.927,0.04490404,-0.3290339,0.3616951,-0.5067403,-0.3571593,-0.02002302
478.9415,0.04490441,-0.3290119,0.3627573,-0.5018585,-0.3571827,-0.02002042
478.9564,0.04490441,-0.3290119,0.3627573,-0.5018585,-0.3571827,-0.02002042
478.9705,0.04490476,-0.3289902,0.3636762,-0.4957397,-0.357044,-0.02001441
478.9859,0.04490511,-0.3289687,0.3645944,-0.4889596,-0.3569098,-0.02000991
479.0008,0.04490547,-0.3289475,0.3655403,-0.4819227,-0.3568259,-0.02000602
479.0155,0.04490547,-0.3289475,0.3655403,-0.4819227,-0.3568259,-0.02000602
479.0297,0.04490582,-0.3289266,0.3664851,-0.4746774,-0.3567653,-0.02000193
479.045,0.04490618,-0.3289059,0.367433,-0.4673781,-0.3567368,-0.01999811
479.0597,0.04490618,-0.3289059,0.367433,-0.4673781,-0.3567368,-0.01999811
479.0737,0.04490653,-0.3288855,0.3683785,-0.460113,-0.3567363,-0.0199944
479.0892,0.04490688,-0.3288653,0.3693154,-0.4529238,-0.3567569,-0.01999072
479.1058,0.04490723,-0.3288454,0.3702396,-0.4458297,-0.3567933,-0.01998703
479.1195,0.04490723,-0.3288454,0.3702396,-0.4458297,-0.3567933,-0.01998703
479.1335,0.04490758,-0.3288257,0.3711493,-0.4388387,-0.3568421,-0.01998333
479.1478,0.04490793,-0.3288062,0.3720438,-0.4319541,-0.3569013,-0.01997961
479.1627,0.04490827,-0.328787,0.3729234,-0.4251764,-0.3569697,-0.01997586
479.1772,0.04490827,-0.328787,0.3729234,-0.4251764,-0.3569697,-0.01997586
479.1915,0.04490862,-0.328768,0.3737885,-0.418505,-0.3570467,-0.01997207
479.2067,0.04490896,-0.3287493,0.3746396,-0.4119387,-0.3571319,-0.01996826
479.2213,0.04490931,-0.3287307,0.3754774,-0.4054762,-0.357225,-0.01996441
479.2379,0.04490931,-0.3287307,0.3754774,-0.4054762,-0.357225,-0.01996441
479.2504,0.04490965,-0.3287124,0.3763025,-0.3991159,-0.3573259,-0.01996052
479.2658,0.04490999,-0.3286943,0.3771152,-0.3928563,-0.3574345,-0.01995659
479.2804,0.04491033,-0.3286765,0.3779162,-0.3866957,-0.3575506,-0.01995262
479.2951,0.04491033,-0.3286765,0.3779162,-0.3866957,-0.3575506,-0.01995262
479.3092,0.04491067,-0.3286588,0.378706,-0.3806327,-0.3576741,-0.01994861
479.3246,0.044911,-0.3286414,0.3794848,-0.3746657,-0.3578048,-0.01994455
479.3394,0.044911,-0.3286414,0.3794848,-0.3746657,-0.3578048,-0.01994455
479.3532,0.04491134,-0.3286242,0.3802533,-0.3687932,-0.3579427,-0.01994045
479.3706,0.04491167,-0.3286072,0.3810116,-0.3630136,-0.3580876,-0.0199363
479.3843,0.044912,-0.3285904,0.3817602,-0.3573256,-0.3582394,-0.01993209
479.3979,0.044912,-0.3285904,0.3817602,-0.3573256,-0.3582394,-0.01993209
479.412,0.04491233,-0.3285738,0.3824995,-0.3517276,-0.358398,-0.01992784
479.4271,0.04491267,-0.3285574,0.3832298,-0.3462183,-0.3585633,-0.01992352
479.4416,0.04491299,-0.3285412,0.3839514,-0.3407962,-0.3587352,-0.01991915
479.4563,0.04491299,-0.3285412,0.3839514,-0.3407962,-0.3587352,-0.01991915
479.4704,0.04491332,-0.3285252,0.3846646,-0.33546,-0.3589136,-0.01991472
479.4857,0.04491365,-0.3285093,0.3853699,-0.3302083,-0.3590983,-0.01991023
479.5004,0.04491397,-0.3284937,0.3860674,-0.3250398,-0.3592893,-0.01990567
479.5152,0.04491397,-0.3284937,0.3860674,-0.3250398,-0.3592893,-0.01990567
479.5293,0.0449143,-0.3284783,0.3867576,-0.3199531,-0.3594865,-0.01990105
479.5446,0.04491462,-0.328463,0.3874406,-0.314947,-0.3596897,-0.01989636
479.5591,0.04491462,-0.328463,0.3874406,-0.314947,-0.3596897,-0.01989636
479.5732,0.04491494,-0.3284479,0.3881167,-0.3100201,-0.359899,-0.0198916
479.5886,0.04491526,-0.328433,0.3887864,-0.3051713,-0.3601141,-0.01988676
479.6031,0.04491558,-0.3284183,0.3894498,-0.3003993,-0.3603351,-0.01988185
479.6177,0.04491558,-0.3284183,0.3894498,-0.3003993,-0.3603351,-0.01988185
479.6318,0.0449159,-0.3284038,0.3901072,-0.2957028,-0.3605618,-0.01987687
479.6494,0.04491622,-0.3283894,0.3907589,-0.2910808,-0.3607941,-0.0198718
479.6629,0.04491653,-0.3283752,0.3914051,-0.2865319,-0.3610321,-0.01986665
479.6763,0.04491653,-0.3283752,0.3914051,-0.2865319,-0.3610321,-0.01986665
479.6904,0.04491685,-0.3283612,0.3920461,-0.2820551,-0.3612755,-0.01986141
479.7057,0.04491716,-0.3283474,0.3926821,-0.2776492,-0.3615244,-0.01985609
479.7204,0.04491747,-0.3283337,0.3933134,-0.2733131,-0.3617786,-0.01985068
479.7351,0.04491747,-0.3283337,0.3933134,-0.2733131,-0.3617786,-0.01985068
479.7492,0.04491778,-0.3283202,0.3939402,-0.2690457,-0.3620382,-0.01984517
479.7648,0.04491809,-0.3283068,0.3945627,-0.2648458,-0.3623029,-0.01983957
479.7793,0.04491809,-0.3283068,0.3945627,-0.2648458,-0.3623029,-0.01983957
479.7933,0.0449184,-0.3282936,0.3951811,-0.2607125,-0.3625729,-0.01983388
479.8086,0.0449187,-0.3282806,0.3957957,-0.2566447,-0.3628479,-0.01982808
479.8234,0.04491901,-0.3282677,0.3964067,-0.2526413,-0.363128,-0.01982218
479.838,0.04491901,-0.3282677,0.3964067,-0.2526413,-0.363128,-0.01982218
479.8521,0.04491932,-0.328255,0.3970142,-0.2487013,-0.3634131,-0.01981617
479.8676,0.04491962,-0.3282424,0.3976186,-0.2448237,-0.3637031,-0.01981006
479.8822,0.04491992,-0.32823,0.3982199,-0.2410076,-0.363998,-0.01980383
479.8968,0.04491992,-0.32823,0.3982199,-0.2410076,-0.363998,-0.01980383
479.9129,0.04492022,-0.3282177,0.3988183,-0.2372519,-0.3642977,-0.01979749
479.9271,0.04492053,-0.3282056,0.3994141,-0.2335557,-0.3646022,-0.01979103
479.9407,0.04492082,-0.3281936,0.4000074,-0.2299181,-0.3649115,-0.01978445
479.9555,0.04492082,-0.3281936,0.4000074,-0.2299181,-0.3649115,-0.01978445
479.9693,0.04492112,-0.3281818,0.4005984,-0.2263381,-0.3652253,-0.01977775
479.9848,0.04492142,-0.3281701,0.4011872,-0.2228148,-0.3655438,-0.01977092
479.9993,0.04492142,-0.3281701,0.4011872,-0.2228148,-0.3655438,-0.01977092
480.0134,0.04492171,-0.3281585,0.4017741,-0.2193474,-0.3658669,-0.01976396
480.0287,0.04492201,-0.3281471,0.4023592,-0.2159349,-0.3661945,-0.01975687
480.0434,0.0449223,-0.3281358,0.4029425,-0.2125764,-0.3665265,-0.01974965
480.0581,0.0449223,-0.3281358,0.4029425,-0.2125764,-0.3665265,-0.01974965
480.0722,0.04492259,-0.3281247,0.4035244,-0.2092712,-0.366863,-0.01974229
480.0876,0.04492288,-0.3281137,0.4041048,-0.2060183,-0.3672039,-0.01973478
480.1022,0.04492318,-0.3281028,0.404684,-0.202817,-0.3675491,-0.01972714
480.1169,0.04492318,-0.3281028,0.404684,-0.202817,-0.3675491,-0.01972714
480.1312,0.04492347,-0.3280921,0.405262,-0.1996664,-0.3678986,-0.01971935
480.1466,0.04492375,-0.3280815,0.4058391,-0.1965657,-0.3682523,-0.0197114
480.1608,0.04492404,-0.328071,0.4064152,-0.1935142,-0.3686102,-0.0197033
480.1755,0.04492404,-0.328071,0.4064152,-0.1935142,-0.3686102,-0.0197033
480.1916,0.04492433,-0.3280606,0.4069905,-0.190511,-0.3689723,-0.01969505
480.2059,0.04492461,-0.3280503,0.4075652,-0.1875555,-0.3693384,-0.01968663
480.2195,0.04492461,-0.3280503,0.4075652,-0.1875555,-0.3693384,-0.01968663
480.2343,0.04492489,-0.3280402,0.4081393,-0.1846467,-0.3697085,-0.01967806
480.2488,0.04492518,-0.3280302,0.4087129,-0.1817841,-0.3700827,-0.01966931
480.2635,0.04492546,-0.3280203,0.4092861,-0.1789668,-0.3704607,-0.0196604
480.278,0.04492546,-0.3280203,0.4092861,-0.1789668,-0.3704607,-0.0196604
480.2921,0.04492574,-0.3280105,0.4098589,-0.1761942,-0.3708426,-0.01965131
480.3079,0.04492602,-0.3280009,0.4104316,-0.1734656,-0.3712283,-0.01964205
480.3222,0.0449263,-0.3279913,0.411004,-0.1707802,-0.3716178,-0.0196326
480.3369,0.0449263,-0.3279913,0.411004,-0.1707802,-0.3716178,-0.0196326
480.3509,0.04492657,-0.3279819,0.4115764,-0.1681373,-0.3720109,-0.01962298
480.3663,0.04492685,-0.3279726,0.4121487,-0.1655364,-0.3724077,-0.01961317
480.381,0.04492712,-0.3279634,0.412721,-0.1629766,-0.372808,-0.01960316
480.3958,0.04492712,-0.3279634,0.412721,-0.1629766,-0.372808,-0.01960316
480.4095,0.0449274,-0.3279543,0.4132934,-0.1604575,-0.3732119,-0.01959297
480.4249,0.04492767,-0.3279454,0.4138658,-0.1579783,-0.3736191,-0.01958258
480.4396,0.04492767,-0.3279454,0.4138658,-0.1579783,-0.3736191,-0.01958258
480.4558,0.04492794,-0.3279365,0.4144384,-0.1555384,-0.3740297,-0.019572
480.4698,0.04492822,-0.3279277,0.4150112,-0.1531372,-0.3744435,-0.01956121
480.4841,0.04492848,-0.327919,0.4155841,-0.150774,-0.3748605,-0.01955021
480.4979,0.04492848,-0.327919,0.4155841,-0.150774,-0.3748605,-0.01955021
480.5122,0.04492876,-0.3279105,0.4162227,-0.1485912,-0.3753485,-0.01954385
480.5276,0.04492902,-0.327902,0.4168618,-0.1465292,-0.3758411,-0.01953535
480.5422,0.04492929,-0.3278937,0.4174888,-0.1445408,-0.3763248,-0.01952584
480.5571,0.04492929,-0.3278937,0.4174888,-0.1445408,-0.3763248,-0.01952584
480.5714,0.04492957,-0.3278854,0.4186891,-0.1438161,-0.3774035,-0.01956038
480.5868,0.04492985,-0.3278773,0.4198692,-0.1438472,-0.3784761,-0.0195765
480.6016,0.04493012,-0.3278692,0.4209282,-0.1442301,-0.379434,-0.01958475
480.6164,0.04493012,-0.3278692,0.4209282,-0.1442301,-0.379434,-0.01958475
480.6307,0.04493039,-0.3278613,0.4218822,-0.1447745,-0.3802889,-0.01958961
480.646,0.04493067,-0.3278534,0.4233527,-0.146603,-0.3816798,-0.01963824
480.6606,0.04493095,-0.3278457,0.4247439,-0.1491766,-0.383003,-0.0196669
480.6752,0.04493095,-0.3278457,0.4247439,-0.1491766,-0.383003,-0.0196669
480.6892,0.04493123,-0.327838,0.4259773,-0.1520758,-0.3841722,-0.01968685
480.7047,0.0449315,-0.3278305,0.4270813,-0.1551033,-0.3852115,-0.01970273
480.7206,0.04493178,-0.327823,0.4286485,-0.1593814,-0.3867322,-0.01975759
480.7342,0.04493178,-0.327823,0.4286485,-0.1593814,-0.3867322,-0.01975759
480.7482,0.04493206,-0.3278156,0.4301134,-0.1643659,-0.3881609,-0.01979293
480.7636,0.04493233,-0.3278083,0.4314058,-0.1696383,-0.3894196,-0.01981935
480.7783,0.04493233,-0.3278083,0.4314058,-0.1696383,-0.3894196,-0.01981935
480.7922,0.04493262,-0.3278011,0.4330664,-0.1762204,-0.3910662,-0.01987686
480.8077,0.04493289,-0.327794,0.4345838,-0.1835138,-0.3925804,-0.01991528
480.8223,0.04493317,-0.327787,0.4359042,-0.1910787,-0.3938995,-0.01994451
480.837,0.04493317,-0.327787,0.4359042,-0.1910787,-0.3938995,-0.01994451
480.8514,0.04493344,-0.32778,0.4370647,-0.1987079,-0.3950561,-0.01996865
480.8669,0.0449337,-0.3277732,0.4375907,-0.2048648,-0.3955453,-0.01995732
480.8816,0.04493396,-0.3277664,0.4380488,-0.2101091,-0.3959422,-0.01995826
480.8964,0.04493396,-0.3277664,0.4380488,-0.2101091,-0.3959422,-0.01995826
480.9105,0.04493421,-0.3277597,0.4385491,-0.2148835,-0.3963673,-0.01996363
480.9259,0.04493447,-0.327753,0.4390878,-0.2193981,-0.3968228,-0.0199704
480.9408,0.04493473,-0.3277465,0.4396429,-0.2237533,-0.3972897,-0.01997742
480.9552,0.04493473,-0.3277465,0.4396429,-0.2237533,-0.3972897,-0.01997742
480.9714,0.04493498,-0.32774,0.4401966,-0.2279973,-0.3977515,-0.01998423
480.9847,0.04493524,-0.3277336,0.4407381,-0.2321539,-0.3981982,-0.01999067
480.9994,0.04493524,-0.3277336,0.4407381,-0.2321539,-0.3981982,-0.01999067
481.0136,0.04493539,-0.3277273,0.4412619,-0.2362349,-0.3986244,-0.01999668
481.029,0.0449355,-0.327721,0.4417653,-0.2402467,-0.3990275,-0.02000228
481.0436,0.0449356,-0.3277148,0.4422476,-0.2441927,-0.3994068,-0.02000746
481.0583,0.0449356,-0.3277148,0.4422476,-0.2441927,-0.3994068,-0.02000746
481.0725,0.0449357,-0.3277087,0.4427091,-0.2480752,-0.3997624,-0.02001227
481.0881,0.04420838,-0.3277051,0.4440861,-0.2514832,-0.4008651,-0.0200159
481.1028,0.04302641,-0.3277025,0.4457252,-0.2547121,-0.4021433,-0.0200191
481.1175,0.04302641,-0.3277025,0.4457252,-0.2547121,-0.4021433,-0.0200191
481.1319,0.04156333,-0.3277003,0.4473788,-0.2578785,-0.4033929,-0.02002208
481.1473,0.03992949,-0.327698,0.4489633,-0.2610217,-0.4045541,-0.02002486
481.162,0.03746667,-0.3276973,0.4513652,-0.2637377,-0.4063646,-0.02002669
481.1765,0.03746667,-0.3276973,0.4513652,-0.2637377,-0.4063646,-0.02002669
481.1909,0.03449259,-0.3276966,0.4539584,-0.2663172,-0.4082862,-0.02002823
481.2061,0.03120931,-0.3276956,0.4565124,-0.2688701,-0.4101352,-0.02002964
481.2217,0.02774525,-0.3276943,0.4589548,-0.2714293,-0.4118638,-0.02003094
481.2357,0.02774525,-0.3276943,0.4589548,-0.2714293,-0.4118638,-0.02003094
481.2495,0.02345358,-0.3276941,0.4621625,-0.273587,-0.4142044,-0.02003136
481.265,0.01865921,-0.3276936,0.4655284,-0.275629,-0.4166368,-0.02003157
481.2796,0.01865921,-0.3276936,0.4655284,-0.275629,-0.4166368,-0.02003157
481.2936,0.01356867,-0.3276925,0.4688305,-0.2776621,-0.4189844,-0.02003169
481.3091,0.007584755,-0.3276922,0.4728856,-0.2793084,-0.4219327,-0.020031
481.3239,0.001063894,-0.3276914,0.4770732,-0.2808609,-0.424953,-0.02003014
481.3386,0.001063894,-0.3276914,0.4770732,-0.2808609,-0.424953,-0.02003014
481.353,-0.005767423,-0.3276899,0.4811695,-0.2824266,-0.4278686,-0.02002924
481.3686,-0.01276542,-0.3276878,0.4851081,-0.2840343,-0.4306372,-0.0200283
481.3833,-0.02056734,-0.3276866,0.4897696,-0.2852773,-0.4340007,-0.02002652
481.399,-0.02056734,-0.3276866,0.4897696,-0.2852773,-0.4340007,-0.02002652
481.4119,-0.0288423,-0.3276847,0.4945524,-0.2864349,-0.4374419,-0.02002459
481.4272,-0.03738013,-0.3276821,0.4992395,-0.2876103,-0.4407864,-0.02002263
481.4418,-0.04604755,-0.3276782,0.5037639,-0.2888317,-0.4439887,-0.02002068
481.4566,-0.04604755,-0.3276782,0.5037639,-0.2888317,-0.4439887,-0.02002068
481.4727,-0.05548855,-0.3276756,0.5090179,-0.2896981,-0.447804,-0.02001786
481.4859,-0.06537662,-0.3276721,0.5143895,-0.2904867,-0.4517028,-0.0200149
481.5006,-0.07550444,-0.3276669,0.5196574,-0.2913004,-0.4555047,-0.02001196
481.5155,-0.07550444,-0.3276669,0.5196574,-0.2913004,-0.4555047,-0.02001196
481.5294,-0.08646902,-0.3276625,0.5256689,-0.2917707,-0.4599323,-0.02000815
481.5447,-0.09791395,-0.3276564,0.5317842,-0.2921817,-0.4644325,-0.02000423
481.5594,-0.09791395,-0.3276564,0.5317842,-0.2921817,-0.4644325,-0.02000423
481.5735,-0.109613,-0.3276481,0.5377768,-0.2926373,-0.4688212,-0.02000035
481.5889,-0.1214229,-0.3276376,0.543581,-0.2931649,-0.4730537,-0.0199965
481.6038,-0.1339813,-0.3276278,0.5501262,-0.2933702,-0.4779274,-0.01999169
481.6182,-0.1339813,-0.3276278,0.5501262,-0.2933702,-0.4779274,-0.01999169
481.6325,-0.146958,-0.3276164,0.556776,-0.2935227,-0.4828862,-0.01998677
481.6479,-0.1601432,-0.3276027,0.5633047,-0.2937222,-0.4877431,-0.01998189
481.6627,-0.1734044,-0.327587,0.5696459,-0.2939961,-0.4924503,-0.01997705
481.6772,-0.1734044,-0.327587,0.5696459,-0.2939961,-0.4924503,-0.01997705
481.6913,-0.1873861,-0.3275722,0.5767549,-0.293957,-0.4978331,-0.01997119
481.7068,-0.2017623,-0.3275557,0.5839729,-0.2938715,-0.5033115,-0.01996521
481.7235,-0.2163265,-0.3275369,0.5910673,-0.2938389,-0.5086898,-0.01995929
481.7368,-0.2163265,-0.3275369,0.5910673,-0.2938389,-0.5086898,-0.01995929
481.7509,-0.2316761,-0.3275185,0.5989574,-0.2935057,-0.5147693,-0.01995232
481.7654,-0.2474554,-0.3274977,0.6069486,-0.2931439,-0.5209371,-0.01994525
481.7801,-0.2634386,-0.3274741,0.6147996,-0.2928535,-0.526991,-0.01993828
481.7946,-0.2634386,-0.3274741,0.6147996,-0.2928535,-0.526991,-0.01993828
481.8086,-0.2794831,-0.327448,0.622442,-0.2926604,-0.5328809,-0.01993137
481.8242,-0.2962272,-0.3274226,0.6308957,-0.2921887,-0.5395017,-0.01992326
481.8387,-0.2962272,-0.3274226,0.6308957,-0.2921887,-0.5395017,-0.01992326
481.8529,-0.3133411,-0.3273951,0.6394575,-0.2916943,-0.5462266,-0.01991504
481.8682,-0.3306158,-0.327365,0.6478826,-0.2912724,-0.5528463,-0.01990692
481.8831,-0.3479191,-0.3273328,0.6561007,-0.2909488,-0.559307,-0.01989889
481.8976,-0.3479191,-0.3273328,0.6561007,-0.2909488,-0.559307,-0.01989889
481.9117,-0.3658963,-0.3273016,0.6651719,-0.2903577,-0.5665457,-0.01988954
481.9271,-0.3842219,-0.3272683,0.6743595,-0.2897497,-0.5739005,-0.01988012
481.9417,-0.4026897,-0.3272326,0.6834077,-0.2892191,-0.5811499,-0.01987083
481.9565,-0.4026897,-0.3272326,0.6834077,-0.2892191,-0.5811499,-0.01987083
481.9706,-0.4218978,-0.3271972,0.6933465,-0.2884348,-0.5892118,-0.01986018
481.9878,-0.4414909,-0.3271591,0.7033945,-0.2876514,-0.5973827,-0.0198495
482.0015,-0.461244,-0.3271179,0.713285,-0.2869633,-0.6054314,-0.019839
482.0152,-0.461244,-0.3271179,0.713285,-0.2869633,-0.6054314,-0.019839
482.0292,-0.4810147,-0.3270741,0.7229441,-0.2863946,-0.6133007,-0.01982859
482.0445,-0.5014419,-0.3270312,0.7335207,-0.2855965,-0.6220212,-0.01981669
482.059,-0.5014419,-0.3270312,0.7335207,-0.2855965,-0.6220212,-0.01981669
482.0731,-0.5221964,-0.326986,0.7442153,-0.2848053,-0.6308659,-0.01980473
482.0886,-0.5430695,-0.3269381,0.7547536,-0.28411,-0.6395936,-0.01979297
482.1033,-0.5639297,-0.3268881,0.7650582,-0.2835345,-0.6481416,-0.01978137
482.1179,-0.5639297,-0.3268881,0.7650582,-0.2835345,-0.6481416,-0.01978137
482.1321,-0.5854227,-0.3268394,0.7763295,-0.2827434,-0.657594,-0.01976816
482.1476,-0.6072235,-0.3267885,0.7877249,-0.2819655,-0.6671795,-0.01975496
482.1622,-0.6291263,-0.3267352,0.7989552,-0.2812877,-0.6766409,-0.01974202
482.1769,-0.6291263,-0.3267352,0.7989552,-0.2812877,-0.6766409,-0.01974202
482.191,-0.6512225,-0.3266806,0.8103187,-0.280636,-0.686254,-0.01972876
482.2065,-0.6733477,-0.3266245,0.8215356,-0.2800789,-0.6957657,-0.01971565
482.2212,-0.6953984,-0.3265672,0.8325204,-0.2796356,-0.705102,-0.01970275
482.2357,-0.6953984,-0.3265672,0.8325204,-0.2796356,-0.705102,-0.01970275
482.2528,-0.7173099,-0.3265097,0.8432565,-0.2793049,-0.714251,-0.01969006
482.2663,-0.7390421,-0.3264524,0.8537475,-0.2790787,-0.7232178,-0.01967756
482.2808,-0.7605706,-0.3263961,0.8640016,-0.2789478,-0.7320102,-0.0196653
482.2942,-0.7605706,-0.3263961,0.8640016,-0.2789478,-0.7320102,-0.0196653
482.3084,-0.7818811,-0.3263411,0.8740248,-0.2789038,-0.7406336,-0.01965327
482.3238,-0.8029653,-0.3262877,0.8838214,-0.2789396,-0.749091,-0.01964153
482.3382,-0.8029653,-0.3262877,0.8838214,-0.2789396,-0.749091,-0.01964153
482.3523,-0.823819,-0.326236,0.8933928,-0.2790496,-0.7573825,-0.01963009
482.3677,-0.8444407,-0.3261863,0.9027392,-0.2792291,-0.7655069,-0.01961898
482.3824,-0.8648303,-0.3261386,0.9118595,-0.279474,-0.7734619,-0.0196082
482.397,-0.8648303,-0.3261386,0.9118595,-0.279474,-0.7734619,-0.0196082
482.4111,-0.8849886,-0.3260928,0.9207523,-0.2797811,-0.7812447,-0.01959778
482.4267,-0.9049173,-0.326049,0.9294157,-0.2801472,-0.7888521,-0.01958772
482.441,-0.9246183,-0.3260071,0.9378475,-0.2805696,-0.7962807,-0.01957804
482.4556,-0.9246183,-0.3260071,0.9378475,-0.2805696,-0.7962807,-0.01957804
482.4697,-0.9440938,-0.3259671,0.9460461,-0.2810457,-0.8035278,-0.01956874
482.4854,-0.963346,-0.325929,0.9540098,-0.281573,-0.8105906,-0.01955983
482.4998,-0.963346,-0.325929,0.9540098,-0.281573,-0.8105906,-0.01955983
482.5139,-0.9823774,-0.3258928,0.961737,-0.2821492,-0.8174661,-0.01955129
482.5309,-1.00119,-0.3258583,0.9692263,-0.2827718,-0.8241522,-0.01954314
482.5456,-1.019787,-0.3258255,0.9764769,-0.2834388,-0.8306468,-0.01953537
482.5581,-1.019787,-0.3258255,0.9764769,-0.2834388,-0.8306468,-0.01953537
482.5722,-1.038171,-0.3257944,0.983488,-0.2841478,-0.8369481,-0.01952798
482.5879,-1.056343,-0.325765,0.9902594,-0.2848969,-0.8430548,-0.01952096
482.6027,-1.074307,-0.3257371,0.9967909,-0.2856838,-0.8489659,-0.01951433
482.6178,-1.074307,-0.3257371,0.9967909,-0.2856838,-0.8489659,-0.01951433
482.6325,-1.092064,-0.3257107,1.003083,-0.2865066,-0.8546804,-0.01950805
482.6485,-1.109617,-0.3256859,1.009135,-0.2873632,-0.8601978,-0.01950214
482.6638,-1.126969,-0.3256625,1.014949,-0.2882518,-0.8655179,-0.01949657
482.6789,-1.126969,-0.3256625,1.014949,-0.2882518,-0.8655179,-0.01949657
482.6984,-1.144121,-0.3256405,1.020526,-0.2891705,-0.8706408,-0.01949136
482.712,-1.161076,-0.3256199,1.025866,-0.2901174,-0.8755667,-0.01948648
482.7256,-1.177836,-0.3256006,1.030971,-0.2910908,-0.8802961,-0.01948193
482.7411,-1.194404,-0.3255826,1.035844,-0.2920888,-0.8848299,-0.0194777
482.7567,-1.194404,-0.3255826,1.035844,-0.2920888,-0.8848299,-0.0194777
482.7722,-1.210781,-0.3255658,1.040485,-0.2931099,-0.8891693,-0.01947379
482.792,-1.226749,-0.3255495,1.04447,-0.2942244,-0.892917,-0.01947077
482.8071,-1.242393,-0.3255347,1.048112,-0.29538,-0.896368,-0.01946808
482.8227,-1.257768,-0.3255216,1.051525,-0.2965532,-0.8996273,-0.0194656
482.8384,-1.257768,-0.3255216,1.051525,-0.2965532,-0.8996273,-0.0194656
482.8535,-1.272909,-0.3255103,1.054745,-0.2977345,-0.9027265,-0.01946335
482.8698,-1.287112,-0.3254981,1.05638,-0.2991526,-0.9043673,-0.01946319
482.889,-1.300666,-0.3254882,1.057455,-0.3006449,-0.9055113,-0.01946339
482.9049,-1.313754,-0.3254814,1.058333,-0.3021409,-0.9064957,-0.01946361
482.9209,-1.326496,-0.3254775,1.059122,-0.3036152,-0.9074174,-0.01946385
482.9365,-1.326496,-0.3254775,1.059122,-0.3036152,-0.9074174,-0.01946385
482.9514,-1.338237,-0.3254738,1.058459,-0.3052922,-0.9070033,-0.01946596
482.9679,-1.349301,-0.3254724,1.057346,-0.3070144,-0.9061904,-0.01946834
482.9839,-1.359892,-0.3254727,1.056126,-0.3087157,-0.9052973,-0.01947068
483.0003,-1.370142,-0.3254741,1.054894,-0.3103748,-0.9044083,-0.01947295
483.0164,-1.370142,-0.3254741,1.054894,-0.3103748,-0.9044083,-0.01947295
483.0319,-1.379406,-0.3254749,1.05231,-0.3122219,-0.9022722,-0.01947693
483.0479,-1.388011,-0.3254769,1.049347,-0.3141011,-0.8997986,-0.0194811
483.0634,-1.396166,-0.3254801,1.046339,-0.3159488,-0.8972976,-0.01948513
483.0791,-1.396166,-0.3254801,1.046339,-0.3159488,-0.8972976,-0.01948513
483.0942,-1.404004,-0.3254853,1.043375,-0.3177456,-0.8948503,-0.01948899
483.1106,-1.410881,-0.3254899,1.03915,-0.3197262,-0.8912364,-0.01949438
483.1267,-1.417125,-0.3254963,1.034609,-0.3217334,-0.8873399,-0.01949987
483.1423,-1.422944,-0.3255049,1.030077,-0.3237032,-0.8834623,-0.01950514
483.1579,-1.422944,-0.3255049,1.030077,-0.3237032,-0.8834623,-0.01950514
483.1729,-1.428473,-0.3255156,1.025638,-0.3256161,-0.8796806,-0.01951018
483.1892,-1.433066,-0.3255257,1.020027,-0.3277136,-0.8748133,-0.01951659
483.2048,-1.437053,-0.3255369,1.014158,-0.3298343,-0.8697145,-0.01952305
483.2204,-1.440642,-0.3255496,1.008345,-0.3319133,-0.8646764,-0.01952926
483.2363,-1.440642,-0.3255496,1.008345,-0.3319133,-0.8646764,-0.01952926
483.2515,-1.443964,-0.3255636,1.002671,-0.3339309,-0.8597733,-0.01953518
483.2678,-1.446377,-0.3255764,0.995914,-0.3361376,-0.8538664,-0.01954235
483.2834,-1.448208,-0.3255894,0.9889545,-0.3383662,-0.8477775,-0.01954952
483.299,-1.448208,-0.3255894,0.9889545,-0.3383662,-0.8477775,-0.01954952
483.314,-1.449665,-0.325603,0.9820963,-0.34055,-0.8417884,-0.0195564
483.3303,-1.45088,-0.3256173,0.9754172,-0.3426689,-0.83597,-0.01956295
483.3463,-1.45121,-0.3256296,0.9677421,-0.3449839,-0.8292294,-0.01957063
483.3618,-1.450983,-0.3256414,0.9599183,-0.3473203,-0.8223549,-0.01957827
483.3777,-1.450983,-0.3256414,0.9599183,-0.3473203,-0.8223549,-0.01957827
483.3924,-1.450406,-0.3256531,0.9522361,-0.3496094,-0.8156158,-0.0195856
483.4088,-1.449611,-0.3256648,0.944769,-0.3518308,-0.8090796,-0.01959257
483.4244,-1.447954,-0.3256743,0.9363906,-0.3542567,-0.8017008,-0.01960056
483.4397,-1.447954,-0.3256743,0.9363906,-0.3542567,-0.8017008,-0.01960056
483.455,-1.445762,-0.3256825,0.9279103,-0.3567044,-0.7942306,-0.01960849
483.4713,-1.443242,-0.3256899,0.9196067,-0.359103,-0.7869269,-0.01961609
483.487,-1.440527,-0.325697,0.9115493,-0.3614309,-0.7798538,-0.0196233
483.503,-1.436971,-0.3257014,0.902662,-0.3639722,-0.7720155,-0.01963144
483.5185,-1.436971,-0.3257014,0.902662,-0.3639722,-0.7720155,-0.01963144
483.5336,-1.432903,-0.325704,0.8937162,-0.3665358,-0.7641254,-0.0196395
483.5497,-1.428528,-0.3257056,0.8849773,-0.3690479,-0.756429,-0.01964722
483.5654,-1.423979,-0.3257067,0.8765112,-0.3714865,-0.748987,-0.01965455
483.5809,-1.418611,-0.3257062,0.8672936,-0.3741482,-0.740855,-0.01966269
483.5967,-1.418611,-0.3257062,0.8672936,-0.3741482,-0.740855,-0.01966269
483.6118,-1.41275,-0.3257044,0.8580567,-0.376833,-0.7327074,-0.01967074
483.6282,-1.406605,-0.3257019,0.8490523,-0.3794636,-0.7247765,-0.01967843
483.6451,-1.400305,-0.3256988,0.8403413,-0.3820171,-0.7171185,-0.01968573
483.6597,-1.400305,-0.3256988,0.8403413,-0.3820171,-0.7171185,-0.01968573
483.6744,-1.393207,-0.325693,0.8309501,-0.384802,-0.7088389,-0.01969378
483.6906,-1.385636,-0.3256852,0.8215731,-0.3876095,-0.7005746,-0.01970171
483.7063,-1.3778,-0.325676,0.8124489,-0.3903598,-0.692545,-0.01970931
483.7219,-1.369829,-0.3256657,0.8036345,-0.3930292,-0.6848027,-0.01971652
483.7378,-1.369829,-0.3256657,0.8036345,-0.3930292,-0.6848027,-0.01971652
483.7527,-1.361079,-0.3256526,0.7942071,-0.395938,-0.6765039,-0.01972437
483.7692,-1.351875,-0.325637,0.7848228,-0.3988689,-0.6682472,-0.01973211
483.7849,-1.342425,-0.3256198,0.7757071,-0.4017391,-0.6602389,-0.01973952
483.8005,-1.332858,-0.3256014,0.7669128,-0.4045241,-0.6525277,-0.01974654
483.8158,-1.332858,-0.3256014,0.7669128,-0.4045241,-0.6525277,-0.01974654
483.8309,-1.322531,-0.32558,0.7575673,-0.4075558,-0.6443203,-0.01975414
483.8474,-1.311769,-0.3255561,0.7482889,-0.4106083,-0.6361771,-0.01976162
483.8631,-1.300777,-0.3255303,0.7392902,-0.4135961,-0.6282917,-0.01976877
483.8788,-1.300777,-0.3255303,0.7392902,-0.4135961,-0.6282917,-0.01976877
483.8937,-1.28896,-0.3255008,0.7297951,-0.4168353,-0.6199619,-0.01977642
483.9101,-1.276672,-0.3254682,0.7204114,-0.4200862,-0.6117364,-0.01978393
483.9258,-1.26414,-0.3254333,0.7113428,-0.4232598,-0.6038004,-0.01979108
483.9412,-1.251507,-0.3253967,0.7026313,-0.4263316,-0.5961926,-0.01979783
483.9568,-1.251507,-0.3253967,0.7026313,-0.4263316,-0.5961926,-0.01979783
483.972,-1.238135,-0.3253569,0.6934858,-0.4296541,-0.5882018,-0.01980502
483.9884,-1.224354,-0.3253141,0.6844559,-0.432989,-0.58032,-0.01981207
484.0041,-1.210374,-0.3252692,0.6757289,-0.4362473,-0.5727155,-0.01981879
484.0198,-1.210374,-0.3252692,0.6757289,-0.4362473,-0.5727155,-0.01981879
484.0349,-1.196327,-0.3252228,0.6673449,-0.4394037,-0.5654253,-0.01982515
484.0513,-1.181568,-0.3251735,0.6585624,-0.4428197,-0.5577875,-0.01983189
484.0667,-1.166423,-0.3251213,0.6498994,-0.4462487,-0.5502616,-0.0198385
484.0823,-1.1511,-0.3250669,0.6415337,-0.4495983,-0.5430065,-0.01984481
484.0982,-1.1511,-0.3250669,0.6415337,-0.4495983,-0.5430065,-0.01984481
484.1132,-1.135727,-0.3250113,0.633504,-0.4528421,-0.5360574,-0.01985078
484.1297,-1.11966,-0.3249527,0.6251138,-0.4563501,-0.5287978,-0.01985708
484.1455,-1.103224,-0.3248914,0.6168494,-0.4598691,-0.5216551,-0.01986326
484.1609,-1.086625,-0.3248278,0.6088779,-0.4633041,-0.5147774,-0.01986916
484.1766,-1.086625,-0.3248278,0.6088779,-0.4633041,-0.5147774,-0.01986916
484.1915,-1.069992,-0.3247631,0.6012357,-0.4666283,-0.5081975,-0.01987473
484.208,-1.052679,-0.3246955,0.5932676,-0.47022,-0.5013408,-0.0198806
484.2234,-1.035012,-0.3246252,0.5854295,-0.4738195,-0.494604,-0.01988634
484.2391,-1.035012,-0.3246252,0.5854295,-0.4738195,-0.494604,-0.01988634
484.2544,-1.017195,-0.3245527,0.5778785,-0.4773304,-0.4881248,-0.01989182
484.2707,-0.999359,-0.3244791,0.5706486,-0.4807252,-0.4819336,-0.01989699
484.2865,-0.9808576,-0.3244029,0.5631227,-0.4843898,-0.475495,-0.01990241
484.3019,-0.9620152,-0.3243238,0.5557288,-0.4880592,-0.4691768,-0.01990772
484.3178,-0.9620152,-0.3243238,0.5557288,-0.4880592,-0.4691768,-0.01990772
484.3324,-0.943037,-0.3242427,0.5486145,-0.4916352,-0.4631073,-0.01991278
484.3488,-0.9240529,-0.3241605,0.5418114,-0.4950901,-0.4573146,-0.01991757
484.3646,-0.9044167,-0.3240758,0.5347383,-0.4988165,-0.4512995,-0.01992257
484.3805,-0.8844525,-0.3239885,0.527797,-0.5025448,-0.4454034,-0.01992746
484.3962,-0.8844525,-0.3239885,0.527797,-0.5025448,-0.4454034,-0.01992746
484.4111,-0.8643656,-0.3238991,0.5211264,-0.5061751,-0.4397457,-0.01993211
484.4272,-0.8442856,-0.3238086,0.5147563,-0.5096796,-0.4343525,-0.01993651
484.4427,-0.8235661,-0.3237159,0.5081382,-0.5134568,-0.4287583,-0.0199411
484.4583,-0.8235661,-0.3237159,0.5081382,-0.5134568,-0.4287583,-0.0199411
484.4738,-0.8025312,-0.3236206,0.5016501,-0.517233,-0.42328,-0.01994557
484.4898,-0.781386,-0.3235232,0.495423,-0.5209069,-0.418029,-0.01994984
484.5056,-0.7602597,-0.323425,0.4894848,-0.5244507,-0.4130297,-0.01995387
484.5217,-0.7385063,-0.3233247,0.4833175,-0.5282682,-0.4078473,-0.01995806
484.537,-0.7385063,-0.3233247,0.4833175,-0.5282682,-0.4078473,-0.01995806
484.552,-0.7164493,-0.3232217,0.477277,-0.5320818,-0.4027766,-0.01996215
484.5681,-0.6942938,-0.323117,0.4714873,-0.5357894,-0.3979216,-0.01996605
484.5839,-0.672169,-0.3230114,0.4659746,-0.5393627,-0.3933049,-0.01996972
484.5994,-0.672169,-0.3230114,0.4659746,-0.5393627,-0.3933049,-0.01996972
484.6144,-0.6494284,-0.3229039,0.4602486,-0.5432104,-0.3885205,-0.01997353
484.6309,-0.6263959,-0.3227939,0.4546454,-0.5470518,-0.3838426,-0.01997725
484.6464,-0.603276,-0.3226821,0.4492824,-0.5507836,-0.3793685,-0.01998079
484.6617,-0.580198,-0.3225697,0.4441844,-0.5543775,-0.3751196,-0.01998413
484.6768,-0.580198,-0.3225697,0.4441844,-0.5543775,-0.3751196,-0.01998413
484.6912,-0.5566873,-0.3224561,0.4389939,-0.5581489,-0.3708037,-0.01998752
484.7071,-0.5330029,-0.322341,0.4339491,-0.5618835,-0.3666119,-0.01999081
484.722,-0.5093085,-0.3222253,0.4291301,-0.5655044,-0.3626099,-0.01999393
484.737,-0.5093085,-0.3222253,0.4291301,-0.5655044,-0.3626099,-0.01999393
484.7514,-0.4857068,-0.32211,0.4245507,-0.5689921,-0.3588094,-0.01999686
484.7671,-0.4622623,-0.3219961,0.4202001,-0.5723492,-0.3552016,-0.01999962
484.7818,-0.4390149,-0.3218845,0.4160608,-0.5755845,-0.3517717,-0.02000223
484.7969,-0.4390149,-0.3218845,0.4160608,-0.5755845,-0.3517717,-0.02000223
484.8109,-0.4159887,-0.3217761,0.4121157,-0.5787079,-0.348505,-0.02000469
484.8263,-0.3931982,-0.3216712,0.4083498,-0.5817276,-0.3453882,-0.02000703
484.8421,-0.3706515,-0.3215704,0.4047509,-0.5846503,-0.3424107,-0.02000925
484.8557,-0.3706515,-0.3215704,0.4047509,-0.5846503,-0.3424107,-0.02000925
484.8698,-0.3483525,-0.3214738,0.401309,-0.5874814,-0.3395632,-0.02001136
484.885,-0.3263028,-0.3213816,0.3980158,-0.5902249,-0.3368382,-0.02001338
484.8998,-0.3263028,-0.3213816,0.3980158,-0.5902249,-0.3368382,-0.02001338
484.9137,-0.3045024,-0.3212938,0.394864,-0.5928839,-0.3342291,-0.0200153
484.929,-0.28295,-0.3212105,0.3918476,-0.5954612,-0.3317305,-0.02001713
484.9437,-0.2616441,-0.3211315,0.3889607,-0.597959,-0.329337,-0.02001887
484.9579,-0.2616441,-0.3211315,0.3889607,-0.597959,-0.329337,-0.02001887
484.9723,-0.2469562,-0.3210776,0.38965,-0.5966828,-0.3297639,-0.02001837
484.9878,-0.2364931,-0.3210565,0.3913994,-0.594274,-0.3310757,-0.0200171
485.0024,-0.2287324,-0.3210607,0.3932138,-0.5917648,-0.3324713,-0.02001578
485.0169,-0.2287324,-0.3210607,0.3932138,-0.5917648,-0.3324713,-0.02001578
485.0311,-0.2227049,-0.3210825,0.394775,-0.5894975,-0.3336776,-0.02001464
485.0465,-0.2177933,-0.3211169,0.3960372,-0.587536,-0.3346441,-0.02001372
485.0611,-0.2136047,-0.3211598,0.3970462,-0.5858455,-0.3354002,-0.020013
485.0758,-0.2136047,-0.3211598,0.3970462,-0.5858455,-0.3354002,-0.020013
485.0899,-0.2098886,-0.3212081,0.3978669,-0.5843666,-0.3359954,-0.02001243
485.1063,-0.2064853,-0.3212598,0.3985566,-0.5830435,-0.3364759,-0.02001195
485.1202,-0.2032932,-0.3213134,0.4017343,-0.5818142,-0.3403991,-0.02001695
485.1348,-0.2032932,-0.3213134,0.4017343,-0.5818142,-0.3403991,-0.02001695
485.1487,-0.2002473,-0.3213682,0.4055673,-0.5806377,-0.3458041,-0.02001802
485.1639,-0.1973061,-0.3214234,0.4092539,-0.5795007,-0.3516159,-0.02001778
485.1784,-0.1973061,-0.3214234,0.4092539,-0.5795007,-0.3516159,-0.02001778
485.1925,-0.1944431,-0.3214786,0.4115006,-0.5784058,-0.3559329,-0.02001478
485.2078,-0.1916412,-0.3215338,0.4131234,-0.5773507,-0.3594804,-0.02001353
485.2223,-0.1888896,-0.3215887,0.4145404,-0.5763282,-0.3626987,-0.02001294
485.2369,-0.1888896,-0.3215887,0.4145404,-0.5763282,-0.3626987,-0.02001294
485.2509,-0.186181,-0.3216432,0.4158982,-0.5753298,-0.3657636,-0.02001257
485.2666,-0.1835109,-0.3216973,0.4161322,-0.5743577,-0.3672406,-0.02000975
485.2812,-0.1808761,-0.3217509,0.4160445,-0.573413,-0.3679973,-0.02000876
485.2959,-0.1808761,-0.3217509,0.4160445,-0.573413,-0.3679973,-0.02000876
485.3098,-0.1782746,-0.321804,0.4159874,-0.5724894,-0.3685097,-0.02000837
485.3253,-0.1757048,-0.3218567,0.4160438,-0.5715801,-0.3689541,-0.02000814
485.3401,-0.1731658,-0.3219088,0.4151,-0.5706891,-0.3678937,-0.02000535
485.3548,-0.1731658,-0.3219088,0.4151,-0.5706891,-0.3678937,-0.02000535
485.3709,-0.1706567,-0.3219605,0.41392,-0.5698212,-0.3661804,-0.02000437
485.3853,-0.1681769,-0.3220116,0.4128336,-0.5689709,-0.3642804,-0.02000397
485.399,-0.1681769,-0.3220116,0.4128336,-0.5689709,-0.3642804,-0.02000397
485.4131,-0.165726,-0.3220623,0.4108006,-0.56814,-0.3608707,-0.02000117
485.4283,-0.1633034,-0.3221124,0.4085965,-0.5673326,-0.3568401,-0.02000021
485.4433,-0.1609088,-0.322162,0.4065454,-0.5665419,-0.352666,-0.01999983
485.4576,-0.1609088,-0.322162,0.4065454,-0.5665419,-0.352666,-0.01999983
485.4716,-0.1585418,-0.3222112,0.4047075,-0.5657605,-0.3485214,-0.0199996
485.4869,-0.1562021,-0.3222598,0.4019498,-0.5649923,-0.3429698,-0.01999687
485.5015,-0.1538893,-0.322308,0.3990231,-0.5642445,-0.3368541,-0.01999591
485.5179,-0.1538893,-0.322308,0.3990231,-0.5642445,-0.3368541,-0.01999591
485.5303,-0.1516031,-0.3223557,0.3962503,-0.5635114,-0.3306353,-0.01999553
485.5457,-0.1493432,-0.3224029,0.3936962,-0.562786,-0.324481,-0.01999531
485.5603,-0.1471092,-0.3224497,0.3902301,-0.5620718,-0.3169536,-0.0199927
485.5751,-0.1471092,-0.3224497,0.3902301,-0.5620718,-0.3169536,-0.0199927
485.5892,-0.144901,-0.3224959,0.3866081,-0.5613766,-0.3088958,-0.0199918
485.6047,-0.1427182,-0.3225417,0.3831565,-0.5606944,-0.3007684,-0.01999147
485.6193,-0.1427182,-0.3225417,0.3831565,-0.5606944,-0.3007684,-0.01999147
485.6358,-0.1405604,-0.3225871,0.3788256,-0.5600249,-0.2912467,-0.01998901
485.6499,-0.1384275,-0.322632,0.374392,-0.5593742,-0.2812159,-0.01998822
485.6638,-0.1363191,-0.3226764,0.3701806,-0.5587348,-0.2711507,-0.01998798
485.6781,-0.1363191,-0.3226764,0.3701806,-0.5587348,-0.2711507,-0.01998798
485.6921,-0.1342349,-0.3227204,0.3662509,-0.5580989,-0.2612216,-0.0199879
485.7076,-0.1321747,-0.322764,0.3614591,-0.5574676,-0.2499873,-0.01998577
485.7222,-0.1301382,-0.3228071,0.3565616,-0.55685,-0.2382922,-0.01998513
485.7368,-0.1301382,-0.3228071,0.3565616,-0.55685,-0.2382922,-0.01998513
485.7508,-0.1281251,-0.3228498,0.3518825,-0.5562401,-0.226596,-0.019985
485.7663,-0.1261351,-0.322892,0.3474857,-0.555631,-0.215064,-0.01998501
485.7812,-0.124168,-0.3229339,0.3422281,-0.5550233,-0.2022511,-0.01998327
485.7962,-0.124168,-0.3229339,0.3422281,-0.5550233,-0.2022511,-0.01998327
485.8098,-0.1222236,-0.3229752,0.3368733,-0.554426,-0.1890043,-0.01998283
485.8252,-0.1203015,-0.3230162,0.3317491,-0.5538336,-0.175784,-0.01998283
485.8399,-0.1203015,-0.3230162,0.3317491,-0.5538336,-0.175784,-0.01998283
485.8543,-0.1184015,-0.3230568,0.3257934,-0.5532427,-0.1612569,-0.01998144
485.8696,-0.1165233,-0.3230969,0.3197906,-0.5526606,-0.1463133,-0.01998119
485.8854,-0.1146668,-0.3231367,0.3140667,-0.5520805,-0.1314273,-0.0199813
485.9,-0.1128316,-0.323176,0.3086791,-0.5514954,-0.1167671,-0.01998152
485.9139,-0.1128316,-0.323176,0.3086791,-0.5514954,-0.1167671,-0.01998152
485.928,-0.1110175,-0.3232149,0.3024722,-0.5509033,-0.1008836,-0.01998071
485.9431,-0.1092242,-0.3232535,0.2962088,-0.5503136,-0.08462597,-0.0199807
485.9576,-0.1092242,-0.3232535,0.2962088,-0.5503136,-0.08462597,-0.0199807
485.9718,-0.1074516,-0.3232916,0.2902144,-0.5497216,-0.06845376,-0.01998093
485.9871,-0.1056994,-0.3233294,0.2845507,-0.5491219,-0.05253009,-0.01998123
486.0019,-0.1039673,-0.3233667,0.2780649,-0.5485112,-0.03540505,-0.01998103
486.0163,-0.1039673,-0.3233667,0.2780649,-0.5485112,-0.03540505,-0.01998103
486.0305,-0.1022551,-0.3234037,0.2715245,-0.5478989,-0.01792824,-0.01998126
486.0461,-0.1005626,-0.3234403,0.2652579,-0.5472811,-0.0005591922,-0.01998159
486.0608,-0.0988896,-0.3234766,0.2593287,-0.5466535,0.01653907,-0.01998194
486.0754,-0.0988896,-0.3234766,0.2593287,-0.5466535,0.01653907,-0.01998194
486.0894,-0.09723583,-0.3235124,0.2525847,-0.5460111,0.03481351,-0.01998238
486.1049,-0.09560107,-0.3235479,0.2457925,-0.5453632,0.05341687,-0.01998281
486.1198,-0.09560107,-0.3235479,0.2457925,-0.5453632,0.05341687,-0.01998281
486.1339,-0.09398512,-0.323583,0.2392806,-0.544707,0.07189065,-0.0199832
486.1512,-0.09238775,-0.3236178,0.2319814,-0.5440347,0.09156419,-0.01998412
486.1648,-0.09080876,-0.3236521,0.2246769,-0.5433545,0.1115526,-0.01998468
486.1784,-0.09080876,-0.3236521,0.2246769,-0.5433545,0.1115526,-0.01998468
486.1925,-0.08924792,-0.3236862,0.2176926,-0.5426634,0.1313854,-0.01998507
486.2076,-0.08770504,-0.3237199,0.2110855,-0.5419587,0.1508967,-0.01998539
486.2222,-0.0861799,-0.3237532,0.2037016,-0.541233,0.1715205,-0.01998691
486.237,-0.0861799,-0.3237532,0.2037016,-0.541233,0.1715205,-0.01998691
486.2508,-0.0846723,-0.3237862,0.1962921,-0.5404952,0.1924221,-0.01998761
486.2663,-0.08318204,-0.3238189,0.1891806,-0.5397446,0.2131484,-0.01998797
486.281,-0.08170893,-0.3238512,0.18243,-0.5389802,0.2335381,-0.01998819
486.2956,-0.08170893,-0.3238512,0.18243,-0.5389802,0.2335381,-0.01998819
486.3096,-0.08025276,-0.3238832,0.1748984,-0.5381936,0.255012,-0.01999025
486.3252,-0.07881334,-0.3239149,0.1673315,-0.5373933,0.2767471,-0.01999102
486.3397,-0.07881334,-0.3239149,0.1673315,-0.5373933,0.2767471,-0.01999102
486.3538,-0.07739047,-0.3239462,0.1600543,-0.5365799,0.2982934,-0.01999128
486.3692,-0.07598397,-0.3239772,0.152018,-0.5357438,0.3209459,-0.01999368
486.3842,-0.07459365,-0.3240078,0.1439786,-0.5348935,0.3438508,-0.01999445
486.3988,-0.07459365,-0.3240078,0.1439786,-0.5348935,0.3438508,-0.01999445
486.4128,-0.07321932,-0.3240382,0.1362593,-0.5340303,0.3665474,-0.0199946
486.429,-0.07186081,-0.3240682,0.1289219,-0.5331559,0.3888701,-0.01999453
486.4428,-0.07051791,-0.324098,0.121945,-0.5322717,0.4107685,-0.01999438
486.4575,-0.07051791,-0.324098,0.121945,-0.5322717,0.4107685,-0.01999438
486.4714,-0.06919046,-0.3241274,0.1152887,-0.5313798,0.4322349,-0.0199942
486.4867,-0.06787829,-0.3241565,0.1089154,-0.5304818,0.4532762,-0.019994
486.5012,-0.06658121,-0.3241853,0.1027953,-0.5295795,0.4739036,-0.01999377
486.5162,-0.06658121,-0.3241853,0.1027953,-0.5295795,0.4739036,-0.01999377
486.5301,-0.06529905,-0.3242138,0.09799807,-0.5286875,0.4927146,-0.01999035
486.5453,-0.06403164,-0.3242421,0.09377083,-0.527804,0.5104831,-0.01998901
486.5602,-0.06277881,-0.32427,0.08974718,-0.5269281,0.5276592,-0.0199884
486.5747,-0.06277881,-0.32427,0.08974718,-0.5269281,0.5276592,-0.0199884
486.5891,-0.06154039,-0.3242976,0.08689936,-0.5260714,0.5430259,-0.01998472
486.6043,-0.06031622,-0.324325,0.08448444,-0.5252321,0.5574033,-0.01998324
486.619,-0.06031622,-0.324325,0.08448444,-0.5252321,0.5574033,-0.01998324
486.6332,-0.05910613,-0.3243521,0.08215895,-0.5244067,0.5712558,-0.01998251
486.6487,-0.05790996,-0.3243788,0.07983273,-0.5235907,0.5847678,-0.01998197
486.6637,-0.05672755,-0.3244053,0.07857802,-0.5227961,0.5966296,-0.01997809
486.6802,-0.05555875,-0.3244316,0.0777087,-0.5220238,0.6075985,-0.01997637
486.6938,-0.05555875,-0.3244316,0.0777087,-0.5220238,0.6075985,-0.01997637
486.7081,-0.0544034,-0.3244575,0.0768985,-0.5212693,0.6181138,-0.01997541
486.7224,-0.05326134,-0.3244832,0.07606,-0.5205275,0.6283519,-0.01997466
486.7371,-0.05326134,-0.3244832,0.07606,-0.5205275,0.6283519,-0.01997466
486.7511,-0.05213241,-0.3245086,0.07625699,-0.5198091,0.6370149,-0.01997057
486.7664,-0.05101648,-0.3245338,0.07681394,-0.5191169,0.6448448,-0.01996867
486.7812,-0.04991339,-0.3245587,0.07740517,-0.5184453,0.6522763,-0.01996754
486.7959,-0.04991339,-0.3245587,0.07740517,-0.5184453,0.6522763,-0.01996754
486.8099,-0.04882299,-0.3245833,0.07900405,-0.5178016,0.658127,-0.0199633
486.8253,-0.04774513,-0.3246076,0.08091592,-0.5171878,0.6631745,-0.01996129
486.84,-0.04774513,-0.3246076,0.08091592,-0.5171878,0.6631745,-0.01996129
486.8542,-0.04667968,-0.3246318,0.08281235,-0.5165958,0.6678669,-0.01996006
486.8698,-0.04562649,-0.3246556,0.08460619,-0.5160179,0.6723852,-0.01995909
486.8846,-0.04458542,-0.3246792,0.08735577,-0.5154631,0.6754492,-0.01995483
486.8994,-0.04458542,-0.3246792,0.08735577,-0.5154631,0.6754492,-0.01995483
486.9133,-0.04355633,-0.3247025,0.09040157,-0.5149367,0.6777847,-0.01995273
486.931,-0.04253908,-0.3247256,0.09342231,-0.5144316,0.6798198,-0.01995142
486.9446,-0.04153354,-0.3247485,0.09632872,-0.5139399,0.6817282,-0.01995036
486.9583,-0.04153354,-0.3247485,0.09632872,-0.5139399,0.6817282,-0.01995036
486.9724,-0.04053957,-0.324771,0.1001734,-0.5134705,0.6822321,-0.01994604
486.9878,-0.03955704,-0.3247934,0.104297,-0.5130298,0.682052,-0.01994387
487.0023,-0.03858581,-0.3248155,0.1083756,-0.5126104,0.6816139,-0.01994251
487.0169,-0.03858581,-0.3248155,0.1083756,-0.5126104,0.6816139,-0.01994251
487.0312,-0.03762577,-0.3248374,0.1133756,-0.5122175,0.6797479,-0.01993805
487.0468,-0.03667677,-0.3248591,0.1186113,-0.5118556,0.6772162,-0.01993583
487.0613,-0.0357387,-0.3248805,0.1237544,-0.5115151,0.6744611,-0.01993442
487.076,-0.0357387,-0.3248805,0.1237544,-0.5115151,0.6744611,-0.01993442
487.0901,-0.03481142,-0.3249017,0.1287156,-0.5111861,0.6716613,-0.0199333
487.1057,-0.03389482,-0.3249227,0.1345522,-0.5108762,0.6675414,-0.01992887
487.1203,-0.03298876,-0.3249434,0.1406074,-0.510594,0.6628202,-0.01992664
487.1353,-0.03298876,-0.3249434,0.1406074,-0.510594,0.6628202,-0.01992664
487.1492,-0.03209314,-0.3249639,0.1465601,-0.510331,0.6579215,-0.01992521
487.165,-0.03120783,-0.3249842,0.1523204,-0.5100778,0.653017,-0.01992409
487.1818,-0.0303327,-0.3250043,0.1589459,-0.5098425,0.6468251,-0.01991964
487.1955,-0.0303327,-0.3250043,0.1589459,-0.5098425,0.6468251,-0.01991964
487.2085,-0.02946765,-0.3250242,0.165774,-0.509634,0.6400662,-0.01991741
487.2239,-0.02861256,-0.3250438,0.1724803,-0.509444,0.6331646,-0.01991602
487.2383,-0.02861256,-0.3250438,0.1724803,-0.509444,0.6331646,-0.01991602
487.2525,-0.02776731,-0.3250633,0.1800398,-0.5092763,0.6249405,-0.01991148
487.2679,-0.02693179,-0.3250825,0.1877593,-0.5091375,0.6161609,-0.01990924
487.2827,-0.02610589,-0.3251015,0.1953092,-0.5090168,0.6072676,-0.01990788
487.2974,-0.02610589,-0.3251015,0.1953092,-0.5090168,0.6072676,-0.01990788
487.3115,-0.02528949,-0.3251203,0.2026018,-0.5089029,0.5984371,-0.01990683
487.3272,-0.0244825,-0.3251389,0.2107084,-0.5088028,0.5883771,-0.01990242
487.3417,-0.0236848,-0.3251573,0.2189595,-0.5087266,0.5778173,-0.0199003
487.3565,-0.0236848,-0.3251573,0.2189595,-0.5087266,0.5778173,-0.0199003
487.3706,-0.02289628,-0.3251756,0.2270319,-0.5086654,0.5671837,-0.01989904
487.3863,-0.02211684,-0.3251936,0.2348381,-0.5086088,0.5566454,-0.01989813
487.4012,-0.02134638,-0.3252114,0.2434545,-0.5085637,0.5448976,-0.01989388
487.4157,-0.02134638,-0.3252114,0.2434545,-0.5085637,0.5448976,-0.01989388
487.432,-0.02058478,-0.325229,0.252201,-0.5085409,0.5326775,-0.01989193
487.4453,-0.01983196,-0.3252464,0.2607505,-0.5085313,0.5204129,-0.01989087
487.46,-0.01983196,-0.3252464,0.2607505,-0.5085313,0.5204129,-0.01989087
487.4742,-0.0190878,-0.3252637,0.2700998,-0.5085373,0.506897,-0.01988672
487.4895,-0.01835221,-0.3252807,0.2795358,-0.5085666,0.4929171,-0.01988493
487.5041,-0.01762509,-0.3252976,0.2887269,-0.5086076,0.4789189,-0.01988405
487.5189,-0.01762509,-0.3252976,0.2887269,-0.5086076,0.4789189,-0.01988405
487.5331,-0.01690635,-0.3253143,0.2975895,-0.5086483,0.4650766,-0.01988354
487.5485,-0.01619588,-0.3253308,0.3072207,-0.5086945,0.4500646,-0.01987988
487.5633,-0.01549359,-0.3253471,0.3169272,-0.5087571,0.4346378,-0.01987847
487.5779,-0.01549359,-0.3253471,0.3169272,-0.5087571,0.4346378,-0.01987847
487.5923,-0.01479939,-0.3253633,0.3263826,-0.5088268,0.4192278,-0.01987795
487.6076,-0.01411319,-0.3253793,0.3355038,-0.5088928,0.4040019,-0.0198778
487.6226,-0.01343489,-0.325395,0.3453955,-0.5089607,0.3876187,-0.01987473
487.6375,-0.01343489,-0.325395,0.3453955,-0.5089607,0.3876187,-0.01987473
487.6518,-0.0127644,-0.3254107,0.355351,-0.5090413,0.3708436,-0.01987381
487.6693,-0.01210163,-0.3254261,0.36504,-0.5091256,0.3541116,-0.01987374
487.6819,-0.01144649,-0.3254414,0.3743796,-0.509203,0.3375893,-0.01987403
487.697,-0.01144649,-0.3254414,0.3743796,-0.509203,0.3375893,-0.01987403
487.7109,-0.0107989,-0.3254565,0.384484,-0.5092781,0.3199219,-0.01987174
487.7262,-0.01015877,-0.3254714,0.3946356,-0.5093616,0.3018859,-0.01987141
487.7409,-0.009526013,-0.3254862,0.4045025,-0.5094446,0.2839194,-0.01987186
487.7558,-0.009526013,-0.3254862,0.4045025,-0.5094446,0.2839194,-0.01987186
487.77,-0.008900534,-0.3255008,0.411417,-0.5094948,0.2694808,-0.01987828
487.7856,-0.008282258,-0.3255152,0.4171295,-0.5094797,0.2568436,-0.01988113
487.8004,-0.007671103,-0.3255295,0.4225094,-0.509416,0.2450017,-0.01988279
487.8155,-0.007671103,-0.3255295,0.4225094,-0.509416,0.2450017,-0.01988279
487.8295,-0.007066987,-0.3255436,0.4278309,-0.5093242,0.2335583,-0.01988413
487.8449,-0.006469829,-0.3255575,0.4331507,-0.5092174,0.2223628,-0.01988545
487.8596,-0.006469829,-0.3255575,0.4331507,-0.5092174,0.2223628,-0.01988545
487.8738,-0.005879547,-0.3255713,0.4384555,-0.5091027,0.2113618,-0.01988683
487.8892,-0.005296064,-0.3255849,0.4437161,-0.508983,0.2005386,-0.01988829
487.9053,-0.0047193,-0.3255984,0.4489057,-0.5088595,0.1898891,-0.01988982
487.9189,-0.0047193,-0.3255984,0.4489057,-0.5088595,0.1898891,-0.01988982
487.933,-0.004187769,-0.3382163,0.4634923,-0.5124105,0.1666132,-0.01991004
487.9485,-0.003692284,-0.3585442,0.4779817,-0.5170166,0.1415083,-0.01993061
487.963,-0.003221961,-0.3835366,0.4901076,-0.5215897,0.1178269,-0.01994697
487.9773,-0.003221961,-0.3835366,0.4901076,-0.5215897,0.1178269,-0.01994697
487.9919,-0.002765326,-0.4105416,0.4993734,-0.5255426,0.09689112,-0.01995843
488.0073,-0.002317811,-0.4386688,0.5068811,-0.5290084,0.07787899,-0.01996667
488.0221,-0.001876644,-0.4673637,0.5133011,-0.532119,0.06023953,-0.01997264
488.0369,-0.001876644,-0.4673637,0.5133011,-0.532119,0.06023953,-0.01997264
488.051,-0.00144027,-0.4962812,0.5190277,-0.5349774,0.04361382,-0.0199769
488.0679,-0.001004248,-0.5244456,0.523788,-0.537409,0.02846517,-0.01997957
488.0814,-0.0005705449,-0.5520188,0.5282159,-0.5396466,0.01405895,-0.0199812
488.0961,-0.0005705449,-0.5520188,0.5282159,-0.5396466,0.01405895,-0.0199812
488.1101,-0.0001401618,-0.5791036,0.5324978,-0.5417899,0.0001233118,-0.01998195
488.1255,0.0002864203,-0.6057656,0.5366642,-0.543879,-0.01343422,-0.0199819
488.1414,0.0007135262,-0.6312856,0.5402254,-0.5456757,-0.02597202,-0.01998122
488.1561,0.0007135262,-0.6312856,0.5402254,-0.5456757,-0.02597202,-0.01998122
488.1692,0.001138009,-0.6559857,0.5436519,-0.5473716,-0.03806746,-0.01997998
488.1847,0.001558527,-0.6800686,0.5470403,-0.5490357,-0.04989389,-0.01997818
488.1992,0.001558527,-0.6800686,0.5470403,-0.5490357,-0.04989389,-0.01997818
488.2132,0.001979768,-0.7029009,0.5499122,-0.5504315,-0.06082872,-0.01997615
488.2287,0.002398112,-0.7248581,0.5527115,-0.5517498,-0.07142404,-0.01997376
488.2433,0.002812159,-0.7461765,0.5555164,-0.5530549,-0.08183157,-0.01997095
488.258,0.002812159,-0.7461765,0.5555164,-0.5530549,-0.08183157,-0.01997095
488.2722,0.003221498,-0.7670048,0.5583006,-0.5543618,-0.09206849,-0.01996772
488.2878,0.003632054,-0.7866756,0.5605716,-0.5554095,-0.1014755,-0.01996464
488.3025,0.004039955,-0.8055431,0.5627671,-0.5563828,-0.1105818,-0.01996139
488.3172,0.004039955,-0.8055431,0.5627671,-0.5563828,-0.1105818,-0.01996139
488.3315,0.00444374,-0.8238299,0.5649704,-0.5573449,-0.1195338,-0.01995782
488.347,0.004842992,-0.8416763,0.5671631,-0.5583107,-0.1283493,-0.01995394
488.362,0.005244304,-0.8584091,0.5688675,-0.5590178,-0.1363819,-0.01995054
488.3766,0.005244304,-0.8584091,0.5688675,-0.5590178,-0.1363819,-0.01995054
488.3927,0.005643453,-0.8743791,0.5705175,-0.5596535,-0.1441547,-0.01994708
488.406,0.006038837,-0.8898066,0.5721955,-0.5602821,-0.1518111,-0.01994339
488.4207,0.006429969,-0.9048303,0.5738828,-0.5609191,-0.1593677,-0.01993946
488.4358,0.006429969,-0.9048303,0.5738828,-0.5609191,-0.1593677,-0.01993946
488.4496,0.006823962,-0.9187756,0.5751086,-0.5613009,-0.1661851,-0.01993624
488.465,0.007216368,-0.9319927,0.5763013,-0.5616165,-0.1727806,-0.01993304
488.4795,0.007216368,-0.9319927,0.5763013,-0.5616165,-0.1727806,-0.01993304
488.4936,0.007605453,-0.9447012,0.5775407,-0.5619307,-0.179294,-0.01992966
488.509,0.007998129,-0.9562773,0.5783736,-0.5619963,-0.1851216,-0.01992712
488.5238,0.008389746,-0.9671026,0.5792181,-0.5620082,-0.1907796,-0.01992461
488.5387,0.008389746,-0.9671026,0.5792181,-0.5620082,-0.1907796,-0.01992461
488.5529,0.008778418,-0.9774166,0.580142,-0.562031,-0.1964005,-0.0199219
488.5684,0.009163446,-0.987369,0.5811174,-0.5620792,-0.201992,-0.01991897
488.5833,0.009552501,-0.9962922,0.5816712,-0.5618865,-0.2069145,-0.01991704
488.5978,0.009552501,-0.9962922,0.5816712,-0.5618865,-0.2069145,-0.01991704
488.6121,0.009941137,-1.004541,0.5822239,-0.5616423,-0.2116763,-0.0199152
488.6279,0.0103274,-1.012337,0.5828511,-0.5614104,-0.2164113,-0.01991319
488.6432,0.01071043,-1.019819,0.5835318,-0.5612057,-0.2211309,-0.01991098
488.6572,0.01071043,-1.019819,0.5835318,-0.5612057,-0.2211309,-0.01991098
488.6711,0.01109805,-1.026312,0.583797,-0.5607627,-0.225199,-0.01990989
488.6864,0.01148588,-1.032168,0.5840698,-0.5602722,-0.229126,-0.01990893
488.7012,0.01187185,-1.037603,0.5844272,-0.5597984,-0.2330461,-0.01990779
488.7161,0.01187185,-1.037603,0.5844272,-0.5597984,-0.2330461,-0.01990779
488.7301,0.01226324,-1.041995,0.5844132,-0.5590935,-0.236354,-0.01990781
488.7454,0.0126556,-1.045724,0.5844445,-0.5583531,-0.2395625,-0.0199079
488.7601,0.01304662,-1.049028,0.5845875,-0.5576416,-0.2428002,-0.01990777
488.7751,0.01304662,-1.049028,0.5845875,-0.5576416,-0.2428002,-0.01990777
488.7891,0.01343504,-1.052056,0.5848142,-0.556973,-0.2460728,-0.0199074
488.8046,0.01382858,-1.054139,0.5846443,-0.5560812,-0.2487345,-0.01990829
488.8193,0.01382858,-1.054139,0.5846443,-0.5560812,-0.2487345,-0.01990829
488.8337,0.01422326,-1.055631,0.5845014,-0.5551557,-0.2512954,-0.01990928
488.8492,0.01461679,-1.056753,0.5844616,-0.5542599,-0.2538879,-0.01991007
488.864,0.01500779,-1.057642,0.5845037,-0.5534082,-0.2565218,-0.01991061
488.8796,0.01500779,-1.057642,0.5845037,-0.5534082,-0.2565218,-0.01991061
488.8936,0.01540382,-1.057628,0.5841511,-0.5523381,-0.2585558,-0.01991248
488.9081,0.01580106,-1.057055,0.5838265,-0.5512365,-0.2604966,-0.01991446
488.9229,0.01619377,-1.05614,0.5836139,-0.5501667,-0.2624824,-0.01991623
488.9373,0.01619377,-1.05614,0.5836139,-0.5501667,-0.2624824,-0.01991623
488.9517,0.0165883,-1.054258,0.5830433,-0.5488824,-0.2638942,-0.01991931
488.9672,0.0169762,-1.05179,0.5825455,-0.5475771,-0.265255,-0.01992244
488.9818,0.01735481,-1.048973,0.5821884,-0.5463151,-0.2666942,-0.01992526
488.9965,0.01735481,-1.048973,0.5821884,-0.5463151,-0.2666942,-0.01992526
489.0105,0.01772401,-1.045954,0.5819418,-0.5451105,-0.2682156,-0.01992778
489.0259,0.01809305,-1.042062,0.5813037,-0.5436994,-0.2691542,-0.01993168
489.0406,0.01845476,-1.037651,0.5807151,-0.5422688,-0.2700333,-0.01993566
489.0552,0.01845476,-1.037651,0.5807151,-0.5422688,-0.2700333,-0.01993566
489.0695,0.01880727,-1.032941,0.5802545,-0.5408813,-0.2709873,-0.01993936
489.085,0.01915086,-1.028068,0.579899,-0.5395516,-0.272025,-0.01994273
489.1,0.01915086,-1.028068,0.579899,-0.5395516,-0.272025,-0.01994273
489.1139,0.01949476,-1.022355,0.5791422,-0.5380178,-0.2724763,-0.01994756
489.1304,0.01983183,-1.016151,0.5784352,-0.5364665,-0.2728736,-0.01995245
489.1441,0.02016025,-1.009673,0.5778602,-0.534961,-0.2733545,-0.01995705
489.1586,0.02016025,-1.009673,0.5778602,-0.534961,-0.2733545,-0.01995705
489.1728,0.02048844,-1.002294,0.5769191,-0.5332577,-0.2732745,-0.01996305
489.188,0.02080916,-0.9943932,0.5760615,-0.5315472,-0.2731732,-0.01996904
489.2027,0.02112083,-0.9862077,0.5753602,-0.529893,-0.2731842,-0.01997466
489.2172,0.02112083,-0.9862077,0.5753602,-0.529893,-0.2731842,-0.01997466
489.2314,0.02142403,-0.9778833,0.5747854,-0.5283087,-0.2733117,-0.01997988
489.2468,0.02172775,-0.9687483,0.5738057,-0.5265338,-0.2728627,-0.01998655
489.2613,0.02202512,-0.9591563,0.5728841,-0.5247518,-0.2723799,-0.01999325
489.2762,0.02202512,-0.9591563,0.5728841,-0.5247518,-0.2723799,-0.01999325
489.2901,0.02231457,-0.9493258,0.5721049,-0.5230248,-0.2720031,-0.01999959
489.3056,0.0225966,-0.9393923,0.5714461,-0.521367,-0.2717418,-0.02000553
489.3202,0.0228797,-0.9286774,0.5703691,-0.51952,-0.2708948,-0.02001297
489.335,0.0228797,-0.9286774,0.5703691,-0.51952,-0.2708948,-0.02001297
489.3489,0.02315712,-0.9175304,0.5693488,-0.5176671,-0.2700162,-0.02002042
489.3644,0.02342733,-0.9061671,0.568474,-0.5158706,-0.26925,-0.02002749
489.379,0.02342733,-0.9061671,0.568474,-0.5158706,-0.26925,-0.02002749
489.3953,0.02369075,-0.8947212,0.5677242,-0.5141452,-0.2686073,-0.02003414
489.4093,0.02394836,-0.883275,0.5670608,-0.5124888,-0.2680653,-0.02004043
489.4231,0.02420109,-0.8718792,0.5664527,-0.5108945,-0.267599,-0.02004642
489.4377,0.02420109,-0.8718792,0.5664527,-0.5108945,-0.267599,-0.02004642
489.4517,0.02444971,-0.8605648,0.5658795,-0.5093551,-0.2671891,-0.02005218
489.467,0.02468802,-0.8501125,0.5658512,-0.5081182,-0.2675217,-0.02005583
489.4815,0.02492316,-0.8402361,0.5658376,-0.5069907,-0.2679931,-0.020059
489.4963,0.02492316,-0.8402361,0.5658376,-0.5069907,-0.2679931,-0.020059
489.5103,0.02515746,-0.8307577,0.565721,-0.5058998,-0.2684295,-0.02006218
489.5255,0.02539134,-0.8215663,0.5655071,-0.504822,-0.268802,-0.02006545
489.5401,0.02561813,-0.8133543,0.5657572,-0.5040063,-0.2698294,-0.02006685
489.5549,0.02561813,-0.8133543,0.5657572,-0.5040063,-0.2698294,-0.02006685
489.5689,0.02584337,-0.8057811,0.5659705,-0.5032662,-0.2709298,-0.02006795
489.5847,0.02606866,-0.7986348,0.5660489,-0.5025358,-0.2719477,-0.0200692
489.5995,0.02606866,-0.7986348,0.5660489,-0.5025358,-0.2719477,-0.0200692
489.6132,0.02628783,-0.7925449,0.566544,-0.5020513,-0.2735769,-0.02006867
489.6288,0.02650587,-0.7871323,0.5669625,-0.5016237,-0.2752355,-0.02006796
489.6432,0.02672415,-0.7821608,0.5672172,-0.5011891,-0.2767751,-0.02006751
489.6589,0.02672415,-0.7821608,0.5672172,-0.5011891,-0.2767751,-0.02006751
489.6732,0.02694266,-0.7774831,0.5673352,-0.5007325,-0.2781873,-0.02006734
489.6876,0.02715489,-0.7737691,0.5678974,-0.5005103,-0.2802109,-0.02006535
489.7021,0.02736518,-0.7706651,0.5684066,-0.5003397,-0.2822706,-0.02006317
489.7168,0.02736518,-0.7706651,0.5684066,-0.5003397,-0.2822706,-0.02006317
489.7307,0.02757492,-0.7679507,0.5687656,-0.5001587,-0.2842143,-0.02006122
489.746,0.02778426,-0.7654883,0.568993,-0.4999527,-0.2860285,-0.02005958
489.761,0.02798701,-0.7639542,0.5696654,-0.4999777,-0.2884486,-0.02005608
489.7753,0.02798701,-0.7639542,0.5696654,-0.4999777,-0.2884486,-0.02005608
489.7892,0.02818727,-0.7629986,0.5702821,-0.5000498,-0.290897,-0.02005238
489.8046,0.02838648,-0.762404,0.5707433,-0.5001068,-0.2932193,-0.02004896
489.8194,0.02838648,-0.762404,0.5707433,-0.5001068,-0.2932193,-0.02004896
489.8336,0.02857911,-0.7627934,0.5716003,-0.5003874,-0.2961091,-0.02004374
489.8488,0.0287686,-0.7637888,0.5723628,-0.5007035,-0.2989899,-0.02003841
489.8638,0.02895574,-0.7651532,0.5729418,-0.5009925,-0.3017125,-0.02003344
489.8786,0.02895574,-0.7651532,0.5729418,-0.5009925,-0.3017125,-0.02003344
489.8924,0.0291409,-0.766739,0.5733629,-0.501241,-0.304268,-0.02002889
489.9078,0.02931832,-0.7692161,0.5742043,-0.5017077,-0.3073917,-0.02002247
489.9236,0.02949113,-0.7722316,0.5749736,-0.502208,-0.3105137,-0.02001592
489.9384,0.02949113,-0.7722316,0.5749736,-0.502208,-0.3105137,-0.02001592
489.9514,0.02966102,-0.7755657,0.575573,-0.5026807,-0.3134819,-0.02000972
489.967,0.02982881,-0.7790815,0.5760208,-0.5031122,-0.3162828,-0.02000393
489.9815,0.02998887,-0.7834554,0.576886,-0.5037609,-0.3196436,-0.01999624
489.996,0.02998887,-0.7834554,0.576886,-0.5037609,-0.3196436,-0.01999624
490.0098,0.03014475,-0.7883391,0.5776765,-0.5044407,-0.3229953,-0.01998842
490.0253,0.03029823,-0.7935155,0.5782933,-0.5050899,-0.3261848,-0.01998099
490.0399,0.03029823,-0.7935155,0.5782933,-0.5050899,-0.3261848,-0.01998099
490.054,0.03044401,-0.7996112,0.5792792,-0.5059509,-0.3298972,-0.0199717
490.0693,0.03058609,-0.8062469,0.5801505,-0.5068327,-0.3335622,-0.01996239
490.0842,0.03072641,-0.8131865,0.5808195,-0.5076735,-0.3370329,-0.01995355
490.0987,0.03072641,-0.8131865,0.5808195,-0.5076735,-0.3370329,-0.01995355
490.1129,0.03086574,-0.8202824,0.5813132,-0.5084607,-0.3403014,-0.01994527
490.1286,0.03099794,-0.8282049,0.5821961,-0.5094549,-0.3440889,-0.01993508
490.1429,0.03112714,-0.8366024,0.5829883,-0.5104695,-0.3478381,-0.01992484
490.1576,0.03112714,-0.8366024,0.5829883,-0.5104695,-0.3478381,-0.01992484
490.1718,0.03125516,-0.8452557,0.5835956,-0.5114438,-0.3514006,-0.01991507
490.1882,0.03138267,-0.8540282,0.5840375,-0.5123646,-0.3547643,-0.01990585
490.202,0.03150311,-0.8635967,0.5848665,-0.5134919,-0.3586392,-0.0198947
490.2166,0.03150311,-0.8635967,0.5848665,-0.5134919,-0.3586392,-0.0198947
490.2308,0.03162102,-0.8736144,0.5856048,-0.514638,-0.3624709,-0.01988352
490.2458,0.03173793,-0.8838645,0.586158,-0.5157413,-0.3661107,-0.01987284
490.2638,0.03185415,-0.8942119,0.5865452,-0.5167882,-0.3695457,-0.01986274
490.2765,0.03185415,-0.8942119,0.5865452,-0.5167882,-0.3695457,-0.01986274
490.2891,0.03196272,-0.9053346,0.5873107,-0.518039,-0.3734778,-0.01985071
490.3046,0.03206665,-0.916885,0.5879837,-0.5193039,-0.3773579,-0.01983868
490.3191,0.03206665,-0.916885,0.5879837,-0.5193039,-0.3773579,-0.01983868
490.3332,0.03216761,-0.928647,0.5884713,-0.520522,-0.381039,-0.0198272
490.3487,0.03225919,-0.9412482,0.5892905,-0.5219384,-0.3851804,-0.01981387
490.3634,0.03234476,-0.9543093,0.589981,-0.5233587,-0.3892338,-0.01980066
490.378,0.03234476,-0.9543093,0.589981,-0.5233587,-0.3892338,-0.01980066
490.3921,0.0324263,-0.9675949,0.5904617,-0.5247223,-0.3930589,-0.01978812
490.4079,0.03250507,-0.9809586,0.5907611,-0.5260178,-0.3966505,-0.01977629
490.4225,0.0325741,-0.9950722,0.5914139,-0.527508,-0.4007006,-0.01976259
490.4371,0.0325741,-0.9950722,0.5914139,-0.527508,-0.4007006,-0.01976259
490.4533,0.03263643,-1.009583,0.5919655,-0.5290025,-0.4046751,-0.019749
490.4667,0.03269407,-1.024274,0.5923289,-0.5304415,-0.4084332,-0.01973606
490.4814,0.0327484,-1.039007,0.5925253,-0.5318131,-0.4119656,-0.01972383
490.4961,0.0327484,-1.039007,0.5925253,-0.5318131,-0.4119656,-0.01972383
490.5099,0.03279212,-1.054464,0.5930752,-0.5333794,-0.4159516,-0.01970974
490.5251,0.03282812,-1.070294,0.593528,-0.5349485,-0.4198608,-0.01969575
490.5399,0.03282812,-1.070294,0.593528,-0.5349485,-0.4198608,-0.01969575
490.554,0.03285846,-1.086282,0.5937974,-0.5364602,-0.4235529,-0.01968245
490.5692,0.0328793,-1.103056,0.5943729,-0.5381619,-0.4276629,-0.01966737
490.584,0.03289812,-1.120238,0.5948101,-0.5398588,-0.4316597,-0.01965255
490.5986,0.03289812,-1.120238,0.5948101,-0.5398588,-0.4316597,-0.01965255
490.6127,0.03291717,-1.137591,0.5950361,-0.5414909,-0.4354111,-0.01963853
490.6284,0.03293674,-1.154973,0.5950823,-0.5430469,-0.438915,-0.01962533
490.6427,0.03295215,-1.173055,0.5954534,-0.5447913,-0.4428373,-0.01961036
490.6575,0.03295215,-1.173055,0.5954534,-0.5447913,-0.4428373,-0.01961036
490.6717,0.03296772,-1.191486,0.5957147,-0.546532,-0.4466625,-0.01959562
490.6871,0.03298405,-1.210048,0.5957882,-0.5482095,-0.4502577,-0.01958163
490.7017,0.03300104,-1.228607,0.5956981,-0.5498119,-0.4536163,-0.01956848
490.7179,0.03300104,-1.228607,0.5956981,-0.5498119,-0.4536163,-0.01956848
490.7317,0.03301376,-1.247842,0.5959337,-0.5516025,-0.4573908,-0.01955356
490.7459,0.03302673,-1.267405,0.596064,-0.5533885,-0.4610694,-0.01953887
490.7606,0.03304055,-1.287081,0.5960115,-0.5551099,-0.4645196,-0.01952497
490.7753,0.03304055,-1.287081,0.5960115,-0.5551099,-0.4645196,-0.01952497
490.7892,0.03305027,-1.307493,0.5962362,-0.5570117,-0.4683471,-0.01950943
490.8045,0.03306045,-1.328264,0.5963236,-0.5588992,-0.4720469,-0.01949426
490.8191,0.03306045,-1.328264,0.5963236,-0.5588992,-0.4720469,-0.01949426
490.833,0.03307165,-1.349161,0.5962093,-0.5607135,-0.475495,-0.01947997
490.8485,0.03308372,-1.370042,0.5959258,-0.5624444,-0.4786915,-0.01946662
490.8635,0.03322477,-1.378213,0.5883451,-0.559821,-0.4715813,-0.01949563
490.8774,0.03322477,-1.378213,0.5883451,-0.559821,-0.4715813,-0.01949563
490.8918,0.03345744,-1.378542,0.5808061,-0.5561804,-0.4628144,-0.01953196
490.9073,0.03372169,-1.374033,0.5749803,-0.5525938,-0.454934,-0.01956516
490.9221,0.03397282,-1.366571,0.5707926,-0.5493444,-0.4483784,-0.01959331
490.937,0.03397282,-1.366571,0.5707926,-0.5493444,-0.4483784,-0.01959331
490.9513,0.03419432,-1.357328,0.5677643,-0.5464529,-0.4429448,-0.01961709
490.9662,0.03438707,-1.347032,0.5654508,-0.543865,-0.4383191,-0.01963763
490.982,0.03455755,-1.336133,0.5635417,-0.5415152,-0.4342389,-0.01965591
490.9958,0.03455755,-1.336133,0.5635417,-0.5415152,-0.4342389,-0.01965591
491.0096,0.03471238,-1.324912,0.5693132,-0.5309068,-0.4371099,-0.03467162
491.025,0.03485665,-1.313541,0.5726157,-0.5234046,-0.4381128,-0.04939258
491.0394,0.03485665,-1.313541,0.5726157,-0.5234046,-0.4381128,-0.04939258
491.0534,0.03499385,-1.302128,0.5746609,-0.5174973,-0.4381248,-0.06382491
491.0688,0.03512629,-1.290739,0.5760985,-0.5124426,-0.4376509,-0.07797427
491.0835,0.03525542,-1.279416,0.5754999,-0.509742,-0.4353881,-0.08852093
491.098,0.03525542,-1.279416,0.5754999,-0.509742,-0.4353881,-0.08852093
491.1119,0.03538218,-1.268183,0.5753956,-0.5066879,-0.433565,-0.09886065
491.1275,0.03550713,-1.257056,0.5755421,-0.5035147,-0.4319979,-0.1089975
491.1421,0.03563063,-1.246043,0.5758113,-0.5003346,-0.430585,-0.1189355
491.1568,0.03563063,-1.246043,0.5758113,-0.5003346,-0.430585,-0.1189355
491.1707,0.03575288,-1.235149,0.5743643,-0.4990795,-0.4276744,-0.1253454
491.1862,0.03587401,-1.224377,0.5735758,-0.4972359,-0.4253734,-0.1316296
491.2011,0.03599409,-1.213728,0.5731066,-0.4951422,-0.4234065,-0.1377903
491.2158,0.03599409,-1.213728,0.5731066,-0.4951422,-0.4234065,-0.1377903
491.2299,0.03611316,-1.203202,0.5710244,-0.4948472,-0.4200369,-0.140497
491.2474,0.03623123,-1.192798,0.5696488,-0.4938847,-0.4173279,-0.1431505
491.2607,0.03634832,-1.182516,0.5686172,-0.4926207,-0.4149792,-0.1457518
491.2744,0.03634832,-1.182516,0.5686172,-0.4926207,-0.4149792,-0.1457518
491.2884,0.03646442,-1.172355,0.567751,-0.4912334,-0.4128346,-0.1483019
491.3039,0.0365795,-1.162313,0.5652302,-0.4917023,-0.409245,-0.1474689
491.3183,0.0365795,-1.162313,0.5652302,-0.4917023,-0.409245,-0.1474689
491.3322,0.03669358,-1.152389,0.5633845,-0.491512,-0.406284,-0.146652
491.3477,0.03680664,-1.142582,0.561876,-0.4910122,-0.4036714,-0.1458509
491.3622,0.03691866,-1.13289,0.5605379,-0.4903729,-0.401261,-0.1450654
491.3768,0.03691866,-1.13289,0.5605379,-0.4903729,-0.401261,-0.1450654
491.391,0.03702963,-1.123313,0.5575988,-0.4915795,-0.3974473,-0.140962
491.4065,0.03713954,-1.113849,0.5553371,-0.4921031,-0.39426,-0.136939
491.4208,0.03724838,-1.104497,0.5534217,-0.4922943,-0.3914246,-0.1329946
491.4357,0.03724838,-1.104497,0.5534217,-0.4922943,-0.3914246,-0.1329946
491.4499,0.03735614,-1.095255,0.5500426,-0.4942345,-0.3873092,-0.1257943
491.4652,0.03746281,-1.086122,0.5473795,-0.495428,-0.3838558,-0.118735
491.4802,0.03756838,-1.077097,0.5450866,-0.496248,-0.3807764,-0.1118139
491.4947,0.03756838,-1.077097,0.5450866,-0.496248,-0.3807764,-0.1118139
491.5085,0.03767285,-1.068178,0.5429935,-0.4968764,-0.3779215,-0.1050283
491.5251,0.0377762,-1.059365,0.5394414,-0.499323,-0.3737911,-0.0950425
491.5396,0.0377762,-1.059365,0.5394414,-0.499323,-0.3737911,-0.0950425
491.5527,0.03787843,-1.050656,0.5365602,-0.5010388,-0.3702766,-0.08525231
491.5681,0.03797954,-1.04205,0.5340359,-0.5023795,-0.367118,-0.0756539
491.5826,0.03807952,-1.033545,0.5317122,-0.5035187,-0.3641796,-0.06624351
491.5972,0.03807952,-1.033545,0.5317122,-0.5035187,-0.3641796,-0.06624351
491.6113,0.03817837,-1.025141,0.5280121,-0.5064723,-0.3600398,-0.05368438
491.6263,0.03827607,-1.016837,0.5249681,-0.5086764,-0.3564978,-0.04137133
491.6411,0.03837264,-1.008631,0.5222794,-0.5104877,-0.3533064,-0.0292995
491.6558,0.03837264,-1.008631,0.5222794,-0.5104877,-0.3533064,-0.0292995
491.6703,0.03846807,-1.000522,0.5183573,-0.514019,-0.3490452,-0.01413106
491.6852,0.03856235,-0.9925083,0.5151144,-0.51674,-0.3454025,0.0007401491
491.6998,0.03856235,-0.9925083,0.5151144,-0.51674,-0.3454025,0.0007401491
491.7138,0.0386555,-0.9845899,0.5122415,-0.51903,-0.342124,0.01531997
491.7292,0.03874751,-0.9767652,0.5095854,-0.521075,-0.3390766,0.0296141
491.744,0.03883839,-0.9690331,0.5067498,-0.5234292,-0.3359043,0.04442019
491.7585,0.03883839,-0.9690331,0.5067498,-0.5234292,-0.3359043,0.04442019
491.7727,0.03892813,-0.9613925,0.504143,-0.5255131,-0.3329609,0.0589361
491.7901,0.03901674,-0.9538425,0.5016877,-0.5274301,-0.3301798,0.07316753
491.8037,0.03910423,-0.9463819,0.4993452,-0.5292315,-0.3275249,0.08712004
491.8174,0.03910423,-0.9463819,0.4993452,-0.5292315,-0.3275249,0.08712004
491.8313,0.03919059,-0.9390096,0.4970963,-0.530943,-0.3249768,0.1007991
491.8467,0.03927584,-0.9317247,0.494931,-0.5325782,-0.3225244,0.1142101
491.8611,0.03935997,-0.9245262,0.4928439,-0.5341442,-0.320161,0.1273582
491.8756,0.03935997,-0.9245262,0.4928439,-0.5341442,-0.320161,0.1273582
491.8897,0.039443,-0.9174129,0.491128,-0.5351794,-0.3181448,0.1394565
491.905,0.03952492,-0.9103839,0.489373,-0.536316,-0.3161173,0.1513177
491.9196,0.03952492,-0.9103839,0.489373,-0.536316,-0.3161173,0.1513177
491.9337,0.03960575,-0.9034383,0.4876317,-0.5374749,-0.3141182,0.1629465
491.949,0.03968548,-0.8965751,0.4859297,-0.5386184,-0.3121678,0.1743473
491.9639,0.03976415,-0.8897933,0.485486,-0.5377628,-0.3113432,0.1821914
491.9783,0.03976415,-0.8897933,0.485486,-0.5377628,-0.3113432,0.1821914
491.9924,0.03984174,-0.8830919,0.4846522,-0.5375557,-0.3102134,0.1898818
492.008,0.03991827,-0.87647,0.4836501,-0.5376506,-0.3089487,0.1974215
492.0228,0.03999373,-0.8699266,0.4825914,-0.5378794,-0.3076402,0.2048133
492.0376,0.03999373,-0.8699266,0.4825914,-0.5378794,-0.3076402,0.2048133
492.0515,0.04006815,-0.863461,0.4827206,-0.5361916,-0.3073874,0.208727
492.0678,0.04014153,-0.857072,0.4824376,-0.535208,-0.3068036,0.2125641
492.0827,0.04021388,-0.8507589,0.4819685,-0.5345658,-0.3060652,0.2163259
492.0961,0.04021388,-0.8507589,0.4819685,-0.5345658,-0.3060652,0.2163259
492.1101,0.0402852,-0.8445207,0.4826177,-0.5321187,-0.3063207,0.2166807
492.1254,0.04035552,-0.8383567,0.4828193,-0.5304427,-0.3062106,0.2170285
492.1401,0.04042482,-0.8322658,0.4828123,-0.5291518,-0.3059232,0.2173696
492.1544,0.04042482,-0.8322658,0.4828123,-0.5291518,-0.3059232,0.2173696
492.1686,0.04049313,-0.8262472,0.4827164,-0.5280578,-0.3055582,0.217704
492.1838,0.04056046,-0.8203001,0.4837912,-0.5250989,-0.3062355,0.2146985
492.1984,0.04056046,-0.8203001,0.4837912,-0.5250989,-0.3062355,0.2146985
492.2127,0.04062681,-0.8144237,0.484431,-0.5228928,-0.3065589,0.2117521
492.2274,0.04069219,-0.8086171,0.4848619,-0.5210731,-0.3067062,0.2088634
492.2417,0.04075661,-0.8028794,0.4851974,-0.5194609,-0.3067722,0.2060313
492.2567,0.04075661,-0.8028794,0.4851974,-0.5194609,-0.3067722,0.2060313
492.2711,0.0408201,-0.7972099,0.4867182,-0.5159994,-0.3078991,0.1999215
492.2866,0.04088265,-0.7916079,0.4877899,-0.5133072,-0.3086593,0.1939315
492.3016,0.04094427,-0.7860724,0.4886409,-0.5110186,-0.3092333,0.188059
492.3163,0.04094427,-0.7860724,0.4886409,-0.5110186,-0.3092333,0.188059
492.3305,0.04100499,-0.7806027,0.490641,-0.5069872,-0.3108406,0.1789684
492.3466,0.0410648,-0.775198,0.4921516,-0.5037849,-0.3120423,0.170056
492.3603,0.04112371,-0.7698576,0.493419,-0.5010243,-0.3130349,0.1613183
492.3749,0.04112371,-0.7698576,0.493419,-0.5010243,-0.3130349,0.1613183
492.3901,0.04118174,-0.7645807,0.4945672,-0.4985158,-0.3139229,0.1527519
492.4042,0.04123891,-0.7593665,0.4969608,-0.4942014,-0.3159347,0.1410203
492.4185,0.04123891,-0.7593665,0.4969608,-0.4942014,-0.3159347,0.1410203
492.4326,0.04129521,-0.7542143,0.4988703,-0.4906907,-0.3175441,0.1295186
492.448,0.04135066,-0.7491235,0.5005354,-0.4876166,-0.3189435,0.1182425
492.4627,0.04140527,-0.7440931,0.5020774,-0.4847995,-0.3202351,0.1071874
492.4772,0.04140527,-0.7440931,0.5020774,-0.4847995,-0.3202351,0.1071874
492.4911,0.04145905,-0.7391226,0.5049219,-0.4801899,-0.3227096,0.09301591
492.5066,0.04151202,-0.7342113,0.5072595,-0.476394,-0.3247592,0.07912223
492.5212,0.04156417,-0.7293583,0.5093388,-0.4730465,-0.3265849,0.06550092
492.5359,0.04156417,-0.7293583,0.5093388,-0.4730465,-0.3265849,0.06550092
492.5499,0.04161553,-0.7245631,0.512709,-0.468016,-0.3295895,0.04882131
492.5656,0.04166611,-0.719825,0.5155236,-0.4638529,-0.3321211,0.03246869
492.58,0.04166611,-0.719825,0.5155236,-0.4638529,-0.3321211,0.03246869
492.5939,0.04171591,-0.7151432,0.5180551,-0.4601714,-0.3344029,0.01643663
492.6091,0.04176494,-0.7105172,0.5204413,-0.4567823,-0.3365531,0.0007188953
492.6249,0.04181316,-0.7059462,0.5159092,-0.4623664,-0.3323614,0.0003084303
492.6396,0.04181316,-0.7059462,0.5159092,-0.4623664,-0.3323614,0.0003084303
492.6536,0.04186061,-0.7014296,0.5138391,-0.4650274,-0.3303072,-9.369393E-05
492.6679,0.04190731,-0.6969668,0.5129268,-0.466264,-0.3292999,-0.0004876745
492.6823,0.0419533,-0.692557,0.5125557,-0.4668095,-0.3288154,-0.0008737438
492.6967,0.0419533,-0.692557,0.5125557,-0.4668095,-0.3288154,-0.0008737438
492.7109,0.04199858,-0.6881998,0.5124309,-0.467022,-0.3285946,-0.001252118
492.726,0.04204316,-0.6838945,0.5124127,-0.4670759,-0.3285086,-0.001622991
492.7405,0.04208704,-0.6796404,0.5124368,-0.4670564,-0.3284934,-0.001986533
492.7551,0.04208704,-0.6796404,0.5124368,-0.4670564,-0.3284934,-0.001986533
492.7692,0.04213025,-0.6754369,0.5124762,-0.467005,-0.3285146,-0.002342907
492.7845,0.04217279,-0.6712835,0.5125207,-0.4669417,-0.328559,-0.002692253
492.8001,0.04221466,-0.6671796,0.5125663,-0.4668757,-0.3286202,-0.003034708
492.8138,0.04221466,-0.6671796,0.5125663,-0.4668757,-0.3286202,-0.003034708
492.8277,0.04225588,-0.6631246,0.5126116,-0.4668117,-0.3286951,-0.003370404
492.8429,0.04229645,-0.6591179,0.5125206,-0.4667132,-0.3290887,-0.003698483
492.8577,0.04229645,-0.6591179,0.5125206,-0.4667132,-0.3290887,-0.003698483
492.8715,0.0423364,-0.6551589,0.512176,-0.4666008,-0.3296035,-0.004019812
492.887,0.04237571,-0.651247,0.511593,-0.4664887,-0.3301383,-0.004334781
492.9015,0.04241441,-0.6473817,0.5108222,-0.466383,-0.3306599,-0.00464359
492.9172,0.04241441,-0.6473817,0.5108222,-0.466383,-0.3306599,-0.00464359
492.9312,0.04245251,-0.6435625,0.5097795,-0.4662476,-0.3314682,-0.004945367
492.9454,0.04249,-0.6397887,0.5083888,-0.4661022,-0.3323684,-0.005240972
492.9598,0.04249,-0.6397887,0.5083888,-0.4661022,-0.3323684,-0.005240972
492.9738,0.04252691,-0.63606,0.5066964,-0.4659604,-0.3332637,-0.005530771
492.9893,0.04256324,-0.6323757,0.5046403,-0.4657892,-0.3344318,-0.005813927
493.0036,0.042599,-0.6287352,0.5021691,-0.4656095,-0.335673,-0.006091308
493.0182,0.042599,-0.6287352,0.5021691,-0.4656095,-0.335673,-0.006091308
493.0322,0.04263419,-0.6251381,0.49935,-0.4654354,-0.3368907,-0.006363272
493.0475,0.04266883,-0.6215839,0.4962713,-0.4652726,-0.3380584,-0.006629986
493.0622,0.04270293,-0.618072,0.4928777,-0.4650835,-0.3394808,-0.006890523
493.0766,0.04270293,-0.618072,0.4928777,-0.4650835,-0.3394808,-0.006890523
493.0907,0.04273649,-0.614602,0.4891121,-0.4648872,-0.3409683,-0.007145732
493.106,0.04276953,-0.6111733,0.4850332,-0.4646969,-0.3424274,-0.007395954
493.1208,0.04280204,-0.6077855,0.4807218,-0.4645182,-0.3438321,-0.007641351
493.1355,0.04280204,-0.6077855,0.4807218,-0.4645182,-0.3438321,-0.007641351
493.1493,0.04283405,-0.6044381,0.4761176,-0.4643129,-0.345486,-0.00788097
493.1649,0.04286555,-0.6011305,0.4711596,-0.4641002,-0.3471997,-0.008115665
493.1794,0.04286555,-0.6011305,0.4711596,-0.4641002,-0.3471997,-0.008115665
493.1933,0.04289655,-0.5978624,0.465903,-0.4638936,-0.3488796,-0.008345778
493.2096,0.04292707,-0.5946332,0.4602945,-0.4636587,-0.3508039,-0.008570398
493.2242,0.0429571,-0.5914425,0.4542877,-0.4634164,-0.3527761,-0.00879041
493.2379,0.0429571,-0.5914425,0.4542877,-0.4634164,-0.3527761,-0.00879041
493.2518,0.04298667,-0.5882898,0.4479516,-0.4631812,-0.3547014,-0.009006149
493.2671,0.04301577,-0.5851747,0.4413756,-0.462959,-0.3565544,-0.009217757
493.2816,0.04304441,-0.5820967,0.4345078,-0.4627107,-0.3586379,-0.009424232
493.2961,0.04304441,-0.5820967,0.4345078,-0.4627107,-0.3586379,-0.009424232
493.31,0.0430726,-0.5790554,0.4272928,-0.4624557,-0.3607653,-0.009626444
493.3253,0.04310034,-0.5760504,0.4197886,-0.4622077,-0.3628446,-0.009824723
493.3399,0.04310034,-0.5760504,0.4197886,-0.4622077,-0.3628446,-0.009824723
493.354,0.04312765,-0.5730812,0.4119456,-0.4619313,-0.3651526,-0.01001811
493.3692,0.04315453,-0.5701474,0.4037191,-0.4616477,-0.3674955,-0.0102075
493.3841,0.04318099,-0.5672486,0.3951787,-0.4613719,-0.3697795,-0.01039323
493.3985,0.04318099,-0.5672486,0.3951787,-0.4613719,-0.3697795,-0.01039323
493.4126,0.04320703,-0.5643843,0.3864136,-0.46111,-0.3719796,-0.01057543
493.4278,0.04323266,-0.5615541,0.3773735,-0.4608216,-0.3743964,-0.01075303
493.4424,0.0432579,-0.5587577,0.3680039,-0.4605265,-0.3768458,-0.01092695
493.4572,0.0432579,-0.5587577,0.3680039,-0.4605265,-0.3768458,-0.01092695
493.471,0.04328273,-0.5559947,0.3583624,-0.460239,-0.3792368,-0.01109749
493.4865,0.04330717,-0.5532646,0.3485284,-0.4599651,-0.3815441,-0.01126479
493.5021,0.04333123,-0.550567,0.3384449,-0.4596638,-0.3840657,-0.01142776
493.5159,0.04333123,-0.550567,0.3384449,-0.4596638,-0.3840657,-0.01142776
493.5307,0.04335491,-0.5479016,0.3280529,-0.4593551,-0.3866184,-0.01158732
493.5449,0.04337822,-0.545268,0.3174056,-0.4590537,-0.3891108,-0.01174379
493.5594,0.04337822,-0.545268,0.3174056,-0.4590537,-0.3891108,-0.01174379
493.5734,0.04340117,-0.5426658,0.3064525,-0.4587224,-0.391815,-0.01189613
493.5886,0.04342375,-0.5400946,0.2951482,-0.4583834,-0.394541,-0.01204528
493.6032,0.04344599,-0.5375541,0.2835593,-0.4580525,-0.3971963,-0.01219157
493.6177,0.04344599,-0.5375541,0.2835593,-0.4580525,-0.3971963,-0.01219157
493.6317,0.04346787,-0.5350438,0.2717726,-0.4577363,-0.3997558,-0.01233511
493.6472,0.04348942,-0.5325635,0.2597387,-0.4573925,-0.402515,-0.01247476
493.6617,0.04351062,-0.5301128,0.2474043,-0.4570416,-0.4052944,-0.01261147
493.6765,0.04351062,-0.5301128,0.2474043,-0.4570416,-0.4052944,-0.01261147
493.6902,0.04353149,-0.5276913,0.2348252,-0.4566987,-0.4080044,-0.01274555
493.7057,0.04355204,-0.5252987,0.2220788,-0.4563704,-0.4106199,-0.01287712
493.7203,0.04357227,-0.5229346,0.2092344,-0.4560586,-0.4131398,-0.01300621
493.7351,0.04357227,-0.5229346,0.2092344,-0.4560586,-0.4131398,-0.01300621
493.7495,0.04359217,-0.5205986,0.1963463,-0.4557634,-0.4155705,-0.01313288
493.7644,0.04361177,-0.5182906,0.1834542,-0.4554839,-0.4179196,-0.01325712
493.781,0.04363106,-0.51601,0.1705864,-0.4552191,-0.4201939,-0.013379
493.7946,0.04363106,-0.51601,0.1705864,-0.4552191,-0.4201939,-0.013379
493.8084,0.04365005,-0.5137567,0.1577623,-0.454968,-0.4223991,-0.01349853
493.8227,0.04366874,-0.5115302,0.1449953,-0.4547298,-0.4245397,-0.01361575
493.8375,0.04366874,-0.5115302,0.1449953,-0.4547298,-0.4245397,-0.01361575
493.8511,0.04368714,-0.5093303,0.132294,-0.4545037,-0.4266194,-0.0137307
493.8664,0.04370525,-0.5071567,0.1196643,-0.454289,-0.4286409,-0.01384342
493.8809,0.04372308,-0.5050089,0.10711,-0.4540854,-0.4306067,-0.01395396
493.8955,0.04372308,-0.5050089,0.10711,-0.4540854,-0.4306067,-0.01395396
493.9094,0.04374064,-0.5028868,0.0946332,-0.4538922,-0.4325186,-0.01406236
493.9248,0.04375792,-0.5007899,0.08223537,-0.4537093,-0.4343783,-0.01416866
493.9395,0.04375792,-0.5007899,0.08223537,-0.4537093,-0.4343783,-0.01416866
493.9532,0.04377493,-0.4987181,0.06991713,-0.4535362,-0.4361874,-0.01427289
493.9688,0.04379167,-0.496671,0.05767873,-0.4533726,-0.4379472,-0.0143751
493.9833,0.04380815,-0.4946483,0.04552013,-0.4532183,-0.4396589,-0.01447534
493.9978,0.04380815,-0.4946483,0.04552013,-0.4532183,-0.4396589,-0.01447534
494.0121,0.04382438,-0.4926497,0.03344105,-0.453073,-0.4413238,-0.01457363
494.0275,0.04384035,-0.490675,0.02144115,-0.4529364,-0.4429428,-0.01467003
494.0421,0.04385608,-0.4887238,0.009519939,-0.4528082,-0.4445171,-0.01476455
494.0568,0.04385608,-0.4887238,0.009519939,-0.4528082,-0.4445171,-0.01476455
494.0726,0.04387156,-0.4867959,-0.002323073,-0.4526884,-0.4460477,-0.01485726
494.0869,0.04388679,-0.484891,-0.01408843,-0.4525765,-0.4475355,-0.01494816
494.1006,0.04390179,-0.4830088,-0.02577668,-0.4524724,-0.4489815,-0.01503732
494.1152,0.04390179,-0.4830088,-0.02577668,-0.4524724,-0.4489815,-0.01503732
494.1291,0.04391656,-0.481149,-0.03738836,-0.452376,-0.4503866,-0.01512476
494.1443,0.0439311,-0.4793115,-0.04892405,-0.4522869,-0.4517517,-0.01521051
494.1588,0.0439311,-0.4793115,-0.04892405,-0.4522869,-0.4517517,-0.01521051
494.1727,0.04394541,-0.4774958,-0.06038433,-0.4522049,-0.4530776,-0.0152946
494.188,0.0439595,-0.4757019,-0.07176972,-0.4521299,-0.4543653,-0.01537709
494.2026,0.04397337,-0.4739293,-0.08308079,-0.4520617,-0.4556154,-0.01545799
494.2171,0.04397337,-0.4739293,-0.08308079,-0.4520617,-0.4556154,-0.01545799
494.2314,0.04398702,-0.4721778,-0.09431805,-0.4520001,-0.4568288,-0.01553734
494.2466,0.04400046,-0.4704473,-0.105482,-0.4519448,-0.4580063,-0.01561516
494.2614,0.04401369,-0.4687374,-0.1165733,-0.4518957,-0.4591486,-0.01569149
494.2758,0.04401369,-0.4687374,-0.1165733,-0.4518957,-0.4591486,-0.01569149
494.2899,0.04402672,-0.4670479,-0.1275923,-0.4518526,-0.4602565,-0.01576636
494.3053,0.04403954,-0.4653785,-0.1385396,-0.4518153,-0.4613307,-0.01583979
494.32,0.04403954,-0.4653785,-0.1385396,-0.4518153,-0.4613307,-0.01583979
494.334,0.04405217,-0.4637291,-0.1494157,-0.4517837,-0.4623719,-0.01591183
494.3492,0.0440646,-0.4620993,-0.160221,-0.4517576,-0.4633808,-0.01598249
494.366,0.04407683,-0.460489,-0.1709561,-0.4517368,-0.464358,-0.01605179
494.3797,0.04407683,-0.460489,-0.1709561,-0.4517368,-0.464358,-0.01605179
494.3934,0.04408888,-0.4588979,-0.1816214,-0.4517211,-0.4653042,-0.01611978
494.4077,0.04410074,-0.4573258,-0.1922173,-0.4517105,-0.4662201,-0.01618647
494.4223,0.04411241,-0.4557724,-0.2027444,-0.4517047,-0.4671061,-0.01625189
494.4368,0.04411241,-0.4557724,-0.2027444,-0.4517047,-0.4671061,-0.01625189
494.4508,0.0441239,-0.4542375,-0.213203,-0.4517035,-0.4679631,-0.01631606
494.4661,0.04413522,-0.452721,-0.2235936,-0.4517069,-0.4687915,-0.01637902
494.4818,0.04414636,-0.4512225,-0.2339167,-0.4517147,-0.4695919,-0.01644079
494.4951,0.04414636,-0.4512225,-0.2339167,-0.4517147,-0.4695919,-0.01644079
494.5089,0.04415732,-0.449742,-0.2441726,-0.4517267,-0.4703649,-0.01650138
494.5244,0.04416812,-0.4482791,-0.2543617,-0.4517429,-0.4711111,-0.01656082
494.5389,0.04416812,-0.4482791,-0.2543617,-0.4517429,-0.4711111,-0.01656082
494.5528,0.04417875,-0.4468336,-0.2644846,-0.451763,-0.471831,-0.01661914
494.5685,0.04418921,-0.4454054,-0.2745416,-0.451787,-0.472525,-0.01667636
494.583,0.04419951,-0.4439942,-0.2845331,-0.4518147,-0.4731938,-0.0167325
494.5977,0.04419951,-0.4439942,-0.2845331,-0.4518147,-0.4731938,-0.0167325
494.6116,0.04420966,-0.4425999,-0.2944594,-0.4518459,-0.4738379,-0.01678758
494.6271,0.04421964,-0.4412222,-0.304321,-0.4518806,-0.4744577,-0.01684162
494.6414,0.04422947,-0.4398609,-0.3141183,-0.4519187,-0.4750536,-0.01689465
494.6581,0.04422947,-0.4398609,-0.3141183,-0.4519187,-0.4750536,-0.01689465
494.6723,0.04423915,-0.4385159,-0.3238516,-0.45196,-0.4756263,-0.01694668
494.6863,0.04424868,-0.437187,-0.3335213,-0.4520045,-0.4761761,-0.01699774
494.7,0.04424868,-0.437187,-0.3335213,-0.4520045,-0.4761761,-0.01699774
494.714,0.04425806,-0.4358738,-0.3431277,-0.4520519,-0.4767035,-0.01704784
494.7291,0.04426729,-0.4345764,-0.3526713,-0.4521022,-0.4772089,-0.017097
494.7436,0.04427639,-0.4332944,-0.3621524,-0.4521553,-0.4776928,-0.01714525
494.758,0.04427639,-0.4332944,-0.3621524,-0.4521553,-0.4776928,-0.01714525
494.7721,0.04428534,-0.4320277,-0.3715714,-0.4522111,-0.4781556,-0.01719259
494.7877,0.04429415,-0.4307761,-0.3809285,-0.4522696,-0.4785977,-0.01723904
494.8021,0.04430282,-0.4295395,-0.3902243,-0.4523305,-0.4790195,-0.01728463
494.8165,0.04430282,-0.4295395,-0.3902243,-0.4523305,-0.4790195,-0.01728463
494.8307,0.04431137,-0.4283177,-0.3994589,-0.4523938,-0.4794214,-0.01732938
494.846,0.04431977,-0.4271104,-0.4086327,-0.4524594,-0.4798038,-0.01737329
494.8604,0.04432805,-0.4259175,-0.4177461,-0.4525272,-0.4801671,-0.01741639
494.8758,0.04432805,-0.4259175,-0.4177461,-0.4525272,-0.4801671,-0.01741639
494.8893,0.0443362,-0.4247388,-0.4267994,-0.4525972,-0.4805116,-0.01745869
494.9048,0.04434423,-0.4235742,-0.435793,-0.4526692,-0.4808378,-0.01750021
494.9194,0.04434423,-0.4235742,-0.435793,-0.4526692,-0.4808378,-0.01750021
494.9332,0.04435213,-0.4224235,-0.4447271,-0.4527432,-0.4811459,-0.01754096
494.9509,0.04435991,-0.4212866,-0.453602,-0.4528191,-0.4814363,-0.01758096
494.9643,0.04436756,-0.4201632,-0.4624182,-0.4528968,-0.4817094,-0.01762022
494.978,0.04436756,-0.4201632,-0.4624182,-0.4528968,-0.4817094,-0.01762022
494.9916,0.0443751,-0.4190531,-0.4711758,-0.4529762,-0.4819655,-0.01765876
495.0071,0.04438252,-0.4179564,-0.4798753,-0.4530573,-0.482205,-0.01769659
495.0214,0.04438983,-0.4168727,-0.4885169,-0.4531399,-0.4824281,-0.01773373
495.036,0.04438983,-0.4168727,-0.4885169,-0.4531399,-0.4824281,-0.01773373
495.0499,0.04439702,-0.415802,-0.497101,-0.4532241,-0.4826352,-0.01777018
495.0652,0.0444041,-0.414744,-0.5056278,-0.4533097,-0.4828266,-0.01780597
495.0797,0.0444041,-0.414744,-0.5056278,-0.4533097,-0.4828266,-0.01780597
495.0936,0.04441108,-0.4136986,-0.5140977,-0.4533968,-0.4830026,-0.01784111
495.1089,0.04441794,-0.4126658,-0.5225109,-0.4534851,-0.4831635,-0.01787561
495.1234,0.0444247,-0.4116452,-0.5308678,-0.4535747,-0.4833096,-0.01790949
495.1382,0.0444247,-0.4116452,-0.5308678,-0.4535747,-0.4833096,-0.01790949
495.1521,0.04443135,-0.4106369,-0.5391685,-0.4536655,-0.4834412,-0.01794274
495.1674,0.0444379,-0.4096405,-0.5474136,-0.4537574,-0.4835586,-0.0179754
495.1823,0.04444435,-0.4086561,-0.5556031,-0.4538504,-0.4836621,-0.01800746
495.197,0.04444435,-0.4086561,-0.5556031,-0.4538504,-0.4836621,-0.01800746
495.2109,0.0444507,-0.4076834,-0.5637376,-0.4539444,-0.4837518,-0.01803895
495.2261,0.04445695,-0.4067223,-0.5718171,-0.4540395,-0.4838282,-0.01806986
495.2406,0.04446311,-0.4057727,-0.579842,-0.4541354,-0.4838914,-0.01810022
495.2564,0.04446311,-0.4057727,-0.579842,-0.4541354,-0.4838914,-0.01810022
495.2703,0.04446916,-0.4048344,-0.5878127,-0.4542322,-0.4839417,-0.01813002
495.2846,0.04447513,-0.4039073,-0.5957292,-0.4543298,-0.4839795,-0.01815929
495.2993,0.04447513,-0.4039073,-0.5957292,-0.4543298,-0.4839795,-0.01815929
495.3132,0.044481,-0.4029912,-0.603592,-0.4544283,-0.4840048,-0.01818804
495.3284,0.04448678,-0.4020861,-0.6114014,-0.4545274,-0.4840181,-0.01821628
495.3429,0.04449247,-0.4011918,-0.6191576,-0.4546272,-0.4840194,-0.01824401
495.3574,0.04449247,-0.4011918,-0.6191576,-0.4546272,-0.4840194,-0.01824401
495.3714,0.04449807,-0.4003082,-0.6268608,-0.4547277,-0.4840092,-0.01827124
495.3868,0.04450358,-0.3994351,-0.6345114,-0.4548288,-0.4839875,-0.01829799
495.4013,0.04450901,-0.3985724,-0.6421096,-0.4549305,-0.4839547,-0.01832427
495.416,0.04450901,-0.3985724,-0.6421096,-0.4549305,-0.4839547,-0.01832427
495.43,0.04451436,-0.3977201,-0.6496558,-0.4550326,-0.4839109,-0.01835008
495.4453,0.04451962,-0.3968779,-0.6571501,-0.4551353,-0.4838564,-0.01837544
495.46,0.0445248,-0.3960457,-0.6645929,-0.4552384,-0.4837914,-0.01840034
495.4748,0.0445248,-0.3960457,-0.6645929,-0.4552384,-0.4837914,-0.01840034
495.4887,0.0445299,-0.3952235,-0.6719843,-0.4553419,-0.4837161,-0.01842481
495.5044,0.04453492,-0.3944111,-0.6793247,-0.4554458,-0.4836307,-0.01844885
495.5188,0.04453492,-0.3944111,-0.6793247,-0.4554458,-0.4836307,-0.01844885
495.5349,0.04453986,-0.3936083,-0.6866145,-0.4555501,-0.4835355,-0.01847246
495.5491,0.04454473,-0.3928152,-0.6938537,-0.4556546,-0.4834307,-0.01849566
495.5637,0.04454952,-0.3920315,-0.7010427,-0.4557594,-0.4833163,-0.01851846
495.5772,0.04454952,-0.3920315,-0.7010427,-0.4557594,-0.4833163,-0.01851846
495.5911,0.04455423,-0.3912572,-0.7081817,-0.4558645,-0.4831927,-0.01854086
495.6064,0.04455888,-0.3904921,-0.715271,-0.4559698,-0.48306,-0.01856286
495.6208,0.04456345,-0.3897361,-0.7223108,-0.4560754,-0.4829183,-0.01858448
495.6354,0.04456345,-0.3897361,-0.7223108,-0.4560754,-0.4829183,-0.01858448
495.6494,0.04456794,-0.3889892,-0.7293014,-0.4561811,-0.4827678,-0.01860573
495.6646,0.04457237,-0.3882512,-0.7362429,-0.4562869,-0.4826089,-0.01862661
495.6792,0.04457237,-0.3882512,-0.7362429,-0.4562869,-0.4826089,-0.01862661
495.6931,0.04457673,-0.387522,-0.7430138,-0.4564438,-0.4821499,-0.01864853
495.7083,0.04458102,-0.3868015,-0.7495045,-0.4566274,-0.481571,-0.01867033
495.7232,0.04458524,-0.3860896,-0.7557251,-0.4568193,-0.4809691,-0.01869176
495.7378,0.04458524,-0.3860896,-0.7557251,-0.4568193,-0.4809691,-0.01869176
495.7517,0.04458939,-0.3853861,-0.7617193,-0.4570109,-0.4803773,-0.01871275
495.7672,0.04459348,-0.3846911,-0.7674112,-0.4572496,-0.4795112,-0.01873468
495.782,0.0445975,-0.3840044,-0.7727289,-0.4575102,-0.4785507,-0.01875643
495.7965,0.0445975,-0.3840044,-0.7727289,-0.4575102,-0.4785507,-0.01875643
495.8103,0.04460146,-0.3833258,-0.7777119,-0.4577743,-0.4775896,-0.01877775
495.8278,0.04460536,-0.3826554,-0.7824253,-0.4580339,-0.4766575,-0.01879859
495.8417,0.04460919,-0.381993,-0.7868083,-0.4583369,-0.4754651,-0.01882033
495.8559,0.04460919,-0.381993,-0.7868083,-0.4583369,-0.4754651,-0.01882033
495.869,0.04461297,-0.3813384,-0.7907987,-0.4586586,-0.4741914,-0.01884187
495.8843,0.04461668,-0.3806917,-0.7944435,-0.4589811,-0.4729286,-0.01886297
495.8986,0.04461668,-0.3806917,-0.7944435,-0.4589811,-0.4729286,-0.01886297
495.9127,0.04462034,-0.3800527,-0.7976902,-0.4593471,-0.4714092,-0.01888494
495.9281,0.04462393,-0.3794213,-0.800492,-0.4597299,-0.4698204,-0.01890668
495.9425,0.04462747,-0.3787974,-0.8029109,-0.4601108,-0.4682562,-0.01892793
495.9568,0.04462747,-0.3787974,-0.8029109,-0.4601108,-0.4682562,-0.01892793
495.9709,0.04463095,-0.378181,-0.8050296,-0.4604823,-0.4667442,-0.01894864
495.9864,0.04463438,-0.377572,-0.8067986,-0.460892,-0.4649892,-0.01897021
496.0009,0.04463774,-0.3769702,-0.8081636,-0.4613157,-0.4631707,-0.01899155
496.0154,0.04463774,-0.3769702,-0.8081636,-0.4613157,-0.4631707,-0.01899155
496.0292,0.04464106,-0.3763756,-0.8091779,-0.461736,-0.4613807,-0.01901241
496.0445,0.04464432,-0.3757882,-0.8099176,-0.4621458,-0.4596464,-0.01903275
496.0593,0.04464432,-0.3757882,-0.8099176,-0.4621458,-0.4596464,-0.01903275
496.0731,0.04464753,-0.3752077,-0.8103264,-0.4625927,-0.4576704,-0.01905393
496.0885,0.04465069,-0.3746341,-0.8103447,-0.4630522,-0.4556347,-0.01907489
496.1033,0.04465379,-0.3740674,-0.8100232,-0.4635074,-0.4536324,-0.01909538
496.1174,0.04465379,-0.3740674,-0.8100232,-0.4635074,-0.4536324,-0.01909538
496.1337,0.04465684,-0.3735074,-0.8093106,-0.4640002,-0.4513883,-0.01911669
496.1479,0.04465984,-0.3729542,-0.8081592,-0.4645044,-0.4490944,-0.01913773
496.1615,0.0446628,-0.3724075,-0.8066335,-0.4650019,-0.4468458,-0.01915828
496.176,0.0446628,-0.3724075,-0.8066335,-0.4650019,-0.4468458,-0.01915828
496.1898,0.0446657,-0.3718674,-0.804819,-0.4654855,-0.44467,-0.01917826
496.205,0.04466856,-0.3713337,-0.8026655,-0.466002,-0.4422631,-0.01919903
496.2195,0.04466856,-0.3713337,-0.8026655,-0.466002,-0.4422631,-0.01919903
496.2336,0.04467137,-0.3708064,-0.8001161,-0.4665275,-0.4398103,-0.01921956
496.2487,0.04467413,-0.3702854,-0.7972262,-0.4670452,-0.4374053,-0.0192396
496.2635,0.04467685,-0.3697706,-0.7940738,-0.4675485,-0.4350754,-0.01925908
496.2778,0.04467685,-0.3697706,-0.7940738,-0.4675485,-0.4350754,-0.01925908
496.2918,0.04467952,-0.3692619,-0.7906017,-0.4680835,-0.4325136,-0.01927935
496.3072,0.04468215,-0.3687593,-0.7867473,-0.4686266,-0.4299086,-0.01929937
496.3219,0.04468473,-0.3682627,-0.7825633,-0.4691611,-0.4273555,-0.0193189
496.3366,0.04468473,-0.3682627,-0.7825633,-0.4691611,-0.4273555,-0.0193189
496.3507,0.04468727,-0.367772,-0.7779974,-0.469728,-0.4245698,-0.01933918
496.3661,0.04468976,-0.3672872,-0.7729997,-0.4703015,-0.4217504,-0.01935918
496.3808,0.04469221,-0.3668082,-0.767637,-0.4708645,-0.4189947,-0.01937866
496.3956,0.04469221,-0.3668082,-0.767637,-0.4708645,-0.4189947,-0.01937866
496.4094,0.04469462,-0.3663349,-0.7619976,-0.47141,-0.4163297,-0.01939756
496.4268,0.04469699,-0.3658673,-0.7560303,-0.4719836,-0.4134413,-0.01941717
496.4402,0.04469932,-0.3654053,-0.7496754,-0.4725617,-0.4105221,-0.01943653
496.4539,0.04469932,-0.3654053,-0.7496754,-0.4725617,-0.4105221,-0.01943653
496.4679,0.04470161,-0.3649487,-0.7429901,-0.4731284,-0.4076678,-0.01945536
496.4832,0.04470386,-0.3644976,-0.7360556,-0.4736775,-0.4049058,-0.01947363
496.5003,0.04470607,-0.3640519,-0.7287838,-0.4744711,-0.401961,-0.01949347
496.5122,0.04470607,-0.3640519,-0.7287838,-0.4744711,-0.401961,-0.01949347
496.5262,0.04470824,-0.3636115,-0.7211432,-0.4753919,-0.3989884,-0.01951266
496.5413,0.04471038,-0.3631764,-0.7131935,-0.4763562,-0.3960733,-0.01953119
496.5561,0.04471038,-0.3631764,-0.7131935,-0.4763562,-0.3960733,-0.01953119
496.57,0.04471248,-0.3627465,-0.7050102,-0.4773255,-0.3932427,-0.01954909
496.5854,0.04471454,-0.3623217,-0.6966606,-0.4782827,-0.3905012,-0.01956642
496.6,0.04471657,-0.361902,-0.688198,-0.4792208,-0.3878449,-0.0195832
496.6145,0.04471657,-0.361902,-0.688198,-0.4792208,-0.3878449,-0.0195832
496.6285,0.04471856,-0.3614873,-0.6796622,-0.4801375,-0.3852681,-0.0195995
496.6438,0.04472052,-0.3610775,-0.6710821,-0.4810323,-0.3827651,-0.01961532
496.6585,0.04472052,-0.3610775,-0.6710821,-0.4810323,-0.3827651,-0.01961532
496.6724,0.04472244,-0.3606727,-0.6624782,-0.4819055,-0.3803314,-0.0196307
496.6881,0.04472433,-0.3602726,-0.6538653,-0.482758,-0.377963,-0.01964566
496.7026,0.04472619,-0.3598774,-0.6452539,-0.4835903,-0.375657,-0.01966021
496.7183,0.04472619,-0.3598774,-0.6452539,-0.4835903,-0.375657,-0.01966021
496.7323,0.04472801,-0.3594869,-0.6366515,-0.4844031,-0.373411,-0.01967437
496.7466,0.0447298,-0.359101,-0.6280634,-0.485197,-0.3712232,-0.01968815
496.7611,0.04473156,-0.3587198,-0.6194939,-0.4859726,-0.3690919,-0.01970156
496.7755,0.04473156,-0.3587198,-0.6194939,-0.4859726,-0.3690919,-0.01970156
496.79,0.04473329,-0.3583431,-0.610946,-0.4867304,-0.3670157,-0.01971461
496.805,0.04473499,-0.3579709,-0.6024221,-0.4874708,-0.3649936,-0.01972731
