JMolnar6/NonAnthroHands_User_Study/HandsLoggerWithURDF/tempdata/files/Reachy_JointMotion_gesture_4_18.csv
Time,r_shoulder,r_shoulder_x,r_upper_arm,r_forearm,r_wrist,r_wrist2hand,
368.4575,0.04496142,0.000554182,NaN,-0.3269986,0.0003126876,NaN,0.1530729,-14.17943,NaN,-1.602845,-1.460534,-0.91486,14.13329,NaN,NaN,0.7298183,0.8042904,-0.6691797,1.017843,0.5283527,1.429746
368.4716,0.0449614,0.0005542784,NaN,-0.3269986,0.0003126037,NaN,0.1530042,-14.18055,NaN,-1.602815,-1.468641,-0.9151282,14.14183,NaN,NaN,0.7297946,0.8032061,-0.6692258,1.029537,0.5283071,1.437905
368.4879,0.04496142,0.0005546749,NaN,-0.3269986,0.0003132917,NaN,0.1533006,-14.17964,NaN,-1.602532,-1.459979,-0.9137776,14.13275,NaN,NaN,0.7291282,0.8041291,-0.6683171,1.017063,0.52863,1.431408
368.5023,0.04496148,0.0005546538,NaN,-0.3269986,0.0003132812,NaN,0.1536413,-14.17974,NaN,-1.602538,-1.466157,-0.9124706,14.13917,NaN,NaN,0.7295221,0.804045,-0.6680627,1.025966,0.5349025,1.432711
368.5172,0.04496148,0.0005546538,NaN,-0.3269986,0.0003132812,NaN,0.1536413,-14.17974,NaN,-1.602538,-1.466157,-0.9124706,14.13917,NaN,NaN,0.7295221,0.804045,-0.6680627,1.025966,0.5349025,1.432711
368.5316,0.04496153,0.0005544691,NaN,-0.3269986,0.0003136704,NaN,0.1540329,-14.17948,NaN,-1.602747,-1.459598,-0.9110234,14.13232,NaN,NaN,0.7297343,0.8043048,-0.6676764,1.016509,0.5336753,1.4292
368.5474,0.04496159,0.0005545712,NaN,-0.3269987,0.0003139469,NaN,0.154324,-14.18015,NaN,-1.602898,-1.462927,-0.9094636,14.13585,NaN,NaN,0.730031,0.803645,-0.6671258,1.021308,0.5371349,1.43403
368.5626,0.0449616,0.0005543733,NaN,-0.3269987,0.0003135933,NaN,0.1540985,-14.18012,NaN,-1.603209,-1.469349,-0.9092557,14.1425,NaN,NaN,0.7307242,0.8036762,-0.6670637,1.030558,0.5380892,1.434932
368.5775,0.0449616,0.0005543733,NaN,-0.3269987,0.0003135933,NaN,0.1540985,-14.18012,NaN,-1.603209,-1.469349,-0.9092557,14.1425,NaN,NaN,0.7307242,0.8036762,-0.6670637,1.030558,0.5380892,1.434932
368.5921,0.04496159,0.0005544799,NaN,-0.3269987,0.0003141261,NaN,0.1540354,-14.17952,NaN,-1.603314,-1.459949,-0.9094554,14.13268,NaN,NaN,0.7309507,0.8043115,-0.6670973,1.017017,0.5417275,1.430327
368.6078,0.04496158,0.0005541851,NaN,-0.3269987,0.0003144782,NaN,0.153935,-14.17927,NaN,-1.603308,-1.45829,-0.9096739,14.13092,NaN,NaN,0.730989,0.8045465,-0.6670153,1.01462,0.5306696,1.427009
368.6228,0.04496156,0.0005543868,NaN,-0.3269987,0.0003143641,NaN,0.1538983,-14.18002,NaN,-1.603095,-1.468709,-0.9098587,14.14183,NaN,NaN,0.7308252,0.8038641,-0.6668204,1.029649,0.5296472,1.436033
368.6388,0.04496156,0.0005543868,NaN,-0.3269987,0.0003143641,NaN,0.1538983,-14.18002,NaN,-1.603095,-1.468709,-0.9098587,14.14183,NaN,NaN,0.7308252,0.8038641,-0.6668204,1.029649,0.5296472,1.436033
368.6522,0.04496151,0.0005549235,NaN,-0.3269987,0.0003151599,NaN,0.1533871,-14.17917,NaN,-1.603465,-1.459633,-0.9118181,14.13231,NaN,NaN,0.7316148,0.8047245,-0.6678606,1.016568,0.528334,1.428708
368.6676,0.04496146,0.0005549026,NaN,-0.3269987,0.000315534,NaN,0.1527641,-14.17874,NaN,-1.603461,-1.459046,-0.9140509,14.13164,NaN,NaN,0.7325843,0.8051301,-0.6690682,1.015713,0.5257075,1.425262
368.6828,0.0449614,0.0005542977,NaN,-0.3269987,0.0003156787,NaN,0.1519818,-14.17861,NaN,-1.603468,-1.458387,-0.9162537,14.13093,NaN,NaN,0.733703,0.8052394,-0.6703387,1.014757,0.5302995,1.424421
368.6978,0.0449614,0.0005542977,NaN,-0.3269987,0.0003156787,NaN,0.1519818,-14.17861,NaN,-1.603468,-1.458387,-0.9162537,14.13093,NaN,NaN,0.733703,0.8052394,-0.6703387,1.014757,0.5302995,1.424421
368.7122,0.04496131,0.0005537751,NaN,-0.3269987,0.0003152773,NaN,0.1506305,-14.18004,NaN,-1.603635,-1.468765,-0.9200136,14.14189,NaN,NaN,0.7358313,0.803877,-0.6726187,1.029744,0.5351972,1.43569
368.7278,0.0449612,0.0005541695,NaN,-0.3269987,0.0003160239,NaN,0.1482671,-14.17928,NaN,-1.603468,-1.460183,-0.9233747,14.13289,NaN,NaN,0.7385272,0.8046511,-0.6742906,1.017372,0.544193,1.429417
368.743,0.04496108,0.0005538569,NaN,-0.3269987,0.0003158765,NaN,0.1457047,-14.17925,NaN,-1.603193,-1.465485,-0.9263539,14.13839,NaN,NaN,0.7405859,0.8046818,-0.6754452,1.025016,0.5500836,1.431136
368.7581,0.04496108,0.0005538569,NaN,-0.3269987,0.0003158765,NaN,0.1457047,-14.17925,NaN,-1.603193,-1.465485,-0.9263539,14.13839,NaN,NaN,0.7405859,0.8046818,-0.6754452,1.025016,0.5500836,1.431136
368.7726,0.04496094,0.0005540437,NaN,-0.3269987,0.0003162808,NaN,0.1448061,-14.17953,NaN,-1.603136,-1.462254,-0.9305282,14.13505,NaN,NaN,0.7411556,0.804387,-0.6778991,1.02035,0.5488113,1.431215
368.7883,0.04496078,0.0005538653,NaN,-0.3269987,0.000316336,NaN,0.1435555,-14.17947,NaN,-1.603126,-1.463318,-0.936596,14.13614,NaN,NaN,0.7426141,0.8044285,-0.6814643,1.021881,0.5458009,1.431272
368.8046,0.04496062,0.0005536136,NaN,-0.3269987,0.0003164519,NaN,0.142879,-14.17937,NaN,-1.603292,-1.462516,-0.9438216,14.13529,NaN,NaN,0.7440795,0.80452,-0.6863287,1.020721,0.5331358,1.430303
368.8182,0.04496062,0.0005536136,NaN,-0.3269987,0.0003164519,NaN,0.142879,-14.17937,NaN,-1.603292,-1.462516,-0.9438216,14.13529,NaN,NaN,0.7440795,0.80452,-0.6863287,1.020721,0.5331358,1.430303
368.8335,0.04496045,0.0005538207,NaN,-0.3269987,0.0003170113,NaN,0.1417337,-14.17925,NaN,-1.603377,-1.459702,-0.9507888,14.13234,NaN,NaN,0.7457716,0.8046182,-0.6908529,1.01666,0.5142643,1.428739
368.8482,0.04496028,0.0005542924,NaN,-0.3269987,0.0003177853,NaN,0.1372295,-14.17916,NaN,-1.602534,-1.458029,-0.9550915,14.13058,NaN,NaN,0.7493331,0.8046854,-0.6921468,1.014242,0.522902,1.428197
368.8633,0.0449601,0.0005544908,NaN,-0.3269987,0.000317644,NaN,0.1328712,-14.18039,NaN,-1.601693,-1.468891,-0.9596919,14.14201,NaN,NaN,0.7527497,0.8035223,-0.6940486,1.029918,0.537904,1.438473
368.8782,0.0449601,0.0005544908,NaN,-0.3269987,0.000317644,NaN,0.1328712,-14.18039,NaN,-1.601693,-1.468891,-0.9596919,14.14201,NaN,NaN,0.7527497,0.8035223,-0.6940486,1.029918,0.537904,1.438473
368.8926,0.04495993,0.0005544962,NaN,-0.3269987,0.0003179891,NaN,0.12854,-14.17896,NaN,-1.600841,-1.460972,-0.9643763,14.13364,NaN,NaN,0.7560533,0.8049709,-0.6961592,1.018512,0.5471453,1.427499
368.9083,0.04495975,0.0005550912,NaN,-0.3269987,0.0003179993,NaN,0.124304,-14.17945,NaN,-1.599995,-1.468803,-0.969227,14.14183,NaN,NaN,0.7592455,0.8045008,-0.6985224,1.029809,0.5605702,1.43437
368.9235,0.04495957,0.0005554531,NaN,-0.3269988,0.0003185483,NaN,0.120074,-14.17911,NaN,-1.599134,-1.459421,-0.9741527,14.13203,NaN,NaN,0.7623525,0.8048602,-0.7009785,1.016275,0.5704051,1.427247
368.9387,0.04495957,0.0005554531,NaN,-0.3269988,0.0003185483,NaN,0.120074,-14.17911,NaN,-1.599134,-1.459421,-0.9741527,14.13203,NaN,NaN,0.7623525,0.8048602,-0.7009785,1.016275,0.5704051,1.427247
368.953,0.04495937,0.0005554949,NaN,-0.3269988,0.000318672,NaN,0.1170691,-14.1798,NaN,-1.59853,-1.463565,-0.979671,14.13641,NaN,NaN,0.7635232,0.804172,-0.7037941,1.022251,0.5761156,1.43211
368.9686,0.04495915,0.0005551197,NaN,-0.3269988,0.0003181354,NaN,0.1158052,-14.1795,NaN,-1.598118,-1.46989,-0.986603,14.14293,NaN,NaN,0.7631679,0.8044597,-0.7077491,1.031365,0.5736201,1.432735
368.9838,0.04495893,0.0005549443,NaN,-0.3269988,0.0003185594,NaN,0.1148298,-14.17932,NaN,-1.597672,-1.45931,-0.9938912,14.13191,NaN,NaN,0.7624072,0.8046833,-0.7116978,1.016104,0.5717795,1.428279
368.9985,0.04495893,0.0005549443,NaN,-0.3269988,0.0003185594,NaN,0.1148298,-14.17932,NaN,-1.597672,-1.45931,-0.9938912,14.13191,NaN,NaN,0.7624072,0.8046833,-0.7116978,1.016104,0.5717795,1.428279
369.015,0.04495871,0.0005548607,NaN,-0.3269988,0.0003185121,NaN,0.1139209,-14.1805,NaN,-1.59721,-1.467046,-1.001306,14.14008,NaN,NaN,0.7614041,0.80353,-0.7155744,1.027265,0.5693289,1.437824
369.0286,0.04495849,0.0005553304,NaN,-0.3269988,0.0003185291,NaN,0.1130418,-14.18039,NaN,-1.596677,-1.469426,-1.00875,14.14252,NaN,NaN,0.7602143,0.803623,-0.7193783,1.030689,0.5672852,1.438758
369.0436,0.04495827,0.0005551619,NaN,-0.3269988,0.0003186649,NaN,0.1121873,-14.17912,NaN,-1.596133,-1.460067,-1.016236,14.13268,NaN,NaN,0.7589033,0.8049154,-0.7232018,1.017211,0.5653057,1.429093
369.0588,0.04495827,0.0005551619,NaN,-0.3269988,0.0003186649,NaN,0.1121873,-14.17912,NaN,-1.596133,-1.460067,-1.016236,14.13268,NaN,NaN,0.7589033,0.8049154,-0.7232018,1.017211,0.5653057,1.429093
369.0736,0.04495804,0.0005554747,NaN,-0.3269988,0.0003185121,NaN,0.1113737,-14.17998,NaN,-1.595568,-1.468621,-1.023742,14.14167,NaN,NaN,0.7574718,0.8040947,-0.7270565,1.029556,0.5633295,1.437328
369.0891,0.04495782,0.0005551967,NaN,-0.3269988,0.0003184643,NaN,0.1105964,-14.17936,NaN,-1.59499,-1.461273,-1.03126,14.13396,NaN,NaN,0.7559397,0.8047097,-0.7309523,1.018956,0.5612845,1.430403
369.1042,0.0449576,0.0005548596,NaN,-0.3269988,0.0003186221,NaN,0.109851,-14.17897,NaN,-1.594411,-1.460599,-1.038798,14.1332,NaN,NaN,0.7543297,0.8050658,-0.7349049,1.017974,0.5592029,1.42757
369.1193,0.0449576,0.0005548596,NaN,-0.3269988,0.0003186221,NaN,0.109851,-14.17897,NaN,-1.594411,-1.460599,-1.038798,14.1332,NaN,NaN,0.7543297,0.8050658,-0.7349049,1.017974,0.5592029,1.42757
369.1335,0.04495737,0.0005547703,NaN,-0.3269988,0.0003190052,NaN,0.1091415,-14.1792,NaN,-1.593832,-1.460304,-1.046344,14.13291,NaN,NaN,0.752637,0.8048199,-0.7389108,1.017543,0.5569385,1.428483
369.1493,0.04495719,0.0005550958,NaN,-0.3269988,0.00031889,NaN,0.1059613,-14.1801,NaN,-1.592556,-1.469688,-1.052692,14.14275,NaN,NaN,0.753858,0.8039461,-0.7421067,1.03108,0.5654029,1.437411
369.1644,0.04495698,0.0005551955,NaN,-0.3269988,0.0003192734,NaN,0.1048142,-14.17904,NaN,-1.592216,-1.460182,-1.060175,14.13277,NaN,NaN,0.7528374,0.8050254,-0.7469488,1.017382,0.5630893,1.427528
369.1794,0.04495698,0.0005551955,NaN,-0.3269988,0.0003192734,NaN,0.1048142,-14.17904,NaN,-1.592216,-1.460182,-1.060175,14.13277,NaN,NaN,0.7528374,0.8050254,-0.7469488,1.017382,0.5630893,1.427528
369.1958,0.04495677,0.0005554977,NaN,-0.3269988,0.0003191172,NaN,0.1042112,-14.17958,NaN,-1.591745,-1.469132,-1.067919,14.14213,NaN,NaN,0.7511265,0.8045136,-0.7518286,1.030292,0.5597141,1.433448
369.2094,0.04495655,0.0005557515,NaN,-0.3269988,0.0003195714,NaN,0.1036416,-14.17923,NaN,-1.591226,-1.460376,-1.075695,14.13298,NaN,NaN,0.7492734,0.8048784,-0.7566209,1.017656,0.5574037,1.428375
369.2247,0.04495633,0.0005557603,NaN,-0.3269988,0.0003197682,NaN,0.1031165,-14.17955,NaN,-1.590723,-1.462209,-1.083497,14.1349,NaN,NaN,0.7472991,0.8045482,-0.7614233,1.020292,0.5551308,1.430405
369.2397,0.04495633,0.0005557603,NaN,-0.3269988,0.0003197682,NaN,0.1031165,-14.17955,NaN,-1.590723,-1.462209,-1.083497,14.1349,NaN,NaN,0.7472991,0.8045482,-0.7614233,1.020292,0.5551308,1.430405
369.2542,0.04495611,0.0005559881,NaN,-0.3269988,0.0003196814,NaN,0.1026375,-14.18036,NaN,-1.59019,-1.468614,-1.091273,14.14163,NaN,NaN,0.7452039,0.8037363,-0.7662046,1.029525,0.5532414,1.438226
369.2718,0.04495589,0.0005564646,NaN,-0.3269987,0.0003196504,NaN,0.1021935,-14.18037,NaN,-1.589667,-1.469688,-1.099032,14.14273,NaN,NaN,0.7430258,0.8037053,-0.771008,1.031065,0.5516036,1.438724
369.2849,0.04495567,0.0005566663,NaN,-0.3269987,0.0003200327,NaN,0.1017948,-14.1788,NaN,-1.589138,-1.460682,-1.106759,14.13322,NaN,NaN,0.7407606,0.8052894,-0.7758241,1.018092,0.5502632,1.427939
369.3,0.04495567,0.0005566663,NaN,-0.3269987,0.0003200327,NaN,0.1017948,-14.1788,NaN,-1.589138,-1.460682,-1.106759,14.13322,NaN,NaN,0.7407606,0.8052894,-0.7758241,1.018092,0.5502632,1.427939
369.3144,0.04495545,0.0005562155,NaN,-0.3269987,0.000319431,NaN,0.1014403,-14.17826,NaN,-1.588616,-1.469355,-1.114447,14.14217,NaN,NaN,0.7384137,0.8058532,-0.7806562,1.030599,0.5490909,1.429962
369.3302,0.04495523,0.0005557991,NaN,-0.3269987,0.0003188931,NaN,0.10113,-14.18051,NaN,-1.588099,-1.468865,-1.122096,14.14187,NaN,NaN,0.7359931,0.8035745,-0.7855027,1.029875,0.5482275,1.437651
369.3451,0.04495501,0.000555394,NaN,-0.3269986,0.0003189639,NaN,0.1008634,-14.17922,NaN,-1.587592,-1.460744,-1.129692,14.13332,NaN,NaN,0.7334999,0.8048593,-0.7903584,1.018184,0.5475802,1.428069
369.3603,0.04495485,0.0005558038,NaN,-0.3269986,0.0003187748,NaN,0.09837357,-14.17998,NaN,-1.586377,-1.470748,-1.13652,14.1438,NaN,NaN,0.7340022,0.8041147,-0.7951455,1.032619,0.5570253,1.435465
369.3752,0.04495485,0.0005558038,NaN,-0.3269986,0.0003187748,NaN,0.09837357,-14.17998,NaN,-1.586377,-1.470748,-1.13652,14.1438,NaN,NaN,0.7340022,0.8041147,-0.7951455,1.032619,0.5570253,1.435465
369.3907,0.04495465,0.0005555699,NaN,-0.3269986,0.000318786,NaN,0.09702627,-14.17923,NaN,-1.586049,-1.460561,-1.143774,14.13315,NaN,NaN,0.7329197,0.8049062,-0.8008273,1.01794,0.5542629,1.42892
369.4054,0.04495445,0.0005550333,NaN,-0.3269986,0.0003187525,NaN,0.0972137,-14.17914,NaN,-1.585846,-1.461277,-1.151828,14.13388,NaN,NaN,0.7303525,0.8049871,-0.8072058,1.018974,0.5512781,1.428095
369.4204,0.04495425,0.0005547319,NaN,-0.3269986,0.0003189112,NaN,0.09690838,-14.17969,NaN,-1.58515,-1.462234,-1.158315,14.13493,NaN,NaN,0.7280119,0.8044302,-0.809581,1.020357,0.5496829,1.430456
369.4354,0.04495425,0.0005547319,NaN,-0.3269986,0.0003189112,NaN,0.09690838,-14.17969,NaN,-1.58515,-1.462234,-1.158315,14.13493,NaN,NaN,0.7280119,0.8044302,-0.809581,1.020357,0.5496829,1.430456
369.4496,0.04495407,0.0005549631,NaN,-0.3269986,0.000318734,NaN,0.09598181,-14.17993,NaN,-1.584166,-1.470072,-1.164139,14.14309,NaN,NaN,0.7263275,0.8041987,-0.8100409,1.031659,0.5484164,1.435859
369.4655,0.04495389,0.0005542385,NaN,-0.3269986,0.0003176357,NaN,0.09460077,-14.17993,NaN,-1.583053,-1.462727,-1.169742,14.13546,NaN,NaN,0.7252285,0.804222,-0.8097571,1.02107,0.5468519,1.431573
369.4805,0.04495372,0.0005533235,NaN,-0.3269986,0.0003165157,NaN,0.09311251,-14.17965,NaN,-1.581962,-1.464566,-1.175424,14.13734,NaN,NaN,0.7243443,0.8044814,-0.8096094,1.023722,0.5449757,1.431217
369.4957,0.04495372,0.0005533235,NaN,-0.3269986,0.0003165157,NaN,0.09311251,-14.17965,NaN,-1.581962,-1.464566,-1.175424,14.13734,NaN,NaN,0.7243443,0.8044814,-0.8096094,1.023722,0.5449757,1.431217
369.5099,0.04495355,0.0005528692,NaN,-0.3269986,0.0003155063,NaN,0.09172439,-14.17997,NaN,-1.580933,-1.469958,-1.181248,14.14297,NaN,NaN,0.7234464,0.8041468,-0.8098096,1.031498,0.543017,1.433603
369.5258,0.04495339,0.000553348,NaN,-0.3269986,0.0003157382,NaN,0.09041546,-14.18004,NaN,-1.579937,-1.464179,-1.18712,14.13696,NaN,NaN,0.7225477,0.8040875,-0.810185,1.02316,0.5411476,1.433575
369.541,0.04495323,0.0005538438,NaN,-0.3269986,0.0003161486,NaN,0.08912806,-14.17922,NaN,-1.578937,-1.462916,-1.192955,14.13555,NaN,NaN,0.7216952,0.804872,-0.8105428,1.021334,0.5393172,1.428085
369.5558,0.04495323,0.0005538438,NaN,-0.3269986,0.0003161486,NaN,0.08912806,-14.17922,NaN,-1.578937,-1.462916,-1.192955,14.13555,NaN,NaN,0.7216952,0.804872,-0.8105428,1.021334,0.5393172,1.428085
369.5711,0.04495311,0.0005542901,NaN,-0.3269986,0.0003160152,NaN,0.0864338,-14.18007,NaN,-1.577458,-1.470277,-1.19836,14.14329,NaN,NaN,0.7228692,0.8040257,-0.8109117,1.031952,0.5438871,1.437153
369.5858,0.04495297,0.0005549099,NaN,-0.3269986,0.0003167814,NaN,0.08442608,-14.17937,NaN,-1.576573,-1.460661,-1.204056,14.13322,NaN,NaN,0.7231933,0.8047544,-0.811804,1.018089,0.5392259,1.428881
369.6007,0.04495283,0.0005554,NaN,-0.3269986,0.0003167386,NaN,0.08299049,-14.18019,NaN,-1.575666,-1.469268,-1.209834,14.14225,NaN,NaN,0.722827,0.8039526,-0.812336,1.030504,0.5382501,1.437135
369.6159,0.04495283,0.0005554,NaN,-0.3269986,0.0003167386,NaN,0.08299049,-14.18019,NaN,-1.575666,-1.469268,-1.209834,14.14225,NaN,NaN,0.722827,0.8039526,-0.812336,1.030504,0.5382501,1.437135
369.6302,0.04495269,0.0005549286,NaN,-0.3269986,0.0003157957,NaN,0.081751,-14.17982,NaN,-1.574681,-1.461072,-1.215717,14.13369,NaN,NaN,0.7223421,0.804322,-0.8126494,1.018686,0.5356562,1.429576
369.646,0.04495256,0.0005548325,NaN,-0.3269986,0.0003151431,NaN,0.08020937,-14.18073,NaN,-1.573617,-1.467805,-1.22142,14.14077,NaN,NaN,0.7220852,0.8034183,-0.8125831,1.02839,0.5343945,1.437788
369.6609,0.04495243,0.0005546893,NaN,-0.3269986,0.0003151134,NaN,0.07871372,-14.17952,NaN,-1.572552,-1.461128,-1.227192,14.13371,NaN,NaN,0.7217817,0.8046126,-0.8126318,1.018768,0.5330883,1.429124
369.6762,0.04495243,0.0005546893,NaN,-0.3269986,0.0003151134,NaN,0.07871372,-14.17952,NaN,-1.572552,-1.461128,-1.227192,14.13371,NaN,NaN,0.7217817,0.8046126,-0.8126318,1.018768,0.5330883,1.429124
369.6905,0.0449523,0.0005548656,NaN,-0.3269986,0.0003148019,NaN,0.07724295,-14.18044,NaN,-1.571496,-1.469666,-1.232997,14.14267,NaN,NaN,0.7214352,0.8037,-0.8127909,1.031077,0.5318625,1.437976
369.7062,0.04495217,0.0005553111,NaN,-0.3269986,0.0003153595,NaN,0.07582363,-14.18007,NaN,-1.570437,-1.46117,-1.238807,14.1338,NaN,NaN,0.721022,0.8040826,-0.8130057,1.018824,0.5306813,1.432634
369.7214,0.04495205,0.0005554231,NaN,-0.3269986,0.000315625,NaN,0.07444049,-14.17967,NaN,-1.569369,-1.46191,-1.244606,14.1345,NaN,NaN,0.7205666,0.8044603,-0.8132291,1.019878,0.5295455,1.430565
369.7375,0.04495205,0.0005554231,NaN,-0.3269986,0.000315625,NaN,0.07444049,-14.17967,NaN,-1.569369,-1.46191,-1.244606,14.1345,NaN,NaN,0.7205666,0.8044603,-0.8132291,1.019878,0.5295455,1.430565
369.7505,0.04495194,0.000556031,NaN,-0.3269986,0.000315598,NaN,0.07186927,-14.18054,NaN,-1.567892,-1.469969,-1.249916,14.14295,NaN,NaN,0.7215298,0.8035874,-0.8132206,1.031494,0.5345808,1.437942
369.7663,0.04495183,0.0005565631,NaN,-0.3269987,0.0003153574,NaN,0.07014056,-14.18066,NaN,-1.566909,-1.471458,-1.255742,14.14449,NaN,NaN,0.7216394,0.8034283,-0.8140407,1.033631,0.5335827,1.439735
369.7812,0.04495171,0.000557,NaN,-0.3269987,0.0003158894,NaN,0.06873304,-14.17973,NaN,-1.565884,-1.461637,-1.261515,14.13421,NaN,NaN,0.721288,0.8043869,-0.8144668,1.019483,0.5329749,1.431664
369.7962,0.04495171,0.000557,NaN,-0.3269987,0.0003158894,NaN,0.06873304,-14.17973,NaN,-1.565884,-1.461637,-1.261515,14.13421,NaN,NaN,0.721288,0.8043869,-0.8144668,1.019483,0.5329749,1.431664
369.8107,0.0449516,0.0005571811,NaN,-0.3269987,0.0003156557,NaN,0.06759328,-14.18064,NaN,-1.564833,-1.470474,-1.267412,14.14347,NaN,NaN,0.7206669,0.8034923,-0.8147823,1.032222,0.5293148,1.438086
369.8262,0.04495149,0.0005568425,NaN,-0.3269987,0.0003155551,NaN,0.06621157,-14.17994,NaN,-1.563699,-1.462495,-1.273155,14.13511,NaN,NaN,0.7202391,0.8042073,-0.8148062,1.020724,0.5270206,1.434076
369.8414,0.04495139,0.0005563025,NaN,-0.3269987,0.0003154424,NaN,0.06484334,-14.17925,NaN,-1.56256,-1.462341,-1.278919,14.13487,NaN,NaN,0.7197946,0.8048773,-0.8148903,1.020498,0.5248132,1.429469
369.8566,0.04495139,0.0005563025,NaN,-0.3269987,0.0003154424,NaN,0.06484334,-14.17925,NaN,-1.56256,-1.462341,-1.278919,14.13487,NaN,NaN,0.7197946,0.8048773,-0.8148903,1.020498,0.5248132,1.429469
369.8709,0.04495129,0.0005558519,NaN,-0.3269987,0.0003149917,NaN,0.06349907,-14.18065,NaN,-1.561428,-1.46892,-1.284686,14.14186,NaN,NaN,0.7193143,0.8034863,-0.8150542,1.02999,0.5226738,1.436681
369.8865,0.04495119,0.0005561505,NaN,-0.3269987,0.0003156316,NaN,0.06219754,-14.18011,NaN,-1.560303,-1.46047,-1.290446,14.13303,NaN,NaN,0.7187793,0.8040438,-0.8152614,1.017816,0.520543,1.434677
369.9014,0.04495109,0.0005563664,NaN,-0.3269988,0.0003161381,NaN,0.06093508,-14.1803,NaN,-1.559174,-1.459315,-1.296174,14.13185,NaN,NaN,0.7181974,0.8038343,-0.8154674,1.01615,0.5184258,1.432869
369.9167,0.04495109,0.0005563664,NaN,-0.3269988,0.0003161381,NaN,0.06093508,-14.1803,NaN,-1.559174,-1.459315,-1.296174,14.13185,NaN,NaN,0.7181974,0.8038343,-0.8154674,1.01615,0.5184258,1.432869
369.9309,0.044951,0.0005568266,NaN,-0.3269988,0.0003167271,NaN,0.05880437,-14.1807,NaN,-1.557734,-1.460343,-1.301495,14.13295,NaN,NaN,0.718517,0.8034342,-0.8154299,1.01763,0.5215905,1.437633
369.9475,0.04495091,0.0005570958,NaN,-0.3269988,0.0003170991,NaN,0.05746407,-14.18053,NaN,-1.556667,-1.46121,-1.307305,14.13382,NaN,NaN,0.718107,0.8035892,-0.8161577,1.018875,0.520143,1.434161
369.962,0.04495082,0.0005575603,NaN,-0.3269989,0.000316985,NaN,0.0562444,-14.18078,NaN,-1.555563,-1.469879,-1.312989,14.14283,NaN,NaN,0.7174938,0.8033669,-0.8165346,1.031363,0.5184275,1.439419
369.9766,0.04495082,0.0005575603,NaN,-0.3269989,0.000316985,NaN,0.0562444,-14.18078,NaN,-1.555563,-1.469879,-1.312989,14.14283,NaN,NaN,0.7174938,0.8033669,-0.8165346,1.031363,0.5184275,1.439419
369.9911,0.04495073,0.0005579003,NaN,-0.3269989,0.0003171706,NaN,0.05505973,-14.18073,NaN,-1.554423,-1.465311,-1.318605,14.13808,NaN,NaN,0.7168285,0.8034236,-0.8166758,1.02478,0.5166221,1.43531
370.0068,0.04495065,0.000557839,NaN,-0.3269989,0.0003170278,NaN,0.05407306,-14.18021,NaN,-1.553282,-1.466727,-1.324333,14.13948,NaN,NaN,0.7160407,0.8039213,-0.8169272,1.026817,0.5135125,1.43546
370.022,0.04495057,0.0005582956,NaN,-0.3269989,0.000317113,NaN,0.05284041,-14.18138,NaN,-1.5521,-1.468117,-1.329891,14.14103,NaN,NaN,0.715471,0.8027402,-0.8170195,1.028813,0.511573,1.442205
370.0368,0.04495057,0.0005582956,NaN,-0.3269989,0.000317113,NaN,0.05284041,-14.18138,NaN,-1.5521,-1.468117,-1.329891,14.14103,NaN,NaN,0.715471,0.8027402,-0.8170195,1.028813,0.511573,1.442205
370.0514,0.0449505,0.0005588973,NaN,-0.326999,0.0003177626,NaN,0.05166414,-14.18009,NaN,-1.550932,-1.461842,-1.335436,14.1344,NaN,NaN,0.7148361,0.8040369,-0.8171594,1.019783,0.5095311,1.434281
370.067,0.04495042,0.0005592915,NaN,-0.326999,0.0003176827,NaN,0.05053176,-14.18054,NaN,-1.549774,-1.468885,-1.340955,14.14175,NaN,NaN,0.7141503,0.8036082,-0.8173295,1.029934,0.5074998,1.436682
370.0821,0.04495035,0.0005598995,NaN,-0.326999,0.0003183921,NaN,0.04942893,-14.1804,NaN,-1.54863,-1.460742,-1.346443,14.13327,NaN,NaN,0.713432,0.8037559,-0.817511,1.018195,0.5055037,1.434634
370.0971,0.04495035,0.0005598995,NaN,-0.326999,0.0003183921,NaN,0.04942893,-14.1804,NaN,-1.54863,-1.460742,-1.346443,14.13327,NaN,NaN,0.713432,0.8037559,-0.817511,1.018195,0.5055037,1.434634
370.1115,0.04495028,0.0005601461,NaN,-0.3269991,0.0003184902,NaN,0.04779722,-14.18011,NaN,-1.547323,-1.465164,-1.351611,14.13782,NaN,NaN,0.71303,0.8040414,-0.8174269,1.02456,0.5066949,1.433151
370.1273,0.04495021,0.0005604125,NaN,-0.3269991,0.0003188304,NaN,0.04689795,-14.18012,NaN,-1.546223,-1.462897,-1.357161,14.13545,NaN,NaN,0.7119246,0.8040144,-0.8178891,1.021287,0.5048906,1.434317
370.1424,0.04495014,0.0005608183,NaN,-0.3269991,0.0003193103,NaN,0.0459946,-14.18091,NaN,-1.54508,-1.461877,-1.362589,14.13447,NaN,NaN,0.7108239,0.8032089,-0.8181726,1.019815,0.5031392,1.43777
370.1572,0.04495014,0.0005608183,NaN,-0.3269991,0.0003193103,NaN,0.0459946,-14.18091,NaN,-1.54508,-1.461877,-1.362589,14.13447,NaN,NaN,0.7108239,0.8032089,-0.8181726,1.019815,0.5031392,1.43777
370.1717,0.04495008,0.0005611125,NaN,-0.3269992,0.0003191586,NaN,0.04507026,-14.18089,NaN,-1.543914,-1.469864,-1.367915,14.14273,NaN,NaN,0.7097826,0.803237,-0.8183461,1.031313,0.501353,1.439106
370.1871,0.04495002,0.0005613395,NaN,-0.3269992,0.0003196608,NaN,0.04412859,-14.18011,NaN,-1.542742,-1.460406,-1.373171,14.13284,NaN,NaN,0.7088084,0.8040491,-0.8184869,1.017694,0.4995805,1.432387
370.2038,0.04494996,0.0005613923,NaN,-0.3269992,0.000319387,NaN,0.04317755,-14.18072,NaN,-1.541602,-1.470055,-1.378386,14.14292,NaN,NaN,0.7078953,0.8034721,-0.818675,1.0316,0.4978505,1.437518
370.2171,0.04494996,0.0005613923,NaN,-0.3269992,0.000319387,NaN,0.04317755,-14.18072,NaN,-1.541602,-1.470055,-1.378386,14.14292,NaN,NaN,0.7078953,0.8034721,-0.818675,1.0316,0.4978505,1.437518
370.2314,0.04494991,0.0005614821,NaN,-0.3269992,0.0003197227,NaN,0.04260631,-14.17988,NaN,-1.54052,-1.462364,-1.383759,14.13485,NaN,NaN,0.7067428,0.804323,-0.8191292,1.020518,0.4947279,1.431997
370.2473,0.04494986,0.0005615247,NaN,-0.3269993,0.0003201707,NaN,0.04162754,-14.18034,NaN,-1.539366,-1.459793,-1.388833,14.13221,NaN,NaN,0.7060059,0.8038376,-0.8192886,1.016805,0.4932034,1.432739
370.2624,0.04494981,0.0005615329,NaN,-0.3269993,0.0003205463,NaN,0.04067077,-14.18065,NaN,-1.538238,-1.460184,-1.393835,14.13264,NaN,NaN,0.7052618,0.8035198,-0.8194229,1.017365,0.4916274,1.434043
370.2775,0.04494981,0.0005615329,NaN,-0.3269993,0.0003205463,NaN,0.04067077,-14.18065,NaN,-1.538238,-1.460184,-1.393835,14.13264,NaN,NaN,0.7052618,0.8035198,-0.8194229,1.017365,0.4916274,1.434043
370.292,0.04494976,0.0005619969,NaN,-0.3269993,0.0003204348,NaN,0.03962864,-14.18076,NaN,-1.537207,-1.469745,-1.398683,14.14255,NaN,NaN,0.7040294,0.8034382,-0.8192489,1.031133,0.4901431,1.439399
370.3076,0.0449497,0.0005629628,NaN,-0.3269994,0.000321319,NaN,0.03910505,-14.18099,NaN,-1.536067,-1.462132,-1.403668,14.13466,NaN,NaN,0.7022609,0.8032265,-0.8192238,1.020157,0.4876427,1.440399
370.3238,0.04494965,0.0005634241,NaN,-0.3269994,0.0003216023,NaN,0.03849236,-14.18041,NaN,-1.534911,-1.464209,-1.408646,14.13674,NaN,NaN,0.7007456,0.8037865,-0.8194566,1.023142,0.485987,1.433457
370.3377,0.04494965,0.0005634241,NaN,-0.3269994,0.0003216023,NaN,0.03849236,-14.18041,NaN,-1.534911,-1.464209,-1.408646,14.13674,NaN,NaN,0.7007456,0.8037865,-0.8194566,1.023142,0.485987,1.433457
370.352,0.04494961,0.0005639437,NaN,-0.3269994,0.0003216505,NaN,0.03781747,-14.18126,NaN,-1.533792,-1.468244,-1.413533,14.14101,NaN,NaN,0.6994416,0.8029247,-0.8198201,1.028954,0.4847187,1.440936
370.3676,0.04494958,0.0005645803,NaN,-0.3269995,0.0003223219,NaN,0.03715875,-14.18011,NaN,-1.53268,-1.461589,-1.418018,14.13399,NaN,NaN,0.6982528,0.804069,-0.8199424,1.019372,0.4834852,1.433821
370.3828,0.04494956,0.000564415,NaN,-0.3269995,0.0003225918,NaN,0.03643239,-14.1796,NaN,-1.53159,-1.45952,-1.422368,14.13177,NaN,NaN,0.6973316,0.8045568,-0.8200809,1.016384,0.4825557,1.429263
370.3977,0.04494956,0.000564415,NaN,-0.3269995,0.0003225918,NaN,0.03643239,-14.1796,NaN,-1.53159,-1.45952,-1.422368,14.13177,NaN,NaN,0.6973316,0.8045568,-0.8200809,1.016384,0.4825557,1.429263
370.4123,0.04494954,0.0005639776,NaN,-0.3269995,0.0003221373,NaN,0.03567455,-14.18091,NaN,-1.530552,-1.469146,-1.426655,14.14192,NaN,NaN,0.6966028,0.803295,-0.8202955,1.030273,0.4819935,1.438275
370.428,0.04494953,0.0005645313,NaN,-0.3269995,0.0003221733,NaN,0.03489264,-14.18071,NaN,-1.529539,-1.46964,-1.430858,14.1424,NaN,NaN,0.696006,0.8034802,-0.8204793,1.030979,0.4816518,1.438902
370.4435,0.04494955,0.0005648262,NaN,-0.3269996,0.0003217898,NaN,0.03453563,-14.1808,NaN,-1.528439,-1.470703,-1.432716,14.1435,NaN,NaN,0.6952602,0.8033627,-0.8190963,1.032505,0.4807471,1.437849
370.4582,0.04494955,0.0005648262,NaN,-0.3269996,0.0003217898,NaN,0.03453563,-14.1808,NaN,-1.528439,-1.470703,-1.432716,14.1435,NaN,NaN,0.6952602,0.8033627,-0.8190963,1.032505,0.4807471,1.437849
