JMolnar6/NonAnthroHands_User_Study/HandsLoggerWithURDF/tempdata/files/Reachy_JointMotion_gesture_9_43.csv
Time,r_shoulder,r_shoulder_x,r_upper_arm,r_forearm,r_wrist,r_wrist2hand,
632.6354,-0.0140821,-5.152969E-09,NaN,-0.9027796,-1.33425E-07,NaN,-1.560436,-4.000685E-07,NaN,-2.099933,1.889879E-05,0.375418,8.239215E-08,NaN,NaN,-0.09236746,-1.397047E-11,-3.825193E-08,-1.112708E-07,-1.848324E-08,-2.622604E-08
632.6556,-0.01408101,-5.152188E-09,NaN,-0.9028832,-1.33425E-07,NaN,-1.559943,-4.000586E-07,NaN,-2.100621,1.889927E-05,0.3767732,8.238376E-08,NaN,NaN,-0.09223786,-1.397047E-11,-4.406338E-08,-1.112708E-07,-1.371487E-08,-2.861022E-08
632.6708,-0.01407982,-5.151407E-09,NaN,-0.9030288,-1.33425E-07,NaN,-1.559538,-4.000488E-07,NaN,-2.101594,1.889975E-05,0.3783513,8.237546E-08,NaN,NaN,-0.09211123,-1.397047E-11,-3.735786E-08,-1.112708E-07,-1.609905E-08,-2.622604E-08
632.6832,-0.01407858,-5.150626E-09,NaN,-0.9031998,-1.334249E-07,NaN,-1.559252,-4.000391E-07,NaN,-2.102695,1.890023E-05,0.3798959,8.236726E-08,NaN,NaN,-0.091987,-1.862708E-11,-3.184443E-08,-1.112708E-07,-2.086743E-08,-2.861022E-08
632.6989,-0.01407858,-5.150626E-09,NaN,-0.9031998,-1.334249E-07,NaN,-1.559252,-4.000391E-07,NaN,-2.102695,1.890023E-05,0.3798959,8.236726E-08,NaN,NaN,-0.091987,-1.862708E-11,-3.184443E-08,-1.112708E-07,-2.086743E-08,-2.861022E-08
632.7138,-0.01407728,-5.149845E-09,NaN,-0.9033856,-1.334249E-07,NaN,-1.559036,-4.000295E-07,NaN,-2.10385,1.890071E-05,0.3813863,8.235914E-08,NaN,NaN,-0.09186511,-2.328369E-11,-2.819364E-08,-1.112708E-07,-2.801998E-08,-2.622604E-08
632.7303,-0.01407606,-5.149063E-09,NaN,-0.9035104,-1.334248E-07,NaN,-1.559373,-4.0002E-07,NaN,-2.104429,1.890119E-05,0.3814782,8.235111E-08,NaN,NaN,-0.09187479,-2.328369E-11,-2.059405E-08,-1.112708E-07,-2.56358E-08,-2.861022E-08
632.7463,-0.01407492,-5.148282E-09,NaN,-0.903597,-1.334248E-07,NaN,-1.559643,-4.000105E-07,NaN,-2.104722,1.890167E-05,0.3813076,8.234317E-08,NaN,NaN,-0.09188383,-2.328369E-11,-2.551144E-08,-1.112707E-07,-3.040417E-08,-2.622604E-08
632.762,-0.01407387,-5.147501E-09,NaN,-0.9036597,-1.334247E-07,NaN,-1.559803,-4.00004E-07,NaN,-2.104876,1.890215E-05,0.3811385,8.233814E-08,NaN,NaN,-0.09189276,-2.328369E-11,-2.953475E-08,-1.112707E-07,-3.040417E-08,-2.861022E-08
632.7778,-0.01407387,-5.147501E-09,NaN,-0.9036597,-1.334247E-07,NaN,-1.559803,-4.00004E-07,NaN,-2.104876,1.890215E-05,0.3811385,8.233814E-08,NaN,NaN,-0.09189276,-2.328369E-11,-2.953475E-08,-1.112707E-07,-3.040417E-08,-2.861022E-08
632.793,-0.01407285,-5.14672E-09,NaN,-0.9037073,-1.334247E-07,NaN,-1.559901,-3.999975E-07,NaN,-2.104963,1.890263E-05,0.3809953,8.233313E-08,NaN,NaN,-0.0919016,-2.328369E-11,-3.221696E-08,-1.112707E-07,-2.801998E-08,-2.622604E-08
632.8093,-0.01407199,-5.145939E-09,NaN,-0.903678,-1.334247E-07,NaN,-1.560486,-3.99991E-07,NaN,-2.104422,1.890311E-05,0.3795164,8.232815E-08,NaN,NaN,-0.09203957,-2.328369E-11,-2.89387E-08,-1.112707E-07,-3.517254E-08,-2.861022E-08
632.8251,-0.01407125,-5.145158E-09,NaN,-0.9036013,-1.334246E-07,NaN,-1.560969,-3.999846E-07,NaN,-2.103579,1.890359E-05,0.3778198,8.23232E-08,NaN,NaN,-0.09217443,-2.328369E-11,-3.713434E-08,-1.112707E-07,-3.994091E-08,-2.622604E-08
632.8406,-0.01407058,-5.144376E-09,NaN,-0.9034958,-1.334246E-07,NaN,-1.561323,-3.999781E-07,NaN,-2.102597,1.890407E-05,0.3761611,8.231827E-08,NaN,NaN,-0.09230676,-2.328369E-11,-4.421239E-08,-1.112707E-07,-3.517254E-08,-2.861022E-08
632.8565,-0.01407058,-5.144376E-09,NaN,-0.9034958,-1.334246E-07,NaN,-1.561323,-3.999781E-07,NaN,-2.102597,1.890407E-05,0.3761611,8.231827E-08,NaN,NaN,-0.09230676,-2.328369E-11,-4.421239E-08,-1.112707E-07,-3.517254E-08,-2.861022E-08
632.8715,-0.01406996,-5.143595E-09,NaN,-0.903373,-1.334245E-07,NaN,-1.5616,-3.999718E-07,NaN,-2.101557,1.890455E-05,0.3745603,8.231336E-08,NaN,NaN,-0.09243659,-2.328369E-11,-4.95023E-08,-1.112707E-07,-3.755673E-08,-2.622604E-08
632.888,-0.01406949,-5.142813E-09,NaN,-0.9031707,-1.334245E-07,NaN,-1.562355,-3.999654E-07,NaN,-2.099904,1.890504E-05,0.3716494,8.230848E-08,NaN,NaN,-0.09269319,-2.328369E-11,-4.890626E-08,-1.112707E-07,-3.517254E-08,-2.861022E-08
632.9039,-0.01406914,-5.142032E-09,NaN,-0.9029202,-1.334245E-07,NaN,-1.562993,-3.99959E-07,NaN,-2.097963,1.890552E-05,0.3685531,8.230362E-08,NaN,NaN,-0.09294438,-2.328369E-11,-5.933707E-08,-1.112707E-07,-3.755673E-08,-2.622604E-08
632.9193,-0.01406914,-5.142032E-09,NaN,-0.9029202,-1.334245E-07,NaN,-1.562993,-3.99959E-07,NaN,-2.097963,1.890552E-05,0.3685531,8.230362E-08,NaN,NaN,-0.09294438,-2.328369E-11,-5.933707E-08,-1.112707E-07,-3.755673E-08,-2.622604E-08
632.9345,-0.01406887,-5.14125E-09,NaN,-0.9026412,-1.334244E-07,NaN,-1.563495,-3.999527E-07,NaN,-2.095898,1.8906E-05,0.3655238,8.229878E-08,NaN,NaN,-0.09319075,-2.328369E-11,-6.805425E-08,-1.112707E-07,-3.040417E-08,-2.861022E-08
632.9506,-0.01406865,-5.140468E-09,NaN,-0.9023458,-1.334244E-07,NaN,-1.563913,-3.999464E-07,NaN,-2.09379,1.890648E-05,0.3625794,8.229397E-08,NaN,NaN,-0.09343241,-2.328369E-11,-7.453625E-08,-1.112707E-07,-2.801998E-08,-2.622604E-08
632.9664,-0.01406859,-5.139687E-09,NaN,-0.9019723,-1.334243E-07,NaN,-1.564794,-3.999401E-07,NaN,-2.091086,1.890696E-05,0.3583413,8.228918E-08,NaN,NaN,-0.09379865,-2.328369E-11,-7.550483E-08,-1.112707E-07,-2.56358E-08,-2.861022E-08
632.9822,-0.01406865,-5.138905E-09,NaN,-0.9015523,-1.334243E-07,NaN,-1.565548,-3.999338E-07,NaN,-2.088109,1.890744E-05,0.3539514,8.228441E-08,NaN,NaN,-0.09415736,-2.328369E-11,-8.653168E-08,-1.112707E-07,-2.325161E-08,-2.622604E-08
632.9977,-0.01406865,-5.138905E-09,NaN,-0.9015523,-1.334243E-07,NaN,-1.565548,-3.999338E-07,NaN,-2.088109,1.890744E-05,0.3539514,8.228441E-08,NaN,NaN,-0.09415736,-2.328369E-11,-8.653168E-08,-1.112707E-07,-2.325161E-08,-2.622604E-08
633.0128,-0.01406879,-5.138124E-09,NaN,-0.9011054,-1.334242E-07,NaN,-1.566157,-3.999276E-07,NaN,-2.085025,1.890792E-05,0.3496565,8.227966E-08,NaN,NaN,-0.09450916,-2.328369E-11,-9.673898E-08,-1.112707E-07,-1.848324E-08,-2.861022E-08
633.0292,-0.01406898,-5.137342E-09,NaN,-0.9006439,-1.334242E-07,NaN,-1.566676,-3.999214E-07,NaN,-2.081913,1.89084E-05,0.345471,8.227494E-08,NaN,NaN,-0.09485418,-2.328369E-11,-1.042641E-07,-1.112706E-07,-2.325161E-08,-2.622604E-08
633.0448,-0.01406933,-5.136561E-09,NaN,-0.9001063,-1.334242E-07,NaN,-1.567644,-3.999152E-07,NaN,-2.07822,1.890888E-05,0.3400013,8.227023E-08,NaN,NaN,-0.09532176,-2.328369E-11,-1.052326E-07,-1.112706E-07,-2.086743E-08,-2.861022E-08
633.0604,-0.0140698,-5.135779E-09,NaN,-0.899524,-1.334241E-07,NaN,-1.56847,-3.99909E-07,NaN,-2.074271,1.890936E-05,0.3344152,8.226555E-08,NaN,NaN,-0.09577987,-2.328369E-11,-1.177496E-07,-1.112706E-07,-1.609905E-08,-2.622604E-08
633.0759,-0.0140698,-5.135779E-09,NaN,-0.899524,-1.334241E-07,NaN,-1.56847,-3.99909E-07,NaN,-2.074271,1.890936E-05,0.3344152,8.226555E-08,NaN,NaN,-0.09577987,-2.328369E-11,-1.177496E-07,-1.112706E-07,-1.609905E-08,-2.622604E-08
633.0912,-0.01407036,-5.134997E-09,NaN,-0.8989168,-1.334241E-07,NaN,-1.569146,-3.999028E-07,NaN,-2.070229,1.890984E-05,0.3289511,8.226088E-08,NaN,NaN,-0.09622912,-2.328369E-11,-1.272119E-07,-1.112706E-07,-1.609905E-08,-2.861022E-08
633.1073,-0.01407097,-5.134215E-09,NaN,-0.898297,-1.33424E-07,NaN,-1.569728,-3.998967E-07,NaN,-2.066174,1.891032E-05,0.3236191,8.225624E-08,NaN,NaN,-0.09666968,-2.328369E-11,-1.360035E-07,-1.112706E-07,-1.133068E-08,-2.622604E-08
633.1232,-0.01407174,-5.133433E-09,NaN,-0.8976027,-1.33424E-07,NaN,-1.570741,-3.998906E-07,NaN,-2.061554,1.89108E-05,0.3170059,8.225161E-08,NaN,NaN,-0.09723095,-2.328369E-11,-1.375682E-07,-1.112706E-07,-1.609905E-08,-2.861022E-08
633.1389,-0.01407174,-5.133433E-09,NaN,-0.8976027,-1.33424E-07,NaN,-1.570741,-3.998906E-07,NaN,-2.061554,1.89108E-05,0.3170059,8.225161E-08,NaN,NaN,-0.09723095,-2.328369E-11,-1.375682E-07,-1.112706E-07,-1.609905E-08,-2.861022E-08
633.1538,-0.01407263,-5.132651E-09,NaN,-0.8968657,-1.334239E-07,NaN,-1.571459,-3.998845E-07,NaN,-2.056682,1.891128E-05,0.3101682,8.2247E-08,NaN,NaN,-0.09778065,-2.328369E-11,-1.582808E-07,-1.112706E-07,-1.371487E-08,-2.622604E-08
633.1718,-0.01407361,-5.131869E-09,NaN,-0.8961056,-1.334239E-07,NaN,-1.571726,-3.998784E-07,NaN,-2.051716,1.891176E-05,0.3033123,8.224241E-08,NaN,NaN,-0.0983194,-2.794031E-11,-1.858479E-07,-1.112706E-07,-1.371487E-08,-2.861022E-08
633.1859,-0.01407465,-5.131087E-09,NaN,-0.8953347,-1.334239E-07,NaN,-1.571624,-3.998723E-07,NaN,-2.046746,1.891224E-05,0.2966068,8.223784E-08,NaN,NaN,-0.09884769,-2.794031E-11,-2.12372E-07,-1.112706E-07,-1.133068E-08,-2.622604E-08
633.2015,-0.01407584,-5.130305E-09,NaN,-0.8944913,-1.334238E-07,NaN,-1.571813,-3.998663E-07,NaN,-2.041233,1.891271E-05,0.288719,8.223329E-08,NaN,NaN,-0.09949516,-1.862708E-11,-2.266026E-07,-1.112706E-07,-1.133068E-08,-2.861022E-08
633.2171,-0.01407584,-5.130305E-09,NaN,-0.8944913,-1.334238E-07,NaN,-1.571813,-3.998663E-07,NaN,-2.041233,1.891271E-05,0.288719,8.223329E-08,NaN,NaN,-0.09949516,-1.862708E-11,-2.266026E-07,-1.112706E-07,-1.133068E-08,-2.861022E-08
633.2321,-0.01407716,-5.129523E-09,NaN,-0.8936068,-1.334238E-07,NaN,-1.571747,-3.998603E-07,NaN,-2.035495,1.891319E-05,0.2807781,8.222875E-08,NaN,NaN,-0.1001297,-1.862708E-11,-2.51264E-07,-1.112706E-07,-1.609905E-08,-2.622604E-08
633.2485,-0.01407857,-5.128741E-09,NaN,-0.892701,-1.334237E-07,NaN,-1.571495,-3.998542E-07,NaN,-2.029697,1.891367E-05,0.2730574,8.222423E-08,NaN,NaN,-0.100752,-1.862708E-11,-2.710826E-07,-1.112706E-07,-1.371487E-08,-2.861022E-08
633.2643,-0.01408014,-5.127959E-09,NaN,-0.891786,-1.334237E-07,NaN,-1.571217,-3.998482E-07,NaN,-2.02392,1.891415E-05,0.2655942,8.221973E-08,NaN,NaN,-0.1013624,-1.862708E-11,-2.850151E-07,-1.112706E-07,-1.133068E-08,-2.622604E-08
633.28,-0.01408204,-5.127177E-09,NaN,-0.8908003,-1.334236E-07,NaN,-1.571468,-3.998423E-07,NaN,-2.017615,1.891463E-05,0.2569115,8.221525E-08,NaN,NaN,-0.1020903,-1.862708E-11,-2.886659E-07,-1.112706E-07,-4.178127E-09,-2.861022E-08
633.2957,-0.01408204,-5.127177E-09,NaN,-0.8908003,-1.334236E-07,NaN,-1.571468,-3.998423E-07,NaN,-2.017615,1.891463E-05,0.2569115,8.221525E-08,NaN,NaN,-0.1020903,-1.862708E-11,-2.886659E-07,-1.112706E-07,-4.178127E-09,-2.861022E-08
633.3105,-0.01408431,-5.126394E-09,NaN,-0.8897753,-1.334236E-07,NaN,-1.571563,-3.998363E-07,NaN,-2.011094,1.891511E-05,0.2481377,8.221079E-08,NaN,NaN,-0.1028036,-1.862708E-11,-3.062493E-07,-1.112705E-07,-6.562312E-09,-2.622604E-08
633.3268,-0.01408688,-5.125612E-09,NaN,-0.8887306,-1.334236E-07,NaN,-1.571471,-3.998304E-07,NaN,-2.004517,1.891559E-05,0.2395335,8.220634E-08,NaN,NaN,-0.103503,-1.862708E-11,-3.233856E-07,-1.112705E-07,-8.946499E-09,-2.861022E-08
633.3424,-0.0140897,-5.124829E-09,NaN,-0.8876784,-1.334235E-07,NaN,-1.571289,-3.998244E-07,NaN,-1.997965,1.891607E-05,0.2311587,8.220191E-08,NaN,NaN,-0.1041889,-1.862708E-11,-3.374672E-07,-1.112705E-07,-6.562313E-09,-2.622604E-08
633.3587,-0.0140897,-5.124829E-09,NaN,-0.8876784,-1.334235E-07,NaN,-1.571289,-3.998244E-07,NaN,-1.997965,1.891607E-05,0.2311587,8.220191E-08,NaN,NaN,-0.1041889,-1.862708E-11,-3.374672E-07,-1.112705E-07,-6.562313E-09,-2.622604E-08
633.3735,-0.01409289,-5.124047E-09,NaN,-0.8865571,-1.334235E-07,NaN,-1.571541,-3.998185E-07,NaN,-1.990896,1.891655E-05,0.2215415,8.219749E-08,NaN,NaN,-0.1049908,-1.862708E-11,-3.421611E-07,-1.112705E-07,-8.946499E-09,-2.861022E-08
633.3898,-0.01409647,-5.123264E-09,NaN,-0.8853981,-1.334234E-07,NaN,-1.571585,-3.998126E-07,NaN,-1.983623,1.891704E-05,0.2118931,8.219308E-08,NaN,NaN,-0.1057767,-1.862708E-11,-3.606386E-07,-1.112705E-07,-6.562313E-09,-2.622604E-08
633.4056,-0.01410036,-5.122482E-09,NaN,-0.884221,-1.334234E-07,NaN,-1.571439,-3.998067E-07,NaN,-1.976306,1.891752E-05,0.202461,8.218869E-08,NaN,NaN,-0.1065474,-1.862708E-11,-3.770298E-07,-1.112705E-07,-4.178127E-09,-2.861022E-08
633.4214,-0.0141045,-5.1217E-09,NaN,-0.8830381,-1.334233E-07,NaN,-1.57123,-3.998009E-07,NaN,-1.969028,1.8918E-05,0.1932887,8.218432E-08,NaN,NaN,-0.1073031,-1.862708E-11,-3.876096E-07,-1.112705E-07,-6.562313E-09,-2.622604E-08
633.4371,-0.0141045,-5.1217E-09,NaN,-0.8830381,-1.334233E-07,NaN,-1.57123,-3.998009E-07,NaN,-1.969028,1.8918E-05,0.1932887,8.218432E-08,NaN,NaN,-0.1073031,-1.862708E-11,-3.876096E-07,-1.112705E-07,-6.562313E-09,-2.622604E-08
633.4517,-0.01410901,-5.120917E-09,NaN,-0.8817875,-1.334233E-07,NaN,-1.57145,-3.99795E-07,NaN,-1.961245,1.891848E-05,0.1828653,8.217996E-08,NaN,NaN,-0.1081734,-1.862708E-11,-3.885037E-07,-1.112705E-07,-4.178127E-09,-2.861022E-08
633.4685,-0.0141139,-5.120135E-09,NaN,-0.8805009,-1.334233E-07,NaN,-1.571476,-3.997892E-07,NaN,-1.953269,1.891896E-05,0.1724589,8.217562E-08,NaN,NaN,-0.1090265,-1.862708E-11,-4.019893E-07,-1.112705E-07,-8.946499E-09,-2.622604E-08
633.4839,-0.0141191,-5.119352E-09,NaN,-0.8791976,-1.334232E-07,NaN,-1.571336,-3.997833E-07,NaN,-1.945262,1.891944E-05,0.162288,8.21713E-08,NaN,NaN,-0.109863,-1.862708E-11,-4.126436E-07,-1.112705E-07,-6.562313E-09,-2.861022E-08
633.5001,-0.01412453,-5.118569E-09,NaN,-0.87789,-1.33423E-07,NaN,-1.571145,-3.997403E-07,NaN,-1.937301,1.891991E-05,0.1523841,8.212977E-08,NaN,NaN,-0.1106833,-1.862708E-11,-4.195726E-07,-1.112708E-07,-1.133068E-08,-2.622604E-08
633.5156,-0.01412453,-5.118569E-09,NaN,-0.87789,-1.33423E-07,NaN,-1.571145,-3.997403E-07,NaN,-1.937301,1.891991E-05,0.1523841,8.212977E-08,NaN,NaN,-0.1106833,-1.862708E-11,-4.195726E-07,-1.112708E-07,-1.133068E-08,-2.622604E-08
633.5306,-0.01413034,-5.117785E-09,NaN,-0.8765162,-1.334229E-07,NaN,-1.571352,-3.996867E-07,NaN,-1.928845,1.892039E-05,0.1412107,8.207768E-08,NaN,NaN,-0.1116168,-2.328369E-11,-4.18157E-07,-1.112711E-07,-1.609905E-08,-2.861022E-08
633.5472,-0.01413652,-5.117002E-09,NaN,-0.8751078,-1.334227E-07,NaN,-1.571361,-3.996312E-07,NaN,-1.920209,1.892087E-05,0.1301044,8.20237E-08,NaN,NaN,-0.112532,-2.794031E-11,-4.262037E-07,-1.112715E-07,-1.609905E-08,-2.622604E-08
633.5628,-0.01414299,-5.116219E-09,NaN,-0.8736843,-1.334226E-07,NaN,-1.571218,-3.995739E-07,NaN,-1.91155,1.892134E-05,0.1192542,8.196788E-08,NaN,NaN,-0.1134294,-3.259692E-11,-4.319033E-07,-1.112718E-07,-1.371487E-08,-2.861022E-08
633.5785,-0.01414299,-5.116219E-09,NaN,-0.8736843,-1.334226E-07,NaN,-1.571218,-3.995739E-07,NaN,-1.91155,1.892134E-05,0.1192542,8.196788E-08,NaN,NaN,-0.1134294,-3.259692E-11,-4.319033E-07,-1.112718E-07,-1.371487E-08,-2.861022E-08
633.5938,-0.0141499,-5.115435E-09,NaN,-0.8721886,-1.334224E-07,NaN,-1.571375,-3.995176E-07,NaN,-1.902368,1.892182E-05,0.1071452,8.191307E-08,NaN,NaN,-0.1144385,-3.725353E-11,-4.284016E-07,-1.112722E-07,-8.946498E-09,-2.622604E-08
633.6103,-0.0141572,-5.114652E-09,NaN,-0.870655,-1.334223E-07,NaN,-1.571314,-3.994595E-07,NaN,-1.892998,1.892229E-05,0.09517386,8.185643E-08,NaN,NaN,-0.1154279,-4.191014E-11,-4.357031E-07,-1.112725E-07,-1.793941E-09,-2.861022E-08
633.6262,-0.01416484,-5.113868E-09,NaN,-0.8691049,-1.334221E-07,NaN,-1.571128,-3.994023E-07,NaN,-1.883609,1.892276E-05,0.08349744,8.180081E-08,NaN,NaN,-0.116398,-4.656675E-11,-4.364109E-07,-1.112729E-07,-1.133068E-08,-2.622604E-08
633.6418,-0.01417273,-5.113085E-09,NaN,-0.8675515,-1.33422E-07,NaN,-1.570938,-3.993462E-07,NaN,-1.874279,1.892324E-05,0.07211828,8.174619E-08,NaN,NaN,-0.1173491,-5.122337E-11,-4.341385E-07,-1.112732E-07,-1.133068E-08,-2.861022E-08
633.6588,-0.01417273,-5.113085E-09,NaN,-0.8675515,-1.33422E-07,NaN,-1.570938,-3.993462E-07,NaN,-1.874279,1.892324E-05,0.07211828,8.174619E-08,NaN,NaN,-0.1173491,-5.122337E-11,-4.341385E-07,-1.112732E-07,-1.133068E-08,-2.861022E-08
633.6727,-0.01417846,-5.112302E-09,NaN,-0.8668346,-1.334219E-07,NaN,-1.567262,-3.992911E-07,NaN,-1.871962,1.892371E-05,0.07964495,8.169255E-08,NaN,NaN,-0.1167298,-5.587998E-11,-4.774636E-07,-1.112736E-07,-2.086743E-08,-2.622604E-08
633.6888,-0.01418147,-5.111518E-09,NaN,-0.8666372,-1.334218E-07,NaN,-1.565277,-3.992398E-07,NaN,-1.873039,1.892418E-05,0.08769241,8.164271E-08,NaN,NaN,-0.1161227,-5.122337E-11,-4.406578E-07,-1.112739E-07,-2.086743E-08,-2.861022E-08
633.7048,-0.01418216,-5.110735E-09,NaN,-0.8667595,-1.334216E-07,NaN,-1.56417,-3.991893E-07,NaN,-1.875797,1.892465E-05,0.09525426,8.159376E-08,NaN,NaN,-0.1155274,-5.587998E-11,-4.204667E-07,-1.112743E-07,-1.848324E-08,-2.622604E-08
633.7203,-0.01418188,-5.109952E-09,NaN,-0.8670786,-1.334215E-07,NaN,-1.563428,-3.991397E-07,NaN,-1.879377,1.892511E-05,0.1025124,8.154569E-08,NaN,NaN,-0.1149438,-5.122337E-11,-4.088438E-07,-1.112746E-07,-2.325161E-08,-2.861022E-08
633.7362,-0.01418188,-5.109952E-09,NaN,-0.8670786,-1.334215E-07,NaN,-1.563428,-3.991397E-07,NaN,-1.879377,1.892511E-05,0.1025124,8.154569E-08,NaN,NaN,-0.1149438,-5.122337E-11,-4.088438E-07,-1.112746E-07,-2.325161E-08,-2.861022E-08
633.7509,-0.01418133,-5.109168E-09,NaN,-0.8674484,-1.334214E-07,NaN,-1.56314,-3.99091E-07,NaN,-1.882769,1.892557E-05,0.1080091,8.149848E-08,NaN,NaN,-0.1145009,-4.191014E-11,-3.95917E-07,-1.11275E-07,-2.086743E-08,-2.622604E-08
633.7676,-0.01418066,-5.108385E-09,NaN,-0.8678478,-1.334213E-07,NaN,-1.562815,-3.990432E-07,NaN,-1.886057,1.892604E-05,0.1133228,8.145211E-08,NaN,NaN,-0.1140668,-4.656675E-11,-3.892115E-07,-1.112753E-07,-2.325161E-08,-2.861022E-08
633.7831,-0.01417994,-5.107601E-09,NaN,-0.8682637,-1.334211E-07,NaN,-1.562465,-3.989961E-07,NaN,-1.889277,1.892651E-05,0.1185419,8.140657E-08,NaN,NaN,-0.1136411,-5.122337E-11,-3.82208E-07,-1.112756E-07,-2.325161E-08,-2.622604E-08
633.7988,-0.01417994,-5.107601E-09,NaN,-0.8682637,-1.334211E-07,NaN,-1.562465,-3.989961E-07,NaN,-1.889277,1.892651E-05,0.1185419,8.140657E-08,NaN,NaN,-0.1136411,-5.122337E-11,-3.82208E-07,-1.112756E-07,-2.325161E-08,-2.622604E-08
633.8135,-0.01417917,-5.106818E-09,NaN,-0.8686879,-1.33421E-07,NaN,-1.562109,-3.989499E-07,NaN,-1.892441,1.892698E-05,0.123664,8.136183E-08,NaN,NaN,-0.1132239,-5.587998E-11,-3.753162E-07,-1.11276E-07,-2.56358E-08,-2.861022E-08
633.8301,-0.01417852,-5.106035E-09,NaN,-0.869046,-1.334209E-07,NaN,-1.562072,-3.989044E-07,NaN,-1.894979,1.892745E-05,0.1271376,8.131789E-08,NaN,NaN,-0.1129441,-6.053659E-11,-3.644011E-07,-1.112763E-07,-2.325161E-08,-2.622604E-08
633.8456,-0.01417796,-5.105252E-09,NaN,-0.8693618,-1.334207E-07,NaN,-1.561933,-3.988626E-07,NaN,-1.897197,1.892792E-05,0.1304868,8.127754E-08,NaN,NaN,-0.1126698,-6.519321E-11,-3.5967E-07,-1.112767E-07,-1.848324E-08,-2.861022E-08
633.8614,-0.01417745,-5.104469E-09,NaN,-0.8696499,-1.334206E-07,NaN,-1.561739,-3.988215E-07,NaN,-1.899241,1.892839E-05,0.1337926,8.12379E-08,NaN,NaN,-0.112401,-6.984982E-11,-3.535978E-07,-1.11277E-07,-1.371487E-08,-2.622604E-08
633.8772,-0.01417745,-5.104469E-09,NaN,-0.8696499,-1.334206E-07,NaN,-1.561739,-3.988215E-07,NaN,-1.899241,1.892839E-05,0.1337926,8.12379E-08,NaN,NaN,-0.112401,-6.984982E-11,-3.535978E-07,-1.11277E-07,-1.371487E-08,-2.622604E-08
633.8925,-0.01417698,-5.103686E-09,NaN,-0.8699197,-1.334205E-07,NaN,-1.561526,-3.98781E-07,NaN,-1.901184,1.892887E-05,0.1370447,8.119896E-08,NaN,NaN,-0.1121374,-7.450644E-11,-3.469667E-07,-1.112773E-07,-1.609906E-08,-2.861022E-08
633.9086,-0.01417666,-5.102903E-09,NaN,-0.8701077,-1.334204E-07,NaN,-1.561636,-3.987413E-07,NaN,-1.902484,1.892934E-05,0.1386912,8.116069E-08,NaN,NaN,-0.1120083,-7.916305E-11,-3.378025E-07,-1.112777E-07,-1.609906E-08,-2.622604E-08
633.9243,-0.01417646,-5.102121E-09,NaN,-0.8702443,-1.334202E-07,NaN,-1.561635,-3.987022E-07,NaN,-1.903463,1.892981E-05,0.1402452,8.112308E-08,NaN,NaN,-0.1118817,-8.381967E-11,-3.345988E-07,-1.11278E-07,-1.609906E-08,-2.861022E-08
633.9401,-0.01417632,-5.101338E-09,NaN,-0.8703486,-1.334201E-07,NaN,-1.561572,-3.986637E-07,NaN,-1.904275,1.893028E-05,0.1417929,8.108614E-08,NaN,NaN,-0.1117577,-8.847628E-11,-3.301284E-07,-1.112783E-07,-1.133068E-08,-2.622604E-08
633.9556,-0.01417632,-5.101338E-09,NaN,-0.8703486,-1.334201E-07,NaN,-1.561572,-3.986637E-07,NaN,-1.904275,1.893028E-05,0.1417929,8.108614E-08,NaN,NaN,-0.1117577,-8.847628E-11,-3.301284E-07,-1.112783E-07,-1.133068E-08,-2.622604E-08
633.9705,-0.01417624,-5.100555E-09,NaN,-0.8704326,-1.334201E-07,NaN,-1.561485,-3.98177E-07,NaN,-1.904999,1.893074E-05,0.1433226,8.060095E-08,NaN,NaN,-0.1116361,-8.381967E-11,-3.252111E-07,-1.112784E-07,-1.371487E-08,-2.861022E-08
633.9872,-0.01417632,-5.099773E-09,NaN,-0.8704342,-1.334201E-07,NaN,-1.561722,-3.977082E-07,NaN,-1.905094,1.893122E-05,0.1432831,8.013365E-08,NaN,NaN,-0.1116462,-7.916305E-11,-3.173134E-07,-1.112784E-07,-1.371487E-08,-2.622604E-08
634.0029,-0.01417652,-5.098991E-09,NaN,-0.8703868,-1.334201E-07,NaN,-1.561841,-3.972542E-07,NaN,-1.904881,1.893169E-05,0.143183,7.968108E-08,NaN,NaN,-0.1116561,-6.984983E-11,-3.153018E-07,-1.112783E-07,-1.609906E-08,-2.861022E-08
634.0184,-0.01417652,-5.098991E-09,NaN,-0.8703868,-1.334201E-07,NaN,-1.561841,-3.972542E-07,NaN,-1.904881,1.893169E-05,0.143183,7.968108E-08,NaN,NaN,-0.1116561,-6.984983E-11,-3.153018E-07,-1.112783E-07,-1.609906E-08,-2.861022E-08
634.0337,-0.01417681,-5.098209E-09,NaN,-0.8703094,-1.334201E-07,NaN,-1.561892,-3.968117E-07,NaN,-1.904518,1.893216E-05,0.1431102,7.924012E-08,NaN,NaN,-0.1116658,-6.519321E-11,-3.120235E-07,-1.112783E-07,-1.371487E-08,-2.622604E-08
634.0497,-0.01417714,-5.097427E-09,NaN,-0.8702137,-1.3342E-07,NaN,-1.561914,-3.963778E-07,NaN,-1.904083,1.893264E-05,0.1430522,7.880772E-08,NaN,NaN,-0.1116753,-6.519321E-11,-3.080747E-07,-1.112783E-07,-8.9465E-09,-2.861022E-08
634.0654,-0.01417763,-5.096645E-09,NaN,-0.870038,-1.3342E-07,NaN,-1.562255,-3.959523E-07,NaN,-1.903035,1.893312E-05,0.1414561,7.838371E-08,NaN,NaN,-0.1118141,-6.519321E-11,-3.014437E-07,-1.112783E-07,-6.562314E-09,-2.622604E-08
634.0809,-0.01417825,-5.095863E-09,NaN,-0.8698136,-1.3342E-07,NaN,-1.562472,-3.955379E-07,NaN,-1.901697,1.89336E-05,0.139832,7.797076E-08,NaN,NaN,-0.11195,-6.519321E-11,-3.009222E-07,-1.112782E-07,-6.562314E-09,-2.861022E-08
634.0971,-0.01417825,-5.095863E-09,NaN,-0.8698136,-1.3342E-07,NaN,-1.562472,-3.955379E-07,NaN,-1.901697,1.89336E-05,0.139832,7.797076E-08,NaN,NaN,-0.11195,-6.519321E-11,-3.009222E-07,-1.112782E-07,-6.562314E-09,-2.861022E-08
634.1122,-0.01417894,-5.095081E-09,NaN,-0.8695601,-1.3342E-07,NaN,-1.562616,-3.951314E-07,NaN,-1.900226,1.893408E-05,0.138266,7.756582E-08,NaN,NaN,-0.1120833,-6.519321E-11,-2.98836E-07,-1.112782E-07,-1.133069E-08,-2.622604E-08
634.1285,-0.01417969,-5.094299E-09,NaN,-0.8692899,-1.334199E-07,NaN,-1.562727,-3.947328E-07,NaN,-1.898699,1.893456E-05,0.1367446,7.716874E-08,NaN,NaN,-0.1122141,-6.519321E-11,-2.959303E-07,-1.112782E-07,-8.9465E-09,-2.861022E-08
634.1442,-0.0141806,-5.093517E-09,NaN,-0.8689412,-1.334199E-07,NaN,-1.563147,-3.94342E-07,NaN,-1.896576,1.893503E-05,0.1337114,7.677935E-08,NaN,NaN,-0.1124716,-5.122337E-11,-2.903424E-07,-1.112781E-07,-4.178129E-09,-2.622604E-08
634.1628,-0.01418163,-5.092735E-09,NaN,-0.8685456,-1.334199E-07,NaN,-1.563437,-3.939586E-07,NaN,-1.894179,1.893551E-05,0.1306839,7.639752E-08,NaN,NaN,-0.1127241,-5.122337E-11,-2.902306E-07,-1.112781E-07,5.902425E-10,-2.861022E-08
634.1757,-0.01418163,-5.092735E-09,NaN,-0.8685456,-1.334199E-07,NaN,-1.563437,-3.939586E-07,NaN,-1.894179,1.893551E-05,0.1306839,7.639752E-08,NaN,NaN,-0.1127241,-5.122337E-11,-2.902306E-07,-1.112781E-07,5.902425E-10,-2.861022E-08
634.1905,-0.01418274,-5.091953E-09,NaN,-0.8681228,-1.334198E-07,NaN,-1.56365,-3.935827E-07,NaN,-1.891664,1.893599E-05,0.1277424,7.602309E-08,NaN,NaN,-0.1129716,-5.122337E-11,-2.88368E-07,-1.112781E-07,-4.178129E-09,-2.622604E-08
634.2071,-0.0141839,-5.091171E-09,NaN,-0.8676852,-1.334198E-07,NaN,-1.563827,-3.93214E-07,NaN,-1.889108,1.893647E-05,0.1248727,7.565592E-08,NaN,NaN,-0.1132143,-5.122337E-11,-2.858348E-07,-1.112781E-07,5.902425E-10,-2.861022E-08
634.2234,-0.01418523,-5.090388E-09,NaN,-0.867171,-1.334198E-07,NaN,-1.564298,-3.928525E-07,NaN,-1.885971,1.893695E-05,0.1205134,7.529587E-08,NaN,NaN,-0.1135816,-5.122337E-11,-2.806194E-07,-1.11278E-07,2.974428E-09,-2.622604E-08
634.2389,-0.01418523,-5.090388E-09,NaN,-0.867171,-1.334198E-07,NaN,-1.564298,-3.928525E-07,NaN,-1.885971,1.893695E-05,0.1205134,7.529587E-08,NaN,NaN,-0.1135816,-5.122337E-11,-2.806194E-07,-1.11278E-07,2.974428E-09,-2.622604E-08
634.2539,-0.01418688,-5.089606E-09,NaN,-0.866612,-1.334198E-07,NaN,-1.564635,-3.924979E-07,NaN,-1.882576,1.893743E-05,0.116194,7.494278E-08,NaN,NaN,-0.1139417,-5.122337E-11,-2.806566E-07,-1.11278E-07,2.974428E-09,-2.861022E-08
634.2703,-0.01418881,-5.088823E-09,NaN,-0.8660276,-1.334197E-07,NaN,-1.564893,-3.921502E-07,NaN,-1.879077,1.893791E-05,0.1119861,7.459654E-08,NaN,NaN,-0.1142947,-5.122337E-11,-2.78645E-07,-1.11278E-07,1.012699E-08,-2.622604E-08
634.2858,-0.01419095,-5.088041E-09,NaN,-0.8654303,-1.334197E-07,NaN,-1.565112,-3.918091E-07,NaN,-1.875553,1.893839E-05,0.1078748,7.4257E-08,NaN,NaN,-0.1146409,-5.122337E-11,-2.76298E-07,-1.112779E-07,7.7428E-09,-2.861022E-08
634.3018,-0.01419349,-5.087258E-09,NaN,-0.8647584,-1.334197E-07,NaN,-1.565606,-3.914747E-07,NaN,-1.871463,1.893887E-05,0.102293,7.392404E-08,NaN,NaN,-0.1151096,-5.122337E-11,-2.708591E-07,-1.112779E-07,7.7428E-09,-2.622604E-08
634.3173,-0.01419349,-5.087258E-09,NaN,-0.8647584,-1.334197E-07,NaN,-1.565606,-3.914747E-07,NaN,-1.871463,1.893887E-05,0.102293,7.392404E-08,NaN,NaN,-0.1151096,-5.122337E-11,-2.708591E-07,-1.112779E-07,7.7428E-09,-2.622604E-08
634.3323,-0.0141964,-5.086476E-09,NaN,-0.8640434,-1.334196E-07,NaN,-1.565964,-3.911466E-07,NaN,-1.867128,1.893934E-05,0.09678538,7.359753E-08,NaN,NaN,-0.1155692,-4.191015E-11,-2.694808E-07,-1.112779E-07,5.90243E-10,-2.861022E-08
634.3488,-0.01419962,-5.085693E-09,NaN,-0.863305,-1.334196E-07,NaN,-1.566243,-3.908184E-07,NaN,-1.862703,1.893982E-05,0.0914123,7.32708E-08,NaN,NaN,-0.1160198,-4.191015E-11,-2.669103E-07,-1.112779E-07,2.974429E-09,-2.622604E-08
634.3647,-0.01420307,-5.084911E-09,NaN,-0.8625554,-1.334196E-07,NaN,-1.56648,-3.904965E-07,NaN,-1.858267,1.89403E-05,0.08615828,7.295041E-08,NaN,NaN,-0.1164615,-4.191015E-11,-2.631477E-07,-1.112778E-07,5.358614E-09,-2.861022E-08
634.3805,-0.01420692,-5.084128E-09,NaN,-0.8617331,-1.334196E-07,NaN,-1.56697,-3.901808E-07,NaN,-1.853279,1.894078E-05,0.07945078,7.26362E-08,NaN,NaN,-0.117024,-4.191015E-11,-2.56852E-07,-1.112778E-07,5.358614E-09,-2.622604E-08
634.3963,-0.01420692,-5.084128E-09,NaN,-0.8617331,-1.334196E-07,NaN,-1.56697,-3.901808E-07,NaN,-1.853279,1.894078E-05,0.07945078,7.26362E-08,NaN,NaN,-0.117024,-4.191015E-11,-2.56852E-07,-1.112778E-07,5.358614E-09,-2.622604E-08
634.4113,-0.01421115,-5.083346E-09,NaN,-0.8608695,-1.334195E-07,NaN,-1.567325,-3.898712E-07,NaN,-1.84806,1.894126E-05,0.07285122,7.232808E-08,NaN,NaN,-0.1175755,-4.191015E-11,-2.538345E-07,-1.112778E-07,2.974429E-09,-2.861022E-08
634.4278,-0.01421568,-5.082563E-09,NaN,-0.8599842,-1.334195E-07,NaN,-1.567602,-3.895676E-07,NaN,-1.842765,1.894174E-05,0.06640685,7.202592E-08,NaN,NaN,-0.1181161,-4.191015E-11,-2.507984E-07,-1.112777E-07,2.974429E-09,-2.622604E-08
634.4434,-0.01422045,-5.081781E-09,NaN,-0.8590896,-1.334195E-07,NaN,-1.567836,-3.892697E-07,NaN,-1.83747,1.894222E-05,0.06010221,7.172959E-08,NaN,NaN,-0.1186462,-4.191015E-11,-2.467378E-07,-1.112777E-07,2.974429E-09,-2.861022E-08
634.4596,-0.01422045,-5.081781E-09,NaN,-0.8590896,-1.334195E-07,NaN,-1.567836,-3.892697E-07,NaN,-1.83747,1.894222E-05,0.06010221,7.172959E-08,NaN,NaN,-0.1186462,-4.191015E-11,-2.467378E-07,-1.112777E-07,2.974429E-09,-2.861022E-08
634.4743,-0.0142256,-5.080998E-09,NaN,-0.8581239,-1.334194E-07,NaN,-1.568297,-3.889776E-07,NaN,-1.831637,1.89427E-05,0.05236031,7.1439E-08,NaN,NaN,-0.1192953,-4.191015E-11,-2.395853E-07,-1.112777E-07,5.90243E-10,-2.622604E-08
634.4911,-0.01423112,-5.080216E-09,NaN,-0.8571187,-1.334194E-07,NaN,-1.568626,-3.886911E-07,NaN,-1.825586,1.894318E-05,0.0447587,7.115401E-08,NaN,NaN,-0.1199317,-4.191015E-11,-2.34761E-07,-1.112777E-07,2.974429E-09,-2.861022E-08
634.5068,-0.01423695,-5.079433E-09,NaN,-0.8560935,-1.334194E-07,NaN,-1.56888,-3.884102E-07,NaN,-1.819471,1.894366E-05,0.03733076,7.087453E-08,NaN,NaN,-0.1205556,-4.191015E-11,-2.281626E-07,-1.112776E-07,5.90243E-10,-2.622604E-08
634.5223,-0.01424299,-5.07865E-09,NaN,-0.8550606,-1.334198E-07,NaN,-1.569091,-3.879287E-07,NaN,-1.813367,1.894414E-05,0.03006152,7.039453E-08,NaN,NaN,-0.1211672,-4.191015E-11,-2.209054E-07,-1.112767E-07,7.7428E-09,-2.861022E-08
634.538,-0.01424299,-5.07865E-09,NaN,-0.8550606,-1.334198E-07,NaN,-1.569091,-3.879287E-07,NaN,-1.813367,1.894414E-05,0.03006152,7.039453E-08,NaN,NaN,-0.1211672,-4.191015E-11,-2.209054E-07,-1.112767E-07,7.7428E-09,-2.861022E-08
634.553,-0.01424942,-5.077867E-09,NaN,-0.8539582,-1.334201E-07,NaN,-1.5695,-3.874847E-07,NaN,-1.80674,1.894462E-05,0.02137169,6.995206E-08,NaN,NaN,-0.1218963,-4.191015E-11,-2.103442E-07,-1.112756E-07,1.012699E-08,-2.622604E-08
634.5695,-0.01425621,-5.077084E-09,NaN,-0.852818,-1.334204E-07,NaN,-1.569783,-3.870635E-07,NaN,-1.799905,1.89451E-05,0.01285207,6.953228E-08,NaN,NaN,-0.1226111,-4.191015E-11,-2.01031E-07,-1.112745E-07,7.7428E-09,-2.861022E-08
634.5851,-0.0142633,-5.076301E-09,NaN,-0.8516594,-1.334207E-07,NaN,-1.569996,-3.86656E-07,NaN,-1.793017,1.894558E-05,0.004522585,6.91263E-08,NaN,NaN,-0.1233119,-4.191015E-11,-1.928354E-07,-1.112735E-07,5.358614E-09,-2.622604E-08
634.601,-0.0142706,-5.075518E-09,NaN,-0.8504947,-1.33421E-07,NaN,-1.570166,-3.862592E-07,NaN,-1.786153,1.894606E-05,-0.003630789,6.873101E-08,NaN,NaN,-0.123999,-4.191015E-11,-1.835594E-07,-1.112724E-07,2.974429E-09,-2.861022E-08
634.6168,-0.0142706,-5.075518E-09,NaN,-0.8504947,-1.33421E-07,NaN,-1.570166,-3.862592E-07,NaN,-1.786153,1.894606E-05,-0.003630789,6.873101E-08,NaN,NaN,-0.123999,-4.191015E-11,-1.835594E-07,-1.112724E-07,2.974429E-09,-2.861022E-08
634.6318,-0.01427827,-5.074735E-09,NaN,-0.8492622,-1.334212E-07,NaN,-1.570504,-3.858729E-07,NaN,-1.778775,1.894654E-05,-0.01318643,6.834621E-08,NaN,NaN,-0.124802,-4.191015E-11,-1.694405E-07,-1.112713E-07,5.358614E-09,-2.622604E-08
634.648,-0.01428631,-5.073952E-09,NaN,-0.8479933,-1.334214E-07,NaN,-1.570616,-3.854941E-07,NaN,-1.771202,1.894702E-05,-0.02260118,6.796887E-08,NaN,NaN,-0.1255893,-4.191015E-11,-1.639644E-07,-1.112702E-07,7.7428E-09,-2.861022E-08
634.666,-0.01429462,-5.073169E-09,NaN,-0.8467075,-1.334217E-07,NaN,-1.570576,-3.851254E-07,NaN,-1.763587,1.89475E-05,-0.03181613,6.760167E-08,NaN,NaN,-0.1263612,-4.191015E-11,-1.583392E-07,-1.112691E-07,1.012699E-08,-2.622604E-08
634.6794,-0.01429462,-5.073169E-09,NaN,-0.8467075,-1.334217E-07,NaN,-1.570576,-3.851254E-07,NaN,-1.763587,1.89475E-05,-0.03181613,6.760167E-08,NaN,NaN,-0.1263612,-4.191015E-11,-1.583392E-07,-1.112691E-07,1.012699E-08,-2.622604E-08
634.6944,-0.01430274,-5.072387E-09,NaN,-0.8454176,-1.334219E-07,NaN,-1.570476,-3.847638E-07,NaN,-1.756008,1.894799E-05,-0.04081522,6.724159E-08,NaN,NaN,-0.1271171,-4.656676E-11,-1.499573E-07,-1.11268E-07,1.012699E-08,-2.861022E-08
634.7106,-0.01431075,-5.071603E-09,NaN,-0.8441309,-1.334221E-07,NaN,-1.570383,-3.844092E-07,NaN,-1.748499,1.894847E-05,-0.04960613,6.688848E-08,NaN,NaN,-0.1278581,-4.656676E-11,-1.382599E-07,-1.112669E-07,1.251117E-08,-2.622604E-08
634.7265,-0.01431871,-5.07082E-09,NaN,-0.8428518,-1.334223E-07,NaN,-1.570323,-3.840587E-07,NaN,-1.741078,1.894895E-05,-0.05820473,6.653939E-08,NaN,NaN,-0.1285846,-4.656676E-11,-1.256684E-07,-1.112658E-07,1.251117E-08,-2.861022E-08
634.743,-0.01432664,-5.070036E-09,NaN,-0.8415833,-1.334226E-07,NaN,-1.570295,-3.837148E-07,NaN,-1.733755,1.894943E-05,-0.06662509,6.619707E-08,NaN,NaN,-0.1292968,-4.656676E-11,-1.128534E-07,-1.112647E-07,5.358614E-09,-2.622604E-08
634.7579,-0.01432664,-5.070036E-09,NaN,-0.8415833,-1.334226E-07,NaN,-1.570295,-3.837148E-07,NaN,-1.733755,1.894943E-05,-0.06662509,6.619707E-08,NaN,NaN,-0.1292968,-4.656676E-11,-1.128534E-07,-1.112647E-07,5.358614E-09,-2.622604E-08
634.7731,-0.01433436,-5.069253E-09,NaN,-0.8403962,-1.334228E-07,NaN,-1.570146,-3.833777E-07,NaN,-1.727105,1.894991E-05,-0.07331595,6.586137E-08,NaN,NaN,-0.1298658,-5.122337E-11,-1.054028E-07,-1.112637E-07,2.974428E-09,-2.861022E-08
634.7892,-0.01434184,-5.06847E-09,NaN,-0.8392646,-1.33423E-07,NaN,-1.570094,-3.830442E-07,NaN,-1.72083,1.895039E-05,-0.07987113,6.552935E-08,NaN,NaN,-0.1304236,-5.122337E-11,-9.474847E-08,-1.112626E-07,5.358614E-09,-2.622604E-08
634.8047,-0.0143491,-5.067686E-09,NaN,-0.8381724,-1.334232E-07,NaN,-1.570071,-3.827171E-07,NaN,-1.714787,1.895087E-05,-0.08630538,6.520375E-08,NaN,NaN,-0.1309704,-5.122337E-11,-8.37216E-08,-1.112615E-07,5.358614E-09,-2.861022E-08
634.8203,-0.01435617,-5.066903E-09,NaN,-0.8371094,-1.334234E-07,NaN,-1.570055,-3.823935E-07,NaN,-1.708904,1.895135E-05,-0.09261445,6.488163E-08,NaN,NaN,-0.1315066,-5.122337E-11,-7.425936E-08,-1.112605E-07,2.974428E-09,-2.622604E-08
634.8364,-0.01435617,-5.066903E-09,NaN,-0.8371094,-1.334234E-07,NaN,-1.570055,-3.823935E-07,NaN,-1.708904,1.895135E-05,-0.09261445,6.488163E-08,NaN,NaN,-0.1315066,-5.122337E-11,-7.425936E-08,-1.112605E-07,2.974428E-09,-2.622604E-08
634.8511,-0.01436291,-5.06612E-09,NaN,-0.8361385,-1.334237E-07,NaN,-1.569927,-3.820958E-07,NaN,-1.703715,1.895184E-05,-0.09724464,6.458545E-08,NaN,NaN,-0.1319029,-6.05366E-11,-7.135363E-08,-1.112579E-07,5.902421E-10,-2.861022E-08
634.8674,-0.01436931,-5.065337E-09,NaN,-0.8352287,-1.334235E-07,NaN,-1.56985,-3.819308E-07,NaN,-1.698904,1.895231E-05,-0.1017895,6.442194E-08,NaN,NaN,-0.1322915,-6.519321E-11,-6.57657E-08,-1.112551E-07,-1.793944E-09,-2.622604E-08
634.883,-0.01437541,-5.064555E-09,NaN,-0.8343608,-1.334231E-07,NaN,-1.569793,-3.818338E-07,NaN,-1.694314,1.895279E-05,-0.1062492,6.432642E-08,NaN,NaN,-0.1326724,-7.450644E-11,-5.913468E-08,-1.11252E-07,-4.178129E-09,-2.861022E-08
634.8988,-0.01437541,-5.064555E-09,NaN,-0.8343608,-1.334231E-07,NaN,-1.569793,-3.818338E-07,NaN,-1.694314,1.895279E-05,-0.1062492,6.432642E-08,NaN,NaN,-0.1326724,-7.450644E-11,-5.913468E-08,-1.11252E-07,-4.178129E-09,-2.861022E-08
634.9133,-0.01438128,-5.063773E-09,NaN,-0.8335225,-1.334226E-07,NaN,-1.569743,-3.817752E-07,NaN,-1.689869,1.895326E-05,-0.110622,6.426936E-08,NaN,NaN,-0.1330459,-7.450644E-11,-5.29507E-08,-1.112489E-07,-1.793944E-09,-2.622604E-08
634.9301,-0.01438678,-5.06299E-09,NaN,-0.8327756,-1.33422E-07,NaN,-1.569604,-3.817374E-07,NaN,-1.686101,1.895373E-05,-0.1133606,6.423308E-08,NaN,NaN,-0.1332828,-8.381966E-11,-5.451532E-08,-1.112458E-07,-4.178129E-09,-2.861022E-08
634.9456,-0.0143919,-5.062208E-09,NaN,-0.8320884,-1.334213E-07,NaN,-1.569508,-3.817115E-07,NaN,-1.682691,1.89542E-05,-0.1160501,6.420871E-08,NaN,NaN,-0.1335151,-8.381966E-11,-5.280169E-08,-1.112426E-07,-8.9465E-09,-2.622604E-08
634.9613,-0.01439672,-5.061425E-09,NaN,-0.8314412,-1.334207E-07,NaN,-1.569431,-3.816916E-07,NaN,-1.679484,1.895467E-05,-0.11869,6.419038E-08,NaN,NaN,-0.1337428,-9.313288E-11,-5.086454E-08,-1.112395E-07,-4.178129E-09,-2.861022E-08
634.9772,-0.01439672,-5.061425E-09,NaN,-0.8314412,-1.334207E-07,NaN,-1.569431,-3.816916E-07,NaN,-1.679484,1.895467E-05,-0.11869,6.419038E-08,NaN,NaN,-0.1337428,-9.313288E-11,-5.086454E-08,-1.112395E-07,-4.178129E-09,-2.861022E-08
634.9924,-0.01440129,-5.060643E-09,NaN,-0.8308216,-1.3342E-07,NaN,-1.569361,-3.816721E-07,NaN,-1.676401,1.895514E-05,-0.1212787,6.417233E-08,NaN,NaN,-0.133966,-9.313288E-11,-4.803331E-08,-1.112363E-07,-8.9465E-09,-2.622604E-08
635.0085,-0.01440549,-5.05986E-09,NaN,-0.830291,-1.334192E-07,NaN,-1.569217,-3.816387E-07,NaN,-1.673976,1.895561E-05,-0.1222733,6.414045E-08,NaN,NaN,-0.1340556,-1.024461E-10,-5.324872E-08,-1.112332E-07,-6.562315E-09,-2.861022E-08
635.0242,-0.0144093,-5.059078E-09,NaN,-0.8298177,-1.334181E-07,NaN,-1.569111,-3.818174E-07,NaN,-1.67189,1.895607E-05,-0.123252,6.432066E-08,NaN,NaN,-0.1341435,-9.778949E-11,-5.585642E-08,-1.11231E-07,-8.9465E-09,-2.622604E-08
635.0398,-0.0144093,-5.059078E-09,NaN,-0.8298177,-1.334181E-07,NaN,-1.569111,-3.818174E-07,NaN,-1.67189,1.895607E-05,-0.123252,6.432066E-08,NaN,NaN,-0.1341435,-9.778949E-11,-5.585642E-08,-1.11231E-07,-8.9465E-09,-2.622604E-08
635.0547,-0.01441281,-5.058296E-09,NaN,-0.8293819,-1.33417E-07,NaN,-1.569021,-3.819642E-07,NaN,-1.669986,1.895655E-05,-0.1242138,6.446905E-08,NaN,NaN,-0.1342296,-1.071027E-10,-5.771907E-08,-1.112288E-07,-6.562315E-09,-2.861022E-08
635.0709,-0.01441608,-5.057514E-09,NaN,-0.8289713,-1.33416E-07,NaN,-1.568939,-3.820912E-07,NaN,-1.668189,1.895701E-05,-0.1251575,6.459751E-08,NaN,NaN,-0.134314,-1.071027E-10,-5.891116E-08,-1.112268E-07,-4.178129E-09,-2.622604E-08
635.0867,-0.01441896,-5.056731E-09,NaN,-0.8286473,-1.33415E-07,NaN,-1.568791,-3.82207E-07,NaN,-1.667031,1.895748E-05,-0.1245419,6.471492E-08,NaN,NaN,-0.1342675,-1.164159E-10,-6.859691E-08,-1.112247E-07,-6.562315E-09,-2.861022E-08
635.1026,-0.01442147,-5.055949E-09,NaN,-0.8283782,-1.33414E-07,NaN,-1.568676,-3.823149E-07,NaN,-1.666192,1.895794E-05,-0.123941,6.482431E-08,NaN,NaN,-0.1342219,-1.164159E-10,-7.530243E-08,-1.112226E-07,-6.562315E-09,-2.622604E-08
635.118,-0.01442147,-5.055949E-09,NaN,-0.8283782,-1.33414E-07,NaN,-1.568676,-3.823149E-07,NaN,-1.666192,1.895794E-05,-0.123941,6.482431E-08,NaN,NaN,-0.1342219,-1.164159E-10,-7.530243E-08,-1.112226E-07,-6.562315E-09,-2.622604E-08
635.1331,-0.01442367,-5.055167E-09,NaN,-0.8281442,-1.33413E-07,NaN,-1.568576,-3.824149E-07,NaN,-1.665519,1.895841E-05,-0.1233536,6.492582E-08,NaN,NaN,-0.1341773,-1.257292E-10,-8.014531E-08,-1.112206E-07,-1.133069E-08,-2.861022E-08
635.1505,-0.01442564,-5.054385E-09,NaN,-0.8279329,-1.33412E-07,NaN,-1.568483,-3.8251E-07,NaN,-1.664933,1.895887E-05,-0.1227783,6.502244E-08,NaN,NaN,-0.1341334,-1.257292E-10,-8.454115E-08,-1.112186E-07,-1.609906E-08,-2.622604E-08
635.1652,-0.01442722,-5.053603E-09,NaN,-0.8278058,-1.334111E-07,NaN,-1.568328,-3.826003E-07,NaN,-1.664968,1.895934E-05,-0.120674,6.511426E-08,NaN,NaN,-0.1339612,-1.350424E-10,-9.787769E-08,-1.112165E-07,-1.371487E-08,-2.861022E-08
635.1804,-0.01442844,-5.052821E-09,NaN,-0.8277313,-1.334101E-07,NaN,-1.568202,-3.826859E-07,NaN,-1.665306,1.89598E-05,-0.1186129,6.520138E-08,NaN,NaN,-0.1337924,-1.303858E-10,-1.071164E-07,-1.112145E-07,-1.371487E-08,-2.622604E-08
635.1961,-0.01442844,-5.052821E-09,NaN,-0.8277313,-1.334101E-07,NaN,-1.568202,-3.826859E-07,NaN,-1.665306,1.89598E-05,-0.1186129,6.520138E-08,NaN,NaN,-0.1337924,-1.303858E-10,-1.071164E-07,-1.112145E-07,-1.371487E-08,-2.622604E-08
635.2111,-0.01442942,-5.05204E-09,NaN,-0.8276896,-1.334091E-07,NaN,-1.568089,-3.827668E-07,NaN,-1.665791,1.896026E-05,-0.1165934,6.52839E-08,NaN,NaN,-0.1336268,-1.257292E-10,-1.15312E-07,-1.112125E-07,-8.946501E-09,-2.861022E-08
635.2277,-0.01443028,-5.051258E-09,NaN,-0.8276683,-1.334082E-07,NaN,-1.567983,-3.828433E-07,NaN,-1.666347,1.896072E-05,-0.1146138,6.536189E-08,NaN,NaN,-0.1334645,-1.16416E-10,-1.219431E-07,-1.112105E-07,-1.133069E-08,-2.622604E-08
635.2433,-0.01443094,-5.050476E-09,NaN,-0.8277274,-1.334072E-07,NaN,-1.567812,-3.829153E-07,NaN,-1.667508,1.896119E-05,-0.1111313,6.543545E-08,NaN,NaN,-0.1331762,-1.16416E-10,-1.358757E-07,-1.112085E-07,-8.946502E-09,-2.861022E-08
635.259,-0.01443094,-5.050476E-09,NaN,-0.8277274,-1.334072E-07,NaN,-1.567812,-3.829153E-07,NaN,-1.667508,1.896119E-05,-0.1111313,6.543545E-08,NaN,NaN,-0.1331762,-1.16416E-10,-1.358757E-07,-1.112085E-07,-8.946502E-09,-2.861022E-08
635.274,-0.01443148,-5.049695E-09,NaN,-0.8278359,-1.334063E-07,NaN,-1.567669,-3.82983E-07,NaN,-1.668956,1.896166E-05,-0.1077184,6.550466E-08,NaN,NaN,-0.1328934,-1.071027E-10,-1.473495E-07,-1.112066E-07,-1.609906E-08,-2.622604E-08
635.2903,-0.01443194,-5.048913E-09,NaN,-0.8279744,-1.334053E-07,NaN,-1.567538,-3.830464E-07,NaN,-1.670534,1.896213E-05,-0.1043733,6.556962E-08,NaN,NaN,-0.1326162,-1.024461E-10,-1.572588E-07,-1.112046E-07,-2.325162E-08,-2.861022E-08
635.306,-0.01443236,-5.048132E-09,NaN,-0.8281307,-1.334044E-07,NaN,-1.567414,-3.831085E-07,NaN,-1.672167,1.89626E-05,-0.1010936,6.563322E-08,NaN,NaN,-0.1323444,-9.778951E-11,-1.660505E-07,-1.112026E-07,-2.086743E-08,-2.622604E-08
635.3217,-0.01443261,-5.04735E-09,NaN,-0.8283667,-1.334034E-07,NaN,-1.567217,-3.831664E-07,NaN,-1.674389,1.896307E-05,-0.09633339,6.569267E-08,NaN,NaN,-0.1319487,-9.313289E-11,-1.818457E-07,-1.112007E-07,-1.609906E-08,-2.861022E-08
635.3374,-0.01443261,-5.04735E-09,NaN,-0.8283667,-1.334034E-07,NaN,-1.567217,-3.831664E-07,NaN,-1.674389,1.896307E-05,-0.09633339,6.569267E-08,NaN,NaN,-0.1319487,-9.313289E-11,-1.818457E-07,-1.112007E-07,-1.609906E-08,-2.861022E-08
635.3524,-0.01443275,-5.046568E-09,NaN,-0.8286508,-1.334025E-07,NaN,-1.56705,-3.832203E-07,NaN,-1.67688,1.896354E-05,-0.09166768,6.574805E-08,NaN,NaN,-0.1315607,-8.847627E-11,-1.943627E-07,-1.111987E-07,-1.133069E-08,-2.622604E-08
635.369,-0.0144328,-5.045787E-09,NaN,-0.8289632,-1.334015E-07,NaN,-1.566894,-3.832701E-07,NaN,-1.679488,1.896401E-05,-0.08709411,6.579943E-08,NaN,NaN,-0.1311804,-8.381966E-11,-2.044955E-07,-1.111968E-07,-8.946504E-09,-2.861022E-08
635.3844,-0.01443281,-5.045005E-09,NaN,-0.8292918,-1.334006E-07,NaN,-1.566743,-3.83316E-07,NaN,-1.682135,1.896448E-05,-0.08260978,6.58469E-08,NaN,NaN,-0.1308074,-7.916304E-11,-2.132127E-07,-1.111948E-07,-1.133069E-08,-2.622604E-08
635.4001,-0.01443266,-5.044224E-09,NaN,-0.8296981,-1.333997E-07,NaN,-1.56651,-3.83361E-07,NaN,-1.685355,1.896495E-05,-0.07666361,6.589337E-08,NaN,NaN,-0.1303125,-7.450643E-11,-2.276668E-07,-1.111929E-07,-4.178132E-09,-2.861022E-08
635.4157,-0.01443266,-5.044224E-09,NaN,-0.8296981,-1.333997E-07,NaN,-1.56651,-3.83361E-07,NaN,-1.685355,1.896495E-05,-0.07666361,6.589337E-08,NaN,NaN,-0.1303125,-7.450643E-11,-2.276668E-07,-1.111929E-07,-4.178132E-09,-2.861022E-08
635.4307,-0.01443239,-5.043443E-09,NaN,-0.8301507,-1.333987E-07,NaN,-1.566307,-3.834021E-07,NaN,-1.688831,1.896543E-05,-0.0708353,6.593601E-08,NaN,NaN,-0.1298273,-6.984981E-11,-2.395505E-07,-1.11191E-07,-4.178132E-09,-2.622604E-08
635.4476,-0.01443204,-5.042661E-09,NaN,-0.8306296,-1.333978E-07,NaN,-1.566117,-3.834395E-07,NaN,-1.692408,1.89659E-05,-0.06512196,6.597492E-08,NaN,NaN,-0.1293516,-6.51932E-11,-2.487147E-07,-1.11189E-07,-4.178132E-09,-2.861022E-08
635.4628,-0.01443163,-5.041879E-09,NaN,-0.8311228,-1.333969E-07,NaN,-1.565932,-3.834732E-07,NaN,-1.696011,1.896637E-05,-0.0595199,6.601017E-08,NaN,NaN,-0.1288852,-6.053658E-11,-2.565751E-07,-1.111871E-07,-1.793946E-09,-2.622604E-08
635.4786,-0.01443163,-5.041879E-09,NaN,-0.8311228,-1.333969E-07,NaN,-1.565932,-3.834732E-07,NaN,-1.696011,1.896637E-05,-0.0595199,6.601017E-08,NaN,NaN,-0.1288852,-6.053658E-11,-2.565751E-07,-1.111871E-07,-1.793946E-09,-2.622604E-08
635.4935,-0.01443107,-5.041098E-09,NaN,-0.8316919,-1.333959E-07,NaN,-1.56565,-3.835033E-07,NaN,-1.700173,1.896684E-05,-0.05247184,6.604181E-08,NaN,NaN,-0.1282987,-5.587997E-11,-2.698371E-07,-1.111852E-07,5.902394E-10,-2.861022E-08
635.5098,-0.01443039,-5.040316E-09,NaN,-0.8323051,-1.33395E-07,NaN,-1.565402,-3.835327E-07,NaN,-1.704577,1.896731E-05,-0.0455634,6.607276E-08,NaN,NaN,-0.1277236,-5.122336E-11,-2.801934E-07,-1.111833E-07,-1.793946E-09,-2.622604E-08
635.5256,-0.01442963,-5.039535E-09,NaN,-0.832943,-1.333941E-07,NaN,-1.565168,-3.835586E-07,NaN,-1.709069,1.896778E-05,-0.03879143,6.610019E-08,NaN,NaN,-0.1271599,-4.656675E-11,-2.87793E-07,-1.111814E-07,5.902394E-10,-2.861022E-08
635.5413,-0.01442882,-5.038754E-09,NaN,-0.8335931,-1.333932E-07,NaN,-1.564939,-3.835811E-07,NaN,-1.713573,1.896826E-05,-0.03215131,6.612419E-08,NaN,NaN,-0.1266071,-4.656675E-11,-2.9353E-07,-1.111795E-07,2.974425E-09,-2.622604E-08
635.557,-0.01442882,-5.038754E-09,NaN,-0.8335931,-1.333932E-07,NaN,-1.564939,-3.835811E-07,NaN,-1.713573,1.896826E-05,-0.03215131,6.612419E-08,NaN,NaN,-0.1266071,-4.656675E-11,-2.9353E-07,-1.111795E-07,2.974425E-09,-2.622604E-08
635.5718,-0.01442785,-5.037973E-09,NaN,-0.8343171,-1.333922E-07,NaN,-1.564593,-3.836002E-07,NaN,-1.718625,1.896873E-05,-0.02407866,6.614481E-08,NaN,NaN,-0.125936,-4.191014E-11,-3.028246E-07,-1.111776E-07,5.902394E-10,-2.861022E-08
635.5881,-0.01442676,-5.037192E-09,NaN,-0.8350836,-1.333913E-07,NaN,-1.564288,-3.836159E-07,NaN,-1.723905,1.89692E-05,-0.01616567,6.616213E-08,NaN,NaN,-0.1252779,-3.725352E-11,-3.107408E-07,-1.111758E-07,-1.793946E-09,-2.622604E-08
635.6039,-0.01442559,-5.03641E-09,NaN,-0.8358728,-1.333904E-07,NaN,-1.563999,-3.836313E-07,NaN,-1.72926,1.896967E-05,-0.008409622,6.617903E-08,NaN,NaN,-0.1246328,-3.259691E-11,-3.150342E-07,-1.111739E-07,-4.178132E-09,-2.861022E-08
635.6194,-0.01442559,-5.03641E-09,NaN,-0.8358728,-1.333904E-07,NaN,-1.563999,-3.836313E-07,NaN,-1.72926,1.896967E-05,-0.008409622,6.617903E-08,NaN,NaN,-0.1246328,-3.259691E-11,-3.150342E-07,-1.111739E-07,-4.178132E-09,-2.861022E-08
635.6345,-0.01442414,-5.035629E-09,NaN,-0.8367418,-1.333895E-07,NaN,-1.56358,-3.836435E-07,NaN,-1.73519,1.897014E-05,0.0007615574,6.619269E-08,NaN,NaN,-0.123871,-3.259691E-11,-3.229597E-07,-1.11172E-07,-1.793946E-09,-2.622604E-08
635.652,-0.01442234,-5.034848E-09,NaN,-0.8376561,-1.333886E-07,NaN,-1.563208,-3.833251E-07,NaN,-1.741353,1.897061E-05,0.009751858,6.58759E-08,NaN,NaN,-0.1231241,-2.79403E-11,-3.279027E-07,-1.111717E-07,-1.793946E-09,-2.861022E-08
635.6664,-0.01442025,-5.034067E-09,NaN,-0.8385943,-1.333881E-07,NaN,-1.562854,-3.828832E-07,NaN,-1.747591,1.897108E-05,0.01856332,6.543551E-08,NaN,NaN,-0.1223919,-3.259691E-11,-3.299889E-07,-1.111716E-07,-1.793946E-09,-2.622604E-08
635.6819,-0.01441792,-5.033286E-09,NaN,-0.839543,-1.333878E-07,NaN,-1.562507,-3.823822E-07,NaN,-1.75382,1.897155E-05,0.02720286,6.493599E-08,NaN,NaN,-0.1216741,-2.79403E-11,-3.310134E-07,-1.111718E-07,-1.793946E-09,-2.861022E-08
635.698,-0.01441792,-5.033286E-09,NaN,-0.839543,-1.333878E-07,NaN,-1.562507,-3.823822E-07,NaN,-1.75382,1.897155E-05,0.02720286,6.493599E-08,NaN,NaN,-0.1216741,-2.79403E-11,-3.310134E-07,-1.111718E-07,-1.793946E-09,-2.861022E-08
635.7128,-0.01441749,-5.032505E-09,NaN,-0.8396626,-1.333877E-07,NaN,-1.564131,-3.818485E-07,NaN,-1.753112,1.897202E-05,0.01679872,6.440388E-08,NaN,NaN,-0.1225219,-2.328369E-11,-3.005219E-07,-1.11172E-07,-4.178132E-09,-2.622604E-08
635.7292,-0.01441841,-5.031723E-09,NaN,-0.8392715,-1.333876E-07,NaN,-1.564968,-3.813027E-07,NaN,-1.749042,1.897248E-05,0.006671676,6.385958E-08,NaN,NaN,-0.123353,-1.397046E-11,-2.835345E-07,-1.111722E-07,-4.178132E-09,-2.861022E-08
635.7447,-0.01442036,-5.030942E-09,NaN,-0.8385671,-1.333876E-07,NaN,-1.565433,-3.807534E-07,NaN,-1.743341,1.897294E-05,-0.003130716,6.331178E-08,NaN,NaN,-0.1241679,-9.313849E-12,-2.67553E-07,-1.111725E-07,-8.946504E-09,-2.622604E-08
635.7604,-0.0144235,-5.030161E-09,NaN,-0.8376724,-1.333876E-07,NaN,-1.565721,-3.802063E-07,NaN,-1.736865,1.897341E-05,-0.01268166,6.276619E-08,NaN,NaN,-0.1249667,-4.657236E-12,-2.516833E-07,-1.111728E-07,-4.178133E-09,-2.861022E-08
635.776,-0.0144235,-5.030161E-09,NaN,-0.8376724,-1.333876E-07,NaN,-1.565721,-3.802063E-07,NaN,-1.736865,1.897341E-05,-0.01268166,6.276619E-08,NaN,NaN,-0.1249667,-4.657236E-12,-2.516833E-07,-1.111728E-07,-4.178133E-09,-2.861022E-08
635.7913,-0.01442747,-5.02938E-09,NaN,-0.8367335,-1.333876E-07,NaN,-1.565776,-3.796671E-07,NaN,-1.730619,1.897388E-05,-0.02044897,6.222842E-08,NaN,NaN,-0.1256205,-9.313849E-12,-2.408427E-07,-1.111732E-07,-4.178133E-09,-2.622604E-08
635.8076,-0.01443203,-5.028599E-09,NaN,-0.8357716,-1.333877E-07,NaN,-1.565855,-3.791354E-07,NaN,-1.72452,1.897435E-05,-0.02805934,6.16983E-08,NaN,NaN,-0.1262615,-4.657236E-12,-2.297041E-07,-1.111735E-07,-4.178133E-09,-2.861022E-08
635.8232,-0.01443698,-5.027818E-09,NaN,-0.8347997,-1.333877E-07,NaN,-1.565937,-3.786141E-07,NaN,-1.718533,1.897482E-05,-0.03552129,6.117851E-08,NaN,NaN,-0.12689,-9.313849E-12,-2.187145E-07,-1.111738E-07,-6.562318E-09,-2.622604E-08
635.8392,-0.01443698,-5.027818E-09,NaN,-0.8347997,-1.333877E-07,NaN,-1.565937,-3.786141E-07,NaN,-1.718533,1.897482E-05,-0.03552129,6.117851E-08,NaN,NaN,-0.12689,-9.313849E-12,-2.187145E-07,-1.111738E-07,-6.562318E-09,-2.622604E-08
635.8538,-0.0144422,-5.027037E-09,NaN,-0.8338261,-1.333878E-07,NaN,-1.566013,-3.781002E-07,NaN,-1.712643,1.897529E-05,-0.04283493,6.066603E-08,NaN,NaN,-0.1275061,-4.657236E-12,-2.063093E-07,-1.111742E-07,-4.178133E-09,-2.861022E-08
635.8704,-0.01444743,-5.026256E-09,NaN,-0.8329251,-1.333878E-07,NaN,-1.565964,-3.775962E-07,NaN,-1.707415,1.897576E-05,-0.04844227,6.016352E-08,NaN,NaN,-0.1279808,-9.313849E-12,-2.001253E-07,-1.111745E-07,5.90239E-10,-2.622604E-08
635.886,-0.01445255,-5.025475E-09,NaN,-0.8320729,-1.333879E-07,NaN,-1.565964,-3.771019E-07,NaN,-1.702546,1.897623E-05,-0.05394658,5.967079E-08,NaN,NaN,-0.1284462,-4.657236E-12,-1.934198E-07,-1.111748E-07,2.974425E-09,-2.861022E-08
635.9019,-0.01445754,-5.024694E-09,NaN,-0.8312545,-1.333879E-07,NaN,-1.565984,-3.766173E-07,NaN,-1.69789,1.89767E-05,-0.05934756,5.918766E-08,NaN,NaN,-0.1289025,-9.313849E-12,-1.863417E-07,-1.111752E-07,2.974425E-09,-2.622604E-08
635.9171,-0.01445754,-5.024694E-09,NaN,-0.8312545,-1.333879E-07,NaN,-1.565984,-3.766173E-07,NaN,-1.69789,1.89767E-05,-0.05934756,5.918766E-08,NaN,NaN,-0.1289025,-9.313849E-12,-1.863417E-07,-1.111752E-07,2.974425E-09,-2.622604E-08
635.9321,-0.01446241,-5.023913E-09,NaN,-0.8304608,-1.33388E-07,NaN,-1.566007,-3.761421E-07,NaN,-1.693374,1.897717E-05,-0.06464329,5.871394E-08,NaN,NaN,-0.1293499,-4.657236E-12,-1.785186E-07,-1.111755E-07,-4.178133E-09,-2.861022E-08
635.9485,-0.01446701,-5.023132E-09,NaN,-0.8297552,-1.333881E-07,NaN,-1.565932,-3.75679E-07,NaN,-1.689534,1.897763E-05,-0.06828076,5.825227E-08,NaN,NaN,-0.1296591,-6.236331E-16,-1.76805E-07,-1.111758E-07,-6.562318E-09,-2.622604E-08
635.9641,-0.0144713,-5.022351E-09,NaN,-0.829107,-1.333881E-07,NaN,-1.565903,-3.752248E-07,NaN,-1.686051,1.89781E-05,-0.0718536,5.779958E-08,NaN,NaN,-0.1299623,4.655989E-12,-1.733777E-07,-1.111762E-07,-4.178133E-09,-2.861022E-08
635.9799,-0.0144713,-5.022351E-09,NaN,-0.829107,-1.333881E-07,NaN,-1.565903,-3.752248E-07,NaN,-1.686051,1.89781E-05,-0.0718536,5.779958E-08,NaN,NaN,-0.1299623,4.655989E-12,-1.733777E-07,-1.111762E-07,-4.178133E-09,-2.861022E-08
635.9949,-0.01447532,-5.02157E-09,NaN,-0.8284973,-1.333882E-07,NaN,-1.565891,-3.747794E-07,NaN,-1.682771,1.897858E-05,-0.07536037,5.73557E-08,NaN,NaN,-0.1302595,-6.236331E-16,-1.689074E-07,-1.111765E-07,-4.178133E-09,-2.622604E-08
636.011,-0.01447914,-5.02079E-09,NaN,-0.8279139,-1.333882E-07,NaN,-1.565886,-3.743427E-07,NaN,-1.679617,1.897904E-05,-0.07879941,5.692045E-08,NaN,NaN,-0.130551,4.655989E-12,-1.64735E-07,-1.111768E-07,-6.562318E-09,-2.861022E-08
636.027,-0.01448262,-5.020009E-09,NaN,-0.8274188,-1.333883E-07,NaN,-1.565799,-3.739144E-07,NaN,-1.677122,1.897952E-05,-0.08062208,5.649367E-08,NaN,NaN,-0.1307074,-6.236331E-16,-1.669702E-07,-1.111772E-07,-6.562318E-09,-2.622604E-08
636.0425,-0.01448574,-5.019228E-09,NaN,-0.8269803,-1.333883E-07,NaN,-1.565752,-3.734945E-07,NaN,-1.674966,1.897998E-05,-0.08241466,5.607519E-08,NaN,NaN,-0.1308607,4.655989E-12,-1.669702E-07,-1.111775E-07,-8.946504E-09,-2.861022E-08
636.0581,-0.01448574,-5.019228E-09,NaN,-0.8269803,-1.333883E-07,NaN,-1.565752,-3.734945E-07,NaN,-1.674966,1.897998E-05,-0.08241466,5.607519E-08,NaN,NaN,-0.1308607,4.655989E-12,-1.669702E-07,-1.111775E-07,-8.946504E-09,-2.861022E-08
636.0731,-0.01448858,-5.018447E-09,NaN,-0.8265787,-1.333884E-07,NaN,-1.565721,-3.730826E-07,NaN,-1.672994,1.898046E-05,-0.08417539,5.566485E-08,NaN,NaN,-0.131011,-6.236331E-16,-1.662997E-07,-1.111778E-07,-8.946504E-09,-2.622604E-08
636.0897,-0.01449119,-5.017667E-09,NaN,-0.8262017,-1.333885E-07,NaN,-1.565697,-3.726788E-07,NaN,-1.67113,1.898092E-05,-0.08590271,5.526249E-08,NaN,NaN,-0.1311584,4.655989E-12,-1.652566E-07,-1.111781E-07,-1.133069E-08,-2.861022E-08
636.1057,-0.01449345,-5.016886E-09,NaN,-0.8259109,-1.333885E-07,NaN,-1.565601,-3.722856E-07,NaN,-1.669906,1.898139E-05,-0.08605042,5.487077E-08,NaN,NaN,-0.1311736,9.312602E-12,-1.715151E-07,-1.111785E-07,-8.946504E-09,-2.622604E-08
636.1209,-0.01449535,-5.016105E-09,NaN,-0.8256746,-1.333886E-07,NaN,-1.56554,-3.719E-07,NaN,-1.669003,1.898185E-05,-0.08619983,5.448667E-08,NaN,NaN,-0.1311885,1.396921E-11,-1.751659E-07,-1.111788E-07,-1.133069E-08,-2.861022E-08
636.1367,-0.01449535,-5.016105E-09,NaN,-0.8256746,-1.333886E-07,NaN,-1.56554,-3.719E-07,NaN,-1.669003,1.898185E-05,-0.08619983,5.448667E-08,NaN,NaN,-0.1311885,1.396921E-11,-1.751659E-07,-1.111788E-07,-1.133069E-08,-2.861022E-08
636.1528,-0.01449697,-5.015325E-09,NaN,-0.825473,-1.333886E-07,NaN,-1.565493,-3.715218E-07,NaN,-1.668267,1.898233E-05,-0.08634903,5.411004E-08,NaN,NaN,-0.131203,9.312602E-12,-1.774755E-07,-1.111791E-07,-1.371487E-08,-2.622604E-08
636.1678,-0.01449835,-5.014544E-09,NaN,-0.8252936,-1.333887E-07,NaN,-1.565454,-3.71151E-07,NaN,-1.667619,1.898279E-05,-0.08649633,5.374072E-08,NaN,NaN,-0.1312173,1.396921E-11,-1.793382E-07,-1.111794E-07,-8.946503E-09,-2.861022E-08
636.1835,-0.01449938,-5.013763E-09,NaN,-0.8251981,-1.333887E-07,NaN,-1.565346,-3.707874E-07,NaN,-1.667595,1.898327E-05,-0.08509602,5.337857E-08,NaN,NaN,-0.1311021,9.312602E-12,-1.879808E-07,-1.111797E-07,-4.178132E-09,-2.622604E-08
636.1995,-0.01449938,-5.013763E-09,NaN,-0.8251981,-1.333887E-07,NaN,-1.565346,-3.707874E-07,NaN,-1.667595,1.898327E-05,-0.08509602,5.337857E-08,NaN,NaN,-0.1311021,9.312602E-12,-1.879808E-07,-1.111797E-07,-4.178132E-09,-2.622604E-08
636.2141,-0.01450023,-5.012982E-09,NaN,-0.8251548,-1.333888E-07,NaN,-1.56527,-3.704308E-07,NaN,-1.667873,1.898373E-05,-0.08372692,5.302346E-08,NaN,NaN,-0.130989,1.396921E-11,-1.944629E-07,-1.111801E-07,-1.793946E-09,-2.861022E-08
636.2308,-0.01450096,-5.012202E-09,NaN,-0.8251439,-1.333889E-07,NaN,-1.565207,-3.700811E-07,NaN,-1.6683,1.89842E-05,-0.08238686,5.267524E-08,NaN,NaN,-0.1308782,1.862583E-11,-1.996783E-07,-1.111804E-07,5.902399E-10,-2.622604E-08
636.2463,-0.01450162,-5.011421E-09,NaN,-0.8251514,-1.333889E-07,NaN,-1.56515,-3.697382E-07,NaN,-1.668801,1.898466E-05,-0.08107385,5.233378E-08,NaN,NaN,-0.1307696,2.793905E-11,-2.042976E-07,-1.111807E-07,-1.793946E-09,-2.861022E-08
636.262,-0.01450213,-5.010641E-09,NaN,-0.8252397,-1.33389E-07,NaN,-1.565024,-3.694047E-07,NaN,-1.669907,1.898513E-05,-0.07824082,5.200178E-08,NaN,NaN,-0.1305337,2.328244E-11,-2.1525E-07,-1.11181E-07,2.974426E-09,-2.622604E-08
636.2775,-0.01450213,-5.010641E-09,NaN,-0.8252397,-1.33389E-07,NaN,-1.565024,-3.694047E-07,NaN,-1.669907,1.898513E-05,-0.07824082,5.200178E-08,NaN,NaN,-0.1305337,2.328244E-11,-2.1525E-07,-1.11181E-07,2.974426E-09,-2.622604E-08
636.2925,-0.01450252,-5.00986E-09,NaN,-0.8253773,-1.33389E-07,NaN,-1.564928,-3.690776E-07,NaN,-1.6713,1.89856E-05,-0.07546657,5.167622E-08,NaN,NaN,-0.1303025,2.793905E-11,-2.233711E-07,-1.111813E-07,2.974426E-09,-2.861022E-08
636.3088,-0.01450284,-5.00908E-09,NaN,-0.8255448,-1.333891E-07,NaN,-1.564844,-3.687569E-07,NaN,-1.672826,1.898607E-05,-0.07274855,5.135699E-08,NaN,NaN,-0.1300759,2.328244E-11,-2.302257E-07,-1.111816E-07,-1.793946E-09,-2.622604E-08
636.3246,-0.01450311,-5.0083E-09,NaN,-0.8257299,-1.333891E-07,NaN,-1.564767,-3.684424E-07,NaN,-1.674407,1.898654E-05,-0.07008431,5.104395E-08,NaN,NaN,-0.1298536,2.793905E-11,-2.359626E-07,-1.111819E-07,5.902399E-10,-2.861022E-08
636.3404,-0.01450323,-5.007519E-09,NaN,-0.8259944,-1.333892E-07,NaN,-1.564613,-3.681339E-07,NaN,-1.676578,1.898702E-05,-0.06592376,5.073698E-08,NaN,NaN,-0.1295064,2.328244E-11,-2.474365E-07,-1.111823E-07,-6.562317E-09,-2.622604E-08
636.3561,-0.01450323,-5.007519E-09,NaN,-0.8259944,-1.333892E-07,NaN,-1.564613,-3.681339E-07,NaN,-1.676578,1.898702E-05,-0.06592376,5.073698E-08,NaN,NaN,-0.1295064,2.328244E-11,-2.474365E-07,-1.111823E-07,-6.562317E-09,-2.622604E-08
636.3712,-0.01450323,-5.00674E-09,NaN,-0.8263068,-1.333891E-07,NaN,-1.564489,-3.679821E-07,NaN,-1.679019,1.898749E-05,-0.06184777,5.058662E-08,NaN,NaN,-0.129166,1.396921E-11,-2.565262E-07,-1.111794E-07,-4.178132E-09,-2.622604E-08
636.3873,-0.01450316,-5.005962E-09,NaN,-0.8266472,-1.333882E-07,NaN,-1.564379,-3.681171E-07,NaN,-1.681578,1.898795E-05,-0.05785334,5.072314E-08,NaN,NaN,-0.1288323,4.655987E-12,-2.640141E-07,-1.111759E-07,-4.178132E-09,-2.622604E-08
636.403,-0.01450304,-5.005184E-09,NaN,-0.8270035,-1.333868E-07,NaN,-1.564273,-3.683984E-07,NaN,-1.684178,1.89884E-05,-0.05393739,5.100593E-08,NaN,NaN,-0.1285051,-6.253678E-16,-2.703098E-07,-1.11172E-07,-1.793946E-09,-2.622604E-08
636.4185,-0.01450304,-5.005184E-09,NaN,-0.8270035,-1.333868E-07,NaN,-1.564273,-3.683984E-07,NaN,-1.684178,1.89884E-05,-0.05393739,5.100593E-08,NaN,NaN,-0.1285051,-6.253678E-16,-2.703098E-07,-1.11172E-07,-1.793946E-09,-2.622604E-08
636.4336,-0.01450277,-5.004407E-09,NaN,-0.8274372,-1.333851E-07,NaN,-1.564081,-3.687584E-07,NaN,-1.687352,1.898885E-05,-0.04854529,5.136745E-08,NaN,NaN,-0.128055,-4.657238E-12,-2.828268E-07,-1.11168E-07,5.902399E-10,-2.622604E-08
636.45,-0.01450238,-5.003628E-09,NaN,-0.8279167,-1.333833E-07,NaN,-1.563921,-3.690101E-07,NaN,-1.690783,1.898929E-05,-0.04326189,5.162077E-08,NaN,NaN,-0.1276137,-4.657238E-12,-2.91246E-07,-1.111669E-07,-1.793946E-09,-2.861022E-08
636.4658,-0.01450192,-5.002848E-09,NaN,-0.8284225,-1.333822E-07,NaN,-1.563774,-3.690002E-07,NaN,-1.694316,1.898973E-05,-0.03808374,5.161238E-08,NaN,NaN,-0.1271811,-9.313851E-12,-2.983985E-07,-1.111665E-07,-8.946503E-09,-2.622604E-08
636.4813,-0.0145014,-5.002069E-09,NaN,-0.8289421,-1.333816E-07,NaN,-1.563633,-3.688522E-07,NaN,-1.697876,1.899017E-05,-0.03300698,5.146588E-08,NaN,NaN,-0.1267569,-6.253678E-16,-3.04359E-07,-1.111665E-07,-8.946503E-09,-2.861022E-08
636.4972,-0.0145014,-5.002069E-09,NaN,-0.8289421,-1.333816E-07,NaN,-1.563633,-3.688522E-07,NaN,-1.697876,1.899017E-05,-0.03300698,5.146588E-08,NaN,NaN,-0.1267569,-6.253678E-16,-3.04359E-07,-1.111665E-07,-8.946503E-09,-2.861022E-08
636.5121,-0.01450073,-5.00129E-09,NaN,-0.8295372,-1.333813E-07,NaN,-1.56339,-3.68628E-07,NaN,-1.701997,1.899061E-05,-0.02647117,5.124321E-08,NaN,NaN,-0.1262117,-4.657238E-12,-3.135604E-07,-1.111666E-07,-1.133069E-08,-2.622604E-08
636.5282,-0.01449995,-5.000511E-09,NaN,-0.8301762,-1.333811E-07,NaN,-1.563184,-3.68363E-07,NaN,-1.70636,1.899105E-05,-0.02006655,5.097971E-08,NaN,NaN,-0.1256773,4.655987E-12,-3.208993E-07,-1.111668E-07,-1.133069E-08,-2.861022E-08
636.5437,-0.01449909,-4.999733E-09,NaN,-0.8308395,-1.333809E-07,NaN,-1.562991,-3.682254E-07,NaN,-1.710812,1.899149E-05,-0.01378948,5.084361E-08,NaN,NaN,-0.1251532,-6.253678E-16,-3.271857E-07,-1.111639E-07,-1.371487E-08,-2.861022E-08
636.5597,-0.01449909,-4.999733E-09,NaN,-0.8308395,-1.333809E-07,NaN,-1.562991,-3.682254E-07,NaN,-1.710812,1.899149E-05,-0.01378948,5.084361E-08,NaN,NaN,-0.1251532,-6.253678E-16,-3.271857E-07,-1.111639E-07,-1.371487E-08,-2.861022E-08
636.5747,-0.01449806,-4.998956E-09,NaN,-0.8315841,-1.3338E-07,NaN,-1.562687,-3.683575E-07,NaN,-1.715852,1.899193E-05,-0.006072701,5.097724E-08,NaN,NaN,-0.1245102,-9.313851E-12,-3.371415E-07,-1.111604E-07,-1.371487E-08,-2.861022E-08
636.5912,-0.0144969,-4.99818E-09,NaN,-0.8323755,-1.333785E-07,NaN,-1.562425,-3.686275E-07,NaN,-1.721139,1.899236E-05,0.001489774,5.124877E-08,NaN,NaN,-0.1238797,-1.397046E-11,-3.429041E-07,-1.111566E-07,-8.946503E-09,-2.861022E-08
636.607,-0.01449562,-4.997402E-09,NaN,-0.8331923,-1.333769E-07,NaN,-1.562178,-3.688219E-07,NaN,-1.726512,1.899279E-05,0.00890169,5.144468E-08,NaN,NaN,-0.1232616,-9.313851E-12,-3.466922E-07,-1.111557E-07,-1.133069E-08,-2.622604E-08
636.6227,-0.01449418,-4.996624E-09,NaN,-0.834021,-1.333759E-07,NaN,-1.561936,-3.687754E-07,NaN,-1.73189,1.899322E-05,0.0161688,5.139976E-08,NaN,NaN,-0.1226556,-4.657238E-12,-3.494583E-07,-1.111554E-07,-8.946504E-09,-2.861022E-08
636.6398,-0.01449418,-4.996624E-09,NaN,-0.834021,-1.333759E-07,NaN,-1.561936,-3.687754E-07,NaN,-1.73189,1.899322E-05,0.0161688,5.139976E-08,NaN,NaN,-0.1226556,-4.657238E-12,-3.494583E-07,-1.111554E-07,-8.946504E-09,-2.861022E-08
636.6531,-0.01449241,-4.995847E-09,NaN,-0.8349227,-1.333754E-07,NaN,-1.561557,-3.686029E-07,NaN,-1.737807,1.899366E-05,0.02486418,5.122872E-08,NaN,NaN,-0.1219322,-4.657238E-12,-3.527552E-07,-1.111554E-07,-6.562318E-09,-2.622604E-08
636.6696,-0.01449032,-4.995069E-09,NaN,-0.8358654,-1.333752E-07,NaN,-1.561224,-3.683603E-07,NaN,-1.743942,1.899409E-05,0.03338698,5.098763E-08,NaN,NaN,-0.121223,-6.253678E-16,-3.546551E-07,-1.111555E-07,-6.562318E-09,-2.861022E-08
636.685,-0.01448794,-4.994293E-09,NaN,-0.8368292,-1.333749E-07,NaN,-1.560911,-3.682304E-07,NaN,-1.750142,1.899454E-05,0.04173927,5.085932E-08,NaN,NaN,-0.1205276,-1.397046E-11,-3.5391E-07,-1.111527E-07,-4.178133E-09,-2.861022E-08
636.701,-0.01448535,-4.993518E-09,NaN,-0.8378016,-1.333739E-07,NaN,-1.560604,-3.683618E-07,NaN,-1.756331,1.899497E-05,0.04992802,5.099217E-08,NaN,NaN,-0.119846,-1.862708E-11,-3.532022E-07,-1.111491E-07,-8.946504E-09,-2.861022E-08
636.7164,-0.01448535,-4.993518E-09,NaN,-0.8378016,-1.333739E-07,NaN,-1.560604,-3.683618E-07,NaN,-1.756331,1.899497E-05,0.04992802,5.099217E-08,NaN,NaN,-0.119846,-1.862708E-11,-3.532022E-07,-1.111491E-07,-8.946504E-09,-2.861022E-08
636.7315,-0.01448232,-4.992743E-09,NaN,-0.8387752,-1.333725E-07,NaN,-1.5603,-3.686254E-07,NaN,-1.76247,1.89954E-05,0.05795934,5.12573E-08,NaN,NaN,-0.1191776,-2.79403E-11,-3.513023E-07,-1.111453E-07,-8.946504E-09,-2.861022E-08
636.7479,-0.01447903,-4.991968E-09,NaN,-0.8397451,-1.333703E-07,NaN,-1.559996,-3.689624E-07,NaN,-1.768543,1.899582E-05,0.06583509,5.159583E-08,NaN,NaN,-0.1185223,-2.328369E-11,-3.486574E-07,-1.111422E-07,-6.562318E-09,-2.861022E-08
636.7635,-0.01447556,-4.991192E-09,NaN,-0.8407084,-1.33368E-07,NaN,-1.559693,-3.693068E-07,NaN,-1.774539,1.899623E-05,0.07355834,5.194175E-08,NaN,NaN,-0.1178798,-1.862708E-11,-3.459379E-07,-1.111392E-07,-1.793947E-09,-2.861022E-08
636.7789,-0.01447556,-4.991192E-09,NaN,-0.8407084,-1.33368E-07,NaN,-1.559693,-3.693068E-07,NaN,-1.774539,1.899623E-05,0.07355834,5.194175E-08,NaN,NaN,-0.1178798,-1.862708E-11,-3.459379E-07,-1.111392E-07,-1.793947E-09,-2.861022E-08
636.794,-0.01447198,-4.990417E-09,NaN,-0.8416632,-1.333657E-07,NaN,-1.559391,-3.696528E-07,NaN,-1.780454,1.899665E-05,0.08113192,5.228928E-08,NaN,NaN,-0.11725,-1.397046E-11,-3.423989E-07,-1.11136E-07,5.90239E-10,-2.861022E-08
636.8103,-0.01446854,-4.989642E-09,NaN,-0.8425394,-1.333634E-07,NaN,-1.559285,-3.699975E-07,NaN,-1.785712,1.899706E-05,0.08697887,5.263556E-08,NaN,NaN,-0.1167618,-9.31385E-12,-3.369972E-07,-1.111329E-07,5.90239E-10,-2.861022E-08
636.8265,-0.0144653,-4.988868E-09,NaN,-0.843363,-1.33361E-07,NaN,-1.559112,-3.703353E-07,NaN,-1.790613,1.899748E-05,0.09271244,5.297498E-08,NaN,NaN,-0.1162833,-4.657237E-12,-3.326759E-07,-1.111298E-07,-1.793947E-09,-2.861022E-08
636.8417,-0.01446224,-4.988093E-09,NaN,-0.8441505,-1.333586E-07,NaN,-1.558909,-3.706664E-07,NaN,-1.795304,1.899789E-05,0.0983453,5.330767E-08,NaN,NaN,-0.1158141,4.655988E-12,-3.282427E-07,-1.111267E-07,-1.793947E-09,-2.861022E-08
636.8576,-0.01446224,-4.988093E-09,NaN,-0.8441505,-1.333586E-07,NaN,-1.558909,-3.706664E-07,NaN,-1.795304,1.899789E-05,0.0983453,5.330767E-08,NaN,NaN,-0.1158141,4.655988E-12,-3.282427E-07,-1.111267E-07,-1.793947E-09,-2.861022E-08
636.8725,-0.01445933,-4.987319E-09,NaN,-0.8449122,-1.333563E-07,NaN,-1.558697,-3.709881E-07,NaN,-1.799855,1.89983E-05,0.1038729,5.363094E-08,NaN,NaN,-0.1153541,9.312601E-12,-3.228411E-07,-1.111236E-07,5.35861E-09,-2.861022E-08
636.8889,-0.01445675,-4.986546E-09,NaN,-0.8455852,-1.333539E-07,NaN,-1.558701,-3.713006E-07,NaN,-1.803728,1.899871E-05,0.1077133,5.394498E-08,NaN,NaN,-0.1150325,1.862583E-11,-3.171787E-07,-1.111205E-07,1.012698E-08,-2.861022E-08
636.9044,-0.0144545,-4.985773E-09,NaN,-0.8462005,-1.333516E-07,NaN,-1.558626,-3.71604E-07,NaN,-1.807243,1.899912E-05,0.1114759,5.424998E-08,NaN,NaN,-0.1147171,2.793905E-11,-3.129691E-07,-1.111174E-07,7.742797E-09,-2.861022E-08
636.9199,-0.0144545,-4.985773E-09,NaN,-0.8462005,-1.333516E-07,NaN,-1.558626,-3.71604E-07,NaN,-1.807243,1.899912E-05,0.1114759,5.424998E-08,NaN,NaN,-0.1147171,2.793905E-11,-3.129691E-07,-1.111174E-07,7.742797E-09,-2.861022E-08
636.9351,-0.01445252,-4.985E-09,NaN,-0.8467774,-1.333492E-07,NaN,-1.558515,-3.718986E-07,NaN,-1.810556,1.899953E-05,0.1151785,5.45461E-08,NaN,NaN,-0.114408,3.259567E-11,-3.082752E-07,-1.111143E-07,5.358611E-09,-2.861022E-08
636.9511,-0.01445075,-4.984228E-09,NaN,-0.847328,-1.333469E-07,NaN,-1.558393,-3.721845E-07,NaN,-1.813744,1.899995E-05,0.1188143,5.483352E-08,NaN,NaN,-0.1141049,3.725228E-11,-3.032088E-07,-1.111112E-07,7.742797E-09,-2.861022E-08
636.9672,-0.01444935,-4.983455E-09,NaN,-0.8477907,-1.333445E-07,NaN,-1.558501,-3.724618E-07,NaN,-1.816269,1.900036E-05,0.1208004,5.511242E-08,NaN,NaN,-0.1139371,4.190889E-11,-2.982169E-07,-1.111082E-07,7.742797E-09,-2.861022E-08
636.9826,-0.01444824,-4.982684E-09,NaN,-0.8481969,-1.333422E-07,NaN,-1.558521,-3.72728E-07,NaN,-1.818454,1.900077E-05,0.1227416,5.538013E-08,NaN,NaN,-0.1137725,5.122212E-11,-2.951622E-07,-1.111051E-07,2.974425E-09,-2.861022E-08
636.9984,-0.01444824,-4.982684E-09,NaN,-0.8481969,-1.333422E-07,NaN,-1.558521,-3.72728E-07,NaN,-1.818454,1.900077E-05,0.1227416,5.538013E-08,NaN,NaN,-0.1137725,5.122212E-11,-2.951622E-07,-1.111051E-07,2.974425E-09,-2.861022E-08
637.0132,-0.01444727,-4.981912E-09,NaN,-0.8485666,-1.333399E-07,NaN,-1.558501,-3.729859E-07,NaN,-1.820455,1.900118E-05,0.1246602,5.56397E-08,NaN,NaN,-0.1136112,6.053534E-11,-2.913624E-07,-1.111021E-07,-4.178132E-09,-2.861022E-08
637.0296,-0.01444638,-4.981141E-09,NaN,-0.848912,-1.333376E-07,NaN,-1.558466,-3.73236E-07,NaN,-1.822349,1.90016E-05,0.1265478,5.589129E-08,NaN,NaN,-0.1134531,6.519196E-11,-2.875626E-07,-1.110991E-07,5.902394E-10,-2.861022E-08
637.0453,-0.01444566,-4.98037E-09,NaN,-0.8491716,-1.333353E-07,NaN,-1.558669,-3.734753E-07,NaN,-1.823598,1.900201E-05,0.126821,5.613223E-08,NaN,NaN,-0.1134274,7.450518E-11,-2.841354E-07,-1.11096E-07,2.974425E-09,-2.861022E-08
637.061,-0.01444506,-4.9796E-09,NaN,-0.849377,-1.33333E-07,NaN,-1.558777,-3.737071E-07,NaN,-1.824525,1.900242E-05,0.1270809,5.636556E-08,NaN,NaN,-0.1134021,7.91618E-11,-2.824962E-07,-1.11093E-07,-4.178132E-09,-2.861022E-08
637.0766,-0.01444506,-4.9796E-09,NaN,-0.849377,-1.33333E-07,NaN,-1.558777,-3.737071E-07,NaN,-1.824525,1.900242E-05,0.1270809,5.636556E-08,NaN,NaN,-0.1134021,7.91618E-11,-2.824962E-07,-1.11093E-07,-4.178132E-09,-2.861022E-08
637.0916,-0.01444453,-4.97883E-09,NaN,-0.8495482,-1.333307E-07,NaN,-1.558839,-3.739314E-07,NaN,-1.825286,1.900283E-05,0.1273527,5.659142E-08,NaN,NaN,-0.1133774,8.381841E-11,-2.79963E-07,-1.1109E-07,2.974425E-09,-2.861022E-08
637.108,-0.01444404,-4.97806E-09,NaN,-0.8496973,-1.333284E-07,NaN,-1.558882,-3.741455E-07,NaN,-1.825959,1.900325E-05,0.1276268,5.680713E-08,NaN,NaN,-0.1133531,8.847503E-11,-2.769828E-07,-1.110871E-07,-1.793946E-09,-2.861022E-08
637.1238,-0.01444372,-4.977291E-09,NaN,-0.8497629,-1.333261E-07,NaN,-1.559165,-3.743525E-07,NaN,-1.826004,1.900366E-05,0.1263193,5.701572E-08,NaN,NaN,-0.1134587,9.313164E-11,-2.739281E-07,-1.110841E-07,-1.793946E-09,-2.861022E-08
637.1409,-0.01444351,-4.976521E-09,NaN,-0.8497767,-1.333239E-07,NaN,-1.559347,-3.745525E-07,NaN,-1.825744,1.900408E-05,0.1250291,5.721733E-08,NaN,NaN,-0.1135621,9.778826E-11,-2.732575E-07,-1.110811E-07,-1.793946E-09,-2.861022E-08
637.155,-0.01444351,-4.976521E-09,NaN,-0.8497767,-1.333239E-07,NaN,-1.559347,-3.745525E-07,NaN,-1.825744,1.900408E-05,0.1250291,5.721733E-08,NaN,NaN,-0.1135621,9.778826E-11,-2.732575E-07,-1.110811E-07,-1.793946E-09,-2.861022E-08
637.1701,-0.01444338,-4.975753E-09,NaN,-0.8497602,-1.333216E-07,NaN,-1.559478,-3.747457E-07,NaN,-1.825335,1.900449E-05,0.1237826,5.741209E-08,NaN,NaN,-0.1136636,1.024449E-10,-2.716929E-07,-1.110782E-07,-8.946504E-09,-2.861022E-08
637.1863,-0.0144433,-4.974984E-09,NaN,-0.849725,-1.333193E-07,NaN,-1.559587,-3.749294E-07,NaN,-1.824854,1.900491E-05,0.1225688,5.759732E-08,NaN,NaN,-0.113763,1.071015E-10,-2.693832E-07,-1.110752E-07,-1.133069E-08,-2.861022E-08
637.2022,-0.01444338,-4.974216E-09,NaN,-0.8496092,-1.333171E-07,NaN,-1.559931,-3.751065E-07,NaN,-1.823762,1.900532E-05,0.1198036,5.777602E-08,NaN,NaN,-0.1139898,1.117581E-10,-2.66552E-07,-1.110723E-07,-8.946504E-09,-2.861022E-08
637.2175,-0.01444338,-4.974216E-09,NaN,-0.8496092,-1.333171E-07,NaN,-1.559931,-3.751065E-07,NaN,-1.823762,1.900532E-05,0.1198036,5.777602E-08,NaN,NaN,-0.1139898,1.117581E-10,-2.66552E-07,-1.110723E-07,-8.946504E-09,-2.861022E-08
637.2327,-0.01444358,-4.973448E-09,NaN,-0.8494442,-1.333148E-07,NaN,-1.560169,-3.752772E-07,NaN,-1.822383,1.900574E-05,0.1170857,5.794833E-08,NaN,NaN,-0.1142122,1.164147E-10,-2.669245E-07,-1.110693E-07,-1.371488E-08,-2.861022E-08
637.249,-0.01444385,-4.97268E-09,NaN,-0.8492494,-1.333126E-07,NaN,-1.560353,-3.754389E-07,NaN,-1.820871,1.900615E-05,0.1144402,5.811155E-08,NaN,NaN,-0.1144302,1.210713E-10,-2.658069E-07,-1.110664E-07,-2.086743E-08,-2.861022E-08
637.2645,-0.01444417,-4.971913E-09,NaN,-0.8490372,-1.333103E-07,NaN,-1.560512,-3.755944E-07,NaN,-1.819304,1.900657E-05,0.1118555,5.826867E-08,NaN,NaN,-0.1146439,1.257279E-10,-2.642423E-07,-1.110635E-07,-1.848325E-08,-2.861022E-08
637.2802,-0.01444465,-4.971146E-09,NaN,-0.8487459,-1.333081E-07,NaN,-1.560896,-3.75744E-07,NaN,-1.817143,1.900697E-05,0.1077467,5.841981E-08,NaN,NaN,-0.1149828,1.443544E-10,-2.616346E-07,-1.110606E-07,-1.848325E-08,-2.861022E-08
637.2962,-0.01444465,-4.971146E-09,NaN,-0.8487459,-1.333081E-07,NaN,-1.560896,-3.75744E-07,NaN,-1.817143,1.900697E-05,0.1077467,5.841981E-08,NaN,NaN,-0.1149828,1.443544E-10,-2.616346E-07,-1.110606E-07,-1.848325E-08,-2.861022E-08
637.311,-0.01444525,-4.970379E-09,NaN,-0.8484071,-1.333059E-07,NaN,-1.561171,-3.758877E-07,NaN,-1.81471,1.900738E-05,0.1037148,5.856511E-08,NaN,NaN,-0.115315,1.536676E-10,-2.612621E-07,-1.110577E-07,-2.086743E-08,-2.861022E-08
637.3276,-0.01444593,-4.969613E-09,NaN,-0.8480405,-1.333037E-07,NaN,-1.56139,-3.760228E-07,NaN,-1.81216,1.900779E-05,0.09978134,5.870183E-08,NaN,NaN,-0.1156407,1.629809E-10,-2.598465E-07,-1.110549E-07,-2.086743E-08,-2.861022E-08
637.3433,-0.01444665,-4.968847E-09,NaN,-0.8476584,-1.333015E-07,NaN,-1.56158,-3.761524E-07,NaN,-1.80957,1.90082E-05,0.09593432,5.883299E-08,NaN,NaN,-0.1159601,1.722941E-10,-2.578721E-07,-1.11052E-07,-2.325162E-08,-2.861022E-08
637.3595,-0.01444665,-4.968847E-09,NaN,-0.8476584,-1.333015E-07,NaN,-1.56158,-3.761524E-07,NaN,-1.80957,1.90082E-05,0.09593432,5.883299E-08,NaN,NaN,-0.1159601,1.722941E-10,-2.578721E-07,-1.11052E-07,-2.325162E-08,-2.861022E-08
637.3741,-0.01444754,-4.968082E-09,NaN,-0.8471991,-1.332993E-07,NaN,-1.561982,-3.762765E-07,NaN,-1.806403,1.90086E-05,0.09058845,5.895868E-08,NaN,NaN,-0.1164025,1.816073E-10,-2.536997E-07,-1.110491E-07,-2.086743E-08,-2.861022E-08
637.3905,-0.01444855,-4.967316E-09,NaN,-0.8466942,-1.332971E-07,NaN,-1.562274,-3.763953E-07,NaN,-1.802977,1.900901E-05,0.08534813,5.907902E-08,NaN,NaN,-0.1168362,1.909205E-10,-2.523586E-07,-1.110463E-07,-2.086743E-08,-2.861022E-08
637.4061,-0.01444963,-4.966552E-09,NaN,-0.8461635,-1.332949E-07,NaN,-1.562508,-3.765059E-07,NaN,-1.799449,1.900942E-05,0.08022986,5.919128E-08,NaN,NaN,-0.1172615,2.002338E-10,-2.506823E-07,-1.110434E-07,-2.325162E-08,-2.861022E-08
637.4218,-0.01445077,-4.965787E-09,NaN,-0.8456192,-1.332927E-07,NaN,-1.562712,-3.766115E-07,NaN,-1.795896,1.900982E-05,0.0752215,5.929845E-08,NaN,NaN,-0.1176784,2.142036E-10,-2.481118E-07,-1.110406E-07,-2.325162E-08,-2.861022E-08
637.4376,-0.01445077,-4.965787E-09,NaN,-0.8456192,-1.332927E-07,NaN,-1.562712,-3.766115E-07,NaN,-1.795896,1.900982E-05,0.0752215,5.929845E-08,NaN,NaN,-0.1176784,2.142036E-10,-2.481118E-07,-1.110406E-07,-2.325162E-08,-2.861022E-08
637.4526,-0.01445208,-4.965023E-09,NaN,-0.8449996,-1.332905E-07,NaN,-1.563109,-3.767121E-07,NaN,-1.79178,1.901023E-05,0.06873812,5.940063E-08,NaN,NaN,-0.1182164,2.188602E-10,-2.448708E-07,-1.110378E-07,-2.325162E-08,-2.861022E-08
637.4694,-0.01445371,-4.964259E-09,NaN,-0.8443364,-1.332884E-07,NaN,-1.563397,-3.768078E-07,NaN,-1.78742,1.901064E-05,0.06238765,5.949791E-08,NaN,NaN,-0.118744,2.235168E-10,-2.433434E-07,-1.11035E-07,-2.56358E-08,-2.861022E-08
637.4846,-0.01445562,-4.963495E-09,NaN,-0.8436491,-1.332862E-07,NaN,-1.563628,-3.768959E-07,NaN,-1.782972,1.901105E-05,0.05618054,5.958757E-08,NaN,NaN,-0.1192612,2.281734E-10,-2.399161E-07,-1.110322E-07,-2.325162E-08,-2.861022E-08
637.5004,-0.01445775,-4.962732E-09,NaN,-0.8429502,-1.332841E-07,NaN,-1.563828,-3.769793E-07,NaN,-1.778511,1.901146E-05,0.05010489,5.967259E-08,NaN,NaN,-0.1197682,2.3283E-10,-2.359301E-07,-1.110294E-07,-2.325162E-08,-2.861022E-08
637.5161,-0.01445775,-4.962732E-09,NaN,-0.8429502,-1.332841E-07,NaN,-1.563828,-3.769793E-07,NaN,-1.778511,1.901146E-05,0.05010489,5.967259E-08,NaN,NaN,-0.1197682,2.3283E-10,-2.359301E-07,-1.110294E-07,-2.325162E-08,-2.861022E-08
637.5308,-0.01446026,-4.96197E-09,NaN,-0.8421779,-1.332819E-07,NaN,-1.564198,-3.770582E-07,NaN,-1.773502,1.901187E-05,0.04257747,5.975303E-08,NaN,NaN,-0.1203947,2.374867E-10,-2.278648E-07,-1.110266E-07,-2.56358E-08,-2.861022E-08
637.5472,-0.01446313,-4.961207E-09,NaN,-0.8413637,-1.332798E-07,NaN,-1.564463,-3.771326E-07,NaN,-1.768262,1.901228E-05,0.03520829,5.982909E-08,NaN,NaN,-0.1210089,2.374867E-10,-2.23441E-07,-1.110238E-07,-2.56358E-08,-2.861022E-08
637.563,-0.01446631,-4.960445E-09,NaN,-0.8405273,-1.332776E-07,NaN,-1.564673,-3.772027E-07,NaN,-1.762946,1.90127E-05,0.02800158,5.990076E-08,NaN,NaN,-0.121611,2.374867E-10,-2.185144E-07,-1.110211E-07,-3.040417E-08,-2.861022E-08
637.5786,-0.01446631,-4.960445E-09,NaN,-0.8405273,-1.332776E-07,NaN,-1.564673,-3.772027E-07,NaN,-1.762946,1.90127E-05,0.02800158,5.990076E-08,NaN,NaN,-0.121611,2.374867E-10,-2.185144E-07,-1.110211E-07,-3.040417E-08,-2.861022E-08
637.5939,-0.01446993,-4.959683E-09,NaN,-0.8396116,-1.332755E-07,NaN,-1.565025,-3.772657E-07,NaN,-1.757057,1.90131E-05,0.01937201,5.996532E-08,NaN,NaN,-0.1223307,2.467999E-10,-2.090318E-07,-1.110183E-07,-3.278836E-08,-2.861022E-08
637.6102,-0.01447396,-4.958922E-09,NaN,-0.8386512,-1.332734E-07,NaN,-1.565271,-3.773245E-07,NaN,-1.750931,1.901352E-05,0.0109274,6.002571E-08,NaN,NaN,-0.1230363,2.467999E-10,-2.015253E-07,-1.110156E-07,-3.517255E-08,-2.861022E-08
637.6259,-0.01447833,-4.958161E-09,NaN,-0.8376675,-1.332713E-07,NaN,-1.56546,-3.773793E-07,NaN,-1.744733,1.901393E-05,0.002666515,6.008202E-08,NaN,NaN,-0.123728,2.561131E-10,-1.937022E-07,-1.110129E-07,-3.517255E-08,-2.861022E-08
637.6433,-0.01448296,-4.9574E-09,NaN,-0.8366737,-1.332692E-07,NaN,-1.565615,-3.7743E-07,NaN,-1.738543,1.901434E-05,-0.005421954,6.013435E-08,NaN,NaN,-0.1244062,2.561131E-10,-1.841282E-07,-1.110101E-07,-3.517255E-08,-2.861022E-08
637.6572,-0.01448296,-4.9574E-09,NaN,-0.8366737,-1.332692E-07,NaN,-1.565615,-3.7743E-07,NaN,-1.738543,1.901434E-05,-0.005421954,6.013435E-08,NaN,NaN,-0.1244062,2.561131E-10,-1.841282E-07,-1.110101E-07,-3.517255E-08,-2.861022E-08
637.6719,-0.01448799,-4.95664E-09,NaN,-0.8356088,-1.332671E-07,NaN,-1.565894,-3.774768E-07,NaN,-1.731827,1.901475E-05,-0.01491299,6.018276E-08,NaN,NaN,-0.1252005,2.561131E-10,-1.731013E-07,-1.110074E-07,-3.517255E-08,-2.861022E-08
637.6884,-0.01449339,-4.955879E-09,NaN,-0.834505,-1.33265E-07,NaN,-1.56608,-3.77517E-07,NaN,-1.724905,1.901517E-05,-0.02420069,6.022449E-08,NaN,NaN,-0.1259791,2.561131E-10,-1.599511E-07,-1.110047E-07,-3.278836E-08,-2.861022E-08
637.7042,-0.0144991,-4.955119E-09,NaN,-0.8333819,-1.332629E-07,NaN,-1.566215,-3.775534E-07,NaN,-1.71793,1.901558E-05,-0.03329019,6.026252E-08,NaN,NaN,-0.1267425,2.561131E-10,-1.473968E-07,-1.11002E-07,-3.278836E-08,-2.861022E-08
637.72,-0.0144991,-4.955119E-09,NaN,-0.8333819,-1.332629E-07,NaN,-1.566215,-3.775534E-07,NaN,-1.71793,1.901558E-05,-0.03329019,6.026252E-08,NaN,NaN,-0.1267425,2.561131E-10,-1.473968E-07,-1.11002E-07,-3.278836E-08,-2.861022E-08
637.7349,-0.01450503,-4.95436E-09,NaN,-0.832252,-1.332608E-07,NaN,-1.566318,-3.775862E-07,NaN,-1.71098,1.9016E-05,-0.0421914,6.029691E-08,NaN,NaN,-0.1274909,2.561131E-10,-1.351034E-07,-1.109993E-07,-3.040417E-08,-2.861022E-08
637.751,-0.01450862,-4.9536E-09,NaN,-0.8319546,-1.332587E-07,NaN,-1.565012,-3.776155E-07,NaN,-1.710969,1.901641E-05,-0.03219368,6.032774E-08,NaN,NaN,-0.1266725,2.561131E-10,-1.872575E-07,-1.109967E-07,-3.040417E-08,-2.861022E-08
637.7669,-0.01450939,-4.952841E-09,NaN,-0.8321706,-1.332566E-07,NaN,-1.564316,-3.776412E-07,NaN,-1.714316,1.901683E-05,-0.0224754,6.035506E-08,NaN,NaN,-0.1258702,2.561131E-10,-2.155429E-07,-1.10994E-07,-2.801999E-08,-2.861022E-08
637.7822,-0.01450885,-4.952082E-09,NaN,-0.8327026,-1.332546E-07,NaN,-1.563859,-3.776635E-07,NaN,-1.719311,1.901724E-05,-0.01300992,6.037896E-08,NaN,NaN,-0.1250836,2.561131E-10,-2.35855E-07,-1.109913E-07,-2.56358E-08,-2.861022E-08
637.7981,-0.01450885,-4.952082E-09,NaN,-0.8327026,-1.332546E-07,NaN,-1.563859,-3.776635E-07,NaN,-1.719311,1.901724E-05,-0.01300992,6.037896E-08,NaN,NaN,-0.1250836,2.561131E-10,-2.35855E-07,-1.109913E-07,-2.56358E-08,-2.861022E-08
637.813,-0.01450767,-4.951324E-09,NaN,-0.8334272,-1.332525E-07,NaN,-1.56349,-3.776797E-07,NaN,-1.725097,1.901765E-05,-0.003751783,6.039667E-08,NaN,NaN,-0.1243125,2.654263E-10,-2.491916E-07,-1.109887E-07,-2.801999E-08,-2.861022E-08
637.8295,-0.01450621,-4.950566E-09,NaN,-0.8341981,-1.332505E-07,NaN,-1.563285,-3.776926E-07,NaN,-1.730669,1.901806E-05,0.003752627,6.041115E-08,NaN,NaN,-0.1236859,2.654263E-10,-2.538331E-07,-1.10986E-07,-3.040417E-08,-2.861022E-08
637.8453,-0.01450443,-4.949808E-09,NaN,-0.8349941,-1.332484E-07,NaN,-1.563046,-3.777023E-07,NaN,-1.73611,1.901848E-05,0.0111133,6.042244E-08,NaN,NaN,-0.1230716,2.654263E-10,-2.59072E-07,-1.109834E-07,-3.517254E-08,-2.861022E-08
637.8608,-0.01450239,-4.94905E-09,NaN,-0.835802,-1.332464E-07,NaN,-1.562792,-3.777089E-07,NaN,-1.741451,1.901889E-05,0.0183363,6.043063E-08,NaN,NaN,-0.1224693,2.654263E-10,-2.625924E-07,-1.109808E-07,-3.517254E-08,-2.861022E-08
637.8766,-0.01450239,-4.94905E-09,NaN,-0.835802,-1.332464E-07,NaN,-1.562792,-3.777089E-07,NaN,-1.741451,1.901889E-05,0.0183363,6.043063E-08,NaN,NaN,-0.1224693,2.654263E-10,-2.625924E-07,-1.109808E-07,-3.517254E-08,-2.861022E-08
637.8917,-0.01450018,-4.948293E-09,NaN,-0.8366137,-1.332443E-07,NaN,-1.562533,-3.777124E-07,NaN,-1.746706,1.901931E-05,0.02542168,6.043576E-08,NaN,NaN,-0.1218788,2.654263E-10,-2.645668E-07,-1.109782E-07,-3.755673E-08,-2.861022E-08
637.9081,-0.01449807,-4.947536E-09,NaN,-0.8373547,-1.332423E-07,NaN,-1.562429,-3.77713E-07,NaN,-1.751309,1.901972E-05,0.03079862,6.04379E-08,NaN,NaN,-0.1214294,2.654263E-10,-2.635238E-07,-1.109756E-07,-3.994092E-08,-2.861022E-08
637.9236,-0.01449612,-4.946779E-09,NaN,-0.8380488,-1.332403E-07,NaN,-1.562269,-3.777078E-07,NaN,-1.755563,1.902014E-05,0.03607598,6.043427E-08,NaN,NaN,-0.1209887,2.654263E-10,-2.63263E-07,-1.10973E-07,-4.470929E-08,-2.861022E-08
637.9391,-0.01449612,-4.946779E-09,NaN,-0.8380488,-1.332403E-07,NaN,-1.562269,-3.777078E-07,NaN,-1.755563,1.902014E-05,0.03607598,6.043427E-08,NaN,NaN,-0.1209887,2.654263E-10,-2.63263E-07,-1.10973E-07,-4.470929E-08,-2.861022E-08
637.9543,-0.01449433,-4.946022E-09,NaN,-0.8387108,-1.332383E-07,NaN,-1.562086,-3.776998E-07,NaN,-1.759615,1.902054E-05,0.04125881,6.042783E-08,NaN,NaN,-0.1205567,2.747395E-10,-2.634493E-07,-1.109704E-07,-4.23251E-08,-2.861022E-08
637.9708,-0.01449266,-4.945266E-09,NaN,-0.8393501,-1.332363E-07,NaN,-1.561897,-3.77689E-07,NaN,-1.763536,1.902096E-05,0.04634413,6.041862E-08,NaN,NaN,-0.1201331,2.747395E-10,-2.630022E-07,-1.109678E-07,-3.755673E-08,-2.861022E-08
637.9865,-0.01449132,-4.94451E-09,NaN,-0.8399031,-1.332343E-07,NaN,-1.561881,-3.776755E-07,NaN,-1.766788,1.902137E-05,0.049756,6.040671E-08,NaN,NaN,-0.1198473,2.747395E-10,-2.604876E-07,-1.109652E-07,-3.994092E-08,-2.861022E-08
638.0021,-0.01449024,-4.943754E-09,NaN,-0.8404004,-1.332323E-07,NaN,-1.561801,-3.776593E-07,NaN,-1.769693,1.902179E-05,0.05310534,6.039213E-08,NaN,NaN,-0.1195671,2.747395E-10,-2.598357E-07,-1.109627E-07,-3.994092E-08,-2.861022E-08
638.0177,-0.01449024,-4.943754E-09,NaN,-0.8404004,-1.332323E-07,NaN,-1.561801,-3.776593E-07,NaN,-1.769693,1.902179E-05,0.05310534,6.039213E-08,NaN,NaN,-0.1195671,2.747395E-10,-2.598357E-07,-1.109627E-07,-3.994092E-08,-2.861022E-08
638.0325,-0.0144893,-4.942999E-09,NaN,-0.8408611,-1.332303E-07,NaN,-1.561694,-3.776406E-07,NaN,-1.772403,1.90222E-05,0.05639922,6.037494E-08,NaN,NaN,-0.1192923,2.747395E-10,-2.584573E-07,-1.109601E-07,-3.755673E-08,-2.861022E-08
638.049,-0.01448842,-4.942244E-09,NaN,-0.8412971,-1.332283E-07,NaN,-1.561577,-3.776192E-07,NaN,-1.774997,1.902262E-05,0.05963283,6.03552E-08,NaN,NaN,-0.119023,2.747395E-10,-2.578985E-07,-1.109576E-07,-3.517254E-08,-2.861022E-08
638.0648,-0.01448772,-4.941489E-09,NaN,-0.8416466,-1.332263E-07,NaN,-1.561648,-3.775954E-07,NaN,-1.776938,1.902302E-05,0.0612273,6.033295E-08,NaN,NaN,-0.1188883,2.840528E-10,-2.555888E-07,-1.10955E-07,-3.755673E-08,-2.861022E-08
638.0804,-0.01448715,-4.940734E-09,NaN,-0.8419412,-1.332243E-07,NaN,-1.561645,-3.775663E-07,NaN,-1.778548,1.902344E-05,0.06279378,6.030542E-08,NaN,NaN,-0.1187563,2.840528E-10,-2.546948E-07,-1.109525E-07,-4.23251E-08,-2.861022E-08
638.0967,-0.01448715,-4.940734E-09,NaN,-0.8419412,-1.332243E-07,NaN,-1.561645,-3.775663E-07,NaN,-1.778548,1.902344E-05,0.06279378,6.030542E-08,NaN,NaN,-0.1187563,2.840528E-10,-2.546948E-07,-1.109525E-07,-4.23251E-08,-2.861022E-08
638.1115,-0.01448664,-4.939979E-09,NaN,-0.8422005,-1.332224E-07,NaN,-1.561611,-3.775349E-07,NaN,-1.779982,1.902385E-05,0.06434117,6.027555E-08,NaN,NaN,-0.1186268,2.840528E-10,-2.533537E-07,-1.1095E-07,-3.517254E-08,-2.861022E-08
638.1279,-0.01448618,-4.939225E-09,NaN,-0.8424369,-1.332204E-07,NaN,-1.561565,-3.775011E-07,NaN,-1.781317,1.902427E-05,0.06586307,6.024336E-08,NaN,NaN,-0.1184999,2.840528E-10,-2.518636E-07,-1.109475E-07,-3.755673E-08,-2.861022E-08
638.1452,-0.01448589,-4.938471E-09,NaN,-0.8425888,-1.332184E-07,NaN,-1.561711,-3.774651E-07,NaN,-1.782016,1.902468E-05,0.06577897,6.020891E-08,NaN,NaN,-0.1185049,2.840528E-10,-2.493676E-07,-1.10945E-07,-3.994092E-08,-2.861022E-08
638.1594,-0.01448589,-4.938471E-09,NaN,-0.8425888,-1.332184E-07,NaN,-1.561711,-3.774651E-07,NaN,-1.782016,1.902468E-05,0.06577897,6.020891E-08,NaN,NaN,-0.1185049,2.840528E-10,-2.493676E-07,-1.10945E-07,-3.994092E-08,-2.861022E-08
638.1746,-0.01448573,-4.937717E-09,NaN,-0.8426878,-1.332165E-07,NaN,-1.561778,-3.774268E-07,NaN,-1.782402,1.90251E-05,0.0656996,6.017225E-08,NaN,NaN,-0.1185098,2.840528E-10,-2.481383E-07,-1.109425E-07,-3.994092E-08,-2.861022E-08
638.191,-0.01448563,-4.936964E-09,NaN,-0.8427538,-1.332145E-07,NaN,-1.561809,-3.773864E-07,NaN,-1.78263,1.902551E-05,0.06563461,6.013341E-08,NaN,NaN,-0.1185146,2.840528E-10,-2.467227E-07,-1.1094E-07,-4.232511E-08,-2.861022E-08
638.2069,-0.01448558,-4.936211E-09,NaN,-0.842799,-1.332126E-07,NaN,-1.561825,-3.773438E-07,NaN,-1.782776,1.902593E-05,0.0655764,6.009244E-08,NaN,NaN,-0.1185192,2.840528E-10,-2.45158E-07,-1.109375E-07,-3.755673E-08,-2.861022E-08
638.2229,-0.01448571,-4.935458E-09,NaN,-0.8427637,-1.332107E-07,NaN,-1.562032,-3.772992E-07,NaN,-1.782303,1.902634E-05,0.06394362,6.004938E-08,NaN,NaN,-0.1186532,2.840528E-10,-2.418425E-07,-1.109351E-07,-4.232511E-08,-2.861022E-08
638.2385,-0.01448571,-4.935458E-09,NaN,-0.8427637,-1.332107E-07,NaN,-1.562032,-3.772992E-07,NaN,-1.782303,1.902634E-05,0.06394362,6.004938E-08,NaN,NaN,-0.1186532,2.840528E-10,-2.418425E-07,-1.109351E-07,-4.232511E-08,-2.861022E-08
638.2532,-0.01448597,-4.934705E-09,NaN,-0.8426787,-1.332087E-07,NaN,-1.562155,-3.772525E-07,NaN,-1.781533,1.902675E-05,0.06234674,6.000428E-08,NaN,NaN,-0.1187846,2.840528E-10,-2.404642E-07,-1.109326E-07,-3.517255E-08,-2.861022E-08
638.2698,-0.01448629,-4.933953E-09,NaN,-0.8425635,-1.332068E-07,NaN,-1.562239,-3.772038E-07,NaN,-1.780622,1.902717E-05,0.06079489,5.995716E-08,NaN,NaN,-0.1189134,2.840528E-10,-2.387878E-07,-1.109302E-07,-3.755673E-08,-2.861022E-08
638.2853,-0.01448667,-4.933201E-09,NaN,-0.8424302,-1.332049E-07,NaN,-1.562305,-3.771531E-07,NaN,-1.779645,1.902759E-05,0.05927959,5.990808E-08,NaN,NaN,-0.1190397,2.793961E-10,-2.371859E-07,-1.109277E-07,-3.994092E-08,-2.861022E-08
638.3015,-0.01448722,-4.932449E-09,NaN,-0.8422169,-1.33203E-07,NaN,-1.562556,-3.771005E-07,NaN,-1.778068,1.902801E-05,0.05621935,5.985707E-08,NaN,NaN,-0.1192929,2.747395E-10,-2.340194E-07,-1.109253E-07,-4.470929E-08,-2.861022E-08
638.3168,-0.01448722,-4.932449E-09,NaN,-0.8422169,-1.33203E-07,NaN,-1.562556,-3.771005E-07,NaN,-1.778068,1.902801E-05,0.05621935,5.985707E-08,NaN,NaN,-0.1192929,2.747395E-10,-2.340194E-07,-1.109253E-07,-4.470929E-08,-2.861022E-08
638.3319,-0.01448789,-4.931697E-09,NaN,-0.8419552,-1.332011E-07,NaN,-1.56272,-3.770432E-07,NaN,-1.77621,1.902842E-05,0.05322472,5.980134E-08,NaN,NaN,-0.1195411,2.700829E-10,-2.322499E-07,-1.109229E-07,-4.709348E-08,-2.861022E-08
638.3483,-0.01448863,-4.930945E-09,NaN,-0.8416649,-1.331992E-07,NaN,-1.562842,-3.76984E-07,NaN,-1.774227,1.902884E-05,0.05030305,5.974381E-08,NaN,NaN,-0.1197845,2.654263E-10,-2.307226E-07,-1.109205E-07,-4.947767E-08,-2.861022E-08
638.364,-0.01448942,-4.930194E-09,NaN,-0.8413582,-1.331973E-07,NaN,-1.562943,-3.769232E-07,NaN,-1.772195,1.902926E-05,0.04744532,5.968452E-08,NaN,NaN,-0.1200231,2.607697E-10,-2.283197E-07,-1.109181E-07,-4.947767E-08,-2.861022E-08
638.3796,-0.01448942,-4.930194E-09,NaN,-0.8413582,-1.331973E-07,NaN,-1.562943,-3.769232E-07,NaN,-1.772195,1.902926E-05,0.04744532,5.968452E-08,NaN,NaN,-0.1200231,2.607697E-10,-2.283197E-07,-1.109181E-07,-4.947767E-08,-2.861022E-08
638.3945,-0.01449039,-4.929443E-09,NaN,-0.8409734,-1.331954E-07,NaN,-1.563218,-3.768606E-07,NaN,-1.769577,1.902968E-05,0.0430707,5.96235E-08,NaN,NaN,-0.1203864,2.561131E-10,-2.246317E-07,-1.109157E-07,-5.186185E-08,-2.861022E-08
638.4108,-0.01449148,-4.928692E-09,NaN,-0.8405421,-1.331935E-07,NaN,-1.563405,-3.767962E-07,NaN,-1.766694,1.903009E-05,0.03878989,5.956077E-08,NaN,NaN,-0.1207426,2.561131E-10,-2.217632E-07,-1.109133E-07,-5.424604E-08,-2.861022E-08
638.4272,-0.01449265,-4.927942E-09,NaN,-0.840084,-1.331917E-07,NaN,-1.563548,-3.767303E-07,NaN,-1.7637,1.903051E-05,0.0346074,5.949639E-08,NaN,NaN,-0.1210918,2.514565E-10,-2.184943E-07,-1.109109E-07,-5.663023E-08,-2.861022E-08
638.4424,-0.01449391,-4.927192E-09,NaN,-0.8396115,-1.331898E-07,NaN,-1.563669,-3.766627E-07,NaN,-1.760672,1.903093E-05,0.03051397,5.943037E-08,NaN,NaN,-0.1214342,2.467999E-10,-2.157003E-07,-1.109085E-07,-5.424604E-08,-2.861022E-08
638.4586,-0.01449391,-4.927192E-09,NaN,-0.8396115,-1.331898E-07,NaN,-1.563669,-3.766627E-07,NaN,-1.760672,1.903093E-05,0.03051397,5.943037E-08,NaN,NaN,-0.1214342,2.467999E-10,-2.157003E-07,-1.109085E-07,-5.424604E-08,-2.861022E-08
638.4732,-0.01449552,-4.926441E-09,NaN,-0.8390629,-1.331879E-07,NaN,-1.563948,-3.765934E-07,NaN,-1.757074,1.903135E-05,0.02493068,5.936276E-08,NaN,NaN,-0.1218992,2.421433E-10,-2.100472E-07,-1.109062E-07,-5.186185E-08,-2.861022E-08
638.4896,-0.01449748,-4.925692E-09,NaN,-0.8384697,-1.331861E-07,NaN,-1.56414,-3.765227E-07,NaN,-1.753225,1.903176E-05,0.01946764,5.929358E-08,NaN,NaN,-0.1223552,2.514565E-10,-2.066098E-07,-1.109038E-07,-4.947767E-08,-2.861022E-08
638.5052,-0.01449974,-4.924942E-09,NaN,-0.8378517,-1.331842E-07,NaN,-1.564287,-3.764504E-07,NaN,-1.74928,1.903217E-05,0.01412591,5.922286E-08,NaN,NaN,-0.1228022,2.467999E-10,-2.019764E-07,-1.109014E-07,-5.186185E-08,-2.861022E-08
638.5208,-0.01450223,-4.924193E-09,NaN,-0.8372211,-1.331824E-07,NaN,-1.564411,-3.763766E-07,NaN,-1.745314,1.903259E-05,0.008896277,5.915064E-08,NaN,NaN,-0.1232404,2.421433E-10,-1.972965E-07,-1.108991E-07,-4.709348E-08,-2.861022E-08
638.5366,-0.01450223,-4.924193E-09,NaN,-0.8372211,-1.331824E-07,NaN,-1.564411,-3.763766E-07,NaN,-1.745314,1.903259E-05,0.008896277,5.915064E-08,NaN,NaN,-0.1232404,2.421433E-10,-1.972965E-07,-1.108991E-07,-4.709348E-08,-2.861022E-08
638.5514,-0.01450513,-4.923444E-09,NaN,-0.8365163,-1.331805E-07,NaN,-1.564674,-3.763013E-07,NaN,-1.740792,1.903301E-05,0.002203131,5.907694E-08,NaN,NaN,-0.1237995,2.374867E-10,-1.889612E-07,-1.108968E-07,-4.947767E-08,-2.861022E-08
638.5685,-0.0145084,-4.922695E-09,NaN,-0.8357688,-1.331787E-07,NaN,-1.564852,-3.762245E-07,NaN,-1.736033,1.903343E-05,-0.004345606,5.900178E-08,NaN,NaN,-0.1243476,2.328301E-10,-1.823116E-07,-1.108944E-07,-4.947767E-08,-2.861022E-08
638.5836,-0.01451198,-4.921946E-09,NaN,-0.8349983,-1.331769E-07,NaN,-1.564988,-3.761464E-07,NaN,-1.73119,1.903384E-05,-0.01075234,5.892521E-08,NaN,NaN,-0.1248849,2.328301E-10,-1.748982E-07,-1.108921E-07,-4.709348E-08,-2.861022E-08
638.5994,-0.01451198,-4.921946E-09,NaN,-0.8349983,-1.331769E-07,NaN,-1.564988,-3.761464E-07,NaN,-1.73119,1.903384E-05,-0.01075234,5.892521E-08,NaN,NaN,-0.1248849,2.328301E-10,-1.748982E-07,-1.108921E-07,-4.709348E-08,-2.861022E-08
638.6143,-0.01451604,-4.921198E-09,NaN,-0.8341478,-1.33175E-07,NaN,-1.565237,-3.760668E-07,NaN,-1.725767,1.903425E-05,-0.01859242,5.884725E-08,NaN,NaN,-0.1255412,2.421433E-10,-1.619156E-07,-1.108898E-07,-4.47093E-08,-2.861022E-08
638.6305,-0.01452051,-4.92045E-09,NaN,-0.8332516,-1.331732E-07,NaN,-1.565402,-3.759859E-07,NaN,-1.7201,1.903466E-05,-0.02626279,5.876792E-08,NaN,NaN,-0.1261845,2.421433E-10,-1.522298E-07,-1.108875E-07,-3.994093E-08,-2.861022E-08
638.6475,-0.01452534,-4.919702E-09,NaN,-0.8323313,-1.331714E-07,NaN,-1.565522,-3.759037E-07,NaN,-1.714353,1.903508E-05,-0.03376894,5.868726E-08,NaN,NaN,-0.1268153,2.374867E-10,-1.428421E-07,-1.108852E-07,-3.994093E-08,-2.861022E-08
638.6619,-0.01453041,-4.918955E-09,NaN,-0.8314002,-1.331696E-07,NaN,-1.565616,-3.758201E-07,NaN,-1.708607,1.90355E-05,-0.04111974,5.860528E-08,NaN,NaN,-0.1274336,2.328301E-10,-1.346092E-07,-1.108829E-07,-4.47093E-08,-2.861022E-08
638.6776,-0.01453041,-4.918955E-09,NaN,-0.8314002,-1.331696E-07,NaN,-1.565616,-3.758201E-07,NaN,-1.708607,1.90355E-05,-0.04111974,5.860528E-08,NaN,NaN,-0.1274336,2.328301E-10,-1.346092E-07,-1.108829E-07,-4.47093E-08,-2.861022E-08
638.6929,-0.01453591,-4.918207E-09,NaN,-0.8303973,-1.331678E-07,NaN,-1.565806,-3.757353E-07,NaN,-1.702329,1.903592E-05,-0.04988009,5.852202E-08,NaN,NaN,-0.1281693,2.328301E-10,-1.184414E-07,-1.108806E-07,-4.709348E-08,-2.861022E-08
638.709,-0.01454179,-4.91746E-09,NaN,-0.8293546,-1.33166E-07,NaN,-1.565923,-3.756491E-07,NaN,-1.695838,1.903633E-05,-0.0584531,5.84375E-08,NaN,NaN,-0.1288905,2.281735E-10,-1.052539E-07,-1.108784E-07,-4.47093E-08,-2.861022E-08
638.7249,-0.01454797,-4.916713E-09,NaN,-0.828292,-1.331642E-07,NaN,-1.565999,-3.755618E-07,NaN,-1.689287,1.903675E-05,-0.0668458,5.835174E-08,NaN,NaN,-0.1295975,2.235168E-10,-9.050177E-08,-1.108761E-07,-4.47093E-08,-2.861022E-08
638.7406,-0.01455438,-4.915966E-09,NaN,-0.8272218,-1.331624E-07,NaN,-1.566052,-3.754732E-07,NaN,-1.682754,1.903717E-05,-0.07506607,5.826477E-08,NaN,NaN,-0.1302907,2.235168E-10,-7.716523E-08,-1.108739E-07,-3.994093E-08,-2.861022E-08
638.7562,-0.01455438,-4.915966E-09,NaN,-0.8272218,-1.331624E-07,NaN,-1.566052,-3.754732E-07,NaN,-1.682754,1.903717E-05,-0.07506607,5.826477E-08,NaN,NaN,-0.1302907,2.235168E-10,-7.716523E-08,-1.108739E-07,-3.994093E-08,-2.861022E-08
638.7712,-0.01456055,-4.91522E-09,NaN,-0.8261521,-1.331606E-07,NaN,-1.566087,-3.753863E-07,NaN,-1.676276,1.903758E-05,-0.08311911,5.817944E-08,NaN,NaN,-0.1309694,2.188602E-10,-6.412672E-08,-1.108716E-07,-3.755674E-08,-2.861022E-08
638.7873,-0.01456658,-4.914473E-09,NaN,-0.8250876,-1.331588E-07,NaN,-1.566108,-3.752982E-07,NaN,-1.669872,1.903799E-05,-0.09100926,5.809288E-08,NaN,NaN,-0.1316349,2.281735E-10,-5.123721E-08,-1.108694E-07,-3.994093E-08,-2.861022E-08
638.8032,-0.01457254,-4.913727E-09,NaN,-0.824031,-1.331571E-07,NaN,-1.566118,-3.752089E-07,NaN,-1.66355,1.903841E-05,-0.09874026,5.800513E-08,NaN,NaN,-0.1322872,2.235169E-10,-3.834771E-08,-1.108671E-07,-3.755674E-08,-2.861022E-08
638.8188,-0.01457254,-4.913727E-09,NaN,-0.824031,-1.331571E-07,NaN,-1.566118,-3.752089E-07,NaN,-1.66355,1.903841E-05,-0.09874026,5.800513E-08,NaN,NaN,-0.1322872,2.235169E-10,-3.834771E-08,-1.108671E-07,-3.755674E-08,-2.861022E-08
638.8343,-0.01457845,-4.912982E-09,NaN,-0.822984,-1.331553E-07,NaN,-1.566118,-3.751184E-07,NaN,-1.657315,1.903883E-05,-0.1063156,5.791621E-08,NaN,NaN,-0.1329268,2.188602E-10,-2.434061E-08,-1.108649E-07,-3.517255E-08,-2.861022E-08
638.8505,-0.01458415,-4.912236E-09,NaN,-0.8220169,-1.331535E-07,NaN,-1.566049,-3.750267E-07,NaN,-1.65174,1.903923E-05,-0.1121982,5.782615E-08,NaN,NaN,-0.1334246,2.281735E-10,-1.912521E-08,-1.108627E-07,-3.517255E-08,-2.861022E-08
638.8658,-0.01458959,-4.911491E-09,NaN,-0.8211035,-1.331518E-07,NaN,-1.566008,-3.749339E-07,NaN,-1.646528,1.903964E-05,-0.1179677,5.773495E-08,NaN,NaN,-0.1339125,2.374867E-10,-1.25687E-08,-1.108605E-07,-3.278836E-08,-2.861022E-08
638.8814,-0.01459482,-4.910746E-09,NaN,-0.8202272,-1.3315E-07,NaN,-1.565978,-3.7484E-07,NaN,-1.641533,1.904006E-05,-0.1236244,5.764265E-08,NaN,NaN,-0.134391,2.328301E-10,-3.926024E-09,-1.108583E-07,-3.278836E-08,-2.861022E-08
638.897,-0.01459482,-4.910746E-09,NaN,-0.8202272,-1.3315E-07,NaN,-1.565978,-3.7484E-07,NaN,-1.641533,1.904006E-05,-0.1236244,5.764265E-08,NaN,NaN,-0.134391,2.328301E-10,-3.926024E-09,-1.108583E-07,-3.278836E-08,-2.861022E-08
638.9123,-0.01459987,-4.910001E-09,NaN,-0.8193778,-1.331483E-07,NaN,-1.56595,-3.747451E-07,NaN,-1.636684,1.904046E-05,-0.129169,5.754926E-08,NaN,NaN,-0.13486,2.421433E-10,4.567638E-09,-1.108561E-07,-3.517255E-08,-2.861022E-08
638.929,-0.01460458,-4.909256E-09,NaN,-0.8186181,-1.331465E-07,NaN,-1.565881,-3.74649E-07,NaN,-1.632514,1.904088E-05,-0.1330703,5.745482E-08,NaN,NaN,-0.1351906,2.374867E-10,3.375545E-09,-1.108539E-07,-3.755674E-08,-2.861022E-08
638.9439,-0.01460896,-4.908512E-09,NaN,-0.8179172,-1.331448E-07,NaN,-1.565834,-3.745519E-07,NaN,-1.628708,1.904129E-05,-0.1368959,5.735933E-08,NaN,NaN,-0.1355147,2.467999E-10,4.418626E-09,-1.108517E-07,-3.994093E-08,-2.861022E-08
638.9599,-0.01460896,-4.908512E-09,NaN,-0.8179172,-1.331448E-07,NaN,-1.565834,-3.745519E-07,NaN,-1.628708,1.904129E-05,-0.1368959,5.735933E-08,NaN,NaN,-0.1355147,2.467999E-10,4.418626E-09,-1.108517E-07,-3.994093E-08,-2.861022E-08
638.9748,-0.01461305,-4.907768E-09,NaN,-0.8172556,-1.331431E-07,NaN,-1.565797,-3.744539E-07,NaN,-1.62511,1.90417E-05,-0.1406463,5.726282E-08,NaN,NaN,-0.1358325,2.421433E-10,7.100835E-09,-1.108496E-07,-3.755674E-08,-2.861022E-08
638.9913,-0.01461693,-4.907024E-09,NaN,-0.8166213,-1.331413E-07,NaN,-1.565764,-3.743548E-07,NaN,-1.621642,1.904212E-05,-0.1443224,5.716531E-08,NaN,NaN,-0.136144,2.374867E-10,1.067711E-08,-1.108474E-07,-4.232511E-08,-2.861022E-08
639.0067,-0.01462043,-4.90628E-09,NaN,-0.816076,-1.331396E-07,NaN,-1.565705,-3.742547E-07,NaN,-1.618837,1.904254E-05,-0.1463979,5.706682E-08,NaN,NaN,-0.1363202,2.328301E-10,4.120603E-09,-1.108452E-07,-4.232511E-08,-2.861022E-08
639.0223,-0.01462357,-4.905536E-09,NaN,-0.815588,-1.331379E-07,NaN,-1.565663,-3.741536E-07,NaN,-1.616378,1.904296E-05,-0.1484317,5.696737E-08,NaN,NaN,-0.1364929,2.328301E-10,9.913597E-10,-1.108431E-07,-4.709348E-08,-2.861022E-08
639.0379,-0.01462357,-4.905536E-09,NaN,-0.815588,-1.331379E-07,NaN,-1.565663,-3.741536E-07,NaN,-1.616378,1.904296E-05,-0.1484317,5.696737E-08,NaN,NaN,-0.1364929,2.328301E-10,9.913597E-10,-1.108431E-07,-4.709348E-08,-2.861022E-08
639.0527,-0.01462642,-4.904793E-09,NaN,-0.8151376,-1.331362E-07,NaN,-1.565628,-3.740516E-07,NaN,-1.614108,1.904338E-05,-0.1504249,5.686695E-08,NaN,NaN,-0.1366622,2.235169E-10,-4.987564E-10,-1.10841E-07,-4.709348E-08,-2.861022E-08
639.0693,-0.01462904,-4.90405E-09,NaN,-0.8147123,-1.331345E-07,NaN,-1.565596,-3.739515E-07,NaN,-1.611949,1.90438E-05,-0.1523785,5.676844E-08,NaN,NaN,-0.1368282,2.188602E-10,-1.392826E-09,-1.108388E-07,-3.994092E-08,-2.861022E-08
639.085,-0.01463128,-4.903308E-09,NaN,-0.8143739,-1.331328E-07,NaN,-1.565549,-3.738505E-07,NaN,-1.610435,1.904422E-05,-0.1527684,5.666897E-08,NaN,NaN,-0.1368618,2.142036E-10,-1.331375E-08,-1.108367E-07,-3.040418E-08,-2.861022E-08
639.1006,-0.01463316,-4.902565E-09,NaN,-0.8140905,-1.331311E-07,NaN,-1.565512,-3.737485E-07,NaN,-1.609247,1.904464E-05,-0.1531485,5.656855E-08,NaN,NaN,-0.1368946,2.048904E-10,-2.16584E-08,-1.108346E-07,-3.278837E-08,-2.861022E-08
639.1162,-0.01463316,-4.902565E-09,NaN,-0.8140905,-1.331311E-07,NaN,-1.565512,-3.737485E-07,NaN,-1.609247,1.904464E-05,-0.1531485,5.656855E-08,NaN,NaN,-0.1368946,2.048904E-10,-2.16584E-08,-1.108346E-07,-3.278837E-08,-2.861022E-08
639.1326,-0.01463474,-4.901823E-09,NaN,-0.8138424,-1.331294E-07,NaN,-1.56548,-3.736455E-07,NaN,-1.60823,1.904506E-05,-0.1535198,5.64672E-08,NaN,NaN,-0.1369268,1.955772E-10,-2.791689E-08,-1.108325E-07,-3.517255E-08,-2.861022E-08
639.1477,-0.01463609,-4.901081E-09,NaN,-0.8136172,-1.331277E-07,NaN,-1.565451,-3.735417E-07,NaN,-1.607306,1.904549E-05,-0.1538831,5.636495E-08,NaN,NaN,-0.1369584,1.862639E-10,-3.238724E-08,-1.108304E-07,-3.040418E-08,-2.861022E-08
639.1633,-0.01463708,-4.90034E-09,NaN,-0.8134763,-1.33126E-07,NaN,-1.56541,-3.73437E-07,NaN,-1.607009,1.904591E-05,-0.1527152,5.626181E-08,NaN,NaN,-0.1368601,1.769507E-10,-4.833148E-08,-1.108283E-07,-3.040418E-08,-2.861022E-08
639.1792,-0.01463708,-4.90034E-09,NaN,-0.8134763,-1.33126E-07,NaN,-1.56541,-3.73437E-07,NaN,-1.607009,1.904591E-05,-0.1527152,5.626181E-08,NaN,NaN,-0.1368601,1.769507E-10,-4.833148E-08,-1.108283E-07,-3.040418E-08,-2.861022E-08
639.1941,-0.01463787,-4.899598E-09,NaN,-0.8133882,-1.331244E-07,NaN,-1.565376,-3.733313E-07,NaN,-1.60702,1.904634E-05,-0.1515669,5.61578E-08,NaN,NaN,-0.1367638,1.676375E-10,-5.980537E-08,-1.108262E-07,-2.086744E-08,-2.861022E-08
639.2104,-0.01463855,-4.898856E-09,NaN,-0.813333,-1.331227E-07,NaN,-1.565345,-3.732249E-07,NaN,-1.607184,1.904676E-05,-0.1504394,5.605293E-08,NaN,NaN,-0.1366693,1.583243E-10,-6.949113E-08,-1.108241E-07,-1.848326E-08,-2.861022E-08
639.2263,-0.01463916,-4.898115E-09,NaN,-0.8132983,-1.33121E-07,NaN,-1.565314,-3.731176E-07,NaN,-1.607423,1.904718E-05,-0.1493329,5.594722E-08,NaN,NaN,-0.1365767,1.536676E-10,-7.843182E-08,-1.10822E-07,-1.848326E-08,-2.861022E-08
639.2419,-0.0146396,-4.897374E-09,NaN,-0.8133444,-1.331194E-07,NaN,-1.565271,-3.730095E-07,NaN,-1.608274,1.90476E-05,-0.1467233,5.584069E-08,NaN,NaN,-0.1363567,1.443544E-10,-9.780334E-08,-1.1082E-07,-1.371488E-08,-2.861022E-08
639.2574,-0.0146396,-4.897374E-09,NaN,-0.8133444,-1.331194E-07,NaN,-1.565271,-3.730095E-07,NaN,-1.608274,1.90476E-05,-0.1467233,5.584069E-08,NaN,NaN,-0.1363567,1.443544E-10,-9.780334E-08,-1.1082E-07,-1.371488E-08,-2.861022E-08
639.2724,-0.01463993,-4.896633E-09,NaN,-0.81344,-1.331177E-07,NaN,-1.565233,-3.729006E-07,NaN,-1.609415,1.904802E-05,-0.144161,5.573336E-08,NaN,NaN,-0.1361409,1.350412E-10,-1.124065E-07,-1.108179E-07,-1.13307E-08,-2.861022E-08
639.2889,-0.01464018,-4.895892E-09,NaN,-0.8135657,-1.331161E-07,NaN,-1.565196,-3.732817E-07,NaN,-1.610693,1.904844E-05,-0.1416467,5.61161E-08,NaN,NaN,-0.1359294,1.25728E-10,-1.241784E-07,-1.108158E-07,-1.371488E-08,-2.861022E-08
639.3044,-0.01464038,-4.895152E-09,NaN,-0.8137096,-1.331144E-07,NaN,-1.565158,-3.736525E-07,NaN,-1.612029,1.904885E-05,-0.1391804,5.648846E-08,NaN,NaN,-0.135722,1.25728E-10,-1.352053E-07,-1.108138E-07,-8.946512E-09,-2.861022E-08
639.3201,-0.01464043,-4.894412E-09,NaN,-0.8139331,-1.331128E-07,NaN,-1.565103,-3.740131E-07,NaN,-1.613959,1.904926E-05,-0.1352351,5.685063E-08,NaN,NaN,-0.1353895,1.25728E-10,-1.560669E-07,-1.108118E-07,-6.562326E-09,-2.861022E-08
639.336,-0.01464043,-4.894412E-09,NaN,-0.8139331,-1.331128E-07,NaN,-1.565103,-3.740131E-07,NaN,-1.613959,1.904926E-05,-0.1352351,5.685063E-08,NaN,NaN,-0.1353895,1.25728E-10,-1.560669E-07,-1.108118E-07,-6.562326E-09,-2.861022E-08
639.3507,-0.01464035,-4.893672E-09,NaN,-0.814205,-1.331112E-07,NaN,-1.565051,-3.743637E-07,NaN,-1.616164,1.904967E-05,-0.131363,5.720281E-08,NaN,NaN,-0.1350634,1.25728E-10,-1.732032E-07,-1.108097E-07,-6.562326E-09,-2.861022E-08
639.3674,-0.0146402,-4.892932E-09,NaN,-0.8145054,-1.331096E-07,NaN,-1.565,-3.747073E-07,NaN,-1.618489,1.905009E-05,-0.1275645,5.754804E-08,NaN,NaN,-0.1347437,1.164147E-10,-1.872103E-07,-1.108077E-07,-4.178141E-09,-2.861022E-08
639.3826,-0.01464,-4.892192E-09,NaN,-0.8148221,-1.331079E-07,NaN,-1.564948,-3.750413E-07,NaN,-1.620857,1.905049E-05,-0.1238386,5.788361E-08,NaN,NaN,-0.1344303,1.164147E-10,-1.997273E-07,-1.108057E-07,-1.793955E-09,-2.861022E-08
639.3984,-0.01464,-4.892192E-09,NaN,-0.8148221,-1.331079E-07,NaN,-1.564948,-3.750413E-07,NaN,-1.620857,1.905049E-05,-0.1238386,5.788361E-08,NaN,NaN,-0.1344303,1.164147E-10,-1.997273E-07,-1.108057E-07,-1.793955E-09,-2.861022E-08
639.4133,-0.01463964,-4.891453E-09,NaN,-0.8152167,-1.331063E-07,NaN,-1.564868,-3.753658E-07,NaN,-1.623804,1.905091E-05,-0.1186542,5.820973E-08,NaN,NaN,-0.1339938,1.071015E-10,-2.196203E-07,-1.108037E-07,-6.562326E-09,-2.861022E-08
639.4299,-0.01463916,-4.890714E-09,NaN,-0.8156576,-1.331047E-07,NaN,-1.564793,-3.756811E-07,NaN,-1.62701,1.905133E-05,-0.1135677,5.852656E-08,NaN,NaN,-0.1335658,9.778828E-11,-2.363096E-07,-1.108017E-07,-4.178141E-09,-2.861022E-08
639.4453,-0.0146386,-4.889975E-09,NaN,-0.816125,-1.331031E-07,NaN,-1.564718,-3.759872E-07,NaN,-1.630322,1.905175E-05,-0.1085782,5.88343E-08,NaN,NaN,-0.1331462,8.847506E-11,-2.510618E-07,-1.107997E-07,-6.562326E-09,-2.861022E-08
