JMolnar6/NonAnthroHands_User_Study/HandsLoggerWithURDF/tempdata/files/Reachy_JointMotion_gesture_13_64.csv
Time,r_shoulder,r_shoulder_x,r_upper_arm,r_forearm,r_wrist,r_wrist2hand,
929.7512,-0.2154316,4.859614E-09,NaN,-0.4769096,-1.31656E-07,NaN,-0.01769501,-5.910479E-07,NaN,-0.6756322,2.495362E-05,-0.001884035,1.102345E-07,NaN,NaN,0.1835485,-4.004702E-10,-4.697237E-07,-1.092915E-07,-2.277742E-08,-2.622604E-08
929.7672,-0.2159954,4.860204E-09,NaN,-0.4751909,-1.316565E-07,NaN,-0.0160884,-5.910256E-07,NaN,-0.6733963,2.495397E-05,-2.797984E-05,1.102134E-07,NaN,NaN,0.18298,-3.958136E-10,-4.661475E-07,-1.092933E-07,-1.800905E-08,-2.861022E-08
929.7833,-0.216586,4.860794E-09,NaN,-0.473388,-1.316573E-07,NaN,-0.01478734,-5.908715E-07,NaN,-0.6706756,2.495433E-05,0.002487714,1.100603E-07,NaN,NaN,0.1821085,-4.051268E-10,-4.613791E-07,-1.092947E-07,-1.800905E-08,-2.622604E-08
929.7986,-0.216586,4.860794E-09,NaN,-0.473388,-1.316573E-07,NaN,-0.01478734,-5.908715E-07,NaN,-0.6706756,2.495433E-05,0.002487714,1.100603E-07,NaN,NaN,0.1821085,-4.051268E-10,-4.613791E-07,-1.092947E-07,-1.800905E-08,-2.622604E-08
929.8135,-0.2171904,4.861384E-09,NaN,-0.4715413,-1.31658E-07,NaN,-0.01348054,-5.907428E-07,NaN,-0.667877,2.495468E-05,0.005247168,1.099327E-07,NaN,NaN,0.1812541,-4.097834E-10,-4.625712E-07,-1.092959E-07,-1.204858E-08,-2.861022E-08
929.8303,-0.2178008,4.861974E-09,NaN,-0.469676,-1.316587E-07,NaN,-0.01207438,-5.906278E-07,NaN,-0.6650673,2.495503E-05,0.008030974,1.098189E-07,NaN,NaN,0.1804164,-4.097834E-10,-4.643593E-07,-1.092972E-07,-1.324068E-08,-2.622604E-08
929.8459,-0.218412,4.862565E-09,NaN,-0.4678077,-1.316594E-07,NaN,-0.01057469,-5.90501E-07,NaN,-0.6622776,2.495539E-05,0.01076234,1.096931E-07,NaN,NaN,0.1795953,-4.1444E-10,-4.673396E-07,-1.092985E-07,-7.280211E-09,-2.861022E-08
929.8618,-0.2189879,4.863155E-09,NaN,-0.4660503,-1.316599E-07,NaN,-0.008710884,-5.905314E-07,NaN,-0.6600459,2.495574E-05,0.01272154,1.097247E-07,NaN,NaN,0.1791044,-4.1444E-10,-4.715119E-07,-1.093002E-07,-7.280211E-09,-2.622604E-08
929.8797,-0.2189879,4.863155E-09,NaN,-0.4660503,-1.316599E-07,NaN,-0.008710884,-5.905314E-07,NaN,-0.6600459,2.495574E-05,0.01272154,1.097247E-07,NaN,NaN,0.1791044,-4.1444E-10,-4.715119E-07,-1.093002E-07,-7.280211E-09,-2.622604E-08
929.8926,-0.2195394,4.863745E-09,NaN,-0.4643691,-1.316604E-07,NaN,-0.006827757,-5.905471E-07,NaN,-0.6579707,2.495609E-05,0.01432409,1.097415E-07,NaN,NaN,0.178623,-4.1444E-10,-4.703198E-07,-1.093019E-07,-1.443277E-08,-2.861022E-08
929.9092,-0.2200736,4.864335E-09,NaN,-0.4627421,-1.316609E-07,NaN,-0.005041615,-5.905596E-07,NaN,-0.6559865,2.495643E-05,0.01579351,1.097551E-07,NaN,NaN,0.1781511,-4.1444E-10,-4.655515E-07,-1.093037E-07,-6.088118E-09,-2.622604E-08
929.9246,-0.2205948,4.864924E-09,NaN,-0.4611558,-1.316614E-07,NaN,-0.00336128,-5.90569E-07,NaN,-0.654062,2.495678E-05,0.01721267,1.097655E-07,NaN,NaN,0.1776884,-4.1444E-10,-4.631673E-07,-1.093054E-07,-3.703932E-09,-2.861022E-08
929.9408,-0.2210724,4.865514E-09,NaN,-0.4597061,-1.316619E-07,NaN,-0.001458758,-5.905782E-07,NaN,-0.6527061,2.495713E-05,0.01791022,1.097758E-07,NaN,NaN,0.177549,-4.1444E-10,-4.589949E-07,-1.093071E-07,-4.896025E-09,-2.622604E-08
929.9566,-0.2210724,4.865514E-09,NaN,-0.4597061,-1.316619E-07,NaN,-0.001458758,-5.905782E-07,NaN,-0.6527061,2.495713E-05,0.01791022,1.097758E-07,NaN,NaN,0.177549,-4.1444E-10,-4.589949E-07,-1.093071E-07,-4.896025E-09,-2.622604E-08
929.9716,-0.2215212,4.866104E-09,NaN,-0.458347,-1.316625E-07,NaN,0.0003668035,-5.905899E-07,NaN,-0.651503,2.495748E-05,0.01830682,1.097886E-07,NaN,NaN,0.1774123,-4.1444E-10,-4.524384E-07,-1.093089E-07,-4.896025E-09,-2.861022E-08
929.988,-0.2219501,4.866694E-09,NaN,-0.4570496,-1.31663E-07,NaN,0.002036018,-5.906041E-07,NaN,-0.6503807,2.495783E-05,0.01861722,1.098039E-07,NaN,NaN,0.1772782,-4.1444E-10,-4.446898E-07,-1.093106E-07,-3.703932E-09,-2.622604E-08
930.0038,-0.2223649,4.867283E-09,NaN,-0.455796,-1.316635E-07,NaN,0.003564279,-5.90618E-07,NaN,-0.649305,2.495818E-05,0.01891559,1.098189E-07,NaN,NaN,0.1771467,-4.1444E-10,-4.363452E-07,-1.093123E-07,-2.511839E-09,-2.861022E-08
930.0196,-0.2223649,4.867283E-09,NaN,-0.455796,-1.316635E-07,NaN,0.003564279,-5.90618E-07,NaN,-0.649305,2.495818E-05,0.01891559,1.098189E-07,NaN,NaN,0.1771467,-4.1444E-10,-4.363452E-07,-1.093123E-07,-2.511839E-09,-2.861022E-08
930.0345,-0.2227359,4.867873E-09,NaN,-0.4546795,-1.31664E-07,NaN,0.005297712,-5.906343E-07,NaN,-0.6487842,2.495853E-05,0.01852594,1.098363E-07,NaN,NaN,0.177332,-4.1444E-10,-4.351531E-07,-1.093141E-07,-6.088118E-09,-2.622604E-08
930.0509,-0.2230784,4.868463E-09,NaN,-0.4536525,-1.316646E-07,NaN,0.006943053,-5.906531E-07,NaN,-0.648402,2.495888E-05,0.01786352,1.098562E-07,NaN,NaN,0.1775136,-4.1444E-10,-4.262124E-07,-1.093158E-07,-3.703932E-09,-2.861022E-08
930.0667,-0.2234016,4.869053E-09,NaN,-0.4526851,-1.316651E-07,NaN,0.008424939,-5.906743E-07,NaN,-0.6480862,2.495923E-05,0.01713876,1.098785E-07,NaN,NaN,0.1776917,-4.1444E-10,-4.166756E-07,-1.093175E-07,-2.511839E-09,-2.622604E-08
930.0825,-0.2237114,4.869642E-09,NaN,-0.4517588,-1.316656E-07,NaN,0.00976086,-5.90698E-07,NaN,-0.6478025,2.495957E-05,0.01642358,1.099032E-07,NaN,NaN,0.1778662,-4.051268E-10,-4.053508E-07,-1.093192E-07,-3.703932E-09,-2.861022E-08
930.0991,-0.2237114,4.869642E-09,NaN,-0.4517588,-1.316656E-07,NaN,0.00976086,-5.90698E-07,NaN,-0.6478025,2.495957E-05,0.01642358,1.099032E-07,NaN,NaN,0.1778662,-4.051268E-10,-4.053508E-07,-1.093192E-07,-3.703932E-09,-2.861022E-08
930.1138,-0.2239785,4.870231E-09,NaN,-0.4509665,-1.316661E-07,NaN,0.01129784,-5.907239E-07,NaN,-0.6480601,2.495991E-05,0.01504274,1.099303E-07,NaN,NaN,0.1783515,-3.958136E-10,-3.993903E-07,-1.093209E-07,-8.472304E-09,-2.622604E-08
930.1304,-0.224218,4.870821E-09,NaN,-0.4502603,-1.316667E-07,NaN,0.01274277,-5.907521E-07,NaN,-0.6484424,2.496025E-05,0.01340936,1.099595E-07,NaN,NaN,0.1788272,-3.865004E-10,-3.862773E-07,-1.093226E-07,-1.324068E-08,-2.861022E-08
930.1458,-0.2244391,4.87141E-09,NaN,-0.4496102,-1.316672E-07,NaN,0.01402023,-5.907796E-07,NaN,-0.6488773,2.496059E-05,0.01173267,1.099881E-07,NaN,NaN,0.1792936,-3.771871E-10,-3.755485E-07,-1.093243E-07,-1.800905E-08,-2.622604E-08
930.1616,-0.224648,4.871999E-09,NaN,-0.4489978,-1.316677E-07,NaN,0.01514773,-5.908093E-07,NaN,-0.6493309,2.496093E-05,0.01008397,1.10019E-07,NaN,NaN,0.1797508,-3.678739E-10,-3.600513E-07,-1.09326E-07,-1.562486E-08,-2.861022E-08
930.1776,-0.224648,4.871999E-09,NaN,-0.4489978,-1.316677E-07,NaN,0.01514773,-5.908093E-07,NaN,-0.6493309,2.496093E-05,0.01008397,1.10019E-07,NaN,NaN,0.1797508,-3.678739E-10,-3.600513E-07,-1.09326E-07,-1.562486E-08,-2.861022E-08
930.1928,-0.2248152,4.872588E-09,NaN,-0.4485158,-1.316682E-07,NaN,0.01646897,-5.908412E-07,NaN,-0.6503127,2.496127E-05,0.007789596,1.10052E-07,NaN,NaN,0.1805133,-3.585607E-10,-3.523027E-07,-1.093276E-07,-1.085649E-08,-2.622604E-08
930.2095,-0.2249558,4.873177E-09,NaN,-0.4481165,-1.316687E-07,NaN,0.01769267,-5.908753E-07,NaN,-0.6514059,2.496161E-05,0.005260558,1.100872E-07,NaN,NaN,0.1812608,-3.492475E-10,-3.409778E-07,-1.093293E-07,-6.088118E-09,-2.861022E-08
930.2253,-0.2250791,4.873765E-09,NaN,-0.4477699,-1.316692E-07,NaN,0.01874358,-5.909114E-07,NaN,-0.6525388,2.496195E-05,0.002705713,1.101244E-07,NaN,NaN,0.1819935,-3.399343E-10,-3.248845E-07,-1.09331E-07,-8.472304E-09,-2.622604E-08
930.2413,-0.2251911,4.874354E-09,NaN,-0.4474573,-1.316698E-07,NaN,0.01963958,-5.909496E-07,NaN,-0.6536778,2.49623E-05,0.0001960115,1.101637E-07,NaN,NaN,0.182712,-3.399343E-10,-3.105794E-07,-1.093326E-07,-1.085649E-08,-2.861022E-08
930.257,-0.2251911,4.874354E-09,NaN,-0.4474573,-1.316698E-07,NaN,0.01963958,-5.909496E-07,NaN,-0.6536778,2.49623E-05,0.0001960115,1.101637E-07,NaN,NaN,0.182712,-3.399343E-10,-3.105794E-07,-1.093326E-07,-1.085649E-08,-2.861022E-08
930.2723,-0.2252625,4.874943E-09,NaN,-0.4472717,-1.316703E-07,NaN,0.02071834,-5.909898E-07,NaN,-0.6553323,2.496264E-05,-0.002940608,1.10205E-07,NaN,NaN,0.1837305,-3.352777E-10,-2.968704E-07,-1.093343E-07,-1.562486E-08,-2.622604E-08
930.2885,-0.2253082,4.875531E-09,NaN,-0.4471654,-1.316708E-07,NaN,0.02169256,-5.91032E-07,NaN,-0.6570858,2.496298E-05,-0.006295689,1.102482E-07,NaN,NaN,0.184729,-3.259644E-10,-2.79585E-07,-1.093359E-07,-1.800904E-08,-2.861022E-08
930.3046,-0.2253377,4.87612E-09,NaN,-0.4471084,-1.316713E-07,NaN,0.02248775,-5.910761E-07,NaN,-0.6588668,2.496333E-05,-0.009660201,1.102934E-07,NaN,NaN,0.1857079,-3.213078E-10,-2.617036E-07,-1.093376E-07,-1.800904E-08,-2.622604E-08
930.3203,-0.2253568,4.876708E-09,NaN,-0.4470821,-1.316718E-07,NaN,0.0231226,-5.911193E-07,NaN,-0.6606419,2.496367E-05,-0.01296344,1.103377E-07,NaN,NaN,0.1866676,-3.119946E-10,-2.462064E-07,-1.093392E-07,-1.681695E-08,-2.861022E-08
930.3367,-0.2253568,4.876708E-09,NaN,-0.4470821,-1.316718E-07,NaN,0.0231226,-5.911193E-07,NaN,-0.6606419,2.496367E-05,-0.01296344,1.103377E-07,NaN,NaN,0.1866676,-3.119946E-10,-2.462064E-07,-1.093392E-07,-1.681695E-08,-2.861022E-08
930.3512,-0.2253376,4.877296E-09,NaN,-0.4471783,-1.316723E-07,NaN,0.02392605,-5.911643E-07,NaN,-0.6629198,2.496401E-05,-0.0168748,1.103839E-07,NaN,NaN,0.1879227,-3.07338E-10,-2.348815E-07,-1.093408E-07,-1.800904E-08,-2.622604E-08
930.3677,-0.2252944,4.877884E-09,NaN,-0.4473497,-1.316728E-07,NaN,0.02461741,-5.912113E-07,NaN,-0.6652845,2.496435E-05,-0.02098982,1.104319E-07,NaN,NaN,0.1891531,-2.980248E-10,-2.199804E-07,-1.093425E-07,-1.920114E-08,-2.861022E-08
930.3846,-0.2252363,4.878472E-09,NaN,-0.4475668,-1.316733E-07,NaN,0.02512346,-5.912601E-07,NaN,-0.6676652,2.496469E-05,-0.02509903,1.104817E-07,NaN,NaN,0.1903594,-2.933682E-10,-2.003108E-07,-1.093441E-07,-1.324067E-08,-2.622604E-08
930.3992,-0.2252363,4.878472E-09,NaN,-0.4475668,-1.316733E-07,NaN,0.02512346,-5.912601E-07,NaN,-0.6676652,2.496469E-05,-0.02509903,1.104817E-07,NaN,NaN,0.1903594,-2.933682E-10,-2.003108E-07,-1.093441E-07,-1.324067E-08,-2.622604E-08
930.4144,-0.2251361,4.87906E-09,NaN,-0.4479157,-1.316738E-07,NaN,0.02574656,-5.913107E-07,NaN,-0.6705529,2.496503E-05,-0.02981828,1.105334E-07,NaN,NaN,0.1918562,-2.84055E-10,-1.842176E-07,-1.093457E-07,-1.562486E-08,-2.861022E-08
930.4312,-0.2250101,4.879648E-09,NaN,-0.4483443,-1.316743E-07,NaN,0.02621554,-5.91363E-07,NaN,-0.6735228,2.496538E-05,-0.03472574,1.105869E-07,NaN,NaN,0.1933237,-2.793984E-10,-1.657401E-07,-1.093473E-07,-2.158532E-08,-2.622604E-08
930.4468,-0.2248683,4.880236E-09,NaN,-0.4488203,-1.316748E-07,NaN,0.02646829,-5.914171E-07,NaN,-0.6765001,2.496572E-05,-0.03960641,1.10642E-07,NaN,NaN,0.1947624,-2.747418E-10,-1.454746E-07,-1.093489E-07,-2.039323E-08,-2.861022E-08
930.4628,-0.2247175,4.880824E-09,NaN,-0.4493232,-1.316753E-07,NaN,0.02653446,-5.9147E-07,NaN,-0.6794506,2.496607E-05,-0.04438999,1.10696E-07,NaN,NaN,0.1961729,-2.700851E-10,-1.264011E-07,-1.093505E-07,-1.681695E-08,-2.622604E-08
930.4784,-0.2247175,4.880824E-09,NaN,-0.4493232,-1.316753E-07,NaN,0.02653446,-5.9147E-07,NaN,-0.6794506,2.496607E-05,-0.04438999,1.10696E-07,NaN,NaN,0.1961729,-2.700851E-10,-1.264011E-07,-1.093505E-07,-1.681695E-08,-2.622604E-08
930.4944,-0.2245284,4.881412E-09,NaN,-0.4499452,-1.316758E-07,NaN,0.02672847,-5.915246E-07,NaN,-0.6828818,2.496641E-05,-0.04974626,1.107518E-07,NaN,NaN,0.1978699,-2.654285E-10,-1.103078E-07,-1.093521E-07,-2.51616E-08,-2.861022E-08
930.5095,-0.2243162,4.881999E-09,NaN,-0.4506378,-1.316763E-07,NaN,0.02678795,-5.915809E-07,NaN,-0.6863776,2.496675E-05,-0.05527642,1.108092E-07,NaN,NaN,0.1995336,-2.607719E-10,-9.123436E-08,-1.093537E-07,-1.681695E-08,-2.622604E-08
930.5258,-0.2240907,4.882587E-09,NaN,-0.4513708,-1.316768E-07,NaN,0.02664589,-5.916389E-07,NaN,-0.6898678,2.496709E-05,-0.0607697,1.108683E-07,NaN,NaN,0.2011647,-2.514587E-10,-7.275692E-08,-1.093553E-07,-8.472301E-09,-2.861022E-08
930.5422,-0.2238577,4.883174E-09,NaN,-0.4521254,-1.316773E-07,NaN,0.02632685,-5.916986E-07,NaN,-0.6933202,2.496744E-05,-0.06615645,1.10929E-07,NaN,NaN,0.2027639,-2.468021E-10,-5.129925E-08,-1.093568E-07,-2.511837E-09,-2.622604E-08
930.5577,-0.2238577,4.883174E-09,NaN,-0.4521254,-1.316773E-07,NaN,0.02632685,-5.916986E-07,NaN,-0.6933202,2.496744E-05,-0.06615645,1.10929E-07,NaN,NaN,0.2027639,-2.468021E-10,-5.129925E-08,-1.093568E-07,-2.511837E-09,-2.622604E-08
930.5726,-0.2235879,4.883762E-09,NaN,-0.4529945,-1.316778E-07,NaN,0.02612535,-5.917597E-07,NaN,-0.6972422,2.496778E-05,-0.07210484,1.109913E-07,NaN,NaN,0.2046458,-2.421455E-10,-3.639808E-08,-1.093584E-07,-7.280208E-09,-2.861022E-08
930.5895,-0.2232964,4.884349E-09,NaN,-0.4539304,-1.316783E-07,NaN,0.02578672,-5.918225E-07,NaN,-0.7012186,2.496813E-05,-0.07821822,1.110551E-07,NaN,NaN,0.2064908,-2.374889E-10,-1.553646E-08,-1.0936E-07,-1.085649E-08,-2.622604E-08
930.6053,-0.2229925,4.884936E-09,NaN,-0.4549031,-1.316788E-07,NaN,0.02524473,-5.918839E-07,NaN,-0.7051799,2.496847E-05,-0.08428325,1.111177E-07,NaN,NaN,0.2082997,-2.328323E-10,5.325166E-09,-1.093615E-07,-1.443277E-08,-2.861022E-08
930.6211,-0.2226823,4.885523E-09,NaN,-0.4558942,-1.316792E-07,NaN,0.02452498,-5.919469E-07,NaN,-0.7090946,2.496881E-05,-0.09022977,1.111818E-07,NaN,NaN,0.2100732,-2.281757E-10,2.767691E-08,-1.093631E-07,-9.664395E-09,-2.622604E-08
930.6371,-0.2226823,4.885523E-09,NaN,-0.4558942,-1.316792E-07,NaN,0.02452498,-5.919469E-07,NaN,-0.7090946,2.496881E-05,-0.09022977,1.111818E-07,NaN,NaN,0.2100732,-2.281757E-10,2.767691E-08,-1.093631E-07,-9.664395E-09,-2.622604E-08
930.6525,-0.2223363,4.88611E-09,NaN,-0.4569967,-1.316797E-07,NaN,0.02390496,-5.920114E-07,NaN,-0.7134688,2.496915E-05,-0.09672522,1.112474E-07,NaN,NaN,0.2121259,-2.188624E-10,4.287609E-08,-1.093646E-07,-8.472302E-09,-2.861022E-08
930.6688,-0.2219695,4.886697E-09,NaN,-0.458163,-1.316802E-07,NaN,0.023142,-5.920774E-07,NaN,-0.717888,2.49695E-05,-0.1033756,1.113145E-07,NaN,NaN,0.2141385,-2.142058E-10,6.671794E-08,-1.093662E-07,-1.085649E-08,-2.622604E-08
930.6847,-0.2215913,4.887284E-09,NaN,-0.4593632,-1.316807E-07,NaN,0.02217303,-5.921449E-07,NaN,-0.7222835,2.496984E-05,-0.1099656,1.11383E-07,NaN,NaN,0.2161117,-2.095492E-10,8.847364E-08,-1.093677E-07,-8.472302E-09,-2.861022E-08
930.7003,-0.2212077,4.887871E-09,NaN,-0.460579,-1.316812E-07,NaN,0.02102597,-5.922138E-07,NaN,-0.7266243,2.497018E-05,-0.116425,1.11453E-07,NaN,NaN,0.2180462,-2.048926E-10,1.093353E-07,-1.093692E-07,-6.088116E-09,-2.622604E-08
930.7161,-0.2212077,4.887871E-09,NaN,-0.460579,-1.316812E-07,NaN,0.02102597,-5.922138E-07,NaN,-0.7266243,2.497018E-05,-0.116425,1.11453E-07,NaN,NaN,0.2180462,-2.048926E-10,1.093353E-07,-1.093692E-07,-6.088116E-09,-2.622604E-08
930.7311,-0.2207891,4.888458E-09,NaN,-0.4619035,-1.316817E-07,NaN,0.0199604,-5.922813E-07,NaN,-0.7314147,2.497053E-05,-0.1234212,1.115216E-07,NaN,NaN,0.2202567,-2.00236E-10,1.284088E-07,-1.093708E-07,-8.472302E-09,-2.861022E-08
930.7476,-0.2203505,4.889044E-09,NaN,-0.463289,-1.316821E-07,NaN,0.01874709,-5.923501E-07,NaN,-0.7362416,2.497087E-05,-0.1305629,1.115916E-07,NaN,NaN,0.2224241,-1.955794E-10,1.486743E-07,-1.093723E-07,-7.280209E-09,-2.622604E-08
930.7636,-0.2199014,4.889631E-09,NaN,-0.4647058,-1.316826E-07,NaN,0.01732672,-5.924205E-07,NaN,-0.7410368,2.497122E-05,-0.1376324,1.11663E-07,NaN,NaN,0.224549,-1.909228E-10,1.734103E-07,-1.093738E-07,-6.088117E-09,-2.861022E-08
930.7792,-0.2199014,4.889631E-09,NaN,-0.4647058,-1.316826E-07,NaN,0.01732672,-5.924205E-07,NaN,-0.7410368,2.497122E-05,-0.1376324,1.11663E-07,NaN,NaN,0.224549,-1.909228E-10,1.734103E-07,-1.093738E-07,-6.088117E-09,-2.861022E-08
930.7944,-0.2194478,4.890218E-09,NaN,-0.4661354,-1.316831E-07,NaN,0.0157298,-5.924921E-07,NaN,-0.7457701,2.497156E-05,-0.1445597,1.117358E-07,NaN,NaN,0.2266322,-1.862662E-10,1.96358E-07,-1.093753E-07,-1.443277E-08,-2.622604E-08
930.8112,-0.2189599,4.890804E-09,NaN,-0.4676712,-1.316836E-07,NaN,0.01419661,-5.925652E-07,NaN,-0.7509435,2.49719E-05,-0.152013,1.1181E-07,NaN,NaN,0.2289886,-1.816096E-10,2.181137E-07,-1.093768E-07,-1.324067E-08,-2.861022E-08
930.8267,-0.2184529,4.89139E-09,NaN,-0.4692654,-1.31684E-07,NaN,0.01251237,-5.926395E-07,NaN,-0.7561454,2.497225E-05,-0.1596026,1.118854E-07,NaN,NaN,0.231299,-1.76953E-10,2.440418E-07,-1.093783E-07,-1.800905E-08,-2.622604E-08
930.8427,-0.2179362,4.891977E-09,NaN,-0.4708884,-1.316845E-07,NaN,0.01062195,-5.927124E-07,NaN,-0.7613085,2.497259E-05,-0.1671088,1.119594E-07,NaN,NaN,0.233564,-1.722964E-10,2.705658E-07,-1.093798E-07,-1.920114E-08,-2.861022E-08
930.8582,-0.2179362,4.891977E-09,NaN,-0.4708884,-1.316845E-07,NaN,0.01062195,-5.927124E-07,NaN,-0.7613085,2.497259E-05,-0.1671088,1.119594E-07,NaN,NaN,0.233564,-1.722964E-10,2.705658E-07,-1.093798E-07,-1.920114E-08,-2.861022E-08
930.8733,-0.2174157,4.892563E-09,NaN,-0.4725218,-1.31685E-07,NaN,0.008558496,-5.927865E-07,NaN,-0.766403,2.497293E-05,-0.1744619,1.120346E-07,NaN,NaN,0.2357847,-1.676397E-10,2.950037E-07,-1.093813E-07,-2.51616E-08,-2.622604E-08
930.8911,-0.2168616,4.893149E-09,NaN,-0.4742588,-1.316855E-07,NaN,0.006541735,-5.92862E-07,NaN,-0.7719285,2.497328E-05,-0.1823311,1.121112E-07,NaN,NaN,0.2382758,-1.629831E-10,3.125871E-07,-1.093828E-07,-2.277742E-08,-2.861022E-08
930.9058,-0.2162893,4.893735E-09,NaN,-0.4760517,-1.316859E-07,NaN,0.004372172,-5.929388E-07,NaN,-0.7774753,2.497362E-05,-0.1903281,1.12189E-07,NaN,NaN,0.2407182,-1.583265E-10,3.37025E-07,-1.093843E-07,-1.920114E-08,-2.622604E-08
930.9213,-0.215708,4.894321E-09,NaN,-0.4778711,-1.316864E-07,NaN,0.00199923,-5.930168E-07,NaN,-0.7829768,2.497397E-05,-0.1982309,1.122681E-07,NaN,NaN,0.2431128,-1.536699E-10,3.62059E-07,-1.093857E-07,-1.920114E-08,-2.861022E-08
930.9371,-0.215708,4.894321E-09,NaN,-0.4778711,-1.316864E-07,NaN,0.00199923,-5.930168E-07,NaN,-0.7829768,2.497397E-05,-0.1982309,1.122681E-07,NaN,NaN,0.2431128,-1.536699E-10,3.62059E-07,-1.093857E-07,-1.920114E-08,-2.861022E-08
930.9521,-0.2151236,4.894907E-09,NaN,-0.4796984,-1.316869E-07,NaN,-0.0005412444,-5.930931E-07,NaN,-0.7884039,2.497431E-05,-0.2059699,1.123456E-07,NaN,NaN,0.2454605,-1.490133E-10,3.832186E-07,-1.093872E-07,-2.039323E-08,-2.622604E-08
930.9686,-0.2145064,4.895493E-09,NaN,-0.4816271,-1.316873E-07,NaN,-0.003051275,-5.931708E-07,NaN,-0.7942533,2.497465E-05,-0.2142165,1.124244E-07,NaN,NaN,0.248076,-1.443567E-10,4.037822E-07,-1.093887E-07,-2.158533E-08,-2.861022E-08
930.9842,-0.2138716,4.896079E-09,NaN,-0.4836093,-1.316878E-07,NaN,-0.005714307,-5.932497E-07,NaN,-0.8001173,2.4975E-05,-0.2225824,1.125044E-07,NaN,NaN,0.2506405,-1.397001E-10,4.285181E-07,-1.093901E-07,-2.396951E-08,-2.622604E-08
930.9999,-0.2138716,4.896079E-09,NaN,-0.4836093,-1.316878E-07,NaN,-0.005714307,-5.932497E-07,NaN,-0.8001173,2.4975E-05,-0.2225824,1.125044E-07,NaN,NaN,0.2506405,-1.397001E-10,4.285181E-07,-1.093901E-07,-2.396951E-08,-2.622604E-08
931.0151,-0.2132285,4.896664E-09,NaN,-0.4856157,-1.316883E-07,NaN,-0.008576016,-5.933298E-07,NaN,-0.8059304,2.497534E-05,-0.2308436,1.125856E-07,NaN,NaN,0.2531547,-1.350435E-10,4.547442E-07,-1.093916E-07,-2.158533E-08,-2.861022E-08
931.0319,-0.2125832,4.89725E-09,NaN,-0.4876277,-1.316887E-07,NaN,-0.01159789,-5.934083E-07,NaN,-0.8116637,2.497568E-05,-0.2389312,1.126651E-07,NaN,NaN,0.2556197,-1.303869E-10,4.803742E-07,-1.09393E-07,-1.562486E-08,-2.622604E-08
931.0476,-0.2119056,4.897836E-09,NaN,-0.4897389,-1.316892E-07,NaN,-0.01460474,-5.93488E-07,NaN,-0.8178111,2.497603E-05,-0.2475187,1.127459E-07,NaN,NaN,0.2583501,-1.257303E-10,4.973615E-07,-1.093945E-07,-1.562486E-08,-2.861022E-08
931.0633,-0.2112111,4.898421E-09,NaN,-0.4919015,-1.316896E-07,NaN,-0.01776332,-5.935689E-07,NaN,-0.8239672,2.497637E-05,-0.2562173,1.128279E-07,NaN,NaN,0.2610273,-1.210737E-10,5.238855E-07,-1.093959E-07,-1.681696E-08,-2.622604E-08
931.0791,-0.2112111,4.898421E-09,NaN,-0.4919015,-1.316896E-07,NaN,-0.01776332,-5.935689E-07,NaN,-0.8239672,2.497637E-05,-0.2562173,1.128279E-07,NaN,NaN,0.2610273,-1.210737E-10,5.238855E-07,-1.093959E-07,-1.681696E-08,-2.622604E-08
931.0941,-0.210509,4.899007E-09,NaN,-0.4940859,-1.316901E-07,NaN,-0.02111408,-5.93651E-07,NaN,-0.8300673,2.497672E-05,-0.264801,1.12911E-07,NaN,NaN,0.263652,-1.164171E-10,5.513037E-07,-1.093973E-07,-1.800905E-08,-2.861022E-08
931.1107,-0.2098054,4.899592E-09,NaN,-0.496274,-1.316905E-07,NaN,-0.02461592,-5.937342E-07,NaN,-0.8360832,2.497706E-05,-0.2732015,1.129953E-07,NaN,NaN,0.2662253,-1.117604E-10,5.757416E-07,-1.093988E-07,-1.681696E-08,-2.622604E-08
931.1265,-0.20907,4.900177E-09,NaN,-0.498559,-1.31691E-07,NaN,-0.02811739,-5.938157E-07,NaN,-0.8425049,2.497741E-05,-0.2820955,1.130779E-07,NaN,NaN,0.2690619,-1.164171E-10,5.924309E-07,-1.094002E-07,-1.920114E-08,-2.861022E-08
931.1436,-0.2083184,4.900762E-09,NaN,-0.5008933,-1.316915E-07,NaN,-0.03176797,-5.938984E-07,NaN,-0.8489302,2.497776E-05,-0.2910925,1.131617E-07,NaN,NaN,0.2718432,-1.117604E-10,6.192529E-07,-1.094016E-07,-1.562486E-08,-2.622604E-08
931.1582,-0.2083184,4.900762E-09,NaN,-0.5008933,-1.316915E-07,NaN,-0.03176797,-5.938984E-07,NaN,-0.8489302,2.497776E-05,-0.2910925,1.131617E-07,NaN,NaN,0.2718432,-1.117604E-10,6.192529E-07,-1.094016E-07,-1.562486E-08,-2.622604E-08
931.1734,-0.20756,4.901348E-09,NaN,-0.5032473,-1.316919E-07,NaN,-0.03560259,-5.939822E-07,NaN,-0.8552953,2.49781E-05,-0.2999644,1.132466E-07,NaN,NaN,0.27457,-1.071038E-10,6.447339E-07,-1.09403E-07,-1.324068E-08,-2.861022E-08
931.1895,-0.2068005,4.901933E-09,NaN,-0.505603,-1.316924E-07,NaN,-0.03957768,-5.940671E-07,NaN,-0.8615723,2.497845E-05,-0.3086441,1.133326E-07,NaN,NaN,0.2772433,-1.024472E-10,6.685758E-07,-1.094044E-07,-9.664399E-09,-2.622604E-08
931.2056,-0.20601,4.902518E-09,NaN,-0.5080535,-1.316928E-07,NaN,-0.0435664,-5.941503E-07,NaN,-0.8682472,2.497879E-05,-0.317812,1.134168E-07,NaN,NaN,0.280178,-9.77906E-11,6.866061E-07,-1.094058E-07,-6.08812E-09,-2.861022E-08
931.2209,-0.2052037,4.903103E-09,NaN,-0.5105514,-1.316933E-07,NaN,-0.04770038,-5.942346E-07,NaN,-0.8749214,2.497914E-05,-0.3270745,1.135022E-07,NaN,NaN,0.2830554,-9.77906E-11,7.119381E-07,-1.094072E-07,-4.896028E-09,-2.622604E-08
931.2369,-0.2052037,4.903103E-09,NaN,-0.5105514,-1.316933E-07,NaN,-0.04770038,-5.942346E-07,NaN,-0.8749214,2.497914E-05,-0.3270745,1.135022E-07,NaN,NaN,0.2830554,-9.77906E-11,7.119381E-07,-1.094072E-07,-4.896028E-09,-2.622604E-08
931.252,-0.2043913,4.903688E-09,NaN,-0.513067,-1.316937E-07,NaN,-0.05200883,-5.9432E-07,NaN,-0.8815315,2.497948E-05,-0.3362021,1.135887E-07,NaN,NaN,0.2858764,-9.313398E-11,7.374191E-07,-1.094086E-07,-7.280213E-09,-2.861022E-08
931.2686,-0.2035785,4.904273E-09,NaN,-0.5155823,-1.316942E-07,NaN,-0.05644584,-5.944065E-07,NaN,-0.8880503,2.497983E-05,-0.345129,1.136763E-07,NaN,NaN,0.2886422,-9.313398E-11,7.637942E-07,-1.0941E-07,-8.472306E-09,-2.622604E-08
931.2844,-0.202735,4.904858E-09,NaN,-0.5181906,-1.316946E-07,NaN,-0.06090995,-5.944941E-07,NaN,-0.8949595,2.498018E-05,-0.3545395,1.137649E-07,NaN,NaN,0.2916674,-9.313398E-11,7.812285E-07,-1.094114E-07,-2.511842E-09,-2.861022E-08
931.3002,-0.2018765,4.905443E-09,NaN,-0.5208442,-1.31695E-07,NaN,-0.06551445,-5.945798E-07,NaN,-0.9018642,2.498053E-05,-0.3640363,1.138518E-07,NaN,NaN,0.2946336,-9.313398E-11,8.050703E-07,-1.094128E-07,-9.664399E-09,-2.622604E-08
931.3158,-0.2018765,4.905443E-09,NaN,-0.5208442,-1.31695E-07,NaN,-0.06551445,-5.945798E-07,NaN,-0.9018642,2.498053E-05,-0.3640363,1.138518E-07,NaN,NaN,0.2946336,-9.313398E-11,8.050703E-07,-1.094128E-07,-9.664399E-09,-2.622604E-08
931.3312,-0.2010124,4.906028E-09,NaN,-0.5235137,-1.316955E-07,NaN,-0.07028258,-5.946667E-07,NaN,-0.9087018,2.498087E-05,-0.3733885,1.139397E-07,NaN,NaN,0.2975417,-8.847736E-11,8.320415E-07,-1.094141E-07,-1.204858E-08,-2.861022E-08
931.3476,-0.2001485,4.906612E-09,NaN,-0.5261809,-1.316959E-07,NaN,-0.07516626,-5.947546E-07,NaN,-0.9154453,2.498122E-05,-0.3825317,1.140287E-07,NaN,NaN,0.3003928,-8.847736E-11,8.563304E-07,-1.094155E-07,-9.664399E-09,-2.622604E-08
931.3639,-0.1992545,4.907197E-09,NaN,-0.5289394,-1.316964E-07,NaN,-0.08009015,-5.948407E-07,NaN,-0.9225719,2.498157E-05,-0.3921552,1.141159E-07,NaN,NaN,0.3035017,-8.382075E-11,8.736157E-07,-1.094169E-07,-7.280213E-09,-2.861022E-08
931.3796,-0.1992545,4.907197E-09,NaN,-0.5289394,-1.316964E-07,NaN,-0.08009015,-5.948407E-07,NaN,-0.9225719,2.498157E-05,-0.3921552,1.141159E-07,NaN,NaN,0.3035017,-8.382075E-11,8.736157E-07,-1.094169E-07,-7.280213E-09,-2.861022E-08
931.3962,-0.1983459,4.907782E-09,NaN,-0.5317414,-1.316968E-07,NaN,-0.0851487,-5.949279E-07,NaN,-0.929691,2.498192E-05,-0.4018561,1.142041E-07,NaN,NaN,0.3065499,-8.382075E-11,8.992457E-07,-1.094182E-07,-3.703935E-09,-2.622604E-08
931.4114,-0.1974323,4.908367E-09,NaN,-0.5345574,-1.316972E-07,NaN,-0.09035894,-5.950161E-07,NaN,-0.9367404,2.498227E-05,-0.4114029,1.142934E-07,NaN,NaN,0.3095384,-8.382075E-11,9.253973E-07,-1.094196E-07,-1.085649E-08,-2.861022E-08
931.4272,-0.1965195,4.908951E-09,NaN,-0.5373694,-1.316977E-07,NaN,-0.09567087,-5.951053E-07,NaN,-0.9436935,2.498262E-05,-0.4207332,1.143838E-07,NaN,NaN,0.3124683,-8.382075E-11,9.491646E-07,-1.094209E-07,-1.622091E-08,-2.622604E-08
931.4431,-0.195577,4.909535E-09,NaN,-0.540271,-1.316981E-07,NaN,-0.1010359,-5.951928E-07,NaN,-0.9510224,2.498296E-05,-0.4305412,1.144723E-07,NaN,NaN,0.3156545,-8.382075E-11,9.633208E-07,-1.094223E-07,-1.800905E-08,-2.861022E-08
931.4591,-0.195577,4.909535E-09,NaN,-0.540271,-1.316981E-07,NaN,-0.1010359,-5.951928E-07,NaN,-0.9510224,2.498296E-05,-0.4305412,1.144723E-07,NaN,NaN,0.3156545,-8.382075E-11,9.633208E-07,-1.094223E-07,-1.800905E-08,-2.861022E-08
931.4742,-0.1946204,4.91012E-09,NaN,-0.5432143,-1.316986E-07,NaN,-0.1065292,-5.952812E-07,NaN,-0.9583415,2.498331E-05,-0.4404173,1.145618E-07,NaN,NaN,0.3187785,-8.382075E-11,9.889135E-07,-1.094236E-07,-1.502882E-08,-2.622604E-08
931.4905,-0.1936594,4.910704E-09,NaN,-0.5461699,-1.31699E-07,NaN,-0.1121613,-5.953707E-07,NaN,-0.965589,2.498366E-05,-0.45013,1.146524E-07,NaN,NaN,0.3218412,-7.916413E-11,1.014432E-06,-1.09425E-07,-1.383672E-08,-2.861022E-08
931.5066,-0.1926998,4.911289E-09,NaN,-0.5491198,-1.316994E-07,NaN,-0.1178807,-5.954583E-07,NaN,-0.9727383,2.498401E-05,-0.459619,1.147412E-07,NaN,NaN,0.3248439,-7.916413E-11,1.040788E-06,-1.094263E-07,-1.085649E-08,-2.622604E-08
931.5222,-0.1917108,4.911873E-09,NaN,-0.5521576,-1.316999E-07,NaN,-0.123666,-5.95547E-07,NaN,-0.9802565,2.498435E-05,-0.469584,1.148309E-07,NaN,NaN,0.3281014,-7.450752E-11,1.05459E-06,-1.094276E-07,-1.085649E-08,-2.861022E-08
931.5379,-0.1917108,4.911873E-09,NaN,-0.5521576,-1.316999E-07,NaN,-0.123666,-5.95547E-07,NaN,-0.9802565,2.498435E-05,-0.469584,1.148309E-07,NaN,NaN,0.3281014,-7.450752E-11,1.05459E-06,-1.094276E-07,-1.085649E-08,-2.861022E-08
931.5527,-0.1907084,4.912458E-09,NaN,-0.5552354,-1.317003E-07,NaN,-0.1295725,-5.956367E-07,NaN,-0.987763,2.49847E-05,-0.4796075,1.149218E-07,NaN,NaN,0.3312954,-7.450752E-11,1.078828E-06,-1.094289E-07,-1.443277E-08,-2.622604E-08
931.5693,-0.1897019,4.913042E-09,NaN,-0.558324,-1.317007E-07,NaN,-0.1356043,-5.957274E-07,NaN,-0.9951965,2.498505E-05,-0.4894584,1.150136E-07,NaN,NaN,0.3344267,-7.450752E-11,1.105855E-06,-1.094303E-07,-1.264463E-08,-2.861022E-08
931.5853,-0.1886974,4.913626E-09,NaN,-0.5614053,-1.317011E-07,NaN,-0.1417084,-5.958163E-07,NaN,-1.00253,2.49854E-05,-0.4990791,1.151035E-07,NaN,NaN,0.3374967,-7.450752E-11,1.127182E-06,-1.094316E-07,-1.622091E-08,-2.622604E-08
931.601,-0.187664,4.914211E-09,NaN,-0.5645728,-1.317016E-07,NaN,-0.1478914,-5.959062E-07,NaN,-1.010226,2.498575E-05,-0.5091747,1.151945E-07,NaN,NaN,0.34082,-7.450752E-11,1.139439E-06,-1.094329E-07,-1.681696E-08,-2.861022E-08
931.6169,-0.187664,4.914211E-09,NaN,-0.5645728,-1.317016E-07,NaN,-0.1478914,-5.959062E-07,NaN,-1.010226,2.498575E-05,-0.5091747,1.151945E-07,NaN,NaN,0.34082,-7.450752E-11,1.139439E-06,-1.094329E-07,-1.681696E-08,-2.861022E-08
931.6321,-0.1866175,4.914795E-09,NaN,-0.5677788,-1.31702E-07,NaN,-0.1541881,-5.959971E-07,NaN,-1.017909,2.49861E-05,-0.5193185,1.152864E-07,NaN,NaN,0.3440786,-7.450752E-11,1.163318E-06,-1.094342E-07,-1.800905E-08,-2.622604E-08
931.6486,-0.1855675,4.91538E-09,NaN,-0.570994,-1.317024E-07,NaN,-0.160596,-5.960861E-07,NaN,-1.025518,2.498644E-05,-0.529281,1.153766E-07,NaN,NaN,0.3472733,-6.98509E-11,1.186713E-06,-1.094355E-07,-1.681696E-08,-2.861022E-08
931.6642,-0.18452,4.915964E-09,NaN,-0.5742003,-1.317028E-07,NaN,-0.167061,-5.961761E-07,NaN,-1.033026,2.498679E-05,-0.5390077,1.154677E-07,NaN,NaN,0.3504053,-6.98509E-11,1.208468E-06,-1.094368E-07,-1.681696E-08,-2.622604E-08
931.6801,-0.1834439,4.916549E-09,NaN,-0.5774914,-1.317033E-07,NaN,-0.1736182,-5.962671E-07,NaN,-1.04089,2.498713E-05,-0.5492084,1.155598E-07,NaN,NaN,0.3537895,-6.519429E-11,1.221134E-06,-1.094381E-07,-1.502882E-08,-2.861022E-08
931.696,-0.1834439,4.916549E-09,NaN,-0.5774914,-1.317033E-07,NaN,-0.1736182,-5.962671E-07,NaN,-1.04089,2.498713E-05,-0.5492084,1.155598E-07,NaN,NaN,0.3537895,-6.519429E-11,1.221134E-06,-1.094381E-07,-1.502882E-08,-2.861022E-08
931.7111,-0.1823552,4.917133E-09,NaN,-0.5808195,-1.317037E-07,NaN,-0.1802811,-5.963563E-07,NaN,-1.048739,2.498748E-05,-0.5594467,1.156501E-07,NaN,NaN,0.3571077,-6.519429E-11,1.241996E-06,-1.094394E-07,-1.562486E-08,-2.622604E-08
931.7275,-0.1812635,4.917717E-09,NaN,-0.5841552,-1.317041E-07,NaN,-0.1870406,-5.964465E-07,NaN,-1.056514,2.498783E-05,-0.5694953,1.157413E-07,NaN,NaN,0.3603609,-6.519429E-11,1.262261E-06,-1.094406E-07,-2.039323E-08,-2.861022E-08
931.7435,-0.1801747,4.918301E-09,NaN,-0.5874806,-1.317045E-07,NaN,-0.1938419,-5.965377E-07,NaN,-1.064187,2.498818E-05,-0.579303,1.158336E-07,NaN,NaN,0.3635503,-6.519429E-11,1.281633E-06,-1.094419E-07,-1.7413E-08,-2.622604E-08
931.7589,-0.1801747,4.918301E-09,NaN,-0.5874806,-1.317045E-07,NaN,-0.1938419,-5.965377E-07,NaN,-1.064187,2.498818E-05,-0.579303,1.158336E-07,NaN,NaN,0.3635503,-6.519429E-11,1.281633E-06,-1.094419E-07,-1.7413E-08,-2.622604E-08
931.7741,-0.1790577,4.918885E-09,NaN,-0.5908893,-1.31705E-07,NaN,-0.2007491,-5.966298E-07,NaN,-1.072209,2.498853E-05,-0.5895845,1.159268E-07,NaN,NaN,0.3669907,-6.519429E-11,1.292064E-06,-1.094432E-07,-1.145254E-08,-2.861022E-08
931.7904,-0.1779285,4.919469E-09,NaN,-0.5943336,-1.317054E-07,NaN,-0.2077536,-5.967201E-07,NaN,-1.080218,2.498888E-05,-0.5998924,1.160182E-07,NaN,NaN,0.3703641,-6.519429E-11,1.310839E-06,-1.094445E-07,-1.562486E-08,-2.622604E-08
931.8062,-0.1767969,4.920053E-09,NaN,-0.5977842,-1.317058E-07,NaN,-0.2148398,-5.968113E-07,NaN,-1.088151,2.498922E-05,-0.6100028,1.161105E-07,NaN,NaN,0.3736713,-6.053767E-11,1.330807E-06,-1.094457E-07,-9.664397E-09,-2.861022E-08
931.8216,-0.1756686,4.920637E-09,NaN,-0.601223,-1.317062E-07,NaN,-0.2219528,-5.969035E-07,NaN,-1.095981,2.498957E-05,-0.6198683,1.162038E-07,NaN,NaN,0.3769136,-6.053767E-11,1.348688E-06,-1.09447E-07,-1.264463E-08,-2.622604E-08
931.8375,-0.1756686,4.920637E-09,NaN,-0.601223,-1.317062E-07,NaN,-0.2219528,-5.969035E-07,NaN,-1.095981,2.498957E-05,-0.6198683,1.162038E-07,NaN,NaN,0.3769136,-6.053767E-11,1.348688E-06,-1.09447E-07,-1.264463E-08,-2.622604E-08
931.8525,-0.1745124,4.921221E-09,NaN,-0.6047438,-1.317066E-07,NaN,-0.2291855,-5.969939E-07,NaN,-1.104154,2.498992E-05,-0.6302072,1.162952E-07,NaN,NaN,0.380406,-5.588106E-11,1.361354E-06,-1.094483E-07,-1.443277E-08,-2.861022E-08
931.869,-0.1733444,4.921805E-09,NaN,-0.6082988,-1.31707E-07,NaN,-0.236507,-5.970852E-07,NaN,-1.112313,2.499027E-05,-0.6405609,1.163876E-07,NaN,NaN,0.3838302,-5.588106E-11,1.377447E-06,-1.094495E-07,-1.413475E-08,-2.622604E-08
931.8849,-0.1721744,4.922389E-09,NaN,-0.6118586,-1.317074E-07,NaN,-0.2438951,-5.971775E-07,NaN,-1.120397,2.499062E-05,-0.6507102,1.16481E-07,NaN,NaN,0.3871874,-5.588106E-11,1.394882E-06,-1.094508E-07,-1.026044E-08,-2.861022E-08
931.9017,-0.1710082,4.922972E-09,NaN,-0.6154054,-1.317078E-07,NaN,-0.2512949,-5.97268E-07,NaN,-1.128377,2.499096E-05,-0.6606115,1.165726E-07,NaN,NaN,0.3904787,-5.122445E-11,1.411273E-06,-1.09452E-07,-9.366374E-09,-2.622604E-08
931.9161,-0.1710082,4.922972E-09,NaN,-0.6154054,-1.317078E-07,NaN,-0.2512949,-5.97268E-07,NaN,-1.128377,2.499096E-05,-0.6606115,1.165726E-07,NaN,NaN,0.3904787,-5.122445E-11,1.411273E-06,-1.09452E-07,-9.366374E-09,-2.622604E-08
931.9308,-0.1698143,4.923556E-09,NaN,-0.6190329,-1.317082E-07,NaN,-0.2588291,-5.973594E-07,NaN,-1.136694,2.499131E-05,-0.6709856,1.16665E-07,NaN,NaN,0.3940191,-5.122445E-11,1.417382E-06,-1.094532E-07,-1.547585E-08,-2.861022E-08
931.9474,-0.1686091,4.924139E-09,NaN,-0.6226933,-1.317087E-07,NaN,-0.2664431,-5.974517E-07,NaN,-1.144998,2.499165E-05,-0.6813629,1.167585E-07,NaN,NaN,0.3974904,-4.656784E-11,1.430197E-06,-1.094545E-07,-1.413475E-08,-2.622604E-08
931.9631,-0.1674023,4.924723E-09,NaN,-0.6263573,-1.317091E-07,NaN,-0.2741085,-5.975422E-07,NaN,-1.153226,2.4992E-05,-0.6915296,1.168501E-07,NaN,NaN,0.4008936,-4.656784E-11,1.448079E-06,-1.094557E-07,-1.279364E-08,-2.861022E-08
931.9789,-0.1674023,4.924723E-09,NaN,-0.6263573,-1.317091E-07,NaN,-0.2741085,-5.975422E-07,NaN,-1.153226,2.4992E-05,-0.6915296,1.168501E-07,NaN,NaN,0.4008936,-4.656784E-11,1.448079E-06,-1.094557E-07,-1.279364E-08,-2.861022E-08
931.9936,-0.1661647,4.925306E-09,NaN,-0.6301115,-1.317095E-07,NaN,-0.2819545,-5.976337E-07,NaN,-1.161798,2.499235E-05,-0.702162,1.169426E-07,NaN,NaN,0.4045438,-4.656784E-11,1.455231E-06,-1.094569E-07,-1.622091E-08,-2.622604E-08
932.0102,-0.1649141,4.92589E-09,NaN,-0.6339037,-1.317099E-07,NaN,-0.289892,-5.977261E-07,NaN,-1.170363,2.49927E-05,-0.7127753,1.170362E-07,NaN,NaN,0.4081227,-4.656784E-11,1.46894E-06,-1.094581E-07,-1.204858E-08,-2.861022E-08
932.0257,-0.1636613,4.926473E-09,NaN,-0.6377022,-1.317103E-07,NaN,-0.2978777,-5.978167E-07,NaN,-1.178854,2.499305E-05,-0.7231631,1.171278E-07,NaN,NaN,0.4116316,-4.656784E-11,1.48265E-06,-1.094594E-07,-1.145254E-08,-2.622604E-08
932.0414,-0.1624124,4.927057E-09,NaN,-0.6414873,-1.317107E-07,NaN,-0.3058528,-5.979082E-07,NaN,-1.187241,2.49934E-05,-0.7332919,1.172204E-07,NaN,NaN,0.4150716,-4.656784E-11,1.493676E-06,-1.094606E-07,-1.271914E-08,-2.861022E-08
932.0571,-0.1624124,4.927057E-09,NaN,-0.6414873,-1.317107E-07,NaN,-0.3058528,-5.979082E-07,NaN,-1.187241,2.49934E-05,-0.7332919,1.172204E-07,NaN,NaN,0.4150716,-4.656784E-11,1.493676E-06,-1.094606E-07,-1.271914E-08,-2.861022E-08
932.0724,-0.1611361,4.927641E-09,NaN,-0.6453518,-1.317111E-07,NaN,-0.3139908,-5.980007E-07,NaN,-1.195951,2.499374E-05,-0.7438842,1.17314E-07,NaN,NaN,0.4187578,-4.191122E-11,1.496657E-06,-1.094618E-07,-1.588563E-08,-2.622604E-08
932.0886,-0.1598491,4.928224E-09,NaN,-0.6492473,-1.317115E-07,NaN,-0.3221922,-5.980913E-07,NaN,-1.204648,2.499409E-05,-0.7544531,1.174057E-07,NaN,NaN,0.4223721,-4.191122E-11,1.508279E-06,-1.09463E-07,-1.619064E-08,-2.861022E-08
932.1047,-0.1585613,4.928807E-09,NaN,-0.6531441,-1.317119E-07,NaN,-0.3304175,-5.981829E-07,NaN,-1.213267,2.499444E-05,-0.7647982,1.174984E-07,NaN,NaN,0.4259155,-4.191122E-11,1.519306E-06,-1.094642E-07,-1.224183E-08,-2.622604E-08
932.1203,-0.1572786,4.92939E-09,NaN,-0.6570241,-1.317123E-07,NaN,-0.3386144,-5.982754E-07,NaN,-1.221779,2.499479E-05,-0.7748878,1.175921E-07,NaN,NaN,0.4293894,-4.191122E-11,1.527353E-06,-1.094654E-07,-7.845991E-09,-2.861022E-08
932.136,-0.1572786,4.92939E-09,NaN,-0.6570241,-1.317123E-07,NaN,-0.3386144,-5.982754E-07,NaN,-1.221779,2.499479E-05,-0.7748878,1.175921E-07,NaN,NaN,0.4293894,-4.191122E-11,1.527353E-06,-1.094654E-07,-7.845991E-09,-2.861022E-08
932.151,-0.155969,4.929973E-09,NaN,-0.660981,-1.317127E-07,NaN,-0.346989,-5.983661E-07,NaN,-1.230607,2.499514E-05,-0.7854397,1.176838E-07,NaN,NaN,0.4331088,-4.191122E-11,1.523479E-06,-1.094666E-07,-8.218519E-09,-2.622604E-08
932.1677,-0.1546493,4.930556E-09,NaN,-0.6649668,-1.317131E-07,NaN,-0.355416,-5.984577E-07,NaN,-1.239424,2.499549E-05,-0.795958,1.177766E-07,NaN,NaN,0.4367556,-4.191122E-11,1.527651E-06,-1.094678E-07,-1.328491E-08,-2.861022E-08
932.1835,-0.1533294,4.931139E-09,NaN,-0.6689523,-1.317135E-07,NaN,-0.3638515,-5.985503E-07,NaN,-1.248163,2.499585E-05,-0.806251,1.178703E-07,NaN,NaN,0.4403308,-5.122445E-11,1.532717E-06,-1.094689E-07,-1.522207E-08,-2.622604E-08
932.1992,-0.1533294,4.931139E-09,NaN,-0.6689523,-1.317135E-07,NaN,-0.3638515,-5.985503E-07,NaN,-1.248163,2.499585E-05,-0.806251,1.178703E-07,NaN,NaN,0.4403308,-5.122445E-11,1.532717E-06,-1.094689E-07,-1.522207E-08,-2.622604E-08
932.2143,-0.1520151,4.931723E-09,NaN,-0.6729198,-1.317139E-07,NaN,-0.3722449,-5.98641E-07,NaN,-1.256794,2.49962E-05,-0.8162904,1.179621E-07,NaN,NaN,0.443836,-5.122445E-11,1.536889E-06,-1.094701E-07,-1.581811E-08,-2.861022E-08
932.2311,-0.1506742,4.932306E-09,NaN,-0.6769627,-1.317143E-07,NaN,-0.3808327,-5.987327E-07,NaN,-1.265736,2.499657E-05,-0.8267879,1.180549E-07,NaN,NaN,0.4475861,-6.053767E-11,1.530929E-06,-1.094713E-07,-1.641416E-08,-2.622604E-08
932.2466,-0.1493235,4.932889E-09,NaN,-0.6810335,-1.317147E-07,NaN,-0.3894624,-5.988254E-07,NaN,-1.274668,2.499692E-05,-0.837242,1.181486E-07,NaN,NaN,0.451263,-6.053767E-11,1.532419E-06,-1.094725E-07,-1.999044E-08,-2.861022E-08
932.262,-0.1479729,4.933473E-09,NaN,-0.6851028,-1.31715E-07,NaN,-0.3980856,-5.989161E-07,NaN,-1.283522,2.499729E-05,-0.8474706,1.182405E-07,NaN,NaN,0.4548678,-6.519429E-11,1.531823E-06,-1.094736E-07,-2.505683E-08,-2.622604E-08
932.2778,-0.1479729,4.933473E-09,NaN,-0.6851028,-1.31715E-07,NaN,-0.3980856,-5.989161E-07,NaN,-1.283522,2.499729E-05,-0.8474706,1.182405E-07,NaN,NaN,0.4548678,-6.519429E-11,1.531823E-06,-1.094736E-07,-2.505683E-08,-2.622604E-08
932.2927,-0.1466285,4.934056E-09,NaN,-0.6891529,-1.317154E-07,NaN,-0.4066538,-5.990079E-07,NaN,-1.292268,2.499764E-05,-0.8574486,1.183333E-07,NaN,NaN,0.458402,-6.053767E-11,1.531823E-06,-1.094748E-07,-2.744102E-08,-2.861022E-08
932.3095,-0.1452574,4.93464E-09,NaN,-0.6932776,-1.317158E-07,NaN,-0.4154336,-5.990977E-07,NaN,-1.301319,2.4998E-05,-0.8678784,1.184243E-07,NaN,NaN,0.4621805,-5.588106E-11,1.52169E-06,-1.09476E-07,-2.267264E-08,-2.622604E-08
932.3249,-0.143877,4.935223E-09,NaN,-0.697429,-1.317162E-07,NaN,-0.4242446,-5.991886E-07,NaN,-1.310362,2.499835E-05,-0.8782563,1.185162E-07,NaN,NaN,0.4658853,-5.122445E-11,1.519008E-06,-1.094771E-07,-1.70102E-08,-2.861022E-08
932.3411,-0.1424971,4.935807E-09,NaN,-0.701578,-1.317166E-07,NaN,-0.4330344,-5.992805E-07,NaN,-1.319328,2.499871E-05,-0.8884104,1.186092E-07,NaN,NaN,0.4695174,-4.656784E-11,1.519008E-06,-1.094783E-07,-1.373195E-08,-2.622604E-08
932.3564,-0.1424971,4.935807E-09,NaN,-0.701578,-1.317166E-07,NaN,-0.4330344,-5.992805E-07,NaN,-1.319328,2.499871E-05,-0.8884104,1.186092E-07,NaN,NaN,0.4695174,-4.656784E-11,1.519008E-06,-1.094783E-07,-1.373195E-08,-2.622604E-08
932.3715,-0.1411237,4.93639E-09,NaN,-0.7057067,-1.31717E-07,NaN,-0.4417573,-5.993705E-07,NaN,-1.328185,2.499906E-05,-0.8983182,1.187002E-07,NaN,NaN,0.4730784,-4.191122E-11,1.51424E-06,-1.094794E-07,-7.47346E-09,-2.861022E-08
932.3876,-0.1397239,4.936974E-09,NaN,-0.7099091,-1.317173E-07,NaN,-0.4507093,-5.994614E-07,NaN,-1.337341,2.499942E-05,-0.9086691,1.187923E-07,NaN,NaN,0.4768832,-3.725461E-11,1.504405E-06,-1.094806E-07,-4.791251E-09,-2.622604E-08
932.4046,-0.1383149,4.937557E-09,NaN,-0.7141372,-1.317177E-07,NaN,-0.4596812,-5.995506E-07,NaN,-1.346491,2.499977E-05,-0.9189615,1.188825E-07,NaN,NaN,0.4806137,-3.2598E-11,1.496954E-06,-1.094817E-07,-4.195205E-09,-2.861022E-08
932.4193,-0.1383149,4.937557E-09,NaN,-0.7141372,-1.317177E-07,NaN,-0.4596812,-5.995506E-07,NaN,-1.346491,2.499977E-05,-0.9189615,1.188825E-07,NaN,NaN,0.4806137,-3.2598E-11,1.496954E-06,-1.094817E-07,-4.195205E-09,-2.861022E-08
932.4341,-0.136907,4.938141E-09,NaN,-0.7183619,-1.317181E-07,NaN,-0.4686182,-5.996407E-07,NaN,-1.355565,2.500012E-05,-0.9290336,1.189737E-07,NaN,NaN,0.4842711,-2.794139E-11,1.4901E-06,-1.094828E-07,-1.811019E-09,-2.622604E-08
932.4503,-0.1355058,4.938725E-09,NaN,-0.7225655,-1.317185E-07,NaN,-0.4774773,-5.997318E-07,NaN,-1.364528,2.500048E-05,-0.9388645,1.190659E-07,NaN,NaN,0.4878568,-2.328478E-11,1.480265E-06,-1.09484E-07,2.361306E-09,-2.861022E-08
932.4662,-0.1340784,4.939308E-09,NaN,-0.7268419,-1.317189E-07,NaN,-0.4865828,-5.998211E-07,NaN,-1.373786,2.500084E-05,-0.9491273,1.191563E-07,NaN,NaN,0.491686,-2.794139E-11,1.466556E-06,-1.094851E-07,1.169213E-09,-2.622604E-08
932.4818,-0.1326421,4.939892E-09,NaN,-0.731143,-1.317193E-07,NaN,-0.4956971,-5.999113E-07,NaN,-1.383039,2.50012E-05,-0.9593272,1.192476E-07,NaN,NaN,0.4954403,-2.328478E-11,1.454337E-06,-1.094862E-07,4.745492E-09,-2.861022E-08
932.4979,-0.1326421,4.939892E-09,NaN,-0.731143,-1.317193E-07,NaN,-0.4956971,-5.999113E-07,NaN,-1.383039,2.50012E-05,-0.9593272,1.192476E-07,NaN,NaN,0.4954403,-2.328478E-11,1.454337E-06,-1.094862E-07,4.745492E-09,-2.861022E-08
932.5126,-0.1312072,4.940475E-09,NaN,-0.7354398,-1.317196E-07,NaN,-0.5047635,-6.000026E-07,NaN,-1.392216,2.500156E-05,-0.9693121,1.1934E-07,NaN,NaN,0.4991211,-2.794139E-11,1.44033E-06,-1.094873E-07,5.937585E-09,-2.622604E-08
932.5292,-0.1297795,4.941059E-09,NaN,-0.7397146,-1.3172E-07,NaN,-0.5137419,-6.00092E-07,NaN,-1.401282,2.500192E-05,-0.979062,1.194304E-07,NaN,NaN,0.5027297,-2.328478E-11,1.427813E-06,-1.094885E-07,6.533631E-09,-2.861022E-08
932.5437,-0.1283256,4.941642E-09,NaN,-0.7440613,-1.317204E-07,NaN,-0.5229835,-6.001824E-07,NaN,-1.410637,2.500227E-05,-0.9892296,1.195219E-07,NaN,NaN,0.5065814,-1.862816E-11,1.406355E-06,-1.094896E-07,5.341538E-09,-2.622604E-08
932.5603,-0.1268632,4.942226E-09,NaN,-0.7484319,-1.317208E-07,NaN,-0.5322232,-6.002709E-07,NaN,-1.419989,2.500263E-05,-0.9993324,1.196116E-07,NaN,NaN,0.5103577,-1.397155E-11,1.39503E-06,-1.094907E-07,9.513863E-09,-2.861022E-08
932.5759,-0.1268632,4.942226E-09,NaN,-0.7484319,-1.317208E-07,NaN,-0.5322232,-6.002709E-07,NaN,-1.419989,2.500263E-05,-0.9993324,1.196116E-07,NaN,NaN,0.5103577,-1.397155E-11,1.39503E-06,-1.094907E-07,9.513863E-09,-2.861022E-08
932.5911,-0.1254024,4.942809E-09,NaN,-0.7527974,-1.317211E-07,NaN,-0.5414028,-6.003605E-07,NaN,-1.429265,2.500299E-05,-1.009227,1.197022E-07,NaN,NaN,0.5140601,-1.862816E-11,1.377745E-06,-1.094918E-07,5.937585E-09,-2.622604E-08
932.6072,-0.1239493,4.943393E-09,NaN,-0.7571399,-1.317215E-07,NaN,-0.5504851,-6.004511E-07,NaN,-1.43843,2.500334E-05,-1.018894,1.197939E-07,NaN,NaN,0.51769,-1.397155E-11,1.362248E-06,-1.094929E-07,7.725724E-09,-2.861022E-08
932.6229,-0.12247,4.943976E-09,NaN,-0.7615535,-1.317219E-07,NaN,-0.5598469,-6.005399E-07,NaN,-1.447878,2.50037E-05,-1.028961,1.198837E-07,NaN,NaN,0.5215625,-9.314939E-12,1.335426E-06,-1.09494E-07,5.937585E-09,-2.622604E-08
932.6385,-0.12247,4.943976E-09,NaN,-0.7615535,-1.317219E-07,NaN,-0.5598469,-6.005399E-07,NaN,-1.447878,2.50037E-05,-1.028961,1.198837E-07,NaN,NaN,0.5215625,-9.314939E-12,1.335426E-06,-1.09494E-07,5.937585E-09,-2.622604E-08
932.6539,-0.1209825,4.94456E-09,NaN,-0.7659903,-1.317222E-07,NaN,-0.5691965,-6.006296E-07,NaN,-1.457326,2.500405E-05,-1.038965,1.199745E-07,NaN,NaN,0.5253593,-4.658327E-12,1.314564E-06,-1.094951E-07,1.169213E-09,-2.861022E-08
932.6701,-0.119497,4.945143E-09,NaN,-0.770421,-1.317226E-07,NaN,-0.5784749,-6.007176E-07,NaN,-1.466697,2.500441E-05,-1.048769,1.200635E-07,NaN,NaN,0.5290817,-1.713907E-15,1.29251E-06,-1.094962E-07,-2.28797E-11,-2.622604E-08
932.686,-0.1180195,4.945727E-09,NaN,-0.774828,-1.31723E-07,NaN,-0.5876475,-6.008065E-07,NaN,-1.475956,2.500477E-05,-1.058352,1.201536E-07,NaN,NaN,0.5327312,4.654899E-12,1.267476E-06,-1.094972E-07,1.169213E-09,-2.861022E-08
932.702,-0.1165159,4.946311E-09,NaN,-0.7793053,-1.317233E-07,NaN,-0.5971149,-6.008965E-07,NaN,-1.485492,2.500513E-05,-1.068316,1.202446E-07,NaN,NaN,0.536623,9.311512E-12,1.237078E-06,-1.094983E-07,-1.214973E-09,-2.622604E-08
932.7177,-0.1165159,4.946311E-09,NaN,-0.7793053,-1.317233E-07,NaN,-0.5971149,-6.008965E-07,NaN,-1.485492,2.500513E-05,-1.068316,1.202446E-07,NaN,NaN,0.536623,9.311512E-12,1.237078E-06,-1.094983E-07,-1.214973E-09,-2.622604E-08
932.7326,-0.1150044,4.946895E-09,NaN,-0.783805,-1.317237E-07,NaN,-0.6065603,-6.009846E-07,NaN,-1.495031,2.500549E-05,-1.07822,1.203339E-07,NaN,NaN,0.5404387,1.396812E-11,1.210256E-06,-1.094994E-07,1.169213E-09,-2.861022E-08
932.7489,-0.1134953,4.947479E-09,NaN,-0.7882977,-1.317241E-07,NaN,-0.6159246,-6.010738E-07,NaN,-1.504493,2.500585E-05,-1.087933,1.204241E-07,NaN,NaN,0.5441797,1.862474E-11,1.186414E-06,-1.095005E-07,4.745492E-09,-2.622604E-08
932.765,-0.1119944,4.948063E-09,NaN,-0.7927661,-1.317244E-07,NaN,-0.6251754,-6.011612E-07,NaN,-1.513842,2.50062E-05,-1.097434,1.205125E-07,NaN,NaN,0.5478473,2.328135E-11,1.157804E-06,-1.095015E-07,1.169213E-09,-2.861022E-08
932.7805,-0.1118956,4.948647E-09,NaN,-0.7933341,-1.317248E-07,NaN,-0.6181019,-6.012496E-07,NaN,-1.508248,2.500656E-05,-1.085522,1.20602E-07,NaN,NaN,0.5398317,2.793796E-11,1.388473E-06,-1.095026E-07,5.937585E-09,-2.622604E-08
932.7965,-0.1118956,4.948647E-09,NaN,-0.7933341,-1.317248E-07,NaN,-0.6181019,-6.012496E-07,NaN,-1.508248,2.500656E-05,-1.085522,1.20602E-07,NaN,NaN,0.5398317,2.793796E-11,1.388473E-06,-1.095026E-07,5.937585E-09,-2.622604E-08
932.8116,-0.1126113,4.94923E-09,NaN,-0.7915198,-1.317252E-07,NaN,-0.6074545,-6.013354E-07,NaN,-1.497103,2.500693E-05,-1.06707,1.20689E-07,NaN,NaN,0.5319684,3.259457E-11,1.424236E-06,-1.095037E-07,-3.599158E-09,-2.861022E-08
932.8282,-0.1138075,4.949813E-09,NaN,-0.788247,-1.317256E-07,NaN,-0.5953614,-6.014224E-07,NaN,-1.483406,2.500729E-05,-1.046898,1.207771E-07,NaN,NaN,0.5242576,3.259457E-11,1.427813E-06,-1.095047E-07,-4.791251E-09,-2.622604E-08
932.8438,-0.115274,4.950397E-09,NaN,-0.7840986,-1.317259E-07,NaN,-0.5828272,-6.015105E-07,NaN,-1.468603,2.500767E-05,-1.026271,1.208662E-07,NaN,NaN,0.5166972,2.793796E-11,1.424832E-06,-1.095058E-07,-3.599158E-09,-2.861022E-08
932.8594,-0.115274,4.950397E-09,NaN,-0.7840986,-1.317259E-07,NaN,-0.5828272,-6.015105E-07,NaN,-1.468603,2.500767E-05,-1.026271,1.208662E-07,NaN,NaN,0.5166972,2.793796E-11,1.424832E-06,-1.095058E-07,-3.599158E-09,-2.861022E-08
932.8743,-0.116848,4.95098E-09,NaN,-0.779541,-1.317263E-07,NaN,-0.5707058,-6.015995E-07,NaN,-1.453793,2.500803E-05,-1.006233,1.209563E-07,NaN,NaN,0.5095986,2.793796E-11,1.406951E-06,-1.095068E-07,-2.287948E-11,-2.622604E-08
932.8906,-0.1184735,4.951563E-09,NaN,-0.7747551,-1.317267E-07,NaN,-0.5588468,-6.016868E-07,NaN,-1.43906,2.500841E-05,-0.9864935,1.210446E-07,NaN,NaN,0.5026391,2.328135E-11,1.394434E-06,-1.095078E-07,-1.214972E-09,-2.861022E-08
932.9065,-0.1201191,4.952146E-09,NaN,-0.7698519,-1.31727E-07,NaN,-0.5472711,-6.017751E-07,NaN,-1.424481,2.500877E-05,-0.9669923,1.21134E-07,NaN,NaN,0.495816,2.328135E-11,1.381917E-06,-1.095089E-07,-2.407065E-09,-2.622604E-08
932.9233,-0.1217672,4.952729E-09,NaN,-0.7648991,-1.317274E-07,NaN,-0.5359772,-6.018616E-07,NaN,-1.410093,2.500915E-05,-0.947733,1.212216E-07,NaN,NaN,0.4891267,1.862474E-11,1.36344E-06,-1.095099E-07,1.169213E-09,-2.861022E-08
932.9382,-0.1217672,4.952729E-09,NaN,-0.7648991,-1.317274E-07,NaN,-0.5359772,-6.018616E-07,NaN,-1.410093,2.500915E-05,-0.947733,1.212216E-07,NaN,NaN,0.4891267,1.862474E-11,1.36344E-06,-1.095099E-07,1.169213E-09,-2.861022E-08
932.9531,-0.123371,4.953313E-09,NaN,-0.7600423,-1.317278E-07,NaN,-0.5253299,-6.019491E-07,NaN,-1.396326,2.500952E-05,-0.9294003,1.213102E-07,NaN,NaN,0.4828822,1.396812E-11,1.33781E-06,-1.095109E-07,-2.287948E-11,-2.622604E-08
932.9695,-0.1249419,4.953896E-09,NaN,-0.7552648,-1.317281E-07,NaN,-0.5150319,-6.020377E-07,NaN,-1.382922,2.500989E-05,-0.9114996,1.213999E-07,NaN,NaN,0.4767603,9.311512E-12,1.316352E-06,-1.09512E-07,3.553399E-09,-2.861022E-08
932.985,-0.1264862,4.95448E-09,NaN,-0.7505563,-1.317285E-07,NaN,-0.5050263,-6.021245E-07,NaN,-1.369804,2.501027E-05,-0.8938905,1.214878E-07,NaN,NaN,0.4707585,4.654899E-12,1.29251E-06,-1.09513E-07,4.745492E-09,-2.622604E-08
933.0006,-0.1280079,4.955064E-09,NaN,-0.7459104,-1.317289E-07,NaN,-0.4952776,-6.022123E-07,NaN,-1.356932,2.501064E-05,-0.8765463,1.215767E-07,NaN,NaN,0.4648743,-1.713907E-15,1.263304E-06,-1.09514E-07,7.129678E-09,-2.861022E-08
933.0165,-0.1280079,4.955064E-09,NaN,-0.7459104,-1.317289E-07,NaN,-0.4952776,-6.022123E-07,NaN,-1.356932,2.501064E-05,-0.8765463,1.215767E-07,NaN,NaN,0.4648743,-1.713907E-15,1.263304E-06,-1.09514E-07,7.129678E-09,-2.861022E-08
933.0316,-0.1294723,4.955648E-09,NaN,-0.7414274,-1.317293E-07,NaN,-0.4860991,-6.022984E-07,NaN,-1.344704,2.501101E-05,-0.86017,1.216638E-07,NaN,NaN,0.4594192,-1.713907E-15,1.229329E-06,-1.09515E-07,1.169214E-09,-2.622604E-08
933.0479,-0.1308971,4.956232E-09,NaN,-0.737063,-1.317296E-07,NaN,-0.477237,-6.033901E-07,NaN,-1.332829,2.501137E-05,-0.8442309,1.227566E-07,NaN,NaN,0.4540713,-1.713907E-15,1.204295E-06,-1.09516E-07,2.361306E-09,-2.861022E-08
933.0635,-0.1322924,4.956818E-09,NaN,-0.7327898,-1.317299E-07,NaN,-0.468636,-6.02867E-07,NaN,-1.321225,2.501174E-05,-0.8285703,1.222346E-07,NaN,NaN,0.4488282,-4.658327E-12,1.175983E-06,-1.095156E-07,2.361306E-09,-2.622604E-08
933.0798,-0.1322924,4.956818E-09,NaN,-0.7327898,-1.317299E-07,NaN,-0.468636,-6.02867E-07,NaN,-1.321225,2.501174E-05,-0.8285703,1.222346E-07,NaN,NaN,0.4488282,-4.658327E-12,1.175983E-06,-1.095156E-07,2.361306E-09,-2.622604E-08
933.0942,-0.1336272,4.957404E-09,NaN,-0.7286955,-1.317299E-07,NaN,-0.4605639,-6.025207E-07,NaN,-1.310274,2.50121E-05,-0.8138837,1.218894E-07,NaN,NaN,0.4440016,-9.314939E-12,1.141114E-06,-1.095149E-07,5.937585E-09,-2.861022E-08
933.1105,-0.1349211,4.957989E-09,NaN,-0.7247278,-1.317296E-07,NaN,-0.4527911,-6.03867E-07,NaN,-1.299662,2.501247E-05,-0.7996249,1.232367E-07,NaN,NaN,0.4392699,-9.314939E-12,1.116378E-06,-1.095154E-07,3.553399E-09,-2.622604E-08
933.1259,-0.1361851,4.958575E-09,NaN,-0.7208548,-1.317296E-07,NaN,-0.4452602,-6.034755E-07,NaN,-1.289305,2.501283E-05,-0.7856246,1.228464E-07,NaN,NaN,0.434631,-9.314939E-12,1.089258E-06,-1.095148E-07,3.553399E-09,-2.861022E-08
933.1417,-0.1374258,4.959162E-09,NaN,-0.7170566,-1.317293E-07,NaN,-0.437928,-6.031991E-07,NaN,-1.279159,2.50132E-05,-0.7718526,1.22571E-07,NaN,NaN,0.4300829,-1.397155E-11,1.06184E-06,-1.095139E-07,5.937585E-09,-2.622604E-08
933.1573,-0.1374258,4.959162E-09,NaN,-0.7170566,-1.317293E-07,NaN,-0.437928,-6.031991E-07,NaN,-1.279159,2.50132E-05,-0.7718526,1.22571E-07,NaN,NaN,0.4300829,-1.397155E-11,1.06184E-06,-1.095139E-07,5.937585E-09,-2.622604E-08
933.1727,-0.1386105,4.959748E-09,NaN,-0.7134253,-1.317289E-07,NaN,-0.4310424,-6.029816E-07,NaN,-1.269629,2.501355E-05,-0.7590452,1.223547E-07,NaN,NaN,0.4259378,-1.862816E-11,1.028462E-06,-1.095129E-07,1.1302E-08,-2.861022E-08
933.1885,-0.1397573,4.960335E-09,NaN,-0.7099116,-1.317284E-07,NaN,-0.4244232,-6.027994E-07,NaN,-1.260403,2.501391E-05,-0.7466543,1.221736E-07,NaN,NaN,0.4218742,-2.328478E-11,1.002236E-06,-1.095119E-07,1.1302E-08,-2.622604E-08
933.2043,-0.1408765,4.96092E-09,NaN,-0.7064853,-1.317279E-07,NaN,-0.4180207,-6.042357E-07,NaN,-1.251402,2.501427E-05,-0.7344975,1.236109E-07,NaN,NaN,0.4178902,-1.862816E-11,9.760096E-07,-1.095123E-07,1.309014E-08,-2.861022E-08
933.22,-0.1408765,4.96092E-09,NaN,-0.7064853,-1.317279E-07,NaN,-0.4180207,-6.042357E-07,NaN,-1.251402,2.501427E-05,-0.7344975,1.236109E-07,NaN,NaN,0.4178902,-1.862816E-11,9.760096E-07,-1.095123E-07,1.309014E-08,-2.861022E-08
933.2349,-0.1419743,4.961506E-09,NaN,-0.7031275,-1.317277E-07,NaN,-0.411791,-6.038903E-07,NaN,-1.242587,2.501463E-05,-0.7225428,1.232667E-07,NaN,NaN,0.4139844,-1.862816E-11,9.479954E-07,-1.095115E-07,1.607037E-08,-2.622604E-08
933.251,-0.1430181,4.962093E-09,NaN,-0.6999308,-1.317273E-07,NaN,-0.4059503,-6.036336E-07,NaN,-1.234372,2.501498E-05,-0.7115363,1.23011E-07,NaN,NaN,0.4104688,-2.328478E-11,9.17895E-07,-1.095106E-07,1.845456E-08,-2.861022E-08
933.2668,-0.1440254,4.962679E-09,NaN,-0.6968467,-1.317269E-07,NaN,-0.4003537,-6.034242E-07,NaN,-1.226433,2.501534E-05,-0.7009308,1.228028E-07,NaN,NaN,0.4070224,-2.794139E-11,8.961393E-07,-1.095096E-07,1.964665E-08,-2.622604E-08
933.2823,-0.1450065,4.963266E-09,NaN,-0.6938449,-1.317263E-07,NaN,-0.3949555,-6.032414E-07,NaN,-1.218697,2.50157E-05,-0.6905332,1.226211E-07,NaN,NaN,0.4036437,-3.725462E-11,8.725955E-07,-1.095086E-07,2.143479E-08,-2.861022E-08
933.2985,-0.1450065,4.963266E-09,NaN,-0.6938449,-1.317263E-07,NaN,-0.3949555,-6.032414E-07,NaN,-1.218697,2.50157E-05,-0.6905332,1.226211E-07,NaN,NaN,0.4036437,-3.725462E-11,8.725955E-07,-1.095086E-07,2.143479E-08,-2.861022E-08
933.3132,-0.1459676,4.963852E-09,NaN,-0.6909068,-1.317258E-07,NaN,-0.3897096,-6.030734E-07,NaN,-1.211126,2.501606E-05,-0.680309,1.224543E-07,NaN,NaN,0.4003311,-4.656784E-11,8.502437E-07,-1.095075E-07,1.964665E-08,-2.622604E-08
933.3297,-0.1468764,4.964438E-09,NaN,-0.6881252,-1.317254E-07,NaN,-0.3848033,-6.028097E-07,NaN,-1.20414,2.501641E-05,-0.6710106,1.221916E-07,NaN,NaN,0.3973972,-5.122445E-11,8.207394E-07,-1.09506E-07,1.785851E-08,-2.622604E-08
933.3453,-0.14775,4.965023E-09,NaN,-0.6854516,-1.317248E-07,NaN,-0.3801217,-6.042903E-07,NaN,-1.197406,2.501677E-05,-0.6620952,1.236734E-07,NaN,NaN,0.3945211,-4.656784E-11,7.994308E-07,-1.095063E-07,2.02427E-08,-2.861022E-08
933.3607,-0.1485987,4.965608E-09,NaN,-0.6828559,-1.317248E-07,NaN,-0.3756231,-6.0385E-07,NaN,-1.190854,2.501714E-05,-0.6533611,1.232341E-07,NaN,NaN,0.3917015,-4.656784E-11,7.809533E-07,-1.09505E-07,1.815654E-08,-2.622604E-08
933.377,-0.1485987,4.965608E-09,NaN,-0.6828559,-1.317248E-07,NaN,-0.3756231,-6.0385E-07,NaN,-1.190854,2.501714E-05,-0.6533611,1.232341E-07,NaN,NaN,0.3917015,-4.656784E-11,7.809533E-07,-1.09505E-07,1.815654E-08,-2.622604E-08
933.3914,-0.1494288,4.966193E-09,NaN,-0.6803194,-1.317246E-07,NaN,-0.3712596,-6.035086E-07,NaN,-1.184447,2.501751E-05,-0.6447716,1.228939E-07,NaN,NaN,0.3889371,-4.656784E-11,7.64115E-07,-1.095036E-07,1.607037E-08,-2.622604E-08
933.408,-0.1502079,4.966779E-09,NaN,-0.677935,-1.317243E-07,NaN,-0.3671936,-6.032191E-07,NaN,-1.17861,2.501787E-05,-0.6370823,1.226055E-07,NaN,NaN,0.3865406,-4.656784E-11,7.393791E-07,-1.095021E-07,1.040793E-08,-2.622604E-08
933.4236,-0.1509532,4.967365E-09,NaN,-0.6756543,-1.31724E-07,NaN,-0.3633353,-6.029578E-07,NaN,-1.173003,2.501825E-05,-0.6297565,1.223453E-07,NaN,NaN,0.3841914,-5.122445E-11,7.246269E-07,-1.095005E-07,1.070596E-08,-2.622604E-08
933.4406,-0.151675,4.96795E-09,NaN,-0.6734473,-1.317236E-07,NaN,-0.359647,-6.027156E-07,NaN,-1.16756,2.501862E-05,-0.6225855,1.221042E-07,NaN,NaN,0.3818883,-5.588106E-11,7.101727E-07,-1.094989E-07,7.129676E-09,-2.622604E-08
933.455,-0.151675,4.96795E-09,NaN,-0.6734473,-1.317236E-07,NaN,-0.359647,-6.027156E-07,NaN,-1.16756,2.501862E-05,-0.6225855,1.221042E-07,NaN,NaN,0.3818883,-5.588106E-11,7.101727E-07,-1.094989E-07,7.129676E-09,-2.622604E-08
933.4699,-0.1523793,4.968535E-09,NaN,-0.6712952,-1.31723E-07,NaN,-0.3560793,-6.042034E-07,NaN,-1.162243,2.501898E-05,-0.615531,1.235931E-07,NaN,NaN,0.3796304,-5.122445E-11,6.931854E-07,-1.094992E-07,8.023746E-09,-2.861022E-08
933.4865,-0.1530342,4.969121E-09,NaN,-0.6692908,-1.317229E-07,NaN,-0.3527738,-6.037615E-07,NaN,-1.15748,2.501936E-05,-0.6093497,1.231523E-07,NaN,NaN,0.3777305,-5.588106E-11,6.688965E-07,-1.09498E-07,8.023746E-09,-2.622604E-08
933.502,-0.1536565,4.969707E-09,NaN,-0.6673861,-1.317227E-07,NaN,-0.3496614,-6.034157E-07,NaN,-1.152929,2.501973E-05,-0.6035113,1.228077E-07,NaN,NaN,0.3758681,-6.053768E-11,6.55709E-07,-1.094966E-07,9.215839E-09,-2.622604E-08
933.5175,-0.1536565,4.969707E-09,NaN,-0.6673861,-1.317227E-07,NaN,-0.3496614,-6.034157E-07,NaN,-1.152929,2.501973E-05,-0.6035113,1.228077E-07,NaN,NaN,0.3758681,-6.053768E-11,6.55709E-07,-1.094966E-07,9.215839E-09,-2.622604E-08
933.5325,-0.1542564,4.970294E-09,NaN,-0.6655508,-1.317224E-07,NaN,-0.3467079,-6.031191E-07,NaN,-1.148523,2.50201E-05,-0.5978024,1.225122E-07,NaN,NaN,0.3740422,-6.519429E-11,6.423725E-07,-1.094951E-07,1.010991E-08,-2.622604E-08
933.5491,-0.1548402,4.97088E-09,NaN,-0.6637663,-1.31722E-07,NaN,-0.3438627,-6.028508E-07,NaN,-1.144225,2.502048E-05,-0.5921826,1.22245E-07,NaN,NaN,0.3722522,-6.985091E-11,6.29632E-07,-1.094935E-07,1.174904E-08,-2.622604E-08
933.5649,-0.1553758,4.971465E-09,NaN,-0.6621256,-1.317215E-07,NaN,-0.3412506,-6.043188E-07,NaN,-1.140469,2.502084E-05,-0.587409,1.237141E-07,NaN,NaN,0.370811,-6.519429E-11,6.087331E-07,-1.094939E-07,1.249409E-08,-2.861022E-08
933.5804,-0.1558802,4.972051E-09,NaN,-0.6605803,-1.317214E-07,NaN,-0.3388191,-6.03863E-07,NaN,-1.136906,2.502121E-05,-0.5829574,1.232594E-07,NaN,NaN,0.3693984,-6.985091E-11,5.993826E-07,-1.094927E-07,1.249409E-08,-2.622604E-08
933.5962,-0.1558802,4.972051E-09,NaN,-0.6605803,-1.317214E-07,NaN,-0.3388191,-6.03863E-07,NaN,-1.136906,2.502121E-05,-0.5829574,1.232594E-07,NaN,NaN,0.3693984,-6.985091E-11,5.993826E-07,-1.094927E-07,1.249409E-08,-2.622604E-08
933.6112,-0.1563634,4.972637E-09,NaN,-0.6591007,-1.317213E-07,NaN,-0.3365369,-6.044823E-07,NaN,-1.133469,2.502159E-05,-0.5786108,1.238798E-07,NaN,NaN,0.3680135,-7.450753E-11,5.927144E-07,-1.094913E-07,1.264311E-08,-2.622604E-08
933.6273,-0.1568316,4.973224E-09,NaN,-0.6576678,-1.31721E-07,NaN,-0.334353,-6.051346E-07,NaN,-1.130126,2.502197E-05,-0.5743273,1.245332E-07,NaN,NaN,0.3666557,-7.916414E-11,5.85003E-07,-1.094898E-07,1.219607E-08,-2.622604E-08
933.6433,-0.157253,4.97381E-09,NaN,-0.6563747,-1.317206E-07,NaN,-0.3323784,-6.048207E-07,NaN,-1.12731,2.502235E-05,-0.5708637,1.242204E-07,NaN,NaN,0.3656384,-7.916414E-11,5.707724E-07,-1.094883E-07,1.309014E-08,-2.622604E-08
933.6588,-0.157253,4.97381E-09,NaN,-0.6563747,-1.317206E-07,NaN,-0.3323784,-6.048207E-07,NaN,-1.12731,2.502235E-05,-0.5708637,1.242204E-07,NaN,NaN,0.3656384,-7.916414E-11,5.707724E-07,-1.094883E-07,1.309014E-08,-2.622604E-08
933.674,-0.1576443,4.974397E-09,NaN,-0.6551732,-1.317202E-07,NaN,-0.3305739,-6.045243E-07,NaN,-1.12467,2.502273E-05,-0.5677013,1.239251E-07,NaN,NaN,0.3646413,-7.916414E-11,5.640296E-07,-1.094867E-07,1.532532E-08,-2.622604E-08
933.6902,-0.1580156,4.974984E-09,NaN,-0.6540334,-1.317198E-07,NaN,-0.3289106,-6.042392E-07,NaN,-1.122142,2.502312E-05,-0.5646202,1.236411E-07,NaN,NaN,0.3636638,-7.916414E-11,5.584603E-07,-1.094852E-07,1.577235E-08,-2.622604E-08
933.7061,-0.1583731,4.975572E-09,NaN,-0.6529366,-1.317194E-07,NaN,-0.3273368,-6.039625E-07,NaN,-1.119691,2.50235E-05,-0.5615778,1.233655E-07,NaN,NaN,0.3627054,-7.916414E-11,5.525744E-07,-1.094836E-07,1.38352E-08,-2.622604E-08
933.7219,-0.158685,4.976159E-09,NaN,-0.6519758,-1.317189E-07,NaN,-0.3259539,-6.036911E-07,NaN,-1.117754,2.502388E-05,-0.5593302,1.230953E-07,NaN,NaN,0.3620796,-7.916414E-11,5.408024E-07,-1.094821E-07,1.413322E-08,-2.622604E-08
933.7374,-0.158685,4.976159E-09,NaN,-0.6519758,-1.317189E-07,NaN,-0.3259539,-6.036911E-07,NaN,-1.117754,2.502388E-05,-0.5593302,1.230953E-07,NaN,NaN,0.3620796,-7.916414E-11,5.408024E-07,-1.094821E-07,1.413322E-08,-2.622604E-08
933.7525,-0.158968,4.976747E-09,NaN,-0.6511028,-1.317185E-07,NaN,-0.3247321,-6.03425E-07,NaN,-1.115978,2.502426E-05,-0.5573629,1.228302E-07,NaN,NaN,0.3614664,-7.916414E-11,5.389678E-07,-1.094805E-07,1.394696E-08,-2.622604E-08
933.7691,-0.159232,4.977335E-09,NaN,-0.6502878,-1.31718E-07,NaN,-0.3236445,-6.03164E-07,NaN,-1.114298,2.502464E-05,-0.5554547,1.225704E-07,NaN,NaN,0.3608653,-7.916414E-11,5.363694E-07,-1.09479E-07,1.428223E-08,-2.622604E-08
933.7849,-0.1594834,4.977923E-09,NaN,-0.6495122,-1.317176E-07,NaN,-0.3226389,-6.029053E-07,NaN,-1.112682,2.502503E-05,-0.5535621,1.223127E-07,NaN,NaN,0.3602759,-7.916414E-11,5.342367E-07,-1.094775E-07,1.648016E-08,-2.622604E-08
933.8009,-0.1596904,4.978511E-09,NaN,-0.6488689,-1.317171E-07,NaN,-0.3218102,-6.026487E-07,NaN,-1.111567,2.502541E-05,-0.5524406,1.220572E-07,NaN,NaN,0.3600118,-7.916414E-11,5.241598E-07,-1.094759E-07,1.972116E-08,-2.622604E-08
933.8167,-0.1596904,4.978511E-09,NaN,-0.6488689,-1.317171E-07,NaN,-0.3218102,-6.026487E-07,NaN,-1.111567,2.502541E-05,-0.5524406,1.220572E-07,NaN,NaN,0.3600118,-7.916414E-11,5.241598E-07,-1.094759E-07,1.972116E-08,-2.622604E-08
933.8319,-0.1598695,4.979098E-09,NaN,-0.6483098,-1.317165E-07,NaN,-0.321135,-6.041143E-07,NaN,-1.110598,2.502579E-05,-0.5515791,1.23524E-07,NaN,NaN,0.3597533,-8.382076E-11,5.227535E-07,-1.094763E-07,2.093188E-08,-2.861022E-08
933.8482,-0.1600308,4.979686E-09,NaN,-0.6478052,-1.317164E-07,NaN,-0.3205879,-6.036446E-07,NaN,-1.109711,2.502617E-05,-0.5507554,1.230554E-07,NaN,NaN,0.3594998,-8.382076E-11,5.231074E-07,-1.094751E-07,2.298079E-08,-2.622604E-08
933.8637,-0.1601805,4.980275E-09,NaN,-0.6473365,-1.317163E-07,NaN,-0.3201162,-6.032716E-07,NaN,-1.108874,2.502654E-05,-0.5499258,1.226834E-07,NaN,NaN,0.3592514,-8.382076E-11,5.232005E-07,-1.094738E-07,2.182129E-08,-2.622604E-08
933.8799,-0.1601805,4.980275E-09,NaN,-0.6473365,-1.317163E-07,NaN,-0.3201162,-6.032716E-07,NaN,-1.108874,2.502654E-05,-0.5499258,1.226834E-07,NaN,NaN,0.3592514,-8.382076E-11,5.232005E-07,-1.094738E-07,2.182129E-08,-2.622604E-08
933.8949,-0.1602869,4.980863E-09,NaN,-0.6469964,-1.31716E-07,NaN,-0.3198111,-6.039214E-07,NaN,-1.108526,2.502693E-05,-0.5498451,1.233344E-07,NaN,NaN,0.3593215,-8.382076E-11,5.158337E-07,-1.094724E-07,2.234981E-08,-2.622604E-08
933.9114,-0.1603666,4.981452E-09,NaN,-0.6467373,-1.317156E-07,NaN,-0.3196535,-6.045839E-07,NaN,-1.108311,2.502731E-05,-0.5500046,1.239979E-07,NaN,NaN,0.3593906,-8.847737E-11,5.182831E-07,-1.094709E-07,1.965364E-08,-2.622604E-08
933.9275,-0.1604294,4.982041E-09,NaN,-0.6465291,-1.317153E-07,NaN,-0.319618,-6.052446E-07,NaN,-1.108165,2.50277E-05,-0.5501817,1.246597E-07,NaN,NaN,0.3594584,-9.77906E-11,5.204624E-07,-1.094694E-07,1.848948E-08,-2.622604E-08
933.9447,-0.1604816,4.982629E-09,NaN,-0.6463534,-1.317148E-07,NaN,-0.3196521,-6.058979E-07,NaN,-1.108057,2.502808E-05,-0.550333,1.253142E-07,NaN,NaN,0.3595249,-9.77906E-11,5.213192E-07,-1.09468E-07,1.945806E-08,-2.622604E-08
933.959,-0.1604816,4.982629E-09,NaN,-0.6463534,-1.317148E-07,NaN,-0.3196521,-6.058979E-07,NaN,-1.108057,2.502808E-05,-0.550333,1.253142E-07,NaN,NaN,0.3595249,-9.77906E-11,5.213192E-07,-1.09468E-07,1.945806E-08,-2.622604E-08
933.974,-0.1604917,4.983219E-09,NaN,-0.6463031,-1.317144E-07,NaN,-0.3198462,-6.065412E-07,NaN,-1.108425,2.502847E-05,-0.5512124,1.259586E-07,NaN,NaN,0.3599039,-9.77906E-11,5.174077E-07,-1.094665E-07,1.975608E-08,-2.622604E-08
933.9905,-0.1604767,4.983808E-09,NaN,-0.6463296,-1.31714E-07,NaN,-0.3201821,-6.071718E-07,NaN,-1.108914,2.502885E-05,-0.5523124,1.265903E-07,NaN,NaN,0.3602757,-9.77906E-11,5.191213E-07,-1.09465E-07,1.781893E-08,-2.622604E-08
934.0066,-0.1604463,4.984397E-09,NaN,-0.6464036,-1.317136E-07,NaN,-0.3206347,-6.0779E-07,NaN,-1.109459,2.502923E-05,-0.5534112,1.272096E-07,NaN,NaN,0.3606403,-9.77906E-11,5.21282E-07,-1.094635E-07,1.711112E-08,-2.622604E-08
934.0225,-0.1604066,4.984987E-09,NaN,-0.6465065,-1.317132E-07,NaN,-0.3211512,-6.083932E-07,NaN,-1.110031,2.502962E-05,-0.5544654,1.278139E-07,NaN,NaN,0.3609977,-1.071038E-10,5.252308E-07,-1.09462E-07,1.718563E-08,-2.622604E-08
934.0383,-0.1604066,4.984987E-09,NaN,-0.6465065,-1.317132E-07,NaN,-0.3211512,-6.083932E-07,NaN,-1.110031,2.502962E-05,-0.5544654,1.278139E-07,NaN,NaN,0.3609977,-1.071038E-10,5.252308E-07,-1.09462E-07,1.718563E-08,-2.622604E-08
934.0533,-0.160326,4.985577E-09,NaN,-0.6467314,-1.317127E-07,NaN,-0.3218241,-6.089845E-07,NaN,-1.111067,2.503E-05,-0.5562287,1.284063E-07,NaN,NaN,0.3616619,-1.071038E-10,5.259758E-07,-1.094606E-07,1.267803E-08,-2.622604E-08
934.0698,-0.1602206,4.986167E-09,NaN,-0.6470304,-1.317123E-07,NaN,-0.3226342,-6.095613E-07,NaN,-1.112212,2.503039E-05,-0.5581943,1.289842E-07,NaN,NaN,0.3623133,-1.071038E-10,5.318059E-07,-1.094591E-07,1.379561E-08,-2.622604E-08
934.0855,-0.1601006,4.986757E-09,NaN,-0.6473739,-1.317119E-07,NaN,-0.323556,-6.101267E-07,NaN,-1.113404,2.503078E-05,-0.5601405,1.295507E-07,NaN,NaN,0.3629521,-1.16417E-10,5.384742E-07,-1.094576E-07,1.509947E-08,-2.622604E-08
934.1014,-0.1599722,4.987347E-09,NaN,-0.6477433,-1.317114E-07,NaN,-0.3245361,-6.106781E-07,NaN,-1.11461,2.503117E-05,-0.5620247,1.301033E-07,NaN,NaN,0.3635783,-1.257303E-10,5.446582E-07,-1.094562E-07,1.510878E-08,-2.622604E-08
934.1171,-0.1599722,4.987347E-09,NaN,-0.6477433,-1.317114E-07,NaN,-0.3245361,-6.106781E-07,NaN,-1.11461,2.503117E-05,-0.5620247,1.301033E-07,NaN,NaN,0.3635783,-1.257303E-10,5.446582E-07,-1.094562E-07,1.510878E-08,-2.622604E-08
934.1326,-0.1598038,4.987938E-09,NaN,-0.6482316,-1.31711E-07,NaN,-0.3256716,-6.112159E-07,NaN,-1.116269,2.503155E-05,-0.5646003,1.306422E-07,NaN,NaN,0.364506,-1.257303E-10,5.433171E-07,-1.094547E-07,1.278979E-08,-2.622604E-08
934.149,-0.1596117,4.988529E-09,NaN,-0.6487909,-1.317106E-07,NaN,-0.3269401,-6.117402E-07,NaN,-1.118027,2.503194E-05,-0.56736,1.311676E-07,NaN,NaN,0.3654158,-1.350435E-10,5.512892E-07,-1.094533E-07,1.30133E-08,-2.622604E-08
934.165,-0.159406,4.989119E-09,NaN,-0.6493915,-1.317102E-07,NaN,-0.3283146,-6.122542E-07,NaN,-1.119821,2.503232E-05,-0.5700834,1.316827E-07,NaN,NaN,0.3663079,-1.350435E-10,5.587025E-07,-1.094518E-07,1.356278E-08,-2.622604E-08
934.1808,-0.159193,4.98971E-09,NaN,-0.6500149,-1.317097E-07,NaN,-0.329742,-6.127552E-07,NaN,-1.121619,2.50327E-05,-0.5727286,1.321849E-07,NaN,NaN,0.3671824,-1.350435E-10,5.630984E-07,-1.094504E-07,1.471297E-08,-2.622604E-08
934.1966,-0.159193,4.98971E-09,NaN,-0.6500149,-1.317097E-07,NaN,-0.329742,-6.127552E-07,NaN,-1.121619,2.50327E-05,-0.5727286,1.321849E-07,NaN,NaN,0.3671824,-1.350435E-10,5.630984E-07,-1.094504E-07,1.471297E-08,-2.622604E-08
934.2113,-0.1589409,4.990302E-09,NaN,-0.6507541,-1.317093E-07,NaN,-0.3313259,-6.132435E-07,NaN,-1.12386,2.503309E-05,-0.5760491,1.326743E-07,NaN,NaN,0.3683536,-1.350435E-10,5.625023E-07,-1.094489E-07,1.587712E-08,-2.622604E-08
934.2278,-0.1586663,4.990893E-09,NaN,-0.6515612,-1.317089E-07,NaN,-0.3330387,-6.137193E-07,NaN,-1.12619,2.503348E-05,-0.579536,1.331512E-07,NaN,NaN,0.3695021,-1.443567E-10,5.715175E-07,-1.094475E-07,1.377233E-08,-2.622604E-08
934.2437,-0.1583792,4.991485E-09,NaN,-0.6524066,-1.317085E-07,NaN,-0.334852,-6.132066E-07,NaN,-1.128545,2.503385E-05,-0.5829704,1.326397E-07,NaN,NaN,0.3706281,-1.443567E-10,5.822463E-07,-1.094461E-07,1.401447E-08,-2.622604E-08
934.2594,-0.1583792,4.991485E-09,NaN,-0.6524066,-1.317085E-07,NaN,-0.334852,-6.132066E-07,NaN,-1.128545,2.503385E-05,-0.5829704,1.326397E-07,NaN,NaN,0.3706281,-1.443567E-10,5.822463E-07,-1.094461E-07,1.401447E-08,-2.622604E-08
934.2748,-0.1580502,4.992077E-09,NaN,-0.6533762,-1.31708E-07,NaN,-0.336859,-6.127011E-07,NaN,-1.131349,2.503422E-05,-0.587061,1.321353E-07,NaN,NaN,0.3720458,-1.397001E-10,5.822463E-07,-1.094446E-07,9.506874E-09,-2.622604E-08
934.291,-0.1576973,4.992669E-09,NaN,-0.6544181,-1.317076E-07,NaN,-0.3390097,-6.122026E-07,NaN,-1.134241,2.503459E-05,-0.5912915,1.316379E-07,NaN,NaN,0.373436,-1.397001E-10,5.932732E-07,-1.094432E-07,6.601147E-09,-2.622604E-08
934.3068,-0.1573315,4.99326E-09,NaN,-0.6554996,-1.317072E-07,NaN,-0.341264,-6.117138E-07,NaN,-1.137154,2.503495E-05,-0.595447,1.311502E-07,NaN,NaN,0.374799,-1.397001E-10,6.045981E-07,-1.094418E-07,9.655885E-09,-2.622604E-08
934.3223,-0.1569594,4.993852E-09,NaN,-0.6566007,-1.317068E-07,NaN,-0.3435633,-6.112317E-07,NaN,-1.140056,2.503532E-05,-0.5994912,1.306692E-07,NaN,NaN,0.3761353,-1.397001E-10,6.113036E-07,-1.094404E-07,9.804896E-09,-2.622604E-08
934.3383,-0.1569594,4.993852E-09,NaN,-0.6566007,-1.317068E-07,NaN,-0.3435633,-6.112317E-07,NaN,-1.140056,2.503532E-05,-0.5994912,1.306692E-07,NaN,NaN,0.3761353,-1.397001E-10,6.113036E-07,-1.094404E-07,9.804896E-09,-2.622604E-08
934.3535,-0.1565498,4.994444E-09,NaN,-0.6578135,-1.317063E-07,NaN,-0.3460268,-6.107561E-07,NaN,-1.143379,2.503568E-05,-0.6041787,1.301947E-07,NaN,NaN,0.3777591,-1.397001E-10,6.121977E-07,-1.09439E-07,7.271699E-09,-2.622604E-08
934.3701,-0.1561191,4.995036E-09,NaN,-0.6590894,-1.317059E-07,NaN,-0.3486113,-6.10287E-07,NaN,-1.146775,2.503604E-05,-0.6089973,1.297267E-07,NaN,NaN,0.3793514,-1.397001E-10,6.211384E-07,-1.094376E-07,2.950362E-09,-2.622604E-08
934.3857,-0.1556778,4.995628E-09,NaN,-0.6603985,-1.317055E-07,NaN,-0.3512844,-6.098242E-07,NaN,-1.15018,2.503641E-05,-0.6137329,1.292649E-07,NaN,NaN,0.3809125,-1.397001E-10,6.299301E-07,-1.094362E-07,-2.533873E-10,-2.622604E-08
934.4016,-0.1552319,4.99622E-09,NaN,-0.6617222,-1.317051E-07,NaN,-0.3539923,-6.093703E-07,NaN,-1.153563,2.503677E-05,-0.6183479,1.288122E-07,NaN,NaN,0.382443,-1.397001E-10,6.382747E-07,-1.094348E-07,-3.010102E-09,-2.622604E-08
934.4177,-0.1552319,4.99622E-09,NaN,-0.6617222,-1.317051E-07,NaN,-0.3539923,-6.093703E-07,NaN,-1.153563,2.503677E-05,-0.6183479,1.288122E-07,NaN,NaN,0.382443,-1.397001E-10,6.382747E-07,-1.094348E-07,-3.010102E-09,-2.622604E-08
934.4327,-0.1547496,4.996812E-09,NaN,-0.6631533,-1.317046E-07,NaN,-0.3568695,-6.089225E-07,NaN,-1.157357,2.503714E-05,-0.6235949,1.283655E-07,NaN,NaN,0.3842572,-1.397001E-10,6.41851E-07,-1.094334E-07,9.387053E-10,-2.622604E-08
934.4491,-0.1542476,4.997404E-09,NaN,-0.6646441,-1.317042E-07,NaN,-0.3598628,-6.084805E-07,NaN,-1.161215,2.50375E-05,-0.6289576,1.279247E-07,NaN,NaN,0.3860362,-1.397001E-10,6.549641E-07,-1.094321E-07,5.661763E-10,-2.622604E-08
934.466,-0.1537359,4.997996E-09,NaN,-0.6661648,-1.317038E-07,NaN,-0.3629374,-6.080444E-07,NaN,-1.165074,2.503786E-05,-0.6342242,1.274896E-07,NaN,NaN,0.3877803,-1.397001E-10,6.65991E-07,-1.094307E-07,1.609258E-09,-2.622604E-08
934.4803,-0.1532207,4.998589E-09,NaN,-0.6676971,-1.317034E-07,NaN,-0.36604,-6.076167E-07,NaN,-1.168905,2.503823E-05,-0.6393592,1.27063E-07,NaN,NaN,0.3894902,-1.397001E-10,6.753787E-07,-1.094293E-07,3.844431E-09,-2.622604E-08
934.4977,-0.1532207,4.998589E-09,NaN,-0.6676971,-1.317034E-07,NaN,-0.36604,-6.076167E-07,NaN,-1.168905,2.503823E-05,-0.6393592,1.27063E-07,NaN,NaN,0.3894902,-1.397001E-10,6.753787E-07,-1.094293E-07,3.844431E-09,-2.622604E-08
934.5137,-0.15267,4.999181E-09,NaN,-0.6693341,-1.31703E-07,NaN,-0.3693194,-6.071945E-07,NaN,-1.173136,2.503859E-05,-0.6451143,1.266419E-07,NaN,NaN,0.3914804,-1.397001E-10,6.761238E-07,-1.094279E-07,8.761814E-09,-2.622604E-08
934.5273,-0.1521003,4.999773E-09,NaN,-0.6710281,-1.317026E-07,NaN,-0.3727101,-6.067776E-07,NaN,-1.177426,2.503895E-05,-0.6509691,1.262262E-07,NaN,NaN,0.3934318,-1.397001E-10,6.890878E-07,-1.094266E-07,9.953907E-09,-2.622604E-08
934.5441,-0.1515218,5.000366E-09,NaN,-0.6727495,-1.317022E-07,NaN,-0.3761745,-6.063689E-07,NaN,-1.18171,2.503932E-05,-0.6567158,1.258186E-07,NaN,NaN,0.395345,-1.397001E-10,6.987735E-07,-1.094252E-07,1.457327E-08,-2.622604E-08
934.5592,-0.1515218,5.000366E-09,NaN,-0.6727495,-1.317022E-07,NaN,-0.3761745,-6.063689E-07,NaN,-1.18171,2.503932E-05,-0.6567158,1.258186E-07,NaN,NaN,0.395345,-1.397001E-10,6.987735E-07,-1.094252E-07,1.457327E-08,-2.622604E-08
934.5741,-0.1509407,5.000958E-09,NaN,-0.67448,-1.317018E-07,NaN,-0.3796597,-6.059653E-07,NaN,-1.185959,2.503968E-05,-0.6623206,1.254161E-07,NaN,NaN,0.3972206,-1.397001E-10,7.081613E-07,-1.094239E-07,1.531832E-08,-2.622604E-08
934.5901,-0.1503247,5.001551E-09,NaN,-0.6763128,-1.317013E-07,NaN,-0.3833302,-6.055667E-07,NaN,-1.190599,2.504005E-05,-0.6685342,1.250186E-07,NaN,NaN,0.3993733,-1.397001E-10,7.105455E-07,-1.094225E-07,1.099699E-08,-2.622604E-08
934.6067,-0.1496906,5.002143E-09,NaN,-0.6782002,-1.317009E-07,NaN,-0.3871067,-6.05173E-07,NaN,-1.195291,2.504041E-05,-0.674832,1.24626E-07,NaN,NaN,0.401484,-1.397001E-10,7.229135E-07,-1.094212E-07,1.1146E-08,-2.622604E-08
934.6221,-0.1490484,5.002736E-09,NaN,-0.6801125,-1.317005E-07,NaN,-0.3909487,-6.04787E-07,NaN,-1.199972,2.504077E-05,-0.6810105,1.242411E-07,NaN,NaN,0.4035534,-1.397001E-10,7.320032E-07,-1.094199E-07,1.144402E-08,-2.622604E-08
934.6385,-0.1490484,5.002736E-09,NaN,-0.6801125,-1.317005E-07,NaN,-0.3909487,-6.04787E-07,NaN,-1.199972,2.504077E-05,-0.6810105,1.242411E-07,NaN,NaN,0.4035534,-1.397001E-10,7.320032E-07,-1.094199E-07,1.144402E-08,-2.622604E-08
934.6533,-0.1484044,5.003328E-09,NaN,-0.6820316,-1.317001E-07,NaN,-0.3948038,-6.044056E-07,NaN,-1.204612,2.504114E-05,-0.6870381,1.238608E-07,NaN,NaN,0.4055822,-1.397001E-10,7.410929E-07,-1.094185E-07,1.323216E-08,-2.622604E-08
934.6697,-0.1477262,5.00392E-09,NaN,-0.6840508,-1.316997E-07,NaN,-0.3988538,-6.040288E-07,NaN,-1.209634,2.50415E-05,-0.6936635,1.234851E-07,NaN,NaN,0.4078849,-1.397001E-10,7.42583E-07,-1.094172E-07,1.531832E-08,-2.622604E-08
934.6854,-0.1470306,5.004513E-09,NaN,-0.6861222,-1.316993E-07,NaN,-0.403004,-6.036565E-07,NaN,-1.214703,2.504187E-05,-0.700358,1.231139E-07,NaN,NaN,0.4101428,-1.397001E-10,7.525667E-07,-1.094159E-07,1.561635E-08,-2.622604E-08
934.7014,-0.1463278,5.005105E-09,NaN,-0.6882163,-1.316989E-07,NaN,-0.4072107,-6.032914E-07,NaN,-1.219756,2.504223E-05,-0.706923,1.2275E-07,NaN,NaN,0.4123565,-1.397001E-10,7.607624E-07,-1.094146E-07,1.591437E-08,-2.622604E-08
934.7172,-0.1463278,5.005105E-09,NaN,-0.6882163,-1.316989E-07,NaN,-0.4072107,-6.032914E-07,NaN,-1.219756,2.504223E-05,-0.706923,1.2275E-07,NaN,NaN,0.4123565,-1.397001E-10,7.607624E-07,-1.094146E-07,1.591437E-08,-2.622604E-08
934.7324,-0.1456238,5.005698E-09,NaN,-0.690315,-1.316985E-07,NaN,-0.4114227,-6.029306E-07,NaN,-1.224761,2.504259E-05,-0.7133292,1.223903E-07,NaN,NaN,0.4145267,-1.397001E-10,7.682129E-07,-1.094133E-07,1.710646E-08,-2.622604E-08
934.7488,-0.1448862,5.00629E-09,NaN,-0.6925116,-1.316981E-07,NaN,-0.4158398,-6.02574E-07,NaN,-1.230141,2.504296E-05,-0.7203225,1.220348E-07,NaN,NaN,0.4169682,-1.397001E-10,7.679149E-07,-1.094119E-07,1.531832E-08,-2.622604E-08
934.7646,-0.1441319,5.006881E-09,NaN,-0.6947582,-1.316977E-07,NaN,-0.4203507,-6.028491E-07,NaN,-1.235563,2.504333E-05,-0.7273702,1.22311E-07,NaN,NaN,0.419362,-1.490134E-10,7.807299E-07,-1.094106E-07,1.412623E-08,-2.861022E-08
934.7802,-0.1433711,5.007472E-09,NaN,-0.6970255,-1.316973E-07,NaN,-0.4249089,-6.031158E-07,NaN,-1.240965,2.50437E-05,-0.7342793,1.225788E-07,NaN,NaN,0.421709,-1.5367E-10,7.914588E-07,-1.094093E-07,1.263612E-08,-2.622604E-08
934.796,-0.1433711,5.007472E-09,NaN,-0.6970255,-1.316973E-07,NaN,-0.4249089,-6.031158E-07,NaN,-1.240965,2.50437E-05,-0.7342793,1.225788E-07,NaN,NaN,0.421709,-1.5367E-10,7.914588E-07,-1.094093E-07,1.263612E-08,-2.622604E-08
934.8108,-0.1426098,5.008065E-09,NaN,-0.6992952,-1.316969E-07,NaN,-0.429464,-6.027526E-07,NaN,-1.246313,2.504406E-05,-0.7410228,1.222166E-07,NaN,NaN,0.4240099,-1.5367E-10,7.992074E-07,-1.094081E-07,1.144402E-08,-2.622604E-08
934.8272,-0.1418156,5.008656E-09,NaN,-0.7016606,-1.316965E-07,NaN,-0.4342353,-6.030183E-07,NaN,-1.252027,2.504443E-05,-0.7483425,1.224835E-07,NaN,NaN,0.4265795,-1.629832E-10,8.018896E-07,-1.094068E-07,1.382821E-08,-2.861022E-08
