JMolnar6/NonAnthroHands_User_Study/HandsLoggerWithURDF/tempdata/files/Reachy_PID0_JointMotion_gesture_12_59.csv
Time,r_shoulder,r_shoulder_x,r_upper_arm,r_forearm,r_wrist,r_wrist2hand,
824.4967,-0.6443028,1.131822E-09,NaN,-0.6340132,-1.324054E-07,NaN,0.1233016,-5.011684E-07,NaN,-0.6474785,2.269858E-05,0.07859037,9.47929E-08,NaN,NaN,0.1333086,-1.909222E-10,-1.754214E-06,-1.102019E-07,-3.903615E-09,-2.861022E-08
824.5106,-0.6405007,1.132481E-09,NaN,-0.6307617,-1.324049E-07,NaN,0.1228856,-5.016718E-07,NaN,-0.6462261,2.269897E-05,0.0796528,9.529749E-08,NaN,NaN,0.1336931,-1.862656E-10,-1.744677E-06,-1.102014E-07,-1.519429E-09,-2.622604E-08
824.5269,-0.6365167,1.133139E-09,NaN,-0.6273463,-1.324045E-07,NaN,0.1219508,-5.021623E-07,NaN,-0.6447306,2.269935E-05,0.08135655,9.578934E-08,NaN,NaN,0.1337886,-1.81609E-10,-1.737525E-06,-1.102009E-07,-9.23383E-10,-2.861022E-08
824.5408,-0.6324461,1.133797E-09,NaN,-0.6238491,-1.324041E-07,NaN,0.1209419,-5.026432E-07,NaN,-0.6432256,2.269973E-05,0.08326766,9.627151E-08,NaN,NaN,0.1338823,-1.722957E-10,-1.736333E-06,-1.102004E-07,1.460803E-09,-2.622604E-08
824.5558,-0.6324461,1.133797E-09,NaN,-0.6238491,-1.324041E-07,NaN,0.1209419,-5.026432E-07,NaN,-0.6432256,2.269973E-05,0.08326766,9.627151E-08,NaN,NaN,0.1338823,-1.722957E-10,-1.736333E-06,-1.102004E-07,1.460803E-09,-2.622604E-08
824.5698,-0.6283446,1.134455E-09,NaN,-0.6203192,-1.324037E-07,NaN,0.1200085,-5.031146E-07,NaN,-0.6417108,2.270012E-05,0.08519354,9.674419E-08,NaN,NaN,0.1339743,-1.676391E-10,-1.733948E-06,-1.101999E-07,2.687098E-10,-2.861022E-08
824.5849,-0.6242451,1.135113E-09,NaN,-0.6167856,-1.324033E-07,NaN,0.1191781,-5.035768E-07,NaN,-0.6401926,2.270051E-05,0.08706924,9.720756E-08,NaN,NaN,0.1340645,-1.629825E-10,-1.732756E-06,-1.101994E-07,1.460803E-09,-2.622604E-08
824.6006,-0.6203926,1.135771E-09,NaN,-0.6134654,-1.324029E-07,NaN,0.118986,-5.04027E-07,NaN,-0.6389324,2.270089E-05,0.08820714,9.765899E-08,NaN,NaN,0.1344344,-1.536693E-10,-1.731564E-06,-1.101989E-07,1.460803E-09,-2.861022E-08
824.6143,-0.6203926,1.135771E-09,NaN,-0.6134654,-1.324029E-07,NaN,0.118986,-5.04027E-07,NaN,-0.6389324,2.270089E-05,0.08820714,9.765899E-08,NaN,NaN,0.1344344,-1.536693E-10,-1.731564E-06,-1.101989E-07,1.460803E-09,-2.861022E-08
824.6282,-0.6167032,1.136429E-09,NaN,-0.6102859,-1.324025E-07,NaN,0.1189677,-5.044682E-07,NaN,-0.6377023,2.270127E-05,0.08904396,9.810153E-08,NaN,NaN,0.1347969,-1.490127E-10,-1.72322E-06,-1.101984E-07,2.056849E-09,-2.622604E-08
824.6436,-0.6131272,1.137087E-09,NaN,-0.6072041,-1.324021E-07,NaN,0.1189575,-5.049008E-07,NaN,-0.636506,2.270166E-05,0.08977749,9.853536E-08,NaN,NaN,0.1351523,-1.490127E-10,-1.712491E-06,-1.101979E-07,3.844988E-09,-2.861022E-08
824.6581,-0.6131272,1.137087E-09,NaN,-0.6072041,-1.324021E-07,NaN,0.1189575,-5.049008E-07,NaN,-0.636506,2.270166E-05,0.08977749,9.853536E-08,NaN,NaN,0.1351523,-1.490127E-10,-1.712491E-06,-1.101979E-07,3.844988E-09,-2.861022E-08
824.6722,-0.6098602,1.137744E-09,NaN,-0.6043938,-1.324017E-07,NaN,0.1194618,-5.05322E-07,NaN,-0.6355937,2.270205E-05,0.08980713,9.895783E-08,NaN,NaN,0.1357822,-1.443561E-10,-1.699378E-06,-1.101974E-07,4.441035E-09,-2.622604E-08
824.6875,-0.6067911,1.138402E-09,NaN,-0.6017575,-1.324013E-07,NaN,0.1200356,-5.057349E-07,NaN,-0.6347272,2.270244E-05,0.08958895,9.937197E-08,NaN,NaN,0.1363995,-1.443561E-10,-1.682688E-06,-1.101969E-07,3.844988E-09,-2.861022E-08
824.7021,-0.6038536,1.13906E-09,NaN,-0.5992368,-1.324009E-07,NaN,0.1205413,-5.061397E-07,NaN,-0.6339023,2.270283E-05,0.08931707,9.977797E-08,NaN,NaN,0.1370048,-1.396995E-10,-1.663019E-06,-1.101964E-07,3.844988E-09,-2.622604E-08
824.717,-0.6038536,1.13906E-09,NaN,-0.5992368,-1.324009E-07,NaN,0.1205413,-5.061397E-07,NaN,-0.6339023,2.270283E-05,0.08931707,9.977797E-08,NaN,NaN,0.1370048,-1.396995E-10,-1.663019E-06,-1.101964E-07,3.844988E-09,-2.622604E-08
824.7308,-0.6010083,1.139717E-09,NaN,-0.5967965,-1.324005E-07,NaN,0.1209616,-5.065364E-07,NaN,-0.6331093,2.270322E-05,0.08905438,1.00176E-07,NaN,NaN,0.1375981,-1.396995E-10,-1.645734E-06,-1.101959E-07,3.844988E-09,-2.861022E-08
824.7465,-0.5984553,1.140374E-09,NaN,-0.594615,-1.324001E-07,NaN,0.1218598,-5.069224E-07,NaN,-0.6325943,2.27036E-05,0.08814351,1.005633E-07,NaN,NaN,0.1384614,-1.350429E-10,-1.633217E-06,-1.101955E-07,5.037081E-09,-2.622604E-08
824.761,-0.5960884,1.141032E-09,NaN,-0.5925986,-1.323997E-07,NaN,0.1228129,-5.073009E-07,NaN,-0.6321174,2.270399E-05,0.0870152,1.00943E-07,NaN,NaN,0.1393076,-1.303863E-10,-1.614143E-06,-1.10195E-07,5.633127E-09,-2.861022E-08
824.7775,-0.5960884,1.141032E-09,NaN,-0.5925986,-1.323997E-07,NaN,0.1228129,-5.073009E-07,NaN,-0.6321174,2.270399E-05,0.0870152,1.00943E-07,NaN,NaN,0.1393076,-1.303863E-10,-1.614143E-06,-1.10195E-07,5.633127E-09,-2.861022E-08
824.7898,-0.5938439,1.141689E-09,NaN,-0.5906904,-1.323993E-07,NaN,0.1236896,-5.076719E-07,NaN,-0.6316742,2.270437E-05,0.08585377,1.013152E-07,NaN,NaN,0.1401372,-1.257296E-10,-1.596262E-06,-1.101945E-07,8.613359E-09,-2.622604E-08
824.8052,-0.5916833,1.142346E-09,NaN,-0.5888559,-1.323989E-07,NaN,0.1244728,-5.080355E-07,NaN,-0.6312559,2.270476E-05,0.08471896,1.016801E-07,NaN,NaN,0.1409505,-1.21073E-10,-1.576592E-06,-1.10194E-07,1.04015E-08,-2.861022E-08
824.8201,-0.5898064,1.143003E-09,NaN,-0.587274,-1.323985E-07,NaN,0.1257228,-5.083891E-07,NaN,-0.6311091,2.270515E-05,0.08295415,1.02035E-07,NaN,NaN,0.1420294,-1.164164E-10,-1.55275E-06,-1.101935E-07,1.099755E-08,-2.622604E-08
824.8348,-0.5898064,1.143003E-09,NaN,-0.587274,-1.323985E-07,NaN,0.1257228,-5.083891E-07,NaN,-0.6311091,2.270515E-05,0.08295415,1.02035E-07,NaN,NaN,0.1420294,-1.164164E-10,-1.55275E-06,-1.101935E-07,1.099755E-08,-2.622604E-08
824.8488,-0.5881088,1.14366E-09,NaN,-0.5858516,-1.323981E-07,NaN,0.1270184,-5.087358E-07,NaN,-0.6309933,2.270553E-05,0.08098757,1.023829E-07,NaN,NaN,0.143087,-1.117598E-10,-1.527716E-06,-1.101931E-07,7.421266E-09,-2.861022E-08
824.8651,-0.5865272,1.144317E-09,NaN,-0.5845323,-1.323977E-07,NaN,0.1282275,-5.090755E-07,NaN,-0.6309049,2.270592E-05,0.0790034,1.027239E-07,NaN,NaN,0.1441238,-1.071032E-10,-1.503279E-06,-1.101926E-07,6.229174E-09,-2.622604E-08
824.8787,-0.5865272,1.144317E-09,NaN,-0.5845323,-1.323977E-07,NaN,0.1282275,-5.090755E-07,NaN,-0.6309049,2.270592E-05,0.0790034,1.027239E-07,NaN,NaN,0.1441238,-1.071032E-10,-1.503279E-06,-1.101926E-07,6.229174E-09,-2.622604E-08
824.8928,-0.5852458,1.144974E-09,NaN,-0.5834813,-1.323973E-07,NaN,0.1298731,-5.094086E-07,NaN,-0.6310902,2.27063E-05,0.07639419,1.030583E-07,NaN,NaN,0.1454218,-1.024466E-10,-1.478841E-06,-1.101921E-07,6.229174E-09,-2.861022E-08
824.9081,-0.584152,1.14563E-09,NaN,-0.5825979,-1.323971E-07,NaN,0.1315321,-5.096109E-07,NaN,-0.6313065,2.270669E-05,0.07360138,1.032618E-07,NaN,NaN,0.1466942,-9.778997E-11,-1.449038E-06,-1.101912E-07,3.248942E-09,-2.622604E-08
824.9225,-0.5831772,1.146287E-09,NaN,-0.5818207,-1.323969E-07,NaN,0.1330758,-5.098261E-07,NaN,-0.6315483,2.270707E-05,0.07081278,1.034783E-07,NaN,NaN,0.1479417,-9.313336E-11,-1.422216E-06,-1.101902E-07,2.056849E-09,-2.861022E-08
824.9373,-0.5831772,1.146287E-09,NaN,-0.5818207,-1.323969E-07,NaN,0.1330758,-5.098261E-07,NaN,-0.6315483,2.270707E-05,0.07081278,1.034783E-07,NaN,NaN,0.1479417,-9.313336E-11,-1.422216E-06,-1.101902E-07,2.056849E-09,-2.861022E-08
824.9512,-0.5822792,1.146944E-09,NaN,-0.5811118,-1.323967E-07,NaN,0.1344917,-5.100455E-07,NaN,-0.631806,2.270746E-05,0.06808802,1.03699E-07,NaN,NaN,0.1491647,-8.847674E-11,-1.39301E-06,-1.101892E-07,8.647558E-10,-2.622604E-08
824.9667,-0.5816547,1.1476E-09,NaN,-0.5806475,-1.323965E-07,NaN,0.1363364,-5.102634E-07,NaN,-0.6323267,2.270785E-05,0.06477369,1.039181E-07,NaN,NaN,0.1506453,-8.382012E-11,-1.369168E-06,-1.101882E-07,7.421267E-09,-2.861022E-08
824.9814,-0.5811998,1.148256E-09,NaN,-0.5803349,-1.323962E-07,NaN,0.1382007,-5.104769E-07,NaN,-0.6328678,2.270823E-05,0.06128954,1.041329E-07,NaN,NaN,0.1520967,-7.916351E-11,-1.336386E-06,-1.101872E-07,7.421267E-09,-2.622604E-08
824.9958,-0.5811998,1.148256E-09,NaN,-0.5803349,-1.323962E-07,NaN,0.1382007,-5.104769E-07,NaN,-0.6328678,2.270823E-05,0.06128954,1.041329E-07,NaN,NaN,0.1520967,-7.916351E-11,-1.336386E-06,-1.101872E-07,7.421267E-09,-2.622604E-08
825.0101,-0.5808507,1.148913E-09,NaN,-0.5801168,-1.32396E-07,NaN,0.1399538,-5.106862E-07,NaN,-0.6334257,2.270862E-05,0.05781892,1.043434E-07,NaN,NaN,0.1535196,-7.916351E-11,-1.305391E-06,-1.101862E-07,8.017313E-09,-2.861022E-08
825.0255,-0.5805679,1.149569E-09,NaN,-0.5799577,-1.323957E-07,NaN,0.1415791,-5.108913E-07,NaN,-0.6339921,2.270901E-05,0.05442148,1.045498E-07,NaN,NaN,0.1549146,-7.916351E-11,-1.275589E-06,-1.101853E-07,9.209406E-09,-2.622604E-08
825.0402,-0.5805496,1.150225E-09,NaN,-0.5800342,-1.323955E-07,NaN,0.1436235,-5.110923E-07,NaN,-0.6348159,2.27094E-05,0.05044942,1.047521E-07,NaN,NaN,0.1565638,-7.450689E-11,-1.245787E-06,-1.101843E-07,9.209406E-09,-2.861022E-08
825.0549,-0.5805496,1.150225E-09,NaN,-0.5800342,-1.323955E-07,NaN,0.1436235,-5.110923E-07,NaN,-0.6348159,2.27094E-05,0.05044942,1.047521E-07,NaN,NaN,0.1565638,-7.450689E-11,-1.245787E-06,-1.101843E-07,9.209406E-09,-2.861022E-08
825.069,-0.5806928,1.150882E-09,NaN,-0.5802556,-1.323952E-07,NaN,0.1456822,-5.112893E-07,NaN,-0.6356546,2.270978E-05,0.04631706,1.049504E-07,NaN,NaN,0.1581806,-6.985028E-11,-1.2136E-06,-1.101833E-07,6.82522E-09,-2.622604E-08
825.0844,-0.5809346,1.151538E-09,NaN,-0.5805653,-1.32395E-07,NaN,0.1476227,-5.114796E-07,NaN,-0.6365046,2.271017E-05,0.04220922,1.051419E-07,NaN,NaN,0.1597657,-6.519366E-11,-1.180817E-06,-1.101823E-07,1.099755E-08,-2.861022E-08
825.0992,-0.5809346,1.151538E-09,NaN,-0.5805653,-1.32395E-07,NaN,0.1476227,-5.114796E-07,NaN,-0.6365046,2.271017E-05,0.04220922,1.051419E-07,NaN,NaN,0.1597657,-6.519366E-11,-1.180817E-06,-1.101823E-07,1.099755E-08,-2.861022E-08
825.1131,-0.5814583,1.152194E-09,NaN,-0.5811275,-1.323947E-07,NaN,0.1499528,-5.116661E-07,NaN,-0.637615,2.271056E-05,0.03752835,1.053297E-07,NaN,NaN,0.1616012,-6.053705E-11,-1.146843E-06,-1.101813E-07,1.338173E-08,-2.622604E-08
825.1294,-0.5821521,1.15285E-09,NaN,-0.5818419,-1.323945E-07,NaN,0.1522657,-5.118461E-07,NaN,-0.6387407,2.271095E-05,0.03270306,1.055109E-07,NaN,NaN,0.1634007,-6.053705E-11,-1.109292E-06,-1.101803E-07,1.278568E-08,-2.861022E-08
825.1431,-0.5829469,1.153506E-09,NaN,-0.5826464,-1.323942E-07,NaN,0.1544323,-5.120225E-07,NaN,-0.639877,2.271134E-05,0.02792271,1.056885E-07,NaN,NaN,0.1651649,-6.053705E-11,-1.068761E-06,-1.101794E-07,1.159359E-08,-2.622604E-08
825.1578,-0.5829469,1.153506E-09,NaN,-0.5826464,-1.323942E-07,NaN,0.1544323,-5.120225E-07,NaN,-0.639877,2.271134E-05,0.02792271,1.056885E-07,NaN,NaN,0.1651649,-6.053705E-11,-1.068761E-06,-1.101794E-07,1.159359E-08,-2.622604E-08
825.1718,-0.5837996,1.154162E-09,NaN,-0.5835021,-1.32394E-07,NaN,0.1564402,-5.121925E-07,NaN,-0.6410154,2.271173E-05,0.02324756,1.058598E-07,NaN,NaN,0.1668945,-6.053705E-11,-1.031806E-06,-1.101784E-07,1.636196E-08,-2.861022E-08
825.1873,-0.5849067,1.154818E-09,NaN,-0.584585,-1.323937E-07,NaN,0.1588286,-5.123591E-07,NaN,-0.6424055,2.271212E-05,0.0180348,1.060277E-07,NaN,NaN,0.1688718,-6.053705E-11,-9.930628E-07,-1.101774E-07,1.81501E-08,-2.622604E-08
825.2018,-0.5861638,1.155474E-09,NaN,-0.5858014,-1.323935E-07,NaN,0.1612072,-5.125196E-07,NaN,-0.6438027,2.271251E-05,0.01268956,1.061894E-07,NaN,NaN,0.1708102,-6.053705E-11,-9.531277E-07,-1.101765E-07,1.81501E-08,-2.861022E-08
825.2163,-0.5861638,1.155474E-09,NaN,-0.5858014,-1.323935E-07,NaN,0.1612072,-5.125196E-07,NaN,-0.6438027,2.271251E-05,0.01268956,1.061894E-07,NaN,NaN,0.1708102,-6.053705E-11,-9.531277E-07,-1.101765E-07,1.81501E-08,-2.861022E-08
825.2303,-0.5875064,1.156129E-09,NaN,-0.5870934,-1.323932E-07,NaN,0.1634452,-5.126769E-07,NaN,-0.6452034,2.27129E-05,0.007396508,1.063479E-07,NaN,NaN,0.1727106,-5.588044E-11,-9.131926E-07,-1.101755E-07,1.93422E-08,-2.622604E-08
825.2457,-0.5888948,1.156785E-09,NaN,-0.5884255,-1.32393E-07,NaN,0.1655272,-5.128282E-07,NaN,-0.6466001,2.271328E-05,0.002215336,1.065005E-07,NaN,NaN,0.1745738,-5.122382E-11,-8.756417E-07,-1.101745E-07,2.351452E-08,-2.861022E-08
825.2618,-0.5905282,1.157441E-09,NaN,-0.5899757,-1.323927E-07,NaN,0.1679808,-5.129765E-07,NaN,-0.6482443,2.271367E-05,-0.003491089,1.0665E-07,NaN,NaN,0.176682,-5.122382E-11,-8.374947E-07,-1.101736E-07,2.351452E-08,-2.622604E-08
825.2752,-0.5905282,1.157441E-09,NaN,-0.5899757,-1.323927E-07,NaN,0.1679808,-5.129765E-07,NaN,-0.6482443,2.271367E-05,-0.003491089,1.0665E-07,NaN,NaN,0.176682,-5.122382E-11,-8.374947E-07,-1.101736E-07,2.351452E-08,-2.622604E-08
825.2894,-0.5923028,1.158097E-09,NaN,-0.5916508,-1.323925E-07,NaN,0.1704214,-5.131218E-07,NaN,-0.6498908,2.271406E-05,-0.009323007,1.067966E-07,NaN,NaN,0.1787489,-5.122382E-11,-7.951754E-07,-1.101726E-07,2.649475E-08,-2.861022E-08
825.3046,-0.5941548,1.158753E-09,NaN,-0.593394,-1.323921E-07,NaN,0.172717,-5.138324E-07,NaN,-0.6515365,2.271446E-05,-0.01509428,1.075085E-07,NaN,NaN,0.1807753,-5.122382E-11,-7.540482E-07,-1.101721E-07,2.411057E-08,-2.622604E-08
825.3194,-0.5941548,1.158753E-09,NaN,-0.593394,-1.323921E-07,NaN,0.172717,-5.138324E-07,NaN,-0.6515365,2.271446E-05,-0.01509428,1.075085E-07,NaN,NaN,0.1807753,-5.122382E-11,-7.540482E-07,-1.101721E-07,2.411057E-08,-2.622604E-08
825.3335,-0.596269,1.159409E-09,NaN,-0.59537,-1.323917E-07,NaN,0.1753537,-5.145149E-07,NaN,-0.6534331,2.271485E-05,-0.02138916,1.081922E-07,NaN,NaN,0.1830434,-5.588044E-11,-7.141131E-07,-1.101715E-07,3.126312E-08,-2.861022E-08
825.3491,-0.598532,1.160065E-09,NaN,-0.5974773,-1.323913E-07,NaN,0.177948,-5.151783E-07,NaN,-0.6553335,2.271525E-05,-0.02779634,1.088569E-07,NaN,NaN,0.1852671,-6.053705E-11,-6.735819E-07,-1.10171E-07,3.364731E-08,-2.622604E-08
825.3637,-0.6008745,1.160721E-09,NaN,-0.5996538,-1.323909E-07,NaN,0.1803719,-5.15823E-07,NaN,-0.6572329,2.271565E-05,-0.03412524,1.095029E-07,NaN,NaN,0.1874473,-6.519366E-11,-6.288784E-07,-1.101705E-07,3.185917E-08,-2.861022E-08
825.3785,-0.6008745,1.160721E-09,NaN,-0.5996538,-1.323909E-07,NaN,0.1803719,-5.15823E-07,NaN,-0.6572329,2.271565E-05,-0.03412524,1.095029E-07,NaN,NaN,0.1874473,-6.519366E-11,-6.288784E-07,-1.101705E-07,3.185917E-08,-2.861022E-08
825.3943,-0.6032543,1.161377E-09,NaN,-0.6018621,-1.323906E-07,NaN,0.1826148,-5.164522E-07,NaN,-0.6591229,2.271604E-05,-0.04031585,1.101334E-07,NaN,NaN,0.1895847,-6.985028E-11,-5.865591E-07,-1.1017E-07,3.424336E-08,-2.622604E-08
825.4078,-0.6058705,1.162033E-09,NaN,-0.6042792,-1.323902E-07,NaN,0.185192,-5.170662E-07,NaN,-0.6612561,2.271644E-05,-0.04699656,1.107486E-07,NaN,NaN,0.1919617,-7.450689E-11,-5.525845E-07,-1.101695E-07,3.126313E-08,-2.861022E-08
825.4224,-0.6086169,1.162689E-09,NaN,-0.6068103,-1.323899E-07,NaN,0.1877384,-5.176681E-07,NaN,-0.6633854,2.271683E-05,-0.05378167,1.113517E-07,NaN,NaN,0.1942922,-7.916351E-11,-5.07881E-07,-1.10169E-07,3.126313E-08,-2.622604E-08
825.4371,-0.6086169,1.162689E-09,NaN,-0.6068103,-1.323899E-07,NaN,0.1877384,-5.176681E-07,NaN,-0.6633854,2.271683E-05,-0.05378167,1.113517E-07,NaN,NaN,0.1942922,-7.916351E-11,-5.07881E-07,-1.10169E-07,3.126313E-08,-2.622604E-08
825.4514,-0.611429,1.163345E-09,NaN,-0.6093979,-1.323895E-07,NaN,0.190124,-5.182553E-07,NaN,-0.6655071,2.271723E-05,-0.06048475,1.119402E-07,NaN,NaN,0.196577,-8.382012E-11,-4.661578E-07,-1.101685E-07,3.424336E-08,-2.861022E-08
825.4664,-0.6142679,1.164001E-09,NaN,-0.6120074,-1.323892E-07,NaN,0.1923347,-5.188309E-07,NaN,-0.667614,2.271762E-05,-0.0670459,1.12517E-07,NaN,NaN,0.1988171,-7.916351E-11,-4.238385E-07,-1.10168E-07,3.543545E-08,-2.622604E-08
825.4811,-0.6173357,1.164657E-09,NaN,-0.614818,-1.323888E-07,NaN,0.1948717,-5.193951E-07,NaN,-0.6699604,2.271801E-05,-0.07408618,1.130825E-07,NaN,NaN,0.2012947,-8.382012E-11,-3.874796E-07,-1.101675E-07,3.483941E-08,-2.861022E-08
825.4955,-0.6173357,1.164657E-09,NaN,-0.614818,-1.323888E-07,NaN,0.1948717,-5.193951E-07,NaN,-0.6699604,2.271801E-05,-0.07408618,1.130825E-07,NaN,NaN,0.2012947,-8.382012E-11,-3.874796E-07,-1.101675E-07,3.483941E-08,-2.861022E-08
825.5096,-0.6205263,1.165313E-09,NaN,-0.6177354,-1.323885E-07,NaN,0.1973781,-5.199483E-07,NaN,-0.672299,2.271841E-05,-0.08122697,1.136369E-07,NaN,NaN,0.2037239,-8.847674E-11,-3.451603E-07,-1.10167E-07,3.543545E-08,-2.622604E-08
825.5251,-0.623776,1.165968E-09,NaN,-0.620703,-1.323882E-07,NaN,0.1997223,-5.204877E-07,NaN,-0.6746262,2.271881E-05,-0.08828008,1.141776E-07,NaN,NaN,0.2061054,-9.313336E-11,-3.016489E-07,-1.101665E-07,4.020382E-08,-2.861022E-08
825.5397,-0.623776,1.165968E-09,NaN,-0.620703,-1.323882E-07,NaN,0.1997223,-5.204877E-07,NaN,-0.6746262,2.271881E-05,-0.08828008,1.141776E-07,NaN,NaN,0.2061054,-9.313336E-11,-3.016489E-07,-1.101665E-07,4.020382E-08,-2.861022E-08
825.554,-0.6272725,1.166624E-09,NaN,-0.6238865,-1.323878E-07,NaN,0.2023624,-5.210164E-07,NaN,-0.6771965,2.27192E-05,-0.09581178,1.147076E-07,NaN,NaN,0.2087218,-9.778997E-11,-2.611178E-07,-1.10166E-07,3.960778E-08,-2.622604E-08
825.5696,-0.6309,1.16728E-09,NaN,-0.6271833,-1.323875E-07,NaN,0.2049448,-5.215348E-07,NaN,-0.6797608,2.27196E-05,-0.1034328,1.152272E-07,NaN,NaN,0.211287,-1.024466E-10,-2.12838E-07,-1.101656E-07,3.901173E-08,-2.861022E-08
825.5842,-0.6345889,1.167936E-09,NaN,-0.6305319,-1.323871E-07,NaN,0.2073422,-5.220429E-07,NaN,-0.682314,2.272E-05,-0.1109505,1.157366E-07,NaN,NaN,0.2138019,-1.071032E-10,-1.687306E-07,-1.101651E-07,3.722359E-08,-2.622604E-08
825.5988,-0.6345889,1.167936E-09,NaN,-0.6305319,-1.323871E-07,NaN,0.2073422,-5.220429E-07,NaN,-0.682314,2.272E-05,-0.1109505,1.157366E-07,NaN,NaN,0.2138019,-1.071032E-10,-1.687306E-07,-1.101651E-07,3.722359E-08,-2.622604E-08
825.6128,-0.6382979,1.168592E-09,NaN,-0.6338957,-1.323868E-07,NaN,0.2095457,-5.225382E-07,NaN,-0.6848484,2.272039E-05,-0.1183042,1.162331E-07,NaN,NaN,0.2162675,-1.117598E-10,-1.252192E-07,-1.101646E-07,4.079987E-08,-2.861022E-08
825.6285,-0.6422297,1.169247E-09,NaN,-0.6374529,-1.323865E-07,NaN,0.2120406,-5.230237E-07,NaN,-0.6876187,2.272079E-05,-0.126104,1.167198E-07,NaN,NaN,0.2189663,-1.164164E-10,-8.647617E-08,-1.101641E-07,4.079987E-08,-2.622604E-08
825.6431,-0.6462754,1.169903E-09,NaN,-0.6411075,-1.323861E-07,NaN,0.2144931,-5.234996E-07,NaN,-0.6903763,2.272119E-05,-0.1339879,1.17197E-07,NaN,NaN,0.2216123,-1.21073E-10,-4.236873E-08,-1.101636E-07,4.437615E-08,-2.861022E-08
825.6585,-0.6462754,1.169903E-09,NaN,-0.6411075,-1.323861E-07,NaN,0.2144931,-5.234996E-07,NaN,-0.6903763,2.272119E-05,-0.1339879,1.17197E-07,NaN,NaN,0.2216123,-1.21073E-10,-4.236873E-08,-1.101636E-07,4.437615E-08,-2.861022E-08
825.6727,-0.6503702,1.170559E-09,NaN,-0.6448025,-1.323858E-07,NaN,0.2167736,-5.239661E-07,NaN,-0.693117,2.272157E-05,-0.1417671,1.176648E-07,NaN,NaN,0.2242064,-1.164164E-10,4.122889E-09,-1.101632E-07,4.437615E-08,-2.622604E-08
825.687,-0.6544757,1.171215E-09,NaN,-0.6485041,-1.323855E-07,NaN,0.2188691,-5.244206E-07,NaN,-0.6958342,2.272197E-05,-0.1493812,1.181205E-07,NaN,NaN,0.2267498,-1.21073E-10,4.4058E-08,-1.101627E-07,4.556824E-08,-2.861022E-08
825.7019,-0.658798,1.171871E-09,NaN,-0.6523926,-1.323851E-07,NaN,0.2212495,-5.24866E-07,NaN,-0.6987839,2.272236E-05,-0.1574315,1.185673E-07,NaN,NaN,0.2295246,-1.257296E-10,8.339706E-08,-1.101622E-07,4.49722E-08,-2.622604E-08
825.7163,-0.658798,1.171871E-09,NaN,-0.6523926,-1.323851E-07,NaN,0.2212495,-5.24866E-07,NaN,-0.6987839,2.272236E-05,-0.1574315,1.185673E-07,NaN,NaN,0.2295246,-1.257296E-10,8.339706E-08,-1.101622E-07,4.49722E-08,-2.622604E-08
825.7303,-0.6632282,1.172526E-09,NaN,-0.6563724,-1.323848E-07,NaN,0.2235904,-5.253112E-07,NaN,-0.7017178,2.272276E-05,-0.1655641,1.190137E-07,NaN,NaN,0.2322453,-1.303863E-10,1.304847E-07,-1.101617E-07,4.795243E-08,-2.861022E-08
825.7469,-0.6677016,1.173182E-09,NaN,-0.660387,-1.323847E-07,NaN,0.2257608,-5.256178E-07,NaN,-0.7046318,2.272316E-05,-0.1735887,1.193215E-07,NaN,NaN,0.2349126,-1.350429E-10,1.757843E-07,-1.101608E-07,4.49722E-08,-2.622604E-08
825.7601,-0.6721804,1.173838E-09,NaN,-0.6644034,-1.323846E-07,NaN,0.2277472,-5.259353E-07,NaN,-0.7075196,2.272355E-05,-0.1814435,1.196402E-07,NaN,NaN,0.2375277,-1.396995E-10,2.192956E-07,-1.101598E-07,4.258801E-08,-2.861022E-08
825.7748,-0.6721804,1.173838E-09,NaN,-0.6644034,-1.323846E-07,NaN,0.2277472,-5.259353E-07,NaN,-0.7075196,2.272355E-05,-0.1814435,1.196402E-07,NaN,NaN,0.2375277,-1.396995E-10,2.192956E-07,-1.101598E-07,4.258801E-08,-2.861022E-08
825.7889,-0.6768728,1.174494E-09,NaN,-0.6686022,-1.323844E-07,NaN,0.2300063,-5.262436E-07,NaN,-0.710638,2.272395E-05,-0.1897221,1.199498E-07,NaN,NaN,0.2403729,-1.396995E-10,2.574426E-07,-1.101588E-07,4.139592E-08,-2.622604E-08
825.8041,-0.6816685,1.175149E-09,NaN,-0.6728877,-1.32384E-07,NaN,0.2322263,-5.266756E-07,NaN,-0.7137386,2.272434E-05,-0.1980795,1.203831E-07,NaN,NaN,0.2431625,-1.350429E-10,3.021461E-07,-1.101583E-07,4.020383E-08,-2.861022E-08
825.8189,-0.6816685,1.175149E-09,NaN,-0.6728877,-1.32384E-07,NaN,0.2322263,-5.266756E-07,NaN,-0.7137386,2.272434E-05,-0.1980795,1.203831E-07,NaN,NaN,0.2431625,-1.350429E-10,3.021461E-07,-1.101583E-07,4.020383E-08,-2.861022E-08
825.8331,-0.6865026,1.175805E-09,NaN,-0.6772034,-1.323836E-07,NaN,0.234276,-5.27085E-07,NaN,-0.716817,2.272472E-05,-0.2063244,1.207937E-07,NaN,NaN,0.2458975,-1.303863E-10,3.438693E-07,-1.101578E-07,3.811766E-08,-2.622604E-08
825.8483,-0.6915691,1.176461E-09,NaN,-0.6817167,-1.323833E-07,NaN,0.2365685,-5.274807E-07,NaN,-0.7201301,2.272511E-05,-0.2149938,1.211906E-07,NaN,NaN,0.2488602,-1.396995E-10,3.846985E-07,-1.101574E-07,3.752162E-08,-2.861022E-08
825.8629,-0.6967472,1.177116E-09,NaN,-0.686323,-1.323829E-07,NaN,0.2387973,-5.278628E-07,NaN,-0.723428,2.272549E-05,-0.2237326,1.215741E-07,NaN,NaN,0.251765,-1.396995E-10,4.326803E-07,-1.101569E-07,3.960778E-08,-2.622604E-08
825.8777,-0.6967472,1.177116E-09,NaN,-0.686323,-1.323829E-07,NaN,0.2387973,-5.278628E-07,NaN,-0.723428,2.272549E-05,-0.2237326,1.215741E-07,NaN,NaN,0.251765,-1.396995E-10,4.326803E-07,-1.101569E-07,3.960778E-08,-2.622604E-08
825.8917,-0.7019665,1.177771E-09,NaN,-0.6909615,-1.323826E-07,NaN,0.240836,-5.282346E-07,NaN,-0.7267048,2.272587E-05,-0.2323449,1.219471E-07,NaN,NaN,0.254613,-1.443561E-10,4.758936E-07,-1.101564E-07,4.050185E-08,-2.861022E-08
825.9072,-0.707186,1.178426E-09,NaN,-0.6955969,-1.323823E-07,NaN,0.2426776,-5.285991E-07,NaN,-0.7299532,2.272624E-05,-0.2407688,1.223129E-07,NaN,NaN,0.2574051,-1.350429E-10,5.164248E-07,-1.10156E-07,4.020383E-08,-2.622604E-08
825.9228,-0.7126158,1.179081E-09,NaN,-0.700409,-1.32382E-07,NaN,0.2447609,-5.289535E-07,NaN,-0.7334298,2.272662E-05,-0.2495858,1.226685E-07,NaN,NaN,0.2604237,-1.350429E-10,5.536777E-07,-1.101555E-07,3.841569E-08,-2.861022E-08
825.9376,-0.7126158,1.179081E-09,NaN,-0.700409,-1.32382E-07,NaN,0.2447609,-5.289535E-07,NaN,-0.7334298,2.272662E-05,-0.2495858,1.226685E-07,NaN,NaN,0.2604237,-1.350429E-10,5.536777E-07,-1.101555E-07,3.841569E-08,-2.861022E-08
825.9516,-0.7181416,1.179736E-09,NaN,-0.7052999,-1.323816E-07,NaN,0.2467994,-5.29301E-07,NaN,-0.7368858,2.272699E-05,-0.2584688,1.230172E-07,NaN,NaN,0.2633835,-1.350429E-10,5.95997E-07,-1.101551E-07,4.050185E-08,-2.622604E-08
825.9658,-0.7236975,1.180391E-09,NaN,-0.7102129,-1.323813E-07,NaN,0.2486644,-5.296387E-07,NaN,-0.740316,2.272737E-05,-0.2672265,1.233562E-07,NaN,NaN,0.2662852,-1.350429E-10,6.389124E-07,-1.101546E-07,3.871371E-08,-2.861022E-08
825.9803,-0.7292455,1.181046E-09,NaN,-0.7151157,-1.32381E-07,NaN,0.2503444,-5.299697E-07,NaN,-0.7437139,2.272775E-05,-0.275797,1.236885E-07,NaN,NaN,0.2691301,-1.350429E-10,6.845099E-07,-1.101542E-07,4.139592E-08,-2.622604E-08
825.9948,-0.7292455,1.181046E-09,NaN,-0.7151157,-1.32381E-07,NaN,0.2503444,-5.299697E-07,NaN,-0.7437139,2.272775E-05,-0.275797,1.236885E-07,NaN,NaN,0.2691301,-1.350429E-10,6.845099E-07,-1.101542E-07,4.139592E-08,-2.622604E-08
826.009,-0.7349994,1.1817E-09,NaN,-0.7201898,-1.323806E-07,NaN,0.2522614,-5.302942E-07,NaN,-0.7473371,2.272812E-05,-0.2847525,1.240142E-07,NaN,NaN,0.2722004,-1.350429E-10,7.247431E-07,-1.101538E-07,4.243901E-08,-2.861022E-08
826.0242,-0.7408443,1.182355E-09,NaN,-0.7253374,-1.323803E-07,NaN,0.2541392,-5.306123E-07,NaN,-0.7509378,2.27285E-05,-0.2937739,1.243336E-07,NaN,NaN,0.2752108,-1.350429E-10,7.685525E-07,-1.101533E-07,4.124691E-08,-2.622604E-08
826.0388,-0.7408443,1.182355E-09,NaN,-0.7253374,-1.323803E-07,NaN,0.2541392,-5.306123E-07,NaN,-0.7509378,2.27285E-05,-0.2937739,1.243336E-07,NaN,NaN,0.2752108,-1.350429E-10,7.685525E-07,-1.101533E-07,4.124691E-08,-2.622604E-08
826.053,-0.7467143,1.183009E-09,NaN,-0.7305028,-1.3238E-07,NaN,0.255848,-5.309212E-07,NaN,-0.7545106,2.272888E-05,-0.3026687,1.246437E-07,NaN,NaN,0.2781622,-1.350429E-10,8.123619E-07,-1.101529E-07,3.990581E-08,-2.861022E-08
826.0684,-0.7528088,1.183663E-09,NaN,-0.735854,-1.323797E-07,NaN,0.2577654,-5.31224E-07,NaN,-0.7583127,2.272925E-05,-0.3119512,1.249478E-07,NaN,NaN,0.281337,-1.350429E-10,8.531911E-07,-1.101524E-07,3.647854E-08,-2.622604E-08
826.0832,-0.7590022,1.184317E-09,NaN,-0.741285,-1.323794E-07,NaN,0.259621,-5.315209E-07,NaN,-0.7620955,2.272963E-05,-0.3212914,1.252459E-07,NaN,NaN,0.2844499,-1.350429E-10,8.978946E-07,-1.10152E-07,3.543546E-08,-2.861022E-08
826.0978,-0.7590022,1.184317E-09,NaN,-0.741285,-1.323794E-07,NaN,0.259621,-5.315209E-07,NaN,-0.7620955,2.272963E-05,-0.3212914,1.252459E-07,NaN,NaN,0.2844499,-1.350429E-10,8.978946E-07,-1.10152E-07,3.543546E-08,-2.861022E-08
826.1118,-0.7652229,1.184971E-09,NaN,-0.7467353,-1.323791E-07,NaN,0.26129,-5.318118E-07,NaN,-0.7658521,2.273001E-05,-0.3304921,1.255381E-07,NaN,NaN,0.2875018,-1.350429E-10,9.414059E-07,-1.101516E-07,3.349831E-08,-2.622604E-08
826.1273,-0.7714306,1.185625E-09,NaN,-0.7521707,-1.323788E-07,NaN,0.2627665,-5.32097E-07,NaN,-0.769575,2.273039E-05,-0.3394908,1.258246E-07,NaN,NaN,0.2904938,-1.396995E-10,9.846193E-07,-1.101511E-07,3.424337E-08,-2.861022E-08
826.142,-0.7778419,1.186278E-09,NaN,-0.7577722,-1.323785E-07,NaN,0.2644531,-5.323737E-07,NaN,-0.773521,2.273076E-05,-0.3488468,1.261025E-07,NaN,NaN,0.2937084,-1.303862E-10,1.02217E-06,-1.101507E-07,3.316303E-08,-2.622604E-08
826.157,-0.7778419,1.186278E-09,NaN,-0.7577722,-1.323785E-07,NaN,0.2644531,-5.323737E-07,NaN,-0.773521,2.273076E-05,-0.3488468,1.261025E-07,NaN,NaN,0.2937084,-1.303862E-10,1.02217E-06,-1.101507E-07,3.316303E-08,-2.622604E-08
826.1707,-0.7843373,1.186932E-09,NaN,-0.7634403,-1.323781E-07,NaN,0.2660986,-5.326449E-07,NaN,-0.7774433,2.273113E-05,-0.3582582,1.26375E-07,NaN,NaN,0.2968602,-1.303862E-10,1.064191E-06,-1.101503E-07,3.213858E-08,-2.861022E-08
826.1882,-0.7908498,1.187585E-09,NaN,-0.7691187,-1.323778E-07,NaN,0.2675758,-5.329107E-07,NaN,-0.7813352,2.27315E-05,-0.3675326,1.266421E-07,NaN,NaN,0.2999503,-1.21073E-10,1.107703E-06,-1.101498E-07,3.383126E-08,-2.622604E-08
826.2018,-0.7973416,1.188239E-09,NaN,-0.7747758,-1.323775E-07,NaN,0.2688741,-5.331713E-07,NaN,-0.7851902,2.273188E-05,-0.3766075,1.269039E-07,NaN,NaN,0.3029797,-1.21073E-10,1.15032E-06,-1.101494E-07,3.576841E-08,-2.861022E-08
826.2156,-0.7973416,1.188239E-09,NaN,-0.7747758,-1.323775E-07,NaN,0.2688741,-5.331713E-07,NaN,-0.7851902,2.273188E-05,-0.3766075,1.269039E-07,NaN,NaN,0.3029797,-1.21073E-10,1.15032E-06,-1.101494E-07,3.576841E-08,-2.861022E-08
826.2309,-0.8040339,1.188892E-09,NaN,-0.7805944,-1.323772E-07,NaN,0.2703792,-5.334267E-07,NaN,-0.7892655,2.273225E-05,-0.3860332,1.271606E-07,NaN,NaN,0.3062309,-1.21073E-10,1.187573E-06,-1.10149E-07,3.353323E-08,-2.622604E-08
826.2448,-0.8108059,1.189545E-09,NaN,-0.7864751,-1.323769E-07,NaN,0.2718499,-5.336742E-07,NaN,-0.7933161,2.273263E-05,-0.3955149,1.274094E-07,NaN,NaN,0.3094186,-1.21073E-10,1.229892E-06,-1.101486E-07,3.368224E-08,-2.861022E-08
826.2594,-0.8108059,1.189545E-09,NaN,-0.7864751,-1.323769E-07,NaN,0.2718499,-5.336742E-07,NaN,-0.7933161,2.273263E-05,-0.3955149,1.274094E-07,NaN,NaN,0.3094186,-1.21073E-10,1.229892E-06,-1.101486E-07,3.368224E-08,-2.861022E-08
826.2733,-0.8175901,1.190198E-09,NaN,-0.792362,-1.323766E-07,NaN,0.2731581,-5.339168E-07,NaN,-0.7973351,2.273301E-05,-0.4048593,1.276532E-07,NaN,NaN,0.3125439,-1.21073E-10,1.271318E-06,-1.101481E-07,3.301169E-08,-2.622604E-08
826.2886,-0.8245933,1.190851E-09,NaN,-0.7984247,-1.323763E-07,NaN,0.274646,-5.341546E-07,NaN,-0.8015785,2.273338E-05,-0.4145588,1.278922E-07,NaN,NaN,0.3158889,-1.21073E-10,1.305888E-06,-1.101477E-07,3.152158E-08,-2.861022E-08
826.3033,-0.8316835,1.191503E-09,NaN,-0.8045551,-1.32376E-07,NaN,0.276078,-5.343877E-07,NaN,-0.8058013,2.273376E-05,-0.4243065,1.281266E-07,NaN,NaN,0.3191687,-1.21073E-10,1.346121E-06,-1.101473E-07,3.092553E-08,-2.622604E-08
826.318,-0.8316835,1.191503E-09,NaN,-0.8045551,-1.32376E-07,NaN,0.276078,-5.343877E-07,NaN,-0.8058013,2.273376E-05,-0.4243065,1.281266E-07,NaN,NaN,0.3191687,-1.21073E-10,1.346121E-06,-1.101473E-07,3.092553E-08,-2.622604E-08
826.3318,-0.8387877,1.192156E-09,NaN,-0.8106933,-1.323757E-07,NaN,0.2773318,-5.346161E-07,NaN,-0.8099945,2.273414E-05,-0.433905,1.283562E-07,NaN,NaN,0.3223842,-1.21073E-10,1.389335E-06,-1.101469E-07,3.003146E-08,-2.861022E-08
826.3473,-0.8458662,1.192808E-09,NaN,-0.8168063,-1.323754E-07,NaN,0.2784023,-5.348372E-07,NaN,-0.8141503,2.273451E-05,-0.4432911,1.285786E-07,NaN,NaN,0.3255367,-1.21073E-10,1.429866E-06,-1.101465E-07,3.077652E-08,-2.622604E-08
826.3621,-0.8531439,1.19346E-09,NaN,-0.8230765,-1.323752E-07,NaN,0.2796561,-5.346445E-07,NaN,-0.8185245,2.273489E-05,-0.4530033,1.283872E-07,NaN,NaN,0.3289084,-1.257296E-10,1.464139E-06,-1.101442E-07,2.749826E-08,-2.861022E-08
826.3766,-0.8531439,1.19346E-09,NaN,-0.8230765,-1.323752E-07,NaN,0.2796561,-5.346445E-07,NaN,-0.8185245,2.273489E-05,-0.4530033,1.283872E-07,NaN,NaN,0.3289084,-1.257296E-10,1.464139E-06,-1.101442E-07,2.749826E-08,-2.861022E-08
826.3906,-0.8604947,1.194111E-09,NaN,-0.8294022,-1.323747E-07,NaN,0.2808757,-5.346221E-07,NaN,-0.8228746,2.273528E-05,-0.4627618,1.28366E-07,NaN,NaN,0.3322143,-1.396995E-10,1.503776E-06,-1.101416E-07,2.898838E-08,-2.622604E-08
826.4061,-0.86785,1.194762E-09,NaN,-0.8357276,-1.323739E-07,NaN,0.2819361,-5.346847E-07,NaN,-0.8271916,2.273567E-05,-0.4723745,1.284299E-07,NaN,NaN,0.3354554,-1.443561E-10,1.54535E-06,-1.101388E-07,2.869036E-08,-2.861022E-08
826.421,-0.8751726,1.195413E-09,NaN,-0.8420223,-1.32373E-07,NaN,0.2828277,-5.34794E-07,NaN,-0.8314683,2.273606E-05,-0.4817785,1.285405E-07,NaN,NaN,0.338633,-1.583259E-10,1.585136E-06,-1.101359E-07,2.898838E-08,-2.622604E-08
826.4359,-0.8751726,1.195413E-09,NaN,-0.8420223,-1.32373E-07,NaN,0.2828277,-5.34794E-07,NaN,-0.8314683,2.273606E-05,-0.4817785,1.285405E-07,NaN,NaN,0.338633,-1.583259E-10,1.585136E-06,-1.101359E-07,2.898838E-08,-2.622604E-08
826.4496,-0.882692,1.196064E-09,NaN,-0.8484703,-1.32372E-07,NaN,0.2839002,-5.349294E-07,NaN,-0.8359609,2.273644E-05,-0.4915034,1.286771E-07,NaN,NaN,0.3420293,-1.629825E-10,1.615981E-06,-1.101329E-07,3.167059E-08,-2.861022E-08
826.466,-0.8902805,1.196715E-09,NaN,-0.8549698,-1.323709E-07,NaN,0.2849455,-5.350733E-07,NaN,-0.8404291,2.273683E-05,-0.5012757,1.288223E-07,NaN,NaN,0.3453593,-1.769524E-10,1.655469E-06,-1.1013E-07,3.345873E-08,-2.622604E-08
826.4807,-0.8978689,1.197365E-09,NaN,-0.8614656,-1.323698E-07,NaN,0.2858381,-5.352228E-07,NaN,-0.8448634,2.273721E-05,-0.5109023,1.28973E-07,NaN,NaN,0.348624,-1.81609E-10,1.694212E-06,-1.10127E-07,3.167059E-08,-2.861022E-08
826.4946,-0.8978689,1.197365E-09,NaN,-0.8614656,-1.323698E-07,NaN,0.2858381,-5.352228E-07,NaN,-0.8448634,2.273721E-05,-0.5109023,1.28973E-07,NaN,NaN,0.348624,-1.81609E-10,1.694212E-06,-1.10127E-07,3.167059E-08,-2.861022E-08
826.5085,-0.9056724,1.198016E-09,NaN,-0.8681282,-1.323687E-07,NaN,0.2868854,-5.353721E-07,NaN,-0.8495181,2.27376E-05,-0.5208555,1.291236E-07,NaN,NaN,0.3521058,-1.955788E-10,1.728038E-06,-1.10124E-07,3.137256E-08,-2.622604E-08
826.5236,-0.9135513,1.198667E-09,NaN,-0.8748478,-1.323676E-07,NaN,0.287885,-5.355157E-07,NaN,-0.8541533,2.273799E-05,-0.5308483,1.292685E-07,NaN,NaN,0.3555196,-2.002354E-10,1.769314E-06,-1.101211E-07,3.077652E-08,-2.861022E-08
826.5385,-0.9135513,1.198667E-09,NaN,-0.8748478,-1.323676E-07,NaN,0.287885,-5.355157E-07,NaN,-0.8541533,2.273799E-05,-0.5308483,1.292685E-07,NaN,NaN,0.3555196,-2.002354E-10,1.769314E-06,-1.101211E-07,3.077652E-08,-2.861022E-08
826.5524,-0.9214313,1.199318E-09,NaN,-0.8815649,-1.323665E-07,NaN,0.2887175,-5.356563E-07,NaN,-0.858757,2.273838E-05,-0.5406842,1.294104E-07,NaN,NaN,0.3588665,-2.142053E-10,1.809398E-06,-1.101181E-07,3.077652E-08,-2.622604E-08
826.5678,-0.9292733,1.199968E-09,NaN,-0.8882478,-1.323654E-07,NaN,0.289379,-5.357914E-07,NaN,-0.8633205,2.273876E-05,-0.5503004,1.295467E-07,NaN,NaN,0.3621478,-2.188619E-10,1.847098E-06,-1.101151E-07,2.839233E-08,-2.861022E-08
826.5827,-0.9373118,1.200619E-09,NaN,-0.8950804,-1.323643E-07,NaN,0.2902007,-5.359181E-07,NaN,-0.8680983,2.273915E-05,-0.560216,1.296747E-07,NaN,NaN,0.3656457,-2.328317E-10,1.880477E-06,-1.101122E-07,3.018047E-08,-2.622604E-08
826.5972,-0.9373118,1.200619E-09,NaN,-0.8950804,-1.323643E-07,NaN,0.2902007,-5.359181E-07,NaN,-0.8680983,2.273915E-05,-0.560216,1.296747E-07,NaN,NaN,0.3656457,-2.328317E-10,1.880477E-06,-1.101122E-07,3.018047E-08,-2.622604E-08
826.6111,-0.9454128,1.20127E-09,NaN,-0.9019587,-1.323632E-07,NaN,0.2909965,-5.360395E-07,NaN,-0.8728536,2.273953E-05,-0.5701695,1.297973E-07,NaN,NaN,0.3690753,-2.374883E-10,1.915867E-06,-1.101093E-07,2.660419E-08,-2.861022E-08
826.6266,-0.9535059,1.20192E-09,NaN,-0.9088273,-1.323621E-07,NaN,0.2916441,-5.361555E-07,NaN,-0.8775743,2.273992E-05,-0.5799701,1.299147E-07,NaN,NaN,0.3724377,-2.514581E-10,1.955877E-06,-1.101063E-07,2.660419E-08,-2.622604E-08
826.6415,-0.9615545,1.202571E-09,NaN,-0.915657,-1.32361E-07,NaN,0.2921355,-5.362637E-07,NaN,-0.8822523,2.274031E-05,-0.5895554,1.300241E-07,NaN,NaN,0.3757342,-2.561147E-10,1.990745E-06,-1.101034E-07,2.958443E-08,-2.861022E-08
826.6563,-0.9615545,1.202571E-09,NaN,-0.915657,-1.32361E-07,NaN,0.2921355,-5.362637E-07,NaN,-0.8822523,2.274031E-05,-0.5895554,1.300241E-07,NaN,NaN,0.3757342,-2.561147E-10,1.990745E-06,-1.101034E-07,2.958443E-08,-2.861022E-08
826.6702,-0.9697984,1.203221E-09,NaN,-0.9226333,-1.323599E-07,NaN,0.2927854,-5.363668E-07,NaN,-0.887142,2.27407E-05,-0.5994366,1.301286E-07,NaN,NaN,0.379247,-2.700846E-10,2.021069E-06,-1.101005E-07,2.839233E-08,-2.622604E-08
826.6861,-0.9781007,1.203872E-09,NaN,-0.9296519,-1.323588E-07,NaN,0.2934158,-5.36465E-07,NaN,-0.8920098,2.274108E-05,-0.6093565,1.302281E-07,NaN,NaN,0.3826912,-2.747412E-10,2.055193E-06,-1.100976E-07,2.422001E-08,-2.861022E-08
826.7004,-0.9863909,1.204522E-09,NaN,-0.9366578,-1.323577E-07,NaN,0.2939047,-5.365556E-07,NaN,-0.8968424,2.274147E-05,-0.6191242,1.3032E-07,NaN,NaN,0.386068,-2.840544E-10,2.093191E-06,-1.100947E-07,2.362396E-08,-2.622604E-08
826.7162,-0.9863909,1.204522E-09,NaN,-0.9366578,-1.323577E-07,NaN,0.2939047,-5.365556E-07,NaN,-0.8968424,2.274147E-05,-0.6191242,1.3032E-07,NaN,NaN,0.386068,-2.840544E-10,2.093191E-06,-1.100947E-07,2.362396E-08,-2.622604E-08
826.7303,-0.9948937,1.205172E-09,NaN,-0.9438232,-1.323566E-07,NaN,0.2945269,-5.366416E-07,NaN,-0.9018919,2.274185E-05,-0.6291944,1.304073E-07,NaN,NaN,0.3896595,-2.840544E-10,2.12087E-06,-1.100918E-07,2.481606E-08,-2.861022E-08
826.7444,-1.00346,1.205823E-09,NaN,-0.9510356,-1.323555E-07,NaN,0.2951097,-5.367202E-07,NaN,-0.9069247,2.274224E-05,-0.6392956,1.304872E-07,NaN,NaN,0.3931809,-2.933676E-10,2.155664E-06,-1.10089E-07,2.720024E-08,-2.622604E-08
826.7591,-1.00346,1.205823E-09,NaN,-0.9510356,-1.323555E-07,NaN,0.2951097,-5.367202E-07,NaN,-0.9069247,2.274224E-05,-0.6392956,1.304872E-07,NaN,NaN,0.3931809,-2.933676E-10,2.155664E-06,-1.10089E-07,2.720024E-08,-2.622604E-08
826.7733,-1.012015,1.206473E-09,NaN,-0.9582364,-1.323544E-07,NaN,0.2955378,-5.367944E-07,NaN,-0.911925,2.274262E-05,-0.6492337,1.305626E-07,NaN,NaN,0.3966334,-2.933676E-10,2.195562E-06,-1.100861E-07,2.422001E-08,-2.861022E-08
826.7888,-1.02052,1.207123E-09,NaN,-0.9653955,-1.323533E-07,NaN,0.295809,-5.368643E-07,NaN,-0.9168828,2.274302E-05,-0.6589472,1.306338E-07,NaN,NaN,0.4000181,-3.026808E-10,2.231939E-06,-1.100833E-07,2.004769E-08,-2.622604E-08
826.8032,-1.02922,1.207773E-09,NaN,-0.9726983,-1.323522E-07,NaN,0.2962205,-5.369271E-07,NaN,-0.9220508,2.27434E-05,-0.6689383,1.306979E-07,NaN,NaN,0.4036173,-3.026808E-10,2.259628E-06,-1.100804E-07,2.302792E-08,-2.861022E-08
826.8179,-1.02922,1.207773E-09,NaN,-0.9726983,-1.323522E-07,NaN,0.2962205,-5.369271E-07,NaN,-0.9220508,2.27434E-05,-0.6689383,1.306979E-07,NaN,NaN,0.4036173,-3.026808E-10,2.259628E-06,-1.100804E-07,2.302792E-08,-2.861022E-08
826.8317,-1.037973,1.208423E-09,NaN,-0.9800381,-1.323511E-07,NaN,0.2966137,-5.369858E-07,NaN,-0.9271997,2.274379E-05,-0.6789589,1.307579E-07,NaN,NaN,0.4071463,-3.11994E-10,2.294342E-06,-1.100776E-07,2.422001E-08,-2.622604E-08
826.8471,-1.046705,1.209073E-09,NaN,-0.9873601,-1.323501E-07,NaN,0.2968708,-5.370376E-07,NaN,-0.9323131,2.274417E-05,-0.688821,1.30811E-07,NaN,NaN,0.4106062,-3.11994E-10,2.327432E-06,-1.100748E-07,2.422001E-08,-2.861022E-08
826.8617,-1.055381,1.209723E-09,NaN,-0.9946364,-1.32349E-07,NaN,0.2969853,-5.370856E-07,NaN,-0.9373813,2.274456E-05,-0.6984634,1.308602E-07,NaN,NaN,0.4139982,-3.213073E-10,2.363232E-06,-1.10072E-07,2.898839E-08,-2.622604E-08
826.8766,-1.055381,1.209723E-09,NaN,-0.9946364,-1.32349E-07,NaN,0.2969853,-5.370856E-07,NaN,-0.9373813,2.274456E-05,-0.6984634,1.308602E-07,NaN,NaN,0.4139982,-3.213073E-10,2.363232E-06,-1.10072E-07,2.898839E-08,-2.622604E-08
826.8909,-1.064252,1.210373E-09,NaN,-1.002054,-1.323479E-07,NaN,0.2972387,-5.371298E-07,NaN,-0.9426574,2.274494E-05,-0.7083814,1.309057E-07,NaN,NaN,0.4176047,-3.213073E-10,2.386422E-06,-1.100692E-07,2.541211E-08,-2.861022E-08
826.9059,-1.073172,1.211023E-09,NaN,-1.009506,-1.323469E-07,NaN,0.2974794,-5.371674E-07,NaN,-0.9479152,2.274533E-05,-0.7183295,1.309446E-07,NaN,NaN,0.4211407,-3.306205E-10,2.419167E-06,-1.100664E-07,2.66042E-08,-2.622604E-08
826.9206,-1.082067,1.211673E-09,NaN,-1.016937,-1.323458E-07,NaN,0.2975905,-5.372013E-07,NaN,-0.9531371,2.274572E-05,-0.7281201,1.309798E-07,NaN,NaN,0.4246075,-3.306205E-10,2.454036E-06,-1.100636E-07,3.137257E-08,-2.861022E-08
826.9354,-1.082067,1.211673E-09,NaN,-1.016937,-1.323458E-07,NaN,0.2975905,-5.372013E-07,NaN,-0.9531371,2.274572E-05,-0.7281201,1.309798E-07,NaN,NaN,0.4246075,-3.306205E-10,2.454036E-06,-1.100636E-07,3.137257E-08,-2.861022E-08
826.9497,-1.091174,1.212322E-09,NaN,-1.024522,-1.323447E-07,NaN,0.2978159,-5.372318E-07,NaN,-0.9585725,2.274611E-05,-0.7381933,1.310116E-07,NaN,NaN,0.4282873,-3.399337E-10,2.47568E-06,-1.100609E-07,2.898839E-08,-2.622604E-08
826.9648,-1.100332,1.212972E-09,NaN,-1.032145,-1.323437E-07,NaN,0.2980093,-5.37256E-07,NaN,-0.9639953,2.274649E-05,-0.7482888,1.31037E-07,NaN,NaN,0.4318952,-3.399337E-10,2.508984E-06,-1.100581E-07,2.541211E-08,-2.861022E-08
826.9794,-1.100332,1.212972E-09,NaN,-1.032145,-1.323437E-07,NaN,0.2980093,-5.37256E-07,NaN,-0.9639953,2.274649E-05,-0.7482888,1.31037E-07,NaN,NaN,0.4318952,-3.399337E-10,2.508984E-06,-1.100581E-07,2.541211E-08,-2.861022E-08
826.9957,-1.109467,1.213622E-09,NaN,-1.039749,-1.323426E-07,NaN,0.2980611,-5.372769E-07,NaN,-0.9693847,2.274688E-05,-0.7582166,1.310592E-07,NaN,NaN,0.4354324,-3.492469E-10,2.542437E-06,-1.100554E-07,2.541211E-08,-2.622604E-08
827.0099,-1.118539,1.214271E-09,NaN,-1.047305,-1.323416E-07,NaN,0.297971,-5.372945E-07,NaN,-0.9747288,2.274726E-05,-0.7679176,1.310781E-07,NaN,NaN,0.4389003,-3.492469E-10,2.573357E-06,-1.100526E-07,2.898839E-08,-2.861022E-08
827.0236,-1.127808,1.21492E-09,NaN,-1.055,-1.323405E-07,NaN,0.2980033,-5.373061E-07,NaN,-0.9802793,2.274765E-05,-0.7778787,1.31091E-07,NaN,NaN,0.4425811,-3.585601E-10,2.594293E-06,-1.100499E-07,2.898839E-08,-2.622604E-08
827.0383,-1.127808,1.21492E-09,NaN,-1.055,-1.323405E-07,NaN,0.2980033,-5.373061E-07,NaN,-0.9802793,2.274765E-05,-0.7778787,1.31091E-07,NaN,NaN,0.4425811,-3.585601E-10,2.594293E-06,-1.100499E-07,2.898839E-08,-2.622604E-08
827.0522,-1.137118,1.21557E-09,NaN,-1.062725,-1.323395E-07,NaN,0.2980236,-5.373146E-07,NaN,-0.9858147,2.274804E-05,-0.787861,1.311008E-07,NaN,NaN,0.4461901,-3.585601E-10,2.624021E-06,-1.100472E-07,2.302792E-08,-2.861022E-08
827.0674,-1.146396,1.216219E-09,NaN,-1.070425,-1.323384E-07,NaN,0.2979202,-5.3732E-07,NaN,-0.9913136,2.274843E-05,-0.7976807,1.311075E-07,NaN,NaN,0.4497283,-3.678733E-10,2.654866E-06,-1.100445E-07,2.541211E-08,-2.622604E-08
827.082,-1.155607,1.216868E-09,NaN,-1.078074,-1.323374E-07,NaN,0.2976885,-5.373197E-07,NaN,-0.9967644,2.274881E-05,-0.8072791,1.311085E-07,NaN,NaN,0.4531972,-3.678733E-10,2.684818E-06,-1.100418E-07,3.137257E-08,-2.861022E-08
827.0966,-1.155607,1.216868E-09,NaN,-1.078074,-1.323374E-07,NaN,0.2976885,-5.373197E-07,NaN,-0.9967644,2.274881E-05,-0.8072791,1.311085E-07,NaN,NaN,0.4531972,-3.678733E-10,2.684818E-06,-1.100418E-07,3.137257E-08,-2.861022E-08
827.1107,-1.165014,1.217518E-09,NaN,-1.08586,-1.323363E-07,NaN,0.2975777,-5.373165E-07,NaN,-1.002419,2.27492E-05,-0.8171369,1.311065E-07,NaN,NaN,0.456879,-3.771866E-10,2.70553E-06,-1.100391E-07,2.66042E-08,-2.622604E-08
827.1261,-1.174459,1.218167E-09,NaN,-1.093674,-1.323353E-07,NaN,0.2974597,-5.373105E-07,NaN,-1.00806,2.274958E-05,-0.8270162,1.311018E-07,NaN,NaN,0.4604889,-3.771866E-10,2.735184E-06,-1.100364E-07,2.302792E-08,-2.861022E-08
827.1406,-1.183868,1.218816E-09,NaN,-1.101461,-1.323343E-07,NaN,0.2972242,-5.372989E-07,NaN,-1.013664,2.274997E-05,-0.8367344,1.310915E-07,NaN,NaN,0.4640281,-3.864998E-10,2.765284E-06,-1.100338E-07,2.422002E-08,-2.622604E-08
827.1558,-1.183868,1.218816E-09,NaN,-1.101461,-1.323343E-07,NaN,0.2972242,-5.372989E-07,NaN,-1.013664,2.274997E-05,-0.8367344,1.310915E-07,NaN,NaN,0.4640281,-3.864998E-10,2.765284E-06,-1.100338E-07,2.422002E-08,-2.622604E-08
827.1696,-1.193489,1.219465E-09,NaN,-1.109397,-1.323332E-07,NaN,0.2970854,-5.372847E-07,NaN,-1.019479,2.275036E-05,-0.846719,1.310786E-07,NaN,NaN,0.467779,-3.864998E-10,2.787636E-06,-1.100311E-07,2.422002E-08,-2.861022E-08
827.1848,-1.20315,1.220114E-09,NaN,-1.117364,-1.323322E-07,NaN,0.296921,-5.372679E-07,NaN,-1.025285,2.275075E-05,-0.8567174,1.31063E-07,NaN,NaN,0.4714566,-3.95813E-10,2.815799E-06,-1.100284E-07,2.302792E-08,-2.622604E-08
827.1996,-1.20315,1.220114E-09,NaN,-1.117364,-1.323322E-07,NaN,0.296921,-5.372679E-07,NaN,-1.025285,2.275075E-05,-0.8567174,1.31063E-07,NaN,NaN,0.4714566,-3.95813E-10,2.815799E-06,-1.100284E-07,2.302792E-08,-2.622604E-08
827.2151,-1.212773,1.220763E-09,NaN,-1.125305,-1.323312E-07,NaN,0.2966284,-5.372457E-07,NaN,-1.031056,2.275113E-05,-0.8665457,1.310421E-07,NaN,NaN,0.4750621,-3.95813E-10,2.846645E-06,-1.100258E-07,2.422002E-08,-2.861022E-08
827.2293,-1.222325,1.221412E-09,NaN,-1.133194,-1.323301E-07,NaN,0.2962094,-5.372211E-07,NaN,-1.036778,2.275152E-05,-0.8761478,1.310188E-07,NaN,NaN,0.478597,-4.051262E-10,2.874063E-06,-1.100232E-07,2.302792E-08,-2.622604E-08
827.2436,-1.232074,1.222061E-09,NaN,-1.141219,-1.323291E-07,NaN,0.2958959,-5.371941E-07,NaN,-1.042703,2.27519E-05,-0.8859968,1.309931E-07,NaN,NaN,0.4823435,-4.051262E-10,2.893285E-06,-1.100205E-07,2.422002E-08,-2.861022E-08
827.2593,-1.232074,1.222061E-09,NaN,-1.141219,-1.323291E-07,NaN,0.2958959,-5.371941E-07,NaN,-1.042703,2.27519E-05,-0.8859968,1.309931E-07,NaN,NaN,0.4823435,-4.051262E-10,2.893285E-06,-1.100205E-07,2.422002E-08,-2.861022E-08
827.2734,-1.241854,1.22271E-09,NaN,-1.149268,-1.323281E-07,NaN,0.2955756,-5.371619E-07,NaN,-1.048616,2.275229E-05,-0.8958586,1.309622E-07,NaN,NaN,0.4860169,-4.144394E-10,2.920256E-06,-1.100179E-07,2.183583E-08,-2.622604E-08
827.288,-1.25159,1.223359E-09,NaN,-1.157286,-1.323271E-07,NaN,0.2951439,-5.371275E-07,NaN,-1.054492,2.275267E-05,-0.9055559,1.30929E-07,NaN,NaN,0.4896183,-4.144394E-10,2.947972E-06,-1.100153E-07,1.468327E-08,-2.861022E-08
827.3024,-1.26125,1.224007E-09,NaN,-1.16525,-1.323261E-07,NaN,0.2945987,-5.370909E-07,NaN,-1.060315,2.275307E-05,-0.9150334,1.308937E-07,NaN,NaN,0.4931491,-4.237526E-10,2.974645E-06,-1.100127E-07,1.229909E-08,-2.622604E-08
827.3173,-1.26125,1.224007E-09,NaN,-1.16525,-1.323261E-07,NaN,0.2945987,-5.370909E-07,NaN,-1.060315,2.275307E-05,-0.9150334,1.308937E-07,NaN,NaN,0.4931491,-4.237526E-10,2.974645E-06,-1.100127E-07,1.229909E-08,-2.622604E-08
827.3308,-1.260676,1.224656E-09,NaN,-1.165708,-1.323251E-07,NaN,0.2871448,-5.370521E-07,NaN,-1.056284,2.275345E-05,-0.9068235,1.308563E-07,NaN,NaN,0.4862106,-4.237526E-10,3.339724E-06,-1.100101E-07,1.1107E-08,-2.861022E-08
827.3461,-1.25457,1.225305E-09,NaN,-1.162099,-1.323241E-07,NaN,0.2757667,-5.370084E-07,NaN,-1.050364,2.275384E-05,-0.88894,1.308138E-07,NaN,NaN,0.4793998,-4.330659E-10,3.324823E-06,-1.100076E-07,1.570252E-09,-2.622604E-08
827.3607,-1.24557,1.225954E-09,NaN,-1.156155,-1.323231E-07,NaN,0.2650373,-5.369627E-07,NaN,-1.043503,2.275422E-05,-0.8681948,1.307694E-07,NaN,NaN,0.4727192,-4.330659E-10,3.196076E-06,-1.10005E-07,6.338624E-09,-2.861022E-08
827.3754,-1.24557,1.225954E-09,NaN,-1.156155,-1.323231E-07,NaN,0.2650373,-5.369627E-07,NaN,-1.043503,2.275422E-05,-0.8681948,1.307694E-07,NaN,NaN,0.4727192,-4.330659E-10,3.196076E-06,-1.10005E-07,6.338624E-09,-2.861022E-08
827.3895,-1.235598,1.226602E-09,NaN,-1.149187,-1.323221E-07,NaN,0.2566607,-5.36915E-07,NaN,-1.0361,2.275461E-05,-0.8478138,1.30723E-07,NaN,NaN,0.4659883,-4.423791E-10,3.052131E-06,-1.100024E-07,-8.139334E-10,-2.622604E-08
827.4049,-1.225291,1.227251E-09,NaN,-1.141726,-1.323211E-07,NaN,0.2499447,-5.368626E-07,NaN,-1.028427,2.275499E-05,-0.8283479,1.306719E-07,NaN,NaN,0.4593893,-4.423791E-10,2.935828E-06,-1.099999E-07,1.570252E-09,-2.861022E-08
827.4197,-1.225291,1.227251E-09,NaN,-1.141726,-1.323211E-07,NaN,0.2499447,-5.368626E-07,NaN,-1.028427,2.275499E-05,-0.8283479,1.306719E-07,NaN,NaN,0.4593893,-4.423791E-10,2.935828E-06,-1.099999E-07,1.570252E-09,-2.861022E-08
827.4338,-1.214926,1.227899E-09,NaN,-1.134041,-1.323201E-07,NaN,0.2442634,-5.368054E-07,NaN,-1.020616,2.275538E-05,-0.8097475,1.30616E-07,NaN,NaN,0.4529198,-4.516923E-10,2.843664E-06,-1.099973E-07,1.570252E-09,-2.622604E-08
827.4492,-1.204615,1.228548E-09,NaN,-1.126268,-1.323191E-07,NaN,0.23917,-5.367465E-07,NaN,-1.012774,2.275577E-05,-0.7918236,1.305585E-07,NaN,NaN,0.4465772,-4.516923E-10,2.768264E-06,-1.099948E-07,-8.139334E-10,-2.861022E-08
827.4638,-1.194698,1.229196E-09,NaN,-1.118647,-1.323181E-07,NaN,0.2349835,-5.366859E-07,NaN,-1.005006,2.275616E-05,-0.7748597,1.304992E-07,NaN,NaN,0.4401789,-4.610055E-10,2.696914E-06,-1.099923E-07,-8.139334E-10,-2.622604E-08
827.4786,-1.194698,1.229196E-09,NaN,-1.118647,-1.323181E-07,NaN,0.2349835,-5.366859E-07,NaN,-1.005006,2.275616E-05,-0.7748597,1.304992E-07,NaN,NaN,0.4401789,-4.610055E-10,2.696914E-06,-1.099923E-07,-8.139334E-10,-2.622604E-08
827.4925,-1.18502,1.229845E-09,NaN,-1.111122,-1.323171E-07,NaN,0.2310924,-5.366237E-07,NaN,-0.9974246,2.275654E-05,-0.7584588,1.304382E-07,NaN,NaN,0.4339063,-4.610055E-10,2.634702E-06,-1.099898E-07,-8.139334E-10,-2.861022E-08
827.508,-1.17551,1.230494E-09,NaN,-1.103667,-1.323161E-07,NaN,0.2273059,-5.36557E-07,NaN,-0.9900074,2.275693E-05,-0.7424377,1.303728E-07,NaN,NaN,0.4277567,-4.656621E-10,2.576774E-06,-1.099873E-07,-8.139334E-10,-2.622604E-08
827.5223,-1.166135,1.231142E-09,NaN,-1.096273,-1.323151E-07,NaN,0.2235626,-5.364887E-07,NaN,-0.9827431,2.275731E-05,-0.7267121,1.303058E-07,NaN,NaN,0.4217277,-4.563489E-10,2.517542E-06,-1.099848E-07,-3.198119E-09,-2.861022E-08
827.5383,-1.166135,1.231142E-09,NaN,-1.096273,-1.323151E-07,NaN,0.2235626,-5.364887E-07,NaN,-0.9827431,2.275731E-05,-0.7267121,1.303058E-07,NaN,NaN,0.4217277,-4.563489E-10,2.517542E-06,-1.099848E-07,-3.198119E-09,-2.861022E-08
827.5521,-1.15717,1.231791E-09,NaN,-1.08911,-1.323142E-07,NaN,0.2204375,-5.364189E-07,NaN,-0.975639,2.275769E-05,-0.7117069,1.302372E-07,NaN,NaN,0.4156367,-4.563489E-10,2.454584E-06,-1.099823E-07,-3.198119E-09,-2.622604E-08
827.5665,-1.148448,1.232439E-09,NaN,-1.082085,-1.323132E-07,NaN,0.2174687,-5.363476E-07,NaN,-0.9687704,2.275807E-05,-0.6971163,1.301672E-07,NaN,NaN,0.4096653,-4.470357E-10,2.397587E-06,-1.099798E-07,-5.582305E-09,-2.861022E-08
827.5811,-1.139888,1.233088E-09,NaN,-1.075157,-1.323122E-07,NaN,0.2145374,-5.362747E-07,NaN,-0.962086,2.275846E-05,-0.6828156,1.300957E-07,NaN,NaN,0.403811,-4.470357E-10,2.342304E-06,-1.099773E-07,-7.966491E-09,-2.622604E-08
827.5955,-1.139888,1.233088E-09,NaN,-1.075157,-1.323122E-07,NaN,0.2145374,-5.362747E-07,NaN,-0.962086,2.275846E-05,-0.6828156,1.300957E-07,NaN,NaN,0.403811,-4.470357E-10,2.342304E-06,-1.099773E-07,-7.966491E-09,-2.622604E-08
827.6096,-1.131746,1.233736E-09,NaN,-1.068477,-1.323112E-07,NaN,0.2122053,-5.361977E-07,NaN,-0.9555637,2.275883E-05,-0.6692212,1.300199E-07,NaN,NaN,0.3978914,-4.377225E-10,2.278974E-06,-1.099749E-07,-1.511905E-08,-2.861022E-08
827.6247,-1.123847,1.234384E-09,NaN,-1.061947,-1.323103E-07,NaN,0.2100143,-5.361192E-07,NaN,-0.9492774,2.275922E-05,-0.6560196,1.299428E-07,NaN,NaN,0.392088,-4.377225E-10,2.222051E-06,-1.099724E-07,-1.750323E-08,-2.622604E-08
827.6395,-1.123847,1.234384E-09,NaN,-1.061947,-1.323103E-07,NaN,0.2100143,-5.361192E-07,NaN,-0.9492774,2.275922E-05,-0.6560196,1.299428E-07,NaN,NaN,0.392088,-4.377225E-10,2.222051E-06,-1.099724E-07,-1.750323E-08,-2.622604E-08
827.6536,-1.116111,1.235032E-09,NaN,-1.055519,-1.323093E-07,NaN,0.2078461,-5.360395E-07,NaN,-0.9431708,2.27596E-05,-0.643084,1.298643E-07,NaN,NaN,0.3863985,-4.284093E-10,2.166321E-06,-1.0997E-07,-1.750323E-08,-2.861022E-08
827.6689,-1.108497,1.23568E-09,NaN,-1.04917,-1.323083E-07,NaN,0.2056755,-5.359584E-07,NaN,-0.9372128,2.275999E-05,-0.6303647,1.297846E-07,NaN,NaN,0.3808204,-4.284093E-10,2.112677E-06,-1.099675E-07,-1.631114E-08,-2.622604E-08
827.6837,-1.101273,1.236328E-09,NaN,-1.04306,-1.323074E-07,NaN,0.204097,-5.35876E-07,NaN,-0.9313811,2.276037E-05,-0.6183214,1.297035E-07,NaN,NaN,0.3751716,-4.19096E-10,2.053817E-06,-1.099651E-07,-1.750323E-08,-2.861022E-08
827.6997,-1.101273,1.236328E-09,NaN,-1.04306,-1.323074E-07,NaN,0.204097,-5.35876E-07,NaN,-0.9313811,2.276037E-05,-0.6183214,1.297035E-07,NaN,NaN,0.3751716,-4.19096E-10,2.053817E-06,-1.099651E-07,-1.750323E-08,-2.861022E-08
827.7122,-1.09428,1.236976E-09,NaN,-1.037098,-1.323064E-07,NaN,0.2026641,-5.357896E-07,NaN,-0.9257646,2.276076E-05,-0.6066495,1.296184E-07,NaN,NaN,0.3696337,-4.19096E-10,1.998832E-06,-1.099627E-07,-1.988742E-08,-2.622604E-08
827.7275,-1.087441,1.237624E-09,NaN,-1.031239,-1.323055E-07,NaN,0.2012544,-5.35702E-07,NaN,-0.9203115,2.276115E-05,-0.5952239,1.295321E-07,NaN,NaN,0.3642045,-4.097828E-10,1.947125E-06,-1.099603E-07,-2.584788E-08,-2.861022E-08
827.7423,-1.080717,1.238272E-09,NaN,-1.025457,-1.323045E-07,NaN,0.199839,-5.356133E-07,NaN,-0.9149927,2.276154E-05,-0.5839948,1.294446E-07,NaN,NaN,0.3588816,-4.097828E-10,1.895269E-06,-1.099579E-07,-2.22716E-08,-2.622604E-08
827.7571,-1.080717,1.238272E-09,NaN,-1.025457,-1.323045E-07,NaN,0.199839,-5.356133E-07,NaN,-0.9149927,2.276154E-05,-0.5839948,1.294446E-07,NaN,NaN,0.3588816,-4.097828E-10,1.895269E-06,-1.099579E-07,-2.22716E-08,-2.622604E-08
827.7711,-1.074373,1.23892E-09,NaN,-1.019914,-1.323036E-07,NaN,0.1990108,-5.355234E-07,NaN,-0.909779,2.276192E-05,-0.5734293,1.29356E-07,NaN,NaN,0.353483,-4.004696E-10,1.832386E-06,-1.099555E-07,-2.465579E-08,-2.861022E-08
827.7867,-1.068254,1.239568E-09,NaN,-1.01452,-1.323026E-07,NaN,0.1983255,-5.354324E-07,NaN,-0.9047683,2.276231E-05,-0.5632175,1.292663E-07,NaN,NaN,0.3481905,-4.004696E-10,1.780232E-06,-1.099531E-07,-1.869532E-08,-2.622604E-08
827.8033,-1.062284,1.240216E-09,NaN,-1.009228,-1.323017E-07,NaN,0.1976567,-5.353376E-07,NaN,-0.8999101,2.276269E-05,-0.5532314,1.291727E-07,NaN,NaN,0.3430018,-3.911564E-10,1.73225E-06,-1.099507E-07,-1.511905E-08,-2.861022E-08
827.8171,-1.062284,1.240216E-09,NaN,-1.009228,-1.323017E-07,NaN,0.1976567,-5.353376E-07,NaN,-0.8999101,2.276269E-05,-0.5532314,1.291727E-07,NaN,NaN,0.3430018,-3.911564E-10,1.73225E-06,-1.099507E-07,-1.511905E-08,-2.861022E-08
827.8311,-1.056705,1.240863E-09,NaN,-1.004187,-1.323007E-07,NaN,0.197565,-5.351502E-07,NaN,-0.8951591,2.276308E-05,-0.543909,1.289867E-07,NaN,NaN,0.3377347,-3.95813E-10,1.677116E-06,-1.099483E-07,-1.392695E-08,-2.622604E-08
827.8453,-1.051358,1.241509E-09,NaN,-0.9993028,-1.322998E-07,NaN,0.1976008,-5.349636E-07,NaN,-0.8906119,2.276348E-05,-0.5349241,1.288014E-07,NaN,NaN,0.3325711,-4.051262E-10,1.62973E-06,-1.09946E-07,-1.154277E-08,-2.861022E-08
827.8599,-1.051358,1.241509E-09,NaN,-0.9993028,-1.322998E-07,NaN,0.1976008,-5.349636E-07,NaN,-0.8906119,2.276348E-05,-0.5349241,1.288014E-07,NaN,NaN,0.3325711,-4.051262E-10,1.62973E-06,-1.09946E-07,-1.154277E-08,-2.861022E-08
827.8738,-1.046158,1.242156E-09,NaN,-0.9945242,-1.322989E-07,NaN,0.1976362,-5.34775E-07,NaN,-0.8862152,2.276386E-05,-0.5261433,1.286141E-07,NaN,NaN,0.3275089,-4.004696E-10,1.585026E-06,-1.099436E-07,-9.158581E-09,-2.622604E-08
827.8892,-1.041065,1.242803E-09,NaN,-0.9898246,-1.322979E-07,NaN,0.1976418,-5.345872E-07,NaN,-0.8819382,2.276424E-05,-0.5175151,1.284276E-07,NaN,NaN,0.3225459,-4.051262E-10,1.537939E-06,-1.099413E-07,-7.966489E-09,-2.861022E-08
827.9039,-1.036335,1.243449E-09,NaN,-0.9853618,-1.32297E-07,NaN,0.1982139,-5.344003E-07,NaN,-0.8777403,2.276461E-05,-0.5095199,1.282419E-07,NaN,NaN,0.3175001,-4.004696E-10,1.490255E-06,-1.099389E-07,-1.035067E-08,-2.622604E-08
827.9186,-1.036335,1.243449E-09,NaN,-0.9853618,-1.32297E-07,NaN,0.1982139,-5.344003E-07,NaN,-0.8777403,2.276461E-05,-0.5095199,1.282419E-07,NaN,NaN,0.3175001,-4.004696E-10,1.490255E-06,-1.099389E-07,-1.035067E-08,-2.622604E-08
827.9324,-1.031821,1.244095E-09,NaN,-0.9810486,-1.322961E-07,NaN,0.1989147,-5.342141E-07,NaN,-0.8737289,2.276498E-05,-0.5018414,1.28057E-07,NaN,NaN,0.3125535,-4.051262E-10,1.444956E-06,-1.099366E-07,-1.273486E-08,-2.861022E-08
827.9481,-1.027445,1.244742E-09,NaN,-0.9768373,-1.322952E-07,NaN,0.1996139,-5.340286E-07,NaN,-0.8698545,2.276535E-05,-0.4943483,1.278729E-07,NaN,NaN,0.307704,-4.051262E-10,1.404722E-06,-1.099343E-07,-1.392695E-08,-2.622604E-08
827.9626,-1.023167,1.245387E-09,NaN,-0.9727015,-1.322942E-07,NaN,0.2002792,-5.338439E-07,NaN,-0.8660888,2.276571E-05,-0.4869897,1.276895E-07,NaN,NaN,0.3029495,-4.051262E-10,1.362403E-06,-1.09932E-07,-1.392695E-08,-2.861022E-08
827.9774,-1.023167,1.245387E-09,NaN,-0.9727015,-1.322942E-07,NaN,0.2002792,-5.338439E-07,NaN,-0.8660888,2.276571E-05,-0.4869897,1.276895E-07,NaN,NaN,0.3029495,-4.051262E-10,1.362403E-06,-1.09932E-07,-1.392695E-08,-2.861022E-08
827.9913,-1.019242,1.246033E-09,NaN,-0.9687993,-1.322933E-07,NaN,0.201506,-5.336601E-07,NaN,-0.8623883,2.276609E-05,-0.4802519,1.275069E-07,NaN,NaN,0.2981082,-4.097828E-10,1.315017E-06,-1.099297E-07,-1.750323E-08,-2.622604E-08
828.0069,-1.015526,1.246679E-09,NaN,-0.965045,-1.322924E-07,NaN,0.2028569,-5.334741E-07,NaN,-0.8588655,2.276645E-05,-0.473814,1.273222E-07,NaN,NaN,0.2933621,-4.097828E-10,1.275976E-06,-1.099274E-07,-1.631114E-08,-2.861022E-08
828.0216,-1.011943,1.247324E-09,NaN,-0.961391,-1.322915E-07,NaN,0.2041986,-5.332888E-07,NaN,-0.8554717,2.276682E-05,-0.4675421,1.271382E-07,NaN,NaN,0.2887091,-4.097828E-10,1.237531E-06,-1.099251E-07,-1.511904E-08,-2.622604E-08
828.0364,-1.011943,1.247324E-09,NaN,-0.961391,-1.322915E-07,NaN,0.2041986,-5.332888E-07,NaN,-0.8554717,2.276682E-05,-0.4675421,1.271382E-07,NaN,NaN,0.2887091,-4.097828E-10,1.237531E-06,-1.099251E-07,-1.511904E-08,-2.622604E-08
828.0506,-1.008728,1.24797E-09,NaN,-0.9579831,-1.322906E-07,NaN,0.2060926,-5.331043E-07,NaN,-0.8521507,2.27672E-05,-0.4618913,1.26955E-07,NaN,NaN,0.2839673,-4.19096E-10,1.192828E-06,-1.099228E-07,-1.631114E-08,-2.861022E-08
828.0678,-1.005728,1.248615E-09,NaN,-0.9547303,-1.322897E-07,NaN,0.2080939,-5.329205E-07,NaN,-0.8490111,2.276756E-05,-0.4565244,1.267725E-07,NaN,NaN,0.2793188,-4.19096E-10,1.156469E-06,-1.099205E-07,-1.631114E-08,-2.622604E-08
828.0813,-1.002862,1.24926E-09,NaN,-0.951581,-1.322888E-07,NaN,0.2100677,-5.327375E-07,NaN,-0.8460009,2.276793E-05,-0.4513021,1.265908E-07,NaN,NaN,0.2747616,-4.19096E-10,1.120706E-06,-1.099182E-07,-1.869532E-08,-2.861022E-08
828.0959,-1.002862,1.24926E-09,NaN,-0.951581,-1.322888E-07,NaN,0.2100677,-5.327375E-07,NaN,-0.8460009,2.276793E-05,-0.4513021,1.265908E-07,NaN,NaN,0.2747616,-4.19096E-10,1.120706E-06,-1.099182E-07,-1.869532E-08,-2.861022E-08
828.1092,-1.000085,1.249905E-09,NaN,-0.9485055,-1.322879E-07,NaN,0.2119822,-5.325552E-07,NaN,-0.8430899,2.27683E-05,-0.4461729,1.264098E-07,NaN,NaN,0.2702937,-4.19096E-10,1.089414E-06,-1.09916E-07,-1.988742E-08,-2.622604E-08
828.1245,-0.9976458,1.25055E-09,NaN,-0.9456593,-1.32287E-07,NaN,0.2144379,-5.323736E-07,NaN,-0.8402295,2.276867E-05,-0.4416353,1.262294E-07,NaN,NaN,0.2657333,-4.19096E-10,1.050969E-06,-1.099137E-07,-1.988742E-08,-2.861022E-08
828.1389,-0.9976458,1.25055E-09,NaN,-0.9456593,-1.32287E-07,NaN,0.2144379,-5.323736E-07,NaN,-0.8402295,2.276867E-05,-0.4416353,1.262294E-07,NaN,NaN,0.2657333,-4.19096E-10,1.050969E-06,-1.099137E-07,-1.988742E-08,-2.861022E-08
828.153,-0.9954059,1.251195E-09,NaN,-0.9429585,-1.322861E-07,NaN,0.2170004,-5.321926E-07,NaN,-0.8375357,2.276904E-05,-0.437362,1.260498E-07,NaN,NaN,0.2612627,-4.284093E-10,1.018782E-06,-1.099115E-07,-2.107951E-08,-2.622604E-08
828.1686,-0.9932883,1.251839E-09,NaN,-0.9403545,-1.322852E-07,NaN,0.219534,-5.320096E-07,NaN,-0.83496,2.276942E-05,-0.4332168,1.25868E-07,NaN,NaN,0.2568798,-4.377225E-10,9.895761E-07,-1.099093E-07,-2.107951E-08,-2.861022E-08
828.1843,-0.9912499,1.252484E-09,NaN,-0.9378189,-1.322843E-07,NaN,0.2220041,-5.318271E-07,NaN,-0.8324745,2.276979E-05,-0.4291486,1.256869E-07,NaN,NaN,0.2525828,-4.377225E-10,9.585816E-07,-1.09907E-07,-1.869532E-08,-2.622604E-08
828.1976,-0.9912499,1.252484E-09,NaN,-0.9378189,-1.322843E-07,NaN,0.2220041,-5.318271E-07,NaN,-0.8324745,2.276979E-05,-0.4291486,1.256869E-07,NaN,NaN,0.2525828,-4.377225E-10,9.585816E-07,-1.09907E-07,-1.869532E-08,-2.622604E-08
828.2115,-0.9895394,1.253128E-09,NaN,-0.9355078,-1.322834E-07,NaN,0.2250121,-5.316455E-07,NaN,-0.8300309,2.277015E-05,-0.425662,1.255064E-07,NaN,NaN,0.2481901,-4.377225E-10,9.216267E-07,-1.099048E-07,-2.107951E-08,-2.861022E-08
828.2271,-0.9880214,1.253773E-09,NaN,-0.9333386,-1.322825E-07,NaN,0.2281215,-5.314645E-07,NaN,-0.8277472,2.277052E-05,-0.4224246,1.253267E-07,NaN,NaN,0.2438838,-4.377225E-10,8.954007E-07,-1.099026E-07,-2.107951E-08,-2.622604E-08
828.2418,-0.9866194,1.254417E-09,NaN,-0.9312631,-1.322816E-07,NaN,0.231194,-5.312841E-07,NaN,-0.8255753,2.277089E-05,-0.4192978,1.251477E-07,NaN,NaN,0.2396621,-4.377225E-10,8.679826E-07,-1.099004E-07,-2.346369E-08,-2.861022E-08
828.2565,-0.9866194,1.254417E-09,NaN,-0.9312631,-1.322816E-07,NaN,0.231194,-5.312841E-07,NaN,-0.8255753,2.277089E-05,-0.4192978,1.251477E-07,NaN,NaN,0.2396621,-4.377225E-10,8.679826E-07,-1.099004E-07,-2.346369E-08,-2.861022E-08
828.2706,-0.9855623,1.255061E-09,NaN,-0.9294253,-1.322807E-07,NaN,0.2347968,-5.311044E-07,NaN,-0.8234563,2.277127E-05,-0.4167542,1.249693E-07,NaN,NaN,0.2353431,-4.470357E-10,8.381803E-07,-1.098982E-07,-2.346369E-08,-2.622604E-08
828.2862,-0.9847057,1.255704E-09,NaN,-0.9277368,-1.322799E-07,NaN,0.2384834,-5.309254E-07,NaN,-0.8215026,2.277163E-05,-0.4144443,1.247915E-07,NaN,NaN,0.2311092,-4.470357E-10,8.143384E-07,-1.09896E-07,-2.22716E-08,-2.861022E-08
828.3008,-0.9839675,1.256348E-09,NaN,-0.9261452,-1.32279E-07,NaN,0.2421146,-5.307469E-07,NaN,-0.8196625,2.277201E-05,-0.4122247,1.246144E-07,NaN,NaN,0.2269584,-4.563489E-10,7.934768E-07,-1.098938E-07,-1.988742E-08,-2.622604E-08
828.3154,-0.9839675,1.256348E-09,NaN,-0.9261452,-1.32279E-07,NaN,0.2421146,-5.307469E-07,NaN,-0.8196625,2.277201E-05,-0.4122247,1.246144E-07,NaN,NaN,0.2269584,-4.563489E-10,7.934768E-07,-1.098938E-07,-1.988742E-08,-2.622604E-08
828.3293,-0.9833006,1.256992E-09,NaN,-0.9246189,-1.322781E-07,NaN,0.245657,-5.305691E-07,NaN,-0.8179062,2.277238E-05,-0.410044,1.244379E-07,NaN,NaN,0.222889,-4.563489E-10,7.690389E-07,-1.098917E-07,-1.988742E-08,-2.861022E-08
828.3459,-0.9829491,1.257635E-09,NaN,-0.9233116,-1.322772E-07,NaN,0.2497193,-5.30392E-07,NaN,-0.8161849,2.277275E-05,-0.4084197,1.24262E-07,NaN,NaN,0.2187193,-4.656621E-10,7.410247E-07,-1.098895E-07,-1.750323E-08,-2.622604E-08
828.3594,-0.9829491,1.257635E-09,NaN,-0.9233116,-1.322772E-07,NaN,0.2497193,-5.30392E-07,NaN,-0.8161849,2.277275E-05,-0.4084197,1.24262E-07,NaN,NaN,0.2187193,-4.656621E-10,7.410247E-07,-1.098895E-07,-1.750323E-08,-2.622604E-08
828.3737,-0.9827802,1.258279E-09,NaN,-0.9221418,-1.322764E-07,NaN,0.2538641,-5.302153E-07,NaN,-0.814616,2.277313E-05,-0.4070114,1.240867E-07,NaN,NaN,0.2146318,-4.749753E-10,7.177788E-07,-1.098873E-07,-1.571509E-08,-2.861022E-08
828.3889,-0.9827169,1.258922E-09,NaN,-0.9210606,-1.322755E-07,NaN,0.2579519,-5.300365E-07,NaN,-0.8131508,2.27735E-05,-0.405679,1.239091E-07,NaN,NaN,0.2106245,-4.749753E-10,6.981093E-07,-1.098852E-07,-1.273486E-08,-2.622604E-08
828.4033,-0.982715,1.259565E-09,NaN,-0.9200379,-1.322746E-07,NaN,0.2619475,-5.298583E-07,NaN,-0.8117616,2.277387E-05,-0.4043719,1.237322E-07,NaN,NaN,0.2066958,-4.749753E-10,6.802279E-07,-1.09883E-07,-1.213881E-08,-2.861022E-08
828.4183,-0.982715,1.259565E-09,NaN,-0.9200379,-1.322746E-07,NaN,0.2619475,-5.298583E-07,NaN,-0.8117616,2.277387E-05,-0.4043719,1.237322E-07,NaN,NaN,0.2066958,-4.749753E-10,6.802279E-07,-1.09883E-07,-1.213881E-08,-2.861022E-08
828.4319,-0.983018,1.260208E-09,NaN,-0.9192281,-1.322738E-07,NaN,0.2664607,-5.296807E-07,NaN,-0.8104026,2.277423E-05,-0.4036137,1.235559E-07,NaN,NaN,0.202664,-4.749753E-10,6.5579E-07,-1.098809E-07,-1.273486E-08,-2.622604E-08
828.4473,-0.9834962,1.260851E-09,NaN,-0.9185541,-1.322729E-07,NaN,0.2710514,-5.295037E-07,NaN,-0.8091912,2.27746E-05,-0.4030596,1.233802E-07,NaN,NaN,0.1987117,-4.749753E-10,6.408889E-07,-1.098788E-07,-1.154277E-08,-2.861022E-08
828.462,-0.9840738,1.261494E-09,NaN,-0.917967,-1.32272E-07,NaN,0.2755776,-5.293273E-07,NaN,-0.8080785,2.277497E-05,-0.4025667,1.232051E-07,NaN,NaN,0.1948371,-4.749753E-10,6.289679E-07,-1.098767E-07,-1.273486E-08,-2.622604E-08
828.4769,-0.9840738,1.261494E-09,NaN,-0.917967,-1.32272E-07,NaN,0.2755776,-5.293273E-07,NaN,-0.8080785,2.277497E-05,-0.4025667,1.232051E-07,NaN,NaN,0.1948371,-4.749753E-10,6.289679E-07,-1.098767E-07,-1.273486E-08,-2.622604E-08
828.491,-0.9849765,1.262137E-09,NaN,-0.9176086,-1.322712E-07,NaN,0.2806161,-5.291515E-07,NaN,-0.8070089,2.277534E-05,-0.4026259,1.230305E-07,NaN,NaN,0.1908583,-4.749753E-10,6.081063E-07,-1.098746E-07,-1.094672E-08,-2.861022E-08
828.5064,-0.9860648,1.262779E-09,NaN,-0.9173924,-1.322703E-07,NaN,0.2857131,-5.289763E-07,NaN,-0.8060926,2.27757E-05,-0.4028723,1.228565E-07,NaN,NaN,0.186958,-4.749753E-10,5.920131E-07,-1.098725E-07,-1.035067E-08,-2.622604E-08
828.5209,-0.9872563,1.263422E-09,NaN,-0.917264,-1.322695E-07,NaN,0.2907264,-5.288016E-07,NaN,-0.8052769,2.277607E-05,-0.4031589,1.226831E-07,NaN,NaN,0.1831343,-4.749753E-10,5.794961E-07,-1.098704E-07,-1.035067E-08,-2.861022E-08
828.5359,-0.9872563,1.263422E-09,NaN,-0.917264,-1.322695E-07,NaN,0.2907264,-5.288016E-07,NaN,-0.8052769,2.277607E-05,-0.4031589,1.226831E-07,NaN,NaN,0.1831343,-4.749753E-10,5.794961E-07,-1.098704E-07,-1.035067E-08,-2.861022E-08
828.55,-0.9885023,1.264064E-09,NaN,-0.9171898,-1.322686E-07,NaN,0.2956223,-5.286274E-07,NaN,-0.8045323,2.277644E-05,-0.4034352,1.225103E-07,NaN,NaN,0.1793855,-4.749753E-10,5.65787E-07,-1.098683E-07,-1.094672E-08,-2.622604E-08
828.5654,-0.9900444,1.264706E-09,NaN,-0.9173195,-1.322678E-07,NaN,0.3010211,-5.284538E-07,NaN,-0.8038157,2.277681E-05,-0.4042377,1.223379E-07,NaN,NaN,0.1755303,-4.749753E-10,5.455215E-07,-1.098662E-07,-1.213881E-08,-2.861022E-08
828.58,-0.9900444,1.264706E-09,NaN,-0.9173195,-1.322678E-07,NaN,0.3010211,-5.284538E-07,NaN,-0.8038157,2.277681E-05,-0.4042377,1.223379E-07,NaN,NaN,0.1755303,-4.749753E-10,5.455215E-07,-1.098662E-07,-1.213881E-08,-2.861022E-08
828.596,-0.9917514,1.265348E-09,NaN,-0.9175736,-1.322669E-07,NaN,0.3064754,-5.282807E-07,NaN,-0.8032411,2.277717E-05,-0.4052102,1.221661E-07,NaN,NaN,0.171751,-4.749753E-10,5.330045E-07,-1.098641E-07,-1.035067E-08,-2.622604E-08
828.6104,-0.9935445,1.26599E-09,NaN,-0.9179016,-1.322661E-07,NaN,0.3118423,-5.281082E-07,NaN,-0.8027592,2.277754E-05,-0.4062088,1.219948E-07,NaN,NaN,0.1680459,-4.749753E-10,5.222756E-07,-1.09862E-07,-1.094672E-08,-2.861022E-08
828.6241,-0.9953778,1.266631E-09,NaN,-0.9182729,-1.322653E-07,NaN,0.3170875,-5.279361E-07,NaN,-0.8023423,2.277791E-05,-0.4071848,1.21824E-07,NaN,NaN,0.1644135,-4.749753E-10,5.151231E-07,-1.0986E-07,-9.754627E-09,-2.622604E-08
828.6388,-0.9953778,1.266631E-09,NaN,-0.9182729,-1.322653E-07,NaN,0.3170875,-5.279361E-07,NaN,-0.8023423,2.277791E-05,-0.4071848,1.21824E-07,NaN,NaN,0.1644135,-4.749753E-10,5.151231E-07,-1.0986E-07,-9.754627E-09,-2.622604E-08
828.6526,-0.997495,1.267273E-09,NaN,-0.9188411,-1.322644E-07,NaN,0.322836,-5.277645E-07,NaN,-0.8019516,2.277827E-05,-0.4086836,1.216537E-07,NaN,NaN,0.1606722,-4.749753E-10,4.978377E-07,-1.098579E-07,-7.370442E-09,-2.861022E-08
828.6694,-0.9997642,1.267915E-09,NaN,-0.919525,-1.322636E-07,NaN,0.3286301,-5.275934E-07,NaN,-0.8016996,2.277864E-05,-0.4103372,1.214839E-07,NaN,NaN,0.1570047,-4.749753E-10,4.853208E-07,-1.098559E-07,-6.178348E-09,-2.622604E-08
828.6826,-1.002109,1.268556E-09,NaN,-0.920275,-1.322627E-07,NaN,0.3343278,-5.274227E-07,NaN,-0.8015362,2.277901E-05,-0.4120014,1.213146E-07,NaN,NaN,0.1534093,-4.749753E-10,4.739959E-07,-1.098538E-07,-3.198116E-09,-2.861022E-08
828.6973,-1.002109,1.268556E-09,NaN,-0.920275,-1.322627E-07,NaN,0.3343278,-5.274227E-07,NaN,-0.8015362,2.277901E-05,-0.4120014,1.213146E-07,NaN,NaN,0.1534093,-4.749753E-10,4.739959E-07,-1.098538E-07,-3.198116E-09,-2.861022E-08
828.7113,-1.004754,1.269197E-09,NaN,-0.9212337,-1.322619E-07,NaN,0.3405225,-5.272526E-07,NaN,-0.801414,2.277938E-05,-0.4141906,1.211457E-07,NaN,NaN,0.1497043,-4.749753E-10,4.608829E-07,-1.098518E-07,-1.409977E-09,-2.622604E-08
828.7269,-1.007558,1.269838E-09,NaN,-0.9223122,-1.322611E-07,NaN,0.3467421,-5.270828E-07,NaN,-0.8014374,2.277974E-05,-0.4165175,1.209773E-07,NaN,NaN,0.1460724,-4.749753E-10,4.489619E-07,-1.098498E-07,-2.178843E-10,-2.861022E-08
828.7414,-1.010437,1.270479E-09,NaN,-0.9234567,-1.322603E-07,NaN,0.3528453,-5.269135E-07,NaN,-0.8015522,2.278011E-05,-0.4188352,1.208093E-07,NaN,NaN,0.1425118,-4.749753E-10,4.418094E-07,-1.098478E-07,-2.178843E-10,-2.622604E-08
828.7563,-1.010437,1.270479E-09,NaN,-0.9234567,-1.322603E-07,NaN,0.3528453,-5.269135E-07,NaN,-0.8015522,2.278011E-05,-0.4188352,1.208093E-07,NaN,NaN,0.1425118,-4.749753E-10,4.418094E-07,-1.098478E-07,-2.178843E-10,-2.622604E-08
828.7703,-1.013343,1.27112E-09,NaN,-0.924635,-1.322594E-07,NaN,0.3588029,-5.267447E-07,NaN,-0.8017279,2.278048E-05,-0.421098,1.206418E-07,NaN,NaN,0.139021,-4.749753E-10,4.376371E-07,-1.098458E-07,3.781622E-10,-2.861022E-08
828.7858,-1.016521,1.27176E-09,NaN,-0.9260008,-1.322586E-07,NaN,0.3652535,-5.265763E-07,NaN,-0.8019317,2.278085E-05,-0.4238677,1.204747E-07,NaN,NaN,0.1354187,-4.749753E-10,4.23928E-07,-1.098438E-07,1.570255E-09,-2.622604E-08
828.8004,-1.019835,1.272401E-09,NaN,-0.9274706,-1.322578E-07,NaN,0.3717268,-5.264084E-07,NaN,-0.8022704,2.278121E-05,-0.426761,1.20308E-07,NaN,NaN,0.1318873,-4.749753E-10,4.179675E-07,-1.098418E-07,9.742086E-10,-2.861022E-08
828.8152,-1.019835,1.272401E-09,NaN,-0.9274706,-1.322578E-07,NaN,0.3717268,-5.264084E-07,NaN,-0.8022704,2.278121E-05,-0.426761,1.20308E-07,NaN,NaN,0.1318873,-4.749753E-10,4.179675E-07,-1.098418E-07,9.742086E-10,-2.861022E-08
828.8293,-1.02321,1.273041E-09,NaN,-0.9289947,-1.32257E-07,NaN,0.3780825,-5.262408E-07,NaN,-0.8026916,2.278158E-05,-0.4296342,1.201417E-07,NaN,NaN,0.1284254,-4.749753E-10,4.137952E-07,-1.098398E-07,1.570255E-09,-2.622604E-08
828.8445,-1.0266,1.273682E-09,NaN,-0.9305437,-1.322562E-07,NaN,0.384291,-5.260736E-07,NaN,-0.803167,2.278195E-05,-0.4324435,1.199758E-07,NaN,NaN,0.1250313,-4.749753E-10,4.078347E-07,-1.098378E-07,-8.139307E-10,-2.861022E-08
828.8613,-1.030254,1.274322E-09,NaN,-0.932273,-1.322554E-07,NaN,0.3909954,-5.259068E-07,NaN,-0.8036696,2.278232E-05,-0.4357579,1.198104E-07,NaN,NaN,0.1215237,-4.749753E-10,3.959138E-07,-1.098358E-07,-1.409977E-09,-2.622604E-08
828.8749,-1.030254,1.274322E-09,NaN,-0.932273,-1.322554E-07,NaN,0.3909954,-5.259068E-07,NaN,-0.8036696,2.278232E-05,-0.4357579,1.198104E-07,NaN,NaN,0.1215237,-4.749753E-10,3.959138E-07,-1.098358E-07,-1.409977E-09,-2.622604E-08
828.8892,-1.034036,1.274962E-09,NaN,-0.9340994,-1.322546E-07,NaN,0.3977152,-5.257405E-07,NaN,-0.8043032,2.278268E-05,-0.4391837,1.196453E-07,NaN,NaN,0.1180854,-4.749753E-10,3.887613E-07,-1.098338E-07,-2.178843E-10,-2.861022E-08
828.9035,-1.03787,1.275602E-09,NaN,-0.9359739,-1.322537E-07,NaN,0.4043099,-5.255745E-07,NaN,-0.805015,2.278305E-05,-0.4425768,1.194806E-07,NaN,NaN,0.1147145,-4.749753E-10,3.828008E-07,-1.098319E-07,-2.178843E-10,-2.622604E-08
828.918,-1.03787,1.275602E-09,NaN,-0.9359739,-1.322537E-07,NaN,0.4043099,-5.255745E-07,NaN,-0.805015,2.278305E-05,-0.4425768,1.194806E-07,NaN,NaN,0.1147145,-4.749753E-10,3.828008E-07,-1.098319E-07,-2.178843E-10,-2.622604E-08
828.9318,-1.041986,1.276241E-09,NaN,-0.9380405,-1.322529E-07,NaN,0.4113929,-5.254089E-07,NaN,-0.8057703,2.278342E-05,-0.4464757,1.193163E-07,NaN,NaN,0.1112297,-4.749753E-10,3.738601E-07,-1.098299E-07,-2.178843E-10,-2.861022E-08
828.9472,-1.046238,1.276881E-09,NaN,-0.9402084,-1.322521E-07,NaN,0.4184698,-5.252436E-07,NaN,-0.8066635,2.278379E-05,-0.4504685,1.191523E-07,NaN,NaN,0.1078137,-4.749753E-10,3.714759E-07,-1.09828E-07,-3.198116E-09,-2.622604E-08
828.9616,-1.050542,1.277521E-09,NaN,-0.9424246,-1.322513E-07,NaN,0.4254022,-5.250787E-07,NaN,-0.8076374,2.278415E-05,-0.4544094,1.189887E-07,NaN,NaN,0.1044648,-4.749753E-10,3.708799E-07,-1.09826E-07,-2.60207E-09,-2.861022E-08
828.9764,-1.050542,1.277521E-09,NaN,-0.9424246,-1.322513E-07,NaN,0.4254022,-5.250787E-07,NaN,-0.8076374,2.278415E-05,-0.4544094,1.189887E-07,NaN,NaN,0.1044648,-4.749753E-10,3.708799E-07,-1.09826E-07,-2.60207E-09,-2.861022E-08
828.9904,-1.054853,1.27816E-09,NaN,-0.9446586,-1.322505E-07,NaN,0.4321657,-5.249142E-07,NaN,-0.8086612,2.278452E-05,-0.4582578,1.188255E-07,NaN,NaN,0.1011816,-4.749753E-10,3.661115E-07,-1.098241E-07,-3.794163E-09,-2.622604E-08
829.0061,-1.059419,1.278799E-09,NaN,-0.9470654,-1.322498E-07,NaN,0.4394173,-5.2475E-07,NaN,-0.8097168,2.278489E-05,-0.4625991,1.186626E-07,NaN,NaN,0.09778263,-4.749753E-10,3.577669E-07,-1.098222E-07,-1.409977E-09,-2.861022E-08
829.0208,-1.064101,1.279438E-09,NaN,-0.9495598,-1.32249E-07,NaN,0.4466622,-5.245862E-07,NaN,-0.8108995,2.278526E-05,-0.4670233,1.185E-07,NaN,NaN,0.09445079,-4.749753E-10,3.571708E-07,-1.098203E-07,-4.986256E-09,-2.622604E-08
829.0354,-1.064101,1.279438E-09,NaN,-0.9495598,-1.32249E-07,NaN,0.4466622,-5.245862E-07,NaN,-0.8108995,2.278526E-05,-0.4670233,1.185E-07,NaN,NaN,0.09445079,-4.749753E-10,3.571708E-07,-1.098203E-07,-4.986256E-09,-2.622604E-08
829.0494,-1.068823,1.280077E-09,NaN,-0.9520926,-1.322482E-07,NaN,0.4537627,-5.244227E-07,NaN,-0.8121544,2.278562E-05,-0.471387,1.183378E-07,NaN,NaN,0.09118441,-4.749753E-10,3.562767E-07,-1.098184E-07,-1.409977E-09,-2.861022E-08
829.0647,-1.073543,1.280716E-09,NaN,-0.9546358,-1.322474E-07,NaN,0.4606936,-5.242623E-07,NaN,-0.8134525,2.278599E-05,-0.4756512,1.181787E-07,NaN,NaN,0.08798208,-4.749753E-10,3.547866E-07,-1.098164E-07,9.742085E-10,-2.622604E-08
829.0796,-1.073543,1.280716E-09,NaN,-0.9546358,-1.322474E-07,NaN,0.4606936,-5.242623E-07,NaN,-0.8134525,2.278599E-05,-0.4756512,1.181787E-07,NaN,NaN,0.08798208,-4.749753E-10,3.547866E-07,-1.098164E-07,9.742085E-10,-2.622604E-08
829.0936,-1.07851,1.281355E-09,NaN,-0.9573461,-1.322466E-07,NaN,0.4681167,-5.241022E-07,NaN,-0.8147829,2.278636E-05,-0.4804083,1.180199E-07,NaN,NaN,0.08466246,-4.749753E-10,3.452499E-07,-1.098146E-07,3.781621E-10,-2.861022E-08
829.1089,-1.083588,1.281994E-09,NaN,-0.9601384,-1.322458E-07,NaN,0.4755261,-5.239423E-07,NaN,-0.8162367,2.278673E-05,-0.4852371,1.178614E-07,NaN,NaN,0.0814084,-4.749753E-10,3.419716E-07,-1.098127E-07,1.570255E-09,-2.622604E-08
829.1235,-1.0887,1.282633E-09,NaN,-0.9629639,-1.32245E-07,NaN,0.4827845,-5.237827E-07,NaN,-0.8177582,2.278709E-05,-0.4899942,1.177031E-07,NaN,NaN,0.07821826,-4.749753E-10,3.392894E-07,-1.098108E-07,1.570255E-09,-2.861022E-08
829.1395,-1.0887,1.282633E-09,NaN,-0.9629639,-1.32245E-07,NaN,0.4827845,-5.237827E-07,NaN,-0.8177582,2.278709E-05,-0.4899942,1.177031E-07,NaN,NaN,0.07821826,-4.749753E-10,3.392894E-07,-1.098108E-07,1.570255E-09,-2.861022E-08
829.1537,-1.094078,1.283271E-09,NaN,-0.9659683,-1.322442E-07,NaN,0.4905257,-5.236234E-07,NaN,-0.8193291,2.278747E-05,-0.4952432,1.17545E-07,NaN,NaN,0.0749106,-4.842886E-10,3.297527E-07,-1.098089E-07,3.358394E-09,-2.622604E-08
829.1678,-1.099574,1.28391E-09,NaN,-0.9690586,-1.322435E-07,NaN,0.4982312,-5.234643E-07,NaN,-0.8210296,2.278784E-05,-0.5005457,1.173872E-07,NaN,NaN,0.07166828,-4.842886E-10,3.273685E-07,-1.09807E-07,5.146533E-09,-2.861022E-08
829.1824,-1.105103,1.284548E-09,NaN,-0.9721828,-1.322427E-07,NaN,0.505767,-5.233054E-07,NaN,-0.8227998,2.278821E-05,-0.5057582,1.172296E-07,NaN,NaN,0.06848966,-4.936018E-10,3.288586E-07,-1.098051E-07,3.358394E-09,-2.622604E-08
829.197,-1.105103,1.284548E-09,NaN,-0.9721828,-1.322427E-07,NaN,0.505767,-5.233054E-07,NaN,-0.8227998,2.278821E-05,-0.5057582,1.172296E-07,NaN,NaN,0.06848966,-4.936018E-10,3.288586E-07,-1.098051E-07,3.358394E-09,-2.622604E-08
829.2108,-1.110622,1.285186E-09,NaN,-0.9753114,-1.322419E-07,NaN,0.5131139,-5.231468E-07,NaN,-0.8246085,2.278858E-05,-0.510846,1.170723E-07,NaN,NaN,0.06537335,-4.936018E-10,3.285606E-07,-1.098033E-07,2.762348E-09,-2.861022E-08
829.2263,-1.116384,1.285825E-09,NaN,-0.9786012,-1.322411E-07,NaN,0.5209472,-5.229883E-07,NaN,-0.8264561,2.278895E-05,-0.5164174,1.169152E-07,NaN,NaN,0.06213806,-4.936018E-10,3.220041E-07,-1.098014E-07,1.570255E-09,-2.622604E-08
829.2408,-1.122245,1.286463E-09,NaN,-0.9819648,-1.322404E-07,NaN,0.5287457,-5.228301E-07,NaN,-0.8284227,2.278932E-05,-0.5220339,1.167583E-07,NaN,NaN,0.05896669,-4.936018E-10,3.231962E-07,-1.097996E-07,3.781619E-10,-2.861022E-08
829.2556,-1.122245,1.286463E-09,NaN,-0.9819648,-1.322404E-07,NaN,0.5287457,-5.228301E-07,NaN,-0.8284227,2.278932E-05,-0.5220339,1.167583E-07,NaN,NaN,0.05896669,-4.936018E-10,3.231962E-07,-1.097996E-07,3.781619E-10,-2.861022E-08
829.2696,-1.128129,1.287101E-09,NaN,-0.9853536,-1.322396E-07,NaN,0.5363757,-5.226722E-07,NaN,-0.8304504,2.278968E-05,-0.5275539,1.166017E-07,NaN,NaN,0.05585761,-4.936018E-10,3.243883E-07,-1.097977E-07,-2.60207E-09,-2.622604E-08
829.2851,-1.133994,1.287738E-09,NaN,-0.9887407,-1.322388E-07,NaN,0.5438174,-5.225144E-07,NaN,-0.8325099,2.279005E-05,-0.5329438,1.164452E-07,NaN,NaN,0.05280952,-4.936018E-10,3.231962E-07,-1.097959E-07,-2.006024E-09,-2.861022E-08
829.2996,-1.133994,1.287738E-09,NaN,-0.9887407,-1.322388E-07,NaN,0.5438174,-5.225144E-07,NaN,-0.8325099,2.279005E-05,-0.5329438,1.164452E-07,NaN,NaN,0.05280952,-4.936018E-10,3.231962E-07,-1.097959E-07,-2.006024E-09,-2.861022E-08
829.3135,-1.140098,1.288376E-09,NaN,-0.9922844,-1.322381E-07,NaN,0.5517503,-5.223598E-07,NaN,-0.8346102,2.279042E-05,-0.538819,1.162918E-07,NaN,NaN,0.04964107,-4.936018E-10,3.133614E-07,-1.097941E-07,-4.986256E-09,-2.622604E-08
829.3289,-1.146295,1.289013E-09,NaN,-0.9958972,-1.322373E-07,NaN,0.5596417,-5.222052E-07,NaN,-0.8368256,2.279079E-05,-0.5447288,1.161386E-07,NaN,NaN,0.04653526,-4.936018E-10,3.124673E-07,-1.097923E-07,-6.178348E-09,-2.861022E-08
829.3437,-1.15251,1.289651E-09,NaN,-0.999531,-1.322366E-07,NaN,0.5673591,-5.220508E-07,NaN,-0.8390975,2.279115E-05,-0.5505323,1.159855E-07,NaN,NaN,0.04349046,-4.936018E-10,3.118713E-07,-1.097905E-07,-9.754627E-09,-2.622604E-08
829.3582,-1.15251,1.289651E-09,NaN,-0.999531,-1.322366E-07,NaN,0.5673591,-5.220508E-07,NaN,-0.8390975,2.279115E-05,-0.5505323,1.159855E-07,NaN,NaN,0.04349046,-4.936018E-10,3.118713E-07,-1.097905E-07,-9.754627E-09,-2.622604E-08
829.3725,-1.158981,1.290288E-09,NaN,-1.003332,-1.322358E-07,NaN,0.5755568,-5.218966E-07,NaN,-0.8414273,2.279152E-05,-0.556818,1.158325E-07,NaN,NaN,0.04032527,-4.936018E-10,3.047187E-07,-1.097887E-07,-9.158581E-09,-2.861022E-08
829.3877,-1.165553,1.290925E-09,NaN,-1.007207,-1.32235E-07,NaN,0.5836907,-5.217425E-07,NaN,-0.8438779,2.279189E-05,-0.5631196,1.156797E-07,NaN,NaN,0.03722265,-4.936018E-10,3.035266E-07,-1.097868E-07,-9.754627E-09,-2.622604E-08
829.4044,-1.172143,1.291562E-09,NaN,-1.011103,-1.322343E-07,NaN,0.591633,-5.215886E-07,NaN,-0.846386,2.279226E-05,-0.5692976,1.155271E-07,NaN,NaN,0.03418097,-4.936018E-10,3.023345E-07,-1.09785E-07,-1.154277E-08,-2.861022E-08
829.4182,-1.172143,1.291562E-09,NaN,-1.011103,-1.322343E-07,NaN,0.591633,-5.215886E-07,NaN,-0.846386,2.279226E-05,-0.5692976,1.155271E-07,NaN,NaN,0.03418097,-4.936018E-10,3.023345E-07,-1.09785E-07,-1.154277E-08,-2.861022E-08
829.4319,-1.178706,1.292199E-09,NaN,-1.014992,-1.322335E-07,NaN,0.5993702,-5.214347E-07,NaN,-0.8489205,2.279262E-05,-0.5753237,1.153746E-07,NaN,NaN,0.03119894,-4.936018E-10,2.996523E-07,-1.097833E-07,-9.754627E-09,-2.622604E-08
829.4464,-1.185504,1.292835E-09,NaN,-1.019033,-1.322328E-07,NaN,0.6075945,-5.21281E-07,NaN,-0.8515036,2.279299E-05,-0.5818288,1.152222E-07,NaN,NaN,0.02809526,-4.936018E-10,2.916057E-07,-1.097815E-07,-1.273486E-08,-2.861022E-08
829.4607,-1.192387,1.293472E-09,NaN,-1.023136,-1.32232E-07,NaN,0.6157572,-5.211275E-07,NaN,-0.8541969,2.279336E-05,-0.5883432,1.150699E-07,NaN,NaN,0.02505294,-4.936018E-10,2.922018E-07,-1.097797E-07,-1.273486E-08,-2.622604E-08
829.4753,-1.192387,1.293472E-09,NaN,-1.023136,-1.32232E-07,NaN,0.6157572,-5.211275E-07,NaN,-0.8541969,2.279336E-05,-0.5883432,1.150699E-07,NaN,NaN,0.02505294,-4.936018E-10,2.922018E-07,-1.097797E-07,-1.273486E-08,-2.622604E-08
829.4896,-1.199278,1.294108E-09,NaN,-1.027253,-1.322313E-07,NaN,0.6237309,-5.209741E-07,NaN,-0.8569393,2.279373E-05,-0.5947294,1.149178E-07,NaN,NaN,0.02207039,-4.936018E-10,2.904136E-07,-1.097779E-07,-1.273486E-08,-2.861022E-08
829.5048,-1.206135,1.294745E-09,NaN,-1.031358,-1.322306E-07,NaN,0.6315013,-5.208236E-07,NaN,-0.8597015,2.279409E-05,-0.6009603,1.147686E-07,NaN,NaN,0.01914632,-4.936018E-10,2.868373E-07,-1.097762E-07,-1.154277E-08,-2.622604E-08
829.5195,-1.206135,1.294745E-09,NaN,-1.031358,-1.322306E-07,NaN,0.6315013,-5.208236E-07,NaN,-0.8597015,2.279409E-05,-0.6009603,1.147686E-07,NaN,NaN,0.01914632,-4.936018E-10,2.868373E-07,-1.097762E-07,-1.154277E-08,-2.622604E-08
829.5336,-1.213223,1.295381E-09,NaN,-1.035611,-1.322298E-07,NaN,0.639764,-5.206732E-07,NaN,-0.8625152,2.279446E-05,-0.607673,1.146195E-07,NaN,NaN,0.01609947,-4.936018E-10,2.761085E-07,-1.097744E-07,-9.158581E-09,-2.861022E-08
829.5489,-1.220391,1.296017E-09,NaN,-1.039923,-1.322291E-07,NaN,0.6479588,-5.205229E-07,NaN,-0.8654348,2.279483E-05,-0.6143854,1.144705E-07,NaN,NaN,0.01311288,-4.936018E-10,2.740224E-07,-1.097727E-07,-9.158581E-09,-2.622604E-08
829.5634,-1.227562,1.296653E-09,NaN,-1.044244,-1.322283E-07,NaN,0.6559603,-5.203726E-07,NaN,-0.8683987,2.27952E-05,-0.6209611,1.143215E-07,NaN,NaN,0.01018496,-5.02915E-10,2.722342E-07,-1.097709E-07,-6.774396E-09,-2.861022E-08
829.5781,-1.227562,1.296653E-09,NaN,-1.044244,-1.322283E-07,NaN,0.6559603,-5.203726E-07,NaN,-0.8683987,2.27952E-05,-0.6209611,1.143215E-07,NaN,NaN,0.01018496,-5.02915E-10,2.722342E-07,-1.097709E-07,-6.774396E-09,-2.861022E-08
829.5922,-1.234981,1.297289E-09,NaN,-1.048724,-1.322276E-07,NaN,0.6644415,-5.202224E-07,NaN,-0.8714311,2.279557E-05,-0.6280139,1.141726E-07,NaN,NaN,0.007134357,-5.02915E-10,2.629955E-07,-1.097692E-07,-4.39021E-09,-2.622604E-08
829.6075,-1.242487,1.297925E-09,NaN,-1.053266,-1.322269E-07,NaN,0.6728328,-5.200723E-07,NaN,-0.8745739,2.279594E-05,-0.6350473,1.140238E-07,NaN,NaN,0.004144075,-5.02915E-10,2.606113E-07,-1.097674E-07,-2.006024E-09,-2.861022E-08
829.6224,-1.249996,1.298561E-09,NaN,-1.057819,-1.322261E-07,NaN,0.6810146,-5.199223E-07,NaN,-0.8777612,2.279631E-05,-0.6419281,1.13875E-07,NaN,NaN,0.001212521,-5.02915E-10,2.603133E-07,-1.097657E-07,-8.139314E-10,-2.622604E-08
829.6387,-1.249996,1.298561E-09,NaN,-1.057819,-1.322261E-07,NaN,0.6810146,-5.199223E-07,NaN,-0.8777612,2.279631E-05,-0.6419281,1.13875E-07,NaN,NaN,0.001212521,-5.02915E-10,2.603133E-07,-1.097657E-07,-8.139314E-10,-2.622604E-08
829.651,-1.257465,1.299197E-09,NaN,-1.062356,-1.322254E-07,NaN,0.6889794,-5.197751E-07,NaN,-0.8809621,2.279667E-05,-0.6486357,1.137291E-07,NaN,NaN,-0.001661559,-5.02915E-10,2.600152E-07,-1.09764E-07,1.570254E-09,-2.861022E-08
829.6663,-1.265162,1.299832E-09,NaN,-1.067037,-1.322247E-07,NaN,0.6974333,-5.196279E-07,NaN,-0.8842232,2.279704E-05,-0.6558218,1.135832E-07,NaN,NaN,-0.004659391,-5.02915E-10,2.507765E-07,-1.097623E-07,3.95444E-09,-2.622604E-08
829.6829,-1.272931,1.300468E-09,NaN,-1.071769,-1.32224E-07,NaN,0.7058005,-5.194807E-07,NaN,-0.8875843,2.279741E-05,-0.6629835,1.134373E-07,NaN,NaN,-0.007597932,-5.02915E-10,2.477963E-07,-1.097606E-07,3.95444E-09,-2.861022E-08
829.6964,-1.272931,1.300468E-09,NaN,-1.071769,-1.32224E-07,NaN,0.7058005,-5.194807E-07,NaN,-0.8875843,2.279741E-05,-0.6629835,1.134373E-07,NaN,NaN,-0.007597932,-5.02915E-10,2.477963E-07,-1.097606E-07,3.95444E-09,-2.861022E-08
829.7104,-1.280694,1.301103E-09,NaN,-1.076506,-1.322232E-07,NaN,0.7139621,-5.193336E-07,NaN,-0.8909816,2.279778E-05,-0.6699899,1.132914E-07,NaN,NaN,-0.01047876,-5.02915E-10,2.486903E-07,-1.097589E-07,1.570255E-09,-2.622604E-08
829.7248,-1.28841,1.301738E-09,NaN,-1.081223,-1.322225E-07,NaN,0.7219096,-5.191864E-07,NaN,-0.8943857,2.279814E-05,-0.6768213,1.131456E-07,NaN,NaN,-0.01330311,-5.02915E-10,2.480943E-07,-1.097572E-07,3.781617E-10,-2.861022E-08
829.7396,-1.28841,1.301738E-09,NaN,-1.081223,-1.322225E-07,NaN,0.7219096,-5.191864E-07,NaN,-0.8943857,2.279814E-05,-0.6768213,1.131456E-07,NaN,NaN,-0.01330311,-5.02915E-10,2.480943E-07,-1.097572E-07,3.781617E-10,-2.861022E-08
829.7532,-1.296352,1.302374E-09,NaN,-1.086081,-1.322218E-07,NaN,0.7303514,-5.190392E-07,NaN,-0.8978537,2.279851E-05,-0.6841356,1.129997E-07,NaN,NaN,-0.01625217,-5.02915E-10,2.400477E-07,-1.097555E-07,3.781617E-10,-2.622604E-08
829.7684,-1.304362,1.303008E-09,NaN,-1.090987,-1.322211E-07,NaN,0.7387009,-5.188949E-07,NaN,-0.9014174,2.279888E-05,-0.6914159,1.128567E-07,NaN,NaN,-0.01914289,-5.02915E-10,2.394516E-07,-1.097538E-07,-8.139311E-10,-2.861022E-08
829.7831,-1.312361,1.303643E-09,NaN,-1.095895,-1.322204E-07,NaN,0.746842,-5.187505E-07,NaN,-0.905012,2.279925E-05,-0.6985344,1.127136E-07,NaN,NaN,-0.02197685,-5.02915E-10,2.373654E-07,-1.097521E-07,-2.006024E-09,-2.622604E-08
829.7977,-1.312361,1.303643E-09,NaN,-1.095895,-1.322204E-07,NaN,0.746842,-5.187505E-07,NaN,-0.905012,2.279925E-05,-0.6985344,1.127136E-07,NaN,NaN,-0.02197685,-5.02915E-10,2.373654E-07,-1.097521E-07,-2.006024E-09,-2.622604E-08
829.8115,-1.320603,1.304278E-09,NaN,-1.100954,-1.322197E-07,NaN,0.7554634,-5.186061E-07,NaN,-0.9086869,2.279961E-05,-0.7061296,1.125704E-07,NaN,NaN,-0.02493532,-5.02915E-10,2.293188E-07,-1.097505E-07,-3.198117E-09,-2.861022E-08
829.8268,-1.328918,1.304913E-09,NaN,-1.106064,-1.322189E-07,NaN,0.7639712,-5.184616E-07,NaN,-0.9124607,2.279998E-05,-0.7136719,1.124272E-07,NaN,NaN,-0.02783529,-5.02915E-10,2.266366E-07,-1.097488E-07,-5.582303E-09,-2.622604E-08
829.8416,-1.337222,1.305548E-09,NaN,-1.111176,-1.322182E-07,NaN,0.772256,-5.183171E-07,NaN,-0.9162646,2.280035E-05,-0.7210382,1.12284E-07,NaN,NaN,-0.03067832,-5.02915E-10,2.257425E-07,-1.097471E-07,-4.39021E-09,-2.861022E-08
829.8563,-1.337222,1.305548E-09,NaN,-1.111176,-1.322182E-07,NaN,0.772256,-5.183171E-07,NaN,-0.9162646,2.280035E-05,-0.7210382,1.12284E-07,NaN,NaN,-0.03067832,-5.02915E-10,2.257425E-07,-1.097471E-07,-4.39021E-09,-2.861022E-08
829.8703,-1.345474,1.306182E-09,NaN,-1.116265,-1.322175E-07,NaN,0.7803161,-5.181725E-07,NaN,-0.9200683,2.280072E-05,-0.7282156,1.121407E-07,NaN,NaN,-0.03346562,-5.02915E-10,2.263386E-07,-1.097455E-07,-6.774396E-09,-2.622604E-08
829.8859,-1.353949,1.306816E-09,NaN,-1.121491,-1.322168E-07,NaN,0.7888677,-5.180307E-07,NaN,-0.9239451,2.280108E-05,-0.7358759,1.120002E-07,NaN,NaN,-0.03637834,-5.02915E-10,2.185899E-07,-1.097438E-07,-3.198117E-09,-2.861022E-08
829.9003,-1.362485,1.307451E-09,NaN,-1.126761,-1.322161E-07,NaN,0.7973095,-5.178889E-07,NaN,-0.9279107,2.280145E-05,-0.743479,1.118596E-07,NaN,NaN,-0.03923346,-5.02915E-10,2.168018E-07,-1.097422E-07,-4.39021E-09,-2.622604E-08
829.9151,-1.362485,1.307451E-09,NaN,-1.126761,-1.322161E-07,NaN,0.7973095,-5.178889E-07,NaN,-0.9279107,2.280145E-05,-0.743479,1.118596E-07,NaN,NaN,-0.03923346,-5.02915E-10,2.168018E-07,-1.097422E-07,-4.39021E-09,-2.622604E-08
829.929,-1.371002,1.308085E-09,NaN,-1.132026,-1.322154E-07,NaN,0.8055335,-5.177469E-07,NaN,-0.9318982,2.280182E-05,-0.750905,1.117189E-07,NaN,NaN,-0.04203254,-5.02915E-10,2.141196E-07,-1.097405E-07,-2.006024E-09,-2.861022E-08
829.9442,-1.37946,1.308719E-09,NaN,-1.137265,-1.322147E-07,NaN,0.813537,-5.176047E-07,NaN,-0.9358792,2.280219E-05,-0.7581422,1.115781E-07,NaN,NaN,-0.04477674,-5.02915E-10,2.135235E-07,-1.097389E-07,-4.39021E-09,-2.622604E-08
829.9614,-1.388141,1.309353E-09,NaN,-1.142639,-1.32214E-07,NaN,0.8220366,-5.174626E-07,NaN,-0.9399374,2.280255E-05,-0.7658678,1.114372E-07,NaN,NaN,-0.04764716,-5.02915E-10,2.072651E-07,-1.097373E-07,-5.582303E-09,-2.861022E-08
829.9745,-1.388141,1.309353E-09,NaN,-1.142639,-1.32214E-07,NaN,0.8220366,-5.174626E-07,NaN,-0.9399374,2.280255E-05,-0.7658678,1.114372E-07,NaN,NaN,-0.04764716,-5.02915E-10,2.072651E-07,-1.097373E-07,-5.582303E-09,-2.861022E-08
829.9886,-1.396878,1.309987E-09,NaN,-1.148053,-1.322133E-07,NaN,0.8304215,-5.173231E-07,NaN,-0.9440796,2.280292E-05,-0.7735268,1.112991E-07,NaN,NaN,-0.05046085,-5.02915E-10,2.036888E-07,-1.097357E-07,-5.582303E-09,-2.622604E-08
830.0029,-1.405591,1.31062E-09,NaN,-1.153462,-1.322126E-07,NaN,0.8385875,-5.171835E-07,NaN,-0.9482385,2.280329E-05,-0.7810041,1.111608E-07,NaN,NaN,-0.0532193,-5.02915E-10,2.019006E-07,-1.09734E-07,-5.582303E-09,-2.861022E-08
830.0176,-1.405591,1.31062E-09,NaN,-1.153462,-1.322126E-07,NaN,0.8385875,-5.171835E-07,NaN,-0.9482385,2.280329E-05,-0.7810041,1.111608E-07,NaN,NaN,-0.0532193,-5.02915E-10,2.019006E-07,-1.09734E-07,-5.582303E-09,-2.861022E-08
830.0313,-1.414544,1.311254E-09,NaN,-1.159014,-1.322119E-07,NaN,0.8472348,-5.170438E-07,NaN,-0.95249,2.280366E-05,-0.788963,1.110223E-07,NaN,NaN,-0.05610368,-5.02915E-10,1.93258E-07,-1.097324E-07,-4.39021E-09,-2.622604E-08
