JMolnar6/NonAnthroHands_User_Study/HandsLoggerWithURDF/tempdata/files/Reachy_PID0_JointMotion_gesture_12_4.csv
Time,r_shoulder,r_shoulder_x,r_upper_arm,r_forearm,r_wrist,r_wrist2hand,
760.482,-0.3444276,-0.3710995,0.1710248,-0.5388667,0.07829582,0.1525878
760.4989,-0.3444276,-0.3710995,0.1710248,-0.5388667,0.07829582,0.1525878
760.5123,-0.3441591,-0.3708851,0.1711539,-0.5387521,0.07818457,0.1525934
760.5267,-0.3438938,-0.3706732,0.1712819,-0.5386388,0.07807396,0.152599
760.5411,-0.3436315,-0.3704639,0.1714087,-0.5385269,0.07796401,0.1526044
760.5557,-0.3436315,-0.3704639,0.1714087,-0.5385269,0.07796401,0.1526044
760.5705,-0.3433723,-0.3702571,0.1715344,-0.5384162,0.07785469,0.1526098
760.585,-0.3431161,-0.3700528,0.1716588,-0.5383068,0.07774604,0.152615
760.5997,-0.3431161,-0.3700528,0.1716588,-0.5383068,0.07774604,0.152615
760.6138,-0.3428629,-0.3698509,0.1717821,-0.5381987,0.07763804,0.1526201
760.6283,-0.3426126,-0.3696514,0.1719043,-0.5380918,0.0775307,0.1526252
760.6428,-0.3423652,-0.3694543,0.1720252,-0.5379862,0.07742403,0.1526301
760.6575,-0.3423652,-0.3694543,0.1720252,-0.5379862,0.07742403,0.1526301
760.6722,-0.3421206,-0.3692595,0.1721451,-0.5378818,0.07731801,0.1526349
760.6869,-0.341879,-0.3690671,0.1722637,-0.5377786,0.07721266,0.1526396
760.7014,-0.3416401,-0.3688769,0.1723813,-0.5376766,0.07710797,0.1526443
760.7211,-0.3414039,-0.3686891,0.1724977,-0.5375758,0.07700396,0.1526488
760.7355,-0.3414039,-0.3686891,0.1724977,-0.5375758,0.07700396,0.1526488
760.7483,-0.3411705,-0.3685034,0.172613,-0.5374762,0.07690061,0.1526533
760.7626,-0.3409399,-0.36832,0.1727272,-0.5373777,0.07679792,0.1526576
760.7764,-0.3409399,-0.36832,0.1727272,-0.5373777,0.07679792,0.1526576
760.7903,-0.3407119,-0.3681388,0.1728403,-0.5372804,0.07669591,0.1526619
760.8057,-0.3404865,-0.3679597,0.1729523,-0.5371842,0.07659457,0.1526661
760.8203,-0.3402638,-0.3677828,0.1730632,-0.5370891,0.0764939,0.1526702
760.835,-0.3402638,-0.3677828,0.1730632,-0.5370891,0.0764939,0.1526702
760.8489,-0.3400436,-0.367608,0.173173,-0.5369951,0.0763939,0.1526743
760.8644,-0.339826,-0.3674352,0.1732817,-0.5369022,0.07629458,0.1526782
760.8788,-0.339826,-0.3674352,0.1732817,-0.5369022,0.07629458,0.1526782
760.8928,-0.3396109,-0.3672646,0.1733894,-0.5368105,0.07619593,0.1526821
760.908,-0.3393983,-0.3670959,0.173496,-0.5367197,0.07609795,0.1526859
760.9229,-0.3391882,-0.3669293,0.1736015,-0.53663,0.07600064,0.1526896
760.9373,-0.3391882,-0.3669293,0.1736015,-0.53663,0.07600064,0.1526896
760.9512,-0.3389805,-0.3667647,0.173706,-0.5365414,0.075904,0.1526933
760.9684,-0.3387752,-0.366602,0.1738094,-0.5364538,0.07580804,0.1526968
760.9828,-0.3385723,-0.3664413,0.1739118,-0.5363672,0.07571275,0.1527003
760.9995,-0.3385723,-0.3664413,0.1739118,-0.5363672,0.07571275,0.1527003
761.0134,-0.3383718,-0.3662825,0.1740132,-0.5362816,0.07561813,0.1527038
761.0281,-0.3381735,-0.3661256,0.1741136,-0.536197,0.07552417,0.1527071
761.0419,-0.3379776,-0.3659706,0.1742129,-0.5361134,0.07543089,0.1527105
761.0562,-0.3379776,-0.3659706,0.1742129,-0.5361134,0.07543089,0.1527105
761.0701,-0.337784,-0.3658174,0.1743112,-0.5360308,0.07533827,0.1527137
761.0853,-0.3375925,-0.3656661,0.1744086,-0.5359491,0.07524633,0.1527169
761.1,-0.3375925,-0.3656661,0.1744086,-0.5359491,0.07524633,0.1527169
761.1144,-0.3374034,-0.3655165,0.1745049,-0.5358684,0.07515505,0.15272
761.1295,-0.3372163,-0.3653688,0.1746002,-0.5357887,0.07506444,0.152723
761.1443,-0.3370315,-0.3652228,0.1746946,-0.5357098,0.07497448,0.152726
761.1586,-0.3370315,-0.3652228,0.1746946,-0.5357098,0.07497448,0.152726
761.1728,-0.3368488,-0.3650785,0.174788,-0.5356318,0.0748852,0.1527289
761.1882,-0.3366683,-0.364936,0.1748804,-0.5355548,0.07479657,0.1527318
761.2029,-0.3364898,-0.3647952,0.1749719,-0.5354787,0.0747086,0.1527346
761.2174,-0.3364898,-0.3647952,0.1749719,-0.5354787,0.0747086,0.1527346
761.2313,-0.3363134,-0.364656,0.1750624,-0.5354035,0.0746213,0.1527374
761.2467,-0.336139,-0.3645186,0.1751519,-0.5353291,0.07453465,0.1527401
761.2614,-0.3359666,-0.3643827,0.1752406,-0.5352556,0.07444866,0.1527427
761.2781,-0.3359666,-0.3643827,0.1752406,-0.5352556,0.07444866,0.1527427
761.2921,-0.3357963,-0.3642485,0.1753283,-0.535183,0.07436332,0.1527453
761.3055,-0.3356279,-0.3641159,0.1754151,-0.5351111,0.07427864,0.1527479
761.3201,-0.3354615,-0.3639848,0.1755009,-0.5350401,0.0741946,0.1527504
761.3348,-0.3354615,-0.3639848,0.1755009,-0.5350401,0.0741946,0.1527504
761.3488,-0.335297,-0.3638554,0.1755859,-0.53497,0.07411122,0.1527528
761.3642,-0.3351344,-0.3637275,0.1756699,-0.5349007,0.07402847,0.1527552
761.3788,-0.3351344,-0.3637275,0.1756699,-0.5349007,0.07402847,0.1527552
761.3928,-0.3349737,-0.3636011,0.1757531,-0.5348322,0.07394637,0.1527576
761.4084,-0.3348149,-0.3634762,0.1758354,-0.5347645,0.07386491,0.1527599
761.4228,-0.3346579,-0.3633528,0.1759168,-0.5346975,0.07378409,0.1527621
761.4376,-0.3346579,-0.3633528,0.1759168,-0.5346975,0.07378409,0.1527621
761.4517,-0.3345027,-0.3632309,0.1759973,-0.5346314,0.07370391,0.1527643
761.4671,-0.3343493,-0.3631104,0.176077,-0.534566,0.07362437,0.1527665
761.4814,-0.3341977,-0.3629914,0.1761558,-0.5345014,0.07354546,0.1527686
761.4962,-0.3341977,-0.3629914,0.1761558,-0.5345014,0.07354546,0.1527686
761.5118,-0.3338406,-0.3626745,0.1756732,-0.5341814,0.0741424,0.1524892
761.5262,-0.3333565,-0.3622374,0.1750652,-0.5338454,0.07498211,0.1522154
761.5428,-0.332795,-0.3617282,0.1744883,-0.5334924,0.07587525,0.151947
761.5563,-0.332795,-0.3617282,0.1744883,-0.5334924,0.07587525,0.151947
761.5705,-0.3321875,-0.3611771,0.1739809,-0.5331265,0.07675438,0.1516839
761.5847,-0.3317611,-0.360802,0.1741023,-0.5330085,0.07692425,0.1517074
761.5994,-0.3317611,-0.360802,0.1741023,-0.5330085,0.07692425,0.1517074
761.6133,-0.3314495,-0.3605367,0.1744019,-0.5329036,0.07681793,0.1517303
761.6287,-0.3312111,-0.3603401,0.17471,-0.5328162,0.0766281,0.1517527
761.6433,-0.3310195,-0.3601867,0.1749783,-0.5327439,0.0764264,0.1517747
761.6582,-0.3310195,-0.3601867,0.1749783,-0.5327439,0.0764264,0.1517747
761.6721,-0.3310637,-0.3602583,0.1757619,-0.5329398,0.07556152,0.1520777
761.6875,-0.3312557,-0.3604685,0.1766329,-0.533161,0.07447084,0.1523747
761.7022,-0.3315395,-0.360763,0.1774448,-0.5334058,0.07334128,0.1526658
761.7167,-0.3315395,-0.360763,0.1774448,-0.5334058,0.07334128,0.1526658
761.7309,-0.3320867,-0.3613073,0.1787287,-0.5339243,0.07156137,0.1532327
761.7462,-0.3327963,-0.3620026,0.1800544,-0.534471,0.06958264,0.1537884
761.7609,-0.3336045,-0.3627875,0.1812826,-0.535042,0.06759348,0.1543331
761.7755,-0.3336045,-0.3627875,0.1812826,-0.535042,0.06759348,0.1543331
761.7895,-0.3344709,-0.3636236,0.1823914,-0.5356291,0.06565557,0.1548672
761.8049,-0.3355771,-0.3646866,0.1839535,-0.5364817,0.06310841,0.1556724
761.8214,-0.3368283,-0.3658836,0.185554,-0.5373544,0.06038267,0.1564617
761.8352,-0.3368283,-0.3658836,0.185554,-0.5373544,0.06038267,0.1564617
761.8492,-0.3381644,-0.367157,0.1870551,-0.5382437,0.05766037,0.1572356
761.8635,-0.3395479,-0.3684713,0.1884337,-0.5391423,0.0550014,0.1579942
761.8782,-0.3395479,-0.3684713,0.1884337,-0.5391423,0.0550014,0.1579942
761.8922,-0.3411626,-0.3700038,0.190256,-0.540301,0.05174787,0.1590196
761.9077,-0.3429141,-0.3716623,0.1921091,-0.5414741,0.04832775,0.1600248
761.9224,-0.3447432,-0.3733899,0.1938539,-0.5426585,0.04492393,0.1610103
761.9373,-0.3447432,-0.3733899,0.1938539,-0.5426585,0.04492393,0.1610103
761.9511,-0.3468207,-0.3753509,0.1960157,-0.5441055,0.04092821,0.162258
761.9664,-0.3490433,-0.3774447,0.1981777,-0.5455675,0.03678154,0.1634812
761.9812,-0.3513465,-0.3796095,0.200203,-0.5470397,0.03267113,0.1646804
761.9958,-0.3513465,-0.3796095,0.200203,-0.5470397,0.03267113,0.1646804
762.0098,-0.35369,-0.3818074,0.2020729,-0.5485142,0.02865668,0.1658562
762.0253,-0.3562568,-0.3842146,0.2043466,-0.5502426,0.02408592,0.1672905
762.0399,-0.3562568,-0.3842146,0.2043466,-0.5502426,0.02408592,0.1672905
762.0538,-0.3589509,-0.3867375,0.2066242,-0.5519775,0.01937673,0.1686967
762.0693,-0.3617122,-0.3893186,0.2087685,-0.5537153,0.01471192,0.1700753
762.086,-0.3645036,-0.3919231,0.2107581,-0.5554487,0.0101506,0.1714269
762.0992,-0.3645036,-0.3919231,0.2107581,-0.5554487,0.0101506,0.1714269
762.1134,-0.3675107,-0.3947292,0.2131417,-0.5574316,0.005046293,0.1730337
762.1276,-0.370638,-0.3976439,0.2155249,-0.5594159,-0.0001890091,0.1746089
762.1423,-0.3738262,-0.4006106,0.2177689,-0.5613984,-0.005370887,0.1761533
762.1571,-0.3738262,-0.4006106,0.2177689,-0.5613984,-0.005370887,0.1761533
762.1711,-0.3772479,-0.4037943,0.2203786,-0.5636332,-0.01109366,0.1779489
762.1866,-0.3807986,-0.4070936,0.2229593,-0.5658705,-0.01693458,0.1797094
762.2012,-0.3844136,-0.4104472,0.2253744,-0.5681053,-0.02270456,0.1814355
762.2159,-0.3844136,-0.4104472,0.2253744,-0.5681053,-0.02270456,0.1814355
762.2298,-0.388053,-0.4138177,0.2276071,-0.5703298,-0.02834391,0.1831278
762.2476,-0.3919025,-0.4173826,0.2301931,-0.572799,-0.0344894,0.1850685
762.26,-0.3958643,-0.4210471,0.2327577,-0.575263,-0.04074423,0.1869711
762.2748,-0.3958643,-0.4210471,0.2327577,-0.575263,-0.04074423,0.1869711
762.2886,-0.3998781,-0.4247542,0.2351637,-0.5777178,-0.04692331,0.1888366
762.3041,-0.4039072,-0.4284698,0.2373913,-0.5801566,-0.05296713,0.1906655
762.3185,-0.4039072,-0.4284698,0.2373913,-0.5801566,-0.05296713,0.1906655
762.3325,-0.4081401,-0.4323729,0.2399626,-0.5828362,-0.05950466,0.1927401
762.3478,-0.4124793,-0.4363696,0.2425116,-0.5855063,-0.06614728,0.1947742
762.3635,-0.4168651,-0.4404036,0.2448992,-0.5881632,-0.07270797,0.1967684
762.3782,-0.4168651,-0.4404036,0.2448992,-0.5881632,-0.07270797,0.1967684
762.3914,-0.421473,-0.4446405,0.2476021,-0.591064,-0.07976133,0.1990051
762.4067,-0.4261963,-0.4489782,0.2502559,-0.5939568,-0.08690911,0.2011981
762.4213,-0.4309698,-0.4533556,0.2527246,-0.5968361,-0.09395947,0.2033481
762.4359,-0.4309698,-0.4533556,0.2527246,-0.5968361,-0.09395947,0.2033481
762.4496,-0.4357541,-0.4577362,0.2549928,-0.5996946,-0.1008519,0.205456
762.4653,-0.4407382,-0.462298,0.257566,-0.6027901,-0.1082029,0.2078041
762.4797,-0.4407382,-0.462298,0.257566,-0.6027901,-0.1082029,0.2078041
762.4938,-0.445822,-0.4669457,0.2601019,-0.6058707,-0.1156422,0.2101064
762.5093,-0.4509448,-0.4716225,0.2624633,-0.6089319,-0.1229819,0.2123635
762.5241,-0.4560699,-0.4762948,0.2646317,-0.6119673,-0.1301615,0.2145765
762.5386,-0.4560699,-0.4762948,0.2646317,-0.6119673,-0.1301615,0.2145765
762.5525,-0.4613896,-0.4811424,0.267097,-0.6152363,-0.1377884,0.2170275
762.5679,-0.4668039,-0.4860706,0.2695271,-0.618487,-0.1455017,0.2194307
762.5825,-0.4722523,-0.491023,0.2717832,-0.621715,-0.1531115,0.2217868
762.597,-0.4722523,-0.491023,0.2717832,-0.621715,-0.1531115,0.2217868
762.6113,-0.4779141,-0.4961664,0.2743084,-0.6251798,-0.1611691,0.2243782
762.6266,-0.4836797,-0.5013973,0.2767737,-0.628628,-0.1693041,0.226919
762.6422,-0.489483,-0.506655,0.2790438,-0.632054,-0.1773219,0.22941
762.6559,-0.489483,-0.506655,0.2790438,-0.632054,-0.1773219,0.22941
762.67,-0.4952849,-0.5119038,0.281105,-0.6354505,-0.1851607,0.2318523
762.6854,-0.5012789,-0.5173227,0.283428,-0.6390774,-0.1934138,0.234528
762.6998,-0.5012789,-0.5173227,0.283428,-0.6390774,-0.1934138,0.234528
762.7141,-0.5073617,-0.5228152,0.2857065,-0.642682,-0.20174,0.2371515
762.7294,-0.5134718,-0.5283247,0.287804,-0.6462592,-0.2099488,0.2397236
762.7441,-0.5195727,-0.5338183,0.2897032,-0.6498028,-0.2179785,0.2422454
762.7588,-0.5195727,-0.5338183,0.2897032,-0.6498028,-0.2179785,0.2422454
762.7728,-0.5258614,-0.5394768,0.291858,-0.6535737,-0.2264127,0.2449989
762.7883,-0.5322345,-0.5452041,0.2939732,-0.6573197,-0.2349197,0.2476988
762.803,-0.5386305,-0.5509443,0.2959107,-0.6610357,-0.2433074,0.2503459
762.8175,-0.5386305,-0.5509443,0.2959107,-0.6610357,-0.2433074,0.2503459
762.8317,-0.5452333,-0.5568646,0.2980772,-0.6649822,-0.2521018,0.2532222
762.847,-0.5519295,-0.5628607,0.3001813,-0.6689063,-0.2609613,0.2560425
762.8616,-0.5586522,-0.568872,0.3020889,-0.6728013,-0.269689,0.2588076
762.8764,-0.5586522,-0.568872,0.3020889,-0.6728013,-0.269689,0.2588076
762.8903,-0.5653622,-0.5748637,0.3037879,-0.6766605,-0.2782218,0.2615185
762.9067,-0.5722586,-0.5810158,0.3057116,-0.6807442,-0.2871287,0.2644574
762.9217,-0.5792342,-0.5872303,0.3075913,-0.6848008,-0.2960975,0.267339
762.9373,-0.5792342,-0.5872303,0.3075913,-0.6848008,-0.2960975,0.267339
762.9491,-0.5862263,-0.593451,0.3092914,-0.6888241,-0.3049359,0.2701641
762.9645,-0.5931984,-0.5996459,0.3107961,-0.692808,-0.3135809,0.2729339
762.9792,-0.5931984,-0.5996459,0.3107961,-0.692808,-0.3135809,0.2729339
762.9933,-0.6003536,-0.6059964,0.3125212,-0.6970136,-0.3225918,0.2759305
763.0086,-0.6075839,-0.6124053,0.314209,-0.7011904,-0.3316654,0.2788686
763.0234,-0.6148267,-0.6188167,0.3157229,-0.7053321,-0.3406079,0.2817492
763.038,-0.6148267,-0.6188167,0.3157229,-0.7053321,-0.3406079,0.2817492
763.0521,-0.6222717,-0.6253988,0.317432,-0.7096989,-0.3499204,0.2848545
763.0676,-0.6298004,-0.6320459,0.3190824,-0.71404,-0.3592887,0.2878992
763.0822,-0.6373448,-0.6386976,0.3205422,-0.7183477,-0.3685144,0.2908843
763.0968,-0.6373448,-0.6386976,0.3205422,-0.7183477,-0.3685144,0.2908843
763.111,-0.6448657,-0.6453201,0.3218004,-0.7226149,-0.3775333,0.2938109
763.1262,-0.6525692,-0.6520945,0.3232526,-0.7271015,-0.3868908,0.296961
763.141,-0.660343,-0.6589213,0.3246663,-0.7315588,-0.3963013,0.3000498
763.1556,-0.660343,-0.6589213,0.3246663,-0.7315588,-0.3963013,0.3000498
763.1716,-0.6681228,-0.6657445,0.3259081,-0.7359791,-0.4055718,0.3030781
763.1857,-0.6758721,-0.6725329,0.3269631,-0.7403561,-0.4146383,0.306047
763.1996,-0.6758721,-0.6725329,0.3269631,-0.7403561,-0.4146383,0.306047
763.2136,-0.6838018,-0.6794692,0.3282095,-0.7449496,-0.4240368,0.3092386
763.2289,-0.6917979,-0.6864541,0.3294251,-0.7495133,-0.4334896,0.312368
763.2437,-0.699796,-0.6934322,0.3304756,-0.7540388,-0.4428025,0.3154361
763.2581,-0.699796,-0.6934322,0.3304756,-0.7540388,-0.4428025,0.3154361
763.2725,-0.7079933,-0.7005727,0.3316933,-0.7587845,-0.4524534,0.318725
763.288,-0.7162653,-0.7077681,0.33286,-0.7635043,-0.4621521,0.3219499
763.3026,-0.7245419,-0.7149587,0.3338464,-0.7681881,-0.4717,0.3251115
763.3171,-0.7245419,-0.7149587,0.3338464,-0.7681881,-0.4717,0.3251115
763.3313,-0.7327843,-0.7221114,0.334643,-0.7728285,-0.4810324,0.3282111
763.3467,-0.7412073,-0.7294087,0.3356082,-0.7776836,-0.4906727,0.3315309
763.3613,-0.7496918,-0.7367492,0.3365435,-0.7825097,-0.5003583,0.3347859
763.376,-0.7496918,-0.7367492,0.3365435,-0.7825097,-0.5003583,0.3347859
763.3901,-0.7581718,-0.7440773,0.3373179,-0.787297,-0.5098964,0.3379771
763.4055,-0.7666111,-0.7513627,0.337918,-0.7920386,-0.5192226,0.3411058
763.4202,-0.7752293,-0.7587892,0.3386855,-0.796992,-0.528852,0.3444541
763.4357,-0.7752293,-0.7587892,0.3386855,-0.796992,-0.528852,0.3444541
763.4497,-0.7839054,-0.7662557,0.3394306,-0.8019168,-0.538528,0.347737
763.4642,-0.7925732,-0.7737069,0.3400223,-0.8068022,-0.5480572,0.3509557
763.4788,-0.7925732,-0.7737069,0.3400223,-0.8068022,-0.5480572,0.3509557
763.4928,-0.8014384,-0.7813133,0.3407579,-0.8119035,-0.5578969,0.3543922
763.5085,-0.8103688,-0.7889653,0.3414517,-0.8169808,-0.5677768,0.3577616
763.5228,-0.8192927,-0.7966036,0.341978,-0.8220213,-0.5774993,0.3610651
763.5376,-0.8192927,-0.7966036,0.341978,-0.8220213,-0.5774993,0.3610651
763.5515,-0.8281717,-0.8041967,0.3423289,-0.8270165,-0.587,0.3643036
763.5671,-0.8372305,-0.8119281,0.3428274,-0.8322219,-0.5967831,0.3677596
763.5812,-0.8463419,-0.8196945,0.3433052,-0.837401,-0.6066039,0.371148
763.5962,-0.8463419,-0.8196945,0.3433052,-0.837401,-0.6066039,0.371148
763.6101,-0.8554381,-0.8274404,0.343635,-0.8425405,-0.6162712,0.3744701
763.6254,-0.8644833,-0.8351369,0.3438048,-0.8476326,-0.6257211,0.377727
763.6402,-0.8737074,-0.8429691,0.3441218,-0.8529322,-0.6354504,0.3812009
763.6549,-0.8737074,-0.8429691,0.3441218,-0.8529322,-0.6354504,0.3812009
763.6689,-0.8829806,-0.8508333,0.3444251,-0.8582063,-0.6452186,0.384607
763.684,-0.8922347,-0.8586746,0.3445876,-0.8634408,-0.6548341,0.3879464
763.6985,-0.8922347,-0.8586746,0.3445876,-0.8634408,-0.6548341,0.3879464
763.7148,-0.9016857,-0.8666649,0.3448744,-0.8688872,-0.6647374,0.3915012
763.729,-0.9111921,-0.8746924,0.3451282,-0.8743136,-0.6746729,0.3949866
763.7427,-0.9206803,-0.8826984,0.3452283,-0.879703,-0.6844457,0.3984038
763.7571,-0.9206803,-0.8826984,0.3452283,-0.879703,-0.6844457,0.3984038
763.7714,-0.9301127,-0.8906527,0.3451686,-0.8850458,-0.6939927,0.4017539
763.7867,-0.9397255,-0.8987406,0.3452389,-0.8905941,-0.7038016,0.4053192
763.8011,-0.9493817,-0.9068559,0.3452966,-0.8961204,-0.7136405,0.4088149
763.8157,-0.9493817,-0.9068559,0.3452966,-0.8961204,-0.7136405,0.4088149
763.8298,-0.9590117,-0.9149439,0.3452195,-0.9016071,-0.7233209,0.4122422
763.8453,-0.9685801,-0.9229768,0.3449977,-0.9070448,-0.7327806,0.4156022
763.8601,-0.9783288,-0.9311413,0.3449057,-0.9126855,-0.7425008,0.4191772
763.8748,-0.9783288,-0.9311413,0.3449057,-0.9126855,-0.7425008,0.4191772
763.8886,-0.9881176,-0.9393306,0.3448071,-0.9183055,-0.7522517,0.4226824
763.9041,-0.9978763,-0.9474906,0.3445806,-0.9238858,-0.7618456,0.426119
763.9185,-0.9978763,-0.9474906,0.3445806,-0.9238858,-0.7618456,0.426119
763.9326,-1.007832,-0.9557948,0.3444613,-0.9296743,-0.7717088,0.4297691
763.9478,-1.017833,-0.9641284,0.3443166,-0.9354478,-0.7815959,0.4333479
763.9623,-1.027804,-0.9724337,0.344032,-0.9411842,-0.7913163,0.4368567
763.977,-1.027804,-0.9724337,0.344032,-0.9411842,-0.7913163,0.4368567
763.9932,-1.037708,-0.9806824,0.3436038,-0.9468719,-0.8008092,0.4402966
764.0074,-1.047794,-0.9890612,0.3432901,-0.9527609,-0.8105486,0.44395
764.0211,-1.057914,-0.997461,0.3429704,-0.9586326,-0.8203099,0.4475321
764.0357,-1.057914,-0.997461,0.3429704,-0.9586326,-0.8203099,0.4475321
764.0495,-1.067997,-1.005828,0.3425289,-0.9644647,-0.8299093,0.451044
764.0648,-1.078008,-1.014135,0.3419581,-0.9702455,-0.8392869,0.454487
764.0796,-1.078008,-1.014135,0.3419581,-0.9702455,-0.8392869,0.454487
764.0936,-1.088202,-1.022571,0.3415015,-0.9762251,-0.848911,0.4581435
764.1089,-1.098426,-1.031026,0.3410438,-0.982189,-0.8585575,0.4617286
764.1237,-1.108609,-1.039446,0.3404706,-0.9881129,-0.8680438,0.4652434
764.1382,-1.108609,-1.039446,0.3404706,-0.9881129,-0.8680438,0.4652434
764.1528,-1.118991,-1.048007,0.3399893,-0.9942414,-0.8777853,0.4689704
764.1674,-1.129407,-1.05659,0.3394886,-1.00036,-0.8875423,0.4726245
764.1821,-1.13978,-1.06514,0.3388618,-1.006441,-0.8971306,0.476207
764.1968,-1.13978,-1.06514,0.3388618,-1.006441,-0.8971306,0.476207
764.2106,-1.150077,-1.07363,0.3381078,-1.01247,-0.9064928,0.4797194
764.2261,-1.160559,-1.082248,0.337454,-1.018696,-0.9160901,0.4834439
764.2408,-1.171065,-1.090881,0.3367989,-1.024909,-0.9257015,0.4870955
764.2554,-1.171065,-1.090881,0.3367989,-1.024909,-0.9257015,0.4870955
764.2727,-1.181523,-1.099477,0.3360347,-1.031082,-0.9351496,0.4906757
764.2855,-1.191899,-1.108011,0.3351569,-1.0372,-0.9443782,0.4941857
764.299,-1.191899,-1.108011,0.3351569,-1.0372,-0.9443782,0.4941857
764.3129,-1.191827,-1.109032,0.3271227,-1.033729,-0.9362106,0.4872274
764.3282,-1.186493,-1.106028,0.3152279,-1.028221,-0.9183476,0.4803973
764.343,-1.178353,-1.100665,0.3039516,-1.02172,-0.8975175,0.4736977
764.3573,-1.178353,-1.100665,0.3039516,-1.02172,-0.8975175,0.4736977
764.3715,-1.169207,-1.094223,0.2949842,-1.014668,-0.8769556,0.4669481
764.3868,-1.159678,-1.087242,0.2876751,-1.007341,-0.8572537,0.4603306
764.4014,-1.150054,-1.080004,0.2814252,-0.9998684,-0.8384013,0.453843
764.416,-1.150054,-1.080004,0.2814252,-0.9998684,-0.8384013,0.453843
764.43,-1.140459,-1.072657,0.2757944,-0.9923562,-0.8202291,0.4474826
764.4453,-1.131234,-1.065452,0.2710978,-0.9849089,-0.8030315,0.4410669
764.4598,-1.131234,-1.065452,0.2710978,-0.9849089,-0.8030315,0.4410669
764.4739,-1.122241,-1.058339,0.2667221,-0.9776365,-0.7864083,0.4347773
764.4891,-1.113411,-1.051295,0.2624701,-0.9705188,-0.770175,0.428611
764.504,-1.104711,-1.044313,0.2582744,-0.9635457,-0.7542443,0.4225656
764.5184,-1.104711,-1.044313,0.2582744,-0.9635457,-0.7542443,0.4225656
764.5322,-1.096412,-1.037562,0.2547055,-0.956727,-0.7390425,0.4164585
764.5477,-1.088351,-1.030952,0.2513035,-0.9501355,-0.7242587,0.4104714
764.5643,-1.080454,-1.024441,0.2479484,-0.943721,-0.7097676,0.4046018
764.5776,-1.080454,-1.024441,0.2479484,-0.943721,-0.7097676,0.4046018
764.5917,-1.072964,-1.01818,0.2451993,-0.9374639,-0.695989,0.398667
764.606,-1.065716,-1.012073,0.2426,-0.9314353,-0.6826045,0.3928488
764.6208,-1.05863,-1.006072,0.2400316,-0.9255801,-0.6694876,0.3871447
764.6351,-1.05863,-1.006072,0.2400316,-0.9255801,-0.6694876,0.3871447
764.649,-1.051664,-1.00015,0.2374672,-0.919868,-0.6565878,0.3815525
764.6645,-1.045078,-0.9944694,0.2354996,-0.9142787,-0.6443689,0.3758896
764.6791,-1.045078,-0.9944694,0.2354996,-0.9142787,-0.6443689,0.3758896
764.6931,-1.038721,-0.988939,0.2336846,-0.9088982,-0.6325215,0.3703381
764.7085,-1.032516,-0.9835123,0.2319002,-0.9036754,-0.6209211,0.3648954
764.7232,-1.026423,-0.9781647,0.2301159,-0.8985822,-0.6095176,0.3595594
764.7378,-1.026423,-0.9781647,0.2301159,-0.8985822,-0.6095176,0.3595594
764.7516,-1.020699,-0.9730555,0.2289233,-0.8935911,-0.5987823,0.3541478
764.7671,-1.015198,-0.9680969,0.2278799,-0.8887972,-0.5884006,0.3488426
764.7815,-1.009843,-0.9632419,0.2268597,-0.8841508,-0.5782451,0.3436415
764.7961,-1.009843,-0.9632419,0.2268597,-0.8841508,-0.5782451,0.3436415
764.8102,-1.00487,-0.9586378,0.2264218,-0.8796088,-0.568758,0.3383622
764.8256,-1.000125,-0.9541914,0.2261175,-0.8752651,-0.5596085,0.3331867
764.8401,-0.9955271,-0.9498521,0.2258191,-0.8710672,-0.5506632,0.3281127
764.8568,-0.9955271,-0.9498521,0.2258191,-0.8710672,-0.5506632,0.3281127
764.8709,-0.9910319,-0.9455917,0.225496,-0.8669852,-0.5418707,0.3231382
764.884,-0.9868903,-0.9415671,0.2257432,-0.8629804,-0.5337152,0.3180811
764.8986,-0.9868903,-0.9415671,0.2257432,-0.8629804,-0.5337152,0.3180811
764.9125,-0.9829606,-0.9376923,0.2261238,-0.8591574,-0.5258759,0.3131234
764.928,-0.9791666,-0.9339194,0.2265085,-0.8554674,-0.5182219,0.3082631
764.9427,-0.9754666,-0.9302211,0.2268638,-0.8518826,-0.5107021,0.303498
764.9571,-0.9754666,-0.9302211,0.2268638,-0.8518826,-0.5107021,0.303498
764.9713,-0.9721097,-0.9267547,0.2277843,-0.8483616,-0.5038072,0.2986462
764.9868,-0.968958,-0.9234358,0.2288332,-0.845014,-0.4972115,0.2938898
765.0013,-0.9659358,-0.9202164,0.2298779,-0.8417919,-0.4907817,0.2892268
765.016,-0.9659358,-0.9202164,0.2298779,-0.8417919,-0.4907817,0.2892268
765.03,-0.9632717,-0.9172417,0.2314793,-0.8386409,-0.4849775,0.2844751
765.0455,-0.9608198,-0.9144215,0.2331923,-0.8356673,-0.4794565,0.2798169
765.0599,-0.9608198,-0.9144215,0.2331923,-0.8356673,-0.4794565,0.2798169
765.074,-0.9584988,-0.9117039,0.2348827,-0.8328196,-0.4740801,0.2752502
765.0892,-0.9562633,-0.9090586,0.2365177,-0.8300686,-0.4687962,0.270773
765.1046,-0.9543567,-0.9066404,0.2386973,-0.8273673,-0.4641079,0.2662034
765.1175,-0.9543567,-0.9066404,0.2386973,-0.8273673,-0.4641079,0.2662034
765.1345,-0.9526446,-0.904366,0.240987,-0.8248293,-0.459683,0.2617238
765.1487,-0.9510514,-0.9021868,0.243252,-0.8224064,-0.4553858,0.2573322
765.1621,-0.9495336,-0.9000739,0.2454574,-0.8200713,-0.4511651,0.2530267
765.1769,-0.9495336,-0.9000739,0.2454574,-0.8200713,-0.4511651,0.2530267
765.1909,-0.9483348,-0.8981825,0.2482037,-0.8177776,-0.4475299,0.2486255
765.2064,-0.9473235,-0.8964313,0.2510544,-0.8156407,-0.4441429,0.2443109
765.2209,-0.9464246,-0.8947716,0.2538722,-0.8136131,-0.4408662,0.2400811
765.2357,-0.9464246,-0.8947716,0.2538722,-0.8136131,-0.4408662,0.2400811
765.2496,-0.9458622,-0.893347,0.2572241,-0.8116376,-0.4381768,0.2357541
765.2652,-0.945496,-0.8920699,0.260663,-0.8098245,-0.4357203,0.2315123
765.2796,-0.945496,-0.8920699,0.260663,-0.8098245,-0.4357203,0.2315123
765.2936,-0.9452449,-0.8908876,0.2640502,-0.8081225,-0.4333537,0.2273539
765.3091,-0.9450616,-0.889768,0.267352,-0.8065024,-0.4310256,0.2232769
765.3237,-0.9451821,-0.8888643,0.2711743,-0.8049187,-0.4292566,0.2190999
765.3384,-0.9451821,-0.8888643,0.2711743,-0.8049187,-0.4292566,0.2190999
765.3523,-0.9454809,-0.8880967,0.2750828,-0.8034844,-0.4277036,0.2150051
765.3678,-0.9458822,-0.887417,0.2789387,-0.8021514,-0.4262272,0.2109907
765.3822,-0.9463413,-0.8867944,0.2827056,-0.8008929,-0.424776,0.2070551
765.3995,-0.9463413,-0.8867944,0.2827056,-0.8008929,-0.424776,0.2070551
765.4129,-0.9470984,-0.8863825,0.2869939,-0.7996642,-0.4238776,0.2030165
765.4272,-0.9480265,-0.8861021,0.2913611,-0.7985803,-0.4231807,0.1990576
765.4407,-0.9490505,-0.8859034,0.2956665,-0.7975929,-0.4225433,0.1951763
765.4555,-0.9490505,-0.8859034,0.2956665,-0.7975929,-0.4225433,0.1951763
765.4696,-0.9503924,-0.8859254,0.3004863,-0.7966479,-0.4224585,0.1911912
765.4847,-0.9519154,-0.8860838,0.3053676,-0.7958537,-0.4225602,0.1872845
765.4993,-0.9519154,-0.8860838,0.3053676,-0.7958537,-0.4225602,0.1872845
765.5134,-0.9535362,-0.8863242,0.3101669,-0.7951592,-0.4227006,0.1834546
765.5288,-0.9552051,-0.8866131,0.3148501,-0.7945352,-0.4228296,0.1796998
765.5436,-0.9571598,-0.8871028,0.3200389,-0.7939404,-0.4234891,0.1758386
765.5582,-0.9571598,-0.8871028,0.3200389,-0.7939404,-0.4234891,0.1758386
765.5723,-0.9592699,-0.887711,0.3252816,-0.7934868,-0.424315,0.1720534
765.588,-0.9614589,-0.8883877,0.3304383,-0.7931246,-0.4251651,0.1683426
765.6024,-0.9636819,-0.8891024,0.3354757,-0.792826,-0.4259916,0.1647046
765.6169,-0.9636819,-0.8891024,0.3354757,-0.792826,-0.4259916,0.1647046
765.6308,-0.9661798,-0.8900092,0.3410199,-0.7925538,-0.4273443,0.1609578
765.6462,-0.9688228,-0.8910265,0.3466106,-0.7924188,-0.42885,0.1572849
765.6609,-0.9715354,-0.8921048,0.3521071,-0.7923707,-0.4303655,0.1536842
765.6756,-0.9715354,-0.8921048,0.3521071,-0.7923707,-0.4303655,0.1536842
765.6916,-0.9745409,-0.8933871,0.3581041,-0.792364,-0.4324093,0.149974
765.7058,-0.9776983,-0.8947842,0.3641268,-0.7925013,-0.434589,0.146337
765.7194,-0.9776983,-0.8947842,0.3641268,-0.7925013,-0.434589,0.146337
765.7335,-0.9809257,-0.8962425,0.3700356,-0.7927284,-0.4367587,0.1427714
765.7489,-0.9841763,-0.8977302,0.3758013,-0.7930153,-0.4388732,0.1392757
765.7633,-0.9876911,-0.8994011,0.3820632,-0.7933306,-0.4414977,0.1356685
765.778,-0.9876911,-0.8994011,0.3820632,-0.7933306,-0.4414977,0.1356685
765.7921,-0.9913375,-0.9011716,0.3883488,-0.7937791,-0.4442444,0.1321325
765.8074,-0.9950394,-0.9029921,0.394519,-0.794309,-0.4469706,0.1286659
765.8221,-0.9987535,-0.9048336,0.4005445,-0.7948918,-0.4496324,0.1252673
765.8369,-0.9987535,-0.9048336,0.4005445,-0.7948918,-0.4496324,0.1252673
765.8506,-1.002724,-0.9068515,0.4070688,-0.7955021,-0.4528022,0.1217553
765.866,-1.006819,-0.9089625,0.4136095,-0.7962419,-0.4560825,0.1183125
765.8808,-1.010961,-0.9111177,0.4200274,-0.7970586,-0.4593294,0.1149374
765.8955,-1.010961,-0.9111177,0.4200274,-0.7970586,-0.4593294,0.1149374
765.9094,-1.015379,-0.9134612,0.4269364,-0.7979191,-0.4630849,0.1114484
765.9247,-1.019928,-0.9159021,0.4338405,-0.7989159,-0.4669333,0.1080283
765.9396,-1.019928,-0.9159021,0.4338405,-0.7989159,-0.4669333,0.1080283
765.9533,-1.024526,-0.9183877,0.4406023,-0.7999921,-0.4707293,0.1046754
765.9707,-1.029127,-0.9208874,0.4471975,-0.8011172,-0.4744328,0.1013882
765.9842,-1.033978,-0.9235566,0.4542835,-0.8022743,-0.4786316,0.09798536
765.9979,-1.033978,-0.9235566,0.4542835,-0.8022743,-0.4786316,0.09798536
766.012,-1.038941,-0.9263098,0.4613639,-0.8035572,-0.4829124,0.09464971
766.0273,-1.043941,-0.9290981,0.468302,-0.804911,-0.4871326,0.0913796
766.0418,-1.048936,-0.9318934,0.4750727,-0.8063069,-0.4912531,0.08817362
766.0565,-1.048936,-0.9318934,0.4750727,-0.8063069,-0.4912531,0.08817362
766.0704,-1.054173,-0.9348528,0.482338,-0.8077356,-0.4958689,0.08485039
766.0858,-1.059517,-0.9378909,0.4895908,-0.8092862,-0.5005557,0.08159281
766.1004,-1.064891,-0.9409591,0.4966946,-0.8109033,-0.5051707,0.07839922
766.1151,-1.064891,-0.9409591,0.4966946,-0.8109033,-0.5051707,0.07839922
766.1291,-1.070527,-0.944203,0.5042837,-0.8125699,-0.5102797,0.07508817
766.1445,-1.076277,-0.9475297,0.5118383,-0.8143649,-0.5154417,0.07184252
766.1591,-1.076277,-0.9475297,0.5118383,-0.8143649,-0.5154417,0.07184252
766.173,-1.082058,-0.9508872,0.5192251,-0.8162282,-0.5205135,0.06866063
766.1885,-1.087827,-0.9542463,0.5264251,-0.8181289,-0.5254607,0.06554115
766.2032,-1.093833,-0.9577637,0.5341136,-0.820069,-0.5308933,0.0623027
766.2172,-1.093833,-0.9577637,0.5341136,-0.820069,-0.5308933,0.0623027
766.2316,-1.099936,-0.961352,0.5417685,-0.8221267,-0.5363706,0.05912824
766.249,-1.10606,-0.9649627,0.5492569,-0.8242444,-0.5417514,0.05601616
766.2622,-1.112162,-0.968569,0.5565588,-0.8263929,-0.5470023,0.05296511
766.277,-1.112162,-0.968569,0.5565588,-0.8263929,-0.5470023,0.05296511
766.2908,-1.118497,-0.9723291,0.5643538,-0.8285826,-0.55274,0.04979375
766.3064,-1.124925,-0.9761557,0.5721086,-0.830886,-0.5585123,0.04668509
766.3199,-1.124925,-0.9761557,0.5721086,-0.830886,-0.5585123,0.04668509
766.3336,-1.131367,-0.9800006,0.5796912,-0.8332447,-0.5641783,0.0436375
766.3489,-1.138061,-0.9840106,0.587756,-0.8356616,-0.5703281,0.04046956
766.3634,-1.144853,-0.9880909,0.5957583,-0.8381979,-0.5764937,0.03736424
766.3784,-1.144853,-0.9880909,0.5957583,-0.8381979,-0.5764937,0.03736424
766.3923,-1.151662,-0.99219,0.6035708,-0.8407905,-0.5825359,0.03431992
766.4076,-1.158442,-0.9962802,0.6111799,-0.8434086,-0.5884264,0.03133529
766.4224,-1.165453,-1.00052,0.6192778,-0.8460757,-0.5947969,0.02822906
766.4368,-1.165453,-1.00052,0.6192778,-0.8460757,-0.5947969,0.02822906
766.4507,-1.172546,-1.004818,0.6273152,-0.8488516,-0.601177,0.02518425
766.466,-1.179645,-1.009129,0.6351654,-0.8516755,-0.6074292,0.02219925
766.4806,-1.186709,-1.013426,0.6428139,-0.8545182,-0.6135263,0.01927279
766.4953,-1.186709,-1.013426,0.6428139,-0.8545182,-0.6135263,0.01927279
766.5092,-1.194,-1.017868,0.6509559,-0.8574128,-0.6201062,0.01622357
766.5246,-1.201369,-1.022365,0.6590315,-0.8604121,-0.626686,0.01323467
766.5389,-1.201369,-1.022365,0.6590315,-0.8604121,-0.626686,0.01323467
766.5549,-1.208738,-1.026872,0.6669155,-0.8634545,-0.6331298,0.01030448
766.569,-1.216353,-1.031534,0.6752805,-0.8665656,-0.6400515,0.00725163
766.5825,-1.224052,-1.036255,0.6835569,-0.8697858,-0.6469542,0.004259156
766.5972,-1.224052,-1.036255,0.6835569,-0.8697858,-0.6469542,0.004259156
766.6111,-1.231752,-1.040986,0.6916255,-0.8730494,-0.6537049,0.001325452
766.6266,-1.239411,-1.045698,0.6994784,-0.8763256,-0.6602826,-0.001550733
766.6411,-1.247295,-1.050552,0.7078215,-0.8796623,-0.6673394,-0.004550645
766.6556,-1.247295,-1.050552,0.7078215,-0.8796623,-0.6673394,-0.004550645
766.6697,-1.255248,-1.055456,0.7160794,-0.8830978,-0.6743725,-0.00749122
766.685,-1.263194,-1.060362,0.7241331,-0.8865684,-0.6812509,-0.01037404
766.6995,-1.263194,-1.060362,0.7241331,-0.8865684,-0.6812509,-0.01037404
766.7137,-1.271381,-1.06542,0.7326661,-0.8901151,-0.6886045,-0.01338043
766.7292,-1.279643,-1.07053,0.7410938,-0.8937639,-0.6959164,-0.01632738
766.7437,-1.287898,-1.075642,0.7493029,-0.897447,-0.7030594,-0.01921646
766.7581,-1.287898,-1.075642,0.7493029,-0.897447,-0.7030594,-0.01921646
766.7723,-1.296102,-1.080732,0.7572895,-0.9011341,-0.7100176,-0.0220489
766.7878,-1.304528,-1.085958,0.7657667,-0.9048898,-0.7174557,-0.0250059
766.8026,-1.313016,-1.091229,0.7741424,-0.9087371,-0.7248481,-0.02790442
766.8168,-1.313016,-1.091229,0.7741424,-0.9087371,-0.7248481,-0.02790442
766.8306,-1.321488,-1.096496,0.7823043,-0.9126106,-0.7320702,-0.03074604
766.8469,-1.329903,-1.101737,0.7902478,-0.9164814,-0.7391071,-0.03353193
766.8618,-1.338539,-1.107113,0.7986866,-0.9204248,-0.7466291,-0.03644328
766.8754,-1.338539,-1.107113,0.7986866,-0.9204248,-0.7466291,-0.03644328
766.8893,-1.347232,-1.112529,0.8070188,-0.9244552,-0.7540963,-0.03929706
766.9047,-1.355905,-1.11794,0.8151355,-0.9285063,-0.7613879,-0.04209481
766.919,-1.355905,-1.11794,0.8151355,-0.9285063,-0.7613879,-0.04209481
766.9333,-1.364815,-1.123495,0.8237331,-0.9326457,-0.769158,-0.04501775
766.9486,-1.373788,-1.129094,0.8322034,-0.9368746,-0.7768547,-0.04788293
766.9631,-1.382739,-1.134688,0.840445,-0.9411228,-0.7843632,-0.05069185
766.9778,-1.382739,-1.134688,0.840445,-0.9411228,-0.7843632,-0.05069185
766.9918,-1.391629,-1.140252,0.8484591,-0.9453607,-0.7916754,-0.05344573
767.0075,-1.400738,-1.145949,0.8569657,-0.9496805,-0.7994747,-0.05632563
767.0219,-1.409899,-1.151682,0.8653494,-0.9540797,-0.8071966,-0.05914863
767.0365,-1.409899,-1.151682,0.8653494,-0.9540797,-0.8071966,-0.05914863
767.0505,-1.41903,-1.157404,0.8735101,-0.9584905,-0.8147302,-0.06191621
767.0656,-1.428095,-1.163094,0.8814483,-0.9628847,-0.8220689,-0.06462954
767.0801,-1.437378,-1.168914,0.889883,-0.9673651,-0.8299009,-0.06746968
767.0947,-1.437378,-1.168914,0.889883,-0.9673651,-0.8299009,-0.06746968
767.1088,-1.446708,-1.174769,0.8981904,-0.9719202,-0.8376464,-0.0702537
767.126,-1.456006,-1.180611,0.9062749,-0.9764813,-0.8452003,-0.07298309
767.1406,-1.465234,-1.186419,0.9141378,-0.9810207,-0.8525586,-0.07565897
767.154,-1.465234,-1.186419,0.9141378,-0.9810207,-0.8525586,-0.07565897
767.168,-1.474681,-1.192356,0.9224985,-0.9856514,-0.8604153,-0.07846235
767.182,-1.484171,-1.198326,0.9307266,-0.990352,-0.8681756,-0.08121039
767.1967,-1.484171,-1.198326,0.9307266,-0.990352,-0.8681756,-0.08121039
767.2106,-1.493626,-1.204281,0.9387314,-0.9950535,-0.8757413,-0.08390449
767.2259,-1.503314,-1.210375,0.9472185,-0.9998603,-0.8837985,-0.08672571
767.2405,-1.513051,-1.216503,0.9555544,-1.004738,-0.8917416,-0.08949126
767.2552,-1.513051,-1.216503,0.9555544,-1.004738,-0.8917416,-0.08949126
767.2693,-1.52275,-1.222618,0.9636561,-1.009613,-0.8994808,-0.09220254
767.2844,-1.532376,-1.228697,0.9715303,-1.014459,-0.9070179,-0.09486068
767.299,-1.532376,-1.228697,0.9715303,-1.014459,-0.9070179,-0.09486068
767.3129,-1.542219,-1.234903,0.9798973,-1.019406,-0.9150578,-0.09764663
767.3282,-1.552099,-1.241138,0.9881181,-1.024413,-0.9229792,-0.1003776
767.3428,-1.561936,-1.247355,0.9961122,-1.029412,-0.9306986,-0.103055
767.3575,-1.561936,-1.247355,0.9961122,-1.029412,-0.9306986,-0.103055
767.3714,-1.572006,-1.253708,1.004586,-1.034524,-0.9389151,-0.1058598
767.3864,-1.582116,-1.260091,1.012897,-1.039698,-0.946997,-0.1086093
767.401,-1.592181,-1.266457,1.020972,-1.044859,-0.9548693,-0.1113049
767.4154,-1.592181,-1.266457,1.020972,-1.044859,-0.9548693,-0.1113049
767.4326,-1.602166,-1.272784,1.02882,-1.049981,-0.9625376,-0.1139476
767.4457,-1.612368,-1.279238,1.037157,-1.055213,-0.9707148,-0.1167184
767.4602,-1.622601,-1.285716,1.045338,-1.060496,-0.978753,-0.1194346
767.4739,-1.622601,-1.285716,1.045338,-1.060496,-0.978753,-0.1194346
767.4877,-1.632783,-1.292173,1.053291,-1.065761,-0.9865846,-0.1220975
767.5032,-1.642881,-1.298591,1.061023,-1.070982,-0.9942155,-0.1247082
767.5186,-1.642881,-1.298591,1.061023,-1.070982,-0.9942155,-0.1247082
767.5314,-1.640974,-1.298071,1.040207,-1.069406,-0.9726344,-0.119252
767.5467,-1.631805,-1.293479,1.015954,-1.063418,-0.9487049,-0.1139162
767.5612,-1.619155,-1.286691,0.9925085,-1.055957,-0.9255331,-0.1086876
767.5767,-1.619155,-1.286691,0.9925085,-1.055957,-0.9255331,-0.1086876
767.59,-1.605142,-1.278918,0.9707308,-1.048126,-0.9033942,-0.1035613
767.6054,-1.590715,-1.270745,0.9504349,-1.040282,-0.8821491,-0.09853475
767.6201,-1.576245,-1.262425,0.9312308,-1.032531,-0.8616145,-0.09360617
767.6345,-1.576245,-1.262425,0.9312308,-1.032531,-0.8616145,-0.09360617
767.6483,-1.561865,-1.254066,0.9128031,-1.024907,-0.8416496,-0.08877392
767.6636,-1.547621,-1.245714,0.894949,-1.017421,-0.8221629,-0.08403626
767.6783,-1.547621,-1.245714,0.894949,-1.017421,-0.8221629,-0.08403626
767.6922,-1.533526,-1.237388,0.8775513,-1.010083,-0.8030984,-0.07939145
767.7076,-1.519582,-1.229098,0.8605449,-1.002893,-0.7844229,-0.07483772
767.7222,-1.505788,-1.220849,0.8438943,-0.9958527,-0.7661156,-0.07037332
767.739,-1.505788,-1.220849,0.8438943,-0.9958527,-0.7661156,-0.07037332
767.7526,-1.492143,-1.212643,0.8275797,-0.9889609,-0.748163,-0.06599651
767.7668,-1.478644,-1.204483,0.8115889,-0.9822149,-0.7305554,-0.06170556
767.7805,-1.46529,-1.196368,0.7959138,-0.975612,-0.7132848,-0.05749881
767.7951,-1.46529,-1.196368,0.7959138,-0.975612,-0.7132848,-0.05749881
767.809,-1.452079,-1.1883,0.780548,-0.9691486,-0.6963444,-0.05337459
767.8244,-1.43901,-1.180279,0.7654862,-0.9628215,-0.6797278,-0.04933131
767.8391,-1.43901,-1.180279,0.7654862,-0.9628215,-0.6797278,-0.04933131
767.853,-1.426081,-1.172306,0.7507234,-0.9566272,-0.663429,-0.04536735
767.8684,-1.413292,-1.16438,0.7362547,-0.9505621,-0.6474423,-0.04148117
767.883,-1.40064,-1.156503,0.7220753,-0.9446228,-0.6317619,-0.03767124
767.8976,-1.40064,-1.156503,0.7220753,-0.9446228,-0.6317619,-0.03767124
767.9116,-1.388125,-1.148674,0.7081807,-0.9388061,-0.6163824,-0.03393606
767.9269,-1.375745,-1.140894,0.6945662,-0.9331087,-0.6012983,-0.03027416
767.9417,-1.3635,-1.133163,0.6812271,-0.9275274,-0.5865042,-0.02668411
767.956,-1.3635,-1.133163,0.6812271,-0.9275274,-0.5865042,-0.02668411
767.9702,-1.351387,-1.125481,0.6681591,-0.9220591,-0.571995,-0.02316448
767.9856,-1.339407,-1.117848,0.6553574,-0.9167008,-0.5577654,-0.01971391
768.0002,-1.327557,-1.110266,0.6428181,-0.9114497,-0.5438111,-0.01633102
768.0146,-1.327557,-1.110266,0.6428181,-0.9114497,-0.5438111,-0.01633102
768.0306,-1.315838,-1.102733,0.6305369,-0.9063031,-0.5301274,-0.01301449
768.0449,-1.304246,-1.095251,0.6185096,-0.9012583,-0.5167096,-0.009763027
768.0584,-1.304246,-1.095251,0.6185096,-0.9012583,-0.5167096,-0.009763027
768.0723,-1.292783,-1.087819,0.6067318,-0.8963127,-0.5035528,-0.006575335
768.0877,-1.281445,-1.080439,0.5951992,-0.8914633,-0.4906524,-0.003450164
768.1022,-1.270233,-1.073109,0.5839075,-0.8867078,-0.4780039,-0.0003862903
768.1169,-1.270233,-1.073109,0.5839075,-0.8867078,-0.4780039,-0.0003862903
768.1309,-1.259145,-1.06583,0.5728526,-0.8820434,-0.4656025,0.002617492
768.1465,-1.24818,-1.058603,0.5620304,-0.8774677,-0.453444,0.005562366
768.1631,-1.237337,-1.051427,0.5514367,-0.8729782,-0.4415239,0.008449489
768.1757,-1.237337,-1.051427,0.5514367,-0.8729782,-0.4415239,0.008449489
768.1896,-1.226614,-1.044303,0.5410675,-0.8685727,-0.4298379,0.01127999
768.2057,-1.216011,-1.037231,0.5309188,-0.8642486,-0.4183818,0.01405499
768.2197,-1.216011,-1.037231,0.5309188,-0.8642486,-0.4183818,0.01405499
768.2335,-1.205527,-1.030211,0.5209868,-0.860004,-0.4071515,0.01677558
768.2489,-1.195161,-1.023243,0.5112674,-0.8558366,-0.3961429,0.01944282
768.2637,-1.184911,-1.016328,0.5017569,-0.8517442,-0.3853519,0.02205776
768.2782,-1.184911,-1.016328,0.5017569,-0.8517442,-0.3853519,0.02205776
768.2924,-1.174776,-1.009464,0.4924515,-0.8477249,-0.3747747,0.02462144
768.3096,-1.164756,-1.002654,0.4833474,-0.8437766,-0.3644073,0.02713485
768.3237,-1.154849,-0.9958959,0.4744409,-0.8398976,-0.3542459,0.02959899
768.3369,-1.154849,-0.9958959,0.4744409,-0.8398976,-0.3542459,0.02959899
768.3506,-1.145054,-0.9891906,0.4657285,-0.8360857,-0.3442869,0.03201482
768.3658,-1.135371,-0.9825381,0.4572066,-0.8323394,-0.3345264,0.0343833
768.3804,-1.125797,-0.9759384,0.4488716,-0.8286568,-0.3249609,0.03670536
768.3952,-1.125797,-0.9759384,0.4488716,-0.8286568,-0.3249609,0.03670536
768.4091,-1.116333,-0.9693916,0.44072,-0.8250362,-0.3155868,0.0389819
768.4244,-1.106977,-0.9628978,0.4327485,-0.8214761,-0.3064007,0.04121381
768.4392,-1.106977,-0.9628978,0.4327485,-0.8214761,-0.3064007,0.04121381
768.4532,-1.097727,-0.9564568,0.4249536,-0.8179747,-0.297399,0.04340199
768.4685,-1.088584,-0.9500688,0.417332,-0.8145307,-0.2885784,0.04554728
768.4831,-1.079545,-0.9437338,0.4098805,-0.8111424,-0.2799356,0.04765053
768.4974,-1.079545,-0.9437338,0.4098805,-0.8111424,-0.2799356,0.04765053
768.5117,-1.07061,-0.9374516,0.4025959,-0.8078084,-0.2714672,0.04971256
768.5269,-1.061778,-0.9312223,0.3954749,-0.8045273,-0.2631702,0.05173419
768.5416,-1.053048,-0.9250458,0.3885145,-0.8012979,-0.2550412,0.0537162
768.5562,-1.053048,-0.9250458,0.3885145,-0.8012979,-0.2550412,0.0537162
768.5703,-1.044418,-0.9189222,0.3817116,-0.7981187,-0.2470772,0.05565938
768.5857,-1.035889,-0.9128513,0.3750631,-0.7949885,-0.2392752,0.05756448
768.6021,-1.027458,-0.906833,0.368566,-0.7919061,-0.2316321,0.05943225
768.6157,-1.027458,-0.906833,0.368566,-0.7919061,-0.2316321,0.05943225
768.6294,-1.019125,-0.9008673,0.3622175,-0.7888703,-0.224145,0.06126343
768.6438,-1.010889,-0.894954,0.3560147,-0.78588,-0.2168109,0.06305874
768.6581,-1.010889,-0.894954,0.3560147,-0.78588,-0.2168109,0.06305874
768.6722,-1.002748,-0.8890932,0.3499547,-0.782934,-0.209627,0.06481887
768.6875,-0.9947022,-0.8832845,0.3440348,-0.7800312,-0.2025906,0.06654453
768.7018,-0.9867502,-0.877528,0.3382521,-0.7771707,-0.1956988,0.06823637
768.7165,-0.9867502,-0.877528,0.3382521,-0.7771707,-0.1956988,0.06823637
768.7303,-0.978891,-0.8718234,0.3326041,-0.7743513,-0.1889489,0.06989508
768.7457,-0.9711235,-0.8661706,0.3270879,-0.7715722,-0.1823383,0.0715213
768.7603,-0.963447,-0.8605695,0.3217012,-0.7688324,-0.1758644,0.07311565
768.7749,-0.963447,-0.8605695,0.3217012,-0.7688324,-0.1758644,0.07311565
768.7889,-0.9558603,-0.8550199,0.3164412,-0.766131,-0.1695245,0.07467879
768.8044,-0.9483626,-0.8495216,0.3113055,-0.7634671,-0.1633161,0.0762113
768.8188,-0.9483626,-0.8495216,0.3113055,-0.7634671,-0.1633161,0.0762113
768.8325,-0.9409528,-0.8440745,0.3062916,-0.7608398,-0.1572368,0.0777138
768.848,-0.9336301,-0.8386783,0.3013971,-0.7582484,-0.1512841,0.07918687
768.8624,-0.9263934,-0.8333328,0.2966195,-0.755692,-0.1454556,0.08063109
768.8771,-0.9263934,-0.8333328,0.2966195,-0.755692,-0.1454556,0.08063109
768.8908,-0.919242,-0.8280379,0.2919565,-0.7531699,-0.1397489,0.08204703
768.9081,-0.9121747,-0.8227933,0.2874058,-0.7506813,-0.1341618,0.08343524
768.9228,-0.9051907,-0.8175988,0.2829652,-0.7482255,-0.1286919,0.08479626
768.9362,-0.9051907,-0.8175988,0.2829652,-0.7482255,-0.1286919,0.08479626
768.95,-0.8982891,-0.8124541,0.2786323,-0.7458017,-0.123337,0.08613062
768.9642,-0.8914691,-0.807359,0.2744051,-0.7434095,-0.1180949,0.08743885
768.9787,-0.8914691,-0.807359,0.2744051,-0.7434095,-0.1180949,0.08743885
768.9926,-0.8847295,-0.8023133,0.2702814,-0.741048,-0.1129635,0.08872146
769.0078,-0.8780696,-0.7973167,0.266259,-0.7387166,-0.1079406,0.08997896
769.0223,-0.8714886,-0.792369,0.2623359,-0.7364147,-0.1030241,0.09121182
