JMolnar6/NonAnthroHands_User_Study/HandsLoggerWithURDF/tempdata/files/Reachy_PID0_JointMotion_gesture_7_3.csv
Time,r_shoulder,r_shoulder_x,r_upper_arm,r_forearm,r_wrist,r_wrist2hand,
340.7875,-0.1008077,-0.3274461,0.4626305,-2.132797,-0.3537084,-0.01683617
340.8045,-0.1011314,-0.3274427,0.4626833,-2.132965,-0.353793,-0.01689839
340.8177,-0.1011314,-0.3274427,0.4626833,-2.132965,-0.353793,-0.01689839
340.8318,-0.1014515,-0.3274393,0.4627353,-2.133132,-0.353876,-0.01695939
340.8462,-0.1017678,-0.327436,0.4627863,-2.133297,-0.3539574,-0.01701919
340.8598,-0.1017678,-0.327436,0.4627863,-2.133297,-0.3539574,-0.01701919
340.8741,-0.1020806,-0.3274327,0.4628365,-2.133461,-0.3540371,-0.01707783
340.8887,-0.1023897,-0.3274295,0.4628858,-2.133623,-0.3541153,-0.0171353
340.9035,-0.1026952,-0.3274263,0.4629342,-2.133784,-0.3541919,-0.01719165
340.9179,-0.1026952,-0.3274263,0.4629342,-2.133784,-0.3541919,-0.01719165
340.932,-0.1029973,-0.3274231,0.4629818,-2.133943,-0.3542671,-0.0172469
340.9475,-0.1032958,-0.3274199,0.4630286,-2.134101,-0.3543407,-0.01730106
340.9617,-0.103591,-0.3274168,0.4630745,-2.134258,-0.3544129,-0.01735416
340.9763,-0.103591,-0.3274168,0.4630745,-2.134258,-0.3544129,-0.01735416
340.9902,-0.1038827,-0.3274137,0.4631196,-2.134413,-0.3544837,-0.01740621
341.0055,-0.104171,-0.3274106,0.4631639,-2.134567,-0.3545531,-0.01745725
341.0201,-0.1044561,-0.3274076,0.4632075,-2.134719,-0.3546211,-0.01750728
341.0346,-0.1044561,-0.3274076,0.4632075,-2.134719,-0.3546211,-0.01750728
341.0484,-0.1047378,-0.3274046,0.4632502,-2.134871,-0.3546878,-0.01755634
341.0653,-0.1050163,-0.3274017,0.4632922,-2.13502,-0.3547531,-0.01760442
341.0798,-0.1050163,-0.3274017,0.4632922,-2.13502,-0.3547531,-0.01760442
341.097,-0.1052916,-0.3273988,0.4633335,-2.135169,-0.3548172,-0.01765157
341.1101,-0.1055638,-0.3273959,0.463374,-2.135315,-0.35488,-0.01769779
341.1246,-0.1058328,-0.327393,0.4634137,-2.135461,-0.3549416,-0.0177431
341.1383,-0.1058328,-0.327393,0.4634137,-2.135461,-0.3549416,-0.0177431
341.1523,-0.1060987,-0.3273902,0.4634528,-2.135605,-0.355002,-0.01778752
341.1675,-0.1063615,-0.3273874,0.4634912,-2.135748,-0.3550612,-0.01783108
341.1821,-0.1066213,-0.3273846,0.4635289,-2.13589,-0.3551192,-0.01787377
341.1968,-0.1066213,-0.3273846,0.4635289,-2.13589,-0.3551192,-0.01787377
341.2109,-0.1068781,-0.3273819,0.4635659,-2.13603,-0.3551761,-0.01791563
341.2263,-0.107132,-0.3273792,0.4636022,-2.136169,-0.3552319,-0.01795667
341.2406,-0.1073829,-0.3273765,0.4636379,-2.136307,-0.3552866,-0.01799691
341.2554,-0.1073829,-0.3273765,0.4636379,-2.136307,-0.3552866,-0.01799691
341.2694,-0.1076309,-0.3273738,0.4636729,-2.136444,-0.3553402,-0.01803635
341.2844,-0.1078761,-0.3273712,0.4637073,-2.136579,-0.3553928,-0.01807501
341.2995,-0.1078761,-0.3273712,0.4637073,-2.136579,-0.3553928,-0.01807501
341.3133,-0.1081185,-0.3273686,0.463741,-2.136713,-0.3554443,-0.01811292
341.3286,-0.1083581,-0.327366,0.4637742,-2.136845,-0.3554948,-0.01815008
341.3436,-0.1085949,-0.3273634,0.4638067,-2.136977,-0.3555443,-0.01818652
341.3583,-0.1085949,-0.3273634,0.4638067,-2.136977,-0.3555443,-0.01818652
341.3742,-0.1088289,-0.3273609,0.4638386,-2.137107,-0.3555929,-0.01822224
341.3883,-0.1090603,-0.3273584,0.4638699,-2.137236,-0.3556405,-0.01825725
341.4031,-0.1092891,-0.3273559,0.4639007,-2.137364,-0.3556872,-0.01829159
341.4168,-0.1092891,-0.3273559,0.4639007,-2.137364,-0.3556872,-0.01829159
341.4309,-0.1095151,-0.3273534,0.4639309,-2.13749,-0.355733,-0.01832525
341.4461,-0.1097386,-0.327351,0.4639605,-2.137616,-0.3557779,-0.01835824
341.4606,-0.1099595,-0.3273486,0.4639896,-2.13774,-0.3558219,-0.01839059
341.4754,-0.1099595,-0.3273486,0.4639896,-2.13774,-0.3558219,-0.01839059
341.4893,-0.1101779,-0.3273462,0.4640181,-2.137863,-0.3558651,-0.01842231
341.5047,-0.1103937,-0.3273439,0.4640461,-2.137985,-0.3559074,-0.0184534
341.5192,-0.1103937,-0.3273439,0.4640461,-2.137985,-0.3559074,-0.0184534
341.5332,-0.1106071,-0.3273416,0.4640735,-2.138105,-0.3559489,-0.01848388
341.5486,-0.110818,-0.3273393,0.4641005,-2.138225,-0.3559895,-0.01851377
341.563,-0.1110265,-0.327337,0.4641269,-2.138343,-0.3560294,-0.01854306
341.5779,-0.1110265,-0.327337,0.4641269,-2.138343,-0.3560294,-0.01854306
341.5918,-0.1112326,-0.3273347,0.4641528,-2.13846,-0.3560685,-0.01857178
341.6071,-0.1114363,-0.3273325,0.4641782,-2.138576,-0.3561069,-0.01859994
341.6216,-0.1116376,-0.3273303,0.4642032,-2.138691,-0.3561445,-0.01862755
341.6364,-0.1116376,-0.3273303,0.4642032,-2.138691,-0.3561445,-0.01862755
341.6535,-0.1118366,-0.3273281,0.4642276,-2.138805,-0.3561814,-0.01865461
341.6678,-0.1120334,-0.3273259,0.4642516,-2.138918,-0.3562175,-0.01868114
341.6814,-0.1122279,-0.3273238,0.4642752,-2.139029,-0.3562529,-0.01870716
341.6953,-0.1122279,-0.3273238,0.4642752,-2.139029,-0.3562529,-0.01870716
341.7092,-0.1124201,-0.3273217,0.4642982,-2.13914,-0.3562877,-0.01873265
341.7244,-0.1126101,-0.3273196,0.4643208,-2.139249,-0.3563218,-0.01875765
341.739,-0.1126101,-0.3273196,0.4643208,-2.139249,-0.3563218,-0.01875765
341.753,-0.112798,-0.3273175,0.464343,-2.139357,-0.3563552,-0.01878216
341.7684,-0.1129836,-0.3273154,0.4643648,-2.139465,-0.356388,-0.01880619
341.7831,-0.1131672,-0.3273134,0.4643861,-2.139571,-0.3564201,-0.01882975
341.7985,-0.1131672,-0.3273134,0.4643861,-2.139571,-0.3564201,-0.01882975
341.8116,-0.1126213,-0.327309,0.4642365,-2.140061,-0.3564499,-0.01885257
341.8275,-0.1116188,-0.3273036,0.4640148,-2.140665,-0.3565269,-0.01887499
341.8418,-0.1103332,-0.3272977,0.4637852,-2.141273,-0.3566235,-0.01889703
341.8562,-0.1103332,-0.3272977,0.4637852,-2.141273,-0.3566235,-0.01889703
341.8701,-0.1096031,-0.3272941,0.463742,-2.141462,-0.3567241,-0.01891894
341.8854,-0.1092256,-0.3272917,0.463791,-2.141499,-0.3567719,-0.01894037
341.8999,-0.1092256,-0.3272917,0.463791,-2.141499,-0.3567719,-0.01894037
341.9143,-0.1090716,-0.3272899,0.4638657,-2.141494,-0.3567931,-0.01896134
341.9292,-0.1090588,-0.3272884,0.4639386,-2.141489,-0.3568062,-0.01898188
341.9461,-0.1098623,-0.3272886,0.4641725,-2.141112,-0.3568212,-0.01900228
341.9594,-0.1098623,-0.3272886,0.4641725,-2.141112,-0.3568212,-0.01900228
341.9731,-0.1111759,-0.327289,0.4644687,-2.140636,-0.3567897,-0.01902222
341.9879,-0.112805,-0.3272893,0.4647647,-2.140167,-0.3567398,-0.01904171
342.0034,-0.1146258,-0.3272893,0.4650387,-2.139738,-0.3566889,-0.01906079
342.0167,-0.1146258,-0.3272893,0.4650387,-2.139738,-0.3566889,-0.01906079
342.0309,-0.117288,-0.3272911,0.4654585,-2.138968,-0.3566452,-0.01907976
342.0459,-0.1204683,-0.327293,0.4659289,-2.138125,-0.356559,-0.01909829
342.0605,-0.1239613,-0.3272943,0.4663898,-2.137309,-0.3564575,-0.0191164
342.075,-0.1239613,-0.3272943,0.4663898,-2.137309,-0.3564575,-0.0191164
342.089,-0.1283648,-0.3272972,0.4669919,-2.136163,-0.3563587,-0.01913439
342.1042,-0.1333226,-0.3272996,0.4676346,-2.134963,-0.3562184,-0.01915195
342.119,-0.1333226,-0.3272996,0.4676346,-2.134963,-0.3562184,-0.01915195
342.1328,-0.1386084,-0.3273008,0.4682575,-2.13381,-0.3560652,-0.0191691
342.1484,-0.1440784,-0.327301,0.4688419,-2.132731,-0.3559164,-0.01918588
342.163,-0.1503696,-0.3273021,0.4695584,-2.131341,-0.3557767,-0.01920257
342.1775,-0.1503696,-0.3273021,0.4695584,-2.131341,-0.3557767,-0.01920257
342.1913,-0.1571512,-0.3273026,0.4703125,-2.129903,-0.3555982,-0.01921886
342.2066,-0.1642128,-0.3273024,0.4710457,-2.128516,-0.3554083,-0.01923477
342.221,-0.171421,-0.3273016,0.4717392,-2.127207,-0.3552232,-0.01925033
342.2356,-0.171421,-0.3273016,0.4717392,-2.127207,-0.3552232,-0.01925033
342.2516,-0.1794196,-0.3273017,0.4725637,-2.125591,-0.3550453,-0.01926581
342.266,-0.1878818,-0.3273011,0.4734226,-2.123932,-0.3548295,-0.01928091
342.2803,-0.1966002,-0.3272997,0.4742575,-2.12233,-0.3546033,-0.01929566
342.2938,-0.1966002,-0.3272997,0.4742575,-2.12233,-0.3546033,-0.01929566
342.3079,-0.2061716,-0.3272991,0.4752212,-2.120427,-0.3543786,-0.01931032
342.3229,-0.2162394,-0.3272974,0.4762108,-2.118496,-0.3541166,-0.0193246
342.3377,-0.2162394,-0.3272974,0.4762108,-2.118496,-0.3541166,-0.0193246
342.3515,-0.2265774,-0.3272947,0.4771674,-2.116637,-0.3538469,-0.01933853
342.3668,-0.2370418,-0.3272906,0.4780737,-2.114877,-0.3535851,-0.01935214
342.3815,-0.2482704,-0.3272876,0.4791012,-2.112831,-0.35333,-0.01936569
342.3963,-0.2482704,-0.3272876,0.4791012,-2.112831,-0.35333,-0.01936569
342.41,-0.2599325,-0.3272832,0.4801527,-2.110762,-0.3530401,-0.0193789
342.4254,-0.2718185,-0.3272768,0.4811711,-2.108765,-0.352743,-0.01939177
342.4398,-0.2718185,-0.3272768,0.4811711,-2.108765,-0.352743,-0.01939177
342.4539,-0.2845237,-0.3272709,0.4823104,-2.106484,-0.3524463,-0.01940458
342.4691,-0.297691,-0.327263,0.4834664,-2.104192,-0.3521155,-0.01941703
342.4834,-0.3110937,-0.3272525,0.4845814,-2.101985,-0.3517801,-0.01942917
342.498,-0.3110937,-0.3272525,0.4845814,-2.101985,-0.3517801,-0.01942917
342.512,-0.3245882,-0.3272397,0.485639,-2.099892,-0.3514555,-0.01944102
342.5276,-0.3388123,-0.3272275,0.4868118,-2.097528,-0.3511351,-0.01945283
342.543,-0.3534355,-0.3272135,0.4879999,-2.095154,-0.3507833,-0.01946431
342.5559,-0.3534355,-0.3272135,0.4879999,-2.095154,-0.3507833,-0.01946431
342.572,-0.3682485,-0.327197,0.4891476,-2.092865,-0.3504281,-0.01947549
342.5864,-0.3831187,-0.3271783,0.4902386,-2.090689,-0.3500842,-0.01948641
342.5997,-0.3831187,-0.3271783,0.4902386,-2.090689,-0.3500842,-0.01948641
342.6136,-0.3986909,-0.3271606,0.491445,-2.088243,-0.3497416,-0.01949729
342.6288,-0.4146394,-0.327141,0.4926646,-2.08579,-0.3493689,-0.01950785
342.6435,-0.4307575,-0.3271189,0.493842,-2.083424,-0.3489943,-0.01951814
342.658,-0.4307575,-0.3271189,0.493842,-2.083424,-0.3489943,-0.01951814
342.6719,-0.4476431,-0.3270972,0.4951328,-2.080794,-0.3486158,-0.01952837
342.6873,-0.4649405,-0.327073,0.4964288,-2.078167,-0.348209,-0.01953831
342.7018,-0.4824244,-0.3270458,0.4976746,-2.075644,-0.3478034,-0.01954797
342.7163,-0.4824244,-0.3270458,0.4976746,-2.075644,-0.3478034,-0.01954797
342.7303,-0.4999522,-0.327016,0.4988557,-2.073249,-0.3474129,-0.01955741
342.7456,-0.5181624,-0.326987,0.500145,-2.070601,-0.3470215,-0.01956679
342.7603,-0.5367254,-0.3269557,0.5014386,-2.067959,-0.3466046,-0.0195759
342.7747,-0.5367254,-0.3269557,0.5014386,-2.067959,-0.3466046,-0.0195759
342.7886,-0.5554324,-0.3269219,0.5026831,-2.065419,-0.3461902,-0.01958477
342.8038,-0.5741516,-0.3268858,0.5038643,-2.063006,-0.3457913,-0.01959341
342.8184,-0.5741516,-0.3268858,0.5038643,-2.063006,-0.3457913,-0.01959341
342.8323,-0.5935281,-0.3268508,0.5051544,-2.06034,-0.3453886,-0.01960201
342.8475,-0.6132368,-0.3268138,0.5064474,-2.057681,-0.3449619,-0.01961035
342.8622,-0.6330718,-0.3267742,0.5076904,-2.055125,-0.3445393,-0.01961846
342.8787,-0.6330718,-0.3267742,0.5076904,-2.055125,-0.3445393,-0.01961846
342.8927,-0.6536313,-0.326735,0.5090402,-2.052319,-0.3441086,-0.01962652
342.9067,-0.6745601,-0.326693,0.5103853,-2.049532,-0.3436563,-0.01963433
342.9204,-0.6956333,-0.3266478,0.5116732,-2.046861,-0.3432113,-0.01964191
342.935,-0.6956333,-0.3266478,0.5116732,-2.046861,-0.3432113,-0.01964191
342.9493,-0.716709,-0.3266001,0.5128912,-2.044331,-0.3427855,-0.01964931
342.9643,-0.7379188,-0.3265516,0.5140933,-2.041827,-0.3423729,-0.01965657
342.9788,-0.7379188,-0.3265516,0.5140933,-2.041827,-0.3423729,-0.01965657
342.9928,-0.7591241,-0.3265021,0.5152513,-2.039419,-0.3419689,-0.01966365
343.0081,-0.7802377,-0.326452,0.5163544,-2.037128,-0.3415804,-0.01967055
343.0226,-0.8012053,-0.3264018,0.5174025,-2.034954,-0.3412095,-0.01967729
343.0381,-0.8012053,-0.3264018,0.5174025,-2.034954,-0.3412095,-0.01967729
343.0511,-0.8219932,-0.3263521,0.5183991,-2.032892,-0.3408559,-0.01968386
343.0666,-0.8425812,-0.3263034,0.5193481,-2.030935,-0.3405185,-0.01969029
343.0809,-0.8629574,-0.326256,0.5202531,-2.029075,-0.3401962,-0.01969657
343.0956,-0.8629574,-0.326256,0.5202531,-2.029075,-0.3401962,-0.01969657
343.1097,-0.8831151,-0.3262101,0.5211169,-2.027308,-0.3398879,-0.01970271
343.1248,-0.9030511,-0.3261659,0.5219418,-2.025628,-0.3395931,-0.01970871
343.1391,-0.9030511,-0.3261659,0.5219418,-2.025628,-0.3395931,-0.01970871
343.153,-0.9227645,-0.3261235,0.5227298,-2.024033,-0.339311,-0.01971457
343.1684,-0.9422553,-0.3260829,0.5234822,-2.022518,-0.3390412,-0.01972029
343.1851,-0.9615248,-0.3260441,0.5242006,-2.021081,-0.3387833,-0.01972589
343.1985,-0.9615248,-0.3260441,0.5242006,-2.021081,-0.3387833,-0.01972589
343.2123,-0.9805745,-0.3260071,0.524886,-2.019721,-0.3385369,-0.01973137
343.2265,-0.9994063,-0.3259719,0.5255396,-2.018434,-0.3383016,-0.01973671
343.2409,-1.018022,-0.3259384,0.5261623,-2.017219,-0.3380773,-0.01974195
343.2556,-1.018022,-0.3259384,0.5261623,-2.017219,-0.3380773,-0.01974195
343.2695,-1.036425,-0.3259066,0.5267552,-2.016075,-0.3378636,-0.01974706
343.2846,-1.054617,-0.3258765,0.527319,-2.014998,-0.3376603,-0.01975206
343.2994,-1.054617,-0.3258765,0.527319,-2.014998,-0.3376603,-0.01975206
343.3132,-1.072599,-0.325848,0.5278545,-2.013988,-0.337467,-0.01975695
343.3286,-1.090375,-0.3258211,0.5283627,-2.013044,-0.3372837,-0.01976173
343.3431,-1.107947,-0.3257957,0.5288443,-2.012163,-0.33711,-0.01976641
343.3575,-1.107947,-0.3257957,0.5288443,-2.012163,-0.33711,-0.01976641
343.3716,-1.125317,-0.3257718,0.5293,-2.011343,-0.3369458,-0.01977098
343.3869,-1.142488,-0.3257494,0.5297307,-2.010584,-0.3367907,-0.01977545
343.4014,-1.159461,-0.3257283,0.5301369,-2.009884,-0.3366445,-0.01977983
343.416,-1.159461,-0.3257283,0.5301369,-2.009884,-0.3366445,-0.01977983
343.4299,-1.176239,-0.3257086,0.5305195,-2.009242,-0.3365071,-0.01978411
343.4452,-1.192824,-0.3256902,0.530879,-2.008655,-0.3363782,-0.0197883
343.4596,-1.192824,-0.3256902,0.530879,-2.008655,-0.3363782,-0.0197883
343.4734,-1.209219,-0.325673,0.5312161,-2.008123,-0.3362576,-0.0197924
343.4884,-1.225425,-0.3256571,0.5315315,-2.007645,-0.336145,-0.01979641
343.505,-1.241445,-0.3256424,0.5318258,-2.007218,-0.3360404,-0.01980033
343.5197,-1.241445,-0.3256424,0.5318258,-2.007218,-0.3360404,-0.01980033
343.5334,-1.257281,-0.3256288,0.5320995,-2.006842,-0.3359435,-0.01980417
343.5475,-1.272714,-0.3256156,0.5323023,-2.00663,-0.3358651,-0.0198079
343.5609,-1.287829,-0.3256038,0.5324705,-2.006499,-0.335804,-0.01981157
343.5753,-1.287829,-0.3256038,0.5324705,-2.006499,-0.335804,-0.01981157
343.5892,-1.30268,-0.3255937,0.5326205,-2.006416,-0.3357519,-0.01981517
343.6043,-1.317304,-0.3255851,0.5327578,-2.006369,-0.3357055,-0.0198187
343.6187,-1.317304,-0.3255851,0.5327578,-2.006369,-0.3357055,-0.0198187
343.6325,-1.330996,-0.3255757,0.5327153,-2.006731,-0.3357004,-0.01982207
343.6479,-1.344045,-0.3255683,0.5326107,-2.007235,-0.3357328,-0.01982541
343.6623,-1.356633,-0.3255639,0.5324958,-2.007777,-0.3357762,-0.01982871
343.6768,-1.356633,-0.3255639,0.5324958,-2.007777,-0.3357762,-0.01982871
343.6906,-1.368153,-0.3255599,0.5322177,-2.008698,-0.3358568,-0.01983185
343.7057,-1.378951,-0.3255582,0.5318958,-2.009724,-0.3359687,-0.01983498
343.7201,-1.389251,-0.3255584,0.5315798,-2.010754,-0.3360854,-0.01983806
343.7348,-1.389251,-0.3255584,0.5315798,-2.010754,-0.3360854,-0.01983806
343.7486,-1.399194,-0.3255598,0.5312817,-2.011758,-0.3361978,-0.01984108
343.7636,-1.408144,-0.3255606,0.530832,-2.013108,-0.3363401,-0.01984396
343.7781,-1.408144,-0.3255606,0.530832,-2.013108,-0.3363401,-0.01984396
343.7919,-1.41643,-0.3255625,0.5303441,-2.014546,-0.3365109,-0.01984682
343.807,-1.424266,-0.3255654,0.529866,-2.015975,-0.336685,-0.01984964
343.8213,-1.431784,-0.3255698,0.5294095,-2.017367,-0.336854,-0.0198524
343.8361,-1.431784,-0.3255698,0.5294095,-2.017367,-0.336854,-0.0198524
343.8497,-1.438344,-0.3255735,0.528805,-2.019096,-0.33705,-0.01985502
343.8647,-1.444273,-0.3255787,0.5281656,-2.020903,-0.337274,-0.01985763
343.8812,-1.44978,-0.3255861,0.5275399,-2.022691,-0.3375007,-0.01986021
343.8956,-1.44978,-0.3255861,0.5275399,-2.022691,-0.3375007,-0.01986021
343.9087,-1.454271,-0.325593,0.5267712,-2.024807,-0.3377532,-0.01986264
343.9222,-1.458104,-0.3256013,0.5259756,-2.026983,-0.3380316,-0.01986506
343.9367,-1.458104,-0.3256013,0.5259756,-2.026983,-0.3380316,-0.01986506
343.9505,-1.461507,-0.3256114,0.5252023,-2.029122,-0.33831,-0.01986746
343.9656,-1.464625,-0.3256231,0.5244623,-2.031196,-0.3385788,-0.01986981
343.9801,-1.466823,-0.3256337,0.5235842,-2.033579,-0.3388671,-0.01987201
343.995,-1.466823,-0.3256337,0.5235842,-2.033579,-0.3388671,-0.01987201
344.0082,-1.468432,-0.3256445,0.5226793,-2.036016,-0.3391812,-0.0198742
344.0232,-1.469665,-0.3256561,0.5217966,-2.038411,-0.3394954,-0.01987637
344.0377,-1.469665,-0.3256561,0.5217966,-2.038411,-0.3394954,-0.01987637
344.0517,-1.469927,-0.3256659,0.5207784,-2.041113,-0.3398283,-0.01987839
344.0668,-1.469579,-0.3256752,0.5197397,-2.043853,-0.3401861,-0.01988041
344.0814,-1.468848,-0.3256847,0.5187302,-2.046535,-0.3405419,-0.0198824
344.0958,-1.468848,-0.3256847,0.5187302,-2.046535,-0.3405419,-0.0198824
344.1096,-1.46788,-0.3256942,0.5177613,-2.049132,-0.3408858,-0.01988436
344.1248,-1.466038,-0.3257016,0.5166607,-2.052021,-0.3412415,-0.01988615
344.1392,-1.466038,-0.3257016,0.5166607,-2.052021,-0.3412415,-0.01988615
344.1527,-1.463654,-0.3257077,0.5155377,-2.054946,-0.3416225,-0.01988795
344.1681,-1.46094,-0.3257131,0.5144424,-2.05781,-0.3420026,-0.01988973
344.1826,-1.458028,-0.3257181,0.5133877,-2.060587,-0.342371,-0.01989148
344.1969,-1.458028,-0.3257181,0.5133877,-2.060587,-0.342371,-0.01989148
344.2108,-1.454276,-0.3257205,0.512202,-2.063653,-0.3427474,-0.01989304
344.2259,-1.450012,-0.3257218,0.5109933,-2.066751,-0.3431502,-0.01989462
344.2402,-1.445443,-0.3257226,0.5098135,-2.069783,-0.3435525,-0.01989619
344.2567,-1.445443,-0.3257226,0.5098135,-2.069783,-0.3435525,-0.01989619
344.2705,-1.439973,-0.325722,0.5085056,-2.073101,-0.3439622,-0.01989756
344.2847,-1.43396,-0.3257203,0.5071808,-2.076436,-0.3443973,-0.01989896
344.2989,-1.43396,-0.3257203,0.5071808,-2.076436,-0.3443973,-0.01989896
344.3127,-1.42763,-0.3257178,0.5058916,-2.079689,-0.3448302,-0.01990035
344.3269,-1.421126,-0.3257147,0.5046511,-2.082835,-0.3452491,-0.01990172
344.3412,-1.413814,-0.325709,0.503287,-2.086252,-0.3456662,-0.01990288
344.3556,-1.413814,-0.325709,0.503287,-2.086252,-0.3456662,-0.01990288
344.3694,-1.406022,-0.3257012,0.5019031,-2.089684,-0.3461092,-0.01990405
344.3848,-1.397962,-0.3256919,0.5005528,-2.093033,-0.3465513,-0.01990523
344.3989,-1.397962,-0.3256919,0.5005528,-2.093033,-0.3465513,-0.01990523
344.4128,-1.389038,-0.3256792,0.4990798,-2.096653,-0.3469914,-0.01990619
344.4279,-1.379609,-0.3256638,0.4975914,-2.100277,-0.3474574,-0.01990717
344.4423,-1.369901,-0.3256464,0.496142,-2.103805,-0.3479216,-0.01990816
344.457,-1.369901,-0.3256464,0.496142,-2.103805,-0.3479216,-0.01990816
344.4706,-1.360058,-0.3256276,0.4947459,-2.107212,-0.348371,-0.01990914
344.4859,-1.349444,-0.3256057,0.4932312,-2.11088,-0.3488087,-0.01990987
344.5002,-1.338389,-0.3255811,0.4916975,-2.114549,-0.3492727,-0.01991063
344.5147,-1.338389,-0.3255811,0.4916975,-2.114549,-0.3492727,-0.01991063
344.5286,-1.327102,-0.3255545,0.4901997,-2.118124,-0.3497368,-0.0199114
344.5437,-1.315718,-0.3255265,0.4887536,-2.121579,-0.3501872,-0.01991217
344.558,-1.315718,-0.3255265,0.4887536,-2.121579,-0.3501872,-0.01991217
344.5717,-1.303591,-0.3254955,0.487189,-2.125295,-0.3506214,-0.01991267
344.587,-1.291048,-0.3254618,0.4856032,-2.129011,-0.3510831,-0.0199132
344.6013,-1.278296,-0.325426,0.4840526,-2.132631,-0.3515464,-0.01991376
344.6158,-1.278296,-0.325426,0.4840526,-2.132631,-0.3515464,-0.01991376
344.6298,-1.264737,-0.3253865,0.4823852,-2.13651,-0.3519936,-0.01991404
344.6468,-1.250728,-0.3253437,0.480701,-2.140377,-0.3524686,-0.01991436
344.6615,-1.236495,-0.3252982,0.4790578,-2.144134,-0.3529444,-0.01991471
344.6745,-1.236495,-0.3252982,0.4790578,-2.144134,-0.3529444,-0.01991471
344.6896,-1.222179,-0.3252512,0.4774727,-2.147755,-0.3534058,-0.01991507
344.7028,-1.207144,-0.3252009,0.4757765,-2.151624,-0.3538397,-0.01991512
344.7169,-1.207144,-0.3252009,0.4757765,-2.151624,-0.3538397,-0.01991512
344.7309,-1.191719,-0.3251475,0.4740599,-2.155481,-0.3543011,-0.01991521
344.7459,-1.176114,-0.3250919,0.4723806,-2.15923,-0.3547654,-0.01991534
344.7604,-1.16046,-0.3250349,0.4707571,-2.162845,-0.355217,-0.01991547
344.7752,-1.16046,-0.3250349,0.4707571,-2.162845,-0.355217,-0.01991547
344.7887,-1.144114,-0.324975,0.4690227,-2.16671,-0.3556364,-0.01991528
344.804,-1.1274,-0.3249122,0.4672652,-2.170563,-0.3560846,-0.01991514
344.8183,-1.1274,-0.3249122,0.4672652,-2.170563,-0.3560846,-0.01991514
344.8322,-1.110524,-0.3248472,0.4655435,-2.174306,-0.3565376,-0.01991503
344.8475,-1.092891,-0.3247785,0.4637113,-2.178298,-0.3569605,-0.01991461
344.862,-1.074853,-0.3247062,0.4618597,-2.182267,-0.3574131,-0.01991423
344.8765,-1.074853,-0.3247062,0.4618597,-2.182267,-0.3574131,-0.01991423
344.8902,-1.056638,-0.3246312,0.4600462,-2.186032,-0.3578773,-0.01991382
344.9056,-1.038386,-0.3245544,0.4582431,-2.18825,-0.3584429,-0.01991196
344.92,-1.019461,-0.3244747,0.4563226,-2.189256,-0.3590194,-0.01990937
344.9345,-1.019461,-0.3244747,0.4563226,-2.189256,-0.3590194,-0.01990937
344.9485,-1.00019,-0.3243918,0.4543863,-2.189215,-0.3596308,-0.01990699
344.9635,-0.9807839,-0.3243067,0.4525047,-2.188616,-0.3602273,-0.01990511
344.978,-0.9807839,-0.3243067,0.4525047,-2.188616,-0.3602273,-0.01990511
344.992,-0.9606449,-0.324218,0.4505351,-2.188302,-0.3607622,-0.01990336
345.0092,-0.9401296,-0.3241256,0.4485564,-2.188126,-0.3613202,-0.01990189
345.0221,-0.9194634,-0.3240303,0.4466285,-2.187995,-0.3618861,-0.01990059
345.037,-0.9194634,-0.3240303,0.4466285,-2.187995,-0.3618861,-0.01990059
345.0507,-0.8987888,-0.3239333,0.4447737,-2.187869,-0.3624435,-0.01989941
345.065,-0.8774675,-0.3238337,0.4428286,-2.18813,-0.3629643,-0.01989797
345.0793,-0.8774675,-0.3238337,0.4428286,-2.18813,-0.3629643,-0.01989797
345.0933,-0.8558288,-0.3237311,0.4408697,-2.188367,-0.363528,-0.01989651
345.1088,-0.8340809,-0.3236262,0.4389586,-2.188424,-0.3641093,-0.01989511
345.1232,-0.8123555,-0.3235204,0.4371199,-2.188312,-0.364683,-0.01989381
345.1377,-0.8123555,-0.3235204,0.4371199,-2.188312,-0.364683,-0.01989381
345.1515,-0.7900072,-0.3234123,0.4351914,-2.1885,-0.3652177,-0.01989231
345.1668,-0.7673609,-0.3233016,0.43325,-2.18865,-0.3657904,-0.01989083
345.1812,-0.7446219,-0.323189,0.4313569,-2.188645,-0.3663771,-0.01988946
345.1957,-0.7446219,-0.323189,0.4313569,-2.188645,-0.3663771,-0.01988946
345.2096,-0.7211919,-0.3230733,0.4293703,-2.188895,-0.3669364,-0.01988785
345.2247,-0.6974256,-0.3229541,0.4273758,-2.189054,-0.3675359,-0.01988627
345.2391,-0.6974256,-0.3229541,0.4273758,-2.189054,-0.3675359,-0.01988627
345.2531,-0.6735471,-0.3228323,0.4254364,-2.189022,-0.3681477,-0.01988481
345.2683,-0.6496979,-0.3227092,0.4235759,-2.188843,-0.3687469,-0.0198835
345.283,-0.6254114,-0.3225844,0.4216694,-2.188905,-0.3693104,-0.0198821
345.2975,-0.6254114,-0.3225844,0.4216694,-2.188905,-0.3693104,-0.0198821
345.3113,-0.6009515,-0.3224579,0.4197743,-2.188958,-0.3698959,-0.01988076
345.3266,-0.5764849,-0.3223305,0.4179347,-2.188913,-0.3704861,-0.01987951
345.3429,-0.5521164,-0.3222034,0.416167,-2.188777,-0.3710644,-0.0198784
345.3573,-0.5521164,-0.3222034,0.416167,-2.188777,-0.3710644,-0.0198784
345.3712,-0.5279117,-0.3220778,0.4144725,-2.188598,-0.3716232,-0.01987741
345.3853,-0.5039114,-0.3219547,0.4128465,-2.188421,-0.3721614,-0.01987655
345.3988,-0.5039114,-0.3219547,0.4128465,-2.188421,-0.3721614,-0.01987655
345.4127,-0.4801401,-0.3218349,0.4112833,-2.188271,-0.3726807,-0.01987581
345.4282,-0.4566124,-0.3217188,0.4097777,-2.188152,-0.3731836,-0.01987514
345.4425,-0.4333366,-0.3216071,0.4083257,-2.188057,-0.3736723,-0.01987456
345.4569,-0.4333366,-0.3216071,0.4083257,-2.188057,-0.3736723,-0.01987456
345.4708,-0.4103167,-0.3214999,0.4069244,-2.187976,-0.3741481,-0.01987403
345.4859,-0.3875543,-0.3213973,0.4055715,-2.187899,-0.3746117,-0.01987356
345.5006,-0.3650493,-0.3212995,0.4042651,-2.187821,-0.3750634,-0.01987314
345.5152,-0.3650493,-0.3212995,0.4042651,-2.187821,-0.3750634,-0.01987314
345.5292,-0.3428004,-0.3212064,0.403004,-2.187742,-0.3755034,-0.01987279
345.5447,-0.3208059,-0.3211181,0.4017866,-2.18766,-0.3759318,-0.01987249
345.5591,-0.3208059,-0.3211181,0.4017866,-2.18766,-0.3759318,-0.01987249
345.573,-0.3054374,-0.3210549,0.4020739,-2.184104,-0.3764489,-0.01987546
345.5882,-0.2943014,-0.3210259,0.4031285,-2.180793,-0.3764147,-0.01987956
345.6028,-0.2858755,-0.3210261,0.4043375,-2.178735,-0.3761108,-0.01988347
345.6169,-0.2858755,-0.3210261,0.4043375,-2.178735,-0.3761108,-0.01988347
345.6312,-0.2791905,-0.3210443,0.4054375,-2.177518,-0.3757837,-0.01988654
345.6466,-0.2736292,-0.3210754,0.4063865,-2.17686,-0.3754985,-0.01988921
345.6609,-0.2687982,-0.3211153,0.4072061,-2.176569,-0.3752615,-0.01989166
345.6777,-0.2687982,-0.3211153,0.4072061,-2.176569,-0.3752615,-0.01989166
345.6914,-0.2644471,-0.321161,0.407929,-2.176512,-0.3750637,-0.01989397
345.7054,-0.2604162,-0.3212103,0.4085833,-2.176603,-0.3748944,-0.01989619
345.7192,-0.2604162,-0.3212103,0.4085833,-2.176603,-0.3748944,-0.01989619
345.7331,-0.2566417,-0.3338663,0.4082515,-2.179902,-0.378574,-0.01990713
345.7483,-0.2531295,-0.3541395,0.4086196,-2.184026,-0.3819945,-0.01991648
345.7629,-0.2498378,-0.3789707,0.4093766,-2.187382,-0.3848676,-0.01992306
345.7774,-0.2498378,-0.3789707,0.4093766,-2.187382,-0.3848676,-0.01992306
345.7915,-0.2467135,-0.4057238,0.4102897,-2.1887,-0.387159,-0.01992669
345.8068,-0.2437104,-0.4335353,0.4111821,-2.188452,-0.3891816,-0.01992975
345.8213,-0.2407956,-0.461871,0.4120522,-2.187479,-0.3909907,-0.01993308
345.836,-0.2407956,-0.461871,0.4120522,-2.187479,-0.3909907,-0.01993308
345.8499,-0.2379472,-0.4903998,0.4129014,-2.186468,-0.3926206,-0.01993683
345.8654,-0.2351472,-0.5181552,0.4137812,-2.185581,-0.393874,-0.01994028
345.8798,-0.2351472,-0.5181552,0.4137812,-2.185581,-0.393874,-0.01994028
345.894,-0.232384,-0.5453106,0.4145749,-2.185086,-0.3950487,-0.01994395
345.9092,-0.2296516,-0.5719737,0.4152951,-2.184954,-0.3962022,-0.01994768
345.9237,-0.2269476,-0.5982121,0.4159645,-2.185032,-0.3973433,-0.01995129
345.9379,-0.2269476,-0.5982121,0.4159645,-2.185032,-0.3973433,-0.01995129
345.9521,-0.2242662,-0.6233072,0.4166618,-2.184975,-0.3982274,-0.01995416
345.9676,-0.2216045,-0.6475869,0.4172949,-2.184899,-0.3990975,-0.01995705
345.9831,-0.2189627,-0.6712553,0.4178872,-2.18485,-0.3999714,-0.01995999
345.9977,-0.2189627,-0.6712553,0.4178872,-2.18485,-0.3999714,-0.01995999
346.0117,-0.2163367,-0.6936781,0.4185204,-2.184639,-0.4005959,-0.01996236
346.0259,-0.213725,-0.7152362,0.4190994,-2.184462,-0.4012122,-0.01996487
346.0405,-0.2111289,-0.736166,0.4196432,-2.18438,-0.4018398,-0.01996747
346.0552,-0.2111289,-0.736166,0.4196432,-2.18438,-0.4018398,-0.01996747
346.0694,-0.2085506,-0.7566149,0.4201706,-2.184376,-0.402468,-0.01997006
346.085,-0.2059861,-0.7759134,0.4207504,-2.184214,-0.4028469,-0.01997203
346.0992,-0.2059861,-0.7759134,0.4207504,-2.184214,-0.4028469,-0.01997203
346.1134,-0.203434,-0.7944212,0.4212807,-2.184069,-0.4032212,-0.0199741
346.1286,-0.2008956,-0.8123612,0.4217784,-2.184002,-0.4036116,-0.01997628
346.1435,-0.1983733,-0.829872,0.422262,-2.184,-0.4040076,-0.01997845
346.1584,-0.1983733,-0.829872,0.422262,-2.184,-0.4040076,-0.01997845
346.172,-0.1958628,-0.8462784,0.4227988,-2.183833,-0.4041601,-0.01998
346.1874,-0.1933621,-0.861937,0.4232867,-2.183685,-0.404314,-0.01998169
346.2021,-0.1908729,-0.8770685,0.4237427,-2.183619,-0.4044903,-0.01998349
346.2166,-0.1908729,-0.8770685,0.4237427,-2.183619,-0.4044903,-0.01998349
346.2306,-0.188391,-0.8910475,0.4242431,-2.183427,-0.4044401,-0.01998474
346.2459,-0.1859147,-0.9042619,0.4246908,-2.183289,-0.4044052,-0.01998615
346.2616,-0.1834465,-0.9169511,0.4251057,-2.183249,-0.404404,-0.01998767
346.2761,-0.1834465,-0.9169511,0.4251057,-2.183249,-0.404404,-0.01998767
346.2899,-0.18099,-0.9292628,0.4255078,-2.183279,-0.4044237,-0.01998921
346.3044,-0.1785408,-0.940527,0.4259644,-2.183138,-0.4042148,-0.01999014
346.3189,-0.1785408,-0.940527,0.4259644,-2.183138,-0.4042148,-0.01999014
346.3328,-0.1760968,-0.9511045,0.4263728,-2.183009,-0.4040206,-0.01999121
346.3483,-0.1736603,-0.9612172,0.4267508,-2.182955,-0.4038606,-0.01999241
346.3631,-0.171235,-0.9710018,0.4271176,-2.182966,-0.4037232,-0.01999363
346.3778,-0.171235,-0.9710018,0.4271176,-2.182966,-0.4037232,-0.01999363
346.3918,-0.1688164,-0.9797813,0.4275391,-2.182811,-0.4033603,-0.01999427
346.4071,-0.1664018,-0.9879124,0.4279121,-2.182677,-0.4030165,-0.01999507
346.4216,-0.1639937,-0.9956138,0.4282545,-2.182626,-0.4027116,-0.019996
346.4363,-0.1639937,-0.9956138,0.4282545,-2.182626,-0.4027116,-0.019996
346.4505,-0.1615882,-1.002258,0.4286419,-2.182448,-0.4021976,-0.01999643
346.4657,-0.159183,-1.008234,0.428977,-2.182324,-0.4017154,-0.01999703
346.4803,-0.1567817,-1.013777,0.429281,-2.182298,-0.401282,-0.01999776
346.495,-0.1567817,-1.013777,0.429281,-2.182298,-0.401282,-0.01999776
346.5088,-0.1543891,-1.019035,0.4295749,-2.182342,-0.4008835,-0.01999852
346.5245,-0.1520017,-1.023334,0.4299248,-2.182213,-0.4002713,-0.01999871
346.5408,-0.1496166,-1.027035,0.4302273,-2.182095,-0.3996882,-0.01999906
346.5543,-0.1496166,-1.027035,0.4302273,-2.182095,-0.3996882,-0.01999906
346.5686,-0.147237,-1.030358,0.4305011,-2.182053,-0.3991528,-0.01999955
346.5828,-0.1448677,-1.033438,0.4307662,-2.182076,-0.3986523,-0.02000008
346.5977,-0.1448677,-1.033438,0.4307662,-2.182076,-0.3986523,-0.02000008
346.6116,-0.142505,-1.035596,0.4310877,-2.181931,-0.3979399,-0.02000006
346.627,-0.1401457,-1.037188,0.4313602,-2.181767,-0.3972628,-0.02000016
346.6415,-0.1377928,-1.038431,0.4316029,-2.181623,-0.3966399,-0.02000037
346.6564,-0.1377928,-1.038431,0.4316029,-2.181623,-0.3966399,-0.02000037
346.6703,-0.1354431,-1.038697,0.4318928,-2.181305,-0.3958207,-0.0200001
346.6858,-0.1330941,-1.03838,0.4321292,-2.180964,-0.3950523,-0.01999996
346.7004,-0.1307602,-1.037706,0.4323448,-2.180639,-0.3943404,-0.01999995
346.715,-0.1307602,-1.037706,0.4323448,-2.180639,-0.3943404,-0.01999995
346.7292,-0.1284552,-1.036819,0.4325646,-2.180339,-0.3936677,-0.02
346.7446,-0.1261756,-1.035046,0.4328504,-2.179863,-0.392787,-0.01999954
346.7591,-0.1261756,-1.035046,0.4328504,-2.179863,-0.392787,-0.01999954
346.7729,-0.1239411,-1.032747,0.4331096,-2.179351,-0.3919431,-0.01999918
346.7885,-0.1217551,-1.030139,0.4333568,-2.178852,-0.3911527,-0.01999894
346.8028,-0.1196145,-1.027356,0.433605,-2.178379,-0.3904021,-0.01999877
346.8185,-0.1196145,-1.027356,0.433605,-2.178379,-0.3904021,-0.01999877
346.8324,-0.1175067,-1.023718,0.4339113,-2.177736,-0.3894491,-0.01999809
346.8482,-0.1154451,-1.019578,0.4341839,-2.17706,-0.3885379,-0.01999754
346.8616,-0.11343,-1.015153,0.4344389,-2.176403,-0.3876847,-0.01999712
346.8762,-0.11343,-1.015153,0.4344389,-2.176403,-0.3876847,-0.01999712
346.89,-0.111449,-1.009812,0.4347426,-2.17558,-0.386647,-0.01999625
346.9052,-0.1095143,-1.003939,0.4350094,-2.174732,-0.3856619,-0.01999552
346.92,-0.1095143,-1.003939,0.4350094,-2.174732,-0.3856619,-0.01999552
346.934,-0.1076249,-0.9977695,0.4352576,-2.173913,-0.3847421,-0.01999494
346.9492,-0.1057758,-0.9914456,0.4355021,-2.173134,-0.3838717,-0.01999444
346.9641,-0.1039534,-0.9842929,0.4357986,-2.172195,-0.3828129,-0.01999348
346.9788,-0.1039534,-0.9842929,0.4357986,-2.172195,-0.3828129,-0.01999348
346.9927,-0.1021694,-0.9766685,0.4360582,-2.171234,-0.3818044,-0.01999265
347.0079,-0.1004234,-0.9687901,0.4362976,-2.170301,-0.3808607,-0.01999197
347.0227,-0.09871143,-0.9607907,0.4365318,-2.169409,-0.3799669,-0.01999137
347.0373,-0.09871143,-0.9607907,0.4365318,-2.169409,-0.3799669,-0.01999137
347.0512,-0.09702141,-0.9519896,0.436815,-2.168359,-0.3788902,-0.01999033
347.0667,-0.09536453,-0.9427396,0.43706,-2.167288,-0.3778663,-0.01998943
347.0811,-0.09374092,-0.933256,0.4372842,-2.166248,-0.3769087,-0.01998868
347.0978,-0.09374092,-0.933256,0.4372842,-2.166248,-0.3769087,-0.01998868
347.1112,-0.09213977,-0.9229086,0.4375494,-2.165053,-0.3757854,-0.01998753
347.1253,-0.09057135,-0.9120805,0.4377747,-2.163845,-0.3747244,-0.01998655
347.1397,-0.09057135,-0.9120805,0.4377747,-2.163845,-0.3747244,-0.01998655
347.1555,-0.08903515,-0.9010056,0.4379793,-2.162676,-0.3737357,-0.01998573
347.1689,-0.08752739,-0.8898273,0.4381786,-2.161558,-0.3728031,-0.019985
347.1836,-0.08604408,-0.8786332,0.4383784,-2.160489,-0.3719139,-0.01998433
347.1984,-0.08604408,-0.8786332,0.4383784,-2.160489,-0.3719139,-0.01998433
347.2123,-0.08458188,-0.8674769,0.4385799,-2.159464,-0.3710606,-0.01998371
347.2278,-0.08313835,-0.8563913,0.4387824,-2.158477,-0.3702387,-0.01998312
347.2426,-0.08171176,-0.845396,0.4389851,-2.157523,-0.3694453,-0.01998257
347.2574,-0.08171176,-0.845396,0.4389851,-2.157523,-0.3694453,-0.01998257
347.271,-0.08030759,-0.8352649,0.4391445,-2.156799,-0.3688872,-0.01998251
347.2863,-0.0789136,-0.8257035,0.4393428,-2.156156,-0.3683319,-0.01998237
347.3009,-0.07752676,-0.8165311,0.4395612,-2.155539,-0.367763,-0.01998214
347.3157,-0.07752676,-0.8165311,0.4395612,-2.155539,-0.367763,-0.01998214
347.3297,-0.07615381,-0.8083978,0.4397418,-2.155126,-0.3673981,-0.01998234
347.3452,-0.07478561,-0.8009336,0.4399596,-2.154771,-0.3670172,-0.01998242
347.3596,-0.07478561,-0.8009336,0.4399596,-2.154771,-0.3670172,-0.01998242
347.3758,-0.07342106,-0.7939106,0.4401945,-2.154419,-0.3666105,-0.0199824
347.39,-0.07206181,-0.787188,0.4404309,-2.154055,-0.3661919,-0.01998235
347.4035,-0.07071623,-0.7814401,0.4406216,-2.15388,-0.365977,-0.01998273
347.418,-0.07071623,-0.7814401,0.4406216,-2.15388,-0.365977,-0.01998273
347.4323,-0.06937679,-0.7763126,0.4408464,-2.153752,-0.3657449,-0.019983
347.4476,-0.06804252,-0.7715868,0.4410875,-2.15362,-0.365484,-0.01998317
347.4622,-0.06671485,-0.7671275,0.4413302,-2.153472,-0.3652075,-0.01998329
347.4771,-0.06671485,-0.7671275,0.4413302,-2.153472,-0.3652075,-0.01998329
347.4908,-0.06540164,-0.7636123,0.4415276,-2.153507,-0.3651297,-0.01998384
347.5063,-0.06409581,-0.7606899,0.4417594,-2.153585,-0.3650307,-0.01998428
347.5208,-0.0627962,-0.7581428,0.4420076,-2.153654,-0.3648988,-0.01998461
347.5356,-0.0627962,-0.7581428,0.4420076,-2.153654,-0.3648988,-0.01998461
347.5544,-0.06150974,-0.7565984,0.4422161,-2.153903,-0.3649516,-0.01998533
347.565,-0.06022967,-0.7556739,0.44246,-2.154185,-0.3649739,-0.01998592
347.5794,-0.06022967,-0.7556739,0.44246,-2.154185,-0.3649739,-0.01998592
347.5936,-0.05895498,-0.755133,0.4427199,-2.154448,-0.3649566,-0.0199864
347.6088,-0.05768689,-0.7548292,0.4429807,-2.154681,-0.3649142,-0.01998681
347.6234,-0.05643297,-0.75543,0.4431952,-2.155084,-0.3650618,-0.01998763
347.6379,-0.05643297,-0.75543,0.4431952,-2.155084,-0.3650618,-0.01998763
347.6543,-0.05519376,-0.7565846,0.4434468,-2.155517,-0.3651813,-0.01998834
347.6684,-0.05397124,-0.7580734,0.4437191,-2.155926,-0.3652595,-0.01998892
347.682,-0.0527656,-0.7597601,0.443996,-2.156301,-0.3653095,-0.01998943
347.697,-0.0527656,-0.7597601,0.443996,-2.156301,-0.3653095,-0.01998943
347.7107,-0.05158221,-0.7623223,0.4442276,-2.156846,-0.3655492,-0.01999036
347.726,-0.05042041,-0.7654095,0.4444981,-2.157415,-0.3657571,-0.01999116
347.7405,-0.04927834,-0.7688047,0.444789,-2.15796,-0.3659209,-0.01999184
347.7551,-0.04927834,-0.7688047,0.444789,-2.15796,-0.3659209,-0.01999184
347.7693,-0.04815999,-0.7731354,0.44504,-2.158669,-0.3662627,-0.0199929
347.7846,-0.04706336,-0.7780204,0.4453311,-2.159397,-0.3665645,-0.01999382
347.7993,-0.04706336,-0.7780204,0.4453311,-2.159397,-0.3665645,-0.01999382
347.8131,-0.04598585,-0.7832235,0.4456419,-2.160091,-0.3668164,-0.0199946
347.8287,-0.04492514,-0.7885985,0.4459553,-2.160741,-0.3670333,-0.01999531
347.8434,-0.04388546,-0.794817,0.4462194,-2.161552,-0.3674383,-0.01999643
347.8576,-0.04388546,-0.794817,0.4462194,-2.161552,-0.3674383,-0.01999643
347.8717,-0.04286468,-0.8015251,0.446521,-2.162381,-0.3678071,-0.01999741
347.887,-0.04186046,-0.8085038,0.4468423,-2.163177,-0.3681266,-0.01999826
347.9016,-0.04087078,-0.8156175,0.4471669,-2.163929,-0.3684102,-0.01999904
347.9162,-0.04087078,-0.8156175,0.4471669,-2.163929,-0.3684102,-0.01999904
347.9333,-0.03990044,-0.823544,0.4474415,-2.164841,-0.3688834,-0.02000023
347.9465,-0.03894715,-0.8319342,0.4477545,-2.16577,-0.3693193,-0.02000129
347.9612,-0.03800866,-0.8405715,0.448088,-2.166665,-0.3697037,-0.0200022
347.9748,-0.03800866,-0.8405715,0.448088,-2.166665,-0.3697037,-0.0200022
347.9887,-0.03708972,-0.8500838,0.448378,-2.167717,-0.3702669,-0.02000351
348.0041,-0.03618742,-0.860091,0.4487086,-2.168779,-0.3707847,-0.02000466
348.0184,-0.03618742,-0.860091,0.4487086,-2.168779,-0.3707847,-0.02000466
348.0325,-0.03529924,-0.8703576,0.4490601,-2.169798,-0.3712451,-0.02000567
348.0482,-0.03442325,-0.8807375,0.4494149,-2.170763,-0.371663,-0.02000659
348.0627,-0.03356499,-0.8919023,0.4497165,-2.171882,-0.3722717,-0.02000793
348.0772,-0.03356499,-0.8919023,0.4497165,-2.171882,-0.3722717,-0.02000793
348.0914,-0.03272149,-0.9034997,0.4500567,-2.17301,-0.3728395,-0.02000913
348.1069,-0.03189041,-0.9153109,0.4504183,-2.174098,-0.3733508,-0.02001018
348.1212,-0.03107009,-0.9272006,0.4507843,-2.175133,-0.373819,-0.02001114
348.1361,-0.03107009,-0.9272006,0.4507843,-2.175133,-0.373819,-0.02001114
348.15,-0.03026673,-0.9398472,0.4510961,-2.176321,-0.3744811,-0.02001254
348.1653,-0.02947699,-0.9529024,0.4514475,-2.177519,-0.3751018,-0.02001379
348.1799,-0.02947699,-0.9529024,0.4514475,-2.177519,-0.3751018,-0.02001379
348.194,-0.02869852,-0.9661506,0.4518215,-2.178676,-0.3756639,-0.02001489
348.2092,-0.02793746,-0.9802197,0.4521478,-2.179984,-0.3764098,-0.0200164
348.2257,-0.02718967,-0.994731,0.4525164,-2.181294,-0.3771062,-0.02001774
348.2393,-0.02718967,-0.994731,0.4525164,-2.181294,-0.3771062,-0.02001774
348.2533,-0.02645254,-1.009449,0.4529079,-2.182555,-0.3777382,-0.02001893
348.2678,-0.02572447,-1.024229,0.453297,-2.183569,-0.3783373,-0.02001978
348.2823,-0.02501272,-1.039742,0.453618,-2.184278,-0.3791612,-0.02002071
348.2969,-0.02501272,-1.039742,0.453618,-2.184278,-0.3791612,-0.02002071
348.3109,-0.02431282,-1.055637,0.453982,-2.184526,-0.3799492,-0.02002135
348.3262,-0.02362224,-1.071696,0.4543819,-2.184426,-0.3806612,-0.02002188
348.3409,-0.02293964,-1.087784,0.4548013,-2.184172,-0.3813,-0.02002242
348.3556,-0.02293964,-1.087784,0.4548013,-2.184172,-0.3813,-0.02002242
348.3696,-0.02227303,-1.104579,0.4551729,-2.184126,-0.3821127,-0.02002355
348.385,-0.02161722,-1.121735,0.4555863,-2.184141,-0.3828692,-0.02002452
348.3996,-0.02161722,-1.121735,0.4555863,-2.184141,-0.3828692,-0.02002452
348.4136,-0.02096965,-1.139036,0.4560223,-2.184141,-0.3835556,-0.0200253
348.4291,-0.02033827,-1.157111,0.4564089,-2.184314,-0.3844197,-0.02002648
348.444,-0.01971689,-1.175582,0.4568356,-2.184446,-0.3852295,-0.02002741
348.4583,-0.01971689,-1.175582,0.4568356,-2.184446,-0.3852295,-0.02002741
348.4723,-0.0191028,-1.194215,0.4572855,-2.184468,-0.3859664,-0.02002812
348.4897,-0.01849491,-1.212864,0.4577426,-2.184401,-0.3866411,-0.02002873
348.5034,-0.01790251,-1.232201,0.4581454,-2.184504,-0.3874978,-0.02002981
348.517,-0.01790251,-1.232201,0.4581454,-2.184504,-0.3874978,-0.02002981
348.5312,-0.01731868,-1.251877,0.4585862,-2.184593,-0.3883026,-0.02003069
348.5466,-0.01674086,-1.271673,0.4590491,-2.184603,-0.3890361,-0.02003137
348.5611,-0.01616821,-1.291455,0.4595185,-2.184545,-0.3897089,-0.02003193
348.576,-0.01616821,-1.291455,0.4595185,-2.184545,-0.3897089,-0.02003193
348.5899,-0.01561067,-1.311894,0.4599338,-2.184662,-0.390563,-0.02003298
348.6054,-0.01506033,-1.332648,0.4603855,-2.184764,-0.3913667,-0.02003379
348.62,-0.01506033,-1.332648,0.4603855,-2.184764,-0.3913667,-0.02003379
348.6341,-0.01451473,-1.353504,0.4608583,-2.184782,-0.3921001,-0.0200344
348.6496,-0.01379844,-1.361724,0.4622225,-2.181242,-0.3889021,-0.02002632
348.6642,-0.01301235,-1.362117,0.4628289,-2.17769,-0.385894,-0.02002132
348.6788,-0.01301235,-1.362117,0.4628289,-2.17769,-0.385894,-0.02002132
348.693,-0.01216057,-1.357722,0.4628774,-2.174597,-0.3835955,-0.02001804
348.7083,-0.0113331,-1.350422,0.4627694,-2.172008,-0.3817849,-0.02001574
348.7231,-0.01056296,-1.341383,0.4626811,-2.169839,-0.3802546,-0.02001388
348.7376,-0.01056296,-1.341383,0.4626811,-2.169839,-0.3802546,-0.02001388
348.7515,-0.009848213,-1.331323,0.4626538,-2.167987,-0.378886,-0.0200122
348.768,-0.009176493,-1.32068,0.4626798,-2.166362,-0.3776198,-0.0200106
348.7816,-0.008535571,-1.309725,0.4627419,-2.164897,-0.3764261,-0.02000906
348.7964,-0.008535571,-1.309725,0.4627419,-2.164897,-0.3764261,-0.02000906
348.8106,-0.007916203,-1.298626,0.4628327,-2.163548,-0.3752983,-0.0200076
348.8259,-0.007312098,-1.287487,0.4629434,-2.162282,-0.3742163,-0.02000619
348.8404,-0.006719188,-1.27637,0.4630639,-2.161079,-0.3731733,-0.02000481
348.8551,-0.006719188,-1.27637,0.4630639,-2.161079,-0.3731733,-0.02000481
348.8692,-0.006134889,-1.265317,0.4624679,-2.159844,-0.371265,-0.02000074
348.8845,-0.005557624,-1.254349,0.4610476,-2.158634,-0.3695232,-0.01999717
348.8993,-0.005557624,-1.254349,0.4610476,-2.158634,-0.3695232,-0.01999717
348.9133,-0.004986417,-1.243483,0.4591773,-2.157478,-0.3680245,-0.01999429
348.9289,-0.004420669,-1.232726,0.4571062,-2.156375,-0.3666853,-0.01999183
348.9436,-0.003859996,-1.222083,0.4542311,-2.155238,-0.3645411,-0.01998689
348.9577,-0.003859996,-1.222083,0.4542311,-2.155238,-0.3645411,-0.01998689
348.9721,-0.003304201,-1.211556,0.4505108,-2.15413,-0.3626019,-0.01998258
348.9874,-0.002753167,-1.201147,0.4463519,-2.153075,-0.3609248,-0.019979
349.0019,-0.002206828,-1.190856,0.442016,-2.152075,-0.3594185,-0.01997589
349.0186,-0.002206828,-1.190856,0.442016,-2.152075,-0.3594185,-0.01997589
349.033,-0.001665129,-1.180681,0.4368956,-2.151043,-0.357114,-0.01997035
349.0471,-0.001128077,-1.170623,0.4309564,-2.150043,-0.355028,-0.01996546
349.0607,-0.0005956783,-1.160681,0.42461,-2.149099,-0.3532121,-0.01996135
349.0753,-0.0005956783,-1.160681,0.42461,-2.149099,-0.3532121,-0.01996135
349.0891,-6.79206E-05,-1.150853,0.4173752,-2.148133,-0.3506671,-0.01995503
349.1048,0.0004551677,-1.141139,0.4092911,-2.147207,-0.3483841,-0.0199495
349.1193,0.0004551677,-1.141139,0.4092911,-2.147207,-0.3483841,-0.0199495
349.1332,0.0009735679,-1.131536,0.4008056,-2.146343,-0.3463939,-0.0199448
349.1486,0.001487266,-1.122045,0.3921951,-2.14554,-0.3445943,-0.01994062
349.1635,0.00199627,-1.112664,0.3828435,-2.144713,-0.34201,-0.01993411
349.1781,0.00199627,-1.112664,0.3828435,-2.144713,-0.34201,-0.01993411
349.1925,0.002500551,-1.10339,0.3727258,-2.143925,-0.3396679,-0.01992834
349.2075,0.003000093,-1.094225,0.3622617,-2.143198,-0.3376106,-0.01992336
349.222,0.003494888,-1.085165,0.3517133,-2.142529,-0.3357423,-0.0199189
349.237,0.003494888,-1.085165,0.3517133,-2.142529,-0.3357423,-0.0199189
349.251,0.003984947,-1.076211,0.3404506,-2.141838,-0.3330901,-0.01991217
349.2664,0.00447025,-1.06736,0.3284495,-2.141186,-0.3306881,-0.01990617
349.2809,0.004950788,-1.058613,0.3161314,-2.140595,-0.3285755,-0.01990099
349.2976,0.004950788,-1.058613,0.3161314,-2.140595,-0.3285755,-0.01990099
349.3117,0.005426577,-1.049966,0.302996,-2.139988,-0.3257465,-0.01989377
349.325,0.005897604,-1.04142,0.2890913,-2.139427,-0.3232076,-0.01988739
349.3394,0.005897604,-1.04142,0.2890913,-2.139427,-0.3232076,-0.01988739
349.3535,0.006363865,-1.032974,0.2748734,-2.138932,-0.3209785,-0.01988187
349.3687,0.006825364,-1.024625,0.2606178,-2.138498,-0.3189538,-0.01987692
349.3835,0.007282125,-1.016374,0.2456893,-2.138045,-0.3161559,-0.01986981
349.3979,0.007282125,-1.016374,0.2456893,-2.138045,-0.3161559,-0.01986981
349.4121,0.007734142,-1.008219,0.2300707,-2.137636,-0.3136252,-0.01986347
349.4278,0.008181421,-1.000159,0.2141889,-2.137288,-0.3113946,-0.01985797
349.4424,0.008623972,-0.9921926,0.1983056,-2.136998,-0.3093654,-0.01985301
349.4573,0.008623972,-0.9921926,0.1983056,-2.136998,-0.3093654,-0.01985301
349.4711,0.009061824,-0.9843192,0.1817746,-2.136689,-0.3065625,-0.01984595
349.4865,0.009494979,-0.9765376,0.164578,-2.136422,-0.3040315,-0.01983967
349.501,0.00992345,-0.9688469,0.1471436,-2.136215,-0.3018033,-0.01983422
349.5159,0.00992345,-0.9688469,0.1471436,-2.136215,-0.3018033,-0.01983422
349.5299,0.01034727,-0.9612458,0.1289587,-2.135994,-0.298868,-0.0198269
349.5451,0.01076644,-0.9537336,0.1100762,-2.135821,-0.2962414,-0.01982044
349.5598,0.01076644,-0.9537336,0.1100762,-2.135821,-0.2962414,-0.01982044
349.5759,0.01118099,-0.9463092,0.09095715,-2.13571,-0.2939364,-0.01981486
349.59,0.01159092,-0.9389716,0.07187597,-2.135656,-0.2918456,-0.01980986
349.6037,0.01199629,-0.9317198,0.05218664,-2.135584,-0.2889899,-0.01980287
349.618,0.01199629,-0.9317198,0.05218664,-2.135584,-0.2889899,-0.01980287
349.6323,0.0123971,-0.9245528,0.03187497,-2.135555,-0.2864174,-0.01979668
349.6476,0.01279338,-0.9174697,0.01137207,-2.135583,-0.2841556,-0.01979131
349.6623,0.01318515,-0.9104697,-0.009061312,-2.135664,-0.282104,-0.0197865
349.6769,0.01318515,-0.9104697,-0.009061312,-2.135664,-0.282104,-0.0197865
349.6908,0.01357245,-0.9035516,-0.03007894,-2.135725,-0.2792865,-0.01977977
349.7062,0.01395531,-0.8967146,-0.05169752,-2.135827,-0.2767538,-0.01977383
349.7209,0.01433374,-0.8899577,-0.07348636,-2.135982,-0.2745332,-0.01976871
349.7357,0.01433374,-0.8899577,-0.07348636,-2.135982,-0.2745332,-0.01976871
349.7496,0.01470778,-0.8832802,-0.09518581,-2.136186,-0.2725237,-0.01976413
349.7648,0.01507747,-0.876681,-0.1166733,-2.136434,-0.2706611,-0.01975995
349.7795,0.01507747,-0.876681,-0.1166733,-2.136434,-0.2706611,-0.01975995
349.7935,0.01544282,-0.8701593,-0.1378963,-2.136719,-0.2689129,-0.01975607
349.8088,0.01580388,-0.8637142,-0.1588342,-2.137037,-0.2672626,-0.01975245
349.8236,0.01616068,-0.8573448,-0.1794804,-2.137385,-0.265702,-0.01974905
349.8376,0.01616068,-0.8573448,-0.1794804,-2.137385,-0.265702,-0.01974905
349.8538,0.01651326,-0.8510503,-0.1998346,-2.137761,-0.2642258,-0.01974588
349.8679,0.01686164,-0.8448298,-0.2198986,-2.138163,-0.2628306,-0.01974292
349.8826,0.01720588,-0.8386825,-0.2396754,-2.138588,-0.2615135,-0.01974018
349.8962,0.01720588,-0.8386825,-0.2396754,-2.138588,-0.2615135,-0.01974018
349.9101,0.01754599,-0.8326074,-0.2591686,-2.139034,-0.260272,-0.01973761
349.9253,0.01788203,-0.8266039,-0.2783817,-2.139501,-0.2591036,-0.01973522
349.9398,0.01788203,-0.8266039,-0.2783817,-2.139501,-0.2591036,-0.01973522
349.9537,0.01821403,-0.8206711,-0.2973185,-2.139986,-0.2580062,-0.01973302
349.969,0.01854202,-0.8148082,-0.3159827,-2.140489,-0.2569777,-0.01973098
349.9837,0.01886605,-0.8090143,-0.3343779,-2.141006,-0.2560158,-0.01972912
349.9984,0.01886605,-0.8090143,-0.3343779,-2.141006,-0.2560158,-0.01972912
350.0124,0.01918614,-0.8032887,-0.3525078,-2.141539,-0.2551187,-0.01972741
350.0279,0.01950235,-0.7976306,-0.370376,-2.142084,-0.2542842,-0.01972585
350.0423,0.01981471,-0.7920392,-0.3879862,-2.14264,-0.2535106,-0.01972443
350.0571,0.01981471,-0.7920392,-0.3879862,-2.14264,-0.2535106,-0.01972443
350.0707,0.02012326,-0.7865138,-0.4053417,-2.143208,-0.2527959,-0.01972317
350.0861,0.02042803,-0.7810535,-0.4224464,-2.143784,-0.2521383,-0.01972202
350.1007,0.02072907,-0.7756577,-0.4393035,-2.144369,-0.2515362,-0.01972101
350.1154,0.02072907,-0.7756577,-0.4393035,-2.144369,-0.2515362,-0.01972101
350.1294,0.02102642,-0.7703256,-0.4559165,-2.144961,-0.2509876,-0.01972012
350.1445,0.02132012,-0.7650564,-0.4722889,-2.14556,-0.2504911,-0.01971934
350.161,0.0216102,-0.7598495,-0.488424,-2.146163,-0.2500449,-0.01971869
350.1745,0.0216102,-0.7598495,-0.488424,-2.146163,-0.2500449,-0.01971869
350.1887,0.0218967,-0.7547041,-0.5043252,-2.146771,-0.2496474,-0.01971814
350.2027,0.02217967,-0.7496194,-0.5199957,-2.147383,-0.2492973,-0.0197177
350.2173,0.02217967,-0.7496194,-0.5199957,-2.147383,-0.2492973,-0.0197177
350.2315,0.02245913,-0.7445949,-0.535439,-2.147997,-0.2489929,-0.01971736
350.2467,0.02273514,-0.7396297,-0.550658,-2.148613,-0.2487327,-0.01971711
350.2612,0.02300773,-0.7347233,-0.5656562,-2.14923,-0.2485155,-0.01971695
350.2758,0.02300773,-0.7347233,-0.5656562,-2.14923,-0.2485155,-0.01971695
350.2896,0.02327694,-0.7298749,-0.5804365,-2.149848,-0.2483397,-0.01971689
350.3053,0.0235428,-0.7250839,-0.5950021,-2.150466,-0.2482041,-0.01971692
350.3196,0.0235428,-0.7250839,-0.5950021,-2.150466,-0.2482041,-0.01971692
350.334,0.02380536,-0.7203496,-0.609356,-2.151082,-0.2481073,-0.01971703
350.3489,0.02406465,-0.7156712,-0.6235014,-2.151697,-0.248048,-0.01971721
350.3637,0.02432072,-0.7110482,-0.6374412,-2.152311,-0.2480251,-0.01971747
350.3784,0.02432072,-0.7110482,-0.6374412,-2.152311,-0.2480251,-0.01971747
350.3922,0.02457359,-0.70648,-0.6511782,-2.152921,-0.2480373,-0.0197178
350.4077,0.02482332,-0.7019658,-0.6647156,-2.153529,-0.2480834,-0.0197182
350.422,0.02506992,-0.6975051,-0.6780561,-2.154133,-0.2481622,-0.01971867
350.4366,0.02506992,-0.6975051,-0.6780561,-2.154133,-0.2481622,-0.01971867
350.4526,0.02531345,-0.6930972,-0.6912025,-2.154733,-0.2482727,-0.0197192
350.4671,0.02555393,-0.6887416,-0.7041578,-2.155328,-0.2484138,-0.01971979
350.4802,0.02579141,-0.6844375,-0.7169245,-2.155919,-0.2485844,-0.01972044
350.4948,0.02579141,-0.6844375,-0.7169245,-2.155919,-0.2485844,-0.01972044
350.5088,0.02602592,-0.6801845,-0.7295055,-2.156505,-0.2487834,-0.01972114
350.5239,0.02625749,-0.6759819,-0.7419035,-2.157085,-0.2490099,-0.01972191
350.5384,0.02625749,-0.6759819,-0.7419035,-2.157085,-0.2490099,-0.01972191
350.5524,0.02648617,-0.671829,-0.754121,-2.157659,-0.2492628,-0.01972271
350.5676,0.02671198,-0.6677254,-0.7661607,-2.158227,-0.2495413,-0.01972357
350.5822,0.02693497,-0.6636705,-0.7780252,-2.158789,-0.2498443,-0.01972448
350.5969,0.02693497,-0.6636705,-0.7780252,-2.158789,-0.2498443,-0.01972448
350.6108,0.02715516,-0.6596637,-0.789717,-2.159345,-0.250171,-0.01972543
350.6264,0.0273726,-0.6557044,-0.8012385,-2.159893,-0.2505205,-0.01972642
350.6407,0.02758731,-0.6517921,-0.8125924,-2.160434,-0.2508919,-0.01972746
350.6552,0.02758731,-0.6517921,-0.8125924,-2.160434,-0.2508919,-0.01972746
350.6691,0.02779933,-0.6479262,-0.823781,-2.160968,-0.2512844,-0.01972853
350.6844,0.0280087,-0.6441061,-0.8348066,-2.161495,-0.2516972,-0.01972964
350.6991,0.0280087,-0.6441061,-0.8348066,-2.161495,-0.2516972,-0.01972964
350.713,0.02821543,-0.6403314,-0.8456718,-2.162014,-0.2521294,-0.01973079
350.7285,0.02841958,-0.6366015,-0.8563787,-2.162524,-0.2525803,-0.01973197
350.7426,0.02862117,-0.6329159,-0.8669298,-2.163028,-0.2530491,-0.01973319
350.7592,0.02862117,-0.6329159,-0.8669298,-2.163028,-0.2530491,-0.01973319
350.773,0.02882023,-0.629274,-0.8773273,-2.163522,-0.2535351,-0.01973443
350.7872,0.0290168,-0.6256753,-0.8875733,-2.164009,-0.2540376,-0.01973571
350.8008,0.0292109,-0.6221194,-0.8976701,-2.164488,-0.2545559,-0.01973702
350.8152,0.0292109,-0.6221194,-0.8976701,-2.164488,-0.2545559,-0.01973702
350.8293,0.02940257,-0.6186057,-0.90762,-2.164958,-0.2550893,-0.01973835
350.8446,0.02959183,-0.6151338,-0.9174249,-2.16542,-0.2556371,-0.01973971
350.859,0.02959183,-0.6151338,-0.9174249,-2.16542,-0.2556371,-0.01973971
350.8728,0.02977872,-0.611703,-0.9270869,-2.165874,-0.2561987,-0.01974109
350.888,0.02996327,-0.6083131,-0.9366084,-2.166319,-0.2567735,-0.01974249
350.9026,0.03014551,-0.6049634,-0.9459911,-2.166755,-0.2573608,-0.01974392
350.9172,0.03014551,-0.6049634,-0.9459911,-2.166755,-0.2573608,-0.01974392
350.9312,0.03032546,-0.6016535,-0.9552372,-2.167183,-0.2579601,-0.01974537
350.9467,0.03050316,-0.5983829,-0.9643486,-2.167602,-0.2585708,-0.01974684
350.9612,0.03067864,-0.5951512,-0.9733272,-2.168012,-0.2591923,-0.01974833
350.9758,0.03067864,-0.5951512,-0.9733272,-2.168012,-0.2591923,-0.01974833
350.9897,0.03085192,-0.5919579,-0.9821751,-2.168414,-0.2598241,-0.01974984
351.0049,0.03102302,-0.5888025,-0.9908941,-2.168808,-0.2604656,-0.01975136
351.0193,0.03102302,-0.5888025,-0.9908941,-2.168808,-0.2604656,-0.01975136
351.0332,0.03119199,-0.5856847,-0.9994861,-2.169193,-0.2611163,-0.01975289
351.0487,0.03135884,-0.5826039,-1.007953,-2.169569,-0.2617758,-0.01975444
351.063,0.0315236,-0.5795597,-1.016296,-2.169936,-0.2624435,-0.01975601
351.0794,0.0315236,-0.5795597,-1.016296,-2.169936,-0.2624435,-0.01975601
351.0936,0.03168631,-0.5765518,-1.024518,-2.170295,-0.263119,-0.01975758
351.1074,0.03184697,-0.5735796,-1.03262,-2.170646,-0.2638018,-0.01975918
351.1208,0.03200563,-0.5706428,-1.040604,-2.170988,-0.2644914,-0.01976078
351.1355,0.03200563,-0.5706428,-1.040604,-2.170988,-0.2644914,-0.01976078
351.1493,0.03216231,-0.5677409,-1.048472,-2.171322,-0.2651874,-0.01976239
351.1645,0.03231703,-0.5648735,-1.056225,-2.171647,-0.2658894,-0.01976402
351.1823,0.03246982,-0.5620402,-1.063865,-2.171964,-0.266597,-0.01976565
351.1955,0.03246982,-0.5620402,-1.063865,-2.171964,-0.266597,-0.01976565
351.2079,0.03262069,-0.5592406,-1.071394,-2.172273,-0.2673098,-0.01976729
351.2228,0.03276969,-0.5564743,-1.078813,-2.172574,-0.2680274,-0.01976894
351.2373,0.03276969,-0.5564743,-1.078813,-2.172574,-0.2680274,-0.01976894
351.2515,0.03291683,-0.5537409,-1.086123,-2.172867,-0.2687494,-0.0197706
351.2672,0.03306213,-0.55104,-1.093328,-2.173151,-0.2694755,-0.01977226
351.2813,0.03320561,-0.5483713,-1.100427,-2.173428,-0.2702052,-0.01977393
351.2958,0.03320561,-0.5483713,-1.100427,-2.173428,-0.2702052,-0.01977393
351.3096,0.03334731,-0.5457343,-1.107422,-2.173697,-0.2709383,-0.01977561
351.3248,0.03348725,-0.5431287,-1.114316,-2.173958,-0.2716745,-0.01977728
351.3392,0.03348725,-0.5431287,-1.114316,-2.173958,-0.2716745,-0.01977728
351.3531,0.03362544,-0.5405541,-1.121109,-2.174211,-0.2724133,-0.01977897
351.3687,0.0337619,-0.5380102,-1.127803,-2.174456,-0.2731546,-0.01978066
351.3828,0.03389667,-0.5354965,-1.134399,-2.174695,-0.2738979,-0.01978236
351.3973,0.03389667,-0.5354965,-1.134399,-2.174695,-0.2738979,-0.01978236
351.4133,0.03402977,-0.5330127,-1.140899,-2.174925,-0.274643,-0.01978405
351.4276,0.0341612,-0.5305585,-1.147304,-2.175149,-0.2753896,-0.01978575
351.442,0.034291,-0.5281336,-1.153616,-2.175365,-0.2761375,-0.01978745
351.4553,0.034291,-0.5281336,-1.153616,-2.175365,-0.2761375,-0.01978745
351.4694,0.03441919,-0.5257375,-1.159836,-2.175574,-0.2768863,-0.01978915
351.4845,0.03454579,-0.5233698,-1.165965,-2.175776,-0.2776358,-0.01979085
351.4991,0.03454579,-0.5233698,-1.165965,-2.175776,-0.2776358,-0.01979085
351.5129,0.03467081,-0.5210304,-1.172004,-2.17597,-0.2783858,-0.01979255
351.5283,0.03479428,-0.5187189,-1.177955,-2.176158,-0.279136,-0.01979425
351.5426,0.03491622,-0.5164348,-1.183819,-2.176339,-0.2798862,-0.01979596
351.5571,0.03491622,-0.5164348,-1.183819,-2.176339,-0.2798862,-0.01979596
351.5711,0.03503664,-0.514178,-1.189598,-2.176514,-0.2806362,-0.01979766
351.5864,0.03515557,-0.511948,-1.195292,-2.176682,-0.2813856,-0.01979936
351.6008,0.03527303,-0.5097446,-1.200903,-2.176843,-0.2821344,-0.01980106
351.6154,0.03527303,-0.5097446,-1.200903,-2.176843,-0.2821344,-0.01980106
351.6294,0.03538902,-0.5075675,-1.206432,-2.176998,-0.2828824,-0.01980276
351.6447,0.03550359,-0.5054162,-1.21188,-2.177147,-0.2836298,-0.01980446
351.6591,0.03550359,-0.5054162,-1.21188,-2.177147,-0.2836298,-0.01980446
351.6728,0.03561673,-0.5032906,-1.217248,-2.177289,-0.2843758,-0.01980615
351.6881,0.03572848,-0.5011903,-1.222537,-2.177426,-0.2851203,-0.01980784
351.7027,0.03583883,-0.499115,-1.227749,-2.177557,-0.2858631,-0.01980953
351.7173,0.03583883,-0.499115,-1.227749,-2.177557,-0.2858631,-0.01980953
351.7342,0.03594783,-0.4970644,-1.232179,-2.177747,-0.2875015,-0.01981349
351.7482,0.03605547,-0.4950383,-1.235713,-2.177947,-0.2890146,-0.0198171
351.7617,0.03616178,-0.4930363,-1.238721,-2.178134,-0.2903146,-0.01982018
351.7763,0.03616178,-0.4930363,-1.238721,-2.178134,-0.2903146,-0.01982018
351.789,0.03626677,-0.4910581,-1.240753,-2.178371,-0.2923781,-0.01982521
351.8041,0.03637047,-0.4891036,-1.24182,-2.17861,-0.2942465,-0.01982973
351.8186,0.03637047,-0.4891036,-1.24182,-2.17861,-0.2942465,-0.01982973
351.8324,0.03647288,-0.4871722,-1.242351,-2.178831,-0.2958632,-0.01983362
351.8478,0.03657403,-0.4852639,-1.242624,-2.179029,-0.2973225,-0.01983711
351.8622,0.03667393,-0.4833784,-1.242078,-2.179278,-0.2995882,-0.01984272
351.8766,0.03667393,-0.4833784,-1.242078,-2.179278,-0.2995882,-0.01984272
351.8905,0.0367726,-0.4815153,-1.240658,-2.17953,-0.3016786,-0.01984786
351.9057,0.03687005,-0.4796743,-1.23876,-2.179764,-0.3035207,-0.01985236
351.9202,0.03696631,-0.4778554,-1.236648,-2.179976,-0.3052009,-0.01985646
351.9349,0.03696631,-0.4778554,-1.236648,-2.179976,-0.3052009,-0.01985646
351.9488,0.03706138,-0.476058,-1.233757,-2.180238,-0.3076789,-0.01986269
351.9641,0.03715528,-0.4742821,-1.230027,-2.180506,-0.3099744,-0.01986843
351.9785,0.03715528,-0.4742821,-1.230027,-2.180506,-0.3099744,-0.01986843
351.9927,0.03724803,-0.4725274,-1.225853,-2.180753,-0.3120127,-0.01987351
352.0077,0.03733964,-0.4707936,-1.2208,-2.181049,-0.3147745,-0.01988056
352.022,0.03743012,-0.4690804,-1.21488,-2.181345,-0.3173121,-0.01988701
352.0369,0.03743012,-0.4690804,-1.21488,-2.181345,-0.3173121,-0.01988701
352.0507,0.03751948,-0.4673876,-1.208519,-2.181619,-0.3195676,-0.01989273
352.0657,0.03760776,-0.4657151,-1.201993,-2.181866,-0.3216352,-0.01989797
352.0815,0.03769496,-0.4640624,-1.19475,-2.182163,-0.3244773,-0.01990538
352.0959,0.03769496,-0.4640624,-1.19475,-2.182163,-0.3244773,-0.01990538
352.1097,0.03778109,-0.4624294,-1.186731,-2.182419,-0.3271247,-0.0199122
352.1243,0.03786616,-0.4608159,-1.178329,-2.182543,-0.3295046,-0.01991823
352.1384,0.03786616,-0.4608159,-1.178329,-2.182543,-0.3295046,-0.01991823
352.1523,0.0379502,-0.4592217,-1.169111,-2.182617,-0.3325907,-0.01992626
352.1675,0.03803321,-0.4576464,-1.159084,-2.182623,-0.3354391,-0.01993364
352.182,0.0381152,-0.4560899,-1.14867,-2.18257,-0.3379881,-0.01994024
352.1967,0.0381152,-0.4560899,-1.14867,-2.18257,-0.3379881,-0.01994024
352.2107,0.03819619,-0.4545519,-1.138145,-2.182494,-0.3403301,-0.01994634
352.2259,0.03827621,-0.4530322,-1.126958,-2.1825,-0.343427,-0.01995468
352.2402,0.03835524,-0.4515307,-1.11505,-2.182526,-0.3463133,-0.01996242
352.2551,0.03835524,-0.4515307,-1.11505,-2.182526,-0.3463133,-0.01996242
352.2688,0.03843332,-0.450047,-1.102809,-2.182528,-0.3489126,-0.01996937
352.2842,0.03851045,-0.4485811,-1.090494,-2.182503,-0.3513089,-0.01997578
352.299,0.03851045,-0.4485811,-1.090494,-2.182503,-0.3513089,-0.01997578
352.313,0.03858664,-0.4471326,-1.07755,-2.182541,-0.3544587,-0.01998446
352.3285,0.0386619,-0.4457014,-1.063912,-2.182577,-0.3573959,-0.01999251
352.3424,0.03873626,-0.4442872,-1.049966,-2.182576,-0.3600415,-0.01999974
352.3569,0.03873626,-0.4442872,-1.049966,-2.182576,-0.3600415,-0.01999974
352.3708,0.03880971,-0.4428899,-1.035284,-2.182618,-0.3633709,-0.02000907
352.3881,0.03888227,-0.4415092,-1.019873,-2.182647,-0.3664481,-0.02001765
352.4029,0.03895395,-0.440145,-1.004151,-2.182631,-0.3692111,-0.02002534
352.4162,0.03895395,-0.440145,-1.004151,-2.182631,-0.3692111,-0.02002534
352.43,0.03902477,-0.438797,-0.9883916,-2.182583,-0.3717519,-0.02003245
352.4442,0.03909473,-0.4374651,-0.9720476,-2.182604,-0.37503,-0.02004188
352.4586,0.03909473,-0.4374651,-0.9720476,-2.182604,-0.37503,-0.02004188
352.4724,0.03916385,-0.4361491,-0.9550579,-2.182634,-0.378085,-0.02005063
352.4877,0.03923214,-0.4348487,-0.937806,-2.18263,-0.3808382,-0.02005851
352.5021,0.0392996,-0.4335638,-0.9205491,-2.182593,-0.3833728,-0.02006578
352.5168,0.0392996,-0.4335638,-0.9205491,-2.182593,-0.3833728,-0.02006578
352.5308,0.03936625,-0.4322943,-0.9027356,-2.182623,-0.3866443,-0.02007542
352.5463,0.0394321,-0.4310399,-0.8843004,-2.182657,-0.3896919,-0.02008436
352.5605,0.03949716,-0.4298004,-0.8656241,-2.182652,-0.3924355,-0.02009239
352.5753,0.03949716,-0.4298004,-0.8656241,-2.182652,-0.3924355,-0.02009239
352.5891,0.03956144,-0.4285757,-0.8469702,-2.18261,-0.3949479,-0.02009978
352.6044,0.03962494,-0.4273656,-0.8284702,-2.182553,-0.3973041,-0.02010678
352.619,0.03962494,-0.4273656,-0.8284702,-2.182553,-0.3973041,-0.02010678
352.633,0.03968769,-0.4261699,-0.8101795,-2.182499,-0.3995406,-0.02011348
352.6482,0.03974968,-0.4249884,-0.7921205,-2.182458,-0.4016758,-0.02011993
352.6632,0.03981093,-0.4238211,-0.7743008,-2.18243,-0.4037191,-0.02012615
352.6773,0.03981093,-0.4238211,-0.7743008,-2.18243,-0.4037191,-0.02012615
352.6913,0.03987145,-0.4226676,-0.7567222,-2.18241,-0.4056763,-0.02013214
352.709,0.03993125,-0.4215279,-0.7393835,-2.182395,-0.4075512,-0.0201379
352.7221,0.03999032,-0.4204018,-0.7222823,-2.182379,-0.4093466,-0.02014345
352.7361,0.03999032,-0.4204018,-0.7222823,-2.182379,-0.4093466,-0.02014345
352.7508,0.04004861,-0.4192891,-0.7058542,-2.17171,-0.4120435,-0.02013416
352.7649,0.04010618,-0.4181898,-0.6894332,-2.155003,-0.4145416,-0.02013088
352.7798,0.04010618,-0.4181898,-0.6894332,-2.155003,-0.4145416,-0.02013088
352.7935,0.04016307,-0.4171035,-0.6729988,-2.135574,-0.416712,-0.02013
352.8088,0.04021931,-0.4160302,-0.6566545,-2.113765,-0.4187278,-0.02012853
352.8233,0.04027491,-0.4149696,-0.6403604,-2.090871,-0.4205067,-0.0201282
352.838,0.04027491,-0.4149696,-0.6403604,-2.090871,-0.4205067,-0.0201282
352.852,0.04032988,-0.4139215,-0.6241365,-2.067636,-0.4220657,-0.0201283
352.8675,0.04038424,-0.412886,-0.6080021,-2.044411,-0.4234268,-0.02012855
352.882,0.04043798,-0.4118627,-0.5920023,-2.020124,-0.4246957,-0.02012741
352.8968,0.04043798,-0.4118627,-0.5920023,-2.020124,-0.4246957,-0.02012741
352.9107,0.04049111,-0.4108516,-0.5760949,-1.995393,-0.4257563,-0.02012681
352.9261,0.04054364,-0.4098525,-0.5603005,-1.970637,-0.4266194,-0.02012638
352.9406,0.04059559,-0.4088653,-0.5446367,-1.946056,-0.4273016,-0.02012599
352.9554,0.04059559,-0.4088653,-0.5446367,-1.946056,-0.4273016,-0.02012599
352.9693,0.04064694,-0.4078898,-0.5291348,-1.920501,-0.4278865,-0.02012432
352.9845,0.04069771,-0.4069258,-0.5137714,-1.894554,-0.4282793,-0.02012308
353.0011,0.04074791,-0.4059733,-0.4985641,-1.868621,-0.4284991,-0.02012199
353.0146,0.04074791,-0.4059733,-0.4985641,-1.868621,-0.4284991,-0.02012199
353.0287,0.04079755,-0.4050322,-0.4835353,-1.841649,-0.4286151,-0.02011979
353.0428,0.04084662,-0.4041022,-0.4686736,-1.814269,-0.4285582,-0.02011802
353.0574,0.04084662,-0.4041022,-0.4686736,-1.814269,-0.4285582,-0.02011802
353.0712,0.04089515,-0.4031833,-0.4539917,-1.786908,-0.4283493,-0.02011643
353.0865,0.04094313,-0.4022752,-0.4394976,-1.759766,-0.4280038,-0.02011492
353.1011,0.04099058,-0.4013779,-0.4251974,-1.732791,-0.4275378,-0.0201133
353.1158,0.04099058,-0.4013779,-0.4251974,-1.732791,-0.4275378,-0.0201133
353.1296,0.04103749,-0.4004914,-0.4110948,-1.706088,-0.4269569,-0.02011175
353.145,0.04108386,-0.3996153,-0.3971935,-1.679721,-0.4262714,-0.02011022
353.1599,0.04108386,-0.3996153,-0.3971935,-1.679721,-0.4262714,-0.02011022
353.1736,0.04112971,-0.3987497,-0.3834962,-1.653716,-0.4254907,-0.02010871
353.1889,0.04117503,-0.3978943,-0.370005,-1.628085,-0.4246229,-0.02010722
353.2034,0.04121983,-0.3970492,-0.356721,-1.602831,-0.4236753,-0.02010575
353.2179,0.04121983,-0.3970492,-0.356721,-1.602831,-0.4236753,-0.02010575
353.2321,0.04126411,-0.3962141,-0.343645,-1.57795,-0.4226545,-0.02010436
353.2475,0.04130786,-0.3953889,-0.3307776,-1.553442,-0.4215665,-0.02010303
353.2637,0.0413511,-0.3945736,-0.3181186,-1.529301,-0.4204169,-0.02010173
353.2766,0.0413511,-0.3945736,-0.3181186,-1.529301,-0.4204169,-0.02010173
353.2905,0.04139383,-0.393768,-0.305668,-1.505523,-0.4192106,-0.02010045
353.3079,0.04143604,-0.3929719,-0.2934251,-1.482104,-0.4179522,-0.02009915
353.3213,0.04147774,-0.3921854,-0.2813893,-1.459039,-0.4166458,-0.02009784
353.3348,0.04147774,-0.3921854,-0.2813893,-1.459039,-0.4166458,-0.02009784
353.3492,0.04151893,-0.3914083,-0.2695598,-1.436323,-0.4152951,-0.02009654
353.3647,0.04155961,-0.3906405,-0.2579356,-1.413952,-0.4139034,-0.0200953
353.3789,0.04155961,-0.3906405,-0.2579356,-1.413952,-0.4139034,-0.0200953
353.3929,0.04159978,-0.3898818,-0.2465159,-1.39192,-0.4124737,-0.02009408
353.4083,0.04163946,-0.3891322,-0.2352994,-1.370224,-0.411009,-0.02009291
353.4226,0.04167864,-0.3883916,-0.2242852,-1.348859,-0.4095117,-0.02009178
353.4373,0.04167864,-0.3883916,-0.2242852,-1.348859,-0.4095117,-0.02009178
353.4516,0.04171732,-0.3876598,-0.2134721,-1.327819,-0.4079844,-0.02009069
353.4672,0.04175552,-0.3869368,-0.2028588,-1.307101,-0.4064299,-0.02008963
353.4818,0.04179323,-0.3862224,-0.192444,-1.2867,-0.4048508,-0.02008861
353.4965,0.04179323,-0.3862224,-0.192444,-1.2867,-0.4048508,-0.02008861
353.5103,0.04183045,-0.3855166,-0.1822262,-1.266611,-0.4032502,-0.02008763
353.5257,0.0418672,-0.3848192,-0.1722039,-1.246831,-0.4016314,-0.02008667
353.5404,0.04190348,-0.3841302,-0.1623751,-1.227354,-0.3999976,-0.02008575
353.555,0.04190348,-0.3841302,-0.1623751,-1.227354,-0.3999976,-0.02008575
353.5688,0.04193929,-0.3834494,-0.1527378,-1.208177,-0.3983526,-0.02008484
353.5862,0.04197464,-0.3827768,-0.1432899,-1.189295,-0.3966999,-0.02008395
353.5997,0.04197464,-0.3827768,-0.1432899,-1.189295,-0.3966999,-0.02008395
353.6137,0.04200953,-0.3821122,-0.134029,-1.170704,-0.3950434,-0.02008307
353.628,0.04204397,-0.3814556,-0.1249526,-1.152399,-0.3933865,-0.0200822
353.6425,0.04207796,-0.3808069,-0.1160581,-1.134378,-0.3917327,-0.02008134
353.6572,0.04207796,-0.3808069,-0.1160581,-1.134378,-0.3917327,-0.02008134
353.6712,0.04211151,-0.3801659,-0.1073427,-1.116634,-0.3900854,-0.02008048
353.6867,0.04214462,-0.3795327,-0.09880384,-1.099166,-0.3884476,-0.02007962
353.7012,0.04217731,-0.378907,-0.09043852,-1.081967,-0.3868223,-0.02007876
353.7159,0.04217731,-0.378907,-0.09043852,-1.081967,-0.3868223,-0.02007876
353.73,0.04220957,-0.3782888,-0.08224395,-1.065035,-0.3852121,-0.02007789
353.7458,0.04224141,-0.377678,-0.07421724,-1.048366,-0.3836193,-0.02007701
353.7602,0.04227284,-0.3770745,-0.06635553,-1.031956,-0.3820463,-0.02007612
353.775,0.04227284,-0.3770745,-0.06635553,-1.031956,-0.3820463,-0.02007612
353.7888,0.04230386,-0.3764783,-0.05865591,-1.0158,-0.3804951,-0.02007523
353.8043,0.04233448,-0.3758892,-0.05111553,-0.9998956,-0.3789675,-0.02007433
353.8188,0.04233448,-0.3758892,-0.05111553,-0.9998956,-0.3789675,-0.02007433
353.8329,0.04236471,-0.3753071,-0.04373151,-0.9842384,-0.377465,-0.02007341
353.8481,0.04239453,-0.3747321,-0.03650103,-0.9688249,-0.3759891,-0.02007249
353.8638,0.04242398,-0.3741639,-0.02942125,-0.9536514,-0.3745411,-0.02007155
353.8782,0.04242398,-0.3741639,-0.02942125,-0.9536514,-0.3745411,-0.02007155
353.8923,0.04245304,-0.3736025,-0.02248939,-0.9387143,-0.3731221,-0.0200706
353.9066,0.04248173,-0.3730479,-0.01570268,-0.92401,-0.3717331,-0.02006962
353.9213,0.04251004,-0.3724999,-0.00905838,-0.9095352,-0.3703749,-0.02006864
353.9358,0.04251004,-0.3724999,-0.00905838,-0.9095352,-0.3703749,-0.02006864
353.9499,0.04253799,-0.3719585,-0.002553784,-0.8952862,-0.3690483,-0.02006764
353.9652,0.04256558,-0.3714236,0.003813782,-0.8812597,-0.3677538,-0.02006662
353.9799,0.04256558,-0.3714236,0.003813782,-0.8812597,-0.3677538,-0.02006662
353.994,0.04259282,-0.370895,0.01004696,-0.8674522,-0.3664919,-0.0200656
354.0092,0.04261971,-0.3703728,0.01614836,-0.8538605,-0.3652631,-0.02006455
354.0242,0.04264624,-0.3698569,0.02212055,-0.8404812,-0.3640677,-0.02006349
354.0385,0.04264624,-0.3698569,0.02212055,-0.8404812,-0.3640677,-0.02006349
354.0528,0.04267244,-0.3693471,0.02796607,-0.8273112,-0.3629058,-0.02006241
354.0682,0.04269831,-0.3688435,0.03368744,-0.8143471,-0.3617777,-0.02006132
354.0829,0.04272383,-0.3683458,0.03928712,-0.8015859,-0.3606834,-0.02006021
354.0975,0.04272383,-0.3683458,0.03928712,-0.8015859,-0.3606834,-0.02006021
354.1118,0.04274904,-0.3678541,0.04476754,-0.7890245,-0.359623,-0.02005908
354.129,0.04277392,-0.3673684,0.05013112,-0.7766597,-0.3585964,-0.02005793
354.1424,0.04279849,-0.3668884,0.05538021,-0.7644886,-0.3576035,-0.02005675
354.1561,0.04279849,-0.3668884,0.05538021,-0.7644886,-0.3576035,-0.02005675
354.1701,0.04282274,-0.3664142,0.06051715,-0.7525082,-0.3566442,-0.02005557
354.1855,0.04284668,-0.3659456,0.06554423,-0.7407156,-0.3557184,-0.02005436
354.2002,0.04287032,-0.3654827,0.07046372,-0.7291077,-0.3548257,-0.02005313
354.2149,0.04287032,-0.3654827,0.07046372,-0.7291077,-0.3548257,-0.02005313
354.2289,0.04289365,-0.3650253,0.07527785,-0.7176819,-0.3539659,-0.02005187
354.2444,0.04291669,-0.3645734,0.07998881,-0.7064352,-0.3531387,-0.0200506
354.2591,0.04291669,-0.3645734,0.07998881,-0.7064352,-0.3531387,-0.0200506
354.273,0.04293944,-0.3641269,0.08459875,-0.695365,-0.3523439,-0.0200493
354.2886,0.0429619,-0.3636858,0.08910981,-0.6844683,-0.351581,-0.02004799
354.3033,0.04298408,-0.3632499,0.09352408,-0.6737427,-0.3508496,-0.02004665
354.3178,0.04298408,-0.3632499,0.09352408,-0.6737427,-0.3508496,-0.02004665
354.3321,0.04300597,-0.3628192,0.09784361,-0.6631854,-0.3501494,-0.02004528
354.3474,0.04302759,-0.3623937,0.1020704,-0.6527938,-0.3494799,-0.0200439
354.3623,0.04304894,-0.3619733,0.1062065,-0.6425654,-0.3488407,-0.02004249
354.377,0.04304894,-0.3619733,0.1062065,-0.6425654,-0.3488407,-0.02004249
354.3931,0.04307001,-0.3615579,0.1102539,-0.6324975,-0.3482314,-0.02004105
354.4072,0.04309083,-0.3611475,0.1142144,-0.6225879,-0.3476515,-0.02003958
354.4208,0.04311138,-0.3607419,0.11809,-0.6128338,-0.3471004,-0.02003808
354.4358,0.04311138,-0.3607419,0.11809,-0.6128338,-0.3471004,-0.02003808
354.4496,0.04313167,-0.3603413,0.1218826,-0.6032329,-0.3465777,-0.02003656
354.465,0.04315171,-0.3599454,0.1255939,-0.5937829,-0.346083,-0.02003501
354.4797,0.04315171,-0.3599454,0.1255939,-0.5937829,-0.346083,-0.02003501
354.4937,0.0431715,-0.3595543,0.1292258,-0.5844814,-0.3456156,-0.02003343
354.5091,0.04319104,-0.3591678,0.13278,-0.575326,-0.3451751,-0.02003182
354.5239,0.04321033,-0.358786,0.1362583,-0.5663145,-0.3447611,-0.02003018
354.5387,0.04321033,-0.358786,0.1362583,-0.5663145,-0.3447611,-0.02003018
354.5526,0.04322939,-0.3584087,0.1396625,-0.5574446,-0.3443729,-0.0200285
354.5681,0.0432482,-0.358036,0.1430087,-0.5488588,-0.3440305,-0.02002711
354.5826,0.04326679,-0.3576677,0.1462828,-0.5404922,-0.3437138,-0.02002555
354.5973,0.04326679,-0.3576677,0.1462828,-0.5404922,-0.3437138,-0.02002555
354.6114,0.04328514,-0.3573038,0.1494834,-0.5322977,-0.3434168,-0.02002391
354.6268,0.04330327,-0.3569443,0.1526138,-0.5242515,-0.3431393,-0.02002222
354.6413,0.04332118,-0.356589,0.1558106,-0.5175694,-0.3430628,-0.02002347
354.6579,0.04332118,-0.356589,0.1558106,-0.5175694,-0.3430628,-0.02002347
354.6718,0.04333888,-0.3562381,0.1589336,-0.5117138,-0.3430165,-0.02002347
354.686,0.04335636,-0.3558913,0.1619569,-0.5062971,-0.3429511,-0.02002295
354.6997,0.04335636,-0.3558913,0.1619569,-0.5062971,-0.3429511,-0.02002295
354.7137,0.04337364,-0.3555487,0.1650334,-0.5023605,-0.3430533,-0.02002544
354.729,0.04339072,-0.3552101,0.1680306,-0.4992833,-0.343158,-0.02002649
354.7438,0.04340758,-0.3548756,0.1709312,-0.4966378,-0.3432242,-0.02002696
354.7581,0.04340758,-0.3548756,0.1709312,-0.4966378,-0.3432242,-0.02002696
354.7722,0.04342424,-0.3545451,0.1737545,-0.4942185,-0.3432592,-0.02002719
354.7877,0.0434407,-0.3542185,0.1766636,-0.493154,-0.3434661,-0.02003071
354.8022,0.04345697,-0.3538959,0.1795178,-0.4928661,-0.3436767,-0.02003273
354.8168,0.04345697,-0.3538959,0.1795178,-0.4928661,-0.3436767,-0.02003273
354.831,0.04347304,-0.3535771,0.1822946,-0.4929477,-0.3438472,-0.02003414
354.8466,0.04348892,-0.3532621,0.1850098,-0.4932037,-0.3439831,-0.02003527
354.8611,0.04350461,-0.3529508,0.1878253,-0.4947681,-0.3442866,-0.0200397
354.8756,0.04350461,-0.3529508,0.1878253,-0.4947681,-0.3442866,-0.0200397
354.8897,0.04352012,-0.3526433,0.190597,-0.4970655,-0.3445873,-0.02004258
354.9049,0.04353544,-0.3523395,0.1933018,-0.4996908,-0.3448415,-0.02004479
354.9196,0.04353544,-0.3523395,0.1933018,-0.4996908,-0.3448415,-0.02004479
354.9358,0.04355071,-0.3520393,0.1971933,-0.5131414,-0.3466896,-0.02007577
354.9498,0.04356584,-0.3517427,0.2008826,-0.5327107,-0.3485249,-0.02009337
354.9647,0.04358077,-0.3514497,0.20414,-0.555015,-0.3499367,-0.02010515
354.9783,0.04358077,-0.3514497,0.20414,-0.555015,-0.3499367,-0.02010515
354.9922,0.0435955,-0.3511601,0.2071091,-0.5784335,-0.3509744,-0.02011412
355.0074,0.04361003,-0.3508741,0.2099449,-0.6021894,-0.3517532,-0.02012147
355.0219,0.04362439,-0.3505914,0.2127465,-0.6259115,-0.3523634,-0.02012771
355.0368,0.04362439,-0.3505914,0.2127465,-0.6259115,-0.3523634,-0.02012771
355.0509,0.04363858,-0.3503121,0.2155646,-0.6494232,-0.3528624,-0.02013309
355.0661,0.0436526,-0.3500361,0.2184205,-0.6726425,-0.353285,-0.02013775
355.0807,0.04366646,-0.3497634,0.2238787,-0.6955134,-0.3575231,-0.02014604
355.0955,0.04366646,-0.3497634,0.2238787,-0.6955134,-0.3575231,-0.02014604
355.1096,0.04368017,-0.349494,0.2297219,-0.7180154,-0.3631692,-0.0201504
355.125,0.04369374,-0.3492277,0.2352008,-0.7401605,-0.3691026,-0.02015349
355.1395,0.04369374,-0.3492277,0.2352008,-0.7401605,-0.3691026,-0.02015349
355.1536,0.04370717,-0.3489646,0.2391446,-0.761971,-0.373179,-0.02015463
355.1691,0.04372046,-0.3487045,0.2426572,-0.7834579,-0.3765146,-0.0201569
355.1839,0.04373362,-0.3484476,0.2461203,-0.8046204,-0.3796169,-0.02015919
355.198,0.04373362,-0.3484476,0.2461203,-0.8046204,-0.3796169,-0.02015919
355.2144,0.04374664,-0.3481937,0.2495988,-0.8254568,-0.3826351,-0.02016123
355.2286,0.04375953,-0.3479428,0.2520147,-0.8459775,-0.3836191,-0.02016187
355.2431,0.04377229,-0.3476949,0.2544408,-0.8661904,-0.3840199,-0.02016345
355.2568,0.04377229,-0.3476949,0.2544408,-0.8661904,-0.3840199,-0.02016345
355.2708,0.04378493,-0.3474499,0.2570798,-0.8860896,-0.3843488,-0.02016489
355.2859,0.04379744,-0.3472078,0.2598718,-0.9056731,-0.3847015,-0.02016599
355.3004,0.04380983,-0.3469685,0.2617214,-0.9249525,-0.3829057,-0.02016612
355.3152,0.04380983,-0.3469685,0.2617214,-0.9249525,-0.3829057,-0.02016612
355.329,0.04382209,-0.3467321,0.2637303,-0.9439387,-0.3806876,-0.020167
355.3445,0.04383424,-0.3464985,0.2660007,-0.9626246,-0.3785088,-0.02016765
355.3605,0.04384626,-0.3462676,0.2684323,-0.9810088,-0.3764144,-0.020168
355.3737,0.04384626,-0.3462676,0.2684323,-0.9810088,-0.3764144,-0.020168
355.3878,0.04385818,-0.3460394,0.2699906,-0.9991033,-0.3720427,-0.02016779
355.4031,0.04386998,-0.345814,0.271801,-1.01692,-0.3674273,-0.02016811
355.4178,0.04386998,-0.345814,0.271801,-1.01692,-0.3674273,-0.02016811
355.4323,0.04388166,-0.3455912,0.2738731,-1.034451,-0.3629391,-0.02016816
355.4473,0.04389323,-0.345371,0.2751998,-1.051703,-0.3561272,-0.02016786
355.4619,0.04390469,-0.3451534,0.2768603,-1.068686,-0.3492362,-0.02016785
355.4765,0.04390469,-0.3451534,0.2768603,-1.068686,-0.3492362,-0.02016785
355.4904,0.04391604,-0.3449384,0.2787851,-1.085393,-0.3425396,-0.02016754
355.5069,0.04392728,-0.3447259,0.2808519,-1.101823,-0.3360147,-0.020167
355.5213,0.04393841,-0.3445159,0.2822054,-1.117988,-0.3270736,-0.02016644
355.5348,0.04393841,-0.3445159,0.2822054,-1.117988,-0.3270736,-0.02016644
355.5487,0.04394944,-0.3443085,0.2838908,-1.133899,-0.3182133,-0.02016595
355.5643,0.04396036,-0.3441034,0.2857939,-1.14955,-0.309588,-0.02016519
355.5788,0.04396036,-0.3441034,0.2857939,-1.14955,-0.309588,-0.02016519
355.5929,0.04397118,-0.3439008,0.287106,-1.164945,-0.2985547,-0.02016449
355.6081,0.04398189,-0.3437006,0.2887673,-1.180097,-0.2877252,-0.02016369
355.6225,0.0439925,-0.3435027,0.2906303,-1.194998,-0.2771699,-0.02016264
355.6372,0.0439925,-0.3435027,0.2906303,-1.194998,-0.2771699,-0.02016264
355.6514,0.04400301,-0.3433072,0.2926003,-1.20965,-0.2668555,-0.02016139
355.6669,0.04401342,-0.3431139,0.2940439,-1.224061,-0.2541309,-0.02016034
355.6815,0.04402373,-0.342923,0.2957878,-1.238243,-0.2416973,-0.02015908
355.6964,0.04402373,-0.342923,0.2957878,-1.238243,-0.2416973,-0.02015908
355.7102,0.04403393,-0.3427343,0.2976895,-1.252191,-0.2295594,-0.02015759
355.7255,0.04404404,-0.3425478,0.2996754,-1.265909,-0.2176904,-0.02015596
355.7401,0.04405405,-0.3423635,0.3012334,-1.279399,-0.2034557,-0.0201545
355.7548,0.04405405,-0.3423635,0.3012334,-1.279399,-0.2034557,-0.0201545
355.7688,0.04406397,-0.3421814,0.3030449,-1.292675,-0.1895604,-0.02015281
355.7859,0.04407379,-0.3420015,0.3049821,-1.305733,-0.1759802,-0.02015096
355.7996,0.04407379,-0.3420015,0.3049821,-1.305733,-0.1759802,-0.02015096
355.8135,0.04408351,-0.3418236,0.3065833,-1.318573,-0.1600944,-0.02014921
355.8281,0.04409314,-0.3416479,0.3084134,-1.331209,-0.1445798,-0.02014725
355.8423,0.04410268,-0.3414743,0.3103545,-1.343638,-0.1294059,-0.02014515
355.8568,0.04410268,-0.3414743,0.3103545,-1.343638,-0.1294059,-0.02014515
355.8709,0.04411212,-0.3413027,0.3123535,-1.355865,-0.1145534,-0.02014296
355.8864,0.04412147,-0.3411331,0.3140718,-1.367888,-0.09744138,-0.02014083
355.9009,0.04413073,-0.3409655,0.3159637,-1.379721,-0.08070844,-0.02013857
355.9156,0.04413073,-0.3409655,0.3159637,-1.379721,-0.08070844,-0.02013857
355.9295,0.04413989,-0.3407999,0.3179378,-1.391364,-0.06432922,-0.02013624
355.9451,0.04414896,-0.3406363,0.3199536,-1.402821,-0.04828855,-0.02013386
355.9599,0.04414896,-0.3406363,0.3199536,-1.402821,-0.04828855,-0.02013386
355.9738,0.04415795,-0.3404746,0.3217534,-1.414088,-0.03003129,-0.02013151
355.989,0.04416685,-0.3403148,0.3236862,-1.425179,-0.01216086,-0.0201291
356.0039,0.04417565,-0.3401569,0.3256806,-1.436096,0.005341999,-0.02012667
356.0183,0.04417565,-0.3401569,0.3256806,-1.436096,0.005341999,-0.02012667
356.0325,0.04418437,-0.3400009,0.3275153,-1.446834,0.02502093,-0.02012426
356.0479,0.044193,-0.3398467,0.3294632,-1.457406,0.04429333,-0.02012184
356.0646,0.04420155,-0.3396943,0.3314626,-1.467815,0.06317534,-0.02011944
356.0779,0.04420155,-0.3396943,0.3314626,-1.467815,0.06317534,-0.02011944
356.0921,0.04421,-0.3395438,0.333486,-1.478064,0.08167824,-0.02011707
356.1063,0.04421837,-0.339395,0.3353905,-1.488147,0.1023305,-0.02011473
356.1208,0.04422666,-0.3392479,0.3373722,-1.498079,0.1225666,-0.02011245
356.1354,0.04422666,-0.3392479,0.3373722,-1.498079,0.1225666,-0.02011245
356.1495,0.04423485,-0.3391027,0.3393877,-1.507862,0.1423987,-0.02011023
356.1649,0.04424296,-0.3389591,0.3414173,-1.5175,0.1618367,-0.02010809
356.1797,0.04424296,-0.3389591,0.3414173,-1.5175,0.1618367,-0.02010809
356.1935,0.04425099,-0.3388173,0.3433753,-1.526986,0.1834017,-0.02010601
356.2089,0.04425894,-0.3386771,0.3453828,-1.536333,0.2045387,-0.02010404
356.2237,0.0442668,-0.3385386,0.3474103,-1.545545,0.2252578,-0.02010217
356.2382,0.0442668,-0.3385386,0.3474103,-1.545545,0.2252578,-0.02010217
356.2524,0.04427459,-0.3384017,0.3494053,-1.554617,0.248078,-0.02010039
356.2675,0.04428229,-0.3382664,0.3514338,-1.563559,0.2704488,-0.02009875
356.2823,0.0442899,-0.3381328,0.3534746,-1.572375,0.2923796,-0.02009724
356.297,0.0442899,-0.3381328,0.3534746,-1.572375,0.2923796,-0.02009724
356.3111,0.04429743,-0.3380007,0.3555182,-1.581068,0.3138796,-0.02009587
356.3265,0.04430489,-0.3378702,0.3575681,-1.589634,0.3374676,-0.02009465
356.343,0.04431227,-0.3377413,0.3596263,-1.598082,0.3605936,-0.02009357
356.3562,0.04431227,-0.3377413,0.3596263,-1.598082,0.3605936,-0.02009357
356.3704,0.04431956,-0.3376139,0.3616847,-1.606416,0.3832671,-0.02009265
356.3849,0.04432677,-0.337488,0.3637395,-1.614637,0.405497,-0.02009187
356.3994,0.04432677,-0.337488,0.3637395,-1.614637,0.405497,-0.02009187
356.4132,0.0443339,-0.3373636,0.3657883,-1.622748,0.4272924,-0.02009125
356.4286,0.04434096,-0.3372407,0.3678294,-1.630751,0.448662,-0.02009076
356.4431,0.04434793,-0.3371193,0.3698617,-1.638648,0.4696147,-0.0200904
356.4577,0.04434793,-0.3371193,0.3698617,-1.638648,0.4696147,-0.0200904
356.4719,0.04435482,-0.3369993,0.3717965,-1.646443,0.4876416,-0.02009008
356.4871,0.04436162,-0.3368807,0.3737399,-1.654134,0.5053185,-0.0200899
356.5017,0.04436836,-0.3367636,0.3756794,-1.661722,0.5226517,-0.02008983
356.5165,0.04436836,-0.3367636,0.3756794,-1.661722,0.5226517,-0.02008983
356.5305,0.04437502,-0.3366478,0.377609,-1.669209,0.5396477,-0.02008986
356.5459,0.04438159,-0.3365335,0.3793938,-1.676595,0.5537887,-0.02008983
356.5604,0.04438809,-0.3364205,0.3812015,-1.68388,0.5676584,-0.02008993
356.575,0.04438809,-0.3364205,0.3812015,-1.68388,0.5676584,-0.02008993
356.589,0.04439452,-0.3363088,0.3830096,-1.691066,0.5812603,-0.02009011
356.6044,0.04440087,-0.3361985,0.3848082,-1.698154,0.5945988,-0.02009037
356.6188,0.04440087,-0.3361985,0.3848082,-1.698154,0.5945988,-0.02009037
356.6349,0.04440714,-0.3360895,0.3864168,-1.705141,0.6051445,-0.02009048
356.6492,0.04441334,-0.3359818,0.3880634,-1.71203,0.6154925,-0.0200907
356.6627,0.04441946,-0.3358755,0.3897163,-1.718823,0.6256429,-0.02009099
356.6771,0.04441946,-0.3358755,0.3897163,-1.718823,0.6256429,-0.02009099
356.6911,0.04442551,-0.3357703,0.3911531,-1.725516,0.6330552,-0.02009108
356.7061,0.04443149,-0.3356665,0.3926428,-1.732111,0.640334,-0.02009128
356.7209,0.0444374,-0.3355638,0.3941453,-1.738612,0.6474763,-0.02009154
356.7357,0.0444374,-0.3355638,0.3941453,-1.738612,0.6474763,-0.02009154
356.7497,0.04444324,-0.3354624,0.3956426,-1.745021,0.6544824,-0.02009184
356.765,0.044449,-0.3353623,0.3968758,-1.75133,0.6587983,-0.02009186
356.7796,0.044449,-0.3353623,0.3968758,-1.75133,0.6587983,-0.02009186
356.7936,0.0444547,-0.3352633,0.398176,-1.757544,0.6630444,-0.02009199
356.809,0.04446033,-0.3351655,0.3994959,-1.763667,0.6672148,-0.02009218
356.8236,0.04446589,-0.3350688,0.4008139,-1.7697,0.6713071,-0.0200924
356.838,0.04446589,-0.3350688,0.4008139,-1.7697,0.6713071,-0.0200924
356.8522,0.04447137,-0.3349734,0.4018277,-1.775636,0.6727533,-0.02009228
356.8675,0.04447679,-0.334879,0.4029263,-1.781479,0.6741887,-0.02009227
356.8821,0.04448215,-0.3347858,0.4040535,-1.787234,0.6756052,-0.02009233
356.8968,0.04448215,-0.3347858,0.4040535,-1.787234,0.6756052,-0.02009233
356.9108,0.04448743,-0.3346938,0.40486,-1.792894,0.6744209,-0.02009202
356.927,0.04449265,-0.3346028,0.4057707,-1.798463,0.6732801,-0.02009184
356.9414,0.04449781,-0.3345129,0.4067199,-1.803946,0.6721727,-0.02009172
356.955,0.04449781,-0.3345129,0.4067199,-1.803946,0.6721727,-0.02009172
356.969,0.04450291,-0.3344241,0.4076779,-1.809347,0.6710919,-0.02009162
356.9843,0.04450793,-0.3343364,0.408268,-1.814657,0.6674454,-0.0200911
356.9988,0.04450793,-0.3343364,0.408268,-1.814657,0.6674454,-0.0200911
357.0127,0.0445129,-0.3342497,0.4089755,-1.819876,0.6638906,-0.02009071
357.0281,0.0445178,-0.334164,0.4097297,-1.825014,0.6604187,-0.02009038
357.0428,0.04452265,-0.3340794,0.410498,-1.830073,0.6570204,-0.02009007
357.0574,0.04452265,-0.3340794,0.410498,-1.830073,0.6570204,-0.02009007
357.0714,0.04452743,-0.3339958,0.4108644,-1.835044,0.6510931,-0.02008933
357.0865,0.04453214,-0.3339132,0.4113663,-1.839928,0.6453016,-0.0200887
357.1012,0.0445368,-0.3338315,0.4119259,-1.844734,0.6396399,-0.02008814
357.1161,0.0445368,-0.3338315,0.4119259,-1.844734,0.6396399,-0.02008814
357.1299,0.0445414,-0.3337509,0.412078,-1.849456,0.6314932,-0.02008715
357.1452,0.04454593,-0.3336713,0.4123874,-1.854092,0.6235262,-0.02008627
357.1598,0.04454593,-0.3336713,0.4123874,-1.854092,0.6235262,-0.02008627
357.1738,0.04455042,-0.3335926,0.4127672,-1.858655,0.6157351,-0.02008548
357.1891,0.04455484,-0.3335148,0.4131756,-1.863147,0.6081055,-0.02008471
357.2036,0.04455921,-0.3334379,0.4131314,-1.867558,0.5980216,-0.0200835
357.2194,0.04455921,-0.3334379,0.4131314,-1.867558,0.5980216,-0.0200835
357.2333,0.04456352,-0.333362,0.4132547,-1.871887,0.5881497,-0.02008237
357.2474,0.04456777,-0.333287,0.4134568,-1.876146,0.578494,-0.02008133
357.2621,0.04457198,-0.3332129,0.4136935,-1.880338,0.5690382,-0.02008032
357.2768,0.04457198,-0.3332129,0.4136935,-1.880338,0.5690382,-0.02008032
357.2904,0.04457612,-0.3331397,0.413451,-1.884455,0.5571626,-0.02007888
357.3058,0.04458021,-0.3330674,0.413392,-1.888492,0.5455288,-0.0200775
357.3205,0.04458426,-0.3329959,0.4134235,-1.892463,0.5341498,-0.02007622
357.335,0.04458426,-0.3329959,0.4134235,-1.892463,0.5341498,-0.02007622
357.3492,0.04458824,-0.3329253,0.4129808,-1.896363,0.5203964,-0.02007456
357.3647,0.04459217,-0.3328556,0.4127441,-1.900187,0.5069198,-0.02007293
357.3792,0.04459217,-0.3328556,0.4127441,-1.900187,0.5069198,-0.02007293
357.3931,0.04459606,-0.3327866,0.4126119,-1.903949,0.4937388,-0.02007144
357.4085,0.04459989,-0.3327186,0.4125305,-1.907654,0.4808316,-0.02007
357.423,0.04460367,-0.3326513,0.4119321,-1.911292,0.4655762,-0.02006819
357.4375,0.04460367,-0.3326513,0.4119321,-1.911292,0.4655762,-0.02006819
357.4518,0.0446074,-0.3325848,0.411545,-1.914858,0.4506167,-0.02006639
357.4671,0.04461109,-0.3325192,0.4112697,-1.918366,0.4359847,-0.02006473
357.4836,0.04461473,-0.3324543,0.4110507,-1.921821,0.4216571,-0.02006313
357.4984,0.04461473,-0.3324543,0.4110507,-1.921821,0.4216571,-0.02006313
357.5122,0.04461831,-0.3323902,0.4102941,-1.925217,0.405013,-0.02006122
357.5265,0.04462185,-0.3323269,0.4097618,-1.928543,0.3886837,-0.0200593
357.5399,0.04462185,-0.3323269,0.4097618,-1.928543,0.3886837,-0.0200593
357.5539,0.04462535,-0.3322643,0.409352,-1.931817,0.372713,-0.02005753
357.5692,0.04462879,-0.3322025,0.4084186,-1.935036,0.354471,-0.02005554
357.5837,0.04463219,-0.3321414,0.4077311,-1.93819,0.3365729,-0.02005355
357.5986,0.04463219,-0.3321414,0.4077311,-1.93819,0.3365729,-0.02005355
357.6124,0.04463555,-0.3320811,0.4071802,-1.941296,0.319069,-0.02005173
357.6277,0.04463887,-0.3320214,0.4067008,-1.944358,0.3019312,-0.02005002
357.6424,0.04464214,-0.3319626,0.4056553,-1.947373,0.2825421,-0.02004812
357.6566,0.04464214,-0.3319626,0.4056553,-1.947373,0.2825421,-0.02004812
357.6709,0.04464536,-0.3319044,0.4048556,-1.950328,0.2635065,-0.02004623
357.6863,0.04464855,-0.3318469,0.4041974,-1.953238,0.2448895,-0.02004451
357.7008,0.04465169,-0.3317901,0.4036147,-1.956109,0.2266622,-0.02004291
357.7157,0.04465169,-0.3317901,0.4036147,-1.956109,0.2266622,-0.02004291
357.7296,0.04465482,-0.3317339,0.4045357,-1.958943,0.2148161,-0.02004181
357.7449,0.04465791,-0.3316784,0.4049779,-1.961768,0.2033187,-0.02004095
357.7593,0.04465791,-0.3316784,0.4049779,-1.961768,0.2033187,-0.02004095
357.7732,0.04466096,-0.3316236,0.4051642,-1.964558,0.1919595,-0.02003994
357.7907,0.04466397,-0.3315694,0.4052455,-1.967304,0.1807834,-0.02003887
357.8044,0.04466693,-0.3315159,0.4052881,-1.970007,0.1698118,-0.02003781
357.8187,0.04466693,-0.3315159,0.4052881,-1.970007,0.1698118,-0.02003781
357.8327,0.04466986,-0.331463,0.4053198,-1.972667,0.1590517,-0.02003678
357.8469,0.04467275,-0.3314108,0.4053526,-1.975286,0.1485036,-0.02003578
357.8616,0.04467565,-0.3313592,0.4040027,-1.968685,0.1375271,-0.03503438
357.8762,0.04467565,-0.3313592,0.4040027,-1.968685,0.1375271,-0.03503438
357.8899,0.04467854,-0.3313082,0.4033958,-1.96525,0.1270826,-0.04973907
357.9053,0.0446814,-0.3312578,0.4031121,-1.963398,0.1169968,-0.06415552
357.92,0.04468423,-0.3312081,0.4029808,-1.962352,0.1071881,-0.07828934
357.9348,0.04468423,-0.3312081,0.4029808,-1.962352,0.1071881,-0.07828934
357.9485,0.04468701,-0.3311589,0.403155,-1.963779,0.09771904,-0.08882062
357.9641,0.04468974,-0.3311103,0.4032628,-1.964731,0.08842105,-0.09914543
357.9789,0.04468974,-0.3311103,0.4032628,-1.964731,0.08842105,-0.09914543
357.9928,0.04469245,-0.3310623,0.4033623,-1.96547,0.07931073,-0.1092678
358.0083,0.04469511,-0.3310148,0.4036408,-1.96818,0.07046693,-0.1158585
358.0229,0.04469772,-0.3309679,0.4038442,-1.970147,0.06177515,-0.1223199
358.0371,0.04469772,-0.3309679,0.4038442,-1.970147,0.06177515,-0.1223199
358.0512,0.04470031,-0.3309216,0.40403,-1.971758,0.05325238,-0.1286547
358.0665,0.04470286,-0.3308758,0.4042206,-1.973199,0.04490535,-0.1348653
358.0833,0.04470537,-0.3308306,0.404517,-1.976624,0.03677313,-0.1376208
358.0967,0.04470537,-0.3308306,0.404517,-1.976624,0.03677313,-0.1376208
358.1108,0.04470785,-0.3307859,0.4047626,-1.979292,0.02878578,-0.1403223
358.1251,0.04471029,-0.3307417,0.4049948,-1.981583,0.02095257,-0.1429709
358.1395,0.04471029,-0.3307417,0.4049948,-1.981583,0.02095257,-0.1429709
358.1533,0.04471269,-0.3306981,0.4052714,-1.985745,0.01329152,-0.1422342
358.1685,0.04471505,-0.3306549,0.405511,-1.98908,0.00576818,-0.141512
358.1833,0.04471738,-0.3306124,0.4057394,-1.991993,-0.001611959,-0.140804
358.1977,0.04471738,-0.3306124,0.4057394,-1.991993,-0.001611959,-0.140804
358.2118,0.04471968,-0.3305703,0.4059665,-1.99468,-0.008847687,-0.1401099
358.2274,0.04472194,-0.3305287,0.4061763,-1.999299,-0.01595714,-0.136096
358.2417,0.04472417,-0.3304876,0.406374,-2.003109,-0.02293225,-0.132161
358.2568,0.04472417,-0.3304876,0.406374,-2.003109,-0.02293225,-0.132161
358.2706,0.04472636,-0.330447,0.4065685,-2.006494,-0.02977341,-0.1283031
358.2859,0.04472853,-0.3304069,0.4067626,-2.00964,-0.03648258,-0.1245208
358.3005,0.04473066,-0.3303673,0.4068789,-2.0147,-0.04311016,-0.1174795
358.3154,0.04473066,-0.3303673,0.4068789,-2.0147,-0.04311016,-0.1174795
358.3292,0.04473275,-0.3303281,0.4070068,-2.018933,-0.04960461,-0.1105762
358.3446,0.04473482,-0.3302894,0.4071406,-2.022722,-0.05597152,-0.1038083
358.3593,0.04473482,-0.3302894,0.4071406,-2.022722,-0.05597152,-0.1038083
358.3753,0.04473684,-0.3302512,0.4071561,-2.028312,-0.06228736,-0.09383982
358.3892,0.04473883,-0.3302135,0.4072022,-2.033012,-0.06846882,-0.08406685
358.4039,0.0447408,-0.3301761,0.4072616,-2.037226,-0.07452592,-0.0744855
358.4174,0.0447408,-0.3301761,0.4072616,-2.037226,-0.07452592,-0.0744855
358.4315,0.04474273,-0.3301393,0.4073259,-2.041153,-0.08046611,-0.06509204
358.447,0.04474463,-0.3301029,0.4072165,-2.046947,-0.08639722,-0.05254952
358.4613,0.04474649,-0.3300669,0.4071611,-2.051876,-0.09219079,-0.04025295
358.4764,0.04474649,-0.3300669,0.4071611,-2.051876,-0.09219079,-0.04025295
358.4898,0.04474833,-0.3300314,0.4071296,-2.056324,-0.09786212,-0.0281975
358.5054,0.04475014,-0.3299963,0.4071078,-2.06048,-0.1034215,-0.01637844
358.5201,0.04475191,-0.3299616,0.4068626,-2.066488,-0.1090102,-0.00145789
358.535,0.04475191,-0.3299616,0.4068626,-2.066488,-0.1090102,-0.00145789
358.5491,0.04475366,-0.3299273,0.4066963,-2.07162,-0.1144549,0.01317009
358.5645,0.04475537,-0.3298935,0.4065655,-2.07626,-0.1197772,0.02751125
358.579,0.04475537,-0.3298935,0.4065655,-2.07626,-0.1197772,0.02751125
358.5931,0.04475706,-0.32986,0.4063875,-2.08108,-0.1250286,0.04236331
358.6085,0.04475872,-0.329827,0.4062394,-2.085518,-0.1301656,0.05692414
358.6231,0.04476036,-0.3297944,0.4061058,-2.089703,-0.1351978,0.07119948
358.6378,0.04476036,-0.3297944,0.4061058,-2.089703,-0.1351978,0.07119948
358.6538,0.04476197,-0.3297621,0.40598,-2.093701,-0.1401306,0.0851949
358.6682,0.04476357,-0.3297303,0.4058597,-2.097547,-0.1449673,0.0989159
358.6817,0.04476513,-0.3296989,0.4057442,-2.101258,-0.1497096,0.1123679
358.6964,0.04476513,-0.3296989,0.4057442,-2.101258,-0.1497096,0.1123679
358.7102,0.04476667,-0.3296678,0.4056336,-2.104845,-0.1543591,0.1255561
358.7256,0.04476819,-0.3296371,0.4055284,-2.108313,-0.158917,0.1384857
358.7401,0.04476969,-0.3296068,0.4055142,-2.111184,-0.1633316,0.1503696
358.7548,0.04476969,-0.3296068,0.4055142,-2.111184,-0.1633316,0.1503696
358.7687,0.04477117,-0.3295768,0.4054741,-2.114116,-0.1676751,0.1620206
358.7841,0.04477262,-0.3295472,0.4054264,-2.117028,-0.1719395,0.1734431
358.7986,0.04477262,-0.3295472,0.4054264,-2.117028,-0.1719395,0.1734431
358.8127,0.04477407,-0.329518,0.4057695,-2.117847,-0.1758781,0.1813084
358.8282,0.0447755,-0.3294891,0.405967,-2.119305,-0.1798191,0.1890195
358.8428,0.04477691,-0.3294606,0.4061048,-2.121041,-0.1837188,0.1965793
358.8572,0.04477691,-0.3294606,0.4061048,-2.121041,-0.1837188,0.1965793
358.8712,0.04477831,-0.3294324,0.4062211,-2.122879,-0.1875563,0.2039909
358.8867,0.04477969,-0.3294046,0.4067581,-2.122707,-0.1910562,0.207924
358.9015,0.04478106,-0.3293771,0.4071297,-2.123226,-0.1945778,0.2117799
358.9162,0.04478106,-0.3293771,0.4071297,-2.123226,-0.1945778,0.2117799
358.9319,0.04478241,-0.3293499,0.4074324,-2.124063,-0.1980709,0.2155602
358.9461,0.04478374,-0.329323,0.4077084,-2.125037,-0.2015119,0.2192663
358.9608,0.04478507,-0.3292965,0.4084336,-2.124039,-0.2046049,0.2195666
358.9743,0.04478507,-0.3292965,0.4084336,-2.124039,-0.2046049,0.2195666
358.9881,0.04478639,-0.3292703,0.408976,-2.123759,-0.2077364,0.2198609
359.0034,0.04478769,-0.3292444,0.4094403,-2.123826,-0.2108516,0.2201494
359.018,0.04478769,-0.3292444,0.4094403,-2.123826,-0.2108516,0.2201494
359.032,0.04478898,-0.3292188,0.4103507,-2.122039,-0.2136272,0.2170991
359.0474,0.04479026,-0.3291936,0.4110565,-2.121038,-0.21646,0.2141085
359.0621,0.04479153,-0.3291686,0.411673,-2.120428,-0.2192887,0.2111765
359.0765,0.04479153,-0.3291686,0.411673,-2.120428,-0.2192887,0.2111765
359.0906,0.04479279,-0.3291439,0.4122505,-2.120017,-0.2220846,0.2083021
359.1062,0.04479404,-0.3291195,0.4133126,-2.117697,-0.2245246,0.2021507
359.1206,0.04479528,-0.3290955,0.414163,-2.116145,-0.2270305,0.19612
359.1353,0.04479528,-0.3290955,0.414163,-2.116145,-0.2270305,0.19612
359.1492,0.04479651,-0.3290717,0.4149185,-2.114985,-0.2295409,0.1902075
359.1646,0.04479773,-0.3290482,0.41563,-2.114036,-0.2320265,0.1844109
359.1792,0.04479773,-0.3290482,0.41563,-2.114036,-0.2320265,0.1844109
359.1931,0.04479894,-0.3290249,0.4168423,-2.111199,-0.2341538,0.1753948
359.2085,0.04480014,-0.329002,0.4178288,-2.109145,-0.2363596,0.1665554
359.225,0.04480133,-0.3289793,0.4187116,-2.107503,-0.2385798,0.1578894
359.2386,0.04480133,-0.3289793,0.4187116,-2.107503,-0.2385798,0.1578894
359.2526,0.04480252,-0.3289569,0.4200802,-2.104084,-0.2404577,0.14606
359.2668,0.04480371,-0.3289348,0.4212023,-2.101509,-0.2424301,0.1344626
359.2812,0.04480488,-0.3289129,0.4222095,-2.099386,-0.2444277,0.1230926
359.2959,0.04480488,-0.3289129,0.4222095,-2.099386,-0.2444277,0.1230926
359.3097,0.04480604,-0.3288912,0.4231594,-2.09752,-0.2464171,0.1119455
359.3252,0.04480721,-0.3288699,0.4246266,-2.093816,-0.2480522,0.09768377
359.3395,0.04480721,-0.3288699,0.4246266,-2.093816,-0.2480522,0.09768377
359.3536,0.04480836,-0.3288487,0.4258453,-2.09093,-0.2497845,0.08370168
359.3688,0.04480951,-0.3288279,0.4269451,-2.088491,-0.2515473,0.06999373
359.3835,0.04481065,-0.3288073,0.4279834,-2.086316,-0.2533074,0.05655456
359.401,0.04408383,-0.3287893,0.4271947,-2.09092,-0.2561691,0.05505282
359.413,0.04408383,-0.3287893,0.4271947,-2.09092,-0.2561691,0.05505282
359.4271,0.0429021,-0.3287725,0.4272291,-2.093075,-0.2585425,0.05358072
359.4422,0.04143914,-0.3287564,0.4275995,-2.094088,-0.2606607,0.05213759
359.457,0.04143914,-0.3287564,0.4275995,-2.094088,-0.2606607,0.05213759
359.471,0.0398054,-0.3287403,0.4280933,-2.09458,-0.2626485,0.05072277
359.4864,0.03807105,-0.3287243,0.4286248,-2.094842,-0.2645616,0.04933568
359.5008,0.03628069,-0.3287083,0.4291618,-2.095008,-0.2664235,0.04797579
359.5166,0.03628069,-0.3287083,0.4291618,-2.095008,-0.2664235,0.04797579
359.5305,0.03446259,-0.3286923,0.4296931,-2.095141,-0.2682441,0.04664255
359.5457,0.03263465,-0.3286763,0.4302158,-2.095267,-0.2700276,0.04533544
359.5594,0.03263465,-0.3286763,0.4302158,-2.095267,-0.2700276,0.04533544
359.5731,0.03080817,-0.3286603,0.4307296,-2.095397,-0.2717758,0.04405397
359.5885,0.02899027,-0.3286445,0.4312353,-2.095534,-0.2734894,0.04279762
359.603,0.02718537,-0.3286287,0.4317333,-2.095681,-0.2751693,0.0415659
359.6173,0.02718537,-0.3286287,0.4317333,-2.095681,-0.2751693,0.0415659
359.6316,0.02539621,-0.328613,0.4322244,-2.095836,-0.2768159,0.04035834
359.6471,0.02362445,-0.3285975,0.4327089,-2.096001,-0.2784298,0.03917445
359.6616,0.02187105,-0.3285821,0.4331872,-2.096173,-0.2800115,0.03801377
359.6766,0.02187105,-0.3285821,0.4331872,-2.096173,-0.2800115,0.03801377
359.69,0.02013654,-0.3285669,0.4336593,-2.096353,-0.2815617,0.03687586
359.7057,0.01842118,-0.3285518,0.4341256,-2.09654,-0.283081,0.03576026
359.7203,0.01672505,-0.3285369,0.4345861,-2.096733,-0.2845698,0.03466653
359.7349,0.01672505,-0.3285369,0.4345861,-2.096733,-0.2845698,0.03466653
359.7487,0.01504813,-0.3285221,0.4350408,-2.096933,-0.286029,0.03359425
359.764,0.0133903,-0.3285075,0.4354899,-2.097139,-0.2874589,0.032543
359.7787,0.0133903,-0.3285075,0.4354899,-2.097139,-0.2874589,0.032543
359.7927,0.01175143,-0.328493,0.4359334,-2.09735,-0.2888602,0.03151236
359.81,0.01013135,-0.3284787,0.4363714,-2.097567,-0.2902336,0.03050193
359.8236,0.008529873,-0.3284646,0.4368038,-2.09779,-0.2915794,0.02951131
359.8369,0.008529873,-0.3284646,0.4368038,-2.09779,-0.2915794,0.02951131
359.851,0.006946808,-0.3284506,0.4372308,-2.098017,-0.2928984,0.02854011
359.8662,0.005381953,-0.3284367,0.4376524,-2.098249,-0.2941911,0.02758796
359.8807,0.003835108,-0.328423,0.4380686,-2.098485,-0.2954579,0.02665448
359.8954,0.003835108,-0.328423,0.4380686,-2.098485,-0.2954579,0.02665448
359.9094,0.00230607,-0.3284094,0.4384795,-2.098726,-0.2966994,0.02573931
359.9249,0.0007946371,-0.328396,0.4388852,-2.098971,-0.2979161,0.02484207
