JMolnar6/NonAnthroHands_User_Study/HandsLoggerWithURDF/tempdata/files/Reachy_PID0_JointMotion_gesture_2_10.csv
Time,r_shoulder,r_shoulder_x,r_upper_arm,r_forearm,r_wrist,r_wrist2hand,
124.3701,0.04456605,-3.015396E-08,NaN,-1.903934,-1.381465E-07,NaN,0.4856357,6.187788E-08,NaN,-2.17752,3.771974E-06,-0.3510553,-2.832779E-08,NaN,NaN,-0.01996334,-1.071027E-10,5.589015E-07,-1.158899E-07,-1.316773E-08,-2.622604E-08
124.3863,0.0445605,-3.015276E-08,NaN,-1.904938,-1.381459E-07,NaN,0.4855739,6.1877E-08,NaN,-2.177722,3.772691E-06,-0.351258,-2.832445E-08,NaN,NaN,-0.01996378,-1.117593E-10,5.505569E-07,-1.158871E-07,-9.591447E-09,-2.622604E-08
124.4002,0.04455258,-3.015156E-08,NaN,-1.906406,-1.381453E-07,NaN,0.4855558,6.187701E-08,NaN,-2.177985,3.773408E-06,-0.3514438,-2.8322E-08,NaN,NaN,-0.01996413,-1.164159E-10,5.481727E-07,-1.158844E-07,-1.555191E-08,-2.622604E-08
124.4147,0.04455258,-3.015156E-08,NaN,-1.906406,-1.381453E-07,NaN,0.4855558,6.187701E-08,NaN,-2.177985,3.773408E-06,-0.3514438,-2.8322E-08,NaN,NaN,-0.01996413,-1.164159E-10,5.481727E-07,-1.158844E-07,-1.555191E-08,-2.622604E-08
124.429,0.04454479,-3.015036E-08,NaN,-1.908154,-1.381447E-07,NaN,0.4855643,6.187788E-08,NaN,-2.178247,3.774125E-06,-0.3515915,-2.832042E-08,NaN,NaN,-0.01996436,-1.210725E-10,5.481727E-07,-1.158817E-07,-1.912819E-08,-2.622604E-08
124.4441,0.04453801,-3.014916E-08,NaN,-1.910066,-1.381441E-07,NaN,0.4855815,6.187889E-08,NaN,-2.178488,3.774842E-06,-0.3517121,-2.831897E-08,NaN,NaN,-0.01996452,-1.257291E-10,5.445964E-07,-1.15879E-07,-1.674401E-08,-2.622604E-08
124.459,0.04453801,-3.014916E-08,NaN,-1.910066,-1.381441E-07,NaN,0.4855815,6.187889E-08,NaN,-2.178488,3.774842E-06,-0.3517121,-2.831897E-08,NaN,NaN,-0.01996452,-1.257291E-10,5.445964E-07,-1.15879E-07,-1.674401E-08,-2.622604E-08
124.4728,0.04453966,-3.014796E-08,NaN,-1.911309,-1.381435E-07,NaN,0.48565,6.188075E-08,NaN,-2.178483,3.775559E-06,-0.3515926,-2.831838E-08,NaN,NaN,-0.01996419,-1.303857E-10,5.529411E-07,-1.158763E-07,-1.912819E-08,-2.622604E-08
124.4901,0.04454432,-3.014676E-08,NaN,-1.912133,-1.381429E-07,NaN,0.4856722,6.188344E-08,NaN,-2.178398,3.776277E-06,-0.3514793,-2.831861E-08,NaN,NaN,-0.01996394,-1.350424E-10,5.589015E-07,-1.158736E-07,-2.270447E-08,-2.622604E-08
124.5037,0.04454991,-3.014556E-08,NaN,-1.912697,-1.381423E-07,NaN,0.4856645,6.188694E-08,NaN,-2.178299,3.776994E-06,-0.3513975,-2.831966E-08,NaN,NaN,-0.01996379,-1.39699E-10,5.589015E-07,-1.158709E-07,-2.032028E-08,-2.622604E-08
124.5173,0.04454991,-3.014556E-08,NaN,-1.912697,-1.381423E-07,NaN,0.4856645,6.188694E-08,NaN,-2.178299,3.776994E-06,-0.3513975,-2.831966E-08,NaN,NaN,-0.01996379,-1.39699E-10,5.589015E-07,-1.158709E-07,-2.032028E-08,-2.622604E-08
124.5315,0.04456525,-3.014436E-08,NaN,-1.912336,-1.381417E-07,NaN,0.4856941,6.189123E-08,NaN,-2.177986,3.777711E-06,-0.3511163,-2.832149E-08,NaN,NaN,-0.01996323,-1.490122E-10,5.672462E-07,-1.158683E-07,-2.032028E-08,-2.622604E-08
124.5467,0.04458366,-3.014316E-08,NaN,-1.911406,-1.381411E-07,NaN,0.4856771,6.189629E-08,NaN,-2.177625,3.778423E-06,-0.350866,-2.832409E-08,NaN,NaN,-0.01996279,-1.536688E-10,5.720146E-07,-1.158656E-07,-1.555191E-08,-2.622604E-08
124.5613,0.04460207,-3.014195E-08,NaN,-1.910129,-1.381405E-07,NaN,0.4856344,6.19014E-08,NaN,-2.177278,3.779136E-06,-0.3506623,-2.832675E-08,NaN,NaN,-0.01996248,-1.583254E-10,5.732067E-07,-1.158629E-07,-1.435982E-08,-2.622604E-08
124.576,0.04460207,-3.014195E-08,NaN,-1.910129,-1.381405E-07,NaN,0.4856344,6.19014E-08,NaN,-2.177278,3.779136E-06,-0.3506623,-2.832675E-08,NaN,NaN,-0.01996248,-1.583254E-10,5.732067E-07,-1.158629E-07,-1.435982E-08,-2.622604E-08
124.5898,0.04461933,-3.014075E-08,NaN,-1.908645,-1.381399E-07,NaN,0.485585,6.190729E-08,NaN,-2.176962,3.779848E-06,-0.3504907,-2.833018E-08,NaN,NaN,-0.01996224,-1.62982E-10,5.803593E-07,-1.158603E-07,-1.674401E-08,-2.622604E-08
124.6054,0.04464505,-3.013955E-08,NaN,-1.906276,-1.381393E-07,NaN,0.4855855,6.191392E-08,NaN,-2.176451,3.78056E-06,-0.3501184,-2.833435E-08,NaN,NaN,-0.01996157,-1.676386E-10,5.89896E-07,-1.158577E-07,-1.435982E-08,-2.622604E-08
124.6199,0.04464505,-3.013955E-08,NaN,-1.906276,-1.381393E-07,NaN,0.4855855,6.191392E-08,NaN,-2.176451,3.78056E-06,-0.3501184,-2.833435E-08,NaN,NaN,-0.01996157,-1.676386E-10,5.89896E-07,-1.158577E-07,-1.435982E-08,-2.622604E-08
124.6339,0.04467236,-3.013835E-08,NaN,-1.903374,-1.381387E-07,NaN,0.4855456,6.192129E-08,NaN,-2.175905,3.781273E-06,-0.3497774,-2.833926E-08,NaN,NaN,-0.01996101,-1.722952E-10,5.982407E-07,-1.158551E-07,-1.435982E-08,-2.622604E-08
124.6493,0.04469847,-3.013715E-08,NaN,-1.900155,-1.381381E-07,NaN,0.4854831,6.192938E-08,NaN,-2.17538,3.781985E-06,-0.3494845,-2.834489E-08,NaN,NaN,-0.01996058,-1.769518E-10,6.03009E-07,-1.158525E-07,-1.555191E-08,-2.622604E-08
124.6641,0.04472256,-3.013595E-08,NaN,-1.896756,-1.381375E-07,NaN,0.4854153,6.193818E-08,NaN,-2.174891,3.782697E-06,-0.3492262,-2.835124E-08,NaN,NaN,-0.01996022,-1.816085E-10,6.065853E-07,-1.158499E-07,-1.316773E-08,-2.622604E-08
124.6801,0.04475457,-3.013475E-08,NaN,-1.892499,-1.381369E-07,NaN,0.4853968,6.194696E-08,NaN,-2.174212,3.78341E-06,-0.3487721,-2.835756E-08,NaN,NaN,-0.01995944,-1.862651E-10,6.173142E-07,-1.158473E-07,-1.435982E-08,-2.622604E-08
124.6932,0.04475457,-3.013475E-08,NaN,-1.892499,-1.381369E-07,NaN,0.4853968,6.194696E-08,NaN,-2.174212,3.78341E-06,-0.3487721,-2.835756E-08,NaN,NaN,-0.01995944,-1.862651E-10,6.173142E-07,-1.158473E-07,-1.435982E-08,-2.622604E-08
124.7074,0.04478721,-3.013355E-08,NaN,-1.887733,-1.381364E-07,NaN,0.4853387,6.195644E-08,NaN,-2.173503,3.784122E-06,-0.3483528,-2.836458E-08,NaN,NaN,-0.01995878,-1.909217E-10,6.244667E-07,-1.158447E-07,-1.316773E-08,-2.622604E-08
124.7223,0.04481779,-3.013236E-08,NaN,-1.882674,-1.381358E-07,NaN,0.4852587,6.19666E-08,NaN,-2.172818,3.784834E-06,-0.3479845,-2.837228E-08,NaN,NaN,-0.01995825,-1.955783E-10,6.316193E-07,-1.158421E-07,-9.591449E-09,-2.622604E-08
124.7375,0.04481779,-3.013236E-08,NaN,-1.882674,-1.381358E-07,NaN,0.4852587,6.19666E-08,NaN,-2.172818,3.784834E-06,-0.3479845,-2.837228E-08,NaN,NaN,-0.01995825,-1.955783E-10,6.316193E-07,-1.158421E-07,-9.591449E-09,-2.622604E-08
124.7508,0.04485575,-3.013116E-08,NaN,-1.876695,-1.381352E-07,NaN,0.4852196,6.197743E-08,NaN,-2.171949,3.785556E-06,-0.3474371,-2.838065E-08,NaN,NaN,-0.01995734,-2.095481E-10,6.423481E-07,-1.158395E-07,-1.316773E-08,-2.622604E-08
124.7682,0.04489309,-3.012996E-08,NaN,-1.870178,-1.381346E-07,NaN,0.4851396,6.198891E-08,NaN,-2.171058,3.786269E-06,-0.346935,-2.838967E-08,NaN,NaN,-0.01995658,-2.142047E-10,6.483086E-07,-1.15837E-07,-9.591449E-09,-2.622604E-08
124.7818,0.0449272,-3.012876E-08,NaN,-1.863358,-1.38134E-07,NaN,0.4850388,6.200033E-08,NaN,-2.170202,3.786981E-06,-0.3464908,-2.839863E-08,NaN,NaN,-0.01995595,-2.188613E-10,6.554612E-07,-1.158344E-07,-8.399357E-09,-2.622604E-08
124.7955,0.0449272,-3.012876E-08,NaN,-1.863358,-1.38134E-07,NaN,0.4850388,6.200033E-08,NaN,-2.170202,3.786981E-06,-0.3464908,-2.839863E-08,NaN,NaN,-0.01995595,-2.188613E-10,6.554612E-07,-1.158344E-07,-8.399357E-09,-2.622604E-08
124.8094,0.04495781,-3.012757E-08,NaN,-1.856382,-1.381334E-07,NaN,0.4849344,6.201239E-08,NaN,-2.169394,3.787693E-06,-0.3460891,-2.840823E-08,NaN,NaN,-0.01995541,-2.235179E-10,6.638058E-07,-1.158319E-07,-1.078354E-08,-2.622604E-08
124.8249,0.04499564,-3.012637E-08,NaN,-1.848579,-1.381329E-07,NaN,0.4848774,6.202437E-08,NaN,-2.168407,3.788415E-06,-0.3455041,-2.841775E-08,NaN,NaN,-0.01995448,-2.374878E-10,6.733426E-07,-1.158294E-07,-9.59145E-09,-2.622604E-08
124.8393,0.04499564,-3.012637E-08,NaN,-1.848579,-1.381329E-07,NaN,0.4848774,6.202437E-08,NaN,-2.168407,3.788415E-06,-0.3455041,-2.841775E-08,NaN,NaN,-0.01995448,-2.374878E-10,6.733426E-07,-1.158294E-07,-9.59145E-09,-2.622604E-08
124.8531,0.04503237,-3.012517E-08,NaN,-1.840303,-1.381323E-07,NaN,0.4847831,6.203698E-08,NaN,-2.1674,3.789132E-06,-0.3449617,-2.842791E-08,NaN,NaN,-0.01995368,-2.46801E-10,6.816873E-07,-1.158269E-07,-1.316773E-08,-2.622604E-08
124.8684,0.04506559,-3.012397E-08,NaN,-1.831773,-1.381317E-07,NaN,0.4846693,6.204951E-08,NaN,-2.166426,3.789844E-06,-0.344476,-2.843797E-08,NaN,NaN,-0.01995301,-2.514576E-10,6.876477E-07,-1.158243E-07,-1.316773E-08,-2.622604E-08
124.883,0.04509518,-3.012278E-08,NaN,-1.823124,-1.381311E-07,NaN,0.4845522,6.206265E-08,NaN,-2.1655,3.790566E-06,-0.3440332,-2.844866E-08,NaN,NaN,-0.01995244,-2.654274E-10,6.971845E-07,-1.158218E-07,-1.674401E-08,-2.622604E-08
124.8979,0.04509518,-3.012278E-08,NaN,-1.823124,-1.381311E-07,NaN,0.4845522,6.206265E-08,NaN,-2.1655,3.790566E-06,-0.3440332,-2.844866E-08,NaN,NaN,-0.01995244,-2.654274E-10,6.971845E-07,-1.158218E-07,-1.674401E-08,-2.622604E-08
124.9119,0.04513218,-3.012158E-08,NaN,-1.813679,-1.381306E-07,NaN,0.4844799,6.207641E-08,NaN,-2.164396,3.791278E-06,-0.3434123,-2.845995E-08,NaN,NaN,-0.01995148,-2.70084E-10,7.102975E-07,-1.158194E-07,-1.79361E-08,-2.622604E-08
124.9273,0.04516761,-3.012038E-08,NaN,-1.803787,-1.3813E-07,NaN,0.484371,6.209076E-08,NaN,-2.163273,3.792E-06,-0.3428364,-2.847185E-08,NaN,NaN,-0.01995065,-2.840539E-10,7.186422E-07,-1.158169E-07,-1.078354E-08,-2.622604E-08
124.942,0.04519907,-3.011919E-08,NaN,-1.793665,-1.381294E-07,NaN,0.4842434,6.21057E-08,NaN,-2.162186,3.792713E-06,-0.3423187,-2.848433E-08,NaN,NaN,-0.01994997,-2.887105E-10,7.246027E-07,-1.158144E-07,-4.823079E-09,-2.622604E-08
124.9565,0.04519907,-3.011919E-08,NaN,-1.793665,-1.381294E-07,NaN,0.4842434,6.21057E-08,NaN,-2.162186,3.792713E-06,-0.3423187,-2.848433E-08,NaN,NaN,-0.01994997,-2.887105E-10,7.246027E-07,-1.158144E-07,-4.823079E-09,-2.622604E-08
124.9705,0.04523721,-3.011799E-08,NaN,-1.782684,-1.381289E-07,NaN,0.4841525,6.212051E-08,NaN,-2.160926,3.79343E-06,-0.3416395,-2.849667E-08,NaN,NaN,-0.01994894,-2.980237E-10,7.377157E-07,-1.158119E-07,-3.630986E-09,-2.622604E-08
124.9856,0.04527238,-3.011679E-08,NaN,-1.771226,-1.381283E-07,NaN,0.4840243,6.213589E-08,NaN,-2.159654,3.794147E-06,-0.3410148,-2.85096E-08,NaN,NaN,-0.01994808,-3.073369E-10,7.472524E-07,-1.158095E-07,1.137386E-09,-2.622604E-08
125.0003,0.04530247,-3.011559E-08,NaN,-1.759524,-1.381277E-07,NaN,0.4838789,6.215183E-08,NaN,-2.158428,3.794864E-06,-0.340454,-2.852309E-08,NaN,NaN,-0.01994735,-3.166501E-10,7.567892E-07,-1.15807E-07,-2.438893E-09,-2.622604E-08
125.0149,0.04530247,-3.011559E-08,NaN,-1.759524,-1.381277E-07,NaN,0.4838789,6.215183E-08,NaN,-2.158428,3.794864E-06,-0.340454,-2.852309E-08,NaN,NaN,-0.01994735,-3.166501E-10,7.567892E-07,-1.15807E-07,-2.438893E-09,-2.622604E-08
125.029,0.04532798,-3.01144E-08,NaN,-1.747726,-1.381272E-07,NaN,0.4837324,6.216834E-08,NaN,-2.157258,3.795581E-06,-0.3399418,-2.853713E-08,NaN,NaN,-0.01994673,-3.259633E-10,7.627497E-07,-1.158046E-07,-1.2468E-09,-2.622604E-08
125.0442,0.04536081,-3.01132E-08,NaN,-1.735159,-1.381266E-07,NaN,0.4836273,6.218539E-08,NaN,-2.155921,3.796298E-06,-0.3392648,-2.855172E-08,NaN,NaN,-0.01994575,-3.352766E-10,7.758627E-07,-1.158022E-07,-4.823079E-09,-2.622604E-08
125.0609,0.04539072,-3.0112E-08,NaN,-1.722176,-1.38126E-07,NaN,0.4834883,6.220226E-08,NaN,-2.154572,3.797015E-06,-0.3386389,-2.856613E-08,NaN,NaN,-0.01994492,-3.445898E-10,7.889757E-07,-1.157997E-07,-2.438893E-09,-2.622604E-08
125.0744,0.04539072,-3.0112E-08,NaN,-1.722176,-1.38126E-07,NaN,0.4834883,6.220226E-08,NaN,-2.154572,3.797015E-06,-0.3386389,-2.856613E-08,NaN,NaN,-0.01994492,-3.445898E-10,7.889757E-07,-1.157997E-07,-2.438893E-09,-2.622604E-08
125.0883,0.04541567,-3.01108E-08,NaN,-1.708996,-1.381255E-07,NaN,0.4833338,6.221967E-08,NaN,-2.153266,3.797732E-06,-0.338075,-2.858108E-08,NaN,NaN,-0.01994422,-3.53903E-10,8.020888E-07,-1.157973E-07,-3.630986E-09,-2.622604E-08
125.1026,0.04543814,-3.010961E-08,NaN,-1.695754,-1.381249E-07,NaN,0.4831765,6.22376E-08,NaN,-2.152015,3.79845E-06,-0.3375593,-2.859656E-08,NaN,NaN,-0.01994362,-3.632162E-10,8.080493E-07,-1.157949E-07,-4.823079E-09,-2.622604E-08
125.1174,0.04543814,-3.010961E-08,NaN,-1.695754,-1.381249E-07,NaN,0.4831765,6.22376E-08,NaN,-2.152015,3.79845E-06,-0.3375593,-2.859656E-08,NaN,NaN,-0.01994362,-3.632162E-10,8.080493E-07,-1.157949E-07,-4.823079E-09,-2.622604E-08
125.1331,0.04546654,-3.010841E-08,NaN,-1.68177,-1.381244E-07,NaN,0.4830595,6.225605E-08,NaN,-2.150598,3.799167E-06,-0.3368839,-2.861255E-08,NaN,NaN,-0.01994268,-3.725294E-10,8.187781E-07,-1.157925E-07,-3.630986E-09,-2.622604E-08
125.1465,0.04549295,-3.010721E-08,NaN,-1.667395,-1.381238E-07,NaN,0.4829082,6.22743E-08,NaN,-2.149169,3.799884E-06,-0.3362614,-2.862834E-08,NaN,NaN,-0.0199419,-3.818426E-10,8.29507E-07,-1.157901E-07,-2.438893E-09,-2.622604E-08
125.1612,0.04551765,-3.010602E-08,NaN,-1.652843,-1.381233E-07,NaN,0.4827389,6.229305E-08,NaN,-2.147784,3.800601E-06,-0.3357017,-2.864464E-08,NaN,NaN,-0.01994125,-3.911559E-10,8.378516E-07,-1.157878E-07,1.137386E-09,-2.622604E-08
125.1759,0.04551765,-3.010602E-08,NaN,-1.652843,-1.381233E-07,NaN,0.4827389,6.229305E-08,NaN,-2.147784,3.800601E-06,-0.3357017,-2.864464E-08,NaN,NaN,-0.01994125,-3.911559E-10,8.378516E-07,-1.157878E-07,1.137386E-09,-2.622604E-08
125.1901,0.04554598,-3.010482E-08,NaN,-1.637486,-1.381227E-07,NaN,0.4826039,6.231231E-08,NaN,-2.146236,3.801309E-06,-0.3349981,-2.866143E-08,NaN,NaN,-0.0199403,-3.911559E-10,8.461963E-07,-1.157854E-07,3.521571E-09,-2.622604E-08
125.2053,0.04557401,-3.010362E-08,NaN,-1.621705,-1.381222E-07,NaN,0.4824316,6.233135E-08,NaN,-2.144685,3.802026E-06,-0.3343559,-2.867801E-08,NaN,NaN,-0.01993952,-4.004691E-10,8.569252E-07,-1.15783E-07,4.713664E-09,-2.622604E-08
125.22,0.04557401,-3.010362E-08,NaN,-1.621705,-1.381222E-07,NaN,0.4824316,6.233135E-08,NaN,-2.144685,3.802026E-06,-0.3343559,-2.867801E-08,NaN,NaN,-0.01993952,-4.004691E-10,8.569252E-07,-1.15783E-07,4.713664E-09,-2.622604E-08
125.234,0.04560032,-3.010242E-08,NaN,-1.605733,-1.381216E-07,NaN,0.4822421,6.235087E-08,NaN,-2.143185,3.802743E-06,-0.3337813,-2.869509E-08,NaN,NaN,-0.01993889,-4.097823E-10,8.605015E-07,-1.157807E-07,8.289943E-09,-2.622604E-08
125.2494,0.04562549,-3.010123E-08,NaN,-1.589715,-1.381211E-07,NaN,0.4820506,6.237089E-08,NaN,-2.14175,3.803451E-06,-0.3332589,-2.871264E-08,NaN,NaN,-0.01993836,-4.097823E-10,8.66462E-07,-1.157783E-07,1.186622E-08,-2.622604E-08
125.264,0.04565497,-3.010003E-08,NaN,-1.57298,-1.3812E-07,NaN,0.481898,6.230413E-08,NaN,-2.140156,3.804163E-06,-0.33259,-2.864343E-08,NaN,NaN,-0.01993751,-4.097823E-10,8.771908E-07,-1.157785E-07,7.09785E-09,-2.622604E-08
125.2787,0.04565497,-3.010003E-08,NaN,-1.57298,-1.3812E-07,NaN,0.481898,6.230413E-08,NaN,-2.140156,3.804163E-06,-0.33259,-2.864343E-08,NaN,NaN,-0.01993751,-4.097823E-10,8.771908E-07,-1.157785E-07,7.09785E-09,-2.622604E-08
125.2926,0.04568374,-3.009883E-08,NaN,-1.55588,-1.381195E-07,NaN,0.4817119,6.227034E-08,NaN,-2.138557,3.80488E-06,-0.331978,-2.860718E-08,NaN,NaN,-0.01993682,-4.144389E-10,8.843434E-07,-1.15779E-07,3.521572E-09,-2.622604E-08
125.3081,0.04571128,-3.009763E-08,NaN,-1.538632,-1.381192E-07,NaN,0.4815097,6.225417E-08,NaN,-2.137009,3.805588E-06,-0.3314306,-2.858856E-08,NaN,NaN,-0.01993627,-4.097823E-10,8.914959E-07,-1.157798E-07,3.521572E-09,-2.622604E-08
125.3225,0.04573774,-3.009644E-08,NaN,-1.521371,-1.381191E-07,NaN,0.4813058,6.224829E-08,NaN,-2.135524,3.806296E-06,-0.3309337,-2.858022E-08,NaN,NaN,-0.01993581,-4.051257E-10,8.986485E-07,-1.157807E-07,1.137386E-09,-2.622604E-08
125.3393,0.04573774,-3.009644E-08,NaN,-1.521371,-1.381191E-07,NaN,0.4813058,6.224829E-08,NaN,-2.135524,3.806296E-06,-0.3309337,-2.858022E-08,NaN,NaN,-0.01993581,-4.051257E-10,8.986485E-07,-1.157807E-07,1.137386E-09,-2.622604E-08
125.3531,0.0457685,-3.009524E-08,NaN,-1.503418,-1.381191E-07,NaN,0.4811378,6.224759E-08,NaN,-2.13388,3.807004E-06,-0.3302956,-2.857707E-08,NaN,NaN,-0.01993505,-4.004691E-10,9.069931E-07,-1.157816E-07,1.137386E-09,-2.622604E-08
125.3665,0.04579849,-3.009404E-08,NaN,-1.48512,-1.381187E-07,NaN,0.4809369,6.198541E-08,NaN,-2.132232,3.807702E-06,-0.3297147,-2.831244E-08,NaN,NaN,-0.01993445,-3.864992E-10,9.105694E-07,-1.157832E-07,2.329479E-09,-2.622604E-08
125.3811,0.04582718,-3.009285E-08,NaN,-1.466693,-1.381184E-07,NaN,0.4807207,6.173134E-08,NaN,-2.130634,3.808401E-06,-0.3291976,-2.805593E-08,NaN,NaN,-0.01993399,-3.725294E-10,9.189141E-07,-1.157849E-07,1.137386E-09,-2.622604E-08
125.3958,0.04582718,-3.009285E-08,NaN,-1.466693,-1.381184E-07,NaN,0.4807207,6.173134E-08,NaN,-2.130634,3.808401E-06,-0.3291976,-2.805593E-08,NaN,NaN,-0.01993399,-3.725294E-10,9.189141E-07,-1.157849E-07,1.137386E-09,-2.622604E-08
125.4097,0.04585474,-3.009165E-08,NaN,-1.448269,-1.381181E-07,NaN,0.4805031,6.148311E-08,NaN,-2.129101,3.809099E-06,-0.3287306,-2.780526E-08,NaN,NaN,-0.01993362,-3.585596E-10,9.236825E-07,-1.157865E-07,1.137386E-09,-2.622604E-08
125.4249,0.04588136,-3.009045E-08,NaN,-1.429929,-1.381179E-07,NaN,0.4802897,6.124063E-08,NaN,-2.127629,3.809798E-06,-0.3283032,-2.756034E-08,NaN,NaN,-0.01993332,-3.445898E-10,9.29643E-07,-1.157882E-07,-5.470691E-11,-2.622604E-08
125.4394,0.04588136,-3.009045E-08,NaN,-1.429929,-1.381179E-07,NaN,0.4802897,6.124063E-08,NaN,-2.127629,3.809798E-06,-0.3283032,-2.756034E-08,NaN,NaN,-0.01993332,-3.445898E-10,9.29643E-07,-1.157882E-07,-5.470691E-11,-2.622604E-08
125.4533,0.04590718,-3.008925E-08,NaN,-1.411722,-1.381176E-07,NaN,0.4800817,6.100307E-08,NaN,-2.126214,3.810506E-06,-0.3279087,-2.732033E-08,NaN,NaN,-0.01993306,-3.399332E-10,9.308351E-07,-1.157899E-07,-5.470691E-11,-2.622604E-08
125.4688,0.04593231,-3.008806E-08,NaN,-1.393678,-1.381174E-07,NaN,0.479879,6.077034E-08,NaN,-2.124849,3.811204E-06,-0.3275434,-2.708516E-08,NaN,NaN,-0.01993285,-3.259633E-10,9.308351E-07,-1.157916E-07,2.329479E-09,-2.622604E-08
125.4835,0.04595173,-3.008686E-08,NaN,-1.376577,-1.381171E-07,NaN,0.4796534,6.054234E-08,NaN,-2.123748,3.811903E-06,-0.3273754,-2.685472E-08,NaN,NaN,-0.01993303,-3.119935E-10,9.260667E-07,-1.157932E-07,-1.2468E-09,-2.622604E-08
125.498,0.04595173,-3.008686E-08,NaN,-1.376577,-1.381171E-07,NaN,0.4796534,6.054234E-08,NaN,-2.123748,3.811903E-06,-0.3273754,-2.685472E-08,NaN,NaN,-0.01993303,-3.119935E-10,9.260667E-07,-1.157932E-07,-1.2468E-09,-2.622604E-08
125.512,0.04597059,-3.008567E-08,NaN,-1.360129,-1.381169E-07,NaN,0.4794679,6.031899E-08,NaN,-2.122746,3.812601E-06,-0.327208,-2.662893E-08,NaN,NaN,-0.01993314,-2.980237E-10,9.189142E-07,-1.157949E-07,-1.2468E-09,-2.622604E-08
125.5275,0.04598954,-3.008448E-08,NaN,-1.344155,-1.381167E-07,NaN,0.4793037,6.009948E-08,NaN,-2.121782,3.813309E-06,-0.3270317,-2.640699E-08,NaN,NaN,-0.01993321,-2.933671E-10,9.224905E-07,-1.157966E-07,-6.015171E-09,-2.622604E-08
125.5421,0.04600849,-3.008328E-08,NaN,-1.328545,-1.381165E-07,NaN,0.4791469,5.988446E-08,NaN,-2.120834,3.814007E-06,-0.3268559,-2.618952E-08,NaN,NaN,-0.01993326,-2.793973E-10,9.189142E-07,-1.157982E-07,-7.207264E-09,-2.622604E-08
125.5565,0.04600849,-3.008328E-08,NaN,-1.328545,-1.381165E-07,NaN,0.4791469,5.988446E-08,NaN,-2.120834,3.814007E-06,-0.3268559,-2.618952E-08,NaN,NaN,-0.01993326,-2.793973E-10,9.189142E-07,-1.157982E-07,-7.207264E-09,-2.622604E-08
125.5705,0.04602233,-3.008209E-08,NaN,-1.313988,-1.381162E-07,NaN,0.4789658,5.967311E-08,NaN,-2.120116,3.814706E-06,-0.3268546,-2.597574E-08,NaN,NaN,-0.01993365,-2.654274E-10,9.093774E-07,-1.157999E-07,-7.207264E-09,-2.622604E-08
125.5857,0.04603593,-3.008089E-08,NaN,-1.300144,-1.38116E-07,NaN,0.4788196,5.946609E-08,NaN,-2.119472,3.815413E-06,-0.3268412,-2.576628E-08,NaN,NaN,-0.01993397,-2.607708E-10,9.004368E-07,-1.158015E-07,-6.015171E-09,-2.622604E-08
125.6017,0.04604986,-3.00797E-08,NaN,-1.286799,-1.381158E-07,NaN,0.4786901,5.92626E-08,NaN,-2.118843,3.816121E-06,-0.3268097,-2.556036E-08,NaN,NaN,-0.01993423,-2.561142E-10,8.914961E-07,-1.158032E-07,-3.630986E-09,-2.622604E-08
125.6149,0.04604986,-3.00797E-08,NaN,-1.286799,-1.381158E-07,NaN,0.4786901,5.92626E-08,NaN,-2.118843,3.816121E-06,-0.3268097,-2.556036E-08,NaN,NaN,-0.01993423,-2.561142E-10,8.914961E-07,-1.158032E-07,-3.630986E-09,-2.622604E-08
125.631,0.04605908,-3.007851E-08,NaN,-1.274582,-1.381156E-07,NaN,0.4785401,5.906327E-08,NaN,-2.118432,3.816829E-06,-0.3269362,-2.535859E-08,NaN,NaN,-0.01993479,-2.514576E-10,8.831514E-07,-1.158048E-07,-1.2468E-09,-2.622604E-08
125.6452,0.0460683,-3.007731E-08,NaN,-1.263113,-1.381153E-07,NaN,0.4784238,5.881737E-08,NaN,-2.118079,3.817536E-06,-0.3270407,-2.511026E-08,NaN,NaN,-0.01993526,-2.46801E-10,8.736147E-07,-1.158064E-07,2.925525E-09,-2.622604E-08
125.6588,0.0460683,-3.007731E-08,NaN,-1.263113,-1.381153E-07,NaN,0.4784238,5.881737E-08,NaN,-2.118079,3.817536E-06,-0.3270407,-2.511026E-08,NaN,NaN,-0.01993526,-2.46801E-10,8.736147E-07,-1.158064E-07,2.925525E-09,-2.622604E-08
125.6729,0.04607804,-3.007612E-08,NaN,-1.252154,-1.381151E-07,NaN,0.4783225,5.857645E-08,NaN,-2.117728,3.818244E-06,-0.3271198,-2.486691E-08,NaN,NaN,-0.01993565,-2.421444E-10,8.682503E-07,-1.158081E-07,3.521571E-09,-2.622604E-08
125.688,0.04608811,-3.007493E-08,NaN,-1.24156,-1.381149E-07,NaN,0.4782238,5.833973E-08,NaN,-2.117365,3.818951E-06,-0.3271858,-2.462775E-08,NaN,NaN,-0.01993601,-2.374878E-10,8.628858E-07,-1.158097E-07,5.309711E-09,-2.622604E-08
125.7027,0.0460935,-3.007373E-08,NaN,-1.231998,-1.381147E-07,NaN,0.4780988,5.81078E-08,NaN,-2.117209,3.819659E-06,-0.3274111,-2.43934E-08,NaN,NaN,-0.0199367,-2.328312E-10,8.545412E-07,-1.158113E-07,4.117618E-09,-2.622604E-08
125.7172,0.0460935,-3.007373E-08,NaN,-1.231998,-1.381147E-07,NaN,0.4780988,5.81078E-08,NaN,-2.117209,3.819659E-06,-0.3274111,-2.43934E-08,NaN,NaN,-0.0199367,-2.328312E-10,8.545412E-07,-1.158113E-07,4.117618E-09,-2.622604E-08
125.7312,0.04609885,-3.007254E-08,NaN,-1.223114,-1.381145E-07,NaN,0.4780052,5.787989E-08,NaN,-2.117106,3.820367E-06,-0.327614,-2.416305E-08,NaN,NaN,-0.01993729,-2.281746E-10,8.426202E-07,-1.158129E-07,4.117618E-09,-2.622604E-08
125.7467,0.0461047,-3.007134E-08,NaN,-1.214687,-1.381143E-07,NaN,0.477926,5.765661E-08,NaN,-2.117003,3.821074E-06,-0.3277899,-2.393734E-08,NaN,NaN,-0.0199378,-2.23518E-10,8.330835E-07,-1.158145E-07,4.117618E-09,-2.622604E-08
125.7614,0.04611092,-3.007015E-08,NaN,-1.206579,-1.381141E-07,NaN,0.4778494,5.743718E-08,NaN,-2.116885,3.821787E-06,-0.3279499,-2.371547E-08,NaN,NaN,-0.01993828,-2.188613E-10,8.26527E-07,-1.158161E-07,3.521572E-09,-2.622604E-08
125.7762,0.04611092,-3.007015E-08,NaN,-1.206579,-1.381141E-07,NaN,0.4778494,5.743718E-08,NaN,-2.116885,3.821787E-06,-0.3279499,-2.371547E-08,NaN,NaN,-0.01993828,-2.188613E-10,8.26527E-07,-1.158161E-07,3.521572E-09,-2.622604E-08
125.7902,0.04611258,-3.006896E-08,NaN,-1.199465,-1.381138E-07,NaN,0.477747,5.722221E-08,NaN,-2.11697,3.822499E-06,-0.3282654,-2.349807E-08,NaN,NaN,-0.01993908,-2.142047E-10,8.169903E-07,-1.158177E-07,4.117618E-09,-2.622604E-08
125.8057,0.04611424,-3.006776E-08,NaN,-1.192996,-1.381136E-07,NaN,0.4776759,5.701021E-08,NaN,-2.117104,3.823212E-06,-0.3285555,-2.328365E-08,NaN,NaN,-0.01993977,-2.095481E-10,8.068575E-07,-1.158193E-07,4.117618E-09,-2.622604E-08
125.8201,0.04611645,-3.006657E-08,NaN,-1.186952,-1.381138E-07,NaN,0.4776192,5.684311E-08,NaN,-2.117233,3.823929E-06,-0.3288153,-2.311412E-08,NaN,NaN,-0.01994039,-2.095481E-10,8.00897E-07,-1.158199E-07,2.925525E-09,-2.622604E-08
125.8348,0.04611645,-3.006657E-08,NaN,-1.186952,-1.381138E-07,NaN,0.4776192,5.684311E-08,NaN,-2.117233,3.823929E-06,-0.3288153,-2.311412E-08,NaN,NaN,-0.01994039,-2.095481E-10,8.00897E-07,-1.158199E-07,2.925525E-09,-2.622604E-08
125.849,0.04611439,-3.006538E-08,NaN,-1.18196,-1.38114E-07,NaN,0.4775409,5.667386E-08,NaN,-2.11756,3.824646E-06,-0.3292198,-2.294244E-08,NaN,NaN,-0.01994129,-2.095481E-10,7.87188E-07,-1.158205E-07,1.733433E-09,-2.622604E-08
125.8641,0.0461125,-3.006418E-08,NaN,-1.177637,-1.381141E-07,NaN,0.4774945,5.65053E-08,NaN,-2.117926,3.825363E-06,-0.3295917,-2.277145E-08,NaN,NaN,-0.01994208,-2.095481E-10,7.758631E-07,-1.15821E-07,-6.507532E-10,-2.622604E-08
125.879,0.0461125,-3.006418E-08,NaN,-1.177637,-1.381141E-07,NaN,0.4774945,5.65053E-08,NaN,-2.117926,3.825363E-06,-0.3295917,-2.277145E-08,NaN,NaN,-0.01994208,-2.095481E-10,7.758631E-07,-1.15821E-07,-6.507532E-10,-2.622604E-08
125.8929,0.0461113,-3.006299E-08,NaN,-1.173747,-1.381138E-07,NaN,0.477462,5.629753E-08,NaN,-2.118277,3.826076E-06,-0.329928,-2.256125E-08,NaN,NaN,-0.01994278,-2.048915E-10,7.645382E-07,-1.158225E-07,-5.470679E-11,-2.622604E-08
125.9093,0.04611063,-3.006179E-08,NaN,-1.170141,-1.381135E-07,NaN,0.4774314,5.609889E-08,NaN,-2.118599,3.826789E-06,-0.3302408,-2.236019E-08,NaN,NaN,-0.01994343,-2.002349E-10,7.567896E-07,-1.15824E-07,-5.470679E-11,-2.622604E-08
125.924,0.04610284,-3.00606E-08,NaN,-1.167487,-1.381132E-07,NaN,0.4773761,5.590572E-08,NaN,-2.119109,3.827501E-06,-0.3307037,-2.216458E-08,NaN,NaN,-0.01994439,-1.955783E-10,7.424845E-07,-1.158255E-07,1.733433E-09,-2.622604E-08
125.9375,0.04610284,-3.00606E-08,NaN,-1.167487,-1.381132E-07,NaN,0.4773761,5.590572E-08,NaN,-2.119109,3.827501E-06,-0.3307037,-2.216458E-08,NaN,NaN,-0.01994439,-1.955783E-10,7.424845E-07,-1.158255E-07,1.733433E-09,-2.622604E-08
125.9514,0.04609228,-3.005941E-08,NaN,-1.165433,-1.38113E-07,NaN,0.4773533,5.571789E-08,NaN,-2.119657,3.828218E-06,-0.331135,-2.197433E-08,NaN,NaN,-0.01994524,-1.955783E-10,7.317557E-07,-1.15827E-07,-1.2468E-09,-2.622604E-08
125.9667,0.04608117,-3.005821E-08,NaN,-1.163759,-1.381128E-07,NaN,0.4773445,5.553392E-08,NaN,-2.120188,3.828931E-06,-0.3315299,-2.178792E-08,NaN,NaN,-0.01994601,-1.909217E-10,7.204308E-07,-1.158286E-07,-3.034939E-09,-2.622604E-08
125.9813,0.04607044,-3.005702E-08,NaN,-1.162325,-1.381126E-07,NaN,0.4773376,5.535371E-08,NaN,-2.120688,3.829643E-06,-0.3319,-2.160528E-08,NaN,NaN,-0.01994671,-1.862651E-10,7.120861E-07,-1.158301E-07,-2.438893E-09,-2.622604E-08
125.9961,0.04607044,-3.005702E-08,NaN,-1.162325,-1.381126E-07,NaN,0.4773376,5.535371E-08,NaN,-2.120688,3.829643E-06,-0.3319,-2.160528E-08,NaN,NaN,-0.01994671,-1.862651E-10,7.120861E-07,-1.158301E-07,-2.438893E-09,-2.622604E-08
126.0101,0.04605107,-3.005583E-08,NaN,-1.161808,-1.381123E-07,NaN,0.4773062,5.51772E-08,NaN,-2.121375,3.830356E-06,-0.3324204,-2.142635E-08,NaN,NaN,-0.01994773,-1.816085E-10,6.989731E-07,-1.158317E-07,-2.438893E-09,-2.622604E-08
126.0255,0.04602891,-3.005463E-08,NaN,-1.161859,-1.381121E-07,NaN,0.4773074,5.500432E-08,NaN,-2.122096,3.831073E-06,-0.3329072,-2.125104E-08,NaN,NaN,-0.01994864,-1.816085E-10,6.888403E-07,-1.158332E-07,-2.438893E-09,-2.622604E-08
126.0403,0.04600661,-3.005344E-08,NaN,-1.16226,-1.381119E-07,NaN,0.4773224,5.4835E-08,NaN,-2.122797,3.831786E-06,-0.3333558,-2.107929E-08,NaN,NaN,-0.01994945,-1.769519E-10,6.793036E-07,-1.158347E-07,-3.034939E-09,-2.622604E-08
126.0547,0.04600661,-3.005344E-08,NaN,-1.16226,-1.381119E-07,NaN,0.4773224,5.4835E-08,NaN,-2.122797,3.831786E-06,-0.3333558,-2.107929E-08,NaN,NaN,-0.01994945,-1.769519E-10,6.793036E-07,-1.158347E-07,-3.034939E-09,-2.622604E-08
126.0703,0.04597589,-3.005225E-08,NaN,-1.163637,-1.381117E-07,NaN,0.4773162,5.466845E-08,NaN,-2.12368,3.832498E-06,-0.3339466,-2.091032E-08,NaN,NaN,-0.01995055,-1.722953E-10,6.608261E-07,-1.158362E-07,-4.227032E-09,-2.622604E-08
126.0842,0.04594337,-3.005105E-08,NaN,-1.16561,-1.381115E-07,NaN,0.4773426,5.450535E-08,NaN,-2.124589,3.833215E-06,-0.334498,-2.074478E-08,NaN,NaN,-0.01995152,-1.676387E-10,6.500973E-07,-1.158378E-07,-5.419125E-09,-2.622604E-08
126.0988,0.04594337,-3.005105E-08,NaN,-1.16561,-1.381115E-07,NaN,0.4773426,5.450535E-08,NaN,-2.124589,3.833215E-06,-0.334498,-2.074478E-08,NaN,NaN,-0.01995152,-1.676387E-10,6.500973E-07,-1.158378E-07,-5.419125E-09,-2.622604E-08
126.1127,0.04591185,-3.004986E-08,NaN,-1.167941,-1.381113E-07,NaN,0.4773821,5.43449E-08,NaN,-2.125469,3.833937E-06,-0.3350064,-2.058191E-08,NaN,NaN,-0.01995239,-1.676387E-10,6.393684E-07,-1.158393E-07,-6.015171E-09,-2.622604E-08
126.128,0.04588225,-3.004866E-08,NaN,-1.170482,-1.381111E-07,NaN,0.4774225,5.418776E-08,NaN,-2.126306,3.834654E-06,-0.3354847,-2.042234E-08,NaN,NaN,-0.0199532,-1.62982E-10,6.286396E-07,-1.158408E-07,-4.823078E-09,-2.622604E-08
126.143,0.04584523,-3.004747E-08,NaN,-1.173904,-1.381109E-07,NaN,0.4774354,5.403317E-08,NaN,-2.127319,3.835371E-06,-0.3361137,-2.026533E-08,NaN,NaN,-0.01995433,-1.583254E-10,6.137384E-07,-1.158423E-07,-5.419124E-09,-2.622604E-08
126.1574,0.04584523,-3.004747E-08,NaN,-1.173904,-1.381109E-07,NaN,0.4774354,5.403317E-08,NaN,-2.127319,3.835371E-06,-0.3361137,-2.026533E-08,NaN,NaN,-0.01995433,-1.583254E-10,6.137384E-07,-1.158423E-07,-5.419124E-09,-2.622604E-08
126.1712,0.04580743,-3.004628E-08,NaN,-1.177854,-1.381107E-07,NaN,0.4774801,5.388178E-08,NaN,-2.128356,3.836089E-06,-0.3367058,-2.011151E-08,NaN,NaN,-0.01995533,-1.536688E-10,5.976451E-07,-1.158438E-07,-3.034939E-09,-2.622604E-08
126.1884,0.04577143,-3.004508E-08,NaN,-1.18211,-1.381105E-07,NaN,0.4775386,5.373353E-08,NaN,-2.129364,3.83681E-06,-0.3372551,-1.996083E-08,NaN,NaN,-0.01995624,-1.536688E-10,5.857242E-07,-1.158453E-07,-4.823078E-09,-2.622604E-08
126.2021,0.04573787,-3.004389E-08,NaN,-1.186536,-1.381103E-07,NaN,0.4775987,5.358693E-08,NaN,-2.130329,3.837527E-06,-0.3377734,-1.981181E-08,NaN,NaN,-0.01995708,-1.490122E-10,5.761875E-07,-1.158468E-07,-6.611217E-09,-2.622604E-08
126.2159,0.04573787,-3.004389E-08,NaN,-1.186536,-1.381103E-07,NaN,0.4775987,5.358693E-08,NaN,-2.130329,3.837527E-06,-0.3377734,-1.981181E-08,NaN,NaN,-0.01995708,-1.490122E-10,5.761875E-07,-1.158468E-07,-6.611217E-09,-2.622604E-08
126.2298,0.04569709,-3.00427E-08,NaN,-1.19181,-1.381101E-07,NaN,0.4776304,5.344338E-08,NaN,-2.131469,3.838245E-06,-0.3384452,-1.966583E-08,NaN,NaN,-0.01995825,-1.443556E-10,5.600942E-07,-1.158483E-07,-5.419125E-09,-2.622604E-08
126.2451,0.04565621,-3.00415E-08,NaN,-1.197581,-1.381099E-07,NaN,0.4776946,5.330211E-08,NaN,-2.132631,3.838962E-06,-0.3390791,-1.952213E-08,NaN,NaN,-0.01995928,-1.39699E-10,5.44001E-07,-1.158497E-07,-6.015171E-09,-2.622604E-08
