JMolnar6/NonAnthroHands_User_Study/HandsLoggerWithURDF/tempdata/files/Reachy_PID0_JointMotion_gesture_10_4.csv
Time,r_shoulder,r_shoulder_x,r_upper_arm,r_forearm,r_wrist,r_wrist2hand,
643.9679,-0.1061278,-0.5838002,-0.2921588,-0.8971382,0.4521907,-0.4858779
643.982,-0.1037425,-0.5837337,-0.2924969,-0.8962285,0.4530051,-0.4858386
643.9967,-0.1037425,-0.5837337,-0.2924969,-0.8962285,0.4530051,-0.4858386
644.0106,-0.1013859,-0.5836681,-0.2928228,-0.8953281,0.4538052,-0.4858001
644.0258,-0.09905758,-0.5836034,-0.2931367,-0.894437,0.4545913,-0.4857624
644.0403,-0.09675724,-0.5835397,-0.2934389,-0.893555,0.4553637,-0.4857254
644.057,-0.09675724,-0.5835397,-0.2934389,-0.893555,0.4553637,-0.4857254
644.071,-0.09448455,-0.5834768,-0.2937297,-0.8926821,0.4561225,-0.4856891
644.0842,-0.09223915,-0.5834147,-0.2940093,-0.8918182,0.4568682,-0.4856536
644.0986,-0.09223915,-0.5834147,-0.2940093,-0.8918182,0.4568682,-0.4856536
644.1126,-0.09002073,-0.5833535,-0.2942779,-0.8909632,0.4576008,-0.4856188
644.1279,-0.08782896,-0.5832932,-0.2945358,-0.8901171,0.4583206,-0.4855846
644.1425,-0.08566353,-0.5832337,-0.2947832,-0.8892798,0.4590279,-0.4855511
644.1572,-0.08566353,-0.5832337,-0.2947832,-0.8892798,0.4590279,-0.4855511
644.1711,-0.08352411,-0.583175,-0.2950204,-0.8884512,0.4597228,-0.4855183
644.1865,-0.08141039,-0.5831171,-0.2952476,-0.8876312,0.4604057,-0.4854862
644.2011,-0.07932205,-0.58306,-0.2954649,-0.8868198,0.4610766,-0.4854547
644.2158,-0.07932205,-0.58306,-0.2954649,-0.8868198,0.4610766,-0.4854547
644.2294,-0.07725881,-0.5830037,-0.2956727,-0.8860168,0.461736,-0.4854238
644.2449,-0.07522035,-0.5829481,-0.295871,-0.8852224,0.4623838,-0.4853935
644.2594,-0.07522035,-0.5829481,-0.295871,-0.8852224,0.4623838,-0.4853935
644.2733,-0.07320639,-0.5828934,-0.2960603,-0.8844362,0.4630204,-0.4853638
644.2884,-0.07121661,-0.5828394,-0.2962406,-0.8836584,0.4636459,-0.4853348
644.3033,-0.06925074,-0.5827861,-0.2964121,-0.8828888,0.4642606,-0.4853063
644.3178,-0.06925074,-0.5827861,-0.2964121,-0.8828888,0.4642606,-0.4853063
644.3315,-0.06730848,-0.5827336,-0.296575,-0.8821273,0.4648646,-0.4852783
644.3489,-0.06538955,-0.5826818,-0.2967297,-0.8813738,0.4654581,-0.4852509
644.3634,-0.06349367,-0.5826307,-0.2968761,-0.8806284,0.4660413,-0.4852241
644.3769,-0.06349367,-0.5826307,-0.2968761,-0.8806284,0.4660413,-0.4852241
644.391,-0.06162056,-0.5825803,-0.2970146,-0.8798909,0.4666145,-0.4851978
644.4052,-0.05976995,-0.5825306,-0.2971452,-0.8791612,0.4671777,-0.485172
644.4197,-0.05976995,-0.5825306,-0.2971452,-0.8791612,0.4671777,-0.485172
644.4412,-0.05613515,-0.5824333,-0.2973839,-0.8777252,0.468275,-0.4851219
644.4493,-0.05613515,-0.5824333,-0.2973839,-0.8777252,0.468275,-0.4851219
644.4628,-0.05435043,-0.5823856,-0.2974922,-0.8770186,0.4688095,-0.4850977
644.478,-0.05435043,-0.5823856,-0.2974922,-0.8770186,0.4688095,-0.4850977
644.4921,-0.05258714,-0.5823386,-0.2975934,-0.8763197,0.4693347,-0.4850739
644.5076,-0.05084504,-0.5822922,-0.2976877,-0.8756282,0.4698508,-0.4850506
644.522,-0.04912386,-0.5822465,-0.2977753,-0.8749442,0.4703581,-0.4850277
644.5369,-0.04912386,-0.5822465,-0.2977753,-0.8749442,0.4703581,-0.4850277
644.5505,-0.04742335,-0.5822014,-0.2978562,-0.8742676,0.4708565,-0.4850053
644.566,-0.04574326,-0.5821569,-0.2979307,-0.8735982,0.4713464,-0.4849834
644.5803,-0.04408336,-0.582113,-0.2979988,-0.8729361,0.4718278,-0.4849619
644.595,-0.04408336,-0.582113,-0.2979988,-0.8729361,0.4718278,-0.4849619
644.6089,-0.04244339,-0.5820698,-0.2980608,-0.8722811,0.4723009,-0.4849408
644.6247,-0.04082311,-0.5820271,-0.2981169,-0.8716333,0.4727659,-0.4849201
644.6393,-0.04082311,-0.5820271,-0.2981169,-0.8716333,0.4727659,-0.4849201
644.6551,-0.0392223,-0.581985,-0.298167,-0.8709925,0.4732228,-0.4848999
644.6693,-0.03764071,-0.5819435,-0.2982115,-0.8703586,0.4736719,-0.48488
644.6827,-0.03607812,-0.5819025,-0.2982504,-0.8697316,0.4741132,-0.4848606
644.6973,-0.03607812,-0.5819025,-0.2982504,-0.8697316,0.4741132,-0.4848606
644.7114,-0.03453429,-0.5818621,-0.2982839,-0.8691115,0.4745469,-0.4848415
644.7266,-0.033009,-0.5818223,-0.298312,-0.8684981,0.4749731,-0.4848228
644.7411,-0.03150203,-0.581783,-0.298335,-0.8678914,0.475392,-0.4848045
644.756,-0.03150203,-0.581783,-0.298335,-0.8678914,0.475392,-0.4848045
644.7699,-0.03001316,-0.5817443,-0.298353,-0.8672914,0.4758037,-0.4847866
644.7855,-0.02854217,-0.581706,-0.2983661,-0.8666979,0.4762083,-0.484769
644.8,-0.02708885,-0.5816684,-0.2983744,-0.866111,0.476606,-0.4847518
644.8146,-0.02708885,-0.5816684,-0.2983744,-0.866111,0.476606,-0.4847518
644.8286,-0.02565298,-0.5816312,-0.298378,-0.8655305,0.4769967,-0.4847349
644.8439,-0.02423435,-0.5815945,-0.298377,-0.8649564,0.4773808,-0.4847183
644.8588,-0.02423435,-0.5815945,-0.298377,-0.8649564,0.4773808,-0.4847183
644.8724,-0.02283276,-0.5815583,-0.2983717,-0.8643886,0.4777583,-0.4847021
644.8879,-0.021448,-0.5815227,-0.298362,-0.863827,0.4781293,-0.4846862
644.9028,-0.02007987,-0.5814875,-0.2983482,-0.8632717,0.478494,-0.4846706
644.9172,-0.02007987,-0.5814875,-0.2983482,-0.8632717,0.478494,-0.4846706
644.9343,-0.01872817,-0.5814528,-0.2983302,-0.8627225,0.4788523,-0.4846554
644.9474,-0.0173927,-0.5814186,-0.2983083,-0.8621794,0.4792045,-0.4846404
644.961,-0.01607327,-0.5813849,-0.2982825,-0.8616423,0.4795507,-0.4846258
644.9764,-0.01607327,-0.5813849,-0.2982825,-0.8616423,0.4795507,-0.4846258
644.9897,-0.01442866,-0.581338,-0.2988932,-0.8611587,0.480562,-0.4845654
645.0051,-0.01259154,-0.5812835,-0.2996108,-0.8606224,0.48162,-0.4845062
645.0197,-0.01259154,-0.5812835,-0.2996108,-0.8606224,0.48162,-0.4845062
645.0336,-0.01064441,-0.5812248,-0.3003493,-0.8600408,0.4826839,-0.4844482
645.0491,-0.00897946,-0.5811775,-0.3004381,-0.8593799,0.4830745,-0.4844373
645.0637,-0.007495565,-0.5811372,-0.3003934,-0.8587576,0.4834002,-0.4844267
645.0782,-0.007495565,-0.5811372,-0.3003934,-0.8587576,0.4834002,-0.4844267
645.0922,-0.006129726,-0.5811014,-0.300299,-0.8581754,0.4836995,-0.4844163
645.1077,-0.004842677,-0.5810683,-0.3001863,-0.8576261,0.4839814,-0.4844062
645.1223,-0.003950903,-0.5810508,-0.2994292,-0.8570545,0.4835849,-0.4844421
645.137,-0.003950903,-0.5810508,-0.2994292,-0.8570545,0.4835849,-0.4844421
645.1509,-0.00330627,-0.5810426,-0.2985604,-0.8565603,0.4831241,-0.4844775
645.166,-0.002816573,-0.58104,-0.297669,-0.8561313,0.4826442,-0.4845122
645.1805,-0.002424399,-0.5810402,-0.2967861,-0.8557507,0.4821574,-0.4845461
645.1953,-0.002424399,-0.5810402,-0.2967861,-0.8557507,0.4821574,-0.4845461
645.2092,-0.002433879,-0.5810552,-0.295283,-0.8553575,0.4810039,-0.4846253
645.2264,-0.002690403,-0.5810788,-0.2936905,-0.8550473,0.4797983,-0.484703
645.2399,-0.002690403,-0.5810788,-0.2936905,-0.8550473,0.4797983,-0.484703
645.254,-0.00309773,-0.5811073,-0.2920956,-0.854805,0.4785863,-0.4847792
645.2685,-0.003936964,-0.5811521,-0.2898858,-0.8545643,0.4767121,-0.4848998
645.2828,-0.005038045,-0.5812061,-0.2876013,-0.854417,0.4747946,-0.4850182
645.2973,-0.005038045,-0.5812061,-0.2876013,-0.854417,0.4747946,-0.4850182
645.3115,-0.006295179,-0.5812653,-0.2853315,-0.8543443,0.472881,-0.4851341
645.3267,-0.007642593,-0.581327,-0.2831056,-0.8543251,0.4709845,-0.4852478
645.3415,-0.00938045,-0.5814034,-0.2802889,-0.8542938,0.4684403,-0.4854051
645.3561,-0.00938045,-0.5814034,-0.2802889,-0.8542938,0.4684403,-0.4854051
645.3701,-0.01135053,-0.5814878,-0.2774165,-0.8543456,0.4658696,-0.4855594
645.3857,-0.01345448,-0.5815762,-0.2745725,-0.8544644,0.4633167,-0.4857106
645.4001,-0.01563123,-0.5816665,-0.2717842,-0.8546312,0.4607934,-0.4858588
645.4147,-0.01563123,-0.5816665,-0.2717842,-0.8546312,0.4607934,-0.4858588
645.4285,-0.01818395,-0.5817708,-0.2684135,-0.8547812,0.457628,-0.48605
645.4439,-0.02095627,-0.5818825,-0.2650005,-0.8550111,0.4544494,-0.4862376
645.4586,-0.02095627,-0.5818825,-0.2650005,-0.8550111,0.4544494,-0.4862376
645.4725,-0.02385104,-0.5819976,-0.2616277,-0.8553054,0.4512998,-0.4864213
645.4879,-0.02714911,-0.5821276,-0.2576731,-0.8555958,0.4475065,-0.4866474
645.5021,-0.03068015,-0.582265,-0.2536893,-0.8559753,0.4437091,-0.4868691
645.5191,-0.03068015,-0.582265,-0.2536893,-0.8559753,0.4437091,-0.4868691
645.533,-0.03433841,-0.5824058,-0.2497603,-0.8564251,0.4399496,-0.4870864
645.5461,-0.03805833,-0.5825475,-0.2459131,-0.8569241,0.43624,-0.4872993
645.5607,-0.04214052,-0.5827026,-0.2415029,-0.8574046,0.4318937,-0.4875539
645.5755,-0.04214052,-0.5827026,-0.2415029,-0.8574046,0.4318937,-0.4875539
645.5894,-0.04642687,-0.5828641,-0.2370807,-0.8579633,0.42756,-0.4878036
645.6046,-0.0508193,-0.5830281,-0.2327243,-0.8585844,0.4232763,-0.4880483
645.6193,-0.0508193,-0.5830281,-0.2327243,-0.8585844,0.4232763,-0.4880483
645.6335,-0.0555983,-0.5832061,-0.2278035,-0.8591977,0.4183525,-0.4883341
645.6486,-0.06059321,-0.5833905,-0.2228827,-0.8598971,0.4134507,-0.4886142
645.6633,-0.0656982,-0.5835772,-0.2180406,-0.860664,0.4086076,-0.4888888
645.6781,-0.0656982,-0.5835772,-0.2180406,-0.860664,0.4086076,-0.4888888
645.692,-0.07084776,-0.5837641,-0.2133027,-0.8614772,0.4038339,-0.489158
645.7076,-0.07634278,-0.5839636,-0.2080161,-0.8622677,0.3984234,-0.4894677
645.722,-0.08202516,-0.5841686,-0.2027452,-0.8631331,0.3930514,-0.4897713
645.7367,-0.08202516,-0.5841686,-0.2027452,-0.8631331,0.3930514,-0.4897713
645.7507,-0.08779695,-0.5843752,-0.1975621,-0.8640579,0.3877493,-0.4900689
645.7659,-0.09359758,-0.5845815,-0.1924903,-0.8650235,0.3825261,-0.4903606
645.7803,-0.09973119,-0.5848001,-0.1868732,-0.8659616,0.376663,-0.4906924
645.7969,-0.09973119,-0.5848001,-0.1868732,-0.8659616,0.376663,-0.4906924
645.8109,-0.1060415,-0.5850238,-0.1812826,-0.866971,0.3708515,-0.4910177
645.8251,-0.1124319,-0.5852488,-0.1757881,-0.8680374,0.3651191,-0.4913365
645.8386,-0.1124319,-0.5852488,-0.1757881,-0.8680374,0.3651191,-0.4913365
645.8527,-0.1191841,-0.5854868,-0.1697471,-0.869089,0.3587412,-0.4916948
645.868,-0.1261279,-0.5857301,-0.1637449,-0.8702212,0.3524244,-0.4920461
645.8824,-0.1331581,-0.5859746,-0.157851,-0.8714163,0.3461947,-0.4923904
645.8971,-0.1331581,-0.5859746,-0.157851,-0.8714163,0.3461947,-0.4923904
645.911,-0.1402094,-0.5862183,-0.1520883,-0.8726542,0.3400608,-0.4927279
645.9265,-0.1475836,-0.5864737,-0.1457932,-0.8738636,0.3332814,-0.4931045
645.941,-0.1551227,-0.5867336,-0.1395501,-0.875143,0.3265782,-0.4934737
645.9558,-0.1551227,-0.5867336,-0.1395501,-0.875143,0.3265782,-0.4934737
645.9697,-0.1627288,-0.5869943,-0.1334224,-0.8764779,0.319972,-0.4938356
645.9854,-0.1703419,-0.5872537,-0.1274313,-0.8778505,0.3134699,-0.4941903
645.9999,-0.1703419,-0.5872537,-0.1274313,-0.8778505,0.3134699,-0.4941903
646.0138,-0.1782666,-0.5875247,-0.1209098,-0.8791904,0.3063177,-0.4945838
646.029,-0.1863466,-0.5877999,-0.1144491,-0.8805972,0.2992532,-0.4949695
646.0435,-0.1944856,-0.5880756,-0.10811,-0.8820575,0.292294,-0.4953475
646.058,-0.1944856,-0.5880756,-0.10811,-0.8820575,0.292294,-0.4953475
646.0723,-0.2029658,-0.5883635,-0.1012401,-0.8834982,0.2846795,-0.4957639
646.0895,-0.211617,-0.5886558,-0.09444164,-0.8850152,0.2771619,-0.496172
646.1031,-0.2203341,-0.5889484,-0.08777577,-0.886592,0.2697574,-0.496572
646.1176,-0.2203341,-0.5889484,-0.08777577,-0.886592,0.2697574,-0.496572
646.1316,-0.2290523,-0.5892395,-0.08126267,-0.8882091,0.2624724,-0.4969641
646.1459,-0.2380738,-0.5895417,-0.07423088,-0.8897941,0.2545304,-0.4973943
646.1603,-0.2472405,-0.5898476,-0.06728037,-0.8914453,0.2466975,-0.4978159
646.1751,-0.2472405,-0.5898476,-0.06728037,-0.8914453,0.2466975,-0.4978159
646.189,-0.2564549,-0.5901535,-0.06046717,-0.8931494,0.2389865,-0.4982291
646.2045,-0.2656569,-0.5904575,-0.05380988,-0.8948892,0.2314022,-0.4986342
646.2193,-0.2656569,-0.5904575,-0.05380988,-0.8948892,0.2314022,-0.4986342
646.2332,-0.275152,-0.5907726,-0.04663547,-0.8965935,0.2231556,-0.499077
646.2483,-0.2847839,-0.5910912,-0.03954807,-0.8983614,0.2150276,-0.499511
646.2631,-0.294456,-0.5914096,-0.03260211,-0.9001806,0.2070285,-0.4999364
646.2774,-0.294456,-0.5914096,-0.03260211,-0.9001806,0.2070285,-0.4999364
646.2918,-0.3044516,-0.5917397,-0.0251392,-0.9019777,0.1983632,-0.5003992
646.3085,-0.3146002,-0.5920734,-0.01777216,-0.9038481,0.1898246,-0.5008528
646.3218,-0.3247967,-0.5924067,-0.01055607,-0.9057763,0.1814225,-0.5012974
646.336,-0.3247967,-0.5924067,-0.01055607,-0.9057763,0.1814225,-0.5012974
646.3502,-0.3349766,-0.592738,-0.003508533,-0.9077437,0.1731609,-0.5017331
646.3656,-0.3454428,-0.5930799,0.004045628,-0.909678,0.16423,-0.5022061
646.3822,-0.3560371,-0.593425,0.01149751,-0.9116762,0.1554353,-0.5026696
646.396,-0.3560371,-0.593425,0.01149751,-0.9116762,0.1554353,-0.5026696
646.4098,-0.366662,-0.5937694,0.01879592,-0.9137258,0.1467842,-0.503124
646.4241,-0.3772577,-0.5941114,0.0259246,-0.9158103,0.1382797,-0.5035694
646.4388,-0.3772577,-0.5941114,0.0259246,-0.9158103,0.1382797,-0.5035694
646.4527,-0.3881302,-0.5944642,0.03355918,-0.9178595,0.1291,-0.5040517
646.468,-0.3991232,-0.5948199,0.04108826,-0.9199704,0.120064,-0.5045245
646.4825,-0.4101402,-0.5951749,0.04846161,-0.9221314,0.1111778,-0.5049879
646.4973,-0.4101402,-0.5951749,0.04846161,-0.9221314,0.1111778,-0.5049879
646.5114,-0.421465,-0.5955411,0.05634051,-0.924271,0.1016132,-0.5054879
646.5266,-0.432927,-0.5959104,0.06410641,-0.9264821,0.0921999,-0.505978
646.5412,-0.4444214,-0.5962788,0.07170834,-0.9287504,0.08294387,-0.5064585
646.5557,-0.4444214,-0.5962788,0.07170834,-0.9287504,0.08294387,-0.5064585
646.5698,-0.4558835,-0.5966446,0.07913099,-0.9310578,0.07384677,-0.5069294
646.5853,-0.4676171,-0.5970208,0.08705105,-0.9333341,0.0640664,-0.5074368
646.5999,-0.4676171,-0.5970208,0.08705105,-0.9333341,0.0640664,-0.5074368
646.6136,-0.4794637,-0.5973996,0.09485415,-0.9356735,0.05444492,-0.5079341
646.6294,-0.4913261,-0.5977773,0.1024925,-0.9380639,0.04498675,-0.5084216
646.6436,-0.5031443,-0.5981523,0.109952,-0.9404897,0.03569261,-0.5088995
646.6582,-0.5031443,-0.5981523,0.109952,-0.9404897,0.03569261,-0.5088995
646.6742,-0.5152253,-0.5985377,0.1179092,-0.9428832,0.02570835,-0.5094137
646.6877,-0.5274124,-0.5989256,0.1257478,-0.945338,0.01588953,-0.5099178
646.702,-0.5396093,-0.5993124,0.1334208,-0.9478428,0.006239556,-0.5104119
646.7171,-0.5396093,-0.5993124,0.1334208,-0.9478428,0.006239556,-0.5104119
646.7307,-0.5521003,-0.59971,0.1415913,-0.9503298,-0.004103249,-0.510942
646.7459,-0.5647148,-0.6001103,0.1496365,-0.9528882,-0.01427265,-0.5114617
646.7605,-0.5773478,-0.6005092,0.1575089,-0.9555038,-0.02426579,-0.5119711
646.7752,-0.5773478,-0.6005092,0.1575089,-0.9555038,-0.02426579,-0.5119711
646.7892,-0.5899348,-0.6009052,0.165195,-0.9581593,-0.03408314,-0.5124704
646.8047,-0.6027804,-0.6013112,0.1733724,-0.9607889,-0.04459986,-0.5130057
646.8193,-0.6027804,-0.6013112,0.1733724,-0.9607889,-0.04459986,-0.5130057
646.8339,-0.6157259,-0.6017195,0.1814223,-0.9634819,-0.05493665,-0.5135304
646.8488,-0.628674,-0.6021263,0.1892999,-0.9662265,-0.06509195,-0.5140448
646.8632,-0.6415648,-0.6025301,0.1969927,-0.9690074,-0.07506692,-0.5145491
646.8778,-0.6415648,-0.6025301,0.1969927,-0.9690074,-0.07506692,-0.5145491
646.8918,-0.6547062,-0.602944,0.2051779,-0.9717622,-0.08574878,-0.5150893
646.9073,-0.6679411,-0.6033601,0.213235,-0.9745789,-0.09624451,-0.5156188
646.9219,-0.6811732,-0.6037747,0.2211199,-0.9774464,-0.1065536,-0.516138
646.937,-0.6811732,-0.6037747,0.2211199,-0.9774464,-0.1065536,-0.516138
646.9526,-0.6946877,-0.6041999,0.2294967,-0.9803027,-0.1175714,-0.5166927
646.9668,-0.7083135,-0.6046274,0.2377395,-0.983231,-0.1283947,-0.5172365
646.9805,-0.7219456,-0.6050531,0.2458036,-0.9862172,-0.1390237,-0.5177697
646.9952,-0.7219456,-0.6050531,0.2458036,-0.9862172,-0.1390237,-0.5177697
647.0091,-0.7355198,-0.6054756,0.2536774,-0.9892442,-0.1494607,-0.5182924
647.0247,-0.7493412,-0.605908,0.2620383,-0.9922535,-0.1606145,-0.5188507
647.039,-0.7493412,-0.605908,0.2620383,-0.9922535,-0.1606145,-0.5188507
647.0532,-0.7632511,-0.6063423,0.2702641,-0.9953272,-0.171568,-0.519398
647.0685,-0.7771518,-0.6067747,0.2783128,-0.9984533,-0.1823224,-0.5199345
647.083,-0.790984,-0.607204,0.2861733,-1.001616,-0.1928809,-0.5204606
647.0976,-0.790984,-0.607204,0.2861733,-1.001616,-0.1928809,-0.5204606
647.1116,-0.8050558,-0.6076431,0.2945224,-1.004763,-0.2041642,-0.5210223
647.127,-0.8192102,-0.6080841,0.3027368,-1.007972,-0.2152411,-0.5215728
647.1417,-0.8333508,-0.6085234,0.3107748,-1.011233,-0.2261142,-0.5221126
647.1563,-0.8333508,-0.6085234,0.3107748,-1.011233,-0.2261142,-0.5221126
647.1704,-0.8477634,-0.608973,0.3193009,-1.014492,-0.2377131,-0.5226877
647.1857,-0.8622767,-0.6094245,0.3276868,-1.017825,-0.2490966,-0.5232515
647.2003,-0.8767856,-0.6098741,0.3358903,-1.021215,-0.2602682,-0.5238043
647.2147,-0.8767856,-0.6098741,0.3358903,-1.021215,-0.2602682,-0.5238043
647.2307,-0.8912261,-0.6103201,0.3439012,-1.024647,-0.2712324,-0.5243463
647.2451,-0.9059039,-0.6107758,0.3523962,-1.028072,-0.2829312,-0.5249236
647.2587,-0.9059039,-0.6107758,0.3523962,-1.028072,-0.2829312,-0.5249236
647.2728,-0.92066,-0.6112332,0.360751,-1.031562,-0.2944096,-0.5254896
647.2879,-0.9353969,-0.6116885,0.3689256,-1.035105,-0.3056718,-0.5260444
647.3024,-0.9500549,-0.6121403,0.3769101,-1.038685,-0.3167228,-0.5265885
647.317,-0.9500549,-0.6121403,0.3769101,-1.038685,-0.3167228,-0.5265885
647.3309,-0.9649434,-0.6126019,0.3853802,-1.04226,-0.3285168,-0.5271679
647.3464,-0.9799048,-0.6130652,0.393711,-1.045899,-0.3400844,-0.5277359
647.3609,-0.9948426,-0.6135264,0.4018629,-1.049589,-0.3514311,-0.5282928
647.3759,-0.9948426,-0.6135264,0.4018629,-1.049589,-0.3514311,-0.5282928
647.3898,-1.010044,-0.6139979,0.4104993,-1.053289,-0.3635205,-0.5288849
647.4051,-1.025336,-0.6144709,0.4189914,-1.057063,-0.3753739,-0.5294653
647.4197,-1.025336,-0.6144709,0.4189914,-1.057063,-0.3753739,-0.5294653
647.4337,-1.040614,-0.6149417,0.4272991,-1.060894,-0.3869979,-0.5300344
647.4491,-1.055815,-0.6154088,0.435413,-1.064766,-0.3983989,-0.5305923
647.4639,-1.059495,-0.6154184,0.4211642,-1.069311,-0.3775934,-0.5296201
647.4783,-1.059495,-0.6154184,0.4211642,-1.069311,-0.3775934,-0.5296201
647.4921,-1.056116,-0.6152101,0.4052701,-1.0725,-0.35773,-0.5286721
647.5078,-1.04843,-0.614878,0.3891461,-1.074396,-0.3386848,-0.5277451
647.5234,-1.038146,-0.6144731,0.3733107,-1.075248,-0.3203198,-0.5268375
647.5379,-1.038146,-0.6144731,0.3733107,-1.075248,-0.3203198,-0.5268375
647.5518,-1.026666,-0.6140384,0.3585719,-1.075297,-0.3034783,-0.5259943
647.5662,-1.01451,-0.6135867,0.3443483,-1.074841,-0.2870971,-0.5251677
647.5805,-1.001996,-0.6131261,0.3305568,-1.07405,-0.2711302,-0.5243574
647.5953,-1.001996,-0.6131261,0.3305568,-1.07405,-0.2711302,-0.5243574
647.6094,-0.9896674,-0.6126758,0.3177886,-1.073009,-0.256482,-0.5236092
647.6247,-0.9775082,-0.6122343,0.3054175,-1.071871,-0.2421578,-0.5228754
647.6393,-0.9775082,-0.6122343,0.3054175,-1.071871,-0.2421578,-0.5228754
647.6534,-0.9655085,-0.6118004,0.2933607,-1.070682,-0.2281468,-0.5221561
647.6694,-0.9536616,-0.6113736,0.281577,-1.069467,-0.2144401,-0.5214509
647.6836,-0.9423077,-0.6109672,0.2706895,-1.0682,-0.2019506,-0.5208055
647.6981,-0.9423077,-0.6109672,0.2706895,-1.0682,-0.2019506,-0.5208055
647.7122,-0.931307,-0.6105756,0.2601082,-1.066965,-0.1897171,-0.5201727
647.7276,-0.9205728,-0.6101953,0.2497692,-1.065766,-0.1777379,-0.5195522
647.7422,-0.9100508,-0.6098241,0.2396447,-1.064594,-0.1660099,-0.518944
647.7574,-0.9100508,-0.6098241,0.2396447,-1.064594,-0.1660099,-0.518944
647.7708,-0.9000518,-0.6094742,0.2303637,-1.063398,-0.1554365,-0.5183936
647.7884,-0.8904183,-0.6091395,0.2213473,-1.062257,-0.1450751,-0.5178539
647.8019,-0.8810526,-0.6088159,0.2125354,-1.061163,-0.1349255,-0.5173248
647.8164,-0.8810526,-0.6088159,0.2125354,-1.061163,-0.1349255,-0.5173248
647.8293,-0.8722383,-0.6085147,0.2045418,-1.06006,-0.1258845,-0.516852
647.8446,-0.8638017,-0.6082289,0.1967865,-1.059025,-0.1170216,-0.5163883
647.8592,-0.8638017,-0.6082289,0.1967865,-1.059025,-0.1170216,-0.5163883
647.8734,-0.8556347,-0.6079541,0.1892081,-1.058046,-0.1083373,-0.5159337
647.8885,-0.8476703,-0.6076877,0.1817818,-1.057109,-0.09983014,-0.515488
647.9033,-0.8402109,-0.6074415,0.1751349,-1.056153,-0.09238715,-0.5150969
647.9179,-0.8402109,-0.6074415,0.1751349,-1.056153,-0.09238715,-0.5150969
647.9321,-0.8330947,-0.607209,0.1686972,-1.055258,-0.08508963,-0.5147134
647.9473,-0.826221,-0.6069863,0.1624095,-1.054416,-0.07793795,-0.5143374
647.9619,-0.8195275,-0.6067707,0.1562482,-1.053612,-0.07093092,-0.5139688
647.9766,-0.8195275,-0.6067707,0.1562482,-1.053612,-0.07093092,-0.5139688
647.9906,-0.8133193,-0.6065744,0.1508394,-1.052786,-0.06494778,-0.5136532
648.0061,-0.8074367,-0.6063908,0.1456156,-1.05202,-0.05908031,-0.5133438
648.0208,-0.8017803,-0.6062161,0.1405176,-1.051307,-0.05332901,-0.5130404
648.0353,-0.8017803,-0.6062161,0.1405176,-1.051307,-0.05332901,-0.5130404
648.0491,-0.7966328,-0.6060615,0.1361561,-1.050583,-0.0485693,-0.5127888
648.0645,-0.7918205,-0.6059199,0.1319593,-1.049931,-0.04390011,-0.512542
648.081,-0.7872356,-0.605787,0.1278664,-1.04934,-0.03932229,-0.5123001
648.0946,-0.7872356,-0.605787,0.1278664,-1.04934,-0.03932229,-0.5123001
648.1077,-0.7828109,-0.6056601,0.123854,-1.048793,-0.03483535,-0.5120628
648.1231,-0.7788489,-0.6055512,0.1205473,-1.048226,-0.03130921,-0.5118761
648.1377,-0.7788489,-0.6055512,0.1205473,-1.048226,-0.03130921,-0.5118761
648.1517,-0.7751886,-0.6054539,0.1173821,-1.047723,-0.02784947,-0.5116929
648.1671,-0.7717298,-0.6053641,0.1143003,-1.047277,-0.02445695,-0.5115134
648.1816,-0.7684105,-0.6052793,0.1112791,-1.046873,-0.02113133,-0.5113373
648.1963,-0.7684105,-0.6052793,0.1112791,-1.046873,-0.02113133,-0.5113373
648.2103,-0.765536,-0.6052117,0.1089436,-1.046445,-0.01873878,-0.5112105
648.2259,-0.7629473,-0.6051548,0.1067306,-1.046082,-0.01639043,-0.5110862
648.2405,-0.7605457,-0.6051047,0.1045819,-1.045774,-0.01408729,-0.5109642
648.2552,-0.7605457,-0.6051047,0.1045819,-1.045774,-0.01408729,-0.5109642
648.2692,-0.7586139,-0.6050727,0.1031073,-1.045456,-0.01269435,-0.5108905
648.2844,-0.756979,-0.6050518,0.1017384,-1.045214,-0.01132609,-0.5108181
648.2991,-0.756979,-0.6050518,0.1017384,-1.045214,-0.01132609,-0.5108181
648.3128,-0.7555337,-0.6050375,0.1004154,-1.045035,-0.009983779,-0.5107471
648.3281,-0.7542114,-0.6050274,0.09911589,-1.044903,-0.008667594,-0.5106776
648.3428,-0.7533147,-0.6050327,0.09846532,-1.04475,-0.00824083,-0.5106552
648.3593,-0.7533147,-0.6050327,0.09846532,-1.04475,-0.00824083,-0.5106552
648.3736,-0.7526832,-0.6050472,0.09790157,-1.044666,-0.007820302,-0.5106332
648.3867,-0.7522174,-0.6050671,0.09736742,-1.04464,-0.00740737,-0.5106117
648.4013,-0.7518552,-0.6050901,0.0968416,-1.044658,-0.007002442,-0.5105904
648.416,-0.7518552,-0.6050901,0.0968416,-1.044658,-0.007002442,-0.5105904
648.4299,-0.7519015,-0.6051285,0.09694934,-1.044653,-0.007468635,-0.5106155
648.4452,-0.7521982,-0.6051759,0.09712863,-1.044715,-0.007923997,-0.51064
648.4598,-0.7521982,-0.6051759,0.09712863,-1.044715,-0.007923997,-0.51064
648.4739,-0.7526472,-0.6052283,0.09732258,-1.044835,-0.008370111,-0.5106639
648.4893,-0.7535318,-0.605297,0.09814214,-1.044945,-0.009671129,-0.5107332
648.5041,-0.7546794,-0.6053749,0.09901889,-1.045132,-0.01094545,-0.5108011
648.5188,-0.7546794,-0.6053749,0.09901889,-1.045132,-0.01094545,-0.5108011
648.5329,-0.7559831,-0.6054575,0.09989445,-1.045384,-0.01219493,-0.5108677
648.5481,-0.7573765,-0.6055424,0.1007479,-1.045684,-0.01342053,-0.5109329
648.5626,-0.7591628,-0.6056418,0.102206,-1.045964,-0.01548772,-0.5110427
648.5773,-0.7591628,-0.6056418,0.102206,-1.045964,-0.01548772,-0.5110427
648.5914,-0.7611818,-0.6057489,0.1037059,-1.046314,-0.01751364,-0.5111503
648.6067,-0.7633343,-0.6058597,0.1051918,-1.046722,-0.01950041,-0.5112557
648.6211,-0.7655588,-0.605972,0.106644,-1.047175,-0.02144924,-0.5113591
648.6379,-0.7655588,-0.605972,0.106644,-1.047175,-0.02144924,-0.5113591
648.6517,-0.7681616,-0.6060982,0.1086896,-1.047605,-0.02422818,-0.5115063
648.6651,-0.7709844,-0.6062314,0.110765,-1.048104,-0.02695224,-0.5116504
648.6794,-0.7709844,-0.6062314,0.110765,-1.048104,-0.02695224,-0.5116504
648.6936,-0.773929,-0.6063678,0.1128146,-1.04866,-0.02962385,-0.5117918
648.7092,-0.7772793,-0.6065188,0.1154517,-1.049207,-0.03311406,-0.5119762
648.7235,-0.7808629,-0.606677,0.118106,-1.049831,-0.03653585,-0.5121569
648.7381,-0.7808629,-0.606677,0.118106,-1.049831,-0.03653585,-0.5121569
648.7524,-0.7845732,-0.6068382,0.120721,-1.050521,-0.03989204,-0.512334
648.7679,-0.7883441,-0.607,0.1232771,-1.051257,-0.04318449,-0.5125077
648.7825,-0.7924795,-0.6071749,0.1264033,-1.051976,-0.04728806,-0.5127237
648.7977,-0.7924795,-0.6071749,0.1264033,-1.051976,-0.04728806,-0.5127237
648.811,-0.7968193,-0.607356,0.1295342,-1.052764,-0.05131139,-0.5129355
648.8264,-0.8012644,-0.6075392,0.132616,-1.05361,-0.05525764,-0.5131431
648.841,-0.8057539,-0.6077225,0.1356302,-1.0545,-0.05912897,-0.5133466
648.8558,-0.8057539,-0.6077225,0.1356302,-1.0545,-0.05912897,-0.5133466
648.8699,-0.8105946,-0.6079185,0.1392063,-1.055369,-0.06380511,-0.513592
648.8853,-0.8156283,-0.6081201,0.1427777,-1.056305,-0.06838976,-0.5138325
648.8995,-0.8156283,-0.6081201,0.1427777,-1.056305,-0.06838976,-0.5138325
648.9156,-0.8207574,-0.6083236,0.1462908,-1.057298,-0.07288653,-0.5140682
648.9299,-0.826266,-0.6085404,0.1503614,-1.058284,-0.07817982,-0.5143452
648.9435,-0.8319819,-0.608763,0.1544164,-1.059347,-0.08336953,-0.5146167
648.958,-0.8319819,-0.608763,0.1544164,-1.059347,-0.08336953,-0.5146167
648.972,-0.8377987,-0.6089873,0.1584013,-1.060473,-0.0884598,-0.5148827
648.9875,-0.8436508,-0.6092111,0.162298,-1.061646,-0.09345356,-0.5151436
649.002,-0.8498426,-0.609447,0.1667377,-1.062803,-0.09924076,-0.5154452
649.0165,-0.8498426,-0.609447,0.1667377,-1.062803,-0.09924076,-0.5154452
649.0305,-0.8562141,-0.6096878,0.171152,-1.064028,-0.1049146,-0.5157409
649.0457,-0.8626665,-0.6099296,0.1754888,-1.065311,-0.1104796,-0.5160307
649.0606,-0.8691392,-0.6101705,0.1797311,-1.066636,-0.1159391,-0.5163147
649.0754,-0.8691392,-0.6101705,0.1797311,-1.066636,-0.1159391,-0.5163147
649.0892,-0.8759395,-0.6104233,0.1845105,-1.067943,-0.1221896,-0.5166392
649.1049,-0.8829094,-0.6106807,0.1892571,-1.069317,-0.128317,-0.5169572
649.1194,-0.8829094,-0.6106807,0.1892571,-1.069317,-0.128317,-0.5169572
649.1332,-0.8899513,-0.6109388,0.1939195,-1.070746,-0.1343267,-0.5172689
649.1486,-0.8973501,-0.6112095,0.1991158,-1.072171,-0.1411211,-0.5176204
649.1635,-0.9049336,-0.6114848,0.2042698,-1.073672,-0.1477814,-0.5179649
649.1779,-0.9049336,-0.6114848,0.2042698,-1.073672,-0.1477814,-0.5179649
649.1939,-0.9125956,-0.6117609,0.2093291,-1.075236,-0.1543132,-0.5183026
649.2081,-0.9202706,-0.6120355,0.2142771,-1.076845,-0.1607209,-0.5186337
649.2219,-0.9282637,-0.6123216,0.2197469,-1.078441,-0.1679138,-0.5190043
649.2365,-0.9282637,-0.6123216,0.2197469,-1.078441,-0.1679138,-0.5190043
649.2505,-0.936415,-0.6126116,0.2251669,-1.080105,-0.1749643,-0.5193675
649.2658,-0.9446259,-0.6129018,0.2304869,-1.081825,-0.1818786,-0.5197235
649.2804,-0.9528358,-0.6131904,0.2356911,-1.083587,-0.1886612,-0.5200725
649.2952,-0.9528358,-0.6131904,0.2356911,-1.083587,-0.1886612,-0.5200725
649.309,-0.9613529,-0.6134902,0.2414132,-1.085335,-0.1962295,-0.5204607
649.3245,-0.9700191,-0.6137938,0.24708,-1.087148,-0.203647,-0.5208411
649.3391,-0.9700191,-0.6137938,0.24708,-1.087148,-0.203647,-0.5208411
649.3531,-0.9787369,-0.6140975,0.2526418,-1.089017,-0.2109204,-0.5212141
649.3686,-0.987792,-0.614413,0.2587191,-1.090885,-0.2189749,-0.5216257
649.3834,-0.9970118,-0.6147324,0.2647327,-1.092829,-0.2268675,-0.5220291
649.3978,-0.9970118,-0.6147324,0.2647327,-1.092829,-0.2268675,-0.5220291
649.4118,-1.006291,-0.6150517,0.2706322,-1.094834,-0.2346062,-0.5224246
649.4274,-1.015563,-0.6153689,0.2764024,-1.096883,-0.2421965,-0.5228123
649.4418,-1.025135,-0.615697,0.2826778,-1.098925,-0.2505712,-0.5232385
649.4565,-1.025135,-0.615697,0.2826778,-1.098925,-0.2505712,-0.5232385
649.4725,-1.034846,-0.6160284,0.2888838,-1.101035,-0.2587769,-0.5236562
649.4867,-1.044598,-0.6163594,0.2949723,-1.103199,-0.2668221,-0.5240657
649.5004,-1.05433,-0.6166881,0.3009286,-1.105404,-0.2747126,-0.5244672
649.515,-1.05433,-0.6166881,0.3009286,-1.105404,-0.2747126,-0.5244672
649.5289,-1.064352,-0.6170277,0.3073875,-1.107601,-0.28339,-0.5249068
649.5442,-1.074505,-0.6173704,0.3137731,-1.109863,-0.2918909,-0.5253377
649.5588,-1.074505,-0.6173704,0.3137731,-1.109863,-0.2918909,-0.5253377
649.5728,-1.084691,-0.6177126,0.3200377,-1.112179,-0.3002243,-0.5257601
649.5883,-1.095198,-0.6180661,0.326803,-1.114502,-0.3093405,-0.5262203
649.6028,-1.105852,-0.6184228,0.3334878,-1.116899,-0.3182694,-0.5266714
649.6174,-1.105852,-0.6184228,0.3334878,-1.116899,-0.3182694,-0.5266714
649.6313,-1.116548,-0.6187788,0.3400435,-1.119356,-0.3270211,-0.5271136
649.647,-1.127221,-0.6191323,0.3464558,-1.121856,-0.3356027,-0.5275472
649.6614,-1.138176,-0.6194963,0.35336,-1.124357,-0.3449725,-0.5280184
649.6761,-1.138176,-0.6194963,0.35336,-1.124357,-0.3449725,-0.5280184
649.6899,-1.149254,-0.619863,0.3601796,-1.126924,-0.354149,-0.5284802
649.7054,-1.160357,-0.6202288,0.366868,-1.129545,-0.3631425,-0.5289329
649.7198,-1.160357,-0.6202288,0.366868,-1.129545,-0.3631425,-0.5289329
649.7341,-1.17177,-0.6206057,0.3740473,-1.132179,-0.3729205,-0.5294229
649.7491,-1.183321,-0.6209854,0.381136,-1.134888,-0.3824944,-0.5299032
649.7659,-1.194903,-0.6213641,0.3880866,-1.137655,-0.3918758,-0.5303741
649.7792,-1.194903,-0.6213641,0.3880866,-1.137655,-0.3918758,-0.5303741
649.7933,-1.206451,-0.6217399,0.3948856,-1.140464,-0.4010728,-0.5308357
649.8074,-1.218272,-0.622126,0.4021673,-1.143281,-0.4110605,-0.5313345
649.8219,-1.230206,-0.6225145,0.4093557,-1.146164,-0.4208392,-0.5318233
649.837,-1.230206,-0.6225145,0.4093557,-1.146164,-0.4208392,-0.5318233
649.851,-1.242154,-0.6229018,0.4164049,-1.149099,-0.4304199,-0.5323026
649.8656,-1.254056,-0.6232862,0.4233018,-1.15207,-0.4398111,-0.5327725
649.8815,-1.255129,-0.6232586,0.410408,-1.155536,-0.4187009,-0.5318013
649.8949,-1.255129,-0.6232586,0.410408,-1.155536,-0.4187009,-0.5318013
649.9089,-1.24958,-0.6230065,0.3955884,-1.157706,-0.3987323,-0.5308548
649.9246,-1.240008,-0.6226217,0.3803807,-1.158675,-0.3796725,-0.5299298
649.9391,-1.240008,-0.6226217,0.3803807,-1.158675,-0.3796725,-0.5299298
649.9531,-1.228024,-0.6221575,0.3653592,-1.158686,-0.3613183,-0.5290242
649.9686,-1.214624,-0.6216457,0.3507091,-1.15799,-0.3435417,-0.5281372
649.9833,-1.200423,-0.6211062,0.3364637,-1.1568,-0.3262621,-0.5272679
649.9977,-1.200423,-0.6211062,0.3364637,-1.1568,-0.3262621,-0.5272679
650.0119,-1.1858,-0.6205517,0.3226046,-1.155277,-0.3094272,-0.526416
650.0272,-1.170988,-0.6199905,0.3091011,-1.153535,-0.2930024,-0.5255809
650.044,-1.156129,-0.6194278,0.2959243,-1.151651,-0.2769637,-0.5247624
650.0575,-1.156129,-0.6194278,0.2959243,-1.151651,-0.2769637,-0.5247624
650.0717,-1.14131,-0.6188672,0.2830508,-1.14968,-0.2612931,-0.52396
650.0859,-1.126585,-0.6183107,0.2704623,-1.147654,-0.2459769,-0.5231735
650.1004,-1.111985,-0.6177598,0.2581448,-1.145595,-0.2310036,-0.5224024
650.115,-1.111985,-0.6177598,0.2581448,-1.145595,-0.2310036,-0.5224024
650.1291,-1.097529,-0.6172152,0.2460874,-1.143517,-0.2163631,-0.5216466
650.1446,-1.083228,-0.6166775,0.2342814,-1.141429,-0.2020466,-0.5209056
650.1592,-1.083228,-0.6166775,0.2342814,-1.141429,-0.2020466,-0.5209056
650.1732,-1.069087,-0.6161469,0.2227193,-1.139334,-0.1880454,-0.5201793
650.1885,-1.05511,-0.6156236,0.2113947,-1.137238,-0.1743518,-0.5194672
650.2031,-1.041297,-0.6151075,0.200302,-1.135139,-0.1609581,-0.5187693
650.2177,-1.041297,-0.6151075,0.200302,-1.135139,-0.1609581,-0.5187693
650.2317,-1.027647,-0.6145988,0.1894358,-1.133041,-0.1478569,-0.518085
650.2471,-1.014162,-0.6140972,0.1787912,-1.130943,-0.1350412,-0.5174142
650.2617,-1.000838,-0.6136029,0.1683635,-1.128845,-0.122504,-0.5167566
650.2776,-1.000838,-0.6136029,0.1683635,-1.128845,-0.122504,-0.5167566
650.2903,-0.9876739,-0.6131155,0.158148,-1.126747,-0.1102387,-0.5161119
650.3057,-0.9746689,-0.6126352,0.1481405,-1.124649,-0.09823862,-0.5154799
650.3222,-0.9618208,-0.6121618,0.1383366,-1.122551,-0.08649749,-0.5148603
650.3361,-0.9618208,-0.6121618,0.1383366,-1.122551,-0.08649749,-0.5148603
650.3497,-0.9491277,-0.6116951,0.1287322,-1.120453,-0.07500908,-0.5142529
650.3641,-0.9365879,-0.6112351,0.1193232,-1.118355,-0.06376734,-0.5136575
650.3784,-0.9365879,-0.6112351,0.1193232,-1.118355,-0.06376734,-0.5136575
650.3926,-0.9241995,-0.6107818,0.1101057,-1.116256,-0.0527664,-0.5130737
650.408,-0.9119606,-0.6103349,0.1010757,-1.114156,-0.0420005,-0.5125014
650.4224,-0.8998696,-0.6098945,0.09222952,-1.112056,-0.03146408,-0.5119402
650.4373,-0.8998696,-0.6098945,0.09222952,-1.112056,-0.03146408,-0.5119402
650.4511,-0.8879245,-0.6094603,0.08356342,-1.109955,-0.02115167,-0.5113901
650.4665,-0.8761237,-0.6090323,0.07507376,-1.107854,-0.01105798,-0.5108508
650.4809,-0.8644653,-0.6086105,0.06675699,-1.105753,-0.00117785,-0.5103222
650.4957,-0.8644653,-0.6086105,0.06675699,-1.105753,-0.00117785,-0.5103222
650.5096,-0.8529477,-0.6081947,0.05860964,-1.103651,0.008493754,-0.5098038
650.525,-0.8415691,-0.6077849,0.05062831,-1.101549,0.01796173,-0.5092956
650.5395,-0.8415691,-0.6077849,0.05062831,-1.101549,0.01796173,-0.5092956
650.5534,-0.8303279,-0.6073809,0.04280967,-1.099447,0.02723087,-0.5087974
650.5687,-0.8192224,-0.6069827,0.03515044,-1.097346,0.03630581,-0.5083089
650.5833,-0.8082509,-0.6065902,0.02764745,-1.095244,0.0451911,-0.50783
650.5979,-0.8082509,-0.6065902,0.02764745,-1.095244,0.0451911,-0.50783
650.6149,-0.7974118,-0.6062033,0.02029757,-1.093144,0.05389113,-0.5073605
650.6281,-0.7867035,-0.6058219,0.01309775,-1.091044,0.06241022,-0.5069002
650.6425,-0.7761244,-0.605446,0.006044986,-1.088945,0.07075255,-0.5064489
650.6561,-0.7761244,-0.605446,0.006044986,-1.088945,0.07075255,-0.5064489
650.67,-0.7656729,-0.6050754,-0.0008636396,-1.086847,0.0789222,-0.5060064
650.6852,-0.7553475,-0.6047101,-0.007631005,-1.084751,0.08692315,-0.5055726
650.6998,-0.7553475,-0.6047101,-0.007631005,-1.084751,0.08692315,-0.5055726
650.7136,-0.7451468,-0.60435,-0.01425992,-1.082656,0.09475929,-0.5051473
650.7288,-0.735069,-0.6039951,-0.02075313,-1.080564,0.1024344,-0.5047303
650.7435,-0.7251128,-0.6036451,-0.02711333,-1.078474,0.1099521,-0.5043215
650.7579,-0.7251128,-0.6036451,-0.02711333,-1.078474,0.1099521,-0.5043215
650.7723,-0.7152767,-0.6033002,-0.03334314,-1.076387,0.117316,-0.5039206
650.7875,-0.7055593,-0.6029602,-0.03944516,-1.074302,0.1245297,-0.5035276
650.8024,-0.695959,-0.602625,-0.04542191,-1.072221,0.1315965,-0.5031424
650.8165,-0.695959,-0.602625,-0.04542191,-1.072221,0.1315965,-0.5031424
650.8303,-0.6864744,-0.6022945,-0.05127587,-1.070144,0.1385197,-0.5027646
650.8457,-0.6771043,-0.6019688,-0.05700945,-1.06807,0.1453025,-0.5023943
650.8603,-0.6678471,-0.6016477,-0.06262504,-1.066,0.1519482,-0.5020311
650.8751,-0.6678471,-0.6016477,-0.06262504,-1.066,0.1519482,-0.5020311
650.8885,-0.6587015,-0.6013311,-0.06812495,-1.063934,0.1584598,-0.5016751
650.904,-0.6496662,-0.6010191,-0.07351146,-1.061873,0.1648403,-0.5013261
650.9186,-0.6496662,-0.6010191,-0.07351146,-1.061873,0.1648403,-0.5013261
650.9345,-0.6407399,-0.6007115,-0.0787868,-1.059817,0.1710926,-0.5009839
650.9484,-0.6319211,-0.6004082,-0.08395315,-1.057766,0.1772196,-0.5006484
650.9621,-0.6232086,-0.6001092,-0.08901266,-1.055721,0.183224,-0.5003194
650.9766,-0.6232086,-0.6001092,-0.08901266,-1.055721,0.183224,-0.5003194
650.9905,-0.6146011,-0.5998145,-0.09396742,-1.053682,0.1891085,-0.4999969
651.0057,-0.6060974,-0.5995239,-0.09881947,-1.051648,0.1948758,-0.4996807
651.0201,-0.5976961,-0.5992374,-0.1035708,-1.049621,0.2005285,-0.4993707
651.0349,-0.5976961,-0.5992374,-0.1035708,-1.049621,0.2005285,-0.4993707
651.0487,-0.5893961,-0.598955,-0.1082235,-1.0476,0.2060691,-0.4990667
651.0642,-0.5811961,-0.5986766,-0.1127793,-1.045586,0.2114999,-0.4987687
651.0787,-0.5811961,-0.5986766,-0.1127793,-1.045586,0.2114999,-0.4987687
651.0941,-0.573095,-0.5984021,-0.1172403,-1.043579,0.2168235,-0.4984766
651.1079,-0.5650914,-0.5981315,-0.1216082,-1.04158,0.2220421,-0.4981901
651.1226,-0.5571842,-0.5978647,-0.1258848,-1.039588,0.227158,-0.4979092
651.1372,-0.5571842,-0.5978647,-0.1258848,-1.039588,0.227158,-0.4979092
651.1511,-0.5493723,-0.5976018,-0.130072,-1.037603,0.2321735,-0.4976339
651.1663,-0.5416545,-0.5973425,-0.1341715,-1.035627,0.2370906,-0.4973639
651.1808,-0.5340297,-0.5970868,-0.138185,-1.033659,0.2419116,-0.4970992
651.1955,-0.5340297,-0.5970868,-0.138185,-1.033659,0.2419116,-0.4970992
651.2093,-0.5264968,-0.5968348,-0.1421141,-1.031699,0.2466384,-0.4968397
651.2245,-0.5190545,-0.5965863,-0.1459605,-1.029748,0.2512731,-0.4965853
651.2411,-0.5117019,-0.5963414,-0.1497258,-1.027806,0.2558176,-0.4963358
651.2548,-0.5117019,-0.5963414,-0.1497258,-1.027806,0.2558176,-0.4963358
651.2687,-0.5044379,-0.5960999,-0.1534117,-1.025873,0.2602739,-0.4960913
651.2828,-0.4972614,-0.5958617,-0.1570195,-1.023949,0.2646438,-0.4958515
651.2971,-0.4972614,-0.5958617,-0.1570195,-1.023949,0.2646438,-0.4958515
651.311,-0.4901713,-0.595627,-0.1605508,-1.022035,0.2689292,-0.4956164
651.3263,-0.4831666,-0.5953956,-0.1640072,-1.02013,0.2731318,-0.4953859
651.3408,-0.4762462,-0.5951674,-0.1673901,-1.018235,0.2772533,-0.4951599
651.3554,-0.4762462,-0.5951674,-0.1673901,-1.018235,0.2772533,-0.4951599
651.3694,-0.4694092,-0.5949424,-0.1707008,-1.016349,0.2812956,-0.4949384
651.3849,-0.4626545,-0.5947206,-0.1739408,-1.014474,0.2852601,-0.4947212
651.3994,-0.4626545,-0.5947206,-0.1739408,-1.014474,0.2852601,-0.4947212
651.4133,-0.4559811,-0.5945019,-0.1771115,-1.012609,0.2891487,-0.4945082
651.4288,-0.4493881,-0.5942863,-0.1802142,-1.010754,0.2929627,-0.4942994
651.4432,-0.4428745,-0.5940737,-0.1832502,-1.00891,0.2967038,-0.4940947
651.4576,-0.4428745,-0.5940737,-0.1832502,-1.00891,0.2967038,-0.4940947
651.4718,-0.4364392,-0.593864,-0.1862208,-1.007077,0.3003736,-0.493894
651.4872,-0.4300815,-0.5936574,-0.1891272,-1.005254,0.3039733,-0.4936973
651.5017,-0.4238003,-0.5934536,-0.1919708,-1.003442,0.3075046,-0.4935043
