JMolnar6/NonAnthroHands_User_Study/HandsLoggerWithURDF/tempdata/files/Reachy_PID0_JointMotion_gesture_12_1.csv
Time,r_shoulder,r_shoulder_x,r_upper_arm,r_forearm,r_wrist,r_wrist2hand,
725.4395,-0.4067403,-0.4214088,0.1495718,-0.5652202,0.09140708,0.1502017
725.4534,-0.4057468,-0.4205971,0.1498036,-0.5648077,0.09134225,0.1502544
725.4689,-0.404765,-0.4197951,0.1500358,-0.5643998,0.09127448,0.1503061
725.4831,-0.4037945,-0.4190025,0.1502685,-0.5639964,0.09120387,0.1503567
725.4976,-0.4037945,-0.4190025,0.1502685,-0.5639964,0.09120387,0.1503567
725.5118,-0.4028354,-0.4182193,0.1505014,-0.5635974,0.0911305,0.1504063
725.5273,-0.4018874,-0.4174454,0.1507346,-0.5632028,0.09105444,0.150455
725.5419,-0.4009506,-0.4166806,0.1509681,-0.5628126,0.09097579,0.1505027
725.5566,-0.4009506,-0.4166806,0.1509681,-0.5628126,0.09097579,0.1505027
725.5709,-0.4000247,-0.4159248,0.1512017,-0.5624267,0.09089464,0.1505495
725.5862,-0.3991095,-0.415178,0.1514354,-0.5620452,0.09081106,0.1505954
725.6006,-0.3982051,-0.41444,0.1516692,-0.5616678,0.09072513,0.1506403
725.6154,-0.3982051,-0.41444,0.1516692,-0.5616678,0.09072513,0.1506403
725.6293,-0.3973112,-0.4137108,0.1519029,-0.5612946,0.09063693,0.1506844
725.6448,-0.3964277,-0.4129902,0.1521366,-0.5609255,0.09054654,0.1507276
725.6594,-0.3964277,-0.4129902,0.1521366,-0.5609255,0.09054654,0.1507276
725.6755,-0.3955545,-0.4122781,0.1523702,-0.5605606,0.09045402,0.1507699
725.6896,-0.3946915,-0.4115744,0.1526037,-0.5601997,0.09035945,0.1508114
725.7032,-0.3938386,-0.410879,0.152837,-0.5598428,0.0902629,0.1508521
725.7177,-0.3938386,-0.410879,0.152837,-0.5598428,0.0902629,0.1508521
725.7319,-0.3929956,-0.4101919,0.1530701,-0.5594899,0.09016445,0.150892
725.7472,-0.3921624,-0.4095129,0.1533028,-0.5591409,0.09006415,0.1509311
725.7618,-0.3913389,-0.408842,0.1535353,-0.5587958,0.08996208,0.1509694
725.7763,-0.3913389,-0.408842,0.1535353,-0.5587958,0.08996208,0.1509694
725.7904,-0.3905251,-0.408179,0.1537674,-0.5584546,0.0898583,0.151007
725.8058,-0.3897207,-0.4075238,0.1539991,-0.5581172,0.08975288,0.1510439
725.8206,-0.3889257,-0.4068764,0.1542304,-0.5577835,0.08964586,0.15108
725.8354,-0.3889257,-0.4068764,0.1542304,-0.5577835,0.08964586,0.15108
725.8491,-0.38814,-0.4062367,0.1544613,-0.5574536,0.08953733,0.1511154
725.8646,-0.3873634,-0.4056045,0.1546916,-0.5571274,0.08942733,0.1511501
725.8792,-0.3873634,-0.4056045,0.1546916,-0.5571274,0.08942733,0.1511501
725.8932,-0.3865958,-0.4049799,0.1549214,-0.5568048,0.08931592,0.1511841
725.9085,-0.3858373,-0.4043626,0.1551506,-0.5564858,0.08920316,0.1512175
725.9233,-0.3850875,-0.4037527,0.1553792,-0.5561703,0.08908912,0.1512502
725.9379,-0.3850875,-0.4037527,0.1553792,-0.5561703,0.08908912,0.1512502
725.955,-0.3843465,-0.40315,0.1556071,-0.5558585,0.08897384,0.1512822
725.9681,-0.3836141,-0.4025544,0.1558344,-0.5555501,0.08885737,0.1513136
725.9816,-0.3828902,-0.4019659,0.156061,-0.5552452,0.08873977,0.1513444
725.9966,-0.3828902,-0.4019659,0.156061,-0.5552452,0.08873977,0.1513444
726.0105,-0.3821748,-0.4013844,0.1562869,-0.5549437,0.08862109,0.1513746
726.0258,-0.3814676,-0.4008097,0.156512,-0.5546456,0.08850137,0.1514042
726.0405,-0.3807688,-0.4002419,0.1567364,-0.5543509,0.08838067,0.1514332
726.0552,-0.3807688,-0.4002419,0.1567364,-0.5543509,0.08838067,0.1514332
726.0693,-0.380078,-0.3996808,0.1569599,-0.5540594,0.08825904,0.1514617
726.0846,-0.3793954,-0.3991264,0.1571826,-0.5537712,0.08813652,0.1514896
726.0994,-0.3793954,-0.3991264,0.1571826,-0.5537712,0.08813652,0.1514896
726.1133,-0.3787206,-0.3985786,0.1574045,-0.5534863,0.08801316,0.1515169
726.1287,-0.3780537,-0.3980372,0.1576255,-0.5532046,0.08788899,0.1515437
726.1435,-0.3773946,-0.3975023,0.1578456,-0.5529261,0.08776407,0.15157
726.158,-0.3773946,-0.3975023,0.1578456,-0.5529261,0.08776407,0.15157
726.1721,-0.3767431,-0.3969737,0.1580648,-0.5526507,0.08763843,0.1515957
726.1877,-0.3760993,-0.3964514,0.158283,-0.5523784,0.08751212,0.151621
726.2023,-0.3754629,-0.3959354,0.1585003,-0.5521092,0.08738519,0.1516457
726.2168,-0.3754629,-0.3959354,0.1585003,-0.5521092,0.08738519,0.1516457
726.2328,-0.3748339,-0.3954254,0.1587166,-0.551843,0.08725765,0.15167
726.2461,-0.3742122,-0.3949215,0.1589319,-0.5515798,0.08712956,0.1516937
726.2607,-0.3735978,-0.3944235,0.1591462,-0.5513197,0.08700096,0.1517171
726.2755,-0.3735978,-0.3944235,0.1591462,-0.5513197,0.08700096,0.1517171
726.2895,-0.3729905,-0.3939315,0.1593595,-0.5510624,0.08687187,0.1517399
726.305,-0.3723903,-0.3934453,0.1595717,-0.5508081,0.08674234,0.1517623
726.3197,-0.3723903,-0.3934453,0.1595717,-0.5508081,0.08674234,0.1517623
726.3338,-0.371797,-0.392965,0.1597828,-0.5505566,0.0866124,0.1517843
726.349,-0.3712107,-0.3924903,0.1599929,-0.550308,0.08648209,0.1518058
726.364,-0.3706312,-0.3920212,0.1602019,-0.5500622,0.08635142,0.1518269
726.3787,-0.3706312,-0.3920212,0.1602019,-0.5500622,0.08635142,0.1518269
726.3928,-0.3700584,-0.3915577,0.1604098,-0.5498192,0.08622046,0.1518476
726.4082,-0.3694923,-0.3910998,0.1606166,-0.5495789,0.08608921,0.1518679
726.4229,-0.3689328,-0.3906472,0.1608222,-0.5493414,0.08595771,0.1518877
726.4374,-0.3689328,-0.3906472,0.1608222,-0.5493414,0.08595771,0.1518877
726.4515,-0.3683797,-0.3902001,0.1610267,-0.5491065,0.08582599,0.1519072
726.4671,-0.3678331,-0.3897582,0.1612301,-0.5488744,0.08569409,0.1519263
726.485,-0.3670841,-0.3891223,0.1608749,-0.5483902,0.08623538,0.1516635
726.4972,-0.3670841,-0.3891223,0.1608749,-0.5483902,0.08623538,0.1516635
726.5114,-0.3662124,-0.3883702,0.1603989,-0.5478915,0.08701655,0.151406
726.5259,-0.3652679,-0.3875503,0.1599561,-0.547377,0.08784956,0.1511537
726.5403,-0.3642824,-0.3866925,0.1595833,-0.546851,0.08866754,0.1509062
726.5551,-0.3642824,-0.3866925,0.1595833,-0.546851,0.08866754,0.1509062
726.5691,-0.3634842,-0.3860147,0.159836,-0.546573,0.08877736,0.1509452
726.5845,-0.3628058,-0.3854502,0.1602614,-0.5463104,0.08861251,0.1509831
726.5991,-0.3628058,-0.3854502,0.1602614,-0.5463104,0.08861251,0.1509831
726.6132,-0.3622049,-0.3849577,0.1606921,-0.5460675,0.0883645,0.1510203
726.6291,-0.3618634,-0.3847109,0.1616403,-0.5460965,0.08743005,0.1513383
726.6436,-0.3616852,-0.3846163,0.1626618,-0.5461563,0.08626701,0.1516498
726.6581,-0.3616852,-0.3846163,0.1626618,-0.5461563,0.08626701,0.1516498
726.6721,-0.3616098,-0.3846156,0.1636115,-0.5462446,0.08506705,0.1519552
726.6874,-0.3615991,-0.3846717,0.1644617,-0.5463539,0.0838965,0.1522546
726.7023,-0.3618361,-0.3849617,0.1657825,-0.5467334,0.08209642,0.1528297
726.7167,-0.3618361,-0.3849617,0.1657825,-0.5467334,0.08209642,0.1528297
726.7308,-0.362227,-0.3853945,0.1671545,-0.5471389,0.08009951,0.1533934
726.7482,-0.3627125,-0.3859132,0.1684409,-0.5475675,0.07808775,0.1539459
726.7618,-0.363255,-0.3864821,0.1696178,-0.5480118,0.07612199,0.1544877
726.7756,-0.363255,-0.3864821,0.1696178,-0.5480118,0.07612199,0.1544877
726.7898,-0.3640392,-0.3872788,0.1712527,-0.5487207,0.07354414,0.1553004
726.8051,-0.3649709,-0.3882113,0.1729275,-0.5494503,0.07078527,0.1560971
726.8194,-0.3649709,-0.3882113,0.1729275,-0.5494503,0.07078527,0.1560971
726.8334,-0.3659904,-0.3892228,0.1745051,-0.5501977,0.06802732,0.1568781
726.849,-0.3672689,-0.3904774,0.176514,-0.5512121,0.06466044,0.1579253
726.8636,-0.3687031,-0.3918746,0.1785314,-0.5522479,0.0611296,0.158952
726.8784,-0.3687031,-0.3918746,0.1785314,-0.5522479,0.0611296,0.158952
726.8925,-0.3702278,-0.3933525,0.1804226,-0.5533005,0.05762082,0.1599584
726.908,-0.3718023,-0.3948728,0.182169,-0.5543616,0.05419394,0.1609452
726.9226,-0.3736101,-0.3966113,0.1843343,-0.5556807,0.05019404,0.1621942
726.9373,-0.3736101,-0.3966113,0.1843343,-0.5556807,0.05019404,0.1621942
726.9512,-0.3755547,-0.3984745,0.186511,-0.5570123,0.04604436,0.1634187
726.9666,-0.3775757,-0.4004051,0.1885641,-0.558353,0.04192625,0.1646191
726.9811,-0.3796355,-0.4023676,0.1904724,-0.5596954,0.03789874,0.1657961
726.996,-0.3796355,-0.4023676,0.1904724,-0.5596954,0.03789874,0.1657961
727.0128,-0.3819202,-0.40454,0.1927903,-0.5612909,0.03331153,0.1672316
727.0261,-0.3843341,-0.4068296,0.1951145,-0.5628936,0.02858331,0.1686389
727.0407,-0.3868174,-0.4091795,0.1973083,-0.5645004,0.02389688,0.1700186
727.0546,-0.3868174,-0.4091795,0.1973083,-0.5645004,0.02389688,0.1700186
727.0687,-0.3895431,-0.4117546,0.1998837,-0.5663632,0.01865291,0.1716528
727.0836,-0.3924063,-0.4144537,0.2024361,-0.568234,0.01328165,0.173255
727.0982,-0.3924063,-0.4144537,0.2024361,-0.568234,0.01328165,0.173255
727.1123,-0.3953421,-0.4172152,0.2048311,-0.5701081,0.007970477,0.1748258
727.1277,-0.3983103,-0.4200016,0.207052,-0.5719775,0.002778796,0.1763659
727.1425,-0.4014965,-0.4229898,0.2096426,-0.5740949,-0.002935701,0.1781573
727.1573,-0.4014965,-0.4229898,0.2096426,-0.5740949,-0.002935701,0.1781573
727.1713,-0.4048029,-0.4260853,0.212217,-0.5762122,-0.008767558,0.1799137
727.1868,-0.4081692,-0.4292312,0.2146398,-0.5783258,-0.01453343,0.1816356
727.2014,-0.411558,-0.4323928,0.2168916,-0.5804286,-0.02017422,0.1833239
727.2161,-0.411558,-0.4323928,0.2168916,-0.5804286,-0.02017422,0.1833239
727.2299,-0.4151579,-0.4357488,0.2195036,-0.5827753,-0.02632533,0.1852606
727.2454,-0.4188716,-0.4392058,0.2220974,-0.5851173,-0.03258855,0.1871594
727.2603,-0.4226391,-0.4427072,0.2245359,-0.5874513,-0.03877866,0.1890211
727.2748,-0.4226391,-0.4427072,0.2245359,-0.5874513,-0.03877866,0.1890211
727.2909,-0.4266358,-0.4464185,0.227306,-0.5900324,-0.04547773,0.1911277
727.305,-0.4307551,-0.4502378,0.2300305,-0.5926101,-0.05227753,0.1931932
727.3188,-0.4307551,-0.4502378,0.2300305,-0.5926101,-0.05227753,0.1931932
727.3326,-0.4349317,-0.4541037,0.232575,-0.5951794,-0.05898803,0.1952183
727.348,-0.4391257,-0.4579797,0.2349246,-0.5977326,-0.06554928,0.1972037
727.3625,-0.443526,-0.4620433,0.2375954,-0.6005257,-0.07258545,0.1994317
727.3771,-0.443526,-0.4620433,0.2375954,-0.6005257,-0.07258545,0.1994317
727.3912,-0.4480328,-0.4661994,0.2402314,-0.6033081,-0.07971542,0.2016161
727.4066,-0.452585,-0.4703912,0.2426969,-0.6060759,-0.08675306,0.2037578
727.4213,-0.4571459,-0.4745848,0.244974,-0.6088223,-0.09363847,0.2058576
727.4362,-0.4571459,-0.4745848,0.244974,-0.6088223,-0.09363847,0.2058576
727.45,-0.4619074,-0.4789598,0.2475638,-0.611805,-0.1009873,0.2081976
727.4655,-0.4667697,-0.4834215,0.25012,-0.6147732,-0.1084273,0.210492
727.4803,-0.4716723,-0.4879139,0.2525052,-0.6177231,-0.1157704,0.2127414
727.4952,-0.4716723,-0.4879139,0.2525052,-0.6177231,-0.1157704,0.2127414
727.5089,-0.4767941,-0.492603,0.2551748,-0.6209126,-0.1235768,0.2152282
727.5242,-0.4820257,-0.4973861,0.2577854,-0.6240892,-0.1314648,0.2176665
727.5389,-0.4820257,-0.4973861,0.2577854,-0.6240892,-0.1314648,0.2176665
727.556,-0.4873014,-0.5022021,0.2602029,-0.6272478,-0.1392415,0.220057
727.5701,-0.4925814,-0.5070151,0.2624139,-0.630381,-0.1468457,0.2224007
727.5837,-0.4980586,-0.5120037,0.2649018,-0.633747,-0.1548799,0.2249798
727.5972,-0.4980586,-0.5120037,0.2649018,-0.633747,-0.1548799,0.2249798
727.6113,-0.5036305,-0.5170717,0.267345,-0.6370941,-0.1629909,0.2275086
727.6266,-0.5092354,-0.5221626,0.2696083,-0.6404175,-0.1709897,0.2299879
727.6411,-0.5148366,-0.527243,0.2716749,-0.643711,-0.1788154,0.2324187
727.656,-0.5148366,-0.527243,0.2716749,-0.643711,-0.1788154,0.2324187
727.67,-0.5206304,-0.5324935,0.2740115,-0.6472342,-0.1870607,0.2350831
727.685,-0.526514,-0.5378185,0.2763075,-0.6507354,-0.1953821,0.2376955
727.6998,-0.526514,-0.5378185,0.2763075,-0.6507354,-0.1953821,0.2376955
727.7137,-0.532426,-0.5431617,0.2784261,-0.6542102,-0.2035888,0.2402568
727.7292,-0.5385495,-0.5486904,0.2807872,-0.6579179,-0.2122167,0.2430492
727.7438,-0.5447717,-0.5543005,0.2830844,-0.6616059,-0.2209125,0.2457872
727.7584,-0.5447717,-0.5543005,0.2830844,-0.6616059,-0.2209125,0.2457872
727.7725,-0.5510259,-0.5599312,0.2851846,-0.6652682,-0.2294807,0.2484715
727.7879,-0.5572726,-0.5655475,0.2870758,-0.6688977,-0.2378587,0.2511032
727.8026,-0.56371,-0.5713288,0.2892048,-0.672754,-0.2466253,0.2539646
727.817,-0.56371,-0.5713288,0.2892048,-0.672754,-0.2466253,0.2539646
727.8311,-0.5702316,-0.5771779,0.2912876,-0.6765856,-0.2554563,0.2567701
727.8474,-0.5767748,-0.5830384,0.2931895,-0.6803866,-0.2641606,0.2595208
727.8619,-0.5833029,-0.5888778,0.2948948,-0.6841512,-0.2726758,0.2622175
727.8757,-0.5833029,-0.5888778,0.2948948,-0.6841512,-0.2726758,0.2622175
727.8896,-0.590018,-0.5948774,0.2968332,-0.6881396,-0.2815709,0.2651425
727.905,-0.5968131,-0.6009403,0.2987314,-0.6921011,-0.2905308,0.2680105
727.9196,-0.5968131,-0.6009403,0.2987314,-0.6921011,-0.2905308,0.2680105
727.9335,-0.6036255,-0.6070107,0.3004537,-0.6960302,-0.2993629,0.2708223
727.9487,-0.6106439,-0.6132563,0.3023827,-0.7001866,-0.3085783,0.2738602
727.9635,-0.6177509,-0.6195719,0.3042499,-0.7043189,-0.3178514,0.2768388
727.9782,-0.6177509,-0.6195719,0.3042499,-0.7043189,-0.3178514,0.2768388
727.9923,-0.6248786,-0.6258971,0.3059237,-0.7084202,-0.3269847,0.2797592
728.0078,-0.6319876,-0.6321977,0.3073935,-0.7124835,-0.3359147,0.2826222
728.0224,-0.6392826,-0.6386542,0.3090683,-0.7167681,-0.3451963,0.2857102
728.037,-0.6392826,-0.6386542,0.3090683,-0.7167681,-0.3451963,0.2857102
728.051,-0.6466524,-0.6451679,0.3107011,-0.7210248,-0.3545328,0.288738
728.0666,-0.654033,-0.6516827,0.3121587,-0.7252464,-0.3637318,0.2917065
728.0809,-0.6613878,-0.6581668,0.3134267,-0.7294269,-0.3727298,0.2946168
728.0956,-0.6613878,-0.6581668,0.3134267,-0.7294269,-0.3727298,0.2946168
728.1096,-0.6689258,-0.6648028,0.3148966,-0.733826,-0.3820724,0.297751
728.1259,-0.6765347,-0.6714919,0.3163319,-0.7381961,-0.391471,0.3008241
728.1404,-0.6841503,-0.6781785,0.3175984,-0.7425298,-0.400732,0.3038371
728.1542,-0.6841503,-0.6781785,0.3175984,-0.7425298,-0.400732,0.3038371
728.1682,-0.6919681,-0.6850317,0.3190421,-0.7470858,-0.4103427,0.307072
728.1833,-0.699865,-0.6919442,0.3204305,-0.7516164,-0.4200028,0.3102438
728.198,-0.699865,-0.6919442,0.3204305,-0.7516164,-0.4200028,0.3102438
728.2122,-0.7077714,-0.6988564,0.3216345,-0.7561126,-0.4295142,0.3133535
728.2274,-0.7156482,-0.7057347,0.3226448,-0.7605673,-0.4388124,0.3164023
728.2421,-0.7237081,-0.7127612,0.323833,-0.7652386,-0.4484299,0.3196721
728.2569,-0.7237081,-0.7127612,0.323833,-0.7652386,-0.4484299,0.3196721
728.2709,-0.7318338,-0.7198352,0.3249871,-0.7698812,-0.4580944,0.3228783
728.2864,-0.7399596,-0.7269009,0.325976,-0.7744864,-0.4676131,0.3260216
728.301,-0.7480491,-0.7339277,0.3267865,-0.7790473,-0.4769222,0.3291033
728.3157,-0.7480491,-0.7339277,0.3267865,-0.7790473,-0.4769222,0.3291033
728.3296,-0.7563198,-0.7410989,0.3277733,-0.7838221,-0.4865452,0.3324054
728.345,-0.7646525,-0.7483141,0.3287336,-0.7885683,-0.4962165,0.3356432
728.3597,-0.7646525,-0.7483141,0.3287336,-0.7885683,-0.4962165,0.3356432
728.3737,-0.7729814,-0.755518,0.3295359,-0.7932761,-0.5057427,0.3388176
728.3911,-0.7815101,-0.7628804,0.3304905,-0.7982018,-0.5155894,0.3422107
728.4045,-0.7901084,-0.7702928,0.3313989,-0.8031033,-0.5254781,0.3455377
728.4193,-0.7901084,-0.7702928,0.3313989,-0.8031033,-0.5254781,0.3455377
728.4321,-0.7987049,-0.7776954,0.332135,-0.8079689,-0.5352108,0.3487995
728.4473,-0.807261,-0.7850562,0.3326908,-0.8127906,-0.5447234,0.3519973
728.4619,-0.8159987,-0.7925586,0.3334022,-0.8178245,-0.5545278,0.3554132
728.4767,-0.8159987,-0.7925586,0.3334022,-0.8178245,-0.5545278,0.3554132
728.4905,-0.8247933,-0.8000997,0.3340885,-0.8228315,-0.5643718,0.3587625
728.5059,-0.8335771,-0.807624,0.3346222,-0.8277999,-0.5740635,0.3620462
728.5206,-0.8423142,-0.8151021,0.3349912,-0.8327221,-0.5835393,0.3652655
728.5354,-0.8423142,-0.8151021,0.3349912,-0.8327221,-0.5835393,0.3652655
728.5511,-0.8512318,-0.8227187,0.3355148,-0.8378537,-0.5933033,0.3687024
728.5645,-0.8602026,-0.830371,0.3360207,-0.8429592,-0.6031081,0.3720723
728.5789,-0.8602026,-0.830371,0.3360207,-0.8429592,-0.6031081,0.3720723
728.5931,-0.8691587,-0.8380038,0.3363811,-0.8480257,-0.6127616,0.3753763
728.6083,-0.8783136,-0.8457886,0.336873,-0.853306,-0.6227112,0.3788963
728.6229,-0.8875282,-0.8536143,0.3373278,-0.8585653,-0.632695,0.3823476
728.6378,-0.8875282,-0.8536143,0.3373278,-0.8585653,-0.632695,0.3823476
728.6513,-0.8967294,-0.8614221,0.3376238,-0.8637883,-0.6425172,0.3857313
728.6667,-0.905879,-0.8691813,0.3377548,-0.8689659,-0.6521143,0.3890487
728.6835,-0.9152104,-0.8770765,0.3380224,-0.8743511,-0.661981,0.3925818
728.6968,-0.9152104,-0.8770765,0.3380224,-0.8743511,-0.661981,0.3925818
728.7109,-0.9245893,-0.8850026,0.3382737,-0.8797131,-0.6718796,0.396046
728.7252,-0.9339464,-0.8929044,0.3383854,-0.8850363,-0.6816208,0.3994424
728.7397,-0.9339464,-0.8929044,0.3383854,-0.8850363,-0.6816208,0.3994424
728.7538,-0.9435016,-0.9009544,0.3386152,-0.8905708,-0.6916427,0.403053
728.7689,-0.9531096,-0.9090395,0.3388121,-0.8960869,-0.7016916,0.4065932
728.7836,-0.962696,-0.9171014,0.3388581,-0.9015665,-0.7115742,0.4100641
728.7983,-0.962696,-0.9171014,0.3388581,-0.9015665,-0.7115742,0.4100641
728.8121,-0.9722235,-0.9251106,0.3387484,-0.9069992,-0.7212284,0.4134668
728.8275,-0.9819329,-0.9332527,0.3387639,-0.9126364,-0.7311391,0.4170837
728.842,-0.9916833,-0.9414205,0.3387671,-0.918253,-0.7410752,0.42063
728.8568,-0.9916833,-0.9414205,0.3387671,-0.918253,-0.7410752,0.42063
728.871,-1.001404,-0.9495595,0.3386383,-0.9238304,-0.7508499,0.4241068
728.8861,-1.011061,-0.9576424,0.3383689,-0.9293584,-0.7604016,0.4275155
728.9006,-1.020899,-0.9658566,0.3382244,-0.9350884,-0.770209,0.4311382
728.9151,-1.020899,-0.9658566,0.3382244,-0.9350884,-0.770209,0.4311382
728.9292,-1.030775,-0.974094,0.3380734,-0.9407992,-0.7800425,0.4346902
728.9446,-1.040618,-0.9823007,0.3377973,-0.9464705,-0.7897161,0.4381726
728.9592,-1.040618,-0.9823007,0.3377973,-0.9464705,-0.7897161,0.4381726
728.9752,-1.050659,-0.9906508,0.3376234,-0.9523493,-0.7996541,0.4418676
728.9902,-1.060742,-0.9990286,0.3374243,-0.9582146,-0.8096114,0.4454906
729.0038,-1.070792,-1.007377,0.3370886,-0.964043,-0.8193994,0.4490425
729.0172,-1.070792,-1.007377,0.3370886,-0.964043,-0.8193994,0.4490425
729.0309,-1.080772,-1.015667,0.3366138,-0.9698222,-0.8289585,0.4525248
729.0463,-1.090935,-1.024088,0.3362491,-0.9758016,-0.8387601,0.4562198
729.061,-1.10113,-1.032528,0.3358785,-0.9817654,-0.8485794,0.4598426
729.0755,-1.10113,-1.032528,0.3358785,-0.9817654,-0.8485794,0.4598426
729.0894,-1.111285,-1.040934,0.335389,-0.9876896,-0.8582346,0.4633945
729.1049,-1.121364,-1.04928,0.3347746,-0.9935617,-0.867667,0.4668767
729.1193,-1.121364,-1.04928,0.3347746,-0.9935617,-0.867667,0.4668767
729.1334,-1.131629,-1.057755,0.3342697,-0.9996318,-0.877342,0.4705716
729.1486,-1.141922,-1.066247,0.3337637,-1.005688,-0.8870353,0.4741943
729.1633,-1.15217,-1.074704,0.3331451,-1.011703,-0.8965665,0.4777461
729.1779,-1.15217,-1.074704,0.3331451,-1.011703,-0.8965665,0.4777461
729.192,-1.162618,-1.083301,0.3326136,-1.017923,-0.9063489,0.4815093
729.2071,-1.173098,-1.091919,0.332063,-1.024135,-0.9161426,0.4851989
729.2216,-1.183532,-1.100503,0.3313897,-1.030308,-0.9257662,0.4888163
729.2365,-1.183532,-1.100503,0.3313897,-1.030308,-0.9257662,0.4888163
729.2501,-1.193885,-1.109026,0.330594,-1.036428,-0.9351634,0.4923627
729.2656,-1.193799,-1.110037,0.3225805,-1.032948,-0.927099,0.4854403
729.2819,-1.188445,-1.107023,0.3107151,-1.027459,-0.9093294,0.4786452
729.2955,-1.188445,-1.107023,0.3107151,-1.027459,-0.9093294,0.4786452
729.3094,-1.180281,-1.10165,0.2994824,-1.020986,-0.8885979,0.4719799
729.3237,-1.170819,-1.095026,0.2899847,-1.013913,-0.8677005,0.4654439
729.3384,-1.170819,-1.095026,0.2899847,-1.013913,-0.8677005,0.4654439
729.3521,-1.161132,-1.087952,0.2826161,-1.006513,-0.8479507,0.4588557
729.3672,-1.151427,-1.080667,0.2764299,-0.9990126,-0.829169,0.4523968
729.3817,-1.141786,-1.073296,0.2708944,-0.9914939,-0.8111168,0.4460647
729.3966,-1.141786,-1.073296,0.2708944,-0.9914939,-0.8111168,0.4460647
729.4106,-1.132532,-1.066076,0.266293,-0.9840497,-0.794055,0.4396768
729.4257,-1.123518,-1.058953,0.2620049,-0.9767873,-0.7775698,0.4334143
729.4404,-1.114671,-1.051903,0.257833,-0.9696834,-0.7614719,0.4272747
729.4551,-1.114671,-1.051903,0.257833,-0.9696834,-0.7614719,0.4272747
729.4691,-1.105955,-1.044915,0.2537119,-0.9627265,-0.7456729,0.4212554
729.4849,-1.097641,-1.038159,0.2502138,-0.9559236,-0.7305998,0.415174
729.4989,-1.097641,-1.038159,0.2502138,-0.9559236,-0.7305998,0.415174
729.5128,-1.089567,-1.031544,0.2468806,-0.9493486,-0.715942,0.4092121
729.5281,-1.081655,-1.025029,0.2435929,-0.942951,-0.7015748,0.403367
729.5426,-1.073867,-1.01859,0.2403221,-0.9367031,-0.6874467,0.3976365
729.5574,-1.073867,-1.01859,0.2403221,-0.9367031,-0.6874467,0.3976365
729.5711,-1.066468,-1.012391,0.2376581,-0.9305921,-0.6740133,0.3918382
729.5884,-1.059302,-1.00634,0.2351534,-0.9246989,-0.6609685,0.3861538
729.6019,-1.052292,-1.000392,0.2326874,-0.9189723,-0.6481891,0.3805808
729.6161,-1.052292,-1.000392,0.2326874,-0.9189723,-0.6481891,0.3805808
729.6302,-1.045681,-0.9946964,0.2308192,-0.9133803,-0.6361046,0.374937
729.6443,-1.039308,-0.9891571,0.2290965,-0.9080051,-0.6243929,0.369404
729.6591,-1.039308,-0.9891571,0.2290965,-0.9080051,-0.6243929,0.369404
729.6729,-1.033091,-0.9837248,0.2273966,-0.9027925,-0.6129247,0.3639796
729.6881,-1.026989,-0.9783733,0.2256912,-0.8977121,-0.6016493,0.3586615
729.7029,-1.021257,-0.9732612,0.2245729,-0.8927343,-0.591038,0.3532675
729.7172,-1.021257,-0.9732612,0.2245729,-0.8927343,-0.591038,0.3532675
729.7314,-1.015749,-0.9683003,0.2236015,-0.8879545,-0.5807775,0.3479795
729.7469,-1.010387,-0.9634433,0.2226516,-0.8833227,-0.5707408,0.3427952
729.7612,-1.005131,-0.9586643,0.2216917,-0.8788108,-0.5608771,0.3377126
729.7762,-1.005131,-0.9586643,0.2216917,-0.8788108,-0.5608771,0.3377126
729.7901,-1.000236,-0.9541221,0.2213135,-0.8743837,-0.5516647,0.3325494
729.8055,-0.9955574,-0.9497302,0.2210777,-0.8701444,-0.5427855,0.3274878
729.8198,-0.9955574,-0.9497302,0.2210777,-0.8701444,-0.5427855,0.3274878
729.8342,-0.9910193,-0.9454409,0.2208558,-0.8660439,-0.5341095,0.3225255
729.849,-0.9868549,-0.9414009,0.2212062,-0.8620327,-0.526085,0.3174803
729.8638,-0.9829132,-0.9375183,0.221683,-0.8582116,-0.5183775,0.3125344
729.8781,-0.9829132,-0.9375183,0.221683,-0.8582116,-0.5183775,0.3125344
729.8942,-0.979113,-0.9337417,0.2221557,-0.8545286,-0.5108516,0.3076855
729.9086,-0.9754099,-0.9300421,0.2225927,-0.850954,-0.5034553,0.3029317
729.9228,-0.9720517,-0.9265758,0.2235897,-0.8474438,-0.4966793,0.298091
729.9369,-0.9720517,-0.9265758,0.2235897,-0.8474438,-0.4966793,0.298091
729.9507,-0.9688995,-0.9232577,0.2247124,-0.844108,-0.4901994,0.2933455
729.9659,-0.9658774,-0.9200397,0.2258289,-0.8408984,-0.4838829,0.2886931
729.9805,-0.962943,-0.9168937,0.2269052,-0.8377873,-0.4776784,0.2841319
729.9954,-0.962943,-0.9168937,0.2269052,-0.8377873,-0.4776784,0.2841319
730.0093,-0.9603431,-0.9139764,0.2285367,-0.8347292,-0.4720827,0.2794801
730.0245,-0.9579423,-0.9112045,0.2302885,-0.831838,-0.4667668,0.2749198
730.0392,-0.9579423,-0.9112045,0.2302885,-0.831838,-0.4667668,0.2749198
730.0533,-0.9556652,-0.9085298,0.2320259,-0.829066,-0.4615955,0.270449
730.0687,-0.9537385,-0.9060966,0.2343107,-0.826356,-0.457034,0.2658859
730.0833,-0.9520184,-0.9038159,0.2366986,-0.8238175,-0.4527366,0.2614125
730.0978,-0.9520184,-0.9038159,0.2366986,-0.8238175,-0.4527366,0.2614125
730.1119,-0.950424,-0.9016355,0.2390535,-0.8213994,-0.4485627,0.2570269
730.1273,-0.9489089,-0.8995243,0.2413421,-0.8190724,-0.4444607,0.2527274
730.1421,-0.9477148,-0.8976364,0.2441661,-0.8167875,-0.4409393,0.248332
730.1567,-0.9477148,-0.8976364,0.2441661,-0.8167875,-0.4409393,0.248332
730.1726,-0.9467096,-0.8958897,0.2470915,-0.8146607,-0.437663,0.2440232
730.1868,-0.9458174,-0.8942352,0.2499818,-0.8126439,-0.4344942,0.239799
730.2004,-0.9449944,-0.8926435,0.2528016,-0.8107098,-0.4313821,0.2356576
730.215,-0.9449944,-0.8926435,0.2528016,-0.8107098,-0.4313821,0.2356576
730.2291,-0.9444829,-0.8912693,0.256154,-0.8088109,-0.4288416,0.2314173
730.2442,-0.944153,-0.8900322,0.2596019,-0.8070642,-0.4265315,0.2272606
730.2589,-0.944153,-0.8900322,0.2596019,-0.8070642,-0.4265315,0.2272606
730.2729,-0.9439299,-0.8888834,0.2630067,-0.8054219,-0.4243125,0.2231854
730.2884,-0.9440324,-0.8879659,0.2669347,-0.8038285,-0.4226664,0.2190102
730.3029,-0.9443267,-0.8871939,0.2709423,-0.8023922,-0.4212365,0.2149171
730.3176,-0.9443267,-0.8871939,0.2709423,-0.8023922,-0.4212365,0.2149171
730.3317,-0.9447312,-0.8865154,0.2748892,-0.8010626,-0.4198792,0.2109045
730.347,-0.9451982,-0.8858978,0.2787402,-0.7998105,-0.4185424,0.2069705
730.3617,-0.9459656,-0.885493,0.2831069,-0.7985892,-0.4177533,0.2029336
730.3764,-0.9459656,-0.885493,0.2831069,-0.7985892,-0.4177533,0.2029336
730.3907,-0.9469056,-0.8852209,0.2875492,-0.797514,-0.4171626,0.1989763
730.4059,-0.9479424,-0.8850314,0.2919275,-0.7965361,-0.4166287,0.1950966
730.4206,-0.9490311,-0.8848932,0.2962058,-0.7956284,-0.4161012,0.1912931
730.4353,-0.9490311,-0.8848932,0.2962058,-0.7956284,-0.4161012,0.1912931
730.451,-0.9504111,-0.8849571,0.3009979,-0.7947469,-0.4161127,0.187384
730.4654,-0.951956,-0.8851453,0.3058595,-0.7940069,-0.4163088,0.183552
730.4799,-0.951956,-0.8851453,0.3058595,-0.7940069,-0.4163088,0.183552
730.493,-0.953589,-0.885408,0.3106476,-0.7933602,-0.4165457,0.1797953
730.5082,-0.9555308,-0.8858873,0.3159437,-0.7927547,-0.4173259,0.1759321
730.5229,-0.9576417,-0.8864948,0.3212864,-0.7922985,-0.4182718,0.1721452
730.5376,-0.9576417,-0.8864948,0.3212864,-0.7922985,-0.4182718,0.1721452
730.5515,-0.9598393,-0.8871766,0.3265342,-0.7919388,-0.4192372,0.1684326
730.5667,-0.9620755,-0.8878998,0.3316557,-0.7916461,-0.420174,0.1647928
730.5813,-0.9645889,-0.8888171,0.3372779,-0.7913807,-0.4216319,0.1610443
730.5961,-0.9645889,-0.8888171,0.3372779,-0.7913807,-0.4216319,0.1610443
730.6102,-0.9672488,-0.8898461,0.3429434,-0.7912537,-0.4232396,0.1573697
730.6255,-0.9699789,-0.8909367,0.3485122,-0.7912147,-0.4248545,0.1537673
730.6414,-0.9727351,-0.892059,0.3539522,-0.7912356,-0.4264302,0.1502355
730.655,-0.9727351,-0.892059,0.3539522,-0.7912356,-0.4264302,0.1502355
730.669,-0.975759,-0.8933678,0.3598947,-0.7912818,-0.4285237,0.1465929
730.6843,-0.9789203,-0.8947806,0.3658732,-0.7914625,-0.4307544,0.1430222
730.6991,-0.9789203,-0.8947806,0.3658732,-0.7914625,-0.4307544,0.1430222
730.7128,-0.9821434,-0.8962482,0.3717469,-0.7917268,-0.4329785,0.1395216
730.7303,-0.9856526,-0.8979142,0.3781166,-0.7920319,-0.4357221,0.1359096
730.7438,-0.9893061,-0.8996885,0.3845012,-0.7924784,-0.4385857,0.1323688
730.7574,-0.9893061,-0.8996885,0.3845012,-0.7924784,-0.4385857,0.1323688
730.7715,-0.9930222,-0.901518,0.3907613,-0.7930113,-0.4414233,0.1288976
730.787,-0.9967545,-0.9033714,0.3968696,-0.7936003,-0.4441914,0.1254945
730.8015,-1.000745,-0.905403,0.4034709,-0.7942176,-0.4474626,0.121978
730.816,-1.000745,-0.905403,0.4034709,-0.7942176,-0.4474626,0.121978
730.83,-1.004861,-0.9075285,0.4100855,-0.7949657,-0.450841,0.1185309
730.8455,-1.009025,-0.9096986,0.4165748,-0.7957917,-0.4541838,0.1151515
730.8603,-1.013195,-0.9118845,0.4229108,-0.7966669,-0.4574487,0.1118384
730.8754,-1.013195,-0.9118845,0.4229108,-0.7966669,-0.4574487,0.1118384
730.8889,-1.017616,-0.9142425,0.429743,-0.7975702,-0.4612155,0.1084102
730.9044,-1.022155,-0.9166883,0.4365813,-0.7986006,-0.4650781,0.1050496
730.9191,-1.022155,-0.9166883,0.4365813,-0.7986006,-0.4650781,0.1050496
730.933,-1.026736,-0.9191732,0.4432871,-0.7997044,-0.468893,0.1017551
730.9486,-1.031587,-0.9218419,0.4504809,-0.8008528,-0.4732097,0.09834508
730.9636,-1.036563,-0.9246027,0.4576593,-0.8021349,-0.4776047,0.09500239
730.9775,-1.036563,-0.9246027,0.4576593,-0.8021349,-0.4776047,0.09500239
730.9916,-1.041581,-0.9274031,0.464686,-0.8034928,-0.4819331,0.09172537
731.0081,-1.046598,-0.9302132,0.4715383,-0.8048958,-0.4861566,0.08851262
731.0226,-1.051859,-0.9331886,0.4788796,-0.8063323,-0.4908704,0.08518275
731.0363,-1.051859,-0.9331886,0.4788796,-0.8063323,-0.4908704,0.08518275
731.0501,-1.057227,-0.9362434,0.4862053,-0.8078918,-0.4956526,0.08191865
731.0653,-1.062626,-0.9393287,0.4933797,-0.8095188,-0.5003606,0.07871868
731.08,-1.062626,-0.9393287,0.4933797,-0.8095188,-0.5003606,0.07871868
731.0941,-1.068288,-0.9425896,0.5010371,-0.8111948,-0.5055601,0.07540135
731.1092,-1.074062,-0.9459335,0.5086588,-0.8129995,-0.5108112,0.07214956
731.124,-1.079868,-0.9493078,0.5161114,-0.814873,-0.5159707,0.06896165
731.1384,-1.079868,-0.9493078,0.5161114,-0.814873,-0.5159707,0.06896165
731.1525,-1.08566,-0.9526836,0.523376,-0.8167843,-0.5210041,0.06583626
731.168,-1.091691,-0.9562176,0.5311275,-0.8187341,-0.5265212,0.06259202
731.1826,-1.097818,-0.9598223,0.5388445,-0.8208019,-0.5320817,0.05941189
731.1972,-1.097818,-0.9598223,0.5388445,-0.8208019,-0.5320817,0.05941189
731.2111,-1.103964,-0.9634492,0.5463939,-0.8229298,-0.5375447,0.05629424
731.2264,-1.11009,-0.9670715,0.5537559,-0.8250888,-0.5428765,0.05323774
731.2411,-1.116448,-0.9708474,0.5616094,-0.8272883,-0.5486933,0.05006103
731.2559,-1.116448,-0.9708474,0.5616094,-0.8272883,-0.5486933,0.05006103
731.2701,-1.122898,-0.9746896,0.569422,-0.8296017,-0.5545436,0.04694712
731.287,-1.129362,-0.97855,0.5770615,-0.8319707,-0.5602866,0.04389439
731.3004,-1.1358,-0.9824023,0.5845093,-0.8343662,-0.5658904,0.04090153
731.3153,-1.1358,-0.9824023,0.5845093,-0.8343662,-0.5658904,0.04090153
731.329,-1.142469,-0.9864053,0.5924503,-0.8368057,-0.5719789,0.03778722
731.3432,-1.149225,-0.9904708,0.6003419,-0.8393559,-0.5780895,0.03473449
731.3577,-1.149225,-0.9904708,0.6003419,-0.8393559,-0.5780895,0.03473449
731.372,-1.155991,-0.9945511,0.6080543,-0.8419574,-0.584083,0.03174174
731.3876,-1.163006,-0.9987932,0.616248,-0.84462,-0.590557,0.02862756
731.4019,-1.170115,-1.003102,0.62437,-0.8473986,-0.5970345,0.02557495
731.4164,-1.170115,-1.003102,0.62437,-0.8473986,-0.5970345,0.02557495
731.4304,-1.177234,-1.007426,0.6322955,-0.8502294,-0.6033778,0.02258231
731.4459,-1.184322,-1.011737,0.6400127,-0.8530813,-0.609561,0.01964834
731.4605,-1.191637,-1.016196,0.6482188,-0.8559855,-0.6162229,0.01659177
731.4753,-1.191637,-1.016196,0.6482188,-0.8559855,-0.6162229,0.01659177
731.4893,-1.19903,-1.02071,0.6563557,-0.8589953,-0.6228824,0.01359565
731.5047,-1.206425,-1.025233,0.664299,-0.8620489,-0.6294039,0.01065838
731.5192,-1.206425,-1.025233,0.664299,-0.8620489,-0.6294039,0.01065838
731.5333,-1.214064,-1.029911,0.6727213,-0.8651708,-0.6364013,0.00759859
731.5486,-1.221788,-1.034649,0.6810541,-0.8684021,-0.6433785,0.004599312
731.5631,-1.229513,-1.039396,0.6891778,-0.8716772,-0.6502025,0.001658939
731.5795,-1.229513,-1.039396,0.6891778,-0.8716772,-0.6502025,0.001658939
731.5937,-1.237196,-1.044125,0.6970847,-0.8749651,-0.6568521,-0.001223784
731.6071,-1.245103,-1.048995,0.7054806,-0.8783129,-0.6639791,-0.004230105
731.6213,-1.253081,-1.053914,0.7137903,-0.8817598,-0.6710815,-0.007176966
731.6359,-1.253081,-1.053914,0.7137903,-0.8817598,-0.6710815,-0.007176966
731.6498,-1.26105,-1.058836,0.721895,-0.885242,-0.678028,-0.01006596
731.665,-1.268971,-1.063736,0.729786,-0.8887305,-0.6847988,-0.01289829
731.6796,-1.268971,-1.063736,0.729786,-0.8887305,-0.6847988,-0.01289829
731.6935,-1.277114,-1.068774,0.738171,-0.8922824,-0.6920512,-0.01585521
731.709,-1.285323,-1.073858,0.7464643,-0.895929,-0.6992698,-0.01875363
731.7234,-1.29352,-1.078942,0.7545498,-0.8996057,-0.7063262,-0.02159512
731.7377,-1.29352,-1.078942,0.7545498,-0.8996057,-0.7063262,-0.02159512
731.7521,-1.301956,-1.084175,0.7631155,-0.9033622,-0.7138582,-0.024561
731.7676,-1.310463,-1.089457,0.7715682,-0.9072165,-0.7213376,-0.02746822
731.7821,-1.318957,-1.094738,0.7797985,-0.9111003,-0.7286406,-0.03031838
731.7966,-1.318957,-1.094738,0.7797985,-0.9111003,-0.7286406,-0.03031838
731.8107,-1.327398,-1.099995,0.7878042,-0.9149832,-0.7357541,-0.03311266
731.8264,-1.33606,-1.105387,0.7963013,-0.9189388,-0.7433491,-0.03603222
731.8406,-1.344779,-1.11082,0.8046893,-0.922982,-0.7508874,-0.03889405
731.8553,-1.344779,-1.11082,0.8046893,-0.922982,-0.7508874,-0.03889405
731.8712,-1.353478,-1.116247,0.81286,-0.9270466,-0.7582484,-0.04169971
731.8853,-1.362118,-1.121645,0.8208103,-0.9311038,-0.7654201,-0.04445035
731.9,-1.362118,-1.121645,0.8208103,-0.9311038,-0.7654201,-0.04445035
731.9142,-1.370977,-1.127177,0.8292567,-0.9352379,-0.7730789,-0.04732712
731.9282,-1.37989,-1.132747,0.837589,-0.939455,-0.7806719,-0.05014702
731.9427,-1.388779,-1.138309,0.8457029,-0.9436879,-0.788083,-0.05291155
731.9572,-1.388779,-1.138309,0.8457029,-0.9436879,-0.788083,-0.05291155
731.9714,-1.397903,-1.144014,0.8542979,-0.9480131,-0.7959746,-0.05580191
731.9868,-1.407086,-1.14976,0.8627589,-0.9524232,-0.8037819,-0.05863516
732.0015,-1.416244,-1.155499,0.8709886,-0.9568474,-0.8113955,-0.0614128
732.0157,-1.416244,-1.155499,0.8709886,-0.9568474,-0.8113955,-0.0614128
732.0298,-1.425338,-1.161206,0.8789901,-0.9612566,-0.81881,-0.06413599
732.0453,-1.43465,-1.167044,0.8874843,-0.9657518,-0.8267146,-0.06698579
732.0599,-1.43465,-1.167044,0.8874843,-0.9657518,-0.8267146,-0.06698579
732.0739,-1.444009,-1.172915,0.8958489,-0.9703223,-0.8345309,-0.06977931
732.089,-1.453336,-1.178775,0.9039887,-0.9748991,-0.842154,-0.07251798
732.1037,-1.462593,-1.1846,0.9119052,-0.9794546,-0.8495799,-0.07520298
732.1182,-1.462593,-1.1846,0.9119052,-0.9794546,-0.8495799,-0.07520298
732.1324,-1.472067,-1.190555,0.9203182,-0.9841009,-0.8575023,-0.07801531
732.1476,-1.481586,-1.196541,0.9285977,-0.9888173,-0.8653273,-0.08077209
732.1642,-1.491068,-1.202513,0.9366528,-0.9935347,-0.8729566,-0.08347479
732.1778,-1.491068,-1.202513,0.9366528,-0.9935347,-0.8729566,-0.08347479
732.1918,-1.500784,-1.208624,0.9451891,-0.998357,-0.8810757,-0.08630443
732.2061,-1.510547,-1.214768,0.9535733,-1.00325,-0.8890799,-0.08907824
732.2205,-1.520274,-1.220899,0.9617223,-1.008142,-0.8968788,-0.09179762
732.2354,-1.520274,-1.220899,0.9617223,-1.008142,-0.8968788,-0.09179762
732.249,-1.529925,-1.226994,0.9696427,-1.013004,-0.9044744,-0.0944637
732.2643,-1.539794,-1.233216,0.9780549,-1.017966,-0.9125713,-0.09725743
732.2789,-1.539794,-1.233216,0.9780549,-1.017966,-0.9125713,-0.09725743
732.2928,-1.549701,-1.239466,0.9863203,-1.022989,-0.9205489,-0.09999605
732.3084,-1.559564,-1.245699,0.994358,-1.028004,-0.9283233,-0.1026809
732.3228,-1.569348,-1.251893,1.002173,-1.032983,-0.9358973,-0.1053132
732.3376,-1.569348,-1.251893,1.002173,-1.032983,-0.9358973,-0.1053132
732.3513,-1.579349,-1.258214,1.010482,-1.038067,-0.9439793,-0.1080737
732.3666,-1.589384,-1.264561,1.018641,-1.043208,-0.951933,-0.1107798
732.3812,-1.599373,-1.27089,1.026575,-1.048335,-0.9596831,-0.1134328
732.3959,-1.599373,-1.27089,1.026575,-1.048335,-0.9596831,-0.1134328
732.41,-1.609594,-1.277352,1.034987,-1.053578,-0.9679347,-0.1162137
732.425,-1.619851,-1.283844,1.043234,-1.058878,-0.9760422,-0.1189398
732.4398,-1.619851,-1.283844,1.043234,-1.058878,-0.9760422,-0.1189398
732.4537,-1.630061,-1.290317,1.051246,-1.064161,-0.9839387,-0.1216124
732.4709,-1.640188,-1.29675,1.059031,-1.0694,-0.9916316,-0.1242326
732.4845,-1.638321,-1.296241,1.038262,-1.067864,-0.9701208,-0.1187856
732.4988,-1.638321,-1.296241,1.038262,-1.067864,-0.9701208,-0.1187856
732.5132,-1.629194,-1.291662,1.014045,-1.06192,-0.946234,-0.113459
732.527,-1.616582,-1.284888,0.9906319,-1.054499,-0.9231012,-0.1082394
732.5416,-1.602603,-1.277127,0.968887,-1.046703,-0.9010025,-0.1031218
732.5561,-1.602603,-1.277127,0.968887,-1.046703,-0.9010025,-0.1031218
732.5702,-1.588205,-1.268965,0.9486239,-1.038893,-0.8797991,-0.09810392
732.5854,-1.573762,-1.260657,0.9294531,-1.031172,-0.8593069,-0.09318381
732.6,-1.559409,-1.252308,0.9110589,-1.023577,-0.8393847,-0.08835984
732.6145,-1.559409,-1.252308,0.9110589,-1.023577,-0.8393847,-0.08835984
732.6285,-1.54519,-1.243966,0.8932386,-1.01612,-0.8199406,-0.0836303
732.6441,-1.53112,-1.23565,0.8758746,-1.008808,-0.8009183,-0.07899346
732.6588,-1.53112,-1.23565,0.8758746,-1.008808,-0.8009183,-0.07899346
732.6727,-1.517201,-1.227371,0.8589017,-1.001645,-0.7822844,-0.07444754
732.688,-1.503432,-1.219132,0.8422844,-0.9946304,-0.7640181,-0.0699908
732.7027,-1.489812,-1.210937,0.8260027,-0.9877637,-0.7461059,-0.06562149
732.7171,-1.489812,-1.210937,0.8260027,-0.9877637,-0.7461059,-0.06562149
732.731,-1.476337,-1.202787,0.8100443,-0.9810423,-0.728538,-0.0613379
732.7463,-1.463007,-1.194683,0.7944013,-0.9744633,-0.7113064,-0.05713836
732.7631,-1.44982,-1.186625,0.7790673,-0.9680234,-0.6944043,-0.05302122
732.7764,-1.44982,-1.186625,0.7790673,-0.9680234,-0.6944043,-0.05302122
732.7905,-1.436774,-1.178615,0.7640368,-0.9617192,-0.6778254,-0.04898487
732.8049,-1.423869,-1.170652,0.7493048,-0.955547,-0.6615637,-0.04502771
732.8193,-1.423869,-1.170652,0.7493048,-0.955547,-0.6615637,-0.04502771
732.8331,-1.411103,-1.162737,0.7348666,-0.9495037,-0.6456134,-0.04114819
732.8484,-1.398474,-1.15487,0.7207172,-0.9435856,-0.6299688,-0.03734479
732.8631,-1.385982,-1.147052,0.7068521,-0.9377896,-0.6146244,-0.03361601
732.8777,-1.385982,-1.147052,0.7068521,-0.9377896,-0.6146244,-0.03361601
732.8917,-1.373625,-1.139282,0.6932667,-0.9321124,-0.5995749,-0.02996039
732.9072,-1.361402,-1.131562,0.6799564,-0.9265508,-0.5848148,-0.02637648
732.9217,-1.349312,-1.123891,0.6669166,-0.9211017,-0.570339,-0.02286289
732.9365,-1.349312,-1.123891,0.6669166,-0.9211017,-0.570339,-0.02286289
732.9508,-1.337354,-1.116269,0.6541428,-0.9157621,-0.5561423,-0.01941823
732.9658,-1.325526,-1.108697,0.641631,-0.9105293,-0.5422204,-0.01604114
732.9803,-1.313828,-1.101176,0.629377,-0.9054006,-0.5285686,-0.0127303
732.9951,-1.313828,-1.101176,0.629377,-0.9054006,-0.5285686,-0.0127303
733.009,-1.302259,-1.093705,0.6173764,-0.9003733,-0.5151821,-0.009484407
733.0247,-1.290817,-1.086284,0.6056249,-0.8954446,-0.5020562,-0.006302177
733.0395,-1.290817,-1.086284,0.6056249,-0.8954446,-0.5020562,-0.006302177
733.0552,-1.279501,-1.078914,0.5941181,-0.8906118,-0.4891861,-0.003182363
733.0692,-1.268309,-1.071595,0.5828519,-0.8858724,-0.4765674,-0.0001237383
733.0829,-1.257242,-1.064328,0.5718221,-0.8812238,-0.4641953,0.002874903
733.0974,-1.257242,-1.064328,0.5718221,-0.8812238,-0.4641953,0.002874903
733.1113,-1.246298,-1.057112,0.5610245,-0.8766634,-0.4520656,0.005814733
733.1268,-1.235476,-1.049947,0.550455,-0.8721889,-0.4401737,0.008696907
733.1412,-1.224774,-1.042834,0.5401097,-0.8677979,-0.4285156,0.01152256
733.1559,-1.224774,-1.042834,0.5401097,-0.8677979,-0.4285156,0.01152256
733.17,-1.214191,-1.035773,0.5299845,-0.8634881,-0.4170868,0.01429281
733.1852,-1.203727,-1.028764,0.5200754,-0.8592573,-0.4058834,0.01700874
733.1999,-1.203727,-1.028764,0.5200754,-0.8592573,-0.4058834,0.01700874
733.2138,-1.193381,-1.021807,0.5103787,-0.8551033,-0.3949012,0.01967142
733.2292,-1.183151,-1.014903,0.5008904,-0.8510241,-0.3841362,0.02228189
733.2438,-1.173036,-1.008051,0.4916069,-0.8470176,-0.3735844,0.02484117
733.2584,-1.173036,-1.008051,0.4916069,-0.8470176,-0.3735844,0.02484117
733.2726,-1.163035,-1.001252,0.4825242,-0.8430818,-0.3632421,0.02735028
733.288,-1.153147,-0.994505,0.4736389,-0.8392149,-0.3531053,0.0298102
733.3027,-1.143372,-0.987811,0.4649473,-0.8354149,-0.3431705,0.0322219
733.3172,-1.143372,-0.987811,0.4649473,-0.8354149,-0.3431705,0.0322219
733.3335,-1.133707,-0.9811698,0.4564456,-0.8316802,-0.3334337,0.03458632
733.3478,-1.124152,-0.9745813,0.4481306,-0.8280088,-0.3238916,0.0369044
733.361,-1.114706,-0.9680457,0.4399987,-0.8243993,-0.3145405,0.03917705
733.3759,-1.114706,-0.9680457,0.4399987,-0.8243993,-0.3145405,0.03917705
733.3897,-1.105368,-0.9615631,0.4320464,-0.8208498,-0.3053769,0.04140514
733.4051,-1.096137,-0.9551333,0.4242704,-0.817359,-0.2963973,0.04358957
733.4197,-1.096137,-0.9551333,0.4242704,-0.817359,-0.2963973,0.04358957
733.4336,-1.087012,-0.9487565,0.4166674,-0.8139251,-0.2875985,0.04573119
733.4489,-1.077991,-0.9424326,0.4092341,-0.8105468,-0.278977,0.04783084
733.4636,-1.069074,-0.9361616,0.4019673,-0.8072225,-0.2705296,0.04988934
733.478,-1.069074,-0.9361616,0.4019673,-0.8072225,-0.2705296,0.04988934
733.4922,-1.06026,-0.9299434,0.3948638,-0.8039509,-0.2622532,0.0519075
733.5079,-1.051547,-0.9237781,0.3879206,-0.8007307,-0.2541444,0.05388612
733.5224,-1.042935,-0.9176655,0.3811345,-0.7975606,-0.2462003,0.05582597
733.5371,-1.042935,-0.9176655,0.3811345,-0.7975606,-0.2462003,0.05582597
733.5509,-1.034422,-0.9116057,0.3745025,-0.7944392,-0.2384178,0.05772781
733.5664,-1.026008,-0.9055985,0.3680216,-0.7913654,-0.2307938,0.05959239
733.5809,-1.017692,-0.8996438,0.361689,-0.7883379,-0.2233255,0.06142043
733.5958,-1.017692,-0.8996438,0.361689,-0.7883379,-0.2233255,0.06142043
733.6119,-1.009472,-0.8937416,0.3555017,-0.7853557,-0.2160099,0.06321267
733.6259,-1.001348,-0.8878917,0.349457,-0.7824177,-0.2088442,0.06496979
733.6405,-0.9933184,-0.882094,0.343552,-0.7795228,-0.2018255,0.06669249
733.6542,-0.9933184,-0.882094,0.343552,-0.7795228,-0.2018255,0.06669249
733.6683,-0.9853825,-0.8763484,0.337784,-0.7766699,-0.1949511,0.06838145
733.6832,-0.9775392,-0.8706547,0.3321503,-0.773858,-0.1882184,0.07003732
733.6978,-0.9775392,-0.8706547,0.3321503,-0.773858,-0.1882184,0.07003732
733.7119,-0.9697875,-0.8650128,0.3266482,-0.7710862,-0.1816246,0.07166075
733.7302,-0.9621266,-0.8594224,0.3212752,-0.7683535,-0.1751671,0.07325238
733.7418,-0.9545553,-0.8538836,0.3160287,-0.765659,-0.1688434,0.07481284
733.7564,-0.9545553,-0.8538836,0.3160287,-0.765659,-0.1688434,0.07481284
733.7705,-0.9470729,-0.8483961,0.3109062,-0.7630019,-0.1626509,0.07634272
733.7861,-0.9396782,-0.8429596,0.3059052,-0.7603813,-0.1565871,0.07784265
733.8006,-0.9323704,-0.837574,0.3010233,-0.7577964,-0.1506497,0.07931319
733.8151,-0.9323704,-0.837574,0.3010233,-0.7577964,-0.1506497,0.07931319
733.8292,-0.9251485,-0.8322391,0.2962581,-0.7552464,-0.1448362,0.08075494
733.8444,-0.9180117,-0.8269547,0.2916072,-0.7527305,-0.1391442,0.08216844
733.8591,-0.9180117,-0.8269547,0.2916072,-0.7527305,-0.1391442,0.08216844
733.8732,-0.9109589,-0.8217205,0.2870684,-0.750248,-0.1335715,0.08355428
733.8884,-0.9039893,-0.8165364,0.2826394,-0.7477982,-0.1281157,0.08491296
733.9053,-0.8971018,-0.8114021,0.2783179,-0.7453803,-0.1227747,0.08624504
733.9186,-0.8971018,-0.8114021,0.2783179,-0.7453803,-0.1227747,0.08624504
733.9324,-0.8902957,-0.8063173,0.2741018,-0.7429938,-0.1175462,0.08755103
733.9467,-0.8835701,-0.8012819,0.2699889,-0.7406379,-0.1124281,0.08883144
733.9613,-0.8769239,-0.7962955,0.2659771,-0.738312,-0.1074182,0.09008678
733.9757,-0.8769239,-0.7962955,0.2659771,-0.738312,-0.1074182,0.09008678
