JMolnar6/NonAnthroHands_User_Study/HandsLoggerWithURDF/tempdata/files/Reachy_JointMotion_gesture_11_54.csv
Time,r_shoulder,r_shoulder_x,r_upper_arm,r_forearm,r_wrist,r_wrist2hand,
1013.804,-0.8626859,0.0007302495,NaN,-0.365921,0.001336313,NaN,1.150349,-14.84124,NaN,-0.6839303,-1.48154,0.431163,14.12651,NaN,NaN,-0.01042662,0.8162407,-8.140625E-07,1.077374,1.30785E-08,1.343992
1013.821,-0.8603722,0.0007303802,NaN,-0.365115,0.00133548,NaN,1.150257,-14.84162,NaN,-0.6809852,-1.48363,0.4322809,14.12876,NaN,NaN,-0.01025197,0.8158804,-8.116783E-07,1.08043,1.427059E-08,1.342167
1013.834,-0.8603722,0.0007303802,NaN,-0.365115,0.00133548,NaN,1.150257,-14.84162,NaN,-0.6809852,-1.48363,0.4322809,14.12876,NaN,NaN,-0.01025197,0.8158804,-8.116783E-07,1.08043,1.427059E-08,1.342167
1013.848,-0.8579509,0.0007294896,NaN,-0.3642713,0.00133647,NaN,1.150079,-14.83964,NaN,-0.677755,-1.473443,0.433581,14.11773,NaN,NaN,-0.01008071,0.8177572,-8.152546E-07,1.065533,1.784687E-08,1.331765
1013.864,-0.8554728,0.0007297041,NaN,-0.3634085,0.001337611,NaN,1.149927,-14.84013,NaN,-0.6744161,-1.475631,0.4349092,14.12013,NaN,NaN,-0.009912905,0.8173091,-8.128704E-07,1.068749,1.069431E-08,1.330133
1013.879,-0.8554728,0.0007297041,NaN,-0.3634085,0.001337611,NaN,1.149927,-14.84013,NaN,-0.6744161,-1.475631,0.4349092,14.12013,NaN,NaN,-0.009912905,0.8173091,-8.128704E-07,1.068749,1.069431E-08,1.330133
1013.893,-0.8531829,0.0007299736,NaN,-0.3626151,0.001338633,NaN,1.150174,-14.84048,NaN,-0.6715415,-1.468685,0.435731,14.11277,NaN,NaN,-0.009832544,0.8168349,-8.045258E-07,1.05861,1.188641E-08,1.33246
1013.908,-0.8510199,0.0007301911,NaN,-0.3618672,0.001339335,NaN,1.150561,-14.84059,NaN,-0.6690063,-1.466931,0.4363143,14.11091,NaN,NaN,-0.009753887,0.81668,-7.926049E-07,1.056054,8.310129E-09,1.332758
1013.923,-0.8489454,0.0007309978,NaN,-0.3611504,0.001341385,NaN,1.15096,-14.84036,NaN,-0.6666524,-1.480196,0.4368128,14.125,NaN,NaN,-0.009676754,0.8172472,-7.81876E-07,1.075415,5.925943E-09,1.334333
1013.938,-0.8489454,0.0007309978,NaN,-0.3611504,0.001341385,NaN,1.15096,-14.84036,NaN,-0.6666524,-1.480196,0.4368128,14.125,NaN,NaN,-0.009676754,0.8172472,-7.81876E-07,1.075415,5.925943E-09,1.334333
1013.953,-0.8469349,0.0007316803,NaN,-0.3604556,0.001343259,NaN,1.151337,-14.84038,NaN,-0.6644024,-1.468541,0.4372832,14.11258,NaN,NaN,-0.009601087,0.817076,-7.723393E-07,1.058384,8.310129E-09,1.332579
1013.969,-0.8451856,0.0007320674,NaN,-0.3598543,0.001342551,NaN,1.152038,-14.84103,NaN,-0.6627071,-1.478574,0.437265,14.12335,NaN,NaN,-0.009610959,0.8166782,-7.5565E-07,1.073066,2.380733E-08,1.336181
1013.984,-0.8436069,0.0007319198,NaN,-0.3593125,0.00134022,NaN,1.152814,-14.84116,NaN,-0.661383,-1.471091,0.4370406,14.1154,NaN,NaN,-0.009620642,0.816431,-7.365765E-07,1.062142,1.784687E-08,1.336655
1013.999,-0.8436069,0.0007319198,NaN,-0.3593125,0.00134022,NaN,1.152814,-14.84116,NaN,-0.661383,-1.471091,0.4370406,14.1154,NaN,NaN,-0.009620642,0.816431,-7.365765E-07,1.062142,1.784687E-08,1.336655
1014.013,-0.8421414,0.000731988,NaN,-0.3588095,0.001339302,NaN,1.153555,-14.84008,NaN,-0.6602443,-1.470469,0.4367636,14.11461,NaN,NaN,-0.009630033,0.8174927,-7.198872E-07,1.061206,2.023106E-08,1.330671
1014.029,-0.8407529,0.0007323193,NaN,-0.3583322,0.001340045,NaN,1.154239,-14.84083,NaN,-0.6592012,-1.467566,0.4364868,14.11161,NaN,NaN,-0.009639139,0.8166691,-7.031979E-07,1.056991,1.546269E-08,1.335141
1014.044,-0.8396311,0.0007331332,NaN,-0.3579499,0.001341236,NaN,1.155224,-14.84113,NaN,-0.6586989,-1.466075,0.4357462,14.11006,NaN,NaN,-0.009732106,0.8163242,-6.829324E-07,1.054827,1.427059E-08,1.337151
1014.06,-0.8396311,0.0007331332,NaN,-0.3579499,0.001341236,NaN,1.155224,-14.84113,NaN,-0.6586989,-1.466075,0.4357462,14.11006,NaN,NaN,-0.009732106,0.8163242,-6.829324E-07,1.054827,1.427059E-08,1.337151
1014.074,-0.8386808,0.000732745,NaN,-0.3576271,0.001342156,NaN,1.156267,-14.84032,NaN,-0.6585515,-1.478895,0.4348191,14.12358,NaN,NaN,-0.009823221,0.817472,-6.590905E-07,1.073505,8.310129E-09,1.334497
1014.089,-0.837842,0.0007320709,NaN,-0.3573422,0.001343596,NaN,1.157261,-14.84209,NaN,-0.6585721,-1.470463,0.4338566,14.11477,NaN,NaN,-0.009912427,0.8155886,-6.376329E-07,1.061214,3.541757E-09,1.33947
1014.104,-0.8370765,0.0007314237,NaN,-0.3570818,0.001344182,NaN,1.158185,-14.84106,NaN,-0.6586707,-1.466056,0.4329097,14.10996,NaN,NaN,-0.009999766,0.8165106,-6.125989E-07,1.054752,-4.802893E-09,1.332279
1014.119,-0.8370765,0.0007314237,NaN,-0.3570818,0.001344182,NaN,1.158185,-14.84106,NaN,-0.6586707,-1.466056,0.4329097,14.10996,NaN,NaN,-0.009999766,0.8165106,-6.125989E-07,1.054752,-4.802893E-09,1.332279
1014.133,-0.8365726,0.000731532,NaN,-0.3569144,0.001344412,NaN,1.1594,-14.84241,NaN,-0.6592928,-1.478188,0.4315128,14.12305,NaN,NaN,-0.01016941,0.8154975,-5.839887E-07,1.072515,-7.187079E-09,1.344275
1014.149,-0.836235,0.0007318142,NaN,-0.3568049,0.001344879,NaN,1.160663,-14.84296,NaN,-0.6602523,-1.477142,0.4299433,14.12199,NaN,NaN,-0.01033568,0.8149232,-5.553785E-07,1.071,-9.571265E-09,1.34645
1014.164,-0.8360029,0.0007315316,NaN,-0.3567313,0.001345392,NaN,1.161865,-14.84081,NaN,-0.6613628,-1.469085,0.4283518,14.11321,NaN,NaN,-0.01049855,0.8169374,-5.279604E-07,1.059207,-8.379172E-09,1.33355
1014.179,-0.8360029,0.0007315316,NaN,-0.3567313,0.001345392,NaN,1.161865,-14.84081,NaN,-0.6613628,-1.469085,0.4283518,14.11321,NaN,NaN,-0.01049855,0.8169374,-5.279604E-07,1.059207,-8.379172E-09,1.33355
1014.194,-0.8360495,0.0007309137,NaN,-0.3567559,0.001343912,NaN,1.163339,-14.8418,NaN,-0.6630226,-1.468438,0.42631,14.11265,NaN,NaN,-0.01074216,0.8159414,-4.945817E-07,1.0583,-9.571265E-09,1.338082
1014.209,-0.8362708,0.0007301101,NaN,-0.356841,0.001341899,NaN,1.164835,-14.84179,NaN,-0.6650233,-1.467369,0.4241092,14.11151,NaN,NaN,-0.0109809,0.8159198,-4.612031E-07,1.056743,-2.418707E-09,1.336392
1014.224,-0.8366009,0.0007300322,NaN,-0.3569627,0.001339925,NaN,1.166248,-14.84191,NaN,-0.6671678,-1.466086,0.4219033,14.11016,NaN,NaN,-0.01121478,0.8157667,-4.290166E-07,1.054879,-5.994986E-09,1.336622
1014.239,-0.8366009,0.0007300322,NaN,-0.3569627,0.001339925,NaN,1.166248,-14.84191,NaN,-0.6671678,-1.466086,0.4219033,14.11016,NaN,NaN,-0.01121478,0.8157667,-4.290166E-07,1.054879,-5.994986E-09,1.336622
1014.255,-0.8369978,0.000730065,NaN,-0.3571064,0.001339294,NaN,1.167563,-14.84201,NaN,-0.6693613,-1.465605,0.4197424,14.10967,NaN,NaN,-0.01144391,0.8156543,-3.968301E-07,1.054183,-4.802893E-09,1.337436
1014.269,-0.8376475,0.0007299902,NaN,-0.3573399,0.001337331,NaN,1.169144,-14.84188,NaN,-0.6720475,-1.465083,0.4171539,14.1091,NaN,NaN,-0.01175242,0.8157681,-3.610674E-07,1.053419,-3.452172E-11,1.334655
1014.284,-0.838453,0.0007300627,NaN,-0.3576273,0.001335619,NaN,1.170744,-14.84236,NaN,-0.6750396,-1.465382,0.4144216,14.10948,NaN,NaN,-0.01205481,0.8152941,-3.253046E-07,1.053879,-2.418707E-09,1.336925
1014.3,-0.838453,0.0007300627,NaN,-0.3576273,0.001335619,NaN,1.170744,-14.84236,NaN,-0.6750396,-1.465382,0.4144216,14.10948,NaN,NaN,-0.01205481,0.8152941,-3.253046E-07,1.053879,-2.418707E-09,1.336925
1014.313,-0.8393527,0.0007299997,NaN,-0.3579464,0.001334128,NaN,1.172258,-14.84235,NaN,-0.6781511,-1.465216,0.4116956,14.10931,NaN,NaN,-0.01235109,0.8152962,-2.931181E-07,1.053639,-5.994986E-09,1.337007
1014.329,-0.8403077,0.0007306467,NaN,-0.3582833,0.001333317,NaN,1.173672,-14.84378,NaN,-0.6812922,-1.475596,0.4090245,14.12051,NaN,NaN,-0.0126414,0.8141573,-2.597395E-07,1.068833,-8.379171E-09,1.34929
1014.344,-0.8415059,0.0007309678,NaN,-0.3587066,0.001334741,NaN,1.175345,-14.84244,NaN,-0.6849091,-1.466085,0.4059299,14.11029,NaN,NaN,-0.01300979,0.8153274,-2.192083E-07,1.054948,-9.571264E-09,1.338887
1014.359,-0.8415059,0.0007309678,NaN,-0.3587066,0.001334741,NaN,1.175345,-14.84244,NaN,-0.6849091,-1.466085,0.4059299,14.11029,NaN,NaN,-0.01300979,0.8153274,-2.192083E-07,1.054948,-9.571264E-09,1.338887
1014.373,-0.8428513,0.0007315926,NaN,-0.3591806,0.0013358,NaN,1.177027,-14.84298,NaN,-0.6888164,-1.479584,0.4027037,14.12468,NaN,NaN,-0.01337088,0.8151578,-1.786771E-07,1.07465,-1.076336E-08,1.346431
1014.389,-0.8442833,0.000731514,NaN,-0.3596833,0.00133635,NaN,1.178612,-14.84213,NaN,-0.6928281,-1.467641,0.3994963,14.11192,NaN,NaN,-0.01372471,0.8158402,-1.393381E-07,1.05722,-1.076336E-08,1.337891
1014.404,-0.8457635,0.0007316065,NaN,-0.3602012,0.001334009,NaN,1.180088,-14.84202,NaN,-0.696855,-1.481912,0.3963555,14.12706,NaN,NaN,-0.01407141,0.8163123,-9.880692E-08,1.078035,-1.433964E-08,1.338865
1014.419,-0.8457635,0.0007316065,NaN,-0.3602012,0.001334009,NaN,1.180088,-14.84202,NaN,-0.696855,-1.481912,0.3963555,14.12706,NaN,NaN,-0.01407141,0.8163123,-9.880692E-08,1.078035,-1.433964E-08,1.338865
1014.433,-0.8474802,0.0007316053,NaN,-0.3608028,0.001332692,NaN,1.181815,-14.84221,NaN,-0.7013435,-1.468024,0.3927953,14.11231,NaN,NaN,-0.01449499,0.8159579,-6.065995E-08,1.057764,-1.433964E-08,1.338201
1014.45,-0.8493378,0.0007320346,NaN,-0.3614526,0.001330007,NaN,1.183535,-14.84257,NaN,-0.7061085,-1.481602,0.3891173,14.12678,NaN,NaN,-0.01491019,0.8159306,-2.132089E-08,1.077588,-1.910801E-08,1.33873
1014.464,-0.8512755,0.000732135,NaN,-0.3621286,0.001327712,NaN,1.185147,-14.84222,NaN,-0.7109641,-1.471867,0.3854719,14.11639,NaN,NaN,-0.01531704,0.8161483,1.921027E-08,1.063374,-1.195545E-08,1.339651
1014.478,-0.8512755,0.000732135,NaN,-0.3621286,0.001327712,NaN,1.185147,-14.84222,NaN,-0.7109641,-1.471867,0.3854719,14.11639,NaN,NaN,-0.01531704,0.8161483,1.921027E-08,1.063374,-1.195545E-08,1.339651
1014.493,-0.8534681,0.0007322165,NaN,-0.3628944,0.001325491,NaN,1.186986,-14.84325,NaN,-0.7163096,-1.471739,0.3814033,14.11638,NaN,NaN,-0.01579948,0.8151072,6.093352E-08,1.063217,-1.076336E-08,1.343735
1014.508,-0.8558106,0.0007323032,NaN,-0.3637109,0.001323172,NaN,1.188789,-14.84305,NaN,-0.7219372,-1.470964,0.3772333,14.11553,NaN,NaN,-0.01627234,0.8152845,1.062331E-07,1.062081,-1.553173E-08,1.342506
1014.523,-0.8582371,0.00073205,NaN,-0.3645543,0.001323186,NaN,1.190459,-14.84334,NaN,-0.7276507,-1.471553,0.3731146,14.11619,NaN,NaN,-0.0167357,0.8149985,1.527247E-07,1.062947,-1.910801E-08,1.345176
1014.538,-0.8582371,0.00073205,NaN,-0.3645543,0.001323186,NaN,1.190459,-14.84334,NaN,-0.7276507,-1.471553,0.3731146,14.11619,NaN,NaN,-0.0167357,0.8149985,1.527247E-07,1.062947,-1.910801E-08,1.345176
1014.553,-0.8607057,0.0007325957,NaN,-0.3654101,0.001322949,NaN,1.191996,-14.84303,NaN,-0.7333564,-1.481908,0.3690909,14.12713,NaN,NaN,-0.01718975,0.8155213,1.944479E-07,1.07803,-1.553173E-08,1.344356
1014.569,-0.8634034,0.0007323268,NaN,-0.3663464,0.001326022,NaN,1.19376,-14.84192,NaN,-0.7394982,-1.468676,0.3646568,14.11295,NaN,NaN,-0.01771836,0.8164836,2.421316E-07,1.058706,-1.553173E-08,1.335834
1014.584,-0.8662326,0.0007323093,NaN,-0.3673269,0.001326858,NaN,1.195483,-14.84224,NaN,-0.7458906,-1.480958,0.360136,14.12605,NaN,NaN,-0.01823652,0.8164646,2.862391E-07,1.076645,-1.553173E-08,1.338745
1014.598,-0.8662326,0.0007323093,NaN,-0.3673269,0.001326858,NaN,1.195483,-14.84224,NaN,-0.7458906,-1.480958,0.360136,14.12605,NaN,NaN,-0.01823652,0.8164646,2.862391E-07,1.076645,-1.553173E-08,1.338745
1014.613,-0.8691321,0.000731758,NaN,-0.3683294,0.001327799,NaN,1.197076,-14.84152,NaN,-0.7523479,-1.474057,0.355678,14.11863,NaN,NaN,-0.0187443,0.8170918,3.291544E-07,1.066552,-1.195545E-08,1.334365
1014.629,-0.8720632,0.0007312239,NaN,-0.3693407,0.001328531,NaN,1.198536,-14.84237,NaN,-0.7587817,-1.468734,0.3513235,14.11305,NaN,NaN,-0.0192419,0.8161408,3.684935E-07,1.058795,-9.571265E-09,1.336123
1014.645,-0.8752151,0.0007311524,NaN,-0.3704295,0.001329678,NaN,1.20022,-14.84248,NaN,-0.7656378,-1.46685,0.3465547,14.11105,NaN,NaN,-0.01981314,0.8159773,4.149851E-07,1.056046,-9.571265E-09,1.338788
1014.658,-0.8752151,0.0007311524,NaN,-0.3704295,0.001329678,NaN,1.20022,-14.84248,NaN,-0.7656378,-1.46685,0.3465547,14.11105,NaN,NaN,-0.01981314,0.8159773,4.149851E-07,1.056046,-9.571265E-09,1.338788
1014.673,-0.8784912,0.0007310944,NaN,-0.3715598,0.001329584,NaN,1.201853,-14.84238,NaN,-0.7727322,-1.465862,0.3417135,14.10999,NaN,NaN,-0.02037308,0.8160449,4.614767E-07,1.0546,-1.314754E-08,1.334995
1014.688,-0.8818311,0.0007310541,NaN,-0.3727098,0.001328771,NaN,1.203348,-14.84394,NaN,-0.7798798,-1.477711,0.3369489,14.12279,NaN,NaN,-0.02092182,0.8148183,4.984316E-07,1.07195,-8.379172E-09,1.348272
1014.703,-0.8851967,0.0007314719,NaN,-0.3738663,0.001329024,NaN,1.204708,-14.84228,NaN,-0.7869927,-1.468386,0.3322984,14.11271,NaN,NaN,-0.0214596,0.8163263,5.341944E-07,1.058323,-5.994986E-09,1.336421
1014.718,-0.8851967,0.0007314719,NaN,-0.3738663,0.001329024,NaN,1.204708,-14.84228,NaN,-0.7869927,-1.468386,0.3322984,14.11271,NaN,NaN,-0.0214596,0.8163263,5.341944E-07,1.058323,-5.994986E-09,1.336421
1014.733,-0.8887779,0.0007321176,NaN,-0.3750984,0.001330209,NaN,1.206287,-14.84323,NaN,-0.7945167,-1.479841,0.3272293,14.12501,NaN,NaN,-0.02207012,0.8156686,5.80686E-07,1.075076,-4.802893E-09,1.344408
1014.749,-0.892478,0.0007324991,NaN,-0.3763701,0.001330385,NaN,1.207802,-14.84413,NaN,-0.802268,-1.47779,0.3221045,14.12293,NaN,NaN,-0.02266859,0.8147393,6.224092E-07,1.072102,-4.802893E-09,1.348429
1014.764,-0.8962368,0.0007320278,NaN,-0.3776595,0.001330458,NaN,1.209173,-14.84401,NaN,-0.8100619,-1.475726,0.3170711,14.12072,NaN,NaN,-0.02325511,0.8148332,6.677088E-07,1.069091,-5.994986E-09,1.346293
1014.78,-0.8962368,0.0007320278,NaN,-0.3776595,0.001330458,NaN,1.209173,-14.84401,NaN,-0.8100619,-1.475726,0.3170711,14.12072,NaN,NaN,-0.02325511,0.8148332,6.677088E-07,1.069091,-5.994986E-09,1.346293
1014.793,-0.9002301,0.0007309631,NaN,-0.3790305,0.00133066,NaN,1.210738,-14.84227,NaN,-0.8182966,-1.471217,0.311616,14.11575,NaN,NaN,-0.02391335,0.8164851,7.130083E-07,1.062477,-5.994986E-09,1.337121
1014.809,-0.9043524,0.0007304969,NaN,-0.3804438,0.00133015,NaN,1.212209,-14.84368,NaN,-0.8267663,-1.472908,0.3061276,14.11772,NaN,NaN,-0.02455857,0.815124,7.60692E-07,1.064991,-3.6108E-09,1.343457
1014.823,-0.9085376,0.0007296749,NaN,-0.3818758,0.001329264,NaN,1.213521,-14.84282,NaN,-0.8352759,-1.468239,0.3007505,14.11267,NaN,NaN,-0.02519092,0.8158864,8.059916E-07,1.058163,-3.6108E-09,1.338176
1014.839,-0.9085376,0.0007296749,NaN,-0.3818758,0.001329264,NaN,1.213521,-14.84282,NaN,-0.8352759,-1.468239,0.3007505,14.11267,NaN,NaN,-0.02519092,0.8158864,8.059916E-07,1.058163,-3.6108E-09,1.338176
1014.854,-0.9127445,0.0007295508,NaN,-0.3833123,0.001329631,NaN,1.214688,-14.84373,NaN,-0.8437334,-1.469713,0.2955123,14.11435,NaN,NaN,-0.02581064,0.8150227,8.465228E-07,1.060347,1.157571E-09,1.343171
1014.869,-0.9171613,0.000729514,NaN,-0.3848219,0.001329593,NaN,1.216062,-14.84289,NaN,-0.8525815,-1.481289,0.2898479,14.12652,NaN,NaN,-0.02650138,0.8161168,8.870539E-07,1.077195,-1.226614E-09,1.341731
1014.883,-0.92169,0.0007292926,NaN,-0.3863679,0.001330715,NaN,1.217344,-14.84282,NaN,-0.8616362,-1.468786,0.2841664,14.11322,NaN,NaN,-0.0271785,0.8160573,9.275851E-07,1.058944,1.157571E-09,1.337984
1014.898,-0.92169,0.0007292926,NaN,-0.3863679,0.001330715,NaN,1.217344,-14.84282,NaN,-0.8616362,-1.468786,0.2841664,14.11322,NaN,NaN,-0.0271785,0.8160573,9.275851E-07,1.058944,1.157571E-09,1.337984
1014.913,-0.9262692,0.000728586,NaN,-0.3879283,0.001329384,NaN,1.218474,-14.84345,NaN,-0.870713,-1.46852,0.2786066,14.11302,NaN,NaN,-0.02784212,0.8154268,9.681163E-07,1.058579,-3.45215E-11,1.341407
1014.929,-0.9308606,0.0007282523,NaN,-0.3894901,0.001330477,NaN,1.219471,-14.84412,NaN,-0.8797252,-1.469313,0.2731912,14.11394,NaN,NaN,-0.02849254,0.8147807,1.00984E-06,1.059759,-3.45215E-11,1.346078
1014.944,-0.9356548,0.0007288114,NaN,-0.3911226,0.00133255,NaN,1.220674,-14.84439,NaN,-0.889117,-1.470706,0.2673366,14.11545,NaN,NaN,-0.02921334,0.8145421,1.050371E-06,1.061797,-2.418707E-09,1.348283
1014.959,-0.9356548,0.0007288114,NaN,-0.3911226,0.00133255,NaN,1.220674,-14.84439,NaN,-0.889117,-1.470706,0.2673366,14.11545,NaN,NaN,-0.02921334,0.8145421,1.050371E-06,1.061797,-2.418707E-09,1.348283
1014.973,-0.9405546,0.0007286816,NaN,-0.3927893,0.001334402,NaN,1.221777,-14.84267,NaN,-0.8987057,-1.47993,0.2614853,14.12501,NaN,NaN,-0.02991992,0.8164481,1.096862E-06,1.075181,-5.398939E-09,1.340441
1014.989,-0.9454995,0.000728338,NaN,-0.3944686,0.001335724,NaN,1.22273,-14.84377,NaN,-0.9083079,-1.47203,0.2557688,14.11671,NaN,NaN,-0.03061245,0.8152469,1.137394E-06,1.063664,-9.571265E-09,1.340224
1015.004,-0.9504517,0.0007284,NaN,-0.3961475,0.001337046,NaN,1.223557,-14.84357,NaN,-0.9178375,-1.482375,0.250203,14.12766,NaN,NaN,-0.03129121,0.8156568,1.177925E-06,1.078737,-5.39894E-09,1.340933
1015.019,-0.9504517,0.0007284,NaN,-0.3961475,0.001337046,NaN,1.223557,-14.84357,NaN,-0.9178375,-1.482375,0.250203,14.12766,NaN,NaN,-0.03129121,0.8156568,1.177925E-06,1.078737,-5.39894E-09,1.340933
1015.035,-0.9556025,0.0007284236,NaN,-0.3978956,0.001338099,NaN,1.224588,-14.84301,NaN,-0.9277381,-1.48359,0.2441846,14.12889,NaN,NaN,-0.03203977,0.8162321,1.22084E-06,1.080496,-5.39894E-09,1.335968
1015.049,-0.9608546,0.0007285649,NaN,-0.3996764,0.001338745,NaN,1.22551,-14.843,NaN,-0.9378272,-1.478694,0.2381931,14.12366,NaN,NaN,-0.03277357,0.8161927,1.262563E-06,1.073336,-6.591033E-09,1.335682
1015.064,-0.9661477,0.0007287162,NaN,-0.4014681,0.001339139,NaN,1.226288,-14.84298,NaN,-0.9479222,-1.469452,0.2323484,14.11381,NaN,NaN,-0.03349279,0.8160797,1.305479E-06,1.059835,-3.610801E-09,1.330664
1015.079,-0.9661477,0.0007287162,NaN,-0.4014681,0.001339139,NaN,1.226288,-14.84298,NaN,-0.9479222,-1.469452,0.2323484,14.11381,NaN,NaN,-0.03349279,0.8160797,1.305479E-06,1.059835,-3.610801E-09,1.330664
1015.093,-0.9716589,0.000728238,NaN,-0.4033351,0.001338495,NaN,1.227244,-14.84296,NaN,-0.9584194,-1.47069,0.2260496,14.11511,NaN,NaN,-0.03428097,0.816137,1.347202E-06,1.061632,-4.206847E-09,1.331219
1015.108,-0.977282,0.0007289695,NaN,-0.4052376,0.001338061,NaN,1.22807,-14.84447,NaN,-0.9691147,-1.478073,0.2198064,14.12314,NaN,NaN,-0.0350536,0.8147904,1.393694E-06,1.07245,-3.610801E-09,1.341929
1015.123,-0.9829509,0.000730017,NaN,-0.4071522,0.001339307,NaN,1.228748,-14.84461,NaN,-0.9798153,-1.475723,0.2137251,14.12065,NaN,NaN,-0.03581089,0.8146153,1.427072E-06,1.069023,5.615246E-10,1.342623
1015.139,-0.9829509,0.000730017,NaN,-0.4071522,0.001339307,NaN,1.228748,-14.84461,NaN,-0.9798153,-1.475723,0.2137251,14.12065,NaN,NaN,-0.03581089,0.8146153,1.427072E-06,1.069023,5.615246E-10,1.342623
1015.153,-0.9886243,0.0007299521,NaN,-0.4090649,0.001341005,NaN,1.229308,-14.84332,NaN,-0.9904314,-1.468793,0.2078076,14.11315,NaN,NaN,-0.03655318,0.8157831,1.455682E-06,1.058889,2.349664E-09,1.333181
1015.169,-0.9944924,0.0007300496,NaN,-0.4110449,0.001341903,NaN,1.23006,-14.84319,NaN,-1.001403,-1.480527,0.2014164,14.12559,NaN,NaN,-0.03736397,0.8161982,1.489061E-06,1.075997,2.349664E-09,1.336107
1015.184,-1.000456,0.000730638,NaN,-0.413055,0.001343856,NaN,1.230689,-14.84343,NaN,-1.012547,-1.469171,0.1951029,14.11353,NaN,NaN,-0.03815876,0.8158175,1.524824E-06,1.05942,1.157571E-09,1.334246
1015.199,-1.000456,0.000730638,NaN,-0.413055,0.001343856,NaN,1.230689,-14.84343,NaN,-1.012547,-1.469171,0.1951029,14.11353,NaN,NaN,-0.03815876,0.8158175,1.524824E-06,1.05942,1.157571E-09,1.334246
1015.213,-1.006454,0.0007310852,NaN,-0.4150735,0.001346063,NaN,1.231184,-14.84415,NaN,-1.023681,-1.46928,0.1889555,14.11373,NaN,NaN,-0.03893782,0.8151032,1.554626E-06,1.0596,2.349664E-09,1.338176
1015.229,-1.012448,0.0007318627,NaN,-0.4170874,0.001346826,NaN,1.231577,-14.84484,NaN,-1.034721,-1.47843,0.1829713,14.12352,NaN,NaN,-0.03970147,0.8146274,1.582044E-06,1.07296,5.615247E-10,1.343548
1015.243,-1.01863,0.0007325484,NaN,-0.4191666,0.001347429,NaN,1.232157,-14.84386,NaN,-1.046108,-1.46847,0.176498,14.11285,NaN,NaN,-0.04053319,0.8154581,1.613039E-06,1.058425,5.615247E-10,1.335685
1015.266,-1.024903,0.0007332459,NaN,-0.4212741,0.001347851,NaN,1.232612,-14.8446,NaN,-1.05766,-1.469233,0.1701283,14.11375,NaN,NaN,-0.0413485,0.8147346,1.640457E-06,1.059564,-3.014754E-09,1.33961
1015.273,-1.024903,0.0007332459,NaN,-0.4212741,0.001347851,NaN,1.232612,-14.8446,NaN,-1.05766,-1.469233,0.1701283,14.11375,NaN,NaN,-0.0413485,0.8147346,1.640457E-06,1.059564,-3.014754E-09,1.33961
1015.288,-1.031205,0.0007341108,NaN,-0.4233884,0.001348757,NaN,1.232946,-14.8445,NaN,-1.069196,-1.467258,0.1639284,14.11164,NaN,NaN,-0.04214769,0.8147845,1.667875E-06,1.056682,-5.39894E-09,1.340061
1015.303,-1.037499,0.0007350103,NaN,-0.4254968,0.001349135,NaN,1.233189,-14.84584,NaN,-1.080633,-1.475105,0.1578911,14.12013,NaN,NaN,-0.04293111,0.8136535,1.691717E-06,1.068167,-7.187079E-09,1.347654
1015.318,-1.037499,0.0007350103,NaN,-0.4254968,0.001349135,NaN,1.233189,-14.84584,NaN,-1.080633,-1.475105,0.1578911,14.12013,NaN,NaN,-0.04293111,0.8136535,1.691717E-06,1.068167,-7.187079E-09,1.347654
1015.333,-1.043979,0.0007357661,NaN,-0.4276693,0.001349304,NaN,1.23361,-14.84515,NaN,-1.09241,-1.482149,0.1513528,14.1275,NaN,NaN,-0.04378219,0.8144594,1.715558E-06,1.078403,-6.293009E-09,1.34609
1015.348,-1.050545,0.0007372019,NaN,-0.4298689,0.001349362,NaN,1.233908,-14.84527,NaN,-1.104346,-1.484504,0.1449424,14.13001,NaN,NaN,-0.0446165,0.8143502,1.734632E-06,1.081841,-3.908823E-09,1.346099
1015.364,-1.057137,0.0007376325,NaN,-0.432074,0.001349267,NaN,1.234098,-14.84397,NaN,-1.116262,-1.474292,0.1387022,14.11906,NaN,NaN,-0.04543433,0.8155571,1.754898E-06,1.066947,-9.285914E-10,1.33677
1015.379,-1.057137,0.0007376325,NaN,-0.432074,0.001349267,NaN,1.234098,-14.84397,NaN,-1.116262,-1.474292,0.1387022,14.11906,NaN,NaN,-0.04543433,0.8155571,1.754898E-06,1.066947,-9.285914E-10,1.33677
1015.393,-1.063934,0.0007377978,NaN,-0.4343491,0.001349509,NaN,1.234441,-14.8442,NaN,-1.128551,-1.46849,0.1319634,14.11293,NaN,NaN,-0.04631913,0.8152285,1.778739E-06,1.058493,-3.908823E-09,1.336035
1015.408,-1.07083,0.0007383717,NaN,-0.4366543,0.001350545,NaN,1.234655,-14.84442,NaN,-1.141011,-1.48046,0.1253744,14.12566,NaN,NaN,-0.0471865,0.8152973,1.801389E-06,1.075956,-5.994986E-09,1.340691
1015.424,-1.077756,0.000738223,NaN,-0.438966,0.001351512,NaN,1.234766,-14.84398,NaN,-1.153451,-1.468439,0.1189595,14.11285,NaN,NaN,-0.04803675,0.8155915,1.81927E-06,1.058419,-5.100916E-09,1.334709
1015.438,-1.077756,0.000738223,NaN,-0.438966,0.001351512,NaN,1.234766,-14.84398,NaN,-1.153451,-1.468439,0.1189595,14.11285,NaN,NaN,-0.04803675,0.8155915,1.81927E-06,1.058419,-5.100916E-09,1.334709
1015.453,-1.084672,0.0007382123,NaN,-0.4412709,0.001352614,NaN,1.234799,-14.84472,NaN,-1.165785,-1.469711,0.1127085,14.11429,NaN,NaN,-0.04887027,0.8148839,1.83596E-06,1.060299,-6.591032E-09,1.339413
1015.468,-1.091772,0.000739219,NaN,-0.4436382,0.001353433,NaN,1.234984,-14.84464,NaN,-1.178447,-1.481721,0.1059512,14.12702,NaN,NaN,-0.04977043,0.8152412,1.851457E-06,1.0778,-8.677195E-09,1.341887
1015.483,-1.098953,0.000739689,NaN,-0.4460306,0.001355015,NaN,1.235055,-14.84372,NaN,-1.191256,-1.470112,0.09935468,14.1146,NaN,NaN,-0.05065287,0.8160413,1.868146E-06,1.060856,-7.038067E-09,1.334828
1015.498,-1.098953,0.000739689,NaN,-0.4460306,0.001355015,NaN,1.235055,-14.84372,NaN,-1.191256,-1.470112,0.09935468,14.1146,NaN,NaN,-0.05065287,0.8160413,1.868146E-06,1.060856,-7.038067E-09,1.334828
1015.513,-1.106155,0.0007399967,NaN,-0.4484262,0.001354622,NaN,1.23504,-14.84396,NaN,-1.204033,-1.470672,0.09292705,14.11522,NaN,NaN,-0.05151793,0.8158175,1.877683E-06,1.061684,-4.057835E-09,1.333755
1015.529,-1.113339,0.000740098,NaN,-0.4508126,0.001356728,NaN,1.23496,-14.84379,NaN,-1.216696,-1.468595,0.08665933,14.11299,NaN,NaN,-0.05236597,0.8159391,1.88722E-06,1.058649,-1.375626E-09,1.335677
1015.544,-1.120701,0.0007413453,NaN,-0.4532598,0.001358611,NaN,1.235015,-14.84498,NaN,-1.229681,-1.475163,0.07988667,14.12012,NaN,NaN,-0.05328038,0.8149176,1.897949E-06,1.068275,-3.325448E-10,1.343299
1015.558,-1.120701,0.0007413453,NaN,-0.4532598,0.001358611,NaN,1.235015,-14.84498,NaN,-1.229681,-1.475163,0.07988667,14.12012,NaN,NaN,-0.05328038,0.8149176,1.897949E-06,1.068275,-3.325448E-10,1.343299
1015.573,-1.12814,0.0007420628,NaN,-0.4557306,0.00135897,NaN,1.234972,-14.84507,NaN,-1.242807,-1.476195,0.07327995,14.12123,NaN,NaN,-0.05417679,0.8148496,1.906293E-06,1.069784,-4.070506E-10,1.341148
1015.589,-1.135595,0.0007427676,NaN,-0.4582034,0.001357922,NaN,1.234854,-14.84522,NaN,-1.255898,-1.482316,0.06683742,14.12774,NaN,NaN,-0.05505556,0.8148,1.912254E-06,1.078714,-1.487385E-09,1.343387
1015.603,-1.143029,0.0007433463,NaN,-0.4606659,0.001358805,NaN,1.234679,-14.84391,NaN,-1.26887,-1.472708,0.06055146,14.11742,NaN,NaN,-0.05591706,0.8160106,1.917022E-06,1.064692,-2.344201E-09,1.33289
1015.619,-1.143029,0.0007433463,NaN,-0.4606659,0.001358805,NaN,1.234679,-14.84391,NaN,-1.26887,-1.472708,0.06055146,14.11742,NaN,NaN,-0.05591706,0.8160106,1.917022E-06,1.064692,-2.344201E-09,1.33289
1015.634,-1.145383,0.0007431061,NaN,-0.4613368,0.001359288,NaN,1.230709,-14.84346,NaN,-1.270777,-1.470586,0.06935016,14.11511,NaN,NaN,-0.05485264,0.8164315,1.840728E-06,1.061585,2.219279E-09,1.330145
1015.648,-1.144611,0.0007422311,NaN,-0.4609627,0.001359625,NaN,1.227654,-14.8438,NaN,-1.265343,-1.46856,0.0778796,14.113,NaN,NaN,-0.05380885,0.8160551,1.765626E-06,1.058641,1.697739E-09,1.330283
1015.663,-1.141893,0.0007415062,NaN,-0.4599453,0.001359518,NaN,1.225153,-14.84377,NaN,-1.256432,-1.4808,0.08616896,14.12601,NaN,NaN,-0.05278542,0.8163857,1.702446E-06,1.076503,2.182027E-09,1.334498
1015.678,-1.141893,0.0007415062,NaN,-0.4599453,0.001359518,NaN,1.225153,-14.84377,NaN,-1.256432,-1.4808,0.08616896,14.12601,NaN,NaN,-0.05278542,0.8163857,1.702446E-06,1.076503,2.182027E-09,1.334498
1015.693,-1.138202,0.0007413325,NaN,-0.4586198,0.001359631,NaN,1.223164,-14.84473,NaN,-1.246398,-1.483237,0.09360155,14.1287,NaN,NaN,-0.05186505,0.8154528,1.644033E-06,1.080078,2.396231E-09,1.340585
1015.708,-1.133927,0.0007410621,NaN,-0.4571157,0.001359756,NaN,1.221369,-14.84339,NaN,-1.235996,-1.473971,0.1008582,14.11872,NaN,NaN,-0.05096272,0.8167037,1.593965E-06,1.066542,2.545242E-09,1.331663
1015.723,-1.129313,0.0007407091,NaN,-0.4555122,0.001358622,NaN,1.219705,-14.84356,NaN,-1.225496,-1.472774,0.1079545,14.11747,NaN,NaN,-0.05007808,0.816523,1.547473E-06,1.064804,-1.329059E-09,1.331716
1015.74,-1.129313,0.0007407091,NaN,-0.4555122,0.001358622,NaN,1.219705,-14.84356,NaN,-1.225496,-1.472774,0.1079545,14.11747,NaN,NaN,-0.05007808,0.816523,1.547473E-06,1.064804,-1.329059E-09,1.331716
1015.753,-1.12451,0.0007412703,NaN,-0.4538569,0.001359382,NaN,1.218133,-14.84454,NaN,-1.215028,-1.46972,0.1149002,14.11434,NaN,NaN,-0.04921076,0.8154902,1.500982E-06,1.060375,-1.925106E-09,1.337942
1015.768,-1.119832,0.0007415059,NaN,-0.4522557,0.001358168,NaN,1.216814,-14.84364,NaN,-1.205128,-1.467201,0.1210481,14.11156,NaN,NaN,-0.04844354,0.8163276,1.462835E-06,1.056676,-4.681821E-09,1.329318
1015.784,-1.11525,0.0007417679,NaN,-0.4506939,0.001356292,NaN,1.215512,-14.84414,NaN,-1.195669,-1.467235,0.1270669,14.11166,NaN,NaN,-0.04769135,0.8158309,1.423496E-06,1.056749,-3.936763E-09,1.331015
1015.798,-1.11525,0.0007417679,NaN,-0.4506939,0.001356292,NaN,1.215512,-14.84414,NaN,-1.195669,-1.467235,0.1270669,14.11166,NaN,NaN,-0.04769135,0.8158309,1.423496E-06,1.056749,-3.936763E-09,1.331015
1015.815,-1.110747,0.0007427543,NaN,-0.4491627,0.001354533,NaN,1.214229,-14.84409,NaN,-1.186492,-1.480709,0.132968,14.12597,NaN,NaN,-0.04695389,0.8162288,1.386541E-06,1.076408,-5.575891E-09,1.33489
1015.828,-1.106313,0.0007432379,NaN,-0.4476567,0.001355536,NaN,1.212966,-14.84516,NaN,-1.177519,-1.480405,0.1387541,14.12576,NaN,NaN,-0.04623087,0.815139,1.349586E-06,1.075982,-4.830833E-09,1.340006
1015.843,-1.102159,0.0007431003,NaN,-0.4462495,0.001355167,NaN,1.21193,-14.84419,NaN,-1.169186,-1.476018,0.1437708,14.12099,NaN,NaN,-0.04560514,0.8160325,1.320976E-06,1.069565,-6.022925E-09,1.330247
1015.858,-1.102159,0.0007431003,NaN,-0.4462495,0.001355167,NaN,1.21193,-14.84419,NaN,-1.169186,-1.476018,0.1437708,14.12099,NaN,NaN,-0.04560514,0.8160325,1.320976E-06,1.069565,-6.022925E-09,1.330247
1015.872,-1.098195,0.0007432894,NaN,-0.4449077,0.001355138,NaN,1.210876,-14.8435,NaN,-1.161317,-1.474484,0.1486798,14.11928,NaN,NaN,-0.04499166,0.8166857,1.291173E-06,1.06731,-1.123833E-08,1.32499
1015.888,-1.094366,0.0007433385,NaN,-0.443611,0.001354994,NaN,1.209817,-14.84516,NaN,-1.153729,-1.478048,0.1534975,14.12327,NaN,NaN,-0.04439019,0.8150837,1.256603E-06,1.07256,-1.049327E-08,1.334931
1015.903,-1.090637,0.0007436396,NaN,-0.4423471,0.001355998,NaN,1.208763,-14.84371,NaN,-1.146333,-1.467685,0.1582243,14.11211,NaN,NaN,-0.04380049,0.81638,1.22084E-06,1.057421,-6.320948E-09,1.324353
1015.919,-1.090637,0.0007436396,NaN,-0.4423471,0.001355998,NaN,1.208763,-14.84371,NaN,-1.146333,-1.467685,0.1582243,14.11211,NaN,NaN,-0.04380049,0.81638,1.22084E-06,1.057421,-6.320948E-09,1.324353
1015.933,-1.087204,0.0007437549,NaN,-0.4411856,0.001355941,NaN,1.207941,-14.84469,NaN,-1.13956,-1.47172,0.1622045,14.11653,NaN,NaN,-0.04330549,0.8154961,1.194614E-06,1.063348,-3.340716E-09,1.329816
1015.948,-1.083968,0.0007440077,NaN,-0.4400907,0.001355434,NaN,1.207091,-14.84521,NaN,-1.133231,-1.47886,0.1660901,14.12417,NaN,NaN,-0.04282019,0.8151215,1.168388E-06,1.073777,2.355629E-10,1.335343
1015.963,-1.080868,0.0007442007,NaN,-0.4390409,0.001355444,NaN,1.206227,-14.84537,NaN,-1.127161,-1.47989,0.1699063,14.12528,NaN,NaN,-0.04234438,0.8149642,1.143354E-06,1.075281,8.316093E-10,1.336365
1015.978,-1.080868,0.0007442007,NaN,-0.4390409,0.001355444,NaN,1.206227,-14.84537,NaN,-1.127161,-1.47989,0.1699063,14.12528,NaN,NaN,-0.04234438,0.8149642,1.143354E-06,1.075281,8.316093E-10,1.336365
1015.992,-1.078083,0.0007438782,NaN,-0.4380998,0.001354774,NaN,1.205589,-14.84362,NaN,-1.121737,-1.471005,0.1729977,14.11567,NaN,NaN,-0.04196104,0.8165984,1.11832E-06,1.062297,1.725679E-09,1.326767
1016.009,-1.075505,0.0007439716,NaN,-0.4372286,0.001354976,NaN,1.204914,-14.84424,NaN,-1.116756,-1.481975,0.1760075,14.12741,NaN,NaN,-0.04158521,0.8162122,1.099246E-06,1.078332,3.513818E-09,1.331446
1016.023,-1.073066,0.000743444,NaN,-0.4364034,0.001357247,NaN,1.204215,-14.84445,NaN,-1.112025,-1.468512,0.1789669,14.11311,NaN,NaN,-0.04121673,0.8158751,1.082557E-06,1.058677,2.917772E-09,1.331156
1016.038,-1.073066,0.000743444,NaN,-0.4364034,0.001357247,NaN,1.204215,-14.84445,NaN,-1.112025,-1.468512,0.1789669,14.11311,NaN,NaN,-0.04121673,0.8158751,1.082557E-06,1.058677,2.917772E-09,1.331156
1016.052,-1.070724,0.0007431873,NaN,-0.4356098,0.001357217,NaN,1.203509,-14.84345,NaN,-1.107449,-1.466694,0.1818744,14.11104,NaN,NaN,-0.04085545,0.8168265,1.064676E-06,1.055989,4.109864E-09,1.320751
1016.068,-1.06867,0.0007430822,NaN,-0.4349159,0.001356087,NaN,1.203042,-14.84423,NaN,-1.103457,-1.480356,0.1840765,14.12569,NaN,NaN,-0.04058443,0.8164072,1.050371E-06,1.075971,4.109864E-09,1.329032
1016.083,-1.066803,0.0007421514,NaN,-0.4342855,0.001356195,NaN,1.202537,-14.84307,NaN,-1.099869,-1.468626,0.1862063,14.11309,NaN,NaN,-0.04031872,0.8174172,1.03845E-06,1.058821,3.513818E-09,1.320158
1016.098,-1.066803,0.0007421514,NaN,-0.4342855,0.001356195,NaN,1.202537,-14.84307,NaN,-1.099869,-1.468626,0.1862063,14.11309,NaN,NaN,-0.04031872,0.8174172,1.03845E-06,1.058821,3.513818E-09,1.320158
1016.112,-1.06506,0.000741401,NaN,-0.4336965,0.001356146,NaN,1.202005,-14.84321,NaN,-1.096499,-1.481136,0.1883036,14.12643,NaN,NaN,-0.04005819,0.8175836,1.022952E-06,1.077104,6.792074E-09,1.323781
1016.128,-1.063402,0.000741019,NaN,-0.4331353,0.001358001,NaN,1.201461,-14.84326,NaN,-1.09326,-1.469467,0.1903664,14.11399,NaN,NaN,-0.03980275,0.817398,1.007455E-06,1.060042,8.282189E-09,1.319386
1016.143,-1.062021,0.0007403948,NaN,-0.4326705,0.001358812,NaN,1.201159,-14.84386,NaN,-1.090584,-1.46827,0.1917435,14.11278,NaN,NaN,-0.03963551,0.8167797,9.979184E-07,1.05831,9.176259E-09,1.323315
1016.158,-1.062021,0.0007403948,NaN,-0.4326705,0.001358812,NaN,1.201159,-14.84386,NaN,-1.090584,-1.46827,0.1917435,14.11278,NaN,NaN,-0.03963551,0.8167797,9.979184E-07,1.05831,9.176259E-09,1.323315
1016.172,-1.060817,0.0007404114,NaN,-0.4322666,0.001358111,NaN,1.200815,-14.84503,NaN,-1.08829,-1.473217,0.1930591,14.11819,NaN,NaN,-0.03947154,0.8157369,9.883817E-07,1.065577,1.126242E-08,1.330539
1016.188,-1.05973,0.0007402855,NaN,-0.4319015,0.001358176,NaN,1.200437,-14.84555,NaN,-1.086196,-1.477153,0.1943591,14.12243,NaN,NaN,-0.03931076,0.8152884,9.752687E-07,1.071332,1.662684E-08,1.335844
1016.203,-1.058719,0.0007402016,NaN,-0.4315619,0.001359854,NaN,1.200043,-14.84425,NaN,-1.084212,-1.468066,0.1956416,14.11264,NaN,NaN,-0.03915311,0.8164515,9.657319E-07,1.058051,1.513672E-08,1.326302
1016.219,-1.058719,0.0007402016,NaN,-0.4315619,0.001359854,NaN,1.200043,-14.84425,NaN,-1.084212,-1.468066,0.1956416,14.11264,NaN,NaN,-0.03915311,0.8164515,9.657319E-07,1.058051,1.513672E-08,1.326302
1016.232,-1.057977,0.000740117,NaN,-0.4313163,0.001360932,NaN,1.19989,-14.84497,NaN,-1.082772,-1.468197,0.1962563,14.11287,NaN,NaN,-0.03908175,0.8157393,9.621557E-07,1.058266,1.394463E-08,1.329778
1016.248,-1.057406,0.0007399521,NaN,-0.4311293,0.001361259,NaN,1.19969,-14.8442,NaN,-1.081696,-1.480425,0.1968215,14.12576,NaN,NaN,-0.03901178,0.8168007,9.609636E-07,1.076076,1.424265E-08,1.329915
1016.263,-1.056944,0.0007401372,NaN,-0.4309791,0.001361623,NaN,1.19945,-14.84423,NaN,-1.080801,-1.47156,0.197387,14.11632,NaN,NaN,-0.03894316,0.8166628,9.585793E-07,1.063127,1.215649E-08,1.326469
1016.278,-1.056944,0.0007401372,NaN,-0.4309791,0.001361623,NaN,1.19945,-14.84423,NaN,-1.080801,-1.47156,0.197387,14.11632,NaN,NaN,-0.03894316,0.8166628,9.585793E-07,1.063127,1.215649E-08,1.326469
1016.292,-1.056769,0.0007400463,NaN,-0.4309291,0.001359969,NaN,1.199436,-14.84516,NaN,-1.080474,-1.474263,0.1973039,14.11931,NaN,NaN,-0.03895906,0.8157998,9.597715E-07,1.067104,1.305056E-08,1.332208
1016.308,-1.056773,0.0007394305,NaN,-0.4309401,0.001359206,NaN,1.199364,-14.84411,NaN,-1.080514,-1.469707,0.1971872,14.11434,NaN,NaN,-0.03897464,0.8167634,9.573872E-07,1.060429,1.662684E-08,1.325908
1016.323,-1.056888,0.0007398486,NaN,-0.4309886,0.001359911,NaN,1.199243,-14.84569,NaN,-1.080727,-1.474084,0.1970869,14.1192,NaN,NaN,-0.03898987,0.8152868,9.585793E-07,1.066874,1.632882E-08,1.336035
1016.338,-1.056888,0.0007398486,NaN,-0.4309886,0.001359911,NaN,1.199243,-14.84569,NaN,-1.080727,-1.474084,0.1970869,14.1192,NaN,NaN,-0.03898987,0.8152868,9.585793E-07,1.066874,1.632882E-08,1.336035
1016.352,-1.057073,0.0007402133,NaN,-0.43106,0.001359863,NaN,1.199093,-14.84459,NaN,-1.081021,-1.482534,0.1969997,14.12804,NaN,NaN,-0.03900478,0.8165419,9.573872E-07,1.07917,1.722288E-08,1.332024
1016.368,-1.057517,0.0007403562,NaN,-0.4312221,0.001360208,NaN,1.199175,-14.84387,NaN,-1.081826,-1.472385,0.1962749,14.11716,NaN,NaN,-0.03910259,0.8171656,9.693082E-07,1.064338,1.126242E-08,1.325903
1016.383,-1.05812,0.0007402013,NaN,-0.4314391,0.001357394,NaN,1.199199,-14.84451,NaN,-1.082962,-1.482398,0.1955285,14.12791,NaN,NaN,-0.03919847,0.8167321,9.740766E-07,1.078992,1.275254E-08,1.331374
1016.398,-1.05812,0.0007402013,NaN,-0.4314391,0.001357394,NaN,1.199199,-14.84451,NaN,-1.082962,-1.482398,0.1955285,14.12791,NaN,NaN,-0.03919847,0.8167321,9.740766E-07,1.078992,1.275254E-08,1.331374
1016.413,-1.058821,0.0007393167,NaN,-0.4316888,0.001354061,NaN,1.199172,-14.84502,NaN,-1.084245,-1.470879,0.1948111,14.1157,NaN,NaN,-0.03929243,0.8161125,9.776528E-07,1.062178,1.48387E-08,1.331257
1016.428,-1.059579,0.0007386798,NaN,-0.4319572,0.001352692,NaN,1.199115,-14.84392,NaN,-1.085588,-1.475905,0.1941194,14.12093,NaN,NaN,-0.03938452,0.817301,9.859974E-07,1.069489,8.580212E-09,1.327359
1016.443,-1.060587,0.0007383105,NaN,-0.4323129,0.001350557,NaN,1.199283,-14.84439,NaN,-1.087424,-1.468006,0.1928016,14.11257,NaN,NaN,-0.03955798,0.8167037,9.94342E-07,1.057967,1.007033E-08,1.325011
1016.458,-1.060587,0.0007383105,NaN,-0.4323129,0.001350557,NaN,1.199283,-14.84439,NaN,-1.087424,-1.468006,0.1928016,14.11257,NaN,NaN,-0.03955798,0.8167037,9.94342E-07,1.057967,1.007033E-08,1.325011
1016.472,-1.061746,0.0007384788,NaN,-0.4327203,0.001347549,NaN,1.199389,-14.8453,NaN,-1.089574,-1.481646,0.1914773,14.12722,NaN,NaN,-0.03972803,0.8161294,1.006263E-06,1.077926,9.772306E-09,1.330861
1016.488,-1.062994,0.0007383113,NaN,-0.4331572,0.001345158,NaN,1.199441,-14.8443,NaN,-1.091855,-1.47026,0.1901946,14.11501,NaN,NaN,-0.0398947,0.8169965,1.014608E-06,1.061296,8.580213E-09,1.326623
1016.503,-1.064292,0.0007385379,NaN,-0.4336101,0.001344859,NaN,1.199458,-14.84539,NaN,-1.094181,-1.469088,0.1889498,14.1139,NaN,NaN,-0.04005808,0.8158731,1.020568E-06,1.05962,1.156045E-08,1.331751
1016.518,-1.064292,0.0007385379,NaN,-0.4336101,0.001344859,NaN,1.199458,-14.84539,NaN,-1.094181,-1.469088,0.1889498,14.1139,NaN,NaN,-0.04005808,0.8158731,1.020568E-06,1.05962,1.156045E-08,1.331751
1016.532,-1.065833,0.0007383257,NaN,-0.4341478,0.001342895,NaN,1.199694,-14.84546,NaN,-1.096985,-1.467012,0.1870888,14.1117,NaN,NaN,-0.04030142,0.8157539,1.030105E-06,1.056596,1.305056E-08,1.329948
1016.548,-1.067518,0.0007380967,NaN,-0.4347344,0.001340229,NaN,1.199862,-14.8458,NaN,-1.100087,-1.480801,0.1852375,14.1264,NaN,NaN,-0.04053997,0.8157604,1.043218E-06,1.076724,9.17626E-09,1.333321
1016.563,-1.069286,0.0007379412,NaN,-0.4353479,0.001338236,NaN,1.199973,-14.84536,NaN,-1.103307,-1.470041,0.1834395,14.11492,NaN,NaN,-0.04077379,0.8160652,1.053947E-06,1.061017,1.09644E-08,1.330953
1016.578,-1.069286,0.0007379412,NaN,-0.4353479,0.001338236,NaN,1.199973,-14.84536,NaN,-1.103307,-1.470041,0.1834395,14.11492,NaN,NaN,-0.04077379,0.8160652,1.053947E-06,1.061017,1.09644E-08,1.330953
1016.594,-1.071315,0.000738213,NaN,-0.4360521,0.001336791,NaN,1.200283,-14.84679,NaN,-1.107031,-1.476427,0.1810391,14.12188,NaN,NaN,-0.04108619,0.8147791,1.065868E-06,1.070382,1.305056E-08,1.34057
1016.608,-1.073497,0.0007387293,NaN,-0.4368078,0.001335042,NaN,1.200513,-14.84554,NaN,-1.11106,-1.4832,0.1786669,14.12892,NaN,NaN,-0.04139242,0.8161227,1.077789E-06,1.080227,1.334858E-08,1.334215
1016.623,-1.075765,0.0007392861,NaN,-0.437591,0.001334499,NaN,1.200679,-14.84464,NaN,-1.115201,-1.471118,0.1763609,14.11598,NaN,NaN,-0.0416926,0.8168989,1.087325E-06,1.06258,1.424265E-08,1.326341
1016.638,-1.075765,0.0007392861,NaN,-0.437591,0.001334499,NaN,1.200679,-14.84464,NaN,-1.115201,-1.471118,0.1763609,14.11598,NaN,NaN,-0.0416926,0.8168989,1.087325E-06,1.06258,1.424265E-08,1.326341
1016.652,-1.078076,0.0007393,NaN,-0.4383873,0.001334335,NaN,1.200801,-14.84483,NaN,-1.119362,-1.467994,0.1741156,14.11268,NaN,NaN,-0.04198685,0.8166465,1.096862E-06,1.05802,1.647783E-08,1.325791
1016.668,-1.080623,0.0007394311,NaN,-0.4392649,0.001332466,NaN,1.201124,-14.84482,NaN,-1.123974,-1.465976,0.1712724,14.11053,NaN,NaN,-0.04235848,0.8165987,1.113551E-06,1.055076,1.588178E-08,1.324096
1016.683,-1.083304,0.0007401452,NaN,-0.4401873,0.00133142,NaN,1.201369,-14.84558,NaN,-1.128859,-1.480078,0.1684723,14.12563,NaN,NaN,-0.04272279,0.8162162,1.127857E-06,1.075694,1.468969E-08,1.333616
1016.7,-1.083304,0.0007401452,NaN,-0.4401873,0.00133142,NaN,1.201369,-14.84558,NaN,-1.128859,-1.480078,0.1684723,14.12563,NaN,NaN,-0.04272279,0.8162162,1.127857E-06,1.075694,1.468969E-08,1.333616
1016.712,-1.086057,0.0007408481,NaN,-0.4411324,0.001330748,NaN,1.201552,-14.84556,NaN,-1.133834,-1.483142,0.1657465,14.12889,NaN,NaN,-0.04307991,0.8162654,1.138585E-06,1.080167,1.513673E-08,1.333605
1016.728,-1.088843,0.000740688,NaN,-0.4420867,0.001331563,NaN,1.201691,-14.8446,NaN,-1.138812,-1.476171,0.1630896,14.12137,NaN,NaN,-0.04342999,0.817155,1.15289E-06,1.069972,1.468969E-08,1.325259
1016.743,-1.091855,0.0007402095,NaN,-0.4431194,0.001331547,NaN,1.202022,-14.84391,NaN,-1.144228,-1.468007,0.1598413,14.11259,NaN,NaN,-0.04385633,0.8177144,1.166003E-06,1.058026,1.379562E-08,1.320193
1016.758,-1.091855,0.0007402095,NaN,-0.4431194,0.001331547,NaN,1.202022,-14.84391,NaN,-1.144228,-1.468007,0.1598413,14.11259,NaN,NaN,-0.04385633,0.8177144,1.166003E-06,1.058026,1.379562E-08,1.320193
1016.772,-1.094995,0.0007403489,NaN,-0.4441941,0.00133186,NaN,1.202273,-14.84597,NaN,-1.149901,-1.472789,0.1566521,14.11795,NaN,NaN,-0.04427427,0.8157846,1.17554E-06,1.06509,1.707388E-08,1.331061
1016.789,-1.098199,0.000740757,NaN,-0.4452891,0.001332447,NaN,1.202462,-14.84459,NaN,-1.155653,-1.46732,0.153545,14.11197,NaN,NaN,-0.04468396,0.8170473,1.189845E-06,1.057071,1.34976E-08,1.323645
1016.803,-1.101431,0.0007408201,NaN,-0.4463911,0.001332528,NaN,1.202607,-14.84484,NaN,-1.161396,-1.466413,0.1505147,14.11104,NaN,NaN,-0.04508559,0.8167663,1.201766E-06,1.055756,1.200748E-08,1.32213
1016.818,-1.101431,0.0007408201,NaN,-0.4463911,0.001332528,NaN,1.202607,-14.84484,NaN,-1.161396,-1.466413,0.1505147,14.11104,NaN,NaN,-0.04508559,0.8167663,1.201766E-06,1.055756,1.200748E-08,1.32213
1016.832,-1.104884,0.0007410322,NaN,-0.4475694,0.001331345,NaN,1.202932,-14.84561,NaN,-1.167565,-1.480446,0.1469001,14.12607,NaN,NaN,-0.04556246,0.8163733,1.217264E-06,1.076277,1.103891E-08,1.32977
1016.848,-1.108458,0.0007403666,NaN,-0.4487877,0.001332539,NaN,1.203176,-14.84494,NaN,-1.17398,-1.466933,0.1433595,14.11162,NaN,NaN,-0.04602993,0.81688,1.233953E-06,1.056533,1.126242E-08,1.323169
1016.863,-1.112092,0.0007402291,NaN,-0.4500242,0.001332538,NaN,1.203359,-14.84577,NaN,-1.180461,-1.480051,0.1399079,14.12569,NaN,NaN,-0.04648819,0.8163835,1.244682E-06,1.075722,1.074088E-08,1.332025
1016.878,-1.112092,0.0007402291,NaN,-0.4500242,0.001332538,NaN,1.203359,-14.84577,NaN,-1.180461,-1.480051,0.1399079,14.12569,NaN,NaN,-0.04648819,0.8163835,1.244682E-06,1.075722,1.074088E-08,1.332025
1016.893,-1.115966,0.000739985,NaN,-0.451343,0.001332203,NaN,1.203701,-14.84477,NaN,-1.187397,-1.470659,0.1358839,14.11559,NaN,NaN,-0.04702056,0.8172467,1.261371E-06,1.061988,1.29388E-08,1.323725
1016.908,-1.119972,0.0007393025,NaN,-0.4527045,0.001329955,NaN,1.203956,-14.84547,NaN,-1.194588,-1.466482,0.1319489,14.11123,NaN,NaN,-0.04754244,0.8164573,1.274484E-06,1.055908,1.398188E-08,1.327017
1016.923,-1.124042,0.0007389317,NaN,-0.4540851,0.001328511,NaN,1.204146,-14.8466,NaN,-1.201842,-1.471775,0.1281121,14.117,NaN,NaN,-0.04805404,0.815466,1.289981E-06,1.063677,1.342309E-08,1.333191
1016.938,-1.124042,0.0007389317,NaN,-0.4540851,0.001328511,NaN,1.204146,-14.8466,NaN,-1.201842,-1.471775,0.1281121,14.117,NaN,NaN,-0.04805404,0.815466,1.289981E-06,1.063677,1.342309E-08,1.333191
1016.953,-1.128134,0.000739122,NaN,-0.4554706,0.001328825,NaN,1.204289,-14.8457,NaN,-1.209071,-1.46624,0.1243678,14.11102,NaN,NaN,-0.04855557,0.8162464,1.298326E-06,1.055579,1.430319E-08,1.327932
1016.968,-1.132442,0.0007396766,NaN,-0.4569297,0.001328998,NaN,1.204586,-14.84619,NaN,-1.216704,-1.480217,0.1200572,14.12594,NaN,NaN,-0.04913035,0.8161284,1.315015E-06,1.075995,1.369783E-08,1.3348
1016.984,-1.136863,0.0007400365,NaN,-0.4584256,0.001329581,NaN,1.204804,-14.84629,NaN,-1.224561,-1.482969,0.1158451,14.12887,NaN,NaN,-0.04969381,0.8160545,1.330512E-06,1.080012,1.094112E-08,1.335763
1016.998,-1.136863,0.0007400365,NaN,-0.4584256,0.001329581,NaN,1.204804,-14.84629,NaN,-1.224561,-1.482969,0.1158451,14.12887,NaN,NaN,-0.04969381,0.8160545,1.330512E-06,1.080012,1.094112E-08,1.335763
1017.012,-1.141336,0.0007399081,NaN,-0.4599364,0.001330066,NaN,1.204963,-14.84538,NaN,-1.232465,-1.476231,0.1117352,14.12161,NaN,NaN,-0.05024618,0.8168944,1.343625E-06,1.07016,9.898034E-09,1.32829
