JMolnar6/NonAnthroHands_User_Study/HandsLoggerWithURDF/tempdata/files/Reachy_PID0_JointMotion_gesture_13_65.csv
Time,r_shoulder,r_shoulder_x,r_upper_arm,r_forearm,r_wrist,r_wrist2hand,
903.7169,-0.2167769,3.637798E-09,NaN,-0.4720506,-1.318538E-07,NaN,-0.01971788,-5.883648E-07,NaN,-0.6730524,2.421585E-05,0.0002153403,1.370372E-07,NaN,NaN,0.1834097,6.519126E-11,-5.245528E-07,-1.096516E-07,-1.39134E-09,-2.861022E-08
903.7316,-0.2173584,3.638418E-09,NaN,-0.4702848,-1.318539E-07,NaN,-0.01837763,-5.883937E-07,NaN,-0.6703369,2.421623E-05,0.002726934,1.370672E-07,NaN,NaN,0.1825297,6.519126E-11,-5.179963E-07,-1.096516E-07,4.569124E-09,-2.622604E-08
903.7464,-0.2179539,3.639038E-09,NaN,-0.4684749,-1.31854E-07,NaN,-0.01703236,-5.884219E-07,NaN,-0.6675434,2.421661E-05,0.005482318,1.370966E-07,NaN,NaN,0.1816671,6.519126E-11,-5.209765E-07,-1.096516E-07,1.052959E-08,-2.861022E-08
903.7609,-0.2185553,3.639658E-09,NaN,-0.4666459,-1.31854E-07,NaN,-0.01558839,-5.884496E-07,NaN,-0.6647387,2.421698E-05,0.0082622,1.371254E-07,NaN,NaN,0.1808214,6.519126E-11,-5.239568E-07,-1.096516E-07,1.172168E-08,-2.622604E-08
903.7769,-0.2185553,3.639658E-09,NaN,-0.4666459,-1.31854E-07,NaN,-0.01558839,-5.884496E-07,NaN,-0.6647387,2.421698E-05,0.0082622,1.371254E-07,NaN,NaN,0.1808214,6.519126E-11,-5.239568E-07,-1.096516E-07,1.172168E-08,-2.622604E-08
903.7911,-0.2191578,3.640278E-09,NaN,-0.4648134,-1.318541E-07,NaN,-0.01405145,-5.884766E-07,NaN,-0.6619541,2.421736E-05,0.01098976,1.371536E-07,NaN,NaN,0.1799923,6.053464E-11,-5.257449E-07,-1.096516E-07,1.887424E-08,-2.861022E-08
903.8053,-0.219725,3.640898E-09,NaN,-0.4630914,-1.318542E-07,NaN,-0.01215068,-5.88503E-07,NaN,-0.6597271,2.421774E-05,0.01294552,1.371812E-07,NaN,NaN,0.1794936,6.053464E-11,-5.27533E-07,-1.096515E-07,2.125842E-08,-2.622604E-08
903.8202,-0.220268,3.641519E-09,NaN,-0.4614452,-1.318543E-07,NaN,-0.01023084,-5.885288E-07,NaN,-0.6576564,2.421812E-05,0.01454467,1.372082E-07,NaN,NaN,0.1790046,6.053464E-11,-5.245528E-07,-1.096515E-07,2.721889E-08,-2.861022E-08
903.8347,-0.220268,3.641519E-09,NaN,-0.4614452,-1.318543E-07,NaN,-0.01023084,-5.885288E-07,NaN,-0.6576564,2.421812E-05,0.01454467,1.372082E-07,NaN,NaN,0.1790046,6.053464E-11,-5.245528E-07,-1.096515E-07,2.721889E-08,-2.861022E-08
903.8488,-0.2207938,3.642139E-09,NaN,-0.4598528,-1.318544E-07,NaN,-0.008408275,-5.885541E-07,NaN,-0.6556768,2.421849E-05,0.01601061,1.372347E-07,NaN,NaN,0.1785252,6.053464E-11,-5.209765E-07,-1.096515E-07,2.602679E-08,-2.622604E-08
903.8643,-0.2213067,3.642759E-09,NaN,-0.4583007,-1.318545E-07,NaN,-0.006691907,-5.885789E-07,NaN,-0.6537568,2.421887E-05,0.01742623,1.372606E-07,NaN,NaN,0.1780552,6.053464E-11,-5.1442E-07,-1.096515E-07,2.721889E-08,-2.861022E-08
903.8804,-0.2217761,3.643379E-09,NaN,-0.4568848,-1.318545E-07,NaN,-0.004753586,-5.886002E-07,NaN,-0.652405,2.421925E-05,0.01812045,1.372832E-07,NaN,NaN,0.1779086,6.053464E-11,-5.120358E-07,-1.096515E-07,3.079516E-08,-2.622604E-08
903.8939,-0.2217761,3.643379E-09,NaN,-0.4568848,-1.318545E-07,NaN,-0.004753586,-5.886002E-07,NaN,-0.652405,2.421925E-05,0.01812045,1.372832E-07,NaN,NaN,0.1779086,6.053464E-11,-5.120358E-07,-1.096515E-07,3.079516E-08,-2.622604E-08
903.9078,-0.2222167,3.644E-09,NaN,-0.4555591,-1.318546E-07,NaN,-0.002892489,-5.886212E-07,NaN,-0.651206,2.421962E-05,0.01851374,1.373052E-07,NaN,NaN,0.1777648,6.053464E-11,-5.060753E-07,-1.096515E-07,3.437144E-08,-2.861022E-08
903.9233,-0.2226376,3.64462E-09,NaN,-0.4542947,-1.318547E-07,NaN,-0.001188062,-5.886416E-07,NaN,-0.6500878,2.422E-05,0.01882076,1.373269E-07,NaN,NaN,0.1776238,6.053464E-11,-4.989228E-07,-1.096515E-07,3.556353E-08,-2.622604E-08
903.9381,-0.2226376,3.64462E-09,NaN,-0.4542947,-1.318547E-07,NaN,-0.001188062,-5.886416E-07,NaN,-0.6500878,2.422E-05,0.01882076,1.373269E-07,NaN,NaN,0.1776238,6.053464E-11,-4.989228E-07,-1.096515E-07,3.556353E-08,-2.622604E-08
903.9524,-0.2230113,3.64524E-09,NaN,-0.4531784,-1.318548E-07,NaN,0.0006847102,-5.886616E-07,NaN,-0.6495405,2.422037E-05,0.01842012,1.37348E-07,NaN,NaN,0.1777998,6.984786E-11,-4.935583E-07,-1.096514E-07,3.794772E-08,-2.861022E-08
903.9679,-0.2233541,3.645861E-09,NaN,-0.4521582,-1.318549E-07,NaN,0.002436354,-5.886812E-07,NaN,-0.6491393,2.422074E-05,0.01774631,1.373687E-07,NaN,NaN,0.1779722,6.984786E-11,-4.810414E-07,-1.096514E-07,4.033191E-08,-2.622604E-08
903.9829,-0.2236764,3.646481E-09,NaN,-0.4512016,-1.31855E-07,NaN,0.004000709,-5.887003E-07,NaN,-0.6488081,2.422111E-05,0.01701489,1.37389E-07,NaN,NaN,0.1781412,7.916109E-11,-4.691204E-07,-1.096514E-07,3.913982E-08,-2.861022E-08
903.9973,-0.2236764,3.646481E-09,NaN,-0.4512016,-1.31855E-07,NaN,0.004000709,-5.887003E-07,NaN,-0.6488081,2.422111E-05,0.01701489,1.37389E-07,NaN,NaN,0.1781412,7.916109E-11,-4.691204E-07,-1.096514E-07,3.913982E-08,-2.861022E-08
904.0139,-0.2239845,3.647101E-09,NaN,-0.4502886,-1.318551E-07,NaN,0.005403537,-5.88719E-07,NaN,-0.6485106,2.422149E-05,0.01629791,1.374088E-07,NaN,NaN,0.178307,7.916109E-11,-4.560074E-07,-1.096514E-07,4.033191E-08,-2.622604E-08
904.027,-0.2242494,3.647721E-09,NaN,-0.4495111,-1.318551E-07,NaN,0.006997347,-5.887372E-07,NaN,-0.648755,2.422186E-05,0.01491873,1.374282E-07,NaN,NaN,0.1787836,7.916109E-11,-4.50643E-07,-1.096514E-07,3.556354E-08,-2.861022E-08
904.0418,-0.2244863,3.648341E-09,NaN,-0.4488205,-1.318552E-07,NaN,0.008493055,-5.887551E-07,NaN,-0.6491243,2.422223E-05,0.01328938,1.374472E-07,NaN,NaN,0.1792509,8.847431E-11,-4.387221E-07,-1.096514E-07,3.794772E-08,-2.622604E-08
904.0566,-0.2244863,3.648341E-09,NaN,-0.4488205,-1.318552E-07,NaN,0.008493055,-5.887551E-07,NaN,-0.6491243,2.422223E-05,0.01328938,1.374472E-07,NaN,NaN,0.1792509,8.847431E-11,-4.387221E-07,-1.096514E-07,3.794772E-08,-2.622604E-08
904.0706,-0.2247047,3.648961E-09,NaN,-0.4481866,-1.318553E-07,NaN,0.00981776,-5.887725E-07,NaN,-0.6495467,2.422261E-05,0.01161822,1.374658E-07,NaN,NaN,0.1797089,8.847431E-11,-4.25013E-07,-1.096514E-07,3.317935E-08,-2.861022E-08
904.0862,-0.2249108,3.649582E-09,NaN,-0.4475904,-1.318554E-07,NaN,0.01099047,-5.887896E-07,NaN,-0.649988,2.422299E-05,0.009975918,1.37484E-07,NaN,NaN,0.180158,8.847431E-11,-4.119E-07,-1.096513E-07,2.48347E-08,-2.622604E-08
904.1008,-0.2250751,3.650202E-09,NaN,-0.4471248,-1.318555E-07,NaN,0.0123553,-5.888062E-07,NaN,-0.6509574,2.422337E-05,0.007688181,1.375018E-07,NaN,NaN,0.1809125,8.847431E-11,-4.047475E-07,-1.096513E-07,3.079517E-08,-2.861022E-08
904.1157,-0.2250751,3.650202E-09,NaN,-0.4471248,-1.318555E-07,NaN,0.0123553,-5.888062E-07,NaN,-0.6509574,2.422337E-05,0.007688181,1.375018E-07,NaN,NaN,0.1809125,8.847431E-11,-4.047475E-07,-1.096513E-07,3.079517E-08,-2.861022E-08
904.1297,-0.2252128,3.650822E-09,NaN,-0.4467418,-1.318556E-07,NaN,0.01362154,-5.888225E-07,NaN,-0.6520385,2.422375E-05,0.005165911,1.375192E-07,NaN,NaN,0.1816521,8.38177E-11,-3.904424E-07,-1.096513E-07,3.079517E-08,-2.622604E-08
904.1453,-0.2253332,3.651442E-09,NaN,-0.4464113,-1.318557E-07,NaN,0.01471435,-5.888384E-07,NaN,-0.6531594,2.422414E-05,0.002617893,1.375363E-07,NaN,NaN,0.1823772,7.916108E-11,-3.767333E-07,-1.096513E-07,3.913982E-08,-2.861022E-08
904.16,-0.2253332,3.651442E-09,NaN,-0.4464113,-1.318557E-07,NaN,0.01471435,-5.888384E-07,NaN,-0.6531594,2.422414E-05,0.002617893,1.375363E-07,NaN,NaN,0.1823772,7.916108E-11,-3.767333E-07,-1.096513E-07,3.913982E-08,-2.861022E-08
904.1741,-0.2254092,3.652062E-09,NaN,-0.4462194,-1.318557E-07,NaN,0.01595324,-5.888539E-07,NaN,-0.6548114,2.422452E-05,-0.0005751615,1.37553E-07,NaN,NaN,0.1834023,7.450447E-11,-3.618321E-07,-1.096513E-07,3.675563E-08,-2.622604E-08
904.1896,-0.2254572,3.652682E-09,NaN,-0.4461139,-1.318558E-07,NaN,0.01705388,-5.888691E-07,NaN,-0.6565693,2.422491E-05,-0.00398552,1.375693E-07,NaN,NaN,0.1844072,6.984785E-11,-3.46931E-07,-1.096513E-07,3.437145E-08,-2.861022E-08
904.2045,-0.2254875,3.653303E-09,NaN,-0.4460621,-1.318559E-07,NaN,0.01795115,-5.888839E-07,NaN,-0.6583577,2.42253E-05,-0.007399574,1.375853E-07,NaN,NaN,0.1853924,6.519123E-11,-3.254733E-07,-1.096513E-07,3.317935E-08,-2.622604E-08
904.2197,-0.2254875,3.653303E-09,NaN,-0.4460621,-1.318559E-07,NaN,0.01795115,-5.888839E-07,NaN,-0.6583577,2.42253E-05,-0.007399574,1.375853E-07,NaN,NaN,0.1853924,6.519123E-11,-3.254733E-07,-1.096513E-07,3.317935E-08,-2.622604E-08
904.2335,-0.2255065,3.653923E-09,NaN,-0.4460437,-1.31856E-07,NaN,0.01867206,-5.888984E-07,NaN,-0.6601414,2.422568E-05,-0.0107467,1.376009E-07,NaN,NaN,0.1863583,6.053462E-11,-3.099761E-07,-1.096513E-07,2.841098E-08,-2.861022E-08
904.2502,-0.2254865,3.654544E-09,NaN,-0.4461494,-1.318561E-07,NaN,0.0195526,-5.889125E-07,NaN,-0.662428,2.422607E-05,-0.01469811,1.376162E-07,NaN,NaN,0.1876195,5.587801E-11,-2.950749E-07,-1.096513E-07,2.721889E-08,-2.622604E-08
904.2636,-0.2254423,3.655164E-09,NaN,-0.4463313,-1.318562E-07,NaN,0.02031475,-5.889264E-07,NaN,-0.6648015,2.422645E-05,-0.01884985,1.376311E-07,NaN,NaN,0.1888559,5.12214E-11,-2.783856E-07,-1.096513E-07,2.721889E-08,-2.861022E-08
904.2784,-0.2254423,3.655164E-09,NaN,-0.4463313,-1.318562E-07,NaN,0.02031475,-5.889264E-07,NaN,-0.6648015,2.422645E-05,-0.01884985,1.376311E-07,NaN,NaN,0.1888559,5.12214E-11,-2.783856E-07,-1.096513E-07,2.721889E-08,-2.861022E-08
904.2926,-0.2253829,3.655785E-09,NaN,-0.4465594,-1.318563E-07,NaN,0.02088766,-5.889398E-07,NaN,-0.667191,2.422684E-05,-0.02299352,1.376458E-07,NaN,NaN,0.190068,4.656478E-11,-2.57524E-07,-1.096513E-07,2.841098E-08,-2.622604E-08
904.308,-0.2253145,3.656405E-09,NaN,-0.446815,-1.318563E-07,NaN,0.0212925,-5.88953E-07,NaN,-0.6695634,2.422722E-05,-0.02705931,1.376601E-07,NaN,NaN,0.1912564,4.190817E-11,-2.408347E-07,-1.096513E-07,2.364261E-08,-2.861022E-08
904.3228,-0.2252074,3.657026E-09,NaN,-0.4471911,-1.318564E-07,NaN,0.02184959,-5.889658E-07,NaN,-0.6724275,2.422761E-05,-0.03171739,1.37674E-07,NaN,NaN,0.1927356,3.725156E-11,-2.259335E-07,-1.096512E-07,2.245052E-08,-2.622604E-08
904.3374,-0.2252074,3.657026E-09,NaN,-0.4471911,-1.318564E-07,NaN,0.02184959,-5.889658E-07,NaN,-0.6724275,2.422761E-05,-0.03171739,1.37674E-07,NaN,NaN,0.1927356,3.725156E-11,-2.259335E-07,-1.096512E-07,2.245052E-08,-2.622604E-08
904.353,-0.2250768,3.657646E-09,NaN,-0.4476397,-1.318565E-07,NaN,0.02228471,-5.889783E-07,NaN,-0.6753674,2.422799E-05,-0.03656476,1.376877E-07,NaN,NaN,0.1941858,3.259495E-11,-2.056679E-07,-1.096512E-07,2.841098E-08,-2.861022E-08
904.3672,-0.2249319,3.658267E-09,NaN,-0.4481311,-1.318566E-07,NaN,0.02252676,-5.889905E-07,NaN,-0.6783122,2.422838E-05,-0.04139093,1.377011E-07,NaN,NaN,0.1956076,2.793834E-11,-1.871905E-07,-1.096512E-07,2.841098E-08,-2.622604E-08
904.3818,-0.2247788,3.658888E-09,NaN,-0.4486467,-1.318567E-07,NaN,0.02259737,-5.890025E-07,NaN,-0.6812297,2.422877E-05,-0.04612557,1.377142E-07,NaN,NaN,0.1970015,2.328172E-11,-1.68117E-07,-1.096512E-07,2.245052E-08,-2.861022E-08
904.3966,-0.2247788,3.658888E-09,NaN,-0.4486467,-1.318567E-07,NaN,0.02259737,-5.890025E-07,NaN,-0.6812297,2.422877E-05,-0.04612557,1.377142E-07,NaN,NaN,0.1970015,2.328172E-11,-1.68117E-07,-1.096512E-07,2.245052E-08,-2.861022E-08
904.4107,-0.2245881,3.659509E-09,NaN,-0.4492795,-1.318567E-07,NaN,0.02280357,-5.890141E-07,NaN,-0.6846277,2.422915E-05,-0.05143746,1.37727E-07,NaN,NaN,0.1986823,1.862511E-11,-1.54408E-07,-1.096512E-07,1.768215E-08,-2.622604E-08
904.4261,-0.2243747,3.66013E-09,NaN,-0.4499818,-1.318568E-07,NaN,0.0228803,-5.890255E-07,NaN,-0.6880907,2.422954E-05,-0.05692662,1.377395E-07,NaN,NaN,0.2003301,1.862511E-11,-1.341424E-07,-1.096512E-07,1.529796E-08,-2.861022E-08
904.441,-0.2241482,3.660752E-09,NaN,-0.4507236,-1.318569E-07,NaN,0.02275865,-5.890366E-07,NaN,-0.6915486,2.422992E-05,-0.06238103,1.377517E-07,NaN,NaN,0.2019456,1.862511E-11,-1.144729E-07,-1.096512E-07,1.887424E-08,-2.622604E-08
904.456,-0.2241482,3.660752E-09,NaN,-0.4507236,-1.318569E-07,NaN,0.02275865,-5.890366E-07,NaN,-0.6915486,2.422992E-05,-0.06238103,1.377517E-07,NaN,NaN,0.2019456,1.862511E-11,-1.144729E-07,-1.096512E-07,1.887424E-08,-2.622604E-08
904.4698,-0.2238812,3.661373E-09,NaN,-0.4515913,-1.318569E-07,NaN,0.02271726,-5.890474E-07,NaN,-0.6954909,2.423031E-05,-0.06841442,1.377636E-07,NaN,NaN,0.2038435,1.862511E-11,-9.83796E-08,-1.096512E-07,1.529796E-08,-2.861022E-08
904.4875,-0.2235902,3.661994E-09,NaN,-0.4525324,-1.31857E-07,NaN,0.02250481,-5.890579E-07,NaN,-0.699494,2.423069E-05,-0.07461067,1.377753E-07,NaN,NaN,0.2057043,1.862511E-11,-7.692193E-08,-1.096512E-07,1.887424E-08,-2.622604E-08
904.501,-0.2232854,3.662616E-09,NaN,-0.4535147,-1.318571E-07,NaN,0.02206478,-5.890682E-07,NaN,-0.7034845,2.423108E-05,-0.08075217,1.377868E-07,NaN,NaN,0.2075286,1.862511E-11,-5.486821E-08,-1.096512E-07,1.768215E-08,-2.861022E-08
904.5149,-0.2232854,3.662616E-09,NaN,-0.4535147,-1.318571E-07,NaN,0.02206478,-5.890682E-07,NaN,-0.7034845,2.423108E-05,-0.08075217,1.377868E-07,NaN,NaN,0.2075286,1.862511E-11,-5.486821E-08,-1.096512E-07,1.768215E-08,-2.861022E-08
904.5289,-0.2229735,3.663237E-09,NaN,-0.4545178,-1.318571E-07,NaN,0.02143111,-5.890782E-07,NaN,-0.7074292,2.423147E-05,-0.08676903,1.377979E-07,NaN,NaN,0.2093172,1.862511E-11,-3.132438E-08,-1.096512E-07,2.48347E-08,-2.622604E-08
904.5441,-0.2226252,3.663858E-09,NaN,-0.455634,-1.318572E-07,NaN,0.02088931,-5.89088E-07,NaN,-0.7118333,2.423185E-05,-0.0933304,1.378088E-07,NaN,NaN,0.2113848,1.862511E-11,-1.701926E-08,-1.096512E-07,1.887424E-08,-2.861022E-08
904.5588,-0.2226252,3.663858E-09,NaN,-0.455634,-1.318572E-07,NaN,0.02088931,-5.89088E-07,NaN,-0.7118333,2.423185E-05,-0.0933304,1.378088E-07,NaN,NaN,0.2113848,1.862511E-11,-1.701926E-08,-1.096512E-07,1.887424E-08,-2.861022E-08
904.5732,-0.2222557,3.66448E-09,NaN,-0.4568148,-1.318573E-07,NaN,0.02019853,-5.890975E-07,NaN,-0.7162821,2.423224E-05,-0.1000429,1.378195E-07,NaN,NaN,0.2134119,1.862511E-11,6.822596E-09,-1.096512E-07,2.006633E-08,-2.622604E-08
904.5884,-0.2218747,3.665101E-09,NaN,-0.45803,-1.318574E-07,NaN,0.01929764,-5.891067E-07,NaN,-0.7207068,2.423262E-05,-0.1066925,1.378299E-07,NaN,NaN,0.2153993,1.862511E-11,3.275062E-08,-1.096512E-07,2.125843E-08,-2.861022E-08
904.6032,-0.2214882,3.665723E-09,NaN,-0.4592609,-1.318574E-07,NaN,0.01821565,-5.891158E-07,NaN,-0.7250762,2.423301E-05,-0.1132096,1.378401E-07,NaN,NaN,0.2173477,1.862511E-11,5.510236E-08,-1.096511E-07,1.649006E-08,-2.622604E-08
904.6181,-0.2214882,3.665723E-09,NaN,-0.4592609,-1.318574E-07,NaN,0.01821565,-5.891158E-07,NaN,-0.7250762,2.423301E-05,-0.1132096,1.378401E-07,NaN,NaN,0.2173477,1.862511E-11,5.510236E-08,-1.096511E-07,1.649006E-08,-2.622604E-08
904.632,-0.2210666,3.666345E-09,NaN,-0.4606007,-1.318575E-07,NaN,0.01721473,-5.891246E-07,NaN,-0.7298947,2.423339E-05,-0.1202625,1.378501E-07,NaN,NaN,0.219572,1.862511E-11,7.268573E-08,-1.096511E-07,1.887424E-08,-2.861022E-08
904.6475,-0.2206251,3.666966E-09,NaN,-0.4620014,-1.318576E-07,NaN,0.01606431,-5.891332E-07,NaN,-0.7347491,2.423378E-05,-0.1274593,1.378598E-07,NaN,NaN,0.2217527,1.862511E-11,9.265328E-08,-1.096511E-07,1.649006E-08,-2.622604E-08
904.6622,-0.220173,3.667588E-09,NaN,-0.4634333,-1.318576E-07,NaN,0.01470504,-5.891415E-07,NaN,-0.7395713,2.423416E-05,-0.1345829,1.378693E-07,NaN,NaN,0.2238908,1.862511E-11,1.185813E-07,-1.096511E-07,1.410587E-08,-2.861022E-08
904.6771,-0.220173,3.667588E-09,NaN,-0.4634333,-1.318576E-07,NaN,0.01470504,-5.891415E-07,NaN,-0.7395713,2.423416E-05,-0.1345829,1.378693E-07,NaN,NaN,0.2238908,1.862511E-11,1.185813E-07,-1.096511E-07,1.410587E-08,-2.861022E-08
904.6913,-0.2196832,3.66821E-09,NaN,-0.4649826,-1.318577E-07,NaN,0.01336976,-5.891496E-07,NaN,-0.7448469,2.423455E-05,-0.1422457,1.378786E-07,NaN,NaN,0.2263009,1.862511E-11,1.385489E-07,-1.096511E-07,1.529796E-08,-2.622604E-08
904.7069,-0.2191719,3.668832E-09,NaN,-0.4665971,-1.318578E-07,NaN,0.01184625,-5.891575E-07,NaN,-0.7501556,2.423494E-05,-0.1500388,1.378876E-07,NaN,NaN,0.228664,1.862511E-11,1.626887E-07,-1.096511E-07,1.410587E-08,-2.861022E-08
904.7214,-0.2186496,3.669454E-09,NaN,-0.4682445,-1.318579E-07,NaN,0.01008954,-5.891652E-07,NaN,-0.7554265,2.423532E-05,-0.1577395,1.378965E-07,NaN,NaN,0.2309807,1.862511E-11,1.889148E-07,-1.096511E-07,1.172168E-08,-2.622604E-08
904.7374,-0.2186496,3.669454E-09,NaN,-0.4682445,-1.318579E-07,NaN,0.01008954,-5.891652E-07,NaN,-0.7554265,2.423532E-05,-0.1577395,1.378965E-07,NaN,NaN,0.2309807,1.862511E-11,1.889148E-07,-1.096511E-07,1.172168E-08,-2.622604E-08
904.7515,-0.2181227,3.670076E-09,NaN,-0.4699048,-1.318579E-07,NaN,0.008141179,-5.891727E-07,NaN,-0.7606277,2.423571E-05,-0.1652787,1.379051E-07,NaN,NaN,0.2332521,1.862511E-11,2.163329E-07,-1.096511E-07,1.172168E-08,-2.861022E-08
904.766,-0.2175618,3.670698E-09,NaN,-0.4716701,-1.31858E-07,NaN,0.006233005,-5.8918E-07,NaN,-0.7662591,2.423609E-05,-0.1733274,1.379136E-07,NaN,NaN,0.2357928,1.862511E-11,2.348104E-07,-1.096511E-07,1.052959E-08,-2.622604E-08
904.7804,-0.2169822,3.67132E-09,NaN,-0.473492,-1.318581E-07,NaN,0.004164177,-5.891871E-07,NaN,-0.77191,2.423648E-05,-0.1814978,1.379218E-07,NaN,NaN,0.2382839,1.862511E-11,2.601423E-07,-1.096511E-07,6.953313E-09,-2.861022E-08
904.7951,-0.2169822,3.67132E-09,NaN,-0.473492,-1.318581E-07,NaN,0.004164177,-5.891871E-07,NaN,-0.77191,2.423648E-05,-0.1814978,1.379218E-07,NaN,NaN,0.2382839,1.862511E-11,2.601423E-07,-1.096511E-07,6.953313E-09,-2.861022E-08
904.8092,-0.2163937,3.671942E-09,NaN,-0.4753406,-1.318581E-07,NaN,0.001885118,-5.89194E-07,NaN,-0.7775135,2.423686E-05,-0.1895699,1.379298E-07,NaN,NaN,0.2407262,1.862511E-11,2.836862E-07,-1.096511E-07,9.3375E-09,-2.622604E-08
904.8267,-0.215802,3.672564E-09,NaN,-0.4771972,-1.318582E-07,NaN,-0.0005676912,-5.892007E-07,NaN,-0.7830405,2.423725E-05,-0.1974748,1.379377E-07,NaN,NaN,0.2431207,1.862511E-11,3.078261E-07,-1.096511E-07,1.052959E-08,-2.861022E-08
904.8398,-0.215802,3.672564E-09,NaN,-0.4771972,-1.318582E-07,NaN,-0.0005676912,-5.892007E-07,NaN,-0.7830405,2.423725E-05,-0.1974748,1.379377E-07,NaN,NaN,0.2431207,1.862511E-11,3.078261E-07,-1.096511E-07,1.052959E-08,-2.861022E-08
904.8536,-0.2151774,3.673186E-09,NaN,-0.4791551,-1.318583E-07,NaN,-0.002989958,-5.892072E-07,NaN,-0.7889883,2.423764E-05,-0.205884,1.379453E-07,NaN,NaN,0.245782,1.862511E-11,3.271976E-07,-1.096511E-07,9.3375E-09,-2.622604E-08
904.8691,-0.2145353,3.673809E-09,NaN,-0.4811664,-1.318584E-07,NaN,-0.005569275,-5.892135E-07,NaN,-0.7949488,2.423802E-05,-0.2144092,1.379528E-07,NaN,NaN,0.2483915,1.862511E-11,3.546157E-07,-1.096511E-07,6.953314E-09,-2.861022E-08
904.8837,-0.2138851,3.674431E-09,NaN,-0.4832015,-1.318584E-07,NaN,-0.008352065,-5.892196E-07,NaN,-0.8008564,2.423841E-05,-0.2228271,1.379601E-07,NaN,NaN,0.2509498,1.862511E-11,3.820338E-07,-1.09651E-07,4.569128E-09,-2.622604E-08
904.8986,-0.2138851,3.674431E-09,NaN,-0.4832015,-1.318584E-07,NaN,-0.008352065,-5.892196E-07,NaN,-0.8008564,2.423841E-05,-0.2228271,1.379601E-07,NaN,NaN,0.2509498,1.862511E-11,3.820338E-07,-1.09651E-07,4.569128E-09,-2.622604E-08
904.9128,-0.2131991,3.675054E-09,NaN,-0.4853467,-1.318585E-07,NaN,-0.01116158,-5.892256E-07,NaN,-0.8071895,2.423879E-05,-0.2317531,1.379673E-07,NaN,NaN,0.2537718,1.862511E-11,4.014053E-07,-1.09651E-07,-1.391336E-09,-2.861022E-08
904.9283,-0.212494,3.675676E-09,NaN,-0.4875498,-1.318586E-07,NaN,-0.01416243,-5.892314E-07,NaN,-0.8135342,2.423918E-05,-0.2407808,1.379742E-07,NaN,NaN,0.2565388,1.862511E-11,4.309096E-07,-1.09651E-07,9.928498E-10,-2.622604E-08
904.9429,-0.2117802,3.676298E-09,NaN,-0.4897786,-1.318586E-07,NaN,-0.01738477,-5.89237E-07,NaN,-0.8198221,2.423956E-05,-0.2496819,1.37981E-07,NaN,NaN,0.2592515,1.862511E-11,4.574337E-07,-1.09651E-07,-1.391336E-09,-2.861022E-08
904.9577,-0.2117802,3.676298E-09,NaN,-0.4897786,-1.318586E-07,NaN,-0.01738477,-5.89237E-07,NaN,-0.8198221,2.423956E-05,-0.2496819,1.37981E-07,NaN,NaN,0.2592515,1.862511E-11,4.574337E-07,-1.09651E-07,-1.391336E-09,-2.861022E-08
904.9718,-0.211064,3.676921E-09,NaN,-0.4920132,-1.318587E-07,NaN,-0.02077914,-5.892425E-07,NaN,-0.826023,2.423995E-05,-0.2583893,1.379876E-07,NaN,NaN,0.2619111,1.862511E-11,4.833618E-07,-1.09651E-07,-1.391336E-09,-2.622604E-08
904.9882,-0.2103158,3.677544E-09,NaN,-0.4943458,-1.318588E-07,NaN,-0.02417813,-5.892477E-07,NaN,-0.832628,2.424033E-05,-0.2675805,1.379941E-07,NaN,NaN,0.2648323,1.862511E-11,5.036273E-07,-1.09651E-07,-4.967615E-09,-2.861022E-08
905.0021,-0.2095511,3.678166E-09,NaN,-0.4967283,-1.318589E-07,NaN,-0.02773565,-5.892529E-07,NaN,-0.8392332,2.424072E-05,-0.2768671,1.380004E-07,NaN,NaN,0.2676965,1.862511E-11,5.289593E-07,-1.09651E-07,-6.159707E-09,-2.622604E-08
905.0168,-0.2095511,3.678166E-09,NaN,-0.4967283,-1.318589E-07,NaN,-0.02773565,-5.892529E-07,NaN,-0.8392332,2.424072E-05,-0.2768671,1.380004E-07,NaN,NaN,0.2676965,1.862511E-11,5.289593E-07,-1.09651E-07,-6.159707E-09,-2.622604E-08
905.0306,-0.2087795,3.678789E-09,NaN,-0.4991305,-1.318589E-07,NaN,-0.03148682,-5.892579E-07,NaN,-0.8457743,2.424111E-05,-0.2860232,1.380065E-07,NaN,NaN,0.2705046,1.862511E-11,5.575695E-07,-1.09651E-07,-8.543893E-09,-2.861022E-08
905.046,-0.2080069,3.679412E-09,NaN,-0.5015342,-1.31859E-07,NaN,-0.03538771,-5.892627E-07,NaN,-0.8522234,2.424149E-05,-0.2949817,1.380125E-07,NaN,NaN,0.2732577,1.862511E-11,5.820074E-07,-1.09651E-07,-1.092808E-08,-2.622604E-08
905.0607,-0.2072033,3.680034E-09,NaN,-0.5040324,-1.318591E-07,NaN,-0.03930151,-5.892674E-07,NaN,-0.8590682,2.424188E-05,-0.3044224,1.380184E-07,NaN,NaN,0.2762705,1.862511E-11,6.006339E-07,-1.09651E-07,-9.735985E-09,-2.861022E-08
905.0754,-0.2072033,3.680034E-09,NaN,-0.5040324,-1.318591E-07,NaN,-0.03930151,-5.892674E-07,NaN,-0.8590682,2.424188E-05,-0.3044224,1.380184E-07,NaN,NaN,0.2762705,1.862511E-11,6.006339E-07,-1.09651E-07,-9.735985E-09,-2.861022E-08
905.0894,-0.2063842,3.680657E-09,NaN,-0.5065776,-1.318591E-07,NaN,-0.04336661,-5.892719E-07,NaN,-0.8659087,2.424226E-05,-0.3139529,1.38024E-07,NaN,NaN,0.2792245,1.862511E-11,6.27903E-07,-1.09651E-07,-1.092808E-08,-2.622604E-08
905.1048,-0.2055589,3.68128E-09,NaN,-0.50914,-1.318592E-07,NaN,-0.04761378,-5.892763E-07,NaN,-0.8726814,2.424265E-05,-0.3233444,1.380296E-07,NaN,NaN,0.2821207,1.862511E-11,6.584503E-07,-1.09651E-07,-1.212017E-08,-2.861022E-08
905.1197,-0.2055589,3.68128E-09,NaN,-0.50914,-1.318592E-07,NaN,-0.04761378,-5.892763E-07,NaN,-0.8726814,2.424265E-05,-0.3233444,1.380296E-07,NaN,NaN,0.2821207,1.862511E-11,6.584503E-07,-1.09651E-07,-1.212017E-08,-2.861022E-08
905.1338,-0.2046997,3.681903E-09,NaN,-0.5118061,-1.318593E-07,NaN,-0.0519301,-5.892805E-07,NaN,-0.8798551,2.424303E-05,-0.3332213,1.38035E-07,NaN,NaN,0.2852739,1.862511E-11,6.761827E-07,-1.09651E-07,-9.735984E-09,-2.622604E-08
905.1492,-0.2038233,3.682526E-09,NaN,-0.5145237,-1.318594E-07,NaN,-0.0564268,-5.892846E-07,NaN,-0.8870253,2.424342E-05,-0.3431717,1.380402E-07,NaN,NaN,0.2883655,1.862511E-11,7.024087E-07,-1.09651E-07,-9.735984E-09,-2.861022E-08
905.1639,-0.2029402,3.683149E-09,NaN,-0.5172608,-1.318594E-07,NaN,-0.06111706,-5.892886E-07,NaN,-0.8941258,2.42438E-05,-0.3529636,1.380454E-07,NaN,NaN,0.2913966,2.328172E-11,7.30721E-07,-1.096509E-07,-1.212017E-08,-2.622604E-08
905.1788,-0.2029402,3.683149E-09,NaN,-0.5172608,-1.318594E-07,NaN,-0.06111706,-5.892886E-07,NaN,-0.8941258,2.42438E-05,-0.3529636,1.380454E-07,NaN,NaN,0.2913966,2.328172E-11,7.30721E-07,-1.096509E-07,-1.212017E-08,-2.622604E-08
905.193,-0.2020567,3.683772E-09,NaN,-0.5199975,-1.318595E-07,NaN,-0.06594466,-5.892924E-07,NaN,-0.9011279,2.424417E-05,-0.3625337,1.380504E-07,NaN,NaN,0.2943682,2.793834E-11,7.576921E-07,-1.096509E-07,-1.092808E-08,-2.861022E-08
905.2084,-0.2011428,3.684395E-09,NaN,-0.5228263,-1.318596E-07,NaN,-0.07081495,-5.892961E-07,NaN,-0.9085106,2.424454E-05,-0.3725713,1.380552E-07,NaN,NaN,0.2975953,3.259495E-11,7.785537E-07,-1.096509E-07,-1.212017E-08,-2.622604E-08
905.2231,-0.2002142,3.685018E-09,NaN,-0.5256988,-1.318596E-07,NaN,-0.07582995,-5.892997E-07,NaN,-0.9158806,2.424492E-05,-0.3826776,1.380599E-07,NaN,NaN,0.3007593,3.725156E-11,8.023956E-07,-1.096509E-07,-7.351798E-09,-2.861022E-08
905.2389,-0.2002142,3.685018E-09,NaN,-0.5256988,-1.318596E-07,NaN,-0.07582995,-5.892997E-07,NaN,-0.9158806,2.424492E-05,-0.3826776,1.380599E-07,NaN,NaN,0.3007593,3.725156E-11,8.023956E-07,-1.096509E-07,-7.351798E-09,-2.861022E-08
905.2531,-0.1992807,3.685641E-09,NaN,-0.5285851,-1.318597E-07,NaN,-0.08100803,-5.893032E-07,NaN,-0.9231754,2.424528E-05,-0.392623,1.380646E-07,NaN,NaN,0.3038614,4.656479E-11,8.304098E-07,-1.096509E-07,-1.992411E-10,-2.622604E-08
905.2675,-0.198348,3.686264E-09,NaN,-0.5314669,-1.318598E-07,NaN,-0.08629901,-5.893065E-07,NaN,-0.9303684,2.424565E-05,-0.4023446,1.38069E-07,NaN,NaN,0.3069027,5.587801E-11,8.568593E-07,-1.096509E-07,2.184945E-09,-2.861022E-08
905.2823,-0.1973859,3.686886E-09,NaN,-0.5344377,-1.318598E-07,NaN,-0.09164087,-5.893097E-07,NaN,-0.9379343,2.424603E-05,-0.4125346,1.380734E-07,NaN,NaN,0.310198,5.587801E-11,8.762308E-07,-1.096509E-07,1.588898E-09,-2.622604E-08
905.298,-0.1973859,3.686886E-09,NaN,-0.5344377,-1.318598E-07,NaN,-0.09164087,-5.893097E-07,NaN,-0.9379343,2.424603E-05,-0.4125346,1.380734E-07,NaN,NaN,0.310198,5.587801E-11,8.762308E-07,-1.096509E-07,1.588898E-09,-2.622604E-08
905.3108,-0.1964099,3.687509E-09,NaN,-0.5374495,-1.318599E-07,NaN,-0.09711798,-5.893128E-07,NaN,-0.9454849,2.42464E-05,-0.4227869,1.380776E-07,NaN,NaN,0.313429,5.587801E-11,8.997002E-07,-1.096509E-07,-1.992411E-10,-2.861022E-08
905.3262,-0.1954296,3.688131E-09,NaN,-0.5404729,-1.3186E-07,NaN,-0.1027434,-5.893157E-07,NaN,-0.9529588,2.424677E-05,-0.4328702,1.380818E-07,NaN,NaN,0.3165967,6.519123E-11,9.276026E-07,-1.096509E-07,3.968054E-10,-2.622604E-08
905.341,-0.1944508,3.688754E-09,NaN,-0.5434899,-1.318601E-07,NaN,-0.1084656,-5.893186E-07,NaN,-0.9603292,2.424715E-05,-0.4427234,1.380858E-07,NaN,NaN,0.3197023,6.519123E-11,9.531581E-07,-1.096509E-07,3.973084E-09,-2.861022E-08
905.3559,-0.1944508,3.688754E-09,NaN,-0.5434899,-1.318601E-07,NaN,-0.1084656,-5.893186E-07,NaN,-0.9603292,2.424715E-05,-0.4427234,1.380858E-07,NaN,NaN,0.3197023,6.519123E-11,9.531581E-07,-1.096509E-07,3.973084E-09,-2.861022E-08
905.3699,-0.193443,3.689377E-09,NaN,-0.546594,-1.318601E-07,NaN,-0.1142512,-5.893213E-07,NaN,-0.9680659,2.424752E-05,-0.4530439,1.380897E-07,NaN,NaN,0.3230606,6.984785E-11,9.700709E-07,-1.096509E-07,5.165177E-09,-2.622604E-08
905.3856,-0.1924219,3.689999E-09,NaN,-0.5497374,-1.318602E-07,NaN,-0.120164,-5.893239E-07,NaN,-0.9757859,2.424791E-05,-0.4634177,1.380935E-07,NaN,NaN,0.3263535,6.519123E-11,9.971166E-07,-1.096509E-07,4.56913E-09,-2.861022E-08
905.4001,-0.191397,3.690622E-09,NaN,-0.5528907,-1.318603E-07,NaN,-0.1262105,-5.893265E-07,NaN,-0.9834279,2.424829E-05,-0.4736137,1.380972E-07,NaN,NaN,0.3295818,6.984785E-11,1.025582E-06,-1.096509E-07,9.928518E-10,-2.622604E-08
905.4149,-0.191397,3.690622E-09,NaN,-0.5528907,-1.318603E-07,NaN,-0.1262105,-5.893265E-07,NaN,-0.9834279,2.424829E-05,-0.4736137,1.380972E-07,NaN,NaN,0.3295818,6.984785E-11,1.025582E-06,-1.096509E-07,9.928518E-10,-2.622604E-08
905.4291,-0.1903399,3.691245E-09,NaN,-0.5561405,-1.318603E-07,NaN,-0.1323738,-5.893289E-07,NaN,-0.9914426,2.424867E-05,-0.4842772,1.381007E-07,NaN,NaN,0.3330604,6.519123E-11,1.042057E-06,-1.096509E-07,-1.992411E-10,-2.861022E-08
905.4446,-0.189268,3.691868E-09,NaN,-0.5594348,-1.318604E-07,NaN,-0.1386861,-5.893313E-07,NaN,-0.999444,2.424905E-05,-0.4949739,1.381042E-07,NaN,NaN,0.3364712,6.519123E-11,1.066831E-06,-1.096509E-07,-4.967613E-09,-2.622604E-08
905.4592,-0.189268,3.691868E-09,NaN,-0.5594348,-1.318604E-07,NaN,-0.1386861,-5.893313E-07,NaN,-0.999444,2.424905E-05,-0.4949739,1.381042E-07,NaN,NaN,0.3364712,6.519123E-11,1.066831E-06,-1.096509E-07,-4.967613E-09,-2.622604E-08
905.4755,-0.1881915,3.69249E-09,NaN,-0.5627413,-1.318605E-07,NaN,-0.1451358,-5.893363E-07,NaN,-1.007368,2.424942E-05,-0.5054734,1.381104E-07,NaN,NaN,0.3398151,6.984785E-11,1.091641E-06,-1.096509E-07,-4.371566E-09,-2.861022E-08
905.49,-0.187117,3.693113E-09,NaN,-0.5660405,-1.318606E-07,NaN,-0.1516614,-5.893384E-07,NaN,-1.015185,2.42498E-05,-0.5157222,1.381136E-07,NaN,NaN,0.3430935,6.984785E-11,1.114701E-06,-1.096509E-07,-5.563659E-09,-2.622604E-08
905.5036,-0.1860137,3.693736E-09,NaN,-0.569425,-1.318606E-07,NaN,-0.1582767,-5.893403E-07,NaN,-1.023356,2.425017E-05,-0.5264295,1.381168E-07,NaN,NaN,0.3466211,6.984785E-11,1.129602E-06,-1.096509E-07,-3.775519E-09,-2.861022E-08
905.5184,-0.1860137,3.693736E-09,NaN,-0.569425,-1.318606E-07,NaN,-0.1582767,-5.893403E-07,NaN,-1.023356,2.425017E-05,-0.5264295,1.381168E-07,NaN,NaN,0.3466211,6.984785E-11,1.129602E-06,-1.096509E-07,-3.775519E-09,-2.861022E-08
905.5321,-0.1848979,3.694358E-09,NaN,-0.5728464,-1.318607E-07,NaN,-0.1650061,-5.893422E-07,NaN,-1.031507,2.425054E-05,-0.5371663,1.381198E-07,NaN,NaN,0.35008,7.916107E-11,1.153369E-06,-1.096509E-07,-5.563659E-09,-2.622604E-08
905.5474,-0.1837792,3.694981E-09,NaN,-0.576275,-1.318607E-07,NaN,-0.1718431,-5.89344E-07,NaN,-1.039576,2.425091E-05,-0.547705,1.381227E-07,NaN,NaN,0.353471,8.84743E-11,1.175572E-06,-1.096509E-07,-4.371566E-09,-2.861022E-08
905.5621,-0.1826635,3.695603E-09,NaN,-0.5796925,-1.318608E-07,NaN,-0.1787322,-5.893485E-07,NaN,-1.047536,2.425129E-05,-0.5579931,1.381284E-07,NaN,NaN,0.3567955,8.84743E-11,1.197402E-06,-1.096509E-07,-5.563659E-09,-2.622604E-08
905.577,-0.1826635,3.695603E-09,NaN,-0.5796925,-1.318608E-07,NaN,-0.1787322,-5.893485E-07,NaN,-1.047536,2.425129E-05,-0.5579931,1.381284E-07,NaN,NaN,0.3567955,8.84743E-11,1.197402E-06,-1.096509E-07,-5.563659E-09,-2.622604E-08
905.5911,-0.1815199,3.696226E-09,NaN,-0.5831925,-1.318608E-07,NaN,-0.1857215,-5.8935E-07,NaN,-1.055843,2.425165E-05,-0.5687428,1.381311E-07,NaN,NaN,0.3603685,9.778752E-11,1.212378E-06,-1.096509E-07,-3.775519E-09,-2.861022E-08
905.6068,-0.1803644,3.696848E-09,NaN,-0.5867271,-1.318609E-07,NaN,-0.1928144,-5.893515E-07,NaN,-1.064129,2.425203E-05,-0.5795129,1.381337E-07,NaN,NaN,0.3638718,9.778752E-11,1.237412E-06,-1.096509E-07,-4.967612E-09,-2.622604E-08
905.6218,-0.1792067,3.697471E-09,NaN,-0.5902669,-1.31861E-07,NaN,-0.1999981,-5.893529E-07,NaN,-1.072333,2.425241E-05,-0.590078,1.381362E-07,NaN,NaN,0.3673063,9.778752E-11,1.261849E-06,-1.096509E-07,-9.139937E-09,-2.861022E-08
905.636,-0.1792067,3.697471E-09,NaN,-0.5902669,-1.31861E-07,NaN,-0.1999981,-5.893529E-07,NaN,-1.072333,2.425241E-05,-0.590078,1.381362E-07,NaN,NaN,0.3673063,9.778752E-11,1.261849E-06,-1.096509E-07,-9.139937E-09,-2.861022E-08
905.6503,-0.1780179,3.698093E-09,NaN,-0.5938987,-1.31861E-07,NaN,-0.2073322,-5.893542E-07,NaN,-1.080891,2.425278E-05,-0.6011016,1.381387E-07,NaN,NaN,0.3709872,9.778752E-11,1.270343E-06,-1.096509E-07,-3.775519E-09,-2.622604E-08
905.6658,-0.1768156,3.698716E-09,NaN,-0.5975701,-1.318611E-07,NaN,-0.2147858,-5.893554E-07,NaN,-1.089433,2.425316E-05,-0.6121238,1.381411E-07,NaN,NaN,0.3745962,9.778752E-11,1.291354E-06,-1.096509E-07,-3.477496E-09,-2.861022E-08
905.6804,-0.1756104,3.699338E-09,NaN,-0.6012492,-1.318611E-07,NaN,-0.2223294,-5.893565E-07,NaN,-1.097895,2.425354E-05,-0.6229234,1.381434E-07,NaN,NaN,0.3781345,9.778752E-11,1.314153E-06,-1.096509E-07,-7.649821E-09,-2.622604E-08
905.6953,-0.1756104,3.699338E-09,NaN,-0.6012492,-1.318611E-07,NaN,-0.2223294,-5.893565E-07,NaN,-1.097895,2.425354E-05,-0.6229234,1.381434E-07,NaN,NaN,0.3781345,9.778752E-11,1.314153E-06,-1.096509E-07,-7.649821E-09,-2.622604E-08
905.7094,-0.1744086,3.69996E-09,NaN,-0.6049165,-1.318612E-07,NaN,-0.2299009,-5.893576E-07,NaN,-1.106248,2.425391E-05,-0.6334571,1.381456E-07,NaN,NaN,0.3816033,9.778752E-11,1.332928E-06,-1.096509E-07,-1.092808E-08,-2.861022E-08
905.7257,-0.173179,3.700583E-09,NaN,-0.6086646,-1.318612E-07,NaN,-0.2375994,-5.893585E-07,NaN,-1.114934,2.425429E-05,-0.6444459,1.381477E-07,NaN,NaN,0.3853178,9.778752E-11,1.341422E-06,-1.096509E-07,-9.139937E-09,-2.622604E-08
905.7405,-0.1719383,3.701205E-09,NaN,-0.6124451,-1.318613E-07,NaN,-0.2453854,-5.893623E-07,NaN,-1.123599,2.425466E-05,-0.6554295,1.381526E-07,NaN,NaN,0.3889597,9.778752E-11,1.358707E-06,-1.096509E-07,-9.735984E-09,-2.861022E-08
905.7542,-0.1719383,3.701205E-09,NaN,-0.6124451,-1.318613E-07,NaN,-0.2453854,-5.893623E-07,NaN,-1.123599,2.425466E-05,-0.6554295,1.381526E-07,NaN,NaN,0.3889597,9.778752E-11,1.358707E-06,-1.096509E-07,-9.735984E-09,-2.861022E-08
905.7682,-0.1706962,3.701828E-09,NaN,-0.6162285,-1.318614E-07,NaN,-0.2532334,-5.893631E-07,NaN,-1.132181,2.425504E-05,-0.6661911,1.381545E-07,NaN,NaN,0.3925303,9.778752E-11,1.376588E-06,-1.096509E-07,-8.245868E-09,-2.622604E-08
905.7847,-0.1694586,3.70245E-09,NaN,-0.6199964,-1.318614E-07,NaN,-0.2610879,-5.893666E-07,NaN,-1.140651,2.425541E-05,-0.6766891,1.381592E-07,NaN,NaN,0.3960309,1.071007E-10,1.394023E-06,-1.096509E-07,-3.477497E-09,-2.861022E-08
905.7983,-0.1694586,3.70245E-09,NaN,-0.6199964,-1.318614E-07,NaN,-0.2610879,-5.893666E-07,NaN,-1.140651,2.425541E-05,-0.6766891,1.381592E-07,NaN,NaN,0.3960309,1.071007E-10,1.394023E-06,-1.096509E-07,-3.477497E-09,-2.861022E-08
905.812,-0.1681939,3.703072E-09,NaN,-0.6238427,-1.318615E-07,NaN,-0.2690822,-5.8937E-07,NaN,-1.149448,2.425579E-05,-0.6876448,1.381638E-07,NaN,NaN,0.3997764,1.071007E-10,1.403858E-06,-1.096509E-07,2.930002E-09,-2.622604E-08
905.8275,-0.1669187,3.703695E-09,NaN,-0.6277193,-1.318615E-07,NaN,-0.2771529,-5.893733E-07,NaN,-1.158225,2.425616E-05,-0.6985851,1.381682E-07,NaN,NaN,0.4034488,1.071007E-10,1.417865E-06,-1.096509E-07,1.290875E-09,-2.861022E-08
905.8423,-0.1656426,3.704317E-09,NaN,-0.6315969,-1.318616E-07,NaN,-0.2852686,-5.893765E-07,NaN,-1.166919,2.425654E-05,-0.7092988,1.381725E-07,NaN,NaN,0.4070493,1.071007E-10,1.433958E-06,-1.096509E-07,9.928516E-10,-2.622604E-08
905.8571,-0.1656426,3.704317E-09,NaN,-0.6315969,-1.318616E-07,NaN,-0.2852686,-5.893765E-07,NaN,-1.166919,2.425654E-05,-0.7092988,1.381725E-07,NaN,NaN,0.4070493,1.071007E-10,1.433958E-06,-1.096509E-07,9.928516E-10,-2.622604E-08
905.871,-0.1643364,3.704939E-09,NaN,-0.6355623,-1.318616E-07,NaN,-0.29357,-5.893796E-07,NaN,-1.175948,2.425691E-05,-0.7204633,1.381767E-07,NaN,NaN,0.4108928,1.071007E-10,1.440216E-06,-1.096509E-07,-5.022971E-11,-2.861022E-08
905.8867,-0.1630179,3.705562E-09,NaN,-0.6395633,-1.318617E-07,NaN,-0.3019576,-5.893825E-07,NaN,-1.184964,2.425728E-05,-0.7315908,1.381808E-07,NaN,NaN,0.4146613,1.16414E-10,1.452137E-06,-1.096509E-07,3.377037E-09,-2.622604E-08
905.9012,-0.161698,3.706184E-09,NaN,-0.6435679,-1.318618E-07,NaN,-0.3103858,-5.893854E-07,NaN,-1.193899,2.425766E-05,-0.7424781,1.381848E-07,NaN,NaN,0.418356,1.16414E-10,1.468231E-06,-1.096509E-07,-4.972645E-10,-2.861022E-08
905.916,-0.161698,3.706184E-09,NaN,-0.6435679,-1.318618E-07,NaN,-0.3103858,-5.893854E-07,NaN,-1.193899,2.425766E-05,-0.7424781,1.381848E-07,NaN,NaN,0.418356,1.16414E-10,1.468231E-06,-1.096509E-07,-4.972645E-10,-2.861022E-08
905.9298,-0.1603828,3.706806E-09,NaN,-0.6475567,-1.318618E-07,NaN,-0.3187959,-5.893881E-07,NaN,-1.202722,2.425804E-05,-0.7530936,1.381887E-07,NaN,NaN,0.4219782,1.16414E-10,1.480748E-06,-1.096509E-07,3.377037E-09,-2.622604E-08
905.9457,-0.1590407,3.707429E-09,NaN,-0.6516224,-1.318619E-07,NaN,-0.327375,-5.893907E-07,NaN,-1.21186,2.425841E-05,-0.7641583,1.381924E-07,NaN,NaN,0.425843,1.16414E-10,1.483728E-06,-1.096509E-07,3.144207E-09,-2.861022E-08
905.9601,-0.1576887,3.708051E-09,NaN,-0.6557167,-1.318619E-07,NaN,-0.3360116,-5.893932E-07,NaN,-1.220979,2.425879E-05,-0.7751822,1.381961E-07,NaN,NaN,0.4296323,1.16414E-10,1.493563E-06,-1.096509E-07,1.055753E-08,-2.622604E-08
905.9771,-0.1576887,3.708051E-09,NaN,-0.6557167,-1.318619E-07,NaN,-0.3360116,-5.893932E-07,NaN,-1.220979,2.425879E-05,-0.7751822,1.381961E-07,NaN,NaN,0.4296323,1.16414E-10,1.493563E-06,-1.096509E-07,1.055753E-08,-2.622604E-08
905.9901,-0.1563366,3.708673E-09,NaN,-0.6598098,-1.31862E-07,NaN,-0.3446636,-5.893956E-07,NaN,-1.230014,2.425917E-05,-0.7859691,1.381996E-07,NaN,NaN,0.4333473,1.16414E-10,1.505484E-06,-1.096509E-07,1.472986E-08,-2.861022E-08
906.0045,-0.1549904,3.709295E-09,NaN,-0.6638839,-1.31862E-07,NaN,-0.353279,-5.893979E-07,NaN,-1.238936,2.425954E-05,-0.7964892,1.382031E-07,NaN,NaN,0.4369894,1.16414E-10,1.510848E-06,-1.096509E-07,1.316524E-08,-2.622604E-08
906.0193,-0.1549904,3.709295E-09,NaN,-0.6638839,-1.31862E-07,NaN,-0.353279,-5.893979E-07,NaN,-1.238936,2.425954E-05,-0.7964892,1.382031E-07,NaN,NaN,0.4369894,1.16414E-10,1.510848E-06,-1.096509E-07,1.316524E-08,-2.622604E-08
906.033,-0.1536179,3.709918E-09,NaN,-0.6680325,-1.318621E-07,NaN,-0.3620787,-5.894E-07,NaN,-1.248166,2.425992E-05,-0.8074573,1.382064E-07,NaN,NaN,0.4408738,1.16414E-10,1.50906E-06,-1.096509E-07,1.77846E-08,-2.861022E-08
906.0485,-0.1522359,3.71054E-09,NaN,-0.6722077,-1.318622E-07,NaN,-0.3709241,-5.894021E-07,NaN,-1.257379,2.426029E-05,-0.8183753,1.382097E-07,NaN,NaN,0.4446823,1.16414E-10,1.514126E-06,-1.096509E-07,1.39103E-08,-2.622604E-08
906.0628,-0.1508544,3.711162E-09,NaN,-0.6763803,-1.318622E-07,NaN,-0.3797684,-5.894041E-07,NaN,-1.266509,2.426067E-05,-0.8290565,1.382128E-07,NaN,NaN,0.4484161,1.16414E-10,1.523365E-06,-1.096509E-07,1.405931E-08,-2.861022E-08
906.0775,-0.1508544,3.711162E-09,NaN,-0.6763803,-1.318622E-07,NaN,-0.3797684,-5.894041E-07,NaN,-1.266509,2.426067E-05,-0.8290565,1.382128E-07,NaN,NaN,0.4484161,1.16414E-10,1.523365E-06,-1.096509E-07,1.405931E-08,-2.861022E-08
906.0918,-0.1494434,3.711785E-09,NaN,-0.6806371,-1.318623E-07,NaN,-0.3888373,-5.89406E-07,NaN,-1.275957,2.426105E-05,-0.8401752,1.382159E-07,NaN,NaN,0.4523905,1.16414E-10,1.519193E-06,-1.096509E-07,1.212216E-08,-2.622604E-08
906.107,-0.1480214,3.712407E-09,NaN,-0.6849257,-1.318623E-07,NaN,-0.3979563,-5.894078E-07,NaN,-1.285395,2.426142E-05,-0.8512263,1.382188E-07,NaN,NaN,0.4562871,1.16414E-10,1.524259E-06,-1.096509E-07,8.247854E-09,-2.861022E-08
906.1219,-0.1465992,3.71303E-09,NaN,-0.6892143,-1.318624E-07,NaN,-0.4070678,-5.894095E-07,NaN,-1.294752,2.42618E-05,-0.8620328,1.382217E-07,NaN,NaN,0.4601075,1.16414E-10,1.526643E-06,-1.096509E-07,9.73797E-09,-2.622604E-08
906.1366,-0.1465992,3.71303E-09,NaN,-0.6892143,-1.318624E-07,NaN,-0.4070678,-5.894095E-07,NaN,-1.294752,2.42618E-05,-0.8620328,1.382217E-07,NaN,NaN,0.4601075,1.16414E-10,1.526643E-06,-1.096509E-07,9.73797E-09,-2.622604E-08
906.1508,-0.1451831,3.713652E-09,NaN,-0.6934838,-1.318624E-07,NaN,-0.4161201,-5.894112E-07,NaN,-1.303995,2.426218E-05,-0.8725723,1.382245E-07,NaN,NaN,0.4638529,1.16414E-10,1.524855E-06,-1.096509E-07,1.122809E-08,-2.861022E-08
906.166,-0.1437407,3.714274E-09,NaN,-0.6978267,-1.318625E-07,NaN,-0.4253879,-5.894127E-07,NaN,-1.313535,2.426254E-05,-0.8835438,1.382271E-07,NaN,NaN,0.4678386,1.257272E-10,1.520087E-06,-1.096509E-07,6.161692E-09,-2.622604E-08
906.1807,-0.1422895,3.714897E-09,NaN,-0.7021948,-1.318625E-07,NaN,-0.4346803,-5.894141E-07,NaN,-1.323061,2.426292E-05,-0.8944455,1.382297E-07,NaN,NaN,0.4717464,1.257272E-10,1.518001E-06,-1.096509E-07,9.439947E-09,-2.861022E-08
906.1954,-0.1422895,3.714897E-09,NaN,-0.7021948,-1.318625E-07,NaN,-0.4346803,-5.894141E-07,NaN,-1.323061,2.426292E-05,-0.8944455,1.382297E-07,NaN,NaN,0.4717464,1.257272E-10,1.518001E-06,-1.096509E-07,9.439947E-09,-2.861022E-08
906.2094,-0.1408395,3.715519E-09,NaN,-0.7065582,-1.318626E-07,NaN,-0.4439436,-5.894155E-07,NaN,-1.332503,2.42633E-05,-0.9051096,1.382323E-07,NaN,NaN,0.4755776,1.257272E-10,1.517404E-06,-1.096509E-07,9.439947E-09,-2.622604E-08
906.225,-0.1393966,3.716141E-09,NaN,-0.7108994,-1.318627E-07,NaN,-0.4531324,-5.894168E-07,NaN,-1.341829,2.426367E-05,-0.9155145,1.382347E-07,NaN,NaN,0.4793338,1.257272E-10,1.512636E-06,-1.096509E-07,4.07553E-09,-2.861022E-08
906.2408,-0.1379279,3.716763E-09,NaN,-0.7153118,-1.318627E-07,NaN,-0.4625534,-5.89418E-07,NaN,-1.351445,2.426405E-05,-0.9263431,1.382371E-07,NaN,NaN,0.48333,1.257272E-10,1.499821E-06,-1.096509E-07,3.479483E-09,-2.622604E-08
906.2556,-0.1379279,3.716763E-09,NaN,-0.7153118,-1.318627E-07,NaN,-0.4625534,-5.89418E-07,NaN,-1.351445,2.426405E-05,-0.9263431,1.382371E-07,NaN,NaN,0.48333,1.257272E-10,1.499821E-06,-1.096509E-07,3.479483E-09,-2.622604E-08
906.2698,-0.1364508,3.717385E-09,NaN,-0.7197475,-1.318628E-07,NaN,-0.4719866,-5.894191E-07,NaN,-1.361049,2.426443E-05,-0.9370977,1.382393E-07,NaN,NaN,0.4872481,1.257272E-10,1.495351E-06,-1.096509E-07,6.459715E-09,-2.861022E-08
906.2839,-0.1349755,3.718007E-09,NaN,-0.7241775,-1.318628E-07,NaN,-0.4813761,-5.899553E-07,NaN,-1.37057,2.42648E-05,-0.9476203,1.387767E-07,NaN,NaN,0.4910895,1.350404E-10,1.485218E-06,-1.096524E-07,1.691344E-09,-2.622604E-08
906.2983,-0.1349755,3.718007E-09,NaN,-0.7241775,-1.318628E-07,NaN,-0.4813761,-5.899553E-07,NaN,-1.37057,2.42648E-05,-0.9476203,1.387767E-07,NaN,NaN,0.4910895,1.350404E-10,1.485218E-06,-1.096524E-07,1.691344E-09,-2.622604E-08
906.3124,-0.1334712,3.718629E-09,NaN,-0.7286884,-1.318633E-07,NaN,-0.4910315,-5.903176E-07,NaN,-1.380391,2.426518E-05,-0.9585538,1.391401E-07,NaN,NaN,0.4951693,1.39697E-10,1.470317E-06,-1.096542E-07,1.095298E-09,-2.861022E-08
906.3278,-0.1319569,3.71925E-09,NaN,-0.733228,-1.318639E-07,NaN,-0.5006996,-5.905855E-07,NaN,-1.390208,2.426556E-05,-0.9694036,1.394092E-07,NaN,NaN,0.4991693,1.39697E-10,1.458098E-06,-1.096562E-07,1.095298E-09,-2.622604E-08
906.3423,-0.1304436,3.719872E-09,NaN,-0.7377645,-1.318648E-07,NaN,-0.5103171,-5.908003E-07,NaN,-1.399943,2.426594E-05,-0.9800203,1.396251E-07,NaN,NaN,0.503091,1.443536E-10,1.444091E-06,-1.096582E-07,1.095298E-09,-2.861022E-08
906.3571,-0.1304436,3.719872E-09,NaN,-0.7377645,-1.318648E-07,NaN,-0.5103171,-5.908003E-07,NaN,-1.399943,2.426594E-05,-0.9800203,1.396251E-07,NaN,NaN,0.503091,1.443536E-10,1.444091E-06,-1.096582E-07,1.095298E-09,-2.861022E-08
906.3711,-0.1289378,3.720493E-09,NaN,-0.7422786,-1.318656E-07,NaN,-0.5198415,-5.909826E-07,NaN,-1.409562,2.426632E-05,-0.9903849,1.398085E-07,NaN,NaN,0.5069358,1.443536E-10,1.427997E-06,-1.096603E-07,2.28739E-09,-2.622604E-08
906.3866,-0.1274061,3.721115E-09,NaN,-0.7468634,-1.318666E-07,NaN,-0.5296284,-5.911472E-07,NaN,-1.419461,2.426669E-05,-1.001144,1.399743E-07,NaN,NaN,0.5110191,1.490102E-10,1.408328E-06,-1.096624E-07,4.07553E-09,-2.861022E-08
906.4013,-0.1258665,3.721736E-09,NaN,-0.7514701,-1.318676E-07,NaN,-0.5394061,-5.913029E-07,NaN,-1.42935,2.426708E-05,-1.011822,1.401312E-07,NaN,NaN,0.5150225,1.490102E-10,1.389254E-06,-1.096646E-07,4.671576E-09,-2.622604E-08
906.416,-0.1258665,3.721736E-09,NaN,-0.7514701,-1.318676E-07,NaN,-0.5394061,-5.913029E-07,NaN,-1.42935,2.426708E-05,-1.011822,1.401312E-07,NaN,NaN,0.5150225,1.490102E-10,1.389254E-06,-1.096646E-07,4.671576E-09,-2.622604E-08
906.4299,-0.1243294,3.722358E-09,NaN,-0.7560694,-1.318685E-07,NaN,-0.5491157,-5.914527E-07,NaN,-1.439154,2.426745E-05,-1.022278,1.402821E-07,NaN,NaN,0.5189475,1.536669E-10,1.368989E-06,-1.096667E-07,8.247855E-09,-2.861022E-08
906.4456,-0.1228006,3.722979E-09,NaN,-0.7606434,-1.318695E-07,NaN,-0.5587202,-5.915967E-07,NaN,-1.44884,2.426783E-05,-1.032491,1.404272E-07,NaN,NaN,0.5227956,1.583235E-10,1.347531E-06,-1.096688E-07,1.063204E-08,-2.622604E-08
906.4603,-0.1212464,3.723601E-09,NaN,-0.7652858,-1.318705E-07,NaN,-0.5686031,-5.917406E-07,NaN,-1.458799,2.426821E-05,-1.043082,1.405723E-07,NaN,NaN,0.5268821,1.583235E-10,1.320113E-06,-1.09671E-07,1.122809E-08,-2.861022E-08
906.475,-0.1212464,3.723601E-09,NaN,-0.7652858,-1.318705E-07,NaN,-0.5686031,-5.917406E-07,NaN,-1.458799,2.426821E-05,-1.043082,1.405723E-07,NaN,NaN,0.5268821,1.583235E-10,1.320113E-06,-1.09671E-07,1.122809E-08,-2.861022E-08
906.4891,-0.1196847,3.724222E-09,NaN,-0.7699488,-1.318715E-07,NaN,-0.5784653,-5.918816E-07,NaN,-1.468751,2.426859E-05,-1.053595,1.407144E-07,NaN,NaN,0.5308886,1.629801E-10,1.298655E-06,-1.096731E-07,6.459716E-09,-2.622604E-08
906.5053,-0.1181259,3.724844E-09,NaN,-0.7746031,-1.318725E-07,NaN,-0.5882478,-5.920227E-07,NaN,-1.478619,2.426897E-05,-1.063896,1.408566E-07,NaN,NaN,0.5348167,1.629801E-10,1.274813E-06,-1.096752E-07,4.671577E-09,-2.861022E-08
906.5191,-0.1181259,3.724844E-09,NaN,-0.7746031,-1.318725E-07,NaN,-0.5882478,-5.920227E-07,NaN,-1.478619,2.426897E-05,-1.063896,1.408566E-07,NaN,NaN,0.5348167,1.629801E-10,1.274813E-06,-1.096752E-07,4.671577E-09,-2.861022E-08
906.5333,-0.1179554,3.725465E-09,NaN,-0.7753654,-1.318735E-07,NaN,-0.5823998,-5.921637E-07,NaN,-1.473413,2.426935E-05,-1.051878,1.409987E-07,NaN,NaN,0.5270573,1.629801E-10,1.484622E-06,-1.096773E-07,-3.077027E-09,-2.622604E-08
906.5486,-0.1185924,3.726087E-09,NaN,-0.7737514,-1.318745E-07,NaN,-0.5728695,-5.923048E-07,NaN,-1.462767,2.426973E-05,-1.033336,1.41141E-07,NaN,NaN,0.5194447,1.676367E-10,1.500119E-06,-1.096794E-07,-9.037491E-09,-2.861022E-08
906.5629,-0.1197091,3.726709E-09,NaN,-0.7706805,-1.318755E-07,NaN,-0.5617358,-5.924459E-07,NaN,-1.449599,2.42701E-05,-1.013277,1.412832E-07,NaN,NaN,0.5119795,1.722933E-10,1.488198E-06,-1.096815E-07,-9.037491E-09,-2.622604E-08
906.5776,-0.1197091,3.726709E-09,NaN,-0.7706805,-1.318755E-07,NaN,-0.5617358,-5.924459E-07,NaN,-1.449599,2.42701E-05,-1.013277,1.412832E-07,NaN,NaN,0.5119795,1.722933E-10,1.488198E-06,-1.096815E-07,-9.037491E-09,-2.622604E-08
906.5916,-0.1210983,3.72733E-09,NaN,-0.7667329,-1.318764E-07,NaN,-0.5500531,-5.92587E-07,NaN,-1.435325,2.427048E-05,-0.9929063,1.414254E-07,NaN,NaN,0.5046598,1.769499E-10,1.469721E-06,-1.096836E-07,-1.142168E-08,-2.861022E-08
906.6071,-0.1225981,3.727952E-09,NaN,-0.7623738,-1.318774E-07,NaN,-0.5386955,-5.927309E-07,NaN,-1.421041,2.427086E-05,-0.9732256,1.415704E-07,NaN,NaN,0.4977971,1.816065E-10,1.443495E-06,-1.096857E-07,-1.619005E-08,-2.622604E-08
906.6216,-0.1241525,3.728574E-09,NaN,-0.7577841,-1.318784E-07,NaN,-0.5275601,-5.928748E-07,NaN,-1.406822,2.427123E-05,-0.9538903,1.417154E-07,NaN,NaN,0.491069,1.862631E-10,1.423229E-06,-1.096878E-07,-7.845396E-09,-2.861022E-08
906.6364,-0.1241525,3.728574E-09,NaN,-0.7577841,-1.318784E-07,NaN,-0.5275601,-5.928748E-07,NaN,-1.406822,2.427123E-05,-0.9538903,1.417154E-07,NaN,NaN,0.491069,1.862631E-10,1.423229E-06,-1.096878E-07,-7.845396E-09,-2.861022E-08
906.6509,-0.1257293,3.729196E-09,NaN,-0.7530745,-1.318794E-07,NaN,-0.516682,-5.930185E-07,NaN,-1.392748,2.427162E-05,-0.9348143,1.418603E-07,NaN,NaN,0.4844727,1.862631E-10,1.399387E-06,-1.096899E-07,-6.928391E-10,-2.622604E-08
906.666,-0.1273105,3.729817E-09,NaN,-0.7483129,-1.318803E-07,NaN,-0.5060651,-5.931622E-07,NaN,-1.378856,2.4272E-05,-0.9159921,1.420051E-07,NaN,NaN,0.4780057,1.862631E-10,1.379718E-06,-1.09692E-07,1.691347E-09,-2.861022E-08
906.6806,-0.1288492,3.730439E-09,NaN,-0.7436451,-1.318813E-07,NaN,-0.4960558,-5.933059E-07,NaN,-1.365583,2.427237E-05,-0.8981182,1.421499E-07,NaN,NaN,0.4719792,1.909197E-10,1.345147E-06,-1.09694E-07,4.992537E-10,-2.622604E-08
906.6952,-0.1288492,3.730439E-09,NaN,-0.7436451,-1.318813E-07,NaN,-0.4960558,-5.933059E-07,NaN,-1.365583,2.427237E-05,-0.8981182,1.421499E-07,NaN,NaN,0.4719792,1.909197E-10,1.345147E-06,-1.09694E-07,4.992537E-10,-2.622604E-08
906.7097,-0.130356,3.731061E-09,NaN,-0.7390545,-1.318823E-07,NaN,-0.4863822,-5.934494E-07,NaN,-1.352662,2.427276E-05,-0.8806863,1.422946E-07,NaN,NaN,0.466071,1.909197E-10,1.323689E-06,-1.096961E-07,-3.077025E-09,-2.861022E-08
906.7247,-0.1318374,3.731683E-09,NaN,-0.734531,-1.318832E-07,NaN,-0.4769902,-5.93593E-07,NaN,-1.340019,2.427313E-05,-0.8635468,1.424392E-07,NaN,NaN,0.4602787,1.955763E-10,1.298059E-06,-1.096981E-07,-3.077025E-09,-2.622604E-08
906.7397,-0.1318374,3.731683E-09,NaN,-0.734531,-1.318832E-07,NaN,-0.4769902,-5.93593E-07,NaN,-1.340019,2.427313E-05,-0.8635468,1.424392E-07,NaN,NaN,0.4602787,1.955763E-10,1.298059E-06,-1.096981E-07,-3.077025E-09,-2.622604E-08
906.7551,-0.1332602,3.732304E-09,NaN,-0.7301726,-1.318842E-07,NaN,-0.4681653,-5.937364E-07,NaN,-1.328036,2.427351E-05,-0.8473818,1.425838E-07,NaN,NaN,0.4549136,2.002329E-10,1.262595E-06,-1.097002E-07,-6.928391E-10,-2.861022E-08
906.7702,-0.1346426,3.732926E-09,NaN,-0.7259336,-1.318851E-07,NaN,-0.4596577,-5.938827E-07,NaN,-1.31641,2.427389E-05,-0.8316588,1.427312E-07,NaN,NaN,0.449654,2.002329E-10,1.236965E-06,-1.097022E-07,-4.269118E-09,-2.622604E-08
906.7848,-0.1359953,3.733548E-09,NaN,-0.7217859,-1.318861E-07,NaN,-0.4514092,-5.940288E-07,NaN,-1.305055,2.427427E-05,-0.8162136,1.428785E-07,NaN,NaN,0.4444974,2.048895E-10,1.210738E-06,-1.097042E-07,-7.845396E-09,-2.861022E-08
906.7985,-0.1359953,3.733548E-09,NaN,-0.7217859,-1.318861E-07,NaN,-0.4514092,-5.940288E-07,NaN,-1.305055,2.427427E-05,-0.8162136,1.428785E-07,NaN,NaN,0.4444974,2.048895E-10,1.210738E-06,-1.097042E-07,-7.845396E-09,-2.861022E-08
906.8124,-0.1373243,3.734169E-09,NaN,-0.717712,-1.31887E-07,NaN,-0.4433784,-5.941749E-07,NaN,-1.293925,2.427464E-05,-0.8010162,1.430256E-07,NaN,NaN,0.439442,2.095462E-10,1.183022E-06,-1.097062E-07,-7.845396E-09,-2.622604E-08
906.8279,-0.1385968,3.734791E-09,NaN,-0.7138057,-1.31888E-07,NaN,-0.4358276,-5.943208E-07,NaN,-1.283426,2.427503E-05,-0.7867916,1.431727E-07,NaN,NaN,0.4347994,2.095462E-10,1.149346E-06,-1.097082E-07,-5.461211E-09,-2.861022E-08
906.8425,-0.1398305,3.735413E-09,NaN,-0.7100184,-1.31889E-07,NaN,-0.4285584,-5.944666E-07,NaN,-1.273247,2.427541E-05,-0.7730002,1.433196E-07,NaN,NaN,0.430248,2.095462E-10,1.125802E-06,-1.097102E-07,-4.865164E-09,-2.622604E-08
906.8573,-0.1398305,3.735413E-09,NaN,-0.7100184,-1.31889E-07,NaN,-0.4285584,-5.944666E-07,NaN,-1.273247,2.427541E-05,-0.7730002,1.433196E-07,NaN,NaN,0.430248,2.095462E-10,1.125802E-06,-1.097102E-07,-4.865164E-09,-2.622604E-08
906.8712,-0.141036,3.736035E-09,NaN,-0.7063205,-1.318899E-07,NaN,-0.4215206,-5.946123E-07,NaN,-1.263312,2.427579E-05,-0.7594641,1.434665E-07,NaN,NaN,0.4257859,2.095462E-10,1.101066E-06,-1.097122E-07,-6.057257E-09,-2.861022E-08
906.8868,-0.1422192,3.736657E-09,NaN,-0.7026933,-1.318908E-07,NaN,-0.4146716,-5.94758E-07,NaN,-1.253577,2.427617E-05,-0.746151,1.436132E-07,NaN,NaN,0.4214112,2.095462E-10,1.075436E-06,-1.097142E-07,-3.673071E-09,-2.622604E-08
906.9016,-0.1433477,3.737279E-09,NaN,-0.69923,-1.318918E-07,NaN,-0.408239,-5.949035E-07,NaN,-1.244456,2.427655E-05,-0.7337991,1.437598E-07,NaN,NaN,0.417436,2.095462E-10,1.041163E-06,-1.097162E-07,-3.673071E-09,-2.861022E-08
906.9164,-0.1433477,3.737279E-09,NaN,-0.69923,-1.318918E-07,NaN,-0.408239,-5.949035E-07,NaN,-1.244456,2.427655E-05,-0.7337991,1.437598E-07,NaN,NaN,0.417436,2.095462E-10,1.041163E-06,-1.097162E-07,-3.673071E-09,-2.861022E-08
906.9303,-0.1444389,3.737901E-09,NaN,-0.6958818,-1.318927E-07,NaN,-0.4020635,-5.950489E-07,NaN,-1.235627,2.427693E-05,-0.7218668,1.439064E-07,NaN,NaN,0.413539,2.142028E-10,1.016427E-06,-1.097182E-07,-2.480978E-09,-2.622604E-08
906.9457,-0.1455031,3.738523E-09,NaN,-0.6926187,-1.318936E-07,NaN,-0.3960989,-5.951943E-07,NaN,-1.227018,2.427731E-05,-0.7101641,1.440528E-07,NaN,NaN,0.4097185,2.188594E-10,9.937773E-07,-1.097202E-07,-4.269118E-09,-2.861022E-08
906.9608,-0.1465465,3.739145E-09,NaN,-0.689422,-1.318946E-07,NaN,-0.3903002,-5.953395E-07,NaN,-1.218588,2.427769E-05,-0.6986564,1.441992E-07,NaN,NaN,0.4059727,2.188594E-10,9.682964E-07,-1.097221E-07,-2.480978E-09,-2.622604E-08
906.9756,-0.1465465,3.739145E-09,NaN,-0.689422,-1.318946E-07,NaN,-0.3903002,-5.953395E-07,NaN,-1.218588,2.427769E-05,-0.6986564,1.441992E-07,NaN,NaN,0.4059727,2.188594E-10,9.682964E-07,-1.097221E-07,-2.480978E-09,-2.622604E-08
906.9896,-0.1475366,3.739768E-09,NaN,-0.6863846,-1.318955E-07,NaN,-0.3848632,-5.954847E-07,NaN,-1.210755,2.427807E-05,-0.68809,1.443455E-07,NaN,NaN,0.4026142,2.23516E-10,9.384941E-07,-1.097241E-07,-3.673071E-09,-2.861022E-08
907.005,-0.1484909,3.74039E-09,NaN,-0.683458,-1.318964E-07,NaN,-0.3796618,-5.956297E-07,NaN,-1.20319,2.427844E-05,-0.6779264,1.444917E-07,NaN,NaN,0.3993218,2.281726E-10,9.192715E-07,-1.09726E-07,-7.845396E-09,-2.622604E-08
907.0209,-0.1494195,3.741012E-09,NaN,-0.680612,-1.318973E-07,NaN,-0.3746543,-5.957747E-07,NaN,-1.195822,2.427882E-05,-0.6679657,1.446378E-07,NaN,NaN,0.3960939,2.328292E-10,8.985589E-07,-1.09728E-07,-9.037489E-09,-2.861022E-08
907.0346,-0.1494195,3.741012E-09,NaN,-0.680612,-1.318973E-07,NaN,-0.3746543,-5.957747E-07,NaN,-1.195822,2.427882E-05,-0.6679657,1.446378E-07,NaN,NaN,0.3960939,2.328292E-10,8.985589E-07,-1.09728E-07,-9.037489E-09,-2.861022E-08
907.0489,-0.1502927,3.741634E-09,NaN,-0.6779326,-1.318983E-07,NaN,-0.3699972,-5.959225E-07,NaN,-1.189055,2.42792E-05,-0.6589222,1.447866E-07,NaN,NaN,0.3932431,2.328292E-10,8.684586E-07,-1.097299E-07,-8.441442E-09,-2.622604E-08
907.0638,-0.1511292,3.742256E-09,NaN,-0.6753668,-1.318992E-07,NaN,-0.3655725,-5.960673E-07,NaN,-1.182547,2.427959E-05,-0.6502577,1.449325E-07,NaN,NaN,0.3904485,2.328292E-10,8.516203E-07,-1.097318E-07,-9.633535E-09,-2.861022E-08
907.0786,-0.1511292,3.742256E-09,NaN,-0.6753668,-1.318992E-07,NaN,-0.3655725,-5.960673E-07,NaN,-1.182547,2.427959E-05,-0.6502577,1.449325E-07,NaN,NaN,0.3904485,2.328292E-10,8.516203E-07,-1.097318E-07,-9.633535E-09,-2.861022E-08
907.0927,-0.1519399,3.742878E-09,NaN,-0.672882,-1.319001E-07,NaN,-0.3613338,-5.962148E-07,NaN,-1.176222,2.427997E-05,-0.6417681,1.450811E-07,NaN,NaN,0.3877086,2.374858E-10,8.35229E-07,-1.097337E-07,-1.112365E-08,-2.622604E-08
907.1082,-0.1527315,3.743501E-09,NaN,-0.6704578,-1.31901E-07,NaN,-0.3572293,-5.963622E-07,NaN,-1.170041,2.428035E-05,-0.6334167,1.452296E-07,NaN,NaN,0.3850225,2.374858E-10,8.182417E-07,-1.097356E-07,-1.05276E-08,-2.861022E-08
907.123,-0.1534723,3.744123E-09,NaN,-0.6681861,-1.319019E-07,NaN,-0.3534079,-5.965094E-07,NaN,-1.16443,2.428074E-05,-0.6259569,1.45378E-07,NaN,NaN,0.3827028,2.374858E-10,7.932823E-07,-1.097375E-07,-1.05276E-08,-2.622604E-08
907.1378,-0.1534723,3.744123E-09,NaN,-0.6681861,-1.319019E-07,NaN,-0.3534079,-5.965094E-07,NaN,-1.16443,2.428074E-05,-0.6259569,1.45378E-07,NaN,NaN,0.3827028,2.374858E-10,7.932823E-07,-1.097375E-07,-1.05276E-08,-2.622604E-08
907.1519,-0.1541795,3.744745E-09,NaN,-0.6660179,-1.319028E-07,NaN,-0.3497891,-5.966565E-07,NaN,-1.159045,2.428112E-05,-0.6188613,1.455262E-07,NaN,NaN,0.3804289,2.421424E-10,7.789772E-07,-1.097394E-07,-8.441442E-09,-2.861022E-08
907.1674,-0.1548633,3.745367E-09,NaN,-0.6639227,-1.319037E-07,NaN,-0.3463378,-5.968035E-07,NaN,-1.15382,2.42815E-05,-0.611918,1.456743E-07,NaN,NaN,0.3781995,2.46799E-10,7.654916E-07,-1.097413E-07,-1.022958E-08,-2.622604E-08
907.1821,-0.1555299,3.745989E-09,NaN,-0.6618817,-1.319046E-07,NaN,-0.3430043,-5.969504E-07,NaN,-1.148718,2.428189E-05,-0.6050867,1.458223E-07,NaN,NaN,0.3760139,2.46799E-10,7.489513E-07,-1.097432E-07,-9.931559E-09,-2.861022E-08
907.197,-0.1555299,3.745989E-09,NaN,-0.6618817,-1.319046E-07,NaN,-0.3430043,-5.969504E-07,NaN,-1.148718,2.428189E-05,-0.6050867,1.458223E-07,NaN,NaN,0.3760139,2.46799E-10,7.489513E-07,-1.097432E-07,-9.931559E-09,-2.861022E-08
907.211,-0.1561476,3.746611E-09,NaN,-0.6599874,-1.319057E-07,NaN,-0.3399191,-5.96825E-07,NaN,-1.14417,2.428228E-05,-0.5991207,1.45698E-07,NaN,NaN,0.3741848,2.374858E-10,7.246624E-07,-1.097418E-07,-5.759234E-09,-2.622604E-08
907.2266,-0.1567331,3.747233E-09,NaN,-0.6581917,-1.31906E-07,NaN,-0.3370219,-5.970596E-07,NaN,-1.139829,2.428267E-05,-0.5934983,1.459337E-07,NaN,NaN,0.372392,2.281726E-10,7.137101E-07,-1.097396E-07,-6.802315E-09,-2.861022E-08
907.2425,-0.1572966,3.747855E-09,NaN,-0.6564643,-1.319058E-07,NaN,-0.3342814,-5.974753E-07,NaN,-1.135628,2.428306E-05,-0.588003,1.463505E-07,NaN,NaN,0.3706343,2.142027E-10,7.018264E-07,-1.097371E-07,-4.120106E-09,-2.622604E-08
907.2571,-0.1572966,3.747855E-09,NaN,-0.6564643,-1.319058E-07,NaN,-0.3342814,-5.974753E-07,NaN,-1.135628,2.428306E-05,-0.588003,1.463505E-07,NaN,NaN,0.3706343,2.142027E-10,7.018264E-07,-1.097371E-07,-4.120106E-09,-2.622604E-08
907.2712,-0.1578087,3.748478E-09,NaN,-0.6548912,-1.319054E-07,NaN,-0.3317986,-5.979869E-07,NaN,-1.131986,2.428344E-05,-0.583346,1.468632E-07,NaN,NaN,0.3692248,2.048895E-10,6.840195E-07,-1.097344E-07,-2.331967E-09,-2.861022E-08
907.2857,-0.1582875,3.7491E-09,NaN,-0.6534198,-1.319047E-07,NaN,-0.3295097,-5.985474E-07,NaN,-1.128544,2.428383E-05,-0.5790045,1.47425E-07,NaN,NaN,0.3678433,1.955763E-10,6.78208E-07,-1.097316E-07,-2.331967E-09,-2.622604E-08
907.3002,-0.1587442,3.749722E-09,NaN,-0.6520174,-1.319039E-07,NaN,-0.3273765,-5.991308E-07,NaN,-1.125232,2.428421E-05,-0.5747619,1.480094E-07,NaN,NaN,0.3664889,1.86263E-10,6.698634E-07,-1.097288E-07,-1.288885E-09,-2.861022E-08
907.3148,-0.1587442,3.749722E-09,NaN,-0.6520174,-1.319039E-07,NaN,-0.3273765,-5.991308E-07,NaN,-1.125232,2.428421E-05,-0.5747619,1.480094E-07,NaN,NaN,0.3664889,1.86263E-10,6.698634E-07,-1.097288E-07,-1.288885E-09,-2.861022E-08
907.3289,-0.1591853,3.750344E-09,NaN,-0.6506637,-1.319031E-07,NaN,-0.3253432,-5.997194E-07,NaN,-1.122013,2.428459E-05,-0.5705774,1.485993E-07,NaN,NaN,0.3651611,1.769498E-10,6.59209E-07,-1.097259E-07,1.98937E-09,-2.622604E-08
907.3443,-0.1595795,3.750966E-09,NaN,-0.6494505,-1.319023E-07,NaN,-0.3235129,-6.003078E-07,NaN,-1.119323,2.428497E-05,-0.5672056,1.491888E-07,NaN,NaN,0.364173,1.676366E-10,6.413649E-07,-1.09723E-07,1.914864E-09,-2.861022E-08
907.3589,-0.1595795,3.750966E-09,NaN,-0.6494505,-1.319023E-07,NaN,-0.3235129,-6.003078E-07,NaN,-1.119323,2.428497E-05,-0.5672056,1.491888E-07,NaN,NaN,0.364173,1.676366E-10,6.413649E-07,-1.09723E-07,1.914864E-09,-2.861022E-08
907.373,-0.1599436,3.751588E-09,NaN,-0.6483291,-1.319014E-07,NaN,-0.3218496,-6.008873E-07,NaN,-1.116807,2.428535E-05,-0.5641353,1.497695E-07,NaN,NaN,0.3632046,1.583234E-10,6.36522E-07,-1.097201E-07,-1.437897E-09,-2.622604E-08
907.3885,-0.1602878,3.752211E-09,NaN,-0.6472692,-1.319006E-07,NaN,-0.3203262,-6.014554E-07,NaN,-1.1144,2.428573E-05,-0.5611456,1.503388E-07,NaN,NaN,0.3622553,1.536667E-10,6.316606E-07,-1.097172E-07,-2.45804E-10,-2.861022E-08
907.4033,-0.1606184,3.752833E-09,NaN,-0.6462518,-1.318997E-07,NaN,-0.3188911,-6.020095E-07,NaN,-1.11207,2.428612E-05,-0.5581926,1.50894E-07,NaN,NaN,0.3613246,1.350403E-10,6.254207E-07,-1.097143E-07,-4.529888E-09,-2.622604E-08
907.4181,-0.1606184,3.752833E-09,NaN,-0.6462518,-1.318997E-07,NaN,-0.3188911,-6.020095E-07,NaN,-1.11207,2.428612E-05,-0.5581926,1.50894E-07,NaN,NaN,0.3613246,1.350403E-10,6.254207E-07,-1.097143E-07,-4.529888E-09,-2.622604E-08
907.4319,-0.1609037,3.753455E-09,NaN,-0.6453696,-1.318988E-07,NaN,-0.31764,-6.025498E-07,NaN,-1.110252,2.42865E-05,-0.5560288,1.514355E-07,NaN,NaN,0.3607258,1.303837E-10,6.120469E-07,-1.097115E-07,-1.959437E-09,-2.861022E-08
907.4472,-0.1611603,3.754077E-09,NaN,-0.6445746,-1.318979E-07,NaN,-0.3165468,-6.030767E-07,NaN,-1.108593,2.428688E-05,-0.5541462,1.519635E-07,NaN,NaN,0.3601392,1.210705E-10,6.08154E-07,-1.097086E-07,-1.531029E-09,-2.622604E-08
907.4621,-0.1613983,3.754701E-09,NaN,-0.6438369,-1.318969E-07,NaN,-0.3155866,-6.025104E-07,NaN,-1.107029,2.428726E-05,-0.5523221,1.513985E-07,NaN,NaN,0.3595641,1.164138E-10,6.045684E-07,-1.097076E-07,-7.81657E-11,-2.861022E-08
907.4771,-0.1613983,3.754701E-09,NaN,-0.6438369,-1.318969E-07,NaN,-0.3155866,-6.025104E-07,NaN,-1.107029,2.428726E-05,-0.5523221,1.513985E-07,NaN,NaN,0.3595641,1.164138E-10,6.045684E-07,-1.097076E-07,-7.81657E-11,-2.861022E-08
907.4912,-0.1615884,3.755323E-09,NaN,-0.6432422,-1.318964E-07,NaN,-0.3148343,-6.028493E-07,NaN,-1.105982,2.428763E-05,-0.5512629,1.517385E-07,NaN,NaN,0.359314,1.117572E-10,5.94892E-07,-1.097051E-07,3.651781E-09,-2.622604E-08
907.5064,-0.1617486,3.755946E-09,NaN,-0.6427383,-1.318957E-07,NaN,-0.3142521,-6.032659E-07,NaN,-1.105089,2.428802E-05,-0.5504563,1.521563E-07,NaN,NaN,0.3590692,9.778739E-11,5.946312E-07,-1.097024E-07,5.980088E-09,-2.861022E-08
907.522,-0.1618897,3.756569E-09,NaN,-0.6422926,-1.318948E-07,NaN,-0.3138059,-6.026307E-07,NaN,-1.104282,2.428839E-05,-0.5496814,1.515223E-07,NaN,NaN,0.3588292,9.778739E-11,5.937278E-07,-1.097016E-07,7.7496E-09,-2.622604E-08
907.5359,-0.1618897,3.756569E-09,NaN,-0.6422926,-1.318948E-07,NaN,-0.3138059,-6.026307E-07,NaN,-1.104282,2.428839E-05,-0.5496814,1.515223E-07,NaN,NaN,0.3588292,9.778739E-11,5.937278E-07,-1.097016E-07,7.7496E-09,-2.622604E-08
907.5499,-0.1620185,3.757192E-09,NaN,-0.6418848,-1.318945E-07,NaN,-0.313438,-6.029276E-07,NaN,-1.103527,2.428877E-05,-0.5488961,1.518203E-07,NaN,NaN,0.3585939,9.313077E-11,5.944543E-07,-1.096991E-07,1.024554E-08,-2.861022E-08
907.5652,-0.1621039,3.757816E-09,NaN,-0.6416067,-1.318937E-07,NaN,-0.3132338,-6.022339E-07,NaN,-1.10326,2.428914E-05,-0.5488539,1.511278E-07,NaN,NaN,0.3586769,9.313077E-11,5.874321E-07,-1.096984E-07,8.569164E-09,-2.622604E-08
907.5799,-0.1621039,3.757816E-09,NaN,-0.6416067,-1.318937E-07,NaN,-0.3132338,-6.022339E-07,NaN,-1.10326,2.428914E-05,-0.5488539,1.511278E-07,NaN,NaN,0.3586769,9.313077E-11,5.874321E-07,-1.096984E-07,8.569164E-09,-2.622604E-08
907.5939,-0.1621624,3.758438E-09,NaN,-0.6414098,-1.318934E-07,NaN,-0.313175,-6.02499E-07,NaN,-1.103126,2.428952E-05,-0.5490521,1.513941E-07,NaN,NaN,0.3587587,8.847416E-11,5.898256E-07,-1.096961E-07,8.457405E-09,-2.861022E-08
907.6093,-0.1622041,3.759061E-09,NaN,-0.641264,-1.318929E-07,NaN,-0.3132377,-6.028686E-07,NaN,-1.10306,2.42899E-05,-0.5492677,1.517649E-07,NaN,NaN,0.3588389,7.450432E-11,5.934392E-07,-1.096935E-07,9.090705E-09,-2.622604E-08
907.6239,-0.1622353,3.759684E-09,NaN,-0.6411502,-1.318921E-07,NaN,-0.3133692,-6.022041E-07,NaN,-1.103031,2.429028E-05,-0.5494565,1.511015E-07,NaN,NaN,0.3589176,7.450432E-11,5.947803E-07,-1.096927E-07,6.445749E-09,-2.861022E-08
907.6387,-0.1622353,3.759684E-09,NaN,-0.6411502,-1.318921E-07,NaN,-0.3133692,-6.022041E-07,NaN,-1.103031,2.429028E-05,-0.5494565,1.511015E-07,NaN,NaN,0.3589176,7.450432E-11,5.947803E-07,-1.096927E-07,6.445749E-09,-2.861022E-08
907.6528,-0.1622253,3.760307E-09,NaN,-0.6411607,-1.318917E-07,NaN,-0.3136566,-6.024808E-07,NaN,-1.103477,2.429065E-05,-0.5503691,1.513794E-07,NaN,NaN,0.3593084,6.98477E-11,5.878326E-07,-1.096903E-07,5.030139E-09,-2.622604E-08
907.6683,-0.1621901,3.760929E-09,NaN,-0.6412479,-1.318912E-07,NaN,-0.3140836,-6.028534E-07,NaN,-1.104042,2.429103E-05,-0.5515037,1.517532E-07,NaN,NaN,0.3596919,6.519109E-11,5.935323E-07,-1.096878E-07,8.457405E-09,-2.861022E-08
907.6831,-0.1621395,3.761551E-09,NaN,-0.641382,-1.318905E-07,NaN,-0.3146267,-6.032694E-07,NaN,-1.104663,2.42914E-05,-0.5526371,1.521703E-07,NaN,NaN,0.360068,6.053447E-11,5.955812E-07,-1.096851E-07,1.017104E-08,-2.622604E-08
907.6977,-0.1621395,3.761551E-09,NaN,-0.641382,-1.318905E-07,NaN,-0.3146267,-6.032694E-07,NaN,-1.104663,2.42914E-05,-0.5526371,1.521703E-07,NaN,NaN,0.360068,6.053447E-11,5.955812E-07,-1.096851E-07,1.017104E-08,-2.622604E-08
907.7132,-0.1620444,3.762175E-09,NaN,-0.641649,-1.318896E-07,NaN,-0.3153588,-6.026221E-07,NaN,-1.105765,2.429178E-05,-0.5544738,1.515242E-07,NaN,NaN,0.3607504,6.053447E-11,5.926009E-07,-1.096843E-07,8.606417E-09,-2.861022E-08
907.7274,-0.1619225,3.762797E-09,NaN,-0.6419968,-1.318892E-07,NaN,-0.3162459,-6.029017E-07,NaN,-1.106984,2.429216E-05,-0.5565047,1.51805E-07,NaN,NaN,0.3614197,5.122125E-11,6.010574E-07,-1.096819E-07,1.106511E-08,-2.622604E-08
907.7422,-0.1617846,3.763421E-09,NaN,-0.6423929,-1.318885E-07,NaN,-0.3172534,-6.021879E-07,NaN,-1.108252,2.429253E-05,-0.5585094,1.510924E-07,NaN,NaN,0.362076,5.122125E-11,6.054905E-07,-1.096812E-07,1.326303E-08,-2.861022E-08
907.7568,-0.1617846,3.763421E-09,NaN,-0.6423929,-1.318885E-07,NaN,-0.3172534,-6.021879E-07,NaN,-1.108252,2.429253E-05,-0.5585094,1.510924E-07,NaN,NaN,0.362076,5.122125E-11,6.054905E-07,-1.096812E-07,1.326303E-08,-2.861022E-08
907.7731,-0.1616377,3.764043E-09,NaN,-0.642817,-1.318882E-07,NaN,-0.3183229,-6.024308E-07,NaN,-1.109537,2.429291E-05,-0.5604473,1.513365E-07,NaN,NaN,0.3627194,4.656464E-11,6.097001E-07,-1.096789E-07,8.90444E-09,-2.622604E-08
907.7866,-0.1614505,3.764665E-09,NaN,-0.643361,-1.318877E-07,NaN,-0.3195452,-6.027787E-07,NaN,-1.111275,2.429329E-05,-0.5630711,1.516855E-07,NaN,NaN,0.363664,4.190803E-11,6.080609E-07,-1.096764E-07,9.351474E-09,-2.861022E-08
907.8009,-0.1612395,3.765288E-09,NaN,-0.6439764,-1.31887E-07,NaN,-0.3208992,-6.031731E-07,NaN,-1.113111,2.429366E-05,-0.5658788,1.520812E-07,NaN,NaN,0.3645903,3.725141E-11,6.140214E-07,-1.096738E-07,7.786852E-09,-2.622604E-08
907.8157,-0.1612395,3.765288E-09,NaN,-0.6439764,-1.31887E-07,NaN,-0.3208992,-6.031731E-07,NaN,-1.113111,2.429366E-05,-0.5658788,1.520812E-07,NaN,NaN,0.3645903,3.725141E-11,6.140214E-07,-1.096738E-07,7.786852E-09,-2.622604E-08
907.8295,-0.161015,3.765911E-09,NaN,-0.6446332,-1.318861E-07,NaN,-0.3223592,-6.025074E-07,NaN,-1.114981,2.429404E-05,-0.5686495,1.514167E-07,NaN,NaN,0.3654985,3.725141E-11,6.198329E-07,-1.09673E-07,7.37707E-09,-2.861022E-08
907.8448,-0.1607832,3.766534E-09,NaN,-0.6453124,-1.318857E-07,NaN,-0.3238717,-6.02772E-07,NaN,-1.116855,2.429442E-05,-0.5713409,1.516824E-07,NaN,NaN,0.366389,2.793819E-11,6.248993E-07,-1.096707E-07,7.079047E-09,-2.622604E-08
907.8597,-0.1607832,3.766534E-09,NaN,-0.6453124,-1.318857E-07,NaN,-0.3238717,-6.02772E-07,NaN,-1.116855,2.429442E-05,-0.5713409,1.516824E-07,NaN,NaN,0.366389,2.793819E-11,6.248993E-07,-1.096707E-07,7.079047E-09,-2.622604E-08
907.8735,-0.1605126,3.767156E-09,NaN,-0.646107,-1.318852E-07,NaN,-0.3255372,-6.031241E-07,NaN,-1.119171,2.429479E-05,-0.5747039,1.520357E-07,NaN,NaN,0.3675757,2.328157E-11,6.231111E-07,-1.096682E-07,5.551678E-09,-2.861022E-08
907.889,-0.1602197,3.767779E-09,NaN,-0.6469691,-1.318843E-07,NaN,-0.3273299,-6.024337E-07,NaN,-1.121574,2.429517E-05,-0.5782338,1.513464E-07,NaN,NaN,0.3687394,2.328157E-11,6.313813E-07,-1.096674E-07,4.024309E-09,-2.622604E-08
907.9037,-0.1599144,3.768402E-09,NaN,-0.6478688,-1.31884E-07,NaN,-0.3292229,-6.026798E-07,NaN,-1.124002,2.429554E-05,-0.5817111,1.515937E-07,NaN,NaN,0.3698804,1.862496E-11,6.392044E-07,-1.096652E-07,3.204745E-09,-2.861022E-08
907.9188,-0.1599144,3.768402E-09,NaN,-0.6478688,-1.31884E-07,NaN,-0.3292229,-6.026798E-07,NaN,-1.124002,2.429554E-05,-0.5817111,1.515937E-07,NaN,NaN,0.3698804,1.862496E-11,6.392044E-07,-1.096652E-07,3.204745E-09,-2.861022E-08
907.9327,-0.1595675,3.769024E-09,NaN,-0.6488922,-1.318834E-07,NaN,-0.3313065,-6.030195E-07,NaN,-1.126877,2.429592E-05,-0.5858414,1.519345E-07,NaN,NaN,0.3713128,1.396835E-11,6.405455E-07,-1.096627E-07,9.340642E-10,-2.622604E-08
907.9481,-0.159197,3.769648E-09,NaN,-0.6499872,-1.318826E-07,NaN,-0.3335328,-6.023196E-07,NaN,-1.129839,2.429629E-05,-0.5901121,1.512358E-07,NaN,NaN,0.3727174,1.396835E-11,6.514979E-07,-1.09662E-07,3.481231E-09,-2.861022E-08
907.9628,-0.1588138,3.77027E-09,NaN,-0.6511212,-1.318823E-07,NaN,-0.3358626,-6.025592E-07,NaN,-1.132822,2.429667E-05,-0.5943077,1.514766E-07,NaN,NaN,0.3740945,9.311737E-12,6.603641E-07,-1.096597E-07,-1.668982E-09,-2.622604E-08
907.9776,-0.1588138,3.77027E-09,NaN,-0.6511212,-1.318823E-07,NaN,-0.3358626,-6.025592E-07,NaN,-1.132822,2.429667E-05,-0.5943077,1.514766E-07,NaN,NaN,0.3740945,9.311737E-12,6.603641E-07,-1.096597E-07,-1.668982E-09,-2.622604E-08
907.9917,-0.1584245,3.770892E-09,NaN,-0.6522742,-1.318818E-07,NaN,-0.3382375,-6.028926E-07,NaN,-1.135791,2.429705E-05,-0.5983908,1.518112E-07,NaN,NaN,0.3754446,4.655124E-12,6.677402E-07,-1.096572E-07,-3.363989E-09,-2.861022E-08
908.0072,-0.1579979,3.771516E-09,NaN,-0.6535382,-1.318809E-07,NaN,-0.3407735,-6.021864E-07,NaN,-1.139182,2.429742E-05,-0.6031141,1.511061E-07,NaN,NaN,0.3770819,4.655124E-12,6.688578E-07,-1.096565E-07,-2.954207E-09,-2.622604E-08
908.0229,-0.1575505,3.772139E-09,NaN,-0.6548648,-1.318806E-07,NaN,-0.3434293,-6.024201E-07,NaN,-1.142644,2.429779E-05,-0.607969,1.513409E-07,NaN,NaN,0.3786875,-1.488393E-15,6.806297E-07,-1.096543E-07,2.261199E-09,-2.861022E-08
908.0378,-0.1575505,3.772139E-09,NaN,-0.6548648,-1.318806E-07,NaN,-0.3434293,-6.024201E-07,NaN,-1.142644,2.429779E-05,-0.607969,1.513409E-07,NaN,NaN,0.3786875,-1.488393E-15,6.806297E-07,-1.096543E-07,2.261199E-09,-2.861022E-08
908.0509,-0.1570927,3.772761E-09,NaN,-0.656224,-1.318801E-07,NaN,-0.3461736,-6.027475E-07,NaN,-1.146113,2.429817E-05,-0.6127407,1.516696E-07,NaN,NaN,0.3802616,-4.658101E-12,6.918056E-07,-1.096519E-07,5.35319E-09,-2.622604E-08
908.0661,-0.1566305,3.773383E-09,NaN,-0.6575971,-1.318794E-07,NaN,-0.3489529,-6.031164E-07,NaN,-1.14956,2.429855E-05,-0.6173909,1.520396E-07,NaN,NaN,0.3818049,-9.314714E-12,7.007462E-07,-1.096493E-07,7.588364E-09,-2.861022E-08
908.0806,-0.1561321,3.774006E-09,NaN,-0.659077,-1.318785E-07,NaN,-0.3518985,-6.024225E-07,NaN,-1.153417,2.429892E-05,-0.6226702,1.513468E-07,NaN,NaN,0.3836316,-9.314714E-12,7.011932E-07,-1.096486E-07,4.757143E-09,-2.622604E-08
908.0953,-0.1561321,3.774006E-09,NaN,-0.659077,-1.318785E-07,NaN,-0.3518985,-6.024225E-07,NaN,-1.153417,2.429892E-05,-0.6226702,1.513468E-07,NaN,NaN,0.3836316,-9.314714E-12,7.011932E-07,-1.096486E-07,4.757143E-09,-2.622604E-08
908.1094,-0.1556143,3.774629E-09,NaN,-0.660616,-1.318782E-07,NaN,-0.3549592,-6.02654E-07,NaN,-1.157337,2.42993E-05,-0.6280656,1.515795E-07,NaN,NaN,0.3854229,-1.397133E-11,7.092399E-07,-1.096464E-07,7.290341E-09,-2.861022E-08
908.1249,-0.1550869,3.775251E-09,NaN,-0.6621844,-1.318776E-07,NaN,-0.3581011,-6.029738E-07,NaN,-1.161257,2.429967E-05,-0.6333649,1.519005E-07,NaN,NaN,0.387179,-1.862794E-11,7.210118E-07,-1.096439E-07,6.917812E-09,-2.622604E-08
908.1395,-0.1550869,3.775251E-09,NaN,-0.6621844,-1.318776E-07,NaN,-0.3581011,-6.029738E-07,NaN,-1.161257,2.429967E-05,-0.6333649,1.519005E-07,NaN,NaN,0.387179,-1.862794E-11,7.210118E-07,-1.096439E-07,6.917812E-09,-2.622604E-08
908.1537,-0.1545205,3.775875E-09,NaN,-0.6638683,-1.318768E-07,NaN,-0.3614484,-6.022512E-07,NaN,-1.165594,2.430005E-05,-0.6392763,1.511791E-07,NaN,NaN,0.3892145,-1.862794E-11,7.250351E-07,-1.096433E-07,7.290341E-09,-2.861022E-08
908.1694,-0.1539332,3.776497E-09,NaN,-0.6656155,-1.318765E-07,NaN,-0.364924,-6.024662E-07,NaN,-1.169995,2.430042E-05,-0.6452785,1.513952E-07,NaN,NaN,0.3912103,-2.328455E-11,7.372541E-07,-1.096411E-07,7.439352E-09,-2.622604E-08
908.1839,-0.153336,3.77712E-09,NaN,-0.6673937,-1.31876E-07,NaN,-0.3684822,-6.027755E-07,NaN,-1.174393,2.43008E-05,-0.6511647,1.517056E-07,NaN,NaN,0.3931671,-2.794116E-11,7.473869E-07,-1.096387E-07,5.651213E-09,-2.861022E-08
908.1998,-0.153336,3.77712E-09,NaN,-0.6673937,-1.31876E-07,NaN,-0.3684822,-6.027755E-07,NaN,-1.174393,2.43008E-05,-0.6511647,1.517056E-07,NaN,NaN,0.3931671,-2.794116E-11,7.473869E-07,-1.096387E-07,5.651213E-09,-2.861022E-08
908.2127,-0.1527354,3.777742E-09,NaN,-0.6691831,-1.318753E-07,NaN,-0.3720653,-6.031236E-07,NaN,-1.178756,2.430118E-05,-0.6569028,1.520549E-07,NaN,NaN,0.3950855,-3.259778E-11,7.573706E-07,-1.096362E-07,5.502201E-09,-2.622604E-08
908.2286,-0.1520998,3.778365E-09,NaN,-0.6710757,-1.318744E-07,NaN,-0.3758298,-6.024119E-07,NaN,-1.18351,2.430155E-05,-0.6632437,1.513444E-07,NaN,NaN,0.39728,-3.259778E-11,7.599038E-07,-1.096355E-07,7.290341E-09,-2.861022E-08
908.2432,-0.151446,3.778987E-09,NaN,-0.6730232,-1.318741E-07,NaN,-0.3797002,-6.026262E-07,NaN,-1.188316,2.430193E-05,-0.6696675,1.515599E-07,NaN,NaN,0.3994317,-3.725439E-11,7.724208E-07,-1.096333E-07,9.07848E-09,-2.622604E-08
908.2578,-0.151446,3.778987E-09,NaN,-0.6730232,-1.318741E-07,NaN,-0.3797002,-6.026262E-07,NaN,-1.188316,2.430193E-05,-0.6696675,1.515599E-07,NaN,NaN,0.3994317,-3.725439E-11,7.724208E-07,-1.096333E-07,9.07848E-09,-2.622604E-08
908.2739,-0.1507842,3.77961E-09,NaN,-0.6749957,-1.318735E-07,NaN,-0.3836372,-6.029264E-07,NaN,-1.193108,2.43023E-05,-0.6759695,1.518612E-07,NaN,NaN,0.4015414,-4.1911E-11,7.824045E-07,-1.096309E-07,9.97255E-09,-2.861022E-08
908.2873,-0.1501206,3.780233E-09,NaN,-0.6769745,-1.318727E-07,NaN,-0.3875882,-6.021844E-07,NaN,-1.197856,2.430268E-05,-0.6821173,1.511204E-07,NaN,NaN,0.4036096,-4.1911E-11,7.922393E-07,-1.096303E-07,7.588364E-09,-2.622604E-08
908.3021,-0.1494231,3.780855E-09,NaN,-0.6790529,-1.318724E-07,NaN,-0.3917291,-6.023805E-07,NaN,-1.202986,2.430305E-05,-0.6888587,1.513177E-07,NaN,NaN,0.405951,-4.656761E-11,7.952195E-07,-1.096282E-07,9.972549E-09,-2.861022E-08
908.3167,-0.1494231,3.780855E-09,NaN,-0.6790529,-1.318724E-07,NaN,-0.3917291,-6.023805E-07,NaN,-1.202986,2.430305E-05,-0.6888587,1.513177E-07,NaN,NaN,0.405951,-4.656761E-11,7.952195E-07,-1.096282E-07,9.972549E-09,-2.861022E-08
908.3304,-0.1487084,3.781477E-09,NaN,-0.681183,-1.318719E-07,NaN,-0.3959698,-6.026712E-07,NaN,-1.208162,2.430343E-05,-0.6956686,1.516096E-07,NaN,NaN,0.4082468,-5.122422E-11,8.046073E-07,-1.096258E-07,1.027057E-08,-2.622604E-08
908.346,-0.1479866,3.782099E-09,NaN,-0.6833352,-1.318713E-07,NaN,-0.4002681,-6.030039E-07,NaN,-1.213318,2.43038E-05,-0.7023469,1.519433E-07,NaN,NaN,0.4104977,-5.588083E-11,8.12952E-07,-1.096234E-07,1.295278E-08,-2.861022E-08
908.3605,-0.1472639,3.782722E-09,NaN,-0.6854914,-1.318704E-07,NaN,-0.4045722,-6.022742E-07,NaN,-1.218426,2.430418E-05,-0.7088632,1.512148E-07,NaN,NaN,0.4127044,-6.053745E-11,8.220417E-07,-1.096228E-07,1.056859E-08,-2.622604E-08
908.3753,-0.1472639,3.782722E-09,NaN,-0.6854914,-1.318704E-07,NaN,-0.4045722,-6.022742E-07,NaN,-1.218426,2.430418E-05,-0.7088632,1.512148E-07,NaN,NaN,0.4127044,-6.053745E-11,8.220417E-07,-1.096228E-07,1.056859E-08,-2.622604E-08
908.3894,-0.1465078,3.783344E-09,NaN,-0.6877447,-1.3187E-07,NaN,-0.4090768,-6.024708E-07,NaN,-1.223906,2.430456E-05,-0.7159628,1.514127E-07,NaN,NaN,0.4151816,-6.985067E-11,8.220417E-07,-1.096206E-07,1.32508E-08,-2.861022E-08
908.405,-0.1457353,3.783966E-09,NaN,-0.6900475,-1.318695E-07,NaN,-0.4136751,-6.027565E-07,NaN,-1.229428,2.430494E-05,-0.7231164,1.516995E-07,NaN,NaN,0.4176105,-6.985067E-11,8.309823E-07,-1.096182E-07,1.295278E-08,-2.622604E-08
908.4197,-0.1457353,3.783966E-09,NaN,-0.6900475,-1.318695E-07,NaN,-0.4136751,-6.027565E-07,NaN,-1.229428,2.430494E-05,-0.7231164,1.516995E-07,NaN,NaN,0.4176105,-6.985067E-11,8.309823E-07,-1.096182E-07,1.295278E-08,-2.622604E-08
908.4337,-0.1449564,3.784587E-09,NaN,-0.6923702,-1.318689E-07,NaN,-0.4183214,-6.030788E-07,NaN,-1.234926,2.430531E-05,-0.7301293,1.520229E-07,NaN,NaN,0.4199918,-6.985067E-11,8.39923E-07,-1.096158E-07,1.235673E-08,-2.861022E-08
908.4492,-0.1441412,3.78521E-09,NaN,-0.6947992,-1.31868E-07,NaN,-0.4232053,-6.023388E-07,NaN,-1.240805,2.430569E-05,-0.7377089,1.512841E-07,NaN,NaN,0.4226401,-7.450729E-11,8.381349E-07,-1.096152E-07,1.265476E-08,-2.622604E-08
908.4637,-0.1433081,3.785832E-09,NaN,-0.6972824,-1.318677E-07,NaN,-0.4281912,-6.025255E-07,NaN,-1.246728,2.430607E-05,-0.7453201,1.51472E-07,NaN,NaN,0.4252368,-8.382051E-11,8.467776E-07,-1.096131E-07,1.384685E-08,-2.861022E-08
908.4786,-0.1433081,3.785832E-09,NaN,-0.6972824,-1.318677E-07,NaN,-0.4281912,-6.025255E-07,NaN,-1.246728,2.430607E-05,-0.7453201,1.51472E-07,NaN,NaN,0.4252368,-8.382051E-11,8.467776E-07,-1.096131E-07,1.384685E-08,-2.861022E-08
908.4926,-0.1424681,3.786453E-09,NaN,-0.6997874,-1.318671E-07,NaN,-0.4332232,-6.027986E-07,NaN,-1.252627,2.430644E-05,-0.7527753,1.517462E-07,NaN,NaN,0.4277827,-8.382051E-11,8.545262E-07,-1.096108E-07,1.474092E-08,-2.622604E-08
908.5079,-0.1416278,3.787075E-09,NaN,-0.7022947,-1.318665E-07,NaN,-0.4382474,-6.031113E-07,NaN,-1.258467,2.430682E-05,-0.7600505,1.520601E-07,NaN,NaN,0.4302786,-9.313374E-11,8.592946E-07,-1.096084E-07,1.503894E-08,-2.861022E-08
908.5249,-0.1407548,3.787698E-09,NaN,-0.7048966,-1.318656E-07,NaN,-0.4434929,-6.02359E-07,NaN,-1.264665,2.430719E-05,-0.7678846,1.51309E-07,NaN,NaN,0.4330393,-8.847712E-11,8.589965E-07,-1.096078E-07,1.384685E-08,-2.622604E-08
908.5384,-0.1407548,3.787698E-09,NaN,-0.7048966,-1.318656E-07,NaN,-0.4434929,-6.02359E-07,NaN,-1.264665,2.430719E-05,-0.7678846,1.51309E-07,NaN,NaN,0.4330393,-8.847712E-11,8.589965E-07,-1.096078E-07,1.384685E-08,-2.622604E-08
908.5526,-0.1398665,3.788319E-09,NaN,-0.7075446,-1.318653E-07,NaN,-0.4488187,-6.025338E-07,NaN,-1.270896,2.430757E-05,-0.7757429,1.514849E-07,NaN,NaN,0.4357461,-9.313374E-11,8.622748E-07,-1.096057E-07,1.354883E-08,-2.861022E-08
908.5668,-0.1389731,3.788941E-09,NaN,-0.7102089,-1.318648E-07,NaN,-0.4541739,-6.02798E-07,NaN,-1.277094,2.430794E-05,-0.7834426,1.517503E-07,NaN,NaN,0.4384,-9.313374E-11,8.676392E-07,-1.096034E-07,1.652906E-08,-2.622604E-08
908.5815,-0.1380807,3.789562E-09,NaN,-0.7128713,-1.318642E-07,NaN,-0.4595097,-6.030991E-07,NaN,-1.283228,2.430832E-05,-0.79096,1.520526E-07,NaN,NaN,0.4410018,-1.02447E-10,8.727056E-07,-1.09601E-07,1.83172E-08,-2.861022E-08
908.5961,-0.1380807,3.789562E-09,NaN,-0.7128713,-1.318642E-07,NaN,-0.4595097,-6.030991E-07,NaN,-1.283228,2.430832E-05,-0.79096,1.520526E-07,NaN,NaN,0.4410018,-1.02447E-10,8.727056E-07,-1.09601E-07,1.83172E-08,-2.861022E-08
908.61,-0.1371566,3.790185E-09,NaN,-0.7156249,-1.318633E-07,NaN,-0.4650784,-6.023382E-07,NaN,-1.28971,2.430869E-05,-0.7990262,1.512929E-07,NaN,NaN,0.4438663,-9.779035E-11,8.700234E-07,-1.096005E-07,2.070138E-08,-2.622604E-08
908.6254,-0.1362179,3.790807E-09,NaN,-0.7184221,-1.318629E-07,NaN,-0.470719,-6.025019E-07,NaN,-1.296223,2.430907E-05,-0.8071044,1.514577E-07,NaN,NaN,0.4466749,-1.071036E-10,8.759839E-07,-1.095984E-07,2.368161E-08,-2.861022E-08
908.64,-0.1352749,3.791428E-09,NaN,-0.7212331,-1.318624E-07,NaN,-0.476378,-6.027552E-07,NaN,-1.302699,2.430944E-05,-0.815019,1.517122E-07,NaN,NaN,0.4494285,-1.02447E-10,8.816464E-07,-1.095961E-07,2.368161E-08,-2.622604E-08
908.655,-0.1352749,3.791428E-09,NaN,-0.7212331,-1.318624E-07,NaN,-0.476378,-6.027552E-07,NaN,-1.302699,2.430944E-05,-0.815019,1.517122E-07,NaN,NaN,0.4494285,-1.02447E-10,8.816464E-07,-1.095961E-07,2.368161E-08,-2.622604E-08
908.6691,-0.1342972,3.792049E-09,NaN,-0.7241446,-1.318618E-07,NaN,-0.4823037,-6.030456E-07,NaN,-1.309532,2.430982E-05,-0.8234659,1.520038E-07,NaN,NaN,0.4524419,-1.117602E-10,8.777721E-07,-1.095938E-07,2.189348E-08,-2.861022E-08
908.6866,-0.1333034,3.792672E-09,NaN,-0.7271042,-1.318609E-07,NaN,-0.4883057,-6.022742E-07,NaN,-1.3164,2.431019E-05,-0.8319062,1.512335E-07,NaN,NaN,0.4553964,-1.071036E-10,8.819444E-07,-1.095933E-07,2.60658E-08,-2.622604E-08
908.6991,-0.1333034,3.792672E-09,NaN,-0.7271042,-1.318609E-07,NaN,-0.4883057,-6.022742E-07,NaN,-1.3164,2.431019E-05,-0.8319062,1.512335E-07,NaN,NaN,0.4553964,-1.071036E-10,8.819444E-07,-1.095933E-07,2.60658E-08,-2.622604E-08
908.7133,-0.1323047,3.793294E-09,NaN,-0.7300799,-1.318606E-07,NaN,-0.4943221,-6.024275E-07,NaN,-1.323232,2.431056E-05,-0.8401721,1.513881E-07,NaN,NaN,0.4582931,-1.117602E-10,8.843286E-07,-1.095912E-07,2.427766E-08,-2.861022E-08
908.7291,-0.1313077,3.793915E-09,NaN,-0.7330522,-1.318601E-07,NaN,-0.5003043,-6.026708E-07,NaN,-1.329992,2.431094E-05,-0.8482442,1.516324E-07,NaN,NaN,0.4611329,-1.117602E-10,8.855207E-07,-1.09589E-07,2.368161E-08,-2.622604E-08
908.7437,-0.1302795,3.794537E-09,NaN,-0.7361134,-1.318595E-07,NaN,-0.5065423,-6.029513E-07,NaN,-1.337086,2.431131E-05,-0.8568379,1.519142E-07,NaN,NaN,0.4642309,-1.117602E-10,8.792622E-07,-1.095866E-07,2.129743E-08,-2.861022E-08
908.7584,-0.1302795,3.794537E-09,NaN,-0.7361134,-1.318595E-07,NaN,-0.5065423,-6.029513E-07,NaN,-1.337086,2.431131E-05,-0.8568379,1.519142E-07,NaN,NaN,0.4642309,-1.117602E-10,8.792622E-07,-1.095866E-07,2.129743E-08,-2.861022E-08
908.7723,-0.1292377,3.79516E-09,NaN,-0.7392151,-1.318587E-07,NaN,-0.5128358,-6.0217E-07,NaN,-1.344205,2.431169E-05,-0.865419,1.511341E-07,NaN,NaN,0.4672683,-1.117602E-10,8.813484E-07,-1.095862E-07,1.950929E-08,-2.622604E-08
908.7888,-0.1281927,3.795781E-09,NaN,-0.7423276,-1.318583E-07,NaN,-0.5191272,-6.023167E-07,NaN,-1.351281,2.431207E-05,-0.8738258,1.512819E-07,NaN,NaN,0.4702463,-1.210734E-10,8.795603E-07,-1.095841E-07,2.129743E-08,-2.861022E-08
