JMolnar6/NonAnthroHands_User_Study/HandsLoggerWithURDF/tempdata/files/Reachy_JointMotion_gesture_1_4.csv
Time,r_shoulder,r_shoulder_x,r_upper_arm,r_forearm,r_wrist,r_wrist2hand,
58.54997,-0.1505419,-3.337046E-08,NaN,-0.3264384,-1.385712E-07,NaN,0.4546477,4.50929E-08,NaN,-0.4924878,1.826047E-06,-0.3778724,-7.818908E-09,NaN,NaN,-0.01997684,1.862642E-10,1.076057E-07,-1.163591E-07,1.29279E-08,-2.861022E-08
58.56721,-0.1495684,-3.336921E-08,NaN,-0.3264401,-1.385718E-07,NaN,0.4542895,4.520219E-08,NaN,-0.4927894,1.826815E-06,-0.3775612,-7.925639E-09,NaN,NaN,-0.01997711,1.862642E-10,1.070097E-07,-1.163596E-07,1.531209E-08,-2.622604E-08
58.58476,-0.1481426,-3.336795E-08,NaN,-0.326441,-1.385723E-07,NaN,0.4537825,4.530155E-08,NaN,-0.4932111,1.827578E-06,-0.377131,-8.02244E-09,NaN,NaN,-0.01997748,1.909208E-10,1.059666E-07,-1.163599E-07,1.769627E-08,-2.861022E-08
58.60096,-0.1464381,-3.33667E-08,NaN,-0.3264417,-1.38573E-07,NaN,0.4532708,4.541436E-08,NaN,-0.4936376,1.828356E-06,-0.376699,-8.132696E-09,NaN,NaN,-0.01997785,1.816076E-10,1.070097E-07,-1.163591E-07,2.008046E-08,-2.622604E-08
58.61819,-0.1464381,-3.33667E-08,NaN,-0.3264417,-1.38573E-07,NaN,0.4532708,4.541436E-08,NaN,-0.4936376,1.828356E-06,-0.376699,-8.132696E-09,NaN,NaN,-0.01997785,1.816076E-10,1.070097E-07,-1.163591E-07,2.008046E-08,-2.622604E-08
58.63448,-0.1452936,-3.336545E-08,NaN,-0.3264441,-1.385736E-07,NaN,0.453319,4.551994E-08,NaN,-0.493619,1.829124E-06,-0.3767228,-8.235719E-09,NaN,NaN,-0.01997779,1.816076E-10,1.083508E-07,-1.163582E-07,1.769627E-08,-2.861022E-08
58.65217,-0.1445062,-3.336419E-08,NaN,-0.3264476,-1.385737E-07,NaN,0.4535647,4.560148E-08,NaN,-0.4934406,1.829893E-06,-0.3769071,-8.314692E-09,NaN,NaN,-0.0199776,1.862642E-10,1.080528E-07,-1.163597E-07,1.531209E-08,-2.622604E-08
58.66932,-0.1439469,-3.336294E-08,NaN,-0.3264515,-1.385741E-07,NaN,0.4538593,4.569474E-08,NaN,-0.4932217,1.830661E-06,-0.3771305,-8.40539E-09,NaN,NaN,-0.01997737,1.862642E-10,1.093939E-07,-1.1636E-07,1.769627E-08,-2.861022E-08
58.68796,-0.1435334,-3.336168E-08,NaN,-0.3264557,-1.385744E-07,NaN,0.4541477,4.57808E-08,NaN,-0.4930075,1.831429E-06,-0.3773481,-8.488889E-09,NaN,NaN,-0.01997715,1.909208E-10,1.093939E-07,-1.163617E-07,1.769627E-08,-2.622604E-08
58.70322,-0.1439399,-3.336043E-08,NaN,-0.3264623,-1.38575E-07,NaN,0.4549323,4.587504E-08,NaN,-0.4924017,1.832198E-06,-0.3779673,-8.580566E-09,NaN,NaN,-0.01997656,1.909208E-10,1.10586E-07,-1.163622E-07,1.769627E-08,-2.861022E-08
58.72026,-0.1448608,-3.335917E-08,NaN,-0.3264699,-1.385754E-07,NaN,0.4558423,4.596034E-08,NaN,-0.491697,1.832966E-06,-0.3786863,-8.663296E-09,NaN,NaN,-0.01997589,1.909208E-10,1.10586E-07,-1.163624E-07,1.531209E-08,-2.622604E-08
58.73734,-0.1448608,-3.335917E-08,NaN,-0.3264699,-1.385754E-07,NaN,0.4558423,4.596034E-08,NaN,-0.491697,1.832966E-06,-0.3786863,-8.663296E-09,NaN,NaN,-0.01997589,1.909208E-10,1.10586E-07,-1.163624E-07,1.531209E-08,-2.622604E-08
58.75374,-0.1461015,-3.335792E-08,NaN,-0.3264777,-1.385761E-07,NaN,0.4567383,4.605566E-08,NaN,-0.4910057,1.833729E-06,-0.3793916,-8.756056E-09,NaN,NaN,-0.01997523,1.955774E-10,1.125231E-07,-1.163601E-07,1.769627E-08,-2.861022E-08
58.77122,-0.1482664,-3.335667E-08,NaN,-0.3264877,-1.385763E-07,NaN,0.4581013,4.613166E-08,NaN,-0.4899521,1.834502E-06,-0.3804743,-8.829493E-09,NaN,NaN,-0.01997422,1.909208E-10,1.149073E-07,-1.163574E-07,2.008046E-08,-2.622604E-08
58.7883,-0.1510039,-3.335541E-08,NaN,-0.3264982,-1.385762E-07,NaN,0.4595544,4.619738E-08,NaN,-0.4888321,1.835271E-06,-0.3816273,-8.892651E-09,NaN,NaN,-0.01997316,1.955774E-10,1.174405E-07,-1.163559E-07,2.008046E-08,-2.861022E-08
58.8049,-0.1540901,-3.335416E-08,NaN,-0.3265083,-1.385763E-07,NaN,0.4609615,4.62693E-08,NaN,-0.4877546,1.836048E-06,-0.3827401,-8.961999E-09,NaN,NaN,-0.01997213,1.862642E-10,1.193777E-07,-1.163531E-07,2.008046E-08,-2.622604E-08
58.82211,-0.1573829,-3.33529E-08,NaN,-0.3265176,-1.385761E-07,NaN,0.4622859,4.633136E-08,NaN,-0.4867496,1.836812E-06,-0.3837834,-9.02149E-09,NaN,NaN,-0.01997116,1.955774E-10,1.219109E-07,-1.163516E-07,1.769627E-08,-2.861022E-08
58.83923,-0.1573829,-3.33529E-08,NaN,-0.3265176,-1.385761E-07,NaN,0.4622859,4.633136E-08,NaN,-0.4867496,1.836812E-06,-0.3837834,-9.02149E-09,NaN,NaN,-0.01997116,1.955774E-10,1.219109E-07,-1.163516E-07,1.769627E-08,-2.861022E-08
58.85551,-0.1615201,-3.335165E-08,NaN,-0.3265285,-1.385761E-07,NaN,0.4640591,4.640038E-08,NaN,-0.4854071,1.83759E-06,-0.3851913,-9.087937E-09,NaN,NaN,-0.01996985,1.862642E-10,1.266792E-07,-1.163489E-07,1.769627E-08,-2.622604E-08
58.87297,-0.1661712,-3.33504E-08,NaN,-0.326539,-1.385759E-07,NaN,0.4659154,4.645995E-08,NaN,-0.4840085,1.838353E-06,-0.3866647,-9.144927E-09,NaN,NaN,-0.01996848,1.955774E-10,1.289144E-07,-1.163474E-07,1.531209E-08,-2.861022E-08
58.89014,-0.1711262,-3.334914E-08,NaN,-0.3265485,-1.385759E-07,NaN,0.4677223,4.652652E-08,NaN,-0.4826576,1.839131E-06,-0.3880961,-9.208918E-09,NaN,NaN,-0.01996715,1.862642E-10,1.307025E-07,-1.163446E-07,1.769627E-08,-2.622604E-08
58.90766,-0.1769799,-3.334788E-08,NaN,-0.326559,-1.385756E-07,NaN,0.4699824,4.658438E-08,NaN,-0.4809752,1.839894E-06,-0.3898973,-9.264202E-09,NaN,NaN,-0.01996546,1.955774E-10,1.353219E-07,-1.163431E-07,2.008046E-08,-2.861022E-08
58.92446,-0.1833745,-3.334662E-08,NaN,-0.3265685,-1.385756E-07,NaN,0.4723129,4.664927E-08,NaN,-0.4792514,1.840672E-06,-0.3917544,-9.326514E-09,NaN,NaN,-0.01996372,1.862642E-10,1.386002E-07,-1.163404E-07,1.531209E-08,-2.622604E-08
58.94159,-0.1900825,-3.334537E-08,NaN,-0.3265762,-1.385754E-07,NaN,0.4745779,4.670549E-08,NaN,-0.477592,1.841436E-06,-0.3935564,-9.380157E-09,NaN,NaN,-0.01996203,1.955774E-10,1.399413E-07,-1.163389E-07,1.531209E-08,-2.861022E-08
58.95849,-0.1900825,-3.334537E-08,NaN,-0.3265762,-1.385754E-07,NaN,0.4745779,4.670549E-08,NaN,-0.477592,1.841436E-06,-0.3935564,-9.380157E-09,NaN,NaN,-0.01996203,1.955774E-10,1.399413E-07,-1.163389E-07,1.531209E-08,-2.861022E-08
58.97496,-0.1976879,-3.334411E-08,NaN,-0.3265843,-1.385753E-07,NaN,0.4772906,4.676843E-08,NaN,-0.4756178,1.842213E-06,-0.3957259,-9.44051E-09,NaN,NaN,-0.01995998,1.862642E-10,1.426235E-07,-1.163361E-07,1.29279E-08,-2.622604E-08
58.99255,-0.205826,-3.334285E-08,NaN,-0.3265906,-1.385751E-07,NaN,0.4800635,4.682273E-08,NaN,-0.4736165,1.842977E-06,-0.3979439,-9.492226E-09,NaN,NaN,-0.01995789,1.909208E-10,1.450077E-07,-1.163332E-07,1.29279E-08,-2.861022E-08
59.00972,-0.214265,-3.334159E-08,NaN,-0.3265944,-1.385747E-07,NaN,0.4827604,4.687202E-08,NaN,-0.4716916,1.84375E-06,-0.4000989,-9.538928E-09,NaN,NaN,-0.01995586,1.909208E-10,1.49627E-07,-1.163316E-07,1.29279E-08,-2.622604E-08
59.02708,-0.222858,-3.334033E-08,NaN,-0.3265962,-1.385746E-07,NaN,0.4853469,4.694584E-08,NaN,-0.4698698,1.844523E-06,-0.402164,-9.610164E-09,NaN,NaN,-0.0199539,1.816076E-10,1.535013E-07,-1.163289E-07,1.29279E-08,-2.861022E-08
59.04359,-0.2322401,-3.333908E-08,NaN,-0.3265982,-1.385743E-07,NaN,0.4883897,4.701182E-08,NaN,-0.467743,1.845291E-06,-0.4046082,-9.673556E-09,NaN,NaN,-0.01995154,1.722943E-10,1.603559E-07,-1.163259E-07,1.531209E-08,-2.622604E-08
59.06093,-0.2420792,-3.333782E-08,NaN,-0.3265993,-1.385739E-07,NaN,0.4915033,4.707322E-08,NaN,-0.4655879,1.846059E-06,-0.4071122,-9.73237E-09,NaN,NaN,-0.01994913,1.629811E-10,1.628891E-07,-1.163244E-07,1.531209E-08,-2.861022E-08
59.07821,-0.2420792,-3.333782E-08,NaN,-0.3265993,-1.385739E-07,NaN,0.4915033,4.707322E-08,NaN,-0.4655879,1.846059E-06,-0.4071122,-9.73237E-09,NaN,NaN,-0.01994913,1.629811E-10,1.628891E-07,-1.163244E-07,1.531209E-08,-2.861022E-08
59.09404,-0.2521647,-3.333656E-08,NaN,-0.3265995,-1.385738E-07,NaN,0.4945498,4.714363E-08,NaN,-0.4635061,1.846823E-06,-0.4095627,-9.800187E-09,NaN,NaN,-0.01994676,1.536679E-10,1.684025E-07,-1.163216E-07,1.054371E-08,-2.622604E-08
59.11189,-0.2630911,-3.33353E-08,NaN,-0.3266002,-1.385735E-07,NaN,0.4980686,4.720625E-08,NaN,-0.4611219,1.847587E-06,-0.4124079,-9.860222E-09,NaN,NaN,-0.01994398,1.39698E-10,1.74214E-07,-1.163187E-07,1.054371E-08,-2.861022E-08
59.12908,-0.2745006,-3.333405E-08,NaN,-0.3265998,-1.385731E-07,NaN,0.5016517,4.726471E-08,NaN,-0.4587213,1.848341E-06,-0.4153081,-9.916092E-09,NaN,NaN,-0.01994114,1.39698E-10,1.803234E-07,-1.163171E-07,1.054371E-08,-2.622604E-08
59.1464,-0.2861663,-3.333279E-08,NaN,-0.3265984,-1.38573E-07,NaN,0.5051556,4.733258E-08,NaN,-0.4564084,1.8491E-06,-0.4181454,-9.981374E-09,NaN,NaN,-0.01993836,1.303848E-10,1.852408E-07,-1.163144E-07,1.054371E-08,-2.861022E-08
59.16335,-0.2979443,-3.333153E-08,NaN,-0.3265961,-1.385727E-07,NaN,0.5085425,4.739271E-08,NaN,-0.45421,1.849855E-06,-0.4208893,-1.003892E-08,NaN,NaN,-0.01993564,1.257282E-10,1.897112E-07,-1.163115E-07,8.159528E-09,-2.622604E-08
59.18023,-0.3104717,-3.333028E-08,NaN,-0.3265947,-1.385722E-07,NaN,0.512411,4.744874E-08,NaN,-0.4517229,1.850609E-06,-0.4240409,-1.009235E-08,NaN,NaN,-0.01993247,1.257282E-10,1.953736E-07,-1.1631E-07,5.775342E-09,-2.861022E-08
59.1973,-0.3104717,-3.333028E-08,NaN,-0.3265947,-1.385722E-07,NaN,0.512411,4.744874E-08,NaN,-0.4517229,1.850609E-06,-0.4240409,-1.009235E-08,NaN,NaN,-0.01993247,1.257282E-10,1.953736E-07,-1.1631E-07,5.775342E-09,-2.861022E-08
59.21515,-0.3234182,-3.332903E-08,NaN,-0.3265922,-1.385721E-07,NaN,0.5163515,4.751421E-08,NaN,-0.4492209,1.851363E-06,-0.4272559,-1.015524E-08,NaN,NaN,-0.01992924,1.210716E-10,2.025262E-07,-1.163073E-07,8.159528E-09,-2.622604E-08
59.23154,-0.3365739,-3.332777E-08,NaN,-0.3265885,-1.385718E-07,NaN,0.5202184,4.757201E-08,NaN,-0.4468047,1.852122E-06,-0.4304135,-1.021045E-08,NaN,NaN,-0.01992606,1.117584E-10,2.069965E-07,-1.163044E-07,8.159528E-09,-2.861022E-08
59.24869,-0.3505344,-3.332652E-08,NaN,-0.3265852,-1.385714E-07,NaN,0.5245879,4.762573E-08,NaN,-0.4441038,1.852872E-06,-0.4339988,-1.026158E-08,NaN,NaN,-0.0199224,1.117584E-10,2.101257E-07,-1.163014E-07,8.159528E-09,-2.622604E-08
59.26552,-0.3649426,-3.332526E-08,NaN,-0.3265801,-1.385709E-07,NaN,0.5290238,4.767685E-08,NaN,-0.4414001,1.853627E-06,-0.4376433,-1.03101E-08,NaN,NaN,-0.01991868,1.117584E-10,2.145961E-07,-1.162999E-07,5.775342E-09,-2.861022E-08
59.28292,-0.3795719,-3.332401E-08,NaN,-0.3265723,-1.385708E-07,NaN,0.5333735,4.773855E-08,NaN,-0.4387962,1.854381E-06,-0.4412196,-1.036922E-08,NaN,NaN,-0.01991502,1.071017E-10,2.195135E-07,-1.162972E-07,5.775342E-09,-2.622604E-08
59.29995,-0.3795719,-3.332401E-08,NaN,-0.3265723,-1.385708E-07,NaN,0.5333735,4.773855E-08,NaN,-0.4387962,1.854381E-06,-0.4412196,-1.036922E-08,NaN,NaN,-0.01991502,1.071017E-10,2.195135E-07,-1.162972E-07,5.775342E-09,-2.622604E-08
59.31637,-0.3950073,-3.332276E-08,NaN,-0.3265645,-1.385704E-07,NaN,0.5382344,4.779264E-08,NaN,-0.4359236,1.85514E-06,-0.4452342,-1.042072E-08,NaN,NaN,-0.01991086,9.778852E-11,2.25772E-07,-1.162944E-07,-1.377215E-09,-2.861022E-08
59.33364,-0.4108848,-3.33215E-08,NaN,-0.3265539,-1.3857E-07,NaN,0.5431581,4.784308E-08,NaN,-0.4330609,1.85589E-06,-0.449306,-1.046856E-08,NaN,NaN,-0.01990664,9.778852E-11,2.296463E-07,-1.162914E-07,-3.761401E-09,-2.622604E-08
59.35114,-0.426974,-3.332025E-08,NaN,-0.3265401,-1.385695E-07,NaN,0.5479896,4.789132E-08,NaN,-0.4303086,1.856644E-06,-0.4533051,-1.051421E-08,NaN,NaN,-0.01990248,9.31319E-11,2.354577E-07,-1.162885E-07,-6.145586E-09,-2.861022E-08
59.36808,-0.4431287,-3.331899E-08,NaN,-0.3265236,-1.38569E-07,NaN,0.5526891,4.79381E-08,NaN,-0.4276916,1.857394E-06,-0.4571999,-1.05584E-08,NaN,NaN,-0.01989839,9.31319E-11,2.409712E-07,-1.162855E-07,-6.145586E-09,-2.622604E-08
59.38528,-0.4599852,-3.331774E-08,NaN,-0.3265075,-1.385684E-07,NaN,0.5579255,4.798379E-08,NaN,-0.4248159,1.858148E-06,-0.4615614,-1.060149E-08,NaN,NaN,-0.01989373,9.31319E-11,2.478257E-07,-1.16284E-07,-1.091396E-08,-2.861022E-08
59.40187,-0.4772123,-3.331649E-08,NaN,-0.3264892,-1.385682E-07,NaN,0.5632413,4.804088E-08,NaN,-0.421947,1.858903E-06,-0.4659971,-1.065598E-08,NaN,NaN,-0.01988899,8.847529E-11,2.51998E-07,-1.162813E-07,-1.091396E-08,-2.622604E-08
59.41936,-0.4772123,-3.331649E-08,NaN,-0.3264892,-1.385682E-07,NaN,0.5632413,4.804088E-08,NaN,-0.421947,1.858903E-06,-0.4659971,-1.065598E-08,NaN,NaN,-0.01988899,8.847529E-11,2.51998E-07,-1.162813E-07,-1.091396E-08,-2.622604E-08
59.43551,-0.4946004,-3.331523E-08,NaN,-0.3264681,-1.385679E-07,NaN,0.5684761,4.809113E-08,NaN,-0.4191829,1.859657E-06,-0.470371,-1.070364E-08,NaN,NaN,-0.0198843,8.381867E-11,2.579585E-07,-1.162785E-07,-1.329814E-08,-2.861022E-08
59.4534,-0.512745,-3.331398E-08,NaN,-0.3264471,-1.385674E-07,NaN,0.5742785,4.813815E-08,NaN,-0.416163,1.860407E-06,-0.4752406,-1.074807E-08,NaN,NaN,-0.019879,8.381867E-11,2.64366E-07,-1.162756E-07,-1.329814E-08,-2.622604E-08
59.47023,-0.5312892,-3.331272E-08,NaN,-0.3264232,-1.385669E-07,NaN,0.5801592,4.818305E-08,NaN,-0.4131609,1.861161E-06,-0.480184,-1.079037E-08,NaN,NaN,-0.01987363,7.916206E-11,2.709225E-07,-1.162727E-07,-2.04507E-08,-2.861022E-08
59.48719,-0.5500071,-3.331147E-08,NaN,-0.3263961,-1.385664E-07,NaN,0.5859495,4.822654E-08,NaN,-0.4102768,1.861911E-06,-0.4850575,-1.083126E-08,NaN,NaN,-0.01986832,7.916206E-11,2.733067E-07,-1.162697E-07,-2.04507E-08,-2.622604E-08
59.50405,-0.5687556,-3.331022E-08,NaN,-0.3263663,-1.385659E-07,NaN,0.591605,4.826901E-08,NaN,-0.4075361,1.862666E-06,-0.4898254,-1.087114E-08,NaN,NaN,-0.01986307,7.450544E-11,2.815023E-07,-1.162668E-07,-1.806652E-08,-2.861022E-08
59.52169,-0.588173,-3.330896E-08,NaN,-0.3263372,-1.385653E-07,NaN,0.5978543,4.831047E-08,NaN,-0.4045542,1.863415E-06,-0.4951187,-1.090999E-08,NaN,NaN,-0.01985713,7.450544E-11,2.89549E-07,-1.162639E-07,-1.329814E-08,-2.622604E-08
59.53883,-0.588173,-3.330896E-08,NaN,-0.3263372,-1.385653E-07,NaN,0.5978543,4.831047E-08,NaN,-0.4045542,1.863415E-06,-0.4951187,-1.090999E-08,NaN,NaN,-0.01985713,7.450544E-11,2.89549E-07,-1.162639E-07,-1.329814E-08,-2.622604E-08
59.5547,-0.6079297,-3.330771E-08,NaN,-0.3263057,-1.385647E-07,NaN,0.6041962,4.835129E-08,NaN,-0.4015909,1.86417E-06,-0.5005006,-1.094821E-08,NaN,NaN,-0.0198511,6.984883E-11,2.883569E-07,-1.162609E-07,-1.568233E-08,-2.861022E-08
59.57206,-0.6278169,-3.330645E-08,NaN,-0.3262714,-1.385641E-07,NaN,0.6104562,4.839183E-08,NaN,-0.3987425,1.86492E-06,-0.5058214,-1.098616E-08,NaN,NaN,-0.01984514,6.984883E-11,2.888039E-07,-1.16258E-07,-1.568233E-08,-2.622604E-08
59.58933,-0.6484309,-3.33052E-08,NaN,-0.3262372,-1.385636E-07,NaN,0.6173452,4.84321E-08,NaN,-0.3956578,1.865674E-06,-0.511701,-1.102383E-08,NaN,NaN,-0.01983843,6.519221E-11,2.949134E-07,-1.162551E-07,-1.806652E-08,-2.861022E-08
59.60603,-0.6694157,-3.330394E-08,NaN,-0.3262001,-1.38563E-07,NaN,0.6243266,4.846182E-08,NaN,-0.3926037,1.866433E-06,-0.5176691,-1.105095E-08,NaN,NaN,-0.01983165,6.05356E-11,3.005758E-07,-1.162522E-07,-2.04507E-08,-2.622604E-08
59.62335,-0.6905454,-3.330269E-08,NaN,-0.3261597,-1.385624E-07,NaN,0.631216,4.84915E-08,NaN,-0.3896777,1.867187E-06,-0.5235673,-1.107803E-08,NaN,NaN,-0.01982493,6.05356E-11,3.108576E-07,-1.162493E-07,-1.806652E-08,-2.622604E-08
59.64,-0.6905454,-3.330269E-08,NaN,-0.3261597,-1.385624E-07,NaN,0.631216,4.84915E-08,NaN,-0.3896777,1.867187E-06,-0.5235673,-1.107803E-08,NaN,NaN,-0.01982493,6.05356E-11,3.108576E-07,-1.162493E-07,-1.806652E-08,-2.622604E-08
59.65668,-0.7118988,-3.330144E-08,NaN,-0.3261173,-1.385618E-07,NaN,0.6382053,4.852113E-08,NaN,-0.3867922,1.867946E-06,-0.5295659,-1.110507E-08,NaN,NaN,-0.01981802,5.587899E-11,3.117517E-07,-1.162464E-07,-1.806652E-08,-2.622604E-08
59.67475,-0.7333032,-3.330018E-08,NaN,-0.3260729,-1.385613E-07,NaN,0.6451242,4.855072E-08,NaN,-0.3840242,1.868705E-06,-0.5355162,-1.113206E-08,NaN,NaN,-0.01981111,5.122237E-11,3.187552E-07,-1.162436E-07,-2.283489E-08,-2.622604E-08
59.69139,-0.7546501,-3.329893E-08,NaN,-0.3260269,-1.385607E-07,NaN,0.6519234,4.858027E-08,NaN,-0.3813943,1.869464E-06,-0.5413767,-1.115901E-08,NaN,NaN,-0.01980424,4.656576E-11,3.220335E-07,-1.162407E-07,-2.521907E-08,-2.622604E-08
59.70824,-0.7758714,-3.329767E-08,NaN,-0.3259802,-1.385601E-07,NaN,0.6585972,4.860978E-08,NaN,-0.3789004,1.870223E-06,-0.5471437,-1.118592E-08,NaN,NaN,-0.01979741,4.190915E-11,3.2859E-07,-1.162378E-07,-2.521907E-08,-2.622604E-08
59.72537,-0.7969248,-3.329642E-08,NaN,-0.3259335,-1.385596E-07,NaN,0.6651528,4.863889E-08,NaN,-0.3765334,1.870982E-06,-0.5528243,-1.121243E-08,NaN,NaN,-0.0197906,3.725254E-11,3.346995E-07,-1.16235E-07,-2.164279E-08,-2.622604E-08
59.7438,-0.8177846,-3.329517E-08,NaN,-0.3258875,-1.38559E-07,NaN,0.6715991,4.866762E-08,NaN,-0.3742833,1.871741E-06,-0.5584266,-1.123856E-08,NaN,NaN,-0.01978382,3.259593E-11,3.366366E-07,-1.162322E-07,-2.521907E-08,-2.622604E-08
59.7593,-0.8177846,-3.329517E-08,NaN,-0.3258875,-1.38559E-07,NaN,0.6715991,4.866762E-08,NaN,-0.3742833,1.871741E-06,-0.5584266,-1.123856E-08,NaN,NaN,-0.01978382,3.259593E-11,3.366366E-07,-1.162322E-07,-2.521907E-08,-2.622604E-08
59.77586,-0.8384354,-3.329391E-08,NaN,-0.3258425,-1.385584E-07,NaN,0.6779436,4.869631E-08,NaN,-0.3721409,1.8725E-06,-0.5639572,-1.126466E-08,NaN,NaN,-0.01977708,2.793931E-11,3.388718E-07,-1.162294E-07,-2.402698E-08,-2.622604E-08
59.79315,-0.8588683,-3.329266E-08,NaN,-0.3257988,-1.385579E-07,NaN,0.684191,4.872499E-08,NaN,-0.3700989,1.873259E-06,-0.56942,-1.129074E-08,NaN,NaN,-0.01977038,2.32827E-11,3.437891E-07,-1.162265E-07,-2.164279E-08,-2.622604E-08
59.81034,-0.8790789,-3.32914E-08,NaN,-0.3257568,-1.385573E-07,NaN,0.6903444,4.875364E-08,NaN,-0.3681514,1.874018E-06,-0.5748173,-1.131679E-08,NaN,NaN,-0.01976374,1.862609E-11,3.451302E-07,-1.162237E-07,-1.806651E-08,-2.622604E-08
59.82712,-0.8990651,-3.329015E-08,NaN,-0.3257164,-1.385567E-07,NaN,0.6964051,4.878226E-08,NaN,-0.3662939,1.874777E-06,-0.5801497,-1.134281E-08,NaN,NaN,-0.01975715,1.396948E-11,3.478125E-07,-1.162209E-07,-1.568233E-08,-2.622604E-08
59.84402,-0.9188267,-3.32889E-08,NaN,-0.3256778,-1.385561E-07,NaN,0.7023735,4.881086E-08,NaN,-0.3645224,1.875536E-06,-0.585417,-1.136882E-08,NaN,NaN,-0.01975062,9.312865E-12,3.509417E-07,-1.162182E-07,-9.721864E-09,-2.622604E-08
59.86075,-0.9383644,-3.328764E-08,NaN,-0.3256409,-1.385556E-07,NaN,0.7082493,4.883944E-08,NaN,-0.3628339,1.876295E-06,-0.5906182,-1.13948E-08,NaN,NaN,-0.01974417,4.656252E-12,3.542199E-07,-1.162154E-07,-7.337678E-09,-2.622604E-08
59.87766,-0.9383644,-3.328764E-08,NaN,-0.3256409,-1.385556E-07,NaN,0.7082493,4.883944E-08,NaN,-0.3628339,1.876295E-06,-0.5906182,-1.13948E-08,NaN,NaN,-0.01974417,4.656252E-12,3.542199E-07,-1.162154E-07,-7.337678E-09,-2.622604E-08
59.89394,-0.9576797,-3.328639E-08,NaN,-0.3256058,-1.38555E-07,NaN,0.7140314,4.886729E-08,NaN,-0.3612255,1.877054E-06,-0.5957519,-1.142005E-08,NaN,NaN,-0.01973781,-3.608225E-16,3.606274E-07,-1.162126E-07,-7.337678E-09,-2.622604E-08
59.91159,-0.9767745,-3.328513E-08,NaN,-0.3255725,-1.385545E-07,NaN,0.7197188,4.889514E-08,NaN,-0.3596948,1.877808E-06,-0.6008165,-1.14453E-08,NaN,NaN,-0.01973153,-3.608225E-16,3.645017E-07,-1.162099E-07,-7.337678E-09,-2.622604E-08
59.92844,-0.9956506,-3.328388E-08,NaN,-0.3255409,-1.385539E-07,NaN,0.7253101,4.892297E-08,NaN,-0.3582396,1.878567E-06,-0.6058101,-1.147053E-08,NaN,NaN,-0.01972534,-4.656974E-12,3.694191E-07,-1.162071E-07,-3.7614E-09,-2.622604E-08
59.94516,-1.01431,-3.328262E-08,NaN,-0.3255109,-1.385534E-07,NaN,0.7308038,4.895079E-08,NaN,-0.3568577,1.879326E-06,-0.6107309,-1.149576E-08,NaN,NaN,-0.01971926,-9.313586E-12,3.777638E-07,-1.162044E-07,-4.953493E-09,-2.622604E-08
59.96167,-1.032756,-3.328137E-08,NaN,-0.3254827,-1.385528E-07,NaN,0.7361986,4.897861E-08,NaN,-0.3555471,1.880095E-06,-0.6155772,-1.152098E-08,NaN,NaN,-0.01971329,-1.862681E-11,3.750816E-07,-1.162017E-07,-6.145585E-09,-2.622604E-08
59.97871,-1.032756,-3.328137E-08,NaN,-0.3254827,-1.385528E-07,NaN,0.7361986,4.897861E-08,NaN,-0.3555471,1.880095E-06,-0.6155772,-1.152098E-08,NaN,NaN,-0.01971329,-1.862681E-11,3.750816E-07,-1.162017E-07,-6.145585E-09,-2.622604E-08
59.99554,-1.05099,-3.328012E-08,NaN,-0.3254561,-1.385523E-07,NaN,0.7414928,4.900642E-08,NaN,-0.3543059,1.880863E-06,-0.6203468,-1.15462E-08,NaN,NaN,-0.01970742,-2.794004E-11,3.791049E-07,-1.16199E-07,-3.7614E-09,-2.622604E-08
60.01249,-1.069015,-3.327886E-08,NaN,-0.325431,-1.385517E-07,NaN,0.7466851,4.903423E-08,NaN,-0.3531322,1.881631E-06,-0.625038,-1.157141E-08,NaN,NaN,-0.01970167,-3.725326E-11,3.794029E-07,-1.161963E-07,-2.569307E-09,-2.622604E-08
60.02896,-1.086833,-3.327761E-08,NaN,-0.3254074,-1.385511E-07,NaN,0.751774,4.906168E-08,NaN,-0.3520242,1.8824E-06,-0.629649,-1.159625E-08,NaN,NaN,-0.01969604,-4.656649E-11,3.797009E-07,-1.161936E-07,-3.7614E-09,-2.622604E-08
60.04567,-1.104446,-3.327635E-08,NaN,-0.3253853,-1.385506E-07,NaN,0.7567583,4.908877E-08,NaN,-0.35098,1.883168E-06,-0.6341782,-1.162075E-08,NaN,NaN,-0.01969054,-5.587971E-11,3.816381E-07,-1.161909E-07,-3.7614E-09,-2.622604E-08
60.06252,-1.121857,-3.32751E-08,NaN,-0.3253646,-1.3855E-07,NaN,0.7616366,4.911587E-08,NaN,-0.349998,1.883936E-06,-0.6386238,-1.164525E-08,NaN,NaN,-0.01968517,-6.519293E-11,3.859594E-07,-1.161882E-07,-2.569307E-09,-2.622604E-08
60.07967,-1.121857,-3.32751E-08,NaN,-0.3253646,-1.3855E-07,NaN,0.7616366,4.911587E-08,NaN,-0.349998,1.883936E-06,-0.6386238,-1.164525E-08,NaN,NaN,-0.01968517,-6.519293E-11,3.859594E-07,-1.161882E-07,-2.569307E-09,-2.622604E-08
60.09586,-1.139068,-3.327385E-08,NaN,-0.3253454,-1.385495E-07,NaN,0.7664077,4.914299E-08,NaN,-0.3490764,1.884695E-06,-0.6429843,-1.166976E-08,NaN,NaN,-0.01967992,-6.519293E-11,3.834262E-07,-1.161856E-07,-7.811675E-10,-2.622604E-08
60.11287,-1.156081,-3.327259E-08,NaN,-0.3253275,-1.385489E-07,NaN,0.7710707,4.91701E-08,NaN,-0.3482135,1.885463E-06,-0.6472583,-1.169428E-08,NaN,NaN,-0.01967482,-7.450616E-11,3.783598E-07,-1.161829E-07,-3.165353E-09,-2.622604E-08
60.12961,-1.172898,-3.327134E-08,NaN,-0.3253108,-1.385484E-07,NaN,0.7756243,4.919723E-08,NaN,-0.3474077,1.886232E-06,-0.6514443,-1.171881E-08,NaN,NaN,-0.01966986,-8.381938E-11,3.767207E-07,-1.161803E-07,-5.549539E-09,-2.622604E-08
60.1467,-1.189523,-3.327008E-08,NaN,-0.3252955,-1.385479E-07,NaN,0.7800676,4.922401E-08,NaN,-0.3466573,1.887E-06,-0.6555409,-1.174299E-08,NaN,NaN,-0.01966504,-9.313261E-11,3.764227E-07,-1.161776E-07,-7.933725E-09,-2.622604E-08
60.16336,-1.205956,-3.326883E-08,NaN,-0.3252814,-1.385473E-07,NaN,0.7843999,4.925046E-08,NaN,-0.3459607,1.887759E-06,-0.659547,-1.176683E-08,NaN,NaN,-0.01966037,-9.313261E-11,3.759756E-07,-1.16175E-07,-9.721864E-09,-2.622604E-08
60.18026,-1.2222,-3.326758E-08,NaN,-0.3252684,-1.385468E-07,NaN,0.7886204,4.927692E-08,NaN,-0.3453164,1.888527E-06,-0.6634616,-1.17907E-08,NaN,NaN,-0.01965584,-1.024458E-10,3.789559E-07,-1.161724E-07,-9.721864E-09,-2.622604E-08
60.19693,-1.2222,-3.326758E-08,NaN,-0.3252684,-1.385468E-07,NaN,0.7886204,4.927692E-08,NaN,-0.3453164,1.888527E-06,-0.6634616,-1.17907E-08,NaN,NaN,-0.01965584,-1.024458E-10,3.789559E-07,-1.161724E-07,-9.721864E-09,-2.622604E-08
60.21307,-1.238258,-3.326632E-08,NaN,-0.3252566,-1.385462E-07,NaN,0.7927282,4.93034E-08,NaN,-0.3447229,1.889286E-06,-0.6672834,-1.181458E-08,NaN,NaN,-0.01965144,-1.024458E-10,3.822341E-07,-1.161698E-07,-9.125817E-09,-2.622604E-08
60.23037,-1.25391,-3.326507E-08,NaN,-0.3252453,-1.385457E-07,NaN,0.7964106,4.932991E-08,NaN,-0.3442772,1.890045E-06,-0.6707284,-1.183848E-08,NaN,NaN,-0.0196476,-1.024458E-10,3.8134E-07,-1.161672E-07,-6.741632E-09,-2.622604E-08
60.24745,-1.269242,-3.326381E-08,NaN,-0.3252352,-1.385452E-07,NaN,0.7998919,4.935642E-08,NaN,-0.3439081,1.890804E-06,-0.6740018,-1.18624E-08,NaN,NaN,-0.01964395,-1.024458E-10,3.771677E-07,-1.161646E-07,-5.251516E-09,-2.622604E-08
60.26538,-1.284308,-3.326256E-08,NaN,-0.3252269,-1.385446E-07,NaN,0.803253,4.938295E-08,NaN,-0.3435853,1.891573E-06,-0.6771762,-1.188633E-08,NaN,NaN,-0.01964043,-1.117591E-10,3.768697E-07,-1.16162E-07,-4.953492E-09,-2.622604E-08
60.28099,-1.299144,-3.32613E-08,NaN,-0.3252202,-1.385441E-07,NaN,0.8065179,4.940879E-08,NaN,-0.3432975,1.892332E-06,-0.6802726,-1.190957E-08,NaN,NaN,-0.01963702,-1.117591E-10,3.759756E-07,-1.161594E-07,-4.953492E-09,-2.622604E-08
60.29802,-1.299144,-3.32613E-08,NaN,-0.3252202,-1.385441E-07,NaN,0.8065179,4.940879E-08,NaN,-0.3432975,1.892332E-06,-0.6802726,-1.190957E-08,NaN,NaN,-0.01963702,-1.117591E-10,3.759756E-07,-1.161594E-07,-4.953492E-09,-2.622604E-08
60.31392,-1.313046,-3.326005E-08,NaN,-0.3252126,-1.385435E-07,NaN,0.8086454,4.943467E-08,NaN,-0.3433618,1.89309E-06,-0.6823438,-1.193285E-08,NaN,NaN,-0.01963507,-1.117591E-10,3.731444E-07,-1.161569E-07,-4.059423E-09,-2.622604E-08
60.33131,-1.326301,-3.32588E-08,NaN,-0.3252071,-1.38543E-07,NaN,0.8103892,4.946057E-08,NaN,-0.3435516,1.893859E-06,-0.6840806,-1.195615E-08,NaN,NaN,-0.0196334,-1.210723E-10,3.721013E-07,-1.161543E-07,-4.357446E-09,-2.622604E-08
60.34826,-1.339095,-3.325754E-08,NaN,-0.3252046,-1.385425E-07,NaN,0.8120177,4.948651E-08,NaN,-0.3437738,1.894618E-06,-0.6857258,-1.197949E-08,NaN,NaN,-0.01963177,-1.210723E-10,3.715053E-07,-1.161518E-07,-3.910411E-09,-2.622604E-08
60.36515,-1.350817,-3.325629E-08,NaN,-0.3252025,-1.38542E-07,NaN,0.8125619,4.951248E-08,NaN,-0.3443152,1.895377E-06,-0.6863956,-1.200286E-08,NaN,NaN,-0.01963148,-1.210723E-10,3.694191E-07,-1.161492E-07,-3.463376E-09,-2.622604E-08
60.38179,-1.361816,-3.325503E-08,NaN,-0.3252023,-1.385414E-07,NaN,0.8127927,4.953811E-08,NaN,-0.3449443,1.896136E-06,-0.686795,-1.20259E-08,NaN,NaN,-0.01963142,-1.210723E-10,3.658428E-07,-1.161467E-07,-2.718318E-09,-2.622604E-08
60.3989,-1.361816,-3.325503E-08,NaN,-0.3252023,-1.385414E-07,NaN,0.8127927,4.953811E-08,NaN,-0.3449443,1.896136E-06,-0.686795,-1.20259E-08,NaN,NaN,-0.01963142,-1.210723E-10,3.658428E-07,-1.161467E-07,-2.718318E-09,-2.622604E-08
60.41482,-1.372314,-3.325378E-08,NaN,-0.3252037,-1.385409E-07,NaN,0.8129738,4.956378E-08,NaN,-0.345571,1.896895E-06,-0.6871615,-1.204897E-08,NaN,NaN,-0.01963137,-1.210723E-10,3.619685E-07,-1.161442E-07,-2.308536E-09,-2.622604E-08
60.43213,-1.381725,-3.325253E-08,NaN,-0.3252049,-1.385404E-07,NaN,0.8121322,4.958914E-08,NaN,-0.3464876,1.897654E-06,-0.6866072,-1.207173E-08,NaN,NaN,-0.01963264,-1.210723E-10,3.577962E-07,-1.161417E-07,-1.796309E-09,-2.622604E-08
60.44908,-1.390413,-3.325127E-08,NaN,-0.3252075,-1.385399E-07,NaN,0.8110289,4.961453E-08,NaN,-0.3474683,1.898413E-06,-0.6858276,-1.209452E-08,NaN,NaN,-0.01963413,-1.210723E-10,3.574982E-07,-1.161392E-07,-2.466861E-09,-2.622604E-08
60.46591,-1.39861,-3.325002E-08,NaN,-0.3252121,-1.385393E-07,NaN,0.8099214,4.963997E-08,NaN,-0.3484281,1.899172E-06,-0.6850551,-1.211736E-08,NaN,NaN,-0.01963557,-1.210723E-10,3.537729E-07,-1.161367E-07,-7.532277E-10,-2.622604E-08
60.48296,-1.406463,-3.324876E-08,NaN,-0.3252192,-1.385388E-07,NaN,0.8088738,4.966509E-08,NaN,-0.3493432,1.899931E-06,-0.6843454,-1.213988E-08,NaN,NaN,-0.01963695,-1.210723E-10,3.507926E-07,-1.161342E-07,-1.571813E-10,-2.622604E-08
60.49976,-1.406463,-3.324876E-08,NaN,-0.3252192,-1.385388E-07,NaN,0.8088738,4.966509E-08,NaN,-0.3493432,1.899931E-06,-0.6843454,-1.213988E-08,NaN,NaN,-0.01963695,-1.210723E-10,3.507926E-07,-1.161342E-07,-1.571813E-10,-2.622604E-08
60.52104,-1.419574,-3.324626E-08,NaN,-0.3252352,-1.385378E-07,NaN,0.8045884,4.971546E-08,NaN,-0.3517843,1.901449E-06,-0.6809546,-1.218506E-08,NaN,NaN,-0.01964236,-1.210723E-10,3.460242E-07,-1.161293E-07,-3.061929E-10,-2.622604E-08
60.53331,-1.419574,-3.324626E-08,NaN,-0.3252352,-1.385378E-07,NaN,0.8045884,4.971546E-08,NaN,-0.3517843,1.901449E-06,-0.6809546,-1.218506E-08,NaN,NaN,-0.01964236,-1.210723E-10,3.460242E-07,-1.161293E-07,-3.061929E-10,-2.622604E-08
60.54922,-1.425377,-3.3245E-08,NaN,-0.3252467,-1.385372E-07,NaN,0.8023329,4.974036E-08,NaN,-0.3530112,1.902207E-06,-0.6791695,-1.220736E-08,NaN,NaN,-0.01964507,-1.210723E-10,3.43044E-07,-1.161268E-07,-3.061929E-10,-2.622604E-08
60.56651,-1.430884,-3.324375E-08,NaN,-0.3252604,-1.385367E-07,NaN,0.8001511,4.976496E-08,NaN,-0.3541901,1.902966E-06,-0.6774573,-1.222937E-08,NaN,NaN,-0.01964769,-1.210723E-10,3.363384E-07,-1.161244E-07,1.481946E-09,-2.622604E-08
60.58356,-1.435455,-3.324249E-08,NaN,-0.3252735,-1.385362E-07,NaN,0.7970328,4.978962E-08,NaN,-0.3556431,1.903725E-06,-0.6748981,-1.225142E-08,NaN,NaN,-0.01965145,-1.210723E-10,3.31123E-07,-1.16122E-07,2.077993E-09,-2.622604E-08
60.59963,-1.435455,-3.324249E-08,NaN,-0.3252735,-1.385362E-07,NaN,0.7970328,4.978962E-08,NaN,-0.3556431,1.903725E-06,-0.6748981,-1.225142E-08,NaN,NaN,-0.01965145,-1.210723E-10,3.31123E-07,-1.16122E-07,2.077993E-09,-2.622604E-08
60.61584,-1.439417,-3.324124E-08,NaN,-0.3252877,-1.385357E-07,NaN,0.7936993,4.981433E-08,NaN,-0.3571512,1.904484E-06,-0.6721507,-1.227353E-08,NaN,NaN,-0.01965535,-1.210723E-10,3.253116E-07,-1.161195E-07,2.376016E-09,-2.622604E-08
60.63318,-1.44298,-3.323998E-08,NaN,-0.3253033,-1.385352E-07,NaN,0.7904003,4.983909E-08,NaN,-0.35863,1.905243E-06,-0.6694412,-1.22957E-08,NaN,NaN,-0.01965913,-1.210723E-10,3.197981E-07,-1.161171E-07,1.77997E-09,-2.622604E-08
60.65024,-1.445549,-3.323873E-08,NaN,-0.325318,-1.385347E-07,NaN,0.7862119,4.98639E-08,NaN,-0.3603803,1.906002E-06,-0.665929,-1.231792E-08,NaN,NaN,-0.01966395,-1.210723E-10,3.138377E-07,-1.161147E-07,1.481946E-09,-2.622604E-08
60.66677,-1.447481,-3.323748E-08,NaN,-0.3253331,-1.385342E-07,NaN,0.781862,4.988842E-08,NaN,-0.3621729,1.906761E-06,-0.6622777,-1.233983E-08,NaN,NaN,-0.01966884,-1.210723E-10,3.098144E-07,-1.161123E-07,1.481946E-09,-2.622604E-08
60.68361,-1.449005,-3.323622E-08,NaN,-0.3253492,-1.385337E-07,NaN,0.7775981,4.991263E-08,NaN,-0.3639215,1.90752E-06,-0.6587107,-1.236146E-08,NaN,NaN,-0.01967354,-1.210723E-10,3.05344E-07,-1.161099E-07,2.972062E-09,-2.622604E-08
60.70022,-1.450265,-3.323497E-08,NaN,-0.325366,-1.385332E-07,NaN,0.7734812,4.993691E-08,NaN,-0.3656021,1.908279E-06,-0.6552814,-1.238314E-08,NaN,NaN,-0.01967805,-1.210723E-10,2.974464E-07,-1.161075E-07,2.674039E-09,-2.622604E-08
60.71735,-1.450265,-3.323497E-08,NaN,-0.325366,-1.385332E-07,NaN,0.7734812,4.993691E-08,NaN,-0.3656021,1.908279E-06,-0.6552814,-1.238314E-08,NaN,NaN,-0.01967805,-1.210723E-10,2.974464E-07,-1.161075E-07,2.674039E-09,-2.622604E-08
60.73343,-1.450626,-3.323371E-08,NaN,-0.325381,-1.385326E-07,NaN,0.7685477,4.996125E-08,NaN,-0.3675462,1.909038E-06,-0.6511157,-1.240489E-08,NaN,NaN,-0.0196835,-1.210723E-10,2.908899E-07,-1.161051E-07,3.568109E-09,-2.622604E-08
60.75087,-1.450421,-3.323246E-08,NaN,-0.3253956,-1.385321E-07,NaN,0.7634813,4.998531E-08,NaN,-0.3695301,1.909797E-06,-0.6468352,-1.242634E-08,NaN,NaN,-0.019689,-1.210723E-10,2.828432E-07,-1.161028E-07,3.270086E-09,-2.622604E-08
60.76747,-1.44986,-3.323121E-08,NaN,-0.32541,-1.385316E-07,NaN,0.758517,5.000943E-08,NaN,-0.3714692,1.910556E-06,-0.6426522,-1.244787E-08,NaN,NaN,-0.0196943,-1.210723E-10,2.765848E-07,-1.161004E-07,3.568109E-09,-2.622604E-08
60.78629,-1.448349,-3.322995E-08,NaN,-0.3254222,-1.385311E-07,NaN,0.7527826,5.003362E-08,NaN,-0.3736748,1.911315E-06,-0.637777,-1.246946E-08,NaN,NaN,-0.01970045,-1.210723E-10,2.677931E-07,-1.160981E-07,3.866132E-09,-2.622604E-08
60.80089,-1.446247,-3.32287E-08,NaN,-0.3254332,-1.385306E-07,NaN,0.7469629,5.005786E-08,NaN,-0.3759117,1.912074E-06,-0.6328308,-1.249111E-08,NaN,NaN,-0.01970659,-1.210723E-10,2.587034E-07,-1.160957E-07,2.674039E-09,-2.622604E-08
60.81793,-1.446247,-3.32287E-08,NaN,-0.3254332,-1.385306E-07,NaN,0.7469629,5.005786E-08,NaN,-0.3759117,1.912074E-06,-0.6328308,-1.249111E-08,NaN,NaN,-0.01970659,-1.210723E-10,2.587034E-07,-1.160957E-07,2.674039E-09,-2.622604E-08
60.83362,-1.443783,-3.322744E-08,NaN,-0.3254434,-1.385301E-07,NaN,0.7412911,5.008147E-08,NaN,-0.3780918,1.912833E-06,-0.6280232,-1.251212E-08,NaN,NaN,-0.01971249,-1.210723E-10,2.518488E-07,-1.160934E-07,-3.061926E-10,-2.622604E-08
60.85071,-1.4411,-3.322619E-08,NaN,-0.3254533,-1.385296E-07,NaN,0.7358229,5.010515E-08,NaN,-0.3801912,1.913592E-06,-0.6234031,-1.25332E-08,NaN,NaN,-0.01971811,-1.210723E-10,2.458884E-07,-1.160911E-07,-9.022391E-10,-2.622604E-08
60.86683,-1.437562,-3.322494E-08,NaN,-0.3254605,-1.385291E-07,NaN,0.7296566,5.012891E-08,NaN,-0.3825532,1.914351E-06,-0.6181577,-1.255436E-08,NaN,NaN,-0.01972449,-1.210723E-10,2.388848E-07,-1.160888E-07,8.859002E-10,-2.622604E-08
60.88321,-1.433503,-3.322368E-08,NaN,-0.3254659,-1.385286E-07,NaN,0.723428,5.015274E-08,NaN,-0.3849465,1.91511E-06,-0.612861,-1.25756E-08,NaN,NaN,-0.01973084,-1.210723E-10,2.306892E-07,-1.160864E-07,2.898538E-10,-2.622604E-08
60.89917,-1.433503,-3.322368E-08,NaN,-0.3254659,-1.385286E-07,NaN,0.723428,5.015274E-08,NaN,-0.3849465,1.91511E-06,-0.612861,-1.25756E-08,NaN,NaN,-0.01973084,-1.210723E-10,2.306892E-07,-1.160864E-07,2.898538E-10,-2.622604E-08
60.91481,-1.429131,-3.322243E-08,NaN,-0.3254701,-1.385281E-07,NaN,0.7173569,5.017629E-08,NaN,-0.387284,1.915869E-06,-0.6077105,-1.259655E-08,NaN,NaN,-0.01973695,-1.210723E-10,2.235366E-07,-1.160841E-07,2.898538E-10,-2.622604E-08
60.93131,-1.424581,-3.322117E-08,NaN,-0.3254735,-1.385276E-07,NaN,0.711498,5.019991E-08,NaN,-0.3895409,1.916628E-06,-0.6027541,-1.261757E-08,NaN,NaN,-0.01974278,-1.210723E-10,2.168311E-07,-1.160818E-07,-9.022391E-10,-2.622604E-08
60.94749,-1.419211,-3.321992E-08,NaN,-0.3254746,-1.385271E-07,NaN,0.7049918,5.022361E-08,NaN,-0.392067,1.917387E-06,-0.597221,-1.263867E-08,NaN,NaN,-0.01974927,-1.210723E-10,2.105726E-07,-1.160796E-07,-9.022391E-10,-2.622604E-08
60.96323,-1.413346,-3.321867E-08,NaN,-0.3254748,-1.385266E-07,NaN,0.6984487,5.024668E-08,NaN,-0.3946247,1.918146E-06,-0.5916597,-1.265914E-08,NaN,NaN,-0.01975572,-1.210723E-10,2.052082E-07,-1.160773E-07,-2.690378E-09,-2.622604E-08
60.97906,-1.413346,-3.321867E-08,NaN,-0.3254748,-1.385266E-07,NaN,0.6984487,5.024668E-08,NaN,-0.3946247,1.918146E-06,-0.5916597,-1.265914E-08,NaN,NaN,-0.01975572,-1.210723E-10,2.052082E-07,-1.160773E-07,-2.690378E-09,-2.622604E-08
60.99422,-1.407196,-3.321741E-08,NaN,-0.3254745,-1.385261E-07,NaN,0.6920806,5.026983E-08,NaN,-0.3971243,1.918905E-06,-0.5862595,-1.26797E-08,NaN,NaN,-0.0197619,-1.210723E-10,1.973106E-07,-1.16075E-07,-9.022391E-10,-2.622604E-08
61.01096,-1.400891,-3.321616E-08,NaN,-0.3254739,-1.385256E-07,NaN,0.6859403,5.029307E-08,NaN,-0.3995397,1.919664E-06,-0.5810666,-1.270034E-08,NaN,NaN,-0.01976779,-1.210723E-10,1.912011E-07,-1.160728E-07,-6.042158E-10,-2.622604E-08
61.02661,-1.393787,-3.32149E-08,NaN,-0.3254706,-1.385252E-07,NaN,0.6792074,5.031782E-08,NaN,-0.4022271,1.920423E-06,-0.5753492,-1.272249E-08,NaN,NaN,-0.01977427,-1.210723E-10,1.844956E-07,-1.160705E-07,-3.286425E-09,-2.622604E-08
61.04253,-1.38621,-3.321365E-08,NaN,-0.3254654,-1.385247E-07,NaN,0.6724635,5.034262E-08,NaN,-0.4049432,1.921177E-06,-0.5696265,-1.274469E-08,NaN,NaN,-0.01978069,-1.164157E-10,1.76002E-07,-1.160683E-07,-5.074564E-09,-2.622604E-08
61.0581,-1.38621,-3.321365E-08,NaN,-0.3254654,-1.385247E-07,NaN,0.6724635,5.034262E-08,NaN,-0.4049432,1.921177E-06,-0.5696265,-1.274469E-08,NaN,NaN,-0.01978069,-1.164157E-10,1.76002E-07,-1.160683E-07,-5.074564E-09,-2.622604E-08
61.07285,-1.378368,-3.321239E-08,NaN,-0.3254588,-1.385242E-07,NaN,0.6659114,5.036748E-08,NaN,-0.4075966,1.921932E-06,-0.5640789,-1.276695E-08,NaN,NaN,-0.01978686,-1.117591E-10,1.700415E-07,-1.16066E-07,-5.67061E-09,-2.622604E-08
61.08926,-1.370391,-3.321114E-08,NaN,-0.3254513,-1.385237E-07,NaN,0.6596017,5.039167E-08,NaN,-0.410161,1.922686E-06,-0.5587506,-1.278855E-08,NaN,NaN,-0.01979272,-1.071024E-10,1.612498E-07,-1.160638E-07,-5.372587E-09,-2.622604E-08
61.10481,-1.361635,-3.320989E-08,NaN,-0.3254407,-1.385232E-07,NaN,0.6527532,5.041593E-08,NaN,-0.4129994,1.923441E-06,-0.5529492,-1.281021E-08,NaN,NaN,-0.0197991,-1.024458E-10,1.545443E-07,-1.160616E-07,-3.882471E-09,-2.622604E-08
61.12062,-1.352425,-3.320863E-08,NaN,-0.3254279,-1.385228E-07,NaN,0.6459181,5.044026E-08,NaN,-0.4158636,1.924195E-06,-0.5471643,-1.283194E-08,NaN,NaN,-0.0198054,-9.778921E-11,1.464977E-07,-1.160594E-07,-3.286424E-09,-2.622604E-08
61.1361,-1.352425,-3.320863E-08,NaN,-0.3254279,-1.385228E-07,NaN,0.6459181,5.044026E-08,NaN,-0.4158636,1.924195E-06,-0.5471643,-1.283194E-08,NaN,NaN,-0.0198054,-9.778921E-11,1.464977E-07,-1.160594E-07,-3.286424E-09,-2.622604E-08
61.15122,-1.342969,-3.320738E-08,NaN,-0.3254132,-1.385223E-07,NaN,0.6392893,5.046429E-08,NaN,-0.4186603,1.924949E-06,-0.5415664,-1.285337E-08,NaN,NaN,-0.01981144,-9.313259E-11,1.394941E-07,-1.160572E-07,-4.77654E-09,-2.622604E-08
61.16724,-1.333397,-3.320612E-08,NaN,-0.3253975,-1.385218E-07,NaN,0.6329141,5.048839E-08,NaN,-0.4213628,1.925704E-06,-0.5361968,-1.287487E-08,NaN,NaN,-0.01981719,-8.847598E-11,1.347258E-07,-1.16055E-07,-5.074564E-09,-2.622604E-08
61.18288,-1.323064,-3.320487E-08,NaN,-0.3253786,-1.385213E-07,NaN,0.6260502,5.051255E-08,NaN,-0.4243414,1.926463E-06,-0.5304018,-1.289643E-08,NaN,NaN,-0.01982338,-8.847598E-11,1.278712E-07,-1.160528E-07,-4.77654E-09,-2.622604E-08
61.1984,-1.323064,-3.320487E-08,NaN,-0.3253786,-1.385213E-07,NaN,0.6260502,5.051255E-08,NaN,-0.4243414,1.926463E-06,-0.5304018,-1.289643E-08,NaN,NaN,-0.01982338,-8.847598E-11,1.278712E-07,-1.160528E-07,-4.77654E-09,-2.622604E-08
61.21343,-1.312296,-3.320362E-08,NaN,-0.3253573,-1.385208E-07,NaN,0.6192205,5.053678E-08,NaN,-0.4273424,1.927217E-06,-0.5246416,-1.291807E-08,NaN,NaN,-0.01982948,-8.381936E-11,1.239969E-07,-1.160506E-07,-3.882471E-09,-2.622604E-08
61.22964,-1.301299,-3.320236E-08,NaN,-0.325334,-1.385203E-07,NaN,0.6126078,5.056037E-08,NaN,-0.4302712,1.927972E-06,-0.519077,-1.293905E-08,NaN,NaN,-0.01983533,-7.916275E-11,1.186325E-07,-1.160484E-07,-3.882471E-09,-2.622604E-08
