JMolnar6/NonAnthroHands_User_Study/HandsLoggerWithURDF/tempdata/files/Reachy_JointMotion_gesture_3_15.csv
Time,r_shoulder,r_shoulder_x,r_upper_arm,r_forearm,r_wrist,r_wrist2hand,
166.5907,0.04500335,-2.691951E-08,NaN,-0.3269998,-1.374368E-07,NaN,0.3137127,3.299294E-08,NaN,-2.146572,5.728396E-06,-0.3558144,-9.594311E-09,NaN,NaN,-0.02000007,2.281733E-10,-9.955858E-08,-1.15233E-07,-1.066252E-08,-2.622604E-08
166.6063,0.04500335,-2.691837E-08,NaN,-0.3269998,-1.374365E-07,NaN,0.3150463,3.299692E-08,NaN,-2.146677,5.729099E-06,-0.3566048,-9.595963E-09,NaN,NaN,-0.02000237,2.281733E-10,-1.363272E-07,-1.15232E-07,-7.086238E-09,-2.861022E-08
166.6219,0.04500335,-2.691723E-08,NaN,-0.3269998,-1.374364E-07,NaN,0.316824,3.300661E-08,NaN,-2.146775,5.729802E-06,-0.3571826,-9.603319E-09,NaN,NaN,-0.02000404,2.281733E-10,-1.627581E-07,-1.152311E-07,-7.086238E-09,-2.622604E-08
166.6373,0.04500335,-2.691723E-08,NaN,-0.3269998,-1.374364E-07,NaN,0.316824,3.300661E-08,NaN,-2.146775,5.729802E-06,-0.3571826,-9.603319E-09,NaN,NaN,-0.02000404,2.281733E-10,-1.627581E-07,-1.152311E-07,-7.086238E-09,-2.622604E-08
166.652,0.04500335,-2.691609E-08,NaN,-0.3269998,-1.374362E-07,NaN,0.3187946,3.301907E-08,NaN,-2.146858,5.730505E-06,-0.3576347,-9.613452E-09,NaN,NaN,-0.02000534,2.235167E-10,-1.837129E-07,-1.152287E-07,-1.185461E-08,-2.861022E-08
166.6736,0.04500335,-2.691495E-08,NaN,-0.3269998,-1.374357E-07,NaN,0.320088,3.299494E-08,NaN,-2.14685,5.731204E-06,-0.3571141,-9.586994E-09,NaN,NaN,-0.02000375,2.235167E-10,-1.593867E-07,-1.152275E-07,-9.470424E-09,-2.622604E-08
166.6843,0.04500335,-2.691381E-08,NaN,-0.3269998,-1.374354E-07,NaN,0.3205618,3.29911E-08,NaN,-2.146813,5.731907E-06,-0.3567094,-9.580829E-09,NaN,NaN,-0.02000256,2.188601E-10,-1.385437E-07,-1.152264E-07,-8.278332E-09,-2.861022E-08
166.7002,0.04500336,-2.691267E-08,NaN,-0.3269998,-1.374351E-07,NaN,0.3205841,3.299662E-08,NaN,-2.14678,5.732605E-06,-0.3564953,-9.584022E-09,NaN,NaN,-0.02000195,2.188601E-10,-1.280757E-07,-1.152255E-07,-8.278332E-09,-2.622604E-08
166.7169,0.04500336,-2.691267E-08,NaN,-0.3269998,-1.374351E-07,NaN,0.3205841,3.299662E-08,NaN,-2.14678,5.732605E-06,-0.3564953,-9.584022E-09,NaN,NaN,-0.02000195,2.188601E-10,-1.280757E-07,-1.152255E-07,-8.278332E-09,-2.622604E-08
166.731,0.04500336,-2.691153E-08,NaN,-0.3269998,-1.374344E-07,NaN,0.320396,3.30017E-08,NaN,-2.146756,5.733304E-06,-0.3563913,-9.586763E-09,NaN,NaN,-0.02000166,2.142035E-10,-1.242386E-07,-1.152238E-07,-7.086239E-09,-2.861022E-08
166.749,0.04500337,-2.691039E-08,NaN,-0.3269998,-1.374333E-07,NaN,0.31937,3.297173E-08,NaN,-2.146663,5.733998E-06,-0.3554338,-9.554457E-09,NaN,NaN,-0.01999882,2.095469E-10,-8.020569E-08,-1.152219E-07,-7.086239E-09,-2.622604E-08
166.7632,0.04500337,-2.690925E-08,NaN,-0.3269998,-1.37432E-07,NaN,0.3174738,3.292355E-08,NaN,-2.146556,5.734692E-06,-0.3546528,-9.503934E-09,NaN,NaN,-0.01999655,2.002337E-10,-4.399588E-08,-1.152199E-07,-9.470424E-09,-2.861022E-08
166.7796,0.04500337,-2.690925E-08,NaN,-0.3269998,-1.37432E-07,NaN,0.3174738,3.292355E-08,NaN,-2.146556,5.734692E-06,-0.3546528,-9.503934E-09,NaN,NaN,-0.01999655,2.002337E-10,-4.399588E-08,-1.152199E-07,-9.470424E-09,-2.861022E-08
166.7941,0.04500337,-2.690811E-08,NaN,-0.3269998,-1.374305E-07,NaN,0.3151236,3.286524E-08,NaN,-2.146463,5.735376E-06,-0.3540957,-9.443274E-09,NaN,NaN,-0.01999494,1.955771E-10,-1.970698E-08,-1.152178E-07,-1.066252E-08,-2.622604E-08
166.8122,0.04500338,-2.690697E-08,NaN,-0.3269998,-1.37429E-07,NaN,0.3125809,3.280261E-08,NaN,-2.146386,5.73606E-06,-0.3536696,-9.378293E-09,NaN,NaN,-0.01999372,1.816072E-10,-1.119567E-10,-1.152156E-07,-1.066252E-08,-2.861022E-08
166.8268,0.04500338,-2.690583E-08,NaN,-0.3269998,-1.374275E-07,NaN,0.3092258,3.273786E-08,NaN,-2.146244,5.736731E-06,-0.3524054,-9.311174E-09,NaN,NaN,-0.01999001,1.769506E-10,6.008874E-08,-1.152134E-07,-8.278331E-09,-2.622604E-08
166.8424,0.04500339,-2.690469E-08,NaN,-0.3269998,-1.374259E-07,NaN,0.3050297,3.267311E-08,NaN,-2.146092,5.737406E-06,-0.3513313,-9.244071E-09,NaN,NaN,-0.01998691,1.676374E-10,1.092626E-07,-1.152112E-07,-8.278331E-09,-2.861022E-08
166.8584,0.04500339,-2.690469E-08,NaN,-0.3269998,-1.374259E-07,NaN,0.3050297,3.267311E-08,NaN,-2.146092,5.737406E-06,-0.3513313,-9.244071E-09,NaN,NaN,-0.01998691,1.676374E-10,1.092626E-07,-1.152112E-07,-8.278331E-09,-2.861022E-08
166.8732,0.0450034,-2.690355E-08,NaN,-0.3269998,-1.374243E-07,NaN,0.3004106,3.260909E-08,NaN,-2.145956,5.738072E-06,-0.3504929,-9.177684E-09,NaN,NaN,-0.01998449,1.676374E-10,1.483036E-07,-1.152089E-07,-9.470424E-09,-2.622604E-08
166.8899,0.0450034,-2.690241E-08,NaN,-0.3269998,-1.374227E-07,NaN,0.2956303,3.254577E-08,NaN,-2.145839,5.738747E-06,-0.3497966,-9.111992E-09,NaN,NaN,-0.0199825,1.583242E-10,1.815332E-07,-1.152067E-07,-2.317866E-09,-2.861022E-08
166.9055,0.04500341,-2.690127E-08,NaN,-0.3269998,-1.374211E-07,NaN,0.2900673,3.248454E-08,NaN,-2.145658,5.739413E-06,-0.3482724,-9.048396E-09,NaN,NaN,-0.01997807,1.583242E-10,2.541018E-07,-1.152045E-07,-7.086238E-09,-2.622604E-08
166.922,0.04500342,-2.690013E-08,NaN,-0.3269998,-1.374194E-07,NaN,0.2836933,3.242537E-08,NaN,-2.14547,5.740088E-06,-0.3469495,-8.986851E-09,NaN,NaN,-0.01997426,1.490109E-10,3.169847E-07,-1.152023E-07,-4.702052E-09,-2.861022E-08
166.9375,0.04500342,-2.690013E-08,NaN,-0.3269998,-1.374194E-07,NaN,0.2836933,3.242537E-08,NaN,-2.14547,5.740088E-06,-0.3469495,-8.986851E-09,NaN,NaN,-0.01997426,1.490109E-10,3.169847E-07,-1.152023E-07,-4.702052E-09,-2.861022E-08
166.9528,0.04500343,-2.689899E-08,NaN,-0.3269998,-1.374178E-07,NaN,0.2769268,3.236821E-08,NaN,-2.1453,5.740754E-06,-0.3458724,-8.927319E-09,NaN,NaN,-0.01997119,1.490109E-10,3.670526E-07,-1.152001E-07,-4.702052E-09,-2.622604E-08
166.9747,0.04500344,-2.689785E-08,NaN,-0.3269998,-1.374163E-07,NaN,0.2700295,3.231302E-08,NaN,-2.14515,5.74143E-06,-0.344947,-8.869756E-09,NaN,NaN,-0.01996855,1.396977E-10,4.10117E-07,-1.151979E-07,-1.125773E-09,-2.861022E-08
166.9846,0.04500345,-2.689671E-08,NaN,-0.3269998,-1.374147E-07,NaN,0.2623772,3.225977E-08,NaN,-2.144938,5.742095E-06,-0.3432025,-8.81413E-09,NaN,NaN,-0.01996352,1.396977E-10,4.929674E-07,-1.151958E-07,6.631939E-11,-2.622604E-08
167.0003,0.04500346,-2.689557E-08,NaN,-0.3269998,-1.374131E-07,NaN,0.2539423,3.220841E-08,NaN,-2.144722,5.742771E-06,-0.3416698,-8.760397E-09,NaN,NaN,-0.01995915,1.303845E-10,5.6494E-07,-1.151936E-07,6.631939E-11,-2.861022E-08
167.0158,0.04500346,-2.689557E-08,NaN,-0.3269998,-1.374131E-07,NaN,0.2539423,3.220841E-08,NaN,-2.144722,5.742771E-06,-0.3416698,-8.760397E-09,NaN,NaN,-0.01995915,1.303845E-10,5.6494E-07,-1.151936E-07,6.631939E-11,-2.861022E-08
167.03,0.04500347,-2.689444E-08,NaN,-0.3269998,-1.374115E-07,NaN,0.245144,3.215891E-08,NaN,-2.144526,5.743436E-06,-0.340392,-8.708521E-09,NaN,NaN,-0.01995553,1.303845E-10,6.233525E-07,-1.151914E-07,6.631939E-11,-2.622604E-08
167.047,0.04500347,-2.68933E-08,NaN,-0.3269998,-1.374099E-07,NaN,0.2362435,3.211123E-08,NaN,-2.14435,5.744112E-06,-0.3392743,-8.658464E-09,NaN,NaN,-0.01995237,1.210712E-10,6.746125E-07,-1.151893E-07,6.631939E-11,-2.861022E-08
167.0631,0.04500348,-2.689216E-08,NaN,-0.3269998,-1.374083E-07,NaN,0.2266142,3.206534E-08,NaN,-2.144114,5.744777E-06,-0.3373455,-8.610195E-09,NaN,NaN,-0.01994688,1.210712E-10,7.664037E-07,-1.151871E-07,1.258412E-09,-2.622604E-08
167.0789,0.04500348,-2.689216E-08,NaN,-0.3269998,-1.374083E-07,NaN,0.2266142,3.206534E-08,NaN,-2.144114,5.744777E-06,-0.3373455,-8.610195E-09,NaN,NaN,-0.01994688,1.210712E-10,7.664037E-07,-1.151871E-07,1.258412E-09,-2.622604E-08
167.0939,0.0450035,-2.689102E-08,NaN,-0.3269998,-1.374067E-07,NaN,0.2162291,3.20212E-08,NaN,-2.143877,5.745453E-06,-0.3356379,-8.563675E-09,NaN,NaN,-0.01994207,1.11758E-10,8.461249E-07,-1.15185E-07,-1.125773E-09,-2.861022E-08
167.11,0.04500351,-2.688988E-08,NaN,-0.3269998,-1.374052E-07,NaN,0.2055081,3.197878E-08,NaN,-2.14366,5.746118E-06,-0.3341934,-8.518872E-09,NaN,NaN,-0.01993802,1.11758E-10,9.12584E-07,-1.151828E-07,2.450505E-09,-2.622604E-08
167.126,0.04500352,-2.688874E-08,NaN,-0.3269998,-1.374036E-07,NaN,0.1947124,3.193874E-08,NaN,-2.143465,5.746789E-06,-0.3329166,-8.476456E-09,NaN,NaN,-0.01993445,1.024448E-10,9.727847E-07,-1.151807E-07,2.450505E-09,-2.861022E-08
167.1416,0.04500353,-2.68876E-08,NaN,-0.3269998,-1.374021E-07,NaN,0.1832123,3.190034E-08,NaN,-2.143212,5.74745E-06,-0.3308356,-8.435676E-09,NaN,NaN,-0.0199286,1.024448E-10,1.072921E-06,-1.151786E-07,-3.509959E-09,-2.622604E-08
167.1575,0.04500353,-2.68876E-08,NaN,-0.3269998,-1.374021E-07,NaN,0.1832123,3.190034E-08,NaN,-2.143212,5.74745E-06,-0.3308356,-8.435676E-09,NaN,NaN,-0.0199286,1.024448E-10,1.072921E-06,-1.151786E-07,-3.509959E-09,-2.622604E-08
167.1723,0.04500354,-2.688646E-08,NaN,-0.3269998,-1.374005E-07,NaN,0.1709816,3.186354E-08,NaN,-2.142959,5.748121E-06,-0.3289847,-8.396496E-09,NaN,NaN,-0.01992346,9.313156E-11,1.162924E-06,-1.151764E-07,-4.702052E-09,-2.861022E-08
167.189,0.04500356,-2.688533E-08,NaN,-0.3269998,-1.37399E-07,NaN,0.1584415,3.182831E-08,NaN,-2.142728,5.748782E-06,-0.3274041,-8.358887E-09,NaN,NaN,-0.0199191,9.313156E-11,1.237429E-06,-1.151743E-07,-5.894145E-09,-2.622604E-08
167.2043,0.04500357,-2.688419E-08,NaN,-0.3269998,-1.373974E-07,NaN,0.1458527,3.179462E-08,NaN,-2.142519,5.749453E-06,-0.3259978,-8.322818E-09,NaN,NaN,-0.01991523,8.381834E-11,1.304485E-06,-1.151722E-07,-8.278331E-09,-2.861022E-08
167.2205,0.04500358,-2.688305E-08,NaN,-0.3269998,-1.373959E-07,NaN,0.1325824,3.176245E-08,NaN,-2.142255,5.750114E-06,-0.3237935,-8.288262E-09,NaN,NaN,-0.01990913,8.381834E-11,1.413412E-06,-1.151701E-07,-8.278331E-09,-2.622604E-08
167.236,0.04500358,-2.688305E-08,NaN,-0.3269998,-1.373959E-07,NaN,0.1325824,3.176245E-08,NaN,-2.142255,5.750114E-06,-0.3237935,-8.288262E-09,NaN,NaN,-0.01990913,8.381834E-11,1.413412E-06,-1.151701E-07,-8.278331E-09,-2.622604E-08
167.2508,0.0450036,-2.688192E-08,NaN,-0.3269998,-1.373943E-07,NaN,0.1186055,3.173175E-08,NaN,-2.141992,5.750785E-06,-0.3218274,-8.255182E-09,NaN,NaN,-0.01990375,7.450512E-11,1.508333E-06,-1.15168E-07,-7.086238E-09,-2.861022E-08
167.267,0.04500361,-2.688078E-08,NaN,-0.3269998,-1.373928E-07,NaN,0.1043441,3.170179E-08,NaN,-2.141752,5.751446E-06,-0.320138,-8.222849E-09,NaN,NaN,-0.01989916,7.450512E-11,1.590587E-06,-1.15166E-07,-7.086238E-09,-2.622604E-08
167.2827,0.04500362,-2.687964E-08,NaN,-0.3269998,-1.373913E-07,NaN,0.09005903,3.167398E-08,NaN,-2.141535,5.752117E-06,-0.3186289,-8.19266E-09,NaN,NaN,-0.01989509,6.519189E-11,1.660026E-06,-1.151639E-07,-5.894146E-09,-2.861022E-08
167.2984,0.04500362,-2.687964E-08,NaN,-0.3269998,-1.373913E-07,NaN,0.09005903,3.167398E-08,NaN,-2.141535,5.752117E-06,-0.3186289,-8.19266E-09,NaN,NaN,-0.01989509,6.519189E-11,1.660026E-06,-1.151639E-07,-5.894146E-09,-2.861022E-08
167.3148,0.04500363,-2.68785E-08,NaN,-0.3269998,-1.373898E-07,NaN,0.07511394,3.164757E-08,NaN,-2.141264,5.752788E-06,-0.3163269,-8.163867E-09,NaN,NaN,-0.01988882,5.587867E-11,1.772381E-06,-1.151618E-07,-5.894146E-09,-2.622604E-08
167.3296,0.04500365,-2.687737E-08,NaN,-0.3269998,-1.373882E-07,NaN,0.05948495,3.162252E-08,NaN,-2.140997,5.753453E-06,-0.3142706,-8.136442E-09,NaN,NaN,-0.0198833,4.656545E-11,1.871772E-06,-1.151598E-07,-4.702053E-09,-2.861022E-08
167.3458,0.04500366,-2.687623E-08,NaN,-0.3269998,-1.373867E-07,NaN,0.04359538,3.159882E-08,NaN,-2.140753,5.75411E-06,-0.3124968,-8.110358E-09,NaN,NaN,-0.01987858,4.656545E-11,1.956261E-06,-1.151577E-07,6.631851E-11,-2.622604E-08
167.3608,0.04500367,-2.687509E-08,NaN,-0.3269998,-1.373852E-07,NaN,0.02770577,3.157643E-08,NaN,-2.140532,5.754776E-06,-0.3109084,-8.085588E-09,NaN,NaN,-0.01987438,3.725222E-11,2.032406E-06,-1.151557E-07,2.450504E-09,-2.861022E-08
167.377,0.04500367,-2.687509E-08,NaN,-0.3269998,-1.373852E-07,NaN,0.02770577,3.157643E-08,NaN,-2.140532,5.754776E-06,-0.3109084,-8.085588E-09,NaN,NaN,-0.01987438,3.725222E-11,2.032406E-06,-1.151557E-07,2.450504E-09,-2.861022E-08
167.3916,0.04500369,-2.687396E-08,NaN,-0.3269998,-1.373837E-07,NaN,0.01117645,3.155533E-08,NaN,-2.140258,5.755433E-06,-0.3085318,-8.062107E-09,NaN,NaN,-0.01986804,3.725222E-11,2.153702E-06,-1.151536E-07,6.026783E-09,-2.622604E-08
167.408,0.0450037,-2.687282E-08,NaN,-0.3269998,-1.373822E-07,NaN,-0.006015265,3.153549E-08,NaN,-2.139991,5.756098E-06,-0.3064075,-8.039886E-09,NaN,NaN,-0.01986246,2.7939E-11,2.257414E-06,-1.151516E-07,8.410968E-09,-2.861022E-08
167.424,0.04500372,-2.687168E-08,NaN,-0.3269998,-1.373807E-07,NaN,-0.02344482,3.151688E-08,NaN,-2.139747,5.756755E-06,-0.3045709,-8.018906E-09,NaN,NaN,-0.01985767,2.7939E-11,2.345331E-06,-1.151496E-07,7.218875E-09,-2.622604E-08
167.4395,0.04500372,-2.687168E-08,NaN,-0.3269998,-1.373807E-07,NaN,-0.02344482,3.151688E-08,NaN,-2.139747,5.756755E-06,-0.3045709,-8.018906E-09,NaN,NaN,-0.01985767,2.7939E-11,2.345331E-06,-1.151496E-07,7.218875E-09,-2.622604E-08
167.4546,0.04500373,-2.687055E-08,NaN,-0.3269998,-1.373792E-07,NaN,-0.0416186,3.14995E-08,NaN,-2.139457,5.757421E-06,-0.3020143,-7.999137E-09,NaN,NaN,-0.01985098,1.862577E-11,2.471991E-06,-1.151476E-07,7.218875E-09,-2.861022E-08
167.4707,0.04500375,-2.686941E-08,NaN,-0.3269998,-1.373778E-07,NaN,-0.06048812,3.14833E-08,NaN,-2.139177,5.758073E-06,-0.2997483,-7.980558E-09,NaN,NaN,-0.01984513,2.328238E-11,2.583898E-06,-1.151455E-07,6.026783E-09,-2.622604E-08
167.4864,0.04500376,-2.686828E-08,NaN,-0.3269998,-1.373763E-07,NaN,-0.07959564,3.146826E-08,NaN,-2.138925,5.758729E-06,-0.2977901,-7.963145E-09,NaN,NaN,-0.01984013,2.328238E-11,2.684034E-06,-1.151435E-07,2.450504E-09,-2.861022E-08
167.502,0.04500378,-2.686714E-08,NaN,-0.3269998,-1.373748E-07,NaN,-0.09866686,3.145437E-08,NaN,-2.138697,5.759382E-06,-0.2960337,-7.946877E-09,NaN,NaN,-0.01983569,2.793899E-11,2.768375E-06,-1.151415E-07,1.258411E-09,-2.622604E-08
167.5177,0.04500378,-2.686714E-08,NaN,-0.3269998,-1.373748E-07,NaN,-0.09866686,3.145437E-08,NaN,-2.138697,5.759382E-06,-0.2960337,-7.946877E-09,NaN,NaN,-0.01983569,2.793899E-11,2.768375E-06,-1.151415E-07,1.258411E-09,-2.622604E-08
167.5331,0.04500379,-2.686601E-08,NaN,-0.3269998,-1.373733E-07,NaN,-0.1183417,3.14416E-08,NaN,-2.138421,5.760038E-06,-0.2935009,-7.931725E-09,NaN,NaN,-0.01982922,2.793899E-11,2.897121E-06,-1.151395E-07,1.258411E-09,-2.861022E-08
167.5494,0.04500381,-2.686487E-08,NaN,-0.3269998,-1.373719E-07,NaN,-0.1386379,3.143063E-08,NaN,-2.138155,5.760695E-06,-0.2912351,-7.918382E-09,NaN,NaN,-0.01982353,2.793899E-11,3.01186E-06,-1.151376E-07,-2.317867E-09,-2.622604E-08
167.5649,0.04500382,-2.686374E-08,NaN,-0.3269998,-1.373704E-07,NaN,-0.1591277,3.142073E-08,NaN,-2.137913,5.761356E-06,-0.2892676,-7.906102E-09,NaN,NaN,-0.01981864,2.328238E-11,3.109313E-06,-1.151356E-07,-3.50996E-09,-2.861022E-08
167.5805,0.04500384,-2.68626E-08,NaN,-0.3269998,-1.373689E-07,NaN,-0.1795505,3.141187E-08,NaN,-2.137695,5.762013E-06,-0.2874992,-7.894864E-09,NaN,NaN,-0.01981429,2.328238E-11,3.201998E-06,-1.151336E-07,-5.894146E-09,-2.622604E-08
167.5965,0.04500384,-2.68626E-08,NaN,-0.3269998,-1.373689E-07,NaN,-0.1795505,3.141187E-08,NaN,-2.137695,5.762013E-06,-0.2874992,-7.894864E-09,NaN,NaN,-0.01981429,2.328238E-11,3.201998E-06,-1.151336E-07,-5.894146E-09,-2.622604E-08
167.6115,0.04500385,-2.686147E-08,NaN,-0.3269998,-1.373675E-07,NaN,-0.1997835,3.140403E-08,NaN,-2.137497,5.762669E-06,-0.285865,-7.884648E-09,NaN,NaN,-0.01981032,2.328238E-11,3.288425E-06,-1.151317E-07,-9.470424E-09,-2.861022E-08
167.6284,0.04500387,-2.686034E-08,NaN,-0.3269998,-1.37366E-07,NaN,-0.2197735,3.13972E-08,NaN,-2.137314,5.763321E-06,-0.2843329,-7.875435E-09,NaN,NaN,-0.01980664,2.793899E-11,3.369189E-06,-1.151297E-07,-5.894146E-09,-2.622604E-08
167.6433,0.04500388,-2.68592E-08,NaN,-0.3269998,-1.373646E-07,NaN,-0.2394994,3.139064E-08,NaN,-2.137146,5.763978E-06,-0.2828872,-7.8665E-09,NaN,NaN,-0.01980318,2.793899E-11,3.442354E-06,-1.151278E-07,6.631851E-11,-2.861022E-08
167.659,0.04500388,-2.68592E-08,NaN,-0.3269998,-1.373646E-07,NaN,-0.2394994,3.139064E-08,NaN,-2.137146,5.763978E-06,-0.2828872,-7.8665E-09,NaN,NaN,-0.01980318,2.793899E-11,3.442354E-06,-1.151278E-07,6.631851E-11,-2.861022E-08
167.674,0.04500389,-2.685807E-08,NaN,-0.3269998,-1.373632E-07,NaN,-0.2589542,3.138506E-08,NaN,-2.136989,5.76463E-06,-0.2815195,-7.858541E-09,NaN,NaN,-0.01979994,3.259561E-11,3.511943E-06,-1.151258E-07,2.450504E-09,-2.622604E-08
167.6906,0.04500391,-2.685694E-08,NaN,-0.3269998,-1.373617E-07,NaN,-0.278137,3.138043E-08,NaN,-2.136844,5.765291E-06,-0.2802253,-7.85154E-09,NaN,NaN,-0.01979691,2.793899E-11,3.57721E-06,-1.151239E-07,6.631851E-11,-2.861022E-08
167.7067,0.04500392,-2.68558E-08,NaN,-0.3269998,-1.373603E-07,NaN,-0.2970494,3.137675E-08,NaN,-2.136708,5.765948E-06,-0.2790012,-7.845481E-09,NaN,NaN,-0.01979407,2.793899E-11,3.636665E-06,-1.15122E-07,-1.125774E-09,-2.622604E-08
167.722,0.04500393,-2.685467E-08,NaN,-0.3269998,-1.373589E-07,NaN,-0.3156942,3.137398E-08,NaN,-2.136583,5.766609E-06,-0.2778448,-7.840338E-09,NaN,NaN,-0.01979141,2.328238E-11,3.695078E-06,-1.1512E-07,-1.125774E-09,-2.861022E-08
167.7372,0.04500393,-2.685467E-08,NaN,-0.3269998,-1.373589E-07,NaN,-0.3156942,3.137398E-08,NaN,-2.136583,5.766609E-06,-0.2778448,-7.840338E-09,NaN,NaN,-0.01979141,2.328238E-11,3.695078E-06,-1.1512E-07,-1.125774E-09,-2.861022E-08
167.7523,0.04500394,-2.685354E-08,NaN,-0.3269998,-1.373574E-07,NaN,-0.3340747,3.137212E-08,NaN,-2.136467,5.767266E-06,-0.2767538,-7.836102E-09,NaN,NaN,-0.01978892,2.328238E-11,3.751404E-06,-1.151181E-07,4.83469E-09,-2.622604E-08
167.7686,0.04500395,-2.68524E-08,NaN,-0.3269998,-1.37356E-07,NaN,-0.3521941,3.137115E-08,NaN,-2.136361,5.767923E-06,-0.2757261,-7.83275E-09,NaN,NaN,-0.01978661,2.328238E-11,3.803558E-06,-1.151162E-07,6.026783E-09,-2.861022E-08
167.7848,0.04500396,-2.685127E-08,NaN,-0.3269998,-1.373546E-07,NaN,-0.3700559,3.137104E-08,NaN,-2.136263,5.768579E-06,-0.27476,-7.830266E-09,NaN,NaN,-0.01978445,2.328238E-11,3.853477E-06,-1.151143E-07,-1.125775E-09,-2.622604E-08
167.8011,0.04500397,-2.685014E-08,NaN,-0.3269998,-1.373532E-07,NaN,-0.3876634,3.137179E-08,NaN,-2.136174,5.769236E-06,-0.2738534,-7.828635E-09,NaN,NaN,-0.01978245,2.328238E-11,3.900565E-06,-1.151124E-07,-5.894146E-09,-2.861022E-08
167.8158,0.04500397,-2.685014E-08,NaN,-0.3269998,-1.373532E-07,NaN,-0.3876634,3.137179E-08,NaN,-2.136174,5.769236E-06,-0.2738534,-7.828635E-09,NaN,NaN,-0.01978245,2.328238E-11,3.900565E-06,-1.151124E-07,-5.894146E-09,-2.861022E-08
167.8308,0.04500398,-2.684901E-08,NaN,-0.3269998,-1.373518E-07,NaN,-0.40502,3.137336E-08,NaN,-2.136093,5.769893E-06,-0.2730046,-7.827836E-09,NaN,NaN,-0.01978061,2.328238E-11,3.942735E-06,-1.151106E-07,-7.086239E-09,-2.622604E-08
167.8474,0.045004,-2.684788E-08,NaN,-0.3269998,-1.373504E-07,NaN,-0.4221291,3.137576E-08,NaN,-2.13602,5.770549E-06,-0.2722118,-7.827856E-09,NaN,NaN,-0.01977891,2.328238E-11,3.986694E-06,-1.151087E-07,-1.185461E-08,-2.861022E-08
167.8625,0.04500401,-2.684674E-08,NaN,-0.3269998,-1.37349E-07,NaN,-0.4389941,3.137896E-08,NaN,-2.135955,5.771201E-06,-0.2714734,-7.828675E-09,NaN,NaN,-0.01977735,2.793899E-11,4.025288E-06,-1.151068E-07,-1.42388E-08,-2.622604E-08
167.8785,0.04500401,-2.684674E-08,NaN,-0.3269998,-1.37349E-07,NaN,-0.4389941,3.137896E-08,NaN,-2.135955,5.771201E-06,-0.2714734,-7.828675E-09,NaN,NaN,-0.01977735,2.793899E-11,4.025288E-06,-1.151068E-07,-1.42388E-08,-2.622604E-08
167.8932,0.04500402,-2.684561E-08,NaN,-0.3269998,-1.373476E-07,NaN,-0.4556181,3.138294E-08,NaN,-2.135897,5.771858E-06,-0.2707875,-7.830281E-09,NaN,NaN,-0.01977592,2.793899E-11,4.063435E-06,-1.151049E-07,-1.42388E-08,-2.861022E-08
167.9097,0.04500403,-2.684448E-08,NaN,-0.3269998,-1.373462E-07,NaN,-0.4720044,3.138769E-08,NaN,-2.135846,5.77251E-06,-0.2701527,-7.832659E-09,NaN,NaN,-0.01977462,3.259561E-11,4.10024E-06,-1.151031E-07,-1.900717E-08,-2.622604E-08
167.9256,0.04500403,-2.684335E-08,NaN,-0.3269998,-1.373448E-07,NaN,-0.4881563,3.13932E-08,NaN,-2.135803,5.773171E-06,-0.2695673,-7.83579E-09,NaN,NaN,-0.01977344,2.793899E-11,4.134662E-06,-1.151012E-07,-1.185461E-08,-2.861022E-08
167.9409,0.04500404,-2.684222E-08,NaN,-0.3269998,-1.373434E-07,NaN,-0.504077,3.139945E-08,NaN,-2.135766,5.773828E-06,-0.2690297,-7.839662E-09,NaN,NaN,-0.01977238,2.793899E-11,4.165209E-06,-1.150994E-07,-1.662298E-08,-2.622604E-08
167.957,0.04500404,-2.684222E-08,NaN,-0.3269998,-1.373434E-07,NaN,-0.504077,3.139945E-08,NaN,-2.135766,5.773828E-06,-0.2690297,-7.839662E-09,NaN,NaN,-0.01977238,2.793899E-11,4.165209E-06,-1.150994E-07,-1.662298E-08,-2.622604E-08
167.9718,0.04500405,-2.684109E-08,NaN,-0.3269998,-1.373421E-07,NaN,-0.5197694,3.140641E-08,NaN,-2.135736,5.774489E-06,-0.2685385,-7.844242E-09,NaN,NaN,-0.01977144,2.328238E-11,4.195012E-06,-1.150975E-07,-1.662298E-08,-2.861022E-08
167.9882,0.04500405,-2.683995E-08,NaN,-0.3269998,-1.373407E-07,NaN,-0.5352369,3.141408E-08,NaN,-2.135713,5.775146E-06,-0.2680922,-7.849533E-09,NaN,NaN,-0.01977061,2.328238E-11,4.220344E-06,-1.150957E-07,-2.139135E-08,-2.622604E-08
168.0036,0.04500406,-2.683882E-08,NaN,-0.3269998,-1.373393E-07,NaN,-0.5504823,3.142245E-08,NaN,-2.135695,5.775802E-06,-0.2676894,-7.855523E-09,NaN,NaN,-0.01976988,2.328238E-11,4.242845E-06,-1.150939E-07,-2.139135E-08,-2.861022E-08
168.0192,0.04500406,-2.683882E-08,NaN,-0.3269998,-1.373393E-07,NaN,-0.5504823,3.142245E-08,NaN,-2.135695,5.775802E-06,-0.2676894,-7.855523E-09,NaN,NaN,-0.01976988,2.328238E-11,4.242845E-06,-1.150939E-07,-2.139135E-08,-2.861022E-08
168.0343,0.04500407,-2.683769E-08,NaN,-0.3269998,-1.373379E-07,NaN,-0.5655088,3.143079E-08,NaN,-2.135683,5.776455E-06,-0.2673286,-7.861493E-09,NaN,NaN,-0.01976925,2.793899E-11,4.267134E-06,-1.15092E-07,-2.615972E-08,-2.622604E-08
168.0508,0.04500408,-2.683656E-08,NaN,-0.3269998,-1.373366E-07,NaN,-0.5803195,3.143982E-08,NaN,-2.135678,5.777111E-06,-0.2670087,-7.868146E-09,NaN,NaN,-0.01976873,2.793899E-11,4.284866E-06,-1.150902E-07,-2.615972E-08,-2.861022E-08
168.0665,0.04500408,-2.683544E-08,NaN,-0.3269998,-1.373352E-07,NaN,-0.5949171,3.144953E-08,NaN,-2.135677,5.777763E-06,-0.2667281,-7.875471E-09,NaN,NaN,-0.01976829,3.259561E-11,4.301108E-06,-1.150884E-07,-2.377554E-08,-2.622604E-08
168.0822,0.04500409,-2.683431E-08,NaN,-0.3269998,-1.373339E-07,NaN,-0.6093047,3.145989E-08,NaN,-2.135683,5.778425E-06,-0.2664857,-7.883455E-09,NaN,NaN,-0.01976794,2.793899E-11,4.319138E-06,-1.150866E-07,-2.377554E-08,-2.861022E-08
168.0981,0.04500409,-2.683431E-08,NaN,-0.3269998,-1.373339E-07,NaN,-0.6093047,3.145989E-08,NaN,-2.135683,5.778425E-06,-0.2664857,-7.883455E-09,NaN,NaN,-0.01976794,2.793899E-11,4.319138E-06,-1.150866E-07,-2.377554E-08,-2.861022E-08
168.1128,0.0450041,-2.683318E-08,NaN,-0.3269998,-1.373325E-07,NaN,-0.6234851,3.14709E-08,NaN,-2.135693,5.779081E-06,-0.2662801,-7.892085E-09,NaN,NaN,-0.01976768,2.793899E-11,4.33553E-06,-1.150848E-07,-2.139135E-08,-2.622604E-08
168.1291,0.04500411,-2.683205E-08,NaN,-0.3269998,-1.373312E-07,NaN,-0.6374612,3.148254E-08,NaN,-2.135708,5.779742E-06,-0.2661102,-7.901347E-09,NaN,NaN,-0.0197675,2.328238E-11,4.347898E-06,-1.15083E-07,-1.900717E-08,-2.861022E-08
168.1449,0.04500411,-2.683092E-08,NaN,-0.3269998,-1.373298E-07,NaN,-0.6512358,3.14948E-08,NaN,-2.135729,5.780399E-06,-0.2659748,-7.911231E-09,NaN,NaN,-0.0197674,2.328238E-11,4.35654E-06,-1.150812E-07,-2.139135E-08,-2.622604E-08
168.1606,0.04500412,-2.682979E-08,NaN,-0.3269998,-1.373285E-07,NaN,-0.6648118,3.150767E-08,NaN,-2.135754,5.781056E-06,-0.2658728,-7.921725E-09,NaN,NaN,-0.01976738,2.328238E-11,4.36414E-06,-1.150795E-07,-1.900717E-08,-2.861022E-08
168.1764,0.04500412,-2.682979E-08,NaN,-0.3269998,-1.373285E-07,NaN,-0.6648118,3.150767E-08,NaN,-2.135754,5.781056E-06,-0.2658728,-7.921725E-09,NaN,NaN,-0.01976738,2.328238E-11,4.36414E-06,-1.150795E-07,-1.900717E-08,-2.861022E-08
168.1915,0.04500412,-2.682866E-08,NaN,-0.3269998,-1.373272E-07,NaN,-0.6781918,3.152044E-08,NaN,-2.135783,5.781708E-06,-0.265803,-7.932109E-09,NaN,NaN,-0.01976744,2.793899E-11,4.373081E-06,-1.150777E-07,-1.662298E-08,-2.622604E-08
168.2076,0.04500413,-2.682753E-08,NaN,-0.3269998,-1.373258E-07,NaN,-0.6913786,3.153379E-08,NaN,-2.135817,5.782364E-06,-0.2657643,-7.943091E-09,NaN,NaN,-0.01976756,2.793899E-11,4.376955E-06,-1.150759E-07,-1.185461E-08,-2.861022E-08
168.2234,0.04500413,-2.68264E-08,NaN,-0.3269998,-1.373245E-07,NaN,-0.7043748,3.154774E-08,NaN,-2.135855,5.783017E-06,-0.2657556,-7.954658E-09,NaN,NaN,-0.01976775,3.259561E-11,4.376508E-06,-1.150742E-07,-1.42388E-08,-2.622604E-08
168.2391,0.04500413,-2.68264E-08,NaN,-0.3269998,-1.373245E-07,NaN,-0.7043748,3.154774E-08,NaN,-2.135855,5.783017E-06,-0.2657556,-7.954658E-09,NaN,NaN,-0.01976775,3.259561E-11,4.376508E-06,-1.150742E-07,-1.42388E-08,-2.622604E-08
168.2542,0.04500413,-2.682527E-08,NaN,-0.3269998,-1.373232E-07,NaN,-0.7171832,3.156226E-08,NaN,-2.135897,5.783678E-06,-0.265776,-7.966801E-09,NaN,NaN,-0.019768,2.793899E-11,4.382021E-06,-1.150724E-07,-1.662298E-08,-2.861022E-08
168.2704,0.04500414,-2.682414E-08,NaN,-0.3269998,-1.373219E-07,NaN,-0.7298064,3.157735E-08,NaN,-2.135943,5.784334E-06,-0.2658244,-7.979511E-09,NaN,NaN,-0.01976831,2.793899E-11,4.383512E-06,-1.150707E-07,-1.185461E-08,-2.622604E-08
168.2863,0.04500414,-2.682302E-08,NaN,-0.3269998,-1.373206E-07,NaN,-0.7422468,3.159299E-08,NaN,-2.135993,5.784996E-06,-0.2658998,-7.992774E-09,NaN,NaN,-0.01976869,2.328238E-11,4.382245E-06,-1.150689E-07,-9.470423E-09,-2.861022E-08
168.3035,0.04500414,-2.682189E-08,NaN,-0.3269998,-1.373193E-07,NaN,-0.7545071,3.160917E-08,NaN,-2.136047,5.785652E-06,-0.2660014,-8.006581E-09,NaN,NaN,-0.01976912,2.328238E-11,4.381798E-06,-1.150672E-07,-7.086237E-09,-2.622604E-08
168.3184,0.04500414,-2.682189E-08,NaN,-0.3269998,-1.373193E-07,NaN,-0.7545071,3.160917E-08,NaN,-2.136047,5.785652E-06,-0.2660014,-8.006581E-09,NaN,NaN,-0.01976912,2.328238E-11,4.381798E-06,-1.150672E-07,-7.086237E-09,-2.622604E-08
168.3336,0.04500415,-2.682076E-08,NaN,-0.3269998,-1.37318E-07,NaN,-0.7665898,3.162589E-08,NaN,-2.136104,5.786309E-06,-0.266128,-8.020917E-09,NaN,NaN,-0.01976961,2.328238E-11,4.37852E-06,-1.150655E-07,-2.317865E-09,-2.861022E-08
168.3505,0.04500415,-2.681963E-08,NaN,-0.3269998,-1.373166E-07,NaN,-0.7784974,3.164312E-08,NaN,-2.136164,5.786961E-06,-0.266279,-8.035775E-09,NaN,NaN,-0.01977016,2.793899E-11,4.370622E-06,-1.150637E-07,2.450506E-09,-2.622604E-08
168.3664,0.04500416,-2.68185E-08,NaN,-0.3269998,-1.373154E-07,NaN,-0.7902324,3.166087E-08,NaN,-2.136228,5.787618E-06,-0.2664532,-8.051145E-09,NaN,NaN,-0.01977075,2.793899E-11,4.365034E-06,-1.15062E-07,7.218877E-09,-2.861022E-08
168.3829,0.04500416,-2.681738E-08,NaN,-0.3269998,-1.373141E-07,NaN,-0.801797,3.167912E-08,NaN,-2.136295,5.78827E-06,-0.2666501,-8.067017E-09,NaN,NaN,-0.01977139,3.259561E-11,4.35587E-06,-1.150603E-07,7.218877E-09,-2.622604E-08
168.3996,0.04500416,-2.681738E-08,NaN,-0.3269998,-1.373141E-07,NaN,-0.801797,3.167912E-08,NaN,-2.136295,5.78827E-06,-0.2666501,-8.067017E-09,NaN,NaN,-0.01977139,3.259561E-11,4.35587E-06,-1.150603E-07,7.218877E-09,-2.622604E-08
168.4173,0.04500416,-2.681625E-08,NaN,-0.3269998,-1.373128E-07,NaN,-0.8131939,3.169715E-08,NaN,-2.136365,5.788931E-06,-0.2668685,-8.082671E-09,NaN,NaN,-0.01977208,2.793899E-11,4.346781E-06,-1.150586E-07,1.198725E-08,-2.861022E-08
168.4321,0.04500417,-2.681512E-08,NaN,-0.3269998,-1.373115E-07,NaN,-0.8244253,3.171498E-08,NaN,-2.136438,5.789588E-06,-0.2671079,-8.098116E-09,NaN,NaN,-0.01977282,2.793899E-11,4.337915E-06,-1.150569E-07,1.198725E-08,-2.622604E-08
168.4488,0.04500417,-2.6814E-08,NaN,-0.3269998,-1.373102E-07,NaN,-0.8354935,3.173329E-08,NaN,-2.136513,5.790249E-06,-0.2673673,-8.114057E-09,NaN,NaN,-0.01977359,2.328238E-11,4.327484E-06,-1.150552E-07,1.437143E-08,-2.861022E-08
168.469,0.04500417,-2.681287E-08,NaN,-0.3269998,-1.373089E-07,NaN,-0.8464009,3.17521E-08,NaN,-2.136592,5.790906E-06,-0.2676461,-8.130487E-09,NaN,NaN,-0.01977441,2.328238E-11,4.315563E-06,-1.150535E-07,1.91398E-08,-2.622604E-08
168.4855,0.04500417,-2.681174E-08,NaN,-0.3269998,-1.373077E-07,NaN,-0.8571497,3.177139E-08,NaN,-2.136673,5.791567E-06,-0.2679434,-8.147401E-09,NaN,NaN,-0.01977526,1.862577E-11,4.303269E-06,-1.150518E-07,2.390817E-08,-2.861022E-08
168.502,0.04500417,-2.681062E-08,NaN,-0.3269998,-1.373064E-07,NaN,-0.8677421,3.179116E-08,NaN,-2.136756,5.792228E-06,-0.2682586,-8.164786E-09,NaN,NaN,-0.01977616,1.396916E-11,4.290305E-06,-1.150501E-07,2.629236E-08,-2.622604E-08
168.5188,0.04500417,-2.681062E-08,NaN,-0.3269998,-1.373064E-07,NaN,-0.8677421,3.179116E-08,NaN,-2.136756,5.792228E-06,-0.2682586,-8.164786E-09,NaN,NaN,-0.01977616,1.396916E-11,4.290305E-06,-1.150501E-07,2.629236E-08,-2.622604E-08
168.538,0.04500417,-2.680949E-08,NaN,-0.3269998,-1.373051E-07,NaN,-0.8781804,3.181138E-08,NaN,-2.136842,5.792889E-06,-0.2685909,-8.182631E-09,NaN,NaN,-0.01977708,9.312546E-12,4.275851E-06,-1.150485E-07,2.152399E-08,-2.861022E-08
168.5556,0.04500417,-2.680837E-08,NaN,-0.3269998,-1.373039E-07,NaN,-0.8884668,3.183206E-08,NaN,-2.13693,5.79355E-06,-0.2689396,-8.200932E-09,NaN,NaN,-0.01977804,4.655933E-12,4.260354E-06,-1.150468E-07,2.390817E-08,-2.622604E-08
168.5718,0.04500417,-2.680724E-08,NaN,-0.3269998,-1.373026E-07,NaN,-0.8986034,3.185318E-08,NaN,-2.137021,5.794212E-06,-0.2693042,-8.219677E-09,NaN,NaN,-0.01977903,-6.800116E-16,4.244708E-06,-1.150452E-07,2.390817E-08,-2.861022E-08
168.5883,0.04500417,-2.680611E-08,NaN,-0.3269998,-1.373013E-07,NaN,-0.9085923,3.187473E-08,NaN,-2.137113,5.794873E-06,-0.2696838,-8.238858E-09,NaN,NaN,-0.01978005,-4.657293E-12,4.226156E-06,-1.150435E-07,2.152399E-08,-2.622604E-08
168.6085,0.04500417,-2.680499E-08,NaN,-0.3269998,-1.373001E-07,NaN,-0.9184357,3.189599E-08,NaN,-2.137208,5.795534E-06,-0.270078,-8.257741E-09,NaN,NaN,-0.01978111,-9.313906E-12,4.208423E-06,-1.150418E-07,1.675562E-08,-2.861022E-08
168.6253,0.04500417,-2.680386E-08,NaN,-0.3269998,-1.372988E-07,NaN,-0.9281356,3.191769E-08,NaN,-2.137304,5.796195E-06,-0.2704861,-8.277058E-09,NaN,NaN,-0.01978219,-1.397052E-11,4.188828E-06,-1.150402E-07,2.390817E-08,-2.622604E-08
168.6416,0.04500417,-2.680273E-08,NaN,-0.3269998,-1.372976E-07,NaN,-0.937694,3.193981E-08,NaN,-2.137403,5.796856E-06,-0.2709075,-8.296798E-09,NaN,NaN,-0.01978329,-1.862713E-11,4.168712E-06,-1.150386E-07,1.437143E-08,-2.861022E-08
168.6587,0.04500417,-2.680273E-08,NaN,-0.3269998,-1.372976E-07,NaN,-0.937694,3.193981E-08,NaN,-2.137403,5.796856E-06,-0.2709075,-8.296798E-09,NaN,NaN,-0.01978329,-1.862713E-11,4.168712E-06,-1.150386E-07,1.437143E-08,-2.861022E-08
168.6744,0.04500417,-2.680161E-08,NaN,-0.3269998,-1.372964E-07,NaN,-0.9471129,3.196234E-08,NaN,-2.137503,5.797518E-06,-0.2713416,-8.316954E-09,NaN,NaN,-0.01978442,-2.328374E-11,4.150383E-06,-1.150369E-07,1.198725E-08,-2.622604E-08
168.6922,0.04500417,-2.680049E-08,NaN,-0.3269998,-1.372951E-07,NaN,-0.9563944,3.198529E-08,NaN,-2.137604,5.798179E-06,-0.2717879,-8.337519E-09,NaN,NaN,-0.01978558,-2.794035E-11,4.130341E-06,-1.150353E-07,1.437143E-08,-2.861022E-08
168.7086,0.04500417,-2.679936E-08,NaN,-0.3269998,-1.372939E-07,NaN,-0.9655403,3.200863E-08,NaN,-2.137708,5.798835E-06,-0.2722457,-8.358486E-09,NaN,NaN,-0.01978676,-2.794035E-11,4.110821E-06,-1.150337E-07,1.198725E-08,-2.622604E-08
168.7255,0.04500417,-2.679824E-08,NaN,-0.3269998,-1.372926E-07,NaN,-0.9745528,3.203237E-08,NaN,-2.137813,5.799492E-06,-0.2727146,-8.379844E-09,NaN,NaN,-0.01978796,-2.794035E-11,4.088543E-06,-1.150321E-07,1.437143E-08,-2.861022E-08
168.7422,0.04500417,-2.679711E-08,NaN,-0.3269998,-1.372914E-07,NaN,-0.9834335,3.205578E-08,NaN,-2.137919,5.800149E-06,-0.2731941,-8.400878E-09,NaN,NaN,-0.01978919,-2.794035E-11,4.066639E-06,-1.150305E-07,1.198725E-08,-2.622604E-08
168.759,0.04500417,-2.679711E-08,NaN,-0.3269998,-1.372914E-07,NaN,-0.9834335,3.205578E-08,NaN,-2.137919,5.800149E-06,-0.2731941,-8.400878E-09,NaN,NaN,-0.01978919,-2.794035E-11,4.066639E-06,-1.150305E-07,1.198725E-08,-2.622604E-08
168.7753,0.04500417,-2.679599E-08,NaN,-0.3269998,-1.372902E-07,NaN,-0.9921844,3.207958E-08,NaN,-2.138027,5.800805E-06,-0.2736837,-8.422304E-09,NaN,NaN,-0.01979043,-2.794035E-11,4.043616E-06,-1.150289E-07,1.198725E-08,-2.861022E-08
168.7927,0.04500417,-2.679486E-08,NaN,-0.3269998,-1.37289E-07,NaN,-1.000807,3.210306E-08,NaN,-2.138136,5.801462E-06,-0.2741828,-8.443405E-09,NaN,NaN,-0.01979169,-2.794035E-11,4.020817E-06,-1.150273E-07,7.218875E-09,-2.622604E-08
168.8095,0.04500417,-2.679374E-08,NaN,-0.3269998,-1.372878E-07,NaN,-1.009304,3.212693E-08,NaN,-2.138247,5.802119E-06,-0.274691,-8.464897E-09,NaN,NaN,-0.01979297,-2.794035E-11,3.997721E-06,-1.150257E-07,6.631806E-11,-2.861022E-08
168.8269,0.04500417,-2.679261E-08,NaN,-0.3269998,-1.372866E-07,NaN,-1.017677,3.215118E-08,NaN,-2.138358,5.802775E-06,-0.2752079,-8.48677E-09,NaN,NaN,-0.01979427,-2.794035E-11,3.973879E-06,-1.150241E-07,2.450504E-09,-2.622604E-08
168.8448,0.04500417,-2.679149E-08,NaN,-0.3269998,-1.372854E-07,NaN,-1.025927,3.217581E-08,NaN,-2.138471,5.803432E-06,-0.275733,-8.509015E-09,NaN,NaN,-0.01979558,-2.794035E-11,3.948845E-06,-1.150225E-07,2.450504E-09,-2.861022E-08
168.8598,0.04500417,-2.679149E-08,NaN,-0.3269998,-1.372854E-07,NaN,-1.025927,3.217581E-08,NaN,-2.138471,5.803432E-06,-0.275733,-8.509015E-09,NaN,NaN,-0.01979558,-2.794035E-11,3.948845E-06,-1.150225E-07,2.450504E-09,-2.861022E-08
168.8762,0.04500416,-2.679037E-08,NaN,-0.3269998,-1.372841E-07,NaN,-1.034056,3.22008E-08,NaN,-2.138585,5.804089E-06,-0.2762658,-8.531627E-09,NaN,NaN,-0.01979691,-2.794035E-11,3.922544E-06,-1.150209E-07,2.450504E-09,-2.622604E-08
168.8938,0.04500416,-2.678924E-08,NaN,-0.3269998,-1.37283E-07,NaN,-1.042067,3.222544E-08,NaN,-2.1387,5.804745E-06,-0.2768059,-8.553892E-09,NaN,NaN,-0.01979825,-2.794035E-11,3.896393E-06,-1.150194E-07,6.631806E-11,-2.861022E-08
168.9105,0.04500416,-2.678812E-08,NaN,-0.3269998,-1.372818E-07,NaN,-1.04996,3.225045E-08,NaN,-2.138816,5.805402E-06,-0.277353,-8.576524E-09,NaN,NaN,-0.0197996,-2.794035E-11,3.870912E-06,-1.150178E-07,-4.702053E-09,-2.622604E-08
168.9276,0.04500415,-2.6787E-08,NaN,-0.3269998,-1.372807E-07,NaN,-1.057737,3.2282E-08,NaN,-2.138932,5.806054E-06,-0.2779066,-8.605697E-09,NaN,NaN,-0.01980097,-1.397052E-11,3.844835E-06,-1.150195E-07,-2.317868E-09,-2.861022E-08
168.9444,0.04500415,-2.678587E-08,NaN,-0.3269998,-1.372804E-07,NaN,-1.0654,3.240153E-08,NaN,-2.13905,5.806725E-06,-0.2784663,-8.722862E-09,NaN,NaN,-0.01980235,-1.397052E-11,3.817864E-06,-1.150204E-07,6.631806E-11,-2.622604E-08
168.9611,0.04500414,-2.678475E-08,NaN,-0.3269998,-1.372803E-07,NaN,-1.072951,3.252729E-08,NaN,-2.139169,5.8074E-06,-0.2790319,-8.846256E-09,NaN,NaN,-0.01980374,-1.862713E-11,3.791638E-06,-1.150213E-07,-2.317868E-09,-2.861022E-08
168.9779,0.04500414,-2.678475E-08,NaN,-0.3269998,-1.372803E-07,NaN,-1.072951,3.252729E-08,NaN,-2.139169,5.8074E-06,-0.2790319,-8.846256E-09,NaN,NaN,-0.01980374,-1.862713E-11,3.791638E-06,-1.150213E-07,-2.317868E-09,-2.861022E-08
168.9937,0.04500414,-2.678363E-08,NaN,-0.3269998,-1.372802E-07,NaN,-1.080392,3.265635E-08,NaN,-2.139288,5.808071E-06,-0.2796028,-8.972949E-09,NaN,NaN,-0.01980514,-1.862713E-11,3.76407E-06,-1.150223E-07,-4.702053E-09,-2.622604E-08
169.0116,0.04500414,-2.678251E-08,NaN,-0.3269998,-1.372803E-07,NaN,-1.087723,3.278652E-08,NaN,-2.139408,5.808732E-06,-0.2801788,-9.100767E-09,NaN,NaN,-0.01980655,-9.313904E-12,3.737248E-06,-1.150233E-07,-9.470424E-09,-2.861022E-08
169.0286,0.04500413,-2.678138E-08,NaN,-0.3269998,-1.372803E-07,NaN,-1.094946,3.291639E-08,NaN,-2.139528,5.809403E-06,-0.2807595,-9.228292E-09,NaN,NaN,-0.01980797,-9.313904E-12,3.711171E-06,-1.150243E-07,-7.086239E-09,-2.622604E-08
169.0452,0.04500413,-2.678026E-08,NaN,-0.3269998,-1.372804E-07,NaN,-1.102064,3.304527E-08,NaN,-2.139649,5.810074E-06,-0.2813446,-9.354822E-09,NaN,NaN,-0.0198094,-9.313904E-12,3.683306E-06,-1.150253E-07,-9.470424E-09,-2.861022E-08
169.0616,0.04500413,-2.677914E-08,NaN,-0.3269998,-1.372804E-07,NaN,-1.109077,3.317177E-08,NaN,-2.139771,5.810744E-06,-0.2819338,-9.478971E-09,NaN,NaN,-0.01981083,-9.313904E-12,3.656633E-06,-1.150263E-07,-9.470424E-09,-2.622604E-08
169.0789,0.04500413,-2.677914E-08,NaN,-0.3269998,-1.372804E-07,NaN,-1.109077,3.317177E-08,NaN,-2.139771,5.810744E-06,-0.2819338,-9.478971E-09,NaN,NaN,-0.01981083,-9.313904E-12,3.656633E-06,-1.150263E-07,-9.470424E-09,-2.622604E-08
169.0947,0.04500412,-2.677801E-08,NaN,-0.3269998,-1.372805E-07,NaN,-1.115987,3.329593E-08,NaN,-2.139894,5.811415E-06,-0.2825267,-9.600788E-09,NaN,NaN,-0.01981227,-9.313904E-12,3.628023E-06,-1.150274E-07,-1.185461E-08,-2.861022E-08
169.1124,0.04500412,-2.677689E-08,NaN,-0.3269998,-1.372806E-07,NaN,-1.122796,3.341779E-08,NaN,-2.140016,5.812086E-06,-0.2831231,-9.720314E-09,NaN,NaN,-0.01981371,-9.313904E-12,3.598668E-06,-1.150284E-07,-9.470424E-09,-2.622604E-08
169.1288,0.04500411,-2.677577E-08,NaN,-0.3269998,-1.372807E-07,NaN,-1.129504,3.353742E-08,NaN,-2.14014,5.812757E-06,-0.2837227,-9.837601E-09,NaN,NaN,-0.01981516,-9.313904E-12,3.569461E-06,-1.150294E-07,-7.086239E-09,-2.861022E-08
169.1456,0.04500411,-2.677465E-08,NaN,-0.3269998,-1.372808E-07,NaN,-1.136114,3.365485E-08,NaN,-2.140263,5.813427E-06,-0.2843252,-9.952694E-09,NaN,NaN,-0.01981661,-9.313904E-12,3.539957E-06,-1.150304E-07,-9.470424E-09,-2.622604E-08
169.162,0.04500411,-2.677352E-08,NaN,-0.3269998,-1.372808E-07,NaN,-1.142627,3.376872E-08,NaN,-2.140387,5.814098E-06,-0.2849302,-1.006422E-08,NaN,NaN,-0.01981807,-9.313904E-12,3.510751E-06,-1.150314E-07,-9.470424E-09,-2.861022E-08
169.179,0.04500411,-2.677352E-08,NaN,-0.3269998,-1.372808E-07,NaN,-1.142627,3.376872E-08,NaN,-2.140387,5.814098E-06,-0.2849302,-1.006422E-08,NaN,NaN,-0.01981807,-9.313904E-12,3.510751E-06,-1.150314E-07,-9.470424E-09,-2.861022E-08
169.195,0.0450041,-2.67724E-08,NaN,-0.3269998,-1.372809E-07,NaN,-1.149044,3.38805E-08,NaN,-2.140511,5.814769E-06,-0.2855376,-1.017366E-08,NaN,NaN,-0.01981954,-9.313904E-12,3.481694E-06,-1.150324E-07,-9.470424E-09,-2.622604E-08
169.2127,0.0450041,-2.677128E-08,NaN,-0.3269998,-1.37281E-07,NaN,-1.155367,3.398954E-08,NaN,-2.140636,5.81544E-06,-0.2861471,-1.028036E-08,NaN,NaN,-0.01982101,-9.313904E-12,3.451742E-06,-1.150334E-07,-9.470424E-09,-2.861022E-08
169.2292,0.0450041,-2.677016E-08,NaN,-0.3269998,-1.372811E-07,NaN,-1.161597,3.409658E-08,NaN,-2.14076,5.81611E-06,-0.2867584,-1.038506E-08,NaN,NaN,-0.01982248,-9.313904E-12,3.42194E-06,-1.150344E-07,-7.086239E-09,-2.622604E-08
169.2466,0.04500409,-2.676903E-08,NaN,-0.3269998,-1.372812E-07,NaN,-1.167735,3.420097E-08,NaN,-2.140885,5.816781E-06,-0.2873714,-1.048712E-08,NaN,NaN,-0.01982395,-9.313904E-12,3.392138E-06,-1.150354E-07,-4.702053E-09,-2.861022E-08
169.263,0.04500409,-2.676791E-08,NaN,-0.3269998,-1.372813E-07,NaN,-1.173783,3.430346E-08,NaN,-2.141011,5.817452E-06,-0.2879857,-1.058727E-08,NaN,NaN,-0.01982543,-9.313904E-12,3.36308E-06,-1.150364E-07,-2.317867E-09,-2.622604E-08
169.2799,0.04500409,-2.676791E-08,NaN,-0.3269998,-1.372813E-07,NaN,-1.173783,3.430346E-08,NaN,-2.141011,5.817452E-06,-0.2879857,-1.058727E-08,NaN,NaN,-0.01982543,-9.313904E-12,3.36308E-06,-1.150364E-07,-2.317867E-09,-2.622604E-08
169.2958,0.04500408,-2.676679E-08,NaN,-0.3269998,-1.372813E-07,NaN,-1.179741,3.440339E-08,NaN,-2.141136,5.818127E-06,-0.2886011,-1.068486E-08,NaN,NaN,-0.0198269,-1.397052E-11,3.334321E-06,-1.150374E-07,-4.702053E-09,-2.861022E-08
169.3131,0.04500408,-2.676567E-08,NaN,-0.3269998,-1.372814E-07,NaN,-1.185612,3.45015E-08,NaN,-2.141261,5.818798E-06,-0.2892175,-1.078064E-08,NaN,NaN,-0.01982838,-1.397052E-11,3.30288E-06,-1.150384E-07,-2.317867E-09,-2.622604E-08
169.3297,0.04500408,-2.676455E-08,NaN,-0.3269998,-1.372815E-07,NaN,-1.191397,3.459714E-08,NaN,-2.141387,5.819459E-06,-0.2898346,-1.087394E-08,NaN,NaN,-0.01982986,-4.657291E-12,3.271587E-06,-1.150394E-07,6.631851E-11,-2.861022E-08
169.3467,0.04500407,-2.676343E-08,NaN,-0.3269998,-1.372816E-07,NaN,-1.197096,3.469105E-08,NaN,-2.141512,5.82013E-06,-0.2904522,-1.096551E-08,NaN,NaN,-0.01983134,-4.657291E-12,3.240891E-06,-1.150404E-07,-2.317867E-09,-2.622604E-08
169.3633,0.04500406,-2.67623E-08,NaN,-0.3269998,-1.372817E-07,NaN,-1.202711,3.478256E-08,NaN,-2.141637,5.820805E-06,-0.2910701,-1.105469E-08,NaN,NaN,-0.01983282,-9.313904E-12,3.209896E-06,-1.150414E-07,-7.086239E-09,-2.861022E-08
169.3813,0.04500405,-2.676118E-08,NaN,-0.3269998,-1.372818E-07,NaN,-1.208244,3.487242E-08,NaN,-2.141763,5.821476E-06,-0.2916881,-1.114222E-08,NaN,NaN,-0.0198343,-9.313904E-12,3.1792E-06,-1.150423E-07,-4.702053E-09,-2.622604E-08
169.3968,0.04500405,-2.676118E-08,NaN,-0.3269998,-1.372818E-07,NaN,-1.208244,3.487242E-08,NaN,-2.141763,5.821476E-06,-0.2916881,-1.114222E-08,NaN,NaN,-0.0198343,-9.313904E-12,3.1792E-06,-1.150423E-07,-4.702053E-09,-2.622604E-08
169.4131,0.04500405,-2.676006E-08,NaN,-0.3269998,-1.372819E-07,NaN,-1.213695,3.496068E-08,NaN,-2.141888,5.822151E-06,-0.2923061,-1.122814E-08,NaN,NaN,-0.01983578,-1.397052E-11,3.148355E-06,-1.150433E-07,-2.317867E-09,-2.861022E-08
169.4301,0.04500404,-2.675894E-08,NaN,-0.3269998,-1.372819E-07,NaN,-1.219065,3.504665E-08,NaN,-2.142014,5.822827E-06,-0.2929239,-1.131177E-08,NaN,NaN,-0.01983726,-1.862713E-11,3.116913E-06,-1.150443E-07,6.631851E-11,-2.622604E-08
169.4472,0.04500403,-2.675782E-08,NaN,-0.3269998,-1.37282E-07,NaN,-1.224357,3.513108E-08,NaN,-2.142139,5.823502E-06,-0.2935412,-1.139387E-08,NaN,NaN,-0.01983874,-2.328374E-11,3.086813E-06,-1.150453E-07,2.450504E-09,-2.861022E-08
169.4637,0.04500403,-2.67567E-08,NaN,-0.3269998,-1.372821E-07,NaN,-1.22957,3.52133E-08,NaN,-2.142264,5.824177E-06,-0.294158,-1.147375E-08,NaN,NaN,-0.01984021,-2.794035E-11,3.056712E-06,-1.150462E-07,2.450504E-09,-2.622604E-08
169.4803,0.04500402,-2.675558E-08,NaN,-0.3269998,-1.372822E-07,NaN,-1.234707,3.529406E-08,NaN,-2.142389,5.824848E-06,-0.2947741,-1.155218E-08,NaN,NaN,-0.01984169,-2.794035E-11,3.026016E-06,-1.150472E-07,4.83469E-09,-2.861022E-08
169.4971,0.04500402,-2.675558E-08,NaN,-0.3269998,-1.372822E-07,NaN,-1.234707,3.529406E-08,NaN,-2.142389,5.824848E-06,-0.2947741,-1.155218E-08,NaN,NaN,-0.01984169,-2.794035E-11,3.026016E-06,-1.150472E-07,4.83469E-09,-2.861022E-08
169.5134,0.04500401,-2.675446E-08,NaN,-0.3269998,-1.372823E-07,NaN,-1.239767,3.537268E-08,NaN,-2.142514,5.825519E-06,-0.2953892,-1.162846E-08,NaN,NaN,-0.01984316,-2.794035E-11,2.996363E-06,-1.150481E-07,4.83469E-09,-2.622604E-08
169.5308,0.045004,-2.675334E-08,NaN,-0.3269998,-1.372824E-07,NaN,-1.244753,3.544991E-08,NaN,-2.142639,5.826189E-06,-0.2960039,-1.170335E-08,NaN,NaN,-0.01984463,-2.794035E-11,2.965517E-06,-1.150491E-07,4.83469E-09,-2.861022E-08
169.5477,0.045004,-2.675222E-08,NaN,-0.3269998,-1.372819E-07,NaN,-1.249664,3.522032E-08,NaN,-2.142764,5.826851E-06,-0.2966173,-1.147143E-08,NaN,NaN,-0.01984609,-2.794035E-11,2.93646E-06,-1.150477E-07,7.218876E-09,-2.622604E-08
169.5641,0.04500399,-2.67511E-08,NaN,-0.3269998,-1.372807E-07,NaN,-1.254503,3.491604E-08,NaN,-2.142888,5.827503E-06,-0.2972292,-1.116479E-08,NaN,NaN,-0.01984756,-2.328374E-11,2.907253E-06,-1.150473E-07,1.198725E-08,-2.861022E-08
169.5807,0.04500398,-2.674997E-08,NaN,-0.3269998,-1.372794E-07,NaN,-1.25927,3.461363E-08,NaN,-2.143012,5.828155E-06,-0.2978397,-1.086003E-08,NaN,NaN,-0.01984902,-1.862713E-11,2.87611E-06,-1.150468E-07,1.437143E-08,-2.622604E-08
169.5977,0.04500398,-2.674997E-08,NaN,-0.3269998,-1.372794E-07,NaN,-1.25927,3.461363E-08,NaN,-2.143012,5.828155E-06,-0.2978397,-1.086003E-08,NaN,NaN,-0.01984902,-1.862713E-11,2.87611E-06,-1.150468E-07,1.437143E-08,-2.622604E-08
169.6141,0.04500398,-2.674885E-08,NaN,-0.3269998,-1.37278E-07,NaN,-1.263204,3.431376E-08,NaN,-2.143205,5.828802E-06,-0.2993579,-1.055781E-08,NaN,NaN,-0.01985287,-9.313906E-12,2.802349E-06,-1.150462E-07,1.437143E-08,-2.861022E-08
169.631,0.04500397,-2.674773E-08,NaN,-0.3269998,-1.372766E-07,NaN,-1.266229,3.40178E-08,NaN,-2.143413,5.829454E-06,-0.3007129,-1.025948E-08,NaN,NaN,-0.01985626,-4.657293E-12,2.736039E-06,-1.150457E-07,1.91398E-08,-2.622604E-08
169.6477,0.04500396,-2.674661E-08,NaN,-0.3269998,-1.372752E-07,NaN,-1.268748,3.372635E-08,NaN,-2.143614,5.830106E-06,-0.3018522,-9.965667E-09,NaN,NaN,-0.01985909,-6.800116E-16,2.680756E-06,-1.150452E-07,1.91398E-08,-2.861022E-08
169.6644,0.04500395,-2.674549E-08,NaN,-0.3269998,-1.372738E-07,NaN,-1.270253,3.344004E-08,NaN,-2.143872,5.830767E-06,-0.3037743,-9.676989E-09,NaN,NaN,-0.019864,-4.657293E-12,2.586431E-06,-1.150446E-07,1.91398E-08,-2.622604E-08
169.6815,0.04500394,-2.674437E-08,NaN,-0.3269998,-1.372724E-07,NaN,-1.270789,3.315947E-08,NaN,-2.144137,5.831419E-06,-0.3054694,-9.394046E-09,NaN,NaN,-0.0198683,-6.800116E-16,2.503805E-06,-1.15044E-07,1.91398E-08,-2.861022E-08
169.6985,0.04500394,-2.674437E-08,NaN,-0.3269998,-1.372724E-07,NaN,-1.270789,3.315947E-08,NaN,-2.144137,5.831419E-06,-0.3054694,-9.394046E-09,NaN,NaN,-0.0198683,-6.800116E-16,2.503805E-06,-1.15044E-07,1.91398E-08,-2.861022E-08
169.7141,0.04500393,-2.674325E-08,NaN,-0.3269998,-1.37271E-07,NaN,-1.270812,3.288452E-08,NaN,-2.144389,5.832081E-06,-0.3069137,-9.116726E-09,NaN,NaN,-0.01987194,-4.657293E-12,2.434216E-06,-1.150435E-07,1.675562E-08,-2.622604E-08
169.7314,0.04500392,-2.674213E-08,NaN,-0.3269998,-1.372696E-07,NaN,-1.269841,3.261508E-08,NaN,-2.144694,5.832733E-06,-0.3091188,-8.844917E-09,NaN,NaN,-0.01987764,-6.800116E-16,2.327077E-06,-1.150429E-07,2.152399E-08,-2.861022E-08
169.7482,0.04500391,-2.674101E-08,NaN,-0.3269998,-1.372681E-07,NaN,-1.26793,3.235105E-08,NaN,-2.145005,5.833385E-06,-0.3110827,-8.578512E-09,NaN,NaN,-0.01988268,4.655933E-12,2.233125E-06,-1.150424E-07,2.390818E-08,-2.622604E-08
169.765,0.04500389,-2.67399E-08,NaN,-0.3269998,-1.372667E-07,NaN,-1.265538,3.209232E-08,NaN,-2.145299,5.834037E-06,-0.3127832,-8.3174E-09,NaN,NaN,-0.01988703,9.312546E-12,2.150982E-06,-1.150418E-07,2.152399E-08,-2.861022E-08
169.7824,0.04500388,-2.673878E-08,NaN,-0.3269998,-1.372653E-07,NaN,-1.262943,3.183877E-08,NaN,-2.145574,5.834698E-06,-0.3143243,-8.06148E-09,NaN,NaN,-0.01989096,4.655933E-12,2.076626E-06,-1.150413E-07,1.913981E-08,-2.622604E-08
169.7985,0.04500388,-2.673878E-08,NaN,-0.3269998,-1.372653E-07,NaN,-1.262943,3.183877E-08,NaN,-2.145574,5.834698E-06,-0.3143243,-8.06148E-09,NaN,NaN,-0.01989096,4.655933E-12,2.076626E-06,-1.150413E-07,1.913981E-08,-2.622604E-08
169.8144,0.04500387,-2.673766E-08,NaN,-0.3269998,-1.372639E-07,NaN,-1.259523,3.159103E-08,NaN,-2.145905,5.83535E-06,-0.3166807,-7.811359E-09,NaN,NaN,-0.01989714,9.312546E-12,1.961887E-06,-1.150407E-07,2.152399E-08,-2.861022E-08
169.8319,0.04500385,-2.673654E-08,NaN,-0.3269998,-1.372625E-07,NaN,-1.255256,3.134826E-08,NaN,-2.146246,5.836002E-06,-0.3188202,-7.566213E-09,NaN,NaN,-0.01990272,1.396916E-11,1.858417E-06,-1.150402E-07,2.152399E-08,-2.622604E-08
169.8487,0.04500384,-2.673542E-08,NaN,-0.3269998,-1.372612E-07,NaN,-1.250567,3.111107E-08,NaN,-2.146571,5.83665E-06,-0.3207017,-7.32665E-09,NaN,NaN,-0.01990762,2.328238E-11,1.76887E-06,-1.150396E-07,1.675562E-08,-2.861022E-08
169.8657,0.04500383,-2.67343E-08,NaN,-0.3269998,-1.372598E-07,NaN,-1.244965,3.087866E-08,NaN,-2.146951,5.837302E-06,-0.3233289,-7.091855E-09,NaN,NaN,-0.0199146,2.793899E-11,1.642192E-06,-1.150391E-07,1.675562E-08,-2.622604E-08
169.8822,0.04500381,-2.673318E-08,NaN,-0.3269998,-1.372584E-07,NaN,-1.238494,3.065091E-08,NaN,-2.147336,5.837954E-06,-0.3257015,-6.861736E-09,NaN,NaN,-0.01992088,3.259561E-11,1.527378E-06,-1.150385E-07,1.437144E-08,-2.861022E-08
169.8987,0.04500381,-2.673318E-08,NaN,-0.3269998,-1.372584E-07,NaN,-1.238494,3.065091E-08,NaN,-2.147336,5.837954E-06,-0.3257015,-6.861736E-09,NaN,NaN,-0.01992088,3.259561E-11,1.527378E-06,-1.150385E-07,1.437144E-08,-2.861022E-08
169.9178,0.0450038,-2.673206E-08,NaN,-0.3269998,-1.37257E-07,NaN,-1.231608,3.042846E-08,NaN,-2.147702,5.838606E-06,-0.3277938,-6.636908E-09,NaN,NaN,-0.0199264,3.725222E-11,1.426758E-06,-1.15038E-07,1.437144E-08,-2.622604E-08
169.934,0.04500379,-2.673094E-08,NaN,-0.3269998,-1.372556E-07,NaN,-1.223832,3.020979E-08,NaN,-2.14812,5.839262E-06,-0.3306161,-6.415855E-09,NaN,NaN,-0.01993402,3.725222E-11,1.293281E-06,-1.150375E-07,1.675562E-08,-2.861022E-08
169.9492,0.04500377,-2.672983E-08,NaN,-0.3269998,-1.372543E-07,NaN,-1.215216,2.999552E-08,NaN,-2.148542,5.839919E-06,-0.3331746,-6.199206E-09,NaN,NaN,-0.01994089,3.725222E-11,1.171352E-06,-1.150369E-07,1.675562E-08,-2.622604E-08
169.9656,0.04500376,-2.672871E-08,NaN,-0.3269998,-1.372529E-07,NaN,-1.206213,2.978627E-08,NaN,-2.148944,5.840571E-06,-0.3354433,-5.987585E-09,NaN,NaN,-0.01994698,4.190883E-11,1.063691E-06,-1.150364E-07,9.603063E-09,-2.861022E-08
169.9822,0.04500374,-2.672759E-08,NaN,-0.3269998,-1.372515E-07,NaN,-1.197099,2.958125E-08,NaN,-2.149321,5.841223E-06,-0.3375258,-5.780185E-09,NaN,NaN,-0.01995258,4.656544E-11,9.657906E-07,-1.150359E-07,7.218877E-09,-2.622604E-08
169.999,0.04500374,-2.672759E-08,NaN,-0.3269998,-1.372515E-07,NaN,-1.197099,2.958125E-08,NaN,-2.149321,5.841223E-06,-0.3375258,-5.780185E-09,NaN,NaN,-0.01995258,4.656544E-11,9.657906E-07,-1.150359E-07,7.218877E-09,-2.622604E-08
170.0152,0.04500373,-2.672648E-08,NaN,-0.3269998,-1.372502E-07,NaN,-1.187262,2.938035E-08,NaN,-2.149753,5.84188E-06,-0.3403959,-5.57691E-09,NaN,NaN,-0.01996047,5.122205E-11,8.29445E-07,-1.150353E-07,7.218877E-09,-2.861022E-08
170.0327,0.04500371,-2.672536E-08,NaN,-0.3269998,-1.372488E-07,NaN,-1.176674,2.918422E-08,NaN,-2.150194,5.842551E-06,-0.3430305,-5.378398E-09,NaN,NaN,-0.01996769,4.656544E-11,7.052438E-07,-1.150348E-07,4.834692E-09,-2.622604E-08
170.0493,0.04500369,-2.672424E-08,NaN,-0.3269998,-1.372475E-07,NaN,-1.165753,2.899205E-08,NaN,-2.150615,5.843207E-06,-0.3453842,-5.183853E-09,NaN,NaN,-0.01997414,5.587867E-11,5.967634E-07,-1.150343E-07,7.218877E-09,-2.861022E-08
170.0658,0.04500368,-2.672312E-08,NaN,-0.3269998,-1.372461E-07,NaN,-1.154758,2.880448E-08,NaN,-2.151013,5.843878E-06,-0.3475514,-4.993903E-09,NaN,NaN,-0.0199801,5.122206E-11,4.927533E-07,-1.150337E-07,4.834692E-09,-2.622604E-08
