JMolnar6/NonAnthroHands_User_Study/HandsLoggerWithURDF/tempdata/PID 0 (test)/files/Reachy_PID0_JointMotion_gesture_13_1.csv
Time,r_shoulder,r_shoulder_x,r_upper_arm,r_forearm,r_wrist,r_wrist2hand,
1150.673,-0.2570273,-0.3524287,0.1099256,-0.5549011,0.06742338,0.1562505
1150.688,-0.2571105,-0.3521879,0.1103729,-0.5547476,0.06739364,0.156217
1150.703,-0.2571928,-0.35195,0.1108158,-0.5545969,0.06736272,0.1561842
1150.718,-0.2571928,-0.35195,0.1108158,-0.5545969,0.06736272,0.1561842
1150.732,-0.2572742,-0.3517148,0.1112541,-0.554449,0.06733065,0.156152
1150.747,-0.2573546,-0.3514825,0.111688,-0.5543038,0.06729748,0.1561205
1150.762,-0.257434,-0.351253,0.1121175,-0.5541614,0.06726325,0.1560896
1150.777,-0.257434,-0.351253,0.1121175,-0.5541614,0.06726325,0.1560896
1150.793,-0.2575126,-0.3510262,0.1125426,-0.5540215,0.06722799,0.1560593
1150.807,-0.2575903,-0.3508021,0.1129634,-0.5538843,0.06719173,0.1560295
1150.821,-0.2576671,-0.3505807,0.1133799,-0.5537497,0.06715453,0.1560004
1150.836,-0.2576671,-0.3505807,0.1133799,-0.5537497,0.06715453,0.1560004
1150.85,-0.257743,-0.3503619,0.1137922,-0.5536175,0.06711639,0.1559718
1150.865,-0.257818,-0.3501457,0.1142002,-0.5534878,0.06707738,0.1559438
1150.88,-0.257818,-0.3501457,0.1142002,-0.5534878,0.06707738,0.1559438
1150.894,-0.2578921,-0.3499321,0.114604,-0.5533606,0.0670375,0.1559163
1150.909,-0.2579654,-0.3497211,0.1150036,-0.5532357,0.06699681,0.1558894
1150.924,-0.2580379,-0.3495125,0.1153992,-0.5531132,0.06695533,0.155863
1150.939,-0.2580379,-0.3495125,0.1153992,-0.5531132,0.06695533,0.155863
1150.953,-0.2581096,-0.3493065,0.1157906,-0.5529929,0.06691308,0.1558371
1150.968,-0.2581804,-0.3491029,0.116178,-0.5528749,0.06687011,0.1558117
1150.983,-0.2582504,-0.3489017,0.1165614,-0.5527591,0.06682644,0.1557869
1150.998,-0.2582504,-0.3489017,0.1165614,-0.5527591,0.06682644,0.1557869
1151.012,-0.2583196,-0.3487029,0.1169408,-0.5526454,0.06678211,0.1557625
1151.027,-0.258388,-0.3485065,0.1173163,-0.552534,0.06673714,0.1557385
1151.044,-0.2584556,-0.3483125,0.1176879,-0.5524246,0.06669155,0.1557151
1151.058,-0.2584556,-0.3483125,0.1176879,-0.5524246,0.06669155,0.1557151
1151.072,-0.2585224,-0.3481207,0.1180556,-0.5523173,0.06664537,0.1556921
1151.086,-0.2585885,-0.3479313,0.1184194,-0.5522119,0.06659864,0.1556696
1151.101,-0.2586538,-0.3477441,0.1187794,-0.5521086,0.06655137,0.1556475
1151.115,-0.2586538,-0.3477441,0.1187794,-0.5521086,0.06655137,0.1556475
1151.13,-0.2587183,-0.3475591,0.1191357,-0.5520073,0.0665036,0.1556258
1151.145,-0.2587821,-0.3473763,0.1194882,-0.5519078,0.06645533,0.1556046
1151.16,-0.2587821,-0.3473763,0.1194882,-0.5519078,0.06645533,0.1556046
1151.174,-0.2588452,-0.3471957,0.119837,-0.5518102,0.06640661,0.1555837
1151.189,-0.2589076,-0.3470173,0.1201821,-0.5517145,0.06635745,0.1555633
1151.204,-0.2589692,-0.346841,0.1205236,-0.5516206,0.06630788,0.1555433
1151.219,-0.2589692,-0.346841,0.1205236,-0.5516206,0.06630788,0.1555433
1151.233,-0.2590301,-0.3466668,0.1208615,-0.5515285,0.06625791,0.1555237
1151.249,-0.2590903,-0.3464947,0.1211958,-0.5514382,0.06620757,0.1555044
1151.263,-0.2591499,-0.3463246,0.1215266,-0.5513495,0.06615688,0.1554856
1151.278,-0.2591499,-0.3463246,0.1215266,-0.5513495,0.06615688,0.1554856
1151.294,-0.2592087,-0.3461565,0.1218538,-0.5512626,0.06610586,0.1554671
1151.309,-0.2592669,-0.3459905,0.1221776,-0.5511773,0.06605453,0.1554489
1151.322,-0.2593244,-0.3458264,0.1224979,-0.5510936,0.06600292,0.1554312
1151.337,-0.2593244,-0.3458264,0.1224979,-0.5510936,0.06600292,0.1554312
1151.351,-0.2593812,-0.3456644,0.1228148,-0.5510115,0.06595103,0.1554137
1151.366,-0.2594374,-0.3455042,0.1231283,-0.550931,0.0658989,0.1553966
1151.381,-0.259493,-0.3453459,0.1234384,-0.550852,0.06584652,0.1553799
1151.396,-0.259493,-0.3453459,0.1234384,-0.550852,0.06584652,0.1553799
1151.41,-0.2595479,-0.3451895,0.1237452,-0.5507746,0.06579392,0.1553634
1151.425,-0.2596021,-0.345035,0.1240487,-0.5506986,0.06574114,0.1553473
1151.44,-0.2596021,-0.345035,0.1240487,-0.5506986,0.06574114,0.1553473
1151.454,-0.2596558,-0.3448823,0.124349,-0.5506241,0.06568816,0.1553315
1151.47,-0.2597088,-0.3447315,0.124646,-0.5505511,0.06563503,0.155316
1151.484,-0.2597612,-0.3445824,0.1249398,-0.5504794,0.06558173,0.1553009
1151.499,-0.2597612,-0.3445824,0.1249398,-0.5504794,0.06558173,0.1553009
1151.514,-0.259813,-0.3444352,0.1252304,-0.5504091,0.0655283,0.155286
1151.529,-0.2598643,-0.3442896,0.1255179,-0.5503402,0.06547476,0.1552714
1151.545,-0.2599149,-0.3441458,0.1258023,-0.5502726,0.0654211,0.1552571
1151.559,-0.2599149,-0.3441458,0.1258023,-0.5502726,0.0654211,0.1552571
1151.573,-0.2599649,-0.3440038,0.1260836,-0.5502064,0.06536736,0.1552431
1151.588,-0.2600144,-0.3438634,0.1263618,-0.5501414,0.06531354,0.1552293
1151.602,-0.2600633,-0.3437247,0.126637,-0.5500777,0.06525964,0.1552158
1151.617,-0.2600633,-0.3437247,0.126637,-0.5500777,0.06525964,0.1552158
1151.631,-0.2601117,-0.3435877,0.1269092,-0.5500152,0.0652057,0.1552026
1151.647,-0.2601594,-0.3434522,0.1271784,-0.5499539,0.06515172,0.1551896
1151.661,-0.2602067,-0.3433185,0.1274447,-0.5498939,0.06509771,0.1551769
1151.676,-0.2602067,-0.3433185,0.1274447,-0.5498939,0.06509771,0.1551769
1151.691,-0.2602856,-0.3430816,0.1273229,-0.5492999,0.06571356,0.1548502
1151.705,-0.2603842,-0.3427823,0.1271645,-0.5485878,0.0666011,0.15453
1151.72,-0.2604948,-0.3424457,0.1270867,-0.5478293,0.06756312,0.1542162
1151.735,-0.2604948,-0.3424457,0.1270867,-0.5478293,0.06756312,0.1542162
1151.749,-0.2606124,-0.3420876,0.127105,-0.547058,0.06852484,0.1539085
1151.765,-0.2607017,-0.3418225,0.1275921,-0.5468244,0.06879137,0.1539212
1151.78,-0.2607017,-0.3418225,0.1275921,-0.5468244,0.06879137,0.1539212
1151.795,-0.2607729,-0.341616,0.1281732,-0.5467196,0.06875669,0.1539334
1151.81,-0.2608323,-0.3414466,0.1287124,-0.5466745,0.06861925,0.1539453
1151.823,-0.260884,-0.3413008,0.1291804,-0.5466564,0.06845655,0.1539569
1151.838,-0.260884,-0.3413008,0.1291804,-0.5466564,0.06845655,0.1539569
1151.852,-0.2608985,-0.3412748,0.1299723,-0.5471854,0.06762575,0.1542826
1151.867,-0.2608908,-0.3413216,0.1307468,-0.5478377,0.066536,0.1546018
1151.882,-0.260869,-0.3414131,0.131401,-0.5485392,0.06538261,0.1549146
1151.897,-0.260869,-0.3414131,0.131401,-0.5485392,0.06538261,0.1549146
1151.911,-0.2608063,-0.3416364,0.1323161,-0.5497902,0.06356817,0.1555356
1151.927,-0.260718,-0.3419401,0.1331594,-0.5511591,0.06151521,0.1561443
1151.942,-0.260614,-0.3422921,0.1338395,-0.5525668,0.05942331,0.156741
1151.956,-0.260614,-0.3422921,0.1338395,-0.5525668,0.05942331,0.156741
1151.97,-0.2605006,-0.3426722,0.1343622,-0.5539767,0.05736378,0.157326
1151.986,-0.2603493,-0.3431726,0.1351386,-0.5559076,0.05468896,0.1582139
1152,-0.260175,-0.343745,0.1358472,-0.5579365,0.05179911,0.1590841
1152.016,-0.260175,-0.343745,0.1358472,-0.5579365,0.05179911,0.1590841
1152.029,-0.2599868,-0.3443592,0.1363962,-0.5599887,0.04888699,0.1599373
1152.046,-0.2597908,-0.3449964,0.1367887,-0.5620297,0.04602159,0.1607738
1152.06,-0.2597908,-0.3449964,0.1367887,-0.5620297,0.04602159,0.1607738
1152.074,-0.2595583,-0.3457496,0.1374238,-0.5645793,0.04255642,0.1619082
1152.089,-0.259304,-0.3465709,0.1379829,-0.5672148,0.03888901,0.1630202
1152.104,-0.2590369,-0.3474305,0.1383736,-0.569862,0.03521348,0.1641104
1152.119,-0.2590369,-0.3474305,0.1383736,-0.569862,0.03521348,0.1641104
1152.133,-0.2587307,-0.3484145,0.1389604,-0.5730215,0.03093424,0.1654934
1152.148,-0.2584012,-0.3494707,0.1394289,-0.5762617,0.02646449,0.1668493
1152.163,-0.2580585,-0.3505667,0.1396937,-0.5795048,0.02200481,0.1681786
1152.178,-0.2580585,-0.3505667,0.1396937,-0.5795048,0.02200481,0.1681786
1152.192,-0.2577089,-0.3516822,0.1397666,-0.5827153,0.01762529,0.1694818
1152.208,-0.2573241,-0.3529094,0.1400299,-0.5864116,0.01268186,0.1710737
1152.222,-0.2569189,-0.3541999,0.1401834,-0.5901711,0.007564202,0.1726344
1152.237,-0.2569189,-0.3541999,0.1401834,-0.5901711,0.007564202,0.1726344
1152.252,-0.2565026,-0.3555235,0.14014,-0.5939204,0.002468475,0.1741645
1152.267,-0.256081,-0.3568616,0.1399085,-0.5976261,-0.00253641,0.1756646
1152.283,-0.2556256,-0.3583073,0.1398525,-0.6018069,-0.008092852,0.1774494
1152.297,-0.2556256,-0.3583073,0.1398525,-0.6018069,-0.008092852,0.1774494
1152.31,-0.2551508,-0.3598127,0.1396795,-0.6060407,-0.01381523,0.1791993
1152.326,-0.254666,-0.361348,0.1393031,-0.6102548,-0.01950457,0.1809149
1152.34,-0.2541768,-0.362895,0.1387332,-0.6144163,-0.02509117,0.1825969
1152.355,-0.2541768,-0.362895,0.1387332,-0.6144163,-0.02509117,0.1825969
1152.369,-0.2536545,-0.3645467,0.1383164,-0.619043,-0.03121597,0.18456
1152.385,-0.2531138,-0.3662556,0.1377719,-0.6237131,-0.03749778,0.1864847
1152.399,-0.2531138,-0.3662556,0.1377719,-0.6237131,-0.03749778,0.1864847
1152.413,-0.2525638,-0.3679918,0.1370162,-0.6283547,-0.04373497,0.1883717
1152.429,-0.2519778,-0.3698418,0.1363593,-0.6334657,-0.05051605,0.1905359
1152.445,-0.2513718,-0.3717533,0.1355324,-0.6386165,-0.05744456,0.1926576
1152.458,-0.2513718,-0.3717533,0.1355324,-0.6386165,-0.05744456,0.1926576
1152.473,-0.2507558,-0.3736942,0.1344623,-0.6437317,-0.06431161,0.1947378
1152.489,-0.2501362,-0.3756444,0.1331719,-0.6487777,-0.07104637,0.1967773
1152.503,-0.2494843,-0.3776962,0.1319804,-0.6542692,-0.07828963,0.1990908
1152.518,-0.2494843,-0.3776962,0.1319804,-0.6542692,-0.07828963,0.1990908
1152.534,-0.2488151,-0.3798012,0.1306357,-0.6597856,-0.08566875,0.2013591
1152.547,-0.2481379,-0.3819295,0.1290634,-0.665256,-0.09297796,0.2035829
1152.562,-0.2474584,-0.3840625,0.1272835,-0.6706494,-0.1001472,0.2057632
1152.577,-0.2474584,-0.3840625,0.1272835,-0.6706494,-0.1001472,0.2057632
1152.591,-0.2467478,-0.3862935,0.1255899,-0.676479,-0.107817,0.2082147
1152.606,-0.2460208,-0.3885747,0.1237427,-0.6823258,-0.1156176,0.2106184
1152.621,-0.2452866,-0.3908765,0.1216697,-0.6881199,-0.1233394,0.2129749
1152.636,-0.2452866,-0.3908765,0.1216697,-0.6881199,-0.1233394,0.2129749
1152.65,-0.2445183,-0.3932852,0.1196284,-0.694355,-0.1315693,0.2155993
1152.665,-0.2437321,-0.3957487,0.1173951,-0.7006048,-0.1399205,0.2181723
1152.68,-0.242938,-0.3982348,0.1149107,-0.7067966,-0.1481762,0.220695
1152.695,-0.242938,-0.3982348,0.1149107,-0.7067966,-0.1481762,0.220695
1152.709,-0.2421423,-0.4007237,0.1122082,-0.7128988,-0.1562652,0.2231683
1152.725,-0.2413161,-0.4033076,0.1095471,-0.7194195,-0.1648312,0.225907
1152.74,-0.2413161,-0.4033076,0.1095471,-0.7194195,-0.1648312,0.225907
1152.753,-0.2404745,-0.4059384,0.1067201,-0.7259426,-0.1735095,0.2285921
1152.77,-0.2396269,-0.4085861,0.1036658,-0.7323996,-0.1820859,0.2312248
1152.784,-0.2387789,-0.4112322,0.1004141,-0.7387611,-0.1904898,0.2338058
1152.798,-0.2387789,-0.4112322,0.1004141,-0.7387611,-0.1904898,0.2338058
1152.813,-0.2379015,-0.4139701,0.09719492,-0.745533,-0.1993664,0.23665
1152.828,-0.2370095,-0.4167521,0.09381526,-0.7523016,-0.2083512,0.2394388
1152.843,-0.2361122,-0.4195485,0.09021735,-0.7589995,-0.217226,0.242173
1152.857,-0.2361122,-0.4195485,0.09021735,-0.7589995,-0.217226,0.242173
1152.871,-0.2351824,-0.422446,0.0865975,-0.7661128,-0.2265815,0.2451673
1152.887,-0.2342364,-0.4253923,0.08278336,-0.7732221,-0.2360343,0.2481033
1152.901,-0.2332844,-0.4283553,0.07873263,-0.7802572,-0.2453595,0.2509817
1152.916,-0.2332844,-0.4283553,0.07873263,-0.7802572,-0.2453595,0.2509817
1152.93,-0.2323326,-0.4313153,0.07448884,-0.7871884,-0.2544869,0.2538038
1152.946,-0.2313518,-0.4343648,0.07024221,-0.7945142,-0.2640691,0.2568842
1152.96,-0.2303573,-0.4374554,0.06583473,-0.8018259,-0.2737414,0.2599046
1152.976,-0.2303573,-0.4374554,0.06583473,-0.8018259,-0.2737414,0.2599046
1152.989,-0.2293584,-0.4405573,0.06122109,-0.8090574,-0.2832814,0.2628658
1153.005,-0.228361,-0.4436522,0.05644033,-0.8161812,-0.2926196,0.2657689
1153.021,-0.2273354,-0.4468335,0.05165058,-0.8236923,-0.3024119,0.2689289
1153.034,-0.2273354,-0.4468335,0.05165058,-0.8236923,-0.3024119,0.2689289
1153.049,-0.2262969,-0.4500535,0.04670957,-0.8311856,-0.31229,0.2720272
1153.064,-0.2252546,-0.4532827,0.04157657,-0.8385963,-0.3220279,0.2750648
1153.078,-0.2252546,-0.4532827,0.04157657,-0.8385963,-0.3220279,0.2750648
1153.092,-0.2241813,-0.4566076,0.03638056,-0.8463998,-0.3322272,0.2783566
1153.108,-0.2230933,-0.4599761,0.0310044,-0.8541868,-0.3424985,0.2815841
1153.122,-0.2220009,-0.4633563,0.02542466,-0.8618895,-0.3526111,0.2847485
1153.137,-0.2220009,-0.4633563,0.02542466,-0.8618895,-0.3526111,0.2847485
1153.151,-0.2209102,-0.4667283,0.01969354,-0.8694797,-0.3624979,0.2878508
1153.167,-0.2197918,-0.4701849,0.01392503,-0.8774433,-0.3728263,0.2912059
1153.182,-0.2186612,-0.4736776,0.008013672,-0.8853821,-0.3832211,0.2944956
1153.196,-0.2186612,-0.4736776,0.008013672,-0.8853821,-0.3832211,0.2944956
1153.211,-0.2175277,-0.4771767,0.001932142,-0.8932326,-0.393454,0.2977208
1153.226,-0.2163972,-0.4806641,-0.004272771,-0.9009683,-0.4034587,0.3008827
1153.241,-0.2152396,-0.4842332,-0.01052102,-0.9090704,-0.4139074,0.3042963
1153.255,-0.2152396,-0.4842332,-0.01052102,-0.9090704,-0.4139074,0.3042963
1153.272,-0.2140705,-0.4878362,-0.01690069,-0.9171463,-0.4244168,0.3076433
1153.285,-0.2128992,-0.4914437,-0.02343353,-0.9251331,-0.4347563,0.3109248
1153.3,-0.2128992,-0.4914437,-0.02343353,-0.9251331,-0.4347563,0.3109248
1153.314,-0.2116978,-0.4951424,-0.03006279,-0.9334925,-0.4455449,0.3144555
1153.329,-0.2104831,-0.4988802,-0.03684742,-0.9418288,-0.4563769,0.3179173
1153.344,-0.2092654,-0.502625,-0.04379096,-0.9500762,-0.4670198,0.3213113
1153.359,-0.2092654,-0.502625,-0.04379096,-0.9500762,-0.4670198,0.3213113
1153.373,-0.208051,-0.5063574,-0.05083503,-0.9582068,-0.4774129,0.3246388
1153.388,-0.2068098,-0.5101699,-0.05794759,-0.9666912,-0.4882422,0.3282145
1153.403,-0.2055576,-0.5140142,-0.06517806,-0.9751461,-0.4991104,0.3317205
1153.418,-0.2055576,-0.5140142,-0.06517806,-0.9751461,-0.4991104,0.3317205
1153.432,-0.204304,-0.5178607,-0.07253424,-0.9835091,-0.5097875,0.3351578
1153.448,-0.2030547,-0.5216911,-0.07996379,-0.9917539,-0.5202141,0.3385277
1153.462,-0.2017793,-0.5255992,-0.08746961,-1.000346,-0.5310813,0.3421451
1153.477,-0.2017793,-0.5255992,-0.08746961,-1.000346,-0.5310813,0.3421451
1153.491,-0.2004936,-0.5295371,-0.09508164,-1.008909,-0.5419797,0.3456919
1153.508,-0.1992069,-0.5334754,-0.1028013,-1.01738,-0.5526794,0.3491692
1153.522,-0.197925,-0.5373963,-0.1105753,-1.025733,-0.5631241,0.3525783
1153.536,-0.197925,-0.5373963,-0.1105753,-1.025733,-0.5631241,0.3525783
1153.55,-0.1966174,-0.5413935,-0.1184376,-1.034428,-0.5740113,0.3562341
1153.565,-0.1952997,-0.5454192,-0.126396,-1.043095,-0.5849196,0.3598186
1153.58,-0.1939815,-0.5494443,-0.1344445,-1.051671,-0.5956214,0.3633328
1153.595,-0.1939815,-0.5494443,-0.1344445,-1.051671,-0.5956214,0.3633328
1153.609,-0.1926343,-0.5535554,-0.1426316,-1.060596,-0.6067654,0.3670917
1153.624,-0.1912754,-0.5577004,-0.1509316,-1.069498,-0.6179093,0.3707772
1153.639,-0.1912754,-0.5577004,-0.1509316,-1.069498,-0.6179093,0.3707772
1153.653,-0.1899152,-0.5618474,-0.159321,-1.078311,-0.6288286,0.3743906
1153.669,-0.1885599,-0.5659771,-0.1677387,-1.087007,-0.6394768,0.377933
1153.684,-0.1871788,-0.5701821,-0.1762706,-1.096032,-0.6505631,0.3817195
1153.698,-0.1871788,-0.5701821,-0.1762706,-1.096032,-0.6505631,0.3817195
1153.713,-0.1857882,-0.5744141,-0.1848822,-1.105029,-0.6616449,0.3854322
1153.728,-0.1843978,-0.5786434,-0.1935536,-1.113936,-0.6725026,0.389072
1153.742,-0.1830133,-0.5828521,-0.2022299,-1.122723,-0.6830913,0.3926405
1153.758,-0.1830133,-0.5828521,-0.2022299,-1.122723,-0.6830913,0.3926405
1153.772,-0.1816036,-0.5871339,-0.2110327,-1.131834,-0.6941223,0.3964526
1153.787,-0.1801849,-0.5914408,-0.2199035,-1.140919,-0.7051387,0.4001903
1153.801,-0.1787669,-0.5957437,-0.2288163,-1.149913,-0.7159262,0.4038547
1153.816,-0.1787669,-0.5957437,-0.2288163,-1.149913,-0.7159262,0.4038547
1153.83,-0.1773205,-0.6001292,-0.2379019,-1.159239,-0.7271514,0.4077609
1153.846,-0.1758634,-0.6045452,-0.2470665,-1.168545,-0.7383404,0.4115908
1153.86,-0.1744062,-0.60896,-0.2562688,-1.177764,-0.7492864,0.4153457
1153.875,-0.1744062,-0.60896,-0.2562688,-1.177764,-0.7492864,0.4153457
1153.889,-0.1729551,-0.613354,-0.2654501,-1.186865,-0.7599549,0.419027
1153.905,-0.1714789,-0.6178203,-0.2747867,-1.196277,-0.7710598,0.4229497
1153.919,-0.1714789,-0.6178203,-0.2747867,-1.196277,-0.7710598,0.4229497
1153.933,-0.1699941,-0.6223102,-0.2841727,-1.205665,-0.7821246,0.4267958
1153.949,-0.1685106,-0.6267943,-0.2935702,-1.214964,-0.7929495,0.4305666
1153.964,-0.1670342,-0.6312547,-0.302927,-1.224143,-0.8035022,0.4342634
1153.979,-0.1670342,-0.6312547,-0.302927,-1.224143,-0.8035022,0.4342634
1153.992,-0.1655332,-0.6357851,-0.3124541,-1.233627,-0.8144917,0.4382013
1154.009,-0.164024,-0.6403375,-0.3220189,-1.243089,-0.8254318,0.4420623
1154.022,-0.1625167,-0.6448829,-0.331578,-1.252463,-0.8361319,0.4458477
1154.038,-0.1625167,-0.6448829,-0.331578,-1.252463,-0.8361319,0.4458477
1154.052,-0.1609814,-0.6495079,-0.3413486,-1.262151,-0.84726,0.4498724
1154.067,-0.1594365,-0.6541604,-0.3511622,-1.271825,-0.8583208,0.4538185
1154.081,-0.1578925,-0.6588087,-0.3609638,-1.281412,-0.8691335,0.4576873
1154.096,-0.1578925,-0.6588087,-0.3609638,-1.281412,-0.8691335,0.4576873
1154.11,-0.1563559,-0.6634334,-0.3707012,-1.290881,-0.8796741,0.4614802
1154.126,-0.1547945,-0.6681274,-0.3806405,-1.300643,-0.8906379,0.4655125
1154.14,-0.1532255,-0.6728423,-0.3905968,-1.310387,-0.9015324,0.4694659
1154.155,-0.1532255,-0.6728423,-0.3905968,-1.310387,-0.9015324,0.4694659
1154.169,-0.1516588,-0.6775486,-0.4005189,-1.320042,-0.9121858,0.4733419
1154.185,-0.1501004,-0.6822284,-0.4103608,-1.329577,-0.9225754,0.4771419
1154.2,-0.1501004,-0.6822284,-0.4103608,-1.329577,-0.9225754,0.4771419
1154.214,-0.1485176,-0.6869755,-0.4204216,-1.339399,-0.9333816,0.4811811
1154.229,-0.1469277,-0.6917419,-0.4304872,-1.349205,-0.9441137,0.4851414
1154.244,-0.1453406,-0.6964986,-0.4405034,-1.358923,-0.954611,0.4890241
1154.26,-0.1453406,-0.6964986,-0.4405034,-1.358923,-0.954611,0.4890241
1154.273,-0.1437259,-0.7013324,-0.4507733,-1.36894,-0.965513,0.4931445
1154.288,-0.1421025,-0.706191,-0.4610489,-1.378948,-0.9763311,0.4971842
1154.303,-0.1404811,-0.7110427,-0.4712685,-1.388871,-0.986913,0.5011449
1154.317,-0.1404811,-0.7110427,-0.4712685,-1.388871,-0.986913,0.5011449
1154.332,-0.1388682,-0.7158683,-0.4813889,-1.398672,-0.9972387,0.5050279
1154.347,-0.1372307,-0.7207608,-0.4917594,-1.408751,-1.007954,0.5091486
1154.362,-0.1355865,-0.7256716,-0.5021137,-1.418817,-1.018588,0.5131887
1154.376,-0.1355865,-0.7256716,-0.5021137,-1.418817,-1.018588,0.5131887
1154.39,-0.1339458,-0.7305713,-0.512394,-1.428794,-1.028997,0.5171497
1154.406,-0.1323142,-0.7354422,-0.5225629,-1.438649,-1.03916,0.521033
1154.421,-0.1306586,-0.7403781,-0.5329984,-1.448775,-1.049697,0.5251541
1154.436,-0.1306586,-0.7403781,-0.5329984,-1.448775,-1.049697,0.5251541
1154.45,-0.1289967,-0.745331,-0.5434062,-1.458891,-1.060156,0.5291946
1154.465,-0.1273385,-0.7502717,-0.5537283,-1.468918,-1.070401,0.5331559
1154.48,-0.1256899,-0.7551828,-0.5639302,-1.478823,-1.08041,0.5370396
1154.496,-0.1256899,-0.7551828,-0.5639302,-1.478823,-1.08041,0.5370396
1154.51,-0.1240543,-0.7600537,-0.5739945,-1.48859,-1.090184,0.5408473
1154.524,-0.1224333,-0.7648783,-0.5839134,-1.498213,-1.09973,0.5445803
1154.539,-0.1224333,-0.7648783,-0.5839134,-1.498213,-1.09973,0.5445803
1154.553,-0.1208281,-0.769653,-0.593684,-1.507691,-1.109052,0.5482402
1154.569,-0.1192762,-0.7742716,-0.6028697,-1.516623,-1.117589,0.5515146
1154.583,-0.1177616,-0.7787749,-0.6118025,-1.525272,-1.125756,0.5547246
1154.598,-0.1177616,-0.7787749,-0.6118025,-1.525272,-1.125756,0.5547246
1154.612,-0.1162752,-0.783188,-0.6205388,-1.53372,-1.133692,0.5578718
1154.628,-0.1148114,-0.7875266,-0.6291094,-1.542007,-1.141432,0.5609572
1154.642,-0.1134048,-0.791696,-0.6370785,-1.549754,-1.148449,0.5636683
1154.657,-0.1134048,-0.791696,-0.6370785,-1.549754,-1.148449,0.5636683
1154.671,-0.112037,-0.7957441,-0.6448058,-1.557224,-1.155133,0.5663262
1154.687,-0.1106976,-0.7997004,-0.6523528,-1.564508,-1.161616,0.5689319
1154.701,-0.1093806,-0.8035833,-0.6597504,-1.571645,-1.167939,0.5714866
1154.716,-0.1093806,-0.8035833,-0.6597504,-1.571645,-1.167939,0.5714866
1154.73,-0.1081201,-0.8072995,-0.6665499,-1.578262,-1.173594,0.5736773
1154.747,-0.1068976,-0.8108979,-0.6731266,-1.584616,-1.178947,0.575825
1154.761,-0.1057025,-0.8144087,-0.6795424,-1.5908,-1.184127,0.5779305
1154.775,-0.1057025,-0.8144087,-0.6795424,-1.5908,-1.184127,0.5779305
1154.789,-0.1045665,-0.8177458,-0.6853555,-1.596461,-1.188668,0.5796809
1154.805,-0.1034695,-0.8209625,-0.6909569,-1.601864,-1.192924,0.5813968
1154.819,-0.1034695,-0.8209625,-0.6909569,-1.601864,-1.192924,0.5813968
1154.833,-0.1024,-0.8240914,-0.6964119,-1.607107,-1.197028,0.5830792
1154.849,-0.1013512,-0.827153,-0.7017511,-1.612232,-1.201022,0.5847285
1154.864,-0.1003574,-0.8300552,-0.7065096,-1.616871,-1.204431,0.5860316
1154.879,-0.1003574,-0.8300552,-0.7065096,-1.616871,-1.204431,0.5860316
1154.892,-0.09939976,-0.8328474,-0.7110805,-1.621273,-1.207585,0.587309
1154.908,-0.09846739,-0.8355601,-0.7155263,-1.625533,-1.210609,0.5885614
1154.923,-0.09755396,-0.8382122,-0.7198753,-1.629693,-1.213547,0.5897892
1154.938,-0.09755396,-0.8382122,-0.7198753,-1.629693,-1.213547,0.5897892
1154.952,-0.09669407,-0.8407109,-0.7236554,-1.633382,-1.215933,0.590679
1154.967,-0.09586908,-0.843105,-0.7272657,-1.63685,-1.218085,0.5915513
1154.982,-0.09506812,-0.8454244,-0.7307688,-1.640189,-1.220126,0.5924065
1154.997,-0.09506812,-0.8454244,-0.7307688,-1.640189,-1.220126,0.5924065
1155.012,-0.09432329,-0.8475833,-0.7337037,-1.643053,-1.221623,0.5929309
1155.026,-0.09361444,-0.8496346,-0.7364796,-1.645698,-1.222896,0.593445
1155.041,-0.0929298,-0.851611,-0.739162,-1.648223,-1.224071,0.593949
1155.055,-0.0929298,-0.851611,-0.739162,-1.648223,-1.224071,0.593949
1155.069,-0.09226246,-0.8535327,-0.7417793,-1.650672,-1.225194,0.594443
1155.085,-0.09164695,-0.8553078,-0.7438519,-1.652678,-1.225811,0.5946134
1155.1,-0.09164695,-0.8553078,-0.7438519,-1.652678,-1.225811,0.5946134
1155.114,-0.09106447,-0.8569853,-0.7457862,-1.654486,-1.226226,0.5947804
1155.129,-0.09050398,-0.8585956,-0.7476451,-1.656189,-1.226562,0.5949442
1155.144,-0.08995901,-0.8601574,-0.7494552,-1.657831,-1.226861,0.5951047
1155.159,-0.08995901,-0.8601574,-0.7494552,-1.657831,-1.226861,0.5951047
1155.173,-0.0894644,-0.8615781,-0.7507338,-1.659044,-1.226673,0.5949481
1155.189,-0.08900154,-0.862906,-0.7518893,-1.66007,-1.226298,0.5947945
1155.203,-0.08855946,-0.864171,-0.7529846,-1.661004,-1.225857,0.5946439
1155.218,-0.08855946,-0.864171,-0.7529846,-1.661004,-1.225857,0.5946439
1155.234,-0.08817042,-0.8652874,-0.7535506,-1.661502,-1.224923,0.5941823
1155.249,-0.08781432,-0.8663074,-0.7540032,-1.661814,-1.223808,0.5937296
1155.262,-0.08747924,-0.8672638,-0.7544076,-1.66204,-1.222636,0.5932857
1155.277,-0.08747924,-0.8672638,-0.7544076,-1.66204,-1.222636,0.5932857
1155.291,-0.08715815,-0.8681768,-0.7547905,-1.662226,-1.221452,0.5928506
1155.307,-0.08688568,-0.8689545,-0.7546671,-1.662004,-1.219801,0.5921101
1155.321,-0.08664312,-0.8696456,-0.7544481,-1.661617,-1.217989,0.591384
1155.336,-0.08664312,-0.8696456,-0.7544481,-1.661617,-1.217989,0.591384
1155.35,-0.08641936,-0.8702803,-0.7541959,-1.661158,-1.216136,0.5906721
1155.366,-0.08620778,-0.8708775,-0.7539354,-1.660671,-1.214283,0.5899741
1155.38,-0.08604331,-0.8713444,-0.7531815,-1.659786,-1.21197,0.5889759
1155.395,-0.08604331,-0.8713444,-0.7531815,-1.659786,-1.21197,0.5889759
1155.409,-0.08590745,-0.8717291,-0.7523447,-1.658747,-1.209507,0.5879972
1155.425,-0.08578919,-0.8720613,-0.7514869,-1.657646,-1.207015,0.5870376
1155.439,-0.08578919,-0.8720613,-0.7514869,-1.657646,-1.207015,0.5870376
1155.454,-0.08572083,-0.8722552,-0.7501382,-1.656139,-1.204048,0.5857829
1155.469,-0.08568238,-0.872363,-0.7487148,-1.654477,-1.200936,0.5845528
1155.485,-0.08566187,-0.8724171,-0.7472807,-1.652759,-1.197802,0.5833467
1155.499,-0.08566187,-0.8724171,-0.7472807,-1.652759,-1.197802,0.5833467
1155.513,-0.08565214,-0.8724378,-0.7458608,-1.651029,-1.194688,0.5821642
1155.528,-0.08568612,-0.8723348,-0.7439734,-1.64892,-1.191117,0.580691
1155.543,-0.08574595,-0.8721557,-0.7420264,-1.646674,-1.187419,0.5792466
1155.557,-0.08574595,-0.8721557,-0.7420264,-1.646674,-1.187419,0.5792466
1155.572,-0.0858208,-0.8719306,-0.7400807,-1.644385,-1.183712,0.5778306
1155.587,-0.0859042,-0.871678,-0.7381597,-1.642095,-1.180038,0.5764422
1155.602,-0.08603114,-0.8713052,-0.7357829,-1.639434,-1.175902,0.5747672
1155.617,-0.08603114,-0.8713052,-0.7357829,-1.639434,-1.175902,0.5747672
1155.631,-0.08618321,-0.8708598,-0.7333567,-1.636645,-1.171651,0.5731249
1155.646,-0.08634934,-0.8703718,-0.7309412,-1.633822,-1.167403,0.5715147
1155.661,-0.08652294,-0.8698596,-0.7285596,-1.631007,-1.163197,0.5699362
1155.676,-0.08652294,-0.8698596,-0.7285596,-1.631007,-1.163197,0.5699362
1155.69,-0.08673894,-0.8692303,-0.7257349,-1.627827,-1.158523,0.5680746
1155.705,-0.08697881,-0.8685318,-0.7228702,-1.624529,-1.153745,0.5662495
1155.721,-0.0872315,-0.8677938,-0.7200246,-1.621204,-1.148981,0.5644602
1155.735,-0.0872315,-0.8677938,-0.7200246,-1.621204,-1.148981,0.5644602
1155.749,-0.08752928,-0.8669302,-0.7167389,-1.617501,-1.143731,0.562392
1155.765,-0.08785199,-0.8659934,-0.713419,-1.61368,-1.138381,0.5603642
1155.779,-0.08785199,-0.8659934,-0.713419,-1.61368,-1.138381,0.5603642
1155.793,-0.08818765,-0.8650156,-0.7101257,-1.609836,-1.133053,0.5583763
1155.809,-0.08852919,-0.864017,-0.706883,-1.606013,-1.127784,0.5564272
1155.824,-0.08891121,-0.8629056,-0.7032232,-1.601837,-1.122034,0.5542025
1155.838,-0.08891121,-0.8629056,-0.7032232,-1.601837,-1.122034,0.5542025
1155.852,-0.08931492,-0.8617299,-0.6995407,-1.597559,-1.116202,0.5520213
1155.868,-0.08972923,-0.8605199,-0.6958931,-1.593269,-1.110404,0.5498828
1155.883,-0.09014761,-0.8592942,-0.6923032,-1.58901,-1.104676,0.5477862
1155.898,-0.09014761,-0.8592942,-0.6923032,-1.58901,-1.104676,0.5477862
1155.912,-0.09060492,-0.85796,-0.6883103,-1.584403,-1.098457,0.545417
1155.927,-0.09108257,-0.8565651,-0.684301,-1.579703,-1.092166,0.543094
1155.942,-0.09156961,-0.8551392,-0.6803322,-1.574999,-1.085921,0.5408165
1155.958,-0.09156961,-0.8551392,-0.6803322,-1.574999,-1.085921,0.5408165
1155.972,-0.09209824,-0.8535962,-0.675964,-1.569932,-1.079167,0.5382698
1155.986,-0.09264833,-0.8519881,-0.6715823,-1.564772,-1.072346,0.5357729
1156.001,-0.09320803,-0.8503475,-0.6672465,-1.55961,-1.06558,0.533325
1156.016,-0.09320803,-0.8503475,-0.6672465,-1.55961,-1.06558,0.533325
1156.03,-0.09377046,-0.8486942,-0.6629805,-1.554489,-1.058902,0.530925
1156.045,-0.0943701,-0.846936,-0.6583405,-1.54903,-1.051712,0.5282582
1156.06,-0.0943701,-0.846936,-0.6583405,-1.54903,-1.051712,0.5282582
1156.074,-0.09498823,-0.8451214,-0.6536955,-1.543493,-1.044471,0.5256436
1156.089,-0.0956139,-0.8432804,-0.6491019,-1.537964,-1.037299,0.5230802
1156.104,-0.09624074,-0.8414314,-0.644583,-1.532485,-1.030224,0.520567
1156.119,-0.09624074,-0.8414314,-0.644583,-1.532485,-1.030224,0.520567
1156.133,-0.09690344,-0.8394812,-0.6397063,-1.526671,-1.022625,0.5177893
1156.149,-0.0975835,-0.8374779,-0.6348278,-1.520787,-1.014985,0.5150658
1156.163,-0.09827009,-0.8354509,-0.6300034,-1.514918,-1.007426,0.5123957
1156.178,-0.09827009,-0.8354509,-0.6300034,-1.514918,-1.007426,0.5123957
1156.192,-0.09899525,-0.8333141,-0.6248254,-1.508699,-0.9993253,0.5094642
1156.208,-0.09973895,-0.8311196,-0.6196455,-1.502408,-0.991191,0.5065899
1156.222,-0.1004895,-0.8288996,-0.6145223,-1.496134,-0.9831466,0.503772
1156.237,-0.1004895,-0.8288996,-0.6145223,-1.496134,-0.9831466,0.503772
1156.251,-0.1012403,-0.8266738,-0.6094818,-1.48992,-0.9752179,0.5010092
1156.266,-0.1020254,-0.82435,-0.6041171,-1.483376,-0.9667431,0.4979869
1156.281,-0.1028264,-0.8219767,-0.5987563,-1.476776,-0.9582465,0.4950236
1156.296,-0.1028264,-0.8219767,-0.5987563,-1.476776,-0.9582465,0.4950236
1156.31,-0.1036323,-0.8195836,-0.5934551,-1.470203,-0.9498526,0.4921183
1156.325,-0.1044371,-0.8171891,-0.5882393,-1.463696,-0.9415847,0.4892699
1156.34,-0.1052751,-0.8146999,-0.5827188,-1.456863,-0.9327585,0.4861637
1156.355,-0.1052751,-0.8146999,-0.5827188,-1.456863,-0.9327585,0.4861637
1156.369,-0.1061279,-0.8121641,-0.5772022,-1.449981,-0.9239182,0.4831181
1156.385,-0.106985,-0.809611,-0.5717449,-1.443132,-0.9151922,0.4801321
1156.4,-0.106985,-0.809611,-0.5717449,-1.443132,-0.9151922,0.4801321
1156.414,-0.107878,-0.8069542,-0.5659876,-1.435939,-0.9058976,0.476891
1156.429,-0.1087871,-0.804246,-0.5602304,-1.428696,-0.8965953,0.4737131
1156.444,-0.1097008,-0.8015184,-0.5545325,-1.421486,-0.8874179,0.4705974
1156.46,-0.1097008,-0.8015184,-0.5545325,-1.421486,-0.8874179,0.4705974
1156.473,-0.1106126,-0.7987912,-0.5489237,-1.41435,-0.8783861,0.4675428
1156.488,-0.1115564,-0.7959718,-0.54305,-1.40689,-0.8687799,0.4642343
1156.503,-0.1125137,-0.7931088,-0.5371805,-1.399396,-0.8591722,0.4609904
1156.517,-0.1125137,-0.7931088,-0.5371805,-1.399396,-0.8591722,0.4609904
1156.531,-0.1134741,-0.7902318,-0.5313705,-1.391944,-0.849701,0.4578101
1156.548,-0.1144312,-0.7873591,-0.5256505,-1.384572,-0.8403856,0.454692
1156.562,-0.1154193,-0.7843974,-0.5196887,-1.376877,-0.8304877,0.4513214
1156.577,-0.1154193,-0.7843974,-0.5196887,-1.376877,-0.8304877,0.4513214
1156.59,-0.1164201,-0.7813945,-0.5137285,-1.369155,-0.8205919,0.4480165
1156.606,-0.1174232,-0.7783799,-0.5078248,-1.36148,-0.810843,0.4447764
1156.621,-0.1184226,-0.7753714,-0.50201,-1.353888,-0.8012599,0.4415997
1156.636,-0.1184226,-0.7753714,-0.50201,-1.353888,-0.8012599,0.4415997
1156.65,-0.1194522,-0.7722757,-0.4959772,-1.345973,-0.7910886,0.4381715
1156.665,-0.1204939,-0.7691406,-0.489943,-1.338037,-0.7809209,0.4348103
1156.68,-0.1215375,-0.7659953,-0.4839612,-1.330152,-0.77091,0.4315149
1156.697,-0.1215375,-0.7659953,-0.4839612,-1.330152,-0.77091,0.4315149
1156.71,-0.122614,-0.7627534,-0.477764,-1.321925,-0.7603128,0.4279703
1156.724,-0.123704,-0.7594669,-0.4715577,-1.313675,-0.7497246,0.424495
1156.739,-0.123704,-0.7594669,-0.4715577,-1.313675,-0.7497246,0.424495
1156.753,-0.1247964,-0.756168,-0.4653998,-1.305476,-0.7393048,0.4210877
1156.768,-0.1258847,-0.7528761,-0.4593291,-1.297366,-0.7290721,0.4177471
1156.783,-0.1270021,-0.7494986,-0.4530875,-1.288932,-0.7182507,0.4141582
1156.798,-0.1270021,-0.7494986,-0.4530875,-1.288932,-0.7182507,0.4141582
1156.812,-0.1281308,-0.746084,-0.446842,-1.280489,-0.7074346,0.4106394
1156.827,-0.1292603,-0.7426619,-0.4406428,-1.272106,-0.696794,0.4071895
1156.842,-0.1303847,-0.7392505,-0.4345289,-1.263818,-0.6863497,0.4038073
1156.857,-0.1303847,-0.7392505,-0.4345289,-1.263818,-0.6863497,0.4038073
1156.871,-0.1315373,-0.7357562,-0.4282716,-1.255205,-0.6753176,0.4001775
1156.886,-0.1327004,-0.732227,-0.4220073,-1.246589,-0.6642879,0.3966186
1156.901,-0.1338639,-0.7286923,-0.415783,-1.238036,-0.6534409,0.3931293
1156.916,-0.1338639,-0.7286923,-0.415783,-1.238036,-0.6534409,0.3931293
1156.93,-0.1350584,-0.7250653,-0.4094139,-1.22914,-0.6420165,0.3893947
1156.947,-0.1362648,-0.7213983,-0.4030274,-1.220238,-0.6306005,0.385733
1156.96,-0.1374722,-0.7177232,-0.3966742,-1.211399,-0.6193786,0.382143
1156.975,-0.1374722,-0.7177232,-0.3966742,-1.211399,-0.6193786,0.382143
1156.989,-0.1386742,-0.7140595,-0.3904003,-1.202659,-0.6083742,0.3786233
1157.004,-0.1399035,-0.7103145,-0.3840343,-1.193592,-0.5967944,0.3748589
1157.019,-0.1399035,-0.7103145,-0.3840343,-1.193592,-0.5967944,0.3748589
1157.033,-0.1411426,-0.7065367,-0.37766,-1.184532,-0.5852129,0.3711679
1157.048,-0.1423812,-0.7027556,-0.3713166,-1.175543,-0.5738276,0.3675492
1157.063,-0.1436135,-0.6989893,-0.3650492,-1.166659,-0.5626665,0.3640014
1157.078,-0.1436135,-0.6989893,-0.3650492,-1.166659,-0.5626665,0.3640014
1157.092,-0.1448722,-0.6951443,-0.3587193,-1.157445,-0.5509369,0.3602093
1157.107,-0.1461401,-0.6912684,-0.3523796,-1.148243,-0.5391998,0.3564912
1157.122,-0.147407,-0.687391,-0.3460636,-1.139117,-0.5276625,0.3528459
1157.137,-0.147407,-0.687391,-0.3460636,-1.139117,-0.5276625,0.3528459
1157.151,-0.1487033,-0.6834252,-0.339678,-1.129642,-0.515572,0.3489583
1157.167,-0.1500102,-0.6794235,-0.3332696,-1.120175,-0.5034819,0.3451466
1157.182,-0.1513169,-0.6754174,-0.3268754,-1.110782,-0.4916029,0.3414095
1157.197,-0.1513169,-0.6754174,-0.3268754,-1.110782,-0.4916029,0.3414095
1157.212,-0.1526171,-0.6714267,-0.3205474,-1.101498,-0.4799675,0.3377458
1157.227,-0.1539073,-0.6674628,-0.3143171,-1.092341,-0.4685678,0.3341538
1157.241,-0.1551854,-0.663533,-0.3081991,-1.083318,-0.4573917,0.3306322
1157.255,-0.1551854,-0.663533,-0.3081991,-1.083318,-0.4573917,0.3306322
1157.269,-0.1564504,-0.6596414,-0.3021984,-1.074433,-0.4464302,0.3271797
1157.285,-0.1577016,-0.6557903,-0.2963149,-1.065688,-0.4356769,0.3237948
1157.3,-0.1577016,-0.6557903,-0.2963149,-1.065688,-0.4356769,0.3237948
1157.314,-0.1589388,-0.651981,-0.2905469,-1.057081,-0.4251272,0.3204762
1157.329,-0.1601619,-0.6482141,-0.2848918,-1.04861,-0.4147772,0.3172227
1157.344,-0.1613709,-0.6444898,-0.2793466,-1.040275,-0.4046237,0.314033
1157.359,-0.1613709,-0.6444898,-0.2793466,-1.040275,-0.4046237,0.314033
1157.373,-0.1625659,-0.640808,-0.2739086,-1.032074,-0.3946632,0.3109058
1157.389,-0.163747,-0.6371686,-0.268575,-1.024004,-0.3848928,0.3078399
1157.403,-0.1649143,-0.6335711,-0.2633432,-1.016062,-0.3753092,0.3048341
1157.418,-0.1649143,-0.6335711,-0.2633432,-1.016062,-0.3753092,0.3048341
1157.434,-0.166068,-0.6300153,-0.2582105,-1.008249,-0.3659096,0.3018872
1157.448,-0.1672082,-0.6265006,-0.2531744,-1.000561,-0.3566907,0.2989981
1157.463,-0.1683351,-0.6230268,-0.2482324,-0.9929958,-0.3476497,0.2961656
1157.477,-0.1683351,-0.6230268,-0.2482324,-0.9929958,-0.3476497,0.2961656
1157.491,-0.1694488,-0.6195933,-0.2433821,-0.9855524,-0.3387835,0.2933886
1157.507,-0.1705495,-0.6161998,-0.2386212,-0.9782287,-0.3300891,0.2906661
1157.521,-0.1716373,-0.6128457,-0.2339476,-0.9710227,-0.3215637,0.2879969
1157.536,-0.1716373,-0.6128457,-0.2339476,-0.9710227,-0.3215637,0.2879969
1157.551,-0.1727124,-0.6095307,-0.2293588,-0.9639326,-0.3132043,0.2853801
1157.566,-0.1737749,-0.6062543,-0.2248529,-0.9569566,-0.3050081,0.2828146
1157.581,-0.1748249,-0.6030161,-0.2204278,-0.950093,-0.2969721,0.2802994
1157.596,-0.1748249,-0.6030161,-0.2204278,-0.950093,-0.2969721,0.2802994
1157.61,-0.1758627,-0.5998157,-0.2160813,-0.9433399,-0.2890937,0.2778335
1157.625,-0.1768884,-0.5966526,-0.2118116,-0.9366958,-0.28137,0.2754159
1157.64,-0.177902,-0.5935265,-0.2076167,-0.9301589,-0.2737983,0.2730458
1157.655,-0.177902,-0.5935265,-0.2076167,-0.9301589,-0.2737983,0.2730458
1157.67,-0.1789038,-0.5904368,-0.2034947,-0.9237275,-0.2663759,0.2707221
1157.685,-0.1798939,-0.5873833,-0.1994438,-0.9173999,-0.2591002,0.268444
1157.699,-0.1798939,-0.5873833,-0.1994438,-0.9173999,-0.2591002,0.268444
1157.714,-0.1808724,-0.5843654,-0.1954623,-0.9111748,-0.2519684,0.2662105
1157.729,-0.1818394,-0.5813828,-0.1915484,-0.9050503,-0.2449781,0.2640209
1157.744,-0.1827951,-0.578435,-0.1877004,-0.899025,-0.2381265,0.2618741
1157.759,-0.1827951,-0.578435,-0.1877004,-0.899025,-0.2381265,0.2618741
1157.773,-0.1837397,-0.5755218,-0.1839167,-0.8930972,-0.2314113,0.2597695
1157.788,-0.1846732,-0.5726426,-0.1801958,-0.8872656,-0.22483,0.2577061
1157.803,-0.1855958,-0.5697972,-0.1765359,-0.8815286,-0.21838,0.2556832
1157.818,-0.1855958,-0.5697972,-0.1765359,-0.8815286,-0.21838,0.2556832
1157.832,-0.1865076,-0.5669851,-0.1729358,-0.8758848,-0.212059,0.2537
1157.848,-0.1874087,-0.5642059,-0.1693938,-0.8703326,-0.2058646,0.2517556
1157.863,-0.1882994,-0.5614593,-0.1659086,-0.8648707,-0.1997944,0.2498494
1157.877,-0.1882994,-0.5614593,-0.1659086,-0.8648707,-0.1997944,0.2498494
1157.893,-0.1891796,-0.5587449,-0.1624787,-0.8594977,-0.1938463,0.2479805
1157.908,-0.1900495,-0.5560623,-0.1591028,-0.8542122,-0.1880178,0.2461483
1157.922,-0.1909092,-0.5534112,-0.1557796,-0.8490129,-0.1823068,0.2443521
1157.936,-0.1909092,-0.5534112,-0.1557796,-0.8490129,-0.1823068,0.2443521
1157.95,-0.1917589,-0.5507913,-0.1525078,-0.8438982,-0.1767111,0.2425911
1157.966,-0.1925987,-0.548202,-0.1492862,-0.8388671,-0.1712286,0.2408645
1157.981,-0.1934286,-0.5456432,-0.1461135,-0.8339182,-0.165857,0.2391719
1157.996,-0.1934286,-0.5456432,-0.1461135,-0.8339182,-0.165857,0.2391719
1158.01,-0.1942489,-0.5431144,-0.1429886,-0.8290501,-0.1605944,0.2375125
1158.026,-0.1950596,-0.5406153,-0.1399103,-0.8242616,-0.1554387,0.2358855
1158.04,-0.1950596,-0.5406153,-0.1399103,-0.8242616,-0.1554387,0.2358855
1158.054,-0.1958608,-0.5381455,-0.1368775,-0.8195515,-0.1503878,0.2342906
1158.07,-0.1966527,-0.5357049,-0.1338891,-0.8149186,-0.1454398,0.2327268
1158.085,-0.1974353,-0.5332928,-0.130944,-0.8103617,-0.1405928,0.2311938
1158.1,-0.1974353,-0.5332928,-0.130944,-0.8103617,-0.1405928,0.2311938
1158.114,-0.1982088,-0.5309092,-0.1280413,-0.8058795,-0.1358448,0.2296908
1158.131,-0.1989732,-0.5285535,-0.1251799,-0.8014709,-0.131194,0.2282173
1158.144,-0.1997288,-0.5262256,-0.1223588,-0.7971348,-0.1266385,0.2267727
1158.159,-0.1997288,-0.5262256,-0.1223588,-0.7971348,-0.1266385,0.2267727
1158.173,-0.2004755,-0.5239251,-0.1195772,-0.79287,-0.1221765,0.2253565
1158.188,-0.2012135,-0.5216517,-0.116834,-0.7886753,-0.1178063,0.223968
1158.203,-0.2019429,-0.519405,-0.1141285,-0.7845497,-0.113526,0.2226067
1158.218,-0.2019429,-0.519405,-0.1141285,-0.7845497,-0.113526,0.2226067
1158.232,-0.2026638,-0.5171848,-0.1114596,-0.7804921,-0.109334,0.2212722
1158.248,-0.2033763,-0.5149907,-0.1088267,-0.7765015,-0.1052285,0.2199638
1158.263,-0.2040804,-0.5128224,-0.1062288,-0.7725767,-0.101208,0.2186811
1158.278,-0.2040804,-0.5128224,-0.1062288,-0.7725767,-0.101208,0.2186811
1158.292,-0.2047764,-0.5106798,-0.1036651,-0.7687167,-0.0972707,0.2174235
1158.307,-0.2054643,-0.5085623,-0.101135,-0.7649205,-0.09341513,0.2161906
1158.322,-0.2061441,-0.5064698,-0.09863757,-0.7611871,-0.08963969,0.2149819
1158.337,-0.2061441,-0.5064698,-0.09863757,-0.7611871,-0.08963969,0.2149819
1158.353,-0.2068161,-0.504402,-0.09617216,-0.7575155,-0.08594283,0.2137968
1158.366,-0.2074802,-0.5023586,-0.09373805,-0.7539048,-0.08232304,0.2126351
1158.381,-0.2081365,-0.5003393,-0.09133454,-0.7503538,-0.07877883,0.2114961
1158.396,-0.2081365,-0.5003393,-0.09133454,-0.7503538,-0.07877883,0.2114961
1158.41,-0.2087853,-0.4983438,-0.08896096,-0.7468618,-0.07530876,0.2103794
1158.426,-0.2094264,-0.4963718,-0.08661667,-0.7434278,-0.07191138,0.2092847
1158.44,-0.2100601,-0.4944231,-0.08430102,-0.7400507,-0.06858529,0.2082114
1158.455,-0.2100601,-0.4944231,-0.08430102,-0.7400507,-0.06858529,0.2082114
1158.472,-0.2106864,-0.4924974,-0.08201341,-0.7367299,-0.06532912,0.2071592
1158.485,-0.2113055,-0.4905944,-0.07975323,-0.7334642,-0.06214151,0.2061276
1158.5,-0.2113055,-0.4905944,-0.07975323,-0.7334642,-0.06214151,0.2061276
1158.514,-0.2119173,-0.4887139,-0.0775199,-0.7302529,-0.05902113,0.2051163
1158.53,-0.212522,-0.4868557,-0.07531287,-0.7270951,-0.05596669,0.2041248
1158.545,-0.2131197,-0.4850193,-0.07313158,-0.7239899,-0.05297689,0.2031527
1158.559,-0.2131197,-0.4850193,-0.07313158,-0.7239899,-0.05297689,0.2031527
1158.573,-0.2137105,-0.4832047,-0.07097551,-0.7209365,-0.05005049,0.2021997
1158.59,-0.2142943,-0.4814115,-0.06884413,-0.717934,-0.04718626,0.2012654
1158.604,-0.2148714,-0.4796394,-0.06673696,-0.7149817,-0.04438298,0.2003494
1158.619,-0.2148714,-0.4796394,-0.06673696,-0.7149817,-0.04438298,0.2003494
1158.633,-0.2154418,-0.4778883,-0.0646535,-0.7120788,-0.04163947,0.1994514
1158.648,-0.2160055,-0.476158,-0.06259328,-0.7092243,-0.03895456,0.198571
1158.663,-0.2165627,-0.474448,-0.06055584,-0.7064177,-0.03632711,0.1977079
1158.678,-0.2165627,-0.474448,-0.06055584,-0.7064177,-0.03632711,0.1977079
1158.692,-0.2171134,-0.4727583,-0.05854075,-0.703658,-0.03375599,0.1968617
1158.708,-0.2176577,-0.4710886,-0.05654756,-0.7009445,-0.03124011,0.196032
1158.722,-0.2181957,-0.4694386,-0.05457587,-0.6982766,-0.02877839,0.1952187
1158.737,-0.2181957,-0.4694386,-0.05457587,-0.6982766,-0.02877839,0.1952187
1158.752,-0.2187275,-0.4678081,-0.05262526,-0.6956534,-0.02636977,0.1944213
