JMolnar6/NonAnthroHands_User_Study/HandsLoggerWithURDF/tempdata/PID 0 (test)/files/Reachy_JointMotion_gesture_9_45.csv
Time,r_shoulder,r_shoulder_x,r_upper_arm,r_forearm,r_wrist,r_wrist2hand,
880.8267,-0.01398127,0.0005536808,NaN,-0.9064968,0.0005785,NaN,-1.563244,-14.64758,NaN,-2.110695,-1.468485,0.3780073,14.09966,NaN,NaN,-0.09208667,0.8130551,-9.735267E-08,1.047571,-7.117543E-09,1.326798
880.8408,-0.01398064,0.0005545209,NaN,-0.9064918,0.0005789051,NaN,-1.563234,-14.64803,NaN,-2.11064,-1.480483,0.3779452,14.11239,NaN,NaN,-0.09209177,0.8130534,-9.735267E-08,1.06504,-9.501729E-09,1.334398
880.856,-0.01398064,0.0005545209,NaN,-0.9064918,0.0005789051,NaN,-1.563234,-14.64803,NaN,-2.11064,-1.480483,0.3779452,14.11239,NaN,NaN,-0.09209177,0.8130534,-9.735267E-08,1.06504,-9.501729E-09,1.334398
880.8691,-0.01397988,0.0005551336,NaN,-0.9065542,0.000580268,NaN,-1.562702,-14.64814,NaN,-2.111179,-1.469457,0.3792293,14.10074,NaN,NaN,-0.09196751,0.8126687,-1.022701E-07,1.049005,-1.188591E-08,1.330733
880.885,-0.01397902,0.0005557546,NaN,-0.906658,0.0005813351,NaN,-1.562254,-14.64802,NaN,-2.112005,-1.469073,0.3807484,14.10032,NaN,NaN,-0.09184614,0.8127698,-9.549002E-08,1.048439,-7.117543E-09,1.329444
880.8996,-0.01397902,0.0005557546,NaN,-0.906658,0.0005813351,NaN,-1.562254,-14.64802,NaN,-2.112005,-1.469073,0.3807484,14.10032,NaN,NaN,-0.09184614,0.8127698,-9.549002E-08,1.048439,-7.117543E-09,1.329444
880.9138,-0.01397811,0.000556361,NaN,-0.9067869,0.0005818116,NaN,-1.561927,-14.64844,NaN,-2.112962,-1.473912,0.3822389,14.10548,NaN,NaN,-0.09172706,0.8125283,-8.938055E-08,1.055494,3.501421E-11,1.33265
880.9316,-0.01397727,0.0005577942,NaN,-0.9068613,0.0005831258,NaN,-1.562196,-14.64889,NaN,-2.113382,-1.477206,0.3823343,14.10901,NaN,NaN,-0.09173949,0.8121783,-8.114766E-08,1.060302,2.4192E-09,1.338646
880.9442,-0.01397651,0.0005593798,NaN,-0.9069018,0.0005840312,NaN,-1.56242,-14.64814,NaN,-2.113534,-1.482398,0.3821502,14.11438,NaN,NaN,-0.09175116,0.8130668,-8.487295E-08,1.067814,4.803386E-09,1.334303
880.9591,-0.01397651,0.0005593798,NaN,-0.9069018,0.0005840312,NaN,-1.56242,-14.64814,NaN,-2.113534,-1.482398,0.3821502,14.11438,NaN,NaN,-0.09175116,0.8130668,-8.487295E-08,1.067814,4.803386E-09,1.334303
880.973,-0.0139758,0.0005603813,NaN,-0.9069213,0.0005850101,NaN,-1.562543,-14.64725,NaN,-2.113558,-1.475554,0.3819605,14.10704,NaN,NaN,-0.09176265,0.813794,-8.818846E-08,1.057827,7.187571E-09,1.327742
880.9885,-0.01397512,0.0005608854,NaN,-0.9069276,0.0005858566,NaN,-1.562604,-14.64733,NaN,-2.11352,-1.469374,0.3817949,14.10051,NaN,NaN,-0.09177401,0.8135275,-9.001385E-08,1.048834,9.571757E-09,1.324402
881.0035,-0.01397459,0.0005615946,NaN,-0.9068584,0.0005858091,NaN,-1.56316,-14.64826,NaN,-2.112859,-1.479328,0.3803053,14.11116,NaN,NaN,-0.09191445,0.8129673,-8.524547E-08,1.063363,2.4192E-09,1.332147
881.0182,-0.01397459,0.0005615946,NaN,-0.9068584,0.0005858091,NaN,-1.56316,-14.64826,NaN,-2.112859,-1.479328,0.3803053,14.11116,NaN,NaN,-0.09191445,0.8129673,-8.524547E-08,1.063363,2.4192E-09,1.332147
881.0322,-0.01397418,0.0005622708,NaN,-0.9067429,0.0005854833,NaN,-1.563617,-14.64787,NaN,-2.111898,-1.478801,0.3785899,14.11055,NaN,NaN,-0.09205172,0.8133496,-9.243529E-08,1.06258,-2.349172E-09,1.330196
881.0497,-0.01397384,0.0005627068,NaN,-0.9065993,0.0005859223,NaN,-1.563945,-14.64708,NaN,-2.110801,-1.469463,0.3769099,14.10058,NaN,NaN,-0.0921864,0.8138801,-9.884278E-08,1.048962,3.501377E-11,1.323661
881.0634,-0.01397354,0.0005632815,NaN,-0.906439,0.0005864014,NaN,-1.564195,-14.64825,NaN,-2.109646,-1.475598,0.3752882,14.10722,NaN,NaN,-0.09231854,0.8129425,-1.037602E-07,1.05795,2.4192E-09,1.331525
881.0773,-0.01397354,0.0005632815,NaN,-0.906439,0.0005864014,NaN,-1.564195,-14.64825,NaN,-2.109646,-1.475598,0.3752882,14.10722,NaN,NaN,-0.09231854,0.8129425,-1.037602E-07,1.05795,2.4192E-09,1.331525
881.0911,-0.0139734,0.0005636831,NaN,-0.9061999,0.0005864943,NaN,-1.564925,-14.64748,NaN,-2.107881,-1.473996,0.3723681,14.10543,NaN,NaN,-0.09257743,0.8136575,-1.017485E-07,1.055587,7.187571E-09,1.32777
881.1065,-0.01397337,0.0005641629,NaN,-0.9059131,0.000587604,NaN,-1.565544,-14.6476,NaN,-2.105829,-1.469179,0.3692551,14.10034,NaN,NaN,-0.09283084,0.813387,-1.115088E-07,1.048581,2.4192E-09,1.326786
881.1212,-0.01397343,0.0005639046,NaN,-0.9055983,0.0005877185,NaN,-1.566023,-14.64798,NaN,-2.103655,-1.468505,0.3662069,14.09968,NaN,NaN,-0.0930794,0.8129857,-1.193319E-07,1.047619,4.803385E-09,1.32886
881.136,-0.01397343,0.0005639046,NaN,-0.9055983,0.0005877185,NaN,-1.566023,-14.64798,NaN,-2.103655,-1.468505,0.3662069,14.09968,NaN,NaN,-0.0930794,0.8129857,-1.193319E-07,1.047619,4.803385E-09,1.32886
881.1503,-0.01397365,0.0005640731,NaN,-0.9051982,0.0005875255,NaN,-1.566934,-14.64828,NaN,-2.100848,-1.475276,0.3618905,14.10687,NaN,NaN,-0.09345247,0.8129353,-1.208965E-07,1.05748,4.803385E-09,1.330495
881.1657,-0.01397401,0.0005642192,NaN,-0.9047473,0.0005879753,NaN,-1.567702,-14.6474,NaN,-2.097751,-1.469359,0.3574226,14.1005,NaN,NaN,-0.09381788,0.8136247,-1.320724E-07,1.048835,7.187571E-09,1.325382
881.1805,-0.01397445,0.0005651234,NaN,-0.9042671,0.0005890437,NaN,-1.568315,-14.64852,NaN,-2.094539,-1.47452,0.3530525,14.10611,NaN,NaN,-0.09417627,0.812704,-1.413111E-07,1.056401,9.571757E-09,1.334754
881.1957,-0.01397445,0.0005651234,NaN,-0.9042671,0.0005890437,NaN,-1.568315,-14.64852,NaN,-2.094539,-1.47452,0.3530525,14.10611,NaN,NaN,-0.09417627,0.812704,-1.413111E-07,1.056401,9.571757E-09,1.334754
881.2096,-0.01397495,0.0005658187,NaN,-0.9037709,0.0005893845,NaN,-1.568832,-14.64822,NaN,-2.091297,-1.476118,0.3487952,14.10775,NaN,NaN,-0.09452775,0.8130426,-1.489852E-07,1.058711,9.571757E-09,1.33036
881.2252,-0.01397561,0.0005668888,NaN,-0.9031978,0.0005897396,NaN,-1.5698,-14.64762,NaN,-2.087475,-1.482049,0.3432685,14.11394,NaN,NaN,-0.0950017,0.8138157,-1.506988E-07,1.067311,4.803385E-09,1.331791
881.2397,-0.01397561,0.0005668888,NaN,-0.9031978,0.0005897396,NaN,-1.5698,-14.64762,NaN,-2.087475,-1.482049,0.3432685,14.11394,NaN,NaN,-0.0950017,0.8138157,-1.506988E-07,1.067311,4.803385E-09,1.331791
881.2541,-0.01397639,0.0005676504,NaN,-0.9025797,0.0005908905,NaN,-1.570629,-14.64707,NaN,-2.083395,-1.470585,0.3376175,14.10174,NaN,NaN,-0.09546603,0.8140824,-1.629178E-07,1.050603,4.803385E-09,1.325613
881.2694,-0.01397726,0.0005685159,NaN,-0.9019368,0.0005926734,NaN,-1.571197,-14.6474,NaN,-2.079216,-1.468513,0.3319717,14.09958,NaN,NaN,-0.09592114,0.8136816,-1.796071E-07,1.047602,3.501377E-11,1.329855
881.2841,-0.01397818,0.0005689234,NaN,-0.9012813,0.0005937543,NaN,-1.571442,-14.64729,NaN,-2.075013,-1.467372,0.3263266,14.09835,NaN,NaN,-0.09636717,0.8137422,-2.009157E-07,1.045933,9.571757E-09,1.324966
881.2999,-0.01397818,0.0005689234,NaN,-0.9012813,0.0005937543,NaN,-1.571442,-14.64729,NaN,-2.075013,-1.467372,0.3263266,14.09835,NaN,NaN,-0.09636717,0.8137422,-2.009157E-07,1.045933,9.571757E-09,1.324966
881.3141,-0.01397926,0.0005698171,NaN,-0.9005517,0.0005942595,NaN,-1.571901,-14.64769,NaN,-2.070241,-1.480081,0.3193994,14.11185,NaN,NaN,-0.09693377,0.8138353,-2.17158E-07,1.064446,9.571757E-09,1.332448
881.3284,-0.01398047,0.0005712486,NaN,-0.8997797,0.0005950024,NaN,-1.571962,-14.64699,NaN,-2.065224,-1.482192,0.3123174,14.11399,NaN,NaN,-0.09748887,0.8145761,-2.455447E-07,1.067492,1.434013E-08,1.328145
881.343,-0.01398175,0.0005724184,NaN,-0.898985,0.00059583,NaN,-1.5717,-14.64668,NaN,-2.060133,-1.479045,0.305429,14.11061,NaN,NaN,-0.09803331,0.8148109,-2.711747E-07,1.062893,1.434013E-08,1.324342
881.3578,-0.01398175,0.0005724184,NaN,-0.898985,0.00059583,NaN,-1.5717,-14.64668,NaN,-2.060133,-1.479045,0.305429,14.11061,NaN,NaN,-0.09803331,0.8148109,-2.711747E-07,1.062893,1.434013E-08,1.324342
881.3719,-0.01398323,0.0005733388,NaN,-0.8981104,0.0005975994,NaN,-1.571815,-14.64791,NaN,-2.054466,-1.469344,0.2974124,14.10046,NaN,NaN,-0.09869672,0.8133197,-2.836171E-07,1.0488,1.195594E-08,1.331752
881.3874,-0.01398505,0.0005741233,NaN,-0.8971906,0.000598274,NaN,-1.571747,-14.64775,NaN,-2.048559,-1.47443,0.2893366,14.10581,NaN,NaN,-0.09934688,0.8136689,-3.051493E-07,1.056186,4.803385E-09,1.326532
881.4034,-0.01398719,0.0005746509,NaN,-0.8962469,0.0005994837,NaN,-1.571529,-14.64763,NaN,-2.042584,-1.468857,0.2814645,14.09989,NaN,NaN,-0.09998449,0.8136114,-3.242973E-07,1.048069,7.187571E-09,1.326608
881.4172,-0.01398719,0.0005746509,NaN,-0.8962469,0.0005994837,NaN,-1.571529,-14.64763,NaN,-2.042584,-1.468857,0.2814645,14.09989,NaN,NaN,-0.09998449,0.8136114,-3.242973E-07,1.048069,7.187571E-09,1.326608
881.4312,-0.01398958,0.0005757518,NaN,-0.8952928,0.0006001149,NaN,-1.571285,-14.64647,NaN,-2.036627,-1.479113,0.2738348,14.11057,NaN,NaN,-0.1006098,0.8151453,-3.367398E-07,1.062926,4.803385E-09,1.325011
881.447,-0.01399235,0.0005768436,NaN,-0.8942671,0.0006022526,NaN,-1.571564,-14.64702,NaN,-2.03014,-1.468608,0.2649926,14.09948,NaN,NaN,-0.1013524,0.8143058,-3.387514E-07,1.04763,7.187571E-09,1.328609
881.4617,-0.0139955,0.0005775231,NaN,-0.8932019,0.0006037783,NaN,-1.571675,-14.64721,NaN,-2.023437,-1.468242,0.2560434,14.09911,NaN,NaN,-0.1020801,0.8140926,-3.579739E-07,1.047106,1.672431E-08,1.325274
881.4765,-0.0139955,0.0005775231,NaN,-0.8932019,0.0006037783,NaN,-1.571675,-14.64721,NaN,-2.023437,-1.468242,0.2560434,14.09911,NaN,NaN,-0.1020801,0.8140926,-3.579739E-07,1.047106,1.672431E-08,1.325274
881.4905,-0.01399898,0.0005781823,NaN,-0.8921171,0.0006042329,NaN,-1.571578,-14.64783,NaN,-2.01668,-1.475462,0.2472632,14.10683,NaN,NaN,-0.1027936,0.813753,-3.762279E-07,1.057647,1.434013E-08,1.326756
881.5058,-0.0140027,0.0005786609,NaN,-0.891025,0.0006035012,NaN,-1.57138,-14.64709,NaN,-2.009952,-1.481479,0.2387203,14.1131,NaN,NaN,-0.1034933,0.81466,-3.90235E-07,1.066372,1.195594E-08,1.32806
881.5208,-0.01400681,0.0005793911,NaN,-0.889864,0.0006043846,NaN,-1.571624,-14.64682,NaN,-2.002708,-1.471916,0.2289579,14.10293,NaN,NaN,-0.1043087,0.8146862,-3.925446E-07,1.052428,1.91085E-08,1.325694
881.5364,-0.01400681,0.0005793911,NaN,-0.889864,0.0006043846,NaN,-1.571624,-14.64682,NaN,-2.002708,-1.471916,0.2289579,14.10293,NaN,NaN,-0.1043087,0.8146862,-3.925446E-07,1.052428,1.91085E-08,1.325694
881.5504,-0.01401128,0.0005804066,NaN,-0.8886657,0.0006049493,NaN,-1.571665,-14.64792,NaN,-1.995263,-1.480258,0.2191565,14.11191,NaN,NaN,-0.1051079,0.813876,-4.081164E-07,1.064632,1.91085E-08,1.331605
881.5649,-0.01401607,0.0005812229,NaN,-0.8874498,0.0006066177,NaN,-1.571515,-14.64786,NaN,-1.987778,-1.469431,0.2095718,14.10044,NaN,NaN,-0.1058917,0.8136578,-4.244331E-07,1.048866,2.149269E-08,1.330963
881.5797,-0.01401607,0.0005812229,NaN,-0.8874498,0.0006066177,NaN,-1.571515,-14.64786,NaN,-1.987778,-1.469431,0.2095718,14.10044,NaN,NaN,-0.1058917,0.8136578,-4.244331E-07,1.048866,2.149269E-08,1.330963
881.5939,-0.01402128,0.0005816712,NaN,-0.8861591,0.000607188,NaN,-1.571715,-14.64714,NaN,-1.979751,-1.47195,0.1987724,14.103,NaN,NaN,-0.1067894,0.814458,-4.276369E-07,1.052492,2.149269E-08,1.323785
881.6091,-0.01402691,0.0005822539,NaN,-0.8848281,0.0006083502,NaN,-1.57168,-14.64675,NaN,-1.971519,-1.470633,0.1880044,14.10154,NaN,NaN,-0.1076695,0.8147952,-4.426125E-07,1.050555,2.149269E-08,1.324653
881.6239,-0.01403288,0.0005830142,NaN,-0.8834781,0.0006083819,NaN,-1.571475,-14.64795,NaN,-1.963251,-1.480355,0.1775017,14.11201,NaN,NaN,-0.1085325,0.8139414,-4.561726E-07,1.064781,1.672431E-08,1.330352
881.6387,-0.01403288,0.0005830142,NaN,-0.8834781,0.0006083819,NaN,-1.571475,-14.64795,NaN,-1.963251,-1.480355,0.1775017,14.11201,NaN,NaN,-0.1085325,0.8139414,-4.561726E-07,1.064781,1.672431E-08,1.330352
881.653,-0.0140391,0.0005834007,NaN,-0.8821225,0.0006090146,NaN,-1.571238,-14.64733,NaN,-1.955031,-1.468791,0.1672906,14.0997,NaN,NaN,-0.1093788,0.8142762,-4.620586E-07,1.047923,1.434013E-08,1.322227
881.6686,-0.01404571,0.0005840308,NaN,-0.8807001,0.0006084577,NaN,-1.571442,-14.64782,NaN,-1.946318,-1.481011,0.1558373,14.1127,NaN,NaN,-0.1103378,0.8142402,-4.581098E-07,1.065742,9.571758E-09,1.328622
881.6833,-0.01405269,0.0005839946,NaN,-0.879243,0.0006081957,NaN,-1.571464,-14.64705,NaN,-1.937427,-1.469324,0.1444328,14.10023,NaN,NaN,-0.111278,0.8147306,-4.670877E-07,1.048691,3.501466E-11,1.323213
881.6982,-0.01405269,0.0005839946,NaN,-0.879243,0.0006081957,NaN,-1.571464,-14.64705,NaN,-1.937427,-1.469324,0.1444328,14.10023,NaN,NaN,-0.111278,0.8147306,-4.670877E-07,1.048691,3.501466E-11,1.323213
881.7123,-0.01405997,0.0005842228,NaN,-0.8777708,0.0006084124,NaN,-1.571328,-14.64687,NaN,-1.928516,-1.472751,0.1332822,14.10384,NaN,NaN,-0.1121999,0.815043,-4.746873E-07,1.053678,3.501466E-11,1.321208
881.7278,-0.01406748,0.0005846568,NaN,-0.8762961,0.000609507,NaN,-1.571144,-14.64752,NaN,-1.919665,-1.469283,0.1224137,14.10025,NaN,NaN,-0.1131037,0.8142788,-4.762147E-07,1.04866,-4.733357E-09,1.323983
881.7426,-0.01407535,0.0005854997,NaN,-0.8747571,0.0006099087,NaN,-1.571335,-14.64773,NaN,-1.910331,-1.481224,0.1102808,14.11292,NaN,NaN,-0.1141193,0.8145138,-4.709248E-07,1.066058,-7.117543E-09,1.328297
881.7571,-0.01407535,0.0005854997,NaN,-0.8747571,0.0006099087,NaN,-1.571335,-14.64773,NaN,-1.910331,-1.481224,0.1102808,14.11292,NaN,NaN,-0.1141193,0.8145138,-4.709248E-07,1.066058,-7.117543E-09,1.328297
881.7735,-0.01408358,0.0005865397,NaN,-0.8731852,0.0006103846,NaN,-1.571327,-14.64867,NaN,-1.900831,-1.482009,0.09825478,14.11386,NaN,NaN,-0.1151149,0.8135988,-4.753951E-07,1.067235,-2.349171E-09,1.332963
881.7869,-0.01409209,0.0005872663,NaN,-0.8716002,0.0006111664,NaN,-1.571177,-14.64725,NaN,-1.89132,-1.475459,0.08650741,14.10676,NaN,NaN,-0.1160911,0.8148608,-4.762892E-07,1.057654,-2.349171E-09,1.323365
881.8016,-0.01410082,0.0005872102,NaN,-0.8700141,0.0006110733,NaN,-1.570997,-14.64812,NaN,-1.881876,-1.471553,0.07505336,14.10273,NaN,NaN,-0.1170482,0.8138826,-4.7221E-07,1.052002,-4.733357E-09,1.327253
881.8164,-0.01410082,0.0005872102,NaN,-0.8700141,0.0006110733,NaN,-1.570997,-14.64812,NaN,-1.881876,-1.471553,0.07505336,14.10273,NaN,NaN,-0.1170482,0.8138826,-4.7221E-07,1.052002,-4.733357E-09,1.327253
881.8304,-0.01410738,0.0005864828,NaN,-0.869266,0.0006105294,NaN,-1.567219,-14.64742,NaN,-1.879451,-1.471148,0.08246265,14.10221,NaN,NaN,-0.1164348,0.8145652,-5.160753E-07,1.051381,-4.733357E-09,1.323906
881.846,-0.01411119,0.0005866823,NaN,-0.8690384,0.0006100454,NaN,-1.565164,-14.64765,NaN,-1.880424,-1.480631,0.09048122,14.11229,NaN,NaN,-0.1158335,0.8146666,-4.767362E-07,1.065207,-7.117543E-09,1.328273
881.8629,-0.01411251,0.0005868766,NaN,-0.8691313,0.0006104136,NaN,-1.564023,-14.6473,NaN,-1.883081,-1.470912,0.09800298,14.10194,NaN,NaN,-0.1152439,0.81477,-4.560981E-07,1.051034,-7.117543E-09,1.322672
881.8759,-0.01411251,0.0005868766,NaN,-0.8691313,0.0006104136,NaN,-1.564023,-14.6473,NaN,-1.883081,-1.470912,0.09800298,14.10194,NaN,NaN,-0.1152439,0.81477,-4.560981E-07,1.051034,-7.117543E-09,1.322672
881.8897,-0.01411275,0.0005877958,NaN,-0.8693523,0.0006111711,NaN,-1.563569,-14.64854,NaN,-1.885984,-1.477707,0.1036604,14.10931,NaN,NaN,-0.1147952,0.8137729,-4.389618E-07,1.060996,-4.733357E-09,1.331272
881.9054,-0.01411257,0.0005878332,NaN,-0.8696514,0.0006113307,NaN,-1.563171,-14.6478,NaN,-1.889004,-1.469879,0.1090869,14.10094,NaN,NaN,-0.1143553,0.81429,-4.309896E-07,1.049572,-7.117543E-09,1.325868
881.9201,-0.01411221,0.0005882667,NaN,-0.8699973,0.0006120366,NaN,-1.562784,-14.64767,NaN,-1.892066,-1.470263,0.1144,14.10133,NaN,NaN,-0.113924,0.8144304,-4.23092E-07,1.050128,-7.117543E-09,1.324303
881.9349,-0.01411221,0.0005882667,NaN,-0.8699973,0.0006120366,NaN,-1.562784,-14.64767,NaN,-1.892066,-1.470263,0.1144,14.10133,NaN,NaN,-0.113924,0.8144304,-4.23092E-07,1.050128,-7.117543E-09,1.324303
881.949,-0.01411176,0.0005886476,NaN,-0.8703705,0.0006117447,NaN,-1.562405,-14.64738,NaN,-1.895132,-1.48062,0.1196077,14.11226,NaN,NaN,-0.1135011,0.8150868,-4.154924E-07,1.065197,-9.501728E-09,1.324771
881.9646,-0.01411139,0.0005891268,NaN,-0.8706896,0.0006124206,NaN,-1.562355,-14.64833,NaN,-1.897602,-1.47027,0.1231646,14.10139,NaN,NaN,-0.113216,0.813876,-4.039068E-07,1.050147,-1.188591E-08,1.3274
881.9794,-0.01411139,0.0005891268,NaN,-0.8706896,0.0006124206,NaN,-1.562355,-14.64833,NaN,-1.897602,-1.47027,0.1231646,14.10139,NaN,NaN,-0.113216,0.813876,-4.039068E-07,1.050147,-1.188591E-08,1.3274
881.9934,-0.01411109,0.0005899685,NaN,-0.8709739,0.0006126717,NaN,-1.562204,-14.64838,NaN,-1.899769,-1.481014,0.126592,14.11276,NaN,NaN,-0.1129364,0.8142063,-3.978718E-07,1.065786,-9.501729E-09,1.331335
882.0098,-0.01411084,0.0005900689,NaN,-0.8712354,0.0006128596,NaN,-1.562,-14.64766,NaN,-1.901771,-1.4709,0.129974,14.10196,NaN,NaN,-0.1126622,0.8146621,-3.913525E-07,1.051032,-7.117543E-09,1.3243
882.0235,-0.01411061,0.0005904768,NaN,-0.8714817,0.0006138273,NaN,-1.561776,-14.6483,NaN,-1.903677,-1.468238,0.1333009,14.09922,NaN,NaN,-0.1123935,0.8139328,-3.842E-07,1.047185,-1.665429E-08,1.327504
882.0384,-0.01411061,0.0005904768,NaN,-0.8714817,0.0006138273,NaN,-1.561776,-14.6483,NaN,-1.903677,-1.468238,0.1333009,14.09922,NaN,NaN,-0.1123935,0.8139328,-3.842E-07,1.047185,-1.665429E-08,1.327504
882.0524,-0.01411053,0.0005911811,NaN,-0.8716482,0.0006135163,NaN,-1.561878,-14.64884,NaN,-1.904943,-1.480569,0.1350229,14.11234,NaN,NaN,-0.1122594,0.8138531,-3.738437E-07,1.065158,-1.665429E-08,1.333703
882.0677,-0.01411056,0.0005916328,NaN,-0.8717646,0.0006139422,NaN,-1.561868,-14.64793,NaN,-1.905889,-1.471919,0.1366484,14.10307,NaN,NaN,-0.112128,0.8145331,-3.697086E-07,1.052529,-1.665429E-08,1.326248
882.0827,-0.01411066,0.0005919745,NaN,-0.8718497,0.0006146275,NaN,-1.561797,-14.64847,NaN,-1.906671,-1.468297,0.1382663,14.09929,NaN,NaN,-0.1119991,0.813868,-3.643442E-07,1.047276,-1.665429E-08,1.326677
882.0976,-0.01411066,0.0005919745,NaN,-0.8718497,0.0006146275,NaN,-1.561797,-14.64847,NaN,-1.906671,-1.468297,0.1382663,14.09929,NaN,NaN,-0.1119991,0.813868,-3.643442E-07,1.047276,-1.665429E-08,1.326677
882.1119,-0.01411096,0.0005920824,NaN,-0.8718472,0.000614881,NaN,-1.562034,-14.64876,NaN,-1.906785,-1.469715,0.1383226,14.10083,NaN,NaN,-0.1120021,0.8136278,-3.55478E-07,1.049354,-1.42701E-08,1.328572
882.1273,-0.01411138,0.0005928909,NaN,-0.8717911,0.0006150617,NaN,-1.562147,-14.64825,NaN,-1.906573,-1.480051,0.1383176,14.11168,NaN,NaN,-0.112005,0.8145013,-3.528703E-07,1.064363,-1.665429E-08,1.330116
882.1422,-0.01411188,0.0005934965,NaN,-0.871702,0.0006161443,NaN,-1.56219,-14.64949,NaN,-1.906201,-1.471457,0.1383395,14.10271,NaN,NaN,-0.1120079,0.8130434,-3.490705E-07,1.051886,-1.42701E-08,1.333579
882.1572,-0.01411188,0.0005934965,NaN,-0.871702,0.0006161443,NaN,-1.56219,-14.64949,NaN,-1.906201,-1.471457,0.1383395,14.10271,NaN,NaN,-0.1120079,0.8130434,-3.490705E-07,1.051886,-1.42701E-08,1.333579
882.1711,-0.01411244,0.0005940869,NaN,-0.8715929,0.0006165259,NaN,-1.562202,-14.64979,NaN,-1.905753,-1.475109,0.1383749,14.1066,NaN,NaN,-0.1120107,0.8128596,-3.443766E-07,1.05721,-1.42701E-08,1.33574
882.1868,-0.01411316,0.0005948058,NaN,-0.8714027,0.0006181472,NaN,-1.562534,-14.64862,NaN,-1.90469,-1.468682,0.1368724,14.09966,NaN,NaN,-0.1121429,0.8138236,-3.365535E-07,1.047809,-1.188592E-08,1.327744
882.2018,-0.014114,0.0005959116,NaN,-0.8711633,0.0006192813,NaN,-1.562743,-14.64985,NaN,-1.903336,-1.476718,0.1353383,14.10832,NaN,NaN,-0.1122724,0.812888,-3.348772E-07,1.059568,-1.42701E-08,1.337722
882.2165,-0.014114,0.0005959116,NaN,-0.8711633,0.0006192813,NaN,-1.562743,-14.64985,NaN,-1.903336,-1.476718,0.1353383,14.10832,NaN,NaN,-0.1122724,0.812888,-3.348772E-07,1.059568,-1.42701E-08,1.337722
882.2328,-0.01411492,0.0005967754,NaN,-0.8708946,0.0006197268,NaN,-1.562878,-14.64989,NaN,-1.901848,-1.480764,0.1338607,14.11259,NaN,NaN,-0.1123994,0.8129655,-3.316734E-07,1.065451,-1.903847E-08,1.339311
882.2473,-0.01411588,0.0005977753,NaN,-0.8706089,0.0006196958,NaN,-1.56298,-14.64988,NaN,-1.900304,-1.481126,0.1324259,14.11296,NaN,NaN,-0.1125239,0.8129686,-3.279481E-07,1.065972,-1.188592E-08,1.338892
882.2615,-0.01411702,0.0005982115,NaN,-0.8702447,0.0006196555,NaN,-1.563392,-14.64884,NaN,-1.898164,-1.474537,0.1294794,14.10587,NaN,NaN,-0.1127754,0.81383,-3.204975E-07,1.056346,-1.42701E-08,1.330923
882.2761,-0.01411702,0.0005982115,NaN,-0.8702447,0.0006196555,NaN,-1.563392,-14.64884,NaN,-1.898164,-1.474537,0.1294794,14.10587,NaN,NaN,-0.1127754,0.81383,-3.204975E-07,1.056346,-1.42701E-08,1.330923
882.29,-0.01411828,0.0005985032,NaN,-0.8698338,0.0006197878,NaN,-1.563675,-14.6483,NaN,-1.895749,-1.471304,0.1265351,14.10238,NaN,NaN,-0.1130219,0.8142466,-3.192682E-07,1.051614,-1.42701E-08,1.327698
882.3055,-0.01411968,0.0005991228,NaN,-0.8693958,0.0006196313,NaN,-1.563881,-14.64962,NaN,-1.893217,-1.480758,0.1236753,14.11256,NaN,NaN,-0.1132636,0.8132464,-3.168095E-07,1.065444,-1.188592E-08,1.337088
882.3204,-0.01412126,0.0005995617,NaN,-0.868943,0.000620781,NaN,-1.56405,-14.64863,NaN,-1.890644,-1.469186,0.1208857,14.1002,NaN,NaN,-0.1135006,0.8139379,-3.137175E-07,1.048569,-4.733359E-09,1.32845
882.3367,-0.01412126,0.0005995617,NaN,-0.868943,0.000620781,NaN,-1.56405,-14.64863,NaN,-1.890644,-1.469186,0.1208857,14.1002,NaN,NaN,-0.1135006,0.8139379,-3.137175E-07,1.048569,-4.733359E-09,1.32845
882.3496,-0.0141232,0.0006000065,NaN,-0.8684139,0.0006218564,NaN,-1.564515,-14.64892,NaN,-1.887491,-1.467906,0.1166066,14.09888,NaN,NaN,-0.1138623,0.8135929,-3.078688E-07,1.04672,-2.349173E-09,1.329469
882.3653,-0.0141255,0.000600166,NaN,-0.86784,0.0006223391,NaN,-1.564846,-14.64888,NaN,-1.884079,-1.469291,0.1123642,14.10034,NaN,NaN,-0.1142169,0.8136749,-3.0731E-07,1.04873,-4.733359E-09,1.327075
882.38,-0.0141281,0.0006004111,NaN,-0.867241,0.0006232475,NaN,-1.565099,-14.64901,NaN,-1.880564,-1.467581,0.1082318,14.09854,NaN,NaN,-0.1145645,0.8134782,-3.044788E-07,1.046248,-2.349173E-09,1.327456
882.3951,-0.0141281,0.0006004111,NaN,-0.867241,0.0006232475,NaN,-1.565099,-14.64901,NaN,-1.880564,-1.467581,0.1082318,14.09854,NaN,NaN,-0.1145645,0.8134782,-3.044788E-07,1.046248,-2.349173E-09,1.327456
882.4092,-0.01413115,0.0006003666,NaN,-0.8665599,0.0006239144,NaN,-1.565615,-14.64893,NaN,-1.876446,-1.467871,0.1026395,14.09883,NaN,NaN,-0.1150348,0.8135596,-2.98034E-07,1.046662,-2.349173E-09,1.326798
882.4248,-0.01413463,0.0006015069,NaN,-0.8658312,0.0006246138,NaN,-1.565987,-14.64872,NaN,-1.872063,-1.479532,0.09712093,14.11112,NaN,NaN,-0.1154958,0.8142051,-2.954635E-07,1.063614,4.803384E-09,1.329787
882.4392,-0.01413463,0.0006015069,NaN,-0.8658312,0.0006246138,NaN,-1.565987,-14.64872,NaN,-1.872063,-1.479532,0.09712093,14.11112,NaN,NaN,-0.1154958,0.8142051,-2.954635E-07,1.063614,4.803384E-09,1.329787
882.4555,-0.01413845,0.0006022381,NaN,-0.8650764,0.0006263176,NaN,-1.566276,-14.64932,NaN,-1.867583,-1.467916,0.0917388,14.09888,NaN,NaN,-0.1159478,0.8132958,-2.92297E-07,1.04672,2.419198E-09,1.330005
882.47,-0.01414252,0.0006019862,NaN,-0.8643088,0.0006268421,NaN,-1.56652,-14.64884,NaN,-1.863086,-1.467421,0.08647676,14.09829,NaN,NaN,-0.116391,0.8137496,-2.882365E-07,1.045972,-4.733359E-09,1.326802
882.4838,-0.014147,0.0006020695,NaN,-0.8634674,0.0006260607,NaN,-1.567022,-14.64932,NaN,-1.858036,-1.479984,0.07976388,14.11164,NaN,NaN,-0.1169548,0.8137515,-2.813447E-07,1.064279,-2.349173E-09,1.332526
882.4986,-0.014147,0.0006020695,NaN,-0.8634674,0.0006260607,NaN,-1.567022,-14.64932,NaN,-1.858036,-1.479984,0.07976388,14.11164,NaN,NaN,-0.1169548,0.8137515,-2.813447E-07,1.064279,-2.349173E-09,1.332526
882.5127,-0.01415187,0.0006025637,NaN,-0.8625843,0.0006268346,NaN,-1.567386,-14.64868,NaN,-1.852754,-1.470814,0.07315593,14.10186,NaN,NaN,-0.1175076,0.8141268,-2.78439E-07,1.050906,-9.501731E-09,1.326013
882.5282,-0.01415704,0.0006031943,NaN,-0.8616794,0.0006273203,NaN,-1.56767,-14.65022,NaN,-1.847395,-1.477381,0.06670383,14.10901,NaN,NaN,-0.1180496,0.8128122,-2.746206E-07,1.060543,-7.117545E-09,1.338163
882.543,-0.01416244,0.0006036097,NaN,-0.860765,0.0006282915,NaN,-1.567911,-14.64879,NaN,-1.842038,-1.46874,0.06039193,14.0997,NaN,NaN,-0.118581,0.8139839,-2.697032E-07,1.047918,-4.733359E-09,1.327863
882.5579,-0.01416244,0.0006036097,NaN,-0.860765,0.0006282915,NaN,-1.567911,-14.64879,NaN,-1.842038,-1.46874,0.06039193,14.0997,NaN,NaN,-0.118581,0.8139839,-2.697032E-07,1.047918,-4.733359E-09,1.327863
882.5719,-0.01416823,0.0006039756,NaN,-0.8597797,0.0006293917,NaN,-1.568383,-14.64942,NaN,-1.836144,-1.468536,0.0526445,14.09957,NaN,NaN,-0.1192314,0.8133357,-2.62383E-07,1.047655,-7.117545E-09,1.331066
882.5875,-0.01417439,0.000604249,NaN,-0.8587548,0.0006297791,NaN,-1.568721,-14.64968,NaN,-1.830031,-1.472025,0.04503491,14.10329,NaN,NaN,-0.119869,0.8131999,-2.586577E-07,1.052743,-7.117545E-09,1.33311
882.6022,-0.01418084,0.0006044885,NaN,-0.8577102,0.000630415,NaN,-1.568982,-14.64922,NaN,-1.823856,-1.468484,0.0375996,14.09948,NaN,NaN,-0.1204941,0.8135395,-2.521431E-07,1.047569,-7.117545E-09,1.329748
882.617,-0.01418084,0.0006044885,NaN,-0.8577102,0.000630415,NaN,-1.568982,-14.64922,NaN,-1.823856,-1.468484,0.0375996,14.09948,NaN,NaN,-0.1204941,0.8135395,-2.521431E-07,1.047569,-7.117545E-09,1.329748
882.6311,-0.01418773,0.0006046166,NaN,-0.8565888,0.0006309932,NaN,-1.569437,-14.64945,NaN,-1.817118,-1.467993,0.02875409,14.09899,NaN,NaN,-0.1212364,0.8132818,-2.409558E-07,1.046866,-2.349174E-09,1.330439
882.6467,-0.01419503,0.0006046148,NaN,-0.855425,0.0006315447,NaN,-1.569755,-14.64956,NaN,-1.810156,-1.46732,0.02007992,14.09829,NaN,NaN,-0.1219641,0.8131431,-2.330209E-07,1.045893,-2.349174E-09,1.330583
882.6615,-0.01420265,0.0006049524,NaN,-0.8542402,0.0006313598,NaN,-1.569996,-14.64978,NaN,-1.803133,-1.479808,0.01160111,14.11151,NaN,NaN,-0.1226776,0.8134014,-2.243782E-07,1.064063,2.419198E-09,1.336222
882.6761,-0.01420265,0.0006049524,NaN,-0.8542402,0.0006313598,NaN,-1.569996,-14.64978,NaN,-1.803133,-1.479808,0.01160111,14.11151,NaN,NaN,-0.1226776,0.8134014,-2.243782E-07,1.064063,2.419198E-09,1.336222
882.6923,-0.01421051,0.0006055429,NaN,-0.8530478,0.0006321208,NaN,-1.570191,-14.6493,NaN,-1.796131,-1.473575,0.003302368,14.10486,NaN,NaN,-0.1233771,0.8136973,-2.142082E-07,1.054974,2.419198E-09,1.331124
882.7057,-0.01421876,0.0006051125,NaN,-0.8517867,0.0006320066,NaN,-1.570562,-14.64968,NaN,-1.788614,-1.468604,-0.006395296,14.09964,NaN,NaN,-0.1241923,0.8131487,-1.999217E-07,1.047755,2.419198E-09,1.332829
882.7203,-0.01422738,0.0006051572,NaN,-0.8504888,0.0006325257,NaN,-1.570679,-14.64952,NaN,-1.780903,-1.470568,-0.01596524,14.10169,NaN,NaN,-0.1249916,0.8133801,-1.952651E-07,1.0506,2.419198E-09,1.332428
882.7352,-0.01422738,0.0006051572,NaN,-0.8504888,0.0006325257,NaN,-1.570679,-14.64952,NaN,-1.780903,-1.470568,-0.01596524,14.10169,NaN,NaN,-0.1249916,0.8133801,-1.952651E-07,1.0506,2.419198E-09,1.332428
882.7493,-0.01423628,0.0006055861,NaN,-0.8491741,0.0006324497,NaN,-1.570627,-14.65094,NaN,-1.773152,-1.476949,-0.02532828,14.10862,NaN,NaN,-0.1257752,0.8121761,-1.902732E-07,1.059956,4.803383E-09,1.340652
882.7648,-0.01424539,0.0006057447,NaN,-0.8478548,0.0006324627,NaN,-1.570512,-14.6502,NaN,-1.765436,-1.471028,-0.03446708,14.10229,NaN,NaN,-0.1265434,0.8127342,-1.831952E-07,1.051324,2.419198E-09,1.334693
882.7798,-0.01424539,0.0006057447,NaN,-0.8478548,0.0006324627,NaN,-1.570512,-14.6502,NaN,-1.765436,-1.471028,-0.03446708,14.10229,NaN,NaN,-0.1265434,0.8127342,-1.831952E-07,1.051324,2.419198E-09,1.334693
882.7952,-0.01425422,0.0006061342,NaN,-0.846539,0.000631945,NaN,-1.570408,-14.65025,NaN,-1.757794,-1.481202,-0.04339056,14.11303,NaN,NaN,-0.1272957,0.8130311,-1.725408E-07,1.066116,2.419198E-09,1.337595
882.8096,-0.01426291,0.0006063556,NaN,-0.8452313,0.000632108,NaN,-1.570343,-14.64958,NaN,-1.750243,-1.472612,-0.05211743,14.10387,NaN,NaN,-0.1280332,0.8134687,-1.591298E-07,1.053597,3.501199E-11,1.331762
882.8243,-0.0142715,0.0006060796,NaN,-0.8439344,0.0006321912,NaN,-1.570314,-14.64959,NaN,-1.74279,-1.468599,-0.06066345,14.09962,NaN,NaN,-0.1287562,0.8133106,-1.447502E-07,1.047757,-4.733359E-09,1.331264
882.8392,-0.0142715,0.0006060796,NaN,-0.8439344,0.0006321912,NaN,-1.570314,-14.64959,NaN,-1.74279,-1.468599,-0.06066345,14.09962,NaN,NaN,-0.1287562,0.8133106,-1.447502E-07,1.047757,-4.733359E-09,1.331264
882.8533,-0.01427984,0.0006061657,NaN,-0.8427192,0.0006329307,NaN,-1.570157,-14.64976,NaN,-1.736012,-1.468058,-0.06747625,14.09907,NaN,NaN,-0.1293358,0.8131175,-1.369271E-07,1.046977,-4.733359E-09,1.331393
882.8687,-0.0142879,0.0006059778,NaN,-0.8415599,0.0006330894,NaN,-1.570109,-14.65002,NaN,-1.729612,-1.469395,-0.0741469,14.10051,NaN,NaN,-0.129904,0.812903,-1.254532E-07,1.048936,3.501199E-11,1.332936
882.8835,-0.01429573,0.0006055302,NaN,-0.8404404,0.00063209,NaN,-1.570094,-14.65022,NaN,-1.723445,-1.477109,-0.08069653,14.10869,NaN,NaN,-0.130461,0.8129731,-1.140538E-07,1.060161,-4.733359E-09,1.336469
882.8983,-0.01429573,0.0006055302,NaN,-0.8404404,0.00063209,NaN,-1.570094,-14.65022,NaN,-1.723445,-1.477109,-0.08069653,14.10869,NaN,NaN,-0.130461,0.8129731,-1.140538E-07,1.060161,-4.733359E-09,1.336469
882.9127,-0.01430337,0.0006055363,NaN,-0.8393503,0.0006310171,NaN,-1.570087,-14.64979,NaN,-1.71744,-1.482,-0.08711953,14.1138,NaN,NaN,-0.1310071,0.8135351,-1.028034E-07,1.067257,-4.733359E-09,1.335474
882.9292,-0.01431065,0.000605438,NaN,-0.8383527,0.0006306272,NaN,-1.569961,-14.64902,NaN,-1.71213,-1.472903,-0.09185944,14.10408,NaN,NaN,-0.1314133,0.8140621,-9.773701E-08,1.05399,-2.349174E-09,1.328317
882.9429,-0.01431759,0.000604814,NaN,-0.8374165,0.0006297337,NaN,-1.569889,-14.64963,NaN,-1.7072,-1.47128,-0.09651194,14.10244,NaN,NaN,-0.1318115,0.8133885,-9.1255E-08,1.051655,-4.733359E-09,1.332207
882.9575,-0.01431759,0.000604814,NaN,-0.8374165,0.0006297337,NaN,-1.569889,-14.64963,NaN,-1.7072,-1.47128,-0.09651194,14.10244,NaN,NaN,-0.1318115,0.8133885,-9.1255E-08,1.051655,-4.733359E-09,1.332207
882.9716,-0.01432422,0.0006046629,NaN,-0.8365224,0.0006289823,NaN,-1.569839,-14.65057,NaN,-1.702493,-1.478383,-0.1010779,14.11007,NaN,NaN,-0.1322018,0.8126941,-8.387893E-08,1.062031,-4.733359E-09,1.335906
882.9869,-0.01433062,0.0006045841,NaN,-0.8356584,0.0006291762,NaN,-1.569795,-14.64947,NaN,-1.697933,-1.469395,-0.1055551,14.10044,NaN,NaN,-0.1325845,0.8135381,-7.627933E-08,1.048919,-9.501731E-09,1.329824
883.0021,-0.01433663,0.0006048211,NaN,-0.834886,0.0006297918,NaN,-1.569654,-14.65006,NaN,-1.694051,-1.471805,-0.1083937,14.10306,NaN,NaN,-0.1328305,0.8130265,-7.739692E-08,1.052454,-7.117545E-09,1.333425
883.0166,-0.01433663,0.0006048211,NaN,-0.834886,0.0006297918,NaN,-1.569654,-14.65006,NaN,-1.694051,-1.471805,-0.1083937,14.10306,NaN,NaN,-0.1328305,0.8130265,-7.739692E-08,1.052454,-7.117545E-09,1.333425
883.0309,-0.01434228,0.0006052941,NaN,-0.8341737,0.0006293344,NaN,-1.56956,-14.65014,NaN,-1.690529,-1.480344,-0.1111817,14.11209,NaN,NaN,-0.1330716,0.8132345,-7.501274E-08,1.064874,-9.501731E-09,1.334013
883.0466,-0.0143476,0.0006057347,NaN,-0.8335016,0.0006303063,NaN,-1.569486,-14.64927,NaN,-1.687211,-1.469924,-0.1139187,14.10096,NaN,NaN,-0.133308,0.8138254,-7.165998E-08,1.049679,-9.501731E-09,1.329824
883.0613,-0.01435268,0.0006057306,NaN,-0.8328573,0.000630963,NaN,-1.569419,-14.64917,NaN,-1.684019,-1.468029,-0.1166029,14.09894,NaN,NaN,-0.1335398,0.813849,-6.823271E-08,1.046914,-2.349174E-09,1.326758
883.0763,-0.01435268,0.0006057306,NaN,-0.8328573,0.000630963,NaN,-1.569419,-14.64917,NaN,-1.684019,-1.468029,-0.1166029,14.09894,NaN,NaN,-0.1335398,0.813849,-6.823271E-08,1.046914,-2.349174E-09,1.326758
883.0901,-0.01435737,0.0006057277,NaN,-0.8323025,0.0006315935,NaN,-1.569271,-14.64937,NaN,-1.681487,-1.467574,-0.1176887,14.09848,NaN,NaN,-0.1336377,0.8136243,-7.225602E-08,1.046261,3.501199E-11,1.32752
883.1057,-0.01436169,0.0006054017,NaN,-0.8318052,0.0006319871,NaN,-1.569163,-14.64925,NaN,-1.679294,-1.467093,-0.1187574,14.09795,NaN,NaN,-0.1337337,0.8137182,-7.374614E-08,1.045552,-7.117545E-09,1.326608
883.1205,-0.01436568,0.0006053619,NaN,-0.8313457,0.0006317702,NaN,-1.569073,-14.6506,NaN,-1.677287,-1.4744,-0.119808,14.10587,NaN,NaN,-0.1338279,0.8126594,-7.44912E-08,1.056259,-2.349174E-09,1.336086
883.1353,-0.01436568,0.0006053619,NaN,-0.8313457,0.0006317702,NaN,-1.569073,-14.6506,NaN,-1.677287,-1.4744,-0.119808,14.10587,NaN,NaN,-0.1338279,0.8126594,-7.44912E-08,1.056259,-2.349174E-09,1.336086
883.1515,-0.01436924,0.0006052704,NaN,-0.830981,0.0006319454,NaN,-1.568914,-14.6496,NaN,-1.675959,-1.468352,-0.1192953,14.09935,NaN,NaN,-0.1337909,0.8134559,-8.305936E-08,1.047421,3.501199E-11,1.328909
883.166,-0.01437236,0.0006055271,NaN,-0.8306763,0.0006316152,NaN,-1.568793,-14.65024,NaN,-1.674973,-1.47978,-0.1187964,14.11151,NaN,NaN,-0.1337547,0.8132495,-8.879631E-08,1.064078,-7.117545E-09,1.336974
883.1797,-0.01437236,0.0006055271,NaN,-0.8306763,0.0006316152,NaN,-1.568793,-14.65024,NaN,-1.674973,-1.47978,-0.1187964,14.11151,NaN,NaN,-0.1337547,0.8132495,-8.879631E-08,1.064078,-7.117545E-09,1.336974
883.1939,-0.01437514,0.0006057782,NaN,-0.83041,0.0006326925,NaN,-1.568689,-14.64942,NaN,-1.674164,-1.467867,-0.1183097,14.09882,NaN,NaN,-0.1337191,0.8137536,-9.289413E-08,1.046714,-1.188592E-08,1.328092
883.2092,-0.01437765,0.0006064007,NaN,-0.8301687,0.0006330683,NaN,-1.568593,-14.65039,NaN,-1.67345,-1.479216,-0.1178334,14.11095,NaN,NaN,-0.1336843,0.8132139,-9.609789E-08,1.063278,-1.188592E-08,1.338216
883.2241,-0.01437975,0.0006072755,NaN,-0.830013,0.0006332257,NaN,-1.568427,-14.65006,NaN,-1.673362,-1.482374,-0.1158238,14.11424,NaN,NaN,-0.1335209,0.8136176,-1.069757E-07,1.067858,-1.42701E-08,1.336787
883.2388,-0.01437975,0.0006072755,NaN,-0.830013,0.0006332257,NaN,-1.568427,-14.65006,NaN,-1.673362,-1.482374,-0.1158238,14.11424,NaN,NaN,-0.1335209,0.8136176,-1.069757E-07,1.067858,-1.42701E-08,1.336787
883.2544,-0.01438147,0.0006081489,NaN,-0.8299111,0.0006343361,NaN,-1.568295,-14.64853,NaN,-1.673579,-1.474415,-0.1138561,14.10564,NaN,NaN,-0.1333607,0.8149534,-1.150224E-07,1.056216,-1.42701E-08,1.326761
883.2686,-0.01438287,0.0006083779,NaN,-0.8298426,0.0006349121,NaN,-1.568177,-14.64913,NaN,-1.673946,-1.468568,-0.111929,14.0995,NaN,NaN,-0.1332036,0.8141607,-1.221749E-07,1.047718,-1.42701E-08,1.327139
883.2836,-0.01438403,0.0006089425,NaN,-0.8297952,0.0006348443,NaN,-1.568067,-14.64953,NaN,-1.674386,-1.480535,-0.1100401,14.11222,NaN,NaN,-0.1330496,0.8142003,-1.282844E-07,1.065157,-1.665429E-08,1.333772
883.2996,-0.01438403,0.0006089425,NaN,-0.8297952,0.0006348443,NaN,-1.568067,-14.64953,NaN,-1.674386,-1.480535,-0.1100401,14.11222,NaN,NaN,-0.1330496,0.8142003,-1.282844E-07,1.065157,-1.665429E-08,1.333772
883.3126,-0.01438492,0.0006092324,NaN,-0.8298286,0.0006352951,NaN,-1.567885,-14.6489,NaN,-1.675434,-1.470275,-0.1066444,14.10127,NaN,NaN,-0.1327693,0.8145565,-1.416209E-07,1.050187,-1.42701E-08,1.327314
883.3281,-0.01438562,0.000609867,NaN,-0.8299118,0.0006356884,NaN,-1.567734,-14.65022,NaN,-1.676769,-1.477852,-0.1033173,14.10947,NaN,NaN,-0.1324945,0.8135086,-1.518282E-07,1.061287,-1.665429E-08,1.336615
883.343,-0.01438623,0.0006104902,NaN,-0.8300254,0.0006354371,NaN,-1.567598,-14.64879,NaN,-1.678237,-1.482165,-0.1000568,14.11385,NaN,NaN,-0.1322251,0.815049,-1.602474E-07,1.067502,-1.42701E-08,1.329891
883.3578,-0.01438623,0.0006104902,NaN,-0.8300254,0.0006354371,NaN,-1.567598,-14.64879,NaN,-1.678237,-1.482165,-0.1000568,14.11385,NaN,NaN,-0.1322251,0.815049,-1.602474E-07,1.067502,-1.42701E-08,1.329891
883.3719,-0.01438667,0.0006112379,NaN,-0.8302264,0.0006359981,NaN,-1.567388,-14.64837,NaN,-1.680334,-1.475354,-0.09531447,14.10656,NaN,NaN,-0.1318318,0.8153003,-1.736584E-07,1.057553,-9.50173E-09,1.326091
883.3884,-0.01438697,0.000612016,NaN,-0.8304806,0.0006375321,NaN,-1.56721,-14.64882,NaN,-1.682722,-1.469948,-0.09066688,14.10087,NaN,NaN,-0.1314461,0.8146745,-1.852068E-07,1.049688,-9.50173E-09,1.330031
883.4023,-0.01438719,0.0006126563,NaN,-0.8307664,0.000638541,NaN,-1.567046,-14.64942,NaN,-1.685237,-1.470179,-0.08611156,14.10119,NaN,NaN,-0.1310679,0.8140872,-1.948181E-07,1.05005,-7.117544E-09,1.33018
883.417,-0.01438719,0.0006126563,NaN,-0.8307664,0.000638541,NaN,-1.567046,-14.64942,NaN,-1.685237,-1.470179,-0.08611156,14.10119,NaN,NaN,-0.1310679,0.8140872,-1.948181E-07,1.05005,-7.117544E-09,1.33018
883.4312,-0.01438736,0.0006131774,NaN,-0.8310704,0.0006396148,NaN,-1.566888,-14.64948,NaN,-1.687798,-1.470551,-0.08164534,14.10158,NaN,NaN,-0.1306972,0.8140408,-2.034607E-07,1.050589,-4.733359E-09,1.330521
883.4468,-0.01438736,0.0006145331,NaN,-0.8314537,0.0006403892,NaN,-1.566643,-14.64911,NaN,-1.690937,-1.481396,-0.07571565,14.113,NaN,NaN,-0.1302045,0.8147898,-2.187344E-07,1.066353,-2.349173E-09,1.331747
883.4616,-0.01438724,0.0006154694,NaN,-0.8318841,0.0006410122,NaN,-1.566432,-14.65015,NaN,-1.694334,-1.479138,-0.0699038,14.11072,NaN,NaN,-0.1297214,0.8136911,-2.299475E-07,1.063097,3.501288E-11,1.33458
883.4767,-0.01438724,0.0006154694,NaN,-0.8318841,0.0006410122,NaN,-1.566432,-14.65015,NaN,-1.694334,-1.479138,-0.0699038,14.11072,NaN,NaN,-0.1297214,0.8136911,-2.299475E-07,1.063097,3.501288E-11,1.33458
883.4905,-0.01438704,0.0006156543,NaN,-0.8323417,0.0006415031,NaN,-1.566233,-14.64864,NaN,-1.697834,-1.469537,-0.06420702,14.10037,NaN,NaN,-0.1292478,0.8149391,-2.388137E-07,1.049061,2.419199E-09,1.323044
883.506,-0.01438679,0.0006167109,NaN,-0.832814,0.0006419301,NaN,-1.566041,-14.64914,NaN,-1.701361,-1.482219,-0.05862142,14.11388,NaN,NaN,-0.1287834,0.8149053,-2.464133E-07,1.06756,7.18757E-09,1.329121
883.5209,-0.01438638,0.0006169625,NaN,-0.8333625,0.0006422449,NaN,-1.565746,-14.64788,NaN,-1.705449,-1.470687,-0.05158837,14.10149,NaN,NaN,-0.1281989,0.815896,-2.597126E-07,1.050706,4.803384E-09,1.318994
883.5358,-0.01438638,0.0006169625,NaN,-0.8333625,0.0006422449,NaN,-1.565746,-14.64788,NaN,-1.705449,-1.470687,-0.05158837,14.10149,NaN,NaN,-0.1281989,0.815896,-2.597126E-07,1.050706,4.803384E-09,1.318994
883.5497,-0.01438585,0.000616547,NaN,-0.8339556,0.0006421332,NaN,-1.565489,-14.64742,NaN,-1.70978,-1.46844,-0.04469482,14.09904,NaN,NaN,-0.1276258,0.816276,-2.695474E-07,1.047401,2.419199E-09,1.316844
883.5653,-0.01438524,0.0006166527,NaN,-0.8345736,0.0006432591,NaN,-1.565246,-14.64773,NaN,-1.7142,-1.467402,-0.03793792,14.09797,NaN,NaN,-0.1270639,0.8159428,-2.775195E-07,1.045899,4.803384E-09,1.319058
883.5802,-0.01438457,0.0006167261,NaN,-0.8352042,0.0006443684,NaN,-1.56501,-14.64807,NaN,-1.718634,-1.466898,-0.03131281,14.09747,NaN,NaN,-0.126513,0.8155895,-2.842995E-07,1.045179,7.18757E-09,1.320188
883.595,-0.01438457,0.0006167261,NaN,-0.8352042,0.0006443684,NaN,-1.56501,-14.64807,NaN,-1.718634,-1.466898,-0.03131281,14.09747,NaN,NaN,-0.126513,0.8155895,-2.842995E-07,1.045179,7.18757E-09,1.320188
883.611,-0.01438375,0.0006164493,NaN,-0.835909,0.0006449172,NaN,-1.564652,-14.64806,NaN,-1.723616,-1.466495,-0.02325398,14.09704,NaN,NaN,-0.1258437,0.8155799,-2.951401E-07,1.044588,2.419199E-09,1.317895
883.6254,-0.0143828,0.000616894,NaN,-0.8366565,0.0006451404,NaN,-1.564338,-14.6492,NaN,-1.728827,-1.478721,-0.01535455,14.11017,NaN,NaN,-0.1251875,0.8149444,-3.018363E-07,1.062474,-7.117544E-09,1.329353
883.639,-0.0143828,0.000616894,NaN,-0.8366565,0.0006451404,NaN,-1.564338,-14.6492,NaN,-1.728827,-1.478721,-0.01535455,14.11017,NaN,NaN,-0.1251875,0.8149444,-3.018363E-07,1.062474,-7.117544E-09,1.329353
883.6531,-0.01438178,0.0006170589,NaN,-0.8374268,0.0006458445,NaN,-1.564041,-14.64812,NaN,-1.734114,-1.467474,-0.007612268,14.09811,NaN,NaN,-0.1245441,0.8157114,-3.076571E-07,1.046039,-9.50173E-09,1.3192
883.6686,-0.01438058,0.0006177736,NaN,-0.8382773,0.0006461783,NaN,-1.563609,-14.64921,NaN,-1.739977,-1.479584,0.00154599,14.11111,NaN,NaN,-0.1237841,0.8150923,-3.14507E-07,1.063753,-1.42701E-08,1.329408
883.6834,-0.01437916,0.0006184216,NaN,-0.8391733,0.0006458691,NaN,-1.563227,-14.64842,NaN,-1.746075,-1.482884,0.01052381,14.11451,NaN,NaN,-0.1230389,0.8159649,-3.196735E-07,1.068531,-1.42701E-08,1.325569
883.6981,-0.01437916,0.0006184216,NaN,-0.8391733,0.0006458691,NaN,-1.563227,-14.64842,NaN,-1.746075,-1.482884,0.01052381,14.11451,NaN,NaN,-0.1230389,0.8159649,-3.196735E-07,1.068531,-1.42701E-08,1.325569
883.7124,-0.01437749,0.0006192491,NaN,-0.8400933,0.0006463501,NaN,-1.562864,-14.64766,NaN,-1.752247,-1.477675,0.01932248,14.10888,NaN,NaN,-0.1223084,0.8165963,-3.219599E-07,1.0609,-1.665429E-08,1.319947
883.7292,-0.0143756,0.0006199452,NaN,-0.8410242,0.0006471424,NaN,-1.562509,-14.64893,NaN,-1.758413,-1.471722,0.02794917,14.10269,NaN,NaN,-0.1215922,0.8151535,-3.222113E-07,1.052258,-1.188592E-08,1.324448
883.743,-0.01437541,0.0006204791,NaN,-0.841126,0.000648336,NaN,-1.564183,-14.64878,NaN,-1.757641,-1.46919,0.01752689,14.09998,NaN,NaN,-0.1224415,0.8152138,-2.949236E-07,1.048557,-7.117544E-09,1.324258
883.7574,-0.01437541,0.0006204791,NaN,-0.841126,0.000648336,NaN,-1.564183,-14.64878,NaN,-1.757641,-1.46919,0.01752689,14.09998,NaN,NaN,-0.1224415,0.8152138,-2.949236E-07,1.048557,-7.117544E-09,1.324258
883.7716,-0.01437648,0.0006201453,NaN,-0.8407175,0.0006487074,NaN,-1.565048,-14.6477,NaN,-1.753509,-1.46741,0.007373987,14.09793,NaN,NaN,-0.1232743,0.816218,-2.80842E-07,1.045903,-2.349172E-09,1.314957
883.7872,-0.0143787,0.0006199011,NaN,-0.8399957,0.0006492512,NaN,-1.565527,-14.6478,NaN,-1.747745,-1.467027,-0.002448604,14.09753,NaN,NaN,-0.1240907,0.8160976,-2.664251E-07,1.045347,-4.733358E-09,1.315459
883.8021,-0.01438216,0.0006195453,NaN,-0.839084,0.0006497274,NaN,-1.565826,-14.64784,NaN,-1.741208,-1.466691,-0.01201709,14.09718,NaN,NaN,-0.124891,0.8160484,-2.511514E-07,1.044857,-2.349172E-09,1.315419
883.8169,-0.01438216,0.0006195453,NaN,-0.839084,0.0006497274,NaN,-1.565826,-14.64784,NaN,-1.741208,-1.466691,-0.01201709,14.09718,NaN,NaN,-0.124891,0.8160484,-2.511514E-07,1.044857,-2.349172E-09,1.315419
883.8311,-0.01438652,0.000620225,NaN,-0.8381283,0.0006499353,NaN,-1.565884,-14.64812,NaN,-1.734903,-1.480277,-0.01980002,14.11165,NaN,NaN,-0.1255464,0.8163047,-2.409441E-07,1.064688,-4.733358E-09,1.322475
883.8475,-0.01439147,0.0006200268,NaN,-0.8371497,0.0006498929,NaN,-1.565967,-14.64838,NaN,-1.728745,-1.469465,-0.02742494,14.10017,NaN,NaN,-0.1261888,0.8157646,-2.30178E-07,1.048916,-4.733358E-09,1.320903
883.8623,-0.01439683,0.0006192385,NaN,-0.8361614,0.0006493873,NaN,-1.566053,-14.64837,NaN,-1.7227,-1.469465,-0.03490132,14.10017,NaN,NaN,-0.1268187,0.8157716,-2.190767E-07,1.048916,-9.501729E-09,1.32048
883.8765,-0.01439683,0.0006192385,NaN,-0.8361614,0.0006493873,NaN,-1.566053,-14.64837,NaN,-1.7227,-1.469465,-0.03490132,14.10017,NaN,NaN,-0.1268187,0.8157716,-2.190767E-07,1.048916,-9.501729E-09,1.32048
883.89,-0.01440229,0.000617883,NaN,-0.8352408,0.0006484821,NaN,-1.566006,-14.64856,NaN,-1.717325,-1.46804,-0.04066666,14.09868,NaN,NaN,-0.1273069,0.8155296,-2.131907E-07,1.046849,-1.42701E-08,1.321585
883.9055,-0.01440771,0.0006169733,NaN,-0.8343662,0.0006477698,NaN,-1.566014,-14.64886,NaN,-1.712315,-1.470303,-0.04632637,14.10113,NaN,NaN,-0.1277855,0.8153051,-2.059637E-07,1.050165,-1.188591E-08,1.321617
883.9202,-0.01441305,0.0006167294,NaN,-0.8335238,0.0006482819,NaN,-1.566043,-14.64939,NaN,-1.70752,-1.46941,-0.05188065,14.10025,NaN,NaN,-0.1282548,0.8147453,-1.986994E-07,1.048891,-1.665429E-08,1.324703
883.9353,-0.01441305,0.0006167294,NaN,-0.8335238,0.0006482819,NaN,-1.566043,-14.64939,NaN,-1.70752,-1.46941,-0.05188065,14.10025,NaN,NaN,-0.1282548,0.8147453,-1.986994E-07,1.048891,-1.665429E-08,1.324703
883.9493,-0.01441829,0.0006159628,NaN,-0.8327051,0.0006481284,NaN,-1.566076,-14.64859,NaN,-1.702868,-1.467618,-0.05732698,14.09823,NaN,NaN,-0.1287148,0.8154719,-1.907272E-07,1.046237,-1.188592E-08,1.320496
883.9649,-0.01442328,0.0006154693,NaN,-0.8319739,0.0006484586,NaN,-1.566001,-14.64869,NaN,-1.698893,-1.467119,-0.06110928,14.09772,NaN,NaN,-0.1290365,0.815343,-1.882685E-07,1.045516,-1.42701E-08,1.319592
883.9798,-0.01442328,0.0006154693,NaN,-0.8319739,0.0006484586,NaN,-1.566001,-14.64869,NaN,-1.698893,-1.467119,-0.06110928,14.09772,NaN,NaN,-0.1290365,0.815343,-1.882685E-07,1.045516,-1.42701E-08,1.319592
883.994,-0.01442797,0.0006148106,NaN,-0.8313001,0.0006486694,NaN,-1.565975,-14.64867,NaN,-1.695277,-1.466676,-0.06482457,14.09724,NaN,NaN,-0.1293519,0.8153414,-1.846178E-07,1.044868,-9.50173E-09,1.318923
884.0094,-0.0144324,0.0006147232,NaN,-0.8306646,0.0006488022,NaN,-1.565969,-14.65014,NaN,-1.691867,-1.475192,-0.06847169,14.10649,NaN,NaN,-0.1296611,0.8142162,-1.797749E-07,1.057365,-9.50173E-09,1.330405
884.0244,-0.01443662,0.0006154787,NaN,-0.8300557,0.0006499051,NaN,-1.565969,-14.65026,NaN,-1.688583,-1.474348,-0.07204855,14.1056,NaN,NaN,-0.1299643,0.8140668,-1.74932E-07,1.05614,-2.349173E-09,1.331793
884.039,-0.01443662,0.0006154787,NaN,-0.8300557,0.0006499051,NaN,-1.565969,-14.65026,NaN,-1.688583,-1.474348,-0.07204855,14.1056,NaN,NaN,-0.1299643,0.8140668,-1.74932E-07,1.05614,-2.349173E-09,1.331793
884.0533,-0.0144405,0.000616529,NaN,-0.8295352,0.0006507793,NaN,-1.565878,-14.65025,NaN,-1.68596,-1.478357,-0.07400358,14.10984,NaN,NaN,-0.1301322,0.8141997,-1.764966E-07,1.061975,-2.349173E-09,1.332235
884.0688,-0.01444404,0.0006174055,NaN,-0.8290716,0.000651535,NaN,-1.565831,-14.65046,NaN,-1.683678,-1.477659,-0.07592656,14.10912,NaN,NaN,-0.1302968,0.8139645,-1.759751E-07,1.060966,-2.349173E-09,1.333184
884.0847,-0.01444728,0.0006177506,NaN,-0.8286451,0.0006523641,NaN,-1.565802,-14.64852,NaN,-1.681583,-1.468898,-0.07781577,14.0996,NaN,NaN,-0.1304581,0.8156435,-1.744105E-07,1.048131,-7.117544E-09,1.319284
884.0984,-0.01444728,0.0006177506,NaN,-0.8286451,0.0006523641,NaN,-1.565802,-14.64852,NaN,-1.681583,-1.468898,-0.07781577,14.0996,NaN,NaN,-0.1304581,0.8156435,-1.744105E-07,1.048131,-7.117544E-09,1.319284
884.1127,-0.01445011,0.0006176224,NaN,-0.8283128,0.0006527763,NaN,-1.565695,-14.64868,NaN,-1.68017,-1.467562,-0.07811996,14.0982,NaN,NaN,-0.130487,0.8154341,-1.799239E-07,1.04619,-7.117544E-09,1.319639
884.1282,-0.01445254,0.0006178683,NaN,-0.8280401,0.0006521048,NaN,-1.565629,-14.64984,NaN,-1.679099,-1.4795,-0.07842413,14.11104,NaN,NaN,-0.1305154,0.8147429,-1.829041E-07,1.063657,-7.117544E-09,1.330623
884.143,-0.01445464,0.0006178051,NaN,-0.8278054,0.0006520391,NaN,-1.565581,-14.64845,NaN,-1.678208,-1.469965,-0.07872599,14.10076,NaN,NaN,-0.1305431,0.815872,-1.844687E-07,1.04971,2.419199E-09,1.320071
884.1578,-0.01445464,0.0006178051,NaN,-0.8278054,0.0006520391,NaN,-1.565581,-14.64845,NaN,-1.678208,-1.469965,-0.07872599,14.10076,NaN,NaN,-0.1305431,0.815872,-1.844687E-07,1.04971,2.419199E-09,1.320071
884.1719,-0.01445648,0.0006183286,NaN,-0.8275952,0.0006516176,NaN,-1.565541,-14.64911,NaN,-1.677412,-1.481588,-0.07902333,14.11319,NaN,NaN,-0.1305704,0.8156414,-1.858844E-07,1.066696,-2.349173E-09,1.327178
884.1888,-0.01445795,0.000618835,NaN,-0.8274704,0.0006523179,NaN,-1.565423,-14.64956,NaN,-1.677244,-1.472499,-0.07776712,14.10358,NaN,NaN,-0.1304678,0.81497,-1.930369E-07,1.053452,3.501288E-11,1.326627
884.2024,-0.01445905,0.0006195385,NaN,-0.8273988,0.0006536851,NaN,-1.565341,-14.64924,NaN,-1.677383,-1.470351,-0.07654027,14.10125,NaN,NaN,-0.1303672,0.8152106,-1.984013E-07,1.050303,2.419199E-09,1.323999
884.2171,-0.01445905,0.0006195385,NaN,-0.8273988,0.0006536851,NaN,-1.565341,-14.64924,NaN,-1.677383,-1.470351,-0.07654027,14.10125,NaN,NaN,-0.1303672,0.8152106,-1.984013E-07,1.050303,2.419199E-09,1.323999
884.2313,-0.01445997,0.0006195712,NaN,-0.8273605,0.0006539464,NaN,-1.565275,-14.64908,NaN,-1.677674,-1.470202,-0.07534043,14.10107,NaN,NaN,-0.1302685,0.8153617,-2.022011E-07,1.050076,7.18757E-09,1.323494
884.2468,-0.01446078,0.0006198519,NaN,-0.8273427,0.0006533511,NaN,-1.565216,-14.64993,NaN,-1.678039,-1.478712,-0.07416522,14.11021,NaN,NaN,-0.1301719,0.8148224,-2.054049E-07,1.062524,7.18757E-09,1.3312
884.2619,-0.01446142,0.0006198621,NaN,-0.8274055,0.0006533019,NaN,-1.565079,-14.64848,NaN,-1.679013,-1.469912,-0.07146451,14.1007,NaN,NaN,-0.1299477,0.8160184,-2.147926E-07,1.049643,4.803384E-09,1.321387
884.2767,-0.01446142,0.0006198621,NaN,-0.8274055,0.0006533019,NaN,-1.565079,-14.64848,NaN,-1.679013,-1.469912,-0.07146451,14.1007,NaN,NaN,-0.1299477,0.8160184,-2.147926E-07,1.049643,4.803384E-09,1.321387
884.2906,-0.01446194,0.0006210156,NaN,-0.8275176,0.000653644,NaN,-1.564976,-14.64833,NaN,-1.680276,-1.480886,-0.06882086,14.11233,NaN,NaN,-0.129728,0.816563,-2.224667E-07,1.065639,2.419199E-09,1.322685
884.3069,-0.01446239,0.0006226327,NaN,-0.8276598,0.0006543025,NaN,-1.564888,-14.64873,NaN,-1.681673,-1.483375,-0.06623161,14.11502,NaN,NaN,-0.1295126,0.8162192,-2.283899E-07,1.069286,3.501288E-11,1.323997
884.3218,-0.01446278,0.0006227141,NaN,-0.8278199,0.0006537519,NaN,-1.564806,-14.64936,NaN,-1.683128,-1.472859,-0.06369396,14.1039,NaN,NaN,-0.1293014,0.8153552,-2.334936E-07,1.053955,3.501288E-11,1.318792
884.3356,-0.01446278,0.0006227141,NaN,-0.8278199,0.0006537519,NaN,-1.564806,-14.64936,NaN,-1.683128,-1.472859,-0.06369396,14.1039,NaN,NaN,-0.1293014,0.8153552,-2.334936E-07,1.053955,3.501288E-11,1.318792
884.3497,-0.01446303,0.0006229681,NaN,-0.8280596,0.0006535081,NaN,-1.56464,-14.64816,NaN,-1.685175,-1.475225,-0.05965498,14.10625,NaN,NaN,-0.128965,0.8166195,-2.431421E-07,1.057351,4.803384E-09,1.319496
884.3651,-0.01446316,0.0006240123,NaN,-0.8283473,0.0006541429,NaN,-1.564508,-14.64973,NaN,-1.687495,-1.478334,-0.05569898,14.10976,NaN,NaN,-0.1286352,0.8151581,-2.513005E-07,1.061961,7.18757E-09,1.330349
884.38,-0.01446316,0.0006240123,NaN,-0.8283473,0.0006541429,NaN,-1.564508,-14.64973,NaN,-1.687495,-1.478334,-0.05569898,14.10976,NaN,NaN,-0.1286352,0.8151581,-2.513005E-07,1.061961,7.18757E-09,1.330349
884.3943,-0.01446321,0.0006241773,NaN,-0.8286634,0.0006542315,NaN,-1.564392,-14.64866,NaN,-1.689933,-1.470163,-0.05182292,14.10096,NaN,NaN,-0.1283119,0.8160002,-2.580805E-07,1.050011,7.18757E-09,1.320526
884.4097,-0.0144631,0.0006239375,NaN,-0.8290649,0.0006541747,NaN,-1.564186,-14.64833,NaN,-1.692987,-1.470388,-0.04646932,14.10116,NaN,NaN,-0.1278656,0.8163286,-2.702622E-07,1.050324,7.18757E-09,1.319268
884.4244,-0.01446286,0.0006244348,NaN,-0.8295173,0.0006539108,NaN,-1.564018,-14.64923,NaN,-1.696317,-1.481055,-0.04122437,14.11262,NaN,NaN,-0.127428,0.8158156,-2.789793E-07,1.065939,4.803384E-09,1.328162
884.4393,-0.01446286,0.0006244348,NaN,-0.8295173,0.0006539108,NaN,-1.564018,-14.64923,NaN,-1.696317,-1.481055,-0.04122437,14.11262,NaN,NaN,-0.127428,0.8158156,-2.789793E-07,1.065939,4.803384E-09,1.328162
884.4534,-0.01446254,0.0006250056,NaN,-0.8299991,0.0006527845,NaN,-1.563864,-14.64946,NaN,-1.699762,-1.483628,-0.03608449,14.11538,NaN,NaN,-0.126999,0.8156485,-2.859829E-07,1.069704,4.803384E-09,1.327367
884.4689,-0.01446216,0.0006250004,NaN,-0.8304968,0.0006520991,NaN,-1.563716,-14.64828,NaN,-1.70324,-1.472417,-0.03104554,14.10334,NaN,NaN,-0.1265784,0.81657,-2.922786E-07,1.053312,4.803384E-09,1.317732
884.484,-0.01446162,0.000624914,NaN,-0.8310715,0.000651663,NaN,-1.563462,-14.64823,NaN,-1.707283,-1.473033,-0.02454559,14.10399,NaN,NaN,-0.1260367,0.8166391,-3.011076E-07,1.054215,9.571756E-09,1.318071
884.499,-0.01446162,0.000624914,NaN,-0.8310715,0.000651663,NaN,-1.563462,-14.64823,NaN,-1.707283,-1.473033,-0.02454559,14.10399,NaN,NaN,-0.1260367,0.8166391,-3.011076E-07,1.054215,9.571756E-09,1.318071
884.5134,-0.01446097,0.0006254337,NaN,-0.831691,0.0006511072,NaN,-1.563248,-14.64924,NaN,-1.711571,-1.481924,-0.01817638,14.11359,NaN,NaN,-0.1255057,0.8159243,-3.081111E-07,1.067247,1.195594E-08,1.325657
884.5285,-0.01446024,0.0006255947,NaN,-0.8323355,0.0006511435,NaN,-1.563049,-14.64846,NaN,-1.71595,-1.470214,-0.01193449,14.10106,NaN,NaN,-0.124985,0.8164173,-3.137177E-07,1.050137,1.195594E-08,1.317271
884.5443,-0.01445946,0.0006258039,NaN,-0.8329925,0.0006516853,NaN,-1.562856,-14.64917,NaN,-1.720343,-1.47104,-0.00581493,14.10203,NaN,NaN,-0.1244746,0.8157396,-3.184395E-07,1.051376,9.571757E-09,1.321861
884.5583,-0.01445946,0.0006258039,NaN,-0.8329925,0.0006516853,NaN,-1.562856,-14.64917,NaN,-1.720343,-1.47104,-0.00581493,14.10203,NaN,NaN,-0.1244746,0.8157396,-3.184395E-07,1.051376,9.571757E-09,1.321861
884.5722,-0.01445852,0.0006262533,NaN,-0.8337235,0.000651723,NaN,-1.562538,-14.64966,NaN,-1.725287,-1.479129,0.001750722,14.11068,NaN,NaN,-0.1238448,0.8155282,-3.252707E-07,1.063196,4.803385E-09,1.326308
884.5876,-0.01445747,0.0006265886,NaN,-0.834497,0.0006527041,NaN,-1.562265,-14.64862,NaN,-1.730461,-1.469976,0.00916505,14.10083,NaN,NaN,-0.1232274,0.8163164,-3.295362E-07,1.049806,4.803385E-09,1.318196
884.6026,-0.01445634,0.0006274915,NaN,-0.8352932,0.0006531145,NaN,-1.56201,-14.64869,NaN,-1.735713,-1.481117,0.01643081,14.11268,NaN,NaN,-0.1226221,0.8166538,-3.319343E-07,1.066065,4.803385E-09,1.32235
884.6174,-0.01445634,0.0006274915,NaN,-0.8352932,0.0006531145,NaN,-1.56201,-14.64869,NaN,-1.735713,-1.481117,0.01643081,14.11268,NaN,NaN,-0.1226221,0.8166538,-3.319343E-07,1.066065,4.803385E-09,1.32235
884.6317,-0.01445501,0.000627799,NaN,-0.8361691,0.0006536518,NaN,-1.561617,-14.64872,NaN,-1.74154,-1.469692,0.02512392,14.10052,NaN,NaN,-0.1218993,0.8163418,-3.378948E-07,1.049382,4.803385E-09,1.318218
884.6486,-0.01445336,0.000628813,NaN,-0.8370903,0.0006540457,NaN,-1.561276,-14.64863,NaN,-1.747605,-1.481156,0.03364406,14.11268,NaN,NaN,-0.1211907,0.8168483,-3.396457E-07,1.066101,2.4192E-09,1.321511
884.6622,-0.01445143,0.0006291249,NaN,-0.8380353,0.000654576,NaN,-1.560955,-14.64861,NaN,-1.753744,-1.469259,0.0419931,14.10001,NaN,NaN,-0.120496,0.8165739,-3.403349E-07,1.048721,3.501377E-11,1.315557
884.6769,-0.01445143,0.0006291249,NaN,-0.8380353,0.000654576,NaN,-1.560955,-14.64861,NaN,-1.753744,-1.469259,0.0419931,14.10001,NaN,NaN,-0.120496,0.8165739,-3.403349E-07,1.048721,3.501377E-11,1.315557
884.6912,-0.01444927,0.000629163,NaN,-0.8389907,0.0006547482,NaN,-1.560641,-14.64925,NaN,-1.759878,-1.470062,0.05017832,14.10094,NaN,NaN,-0.119815,0.8159705,-3.391428E-07,1.049922,4.803385E-09,1.318625
884.7067,-0.01444668,0.0006290485,NaN,-0.8399485,0.0006552552,NaN,-1.56033,-14.64887,NaN,-1.765967,-1.46756,0.05820602,14.09822,NaN,NaN,-0.1191472,0.8162581,-3.378389E-07,1.046247,3.501377E-11,1.315628
884.7216,-0.0144438,0.0006291106,NaN,-0.8409034,0.0006563658,NaN,-1.560021,-14.64945,NaN,-1.771989,-1.466861,0.06607807,14.09755,NaN,NaN,-0.1184925,0.8156512,-3.347469E-07,1.045254,-4.733358E-09,1.319237
884.7364,-0.0144438,0.0006291106,NaN,-0.8409034,0.0006563658,NaN,-1.560021,-14.64945,NaN,-1.771989,-1.466861,0.06607807,14.09755,NaN,NaN,-0.1184925,0.8156512,-3.347469E-07,1.045254,-4.733358E-09,1.319237
884.7505,-0.01444074,0.0006292025,NaN,-0.8418522,0.0006573356,NaN,-1.559712,-14.65008,NaN,-1.777937,-1.468488,0.07379758,14.09936,NaN,NaN,-0.1178506,0.8150911,-3.320647E-07,1.047657,-7.117543E-09,1.322587
884.7672,-0.01443756,0.0006287792,NaN,-0.8427931,0.0006577232,NaN,-1.559404,-14.64926,NaN,-1.783806,-1.466936,0.08136742,14.09759,NaN,NaN,-0.1172214,0.8158464,-3.294197E-07,1.045348,-1.188591E-08,1.316709
884.781,-0.01443451,0.0006286855,NaN,-0.8436555,0.000658759,NaN,-1.559297,-14.64995,NaN,-1.789018,-1.467093,0.08721063,14.09785,NaN,NaN,-0.1167338,0.8151653,-3.241671E-07,1.045614,-1.903847E-08,1.321205
884.7962,-0.01443451,0.0006286855,NaN,-0.8436555,0.000658759,NaN,-1.559297,-14.64995,NaN,-1.789018,-1.467093,0.08721063,14.09785,NaN,NaN,-0.1167338,0.8151653,-3.241671E-07,1.045614,-1.903847E-08,1.321205
884.8099,-0.01443166,0.0006289699,NaN,-0.8444656,0.0006590315,NaN,-1.559121,-14.65116,NaN,-1.793874,-1.47803,0.09293959,14.10961,NaN,NaN,-0.1162557,0.8143916,-3.196222E-07,1.061618,-1.665429E-08,1.331356
884.8256,-0.01442898,0.0006293894,NaN,-0.8452398,0.0006602077,NaN,-1.558915,-14.65109,NaN,-1.79852,-1.470403,0.0985682,14.10152,NaN,NaN,-0.1157871,0.8142444,-3.157852E-07,1.050504,-1.42701E-08,1.329287
884.8403,-0.01442645,0.000629571,NaN,-0.8459883,0.0006611174,NaN,-1.5587,-14.6499,NaN,-1.803028,-1.468736,0.1040917,14.09958,NaN,NaN,-0.1153277,0.815371,-3.110913E-07,1.048014,-1.665429E-08,1.321658
884.8553,-0.01442645,0.000629571,NaN,-0.8459883,0.0006611174,NaN,-1.5587,-14.6499,NaN,-1.803028,-1.468736,0.1040917,14.09958,NaN,NaN,-0.1153277,0.815371,-3.110913E-07,1.048014,-1.665429E-08,1.321658
884.8692,-0.01442424,0.0006302629,NaN,-0.8466485,0.0006607802,NaN,-1.558704,-14.65056,NaN,-1.806857,-1.480577,0.1079284,14.11224,NaN,NaN,-0.1150065,0.815151,-3.050191E-07,1.06531,-1.188592E-08,1.329797
884.8851,-0.01442236,0.0006302741,NaN,-0.847251,0.0006608446,NaN,-1.558627,-14.6499,NaN,-1.81033,-1.467819,0.1116863,14.09863,NaN,NaN,-0.1146917,0.815488,-3.012565E-07,1.046689,-1.188592E-08,1.322006
884.8998,-0.01442236,0.0006302741,NaN,-0.847251,0.0006608446,NaN,-1.558627,-14.6499,NaN,-1.81033,-1.467819,0.1116863,14.09863,NaN,NaN,-0.1146917,0.815488,-3.012565E-07,1.046689,-1.188592E-08,1.322006
884.9144,-0.01442074,0.0006307959,NaN,-0.8478153,0.0006604821,NaN,-1.558515,-14.64971,NaN,-1.813601,-1.480067,0.1153846,14.11159,NaN,NaN,-0.1143831,0.816144,-2.967862E-07,1.064531,-1.665429E-08,1.324725
884.9297,-0.01441954,0.0006308114,NaN,-0.8482842,0.0006602685,NaN,-1.558624,-14.6497,NaN,-1.81617,-1.472781,0.117436,14.10384,NaN,NaN,-0.1142098,0.8159474,-2.914963E-07,1.053895,-2.142266E-08,1.322619
884.9446,-0.01441855,0.0006306579,NaN,-0.8486922,0.0006604414,NaN,-1.558641,-14.64984,NaN,-1.81838,-1.468312,0.1194424,14.0991,NaN,NaN,-0.1140399,0.8156545,-2.888141E-07,1.04738,-1.903847E-08,1.321173
884.9594,-0.01441855,0.0006306579,NaN,-0.8486922,0.0006604414,NaN,-1.558641,-14.64984,NaN,-1.81838,-1.468312,0.1194424,14.0991,NaN,NaN,-0.1140399,0.8156545,-2.888141E-07,1.04738,-1.903847E-08,1.321173
884.9733,-0.01441771,0.0006307893,NaN,-0.8490607,0.0006593585,NaN,-1.558618,-14.6503,NaN,-1.820395,-1.480818,0.1214257,14.11244,NaN,NaN,-0.1138733,0.8156701,-2.856103E-07,1.065636,-2.142266E-08,1.327003
884.9898,-0.01441693,0.0006304504,NaN,-0.8494031,0.0006587743,NaN,-1.558578,-14.65011,NaN,-1.822298,-1.469088,0.1233769,14.09995,NaN,NaN,-0.1137101,0.8155657,-2.81885E-07,1.048518,-2.142266E-08,1.324086
885.0038,-0.01441631,0.0006303677,NaN,-0.8496586,0.0006588646,NaN,-1.558776,-14.65084,NaN,-1.823554,-1.47093,0.123713,14.102,NaN,NaN,-0.1136793,0.8148995,-2.776382E-07,1.051239,-1.903847E-08,1.32678
885.0186,-0.01441631,0.0006303677,NaN,-0.8496586,0.0006588646,NaN,-1.558776,-14.65084,NaN,-1.823554,-1.47093,0.123713,14.102,NaN,NaN,-0.1136793,0.8148995,-2.776382E-07,1.051239,-1.903847E-08,1.32678
885.0327,-0.01441581,0.0006309345,NaN,-0.8498594,0.0006588295,NaN,-1.558879,-14.65127,NaN,-1.824486,-1.479908,0.1240342,14.11157,NaN,NaN,-0.1136491,0.814783,-2.759991E-07,1.064339,-1.42701E-08,1.332269
885.0482,-0.01441539,0.0006310036,NaN,-0.8500254,0.0006589182,NaN,-1.558937,-14.65031,NaN,-1.825252,-1.469931,0.1243662,14.10087,NaN,NaN,-0.1136195,0.8154814,-2.734659E-07,1.049764,-1.903847E-08,1.323376
885.0631,-0.01441501,0.0006310606,NaN,-0.8501693,0.0006596401,NaN,-1.558976,-14.65083,NaN,-1.825928,-1.468686,0.1246993,14.09961,NaN,NaN,-0.1135906,0.814919,-2.707837E-07,1.047971,-2.142266E-08,1.326226
885.078,-0.01441501,0.0006310606,NaN,-0.8501693,0.0006596401,NaN,-1.558976,-14.65083,NaN,-1.825928,-1.468686,0.1246993,14.09961,NaN,NaN,-0.1135906,0.814919,-2.707837E-07,1.047971,-2.142266E-08,1.326226
885.0921,-0.01441478,0.0006313631,NaN,-0.8502296,0.000659383,NaN,-1.559255,-14.65071,NaN,-1.825976,-1.480349,0.1234499,14.11195,NaN,NaN,-0.1136914,0.8154758,-2.68474E-07,1.064952,-2.380684E-08,1.328831
885.1076,-0.01441468,0.0006316059,NaN,-0.850238,0.0006599759,NaN,-1.559432,-14.65077,NaN,-1.82572,-1.46917,0.1222165,14.10008,NaN,NaN,-0.1137903,0.8151134,-2.680269E-07,1.048649,-2.619103E-08,1.326272
885.1239,-0.01441466,0.0006319776,NaN,-0.850216,0.0006610748,NaN,-1.55956,-14.65127,NaN,-1.825313,-1.468542,0.1210257,14.09948,NaN,NaN,-0.1138873,0.8145865,-2.660153E-07,1.047755,-1.903847E-08,1.329733
885.1374,-0.01441466,0.0006319776,NaN,-0.850216,0.0006610748,NaN,-1.55956,-14.65127,NaN,-1.825313,-1.468542,0.1210257,14.09948,NaN,NaN,-0.1138873,0.8145865,-2.660153E-07,1.047755,-1.903847E-08,1.329733
885.1516,-0.01441481,0.0006322436,NaN,-0.8501062,0.0006622105,NaN,-1.559911,-14.65164,NaN,-1.824258,-1.467529,0.1182877,14.09845,NaN,NaN,-0.1141116,0.814168,-2.62588E-07,1.046297,-1.903847E-08,1.33123
885.1672,-0.01441509,0.0006324558,NaN,-0.8499426,0.0006620042,NaN,-1.560152,-14.65158,NaN,-1.822894,-1.480344,0.1155983,14.112,NaN,NaN,-0.1143316,0.8147135,-2.6229E-07,1.064946,-2.142266E-08,1.332266
885.1819,-0.01441546,0.0006323522,NaN,-0.8497465,0.0006621342,NaN,-1.560337,-14.65103,NaN,-1.821387,-1.471102,0.1129816,14.10213,NaN,NaN,-0.1145473,0.8150088,-2.608744E-07,1.051456,-2.619103E-08,1.327681
885.1968,-0.01441546,0.0006323522,NaN,-0.8497465,0.0006621342,NaN,-1.560337,-14.65103,NaN,-1.821387,-1.471102,0.1129816,14.10213,NaN,NaN,-0.1145473,0.8150088,-2.608744E-07,1.051456,-2.619103E-08,1.327681
885.2131,-0.01441587,0.0006328137,NaN,-0.8495313,0.0006613487,NaN,-1.560495,-14.65188,NaN,-1.819821,-1.481058,0.1104254,14.11279,NaN,NaN,-0.1147587,0.814514,-2.591607E-07,1.066005,-2.619103E-08,1.334356
885.2271,-0.01441645,0.0006325762,NaN,-0.8492359,0.0006609101,NaN,-1.56088,-14.65089,NaN,-1.817658,-1.470138,0.1063449,14.1011,NaN,NaN,-0.1150953,0.8152229,-2.576706E-07,1.050058,-2.857521E-08,1.325907
885.2415,-0.01441714,0.0006319027,NaN,-0.8488924,0.0006599187,NaN,-1.561154,-14.65126,NaN,-1.815221,-1.472076,0.1023406,14.1032,NaN,NaN,-0.1154254,0.8149211,-2.571863E-07,1.052896,-2.380684E-08,1.329037
885.2562,-0.01441714,0.0006319027,NaN,-0.8488924,0.0006599187,NaN,-1.561154,-14.65126,NaN,-1.815221,-1.472076,0.1023406,14.1032,NaN,NaN,-0.1154254,0.8149211,-2.571863E-07,1.052896,-2.380684E-08,1.329037
885.2704,-0.01441792,0.000632145,NaN,-0.8485207,0.000659766,NaN,-1.561373,-14.65222,NaN,-1.812667,-1.476693,0.09843421,14.10821,NaN,NaN,-0.1157489,0.8141174,-2.558452E-07,1.059664,-2.142266E-08,1.336182
885.2859,-0.01441874,0.0006328949,NaN,-0.8481333,0.0006593967,NaN,-1.561563,-14.65119,NaN,-1.810072,-1.483171,0.09461376,14.11493,NaN,NaN,-0.1160661,0.8153238,-2.540943E-07,1.069049,-2.142266E-08,1.332401
885.3008,-0.01441973,0.0006326214,NaN,-0.8476686,0.0006588252,NaN,-1.561965,-14.65088,NaN,-1.8069,-1.471722,0.08929417,14.10273,NaN,NaN,-0.1165065,0.8153697,-2.521199E-07,1.052341,-2.142266E-08,1.326719
885.3157,-0.01441973,0.0006326214,NaN,-0.8476686,0.0006588252,NaN,-1.561965,-14.65088,NaN,-1.8069,-1.471722,0.08929417,14.10273,NaN,NaN,-0.1165065,0.8153697,-2.521199E-07,1.052341,-2.142266E-08,1.326719
885.33,-0.01442084,0.0006328418,NaN,-0.8471583,0.0006588941,NaN,-1.562256,-14.65057,NaN,-1.803469,-1.473916,0.0840793,14.10501,NaN,NaN,-0.1169382,0.815762,-2.510023E-07,1.055523,-1.665428E-08,1.327509
885.3456,-0.01442202,0.0006332355,NaN,-0.846622,0.0006589339,NaN,-1.562491,-14.65164,NaN,-1.799937,-1.47392,0.07898603,14.10515,NaN,NaN,-0.1173614,0.8146995,-2.487672E-07,1.055578,-1.188591E-08,1.33063
885.3604,-0.01442327,0.0006341077,NaN,-0.8460723,0.0006588463,NaN,-1.562695,-14.6507,NaN,-1.796378,-1.481675,0.07400219,14.11325,NaN,NaN,-0.1177764,0.8158823,-2.461222E-07,1.066833,-9.501726E-09,1.32966
885.3753,-0.01442327,0.0006341077,NaN,-0.8460723,0.0006588463,NaN,-1.562695,-14.6507,NaN,-1.796378,-1.481675,0.07400219,14.11325,NaN,NaN,-0.1177764,0.8158823,-2.461222E-07,1.066833,-9.501726E-09,1.32966
885.3894,-0.01442485,0.0006347648,NaN,-0.8454474,0.0006602174,NaN,-1.563092,-14.65086,NaN,-1.792257,-1.470463,0.06754307,14.10135,NaN,NaN,-0.1183125,0.8154494,-2.415401E-07,1.05048,-7.11754E-09,1.329022
885.405,-0.01442676,0.0006354355,NaN,-0.8447788,0.0006599465,NaN,-1.56338,-14.65135,NaN,-1.787892,-1.481275,0.06121613,14.11289,NaN,NaN,-0.1188381,0.8153449,-2.380756E-07,1.066268,-4.733354E-09,1.330797
885.4207,-0.01442897,0.0006361828,NaN,-0.8440863,0.0006588392,NaN,-1.563611,-14.65077,NaN,-1.783439,-1.482745,0.05503212,14.11438,NaN,NaN,-0.1193535,0.8159319,-2.343503E-07,1.068392,-4.733354E-09,1.328163
885.4355,-0.01442897,0.0006361828,NaN,-0.8440863,0.0006588392,NaN,-1.563611,-14.65077,NaN,-1.783439,-1.482745,0.05503212,14.11438,NaN,NaN,-0.1193535,0.8159319,-2.343503E-07,1.068392,-4.733354E-09,1.328163
885.4486,-0.0144316,0.0006369632,NaN,-0.8433129,0.0006586857,NaN,-1.564008,-14.65053,NaN,-1.778398,-1.478657,0.04740211,14.10999,NaN,NaN,-0.1199881,0.8160666,-2.291163E-07,1.062413,-2.349168E-09,1.326454
885.4642,-0.01443465,0.0006377768,NaN,-0.8424929,0.0006577896,NaN,-1.564292,-14.65113,NaN,-1.773109,-1.482703,0.03993313,14.11436,NaN,NaN,-0.1206102,0.8155578,-2.254469E-07,1.068339,-2.349168E-09,1.327995
885.4789,-0.01443465,0.0006377768,NaN,-0.8424929,0.0006577896,NaN,-1.564292,-14.65113,NaN,-1.773109,-1.482703,0.03993313,14.11436,NaN,NaN,-0.1206102,0.8155578,-2.254469E-07,1.068339,-2.349168E-09,1.327995
885.4931,-0.01443804,0.0006386865,NaN,-0.8416479,0.0006571535,NaN,-1.564517,-14.65089,NaN,-1.767734,-1.483094,0.03262991,14.11474,NaN,NaN,-0.1212202,0.8157877,-2.203711E-07,1.068898,-9.501726E-09,1.327214
885.5084,-0.01444169,0.000639,NaN,-0.8407912,0.0006566118,NaN,-1.564708,-14.65005,NaN,-1.762356,-1.475929,0.02548032,14.10702,NaN,NaN,-0.1218182,0.8164433,-2.142384E-07,1.058411,-1.42701E-08,1.320659
885.5234,-0.01444573,0.0006396553,NaN,-0.8398619,0.000655445,NaN,-1.565049,-14.65127,NaN,-1.756441,-1.482818,0.01690375,14.11449,NaN,NaN,-0.1225338,0.8154314,-2.068239E-07,1.068516,-1.665428E-08,1.326753
885.5383,-0.01444573,0.0006396553,NaN,-0.8398619,0.000655445,NaN,-1.565049,-14.65127,NaN,-1.756441,-1.482818,0.01690375,14.11449,NaN,NaN,-0.1225338,0.8154314,-2.068239E-07,1.068516,-1.665428E-08,1.326753
885.5524,-0.01445015,0.0006400698,NaN,-0.8388919,0.000655564,NaN,-1.565289,-14.65113,NaN,-1.750307,-1.470099,0.008509636,14.10096,NaN,NaN,-0.1232354,0.8152667,-1.992522E-07,1.049958,-9.501726E-09,1.324242
885.5681,-0.01445488,0.0006403622,NaN,-0.8379012,0.0006554254,NaN,-1.565474,-14.65117,NaN,-1.744109,-1.473002,0.0002975492,14.10404,NaN,NaN,-0.1239233,0.8153225,-1.912988E-07,1.054186,-1.188591E-08,1.323293
885.5843,-0.01445985,0.0006407159,NaN,-0.836902,0.0006559812,NaN,-1.565627,-14.65147,NaN,-1.737924,-1.471936,-0.007743406,14.10293,NaN,NaN,-0.1245976,0.814988,-1.840344E-07,1.052642,-1.903847E-08,1.327037
885.5981,-0.01445985,0.0006407159,NaN,-0.836902,0.0006559812,NaN,-1.565627,-14.65147,NaN,-1.737924,-1.471936,-0.007743406,14.10293,NaN,NaN,-0.1245976,0.814988,-1.840344E-07,1.052642,-1.903847E-08,1.327037
885.6121,-0.01446519,0.0006405063,NaN,-0.8358329,0.0006561625,NaN,-1.565902,-14.65065,NaN,-1.731217,-1.468825,-0.0171877,14.09952,NaN,NaN,-0.1253881,0.8156863,-1.705861E-07,1.048064,-2.142265E-08,1.319137
885.6277,-0.01447089,0.000640146,NaN,-0.8347253,0.0006565271,NaN,-1.566085,-14.6508,NaN,-1.724304,-1.467585,-0.02642973,14.09822,NaN,NaN,-0.1261631,0.8154802,-1.590005E-07,1.046262,-1.665428E-08,1.31955
885.6426,-0.01447689,0.0006397361,NaN,-0.833599,0.0006568492,NaN,-1.566218,-14.65115,NaN,-1.717339,-1.467332,-0.03547458,14.09799,NaN,NaN,-0.1269229,0.8151153,-1.453287E-07,1.04591,-1.42701E-08,1.320708
885.6583,-0.01447689,0.0006397361,NaN,-0.833599,0.0006568492,NaN,-1.566218,-14.65115,NaN,-1.717339,-1.467332,-0.03547458,14.09799,NaN,NaN,-0.1269229,0.8151153,-1.453287E-07,1.04591,-1.42701E-08,1.320708
885.6715,-0.0144806,0.0006398435,NaN,-0.8332978,0.0006565542,NaN,-1.56485,-14.65129,NaN,-1.717276,-1.48014,-0.02559202,14.11159,NaN,NaN,-0.1261156,0.8154752,-1.910007E-07,1.064578,-1.665428E-08,1.326427
885.687,-0.01448154,0.0006400992,NaN,-0.8335055,0.0006566048,NaN,-1.564125,-14.65282,NaN,-1.720554,-1.476872,-0.01598795,14.10829,NaN,NaN,-0.1253241,0.8138632,-2.162582E-07,1.059867,-1.665428E-08,1.333134
885.7016,-0.0144811,0.0006399222,NaN,-0.8340263,0.0006569317,NaN,-1.563652,-14.65101,NaN,-1.725471,-1.468897,-0.006640967,14.09962,NaN,NaN,-0.1245483,0.8154249,-2.331762E-07,1.048179,-1.903847E-08,1.321043
885.7164,-0.0144811,0.0006399222,NaN,-0.8340263,0.0006569317,NaN,-1.563652,-14.65101,NaN,-1.725471,-1.468897,-0.006640967,14.09962,NaN,NaN,-0.1245483,0.8154249,-2.331762E-07,1.048179,-1.903847E-08,1.321043
885.7307,-0.01448001,0.000639858,NaN,-0.8347381,0.0006579594,NaN,-1.563275,-14.65132,NaN,-1.731175,-1.467582,0.002498067,14.09826,NaN,NaN,-0.1237876,0.8150635,-2.434703E-07,1.046275,-1.903847E-08,1.32185
885.7463,-0.01447871,0.0006393206,NaN,-0.8354952,0.0006572074,NaN,-1.56307,-14.65206,NaN,-1.736663,-1.477177,0.009882709,14.10853,NaN,NaN,-0.1231713,0.8146979,-2.476239E-07,1.060295,-2.142265E-08,1.328957
885.761,-0.01447714,0.0006386325,NaN,-0.8362769,0.0006570122,NaN,-1.56283,-14.65139,NaN,-1.74202,-1.467982,0.01712515,14.0987,NaN,NaN,-0.1225671,0.8150886,-2.499336E-07,1.046869,-2.142265E-08,1.32245
885.776,-0.01447714,0.0006386325,NaN,-0.8362769,0.0006570122,NaN,-1.56283,-14.65139,NaN,-1.74202,-1.467982,0.01712515,14.0987,NaN,NaN,-0.1225671,0.8150886,-2.499336E-07,1.046869,-2.142265E-08,1.32245
885.7902,-0.01447535,0.0006387783,NaN,-0.8370702,0.0006566358,NaN,-1.562575,-14.65206,NaN,-1.747277,-1.480579,0.02423236,14.11215,NaN,NaN,-0.1219747,0.8148971,-2.529046E-07,1.065257,-2.380684E-08,1.33131
885.8057,-0.0144734,0.0006382769,NaN,-0.8378672,0.0006563082,NaN,-1.562315,-14.65083,NaN,-1.75245,-1.470562,0.03120415,14.10137,NaN,NaN,-0.121394,0.8158634,-2.546182E-07,1.050612,-2.619102E-08,1.322073
885.8207,-0.01447155,0.0006381292,NaN,-0.8385935,0.0006552357,NaN,-1.562215,-14.65215,NaN,-1.756971,-1.480225,0.03646842,14.11181,NaN,NaN,-0.120954,0.8148955,-2.534261E-07,1.064771,-2.857521E-08,1.33055
885.8355,-0.01447155,0.0006381292,NaN,-0.8385935,0.0006552357,NaN,-1.562215,-14.65215,NaN,-1.756971,-1.480225,0.03646842,14.11181,NaN,NaN,-0.120954,0.8148955,-2.534261E-07,1.064771,-2.857521E-08,1.33055
885.8497,-0.01446988,0.0006372199,NaN,-0.839273,0.0006541369,NaN,-1.562058,-14.65137,NaN,-1.761145,-1.470242,0.04163475,14.10113,NaN,NaN,-0.1205227,0.815423,-2.532771E-07,1.050191,-2.380684E-08,1.324871
885.8653,-0.01446836,0.000636638,NaN,-0.8399205,0.0006536198,NaN,-1.561878,-14.65122,NaN,-1.765117,-1.473165,0.04670916,14.10421,NaN,NaN,-0.1200998,0.8156757,-2.531653E-07,1.054447,-1.903847E-08,1.324733
885.881,-0.01446696,0.0006363555,NaN,-0.8405454,0.0006537366,NaN,-1.561689,-14.65186,NaN,-1.768959,-1.469463,0.05168832,14.10037,NaN,NaN,-0.1196852,0.8149172,-2.519174E-07,1.049081,-1.903847E-08,1.326451
885.8951,-0.01446696,0.0006363555,NaN,-0.8405454,0.0006537366,NaN,-1.561689,-14.65186,NaN,-1.768959,-1.469463,0.05168832,14.10037,NaN,NaN,-0.1196852,0.8149172,-2.519174E-07,1.049081,-1.903847E-08,1.326451
885.909,-0.01446586,0.0006359425,NaN,-0.8410842,0.0006522763,NaN,-1.561681,-14.65119,NaN,-1.772135,-1.481049,0.05499531,14.11256,NaN,NaN,-0.1194081,0.8160033,-2.492351E-07,1.065928,-2.142265E-08,1.326964
885.9244,-0.01446492,0.0006354662,NaN,-0.8415674,0.0006517742,NaN,-1.561606,-14.65211,NaN,-1.774963,-1.469936,0.05824098,14.10086,NaN,NaN,-0.1191365,0.8148011,-2.477078E-07,1.049752,-2.142265E-08,1.325973
885.9393,-0.01446492,0.0006354662,NaN,-0.8415674,0.0006517742,NaN,-1.561606,-14.65211,NaN,-1.774963,-1.469936,0.05824098,14.10086,NaN,NaN,-0.1191365,0.8148011,-2.477078E-07,1.049752,-2.142265E-08,1.325973
885.9535,-0.01446408,0.00063573,NaN,-0.8420142,0.0006511445,NaN,-1.561503,-14.65269,NaN,-1.777598,-1.4818,0.06143375,14.11351,NaN,NaN,-0.1188702,0.814642,-2.467392E-07,1.067067,-2.619102E-08,1.334311
885.9692,-0.01446344,0.000635519,NaN,-0.8423671,0.0006502238,NaN,-1.561581,-14.65252,NaN,-1.779543,-1.475369,0.06299071,14.10667,NaN,NaN,-0.1187385,0.8146504,-2.441687E-07,1.057693,-2.857521E-08,1.332488
885.9838,-0.01446292,0.0006348558,NaN,-0.8426605,0.0006494442,NaN,-1.561583,-14.65202,NaN,-1.781137,-1.473015,0.06452105,14.10412,NaN,NaN,-0.1186094,0.8150641,-2.430511E-07,1.054244,-2.142265E-08,1.329227
885.999,-0.01446292,0.0006348558,NaN,-0.8426605,0.0006494442,NaN,-1.561583,-14.65202,NaN,-1.781137,-1.473015,0.06452105,14.10412,NaN,NaN,-0.1186094,0.8150641,-2.430511E-07,1.054244,-2.142265E-08,1.329227
886.0134,-0.01446249,0.000634413,NaN,-0.842916,0.0006492164,NaN,-1.561552,-14.65252,NaN,-1.782545,-1.469953,0.06603374,14.10094,NaN,NaN,-0.1184829,0.8144605,-2.416728E-07,1.049809,-2.380684E-08,1.329883
886.0287,-0.01446211,0.0006341549,NaN,-0.8431467,0.0006486967,NaN,-1.561508,-14.65289,NaN,-1.78385,-1.474148,0.06752194,14.10543,NaN,NaN,-0.1183588,0.8142425,-2.401081E-07,1.055939,-2.619102E-08,1.332603
886.0438,-0.0144619,0.0006348782,NaN,-0.843292,0.0006484193,NaN,-1.561658,-14.65215,NaN,-1.784517,-1.481872,0.06740482,14.11351,NaN,NaN,-0.1183665,0.8152156,-2.370161E-07,1.067155,-2.619102E-08,1.332817
886.062,-0.01446181,0.0006352571,NaN,-0.8433838,0.0006493423,NaN,-1.561728,-14.65219,NaN,-1.78487,-1.469849,0.06729257,14.10076,NaN,NaN,-0.1183741,0.8148807,-2.360848E-07,1.049627,-2.619102E-08,1.329619
886.0746,-0.01446181,0.0006352571,NaN,-0.8433838,0.0006493423,NaN,-1.561728,-14.65219,NaN,-1.78487,-1.469849,0.06729257,14.10076,NaN,NaN,-0.1183741,0.8148807,-2.360848E-07,1.049627,-2.619102E-08,1.329619
886.0896,-0.01446179,0.0006355896,NaN,-0.8434421,0.0006502065,NaN,-1.561761,-14.6525,NaN,-1.785064,-1.468745,0.06719564,14.09963,NaN,NaN,-0.1183816,0.8145318,-2.34781E-07,1.048036,-2.619102E-08,1.330665
886.1041,-0.01446182,0.0006362355,NaN,-0.8434796,0.000650425,NaN,-1.561779,-14.65308,NaN,-1.785176,-1.480501,0.06710626,14.11216,NaN,NaN,-0.1183889,0.814388,-2.334771E-07,1.065187,-2.857521E-08,1.336289
886.1179,-0.01446182,0.0006362355,NaN,-0.8434796,0.000650425,NaN,-1.561779,-14.65308,NaN,-1.785176,-1.480501,0.06710626,14.11216,NaN,NaN,-0.1183889,0.814388,-2.334771E-07,1.065187,-2.857521E-08,1.336289
886.132,-0.01446204,0.0006367724,NaN,-0.8434364,0.0006517775,NaN,-1.561991,-14.65214,NaN,-1.78467,-1.4704,0.06544289,14.10134,NaN,NaN,-0.1185254,0.8150608,-2.302734E-07,1.050436,-3.334358E-08,1.331761
886.1476,-0.01446237,0.0006373432,NaN,-0.8433436,0.0006514527,NaN,-1.562118,-14.65223,NaN,-1.783867,-1.481325,0.0638155,14.11294,NaN,NaN,-0.1186593,0.815361,-2.291558E-07,1.066362,-3.334358E-08,1.331233
886.1626,-0.01446278,0.000638043,NaN,-0.8432206,0.0006523538,NaN,-1.562204,-14.65174,NaN,-1.782923,-1.472594,0.06223401,14.1036,NaN,NaN,-0.1187905,0.8156133,-2.274794E-07,1.05361,-2.857521E-08,1.329088
886.1774,-0.01446278,0.000638043,NaN,-0.8432206,0.0006523538,NaN,-1.562204,-14.65174,NaN,-1.782923,-1.472594,0.06223401,14.1036,NaN,NaN,-0.1187905,0.8156133,-2.274794E-07,1.05361,-2.857521E-08,1.329088
886.1916,-0.01446338,0.0006385043,NaN,-0.8430102,0.0006533681,NaN,-1.56247,-14.65254,NaN,-1.781339,-1.470823,0.05911208,14.10182,NaN,NaN,-0.1190486,0.8147374,-2.250952E-07,1.051064,-2.857521E-08,1.33117
886.207,-0.01446411,0.0006385056,NaN,-0.8427467,0.0006534147,NaN,-1.562643,-14.65204,NaN,-1.779456,-1.472656,0.05605777,14.10369,NaN,NaN,-0.1193016,0.8152782,-2.241453E-07,1.053707,-3.334358E-08,1.328167
886.2219,-0.01446492,0.000638926,NaN,-0.8424518,0.0006536033,NaN,-1.562772,-14.65321,NaN,-1.777437,-1.477357,0.0530786,14.10883,NaN,NaN,-0.1195497,0.8142586,-2.222454E-07,1.060614,-3.572777E-08,1.336517
886.2369,-0.01446492,0.000638926,NaN,-0.8424518,0.0006536033,NaN,-1.562772,-14.65321,NaN,-1.777437,-1.477357,0.0530786,14.10883,NaN,NaN,-0.1195497,0.8142586,-2.222454E-07,1.060614,-3.572777E-08,1.336517
886.251,-0.01446579,0.0006385175,NaN,-0.8421386,0.0006533719,NaN,-1.562879,-14.65179,NaN,-1.775365,-1.469664,0.05016493,14.1005,NaN,NaN,-0.1197929,0.8154435,-2.202151E-07,1.049351,-3.334358E-08,1.328738
886.2667,-0.01446683,0.0006383075,NaN,-0.8417463,0.0006534276,NaN,-1.563162,-14.65271,NaN,-1.772705,-1.472996,0.04573539,14.10416,NaN,NaN,-0.1201607,0.8146473,-2.163408E-07,1.054257,-3.095939E-08,1.334359
886.2817,-0.014468,0.0006384522,NaN,-0.841307,0.0006530294,NaN,-1.563356,-14.65296,NaN,-1.769779,-1.481034,0.04140029,14.11271,NaN,NaN,-0.1205213,0.8146569,-2.133419E-07,1.065978,-2.857521E-08,1.339548
886.2964,-0.014468,0.0006384522,NaN,-0.841307,0.0006530294,NaN,-1.563356,-14.65296,NaN,-1.769779,-1.481034,0.04140029,14.11271,NaN,NaN,-0.1205213,0.8146569,-2.133419E-07,1.065978,-2.857521E-08,1.339548
886.3126,-0.01446929,0.0006383521,NaN,-0.8408405,0.0006531953,NaN,-1.563504,-14.65173,NaN,-1.766742,-1.469723,0.03716499,14.10057,NaN,NaN,-0.1208749,0.8155912,-2.106597E-07,1.049454,-2.857521E-08,1.329559
886.327,-0.01447076,0.0006394486,NaN,-0.8403594,0.0006537441,NaN,-1.56363,-14.65117,NaN,-1.763672,-1.480316,0.03302003,14.11173,NaN,NaN,-0.1212215,0.8165321,-2.074932E-07,1.064862,-2.380683E-08,1.330393
886.3407,-0.01447259,0.0006402895,NaN,-0.8398021,0.0006547965,NaN,-1.563917,-14.65308,NaN,-1.760031,-1.474835,0.02738588,14.10611,NaN,NaN,-0.1216907,0.814491,-2.008902E-07,1.056927,-1.903846E-08,1.33878
886.3555,-0.01447259,0.0006402895,NaN,-0.8398021,0.0006547965,NaN,-1.563917,-14.65308,NaN,-1.760031,-1.474835,0.02738588,14.10611,NaN,NaN,-0.1216907,0.814491,-2.008902E-07,1.056927,-1.903846E-08,1.33878
886.3696,-0.01447478,0.000640775,NaN,-0.8392003,0.0006561134,NaN,-1.564115,-14.65179,NaN,-1.75614,-1.469481,0.02187266,14.10026,NaN,NaN,-0.1221508,0.8156059,-1.967644E-07,1.049066,-2.142265E-08,1.330266
886.3853,-0.01447728,0.0006412976,NaN,-0.8385737,0.0006574075,NaN,-1.564268,-14.65253,NaN,-1.752153,-1.470167,0.01648208,14.10108,NaN,NaN,-0.1226018,0.8148951,-1.918278E-07,1.050102,-1.427009E-08,1.334795
886.3998,-0.01447728,0.0006412976,NaN,-0.8385737,0.0006574075,NaN,-1.564268,-14.65253,NaN,-1.752153,-1.470167,0.01648208,14.10108,NaN,NaN,-0.1226018,0.8148951,-1.918278E-07,1.050102,-1.427009E-08,1.334795
886.4142,-0.01448023,0.0006418079,NaN,-0.8378652,0.0006578886,NaN,-1.564558,-14.65309,NaN,-1.747572,-1.477876,0.009632824,14.10933,NaN,NaN,-0.1231734,0.8146097,-1.853644E-07,1.061361,-1.427009E-08,1.33864
886.4296,-0.01448362,0.0006422708,NaN,-0.8371094,0.0006592459,NaN,-1.564756,-14.65182,NaN,-1.742736,-1.469886,0.002932015,14.1007,NaN,NaN,-0.1237337,0.8156521,-1.78603E-07,1.049667,-1.665428E-08,1.330655
886.4448,-0.01448735,0.0006426243,NaN,-0.8363279,0.0006604539,NaN,-1.564907,-14.65239,NaN,-1.737807,-1.468985,-0.003622412,14.09981,NaN,NaN,-0.1242831,0.8150467,-1.724563E-07,1.048381,-1.665428E-08,1.333153
886.4594,-0.01448735,0.0006426243,NaN,-0.8363279,0.0006604539,NaN,-1.564907,-14.65239,NaN,-1.737807,-1.468985,-0.003622412,14.09981,NaN,NaN,-0.1242831,0.8150467,-1.724563E-07,1.048381,-1.665428E-08,1.333153
886.4735,-0.01449134,0.0006430643,NaN,-0.8355338,0.0006614864,NaN,-1.565031,-14.65314,NaN,-1.732867,-1.471376,-0.0100401,14.10245,NaN,NaN,-0.1248217,0.8143929,-1.656018E-07,1.051904,-1.903846E-08,1.337922
886.4892,-0.01449575,0.0006425175,NaN,-0.8346663,0.0006615875,NaN,-1.565279,-14.65202,NaN,-1.727383,-1.467989,-0.01789354,14.0987,NaN,NaN,-0.1254792,0.8153839,-1.530475E-07,1.046914,-1.665428E-08,1.331294
886.5041,-0.01450055,0.0006417748,NaN,-0.8337574,0.0006615432,NaN,-1.565443,-14.65224,NaN,-1.721675,-1.467399,-0.02557802,14.09811,NaN,NaN,-0.1261238,0.8151353,-1.442558E-07,1.046066,-1.665428E-08,1.331643
886.5203,-0.01450567,0.0006412301,NaN,-0.832827,0.0006617157,NaN,-1.565564,-14.65273,NaN,-1.715896,-1.467543,-0.03309825,14.09833,NaN,NaN,-0.1267557,0.8146534,-1.334898E-07,1.046302,-1.665428E-08,1.334075
886.5348,-0.01450567,0.0006412301,NaN,-0.832827,0.0006617157,NaN,-1.565564,-14.65273,NaN,-1.715896,-1.467543,-0.03309825,14.09833,NaN,NaN,-0.1267557,0.8146534,-1.334898E-07,1.046302,-1.665428E-08,1.334075
886.5488,-0.01451101,0.0006409993,NaN,-0.8318874,0.0006609241,NaN,-1.56566,-14.65394,NaN,-1.710123,-1.47838,-0.04046296,14.10998,NaN,NaN,-0.1273752,0.8138732,-1.241393E-07,1.062155,-1.427009E-08,1.344377
886.5635,-0.01451676,0.0006404777,NaN,-0.8308771,0.0006593469,NaN,-1.565852,-14.65118,NaN,-1.703821,-1.481502,-0.04923734,14.11295,NaN,NaN,-0.128112,0.816703,-1.103557E-07,1.066592,-1.427009E-08,1.334744
886.5783,-0.01451676,0.0006404777,NaN,-0.8308771,0.0006593469,NaN,-1.565852,-14.65118,NaN,-1.703821,-1.481502,-0.04923734,14.11295,NaN,NaN,-0.128112,0.816703,-1.103557E-07,1.066592,-1.427009E-08,1.334744
886.5923,-0.01452287,0.0006402393,NaN,-0.8298277,0.0006585731,NaN,-1.565971,-14.65241,NaN,-1.697307,-1.476025,-0.05782406,14.10726,NaN,NaN,-0.1288344,0.8153425,-9.783874E-08,1.05864,-1.665428E-08,1.335172
886.6077,-0.01452929,0.0006397273,NaN,-0.8287588,0.0006582546,NaN,-1.56605,-14.65259,NaN,-1.690735,-1.468109,-0.06623005,14.09888,NaN,NaN,-0.1295425,0.8149229,-8.427868E-08,1.04711,-1.903846E-08,1.334157
886.6227,-0.01453592,0.0006391125,NaN,-0.8276827,0.0006565911,NaN,-1.566103,-14.65233,NaN,-1.684181,-1.480759,-0.07446328,14.11225,NaN,NaN,-0.1302368,0.8156664,-7.109115E-08,1.065524,-1.18859E-08,1.336563
886.6375,-0.01453592,0.0006391125,NaN,-0.8276827,0.0006565911,NaN,-1.566103,-14.65233,NaN,-1.684181,-1.480759,-0.07446328,14.11225,NaN,NaN,-0.1302368,0.8156664,-7.109115E-08,1.065524,-1.18859E-08,1.336563
886.6517,-0.0145423,0.0006385839,NaN,-0.8266073,0.0006554093,NaN,-1.56614,-14.65326,NaN,-1.677684,-1.474438,-0.08252895,14.10565,NaN,NaN,-0.1309166,0.8145728,-5.805263E-08,1.05634,-7.117532E-09,1.337038
886.6675,-0.01454854,0.0006383866,NaN,-0.8255371,0.0006537696,NaN,-1.566162,-14.654,NaN,-1.67126,-1.481598,-0.09043144,14.11333,NaN,NaN,-0.131583,0.8140588,-4.493961E-08,1.066802,-4.733347E-09,1.341487
886.6823,-0.0145547,0.0006383724,NaN,-0.824475,0.0006539,NaN,-1.566174,-14.65223,NaN,-1.664919,-1.470766,-0.09817452,14.10165,NaN,NaN,-0.1322364,0.815569,-3.115604E-08,1.050964,-2.349161E-09,1.330047
886.697,-0.0145547,0.0006383724,NaN,-0.824475,0.0006539,NaN,-1.566174,-14.65223,NaN,-1.664919,-1.470766,-0.09817452,14.10165,NaN,NaN,-0.1322364,0.815569,-3.115604E-08,1.050964,-2.349161E-09,1.330047
886.7115,-0.01456062,0.0006387139,NaN,-0.823492,0.0006531954,NaN,-1.566107,-14.65359,NaN,-1.659237,-1.480861,-0.1042185,14.11254,NaN,NaN,-0.1327477,0.8145823,-2.623866E-08,1.065748,-4.733347E-09,1.339284
886.7269,-0.01456628,0.0006391744,NaN,-0.822562,0.0006522165,NaN,-1.566071,-14.6529,NaN,-1.653918,-1.484261,-0.110147,14.11606,NaN,NaN,-0.133249,0.8153485,-1.893709E-08,1.070675,-2.349161E-09,1.335105
886.7416,-0.01457171,0.0006395944,NaN,-0.8216691,0.0006521438,NaN,-1.566046,-14.65195,NaN,-1.648818,-1.475537,-0.1159597,14.10668,NaN,NaN,-0.1337404,0.8161099,-1.089046E-08,1.057918,-7.117532E-09,1.327538
886.7585,-0.01457171,0.0006395944,NaN,-0.8216691,0.0006521438,NaN,-1.566046,-14.65195,NaN,-1.648818,-1.475537,-0.1159597,14.10668,NaN,NaN,-0.1337404,0.8161099,-1.089046E-08,1.057918,-7.117532E-09,1.327538
886.7715,-0.01457697,0.0006400493,NaN,-0.820803,0.0006526944,NaN,-1.566023,-14.65203,NaN,-1.643863,-1.471753,-0.1216575,14.10266,NaN,NaN,-0.1342222,0.8159249,-3.588891E-09,1.052399,-9.501719E-09,1.327524
886.7863,-0.01458189,0.0006399092,NaN,-0.8200266,0.0006527416,NaN,-1.565953,-14.6522,NaN,-1.63959,-1.469808,-0.1257064,14.10062,NaN,NaN,-0.1345653,0.8156891,-4.780984E-09,1.049569,-7.117533E-09,1.325747
886.8008,-0.01458647,0.000639837,NaN,-0.819309,0.0006531609,NaN,-1.565907,-14.65249,NaN,-1.635682,-1.468778,-0.1296774,14.09956,NaN,NaN,-0.1349017,0.8153678,-2.247787E-09,1.048081,-9.501719E-09,1.328437
886.8158,-0.01458647,0.000639837,NaN,-0.819309,0.0006531609,NaN,-1.565907,-14.65249,NaN,-1.635682,-1.468778,-0.1296774,14.09956,NaN,NaN,-0.1349017,0.8153678,-2.247787E-09,1.048081,-9.501719E-09,1.328437
886.8299,-0.01459076,0.0006407743,NaN,-0.8186309,0.0006536595,NaN,-1.565872,-14.6532,NaN,-1.631983,-1.480557,-0.1335709,14.11215,NaN,NaN,-0.1352315,0.8151084,1.626515E-09,1.065288,-1.18859E-08,1.336216
886.8455,-0.01459483,0.000641094,NaN,-0.8179803,0.0006542225,NaN,-1.565841,-14.652,NaN,-1.628415,-1.471727,-0.1373874,14.10264,NaN,NaN,-0.1355548,0.8160774,5.649828E-09,1.05237,-1.18859E-08,1.326592
886.8604,-0.01459853,0.0006412489,NaN,-0.8174188,0.0006549905,NaN,-1.565779,-14.65279,NaN,-1.625513,-1.468181,-0.1395981,14.09897,NaN,NaN,-0.1357425,0.8151702,-1.204706E-09,1.047237,-1.665428E-08,1.329199
886.8751,-0.01459853,0.0006412489,NaN,-0.8174188,0.0006549905,NaN,-1.565779,-14.65279,NaN,-1.625513,-1.468181,-0.1395981,14.09897,NaN,NaN,-0.1357425,0.8151702,-1.204706E-09,1.047237,-1.665428E-08,1.329199
886.8894,-0.01460187,0.0006419523,NaN,-0.8169149,0.0006554798,NaN,-1.565735,-14.65382,NaN,-1.622957,-1.478837,-0.1417654,14.11042,NaN,NaN,-0.1359266,0.8145639,-4.333949E-09,1.062823,-1.665428E-08,1.33861
886.9051,-0.01460492,0.000643084,NaN,-0.8164486,0.000655963,NaN,-1.5657,-14.65263,NaN,-1.620591,-1.482538,-0.1438898,14.11419,NaN,NaN,-0.136107,0.8158545,-5.824065E-09,1.068168,-1.427009E-08,1.33363
886.92,-0.01460773,0.0006440221,NaN,-0.8160078,0.0006569142,NaN,-1.565668,-14.65215,NaN,-1.618338,-1.476166,-0.1459721,14.10736,NaN,NaN,-0.1362839,0.816184,-6.2711E-09,1.058854,-1.665428E-08,1.330004
886.9349,-0.01460773,0.0006440221,NaN,-0.8160078,0.0006569142,NaN,-1.565668,-14.65215,NaN,-1.618338,-1.476166,-0.1459721,14.10736,NaN,NaN,-0.1362839,0.816184,-6.2711E-09,1.058854,-1.665428E-08,1.330004
886.949,-0.01461016,0.00064489,NaN,-0.8156539,0.000656737,NaN,-1.565614,-14.65313,NaN,-1.616732,-1.48177,-0.1464863,14.11344,NaN,NaN,-0.1363281,0.815386,-1.625488E-08,1.067074,-1.903846E-08,1.334045
886.9645,-0.01461223,0.0006449445,NaN,-0.8153552,0.0006568886,NaN,-1.565575,-14.6525,NaN,-1.615453,-1.468653,-0.1469888,14.09944,NaN,NaN,-0.1363714,0.8156928,-2.310941E-08,1.047923,-1.903846E-08,1.326379
886.9808,-0.014614,0.0006449547,NaN,-0.815092,0.0006568575,NaN,-1.565541,-14.65372,NaN,-1.614346,-1.471825,-0.1474806,14.10296,NaN,NaN,-0.1364138,0.814607,-2.862284E-08,1.052606,-2.142265E-08,1.33311
886.9955,-0.014614,0.0006449547,NaN,-0.815092,0.0006568575,NaN,-1.565541,-14.65372,NaN,-1.614346,-1.471825,-0.1474806,14.10296,NaN,NaN,-0.1364138,0.814607,-2.862284E-08,1.052606,-2.142265E-08,1.33311
887.0084,-0.01461534,0.000645369,NaN,-0.8149211,0.0006564785,NaN,-1.565491,-14.65363,NaN,-1.613907,-1.481546,-0.1464363,14.11324,NaN,NaN,-0.1363263,0.8150271,-4.441807E-08,1.066756,-2.380683E-08,1.337776
887.0238,-0.0146163,0.0006456089,NaN,-0.814808,0.0006574196,NaN,-1.565451,-14.65274,NaN,-1.613796,-1.469363,-0.14541,14.1002,NaN,NaN,-0.1362404,0.8156143,-5.589197E-08,1.048959,-2.142265E-08,1.32823
887.0385,-0.0146163,0.0006456089,NaN,-0.814808,0.0006574196,NaN,-1.565451,-14.65274,NaN,-1.613796,-1.469363,-0.14541,14.1002,NaN,NaN,-0.1362404,0.8156143,-5.589197E-08,1.048959,-2.142265E-08,1.32823
887.0528,-0.01461709,0.0006456643,NaN,-0.814731,0.0006566322,NaN,-1.565416,-14.65282,NaN,-1.613851,-1.48103,-0.1444024,14.11259,NaN,NaN,-0.1361561,0.815962,-6.513068E-08,1.065971,-2.380683E-08,1.331459
887.0681,-0.01461778,0.0006461491,NaN,-0.8146767,0.0006574347,NaN,-1.565382,-14.65397,NaN,-1.613988,-1.473094,-0.1434137,14.10428,NaN,NaN,-0.1360736,0.8146024,-7.362435E-08,1.054429,-2.85752E-08,1.337136
887.0832,-0.0146183,0.000645999,NaN,-0.8147044,0.0006577783,NaN,-1.56533,-14.65261,NaN,-1.61474,-1.46884,-0.1409175,14.09959,NaN,NaN,-0.1358634,0.8157949,-9.165475E-08,1.048167,-3.095939E-08,1.327102
887.0978,-0.0146183,0.000645999,NaN,-0.8147044,0.0006577783,NaN,-1.56533,-14.65261,NaN,-1.61474,-1.46884,-0.1409175,14.09959,NaN,NaN,-0.1358634,0.8157949,-9.165475E-08,1.048167,-3.095939E-08,1.327102
887.1121,-0.01461869,0.0006460322,NaN,-0.8147826,0.0006569925,NaN,-1.565286,-14.65373,NaN,-1.615786,-1.479942,-0.1384671,14.11153,NaN,NaN,-0.1356573,0.8150889,-1.056618E-07,1.064416,-2.619102E-08,1.336273
887.1277,-0.014619,0.0006452617,NaN,-0.8148915,0.0006562257,NaN,-1.565244,-14.65309,NaN,-1.61697,-1.469601,-0.1360631,14.10048,NaN,NaN,-0.1354553,0.8154418,-1.172848E-07,1.049316,-2.857521E-08,1.330587
887.1424,-0.01461927,0.0006448163,NaN,-0.815019,0.0006552511,NaN,-1.565202,-14.65347,NaN,-1.618215,-1.474865,-0.133705,14.10612,NaN,NaN,-0.1352571,0.8152407,-1.278646E-07,1.057014,-2.619102E-08,1.333248
887.1575,-0.01461927,0.0006448163,NaN,-0.815019,0.0006552511,NaN,-1.565202,-14.65347,NaN,-1.618215,-1.474865,-0.133705,14.10612,NaN,NaN,-0.1352571,0.8152407,-1.278646E-07,1.057014,-2.619102E-08,1.333248
887.1713,-0.01461938,0.0006448959,NaN,-0.8152267,0.0006560075,NaN,-1.565138,-14.65314,NaN,-1.620055,-1.469519,-0.129864,14.1004,NaN,NaN,-0.1349337,0.8153798,-1.467891E-07,1.049205,-2.380684E-08,1.330995
887.187,-0.01461937,0.0006450348,NaN,-0.8154829,0.0006570333,NaN,-1.56508,-14.65364,NaN,-1.622171,-1.468671,-0.126095,14.09957,NaN,NaN,-0.1346166,0.8148389,-1.628078E-07,1.047995,-1.903846E-08,1.333015
887.2017,-0.01461928,0.0006458167,NaN,-0.8157679,0.0006574779,NaN,-1.565023,-14.65403,NaN,-1.624409,-1.480678,-0.1223978,14.11235,NaN,NaN,-0.1343056,0.8148884,-1.760698E-07,1.065508,-2.142265E-08,1.338989
887.2177,-0.01461928,0.0006458167,NaN,-0.8157679,0.0006574779,NaN,-1.565023,-14.65403,NaN,-1.624409,-1.480678,-0.1223978,14.11235,NaN,NaN,-0.1343056,0.8148884,-1.760698E-07,1.065508,-2.142265E-08,1.338989
887.2319,-0.01461901,0.000646186,NaN,-0.8161387,0.0006576093,NaN,-1.564937,-14.65414,NaN,-1.627265,-1.474334,-0.1172405,14.10563,NaN,NaN,-0.1338715,0.8146067,-1.97751E-07,1.056267,-1.903846E-08,1.335369
887.2461,-0.01461862,0.000646823,NaN,-0.8165607,0.0006573414,NaN,-1.564857,-14.65373,NaN,-1.630402,-1.482905,-0.1121807,14.11465,NaN,NaN,-0.1334459,0.8152694,-2.153344E-07,1.06873,-2.142265E-08,1.335812
887.2609,-0.01461814,0.0006470213,NaN,-0.8170126,0.0006581313,NaN,-1.564777,-14.65322,NaN,-1.633655,-1.469138,-0.1072175,14.09997,NaN,NaN,-0.1330287,0.8154617,-2.29863E-07,1.048634,-1.903846E-08,1.32696
887.2758,-0.01461814,0.0006470213,NaN,-0.8170126,0.0006581313,NaN,-1.564777,-14.65322,NaN,-1.633655,-1.469138,-0.1072175,14.09997,NaN,NaN,-0.1330287,0.8154617,-2.29863E-07,1.048634,-1.903846E-08,1.32696
887.2897,-0.01461761,0.0006476198,NaN,-0.8174808,0.0006581721,NaN,-1.564697,-14.65366,NaN,-1.636942,-1.481501,-0.1023494,14.11314,NaN,NaN,-0.1326195,0.815478,-2.430506E-07,1.066673,-2.142265E-08,1.334854
887.3054,-0.01461691,0.0006472908,NaN,-0.8180262,0.000658097,NaN,-1.564574,-14.653,NaN,-1.640797,-1.470585,-0.09603884,14.10146,NaN,NaN,-0.1320892,0.8158738,-2.632416E-07,1.050723,-2.142265E-08,1.327484
887.3201,-0.01461609,0.0006471826,NaN,-0.8186169,0.0006574036,NaN,-1.564459,-14.65261,NaN,-1.6449,-1.480549,-0.08984902,14.11197,NaN,NaN,-0.1315692,0.8166182,-2.79931E-07,1.065226,-2.380683E-08,1.328391
887.3352,-0.01461609,0.0006471826,NaN,-0.8186169,0.0006574036,NaN,-1.564459,-14.65261,NaN,-1.6449,-1.480549,-0.08984902,14.11197,NaN,NaN,-0.1315692,0.8166182,-2.79931E-07,1.065226,-2.380683E-08,1.328391
887.3496,-0.01461519,0.0006474731,NaN,-0.8192329,0.0006573973,NaN,-1.564346,-14.65449,NaN,-1.649096,-1.477461,-0.08377796,14.10889,NaN,NaN,-0.1310594,0.8146576,-2.928205E-07,1.060779,-1.903846E-08,1.33803
887.3649,-0.01461424,0.0006477665,NaN,-0.8198617,0.0006584944,NaN,-1.564232,-14.65319,NaN,-1.653308,-1.469746,-0.07782343,14.10054,NaN,NaN,-0.1305596,0.8157287,-3.047414E-07,1.049476,-1.903846E-08,1.32868
887.3799,-0.01461424,0.0006477665,NaN,-0.8198617,0.0006584944,NaN,-1.564232,-14.65319,NaN,-1.653308,-1.469746,-0.07782343,14.10054,NaN,NaN,-0.1305596,0.8157287,-3.047414E-07,1.049476,-1.903846E-08,1.32868
887.3942,-0.01461313,0.0006484155,NaN,-0.8205649,0.0006591217,NaN,-1.564057,-14.65445,NaN,-1.658072,-1.477813,-0.0704406,14.10927,NaN,NaN,-0.1299403,0.8147719,-3.215052E-07,1.061301,-2.142265E-08,1.338113
887.4096,-0.01461184,0.0006489328,NaN,-0.8213109,0.0006588108,NaN,-1.563896,-14.65388,NaN,-1.663068,-1.483412,-0.06320044,14.11513,NaN,NaN,-0.1293331,0.8154963,-3.359966E-07,1.069435,-1.903846E-08,1.335187
887.4242,-0.01461031,0.0006496317,NaN,-0.8220799,0.0006596399,NaN,-1.563738,-14.65282,NaN,-1.668144,-1.475901,-0.05609986,14.10703,NaN,NaN,-0.1287378,0.8163781,-3.462038E-07,1.05844,-1.427009E-08,1.329762
887.4404,-0.01460859,0.0006490085,NaN,-0.8228596,0.0006593021,NaN,-1.56358,-14.6535,NaN,-1.673224,-1.469553,-0.04913567,14.10036,NaN,NaN,-0.1281542,0.8155186,-3.559269E-07,1.049204,-1.903846E-08,1.326763
887.454,-0.01460859,0.0006490085,NaN,-0.8228596,0.0006593021,NaN,-1.56358,-14.6535,NaN,-1.673224,-1.469553,-0.04913567,14.10036,NaN,NaN,-0.1281542,0.8155186,-3.559269E-07,1.049204,-1.903846E-08,1.326763
887.468,-0.01460652,0.0006487099,NaN,-0.8237119,0.0006595135,NaN,-1.56334,-14.65327,NaN,-1.678842,-1.471093,-0.04075473,14.10195,NaN,NaN,-0.1274527,0.8158057,-3.703065E-07,1.051435,-2.380683E-08,1.329737
887.4834,-0.01460411,0.0006491942,NaN,-0.824605,0.000659432,NaN,-1.563121,-14.65361,NaN,-1.68468,-1.481553,-0.03253707,14.11311,NaN,NaN,-0.126765,0.8158367,-3.80551E-07,1.066707,-2.85752E-08,1.333214
887.4982,-0.01460411,0.0006491942,NaN,-0.824605,0.000659432,NaN,-1.563121,-14.65361,NaN,-1.68468,-1.481553,-0.03253707,14.11311,NaN,NaN,-0.126765,0.8158367,-3.80551E-07,1.066707,-2.85752E-08,1.333214
887.5123,-0.01460142,0.0006496458,NaN,-0.8255193,0.0006587935,NaN,-1.562907,-14.65337,NaN,-1.690586,-1.483302,-0.02447864,14.11493,NaN,NaN,-0.1260907,0.8161191,-3.882065E-07,1.069251,-3.095939E-08,1.330581
887.528,-0.01459831,0.0006495283,NaN,-0.8265119,0.0006582027,NaN,-1.562596,-14.65275,NaN,-1.697057,-1.47453,-0.01501821,14.10553,NaN,NaN,-0.1253003,0.8165284,-4.003696E-07,1.056426,-2.857521E-08,1.32461
887.5427,-0.01459481,0.0006496648,NaN,-0.8275484,0.0006580995,NaN,-1.562312,-14.65325,NaN,-1.703755,-1.47657,-0.005742682,14.10777,NaN,NaN,-0.1245255,0.8160925,-4.078202E-07,1.05943,-3.334358E-08,1.330648
887.5575,-0.01459481,0.0006496648,NaN,-0.8275484,0.0006580995,NaN,-1.562312,-14.65325,NaN,-1.703755,-1.47657,-0.005742682,14.10777,NaN,NaN,-0.1245255,0.8160925,-4.078202E-07,1.05943,-3.334358E-08,1.330648
887.5717,-0.014591,0.0006494768,NaN,-0.8286073,0.0006579993,NaN,-1.562035,-14.6536,NaN,-1.710518,-1.470856,0.003352573,14.10174,NaN,NaN,-0.1237658,0.8155738,-4.118714E-07,1.051111,-3.334358E-08,1.325404
887.5874,-0.01458695,0.0006492778,NaN,-0.8296753,0.0006573242,NaN,-1.561758,-14.65466,NaN,-1.717266,-1.476102,0.0122728,14.10745,NaN,NaN,-0.123021,0.8147002,-4.144588E-07,1.058816,-3.572777E-08,1.33174
887.6023,-0.01458511,0.0006485963,NaN,-0.8299127,0.0006568726,NaN,-1.562989,-14.65335,NaN,-1.717072,-1.46941,0.002226715,14.10019,NaN,NaN,-0.1238424,0.8157995,-3.730848E-07,1.04901,-3.572777E-08,1.323933
887.6172,-0.01458511,0.0006485963,NaN,-0.8299127,0.0006568726,NaN,-1.562989,-14.65335,NaN,-1.717072,-1.46941,0.002226715,14.10019,NaN,NaN,-0.1238424,0.8157995,-3.730848E-07,1.04901,-3.572777E-08,1.323933
887.6312,-0.01458524,0.0006480433,NaN,-0.829638,0.0006569974,NaN,-1.563625,-14.65379,NaN,-1.713514,-1.467758,-0.007523068,14.0985,NaN,NaN,-0.1246477,0.8152966,-3.502487E-07,1.046624,-4.288032E-08,1.325157
887.6467,-0.01458638,0.0006472886,NaN,-0.8290485,0.0006574204,NaN,-1.563979,-14.65391,NaN,-1.708315,-1.467004,-0.01699424,14.09771,NaN,NaN,-0.1254371,0.8151463,-3.297596E-07,1.04553,-4.288032E-08,1.326711
887.6628,-0.01458834,0.0006466917,NaN,-0.8282673,0.0006560617,NaN,-1.564197,-14.65366,NaN,-1.702333,-1.48018,-0.02623756,14.11165,NaN,NaN,-0.126211,0.8159092,-3.103509E-07,1.064716,-4.526451E-08,1.328207
887.6777,-0.01458834,0.0006466917,NaN,-0.8282673,0.0006560617,NaN,-1.564197,-14.65366,NaN,-1.702333,-1.48018,-0.02623756,14.11165,NaN,NaN,-0.126211,0.8159092,-3.103509E-07,1.064716,-4.526451E-08,1.328207
887.6908,-0.01459101,0.0006461634,NaN,-0.8274407,0.0006556117,NaN,-1.564237,-14.65519,NaN,-1.696572,-1.473611,-0.0337185,14.10484,NaN,NaN,-0.1268405,0.8141906,-2.976849E-07,1.05519,-5.003288E-08,1.334221
887.706,-0.01459418,0.000645469,NaN,-0.8265896,0.000655235,NaN,-1.564294,-14.65426,NaN,-1.690951,-1.468281,-0.04105191,14.09908,NaN,NaN,-0.1274576,0.8149332,-2.855777E-07,1.047386,-5.003288E-08,1.326129
887.7207,-0.01459771,0.0006451464,NaN,-0.8257273,0.0006543108,NaN,-1.564354,-14.65394,NaN,-1.685434,-1.4803,-0.04824132,14.11177,NaN,NaN,-0.1280625,0.815698,-2.739175E-07,1.064879,-5.003288E-08,1.330299
887.7357,-0.01459771,0.0006451464,NaN,-0.8257273,0.0006543108,NaN,-1.564354,-14.65394,NaN,-1.685434,-1.4803,-0.04824132,14.11177,NaN,NaN,-0.1280625,0.815698,-2.739175E-07,1.064879,-5.003288E-08,1.330299
887.7499,-0.0146013,0.0006447949,NaN,-0.8249313,0.0006541752,NaN,-1.564319,-14.65361,NaN,-1.68058,-1.470339,-0.05373434,14.10114,NaN,NaN,-0.1285263,0.8157499,-2.669885E-07,1.050336,-4.288032E-08,1.325312
887.7655,-0.01460484,0.0006450344,NaN,-0.8241796,0.000653677,NaN,-1.564325,-14.65393,NaN,-1.676082,-1.481332,-0.05912638,14.11286,NaN,NaN,-0.1289811,0.8158119,-2.587184E-07,1.066383,-4.526451E-08,1.331227
