JMolnar6/NonAnthroHands_User_Study/HandsLoggerWithURDF/tempdata/PID 0 (test)/files/Reachy_JointMotion_gesture_7_36.csv
Time,r_shoulder,r_shoulder_x,r_upper_arm,r_forearm,r_wrist,r_wrist2hand,
688.5716,0.04496618,0.0004994484,NaN,-0.3272867,0.0004115457,NaN,-0.5143979,-14.45014,NaN,-1.321455,-1.465632,0.3265396,14.11196,NaN,NaN,0.3712863,0.8112158,0.8063332,1.038743,-4.751024E-05,1.37586
688.5872,0.04496631,0.0004995535,NaN,-0.3272847,0.0004108821,NaN,-0.5138092,-14.45095,NaN,-1.320813,-1.477493,0.3261161,14.12454,NaN,NaN,0.3705589,0.8107088,0.8076993,1.055989,-4.657612E-05,1.384095
688.6013,0.04496645,0.0004998881,NaN,-0.3272826,0.0004100696,NaN,-0.5128359,-14.45124,NaN,-1.320724,-1.478994,0.3252025,14.12614,NaN,NaN,0.3701965,0.8104348,0.8085425,1.058172,-4.56618E-05,1.385562
688.6163,0.04496645,0.0004998881,NaN,-0.3272826,0.0004100696,NaN,-0.5128359,-14.45124,NaN,-1.320724,-1.478994,0.3252025,14.12614,NaN,NaN,0.3701965,0.8104348,0.8085425,1.058172,-4.56618E-05,1.385562
688.6322,0.04496659,0.0005002458,NaN,-0.3272806,0.0004097891,NaN,-0.5120677,-14.45037,NaN,-1.320755,-1.474623,0.3243218,14.12145,NaN,NaN,0.3697578,0.8112471,0.8089744,1.051814,-4.47655E-05,1.377251
688.6465,0.04496673,0.0005003294,NaN,-0.3272786,0.0004095377,NaN,-0.5114585,-14.44997,NaN,-1.32077,-1.471646,0.323524,14.11827,NaN,NaN,0.3692101,0.811596,0.8090513,1.04748,-4.389889E-05,1.376646
688.6617,0.04496686,0.000500798,NaN,-0.3272767,0.000409117,NaN,-0.5122461,-14.45107,NaN,-1.320493,-1.477525,0.3238906,14.12458,NaN,NaN,0.3691697,0.8106099,0.8105937,1.056049,-4.302683E-05,1.384014
688.6767,0.04496686,0.000500798,NaN,-0.3272767,0.000409117,NaN,-0.5122461,-14.45107,NaN,-1.320493,-1.477525,0.3238906,14.12458,NaN,NaN,0.3691697,0.8106099,0.8105937,1.056049,-4.302683E-05,1.384014
688.691,0.044967,0.0005009184,NaN,-0.3272748,0.0004091268,NaN,-0.5126497,-14.44979,NaN,-1.320298,-1.469241,0.32395,14.11572,NaN,NaN,0.3700487,0.8117712,0.8114568,1.043999,-4.218654E-05,1.374926
688.7068,0.04496709,0.0005015781,NaN,-0.3272729,0.0004088953,NaN,-0.5116827,-14.45019,NaN,-1.321148,-1.477883,0.3227358,14.12487,NaN,NaN,0.3716277,0.8115513,0.8093455,1.056563,-4.136561E-05,1.379157
688.7222,0.04496719,0.0005021853,NaN,-0.3272711,0.0004085226,NaN,-0.513557,-14.45109,NaN,-1.320548,-1.478579,0.3238507,14.12569,NaN,NaN,0.3714834,0.810657,0.8107308,1.057586,-4.055316E-05,1.383326
688.7372,0.04496719,0.0005021853,NaN,-0.3272711,0.0004085226,NaN,-0.513557,-14.45109,NaN,-1.320548,-1.478579,0.3238507,14.12569,NaN,NaN,0.3714834,0.810657,0.8107308,1.057586,-4.055316E-05,1.383326
688.7526,0.04496719,0.0005026007,NaN,-0.3272693,0.0004085075,NaN,-0.5117216,-14.44987,NaN,-1.323267,-1.474006,0.3219183,14.12074,NaN,NaN,0.3745796,0.8118145,0.8063305,1.050922,-3.975149E-05,1.374586
688.7674,0.04496724,0.0005022849,NaN,-0.3272675,0.0004084083,NaN,-0.5150945,-14.44952,NaN,-1.321129,-1.466619,0.3244666,14.1129,NaN,NaN,0.3734851,0.8120434,0.8095025,1.040177,-3.896688E-05,1.371348
688.7826,0.04496722,0.0005021051,NaN,-0.3272658,0.0004076143,NaN,-0.5135469,-14.45079,NaN,-1.323714,-1.477064,0.3229221,14.12407,NaN,NaN,0.376846,0.8110272,0.8062541,1.055396,-3.822095E-05,1.380629
688.7975,0.04496722,0.0005021051,NaN,-0.3272658,0.0004076143,NaN,-0.5135469,-14.45079,NaN,-1.323714,-1.477064,0.3229221,14.12407,NaN,NaN,0.376846,0.8110272,0.8062541,1.055396,-3.822095E-05,1.380629
688.8118,0.04496726,0.0005017171,NaN,-0.3272641,0.0004072595,NaN,-0.5123777,-14.4494,NaN,-1.322707,-1.469235,0.3228674,14.11567,NaN,NaN,0.3793443,0.812301,0.8069049,1.043999,-3.746865E-05,1.371032
688.8276,0.0449673,0.0005010315,NaN,-0.3272624,0.0004068712,NaN,-0.51182,-14.44972,NaN,-1.323909,-1.467534,0.3230493,14.11391,NaN,NaN,0.3844643,0.8119472,0.8097227,1.041535,-3.672259E-05,1.37062
688.8431,0.04496723,0.0005005682,NaN,-0.3272608,0.0004065775,NaN,-0.5106576,-14.45041,NaN,-1.327,-1.469864,0.3218975,14.11645,NaN,NaN,0.389632,0.8113196,0.8073815,1.04494,-3.599681E-05,1.375598
688.8577,0.04496723,0.0005005682,NaN,-0.3272608,0.0004065775,NaN,-0.5106576,-14.45041,NaN,-1.327,-1.469864,0.3218975,14.11645,NaN,NaN,0.389632,0.8113196,0.8073815,1.04494,-3.599681E-05,1.375598
688.8722,0.04496726,0.0005003958,NaN,-0.3272591,0.0004057706,NaN,-0.5095655,-14.45077,NaN,-1.32601,-1.477468,0.3220474,14.12449,NaN,NaN,0.3927599,0.8111181,0.8073908,1.055991,-3.529314E-05,1.380503
688.8881,0.04496728,0.0004995678,NaN,-0.3272575,0.0004050611,NaN,-0.5086426,-14.44965,NaN,-1.327841,-1.467579,0.3226001,14.11396,NaN,NaN,0.3996714,0.8120945,0.8094739,1.041611,-3.458714E-05,1.372185
688.903,0.04496719,0.0004988436,NaN,-0.3272559,0.0004043699,NaN,-0.5070914,-14.4496,NaN,-1.331311,-1.470953,0.3217892,14.11751,NaN,NaN,0.4067215,0.812228,0.8073961,1.046516,-3.392274E-05,1.371974
688.9182,0.04496719,0.0004988436,NaN,-0.3272559,0.0004043699,NaN,-0.5070914,-14.4496,NaN,-1.331311,-1.470953,0.3217892,14.11751,NaN,NaN,0.4067215,0.812228,0.8073961,1.046516,-3.392274E-05,1.371974
688.9336,0.04496718,0.0004986802,NaN,-0.3272544,0.000403761,NaN,-0.5061795,-14.45101,NaN,-1.331052,-1.475101,0.3225657,14.12206,NaN,NaN,0.4119212,0.8109019,0.8081602,1.05259,-3.325012E-05,1.380766
688.9485,0.04496717,0.0004986809,NaN,-0.3272528,0.0004040447,NaN,-0.5055543,-14.44976,NaN,-1.332691,-1.467571,0.3235328,14.114,NaN,NaN,0.4189393,0.8120258,0.8100413,1.041634,-3.259656E-05,1.371588
688.9635,0.04496711,0.0004985139,NaN,-0.3272513,0.0004044263,NaN,-0.5038691,-14.45,NaN,-1.335452,-1.46524,0.3232742,14.11157,NaN,NaN,0.4263657,0.8117363,0.8087421,1.038257,-3.196249E-05,1.372271
688.9784,0.04496711,0.0004985139,NaN,-0.3272513,0.0004044263,NaN,-0.5038691,-14.45,NaN,-1.335452,-1.46524,0.3232742,14.11157,NaN,NaN,0.4263657,0.8117363,0.8087421,1.038257,-3.196249E-05,1.372271
688.9928,0.04496701,0.0004984333,NaN,-0.3272499,0.0004049104,NaN,-0.5021231,-14.45061,NaN,-1.337739,-1.464837,0.3229952,14.11122,NaN,NaN,0.4324058,0.8111173,0.8060562,1.037695,-3.133934E-05,1.375696
689.0085,0.04496694,0.0004984097,NaN,-0.3272484,0.0004045346,NaN,-0.5031177,-14.45168,NaN,-1.338109,-1.475178,0.3254563,14.12224,NaN,NaN,0.4364251,0.810321,0.8077373,1.052746,-3.071919E-05,1.38258
689.0236,0.04496684,0.0004984359,NaN,-0.327247,0.0004050606,NaN,-0.5005121,-14.45054,NaN,-1.340468,-1.4659,0.3250215,14.11236,NaN,NaN,0.4425635,0.8113176,0.8053626,1.03926,-3.012006E-05,1.375767
689.0388,0.04496684,0.0004984359,NaN,-0.327247,0.0004050606,NaN,-0.5005121,-14.45054,NaN,-1.340468,-1.4659,0.3250215,14.11236,NaN,NaN,0.4425635,0.8113176,0.8053626,1.03926,-3.012006E-05,1.375767
689.0531,0.04496682,0.0004977265,NaN,-0.3272455,0.0004049292,NaN,-0.4996138,-14.45002,NaN,-1.340439,-1.464959,0.3268266,14.11129,NaN,NaN,0.4476843,0.8118026,0.8078743,1.037875,-2.953075E-05,1.373495
689.0689,0.04496677,0.0004973587,NaN,-0.3272441,0.0004052794,NaN,-0.4982004,-14.45004,NaN,-1.342791,-1.465597,0.3277111,14.11196,NaN,NaN,0.4545601,0.8118027,0.8090784,1.0388,-2.895978E-05,1.373189
689.0842,0.04496667,0.000497048,NaN,-0.3272427,0.0004049471,NaN,-0.4965257,-14.45142,NaN,-1.345218,-1.473518,0.327908,14.12049,NaN,NaN,0.4603772,0.8106224,0.8073552,1.050357,-2.839357E-05,1.381205
689.0994,0.04496667,0.000497048,NaN,-0.3272427,0.0004049471,NaN,-0.4965257,-14.45142,NaN,-1.345218,-1.473518,0.327908,14.12049,NaN,NaN,0.4603772,0.8106224,0.8073552,1.050357,-2.839357E-05,1.381205
689.1153,0.04496659,0.0004963657,NaN,-0.3272413,0.0004048533,NaN,-0.4967221,-14.45016,NaN,-1.345995,-1.465232,0.3301369,14.11163,NaN,NaN,0.4644454,0.8117326,0.8080048,1.038305,-2.78423E-05,1.372457
689.1296,0.04496649,0.0004956086,NaN,-0.3272399,0.0004042611,NaN,-0.4942121,-14.45105,NaN,-1.34806,-1.471376,0.3302657,14.11822,NaN,NaN,0.4699143,0.8110034,0.805675,1.047262,-2.72929E-05,1.377387
689.1444,0.04496639,0.0004946829,NaN,-0.3272386,0.0004039954,NaN,-0.4936303,-14.4502,NaN,-1.349297,-1.465453,0.3321388,14.11188,NaN,NaN,0.473993,0.8117341,0.8062023,1.03864,-2.673559E-05,1.372043
689.1597,0.04496639,0.0004946829,NaN,-0.3272386,0.0004039954,NaN,-0.4936303,-14.4502,NaN,-1.349297,-1.465453,0.3321388,14.11188,NaN,NaN,0.473993,0.8117341,0.8062023,1.03864,-2.673559E-05,1.372043
689.1739,0.04496637,0.0004945926,NaN,-0.3272372,0.0004046595,NaN,-0.4921523,-14.4509,NaN,-1.349522,-1.464573,0.3342461,14.11104,NaN,NaN,0.4792213,0.8110131,0.8087094,1.037385,-2.620153E-05,1.377121
689.1897,0.04496628,0.0004944719,NaN,-0.3272359,0.0004049138,NaN,-0.4904831,-14.45169,NaN,-1.352489,-1.467415,0.3350245,14.11413,NaN,NaN,0.4853081,0.8102951,0.808317,1.041539,-2.571039E-05,1.379914
689.2048,0.04496624,0.0004947521,NaN,-0.3272346,0.0004053522,NaN,-0.4910753,-14.45205,NaN,-1.352606,-1.468896,0.3382885,14.11572,NaN,NaN,0.4891472,0.8099752,0.810605,1.043696,-2.519369E-05,1.384802
689.2197,0.04496624,0.0004947521,NaN,-0.3272346,0.0004053522,NaN,-0.4910753,-14.45205,NaN,-1.352606,-1.468896,0.3382885,14.11572,NaN,NaN,0.4891472,0.8099752,0.810605,1.043696,-2.519369E-05,1.384802
689.2342,0.04496614,0.0004949312,NaN,-0.3272333,0.0004054026,NaN,-0.4883255,-14.45223,NaN,-1.355454,-1.471709,0.3383009,14.11869,NaN,NaN,0.4951769,0.8098478,0.807505,1.04778,-2.469719E-05,1.383692
689.2501,0.04496602,0.0004954591,NaN,-0.327232,0.0004051446,NaN,-0.487585,-14.45172,NaN,-1.356884,-1.478225,0.3401642,14.12547,NaN,NaN,0.4988249,0.8104739,0.806464,1.057214,-2.420493E-05,1.383938
689.2654,0.04496599,0.0004960433,NaN,-0.3272307,0.0004056341,NaN,-0.4855213,-14.45059,NaN,-1.357303,-1.47168,0.34231,14.11845,NaN,NaN,0.5038431,0.8115211,0.807866,1.047693,-2.372899E-05,1.375287
689.2803,0.04496589,0.0004965059,NaN,-0.3272295,0.0004065835,NaN,-0.4840838,-14.45088,NaN,-1.359799,-1.46536,0.3439075,14.11182,NaN,NaN,0.5090503,0.8111181,0.8081732,1.03852,-2.327785E-05,1.37691
689.2954,0.04496589,0.0004965059,NaN,-0.3272295,0.0004065835,NaN,-0.4840838,-14.45088,NaN,-1.359799,-1.46536,0.3439075,14.11182,NaN,NaN,0.5090503,0.8111181,0.8081732,1.03852,-2.327785E-05,1.37691
689.3098,0.0449658,0.0004968055,NaN,-0.3272282,0.0004070746,NaN,-0.4826338,-14.45153,NaN,-1.361322,-1.467422,0.3455157,14.11407,NaN,NaN,0.5131922,0.8105193,0.807684,1.041536,-2.278999E-05,1.379645
689.3254,0.0449657,0.0004970497,NaN,-0.327227,0.0004070461,NaN,-0.4811422,-14.4521,NaN,-1.362755,-1.473139,0.3472995,14.12015,NaN,NaN,0.5171675,0.8100858,0.8072802,1.049847,-2.23285E-05,1.382904
689.3403,0.0449656,0.0004970078,NaN,-0.3272258,0.0004070842,NaN,-0.4794335,-14.45055,NaN,-1.364249,-1.469116,0.349022,14.11574,NaN,NaN,0.521142,0.8115594,0.8069377,1.043972,-2.187118E-05,1.374895
689.3554,0.0449656,0.0004970078,NaN,-0.3272258,0.0004070842,NaN,-0.4794335,-14.45055,NaN,-1.364249,-1.469116,0.349022,14.11574,NaN,NaN,0.521142,0.8115594,0.8069377,1.043972,-2.187118E-05,1.374895
689.3696,0.04496549,0.0004966994,NaN,-0.3272246,0.0004073368,NaN,-0.4774714,-14.45092,NaN,-1.365805,-1.465129,0.3505999,14.11158,NaN,NaN,0.5250806,0.8110955,0.8065629,1.038194,-2.143026E-05,1.374557
689.3856,0.04496538,0.0004968619,NaN,-0.3272234,0.000406883,NaN,-0.4752799,-14.45153,NaN,-1.367418,-1.477049,0.3520368,14.1242,NaN,NaN,0.5289345,0.8107997,0.8061359,1.055519,-2.097488E-05,1.382488
689.4005,0.04496527,0.0004970531,NaN,-0.3272222,0.0004074239,NaN,-0.4729198,-14.45071,NaN,-1.369053,-1.467341,0.3533596,14.11389,NaN,NaN,0.5326526,0.8114902,0.8057159,1.041413,-2.056882E-05,1.375994
689.4157,0.04496527,0.0004970531,NaN,-0.3272222,0.0004074239,NaN,-0.4729198,-14.45071,NaN,-1.369053,-1.467341,0.3533596,14.11389,NaN,NaN,0.5326526,0.8114902,0.8057159,1.041413,-2.056882E-05,1.375994
689.4302,0.04496514,0.0004972846,NaN,-0.327221,0.0004072057,NaN,-0.4704655,-14.45198,NaN,-1.370671,-1.475936,0.3546488,14.1231,NaN,NaN,0.5361776,0.8104366,0.8053586,1.053937,-2.017826E-05,1.383425
689.4459,0.04496502,0.0004974749,NaN,-0.3272198,0.0004075781,NaN,-0.4679555,-14.45076,NaN,-1.372266,-1.469282,0.3559141,14.11597,NaN,NaN,0.5395109,0.8115629,0.8050841,1.044259,-1.977891E-05,1.374249
689.4612,0.04496488,0.0004975897,NaN,-0.3272187,0.0004079074,NaN,-0.4654523,-14.45161,NaN,-1.37381,-1.468252,0.3572246,14.11499,NaN,NaN,0.5426312,0.8107041,0.804917,1.042791,-1.939789E-05,1.378515
689.4766,0.04496488,0.0004975897,NaN,-0.3272187,0.0004079074,NaN,-0.4654523,-14.45161,NaN,-1.37381,-1.468252,0.3572246,14.11499,NaN,NaN,0.5426312,0.8107041,0.804917,1.042791,-1.939789E-05,1.378515
689.4908,0.04496475,0.0004979361,NaN,-0.3272175,0.0004080893,NaN,-0.4629596,-14.4521,NaN,-1.37532,-1.471877,0.3585509,14.11886,NaN,NaN,0.5455746,0.8103055,0.8048153,1.048068,-1.901568E-05,1.383126
689.5062,0.04496461,0.0004974099,NaN,-0.3272164,0.0004078555,NaN,-0.460565,-14.4507,NaN,-1.376749,-1.46594,0.3599928,14.11246,NaN,NaN,0.5483109,0.8115984,0.8048402,1.03942,-1.863436E-05,1.374226
689.5211,0.04496447,0.0004968375,NaN,-0.3272153,0.0004078201,NaN,-0.4581898,-14.45071,NaN,-1.378161,-1.465596,0.3614405,14.11209,NaN,NaN,0.5509205,0.8115795,0.8048427,1.038923,-1.827568E-05,1.373095
689.5361,0.04496447,0.0004968375,NaN,-0.3272153,0.0004078201,NaN,-0.4581898,-14.45071,NaN,-1.378161,-1.465596,0.3614405,14.11209,NaN,NaN,0.5509205,0.8115795,0.8048427,1.038923,-1.827568E-05,1.373095
689.5505,0.04496433,0.0004964602,NaN,-0.3272142,0.0004078831,NaN,-0.4560362,-14.45139,NaN,-1.37945,-1.46753,0.3631174,14.11422,NaN,NaN,0.5533134,0.8109586,0.8050668,1.041759,-1.792282E-05,1.377173
689.5663,0.04496419,0.0004963709,NaN,-0.327213,0.0004083104,NaN,-0.4537654,-14.45142,NaN,-1.38081,-1.466176,0.3646472,14.11279,NaN,NaN,0.5556917,0.8109007,0.8050026,1.039794,-1.756147E-05,1.377797
689.5813,0.04496405,0.000495737,NaN,-0.327212,0.0004080262,NaN,-0.4520812,-14.45093,NaN,-1.381864,-1.467718,0.3667822,14.11435,NaN,NaN,0.5577059,0.811424,0.8056405,1.042016,-1.720757E-05,1.375455
689.5978,0.04496405,0.000495737,NaN,-0.327212,0.0004080262,NaN,-0.4520812,-14.45093,NaN,-1.381864,-1.467718,0.3667822,14.11435,NaN,NaN,0.5577059,0.811424,0.8056405,1.042016,-1.720757E-05,1.375455
689.6108,0.04496396,0.0004957595,NaN,-0.3272109,0.0004083746,NaN,-0.4489538,-14.45153,NaN,-1.383027,-1.468002,0.3682581,14.11472,NaN,NaN,0.5613162,0.8108317,0.8061748,1.042448,-1.685784E-05,1.379322
689.6269,0.04496383,0.0004957535,NaN,-0.3272098,0.0004088227,NaN,-0.4462278,-14.45115,NaN,-1.385007,-1.465266,0.3693464,14.11179,NaN,NaN,0.5647374,0.8111557,0.8060492,1.038463,-1.652212E-05,1.375423
689.6418,0.04496373,0.0004952961,NaN,-0.3272087,0.0004089796,NaN,-0.4430825,-14.45105,NaN,-1.386348,-1.464145,0.3706732,14.11059,NaN,NaN,0.5684819,0.8112183,0.806368,1.036833,-1.619042E-05,1.37301
689.6577,0.04496373,0.0004952961,NaN,-0.3272087,0.0004089796,NaN,-0.4430825,-14.45105,NaN,-1.386348,-1.464145,0.3706732,14.11059,NaN,NaN,0.5684819,0.8112183,0.806368,1.036833,-1.619042E-05,1.37301
689.6711,0.0449636,0.0004945236,NaN,-0.3272077,0.0004089471,NaN,-0.4404946,-14.45063,NaN,-1.388288,-1.463925,0.3718888,14.1103,NaN,NaN,0.5717506,0.811631,0.8062277,1.036496,-1.58842E-05,1.370919
689.6868,0.04496351,0.0004932631,NaN,-0.3272066,0.0004085116,NaN,-0.4374533,-14.45065,NaN,-1.389594,-1.46368,0.3733908,14.11004,NaN,NaN,0.5754077,0.8116004,0.8066123,1.03614,-1.557693E-05,1.371719
689.7017,0.04496337,0.0004921591,NaN,-0.3272056,0.0004073257,NaN,-0.4348168,-14.45119,NaN,-1.391532,-1.475483,0.3746433,14.12254,NaN,NaN,0.5786854,0.8113837,0.8064261,1.053302,-1.52801E-05,1.376876
689.7167,0.04496337,0.0004921591,NaN,-0.3272056,0.0004073257,NaN,-0.4348168,-14.45119,NaN,-1.391532,-1.475483,0.3746433,14.12254,NaN,NaN,0.5786854,0.8113837,0.8064261,1.053302,-1.52801E-05,1.376876
689.731,0.04496323,0.0004916925,NaN,-0.3272046,0.0004070832,NaN,-0.4335083,-14.45218,NaN,-1.392668,-1.470161,0.3769793,14.11704,NaN,NaN,0.5803873,0.8102936,0.8067372,1.045592,-1.497388E-05,1.382127
689.7468,0.04496314,0.0004914359,NaN,-0.3272035,0.0004068178,NaN,-0.4306309,-14.45216,NaN,-1.393767,-1.471346,0.3788487,14.11827,NaN,NaN,0.5837352,0.8103201,0.8070145,1.047308,-1.469747E-05,1.381651
689.7621,0.04496302,0.000491119,NaN,-0.3272025,0.0004062832,NaN,-0.4278592,-14.45203,NaN,-1.39569,-1.472711,0.3802208,14.11969,NaN,NaN,0.587139,0.8104549,0.8067818,1.049283,-1.439468E-05,1.381147
689.777,0.04496302,0.000491119,NaN,-0.3272025,0.0004062832,NaN,-0.4278592,-14.45203,NaN,-1.39569,-1.472711,0.3802208,14.11969,NaN,NaN,0.587139,0.8104549,0.8067818,1.049283,-1.439468E-05,1.381147
689.7914,0.04496288,0.0004909334,NaN,-0.3272015,0.00040668,NaN,-0.4262581,-14.45123,NaN,-1.397008,-1.46489,0.3823416,14.11136,NaN,NaN,0.5890394,0.8111057,0.8067801,1.037913,-1.410217E-05,1.374509
689.8073,0.04496278,0.0004908621,NaN,-0.3272005,0.0004069954,NaN,-0.4236494,-14.45156,NaN,-1.398002,-1.466548,0.3845222,14.11314,NaN,NaN,0.5921323,0.8108046,0.8073617,1.040328,-1.382396E-05,1.377022
689.8224,0.04496267,0.0004907689,NaN,-0.3271995,0.0004063719,NaN,-0.4208152,-14.45181,NaN,-1.399892,-1.476555,0.3859829,14.12369,NaN,NaN,0.5956151,0.8107901,0.8072698,1.054857,-1.356498E-05,1.380772
689.8375,0.04496267,0.0004907689,NaN,-0.3271995,0.0004063719,NaN,-0.4208152,-14.45181,NaN,-1.399892,-1.476555,0.3859829,14.12369,NaN,NaN,0.5956151,0.8107901,0.8072698,1.054857,-1.356498E-05,1.380772
689.8522,0.04496253,0.0004913951,NaN,-0.3271986,0.0004062662,NaN,-0.4189482,-14.4521,NaN,-1.401348,-1.476425,0.3878947,14.12358,NaN,NaN,0.5976515,0.8104755,0.8069557,1.05467,-1.331881E-05,1.383276
689.8676,0.04496243,0.0004914858,NaN,-0.3271976,0.0004060351,NaN,-0.41639,-14.45113,NaN,-1.402316,-1.471567,0.390169,14.11835,NaN,NaN,0.6006235,0.8113618,0.8075765,1.047596,-1.305908E-05,1.377778
689.8828,0.04496232,0.000491102,NaN,-0.3271966,0.0004057265,NaN,-0.4135391,-14.45049,NaN,-1.404178,-1.468209,0.3916927,14.11473,NaN,NaN,0.6040038,0.8119135,0.8074642,1.042698,-1.280308E-05,1.373531
689.8978,0.04496232,0.000491102,NaN,-0.3271966,0.0004057265,NaN,-0.4135391,-14.45049,NaN,-1.404178,-1.468209,0.3916927,14.11473,NaN,NaN,0.6040038,0.8119135,0.8074642,1.042698,-1.280308E-05,1.373531
689.9121,0.04496218,0.0004903244,NaN,-0.3271957,0.0004054874,NaN,-0.4116554,-14.45024,NaN,-1.405619,-1.464576,0.3936293,14.11086,NaN,NaN,0.6059326,0.8120698,0.8071322,1.03741,-1.255572E-05,1.370104
689.9277,0.04496208,0.0004900203,NaN,-0.3271948,0.0004057776,NaN,-0.4090939,-14.45028,NaN,-1.40658,-1.466025,0.3959827,14.11239,NaN,NaN,0.6088092,0.8120629,0.8077751,1.039513,-1.230866E-05,1.370444
689.9432,0.04496197,0.0004896863,NaN,-0.3271938,0.0004062088,NaN,-0.4062365,-14.45059,NaN,-1.408422,-1.463678,0.3975368,14.10995,NaN,NaN,0.6120529,0.8116842,0.8076439,1.036112,-1.20698E-05,1.372129
689.9581,0.04496197,0.0004896863,NaN,-0.3271938,0.0004062088,NaN,-0.4062365,-14.45059,NaN,-1.408422,-1.463678,0.3975368,14.10995,NaN,NaN,0.6120529,0.8116842,0.8076439,1.036112,-1.20698E-05,1.372129
689.9724,0.04496183,0.0004894339,NaN,-0.3271929,0.000406446,NaN,-0.4044178,-14.45142,NaN,-1.40979,-1.466643,0.3995998,14.11318,NaN,NaN,0.6137689,0.8109274,0.8073686,1.04045,-1.183883E-05,1.377086
689.9882,0.04496173,0.0004899835,NaN,-0.327192,0.0004062684,NaN,-0.4017793,-14.45066,NaN,-1.410777,-1.477002,0.4019529,14.12397,NaN,NaN,0.6166029,0.8119195,0.8079484,1.055457,-1.159967E-05,1.376417
690.0034,0.04496161,0.0004904369,NaN,-0.3271911,0.0004066048,NaN,-0.3989436,-14.45219,NaN,-1.412594,-1.471215,0.4035314,14.11802,NaN,NaN,0.6196273,0.8103141,0.8077117,1.047075,-1.138121E-05,1.383881
690.0186,0.04496161,0.0004904369,NaN,-0.3271911,0.0004066048,NaN,-0.3989436,-14.45219,NaN,-1.412594,-1.471215,0.4035314,14.11802,NaN,NaN,0.6196273,0.8103141,0.8077117,1.047075,-1.138121E-05,1.383881
690.0341,0.04496147,0.0004904042,NaN,-0.3271902,0.0004070256,NaN,-0.3972903,-14.45057,NaN,-1.413828,-1.464449,0.4057952,14.11071,NaN,NaN,0.6210605,0.8117765,0.8076118,1.037214,-1.115129E-05,1.371056
690.0486,0.04496138,0.0004903428,NaN,-0.3271893,0.0004072516,NaN,-0.394436,-14.4514,NaN,-1.414903,-1.467159,0.40802,14.11367,NaN,NaN,0.6239365,0.8110154,0.8079764,1.041181,-1.092584E-05,1.376891
690.0637,0.04496125,0.0004903582,NaN,-0.3271885,0.0004075227,NaN,-0.3917431,-14.4515,NaN,-1.416659,-1.46754,0.4096514,14.11408,NaN,NaN,0.6265575,0.8109185,0.8076786,1.041735,-1.071066E-05,1.378104
690.0787,0.04496125,0.0004903582,NaN,-0.3271885,0.0004075227,NaN,-0.3917431,-14.4515,NaN,-1.416659,-1.46754,0.4096514,14.11408,NaN,NaN,0.6265575,0.8109185,0.8076786,1.041735,-1.071066E-05,1.378104
690.0945,0.04496111,0.0004901474,NaN,-0.3271876,0.0004068473,NaN,-0.3903954,-14.45158,NaN,-1.417649,-1.475831,0.4123263,14.12281,NaN,NaN,0.6275722,0.8110253,0.8079742,1.05377,-1.049415E-05,1.379743
690.1089,0.04496097,0.0004901115,NaN,-0.3271868,0.0004071,NaN,-0.3893825,-14.45047,NaN,-1.418366,-1.467722,0.4154662,14.11414,NaN,NaN,0.6282105,0.8120044,0.8084053,1.04197,-1.028628E-05,1.372057
690.124,0.04496083,0.0004907079,NaN,-0.3271859,0.0004072592,NaN,-0.3882233,-14.45197,NaN,-1.41915,-1.473928,0.4184835,14.12087,NaN,NaN,0.6288918,0.8106515,0.8084411,1.051038,-1.00641E-05,1.383677
690.1389,0.04496083,0.0004907079,NaN,-0.3271859,0.0004072592,NaN,-0.3882233,-14.45197,NaN,-1.41915,-1.473928,0.4184835,14.12087,NaN,NaN,0.6288918,0.8106515,0.8084411,1.051038,-1.00641E-05,1.383677
690.1533,0.0449607,0.0004909465,NaN,-0.3271851,0.0004065814,NaN,-0.387152,-14.45178,NaN,-1.419874,-1.478013,0.4216319,14.12514,NaN,NaN,0.6294955,0.8109079,0.8085455,1.056962,-9.85474E-06,1.381331
690.1692,0.04496057,0.0004911874,NaN,-0.3271843,0.0004063327,NaN,-0.3859854,-14.45061,NaN,-1.420643,-1.473701,0.4246748,14.12047,NaN,NaN,0.6301118,0.8120176,0.8084933,1.050677,-9.660876E-06,1.37229
690.1843,0.04496043,0.0004913748,NaN,-0.3271835,0.000406826,NaN,-0.3848882,-14.45037,NaN,-1.421361,-1.466687,0.4277872,14.11304,NaN,NaN,0.6306252,0.8121434,0.8085417,1.040476,-9.465074E-06,1.370635
690.1993,0.04496043,0.0004913748,NaN,-0.3271835,0.000406826,NaN,-0.3848882,-14.45037,NaN,-1.421361,-1.466687,0.4277872,14.11304,NaN,NaN,0.6306252,0.8121434,0.8085417,1.040476,-9.465074E-06,1.370635
690.2148,0.04496029,0.0004916356,NaN,-0.3271827,0.0004075684,NaN,-0.3837623,-14.45113,NaN,-1.422083,-1.464712,0.4308471,14.11104,NaN,NaN,0.6310897,0.8113394,0.8085455,1.037628,-9.278362E-06,1.375237
690.2296,0.04496016,0.0004913475,NaN,-0.327182,0.0004078602,NaN,-0.3826962,-14.45098,NaN,-1.422759,-1.463693,0.4339505,14.10994,NaN,NaN,0.631456,0.8114646,0.8086263,1.036141,-9.098505E-06,1.370591
690.2445,0.04496003,0.0004910167,NaN,-0.3271812,0.0004080344,NaN,-0.3816251,-14.45172,NaN,-1.423427,-1.46621,0.4370224,14.11268,NaN,NaN,0.6317728,0.8107932,0.8086858,1.039822,-8.89272E-06,1.375316
690.2595,0.04496003,0.0004910167,NaN,-0.3271812,0.0004080344,NaN,-0.3816251,-14.45172,NaN,-1.423427,-1.46621,0.4370224,14.11268,NaN,NaN,0.6317728,0.8107932,0.8086858,1.039822,-8.89272E-06,1.375316
690.2737,0.04495989,0.0004911888,NaN,-0.3271804,0.0004077278,NaN,-0.3805948,-14.4523,NaN,-1.424061,-1.475678,0.4401134,14.12271,NaN,NaN,0.6320213,0.8104445,0.8087862,1.053581,-8.714353E-06,1.382709
690.2894,0.04495976,0.000491531,NaN,-0.3271797,0.0004085487,NaN,-0.3795652,-14.4521,NaN,-1.424686,-1.46598,0.443179,14.11249,NaN,NaN,0.6322367,0.8105075,0.8088718,1.039503,-8.544182E-06,1.380575
690.3046,0.04495962,0.0004916867,NaN,-0.327179,0.000409225,NaN,-0.3785603,-14.4512,NaN,-1.425288,-1.463894,0.4462448,14.11017,NaN,NaN,0.6324095,0.8113581,0.8089757,1.036444,-8.381909E-06,1.373303
690.3196,0.04495962,0.0004916867,NaN,-0.327179,0.000409225,NaN,-0.3785603,-14.4512,NaN,-1.425288,-1.463894,0.4462448,14.11017,NaN,NaN,0.6324095,0.8113581,0.8089757,1.036444,-8.381909E-06,1.373303
690.334,0.04495949,0.0004918954,NaN,-0.3271782,0.0004094531,NaN,-0.3775597,-14.45239,NaN,-1.425881,-1.469302,0.4492884,14.11602,NaN,NaN,0.6325586,0.8103219,0.8090718,1.04434,-8.209651E-06,1.380956
690.3496,0.04495936,0.0004922237,NaN,-0.3271775,0.0004100354,NaN,-0.3765756,-14.45226,NaN,-1.426457,-1.467117,0.4523228,14.1137,NaN,NaN,0.6326796,0.81041,0.8091779,1.041165,-8.03501E-06,1.381053
690.3648,0.04495927,0.0004923322,NaN,-0.3271768,0.0004105903,NaN,-0.3738126,-14.45176,NaN,-1.427393,-1.464382,0.4546067,14.11075,NaN,NaN,0.6350483,0.8108354,0.8094122,1.03718,-7.87974E-06,1.37603
690.3799,0.04495927,0.0004923322,NaN,-0.3271768,0.0004105903,NaN,-0.3738126,-14.45176,NaN,-1.427393,-1.464382,0.4546067,14.11075,NaN,NaN,0.6350483,0.8108354,0.8094122,1.03718,-7.87974E-06,1.37603
690.3953,0.04495915,0.0004924931,NaN,-0.3271761,0.0004101885,NaN,-0.3724478,-14.45275,NaN,-1.428411,-1.47583,0.4569831,14.12292,NaN,NaN,0.6360527,0.8101564,0.8094333,1.053829,-7.707632E-06,1.383988
690.4101,0.04495901,0.0004926134,NaN,-0.3271753,0.0004106979,NaN,-0.3713422,-14.45159,NaN,-1.429095,-1.466365,0.4596233,14.11284,NaN,NaN,0.636525,0.8111672,0.8091078,1.040074,-7.535077E-06,1.3764
690.4251,0.04495888,0.0004922356,NaN,-0.3271746,0.0004108649,NaN,-0.370138,-14.45148,NaN,-1.429801,-1.464797,0.4623626,14.11117,NaN,NaN,0.6370636,0.8112302,0.8088087,1.037791,-7.365054E-06,1.373428
690.4399,0.04495888,0.0004922356,NaN,-0.3271746,0.0004108649,NaN,-0.370138,-14.45148,NaN,-1.429801,-1.464797,0.4623626,14.11117,NaN,NaN,0.6370636,0.8112302,0.8088087,1.037791,-7.365054E-06,1.373428
690.4542,0.04495874,0.0004925975,NaN,-0.3271739,0.0004105827,NaN,-0.3689718,-14.45224,NaN,-1.430491,-1.476337,0.4651047,14.12341,NaN,NaN,0.6374488,0.8107718,0.8085344,1.054571,-7.216192E-06,1.382288
690.4698,0.0449586,0.0004925111,NaN,-0.3271733,0.0004105262,NaN,-0.3678983,-14.45129,NaN,-1.431067,-1.467812,0.4678632,14.11433,NaN,NaN,0.6375331,0.8115988,0.8083869,1.042176,-7.075823E-06,1.374675
690.4849,0.04495847,0.0004927856,NaN,-0.3271726,0.0004100203,NaN,-0.3668325,-14.45238,NaN,-1.431627,-1.47713,0.4706202,14.12428,NaN,NaN,0.637544,0.8107273,0.8083592,1.055746,-6.92547E-06,1.383273
690.5,0.04495833,0.0004928383,NaN,-0.3271719,0.000410229,NaN,-0.365806,-14.45133,NaN,-1.432162,-1.46719,0.4733309,14.11371,NaN,NaN,0.6374626,0.8116467,0.8083471,1.041299,-6.774074E-06,1.374955
690.5151,0.04495833,0.0004928383,NaN,-0.3271719,0.000410229,NaN,-0.365806,-14.45133,NaN,-1.432162,-1.46719,0.4733309,14.11371,NaN,NaN,0.6374626,0.8116467,0.8083471,1.041299,-6.774074E-06,1.374955
690.5296,0.0449582,0.0004932095,NaN,-0.3271712,0.0004097875,NaN,-0.3648075,-14.45162,NaN,-1.432664,-1.477346,0.4760245,14.12444,NaN,NaN,0.6373384,0.8116036,0.8083669,1.056058,-6.65859E-06,1.380512
690.5457,0.0449581,0.0004933808,NaN,-0.3271706,0.0004101802,NaN,-0.3643892,-14.45137,NaN,-1.432579,-1.467384,0.4786232,14.11391,NaN,NaN,0.6356863,0.811713,0.8086213,1.04158,-6.542361E-06,1.375153
690.5606,0.04495802,0.0004933131,NaN,-0.3271699,0.0004102677,NaN,-0.364013,-14.45185,NaN,-1.432547,-1.468504,0.4814862,14.11514,NaN,NaN,0.6341169,0.8112606,0.8096033,1.04322,-6.395585E-06,1.376316
690.5789,0.04495802,0.0004933131,NaN,-0.3271699,0.0004102677,NaN,-0.364013,-14.45185,NaN,-1.432547,-1.468504,0.4814862,14.11514,NaN,NaN,0.6341169,0.8112606,0.8096033,1.04322,-6.395585E-06,1.376316
690.5922,0.04495796,0.0004932853,NaN,-0.3271693,0.0004098094,NaN,-0.3634458,-14.45262,NaN,-1.432669,-1.474777,0.4839747,14.12183,NaN,NaN,0.6327843,0.8106281,0.8102011,1.052351,-6.273991E-06,1.382304
690.6056,0.0449579,0.0004934322,NaN,-0.3271686,0.0004102692,NaN,-0.3629933,-14.45205,NaN,-1.432755,-1.46726,0.4864762,14.11386,NaN,NaN,0.6315106,0.8110811,0.8107552,1.041427,-6.168938E-06,1.377171
690.6206,0.04495788,0.0004933436,NaN,-0.327168,0.0004105158,NaN,-0.3630773,-14.45205,NaN,-1.432338,-1.466889,0.4887354,14.11346,NaN,NaN,0.6288438,0.8110705,0.8112134,1.040887,-6.050623E-06,1.376468
690.6355,0.04495788,0.0004933436,NaN,-0.327168,0.0004105158,NaN,-0.3630773,-14.45205,NaN,-1.432338,-1.466889,0.4887354,14.11346,NaN,NaN,0.6288438,0.8110705,0.8112134,1.040887,-6.050623E-06,1.376468
690.6501,0.04495788,0.0004928635,NaN,-0.3271673,0.0004103656,NaN,-0.3635187,-14.45186,NaN,-1.431906,-1.467666,0.491276,14.11425,NaN,NaN,0.6257257,0.8112696,0.8119617,1.042005,-5.935139E-06,1.374516
690.6659,0.04495788,0.0004928539,NaN,-0.3271667,0.0004103089,NaN,-0.3636214,-14.45308,NaN,-1.431612,-1.471477,0.4934298,14.11841,NaN,NaN,0.6227334,0.810137,0.8120905,1.047579,-5.830533E-06,1.382715
690.6811,0.04495789,0.0004933916,NaN,-0.3271661,0.0004110331,NaN,-0.3634329,-14.4528,NaN,-1.431377,-1.468552,0.4953386,14.11529,NaN,NaN,0.6199052,0.8103639,0.8119119,1.043326,-5.721457E-06,1.382197
690.6965,0.04495789,0.0004933916,NaN,-0.3271661,0.0004110331,NaN,-0.3634329,-14.4528,NaN,-1.431377,-1.468552,0.4953386,14.11529,NaN,NaN,0.6199052,0.8103639,0.8119119,1.043326,-5.721457E-06,1.382197
690.7108,0.04495793,0.0004933663,NaN,-0.3271654,0.0004109137,NaN,-0.3633531,-14.45226,NaN,-1.430771,-1.470615,0.4967698,14.11739,NaN,NaN,0.6159702,0.8109359,0.811729,1.0463,-5.613423E-06,1.37724
690.7266,0.04495807,0.0004927501,NaN,-0.3271648,0.0004106352,NaN,-0.3630542,-14.45169,NaN,-1.430002,-1.4661,0.4989296,14.11256,NaN,NaN,0.6138324,0.8114052,0.8144069,1.039729,-5.511201E-06,1.37288
690.7418,0.04495819,0.0004926347,NaN,-0.3271641,0.0004104408,NaN,-0.3633555,-14.45293,NaN,-1.429649,-1.471567,0.5006463,14.11847,NaN,NaN,0.6114977,0.8103077,0.8157782,1.047709,-5.391247E-06,1.381701
690.7577,0.04495819,0.0004926347,NaN,-0.3271641,0.0004104408,NaN,-0.3633555,-14.45293,NaN,-1.429649,-1.471567,0.5006463,14.11847,NaN,NaN,0.6114977,0.8103077,0.8157782,1.047709,-5.391247E-06,1.381701
690.7709,0.04495833,0.0004918416,NaN,-0.3271635,0.0004099384,NaN,-0.3632351,-14.4519,NaN,-1.429307,-1.466116,0.5010498,14.11262,NaN,NaN,0.6083632,0.8112243,0.8151923,1.039773,-5.247749E-06,1.374639
690.7867,0.04495853,0.0004909886,NaN,-0.3271628,0.0004094223,NaN,-0.3637943,-14.45185,NaN,-1.428242,-1.467661,0.5027583,14.11424,NaN,NaN,0.6049287,0.811313,0.8170242,1.042016,-5.154021E-06,1.37439
690.8015,0.04495875,0.0004906591,NaN,-0.3271622,0.0004098192,NaN,-0.3640711,-14.4523,NaN,-1.427685,-1.465158,0.5039573,14.11165,NaN,NaN,0.6021647,0.8108048,0.8183097,1.038396,-5.055077E-06,1.377036
690.8165,0.04495875,0.0004906591,NaN,-0.3271622,0.0004098192,NaN,-0.3640711,-14.4523,NaN,-1.427685,-1.465158,0.5039573,14.11165,NaN,NaN,0.6021647,0.8108048,0.8183097,1.038396,-5.055077E-06,1.377036
690.8309,0.04495897,0.0004907578,NaN,-0.3271615,0.0004103277,NaN,-0.3642854,-14.45295,NaN,-1.42728,-1.466174,0.504808,14.1128,NaN,NaN,0.5996141,0.810176,0.8187683,1.039894,-4.966415E-06,1.381542
690.8469,0.04495918,0.0004908726,NaN,-0.3271609,0.0004109259,NaN,-0.3640957,-14.45248,NaN,-1.427344,-1.464475,0.5061921,14.11095,NaN,NaN,0.5991237,0.8105994,0.8195751,1.037412,-4.8706E-06,1.378105
690.8619,0.04495936,0.0004907277,NaN,-0.3271603,0.0004108374,NaN,-0.3631175,-14.45303,NaN,-1.427702,-1.469941,0.5066985,14.11676,NaN,NaN,0.5997466,0.8101955,0.8188277,1.045362,-4.779703E-06,1.379308
690.8768,0.04495936,0.0004907277,NaN,-0.3271603,0.0004108374,NaN,-0.3631175,-14.45303,NaN,-1.427702,-1.469941,0.5066985,14.11676,NaN,NaN,0.5997466,0.8101955,0.8188277,1.045362,-4.779703E-06,1.379308
690.8914,0.04495953,0.0004910718,NaN,-0.3271596,0.0004103322,NaN,-0.363252,-14.45288,NaN,-1.427998,-1.478122,0.5079507,14.12534,NaN,NaN,0.5997402,0.8105031,0.8188282,1.057223,-4.688061E-06,1.383912
690.907,0.04495969,0.0004915272,NaN,-0.327159,0.0004113226,NaN,-0.3622492,-14.45312,NaN,-1.428311,-1.465482,0.5083798,14.11206,NaN,NaN,0.6002371,0.8101054,0.8177392,1.038884,-4.599995E-06,1.384516
690.9222,0.04495986,0.000491777,NaN,-0.3271584,0.0004117647,NaN,-0.362498,-14.45202,NaN,-1.428452,-1.46767,0.5099123,14.11421,NaN,NaN,0.6001766,0.8112505,0.8185511,1.042018,-4.501946E-06,1.376294
690.9371,0.04495986,0.000491777,NaN,-0.3271584,0.0004117647,NaN,-0.362498,-14.45202,NaN,-1.428452,-1.46767,0.5099123,14.11421,NaN,NaN,0.6001766,0.8112505,0.8185511,1.042018,-4.501946E-06,1.376294
690.9527,0.04496004,0.0004922106,NaN,-0.3271578,0.0004116987,NaN,-0.3616758,-14.45368,NaN,-1.428666,-1.475245,0.510625,14.1224,NaN,NaN,0.6008871,0.8097717,0.8184869,1.053073,-4.398234E-06,1.387185
690.9673,0.04496019,0.0004923014,NaN,-0.3271572,0.0004121648,NaN,-0.3618029,-14.45243,NaN,-1.428901,-1.465673,0.5117388,14.11221,NaN,NaN,0.6006514,0.8108649,0.8184142,1.03917,-4.303909E-06,1.377525
690.9823,0.04496035,0.0004924834,NaN,-0.3271566,0.0004116455,NaN,-0.360896,-14.45272,NaN,-1.429167,-1.477144,0.5122108,14.12431,NaN,NaN,0.601179,0.8108692,0.817645,1.055829,-4.206456E-06,1.382068
690.9973,0.04496035,0.0004924834,NaN,-0.3271566,0.0004116455,NaN,-0.360896,-14.45272,NaN,-1.429167,-1.477144,0.5122108,14.12431,NaN,NaN,0.601179,0.8108692,0.817645,1.055829,-4.206456E-06,1.382068
691.0115,0.04496039,0.0004925696,NaN,-0.327156,0.0004118578,NaN,-0.3610893,-14.45234,NaN,-1.429354,-1.468094,0.5134704,14.11474,NaN,NaN,0.6009367,0.8111172,0.8180097,1.042681,-4.128225E-06,1.377597
691.0273,0.04496042,0.0004923758,NaN,-0.3271554,0.0004120611,NaN,-0.3604851,-14.45267,NaN,-1.429428,-1.465683,0.5144265,14.11223,NaN,NaN,0.6013993,0.8107278,0.8185132,1.03919,-4.047013E-06,1.377993
691.0426,0.04496043,0.0004926604,NaN,-0.3271549,0.0004116411,NaN,-0.3604934,-14.45329,NaN,-1.429528,-1.477194,0.5155528,14.12441,NaN,NaN,0.6011751,0.8103949,0.8187602,1.055913,-3.981001E-06,1.385936
691.0588,0.04496043,0.0004926604,NaN,-0.3271549,0.0004116411,NaN,-0.3604934,-14.45329,NaN,-1.429528,-1.477194,0.5155528,14.12441,NaN,NaN,0.6011751,0.8103949,0.8187602,1.055913,-3.981001E-06,1.385936
691.0722,0.04423248,0.0004927416,NaN,-0.3271561,0.0004120189,NaN,-0.3597963,-14.45279,NaN,-1.428966,-1.466183,0.5163169,14.11278,NaN,NaN,0.6013706,0.8107488,0.8186591,1.039926,-3.89219E-06,1.379449
691.0878,0.04304953,0.0004930181,NaN,-0.3271579,0.000412707,NaN,-0.3598976,-14.45357,NaN,-1.427934,-1.465434,0.5176099,14.11208,NaN,NaN,0.6010506,0.8099533,0.8196656,1.038863,-3.817237E-06,1.385332
691.103,0.04158529,0.0004933215,NaN,-0.3271596,0.0004126866,NaN,-0.3600427,-14.45475,NaN,-1.426237,-1.473391,0.5191954,14.12058,NaN,NaN,0.6007144,0.8089788,0.8213936,1.050437,-3.751523E-06,1.39155
691.1179,0.04158529,0.0004933215,NaN,-0.3271596,0.0004126866,NaN,-0.3600427,-14.45475,NaN,-1.426237,-1.473391,0.5191954,14.12058,NaN,NaN,0.6007144,0.8089788,0.8213936,1.050437,-3.751523E-06,1.39155
691.1334,0.03995021,0.000493233,NaN,-0.3271612,0.0004128788,NaN,-0.3602115,-14.45359,NaN,-1.424401,-1.466387,0.5210199,14.1131,NaN,NaN,0.6009415,0.8100204,0.8237903,1.04026,-3.681041E-06,1.383097
691.1483,0.03748622,0.0004927778,NaN,-0.3271647,0.0004129821,NaN,-0.3602779,-14.45377,NaN,-1.421815,-1.464748,0.5229174,14.11139,NaN,NaN,0.6016009,0.8097991,0.8263681,1.037888,-3.602661E-06,1.383029
691.1631,0.03451091,0.0004924199,NaN,-0.3271687,0.000413095,NaN,-0.363029,-14.45452,NaN,-1.418493,-1.467014,0.5253949,14.11386,NaN,NaN,0.5989208,0.8091195,0.8271069,1.041197,-3.516979E-06,1.387479
691.1781,0.03451091,0.0004924199,NaN,-0.3271687,0.000413095,NaN,-0.363029,-14.45452,NaN,-1.418493,-1.467014,0.5253949,14.11386,NaN,NaN,0.5989208,0.8091195,0.8271069,1.041197,-3.516979E-06,1.387479
691.1925,0.03122649,0.0004923355,NaN,-0.3271722,0.000412724,NaN,-0.3642421,-14.45512,NaN,-1.414197,-1.474361,0.527992,14.12163,NaN,NaN,0.5976691,0.8086876,0.8280096,1.051859,-3.432639E-06,1.393343
691.2083,0.0277614,0.0004925651,NaN,-0.3271749,0.0004135183,NaN,-0.3637152,-14.45421,NaN,-1.41061,-1.465221,0.5300199,14.11195,NaN,NaN,0.5994783,0.8094578,0.8299975,1.038599,-3.390021E-06,1.386099
691.2233,0.02346892,0.000492428,NaN,-0.3271793,0.0004138111,NaN,-0.3631928,-14.45419,NaN,-1.406332,-1.465563,0.5326092,14.1123,NaN,NaN,0.6030356,0.8094887,0.834379,1.039092,-3.353513E-06,1.385006
691.2385,0.02346892,0.000492428,NaN,-0.3271793,0.0004138111,NaN,-0.3631928,-14.45419,NaN,-1.406332,-1.465563,0.5326092,14.1123,NaN,NaN,0.6030356,0.8094887,0.834379,1.039092,-3.353513E-06,1.385006
691.2529,0.0186739,0.0004921417,NaN,-0.3271834,0.0004141363,NaN,-0.3637473,-14.45444,NaN,-1.401667,-1.464456,0.5359427,14.11116,NaN,NaN,0.6073872,0.8092115,0.8400407,1.037496,-3.26813E-06,1.385925
691.2686,0.01358251,0.0004919927,NaN,-0.3271865,0.0004142589,NaN,-0.3636342,-14.4553,NaN,-1.398483,-1.468288,0.5349337,14.11529,NaN,NaN,0.6084056,0.8084469,0.8343145,1.043079,-3.173657E-06,1.391192
691.2839,0.008326076,0.0004913642,NaN,-0.3271884,0.0004141276,NaN,-0.3636346,-14.45385,NaN,-1.39387,-1.464988,0.5349587,14.11164,NaN,NaN,0.607584,0.8098185,0.8279601,1.038254,-3.108687E-06,1.38316
691.2989,0.008326076,0.0004913642,NaN,-0.3271884,0.0004141276,NaN,-0.3636346,-14.45385,NaN,-1.39387,-1.464988,0.5349587,14.11164,NaN,NaN,0.607584,0.8098185,0.8279601,1.038254,-3.108687E-06,1.38316
691.3142,0.002259553,0.0004909702,NaN,-0.3271914,0.0004143349,NaN,-0.363854,-14.45439,NaN,-1.387733,-1.465311,0.5366439,14.11205,NaN,NaN,0.6060661,0.8092843,0.8252743,1.038742,-3.02241E-06,1.385961
691.3289,-0.00429116,0.0004910967,NaN,-0.3271937,0.0004139705,NaN,-0.3643489,-14.45485,NaN,-1.380813,-1.475534,0.5392249,14.12283,NaN,NaN,0.6045599,0.809076,0.8262287,1.053569,-2.975769E-06,1.392367
691.3439,-0.0111191,0.0004915073,NaN,-0.3271945,0.0004148998,NaN,-0.3659054,-14.45446,NaN,-1.373659,-1.465645,0.5415865,14.11241,NaN,NaN,0.6011987,0.8093114,0.8267989,1.03923,-2.921827E-06,1.387927
691.3588,-0.0111191,0.0004915073,NaN,-0.3271945,0.0004148998,NaN,-0.3659054,-14.45446,NaN,-1.373659,-1.465645,0.5415865,14.11241,NaN,NaN,0.6011987,0.8093114,0.8267989,1.03923,-2.921827E-06,1.387927
691.3732,-0.01882112,0.0004912612,NaN,-0.327196,0.0004148897,NaN,-0.3686455,-14.45447,NaN,-1.364848,-1.468209,0.5444334,14.11509,NaN,NaN,0.5955104,0.809364,0.8267364,1.042946,-2.866693E-06,1.38736
691.3889,-0.02704072,0.0004912041,NaN,-0.3271965,0.0004144118,NaN,-0.3705362,-14.45558,NaN,-1.35521,-1.475148,0.5468237,14.1225,NaN,NaN,0.5899034,0.8084005,0.8257166,1.053035,-2.810962E-06,1.394633
691.4038,-0.03555141,0.0004909749,NaN,-0.3271961,0.0004141217,NaN,-0.3719134,-14.45437,NaN,-1.345478,-1.469753,0.5492829,14.11671,NaN,NaN,0.5854442,0.8095062,0.826063,1.045196,-2.754338E-06,1.38707
691.4189,-0.03555141,0.0004909749,NaN,-0.3271961,0.0004141217,NaN,-0.3719134,-14.45437,NaN,-1.345478,-1.469753,0.5492829,14.11671,NaN,NaN,0.5854442,0.8095062,0.826063,1.045196,-2.754338E-06,1.38707
691.4333,-0.04420959,0.0004912075,NaN,-0.327195,0.0004136102,NaN,-0.3736555,-14.45568,NaN,-1.335444,-1.476462,0.5516978,14.1239,NaN,NaN,0.5802512,0.8083254,0.8261257,1.054957,-2.682663E-06,1.395339
691.4493,-0.05365255,0.0004910826,NaN,-0.3271947,0.0004135738,NaN,-0.375591,-14.45434,NaN,-1.324808,-1.466343,0.5543872,14.11316,NaN,NaN,0.5752177,0.8095142,0.8270774,1.040279,-2.646304E-06,1.385017
691.4645,-0.06354962,0.00049145,NaN,-0.3271936,0.0004130517,NaN,-0.3773785,-14.45457,NaN,-1.31301,-1.477732,0.5568196,14.12512,NaN,NaN,0.569595,0.8095564,0.8271838,1.056786,-2.575114E-06,1.390946
691.4793,-0.06354962,0.00049145,NaN,-0.3271936,0.0004130517,NaN,-0.3773785,-14.45457,NaN,-1.31301,-1.477732,0.5568196,14.12512,NaN,NaN,0.569595,0.8095564,0.8271838,1.056786,-2.575114E-06,1.390946
691.4958,-0.07369094,0.0004915925,NaN,-0.3271917,0.0004133206,NaN,-0.3820643,-14.45461,NaN,-1.301119,-1.467011,0.5607979,14.11386,NaN,NaN,0.5608064,0.8093888,0.8271302,1.04124,-2.509735E-06,1.386243
691.5095,-0.0839434,0.0004918906,NaN,-0.3271885,0.0004127924,NaN,-0.3824685,-14.45501,NaN,-1.289775,-1.477962,0.5609941,14.12539,NaN,NaN,0.5541832,0.8092386,0.8222973,1.057115,-2.456017E-06,1.392349
691.5259,-0.09495118,0.0004921922,NaN,-0.3271865,0.0004129511,NaN,-0.3834741,-14.45435,NaN,-1.277156,-1.471368,0.5615287,14.11839,NaN,NaN,0.5453789,0.8098102,0.8177714,1.04754,-2.392463E-06,1.387468
691.5393,-0.09495118,0.0004921922,NaN,-0.3271865,0.0004129511,NaN,-0.3834741,-14.45435,NaN,-1.277156,-1.471368,0.5615287,14.11839,NaN,NaN,0.5453789,0.8098102,0.8177714,1.04754,-2.392463E-06,1.387468
691.5537,-0.106388,0.0004921129,NaN,-0.3271835,0.0004130197,NaN,-0.385251,-14.45433,NaN,-1.263472,-1.46801,0.562815,14.11485,NaN,NaN,0.5346204,0.8097757,0.8147494,1.042667,-2.366116E-06,1.384782
691.5693,-0.1180467,0.0004922425,NaN,-0.3271785,0.0004123605,NaN,-0.3877497,-14.45522,NaN,-1.248972,-1.477874,0.564799,14.1253,NaN,NaN,0.5224631,0.8091133,0.8134054,1.05699,-2.304072E-06,1.39245
691.5845,-0.1297961,0.0004925786,NaN,-0.3271717,0.0004127746,NaN,-0.3910593,-14.45435,NaN,-1.233806,-1.469835,0.5675316,14.11677,NaN,NaN,0.5093721,0.8098791,0.8136448,1.045323,-2.26015E-06,1.386033
691.5997,-0.1297961,0.0004925786,NaN,-0.3271717,0.0004127746,NaN,-0.3910593,-14.45435,NaN,-1.233806,-1.469835,0.5675316,14.11677,NaN,NaN,0.5093721,0.8098791,0.8136448,1.045323,-2.26015E-06,1.386033
691.6138,-0.1422817,0.0004921737,NaN,-0.3271659,0.0004125866,NaN,-0.3907645,-14.4539,NaN,-1.218568,-1.46754,0.5674669,14.1143,NaN,NaN,0.4984317,0.8102844,0.8118513,1.04198,-2.213659E-06,1.381403
691.6298,-0.1551779,0.0004922114,NaN,-0.3271586,0.0004130103,NaN,-0.3881891,-14.45469,NaN,-1.204259,-1.466644,0.5644421,14.11345,NaN,NaN,0.4878753,0.8094806,0.8073642,1.040704,-2.165342E-06,1.387253
691.6449,-0.1682786,0.0004921847,NaN,-0.3271491,0.0004123644,NaN,-0.3834648,-14.45532,NaN,-1.189435,-1.477384,0.5590739,14.12479,NaN,NaN,0.4767415,0.8091121,0.8010666,1.056288,-2.115349E-06,1.390614
691.6601,-0.1814528,0.000491569,NaN,-0.3271375,0.0004118197,NaN,-0.3737858,-14.45412,NaN,-1.175409,-1.467831,0.5492616,14.11464,NaN,NaN,0.4673108,0.8101871,0.792439,1.042422,-2.079511E-06,1.381858
691.6752,-0.1814528,0.000491569,NaN,-0.3271375,0.0004118197,NaN,-0.3737858,-14.45412,NaN,-1.175409,-1.467831,0.5492616,14.11464,NaN,NaN,0.4673108,0.8101871,0.792439,1.042422,-2.079511E-06,1.381858
691.6904,-0.1953465,0.0004908972,NaN,-0.3271268,0.0004111915,NaN,-0.3589278,-14.45417,NaN,-1.1605,-1.470122,0.5347269,14.11705,NaN,NaN,0.4594403,0.8101965,0.7797987,1.04575,-2.041513E-06,1.382345
691.7051,-0.2096344,0.000490072,NaN,-0.3271143,0.0004104837,NaN,-0.3436032,-14.45411,NaN,-1.144984,-1.469756,0.5192358,14.11666,NaN,NaN,0.4510259,0.8102428,0.7664984,1.045218,-2.004261E-06,1.381887
691.72,-0.2241103,0.0004892416,NaN,-0.3270995,0.0004101255,NaN,-0.3276664,-14.4542,NaN,-1.12897,-1.466377,0.5029026,14.11312,NaN,NaN,0.4422227,0.8100697,0.7521579,1.040323,-1.964921E-06,1.380517
691.735,-0.2241103,0.0004892416,NaN,-0.3270995,0.0004101255,NaN,-0.3276664,-14.4542,NaN,-1.12897,-1.466377,0.5029026,14.11312,NaN,NaN,0.4422227,0.8100697,0.7521579,1.040323,-1.964921E-06,1.380517
691.7495,-0.2393722,0.0004889034,NaN,-0.327085,0.0004103366,NaN,-0.3112902,-14.45481,NaN,-1.111584,-1.46672,0.4861917,14.11355,NaN,NaN,0.4326158,0.8094714,0.7369204,1.04084,-1.920069E-06,1.384957
691.7654,-0.2550643,0.0004894032,NaN,-0.3270682,0.0004100784,NaN,-0.2951593,-14.45413,NaN,-1.095114,-1.477808,0.4700029,14.12509,NaN,NaN,0.4237393,0.8104054,0.7224697,1.056885,-1.878197E-06,1.383872
691.7805,-0.2709612,0.0004895717,NaN,-0.3270484,0.0004104176,NaN,-0.2792655,-14.45393,NaN,-1.079089,-1.467981,0.4540319,14.11474,NaN,NaN,0.4150368,0.8104717,0.7083025,1.042624,-1.842136E-06,1.379633
691.7955,-0.2709612,0.0004895717,NaN,-0.3270484,0.0004104176,NaN,-0.2792655,-14.45393,NaN,-1.079089,-1.467981,0.4540319,14.11474,NaN,NaN,0.4150368,0.8104717,0.7083025,1.042624,-1.842136E-06,1.379633
691.8101,-0.2869202,0.0004895026,NaN,-0.3270261,0.0004107851,NaN,-0.2636553,-14.45426,NaN,-1.063557,-1.465506,0.4383132,14.11217,NaN,NaN,0.4065048,0.8100835,0.6944131,1.039042,-1.806373E-06,1.380401
691.8261,-0.3035797,0.0004894601,NaN,-0.3270045,0.000411234,NaN,-0.2481792,-14.4546,NaN,-1.04807,-1.464593,0.4228884,14.11125,NaN,NaN,0.39814,0.8097251,0.6807961,1.037727,-1.770909E-06,1.382716
691.8409,-0.3206099,0.0004888499,NaN,-0.3269807,0.0004111664,NaN,-0.2329087,-14.45391,NaN,-1.032888,-1.464551,0.4076888,14.1111,NaN,NaN,0.3899391,0.8104106,0.6674461,1.037638,-1.735444E-06,1.37472
691.8561,-0.3206099,0.0004888499,NaN,-0.3269807,0.0004111664,NaN,-0.2329087,-14.45391,NaN,-1.032888,-1.464551,0.4076888,14.1111,NaN,NaN,0.3899391,0.8104106,0.6674461,1.037638,-1.735444E-06,1.37472
691.8715,-0.3378018,0.0004884283,NaN,-0.3269544,0.0004113726,NaN,-0.2178762,-14.45454,NaN,-1.018072,-1.465933,0.3927225,14.11264,NaN,NaN,0.3818989,0.8098072,0.6543579,1.039667,-1.706535E-06,1.37932
691.8861,-0.3550232,0.000488276,NaN,-0.3269259,0.0004119618,NaN,-0.2030883,-14.45485,NaN,-1.003628,-1.463968,0.3779983,14.11061,NaN,NaN,0.3740163,0.809432,0.6415263,1.036829,-1.680011E-06,1.381499
691.9011,-0.3729194,0.0004884544,NaN,-0.3268983,0.0004120658,NaN,-0.1883807,-14.45607,NaN,-0.9891069,-1.471165,0.3635311,14.11832,NaN,NaN,0.366288,0.8083936,0.6289462,1.047305,-1.647229E-06,1.389941
691.9162,-0.3729194,0.0004884544,NaN,-0.3268983,0.0004120658,NaN,-0.1883807,-14.45607,NaN,-0.9891069,-1.471165,0.3635311,14.11832,NaN,NaN,0.366288,0.8083936,0.6289462,1.047305,-1.647229E-06,1.389941
691.9306,-0.3911649,0.0004883503,NaN,-0.3268687,0.0004123823,NaN,-0.1738352,-14.45472,NaN,-0.9748068,-1.465351,0.3492562,14.11206,NaN,NaN,0.3587111,0.8096161,0.6166129,1.038851,-1.621599E-06,1.379627
691.9464,-0.4095536,0.0004883246,NaN,-0.3268366,0.0004128063,NaN,-0.1595006,-14.45477,NaN,-0.9608291,-1.4652,0.3351814,14.11191,NaN,NaN,0.3512827,0.8095539,0.6045214,1.038635,-1.583452E-06,1.380738
691.9616,-0.4279552,0.0004877356,NaN,-0.3268024,0.0004127575,NaN,-0.1453938,-14.45433,NaN,-0.9471961,-1.464413,0.3213197,14.11102,NaN,NaN,0.344,0.8099666,0.592667,1.037479,-1.550669E-06,1.37512
691.977,-0.4279552,0.0004877356,NaN,-0.3268024,0.0004127575,NaN,-0.1453938,-14.45433,NaN,-0.9471961,-1.464413,0.3213197,14.11102,NaN,NaN,0.344,0.8099666,0.592667,1.037479,-1.550669E-06,1.37512
691.9926,-0.447016,0.0004874053,NaN,-0.3267693,0.0004131149,NaN,-0.1313489,-14.45484,NaN,-0.9334618,-1.464384,0.3076797,14.11106,NaN,NaN,0.3368598,0.8094459,0.581045,1.037457,-1.525039E-06,1.378176
692.0069,-0.4664115,0.0004868562,NaN,-0.3267341,0.0004131829,NaN,-0.1174532,-14.45486,NaN,-0.9199309,-1.464916,0.2942133,14.11161,NaN,NaN,0.3298595,0.8094267,0.5696509,1.038229,-1.488681E-06,1.376946
692.0223,-0.4859362,0.0004858747,NaN,-0.3266965,0.0004128749,NaN,-0.1037569,-14.45438,NaN,-0.906709,-1.464236,0.2809294,14.11083,NaN,NaN,0.3229964,0.8098798,0.5584803,1.037227,-1.45411E-06,1.376002
692.0371,-0.4859362,0.0004858747,NaN,-0.3266965,0.0004128749,NaN,-0.1037569,-14.45438,NaN,-0.906709,-1.464236,0.2809294,14.11083,NaN,NaN,0.3229964,0.8098798,0.5584803,1.037227,-1.45411E-06,1.376002
692.0528,-0.5061885,0.0004850701,NaN,-0.3266592,0.0004128554,NaN,-0.09010525,-14.4547,NaN,-0.8933776,-1.464046,0.2678338,14.11067,NaN,NaN,0.3162677,0.8095512,0.5475286,1.036964,-1.426096E-06,1.377474
692.0673,-0.5268133,0.000484417,NaN,-0.3266191,0.0004130266,NaN,-0.07659716,-14.45478,NaN,-0.8802523,-1.464,0.254896,14.11063,NaN,NaN,0.3096709,0.8094686,0.5367917,1.036898,-1.394505E-06,1.378129
692.0825,-0.547586,0.0004841855,NaN,-0.3265758,0.0004134038,NaN,-0.06328511,-14.45473,NaN,-0.8674409,-1.465771,0.242129,14.11248,NaN,NaN,0.3032034,0.8095601,0.5262653,1.039463,-1.364107E-06,1.378759
692.0974,-0.547586,0.0004841855,NaN,-0.3265758,0.0004134038,NaN,-0.06328511,-14.45473,NaN,-0.8674409,-1.465771,0.242129,14.11248,NaN,NaN,0.3032034,0.8095601,0.5262653,1.039463,-1.364107E-06,1.378759
692.1119,-0.5683645,0.000484467,NaN,-0.32653,0.0004131614,NaN,-0.05018657,-14.45565,NaN,-0.8549665,-1.476188,0.2295445,14.12352,NaN,NaN,0.2968628,0.8088812,0.5159454,1.054595,-1.342649E-06,1.387526
692.1277,-0.5897877,0.0004846234,NaN,-0.3264851,0.0004136796,NaN,-0.03711673,-14.45464,NaN,-0.842375,-1.466372,0.2171232,14.11312,NaN,NaN,0.2906464,0.8097375,0.5058278,1.040358,-1.317019E-06,1.378322
692.1428,-0.6115265,0.0004848186,NaN,-0.3264379,0.0004142173,NaN,-0.02417413,-14.45477,NaN,-0.8299733,-1.466071,0.2048456,14.11282,NaN,NaN,0.2845519,0.8095893,0.4959087,1.039926,-1.288409E-06,1.379043
692.158,-0.6115265,0.0004848186,NaN,-0.3264379,0.0004142173,NaN,-0.02417413,-14.45477,NaN,-0.8299733,-1.466071,0.2048456,14.11282,NaN,NaN,0.2845519,0.8095893,0.4959087,1.039926,-1.288409E-06,1.379043
692.1724,-0.6333726,0.0004850937,NaN,-0.326388,0.0004141692,NaN,-0.01141017,-14.45584,NaN,-0.8178683,-1.473337,0.1927231,14.12058,NaN,NaN,0.2785769,0.8086916,0.486184,1.050496,-1.264567E-06,1.387591
692.188,-0.6551946,0.0004855793,NaN,-0.326336,0.0004136869,NaN,0.001157162,-14.45539,NaN,-0.8060848,-1.478523,0.1807652,14.12596,NaN,NaN,0.2727191,0.8092129,0.4766501,1.057997,-1.237745E-06,1.387886
692.2032,-0.6771309,0.0004858524,NaN,-0.3262836,0.0004134155,NaN,0.01358758,-14.4547,NaN,-0.7944809,-1.473873,0.1689612,14.121,NaN,NaN,0.2669763,0.8098419,0.4673032,1.051242,-1.210327E-06,1.383417
692.2183,-0.6771309,0.0004858524,NaN,-0.3262836,0.0004134155,NaN,0.01358758,-14.4547,NaN,-0.7944809,-1.473873,0.1689612,14.121,NaN,NaN,0.2669763,0.8098419,0.4673032,1.051242,-1.210327E-06,1.383417
692.234,-0.6990473,0.0004861038,NaN,-0.3262304,0.0004137036,NaN,0.02585228,-14.45443,NaN,-0.7831401,-1.469212,0.1573094,14.11606,NaN,NaN,0.2613461,0.8100244,0.4581395,1.044474,-1.187677E-06,1.380353
692.2486,-0.7208593,0.0004862163,NaN,-0.3261768,0.0004141521,NaN,0.03794055,-14.4548,NaN,-0.7720848,-1.465778,0.1458112,14.11249,NaN,NaN,0.2558265,0.8095752,0.4491556,1.039502,-1.171584E-06,1.380879
692.2636,-0.7425143,0.0004868474,NaN,-0.3261234,0.0004139912,NaN,0.04985205,-14.45521,NaN,-0.7613134,-1.476916,0.1344657,14.12422,NaN,NaN,0.2504152,0.8094367,0.4403479,1.055655,-1.145358E-06,1.386357
692.2787,-0.7425143,0.0004868474,NaN,-0.3261234,0.0004139912,NaN,0.04985205,-14.45521,NaN,-0.7613134,-1.476916,0.1344657,14.12422,NaN,NaN,0.2504152,0.8094367,0.4403479,1.055655,-1.145358E-06,1.386357
692.2932,-0.76398,0.0004873205,NaN,-0.3260706,0.0004147085,NaN,0.06159099,-14.45552,NaN,-0.7508166,-1.467281,0.12327,14.11414,NaN,NaN,0.2451101,0.8089949,0.4317129,1.041693,-1.116748E-06,1.386892
692.309,-0.7852369,0.0004871837,NaN,-0.3260189,0.0004149576,NaN,0.07316294,-14.45425,NaN,-0.7405837,-1.465275,0.1122202,14.11187,NaN,NaN,0.2399092,0.8102118,0.4232472,1.038744,-1.095886E-06,1.375275
692.3243,-0.8062735,0.0004869852,NaN,-0.3259687,0.000415243,NaN,0.08457337,-14.45472,NaN,-0.7306046,-1.465163,0.1013123,14.1118,NaN,NaN,0.2348104,0.8097374,0.4149476,1.038596,-1.07562E-06,1.379028
692.3392,-0.8062735,0.0004869852,NaN,-0.3259687,0.000415243,NaN,0.08457337,-14.45472,NaN,-0.7306046,-1.465163,0.1013123,14.1118,NaN,NaN,0.2348104,0.8097374,0.4149476,1.038596,-1.07562E-06,1.379028
692.3539,-0.8270837,0.0004865535,NaN,-0.3259202,0.0004153938,NaN,0.09582711,-14.45471,NaN,-0.7208709,-1.464331,0.09054225,14.11092,NaN,NaN,0.2298116,0.809729,0.4068108,1.037388,-1.045818E-06,1.37779
692.3697,-0.8476645,0.0004857732,NaN,-0.3258735,0.0004151617,NaN,0.1069283,-14.45416,NaN,-0.711375,-1.465335,0.07990655,14.11189,NaN,NaN,0.2249111,0.8102897,0.3988335,1.038821,-1.025851E-06,1.375724
692.3848,-0.868015,0.0004853444,NaN,-0.3258287,0.0004154635,NaN,0.1178803,-14.45482,NaN,-0.7021106,-1.464348,0.06940202,14.11094,NaN,NaN,0.2201067,0.8096045,0.3910126,1.037413,-1.008267E-06,1.380199
692.401,-0.8881356,0.0004854727,NaN,-0.3257858,0.0004160196,NaN,0.1286863,-14.45537,NaN,-0.6930722,-1.465545,0.05902578,14.11226,NaN,NaN,0.2153967,0.8090768,0.3833451,1.039167,-9.930681E-07,1.385875
692.415,-0.8881356,0.0004854727,NaN,-0.3257858,0.0004160196,NaN,0.1286863,-14.45537,NaN,-0.6930722,-1.465545,0.05902578,14.11226,NaN,NaN,0.2153967,0.8090768,0.3833451,1.039167,-9.930681E-07,1.385875
692.4293,-0.9080275,0.0004856547,NaN,-0.3257449,0.0004166761,NaN,0.1393487,-14.45504,NaN,-0.6842545,-1.464063,0.04877528,14.11066,NaN,NaN,0.2107792,0.8093622,0.375828,1.037007,-9.722064E-07,1.383375
692.4453,-0.9276925,0.0004853271,NaN,-0.3257059,0.0004168978,NaN,0.1498701,-14.45483,NaN,-0.6756529,-1.463525,0.03864817,14.11006,NaN,NaN,0.2062524,0.8095516,0.3684583,1.036218,-9.558152E-07,1.37814
692.4614,-0.9471326,0.0004852324,NaN,-0.3256688,0.000416307,NaN,0.1602526,-14.45555,NaN,-0.6672627,-1.475498,0.02864235,14.12271,NaN,NaN,0.2018145,0.809156,0.3612331,1.053595,-9.376357E-07,1.385889
692.4756,-0.9471326,0.0004852324,NaN,-0.3256688,0.000416307,NaN,0.1602526,-14.45555,NaN,-0.6672627,-1.475498,0.02864235,14.12271,NaN,NaN,0.2018145,0.809156,0.3612331,1.053595,-9.376357E-07,1.385889
692.4898,-0.96635,0.0004854729,NaN,-0.3256335,0.0004168548,NaN,0.1704981,-14.45432,NaN,-0.6590799,-1.467342,0.01875582,14.11401,NaN,NaN,0.1974638,0.8102431,0.3541496,1.041748,-9.215424E-07,1.379354
692.5058,-0.985347,0.0004851592,NaN,-0.3256,0.0004169833,NaN,0.1806085,-14.45431,NaN,-0.6511002,-1.46484,0.008986786,14.11137,NaN,NaN,0.1931986,0.8101834,0.3472051,1.038116,-9.03512E-07,1.37582
692.5211,-1.004126,0.0004852728,NaN,-0.3255683,0.0004169523,NaN,0.1905857,-14.45555,NaN,-0.6433196,-1.471415,-0.0006664824,14.11844,NaN,NaN,0.1890172,0.8091063,0.3403967,1.047695,-8.838425E-07,1.386101
692.5361,-1.004126,0.0004852728,NaN,-0.3255683,0.0004169523,NaN,0.1905857,-14.45555,NaN,-0.6433196,-1.471415,-0.0006664824,14.11844,NaN,NaN,0.1890172,0.8091063,0.3403967,1.047695,-8.838425E-07,1.386101
692.5506,-1.022689,0.0004851311,NaN,-0.3255383,0.0004168721,NaN,0.2004313,-14.45457,NaN,-0.6357341,-1.468029,-0.01020559,14.11477,NaN,NaN,0.1849179,0.8100172,0.3337219,1.042762,-8.658121E-07,1.37799
692.5663,-1.04104,0.0004848242,NaN,-0.32551,0.0004170575,NaN,0.210147,-14.45463,NaN,-0.62834,-1.4645,-0.01963205,14.11106,NaN,NaN,0.1808992,0.8098732,0.327178,1.037646,-8.477817E-07,1.37802
692.5818,-1.059179,0.0004853602,NaN,-0.3254833,0.0004168302,NaN,0.2197343,-14.45432,NaN,-0.6211333,-1.476006,-0.02894722,14.12309,NaN,NaN,0.1769595,0.8104753,0.3207624,1.054311,-8.300494E-07,1.381712
692.5967,-1.059179,0.0004853602,NaN,-0.3254833,0.0004168302,NaN,0.2197343,-14.45432,NaN,-0.6211333,-1.476006,-0.02894722,14.12309,NaN,NaN,0.1769595,0.8104753,0.3207624,1.054311,-8.300494E-07,1.381712
692.6109,-1.07711,0.0004854691,NaN,-0.3254582,0.000417031,NaN,0.2291946,-14.4543,NaN,-0.6141104,-1.466745,-0.03815245,14.11334,NaN,NaN,0.1730972,0.8103493,0.3144726,1.040872,-8.190598E-07,1.378006
692.6268,-1.094835,0.0004860123,NaN,-0.3254347,0.0004171364,NaN,0.2385293,-14.45556,NaN,-0.6072676,-1.473211,-0.04724892,14.12029,NaN,NaN,0.1693108,0.8092453,0.3083062,1.050291,-8.052762E-07,1.387781
692.6419,-1.112357,0.0004860049,NaN,-0.3254126,0.0004172289,NaN,0.2477398,-14.45421,NaN,-0.6006012,-1.466285,-0.05623776,14.11286,NaN,NaN,0.1655989,0.8104641,0.3022607,1.040221,-7.928896E-07,1.376945
692.6572,-1.112357,0.0004860049,NaN,-0.3254126,0.0004172289,NaN,0.2477398,-14.45421,NaN,-0.6006012,-1.466285,-0.05623776,14.11286,NaN,NaN,0.1655989,0.8104641,0.3022607,1.040221,-7.928896E-07,1.376945
692.6713,-1.129677,0.0004853304,NaN,-0.3253919,0.0004168825,NaN,0.2568274,-14.45382,NaN,-0.5941077,-1.464939,-0.06512006,14.11139,NaN,NaN,0.1619599,0.8108177,0.2963338,1.038254,-7.771689E-07,1.37629
692.6872,-1.146798,0.0004840743,NaN,-0.3253727,0.0004160925,NaN,0.2657932,-14.45382,NaN,-0.5877836,-1.464922,-0.07389678,14.11137,NaN,NaN,0.1583925,0.810813,0.2905231,1.038229,-7.58617E-07,1.376593
692.7025,-1.163723,0.0004833425,NaN,-0.3253548,0.0004158396,NaN,0.2746384,-14.4542,NaN,-0.5816253,-1.466324,-0.08256885,14.11289,NaN,NaN,0.1548953,0.8104674,0.2848263,1.040274,-7.455039E-07,1.378758
692.7178,-1.163723,0.0004833425,NaN,-0.3253548,0.0004158396,NaN,0.2746384,-14.4542,NaN,-0.5816253,-1.466324,-0.08256885,14.11289,NaN,NaN,0.1548953,0.8104674,0.2848263,1.040274,-7.455039E-07,1.378758
692.7321,-1.180452,0.0004826704,NaN,-0.3253383,0.0004157824,NaN,0.283364,-14.45402,NaN,-0.5756296,-1.464579,-0.09113712,14.11102,NaN,NaN,0.1514668,0.8105887,0.2792412,1.037732,-7.319439E-07,1.376986
692.7487,-1.19699,0.0004816868,NaN,-0.325323,0.0004154149,NaN,0.2919711,-14.45384,NaN,-0.569793,-1.464453,-0.09960237,14.11086,NaN,NaN,0.1481058,0.8107634,0.2737657,1.037539,-7.161486E-07,1.376751
692.7629,-1.213338,0.000480719,NaN,-0.3253089,0.000415025,NaN,0.3004606,-14.45386,NaN,-0.5641122,-1.466014,-0.1079653,14.1125,NaN,NaN,0.1448108,0.8107734,0.2683976,1.039803,-7.043767E-07,1.376806
692.7778,-1.213338,0.000480719,NaN,-0.3253089,0.000415025,NaN,0.3004606,-14.45386,NaN,-0.5641122,-1.466014,-0.1079653,14.1125,NaN,NaN,0.1448108,0.8107734,0.2683976,1.039803,-7.043767E-07,1.376806
692.7923,-1.229497,0.0004801759,NaN,-0.3252961,0.0004153237,NaN,0.3088336,-14.45425,NaN,-0.5585839,-1.464202,-0.1162267,14.11063,NaN,NaN,0.1415807,0.8103225,0.2631347,1.037186,-6.888795E-07,1.37875
692.808,-1.24525,0.000479055,NaN,-0.3252837,0.0004149202,NaN,0.3169754,-14.45422,NaN,-0.5533367,-1.464027,-0.1243073,14.11044,NaN,NaN,0.1384141,0.8103428,0.257975,1.036929,-6.769586E-07,1.378778
692.8232,-1.260682,0.0004781936,NaN,-0.3252727,0.0004147714,NaN,0.3249649,-14.45417,NaN,-0.548273,-1.465337,-0.1322622,14.1118,NaN,NaN,0.1353097,0.810407,0.2529165,1.038826,-6.641436E-07,1.378582
692.8381,-1.260682,0.0004781936,NaN,-0.3252727,0.0004147714,NaN,0.3249649,-14.45417,NaN,-0.548273,-1.465337,-0.1322622,14.1118,NaN,NaN,0.1353097,0.810407,0.2529165,1.038826,-6.641436E-07,1.378582
692.8527,-1.275846,0.0004778241,NaN,-0.3252635,0.000414377,NaN,0.3328342,-14.45558,NaN,-0.5433529,-1.472417,-0.1401134,14.11943,NaN,NaN,0.1322664,0.8091745,0.2479572,1.049147,-6.504345E-07,1.388417
692.8683,-1.29078,0.0004773213,NaN,-0.3252559,0.0004142776,NaN,0.3405945,-14.45421,NaN,-0.538561,-1.465838,-0.1478686,14.11236,NaN,NaN,0.129283,0.8104036,0.2430952,1.039581,-6.382156E-07,1.379258
692.8836,-1.304778,0.000476434,NaN,-0.3252474,0.0004138528,NaN,0.3478391,-14.45455,NaN,-0.534322,-1.465153,-0.1552337,14.11169,NaN,NaN,0.1263581,0.8100349,0.2383285,1.0386,-6.254006E-07,1.380654
692.8989,-1.304778,0.000476434,NaN,-0.3252474,0.0004138528,NaN,0.3478391,-14.45455,NaN,-0.534322,-1.465153,-0.1552337,14.11169,NaN,NaN,0.1263581,0.8100349,0.2383285,1.0386,-6.254006E-07,1.380654
692.9131,-1.318128,0.000476019,NaN,-0.3252411,0.0004141467,NaN,0.3548487,-14.45487,NaN,-0.5303265,-1.46435,-0.1624138,14.11088,NaN,NaN,0.1234906,0.8096899,0.2336553,1.037446,-6.134796E-07,1.382377
692.9299,-1.331016,0.0004760209,NaN,-0.3252379,0.0004146863,NaN,0.3617327,-14.45499,NaN,-0.5264533,-1.464349,-0.1694872,14.11089,NaN,NaN,0.1206796,0.8095672,0.2290738,1.037447,-5.997706E-07,1.383369
692.9453,-1.343558,0.000475601,NaN,-0.3252367,0.0004147571,NaN,0.3685268,-14.45512,NaN,-0.522661,-1.464459,-0.1764777,14.11102,NaN,NaN,0.1179238,0.8094277,0.224582,1.037613,-5.860616E-07,1.381167
692.959,-1.343558,0.000475601,NaN,-0.3252367,0.0004147571,NaN,0.3685268,-14.45512,NaN,-0.522661,-1.464459,-0.1764777,14.11102,NaN,NaN,0.1179238,0.8094277,0.224582,1.037613,-5.860616E-07,1.381167
692.9731,-1.355104,0.0004751769,NaN,-0.3252355,0.0004148106,NaN,0.374802,-14.45505,NaN,-0.5193672,-1.465793,-0.1830652,14.1124,NaN,NaN,0.115222,0.8095225,0.2201784,1.039542,-5.729485E-07,1.383345
692.989,-1.365974,0.0004748665,NaN,-0.3252358,0.0004143137,NaN,0.3808571,-14.45629,NaN,-0.5162698,-1.472889,-0.1894735,14.12001,NaN,NaN,0.1125732,0.8084466,0.2158612,1.049873,-5.616237E-07,1.390323
693.0039,-1.376373,0.0004751017,NaN,-0.3252374,0.0004146435,NaN,0.3868039,-14.45484,NaN,-0.5132542,-1.469466,-0.1957849,14.11625,NaN,NaN,0.1099765,0.8098231,0.2116285,1.044881,-5.497027E-07,1.38244
693.0189,-1.376373,0.0004751017,NaN,-0.3252374,0.0004146435,NaN,0.3868039,-14.45484,NaN,-0.5132542,-1.469466,-0.1957849,14.11625,NaN,NaN,0.1099765,0.8098231,0.2116285,1.044881,-5.497027E-07,1.38244
693.0334,-1.385705,0.0004755359,NaN,-0.3252387,0.000415508,NaN,0.3922231,-14.45508,NaN,-0.5107086,-1.465442,-0.2016798,14.11205,NaN,NaN,0.1074306,0.8094842,0.2074789,1.039056,-5.40166E-07,1.384533
693.0492,-1.394327,0.0004760425,NaN,-0.3252413,0.0004158535,NaN,0.3974354,-14.4563,NaN,-0.5083264,-1.470534,-0.2074032,14.11755,NaN,NaN,0.1049347,0.8083893,0.2034107,1.04648,-5.27649E-07,1.392436
693.0642,-1.402465,0.0004763355,NaN,-0.3252458,0.000415546,NaN,0.4025588,-14.4564,NaN,-0.5059945,-1.474824,-0.2130435,14.12205,NaN,NaN,0.1024878,0.8083693,0.1994223,1.052694,-5.204965E-07,1.391654
693.0793,-1.402465,0.0004763355,NaN,-0.3252458,0.000415546,NaN,0.4025588,-14.4564,NaN,-0.5059945,-1.474824,-0.2130435,14.12205,NaN,NaN,0.1024878,0.8083693,0.1994223,1.052694,-5.204965E-07,1.391654
693.0938,-1.410266,0.0004765504,NaN,-0.3252527,0.0004161264,NaN,0.4076271,-14.45554,NaN,-0.5036809,-1.465257,-0.2186253,14.11193,NaN,NaN,0.100089,0.8090723,0.195512,1.038825,-5.121518E-07,1.384017
693.1094,-1.417094,0.0004759316,NaN,-0.3252595,0.0004158719,NaN,0.412166,-14.45524,NaN,-0.5018044,-1.46465,-0.22378,14.11125,NaN,NaN,0.09773699,0.8093595,0.1916785,1.037935,-5.055953E-07,1.382069
693.1247,-1.423281,0.0004761505,NaN,-0.3252681,0.0004159088,NaN,0.4165018,-14.45647,NaN,-0.5000738,-1.470995,-0.2287626,14.11807,NaN,NaN,0.09543113,0.8082914,0.1879201,1.047175,-4.942705E-07,1.391388
693.1394,-1.423281,0.0004761505,NaN,-0.3252681,0.0004159088,NaN,0.4165018,-14.45647,NaN,-0.5000738,-1.470995,-0.2287626,14.11807,NaN,NaN,0.09543113,0.8082914,0.1879201,1.047175,-4.942705E-07,1.391388
693.1536,-1.429039,0.0004763934,NaN,-0.3252792,0.0004155379,NaN,0.4207538,-14.45667,NaN,-0.4983806,-1.474274,-0.2336645,14.12152,NaN,NaN,0.09317056,0.808153,0.1842354,1.051927,-4.859258E-07,1.391882
693.1693,-1.434502,0.0004766799,NaN,-0.3252925,0.0004157932,NaN,0.424956,-14.45503,NaN,-0.4966933,-1.469301,-0.2385109,14.11612,NaN,NaN,0.09095441,0.8097028,0.180623,1.044691,-4.769851E-07,1.380198
693.1846,-1.439031,0.0004770579,NaN,-0.3253051,0.000416456,NaN,0.4286182,-14.45588,NaN,-0.495427,-1.466076,-0.2429155,14.11284,NaN,NaN,0.08878142,0.8087832,0.1770813,1.040041,-4.704286E-07,1.385307
693.1994,-1.439031,0.0004770579,NaN,-0.3253051,0.000416456,NaN,0.4286182,-14.45588,NaN,-0.495427,-1.466076,-0.2429155,14.11284,NaN,NaN,0.08878142,0.8087832,0.1770813,1.040041,-4.704286E-07,1.385307
693.2137,-1.442951,0.0004769168,NaN,-0.3253188,0.0004165326,NaN,0.4320815,-14.45546,NaN,-0.494292,-1.46588,-0.2471485,14.11257,NaN,NaN,0.086651,0.8091925,0.1736092,1.039744,-4.608919E-07,1.382486
693.2297,-1.446473,0.0004767983,NaN,-0.325334,0.0004165847,NaN,0.4354707,-14.45524,NaN,-0.4931799,-1.46778,-0.2513077,14.11453,NaN,NaN,0.08456241,0.8094593,0.1702051,1.042487,-4.525472E-07,1.381076
693.2446,-1.449729,0.0004765552,NaN,-0.3253505,0.0004167775,NaN,0.438822,-14.45583,NaN,-0.4920589,-1.465098,-0.2554203,14.11179,NaN,NaN,0.08251484,0.8088022,0.1668678,1.038622,-4.442026E-07,1.383761
693.2598,-1.449729,0.0004765552,NaN,-0.3253505,0.0004167775,NaN,0.438822,-14.45583,NaN,-0.4920589,-1.465098,-0.2554203,14.11179,NaN,NaN,0.08251484,0.8088022,0.1668678,1.038622,-4.442026E-07,1.383761
693.2742,-1.452076,0.0004764343,NaN,-0.3253658,0.0004170022,NaN,0.4416323,-14.45637,NaN,-0.4913416,-1.466304,-0.2590858,14.11312,NaN,NaN,0.08050708,0.8082818,0.1635959,1.040388,-4.3705E-07,1.38701
693.2898,-1.453842,0.0004764665,NaN,-0.3253811,0.0004173966,NaN,0.4442539,-14.45638,NaN,-0.4907401,-1.465345,-0.2625862,14.11211,NaN,NaN,0.07853861,0.8082361,0.1603882,1.039001,-4.298975E-07,1.387374
693.3058,-1.455234,0.0004766201,NaN,-0.325397,0.0004179685,NaN,0.4468156,-14.45601,NaN,-0.4901468,-1.464406,-0.2660238,14.11108,NaN,NaN,0.07660878,0.808567,0.1572434,1.037629,-4.215528E-07,1.386232
693.3198,-1.455234,0.0004766201,NaN,-0.325397,0.0004179685,NaN,0.4468156,-14.45601,NaN,-0.4901468,-1.464406,-0.2660238,14.11108,NaN,NaN,0.07660878,0.808567,0.1572434,1.037629,-4.215528E-07,1.386232
693.3344,-1.455657,0.0004766338,NaN,-0.3254111,0.0004180409,NaN,0.4488417,-14.45688,NaN,-0.4899434,-1.468537,-0.2690171,14.11551,NaN,NaN,0.0747164,0.8078085,0.1541602,1.043641,-4.096319E-07,1.389502
693.3497,-1.45547,0.0004767871,NaN,-0.3254248,0.0004186088,NaN,0.4507021,-14.45649,NaN,-0.4898333,-1.464692,-0.2718639,14.11144,NaN,NaN,0.07286106,0.8081065,0.1511375,1.038067,-4.000952E-07,1.388605
693.3647,-1.454899,0.0004768908,NaN,-0.3254384,0.0004190361,NaN,0.4525285,-14.45644,NaN,-0.4897086,-1.465154,-0.2746691,14.11191,NaN,NaN,0.07104213,0.8081534,0.1481741,1.038733,-3.941347E-07,1.388798
693.3799,-1.454899,0.0004768908,NaN,-0.3254384,0.0004190361,NaN,0.4525285,-14.45644,NaN,-0.4897086,-1.465154,-0.2746691,14.11191,NaN,NaN,0.07104213,0.8081534,0.1481741,1.038733,-3.941347E-07,1.388798
693.3941,-1.454089,0.0004768106,NaN,-0.3254522,0.0004193794,NaN,0.4543566,-14.45675,NaN,-0.4895397,-1.464343,-0.2774602,14.1111,NaN,NaN,0.06925891,0.8078169,0.1452688,1.037572,-3.893664E-07,1.388261
693.4113,-1.452405,0.0004774998,NaN,-0.3254637,0.0004192348,NaN,0.4556684,-14.45698,NaN,-0.4897386,-1.476374,-0.2798198,14.1237,NaN,NaN,0.06751026,0.8078924,0.1424204,1.054985,-3.810217E-07,1.394042
693.425,-1.450176,0.0004778067,NaN,-0.325474,0.0004198525,NaN,0.4568249,-14.45687,NaN,-0.4900221,-1.46515,-0.2820403,14.11195,NaN,NaN,0.06579581,0.8078437,0.1396279,1.038741,-3.738692E-07,1.38984
693.4398,-1.450176,0.0004778067,NaN,-0.325474,0.0004198525,NaN,0.4568249,-14.45687,NaN,-0.4900221,-1.46515,-0.2820403,14.11195,NaN,NaN,0.06579581,0.8078437,0.1396279,1.038741,-3.738692E-07,1.38984
693.4542,-1.447616,0.0004778143,NaN,-0.3254836,0.0004201304,NaN,0.4579571,-14.45699,NaN,-0.4902853,-1.465587,-0.2842268,14.11241,NaN,NaN,0.06411499,0.8077284,0.1368902,1.039376,-3.643324E-07,1.387925
693.4698,-1.444856,0.0004777343,NaN,-0.3254927,0.0004204102,NaN,0.4591015,-14.45709,NaN,-0.4904986,-1.465069,-0.2864082,14.11188,NaN,NaN,0.06246717,0.8076128,0.1342061,1.038629,-3.559878E-07,1.389293
693.485,-1.441255,0.0004779601,NaN,-0.3254991,0.0004205676,NaN,0.4597391,-14.45794,NaN,-0.4910722,-1.4696,-0.2881646,14.11672,NaN,NaN,0.06085124,0.8068854,0.1315747,1.04521,-3.476432E-07,1.397119
693.5008,-1.43714,0.0004784741,NaN,-0.3255038,0.0004202112,NaN,0.4602346,-14.45725,NaN,-0.4917226,-1.477384,-0.2897925,14.12475,NaN,NaN,0.05926689,0.8077281,0.1289949,1.056439,-3.392985E-07,1.395321
693.5149,-1.43714,0.0004784741,NaN,-0.3255038,0.0004202112,NaN,0.4602346,-14.45725,NaN,-0.4917226,-1.477384,-0.2897925,14.12475,NaN,NaN,0.05926689,0.8077281,0.1289949,1.056439,-3.392985E-07,1.395321
693.529,-1.432718,0.0004793054,NaN,-0.3255072,0.0004208668,NaN,0.460721,-14.45634,NaN,-0.4923441,-1.471083,-0.2913992,14.11805,NaN,NaN,0.05771362,0.8085412,0.1264656,1.047302,-3.32146E-07,1.388479
693.5447,-1.428122,0.000479412,NaN,-0.3255098,0.0004208057,NaN,0.4612353,-14.45638,NaN,-0.4929067,-1.469511,-0.2930143,14.11641,NaN,NaN,0.05619085,0.8084636,0.123986,1.045027,-3.249934E-07,1.386741
693.5597,-1.428122,0.000479412,NaN,-0.3255098,0.0004208057,NaN,0.4612353,-14.45638,NaN,-0.4929067,-1.469511,-0.2930143,14.11641,NaN,NaN,0.05619085,0.8084636,0.123986,1.045027,-3.249934E-07,1.386741
693.5738,-1.422708,0.0004787254,NaN,-0.3255106,0.000420224,NaN,0.4612609,-14.45726,NaN,-0.4938204,-1.466213,-0.2942197,14.11306,NaN,NaN,0.05469752,0.8075135,0.1215549,1.040279,-3.166488E-07,1.389428
693.5894,-1.416801,0.0004782418,NaN,-0.3255105,0.0004198052,NaN,0.4611627,-14.45677,NaN,-0.4948017,-1.468488,-0.2953122,14.11537,NaN,NaN,0.05323338,0.8080465,0.1191716,1.043552,-3.094962E-07,1.389992
693.6044,-1.410609,0.0004781799,NaN,-0.3255099,0.000419822,NaN,0.461073,-14.45676,NaN,-0.4957449,-1.468562,-0.2963987,14.11544,NaN,NaN,0.05179795,0.8080569,0.1168349,1.043658,-3.059199E-07,1.391264
693.6192,-1.410609,0.0004781799,NaN,-0.3255099,0.000419822,NaN,0.461073,-14.45676,NaN,-0.4957449,-1.468562,-0.2963987,14.11544,NaN,NaN,0.05179795,0.8080569,0.1168349,1.043658,-3.059199E-07,1.391264
693.6338,-1.403536,0.0004778032,NaN,-0.3255064,0.0004198077,NaN,0.4605121,-14.45691,NaN,-0.4970306,-1.465119,-0.2970906,14.11185,NaN,NaN,0.05039027,0.8078163,0.1145441,1.038681,-2.987674E-07,1.388109
693.6494,-1.395938,0.0004782423,NaN,-0.3255009,0.0004198392,NaN,0.459855,-14.45802,NaN,-0.4983659,-1.472965,-0.2976924,14.12019,NaN,NaN,0.0490101,0.8068997,0.1122982,1.050071,-2.904227E-07,1.399745
693.6644,-1.388041,0.00047889,NaN,-0.3254938,0.0004198132,NaN,0.4592353,-14.45815,NaN,-0.4996445,-1.475609,-0.2983127,14.12296,NaN,NaN,0.04765702,0.8068172,0.1100963,1.053895,-2.820781E-07,1.400023
693.6792,-1.388041,0.00047889,NaN,-0.3254938,0.0004198132,NaN,0.4592353,-14.45815,NaN,-0.4996445,-1.475609,-0.2983127,14.12296,NaN,NaN,0.04765702,0.8068172,0.1100963,1.053895,-2.820781E-07,1.400023
693.6957,-1.37999,0.0004795431,NaN,-0.3254856,0.0004200337,NaN,0.4586874,-14.45668,NaN,-0.5008379,-1.47359,-0.2989789,14.12069,NaN,NaN,0.04633053,0.8082382,0.1079376,1.050945,-2.790979E-07,1.38864
693.7095,-1.371147,0.0004797362,NaN,-0.3254744,0.0004200462,NaN,0.457699,-14.45688,NaN,-0.5023581,-1.470431,-0.2992763,14.1174,NaN,NaN,0.04502965,0.8079828,0.1058213,1.046376,-2.719453E-07,1.391613
693.7242,-1.361843,0.0004799711,NaN,-0.3254608,0.0004206779,NaN,0.4566273,-14.45706,NaN,-0.5039237,-1.465314,-0.2994944,14.11206,NaN,NaN,0.0437542,0.8076982,0.1037464,1.038975,-2.68369E-07,1.391476
693.7391,-1.361843,0.0004799711,NaN,-0.3254608,0.0004206779,NaN,0.4566273,-14.45706,NaN,-0.5039237,-1.465314,-0.2994944,14.11206,NaN,NaN,0.0437542,0.8076982,0.1037464,1.038975,-2.68369E-07,1.391476
693.7534,-1.352288,0.0004802973,NaN,-0.3254454,0.0004207414,NaN,0.455601,-14.45826,NaN,-0.5054311,-1.471904,-0.2997377,14.1191,NaN,NaN,0.04250378,0.8066682,0.1017122,1.048548,-2.624086E-07,1.399045
693.7688,-1.342614,0.0004808481,NaN,-0.3254287,0.0004212908,NaN,0.4546543,-14.45813,NaN,-0.5068517,-1.469099,-0.3000339,14.11614,NaN,NaN,0.04127794,0.8067515,0.09971793,1.044487,-2.558521E-07,1.397653
693.7838,-1.332179,0.0004810222,NaN,-0.325409,0.0004214908,NaN,0.4532843,-14.45707,NaN,-0.5085973,-1.468813,-0.2999765,14.11571,NaN,NaN,0.04007576,0.8077887,0.09776273,1.044041,-2.516797E-07,1.391281
693.7988,-1.332179,0.0004810222,NaN,-0.325409,0.0004214908,NaN,0.4532843,-14.45707,NaN,-0.5085973,-1.468813,-0.2999765,14.11571,NaN,NaN,0.04007576,0.8077887,0.09776273,1.044041,-2.516797E-07,1.391281
693.8132,-1.321309,0.0004809606,NaN,-0.3253867,0.0004217306,NaN,0.4518439,-14.45763,NaN,-0.5103847,-1.465894,-0.2998508,14.11272,NaN,NaN,0.03889707,0.8071612,0.09584587,1.039835,-2.457193E-07,1.393088
693.829,-1.31021,0.0004809835,NaN,-0.3253624,0.0004221238,NaN,0.4504609,-14.45775,NaN,-0.5121093,-1.46518,-0.2997606,14.11198,NaN,NaN,0.03774153,0.8070269,0.0939666,1.038806,-2.397588E-07,1.39391
693.844,-1.299013,0.0004807104,NaN,-0.3253369,0.0004222668,NaN,0.4491696,-14.45793,NaN,-0.5137419,-1.464708,-0.2997335,14.11151,NaN,NaN,0.03660871,0.8068274,0.09212416,1.038129,-2.379707E-07,1.393223
693.8596,-1.299013,0.0004807104,NaN,-0.3253369,0.0004222668,NaN,0.4491696,-14.45793,NaN,-0.5137419,-1.464708,-0.2997335,14.11151,NaN,NaN,0.03660871,0.8068274,0.09212416,1.038129,-2.379707E-07,1.393223
693.8733,-1.287074,0.0004803902,NaN,-0.3253083,0.0004223984,NaN,0.4474769,-14.45823,NaN,-0.5156947,-1.465027,-0.2993721,14.11188,NaN,NaN,0.03549774,0.8065349,0.09031786,1.0386,-2.337983E-07,1.394957
693.8906,-1.274719,0.000480664,NaN,-0.325277,0.0004219096,NaN,0.4457291,-14.45818,NaN,-0.5176837,-1.476297,-0.2989555,14.12362,NaN,NaN,0.03440849,0.806864,0.08854697,1.054878,-2.29626E-07,1.400912
693.904,-1.262152,0.0004804968,NaN,-0.3252437,0.0004216542,NaN,0.4440518,-14.45747,NaN,-0.5196039,-1.467453,-0.2985852,14.1143,NaN,NaN,0.03334064,0.8074348,0.0868108,1.04208,-2.236656E-07,1.393057
693.919,-1.262152,0.0004804968,NaN,-0.3252437,0.0004216542,NaN,0.4440518,-14.45747,NaN,-0.5196039,-1.467453,-0.2985852,14.1143,NaN,NaN,0.03334064,0.8074348,0.0868108,1.04208,-2.236656E-07,1.393057
693.9333,-1.248778,0.0004809127,NaN,-0.3252066,0.0004210602,NaN,0.4419949,-14.45841,NaN,-0.5218393,-1.477392,-0.2978997,14.1248,NaN,NaN,0.03229339,0.8067242,0.08510868,1.056482,-2.188972E-07,1.4021
693.949,-1.234951,0.0004810618,NaN,-0.3251662,0.0004210553,NaN,0.4399095,-14.45762,NaN,-0.524096,-1.467925,-0.2971811,14.11483,NaN,NaN,0.03126663,0.8073937,0.08343994,1.042782,-2.147249E-07,1.394805
693.9639,-1.220897,0.0004810544,NaN,-0.3251232,0.0004212137,NaN,0.4379203,-14.45779,NaN,-0.5262673,-1.466255,-0.2965302,14.11309,NaN,NaN,0.03026005,0.8071915,0.08180391,1.040369,-2.111486E-07,1.39542
693.9787,-1.220897,0.0004810544,NaN,-0.3251232,0.0004212137,NaN,0.4379203,-14.45779,NaN,-0.5262673,-1.466255,-0.2965302,14.11309,NaN,NaN,0.03026005,0.8071915,0.08180391,1.040369,-2.111486E-07,1.39542
693.9932,-1.20676,0.0004806467,NaN,-0.3250785,0.0004211884,NaN,0.4360574,-14.45771,NaN,-0.5283257,-1.464692,-0.2959715,14.11144,NaN,NaN,0.0292733,0.807232,0.08019996,1.038104,-2.057842E-07,1.392432
694.0091,-1.191902,0.0004803272,NaN,-0.3250306,0.0004209652,NaN,0.4338449,-14.45847,NaN,-0.5306876,-1.468814,-0.2951241,14.11584,NaN,NaN,0.02830559,0.8065832,0.07862745,1.044089,-2.034E-07,1.397221
694.0239,-1.176651,0.000479756,NaN,-0.3249796,0.0004207477,NaN,0.4316119,-14.45716,NaN,-0.5330694,-1.465153,-0.2942505,14.11185,NaN,NaN,0.02735682,0.8078085,0.07708579,1.038757,-1.998237E-07,1.389361
694.0389,-1.176651,0.000479756,NaN,-0.3249796,0.0004207477,NaN,0.4316119,-14.45716,NaN,-0.5330694,-1.465153,-0.2942505,14.11185,NaN,NaN,0.02735682,0.8078085,0.07708579,1.038757,-1.998237E-07,1.389361
694.0533,-1.161218,0.0004792056,NaN,-0.3249264,0.0004203431,NaN,0.4294767,-14.45755,NaN,-0.5353672,-1.468327,-0.2934458,14.11522,NaN,NaN,0.0264267,0.8075075,0.07557435,1.043361,-1.959494E-07,1.392657
694.0691,-1.145735,0.0004787242,NaN,-0.3248717,0.0004203369,NaN,0.4274691,-14.45751,NaN,-0.5375528,-1.464959,-0.2927342,14.11169,NaN,NaN,0.0255149,0.8074719,0.07409254,1.038488,-1.923732E-07,1.392578
694.0853,-1.129557,0.0004785463,NaN,-0.3248141,0.0004198133,NaN,0.4251269,-14.4586,NaN,-0.5400434,-1.47353,-0.291748,14.12078,NaN,NaN,0.02462068,0.8066047,0.07263979,1.050921,-1.90287E-07,1.400204
694.0991,-1.129557,0.0004785463,NaN,-0.3248141,0.0004198133,NaN,0.4251269,-14.4586,NaN,-0.5400434,-1.47353,-0.291748,14.12078,NaN,NaN,0.02462068,0.8066047,0.07263979,1.050921,-1.90287E-07,1.400204
694.1136,-1.113009,0.0004781747,NaN,-0.3247535,0.0004194749,NaN,0.422772,-14.45755,NaN,-0.5425528,-1.467917,-0.2907417,14.1148,NaN,NaN,0.02374393,0.807555,0.07121552,1.042783,-1.861147E-07,1.393113
694.129,-1.096299,0.0004785038,NaN,-0.3246907,0.0004189001,NaN,0.4205204,-14.45813,NaN,-0.5449758,-1.477178,-0.2898084,14.12455,NaN,NaN,0.02288443,0.8071858,0.06981917,1.056196,-1.826874E-07,1.399078
694.144,-1.079556,0.0004787606,NaN,-0.3246267,0.0004181195,NaN,0.4184017,-14.45808,NaN,-0.5472837,-1.476333,-0.2889724,14.12365,NaN,NaN,0.02204185,0.8072183,0.06845021,1.05497,-1.800052E-07,1.396287
694.1591,-1.079556,0.0004787606,NaN,-0.3246267,0.0004181195,NaN,0.4184017,-14.45808,NaN,-0.5472837,-1.476333,-0.2889724,14.12365,NaN,NaN,0.02204185,0.8072183,0.06845021,1.05497,-1.800052E-07,1.396287
694.1732,-1.062134,0.0004788479,NaN,-0.3245599,0.0004182034,NaN,0.415967,-14.45715,NaN,-0.5498946,-1.466309,-0.2878782,14.11307,NaN,NaN,0.02121555,0.8080118,0.06710809,1.040455,-1.767269E-07,1.389431
694.189,-1.044359,0.0004789002,NaN,-0.3244902,0.0004183589,NaN,0.4135291,-14.45791,NaN,-0.5525208,-1.467103,-0.2867717,14.11398,NaN,NaN,0.02040545,0.8072759,0.06579229,1.041623,-1.719586E-07,1.393704
694.2039,-1.026435,0.0004792089,NaN,-0.3244184,0.0004178049,NaN,0.411201,-14.45791,NaN,-0.5550569,-1.477455,-0.2857431,14.12479,NaN,NaN,0.01961131,0.8075129,0.06450228,1.056586,-1.679352E-07,1.398106
694.219,-1.026435,0.0004792089,NaN,-0.3244184,0.0004178049,NaN,0.411201,-14.45791,NaN,-0.5550569,-1.477455,-0.2857431,14.12479,NaN,NaN,0.01961131,0.8075129,0.06450228,1.056586,-1.679352E-07,1.398106
694.2337,-1.007765,0.0004795259,NaN,-0.324343,0.0004183995,NaN,0.4085759,-14.45736,NaN,-0.5578925,-1.466672,-0.2844724,14.11344,NaN,NaN,0.01883249,0.8079243,0.06323757,1.040973,-1.658305E-07,1.392592
694.2494,-0.9887046,0.0004798601,NaN,-0.3242639,0.0004182302,NaN,0.4059694,-14.45823,NaN,-0.5607299,-1.475018,-0.2832067,14.12227,NaN,NaN,0.01806892,0.8072576,0.06199765,1.053074,-1.611366E-07,1.397542
694.2644,-0.9694776,0.0004801287,NaN,-0.3241821,0.0004182712,NaN,0.4034929,-14.45835,NaN,-0.563462,-1.470922,-0.2820348,14.118,NaN,NaN,0.01732041,0.8070627,0.06078204,1.047147,-1.581564E-07,1.395793
694.2803,-0.9502264,0.0004803163,NaN,-0.3240986,0.0004178293,NaN,0.4011719,-14.4586,NaN,-0.5660611,-1.474937,-0.2809778,14.12221,NaN,NaN,0.01658665,0.8068894,0.05959027,1.052953,-1.547291E-07,1.397598
694.2946,-0.9502264,0.0004803163,NaN,-0.3240986,0.0004178293,NaN,0.4011719,-14.4586,NaN,-0.5660611,-1.474937,-0.2809778,14.12221,NaN,NaN,0.01658665,0.8068894,0.05959027,1.052953,-1.547291E-07,1.397598
694.3088,-0.9303127,0.0004805214,NaN,-0.3240123,0.0004182231,NaN,0.398578,-14.45748,NaN,-0.5689503,-1.467011,-0.2797003,14.1138,NaN,NaN,0.01586707,0.8078843,0.05842187,1.041467,-1.518979E-07,1.389075
694.3244,-0.9100657,0.0004805564,NaN,-0.3239229,0.0004184958,NaN,0.3960046,-14.45763,NaN,-0.5718419,-1.466559,-0.2784298,14.11333,NaN,NaN,0.01516159,0.8077167,0.05727637,1.040813,-1.492157E-07,1.389645
694.3392,-0.9100657,0.0004805564,NaN,-0.3239229,0.0004184958,NaN,0.3960046,-14.45763,NaN,-0.5718419,-1.466559,-0.2784298,14.11333,NaN,NaN,0.01516159,0.8077167,0.05727637,1.040813,-1.492157E-07,1.389645
694.3549,-0.8896938,0.0004810138,NaN,-0.3238313,0.000418775,NaN,0.3935571,-14.45844,NaN,-0.5746312,-1.470858,-0.2772492,14.11792,NaN,NaN,0.01447002,0.8070077,0.05615333,1.047056,-1.459374E-07,1.395802
694.3693,-0.8693285,0.0004813425,NaN,-0.3237385,0.0004193634,NaN,0.3912604,-14.45777,NaN,-0.5772904,-1.466278,-0.2761792,14.11305,NaN,NaN,0.01379208,0.8075808,0.05505231,1.040413,-1.429572E-07,1.39077
694.3845,-0.8483248,0.0004816002,NaN,-0.3236433,0.0004197868,NaN,0.3887008,-14.45835,NaN,-0.5802428,-1.467038,-0.2748982,14.11391,NaN,NaN,0.01312725,0.8070246,0.05397288,1.041529,-1.40573E-07,1.393758
694.3994,-0.8483248,0.0004816002,NaN,-0.3236433,0.0004197868,NaN,0.3887008,-14.45835,NaN,-0.5802428,-1.467038,-0.2748982,14.11391,NaN,NaN,0.01312725,0.8070246,0.05397288,1.041529,-1.40573E-07,1.393758
694.4138,-0.8270077,0.0004820814,NaN,-0.3235454,0.0004200636,NaN,0.3861639,-14.4588,NaN,-0.5831982,-1.470901,-0.2736252,14.11799,NaN,NaN,0.01247544,0.8066589,0.05291461,1.047126,-1.364007E-07,1.397994
694.4295,-0.8055825,0.0004822553,NaN,-0.3234455,0.0004204503,NaN,0.3837527,-14.45821,NaN,-0.5860507,-1.466347,-0.2724413,14.11316,NaN,NaN,0.01183647,0.8071594,0.0518771,1.040526,-1.322284E-07,1.391989
694.4448,-0.784179,0.0004827215,NaN,-0.3233447,0.0004201475,NaN,0.3814923,-14.45823,NaN,-0.5887716,-1.476787,-0.271367,14.12406,NaN,NaN,0.01121012,0.8073874,0.05085993,1.055617,-1.2746E-07,1.396869
694.4598,-0.784179,0.0004827215,NaN,-0.3233447,0.0004201475,NaN,0.3814923,-14.45823,NaN,-0.5887716,-1.476787,-0.271367,14.12406,NaN,NaN,0.01121012,0.8073874,0.05085993,1.055617,-1.2746E-07,1.396869
694.4752,-0.762151,0.0004829435,NaN,-0.3232418,0.0004199996,NaN,0.3789819,-14.4579,NaN,-0.5917853,-1.471664,-0.2700932,14.11866,NaN,NaN,0.01059586,0.8076479,0.0498627,1.048199,-1.250758E-07,1.393684
694.49,-0.7398225,0.0004831349,NaN,-0.3231363,0.0004199748,NaN,0.3764985,-14.45894,NaN,-0.5948001,-1.47059,-0.2688305,14.11765,NaN,NaN,0.009993647,0.8065894,0.04888502,1.046671,-1.232877E-07,1.396798
694.5048,-0.7173985,0.0004835152,NaN,-0.3230289,0.0004204969,NaN,0.3741421,-14.45796,NaN,-0.5977097,-1.468004,-0.267657,14.11483,NaN,NaN,0.009403309,0.8075169,0.04792651,1.042903,-1.238837E-07,1.395043
694.5198,-0.7173985,0.0004835152,NaN,-0.3230289,0.0004204969,NaN,0.3741421,-14.45796,NaN,-0.5977097,-1.468004,-0.267657,14.11483,NaN,NaN,0.009403309,0.8075169,0.04792651,1.042903,-1.238837E-07,1.395043
694.5344,-0.6942804,0.0004837586,NaN,-0.3229185,0.0004207839,NaN,0.3715505,-14.45875,NaN,-0.6009095,-1.468873,-0.2662959,14.11583,NaN,NaN,0.008824369,0.8067433,0.04698679,1.044185,-1.191153E-07,1.396799
694.5503,-0.6708228,0.0004838832,NaN,-0.3228045,0.0004206327,NaN,0.3690031,-14.45887,NaN,-0.6040978,-1.471643,-0.2649584,14.11873,NaN,NaN,0.008256795,0.8066781,0.0460655,1.048193,-1.155391E-07,1.395311
694.5652,-0.6472496,0.0004838567,NaN,-0.322688,0.0004196737,NaN,0.3665981,-14.45824,NaN,-0.6071665,-1.478244,-0.2637217,14.12554,NaN,NaN,0.007700419,0.8074246,0.04516227,1.057717,-1.107707E-07,1.394755
694.5803,-0.6237025,0.0004840536,NaN,-0.3225702,0.0004192046,NaN,0.3643568,-14.45759,NaN,-0.6100884,-1.473459,-0.2626036,14.12046,NaN,NaN,0.007155037,0.8080171,0.04427676,1.050782,-1.071944E-07,1.389955
694.5956,-0.6237025,0.0004840536,NaN,-0.3225702,0.0004192046,NaN,0.3643568,-14.45759,NaN,-0.6100884,-1.473459,-0.2626036,14.12046,NaN,NaN,0.007155037,0.8080171,0.04427676,1.050782,-1.071944E-07,1.389955
694.6102,-0.5997146,0.0004838862,NaN,-0.3224507,0.000418671,NaN,0.3623147,-14.45787,NaN,-0.6133443,-1.470385,-0.2616688,14.11727,NaN,NaN,0.006673028,0.8076804,0.04320104,1.046341,-1.071944E-07,1.389581
694.626,-0.5755503,0.0004840918,NaN,-0.3223294,0.0004181703,NaN,0.3364896,-14.45929,NaN,-0.6442451,-1.474252,-0.2422225,14.12148,NaN,NaN,0.03070086,0.806343,0.04703195,1.051975,-1.048102E-07,1.39791
694.6417,-0.5513762,0.0004841336,NaN,-0.3222073,0.0004179051,NaN,0.307173,-14.45819,NaN,-0.6822968,-1.469894,-0.2207391,14.11681,NaN,NaN,0.05799021,0.8073695,0.05141499,1.045651,-1.048102E-07,1.390479
694.6566,-0.5513762,0.0004841336,NaN,-0.3222073,0.0004179051,NaN,0.307173,-14.45819,NaN,-0.6822968,-1.469894,-0.2207391,14.11681,NaN,NaN,0.05799021,0.8073695,0.05141499,1.045651,-1.048102E-07,1.390479
694.671,-0.5272971,0.0004844925,NaN,-0.3220854,0.0004176562,NaN,0.2811458,-14.45951,NaN,-0.7197837,-1.47444,-0.2023373,14.12171,NaN,NaN,0.08295637,0.8061409,0.05535889,1.052263,-1.101747E-07,1.398887
694.6873,-0.5033785,0.0004846368,NaN,-0.3219649,0.0004173188,NaN,0.2575115,-14.45836,NaN,-0.7571582,-1.471993,-0.1861008,14.11903,NaN,NaN,0.1072273,0.8072553,0.05929944,1.048702,-1.071944E-07,1.393188
694.7015,-0.479661,0.0004850827,NaN,-0.3218468,0.0004172667,NaN,0.2361106,-14.4579,NaN,-0.7939838,-1.473646,-0.1717852,14.1207,NaN,NaN,0.1307946,0.8077425,0.06329872,1.051081,-1.048102E-07,1.388842
694.7194,-0.479661,0.0004850827,NaN,-0.3218468,0.0004172667,NaN,0.2361106,-14.4579,NaN,-0.7939838,-1.473646,-0.1717852,14.1207,NaN,NaN,0.1307946,0.8077425,0.06329872,1.051081,-1.048102E-07,1.388842
694.7316,-0.4561693,0.0004853964,NaN,-0.3217319,0.0004177854,NaN,0.2166085,-14.45818,NaN,-0.8301864,-1.467079,-0.1590577,14.11385,NaN,NaN,0.1537681,0.8073553,0.06740919,1.041586,-1.167312E-07,1.390899
694.7475,-0.4329181,0.0004859507,NaN,-0.3216206,0.000417732,NaN,0.1987446,-14.45901,NaN,-0.8656985,-1.47541,-0.1476678,14.12266,NaN,NaN,0.1761608,0.8067276,0.07164574,1.053658,-1.077905E-07,1.397633
694.7631,-0.4099155,0.0004861711,NaN,-0.3215135,0.0004180786,NaN,0.1822972,-14.45849,NaN,-0.9004883,-1.467407,-0.1374102,14.11424,NaN,NaN,0.1979814,0.8071161,0.07601269,1.042079,-1.095786E-07,1.391368
694.7784,-0.4099155,0.0004861711,NaN,-0.3215135,0.0004180786,NaN,0.1822972,-14.45849,NaN,-0.9004883,-1.467407,-0.1374102,14.11424,NaN,NaN,0.1979814,0.8071161,0.07601269,1.042079,-1.095786E-07,1.391368
694.7928,-0.3871657,0.0004865371,NaN,-0.3214107,0.000418053,NaN,0.167083,-14.45943,NaN,-0.9345383,-1.473854,-0.1281186,14.12108,NaN,NaN,0.2192352,0.8063313,0.08050875,1.051424,-1.0183E-07,1.399209
694.8112,-0.3646702,0.0004863149,NaN,-0.3213125,0.0004178605,NaN,0.1529495,-14.45852,NaN,-0.9678416,-1.467783,-0.1196562,14.11464,NaN,NaN,0.2399291,0.807134,0.0851301,1.042629,-1.045122E-07,1.392595
694.8241,-0.342429,0.0004860549,NaN,-0.3212189,0.0004171354,NaN,0.1397682,-14.45927,NaN,-1.000398,-1.47436,-0.1119098,14.12159,NaN,NaN,0.2600718,0.8065419,0.08987187,1.052161,-1.083865E-07,1.396702
694.8411,-0.3204409,0.0004858577,NaN,-0.3211299,0.0004170142,NaN,0.1274334,-14.45821,NaN,-1.032205,-1.467924,-0.1047867,14.11475,NaN,NaN,0.2796696,0.8075007,0.09472749,1.042834,-1.121118E-07,1.389045
694.8541,-0.3204409,0.0004858577,NaN,-0.3211299,0.0004170142,NaN,0.1274334,-14.45821,NaN,-1.032205,-1.467924,-0.1047867,14.11475,NaN,NaN,0.2796696,0.8075007,0.09472749,1.042834,-1.121118E-07,1.389045
694.8695,-0.2987041,0.0004859483,NaN,-0.3210454,0.0004170802,NaN,0.1158525,-14.45903,NaN,-1.063275,-1.469559,-0.09820718,14.11656,NaN,NaN,0.2987362,0.8067178,0.09969153,1.045222,-1.232877E-07,1.393687
694.8845,-0.2772165,0.0004860096,NaN,-0.3209655,0.0004172801,NaN,0.1049484,-14.45881,NaN,-1.093611,-1.46773,-0.09210531,14.11461,NaN,NaN,0.3172811,0.8069052,0.1047573,1.04257,-1.180723E-07,1.391611
694.8995,-0.2772165,0.0004860096,NaN,-0.3209655,0.0004172801,NaN,0.1049484,-14.45881,NaN,-1.093611,-1.46773,-0.09210531,14.11461,NaN,NaN,0.3172811,0.8069052,0.1047573,1.04257,-1.180723E-07,1.391611
694.9142,-0.2623492,0.0004863073,NaN,-0.3209106,0.0004167604,NaN,0.09784762,-14.45825,NaN,-1.114229,-1.476973,-0.08819637,14.12418,NaN,NaN,0.3309172,0.8076738,0.1090174,1.055909,-1.121118E-07,1.391493
694.9298,-0.2517087,0.0004866302,NaN,-0.3208888,0.0004159219,NaN,0.09280167,-14.4585,NaN,-1.129166,-1.478515,-0.0855549,14.12581,NaN,NaN,0.3412968,0.8074306,0.1127372,1.058142,-1.122608E-07,1.390806
694.9453,-0.2437727,0.0004868929,NaN,-0.3208928,0.0004156736,NaN,0.08906667,-14.45787,NaN,-1.140297,-1.472372,-0.08371593,14.11931,NaN,NaN,0.349217,0.807972,0.1160062,1.049241,-1.113668E-07,1.388227
694.9606,-0.2375719,0.0004870015,NaN,-0.3209152,0.0004159853,NaN,0.08614691,-14.45818,NaN,-1.149006,-1.466512,-0.08236097,14.11321,NaN,NaN,0.3555132,0.8075538,0.1189623,1.040765,-1.063004E-07,1.388276
694.9766,-0.2375719,0.0004870015,NaN,-0.3209152,0.0004159853,NaN,0.08614691,-14.45818,NaN,-1.149006,-1.466512,-0.08236097,14.11321,NaN,NaN,0.3555132,0.8075538,0.1189623,1.040765,-1.063004E-07,1.388276
694.9901,-0.2324891,0.0004871295,NaN,-0.3209508,0.0004159759,NaN,0.08375113,-14.4589,NaN,-1.15616,-1.470839,-0.08130796,14.11781,NaN,NaN,0.3607436,0.8069298,0.121701,1.047044,-1.01234E-07,1.391198
695.0057,-0.2281311,0.0004872362,NaN,-0.3209953,0.0004152023,NaN,0.0817002,-14.45818,NaN,-1.162307,-1.478311,-0.08044886,14.12552,NaN,NaN,0.3652736,0.8077922,0.1242881,1.057823,-1.057043E-07,1.388784
695.0206,-0.2242476,0.0004876523,NaN,-0.3210455,0.000414413,NaN,0.07988077,-14.45742,NaN,-1.167796,-1.478635,-0.07971764,14.12577,NaN,NaN,0.3693405,0.8085496,0.1267683,1.058274,-1.009359E-07,1.382372
695.0357,-0.2242476,0.0004876523,NaN,-0.3210455,0.000414413,NaN,0.07988077,-14.45742,NaN,-1.167796,-1.478635,-0.07971764,14.12577,NaN,NaN,0.3693405,0.8085496,0.1267683,1.058274,-1.009359E-07,1.382372
695.0503,-0.2206789,0.0004881468,NaN,-0.3210991,0.0004137756,NaN,0.0782202,-14.45748,NaN,-1.172846,-1.477734,-0.07907291,14.12481,NaN,NaN,0.3730965,0.8084694,0.1291713,1.05696,-9.706163E-08,1.383213
695.0663,-0.2173232,0.000488626,NaN,-0.3211549,0.0004137003,NaN,0.07596659,-14.45777,NaN,-1.177158,-1.473395,-0.08104091,14.12028,NaN,NaN,0.3763537,0.8081169,0.1331239,1.050672,-8.51407E-08,1.383465
695.0814,-0.2141155,0.000488948,NaN,-0.3212119,0.0004141142,NaN,0.07325402,-14.4578,NaN,-1.181041,-1.468469,-0.08391101,14.11511,NaN,NaN,0.3792598,0.8079921,0.1372678,1.043534,-9.437942E-08,1.383285
695.0964,-0.2141155,0.000488948,NaN,-0.3212119,0.0004141142,NaN,0.07325402,-14.4578,NaN,-1.181041,-1.468469,-0.08391101,14.11511,NaN,NaN,0.3792598,0.8079921,0.1372678,1.043534,-9.437942E-08,1.383285
695.1111,-0.2110144,0.0004893569,NaN,-0.3212694,0.0004142599,NaN,0.0704354,-14.45894,NaN,-1.184595,-1.472405,-0.08702746,14.11936,NaN,NaN,0.3818574,0.8069465,0.1411628,1.049257,-9.586953E-08,1.388671
695.1271,-0.2079934,0.000489428,NaN,-0.321327,0.000414535,NaN,0.06796286,-14.45786,NaN,-1.188019,-1.467396,-0.09044896,14.11399,NaN,NaN,0.3843334,0.8079309,0.1445208,1.041982,-9.855174E-08,1.380922
695.142,-0.2050354,0.000489571,NaN,-0.3213845,0.000415122,NaN,0.06571213,-14.45844,NaN,-1.191421,-1.465147,-0.09264306,14.1117,NaN,NaN,0.3868309,0.8072982,0.1472184,1.038744,-9.765767E-08,1.386431
695.1581,-0.2050354,0.000489571,NaN,-0.3213845,0.000415122,NaN,0.06571213,-14.45844,NaN,-1.191421,-1.465147,-0.09264306,14.1117,NaN,NaN,0.3868309,0.8072982,0.1472184,1.038744,-9.765767E-08,1.386431
695.1714,-0.2021293,0.0004899692,NaN,-0.3214417,0.0004148896,NaN,0.06367492,-14.45833,NaN,-1.194928,-1.476452,-0.09440348,14.12348,NaN,NaN,0.3894691,0.8076926,0.1497493,1.055081,-9.765767E-08,1.384731
695.187,-0.199268,0.0004904373,NaN,-0.3214985,0.0004158311,NaN,0.0617686,-14.45816,NaN,-1.198442,-1.465999,-0.09606073,14.11252,NaN,NaN,0.3921466,0.8077075,0.1522484,1.039951,-9.735965E-08,1.386854
695.202,-0.196447,0.0004909199,NaN,-0.321555,0.000416647,NaN,0.05994043,-14.45815,NaN,-1.201936,-1.46598,-0.09770089,14.11249,NaN,NaN,0.3948316,0.8077112,0.1547192,1.03992,-9.110116E-08,1.385786
695.2171,-0.196447,0.0004909199,NaN,-0.321555,0.000416647,NaN,0.05994043,-14.45815,NaN,-1.201936,-1.46598,-0.09770089,14.11249,NaN,NaN,0.3948316,0.8077112,0.1547192,1.03992,-9.110116E-08,1.385786
695.2313,-0.1936629,0.0004911466,NaN,-0.3216109,0.000416991,NaN,0.05848325,-14.45836,NaN,-1.205602,-1.467821,-0.09822871,14.11444,NaN,NaN,0.3976418,0.8075384,0.1564644,1.042587,-8.9015E-08,1.382548
695.2472,-0.1909139,0.0004912603,NaN,-0.3216663,0.0004172616,NaN,0.05727874,-14.45827,NaN,-1.209347,-1.46772,-0.09837486,14.11431,NaN,NaN,0.4005363,0.8076239,0.1580684,1.042436,-9.259127E-08,1.381875
695.2624,-0.1881983,0.0004917578,NaN,-0.3217212,0.0004170685,NaN,0.05617603,-14.45868,NaN,-1.213118,-1.476847,-0.09842678,14.1239,NaN,NaN,0.4034686,0.8074176,0.1596991,1.055649,-8.603476E-08,1.38887
695.2775,-0.1881983,0.0004917578,NaN,-0.3217212,0.0004170685,NaN,0.05617603,-14.45868,NaN,-1.213118,-1.476847,-0.09842678,14.1239,NaN,NaN,0.4034686,0.8074176,0.1596991,1.055649,-8.603476E-08,1.38887
695.2922,-0.1855151,0.0004920833,NaN,-0.3217756,0.0004177193,NaN,0.05542127,-14.45811,NaN,-1.217093,-1.466604,-0.09733756,14.11312,NaN,NaN,0.4065339,0.8078542,0.1606836,1.040821,-8.424662E-08,1.383393
695.3091,-0.1828635,0.0004922253,NaN,-0.3218295,0.0004181004,NaN,0.0548925,-14.45803,NaN,-1.221138,-1.467089,-0.09586551,14.11361,NaN,NaN,0.4096366,0.8079447,0.1615716,1.041517,-8.484267E-08,1.382641
695.3229,-0.1802428,0.0004923191,NaN,-0.3218828,0.0004185754,NaN,0.05444854,-14.45816,NaN,-1.225178,-1.465804,-0.09430645,14.11228,NaN,NaN,0.4127241,0.8077916,0.1625192,1.039662,-8.78229E-08,1.384451
695.3389,-0.1802428,0.0004923191,NaN,-0.3218828,0.0004185754,NaN,0.05444854,-14.45816,NaN,-1.225178,-1.465804,-0.09430645,14.11228,NaN,NaN,0.4127241,0.8077916,0.1625192,1.039662,-8.78229E-08,1.384451
695.3523,-0.1776526,0.0004931315,NaN,-0.3219357,0.0004185274,NaN,0.0540347,-14.45852,NaN,-1.229174,-1.476912,-0.09273999,14.12393,NaN,NaN,0.4157685,0.8076982,0.1635271,1.055743,-8.722685E-08,1.387609
695.368,-0.1750924,0.00049375,NaN,-0.321988,0.0004194098,NaN,0.05392331,-14.45862,NaN,-1.233357,-1.46697,-0.09004427,14.11354,NaN,NaN,0.4189152,0.8074613,0.1639213,1.041359,-8.126639E-08,1.387567
695.3831,-0.1725617,0.0004941932,NaN,-0.3220398,0.0004200402,NaN,0.05401753,-14.45883,NaN,-1.237589,-1.467071,-0.08698259,14.11367,NaN,NaN,0.4220473,0.8072484,0.1642222,1.041513,-8.990906E-08,1.387323
695.3981,-0.1725617,0.0004941932,NaN,-0.3220398,0.0004200402,NaN,0.05401753,-14.45883,NaN,-1.237589,-1.467071,-0.08698259,14.11367,NaN,NaN,0.4220473,0.8072484,0.1642222,1.041513,-8.990906E-08,1.387323
695.4125,-0.1700602,0.0004945482,NaN,-0.322091,0.0004196973,NaN,0.05419124,-14.45865,NaN,-1.241784,-1.476761,-0.08385148,14.12376,NaN,NaN,0.4251128,0.8076537,0.1645904,1.055515,-9.110115E-08,1.386474
695.4283,-0.1675874,0.0004949556,NaN,-0.3221418,0.0004201888,NaN,0.05438565,-14.45821,NaN,-1.245917,-1.469529,-0.08072435,14.11614,NaN,NaN,0.4281079,0.8079847,0.1650429,1.045043,-8.78229E-08,1.384696
695.4435,-0.1651431,0.0004952084,NaN,-0.3221921,0.0004204987,NaN,0.05486347,-14.45836,NaN,-1.250229,-1.469709,-0.07646383,14.11634,NaN,NaN,0.4311955,0.8078258,0.1649286,1.045306,-8.901499E-08,1.385997
695.4586,-0.1651431,0.0004952084,NaN,-0.3221921,0.0004204987,NaN,0.05486347,-14.45836,NaN,-1.250229,-1.469709,-0.07646383,14.11634,NaN,NaN,0.4311955,0.8078258,0.1649286,1.045306,-8.901499E-08,1.385997
695.473,-0.162727,0.0004947898,NaN,-0.3222419,0.0004202256,NaN,0.05553875,-14.45818,NaN,-1.254582,-1.46791,-0.07185604,14.11443,NaN,NaN,0.4342315,0.8079598,0.16473,1.042697,-8.365057E-08,1.382976
695.4889,-0.1603386,0.0004942584,NaN,-0.3222912,0.0004200758,NaN,0.05629564,-14.45848,NaN,-1.25887,-1.466361,-0.06720069,14.11285,NaN,NaN,0.437154,0.8076133,0.1646039,1.040465,-7.649801E-08,1.383077
695.5039,-0.1579777,0.0004939929,NaN,-0.32234,0.0004202535,NaN,0.0570698,-14.45908,NaN,-1.263073,-1.466665,-0.06256415,14.11323,NaN,NaN,0.4399782,0.8070192,0.1645814,1.040924,-7.560394E-08,1.387467
695.519,-0.1579777,0.0004939929,NaN,-0.32234,0.0004202535,NaN,0.0570698,-14.45908,NaN,-1.263073,-1.466665,-0.06256415,14.11323,NaN,NaN,0.4399782,0.8070192,0.1645814,1.040924,-7.560394E-08,1.387467
695.5334,-0.1556439,0.0004935174,NaN,-0.3223883,0.0004198147,NaN,0.0581124,-14.45878,NaN,-1.267448,-1.470788,-0.05678901,14.11749,NaN,NaN,0.4428885,0.8074068,0.1640374,1.046872,-7.50079E-08,1.385802
695.5491,-0.153337,0.000493035,NaN,-0.3224361,0.00041868,NaN,0.05935364,-14.45858,NaN,-1.271806,-1.477629,-0.05052811,14.12461,NaN,NaN,0.4456963,0.8077307,0.1636144,1.056759,-7.590197E-08,1.386161
695.5641,-0.1510566,0.000493444,NaN,-0.3224834,0.0004187228,NaN,0.06135571,-14.45791,NaN,-1.276434,-1.473216,-0.04485901,14.11992,NaN,NaN,0.4485128,0.8083311,0.1626641,1.050358,-7.605098E-08,1.381051
695.5792,-0.1510566,0.000493444,NaN,-0.3224834,0.0004187228,NaN,0.06135571,-14.45791,NaN,-1.276434,-1.473216,-0.04485901,14.11992,NaN,NaN,0.4485128,0.8083311,0.1626641,1.050358,-7.605098E-08,1.381051
695.5938,-0.1488024,0.0004937018,NaN,-0.3225302,0.0004191364,NaN,0.06353427,-14.45838,NaN,-1.281036,-1.467783,-0.03797825,14.11427,NaN,NaN,0.4512047,0.8077641,0.1613991,1.042502,-7.530592E-08,1.381846
695.6096,-0.1465741,0.0004939874,NaN,-0.3225766,0.0004187484,NaN,0.06497487,-14.45919,NaN,-1.285307,-1.476642,-0.02999634,14.12363,NaN,NaN,0.4536124,0.8071491,0.1610215,1.055342,-6.99415E-08,1.387114
695.6246,-0.1443715,0.0004942041,NaN,-0.3226225,0.0004192378,NaN,0.06581698,-14.45857,NaN,-1.289294,-1.467322,-0.02141219,14.11382,NaN,NaN,0.4557995,0.8076272,0.1613925,1.041851,-6.964348E-08,1.381288
695.6396,-0.1443715,0.0004942041,NaN,-0.3226225,0.0004192378,NaN,0.06581698,-14.45857,NaN,-1.289294,-1.467322,-0.02141219,14.11382,NaN,NaN,0.4557995,0.8076272,0.1613925,1.041851,-6.964348E-08,1.381288
695.6539,-0.1421941,0.0004943025,NaN,-0.322668,0.0004195099,NaN,0.06626761,-14.45892,NaN,-1.293071,-1.46781,-0.01251649,14.11437,NaN,NaN,0.4578221,0.8072847,0.1622748,1.042565,-7.873319E-08,1.382013
695.6699,-0.1400418,0.0004947583,NaN,-0.322713,0.0004198468,NaN,0.06966742,-14.45939,NaN,-1.297596,-1.470679,-0.004682264,14.11741,NaN,NaN,0.460928,0.8068758,0.1602137,1.046725,-6.949447E-08,1.387642
695.685,-0.1379142,0.0004951204,NaN,-0.3227576,0.0004195208,NaN,0.07040573,-14.45959,NaN,-1.301787,-1.476358,0.005614761,14.12336,NaN,NaN,0.4635603,0.8067809,0.1608077,1.054937,-7.783912E-08,1.388169
695.7,-0.1379142,0.0004951204,NaN,-0.3227576,0.0004195208,NaN,0.07040573,-14.45959,NaN,-1.301787,-1.476358,0.005614761,14.12336,NaN,NaN,0.4635603,0.8067809,0.1608077,1.054937,-7.783912E-08,1.388169
695.7148,-0.1358111,0.0004952404,NaN,-0.3228017,0.0004196891,NaN,0.07394307,-14.4585,NaN,-1.306479,-1.467963,0.01376148,14.11447,NaN,NaN,0.4668315,0.807739,0.1589563,1.042777,-6.815336E-08,1.379796
695.73,-0.1337321,0.0004955774,NaN,-0.3228453,0.0004195286,NaN,0.07745866,-14.45969,NaN,-1.311318,-1.474738,0.02177246,14.12169,NaN,NaN,0.4702331,0.8067032,0.1573912,1.052613,-7.187865E-08,1.388049
695.7453,-0.1316771,0.0004960566,NaN,-0.3228885,0.0004193149,NaN,0.08128141,-14.45986,NaN,-1.316218,-1.476019,0.03087027,14.12304,NaN,NaN,0.4737212,0.8065558,0.1554239,1.054464,-7.128261E-08,1.389147
695.7601,-0.1296456,0.000496268,NaN,-0.3229313,0.0004190395,NaN,0.08509059,-14.45852,NaN,-1.321102,-1.473209,0.04040398,14.11995,NaN,NaN,0.4772007,0.8078495,0.1536866,1.050372,-6.845139E-08,1.381591
695.7767,-0.1296456,0.000496268,NaN,-0.3229313,0.0004190395,NaN,0.08509059,-14.45852,NaN,-1.321102,-1.473209,0.04040398,14.11995,NaN,NaN,0.4772007,0.8078495,0.1536866,1.050372,-6.845139E-08,1.381591
695.7897,-0.1276375,0.0004958357,NaN,-0.3229736,0.0004186505,NaN,0.08887765,-14.45795,NaN,-1.3259,-1.467055,0.04998953,14.11344,NaN,NaN,0.4805945,0.8083038,0.1521804,1.041452,-6.785534E-08,1.377628
695.8055,-0.1256525,0.0004956167,NaN,-0.3230155,0.0004184842,NaN,0.09262829,-14.4579,NaN,-1.330593,-1.469129,0.05952817,14.1156,NaN,NaN,0.4838881,0.8084012,0.1508777,1.044451,-7.038854E-08,1.377684
695.8206,-0.1236903,0.0004960346,NaN,-0.3230569,0.000418011,NaN,0.0967266,-14.45827,NaN,-1.335325,-1.477602,0.07015797,14.12451,NaN,NaN,0.4872882,0.8082124,0.1491427,1.056728,-7.232569E-08,1.382873
695.8358,-0.1236903,0.0004960346,NaN,-0.3230569,0.000418011,NaN,0.0967266,-14.45827,NaN,-1.335325,-1.477602,0.07015797,14.12451,NaN,NaN,0.4872882,0.8082124,0.1491427,1.056728,-7.232569E-08,1.382873
695.8501,-0.1217507,0.0004965343,NaN,-0.3230979,0.0004176573,NaN,0.1008006,-14.45912,NaN,-1.34002,-1.476212,0.08122823,14.12314,NaN,NaN,0.4906646,0.8073379,0.1476554,1.05473,-6.815336E-08,1.386199
695.8659,-0.1198334,0.0004968993,NaN,-0.3231385,0.0004173998,NaN,0.1048524,-14.45779,NaN,-1.344616,-1.474673,0.0923406,14.12137,NaN,NaN,0.493945,0.8086333,0.1464058,1.052471,-6.86004E-08,1.376639
695.8821,-0.1179381,0.0004972906,NaN,-0.3231787,0.0004174501,NaN,0.1088636,-14.45915,NaN,-1.3491,-1.472466,0.1033988,14.1192,NaN,NaN,0.4971202,0.8072402,0.1453736,1.049304,-6.60672E-08,1.384865
695.8962,-0.1179381,0.0004972906,NaN,-0.3231787,0.0004174501,NaN,0.1088636,-14.45915,NaN,-1.3491,-1.472466,0.1033988,14.1192,NaN,NaN,0.4971202,0.8072402,0.1453736,1.049304,-6.60672E-08,1.384865
695.9103,-0.1160646,0.0004973616,NaN,-0.3232185,0.0004172644,NaN,0.1132233,-14.45876,NaN,-1.353597,-1.471139,0.1155503,14.11776,NaN,NaN,0.5004003,0.8076006,0.1439386,1.047371,-6.427906E-08,1.381182
695.9262,-0.1142126,0.0004972059,NaN,-0.3232579,0.0004174414,NaN,0.1175567,-14.45828,NaN,-1.358034,-1.465844,0.1281309,14.11216,NaN,NaN,0.5036338,0.8079617,0.1427605,1.039696,-6.904744E-08,1.377925
695.9412,-0.112382,0.0004976542,NaN,-0.3232968,0.0004173043,NaN,0.1218652,-14.45927,NaN,-1.362362,-1.475576,0.1407435,14.12246,NaN,NaN,0.5067626,0.8072233,0.1418278,1.053809,-7.053755E-08,1.386839
695.9563,-0.112382,0.0004976542,NaN,-0.3232968,0.0004173043,NaN,0.1218652,-14.45927,NaN,-1.362362,-1.475576,0.1407435,14.12246,NaN,NaN,0.5067626,0.8072233,0.1418278,1.053809,-7.053755E-08,1.386839
695.9708,-0.1105723,0.000497825,NaN,-0.3233354,0.0004175092,NaN,0.1265205,-14.45903,NaN,-1.366674,-1.46874,0.1544764,14.11529,NaN,NaN,0.509985,0.8073605,0.1405405,1.043917,-5.95852E-08,1.382471
695.9865,-0.1087835,0.0004983905,NaN,-0.3233736,0.0004172245,NaN,0.1311506,-14.45864,NaN,-1.370906,-1.478223,0.1686305,14.12513,NaN,NaN,0.5131389,0.8079517,0.1395277,1.057613,-6.003224E-08,1.383951
696.0016,-0.1070153,0.0004986949,NaN,-0.3234113,0.0004175904,NaN,0.1357508,-14.45778,NaN,-1.375012,-1.469161,0.1828087,14.11555,NaN,NaN,0.5161735,0.8087037,0.1387772,1.044478,-6.062828E-08,1.376932
696.0167,-0.1070153,0.0004986949,NaN,-0.3234113,0.0004175904,NaN,0.1357508,-14.45778,NaN,-1.375012,-1.469161,0.1828087,14.11555,NaN,NaN,0.5161735,0.8087037,0.1387772,1.044478,-6.062828E-08,1.376932
696.0311,-0.1052673,0.0004992445,NaN,-0.3234487,0.0004174065,NaN,0.1403013,-14.45832,NaN,-1.378991,-1.477187,0.1969179,14.12402,NaN,NaN,0.5190886,0.8083442,0.1382722,1.056114,-5.943619E-08,1.381921
696.047,-0.1035395,0.0004996412,NaN,-0.3234857,0.0004181702,NaN,0.1452006,-14.45806,NaN,-1.382918,-1.466886,0.2121198,14.11319,NaN,NaN,0.5220976,0.8084645,0.1374176,1.04119,-6.420456E-08,1.378841
696.0623,-0.1018315,0.00050024,NaN,-0.3235223,0.0004183296,NaN,0.150076,-14.45899,NaN,-1.38675,-1.474065,0.2277226,14.12082,NaN,NaN,0.5250281,0.8077096,0.1368317,1.051611,-6.375753E-08,1.385196
696.0771,-0.1018315,0.00050024,NaN,-0.3235223,0.0004183296,NaN,0.150076,-14.45899,NaN,-1.38675,-1.474065,0.2277226,14.12082,NaN,NaN,0.5250281,0.8077096,0.1368317,1.051611,-6.375753E-08,1.385196
696.0914,-0.1001432,0.0005004309,NaN,-0.3235585,0.0004188011,NaN,0.1549167,-14.45824,NaN,-1.390453,-1.466593,0.2433399,14.11291,NaN,NaN,0.5278375,0.8083271,0.1365113,1.040779,-6.904744E-08,1.37758
696.1071,-0.09847431,0.0005009445,NaN,-0.3235944,0.0004185948,NaN,0.1597026,-14.45838,NaN,-1.394023,-1.477147,0.2588813,14.12396,NaN,NaN,0.5305213,0.808446,0.1364424,1.056057,-7.575296E-08,1.382036
696.1223,-0.09682458,0.000501254,NaN,-0.3236298,0.0004192434,NaN,0.1648374,-14.45859,NaN,-1.397508,-1.466859,0.2755159,14.1132,NaN,NaN,0.5332974,0.8080888,0.1360443,1.041161,-7.560394E-08,1.381099
696.1373,-0.09682458,0.000501254,NaN,-0.3236298,0.0004192434,NaN,0.1648374,-14.45859,NaN,-1.397508,-1.466859,0.2755159,14.1132,NaN,NaN,0.5332974,0.8080888,0.1360443,1.041161,-7.560394E-08,1.381099
696.1517,-0.09519382,0.0005007134,NaN,-0.3236649,0.0004191173,NaN,0.1699497,-14.45779,NaN,-1.400882,-1.465602,0.292537,14.11178,NaN,NaN,0.5359833,0.8088564,0.135914,1.039312,-7.828615E-08,1.376496
