JMolnar6/NonAnthroHands_User_Study/HandsLoggerWithURDF/tempdata/PID 0 (test)/files/Reachy_PID0_JointMotion_gesture_9_3.csv
Time,r_shoulder,r_shoulder_x,r_upper_arm,r_forearm,r_wrist,r_wrist2hand,
829.7376,-0.01410006,-0.9012122,-1.560101,-2.095696,0.3737476,-0.09250862
829.7518,-0.01409904,-0.9012652,-1.560123,-2.09585,0.3737774,-0.09250552
829.7671,-0.01409802,-0.9013176,-1.560144,-2.096003,0.3738066,-0.09250248
829.7818,-0.01409701,-0.9013693,-1.560165,-2.096153,0.3738351,-0.0924995
829.7964,-0.01409701,-0.9013693,-1.560165,-2.096153,0.3738351,-0.0924995
829.8107,-0.014096,-0.9014205,-1.560186,-2.096301,0.3738631,-0.09249658
829.8262,-0.014095,-0.901471,-1.560206,-2.096447,0.3738904,-0.09249371
829.8417,-0.01409399,-0.9015208,-1.560227,-2.096591,0.3739171,-0.0924909
829.8568,-0.01409399,-0.9015208,-1.560227,-2.096591,0.3739171,-0.0924909
829.8692,-0.01409299,-0.9015701,-1.560247,-2.096733,0.3739433,-0.09248815
829.8847,-0.014092,-0.9016188,-1.560267,-2.096873,0.3739689,-0.09248544
829.8994,-0.014092,-0.9016188,-1.560267,-2.096873,0.3739689,-0.09248544
829.9133,-0.014091,-0.901667,-1.560287,-2.097011,0.3739939,-0.09248279
829.9287,-0.01409001,-0.9017146,-1.560306,-2.097147,0.3740184,-0.09248019
829.9436,-0.01408903,-0.9017616,-1.560325,-2.097281,0.3740424,-0.09247764
829.9583,-0.01408903,-0.9017616,-1.560325,-2.097281,0.3740424,-0.09247764
829.9722,-0.01408804,-0.901808,-1.560345,-2.097413,0.3740658,-0.09247515
829.9877,-0.01408706,-0.9018539,-1.560364,-2.097544,0.3740887,-0.09247269
830.0021,-0.01408608,-0.9018993,-1.560382,-2.097673,0.3741111,-0.09247029
830.0171,-0.01408608,-0.9018993,-1.560382,-2.097673,0.3741111,-0.09247029
830.0311,-0.01408511,-0.9019441,-1.560401,-2.0978,0.3741331,-0.09246793
830.0467,-0.01408414,-0.9019884,-1.560419,-2.097925,0.3741545,-0.09246562
830.0613,-0.01408317,-0.9020321,-1.560437,-2.098048,0.3741755,-0.09246336
830.0762,-0.01408317,-0.9020321,-1.560437,-2.098048,0.3741755,-0.09246336
830.0903,-0.0140822,-0.9020754,-1.560455,-2.09817,0.374196,-0.09246114
830.1071,-0.01408124,-0.902118,-1.560473,-2.09829,0.3742161,-0.09245896
830.1201,-0.01408028,-0.9021602,-1.560491,-2.098409,0.3742357,-0.09245683
830.1351,-0.01408028,-0.9021602,-1.560491,-2.098409,0.3742357,-0.09245683
830.1492,-0.01407932,-0.9022019,-1.560508,-2.098526,0.3742549,-0.09245473
830.1643,-0.01407837,-0.9022431,-1.560526,-2.098641,0.3742737,-0.09245268
830.179,-0.01407837,-0.9022431,-1.560526,-2.098641,0.3742737,-0.09245268
830.193,-0.01407742,-0.9022838,-1.560543,-2.098754,0.3742921,-0.09245066
830.2087,-0.01407647,-0.902324,-1.56056,-2.098866,0.37431,-0.09244869
830.2232,-0.01407553,-0.9023637,-1.560576,-2.098977,0.3743276,-0.09244675
830.2381,-0.01407553,-0.9023637,-1.560576,-2.098977,0.3743276,-0.09244675
830.2523,-0.01407459,-0.9024029,-1.560593,-2.099086,0.3743448,-0.09244485
830.2677,-0.01407365,-0.9024417,-1.560609,-2.099193,0.3743616,-0.09244299
830.2823,-0.01407271,-0.90248,-1.560625,-2.099299,0.374378,-0.09244116
830.2973,-0.01407271,-0.90248,-1.560625,-2.099299,0.374378,-0.09244116
830.3115,-0.01407178,-0.9025179,-1.560641,-2.099404,0.3743941,-0.09243937
830.3267,-0.01407085,-0.9025553,-1.560657,-2.099507,0.3744098,-0.09243761
830.3415,-0.01406993,-0.9025922,-1.560673,-2.099608,0.3744251,-0.09243589
830.3574,-0.01406993,-0.9025922,-1.560673,-2.099608,0.3744251,-0.09243589
830.3715,-0.014069,-0.9026288,-1.560688,-2.099708,0.3744401,-0.0924342
830.3855,-0.01406808,-0.9026648,-1.560704,-2.099807,0.3744548,-0.09243254
830.4002,-0.01406717,-0.9027005,-1.560719,-2.099905,0.3744692,-0.09243092
830.4149,-0.01406717,-0.9027005,-1.560719,-2.099905,0.3744692,-0.09243092
830.4289,-0.01406625,-0.9027357,-1.560734,-2.100001,0.3744832,-0.09242932
830.4445,-0.01406534,-0.9027705,-1.560748,-2.100096,0.3744969,-0.09242776
830.4591,-0.01406534,-0.9027705,-1.560748,-2.100096,0.3744969,-0.09242776
830.4731,-0.01406443,-0.9028049,-1.560763,-2.100189,0.3745103,-0.09242623
830.4889,-0.01406353,-0.9028389,-1.560777,-2.100281,0.3745235,-0.09242472
830.5035,-0.01406263,-0.9028724,-1.560792,-2.100372,0.3745363,-0.09242325
830.5181,-0.01406263,-0.9028724,-1.560792,-2.100372,0.3745363,-0.09242325
830.5322,-0.01406173,-0.9029056,-1.560806,-2.100462,0.3745488,-0.0924218
830.5478,-0.01406083,-0.9029384,-1.56082,-2.10055,0.374561,-0.09242038
830.5624,-0.01405994,-0.9029708,-1.560834,-2.100638,0.374573,-0.09241899
830.5775,-0.01405994,-0.9029708,-1.560834,-2.100638,0.374573,-0.09241899
830.5914,-0.01405905,-0.9030028,-1.560847,-2.100724,0.3745847,-0.09241763
830.6078,-0.01405816,-0.9030344,-1.560861,-2.100809,0.3745962,-0.09241629
830.6214,-0.01405728,-0.9030656,-1.560874,-2.100892,0.3746074,-0.09241498
830.6361,-0.01405728,-0.9030656,-1.560874,-2.100892,0.3746074,-0.09241498
830.6502,-0.01405639,-0.9030965,-1.560887,-2.100975,0.3746183,-0.0924137
830.6653,-0.01405552,-0.903127,-1.560901,-2.101056,0.374629,-0.09241244
830.6801,-0.01405464,-0.9031572,-1.560913,-2.101136,0.3746394,-0.09241121
830.695,-0.01405464,-0.9031572,-1.560913,-2.101136,0.3746394,-0.09241121
830.7092,-0.01405377,-0.903187,-1.560926,-2.101216,0.3746496,-0.09240999
830.7244,-0.0140529,-0.9032164,-1.560939,-2.101294,0.3746595,-0.09240881
830.739,-0.0140529,-0.9032164,-1.560939,-2.101294,0.3746595,-0.09240881
830.754,-0.01405191,-0.9033148,-1.560435,-2.101964,0.3760267,-0.09227839
830.7688,-0.01405083,-0.9034553,-1.56002,-2.102917,0.3776179,-0.09215096
830.7834,-0.01404969,-0.9036211,-1.559725,-2.104,0.379176,-0.09202595
830.798,-0.01404969,-0.9036211,-1.559725,-2.104,0.379176,-0.09202595
830.8123,-0.01404851,-0.9038019,-1.559499,-2.105137,0.3806795,-0.09190329
830.8278,-0.01404743,-0.9039217,-1.559828,-2.105698,0.380786,-0.09191223
830.8424,-0.01404642,-0.9040034,-1.56009,-2.105974,0.3806285,-0.09192052
830.858,-0.01404642,-0.9040034,-1.56009,-2.105974,0.3806285,-0.09192052
830.8721,-0.01404548,-0.9040613,-1.560243,-2.106111,0.3804716,-0.09192873
830.8865,-0.01404457,-0.9041041,-1.560332,-2.10618,0.3803405,-0.09193686
830.9012,-0.01404382,-0.90407,-1.560911,-2.105623,0.3788751,-0.09207414
830.9156,-0.01404382,-0.90407,-1.560911,-2.105623,0.3788751,-0.09207414
830.9297,-0.01404317,-0.9039887,-1.561387,-2.104764,0.3771906,-0.09220832
830.9453,-0.01404261,-0.9038786,-1.561735,-2.103766,0.3755435,-0.09233997
830.9599,-0.01404261,-0.9038786,-1.561735,-2.103766,0.3755435,-0.09233997
830.9741,-0.01404221,-0.9036819,-1.562524,-2.102117,0.3725999,-0.0925984
830.9896,-0.01404194,-0.9034326,-1.56318,-2.100162,0.3694776,-0.09285141
831.0041,-0.01404175,-0.903152,-1.563691,-2.098074,0.3664265,-0.09309958
831.0187,-0.01404175,-0.903152,-1.563691,-2.098074,0.3664265,-0.09309958
831.0329,-0.01404163,-0.9028533,-1.564114,-2.09594,0.3634625,-0.093343
831.0488,-0.01404165,-0.9024755,-1.565,-2.093207,0.359209,-0.09371099
831.063,-0.01404181,-0.9020506,-1.565758,-2.090201,0.3548023,-0.0940714
831.0782,-0.01404181,-0.9020506,-1.565758,-2.090201,0.3548023,-0.0940714
831.0921,-0.01404204,-0.9015984,-1.56637,-2.087087,0.3504903,-0.09442487
831.1103,-0.01404233,-0.9011315,-1.566893,-2.083946,0.3462882,-0.09477153
831.1234,-0.01404277,-0.9005883,-1.567864,-2.080224,0.3408048,-0.09524073
831.1371,-0.01404277,-0.9005883,-1.567864,-2.080224,0.3408048,-0.09524073
831.1511,-0.01404334,-0.9000005,-1.568695,-2.076246,0.3352034,-0.09570042
831.1664,-0.01404399,-0.8993877,-1.569374,-2.072175,0.3297236,-0.09615122
831.1809,-0.0140447,-0.8987622,-1.569959,-2.068092,0.3243763,-0.0965933
831.196,-0.0140447,-0.8987622,-1.569959,-2.068092,0.3243763,-0.0965933
831.2103,-0.01404556,-0.8980625,-1.570976,-2.063444,0.3177505,-0.09715606
831.2256,-0.01404654,-0.89732,-1.571636,-2.05854,0.3108341,-0.09770709
831.2402,-0.01404762,-0.8965545,-1.571811,-2.053543,0.3039285,-0.09824719
831.2551,-0.01404762,-0.8965545,-1.571811,-2.053543,0.3039285,-0.09824719
831.2692,-0.01404886,-0.8957089,-1.572108,-2.047957,0.2957961,-0.09890616
831.2845,-0.01405025,-0.8948177,-1.57201,-2.042127,0.2876171,-0.099552
831.2993,-0.01405025,-0.8948177,-1.57201,-2.042127,0.2876171,-0.099552
831.3135,-0.01405181,-0.8939023,-1.57166,-2.03623,0.2797015,-0.1001855
831.329,-0.01405358,-0.8929761,-1.571281,-2.030356,0.2720908,-0.1008069
831.3436,-0.01405571,-0.8919781,-1.571474,-2.023956,0.2632994,-0.1015457
831.3594,-0.01405571,-0.8919781,-1.571474,-2.023956,0.2632994,-0.1015457
831.3734,-0.01405821,-0.8909402,-1.571558,-2.017342,0.2544201,-0.1022696
831.3878,-0.01406102,-0.8898823,-1.57148,-2.010673,0.2457043,-0.1029795
831.4023,-0.01406409,-0.8888169,-1.57132,-2.00403,0.2372094,-0.1036756
831.4171,-0.01406409,-0.8888169,-1.57132,-2.00403,0.2372094,-0.1036756
831.431,-0.01406754,-0.8876823,-1.571591,-1.99687,0.2274731,-0.1044875
831.4466,-0.01407136,-0.88651,-1.571645,-1.989506,0.2176969,-0.1052832
831.4612,-0.01407551,-0.8853198,-1.571497,-1.9821,0.208138,-0.1060635
831.476,-0.01407551,-0.8853198,-1.571497,-1.9821,0.208138,-0.1060635
831.4902,-0.01408008,-0.8840545,-1.571689,-1.974152,0.1973601,-0.1069579
831.5059,-0.01408508,-0.8827485,-1.571646,-1.965997,0.1866228,-0.1078347
831.5203,-0.01409042,-0.8814234,-1.571439,-1.957806,0.1761533,-0.1086945
831.5352,-0.01409042,-0.8814234,-1.571439,-1.957806,0.1761533,-0.1086945
831.5492,-0.01409603,-0.8800923,-1.571205,-1.949662,0.1659742,-0.1095376
831.5648,-0.01410202,-0.8786942,-1.57141,-1.941023,0.1545456,-0.1104935
831.5797,-0.01410202,-0.8786942,-1.57141,-1.941023,0.1545456,-0.1104935
831.5935,-0.0141084,-0.877261,-1.571432,-1.932205,0.1431709,-0.1114307
831.61,-0.01411508,-0.8758125,-1.571299,-1.923367,0.1320499,-0.1123495
831.6248,-0.014122,-0.8743612,-1.571118,-1.914586,0.1212092,-0.1132505
831.6385,-0.014122,-0.8743612,-1.571118,-1.914586,0.1212092,-0.1132505
831.6524,-0.01412929,-0.8728452,-1.571308,-1.905322,0.1090989,-0.1142632
831.6676,-0.01413693,-0.8712962,-1.571298,-1.895891,0.09710088,-0.115256
831.6823,-0.01414487,-0.8697336,-1.571151,-1.886448,0.08538137,-0.1162294
831.6971,-0.01414487,-0.8697336,-1.571151,-1.886448,0.08538137,-0.1162294
831.7111,-0.01414386,-0.8681004,-1.571287,-1.876495,0.07240363,-0.1173131
831.7265,-0.0141388,-0.866431,-1.571218,-1.866366,0.05960497,-0.1183757
831.7412,-0.0141315,-0.8647467,-1.571038,-1.856226,0.04711699,-0.1194174
831.7562,-0.0141315,-0.8647467,-1.571038,-1.856226,0.04711699,-0.1194174
831.7702,-0.01412302,-0.8630609,-1.570858,-1.846157,0.0349372,-0.1204387
831.7856,-0.01411419,-0.8613123,-1.570995,-1.835621,0.02147681,-0.1215694
831.8002,-0.01410541,-0.8595329,-1.570968,-1.824935,0.008219704,-0.1226779
831.8152,-0.01410541,-0.8595329,-1.570968,-1.824935,0.008219704,-0.1226779
831.8293,-0.01409683,-0.8577424,-1.570843,-1.814253,-0.004736383,-0.1237648
831.8448,-0.0140885,-0.8559532,-1.570703,-1.803651,-0.01739049,-0.1248303
831.8607,-0.01408065,-0.8541033,-1.570809,-1.792592,-0.03132683,-0.1260042
831.8754,-0.01408065,-0.8541033,-1.570809,-1.792592,-0.03132683,-0.1260042
831.8882,-0.01407332,-0.8522244,-1.570765,-1.781391,-0.04501537,-0.1271552
831.9037,-0.01406647,-0.850336,-1.570644,-1.770201,-0.05839425,-0.1282836
831.9182,-0.01406647,-0.850336,-1.570644,-1.770201,-0.05839425,-0.1282836
831.9322,-0.01406023,-0.8483807,-1.570695,-1.758524,-0.07303211,-0.1295191
831.9476,-0.01405461,-0.8463931,-1.570614,-1.746694,-0.08737872,-0.1307305
831.9623,-0.01404951,-0.8443944,-1.570484,-1.734873,-0.1013996,-0.131918
831.9771,-0.01404951,-0.8443944,-1.570484,-1.734873,-0.1013996,-0.131918
831.9911,-0.01404483,-0.8423977,-1.570367,-1.72314,-0.1151065,-0.1330822
832.0068,-0.01404073,-0.840342,-1.57041,-1.71096,-0.1300707,-0.1343528
832.0212,-0.01403718,-0.8382591,-1.570361,-1.698651,-0.144734,-0.1355984
832.0359,-0.01403718,-0.8382591,-1.570361,-1.698651,-0.144734,-0.1355984
832.0504,-0.01403411,-0.8361686,-1.570271,-1.686364,-0.1590796,-0.1368196
832.0656,-0.01403142,-0.8340829,-1.570182,-1.674175,-0.173115,-0.1380167
832.0804,-0.01402926,-0.8319401,-1.570177,-1.661547,-0.1883924,-0.1393196
832.0955,-0.01402926,-0.8319401,-1.570177,-1.661547,-0.1883924,-0.1393196
832.1115,-0.01402763,-0.8297718,-1.5701,-1.648795,-0.2033517,-0.1405968
832.1259,-0.01402644,-0.8275973,-1.569973,-1.636073,-0.2180004,-0.1418489
832.1396,-0.01402644,-0.8275973,-1.569973,-1.636073,-0.2180004,-0.1418489
832.1536,-0.01402559,-0.8253595,-1.569841,-1.62288,-0.2338692,-0.1432056
832.1691,-0.01402498,-0.8230926,-1.569641,-1.609551,-0.2494098,-0.1445356
832.1837,-0.01402451,-0.8208179,-1.569393,-1.596248,-0.264631,-0.1458394
832.1984,-0.01402451,-0.8208179,-1.569393,-1.596248,-0.264631,-0.1458394
832.2126,-0.01402413,-0.8185487,-1.569111,-1.583052,-0.2795409,-0.1471176
832.2281,-0.01402398,-0.8162236,-1.568784,-1.569425,-0.2956493,-0.1484996
832.2429,-0.01402398,-0.8138744,-1.568414,-1.555683,-0.3114351,-0.1498546
832.2575,-0.01402398,-0.8138744,-1.568414,-1.555683,-0.3114351,-0.1498546
832.2719,-0.0140241,-0.8115209,-1.568012,-1.541981,-0.3269033,-0.1511828
832.2872,-0.01402431,-0.8091753,-1.567584,-1.528396,-0.34206,-0.152485
832.3022,-0.01402473,-0.8067757,-1.567067,-1.514383,-0.3583972,-0.1538904
832.3173,-0.01402473,-0.8067757,-1.567067,-1.514383,-0.3583972,-0.1538904
832.3309,-0.01402532,-0.8043537,-1.566532,-1.500261,-0.3744175,-0.1552683
832.3466,-0.01402602,-0.8019285,-1.565976,-1.486184,-0.3901222,-0.156619
832.3622,-0.0140268,-0.7995123,-1.5654,-1.472228,-0.4055157,-0.1579432
832.3762,-0.0140268,-0.7995123,-1.5654,-1.472228,-0.4055157,-0.1579432
832.39,-0.0140278,-0.7970432,-1.564691,-1.457847,-0.4220757,-0.1593701
832.4054,-0.01402896,-0.7945524,-1.563986,-1.443359,-0.4383238,-0.160769
832.4199,-0.01402896,-0.7945524,-1.563986,-1.443359,-0.4383238,-0.160769
832.4343,-0.01403022,-0.7920595,-1.56327,-1.428922,-0.4542583,-0.1621405
832.4498,-0.01403175,-0.789507,-1.562386,-1.414025,-0.4713466,-0.1636136
832.4644,-0.01403371,-0.7869293,-1.561519,-1.399008,-0.4881202,-0.1650579
832.4793,-0.01403371,-0.7869293,-1.561519,-1.399008,-0.4881202,-0.1650579
832.4936,-0.01403606,-0.7843475,-1.560649,-1.38404,-0.5045754,-0.1664739
832.5089,-0.01403877,-0.7817747,-1.559767,-1.369201,-0.5207142,-0.167862
832.5236,-0.01404205,-0.7791497,-1.558662,-1.353939,-0.5379985,-0.1693512
832.5381,-0.01404205,-0.7791497,-1.558662,-1.353939,-0.5379985,-0.1693512
832.5524,-0.01404584,-0.7765043,-1.557593,-1.338577,-0.5549718,-0.1708113
832.5679,-0.01405007,-0.773858,-1.556528,-1.323279,-0.5716291,-0.1722429
832.5826,-0.01405467,-0.7712231,-1.555457,-1.308121,-0.5879715,-0.1736463
832.5986,-0.01405467,-0.7712231,-1.555457,-1.308121,-0.5879715,-0.1736463
832.6124,-0.01405985,-0.7685377,-1.55433,-1.293115,-0.6040099,-0.1751514
832.627,-0.01406554,-0.7658331,-1.553205,-1.278338,-0.6197373,-0.1766269
832.6417,-0.01407164,-0.7631289,-1.552073,-1.263773,-0.6351629,-0.1780734
832.6561,-0.01407164,-0.7631289,-1.552073,-1.263773,-0.6351629,-0.1780734
832.6702,-0.0140777,-0.7604369,-1.550932,-1.249412,-0.6502942,-0.1794914
832.6857,-0.01408379,-0.7577645,-1.54978,-1.235254,-0.6651378,-0.1808815
832.7003,-0.01408996,-0.7551162,-1.548618,-1.221295,-0.6796997,-0.1822443
832.7151,-0.01408996,-0.7551162,-1.548618,-1.221295,-0.6796997,-0.1822443
832.7294,-0.01409624,-0.7524946,-1.547446,-1.207534,-0.6939855,-0.1835803
832.7448,-0.01410239,-0.7499706,-1.546317,-1.193989,-0.7079877,-0.1847608
832.7598,-0.01410239,-0.7499706,-1.546317,-1.193989,-0.7079877,-0.1847608
832.7739,-0.01410842,-0.7475179,-1.545161,-1.180607,-0.7217329,-0.185918
832.7896,-0.01411436,-0.7451204,-1.54399,-1.167407,-0.7352204,-0.1870526
832.8039,-0.01412026,-0.7427676,-1.54281,-1.154397,-0.7484526,-0.1881648
832.8188,-0.01412026,-0.7427676,-1.54281,-1.154397,-0.7484526,-0.1881648
832.8328,-0.0141259,-0.7405221,-1.542066,-1.142187,-0.75999,-0.1891275
832.8492,-0.01413132,-0.7383531,-1.541207,-1.130463,-0.7712538,-0.1900708
832.863,-0.01413656,-0.7362408,-1.540284,-1.119056,-0.7822889,-0.1909954
832.8778,-0.01413656,-0.7362408,-1.540284,-1.119056,-0.7822889,-0.1909954
832.8919,-0.01414146,-0.7342423,-1.539811,-1.108498,-0.7916827,-0.1917741
832.9075,-0.01414605,-0.732323,-1.539209,-1.098437,-0.8008184,-0.192537
832.9218,-0.01415041,-0.7304611,-1.53853,-1.088685,-0.8097652,-0.1932846
832.9366,-0.01415041,-0.7304611,-1.53853,-1.088685,-0.8097652,-0.1932846
832.9509,-0.01415461,-0.7286431,-1.537813,-1.079154,-0.8185353,-0.1940175
832.9664,-0.01415846,-0.7269294,-1.537601,-1.070414,-0.825744,-0.1946083
832.9813,-0.01416202,-0.725288,-1.537271,-1.062135,-0.8327036,-0.1951871
832.996,-0.01416202,-0.725288,-1.537271,-1.062135,-0.8327036,-0.1951871
833.0103,-0.01416536,-0.7236984,-1.536859,-1.054133,-0.8395162,-0.1957542
833.0256,-0.01416854,-0.7221479,-1.536407,-1.046322,-0.8461954,-0.1963101
833.0407,-0.01417137,-0.7206978,-1.536484,-1.039278,-0.8513917,-0.1967276
833.0554,-0.01417137,-0.7206978,-1.536484,-1.039278,-0.8513917,-0.1967276
833.0695,-0.0141739,-0.7193161,-1.536452,-1.032671,-0.8563444,-0.1971363
833.0858,-0.0141762,-0.7179828,-1.536328,-1.026316,-0.8611873,-0.1975368
833.0995,-0.0141762,-0.7179828,-1.536328,-1.026316,-0.8611873,-0.1975368
833.1138,-0.01417809,-0.7167547,-1.536719,-1.020743,-0.8646075,-0.1978018
833.1293,-0.01417963,-0.715597,-1.536987,-1.015604,-0.867797,-0.1980611
833.1438,-0.01418091,-0.714488,-1.537149,-1.010703,-0.8709097,-0.198315
833.1585,-0.01418091,-0.714488,-1.537149,-1.010703,-0.8709097,-0.198315
833.174,-0.01418199,-0.7134138,-1.537251,-1.005951,-0.8739646,-0.1985637
833.1882,-0.0141827,-0.7124354,-1.537896,-1.001921,-0.8756621,-0.1986801
833.2028,-0.01418316,-0.7115204,-1.538435,-0.9982865,-0.8771406,-0.1987937
833.2175,-0.01418316,-0.7115204,-1.538435,-0.9982865,-0.8771406,-0.1987937
833.2319,-0.0141835,-0.7106487,-1.538865,-0.9948599,-0.8785722,-0.1989047
833.2473,-0.01418378,-0.7098076,-1.539228,-0.9915553,-0.8799791,-0.1990135
833.2621,-0.01418389,-0.7090584,-1.540137,-0.98895,-0.8800797,-0.1989925
833.2771,-0.01418389,-0.7090584,-1.540137,-0.98895,-0.8800797,-0.1989925
833.2917,-0.01418389,-0.7083693,-1.54094,-0.9867172,-0.8799772,-0.1989716
833.3066,-0.01418384,-0.7077204,-1.541624,-0.9846706,-0.8798553,-0.1989507
833.3224,-0.01418374,-0.7070992,-1.542232,-0.9827241,-0.8797389,-0.19893
833.3361,-0.01418374,-0.7070992,-1.542232,-0.9827241,-0.8797389,-0.19893
833.3503,-0.01418347,-0.7065672,-1.543382,-0.9814553,-0.8783558,-0.1987822
833.3655,-0.0141831,-0.7060925,-1.54442,-0.9805384,-0.8767896,-0.1986369
833.3802,-0.01418266,-0.7056555,-1.545328,-0.9797871,-0.8752304,-0.198494
833.395,-0.01418266,-0.7056555,-1.545328,-0.9797871,-0.8752304,-0.198494
833.4092,-0.01418193,-0.7053128,-1.546741,-0.9797318,-0.8724307,-0.1982264
833.4249,-0.01418088,-0.70503,-1.548013,-0.9800263,-0.8694738,-0.1979634
833.4395,-0.01418088,-0.70503,-1.548013,-0.9800263,-0.8694738,-0.1979634
833.4534,-0.01417957,-0.7047854,-1.549135,-0.9804748,-0.8665512,-0.1977053
833.4689,-0.01417807,-0.7045655,-1.550155,-0.9809869,-0.8636877,-0.197452
833.4839,-0.01417618,-0.7044311,-1.551699,-0.9821381,-0.859604,-0.197076
833.4986,-0.01417618,-0.7044311,-1.551699,-0.9821381,-0.859604,-0.197076
833.5127,-0.01417395,-0.70435,-1.553105,-0.9836034,-0.8553905,-0.196707
833.5285,-0.01417145,-0.7043023,-1.55436,-0.9851963,-0.8512349,-0.1963448
833.543,-0.01416877,-0.7042753,-1.555508,-0.986831,-0.8471605,-0.1959895
833.5599,-0.01416877,-0.7042753,-1.555508,-0.986831,-0.8471605,-0.1959895
833.5728,-0.0141657,-0.7043298,-1.557173,-0.9890847,-0.8418726,-0.1955136
833.5872,-0.0141623,-0.7044345,-1.558685,-0.9916336,-0.8364868,-0.1950466
833.6018,-0.01415864,-0.7045696,-1.560037,-0.994292,-0.8311831,-0.1945883
833.617,-0.01415864,-0.7045696,-1.560037,-0.994292,-0.8311831,-0.1945883
833.6306,-0.01416359,-0.7047923,-1.561849,-0.9975901,-0.8246619,-0.1940112
833.6459,-0.01417361,-0.705068,-1.563462,-1.001183,-0.8180805,-0.1934448
833.6606,-0.01418657,-0.7053751,-1.564889,-1.004875,-0.8116094,-0.1928891
833.6757,-0.01418657,-0.7053751,-1.564889,-1.004875,-0.8116094,-0.1928891
833.6898,-0.01420118,-0.7057003,-1.566187,-1.008578,-0.8052642,-0.1923441
833.7053,-0.01421646,-0.7061045,-1.567972,-1.012864,-0.7977038,-0.191682
833.7199,-0.01421646,-0.7061045,-1.567972,-1.012864,-0.7977038,-0.191682
833.7339,-0.01423194,-0.7065556,-1.569566,-1.017411,-0.7901202,-0.1910324
833.7495,-0.01424738,-0.7070336,-1.570981,-1.022034,-0.7826669,-0.1903952
833.7643,-0.01426267,-0.707526,-1.572098,-1.026673,-0.7751858,-0.1897708
833.7795,-0.01426267,-0.707526,-1.572098,-1.026673,-0.7751858,-0.1897708
833.793,-0.01427754,-0.7080945,-1.573292,-1.031916,-0.7662634,-0.1890317
833.8097,-0.01429194,-0.7087073,-1.573702,-1.037444,-0.7571847,-0.1883073
833.8245,-0.01430591,-0.7093448,-1.573447,-1.043042,-0.7482945,-0.1875966
833.8381,-0.01430591,-0.7093448,-1.573447,-1.043042,-0.7482945,-0.1875966
833.8522,-0.01431925,-0.7100639,-1.573414,-1.049205,-0.73833,-0.1867713
833.8672,-0.01433202,-0.7108301,-1.573077,-1.055594,-0.7284871,-0.1859615
833.882,-0.01434427,-0.711622,-1.572613,-1.062012,-0.7189198,-0.1851667
833.8967,-0.01434427,-0.711622,-1.572613,-1.062012,-0.7189198,-0.1851667
833.9108,-0.01435609,-0.7124262,-1.572201,-1.068372,-0.7096311,-0.1843868
833.9262,-0.01436732,-0.7133036,-1.572462,-1.075249,-0.6991527,-0.1834941
833.941,-0.014378,-0.7142224,-1.57257,-1.082346,-0.6886981,-0.1826187
833.9561,-0.014378,-0.7142224,-1.57257,-1.082346,-0.6886981,-0.1826187
833.9698,-0.0143882,-0.7151625,-1.572491,-1.089483,-0.678416,-0.1817602
833.9853,-0.014398,-0.7161115,-1.5723,-1.096572,-0.6683568,-0.1809181
834.0001,-0.01440725,-0.7171311,-1.572587,-1.104173,-0.6570753,-0.1799643
834.0156,-0.01440725,-0.7171311,-1.572587,-1.104173,-0.6570753,-0.1799643
834.0293,-0.01441596,-0.7181897,-1.572598,-1.11198,-0.6458911,-0.1790289
834.0448,-0.01442423,-0.7192675,-1.572401,-1.119809,-0.634934,-0.1781114
834.0605,-0.01443211,-0.7203525,-1.572125,-1.12757,-0.6242378,-0.1772113
834.0742,-0.01443211,-0.7203525,-1.572125,-1.12757,-0.6242378,-0.1772113
834.0881,-0.01443946,-0.7215063,-1.572347,-1.135826,-0.6123177,-0.1762006
834.1035,-0.01444629,-0.7226973,-1.572331,-1.144272,-0.6005429,-0.1752093
834.1182,-0.01444629,-0.7226973,-1.572331,-1.144272,-0.6005429,-0.1752093
834.1321,-0.01445269,-0.723906,-1.572147,-1.152728,-0.5890067,-0.1742369
834.1476,-0.0144585,-0.7251895,-1.572347,-1.161709,-0.5762419,-0.1731552
834.1624,-0.01446377,-0.7265134,-1.572268,-1.170883,-0.5636693,-0.1720943
834.1771,-0.01446377,-0.7265134,-1.572268,-1.170883,-0.5636693,-0.1720943
834.1912,-0.01446859,-0.7278562,-1.572028,-1.180061,-0.5513644,-0.1710535
834.2067,-0.01447302,-0.7292048,-1.57176,-1.189153,-0.5393401,-0.1700326
834.2214,-0.01447694,-0.7306201,-1.571941,-1.198719,-0.5260863,-0.1689032
834.2362,-0.01447694,-0.7306201,-1.571941,-1.198719,-0.5260863,-0.1689032
834.2505,-0.01448036,-0.7320702,-1.571906,-1.208449,-0.5130439,-0.1677955
834.2658,-0.01448336,-0.7335353,-1.571735,-1.218171,-0.5002642,-0.1667091
834.2807,-0.01448603,-0.7350032,-1.571528,-1.2278,-0.4877583,-0.1656435
834.2957,-0.01448603,-0.7350032,-1.571528,-1.2278,-0.4877583,-0.1656435
834.3108,-0.0144882,-0.7365354,-1.5717,-1.237893,-0.4740201,-0.1644702
834.3252,-0.01448991,-0.7381004,-1.571654,-1.248141,-0.4605162,-0.1633195
834.3398,-0.01448991,-0.7381004,-1.571654,-1.248141,-0.4605162,-0.1633195
834.3538,-0.01449122,-0.7396787,-1.571483,-1.258371,-0.4472829,-0.1621908
834.3693,-0.014492,-0.7413273,-1.5716,-1.269092,-0.4328281,-0.1609555
834.384,-0.01449246,-0.7430121,-1.571499,-1.279972,-0.4186329,-0.1597439
834.3986,-0.01449246,-0.7430121,-1.571499,-1.279972,-0.4186329,-0.1597439
834.4128,-0.01449275,-0.7447115,-1.5713,-1.290832,-0.4047219,-0.1585556
834.4283,-0.01449296,-0.7464124,-1.571103,-1.301587,-0.3910942,-0.1573901
834.4432,-0.01449297,-0.7481758,-1.571222,-1.31279,-0.3762435,-0.1561186
834.4579,-0.01449297,-0.7481758,-1.571222,-1.31279,-0.3762435,-0.1561186
834.472,-0.01449285,-0.7499699,-1.57117,-1.324126,-0.3616575,-0.1548716
834.4874,-0.01449264,-0.7517749,-1.571029,-1.335432,-0.347352,-0.1536487
834.5022,-0.01449237,-0.7535785,-1.570876,-1.346628,-0.3333268,-0.1524495
834.5172,-0.01449237,-0.7535785,-1.570876,-1.346628,-0.3333268,-0.1524495
834.531,-0.01449191,-0.7554425,-1.570972,-1.358263,-0.3180778,-0.1511447
834.5475,-0.01449133,-0.7573354,-1.570912,-1.370023,-0.3031044,-0.1498652
834.5623,-0.01449065,-0.7592375,-1.570778,-1.381748,-0.2884144,-0.1486104
834.576,-0.01449065,-0.7592375,-1.570778,-1.381748,-0.2884144,-0.1486104
834.5901,-0.01448977,-0.7611371,-1.570641,-1.39336,-0.2740037,-0.1473798
834.6052,-0.0144888,-0.7630264,-1.570535,-1.404825,-0.2598675,-0.1461732
834.6199,-0.0144888,-0.7630264,-1.570535,-1.404825,-0.2598675,-0.1461732
834.6339,-0.01448778,-0.764901,-1.570465,-1.416128,-0.2459997,-0.14499
834.6497,-0.01448673,-0.7667582,-1.570418,-1.427265,-0.2323947,-0.1438298
834.6642,-0.01448581,-0.7685269,-1.570241,-1.437657,-0.2205507,-0.1428213
834.6788,-0.01448581,-0.7685269,-1.570241,-1.437657,-0.2205507,-0.1428213
834.6932,-0.01448496,-0.7702332,-1.570201,-1.447603,-0.2089404,-0.1418325
834.7085,-0.01448415,-0.7718931,-1.570223,-1.457258,-0.1975555,-0.1408631
834.7232,-0.01448336,-0.7735172,-1.570244,-1.466696,-0.18639,-0.1399127
834.738,-0.01448336,-0.7735172,-1.570244,-1.466696,-0.18639,-0.1399127
834.7521,-0.01448273,-0.7750425,-1.570144,-1.475379,-0.1769467,-0.13911
834.7678,-0.01448219,-0.7764999,-1.570106,-1.483628,-0.167692,-0.138323
834.7822,-0.0144817,-0.777909,-1.570078,-1.491601,-0.1586183,-0.1375515
834.798,-0.0144817,-0.777909,-1.570078,-1.491601,-0.1586183,-0.1375515
834.8122,-0.01448139,-0.7792127,-1.569965,-1.498802,-0.151232,-0.1369242
834.8266,-0.01448118,-0.7804453,-1.56989,-1.505572,-0.1439962,-0.1363092
834.8411,-0.01448104,-0.7816287,-1.569828,-1.512078,-0.1369034,-0.1357064
834.8557,-0.01448104,-0.7816287,-1.569828,-1.512078,-0.1369034,-0.1357064
834.8696,-0.01448093,-0.7827764,-1.569767,-1.518405,-0.1299485,-0.1351153
834.8849,-0.01448099,-0.7838276,-1.569643,-1.524021,-0.1246443,-0.134665
834.8997,-0.01448099,-0.7838276,-1.569643,-1.524021,-0.1246443,-0.134665
834.9138,-0.01448114,-0.7848145,-1.569548,-1.529248,-0.1194492,-0.1342236
834.9293,-0.01448136,-0.7857574,-1.569463,-1.534245,-0.1143573,-0.1337908
834.9438,-0.01448161,-0.7866688,-1.569382,-1.539089,-0.109365,-0.1333665
834.9587,-0.01448161,-0.7866688,-1.569382,-1.539089,-0.109365,-0.1333665
834.9727,-0.01448201,-0.7874874,-1.569258,-1.543247,-0.1059899,-0.1330798
834.9882,-0.01448253,-0.7882451,-1.569157,-1.547041,-0.1026856,-0.1327987
835.003,-0.0144831,-0.7889618,-1.569065,-1.550625,-0.09944779,-0.1325232
835.018,-0.0144831,-0.7889618,-1.569065,-1.550625,-0.09944779,-0.1325232
835.032,-0.01448384,-0.7895807,-1.568946,-1.553506,-0.09779645,-0.1323823
835.0472,-0.01448471,-0.7901365,-1.568845,-1.556021,-0.09618203,-0.1322442
835.0629,-0.01448564,-0.7906507,-1.568753,-1.558337,-0.09460125,-0.1321088
835.0767,-0.01448564,-0.7906507,-1.568753,-1.558337,-0.09460125,-0.1321088
835.0909,-0.01448664,-0.7911372,-1.568666,-1.560536,-0.09305227,-0.131976
835.1063,-0.01448795,-0.7915349,-1.568558,-1.562087,-0.09305829,-0.1319752
835.1205,-0.01448957,-0.7918761,-1.568462,-1.56331,-0.09306783,-0.1319744
835.1351,-0.01448957,-0.7918761,-1.568462,-1.56331,-0.09306783,-0.1319744
835.1492,-0.01449143,-0.7921808,-1.568373,-1.564362,-0.09307891,-0.1319736
835.1648,-0.01449348,-0.7924618,-1.568287,-1.56532,-0.09309061,-0.1319728
835.1796,-0.01449348,-0.7924618,-1.568287,-1.56532,-0.09309061,-0.1319728
835.1935,-0.01449587,-0.7926574,-1.568185,-1.565651,-0.09462743,-0.1321013
835.2094,-0.01449859,-0.7927996,-1.568093,-1.565673,-0.09613729,-0.1322273
835.2238,-0.01450157,-0.7929081,-1.568005,-1.565543,-0.09761908,-0.1323509
835.2397,-0.01450157,-0.7929081,-1.568005,-1.565543,-0.09761908,-0.1323509
835.2526,-0.01450495,-0.792926,-1.567901,-1.564763,-0.100597,-0.1326013
835.2681,-0.01450872,-0.7928894,-1.567804,-1.563672,-0.1035196,-0.1328468
835.2829,-0.01451279,-0.7928193,-1.567711,-1.562433,-0.1063864,-0.1330876
835.2974,-0.01451279,-0.7928193,-1.567711,-1.562433,-0.1063864,-0.1330876
835.3137,-0.01451706,-0.7927288,-1.567621,-1.561131,-0.1091977,-0.1333236
835.3281,-0.0145217,-0.7925569,-1.567509,-1.559231,-0.1134766,-0.1336842
835.3418,-0.01452667,-0.7923355,-1.567403,-1.557054,-0.1176746,-0.1340378
835.3562,-0.01452667,-0.7923355,-1.567403,-1.557054,-0.1176746,-0.1340378
835.3702,-0.0145319,-0.7920845,-1.567301,-1.554756,-0.1217916,-0.1343845
835.3856,-0.01453731,-0.7918163,-1.5672,-1.552414,-0.1258285,-0.1347243
835.4003,-0.01454306,-0.7914695,-1.567068,-1.549492,-0.1313057,-0.1351868
835.415,-0.01454306,-0.7914695,-1.567068,-1.549492,-0.1313057,-0.1351868
835.429,-0.01454914,-0.7910757,-1.566945,-1.54631,-0.1366791,-0.1356402
835.4445,-0.01455546,-0.7906547,-1.566825,-1.543021,-0.1419485,-0.1360848
835.4591,-0.01455546,-0.7906547,-1.566825,-1.543021,-0.1419485,-0.1360848
835.4733,-0.01456219,-0.7901494,-1.566665,-1.539129,-0.1486314,-0.1366498
835.4888,-0.01456928,-0.7895944,-1.566515,-1.534971,-0.1551875,-0.1372038
835.5034,-0.01457665,-0.7890111,-1.566368,-1.530711,-0.1616167,-0.1377469
835.5185,-0.01457665,-0.7890111,-1.566368,-1.530711,-0.1616167,-0.1377469
835.5323,-0.01458421,-0.7884131,-1.566222,-1.526431,-0.1679203,-0.1382794
835.548,-0.01458294,-0.7877393,-1.566043,-1.521595,-0.1756097,-0.1389306
835.5646,-0.01457706,-0.7870217,-1.565886,-1.516525,-0.1831548,-0.1395691
835.5783,-0.01457706,-0.7870217,-1.565886,-1.516525,-0.1831548,-0.1395691
835.5925,-0.01456847,-0.7862803,-1.565737,-1.511376,-0.1905544,-0.1401951
835.6072,-0.01455837,-0.7855276,-1.565591,-1.506223,-0.1978096,-0.1408088
835.6215,-0.01454773,-0.7847021,-1.565371,-1.500531,-0.2064292,-0.1415396
835.6362,-0.01454773,-0.7847021,-1.565371,-1.500531,-0.2064292,-0.1415396
835.6502,-0.01453696,-0.7838352,-1.56517,-1.494617,-0.2148867,-0.1422561
835.6653,-0.01452628,-0.7829466,-1.564976,-1.488636,-0.2231811,-0.1429586
835.6802,-0.01451575,-0.7820488,-1.564783,-1.482665,-0.231314,-0.1436473
835.6951,-0.01451575,-0.7820488,-1.564783,-1.482665,-0.231314,-0.1436473
835.7092,-0.01450568,-0.7810798,-1.564495,-1.476165,-0.2407887,-0.1444516
835.7245,-0.01449608,-0.7800714,-1.564234,-1.469454,-0.2500864,-0.1452401
835.7396,-0.01449608,-0.7800714,-1.564234,-1.469454,-0.2500864,-0.1452401
835.7535,-0.0144869,-0.7790431,-1.563982,-1.462688,-0.2592057,-0.1460132
835.7691,-0.01447835,-0.7779379,-1.563619,-1.455366,-0.2696447,-0.1469002
835.7838,-0.01447037,-0.7767901,-1.563289,-1.447825,-0.2798898,-0.1477698
835.7984,-0.01447037,-0.7767901,-1.563289,-1.447825,-0.2798898,-0.1477698
835.8146,-0.01446289,-0.7756212,-1.562971,-1.44023,-0.2899392,-0.1486224
835.8292,-0.01445581,-0.7744445,-1.562657,-1.432664,-0.2997939,-0.1494583
835.8428,-0.01444931,-0.7731989,-1.562204,-1.424586,-0.310948,-0.1504067
835.8574,-0.01444931,-0.7731989,-1.562204,-1.424586,-0.310948,-0.1504067
835.8715,-0.01444335,-0.7719164,-1.561792,-1.416317,-0.321896,-0.1513366
835.8867,-0.01443784,-0.7706169,-1.561396,-1.408014,-0.3326358,-0.1522482
835.9014,-0.0144327,-0.7693127,-1.561006,-1.399755,-0.3431683,-0.153142
835.9162,-0.0144327,-0.7693127,-1.561006,-1.399755,-0.3431683,-0.153142
835.9303,-0.01442811,-0.7679422,-1.560447,-1.390993,-0.3549832,-0.1541471
835.9457,-0.01442403,-0.7665368,-1.55994,-1.382051,-0.3665814,-0.1551325
835.9606,-0.01442037,-0.7651163,-1.559453,-1.373085,-0.3779605,-0.1560987
835.9753,-0.01442037,-0.7651163,-1.559453,-1.373085,-0.3779605,-0.1560987
835.9894,-0.01441732,-0.7636234,-1.558778,-1.363588,-0.3906052,-0.1571746
836.0048,-0.01441481,-0.7620925,-1.558164,-1.3539,-0.4030201,-0.1582296
836.0197,-0.01441481,-0.7620925,-1.558164,-1.3539,-0.4030201,-0.1582296
836.0338,-0.01441275,-0.7605451,-1.557576,-1.34419,-0.415202,-0.1592639
836.0493,-0.01441105,-0.7589944,-1.556998,-1.33454,-0.4271515,-0.1602779
836.0649,-0.01440988,-0.7573793,-1.556189,-1.3244,-0.4403526,-0.1614006
836.0798,-0.01440988,-0.7573793,-1.556189,-1.3244,-0.4403526,-0.1614006
836.0928,-0.01440917,-0.7557317,-1.55545,-1.314095,-0.4533152,-0.1625015
836.1083,-0.01440867,-0.7540714,-1.554742,-1.303785,-0.4660358,-0.1635808
836.1228,-0.01440829,-0.7524107,-1.554047,-1.293548,-0.4785155,-0.164639
836.1375,-0.01440829,-0.7524107,-1.554047,-1.293548,-0.4785155,-0.164639
836.1515,-0.01440814,-0.7506879,-1.55308,-1.28283,-0.4922375,-0.1658048
836.167,-0.01440814,-0.7489344,-1.552196,-1.271955,-0.5057138,-0.1669479
836.1816,-0.01440824,-0.74717,-1.551348,-1.261084,-0.5189407,-0.1680687
836.1964,-0.01440824,-0.74717,-1.551348,-1.261084,-0.5189407,-0.1680687
836.2104,-0.01440858,-0.7453372,-1.550202,-1.249701,-0.5334003,-0.1692958
836.226,-0.01440908,-0.7434707,-1.549152,-1.238151,-0.5476038,-0.1704991
836.2408,-0.01440968,-0.7415915,-1.548143,-1.226606,-0.5615467,-0.1716789
836.2556,-0.01440968,-0.7415915,-1.548143,-1.226606,-0.5615467,-0.1716789
836.2698,-0.01441036,-0.739713,-1.547153,-1.215149,-0.5752294,-0.1728356
836.2855,-0.01441126,-0.737774,-1.545801,-1.20322,-0.5901362,-0.1740977
836.2999,-0.01441126,-0.737774,-1.545801,-1.20322,-0.5901362,-0.1740977
836.3163,-0.01441236,-0.7358064,-1.544554,-1.191146,-0.604782,-0.1753353
836.3298,-0.01441375,-0.7338299,-1.543355,-1.179096,-0.6191592,-0.1765488
836.3444,-0.01441539,-0.7318568,-1.542175,-1.167146,-0.6332681,-0.1777385
836.3589,-0.01441539,-0.7318568,-1.542175,-1.167146,-0.6332681,-0.1777385
836.3732,-0.01441754,-0.7298253,-1.540577,-1.15473,-0.6485873,-0.1790328
836.3885,-0.01442016,-0.7277668,-1.539094,-1.142178,-0.6636475,-0.180302
836.403,-0.01442315,-0.725701,-1.537668,-1.129656,-0.6784296,-0.1815465
836.418,-0.01442315,-0.725701,-1.537668,-1.129656,-0.6784296,-0.1815465
836.4322,-0.01442676,-0.7235705,-1.536213,-1.117224,-0.6929497,-0.182896
836.4478,-0.01443088,-0.7214096,-1.534787,-1.104971,-0.7071826,-0.1842189
836.4624,-0.01443541,-0.7192397,-1.533373,-1.092892,-0.7211381,-0.185516
836.4774,-0.01443541,-0.7192397,-1.533373,-1.092892,-0.7211381,-0.185516
836.4915,-0.01444028,-0.7170739,-1.531964,-1.080983,-0.7348227,-0.1867875
836.5075,-0.01444501,-0.7149204,-1.530557,-1.069244,-0.7482415,-0.1880341
836.522,-0.01444971,-0.7127841,-1.529151,-1.057675,-0.7613993,-0.1892563
836.5366,-0.01444971,-0.7127841,-1.529151,-1.057675,-0.7613993,-0.1892563
836.5528,-0.01445442,-0.7106679,-1.527748,-1.046275,-0.7743005,-0.1904545
836.5663,-0.01445918,-0.7085737,-1.526347,-1.035042,-0.7869495,-0.1916291
836.5808,-0.01446374,-0.7065717,-1.525012,-1.023991,-0.7993263,-0.1926515
836.5957,-0.01446374,-0.7065717,-1.525012,-1.023991,-0.7993263,-0.1926515
836.6099,-0.01446811,-0.7046356,-1.52366,-1.013073,-0.8114743,-0.1936538
836.6251,-0.01447235,-0.7027487,-1.522303,-1.002309,-0.8233891,-0.1946364
836.6399,-0.01447235,-0.7027487,-1.522303,-1.002309,-0.8233891,-0.1946364
836.6542,-0.01447624,-0.7009701,-1.52153,-0.9923198,-0.8337486,-0.1954723
836.6693,-0.01447984,-0.6992661,-1.520679,-0.9827948,-0.843722,-0.1962914
836.6841,-0.0144832,-0.6976159,-1.519744,-0.9735602,-0.8534785,-0.1970941
836.6989,-0.0144832,-0.6976159,-1.519744,-0.9735602,-0.8534785,-0.1970941
836.713,-0.01448641,-0.6960062,-1.518761,-0.9645342,-0.8630424,-0.197881
836.7288,-0.01448925,-0.6944981,-1.518357,-0.956294,-0.8711601,-0.1985249
836.7433,-0.01449178,-0.6930593,-1.517888,-0.9485101,-0.8788905,-0.1991559
836.7585,-0.01449178,-0.6930593,-1.517888,-0.9485101,-0.8788905,-0.1991559
836.7726,-0.01449409,-0.6916699,-1.517324,-0.9409983,-0.886439,-0.1997741
836.7889,-0.01449622,-0.6903171,-1.516702,-0.9336722,-0.8938404,-0.20038
836.8026,-0.01449799,-0.6890622,-1.516663,-0.9271092,-0.8998951,-0.2008466
836.8174,-0.01449799,-0.6890622,-1.516663,-0.9271092,-0.8998951,-0.2008466
836.8316,-0.01449944,-0.6878735,-1.516577,-0.9209798,-0.9055696,-0.2013037
836.8469,-0.01450066,-0.6867308,-1.516393,-0.9150985,-0.9110928,-0.2017515
836.8616,-0.01450171,-0.6856217,-1.516143,-0.9093784,-0.9165086,-0.2021903
836.8766,-0.01450171,-0.6856217,-1.516143,-0.9093784,-0.9165086,-0.2021903
836.8906,-0.01450238,-0.6846076,-1.516474,-0.904398,-0.9206616,-0.2024931
836.9061,-0.01450281,-0.6836566,-1.51677,-0.8998284,-0.9244482,-0.2027896
836.9209,-0.01450312,-0.6827489,-1.516964,-0.8954835,-0.9281109,-0.20308
836.9354,-0.01450312,-0.6827489,-1.516964,-0.8954835,-0.9281109,-0.20308
836.9498,-0.01450322,-0.6819413,-1.517702,-0.8918954,-0.9305611,-0.2032372
836.9652,-0.01450319,-0.681199,-1.518385,-0.8887144,-0.9326665,-0.2033908
836.9803,-0.01450311,-0.6805003,-1.518947,-0.8857445,-0.9346766,-0.203541
836.995,-0.01450311,-0.6805003,-1.518947,-0.8857445,-0.9346766,-0.203541
837.0093,-0.01450298,-0.6798317,-1.519419,-0.882894,-0.9366469,-0.2036881
837.0258,-0.01450267,-0.6792541,-1.520454,-0.8807408,-0.9374679,-0.203705
837.0405,-0.01450226,-0.678735,-1.521453,-0.8789564,-0.9379659,-0.2037211
837.0541,-0.01450226,-0.678735,-1.521453,-0.8789564,-0.9379659,-0.2037211
837.0681,-0.01450176,-0.6782545,-1.522335,-0.8773541,-0.9383925,-0.2037365
837.0834,-0.01450116,-0.6777999,-1.523123,-0.8758463,-0.9388067,-0.2037514
837.0983,-0.01450116,-0.6777999,-1.523123,-0.8758463,-0.9388067,-0.2037514
837.1123,-0.01450022,-0.6774327,-1.52447,-0.8750128,-0.9381104,-0.2036387
837.1278,-0.01449896,-0.677121,-1.525776,-0.8745271,-0.9371142,-0.2035277
837.1424,-0.01449746,-0.676845,-1.526956,-0.8742025,-0.9360713,-0.2034185
837.1573,-0.01449746,-0.676845,-1.526956,-0.8742025,-0.9360713,-0.2034185
837.1715,-0.01449551,-0.6766615,-1.528654,-0.8745713,-0.9339335,-0.203184
837.1867,-0.01449318,-0.676536,-1.530276,-0.875286,-0.9315213,-0.2029536
837.2014,-0.01449057,-0.6764468,-1.531746,-0.8761502,-0.92909,-0.2027273
837.2165,-0.01449057,-0.6764468,-1.531746,-0.8761502,-0.92909,-0.2027273
837.2305,-0.01448775,-0.6763805,-1.53309,-0.8770723,-0.9266991,-0.2025052
837.2462,-0.01448451,-0.6763971,-1.53497,-0.8786308,-0.923242,-0.20216
837.2606,-0.01448094,-0.676465,-1.536778,-0.8804994,-0.9195386,-0.2018211
837.2765,-0.01448094,-0.676465,-1.536778,-0.8804994,-0.9195386,-0.2018211
837.2908,-0.0144771,-0.6765641,-1.538433,-0.8824914,-0.9158399,-0.2014884
837.3051,-0.01447309,-0.6766821,-1.53996,-0.8845196,-0.9122034,-0.201162
837.321,-0.01446868,-0.6768805,-1.542015,-0.8871635,-0.9075047,-0.2007146
837.3342,-0.01446868,-0.6768805,-1.542015,-0.8871635,-0.9075047,-0.2007146
837.3484,-0.01446395,-0.6771277,-1.543983,-0.8900989,-0.9025885,-0.2002755
837.3639,-0.01445898,-0.6774039,-1.545783,-0.8931398,-0.897703,-0.1998445
837.3787,-0.01445898,-0.6774039,-1.545783,-0.8931398,-0.897703,-0.1998445
837.3929,-0.01445356,-0.677766,-1.548069,-0.8968173,-0.8917493,-0.1992944
837.4084,-0.01444778,-0.6781794,-1.550222,-0.9007866,-0.8856095,-0.1987545
837.4231,-0.01444173,-0.6786228,-1.552179,-0.9048517,-0.8795289,-0.1982248
837.4379,-0.01444173,-0.6786228,-1.552179,-0.9048517,-0.8795289,-0.1982248
837.452,-0.0144355,-0.6790827,-1.553978,-0.9089218,-0.8735561,-0.1977051
837.4676,-0.01443786,-0.67962,-1.556273,-0.9135742,-0.8665017,-0.197068
837.4823,-0.01444532,-0.6802026,-1.558418,-0.9184852,-0.8592997,-0.1964429
837.4972,-0.01444532,-0.6802026,-1.558418,-0.9184852,-0.8592997,-0.1964429
837.5134,-0.01445575,-0.6808106,-1.56036,-0.9234684,-0.8521851,-0.1958296
837.527,-0.01446789,-0.6814316,-1.562142,-0.9284377,-0.8451989,-0.195228
837.5419,-0.01448071,-0.682127,-1.564423,-0.9339697,-0.8371187,-0.1945106
837.5564,-0.01448071,-0.682127,-1.564423,-0.9339697,-0.8371187,-0.1945106
837.5703,-0.01449376,-0.6828653,-1.56654,-0.9397437,-0.8289306,-0.1938067
837.5856,-0.01450682,-0.6836267,-1.56845,-0.9455747,-0.8208555,-0.1931161
837.6005,-0.01451975,-0.6843989,-1.570197,-0.9513773,-0.812927,-0.1924388
837.6154,-0.01451975,-0.6843989,-1.570197,-0.9513773,-0.812927,-0.1924388
837.6293,-0.01453227,-0.6852437,-1.572434,-0.9577276,-0.8038767,-0.1916471
837.6449,-0.01454435,-0.6861294,-1.574064,-0.9643729,-0.7942404,-0.1908723
837.6597,-0.01454435,-0.6861294,-1.574064,-0.9643729,-0.7942404,-0.1908723
837.6738,-0.01455604,-0.6870365,-1.574737,-0.9711249,-0.7844508,-0.1901132
837.6895,-0.01456712,-0.6880219,-1.575158,-0.9784692,-0.7735267,-0.189241
837.7042,-0.01457764,-0.6890513,-1.574829,-0.9860388,-0.7626531,-0.1883853
837.7188,-0.01457764,-0.6890513,-1.574829,-0.9860388,-0.7626531,-0.1883853
837.733,-0.01458768,-0.6901032,-1.57404,-0.9936126,-0.7521545,-0.1875451
837.7495,-0.01459731,-0.6911643,-1.573172,-1.001086,-0.742094,-0.1867202
837.7644,-0.01460636,-0.6922956,-1.573088,-1.00903,-0.7310557,-0.185783
837.7782,-0.01460636,-0.6922956,-1.573088,-1.00903,-0.7310557,-0.185783
837.7919,-0.01461487,-0.6934651,-1.573038,-1.017159,-0.7200313,-0.1848637
837.8074,-0.01462294,-0.6946529,-1.572934,-1.025303,-0.7091746,-0.1839621
837.8221,-0.01463063,-0.6958468,-1.572782,-1.033381,-0.6985259,-0.1830778
837.8367,-0.01463063,-0.6958468,-1.572782,-1.033381,-0.6985259,-0.1830778
837.8508,-0.01463777,-0.6971083,-1.573178,-1.041961,-0.6866899,-0.1820828
837.8663,-0.01464441,-0.6984059,-1.573286,-1.050739,-0.6748628,-0.1811072
837.881,-0.01465062,-0.69972,-1.573109,-1.059528,-0.6632502,-0.1801502
837.8958,-0.01465062,-0.69972,-1.573109,-1.059528,-0.6632502,-0.1801502
837.91,-0.01465624,-0.7011076,-1.573326,-1.068839,-0.6504768,-0.1790836
837.9254,-0.01466131,-0.7025344,-1.573218,-1.078339,-0.6378241,-0.1780374
837.9402,-0.01466594,-0.703979,-1.57289,-1.087835,-0.6254534,-0.1770111
837.955,-0.01466594,-0.703979,-1.57289,-1.087835,-0.6254534,-0.1770111
837.9693,-0.0146702,-0.705428,-1.572508,-1.097231,-0.6133956,-0.1760042
837.9846,-0.01467392,-0.7069426,-1.572695,-1.107091,-0.6001568,-0.1748886
838.0004,-0.01467716,-0.7084909,-1.572669,-1.117115,-0.5870671,-0.1737945
838.0142,-0.01467716,-0.7084909,-1.572669,-1.117115,-0.5870671,-0.1737945
838.0284,-0.01467998,-0.710053,-1.572472,-1.127123,-0.5742384,-0.1727214
838.0437,-0.01468248,-0.7116167,-1.572209,-1.13703,-0.5616989,-0.1716687
838.0583,-0.01468248,-0.7116167,-1.572209,-1.13703,-0.5616989,-0.1716687
838.0724,-0.01468447,-0.7132436,-1.572426,-1.147396,-0.5479453,-0.1705083
838.0878,-0.014686,-0.7149022,-1.572384,-1.157915,-0.5343893,-0.1693701
838.1024,-0.01468715,-0.716573,-1.572169,-1.16841,-0.5211141,-0.1682537
838.1171,-0.01468715,-0.716573,-1.572169,-1.16841,-0.5211141,-0.1682537
838.1313,-0.01468775,-0.718313,-1.572322,-1.179392,-0.5066316,-0.1670306
838.1467,-0.01468808,-0.720088,-1.572202,-1.190531,-0.4923958,-0.1658309
838.1616,-0.01468826,-0.7218766,-1.571939,-1.20164,-0.4784648,-0.1646541
838.1766,-0.01468826,-0.7218766,-1.571939,-1.20164,-0.4784648,-0.1646541
838.1906,-0.01468836,-0.7236656,-1.571665,-1.212634,-0.4648441,-0.1634998
838.2062,-0.01468827,-0.7255161,-1.571816,-1.224068,-0.4500097,-0.1622394
838.2209,-0.01468804,-0.7273962,-1.571758,-1.235634,-0.4354316,-0.1610032
838.2354,-0.01468804,-0.7273962,-1.571758,-1.235634,-0.4354316,-0.1610032
838.2507,-0.01468772,-0.7292863,-1.571578,-1.247162,-0.4211472,-0.1597908
838.265,-0.01468734,-0.7311739,-1.571372,-1.25857,-0.4071617,-0.1586017
838.2799,-0.01468734,-0.7311739,-1.571372,-1.25857,-0.4071617,-0.1586017
838.2939,-0.01468678,-0.7331209,-1.571509,-1.270413,-0.3919597,-0.1573071
838.3093,-0.01468608,-0.7350957,-1.571443,-1.282378,-0.37703,-0.1560374
838.3237,-0.01468529,-0.737079,-1.571269,-1.2943,-0.3623962,-0.1547922
838.3384,-0.01468529,-0.737079,-1.571269,-1.2943,-0.3623962,-0.1547922
838.3538,-0.01468432,-0.7390586,-1.571082,-1.3061,-0.3480571,-0.1535709
838.3682,-0.01468326,-0.741027,-1.570933,-1.317742,-0.3340043,-0.1523732
838.3828,-0.01468209,-0.7429798,-1.570834,-1.329214,-0.3202268,-0.1511987
838.3976,-0.01468209,-0.7429798,-1.570834,-1.329214,-0.3202268,-0.1511987
838.4119,-0.01468082,-0.7449141,-1.57077,-1.340513,-0.3067157,-0.1500471
838.4273,-0.01467946,-0.7468284,-1.570722,-1.351638,-0.2934643,-0.1489179
838.4422,-0.01467803,-0.7487217,-1.570678,-1.36259,-0.2804675,-0.1478106
838.457,-0.01467803,-0.7487217,-1.570678,-1.36259,-0.2804675,-0.1478106
838.4708,-0.01467654,-0.7505937,-1.570632,-1.373372,-0.2677203,-0.1467249
838.4886,-0.01467499,-0.752444,-1.570583,-1.383987,-0.2552179,-0.1456603
838.5021,-0.01467339,-0.7542726,-1.570534,-1.394436,-0.2429553,-0.1446165
838.5158,-0.01467339,-0.7542726,-1.570534,-1.394436,-0.2429553,-0.1446165
838.5298,-0.01467174,-0.7560797,-1.570487,-1.404723,-0.2309275,-0.143593
838.5452,-0.01467005,-0.7578654,-1.570443,-1.41485,-0.2191296,-0.1425894
838.5598,-0.01467005,-0.7578654,-1.570443,-1.41485,-0.2191296,-0.1425894
838.5739,-0.01466832,-0.7596299,-1.570403,-1.424822,-0.2075569,-0.1416055
838.5893,-0.01466655,-0.7613734,-1.570366,-1.434641,-0.1962048,-0.1406407
838.6039,-0.01466474,-0.7630961,-1.570331,-1.444309,-0.185069,-0.1396947
838.6187,-0.01466474,-0.7630961,-1.570331,-1.444309,-0.185069,-0.1396947
838.6327,-0.0146629,-0.7647983,-1.570299,-1.45383,-0.1741452,-0.1387672
838.6484,-0.01466102,-0.7664801,-1.570268,-1.463206,-0.1634291,-0.1378578
838.6631,-0.01465911,-0.7681419,-1.570238,-1.472441,-0.1529167,-0.1369662
838.6783,-0.01465911,-0.7681419,-1.570238,-1.472441,-0.1529167,-0.1369662
838.6922,-0.01465716,-0.7697839,-1.570211,-1.481536,-0.1426041,-0.1360919
838.7078,-0.01465518,-0.7714062,-1.570185,-1.490495,-0.1324874,-0.1352348
838.7224,-0.01465317,-0.7730091,-1.570152,-1.499319,-0.1225628,-0.1343944
838.7386,-0.01465317,-0.7730091,-1.570152,-1.499319,-0.1225628,-0.1343944
838.7524,-0.01465113,-0.7745929,-1.570104,-1.508011,-0.1128272,-0.1335704
838.7667,-0.01464906,-0.7761579,-1.570039,-1.516574,-0.1032768,-0.1327626
838.7814,-0.01464696,-0.7777041,-1.56996,-1.52501,-0.09390834,-0.1319705
838.796,-0.01464696,-0.7777041,-1.56996,-1.52501,-0.09390834,-0.1319705
838.8102,-0.01464483,-0.7792318,-1.569866,-1.53332,-0.08471823,-0.131194
838.8255,-0.01464267,-0.7807413,-1.56976,-1.541507,-0.07570318,-0.1304326
838.8402,-0.01464049,-0.7822328,-1.569642,-1.549574,-0.0668599,-0.1296861
838.8548,-0.01464049,-0.7822328,-1.569642,-1.549574,-0.0668599,-0.1296861
838.869,-0.01463828,-0.7837064,-1.569512,-1.557521,-0.05818516,-0.1289543
838.8845,-0.01463604,-0.7851625,-1.569372,-1.565351,-0.04967581,-0.1282368
838.8992,-0.01463604,-0.7851625,-1.569372,-1.565351,-0.04967581,-0.1282368
838.9131,-0.01463378,-0.7866012,-1.569223,-1.573067,-0.04132876,-0.1275333
838.9288,-0.01463149,-0.7880227,-1.569065,-1.58067,-0.03314095,-0.1268436
838.9437,-0.01462918,-0.7894272,-1.568899,-1.588161,-0.02510943,-0.1261674
838.9587,-0.01462918,-0.7894272,-1.568899,-1.588161,-0.02510943,-0.1261674
838.9724,-0.01462685,-0.790815,-1.568725,-1.595543,-0.0172312,-0.1255044
838.989,-0.0146245,-0.7921862,-1.568545,-1.602817,-0.009503398,-0.1248544
839.0026,-0.01462212,-0.793541,-1.568359,-1.609986,-0.001923226,-0.1242172
839.0174,-0.01462212,-0.793541,-1.568359,-1.609986,-0.001923226,-0.1242172
839.0315,-0.01461972,-0.7948796,-1.568167,-1.61705,0.005512071,-0.1235925
839.0468,-0.01461731,-0.7962022,-1.567971,-1.624012,0.01280519,-0.12298
839.0615,-0.01461487,-0.7975091,-1.567769,-1.630873,0.01995876,-0.1223795
839.0764,-0.01461487,-0.7975091,-1.567769,-1.630873,0.01995876,-0.1223795
839.0905,-0.01461241,-0.7988003,-1.567564,-1.637635,0.0269754,-0.1217907
839.1059,-0.01460994,-0.8000761,-1.567355,-1.644299,0.03385764,-0.1212135
839.1205,-0.01460744,-0.8013367,-1.567143,-1.650867,0.04060796,-0.1206477
839.1353,-0.01460744,-0.8013367,-1.567143,-1.650867,0.04060796,-0.1206477
839.1495,-0.01460493,-0.8025822,-1.566929,-1.657341,0.04722881,-0.1200929
839.165,-0.01460241,-0.8038129,-1.566712,-1.663721,0.05372258,-0.119549
839.1797,-0.01460241,-0.8038129,-1.566712,-1.663721,0.05372258,-0.119549
839.1954,-0.01459986,-0.8050288,-1.566493,-1.670009,0.06009164,-0.1190157
839.2101,-0.0145973,-0.8062302,-1.566272,-1.676207,0.06633827,-0.118493
839.2263,-0.01459473,-0.8074173,-1.56605,-1.682316,0.07246474,-0.1179804
839.24,-0.01459214,-0.8085902,-1.565827,-1.688338,0.07847327,-0.117478
839.2536,-0.01459214,-0.8085902,-1.565827,-1.688338,0.07847327,-0.117478
839.2676,-0.01458954,-0.8097491,-1.565603,-1.694273,0.08436602,-0.1169854
839.283,-0.01458692,-0.8108942,-1.565379,-1.700123,0.09014512,-0.1165024
839.298,-0.01458692,-0.8108942,-1.565379,-1.700123,0.09014512,-0.1165024
839.3118,-0.01458429,-0.8120256,-1.565155,-1.705889,0.09581266,-0.1160289
839.327,-0.01458165,-0.8131435,-1.56493,-1.711573,0.1013707,-0.1155647
839.3419,-0.014579,-0.814248,-1.564706,-1.717176,0.1068213,-0.1151097
839.3566,-0.014579,-0.814248,-1.564706,-1.717176,0.1068213,-0.1151097
839.3709,-0.01457634,-0.8153394,-1.564483,-1.722698,0.1121663,-0.1146635
839.3862,-0.01457367,-0.8164177,-1.56426,-1.728142,0.1174078,-0.1142261
839.4008,-0.01457098,-0.8174831,-1.564038,-1.733508,0.1225476,-0.1137973
839.4157,-0.01457098,-0.8174831,-1.564038,-1.733508,0.1225476,-0.1137973
839.43,-0.01456829,-0.8185359,-1.563817,-1.738798,0.1275876,-0.1133769
839.4456,-0.01456559,-0.819576,-1.563598,-1.744012,0.1325296,-0.1129648
839.46,-0.01456288,-0.8206037,-1.56338,-1.749152,0.1373755,-0.1125607
839.476,-0.01456288,-0.8206037,-1.56338,-1.749152,0.1373755,-0.1125607
839.4901,-0.01456016,-0.8216192,-1.563164,-1.754218,0.142127,-0.1121646
839.5046,-0.01455744,-0.8226225,-1.562949,-1.759212,0.1467858,-0.1117762
839.5191,-0.01455744,-0.8226225,-1.562949,-1.759212,0.1467858,-0.1117762
839.5331,-0.0145547,-0.8236138,-1.562736,-1.764136,0.1513538,-0.1113955
839.5487,-0.01455196,-0.8245933,-1.562526,-1.768989,0.1558325,-0.1110222
839.5633,-0.01454922,-0.8255611,-1.562317,-1.773773,0.1602236,-0.1106563
839.578,-0.01454922,-0.8255611,-1.562317,-1.773773,0.1602236,-0.1106563
839.5921,-0.01454647,-0.8265173,-1.562111,-1.778489,0.1645287,-0.1102975
839.6075,-0.01454371,-0.8274622,-1.561907,-1.783139,0.1687495,-0.1099458
839.6224,-0.01454095,-0.8283957,-1.561706,-1.787722,0.1728875,-0.109601
839.6371,-0.01454095,-0.8283957,-1.561706,-1.787722,0.1728875,-0.109601
839.6512,-0.01453819,-0.8293181,-1.561507,-1.792239,0.1769442,-0.109263
839.6669,-0.01453542,-0.8302295,-1.561311,-1.796693,0.1809212,-0.1089316
839.6816,-0.01453264,-0.83113,-1.561117,-1.801083,0.1848199,-0.1086067
