JMolnar6/NonAnthroHands_User_Study/HandsLoggerWithURDF/tempdata/PID 0 (test)/files/Reachy_PID0_JointMotion_gesture_9_2.csv
Time,r_shoulder,r_shoulder_x,r_upper_arm,r_forearm,r_wrist,r_wrist2hand,
815.1127,-0.01412082,-0.9000016,-1.559625,-2.092093,0.3729903,-0.09258559
815.1276,-0.01411974,-0.9000691,-1.559651,-2.092297,0.3730362,-0.09258099
815.1447,-0.01411866,-0.9001358,-1.559676,-2.092499,0.3730813,-0.09257648
815.157,-0.01411866,-0.9001358,-1.559676,-2.092499,0.3730813,-0.09257648
815.1709,-0.01411759,-0.9002016,-1.559702,-2.092698,0.3731253,-0.09257206
815.1862,-0.01411652,-0.9002667,-1.559727,-2.092894,0.3731685,-0.09256773
815.2009,-0.01411545,-0.900331,-1.559752,-2.093087,0.3732107,-0.09256348
815.2156,-0.01411545,-0.900331,-1.559752,-2.093087,0.3732107,-0.09256348
815.2299,-0.01411439,-0.9003945,-1.559777,-2.093277,0.373252,-0.09255932
815.2455,-0.01411333,-0.9004573,-1.559801,-2.093465,0.3732924,-0.09255523
815.26,-0.01411227,-0.9005193,-1.559826,-2.093651,0.373332,-0.09255122
815.275,-0.01411227,-0.9005193,-1.559826,-2.093651,0.373332,-0.09255122
815.2892,-0.01411121,-0.9005805,-1.55985,-2.093833,0.3733707,-0.0925473
815.3045,-0.01411016,-0.9006411,-1.559874,-2.094014,0.3734086,-0.09254345
815.319,-0.01411016,-0.9006411,-1.559874,-2.094014,0.3734086,-0.09254345
815.3352,-0.01410911,-0.9007009,-1.559897,-2.094191,0.3734457,-0.09253967
815.3486,-0.01410807,-0.9007601,-1.559921,-2.094367,0.373482,-0.09253597
815.363,-0.01410702,-0.9008185,-1.559944,-2.094539,0.3735175,-0.09253234
815.3779,-0.01410702,-0.9008185,-1.559944,-2.094539,0.3735175,-0.09253234
815.3917,-0.01410598,-0.9008762,-1.559967,-2.09471,0.3735523,-0.09252878
815.4072,-0.01410495,-0.9009331,-1.55999,-2.094878,0.3735863,-0.09252528
815.4219,-0.01410392,-0.9009895,-1.560012,-2.095044,0.3736196,-0.09252185
815.4366,-0.01410392,-0.9009895,-1.560012,-2.095044,0.3736196,-0.09252185
815.4506,-0.01410289,-0.9010451,-1.560034,-2.095207,0.3736522,-0.09251849
815.4659,-0.01410186,-0.9011002,-1.560056,-2.095368,0.373684,-0.0925152
815.4808,-0.01410084,-0.9011545,-1.560078,-2.095527,0.3737152,-0.09251197
815.4956,-0.01410084,-0.9011545,-1.560078,-2.095527,0.3737152,-0.09251197
815.5099,-0.01409982,-0.9012082,-1.5601,-2.095684,0.3737457,-0.09250881
815.5251,-0.0140988,-0.9012613,-1.560121,-2.095838,0.3737756,-0.0925057
815.5399,-0.0140988,-0.9012613,-1.560121,-2.095838,0.3737756,-0.0925057
815.554,-0.01409778,-0.9013137,-1.560143,-2.095991,0.3738048,-0.09250265
815.5694,-0.01409677,-0.9013655,-1.560164,-2.096141,0.3738334,-0.09249967
815.5862,-0.01409577,-0.9014166,-1.560184,-2.096289,0.3738613,-0.09249674
815.5997,-0.01409577,-0.9014166,-1.560184,-2.096289,0.3738613,-0.09249674
815.6138,-0.01409476,-0.9014671,-1.560205,-2.096435,0.3738887,-0.09249387
815.6282,-0.01409376,-0.9015171,-1.560225,-2.096579,0.3739154,-0.09249105
815.6428,-0.01409276,-0.9015664,-1.560246,-2.096721,0.3739416,-0.0924883
815.6574,-0.01409276,-0.9015664,-1.560246,-2.096721,0.3739416,-0.0924883
815.6714,-0.01409176,-0.9016152,-1.560266,-2.096862,0.3739673,-0.09248559
815.6867,-0.01409077,-0.9016634,-1.560285,-2.097,0.3739923,-0.09248294
815.7015,-0.01408978,-0.901711,-1.560305,-2.097136,0.3740169,-0.09248034
815.7161,-0.01408978,-0.901711,-1.560305,-2.097136,0.3740169,-0.09248034
815.7302,-0.0140888,-0.901758,-1.560324,-2.097271,0.3740408,-0.09247779
815.7458,-0.01408781,-0.9018045,-1.560344,-2.097403,0.3740643,-0.09247529
815.7606,-0.01408683,-0.9018504,-1.560362,-2.097534,0.3740872,-0.09247284
815.7753,-0.01408683,-0.9018504,-1.560362,-2.097534,0.3740872,-0.09247284
815.7892,-0.01408586,-0.9018958,-1.560381,-2.097663,0.3741097,-0.09247043
815.8046,-0.01408488,-0.9019406,-1.5604,-2.09779,0.3741316,-0.09246807
815.8193,-0.01408488,-0.9019406,-1.5604,-2.09779,0.3741316,-0.09246807
815.8334,-0.01408391,-0.9019849,-1.560418,-2.097915,0.3741531,-0.09246576
815.8499,-0.01408294,-0.9020286,-1.560436,-2.098039,0.3741741,-0.09246349
815.8645,-0.01408198,-0.9020719,-1.560454,-2.098161,0.3741947,-0.09246126
815.8782,-0.01408198,-0.9020719,-1.560454,-2.098161,0.3741947,-0.09246126
815.8922,-0.01408102,-0.9021146,-1.560472,-2.098281,0.3742148,-0.09245908
815.9077,-0.01408006,-0.9021568,-1.56049,-2.0984,0.3742345,-0.09245694
815.9219,-0.0140791,-0.9021986,-1.560507,-2.098516,0.3742537,-0.09245484
815.9367,-0.0140791,-0.9021986,-1.560507,-2.098516,0.3742537,-0.09245484
815.9506,-0.01407815,-0.9022398,-1.560524,-2.098632,0.3742725,-0.09245278
815.9659,-0.0140772,-0.9022805,-1.560542,-2.098746,0.3742909,-0.09245076
815.9807,-0.01407626,-0.9023207,-1.560558,-2.098858,0.3743089,-0.09244879
815.9954,-0.01407626,-0.9023207,-1.560558,-2.098858,0.3743089,-0.09244879
816.0099,-0.01407531,-0.9023605,-1.560575,-2.098968,0.3743265,-0.09244685
816.0252,-0.01407437,-0.9023998,-1.560592,-2.099077,0.3743437,-0.09244495
816.0399,-0.01407437,-0.9023998,-1.560592,-2.099077,0.3743437,-0.09244495
816.0537,-0.01407344,-0.9024386,-1.560608,-2.099185,0.3743605,-0.09244309
816.0694,-0.0140725,-0.9024769,-1.560624,-2.099291,0.374377,-0.09244126
816.084,-0.01407157,-0.9025148,-1.56064,-2.099396,0.374393,-0.09243947
816.0988,-0.01407157,-0.9025148,-1.56064,-2.099396,0.374393,-0.09243947
816.1147,-0.01407052,-0.9026216,-1.560141,-2.100091,0.3757687,-0.09230845
816.1281,-0.01406938,-0.9027703,-1.559732,-2.101071,0.3773664,-0.09218044
816.1429,-0.01406818,-0.9029444,-1.559441,-2.102179,0.3789301,-0.09205485
816.1575,-0.01406818,-0.9029444,-1.559441,-2.102179,0.3789301,-0.09205485
816.1715,-0.01406694,-0.9031332,-1.55922,-2.103341,0.3804392,-0.09193163
816.1868,-0.01406578,-0.9032611,-1.559552,-2.103927,0.3805488,-0.09194002
816.2011,-0.01406471,-0.9033507,-1.559816,-2.104227,0.3803961,-0.09194777
816.2161,-0.01406471,-0.9033507,-1.559816,-2.104227,0.3803961,-0.09194777
816.23,-0.01406371,-0.9034163,-1.559971,-2.104388,0.3802447,-0.09195545
816.2456,-0.01406274,-0.9034668,-1.560063,-2.104481,0.3801189,-0.09196306
816.2604,-0.01406192,-0.9034404,-1.560644,-2.103948,0.3786563,-0.09209983
816.2751,-0.01406192,-0.9034404,-1.560644,-2.103948,0.3786563,-0.09209983
816.2893,-0.01406122,-0.9033666,-1.561121,-2.103112,0.3769763,-0.09223352
816.3047,-0.01406059,-0.9032639,-1.56147,-2.102136,0.3753339,-0.09236468
816.3194,-0.01406059,-0.9032639,-1.56147,-2.102136,0.3753339,-0.09236468
816.334,-0.01406013,-0.9030745,-1.562259,-2.10051,0.3723929,-0.09262264
816.349,-0.0140598,-0.9028324,-1.562916,-2.098577,0.3692747,-0.09287518
816.3658,-0.01405956,-0.902559,-1.563427,-2.096511,0.366228,-0.09312289
816.3795,-0.01405956,-0.902559,-1.563427,-2.096511,0.366228,-0.09312289
816.3936,-0.01405937,-0.9022674,-1.563851,-2.094398,0.3632684,-0.09336587
816.408,-0.01405934,-0.9018966,-1.564738,-2.091687,0.359017,-0.09373342
816.4223,-0.01405943,-0.9014786,-1.565496,-2.088702,0.3546138,-0.0940934
816.437,-0.01405943,-0.9014786,-1.565496,-2.088702,0.3546138,-0.0940934
816.4509,-0.01405961,-0.9010333,-1.566108,-2.085608,0.3503059,-0.09444644
816.4664,-0.01405984,-0.9005731,-1.566631,-2.082487,0.3461077,-0.09479269
816.4812,-0.01406022,-0.9000366,-1.567603,-2.078786,0.3406262,-0.09526148
816.4963,-0.01406022,-0.9000366,-1.567603,-2.078786,0.3406262,-0.09526148
816.5099,-0.01406073,-0.8994553,-1.568433,-2.074828,0.3350281,-0.09572076
816.5253,-0.01406132,-0.898849,-1.569112,-2.070776,0.329552,-0.09617117
816.5403,-0.01406197,-0.89823,-1.569698,-2.066712,0.3242083,-0.09661286
816.555,-0.01406197,-0.89823,-1.569698,-2.066712,0.3242083,-0.09661286
816.5692,-0.01406277,-0.8975366,-1.570714,-2.062084,0.3175843,-0.09717524
816.5845,-0.0140637,-0.8968005,-1.571442,-2.057204,0.3107429,-0.09772605
816.5994,-0.0140637,-0.8968005,-1.571442,-2.057204,0.3107429,-0.09772605
816.6133,-0.01406472,-0.8960412,-1.571723,-2.05223,0.3038787,-0.09826586
816.6297,-0.01406591,-0.8952017,-1.572108,-2.046664,0.2957465,-0.09892447
816.6434,-0.01406723,-0.8943165,-1.572056,-2.040849,0.287547,-0.09956991
816.6581,-0.01406723,-0.8943165,-1.572056,-2.040849,0.287547,-0.09956991
816.672,-0.01406866,-0.893407,-1.57171,-2.034968,0.2796082,-0.100203
816.6873,-0.01407028,-0.8924868,-1.571312,-2.029109,0.2719827,-0.100824
816.7018,-0.01407224,-0.8914946,-1.57148,-2.022725,0.263186,-0.1015625
816.7166,-0.01407224,-0.8914946,-1.57148,-2.022725,0.263186,-0.1015625
816.7305,-0.01407456,-0.8904625,-1.571546,-2.016127,0.2543113,-0.1022861
816.7461,-0.0140772,-0.8894103,-1.57146,-2.009475,0.245604,-0.1029956
816.7606,-0.01408009,-0.8883505,-1.571302,-2.002849,0.2371171,-0.1036914
816.7758,-0.01408009,-0.8883505,-1.571302,-2.002849,0.2371171,-0.1036914
816.7896,-0.01408336,-0.8872215,-1.571579,-1.995705,0.2273845,-0.104503
816.805,-0.01408701,-0.8860548,-1.571638,-1.988357,0.2176111,-0.1052985
816.8198,-0.01408701,-0.8860548,-1.571638,-1.988357,0.2176111,-0.1052985
816.8336,-0.01409098,-0.88487,-1.571493,-1.980968,0.2080537,-0.1060784
816.8494,-0.01409538,-0.8836101,-1.571686,-1.973035,0.1972757,-0.1069726
816.8638,-0.01410021,-0.8823094,-1.571642,-1.964895,0.1865399,-0.1078491
816.8786,-0.01410021,-0.8823094,-1.571642,-1.964895,0.1865399,-0.1078491
816.8953,-0.01410538,-0.8809895,-1.571433,-1.956719,0.1760727,-0.1087086
816.9082,-0.01411082,-0.8796636,-1.5712,-1.948589,0.1658959,-0.1095514
816.9228,-0.01411665,-0.8782706,-1.571404,-1.939965,0.1544685,-0.1105071
816.9372,-0.01411665,-0.8782706,-1.571404,-1.939965,0.1544685,-0.1105071
816.9512,-0.01412286,-0.8768424,-1.571426,-1.931162,0.1430961,-0.111444
816.9668,-0.01412938,-0.875399,-1.571293,-1.922337,0.1319776,-0.1123626
816.9817,-0.01413614,-0.8739526,-1.571114,-1.913571,0.1211391,-0.1132633
816.9961,-0.01413614,-0.8739526,-1.571114,-1.913571,0.1211391,-0.1132633
817.0115,-0.01414327,-0.8724415,-1.571303,-1.904321,0.1090299,-0.1142757
817.0258,-0.01415076,-0.8708972,-1.571293,-1.894903,0.09703405,-0.1152683
817.0405,-0.01415855,-0.8693395,-1.571146,-1.885473,0.08531681,-0.1162415
817.0552,-0.01415855,-0.8693395,-1.571146,-1.885473,0.08531681,-0.1162415
817.0695,-0.01415746,-0.8677109,-1.571282,-1.875533,0.07234053,-0.1173249
817.0847,-0.0141523,-0.8660462,-1.571212,-1.865417,0.05954425,-0.1183872
817.0997,-0.0141523,-0.8660462,-1.571212,-1.865417,0.05954425,-0.1183872
817.1138,-0.01414487,-0.8643665,-1.571033,-1.855291,0.04705851,-0.1194287
817.1291,-0.01413626,-0.8626852,-1.570854,-1.845234,0.03488062,-0.1204499
817.1449,-0.0141273,-0.8609411,-1.570991,-1.83471,0.02142159,-0.1215803
817.1589,-0.0141273,-0.8609411,-1.570991,-1.83471,0.02142159,-0.1215803
817.1724,-0.01411838,-0.8591661,-1.570964,-1.824036,0.008166647,-0.1226886
817.1879,-0.01410965,-0.85738,-1.570839,-1.813367,-0.004787424,-0.1237753
817.2024,-0.01410118,-0.8555951,-1.570699,-1.802777,-0.01743967,-0.1248406
817.2173,-0.01410118,-0.8555951,-1.570699,-1.802777,-0.01743967,-0.1248406
817.2311,-0.0140932,-0.8537495,-1.570805,-1.791729,-0.0313745,-0.1260143
817.2465,-0.01408573,-0.8518747,-1.570761,-1.78054,-0.04506094,-0.1271651
817.2613,-0.01407873,-0.8499904,-1.57064,-1.769361,-0.05843793,-0.1282933
817.276,-0.01407873,-0.8499904,-1.57064,-1.769361,-0.05843793,-0.1282933
817.2902,-0.01407237,-0.8480393,-1.570691,-1.757695,-0.07307408,-0.1295287
817.3055,-0.01406661,-0.8460557,-1.57061,-1.745877,-0.08741868,-0.1307398
817.3201,-0.01406137,-0.844061,-1.57048,-1.734067,-0.1014378,-0.1319271
817.3347,-0.01406137,-0.844061,-1.57048,-1.734067,-0.1014378,-0.1319271
817.349,-0.01405656,-0.8420684,-1.570364,-1.722344,-0.1151431,-0.1330911
817.3646,-0.01405233,-0.8400166,-1.570407,-1.710175,-0.1301058,-0.1343616
817.3793,-0.01405233,-0.8400166,-1.570407,-1.710175,-0.1301058,-0.1343616
817.3951,-0.01404866,-0.8379375,-1.570358,-1.697876,-0.1447674,-0.135607
817.4095,-0.01404545,-0.8358509,-1.570268,-1.6856,-0.1591115,-0.136828
817.4233,-0.01404263,-0.833769,-1.570179,-1.673421,-0.1731456,-0.138025
817.438,-0.01404263,-0.833769,-1.570179,-1.673421,-0.1731456,-0.138025
817.4519,-0.01404036,-0.8316299,-1.570173,-1.660803,-0.1884221,-0.1393277
817.467,-0.0140386,-0.8294653,-1.570094,-1.648061,-0.2033803,-0.1406047
817.4817,-0.01403729,-0.8272945,-1.569965,-1.635348,-0.218028,-0.1418567
817.4965,-0.01403729,-0.8272945,-1.569965,-1.635348,-0.218028,-0.1418567
817.5107,-0.01403638,-0.8250602,-1.569831,-1.622165,-0.2338957,-0.1432132
817.5258,-0.01403573,-0.8227969,-1.569629,-1.608846,-0.2494354,-0.144543
817.5405,-0.01403522,-0.8205258,-1.56938,-1.595553,-0.2646557,-0.1458467
817.5554,-0.01403522,-0.8205258,-1.56938,-1.595553,-0.2646557,-0.1458467
817.5693,-0.0140348,-0.81826,-1.569096,-1.582366,-0.2795649,-0.1471248
817.5848,-0.01403461,-0.8159384,-1.568767,-1.568748,-0.2956725,-0.1485067
817.6,-0.01403461,-0.8159384,-1.568767,-1.568748,-0.2956725,-0.1485067
817.614,-0.01403458,-0.8135926,-1.568396,-1.555015,-0.3114577,-0.1498615
817.6293,-0.01403466,-0.8112425,-1.567992,-1.541322,-0.3269253,-0.1511896
817.6439,-0.01403483,-0.8089002,-1.567562,-1.527746,-0.3420815,-0.1524916
817.6607,-0.01403522,-0.806504,-1.567044,-1.513742,-0.3584182,-0.1538969
817.6743,-0.01403522,-0.806504,-1.567044,-1.513742,-0.3584182,-0.1538969
817.6882,-0.01403577,-0.8040852,-1.566507,-1.499628,-0.3744382,-0.1552746
817.7025,-0.01403643,-0.8016632,-1.56595,-1.48556,-0.3901426,-0.1566253
817.7173,-0.01403643,-0.8016632,-1.56595,-1.48556,-0.3901426,-0.1566253
817.7312,-0.01403733,-0.7991809,-1.565269,-1.47103,-0.4070109,-0.1580781
817.7466,-0.0140384,-0.7966724,-1.564585,-1.456378,-0.4235597,-0.1595025
817.7616,-0.01403959,-0.7941591,-1.563887,-1.441768,-0.4397878,-0.1608989
817.7762,-0.01403959,-0.7941591,-1.563887,-1.441768,-0.4397878,-0.1608989
817.7903,-0.01404086,-0.7916539,-1.563173,-1.427283,-0.4556983,-0.1622679
817.8058,-0.01404237,-0.7890958,-1.562286,-1.412373,-0.4727607,-0.1637385
817.8203,-0.01404429,-0.7865163,-1.561417,-1.39736,-0.4895081,-0.1651803
817.8352,-0.01404429,-0.7865163,-1.561417,-1.39736,-0.4895081,-0.1651803
817.8494,-0.01404659,-0.7839353,-1.560544,-1.382405,-0.5059372,-0.1665939
817.8649,-0.01404923,-0.7813649,-1.55966,-1.367584,-0.52205,-0.1679797
817.8797,-0.01404923,-0.7813649,-1.55966,-1.367584,-0.52205,-0.1679797
817.8937,-0.01405243,-0.7787431,-1.558552,-1.352342,-0.5393089,-0.1694666
817.9113,-0.01405613,-0.7761015,-1.557479,-1.337001,-0.5562574,-0.1709244
817.9248,-0.01406028,-0.7734594,-1.556413,-1.321724,-0.5728903,-0.1723537
817.9384,-0.01406028,-0.7734594,-1.556413,-1.321724,-0.5728903,-0.1723537
817.9525,-0.01406506,-0.7707596,-1.555296,-1.306563,-0.5892152,-0.1738843
817.9678,-0.01407039,-0.7680362,-1.554183,-1.291613,-0.6052246,-0.1753847
817.9823,-0.01407619,-0.7653104,-1.553063,-1.276868,-0.6209269,-0.1768556
817.9969,-0.01407619,-0.7653104,-1.553063,-1.276868,-0.6209269,-0.1768556
818.0111,-0.01408236,-0.7625954,-1.551933,-1.262326,-0.6363295,-0.1782976
818.0268,-0.01408843,-0.7598992,-1.550792,-1.247985,-0.6514387,-0.1797112
818.0414,-0.01409451,-0.7572266,-1.549639,-1.233844,-0.666261,-0.181097
818.0559,-0.01409451,-0.7572266,-1.549639,-1.233844,-0.666261,-0.181097
818.0699,-0.01410064,-0.7545806,-1.548476,-1.219904,-0.680802,-0.1824556
818.0856,-0.01410687,-0.7519628,-1.547303,-1.206162,-0.6950674,-0.1837874
818.1004,-0.01411295,-0.7494435,-1.546173,-1.192636,-0.7090495,-0.1849638
818.1151,-0.01411295,-0.7494435,-1.546173,-1.192636,-0.7090495,-0.1849638
818.129,-0.0141189,-0.7469961,-1.545017,-1.179272,-0.7227749,-0.1861171
818.1444,-0.01412475,-0.7446042,-1.543846,-1.16609,-0.736243,-0.1872477
818.1592,-0.01412475,-0.7446042,-1.543846,-1.16609,-0.736243,-0.1872477
818.1755,-0.01413033,-0.7423264,-1.543096,-1.153707,-0.7480091,-0.1882284
818.1896,-0.01413564,-0.7401292,-1.54223,-1.141811,-0.7595035,-0.1891894
818.2031,-0.01414077,-0.7379917,-1.541301,-1.130234,-0.7707652,-0.1901312
818.2179,-0.01414077,-0.7379917,-1.541301,-1.130234,-0.7707652,-0.1901312
818.2319,-0.01414576,-0.7359005,-1.540342,-1.118897,-0.7818056,-0.1910545
818.2474,-0.01415045,-0.7339166,-1.53985,-1.108371,-0.7912073,-0.191832
818.2618,-0.01415486,-0.7320077,-1.539237,-1.098327,-0.8003521,-0.1925937
818.2767,-0.01415486,-0.7320077,-1.539237,-1.098327,-0.8003521,-0.1925937
818.2908,-0.01415907,-0.7301537,-1.538551,-1.088584,-0.8093082,-0.1933402
818.3062,-0.01416313,-0.7283418,-1.53783,-1.079057,-0.8180876,-0.1940719
818.3211,-0.01416687,-0.7266334,-1.537616,-1.07032,-0.8253054,-0.1946617
818.3354,-0.01416687,-0.7266334,-1.537616,-1.07032,-0.8253054,-0.1946617
818.3499,-0.01417032,-0.7249964,-1.537284,-1.062043,-0.832274,-0.1952395
818.3652,-0.01417356,-0.7234109,-1.536871,-1.054042,-0.8390954,-0.1958056
818.3802,-0.01417664,-0.7218642,-1.536417,-1.046233,-0.8457833,-0.1963605
818.3948,-0.01417664,-0.7218642,-1.536417,-1.046233,-0.8457833,-0.1963605
818.409,-0.01417938,-0.7204177,-1.536493,-1.039189,-0.8509881,-0.1967769
818.4264,-0.01418182,-0.7190396,-1.536459,-1.032583,-0.855949,-0.1971847
818.4401,-0.01418404,-0.7177097,-1.536335,-1.026229,-0.8608001,-0.1975842
818.4536,-0.01418404,-0.7177097,-1.536335,-1.026229,-0.8608001,-0.1975842
818.4678,-0.01418584,-0.716485,-1.536724,-1.020657,-0.8642282,-0.1978483
818.4831,-0.0141873,-0.7153305,-1.536992,-1.015519,-0.8674256,-0.1981067
818.4977,-0.0141873,-0.7153305,-1.536992,-1.015519,-0.8674256,-0.1981067
818.5118,-0.01418849,-0.7142246,-1.537153,-1.010619,-0.870546,-0.1983597
818.5272,-0.01418949,-0.7131536,-1.537253,-1.005867,-0.8736084,-0.1986075
818.5422,-0.01419012,-0.7121783,-1.537897,-1.001838,-0.8753133,-0.198723
818.5568,-0.01419012,-0.7121783,-1.537897,-1.001838,-0.8753133,-0.198723
818.5709,-0.01419054,-0.7112664,-1.538435,-0.9982041,-0.8767991,-0.1988358
818.5864,-0.01419084,-0.7103977,-1.538864,-0.9947782,-0.8782378,-0.198946
818.6011,-0.01419111,-0.7095596,-1.539226,-0.9914743,-0.8796515,-0.1990539
818.6162,-0.01419111,-0.7095596,-1.539226,-0.9914743,-0.8796515,-0.1990539
818.6302,-0.01419119,-0.7088133,-1.540134,-0.9888696,-0.879759,-0.1990322
818.6457,-0.01419117,-0.7081271,-1.540936,-0.9866374,-0.8796631,-0.1990104
818.6602,-0.01419109,-0.7074811,-1.54162,-0.9845915,-0.8795478,-0.1989888
818.6761,-0.01419109,-0.7074811,-1.54162,-0.9845915,-0.8795478,-0.1989888
818.6903,-0.01419081,-0.706932,-1.542814,-0.9832624,-0.8781611,-0.1988399
818.7047,-0.01419042,-0.7064453,-1.543878,-0.9823031,-0.8765938,-0.1986935
818.7193,-0.01419042,-0.7064453,-1.543878,-0.9823031,-0.8765938,-0.1986935
818.7332,-0.01418996,-0.7059991,-1.544802,-0.9815178,-0.8750351,-0.1985496
818.7485,-0.01418943,-0.7055801,-1.545635,-0.9808159,-0.8735099,-0.1984082
818.7634,-0.01418856,-0.7052489,-1.547001,-0.9807733,-0.8707446,-0.1981421
818.7781,-0.01418856,-0.7052489,-1.547001,-0.9807733,-0.8707446,-0.1981421
818.7922,-0.01418738,-0.7049735,-1.548242,-0.981064,-0.8678223,-0.1978808
818.8077,-0.01418596,-0.7047337,-1.549342,-0.9815013,-0.864933,-0.1976242
818.8227,-0.01418435,-0.7045169,-1.550346,-0.9819992,-0.8621013,-0.1973725
818.8373,-0.01418435,-0.7045169,-1.550346,-0.9819992,-0.8621013,-0.1973725
818.8513,-0.01418237,-0.7043846,-1.551877,-0.9831349,-0.8580465,-0.1969981
818.8668,-0.01418005,-0.7043051,-1.553271,-0.984584,-0.8538623,-0.1966306
818.8816,-0.01417747,-0.7042585,-1.554515,-0.9861608,-0.8497358,-0.1962699
818.8965,-0.01417747,-0.7042585,-1.554515,-0.9861608,-0.8497358,-0.1962699
818.9106,-0.01417445,-0.7043011,-1.556243,-0.9883953,-0.8443968,-0.1957886
818.9271,-0.01417105,-0.7043985,-1.557801,-0.9909424,-0.8389605,-0.1953162
818.9409,-0.01416737,-0.7045292,-1.559187,-0.9936067,-0.8336082,-0.1948526
818.9553,-0.01416737,-0.7045292,-1.559187,-0.9936067,-0.8336082,-0.1948526
818.9694,-0.01416348,-0.7046801,-1.560453,-0.9962986,-0.8283598,-0.1943979
818.9846,-0.01416824,-0.7049119,-1.562209,-0.9995932,-0.8218917,-0.1938244
818.9995,-0.01416824,-0.7049119,-1.562209,-0.9995932,-0.8218917,-0.1938244
819.0135,-0.01417811,-0.7051927,-1.563781,-1.003166,-0.8153642,-0.1932617
819.0289,-0.01419094,-0.7055025,-1.565177,-1.006832,-0.8089455,-0.1927095
819.0436,-0.01420545,-0.7058287,-1.56645,-1.010505,-0.8026512,-0.192168
819.0601,-0.01422064,-0.706233,-1.568213,-1.01476,-0.795137,-0.1915093
819.0732,-0.01422064,-0.706233,-1.568213,-1.01476,-0.795137,-0.1915093
819.0873,-0.01423603,-0.7066835,-1.569785,-1.019276,-0.7876014,-0.1908631
819.1027,-0.0142514,-0.7071606,-1.571181,-1.023868,-0.7801955,-0.1902291
819.1175,-0.0142514,-0.7071606,-1.571181,-1.023868,-0.7801955,-0.1902291
819.1317,-0.0142664,-0.7077212,-1.572804,-1.029094,-0.771351,-0.1894805
819.1473,-0.01428096,-0.7083309,-1.573643,-1.034638,-0.7622127,-0.1887473
819.1621,-0.01429509,-0.708968,-1.573674,-1.04028,-0.7531673,-0.1880283
819.178,-0.01429509,-0.708968,-1.573674,-1.04028,-0.7531673,-0.1880283
819.192,-0.01430884,-0.7096193,-1.573188,-1.045894,-0.7444098,-0.1873226
819.2064,-0.01432201,-0.7103457,-1.573092,-1.052026,-0.7346019,-0.1865022
819.2208,-0.01433463,-0.7111152,-1.572814,-1.058364,-0.7249028,-0.1856973
819.2355,-0.01433463,-0.7111152,-1.572814,-1.058364,-0.7249028,-0.1856973
819.2496,-0.01434677,-0.7119079,-1.57246,-1.064729,-0.7154449,-0.1849074
819.265,-0.0143585,-0.7127112,-1.57215,-1.071041,-0.7062323,-0.1841326
819.2798,-0.0143585,-0.7127112,-1.57215,-1.071041,-0.7062323,-0.1841326
819.2938,-0.01436965,-0.7135869,-1.572474,-1.077875,-0.6958062,-0.1832448
819.3093,-0.01438027,-0.7145032,-1.572598,-1.084931,-0.6854009,-0.1823744
819.324,-0.01439041,-0.7154406,-1.572507,-1.09203,-0.6751719,-0.1815206
819.3387,-0.01439041,-0.7154406,-1.572507,-1.09203,-0.6751719,-0.1815206
819.3531,-0.01439994,-0.7164559,-1.572803,-1.099684,-0.6637185,-0.1805554
819.3684,-0.01440889,-0.7175149,-1.572766,-1.10756,-0.6523708,-0.1796087
819.3832,-0.01441735,-0.7185961,-1.572503,-1.115462,-0.641269,-0.17868
819.3978,-0.01441735,-0.7185961,-1.572503,-1.115462,-0.641269,-0.17868
819.4141,-0.01442541,-0.7196861,-1.572176,-1.123295,-0.6304444,-0.1777688
819.4287,-0.0144329,-0.7208459,-1.572374,-1.131622,-0.6184081,-0.1767473
819.4423,-0.01443987,-0.7220437,-1.572357,-1.140137,-0.6065156,-0.1757454
819.457,-0.01443987,-0.7220437,-1.572357,-1.140137,-0.6065156,-0.1757454
819.4708,-0.01444639,-0.7232594,-1.57218,-1.148662,-0.594861,-0.1747626
819.4862,-0.01445255,-0.7244809,-1.571948,-1.15711,-0.5834678,-0.1737987
819.501,-0.01445818,-0.7257696,-1.572176,-1.166044,-0.57084,-0.1727252
819.5156,-0.01445818,-0.7257696,-1.572176,-1.166044,-0.57084,-0.1727252
819.5298,-0.01446331,-0.7270942,-1.572155,-1.175156,-0.5583926,-0.1716725
819.5452,-0.01446802,-0.7284348,-1.57197,-1.184268,-0.546199,-0.1706398
819.56,-0.01446802,-0.7284348,-1.57197,-1.184268,-0.546199,-0.1706398
819.5742,-0.01447216,-0.7298487,-1.572137,-1.193892,-0.53278,-0.1694989
819.5896,-0.01447577,-0.7313014,-1.57204,-1.203696,-0.5195851,-0.1683798
819.6043,-0.01447893,-0.7327716,-1.571805,-1.213494,-0.5066682,-0.1672821
819.6193,-0.01447893,-0.7327716,-1.571805,-1.213494,-0.5066682,-0.1672821
819.6331,-0.01448173,-0.734246,-1.571557,-1.223198,-0.4940359,-0.1662054
819.6487,-0.01448403,-0.7357857,-1.571719,-1.233364,-0.4801767,-0.1650211
819.6654,-0.01448584,-0.7373586,-1.571676,-1.243685,-0.4665522,-0.1638597
819.6793,-0.01448584,-0.7373586,-1.571676,-1.243685,-0.4665522,-0.1638597
819.6923,-0.01448725,-0.7389451,-1.571513,-1.253987,-0.453199,-0.1627205
819.7079,-0.01448834,-0.7405329,-1.571323,-1.26419,-0.4401234,-0.1616033
819.7223,-0.01448897,-0.7421836,-1.57147,-1.274847,-0.4258204,-0.1603792
819.7368,-0.01448897,-0.7421836,-1.57147,-1.274847,-0.4258204,-0.1603792
819.751,-0.01448937,-0.7438657,-1.571417,-1.285648,-0.4117691,-0.1591787
819.7665,-0.01448964,-0.7455597,-1.571256,-1.296423,-0.397994,-0.1580013
819.7811,-0.01448984,-0.7472534,-1.57108,-1.307093,-0.384497,-0.1568467
819.7958,-0.01448984,-0.7472534,-1.57108,-1.307093,-0.384497,-0.1568467
819.8101,-0.01448985,-0.7490087,-1.571197,-1.318209,-0.3697736,-0.1555857
819.8255,-0.01448973,-0.750794,-1.571141,-1.32946,-0.3553137,-0.1543491
819.8405,-0.01448952,-0.7525899,-1.570996,-1.340681,-0.3411319,-0.1531363
819.855,-0.01448952,-0.7525899,-1.570996,-1.340681,-0.3411319,-0.1531363
819.8691,-0.01448912,-0.7544535,-1.571067,-1.352377,-0.3257309,-0.1518183
819.8848,-0.01448857,-0.7563506,-1.570971,-1.364215,-0.3106096,-0.1505257
819.8994,-0.01448857,-0.7563506,-1.570971,-1.364215,-0.3106096,-0.1505257
819.9155,-0.01448793,-0.7582598,-1.570811,-1.376023,-0.2957761,-0.1492581
819.9298,-0.01448722,-0.7601679,-1.570661,-1.387721,-0.2812268,-0.148015
819.9437,-0.01448631,-0.7620669,-1.570553,-1.399271,-0.2669536,-0.146796
819.9584,-0.01448631,-0.7620669,-1.570553,-1.399271,-0.2669536,-0.146796
819.9723,-0.01448533,-0.7639518,-1.570485,-1.410659,-0.2529514,-0.1456006
819.9877,-0.0144843,-0.7658195,-1.570441,-1.421881,-0.2392146,-0.1444286
820.002,-0.01448325,-0.7676682,-1.570405,-1.432934,-0.2257381,-0.1432794
820.0169,-0.01448325,-0.7676682,-1.570405,-1.432934,-0.2257381,-0.1432794
820.031,-0.01448233,-0.7694277,-1.570234,-1.443241,-0.2140209,-0.1422816
820.0464,-0.01448148,-0.7711242,-1.570191,-1.453104,-0.2025346,-0.1413034
820.0611,-0.01448067,-0.7727742,-1.570208,-1.462676,-0.1912712,-0.1403443
820.0759,-0.01448067,-0.7727742,-1.570208,-1.462676,-0.1912712,-0.1403443
820.0901,-0.01448003,-0.7743188,-1.570116,-1.471456,-0.1817322,-0.1395331
820.1056,-0.0144795,-0.7757914,-1.57008,-1.479782,-0.1723854,-0.1387379
820.1204,-0.01447902,-0.777213,-1.570058,-1.487823,-0.1632219,-0.1379582
820.1351,-0.01447902,-0.777213,-1.570058,-1.487823,-0.1632219,-0.1379582
820.1492,-0.01447857,-0.7785968,-1.570034,-1.495661,-0.1542355,-0.1371938
820.1658,-0.01447829,-0.7798818,-1.569923,-1.502765,-0.1469344,-0.1365735
820.1804,-0.0144781,-0.7811,-1.569846,-1.509457,-0.1397816,-0.1359655
820.194,-0.0144781,-0.7811,-1.569846,-1.509457,-0.1397816,-0.1359655
820.2083,-0.01447797,-0.7822715,-1.56978,-1.515896,-0.1327698,-0.1353693
820.2234,-0.01447788,-0.7834089,-1.569715,-1.522161,-0.1258943,-0.1347848
820.2383,-0.01447788,-0.7834089,-1.569715,-1.522161,-0.1258943,-0.1347848
820.2521,-0.01447793,-0.784451,-1.56959,-1.527718,-0.1206685,-0.134341
820.2675,-0.0144781,-0.7854295,-1.569493,-1.532889,-0.11555,-0.1339059
820.2822,-0.01447832,-0.7863644,-1.569406,-1.537831,-0.1105333,-0.1334794
820.297,-0.01447832,-0.7863644,-1.569406,-1.537831,-0.1105333,-0.1334794
820.3112,-0.01447872,-0.7871988,-1.569279,-1.542047,-0.1071348,-0.1331904
820.3265,-0.01447923,-0.7879676,-1.569176,-1.545879,-0.1038079,-0.1329072
820.3413,-0.0144798,-0.7886924,-1.569084,-1.549492,-0.1005482,-0.1326295
820.356,-0.0144798,-0.7886924,-1.569084,-1.549492,-0.1005482,-0.1326295
820.3701,-0.01448042,-0.7893868,-1.568996,-1.552968,-0.09735288,-0.1323573
820.3854,-0.01448119,-0.78999,-1.56888,-1.555777,-0.09574309,-0.1322196
820.4002,-0.01448208,-0.7905343,-1.568781,-1.55824,-0.09416895,-0.1320847
820.4171,-0.01448208,-0.7905343,-1.568781,-1.55824,-0.09416895,-0.1320847
820.4302,-0.01448302,-0.7910396,-1.56869,-1.560514,-0.09262747,-0.1319524
820.4446,-0.01448405,-0.7915188,-1.568603,-1.562676,-0.09111692,-0.1318228
820.4592,-0.01448405,-0.7915188,-1.568603,-1.562676,-0.09111692,-0.1318228
820.4732,-0.01448539,-0.7919104,-1.568497,-1.564192,-0.09116106,-0.1318249
820.4887,-0.01448703,-0.792246,-1.568403,-1.565383,-0.09120779,-0.1318271
820.5031,-0.01448891,-0.7925458,-1.568314,-1.566404,-0.09125526,-0.1318292
820.518,-0.01448891,-0.7925458,-1.568314,-1.566404,-0.09125526,-0.1318292
820.5319,-0.0144912,-0.7927527,-1.568212,-1.566758,-0.09282788,-0.1319605
820.5474,-0.01449386,-0.7929013,-1.568119,-1.566785,-0.0943729,-0.1320893
820.5621,-0.01449681,-0.7930134,-1.56803,-1.566649,-0.0958892,-0.1322155
820.577,-0.01449681,-0.7930134,-1.56803,-1.566649,-0.0958892,-0.1322155
820.5909,-0.01449996,-0.7931023,-1.567944,-1.566433,-0.09737658,-0.1323393
820.6067,-0.01450349,-0.7931073,-1.567843,-1.565603,-0.1003598,-0.13259
820.6213,-0.01450736,-0.7930619,-1.567748,-1.56448,-0.1032873,-0.1328357
820.6361,-0.01450736,-0.7930619,-1.567748,-1.56448,-0.1032873,-0.1328357
820.65,-0.0145115,-0.7929856,-1.567657,-1.56322,-0.1061588,-0.1330767
820.6653,-0.01451582,-0.7928905,-1.567567,-1.561901,-0.1089746,-0.1333129
820.6812,-0.0145205,-0.7927151,-1.567457,-1.559987,-0.1132581,-0.1336737
820.6951,-0.0145205,-0.7927151,-1.567457,-1.559987,-0.1132581,-0.1336737
820.7093,-0.0145255,-0.7924907,-1.567353,-1.557798,-0.1174605,-0.1340275
820.7243,-0.01453074,-0.7922372,-1.567252,-1.555489,-0.1215818,-0.1343744
820.7389,-0.01453074,-0.7922372,-1.567252,-1.555489,-0.1215818,-0.1343744
820.753,-0.0145364,-0.7918976,-1.567123,-1.552562,-0.1271431,-0.1348437
820.7683,-0.01454241,-0.7915063,-1.567001,-1.549355,-0.1325986,-0.1353039
820.7831,-0.01454872,-0.7910848,-1.566882,-1.546032,-0.1379486,-0.135755
820.7977,-0.01454872,-0.7910848,-1.566882,-1.546032,-0.1379486,-0.135755
820.812,-0.01455522,-0.7906467,-1.566763,-1.542676,-0.143194,-0.1361973
820.8276,-0.01456208,-0.7901309,-1.566605,-1.538752,-0.1498527,-0.1367601
820.8423,-0.01456926,-0.7895694,-1.566456,-1.53458,-0.1563849,-0.1373119
820.857,-0.01456926,-0.7895694,-1.566456,-1.53458,-0.1563849,-0.1373119
820.8709,-0.0145767,-0.7889824,-1.56631,-1.530316,-0.1627906,-0.137853
820.8865,-0.01458431,-0.7883821,-1.566165,-1.526037,-0.1690711,-0.1383834
820.9013,-0.01458306,-0.787707,-1.565986,-1.521205,-0.1767377,-0.1390325
820.9158,-0.01458306,-0.787707,-1.565986,-1.521205,-0.1767377,-0.1390325
820.9321,-0.01457718,-0.7869888,-1.56583,-1.516139,-0.1842604,-0.139669
820.9456,-0.0145686,-0.7862472,-1.565682,-1.510994,-0.1916381,-0.140293
820.9601,-0.01455851,-0.7854945,-1.565536,-1.505847,-0.198872,-0.1409048
820.975,-0.01455851,-0.7854945,-1.565536,-1.505847,-0.198872,-0.1409048
820.9888,-0.01454787,-0.784669,-1.565317,-1.50016,-0.2074704,-0.1416337
821.004,-0.01453711,-0.7838024,-1.565117,-1.494252,-0.2159072,-0.1423484
821.0187,-0.01453711,-0.7838024,-1.565117,-1.494252,-0.2159072,-0.1423484
821.0327,-0.01452642,-0.7829142,-1.564923,-1.488277,-0.2241814,-0.1430491
821.0484,-0.01451616,-0.7819473,-1.564641,-1.481734,-0.2337967,-0.1438651
821.063,-0.01450635,-0.7809363,-1.564383,-1.474964,-0.2432322,-0.1446651
821.0778,-0.01450635,-0.7809363,-1.564383,-1.474964,-0.2432322,-0.1446651
821.092,-0.01449699,-0.7799025,-1.564133,-1.468128,-0.2524865,-0.1454495
821.1075,-0.01448799,-0.7788594,-1.563886,-1.46131,-0.2615609,-0.1462186
821.1223,-0.01447957,-0.7777458,-1.563525,-1.453971,-0.2719543,-0.1471015
821.1381,-0.01447957,-0.7777458,-1.563525,-1.453971,-0.2719543,-0.1471015
821.1511,-0.01447168,-0.7765937,-1.563195,-1.446432,-0.2821544,-0.1479672
821.1666,-0.01446426,-0.775423,-1.562878,-1.438848,-0.2921594,-0.1488159
821.1818,-0.01445722,-0.7742461,-1.562565,-1.431297,-0.3019705,-0.149648
821.1961,-0.01445722,-0.7742461,-1.562565,-1.431297,-0.3019705,-0.149648
821.2104,-0.01445074,-0.7730013,-1.562111,-1.423236,-0.3130815,-0.1505926
821.2242,-0.0144448,-0.7717202,-1.561699,-1.414985,-0.3239875,-0.1515189
821.2383,-0.0144448,-0.7717202,-1.561699,-1.414985,-0.3239875,-0.1515189
821.2522,-0.01443929,-0.7704225,-1.561303,-1.406701,-0.334686,-0.1524269
821.2659,-0.01443441,-0.7690509,-1.560749,-1.397878,-0.3466658,-0.153446
821.2802,-0.01443009,-0.7676399,-1.560245,-1.388856,-0.3584261,-0.1544453
821.2947,-0.01443009,-0.7676399,-1.560245,-1.388856,-0.3584261,-0.1544453
821.3088,-0.01442624,-0.766211,-1.55976,-1.379803,-0.3699641,-0.1554249
821.3238,-0.01442275,-0.7647773,-1.559284,-1.370798,-0.3812807,-0.1563854
821.3384,-0.01442275,-0.7647773,-1.559284,-1.370798,-0.3812807,-0.1563854
821.3524,-0.01441982,-0.7632778,-1.558612,-1.361298,-0.3938621,-0.1574557
821.3677,-0.0144174,-0.7617445,-1.557999,-1.351625,-0.4062142,-0.1585051
821.3822,-0.01441539,-0.7601971,-1.557412,-1.341939,-0.4183341,-0.1595341
821.3969,-0.01441539,-0.7601971,-1.557412,-1.341939,-0.4183341,-0.1595341
821.411,-0.01441398,-0.7585787,-1.556606,-1.331728,-0.4317044,-0.1606714
821.4264,-0.0144131,-0.7569236,-1.555871,-1.321337,-0.4448332,-0.1617866
821.4412,-0.01441251,-0.7552534,-1.555166,-1.310933,-0.4577172,-0.16288
821.4556,-0.01441251,-0.7552534,-1.555166,-1.310933,-0.4577172,-0.16288
821.4697,-0.01441208,-0.7535812,-1.554473,-1.300598,-0.4703569,-0.1639519
821.485,-0.01441189,-0.7518461,-1.553514,-1.289781,-0.4842356,-0.1651312
821.4999,-0.01441189,-0.7518461,-1.553514,-1.289781,-0.4842356,-0.1651312
821.5168,-0.01441185,-0.7500799,-1.552636,-1.278807,-0.4978652,-0.1662876
821.5302,-0.01441192,-0.7483025,-1.551793,-1.267839,-0.5112424,-0.1674214
821.544,-0.01441206,-0.7465259,-1.550964,-1.256953,-0.5243679,-0.168533
821.5588,-0.01441206,-0.7465259,-1.550964,-1.256953,-0.5243679,-0.168533
821.5728,-0.01441242,-0.7446887,-1.549822,-1.245592,-0.5387257,-0.169751
821.5881,-0.01441293,-0.7428222,-1.548773,-1.234082,-0.5528286,-0.1709453
821.6027,-0.01441354,-0.740946,-1.547766,-1.222586,-0.5666722,-0.1721164
821.6176,-0.01441354,-0.740946,-1.547766,-1.222586,-0.5666722,-0.1721164
821.6318,-0.01441439,-0.7390029,-1.546416,-1.210584,-0.5817389,-0.1733926
821.647,-0.0144154,-0.7370273,-1.545174,-1.198422,-0.5965421,-0.1746441
821.6617,-0.01441667,-0.7350404,-1.543979,-1.186275,-0.6110743,-0.1758711
821.6766,-0.01441667,-0.7350404,-1.543979,-1.186275,-0.6110743,-0.1758711
821.6907,-0.01441819,-0.7330554,-1.542804,-1.174226,-0.6253358,-0.1770742
821.7062,-0.01442022,-0.7310112,-1.541218,-1.161711,-0.6408066,-0.1783815
821.7209,-0.01442271,-0.7289397,-1.539746,-1.149058,-0.6560138,-0.1796636
821.736,-0.01442271,-0.7289397,-1.539746,-1.149058,-0.6560138,-0.1796636
821.7502,-0.01442559,-0.7268605,-1.538328,-1.136438,-0.6709406,-0.1809206
821.7676,-0.01442879,-0.7247859,-1.536933,-1.123927,-0.6855867,-0.1821531
821.7815,-0.01443253,-0.722654,-1.535493,-1.111544,-0.6999712,-0.1834907
821.7949,-0.01443253,-0.722654,-1.535493,-1.111544,-0.6999712,-0.1834907
821.8093,-0.01443675,-0.7204965,-1.534075,-1.099358,-0.7140695,-0.184802
821.8246,-0.01444135,-0.7183327,-1.532665,-1.087352,-0.727892,-0.1860876
821.8392,-0.01444135,-0.7183327,-1.532665,-1.087352,-0.727892,-0.1860876
821.8535,-0.01444587,-0.7161748,-1.531259,-1.07552,-0.7414452,-0.1873479
821.8688,-0.01445038,-0.7140301,-1.529854,-1.06386,-0.754735,-0.1885836
821.8835,-0.01445494,-0.7119032,-1.528451,-1.05237,-0.7677659,-0.1897949
821.8985,-0.01445494,-0.7119032,-1.528451,-1.05237,-0.7677659,-0.1897949
821.9125,-0.01445957,-0.7097968,-1.52705,-1.041048,-0.7805423,-0.1909825
821.9279,-0.01446401,-0.7077819,-1.525714,-1.029908,-0.7930449,-0.1920175
821.9426,-0.01446829,-0.7058322,-1.52436,-1.018902,-0.8053163,-0.1930323
821.9574,-0.01446829,-0.7058322,-1.52436,-1.018902,-0.8053163,-0.1930323
821.9721,-0.01447244,-0.7039317,-1.523001,-1.008052,-0.8173522,-0.1940271
821.9875,-0.0144765,-0.7020701,-1.521644,-0.9973623,-0.8291531,-0.1950024
822.0042,-0.01448026,-0.7003099,-1.520876,-0.9874496,-0.8394073,-0.1958311
822.0179,-0.01448026,-0.7003099,-1.520876,-0.9874496,-0.8394073,-0.1958311
822.0322,-0.01448376,-0.6986204,-1.520035,-0.9780008,-0.8492703,-0.1966432
822.0465,-0.01448705,-0.696982,-1.519109,-0.9688414,-0.8589171,-0.1974391
822.0612,-0.01449021,-0.6953824,-1.518136,-0.9598892,-0.8683735,-0.1982192
822.076,-0.01449021,-0.6953824,-1.518136,-0.9598892,-0.8683735,-0.1982192
822.0901,-0.01449301,-0.6938833,-1.517743,-0.9517217,-0.8763943,-0.1988565
822.1055,-0.01449551,-0.6924529,-1.517288,-0.9440093,-0.8840239,-0.1994809
822.1202,-0.01449779,-0.6910713,-1.516737,-0.936568,-0.8914722,-0.2000928
822.135,-0.01449779,-0.6910713,-1.516737,-0.936568,-0.8914722,-0.2000928
822.1492,-0.01449964,-0.6897953,-1.516739,-0.9299288,-0.8975635,-0.2005651
822.1646,-0.01450114,-0.6885902,-1.516672,-0.9237412,-0.9032776,-0.2010278
822.1795,-0.01450114,-0.6885902,-1.516672,-0.9237412,-0.9032776,-0.2010278
822.1935,-0.01450237,-0.6874343,-1.516495,-0.9178102,-0.9088419,-0.201481
822.2091,-0.01450341,-0.6863138,-1.516248,-0.9120447,-0.9142992,-0.2019251
822.2239,-0.01450406,-0.6852896,-1.516578,-0.9070212,-0.918489,-0.2022331
822.2383,-0.01450406,-0.6852896,-1.516578,-0.9070212,-0.918489,-0.2022331
822.2545,-0.01450447,-0.6843293,-1.51687,-0.9024098,-0.9223145,-0.2025347
822.2679,-0.01450477,-0.6834128,-1.517058,-0.8980241,-0.9260168,-0.20283
822.2828,-0.01450502,-0.6825275,-1.517172,-0.8937768,-0.9296466,-0.2031194
822.2976,-0.01450502,-0.6825275,-1.517172,-0.8937768,-0.9296466,-0.2031194
822.3116,-0.01450508,-0.6817347,-1.517861,-0.8902469,-0.9320763,-0.2032757
822.327,-0.01450504,-0.6810024,-1.518518,-0.8871064,-0.9341598,-0.2034285
822.3419,-0.01450494,-0.6803109,-1.519068,-0.8841686,-0.9361459,-0.203578
822.3568,-0.01450494,-0.6803109,-1.519068,-0.8841686,-0.9361459,-0.203578
822.3707,-0.01450464,-0.6797169,-1.520153,-0.8819659,-0.9369693,-0.2035971
822.3862,-0.01450422,-0.6791857,-1.521182,-0.8801494,-0.9374698,-0.2036154
822.4008,-0.01450372,-0.6786957,-1.522081,-0.8785226,-0.9379009,-0.2036329
822.4156,-0.01450372,-0.6786957,-1.522081,-0.8785226,-0.9379009,-0.2036329
822.4299,-0.01450311,-0.6782333,-1.522879,-0.876994,-0.9383212,-0.2036498
822.4454,-0.01450214,-0.6778592,-1.524231,-0.8761414,-0.9376301,-0.2035391
822.46,-0.01450085,-0.6775414,-1.52554,-0.8756376,-0.9366404,-0.20343
822.4747,-0.01450085,-0.6775414,-1.52554,-0.8756376,-0.9366404,-0.20343
822.4908,-0.01449932,-0.6772597,-1.526721,-0.8752954,-0.9356049,-0.2033228
822.505,-0.01449761,-0.6770017,-1.527797,-0.8750275,-0.9345834,-0.2032174
822.5189,-0.01449761,-0.6770017,-1.527797,-0.8750275,-0.9345834,-0.2032174
822.5328,-0.0144955,-0.6768286,-1.529422,-0.8754138,-0.9324767,-0.2029867
822.5482,-0.01449306,-0.6767087,-1.530995,-0.8761286,-0.9300961,-0.2027601
822.5627,-0.01449037,-0.6766222,-1.532429,-0.8769851,-0.9276944,-0.2025375
822.5776,-0.01449037,-0.6766222,-1.532429,-0.8769851,-0.9276944,-0.2025375
822.5916,-0.01448722,-0.6766254,-1.53437,-0.878516,-0.9242146,-0.2021918
822.6072,-0.01448369,-0.6766839,-1.53622,-0.8803741,-0.9204878,-0.2018523
822.622,-0.01447987,-0.6767763,-1.537903,-0.8823631,-0.9167677,-0.2015191
822.6367,-0.01447987,-0.6767763,-1.537903,-0.8823631,-0.9167677,-0.2015191
822.6506,-0.01447586,-0.6768892,-1.53945,-0.8843917,-0.9131115,-0.2011921
822.6661,-0.01447144,-0.6770835,-1.541521,-0.8870372,-0.9083952,-0.2007441
822.6809,-0.01446669,-0.6773272,-1.543502,-0.8899749,-0.9034622,-0.2003044
822.6956,-0.01446669,-0.6773272,-1.543502,-0.8899749,-0.9034622,-0.2003044
822.7099,-0.01446169,-0.6776003,-1.545314,-0.8930184,-0.8985602,-0.1998729
822.7252,-0.01445651,-0.6778904,-1.546987,-0.8960807,-0.8937428,-0.1994496
822.7401,-0.01445095,-0.6782588,-1.54918,-0.8997406,-0.8878595,-0.198907
822.7556,-0.01445095,-0.6782588,-1.54918,-0.8997406,-0.8878595,-0.198907
822.7696,-0.01444507,-0.6786741,-1.55126,-0.9036752,-0.8817916,-0.1983747
822.7839,-0.01443896,-0.6791164,-1.55316,-0.9076985,-0.8757813,-0.1978523
822.7986,-0.01443896,-0.6791164,-1.55316,-0.9076985,-0.8757813,-0.1978523
822.8132,-0.01444141,-0.6796427,-1.555524,-0.9123421,-0.8686843,-0.1972124
822.8281,-0.01444891,-0.6802185,-1.55772,-0.917261,-0.8614392,-0.1965846
822.8429,-0.01445936,-0.6808222,-1.5597,-0.9222595,-0.8542834,-0.1959685
822.8578,-0.01445936,-0.6808222,-1.5597,-0.9222595,-0.8542834,-0.1959685
822.8718,-0.0144715,-0.6814404,-1.561512,-0.9272469,-0.8472579,-0.1953643
822.8875,-0.01448431,-0.6821341,-1.563818,-0.9327984,-0.8391423,-0.1946442
822.9022,-0.01449734,-0.6828713,-1.565959,-0.9385921,-0.8309183,-0.1939377
822.9169,-0.01449734,-0.6828713,-1.565959,-0.9385921,-0.8309183,-0.1939377
822.9308,-0.01451036,-0.683632,-1.567891,-0.9444429,-0.8228076,-0.1932446
822.9467,-0.01452327,-0.6844038,-1.56966,-0.950265,-0.8148439,-0.1925648
822.9612,-0.01453575,-0.6852483,-1.571916,-0.9566346,-0.8057613,-0.1917706
822.9761,-0.01453575,-0.6852483,-1.571916,-0.9566346,-0.8057613,-0.1917706
822.99,-0.01454779,-0.6861338,-1.573665,-0.9632831,-0.7962146,-0.1909929
823.0063,-0.01455944,-0.6870407,-1.574537,-0.9700384,-0.7864642,-0.1902312
823.0199,-0.01455944,-0.6870407,-1.574537,-0.9700384,-0.7864642,-0.1902312
823.0342,-0.01457048,-0.688026,-1.57515,-0.9773948,-0.7755165,-0.1893568
823.0493,-0.01458096,-0.6890553,-1.574951,-0.9849862,-0.7645727,-0.1884989
823.0641,-0.01459096,-0.6901072,-1.574208,-0.9925876,-0.7539865,-0.1876568
823.079,-0.01459096,-0.6901072,-1.574208,-0.9925876,-0.7539865,-0.1876568
823.0929,-0.01460055,-0.6911682,-1.57332,-1.000089,-0.7438451,-0.1868299
823.1088,-0.01460956,-0.6922994,-1.573182,-1.00806,-0.732747,-0.1858906
823.1234,-0.01461804,-0.6934689,-1.573075,-1.01621,-0.7216814,-0.1849692
823.1382,-0.01461804,-0.6934689,-1.573075,-1.01621,-0.7216814,-0.1849692
823.1522,-0.01462607,-0.6946567,-1.572931,-1.024372,-0.7107973,-0.1840656
823.1677,-0.01463373,-0.6958505,-1.572763,-1.032465,-0.7001272,-0.1831792
823.1825,-0.01464084,-0.697112,-1.573161,-1.041059,-0.688271,-0.1821822
823.1973,-0.01464084,-0.697112,-1.573161,-1.041059,-0.688271,-0.1821822
823.2128,-0.01464744,-0.6984096,-1.573282,-1.049852,-0.6764184,-0.1812047
823.2269,-0.01465361,-0.6997236,-1.57312,-1.058656,-0.6647757,-0.1802458
823.2426,-0.01465943,-0.7010419,-1.572801,-1.067377,-0.6534122,-0.1793051
823.2564,-0.01465943,-0.7010419,-1.572801,-1.067377,-0.6534122,-0.1793051
823.2705,-0.01466472,-0.7024262,-1.573001,-1.076576,-0.640888,-0.1782545
823.2857,-0.01466952,-0.703845,-1.572954,-1.085949,-0.6284748,-0.1772242
823.3004,-0.01467391,-0.7052788,-1.572717,-1.095314,-0.6163161,-0.1762135
823.3152,-0.01467391,-0.7052788,-1.572717,-1.095314,-0.6163161,-0.1762135
823.3295,-0.01467772,-0.7067847,-1.572919,-1.105187,-0.6029692,-0.1750941
823.3449,-0.01468101,-0.7083282,-1.57283,-1.115239,-0.5897862,-0.1739963
823.3597,-0.01468101,-0.7083282,-1.57283,-1.115239,-0.5897862,-0.1739963
823.374,-0.01468387,-0.7098882,-1.572551,-1.125279,-0.5768875,-0.1729193
823.3893,-0.01468637,-0.7114513,-1.572225,-1.135216,-0.564296,-0.1718628
823.4041,-0.01468836,-0.7130786,-1.572413,-1.145609,-0.5504997,-0.1706985
823.4188,-0.01468836,-0.7130786,-1.572413,-1.145609,-0.5504997,-0.1706985
823.4329,-0.01468987,-0.7147381,-1.572371,-1.156156,-0.5369004,-0.1695567
823.4486,-0.01469099,-0.7164102,-1.572168,-1.166679,-0.5235791,-0.1684367
823.4631,-0.01469179,-0.7180825,-1.571916,-1.177093,-0.5105544,-0.1673381
823.478,-0.01469179,-0.7180825,-1.571916,-1.177093,-0.5105544,-0.1673381
823.4929,-0.01469223,-0.7198168,-1.572103,-1.187957,-0.4963106,-0.1661324
823.5075,-0.01469246,-0.7215815,-1.572047,-1.198963,-0.4823,-0.16495
823.522,-0.01469259,-0.723357,-1.571844,-1.209939,-0.4685782,-0.1637902
823.5367,-0.01469259,-0.723357,-1.571844,-1.209939,-0.4685782,-0.1637902
823.5508,-0.01469251,-0.7252006,-1.571973,-1.221392,-0.4536468,-0.1625244
823.5662,-0.01469228,-0.7270779,-1.571854,-1.232993,-0.4389836,-0.1612828
823.581,-0.01469196,-0.7289675,-1.571616,-1.244559,-0.4246257,-0.160065
823.5959,-0.01469196,-0.7289675,-1.571616,-1.244559,-0.4246257,-0.160065
823.6104,-0.01469157,-0.7308564,-1.571377,-1.256006,-0.4105738,-0.1588706
823.6258,-0.014691,-0.7328056,-1.571508,-1.267888,-0.3953079,-0.1575707
823.6405,-0.01469029,-0.7347832,-1.571447,-1.279893,-0.3803141,-0.156296
823.655,-0.01469029,-0.7347832,-1.571447,-1.279893,-0.3803141,-0.156296
823.6689,-0.01468949,-0.7367695,-1.571282,-1.291854,-0.3656162,-0.1550457
823.6845,-0.01468863,-0.7387522,-1.5711,-1.303693,-0.3512152,-0.1538196
823.7006,-0.0146876,-0.740724,-1.570953,-1.315375,-0.3371004,-0.1526171
823.7141,-0.0146876,-0.740724,-1.570953,-1.315375,-0.3371004,-0.1526171
823.7299,-0.01468645,-0.7426803,-1.570852,-1.326886,-0.3232626,-0.1514378
823.7445,-0.01468517,-0.7446181,-1.570785,-1.338222,-0.3096926,-0.1502816
823.7581,-0.01468517,-0.7446181,-1.570785,-1.338222,-0.3096926,-0.1502816
823.7723,-0.01468379,-0.7465358,-1.570736,-1.349383,-0.2963837,-0.1491478
823.7875,-0.01468233,-0.7484326,-1.57069,-1.360372,-0.2833306,-0.148036
823.8021,-0.01468079,-0.750308,-1.570642,-1.371189,-0.2705284,-0.146946
823.817,-0.01468079,-0.750308,-1.570642,-1.371189,-0.2705284,-0.146946
823.8313,-0.0146792,-0.7521617,-1.570593,-1.381838,-0.2579721,-0.1458771
823.8467,-0.01467756,-0.7539937,-1.570543,-1.392321,-0.2456568,-0.1448291
823.8613,-0.01467587,-0.7558041,-1.570496,-1.402641,-0.2335773,-0.1438014
823.8763,-0.01467587,-0.7558041,-1.570496,-1.402641,-0.2335773,-0.1438014
823.8903,-0.01467414,-0.7575932,-1.570451,-1.412802,-0.2217288,-0.1427938
823.9062,-0.01467237,-0.7593609,-1.570411,-1.422805,-0.2101065,-0.1418059
823.9202,-0.01467055,-0.7611076,-1.570373,-1.432655,-0.1987059,-0.1408372
823.9351,-0.01467055,-0.7611076,-1.570373,-1.432655,-0.1987059,-0.1408372
823.9494,-0.0146687,-0.7628335,-1.570338,-1.442354,-0.1875224,-0.1398874
823.9646,-0.01466682,-0.7645388,-1.570305,-1.451905,-0.1765518,-0.1389561
823.9802,-0.0146649,-0.7662238,-1.570274,-1.461311,-0.16579,-0.138043
823.9951,-0.0146649,-0.7662238,-1.570274,-1.461311,-0.16579,-0.138043
824.0084,-0.01466294,-0.7678887,-1.570244,-1.470575,-0.1552327,-0.1371477
824.0237,-0.01466096,-0.7695336,-1.570216,-1.479698,-0.1448761,-0.13627
824.0381,-0.01466096,-0.7695336,-1.570216,-1.479698,-0.1448761,-0.13627
824.0523,-0.01465894,-0.771159,-1.57019,-1.488685,-0.1347162,-0.1354093
824.0677,-0.01465689,-0.7727649,-1.570161,-1.497536,-0.1247492,-0.1345655
824.0824,-0.01465481,-0.7743517,-1.570115,-1.506256,-0.1149719,-0.1337382
824.0974,-0.01465481,-0.7743517,-1.570115,-1.506256,-0.1149719,-0.1337382
824.1115,-0.0146527,-0.7759194,-1.570054,-1.514845,-0.1053807,-0.1329271
824.1269,-0.01465056,-0.7774685,-1.569978,-1.523306,-0.09597213,-0.1321318
824.1416,-0.01464839,-0.7789991,-1.569887,-1.531642,-0.08674269,-0.1313521
824.1564,-0.01464839,-0.7789991,-1.569887,-1.531642,-0.08674269,-0.1313521
824.1707,-0.01464619,-0.7805114,-1.569783,-1.539855,-0.07768904,-0.1305876
824.1857,-0.01464397,-0.7820056,-1.569667,-1.547945,-0.06880789,-0.1298381
824.2006,-0.01464173,-0.783482,-1.56954,-1.555917,-0.06009599,-0.1291033
824.2155,-0.01464173,-0.783482,-1.56954,-1.555917,-0.06009599,-0.1291033
824.2316,-0.01463945,-0.7849408,-1.569402,-1.563771,-0.05155017,-0.1283829
824.2448,-0.01463716,-0.7863821,-1.569255,-1.57151,-0.04316733,-0.1276765
824.2598,-0.01463716,-0.7863821,-1.569255,-1.57151,-0.04316733,-0.1276765
824.2738,-0.01463483,-0.7878063,-1.569098,-1.579136,-0.03494442,-0.126984
824.2891,-0.01463249,-0.7892134,-1.568934,-1.58665,-0.02687844,-0.126305
824.3038,-0.01463012,-0.7906036,-1.568762,-1.594054,-0.01896641,-0.1256394
824.3185,-0.01463012,-0.7906036,-1.568762,-1.594054,-0.01896641,-0.1256394
824.3326,-0.01462773,-0.7919773,-1.568583,-1.60135,-0.01120545,-0.1249868
824.3483,-0.01462532,-0.7933347,-1.568398,-1.608541,-0.003592727,-0.1243469
824.3632,-0.01462289,-0.7946758,-1.568208,-1.615626,0.003874514,-0.1237197
824.3778,-0.01462289,-0.7946758,-1.568208,-1.615626,0.003874514,-0.1237197
824.3918,-0.01462044,-0.7960008,-1.568012,-1.622609,0.01119898,-0.1231047
824.4073,-0.01461797,-0.7973101,-1.567811,-1.629491,0.01838332,-0.1225017
824.422,-0.01461548,-0.7986037,-1.567607,-1.636273,0.02543015,-0.1219106
824.4368,-0.01461548,-0.7986037,-1.567607,-1.636273,0.02543015,-0.1219106
824.4507,-0.01461297,-0.7998819,-1.567399,-1.642957,0.03234201,-0.121331
824.4661,-0.01461045,-0.8011448,-1.567188,-1.649544,0.03912142,-0.1207629
824.4818,-0.01460791,-0.8023926,-1.566973,-1.656037,0.04577081,-0.1202058
824.4958,-0.01460791,-0.8023926,-1.566973,-1.656037,0.04577081,-0.1202058
824.5099,-0.01460535,-0.8036255,-1.566757,-1.662436,0.05229261,-0.1196597
824.5252,-0.01460277,-0.8048437,-1.566538,-1.668743,0.05868916,-0.1191243
824.5402,-0.01460019,-0.8060474,-1.566318,-1.67496,0.06496278,-0.1185994
824.5547,-0.01460019,-0.8060474,-1.566318,-1.67496,0.06496278,-0.1185994
824.5688,-0.01459758,-0.8072367,-1.566096,-1.681087,0.07111574,-0.1180848
824.5844,-0.01459496,-0.8084117,-1.565873,-1.687126,0.07715027,-0.1175803
824.5994,-0.01459496,-0.8084117,-1.565873,-1.687126,0.07715027,-0.1175803
824.6132,-0.01459233,-0.8095728,-1.56565,-1.693078,0.08306853,-0.1170856
824.6288,-0.01458969,-0.8107199,-1.565425,-1.698946,0.08887269,-0.1166007
824.6437,-0.01458703,-0.8118534,-1.565201,-1.704729,0.09456483,-0.1161253
824.6583,-0.01458703,-0.8118534,-1.565201,-1.704729,0.09456483,-0.1161253
824.6722,-0.01458436,-0.8129733,-1.564977,-1.71043,0.100147,-0.1156592
824.688,-0.01458168,-0.8140799,-1.564753,-1.716049,0.1056212,-0.1152023
824.7025,-0.01457899,-0.8151732,-1.564529,-1.721588,0.1109895,-0.1147543
824.7182,-0.01457899,-0.8151732,-1.564529,-1.721588,0.1109895,-0.1147543
824.7322,-0.01457629,-0.8162535,-1.564306,-1.727047,0.1162538,-0.1143152
824.7468,-0.01457358,-0.8173209,-1.564084,-1.732429,0.121416,-0.1138846
824.7615,-0.01457086,-0.8183755,-1.563863,-1.737734,0.126478,-0.1134625
824.7762,-0.01457086,-0.8183755,-1.563863,-1.737734,0.126478,-0.1134625
824.7903,-0.01456814,-0.8194176,-1.563643,-1.742964,0.1314416,-0.1130487
824.8057,-0.0145654,-0.8204472,-1.563425,-1.748119,0.1363087,-0.112643
824.8206,-0.01456266,-0.8214645,-1.563208,-1.7532,0.141081,-0.1122452
824.8356,-0.01456266,-0.8214645,-1.563208,-1.7532,0.141081,-0.1122452
824.8495,-0.01455991,-0.8224697,-1.562993,-1.758209,0.1457603,-0.1118553
824.8649,-0.01455715,-0.8234629,-1.56278,-1.763147,0.1503482,-0.111473
824.8799,-0.01455715,-0.8234629,-1.56278,-1.763147,0.1503482,-0.111473
824.8939,-0.01455438,-0.8244442,-1.562568,-1.768014,0.1548466,-0.1110982
824.91,-0.01455161,-0.8254138,-1.562359,-1.772812,0.159257,-0.1107308
824.9243,-0.01454884,-0.8263718,-1.562153,-1.777542,0.163581,-0.1103705
824.9388,-0.01454884,-0.8263718,-1.562153,-1.777542,0.163581,-0.1103705
824.9529,-0.01454606,-0.8273184,-1.561948,-1.782205,0.1678204,-0.1100174
824.9692,-0.01454327,-0.8282537,-1.561746,-1.786801,0.1719766,-0.1096712
824.9831,-0.01454048,-0.8291778,-1.561547,-1.791332,0.1760512,-0.1093318
824.9979,-0.01454048,-0.8291778,-1.561547,-1.791332,0.1760512,-0.1093318
825.012,-0.01453769,-0.8300909,-1.56135,-1.795799,0.1800457,-0.108999
825.0274,-0.01453489,-0.8309931,-1.561156,-1.800202,0.1839617,-0.1086728
825.0423,-0.0145321,-0.8318844,-1.560965,-1.804543,0.1878006,-0.1083529
825.057,-0.0145321,-0.8318844,-1.560965,-1.804543,0.1878006,-0.1083529
