JMolnar6/NonAnthroHands_User_Study/HandsLoggerWithURDF/tempdata/PID 0 (test)/files/Reachy_JointMotion_gesture_9_44.csv
Time,r_shoulder,r_shoulder_x,r_upper_arm,r_forearm,r_wrist,r_wrist2hand,
866.8698,-0.01404256,0.0004281945,NaN,-0.9043467,0.0004109299,NaN,-1.561681,-14.63248,NaN,-2.105168,-1.480358,0.3768705,14.11354,NaN,NaN,-0.09221751,0.8144395,-6.410425E-08,1.064753,-4.733361E-09,1.332425
866.8853,-0.0140416,0.0004283669,NaN,-0.9044316,0.0004119368,NaN,-1.56117,-14.6328,NaN,-2.105783,-1.468445,0.3781869,14.10095,NaN,NaN,-0.09209082,0.8138337,-6.924515E-08,1.047405,-7.117547E-09,1.332607
866.8994,-0.0140416,0.0004283669,NaN,-0.9044316,0.0004119368,NaN,-1.56117,-14.6328,NaN,-2.105783,-1.468445,0.3781869,14.10095,NaN,NaN,-0.09209082,0.8138337,-6.924515E-08,1.047405,-7.117547E-09,1.332607
866.9136,-0.01404055,0.0004288098,NaN,-0.9045587,0.0004118825,NaN,-1.560747,-14.633,NaN,-2.106683,-1.480087,0.3797322,14.11328,NaN,NaN,-0.09196705,0.8140562,-6.268863E-08,1.064356,-2.349176E-09,1.335537
866.9291,-0.01403943,0.0004290897,NaN,-0.9047114,0.0004130309,NaN,-1.560443,-14.63288,NaN,-2.107713,-1.468843,0.3812465,14.10136,NaN,NaN,-0.09184563,0.8138986,-5.695169E-08,1.047976,3.501022E-11,1.333844
866.9449,-0.01403827,0.0004288841,NaN,-0.9048791,0.0004135079,NaN,-1.56021,-14.63253,NaN,-2.108797,-1.467853,0.3827073,14.10025,NaN,NaN,-0.0917265,0.8142011,-5.285387E-08,1.046514,2.419196E-09,1.32693
866.9589,-0.01403827,0.0004288841,NaN,-0.9048791,0.0004135079,NaN,-1.56021,-14.63253,NaN,-2.108797,-1.467853,0.3827073,14.10025,NaN,NaN,-0.0917265,0.8142011,-5.285387E-08,1.046514,2.419196E-09,1.32693
866.9728,-0.01403721,0.0004279896,NaN,-0.9049861,0.0004133094,NaN,-1.560535,-14.63286,NaN,-2.109306,-1.467898,0.3827765,14.10034,NaN,NaN,-0.09173889,0.8138649,-4.510526E-08,1.046595,4.803382E-09,1.329638
866.9883,-0.01403623,0.0004270728,NaN,-0.9050551,0.000413289,NaN,-1.560795,-14.63289,NaN,-2.10953,-1.467386,0.3825788,14.0998,NaN,NaN,-0.09175056,0.8138065,-4.946385E-08,1.04585,3.501022E-11,1.328156
867.0031,-0.01403531,0.0004262575,NaN,-0.9051004,0.0004134711,NaN,-1.560945,-14.63257,NaN,-2.109616,-1.467943,0.3823813,14.10033,NaN,NaN,-0.09176208,0.8141407,-5.333816E-08,1.04664,-4.733361E-09,1.327196
867.0181,-0.01403531,0.0004262575,NaN,-0.9051004,0.0004134711,NaN,-1.560945,-14.63257,NaN,-2.109616,-1.467943,0.3823813,14.10033,NaN,NaN,-0.09176208,0.8141407,-5.333816E-08,1.04664,-4.733361E-09,1.327196
867.0325,-0.01403455,0.0004260271,NaN,-0.9050635,0.0004132348,NaN,-1.561553,-14.63385,NaN,-2.109042,-1.47718,0.3808634,14.11029,NaN,NaN,-0.09190272,0.8132005,-5.043243E-08,1.060153,-1.188592E-08,1.337734
867.0478,-0.01403391,0.0004256003,NaN,-0.9049759,0.0004135425,NaN,-1.562043,-14.6328,NaN,-2.108149,-1.468251,0.3791318,14.10072,NaN,NaN,-0.09204021,0.813984,-5.870258E-08,1.047122,-9.501733E-09,1.328498
867.0629,-0.01403336,0.0004250382,NaN,-0.9048575,0.0004138007,NaN,-1.562396,-14.63314,NaN,-2.10711,-1.46791,0.3774414,14.1004,NaN,NaN,-0.09217513,0.8136267,-6.570612E-08,1.046641,-1.188592E-08,1.329017
867.0777,-0.01403336,0.0004250382,NaN,-0.9048575,0.0004138007,NaN,-1.562396,-14.63314,NaN,-2.10711,-1.46791,0.3774414,14.1004,NaN,NaN,-0.09217513,0.8136267,-6.570612E-08,1.046641,-1.188592E-08,1.329017
867.0918,-0.01403286,0.0004252426,NaN,-0.9047205,0.0004137874,NaN,-1.562669,-14.63439,NaN,-2.10601,-1.477353,0.3758113,14.11055,NaN,NaN,-0.09230751,0.8127212,-7.077251E-08,1.060444,-7.117547E-09,1.339478
867.1071,-0.01403251,0.0004252349,NaN,-0.9045035,0.0004144863,NaN,-1.563418,-14.63358,NaN,-2.104296,-1.468023,0.3728787,14.10059,NaN,NaN,-0.09256662,0.8132715,-6.950592E-08,1.046844,-9.501733E-09,1.33249
867.1219,-0.01403228,0.0004251793,NaN,-0.904238,0.000415092,NaN,-1.564053,-14.63409,NaN,-2.102293,-1.467519,0.3697572,14.10012,NaN,NaN,-0.09282027,0.8127468,-7.934068E-08,1.046135,-1.42701E-08,1.334856
867.1388,-0.01403228,0.0004251793,NaN,-0.904238,0.000415092,NaN,-1.564053,-14.63409,NaN,-2.102293,-1.467519,0.3697572,14.10012,NaN,NaN,-0.09282027,0.8127468,-7.934068E-08,1.046135,-1.42701E-08,1.334856
867.1508,-0.01403213,0.0004255778,NaN,-0.9039438,0.0004149436,NaN,-1.56455,-14.63445,NaN,-2.100168,-1.479714,0.366702,14.11304,NaN,NaN,-0.09306905,0.8128329,-8.813237E-08,1.063878,-1.42701E-08,1.340625
867.1673,-0.01403203,0.0004256824,NaN,-0.9036332,0.0004154973,NaN,-1.564962,-14.63386,NaN,-2.098,-1.470851,0.3637322,14.1036,NaN,NaN,-0.09331308,0.8131984,-9.476339E-08,1.050966,-1.188592E-08,1.335071
867.1812,-0.01403209,0.0004258357,NaN,-0.9032445,0.000415623,NaN,-1.56584,-14.63519,NaN,-2.095236,-1.475103,0.359475,14.10827,NaN,NaN,-0.09368164,0.8120232,-9.521042E-08,1.057213,-1.665429E-08,1.341675
867.1959,-0.01403209,0.0004258357,NaN,-0.9032445,0.000415623,NaN,-1.56584,-14.63519,NaN,-2.095236,-1.475103,0.359475,14.10827,NaN,NaN,-0.09368164,0.8120232,-9.521042E-08,1.057213,-1.665429E-08,1.341675
867.21,-0.01403227,0.000426098,NaN,-0.9028094,0.0004163476,NaN,-1.56659,-14.6338,NaN,-2.0922,-1.471353,0.3550623,14.10413,NaN,NaN,-0.09404262,0.8132998,-1.060138E-07,1.051704,-1.427011E-08,1.334835
867.2255,-0.01403253,0.0004262466,NaN,-0.9023476,0.0004164885,NaN,-1.567195,-14.63512,NaN,-2.089058,-1.47489,0.3507437,14.10804,NaN,NaN,-0.09439665,0.8121096,-1.156995E-07,1.05691,-9.501734E-09,1.340599
867.2405,-0.01403284,0.0004261062,NaN,-0.9018714,0.0004169512,NaN,-1.56771,-14.63401,NaN,-2.085888,-1.468102,0.3465351,14.10073,NaN,NaN,-0.09474386,0.8130149,-1.233736E-07,1.046999,-9.501734E-09,1.333287
867.2552,-0.01403284,0.0004261062,NaN,-0.9018714,0.0004169512,NaN,-1.56771,-14.63401,NaN,-2.085888,-1.468102,0.3465351,14.10073,NaN,NaN,-0.09474386,0.8130149,-1.233736E-07,1.046999,-9.501734E-09,1.333287
867.2691,-0.01403331,0.0004254087,NaN,-0.9013191,0.000416919,NaN,-1.568675,-14.63325,NaN,-2.08214,-1.467527,0.341048,14.10001,NaN,NaN,-0.09521359,0.8137435,-1.247892E-07,1.046121,-7.117548E-09,1.330269
867.2846,-0.0140339,0.0004243557,NaN,-0.9007223,0.0004166252,NaN,-1.569499,-14.63338,NaN,-2.078135,-1.467199,0.3354409,14.09968,NaN,NaN,-0.0956738,0.8136052,-1.369337E-07,1.045649,-2.349176E-09,1.332079
867.2996,-0.0140339,0.0004243557,NaN,-0.9007223,0.0004166252,NaN,-1.569499,-14.63338,NaN,-2.078135,-1.467199,0.3354409,14.09968,NaN,NaN,-0.0956738,0.8136052,-1.369337E-07,1.045649,-2.349176E-09,1.332079
867.3137,-0.01403458,0.0004239861,NaN,-0.9001008,0.000415833,NaN,-1.570172,-14.63411,NaN,-2.074038,-1.479404,0.329955,14.11268,NaN,NaN,-0.09612511,0.8133329,-1.47737E-07,1.063444,-7.117548E-09,1.339901
867.3293,-0.01403543,0.0004232108,NaN,-0.8993975,0.0004154013,NaN,-1.571244,-14.63373,NaN,-2.069339,-1.468914,0.3232122,14.10154,NaN,NaN,-0.09669697,0.8134394,-1.508663E-07,1.048166,-7.117548E-09,1.334615
867.3439,-0.01403641,0.0004229569,NaN,-0.8986468,0.000415717,NaN,-1.571876,-14.63366,NaN,-2.064359,-1.46954,0.3161096,14.10219,NaN,NaN,-0.09725678,0.8135296,-1.800725E-07,1.049074,-9.501734E-09,1.333298
867.3588,-0.01403641,0.0004229569,NaN,-0.8986468,0.000415717,NaN,-1.571876,-14.63366,NaN,-2.064359,-1.46954,0.3161096,14.10219,NaN,NaN,-0.09725678,0.8135296,-1.800725E-07,1.049074,-9.501734E-09,1.333298
867.3727,-0.01403749,0.0004222413,NaN,-0.8978704,0.0004155372,NaN,-1.571966,-14.63375,NaN,-2.059279,-1.468682,0.3090445,14.1013,NaN,NaN,-0.09780554,0.8134026,-2.126316E-07,1.047832,-1.188592E-08,1.334323
867.388,-0.01403863,0.0004212525,NaN,-0.8970814,0.0004152627,NaN,-1.571695,-14.63352,NaN,-2.054198,-1.46767,0.3022048,14.10019,NaN,NaN,-0.0983438,0.813589,-2.404968E-07,1.046348,-1.665429E-08,1.331016
867.4041,-0.01403993,0.0004202741,NaN,-0.896219,0.0004152303,NaN,-1.571788,-14.63355,NaN,-2.048578,-1.466962,0.2942411,14.09945,NaN,NaN,-0.09900115,0.8135273,-2.520452E-07,1.04532,-1.427011E-08,1.330869
867.4186,-0.01403993,0.0004202741,NaN,-0.896219,0.0004152303,NaN,-1.571788,-14.63355,NaN,-2.048578,-1.466962,0.2942411,14.09945,NaN,NaN,-0.09900115,0.8135273,-2.520452E-07,1.04532,-1.427011E-08,1.330869
867.4318,-0.01404136,0.0004195226,NaN,-0.8953151,0.0004154902,NaN,-1.571702,-14.63404,NaN,-2.042736,-1.467187,0.2862315,14.09975,NaN,NaN,-0.0996454,0.8130429,-2.740989E-07,1.045672,-1.427011E-08,1.333332
867.4471,-0.01404301,0.0004188016,NaN,-0.8943896,0.0004157935,NaN,-1.571476,-14.63398,NaN,-2.036835,-1.467046,0.2784303,14.09959,NaN,NaN,-0.1002772,0.8130935,-2.933214E-07,1.045463,-1.188592E-08,1.332708
867.4621,-0.01404488,0.0004183859,NaN,-0.893455,0.0004164065,NaN,-1.571237,-14.63416,NaN,-2.030956,-1.466624,0.2708699,14.09916,NaN,NaN,-0.1008969,0.8128886,-3.060618E-07,1.044857,-7.117548E-09,1.335321
867.4768,-0.01404488,0.0004183859,NaN,-0.893455,0.0004164065,NaN,-1.571237,-14.63416,NaN,-2.030956,-1.466624,0.2708699,14.09916,NaN,NaN,-0.1008969,0.8128886,-3.060618E-07,1.044857,-7.117548E-09,1.335321
867.4908,-0.0140471,0.000418168,NaN,-0.8924496,0.0004165535,NaN,-1.571522,-14.63519,NaN,-2.024548,-1.472462,0.2620855,14.10547,NaN,NaN,-0.1016338,0.8120734,-3.098616E-07,1.0534,-4.733363E-09,1.34126
867.5064,-0.01404969,0.0004175053,NaN,-0.8914051,0.0004165511,NaN,-1.571636,-14.63358,NaN,-2.017924,-1.467646,0.2531965,14.10017,NaN,NaN,-0.102356,0.8135242,-3.27892E-07,1.046328,-7.117548E-09,1.332038
867.5214,-0.0140526,0.0004172707,NaN,-0.8903411,0.0004167398,NaN,-1.571543,-14.63452,NaN,-2.011245,-1.471131,0.2444761,14.10399,NaN,NaN,-0.1030642,0.8127104,-3.456244E-07,1.051448,-7.117548E-09,1.338626
867.5363,-0.0140526,0.0004172707,NaN,-0.8903411,0.0004167398,NaN,-1.571543,-14.63452,NaN,-2.011245,-1.471131,0.2444761,14.10399,NaN,NaN,-0.1030642,0.8127104,-3.456244E-07,1.051448,-7.117548E-09,1.338626
867.5505,-0.01405594,0.0004170036,NaN,-0.8892005,0.0004171333,NaN,-1.571788,-14.63403,NaN,-2.004009,-1.467937,0.2345346,14.10054,NaN,NaN,-0.1038879,0.8130898,-3.552357E-07,1.046781,-4.733363E-09,1.334223
867.5662,-0.01405971,0.0004166613,NaN,-0.8880178,0.0004175389,NaN,-1.571773,-14.63369,NaN,-1.996553,-1.467229,0.2245795,14.09974,NaN,NaN,-0.1046953,0.8133926,-3.752032E-07,1.045733,3.500888E-11,1.332512
867.5807,-0.01406382,0.0004166033,NaN,-0.8868144,0.0004177251,NaN,-1.57156,-14.63477,NaN,-1.989051,-1.472051,0.2148722,14.10499,NaN,NaN,-0.105487,0.8124911,-3.915945E-07,1.052804,3.500888E-11,1.340156
867.5958,-0.01406382,0.0004166033,NaN,-0.8868144,0.0004177251,NaN,-1.57156,-14.63477,NaN,-1.989051,-1.472051,0.2148722,14.10499,NaN,NaN,-0.105487,0.8124911,-3.915945E-07,1.052804,3.500888E-11,1.340156
867.611,-0.01406821,0.000416763,NaN,-0.8856035,0.0004181729,NaN,-1.5713,-14.63482,NaN,-1.981587,-1.471517,0.2054506,14.10443,NaN,NaN,-0.1062634,0.8124226,-4.022488E-07,1.052029,-2.349177E-09,1.341047
867.6253,-0.01407299,0.0004166494,NaN,-0.8843243,0.0004186194,NaN,-1.57151,-14.63372,NaN,-1.973619,-1.467438,0.1948035,14.09997,NaN,NaN,-0.107154,0.8133757,-4.04782E-07,1.046049,-4.733363E-09,1.332516
867.6407,-0.01407816,0.0004167187,NaN,-0.8830085,0.0004184062,NaN,-1.571546,-14.63503,NaN,-1.965461,-1.476526,0.184161,14.10976,NaN,NaN,-0.1080271,0.8124095,-4.183421E-07,1.059337,3.500888E-11,1.34288
867.6548,-0.01407816,0.0004167187,NaN,-0.8830085,0.0004184062,NaN,-1.571546,-14.63503,NaN,-1.965461,-1.476526,0.184161,14.10976,NaN,NaN,-0.1080271,0.8124095,-4.183421E-07,1.059337,3.500888E-11,1.34288
867.6689,-0.01408364,0.0004162131,NaN,-0.8816761,0.0004181711,NaN,-1.571416,-14.63392,NaN,-1.957272,-1.469049,0.1737497,14.10172,NaN,NaN,-0.1088831,0.8132994,-4.306356E-07,1.048422,-2.349177E-09,1.335471
867.6844,-0.01408937,0.0004159237,NaN,-0.8803394,0.0004184787,NaN,-1.571227,-14.63406,NaN,-1.949133,-1.468421,0.1636069,14.10108,NaN,NaN,-0.1097225,0.8131297,-4.387567E-07,1.047517,-2.349177E-09,1.335051
867.6992,-0.01408937,0.0004159237,NaN,-0.8803394,0.0004184787,NaN,-1.571227,-14.63406,NaN,-1.949133,-1.468421,0.1636069,14.10108,NaN,NaN,-0.1097225,0.8131297,-4.387567E-07,1.047517,-2.349177E-09,1.335051
867.7133,-0.01409546,0.0004158884,NaN,-0.8789367,0.000417829,NaN,-1.571442,-14.6342,NaN,-1.940501,-1.480262,0.1522087,14.1136,NaN,NaN,-0.1106748,0.8134128,-4.371921E-07,1.064743,2.419195E-09,1.338265
867.7288,-0.01410193,0.0004160572,NaN,-0.8774996,0.0004186805,NaN,-1.571452,-14.63397,NaN,-1.931691,-1.469791,0.1408691,14.10249,NaN,NaN,-0.1116084,0.8133916,-4.485542E-07,1.049496,3.500888E-11,1.335151
867.7437,-0.0141087,0.0004162678,NaN,-0.8760477,0.0004194446,NaN,-1.571302,-14.63437,NaN,-1.922861,-1.469459,0.1297902,14.10219,NaN,NaN,-0.1125238,0.8129764,-4.556323E-07,1.049031,3.500888E-11,1.337683
867.7585,-0.0141087,0.0004162678,NaN,-0.8760477,0.0004194446,NaN,-1.571302,-14.63437,NaN,-1.922861,-1.469459,0.1297902,14.10219,NaN,NaN,-0.1125238,0.8129764,-4.556323E-07,1.049031,3.500888E-11,1.337683
867.7727,-0.01411589,0.0004167192,NaN,-0.8745238,0.0004192555,NaN,-1.571458,-14.63396,NaN,-1.913511,-1.480896,0.1174679,14.11421,NaN,NaN,-0.1135506,0.8137764,-4.524658E-07,1.065639,3.500888E-11,1.33893
867.7882,-0.01412348,0.0004169179,NaN,-0.8729624,0.0004199712,NaN,-1.571394,-14.63396,NaN,-1.903977,-1.470466,0.1052775,14.10316,NaN,NaN,-0.1145573,0.8135312,-4.595066E-07,1.050454,2.419195E-09,1.335012
867.803,-0.01413141,0.0004176956,NaN,-0.8713848,0.0004200715,NaN,-1.5712,-14.63465,NaN,-1.894424,-1.479968,0.09338739,14.1133,NaN,NaN,-0.1155444,0.8131611,-4.607732E-07,1.064313,3.500888E-11,1.341063
867.8179,-0.01413141,0.0004176956,NaN,-0.8713848,0.0004200715,NaN,-1.5712,-14.63465,NaN,-1.894424,-1.479968,0.09338739,14.1133,NaN,NaN,-0.1155444,0.8131611,-4.607732E-07,1.064313,3.500888E-11,1.341063
867.832,-0.01413958,0.0004181758,NaN,-0.8698043,0.0004196493,NaN,-1.571,-14.63531,NaN,-1.884936,-1.481619,0.08180196,14.11511,NaN,NaN,-0.1165122,0.8125349,-4.569734E-07,1.066736,4.80338E-09,1.345741
867.8476,-0.0141456,0.0004183031,NaN,-0.8690606,0.0004193574,NaN,-1.567176,-14.63415,NaN,-1.882467,-1.475808,0.089072,14.10884,NaN,NaN,-0.1159094,0.8135554,-4.988457E-07,1.058246,3.500888E-11,1.344523
867.8643,-0.0141489,0.0004182389,NaN,-0.8688366,0.0004191819,NaN,-1.565095,-14.6338,NaN,-1.883398,-1.473286,0.09697273,14.10612,NaN,NaN,-0.1153184,0.8138214,-4.572714E-07,1.054561,-2.349177E-09,1.341819
867.878,-0.0141489,0.0004182389,NaN,-0.8688366,0.0004191819,NaN,-1.565095,-14.6338,NaN,-1.883398,-1.473286,0.09697273,14.10612,NaN,NaN,-0.1153184,0.8138214,-4.572714E-07,1.054561,-2.349177E-09,1.341819
867.8922,-0.01414974,0.0004184404,NaN,-0.8689327,0.0004195607,NaN,-1.563946,-14.63464,NaN,-1.886013,-1.472408,0.104373,14.1053,NaN,NaN,-0.1147389,0.8129548,-4.362608E-07,1.053318,-2.349177E-09,1.347063
867.9067,-0.0141496,0.000418363,NaN,-0.8692259,0.0004198207,NaN,-1.563185,-14.63401,NaN,-1.88945,-1.469783,0.1114598,14.10243,NaN,NaN,-0.1141708,0.8135006,-4.224027E-07,1.049471,-2.349177E-09,1.339844
867.9215,-0.01414915,0.0004186516,NaN,-0.86957,0.0004193443,NaN,-1.5629,-14.63465,NaN,-1.8927,-1.481035,0.1167876,14.11441,NaN,NaN,-0.1137431,0.8132471,-4.092152E-07,1.065872,3.500888E-11,1.348213
867.9361,-0.01414915,0.0004186516,NaN,-0.86957,0.0004193443,NaN,-1.5629,-14.63465,NaN,-1.8927,-1.481035,0.1167876,14.11441,NaN,NaN,-0.1137431,0.8132471,-4.092152E-07,1.065872,3.500888E-11,1.348213
867.9504,-0.01414858,0.0004185952,NaN,-0.8699441,0.0004193097,NaN,-1.562579,-14.63377,NaN,-1.895848,-1.471913,0.1219261,14.10466,NaN,NaN,-0.1133238,0.8138952,-4.021744E-07,1.052567,2.419195E-09,1.341247
867.9659,-0.01414795,0.0004183999,NaN,-0.870335,0.0004192732,NaN,-1.562232,-14.63436,NaN,-1.898929,-1.471602,0.1269734,14.1044,NaN,NaN,-0.1129128,0.8132949,-3.951708E-07,1.052139,2.419195E-09,1.342417
867.9808,-0.01414728,0.00041881,NaN,-0.8707345,0.0004188248,NaN,-1.561879,-14.63427,NaN,-1.901956,-1.48151,0.1319274,14.11485,NaN,NaN,-0.1125098,0.8137118,-3.87236E-07,1.066545,2.419195E-09,1.346937
867.996,-0.01414728,0.00041881,NaN,-0.8707345,0.0004188248,NaN,-1.561879,-14.63427,NaN,-1.901956,-1.48151,0.1319274,14.11485,NaN,NaN,-0.1125098,0.8137118,-3.87236E-07,1.066545,2.419195E-09,1.346937
868.0099,-0.01414672,0.0004190551,NaN,-0.8710681,0.0004195879,NaN,-1.561856,-14.63389,NaN,-1.904359,-1.47045,0.1352414,14.1031,NaN,NaN,-0.112244,0.8138341,-3.759111E-07,1.050428,-2.349177E-09,1.343931
868.0253,-0.01414625,0.000419284,NaN,-0.8713597,0.0004203191,NaN,-1.561728,-14.63424,NaN,-1.906443,-1.469852,0.138427,14.1025,NaN,NaN,-0.1119835,0.8134602,-3.714408E-07,1.049573,-2.349177E-09,1.345018
868.0399,-0.01414625,0.000419284,NaN,-0.8713597,0.0004203191,NaN,-1.561728,-14.63424,NaN,-1.906443,-1.469852,0.138427,14.1025,NaN,NaN,-0.1119835,0.8134602,-3.714408E-07,1.049573,-2.349177E-09,1.345018
868.0543,-0.01414583,0.0004192172,NaN,-0.871624,0.000420354,NaN,-1.561543,-14.63405,NaN,-1.908356,-1.472874,0.1415731,14.10567,NaN,NaN,-0.1117281,0.8137496,-3.654803E-07,1.053959,-4.733363E-09,1.340692
868.0698,-0.01414559,0.0004190178,NaN,-0.8718009,0.0004205784,NaN,-1.561672,-14.63412,NaN,-1.90959,-1.469919,0.1431276,14.10254,NaN,NaN,-0.111607,0.8135828,-3.561671E-07,1.049658,-4.733363E-09,1.340979
868.0856,-0.01414547,0.0004185746,NaN,-0.8719231,0.000420718,NaN,-1.561682,-14.63397,NaN,-1.910487,-1.468357,0.1445887,14.10086,NaN,NaN,-0.1114883,0.8136789,-3.525163E-07,1.047376,-7.117548E-09,1.337803
868.1002,-0.01414542,0.0004184942,NaN,-0.872011,0.0004204469,NaN,-1.561626,-14.6353,NaN,-1.911209,-1.476615,0.1460472,14.10978,NaN,NaN,-0.111372,0.8126535,-3.477479E-07,1.059459,-7.117548E-09,1.347979
868.115,-0.01414542,0.0004184942,NaN,-0.872011,0.0004204469,NaN,-1.561626,-14.6353,NaN,-1.911209,-1.476615,0.1460472,14.10978,NaN,NaN,-0.111372,0.8126535,-3.477479E-07,1.059459,-7.117548E-09,1.347979
868.1282,-0.01414542,0.0004178842,NaN,-0.8720773,0.0004201986,NaN,-1.561543,-14.63458,NaN,-1.91184,-1.468286,0.1474905,14.10089,NaN,NaN,-0.1112579,0.8131413,-3.423835E-07,1.047321,-7.117548E-09,1.342307
868.1437,-0.0141456,0.0004174858,NaN,-0.8720625,0.0004202534,NaN,-1.56179,-14.63463,NaN,-1.911839,-1.46927,0.1473712,14.10194,NaN,NaN,-0.1112754,0.8131285,-3.335918E-07,1.048757,-4.733363E-09,1.341395
868.1583,-0.0141456,0.0004174858,NaN,-0.8720625,0.0004202534,NaN,-1.56179,-14.63463,NaN,-1.911839,-1.46927,0.1473712,14.10194,NaN,NaN,-0.1112754,0.8131285,-3.335918E-07,1.048757,-4.733363E-09,1.341395
868.1723,-0.0141459,0.0004180448,NaN,-0.8719977,0.0004201252,NaN,-1.561918,-14.63398,NaN,-1.911532,-1.479552,0.1471874,14.11271,NaN,NaN,-0.1112926,0.8141347,-3.315801E-07,1.063678,3.500888E-11,1.341738
868.1879,-0.01414628,0.0004182876,NaN,-0.8719022,0.0004199818,NaN,-1.561975,-14.63522,NaN,-1.911075,-1.47571,0.147033,14.10878,NaN,NaN,-0.1113094,0.8128035,-3.280784E-07,1.058129,-4.733363E-09,1.343511
868.2028,-0.0141467,0.000418861,NaN,-0.8717884,0.0004196765,NaN,-1.562003,-14.63557,NaN,-1.910548,-1.481584,0.1468956,14.11502,NaN,NaN,-0.1113259,0.8126237,-3.238315E-07,1.066684,-2.349177E-09,1.346708
868.2176,-0.0141467,0.000418861,NaN,-0.8717884,0.0004196765,NaN,-1.562003,-14.63557,NaN,-1.910548,-1.481584,0.1468956,14.11502,NaN,NaN,-0.1113259,0.8126237,-3.238315E-07,1.066684,-2.349177E-09,1.346708
868.2318,-0.01414729,0.0004188424,NaN,-0.8715943,0.0004198809,NaN,-1.562355,-14.63407,NaN,-1.909409,-1.469117,0.145226,14.10168,NaN,NaN,-0.1114715,0.813845,-3.16679E-07,1.048505,3.500888E-11,1.336333
868.2473,-0.014148,0.0004186579,NaN,-0.8713517,0.0004201873,NaN,-1.562582,-14.63406,NaN,-1.907981,-1.468092,0.1435247,14.1006,NaN,NaN,-0.1116142,0.8138276,-3.157849E-07,1.047013,-7.117548E-09,1.334141
868.2621,-0.01414878,0.0004185163,NaN,-0.87108,0.0004199217,NaN,-1.562733,-14.63513,NaN,-1.906421,-1.474885,0.1418835,14.10793,NaN,NaN,-0.1117541,0.8130075,-3.131772E-07,1.056956,-4.733363E-09,1.340834
868.277,-0.01414878,0.0004185163,NaN,-0.87108,0.0004199217,NaN,-1.562733,-14.63513,NaN,-1.906421,-1.474885,0.1418835,14.10793,NaN,NaN,-0.1117541,0.8130075,-3.131772E-07,1.056956,-4.733363E-09,1.340834
868.2911,-0.01414975,0.0004178398,NaN,-0.8707225,0.000419517,NaN,-1.563183,-14.63456,NaN,-1.904227,-1.468953,0.1387457,14.10159,NaN,NaN,-0.1120206,0.8134032,-3.057266E-07,1.048303,3.500888E-11,1.338119
868.3064,-0.01415086,0.0004175448,NaN,-0.8703134,0.0004195407,NaN,-1.563495,-14.63396,NaN,-1.901741,-1.471143,0.1356129,14.10382,NaN,NaN,-0.1122819,0.8140813,-3.052796E-07,1.051459,-9.501735E-09,1.334829
868.3211,-0.01415205,0.0004173954,NaN,-0.8698744,0.0004187311,NaN,-1.563724,-14.63511,NaN,-1.899128,-1.480522,0.1325704,14.1139,NaN,NaN,-0.1125381,0.8132489,-3.03417E-07,1.06517,-4.733363E-09,1.342
868.337,-0.01415205,0.0004173954,NaN,-0.8698744,0.0004187311,NaN,-1.563724,-14.63511,NaN,-1.899128,-1.480522,0.1325704,14.1139,NaN,NaN,-0.1125381,0.8132489,-3.03417E-07,1.06517,-4.733363E-09,1.342
868.351,-0.0141533,0.0004167083,NaN,-0.8694189,0.0004181856,NaN,-1.563913,-14.63446,NaN,-1.896472,-1.469505,0.1296027,14.10217,NaN,NaN,-0.1127893,0.8136336,-3.005112E-07,1.049119,-2.349177E-09,1.33798
868.3655,-0.01415484,0.0004165102,NaN,-0.868886,0.0004180128,NaN,-1.564402,-14.63415,NaN,-1.893233,-1.472278,0.1251519,14.10507,NaN,NaN,-0.1131649,0.8140289,-2.944763E-07,1.053143,-2.349177E-09,1.336497
868.3806,-0.01415672,0.0004168249,NaN,-0.8683076,0.0004176631,NaN,-1.564755,-14.63549,NaN,-1.889736,-1.479311,0.1207375,14.11269,NaN,NaN,-0.1135332,0.8129209,-2.942155E-07,1.063449,-2.349177E-09,1.345266
868.3952,-0.01415672,0.0004168249,NaN,-0.8683076,0.0004176631,NaN,-1.564755,-14.63549,NaN,-1.889736,-1.479311,0.1207375,14.11269,NaN,NaN,-0.1135332,0.8129209,-2.942155E-07,1.063449,-2.349177E-09,1.345266
868.4092,-0.0141589,0.000417685,NaN,-0.8677037,0.0004174547,NaN,-1.565027,-14.63433,NaN,-1.886136,-1.482395,0.1164372,14.11581,NaN,NaN,-0.1138942,0.8141441,-2.922038E-07,1.067898,-2.349177E-09,1.338776
868.4248,-0.01416131,0.0004181184,NaN,-0.8670869,0.000417633,NaN,-1.565257,-14.63426,NaN,-1.882511,-1.476267,0.1122357,14.10931,NaN,NaN,-0.1142482,0.8140806,-2.891491E-07,1.058971,2.419194E-09,1.337822
868.4396,-0.01416131,0.0004181184,NaN,-0.8670869,0.000417633,NaN,-1.565257,-14.63426,NaN,-1.882511,-1.476267,0.1122357,14.10931,NaN,NaN,-0.1142482,0.8140806,-2.891491E-07,1.058971,2.419194E-09,1.337822
868.4539,-0.01416411,0.0004184928,NaN,-0.8663955,0.0004178167,NaN,-1.565768,-14.63545,NaN,-1.878322,-1.476252,0.1065691,14.10944,NaN,NaN,-0.1147247,0.8128979,-2.832631E-07,1.058996,4.80338E-09,1.342228
868.4694,-0.01416729,0.0004185695,NaN,-0.8656611,0.00041847,NaN,-1.566142,-14.63461,NaN,-1.873889,-1.46888,0.1009735,14.10154,NaN,NaN,-0.1151918,0.8135186,-2.824436E-07,1.048241,4.80338E-09,1.337471
868.4843,-0.01417078,0.0004190906,NaN,-0.8649035,0.0004190063,NaN,-1.566433,-14.63561,NaN,-1.869368,-1.474109,0.09551487,14.1072,NaN,NaN,-0.1156497,0.8127168,-2.802829E-07,1.055897,2.419194E-09,1.347834
868.499,-0.01417078,0.0004190906,NaN,-0.8649035,0.0004190063,NaN,-1.566433,-14.63561,NaN,-1.869368,-1.474109,0.09551487,14.1072,NaN,NaN,-0.1156497,0.8127168,-2.802829E-07,1.055897,2.419194E-09,1.347834
868.5134,-0.01417473,0.0004193722,NaN,-0.8640656,0.0004194609,NaN,-1.566972,-14.63542,NaN,-1.864259,-1.472348,0.08861808,14.10531,NaN,NaN,-0.1162281,0.8128567,-2.743969E-07,1.053329,-2.349177E-09,1.341664
868.5289,-0.0141791,0.0004197945,NaN,-0.863182,0.0004191395,NaN,-1.567364,-14.63452,NaN,-1.858902,-1.481243,0.08182915,14.11458,NaN,NaN,-0.1167951,0.8140296,-2.71752E-07,1.066219,-4.733363E-09,1.338238
868.5435,-0.01418382,0.0004205008,NaN,-0.8622741,0.000418778,NaN,-1.567671,-14.63473,NaN,-1.85346,-1.482842,0.07520154,14.11629,NaN,NaN,-0.1173511,0.8138512,-2.684923E-07,1.068555,-2.349177E-09,1.339474
868.5594,-0.01418382,0.0004205008,NaN,-0.8622741,0.000418778,NaN,-1.567671,-14.63473,NaN,-1.85346,-1.482842,0.07520154,14.11629,NaN,NaN,-0.1173511,0.8138512,-2.684923E-07,1.068555,-2.349177E-09,1.339474
868.5734,-0.01418879,0.0004208252,NaN,-0.8613552,0.0004188426,NaN,-1.567931,-14.63435,NaN,-1.848017,-1.475914,0.06871854,14.10891,NaN,NaN,-0.1178962,0.8140699,-2.640406E-07,1.058454,-2.349177E-09,1.336284
868.5879,-0.01419417,0.0004206159,NaN,-0.8603644,0.0004189746,NaN,-1.568426,-14.63406,NaN,-1.842035,-1.469126,0.06080495,14.10168,NaN,NaN,-0.1185599,0.8141617,-2.567763E-07,1.048555,-4.733363E-09,1.329218
868.6028,-0.01419993,0.0004202575,NaN,-0.8593336,0.0004182,NaN,-1.568785,-14.63445,NaN,-1.835835,-1.478185,0.05302975,14.11132,NaN,NaN,-0.1192107,0.8140934,-2.519521E-07,1.061761,-1.188592E-08,1.336704
868.6174,-0.01419993,0.0004202575,NaN,-0.8593336,0.0004182,NaN,-1.568785,-14.63445,NaN,-1.835835,-1.478185,0.05302975,14.11132,NaN,NaN,-0.1192107,0.8140934,-2.519521E-07,1.061761,-1.188592E-08,1.336704
868.6315,-0.014206,0.000420208,NaN,-0.8582828,0.0004188724,NaN,-1.569063,-14.6343,NaN,-1.829572,-1.469016,0.0454329,14.10158,NaN,NaN,-0.1198487,0.8139943,-2.456284E-07,1.0484,-9.501735E-09,1.335408
868.647,-0.01421229,0.0004203751,NaN,-0.8572243,0.0004191883,NaN,-1.569296,-14.63517,NaN,-1.823324,-1.473109,0.03799873,14.10602,NaN,NaN,-0.1204743,0.8132631,-2.40385E-07,1.054399,3.500844E-11,1.338973
868.6622,-0.01421897,0.0004199742,NaN,-0.8560964,0.0004192172,NaN,-1.569736,-14.63359,NaN,-1.816553,-1.468737,0.02914877,14.10119,NaN,NaN,-0.1212169,0.814693,-2.298131E-07,1.047965,3.500844E-11,1.328648
868.6769,-0.01421897,0.0004199742,NaN,-0.8560964,0.0004192172,NaN,-1.569736,-14.63359,NaN,-1.816553,-1.468737,0.02914877,14.10119,NaN,NaN,-0.1212169,0.814693,-2.298131E-07,1.047965,3.500844E-11,1.328648
868.6909,-0.01422602,0.0004198941,NaN,-0.8549309,0.0004198265,NaN,-1.570044,-14.63424,NaN,-1.809576,-1.467841,0.02046828,14.10032,NaN,NaN,-0.1219451,0.8140049,-2.221203E-07,1.046691,3.500844E-11,1.333284
868.7064,-0.01423335,0.0004199838,NaN,-0.8537472,0.0004203424,NaN,-1.570278,-14.63502,NaN,-1.802549,-1.469845,0.01198229,14.10254,NaN,NaN,-0.1226589,0.8133009,-2.143717E-07,1.049646,3.500844E-11,1.338259
868.7213,-0.0142409,0.0004197901,NaN,-0.8525577,0.0004207649,NaN,-1.570446,-14.63424,NaN,-1.795548,-1.467414,0.003664719,14.09986,NaN,NaN,-0.1233588,0.8139851,-2.060457E-07,1.04607,3.500844E-11,1.331046
868.7362,-0.0142409,0.0004197901,NaN,-0.8525577,0.0004207649,NaN,-1.570446,-14.63424,NaN,-1.795548,-1.467414,0.003664719,14.09986,NaN,NaN,-0.1233588,0.8139851,-2.060457E-07,1.04607,3.500844E-11,1.331046
868.7504,-0.01424883,0.0004202037,NaN,-0.8513006,0.0004205505,NaN,-1.570726,-14.63429,NaN,-1.788035,-1.479844,-0.006085509,14.11301,NaN,NaN,-0.1241744,0.8143854,-1.975334E-07,1.064162,-2.349177E-09,1.336302
868.7657,-0.01425711,0.0004203595,NaN,-0.8500074,0.0004215014,NaN,-1.570743,-14.63457,NaN,-1.78033,-1.467812,-0.01568354,14.10029,NaN,NaN,-0.124974,0.8138063,-1.942552E-07,1.046642,-2.349177E-09,1.333686
868.7805,-0.01426568,0.0004203753,NaN,-0.8486977,0.0004221584,NaN,-1.570619,-14.63498,NaN,-1.772585,-1.467503,-0.02504916,14.10001,NaN,NaN,-0.125758,0.8133863,-1.895613E-07,1.046212,-4.733363E-09,1.335311
868.7973,-0.01426568,0.0004203753,NaN,-0.8486977,0.0004221584,NaN,-1.570619,-14.63498,NaN,-1.772585,-1.467503,-0.02504916,14.10001,NaN,NaN,-0.125758,0.8133863,-1.895613E-07,1.046212,-4.733363E-09,1.335311
868.8104,-0.01427403,0.0004203001,NaN,-0.847384,0.0004227123,NaN,-1.570475,-14.63528,NaN,-1.764877,-1.467079,-0.03418056,14.0996,NaN,NaN,-0.1265257,0.8130637,-1.785344E-07,1.045609,-4.733363E-09,1.336922
868.8248,-0.01428229,0.0004202802,NaN,-0.8460737,0.0004230005,NaN,-1.570374,-14.63596,NaN,-1.757241,-1.470255,-0.04309844,14.10304,NaN,NaN,-0.1272783,0.8124993,-1.662037E-07,1.050261,-4.733363E-09,1.340868
868.8394,-0.01428229,0.0004202802,NaN,-0.8460737,0.0004230005,NaN,-1.570374,-14.63596,NaN,-1.757241,-1.470255,-0.04309844,14.10304,NaN,NaN,-0.1272783,0.8124993,-1.662037E-07,1.050261,-4.733363E-09,1.340868
868.8535,-0.01429049,0.000420193,NaN,-0.8447716,0.0004235112,NaN,-1.570325,-14.63523,NaN,-1.749696,-1.467813,-0.05182518,14.10036,NaN,NaN,-0.1280161,0.8131327,-1.526437E-07,1.046674,-4.733363E-09,1.33775
868.8689,-0.01429866,0.0004196043,NaN,-0.8434801,0.0004236244,NaN,-1.570311,-14.63492,NaN,-1.742249,-1.466792,-0.0603758,14.09923,NaN,NaN,-0.1287395,0.813398,-1.384876E-07,1.045172,-4.733363E-09,1.332774
868.8839,-0.01430662,0.0004192729,NaN,-0.8422704,0.0004239687,NaN,-1.570161,-14.63562,NaN,-1.735478,-1.468336,-0.06719542,14.10096,NaN,NaN,-0.1293194,0.8127487,-1.309625E-07,1.047455,3.500844E-11,1.337409
868.8986,-0.01430662,0.0004192729,NaN,-0.8422704,0.0004239687,NaN,-1.570161,-14.63562,NaN,-1.735478,-1.468336,-0.06719542,14.10096,NaN,NaN,-0.1293194,0.8127487,-1.309625E-07,1.047455,3.500844E-11,1.337409
868.9128,-0.01431434,0.000419561,NaN,-0.8411165,0.0004236609,NaN,-1.570115,-14.63532,NaN,-1.729084,-1.479948,-0.0738726,14.11317,NaN,NaN,-0.1298879,0.813464,-1.197866E-07,1.064318,3.500844E-11,1.340348
868.9284,-0.01432183,0.0004194862,NaN,-0.8400022,0.0004238438,NaN,-1.570101,-14.63472,NaN,-1.722924,-1.470215,-0.08042795,14.1028,NaN,NaN,-0.1304452,0.8138108,-1.094303E-07,1.050132,-4.733363E-09,1.333704
868.9432,-0.01432914,0.0004193034,NaN,-0.8389174,0.0004229249,NaN,-1.570095,-14.63477,NaN,-1.716924,-1.481216,-0.08685628,14.11444,NaN,NaN,-0.1309917,0.8141317,-9.795642E-08,1.066145,-9.501735E-09,1.336689
868.9581,-0.01432914,0.0004193034,NaN,-0.8389174,0.0004229249,NaN,-1.570095,-14.63477,NaN,-1.716924,-1.481216,-0.08685628,14.11444,NaN,NaN,-0.1309917,0.8141317,-9.795642E-08,1.066145,-9.501735E-09,1.336689
868.972,-0.01433612,0.0004190603,NaN,-0.837925,0.0004229382,NaN,-1.569968,-14.63551,NaN,-1.711621,-1.470447,-0.09160136,14.10312,NaN,NaN,-0.1313981,0.8131343,-9.378409E-08,1.050485,-9.501735E-09,1.33778
868.9875,-0.01434275,0.0004194746,NaN,-0.8369939,0.0004224688,NaN,-1.569897,-14.6351,NaN,-1.706697,-1.481365,-0.09625892,14.11459,NaN,NaN,-0.1317966,0.8139004,-8.767461E-08,1.066341,-1.188592E-08,1.338614
869.0026,-0.01434908,0.0004194917,NaN,-0.8361049,0.0004227303,NaN,-1.569846,-14.63489,NaN,-1.701996,-1.470344,-0.1008298,14.10289,NaN,NaN,-0.1321872,0.8138415,-8.037305E-08,1.050286,-1.665429E-08,1.334573
869.0192,-0.01434908,0.0004194917,NaN,-0.8361049,0.0004227303,NaN,-1.569846,-14.63489,NaN,-1.701996,-1.470344,-0.1008298,14.10289,NaN,NaN,-0.1321872,0.8138415,-8.037305E-08,1.050286,-1.665429E-08,1.334573
869.0337,-0.01435499,0.0004198188,NaN,-0.8353151,0.0004223623,NaN,-1.5697,-14.63596,NaN,-1.698014,-1.480227,-0.1037605,14.11348,NaN,NaN,-0.132441,0.8131039,-8.067107E-08,1.064719,-1.427011E-08,1.344115
869.0471,-0.01436047,0.0004207294,NaN,-0.8345901,0.0004221666,NaN,-1.569604,-14.63499,NaN,-1.694413,-1.482686,-0.1066397,14.11596,NaN,NaN,-0.1326897,0.8141167,-7.791436E-08,1.068258,-1.665429E-08,1.336031
869.0616,-0.01436562,0.0004211679,NaN,-0.8339084,0.0004221431,NaN,-1.56953,-14.63457,NaN,-1.691026,-1.477493,-0.1094666,14.1104,NaN,NaN,-0.1329336,0.8144169,-7.493413E-08,1.060677,-1.188592E-08,1.33244
869.0764,-0.01436562,0.0004211679,NaN,-0.8339084,0.0004221431,NaN,-1.56953,-14.63457,NaN,-1.691026,-1.477493,-0.1094666,14.1104,NaN,NaN,-0.1329336,0.8144169,-7.493413E-08,1.060677,-1.188592E-08,1.33244
869.0906,-0.0143705,0.0004216358,NaN,-0.8332564,0.0004225517,NaN,-1.569465,-14.63591,NaN,-1.687772,-1.474959,-0.1122392,14.10787,NaN,NaN,-0.1331727,0.8130084,-7.098532E-08,1.057034,-1.427011E-08,1.340376
869.1062,-0.01437497,0.0004223898,NaN,-0.8326949,0.0004224765,NaN,-1.569315,-14.6346,NaN,-1.685181,-1.481334,-0.1134105,14.11442,NaN,NaN,-0.1332779,0.8144848,-7.433808E-08,1.066246,-1.903848E-08,1.333572
869.121,-0.01437906,0.0004224417,NaN,-0.8321918,0.0004226583,NaN,-1.569207,-14.63429,NaN,-1.682932,-1.471125,-0.1145632,14.10356,NaN,NaN,-0.1333809,0.8145548,-7.59027E-08,1.051358,-1.665429E-08,1.326703
869.136,-0.01437906,0.0004224417,NaN,-0.8321918,0.0004226583,NaN,-1.569207,-14.63429,NaN,-1.682932,-1.471125,-0.1145632,14.10356,NaN,NaN,-0.1333809,0.8145548,-7.59027E-08,1.051358,-1.665429E-08,1.326703
869.1503,-0.01438283,0.0004221994,NaN,-0.831727,0.0004230358,NaN,-1.569117,-14.63444,NaN,-1.68087,-1.46799,-0.1156965,14.10025,NaN,NaN,-0.133482,0.8142873,-7.657326E-08,1.046793,-1.188592E-08,1.32886
869.1658,-0.01438635,0.0004217409,NaN,-0.831288,0.0004230676,NaN,-1.569036,-14.63451,NaN,-1.678916,-1.469515,-0.1168086,14.10186,NaN,NaN,-0.1335811,0.8142656,-7.664777E-08,1.049011,-1.188592E-08,1.326767
869.1808,-0.01438948,0.0004211412,NaN,-0.830936,0.0004231177,NaN,-1.568879,-14.63434,NaN,-1.677603,-1.468645,-0.1163548,14.1009,NaN,NaN,-0.133549,0.8144047,-8.514143E-08,1.047729,-9.501735E-09,1.325516
869.1957,-0.01438948,0.0004211412,NaN,-0.830936,0.0004231177,NaN,-1.568879,-14.63434,NaN,-1.677603,-1.468645,-0.1163548,14.1009,NaN,NaN,-0.133549,0.8144047,-8.514143E-08,1.047729,-9.501735E-09,1.325516
869.2096,-0.01439224,0.0004208851,NaN,-0.8306394,0.0004226581,NaN,-1.568759,-14.63576,NaN,-1.676612,-1.477276,-0.1159134,14.11023,NaN,NaN,-0.1335175,0.8132951,-9.058035E-08,1.060369,-1.188592E-08,1.336042
869.2254,-0.01439468,0.0004204327,NaN,-0.8303784,0.000422692,NaN,-1.568657,-14.63429,NaN,-1.675789,-1.468958,-0.1154833,14.10125,NaN,NaN,-0.1334866,0.8145252,-9.430564E-08,1.048205,-1.188592E-08,1.325674
869.2399,-0.01439468,0.0004204327,NaN,-0.8303784,0.000422692,NaN,-1.568657,-14.63429,NaN,-1.675789,-1.468958,-0.1154833,14.10125,NaN,NaN,-0.1334866,0.8145252,-9.430564E-08,1.048205,-1.188592E-08,1.325674
869.2564,-0.01439668,0.0004206131,NaN,-0.8302096,0.0004220728,NaN,-1.568485,-14.63462,NaN,-1.675629,-1.480857,-0.1135187,14.1139,NaN,NaN,-0.133327,0.814612,-1.059285E-07,1.065548,-7.117548E-09,1.331524
869.27,-0.01439827,0.0004205918,NaN,-0.8300986,0.000422431,NaN,-1.568349,-14.63431,NaN,-1.675793,-1.469589,-0.1115958,14.1019,NaN,NaN,-0.1331706,0.814642,-1.143477E-07,1.049113,-2.349177E-09,1.32589
869.2845,-0.01439951,0.0004203203,NaN,-0.8300238,0.00042257,NaN,-1.56823,-14.63457,NaN,-1.676117,-1.469418,-0.1097127,14.10175,NaN,NaN,-0.1330172,0.814362,-1.209787E-07,1.048872,3.500888E-11,1.326857
869.2994,-0.01439951,0.0004203203,NaN,-0.8300238,0.00042257,NaN,-1.56823,-14.63457,NaN,-1.676117,-1.469418,-0.1097127,14.10175,NaN,NaN,-0.1330172,0.814362,-1.209787E-07,1.048872,3.500888E-11,1.326857
869.3136,-0.01440053,0.0004205846,NaN,-0.8299717,0.0004220987,NaN,-1.568118,-14.63501,NaN,-1.676519,-1.480735,-0.1078672,14.11378,NaN,NaN,-0.1328669,0.8143067,-1.269392E-07,1.06537,2.419195E-09,1.334077
869.3292,-0.01440132,0.0004202354,NaN,-0.8300014,0.0004216325,NaN,-1.567933,-14.63484,NaN,-1.677532,-1.472164,-0.1045131,14.10467,NaN,NaN,-0.1325902,0.8142645,-1.413933E-07,1.052877,3.500888E-11,1.330741
869.3439,-0.01440196,0.0004198219,NaN,-0.8300816,0.0004214263,NaN,-1.56778,-14.6342,NaN,-1.678834,-1.470793,-0.1012272,14.10313,NaN,NaN,-0.1323189,0.8148497,-1.516006E-07,1.050847,2.419195E-09,1.326983
869.3587,-0.01440196,0.0004198219,NaN,-0.8300816,0.0004214263,NaN,-1.56778,-14.6342,NaN,-1.678834,-1.470793,-0.1012272,14.10313,NaN,NaN,-0.1323189,0.8148497,-1.516006E-07,1.050847,2.419195E-09,1.326983
869.3729,-0.0144025,0.0004191844,NaN,-0.8301925,0.0004212776,NaN,-1.567642,-14.63446,NaN,-1.680271,-1.468498,-0.09800732,14.10072,NaN,NaN,-0.132053,0.8145118,-1.603923E-07,1.047512,-2.349177E-09,1.327064
869.3886,-0.014403,0.0004195522,NaN,-0.8303219,0.0004209045,NaN,-1.56751,-14.63382,NaN,-1.681764,-1.478942,-0.09485088,14.11169,NaN,NaN,-0.1317922,0.8155211,-1.675449E-07,1.062686,-4.733363E-09,1.327966
869.4037,-0.01440334,0.0004195937,NaN,-0.8305314,0.0004214267,NaN,-1.567299,-14.63475,NaN,-1.683849,-1.468627,-0.09020865,14.10084,NaN,NaN,-0.1314074,0.8143159,-1.811794E-07,1.047676,-2.349177E-09,1.328961
869.4183,-0.01440334,0.0004195937,NaN,-0.8305314,0.0004214267,NaN,-1.567299,-14.63475,NaN,-1.683849,-1.468627,-0.09020865,14.10084,NaN,NaN,-0.1314074,0.8143159,-1.811794E-07,1.047676,-2.349177E-09,1.328961
869.4324,-0.01440355,0.0004198618,NaN,-0.8307894,0.0004219457,NaN,-1.56712,-14.63568,NaN,-1.686205,-1.47152,-0.08565949,14.10403,NaN,NaN,-0.13103,0.8134835,-1.917592E-07,1.051934,2.419195E-09,1.336153
869.4482,-0.0144037,0.0004200723,NaN,-0.8310763,0.0004220706,NaN,-1.566955,-14.63602,NaN,-1.688679,-1.474878,-0.08120099,14.10761,NaN,NaN,-0.13066,0.8132524,-2.007744E-07,1.056833,4.80338E-09,1.337525
869.4632,-0.01440379,0.0004203197,NaN,-0.8313795,0.0004217336,NaN,-1.566797,-14.63614,NaN,-1.691195,-1.47905,-0.07682988,14.11203,NaN,NaN,-0.1302973,0.8132483,-2.088211E-07,1.062906,2.419195E-09,1.339542
869.48,-0.01440372,0.0004202609,NaN,-0.8317609,0.0004220616,NaN,-1.566548,-14.63466,NaN,-1.694286,-1.469393,-0.07099225,14.10164,NaN,NaN,-0.1298123,0.8144685,-2.226046E-07,1.0488,3.500888E-11,1.32908
869.4926,-0.01440372,0.0004202609,NaN,-0.8317609,0.0004220616,NaN,-1.566548,-14.63466,NaN,-1.694286,-1.469393,-0.07099225,14.10164,NaN,NaN,-0.1298123,0.8144685,-2.226046E-07,1.0488,3.500888E-11,1.32908
869.5065,-0.01440353,0.0004200254,NaN,-0.8321887,0.0004224222,NaN,-1.566335,-14.63512,NaN,-1.697634,-1.46805,-0.06527106,14.10028,NaN,NaN,-0.1293369,0.8139552,-2.332962E-07,1.046864,3.500888E-11,1.330368
869.5221,-0.01440326,0.0004202152,NaN,-0.8326434,0.0004219579,NaN,-1.566135,-14.6349,NaN,-1.701086,-1.479506,-0.05966356,14.11236,NaN,NaN,-0.1288708,0.8145848,-2.423114E-07,1.063523,3.500888E-11,1.33301
869.5369,-0.01440326,0.0004202152,NaN,-0.8326434,0.0004219579,NaN,-1.566135,-14.6349,NaN,-1.701086,-1.479506,-0.05966356,14.11236,NaN,NaN,-0.1288708,0.8145848,-2.423114E-07,1.063523,3.500888E-11,1.33301
869.5511,-0.01440282,0.0004208577,NaN,-0.8331818,0.0004215349,NaN,-1.565838,-14.63571,NaN,-1.705138,-1.482019,-0.05261002,14.11511,NaN,NaN,-0.1282846,0.8138288,-2.550892E-07,1.06721,-4.733363E-09,1.3378
869.5667,-0.01440224,0.0004210747,NaN,-0.8337695,0.0004214206,NaN,-1.565578,-14.63482,NaN,-1.709452,-1.475353,-0.04569664,14.10794,NaN,NaN,-0.1277098,0.8145491,-2.649984E-07,1.05747,-2.349177E-09,1.331239
869.5816,-0.01440158,0.0004214557,NaN,-0.834385,0.0004213889,NaN,-1.565335,-14.63643,NaN,-1.713866,-1.477631,-0.03892035,14.11055,NaN,NaN,-0.1271463,0.8130012,-2.733059E-07,1.060853,2.419195E-09,1.340151
869.5967,-0.01440158,0.0004214557,NaN,-0.834385,0.0004213889,NaN,-1.565335,-14.63643,NaN,-1.713866,-1.477631,-0.03892035,14.11055,NaN,NaN,-0.1271463,0.8130012,-2.733059E-07,1.060853,2.419195E-09,1.340151
869.6108,-0.01440086,0.0004216048,NaN,-0.8350149,0.0004219101,NaN,-1.565097,-14.63489,NaN,-1.718298,-1.471199,-0.03227624,14.10355,NaN,NaN,-0.1265939,0.8143517,-2.796202E-07,1.051434,4.80338E-09,1.33147
869.6263,-0.01439998,0.0004220969,NaN,-0.8357201,0.0004220107,NaN,-1.564738,-14.6363,NaN,-1.723281,-1.478117,-0.02419893,14.11106,NaN,NaN,-0.1259229,0.8131841,-2.912618E-07,1.061576,7.187566E-09,1.340376
869.6412,-0.01439898,0.000422638,NaN,-0.8364687,0.0004218934,NaN,-1.564423,-14.6363,NaN,-1.728495,-1.48056,-0.01628133,14.11364,NaN,NaN,-0.1252652,0.813248,-2.977903E-07,1.06513,7.187566E-09,1.33994
869.656,-0.01439898,0.000422638,NaN,-0.8364687,0.0004218934,NaN,-1.564423,-14.6363,NaN,-1.728495,-1.48056,-0.01628133,14.11364,NaN,NaN,-0.1252652,0.813248,-2.977903E-07,1.06513,7.187566E-09,1.33994
869.6702,-0.0143979,0.0004228603,NaN,-0.8372406,0.0004221291,NaN,-1.564124,-14.63481,NaN,-1.733786,-1.474236,-0.008521179,14.10678,NaN,NaN,-0.1246203,0.8145776,-3.009941E-07,1.055874,7.187566E-09,1.329887
869.6855,-0.01439676,0.0004227906,NaN,-0.8380235,0.0004225856,NaN,-1.563833,-14.63496,NaN,-1.739079,-1.468874,-0.0009125243,14.10111,NaN,NaN,-0.123988,0.8142627,-3.04752E-07,1.04807,9.571751E-09,1.329364
869.7015,-0.01439544,0.0004226422,NaN,-0.838879,0.0004227668,NaN,-1.563397,-14.63562,NaN,-1.744908,-1.471229,0.008117162,14.10369,NaN,NaN,-0.1232389,0.8136853,-3.116682E-07,1.05153,1.910849E-08,1.332731
869.7153,-0.01439544,0.0004226422,NaN,-0.838879,0.0004227668,NaN,-1.563397,-14.63562,NaN,-1.744908,-1.471229,0.008117162,14.10369,NaN,NaN,-0.1232389,0.8136853,-3.116682E-07,1.05153,1.910849E-08,1.332731
869.7296,-0.01439381,0.0004228237,NaN,-0.8397754,0.0004228134,NaN,-1.563012,-14.63634,NaN,-1.750955,-1.476066,0.01696931,14.10889,NaN,NaN,-0.1225044,0.8131263,-3.146019E-07,1.058601,2.387686E-08,1.338852
869.7451,-0.01439191,0.0004230046,NaN,-0.840693,0.0004222799,NaN,-1.562647,-14.63639,NaN,-1.757067,-1.480344,0.02564428,14.11342,NaN,NaN,-0.1217844,0.8131974,-3.165856E-07,1.064826,2.149268E-08,1.339012
869.7598,-0.01439191,0.0004230046,NaN,-0.840693,0.0004222799,NaN,-1.562647,-14.63639,NaN,-1.757067,-1.480344,0.02564428,14.11342,NaN,NaN,-0.1217844,0.8131974,-3.165856E-07,1.064826,2.149268E-08,1.339012
869.774,-0.01439168,0.0004230699,NaN,-0.8407882,0.0004228568,NaN,-1.564298,-14.63496,NaN,-1.756278,-1.470235,0.01527166,14.10256,NaN,NaN,-0.12263,0.8143752,-2.887204E-07,1.050068,2.149268E-08,1.32833
869.7896,-0.01439272,0.0004232948,NaN,-0.840377,0.0004236231,NaN,-1.56515,-14.63557,NaN,-1.752147,-1.469769,0.005167997,14.10214,NaN,NaN,-0.123459,0.8137519,-2.73931E-07,1.049418,1.672431E-08,1.332488
869.8046,-0.01439485,0.0004240843,NaN,-0.8396552,0.0004236286,NaN,-1.565621,-14.63583,NaN,-1.746393,-1.481071,-0.004608444,14.11413,NaN,NaN,-0.1242718,0.8138901,-2.580985E-07,1.065877,1.434012E-08,1.335015
869.8196,-0.01439485,0.0004240843,NaN,-0.8396552,0.0004236286,NaN,-1.565621,-14.63583,NaN,-1.746393,-1.481071,-0.004608444,14.11413,NaN,NaN,-0.1242718,0.8138901,-2.580985E-07,1.065877,1.434012E-08,1.335015
869.8338,-0.0143982,0.0004242827,NaN,-0.8387449,0.0004242646,NaN,-1.565912,-14.63542,NaN,-1.739871,-1.469837,-0.01413267,14.10218,NaN,NaN,-0.1250686,0.8140388,-2.427876E-07,1.049507,1.434012E-08,1.329638
869.8492,-0.01440241,0.0004242971,NaN,-0.8377916,0.0004248401,NaN,-1.565967,-14.63578,NaN,-1.733582,-1.468482,-0.02187305,14.10079,NaN,NaN,-0.1257205,0.8136294,-2.32692E-07,1.047549,1.434012E-08,1.331592
869.8641,-0.01440721,0.0004247898,NaN,-0.836816,0.0004246677,NaN,-1.566046,-14.63584,NaN,-1.727442,-1.480439,-0.02945648,14.11344,NaN,NaN,-0.1263595,0.8140064,-2.213671E-07,1.064947,1.434012E-08,1.334864
869.879,-0.01440721,0.0004247898,NaN,-0.836816,0.0004246677,NaN,-1.566046,-14.63584,NaN,-1.727442,-1.480439,-0.02945648,14.11344,NaN,NaN,-0.1263595,0.8140064,-2.213671E-07,1.064947,1.434012E-08,1.334864
869.8934,-0.01441241,0.0004246754,NaN,-0.8358311,0.0004237302,NaN,-1.566129,-14.6364,NaN,-1.721415,-1.479526,-0.03689218,14.11253,NaN,NaN,-0.126986,0.8134295,-2.104893E-07,1.063636,1.195594E-08,1.33655
869.9085,-0.01441788,0.000424407,NaN,-0.8348448,0.0004233852,NaN,-1.566206,-14.63532,NaN,-1.715486,-1.472358,-0.0441801,14.10482,NaN,NaN,-0.1276003,0.8143253,-1.996115E-07,1.053164,1.434012E-08,1.328867
869.9244,-0.01442336,0.0004241675,NaN,-0.8339314,0.0004237748,NaN,-1.566154,-14.63595,NaN,-1.710219,-1.468021,-0.04976185,14.1003,NaN,NaN,-0.1280731,0.8135605,-1.940235E-07,1.046875,9.571751E-09,1.331341
869.9395,-0.01442336,0.0004241675,NaN,-0.8339314,0.0004237748,NaN,-1.566154,-14.63595,NaN,-1.710219,-1.468021,-0.04976185,14.1003,NaN,NaN,-0.1280731,0.8135605,-1.940235E-07,1.046875,9.571751E-09,1.331341
869.9525,-0.01442873,0.0004245062,NaN,-0.833067,0.0004238809,NaN,-1.566153,-14.63719,NaN,-1.705312,-1.476519,-0.05524096,14.10945,NaN,NaN,-0.1285367,0.8126365,-1.865729E-07,1.059301,9.571751E-09,1.341128
869.9677,-0.01443396,0.0004251603,NaN,-0.8322368,0.0004235903,NaN,-1.566171,-14.63628,NaN,-1.700619,-1.482445,-0.06061742,14.11559,NaN,NaN,-0.1289912,0.8137159,-1.788243E-07,1.067879,7.187565E-09,1.336565
869.9827,-0.01443908,0.0004255447,NaN,-0.8314313,0.0004243156,NaN,-1.566194,-14.63543,NaN,-1.696067,-1.472099,-0.06588915,14.10454,NaN,NaN,-0.1294369,0.8143293,-1.716718E-07,1.052787,4.803379E-09,1.33021
869.9977,-0.01443908,0.0004255447,NaN,-0.8314313,0.0004243156,NaN,-1.566194,-14.63543,NaN,-1.696067,-1.472099,-0.06588915,14.10454,NaN,NaN,-0.1294369,0.8143293,-1.716718E-07,1.052787,4.803379E-09,1.33021
870.0116,-0.01444392,0.0004256364,NaN,-0.830714,0.0004250492,NaN,-1.566116,-14.63588,NaN,-1.69219,-1.46827,-0.06950264,14.10053,NaN,NaN,-0.1297444,0.8137618,-1.698836E-07,1.047231,4.803379E-09,1.331577
870.0273,-0.01444845,0.0004260616,NaN,-0.8300544,0.0004248795,NaN,-1.566084,-14.63566,NaN,-1.688672,-1.479497,-0.07305199,14.11237,NaN,NaN,-0.1300459,0.8143932,-1.663074E-07,1.063554,3.500755E-11,1.333184
870.0422,-0.01445271,0.0004261193,NaN,-0.8294333,0.0004254768,NaN,-1.566071,-14.63569,NaN,-1.685357,-1.469156,-0.07653587,14.10141,NaN,NaN,-0.1303415,0.8140998,-1.620605E-07,1.048489,4.803379E-09,1.329759
870.0569,-0.01445271,0.0004261193,NaN,-0.8294333,0.0004254768,NaN,-1.566071,-14.63569,NaN,-1.685357,-1.469156,-0.07653587,14.10141,NaN,NaN,-0.1303415,0.8140998,-1.620605E-07,1.048489,4.803379E-09,1.329759
870.0712,-0.01445658,0.0004266145,NaN,-0.8289081,0.0004263291,NaN,-1.565976,-14.63648,NaN,-1.682741,-1.471377,-0.07840217,14.10386,NaN,NaN,-0.130502,0.8133916,-1.653388E-07,1.051759,2.419193E-09,1.338723
870.0867,-0.01446006,0.0004272321,NaN,-0.8284444,0.0004267853,NaN,-1.565924,-14.63689,NaN,-1.680485,-1.475514,-0.08023838,14.10828,NaN,NaN,-0.1306594,0.8131061,-1.654133E-07,1.057795,7.187565E-09,1.339913
870.1017,-0.01446322,0.0004273261,NaN,-0.8280206,0.0004273604,NaN,-1.565891,-14.63564,NaN,-1.678425,-1.469057,-0.08204247,14.10129,NaN,NaN,-0.1308136,0.8141549,-1.642212E-07,1.048348,4.803379E-09,1.32929
870.1166,-0.01446322,0.0004273261,NaN,-0.8280206,0.0004273604,NaN,-1.565891,-14.63564,NaN,-1.678425,-1.469057,-0.08204247,14.10129,NaN,NaN,-0.1308136,0.8141549,-1.642212E-07,1.048348,4.803379E-09,1.32929
870.1307,-0.01446612,0.0004278942,NaN,-0.8276235,0.0004272222,NaN,-1.565866,-14.6356,NaN,-1.676479,-1.480425,-0.08381253,14.11331,NaN,NaN,-0.1309649,0.8146035,-1.631036E-07,1.064893,2.419193E-09,1.332363
870.147,-0.01446865,0.0004279379,NaN,-0.827314,0.0004274303,NaN,-1.565764,-14.63593,NaN,-1.675177,-1.47099,-0.08400071,14.10334,NaN,NaN,-0.1309839,0.8140386,-1.692876E-07,1.051155,4.803379E-09,1.328765
870.161,-0.01447081,0.000428245,NaN,-0.8270597,0.0004268434,NaN,-1.565699,-14.63626,NaN,-1.674198,-1.481939,-0.0841902,14.11496,NaN,NaN,-0.1310025,0.8140733,-1.725659E-07,1.067106,2.419193E-09,1.336104
870.1756,-0.01447081,0.000428245,NaN,-0.8270597,0.0004268434,NaN,-1.565699,-14.63626,NaN,-1.674198,-1.481939,-0.0841902,14.11496,NaN,NaN,-0.1310025,0.8140733,-1.725659E-07,1.067106,2.419193E-09,1.336104
870.1897,-0.01447267,0.0004283719,NaN,-0.8268408,0.0004275158,NaN,-1.56565,-14.63545,NaN,-1.673388,-1.470121,-0.08437905,14.10235,NaN,NaN,-0.1310207,0.8146082,-1.747266E-07,1.049863,4.803379E-09,1.329424
870.2053,-0.0144743,0.0004286835,NaN,-0.8266447,0.0004274784,NaN,-1.565608,-14.63659,NaN,-1.672668,-1.478238,-0.08456536,14.11109,NaN,NaN,-0.1310386,0.8137544,-1.764402E-07,1.061741,4.803379E-09,1.33621
870.2201,-0.01447556,0.0004286107,NaN,-0.8265328,0.0004277304,NaN,-1.565493,-14.63526,NaN,-1.672572,-1.470625,-0.08320194,14.10287,NaN,NaN,-0.1309268,0.8148662,-1.840398E-07,1.050604,4.803379E-09,1.327339
870.235,-0.01447556,0.0004286107,NaN,-0.8265328,0.0004277304,NaN,-1.565493,-14.63526,NaN,-1.672572,-1.470625,-0.08320194,14.10287,NaN,NaN,-0.1309268,0.8148662,-1.840398E-07,1.050604,4.803379E-09,1.327339
870.2491,-0.01447654,0.0004287228,NaN,-0.8264734,0.0004279035,NaN,-1.565412,-14.6364,NaN,-1.67278,-1.473911,-0.08186942,14.1065,NaN,NaN,-0.1308172,0.8138515,-1.901493E-07,1.055445,7.187565E-09,1.334371
870.2648,-0.01447736,0.0004288579,NaN,-0.8264467,0.0004282912,NaN,-1.565346,-14.63627,NaN,-1.673139,-1.472051,-0.08056557,14.10451,NaN,NaN,-0.1307097,0.8139196,-1.947686E-07,1.052731,4.803379E-09,1.33366
870.2798,-0.01447736,0.0004288579,NaN,-0.8264467,0.0004282912,NaN,-1.565346,-14.63627,NaN,-1.673139,-1.472051,-0.08056557,14.10451,NaN,NaN,-0.1307097,0.8139196,-1.947686E-07,1.052731,4.803379E-09,1.33366
870.294,-0.01447799,0.0004289355,NaN,-0.8265079,0.0004282818,NaN,-1.565209,-14.6363,NaN,-1.674144,-1.474845,-0.07774114,14.10746,NaN,NaN,-0.1304751,0.8139779,-2.0587E-07,1.056797,9.571751E-09,1.332546
870.3092,-0.01447847,0.0004292011,NaN,-0.8266231,0.0004279579,NaN,-1.565106,-14.63672,NaN,-1.675457,-1.479202,-0.07497586,14.11212,NaN,NaN,-0.130245,0.813686,-2.142891E-07,1.063157,1.195594E-08,1.336895
870.3244,-0.01447888,0.0004292954,NaN,-0.8267713,0.0004283359,NaN,-1.565017,-14.63618,NaN,-1.676914,-1.471438,-0.072267,14.10383,NaN,NaN,-0.1300195,0.8140286,-2.203986E-07,1.051834,9.571751E-09,1.33163
870.3389,-0.01447888,0.0004292954,NaN,-0.8267713,0.0004283359,NaN,-1.565017,-14.63618,NaN,-1.676914,-1.471438,-0.072267,14.10383,NaN,NaN,-0.1300195,0.8140286,-2.203986E-07,1.051834,9.571751E-09,1.33163
870.3529,-0.01447923,0.0004296422,NaN,-0.826939,0.0004282512,NaN,-1.564934,-14.63668,NaN,-1.678432,-1.478713,-0.0696119,14.11159,NaN,NaN,-0.1297984,0.8137699,-2.262101E-07,1.062447,1.195594E-08,1.336453
870.3705,-0.01447943,0.0004297798,NaN,-0.8271873,0.0004288531,NaN,-1.564772,-14.63618,NaN,-1.680544,-1.470522,-0.06545939,14.10286,NaN,NaN,-0.1294522,0.8140556,-2.38429E-07,1.050502,9.571751E-09,1.331796
870.3842,-0.01447951,0.0004293577,NaN,-0.8274843,0.0004288818,NaN,-1.564642,-14.63547,NaN,-1.682929,-1.469297,-0.06139153,14.10146,NaN,NaN,-0.1291129,0.8147137,-2.472207E-07,1.048681,1.195594E-08,1.327865
870.3992,-0.01447951,0.0004293577,NaN,-0.8274843,0.0004288818,NaN,-1.564642,-14.63547,NaN,-1.682929,-1.469297,-0.06139153,14.10146,NaN,NaN,-0.1291129,0.8147137,-2.472207E-07,1.048681,1.195594E-08,1.327865
870.4124,-0.01447952,0.0004295183,NaN,-0.82781,0.0004283099,NaN,-1.564526,-14.63528,NaN,-1.685433,-1.479853,-0.05740535,14.11261,NaN,NaN,-0.1287802,0.8152794,-2.544478E-07,1.064046,1.434012E-08,1.329982
870.4276,-0.01447947,0.000429287,NaN,-0.8281519,0.0004282494,NaN,-1.564415,-14.63569,NaN,-1.687979,-1.469561,-0.05349762,14.10173,NaN,NaN,-0.1284541,0.8146049,-2.60669E-07,1.049052,1.434012E-08,1.328144
870.4426,-0.01447927,0.0004294641,NaN,-0.8285717,0.0004277262,NaN,-1.564215,-14.6367,NaN,-1.6911,-1.479632,-0.04811272,14.11253,NaN,NaN,-0.128005,0.8139498,-2.715096E-07,1.063767,1.195594E-08,1.336807
870.4574,-0.01447927,0.0004294641,NaN,-0.8285717,0.0004277262,NaN,-1.564215,-14.6367,NaN,-1.6911,-1.479632,-0.04811272,14.11253,NaN,NaN,-0.128005,0.8139498,-2.715096E-07,1.063767,1.195594E-08,1.336807
870.4712,-0.01447896,0.0004294336,NaN,-0.8290375,0.0004281296,NaN,-1.564048,-14.63555,NaN,-1.694479,-1.469618,-0.04283658,14.10179,NaN,NaN,-0.1275647,0.8148477,-2.79668E-07,1.049144,1.195594E-08,1.327904
870.4869,-0.01447857,0.0004297819,NaN,-0.8295298,0.0004278274,NaN,-1.563896,-14.63621,NaN,-1.697961,-1.480678,-0.03766583,14.1136,NaN,NaN,-0.127133,0.814577,-2.870813E-07,1.065289,9.571751E-09,1.33486
870.502,-0.01447813,0.0004298361,NaN,-0.830036,0.0004284657,NaN,-1.563749,-14.63572,NaN,-1.70147,-1.469434,-0.03259646,14.10161,NaN,NaN,-0.1267098,0.8148018,-2.929114E-07,1.048887,1.434012E-08,1.329893
870.5167,-0.01447813,0.0004298361,NaN,-0.830036,0.0004284657,NaN,-1.563749,-14.63572,NaN,-1.70147,-1.469434,-0.03259646,14.10161,NaN,NaN,-0.1267098,0.8148018,-2.929114E-07,1.048887,1.434012E-08,1.329893
870.5308,-0.01447754,0.0004301391,NaN,-0.830618,0.0004282047,NaN,-1.563498,-14.63563,NaN,-1.705542,-1.480075,-0.02606715,14.11287,NaN,NaN,-0.1261655,0.8152736,-3.032304E-07,1.064381,7.187566E-09,1.331733
870.5465,-0.01447683,0.0004307591,NaN,-0.8312442,0.0004277648,NaN,-1.563284,-14.63566,NaN,-1.709856,-1.482677,-0.01966903,14.11563,NaN,NaN,-0.1256319,0.8153046,-3.10234E-07,1.068173,9.571751E-09,1.332994
870.5613,-0.01447604,0.0004311042,NaN,-0.8318947,0.0004280575,NaN,-1.563086,-14.63544,NaN,-1.71426,-1.475111,-0.01339861,14.10756,NaN,NaN,-0.1251088,0.8153515,-3.155984E-07,1.05713,9.571751E-09,1.331715
870.5762,-0.01447604,0.0004311042,NaN,-0.8318947,0.0004280575,NaN,-1.563086,-14.63544,NaN,-1.71426,-1.475111,-0.01339861,14.10756,NaN,NaN,-0.1251088,0.8153515,-3.155984E-07,1.05713,9.571751E-09,1.331715
870.5903,-0.01447508,0.0004312884,NaN,-0.8326267,0.0004288656,NaN,-1.562773,-14.63602,NaN,-1.719252,-1.469243,-0.005687786,14.1014,NaN,NaN,-0.1244666,0.814608,-3.258895E-07,1.048595,7.187566E-09,1.333662
870.6066,-0.014474,0.0004316394,NaN,-0.8334057,0.0004288934,NaN,-1.562503,-14.63703,NaN,-1.724492,-1.477787,0.001868795,14.11059,NaN,NaN,-0.123837,0.8139048,-3.323575E-07,1.06109,7.187566E-09,1.33833
870.6205,-0.01447283,0.0004313961,NaN,-0.8342102,0.0004288708,NaN,-1.56225,-14.63538,NaN,-1.729819,-1.470698,0.009274611,14.10287,NaN,NaN,-0.1232197,0.8153623,-3.364879E-07,1.050702,2.419194E-09,1.325564
870.6355,-0.01447283,0.0004313961,NaN,-0.8342102,0.0004288708,NaN,-1.56225,-14.63538,NaN,-1.729819,-1.470698,0.009274611,14.10287,NaN,NaN,-0.1232197,0.8153623,-3.364879E-07,1.050702,2.419194E-09,1.325564
870.6495,-0.01447158,0.0004311513,NaN,-0.8350267,0.0004292823,NaN,-1.562003,-14.6362,NaN,-1.735152,-1.468499,0.0165356,14.10065,NaN,NaN,-0.1226146,0.8144803,-3.387976E-07,1.047536,3.500844E-11,1.331841
870.6652,-0.01447003,0.0004314303,NaN,-0.8359165,0.0004288946,NaN,-1.561615,-14.63667,NaN,-1.741024,-1.480868,0.02522539,14.11381,NaN,NaN,-0.121892,0.8144625,-3.428023E-07,1.065573,-4.733363E-09,1.336691
870.68,-0.01447003,0.0004314303,NaN,-0.8359165,0.0004288946,NaN,-1.561615,-14.63667,NaN,-1.741024,-1.480868,0.02522539,14.11381,NaN,NaN,-0.121892,0.8144625,-3.428023E-07,1.065573,-4.733363E-09,1.336691
870.6943,-0.01446816,0.0004313512,NaN,-0.8368473,0.0004291227,NaN,-1.561275,-14.63573,NaN,-1.747115,-1.470412,0.03374285,14.10262,NaN,NaN,-0.1211835,0.8151543,-3.455777E-07,1.050308,-2.349177E-09,1.32908
870.7098,-0.01446602,0.0004312217,NaN,-0.8377994,0.000429589,NaN,-1.560956,-14.63582,NaN,-1.753271,-1.46838,0.04208957,14.10046,NaN,NaN,-0.120489,0.8149911,-3.462482E-07,1.047348,-4.733363E-09,1.331448
870.7249,-0.01446365,0.0004314508,NaN,-0.8387603,0.0004292275,NaN,-1.560643,-14.63657,NaN,-1.759416,-1.480136,0.05027266,14.11303,NaN,NaN,-0.119808,0.81467,-3.455404E-07,1.064515,-7.117549E-09,1.335836
870.7397,-0.01446365,0.0004314508,NaN,-0.8387603,0.0004292275,NaN,-1.560643,-14.63657,NaN,-1.759416,-1.480136,0.05027266,14.11303,NaN,NaN,-0.119808,0.81467,-3.455404E-07,1.064515,-7.117549E-09,1.335836
870.7538,-0.01446086,0.0004315187,NaN,-0.8397224,0.0004300203,NaN,-1.560333,-14.6358,NaN,-1.765514,-1.468803,0.0582983,14.10092,NaN,NaN,-0.1191404,0.8151566,-3.434542E-07,1.047972,-4.733363E-09,1.332507
870.7693,-0.0144578,0.0004314944,NaN,-0.840681,0.000430612,NaN,-1.560024,-14.63616,NaN,-1.771544,-1.468171,0.06616838,14.10029,NaN,NaN,-0.1184858,0.8147784,-3.415543E-07,1.047067,-4.733363E-09,1.331433
870.7842,-0.01445456,0.0004312012,NaN,-0.8416331,0.0004309913,NaN,-1.559717,-14.63609,NaN,-1.777499,-1.467294,0.07388597,14.09934,NaN,NaN,-0.1178441,0.8148118,-3.381643E-07,1.045783,-7.117549E-09,1.328018
870.7991,-0.01445456,0.0004312012,NaN,-0.8416331,0.0004309913,NaN,-1.559717,-14.63609,NaN,-1.777499,-1.467294,0.07388597,14.09934,NaN,NaN,-0.1178441,0.8148118,-3.381643E-07,1.045783,-7.117549E-09,1.328018
870.8131,-0.01445141,0.0004311861,NaN,-0.8425076,0.0004304312,NaN,-1.559602,-14.63687,NaN,-1.782798,-1.479807,0.07987492,14.11271,NaN,NaN,-0.1173443,0.8144994,-3.326136E-07,1.064053,-9.501735E-09,1.336974
870.8297,-0.01444843,0.000430886,NaN,-0.8433304,0.0004307182,NaN,-1.55942,-14.6362,NaN,-1.787742,-1.467869,0.08574813,14.09998,NaN,NaN,-0.1168543,0.8148667,-3.279943E-07,1.046635,-1.427011E-08,1.329283
870.8436,-0.01444562,0.0004305546,NaN,-0.8441175,0.0004305166,NaN,-1.559211,-14.63736,NaN,-1.792475,-1.473412,0.09151765,14.10601,NaN,NaN,-0.1163739,0.8139265,-3.241572E-07,1.05477,-1.665429E-08,1.336417
870.8582,-0.01444562,0.0004305546,NaN,-0.8441175,0.0004305166,NaN,-1.559211,-14.63736,NaN,-1.792475,-1.473412,0.09151765,14.10601,NaN,NaN,-0.1163739,0.8139265,-3.241572E-07,1.05477,-1.665429E-08,1.336417
870.8735,-0.01444295,0.0004302473,NaN,-0.8448791,0.0004309898,NaN,-1.558992,-14.63634,NaN,-1.797069,-1.468115,0.09717912,14.10026,NaN,NaN,-0.1159029,0.8147669,-3.192399E-07,1.047011,-1.188592E-08,1.329898
870.8878,-0.01444059,0.0004304364,NaN,-0.8455522,0.0004305971,NaN,-1.558985,-14.63633,NaN,-1.800984,-1.48013,0.1011513,14.11299,NaN,NaN,-0.1155705,0.8152235,-3.141362E-07,1.064511,-1.188592E-08,1.334121
870.9027,-0.01443855,0.0004302818,NaN,-0.8461677,0.0004307159,NaN,-1.558901,-14.63615,NaN,-1.804541,-1.470291,0.1050436,14.10252,NaN,NaN,-0.1152446,0.8151521,-3.103737E-07,1.050157,-1.188592E-08,1.32992
870.9175,-0.01443855,0.0004302818,NaN,-0.8461677,0.0004307159,NaN,-1.558901,-14.63615,NaN,-1.804541,-1.470291,0.1050436,14.10252,NaN,NaN,-0.1152446,0.8151521,-3.103737E-07,1.050157,-1.188592E-08,1.32992
870.9317,-0.01443678,0.0004306812,NaN,-0.8467448,0.0004303743,NaN,-1.558782,-14.63703,NaN,-1.807895,-1.480767,0.1088731,14.11374,NaN,NaN,-0.1149251,0.8146386,-3.060523E-07,1.065465,-1.665429E-08,1.337468
870.9476,-0.01443521,0.0004306173,NaN,-0.8472958,0.0004305759,NaN,-1.558652,-14.63616,NaN,-1.811123,-1.469959,0.1126332,14.10218,NaN,NaN,-0.1146119,0.8152476,-3.014329E-07,1.049684,-1.665429E-08,1.329385
870.9625,-0.01443401,0.0004303229,NaN,-0.8477588,0.0004308818,NaN,-1.55875,-14.63633,NaN,-1.813689,-1.468106,0.1147412,14.10023,NaN,NaN,-0.1144341,0.8150148,-2.96143E-07,1.046987,-1.188592E-08,1.329531
870.9771,-0.01443401,0.0004303229,NaN,-0.8477588,0.0004308818,NaN,-1.55875,-14.63633,NaN,-1.813689,-1.468106,0.1147412,14.10023,NaN,NaN,-0.1144341,0.8150148,-2.96143E-07,1.046987,-1.188592E-08,1.329531
870.9914,-0.014433,0.0004300814,NaN,-0.8481654,0.0004313097,NaN,-1.558761,-14.63694,NaN,-1.815913,-1.46814,0.1168026,14.10034,NaN,NaN,-0.1142599,0.8144116,-2.929393E-07,1.047066,-7.117549E-09,1.333401
871.0068,-0.01443212,0.0004301445,NaN,-0.8485354,0.0004307956,NaN,-1.558732,-14.63721,NaN,-1.817953,-1.480093,0.1188388,14.11303,NaN,NaN,-0.114089,0.814583,-2.898846E-07,1.064482,-7.117549E-09,1.337581
871.0217,-0.01443129,0.0004302391,NaN,-0.8488812,0.0004314313,NaN,-1.558689,-14.63725,NaN,-1.819885,-1.470319,0.1208414,14.10266,NaN,NaN,-0.1139215,0.8142986,-2.863828E-07,1.050239,-4.733363E-09,1.33706
871.0365,-0.01443129,0.0004302391,NaN,-0.8488812,0.0004314313,NaN,-1.558689,-14.63725,NaN,-1.819885,-1.470319,0.1208414,14.10266,NaN,NaN,-0.1139215,0.8142986,-2.863828E-07,1.050239,-4.733363E-09,1.33706
871.0527,-0.01443063,0.0004301968,NaN,-0.8491411,0.0004320404,NaN,-1.558882,-14.63632,NaN,-1.821172,-1.467976,0.1212276,14.10005,NaN,NaN,-0.1138866,0.8151289,-2.82583E-07,1.046777,-1.188592E-08,1.330179
871.0667,-0.01443009,0.0004298341,NaN,-0.8493469,0.0004323544,NaN,-1.55898,-14.63654,NaN,-1.822137,-1.467451,0.1215987,14.09951,NaN,NaN,-0.1138523,0.8148917,-2.808694E-07,1.046021,-7.117549E-09,1.328466
871.0811,-0.01442962,0.0004300087,NaN,-0.8495184,0.0004319747,NaN,-1.559033,-14.63737,NaN,-1.822935,-1.479591,0.1219794,14.11249,NaN,NaN,-0.1138188,0.8145111,-2.784107E-07,1.06375,-2.349178E-09,1.338164
871.0959,-0.01442962,0.0004300087,NaN,-0.8495184,0.0004319747,NaN,-1.559033,-14.63737,NaN,-1.822935,-1.479591,0.1219794,14.11249,NaN,NaN,-0.1138188,0.8145111,-2.784107E-07,1.06375,-2.349178E-09,1.338164
871.1102,-0.01442932,0.0004298825,NaN,-0.8495986,0.0004324241,NaN,-1.559313,-14.63661,NaN,-1.823066,-1.467957,0.1207807,14.10007,NaN,NaN,-0.1139152,0.8149829,-2.75803E-07,1.046772,-4.733363E-09,1.330612
871.1257,-0.01442915,0.0004301627,NaN,-0.8496222,0.0004320341,NaN,-1.559487,-14.63677,NaN,-1.822872,-1.480231,0.1195999,14.1131,NaN,NaN,-0.1140097,0.8152881,-2.748344E-07,1.064662,-7.117549E-09,1.335794
871.1404,-0.01442907,0.0004301663,NaN,-0.8496124,0.0004325742,NaN,-1.559611,-14.63653,NaN,-1.822517,-1.469359,0.1184609,14.10152,NaN,NaN,-0.1141023,0.8152533,-2.730462E-07,1.048797,-1.427011E-08,1.330902
871.1554,-0.01442907,0.0004301663,NaN,-0.8496124,0.0004325742,NaN,-1.559611,-14.63653,NaN,-1.822517,-1.469359,0.1184609,14.10152,NaN,NaN,-0.1141023,0.8152533,-2.730462E-07,1.048797,-1.427011E-08,1.330902
871.1696,-0.01442904,0.000429873,NaN,-0.849582,0.0004329087,NaN,-1.559713,-14.63664,NaN,-1.822085,-1.468064,0.1173527,14.10015,NaN,NaN,-0.1141932,0.815088,-2.708111E-07,1.046912,-9.501735E-09,1.329589
871.1852,-0.01442918,0.0004302684,NaN,-0.8494697,0.0004326623,NaN,-1.560047,-14.63717,NaN,-1.821039,-1.480242,0.1146909,14.11314,NaN,NaN,-0.1144116,0.815001,-2.680544E-07,1.064683,-9.501735E-09,1.337026
871.2,-0.01442943,0.0004303822,NaN,-0.8493075,0.0004334645,NaN,-1.560275,-14.63729,NaN,-1.819703,-1.468613,0.1120754,14.1008,NaN,NaN,-0.1146257,0.8145974,-2.673838E-07,1.047733,-7.11755E-09,1.335633
871.2151,-0.01442943,0.0004303822,NaN,-0.8493075,0.0004334645,NaN,-1.560275,-14.63729,NaN,-1.819703,-1.468613,0.1120754,14.1008,NaN,NaN,-0.1146257,0.8145974,-2.673838E-07,1.047733,-7.11755E-09,1.335633
871.2291,-0.01442975,0.0004301772,NaN,-0.8491151,0.0004338933,NaN,-1.560451,-14.63736,NaN,-1.818234,-1.467664,0.10953,14.0998,NaN,NaN,-0.1148356,0.8144838,-2.658192E-07,1.046352,-7.11755E-09,1.332376
871.2446,-0.01443013,0.0004304116,NaN,-0.848905,0.0004340596,NaN,-1.560602,-14.63868,NaN,-1.816708,-1.474729,0.1070431,14.10746,NaN,NaN,-0.1150414,0.8134274,-2.64031E-07,1.056709,-4.733364E-09,1.342802
871.2594,-0.01443013,0.0004304116,NaN,-0.848905,0.0004340596,NaN,-1.560602,-14.63868,NaN,-1.816708,-1.474729,0.1070431,14.10746,NaN,NaN,-0.1150414,0.8134274,-2.64031E-07,1.056709,-4.733364E-09,1.342802
871.2747,-0.01443066,0.000430301,NaN,-0.8486156,0.0004343675,NaN,-1.560976,-14.63738,NaN,-1.814587,-1.46973,0.1030301,14.102,NaN,NaN,-0.1153724,0.8145682,-2.612743E-07,1.049377,-4.733364E-09,1.333019
871.289,-0.01443132,0.0004296933,NaN,-0.8482785,0.0004341324,NaN,-1.561242,-14.63772,NaN,-1.812194,-1.469649,0.09909287,14.10196,NaN,NaN,-0.115697,0.8142202,-2.60045E-07,1.049277,-4.733364E-09,1.335689
871.3038,-0.01443205,0.0004291766,NaN,-0.8479136,0.0004343909,NaN,-1.561453,-14.6378,NaN,-1.809682,-1.467415,0.0952519,14.0996,NaN,NaN,-0.1160153,0.8140641,-2.583686E-07,1.046028,-7.11755E-09,1.334693
871.3186,-0.01443205,0.0004291766,NaN,-0.8479136,0.0004343909,NaN,-1.561453,-14.6378,NaN,-1.809682,-1.467415,0.0952519,14.0996,NaN,NaN,-0.1160153,0.8140641,-2.583686E-07,1.046028,-7.11755E-09,1.334693
871.3344,-0.01443296,0.0004283078,NaN,-0.8474637,0.0004341867,NaN,-1.561864,-14.63757,NaN,-1.806554,-1.4678,0.08991646,14.09997,NaN,NaN,-0.1164566,0.8143033,-2.54159E-07,1.046576,-7.11755E-09,1.334617
871.3483,-0.014434,0.0004277377,NaN,-0.8469635,0.0004345641,NaN,-1.562161,-14.6382,NaN,-1.803149,-1.46702,0.08468813,14.09923,NaN,NaN,-0.1168893,0.8136421,-2.527434E-07,1.045472,-4.733364E-09,1.337596
871.3635,-0.01443512,0.0004276028,NaN,-0.8464344,0.0004341457,NaN,-1.562398,-14.63916,NaN,-1.799631,-1.478317,0.07958241,14.11131,NaN,NaN,-0.1173135,0.8131108,-2.50322E-07,1.061961,-7.11755E-09,1.3457
871.3783,-0.01443512,0.0004276028,NaN,-0.8464344,0.0004341457,NaN,-1.562398,-14.63916,NaN,-1.799631,-1.478317,0.07958241,14.11131,NaN,NaN,-0.1173135,0.8131108,-2.50322E-07,1.061961,-7.11755E-09,1.3457
871.3926,-0.0144363,0.0004279435,NaN,-0.8458899,0.0004334178,NaN,-1.562604,-14.63839,NaN,-1.796082,-1.48228,0.0745867,14.1154,NaN,NaN,-0.1177294,0.8139684,-2.473045E-07,1.067698,-7.11755E-09,1.343282
871.408,-0.01443773,0.0004282891,NaN,-0.845269,0.0004334139,NaN,-1.563003,-14.63822,NaN,-1.791967,-1.476766,0.06811596,14.10954,NaN,NaN,-0.1182664,0.8140109,-2.431322E-07,1.059658,-7.11755E-09,1.342654
871.4229,-0.0144395,0.0004281825,NaN,-0.8446037,0.0004323877,NaN,-1.563293,-14.63811,NaN,-1.787608,-1.481121,0.06177786,14.11413,NaN,NaN,-0.118793,0.8142343,-2.397235E-07,1.065993,-7.11755E-09,1.341345
871.4377,-0.0144395,0.0004281825,NaN,-0.8446037,0.0004323877,NaN,-1.563293,-14.63811,NaN,-1.787608,-1.481121,0.06177786,14.11413,NaN,NaN,-0.118793,0.8142343,-2.397235E-07,1.065993,-7.11755E-09,1.341345
871.4519,-0.01444155,0.0004274902,NaN,-0.843914,0.0004318132,NaN,-1.563526,-14.63751,NaN,-1.783159,-1.468737,0.05558289,14.10093,NaN,NaN,-0.1193092,0.8145199,-2.364825E-07,1.047932,-1.188592E-08,1.336685
871.4672,-0.01444382,0.0004270143,NaN,-0.8432124,0.0004311669,NaN,-1.563726,-14.63788,NaN,-1.778697,-1.474239,0.04951916,14.10682,NaN,NaN,-0.1198153,0.8143353,-2.322171E-07,1.05597,-9.501736E-09,1.338299
871.4827,-0.01444648,0.0004265271,NaN,-0.8424371,0.0004308643,NaN,-1.564098,-14.63784,NaN,-1.773686,-1.471588,0.04200348,14.10401,NaN,NaN,-0.1204409,0.8142779,-2.272438E-07,1.052113,-1.188592E-08,1.337764
871.4981,-0.01444648,0.0004265271,NaN,-0.8424371,0.0004308643,NaN,-1.564098,-14.63784,NaN,-1.773686,-1.471588,0.04200348,14.10401,NaN,NaN,-0.1204409,0.8142779,-2.272438E-07,1.052113,-1.188592E-08,1.337764
871.5112,-0.01444951,0.0004257032,NaN,-0.84162,0.0004306392,NaN,-1.564365,-14.63763,NaN,-1.768445,-1.4675,0.03464573,14.09965,NaN,NaN,-0.1210541,0.8143319,-2.222892E-07,1.046153,-1.427011E-08,1.331369
871.5269,-0.01445284,0.0004255993,NaN,-0.8407807,0.0004300289,NaN,-1.564577,-14.63869,NaN,-1.763128,-1.478858,0.02745022,14.11183,NaN,NaN,-0.1216554,0.8136921,-2.163892E-07,1.06275,-1.188592E-08,1.341637
871.5414,-0.01445641,0.0004251387,NaN,-0.8399314,0.0004299997,NaN,-1.564756,-14.63757,NaN,-1.757812,-1.467872,0.02040559,14.10007,NaN,NaN,-0.1222449,0.8145164,-2.094158E-07,1.046721,-1.188592E-08,1.331703
871.5565,-0.01445641,0.0004251387,NaN,-0.8399314,0.0004299997,NaN,-1.564756,-14.63757,NaN,-1.757812,-1.467872,0.02040559,14.10007,NaN,NaN,-0.1222449,0.8145164,-2.094158E-07,1.046721,-1.188592E-08,1.331703
871.5705,-0.01446036,0.0004251739,NaN,-0.8390105,0.0004292965,NaN,-1.565082,-14.63855,NaN,-1.751959,-1.480516,0.01193243,14.1136,NaN,NaN,-0.1229521,0.8140078,-2.006567E-07,1.065186,-9.501736E-09,1.341891
871.5864,-0.01446467,0.000425543,NaN,-0.8380495,0.0004283552,NaN,-1.565309,-14.63837,NaN,-1.745889,-1.483148,0.00363999,14.11636,NaN,NaN,-0.1236455,0.8142478,-1.91418E-07,1.069012,-1.427011E-08,1.341194
871.6011,-0.01446929,0.0004257158,NaN,-0.8370681,0.0004279962,NaN,-1.565484,-14.6372,NaN,-1.739755,-1.475839,-0.004473035,14.10848,NaN,NaN,-0.1243253,0.815249,-1.830547E-07,1.058326,-1.665429E-08,1.333754
871.616,-0.01446929,0.0004257158,NaN,-0.8370681,0.0004279962,NaN,-1.565484,-14.6372,NaN,-1.739755,-1.475839,-0.004473035,14.10848,NaN,NaN,-0.1243253,0.815249,-1.830547E-07,1.058326,-1.665429E-08,1.333754
871.6302,-0.01447434,0.000425915,NaN,-0.8360091,0.0004273262,NaN,-1.565774,-14.63886,NaN,-1.73306,-1.479821,-0.01398566,14.11291,NaN,NaN,-0.1251212,0.8137099,-1.696809E-07,1.064198,-1.903848E-08,1.340051
871.6458,-0.0144798,0.0004259671,NaN,-0.8349071,0.0004274796,NaN,-1.565967,-14.63863,NaN,-1.72614,-1.471431,-0.02329339,14.104,NaN,NaN,-0.1259014,0.8137279,-1.58058E-07,1.051975,-1.427011E-08,1.336113
871.6607,-0.01448559,0.0004257096,NaN,-0.8337834,0.0004275482,NaN,-1.566108,-14.6378,NaN,-1.719158,-1.469596,-0.03240188,14.10193,NaN,NaN,-0.1266663,0.8144971,-1.459881E-07,1.049261,-1.188592E-08,1.330453
871.6756,-0.01448559,0.0004257096,NaN,-0.8337834,0.0004275482,NaN,-1.566108,-14.6378,NaN,-1.719158,-1.469596,-0.03240188,14.10193,NaN,NaN,-0.1266663,0.8144971,-1.459881E-07,1.049261,-1.188592E-08,1.330453
871.6896,-0.01449163,0.0004258022,NaN,-0.8326513,0.0004268778,NaN,-1.566216,-14.63834,NaN,-1.712196,-1.480491,-0.04132145,14.11354,NaN,NaN,-0.1274162,0.8143328,-1.336573E-07,1.065154,-9.501736E-09,1.337361
871.7072,-0.01449534,0.0004262021,NaN,-0.8323507,0.0004263864,NaN,-1.564899,-14.63902,NaN,-1.712171,-1.480247,-0.03133762,14.11336,NaN,NaN,-0.1265992,0.813647,-1.814901E-07,1.064819,-9.501736E-09,1.340862
871.7209,-0.01449623,0.0004264318,NaN,-0.832563,0.0004264455,NaN,-1.564198,-14.63724,NaN,-1.715503,-1.47446,-0.02163321,14.10702,NaN,NaN,-0.1257983,0.8152725,-2.096533E-07,1.056329,-7.117551E-09,1.328939
871.7349,-0.01449623,0.0004264318,NaN,-0.832563,0.0004264455,NaN,-1.564198,-14.63724,NaN,-1.715503,-1.47446,-0.02163321,14.10702,NaN,NaN,-0.1257983,0.8152725,-2.096533E-07,1.056329,-7.117551E-09,1.328939
871.7488,-0.01449576,0.0004265857,NaN,-0.833091,0.0004272501,NaN,-1.563739,-14.63758,NaN,-1.720482,-1.468682,-0.01218258,14.10092,NaN,NaN,-0.1250132,0.8147608,-2.280236E-07,1.047916,-1.188592E-08,1.329972
871.7643,-0.01449463,0.0004266339,NaN,-0.8338113,0.0004278013,NaN,-1.56337,-14.6383,NaN,-1.726253,-1.468977,-0.002939529,14.10132,NaN,NaN,-0.1242434,0.8140411,-2.416488E-07,1.048381,-7.11755E-09,1.333796
871.7793,-0.01449463,0.0004266339,NaN,-0.8338113,0.0004278013,NaN,-1.56337,-14.6383,NaN,-1.726253,-1.468977,-0.002939529,14.10132,NaN,NaN,-0.1242434,0.8140411,-2.416488E-07,1.048381,-7.11755E-09,1.333796
871.7935,-0.01449325,0.0004269173,NaN,-0.8345779,0.0004277707,NaN,-1.563166,-14.63892,NaN,-1.731809,-1.477405,0.004549578,14.11032,NaN,NaN,-0.1236182,0.8137289,-2.4627E-07,1.060677,-1.427011E-08,1.3394
871.8105,-0.01449158,0.0004273839,NaN,-0.8353695,0.0004272435,NaN,-1.562928,-14.63808,NaN,-1.737234,-1.482661,0.01189509,14.11577,NaN,NaN,-0.1230052,0.8146973,-2.505924E-07,1.068292,-1.188592E-08,1.336781
871.8238,-0.01448967,0.0004277051,NaN,-0.8361731,0.0004275343,NaN,-1.562675,-14.63719,NaN,-1.74256,-1.474837,0.01910326,14.10737,NaN,NaN,-0.1224042,0.8154079,-2.539871E-07,1.056859,-1.665429E-08,1.330072
871.839,-0.01448967,0.0004277051,NaN,-0.8361731,0.0004275343,NaN,-1.562675,-14.63719,NaN,-1.74256,-1.474837,0.01910326,14.10737,NaN,NaN,-0.1224042,0.8154079,-2.539871E-07,1.056859,-1.665429E-08,1.330072
871.8531,-0.01448783,0.0004279535,NaN,-0.836911,0.0004281357,NaN,-1.562568,-14.63837,NaN,-1.747226,-1.471384,0.02460294,14.10384,NaN,NaN,-0.1219444,0.8141283,-2.539871E-07,1.051872,-1.188592E-08,1.336348
871.8684,-0.01448611,0.0004278503,NaN,-0.8376052,0.0004285057,NaN,-1.562407,-14.63737,NaN,-1.751541,-1.468737,0.03000138,14.1009,NaN,NaN,-0.1214937,0.8150336,-2.551699E-07,1.047967,-9.501736E-09,1.326868
871.8834,-0.01448451,0.0004276693,NaN,-0.8382693,0.0004290182,NaN,-1.562223,-14.63786,NaN,-1.755651,-1.46706,0.0353028,14.09918,NaN,NaN,-0.1210518,0.8144791,-2.556355E-07,1.045545,-1.665429E-08,1.329418
871.8983,-0.01448451,0.0004276693,NaN,-0.8382693,0.0004290182,NaN,-1.562223,-14.63786,NaN,-1.755651,-1.46706,0.0353028,14.09918,NaN,NaN,-0.1210518,0.8144791,-2.556355E-07,1.045545,-1.665429E-08,1.329418
871.9125,-0.01448303,0.0004281115,NaN,-0.8389118,0.0004288304,NaN,-1.562031,-14.63771,NaN,-1.759629,-1.479661,0.04050441,14.11249,NaN,NaN,-0.1206185,0.8150976,-2.561198E-07,1.063884,-1.665429E-08,1.333332
871.9301,-0.01448186,0.0004280932,NaN,-0.8394688,0.0004293912,NaN,-1.562009,-14.63772,NaN,-1.762939,-1.468351,0.04403115,14.10049,NaN,NaN,-0.1203231,0.8148039,-2.536798E-07,1.047394,-2.142266E-08,1.328884
871.9439,-0.01448086,0.0004275676,NaN,-0.8399705,0.000429591,NaN,-1.561925,-14.6376,NaN,-1.7659,-1.467103,0.0474935,14.09914,NaN,NaN,-0.1200336,0.8148692,-2.531396E-07,1.045566,-2.142266E-08,1.326853
871.9577,-0.01448086,0.0004275676,NaN,-0.8399705,0.000429591,NaN,-1.561925,-14.6376,NaN,-1.7659,-1.467103,0.0474935,14.09914,NaN,NaN,-0.1200336,0.8148692,-2.531396E-07,1.045566,-2.142266E-08,1.326853
871.9718,-0.01447998,0.0004269848,NaN,-0.8404358,0.000429772,NaN,-1.561814,-14.63803,NaN,-1.768667,-1.468107,0.05089782,14.10026,NaN,NaN,-0.1197497,0.8144715,-2.529533E-07,1.047048,-2.142266E-08,1.329344
871.9875,-0.01447915,0.0004269079,NaN,-0.8408766,0.0004294054,NaN,-1.561695,-14.63894,NaN,-1.771315,-1.478139,0.05423956,14.111,NaN,NaN,-0.1194714,0.8139307,-2.519103E-07,1.061704,-2.380685E-08,1.338711
872.0023,-0.0144785,0.0004267636,NaN,-0.8412309,0.0004295261,NaN,-1.561757,-14.63866,NaN,-1.773311,-1.471095,0.05594061,14.10351,NaN,NaN,-0.1193279,0.814024,-2.491163E-07,1.051436,-2.142266E-08,1.334325
872.017,-0.0144785,0.0004267636,NaN,-0.8412309,0.0004295261,NaN,-1.561757,-14.63866,NaN,-1.773311,-1.471095,0.05594061,14.10351,NaN,NaN,-0.1193279,0.814024,-2.491163E-07,1.051436,-2.142266E-08,1.334325
872.0314,-0.01447796,0.0004262804,NaN,-0.8415303,0.0004297512,NaN,-1.561749,-14.63756,NaN,-1.774974,-1.467332,0.05761209,14.09937,NaN,NaN,-0.1191872,0.8149825,-2.478497E-07,1.045901,-1.665429E-08,1.327916
872.0471,-0.0144775,0.0004258988,NaN,-0.8417945,0.0004302882,NaN,-1.56171,-14.63784,NaN,-1.776461,-1.466576,0.059262,14.0986,NaN,NaN,-0.1190493,0.8146718,-2.466949E-07,1.044813,-1.427011E-08,1.329742
872.062,-0.01447708,0.0004258135,NaN,-0.8420357,0.0004310205,NaN,-1.561661,-14.63858,NaN,-1.777848,-1.466753,0.06088426,14.09888,NaN,NaN,-0.1189142,0.8139446,-2.45391E-07,1.045107,-1.188592E-08,1.334835
872.0768,-0.01447708,0.0004258135,NaN,-0.8420357,0.0004310205,NaN,-1.561661,-14.63858,NaN,-1.777848,-1.466753,0.06088426,14.09888,NaN,NaN,-0.1189142,0.8139446,-2.45391E-07,1.045107,-1.188592E-08,1.334835
872.0909,-0.01447683,0.0004259066,NaN,-0.8421924,0.0004312132,NaN,-1.561799,-14.63911,NaN,-1.778599,-1.473033,0.06089893,14.1056,NaN,NaN,-0.118911,0.813656,-2.426343E-07,1.054274,-1.188592E-08,1.337713
872.1064,-0.0144767,0.0004264329,NaN,-0.8422961,0.0004309723,NaN,-1.561859,-14.63771,NaN,-1.779035,-1.480715,0.06091694,14.11353,NaN,NaN,-0.1189079,0.8152803,-2.416657E-07,1.065387,-1.665429E-08,1.333983
872.1215,-0.01447665,0.0004269225,NaN,-0.8423668,0.0004305811,NaN,-1.561885,-14.63899,NaN,-1.779313,-1.480904,0.060947,14.11387,NaN,NaN,-0.1189049,0.8140004,-2.402501E-07,1.065705,-1.903848E-08,1.338756
872.136,-0.01447665,0.0004269225,NaN,-0.8423668,0.0004305811,NaN,-1.561885,-14.63899,NaN,-1.779313,-1.480904,0.060947,14.11387,NaN,NaN,-0.1189049,0.8140004,-2.402501E-07,1.065705,-1.903848E-08,1.338756
872.1525,-0.01447679,0.0004272482,NaN,-0.842349,0.0004310213,NaN,-1.56209,-14.63732,NaN,-1.778931,-1.47345,0.05940415,14.10578,NaN,NaN,-0.1190313,0.8154817,-2.378287E-07,1.05479,-1.903848E-08,1.326524
872.1658,-0.01447707,0.0004272313,NaN,-0.8422768,0.0004315039,NaN,-1.562208,-14.63767,NaN,-1.778233,-1.469077,0.05789727,14.10118,NaN,NaN,-0.1191553,0.8149898,-2.364503E-07,1.048427,-1.903848E-08,1.328372
872.1816,-0.01447743,0.0004274255,NaN,-0.8421712,0.0004310001,NaN,-1.562288,-14.6385,NaN,-1.777381,-1.48034,0.05643378,14.11322,NaN,NaN,-0.1192768,0.8145689,-2.347367E-07,1.064879,-2.142266E-08,1.335771
872.1959,-0.01447743,0.0004274255,NaN,-0.8421712,0.0004310001,NaN,-1.562288,-14.6385,NaN,-1.777381,-1.48034,0.05643378,14.11322,NaN,NaN,-0.1192768,0.8145689,-2.347367E-07,1.064879,-2.142266E-08,1.335771
872.2096,-0.01447783,0.0004278028,NaN,-0.8420455,0.0004311444,NaN,-1.56235,-14.63945,NaN,-1.776459,-1.476294,0.05500514,14.10903,NaN,NaN,-0.119396,0.8135077,-2.330976E-07,1.059011,-1.903848E-08,1.340181
872.2255,-0.01447842,0.000427779,NaN,-0.8418388,0.0004315608,NaN,-1.562593,-14.63764,NaN,-1.774933,-1.469623,0.05203027,14.10174,NaN,NaN,-0.1196422,0.8151104,-2.293723E-07,1.049224,-1.665429E-08,1.328199
872.24,-0.01447842,0.000427779,NaN,-0.8418388,0.0004315608,NaN,-1.562593,-14.63764,NaN,-1.774933,-1.469623,0.05203027,14.10174,NaN,NaN,-0.1196422,0.8151104,-2.293723E-07,1.049224,-1.665429E-08,1.328199
872.2543,-0.01447912,0.0004276233,NaN,-0.8415828,0.0004320507,NaN,-1.56275,-14.63783,NaN,-1.773123,-1.468091,0.04911984,14.10013,NaN,NaN,-0.1198836,0.8148608,-2.272675E-07,1.046997,-7.117551E-09,1.329529
872.2719,-0.0144799,0.0004271191,NaN,-0.8412977,0.0004322582,NaN,-1.562866,-14.63812,NaN,-1.771187,-1.467391,0.04628033,14.09943,NaN,NaN,-0.1201202,0.8145345,-2.247716E-07,1.04599,-7.117551E-09,1.328052
872.2849,-0.01448073,0.0004269065,NaN,-0.8409958,0.0004318539,NaN,-1.562962,-14.63932,NaN,-1.7692,-1.476715,0.04350295,14.10947,NaN,NaN,-0.1203522,0.813683,-2.224619E-07,1.05963,-4.733365E-09,1.338554
872.2998,-0.01448073,0.0004269065,NaN,-0.8409958,0.0004318539,NaN,-1.562962,-14.63932,NaN,-1.7692,-1.476715,0.04350295,14.10947,NaN,NaN,-0.1203522,0.813683,-2.224619E-07,1.05963,-4.733365E-09,1.338554
872.3138,-0.01448174,0.0004269115,NaN,-0.8406156,0.0004308586,NaN,-1.56323,-14.63823,NaN,-1.766627,-1.481919,0.03920748,14.11483,NaN,NaN,-0.1207091,0.8148991,-2.185876E-07,1.067159,-4.733365E-09,1.3328
872.3297,-0.01448287,0.0004266226,NaN,-0.8401887,0.0004305379,NaN,-1.56341,-14.63737,NaN,-1.763788,-1.470777,0.0350046,14.1029,NaN,NaN,-0.1210589,0.815494,-2.158588E-07,1.050886,-2.34918E-09,1.3265
872.3444,-0.01448409,0.0004263164,NaN,-0.839735,0.000430157,NaN,-1.563548,-14.6371,NaN,-1.760838,-1.472335,0.03089812,14.10452,NaN,NaN,-0.121402,0.8157883,-2.124595E-07,1.053147,-7.117551E-09,1.323737
872.359,-0.01448409,0.0004263164,NaN,-0.839735,0.000430157,NaN,-1.563548,-14.6371,NaN,-1.760838,-1.472335,0.03089812,14.10452,NaN,NaN,-0.121402,0.8157883,-2.124595E-07,1.053147,-7.117551E-09,1.323737
872.3752,-0.01448568,0.0004254507,NaN,-0.8391975,0.0004296351,NaN,-1.563836,-14.6377,NaN,-1.757278,-1.467374,0.025305,14.09933,NaN,NaN,-0.1218677,0.8150188,-2.060427E-07,1.045942,-1.665429E-08,1.327283
872.3887,-0.01448766,0.0004250127,NaN,-0.8386105,0.0004300373,NaN,-1.564032,-14.63819,NaN,-1.753448,-1.46702,0.01983358,14.09902,NaN,NaN,-0.1223242,0.8145002,-2.016236E-07,1.045453,-1.665429E-08,1.330782
872.4036,-0.01448997,0.0004251427,NaN,-0.8379956,0.0004302602,NaN,-1.564183,-14.63934,NaN,-1.74951,-1.47362,0.0144842,14.10617,NaN,NaN,-0.1227718,0.8135936,-1.976026E-07,1.055128,-1.665429E-08,1.338315
872.4183,-0.01448997,0.0004251427,NaN,-0.8379956,0.0004302602,NaN,-1.564183,-14.63934,NaN,-1.74951,-1.47362,0.0144842,14.10617,NaN,NaN,-0.1227718,0.8135936,-1.976026E-07,1.055128,-1.665429E-08,1.338315
872.433,-0.01449252,0.0004252847,NaN,-0.8373664,0.0004305209,NaN,-1.564309,-14.63935,NaN,-1.745547,-1.473184,0.009247322,14.10571,NaN,NaN,-0.1232107,0.8135583,-1.923359E-07,1.054495,-2.142266E-08,1.336029
872.4482,-0.0144955,0.000424671,NaN,-0.8366618,0.0004303551,NaN,-1.564575,-14.6383,NaN,-1.741026,-1.467245,0.002547125,14.09929,NaN,NaN,-0.1237703,0.8144071,-1.83805E-07,1.045805,-2.380685E-08,1.329314
872.4631,-0.01449886,0.0004249473,NaN,-0.8359137,0.0004298585,NaN,-1.564756,-14.63786,NaN,-1.736265,-1.47931,-0.004008486,14.112,NaN,NaN,-0.124319,0.8152999,-1.771181E-07,1.063349,-2.380685E-08,1.330236
872.4782,-0.01449886,0.0004249473,NaN,-0.8359137,0.0004298585,NaN,-1.564756,-14.63786,NaN,-1.736265,-1.47931,-0.004008486,14.112,NaN,NaN,-0.124319,0.8152999,-1.771181E-07,1.063349,-2.380685E-08,1.330236
872.4924,-0.01450254,0.0004249403,NaN,-0.8351423,0.0004297065,NaN,-1.564893,-14.63889,NaN,-1.731421,-1.47207,-0.0104219,14.10443,NaN,NaN,-0.1248569,0.8140754,-1.701146E-07,1.052831,-1.903848E-08,1.33042
872.5079,-0.01450646,0.0004243523,NaN,-0.8343598,0.0004292355,NaN,-1.565006,-14.63904,NaN,-1.726568,-1.46949,-0.01670199,14.10172,NaN,NaN,-0.1253843,0.8138355,-1.629807E-07,1.049081,-1.665429E-08,1.331486
872.5234,-0.01451078,0.0004246873,NaN,-0.8335047,0.0004287564,NaN,-1.565236,-14.63926,NaN,-1.721174,-1.479484,-0.02441922,14.11231,NaN,NaN,-0.1260307,0.8139638,-1.521401E-07,1.063634,-1.903848E-08,1.334211
872.5378,-0.01451078,0.0004246873,NaN,-0.8335047,0.0004287564,NaN,-1.565236,-14.63926,NaN,-1.721174,-1.479484,-0.02441922,14.11231,NaN,NaN,-0.1260307,0.8139638,-1.521401E-07,1.063634,-1.903848E-08,1.334211
872.552,-0.01451549,0.0004247908,NaN,-0.8326086,0.0004295207,NaN,-1.565388,-14.63904,NaN,-1.715554,-1.468017,-0.03197037,14.10014,NaN,NaN,-0.1266645,0.8138946,-1.425661E-07,1.046927,-1.903848E-08,1.331152
872.5674,-0.0145205,0.000424248,NaN,-0.8316912,0.0004295989,NaN,-1.565498,-14.63863,NaN,-1.709863,-1.4672,-0.03936068,14.09921,NaN,NaN,-0.1272858,0.8142626,-1.326568E-07,1.045714,-2.380685E-08,1.327687
872.5844,-0.01452573,0.0004235586,NaN,-0.8307648,0.000429748,NaN,-1.565584,-14.63871,NaN,-1.704177,-1.466805,-0.04659844,14.0988,NaN,NaN,-0.1278949,0.8141596,-1.235671E-07,1.04514,-2.142266E-08,1.327912
872.5986,-0.01452573,0.0004235586,NaN,-0.8307648,0.000429748,NaN,-1.565584,-14.63871,NaN,-1.704177,-1.466805,-0.04659844,14.0988,NaN,NaN,-0.1278949,0.8141596,-1.235671E-07,1.04514,-2.142266E-08,1.327912
872.6114,-0.01453137,0.0004233159,NaN,-0.8297676,0.0004304595,NaN,-1.565762,-14.63916,NaN,-1.697961,-1.466387,-0.05524678,14.09841,NaN,NaN,-0.1286215,0.8136883,-1.070268E-07,1.044554,-1.665429E-08,1.331833
872.6269,-0.01453738,0.000422851,NaN,-0.8287312,0.0004308085,NaN,-1.565869,-14.63939,NaN,-1.691533,-1.466441,-0.06371045,14.09849,NaN,NaN,-0.1293339,0.8134638,-9.331773E-08,1.044642,-1.665429E-08,1.330247
872.6418,-0.01454368,0.0004221718,NaN,-0.8276753,0.0004309976,NaN,-1.565938,-14.63931,NaN,-1.685044,-1.466519,-0.07199655,14.09856,NaN,NaN,-0.1300322,0.8135328,-7.960866E-08,1.04475,-1.427011E-08,1.330033
872.6563,-0.01454368,0.0004221718,NaN,-0.8276753,0.0004309976,NaN,-1.565938,-14.63931,NaN,-1.685044,-1.466519,-0.07199655,14.09856,NaN,NaN,-0.1300322,0.8135328,-7.960866E-08,1.04475,-1.427011E-08,1.330033
872.6706,-0.01454979,0.0004219072,NaN,-0.8266125,0.0004315978,NaN,-1.565984,-14.63937,NaN,-1.678573,-1.467443,-0.08011247,14.09953,NaN,NaN,-0.130716,0.8135085,-6.642114E-08,1.046094,-1.903848E-08,1.330132
872.6861,-0.01455581,0.0004223416,NaN,-0.82555,0.0004314461,NaN,-1.566013,-14.63927,NaN,-1.672157,-1.479804,-0.08806355,14.11258,NaN,NaN,-0.1313864,0.8140598,-5.338262E-08,1.064071,-1.903848E-08,1.334419
872.701,-0.01456179,0.0004223898,NaN,-0.8244926,0.0004322651,NaN,-1.566029,-14.63956,NaN,-1.665813,-1.467208,-0.09585392,14.09928,NaN,NaN,-0.1320436,0.8134435,-4.123817E-08,1.04574,-9.501735E-09,1.331845
872.716,-0.01456179,0.0004223898,NaN,-0.8244926,0.0004322651,NaN,-1.566029,-14.63956,NaN,-1.665813,-1.467208,-0.09585392,14.09928,NaN,NaN,-0.1320436,0.8134435,-4.123817E-08,1.04574,-9.501735E-09,1.331845
872.7302,-0.01456776,0.0004225507,NaN,-0.8234431,0.0004332111,NaN,-1.566034,-14.64011,NaN,-1.659551,-1.466942,-0.1034873,14.09907,NaN,NaN,-0.132688,0.8128746,-2.805065E-08,1.04538,-1.188592E-08,1.335888
872.749,-0.01457353,0.0004226734,NaN,-0.8224723,0.0004327928,NaN,-1.565967,-14.64058,NaN,-1.653947,-1.47965,-0.1094258,14.11255,NaN,NaN,-0.1331904,0.8128803,-2.313326E-08,1.063881,-1.188592E-08,1.33915
872.7622,-0.01457905,0.0004223959,NaN,-0.8215546,0.0004330003,NaN,-1.565929,-14.64015,NaN,-1.648705,-1.468037,-0.1152503,14.10023,NaN,NaN,-0.133683,0.813013,-1.657675E-08,1.046975,-9.501735E-09,1.33451
872.7757,-0.01457905,0.0004223959,NaN,-0.8215546,0.0004330003,NaN,-1.565929,-14.64015,NaN,-1.648705,-1.468037,-0.1152503,14.10023,NaN,NaN,-0.133683,0.813013,-1.657675E-08,1.046975,-9.501735E-09,1.33451
872.7897,-0.01458437,0.0004221021,NaN,-0.8206737,0.0004331152,NaN,-1.565902,-14.64083,NaN,-1.643679,-1.470273,-0.120961,14.10267,NaN,NaN,-0.1341659,0.8124158,-8.232102E-09,1.050256,-7.117549E-09,1.338533
872.8072,-0.01458951,0.0004218485,NaN,-0.8198195,0.0004334154,NaN,-1.565877,-14.64074,NaN,-1.638799,-1.469129,-0.1265586,14.10144,NaN,NaN,-0.1346394,0.8124535,2.615597E-10,1.048586,-7.117549E-09,1.338342
872.821,-0.01459432,0.0004216793,NaN,-0.8190548,0.0004339004,NaN,-1.565809,-14.6406,NaN,-1.634599,-1.467754,-0.1305111,14.09996,NaN,NaN,-0.1349743,0.8125363,-1.228556E-09,1.046575,-4.733363E-09,1.337861
872.835,-0.01459432,0.0004216793,NaN,-0.8190548,0.0004339004,NaN,-1.565809,-14.6406,NaN,-1.634599,-1.467754,-0.1305111,14.09996,NaN,NaN,-0.1349743,0.8125363,-1.228556E-09,1.046575,-4.733363E-09,1.337861
872.8491,-0.0145988,0.0004216226,NaN,-0.8183488,0.0004344943,NaN,-1.565764,-14.64106,NaN,-1.630763,-1.467385,-0.1343871,14.09963,NaN,NaN,-0.1353027,0.812058,5.595829E-10,1.04606,-2.349177E-09,1.341429
872.8645,-0.01460299,0.0004216258,NaN,-0.8176821,0.000434976,NaN,-1.565729,-14.64152,NaN,-1.627135,-1.468565,-0.1381871,14.10093,NaN,NaN,-0.1356246,0.811635,4.284873E-09,1.047795,2.419194E-09,1.343686
872.8793,-0.01460299,0.0004216258,NaN,-0.8176821,0.000434976,NaN,-1.565729,-14.64152,NaN,-1.627135,-1.468565,-0.1381871,14.10093,NaN,NaN,-0.1356246,0.811635,4.284873E-09,1.047795,2.419194E-09,1.343686
872.8937,-0.01460676,0.0004217115,NaN,-0.8171121,0.0004354625,NaN,-1.565667,-14.64163,NaN,-1.624211,-1.469389,-0.1403821,14.1018,NaN,NaN,-0.1358109,0.8115455,-3.612742E-09,1.048995,7.187566E-09,1.345038
872.9089,-0.01461013,0.0004214195,NaN,-0.8166043,0.0004357234,NaN,-1.565624,-14.64065,NaN,-1.621652,-1.467403,-0.1425339,14.09957,NaN,NaN,-0.1359936,0.8124495,-6.592974E-09,1.046058,1.195594E-08,1.335195
872.924,-0.01461316,0.0004215819,NaN,-0.8161371,0.0004351839,NaN,-1.565589,-14.64112,NaN,-1.619294,-1.479612,-0.1446431,14.1125,NaN,NaN,-0.1361728,0.8124359,-8.08309E-09,1.063822,1.434012E-08,1.342319
872.9388,-0.01461316,0.0004215819,NaN,-0.8161371,0.0004351839,NaN,-1.565589,-14.64112,NaN,-1.619294,-1.479612,-0.1446431,14.1125,NaN,NaN,-0.1361728,0.8124359,-8.08309E-09,1.063822,1.434012E-08,1.342319
872.9529,-0.01461594,0.0004213297,NaN,-0.815697,0.0004342072,NaN,-1.565559,-14.64149,NaN,-1.617054,-1.4768,-0.1467105,14.10957,NaN,NaN,-0.1363484,0.8119678,-8.828148E-09,1.059743,2.149268E-08,1.343686
872.9685,-0.01461833,0.0004214402,NaN,-0.815345,0.0004336768,NaN,-1.565508,-14.64048,NaN,-1.615462,-1.476735,-0.1472103,14.10936,NaN,NaN,-0.1363913,0.8129528,-2.000402E-08,1.059601,2.149268E-08,1.334863
872.9835,-0.01462034,0.0004211576,NaN,-0.8150489,0.0004336051,NaN,-1.56547,-14.64069,NaN,-1.6142,-1.467908,-0.1476987,14.10005,NaN,NaN,-0.1364334,0.8124793,-2.715658E-08,1.046765,2.626105E-08,1.33645
872.9984,-0.01462034,0.0004211576,NaN,-0.8150489,0.0004336051,NaN,-1.56547,-14.64069,NaN,-1.6142,-1.467908,-0.1476987,14.10005,NaN,NaN,-0.1364334,0.8124793,-2.715658E-08,1.046765,2.626105E-08,1.33645
873.0126,-0.01462204,0.0004212587,NaN,-0.8147886,0.0004337252,NaN,-1.565438,-14.64182,NaN,-1.613109,-1.472656,-0.1481766,14.1052,NaN,NaN,-0.1364746,0.8115174,-3.296803E-08,1.053718,2.626105E-08,1.343835
873.0291,-0.01462351,0.0004207828,NaN,-0.8145516,0.0004335855,NaN,-1.565409,-14.64111,NaN,-1.612113,-1.467704,-0.1486445,14.09989,NaN,NaN,-0.1365151,0.8120449,-3.743838E-08,1.046491,2.864524E-08,1.33886
873.043,-0.0146246,0.0004207321,NaN,-0.8143993,0.0004340965,NaN,-1.565364,-14.64113,NaN,-1.611746,-1.468171,-0.1475775,14.10037,NaN,NaN,-0.1364255,0.8120345,-5.263756E-08,1.047165,2.149268E-08,1.33881
873.0579,-0.0146246,0.0004207321,NaN,-0.8143993,0.0004340965,NaN,-1.565364,-14.64113,NaN,-1.611746,-1.468171,-0.1475775,14.10037,NaN,NaN,-0.1364255,0.8120345,-5.263756E-08,1.047165,2.149268E-08,1.33881
873.072,-0.01462545,0.0004211987,NaN,-0.8143,0.0004340568,NaN,-1.565328,-14.64205,NaN,-1.611687,-1.478456,-0.1465289,14.11133,NaN,NaN,-0.1363376,0.8114867,-6.396245E-08,1.06215,1.672431E-08,1.346902
873.0875,-0.01462617,0.0004219055,NaN,-0.8142338,0.0004338249,NaN,-1.565295,-14.64169,NaN,-1.611783,-1.481979,-0.1454993,14.11499,NaN,NaN,-0.1362515,0.8119289,-7.36482E-08,1.067249,1.434012E-08,1.345687
873.1023,-0.01462682,0.0004222425,NaN,-0.8141884,0.0004339891,NaN,-1.565264,-14.64075,NaN,-1.611955,-1.475187,-0.1444891,14.10771,NaN,NaN,-0.1361671,0.8126935,-8.169483E-08,1.057345,2.149268E-08,1.338835
873.1172,-0.01462682,0.0004222425,NaN,-0.8141884,0.0004339891,NaN,-1.565264,-14.64075,NaN,-1.611955,-1.475187,-0.1444891,14.10771,NaN,NaN,-0.1361671,0.8126935,-8.169483E-08,1.057345,2.149268E-08,1.338835
873.1315,-0.0146273,0.0004224194,NaN,-0.8142238,0.0004347997,NaN,-1.565216,-14.64101,NaN,-1.612739,-1.468709,-0.1419724,14.10089,NaN,NaN,-0.1359551,0.8122447,-9.898017E-08,1.047934,2.149268E-08,1.340109
873.1472,-0.01462766,0.0004227245,NaN,-0.8143088,0.0004352725,NaN,-1.565175,-14.64187,NaN,-1.613815,-1.47242,-0.1395017,14.10492,NaN,NaN,-0.1357472,0.8115188,-1.126892E-07,1.053367,1.672431E-08,1.34509
873.1622,-0.01462795,0.0004234217,NaN,-0.8144242,0.0004351287,NaN,-1.565136,-14.64124,NaN,-1.615029,-1.481545,-0.1370776,14.11444,NaN,NaN,-0.1355434,0.8124298,-1.237161E-07,1.066583,1.910849E-08,1.342924
873.1769,-0.01462795,0.0004234217,NaN,-0.8144242,0.0004351287,NaN,-1.565136,-14.64124,NaN,-1.615029,-1.481545,-0.1370776,14.11444,NaN,NaN,-0.1355434,0.8124298,-1.237161E-07,1.066583,1.910849E-08,1.342924
873.191,-0.01462805,0.0004238044,NaN,-0.8146271,0.0004362067,NaN,-1.565076,-14.64156,NaN,-1.616875,-1.469218,-0.1331726,14.10145,NaN,NaN,-0.1352143,0.8118262,-1.447267E-07,1.04867,1.910849E-08,1.344604
873.2079,-0.01462804,0.0004243843,NaN,-0.8148829,0.0004362075,NaN,-1.565022,-14.64136,NaN,-1.619017,-1.479609,-0.1293402,14.11237,NaN,NaN,-0.1348917,0.8123835,-1.616396E-07,1.06375,1.672431E-08,1.342701
873.2215,-0.01462793,0.0004245503,NaN,-0.8151705,0.0004365857,NaN,-1.564969,-14.64074,NaN,-1.62129,-1.472492,-0.1255805,14.10478,NaN,NaN,-0.1345754,0.8128145,-1.756466E-07,1.05338,2.149268E-08,1.338277
873.2362,-0.01462793,0.0004245503,NaN,-0.8151705,0.0004365857,NaN,-1.564969,-14.64074,NaN,-1.62129,-1.472492,-0.1255805,14.10478,NaN,NaN,-0.1345754,0.8128145,-1.756466E-07,1.05338,2.149268E-08,1.338277
873.2524,-0.01462778,0.0004243599,NaN,-0.8154762,0.000436833,NaN,-1.564916,-14.64087,NaN,-1.623613,-1.469253,-0.1218929,14.10137,NaN,NaN,-0.1342652,0.8125735,-1.877911E-07,1.048677,1.910849E-08,1.334349
873.266,-0.01462746,0.0004240532,NaN,-0.8158611,0.0004367402,NaN,-1.564832,-14.64094,NaN,-1.626517,-1.47137,-0.1167452,14.10361,NaN,NaN,-0.1338319,0.8125687,-2.085037E-07,1.051755,2.149268E-08,1.335047
873.2806,-0.01462702,0.0004236213,NaN,-0.8162931,0.0004367873,NaN,-1.564755,-14.6409,NaN,-1.629682,-1.46867,-0.111695,14.10075,NaN,NaN,-0.1334071,0.8125094,-2.249695E-07,1.047828,2.626105E-08,1.334977
873.2955,-0.01462702,0.0004236213,NaN,-0.8162931,0.0004367873,NaN,-1.564755,-14.6409,NaN,-1.629682,-1.46867,-0.111695,14.10075,NaN,NaN,-0.1334071,0.8125094,-2.249695E-07,1.047828,2.626105E-08,1.334977
873.3095,-0.0146265,0.0004227884,NaN,-0.8167523,0.0004362997,NaN,-1.564678,-14.64138,NaN,-1.632955,-1.469336,-0.1067412,14.10151,NaN,NaN,-0.1329906,0.8120539,-2.394981E-07,1.048819,2.387686E-08,1.338293
873.3251,-0.01462594,0.0004219512,NaN,-0.8172262,0.0004360353,NaN,-1.5646,-14.64104,NaN,-1.636258,-1.467979,-0.1018824,14.10003,NaN,NaN,-0.1325822,0.8123385,-2.520896E-07,1.046829,2.626105E-08,1.335014
873.3398,-0.01462594,0.0004219512,NaN,-0.8172262,0.0004360353,NaN,-1.5646,-14.64104,NaN,-1.636258,-1.467979,-0.1018824,14.10003,NaN,NaN,-0.1325822,0.8123385,-2.520896E-07,1.046829,2.626105E-08,1.335014
873.354,-0.01462521,0.0004211928,NaN,-0.8177763,0.0004359974,NaN,-1.564479,-14.64122,NaN,-1.640125,-1.467471,-0.09558104,14.09951,NaN,NaN,-0.1320526,0.8121278,-2.713121E-07,1.0461,2.149268E-08,1.335712
873.3695,-0.01462436,0.0004215091,NaN,-0.8183709,0.000435665,NaN,-1.564366,-14.64142,NaN,-1.644238,-1.479579,-0.08940023,14.1123,NaN,NaN,-0.1315334,0.8123826,-2.864368E-07,1.063696,2.149268E-08,1.341019
873.3846,-0.01462343,0.000421873,NaN,-0.8189905,0.0004348071,NaN,-1.564255,-14.64134,NaN,-1.648444,-1.482308,-0.08333801,14.11516,NaN,NaN,-0.1310243,0.8125295,-2.991773E-07,1.06766,2.149268E-08,1.339388
873.3994,-0.01462343,0.000421873,NaN,-0.8189905,0.0004348071,NaN,-1.564255,-14.64134,NaN,-1.648444,-1.482308,-0.08333801,14.11516,NaN,NaN,-0.1310243,0.8125295,-2.991773E-07,1.06766,2.149268E-08,1.339388
873.4136,-0.01462233,0.0004219751,NaN,-0.8196918,0.00043429,NaN,-1.56409,-14.64081,NaN,-1.653238,-1.475773,-0.07585118,14.10819,NaN,NaN,-0.1303959,0.8129029,-3.180272E-07,1.058137,1.910849E-08,1.330523
873.4293,-0.01462102,0.0004217609,NaN,-0.8204406,0.0004339921,NaN,-1.563935,-14.64118,NaN,-1.658284,-1.470348,-0.06850835,14.1025,NaN,NaN,-0.1297798,0.8123667,-3.324068E-07,1.050262,1.910849E-08,1.334255
873.4443,-0.01461946,0.000421702,NaN,-0.8212152,0.0004344508,NaN,-1.563783,-14.64147,NaN,-1.663419,-1.467663,-0.06130662,14.0997,NaN,NaN,-0.1291757,0.8119889,-3.448121E-07,1.046371,1.910849E-08,1.337039
873.4589,-0.01461946,0.000421702,NaN,-0.8212152,0.0004344508,NaN,-1.563783,-14.64147,NaN,-1.663419,-1.467663,-0.06130662,14.0997,NaN,NaN,-0.1291757,0.8119889,-3.448121E-07,1.046371,1.910849E-08,1.337039
873.4752,-0.0146177,0.0004221358,NaN,-0.8220024,0.0004346956,NaN,-1.563628,-14.64249,NaN,-1.668561,-1.474989,-0.05424298,14.10756,NaN,NaN,-0.1285835,0.8112455,-3.565467E-07,1.057063,2.387686E-08,1.346011
873.4885,-0.01461558,0.0004230272,NaN,-0.8228629,0.0004346772,NaN,-1.563398,-14.6417,NaN,-1.674244,-1.481309,-0.04576596,14.1141,NaN,NaN,-0.1278736,0.8122147,-3.708891E-07,1.066202,1.910849E-08,1.341348
873.5034,-0.0146131,0.0004234831,NaN,-0.823765,0.0004350604,NaN,-1.563185,-14.6411,NaN,-1.680148,-1.474783,-0.03745349,14.10714,NaN,NaN,-0.1271776,0.8126497,-3.827355E-07,1.056691,1.910849E-08,1.336737
873.5181,-0.0146131,0.0004234831,NaN,-0.823765,0.0004350604,NaN,-1.563185,-14.6411,NaN,-1.680148,-1.474783,-0.03745349,14.10714,NaN,NaN,-0.1271776,0.8126497,-3.827355E-07,1.056691,1.910849E-08,1.336737
873.5325,-0.01461035,0.0004235008,NaN,-0.8246886,0.0004355554,NaN,-1.562976,-14.64123,NaN,-1.686118,-1.468845,-0.02930161,14.10088,NaN,NaN,-0.1264953,0.8123431,-3.918252E-07,1.048061,1.672431E-08,1.33475
873.5479,-0.01460737,0.0004236098,NaN,-0.8256214,0.0004361511,NaN,-1.562766,-14.64175,NaN,-1.69208,-1.4691,-0.02130628,14.10121,NaN,NaN,-0.1258263,0.8118308,-3.992386E-07,1.048455,1.434012E-08,1.339641
873.5629,-0.01460403,0.0004238866,NaN,-0.826625,0.0004357563,NaN,-1.562456,-14.64185,NaN,-1.698568,-1.480111,-0.01190657,14.11282,NaN,NaN,-0.1250411,0.8121227,-4.10433E-07,1.064448,1.195594E-08,1.340958
873.5778,-0.01460403,0.0004238866,NaN,-0.826625,0.0004357563,NaN,-1.562456,-14.64185,NaN,-1.698568,-1.480111,-0.01190657,14.11282,NaN,NaN,-0.1250411,0.8121227,-4.10433E-07,1.064448,1.195594E-08,1.340958
873.592,-0.01460034,0.0004241922,NaN,-0.8276677,0.0004349117,NaN,-1.562172,-14.64188,NaN,-1.705265,-1.482331,-0.002690588,14.11515,NaN,NaN,-0.1242713,0.8121418,-4.179581E-07,1.067672,7.187567E-09,1.340751
873.6074,-0.01459637,0.0004242845,NaN,-0.8287299,0.0004345071,NaN,-1.561895,-14.641,NaN,-1.712016,-1.475481,0.006346135,14.10782,NaN,NaN,-0.1235166,0.8128537,-4.231921E-07,1.057685,9.571753E-09,1.334783
873.6224,-0.0145922,0.0004240907,NaN,-0.8297994,0.000434398,NaN,-1.561619,-14.64067,NaN,-1.718748,-1.470383,0.01520885,14.10239,NaN,NaN,-0.1227767,0.8130233,-4.266893E-07,1.050255,1.195594E-08,1.330343
873.6373,-0.0145922,0.0004240907,NaN,-0.8297994,0.000434398,NaN,-1.561619,-14.64067,NaN,-1.718748,-1.470383,0.01520885,14.10239,NaN,NaN,-0.1227767,0.8130233,-4.266893E-07,1.050255,1.195594E-08,1.330343
873.6515,-0.01459025,0.0004239454,NaN,-0.8300372,0.0004347755,NaN,-1.562872,-14.64119,NaN,-1.718534,-1.468746,0.005099501,14.10072,NaN,NaN,-0.1236029,0.8124461,-3.912618E-07,1.047898,1.672431E-08,1.334226
873.6682,-0.01459033,0.0004241207,NaN,-0.8297622,0.0004347844,NaN,-1.563519,-14.64236,NaN,-1.714955,-1.476041,-0.00471119,14.10857,NaN,NaN,-0.1244129,0.8115429,-3.676807E-07,1.058557,1.195594E-08,1.341373
873.6817,-0.01459144,0.0004244048,NaN,-0.8291719,0.0004341277,NaN,-1.563881,-14.64198,NaN,-1.709734,-1.48181,-0.01424025,14.11459,NaN,NaN,-0.1252069,0.812088,-3.467445E-07,1.066917,1.434013E-08,1.339759
873.6976,-0.01459144,0.0004244048,NaN,-0.8291719,0.0004341277,NaN,-1.563881,-14.64198,NaN,-1.709734,-1.48181,-0.01424025,14.11459,NaN,NaN,-0.1252069,0.812088,-3.467445E-07,1.066917,1.434013E-08,1.339759
873.712,-0.01459318,0.0004243378,NaN,-0.828459,0.0004343114,NaN,-1.563989,-14.64126,NaN,-1.704305,-1.469593,-0.02197729,14.10162,NaN,NaN,-0.125856,0.8125205,-3.322159E-07,1.049138,1.195594E-08,1.331141
873.7262,-0.01459557,0.0004238612,NaN,-0.8276736,0.0004343119,NaN,-1.564087,-14.64113,NaN,-1.698798,-1.467819,-0.02955265,14.09972,NaN,NaN,-0.1264924,0.8125761,-3.186931E-07,1.046547,1.434013E-08,1.328772
873.7408,-0.01459847,0.0004233097,NaN,-0.826847,0.0004332964,NaN,-1.564174,-14.64163,NaN,-1.693285,-1.479083,-0.03697559,14.11167,NaN,NaN,-0.1271163,0.8124943,-3.05133E-07,1.062938,1.91085E-08,1.334619
873.7557,-0.01459847,0.0004233097,NaN,-0.826847,0.0004332964,NaN,-1.564174,-14.64163,NaN,-1.693285,-1.479083,-0.03697559,14.11167,NaN,NaN,-0.1271163,0.8124943,-3.05133E-07,1.062938,1.91085E-08,1.334619
873.7698,-0.01460177,0.0004222115,NaN,-0.8259987,0.0004323882,NaN,-1.564249,-14.64161,NaN,-1.687806,-1.469114,-0.04424918,14.10113,NaN,NaN,-0.127728,0.81225,-2.919828E-07,1.048442,1.672431E-08,1.332146
873.7854,-0.01460517,0.00042165,NaN,-0.82521,0.0004317976,NaN,-1.564221,-14.64148,NaN,-1.682954,-1.473571,-0.0498222,14.10581,NaN,NaN,-0.1281984,0.8125336,-2.849792E-07,1.054911,1.91085E-08,1.331803
873.8002,-0.01460856,0.0004215559,NaN,-0.8244616,0.0004323638,NaN,-1.564233,-14.64206,NaN,-1.67844,-1.468643,-0.05529223,14.10068,NaN,NaN,-0.1286595,0.8117895,-2.76113E-07,1.047774,2.149268E-08,1.335902
873.8151,-0.01460856,0.0004215559,NaN,-0.8244616,0.0004323638,NaN,-1.564233,-14.64206,NaN,-1.67844,-1.468643,-0.05529223,14.10068,NaN,NaN,-0.1286595,0.8117895,-2.76113E-07,1.047774,2.149268E-08,1.335902
