JMolnar6/NonAnthroHands_User_Study/HandsLoggerWithURDF/tempdata/PID 0 (test)/files/Reachy_PID0_JointMotion_gesture_8_3.csv
Time,r_shoulder,r_shoulder_x,r_upper_arm,r_forearm,r_wrist,r_wrist2hand,
693.9119,0.04494151,-0.3275332,0.4460336,-0.5175439,-0.3769366,-0.01998821
693.9269,0.04494174,-0.3275292,0.4463064,-0.5175399,-0.3770045,-0.01998802
693.9418,0.04494197,-0.3275252,0.4465764,-0.5175359,-0.3770717,-0.01998783
693.9567,0.04494197,-0.3275252,0.4465764,-0.5175359,-0.3770717,-0.01998783
693.9706,0.0449422,-0.3275213,0.4468434,-0.5175319,-0.3771383,-0.01998765
693.986,0.04494242,-0.3275174,0.4471076,-0.5175279,-0.3772042,-0.01998746
694.0016,0.04494265,-0.3275136,0.447369,-0.517524,-0.3772695,-0.01998728
694.0164,0.04494265,-0.3275136,0.447369,-0.517524,-0.3772695,-0.01998728
694.0295,0.04494287,-0.3275098,0.4476276,-0.5175201,-0.3773342,-0.0199871
694.0448,0.04494309,-0.327506,0.4478835,-0.5175163,-0.3773982,-0.01998693
694.0594,0.04494309,-0.327506,0.4478835,-0.5175163,-0.3773982,-0.01998693
694.0735,0.04494332,-0.3275023,0.4481366,-0.5175124,-0.3774616,-0.01998675
694.0888,0.04494354,-0.3274987,0.448387,-0.5175086,-0.3775244,-0.01998657
694.1035,0.04494376,-0.3274951,0.4486348,-0.5175049,-0.3775866,-0.0199864
694.1181,0.04494376,-0.3274951,0.4486348,-0.5175049,-0.3775866,-0.0199864
694.1323,0.04494398,-0.3274915,0.4488799,-0.5175011,-0.3776481,-0.01998623
694.1478,0.0449442,-0.327488,0.4491224,-0.5174974,-0.3777091,-0.01998606
694.1624,0.04494441,-0.3274845,0.4493623,-0.5174937,-0.3777695,-0.01998589
694.1774,0.04494441,-0.3274845,0.4493623,-0.5174937,-0.3777695,-0.01998589
694.1914,0.04494463,-0.327481,0.4495997,-0.51749,-0.3778293,-0.01998572
694.207,0.04494485,-0.3274776,0.4498345,-0.5174864,-0.3778885,-0.01998556
694.2217,0.04494506,-0.3274743,0.4500668,-0.5174828,-0.3779471,-0.01998539
694.2364,0.04494506,-0.3274743,0.4500668,-0.5174828,-0.3779471,-0.01998539
694.2503,0.04494528,-0.3274709,0.4502966,-0.5174792,-0.3780051,-0.01998523
694.2669,0.04494549,-0.3274677,0.450524,-0.5174756,-0.3780626,-0.01998507
694.2806,0.0449457,-0.3274644,0.4507489,-0.5174721,-0.3781195,-0.01998491
694.2953,0.0449457,-0.3274644,0.4507489,-0.5174721,-0.3781195,-0.01998491
694.3092,0.04494591,-0.3274612,0.4509715,-0.5174686,-0.3781758,-0.01998476
694.3245,0.04494613,-0.327458,0.4511916,-0.5174651,-0.3782316,-0.0199846
694.3394,0.04494613,-0.327458,0.4511916,-0.5174651,-0.3782316,-0.0199846
694.3534,0.04494634,-0.3274549,0.4514095,-0.5174617,-0.3782869,-0.01998444
694.3685,0.04494654,-0.3274518,0.451625,-0.5174583,-0.3783416,-0.01998429
694.3832,0.04494675,-0.3274487,0.4518381,-0.5174549,-0.3783957,-0.01998414
694.3981,0.04494675,-0.3274487,0.4518381,-0.5174549,-0.3783957,-0.01998414
694.4122,0.04494696,-0.3274457,0.452049,-0.5174515,-0.3784493,-0.01998399
694.4278,0.04494717,-0.3274427,0.4522577,-0.5174481,-0.3785024,-0.01998384
694.4425,0.04494737,-0.3274398,0.4524641,-0.5174448,-0.378555,-0.01998369
694.4574,0.04494737,-0.3274398,0.4524641,-0.5174448,-0.378555,-0.01998369
694.4713,0.04494758,-0.3274369,0.4526683,-0.5174415,-0.378607,-0.01998354
694.4869,0.04494778,-0.327434,0.4528703,-0.5174382,-0.3786586,-0.0199834
694.5015,0.04494799,-0.3274311,0.4530702,-0.517435,-0.3787096,-0.01998326
694.5172,0.04494799,-0.3274311,0.4530702,-0.517435,-0.3787096,-0.01998326
694.5316,0.04494819,-0.3274283,0.4532679,-0.5174318,-0.3787601,-0.01998311
694.5458,0.0449484,-0.3274256,0.4534636,-0.5174286,-0.3788101,-0.01998297
694.5603,0.0449486,-0.3274228,0.4536571,-0.5174254,-0.3788596,-0.01998284
694.5751,0.0449486,-0.3274228,0.4536571,-0.5174254,-0.3788596,-0.01998284
694.5891,0.0449488,-0.3274201,0.4538485,-0.5174223,-0.3789087,-0.0199827
694.6044,0.044949,-0.3274174,0.4540379,-0.5174192,-0.3789572,-0.01998256
694.6191,0.044949,-0.3274174,0.4540379,-0.5174192,-0.3789572,-0.01998256
694.6331,0.0449492,-0.3274148,0.4542253,-0.5174161,-0.3790053,-0.01998243
694.6486,0.0449494,-0.3274122,0.4544107,-0.517413,-0.3790529,-0.01998229
694.6638,0.04494959,-0.3274096,0.454594,-0.51741,-0.3791,-0.01998216
694.6797,0.04494959,-0.3274096,0.454594,-0.51741,-0.3791,-0.01998216
694.6924,0.04494979,-0.327407,0.4547755,-0.5174069,-0.3791466,-0.01998203
694.7076,0.04494999,-0.3274045,0.454955,-0.517404,-0.3791928,-0.0199819
694.7224,0.04495018,-0.327402,0.4551325,-0.517401,-0.3792385,-0.01998177
694.7371,0.04495018,-0.327402,0.4551325,-0.517401,-0.3792385,-0.01998177
694.7511,0.04495038,-0.3273995,0.4553082,-0.5173981,-0.3792838,-0.01998164
694.7675,0.04495057,-0.327397,0.4554819,-0.5173951,-0.3793286,-0.01998151
694.7822,0.04495076,-0.3273946,0.4556539,-0.5173923,-0.379373,-0.01998139
694.7958,0.04495076,-0.3273946,0.4556539,-0.5173923,-0.379373,-0.01998139
694.81,0.04495096,-0.3273923,0.455824,-0.5173894,-0.3794169,-0.01998127
694.8253,0.04495115,-0.3273899,0.4559922,-0.5173866,-0.3794604,-0.01998114
694.8399,0.04495115,-0.3273899,0.4559922,-0.5173866,-0.3794604,-0.01998114
694.8539,0.04495134,-0.3273876,0.4561587,-0.5173838,-0.3795035,-0.01998102
694.8691,0.04495153,-0.3273853,0.4563233,-0.517381,-0.3795461,-0.0199809
694.8836,0.04495172,-0.327383,0.4564862,-0.5173782,-0.3795883,-0.01998078
694.8984,0.04495172,-0.327383,0.4564862,-0.5173782,-0.3795883,-0.01998078
694.9136,0.04495192,-0.3273808,0.4567958,-0.518608,-0.3798288,-0.01998434
694.928,0.04495212,-0.3273786,0.457092,-0.5205362,-0.3800824,-0.01998631
694.9427,0.04495231,-0.3273764,0.457342,-0.5227779,-0.3802966,-0.01998761
694.9575,0.04495231,-0.3273764,0.457342,-0.5227779,-0.3802966,-0.01998761
694.9717,0.04495251,-0.3273742,0.4575555,-0.5251492,-0.3804721,-0.01998863
694.9871,0.04495269,-0.3273721,0.4576008,-0.5263298,-0.3804229,-0.01998594
695.0018,0.04495287,-0.32737,0.457646,-0.526812,-0.3803426,-0.01998473
695.0165,0.04495287,-0.32737,0.457646,-0.526812,-0.3803426,-0.01998473
695.0327,0.04495305,-0.3273679,0.4577282,-0.526961,-0.380289,-0.0199841
695.0463,0.04495323,-0.3273658,0.4578399,-0.5269513,-0.3802647,-0.01998371
695.0607,0.04495341,-0.3273638,0.457823,-0.5256336,-0.3800644,-0.01997987
695.0755,0.04495341,-0.3273638,0.457823,-0.5256336,-0.3800644,-0.01997987
695.0895,0.04495358,-0.3273618,0.4578242,-0.5235828,-0.3798619,-0.0199776
695.1049,0.04495375,-0.3273598,0.4578702,-0.521203,-0.3797036,-0.01997597
695.1194,0.04495375,-0.3273598,0.4578702,-0.521203,-0.3797036,-0.01997597
695.1334,0.04495391,-0.3273578,0.4578016,-0.5174547,-0.3793881,-0.01997099
695.149,0.04495408,-0.3273558,0.4577597,-0.5129646,-0.3790845,-0.01996766
695.1636,0.04495424,-0.3273539,0.4577676,-0.5081615,-0.3788354,-0.01996502
695.1785,0.04495424,-0.3273539,0.4577676,-0.5081615,-0.3788354,-0.01996502
695.1926,0.04495441,-0.327352,0.4578113,-0.5032501,-0.3786344,-0.01996266
695.2081,0.04495456,-0.3273501,0.4577219,-0.4970955,-0.3782651,-0.01995655
695.2227,0.04495472,-0.3273483,0.4576475,-0.490278,-0.3778992,-0.01995212
695.2378,0.04495472,-0.3273483,0.4576475,-0.490278,-0.3778992,-0.01995212
695.2515,0.04495488,-0.3273464,0.4576183,-0.4832042,-0.3775842,-0.01994837
695.267,0.04495504,-0.3273447,0.4576242,-0.4760677,-0.3773169,-0.01994489
695.2827,0.0449552,-0.3273429,0.457632,-0.4688152,-0.3770601,-0.01994101
695.2966,0.0449552,-0.3273429,0.457632,-0.4688152,-0.3770601,-0.01994101
695.3105,0.04495536,-0.3273411,0.4576513,-0.4615529,-0.3768253,-0.01993737
695.3257,0.04495552,-0.3273394,0.4576813,-0.454346,-0.3766123,-0.01993382
695.3405,0.04495568,-0.3273377,0.4577187,-0.4472247,-0.3764172,-0.01993029
695.3552,0.04495568,-0.3273377,0.4577187,-0.4472247,-0.3764172,-0.01993029
695.369,0.04495584,-0.327336,0.4577612,-0.4402026,-0.3762364,-0.01992675
695.3843,0.04495599,-0.3273344,0.4578074,-0.4332854,-0.3760677,-0.01992318
695.3989,0.04495599,-0.3273344,0.4578074,-0.4332854,-0.3760677,-0.01992318
695.413,0.04495615,-0.3273327,0.4578567,-0.4264748,-0.3759097,-0.01991959
695.4288,0.04495631,-0.3273311,0.4579093,-0.4197708,-0.3757615,-0.01991596
695.4432,0.04495646,-0.3273295,0.4579651,-0.4131726,-0.3756227,-0.0199123
695.4579,0.04495646,-0.3273295,0.4579651,-0.4131726,-0.3756227,-0.0199123
695.472,0.04495662,-0.327328,0.4580245,-0.4066788,-0.375493,-0.0199086
695.4877,0.04495678,-0.3273264,0.4580877,-0.4002879,-0.3753723,-0.01990486
695.5025,0.04495693,-0.3273249,0.4581547,-0.3939985,-0.3752603,-0.01990108
695.517,0.04495693,-0.3273249,0.4581547,-0.3939985,-0.3752603,-0.01990108
695.5311,0.04495709,-0.3273234,0.4582258,-0.3878089,-0.3751571,-0.01989726
695.5476,0.04495724,-0.327322,0.458301,-0.3817175,-0.3750624,-0.01989339
695.5613,0.0449574,-0.3273205,0.4583806,-0.3757229,-0.3749762,-0.01988946
695.5761,0.0449574,-0.3273205,0.4583806,-0.3757229,-0.3749762,-0.01988946
695.5901,0.04495755,-0.3273191,0.4584644,-0.3698235,-0.3748984,-0.01988549
695.6053,0.0449577,-0.3273177,0.4585527,-0.3640178,-0.3748289,-0.01988146
695.6199,0.0449577,-0.3273177,0.4585527,-0.3640178,-0.3748289,-0.01988146
695.634,0.04495785,-0.3273163,0.4586455,-0.3583043,-0.3747677,-0.01987739
695.6494,0.04495801,-0.3273149,0.4587428,-0.3526815,-0.3747146,-0.01987325
695.664,0.04495816,-0.3273135,0.4588446,-0.347148,-0.3746695,-0.01986906
695.6788,0.04495816,-0.3273135,0.4588446,-0.347148,-0.3746695,-0.01986906
695.6931,0.04495831,-0.3273122,0.458951,-0.3417024,-0.3746323,-0.01986481
695.7084,0.04495846,-0.3273109,0.459062,-0.3363433,-0.374603,-0.01986049
695.7231,0.04495861,-0.3273095,0.4591777,-0.3310693,-0.3745815,-0.01985612
695.7379,0.04495861,-0.3273095,0.4591777,-0.3310693,-0.3745815,-0.01985612
695.7519,0.04495876,-0.3273083,0.459298,-0.325879,-0.3745677,-0.01985167
695.7676,0.0449589,-0.327307,0.459423,-0.3207712,-0.3745616,-0.01984716
695.782,0.04495905,-0.3273057,0.4595527,-0.3157445,-0.3745629,-0.01984258
695.7979,0.04495905,-0.3273057,0.4595527,-0.3157445,-0.3745629,-0.01984258
695.812,0.0449592,-0.3273045,0.4596871,-0.3107977,-0.3745718,-0.01983792
695.8264,0.04495935,-0.3273033,0.4598263,-0.3059294,-0.374588,-0.01983319
695.8409,0.04495949,-0.327302,0.4599702,-0.3011385,-0.3746115,-0.01982838
695.8557,0.04495949,-0.327302,0.4599702,-0.3011385,-0.3746115,-0.01982838
695.8697,0.04495964,-0.3273008,0.4601189,-0.2964236,-0.3746423,-0.01982349
695.8849,0.04495978,-0.3272996,0.4602725,-0.2917837,-0.3746802,-0.01981852
695.8998,0.04495978,-0.3272996,0.4602725,-0.2917837,-0.3746802,-0.01981852
695.9138,0.04495993,-0.3272984,0.4604308,-0.2872174,-0.3747253,-0.01981347
695.9297,0.04496007,-0.3272972,0.460594,-0.2827237,-0.3747773,-0.01980833
695.9442,0.04496022,-0.3272961,0.460762,-0.2783014,-0.3748364,-0.0198031
695.9589,0.04496022,-0.3272961,0.460762,-0.2783014,-0.3748364,-0.0198031
695.9729,0.04496036,-0.3272949,0.4609348,-0.2739493,-0.3749024,-0.01979778
695.9884,0.04496051,-0.3272938,0.4611126,-0.2696663,-0.3749753,-0.01979236
696.0031,0.04496065,-0.3272926,0.4612952,-0.2654514,-0.375055,-0.01978685
696.0181,0.04496065,-0.3272926,0.4612952,-0.2654514,-0.375055,-0.01978685
696.032,0.04496079,-0.3272915,0.4614828,-0.2613034,-0.3751414,-0.01978124
696.0485,0.04496093,-0.3272903,0.4616752,-0.2572213,-0.3752345,-0.01977552
696.063,0.04496107,-0.3272892,0.4618726,-0.2532041,-0.3753342,-0.01976971
696.077,0.04496107,-0.3272892,0.4618726,-0.2532041,-0.3753342,-0.01976971
696.0911,0.04496121,-0.3272881,0.4620749,-0.2492507,-0.3754406,-0.01976378
696.1063,0.04496136,-0.327287,0.4622822,-0.2453601,-0.3755534,-0.01975775
696.1209,0.0449615,-0.3272859,0.4624943,-0.2415313,-0.3756728,-0.0197516
696.1354,0.0449615,-0.3272859,0.4624943,-0.2415313,-0.3756728,-0.0197516
696.1494,0.04496164,-0.3272848,0.4627115,-0.2377634,-0.3757985,-0.01974534
696.1648,0.04496177,-0.3272837,0.4629336,-0.2340553,-0.3759307,-0.01973896
696.1794,0.04496177,-0.3272837,0.4629336,-0.2340553,-0.3759307,-0.01973896
696.1937,0.04496191,-0.3272826,0.4631607,-0.2304061,-0.3760691,-0.01973246
696.2093,0.04496205,-0.3272815,0.4633927,-0.2268149,-0.3762139,-0.01972584
696.2241,0.04496219,-0.3272804,0.4636297,-0.2232808,-0.3763648,-0.01971909
696.2388,0.04496219,-0.3272804,0.4636297,-0.2232808,-0.3763648,-0.01971909
696.2529,0.04496232,-0.3272794,0.4638717,-0.2198029,-0.376522,-0.01971221
696.2682,0.04496246,-0.3272783,0.4641186,-0.2163801,-0.3766852,-0.0197052
696.283,0.0449626,-0.3272772,0.4643704,-0.2130118,-0.3768546,-0.01969806
696.2997,0.0449626,-0.3272772,0.4643704,-0.2130118,-0.3768546,-0.01969806
696.3129,0.04496273,-0.3272761,0.4646272,-0.209697,-0.3770299,-0.01969077
696.3271,0.04496287,-0.3272751,0.464889,-0.2064349,-0.3772112,-0.01968335
696.3419,0.044963,-0.3272741,0.4651557,-0.2032246,-0.3773985,-0.01967579
696.3566,0.044963,-0.3272741,0.4651557,-0.2032246,-0.3773985,-0.01967579
696.3706,0.04496314,-0.327273,0.4654272,-0.2000654,-0.3775916,-0.01966807
696.386,0.04496327,-0.327272,0.4657037,-0.1969563,-0.3777905,-0.01966021
696.4002,0.0449634,-0.3272709,0.4659851,-0.1938967,-0.3779952,-0.01965219
696.4152,0.0449634,-0.3272709,0.4659851,-0.1938967,-0.3779952,-0.01965219
696.4293,0.04496354,-0.3272699,0.4662713,-0.1908857,-0.3782055,-0.01964401
696.4446,0.04496367,-0.3272688,0.4665623,-0.1879225,-0.3784215,-0.01963567
696.4595,0.04496367,-0.3272688,0.4665623,-0.1879225,-0.3784215,-0.01963567
696.4737,0.0449638,-0.3272678,0.4668581,-0.1850065,-0.3786431,-0.01962717
696.4891,0.04496393,-0.3272668,0.4671587,-0.1821367,-0.3788702,-0.01961851
696.5052,0.04496406,-0.3272658,0.4674641,-0.1793126,-0.3791027,-0.01960967
696.5189,0.04496406,-0.3272658,0.4674641,-0.1793126,-0.3791027,-0.01960967
696.5328,0.04496419,-0.3272648,0.4677742,-0.1765334,-0.3793407,-0.01960067
696.5481,0.04496432,-0.3272637,0.4680889,-0.1737984,-0.379584,-0.01959149
696.5638,0.04496446,-0.3272627,0.4684083,-0.1711068,-0.3798325,-0.01958213
696.5777,0.04496446,-0.3272627,0.4684083,-0.1711068,-0.3798325,-0.01958213
696.5919,0.04496459,-0.3272617,0.4687323,-0.1684581,-0.3800862,-0.01957259
696.6074,0.04496472,-0.3272607,0.4690608,-0.1658514,-0.380345,-0.01956286
696.6217,0.04496484,-0.3272597,0.4693938,-0.1632862,-0.3806089,-0.01955295
696.6364,0.04496484,-0.3272597,0.4693938,-0.1632862,-0.3806089,-0.01955295
696.6506,0.04496497,-0.3272587,0.4697313,-0.1607617,-0.3808778,-0.01954285
696.6657,0.0449651,-0.3272577,0.4700732,-0.1582774,-0.3811515,-0.01953255
696.6806,0.04496522,-0.3272567,0.4704193,-0.1558326,-0.38143,-0.01952205
696.6953,0.04496522,-0.3272567,0.4704193,-0.1558326,-0.38143,-0.01952205
696.7095,0.04496535,-0.3272558,0.4707698,-0.1534267,-0.3817133,-0.01951136
696.7247,0.04496548,-0.3272548,0.4711244,-0.151059,-0.3820012,-0.01950047
696.7395,0.04496548,-0.3272548,0.4711244,-0.151059,-0.3820012,-0.01950047
696.7538,0.0449656,-0.3272538,0.4715498,-0.1488719,-0.3823625,-0.01949436
696.7693,0.04496573,-0.3272528,0.4719795,-0.1468058,-0.38273,-0.01948605
696.7838,0.04496586,-0.3272519,0.4724009,-0.1448135,-0.3830902,-0.01947671
696.7983,0.04496586,-0.3272519,0.4724009,-0.1448135,-0.3830902,-0.01947671
696.8147,0.04496598,-0.3272509,0.4728149,-0.1428723,-0.3834433,-0.01946684
696.8281,0.04496612,-0.3272499,0.4738269,-0.1421839,-0.3844139,-0.01950361
696.8428,0.04496625,-0.327249,0.4748228,-0.1422469,-0.3853805,-0.01952104
696.8573,0.04496625,-0.327249,0.4748228,-0.1422469,-0.3853805,-0.01952104
696.8714,0.04496638,-0.327248,0.4757004,-0.1426591,-0.3862336,-0.01953021
696.8865,0.04496652,-0.3272471,0.4764754,-0.143231,-0.3869852,-0.01953582
696.9014,0.04496666,-0.3272462,0.4777861,-0.1450858,-0.3882909,-0.01958737
696.916,0.04496666,-0.3272462,0.4777861,-0.1450858,-0.3882909,-0.01958737
696.9301,0.04496679,-0.3272452,0.4790168,-0.1476857,-0.3895281,-0.01961791
696.9456,0.04496693,-0.3272443,0.4800891,-0.1506107,-0.3906107,-0.01963927
696.9604,0.04496706,-0.3272434,0.4810318,-0.153663,-0.3915641,-0.01965633
696.9757,0.04496706,-0.3272434,0.4810318,-0.153663,-0.3915641,-0.01965633
696.9894,0.0449672,-0.3272425,0.4824522,-0.1579653,-0.3930143,-0.0197141
697.0048,0.04496735,-0.3272415,0.4837678,-0.1629742,-0.3943718,-0.01975143
697.02,0.04496748,-0.3272406,0.4849085,-0.1682702,-0.3955589,-0.01977938
697.0342,0.04496748,-0.3272406,0.4849085,-0.1682702,-0.3955589,-0.01977938
697.0483,0.04496763,-0.3272397,0.4864273,-0.1748752,-0.3971468,-0.01983969
697.0646,0.04496777,-0.3272388,0.487799,-0.1821915,-0.3986019,-0.01988004
697.0784,0.04496777,-0.3272388,0.487799,-0.1821915,-0.3986019,-0.01988004
697.0927,0.04496792,-0.3272379,0.4889695,-0.1897782,-0.399862,-0.01991078
697.1081,0.04496805,-0.327237,0.489976,-0.1974284,-0.4009605,-0.01993619
697.1225,0.04496818,-0.3272361,0.4903334,-0.2036048,-0.4013825,-0.01992472
697.1372,0.04496818,-0.3272361,0.4903334,-0.2036048,-0.4013825,-0.01992472
697.1512,0.0449683,-0.3272353,0.4906196,-0.2088671,-0.4017145,-0.01992598
697.1668,0.04496843,-0.3272344,0.4909451,-0.2136589,-0.4020775,-0.01993183
697.1815,0.04496855,-0.3272335,0.4913061,-0.2181904,-0.4024734,-0.01993913
697.1962,0.04496855,-0.3272335,0.4913061,-0.2181904,-0.4024734,-0.01993913
697.2104,0.04496868,-0.3272326,0.4916804,-0.222562,-0.4028828,-0.01994667
697.2258,0.04496881,-0.3272317,0.4920503,-0.226822,-0.4032892,-0.01995398
697.2406,0.04496893,-0.3272308,0.4924047,-0.2309943,-0.4036821,-0.0199609
697.2555,0.04496893,-0.3272308,0.4924047,-0.2309943,-0.4036821,-0.0199609
697.2695,0.04496895,-0.3272299,0.4927384,-0.2350905,-0.4040563,-0.01996738
697.285,0.04496894,-0.3272291,0.4930488,-0.239117,-0.404409,-0.01997341
697.2996,0.04496894,-0.3272291,0.4930488,-0.239117,-0.404409,-0.01997341
697.3158,0.04496891,-0.3272282,0.4933352,-0.2430773,-0.4047395,-0.01997901
697.3292,0.04496888,-0.3272273,0.4935979,-0.2469736,-0.4050478,-0.01998421
697.3439,0.04424143,-0.3272277,0.4948403,-0.2504045,-0.4061765,-0.01998773
697.3586,0.04424143,-0.3272277,0.4948403,-0.2504045,-0.4061765,-0.01998773
697.3727,0.04305932,-0.3272282,0.4963514,-0.2536578,-0.4074949,-0.01999074
697.3879,0.04159606,-0.3272286,0.4978677,-0.2568479,-0.4087817,-0.01999355
697.4025,0.03996202,-0.3272288,0.499303,-0.2600136,-0.4099733,-0.01999621
697.4174,0.03996202,-0.3272288,0.499303,-0.2600136,-0.4099733,-0.01999621
697.4315,0.03749905,-0.3272304,0.5016096,-0.2627605,-0.4118777,-0.0199975
697.447,0.03452485,-0.3272321,0.5041081,-0.2653721,-0.4139014,-0.01999846
697.4619,0.03124144,-0.3272331,0.5065525,-0.2679557,-0.4158432,-0.01999935
697.4765,0.03124144,-0.3272331,0.5065525,-0.2679557,-0.4158432,-0.01999935
697.4907,0.02704893,-0.3272357,0.5098269,-0.2701431,-0.4184572,-0.01999902
697.5063,0.02230203,-0.3272379,0.513249,-0.2722225,-0.4211522,-0.01999847
697.5208,0.01722621,-0.327239,0.5165771,-0.2742999,-0.4237332,-0.01999793
697.5356,0.01722621,-0.327239,0.5165771,-0.2742999,-0.4237332,-0.01999793
697.5497,0.01196473,-0.3272394,0.5197439,-0.2764046,-0.4261569,-0.01999741
697.5663,0.00588018,-0.3272407,0.5236903,-0.2781381,-0.4292274,-0.01999573
697.5801,-0.0006966908,-0.3272414,0.5277674,-0.2797746,-0.4323795,-0.01999385
697.5947,-0.0006966908,-0.3272414,0.5277674,-0.2797746,-0.4323795,-0.01999385
697.6089,-0.007555721,-0.3272415,0.5317447,-0.2814159,-0.435425,-0.019992
697.6241,-0.01456353,-0.327241,0.535555,-0.2830907,-0.4383182,-0.01999019
697.6391,-0.01456353,-0.327241,0.535555,-0.2830907,-0.4383182,-0.01999019
697.6526,-0.02236389,-0.3272414,0.5401384,-0.2844044,-0.4418637,-0.01998725
697.668,-0.03063016,-0.3272412,0.5448446,-0.2856296,-0.4454933,-0.01998414
697.6828,-0.03915487,-0.3272402,0.5494429,-0.2868684,-0.4490168,-0.01998109
697.6976,-0.03915487,-0.3272402,0.5494429,-0.2868684,-0.4490168,-0.01998109
697.7117,-0.04853476,-0.3272399,0.5548186,-0.2877578,-0.4531966,-0.01997692
697.7272,-0.0584133,-0.3272386,0.5602993,-0.2885777,-0.4574457,-0.01997263
697.742,-0.06856412,-0.3272364,0.5656497,-0.2894308,-0.4615714,-0.01996843
697.757,-0.06856412,-0.3272364,0.5656497,-0.2894308,-0.4615714,-0.01996843
697.7719,-0.07884367,-0.3272335,0.5708038,-0.2903445,-0.4655276,-0.01996433
697.7867,-0.08988945,-0.3272313,0.5767238,-0.2909301,-0.4701472,-0.01995906
697.8011,-0.1013709,-0.3272282,0.5827474,-0.2914533,-0.4748469,-0.01995366
697.8171,-0.1013709,-0.3272282,0.5827474,-0.2914533,-0.4748469,-0.01995366
697.8303,-0.1130784,-0.3272234,0.5886405,-0.2920124,-0.4794309,-0.01994837
697.8457,-0.1248789,-0.3272169,0.5943362,-0.2926346,-0.4838503,-0.01994321
697.8604,-0.1374167,-0.3272114,0.6008185,-0.2929387,-0.4889616,-0.01993681
697.8751,-0.1374167,-0.3272114,0.6008185,-0.2929387,-0.4889616,-0.01993681
697.8893,-0.1503659,-0.3272043,0.6074059,-0.2931868,-0.4941607,-0.0199303
697.9047,-0.1635195,-0.327195,0.6138595,-0.2934773,-0.4992455,-0.01992392
697.9194,-0.1635195,-0.327195,0.6138595,-0.2934773,-0.4992455,-0.01992392
697.9335,-0.1774748,-0.3271862,0.6211206,-0.2934618,-0.5050408,-0.01991629
697.9492,-0.1918758,-0.3271752,0.628475,-0.2934083,-0.5109136,-0.01990859
697.9637,-0.2064968,-0.3271614,0.6356769,-0.2934156,-0.5166562,-0.01990105
697.9785,-0.2064968,-0.3271614,0.6356769,-0.2934156,-0.5166562,-0.01990105
697.9926,-0.2211949,-0.3271451,0.6426589,-0.2935096,-0.5222188,-0.01989366
698.0085,-0.2366081,-0.3271295,0.6504573,-0.2933196,-0.5285152,-0.0198849
698.0234,-0.2524065,-0.3271118,0.6583553,-0.2930979,-0.5349038,-0.01987604
698.0378,-0.2524065,-0.3271118,0.6583553,-0.2930979,-0.5349038,-0.01987604
698.0541,-0.2683809,-0.3270916,0.6661051,-0.2929384,-0.5411718,-0.01986735
698.0674,-0.2843989,-0.3270692,0.6736373,-0.2928672,-0.5472657,-0.01985882
698.0822,-0.3011056,-0.3270476,0.6820215,-0.2925229,-0.5541344,-0.01984884
698.097,-0.3011056,-0.3270476,0.6820215,-0.2925229,-0.5541344,-0.01984884
698.111,-0.3181754,-0.3270242,0.6905124,-0.2921527,-0.5611063,-0.01983876
698.1266,-0.335402,-0.3269981,0.6988527,-0.2918502,-0.567958,-0.01982888
698.1412,-0.3526549,-0.32697,0.70697,-0.2916412,-0.5746323,-0.01981919
698.1561,-0.3526549,-0.32697,0.70697,-0.2916412,-0.5746323,-0.01981919
698.1702,-0.3705804,-0.3269429,0.7159724,-0.2911741,-0.5821189,-0.01980795
698.1857,-0.3888537,-0.3269137,0.7250845,-0.2906899,-0.5897151,-0.01979665
698.2003,-0.4072691,-0.3268821,0.7340397,-0.2902802,-0.5971869,-0.01978558
698.2151,-0.4072691,-0.3268821,0.7340397,-0.2902802,-0.5971869,-0.01978558
698.2296,-0.4264249,-0.3268508,0.7439117,-0.2896273,-0.6055,-0.01977294
698.2452,-0.4459661,-0.3268167,0.753882,-0.2889754,-0.6139114,-0.01976028
698.2596,-0.4459661,-0.3268167,0.753882,-0.2889754,-0.6139114,-0.01976028
698.274,-0.4656676,-0.3267795,0.7636739,-0.2884157,-0.6221784,-0.01974791
698.2907,-0.4853873,-0.3267397,0.7732131,-0.2879719,-0.630242,-0.01973579
698.3044,-0.5057639,-0.3267007,0.7836916,-0.2873098,-0.6391802,-0.01972194
698.3191,-0.5057639,-0.3267007,0.7836916,-0.2873098,-0.6391802,-0.01972194
698.3333,-0.5264684,-0.3266594,0.7942763,-0.286655,-0.6482307,-0.01970807
698.3486,-0.5472921,-0.3266153,0.8046837,-0.2860932,-0.6571413,-0.01969452
698.3634,-0.5681035,-0.3265692,0.8148355,-0.2856475,-0.6658474,-0.01968126
698.3781,-0.5681035,-0.3265692,0.8148355,-0.2856475,-0.6658474,-0.01968126
698.3922,-0.5895481,-0.3265241,0.8259708,-0.2849978,-0.6754764,-0.01966619
698.4081,-0.611301,-0.326477,0.8372164,-0.2843616,-0.6852241,-0.01965118
698.4226,-0.6331566,-0.3264273,0.8482746,-0.2838225,-0.6948234,-0.01963657
698.4375,-0.6331566,-0.3264273,0.8482746,-0.2838225,-0.6948234,-0.01963657
698.4514,-0.6552061,-0.3263764,0.859453,-0.2833102,-0.70456,-0.01962167
698.4671,-0.6772852,-0.3263238,0.8704641,-0.2828898,-0.7141719,-0.01960702
698.4819,-0.6992903,-0.3262701,0.8812215,-0.2825795,-0.7235836,-0.01959271
698.4967,-0.6992903,-0.3262701,0.8812215,-0.2825795,-0.7235836,-0.01959271
698.5129,-0.7211567,-0.326216,0.89171,-0.2823779,-0.732784,-0.01957875
698.5275,-0.7428444,-0.3261623,0.901935,-0.2822773,-0.7417798,-0.01956511
698.5412,-0.764329,-0.3261094,0.911906,-0.2822683,-0.7505803,-0.01955181
698.5562,-0.764329,-0.3261094,0.911906,-0.2822683,-0.7505803,-0.01955181
698.57,-0.7855959,-0.3260578,0.9216305,-0.2823428,-0.7591919,-0.01953887
698.5855,-0.8066371,-0.3260077,0.9311135,-0.2824938,-0.7676188,-0.01952632
698.6001,-0.8274484,-0.3259594,0.9403574,-0.2827156,-0.775862,-0.01951417
698.6147,-0.8274484,-0.3259594,0.9403574,-0.2827156,-0.775862,-0.01951417
698.629,-0.8480281,-0.3259129,0.9493634,-0.2830034,-0.7839215,-0.01950243
698.6447,-0.8683761,-0.3258684,0.9581311,-0.2833534,-0.7917958,-0.01949113
698.6593,-0.8683761,-0.3258684,0.9581311,-0.2833534,-0.7917958,-0.01949113
698.6749,-0.8884934,-0.3258258,0.9666597,-0.2837622,-0.7994826,-0.01948028
698.6891,-0.9083816,-0.3257851,0.974948,-0.2842265,-0.8069798,-0.01946988
698.7039,-0.9280425,-0.3257463,0.9829949,-0.2847438,-0.814285,-0.01945993
698.7188,-0.9280425,-0.3257463,0.9829949,-0.2847438,-0.814285,-0.01945993
698.7328,-0.9474784,-0.3257094,0.9907988,-0.2853112,-0.8213958,-0.01945043
698.7493,-0.9666915,-0.3256744,0.998359,-0.2859264,-0.8283101,-0.01944139
698.7633,-0.9856842,-0.3256411,1.005675,-0.2865869,-0.8350263,-0.0194328
698.778,-0.9856842,-0.3256411,1.005675,-0.2865869,-0.8350263,-0.0194328
698.792,-1.004459,-0.3256095,1.012745,-0.2872905,-0.8415427,-0.01942467
698.8077,-1.023018,-0.3255797,1.01957,-0.2880349,-0.847858,-0.01941698
698.8224,-1.041364,-0.3255515,1.02615,-0.2888179,-0.8539711,-0.01940973
698.837,-1.041364,-0.3255515,1.02615,-0.2888179,-0.8539711,-0.01940973
698.8509,-1.0595,-0.3255249,1.032485,-0.2896374,-0.8598813,-0.01940292
698.8667,-1.077427,-0.3254999,1.038574,-0.2904914,-0.8655884,-0.01939653
698.8812,-1.095148,-0.3254763,1.04442,-0.2913778,-0.8710922,-0.01939057
698.8961,-1.095148,-0.3254763,1.04442,-0.2913778,-0.8710922,-0.01939057
698.9103,-1.112665,-0.3254542,1.050024,-0.2922947,-0.8763928,-0.019385
698.9258,-1.129981,-0.3254336,1.055386,-0.2932402,-0.8814908,-0.01937984
698.9408,-1.147099,-0.3254143,1.060508,-0.2942125,-0.8863866,-0.01937507
698.9556,-1.147099,-0.3254143,1.060508,-0.2942125,-0.8863866,-0.01937507
698.9698,-1.164019,-0.3253963,1.065392,-0.2952096,-0.8910813,-0.01937068
698.986,-1.180746,-0.3253797,1.07004,-0.29623,-0.8955759,-0.01936665
698.9998,-1.180746,-0.3253797,1.07004,-0.29623,-0.8955759,-0.01936665
699.0139,-1.19728,-0.3253642,1.074455,-0.2972719,-0.8998718,-0.01936299
699.0295,-1.213624,-0.32535,1.078638,-0.2983336,-0.9039704,-0.01935967
699.0443,-1.229559,-0.3253362,1.082164,-0.2994814,-0.9074741,-0.01935731
699.0588,-1.229559,-0.3253362,1.082164,-0.2994814,-0.9074741,-0.01935731
699.0731,-1.245171,-0.3253239,1.08535,-0.3006662,-0.9106796,-0.01935533
699.0884,-1.260513,-0.3253134,1.088309,-0.3018658,-0.913693,-0.01935357
699.1032,-1.275623,-0.3253045,1.091079,-0.3030711,-0.9165468,-0.01935206
699.1182,-1.275623,-0.3253045,1.091079,-0.3030711,-0.9165468,-0.01935206
699.1322,-1.289795,-0.3252947,1.092269,-0.304497,-0.9179412,-0.01935279
699.1477,-1.303317,-0.3252872,1.092905,-0.3059916,-0.91884,-0.01935393
699.1626,-1.316375,-0.3252828,1.093351,-0.3074879,-0.9195824,-0.01935508
699.1777,-1.316375,-0.3252828,1.093351,-0.3074879,-0.9195824,-0.01935508
699.1917,-1.328358,-0.3252788,1.092335,-0.3091785,-0.9189758,-0.0193582
699.2073,-1.339615,-0.3252776,1.090889,-0.3109081,-0.9179877,-0.01936156
699.223,-1.350368,-0.3252783,1.089362,-0.3126117,-0.9169424,-0.01936485
699.2367,-1.350368,-0.3252783,1.089362,-0.3126117,-0.9169424,-0.01936485
699.2507,-1.36076,-0.3252801,1.087845,-0.3142688,-0.9159214,-0.01936807
699.2662,-1.370152,-0.3252815,1.084991,-0.3160983,-0.913663,-0.0193731
699.2808,-1.378877,-0.325284,1.081772,-0.3179543,-0.9110773,-0.01937834
699.2956,-1.378877,-0.325284,1.081772,-0.3179543,-0.9110773,-0.01937834
699.3098,-1.387145,-0.3252883,1.07852,-0.3197773,-0.9084736,-0.01938343
699.325,-1.395091,-0.3252949,1.075322,-0.321549,-0.9059307,-0.01938833
699.3401,-1.402074,-0.3253011,1.070866,-0.3234924,-0.9022206,-0.01939486
699.3546,-1.402074,-0.3253011,1.070866,-0.3234924,-0.9022206,-0.01939486
699.3691,-1.408421,-0.3253092,1.0661,-0.3254593,-0.8982306,-0.01940149
699.3842,-1.414342,-0.3253196,1.061347,-0.327389,-0.8942631,-0.01940789
699.3991,-1.414342,-0.3253196,1.061347,-0.327389,-0.8942631,-0.01940789
699.4131,-1.419243,-0.3253299,1.055413,-0.3294922,-0.8891986,-0.01941575
699.4289,-1.42348,-0.3253418,1.049247,-0.3316108,-0.8839253,-0.01942362
699.4434,-1.427282,-0.3253556,1.043168,-0.333682,-0.8787403,-0.01943117
699.4601,-1.430795,-0.3253711,1.037251,-0.3356875,-0.8737137,-0.01943838
699.4741,-1.430795,-0.3253711,1.037251,-0.3356875,-0.8737137,-0.01943838
699.4871,-1.433384,-0.3253855,1.030257,-0.3378664,-0.8676842,-0.01944694
699.5023,-1.435379,-0.3254004,1.023071,-0.3400618,-0.8614814,-0.0194555
699.517,-1.435379,-0.3254004,1.023071,-0.3400618,-0.8614814,-0.0194555
699.5309,-1.436993,-0.3254161,1.015996,-0.3422111,-0.855387,-0.01946372
699.5463,-1.438361,-0.3254324,1.009108,-0.3442956,-0.8494707,-0.01947159
699.561,-1.438839,-0.325447,1.001215,-0.3465645,-0.8426203,-0.01948067
699.5758,-1.438839,-0.325447,1.001215,-0.3465645,-0.8426203,-0.01948067
699.5899,-1.438757,-0.3254611,0.9931754,-0.3488523,-0.8356357,-0.01948971
699.6055,-1.438322,-0.325475,0.9852809,-0.3510937,-0.8287895,-0.01949841
699.6204,-1.437667,-0.3254891,0.9776049,-0.353269,-0.8221496,-0.01950671
699.6349,-1.437667,-0.3254891,0.9776049,-0.353269,-0.8221496,-0.01950671
699.6489,-1.436148,-0.3255008,0.9690056,-0.3556386,-0.8146522,-0.01951611
699.6644,-1.434093,-0.3255114,0.960304,-0.3580289,-0.8070614,-0.01952545
699.6793,-1.434093,-0.3255114,0.960304,-0.3580289,-0.8070614,-0.01952545
699.6934,-1.431708,-0.3255213,0.9517818,-0.3603714,-0.7996393,-0.01953442
699.7109,-1.428397,-0.3255283,0.9424103,-0.3629164,-0.7914296,-0.01954437
699.7247,-1.424518,-0.3255335,0.9330041,-0.3654766,-0.7831889,-0.01955419
699.7382,-1.424518,-0.3255335,0.9330041,-0.3654766,-0.7831889,-0.01955419
699.7522,-1.420298,-0.3255375,0.9238364,-0.3679801,-0.775171,-0.01956359
699.7675,-1.415881,-0.3255406,0.9149684,-0.3704063,-0.7674336,-0.01957252
699.7822,-1.41063,-0.3255416,0.9053434,-0.3730402,-0.7589971,-0.01958235
699.7968,-1.41063,-0.3255416,0.9053434,-0.3730402,-0.7589971,-0.01958235
699.8109,-1.404876,-0.3255416,0.8957104,-0.3756929,-0.7505549,-0.01959204
699.8264,-1.398831,-0.325541,0.8863236,-0.3782913,-0.7423424,-0.01960131
699.8411,-1.392627,-0.3255401,0.8772421,-0.3808138,-0.7344149,-0.01961014
699.8565,-1.392627,-0.3255401,0.8772421,-0.3808138,-0.7344149,-0.01961014
699.87,-1.385621,-0.3255365,0.8674639,-0.3835571,-0.7258471,-0.01961977
699.8853,-1.378141,-0.325531,0.8577027,-0.3863217,-0.7172964,-0.01962928
699.9003,-1.370392,-0.325524,0.8482022,-0.389031,-0.7089883,-0.01963838
699.9152,-1.370392,-0.325524,0.8482022,-0.389031,-0.7089883,-0.01963838
699.9296,-1.36178,-0.3255137,0.8380684,-0.3919692,-0.7000998,-0.01964819
699.9446,-1.35266,-0.3255008,0.8280052,-0.3949224,-0.6912777,-0.01965783
699.9604,-1.343259,-0.3254859,0.8182479,-0.39781,-0.6827392,-0.01966703
699.9752,-1.343259,-0.3254859,0.8182479,-0.39781,-0.6827392,-0.01966703
699.9892,-1.333721,-0.3254696,0.808846,-0.4006093,-0.6745312,-0.01967576
700.0037,-1.323407,-0.3254502,0.798886,-0.4036406,-0.6658166,-0.01968511
700.0182,-1.323407,-0.3254502,0.798886,-0.4036406,-0.6658166,-0.01968511
700.0323,-1.31265,-0.3254281,0.7890089,-0.4066889,-0.6571807,-0.0196943
700.0475,-1.301659,-0.3254041,0.7794317,-0.4096728,-0.6488227,-0.01970308
700.0623,-1.290565,-0.3253787,0.7702023,-0.4125686,-0.6407876,-0.01971141
700.0772,-1.290565,-0.3253787,0.7702023,-0.4125686,-0.6407876,-0.01971141
700.0916,-1.278727,-0.3253503,0.7604619,-0.4157079,-0.6322927,-0.01972031
700.107,-1.266469,-0.3253191,0.7508164,-0.4188657,-0.6238875,-0.01972905
700.1214,-1.253998,-0.3252859,0.7414724,-0.421957,-0.6157609,-0.01973741
700.1362,-1.253998,-0.3252859,0.7414724,-0.421957,-0.6157609,-0.01973741
700.1505,-1.240718,-0.325249,0.7316681,-0.4252975,-0.6072223,-0.01974625
700.1658,-1.226985,-0.3252088,0.721999,-0.4286479,-0.5988097,-0.0197549
700.1805,-1.213023,-0.325166,0.7126634,-0.4319195,-0.5907037,-0.01976315
700.1953,-1.213023,-0.325166,0.7126634,-0.4319195,-0.5907037,-0.01976315
700.2116,-1.198977,-0.3251215,0.7037002,-0.4350877,-0.5829411,-0.01977095
700.226,-1.184208,-0.3250738,0.6943339,-0.4385048,-0.5748236,-0.01977916
700.2398,-1.184208,-0.3250738,0.6943339,-0.4385048,-0.5748236,-0.01977916
700.2537,-1.169046,-0.3250231,0.6851028,-0.4419326,-0.5668328,-0.0197872
700.2689,-1.1537,-0.32497,0.6761888,-0.4452821,-0.559133,-0.01979487
700.2836,-1.138303,-0.3249156,0.6676298,-0.4485279,-0.5517592,-0.01980214
700.2985,-1.138303,-0.3249156,0.6676298,-0.4485279,-0.5517592,-0.01980214
700.3124,-1.122211,-0.3248582,0.6586995,-0.4520316,-0.5440626,-0.01980977
700.3278,-1.105747,-0.324798,0.6499049,-0.4555464,-0.5364926,-0.01981725
700.3426,-1.08912,-0.3247355,0.6414188,-0.45898,-0.5292038,-0.01982437
700.3575,-1.08912,-0.3247355,0.6414188,-0.45898,-0.5292038,-0.01982437
700.3718,-1.071732,-0.3246694,0.632599,-0.4626748,-0.521627,-0.01983183
700.3869,-1.053937,-0.3245996,0.6239432,-0.4663704,-0.514201,-0.01983909
700.4015,-1.035961,-0.3245271,0.6156169,-0.4699712,-0.5070735,-0.019846
700.4168,-1.035961,-0.3245271,0.6156169,-0.4699712,-0.5070735,-0.019846
700.4309,-1.017946,-0.3244529,0.6076508,-0.4734516,-0.5002731,-0.01985254
700.4463,-0.9992549,-0.3243757,0.5993915,-0.4771899,-0.4932252,-0.01985933
700.4619,-0.9802159,-0.3242955,0.5912874,-0.4809295,-0.4863202,-0.01986596
700.4761,-0.9802159,-0.3242955,0.5912874,-0.4809295,-0.4863202,-0.01986596
700.4903,-0.9610381,-0.3242129,0.5834903,-0.4845752,-0.4796919,-0.01987227
700.5054,-0.941853,-0.3241291,0.5760301,-0.4881006,-0.4733676,-0.01987824
700.52,-0.922016,-0.3240427,0.5682954,-0.4918911,-0.4668147,-0.01988445
700.5349,-0.922016,-0.3240427,0.5682954,-0.4918911,-0.4668147,-0.01988445
700.549,-0.901852,-0.3239536,0.5607087,-0.495683,-0.4603969,-0.0198905
700.5646,-0.8815665,-0.3238624,0.5534143,-0.4993786,-0.45424,-0.01989627
700.5793,-0.8815665,-0.3238624,0.5534143,-0.4993786,-0.45424,-0.01989627
700.5934,-0.8605619,-0.3237678,0.5458716,-0.5033407,-0.4478779,-0.01990225
700.6092,-0.8391929,-0.3236695,0.5384963,-0.507293,-0.4416659,-0.01990807
700.624,-0.817684,-0.3235686,0.5314267,-0.5111352,-0.4357244,-0.01991358
700.6389,-0.817684,-0.3235686,0.5314267,-0.5111352,-0.4357244,-0.01991358
700.6529,-0.7961771,-0.3234662,0.5246878,-0.5148406,-0.4300762,-0.01991879
700.6686,-0.7740339,-0.3233611,0.5177277,-0.5188078,-0.42425,-0.01992416
700.6831,-0.751583,-0.3232532,0.5109213,-0.522766,-0.4185613,-0.01992937
700.699,-0.751583,-0.3232532,0.5109213,-0.522766,-0.4185613,-0.01992937
700.7122,-0.7290327,-0.3231432,0.5043961,-0.526616,-0.4131193,-0.01993434
700.7275,-0.7065141,-0.3230323,0.4981766,-0.5303309,-0.4079458,-0.01993903
700.7426,-0.6833821,-0.3229194,0.4917451,-0.5343136,-0.4026036,-0.01994387
700.757,-0.6833821,-0.3229194,0.4917451,-0.5343136,-0.4026036,-0.01994387
700.7712,-0.6599612,-0.3228039,0.4854561,-0.5382881,-0.3973872,-0.01994858
700.7866,-0.6364565,-0.3226867,0.4794316,-0.5421529,-0.3923997,-0.01995306
700.8011,-0.6129975,-0.3225689,0.4736958,-0.5458804,-0.3876625,-0.01995728
700.8162,-0.6129975,-0.3225689,0.4736958,-0.5458804,-0.3876625,-0.01995728
700.8303,-0.5891099,-0.3224499,0.467873,-0.5497816,-0.3828626,-0.01996155
700.8458,-0.5650527,-0.3223295,0.4622137,-0.5536451,-0.3782047,-0.01996567
700.8607,-0.5409896,-0.3222086,0.4568008,-0.557395,-0.373758,-0.01996959
700.8777,-0.5409896,-0.3222086,0.4568008,-0.557395,-0.373758,-0.01996959
700.8904,-0.5170235,-0.3220881,0.4516474,-0.5610121,-0.369534,-0.0199733
700.9053,-0.4932187,-0.3219691,0.4467414,-0.5644986,-0.3655225,-0.01997681
700.92,-0.4696151,-0.3218527,0.4420637,-0.5678633,-0.3617073,-0.01998011
700.936,-0.4696151,-0.3218527,0.4420637,-0.5678633,-0.3617073,-0.01998011
700.949,-0.4462369,-0.3217395,0.4375959,-0.5711157,-0.3580722,-0.01998325
700.9644,-0.4230984,-0.32163,0.4333222,-0.5742639,-0.3546028,-0.01998622
700.9791,-0.4230984,-0.32163,0.4333222,-0.5742639,-0.3546028,-0.01998622
700.9932,-0.4002076,-0.3215247,0.4292293,-0.5773146,-0.3512872,-0.01998906
701.0087,-0.3775687,-0.3214239,0.4253065,-0.5802728,-0.3481156,-0.01999176
701.0236,-0.3551829,-0.3213275,0.4215449,-0.5831425,-0.3450795,-0.01999434
701.0385,-0.3551829,-0.3213275,0.4215449,-0.5831425,-0.3450795,-0.01999434
701.0524,-0.3330503,-0.3212358,0.4179368,-0.5859267,-0.3421717,-0.01999681
701.0681,-0.3111697,-0.3211487,0.4144755,-0.5886282,-0.3393861,-0.01999917
701.0829,-0.2895392,-0.3210661,0.4111549,-0.591249,-0.3367169,-0.02000142
701.0979,-0.2895392,-0.3210661,0.4111549,-0.591249,-0.3367169,-0.02000142
701.1122,-0.2745305,-0.3210087,0.4115424,-0.5901264,-0.337027,-0.02000113
701.1277,-0.2637501,-0.3209847,0.4130149,-0.5878777,-0.3382596,-0.02000001
701.1425,-0.2556758,-0.3209875,0.4145463,-0.5855268,-0.3395747,-0.01999882
701.1589,-0.2556758,-0.3209875,0.4145463,-0.5855268,-0.3395747,-0.01999882
701.1727,-0.2493383,-0.3210081,0.4158118,-0.5834126,-0.3406871,-0.01999786
701.1871,-0.2441204,-0.3210415,0.4167691,-0.5815989,-0.3415476,-0.01999715
701.2017,-0.239629,-0.3210836,0.4174687,-0.5800512,-0.3421891,-0.01999666
701.2166,-0.239629,-0.3210836,0.4174687,-0.5800512,-0.3421891,-0.01999666
701.2306,-0.2356135,-0.3211312,0.4179789,-0.578711,-0.3426644,-0.01999632
701.2461,-0.2319144,-0.3211823,0.4183596,-0.5775229,-0.3430225,-0.01999609
701.261,-0.2284298,-0.3212355,0.4212297,-0.5764248,-0.3467996,-0.02000148
701.2761,-0.2284298,-0.3212355,0.4212297,-0.5764248,-0.3467996,-0.02000148
701.2903,-0.2250948,-0.3212899,0.424772,-0.575376,-0.3520586,-0.02000287
701.3058,-0.2218678,-0.3213448,0.4281831,-0.5743633,-0.3577314,-0.02000291
701.3206,-0.2187223,-0.3213999,0.4312755,-0.5733817,-0.3634285,-0.02000259
701.3356,-0.2187223,-0.3213999,0.4312755,-0.5733817,-0.3634285,-0.02000259
701.3499,-0.2156412,-0.3214549,0.4329525,-0.5724351,-0.3675224,-0.01999971
701.3652,-0.2126136,-0.3215096,0.4340669,-0.5715219,-0.370822,-0.01999872
701.3809,-0.2096322,-0.321564,0.4350342,-0.5706354,-0.3737951,-0.0199984
701.3947,-0.2096322,-0.321564,0.4350342,-0.5706354,-0.3737951,-0.0199984
701.4092,-0.2066923,-0.321618,0.4348805,-0.5697759,-0.3751307,-0.01999571
701.4245,-0.2037909,-0.3216716,0.4344263,-0.5689433,-0.3757314,-0.01999493
701.4391,-0.2037909,-0.3216716,0.4344263,-0.5689433,-0.3757314,-0.01999493
701.4531,-0.2009258,-0.3217247,0.4340258,-0.5681301,-0.376086,-0.01999477
701.4686,-0.1980955,-0.3217773,0.4337589,-0.567329,-0.3763755,-0.01999474
701.4835,-0.1952989,-0.3218294,0.4325091,-0.5665441,-0.3751724,-0.0199921
701.4983,-0.1952989,-0.3218294,0.4325091,-0.5665441,-0.3751724,-0.0199921
701.5128,-0.1925352,-0.3218811,0.4310316,-0.5657802,-0.3733209,-0.01999129
701.5284,-0.1898038,-0.3219323,0.4296541,-0.5650318,-0.3712847,-0.01999108
701.5433,-0.1871041,-0.3219829,0.4284454,-0.5642926,-0.3692343,-0.01999101
701.5582,-0.1871041,-0.3219829,0.4284454,-0.5642926,-0.3692343,-0.01999101
701.5723,-0.1844356,-0.3220331,0.4262832,-0.5635671,-0.3657405,-0.01998834
701.5879,-0.181798,-0.3220828,0.4239191,-0.5628617,-0.3616419,-0.01998749
701.6037,-0.1791907,-0.3221321,0.4216802,-0.562171,-0.3573998,-0.01998725
701.6176,-0.1791907,-0.3221321,0.4216802,-0.562171,-0.3573998,-0.01998725
701.6318,-0.1766134,-0.3221808,0.4185249,-0.5614961,-0.3516988,-0.01998459
701.6472,-0.1740658,-0.3222291,0.4152237,-0.5608422,-0.3454185,-0.01998378
701.6617,-0.1715475,-0.3222769,0.4121016,-0.560202,-0.3390333,-0.01998358
701.6767,-0.1715475,-0.3222769,0.4121016,-0.560202,-0.3390333,-0.01998358
701.6909,-0.1690582,-0.3223243,0.4092201,-0.5595679,-0.3327157,-0.01998353
701.7066,-0.1665975,-0.3223712,0.4054452,-0.5589431,-0.3250357,-0.01998102
701.7213,-0.1641651,-0.3224176,0.4015251,-0.5583356,-0.3168299,-0.01998026
701.7362,-0.1641651,-0.3224176,0.4015251,-0.5583356,-0.3168299,-0.01998026
701.7504,-0.1617607,-0.3224636,0.3977836,-0.5577395,-0.308557,-0.01998008
701.7659,-0.1593839,-0.3225092,0.3942865,-0.5571476,-0.3003841,-0.01998007
701.7808,-0.1570344,-0.3225543,0.3899012,-0.5565626,-0.290878,-0.01997777
701.7957,-0.1570344,-0.3225543,0.3899012,-0.5565626,-0.290878,-0.01997777
701.8099,-0.1547119,-0.3225989,0.3853825,-0.555993,-0.280877,-0.01997713
701.8266,-0.1524162,-0.3226431,0.3810578,-0.5554327,-0.2708403,-0.01997704
701.8405,-0.1501468,-0.3226869,0.3769946,-0.5548747,-0.2609347,-0.01997712
701.8553,-0.1501468,-0.3226869,0.3769946,-0.5548747,-0.2609347,-0.01997712
701.8691,-0.1479035,-0.3227303,0.3720569,-0.5543205,-0.249724,-0.01997513
701.8846,-0.145686,-0.3227732,0.3670035,-0.5537789,-0.2380491,-0.01997466
701.8994,-0.145686,-0.3227732,0.3670035,-0.5537789,-0.2380491,-0.01997466
701.9135,-0.143494,-0.3228157,0.3621629,-0.5532441,-0.2263693,-0.01997469
701.9293,-0.1413273,-0.3228578,0.3564789,-0.5527138,-0.2133591,-0.01997299
701.9441,-0.1391854,-0.3228994,0.3507313,-0.5521949,-0.1999031,-0.01997268
701.9589,-0.1391854,-0.3228994,0.3507313,-0.5521949,-0.1999031,-0.01997268
701.9732,-0.1370681,-0.3229407,0.3452469,-0.5516802,-0.1864746,-0.01997282
701.9889,-0.1349752,-0.3229815,0.3400851,-0.5511622,-0.173243,-0.0199731
702.0037,-0.1329064,-0.323022,0.3340949,-0.5506402,-0.1587653,-0.01997191
702.0185,-0.1329064,-0.323022,0.3340949,-0.5506402,-0.1587653,-0.01997191
702.0327,-0.1308614,-0.323062,0.3280353,-0.5501234,-0.1438865,-0.01997182
702.0492,-0.1288398,-0.3231016,0.322232,-0.5496067,-0.1290652,-0.0199721
702.0631,-0.1268415,-0.3231409,0.3167483,-0.5490839,-0.1144653,-0.01997248
702.0778,-0.1268415,-0.3231409,0.3167483,-0.5490839,-0.1144653,-0.01997248
702.092,-0.1248662,-0.3231798,0.3104345,-0.5485532,-0.09864113,-0.01997184
702.1074,-0.1229136,-0.3232182,0.304056,-0.5480239,-0.08243936,-0.019972
702.1223,-0.1209835,-0.3232563,0.2979415,-0.5474914,-0.06631933,-0.01997239
702.137,-0.1209835,-0.3232563,0.2979415,-0.5474914,-0.06631933,-0.01997239
702.1516,-0.1190755,-0.323294,0.291024,-0.5469504,-0.04894841,-0.01997222
702.1668,-0.1171895,-0.3233313,0.2840882,-0.5464085,-0.03121526,-0.01997256
702.1816,-0.1153252,-0.3233683,0.2774609,-0.5458604,-0.01359262,-0.01997303
702.1966,-0.1153252,-0.3233683,0.2774609,-0.5458604,-0.01359262,-0.01997303
702.2109,-0.1134824,-0.3234048,0.2711994,-0.5453007,0.003752721,-0.01997354
702.2266,-0.1116607,-0.3234411,0.2641451,-0.5447249,0.02226545,-0.01997403
702.2414,-0.1098599,-0.3234769,0.2570584,-0.5441422,0.04110079,-0.01997459
702.2563,-0.1098599,-0.3234769,0.2570584,-0.5441422,0.04110079,-0.01997459
702.2726,-0.1080799,-0.3235124,0.2502644,-0.5435497,0.05980149,-0.01997513
702.2858,-0.1063204,-0.3235475,0.2438254,-0.5429438,0.07820549,-0.01997565
702.3007,-0.1045811,-0.3235823,0.2365892,-0.5423185,0.09775311,-0.01997677
702.3153,-0.1045811,-0.3235823,0.2365892,-0.5423185,0.09775311,-0.01997677
702.3295,-0.1028617,-0.3236167,0.2293166,-0.541683,0.1176037,-0.0199775
702.3448,-0.1011622,-0.3236508,0.2223353,-0.5410354,0.1373012,-0.01997805
702.36,-0.1011622,-0.3236508,0.2223353,-0.5410354,0.1373012,-0.01997805
702.374,-0.09948222,-0.3236845,0.214581,-0.5403672,0.1581661,-0.01997964
702.3896,-0.09782155,-0.3237179,0.2068291,-0.5396869,0.1793217,-0.01998046
702.4044,-0.09617998,-0.3237509,0.1994046,-0.5389926,0.2003002,-0.01998096
702.4193,-0.09617998,-0.3237509,0.1994046,-0.5389926,0.2003002,-0.01998096
702.4334,-0.0945573,-0.3237836,0.1923658,-0.5382831,0.220936,-0.01998133
702.4495,-0.09295328,-0.323816,0.1845648,-0.5375496,0.2426501,-0.01998345
702.4639,-0.09136771,-0.323848,0.1767434,-0.5368012,0.2646192,-0.01998435
702.4788,-0.09136771,-0.323848,0.1767434,-0.5368012,0.2646192,-0.01998435
702.4951,-0.08980037,-0.3238797,0.1692241,-0.5360381,0.2863937,-0.01998476
702.5087,-0.08825106,-0.3239111,0.1620712,-0.5352608,0.3078125,-0.01998498
702.5234,-0.08671957,-0.3239422,0.1541522,-0.5344597,0.3302799,-0.01998752
702.538,-0.08671957,-0.3239422,0.1541522,-0.5344597,0.3302799,-0.01998752
702.5521,-0.0852057,-0.3239729,0.1462,-0.5336434,0.3529873,-0.01998842
702.5677,-0.08370925,-0.3240033,0.1385386,-0.5328136,0.3754892,-0.01998868
702.5829,-0.08223,-0.3240335,0.1312366,-0.5319722,0.3976241,-0.0199887
702.5973,-0.08223,-0.3240335,0.1312366,-0.5319722,0.3976241,-0.0199887
702.6114,-0.08076777,-0.3240633,0.1242795,-0.5311209,0.4193417,-0.01998864
702.6273,-0.07932237,-0.3240928,0.1176325,-0.5302617,0.4406335,-0.01998853
702.642,-0.07789358,-0.324122,0.111262,-0.5293963,0.4615057,-0.01998839
702.6569,-0.07789358,-0.324122,0.111262,-0.5293963,0.4615057,-0.01998839
702.6715,-0.07648124,-0.3241509,0.1062346,-0.5285394,0.4805523,-0.0199851
702.6868,-0.07508514,-0.3241796,0.1017911,-0.527689,0.4985501,-0.01998386
702.7014,-0.0737051,-0.3242079,0.09756154,-0.5268442,0.5159499,-0.01998334
702.7172,-0.0737051,-0.3242079,0.09756154,-0.5268442,0.5159499,-0.01998334
702.7316,-0.07234094,-0.324236,0.09343209,-0.5260034,0.5329337,-0.01998302
702.746,-0.07099246,-0.3242638,0.09046461,-0.5251793,0.5481778,-0.01997942
702.7607,-0.0696595,-0.3242912,0.08794574,-0.5243715,0.562457,-0.01997795
702.7756,-0.0696595,-0.3242912,0.08794574,-0.5243715,0.562457,-0.01997795
702.7896,-0.06834187,-0.3243184,0.08553694,-0.5235768,0.5762181,-0.01997723
702.8051,-0.06703941,-0.3243453,0.08314523,-0.5227913,0.58964,-0.0199767
702.8199,-0.06703941,-0.3243453,0.08314523,-0.5227913,0.58964,-0.0199767
702.834,-0.06575193,-0.324372,0.08183762,-0.5220269,0.6014138,-0.01997283
702.8498,-0.06447925,-0.3243983,0.08092591,-0.5212846,0.6122947,-0.01997112
702.8646,-0.06322122,-0.3244244,0.08008106,-0.52056,0.6227218,-0.01997019
702.8795,-0.06322122,-0.3244244,0.08008106,-0.52056,0.6227218,-0.01997019
702.8938,-0.06197767,-0.3244502,0.08028139,-0.5198616,0.6315044,-0.0199661
702.9094,-0.06074842,-0.3244758,0.0808244,-0.5191901,0.6394298,-0.01996426
702.924,-0.05953332,-0.324501,0.08138058,-0.5185387,0.6469496,-0.01996319
702.9399,-0.05953332,-0.324501,0.08138058,-0.5185387,0.6469496,-0.01996319
702.9539,-0.0583322,-0.324526,0.08186371,-0.5179005,0.6542456,-0.01996235
702.969,-0.0571449,-0.3245508,0.08333603,-0.5172853,0.6600307,-0.0199582
702.9833,-0.05597125,-0.3245753,0.08513296,-0.516697,0.665038,-0.01995622
702.998,-0.05597125,-0.3245753,0.08513296,-0.516697,0.665038,-0.01995622
703.0121,-0.05481112,-0.3245996,0.08693255,-0.5161294,0.6696979,-0.01995501
703.0276,-0.05366433,-0.3246236,0.08864606,-0.5155751,0.6741851,-0.01995406
703.0424,-0.05253074,-0.3246473,0.09132793,-0.5150437,0.6772183,-0.01994981
703.0571,-0.05253074,-0.3246473,0.09132793,-0.5150437,0.6772183,-0.01994981
703.0726,-0.05141019,-0.3246708,0.09431599,-0.5145403,0.6795222,-0.01994774
703.0869,-0.05030254,-0.324694,0.09728629,-0.5140581,0.6815247,-0.01994645
703.1017,-0.04920764,-0.324717,0.1001474,-0.5135888,0.6833999,-0.01994543
703.1168,-0.04920764,-0.324717,0.1001474,-0.5135888,0.6833999,-0.01994543
703.1307,-0.04812533,-0.3247398,0.10395,-0.5131415,0.6838713,-0.01994114
703.1467,-0.04705549,-0.3247623,0.1080343,-0.5127226,0.6836589,-0.01993901
703.1611,-0.04599795,-0.3247846,0.1120759,-0.5123244,0.6831886,-0.01993768
703.1772,-0.04599795,-0.3247846,0.1120759,-0.5123244,0.6831886,-0.01993768
703.1904,-0.04495259,-0.3248067,0.1170401,-0.5119523,0.6812914,-0.01993327
703.206,-0.04391925,-0.3248285,0.1222415,-0.5116107,0.6787289,-0.01993108
703.2203,-0.04289781,-0.3248501,0.1273513,-0.5112901,0.6759431,-0.01992971
703.2352,-0.04289781,-0.3248501,0.1273513,-0.5112901,0.6759431,-0.01992971
703.2495,-0.04188812,-0.3248715,0.1322803,-0.5109805,0.6731132,-0.01992863
703.265,-0.04089006,-0.3248926,0.1380849,-0.5106896,0.6689643,-0.01992424
703.2798,-0.04089006,-0.3248926,0.1380849,-0.5106896,0.6689643,-0.01992424
703.2943,-0.03990348,-0.3249135,0.1441089,-0.5104258,0.6642144,-0.01992204
703.3095,-0.03892826,-0.3249342,0.150031,-0.5101808,0.6592876,-0.01992065
703.3245,-0.03796426,-0.3249547,0.1557612,-0.5099452,0.6543554,-0.01991956
703.3395,-0.03796426,-0.3249547,0.1557612,-0.5099452,0.6543554,-0.01991956
703.3534,-0.03701136,-0.3249749,0.1623568,-0.5097269,0.6481367,-0.01991515
703.3692,-0.03606943,-0.3249949,0.1691554,-0.5095352,0.6413516,-0.01991296
703.3836,-0.03513834,-0.3250147,0.1758327,-0.5093614,0.6344242,-0.0199116
703.3998,-0.03513834,-0.3250147,0.1758327,-0.5093614,0.6344242,-0.0199116
703.414,-0.03421797,-0.3250344,0.1833632,-0.5092096,0.626175,-0.01990709
703.4284,-0.03330819,-0.3250538,0.1910542,-0.5090863,0.6173708,-0.01990489
703.4431,-0.03240889,-0.3250729,0.198576,-0.5089806,0.6084533,-0.01990356
703.4578,-0.03240889,-0.3250729,0.198576,-0.5089806,0.6084533,-0.01990356
703.4718,-0.03151993,-0.3250919,0.2058408,-0.5088814,0.5995989,-0.01990255
703.4874,-0.03064122,-0.3251107,0.2139195,-0.5087956,0.5895157,-0.01989818
703.5021,-0.02977262,-0.3251293,0.222143,-0.5087334,0.5789334,-0.01989609
703.517,-0.02977262,-0.3251293,0.222143,-0.5087334,0.5789334,-0.01989609
703.5312,-0.02891401,-0.3251477,0.230188,-0.5086858,0.5682774,-0.01989487
703.547,-0.02806529,-0.3251659,0.237967,-0.5086423,0.5577172,-0.019894
703.5616,-0.02722635,-0.3251839,0.2465561,-0.5086101,0.5459481,-0.01988978
703.5767,-0.02722635,-0.3251839,0.2465561,-0.5086101,0.5459481,-0.01988978
703.5909,-0.02639706,-0.3252017,0.2552753,-0.5085998,0.5337071,-0.01988788
703.6062,-0.02557732,-0.3252193,0.2637978,-0.5086023,0.521422,-0.01988686
703.622,-0.02476702,-0.3252367,0.2720354,-0.5086069,0.5092616,-0.0198862
703.6362,-0.02476702,-0.3252367,0.2720354,-0.5086069,0.5092616,-0.0198862
703.65,-0.02396605,-0.3252539,0.2810724,-0.5086201,0.4959095,-0.01988228
703.6654,-0.0231743,-0.325271,0.290219,-0.508653,0.4821123,-0.01988066
703.6802,-0.02239167,-0.3252878,0.2991464,-0.508696,0.4683,-0.01987993
703.695,-0.02239167,-0.3252878,0.2991464,-0.508696,0.4683,-0.01987993
703.7093,-0.02161805,-0.3253045,0.3088606,-0.5087513,0.4532539,-0.01987622
703.7246,-0.02085334,-0.325321,0.3186395,-0.5088264,0.4377708,-0.01987484
703.7394,-0.02085334,-0.325321,0.3186395,-0.5088264,0.4377708,-0.01987484
703.7536,-0.02009743,-0.3253373,0.3281503,-0.5089098,0.4222989,-0.01987436
703.7692,-0.01935023,-0.3253534,0.3373114,-0.5089895,0.4070114,-0.01987424
703.7841,-0.01861163,-0.3253694,0.3472303,-0.5090706,0.3905692,-0.0198712
703.799,-0.01861163,-0.3253694,0.3472303,-0.5090706,0.3905692,-0.0198712
703.8132,-0.01788154,-0.3253852,0.3572042,-0.5091639,0.3737377,-0.01987031
703.8287,-0.01715985,-0.3254008,0.3669052,-0.5092602,0.3569512,-0.01987027
703.8439,-0.01644648,-0.3254163,0.3762524,-0.5093492,0.3403762,-0.01987059
703.8596,-0.01644648,-0.3254163,0.3762524,-0.5093492,0.3403762,-0.01987059
703.8729,-0.01574132,-0.3254316,0.3863608,-0.5094352,0.3226579,-0.01986831
703.8882,-0.01504429,-0.3254467,0.3965141,-0.5095294,0.3045723,-0.01986802
703.903,-0.01435528,-0.3254616,0.4063811,-0.5096226,0.2865572,-0.01986849
703.9176,-0.01435528,-0.3254616,0.4063811,-0.5096226,0.2865572,-0.01986849
703.9319,-0.01367419,-0.3254764,0.4132951,-0.5096825,0.2720706,-0.01987499
703.9476,-0.01300095,-0.325491,0.419006,-0.5096764,0.2593865,-0.01987788
703.9623,-0.01233547,-0.3255054,0.4243834,-0.5096211,0.2474988,-0.01987959
703.9772,-0.01233547,-0.3255054,0.4243834,-0.5096211,0.2474988,-0.01987959
703.9913,-0.01167765,-0.3255197,0.4297014,-0.5095372,0.2360107,-0.01988097
704.007,-0.0110274,-0.3255338,0.435017,-0.5094379,0.2247715,-0.01988232
704.0217,-0.01038464,-0.3255478,0.4403171,-0.5093303,0.2137276,-0.01988374
704.0369,-0.01038464,-0.3255478,0.4403171,-0.5093303,0.2137276,-0.01988374
704.0511,-0.009749289,-0.3255616,0.4455725,-0.5092175,0.2028623,-0.01988524
704.0663,-0.009121249,-0.3255753,0.4507565,-0.5091006,0.1921716,-0.01988681
704.0823,-0.008539028,-0.3381933,0.4653253,-0.5126727,0.1688685,-0.01990722
704.0963,-0.008539028,-0.3381933,0.4653253,-0.5126727,0.1688685,-0.01990722
704.1102,-0.007994684,-0.3585199,0.4797959,-0.5173025,0.1437391,-0.019928
704.1256,-0.007477565,-0.3835092,0.4919042,-0.5218975,0.1200332,-0.01994458
704.1406,-0.006978745,-0.4112641,0.5016816,-0.5261051,0.09834826,-0.01995693
704.1553,-0.006978745,-0.4112641,0.5016816,-0.5261051,0.09834826,-0.01995693
704.1695,-0.00648899,-0.439848,0.5091752,-0.529646,0.07918977,-0.01996537
704.1849,-0.006005905,-0.4688165,0.5154551,-0.5327629,0.06158914,-0.01997141
704.1997,-0.006005905,-0.4688165,0.5154551,-0.5327629,0.06158914,-0.01997141
704.2139,-0.005528123,-0.4978931,0.5210428,-0.5356066,0.04503844,-0.01997574
704.2297,-0.00505126,-0.5261451,0.5256971,-0.5380201,0.02995281,-0.01997849
704.2445,-0.004577226,-0.5537614,0.5300493,-0.5402428,0.01558952,-0.01998019
704.2592,-0.004577226,-0.5537614,0.5300493,-0.5402428,0.01558952,-0.01998019
704.2736,-0.004106988,-0.5808615,0.5342767,-0.5423755,0.001679317,-0.01998104
704.2891,-0.003641006,-0.6075217,0.5384018,-0.5444578,-0.01186547,-0.01998109
704.3051,-0.003174924,-0.6330292,0.5419308,-0.5462496,-0.02440041,-0.01998051
704.3186,-0.003174924,-0.6330292,0.5419308,-0.5462496,-0.02440041,-0.01998051
704.3329,-0.002711798,-0.6577102,0.5453292,-0.5479423,-0.03649864,-0.01997937
704.3484,-0.002252944,-0.6817703,0.5486912,-0.5496044,-0.04833105,-0.01997766
704.363,-0.001798845,-0.7053391,0.5520005,-0.5512542,-0.0599287,-0.01997541
704.3781,-0.001798845,-0.7053391,0.5520005,-0.5512542,-0.0599287,-0.01997541
704.3919,-0.001344222,-0.7277373,0.5547625,-0.5526351,-0.07063285,-0.01997302
704.4077,-0.0008926253,-0.7493118,0.5574238,-0.5539331,-0.08098489,-0.0199703
704.4223,-0.0004454592,-0.770281,0.5600718,-0.5552124,-0.09113844,-0.01996719
704.4372,-0.0004454592,-0.770281,0.5600718,-0.5552124,-0.09113844,-0.01996719
704.4514,2.787943E-06,-0.7900206,0.5622399,-0.5562297,-0.1004767,-0.01996425
704.467,0.0004481525,-0.8089122,0.564361,-0.5571765,-0.1095344,-0.0199611
704.4821,0.000889131,-0.8271956,0.5665095,-0.558117,-0.1184543,-0.01995764
704.4969,0.000889131,-0.8271956,0.5665095,-0.558117,-0.1184543,-0.01995764
704.511,0.001325283,-0.8450217,0.5686591,-0.5590655,-0.1272496,-0.01995385
704.5278,0.001763212,-0.8617238,0.5703287,-0.5597576,-0.1352714,-0.01995054
704.5416,0.002198802,-0.877657,0.5719478,-0.5603807,-0.1430387,-0.01994716
704.5564,0.002198802,-0.877657,0.5719478,-0.5603807,-0.1430387,-0.01994716
704.5705,0.00263046,-0.8930442,0.5735962,-0.5609982,-0.1506926,-0.01994354
704.5861,0.003057674,-0.9080255,0.5752548,-0.5616252,-0.1582484,-0.01993967
704.6005,0.00348755,-0.9219275,0.5764534,-0.561997,-0.1650677,-0.01993651
704.6155,0.00348755,-0.9219275,0.5764534,-0.561997,-0.1650677,-0.01993651
704.6296,0.003915749,-0.9351011,0.5776193,-0.5623031,-0.171666,-0.01993337
704.6451,0.004340526,-0.9477662,0.5788316,-0.562608,-0.1781826,-0.01993005
704.6603,0.004761254,-0.960061,0.5800713,-0.5629274,-0.1846324,-0.01992651
704.675,0.004761254,-0.960061,0.5800713,-0.5629274,-0.1846324,-0.01992651
704.6892,0.005185408,-0.9713106,0.5808718,-0.562996,-0.1903811,-0.01992386
704.7048,0.005608558,-0.981865,0.5816568,-0.5630046,-0.1959406,-0.01992129
704.7195,0.005608558,-0.981865,0.5816568,-0.5630046,-0.1959406,-0.01992129
704.7336,0.006028822,-0.9919436,0.582504,-0.563018,-0.2014478,-0.01991856
704.7501,0.006453351,-1.000922,0.5829626,-0.562788,-0.2063017,-0.01991679
704.764,0.006877563,-1.009182,0.5834472,-0.5625104,-0.2110146,-0.01991508
704.7787,0.006877563,-1.009182,0.5834472,-0.5625104,-0.2110146,-0.01991508
704.7927,0.007299396,-1.016962,0.5840242,-0.5622503,-0.2157163,-0.01991318
704.8082,0.007717906,-1.024412,0.5846655,-0.5620217,-0.2204137,-0.01991105
704.8231,0.008140867,-1.030863,0.5848989,-0.5615578,-0.2244682,-0.01991003
704.8378,0.008140867,-1.030863,0.5848989,-0.5615578,-0.2244682,-0.01991003
704.8517,0.008564029,-1.036671,0.5851432,-0.5610487,-0.2283863,-0.01990912
704.8675,0.008985285,-1.042056,0.5854734,-0.5605583,-0.2323003,-0.01990803
704.8822,0.009403537,-1.047156,0.5858684,-0.5601013,-0.2362209,-0.01990674
704.8971,0.009403537,-1.047156,0.5858684,-0.5601013,-0.2362209,-0.01990674
704.9112,0.009826598,-1.051298,0.5858578,-0.5594118,-0.2395112,-0.01990665
704.9269,0.01025039,-1.05483,0.585865,-0.558681,-0.2426811,-0.01990669
704.9418,0.0106727,-1.057971,0.5859665,-0.557973,-0.2458642,-0.01990654
704.9567,0.0106727,-1.057971,0.5859665,-0.557973,-0.2458642,-0.01990654
704.9709,0.01110072,-1.060097,0.585704,-0.5570399,-0.2484527,-0.01990762
704.9874,0.0115303,-1.061587,0.5854951,-0.5560774,-0.2509601,-0.01990877
705.0011,0.01195895,-1.062682,0.5854067,-0.5551498,-0.2535147,-0.01990966
705.0159,0.01195895,-1.062682,0.5854067,-0.5551498,-0.2535147,-0.01990966
705.0301,0.01238511,-1.063527,0.5854107,-0.5542709,-0.2561214,-0.0199103
705.0456,0.01281626,-1.06346,0.5850268,-0.5531767,-0.2581363,-0.01991224
705.0604,0.01324829,-1.062827,0.5846748,-0.5520535,-0.2600631,-0.01991428
705.0751,0.01324829,-1.062827,0.5846748,-0.5520535,-0.2600631,-0.01991428
705.0894,0.01367518,-1.061851,0.5844368,-0.550964,-0.2620378,-0.01991608
705.105,0.01409473,-1.060667,0.5842926,-0.549923,-0.2640708,-0.01991763
705.1198,0.01409473,-1.060667,0.5842926,-0.549923,-0.2640708,-0.01991763
705.1338,0.01451504,-1.058599,0.5837542,-0.5486665,-0.2655094,-0.01992055
705.1495,0.01492817,-1.055998,0.5832601,-0.5473832,-0.2668746,-0.01992357
705.1645,0.0153317,-1.05308,0.5828883,-0.5461372,-0.2683009,-0.01992633
705.1793,0.0153317,-1.05308,0.5828883,-0.5461372,-0.2683009,-0.01992633
705.1935,0.01573407,-1.049219,0.5821595,-0.5446826,-0.2691614,-0.01993044
705.2103,0.01612771,-1.044797,0.5815085,-0.5432124,-0.269983,-0.01993459
705.224,0.01651076,-1.040048,0.5810041,-0.5417905,-0.2708955,-0.01993841
705.2388,0.01651076,-1.040048,0.5810041,-0.5417905,-0.2708955,-0.01993841
705.2527,0.01688375,-1.035121,0.5806159,-0.540431,-0.2719026,-0.01994189
705.2683,0.01725617,-1.029343,0.579834,-0.5388706,-0.2723319,-0.01994679
705.286,0.01762083,-1.02307,0.5791058,-0.5372953,-0.272712,-0.01995174
705.2992,0.01762083,-1.02307,0.5791058,-0.5372953,-0.272712,-0.01995174
705.3121,0.01797603,-1.016519,0.578511,-0.5357679,-0.2731785,-0.01995638
705.3276,0.01832224,-1.009827,0.578027,-0.5343027,-0.2737401,-0.01996068
705.3427,0.01866868,-1.002316,0.5771383,-0.5326386,-0.2737183,-0.01996645
705.3574,0.01866868,-1.002316,0.5771383,-0.5326386,-0.2737183,-0.01996645
705.3723,0.01900812,-0.9943352,0.5763029,-0.5309615,-0.2736515,-0.01997227
705.3877,0.01933885,-0.9861016,0.5756047,-0.5293342,-0.2736789,-0.01997777
705.4019,0.01966134,-0.9777488,0.5750221,-0.5277719,-0.2738107,-0.01998289
705.4169,0.01966134,-0.9777488,0.5750221,-0.5277719,-0.2738107,-0.01998289
705.4321,0.01998446,-0.9685979,0.5740284,-0.5260149,-0.2733578,-0.01998951
705.4465,0.02030112,-0.9589977,0.5730903,-0.524248,-0.2728666,-0.01999616
705.4611,0.0206097,-0.9491639,0.5722941,-0.5225341,-0.272479,-0.02000246
705.476,0.0206097,-0.9491639,0.5722941,-0.5225341,-0.272479,-0.02000246
705.4903,0.0209182,-0.9384682,0.5711207,-0.5206318,-0.2715299,-0.0200102
705.5057,0.02121965,-0.9272907,0.5700363,-0.5187299,-0.2705744,-0.02001788
705.5203,0.02151268,-0.9158667,0.5691181,-0.5168909,-0.2697502,-0.02002513
705.5352,0.02151268,-0.9158667,0.5691181,-0.5168909,-0.2697502,-0.02002513
705.5493,0.02179798,-0.9043416,0.568337,-0.5151288,-0.2690623,-0.02003193
705.5648,0.02207676,-0.8928051,0.5676487,-0.5134401,-0.2684832,-0.02003833
705.5797,0.02207676,-0.8928051,0.5676487,-0.5134401,-0.2684832,-0.02003833
705.5938,0.02235014,-0.8813126,0.567019,-0.5118167,-0.2679847,-0.02004443
705.6096,0.02261902,-0.869898,0.5664256,-0.5102505,-0.2675456,-0.02005027
705.6249,0.02288403,-0.8585817,0.5658558,-0.5087349,-0.2671518,-0.02005591
705.6396,0.02288403,-0.8585817,0.5658558,-0.5087349,-0.2671518,-0.02005591
705.6555,0.02313889,-0.8481379,0.5658258,-0.5075185,-0.2674944,-0.02005947
705.6688,0.02339068,-0.8382763,0.5658076,-0.5064092,-0.2679715,-0.02006256
705.6835,0.02364168,-0.8288165,0.565685,-0.5053346,-0.268411,-0.02006565
705.6988,0.02364168,-0.8288165,0.565685,-0.5053346,-0.268411,-0.02006565
705.7126,0.02388577,-0.8204077,0.5659935,-0.5045253,-0.2694907,-0.02006692
705.7279,0.02412879,-0.8126826,0.566236,-0.5037888,-0.270623,-0.02006794
705.7429,0.02437229,-0.8054125,0.566324,-0.503058,-0.2716566,-0.02006915
705.7577,0.02437229,-0.8054125,0.566324,-0.503058,-0.2716566,-0.02006915
705.7717,0.02461619,-0.798455,0.5662835,-0.5023158,-0.2725806,-0.0200706
705.7874,0.0248537,-0.7924826,0.5666924,-0.5018169,-0.27413,-0.02007023
705.8019,0.02508963,-0.7871431,0.5670541,-0.5013779,-0.2757291,-0.02006963
705.8169,0.02508963,-0.7871431,0.5670541,-0.5013779,-0.2757291,-0.02006963
705.8312,0.02532537,-0.7822168,0.5672725,-0.5009363,-0.2772263,-0.02006923
705.8469,0.02556094,-0.7775672,0.567367,-0.5004764,-0.2786079,-0.0200691
705.8615,0.02578989,-0.7738704,0.5679136,-0.5002539,-0.2806091,-0.02006712
705.8774,0.02578989,-0.7738704,0.5679136,-0.5002539,-0.2806091,-0.02006712
705.8917,0.02601666,-0.7707767,0.5684112,-0.5000849,-0.2826515,-0.02006492
705.9061,0.02624269,-0.7680684,0.5687606,-0.4999069,-0.2845808,-0.02006296
705.9206,0.02646814,-0.7656094,0.5689794,-0.4997048,-0.2863826,-0.0200613
705.9353,0.02646814,-0.7656094,0.5689794,-0.4997048,-0.2863826,-0.0200613
705.9494,0.02668682,-0.7640769,0.569644,-0.4997343,-0.2887919,-0.02005778
705.9647,0.02690289,-0.763122,0.5702531,-0.4998112,-0.2912303,-0.02005405
705.9796,0.02690289,-0.763122,0.5702531,-0.4998112,-0.2912303,-0.02005405
705.9935,0.02711782,-0.7625271,0.5707067,-0.499873,-0.293543,-0.0200506
706.0093,0.02732604,-0.7629158,0.5715563,-0.5001587,-0.2964239,-0.02004535
706.024,0.027531,-0.7639102,0.5723117,-0.5004798,-0.2992961,-0.02003998
706.0389,0.027531,-0.7639102,0.5723117,-0.5004798,-0.2992961,-0.02003998
706.0529,0.02773342,-0.7652733,0.5728834,-0.5007737,-0.3020104,-0.02003499
706.0684,0.02793366,-0.7668577,0.5732974,-0.5010271,-0.3045577,-0.0200304
706.0834,0.02812593,-0.7693332,0.5741321,-0.5014986,-0.3076737,-0.02002395
706.0982,0.02812593,-0.7693332,0.5741321,-0.5014986,-0.3076737,-0.02002395
706.1122,0.02831335,-0.7723472,0.5748948,-0.5020034,-0.3107883,-0.02001737
706.1288,0.0284976,-0.7756796,0.5754878,-0.5024806,-0.3137493,-0.02001113
706.1425,0.02867952,-0.7791936,0.5759292,-0.5029165,-0.316543,-0.02000532
706.1574,0.02867952,-0.7791936,0.5759292,-0.5029165,-0.316543,-0.02000532
706.1714,0.02885348,-0.7835656,0.5767885,-0.5035695,-0.3198971,-0.0199976
706.1866,0.02902303,-0.7884474,0.5775732,-0.5042533,-0.3232423,-0.01998975
706.2012,0.02918995,-0.7936218,0.5781844,-0.5049065,-0.3264254,-0.01998229
706.2159,0.02918995,-0.7936218,0.5781844,-0.5049065,-0.3264254,-0.01998229
706.2302,0.02934894,-0.7997155,0.5791651,-0.5057714,-0.3301318,-0.01997297
706.2457,0.029504,-0.8063492,0.5800313,-0.5066568,-0.333791,-0.01996362
706.2604,0.02965707,-0.8132866,0.5806953,-0.5075012,-0.3372561,-0.01995477
706.2754,0.02965707,-0.8132866,0.5806953,-0.5075012,-0.3372561,-0.01995477
706.2896,0.02980894,-0.8203803,0.581184,-0.508292,-0.3405189,-0.01994645
706.3049,0.02995349,-0.8283006,0.5820623,-0.5092895,-0.3443011,-0.01993623
706.32,0.03009483,-0.8366958,0.58285,-0.5103074,-0.3480453,-0.01992596
706.3345,0.03009483,-0.8366958,0.58285,-0.5103074,-0.3480453,-0.01992596
706.3487,0.03023479,-0.8453468,0.5834528,-0.5112848,-0.3516028,-0.01991617
706.3652,0.03037405,-0.854117,0.5838903,-0.5122086,-0.3549614,-0.01990693
706.3793,0.03037405,-0.854117,0.5838903,-0.5122086,-0.3549614,-0.01990693
706.3931,0.03050608,-0.8636832,0.5847152,-0.513339,-0.3588317,-0.01989575
706.4087,0.03063538,-0.8736985,0.5854496,-0.5144879,-0.3626589,-0.01988453
706.4234,0.03076383,-0.8839465,0.5859987,-0.5155941,-0.3662944,-0.01987383
706.438,0.03076383,-0.8839465,0.5859987,-0.5155941,-0.3662944,-0.01987383
706.4521,0.03088509,-0.895054,0.5868874,-0.5169019,-0.370405,-0.01986126
706.4674,0.03100263,-0.9066418,0.5876485,-0.5182176,-0.3744359,-0.01984878
706.4823,0.03111782,-0.9184735,0.5881994,-0.51948,-0.3782449,-0.01983692
706.4972,0.03111782,-0.9184735,0.5881994,-0.51948,-0.3782449,-0.01983692
706.5116,0.03123141,-0.9304024,0.5885682,-0.5206773,-0.3818259,-0.01982573
706.5269,0.03133642,-0.9430993,0.5892987,-0.5220717,-0.3858795,-0.01981267
706.5419,0.0314359,-0.956212,0.589929,-0.5234737,-0.389865,-0.01979966
706.5567,0.0314359,-0.956212,0.589929,-0.5234737,-0.389865,-0.01979966
706.5707,0.03153168,-0.9695217,0.5903702,-0.5248235,-0.3936394,-0.01978727
706.5861,0.03162488,-0.9828927,0.590643,-0.5261088,-0.3971928,-0.01977554
706.6019,0.03170841,-0.9970031,0.5912769,-0.5275914,-0.401213,-0.01976191
706.6157,0.03170841,-0.9970031,0.5912769,-0.5275914,-0.401213,-0.01976191
706.6299,0.03178534,-1.011505,0.5918137,-0.5290803,-0.405163,-0.01974836
706.645,0.03185764,-1.026181,0.5921646,-0.530515,-0.4089001,-0.01973546
706.6599,0.03185764,-1.026181,0.5921646,-0.530515,-0.4089001,-0.01973546
706.674,0.03191847,-1.041662,0.5928314,-0.5321417,-0.4130691,-0.01972076
706.6894,0.031971,-1.057566,0.5933673,-0.5337648,-0.4171341,-0.01970625
706.704,0.03201748,-1.073658,0.5936954,-0.5353243,-0.4209591,-0.01969251
706.7187,0.03201748,-1.073658,0.5936954,-0.5353243,-0.4209591,-0.01969251
706.7331,0.03205957,-1.089793,0.5938446,-0.5368092,-0.4245402,-0.01967957
706.7485,0.03208979,-1.106644,0.5943331,-0.5384828,-0.4285535,-0.01966481
706.7631,0.03211413,-1.123857,0.5947164,-0.5401545,-0.4324758,-0.01965022
706.7778,0.03211413,-1.123857,0.5947164,-0.5401545,-0.4324758,-0.01965022
706.7919,0.03213689,-1.141215,0.5949093,-0.5417655,-0.4361699,-0.01963639
706.8079,0.03215973,-1.158583,0.5949345,-0.5433044,-0.4396285,-0.01962334
706.8224,0.03217828,-1.176641,0.5952914,-0.5450345,-0.4435135,-0.01960848
706.8394,0.03217828,-1.176641,0.5952914,-0.5450345,-0.4435135,-0.01960848
706.8521,0.03219696,-1.195041,0.5955425,-0.546763,-0.447307,-0.01959382
706.8665,0.03221636,-1.213568,0.5956079,-0.5484297,-0.4508741,-0.01957993
706.8812,0.03223642,-1.23209,0.595511,-0.5500225,-0.4542072,-0.01956686
706.896,0.03223642,-1.23209,0.595511,-0.5500225,-0.4542072,-0.01956686
706.9101,0.03225219,-1.251288,0.59574,-0.5518042,-0.4579577,-0.019552
706.9253,0.0322682,-1.270812,0.5958641,-0.5535817,-0.4616136,-0.01953738
706.9402,0.03228506,-1.29045,0.5958058,-0.5552951,-0.4650422,-0.01952354
706.9549,0.03228506,-1.29045,0.5958058,-0.5552951,-0.4650422,-0.01952354
706.969,0.03229778,-1.310824,0.5960247,-0.5571891,-0.4688487,-0.01950805
706.9846,0.03231098,-1.331556,0.5961066,-0.559069,-0.4725283,-0.01949293
706.9992,0.03231098,-1.331556,0.5961066,-0.559069,-0.4725283,-0.01949293
707.0134,0.03232519,-1.352416,0.5959871,-0.560876,-0.4759569,-0.01947871
707.0289,0.03234025,-1.373259,0.5956987,-0.5625998,-0.4791346,-0.01946542
707.0438,0.03248839,-1.381393,0.5881109,-0.5599716,-0.4720066,-0.01949449
707.0585,0.03248839,-1.381393,0.5881109,-0.5599716,-0.4720066,-0.01949449
707.0726,0.0327291,-1.381684,0.5805649,-0.5563266,-0.4632223,-0.01953088
707.0891,0.03300254,-1.377138,0.5747315,-0.552736,-0.455325,-0.01956414
707.1027,0.03326266,-1.369639,0.5705371,-0.5494825,-0.4487532,-0.01959235
707.1176,0.03326266,-1.369639,0.5705371,-0.5494825,-0.4487532,-0.01959235
707.1318,0.03349264,-1.360361,0.5675029,-0.5465872,-0.4433041,-0.01961618
707.1468,0.03369337,-1.35003,0.5651838,-0.5439954,-0.4386634,-0.01963677
707.1614,0.03387148,-1.339097,0.5632693,-0.5416418,-0.4345684,-0.0196551
707.1763,0.03387148,-1.339097,0.5632693,-0.5416418,-0.4345684,-0.0196551
707.1903,0.0340337,-1.327842,0.5690393,-0.5310308,-0.4374276,-0.03467086
707.2057,0.03418519,-1.316438,0.5723389,-0.5235256,-0.4384179,-0.04939186
707.2203,0.03432949,-1.304993,0.5743808,-0.5176151,-0.4384168,-0.06382423
707.235,0.03432949,-1.304993,0.5743808,-0.5176151,-0.4384168,-0.06382423
707.2493,0.03446894,-1.293572,0.5758148,-0.5125573,-0.4379297,-0.07797364
707.2646,0.03460502,-1.282217,0.5752119,-0.5098531,-0.4356534,-0.08852034
707.2793,0.03460502,-1.282217,0.5752119,-0.5098531,-0.4356534,-0.08852034
707.2935,0.03473866,-1.270953,0.5751035,-0.5067957,-0.433817,-0.09886011
707.309,0.03487043,-1.259795,0.5752461,-0.5036193,-0.432237,-0.108997
707.3235,0.03500071,-1.248751,0.5755115,-0.500436,-0.4308115,-0.118935
707.3394,0.03500071,-1.248751,0.5755115,-0.500436,-0.4308115,-0.118935
707.3533,0.03512968,-1.237827,0.5740602,-0.4991776,-0.4278881,-0.125345
707.3678,0.03525748,-1.227025,0.5732677,-0.4973308,-0.4255748,-0.1316292
707.3823,0.03538419,-1.216346,0.5727947,-0.4952341,-0.4235959,-0.13779
707.3968,0.03538419,-1.216346,0.5727947,-0.4952341,-0.4235959,-0.13779
707.4123,0.03550983,-1.20579,0.5707083,-0.494936,-0.4202141,-0.1404968
707.4263,0.03563442,-1.195357,0.5693288,-0.4939705,-0.4174936,-0.1431503
707.4409,0.03575799,-1.185046,0.5682935,-0.4927038,-0.4151335,-0.1457516
707.4553,0.03575799,-1.185046,0.5682935,-0.4927038,-0.4151335,-0.1457516
707.4695,0.03588051,-1.174856,0.5674236,-0.4913137,-0.4129778,-0.1483018
707.4847,0.03600198,-1.164786,0.564899,-0.4917798,-0.4093771,-0.1474687
707.4995,0.03600198,-1.164786,0.564899,-0.4917798,-0.4093771,-0.1474687
707.5135,0.03612239,-1.154834,0.5630497,-0.491587,-0.4064054,-0.1466519
707.5293,0.03624173,-1.144999,0.5615379,-0.4910847,-0.4037823,-0.1458508
707.5436,0.03635998,-1.13528,0.5601965,-0.4904429,-0.4013618,-0.1450654
707.5585,0.03635998,-1.13528,0.5601965,-0.4904429,-0.4013618,-0.1450654
707.5724,0.03647713,-1.125676,0.5572541,-0.4916471,-0.397538,-0.140962
707.5878,0.03659318,-1.116185,0.5549892,-0.4921684,-0.394341,-0.136939
707.6022,0.0367081,-1.106806,0.5530708,-0.4923574,-0.391496,-0.1329947
707.618,0.0367081,-1.106806,0.5530708,-0.4923574,-0.391496,-0.1329947
707.6321,0.03682189,-1.097538,0.5496888,-0.4942953,-0.3873713,-0.1257944
707.6466,0.03693454,-1.088379,0.5470228,-0.4954867,-0.3839088,-0.1187351
707.661,0.03704604,-1.079328,0.5447273,-0.4963047,-0.3808206,-0.111814
707.6758,0.03704604,-1.079328,0.5447273,-0.4963047,-0.3808206,-0.111814
707.6898,0.03715638,-1.070384,0.5426317,-0.4969312,-0.377957,-0.1050285
707.7052,0.03726556,-1.061545,0.5390773,-0.4993758,-0.3738182,-0.09504271
707.7197,0.03726556,-1.061545,0.5390773,-0.4993758,-0.3738182,-0.09504271
707.7335,0.03737357,-1.052811,0.5361939,-0.5010899,-0.3702955,-0.08525255
707.7491,0.0374804,-1.04418,0.5336674,-0.5024288,-0.3671289,-0.07565416
707.7639,0.03758605,-1.035652,0.531342,-0.5035663,-0.3641827,-0.0662438
707.7786,0.03758605,-1.035652,0.531342,-0.5035663,-0.3641827,-0.0662438
707.7926,0.03769051,-1.027224,0.5276402,-0.5065182,-0.3600355,-0.05368469
707.808,0.03779378,-1.018895,0.5245945,-0.5087208,-0.3564861,-0.04137164
707.8229,0.03789586,-1.010665,0.5219044,-0.5105305,-0.3532875,-0.02929983
707.8378,0.03789586,-1.010665,0.5219044,-0.5105305,-0.3532875,-0.02929983
707.8518,0.03799675,-1.002533,0.5179811,-0.5140604,-0.3490196,-0.01413141
707.869,0.03809644,-0.9944962,0.5147371,-0.51678,-0.3453701,0.0007397821
707.8829,0.03819494,-0.9865549,0.5118631,-0.5190687,-0.342085,0.01531959
707.8967,0.03819494,-0.9865549,0.5118631,-0.5190687,-0.342085,0.01531959
707.9105,0.03829226,-0.9787076,0.5092061,-0.5211124,-0.3390312,0.02961371
707.9258,0.03838838,-0.970953,0.5063697,-0.5234653,-0.3358527,0.04441977
707.9404,0.03848333,-0.9632903,0.5037623,-0.525548,-0.3329033,0.05893567
707.9551,0.03848333,-0.9632903,0.5037623,-0.525548,-0.3329033,0.05893567
707.9692,0.03857708,-0.9557183,0.5013065,-0.5274638,-0.3301162,0.07316709
707.9843,0.03866966,-0.948236,0.4989636,-0.529264,-0.3274556,0.08711959
707.999,0.03866966,-0.948236,0.4989636,-0.529264,-0.3274556,0.08711959
708.013,0.03876107,-0.9408423,0.4967144,-0.5309745,-0.3249019,0.1007987
708.0286,0.03885131,-0.9335362,0.4945489,-0.5326086,-0.322444,0.1142096
708.043,0.03894038,-0.9263167,0.4924617,-0.5341735,-0.3200751,0.1273577
708.0579,0.03894038,-0.9263167,0.4924617,-0.5341735,-0.3200751,0.1273577
708.0721,0.03902829,-0.9191827,0.4907458,-0.5352077,-0.3180536,0.1394561
708.0875,0.03911506,-0.9121332,0.488991,-0.5363433,-0.3160209,0.1513173
708.1021,0.03920067,-0.9051673,0.48725,-0.5375013,-0.3140168,0.162946
708.1167,0.03920067,-0.9051673,0.48725,-0.5375013,-0.3140168,0.162946
708.1308,0.03928514,-0.898284,0.4855484,-0.5386439,-0.3120616,0.1743468
708.1469,0.03936848,-0.8914824,0.4851047,-0.5377873,-0.3112318,0.182191
708.1612,0.03945071,-0.8847613,0.4842713,-0.5375793,-0.3100971,0.1898813
708.1763,0.03945071,-0.8847613,0.4842713,-0.5375793,-0.3100971,0.1898813
708.1897,0.03953182,-0.87812,0.4832698,-0.5376734,-0.3088278,0.197421
708.205,0.03961182,-0.8715575,0.4822118,-0.5379013,-0.3075148,0.2048128
708.2195,0.03961182,-0.8715575,0.4822118,-0.5379013,-0.3075148,0.2048128
708.2333,0.03969072,-0.8650728,0.4823413,-0.5362126,-0.3072571,0.2087265
708.2488,0.03976854,-0.858665,0.482059,-0.5352281,-0.3066688,0.2125636
708.2632,0.03984527,-0.8523334,0.4815908,-0.5345851,-0.3059261,0.2163254
708.2781,0.03984527,-0.8523334,0.4815908,-0.5345851,-0.3059261,0.2163254
708.2922,0.03992094,-0.8460768,0.4822404,-0.5321371,-0.3061768,0.2166802
708.3076,0.03999554,-0.8398946,0.4824428,-0.5304603,-0.3060624,0.217028
708.322,0.04006909,-0.8337857,0.4824368,-0.5291686,-0.3057708,0.2173691
708.3368,0.04006909,-0.8337857,0.4824368,-0.5291686,-0.3057708,0.2173691
708.3508,0.04014159,-0.8277494,0.4823419,-0.5280739,-0.3054019,0.2177035
708.3663,0.04021307,-0.8217847,0.4834173,-0.5251142,-0.3060747,0.2146981
708.3808,0.04028352,-0.8158909,0.484058,-0.5229073,-0.306394,0.2117516
708.3959,0.04028352,-0.8158909,0.484058,-0.5229073,-0.306394,0.2117516
708.4119,0.04035296,-0.8100671,0.48449,-0.5210868,-0.3065374,0.2088629
708.4261,0.04042139,-0.8043125,0.4848268,-0.5194739,-0.3065998,0.2060308
708.4399,0.04042139,-0.8043125,0.4848268,-0.5194739,-0.3065998,0.2060308
708.4536,0.04048884,-0.7986263,0.4863483,-0.5160116,-0.3077225,0.199921
708.4687,0.04055531,-0.7930076,0.487421,-0.5133187,-0.3084789,0.193931
708.4834,0.0406208,-0.7874557,0.4882732,-0.5110294,-0.3090493,0.1880585
708.498,0.0406208,-0.7874557,0.4882732,-0.5110294,-0.3090493,0.1880585
708.5121,0.04068534,-0.7819698,0.4902739,-0.5069971,-0.3106525,0.1789678
708.5274,0.04074894,-0.7765491,0.4917855,-0.5037941,-0.3118505,0.1700554
708.5419,0.0408116,-0.7711928,0.493054,-0.5010328,-0.3128396,0.1613177
708.5566,0.0408116,-0.7711928,0.493054,-0.5010328,-0.3128396,0.1613177
708.5707,0.04087333,-0.7659003,0.4942034,-0.4985236,-0.3137242,0.1527513
708.5861,0.04093415,-0.7606706,0.4965976,-0.4942084,-0.3157322,0.1410197
708.6008,0.04099406,-0.7555031,0.498508,-0.4906969,-0.3173381,0.129518
708.6152,0.04099406,-0.7555031,0.498508,-0.4906969,-0.3173381,0.129518
708.6293,0.04105308,-0.7503971,0.5001743,-0.4876222,-0.3187343,0.1182419
708.6447,0.04111122,-0.7453518,0.5017176,-0.4848044,-0.3200228,0.1071868
708.6595,0.04111122,-0.7453518,0.5017176,-0.4848044,-0.3200228,0.1071868
708.6735,0.04116848,-0.7403665,0.5045625,-0.480194,-0.3224936,0.09301533
708.6909,0.0412249,-0.7354405,0.506901,-0.4763974,-0.3245398,0.07912165
708.7046,0.04128046,-0.7305731,0.5089815,-0.4730491,-0.3263625,0.06550035
708.7181,0.04128046,-0.7305731,0.5089815,-0.4730491,-0.3263625,0.06550035
708.7326,0.04133519,-0.7257636,0.512352,-0.4680178,-0.3293633,0.04882074
708.7475,0.0413891,-0.7210113,0.5151674,-0.463854,-0.3318916,0.03246811
708.762,0.04144218,-0.7163156,0.5176999,-0.4601719,-0.3341704,0.01643606
708.7766,0.04144218,-0.7163156,0.5176999,-0.4601719,-0.3341704,0.01643606
708.7906,0.04149446,-0.7116758,0.5200872,-0.4567821,-0.3363177,0.000718303
708.8062,0.04154589,-0.7070912,0.515561,-0.4623662,-0.3321275,0.0003078416
708.821,0.04159651,-0.7025611,0.513495,-0.465027,-0.3300734,-9.42841E-05
708.8354,0.04159651,-0.7025611,0.513495,-0.465027,-0.3300734,-9.42841E-05
708.8495,0.04164635,-0.6980849,0.5125858,-0.4662633,-0.3290657,-0.0004882678
708.8649,0.04169543,-0.693662,0.5122176,-0.4668084,-0.3285806,-0.0008743378
708.8797,0.04169543,-0.693662,0.5122176,-0.4668084,-0.3285806,-0.0008743378
708.894,0.04174377,-0.6892917,0.5120955,-0.4670205,-0.3283591,-0.001252713
708.9094,0.04179138,-0.6849735,0.51208,-0.4670741,-0.3282725,-0.001623588
708.9241,0.04183825,-0.6807067,0.5121066,-0.4670542,-0.3282567,-0.001987127
708.9388,0.04183825,-0.6807067,0.5121066,-0.4670542,-0.3282567,-0.001987127
708.9549,0.04188441,-0.6764907,0.5121486,-0.4670025,-0.3282774,-0.002343501
708.9681,0.04192987,-0.6723248,0.5121956,-0.4669388,-0.3283212,-0.002692847
708.9828,0.04197462,-0.6682087,0.5122436,-0.4668725,-0.328382,-0.003035302
708.9974,0.04197462,-0.6682087,0.5122436,-0.4668725,-0.328382,-0.003035302
709.0114,0.04201869,-0.6641415,0.5122915,-0.4668082,-0.3284566,-0.003370998
709.0271,0.04206208,-0.6601227,0.5122031,-0.4667095,-0.3288498,-0.003699078
709.0413,0.0421048,-0.6561518,0.511861,-0.4665968,-0.3293645,-0.004020411
709.056,0.0421048,-0.6561518,0.511861,-0.4665968,-0.3293645,-0.004020411
709.07,0.04214686,-0.6522282,0.5112807,-0.4664844,-0.329899,-0.004335381
709.0853,0.04218828,-0.6483513,0.5105124,-0.4663785,-0.3304206,-0.004644191
709.1005,0.04222905,-0.6445206,0.5094722,-0.4662428,-0.3312287,-0.004945973
709.1149,0.04222905,-0.6445206,0.5094722,-0.4662428,-0.3312287,-0.004945973
709.1291,0.0422692,-0.6407356,0.5080841,-0.4660973,-0.3321289,-0.00524158
709.1443,0.04230873,-0.6369956,0.5063943,-0.4659553,-0.3330242,-0.005531379
709.159,0.04230873,-0.6369956,0.5063943,-0.4659553,-0.3330242,-0.005531379
709.1733,0.04234764,-0.6333002,0.5043407,-0.465784,-0.3341924,-0.005814536
709.1887,0.04238596,-0.6296488,0.5018721,-0.4656042,-0.3354338,-0.006091923
709.2032,0.04242368,-0.6260409,0.4990555,-0.4654301,-0.3366517,-0.006363891
709.2197,0.04242368,-0.6260409,0.4990555,-0.4654301,-0.3366517,-0.006363891
709.2332,0.04246082,-0.622476,0.4959793,-0.4652672,-0.3378195,-0.00663061
709.2476,0.04249738,-0.6189536,0.4925883,-0.465078,-0.3392421,-0.00689115
709.262,0.04253338,-0.6154732,0.4888254,-0.4648816,-0.3407299,-0.007146361
709.2767,0.04253338,-0.6154732,0.4888254,-0.4648816,-0.3407299,-0.007146361
709.2907,0.04256883,-0.6120341,0.484749,-0.4646913,-0.3421893,-0.007396585
709.306,0.04260372,-0.6086361,0.4804401,-0.4645126,-0.3435944,-0.007641982
709.3205,0.04263807,-0.6052786,0.4758385,-0.4643073,-0.3452486,-0.007881602
709.335,0.04263807,-0.6052786,0.4758385,-0.4643073,-0.3452486,-0.007881602
709.3491,0.04267189,-0.6019611,0.4708831,-0.4640946,-0.3469627,-0.0081163
709.3647,0.04270519,-0.5986831,0.465629,-0.4638881,-0.3486431,-0.008346409
709.3794,0.04270519,-0.5986831,0.465629,-0.4638881,-0.3486431,-0.008346409
709.3933,0.04273797,-0.5954442,0.4600231,-0.4636533,-0.3505678,-0.008571031
709.4085,0.04277025,-0.5922439,0.4540188,-0.4634111,-0.3525405,-0.008791042
709.4233,0.04280202,-0.5890818,0.4476851,-0.4631761,-0.3544664,-0.009006779
709.4382,0.04280202,-0.5890818,0.4476851,-0.4631761,-0.3544664,-0.009006779
709.452,0.04283331,-0.5859573,0.4411116,-0.462954,-0.3563199,-0.00921839
709.4673,0.04286411,-0.5828701,0.4342464,-0.4627059,-0.358404,-0.009424867
709.4841,0.04289443,-0.5798196,0.4270338,-0.462451,-0.360532,-0.009627081
709.4977,0.04289443,-0.5798196,0.4270338,-0.462451,-0.360532,-0.009627081
709.5119,0.04292429,-0.5768055,0.419532,-0.4622032,-0.3626119,-0.009825362
709.5273,0.04295368,-0.5738274,0.4118213,-0.4619684,-0.3646182,-0.01001984
709.5408,0.04298262,-0.5708847,0.4038435,-0.4617066,-0.3668516,-0.0102095
709.5551,0.04298262,-0.5708847,0.4038435,-0.4617066,-0.3668516,-0.0102095
709.5692,0.04301111,-0.5679771,0.3955386,-0.4614375,-0.3691261,-0.01039522
709.5844,0.04303916,-0.5651042,0.3869607,-0.4611754,-0.3713492,-0.01057733
709.5989,0.04303916,-0.5651042,0.3869607,-0.4611754,-0.3713492,-0.01057733
709.6131,0.04306678,-0.5622655,0.3780583,-0.4608841,-0.3737963,-0.01075484
709.6285,0.04309397,-0.5594607,0.3687855,-0.4605853,-0.3762742,-0.01092868
709.6431,0.04312074,-0.5566893,0.3592099,-0.4602943,-0.3786894,-0.01109915
709.6578,0.04312074,-0.5566893,0.3592099,-0.4602943,-0.3786894,-0.01109915
709.6719,0.04314709,-0.553951,0.3494195,-0.4600173,-0.3810167,-0.01126639
709.6873,0.04317304,-0.5512453,0.3393641,-0.4597134,-0.3835553,-0.01142931
709.702,0.0431986,-0.5485718,0.3289892,-0.4594025,-0.3861222,-0.01158884
709.7166,0.0431986,-0.5485718,0.3289892,-0.4594025,-0.3861222,-0.01158884
709.7305,0.04322375,-0.5459303,0.3183517,-0.4590993,-0.3886269,-0.01174528
709.746,0.04324852,-0.5433202,0.3075302,-0.45881,-0.3910441,-0.01189876
709.7619,0.04327291,-0.5407412,0.2964683,-0.4584927,-0.3936703,-0.01204816
709.7766,0.04327291,-0.5407412,0.2964683,-0.4584927,-0.3936703,-0.01204816
709.7896,0.04329693,-0.538193,0.2851072,-0.4581679,-0.3963236,-0.01219441
709.8047,0.04332057,-0.5356752,0.2734997,-0.4578504,-0.3989131,-0.01233784
709.8193,0.04332057,-0.5356752,0.2734997,-0.4578504,-0.3989131,-0.01233784
709.8334,0.04334385,-0.5331874,0.2615955,-0.4575025,-0.4017094,-0.01247738
709.849,0.04336677,-0.5307292,0.2493499,-0.4571467,-0.4045239,-0.01261399
709.8632,0.04338934,-0.5283004,0.2368286,-0.4567991,-0.4072647,-0.01274799
709.8779,0.04338934,-0.5283004,0.2368286,-0.4567991,-0.4072647,-0.01274799
709.8919,0.04341157,-0.5259005,0.2241178,-0.4564665,-0.4099067,-0.01287948
709.9075,0.04343345,-0.5235293,0.2112933,-0.4561509,-0.4124497,-0.01300852
709.9221,0.043455,-0.5211863,0.1984142,-0.4558524,-0.4149006,-0.01313512
709.9366,0.043455,-0.5211863,0.1984142,-0.4558524,-0.4149006,-0.01313512
709.9506,0.04347621,-0.5188712,0.1855238,-0.4555699,-0.4172679,-0.01325931
709.9661,0.0434971,-0.5165838,0.1726526,-0.4553025,-0.4195588,-0.01338113
709.9808,0.04351767,-0.5143237,0.1598218,-0.455049,-0.4217795,-0.01350061
709.9955,0.04351767,-0.5143237,0.1598218,-0.455049,-0.4217795,-0.01350061
710.0096,0.04353792,-0.5120904,0.1470458,-0.4548085,-0.4239348,-0.01361779
710.0271,0.04355786,-0.5098839,0.134334,-0.4545802,-0.4260284,-0.0137327
710.0407,0.0435775,-0.5077036,0.1216928,-0.4543635,-0.4280634,-0.01384539
710.0543,0.0435775,-0.5077036,0.1216928,-0.4543635,-0.4280634,-0.01384539
710.0681,0.04359683,-0.5055494,0.1091263,-0.4541579,-0.430042,-0.01395589
710.0834,0.04361587,-0.5034208,0.09663711,-0.4539629,-0.4319665,-0.01406425
710.098,0.04361587,-0.5034208,0.09663711,-0.4539629,-0.4319665,-0.01406425
710.1119,0.04363462,-0.5013177,0.08422657,-0.4537782,-0.4338385,-0.01417051
710.1274,0.04365307,-0.4992396,0.07189551,-0.4536033,-0.4356594,-0.0142747
710.142,0.04367125,-0.4971863,0.05964423,-0.453438,-0.4374309,-0.01437688
710.1567,0.04367125,-0.4971863,0.05964423,-0.453438,-0.4374309,-0.01437688
710.1707,0.04368915,-0.4951575,0.04747275,-0.4532821,-0.439154,-0.01447708
710.186,0.04370677,-0.4931528,0.03538084,-0.4531351,-0.4408299,-0.01457534
710.2007,0.04372413,-0.4911721,0.02336814,-0.4529969,-0.4424599,-0.0146717
710.2154,0.04372413,-0.4911721,0.02336814,-0.4529969,-0.4424599,-0.0146717
710.2296,0.04374122,-0.489215,0.01143424,-0.4528672,-0.4440448,-0.01476619
710.2449,0.04375805,-0.4872813,-0.0004213611,-0.4527459,-0.4455858,-0.01485887
710.2601,0.04377463,-0.4853706,-0.01219923,-0.4526325,-0.4470839,-0.01494974
710.2747,0.04377463,-0.4853706,-0.01219923,-0.4526325,-0.4470839,-0.01494974
710.2885,0.04379095,-0.4834827,-0.0238999,-0.452527,-0.4485399,-0.01503887
710.306,0.04380702,-0.4816173,-0.03552393,-0.4524291,-0.4499548,-0.01512627
710.3196,0.04380702,-0.4816173,-0.03552393,-0.4524291,-0.4499548,-0.01512627
710.3324,0.04382284,-0.4797742,-0.04707189,-0.4523387,-0.4513295,-0.01521199
710.3479,0.04383843,-0.477953,-0.0585443,-0.4522554,-0.4526649,-0.01529606
710.3623,0.04385377,-0.4761536,-0.06994176,-0.4521791,-0.4539618,-0.01537852
710.3772,0.04385377,-0.4761536,-0.06994176,-0.4521791,-0.4539618,-0.01537852
710.391,0.04386888,-0.4743756,-0.08126481,-0.4521096,-0.455221,-0.01545939
710.4066,0.04388376,-0.4726189,-0.09251398,-0.4520467,-0.4564433,-0.0155387
710.4212,0.04389841,-0.4708831,-0.1036898,-0.4519902,-0.4576295,-0.0156165
710.4357,0.04389841,-0.4708831,-0.1036898,-0.4519902,-0.4576295,-0.0156165
710.4497,0.04391285,-0.469168,-0.1147928,-0.4519399,-0.4587804,-0.0156928
710.4651,0.04392706,-0.4674734,-0.1258235,-0.4518956,-0.4598967,-0.01576764
710.4799,0.04392706,-0.4674734,-0.1258235,-0.4518956,-0.4598967,-0.01576764
710.494,0.04394105,-0.4657989,-0.1367823,-0.4518572,-0.4609792,-0.01584105
710.5095,0.04395483,-0.4641445,-0.1476699,-0.4518245,-0.4620285,-0.01591305
710.5241,0.0439684,-0.4625098,-0.1584866,-0.4517973,-0.4630453,-0.01598368
710.539,0.0439684,-0.4625098,-0.1584866,-0.4517973,-0.4630453,-0.01598368
710.5529,0.04398176,-0.4608946,-0.1692331,-0.4517754,-0.4640303,-0.01605296
710.5694,0.04399493,-0.4592986,-0.1799096,-0.4517587,-0.4649841,-0.01612092
710.584,0.04400789,-0.4577217,-0.1905167,-0.451747,-0.4659074,-0.01618759
710.5977,0.04400789,-0.4577217,-0.1905167,-0.451747,-0.4659074,-0.01618759
710.6117,0.04402065,-0.4561636,-0.2010549,-0.4517402,-0.4668008,-0.01625298
710.627,0.04403322,-0.4546241,-0.2115245,-0.4517381,-0.467665,-0.01631713
710.6418,0.0440456,-0.453103,-0.2219261,-0.4517406,-0.4685005,-0.01638007
710.6564,0.0440456,-0.453103,-0.2219261,-0.4517406,-0.4685005,-0.01638007
710.6703,0.04405779,-0.4516,-0.2322601,-0.4517475,-0.4693078,-0.01644181
710.6857,0.04406979,-0.450115,-0.2425268,-0.4517586,-0.4700877,-0.01650237
710.7003,0.04408162,-0.4486476,-0.2527268,-0.4517739,-0.4708405,-0.0165618
710.7151,0.04408162,-0.4486476,-0.2527268,-0.4517739,-0.4708405,-0.0165618
710.7292,0.04409326,-0.4471978,-0.2628604,-0.4517932,-0.471567,-0.01662009
710.7445,0.04410473,-0.4457652,-0.2729279,-0.4518164,-0.4722675,-0.01667729
710.7593,0.04410473,-0.4457652,-0.2729279,-0.4518164,-0.4722675,-0.01667729
710.7734,0.04411602,-0.4443498,-0.28293,-0.4518432,-0.4729427,-0.01673341
710.7889,0.04412714,-0.4429512,-0.2928668,-0.4518737,-0.4735929,-0.01678847
710.8035,0.04413809,-0.4415693,-0.3027388,-0.4519077,-0.4742188,-0.01684249
710.8182,0.04413809,-0.4415693,-0.3027388,-0.4519077,-0.4742188,-0.01684249
710.8344,0.04414887,-0.4402039,-0.3125465,-0.451945,-0.4748208,-0.0168955
710.8477,0.04415949,-0.4388548,-0.3222901,-0.4519856,-0.4753993,-0.01694751
710.8622,0.04416995,-0.4375218,-0.3319701,-0.4520293,-0.4759549,-0.01699854
710.877,0.04416995,-0.4375218,-0.3319701,-0.4520293,-0.4759549,-0.01699854
710.8909,0.04418026,-0.4362047,-0.3415868,-0.4520761,-0.476488,-0.01704862
710.9063,0.0441904,-0.4349033,-0.3511405,-0.4521258,-0.476999,-0.01709776
710.9207,0.04420039,-0.4336174,-0.3606317,-0.4521783,-0.4774883,-0.01714598
710.9354,0.04420039,-0.4336174,-0.3606317,-0.4521783,-0.4774883,-0.01714598
710.9495,0.04421023,-0.4323469,-0.3700607,-0.4522335,-0.4779565,-0.0171933
710.9648,0.04421992,-0.4310915,-0.3794278,-0.4522913,-0.4784038,-0.01723973
710.9794,0.04421992,-0.4310915,-0.3794278,-0.4522913,-0.4784038,-0.01723973
710.9936,0.04422947,-0.4298511,-0.3887334,-0.4523515,-0.4788308,-0.01728531
711.0093,0.04423887,-0.4286255,-0.3979779,-0.4524143,-0.4792378,-0.01733004
711.0239,0.04424812,-0.4274146,-0.4071615,-0.4524793,-0.4796252,-0.01737393
711.0388,0.04424812,-0.4274146,-0.4071615,-0.4524793,-0.4796252,-0.01737393
711.0526,0.04425724,-0.426218,-0.4162846,-0.4525466,-0.4799934,-0.01741701
711.0681,0.04426622,-0.4250358,-0.4253476,-0.452616,-0.4803427,-0.0174593
711.0828,0.04427506,-0.4238676,-0.4343508,-0.4526875,-0.4806736,-0.0175008
711.0985,0.04427506,-0.4238676,-0.4343508,-0.4526875,-0.4806736,-0.0175008
711.1127,0.04428377,-0.4227134,-0.4432945,-0.452761,-0.4809863,-0.01754153
711.1269,0.04429235,-0.421573,-0.452179,-0.4528364,-0.4812813,-0.01758152
711.1417,0.04430079,-0.4204462,-0.4610046,-0.4529136,-0.4815589,-0.01762076
711.1564,0.04430079,-0.4204462,-0.4610046,-0.4529136,-0.4815589,-0.01762076
711.1703,0.04430911,-0.4193328,-0.4697717,-0.4529925,-0.4818194,-0.01765928
711.1856,0.04431731,-0.4182327,-0.4784805,-0.4530731,-0.4820632,-0.0176971
711.2004,0.04432537,-0.4171457,-0.4871315,-0.4531553,-0.4822905,-0.01773422
711.215,0.04432537,-0.4171457,-0.4871315,-0.4531553,-0.4822905,-0.01773422
711.2292,0.04433332,-0.4160717,-0.4957248,-0.4532391,-0.4825018,-0.01777066
711.245,0.04434115,-0.4150106,-0.5042608,-0.4533243,-0.4826973,-0.01780643
711.2593,0.04434115,-0.4150106,-0.5042608,-0.4533243,-0.4826973,-0.01780643
711.2737,0.04434885,-0.413962,-0.5127399,-0.4534109,-0.4828773,-0.01784156
711.2896,0.04435645,-0.412926,-0.5211622,-0.4534988,-0.4830422,-0.01787604
711.304,0.04436392,-0.4119024,-0.5295281,-0.453588,-0.4831922,-0.0179099
711.3187,0.04436392,-0.4119024,-0.5295281,-0.453588,-0.4831922,-0.0179099
711.3325,0.04437129,-0.4108909,-0.537838,-0.4536784,-0.4833276,-0.01794313
711.349,0.04437854,-0.4098916,-0.546092,-0.4537699,-0.4834487,-0.01797577
711.3627,0.04438568,-0.4089041,-0.5542906,-0.4538626,-0.4835558,-0.01800781
711.3775,0.04438568,-0.4089041,-0.5542906,-0.4538626,-0.4835558,-0.01800781
711.3915,0.04439272,-0.4079285,-0.5624339,-0.4539563,-0.4836492,-0.01803928
711.4069,0.04439965,-0.4069645,-0.5705222,-0.4540509,-0.4837291,-0.01807017
711.4216,0.04440647,-0.4060119,-0.5785559,-0.4541465,-0.4837958,-0.01810052
711.4362,0.04440647,-0.4060119,-0.5785559,-0.4541465,-0.4837958,-0.01810052
711.4503,0.04441319,-0.4050708,-0.5865353,-0.454243,-0.4838496,-0.01813031
711.4656,0.0444198,-0.4041409,-0.5944606,-0.4543403,-0.4838907,-0.01815957
711.4804,0.04442632,-0.403222,-0.6023321,-0.4544384,-0.4839193,-0.01818831
711.4951,0.04442632,-0.403222,-0.6023321,-0.4544384,-0.4839193,-0.01818831
711.5093,0.04443274,-0.4023142,-0.61015,-0.4545373,-0.4839358,-0.01821653
711.5245,0.04443906,-0.4014171,-0.6179147,-0.4546368,-0.4839404,-0.01824424
711.5396,0.04443906,-0.4014171,-0.6179147,-0.4546368,-0.4839404,-0.01824424
711.5532,0.04444528,-0.4005308,-0.6256265,-0.454737,-0.4839332,-0.01827147
711.569,0.04445142,-0.3996551,-0.6332856,-0.4548378,-0.4839146,-0.01829821
711.5835,0.04445745,-0.3987898,-0.6408922,-0.4549392,-0.4838848,-0.01832447
711.5984,0.04445745,-0.3987898,-0.6408922,-0.4549392,-0.4838848,-0.01832447
711.6133,0.0444634,-0.3979348,-0.6484467,-0.4550411,-0.483844,-0.01835028
711.629,0.04446926,-0.39709,-0.6559494,-0.4551435,-0.4837923,-0.01837561
711.6424,0.04447502,-0.3962553,-0.6634004,-0.4552463,-0.4837302,-0.01840051
711.6569,0.04447502,-0.3962553,-0.6634004,-0.4552463,-0.4837302,-0.01840051
711.6711,0.0444807,-0.3954306,-0.6708001,-0.4553496,-0.4836577,-0.01842496
711.6862,0.0444863,-0.3946157,-0.6781488,-0.4554532,-0.483575,-0.01844899
711.7008,0.04449181,-0.3938106,-0.6854467,-0.4555573,-0.4834825,-0.01847259
711.7157,0.04449181,-0.3938106,-0.6854467,-0.4555573,-0.4834825,-0.01847259
711.7297,0.04449724,-0.393015,-0.692694,-0.4556616,-0.4833802,-0.01849578
711.7452,0.04450258,-0.392229,-0.6998911,-0.4557662,-0.4832685,-0.01851856
711.76,0.04450784,-0.3914523,-0.7070382,-0.455871,-0.4831474,-0.01854094
711.775,0.04450784,-0.3914523,-0.7070382,-0.455871,-0.4831474,-0.01854094
711.789,0.04451302,-0.3906849,-0.7141355,-0.4559761,-0.4830172,-0.01856294
711.8044,0.04451813,-0.3899266,-0.7211833,-0.4560814,-0.4828781,-0.01858456
711.8193,0.04451813,-0.3899266,-0.7211833,-0.4560814,-0.4828781,-0.01858456
711.8333,0.04452315,-0.3891774,-0.7281818,-0.4561869,-0.4827302,-0.01860579
711.8487,0.0445281,-0.3884372,-0.7351313,-0.4562925,-0.4825736,-0.01862666
711.8643,0.04453298,-0.3877057,-0.7420319,-0.4563983,-0.4824086,-0.01864717
711.8782,0.04453298,-0.3877057,-0.7420319,-0.4563983,-0.4824086,-0.01864717
711.8922,0.04453778,-0.386983,-0.7487622,-0.4565551,-0.4819436,-0.01866873
711.9074,0.04454251,-0.3862689,-0.7552123,-0.4567386,-0.4813589,-0.01869017
711.9219,0.04454716,-0.3855633,-0.7613924,-0.4569303,-0.4807512,-0.01871125
711.9368,0.04454716,-0.3855633,-0.7613924,-0.4569303,-0.4807512,-0.01871125
711.9506,0.04455174,-0.3848662,-0.7673462,-0.4571218,-0.4801538,-0.0187319
711.966,0.04455625,-0.3841774,-0.7729979,-0.4573602,-0.479282,-0.0187535
711.9806,0.04456069,-0.3834968,-0.7782754,-0.4576206,-0.478316,-0.01877492
711.9953,0.04456069,-0.3834968,-0.7782754,-0.4576206,-0.478316,-0.01877492
712.0095,0.04456507,-0.3828243,-0.7832183,-0.4578845,-0.4773495,-0.01879591
712.0248,0.04456937,-0.3821599,-0.7878918,-0.4581438,-0.4764122,-0.01881643
712.0397,0.04456937,-0.3821599,-0.7878918,-0.4581438,-0.4764122,-0.01881643
712.0536,0.04457361,-0.3815033,-0.7922348,-0.4584466,-0.4752147,-0.01883787
712.069,0.04457778,-0.3808547,-0.7961854,-0.4587679,-0.4739359,-0.01885911
712.0839,0.04458189,-0.3802137,-0.7997905,-0.4590901,-0.4726681,-0.0188799
712.0985,0.04458189,-0.3802137,-0.7997905,-0.4590901,-0.4726681,-0.0188799
712.1126,0.04458594,-0.3795804,-0.8029976,-0.4594558,-0.4711438,-0.01890158
712.1288,0.04458992,-0.3789547,-0.8057598,-0.4598382,-0.4695502,-0.01892302
712.1428,0.04459384,-0.3783364,-0.8081391,-0.4602187,-0.4679813,-0.01894399
712.1577,0.04459384,-0.3783364,-0.8081391,-0.4602187,-0.4679813,-0.01894399
712.1717,0.0445977,-0.3777255,-0.8102183,-0.4605897,-0.4664648,-0.01896443
712.1867,0.0446015,-0.3771219,-0.8119481,-0.460999,-0.4647053,-0.01898572
712.2012,0.04460524,-0.3765255,-0.8132737,-0.4614223,-0.4628825,-0.01900679
712.216,0.04460524,-0.3765255,-0.8132737,-0.4614223,-0.4628825,-0.01900679
712.2301,0.04460892,-0.3759362,-0.8142489,-0.4618421,-0.4610882,-0.0190274
712.2454,0.04461255,-0.375354,-0.8149494,-0.4622515,-0.4593499,-0.01904748
712.2603,0.04461611,-0.3747787,-0.8153192,-0.4626978,-0.4573697,-0.01906841
712.2751,0.04461611,-0.3747787,-0.8153192,-0.4626978,-0.4573697,-0.01906841
712.2891,0.04461962,-0.3742102,-0.8152986,-0.4631568,-0.4553301,-0.01908913
712.3048,0.04462307,-0.3736486,-0.8149383,-0.4636114,-0.4533239,-0.01910937
712.3196,0.04462307,-0.3736486,-0.8149383,-0.4636114,-0.4533239,-0.01910937
712.3336,0.04462647,-0.3730936,-0.8141869,-0.4641037,-0.451076,-0.01913044
712.3491,0.04462982,-0.3725453,-0.8129968,-0.4646072,-0.4487783,-0.01915125
712.3641,0.04463311,-0.3720035,-0.8114324,-0.4651041,-0.4465262,-0.01917156
712.3796,0.04463311,-0.3720035,-0.8114324,-0.4651041,-0.4465262,-0.01917156
712.3935,0.04463635,-0.3714682,-0.8095794,-0.4655871,-0.4443469,-0.01919132
712.4082,0.04463954,-0.3709393,-0.8073875,-0.466103,-0.4419366,-0.01921187
712.4227,0.04464267,-0.3704166,-0.8047998,-0.4666278,-0.4394805,-0.01923218
712.4373,0.04464267,-0.3704166,-0.8047998,-0.4666278,-0.4394805,-0.01923218
712.4512,0.04464576,-0.3699003,-0.8018716,-0.4671449,-0.4370724,-0.01925199
712.4666,0.04464879,-0.3693901,-0.7986811,-0.4676474,-0.4347394,-0.01927126
712.4814,0.04465178,-0.368886,-0.795171,-0.4681818,-0.4321746,-0.01929132
712.4962,0.04465178,-0.368886,-0.795171,-0.4681818,-0.4321746,-0.01929132
712.5104,0.04465472,-0.3683879,-0.7912788,-0.4687241,-0.4295667,-0.01931114
712.5256,0.04465761,-0.3678957,-0.787057,-0.4692578,-0.4270107,-0.01933046
712.5406,0.04466046,-0.3674094,-0.7825823,-0.4697762,-0.4245345,-0.01934925
712.5555,0.04466046,-0.3674094,-0.7825823,-0.4697762,-0.4245345,-0.01934925
712.5696,0.04466325,-0.366929,-0.7777955,-0.470325,-0.4218276,-0.01936879
712.5851,0.04466601,-0.3664542,-0.7726317,-0.4708805,-0.4190817,-0.0193881
712.5995,0.04466601,-0.3664542,-0.7726317,-0.4708805,-0.4190817,-0.0193881
712.6137,0.04466872,-0.3659852,-0.7671435,-0.4714264,-0.416393,-0.01940691
712.6303,0.04467138,-0.3655217,-0.7612777,-0.4720032,-0.4134734,-0.01942646
712.644,0.04467399,-0.3650638,-0.7549835,-0.4725851,-0.4105248,-0.01944573
712.6586,0.04467399,-0.3650638,-0.7549835,-0.4725851,-0.4105248,-0.01944573
712.6726,0.04467657,-0.3646113,-0.7483281,-0.4731555,-0.4076453,-0.01946447
712.688,0.0446791,-0.3641643,-0.7414013,-0.4737076,-0.4048623,-0.01948263
712.704,0.04468159,-0.3637225,-0.7341218,-0.4745036,-0.4018998,-0.01950235
712.7175,0.04468159,-0.3637225,-0.7341218,-0.4745036,-0.4018998,-0.01950235
712.7315,0.04468405,-0.3632861,-0.7264626,-0.4754263,-0.3989124,-0.01952142
712.7469,0.04468646,-0.3628548,-0.718487,-0.4763921,-0.3959843,-0.01953983
712.7618,0.04468882,-0.3624288,-0.7102729,-0.4773626,-0.3931422,-0.0195576
712.7767,0.04468882,-0.3624288,-0.7102729,-0.4773626,-0.3931422,-0.0195576
712.7907,0.04469115,-0.3620078,-0.7018892,-0.4783207,-0.3903902,-0.01957479
712.8062,0.04469344,-0.3615918,-0.6933903,-0.4792597,-0.3877243,-0.01959145
712.821,0.0446957,-0.3611808,-0.6848167,-0.480177,-0.3851384,-0.01960761
712.8361,0.0446957,-0.3611808,-0.6848167,-0.480177,-0.3851384,-0.01960761
712.85,0.04469791,-0.3607747,-0.6761978,-0.4810723,-0.3826268,-0.01962331
712.8665,0.04470009,-0.3603734,-0.6675547,-0.4819461,-0.3801849,-0.01963857
712.8802,0.04470224,-0.359977,-0.6589022,-0.482799,-0.3778086,-0.01965341
712.8955,0.04470224,-0.359977,-0.6589022,-0.482799,-0.3778086,-0.01965341
712.9092,0.04470434,-0.3595853,-0.6502509,-0.4836316,-0.375495,-0.01966784
712.9244,0.04470641,-0.3591982,-0.6416085,-0.4844447,-0.3732418,-0.01968188
712.9393,0.04470641,-0.3591982,-0.6416085,-0.4844447,-0.3732418,-0.01968188
712.9533,0.04470845,-0.3588158,-0.6329805,-0.4852389,-0.3710469,-0.01969555
712.969,0.04471045,-0.3584379,-0.6243711,-0.4860148,-0.3689087,-0.01970884
712.9836,0.04471242,-0.3580646,-0.6157833,-0.4867728,-0.3668259,-0.01972177
712.9984,0.04471242,-0.3580646,-0.6157833,-0.4867728,-0.3668259,-0.01972177
713.0128,0.04471435,-0.3576957,-0.6072197,-0.4875134,-0.3647973,-0.01973436
713.0281,0.04471625,-0.3573312,-0.5986822,-0.4882371,-0.3628218,-0.01974661
713.0432,0.04471812,-0.3569711,-0.5901726,-0.4889442,-0.3608984,-0.01975853
713.0579,0.04471812,-0.3569711,-0.5901726,-0.4889442,-0.3608984,-0.01975853
