JMolnar6/NonAnthroHands_User_Study/HandsLoggerWithURDF/tempdata/PID 0 (test)/files/Reachy_PID0_JointMotion_gesture_1_6.csv
Time,r_shoulder,r_shoulder_x,r_upper_arm,r_forearm,r_wrist,r_wrist2hand,
92.04072,0.01178132,-1.651298,0.4716164,-2.041724,-0.3673079,-0.02000567
92.05788,0.01178132,-1.651298,0.4716164,-2.041724,-0.3673079,-0.02000567
92.0695,0.01218192,-1.655287,0.4717562,-2.044227,-0.3672357,-0.02000566
92.08508,0.01257144,-1.659703,0.4719169,-2.046749,-0.3671493,-0.02000555
92.09982,0.01257144,-1.659703,0.4719169,-2.046749,-0.3671493,-0.02000555
92.11375,0.01295294,-1.664363,0.472082,-2.049232,-0.3670506,-0.02000539
92.12955,0.01333924,-1.668389,0.4722421,-2.051443,-0.3668406,-0.02000503
92.14449,0.01372615,-1.672009,0.4723751,-2.053539,-0.3666454,-0.02000475
92.15947,0.01372615,-1.672009,0.4723751,-2.053539,-0.3666454,-0.02000475
92.17382,0.01411149,-1.675362,0.4724975,-2.055581,-0.3664653,-0.02000453
92.18947,0.01449407,-1.678536,0.4726178,-2.057593,-0.3662948,-0.02000432
92.20443,0.01488419,-1.680824,0.4727386,-2.059365,-0.3660184,-0.02000391
92.21899,0.01488419,-1.680824,0.4727386,-2.059365,-0.3660184,-0.02000391
92.23413,0.01527687,-1.682558,0.4728354,-2.061055,-0.365765,-0.0200036
92.24872,0.01566931,-1.683943,0.4729252,-2.062721,-0.3655327,-0.02000334
92.2634,0.01605978,-1.685108,0.473016,-2.064379,-0.3653138,-0.0200031
92.27821,0.01605978,-1.685108,0.473016,-2.064379,-0.3653138,-0.0200031
92.29248,0.01645813,-1.68537,0.4731117,-2.065816,-0.3649859,-0.02000264
92.308,0.01685983,-1.685081,0.4731833,-2.067185,-0.3646845,-0.02000229
92.32267,0.01725903,-1.684451,0.4732503,-2.068542,-0.3644058,-0.02000198
92.33756,0.01725903,-1.684451,0.4732503,-2.068542,-0.3644058,-0.02000198
92.35206,0.01766271,-1.682855,0.4733245,-2.069685,-0.3640205,-0.02000145
92.36733,0.01805862,-1.680672,0.4733816,-2.070772,-0.363663,-0.02000103
92.38216,0.01844319,-1.678139,0.4734374,-2.071859,-0.3633313,-0.02000066
92.39707,0.01844319,-1.678139,0.4734374,-2.071859,-0.3633313,-0.02000066
92.41111,0.01881655,-1.675403,0.4734978,-2.072958,-0.3630166,-0.0200003
92.42684,0.01919103,-1.671793,0.4735674,-2.073852,-0.3625892,-0.01999971
92.44144,0.01955645,-1.667662,0.4736172,-2.074693,-0.3621902,-0.01999923
92.45649,0.01955645,-1.667662,0.4736172,-2.074693,-0.3621902,-0.01999923
92.47063,0.01991053,-1.66323,0.473663,-2.075535,-0.3618184,-0.01999879
92.48604,0.02025406,-1.658634,0.4737115,-2.076391,-0.3614655,-0.01999839
92.50062,0.02059966,-1.653195,0.4737689,-2.077045,-0.3609986,-0.01999774
92.51553,0.02059966,-1.653195,0.4737689,-2.077045,-0.3609986,-0.01999774
92.52967,0.02093673,-1.647263,0.4738053,-2.077649,-0.3605619,-0.0199972
92.54536,0.02126309,-1.641056,0.4738369,-2.078259,-0.3601547,-0.01999673
92.56021,0.02157963,-1.634707,0.4738707,-2.078887,-0.3597683,-0.01999628
92.57508,0.02157963,-1.634707,0.4738707,-2.078887,-0.3597683,-0.01999628
92.58957,0.02189906,-1.627538,0.4739138,-2.079316,-0.3592676,-0.01999559
92.60501,0.02221029,-1.619898,0.4739356,-2.079701,-0.358799,-0.01999501
92.61995,0.02221029,-1.619898,0.4739356,-2.079701,-0.358799,-0.01999501
92.63403,0.02251125,-1.612003,0.4739524,-2.080096,-0.3583622,-0.0199945
92.64978,0.02281406,-1.603224,0.4739777,-2.080297,-0.3578173,-0.01999377
92.66451,0.02310735,-1.593944,0.4739823,-2.080464,-0.3573098,-0.01999316
92.67937,0.02310735,-1.593944,0.4739823,-2.080464,-0.3573098,-0.01999316
92.69365,0.02338953,-1.584398,0.4739828,-2.080649,-0.3568377,-0.01999262
92.70908,0.02366215,-1.57473,0.4739861,-2.080866,-0.3563912,-0.01999211
92.72424,0.02393838,-1.564268,0.4739998,-2.080896,-0.3558329,-0.01999137
92.73888,0.02393838,-1.564268,0.4739998,-2.080896,-0.3558329,-0.01999137
92.75292,0.02420645,-1.553367,0.4739925,-2.080893,-0.3553112,-0.01999075
92.76843,0.02446471,-1.542246,0.4739801,-2.080909,-0.3548253,-0.01999019
92.78322,0.0247146,-1.531038,0.4739696,-2.080956,-0.3543659,-0.01998967
92.79829,0.0247146,-1.531038,0.4739696,-2.080956,-0.3543659,-0.01998967
92.8126,0.02496909,-1.519064,0.4739689,-2.080819,-0.3537957,-0.01998893
92.82806,0.02521595,-1.506676,0.4739468,-2.080651,-0.3532635,-0.0199883
92.84278,0.0254536,-1.494088,0.4739191,-2.080503,-0.3527686,-0.01998775
92.85806,0.0254536,-1.494088,0.4739191,-2.080503,-0.3527686,-0.01998775
92.87196,0.02569456,-1.480671,0.4738995,-2.080176,-0.3521707,-0.01998699
92.88743,0.02592664,-1.466808,0.473859,-2.079825,-0.351616,-0.01998635
92.90216,0.02614883,-1.452731,0.473814,-2.079504,-0.3511021,-0.0199858
92.91697,0.02614883,-1.452731,0.473814,-2.079504,-0.3511021,-0.0199858
92.93114,0.02636312,-1.438586,0.4737713,-2.079227,-0.3506187,-0.01998529
92.94669,0.02658259,-1.423699,0.4737382,-2.078774,-0.3500298,-0.01998457
92.9613,0.02679478,-1.408425,0.4736842,-2.078299,-0.3494827,-0.01998396
92.97609,0.02679478,-1.408425,0.4736842,-2.078299,-0.3494827,-0.01998396
92.99052,0.02699853,-1.392982,0.4736248,-2.077853,-0.3489761,-0.01998344
93.00591,0.02719559,-1.377502,0.4735671,-2.077451,-0.3485004,-0.01998297
93.02094,0.02739857,-1.361306,0.4735177,-2.076874,-0.3479211,-0.01998227
93.0357,0.02739857,-1.361306,0.4735177,-2.076874,-0.3479211,-0.01998227
93.04979,0.02759502,-1.344745,0.473447,-2.076276,-0.3473846,-0.0199817
93.06544,0.02778379,-1.328032,0.4733705,-2.07571,-0.3468894,-0.01998122
93.08034,0.02796656,-1.311301,0.4732952,-2.075188,-0.3464259,-0.01998079
93.09521,0.02796656,-1.311301,0.4732952,-2.075188,-0.3464259,-0.01998079
93.10928,0.02814521,-1.294631,0.4732224,-2.074711,-0.3459879,-0.0199804
93.12473,0.02832116,-1.278073,0.4731517,-2.074272,-0.3455719,-0.01998002
93.13972,0.02832116,-1.278073,0.4731517,-2.074272,-0.3455719,-0.01998002
93.15398,0.02849538,-1.261656,0.4730822,-2.073866,-0.3451757,-0.01997968
93.16931,0.02865843,-1.246161,0.473008,-2.073703,-0.344923,-0.01997959
93.18414,0.02882318,-1.231298,0.4729576,-2.073624,-0.3446659,-0.01997943
93.19892,0.02882318,-1.231298,0.4729576,-2.073624,-0.3446659,-0.01997943
93.21313,0.02899197,-1.216889,0.4729141,-2.073567,-0.3444034,-0.01997923
93.22868,0.02916425,-1.202823,0.4728692,-2.073512,-0.3441427,-0.01997901
93.24371,0.02932927,-1.189792,0.4728155,-2.073668,-0.3440133,-0.01997904
93.25855,0.02932927,-1.189792,0.4728155,-2.073668,-0.3440133,-0.01997904
93.27291,0.0294971,-1.177454,0.4727828,-2.073884,-0.3438711,-0.019979
93.28846,0.02966935,-1.165595,0.4727548,-2.074101,-0.3437169,-0.01997891
93.30347,0.02984518,-1.154085,0.4727242,-2.074305,-0.343559,-0.0199788
93.31811,0.02984518,-1.154085,0.4727242,-2.074305,-0.343559,-0.0199788
93.33215,0.03001404,-1.143602,0.4726832,-2.074708,-0.3435285,-0.01997894
93.34771,0.03018464,-1.133796,0.4726634,-2.07516,-0.3434811,-0.019979
93.3625,0.03035862,-1.12445,0.4726487,-2.075605,-0.3434178,-0.01997899
93.37731,0.03035862,-1.12445,0.4726487,-2.075605,-0.3434178,-0.01997899
93.39144,0.03052634,-1.11619,0.4726246,-2.076243,-0.3434743,-0.01997923
93.4071,0.03069568,-1.108634,0.4726218,-2.076919,-0.3435082,-0.01997936
93.4219,0.03086816,-1.101545,0.4726235,-2.077578,-0.3435215,-0.01997943
93.43664,0.03086816,-1.101545,0.4726235,-2.077578,-0.3435215,-0.01997943
93.45087,0.03104325,-1.094774,0.472622,-2.078206,-0.3435238,-0.01997949
93.46655,0.03121108,-1.088992,0.472608,-2.079019,-0.3436503,-0.0199798
93.48134,0.0313787,-1.083844,0.4726164,-2.079867,-0.3437541,-0.01998
93.4962,0.0313787,-1.083844,0.4726164,-2.079867,-0.3437541,-0.01998
93.51054,0.03154789,-1.079108,0.4726308,-2.080696,-0.3438359,-0.01998015
93.52614,0.03171854,-1.074647,0.472643,-2.081494,-0.3439047,-0.01998028
93.54092,0.0318813,-1.071137,0.4726423,-2.082473,-0.3440987,-0.01998065
93.55587,0.0318813,-1.071137,0.4726423,-2.082473,-0.3440987,-0.01998065
93.57107,0.03204275,-1.068229,0.4726653,-2.083485,-0.344268,-0.01998092
93.5856,0.03220482,-1.065703,0.4726951,-2.084474,-0.3444127,-0.01998113
93.60023,0.03236767,-1.063424,0.4727234,-2.085428,-0.3445422,-0.01998131
93.61508,0.03236767,-1.063424,0.4727234,-2.085428,-0.3445422,-0.01998131
93.6293,0.03252231,-1.06207,0.4727376,-2.08656,-0.3447982,-0.01998174
93.64462,0.03267484,-1.061291,0.4727765,-2.08772,-0.3450276,-0.01998207
93.65948,0.03267484,-1.061291,0.4727765,-2.08772,-0.3450276,-0.01998207
93.67381,0.03282731,-1.06087,0.4728231,-2.088855,-0.34523,-0.01998234
93.68958,0.03297156,-1.061431,0.4728571,-2.090162,-0.3455536,-0.01998284
93.7044,0.03311237,-1.062596,0.472917,-2.091489,-0.3458456,-0.01998324
93.71915,0.03311237,-1.062596,0.472917,-2.091489,-0.3458456,-0.01998324
93.73335,0.0332512,-1.064129,0.4729853,-2.09278,-0.3461064,-0.01998355
93.74892,0.03338868,-1.06588,0.4730524,-2.094023,-0.3463463,-0.01998383
93.76366,0.03351648,-1.068521,0.4731024,-2.095434,-0.346716,-0.01998438
93.77837,0.03351648,-1.068521,0.4731024,-2.095434,-0.346716,-0.01998438
93.79374,0.03363961,-1.071699,0.473179,-2.096862,-0.3470551,-0.01998482
93.80821,0.03376054,-1.075193,0.4732648,-2.098256,-0.3473625,-0.01998518
93.82294,0.03388032,-1.078868,0.4733499,-2.099601,-0.3476482,-0.0199855
93.83781,0.03388032,-1.078868,0.4733499,-2.099601,-0.3476482,-0.0199855
93.85178,0.03399066,-1.083398,0.4734166,-2.101113,-0.3480675,-0.01998611
93.86723,0.03409717,-1.088437,0.4735106,-2.102642,-0.3484554,-0.0199866
93.88219,0.03420237,-1.093768,0.4736145,-2.104134,-0.3488097,-0.01998701
93.897,0.03420237,-1.093768,0.4736145,-2.104134,-0.3488097,-0.01998701
93.91122,0.03429841,-1.100016,0.4737014,-2.105789,-0.3492935,-0.01998768
93.92699,0.03439159,-1.106803,0.4738162,-2.107454,-0.3497411,-0.01998823
93.94182,0.03448451,-1.113892,0.4739404,-2.109074,-0.3501512,-0.0199887
93.95654,0.03448451,-1.113892,0.4739404,-2.109074,-0.3501512,-0.0199887
93.97076,0.03457793,-1.121137,0.4740638,-2.110636,-0.350535,-0.01998912
93.98624,0.03466287,-1.129206,0.4741646,-2.112357,-0.3510585,-0.01998984
94.0008,0.03474411,-1.137749,0.4742948,-2.114086,-0.3515476,-0.01999044
94.01674,0.03474411,-1.137749,0.4742948,-2.114086,-0.3515476,-0.01999044
94.02976,0.03482348,-1.146544,0.4744368,-2.11577,-0.3519982,-0.01999095
94.04541,0.03490186,-1.155456,0.4745796,-2.117397,-0.3524211,-0.01999141
94.0672,0.03497971,-1.164399,0.4747197,-2.118967,-0.3528238,-0.01999184
94.07487,0.03497971,-1.164399,0.4747197,-2.118967,-0.3528238,-0.01999184
94.08941,0.03505722,-1.173322,0.4748567,-2.120487,-0.3532107,-0.01999225
94.10497,0.0351345,-1.182191,0.4749913,-2.121963,-0.3535841,-0.01999265
94.11977,0.0351345,-1.182191,0.4749913,-2.121963,-0.3535841,-0.01999265
94.13377,0.03521156,-1.190989,0.4751243,-2.123398,-0.3539453,-0.01999303
94.14935,0.03528841,-1.199703,0.4752564,-2.124798,-0.3542953,-0.01999339
94.16403,0.03536503,-1.208326,0.475388,-2.126164,-0.3546348,-0.01999374
94.17896,0.03536503,-1.208326,0.475388,-2.126164,-0.3546348,-0.01999374
94.19308,0.03544142,-1.216854,0.4755194,-2.127499,-0.354964,-0.01999408
94.20878,0.03551755,-1.225286,0.4756508,-2.128804,-0.3552832,-0.0199944
94.22343,0.03559341,-1.23362,0.4757822,-2.130081,-0.3555928,-0.01999471
94.23933,0.03559341,-1.23362,0.4757822,-2.130081,-0.3555928,-0.01999471
94.25357,0.03566898,-1.241857,0.4759138,-2.13133,-0.355893,-0.019995
94.26772,0.03574426,-1.249997,0.4760455,-2.132553,-0.3561839,-0.01999527
94.28255,0.03581924,-1.258041,0.4761773,-2.133749,-0.3564658,-0.01999553
94.29745,0.03581924,-1.258041,0.4761773,-2.133749,-0.3564658,-0.01999553
94.31179,0.03589391,-1.265989,0.4763091,-2.134919,-0.3567387,-0.01999578
94.32735,0.03596827,-1.273843,0.4764409,-2.136065,-0.3570029,-0.019996
94.34232,0.0360423,-1.281604,0.4765727,-2.137186,-0.3572586,-0.01999622
94.35699,0.0360423,-1.281604,0.4765727,-2.137186,-0.3572586,-0.01999622
94.37144,0.036116,-1.289272,0.4767044,-2.138283,-0.3575057,-0.01999643
94.38689,0.03618937,-1.296849,0.476836,-2.139356,-0.3577446,-0.01999662
94.40143,0.0362624,-1.304336,0.4769674,-2.140406,-0.3579754,-0.0199968
94.41647,0.0362624,-1.304336,0.4769674,-2.140406,-0.3579754,-0.0199968
94.43058,0.03633508,-1.311733,0.4770986,-2.141434,-0.3581982,-0.01999696
94.44601,0.03640743,-1.319043,0.4772294,-2.142439,-0.3584131,-0.01999711
94.46203,0.03647942,-1.326265,0.47736,-2.143423,-0.3586203,-0.01999725
94.4759,0.03647942,-1.326265,0.47736,-2.143423,-0.3586203,-0.01999725
94.49014,0.03655105,-1.333401,0.4774902,-2.144385,-0.35882,-0.01999738
94.50583,0.03662233,-1.340452,0.4776199,-2.145327,-0.3590123,-0.01999749
94.52071,0.03669324,-1.347419,0.4777492,-2.146248,-0.3591973,-0.0199976
94.53558,0.03669324,-1.347419,0.4777492,-2.146248,-0.3591973,-0.0199976
94.54988,0.03676378,-1.354303,0.477878,-2.147149,-0.3593751,-0.01999769
94.56551,0.03683395,-1.361105,0.4780063,-2.14803,-0.359546,-0.01999777
94.58053,0.03690374,-1.367826,0.478134,-2.148892,-0.35971,-0.01999785
94.59531,0.03690374,-1.367826,0.478134,-2.148892,-0.35971,-0.01999785
94.6095,0.03697316,-1.374466,0.4782611,-2.149735,-0.3598673,-0.01999791
94.62623,0.03704219,-1.381028,0.4783876,-2.150559,-0.360018,-0.01999795
94.64099,0.03711083,-1.387511,0.4785134,-2.151365,-0.3601623,-0.01999799
94.65717,0.03711083,-1.387511,0.4785134,-2.151365,-0.3601623,-0.01999799
94.67125,0.03717908,-1.393917,0.4786384,-2.152153,-0.3603003,-0.01999802
94.68585,0.03724694,-1.400246,0.4787628,-2.152923,-0.360432,-0.01999805
94.70058,0.0373144,-1.4065,0.4788864,-2.153677,-0.3605577,-0.01999806
94.71539,0.0373144,-1.4065,0.4788864,-2.153677,-0.3605577,-0.01999806
94.72964,0.03738146,-1.41268,0.4790092,-2.154413,-0.3606775,-0.01999806
94.74521,0.03744812,-1.418786,0.4791311,-2.155133,-0.3607914,-0.01999805
94.76018,0.03751437,-1.424819,0.4792522,-2.155837,-0.3608997,-0.01999803
94.77524,0.03751437,-1.424819,0.4792522,-2.155837,-0.3608997,-0.01999803
94.78944,0.03758021,-1.43078,0.4793725,-2.156525,-0.3610024,-0.01999801
94.80479,0.03764563,-1.43667,0.4794918,-2.157197,-0.3610997,-0.01999797
94.8197,0.03764563,-1.43667,0.4794918,-2.157197,-0.3610997,-0.01999797
94.83374,0.03771064,-1.44249,0.4796103,-2.157854,-0.3611916,-0.01999793
94.84936,0.03777524,-1.44824,0.4797278,-2.158496,-0.3612783,-0.01999788
94.86402,0.03783942,-1.453922,0.4798444,-2.159124,-0.36136,-0.01999783
94.88006,0.03790317,-1.459536,0.47996,-2.159737,-0.3614367,-0.01999776
94.89382,0.03790317,-1.459536,0.47996,-2.159737,-0.3614367,-0.01999776
94.90827,0.0379665,-1.465083,0.4800746,-2.160336,-0.3615085,-0.01999769
94.92366,0.03802941,-1.470564,0.4801882,-2.160921,-0.3615756,-0.01999761
94.93871,0.03802941,-1.470564,0.4801882,-2.160921,-0.3615756,-0.01999761
94.95277,0.03809189,-1.475979,0.4803008,-2.161492,-0.361638,-0.01999752
94.96839,0.03815394,-1.48133,0.4804123,-2.16205,-0.3616959,-0.01999743
94.98336,0.03821556,-1.486617,0.4805228,-2.162595,-0.3617494,-0.01999733
94.99828,0.03821556,-1.486617,0.4805228,-2.162595,-0.3617494,-0.01999733
95.01266,0.03827675,-1.491841,0.4806322,-2.163128,-0.3617986,-0.01999722
95.0282,0.03833751,-1.497002,0.4807405,-2.163647,-0.3618436,-0.01999711
95.04316,0.03839784,-1.502103,0.4808477,-2.164155,-0.3618844,-0.019997
95.05807,0.03839784,-1.502103,0.4808477,-2.164155,-0.3618844,-0.019997
95.07228,0.03845773,-1.507142,0.4809539,-2.164651,-0.3619213,-0.01999687
95.08902,0.03851719,-1.512121,0.4810589,-2.165134,-0.3619542,-0.01999675
95.10254,0.03857621,-1.517041,0.4811628,-2.165607,-0.3619834,-0.01999661
95.11741,0.03857621,-1.517041,0.4811628,-2.165607,-0.3619834,-0.01999661
95.13154,0.0386348,-1.521902,0.4812656,-2.166068,-0.3620088,-0.01999648
95.14722,0.03869295,-1.526705,0.4813673,-2.166517,-0.3620307,-0.01999633
95.16212,0.03875066,-1.53145,0.4814678,-2.166956,-0.362049,-0.01999618
95.17711,0.03875066,-1.53145,0.4814678,-2.166956,-0.362049,-0.01999618
95.19148,0.03880793,-1.536139,0.4815671,-2.167385,-0.3620639,-0.01999603
95.20708,0.03886475,-1.540772,0.4816653,-2.167803,-0.3620754,-0.01999587
95.2219,0.03892111,-1.54535,0.4817624,-2.168211,-0.3620837,-0.01999571
95.23676,0.03892111,-1.54535,0.4817624,-2.168211,-0.3620837,-0.01999571
95.25105,0.038977,-1.549873,0.4818583,-2.168608,-0.3620888,-0.01999555
95.26657,0.03903244,-1.554342,0.4819531,-2.168996,-0.3620908,-0.01999538
95.28127,0.03908741,-1.558758,0.4820466,-2.169374,-0.3620899,-0.0199952
95.29627,0.03908741,-1.558758,0.4820466,-2.169374,-0.3620899,-0.0199952
95.31154,0.03914192,-1.563121,0.4821391,-2.169743,-0.362086,-0.01999503
95.32625,0.03919596,-1.567432,0.4822303,-2.170103,-0.3620793,-0.01999485
95.34094,0.03924955,-1.571692,0.4823203,-2.170453,-0.3620698,-0.01999466
95.35591,0.03924955,-1.571692,0.4823203,-2.170453,-0.3620698,-0.01999466
95.37026,0.03930268,-1.5759,0.4824092,-2.170795,-0.3620577,-0.01999448
95.3858,0.03935536,-1.580059,0.4824969,-2.171128,-0.362043,-0.01999429
95.40091,0.03940759,-1.584167,0.4825834,-2.171453,-0.3620258,-0.0199941
95.4154,0.03940759,-1.584167,0.4825834,-2.171453,-0.3620258,-0.0199941
95.42991,0.03945937,-1.588227,0.4826688,-2.171769,-0.3620061,-0.0199939
95.44538,0.03951072,-1.592238,0.4827529,-2.172077,-0.3619841,-0.01999371
95.46051,0.03956162,-1.596201,0.4828359,-2.172377,-0.3619598,-0.0199935
95.47543,0.03956162,-1.596201,0.4828359,-2.172377,-0.3619598,-0.0199935
95.48979,0.03961208,-1.600117,0.4829177,-2.172669,-0.3619332,-0.0199933
95.50523,0.03966212,-1.603986,0.4829983,-2.172954,-0.3619045,-0.0199931
95.52009,0.03971172,-1.607809,0.4830777,-2.173231,-0.3618737,-0.01999289
95.53502,0.03971172,-1.607809,0.4830777,-2.173231,-0.3618737,-0.01999289
95.54926,0.0397609,-1.611587,0.483156,-2.173501,-0.361841,-0.01999268
95.56464,0.03980966,-1.615319,0.483233,-2.173764,-0.3618062,-0.01999247
95.57946,0.03980966,-1.615319,0.483233,-2.173764,-0.3618062,-0.01999247
95.59373,0.03985799,-1.619006,0.4833089,-2.174019,-0.3617696,-0.01999225
95.60931,0.03990591,-1.62265,0.4833837,-2.174268,-0.3617311,-0.01999203
95.62449,0.03995342,-1.62625,0.4834573,-2.17451,-0.3616909,-0.01999182
95.63935,0.03995342,-1.62625,0.4834573,-2.17451,-0.3616909,-0.01999182
95.6535,0.04000051,-1.629807,0.4835297,-2.174745,-0.361649,-0.0199916
95.66889,0.0400472,-1.633322,0.4836009,-2.174974,-0.3616055,-0.01999138
95.6838,0.04009349,-1.636795,0.4836711,-2.175197,-0.3615603,-0.01999116
95.69855,0.04009349,-1.636795,0.4836711,-2.175197,-0.3615603,-0.01999116
95.71278,0.04013937,-1.640226,0.48374,-2.175413,-0.3615137,-0.01999094
95.72928,0.04018485,-1.643616,0.4838079,-2.175624,-0.3614655,-0.01999071
95.74297,0.04022994,-1.646966,0.4838746,-2.175828,-0.361416,-0.01999049
95.75804,0.04022994,-1.646966,0.4838746,-2.175828,-0.361416,-0.01999049
95.77218,0.04027463,-1.650276,0.4839401,-2.176027,-0.3613651,-0.01999026
95.78779,0.04031894,-1.653546,0.4840046,-2.176219,-0.3613128,-0.01999003
95.80246,0.04036286,-1.656778,0.4840679,-2.176407,-0.3612593,-0.01998981
95.81747,0.04036286,-1.656778,0.4840679,-2.176407,-0.3612593,-0.01998981
95.83175,0.0404064,-1.65997,0.4841301,-2.176589,-0.3612046,-0.01998958
95.8475,0.04044956,-1.663125,0.4841913,-2.176765,-0.3611487,-0.01998935
95.86232,0.04049233,-1.666242,0.4842513,-2.176937,-0.3610918,-0.01998911
95.87706,0.04049233,-1.666242,0.4842513,-2.176937,-0.3610918,-0.01998911
95.89148,0.04053473,-1.669322,0.4843102,-2.177103,-0.3610337,-0.01998888
95.90709,0.04057677,-1.672365,0.4843681,-2.177264,-0.3609746,-0.01998865
95.92185,0.04061843,-1.675371,0.4844249,-2.177421,-0.3609146,-0.01998842
95.93664,0.04061843,-1.675371,0.4844249,-2.177421,-0.3609146,-0.01998842
95.95208,0.04065972,-1.678342,0.4844806,-2.177572,-0.3608536,-0.01998819
95.96648,0.04070065,-1.681277,0.4845353,-2.177719,-0.3607917,-0.01998796
95.98139,0.04074122,-1.684178,0.484589,-2.177861,-0.360729,-0.01998773
95.99637,0.04074122,-1.684178,0.484589,-2.177861,-0.360729,-0.01998773
96.01035,0.04078143,-1.687043,0.4846416,-2.177999,-0.3606655,-0.0199875
96.02598,0.04082129,-1.689875,0.4846931,-2.178133,-0.3606012,-0.01998727
96.04094,0.04086079,-1.692672,0.4847437,-2.178262,-0.3605361,-0.01998704
96.05602,0.04086079,-1.692672,0.4847437,-2.178262,-0.3605361,-0.01998704
96.07018,0.04089994,-1.695437,0.4847932,-2.178387,-0.3604704,-0.01998681
96.0857,0.04093875,-1.698168,0.4848417,-2.178508,-0.360404,-0.01998658
96.10042,0.04097721,-1.700866,0.4848893,-2.178625,-0.360337,-0.01998634
96.11558,0.04097721,-1.700866,0.4848893,-2.178625,-0.360337,-0.01998634
96.12961,0.04101532,-1.703533,0.4849358,-2.178738,-0.3602694,-0.01998611
96.14493,0.0410531,-1.706168,0.4849814,-2.178847,-0.3602012,-0.01998588
96.16078,0.04109054,-1.708771,0.485026,-2.178953,-0.3601326,-0.01998565
96.17463,0.04109054,-1.708771,0.485026,-2.178953,-0.3601326,-0.01998565
96.18884,0.04112764,-1.711343,0.4850697,-2.179055,-0.3600634,-0.01998543
96.20425,0.04116442,-1.713884,0.4851124,-2.179153,-0.3599938,-0.0199852
96.21906,0.04116442,-1.713884,0.4851124,-2.179153,-0.3599938,-0.0199852
96.23325,0.04120086,-1.716395,0.4851542,-2.179248,-0.3599238,-0.01998497
96.24884,0.04123698,-1.718876,0.485195,-2.179339,-0.3598534,-0.01998474
96.26364,0.04127277,-1.721328,0.4852349,-2.179427,-0.3597826,-0.01998452
96.27867,0.04127277,-1.721328,0.4852349,-2.179427,-0.3597826,-0.01998452
96.29308,0.04130824,-1.72375,0.485274,-2.179512,-0.3597114,-0.01998429
96.30857,0.04134339,-1.726143,0.4853121,-2.179594,-0.35964,-0.01998407
96.326,0.04137822,-1.728508,0.4853493,-2.179672,-0.3595683,-0.01998384
96.33844,0.04137822,-1.728508,0.4853493,-2.179672,-0.3595683,-0.01998384
96.35272,0.04141273,-1.730844,0.4853857,-2.179748,-0.3594963,-0.01998362
96.36828,0.04144694,-1.733153,0.4854212,-2.17982,-0.3594241,-0.0199834
96.38283,0.04148083,-1.735434,0.4854558,-2.17989,-0.3593517,-0.01998318
96.39765,0.04148083,-1.735434,0.4854558,-2.17989,-0.3593517,-0.01998318
96.41178,0.04151442,-1.737688,0.4854895,-2.179956,-0.3592792,-0.01998296
96.4285,0.0415477,-1.739915,0.4855225,-2.18002,-0.3592064,-0.01998274
96.44208,0.04158068,-1.742115,0.4855546,-2.180082,-0.3591335,-0.01998252
96.45696,0.04158068,-1.742115,0.4855546,-2.180082,-0.3591335,-0.01998252
96.47108,0.04161336,-1.744289,0.4855859,-2.18014,-0.3590606,-0.01998231
96.4864,0.04164574,-1.746437,0.4856164,-2.180196,-0.3589875,-0.01998209
96.50168,0.04167782,-1.74856,0.485646,-2.18025,-0.3589143,-0.01998187
96.51664,0.04167782,-1.74856,0.485646,-2.18025,-0.3589143,-0.01998187
96.53107,0.04170961,-1.750657,0.4856749,-2.180301,-0.3588412,-0.01998166
96.54637,0.0417411,-1.752729,0.4857031,-2.18035,-0.3587679,-0.01998145
96.56129,0.04177231,-1.754777,0.4857304,-2.180396,-0.3586947,-0.01998123
96.57607,0.04177231,-1.754777,0.4857304,-2.180396,-0.3586947,-0.01998123
96.59019,0.04180324,-1.7568,0.4857571,-2.18044,-0.3586215,-0.01998102
96.60577,0.04183387,-1.758798,0.4857829,-2.180482,-0.3585483,-0.01998081
96.62033,0.04186423,-1.760773,0.485808,-2.180522,-0.3584751,-0.01998061
96.63509,0.04186423,-1.760773,0.485808,-2.180522,-0.3584751,-0.01998061
96.64923,0.04189431,-1.762725,0.4858324,-2.18056,-0.3584021,-0.0199804
96.66483,0.0419241,-1.764653,0.4858561,-2.180595,-0.3583291,-0.0199802
96.67951,0.0419241,-1.764653,0.4858561,-2.180595,-0.3583291,-0.0199802
96.6938,0.04195363,-1.766558,0.485879,-2.180629,-0.3582562,-0.01997999
96.70934,0.04198287,-1.76844,0.4859013,-2.18066,-0.3581834,-0.01997979
96.72427,0.04201185,-1.7703,0.4859228,-2.18069,-0.3581107,-0.01997959
96.73953,0.04201185,-1.7703,0.4859228,-2.18069,-0.3581107,-0.01997959
96.75369,0.04204056,-1.772138,0.4859437,-2.180717,-0.3580382,-0.01997939
96.76898,0.042069,-1.773953,0.485964,-2.180743,-0.3579658,-0.01997919
96.78384,0.04209717,-1.775748,0.4859836,-2.180767,-0.3578936,-0.019979
96.79902,0.04209717,-1.775748,0.4859836,-2.180767,-0.3578936,-0.019979
96.81265,0.04212508,-1.77752,0.4860025,-2.18079,-0.3578216,-0.0199788
96.82944,0.04215273,-1.779272,0.4860207,-2.18081,-0.3577498,-0.01997861
96.84335,0.04218012,-1.781002,0.4860384,-2.18083,-0.3576781,-0.01997842
96.85831,0.04218012,-1.781002,0.4860384,-2.18083,-0.3576781,-0.01997842
96.87246,0.04220726,-1.782712,0.4860554,-2.180847,-0.3576067,-0.01997822
96.88789,0.04223414,-1.784402,0.4860718,-2.180863,-0.3575355,-0.01997803
96.90263,0.04226077,-1.786071,0.4860877,-2.180877,-0.3574646,-0.01997785
96.9175,0.04226077,-1.786071,0.4860877,-2.180877,-0.3574646,-0.01997785
96.93166,0.04228714,-1.787721,0.4861029,-2.18089,-0.3573939,-0.01997766
96.94759,0.04231327,-1.78935,0.4861175,-2.180902,-0.3573234,-0.01997747
96.96217,0.04233915,-1.790961,0.4861316,-2.180912,-0.3572533,-0.01997729
96.97723,0.04233915,-1.790961,0.4861316,-2.180912,-0.3572533,-0.01997729
96.99147,0.04236478,-1.792552,0.4861451,-2.18092,-0.3571834,-0.01997711
97.0071,0.04239018,-1.794124,0.486158,-2.180928,-0.3571138,-0.01997693
97.02174,0.04241532,-1.795677,0.4861704,-2.180933,-0.3570445,-0.01997674
97.03629,0.04241532,-1.795677,0.4861704,-2.180933,-0.3570445,-0.01997674
97.05169,0.04244024,-1.797212,0.4861823,-2.180938,-0.3569755,-0.01997657
97.06599,0.04246491,-1.798728,0.4861937,-2.180942,-0.3569069,-0.01997639
97.08084,0.04248934,-1.800227,0.4862045,-2.180944,-0.3568385,-0.01997622
97.09561,0.04248934,-1.800227,0.4862045,-2.180944,-0.3568385,-0.01997622
97.10987,0.04251354,-1.801707,0.4862148,-2.180945,-0.3567705,-0.01997604
97.1255,0.04253751,-1.80317,0.4862246,-2.180945,-0.3567027,-0.01997587
97.14021,0.04256125,-1.804615,0.4862339,-2.180944,-0.3566354,-0.0199757
97.1554,0.04256125,-1.804615,0.4862339,-2.180944,-0.3566354,-0.0199757
97.16959,0.04258475,-1.806044,0.4862428,-2.180942,-0.3565684,-0.01997553
97.18493,0.04260803,-1.807455,0.4862511,-2.180939,-0.3565018,-0.01997536
97.19956,0.04260803,-1.807455,0.4862511,-2.180939,-0.3565018,-0.01997536
97.21404,0.04263109,-1.808849,0.486259,-2.180935,-0.3564355,-0.01997519
97.22955,0.04265392,-1.810226,0.4862665,-2.18093,-0.3563696,-0.01997503
97.24441,0.04267653,-1.811588,0.4862734,-2.180924,-0.356304,-0.01997487
97.25928,0.04267653,-1.811588,0.4862734,-2.180924,-0.356304,-0.01997487
97.27449,0.04269892,-1.812932,0.48628,-2.180917,-0.3562388,-0.0199747
97.28908,0.04272109,-1.814261,0.4862861,-2.180909,-0.3561741,-0.01997454
97.30405,0.04274304,-1.815574,0.4862918,-2.180901,-0.3561096,-0.01997438
97.31908,0.04274304,-1.815574,0.4862918,-2.180901,-0.3561096,-0.01997438
97.33303,0.04276478,-1.816872,0.486297,-2.180891,-0.3560456,-0.01997423
97.34867,0.0427863,-1.818154,0.4863019,-2.180881,-0.355982,-0.01997407
97.36358,0.04280762,-1.81942,0.4863063,-2.18087,-0.3559188,-0.01997392
97.37868,0.04280762,-1.81942,0.4863063,-2.18087,-0.3559188,-0.01997392
97.39296,0.04282872,-1.820671,0.4863104,-2.180858,-0.355856,-0.01997377
97.40856,0.04284961,-1.821908,0.4863141,-2.180845,-0.3557936,-0.01997362
97.42335,0.04287029,-1.82313,0.4863173,-2.180832,-0.3557316,-0.01997347
97.43863,0.04287029,-1.82313,0.4863173,-2.180832,-0.3557316,-0.01997347
97.45258,0.04289078,-1.824337,0.4863203,-2.180818,-0.35567,-0.01997332
97.46804,0.04291106,-1.825529,0.4863228,-2.180803,-0.3556088,-0.01997317
97.48296,0.04293114,-1.826708,0.486325,-2.180787,-0.3555481,-0.01997302
97.49761,0.04293114,-1.826708,0.486325,-2.180787,-0.3555481,-0.01997302
97.51176,0.04295101,-1.827872,0.4863268,-2.180771,-0.3554877,-0.01997288
97.52718,0.04297069,-1.829023,0.4863283,-2.180755,-0.3554278,-0.01997274
97.54201,0.04299018,-1.83016,0.4863294,-2.180737,-0.3553683,-0.01997259
97.5569,0.04299018,-1.83016,0.4863294,-2.180737,-0.3553683,-0.01997259
97.5712,0.04300947,-1.831283,0.4863302,-2.18072,-0.3553093,-0.01997245
97.58665,0.04302857,-1.832393,0.4863307,-2.180701,-0.3552507,-0.01997232
97.60146,0.04304748,-1.833489,0.4863309,-2.180682,-0.3551925,-0.01997218
97.61648,0.04304748,-1.833489,0.4863309,-2.180682,-0.3551925,-0.01997218
97.63066,0.0430662,-1.834573,0.4863308,-2.180663,-0.3551347,-0.01997204
97.6462,0.04308474,-1.835643,0.4863304,-2.180643,-0.3550774,-0.01997191
97.66115,0.04310308,-1.836701,0.4863296,-2.180623,-0.3550205,-0.01997177
97.67599,0.04310308,-1.836701,0.4863296,-2.180623,-0.3550205,-0.01997177
97.69028,0.04312125,-1.837746,0.4863286,-2.180602,-0.354964,-0.01997164
97.7068,0.04313923,-1.838778,0.4863273,-2.18058,-0.354908,-0.01997151
97.72067,0.04315703,-1.839799,0.4863257,-2.180559,-0.3548524,-0.01997139
97.73543,0.04315703,-1.839799,0.4863257,-2.180559,-0.3548524,-0.01997139
97.74963,0.04317466,-1.840807,0.4863238,-2.180537,-0.3547972,-0.01997126
97.7653,0.0431921,-1.841803,0.4863216,-2.180514,-0.3547425,-0.01997114
97.78027,0.04320937,-1.842787,0.4863192,-2.180491,-0.3546882,-0.01997101
97.79523,0.04320937,-1.842787,0.4863192,-2.180491,-0.3546882,-0.01997101
97.80958,0.04322647,-1.84376,0.4863166,-2.180468,-0.3546344,-0.01997088
97.82534,0.0432434,-1.84472,0.4863137,-2.180444,-0.354581,-0.01997076
97.84019,0.04326015,-1.84567,0.4863106,-2.18042,-0.354528,-0.01997064
97.85513,0.04326015,-1.84567,0.4863106,-2.18042,-0.354528,-0.01997064
97.86924,0.04327674,-1.846608,0.4863072,-2.180396,-0.3544755,-0.01997053
97.88485,0.04329316,-1.847535,0.4863036,-2.180371,-0.3544234,-0.01997041
97.89967,0.04329316,-1.847535,0.4863036,-2.180371,-0.3544234,-0.01997041
97.91476,0.04330941,-1.848451,0.4862998,-2.180346,-0.3543717,-0.01997029
97.92921,0.0433255,-1.849355,0.4862957,-2.180321,-0.3543205,-0.01997018
97.94415,0.04334142,-1.850249,0.4862914,-2.180295,-0.3542697,-0.01997006
97.95891,0.04334142,-1.850249,0.4862914,-2.180295,-0.3542697,-0.01997006
97.97334,0.04335719,-1.851133,0.486287,-2.18027,-0.3542194,-0.01996995
97.98883,0.04337279,-1.852006,0.4862823,-2.180244,-0.3541695,-0.01996984
98.00346,0.04338824,-1.852868,0.4862774,-2.180218,-0.35412,-0.01996973
98.01848,0.04338824,-1.852868,0.4862774,-2.180218,-0.35412,-0.01996973
98.03277,0.04340354,-1.85372,0.4862723,-2.180191,-0.3540709,-0.01996962
98.04817,0.04341867,-1.854562,0.486267,-2.180164,-0.3540223,-0.01996951
98.06376,0.04343366,-1.855394,0.4862616,-2.180138,-0.3539741,-0.01996941
98.07792,0.04343366,-1.855394,0.4862616,-2.180138,-0.3539741,-0.01996941
98.09226,0.04344849,-1.856216,0.4862559,-2.180111,-0.3539264,-0.0199693
98.1078,0.04346317,-1.857028,0.4862501,-2.180084,-0.3538791,-0.0199692
98.12264,0.0434777,-1.85783,0.4862441,-2.180056,-0.3538322,-0.01996909
98.13744,0.0434777,-1.85783,0.4862441,-2.180056,-0.3538322,-0.01996909
98.15174,0.04349208,-1.858623,0.486238,-2.180029,-0.3537857,-0.01996899
98.16725,0.04350632,-1.859406,0.4862317,-2.180001,-0.3537396,-0.01996889
98.18208,0.04352041,-1.86018,0.4862252,-2.179973,-0.353694,-0.01996879
98.19697,0.04352041,-1.86018,0.4862252,-2.179973,-0.353694,-0.01996879
98.21111,0.04353436,-1.860945,0.4862186,-2.179945,-0.3536488,-0.01996869
98.22681,0.04354817,-1.861701,0.4862118,-2.179917,-0.353604,-0.0199686
98.24187,0.04356184,-1.862448,0.4862049,-2.179889,-0.3535596,-0.0199685
98.25679,0.04356184,-1.862448,0.4862049,-2.179889,-0.3535596,-0.0199685
98.27099,0.04357537,-1.863185,0.4861979,-2.179861,-0.3535157,-0.01996841
98.2865,0.04358876,-1.863914,0.4861907,-2.179832,-0.3534721,-0.01996831
98.30151,0.04360201,-1.864634,0.4861833,-2.179804,-0.353429,-0.01996822
98.31609,0.04360201,-1.864634,0.4861833,-2.179804,-0.353429,-0.01996822
98.3303,0.04361513,-1.865346,0.4861759,-2.179775,-0.3533863,-0.01996813
98.34679,0.04362811,-1.866049,0.4861683,-2.179747,-0.3533439,-0.01996803
98.3606,0.04364096,-1.866744,0.4861606,-2.179718,-0.353302,-0.01996795
98.37529,0.04364096,-1.866744,0.4861606,-2.179718,-0.353302,-0.01996795
98.38972,0.04365368,-1.86743,0.4861528,-2.17969,-0.3532605,-0.01996786
98.40511,0.04366627,-1.868108,0.4861449,-2.179661,-0.3532194,-0.01996777
98.4201,0.04367873,-1.868778,0.4861369,-2.179632,-0.3531787,-0.01996769
98.43455,0.04367873,-1.868778,0.4861369,-2.179632,-0.3531787,-0.01996769
98.44933,0.04369107,-1.86944,0.4861287,-2.179603,-0.3531384,-0.0199676
98.46452,0.04370328,-1.870095,0.4861205,-2.179574,-0.3530985,-0.01996752
98.47936,0.04370328,-1.870095,0.4861205,-2.179574,-0.3530985,-0.01996752
98.49594,0.04371536,-1.870741,0.4861122,-2.179545,-0.353059,-0.01996744
98.50903,0.04372732,-1.87138,0.4861038,-2.179517,-0.3530198,-0.01996735
98.52399,0.04373915,-1.872011,0.4860952,-2.179488,-0.3529811,-0.01996727
98.53886,0.04373915,-1.872011,0.4860952,-2.179488,-0.3529811,-0.01996727
98.55284,0.04375086,-1.872634,0.4860866,-2.179459,-0.3529427,-0.0199672
98.56937,0.04376246,-1.87325,0.4860779,-2.17943,-0.3529048,-0.01996712
98.58316,0.04377393,-1.873859,0.4860692,-2.179401,-0.3528672,-0.01996704
98.59801,0.04377393,-1.873859,0.4860692,-2.179401,-0.3528672,-0.01996704
98.61221,0.04378529,-1.874461,0.4860603,-2.179372,-0.35283,-0.01996696
98.62772,0.04379652,-1.875055,0.4860514,-2.179343,-0.3527931,-0.01996689
98.64256,0.04380765,-1.875642,0.4860424,-2.179315,-0.3527566,-0.01996681
98.65733,0.04380765,-1.875642,0.4860424,-2.179315,-0.3527566,-0.01996681
98.67141,0.04381866,-1.876222,0.4860334,-2.179286,-0.3527206,-0.01996674
98.68708,0.04382955,-1.876796,0.4860242,-2.179257,-0.3526848,-0.01996667
98.70184,0.04384034,-1.877362,0.4860151,-2.179228,-0.3526495,-0.01996659
98.71677,0.04384034,-1.877362,0.4860151,-2.179228,-0.3526495,-0.01996659
98.73112,0.04385101,-1.877922,0.4860058,-2.179199,-0.3526145,-0.01996652
98.74877,0.04386157,-1.878475,0.4859965,-2.179171,-0.3525799,-0.01996645
98.76157,0.04387202,-1.879021,0.4859872,-2.179142,-0.3525456,-0.01996638
98.77676,0.04387202,-1.879021,0.4859872,-2.179142,-0.3525456,-0.01996638
98.79178,0.04388237,-1.879561,0.4859777,-2.179114,-0.3525117,-0.01996632
98.80643,0.04389261,-1.880094,0.4859683,-2.179085,-0.3524781,-0.01996625
98.82113,0.04390274,-1.880621,0.4859588,-2.179057,-0.3524449,-0.01996618
98.83602,0.04390274,-1.880621,0.4859588,-2.179057,-0.3524449,-0.01996618
98.85027,0.04391277,-1.881142,0.4859492,-2.179029,-0.352412,-0.01996611
98.86568,0.04392269,-1.881656,0.4859397,-2.179,-0.3523795,-0.01996605
98.88053,0.04393251,-1.882165,0.48593,-2.178972,-0.3523473,-0.01996598
98.89555,0.04393251,-1.882165,0.48593,-2.178972,-0.3523473,-0.01996598
98.90987,0.04394223,-1.882667,0.4859204,-2.178944,-0.3523155,-0.01996592
