JMolnar6/NonAnthroHands_User_Study/HandsLoggerWithURDF/tempdata/PID 0 (test)/files/Reachy_PID0_JointMotion_gesture_9_46.csv
Time,r_shoulder,r_shoulder_x,r_upper_arm,r_forearm,r_wrist,r_wrist2hand,
676.0939,-0.2584842,-4.05341E-09,NaN,-0.5881732,-1.330538E-07,NaN,-0.2875988,-3.699714E-07,NaN,-0.968084,1.956138E-05,0.4161607,3.683868E-08,NaN,NaN,-0.4874582,-2.188612E-10,1.041105E-06,-1.109618E-07,-8.312249E-09,-2.622604E-08
676.1125,-0.2539257,-4.052663E-09,NaN,-0.5880322,-1.33054E-07,NaN,-0.2889979,-3.697388E-07,NaN,-0.966442,1.956182E-05,0.4182881,3.660757E-08,NaN,NaN,-0.4873416,-2.235178E-10,1.031568E-06,-1.109608E-07,-1.010039E-08,-2.622604E-08
676.1237,-0.2492096,-4.051916E-09,NaN,-0.5878848,-1.330542E-07,NaN,-0.2904677,-3.695107E-07,NaN,-0.9647598,1.956226E-05,0.4204042,3.638094E-08,NaN,NaN,-0.4872274,-2.281744E-10,1.017263E-06,-1.109597E-07,-6.524109E-09,-2.622604E-08
676.1384,-0.2492096,-4.051916E-09,NaN,-0.5878848,-1.330542E-07,NaN,-0.2904677,-3.695107E-07,NaN,-0.9647598,1.956226E-05,0.4204042,3.638094E-08,NaN,NaN,-0.4872274,-2.281744E-10,1.017263E-06,-1.109597E-07,-6.524109E-09,-2.622604E-08
676.1525,-0.2444182,-4.051169E-09,NaN,-0.5877344,-1.330545E-07,NaN,-0.2919392,-3.692841E-07,NaN,-0.9630434,1.956271E-05,0.4224987,3.615588E-08,NaN,NaN,-0.4871154,-2.32831E-10,1.001766E-06,-1.109587E-07,-7.120156E-09,-2.622604E-08
676.168,-0.2396024,-4.050422E-09,NaN,-0.5875828,-1.330547E-07,NaN,-0.2933839,-3.690619E-07,NaN,-0.9613054,1.956315E-05,0.4245663,3.593518E-08,NaN,NaN,-0.4870056,-2.421442E-10,9.826927E-07,-1.109577E-07,-7.716202E-09,-2.622604E-08
676.1832,-0.2351354,-4.049676E-09,NaN,-0.587445,-1.330549E-07,NaN,-0.2941696,-3.68844E-07,NaN,-0.9595089,1.956359E-05,0.4258753,3.571875E-08,NaN,NaN,-0.4869438,-2.468008E-10,9.552746E-07,-1.109566E-07,-9.504341E-09,-2.622604E-08
676.1974,-0.2351354,-4.049676E-09,NaN,-0.587445,-1.330549E-07,NaN,-0.2941696,-3.68844E-07,NaN,-0.9595089,1.956359E-05,0.4258753,3.571875E-08,NaN,NaN,-0.4869438,-2.468008E-10,9.552746E-07,-1.109566E-07,-9.504341E-09,-2.622604E-08
676.2114,-0.2309028,-4.04893E-09,NaN,-0.5873163,-1.330544E-07,NaN,-0.2948214,-3.692616E-07,NaN,-0.9577684,1.956403E-05,0.427137,3.613784E-08,NaN,NaN,-0.4868833,-2.374876E-10,9.326248E-07,-1.109567E-07,-8.312249E-09,-2.622604E-08
676.2269,-0.2268334,-4.048184E-09,NaN,-0.5871938,-1.330539E-07,NaN,-0.2954105,-3.696568E-07,NaN,-0.9560837,1.956446E-05,0.4283627,3.653455E-08,NaN,NaN,-0.486824,-2.188612E-10,9.159355E-07,-1.109568E-07,-8.908295E-09,-2.622604E-08
676.2417,-0.2228828,-4.047438E-09,NaN,-0.5870758,-1.330534E-07,NaN,-0.2959675,-3.700414E-07,NaN,-0.9544458,1.95649E-05,0.4295581,3.692058E-08,NaN,NaN,-0.4867659,-2.095479E-10,8.992462E-07,-1.109569E-07,-7.716203E-09,-2.622604E-08
676.2563,-0.2228828,-4.047438E-09,NaN,-0.5870758,-1.330534E-07,NaN,-0.2959675,-3.700414E-07,NaN,-0.9544458,1.95649E-05,0.4295581,3.692058E-08,NaN,NaN,-0.4867659,-2.095479E-10,8.992462E-07,-1.109569E-07,-7.716203E-09,-2.622604E-08
676.2725,-0.2193648,-4.046693E-09,NaN,-0.5869747,-1.330529E-07,NaN,-0.2958818,-3.704183E-07,NaN,-0.9527974,1.956535E-05,0.4300022,3.729897E-08,NaN,NaN,-0.4867547,-2.048913E-10,8.754044E-07,-1.10957E-07,-5.332017E-09,-2.622604E-08
676.2867,-0.2161285,-4.045947E-09,NaN,-0.5868843,-1.330525E-07,NaN,-0.2956875,-3.707877E-07,NaN,-0.951237,1.956578E-05,0.4304059,3.766988E-08,NaN,NaN,-0.4867439,-1.909215E-10,8.527546E-07,-1.109571E-07,-2.947831E-09,-2.622604E-08
676.3005,-0.2130799,-4.045202E-09,NaN,-0.586801,-1.33052E-07,NaN,-0.2954566,-3.711526E-07,NaN,-0.9497526,1.956622E-05,0.4307845,3.803627E-08,NaN,NaN,-0.4867332,-1.769516E-10,8.32489E-07,-1.109573E-07,3.240075E-11,-2.622604E-08
676.3152,-0.2130799,-4.045202E-09,NaN,-0.586801,-1.33052E-07,NaN,-0.2954566,-3.711526E-07,NaN,-0.9497526,1.956622E-05,0.4307845,3.803627E-08,NaN,NaN,-0.4867332,-1.769516E-10,8.32489E-07,-1.109573E-07,3.240075E-11,-2.622604E-08
676.3292,-0.2105022,-4.044457E-09,NaN,-0.586736,-1.330515E-07,NaN,-0.2945929,-3.715102E-07,NaN,-0.9482791,1.956666E-05,0.4304223,3.839541E-08,NaN,NaN,-0.4867686,-1.629818E-10,8.06263E-07,-1.109574E-07,-1.755739E-09,-2.622604E-08
676.3444,-0.2082255,-4.043712E-09,NaN,-0.5866823,-1.33051E-07,NaN,-0.2936384,-3.718607E-07,NaN,-0.9469086,1.95671E-05,0.4300294,3.874744E-08,NaN,NaN,-0.4868034,-1.49012E-10,7.871895E-07,-1.109575E-07,-5.332017E-09,-2.622604E-08
676.3591,-0.2082255,-4.043712E-09,NaN,-0.5866823,-1.33051E-07,NaN,-0.2936384,-3.718607E-07,NaN,-0.9469086,1.95671E-05,0.4300294,3.874744E-08,NaN,NaN,-0.4868034,-1.49012E-10,7.871895E-07,-1.109575E-07,-5.332017E-09,-2.622604E-08
676.3733,-0.2061441,-4.042966E-09,NaN,-0.5866357,-1.330506E-07,NaN,-0.2926664,-3.722043E-07,NaN,-0.9456234,1.956754E-05,0.4296236,3.909249E-08,NaN,NaN,-0.4868374,-1.396987E-10,7.693081E-07,-1.109576E-07,-9.504342E-09,-2.622604E-08
676.3905,-0.2041921,-4.042221E-09,NaN,-0.5865937,-1.330501E-07,NaN,-0.2917056,-3.72541E-07,NaN,-0.9444033,1.956798E-05,0.4292137,3.943071E-08,NaN,NaN,-0.4868708,-1.303855E-10,7.526189E-07,-1.109577E-07,-7.716203E-09,-2.622604E-08
676.4036,-0.2026703,-4.041476E-09,NaN,-0.5865682,-1.330496E-07,NaN,-0.290138,-3.72871E-07,NaN,-0.9431829,1.956843E-05,0.428082,3.976223E-08,NaN,NaN,-0.4869494,-1.210723E-10,7.323533E-07,-1.109578E-07,-8.31225E-09,-2.622604E-08
676.4183,-0.2026703,-4.041476E-09,NaN,-0.5865682,-1.330496E-07,NaN,-0.290138,-3.72871E-07,NaN,-0.9431829,1.956843E-05,0.428082,3.976223E-08,NaN,NaN,-0.4869494,-1.210723E-10,7.323533E-07,-1.109578E-07,-8.31225E-09,-2.622604E-08
676.4326,-0.2014197,-4.040731E-09,NaN,-0.5865529,-1.330492E-07,NaN,-0.2884989,-3.731945E-07,NaN,-0.9420567,1.956887E-05,0.4269353,4.008718E-08,NaN,NaN,-0.4870265,-1.117591E-10,7.132798E-07,-1.10958E-07,-9.504342E-09,-2.622604E-08
676.4479,-0.2003414,-4.039986E-09,NaN,-0.5865436,-1.330487E-07,NaN,-0.2868579,-3.735115E-07,NaN,-0.941009,1.956931E-05,0.4257908,4.040569E-08,NaN,NaN,-0.487102,-1.024458E-10,6.977826E-07,-1.109581E-07,-1.248457E-08,-2.622604E-08
676.4623,-0.1993741,-4.039241E-09,NaN,-0.586538,-1.330482E-07,NaN,-0.2852416,-3.738222E-07,NaN,-0.9400214,1.956975E-05,0.4246565,4.071788E-08,NaN,NaN,-0.4871761,-9.313261E-11,6.787091E-07,-1.109582E-07,-1.069643E-08,-2.622604E-08
676.4772,-0.1993741,-4.039241E-09,NaN,-0.586538,-1.330482E-07,NaN,-0.2852416,-3.738222E-07,NaN,-0.9400214,1.956975E-05,0.4246565,4.071788E-08,NaN,NaN,-0.4871761,-9.313261E-11,6.787091E-07,-1.109582E-07,-1.069643E-08,-2.622604E-08
676.4912,-0.198821,-4.038497E-09,NaN,-0.5865475,-1.330478E-07,NaN,-0.2830291,-3.741267E-07,NaN,-0.9390296,1.957019E-05,0.4228134,4.102388E-08,NaN,NaN,-0.4872946,-8.381938E-11,6.536752E-07,-1.109583E-07,-7.120156E-09,-2.622604E-08
676.5068,-0.1985251,-4.037752E-09,NaN,-0.586566,-1.330473E-07,NaN,-0.2807586,-3.744251E-07,NaN,-0.9381289,1.957064E-05,0.4209679,4.132382E-08,NaN,NaN,-0.4874108,-7.450616E-11,6.346017E-07,-1.109584E-07,-9.504342E-09,-2.622604E-08
676.5234,-0.1983887,-4.037007E-09,NaN,-0.5865898,-1.330469E-07,NaN,-0.2784991,-3.747176E-07,NaN,-0.9373043,1.957108E-05,0.4191374,4.16178E-08,NaN,NaN,-0.4875247,-6.519293E-11,6.167203E-07,-1.109585E-07,-8.908295E-09,-2.622604E-08
676.537,-0.1983887,-4.037007E-09,NaN,-0.5865898,-1.330469E-07,NaN,-0.2784991,-3.747176E-07,NaN,-0.9373043,1.957108E-05,0.4191374,4.16178E-08,NaN,NaN,-0.4875247,-6.519293E-11,6.167203E-07,-1.109585E-07,-8.908295E-09,-2.622604E-08
676.5513,-0.1986918,-4.036262E-09,NaN,-0.5866301,-1.330464E-07,NaN,-0.275646,-3.750043E-07,NaN,-0.9364886,1.957152E-05,0.4166039,4.190595E-08,NaN,NaN,-0.4876822,-5.587971E-11,5.916863E-07,-1.109586E-07,-1.248457E-08,-2.622604E-08
676.5656,-0.1992638,-4.035518E-09,NaN,-0.58668,-1.33046E-07,NaN,-0.2727474,-3.752852E-07,NaN,-0.9357735,1.957196E-05,0.4140773,4.218838E-08,NaN,NaN,-0.4878367,-4.656649E-11,5.738049E-07,-1.109588E-07,-1.308062E-08,-2.622604E-08
676.5801,-0.1999984,-4.034773E-09,NaN,-0.5867351,-1.330455E-07,NaN,-0.2698745,-3.755605E-07,NaN,-0.9351404,1.95724E-05,0.411576,4.24652E-08,NaN,NaN,-0.4879881,-3.725326E-11,5.583077E-07,-1.109589E-07,-1.248457E-08,-2.622604E-08
676.5967,-0.1999984,-4.034773E-09,NaN,-0.5867351,-1.330455E-07,NaN,-0.2698745,-3.755605E-07,NaN,-0.9351404,1.95724E-05,0.411576,4.24652E-08,NaN,NaN,-0.4879881,-3.725326E-11,5.583077E-07,-1.109589E-07,-1.248457E-08,-2.622604E-08
676.609,-0.2008296,-4.034028E-09,NaN,-0.586793,-1.33045E-07,NaN,-0.2670541,-3.758303E-07,NaN,-0.9345685,1.957285E-05,0.4091085,4.273652E-08,NaN,NaN,-0.4881365,-2.794004E-11,5.428105E-07,-1.10959E-07,-1.248457E-08,-2.622604E-08
676.6243,-0.2020581,-4.033284E-09,NaN,-0.5868658,-1.330446E-07,NaN,-0.2636603,-3.760948E-07,NaN,-0.9339909,1.957329E-05,0.4059505,4.300245E-08,NaN,NaN,-0.4883278,-1.862681E-11,5.213528E-07,-1.109591E-07,-1.248457E-08,-2.622604E-08
676.6389,-0.2020581,-4.033284E-09,NaN,-0.5868658,-1.330446E-07,NaN,-0.2636603,-3.760948E-07,NaN,-0.9339909,1.957329E-05,0.4059505,4.300245E-08,NaN,NaN,-0.4883278,-1.862681E-11,5.213528E-07,-1.109591E-07,-1.248457E-08,-2.622604E-08
676.6528,-0.2035253,-4.03254E-09,NaN,-0.5869468,-1.330441E-07,NaN,-0.2602368,-3.763539E-07,NaN,-0.933503,1.957373E-05,0.4028138,4.32631E-08,NaN,NaN,-0.4885154,-9.313586E-12,5.010872E-07,-1.109592E-07,-1.308062E-08,-2.622604E-08
676.6686,-0.2051325,-4.031795E-09,NaN,-0.5870321,-1.330437E-07,NaN,-0.256851,-3.766079E-07,NaN,-0.9330891,1.957417E-05,0.3997151,4.351856E-08,NaN,NaN,-0.4886993,-3.608225E-16,4.8559E-07,-1.109593E-07,-1.188853E-08,-2.622604E-08
676.6835,-0.2068184,-4.031051E-09,NaN,-0.5871192,-1.330433E-07,NaN,-0.253528,-3.768568E-07,NaN,-0.9327306,1.957461E-05,0.3966617,4.376895E-08,NaN,NaN,-0.4888796,9.312865E-12,4.677086E-07,-1.109594E-07,-1.069644E-08,-2.622604E-08
676.6981,-0.2068184,-4.031051E-09,NaN,-0.5871192,-1.330433E-07,NaN,-0.253528,-3.768568E-07,NaN,-0.9327306,1.957461E-05,0.3966617,4.376895E-08,NaN,NaN,-0.4888796,9.312865E-12,4.677086E-07,-1.109594E-07,-1.069644E-08,-2.622604E-08
676.7124,-0.2088868,-4.030307E-09,NaN,-0.5872206,-1.330428E-07,NaN,-0.2496389,-3.771007E-07,NaN,-0.9323615,1.957506E-05,0.3929243,4.401436E-08,NaN,NaN,-0.4891022,1.862609E-11,4.426747E-07,-1.109595E-07,-4.139925E-09,-2.622604E-08
676.7275,-0.2111808,-4.029562E-09,NaN,-0.5873295,-1.330424E-07,NaN,-0.2457316,-3.773397E-07,NaN,-0.9320784,1.95755E-05,0.3892197,4.425489E-08,NaN,NaN,-0.4893205,2.793932E-11,4.247933E-07,-1.109596E-07,-5.332017E-09,-2.622604E-08
676.7424,-0.2136031,-4.028818E-09,NaN,-0.587442,-1.330419E-07,NaN,-0.2418726,-3.77574E-07,NaN,-0.9318665,1.957594E-05,0.3855636,4.449063E-08,NaN,NaN,-0.4895344,3.725254E-11,4.081039E-07,-1.109598E-07,-8.31225E-09,-2.622604E-08
676.757,-0.2136031,-4.028818E-09,NaN,-0.587442,-1.330419E-07,NaN,-0.2418726,-3.77574E-07,NaN,-0.9318665,1.957594E-05,0.3855636,4.449063E-08,NaN,NaN,-0.4895344,3.725254E-11,4.081039E-07,-1.109598E-07,-8.31225E-09,-2.622604E-08
676.7711,-0.216435,-4.028074E-09,NaN,-0.5875695,-1.330415E-07,NaN,-0.2374484,-3.778035E-07,NaN,-0.9316564,1.957638E-05,0.3812253,4.472168E-08,NaN,NaN,-0.48979,4.656577E-11,3.878384E-07,-1.109599E-07,-9.504342E-09,-2.622604E-08
676.7875,-0.2195057,-4.02733E-09,NaN,-0.5877046,-1.330411E-07,NaN,-0.2330177,-3.780285E-07,NaN,-0.9315413,1.957682E-05,0.3769283,4.494812E-08,NaN,NaN,-0.4900405,5.587899E-11,3.675728E-07,-1.1096E-07,-8.908295E-09,-2.622604E-08
676.8023,-0.2227092,-4.026587E-09,NaN,-0.5878432,-1.330408E-07,NaN,-0.2286486,-3.769856E-07,NaN,-0.9315031,1.957728E-05,0.3726889,4.392079E-08,NaN,NaN,-0.4902861,5.587899E-11,3.544598E-07,-1.109596E-07,-9.504342E-09,-2.861022E-08
676.8161,-0.2227092,-4.026587E-09,NaN,-0.5878432,-1.330408E-07,NaN,-0.2286486,-3.769856E-07,NaN,-0.9315031,1.957728E-05,0.3726889,4.392079E-08,NaN,NaN,-0.4902861,5.587899E-11,3.544598E-07,-1.109596E-07,-9.504342E-09,-2.861022E-08
676.8298,-0.2259797,-4.025844E-09,NaN,-0.5879828,-1.330405E-07,NaN,-0.2243659,-3.759427E-07,NaN,-0.9315214,1.957773E-05,0.3685144,4.290548E-08,NaN,NaN,-0.4905269,5.587899E-11,3.377704E-07,-1.109594E-07,-1.129248E-08,-2.622604E-08
676.8453,-0.2296185,-4.025101E-09,NaN,-0.588136,-1.330401E-07,NaN,-0.2195355,-3.748998E-07,NaN,-0.931527,1.957818E-05,0.3636647,4.190072E-08,NaN,NaN,-0.4908087,6.05356E-11,3.139286E-07,-1.109591E-07,-1.069643E-08,-2.861022E-08
676.8599,-0.2296185,-4.025101E-09,NaN,-0.588136,-1.330401E-07,NaN,-0.2195355,-3.748998E-07,NaN,-0.931527,1.957818E-05,0.3636647,4.190072E-08,NaN,NaN,-0.4908087,6.05356E-11,3.139286E-07,-1.109591E-07,-1.069643E-08,-2.861022E-08
676.8739,-0.2334669,-4.024358E-09,NaN,-0.5882956,-1.330398E-07,NaN,-0.2147127,-3.738569E-07,NaN,-0.9316167,1.957863E-05,0.3588696,4.090537E-08,NaN,NaN,-0.4910851,6.05356E-11,2.924709E-07,-1.109588E-07,-1.188853E-08,-2.622604E-08
676.8895,-0.2374267,-4.023615E-09,NaN,-0.5884578,-1.330395E-07,NaN,-0.209961,-3.728141E-07,NaN,-0.9317753,1.957909E-05,0.3541428,3.99186E-08,NaN,NaN,-0.4913559,5.587899E-11,2.757816E-07,-1.109585E-07,-1.427271E-08,-2.861022E-08
676.904,-0.2414369,-4.022872E-09,NaN,-0.5886204,-1.330392E-07,NaN,-0.2053038,-3.717712E-07,NaN,-0.9319845,1.957955E-05,0.3494906,3.893981E-08,NaN,NaN,-0.4916214,6.05356E-11,2.579002E-07,-1.109583E-07,-1.248457E-08,-2.622604E-08
676.9189,-0.2414369,-4.022872E-09,NaN,-0.5886204,-1.330392E-07,NaN,-0.2053038,-3.717712E-07,NaN,-0.9319845,1.957955E-05,0.3494906,3.893981E-08,NaN,NaN,-0.4916214,6.05356E-11,2.579002E-07,-1.109583E-07,-1.248457E-08,-2.622604E-08
676.9329,-0.245802,-4.022129E-09,NaN,-0.588796,-1.330389E-07,NaN,-0.2001042,-3.707283E-07,NaN,-0.9321762,1.958E-05,0.3441652,3.796852E-08,NaN,NaN,-0.4919275,6.05356E-11,2.388267E-07,-1.10958E-07,-1.427271E-08,-2.861022E-08
676.9485,-0.2503651,-4.021385E-09,NaN,-0.5889776,-1.330386E-07,NaN,-0.1949216,-3.696854E-07,NaN,-0.9324481,1.958046E-05,0.3389047,3.700437E-08,NaN,NaN,-0.4922276,6.05356E-11,2.197532E-07,-1.109578E-07,-1.367667E-08,-2.622604E-08
676.9629,-0.2550291,-4.020642E-09,NaN,-0.5891614,-1.330383E-07,NaN,-0.1898188,-3.686426E-07,NaN,-0.9327862,1.958093E-05,0.3337216,3.60471E-08,NaN,NaN,-0.4925218,5.587899E-11,1.994876E-07,-1.109576E-07,-1.725294E-08,-2.861022E-08
676.9777,-0.2550291,-4.020642E-09,NaN,-0.5891614,-1.330383E-07,NaN,-0.1898188,-3.686426E-07,NaN,-0.9327862,1.958093E-05,0.3337216,3.60471E-08,NaN,NaN,-0.4925218,5.587899E-11,1.994876E-07,-1.109576E-07,-1.725294E-08,-2.861022E-08
676.9919,-0.2600761,-4.019899E-09,NaN,-0.5893589,-1.330381E-07,NaN,-0.1841738,-3.675997E-07,NaN,-0.9331191,1.958139E-05,0.3278647,3.50965E-08,NaN,NaN,-0.492856,5.122238E-11,1.708774E-07,-1.109574E-07,-1.963713E-08,-2.622604E-08
677.0074,-0.2653353,-4.019157E-09,NaN,-0.5895625,-1.330378E-07,NaN,-0.1785567,-3.665568E-07,NaN,-0.9335412,1.958185E-05,0.3220809,3.415241E-08,NaN,NaN,-0.4931836,6.05356E-11,1.482276E-07,-1.109586E-07,-2.082922E-08,-2.622604E-08
677.0217,-0.2707009,-4.018416E-09,NaN,-0.5897681,-1.33038E-07,NaN,-0.1730312,-3.655139E-07,NaN,-0.9340353,1.958232E-05,0.3163826,3.321468E-08,NaN,NaN,-0.4935047,6.519222E-11,1.279621E-07,-1.109603E-07,-2.082922E-08,-2.622604E-08
677.0386,-0.2707009,-4.018416E-09,NaN,-0.5897681,-1.33038E-07,NaN,-0.1730312,-3.655139E-07,NaN,-0.9340353,1.958232E-05,0.3163826,3.321468E-08,NaN,NaN,-0.4935047,6.519222E-11,1.279621E-07,-1.109603E-07,-2.082922E-08,-2.622604E-08
677.0527,-0.2761075,-4.017675E-09,NaN,-0.5899736,-1.330384E-07,NaN,-0.1676204,-3.64471E-07,NaN,-0.9345813,1.958279E-05,0.3107759,3.228322E-08,NaN,NaN,-0.4938195,6.519222E-11,1.112728E-07,-1.10962E-07,-2.202132E-08,-2.622604E-08
677.066,-0.2818571,-4.016933E-09,NaN,-0.5901914,-1.330389E-07,NaN,-0.1616824,-3.634282E-07,NaN,-0.9351084,1.958327E-05,0.3044986,3.135794E-08,NaN,NaN,-0.4941739,6.519222E-11,8.504671E-08,-1.109639E-07,-2.023318E-08,-2.622604E-08
677.0819,-0.2877911,-4.016192E-09,NaN,-0.5904144,-1.330395E-07,NaN,-0.155784,-3.623853E-07,NaN,-0.9357139,1.958374E-05,0.2983061,3.043876E-08,NaN,NaN,-0.4945213,6.984884E-11,6.95495E-08,-1.109659E-07,-1.963713E-08,-2.622604E-08
677.0952,-0.2877911,-4.016192E-09,NaN,-0.5904144,-1.330395E-07,NaN,-0.155784,-3.623853E-07,NaN,-0.9357139,1.958374E-05,0.2983061,3.043876E-08,NaN,NaN,-0.4945213,6.984884E-11,6.95495E-08,-1.109659E-07,-1.963713E-08,-2.622604E-08
677.1091,-0.2938114,-4.01545E-09,NaN,-0.5906388,-1.330402E-07,NaN,-0.1499848,-3.613424E-07,NaN,-0.9363836,1.95842E-05,0.2922086,2.952561E-08,NaN,NaN,-0.4948618,7.916206E-11,5.047601E-08,-1.109678E-07,-1.844504E-08,-2.622604E-08
677.1245,-0.2998574,-4.014709E-09,NaN,-0.5908626,-1.33041E-07,NaN,-0.1443059,-3.602995E-07,NaN,-0.9370998,1.958467E-05,0.2862107,2.861845E-08,NaN,NaN,-0.4951956,8.847528E-11,3.497881E-08,-1.109698E-07,-1.963713E-08,-2.622604E-08
677.1395,-0.2998574,-4.014709E-09,NaN,-0.5908626,-1.33041E-07,NaN,-0.1443059,-3.602995E-07,NaN,-0.9370998,1.958467E-05,0.2862107,2.861845E-08,NaN,NaN,-0.4951956,8.847528E-11,3.497881E-08,-1.109698E-07,-1.963713E-08,-2.622604E-08
677.1534,-0.3062341,-4.013967E-09,NaN,-0.5910985,-1.330418E-07,NaN,-0.1381037,-3.592567E-07,NaN,-0.9377923,1.958513E-05,0.2795414,2.771721E-08,NaN,NaN,-0.4955686,9.778851E-11,3.984393E-09,-1.109718E-07,-2.023318E-08,-2.622604E-08
677.1688,-0.3127849,-4.013225E-09,NaN,-0.5913392,-1.330425E-07,NaN,-0.1319486,-3.582138E-07,NaN,-0.9385599,1.95856E-05,0.272966,2.682185E-08,NaN,NaN,-0.4959342,1.071017E-10,-2.104956E-08,-1.109739E-07,-2.202132E-08,-2.622604E-08
677.1837,-0.3194127,-4.012483E-09,NaN,-0.591581,-1.330433E-07,NaN,-0.1258992,-3.571709E-07,NaN,-0.9393892,1.958609E-05,0.2664934,2.593232E-08,NaN,NaN,-0.4962927,1.024451E-10,-4.369932E-08,-1.109759E-07,-2.380946E-08,-2.622604E-08
677.1985,-0.3194127,-4.012483E-09,NaN,-0.591581,-1.330433E-07,NaN,-0.1258992,-3.571709E-07,NaN,-0.9393892,1.958609E-05,0.2664934,2.593232E-08,NaN,NaN,-0.4962927,1.024451E-10,-4.369932E-08,-1.109759E-07,-2.380946E-08,-2.622604E-08
677.2126,-0.3264003,-4.011741E-09,NaN,-0.5918356,-1.330441E-07,NaN,-0.1193266,-3.56128E-07,NaN,-0.9402076,1.958656E-05,0.2593476,2.504858E-08,NaN,NaN,-0.4966898,1.071017E-10,-7.588583E-08,-1.109779E-07,-2.380946E-08,-2.622604E-08
677.2276,-0.3335768,-4.010998E-09,NaN,-0.5920951,-1.33045E-07,NaN,-0.1128107,-3.550851E-07,NaN,-0.9411101,1.958704E-05,0.2523036,2.417059E-08,NaN,NaN,-0.4970791,1.071017E-10,-1.044961E-07,-1.1098E-07,-2.500155E-08,-2.622604E-08
677.2426,-0.3408368,-4.010256E-09,NaN,-0.5923557,-1.330458E-07,NaN,-0.1064113,-3.540423E-07,NaN,-0.9420804,1.958751E-05,0.24537,2.32983E-08,NaN,NaN,-0.4974608,1.210716E-10,-1.2953E-07,-1.10982E-07,-2.619364E-08,-2.622604E-08
677.2573,-0.3408368,-4.010256E-09,NaN,-0.5923557,-1.330458E-07,NaN,-0.1064113,-3.540423E-07,NaN,-0.9420804,1.958751E-05,0.24537,2.32983E-08,NaN,NaN,-0.4974608,1.210716E-10,-1.2953E-07,-1.10982E-07,-2.619364E-08,-2.622604E-08
677.2712,-0.3481152,-4.009513E-09,NaN,-0.5926151,-1.330466E-07,NaN,-0.1001489,-3.529994E-07,NaN,-0.9430991,1.958798E-05,0.2385512,2.243169E-08,NaN,NaN,-0.4978348,1.303848E-10,-1.521798E-07,-1.109841E-07,-2.380946E-08,-2.622604E-08
677.2866,-0.3557144,-4.00877E-09,NaN,-0.5928861,-1.330475E-07,NaN,-0.0933762,-3.519565E-07,NaN,-0.9440941,1.958845E-05,0.2310596,2.157071E-08,NaN,NaN,-0.4982473,1.350414E-10,-1.831742E-07,-1.109861E-07,-1.725295E-08,-2.622604E-08
677.3022,-0.3634759,-4.008027E-09,NaN,-0.5931613,-1.330484E-07,NaN,-0.08666935,-3.509136E-07,NaN,-0.9451629,1.958894E-05,0.2236796,2.071532E-08,NaN,NaN,-0.4986516,1.303848E-10,-2.105923E-07,-1.109882E-07,-1.784899E-08,-2.622604E-08
677.317,-0.3634759,-4.008027E-09,NaN,-0.5931613,-1.330484E-07,NaN,-0.08666935,-3.509136E-07,NaN,-0.9451629,1.958894E-05,0.2236796,2.071532E-08,NaN,NaN,-0.4986516,1.303848E-10,-2.105923E-07,-1.109882E-07,-1.784899E-08,-2.622604E-08
677.331,-0.3713019,-4.007284E-09,NaN,-0.5934371,-1.330492E-07,NaN,-0.08008423,-3.498708E-07,NaN,-0.9462922,1.958942E-05,0.2164182,1.986548E-08,NaN,NaN,-0.4990479,1.350414E-10,-2.368184E-07,-1.109903E-07,-1.397469E-08,-2.622604E-08
677.3454,-0.379132,-4.00654E-09,NaN,-0.5937114,-1.330501E-07,NaN,-0.0736401,-3.488279E-07,NaN,-0.9474649,1.958991E-05,0.2092784,1.902116E-08,NaN,NaN,-0.4994364,1.350414E-10,-2.618523E-07,-1.109923E-07,-1.337864E-08,-2.622604E-08
677.3599,-0.379132,-4.00654E-09,NaN,-0.5937114,-1.330501E-07,NaN,-0.0736401,-3.488279E-07,NaN,-0.9474649,1.958991E-05,0.2092784,1.902116E-08,NaN,NaN,-0.4994364,1.350414E-10,-2.618523E-07,-1.109923E-07,-1.337864E-08,-2.622604E-08
677.374,-0.3872718,-4.005797E-09,NaN,-0.5939971,-1.33051E-07,NaN,-0.06668796,-3.47785E-07,NaN,-0.94861,1.959039E-05,0.2014629,1.818233E-08,NaN,NaN,-0.499863,1.350414E-10,-2.999993E-07,-1.109944E-07,-1.010039E-08,-2.622604E-08
677.3893,-0.3955646,-4.005054E-09,NaN,-0.5942868,-1.330518E-07,NaN,-0.05980723,-3.467421E-07,NaN,-0.9498259,1.959087E-05,0.1937669,1.734864E-08,NaN,NaN,-0.5002812,1.39698E-10,-3.333779E-07,-1.109968E-07,-1.099446E-08,-2.861022E-08
677.4039,-0.4039137,-4.00431E-09,NaN,-0.5945768,-1.330525E-07,NaN,-0.05305296,-3.456992E-07,NaN,-0.9511002,1.959136E-05,0.1861962,1.652035E-08,NaN,NaN,-0.5006911,1.39698E-10,-3.643723E-07,-1.109992E-07,-1.308062E-08,-2.622604E-08
677.4189,-0.4039137,-4.00431E-09,NaN,-0.5945768,-1.330525E-07,NaN,-0.05305296,-3.456992E-07,NaN,-0.9511002,1.959136E-05,0.1861962,1.652035E-08,NaN,NaN,-0.5006911,1.39698E-10,-3.643723E-07,-1.109992E-07,-1.308062E-08,-2.622604E-08
677.4328,-0.4126023,-4.003567E-09,NaN,-0.5948788,-1.330533E-07,NaN,-0.04579075,-3.446564E-07,NaN,-0.9523599,1.959184E-05,0.1779478,1.569745E-08,NaN,NaN,-0.5011387,1.39698E-10,-4.019232E-07,-1.110016E-07,-1.188853E-08,-2.861022E-08
677.4486,-0.4214596,-4.002823E-09,NaN,-0.5951849,-1.330542E-07,NaN,-0.03860836,-3.436135E-07,NaN,-0.9536998,1.959232E-05,0.1698263,1.487989E-08,NaN,NaN,-0.5015774,1.39698E-10,-4.388781E-07,-1.110041E-07,-1.129248E-08,-2.622604E-08
677.463,-0.4303802,-4.002079E-09,NaN,-0.5954912,-1.33055E-07,NaN,-0.03156197,-3.425706E-07,NaN,-0.9551046,1.959281E-05,0.1618376,1.406763E-08,NaN,NaN,-0.5020075,1.39698E-10,-4.716607E-07,-1.110065E-07,-6.226088E-09,-2.861022E-08
677.4779,-0.4303802,-4.002079E-09,NaN,-0.5954912,-1.33055E-07,NaN,-0.03156197,-3.425706E-07,NaN,-0.9551046,1.959281E-05,0.1618376,1.406763E-08,NaN,NaN,-0.5020075,1.39698E-10,-4.716607E-07,-1.110065E-07,-6.226088E-09,-2.861022E-08
677.4918,-0.4392993,-4.001335E-09,NaN,-0.5957956,-1.330558E-07,NaN,-0.02467001,-3.415277E-07,NaN,-0.9565555,1.959329E-05,0.1539841,1.326065E-08,NaN,NaN,-0.5024291,1.39698E-10,-4.972907E-07,-1.11009E-07,-7.716204E-09,-2.622604E-08
677.5073,-0.44852,-4.000591E-09,NaN,-0.5961111,-1.330567E-07,NaN,-0.01728074,-3.404849E-07,NaN,-0.9579803,1.959377E-05,0.1454506,1.245891E-08,NaN,NaN,-0.5028881,1.443546E-10,-5.330535E-07,-1.110114E-07,-1.010039E-08,-2.861022E-08
677.5219,-0.4578838,-3.999846E-09,NaN,-0.5964301,-1.330576E-07,NaN,-0.009978103,-3.39442E-07,NaN,-0.9594756,1.959426E-05,0.1370524,1.166237E-08,NaN,NaN,-0.503338,1.443546E-10,-5.676242E-07,-1.110139E-07,-1.159051E-08,-2.622604E-08
677.5366,-0.4578838,-3.999846E-09,NaN,-0.5964301,-1.330576E-07,NaN,-0.009978103,-3.39442E-07,NaN,-0.9594756,1.959426E-05,0.1370524,1.166237E-08,NaN,NaN,-0.503338,1.443546E-10,-5.676242E-07,-1.110139E-07,-1.159051E-08,-2.622604E-08
677.5506,-0.4672928,-3.999101E-09,NaN,-0.5967489,-1.330584E-07,NaN,-0.002814821,-3.383991E-07,NaN,-0.9610289,1.959474E-05,0.1287939,1.0871E-08,NaN,NaN,-0.5037791,1.490112E-10,-5.998107E-07,-1.110163E-07,-1.337865E-08,-2.861022E-08
677.5721,-0.476687,-3.998356E-09,NaN,-0.5970657,-1.330593E-07,NaN,0.004191906,-3.373562E-07,NaN,-0.9626237,1.959523E-05,0.1206766,1.008477E-08,NaN,NaN,-0.5042115,1.443546E-10,-6.337853E-07,-1.110188E-07,-1.010039E-08,-2.622604E-08
677.5817,-0.4863726,-3.997611E-09,NaN,-0.5973933,-1.330602E-07,NaN,0.01169495,-3.363133E-07,NaN,-0.9641897,1.959571E-05,0.1118745,9.303646E-09,NaN,NaN,-0.5046811,1.490112E-10,-6.778927E-07,-1.110212E-07,-8.908297E-09,-2.861022E-08
677.595,-0.4863726,-3.997611E-09,NaN,-0.5973933,-1.330602E-07,NaN,0.01169495,-3.363133E-07,NaN,-0.9641897,1.959571E-05,0.1118745,9.303646E-09,NaN,NaN,-0.5046811,1.490112E-10,-6.778927E-07,-1.110212E-07,-8.908297E-09,-2.861022E-08
677.6094,-0.4961928,-3.996866E-09,NaN,-0.5977244,-1.330611E-07,NaN,0.01910751,-3.352705E-07,NaN,-0.9658236,1.959619E-05,0.1032147,8.527592E-09,NaN,NaN,-0.5051413,1.490112E-10,-7.160397E-07,-1.110237E-07,-7.567193E-09,-2.622604E-08
677.6243,-0.5060511,-3.99612E-09,NaN,-0.598055,-1.33062E-07,NaN,0.0263776,-3.342276E-07,NaN,-0.9675138,1.959667E-05,0.09470067,7.756576E-09,NaN,NaN,-0.5055925,1.536678E-10,-7.547827E-07,-1.110261E-07,-4.884984E-09,-2.861022E-08
677.639,-0.5060511,-3.99612E-09,NaN,-0.598055,-1.33062E-07,NaN,0.0263776,-3.342276E-07,NaN,-0.9675138,1.959667E-05,0.09470067,7.756576E-09,NaN,NaN,-0.5055925,1.536678E-10,-7.547827E-07,-1.110261E-07,-4.884984E-09,-2.861022E-08
677.6531,-0.5162312,-3.995375E-09,NaN,-0.5983972,-1.330629E-07,NaN,0.03414411,-3.331847E-07,NaN,-0.9691887,1.959715E-05,0.08549972,6.990565E-09,NaN,NaN,-0.5060806,1.536678E-10,-7.994862E-07,-1.110286E-07,-5.183007E-09,-2.622604E-08
677.6686,-0.5265623,-3.994629E-09,NaN,-0.5987428,-1.330639E-07,NaN,0.04181261,-3.321418E-07,NaN,-0.9709411,1.959765E-05,0.07644872,6.229528E-09,NaN,NaN,-0.506559,1.443546E-10,-8.418055E-07,-1.110311E-07,-5.033996E-09,-2.861022E-08
677.6832,-0.5369391,-3.993883E-09,NaN,-0.5990879,-1.330648E-07,NaN,0.04933025,-3.31099E-07,NaN,-0.9727565,1.959813E-05,0.06755088,5.473431E-09,NaN,NaN,-0.5070279,1.443546E-10,-8.769723E-07,-1.110335E-07,-4.43795E-09,-2.622604E-08
677.6978,-0.5369391,-3.993883E-09,NaN,-0.5990879,-1.330648E-07,NaN,0.04933025,-3.31099E-07,NaN,-0.9727565,1.959813E-05,0.06755088,5.473431E-09,NaN,NaN,-0.5070279,1.443546E-10,-8.769723E-07,-1.110335E-07,-4.43795E-09,-2.622604E-08
677.7119,-0.5472969,-3.993136E-09,NaN,-0.5994306,-1.330657E-07,NaN,0.05668063,-3.300561E-07,NaN,-0.9746169,1.959861E-05,0.05880667,4.722243E-09,NaN,NaN,-0.5074877,1.443546E-10,-9.163113E-07,-1.11036E-07,-3.245857E-09,-2.861022E-08
677.7281,-0.5579396,-3.99239E-09,NaN,-0.599784,-1.330667E-07,NaN,0.06451894,-3.290132E-07,NaN,-0.9764519,1.959909E-05,0.049371,3.975932E-09,NaN,NaN,-0.5079841,1.443546E-10,-9.645911E-07,-1.110384E-07,-3.990915E-09,-2.622604E-08
677.7423,-0.5687085,-3.991643E-09,NaN,-0.6001402,-1.330676E-07,NaN,0.07225437,-3.279703E-07,NaN,-0.9783555,1.959958E-05,0.04009257,3.234466E-09,NaN,NaN,-0.5084707,1.443546E-10,-1.010487E-06,-1.110409E-07,-3.469374E-09,-2.861022E-08
677.7566,-0.5687085,-3.991643E-09,NaN,-0.6001402,-1.330676E-07,NaN,0.07225437,-3.279703E-07,NaN,-0.9783555,1.959958E-05,0.04009257,3.234466E-09,NaN,NaN,-0.5084707,1.443546E-10,-1.010487E-06,-1.110409E-07,-3.469374E-09,-2.861022E-08
677.7709,-0.5795058,-3.990896E-09,NaN,-0.6004957,-1.330686E-07,NaN,0.07983719,-3.269274E-07,NaN,-0.9803157,1.960006E-05,0.03097332,2.497814E-09,NaN,NaN,-0.5089477,1.443546E-10,-1.054594E-06,-1.110434E-07,-6.971147E-09,-2.622604E-08
677.7863,-0.5902716,-3.990149E-09,NaN,-0.6008487,-1.330696E-07,NaN,0.08725206,-3.258846E-07,NaN,-0.9823167,1.960055E-05,0.02201296,1.765945E-09,NaN,NaN,-0.5094154,1.443546E-10,-1.091549E-06,-1.110458E-07,-2.668437E-09,-2.861022E-08
677.8011,-0.6013129,-3.989402E-09,NaN,-0.6012123,-1.330706E-07,NaN,0.09515498,-3.248417E-07,NaN,-0.9842906,1.960103E-05,0.01235506,1.038826E-09,NaN,NaN,-0.5099196,1.443546E-10,-1.146981E-06,-1.110483E-07,-2.271461E-09,-2.622604E-08
677.8157,-0.6013129,-3.989402E-09,NaN,-0.6012123,-1.330706E-07,NaN,0.09515498,-3.248417E-07,NaN,-0.9842906,1.960103E-05,0.01235506,1.038826E-09,NaN,NaN,-0.5099196,1.443546E-10,-1.146981E-06,-1.110483E-07,-2.271461E-09,-2.622604E-08
677.8317,-0.6124727,-3.988654E-09,NaN,-0.6015787,-1.330715E-07,NaN,0.1029526,-3.237988E-07,NaN,-0.9863309,1.960152E-05,0.002860895,3.164286E-10,NaN,NaN,-0.5104138,1.39698E-10,-1.198837E-06,-1.110508E-07,-3.715628E-10,-2.861022E-08
677.8459,-0.6236545,-3.987906E-09,NaN,-0.6019441,-1.330725E-07,NaN,0.1105958,-3.227559E-07,NaN,-0.9884265,1.960201E-05,-0.00646852,-4.012793E-10,NaN,NaN,-0.5108984,1.350414E-10,-1.247117E-06,-1.110532E-07,1.006795E-09,-2.622604E-08
677.8595,-0.6236545,-3.987906E-09,NaN,-0.6019441,-1.330725E-07,NaN,0.1105958,-3.227559E-07,NaN,-0.9884265,1.960201E-05,-0.00646852,-4.012793E-10,NaN,NaN,-0.5108984,1.350414E-10,-1.247117E-06,-1.110532E-07,1.006795E-09,-2.622604E-08
677.8737,-0.6351429,-3.987159E-09,NaN,-0.6023208,-1.330735E-07,NaN,0.1187272,-3.217131E-07,NaN,-0.9905092,1.96025E-05,-0.01649739,-1.114328E-09,NaN,NaN,-0.5114191,1.303848E-10,-1.306722E-06,-1.110557E-07,9.053421E-09,-2.861022E-08
677.8891,-0.6467668,-3.98641E-09,NaN,-0.6027003,-1.330745E-07,NaN,0.1267465,-3.206702E-07,NaN,-0.992668,1.960298E-05,-0.02635455,-1.822747E-09,NaN,NaN,-0.5119296,1.350414E-10,-1.355598E-06,-1.110582E-07,2.422404E-09,-2.622604E-08
677.9035,-0.6584209,-3.985662E-09,NaN,-0.6030788,-1.330755E-07,NaN,0.134604,-3.196273E-07,NaN,-0.994889,1.960345E-05,-0.03603952,-2.526567E-09,NaN,NaN,-0.51243,1.443546E-10,-1.409838E-06,-1.110606E-07,5.104614E-09,-2.861022E-08
677.9184,-0.6584209,-3.985662E-09,NaN,-0.6030788,-1.330755E-07,NaN,0.134604,-3.196273E-07,NaN,-0.994889,1.960345E-05,-0.03603952,-2.526567E-09,NaN,NaN,-0.51243,1.443546E-10,-1.409838E-06,-1.110606E-07,5.104614E-09,-2.861022E-08
677.9324,-0.6700406,-3.984914E-09,NaN,-0.6034545,-1.330766E-07,NaN,0.1422851,-3.185844E-07,NaN,-0.9971546,1.960394E-05,-0.04555365,-3.225818E-09,NaN,NaN,-0.5129206,1.39698E-10,-1.461694E-06,-1.110631E-07,6.743742E-09,-2.622604E-08
677.9478,-0.6819306,-3.984165E-09,NaN,-0.6038405,-1.330776E-07,NaN,0.1504477,-3.175415E-07,NaN,-0.9993988,1.960443E-05,-0.05577359,-3.920529E-09,NaN,NaN,-0.5134473,1.39698E-10,-1.518318E-06,-1.110656E-07,4.508568E-09,-2.861022E-08
677.9623,-0.6939319,-3.983416E-09,NaN,-0.6042289,-1.330786E-07,NaN,0.1584951,-3.164987E-07,NaN,-1.001711,1.960491E-05,-0.06581543,-4.61073E-09,NaN,NaN,-0.5139637,1.39698E-10,-1.579115E-06,-1.11068E-07,7.935835E-09,-2.622604E-08
677.9771,-0.6939319,-3.983416E-09,NaN,-0.6042289,-1.330786E-07,NaN,0.1584951,-3.164987E-07,NaN,-1.001711,1.960491E-05,-0.06581543,-4.61073E-09,NaN,NaN,-0.5139637,1.39698E-10,-1.579115E-06,-1.11068E-07,7.935835E-09,-2.622604E-08
677.9911,-0.705947,-3.982667E-09,NaN,-0.6046162,-1.330797E-07,NaN,0.1663801,-3.154558E-07,NaN,-1.004079,1.960539E-05,-0.07567977,-5.29645E-09,NaN,NaN,-0.5144699,1.39698E-10,-1.636336E-06,-1.110705E-07,9.723975E-09,-2.861022E-08
678.0065,-0.7179159,-3.981918E-09,NaN,-0.6050006,-1.330807E-07,NaN,0.1740893,-3.144129E-07,NaN,-1.006488,1.960587E-05,-0.08536864,-5.977718E-09,NaN,NaN,-0.5149661,1.490112E-10,-1.686403E-06,-1.110729E-07,4.359557E-09,-2.622604E-08
678.0211,-0.7301464,-3.981169E-09,NaN,-0.6053952,-1.330817E-07,NaN,0.1822809,-3.1337E-07,NaN,-1.008875,1.960636E-05,-0.09577036,-6.654563E-09,NaN,NaN,-0.5154985,1.39698E-10,-1.746008E-06,-1.110754E-07,7.339789E-09,-2.861022E-08
678.036,-0.7301464,-3.981169E-09,NaN,-0.6053952,-1.330817E-07,NaN,0.1822809,-3.1337E-07,NaN,-1.008875,1.960636E-05,-0.09577036,-6.654563E-09,NaN,NaN,-0.5154985,1.39698E-10,-1.746008E-06,-1.110754E-07,7.339789E-09,-2.861022E-08
678.0531,-0.7424814,-3.980419E-09,NaN,-0.6057922,-1.330828E-07,NaN,0.1903558,-3.123272E-07,NaN,-1.011328,1.960685E-05,-0.1059878,-7.327014E-09,NaN,NaN,-0.5160203,1.350414E-10,-1.804421E-06,-1.110779E-07,1.121409E-08,-2.622604E-08
678.067,-0.7548243,-3.979669E-09,NaN,-0.606188,-1.330839E-07,NaN,0.1982678,-3.112843E-07,NaN,-1.013835,1.960734E-05,-0.1160226,-7.9951E-09,NaN,NaN,-0.5165319,1.303848E-10,-1.860449E-06,-1.110803E-07,7.637812E-09,-2.861022E-08
678.0801,-0.767116,-3.978919E-09,NaN,-0.6065809,-1.330849E-07,NaN,0.2060034,-3.102414E-07,NaN,-1.016383,1.960782E-05,-0.1258773,-8.658848E-09,NaN,NaN,-0.5170334,1.303848E-10,-1.913497E-06,-1.110828E-07,1.181014E-08,-2.622604E-08
678.0968,-0.767116,-3.978919E-09,NaN,-0.6065809,-1.330849E-07,NaN,0.2060034,-3.102414E-07,NaN,-1.016383,1.960782E-05,-0.1258773,-8.658848E-09,NaN,NaN,-0.5170334,1.303848E-10,-1.913497E-06,-1.110828E-07,1.181014E-08,-2.622604E-08
678.1096,-0.779665,-3.978168E-09,NaN,-0.606984,-1.330867E-07,NaN,0.2142215,-3.098805E-07,NaN,-1.018911,1.960832E-05,-0.1364519,-8.715872E-09,NaN,NaN,-0.517571,1.16415E-10,-1.981447E-06,-1.110834E-07,1.955874E-08,-2.622604E-08
678.1238,-0.7923142,-3.977415E-09,NaN,-0.6073894,-1.330883E-07,NaN,0.222321,-3.096883E-07,NaN,-1.021504,1.960881E-05,-0.1468361,-8.66468E-09,NaN,NaN,-0.5180979,1.024451E-10,-2.047012E-06,-1.110836E-07,2.462514E-08,-2.622604E-08
678.1385,-0.7923142,-3.977415E-09,NaN,-0.6073894,-1.330883E-07,NaN,0.222321,-3.096883E-07,NaN,-1.021504,1.960881E-05,-0.1468361,-8.66468E-09,NaN,NaN,-0.5180979,1.024451E-10,-2.047012E-06,-1.110836E-07,2.462514E-08,-2.622604E-08
678.1525,-0.8049673,-3.976663E-09,NaN,-0.6077935,-1.330898E-07,NaN,0.2302565,-3.095914E-07,NaN,-1.024152,1.960928E-05,-0.1570323,-8.566624E-09,NaN,NaN,-0.5186145,1.024451E-10,-2.104232E-06,-1.110838E-07,2.432711E-08,-2.622604E-08
678.1683,-0.8179099,-3.97591E-09,NaN,-0.6082082,-1.330912E-07,NaN,0.2386742,-3.095594E-07,NaN,-1.026795,1.960975E-05,-0.1679496,-8.442366E-09,NaN,NaN,-0.5191668,9.778851E-11,-2.175758E-06,-1.110838E-07,3.207572E-08,-2.622604E-08
678.1827,-0.8309705,-3.975157E-09,NaN,-0.6086254,-1.330925E-07,NaN,0.2469671,-3.095699E-07,NaN,-1.029514,1.961023E-05,-0.1786676,-8.306533E-09,NaN,NaN,-0.5197082,9.313189E-11,-2.240727E-06,-1.110839E-07,3.207572E-08,-2.622604E-08
678.1975,-0.8309705,-3.975157E-09,NaN,-0.6086254,-1.330925E-07,NaN,0.2469671,-3.095699E-07,NaN,-1.029514,1.961023E-05,-0.1786676,-8.306533E-09,NaN,NaN,-0.5197082,9.313189E-11,-2.240727E-06,-1.110839E-07,3.207572E-08,-2.622604E-08
678.2111,-0.8440441,-3.974403E-09,NaN,-0.6090409,-1.330938E-07,NaN,0.2550895,-3.096138E-07,NaN,-1.032295,1.96107E-05,-0.1891899,-8.162163E-09,NaN,NaN,-0.5202391,8.847528E-11,-2.3051E-06,-1.110839E-07,3.386386E-08,-2.622604E-08
678.2264,-0.8570662,-3.97365E-09,NaN,-0.6094532,-1.330951E-07,NaN,0.2630287,-3.096802E-07,NaN,-1.03512,1.961117E-05,-0.1995202,-8.015065E-09,NaN,NaN,-0.5207595,7.916205E-11,-2.364108E-06,-1.110839E-07,3.624804E-08,-2.622604E-08
678.2411,-0.8703424,-3.972897E-09,NaN,-0.6098755,-1.330963E-07,NaN,0.2714449,-3.097623E-07,NaN,-1.037933,1.961164E-05,-0.2105796,-7.86812E-09,NaN,NaN,-0.5213156,7.916205E-11,-2.438018E-06,-1.110839E-07,3.326781E-08,-2.622604E-08
678.256,-0.8703424,-3.972897E-09,NaN,-0.6098755,-1.330963E-07,NaN,0.2714449,-3.097623E-07,NaN,-1.037933,1.961164E-05,-0.2105796,-7.86812E-09,NaN,NaN,-0.5213156,7.916205E-11,-2.438018E-06,-1.110839E-07,3.326781E-08,-2.622604E-08
678.2702,-0.8837136,-3.972144E-09,NaN,-0.6102998,-1.330976E-07,NaN,0.2797348,-3.098541E-07,NaN,-1.040815,1.961211E-05,-0.2214343,-7.724147E-09,NaN,NaN,-0.5218608,6.984883E-11,-2.508352E-06,-1.110839E-07,3.326781E-08,-2.622604E-08
678.2854,-0.897082,-3.97139E-09,NaN,-0.6107224,-1.330988E-07,NaN,0.2878548,-3.099559E-07,NaN,-1.043752,1.961259E-05,-0.2320886,-7.58026E-09,NaN,NaN,-0.5223953,6.05356E-11,-2.572129E-06,-1.110839E-07,3.624804E-08,-2.622604E-08
678.3003,-0.910388,-3.970637E-09,NaN,-0.6111419,-1.331E-07,NaN,0.2957932,-3.10063E-07,NaN,-1.04673,1.961306E-05,-0.2425469,-7.439285E-09,NaN,NaN,-0.5229193,5.122238E-11,-2.637098E-06,-1.110839E-07,3.624804E-08,-2.622604E-08
678.3149,-0.910388,-3.970637E-09,NaN,-0.6111419,-1.331E-07,NaN,0.2957932,-3.10063E-07,NaN,-1.04673,1.961306E-05,-0.2425469,-7.439285E-09,NaN,NaN,-0.5229193,5.122238E-11,-2.637098E-06,-1.110839E-07,3.624804E-08,-2.622604E-08
678.3286,-0.9239403,-3.969883E-09,NaN,-0.6115713,-1.331013E-07,NaN,0.3042099,-3.101765E-07,NaN,-1.049697,1.961353E-05,-0.2537419,-7.298337E-09,NaN,NaN,-0.523479,5.122238E-11,-2.714584E-06,-1.110839E-07,3.744013E-08,-2.622604E-08
678.3441,-0.9375814,-3.969129E-09,NaN,-0.6120027,-1.331025E-07,NaN,0.3125002,-3.102924E-07,NaN,-1.052731,1.9614E-05,-0.2647263,-7.160242E-09,NaN,NaN,-0.5240278,4.190916E-11,-2.786109E-06,-1.110839E-07,3.44599E-08,-2.622604E-08
678.3586,-0.9375814,-3.969129E-09,NaN,-0.6120027,-1.331025E-07,NaN,0.3125002,-3.102924E-07,NaN,-1.052731,1.9614E-05,-0.2647263,-7.160242E-09,NaN,NaN,-0.5240278,4.190916E-11,-2.786109E-06,-1.110839E-07,3.44599E-08,-2.622604E-08
678.3747,-0.9512147,-3.968377E-09,NaN,-0.6124324,-1.331025E-07,NaN,0.3206209,-3.110356E-07,NaN,-1.055818,1.961446E-05,-0.2755053,-6.45396E-09,NaN,NaN,-0.5245657,4.190916E-11,-2.851674E-06,-1.110852E-07,3.505595E-08,-2.861022E-08
678.3889,-0.9651265,-3.967625E-09,NaN,-0.6128725,-1.331023E-07,NaN,0.3292197,-3.117788E-07,NaN,-1.058911,1.961492E-05,-0.2870213,-5.791761E-09,NaN,NaN,-0.5251391,4.190916E-11,-2.927968E-06,-1.110865E-07,2.969153E-08,-2.622604E-08
678.4023,-0.9791449,-3.966873E-09,NaN,-0.6133147,-1.33102E-07,NaN,0.3376866,-3.125219E-07,NaN,-1.06208,1.961538E-05,-0.2983173,-5.162871E-09,NaN,NaN,-0.5257012,4.656577E-11,-3.00307E-06,-1.110878E-07,3.147967E-08,-2.861022E-08
678.4172,-0.9791449,-3.966873E-09,NaN,-0.6133147,-1.33102E-07,NaN,0.3376866,-3.125219E-07,NaN,-1.06208,1.961538E-05,-0.2983173,-5.162871E-09,NaN,NaN,-0.5257012,4.656577E-11,-3.00307E-06,-1.110878E-07,3.147967E-08,-2.861022E-08
678.4312,-0.9931649,-3.966122E-09,NaN,-0.6137549,-1.331018E-07,NaN,0.345978,-3.132651E-07,NaN,-1.065309,1.961584E-05,-0.3093996,-4.559367E-09,NaN,NaN,-0.5262523,5.122238E-11,-3.074E-06,-1.110891E-07,2.909548E-08,-2.622604E-08
678.4465,-1.007122,-3.96537E-09,NaN,-0.6141917,-1.331015E-07,NaN,0.3540826,-3.140083E-07,NaN,-1.068582,1.961629E-05,-0.320274,-3.975428E-09,NaN,NaN,-0.5267926,5.587899E-11,-3.143737E-06,-1.110903E-07,3.147967E-08,-2.861022E-08
678.461,-1.021323,-3.964618E-09,NaN,-0.6146383,-1.331012E-07,NaN,0.3626608,-3.147514E-07,NaN,-1.071854,1.961675E-05,-0.3318947,-3.406771E-09,NaN,NaN,-0.5273684,6.05356E-11,-3.225395E-06,-1.110916E-07,2.55192E-08,-2.622604E-08
678.4758,-1.021323,-3.964618E-09,NaN,-0.6146383,-1.331012E-07,NaN,0.3626608,-3.147514E-07,NaN,-1.071854,1.961675E-05,-0.3318947,-3.406771E-09,NaN,NaN,-0.5273684,6.05356E-11,-3.225395E-06,-1.110916E-07,2.55192E-08,-2.622604E-08
678.4897,-1.035607,-3.963866E-09,NaN,-0.6150866,-1.331009E-07,NaN,0.3711065,-3.154946E-07,NaN,-1.075195,1.96172E-05,-0.3432903,-2.850244E-09,NaN,NaN,-0.5279328,6.984883E-11,-3.301689E-06,-1.110928E-07,2.55192E-08,-2.861022E-08
678.5052,-1.049878,-3.963114E-09,NaN,-0.6155329,-1.331006E-07,NaN,0.3793783,-3.162378E-07,NaN,-1.07859,1.961766E-05,-0.354468,-2.303529E-09,NaN,NaN,-0.5284862,7.450544E-11,-3.377387E-06,-1.110941E-07,2.55192E-08,-2.622604E-08
678.5201,-1.064076,-3.962362E-09,NaN,-0.6159759,-1.331003E-07,NaN,0.3874652,-3.16981E-07,NaN,-1.082024,1.961811E-05,-0.3654339,-1.764915E-09,NaN,NaN,-0.5290288,7.916206E-11,-3.444144E-06,-1.110953E-07,2.55192E-08,-2.861022E-08
678.5363,-1.064076,-3.962362E-09,NaN,-0.6159759,-1.331003E-07,NaN,0.3874652,-3.16981E-07,NaN,-1.082024,1.961811E-05,-0.3654339,-1.764915E-09,NaN,NaN,-0.5290288,7.916206E-11,-3.444144E-06,-1.110953E-07,2.55192E-08,-2.861022E-08
678.5489,-1.078509,-3.961611E-09,NaN,-0.6164286,-1.331E-07,NaN,0.3960269,-3.177241E-07,NaN,-1.08546,1.961857E-05,-0.3771538,-1.23314E-09,NaN,NaN,-0.5296068,7.916206E-11,-3.524908E-06,-1.110965E-07,2.194293E-08,-2.622604E-08
678.5642,-1.093021,-3.960859E-09,NaN,-0.6168831,-1.330997E-07,NaN,0.4044567,-3.184673E-07,NaN,-1.088962,1.961903E-05,-0.388643,-7.072737E-10,NaN,NaN,-0.5301735,7.916206E-11,-3.602692E-06,-1.110977E-07,2.909548E-08,-2.861022E-08
678.5789,-1.093021,-3.960859E-09,NaN,-0.6168831,-1.330997E-07,NaN,0.4044567,-3.184673E-07,NaN,-1.088962,1.961903E-05,-0.388643,-7.072737E-10,NaN,NaN,-0.5301735,7.916206E-11,-3.602692E-06,-1.110977E-07,2.909548E-08,-2.861022E-08
678.5928,-1.107515,-3.960107E-09,NaN,-0.6173356,-1.330994E-07,NaN,0.4127134,-3.192105E-07,NaN,-1.092516,1.961948E-05,-0.3999092,-1.866242E-10,NaN,NaN,-0.5307291,8.381867E-11,-3.674218E-06,-1.110989E-07,2.790339E-08,-2.622604E-08
678.6084,-1.110519,-3.959355E-09,NaN,-0.6173329,-1.330991E-07,NaN,0.3990814,-3.199536E-07,NaN,-1.096781,1.961993E-05,-0.3789854,3.293208E-10,NaN,NaN,-0.5297536,9.31319E-11,-3.242681E-06,-1.111001E-07,2.313502E-08,-2.861022E-08
678.6229,-1.106487,-3.958603E-09,NaN,-0.6171086,-1.330988E-07,NaN,0.3836623,-3.206968E-07,NaN,-1.099696,1.962039E-05,-0.3590771,8.409436E-10,NaN,NaN,-0.5288027,9.778851E-11,-2.894441E-06,-1.111013E-07,2.55192E-08,-2.622604E-08
678.6396,-1.106487,-3.958603E-09,NaN,-0.6171086,-1.330988E-07,NaN,0.3836623,-3.206968E-07,NaN,-1.099696,1.962039E-05,-0.3590771,8.409436E-10,NaN,NaN,-0.5288027,9.778851E-11,-2.894441E-06,-1.111013E-07,2.55192E-08,-2.622604E-08
678.6528,-1.098166,-3.957852E-09,NaN,-0.6167572,-1.330984E-07,NaN,0.3679385,-3.2144E-07,NaN,-1.101321,1.962084E-05,-0.3400123,1.348531E-09,NaN,NaN,-0.527873,1.024451E-10,-2.618769E-06,-1.111025E-07,2.790339E-08,-2.861022E-08
678.6669,-1.087262,-3.9571E-09,NaN,-0.6163305,-1.330981E-07,NaN,0.3524609,-3.221832E-07,NaN,-1.101906,1.962129E-05,-0.3216335,1.852297E-09,NaN,NaN,-0.5269628,1.024451E-10,-2.384821E-06,-1.111037E-07,2.313502E-08,-2.622604E-08
678.6818,-1.075177,-3.956349E-09,NaN,-0.6158725,-1.330978E-07,NaN,0.3380415,-3.229263E-07,NaN,-1.10169,1.962175E-05,-0.3047779,2.352408E-09,NaN,NaN,-0.5261171,1.071017E-10,-2.199748E-06,-1.111048E-07,1.359828E-08,-2.861022E-08
678.6963,-1.075177,-3.956349E-09,NaN,-0.6158725,-1.330978E-07,NaN,0.3380415,-3.229263E-07,NaN,-1.10169,1.962175E-05,-0.3047779,2.352408E-09,NaN,NaN,-0.5261171,1.071017E-10,-2.199748E-06,-1.111048E-07,1.359828E-08,-2.861022E-08
678.7102,-1.062426,-3.955598E-09,NaN,-0.6153966,-1.330975E-07,NaN,0.3241241,-3.236695E-07,NaN,-1.100971,1.962222E-05,-0.2883782,2.848989E-09,NaN,NaN,-0.5252882,1.024451E-10,-2.032557E-06,-1.11106E-07,1.121409E-08,-2.622604E-08
678.7257,-1.049328,-3.954846E-09,NaN,-0.6149114,-1.330971E-07,NaN,0.3106286,-3.244127E-07,NaN,-1.099921,1.962267E-05,-0.2723907,3.342139E-09,NaN,NaN,-0.5244756,1.071017E-10,-1.87997E-06,-1.111071E-07,1.717456E-08,-2.861022E-08
678.7404,-1.036078,-3.954094E-09,NaN,-0.6144226,-1.330968E-07,NaN,0.2974978,-3.251558E-07,NaN,-1.098657,1.962312E-05,-0.2567853,3.831934E-09,NaN,NaN,-0.523679,1.16415E-10,-1.738111E-06,-1.111083E-07,1.717456E-08,-2.622604E-08
678.7551,-1.036078,-3.954094E-09,NaN,-0.6144226,-1.330968E-07,NaN,0.2974978,-3.251558E-07,NaN,-1.098657,1.962312E-05,-0.2567853,3.831934E-09,NaN,NaN,-0.523679,1.16415E-10,-1.738111E-06,-1.111083E-07,1.717456E-08,-2.622604E-08
678.7692,-1.023142,-3.953342E-09,NaN,-0.6139478,-1.330964E-07,NaN,0.285329,-3.25899E-07,NaN,-1.09722,1.962357E-05,-0.242473,4.318437E-09,NaN,NaN,-0.5229442,1.257282E-10,-1.623074E-06,-1.111094E-07,2.075083E-08,-2.861022E-08
678.7846,-1.010458,-3.95259E-09,NaN,-0.6134841,-1.330961E-07,NaN,0.2735268,-3.266422E-07,NaN,-1.095737,1.962403E-05,-0.228467,4.801699E-09,NaN,NaN,-0.5222236,1.257282E-10,-1.506844E-06,-1.111105E-07,2.194293E-08,-2.622604E-08
678.7993,-1.010458,-3.95259E-09,NaN,-0.6134841,-1.330961E-07,NaN,0.2735268,-3.266422E-07,NaN,-1.095737,1.962403E-05,-0.228467,4.801699E-09,NaN,NaN,-0.5222236,1.257282E-10,-1.506844E-06,-1.111105E-07,2.194293E-08,-2.622604E-08
678.8134,-0.9979858,-3.951838E-09,NaN,-0.6130299,-1.330957E-07,NaN,0.262015,-3.273854E-07,NaN,-1.094239,1.962449E-05,-0.2147621,5.281763E-09,NaN,NaN,-0.5215172,1.303848E-10,-1.397172E-06,-1.111116E-07,2.075083E-08,-2.861022E-08
678.8288,-0.9860457,-3.951087E-09,NaN,-0.6125977,-1.330954E-07,NaN,0.2513914,-3.281285E-07,NaN,-1.092699,1.962495E-05,-0.2022737,5.758666E-09,NaN,NaN,-0.5208706,1.350414E-10,-1.302997E-06,-1.111127E-07,1.955874E-08,-2.622604E-08
678.8432,-0.9744856,-3.950335E-09,NaN,-0.6121815,-1.33095E-07,NaN,0.2410744,-3.288717E-07,NaN,-1.091201,1.96254E-05,-0.1900385,6.232439E-09,NaN,NaN,-0.5202366,1.39698E-10,-1.210013E-06,-1.111138E-07,1.240618E-08,-2.861022E-08
678.8579,-0.9744856,-3.950335E-09,NaN,-0.6121815,-1.33095E-07,NaN,0.2410744,-3.288717E-07,NaN,-1.091201,1.96254E-05,-0.1900385,6.232439E-09,NaN,NaN,-0.5202366,1.39698E-10,-1.210013E-06,-1.111138E-07,1.240618E-08,-2.861022E-08
678.8718,-0.9632107,-3.949583E-09,NaN,-0.6117777,-1.330946E-07,NaN,0.2309964,-3.296149E-07,NaN,-1.089747,1.962586E-05,-0.1780571,6.703114E-09,NaN,NaN,-0.5196149,1.350414E-10,-1.118818E-06,-1.111148E-07,1.0022E-08,-2.622604E-08
678.8873,-0.952162,-3.948831E-09,NaN,-0.6113836,-1.330942E-07,NaN,0.2211287,-3.30358E-07,NaN,-1.088325,1.962632E-05,-0.1663274,7.170714E-09,NaN,NaN,-0.5190055,1.350414E-10,-1.029411E-06,-1.111159E-07,1.240618E-08,-2.861022E-08
678.902,-0.9416474,-3.948079E-09,NaN,-0.6110113,-1.330938E-07,NaN,0.2120894,-3.311012E-07,NaN,-1.086884,1.962677E-05,-0.1557539,7.635266E-09,NaN,NaN,-0.518454,1.39698E-10,-9.584817E-07,-1.11117E-07,1.717455E-08,-2.622604E-08
678.9175,-0.9416474,-3.948079E-09,NaN,-0.6110113,-1.330938E-07,NaN,0.2120894,-3.311012E-07,NaN,-1.086884,1.962677E-05,-0.1557539,7.635266E-09,NaN,NaN,-0.518454,1.39698E-10,-9.584817E-07,-1.11117E-07,1.717455E-08,-2.622604E-08
678.9313,-0.9315073,-3.947327E-09,NaN,-0.6106547,-1.330935E-07,NaN,0.2033134,-3.318444E-07,NaN,-1.085502,1.962723E-05,-0.1453908,8.096792E-09,NaN,NaN,-0.5179132,1.39698E-10,-8.863601E-07,-1.11118E-07,1.300223E-08,-2.861022E-08
678.9459,-0.921643,-3.946576E-09,NaN,-0.6103097,-1.330931E-07,NaN,0.1947388,-3.325875E-07,NaN,-1.084171,1.962769E-05,-0.1352394,8.555315E-09,NaN,NaN,-0.517383,1.39698E-10,-8.148345E-07,-1.11119E-07,1.598246E-08,-2.622604E-08
678.9603,-0.9119924,-3.945824E-09,NaN,-0.6099736,-1.330927E-07,NaN,0.1863402,-3.333307E-07,NaN,-1.082878,1.962814E-05,-0.1252985,9.010855E-09,NaN,NaN,-0.5168632,1.39698E-10,-7.450971E-07,-1.111201E-07,1.77706E-08,-2.861022E-08
678.9749,-0.9119924,-3.945824E-09,NaN,-0.6099736,-1.330927E-07,NaN,0.1863402,-3.333307E-07,NaN,-1.082878,1.962814E-05,-0.1252985,9.010855E-09,NaN,NaN,-0.5168632,1.39698E-10,-7.450971E-07,-1.111201E-07,1.77706E-08,-2.861022E-08
678.9888,-0.9028617,-3.945072E-09,NaN,-0.6096587,-1.330923E-07,NaN,0.1787358,-3.340739E-07,NaN,-1.081565,1.96286E-05,-0.1164621,9.463434E-09,NaN,NaN,-0.5163994,1.39698E-10,-6.914529E-07,-1.111211E-07,1.77706E-08,-2.622604E-08
679.0043,-0.8940908,-3.94432E-09,NaN,-0.6093585,-1.330919E-07,NaN,0.1713647,-3.348171E-07,NaN,-1.080312,1.962905E-05,-0.107799,9.913073E-09,NaN,NaN,-0.5159447,1.443546E-10,-6.354246E-07,-1.111221E-07,1.836665E-08,-2.861022E-08
679.0202,-0.8855803,-3.943568E-09,NaN,-0.609069,-1.330914E-07,NaN,0.1641659,-3.355602E-07,NaN,-1.079113,1.962952E-05,-0.09931076,1.035979E-08,NaN,NaN,-0.5154989,1.443546E-10,-5.799922E-07,-1.111231E-07,2.194293E-08,-2.622604E-08
679.0335,-0.8855803,-3.943568E-09,NaN,-0.609069,-1.330914E-07,NaN,0.1641659,-3.355602E-07,NaN,-1.079113,1.962952E-05,-0.09931076,1.035979E-08,NaN,NaN,-0.5154989,1.443546E-10,-5.799922E-07,-1.111231E-07,2.194293E-08,-2.622604E-08
679.0476,-0.8776128,-3.942816E-09,NaN,-0.6088014,-1.33091E-07,NaN,0.1577418,-3.363034E-07,NaN,-1.077904,1.962997E-05,-0.0918863,1.080361E-08,NaN,NaN,-0.5151077,1.490112E-10,-5.38269E-07,-1.111241E-07,2.015479E-08,-2.861022E-08
679.0626,-0.8700139,-3.942064E-09,NaN,-0.6085487,-1.330906E-07,NaN,0.1515281,-3.370466E-07,NaN,-1.076767,1.963043E-05,-0.08460466,1.124454E-08,NaN,NaN,-0.5147241,1.536678E-10,-4.953536E-07,-1.111251E-07,2.194293E-08,-2.622604E-08
679.0775,-0.8700139,-3.942064E-09,NaN,-0.6085487,-1.330906E-07,NaN,0.1515281,-3.370466E-07,NaN,-1.076767,1.963043E-05,-0.08460466,1.124454E-08,NaN,NaN,-0.5147241,1.536678E-10,-4.953536E-07,-1.111251E-07,2.194293E-08,-2.622604E-08
679.0915,-0.8626755,-3.941313E-09,NaN,-0.6083065,-1.330902E-07,NaN,0.1454622,-3.377897E-07,NaN,-1.075691,1.963088E-05,-0.07746811,1.168261E-08,NaN,NaN,-0.5143479,1.583245E-10,-4.506501E-07,-1.11126E-07,1.77706E-08,-2.861022E-08
679.1069,-0.8555301,-3.940561E-09,NaN,-0.6080722,-1.330898E-07,NaN,0.1395191,-3.385329E-07,NaN,-1.074659,1.963134E-05,-0.07047621,1.211783E-08,NaN,NaN,-0.5139791,1.629811E-10,-4.059467E-07,-1.11127E-07,1.479037E-08,-2.622604E-08
679.1215,-0.8488802,-3.939809E-09,NaN,-0.6078575,-1.330893E-07,NaN,0.1343159,-3.392761E-07,NaN,-1.073608,1.96318E-05,-0.06450893,1.255023E-08,NaN,NaN,-0.5136635,1.676377E-10,-3.743562E-07,-1.111279E-07,1.240618E-08,-2.861022E-08
679.1362,-0.8488802,-3.939809E-09,NaN,-0.6078575,-1.330893E-07,NaN,0.1343159,-3.392761E-07,NaN,-1.073608,1.96318E-05,-0.06450893,1.255023E-08,NaN,NaN,-0.5136635,1.676377E-10,-3.743562E-07,-1.111279E-07,1.240618E-08,-2.861022E-08
679.1501,-0.842564,-3.939057E-09,NaN,-0.6076561,-1.330889E-07,NaN,0.1292965,-3.400193E-07,NaN,-1.072623,1.963226E-05,-0.05865526,1.297982E-08,NaN,NaN,-0.5133539,1.676377E-10,-3.45746E-07,-1.111289E-07,1.240618E-08,-2.622604E-08
679.1656,-0.8364812,-3.938305E-09,NaN,-0.6074639,-1.330884E-07,NaN,0.1244007,-3.407624E-07,NaN,-1.071693,1.963272E-05,-0.05291725,1.340662E-08,NaN,NaN,-0.5130504,1.676377E-10,-3.129634E-07,-1.111298E-07,1.538642E-08,-2.861022E-08
679.1801,-0.8305689,-3.937553E-09,NaN,-0.6072783,-1.33088E-07,NaN,0.1196047,-3.415056E-07,NaN,-1.070806,1.963318E-05,-0.04729455,1.383065E-08,NaN,NaN,-0.5127528,1.676377E-10,-2.795848E-07,-1.111308E-07,9.425952E-09,-2.622604E-08
679.1959,-0.8305689,-3.937553E-09,NaN,-0.6072783,-1.33088E-07,NaN,0.1196047,-3.415056E-07,NaN,-1.070806,1.963318E-05,-0.04729455,1.383065E-08,NaN,NaN,-0.5127528,1.676377E-10,-2.795848E-07,-1.111308E-07,9.425952E-09,-2.622604E-08
679.2098,-0.8251328,-3.936802E-09,NaN,-0.6071116,-1.330876E-07,NaN,0.115525,-3.422488E-07,NaN,-1.069896,1.963364E-05,-0.04266097,1.425193E-08,NaN,NaN,-0.5125069,1.676377E-10,-2.605113E-07,-1.111317E-07,7.637812E-09,-2.861022E-08
679.2242,-0.8200131,-3.93605E-09,NaN,-0.6069571,-1.330871E-07,NaN,0.1116071,-3.429919E-07,NaN,-1.069051,1.963409E-05,-0.03811422,1.467047E-08,NaN,NaN,-0.5122657,1.722943E-10,-2.396497E-07,-1.111326E-07,1.0022E-08,-2.622604E-08
679.2388,-0.8200131,-3.93605E-09,NaN,-0.6069571,-1.330871E-07,NaN,0.1116071,-3.429919E-07,NaN,-1.069051,1.963409E-05,-0.03811422,1.467047E-08,NaN,NaN,-0.5122657,1.722943E-10,-2.396497E-07,-1.111326E-07,1.0022E-08,-2.622604E-08
679.2528,-0.8151106,-3.935298E-09,NaN,-0.606811,-1.330866E-07,NaN,0.1077909,-3.437351E-07,NaN,-1.068262,1.963454E-05,-0.03365638,1.50863E-08,NaN,NaN,-0.5120293,1.722943E-10,-2.146157E-07,-1.111335E-07,1.061804E-08,-2.861022E-08
679.2682,-0.810708,-3.934546E-09,NaN,-0.6066846,-1.330862E-07,NaN,0.1046774,-3.444783E-07,NaN,-1.067463,1.9635E-05,-0.03015871,1.549942E-08,NaN,NaN,-0.5118433,1.722943E-10,-2.068671E-07,-1.111344E-07,1.896269E-08,-2.622604E-08
679.283,-0.8066319,-3.933794E-09,NaN,-0.6065707,-1.330857E-07,NaN,0.1017071,-3.452215E-07,NaN,-1.06674,1.963546E-05,-0.02672491,1.590987E-08,NaN,NaN,-0.5116609,1.676377E-10,-1.949462E-07,-1.111353E-07,1.896269E-08,-2.861022E-08
679.2975,-0.8066319,-3.933794E-09,NaN,-0.6065707,-1.330857E-07,NaN,0.1017071,-3.452215E-07,NaN,-1.06674,1.963546E-05,-0.02672491,1.590987E-08,NaN,NaN,-0.5116609,1.676377E-10,-1.949462E-07,-1.111353E-07,1.896269E-08,-2.861022E-08
679.3112,-0.8027743,-3.933042E-09,NaN,-0.606465,-1.330852E-07,NaN,0.09881817,-3.459646E-07,NaN,-1.066081,1.963592E-05,-0.02335743,1.631764E-08,NaN,NaN,-0.511482,1.629811E-10,-1.776609E-07,-1.111362E-07,1.896269E-08,-2.622604E-08
679.3267,-0.7990684,-3.93229E-09,NaN,-0.6063648,-1.330848E-07,NaN,0.09598703,-3.467078E-07,NaN,-1.065469,1.963637E-05,-0.02005651,1.672277E-08,NaN,NaN,-0.5113066,1.676377E-10,-1.627597E-07,-1.11137E-07,1.359828E-08,-2.861022E-08
679.3412,-0.7958167,-3.931539E-09,NaN,-0.6062824,-1.330843E-07,NaN,0.09383047,-3.47451E-07,NaN,-1.064839,1.963683E-05,-0.01768882,1.712527E-08,NaN,NaN,-0.5111805,1.676377E-10,-1.579913E-07,-1.111379E-07,1.836665E-08,-2.622604E-08
679.3561,-0.7958167,-3.931539E-09,NaN,-0.6062824,-1.330843E-07,NaN,0.09383047,-3.47451E-07,NaN,-1.064839,1.963683E-05,-0.01768882,1.712527E-08,NaN,NaN,-0.5111805,1.676377E-10,-1.579913E-07,-1.111379E-07,1.836665E-08,-2.622604E-08
679.3702,-0.7928582,-3.930787E-09,NaN,-0.6062109,-1.330838E-07,NaN,0.09179553,-3.481941E-07,NaN,-1.064277,1.963728E-05,-0.01536322,1.752516E-08,NaN,NaN,-0.5110568,1.769509E-10,-1.53223E-07,-1.111387E-07,2.432711E-08,-2.861022E-08
679.3856,-0.7900929,-3.930035E-09,NaN,-0.6061466,-1.330833E-07,NaN,0.08982309,-3.489373E-07,NaN,-1.063774,1.963775E-05,-0.01308203,1.792245E-08,NaN,NaN,-0.5109355,1.722943E-10,-1.430902E-07,-1.111396E-07,1.836665E-08,-2.622604E-08
679.4002,-0.7874588,-3.929283E-09,NaN,-0.6060869,-1.330828E-07,NaN,0.08789063,-3.496805E-07,NaN,-1.063315,1.96382E-05,-0.01084564,1.831716E-08,NaN,NaN,-0.5108166,1.816075E-10,-1.347455E-07,-1.111404E-07,1.300223E-08,-2.861022E-08
679.4149,-0.7874588,-3.929283E-09,NaN,-0.6060869,-1.330828E-07,NaN,0.08789063,-3.496805E-07,NaN,-1.063315,1.96382E-05,-0.01084564,1.831716E-08,NaN,NaN,-0.5108166,1.816075E-10,-1.347455E-07,-1.111404E-07,1.300223E-08,-2.861022E-08
679.4287,-0.7852615,-3.928531E-09,NaN,-0.6060439,-1.330823E-07,NaN,0.08661525,-3.504236E-07,NaN,-1.062835,1.963866E-05,-0.009518397,1.870931E-08,NaN,NaN,-0.5107459,1.862641E-10,-1.401099E-07,-1.111412E-07,1.717456E-08,-2.622604E-08
679.4441,-0.7833419,-3.927779E-09,NaN,-0.6060114,-1.330818E-07,NaN,0.08544402,-3.511668E-07,NaN,-1.062423,1.963912E-05,-0.008213125,1.909891E-08,NaN,NaN,-0.5106764,1.862641E-10,-1.401099E-07,-1.111421E-07,1.836665E-08,-2.861022E-08
679.4586,-0.7833419,-3.927779E-09,NaN,-0.6060114,-1.330818E-07,NaN,0.08544402,-3.511668E-07,NaN,-1.062423,1.963912E-05,-0.008213125,1.909891E-08,NaN,NaN,-0.5106764,1.862641E-10,-1.401099E-07,-1.111421E-07,1.836665E-08,-2.861022E-08
679.4747,-0.7816014,-3.927027E-09,NaN,-0.6059852,-1.330812E-07,NaN,0.08431804,-3.5191E-07,NaN,-1.062069,1.963958E-05,-0.006932264,1.94863E-08,NaN,NaN,-0.5106083,1.722943E-10,-1.365336E-07,-1.111412E-07,1.836665E-08,-2.622604E-08
679.4893,-0.780323,-3.926274E-09,NaN,-0.6059767,-1.330801E-07,NaN,0.08383952,-3.526532E-07,NaN,-1.061706,1.964004E-05,-0.006540081,1.987117E-08,NaN,NaN,-0.5105874,1.583245E-10,-1.460704E-07,-1.1114E-07,1.77706E-08,-2.861022E-08
679.5027,-0.7793339,-3.925522E-09,NaN,-0.605978,-1.330788E-07,NaN,0.08344948,-3.533963E-07,NaN,-1.061422,1.964049E-05,-0.006151855,2.025355E-08,NaN,NaN,-0.5105668,1.490112E-10,-1.520309E-07,-1.111386E-07,1.836665E-08,-2.622604E-08
679.5175,-0.7793339,-3.925522E-09,NaN,-0.605978,-1.330788E-07,NaN,0.08344948,-3.533963E-07,NaN,-1.061422,1.964049E-05,-0.006151855,2.025355E-08,NaN,NaN,-0.5105668,1.490112E-10,-1.520309E-07,-1.111386E-07,1.836665E-08,-2.622604E-08
679.5315,-0.7785268,-3.924769E-09,NaN,-0.6059852,-1.330772E-07,NaN,0.08308749,-3.541395E-07,NaN,-1.061204,1.964093E-05,-0.005770268,2.063346E-08,NaN,NaN,-0.5105465,1.39698E-10,-1.532229E-07,-1.111371E-07,2.075083E-08,-2.861022E-08
679.5467,-0.777835,-3.924017E-09,NaN,-0.6059958,-1.330755E-07,NaN,0.08273132,-3.548827E-07,NaN,-1.061035,1.964137E-05,-0.005396198,2.10109E-08,NaN,NaN,-0.5105267,1.257282E-10,-1.53819E-07,-1.111355E-07,1.657851E-08,-2.622604E-08
679.5613,-0.7775614,-3.923264E-09,NaN,-0.6060221,-1.330738E-07,NaN,0.0829993,-3.556258E-07,NaN,-1.060848,1.96418E-05,-0.005892968,2.13859E-08,NaN,NaN,-0.5105531,1.164149E-10,-1.681241E-07,-1.111338E-07,2.194293E-08,-2.861022E-08
679.576,-0.7775614,-3.923264E-09,NaN,-0.6060221,-1.330738E-07,NaN,0.0829993,-3.556258E-07,NaN,-1.060848,1.96418E-05,-0.005892968,2.13859E-08,NaN,NaN,-0.5105531,1.164149E-10,-1.681241E-07,-1.111338E-07,2.194293E-08,-2.861022E-08
679.5899,-0.7775456,-3.922512E-09,NaN,-0.6060576,-1.330721E-07,NaN,0.08333818,-3.56369E-07,NaN,-1.060731,1.964223E-05,-0.006376867,2.175846E-08,NaN,NaN,-0.5105788,1.071017E-10,-1.758727E-07,-1.111322E-07,1.896269E-08,-2.622604E-08
679.6053,-0.777687,-3.92176E-09,NaN,-0.6060984,-1.330703E-07,NaN,0.08368988,-3.571122E-07,NaN,-1.060676,1.964266E-05,-0.006850646,2.212861E-08,NaN,NaN,-0.510604,1.024451E-10,-1.842174E-07,-1.111305E-07,1.479037E-08,-2.861022E-08
679.6204,-0.7779242,-3.921008E-09,NaN,-0.606142,-1.330685E-07,NaN,0.08403349,-3.578554E-07,NaN,-1.060666,1.964309E-05,-0.007315379,2.249635E-08,NaN,NaN,-0.5106288,9.778847E-11,-1.895818E-07,-1.111288E-07,1.121409E-08,-2.622604E-08
679.6349,-0.7779242,-3.921008E-09,NaN,-0.606142,-1.330685E-07,NaN,0.08403349,-3.578554E-07,NaN,-1.060666,1.964309E-05,-0.007315379,2.249635E-08,NaN,NaN,-0.5106288,9.778847E-11,-1.895818E-07,-1.111288E-07,1.121409E-08,-2.622604E-08
679.6493,-0.7785634,-3.920257E-09,NaN,-0.6062009,-1.330667E-07,NaN,0.08498818,-3.585985E-07,NaN,-1.060636,1.964352E-05,-0.008635183,2.286171E-08,NaN,NaN,-0.5106989,8.847525E-11,-2.092513E-07,-1.111272E-07,1.121409E-08,-2.861022E-08
679.6643,-0.7794462,-3.919505E-09,NaN,-0.6062683,-1.330649E-07,NaN,0.08599982,-3.593417E-07,NaN,-1.060675,1.964396E-05,-0.009926459,2.32247E-08,NaN,NaN,-0.5107675,7.916202E-11,-2.211722E-07,-1.111255E-07,1.300223E-08,-2.622604E-08
679.6791,-0.7794462,-3.919505E-09,NaN,-0.6062683,-1.330649E-07,NaN,0.08599982,-3.593417E-07,NaN,-1.060675,1.964396E-05,-0.009926459,2.32247E-08,NaN,NaN,-0.5107675,7.916202E-11,-2.211722E-07,-1.111255E-07,1.300223E-08,-2.622604E-08
679.6933,-0.7804744,-3.918754E-09,NaN,-0.6063402,-1.330632E-07,NaN,0.08701105,-3.600849E-07,NaN,-1.060773,1.964439E-05,-0.01119215,2.358533E-08,NaN,NaN,-0.5108348,7.450541E-11,-2.330932E-07,-1.111238E-07,1.479037E-08,-2.861022E-08
679.7087,-0.7819313,-3.918002E-09,NaN,-0.6064281,-1.330614E-07,NaN,0.08862643,-3.60828E-07,NaN,-1.060863,1.964482E-05,-0.01329839,2.394362E-08,NaN,NaN,-0.5109466,6.519218E-11,-2.545509E-07,-1.111221E-07,1.657851E-08,-2.622604E-08
679.7229,-0.7836444,-3.917251E-09,NaN,-0.6065246,-1.330596E-07,NaN,0.09028526,-3.615712E-07,NaN,-1.061033,1.964525E-05,-0.01536123,2.429959E-08,NaN,NaN,-0.5110561,6.053557E-11,-2.718362E-07,-1.111204E-07,1.836665E-08,-2.861022E-08
679.7388,-0.7836444,-3.917251E-09,NaN,-0.6065246,-1.330596E-07,NaN,0.09028526,-3.615712E-07,NaN,-1.061033,1.964525E-05,-0.01536123,2.429959E-08,NaN,NaN,-0.5110561,6.053557E-11,-2.718362E-07,-1.111204E-07,1.836665E-08,-2.861022E-08
679.7527,-0.7855067,-3.9165E-09,NaN,-0.6066254,-1.330578E-07,NaN,0.09192878,-3.623144E-07,NaN,-1.06127,1.964568E-05,-0.01738392,2.465324E-08,NaN,NaN,-0.5111634,5.122235E-11,-2.873334E-07,-1.111188E-07,1.717456E-08,-2.622604E-08
679.7674,-0.7874521,-3.91575E-09,NaN,-0.6067281,-1.33056E-07,NaN,0.09353617,-3.630576E-07,NaN,-1.061556,1.96461E-05,-0.01936808,2.50046E-08,NaN,NaN,-0.5112686,5.587896E-11,-3.010425E-07,-1.111171E-07,1.717456E-08,-2.861022E-08
679.7821,-0.7897838,-3.914999E-09,NaN,-0.606845,-1.330542E-07,NaN,0.09572832,-3.638007E-07,NaN,-1.061825,1.964653E-05,-0.02218174,2.535368E-08,NaN,NaN,-0.5114176,4.656573E-11,-3.260764E-07,-1.111154E-07,1.77706E-08,-2.622604E-08
679.7963,-0.7897838,-3.914999E-09,NaN,-0.606845,-1.330542E-07,NaN,0.09572832,-3.638007E-07,NaN,-1.061825,1.964653E-05,-0.02218174,2.535368E-08,NaN,NaN,-0.5114176,4.656573E-11,-3.260764E-07,-1.111154E-07,1.77706E-08,-2.622604E-08
679.8105,-0.7923418,-3.914248E-09,NaN,-0.6069692,-1.33052E-07,NaN,0.09794956,-3.645439E-07,NaN,-1.062164,1.964696E-05,-0.0249386,2.570049E-08,NaN,NaN,-0.5115636,4.190912E-11,-3.469381E-07,-1.111147E-07,1.419432E-08,-2.861022E-08
679.8259,-0.7950266,-3.913498E-09,NaN,-0.6070968,-1.330498E-07,NaN,0.1001439,-3.652871E-07,NaN,-1.062565,1.964739E-05,-0.02764211,2.604506E-08,NaN,NaN,-0.5117067,3.725251E-11,-3.642234E-07,-1.11114E-07,5.849672E-09,-2.622604E-08
679.8406,-0.797777,-3.912748E-09,NaN,-0.6072255,-1.330477E-07,NaN,0.1022916,-3.660302E-07,NaN,-1.063011,1.964782E-05,-0.03029415,2.638739E-08,NaN,NaN,-0.511847,3.259589E-11,-3.815088E-07,-1.111134E-07,2.86944E-09,-2.861022E-08
679.8553,-0.797777,-3.912748E-09,NaN,-0.6072255,-1.330477E-07,NaN,0.1022916,-3.660302E-07,NaN,-1.063011,1.964782E-05,-0.03029415,2.638739E-08,NaN,NaN,-0.511847,3.259589E-11,-3.815088E-07,-1.111134E-07,2.86944E-09,-2.861022E-08
679.8694,-0.8008995,-3.911998E-09,NaN,-0.6073678,-1.330456E-07,NaN,0.1050143,-3.667734E-07,NaN,-1.063437,1.964825E-05,-0.03376611,2.672749E-08,NaN,NaN,-0.5120304,2.793928E-11,-4.136953E-07,-1.111128E-07,2.86944E-09,-2.622604E-08
679.8851,-0.8042358,-3.911249E-09,NaN,-0.6075167,-1.330435E-07,NaN,0.1077551,-3.675166E-07,NaN,-1.063932,1.964868E-05,-0.03716864,2.706539E-08,NaN,NaN,-0.5122101,1.862606E-11,-4.399213E-07,-1.111122E-07,2.86944E-09,-2.861022E-08
679.8995,-0.8042358,-3.911249E-09,NaN,-0.6075167,-1.330435E-07,NaN,0.1077551,-3.675166E-07,NaN,-1.063932,1.964868E-05,-0.03716864,2.706539E-08,NaN,NaN,-0.5122101,1.862606E-11,-4.399213E-07,-1.111122E-07,2.86944E-09,-2.861022E-08
679.9136,-0.8076878,-3.910499E-09,NaN,-0.6076685,-1.330415E-07,NaN,0.1104583,-3.682597E-07,NaN,-1.064486,1.964911E-05,-0.04050553,2.74011E-08,NaN,NaN,-0.5123863,9.312832E-12,-4.607829E-07,-1.111116E-07,1.677347E-09,-2.622604E-08
679.929,-0.8115394,-3.909749E-09,NaN,-0.6078346,-1.330394E-07,NaN,0.1137315,-3.690029E-07,NaN,-1.065034,1.964954E-05,-0.04465198,2.773462E-08,NaN,NaN,-0.5126048,4.656219E-12,-4.929694E-07,-1.11111E-07,6.445719E-09,-2.861022E-08
679.9436,-0.8156184,-3.908999E-09,NaN,-0.6080076,-1.330388E-07,NaN,0.1170111,-3.69331E-07,NaN,-1.06566,1.964997E-05,-0.04871611,2.773527E-08,NaN,NaN,-0.512819,-4.657007E-12,-5.239639E-07,-1.111109E-07,4.061533E-09,-2.622604E-08
679.9597,-0.8156184,-3.908999E-09,NaN,-0.6080076,-1.330388E-07,NaN,0.1170111,-3.69331E-07,NaN,-1.06566,1.964997E-05,-0.04871611,2.773527E-08,NaN,NaN,-0.512819,-4.657007E-12,-5.239639E-07,-1.111109E-07,4.061533E-09,-2.622604E-08
679.9721,-0.819818,-3.908249E-09,NaN,-0.6081832,-1.330389E-07,NaN,0.1202402,-3.693929E-07,NaN,-1.066353,1.96504E-05,-0.05270213,2.753558E-08,NaN,NaN,-0.5130289,-3.937822E-16,-5.495939E-07,-1.111112E-07,5.253626E-09,-2.861022E-08
679.9877,-0.8240724,-3.907498E-09,NaN,-0.6083592,-1.330395E-07,NaN,0.1233994,-3.692876E-07,NaN,-1.067094,1.965084E-05,-0.05661257,2.722127E-08,NaN,NaN,-0.5132347,-4.657007E-12,-5.728397E-07,-1.111118E-07,4.65758E-09,-2.622604E-08
680.0034,-0.8286855,-3.906748E-09,NaN,-0.6085481,-1.330403E-07,NaN,0.1271126,-3.690729E-07,NaN,-1.067819,1.965128E-05,-0.06132688,2.683973E-08,NaN,NaN,-0.5134824,-3.937822E-16,-6.056223E-07,-1.111126E-07,-2.494978E-09,-2.861022E-08
680.0181,-0.8286855,-3.906748E-09,NaN,-0.6085481,-1.330403E-07,NaN,0.1271126,-3.690729E-07,NaN,-1.067819,1.965128E-05,-0.06132688,2.683973E-08,NaN,NaN,-0.5134824,-3.937822E-16,-6.056223E-07,-1.111126E-07,-2.494978E-09,-2.861022E-08
680.032,-0.8334973,-3.905998E-09,NaN,-0.6087428,-1.330413E-07,NaN,0.1308206,-3.687926E-07,NaN,-1.068615,1.965173E-05,-0.06594792,2.642612E-08,NaN,NaN,-0.5137251,-4.657007E-12,-6.384049E-07,-1.111134E-07,-9.647534E-09,-2.622604E-08
680.0465,-0.8384088,-3.905248E-09,NaN,-0.6089395,-1.330423E-07,NaN,0.1344692,-3.68468E-07,NaN,-1.069471,1.965217E-05,-0.07048019,2.599519E-08,NaN,NaN,-0.513963,-3.937822E-16,-6.670151E-07,-1.111143E-07,-1.143567E-08,-2.861022E-08
680.0609,-0.8433591,-3.904498E-09,NaN,-0.6091359,-1.330434E-07,NaN,0.1380401,-3.681189E-07,NaN,-1.07037,1.965263E-05,-0.07492653,2.556138E-08,NaN,NaN,-0.5141962,-9.313619E-12,-6.944332E-07,-1.111152E-07,-9.647534E-09,-2.622604E-08
680.0756,-0.8433591,-3.904498E-09,NaN,-0.6091359,-1.330434E-07,NaN,0.1380401,-3.681189E-07,NaN,-1.07037,1.965263E-05,-0.07492653,2.556138E-08,NaN,NaN,-0.5141962,-9.313619E-12,-6.944332E-07,-1.111152E-07,-9.647534E-09,-2.622604E-08
680.0896,-0.8486551,-3.903748E-09,NaN,-0.6093449,-1.330435E-07,NaN,0.1421579,-3.671232E-07,NaN,-1.071252,1.965309E-05,-0.08017183,2.45475E-08,NaN,NaN,-0.5144708,-9.313619E-12,-7.361564E-07,-1.111163E-07,-6.667302E-09,-2.861022E-08
680.1052,-0.8541388,-3.903E-09,NaN,-0.6095592,-1.330433E-07,NaN,0.1462618,-3.661274E-07,NaN,-1.072202,1.965353E-05,-0.08531332,2.358403E-08,NaN,NaN,-0.5147398,-4.657007E-12,-7.665548E-07,-1.111172E-07,-1.143567E-08,-2.622604E-08
680.1198,-0.8541388,-3.903E-09,NaN,-0.6095592,-1.330433E-07,NaN,0.1462618,-3.661274E-07,NaN,-1.072202,1.965353E-05,-0.08531332,2.358403E-08,NaN,NaN,-0.5147398,-4.657007E-12,-7.665548E-07,-1.111172E-07,-1.143567E-08,-2.622604E-08
680.1338,-0.8597123,-3.902251E-09,NaN,-0.6097751,-1.330429E-07,NaN,0.1502982,-3.651317E-07,NaN,-1.07321,1.965397E-05,-0.09035595,2.265898E-08,NaN,NaN,-0.5150036,-4.657007E-12,-8.005294E-07,-1.11118E-07,-8.455442E-09,-2.861022E-08
680.1495,-0.8656603,-3.901502E-09,NaN,-0.6100042,-1.330424E-07,NaN,0.1548778,-3.641359E-07,NaN,-1.074212,1.965441E-05,-0.09619004,2.176358E-08,NaN,NaN,-0.515308,-3.937822E-16,-8.434448E-07,-1.111187E-07,-6.667302E-09,-2.622604E-08
680.1639,-0.8718103,-3.900753E-09,NaN,-0.6102389,-1.330418E-07,NaN,0.1594333,-3.631401E-07,NaN,-1.075293,1.965486E-05,-0.1019086,2.089135E-08,NaN,NaN,-0.5156064,-4.657007E-12,-8.833799E-07,-1.111194E-07,-4.283117E-09,-2.861022E-08
680.1788,-0.8718103,-3.900753E-09,NaN,-0.6102389,-1.330418E-07,NaN,0.1594333,-3.631401E-07,NaN,-1.075293,1.965486E-05,-0.1019086,2.089135E-08,NaN,NaN,-0.5156064,-4.657007E-12,-8.833799E-07,-1.111194E-07,-4.283117E-09,-2.861022E-08
680.1927,-0.878056,-3.900005E-09,NaN,-0.6104749,-1.330411E-07,NaN,0.16391,-3.621444E-07,NaN,-1.076439,1.965529E-05,-0.1075173,2.003752E-08,NaN,NaN,-0.5158989,4.656219E-12,-9.191427E-07,-1.1112E-07,-7.068379E-10,-2.622604E-08
680.2081,-0.8843319,-3.899257E-09,NaN,-0.6107101,-1.330404E-07,NaN,0.16829,-3.611486E-07,NaN,-1.077632,1.965573E-05,-0.1130196,1.91986E-08,NaN,NaN,-0.5161856,4.656219E-12,-9.537134E-07,-1.111206E-07,4.061533E-09,-2.861022E-08
680.2229,-0.8909425,-3.898509E-09,NaN,-0.6109574,-1.330397E-07,NaN,0.1731998,-3.601529E-07,NaN,-1.078811,1.965616E-05,-0.1193117,1.837201E-08,NaN,NaN,-0.5165127,1.396944E-11,-1.001397E-06,-1.111212E-07,-7.068381E-10,-2.622604E-08
680.2375,-0.8909425,-3.898509E-09,NaN,-0.6109574,-1.330397E-07,NaN,0.1731998,-3.601529E-07,NaN,-1.078811,1.965616E-05,-0.1193117,1.837201E-08,NaN,NaN,-0.5165127,1.396944E-11,-1.001397E-06,-1.111212E-07,-7.068381E-10,-2.622604E-08
680.2515,-0.8977277,-3.89776E-09,NaN,-0.6112093,-1.33039E-07,NaN,0.1780763,-3.591571E-07,NaN,-1.08006,1.96566E-05,-0.1254792,1.755583E-08,NaN,NaN,-0.5168332,1.396944E-11,-1.042524E-06,-1.111218E-07,4.65758E-09,-2.861022E-08
680.2679,-0.904589,-3.897012E-09,NaN,-0.6114621,-1.330383E-07,NaN,0.1828675,-3.581614E-07,NaN,-1.081368,1.965703E-05,-0.131528,1.674865E-08,NaN,NaN,-0.5171474,1.396944E-11,-1.081267E-06,-1.111223E-07,-3.091024E-09,-2.622604E-08
680.2827,-0.9114655,-3.896265E-09,NaN,-0.6117138,-1.330377E-07,NaN,0.1875562,-3.571656E-07,NaN,-1.082718,1.965746E-05,-0.137462,1.594945E-08,NaN,NaN,-0.5174554,1.396944E-11,-1.119414E-06,-1.111229E-07,-4.879163E-09,-2.861022E-08
680.2963,-0.9114655,-3.896265E-09,NaN,-0.6117138,-1.330377E-07,NaN,0.1875562,-3.571656E-07,NaN,-1.082718,1.965746E-05,-0.137462,1.594945E-08,NaN,NaN,-0.5174554,1.396944E-11,-1.119414E-06,-1.111229E-07,-4.879163E-09,-2.861022E-08
680.3103,-0.9186651,-3.895517E-09,NaN,-0.6119772,-1.33037E-07,NaN,0.1927698,-3.561699E-07,NaN,-1.084053,1.96579E-05,-0.1441844,1.515743E-08,NaN,NaN,-0.5178033,1.862606E-11,-1.167098E-06,-1.111235E-07,-6.071256E-09,-2.622604E-08
680.3256,-0.9260294,-3.894769E-09,NaN,-0.612245,-1.330363E-07,NaN,0.1979436,-3.551741E-07,NaN,-1.085456,1.965834E-05,-0.1507731,1.437202E-08,NaN,NaN,-0.5181443,1.396944E-11,-1.208225E-06,-1.111241E-07,-4.879164E-09,-2.861022E-08
680.3401,-0.933461,-3.894022E-09,NaN,-0.6125134,-1.330356E-07,NaN,0.2030257,-3.541784E-07,NaN,-1.086915,1.965877E-05,-0.1572346,1.359279E-08,NaN,NaN,-0.5184786,1.862606E-11,-1.250544E-06,-1.111247E-07,-8.455443E-09,-2.622604E-08
680.3547,-0.933461,-3.894022E-09,NaN,-0.6125134,-1.330356E-07,NaN,0.2030257,-3.541784E-07,NaN,-1.086915,1.965877E-05,-0.1572346,1.359279E-08,NaN,NaN,-0.5184786,1.862606E-11,-1.250544E-06,-1.111247E-07,-8.455443E-09,-2.622604E-08
680.369,-0.941245,-3.893274E-09,NaN,-0.6127942,-1.33035E-07,NaN,0.2086302,-3.531826E-07,NaN,-1.088372,1.965921E-05,-0.1644788,1.281941E-08,NaN,NaN,-0.5188522,1.396944E-11,-1.305381E-06,-1.111253E-07,-1.441591E-08,-2.861022E-08
680.3842,-0.9492091,-3.892527E-09,NaN,-0.6130794,-1.330343E-07,NaN,0.2141859,-3.521868E-07,NaN,-1.089906,1.965965E-05,-0.1715783,1.205163E-08,NaN,NaN,-0.5192184,1.862606E-11,-1.353064E-06,-1.111259E-07,-1.203172E-08,-2.622604E-08
680.399,-0.9492091,-3.892527E-09,NaN,-0.6130794,-1.330343E-07,NaN,0.2141859,-3.521868E-07,NaN,-1.089906,1.965965E-05,-0.1715783,1.205163E-08,NaN,NaN,-0.5192184,1.862606E-11,-1.353064E-06,-1.111259E-07,-1.203172E-08,-2.622604E-08
680.4128,-0.9572471,-3.891779E-09,NaN,-0.6133652,-1.330337E-07,NaN,0.2196401,-3.511911E-07,NaN,-1.091504,1.966009E-05,-0.1785403,1.128927E-08,NaN,NaN,-0.5195774,1.396944E-11,-1.398364E-06,-1.111265E-07,-1.083963E-08,-2.861022E-08
680.4302,-0.9652936,-3.891032E-09,NaN,-0.6136494,-1.330331E-07,NaN,0.2249763,-3.501953E-07,NaN,-1.093148,1.966052E-05,-0.1853698,1.053217E-08,NaN,NaN,-0.5199294,1.862606E-11,-1.441279E-06,-1.111272E-07,-7.26335E-09,-2.622604E-08
680.4428,-0.973654,-3.890285E-09,NaN,-0.6139449,-1.330325E-07,NaN,0.2308236,-3.491996E-07,NaN,-1.094782,1.966096E-05,-0.1929836,9.780214E-09,NaN,NaN,-0.5203204,1.396944E-11,-1.494327E-06,-1.111278E-07,-1.302886E-09,-2.861022E-08
680.4575,-0.973654,-3.890285E-09,NaN,-0.6139449,-1.330325E-07,NaN,0.2308236,-3.491996E-07,NaN,-1.094782,1.966096E-05,-0.1929836,9.780214E-09,NaN,NaN,-0.5203204,1.396944E-11,-1.494327E-06,-1.111278E-07,-1.302886E-09,-2.861022E-08
680.4715,-0.9821681,-3.889538E-09,NaN,-0.6142442,-1.330319E-07,NaN,0.236615,-3.482038E-07,NaN,-1.096484,1.96614E-05,-0.200445,9.03331E-09,NaN,NaN,-0.5207037,1.862606E-11,-1.543799E-06,-1.111284E-07,-1.302886E-09,-2.622604E-08
680.4869,-0.9907376,-3.888791E-09,NaN,-0.6145436,-1.330313E-07,NaN,0.2423003,-3.472081E-07,NaN,-1.098244,1.966184E-05,-0.2077615,8.29138E-09,NaN,NaN,-0.5210794,1.396944E-11,-1.589099E-06,-1.11129E-07,-1.302886E-09,-2.861022E-08
680.5016,-0.9993016,-3.888044E-09,NaN,-0.6148412,-1.330308E-07,NaN,0.2478638,-3.462123E-07,NaN,-1.100046,1.966227E-05,-0.2149383,7.554358E-09,NaN,NaN,-0.5214477,2.328267E-11,-1.633206E-06,-1.111297E-07,-3.687072E-09,-2.622604E-08
680.5165,-0.9993016,-3.888044E-09,NaN,-0.6148412,-1.330308E-07,NaN,0.2478638,-3.462123E-07,NaN,-1.100046,1.966227E-05,-0.2149383,7.554358E-09,NaN,NaN,-0.5214477,2.328267E-11,-1.633206E-06,-1.111297E-07,-3.687072E-09,-2.622604E-08
680.5323,-1.008169,-3.887298E-09,NaN,-0.6151499,-1.330302E-07,NaN,0.2539351,-3.452166E-07,NaN,-1.101837,1.966271E-05,-0.2229009,6.822188E-09,NaN,NaN,-0.5218548,2.328267E-11,-1.690427E-06,-1.111303E-07,-3.687072E-09,-2.861022E-08
680.5466,-1.017181,-3.886551E-09,NaN,-0.6154622,-1.330297E-07,NaN,0.2599455,-3.442208E-07,NaN,-1.103694,1.966314E-05,-0.2307028,6.09482E-09,NaN,NaN,-0.5222539,3.25959E-11,-1.742879E-06,-1.11131E-07,-1.302886E-09,-2.622604E-08
680.5611,-1.026241,-3.885805E-09,NaN,-0.6157745,-1.330291E-07,NaN,0.2658454,-3.432251E-07,NaN,-1.105608,1.966357E-05,-0.2383525,5.372211E-09,NaN,NaN,-0.5226451,3.25959E-11,-1.791754E-06,-1.111317E-07,-1.322381E-08,-2.861022E-08
680.5747,-1.026241,-3.885805E-09,NaN,-0.6157745,-1.330291E-07,NaN,0.2658454,-3.432251E-07,NaN,-1.105608,1.966357E-05,-0.2383525,5.372211E-09,NaN,NaN,-0.5226451,3.25959E-11,-1.791754E-06,-1.111317E-07,-1.322381E-08,-2.861022E-08
680.5887,-1.035634,-3.885058E-09,NaN,-0.6160985,-1.330286E-07,NaN,0.2722512,-3.422293E-07,NaN,-1.107523,1.966401E-05,-0.2467834,4.65432E-09,NaN,NaN,-0.5230746,3.25959E-11,-1.853743E-06,-1.111324E-07,-1.5608E-08,-2.622604E-08
680.6039,-1.045187,-3.884312E-09,NaN,-0.6164262,-1.330281E-07,NaN,0.2785883,-3.412335E-07,NaN,-1.109516,1.966445E-05,-0.255043,3.941109E-09,NaN,NaN,-0.5234956,3.25959E-11,-1.91156E-06,-1.11133E-07,-1.441591E-08,-2.861022E-08
680.6186,-1.045187,-3.884312E-09,NaN,-0.6164262,-1.330281E-07,NaN,0.2785883,-3.412335E-07,NaN,-1.109516,1.966445E-05,-0.255043,3.941109E-09,NaN,NaN,-0.5234956,3.25959E-11,-1.91156E-06,-1.11133E-07,-1.441591E-08,-2.861022E-08
680.6329,-1.054796,-3.883566E-09,NaN,-0.6167536,-1.330276E-07,NaN,0.2848063,-3.402378E-07,NaN,-1.11157,1.966489E-05,-0.2631405,3.232543E-09,NaN,NaN,-0.5239083,3.25959E-11,-1.9658E-06,-1.111337E-07,-1.5608E-08,-2.622604E-08
