JMolnar6/NonAnthroHands_User_Study/HandsLoggerWithURDF/tempdata/PID 0 (test)/files/Reachy_PID0_JointMotion_gesture_12_3.csv
Time,r_shoulder,r_shoulder_x,r_upper_arm,r_forearm,r_wrist,r_wrist2hand,
1088.601,-0.3273994,-0.3577036,0.1797225,-0.5316135,0.06966909,0.1528443
1088.616,-0.3273994,-0.3577036,0.1797225,-0.5316135,0.06966909,0.1528443
1088.63,-0.3273284,-0.3576492,0.1797593,-0.5315834,0.06962489,0.1528448
1088.644,-0.3272581,-0.3575955,0.1797956,-0.5315536,0.06958111,0.1528454
1088.659,-0.3272581,-0.3575955,0.1797956,-0.5315536,0.06958111,0.1528454
1088.673,-0.3271887,-0.3575424,0.1798315,-0.5315241,0.06953774,0.152846
1088.688,-0.32712,-0.3574899,0.1798669,-0.531495,0.0694948,0.1528465
1088.703,-0.3270522,-0.3574381,0.1799019,-0.5314663,0.06945226,0.1528471
1088.718,-0.3270522,-0.3574381,0.1799019,-0.5314663,0.06945226,0.1528471
1088.732,-0.3269852,-0.3573869,0.1799365,-0.5314379,0.06941013,0.1528476
1088.747,-0.3269189,-0.3573363,0.1799706,-0.5314098,0.06936841,0.1528481
1088.762,-0.3268534,-0.3572862,0.1800043,-0.531382,0.06932709,0.1528486
1088.777,-0.3268534,-0.3572862,0.1800043,-0.531382,0.06932709,0.1528486
1088.791,-0.3267886,-0.3572368,0.1800376,-0.5313546,0.06928618,0.1528491
1088.806,-0.3267246,-0.357188,0.1800704,-0.5313275,0.06924565,0.1528496
1088.821,-0.3266613,-0.3571398,0.1801029,-0.5313007,0.06920552,0.15285
1088.836,-0.3266613,-0.3571398,0.1801029,-0.5313007,0.06920552,0.15285
1088.85,-0.3265988,-0.3570921,0.1801349,-0.5312743,0.06916579,0.1528505
1088.867,-0.326537,-0.3570451,0.1801665,-0.5312481,0.06912644,0.152851
1088.881,-0.3264759,-0.3569985,0.1801977,-0.5312222,0.06908748,0.1528514
1088.894,-0.3264759,-0.3569985,0.1801977,-0.5312222,0.06908748,0.1528514
1088.909,-0.3264155,-0.3569526,0.1802286,-0.5311967,0.06904889,0.1528518
1088.924,-0.3263558,-0.3569072,0.180259,-0.5311714,0.06901068,0.1528523
1088.938,-0.3263558,-0.3569072,0.180259,-0.5311714,0.06901068,0.1528523
1088.952,-0.3262968,-0.3568623,0.1802891,-0.5311464,0.06897285,0.1528527
1088.968,-0.3262385,-0.356818,0.1803187,-0.5311217,0.06893539,0.1528531
1088.982,-0.3261809,-0.3567742,0.180348,-0.5310974,0.0688983,0.1528535
1088.997,-0.3261809,-0.3567742,0.180348,-0.5310974,0.0688983,0.1528535
1089.011,-0.3261239,-0.3567309,0.1803769,-0.5310733,0.06886157,0.1528539
1089.027,-0.3260676,-0.3566881,0.1804055,-0.5310494,0.06882521,0.1528543
1089.042,-0.326012,-0.3566459,0.1804337,-0.5310259,0.06878921,0.1528547
1089.056,-0.326012,-0.3566459,0.1804337,-0.5310259,0.06878921,0.1528547
1089.07,-0.325957,-0.3566041,0.1804615,-0.5310026,0.06875356,0.1528551
1089.086,-0.3259026,-0.3565629,0.1804889,-0.5309796,0.06871827,0.1528554
1089.101,-0.3258489,-0.3565221,0.180516,-0.5309569,0.06868333,0.1528558
1089.115,-0.3258489,-0.3565221,0.180516,-0.5309569,0.06868333,0.1528558
1089.132,-0.3257958,-0.3564819,0.1805428,-0.5309345,0.06864873,0.1528561
1089.145,-0.3257433,-0.3564421,0.1805692,-0.5309123,0.06861448,0.1528565
1089.16,-0.3257433,-0.3564421,0.1805692,-0.5309123,0.06861448,0.1528565
1089.173,-0.3256914,-0.3564028,0.1805952,-0.5308903,0.06858058,0.1528568
1089.189,-0.3256401,-0.3563639,0.180621,-0.5308686,0.06854701,0.1528571
1089.205,-0.3255894,-0.3563256,0.1806464,-0.5308472,0.06851378,0.1528575
1089.218,-0.3255894,-0.3563256,0.1806464,-0.5308472,0.06851378,0.1528575
1089.232,-0.3255393,-0.3562877,0.1806714,-0.530826,0.06848089,0.1528578
1089.248,-0.3254897,-0.3562502,0.1806961,-0.5308051,0.06844832,0.1528581
1089.262,-0.3254408,-0.3562132,0.1807205,-0.5307844,0.06841608,0.1528584
1089.277,-0.3254408,-0.3562132,0.1807205,-0.5307844,0.06841608,0.1528584
1089.291,-0.3253924,-0.3561766,0.1807446,-0.530764,0.06838417,0.1528587
1089.307,-0.3253445,-0.3561405,0.1807684,-0.5307438,0.06835258,0.152859
1089.322,-0.3252973,-0.3561048,0.1807918,-0.5307238,0.06832131,0.1528593
1089.336,-0.3252973,-0.3561048,0.1807918,-0.5307238,0.06832131,0.1528593
1089.351,-0.3252505,-0.3560695,0.180815,-0.5307041,0.06829036,0.1528596
1089.366,-0.3252043,-0.3560347,0.1808378,-0.5306846,0.06825972,0.1528598
1089.381,-0.3251587,-0.3560003,0.1808603,-0.5306653,0.06822939,0.1528601
1089.396,-0.3251587,-0.3560003,0.1808603,-0.5306653,0.06822939,0.1528601
1089.41,-0.3251136,-0.3559663,0.1808826,-0.5306462,0.06819937,0.1528604
1089.424,-0.325069,-0.3559327,0.1809045,-0.5306274,0.06816965,0.1528606
1089.439,-0.325069,-0.3559327,0.1809045,-0.5306274,0.06816965,0.1528606
1089.453,-0.3250249,-0.3558995,0.1809262,-0.5306088,0.06814024,0.1528609
1089.469,-0.3249813,-0.3558666,0.1809475,-0.5305904,0.06811113,0.1528611
1089.483,-0.3249382,-0.3558342,0.1809686,-0.5305722,0.06808231,0.1528614
1089.498,-0.3249382,-0.3558342,0.1809686,-0.5305722,0.06808231,0.1528614
1089.512,-0.3248957,-0.3558022,0.1809894,-0.5305542,0.06805379,0.1528616
1089.528,-0.3248536,-0.3557705,0.1810099,-0.5305364,0.06802557,0.1528618
1089.542,-0.324812,-0.3557393,0.1810301,-0.5305188,0.06799763,0.1528621
1089.557,-0.324812,-0.3557393,0.1810301,-0.5305188,0.06799763,0.1528621
1089.571,-0.3247708,-0.3557084,0.1810501,-0.5305015,0.06796998,0.1528623
1089.587,-0.3247302,-0.3556778,0.1810698,-0.5304843,0.06794261,0.1528625
1089.602,-0.3244832,-0.3554485,0.1805282,-0.5302107,0.06859101,0.1525812
1089.616,-0.3244832,-0.3554485,0.1805282,-0.5302107,0.06859101,0.1525812
1089.632,-0.324108,-0.3550976,0.1798601,-0.5299208,0.06948276,0.1523056
1089.646,-0.323654,-0.3546736,0.1792229,-0.5296135,0.07042792,0.1520354
1089.66,-0.3231527,-0.3542066,0.1786554,-0.5292929,0.07135881,0.1517705
1089.675,-0.3231527,-0.3542066,0.1786554,-0.5292929,0.07135881,0.1517705
1089.689,-0.3228307,-0.3539144,0.1787178,-0.5292202,0.07157984,0.1517923
1089.704,-0.3226222,-0.3537311,0.1789607,-0.52916,0.07152341,0.1518135
1089.719,-0.3226222,-0.3537311,0.1789607,-0.52916,0.07152341,0.1518135
1089.733,-0.3224857,-0.3536156,0.1792135,-0.5291164,0.07138275,0.1518342
1089.749,-0.3226002,-0.3537402,0.179988,-0.5293444,0.07055534,0.1521361
1089.763,-0.3228717,-0.3540122,0.1808436,-0.5296004,0.06949669,0.1524318
1089.778,-0.3228717,-0.3540122,0.1808436,-0.5296004,0.06949669,0.1524318
1089.792,-0.3232405,-0.3543738,0.1816315,-0.5298818,0.06840036,0.1527218
1089.808,-0.3236688,-0.3547889,0.1823228,-0.5301818,0.06733199,0.1530061
1089.823,-0.3243392,-0.3554341,0.1834892,-0.5307506,0.06563207,0.1535663
1089.837,-0.3243392,-0.3554341,0.1834892,-0.5307506,0.06563207,0.1535663
1089.852,-0.3251582,-0.3562178,0.1847123,-0.5313429,0.06373388,0.1541155
1089.867,-0.3260666,-0.3570827,0.1858519,-0.5319557,0.06182109,0.1546539
1089.883,-0.3270271,-0.3579935,0.186883,-0.5325819,0.0599548,0.1551817
1089.897,-0.3270271,-0.3579935,0.186883,-0.5325819,0.0599548,0.1551817
1089.911,-0.3282229,-0.3591275,0.1883751,-0.5334722,0.0574753,0.1559807
1089.925,-0.3295605,-0.3603928,0.1899122,-0.5343811,0.05481338,0.156764
1089.94,-0.3309808,-0.3617325,0.1913541,-0.5353054,0.05215244,0.1575319
1089.955,-0.3309808,-0.3617325,0.1913541,-0.5353054,0.05215244,0.1575319
1089.969,-0.3326537,-0.3633108,0.1932306,-0.5364962,0.04888149,0.1585663
1089.984,-0.3344766,-0.3650272,0.1951206,-0.5377059,0.04544515,0.1595804
1089.999,-0.3344766,-0.3650272,0.1951206,-0.5377059,0.04544515,0.1595804
1090.013,-0.3363851,-0.3668199,0.1968863,-0.5389301,0.04203085,0.1605746
1090.028,-0.3383388,-0.3686507,0.1985079,-0.5401605,0.0386987,0.1615493
1090.043,-0.3405199,-0.3706957,0.2005505,-0.5416484,0.03479273,0.1627865
1090.058,-0.3405199,-0.3706957,0.2005505,-0.5416484,0.03479273,0.1627865
1090.072,-0.3428327,-0.3728612,0.2026088,-0.5431467,0.03073551,0.1639994
1090.088,-0.3452174,-0.3750899,0.204545,-0.5446517,0.02670977,0.1651885
1090.102,-0.3476367,-0.3773468,0.2063368,-0.5461563,0.02277484,0.1663544
1090.117,-0.3476367,-0.3773468,0.2063368,-0.5461563,0.02277484,0.1663544
1090.131,-0.3502754,-0.3798097,0.2085397,-0.5479136,0.01827975,0.1677789
1090.147,-0.3530385,-0.3823859,0.2107531,-0.5496759,0.01364217,0.1691756
1090.162,-0.3558668,-0.3850187,0.2128373,-0.5514401,0.009046253,0.1705449
1090.176,-0.3558668,-0.3850187,0.2128373,-0.5514401,0.009046253,0.1705449
1090.19,-0.3589322,-0.387873,0.2153049,-0.5534597,0.003892537,0.1721689
1090.205,-0.3621306,-0.3908476,0.2177535,-0.5554852,-0.00138995,0.1737611
1090.219,-0.3621306,-0.3908476,0.2177535,-0.5554852,-0.00138995,0.1737611
1090.233,-0.3653975,-0.3938809,0.220046,-0.5575119,-0.006612493,0.1753221
1090.249,-0.3686931,-0.3969356,0.2221643,-0.5595318,-0.01171539,0.1768526
1090.264,-0.3722018,-0.4001886,0.2246529,-0.5617992,-0.01734097,0.1786346
1090.278,-0.3722018,-0.4001886,0.2246529,-0.5617992,-0.01734097,0.1786346
1090.292,-0.3758266,-0.4035456,0.2271288,-0.5640646,-0.02308538,0.1803818
1090.308,-0.3795075,-0.4069495,0.229454,-0.5663242,-0.02876398,0.1820947
1090.323,-0.3832075,-0.410366,0.231608,-0.5685711,-0.03431738,0.1837741
1090.337,-0.3832075,-0.410366,0.231608,-0.5685711,-0.03431738,0.1837741
1090.352,-0.387114,-0.4139737,0.2341223,-0.5710614,-0.04038065,0.1857022
1090.367,-0.3911304,-0.4176792,0.2366218,-0.5735452,-0.04655749,0.1875925
1090.382,-0.3951972,-0.4214258,0.2389667,-0.5760189,-0.05266146,0.1894459
1090.398,-0.3951972,-0.4214258,0.2389667,-0.5760189,-0.05266146,0.1894459
1090.412,-0.3994886,-0.4253794,0.2416435,-0.5787392,-0.05927382,0.1915444
1090.426,-0.4038989,-0.4294378,0.244278,-0.5814542,-0.0659884,0.1936019
1090.44,-0.4083632,-0.4335397,0.2467334,-0.5841588,-0.07261398,0.1956192
1090.455,-0.4083632,-0.4335397,0.2467334,-0.5841588,-0.07261398,0.1956192
1090.469,-0.4128419,-0.4376488,0.2489933,-0.5868455,-0.0790903,0.197597
1090.484,-0.4175227,-0.4419427,0.2515739,-0.5897715,-0.08604056,0.1998174
1090.499,-0.4175227,-0.4419427,0.2515739,-0.5897715,-0.08604056,0.1998174
1090.513,-0.4223065,-0.4463261,0.2541225,-0.5926853,-0.09308609,0.2019945
1090.529,-0.4271328,-0.4507424,0.2565011,-0.5955825,-0.1000396,0.204129
1090.543,-0.4319649,-0.4551578,0.2586907,-0.5984566,-0.1068409,0.2062218
1090.559,-0.4319649,-0.4551578,0.2586907,-0.5984566,-0.1068409,0.2062218
1090.572,-0.4369935,-0.4597518,0.2611921,-0.6015664,-0.1141044,0.2085549
1090.588,-0.4421198,-0.4644299,0.2636626,-0.6046602,-0.1214605,0.2108425
1090.602,-0.4472836,-0.469136,0.2659627,-0.6077339,-0.1287201,0.2130853
1090.617,-0.4472836,-0.469136,0.2659627,-0.6077339,-0.1287201,0.2130853
1090.631,-0.4526626,-0.4740362,0.2685465,-0.6110466,-0.1364418,0.2155656
1090.647,-0.4581483,-0.4790277,0.2710741,-0.6143449,-0.1442467,0.2179975
1090.662,-0.4636753,-0.4840495,0.273409,-0.6176233,-0.1519406,0.2203818
1090.677,-0.4636753,-0.4840495,0.273409,-0.6176233,-0.1519406,0.2203818
1090.69,-0.4692043,-0.4890659,0.275537,-0.6208746,-0.1594623,0.2227194
1090.705,-0.4749268,-0.4942554,0.2779402,-0.6243583,-0.1674124,0.2252925
1090.72,-0.4749268,-0.4942554,0.2779402,-0.6243583,-0.1674124,0.2252925
1090.734,-0.4807411,-0.4995218,0.2803013,-0.6278216,-0.1754407,0.2278154
1090.749,-0.4865859,-0.5048087,0.2824827,-0.6312595,-0.1833573,0.2302889
1090.764,-0.4924248,-0.5100828,0.2844669,-0.6346659,-0.1911009,0.232714
1090.779,-0.4924248,-0.5100828,0.2844669,-0.6346659,-0.1911009,0.232714
1090.793,-0.4984527,-0.5155247,0.2867194,-0.6383015,-0.1992625,0.2353729
1090.808,-0.5045676,-0.5210387,0.2889336,-0.6419138,-0.2075015,0.2379799
1090.823,-0.5107086,-0.5265687,0.2909709,-0.645498,-0.2156264,0.2405358
1090.838,-0.5107086,-0.5265687,0.2909709,-0.645498,-0.2156264,0.2405358
1090.852,-0.5170577,-0.5322819,0.2932495,-0.6493146,-0.224171,0.243323
1090.867,-0.5235029,-0.5380741,0.2954666,-0.6531102,-0.232785,0.2460558
1090.882,-0.5299779,-0.5438848,0.2974871,-0.6568784,-0.2412718,0.2487351
1090.897,-0.5299779,-0.5438848,0.2974871,-0.6568784,-0.2412718,0.2487351
1090.911,-0.5364434,-0.5496789,0.299298,-0.6606123,-0.2495689,0.2513619
1090.928,-0.5430962,-0.555636,0.3013448,-0.6645726,-0.2582527,0.2542184
1090.941,-0.549831,-0.5616587,0.3033475,-0.6685067,-0.2670023,0.2570192
1090.956,-0.549831,-0.5616587,0.3033475,-0.6685067,-0.2670023,0.2570192
1090.97,-0.5565853,-0.5676907,0.3051696,-0.672409,-0.2756258,0.2597651
1090.985,-0.5633226,-0.5736995,0.3067946,-0.6762733,-0.2840605,0.2624573
1091,-0.5633226,-0.5736995,0.3067946,-0.6762733,-0.2840605,0.2624573
1091.015,-0.5702438,-0.5798666,0.3086507,-0.680361,-0.2928731,0.2653778
1091.029,-0.5772427,-0.586095,0.3104689,-0.6844207,-0.3017519,0.2682414
1091.044,-0.5842569,-0.5923288,0.3121114,-0.6884465,-0.3105036,0.2710489
1091.059,-0.5842569,-0.5923288,0.3121114,-0.6884465,-0.3105036,0.2710489
1091.073,-0.5914742,-0.598736,0.3139593,-0.6926989,-0.3196368,0.2740825
1091.088,-0.5987779,-0.6052111,0.3157475,-0.6969262,-0.3288292,0.277057
1091.103,-0.6061004,-0.611694,0.3173428,-0.701121,-0.3378825,0.2799732
1091.118,-0.6061004,-0.611694,0.3173428,-0.701121,-0.3378825,0.2799732
1091.132,-0.6134026,-0.6181504,0.3187335,-0.7052764,-0.346733,0.2828323
1091.148,-0.6208879,-0.6247608,0.3203273,-0.7096527,-0.355933,0.2859163
1091.162,-0.628446,-0.6314266,0.321881,-0.714,-0.3651893,0.2889402
1091.178,-0.628446,-0.6314266,0.321881,-0.714,-0.3651893,0.2889402
1091.192,-0.6360133,-0.6380917,0.3232599,-0.718311,-0.3743088,0.2919049
1091.206,-0.6435532,-0.6447244,0.3244487,-0.7225795,-0.3832277,0.2948115
1091.22,-0.6512735,-0.651507,0.3258376,-0.7270662,-0.3924891,0.297942
1091.235,-0.6512735,-0.651507,0.3258376,-0.7270662,-0.3924891,0.297942
1091.25,-0.6590628,-0.6583411,0.3271937,-0.7315228,-0.4018079,0.3010116
1091.265,-0.6668572,-0.665171,0.3283816,-0.7359419,-0.4109898,0.304021
1091.28,-0.6668572,-0.665171,0.3283816,-0.7359419,-0.4109898,0.304021
1091.294,-0.6748511,-0.6721656,0.3297451,-0.7405826,-0.4205196,0.3072524
1091.309,-0.6829223,-0.6792181,0.3310554,-0.7451969,-0.4301003,0.3104208
1091.324,-0.6910015,-0.6862683,0.3321818,-0.7497757,-0.4395329,0.3135272
1091.339,-0.6910015,-0.6862683,0.3321818,-0.7497757,-0.4395329,0.3135272
1091.353,-0.6990498,-0.6932833,0.3331141,-0.7543117,-0.448753,0.3165727
1091.368,-0.7072786,-0.7004446,0.3342225,-0.7590637,-0.4582903,0.3198393
1091.383,-0.7155715,-0.7076519,0.3352985,-0.7637864,-0.4678759,0.3230422
1091.398,-0.7155715,-0.7076519,0.3352985,-0.7637864,-0.4678759,0.3230422
1091.412,-0.7238631,-0.7148493,0.3362099,-0.7684703,-0.4773165,0.3261825
1091.428,-0.7321172,-0.7220061,0.3369426,-0.7731089,-0.4865479,0.3292611
1091.442,-0.7405499,-0.729306,0.3378497,-0.7779608,-0.4960912,0.3325602
1091.457,-0.7405499,-0.729306,0.3378497,-0.7779608,-0.4960912,0.3325602
1091.47,-0.749043,-0.7366482,0.3387322,-0.7827833,-0.505684,0.335795
1091.486,-0.757531,-0.7439775,0.3394573,-0.7875664,-0.5151325,0.3389665
1091.501,-0.7659779,-0.7512639,0.3400104,-0.7923036,-0.5243716,0.3420758
1091.516,-0.7659779,-0.7512639,0.3400104,-0.7923036,-0.5243716,0.3420758
1091.53,-0.7746034,-0.7586913,0.3407313,-0.7972525,-0.5339147,0.345405
1091.545,-0.7832867,-0.7661585,0.3414319,-0.8021731,-0.5435064,0.3486693
1091.56,-0.7832867,-0.7661585,0.3414319,-0.8021731,-0.5435064,0.3486693
1091.574,-0.7919616,-0.7736103,0.3419806,-0.8070543,-0.5529529,0.3518697
1091.589,-0.8008337,-0.7812173,0.3426735,-0.8121514,-0.5627105,0.3552882
1091.604,-0.809771,-0.7888699,0.3433262,-0.8172249,-0.5725099,0.3586401
1091.62,-0.809771,-0.7888699,0.3433262,-0.8172249,-0.5725099,0.3586401
1091.633,-0.8187017,-0.7965088,0.3438128,-0.8222617,-0.5821536,0.3619263
1091.648,-0.8275874,-0.8041024,0.3441252,-0.8272533,-0.5915768,0.365148
1091.663,-0.8366528,-0.8118345,0.3445854,-0.8324552,-0.6012829,0.3685873
1091.679,-0.8366528,-0.8118345,0.3445854,-0.8324552,-0.6012829,0.3685873
1091.693,-0.8457707,-0.8196014,0.3450261,-0.837631,-0.6110281,0.3719596
1091.707,-0.8548734,-0.8273479,0.3453202,-0.8427675,-0.6206212,0.3752658
1091.722,-0.863925,-0.8350449,0.3454555,-0.8478566,-0.6299982,0.3785071
1091.736,-0.863925,-0.8350449,0.3454555,-0.8478566,-0.6299982,0.3785071
1091.75,-0.8731554,-0.8428776,0.3457378,-0.8531532,-0.639655,0.3819657
1091.766,-0.8824348,-0.8507423,0.3460078,-0.8584247,-0.649352,0.3853568
1091.781,-0.8916952,-0.8585842,0.3461381,-0.8636566,-0.6588976,0.3886815
1091.796,-0.8916952,-0.8585842,0.3461381,-0.8636566,-0.6588976,0.3886815
1091.81,-0.9011523,-0.8665751,0.3463928,-0.8691006,-0.6687316,0.3922218
1091.825,-0.9106647,-0.874603,0.3466158,-0.8745247,-0.678599,0.3956932
1091.84,-0.9106647,-0.874603,0.3466158,-0.8745247,-0.678599,0.3956932
1091.854,-0.920159,-0.8826094,0.3466861,-0.879912,-0.688305,0.3990965
1091.87,-0.9295973,-0.8905643,0.3465975,-0.8852525,-0.6977863,0.402433
1091.884,-0.9392159,-0.8986527,0.3466389,-0.8907987,-0.7075301,0.405985
1091.899,-0.9392159,-0.8986527,0.3466389,-0.8907987,-0.7075301,0.405985
1091.913,-0.9488779,-0.9067685,0.3466688,-0.8963231,-0.7173049,0.4094676
1091.93,-0.9585136,-0.914857,0.3465648,-0.9018081,-0.7269225,0.4128821
1091.943,-0.9680877,-0.9228903,0.3463169,-0.9072441,-0.7363204,0.4162295
1091.958,-0.9680877,-0.9228903,0.3463169,-0.9072441,-0.7363204,0.4162295
1091.972,-0.977842,-0.9310552,0.3461988,-0.9128832,-0.7459793,0.4197922
1091.987,-0.9876364,-0.939245,0.3460751,-0.9185016,-0.75567,0.4232854
1092.002,-0.9974005,-0.9474055,0.3458242,-0.9240805,-0.7652047,0.4267101
1092.017,-0.9974005,-0.9474055,0.3458242,-0.9240805,-0.7652047,0.4267101
1092.031,-1.007362,-0.9557101,0.3456807,-0.9298676,-0.7750092,0.4303486
1092.046,-1.017368,-0.9640441,0.3455127,-0.9356397,-0.7848387,0.4339161
1092.061,-1.027344,-0.9723499,0.3452054,-0.9413749,-0.7945025,0.4374137
1092.076,-1.027344,-0.9723499,0.3452054,-0.9413749,-0.7945025,0.4374137
1092.09,-1.037253,-0.9805989,0.3447553,-0.9470615,-0.8039399,0.4408427
1092.106,-1.047345,-0.9889782,0.3444197,-0.9529492,-0.8136241,0.4444854
1092.12,-1.05747,-0.9973783,0.3440788,-0.95882,-0.8233312,0.4480569
1092.135,-1.05747,-0.9973783,0.3440788,-0.95882,-0.8233312,0.4480569
1092.149,-1.067558,-1.005745,0.3436168,-0.964651,-0.8328775,0.4515585
1092.167,-1.077574,-1.014053,0.3430261,-0.9704309,-0.842203,0.4549915
1092.181,-1.087772,-1.022489,0.3425496,-0.9764094,-0.8517752,0.458638
1092.194,-1.087772,-1.022489,0.3425496,-0.9764094,-0.8517752,0.458638
1092.208,-1.098002,-1.030945,0.3420727,-0.9823725,-0.8613708,0.4622134
1092.224,-1.10819,-1.039365,0.3414809,-0.9882955,-0.8708072,0.4657187
1092.238,-1.10819,-1.039365,0.3414809,-0.9882955,-0.8708072,0.4657187
1092.252,-1.118576,-1.047926,0.340981,-0.9944231,-0.8804992,0.4694363
1092.268,-1.128997,-1.05651,0.3404624,-1.000541,-0.8902075,0.4730813
1092.282,-1.139375,-1.065061,0.3398181,-1.006621,-0.8997481,0.4766549
1092.297,-1.139375,-1.065061,0.3398181,-1.006621,-0.8997481,0.4766549
1092.312,-1.149677,-1.073551,0.3390473,-1.012649,-0.9090634,0.4801584
1092.327,-1.160163,-1.082169,0.3383766,-1.018874,-0.9186143,0.4838743
1092.342,-1.170674,-1.090803,0.3377053,-1.025087,-0.9281801,0.4875176
1092.357,-1.170674,-1.090803,0.3377053,-1.025087,-0.9281801,0.4875176
1092.371,-1.181136,-1.099399,0.3369253,-1.03126,-0.9375834,0.4910894
1092.386,-1.191517,-1.107933,0.336032,-1.037377,-0.946768,0.4945913
1092.401,-1.191446,-1.108954,0.3279963,-1.033909,-0.9385723,0.487625
1092.417,-1.191446,-1.108954,0.3279963,-1.033909,-0.9385723,0.487625
1092.431,-1.186117,-1.105951,0.3160965,-1.028397,-0.9206831,0.4807871
1092.445,-1.17798,-1.100589,0.3048114,-1.02189,-0.8998257,0.4740798
1092.46,-1.17798,-1.100589,0.3048114,-1.02189,-0.8998257,0.4740798
1092.474,-1.168839,-1.094148,0.2958327,-1.014832,-0.8792343,0.4673227
1092.489,-1.159314,-1.087166,0.2885109,-1.007501,-0.8595014,0.4606979
1092.504,-1.149695,-1.079929,0.282248,-1.000024,-0.8406171,0.4542031
1092.518,-1.149695,-1.079929,0.282248,-1.000024,-0.8406171,0.4542031
1092.532,-1.140104,-1.072583,0.2766042,-0.9925073,-0.8224127,0.4478357
1092.548,-1.130883,-1.065378,0.2718948,-0.9850565,-0.8051828,0.4414131
1092.563,-1.121893,-1.058265,0.2675063,-0.9777808,-0.7885275,0.4351166
1092.578,-1.121893,-1.058265,0.2675063,-0.9777808,-0.7885275,0.4351166
1092.592,-1.113068,-1.051221,0.2632419,-0.9706597,-0.7722625,0.4289437
1092.607,-1.104372,-1.04424,0.2590339,-0.9636833,-0.7563005,0.4228918
1092.622,-1.096076,-1.037488,0.2554529,-0.9568617,-0.7410678,0.4167784
1092.637,-1.096076,-1.037488,0.2554529,-0.9568617,-0.7410678,0.4167784
1092.651,-1.08802,-1.030879,0.2520389,-0.9502673,-0.7262533,0.410785
1092.668,-1.080126,-1.024369,0.2486719,-0.9438497,-0.711732,0.4049092
1092.681,-1.072356,-1.017935,0.245323,-0.9375819,-0.6974523,0.3991486
1092.696,-1.072356,-1.017935,0.245323,-0.9375819,-0.6974523,0.3991486
1092.71,-1.064974,-1.011741,0.2425822,-0.9314526,-0.6838696,0.3933207
1092.725,-1.057826,-1.005695,0.2400011,-0.9255413,-0.6706772,0.3876072
1092.74,-1.057826,-1.005695,0.2400011,-0.9255413,-0.6706772,0.3876072
1092.754,-1.050833,-0.999752,0.2374596,-0.9197965,-0.6577521,0.3820059
1092.77,-1.044239,-0.9940611,0.235517,-0.914188,-0.6455241,0.3763342
1092.784,-1.037883,-0.988527,0.2337204,-0.9087963,-0.6336704,0.3707739
1092.799,-1.037883,-0.988527,0.2337204,-0.9087963,-0.6336704,0.3707739
1092.813,-1.031683,-0.9830999,0.2319475,-0.9035671,-0.6220623,0.3653227
1092.829,-1.025597,-0.9777536,0.2301696,-0.8984703,-0.6106488,0.3599783
1092.844,-1.019882,-0.9726468,0.2289802,-0.8934776,-0.5999015,0.3545586
1092.859,-1.019882,-0.9726468,0.2289802,-0.8934776,-0.5999015,0.3545586
1092.872,-1.01439,-0.9676912,0.2279382,-0.888683,-0.5895066,0.3492453
1092.888,-1.009045,-0.9628395,0.2269184,-0.8840364,-0.5793372,0.3440363
1092.904,-1.003805,-0.9580659,0.2258893,-0.8795098,-0.5693427,0.3389294
1092.917,-1.003805,-0.9580659,0.2258893,-0.8795098,-0.5693427,0.3389294
1092.932,-0.9989251,-0.9535291,0.2254432,-0.8750694,-0.5600016,0.3337424
1092.947,-0.9942621,-0.9491426,0.22514,-0.8708167,-0.5509952,0.3286575
1092.962,-0.9897395,-0.9448588,0.2248514,-0.8667029,-0.5421937,0.3236723
1092.977,-0.9897395,-0.9448588,0.2248514,-0.8667029,-0.5421937,0.3236723
1092.99,-0.9855904,-0.9408243,0.2251364,-0.8626796,-0.5340458,0.3186047
1093.006,-0.9816639,-0.9369472,0.2255483,-0.8588464,-0.5262164,0.3136367
1093.02,-0.9778788,-0.933176,0.2259569,-0.8551513,-0.5185701,0.3087663
1093.035,-0.9778788,-0.933176,0.2259569,-0.8551513,-0.5185701,0.3087663
1093.049,-0.9741907,-0.929482,0.2263305,-0.8515645,-0.5110552,0.3039913
1093.066,-0.9708472,-0.9260212,0.2272654,-0.8480433,-0.5041627,0.2991299
1093.08,-0.9708472,-0.9260212,0.2272654,-0.8480433,-0.5041627,0.2991299
1093.094,-0.9677097,-0.9227086,0.2283265,-0.8446966,-0.4975677,0.294364
1093.109,-0.964702,-0.9194961,0.2293821,-0.841476,-0.4911375,0.2896917
1093.124,-0.9617819,-0.9163557,0.2303982,-0.8383539,-0.484821,0.285111
1093.139,-0.9617819,-0.9163557,0.2303982,-0.8383539,-0.484821,0.285111
1093.155,-0.9591962,-0.9134439,0.2319709,-0.8352859,-0.4791153,0.28044
1093.168,-0.9568094,-0.9106775,0.2336643,-0.8323848,-0.4736907,0.2758609
1093.183,-0.9545462,-0.9080082,0.235344,-0.8296028,-0.4684121,0.2713717
1093.198,-0.9545462,-0.9080082,0.235344,-0.8296028,-0.4684121,0.2713717
1093.212,-0.9526331,-0.9055805,0.2375724,-0.8268838,-0.4637454,0.2667904
1093.227,-0.9509267,-0.9033054,0.2399043,-0.8243362,-0.459344,0.2622994
1093.242,-0.9493457,-0.9011304,0.242204,-0.821909,-0.4550676,0.2578964
1093.256,-0.9493457,-0.9011304,0.242204,-0.821909,-0.4550676,0.2578964
1093.27,-0.947844,-0.8990247,0.244438,-0.8195727,-0.4508644,0.2535799
1093.286,-0.9466631,-0.8971423,0.2472087,-0.8172796,-0.4472438,0.2491678
1093.301,-0.9456708,-0.8954011,0.2500813,-0.8151445,-0.4438694,0.2448426
1093.315,-0.9456708,-0.8954011,0.2500813,-0.8151445,-0.4438694,0.2448426
1093.329,-0.9447915,-0.893752,0.2529194,-0.8131194,-0.440604,0.2406023
1093.345,-0.9439814,-0.8921657,0.2556877,-0.811177,-0.4373966,0.2364452
1093.36,-0.9434825,-0.8907969,0.2589899,-0.8092706,-0.4347625,0.2321896
1093.375,-0.9434825,-0.8907969,0.2589899,-0.8092706,-0.4347625,0.2321896
1093.389,-0.9431651,-0.8895651,0.262388,-0.8075163,-0.4323601,0.2280177
1093.405,-0.9429543,-0.8884216,0.2657435,-0.8058665,-0.43005,0.2239277
1093.419,-0.9429543,-0.8884216,0.2657435,-0.8058665,-0.43005,0.2239277
1093.433,-0.9430693,-0.8875094,0.2696237,-0.8042661,-0.4283145,0.2197379
1093.448,-0.9433757,-0.8867428,0.2735838,-0.802823,-0.4267965,0.2156306
1093.463,-0.9437923,-0.8860697,0.2774837,-0.8014864,-0.4253522,0.211604
1093.478,-0.9437923,-0.8860697,0.2774837,-0.8014864,-0.4253522,0.211604
1093.492,-0.9442711,-0.8854575,0.2812885,-0.8002273,-0.4239295,0.2076563
1093.507,-0.9450502,-0.885058,0.28561,-0.7989998,-0.4230562,0.203606
1093.522,-0.9460018,-0.8847912,0.2900075,-0.7979184,-0.4223823,0.1996354
1093.536,-0.9460018,-0.8847912,0.2900075,-0.7979184,-0.4223823,0.1996354
1093.551,-0.94705,-0.8846068,0.2943416,-0.7969342,-0.4217663,0.1957429
1093.566,-0.94815,-0.8844737,0.2985764,-0.7960201,-0.4211578,0.1919267
1093.581,-0.9495412,-0.8845426,0.303326,-0.795133,-0.4210899,0.1880052
1093.596,-0.9495412,-0.8845426,0.303326,-0.795133,-0.4210899,0.1880052
1093.61,-0.9510971,-0.8847358,0.3081455,-0.7943872,-0.4212075,0.184161
1093.626,-0.9527408,-0.8850034,0.312892,-0.7937348,-0.421367,0.1803924
1093.64,-0.9544269,-0.8853148,0.3175296,-0.7931488,-0.4215183,0.1766976
1093.656,-0.9544269,-0.8853148,0.3175296,-0.7931488,-0.4215183,0.1766976
1093.67,-0.9563951,-0.8858238,0.3226787,-0.7925891,-0.422204,0.1728952
1093.684,-0.9585167,-0.8864496,0.3278848,-0.7921686,-0.4230575,0.1691678
1093.699,-0.9585167,-0.8864496,0.3278848,-0.7921686,-0.4230575,0.1691678
1093.713,-0.9607158,-0.8871426,0.3330069,-0.791838,-0.4239356,0.1655136
1093.729,-0.9632148,-0.8880453,0.338634,-0.7915485,-0.4253499,0.161751
1093.743,-0.9658734,-0.889069,0.3442974,-0.7914053,-0.4269147,0.1580626
1093.758,-0.9658734,-0.889069,0.3442974,-0.7914053,-0.4269147,0.1580626
1093.772,-0.9686098,-0.89016,0.3498569,-0.7913548,-0.428484,0.1544466
1093.788,-0.9713765,-0.8912861,0.3552819,-0.7913673,-0.4300112,0.1509015
1093.803,-0.9744134,-0.8926005,0.3612061,-0.7914075,-0.4320545,0.1472459
1093.818,-0.9744134,-0.8926005,0.3612061,-0.7914075,-0.4320545,0.1472459
1093.832,-0.9775888,-0.8940201,0.3671641,-0.7915832,-0.4342336,0.1436624
1093.847,-0.9808267,-0.8954952,0.3730163,-0.7918432,-0.4364057,0.1401492
1093.862,-0.9840834,-0.8969963,0.378732,-0.7921593,-0.4385259,0.136705
1093.877,-0.9840834,-0.8969963,0.378732,-0.7921593,-0.4385259,0.136705
1093.893,-0.9876017,-0.8986785,0.384949,-0.7925016,-0.4411595,0.1331482
1093.906,-0.9912501,-0.900459,0.3911924,-0.7929757,-0.4439166,0.1296616
1093.921,-0.9949533,-0.9022887,0.3973222,-0.7935297,-0.4466535,0.1262435
1093.935,-0.9949533,-0.9022887,0.3973222,-0.7935297,-0.4466535,0.1262435
1093.95,-0.9989366,-0.9043114,0.4039462,-0.7941259,-0.4499049,0.1227123
1093.965,-1.003057,-0.9064367,0.4105753,-0.7948607,-0.4532625,0.1192508
1093.98,-1.003057,-0.9064367,0.4105753,-0.7948607,-0.4532625,0.1192508
1093.994,-1.007233,-0.9086117,0.4170712,-0.795678,-0.4565806,0.1158574
1094.009,-1.011419,-0.9108053,0.423408,-0.7965476,-0.4598176,0.1125304
1094.024,-1.015858,-0.9131727,0.4302374,-0.7974473,-0.4635541,0.1090886
1094.039,-1.015858,-0.9131727,0.4302374,-0.7974473,-0.4635541,0.1090886
1094.053,-1.020416,-0.9156287,0.4370707,-0.798475,-0.4673851,0.1057148
1094.068,-1.025016,-0.9181242,0.4437704,-0.7995768,-0.4711678,0.1024072
1094.083,-1.029616,-0.920631,0.4503099,-0.800724,-0.4748614,0.09916452
1094.098,-1.029616,-0.920631,0.4503099,-0.800724,-0.4748614,0.09916452
1094.112,-1.034463,-0.9233056,0.4573453,-0.8019016,-0.479054,0.09580529
1094.127,-1.039421,-0.9260632,0.4643777,-0.8032034,-0.4833299,0.09251241
1094.143,-1.044415,-0.9288552,0.4712695,-0.804575,-0.4875458,0.08928422
1094.157,-1.044415,-0.9288552,0.4712695,-0.804575,-0.4875458,0.08928422
1094.171,-1.049676,-0.9318267,0.4786484,-0.8059936,-0.4922599,0.08593924
1094.187,-1.055055,-0.9348855,0.4860024,-0.807543,-0.4970395,0.08266033
1094.201,-1.060471,-0.9379792,0.4931968,-0.8091642,-0.5017405,0.07944583
1094.216,-1.060471,-0.9379792,0.4931968,-0.8091642,-0.5017405,0.07944583
1094.23,-1.065879,-0.9410784,0.5002106,-0.8108265,-0.5063264,0.07629437
1094.246,-1.071528,-0.9443392,0.5077137,-0.8125252,-0.5114006,0.07302459
1094.26,-1.07728,-0.947675,0.5151923,-0.814344,-0.5165311,0.06981941
1094.275,-1.07728,-0.947675,0.5151923,-0.814344,-0.5165311,0.06981941
1094.289,-1.083056,-0.951037,0.5225121,-0.8162263,-0.5215762,0.06667719
1094.305,-1.088816,-0.954398,0.5296513,-0.818143,-0.5265003,0.0635966
1094.32,-1.088816,-0.954398,0.5296513,-0.818143,-0.5265003,0.0635966
1094.334,-1.094813,-0.957916,0.5372841,-0.8200974,-0.5319136,0.06039629
1094.349,-1.100905,-0.9615042,0.5448857,-0.8221682,-0.5373728,0.05725923
1094.364,-1.107017,-0.9651142,0.5523224,-0.824298,-0.5427364,0.0541838
1094.38,-1.107017,-0.9651142,0.5523224,-0.824298,-0.5427364,0.0541838
1094.393,-1.113385,-0.9688926,0.5602422,-0.8264827,-0.5485864,0.05098858
1094.408,-1.119855,-0.9727451,0.5681087,-0.8287895,-0.554464,0.04785651
1094.423,-1.126346,-0.9766201,0.5757922,-0.8311566,-0.5602284,0.04478597
1094.437,-1.126346,-0.9766201,0.5757922,-0.8311566,-0.5602284,0.04478597
1094.451,-1.132814,-0.9804894,0.5832773,-0.8335531,-0.5658491,0.04177564
1094.467,-1.139514,-0.9845105,0.5912512,-0.8359948,-0.571951,0.03864419
1094.481,-1.146301,-0.9885947,0.5991733,-0.8385483,-0.5780736,0.03557466
1094.496,-1.146301,-0.9885947,0.5991733,-0.8385483,-0.5780736,0.03557466
1094.51,-1.153099,-0.9926938,0.6069146,-0.8411537,-0.5840778,0.03256544
1094.526,-1.159866,-0.9967819,0.6144589,-0.8437818,-0.5899344,0.02961523
1094.54,-1.166862,-1.001018,0.6224966,-0.8464577,-0.5962745,0.02654272
1094.555,-1.166862,-1.001018,0.6224966,-0.8464577,-0.5962745,0.02654272
1094.569,-1.17394,-1.005313,0.6304763,-0.8492414,-0.6026255,0.02353099
1094.585,-1.181023,-1.009619,0.6382704,-0.8520721,-0.6088495,0.02057842
1094.6,-1.181023,-1.009619,0.6382704,-0.8520721,-0.6088495,0.02057842
1094.614,-1.188353,-1.014085,0.6465458,-0.8549677,-0.6155527,0.01750363
1094.63,-1.195772,-1.018613,0.6547411,-0.8579758,-0.6222479,0.01448964
1094.645,-1.203197,-1.023152,0.662734,-0.8610315,-0.6287997,0.01153486
1094.658,-1.203197,-1.023152,0.662734,-0.8610315,-0.6287997,0.01153486
1094.672,-1.210585,-1.027677,0.6705149,-0.8641041,-0.6351846,0.008638002
1094.688,-1.218199,-1.032345,0.6787856,-0.867233,-0.6420484,0.005617822
1094.702,-1.225887,-1.037067,0.6869789,-0.870464,-0.648899,0.002657378
1094.717,-1.225887,-1.037067,0.6869789,-0.870464,-0.648899,0.002657378
1094.731,-1.233571,-1.041793,0.6949733,-0.8737344,-0.6556031,-0.0002449139
1094.747,-1.241212,-1.0465,0.7027583,-0.877015,-0.662138,-0.003090298
1094.762,-1.249077,-1.051348,0.7110379,-0.8803553,-0.6691554,-0.006060006
1094.776,-1.249077,-1.051348,0.7110379,-0.8803553,-0.6691554,-0.006060006
1094.79,-1.257011,-1.056245,0.7192345,-0.8837934,-0.6761504,-0.008970975
1094.805,-1.264937,-1.061144,0.7272287,-0.8872658,-0.6829917,-0.01182477
1094.82,-1.272815,-1.066021,0.7350117,-0.8907436,-0.6896592,-0.01462262
1094.835,-1.272815,-1.066021,0.7350117,-0.8907436,-0.6896592,-0.01462262
1094.849,-1.280916,-1.071037,0.7432914,-0.8942856,-0.6968115,-0.0175457
1094.865,-1.289083,-1.076099,0.7514809,-0.8979215,-0.703931,-0.02041097
1094.879,-1.289083,-1.076099,0.7514809,-0.8979215,-0.703931,-0.02041097
1094.896,-1.297238,-1.081161,0.7594644,-0.9015868,-0.7108896,-0.02321996
1094.909,-1.305633,-1.086372,0.7679303,-0.9053327,-0.7183266,-0.02615396
1094.923,-1.3141,-1.091633,0.7762845,-0.9091758,-0.7257118,-0.02902994
1094.938,-1.3141,-1.091633,0.7762845,-0.9091758,-0.7257118,-0.02902994
1094.952,-1.322555,-1.096893,0.784418,-0.9130476,-0.732922,-0.03184946
1094.968,-1.330956,-1.102129,0.7923288,-0.9169179,-0.7399444,-0.03461371
1094.982,-1.339579,-1.1075,0.800733,-0.9208617,-0.7474509,-0.03750382
1094.997,-1.339579,-1.1075,0.800733,-0.9208617,-0.7474509,-0.03750382
1095.011,-1.34826,-1.112913,0.8090293,-0.9248925,-0.7549015,-0.0403368
1095.026,-1.356921,-1.11832,0.8171098,-0.9289441,-0.7621762,-0.04311416
1095.041,-1.365523,-1.123699,0.8249717,-0.9329878,-0.7692631,-0.04583706
1095.056,-1.365523,-1.123699,0.8249717,-0.9329878,-0.7692631,-0.04583706
1095.07,-1.374344,-1.129211,0.8333315,-0.9371091,-0.7768396,-0.04868662
1095.085,-1.38322,-1.134761,0.8415785,-0.9413128,-0.7843511,-0.05147985
1095.102,-1.392072,-1.140304,0.8496085,-0.9455319,-0.7916819,-0.05421825
1095.115,-1.392072,-1.140304,0.8496085,-0.9455319,-0.7916819,-0.05421825
1095.129,-1.401161,-1.14599,0.8581215,-0.9498439,-0.7994955,-0.05708297
1095.145,-1.410308,-1.151718,0.8665014,-0.9542403,-0.8072255,-0.05989109
1095.16,-1.419432,-1.157438,0.8746517,-0.9586503,-0.8147631,-0.06264409
1095.174,-1.419432,-1.157438,0.8746517,-0.9586503,-0.8147631,-0.06264409
1095.188,-1.42849,-1.163127,0.8825753,-0.9630448,-0.8221033,-0.06534314
1095.203,-1.437768,-1.168946,0.8909932,-0.967526,-0.8299356,-0.06816927
1095.218,-1.437768,-1.168946,0.8909932,-0.967526,-0.8299356,-0.06816927
1095.232,-1.447093,-1.1748,0.8992826,-0.972082,-0.8376803,-0.07093957
1095.247,-1.456386,-1.180642,0.9073485,-0.9766439,-0.845233,-0.07365549
1095.262,-1.465609,-1.18645,0.9151928,-0.9811842,-0.85259,-0.07631818
1095.276,-1.465609,-1.18645,0.9151928,-0.9811842,-0.85259,-0.07631818
1095.29,-1.475051,-1.192388,0.923535,-0.9858158,-0.8604455,-0.07910863
1095.306,-1.484537,-1.198357,0.9317447,-0.9905172,-0.8682042,-0.08184399
1095.321,-1.493987,-1.204313,0.9397313,-0.9952192,-0.8757684,-0.08452566
1095.335,-1.493987,-1.204313,0.9397313,-0.9952192,-0.8757684,-0.08452566
1095.35,-1.503671,-1.210407,0.9482005,-1.000027,-0.8838243,-0.0873347
1095.365,-1.513404,-1.216535,0.9565187,-1.004905,-0.891766,-0.0900883
1095.38,-1.513404,-1.216535,0.9565187,-1.004905,-0.891766,-0.0900883
1095.394,-1.523099,-1.22265,0.964603,-1.009781,-0.8995035,-0.09278788
1095.41,-1.53272,-1.228729,0.97246,-1.014627,-0.9070392,-0.09543453
1095.424,-1.542559,-1.234935,0.9808101,-1.019573,-0.9150779,-0.09820922
1095.438,-1.542559,-1.234935,0.9808101,-1.019573,-0.9150779,-0.09820922
1095.452,-1.552435,-1.24117,0.9890142,-1.024581,-0.9229978,-0.1009292
1095.468,-1.562268,-1.247387,0.996992,-1.02958,-0.9307157,-0.1035958
1095.482,-1.572023,-1.253566,1.004748,-1.034543,-0.9382344,-0.1062101
1095.497,-1.572023,-1.253566,1.004748,-1.034543,-0.9382344,-0.1062101
1095.511,-1.581995,-1.259872,1.013,-1.039612,-0.9462627,-0.108953
1095.526,-1.592002,-1.266204,1.021102,-1.044736,-0.9541633,-0.1116419
1095.541,-1.601962,-1.272518,1.028981,-1.049847,-0.9618614,-0.114278
1095.555,-1.601962,-1.272518,1.028981,-1.049847,-0.9618614,-0.114278
1095.57,-1.612155,-1.278967,1.037338,-1.055075,-0.9700624,-0.1170423
1095.585,-1.622385,-1.285444,1.045531,-1.060359,-0.9781198,-0.1197521
1095.6,-1.622385,-1.285444,1.045531,-1.060359,-0.9781198,-0.1197521
1095.614,-1.632568,-1.291902,1.053491,-1.065626,-0.9859675,-0.1224087
1095.629,-1.642667,-1.298322,1.061225,-1.070849,-0.9936126,-0.1250133
1095.646,-1.640763,-1.297804,1.040409,-1.069277,-0.9720411,-0.1195512
1095.659,-1.640763,-1.297804,1.040409,-1.069277,-0.9720411,-0.1195512
1095.675,-1.631598,-1.293213,1.016157,-1.063294,-0.9481235,-0.1142095
1095.688,-1.61895,-1.286428,0.9927111,-1.055837,-0.9249639,-0.1089752
1095.703,-1.604941,-1.278656,0.9709324,-1.048009,-0.9028367,-0.1038432
1095.717,-1.604941,-1.278656,0.9709324,-1.048009,-0.9028367,-0.1038432
1095.731,-1.590516,-1.270485,0.950635,-1.040169,-0.881603,-0.09881111
1095.747,-1.576047,-1.262167,0.9314294,-1.032421,-0.8610793,-0.09387713
1095.761,-1.561669,-1.25381,0.9130002,-1.0248,-0.8411251,-0.08903956
1095.776,-1.561669,-1.25381,0.9130002,-1.0248,-0.8411251,-0.08903956
1095.79,-1.547427,-1.245459,0.8951448,-1.017318,-0.8216489,-0.0842967
1095.805,-1.533333,-1.237135,0.8777457,-1.009982,-0.8025948,-0.07964679
1095.82,-1.519391,-1.228847,0.8607381,-1.002795,-0.7839293,-0.07508805
1095.835,-1.519391,-1.228847,0.8607381,-1.002795,-0.7839293,-0.07508805
1095.849,-1.505599,-1.220599,0.8440864,-0.9957581,-0.765632,-0.07061874
1095.865,-1.491956,-1.212396,0.8277707,-0.988869,-0.7476893,-0.06623712
1095.879,-1.491956,-1.212396,0.8277707,-0.988869,-0.7476893,-0.06623712
1095.893,-1.478459,-1.204237,0.8117789,-0.9821258,-0.7300913,-0.06194146
1095.909,-1.465106,-1.196124,0.7961028,-0.9755255,-0.7128302,-0.05773009
1095.923,-1.451897,-1.188058,0.7807362,-0.9690648,-0.6958991,-0.05360135
1095.939,-1.451897,-1.188058,0.7807362,-0.9690648,-0.6958991,-0.05360135
1095.953,-1.43883,-1.180038,0.7656736,-0.9627401,-0.6792917,-0.04955361
1095.968,-1.425903,-1.172067,0.7509099,-0.9565482,-0.6630019,-0.0455853
1095.982,-1.413115,-1.164143,0.7364404,-0.9504854,-0.647024,-0.04169484
1095.997,-1.413115,-1.164143,0.7364404,-0.9504854,-0.647024,-0.04169484
1096.011,-1.400465,-1.156267,0.7222603,-0.9445485,-0.6313524,-0.03788072
1096.026,-1.387951,-1.14844,0.708365,-0.938734,-0.6159814,-0.03414144
1096.041,-1.375573,-1.140661,0.6947497,-0.9330388,-0.6009057,-0.03047551
1096.056,-1.375573,-1.140661,0.6947497,-0.9330388,-0.6009057,-0.03047551
1096.07,-1.363329,-1.132932,0.68141,-0.9274595,-0.5861198,-0.02688151
1096.085,-1.351219,-1.125251,0.6683413,-0.9219933,-0.5716187,-0.02335802
1096.1,-1.33924,-1.117621,0.655539,-0.9166369,-0.5573971,-0.01990365
1096.115,-1.33924,-1.117621,0.655539,-0.9166369,-0.5573971,-0.01990365
1096.129,-1.327392,-1.11004,0.6429991,-0.9113877,-0.5434507,-0.01651704
1096.144,-1.315674,-1.102509,0.6307173,-0.906243,-0.5297747,-0.01319687
1096.159,-1.315674,-1.102509,0.6307173,-0.906243,-0.5297747,-0.01319687
1096.173,-1.304084,-1.095029,0.6186895,-0.9012,-0.5163644,-0.009941823
1096.19,-1.292622,-1.087599,0.6069111,-0.896256,-0.5032151,-0.006750627
1096.203,-1.281286,-1.08022,0.595378,-0.8914084,-0.4903221,-0.003622023
1096.218,-1.281286,-1.08022,0.595378,-0.8914084,-0.4903221,-0.003622023
1096.232,-1.270076,-1.072892,0.5840858,-0.8866544,-0.4776807,-0.0005547772
1096.248,-1.258989,-1.065615,0.5730305,-0.8819916,-0.4652864,0.002452309
1096.262,-1.248026,-1.058389,0.5622078,-0.8774174,-0.4531348,0.005400422
1096.277,-1.248026,-1.058389,0.5622078,-0.8774174,-0.4531348,0.005400422
1096.291,-1.237184,-1.051215,0.5516136,-0.8729295,-0.4412215,0.008290716
1096.306,-1.226463,-1.044093,0.5412439,-0.8685253,-0.4295422,0.01112433
1096.321,-1.215862,-1.037022,0.5310948,-0.8642027,-0.4180927,0.01390239
1096.336,-1.215862,-1.037022,0.5310948,-0.8642027,-0.4180927,0.01390239
1096.35,-1.205379,-1.030004,0.5211623,-0.8599594,-0.4068688,0.01662597
1096.365,-1.195015,-1.023038,0.5114424,-0.8557933,-0.3958665,0.01929614
1096.381,-1.184766,-1.016124,0.5019314,-0.8517022,-0.3850817,0.02191396
1096.395,-1.184766,-1.016124,0.5019314,-0.8517022,-0.3850817,0.02191396
1096.409,-1.174633,-1.009263,0.4926255,-0.8476841,-0.3745105,0.02448046
1096.424,-1.164614,-1.002454,0.483521,-0.8437371,-0.3641491,0.02699665
1096.44,-1.154709,-0.9956974,0.4746141,-0.8398591,-0.3539936,0.0294635
1096.454,-1.154709,-0.9956974,0.4746141,-0.8398591,-0.3539936,0.0294635
1096.468,-1.144916,-0.9889939,0.4659012,-0.8360484,-0.3440402,0.03188199
1096.483,-1.135234,-0.9823431,0.4573788,-0.8323032,-0.3342854,0.03425308
1096.498,-1.135234,-0.9823431,0.4573788,-0.8323032,-0.3342854,0.03425308
1096.512,-1.125662,-0.9757451,0.4490433,-0.8286216,-0.3247254,0.03657769
1096.527,-1.116199,-0.9692,0.4408913,-0.8250021,-0.3153568,0.03885673
1096.542,-1.106844,-0.9627078,0.4329193,-0.8214429,-0.3061759,0.0410911
1096.557,-1.106844,-0.9627078,0.4329193,-0.8214429,-0.3061759,0.0410911
1096.571,-1.097596,-0.9562685,0.4251239,-0.8179425,-0.2971795,0.04328168
1096.586,-1.088454,-0.9498822,0.4175019,-0.8144993,-0.288364,0.04542933
1096.601,-1.079416,-0.9435488,0.4100499,-0.8111119,-0.2797262,0.04753489
1096.615,-1.079416,-0.9435488,0.4100499,-0.8111119,-0.2797262,0.04753489
1096.63,-1.070483,-0.9372683,0.4027648,-0.8077788,-0.2712628,0.04959919
1096.645,-1.061652,-0.9310407,0.3956433,-0.8044986,-0.2629705,0.05162304
1096.66,-1.052924,-0.9248659,0.3886824,-0.80127,-0.2548463,0.05360724
1096.675,-1.052924,-0.9248659,0.3886824,-0.80127,-0.2548463,0.05360724
1096.691,-1.044296,-0.9187439,0.3818789,-0.7980916,-0.246887,0.05555255
1096.705,-1.035767,-0.9126746,0.3752299,-0.7949622,-0.2390895,0.05745976
1096.719,-1.035767,-0.9126746,0.3752299,-0.7949622,-0.2390895,0.05745976
1096.733,-1.027338,-0.9066579,0.3687324,-0.7918805,-0.2314508,0.05932959
1096.748,-1.019006,-0.9006938,0.3623833,-0.7888454,-0.2239681,0.06116278
1096.763,-1.010771,-0.8947822,0.35618,-0.7858558,-0.2166383,0.06296007
1096.778,-1.010771,-0.8947822,0.35618,-0.7858558,-0.2166383,0.06296007
1096.791,-1.002632,-0.8889229,0.3501194,-0.7829104,-0.2094586,0.06472214
1096.807,-0.9945873,-0.8831159,0.3441989,-0.7800083,-0.2024263,0.06644969
1096.822,-0.9866366,-0.8773609,0.3384157,-0.7771484,-0.1955385,0.0681434
1096.836,-0.9866366,-0.8773609,0.3384157,-0.7771484,-0.1955385,0.0681434
1096.851,-0.9787787,-0.871658,0.3327671,-0.7743296,-0.1887926,0.06980392
1096.866,-0.9710125,-0.8660068,0.3272505,-0.7715511,-0.1821858,0.07143193
1096.881,-0.9633372,-0.8604073,0.3218631,-0.7688118,-0.1757156,0.07302805
1096.896,-0.9633372,-0.8604073,0.3218631,-0.7688118,-0.1757156,0.07302805
1096.91,-0.9557518,-0.8548593,0.3166026,-0.766111,-0.1693794,0.0745929
1096.925,-0.9482554,-0.8493626,0.3114663,-0.7634476,-0.1631747,0.0761271
1096.94,-0.9482554,-0.8493626,0.3114663,-0.7634476,-0.1631747,0.0761271
1096.955,-0.9408469,-0.843917,0.3064518,-0.7608209,-0.1570989,0.07763126
1096.969,-0.9335254,-0.8385224,0.3015566,-0.75823,-0.1511497,0.07910595
1096.984,-0.92629,-0.8331785,0.2967784,-0.7556741,-0.1453246,0.08055176
1096.999,-0.92629,-0.8331785,0.2967784,-0.7556741,-0.1453246,0.08055176
1097.014,-0.9191397,-0.8278851,0.2921148,-0.7531524,-0.1396213,0.08196925
1097.028,-0.9120736,-0.822642,0.2875635,-0.7506643,-0.1340374,0.08335897
1097.043,-0.9050908,-0.817449,0.2831223,-0.7482089,-0.1285707,0.08472149
1097.058,-0.9050908,-0.817449,0.2831223,-0.7482089,-0.1285707,0.08472149
1097.072,-0.8981904,-0.8123058,0.2787888,-0.7457857,-0.1232189,0.08605732
1097.087,-0.8913714,-0.8072122,0.2745609,-0.7433938,-0.1179799,0.08736698
1097.102,-0.8846331,-0.802168,0.2704365,-0.7410327,-0.1128515,0.08865101
1097.117,-0.8846331,-0.802168,0.2704365,-0.7410327,-0.1128515,0.08865101
1097.131,-0.8779743,-0.7971729,0.2664135,-0.7387017,-0.1078315,0.08990989
1097.147,-0.8713944,-0.7922266,0.2624896,-0.7364002,-0.1029179,0.09114411
