JMolnar6/NonAnthroHands_User_Study/HandsLoggerWithURDF/tempdata/PID 0 (test)/files/Reachy_PID0_JointMotion_gesture_5_4.csv
Time,r_shoulder,r_shoulder_x,r_upper_arm,r_forearm,r_wrist,r_wrist2hand,
378.9301,0.04500319,-0.3270011,0.4524284,-2.148614,-0.5204679,-0.02002849
378.9457,0.04500319,-0.3270011,0.4525612,-2.148608,-0.520606,-0.02002844
378.9604,0.04500319,-0.3270011,0.4526924,-2.148603,-0.5207411,-0.0200284
378.9752,0.04500319,-0.3270011,0.4526924,-2.148603,-0.5207411,-0.0200284
378.9892,0.04500319,-0.3270011,0.4528223,-2.148597,-0.5208731,-0.02002835
379.0044,0.04500319,-0.3270011,0.4529506,-2.148592,-0.5210022,-0.0200283
379.0193,0.04500319,-0.3270011,0.4529506,-2.148592,-0.5210022,-0.0200283
379.0334,0.04500319,-0.3270011,0.4530776,-2.148587,-0.5211285,-0.02002825
379.0488,0.04500319,-0.3270011,0.4532031,-2.148581,-0.5212519,-0.0200282
379.0632,0.04500319,-0.3270011,0.4533271,-2.148576,-0.5213725,-0.02002815
379.0802,0.04500319,-0.3270011,0.4534498,-2.14857,-0.5214904,-0.02002811
379.0939,0.04500319,-0.3270011,0.4534498,-2.14857,-0.5214904,-0.02002811
379.107,0.04500319,-0.3270011,0.4535712,-2.148565,-0.5216057,-0.02002805
379.1221,0.04500319,-0.3270011,0.4536911,-2.148559,-0.5217184,-0.020028
379.137,0.04500319,-0.3270011,0.4536911,-2.148559,-0.5217184,-0.020028
379.151,0.04500319,-0.3270011,0.4538097,-2.148554,-0.5218285,-0.02002795
379.1663,0.04500319,-0.3270011,0.4539269,-2.148549,-0.5219362,-0.02002791
379.181,0.04500319,-0.3270011,0.4540428,-2.148543,-0.5220415,-0.02002786
379.1957,0.04500319,-0.3270011,0.4540428,-2.148543,-0.5220415,-0.02002786
379.21,0.04500319,-0.3270011,0.4541573,-2.148538,-0.5221444,-0.02002781
379.2255,0.04500319,-0.3270011,0.4542706,-2.148533,-0.5222449,-0.02002776
379.2402,0.04500319,-0.3270011,0.4543825,-2.148528,-0.5223432,-0.02002771
379.2549,0.04500319,-0.3270011,0.4543825,-2.148528,-0.5223432,-0.02002771
379.269,0.04500319,-0.3270011,0.4544931,-2.148522,-0.5224392,-0.02002767
379.2845,0.04500319,-0.3270011,0.4546025,-2.148517,-0.5225331,-0.02002762
379.2994,0.04500319,-0.3270011,0.4546025,-2.148517,-0.5225331,-0.02002762
379.3131,0.04500319,-0.3270011,0.4547106,-2.148512,-0.5226249,-0.02002757
379.3306,0.04500319,-0.3270011,0.4548174,-2.148507,-0.5227145,-0.02002752
379.3442,0.04500319,-0.3270011,0.454923,-2.148501,-0.5228021,-0.02002747
379.3578,0.04500319,-0.3270011,0.454923,-2.148501,-0.5228021,-0.02002747
379.372,0.04500319,-0.3270011,0.4550273,-2.148496,-0.5228877,-0.02002743
379.3871,0.04500319,-0.3270011,0.4551304,-2.148491,-0.5229713,-0.02002738
379.4019,0.04500319,-0.3270011,0.4552323,-2.148486,-0.5230531,-0.02002733
379.4167,0.04500319,-0.3270011,0.4552323,-2.148486,-0.5230531,-0.02002733
379.4308,0.04500319,-0.3270011,0.455333,-2.148481,-0.5231329,-0.02002729
379.446,0.04500319,-0.3270011,0.4554325,-2.148476,-0.5232109,-0.02002725
379.4614,0.04500319,-0.3270011,0.4555309,-2.148471,-0.5232872,-0.02002721
379.4759,0.04500319,-0.3270011,0.4555309,-2.148471,-0.5232872,-0.02002721
379.49,0.04500319,-0.3270011,0.455628,-2.148466,-0.5233617,-0.02002716
379.5055,0.04500319,-0.3270011,0.455724,-2.148461,-0.5234345,-0.02002712
379.52,0.04500319,-0.3270011,0.4558189,-2.148456,-0.5235056,-0.02002707
379.5349,0.04500319,-0.3270011,0.4558189,-2.148456,-0.5235056,-0.02002707
379.549,0.04500319,-0.3270011,0.4559126,-2.148451,-0.523575,-0.02002703
379.5643,0.04500319,-0.3270011,0.4560052,-2.148446,-0.5236428,-0.02002698
379.581,0.04500319,-0.3270011,0.4560967,-2.148441,-0.5237091,-0.02002694
379.5946,0.04500319,-0.3270011,0.4560967,-2.148441,-0.5237091,-0.02002694
379.6088,0.04500319,-0.3270011,0.4561871,-2.148436,-0.5237738,-0.0200269
379.6231,0.04500319,-0.3270011,0.4562764,-2.148431,-0.5238371,-0.02002686
379.638,0.04500319,-0.3270011,0.4562764,-2.148431,-0.5238371,-0.02002686
379.6518,0.04500319,-0.3270011,0.4563646,-2.148426,-0.5238988,-0.02002681
379.6674,0.04500319,-0.3270011,0.4564517,-2.148422,-0.5239592,-0.02002677
379.6818,0.04500319,-0.3270011,0.4565378,-2.148417,-0.524018,-0.02002672
379.6967,0.04500319,-0.3270011,0.4565378,-2.148417,-0.524018,-0.02002672
379.7108,0.04500319,-0.3270011,0.4566229,-2.148412,-0.5240756,-0.02002668
379.7262,0.04500319,-0.3270011,0.4567069,-2.148407,-0.5241318,-0.02002663
379.741,0.04500319,-0.3270011,0.4567899,-2.148402,-0.5241867,-0.02002659
379.7559,0.04500319,-0.3270011,0.4567899,-2.148402,-0.5241867,-0.02002659
379.77,0.04500319,-0.3270011,0.4568719,-2.148398,-0.5242403,-0.02002655
379.7854,0.04500319,-0.3270011,0.4569528,-2.148393,-0.5242926,-0.0200265
379.8002,0.04500319,-0.3270011,0.4570328,-2.148388,-0.5243437,-0.02002646
379.8148,0.04500319,-0.3270011,0.4570328,-2.148388,-0.5243437,-0.02002646
379.8288,0.04500319,-0.3270011,0.4571118,-2.148384,-0.5243936,-0.02002642
379.8452,0.04500319,-0.3270011,0.4571898,-2.148379,-0.5244423,-0.02002638
379.8589,0.04500319,-0.3270011,0.4571898,-2.148379,-0.5244423,-0.02002638
379.873,0.04500319,-0.3270011,0.4572668,-2.148375,-0.5244898,-0.02002634
379.8888,0.04500319,-0.3270011,0.4573429,-2.14837,-0.5245363,-0.0200263
379.9031,0.04500319,-0.3270011,0.4574181,-2.148366,-0.5245816,-0.02002626
379.9177,0.04500319,-0.3270011,0.4574181,-2.148366,-0.5245816,-0.02002626
379.9318,0.04500319,-0.3270011,0.4574923,-2.148361,-0.5246258,-0.02002622
379.948,0.04500318,-0.3270011,0.4566588,-2.148383,-0.5269246,-0.02002537
379.962,0.04500318,-0.3270011,0.4559548,-2.148421,-0.529585,-0.0200259
379.9768,0.04500318,-0.3270011,0.4559548,-2.148421,-0.529585,-0.0200259
379.9911,0.04500317,-0.3270011,0.4554559,-2.148461,-0.5321842,-0.02002637
380.0066,0.04500317,-0.3270011,0.4550825,-2.148497,-0.5346898,-0.02002669
380.0216,0.04500317,-0.3270011,0.4556829,-2.148501,-0.5348654,-0.02002772
380.0362,0.04500317,-0.3270011,0.4556829,-2.148501,-0.5348654,-0.02002772
380.05,0.04500318,-0.3270011,0.4561909,-2.148484,-0.5346154,-0.02002733
380.0655,0.04500318,-0.3270011,0.4565152,-2.148463,-0.5343717,-0.02002697
380.0823,0.04500318,-0.3270011,0.4567284,-2.148444,-0.5341719,-0.02002676
380.0959,0.04500318,-0.3270011,0.4567284,-2.148444,-0.5341719,-0.02002676
380.1098,0.04500319,-0.3270011,0.4577924,-2.148404,-0.5317472,-0.02002746
380.1243,0.04500319,-0.3270011,0.4587001,-2.148348,-0.5289744,-0.02002682
380.1391,0.04500319,-0.3270011,0.4587001,-2.148348,-0.5289744,-0.02002682
380.153,0.0450032,-0.3270011,0.4593882,-2.148291,-0.5262699,-0.02002625
380.1687,0.04500321,-0.3270011,0.4608492,-2.148216,-0.521408,-0.02002666
380.1832,0.04500322,-0.3270011,0.4621069,-2.148125,-0.5162619,-0.02002579
380.1979,0.04500322,-0.3270011,0.4621069,-2.148125,-0.5162619,-0.02002579
380.2121,0.04500322,-0.3270011,0.4631169,-2.148037,-0.5112394,-0.02002504
380.2276,0.04500323,-0.3270011,0.4639741,-2.147957,-0.5063646,-0.02002445
380.2424,0.04500324,-0.327001,0.4656508,-2.14786,-0.4993558,-0.02002477
380.2572,0.04500324,-0.327001,0.4656508,-2.14786,-0.4993558,-0.02002477
380.2712,0.04500325,-0.327001,0.4671408,-2.147748,-0.4920948,-0.02002378
380.287,0.04500326,-0.327001,0.4683858,-2.147637,-0.4849934,-0.02002287
380.3017,0.04500327,-0.327001,0.4694743,-2.147535,-0.4780776,-0.02002214
380.3162,0.04500327,-0.327001,0.4694743,-2.147535,-0.4780776,-0.02002214
380.3323,0.04500328,-0.327001,0.4713751,-2.147416,-0.4690611,-0.02002227
380.3465,0.04500329,-0.3270009,0.4730775,-2.147282,-0.4598351,-0.02002113
380.3603,0.04500331,-0.3270009,0.4745251,-2.147151,-0.4508089,-0.02002008
380.3748,0.04500331,-0.3270009,0.4745251,-2.147151,-0.4508089,-0.02002008
380.3889,0.04500332,-0.3270009,0.4767142,-2.147005,-0.4397365,-0.02001994
380.4043,0.04500334,-0.3270009,0.4786606,-2.146846,-0.4285126,-0.02001861
380.4193,0.04500334,-0.3270009,0.4786606,-2.146846,-0.4285126,-0.02001861
380.4381,0.04500335,-0.3270008,0.4803276,-2.146692,-0.4175366,-0.02001741
380.4485,0.04500336,-0.3270008,0.4818136,-2.14655,-0.4068269,-0.02001639
380.4633,0.04500338,-0.3270008,0.4840921,-2.146397,-0.3940802,-0.02001616
380.4782,0.04500338,-0.3270008,0.4840921,-2.146397,-0.3940802,-0.02001616
380.4926,0.0450034,-0.3270007,0.4861457,-2.146231,-0.3812074,-0.02001479
380.5079,0.04500341,-0.3270007,0.4879258,-2.146071,-0.3686107,-0.02001353
380.5224,0.04500343,-0.3270007,0.4895249,-2.145923,-0.3563095,-0.02001243
380.5376,0.04500343,-0.3270007,0.4895249,-2.145923,-0.3563095,-0.02001243
380.5515,0.04500344,-0.3270006,0.4919132,-2.145766,-0.3419934,-0.02001207
380.567,0.04500346,-0.3270006,0.4940668,-2.145598,-0.3275875,-0.02001066
380.5836,0.04500348,-0.3270006,0.4959407,-2.145437,-0.3134904,-0.02000937
380.5973,0.04500348,-0.3270006,0.4959407,-2.145437,-0.3134904,-0.02000937
380.6115,0.0450035,-0.3270006,0.4985357,-2.14527,-0.2974267,-0.02000882
380.6258,0.04500352,-0.3270005,0.5008548,-2.145096,-0.2813263,-0.02000738
380.6406,0.04500354,-0.3270005,0.5028729,-2.144932,-0.2655773,-0.0200061
380.6552,0.04500354,-0.3270005,0.5028729,-2.144932,-0.2655773,-0.0200061
380.6693,0.04500355,-0.3270005,0.5046932,-2.144784,-0.2501905,-0.02000499
380.6848,0.04500357,-0.3270004,0.5072894,-2.144634,-0.2328368,-0.02000447
380.6994,0.04500357,-0.3270004,0.5072894,-2.144634,-0.2328368,-0.02000447
380.7157,0.0450036,-0.3270004,0.5096307,-2.144479,-0.2154651,-0.0200032
380.729,0.04500362,-0.3270004,0.5116803,-2.144336,-0.1984659,-0.02000208
380.7437,0.04500363,-0.3270003,0.5135354,-2.144208,-0.1818512,-0.02000113
380.7586,0.04500363,-0.3270003,0.5135354,-2.144208,-0.1818512,-0.02000113
380.7729,0.04500366,-0.3270003,0.5161666,-2.144082,-0.1632858,-0.02000065
380.7881,0.04500368,-0.3270003,0.5185373,-2.143955,-0.1447315,-0.01999965
380.8029,0.0450037,-0.3270003,0.5206141,-2.14384,-0.1265753,-0.01999879
380.8176,0.0450037,-0.3270003,0.5206141,-2.14384,-0.1265753,-0.01999879
380.8338,0.04500373,-0.3270002,0.5234016,-2.14373,-0.106515,-0.01999836
380.848,0.04500375,-0.3270002,0.5258926,-2.143623,-0.08651283,-0.01999761
380.8615,0.04500378,-0.3270002,0.5280723,-2.143531,-0.06694577,-0.01999702
380.8764,0.04500378,-0.3270002,0.5280723,-2.143531,-0.06694577,-0.01999702
380.8981,0.0450038,-0.3270001,0.5300475,-2.143459,-0.04781805,-0.0199966
380.906,0.04500383,-0.3270001,0.5327912,-2.143396,-0.02678284,-0.01999643
380.9208,0.04500385,-0.3270001,0.5352646,-2.143339,-0.005815417,-0.0199962
380.936,0.04500385,-0.3270001,0.5352646,-2.143339,-0.005815417,-0.0199962
380.9502,0.04500388,-0.3270001,0.5374393,-2.143298,0.01470274,-0.01999612
380.9658,0.0450039,-0.327,0.5394154,-2.143277,0.03476512,-0.01999618
380.9807,0.04500393,-0.327,0.5421623,-2.143268,0.05671846,-0.01999633
380.9953,0.04500393,-0.327,0.5421623,-2.143268,0.05671846,-0.01999633
381.0097,0.04500395,-0.327,0.5446399,-2.143269,0.07858482,-0.0199967
381.0252,0.04500398,-0.3269999,0.5468202,-2.143286,0.09998369,-0.01999722
381.0401,0.045004,-0.3269999,0.5488029,-2.143322,0.1209091,-0.01999784
381.0548,0.045004,-0.3269999,0.5488029,-2.143322,0.1209091,-0.01999784
381.0709,0.04500403,-0.3269999,0.5515566,-2.143375,0.1437059,-0.01999838
381.0842,0.04500405,-0.3269998,0.5540435,-2.14344,0.1663999,-0.01999942
381.0991,0.04500405,-0.3269998,0.5540435,-2.14344,0.1663999,-0.01999942
381.1129,0.04500408,-0.3269998,0.5562347,-2.143522,0.1886104,-0.02000057
381.1344,0.04500411,-0.3269998,0.5591337,-2.143624,0.2126421,-0.02000149
381.1431,0.04500414,-0.3269998,0.5617375,-2.143739,0.236535,-0.02000309
381.1581,0.04500414,-0.3269998,0.5617375,-2.143739,0.236535,-0.02000309
381.1724,0.04500417,-0.3269997,0.5640316,-2.143873,0.2599151,-0.02000477
381.1879,0.0450042,-0.3269997,0.5661213,-2.144023,0.2827793,-0.02000647
381.203,0.04500423,-0.3269997,0.5689774,-2.144196,0.307462,-0.02000779
381.2178,0.04500423,-0.3269997,0.5689774,-2.144196,0.307462,-0.02000779
381.2318,0.04500426,-0.3269996,0.5715734,-2.144385,0.3320119,-0.02001003
381.2473,0.04500429,-0.3269996,0.5738747,-2.144591,0.3560448,-0.02001231
381.2621,0.04500431,-0.3269996,0.5759775,-2.144811,0.3795523,-0.02001455
381.2771,0.04500431,-0.3269996,0.5759775,-2.144811,0.3795523,-0.02001455
381.2932,0.04500434,-0.3269995,0.5779451,-2.145045,0.4025646,-0.0200168
381.3068,0.04500436,-0.3269995,0.5798095,-2.145292,0.4251053,-0.02001906
381.3211,0.04500438,-0.3269995,0.5815866,-2.145551,0.4471907,-0.02002135
381.3363,0.04500438,-0.3269995,0.5815866,-2.145551,0.4471907,-0.02002135
381.3504,0.0450044,-0.3269995,0.5823814,-2.145809,0.4665542,-0.02002432
381.3659,0.04500441,-0.3269995,0.5832428,-2.146069,0.4851417,-0.02002611
381.3805,0.04500443,-0.3269994,0.5842365,-2.146334,0.5033727,-0.02002796
381.3954,0.04500443,-0.3269994,0.5842365,-2.146334,0.5033727,-0.02002796
381.4097,0.04500445,-0.3269994,0.5852818,-2.146608,0.5212823,-0.02002995
381.4253,0.04500446,-0.3269994,0.5854203,-2.146876,0.5365947,-0.02003274
381.4402,0.04500447,-0.3269994,0.5856601,-2.147137,0.5512161,-0.02003428
381.4548,0.04500447,-0.3269994,0.5856601,-2.147137,0.5512161,-0.02003428
381.4691,0.04500448,-0.3269994,0.5860587,-2.147399,0.5655625,-0.02003587
381.4847,0.04500449,-0.3269994,0.5865309,-2.147667,0.5796673,-0.02003759
381.4995,0.04500449,-0.3269994,0.5865309,-2.147667,0.5796673,-0.02003759
381.5133,0.04500449,-0.3269994,0.5861154,-2.147923,0.5912637,-0.02004014
381.5297,0.0450045,-0.3269994,0.5858114,-2.148167,0.6022356,-0.02004138
381.5436,0.04500451,-0.3269994,0.5856808,-2.148409,0.6130021,-0.02004267
381.5581,0.04500451,-0.3269994,0.5856808,-2.148409,0.6130021,-0.02004267
381.5726,0.04500451,-0.3269994,0.5847376,-2.148638,0.6213505,-0.02004487
381.5878,0.04500451,-0.3269994,0.5839472,-2.14885,0.6291477,-0.02004581
381.6027,0.04500452,-0.3269994,0.5833584,-2.14906,0.6368077,-0.02004681
381.6181,0.04500452,-0.3269994,0.5833584,-2.14906,0.6368077,-0.02004681
381.6318,0.04500452,-0.3269994,0.5828799,-2.149272,0.6443616,-0.02004795
381.6473,0.04500452,-0.3269994,0.5815461,-2.149471,0.6495532,-0.02004995
381.6619,0.04500452,-0.3269994,0.5803452,-2.14965,0.6542379,-0.02005064
381.6769,0.04500452,-0.3269994,0.5803452,-2.14965,0.6542379,-0.02005064
381.6914,0.04500452,-0.3269994,0.579345,-2.149824,0.6588379,-0.02005138
381.7065,0.04500452,-0.3269994,0.5784628,-2.15,0.6633884,-0.02005224
381.7214,0.04500451,-0.3269994,0.576736,-2.15016,0.6656393,-0.02005396
381.7361,0.04500451,-0.3269994,0.576736,-2.15016,0.6656393,-0.02005396
381.7503,0.04500451,-0.3269994,0.5751517,-2.150299,0.6674373,-0.02005438
381.7669,0.0450045,-0.3269994,0.5737804,-2.150432,0.6692055,-0.02005484
381.7804,0.0450045,-0.3269994,0.5725402,-2.150566,0.6709798,-0.02005544
381.795,0.0450045,-0.3269994,0.5725402,-2.150566,0.6709798,-0.02005544
381.8094,0.04500449,-0.3269994,0.5704679,-2.150686,0.6705118,-0.0200569
381.8305,0.04500448,-0.3269994,0.5685496,-2.150782,0.6696423,-0.02005707
381.8396,0.04500448,-0.3269994,0.5685496,-2.150782,0.6696423,-0.02005707
381.8536,0.04500447,-0.3269994,0.5668566,-2.150872,0.6687949,-0.02005728
381.8694,0.04500446,-0.3269995,0.5644038,-2.150948,0.6657728,-0.02005843
381.884,0.04500445,-0.3269995,0.5621493,-2.151,0.6624126,-0.02005833
381.8988,0.04500445,-0.3269995,0.5621493,-2.151,0.6624126,-0.02005833
381.913,0.04500444,-0.3269995,0.5601478,-2.151047,0.6591311,-0.02005831
381.9285,0.04500443,-0.3269995,0.5583085,-2.151098,0.6559585,-0.02005844
381.9434,0.04500442,-0.3269995,0.5556628,-2.151136,0.6506414,-0.02005944
381.9581,0.04500442,-0.3269995,0.5556628,-2.151136,0.6506414,-0.02005944
381.9723,0.0450044,-0.3269995,0.5531968,-2.15115,0.6450194,-0.02005915
381.9875,0.04500439,-0.3269996,0.5509802,-2.151159,0.6395138,-0.02005892
382.0033,0.04500438,-0.3269996,0.5489294,-2.151171,0.6341575,-0.02005882
382.0172,0.04500438,-0.3269996,0.5489294,-2.151171,0.6341575,-0.02005882
382.0311,0.04500436,-0.3269996,0.5460784,-2.151171,0.6266946,-0.0200596
382.0466,0.04500435,-0.3269996,0.5434182,-2.151146,0.6189704,-0.02005909
382.0613,0.04500433,-0.3269997,0.541017,-2.151116,0.6114047,-0.02005863
382.0762,0.04500433,-0.3269997,0.541017,-2.151116,0.6114047,-0.02005863
382.0905,0.04500431,-0.3269997,0.5378859,-2.151074,0.6017879,-0.0200591
382.106,0.04500429,-0.3269997,0.5349901,-2.151009,0.5919683,-0.02005833
382.1205,0.04500428,-0.3269998,0.5323793,-2.15094,0.5823572,-0.02005764
382.1356,0.04500428,-0.3269998,0.5323793,-2.15094,0.5823572,-0.02005764
382.1498,0.04500426,-0.3269998,0.5299599,-2.150877,0.5729804,-0.02005711
382.1651,0.04500424,-0.3269998,0.5267599,-2.150807,0.561567,-0.02005743
382.18,0.04500424,-0.3269998,0.5267599,-2.150807,0.561567,-0.02005743
382.194,0.04500422,-0.3269998,0.5237768,-2.150712,0.5499778,-0.02005648
382.2094,0.04500421,-0.3269999,0.5210728,-2.150615,0.5386271,-0.02005559
382.2242,0.04500419,-0.3269999,0.5185605,-2.150524,0.5275421,-0.02005485
382.2401,0.04500417,-0.3269999,0.5152705,-2.150426,0.5144446,-0.02005495
382.2538,0.04500417,-0.3269999,0.5152705,-2.150426,0.5144446,-0.02005495
382.268,0.04500415,-0.327,0.5122078,-2.150306,0.5012094,-0.02005379
382.2832,0.04500413,-0.327,0.5094314,-2.150183,0.4882475,-0.02005271
382.298,0.04500413,-0.327,0.5094314,-2.150183,0.4882475,-0.02005271
382.3122,0.04500411,-0.327,0.5059454,-2.150054,0.4733209,-0.02005249
382.3275,0.04500408,-0.3270001,0.50273,-2.149905,0.4583112,-0.02005112
382.3424,0.04500407,-0.3270001,0.4998241,-2.149756,0.4436193,-0.02004985
382.3573,0.04500407,-0.3270001,0.4998241,-2.149756,0.4436193,-0.02004985
382.3717,0.04500405,-0.3270001,0.4971289,-2.149617,0.4292637,-0.02004874
382.387,0.04500402,-0.3270001,0.4936696,-2.149478,0.4129456,-0.02004838
382.4017,0.045004,-0.3270002,0.4904611,-2.149319,0.3965659,-0.02004691
382.4168,0.045004,-0.3270002,0.4904611,-2.149319,0.3965659,-0.02004691
382.4306,0.04500398,-0.3270002,0.4875536,-2.149162,0.3805275,-0.02004554
382.4461,0.04500396,-0.3270002,0.4848538,-2.149014,0.3648496,-0.02004431
382.4608,0.04500394,-0.3270003,0.4813896,-2.14887,0.3472247,-0.02004374
382.4767,0.04500394,-0.3270003,0.4813896,-2.14887,0.3472247,-0.02004374
382.4909,0.04500391,-0.3270003,0.4781844,-2.148708,0.3295705,-0.02004221
382.5052,0.04500389,-0.3270003,0.4752839,-2.148549,0.3122861,-0.02004078
382.5198,0.04500389,-0.3270003,0.4752839,-2.148549,0.3122861,-0.02004078
382.5354,0.04500387,-0.3270003,0.4725932,-2.148401,0.2953879,-0.02003951
382.5496,0.04500385,-0.3270004,0.470048,-2.148266,0.2788494,-0.02003832
382.5643,0.04500384,-0.3270004,0.4676149,-2.148143,0.2626497,-0.02003719
382.5792,0.04500384,-0.3270004,0.4676149,-2.148143,0.2626497,-0.02003719
382.5933,0.04500382,-0.3270004,0.4652772,-2.148029,0.2467753,-0.02003611
382.6091,0.0450038,-0.3270005,0.4630264,-2.147924,0.2312168,-0.02003506
382.6253,0.04500378,-0.3270005,0.4608573,-2.147828,0.2159667,-0.02003404
382.643,0.04500376,-0.3270005,0.4587665,-2.147738,0.2010185,-0.02003305
382.6532,0.04500376,-0.3270005,0.4587665,-2.147738,0.2010185,-0.02003305
382.6675,0.04500375,-0.3270006,0.456751,-2.147656,0.1863661,-0.0200321
382.6832,0.04500373,-0.3270006,0.4548086,-2.14758,0.1720038,-0.02003118
382.6976,0.04500373,-0.3270006,0.4548086,-2.14758,0.1720038,-0.02003118
382.7127,0.04500372,-0.3270006,0.4529369,-2.14751,0.1579258,-0.0200303
382.7275,0.0450037,-0.3270006,0.4511337,-2.147446,0.1441268,-0.02002946
382.742,0.04500369,-0.3270007,0.449397,-2.147388,0.1306013,-0.02002865
382.7568,0.04500369,-0.3270007,0.449397,-2.147388,0.1306013,-0.02002865
382.7709,0.04500367,-0.3270007,0.4477248,-2.147335,0.117344,-0.02002787
382.7865,0.04500366,-0.3270007,0.4461152,-2.147287,0.1043497,-0.02002713
382.801,0.04500365,-0.3270008,0.4445662,-2.147245,0.09161331,-0.02002644
382.816,0.04500365,-0.3270008,0.4445662,-2.147245,0.09161331,-0.02002644
382.8302,0.04500363,-0.3270008,0.4430763,-2.147207,0.07912984,-0.02002578
382.8456,0.04500362,-0.3270008,0.4416434,-2.147173,0.06689437,-0.02002515
382.8604,0.04500361,-0.3270009,0.4402661,-2.147144,0.05490206,-0.02002456
382.8752,0.04500361,-0.3270009,0.4402661,-2.147144,0.05490206,-0.02002456
382.8896,0.0450036,-0.3270009,0.4389427,-2.147119,0.04314818,-0.020024
382.905,0.04500359,-0.3270009,0.4376715,-2.147097,0.03162808,-0.02002348
382.9197,0.04500359,-0.3270009,0.4376715,-2.147097,0.03162808,-0.02002348
382.9359,0.04500357,-0.3270009,0.4364512,-2.147079,0.02033719,-0.02002299
382.9504,0.04500356,-0.327001,0.4352801,-2.147065,0.009271037,-0.02002253
382.964,0.04500355,-0.327001,0.4341568,-2.147054,-0.001574774,-0.02002211
382.9787,0.04500355,-0.327001,0.4341568,-2.147054,-0.001574774,-0.02002211
382.9926,0.04500354,-0.327001,0.43308,-2.147046,-0.01220456,-0.02002172
383.0083,0.04500353,-0.3270011,0.4320484,-2.147041,-0.02262256,-0.02002135
383.0231,0.04500352,-0.3270011,0.4310605,-2.147039,-0.03283291,-0.02002102
383.038,0.04500352,-0.3270011,0.4310605,-2.147039,-0.03283291,-0.02002102
383.0528,0.04500351,-0.3270011,0.4301152,-2.147039,-0.04283968,-0.02002071
383.0678,0.0450035,-0.3270011,0.4292112,-2.147042,-0.05264688,-0.02002043
383.0826,0.04500348,-0.3270011,0.4283473,-2.147047,-0.06225843,-0.02002018
383.0977,0.04500348,-0.3270011,0.4283473,-2.147047,-0.06225843,-0.02002018
383.1116,0.04500347,-0.3270011,0.4275224,-2.147054,-0.07167817,-0.02001995
383.1288,0.04500347,-0.3270011,0.4267353,-2.147064,-0.08090987,-0.02001975
383.1423,0.04500346,-0.3270011,0.425985,-2.147075,-0.08995724,-0.02001957
383.1567,0.04500346,-0.3270011,0.425985,-2.147075,-0.08995724,-0.02001957
383.1731,0.04500345,-0.3270011,0.4252703,-2.147088,-0.09882389,-0.02001941
383.1865,0.04500344,-0.3270011,0.4245903,-2.147102,-0.1075134,-0.02001928
383.2012,0.04500344,-0.3270011,0.4239439,-2.147118,-0.1160293,-0.02001917
383.2161,0.04500344,-0.3270011,0.4239439,-2.147118,-0.1160293,-0.02001917
383.2302,0.04500343,-0.3270011,0.4233302,-2.147136,-0.1243749,-0.02001908
383.2455,0.04500342,-0.3270011,0.4227483,-2.147154,-0.1325536,-0.02001901
383.2605,0.04500341,-0.3270011,0.4221971,-2.147174,-0.1405688,-0.02001895
383.2755,0.04500341,-0.3270011,0.4221971,-2.147174,-0.1405688,-0.02001895
383.2898,0.04500341,-0.3270011,0.4216758,-2.147195,-0.1484236,-0.02001892
383.3053,0.0450034,-0.3270011,0.4211836,-2.147217,-0.1561212,-0.02001889
383.32,0.0450034,-0.3270011,0.4211836,-2.147217,-0.1561212,-0.02001889
383.3341,0.04500339,-0.3270011,0.4207196,-2.14724,-0.1636648,-0.02001889
383.3496,0.04500338,-0.3270011,0.4202829,-2.147264,-0.1710573,-0.0200189
383.3647,0.04500338,-0.3270011,0.4198728,-2.147289,-0.1783018,-0.02001893
383.3792,0.04500338,-0.3270011,0.4198728,-2.147289,-0.1783018,-0.02001893
383.3953,0.04500337,-0.3270011,0.4194885,-2.147314,-0.1854011,-0.02001897
383.4097,0.04500336,-0.3270011,0.4191292,-2.14734,-0.1923582,-0.02001902
383.4236,0.04500335,-0.3270011,0.4187942,-2.147366,-0.1991759,-0.02001908
383.4382,0.04500335,-0.3270011,0.4187942,-2.147366,-0.1991759,-0.02001908
383.4522,0.04500335,-0.3270011,0.4184827,-2.147393,-0.2058568,-0.02001915
383.4679,0.04500334,-0.3270011,0.4181941,-2.147421,-0.2124038,-0.02001924
383.4825,0.04500333,-0.3270011,0.4179276,-2.147448,-0.2188195,-0.02001934
383.4974,0.04500333,-0.3270011,0.4179276,-2.147448,-0.2188195,-0.02001934
383.5116,0.04500332,-0.3270011,0.4176827,-2.147476,-0.2251065,-0.02001944
383.5273,0.04500332,-0.3270011,0.4174586,-2.147505,-0.2312673,-0.02001956
383.542,0.04500331,-0.3270011,0.4172547,-2.147533,-0.2373045,-0.02001968
383.5569,0.04500331,-0.3270011,0.4172547,-2.147533,-0.2373045,-0.02001968
383.571,0.04500331,-0.3270011,0.4170704,-2.147562,-0.2432204,-0.02001981
383.5865,0.04500331,-0.3270011,0.4169052,-2.147591,-0.2490176,-0.02001994
383.6012,0.0450033,-0.3270011,0.4167584,-2.14762,-0.2546982,-0.02002009
383.6159,0.0450033,-0.3270011,0.4167584,-2.14762,-0.2546982,-0.02002009
383.6322,0.0450033,-0.3270011,0.4166294,-2.147649,-0.2602648,-0.02002024
383.6466,0.04500329,-0.3270011,0.4165177,-2.147677,-0.2657194,-0.02002039
383.6601,0.04500329,-0.3270011,0.4164227,-2.147706,-0.2710644,-0.02002056
383.6748,0.04500329,-0.3270011,0.4164227,-2.147706,-0.2710644,-0.02002056
383.6891,0.04500329,-0.3270011,0.416344,-2.147735,-0.2763019,-0.02002072
383.7046,0.04500328,-0.3270011,0.416281,-2.147764,-0.2814341,-0.02002089
383.7193,0.04500328,-0.3270011,0.416281,-2.147764,-0.2814341,-0.02002089
383.7333,0.04500328,-0.3270011,0.4162332,-2.147792,-0.286463,-0.02002106
383.749,0.04500328,-0.3270011,0.4162,-2.147821,-0.2913907,-0.02002124
383.7639,0.04500327,-0.3270011,0.4161812,-2.147849,-0.2962192,-0.02002142
383.7786,0.04500327,-0.3270011,0.4161812,-2.147849,-0.2962192,-0.02002142
383.7927,0.04500327,-0.3270011,0.4161761,-2.147877,-0.3009505,-0.0200216
383.8084,0.04500327,-0.3270011,0.4161844,-2.147905,-0.3055865,-0.02002179
383.823,0.04500326,-0.3270011,0.4162055,-2.147933,-0.310129,-0.02002198
383.8379,0.04500326,-0.3270011,0.4162055,-2.147933,-0.310129,-0.02002198
383.852,0.04500326,-0.3270011,0.4162391,-2.14796,-0.3145801,-0.02002216
383.8686,0.04500325,-0.3270011,0.4162847,-2.147987,-0.3189414,-0.02002235
383.8821,0.04500325,-0.3270011,0.416342,-2.148014,-0.3232148,-0.02002254
383.8968,0.04500325,-0.3270011,0.416342,-2.148014,-0.3232148,-0.02002254
383.9108,0.04500325,-0.3270011,0.4164104,-2.148041,-0.327402,-0.02002273
383.9261,0.04500324,-0.3270011,0.4164897,-2.148067,-0.3315047,-0.02002292
383.941,0.04500324,-0.3270011,0.4165795,-2.148093,-0.3355246,-0.02002312
383.956,0.04500324,-0.3270011,0.4165795,-2.148093,-0.3355246,-0.02002312
383.9701,0.04500324,-0.3270011,0.4166793,-2.148118,-0.3394634,-0.02002331
383.9855,0.04500323,-0.3270011,0.4167889,-2.148143,-0.3433226,-0.0200235
384.0007,0.04500323,-0.3270011,0.4169079,-2.148168,-0.3471039,-0.02002369
384.0154,0.04500323,-0.3270011,0.4169079,-2.148168,-0.3471039,-0.02002369
384.0294,0.04500322,-0.3270011,0.4170359,-2.148192,-0.3508088,-0.02002388
384.0448,0.04500322,-0.3270011,0.4171726,-2.148216,-0.3544388,-0.02002406
384.0597,0.04500322,-0.3270011,0.4171726,-2.148216,-0.3544388,-0.02002406
384.0737,0.04500322,-0.3270011,0.4173177,-2.14824,-0.3579954,-0.02002425
384.0895,0.04500321,-0.3270011,0.4174708,-2.148263,-0.3614801,-0.02002444
384.106,0.04500321,-0.3270011,0.4176317,-2.148286,-0.3648943,-0.02002463
384.1197,0.04500321,-0.3270011,0.4176317,-2.148286,-0.3648943,-0.02002463
384.1339,0.04500321,-0.3270011,0.4178001,-2.148308,-0.3682394,-0.02002481
384.1481,0.0450032,-0.3270011,0.4179756,-2.14833,-0.3715168,-0.02002499
384.1628,0.0450032,-0.3270011,0.4181581,-2.148352,-0.3747278,-0.02002517
384.1776,0.0450032,-0.3270011,0.4181581,-2.148352,-0.3747278,-0.02002517
384.1916,0.04500319,-0.3270011,0.4183471,-2.148373,-0.3778738,-0.02002535
384.2072,0.04500319,-0.3270011,0.4185424,-2.148394,-0.380956,-0.02002553
384.2219,0.04500319,-0.3270011,0.4187439,-2.148414,-0.3839758,-0.0200257
384.2368,0.04500319,-0.3270011,0.4187439,-2.148414,-0.3839758,-0.0200257
384.2508,0.04500318,-0.3270011,0.4189511,-2.148434,-0.3869343,-0.02002587
384.2662,0.04500318,-0.3270011,0.4191639,-2.148453,-0.3898329,-0.02002604
384.281,0.04500318,-0.3270011,0.4193821,-2.148473,-0.3926726,-0.02002621
384.2958,0.04500318,-0.3270011,0.4193821,-2.148473,-0.3926726,-0.02002621
384.31,0.04500317,-0.3270011,0.4196053,-2.148491,-0.3954547,-0.02002638
384.3253,0.04500317,-0.3270011,0.4198334,-2.148509,-0.3981803,-0.02002654
384.3402,0.04500317,-0.3270011,0.4200661,-2.148527,-0.4008506,-0.0200267
