JMolnar6/NonAnthroHands_User_Study/HandsLoggerWithURDF/tempdata/PID 0 (test)/files/Reachy_PID0_JointMotion_gesture_4_17.csv
Time,r_shoulder,r_shoulder_x,r_upper_arm,r_forearm,r_wrist,r_wrist2hand,
211.2831,0.04500165,-2.51977E-08,NaN,-0.3269991,-1.369935E-07,NaN,0.4717678,1.351139E-08,NaN,-0.5210789,6.769357E-06,-0.3840801,-8.983001E-09,NaN,NaN,-0.01997125,-3.213069E-10,1.651367E-07,-1.146813E-07,-2.843573E-08,-2.861022E-08
211.2979,0.04500165,-2.51977E-08,NaN,-0.3269991,-1.369935E-07,NaN,0.4717678,1.351139E-08,NaN,-0.5210789,6.769357E-06,-0.3840801,-8.983001E-09,NaN,NaN,-0.01997125,-3.213069E-10,1.651367E-07,-1.146813E-07,-2.843573E-08,-2.861022E-08
211.3113,0.04500166,-2.51966E-08,NaN,-0.3269991,-1.369937E-07,NaN,0.4719046,1.356071E-08,NaN,-0.5222487,6.770033E-06,-0.3842659,-9.030047E-09,NaN,NaN,-0.01997489,-3.259635E-10,1.354834E-07,-1.146802E-07,-2.366736E-08,-2.622604E-08
211.3267,0.04500167,-2.519549E-08,NaN,-0.3269991,-1.36994E-07,NaN,0.4720301,1.36092E-08,NaN,-0.5241179,6.770703E-06,-0.384466,-9.076263E-09,NaN,NaN,-0.01997693,-3.259635E-10,1.187941E-07,-1.146791E-07,-2.366736E-08,-2.861022E-08
211.3414,0.04500168,-2.519438E-08,NaN,-0.3269991,-1.369943E-07,NaN,0.4721112,1.365687E-08,NaN,-0.5263014,6.771379E-06,-0.3846275,-9.121667E-09,NaN,NaN,-0.0199783,-3.306201E-10,1.070222E-07,-1.146781E-07,-2.366736E-08,-2.622604E-08
211.3559,0.04500168,-2.519438E-08,NaN,-0.3269991,-1.369943E-07,NaN,0.4721112,1.365687E-08,NaN,-0.5263014,6.771379E-06,-0.3846275,-9.121667E-09,NaN,NaN,-0.0199783,-3.306201E-10,1.070222E-07,-1.146781E-07,-2.366736E-08,-2.622604E-08
211.3701,0.04500168,-2.519327E-08,NaN,-0.3269991,-1.369946E-07,NaN,0.4720106,1.370517E-08,NaN,-0.5273821,6.772049E-06,-0.3845526,-9.16769E-09,NaN,NaN,-0.01997576,-3.306201E-10,1.266917E-07,-1.14677E-07,-2.366736E-08,-2.861022E-08
211.3856,0.04500167,-2.519216E-08,NaN,-0.3269991,-1.369948E-07,NaN,0.471902,1.375265E-08,NaN,-0.5278072,6.77272E-06,-0.3844375,-9.212899E-09,NaN,NaN,-0.01997466,-3.306201E-10,1.351854E-07,-1.14676E-07,-2.128318E-08,-2.622604E-08
211.4018,0.04500167,-2.519105E-08,NaN,-0.3269991,-1.369951E-07,NaN,0.4718267,1.379934E-08,NaN,-0.5279199,6.773391E-06,-0.3843437,-9.257314E-09,NaN,NaN,-0.01997414,-3.306201E-10,1.378676E-07,-1.146749E-07,-1.65148E-08,-2.861022E-08
211.4149,0.04500167,-2.519105E-08,NaN,-0.3269991,-1.369951E-07,NaN,0.4718267,1.379934E-08,NaN,-0.5279199,6.773391E-06,-0.3843437,-9.257314E-09,NaN,NaN,-0.01997414,-3.306201E-10,1.378676E-07,-1.146749E-07,-1.65148E-08,-2.861022E-08
211.4291,0.04500167,-2.518994E-08,NaN,-0.3269991,-1.369954E-07,NaN,0.4717803,1.384525E-08,NaN,-0.5278841,6.774062E-06,-0.3842764,-9.300949E-09,NaN,NaN,-0.01997384,-3.306201E-10,1.401027E-07,-1.146739E-07,-1.413062E-08,-2.622604E-08
211.4447,0.04500166,-2.518884E-08,NaN,-0.3269991,-1.369956E-07,NaN,0.4716052,1.389181E-08,NaN,-0.5265449,6.774732E-06,-0.3840304,-9.345236E-09,NaN,NaN,-0.01997004,-3.306201E-10,1.705011E-07,-1.146729E-07,-1.65148E-08,-2.861022E-08
211.4591,0.04500166,-2.518884E-08,NaN,-0.3269991,-1.369956E-07,NaN,0.4716052,1.389181E-08,NaN,-0.5265449,6.774732E-06,-0.3840304,-9.345236E-09,NaN,NaN,-0.01997004,-3.306201E-10,1.705011E-07,-1.146729E-07,-1.65148E-08,-2.861022E-08
211.4734,0.04500165,-2.518773E-08,NaN,-0.3269991,-1.369959E-07,NaN,0.4714496,1.393759E-08,NaN,-0.5244751,6.775403E-06,-0.3837815,-9.38875E-09,NaN,NaN,-0.01996783,-3.306201E-10,1.873394E-07,-1.146718E-07,-1.889899E-08,-2.622604E-08
211.4895,0.04500164,-2.518662E-08,NaN,-0.3269991,-1.369962E-07,NaN,0.4713408,1.398262E-08,NaN,-0.5220779,6.776074E-06,-0.3835769,-9.431504E-09,NaN,NaN,-0.01996627,-3.306201E-10,2.006015E-07,-1.146708E-07,-2.366736E-08,-2.861022E-08
211.5041,0.04500163,-2.518551E-08,NaN,-0.3269991,-1.369964E-07,NaN,0.4712669,1.40269E-08,NaN,-0.5195456,6.776749E-06,-0.3834132,-9.473512E-09,NaN,NaN,-0.01996498,-3.352767E-10,2.110323E-07,-1.146698E-07,-2.366736E-08,-2.622604E-08
211.5178,0.04500163,-2.518551E-08,NaN,-0.3269991,-1.369964E-07,NaN,0.4712669,1.40269E-08,NaN,-0.5195456,6.776749E-06,-0.3834132,-9.473512E-09,NaN,NaN,-0.01996498,-3.352767E-10,2.110323E-07,-1.146698E-07,-2.366736E-08,-2.622604E-08
211.532,0.04500162,-2.51844E-08,NaN,-0.3269991,-1.369967E-07,NaN,0.4710643,1.407186E-08,NaN,-0.5157372,6.77742E-06,-0.3830783,-9.516206E-09,NaN,NaN,-0.01996011,-3.352767E-10,2.488812E-07,-1.146688E-07,-2.366736E-08,-2.861022E-08
211.547,0.0450016,-2.518329E-08,NaN,-0.3269991,-1.369969E-07,NaN,0.4708804,1.411609E-08,NaN,-0.5112313,6.778095E-06,-0.3827449,-9.558157E-09,NaN,NaN,-0.01995688,-3.352767E-10,2.739152E-07,-1.146678E-07,-2.366736E-08,-2.622604E-08
211.5617,0.04500159,-2.518219E-08,NaN,-0.3269991,-1.369972E-07,NaN,0.4707434,1.415958E-08,NaN,-0.5064338,6.778775E-06,-0.38246,-9.599379E-09,NaN,NaN,-0.01995431,-3.399333E-10,2.943298E-07,-1.146668E-07,-2.128318E-08,-2.861022E-08
211.5765,0.04500159,-2.518219E-08,NaN,-0.3269991,-1.369972E-07,NaN,0.4707434,1.415958E-08,NaN,-0.5064338,6.778775E-06,-0.38246,-9.599379E-09,NaN,NaN,-0.01995431,-3.399333E-10,2.943298E-07,-1.146668E-07,-2.128318E-08,-2.861022E-08
211.5904,0.04500157,-2.518108E-08,NaN,-0.3269991,-1.369975E-07,NaN,0.4704892,1.420377E-08,NaN,-0.5003052,6.77945E-06,-0.3820172,-9.6413E-09,NaN,NaN,-0.01994813,-3.399333E-10,3.393313E-07,-1.146658E-07,-2.128318E-08,-2.622604E-08
211.6059,0.04500155,-2.517997E-08,NaN,-0.326999,-1.369977E-07,NaN,0.4702621,1.424724E-08,NaN,-0.4934722,6.78013E-06,-0.3815873,-9.682497E-09,NaN,NaN,-0.0199437,-3.445899E-10,3.724119E-07,-1.146648E-07,-2.366736E-08,-2.861022E-08
211.6205,0.04500153,-2.517886E-08,NaN,-0.326999,-1.36998E-07,NaN,0.4700882,1.428999E-08,NaN,-0.4863635,6.780806E-06,-0.3812149,-9.722977E-09,NaN,NaN,-0.01993999,-3.445899E-10,3.981164E-07,-1.146637E-07,-1.65148E-08,-2.622604E-08
211.6352,0.04500153,-2.517886E-08,NaN,-0.326999,-1.36998E-07,NaN,0.4700882,1.428999E-08,NaN,-0.4863635,6.780806E-06,-0.3812149,-9.722977E-09,NaN,NaN,-0.01993999,-3.445899E-10,3.981164E-07,-1.146637E-07,-1.65148E-08,-2.622604E-08
211.6493,0.04500151,-2.517775E-08,NaN,-0.326999,-1.369982E-07,NaN,0.4699546,1.433204E-08,NaN,-0.4791831,6.781476E-06,-0.3808942,-9.762759E-09,NaN,NaN,-0.01993656,-3.399333E-10,4.213622E-07,-1.146628E-07,-1.174643E-08,-2.861022E-08
211.6649,0.0450015,-2.517664E-08,NaN,-0.326999,-1.369985E-07,NaN,0.4698264,1.437341E-08,NaN,-0.471883,6.782152E-06,-0.3805864,-9.801854E-09,NaN,NaN,-0.01993272,-3.399333E-10,4.465452E-07,-1.146618E-07,-9.362246E-09,-2.622604E-08
211.6795,0.0450015,-2.517664E-08,NaN,-0.326999,-1.369985E-07,NaN,0.4698264,1.437341E-08,NaN,-0.471883,6.782152E-06,-0.3805864,-9.801854E-09,NaN,NaN,-0.01993272,-3.399333E-10,4.465452E-07,-1.146618E-07,-9.362246E-09,-2.622604E-08
211.6935,0.04500148,-2.517553E-08,NaN,-0.326999,-1.369987E-07,NaN,0.4697125,1.441552E-08,NaN,-0.4645716,6.782822E-06,-0.3803019,-9.84169E-09,NaN,NaN,-0.01992914,-3.352767E-10,4.685989E-07,-1.146608E-07,-9.362246E-09,-2.861022E-08
211.7091,0.04500147,-2.517443E-08,NaN,-0.326999,-1.369984E-07,NaN,0.4696118,1.436631E-08,NaN,-0.4573154,6.783502E-06,-0.38004,-9.79021E-09,NaN,NaN,-0.01992564,-3.445899E-10,4.891625E-07,-1.146591E-07,-4.593875E-09,-2.622604E-08
211.7236,0.04500145,-2.517332E-08,NaN,-0.326999,-1.369977E-07,NaN,0.4695209,1.427466E-08,NaN,-0.4501452,6.784173E-06,-0.3797966,-9.69627E-09,NaN,NaN,-0.01992216,-3.492465E-10,5.08981E-07,-1.146571E-07,-4.593875E-09,-2.622604E-08
211.7383,0.04500145,-2.517332E-08,NaN,-0.326999,-1.369977E-07,NaN,0.4695209,1.427466E-08,NaN,-0.4501452,6.784173E-06,-0.3797966,-9.69627E-09,NaN,NaN,-0.01992216,-3.492465E-10,5.08981E-07,-1.146571E-07,-4.593875E-09,-2.622604E-08
211.7544,0.04500144,-2.517221E-08,NaN,-0.326999,-1.369968E-07,NaN,0.4694374,1.415964E-08,NaN,-0.4430748,6.784839E-06,-0.3795681,-9.578965E-09,NaN,NaN,-0.01991867,-3.492465E-10,5.277564E-07,-1.146549E-07,-2.209689E-09,-2.622604E-08
211.7685,0.04500143,-2.51711E-08,NaN,-0.326999,-1.369957E-07,NaN,0.4693598,1.403297E-08,NaN,-0.43611,6.785504E-06,-0.3793521,-9.449997E-09,NaN,NaN,-0.01991517,-3.492465E-10,5.448928E-07,-1.146527E-07,2.558683E-09,-2.622604E-08
211.7822,0.04500142,-2.516999E-08,NaN,-0.326999,-1.369945E-07,NaN,0.4692879,1.39019E-08,NaN,-0.4292525,6.78617E-06,-0.3791471,-9.316627E-09,NaN,NaN,-0.01991163,-3.492465E-10,5.626251E-07,-1.146504E-07,4.942868E-09,-2.622604E-08
211.797,0.04500142,-2.516999E-08,NaN,-0.326999,-1.369945E-07,NaN,0.4692879,1.39019E-08,NaN,-0.4292525,6.78617E-06,-0.3791471,-9.316627E-09,NaN,NaN,-0.01991163,-3.492465E-10,5.626251E-07,-1.146504E-07,4.942868E-09,-2.622604E-08
211.8109,0.04500141,-2.516889E-08,NaN,-0.326999,-1.369933E-07,NaN,0.4692214,1.376933E-08,NaN,-0.4225025,6.786836E-06,-0.3789524,-9.181748E-09,NaN,NaN,-0.01990806,-3.492465E-10,5.772283E-07,-1.146481E-07,7.327054E-09,-2.622604E-08
211.8263,0.0450014,-2.516778E-08,NaN,-0.326999,-1.36992E-07,NaN,0.4691606,1.363526E-08,NaN,-0.415859,6.787507E-06,-0.3787675,-9.045375E-09,NaN,NaN,-0.01990445,-3.539032E-10,5.930235E-07,-1.146457E-07,2.558683E-09,-2.622604E-08
211.8408,0.04500138,-2.516667E-08,NaN,-0.326999,-1.369908E-07,NaN,0.4691057,1.350397E-08,NaN,-0.4093207,6.788172E-06,-0.3785921,-8.911772E-09,NaN,NaN,-0.01990081,-3.539032E-10,6.077757E-07,-1.146434E-07,-2.209689E-09,-2.622604E-08
211.8567,0.04500138,-2.516667E-08,NaN,-0.326999,-1.369908E-07,NaN,0.4691057,1.350397E-08,NaN,-0.4093207,6.788172E-06,-0.3785921,-8.911772E-09,NaN,NaN,-0.01990081,-3.539032E-10,6.077757E-07,-1.146434E-07,-2.209689E-09,-2.622604E-08
211.8698,0.04500137,-2.516557E-08,NaN,-0.326999,-1.369895E-07,NaN,0.4690567,1.337539E-08,NaN,-0.402886,6.788834E-06,-0.378426,-8.780876E-09,NaN,NaN,-0.01989712,-3.539032E-10,6.229749E-07,-1.146411E-07,-4.593875E-09,-2.622604E-08
211.8848,0.04500136,-2.516446E-08,NaN,-0.326999,-1.369882E-07,NaN,0.4690139,1.325368E-08,NaN,-0.3965535,6.789495E-06,-0.3782691,-8.656849E-09,NaN,NaN,-0.0198934,-3.539032E-10,6.36982E-07,-1.146388E-07,2.558683E-09,-2.622604E-08
211.8993,0.04500136,-2.516446E-08,NaN,-0.326999,-1.369882E-07,NaN,0.4690139,1.325368E-08,NaN,-0.3965535,6.789495E-06,-0.3782691,-8.656849E-09,NaN,NaN,-0.0198934,-3.539032E-10,6.36982E-07,-1.146388E-07,2.558683E-09,-2.622604E-08
211.9133,0.04500135,-2.516335E-08,NaN,-0.326999,-1.369865E-07,NaN,0.4689774,1.306002E-08,NaN,-0.3903216,6.790156E-06,-0.3781214,-8.460866E-09,NaN,NaN,-0.01988963,-3.539032E-10,6.50542E-07,-1.146374E-07,2.558683E-09,-2.622604E-08
211.929,0.04500134,-2.516225E-08,NaN,-0.326999,-1.369849E-07,NaN,0.4689471,1.288083E-08,NaN,-0.3841887,6.790817E-06,-0.3779826,-8.279358E-09,NaN,NaN,-0.01988581,-3.539032E-10,6.63804E-07,-1.146361E-07,1.744969E-10,-2.622604E-08
211.9436,0.04500133,-2.516114E-08,NaN,-0.326999,-1.369833E-07,NaN,0.4689233,1.271022E-08,NaN,-0.3781532,6.791478E-06,-0.3778527,-8.106419E-09,NaN,NaN,-0.01988195,-3.539032E-10,6.757249E-07,-1.146349E-07,-6.97806E-09,-2.622604E-08
211.9582,0.04500133,-2.516114E-08,NaN,-0.326999,-1.369833E-07,NaN,0.4689233,1.271022E-08,NaN,-0.3781532,6.791478E-06,-0.3778527,-8.106419E-09,NaN,NaN,-0.01988195,-3.539032E-10,6.757249E-07,-1.146349E-07,-6.97806E-09,-2.622604E-08
211.9723,0.04500132,-2.516003E-08,NaN,-0.326999,-1.369818E-07,NaN,0.4689059,1.254519E-08,NaN,-0.3722135,6.792131E-06,-0.3777317,-7.939061E-09,NaN,NaN,-0.01987803,-3.445899E-10,6.873478E-07,-1.146336E-07,-2.209689E-09,-2.622604E-08
211.9875,0.04500131,-2.515893E-08,NaN,-0.326999,-1.369802E-07,NaN,0.468895,1.238564E-08,NaN,-0.3663683,6.792792E-06,-0.3776193,-7.777182E-09,NaN,NaN,-0.01987406,-3.445899E-10,6.970336E-07,-1.146324E-07,-4.593875E-09,-2.622604E-08
212.0023,0.04500129,-2.515782E-08,NaN,-0.326999,-1.369787E-07,NaN,0.4688905,1.223076E-08,NaN,-0.3606158,6.793453E-06,-0.3775156,-7.619976E-09,NaN,NaN,-0.01987004,-3.445899E-10,7.064214E-07,-1.146312E-07,-4.593875E-09,-2.622604E-08
212.0169,0.04500129,-2.515782E-08,NaN,-0.326999,-1.369787E-07,NaN,0.4688905,1.223076E-08,NaN,-0.3606158,6.793453E-06,-0.3775156,-7.619976E-09,NaN,NaN,-0.01987004,-3.445899E-10,7.064214E-07,-1.146312E-07,-4.593875E-09,-2.622604E-08
212.0331,0.04500128,-2.515671E-08,NaN,-0.326999,-1.369771E-07,NaN,0.4688924,1.208047E-08,NaN,-0.3549548,6.794114E-06,-0.3774203,-7.467349E-09,NaN,NaN,-0.01986597,-3.445899E-10,7.165542E-07,-1.1463E-07,-9.362246E-09,-2.622604E-08
212.0472,0.04500127,-2.515561E-08,NaN,-0.326999,-1.369756E-07,NaN,0.4689008,1.193396E-08,NaN,-0.3493838,6.794775E-06,-0.3773336,-7.318507E-09,NaN,NaN,-0.01986183,-3.445899E-10,7.27134E-07,-1.146288E-07,-1.174643E-08,-2.622604E-08
212.061,0.04500126,-2.51545E-08,NaN,-0.326999,-1.369741E-07,NaN,0.4689157,1.179116E-08,NaN,-0.3439012,6.795437E-06,-0.3772551,-7.173377E-09,NaN,NaN,-0.01985764,-3.445899E-10,7.353296E-07,-1.146276E-07,-1.413062E-08,-2.622604E-08
212.0757,0.04500126,-2.51545E-08,NaN,-0.326999,-1.369741E-07,NaN,0.4689157,1.179116E-08,NaN,-0.3439012,6.795437E-06,-0.3772551,-7.173377E-09,NaN,NaN,-0.01985764,-3.445899E-10,7.353296E-07,-1.146276E-07,-1.413062E-08,-2.622604E-08
212.0893,0.04500125,-2.515339E-08,NaN,-0.326999,-1.369726E-07,NaN,0.4689369,1.1652E-08,NaN,-0.3385058,6.796098E-06,-0.3771849,-7.031887E-09,NaN,NaN,-0.01985338,-3.445899E-10,7.442703E-07,-1.146264E-07,-1.413062E-08,-2.622604E-08
212.1047,0.04500124,-2.515229E-08,NaN,-0.326999,-1.369711E-07,NaN,0.4689646,1.151641E-08,NaN,-0.333196,6.796759E-06,-0.3771229,-6.893966E-09,NaN,NaN,-0.01984906,-3.445899E-10,7.520189E-07,-1.146252E-07,-1.174643E-08,-2.622604E-08
212.1194,0.04500124,-2.515229E-08,NaN,-0.326999,-1.369711E-07,NaN,0.4689646,1.151641E-08,NaN,-0.333196,6.796759E-06,-0.3771229,-6.893966E-09,NaN,NaN,-0.01984906,-3.445899E-10,7.520189E-07,-1.146252E-07,-1.174643E-08,-2.622604E-08
212.1334,0.04500123,-2.515118E-08,NaN,-0.326999,-1.369696E-07,NaN,0.4689987,1.138362E-08,NaN,-0.3279707,6.79742E-06,-0.3770689,-6.758836E-09,NaN,NaN,-0.01984467,-3.445899E-10,7.603635E-07,-1.14624E-07,-1.413062E-08,-2.622604E-08
212.1488,0.04500122,-2.515007E-08,NaN,-0.326999,-1.369681E-07,NaN,0.4690391,1.125497E-08,NaN,-0.3228284,6.798081E-06,-0.377023,-6.627856E-09,NaN,NaN,-0.01984022,-3.445899E-10,7.681122E-07,-1.146228E-07,-9.362245E-09,-2.622604E-08
212.1637,0.04500121,-2.514897E-08,NaN,-0.326999,-1.369667E-07,NaN,0.469086,1.112898E-08,NaN,-0.3177677,6.798743E-06,-0.376985,-6.499531E-09,NaN,NaN,-0.0198357,-3.445899E-10,7.742216E-07,-1.146217E-07,-6.978059E-09,-2.622604E-08
212.1784,0.04500121,-2.514897E-08,NaN,-0.326999,-1.369667E-07,NaN,0.469086,1.112898E-08,NaN,-0.3177677,6.798743E-06,-0.376985,-6.499531E-09,NaN,NaN,-0.0198357,-3.445899E-10,7.742216E-07,-1.146217E-07,-6.978059E-09,-2.622604E-08
212.1925,0.04500119,-2.514786E-08,NaN,-0.326999,-1.369652E-07,NaN,0.4691392,1.109423E-08,NaN,-0.3127875,6.799404E-06,-0.3769549,-6.462451E-09,NaN,NaN,-0.0198311,-3.445899E-10,7.809272E-07,-1.146205E-07,-9.362245E-09,-2.622604E-08
212.2078,0.04500118,-2.514675E-08,NaN,-0.326999,-1.369637E-07,NaN,0.4691987,1.106172E-08,NaN,-0.3078865,6.800065E-06,-0.3769325,-6.427609E-09,NaN,NaN,-0.01982643,-3.445899E-10,7.879307E-07,-1.146193E-07,-1.174643E-08,-2.622604E-08
212.2223,0.04500117,-2.514565E-08,NaN,-0.326999,-1.369622E-07,NaN,0.4692646,1.102999E-08,NaN,-0.3030632,6.800726E-06,-0.3769178,-6.393545E-09,NaN,NaN,-0.01982168,-3.445899E-10,7.941892E-07,-1.146182E-07,-6.97806E-09,-2.622604E-08
212.2371,0.04500117,-2.514565E-08,NaN,-0.326999,-1.369622E-07,NaN,0.4692646,1.102999E-08,NaN,-0.3030632,6.800726E-06,-0.3769178,-6.393545E-09,NaN,NaN,-0.01982168,-3.445899E-10,7.941892E-07,-1.146182E-07,-6.97806E-09,-2.622604E-08
212.2513,0.04500116,-2.514454E-08,NaN,-0.326999,-1.369608E-07,NaN,0.4693368,1.100044E-08,NaN,-0.2983167,6.801387E-06,-0.3769107,-6.361654E-09,NaN,NaN,-0.01981685,-3.445899E-10,7.997026E-07,-1.14617E-07,-6.97806E-09,-2.622604E-08
212.2668,0.04500115,-2.514343E-08,NaN,-0.326999,-1.369593E-07,NaN,0.4694152,1.09716E-08,NaN,-0.2936456,6.802049E-06,-0.3769113,-6.330484E-09,NaN,NaN,-0.01981195,-3.445899E-10,8.032789E-07,-1.146158E-07,1.744973E-10,-2.622604E-08
212.2812,0.04500114,-2.514233E-08,NaN,-0.326999,-1.369579E-07,NaN,0.4695,1.094348E-08,NaN,-0.2890486,6.80271E-06,-0.3769193,-6.300022E-09,NaN,NaN,-0.01980696,-3.445899E-10,8.087923E-07,-1.146147E-07,7.327055E-09,-2.622604E-08
212.298,0.04500114,-2.514233E-08,NaN,-0.326999,-1.369579E-07,NaN,0.4695,1.094348E-08,NaN,-0.2890486,6.80271E-06,-0.3769193,-6.300022E-09,NaN,NaN,-0.01980696,-3.445899E-10,8.087923E-07,-1.146147E-07,7.327055E-09,-2.622604E-08
212.311,0.04500113,-2.514122E-08,NaN,-0.326999,-1.369564E-07,NaN,0.469591,1.091746E-08,NaN,-0.2845248,6.803371E-06,-0.3769347,-6.271666E-09,NaN,NaN,-0.01980188,-3.445899E-10,8.126666E-07,-1.146135E-07,1.209543E-08,-2.622604E-08
212.3267,0.04500112,-2.514011E-08,NaN,-0.326999,-1.36955E-07,NaN,0.4696883,1.089209E-08,NaN,-0.2800728,6.804032E-06,-0.3769575,-6.243964E-09,NaN,NaN,-0.01979672,-3.445899E-10,8.171369E-07,-1.146124E-07,9.71124E-09,-2.622604E-08
212.3401,0.04500111,-2.513901E-08,NaN,-0.326999,-1.369535E-07,NaN,0.4697918,1.086878E-08,NaN,-0.2756916,6.804693E-06,-0.3769876,-6.218312E-09,NaN,NaN,-0.01979146,-3.445899E-10,8.204152E-07,-1.146112E-07,7.327054E-09,-2.622604E-08
212.3544,0.04500111,-2.513901E-08,NaN,-0.326999,-1.369535E-07,NaN,0.4697918,1.086878E-08,NaN,-0.2756916,6.804693E-06,-0.3769876,-6.218312E-09,NaN,NaN,-0.01979146,-3.445899E-10,8.204152E-07,-1.146112E-07,7.327054E-09,-2.622604E-08
212.3685,0.0450011,-2.51379E-08,NaN,-0.326999,-1.369521E-07,NaN,0.4699015,1.084606E-08,NaN,-0.27138,6.805355E-06,-0.377025,-6.193262E-09,NaN,NaN,-0.01978611,-3.445899E-10,8.235444E-07,-1.146101E-07,1.447961E-08,-2.622604E-08
212.3839,0.04500109,-2.513679E-08,NaN,-0.326999,-1.369506E-07,NaN,0.4700175,1.082252E-08,NaN,-0.267137,6.806016E-06,-0.3770695,-6.167384E-09,NaN,NaN,-0.01978066,-3.445899E-10,8.284619E-07,-1.14609E-07,1.209543E-08,-2.622604E-08
212.3987,0.04500109,-2.513679E-08,NaN,-0.326999,-1.369506E-07,NaN,0.4700175,1.082252E-08,NaN,-0.267137,6.806016E-06,-0.3770695,-6.167384E-09,NaN,NaN,-0.01978066,-3.445899E-10,8.284619E-07,-1.14609E-07,1.209543E-08,-2.622604E-08
212.4127,0.04500109,-2.513569E-08,NaN,-0.326999,-1.369492E-07,NaN,0.4701396,1.0801E-08,NaN,-0.2629613,6.806677E-06,-0.3771212,-6.143524E-09,NaN,NaN,-0.01977511,-3.445899E-10,8.312931E-07,-1.146078E-07,1.447961E-08,-2.622604E-08
212.4282,0.04500108,-2.513458E-08,NaN,-0.326999,-1.369478E-07,NaN,0.4702679,1.078004E-08,NaN,-0.2588521,6.807338E-06,-0.3771799,-6.120229E-09,NaN,NaN,-0.01976947,-3.445899E-10,8.330812E-07,-1.146067E-07,1.68638E-08,-2.622604E-08
212.4429,0.04500107,-2.513348E-08,NaN,-0.326999,-1.369464E-07,NaN,0.4704023,1.075963E-08,NaN,-0.2548081,6.807999E-06,-0.3772456,-6.097485E-09,NaN,NaN,-0.01976372,-3.445899E-10,8.354654E-07,-1.146056E-07,1.68638E-08,-2.622604E-08
212.4576,0.04500107,-2.513348E-08,NaN,-0.326999,-1.369464E-07,NaN,0.4704023,1.075963E-08,NaN,-0.2548081,6.807999E-06,-0.3772456,-6.097485E-09,NaN,NaN,-0.01976372,-3.445899E-10,8.354654E-07,-1.146056E-07,1.68638E-08,-2.622604E-08
212.4718,0.04500106,-2.513237E-08,NaN,-0.326999,-1.369449E-07,NaN,0.4705429,1.074118E-08,NaN,-0.2508284,6.808661E-06,-0.3773183,-6.076696E-09,NaN,NaN,-0.01975787,-3.445899E-10,8.375515E-07,-1.146045E-07,1.447961E-08,-2.622604E-08
212.4871,0.04500106,-2.513127E-08,NaN,-0.326999,-1.369435E-07,NaN,0.4706896,1.072323E-08,NaN,-0.246912,6.809322E-06,-0.3773979,-6.056413E-09,NaN,NaN,-0.0197519,-3.445899E-10,8.393396E-07,-1.146034E-07,9.711239E-09,-2.622604E-08
212.5018,0.04500105,-2.513016E-08,NaN,-0.326999,-1.369421E-07,NaN,0.4708424,1.070719E-08,NaN,-0.2430578,6.809983E-06,-0.3774843,-6.038037E-09,NaN,NaN,-0.01974583,-3.445899E-10,8.411278E-07,-1.146023E-07,4.942867E-09,-2.622604E-08
212.5166,0.04500105,-2.513016E-08,NaN,-0.326999,-1.369421E-07,NaN,0.4708424,1.070719E-08,NaN,-0.2430578,6.809983E-06,-0.3774843,-6.038037E-09,NaN,NaN,-0.01974583,-3.445899E-10,8.411278E-07,-1.146023E-07,4.942867E-09,-2.622604E-08
212.5305,0.04500104,-2.512906E-08,NaN,-0.326999,-1.369407E-07,NaN,0.4710013,1.069161E-08,NaN,-0.2392649,6.810644E-06,-0.3775775,-6.020117E-09,NaN,NaN,-0.01973964,-3.445899E-10,8.423199E-07,-1.146011E-07,1.74496E-10,-2.622604E-08
212.546,0.04500103,-2.512795E-08,NaN,-0.326999,-1.369393E-07,NaN,0.4711662,1.067648E-08,NaN,-0.2355322,6.811305E-06,-0.3776775,-6.002645E-09,NaN,NaN,-0.01973333,-3.445899E-10,8.43214E-07,-1.146E-07,-2.20969E-09,-2.622604E-08
212.5626,0.04500103,-2.512685E-08,NaN,-0.326999,-1.369379E-07,NaN,0.4713372,1.066319E-08,NaN,-0.2318589,6.811967E-06,-0.3777841,-5.987027E-09,NaN,NaN,-0.01972691,-3.445899E-10,8.441081E-07,-1.145989E-07,-2.20969E-09,-2.622604E-08
212.5757,0.04500103,-2.512685E-08,NaN,-0.326999,-1.369379E-07,NaN,0.4713372,1.066319E-08,NaN,-0.2318589,6.811967E-06,-0.3777841,-5.987027E-09,NaN,NaN,-0.01972691,-3.445899E-10,8.441081E-07,-1.145989E-07,-2.20969E-09,-2.622604E-08
212.5901,0.04500102,-2.512574E-08,NaN,-0.326999,-1.369365E-07,NaN,0.4715141,1.065031E-08,NaN,-0.228244,6.812628E-06,-0.3778974,-5.97181E-09,NaN,NaN,-0.01972036,-3.445899E-10,8.450021E-07,-1.145979E-07,-2.20969E-09,-2.622604E-08
212.6045,0.04500101,-2.512464E-08,NaN,-0.326999,-1.369352E-07,NaN,0.4716971,1.063783E-08,NaN,-0.2246865,6.813289E-06,-0.3780172,-5.956986E-09,NaN,NaN,-0.01971369,-3.445899E-10,8.447041E-07,-1.145968E-07,-4.593876E-09,-2.622604E-08
212.6192,0.04500101,-2.512464E-08,NaN,-0.326999,-1.369352E-07,NaN,0.4716971,1.063783E-08,NaN,-0.2246865,6.813289E-06,-0.3780172,-5.956986E-09,NaN,NaN,-0.01971369,-3.445899E-10,8.447041E-07,-1.145968E-07,-4.593876E-09,-2.622604E-08
212.633,0.045001,-2.512353E-08,NaN,-0.326999,-1.369338E-07,NaN,0.471886,1.062714E-08,NaN,-0.2211856,6.81395E-06,-0.3781435,-5.943964E-09,NaN,NaN,-0.01970689,-3.445899E-10,8.447041E-07,-1.145957E-07,-1.174643E-08,-2.622604E-08
212.6486,0.045001,-2.512243E-08,NaN,-0.326999,-1.369324E-07,NaN,0.4720809,1.061681E-08,NaN,-0.2177404,6.814611E-06,-0.3782763,-5.931295E-09,NaN,NaN,-0.01969996,-3.445899E-10,8.444061E-07,-1.145946E-07,-1.889899E-08,-2.622604E-08
212.6633,0.04500099,-2.512132E-08,NaN,-0.326999,-1.36931E-07,NaN,0.4722817,1.060821E-08,NaN,-0.2143499,6.815273E-06,-0.3784156,-5.920363E-09,NaN,NaN,-0.01969289,-3.445899E-10,8.4381E-07,-1.145935E-07,-1.889899E-08,-2.622604E-08
212.6779,0.04500099,-2.512132E-08,NaN,-0.326999,-1.36931E-07,NaN,0.4722817,1.060821E-08,NaN,-0.2143499,6.815273E-06,-0.3784156,-5.920363E-09,NaN,NaN,-0.01969289,-3.445899E-10,8.4381E-07,-1.145935E-07,-1.889899E-08,-2.622604E-08
212.6922,0.04500098,-2.512022E-08,NaN,-0.326999,-1.369297E-07,NaN,0.4724883,1.059993E-08,NaN,-0.2110133,6.815934E-06,-0.3785611,-5.909742E-09,NaN,NaN,-0.01968569,-3.445899E-10,8.43512E-07,-1.145924E-07,-2.128318E-08,-2.622604E-08
212.7074,0.04500097,-2.511911E-08,NaN,-0.326999,-1.369283E-07,NaN,0.4727009,1.064925E-08,NaN,-0.2077298,6.816595E-06,-0.378713,-5.956729E-09,NaN,NaN,-0.01967835,-3.445899E-10,8.441081E-07,-1.145914E-07,-2.128318E-08,-2.622604E-08
212.7221,0.04500097,-2.511801E-08,NaN,-0.326999,-1.369269E-07,NaN,0.4729192,1.069774E-08,NaN,-0.2044984,6.817256E-06,-0.3788711,-6.002881E-09,NaN,NaN,-0.01967086,-3.445899E-10,8.450021E-07,-1.145903E-07,-1.65148E-08,-2.622604E-08
212.7368,0.04500097,-2.511801E-08,NaN,-0.326999,-1.369269E-07,NaN,0.4729192,1.069774E-08,NaN,-0.2044984,6.817256E-06,-0.3788711,-6.002881E-09,NaN,NaN,-0.01967086,-3.445899E-10,8.450021E-07,-1.145903E-07,-1.65148E-08,-2.622604E-08
212.7511,0.04500096,-2.51169E-08,NaN,-0.326999,-1.369256E-07,NaN,0.4731433,1.074541E-08,NaN,-0.2013184,6.817917E-06,-0.3790355,-6.048214E-09,NaN,NaN,-0.01966323,-3.445899E-10,8.444061E-07,-1.145892E-07,-6.978061E-09,-2.622604E-08
212.7664,0.04500095,-2.51158E-08,NaN,-0.326999,-1.369242E-07,NaN,0.4733732,1.079369E-08,NaN,-0.198189,6.818579E-06,-0.3792059,-6.094158E-09,NaN,NaN,-0.01965545,-3.445899E-10,8.4381E-07,-1.145881E-07,-2.209689E-09,-2.622604E-08
212.781,0.04500094,-2.511469E-08,NaN,-0.326999,-1.369229E-07,NaN,0.4736089,1.084115E-08,NaN,-0.1951094,6.81924E-06,-0.3793825,-6.139285E-09,NaN,NaN,-0.01964752,-3.445899E-10,8.423199E-07,-1.145871E-07,-2.209689E-09,-2.622604E-08
212.7972,0.04500094,-2.511469E-08,NaN,-0.326999,-1.369229E-07,NaN,0.4736089,1.084115E-08,NaN,-0.1951094,6.81924E-06,-0.3793825,-6.139285E-09,NaN,NaN,-0.01964752,-3.445899E-10,8.423199E-07,-1.145871E-07,-2.209689E-09,-2.622604E-08
212.81,0.04500094,-2.511359E-08,NaN,-0.326999,-1.369215E-07,NaN,0.4738502,1.088781E-08,NaN,-0.1920787,6.819901E-06,-0.3795651,-6.183614E-09,NaN,NaN,-0.01963943,-3.445899E-10,8.414258E-07,-1.14586E-07,-4.593875E-09,-2.622604E-08
212.8263,0.04500093,-2.511249E-08,NaN,-0.326999,-1.369202E-07,NaN,0.4740971,1.09351E-08,NaN,-0.1890962,6.820562E-06,-0.3797536,-6.228572E-09,NaN,NaN,-0.01963119,-3.445899E-10,8.393397E-07,-1.14585E-07,-2.209689E-09,-2.622604E-08
212.841,0.04500092,-2.511138E-08,NaN,-0.326999,-1.369189E-07,NaN,0.4743496,1.09816E-08,NaN,-0.1861611,6.821228E-06,-0.379948,-6.272735E-09,NaN,NaN,-0.01962278,-3.492465E-10,8.378496E-07,-1.145839E-07,4.942868E-09,-2.622604E-08
212.8545,0.04500092,-2.511138E-08,NaN,-0.326999,-1.369189E-07,NaN,0.4743496,1.09816E-08,NaN,-0.1861611,6.821228E-06,-0.379948,-6.272735E-09,NaN,NaN,-0.01962278,-3.492465E-10,8.378496E-07,-1.145839E-07,4.942868E-09,-2.622604E-08
212.8685,0.04500091,-2.511028E-08,NaN,-0.326999,-1.369175E-07,NaN,0.4746078,1.102873E-08,NaN,-0.1832727,6.821889E-06,-0.3801483,-6.317532E-09,NaN,NaN,-0.01961421,-3.492465E-10,8.363595E-07,-1.145829E-07,2.558682E-09,-2.622604E-08
212.8837,0.04500091,-2.510918E-08,NaN,-0.326999,-1.369162E-07,NaN,0.4748714,1.107507E-08,NaN,-0.1804302,6.82255E-06,-0.3803544,-6.361535E-09,NaN,NaN,-0.01960547,-3.492465E-10,8.345714E-07,-1.145818E-07,1.744964E-10,-2.622604E-08
212.8984,0.04500091,-2.510918E-08,NaN,-0.326999,-1.369162E-07,NaN,0.4748714,1.107507E-08,NaN,-0.1804302,6.82255E-06,-0.3803544,-6.361535E-09,NaN,NaN,-0.01960547,-3.492465E-10,8.345714E-07,-1.145818E-07,1.744964E-10,-2.622604E-08
212.9125,0.0450009,-2.510807E-08,NaN,-0.326999,-1.369149E-07,NaN,0.4751404,1.112063E-08,NaN,-0.1776329,6.823216E-06,-0.3805661,-6.404763E-09,NaN,NaN,-0.01959656,-3.539032E-10,8.330813E-07,-1.145808E-07,2.558682E-09,-2.622604E-08
212.9279,0.04500089,-2.510697E-08,NaN,-0.326999,-1.369136E-07,NaN,0.4754149,1.116684E-08,NaN,-0.1748801,6.823877E-06,-0.3807835,-6.448643E-09,NaN,NaN,-0.01958748,-3.539032E-10,8.321872E-07,-1.145798E-07,4.942868E-09,-2.622604E-08
212.9426,0.04500088,-2.510587E-08,NaN,-0.326999,-1.369123E-07,NaN,0.4756947,1.121228E-08,NaN,-0.172171,6.824539E-06,-0.3810065,-6.491746E-09,NaN,NaN,-0.01957822,-3.539032E-10,8.29803E-07,-1.145787E-07,7.327054E-09,-2.622604E-08
212.9572,0.04500088,-2.510587E-08,NaN,-0.326999,-1.369123E-07,NaN,0.4756947,1.121228E-08,NaN,-0.172171,6.824539E-06,-0.3810065,-6.491746E-09,NaN,NaN,-0.01957822,-3.539032E-10,8.29803E-07,-1.145787E-07,7.327054E-09,-2.622604E-08
212.9712,0.04500088,-2.510476E-08,NaN,-0.326999,-1.36911E-07,NaN,0.4759799,1.125696E-08,NaN,-0.1695051,6.8252E-06,-0.381235,-6.534092E-09,NaN,NaN,-0.01956879,-3.539032E-10,8.274188E-07,-1.145777E-07,9.71124E-09,-2.622604E-08
212.9869,0.04500087,-2.510366E-08,NaN,-0.326999,-1.369096E-07,NaN,0.4762703,1.13023E-08,NaN,-0.1668815,6.825866E-06,-0.3814689,-6.577105E-09,NaN,NaN,-0.01955916,-3.585598E-10,8.259287E-07,-1.145767E-07,4.942868E-09,-2.622604E-08
213.0015,0.04500086,-2.510256E-08,NaN,-0.326999,-1.369083E-07,NaN,0.4765658,1.13469E-08,NaN,-0.1642997,6.826527E-06,-0.3817081,-6.619362E-09,NaN,NaN,-0.01954935,-3.585598E-10,8.238426E-07,-1.145757E-07,9.71124E-09,-2.622604E-08
213.0163,0.04500086,-2.510256E-08,NaN,-0.326999,-1.369083E-07,NaN,0.4765658,1.13469E-08,NaN,-0.1642997,6.826527E-06,-0.3817081,-6.619362E-09,NaN,NaN,-0.01954935,-3.585598E-10,8.238426E-07,-1.145757E-07,9.71124E-09,-2.622604E-08
213.0304,0.04500085,-2.510146E-08,NaN,-0.326999,-1.36907E-07,NaN,0.4768665,1.139074E-08,NaN,-0.161759,6.827188E-06,-0.3819527,-6.660876E-09,NaN,NaN,-0.01953936,-3.585598E-10,8.208623E-07,-1.145746E-07,1.209543E-08,-2.622604E-08
213.046,0.04500085,-2.510035E-08,NaN,-0.326999,-1.369058E-07,NaN,0.4771722,1.143528E-08,NaN,-0.1592586,6.827849E-06,-0.3822024,-6.703075E-09,NaN,NaN,-0.01952917,-3.585598E-10,8.184782E-07,-1.145736E-07,1.209543E-08,-2.622604E-08
213.0606,0.04500084,-2.509925E-08,NaN,-0.326999,-1.369045E-07,NaN,0.4774829,1.147906E-08,NaN,-0.156798,6.82851E-06,-0.3824572,-6.744531E-09,NaN,NaN,-0.01951879,-3.585598E-10,8.1669E-07,-1.145726E-07,1.209543E-08,-2.622604E-08
213.0751,0.04500084,-2.509925E-08,NaN,-0.326999,-1.369045E-07,NaN,0.4774829,1.147906E-08,NaN,-0.156798,6.82851E-06,-0.3824572,-6.744531E-09,NaN,NaN,-0.01951879,-3.585598E-10,8.1669E-07,-1.145726E-07,1.209543E-08,-2.622604E-08
213.0912,0.04500083,-2.509815E-08,NaN,-0.326999,-1.369032E-07,NaN,0.4777984,1.152213E-08,NaN,-0.1543766,6.829172E-06,-0.382717,-6.785261E-09,NaN,NaN,-0.0195082,-3.585598E-10,8.146039E-07,-1.145716E-07,4.942868E-09,-2.622604E-08
213.1056,0.04500083,-2.509704E-08,NaN,-0.326999,-1.369019E-07,NaN,0.4781188,1.156448E-08,NaN,-0.1519936,6.829833E-06,-0.3829818,-6.825278E-09,NaN,NaN,-0.01949742,-3.585598E-10,8.134118E-07,-1.145706E-07,4.942868E-09,-2.622604E-08
213.1192,0.04500083,-2.509704E-08,NaN,-0.326999,-1.369019E-07,NaN,0.4781188,1.156448E-08,NaN,-0.1519936,6.829833E-06,-0.3829818,-6.825278E-09,NaN,NaN,-0.01949742,-3.585598E-10,8.134118E-07,-1.145706E-07,4.942868E-09,-2.622604E-08
213.1333,0.04500082,-2.509594E-08,NaN,-0.326999,-1.369006E-07,NaN,0.4785103,1.160613E-08,NaN,-0.1497915,6.830494E-06,-0.3833201,-6.864597E-09,NaN,NaN,-0.01949139,-3.585598E-10,8.065572E-07,-1.145696E-07,4.942868E-09,-2.622604E-08
213.1485,0.04500082,-2.509484E-08,NaN,-0.326999,-1.368993E-07,NaN,0.4789067,1.16471E-08,NaN,-0.1477108,6.831155E-06,-0.3836648,-6.903231E-09,NaN,NaN,-0.01948317,-3.585598E-10,8.017889E-07,-1.145686E-07,2.558682E-09,-2.622604E-08
213.1631,0.04500081,-2.509373E-08,NaN,-0.326999,-1.368985E-07,NaN,0.4792955,1.176186E-08,NaN,-0.145704,6.831821E-06,-0.3840026,-7.015663E-09,NaN,NaN,-0.01947393,-3.632164E-10,7.961264E-07,-1.145667E-07,-2.209689E-09,-2.622604E-08
213.1779,0.04500081,-2.509373E-08,NaN,-0.326999,-1.368985E-07,NaN,0.4792955,1.176186E-08,NaN,-0.145704,6.831821E-06,-0.3840026,-7.015663E-09,NaN,NaN,-0.01947393,-3.632164E-10,7.961264E-07,-1.145667E-07,-2.209689E-09,-2.622604E-08
213.192,0.04500081,-2.509263E-08,NaN,-0.326999,-1.368976E-07,NaN,0.4796775,1.186467E-08,NaN,-0.1437485,6.832487E-06,-0.3843338,-7.116141E-09,NaN,NaN,-0.01946416,-3.67873E-10,7.91358E-07,-1.145647E-07,-2.209689E-09,-2.622604E-08
213.2077,0.04500081,-2.509153E-08,NaN,-0.326999,-1.368967E-07,NaN,0.4806556,1.196137E-08,NaN,-0.1430463,6.833152E-06,-0.3852803,-7.21052E-09,NaN,NaN,-0.01950075,-3.725296E-10,7.585755E-07,-1.145626E-07,2.558682E-09,-2.622604E-08
213.222,0.04500082,-2.509042E-08,NaN,-0.326999,-1.368957E-07,NaN,0.4816191,1.205492E-08,NaN,-0.1430957,6.833818E-06,-0.3862242,-7.301737E-09,NaN,NaN,-0.01951811,-3.771862E-10,7.359257E-07,-1.145606E-07,4.942868E-09,-2.622604E-08
213.2369,0.04500082,-2.509042E-08,NaN,-0.326999,-1.368957E-07,NaN,0.4816191,1.205492E-08,NaN,-0.1430957,6.833818E-06,-0.3862242,-7.301737E-09,NaN,NaN,-0.01951811,-3.771862E-10,7.359257E-07,-1.145606E-07,4.942868E-09,-2.622604E-08
213.2511,0.04500082,-2.508932E-08,NaN,-0.326999,-1.368948E-07,NaN,0.4824658,1.214536E-08,NaN,-0.1434945,6.834484E-06,-0.3870559,-7.389846E-09,NaN,NaN,-0.01952725,-3.818428E-10,7.201305E-07,-1.145586E-07,9.71124E-09,-2.622604E-08
213.2677,0.04500082,-2.508822E-08,NaN,-0.326999,-1.368938E-07,NaN,0.4832108,1.223415E-08,NaN,-0.1440531,6.83515E-06,-0.3877868,-7.476316E-09,NaN,NaN,-0.01953285,-3.864994E-10,7.058254E-07,-1.145565E-07,4.942868E-09,-2.622604E-08
213.2813,0.04500083,-2.508711E-08,NaN,-0.326999,-1.368928E-07,NaN,0.4844898,1.232134E-08,NaN,-0.145895,6.835815E-06,-0.3890703,-7.561177E-09,NaN,NaN,-0.0195841,-3.91156E-10,6.641021E-07,-1.145545E-07,4.942868E-09,-2.622604E-08
213.296,0.04500083,-2.508711E-08,NaN,-0.326999,-1.368928E-07,NaN,0.4844898,1.232134E-08,NaN,-0.145895,6.835815E-06,-0.3890703,-7.561177E-09,NaN,NaN,-0.0195841,-3.91156E-10,6.641021E-07,-1.145545E-07,4.942868E-09,-2.622604E-08
