JMolnar6/NonAnthroHands_User_Study/HandsLoggerWithURDF/tempdata/PID 0 (test)/files/Reachy_PID0_JointMotion_gesture_13_63.csv
Time,r_shoulder,r_shoulder_x,r_upper_arm,r_forearm,r_wrist,r_wrist2hand,
880.1021,-0.2232612,2.893973E-09,NaN,-0.4521453,-1.320049E-07,NaN,-0.01878375,-5.266634E-07,NaN,-0.6579434,2.376688E-05,0.01052743,8.367947E-08,NaN,NaN,0.1815064,3.585578E-10,-6.173283E-07,-1.09923E-07,7.341564E-09,-2.861022E-08
880.1168,-0.2232612,2.893973E-09,NaN,-0.4521453,-1.320049E-07,NaN,-0.01878375,-5.266634E-07,NaN,-0.6579434,2.376688E-05,0.01052743,8.367947E-08,NaN,NaN,0.1815064,3.585578E-10,-6.173283E-07,-1.09923E-07,7.341564E-09,-2.861022E-08
880.1339,-0.2237673,2.894616E-09,NaN,-0.450615,-1.320057E-07,NaN,-0.01746735,-5.268458E-07,NaN,-0.6554786,2.376728E-05,0.01279569,8.391387E-08,NaN,NaN,0.1806637,3.539012E-10,-6.077915E-07,-1.099241E-07,-3.387272E-09,-2.622604E-08
880.1487,-0.2242882,2.895259E-09,NaN,-0.4490378,-1.320065E-07,NaN,-0.01615201,-5.270874E-07,NaN,-0.6529314,2.376768E-05,0.0153115,8.419726E-08,NaN,NaN,0.1798377,3.492446E-10,-6.042152E-07,-1.09925E-07,1.3811E-09,-2.861022E-08
880.1649,-0.224816,2.895902E-09,NaN,-0.4474387,-1.320073E-07,NaN,-0.01474083,-5.273484E-07,NaN,-0.6503689,2.376808E-05,0.01785838,8.449201E-08,NaN,NaN,0.1790279,3.44588E-10,-6.024271E-07,-1.099258E-07,-1.003086E-09,-2.622604E-08
880.1791,-0.224816,2.895902E-09,NaN,-0.4474387,-1.320073E-07,NaN,-0.01474083,-5.273484E-07,NaN,-0.6503689,2.376808E-05,0.01785838,8.449201E-08,NaN,NaN,0.1790279,3.44588E-10,-6.024271E-07,-1.099258E-07,-1.003086E-09,-2.622604E-08
880.1939,-0.2253458,2.896545E-09,NaN,-0.4458333,-1.320081E-07,NaN,-0.0132368,-5.276187E-07,NaN,-0.6478228,2.376847E-05,0.02035942,8.478941E-08,NaN,NaN,0.1782339,3.44588E-10,-6.000429E-07,-1.099267E-07,-1.003086E-09,-2.861022E-08
880.2099,-0.2258414,2.897189E-09,NaN,-0.4443359,-1.320089E-07,NaN,-0.01135629,-5.278882E-07,NaN,-0.6458312,2.376886E-05,0.02209865,8.508096E-08,NaN,NaN,0.1777697,3.492446E-10,-6.000429E-07,-1.099275E-07,-5.771458E-09,-2.622604E-08
880.2252,-0.2263137,2.897832E-09,NaN,-0.4429115,-1.320096E-07,NaN,-0.009448334,-5.281619E-07,NaN,-0.6439925,2.376925E-05,0.02348731,8.537241E-08,NaN,NaN,0.1773145,3.44588E-10,-5.940825E-07,-1.099283E-07,-1.411611E-08,-2.861022E-08
880.2403,-0.2267696,2.898475E-09,NaN,-0.4415385,-1.320104E-07,NaN,-0.007632153,-5.284359E-07,NaN,-0.6422415,2.376964E-05,0.02474557,8.566095E-08,NaN,NaN,0.1768683,3.492446E-10,-5.863338E-07,-1.099292E-07,-1.292401E-08,-2.622604E-08
880.2559,-0.2267696,2.898475E-09,NaN,-0.4415385,-1.320104E-07,NaN,-0.007632153,-5.284359E-07,NaN,-0.6422415,2.376964E-05,0.02474557,8.566095E-08,NaN,NaN,0.1768683,3.492446E-10,-5.863338E-07,-1.099292E-07,-1.292401E-08,-2.622604E-08
880.2703,-0.2272133,2.899118E-09,NaN,-0.4402031,-1.320112E-07,NaN,-0.005919454,-5.287069E-07,NaN,-0.6405463,2.377004E-05,0.02595596,8.59438E-08,NaN,NaN,0.1764307,3.44588E-10,-5.767971E-07,-1.0993E-07,-1.173192E-08,-2.861022E-08
880.2865,-0.2276146,2.899762E-09,NaN,-0.4390015,-1.320119E-07,NaN,-0.003973464,-5.289774E-07,NaN,-0.6394163,2.377044E-05,0.02645177,8.622391E-08,NaN,NaN,0.176316,3.44588E-10,-5.714327E-07,-1.099308E-07,-1.053983E-08,-2.622604E-08
880.3014,-0.2279879,2.900405E-09,NaN,-0.4378876,-1.32012E-07,NaN,-0.002098824,-5.265764E-07,NaN,-0.6384358,2.377084E-05,0.02665109,8.389266E-08,NaN,NaN,0.1762034,3.44588E-10,-5.62492E-07,-1.099328E-07,-9.347737E-09,-2.861022E-08
880.3165,-0.2279879,2.900405E-09,NaN,-0.4378876,-1.32012E-07,NaN,-0.002098824,-5.265764E-07,NaN,-0.6384358,2.377084E-05,0.02665109,8.389266E-08,NaN,NaN,0.1762034,3.44588E-10,-5.62492E-07,-1.099328E-07,-9.347737E-09,-2.861022E-08
880.3317,-0.2283421,2.901048E-09,NaN,-0.4368327,-1.320128E-07,NaN,-0.0003780239,-5.267644E-07,NaN,-0.6375327,2.377123E-05,0.02676633,8.413674E-08,NaN,NaN,0.176093,3.492446E-10,-5.511671E-07,-1.099338E-07,-6.963551E-09,-2.622604E-08
880.3464,-0.2286831,2.901691E-09,NaN,-0.4358188,-1.320136E-07,NaN,0.001201792,-5.270123E-07,NaN,-0.6366725,2.377163E-05,0.02687169,8.442964E-08,NaN,NaN,0.1759848,3.492446E-10,-5.392462E-07,-1.099347E-07,-9.347737E-09,-2.861022E-08
880.3614,-0.2289813,2.902335E-09,NaN,-0.4349392,-1.320143E-07,NaN,0.002995208,-5.272773E-07,NaN,-0.636364,2.377203E-05,0.02629566,8.473089E-08,NaN,NaN,0.1761929,3.492446E-10,-5.326897E-07,-1.099355E-07,-4.579365E-09,-2.622604E-08
880.3765,-0.2289813,2.902335E-09,NaN,-0.4349392,-1.320143E-07,NaN,0.002995208,-5.272773E-07,NaN,-0.636364,2.377203E-05,0.02629566,8.473089E-08,NaN,NaN,0.1761929,3.492446E-10,-5.326897E-07,-1.099355E-07,-4.579365E-09,-2.622604E-08
880.3907,-0.2292517,2.902978E-09,NaN,-0.4341464,-1.320151E-07,NaN,0.004704225,-5.275518E-07,NaN,-0.6361908,2.377242E-05,0.02545121,8.503467E-08,NaN,NaN,0.1763969,3.492446E-10,-5.219609E-07,-1.099363E-07,-5.771458E-09,-2.861022E-08
880.4064,-0.2295036,2.903622E-09,NaN,-0.4334105,-1.320159E-07,NaN,0.006250869,-5.278317E-07,NaN,-0.6360806,2.37728E-05,0.02454655,8.533812E-08,NaN,NaN,0.1765968,3.539012E-10,-5.058677E-07,-1.099371E-07,-9.347737E-09,-2.622604E-08
880.4215,-0.229743,2.904265E-09,NaN,-0.432713,-1.320166E-07,NaN,0.00765049,-5.281128E-07,NaN,-0.6359993,2.37732E-05,0.02365359,8.563842E-08,NaN,NaN,0.1767928,3.492446E-10,-4.951388E-07,-1.099379E-07,-6.963551E-09,-2.861022E-08
880.4366,-0.229743,2.904265E-09,NaN,-0.432713,-1.320166E-07,NaN,0.00765049,-5.281128E-07,NaN,-0.6359993,2.37732E-05,0.02365359,8.563842E-08,NaN,NaN,0.1767928,3.492446E-10,-4.951388E-07,-1.099379E-07,-6.963551E-09,-2.861022E-08
880.4508,-0.2299405,2.904909E-09,NaN,-0.4321469,-1.320173E-07,NaN,0.009258091,-5.283945E-07,NaN,-0.636456,2.377359E-05,0.02210124,8.593563E-08,NaN,NaN,0.1772991,3.539012E-10,-4.867941E-07,-1.099387E-07,-8.155644E-09,-2.622604E-08
880.4664,-0.2301111,2.905552E-09,NaN,-0.4316643,-1.320181E-07,NaN,0.01077631,-5.286732E-07,NaN,-0.6370344,2.377399E-05,0.02030046,8.622699E-08,NaN,NaN,0.1777955,3.492446E-10,-4.730851E-07,-1.099395E-07,-8.155644E-09,-2.861022E-08
880.4813,-0.2302642,2.906195E-09,NaN,-0.4312354,-1.320182E-07,NaN,0.01212733,-5.262804E-07,NaN,-0.6376622,2.377439E-05,0.01845838,8.390531E-08,NaN,NaN,0.1782821,3.492446E-10,-4.569918E-07,-1.099414E-07,-4.579365E-09,-2.622604E-08
880.496,-0.2302642,2.906195E-09,NaN,-0.4312354,-1.320182E-07,NaN,0.01212733,-5.262804E-07,NaN,-0.6376622,2.377439E-05,0.01845838,8.390531E-08,NaN,NaN,0.1782821,3.492446E-10,-4.569918E-07,-1.099414E-07,-4.579365E-09,-2.622604E-08
880.5104,-0.2303728,2.906839E-09,NaN,-0.4309461,-1.320189E-07,NaN,0.0136428,-5.264809E-07,NaN,-0.6388308,2.377478E-05,0.01595788,8.416306E-08,NaN,NaN,0.1790733,3.539012E-10,-4.420907E-07,-1.099424E-07,-9.347737E-09,-2.861022E-08
880.5272,-0.230453,2.907482E-09,NaN,-0.4307442,-1.320197E-07,NaN,0.01502993,-5.267412E-07,NaN,-0.640115,2.377519E-05,0.01322698,8.446936E-08,NaN,NaN,0.179849,3.44588E-10,-4.259974E-07,-1.099433E-07,-1.173192E-08,-2.622604E-08
880.5406,-0.2305153,2.908126E-09,NaN,-0.4305971,-1.320204E-07,NaN,0.01622003,-5.270185E-07,NaN,-0.6414389,2.377558E-05,0.01047737,8.478373E-08,NaN,NaN,0.1806094,3.44588E-10,-4.099041E-07,-1.099441E-07,-1.53082E-08,-2.861022E-08
880.5555,-0.2305153,2.908126E-09,NaN,-0.4305971,-1.320204E-07,NaN,0.01622003,-5.270185E-07,NaN,-0.6414389,2.377558E-05,0.01047737,8.478373E-08,NaN,NaN,0.1806094,3.44588E-10,-4.099041E-07,-1.099441E-07,-1.53082E-08,-2.861022E-08
880.5696,-0.2305659,2.90877E-09,NaN,-0.4304845,-1.320212E-07,NaN,0.0172372,-5.273054E-07,NaN,-0.6427668,2.377599E-05,0.007780097,8.510038E-08,NaN,NaN,0.181355,3.352748E-10,-3.926188E-07,-1.099449E-07,-1.173192E-08,-2.622604E-08
880.5853,-0.2305762,2.909413E-09,NaN,-0.4304971,-1.320219E-07,NaN,0.01843197,-5.275945E-07,NaN,-0.6446078,2.377637E-05,0.004466694,8.541362E-08,NaN,NaN,0.1824001,3.399314E-10,-3.789097E-07,-1.099456E-07,-1.411611E-08,-2.861022E-08
880.5998,-0.2305762,2.909413E-09,NaN,-0.4304971,-1.320219E-07,NaN,0.01843197,-5.275945E-07,NaN,-0.6446078,2.377637E-05,0.004466694,8.541362E-08,NaN,NaN,0.1824001,3.399314E-10,-3.789097E-07,-1.099456E-07,-1.411611E-08,-2.861022E-08
880.614,-0.2305623,2.910057E-09,NaN,-0.4305869,-1.320226E-07,NaN,0.01951794,-5.278849E-07,NaN,-0.6465442,2.377676E-05,0.0009415685,8.572352E-08,NaN,NaN,0.1834247,3.44588E-10,-3.610283E-07,-1.099464E-07,-1.053983E-08,-2.622604E-08
880.6297,-0.2305334,2.910701E-09,NaN,-0.430724,-1.320233E-07,NaN,0.0204207,-5.281756E-07,NaN,-0.6485049,2.377714E-05,-0.002589384,8.603014E-08,NaN,NaN,0.1844291,3.492446E-10,-3.413588E-07,-1.099472E-07,-5.771457E-09,-2.861022E-08
880.6445,-0.2304951,2.911344E-09,NaN,-0.4308896,-1.320242E-07,NaN,0.02115844,-5.287267E-07,NaN,-0.6504566,2.377755E-05,-0.006056171,8.659415E-08,NaN,NaN,0.1854139,3.44588E-10,-3.240735E-07,-1.099461E-07,-4.579364E-09,-2.861022E-08
880.6595,-0.2304951,2.911344E-09,NaN,-0.4308896,-1.320242E-07,NaN,0.02115844,-5.287267E-07,NaN,-0.6504566,2.377755E-05,-0.006056171,8.659415E-08,NaN,NaN,0.1854139,3.44588E-10,-3.240735E-07,-1.099461E-07,-4.579364E-09,-2.861022E-08
880.6736,-0.2304182,2.911987E-09,NaN,-0.4311768,-1.320247E-07,NaN,0.02206831,-5.294469E-07,NaN,-0.6529091,2.377796E-05,-0.01012634,8.732484E-08,NaN,NaN,0.1866935,3.399314E-10,-3.091723E-07,-1.099446E-07,-6.96355E-09,-2.861022E-08
880.6891,-0.2303174,2.912629E-09,NaN,-0.4315377,-1.32025E-07,NaN,0.02286537,-5.302476E-07,NaN,-0.6554459,2.377837E-05,-0.01439623,8.813428E-08,NaN,NaN,0.1879481,3.306182E-10,-2.918869E-07,-1.099429E-07,-4.579364E-09,-2.861022E-08
880.7039,-0.2302021,2.913273E-09,NaN,-0.4319425,-1.320251E-07,NaN,0.02347461,-5.310876E-07,NaN,-0.6579959,2.377879E-05,-0.01865805,8.898143E-08,NaN,NaN,0.189178,3.21305E-10,-2.728135E-07,-1.099412E-07,-4.579364E-09,-2.861022E-08
880.7189,-0.2302021,2.913273E-09,NaN,-0.4319425,-1.320251E-07,NaN,0.02347461,-5.310876E-07,NaN,-0.6579959,2.377879E-05,-0.01865805,8.898143E-08,NaN,NaN,0.189178,3.21305E-10,-2.728135E-07,-1.099412E-07,-4.579364E-09,-2.861022E-08
880.7329,-0.2300453,2.913916E-09,NaN,-0.4324771,-1.32025E-07,NaN,0.02420468,-5.319403E-07,NaN,-0.66105,2.37792E-05,-0.02352481,8.984014E-08,NaN,NaN,0.190698,3.119917E-10,-2.608925E-07,-1.099394E-07,2.573193E-09,-2.861022E-08
880.7495,-0.2298631,2.914559E-09,NaN,-0.4330894,-1.32025E-07,NaN,0.02478028,-5.32794E-07,NaN,-0.6641836,2.377962E-05,-0.02857652,9.069891E-08,NaN,NaN,0.1921881,3.026785E-10,-2.382428E-07,-1.099376E-07,3.765286E-09,-2.861022E-08
880.7631,-0.2296659,2.915203E-09,NaN,-0.4337468,-1.320249E-07,NaN,0.02513709,-5.336402E-07,NaN,-0.6673218,2.378003E-05,-0.03359981,9.154927E-08,NaN,NaN,0.1936491,2.933653E-10,-2.173811E-07,-1.099358E-07,2.573193E-09,-2.861022E-08
880.778,-0.2296659,2.915203E-09,NaN,-0.4337468,-1.320249E-07,NaN,0.02513709,-5.336402E-07,NaN,-0.6673218,2.378003E-05,-0.03359981,9.154927E-08,NaN,NaN,0.1936491,2.933653E-10,-2.173811E-07,-1.099358E-07,2.573193E-09,-2.861022E-08
880.7921,-0.2294602,2.915846E-09,NaN,-0.4344291,-1.320248E-07,NaN,0.02530317,-5.344758E-07,NaN,-0.6704303,2.378045E-05,-0.03852432,9.238856E-08,NaN,NaN,0.1950814,2.840521E-10,-1.965195E-07,-1.099339E-07,3.765286E-09,-2.861022E-08
880.8076,-0.229217,2.91649E-09,NaN,-0.4352283,-1.320246E-07,NaN,0.02559923,-5.352954E-07,NaN,-0.674017,2.378086E-05,-0.04401645,9.321136E-08,NaN,NaN,0.1967998,2.747389E-10,-1.792342E-07,-1.099321E-07,7.341565E-09,-2.861022E-08
880.822,-0.2289515,2.917134E-09,NaN,-0.436096,-1.320245E-07,NaN,0.02575965,-5.360993E-07,NaN,-0.6776658,2.378127E-05,-0.04967936,9.401798E-08,NaN,NaN,0.1984845,2.654257E-10,-1.565844E-07,-1.099303E-07,8.533657E-09,-2.861022E-08
880.8369,-0.2289515,2.917134E-09,NaN,-0.436096,-1.320245E-07,NaN,0.02575965,-5.360993E-07,NaN,-0.6776658,2.378127E-05,-0.04967936,9.401798E-08,NaN,NaN,0.1984845,2.654257E-10,-1.565844E-07,-1.099303E-07,8.533657E-09,-2.861022E-08
880.851,-0.2286732,2.917778E-09,NaN,-0.437002,-1.320244E-07,NaN,0.02571559,-5.368876E-07,NaN,-0.6813062,2.378169E-05,-0.0553038,9.480875E-08,NaN,NaN,0.2001362,2.561124E-10,-1.351267E-07,-1.099284E-07,6.149472E-09,-2.861022E-08
880.8662,-0.228388,2.918422E-09,NaN,-0.4379275,-1.320243E-07,NaN,0.02549027,-5.376579E-07,NaN,-0.6849062,2.37821E-05,-0.06082013,9.558115E-08,NaN,NaN,0.2017555,2.467992E-10,-1.148612E-07,-1.099266E-07,6.149472E-09,-2.861022E-08
880.8812,-0.2280668,2.919067E-09,NaN,-0.4389654,-1.320241E-07,NaN,0.02538407,-5.384102E-07,NaN,-0.6889734,2.378252E-05,-0.06689315,9.633554E-08,NaN,NaN,0.2036572,2.37486E-10,-9.697977E-08,-1.099248E-07,4.957379E-09,-2.861022E-08
880.8958,-0.2280668,2.919067E-09,NaN,-0.4389654,-1.320241E-07,NaN,0.02538407,-5.384102E-07,NaN,-0.6889734,2.378252E-05,-0.06689315,9.633554E-08,NaN,NaN,0.2036572,2.37486E-10,-9.697977E-08,-1.099248E-07,4.957379E-09,-2.861022E-08
880.9099,-0.2277246,2.919711E-09,NaN,-0.4400681,-1.320238E-07,NaN,0.02513944,-5.386734E-07,NaN,-0.6930926,2.378293E-05,-0.0731284,9.660058E-08,NaN,NaN,0.2055216,2.328294E-10,-7.641616E-08,-1.099248E-07,4.957379E-09,-2.622604E-08
880.9254,-0.2273706,2.920356E-09,NaN,-0.4412055,-1.320239E-07,NaN,0.02468837,-5.387622E-07,NaN,-0.6971943,2.378333E-05,-0.07931393,9.669107E-08,NaN,NaN,0.2073495,2.235162E-10,-5.257431E-08,-1.099252E-07,4.957379E-09,-2.861022E-08
880.9403,-0.2270108,2.921001E-09,NaN,-0.4423594,-1.320244E-07,NaN,0.02405519,-5.386207E-07,NaN,-0.7012468,2.378373E-05,-0.08537953,9.655115E-08,NaN,NaN,0.2091416,2.142029E-10,-2.694431E-08,-1.099253E-07,2.573193E-09,-2.622604E-08
880.9553,-0.2270108,2.921001E-09,NaN,-0.4423594,-1.320244E-07,NaN,0.02405519,-5.386207E-07,NaN,-0.7012468,2.378373E-05,-0.08537953,9.655115E-08,NaN,NaN,0.2091416,2.142029E-10,-2.694431E-08,-1.099253E-07,2.573193E-09,-2.622604E-08
880.9692,-0.226616,2.921645E-09,NaN,-0.4436227,-1.320251E-07,NaN,0.02352284,-5.384453E-07,NaN,-0.7057565,2.378413E-05,-0.0919893,9.637726E-08,NaN,NaN,0.2112126,2.048897E-10,-8.466872E-09,-1.099255E-07,-3.387271E-09,-2.861022E-08
880.9857,-0.2262009,2.92229E-09,NaN,-0.4449478,-1.320258E-07,NaN,0.02284604,-5.382395E-07,NaN,-0.7103091,2.378452E-05,-0.09875162,9.617287E-08,NaN,NaN,0.2132431,1.955765E-10,1.68651E-08,-1.099258E-07,-3.387271E-09,-2.622604E-08
881.0006,-0.2257751,2.922935E-09,NaN,-0.446305,-1.320264E-07,NaN,0.02196002,-5.38159E-07,NaN,-0.7148355,2.378491E-05,-0.1054523,9.609377E-08,NaN,NaN,0.2152338,1.909199E-10,3.981289E-08,-1.099265E-07,4.957379E-09,-2.861022E-08
881.014,-0.2257751,2.922935E-09,NaN,-0.446305,-1.320264E-07,NaN,0.02196002,-5.38159E-07,NaN,-0.7148355,2.378491E-05,-0.1054523,9.609377E-08,NaN,NaN,0.2152338,1.909199E-10,3.981289E-08,-1.099265E-07,4.957379E-09,-2.861022E-08
881.0282,-0.2253112,2.92358E-09,NaN,-0.4477804,-1.32027E-07,NaN,0.02111785,-5.380547E-07,NaN,-0.7198234,2.378529E-05,-0.1127004,9.599079E-08,NaN,NaN,0.2174995,1.909199E-10,5.829033E-08,-1.099273E-07,4.957379E-09,-2.622604E-08
881.0435,-0.2248258,2.924224E-09,NaN,-0.4493219,-1.320276E-07,NaN,0.02009098,-5.379411E-07,NaN,-0.7248508,2.378567E-05,-0.1200878,9.587849E-08,NaN,NaN,0.2197209,1.909199E-10,8.243021E-08,-1.099281E-07,2.573193E-09,-2.861022E-08
881.0581,-0.2248258,2.924224E-09,NaN,-0.4493219,-1.320276E-07,NaN,0.02009098,-5.379411E-07,NaN,-0.7248508,2.378567E-05,-0.1200878,9.587849E-08,NaN,NaN,0.2197209,1.909199E-10,8.243021E-08,-1.099281E-07,2.573193E-09,-2.861022E-08
881.0721,-0.224329,2.924869E-09,NaN,-0.4508972,-1.320283E-07,NaN,0.0188283,-5.378241E-07,NaN,-0.7298459,2.378605E-05,-0.1273945,9.576271E-08,NaN,NaN,0.2218988,1.909199E-10,1.068681E-07,-1.099289E-07,3.765286E-09,-2.622604E-08
881.0875,-0.2238272,2.925514E-09,NaN,-0.4524862,-1.32029E-07,NaN,0.01736752,-5.377065E-07,NaN,-0.7347764,2.378644E-05,-0.1345506,9.564633E-08,NaN,NaN,0.224034,1.909199E-10,1.304119E-07,-1.099297E-07,3.765286E-09,-2.861022E-08
881.1024,-0.2232913,2.926158E-09,NaN,-0.4541811,-1.320297E-07,NaN,0.0159638,-5.375883E-07,NaN,-0.7401446,2.378682E-05,-0.1422225,9.552936E-08,NaN,NaN,0.2264414,1.909199E-10,1.479953E-07,-1.099305E-07,4.957379E-09,-2.622604E-08
881.1171,-0.2232913,2.926158E-09,NaN,-0.4541811,-1.320297E-07,NaN,0.0159638,-5.375883E-07,NaN,-0.7401446,2.378682E-05,-0.1422225,9.552936E-08,NaN,NaN,0.2264414,1.909199E-10,1.479953E-07,-1.099305E-07,4.957379E-09,-2.622604E-08
881.1309,-0.2227365,2.926803E-09,NaN,-0.4559335,-1.320303E-07,NaN,0.01440064,-5.374723E-07,NaN,-0.745538,2.37872E-05,-0.150024,9.541464E-08,NaN,NaN,0.2288017,1.909199E-10,1.736253E-07,-1.099313E-07,2.573193E-09,-2.861022E-08
881.1467,-0.2221724,2.927447E-09,NaN,-0.4577134,-1.32031E-07,NaN,0.01262272,-5.373614E-07,NaN,-0.750889,2.378758E-05,-0.157738,9.530496E-08,NaN,NaN,0.2311157,1.909199E-10,2.028316E-07,-1.099321E-07,1.3811E-09,-2.622604E-08
881.1611,-0.2216049,2.928091E-09,NaN,-0.4595022,-1.320317E-07,NaN,0.010663,-5.372526E-07,NaN,-0.7561677,2.378798E-05,-0.1652951,9.519737E-08,NaN,NaN,0.2333844,1.7695E-10,2.296537E-07,-1.099329E-07,1.3811E-09,-2.861022E-08
881.176,-0.2216049,2.928091E-09,NaN,-0.4595022,-1.320317E-07,NaN,0.010663,-5.372526E-07,NaN,-0.7561677,2.378798E-05,-0.1652951,9.519737E-08,NaN,NaN,0.2333844,1.7695E-10,2.296537E-07,-1.099329E-07,1.3811E-09,-2.861022E-08
881.1901,-0.2210044,2.928736E-09,NaN,-0.4613931,-1.320324E-07,NaN,0.008750122,-5.371459E-07,NaN,-0.7618748,2.378836E-05,-0.1733618,9.509185E-08,NaN,NaN,0.2359226,1.7695E-10,2.475351E-07,-1.099337E-07,4.957379E-09,-2.622604E-08
881.2054,-0.220386,2.92938E-09,NaN,-0.4633383,-1.320331E-07,NaN,0.006680113,-5.370441E-07,NaN,-0.7675997,2.378874E-05,-0.1815522,9.499117E-08,NaN,NaN,0.2384111,1.7695E-10,2.725691E-07,-1.099345E-07,8.533657E-09,-2.861022E-08
881.2203,-0.2197593,2.930024E-09,NaN,-0.465308,-1.320337E-07,NaN,0.004400394,-5.369441E-07,NaN,-0.7732759,2.378912E-05,-0.1896459,9.489242E-08,NaN,NaN,0.240851,1.7695E-10,2.987951E-07,-1.099353E-07,1.89007E-10,-2.622604E-08
881.2349,-0.2197593,2.930024E-09,NaN,-0.465308,-1.320337E-07,NaN,0.004400394,-5.369441E-07,NaN,-0.7732759,2.378912E-05,-0.1896459,9.489242E-08,NaN,NaN,0.240851,1.7695E-10,2.987951E-07,-1.099353E-07,1.89007E-10,-2.622604E-08
881.2502,-0.2190967,2.930669E-09,NaN,-0.4673886,-1.320344E-07,NaN,0.002110368,-5.368489E-07,NaN,-0.779385,2.378951E-05,-0.1982535,9.479839E-08,NaN,NaN,0.2435569,1.7695E-10,3.142923E-07,-1.099361E-07,-1.003086E-09,-2.861022E-08
881.2643,-0.2184148,2.931313E-09,NaN,-0.469528,-1.320351E-07,NaN,-0.0003727297,-5.367555E-07,NaN,-0.7855104,2.378989E-05,-0.2069713,9.470615E-08,NaN,NaN,0.24621,1.7695E-10,3.429026E-07,-1.099369E-07,-4.579364E-09,-2.622604E-08
881.2791,-0.2184148,2.931313E-09,NaN,-0.469528,-1.320351E-07,NaN,-0.0003727297,-5.367555E-07,NaN,-0.7855104,2.378989E-05,-0.2069713,9.470615E-08,NaN,NaN,0.24621,1.7695E-10,3.429026E-07,-1.099369E-07,-4.579364E-09,-2.622604E-08
881.293,-0.2177238,2.931957E-09,NaN,-0.4716938,-1.320357E-07,NaN,-0.003085916,-5.366639E-07,NaN,-0.7915826,2.379027E-05,-0.2155735,9.461568E-08,NaN,NaN,0.2488111,1.7695E-10,3.74493E-07,-1.099377E-07,-1.003086E-09,-2.861022E-08
881.3083,-0.2170302,2.932601E-09,NaN,-0.4738662,-1.320364E-07,NaN,-0.005983151,-5.365768E-07,NaN,-0.797571,2.379065E-05,-0.2239918,9.452976E-08,NaN,NaN,0.2513612,1.7695E-10,4.025072E-07,-1.099385E-07,-8.155643E-09,-2.622604E-08
881.3228,-0.2163045,2.933245E-09,NaN,-0.4761375,-1.320371E-07,NaN,-0.008871105,-5.364914E-07,NaN,-0.8039704,2.379103E-05,-0.2328973,9.444548E-08,NaN,NaN,0.2541752,1.7695E-10,4.245609E-07,-1.099393E-07,-1.173192E-08,-2.861022E-08
881.3375,-0.2163045,2.933245E-09,NaN,-0.4761375,-1.320371E-07,NaN,-0.008871105,-5.364914E-07,NaN,-0.8039704,2.379103E-05,-0.2328973,9.444548E-08,NaN,NaN,0.2541752,1.7695E-10,4.245609E-07,-1.099393E-07,-1.173192E-08,-2.861022E-08
881.3516,-0.215562,2.93389E-09,NaN,-0.4784592,-1.320377E-07,NaN,-0.01192094,-5.364104E-07,NaN,-0.810374,2.379142E-05,-0.2419061,9.436562E-08,NaN,NaN,0.2569342,1.7695E-10,4.501909E-07,-1.099401E-07,-5.771458E-09,-2.622604E-08
881.3672,-0.2148124,2.934534E-09,NaN,-0.4808016,-1.320384E-07,NaN,-0.01517421,-5.363309E-07,NaN,-0.8167166,2.37918E-05,-0.2507947,9.428729E-08,NaN,NaN,0.2596392,1.7695E-10,4.76715E-07,-1.099409E-07,-8.155643E-09,-2.861022E-08
881.3818,-0.2140615,2.935177E-09,NaN,-0.483146,-1.320391E-07,NaN,-0.01859012,-5.362529E-07,NaN,-0.8229698,2.379218E-05,-0.2594948,9.421045E-08,NaN,NaN,0.2622912,1.7695E-10,5.02643E-07,-1.099417E-07,-1.053983E-08,-2.622604E-08
881.3967,-0.2140615,2.935177E-09,NaN,-0.483146,-1.320391E-07,NaN,-0.01859012,-5.362529E-07,NaN,-0.8229698,2.379218E-05,-0.2594948,9.421045E-08,NaN,NaN,0.2622912,1.7695E-10,5.02643E-07,-1.099417E-07,-1.053983E-08,-2.622604E-08
881.4108,-0.2132796,2.935821E-09,NaN,-0.4855859,-1.320397E-07,NaN,-0.02200525,-5.361792E-07,NaN,-0.8296255,2.379256E-05,-0.2686796,9.413789E-08,NaN,NaN,0.265205,1.7695E-10,5.175442E-07,-1.099424E-07,-1.650029E-08,-2.861022E-08
881.4261,-0.2124818,2.936465E-09,NaN,-0.4880733,-1.320404E-07,NaN,-0.02557589,-5.361068E-07,NaN,-0.8362803,2.379294E-05,-0.2779623,9.406662E-08,NaN,NaN,0.2680619,1.816066E-10,5.463034E-07,-1.099432E-07,-1.411611E-08,-2.622604E-08
881.4409,-0.2116777,2.937107E-09,NaN,-0.4905787,-1.32041E-07,NaN,-0.0293396,-5.360385E-07,NaN,-0.8428699,2.379332E-05,-0.2871163,9.399953E-08,NaN,NaN,0.2708628,1.816066E-10,5.741686E-07,-1.09944E-07,-1.292401E-08,-2.861022E-08
881.4557,-0.2116777,2.937107E-09,NaN,-0.4905787,-1.32041E-07,NaN,-0.0293396,-5.360385E-07,NaN,-0.8428699,2.379332E-05,-0.2871163,9.399953E-08,NaN,NaN,0.2708628,1.816066E-10,5.741686E-07,-1.09944E-07,-1.292401E-08,-2.861022E-08
881.4698,-0.2108395,2.93775E-09,NaN,-0.4931884,-1.320417E-07,NaN,-0.03315902,-5.359715E-07,NaN,-0.849867,2.37937E-05,-0.296759,9.393371E-08,NaN,NaN,0.2739227,1.816066E-10,5.951792E-07,-1.099448E-07,-1.173192E-08,-2.622604E-08
881.4866,-0.209984,2.938393E-09,NaN,-0.4958505,-1.320423E-07,NaN,-0.03716484,-5.359086E-07,NaN,-0.8568634,2.379408E-05,-0.3064845,9.387195E-08,NaN,NaN,0.2769228,1.816066E-10,6.233424E-07,-1.099455E-07,-6.963551E-09,-2.861022E-08
881.501,-0.2091215,2.939035E-09,NaN,-0.4985327,-1.320432E-07,NaN,-0.04137747,-5.35717E-07,NaN,-0.863792,2.379447E-05,-0.316062,9.368156E-08,NaN,NaN,0.2798641,1.816066E-10,6.543368E-07,-1.099458E-07,2.573192E-09,-2.622604E-08
881.5157,-0.2091215,2.939035E-09,NaN,-0.4985327,-1.320432E-07,NaN,-0.04137747,-5.35717E-07,NaN,-0.863792,2.379447E-05,-0.316062,9.368156E-08,NaN,NaN,0.2798641,1.816066E-10,6.543368E-07,-1.099458E-07,2.573192E-09,-2.622604E-08
881.5288,-0.2082583,2.939678E-09,NaN,-0.5012152,-1.32044E-07,NaN,-0.0457433,-5.35549E-07,NaN,-0.8706239,2.379485E-05,-0.3254261,9.35146E-08,NaN,NaN,0.2827478,1.816066E-10,6.82351E-07,-1.099461E-07,1.381099E-09,-2.861022E-08
881.5442,-0.2073647,2.940321E-09,NaN,-0.5039904,-1.320448E-07,NaN,-0.05013978,-5.353869E-07,NaN,-0.8778427,2.379523E-05,-0.3352585,9.33537E-08,NaN,NaN,0.2858887,1.816066E-10,7.002324E-07,-1.099463E-07,1.381099E-09,-2.622604E-08
881.5587,-0.2073647,2.940321E-09,NaN,-0.5039904,-1.320448E-07,NaN,-0.05013978,-5.353869E-07,NaN,-0.8778427,2.379523E-05,-0.3352585,9.33537E-08,NaN,NaN,0.2858887,1.816066E-10,7.002324E-07,-1.099463E-07,1.381099E-09,-2.622604E-08
881.5729,-0.2064562,2.940963E-09,NaN,-0.5068099,-1.320454E-07,NaN,-0.05468748,-5.353662E-07,NaN,-0.885051,2.37956E-05,-0.3451685,9.333417E-08,NaN,NaN,0.2889682,1.909199E-10,7.276505E-07,-1.099471E-07,-4.579364E-09,-2.861022E-08
881.5882,-0.2055424,2.941605E-09,NaN,-0.509644,-1.32046E-07,NaN,-0.05941176,-5.353318E-07,NaN,-0.8921857,2.379598E-05,-0.3549274,9.330088E-08,NaN,NaN,0.2919875,1.909199E-10,7.547706E-07,-1.099478E-07,1.89007E-10,-2.622604E-08
881.6028,-0.2046293,2.942248E-09,NaN,-0.5124742,-1.320466E-07,NaN,-0.06426485,-5.352951E-07,NaN,-0.8992199,2.379637E-05,-0.3644703,9.326537E-08,NaN,NaN,0.2949475,1.909199E-10,7.818907E-07,-1.099485E-07,1.89007E-10,-2.861022E-08
881.6177,-0.2046293,2.942248E-09,NaN,-0.5124742,-1.320466E-07,NaN,-0.06426485,-5.352951E-07,NaN,-0.8992199,2.379637E-05,-0.3644703,9.326537E-08,NaN,NaN,0.2949475,1.909199E-10,7.818907E-07,-1.099485E-07,1.89007E-10,-2.861022E-08
881.6315,-0.2036867,2.94289E-09,NaN,-0.515394,-1.320472E-07,NaN,-0.0691564,-5.352563E-07,NaN,-0.9066332,2.379675E-05,-0.3744819,9.32277E-08,NaN,NaN,0.2981632,1.909199E-10,7.995486E-07,-1.099493E-07,-3.387272E-09,-2.622604E-08
881.6472,-0.20273,2.943532E-09,NaN,-0.5183555,-1.320479E-07,NaN,-0.07419007,-5.352153E-07,NaN,-0.9140329,2.379713E-05,-0.384565,9.318789E-08,NaN,NaN,0.3013162,1.909199E-10,8.290529E-07,-1.0995E-07,-6.96355E-09,-2.861022E-08
881.6617,-0.2017687,2.944174E-09,NaN,-0.5213293,-1.320485E-07,NaN,-0.07938617,-5.35175E-07,NaN,-0.9213568,2.379751E-05,-0.394489,9.314882E-08,NaN,NaN,0.3044074,1.909199E-10,8.579611E-07,-1.099508E-07,-6.96355E-09,-2.622604E-08
881.6766,-0.2017687,2.944174E-09,NaN,-0.5213293,-1.320485E-07,NaN,-0.07938617,-5.35175E-07,NaN,-0.9213568,2.379751E-05,-0.394489,9.314882E-08,NaN,NaN,0.3044074,1.909199E-10,8.579611E-07,-1.099508E-07,-6.96355E-09,-2.622604E-08
881.6906,-0.2007749,2.944817E-09,NaN,-0.5244018,-1.320491E-07,NaN,-0.08467569,-5.351384E-07,NaN,-0.9290656,2.379789E-05,-0.4048844,9.311329E-08,NaN,NaN,0.3077516,1.955765E-10,8.746504E-07,-1.099515E-07,-9.347736E-09,-2.861022E-08
881.7061,-0.1997655,2.945459E-09,NaN,-0.527521,-1.320497E-07,NaN,-0.09013288,-5.351023E-07,NaN,-0.9367631,2.379828E-05,-0.4153335,9.307841E-08,NaN,NaN,0.3110307,1.955765E-10,9.064644E-07,-1.099523E-07,-9.943783E-09,-2.622604E-08
881.7209,-0.1987509,2.946101E-09,NaN,-0.5306546,-1.320504E-07,NaN,-0.09576001,-5.350669E-07,NaN,-0.944384,2.379866E-05,-0.4256039,9.304417E-08,NaN,NaN,0.3142454,2.002331E-10,9.349628E-07,-1.09953E-07,-9.347736E-09,-2.861022E-08
881.7355,-0.1987509,2.946101E-09,NaN,-0.5306546,-1.320504E-07,NaN,-0.09576001,-5.350669E-07,NaN,-0.944384,2.379866E-05,-0.4256039,9.304417E-08,NaN,NaN,0.3142454,2.002331E-10,9.349628E-07,-1.09953E-07,-9.347736E-09,-2.861022E-08
881.7518,-0.1977373,2.946743E-09,NaN,-0.5337831,-1.32051E-07,NaN,-0.1014979,-5.35035E-07,NaN,-0.9519002,2.379905E-05,-0.4356358,9.301338E-08,NaN,NaN,0.3173971,1.955765E-10,9.628652E-07,-1.099538E-07,-6.367504E-09,-2.622604E-08
881.7661,-0.1966947,2.947385E-09,NaN,-0.5369989,-1.320516E-07,NaN,-0.1073016,-5.350036E-07,NaN,-0.9597818,2.379944E-05,-0.4461254,9.298314E-08,NaN,NaN,0.3208007,2.002331E-10,9.800387E-07,-1.099545E-07,-4.579364E-09,-2.861022E-08
881.7799,-0.1966947,2.947385E-09,NaN,-0.5369989,-1.320516E-07,NaN,-0.1073016,-5.350036E-07,NaN,-0.9597818,2.379944E-05,-0.4461254,9.298314E-08,NaN,NaN,0.3208007,2.002331E-10,9.800387E-07,-1.099545E-07,-4.579364E-09,-2.861022E-08
881.7937,-0.1956388,2.948027E-09,NaN,-0.5402536,-1.320523E-07,NaN,-0.1132368,-5.349727E-07,NaN,-0.967644,2.379983E-05,-0.4566646,9.295346E-08,NaN,NaN,0.3241379,1.955765E-10,1.005911E-06,-1.099552E-07,-2.195179E-09,-2.622604E-08
881.809,-0.1945794,2.948669E-09,NaN,-0.5435176,-1.320529E-07,NaN,-0.1193108,-5.349452E-07,NaN,-0.9754253,2.380021E-05,-0.4670234,9.292713E-08,NaN,NaN,0.3274096,2.002331E-10,1.032253E-06,-1.09956E-07,-1.003086E-09,-2.861022E-08
881.8235,-0.1935222,2.949311E-09,NaN,-0.5467727,-1.320535E-07,NaN,-0.1254706,-5.349182E-07,NaN,-0.9830993,2.38006E-05,-0.4771426,9.290127E-08,NaN,NaN,0.3306172,1.955765E-10,1.057744E-06,-1.099567E-07,1.977146E-09,-2.622604E-08
881.8383,-0.1935222,2.949311E-09,NaN,-0.5467727,-1.320535E-07,NaN,-0.1254706,-5.349182E-07,NaN,-0.9830993,2.38006E-05,-0.4771426,9.290127E-08,NaN,NaN,0.3306172,1.955765E-10,1.057744E-06,-1.099567E-07,1.977146E-09,-2.622604E-08
881.8522,-0.1924368,2.949953E-09,NaN,-0.5501121,-1.320541E-07,NaN,-0.131705,-5.348945E-07,NaN,-0.9911314,2.380098E-05,-0.4877222,9.28787E-08,NaN,NaN,0.3340755,2.002331E-10,1.076054E-06,-1.099574E-07,9.129703E-09,-2.861022E-08
881.8676,-0.1913389,2.950594E-09,NaN,-0.5534881,-1.320547E-07,NaN,-0.1380604,-5.348712E-07,NaN,-0.9991429,2.380136E-05,-0.4983438,9.285652E-08,NaN,NaN,0.3374664,2.048897E-10,1.100603E-06,-1.099582E-07,7.341564E-09,-2.622604E-08
881.8824,-0.1902381,2.951236E-09,NaN,-0.5568713,-1.320553E-07,NaN,-0.1445384,-5.348483E-07,NaN,-1.007073,2.380175E-05,-0.5087773,9.283473E-08,NaN,NaN,0.3407908,2.095463E-10,1.124892E-06,-1.099589E-07,4.957378E-09,-2.861022E-08
881.8969,-0.1902381,2.951236E-09,NaN,-0.5568713,-1.320553E-07,NaN,-0.1445384,-5.348483E-07,NaN,-1.007073,2.380175E-05,-0.5087773,9.283473E-08,NaN,NaN,0.3407908,2.095463E-10,1.124892E-06,-1.099589E-07,4.957378E-09,-2.861022E-08
881.9111,-0.1891059,2.951878E-09,NaN,-0.5603483,-1.320559E-07,NaN,-0.1511435,-5.348285E-07,NaN,-1.015368,2.380214E-05,-0.519671,9.281614E-08,NaN,NaN,0.3443637,2.048897E-10,1.14024E-06,-1.099596E-07,3.169239E-09,-2.622604E-08
881.9265,-0.1879596,2.95252E-09,NaN,-0.5638669,-1.320565E-07,NaN,-0.1578896,-5.348091E-07,NaN,-1.023646,2.380252E-05,-0.5305863,9.279788E-08,NaN,NaN,0.3478668,2.095463E-10,1.165572E-06,-1.099604E-07,2.573192E-09,-2.861022E-08
881.9411,-0.1868096,2.953162E-09,NaN,-0.5673952,-1.320571E-07,NaN,-0.1647604,-5.347928E-07,NaN,-1.031844,2.380291E-05,-0.5412945,9.278275E-08,NaN,NaN,0.3513013,2.048897E-10,1.190979E-06,-1.099611E-07,4.361332E-09,-2.622604E-08
881.9573,-0.1868096,2.953162E-09,NaN,-0.5673952,-1.320571E-07,NaN,-0.1647604,-5.347928E-07,NaN,-1.031844,2.380291E-05,-0.5412945,9.278275E-08,NaN,NaN,0.3513013,2.048897E-10,1.190979E-06,-1.099611E-07,4.361332E-09,-2.622604E-08
881.97,-0.1856623,2.953804E-09,NaN,-0.5709135,-1.320577E-07,NaN,-0.1716938,-5.347767E-07,NaN,-1.039932,2.380329E-05,-0.5517443,9.276786E-08,NaN,NaN,0.3546684,2.095463E-10,1.214671E-06,-1.099618E-07,6.745517E-09,-2.861022E-08
881.9858,-0.1844871,2.954446E-09,NaN,-0.5745144,-1.320583E-07,NaN,-0.178728,-5.347609E-07,NaN,-1.048366,2.380368E-05,-0.5626472,9.275323E-08,NaN,NaN,0.3582831,2.048897E-10,1.228977E-06,-1.099625E-07,4.957378E-09,-2.622604E-08
882.0001,-0.1833001,2.955088E-09,NaN,-0.5781497,-1.320589E-07,NaN,-0.1858686,-5.347482E-07,NaN,-1.056777,2.380406E-05,-0.573568,9.274165E-08,NaN,NaN,0.3618272,2.095463E-10,1.252669E-06,-1.099632E-07,4.361332E-09,-2.861022E-08
882.0161,-0.1833001,2.955088E-09,NaN,-0.5781497,-1.320589E-07,NaN,-0.1858686,-5.347482E-07,NaN,-1.056777,2.380406E-05,-0.573568,9.274165E-08,NaN,NaN,0.3618272,2.095463E-10,1.252669E-06,-1.099632E-07,4.361332E-09,-2.861022E-08
882.0298,-0.182111,2.955729E-09,NaN,-0.5817895,-1.320595E-07,NaN,-0.193104,-5.347358E-07,NaN,-1.065104,2.380446E-05,-0.5842812,9.273035E-08,NaN,NaN,0.3653019,2.048897E-10,1.275766E-06,-1.099639E-07,7.850531E-10,-2.622604E-08
882.0443,-0.1809258,2.956371E-09,NaN,-0.5854157,-1.320601E-07,NaN,-0.2003785,-5.347235E-07,NaN,-1.073319,2.380484E-05,-0.5947369,9.271922E-08,NaN,NaN,0.3687084,2.095463E-10,1.292903E-06,-1.099646E-07,-4.070397E-10,-2.861022E-08
882.0591,-0.1809258,2.956371E-09,NaN,-0.5854157,-1.320601E-07,NaN,-0.2003785,-5.347235E-07,NaN,-1.073319,2.380484E-05,-0.5947369,9.271922E-08,NaN,NaN,0.3687084,2.095463E-10,1.292903E-06,-1.099646E-07,-4.070397E-10,-2.861022E-08
882.0729,-0.1797132,2.957013E-09,NaN,-0.5891219,-1.320607E-07,NaN,-0.2077646,-5.347142E-07,NaN,-1.081874,2.380523E-05,-0.6056493,9.271109E-08,NaN,NaN,0.3723618,2.048897E-10,1.304078E-06,-1.099653E-07,-2.493202E-09,-2.622604E-08
882.0883,-0.1784896,2.957655E-09,NaN,-0.5928603,-1.320613E-07,NaN,-0.2152462,-5.347051E-07,NaN,-1.090405,2.380561E-05,-0.6165701,9.270307E-08,NaN,NaN,0.3759438,2.095463E-10,1.323003E-06,-1.09966E-07,-5.175411E-09,-2.861022E-08
882.103,-0.1772644,2.958296E-09,NaN,-0.5966014,-1.320619E-07,NaN,-0.2228054,-5.346988E-07,NaN,-1.098853,2.380599E-05,-0.6272768,9.269798E-08,NaN,NaN,0.3794557,2.142029E-10,1.342374E-06,-1.099667E-07,-9.943783E-09,-2.622604E-08
882.1178,-0.1772644,2.958296E-09,NaN,-0.5966014,-1.320619E-07,NaN,-0.2228054,-5.346988E-07,NaN,-1.098853,2.380599E-05,-0.6272768,9.269798E-08,NaN,NaN,0.3794557,2.142029E-10,1.342374E-06,-1.099667E-07,-9.943783E-09,-2.622604E-08
882.1317,-0.1760089,2.958938E-09,NaN,-0.6004319,-1.320625E-07,NaN,-0.2305252,-5.346926E-07,NaN,-1.107647,2.380637E-05,-0.6384364,9.269295E-08,NaN,NaN,0.3832123,2.188595E-10,1.35206E-06,-1.099674E-07,-8.155643E-09,-2.861022E-08
882.147,-0.1747406,2.959579E-09,NaN,-0.6042997,-1.320631E-07,NaN,-0.2383546,-5.346893E-07,NaN,-1.116424,2.380676E-05,-0.6495823,9.26908E-08,NaN,NaN,0.3868955,2.235161E-10,1.368451E-06,-1.099681E-07,-6.665527E-09,-2.622604E-08
882.1616,-0.1734701,2.960221E-09,NaN,-0.6081728,-1.320636E-07,NaN,-0.2462593,-5.34686E-07,NaN,-1.125119,2.380714E-05,-0.6604976,9.268864E-08,NaN,NaN,0.3905066,2.281727E-10,1.38827E-06,-1.099688E-07,-3.089249E-09,-2.861022E-08
882.1764,-0.1734701,2.960221E-09,NaN,-0.6081728,-1.320636E-07,NaN,-0.2462593,-5.34686E-07,NaN,-1.125119,2.380714E-05,-0.6604976,9.268864E-08,NaN,NaN,0.3905066,2.281727E-10,1.38827E-06,-1.099688E-07,-3.089249E-09,-2.861022E-08
882.1903,-0.1722037,2.960862E-09,NaN,-0.6120318,-1.320642E-07,NaN,-0.2541781,-5.346827E-07,NaN,-1.133703,2.380753E-05,-0.6711423,9.268648E-08,NaN,NaN,0.3940469,2.235161E-10,1.405555E-06,-1.099695E-07,-3.983318E-09,-2.622604E-08
882.206,-0.1709103,2.961504E-09,NaN,-0.6159692,-1.320648E-07,NaN,-0.2622357,-5.346822E-07,NaN,-1.142613,2.380791E-05,-0.6822376,9.268714E-08,NaN,NaN,0.3978313,2.281727E-10,1.411516E-06,-1.099702E-07,-3.23826E-09,-2.861022E-08
882.2208,-0.1696064,2.962145E-09,NaN,-0.6199369,-1.320654E-07,NaN,-0.2703716,-5.346816E-07,NaN,-1.151501,2.380829E-05,-0.6933154,9.268773E-08,NaN,NaN,0.4015418,2.328293E-10,1.429397E-06,-1.099709E-07,-7.261574E-09,-2.622604E-08
882.2354,-0.1696064,2.962145E-09,NaN,-0.6199369,-1.320654E-07,NaN,-0.2703716,-5.346816E-07,NaN,-1.151501,2.380829E-05,-0.6933154,9.268773E-08,NaN,NaN,0.4015418,2.328293E-10,1.429397E-06,-1.099709E-07,-7.261574E-09,-2.622604E-08
882.2494,-0.1683017,2.962787E-09,NaN,-0.623905,-1.32066E-07,NaN,-0.2785555,-5.34681E-07,NaN,-1.160304,2.380868E-05,-0.7041639,9.268827E-08,NaN,NaN,0.4051797,2.374859E-10,1.446385E-06,-1.099716E-07,-8.453666E-09,-2.861022E-08
882.2647,-0.1670023,2.963428E-09,NaN,-0.6278555,-1.320665E-07,NaN,-0.2867323,-5.346832E-07,NaN,-1.168994,2.380907E-05,-0.7147451,9.269158E-08,NaN,NaN,0.4087462,2.328293E-10,1.459796E-06,-1.099723E-07,-9.645759E-09,-2.622604E-08
882.2803,-0.1656765,2.96407E-09,NaN,-0.6318821,-1.320671E-07,NaN,-0.2950617,-5.346852E-07,NaN,-1.178003,2.380946E-05,-0.7257788,9.269478E-08,NaN,NaN,0.4125565,2.281727E-10,1.464266E-06,-1.09973E-07,-7.485091E-09,-2.861022E-08
882.295,-0.1656765,2.96407E-09,NaN,-0.6318821,-1.320671E-07,NaN,-0.2950617,-5.346852E-07,NaN,-1.178003,2.380946E-05,-0.7257788,9.269478E-08,NaN,NaN,0.4125565,2.281727E-10,1.464266E-06,-1.09973E-07,-7.485091E-09,-2.861022E-08
882.3083,-0.1643406,2.964711E-09,NaN,-0.6359369,-1.320677E-07,NaN,-0.3034578,-5.3469E-07,NaN,-1.186992,2.380985E-05,-0.7367848,9.270069E-08,NaN,NaN,0.4162923,2.235161E-10,1.475889E-06,-1.099736E-07,-7.783114E-09,-2.622604E-08
882.3234,-0.1630047,2.965353E-09,NaN,-0.6399906,-1.320682E-07,NaN,-0.3118847,-5.346946E-07,NaN,-1.195896,2.381023E-05,-0.7475584,9.270644E-08,NaN,NaN,0.419955,2.281727E-10,1.488704E-06,-1.099743E-07,-9.310483E-09,-2.861022E-08
882.3381,-0.1630047,2.965353E-09,NaN,-0.6399906,-1.320682E-07,NaN,-0.3118847,-5.346946E-07,NaN,-1.195896,2.381023E-05,-0.7475584,9.270644E-08,NaN,NaN,0.419955,2.281727E-10,1.488704E-06,-1.099743E-07,-9.310483E-09,-2.861022E-08
882.3521,-0.1616391,2.965994E-09,NaN,-0.6441299,-1.320688E-07,NaN,-0.3205082,-5.34699E-07,NaN,-1.205129,2.381061E-05,-0.7587767,9.271202E-08,NaN,NaN,0.4238594,2.328293E-10,1.492578E-06,-1.09975E-07,-7.075309E-09,-2.622604E-08
882.3672,-0.160262,2.966636E-09,NaN,-0.6483026,-1.320694E-07,NaN,-0.3292068,-5.347061E-07,NaN,-1.214348,2.3811E-05,-0.7699466,9.272028E-08,NaN,NaN,0.4276876,2.374859E-10,1.503903E-06,-1.099756E-07,-1.034425E-08,-2.861022E-08
882.3818,-0.158884,2.967277E-09,NaN,-0.6524768,-1.320699E-07,NaN,-0.3379307,-5.34713E-07,NaN,-1.223485,2.381138E-05,-0.780872,9.272833E-08,NaN,NaN,0.4314408,2.421426E-10,1.512248E-06,-1.099763E-07,-5.836651E-09,-2.622604E-08
882.3964,-0.158884,2.967277E-09,NaN,-0.6524768,-1.320699E-07,NaN,-0.3379307,-5.34713E-07,NaN,-1.223485,2.381138E-05,-0.780872,9.272833E-08,NaN,NaN,0.4314408,2.421426E-10,1.512248E-06,-1.099763E-07,-5.836651E-09,-2.622604E-08
882.4105,-0.1575115,2.967918E-09,NaN,-0.6566333,-1.320705E-07,NaN,-0.3466231,-5.347197E-07,NaN,-1.232509,2.381176E-05,-0.7915244,9.273617E-08,NaN,NaN,0.4351204,2.467992E-10,1.519102E-06,-1.09977E-07,-4.346535E-09,-2.861022E-08
882.4261,-0.1561126,2.968559E-09,NaN,-0.6608646,-1.320711E-07,NaN,-0.3554978,-5.347291E-07,NaN,-1.241841,2.381215E-05,-0.8026196,9.274665E-08,NaN,NaN,0.4390414,2.421426E-10,1.519102E-06,-1.099776E-07,-9.859964E-09,-2.622604E-08
882.442,-0.1547044,2.969201E-09,NaN,-0.6651224,-1.320716E-07,NaN,-0.3644196,-5.347381E-07,NaN,-1.251154,2.381253E-05,-0.8136628,9.275686E-08,NaN,NaN,0.4428858,2.467992E-10,1.526255E-06,-1.099783E-07,-7.624791E-09,-2.861022E-08
882.4554,-0.1547044,2.969201E-09,NaN,-0.6651224,-1.320716E-07,NaN,-0.3644196,-5.347381E-07,NaN,-1.251154,2.381253E-05,-0.8136628,9.275686E-08,NaN,NaN,0.4428858,2.467992E-10,1.526255E-06,-1.099783E-07,-7.624791E-09,-2.861022E-08
882.4693,-0.1532967,2.969842E-09,NaN,-0.6693771,-1.320722E-07,NaN,-0.3733425,-5.347497E-07,NaN,-1.260382,2.381292E-05,-0.824466,9.276966E-08,NaN,NaN,0.4466549,2.421426E-10,1.531023E-06,-1.09979E-07,-7.773802E-09,-2.622604E-08
882.4847,-0.1518956,2.970483E-09,NaN,-0.6736107,-1.320727E-07,NaN,-0.382216,-5.347611E-07,NaN,-1.269495,2.381331E-05,-0.8350022,9.278216E-08,NaN,NaN,0.4503501,2.467992E-10,1.531917E-06,-1.099796E-07,-6.730721E-09,-2.861022E-08
882.4995,-0.1518956,2.970483E-09,NaN,-0.6736107,-1.320727E-07,NaN,-0.382216,-5.347611E-07,NaN,-1.269495,2.381331E-05,-0.8350022,9.278216E-08,NaN,NaN,0.4503501,2.467992E-10,1.531917E-06,-1.099796E-07,-6.730721E-09,-2.861022E-08
882.5134,-0.1504686,2.971124E-09,NaN,-0.6779171,-1.320733E-07,NaN,-0.3912879,-5.347721E-07,NaN,-1.27891,2.38137E-05,-0.8459783,9.279437E-08,NaN,NaN,0.4542865,2.421426E-10,1.526851E-06,-1.099803E-07,-8.816883E-09,-2.622604E-08
882.5288,-0.1490328,2.971765E-09,NaN,-0.6822481,-1.320738E-07,NaN,-0.4003946,-5.347857E-07,NaN,-1.288308,2.381408E-05,-0.8568944,9.280911E-08,NaN,NaN,0.458146,2.467992E-10,1.530725E-06,-1.099809E-07,-7.922814E-09,-2.861022E-08
882.5434,-0.147598,2.972406E-09,NaN,-0.6865746,-1.320744E-07,NaN,-0.4094861,-5.34799E-07,NaN,-1.297622,2.381446E-05,-0.8675724,9.282352E-08,NaN,NaN,0.4619299,2.514558E-10,1.529831E-06,-1.099816E-07,-8.816883E-09,-2.622604E-08
882.5591,-0.147598,2.972406E-09,NaN,-0.6865746,-1.320744E-07,NaN,-0.4094861,-5.34799E-07,NaN,-1.297622,2.381446E-05,-0.8675724,9.282352E-08,NaN,NaN,0.4619299,2.514558E-10,1.529831E-06,-1.099816E-07,-8.816883E-09,-2.622604E-08
882.5732,-0.1461343,2.973047E-09,NaN,-0.6909834,-1.320749E-07,NaN,-0.4188144,-5.348119E-07,NaN,-1.307247,2.381484E-05,-0.8786792,9.28376E-08,NaN,NaN,0.4659533,2.561124E-10,1.521487E-06,-1.099822E-07,-5.240604E-09,-2.861022E-08
882.5876,-0.1446601,2.973688E-09,NaN,-0.6954222,-1.320755E-07,NaN,-0.4281805,-5.348273E-07,NaN,-1.316863,2.381522E-05,-0.8897105,9.285418E-08,NaN,NaN,0.469898,2.60769E-10,1.520593E-06,-1.099829E-07,1.238134E-10,-2.622604E-08
882.6021,-0.1431863,2.974329E-09,NaN,-0.6998592,-1.32076E-07,NaN,-0.4375246,-5.348423E-07,NaN,-1.326398,2.381561E-05,-0.9004981,9.287039E-08,NaN,NaN,0.4737655,2.654256E-10,1.51791E-06,-1.099835E-07,2.507999E-09,-2.861022E-08
882.6167,-0.1431863,2.974329E-09,NaN,-0.6998592,-1.32076E-07,NaN,-0.4375246,-5.348423E-07,NaN,-1.326398,2.381561E-05,-0.9004981,9.287039E-08,NaN,NaN,0.4737655,2.654256E-10,1.51791E-06,-1.099835E-07,2.507999E-09,-2.861022E-08
882.6304,-0.1417192,2.97497E-09,NaN,-0.7042751,-1.320766E-07,NaN,-0.4467978,-5.348599E-07,NaN,-1.335816,2.3816E-05,-0.9110212,9.288907E-08,NaN,NaN,0.4775572,2.60769E-10,1.51046E-06,-1.099842E-07,1.017883E-09,-2.622604E-08
882.6461,-0.1402264,2.975612E-09,NaN,-0.7087628,-1.320771E-07,NaN,-0.4563005,-5.34877E-07,NaN,-1.345525,2.381638E-05,-0.9219649,9.290733E-08,NaN,NaN,0.4815882,2.654256E-10,1.501221E-06,-1.099848E-07,7.198599E-10,-2.861022E-08
882.6605,-0.1387251,2.976253E-09,NaN,-0.7132738,-1.320777E-07,NaN,-0.4658166,-5.348937E-07,NaN,-1.355221,2.381677E-05,-0.9328324,9.292518E-08,NaN,NaN,0.4855405,2.60769E-10,1.492876E-06,-1.099855E-07,-1.068279E-09,-2.622604E-08
882.675,-0.1387251,2.976253E-09,NaN,-0.7132738,-1.320777E-07,NaN,-0.4658166,-5.348937E-07,NaN,-1.355221,2.381677E-05,-0.9328324,9.292518E-08,NaN,NaN,0.4855405,2.60769E-10,1.492876E-06,-1.099855E-07,-1.068279E-09,-2.622604E-08
882.689,-0.1372257,2.976894E-09,NaN,-0.7177786,-1.320782E-07,NaN,-0.4752903,-5.349128E-07,NaN,-1.364831,2.381716E-05,-0.9434643,9.294547E-08,NaN,NaN,0.4894153,2.561124E-10,1.482148E-06,-1.099861E-07,-2.856419E-09,-2.861022E-08
882.7043,-0.135734,2.977535E-09,NaN,-0.7222592,-1.320787E-07,NaN,-0.4846787,-5.349315E-07,NaN,-1.374324,2.381754E-05,-0.9538404,9.296531E-08,NaN,NaN,0.4932142,2.60769E-10,1.471419E-06,-1.099867E-07,7.198599E-10,-2.622604E-08
882.7192,-0.135734,2.977535E-09,NaN,-0.7222592,-1.320787E-07,NaN,-0.4846787,-5.349315E-07,NaN,-1.374324,2.381754E-05,-0.9538404,9.296531E-08,NaN,NaN,0.4932142,2.60769E-10,1.471419E-06,-1.099867E-07,7.198599E-10,-2.622604E-08
882.7329,-0.1342169,2.978176E-09,NaN,-0.7268094,-1.320793E-07,NaN,-0.4943134,-5.349498E-07,NaN,-1.384101,2.381793E-05,-0.9646265,9.298471E-08,NaN,NaN,0.4972524,2.654256E-10,1.452941E-06,-1.099874E-07,1.911953E-09,-2.861022E-08
882.7482,-0.132692,2.978817E-09,NaN,-0.7313814,-1.320798E-07,NaN,-0.503949,-5.349704E-07,NaN,-1.393867,2.381832E-05,-0.975334,9.300651E-08,NaN,NaN,0.5012116,2.60769E-10,1.439828E-06,-1.09988E-07,3.700092E-09,-2.622604E-08
882.7626,-0.1311693,2.979458E-09,NaN,-0.7359458,-1.320803E-07,NaN,-0.5135283,-5.349906E-07,NaN,-1.403549,2.38187E-05,-0.9858139,9.302785E-08,NaN,NaN,0.5050933,2.654256E-10,1.427907E-06,-1.099886E-07,2.507999E-09,-2.861022E-08
882.7776,-0.1311693,2.979458E-09,NaN,-0.7359458,-1.320803E-07,NaN,-0.5135283,-5.349906E-07,NaN,-1.403549,2.38187E-05,-0.9858139,9.302785E-08,NaN,NaN,0.5050933,2.654256E-10,1.427907E-06,-1.099886E-07,2.507999E-09,-2.861022E-08
882.7918,-0.129618,2.980099E-09,NaN,-0.7405895,-1.320809E-07,NaN,-0.5233859,-5.350103E-07,NaN,-1.413525,2.381909E-05,-0.9966903,9.304872E-08,NaN,NaN,0.5092126,2.60769E-10,1.407046E-06,-1.099892E-07,4.892185E-09,-2.622604E-08
882.8073,-0.1280573,2.98074E-09,NaN,-0.7452603,-1.320814E-07,NaN,-0.533244,-5.350324E-07,NaN,-1.423498,2.381947E-05,-1.007482,9.307195E-08,NaN,NaN,0.5132514,2.654256E-10,1.392145E-06,-1.099899E-07,7.276371E-09,-2.861022E-08
882.8218,-0.1264983,2.981381E-09,NaN,-0.7499264,-1.320819E-07,NaN,-0.5430391,-5.35054E-07,NaN,-1.433388,2.381986E-05,-1.018046,9.309469E-08,NaN,NaN,0.5172111,2.60769E-10,1.376647E-06,-1.099905E-07,8.468464E-09,-2.622604E-08
882.8377,-0.1264983,2.981381E-09,NaN,-0.7499264,-1.320819E-07,NaN,-0.5430391,-5.35054E-07,NaN,-1.433388,2.381986E-05,-1.018046,9.309469E-08,NaN,NaN,0.5172111,2.60769E-10,1.376647E-06,-1.099905E-07,8.468464E-09,-2.622604E-08
882.8515,-0.1249471,2.982022E-09,NaN,-0.7545685,-1.320824E-07,NaN,-0.5527313,-5.350751E-07,NaN,-1.443159,2.382024E-05,-1.028364,9.311693E-08,NaN,NaN,0.5210932,2.654256E-10,1.356382E-06,-1.099911E-07,6.084278E-09,-2.861022E-08
882.8659,-0.1233705,2.982662E-09,NaN,-0.7592797,-1.32083E-07,NaN,-0.5626994,-5.349507E-07,NaN,-1.453205,2.382063E-05,-1.039059,9.299374E-08,NaN,NaN,0.5252131,2.60769E-10,1.330156E-06,-1.099917E-07,1.02566E-08,-2.622604E-08
882.8804,-0.1217865,2.983302E-09,NaN,-0.7640114,-1.320835E-07,NaN,-0.5726475,-5.348315E-07,NaN,-1.463242,2.382101E-05,-1.049672,9.287572E-08,NaN,NaN,0.5292524,2.561124E-10,1.30691E-06,-1.099923E-07,8.468464E-09,-2.861022E-08
882.8949,-0.1217865,2.983302E-09,NaN,-0.7640114,-1.320835E-07,NaN,-0.5726475,-5.348315E-07,NaN,-1.463242,2.382101E-05,-1.049672,9.287572E-08,NaN,NaN,0.5292524,2.561124E-10,1.30691E-06,-1.099923E-07,8.468464E-09,-2.861022E-08
882.9089,-0.1202055,2.983943E-09,NaN,-0.768734,-1.32084E-07,NaN,-0.5825163,-5.347146E-07,NaN,-1.473193,2.382139E-05,-1.060071,9.275997E-08,NaN,NaN,0.5332125,2.561124E-10,1.289029E-06,-1.099929E-07,2.508E-09,-2.622604E-08
882.9255,-0.1186334,2.984583E-09,NaN,-0.7734299,-1.320846E-07,NaN,-0.5922713,-5.345999E-07,NaN,-1.483023,2.382177E-05,-1.070232,9.264642E-08,NaN,NaN,0.5370951,2.561124E-10,1.263995E-06,-1.099936E-07,1.238143E-10,-2.861022E-08
882.9391,-0.1186334,2.984583E-09,NaN,-0.7734299,-1.320846E-07,NaN,-0.5922713,-5.345999E-07,NaN,-1.483023,2.382177E-05,-1.070232,9.264642E-08,NaN,NaN,0.5370951,2.561124E-10,1.263995E-06,-1.099936E-07,1.238143E-10,-2.861022E-08
882.9528,-0.1184523,2.985223E-09,NaN,-0.7742227,-1.320851E-07,NaN,-0.5862864,-5.344902E-07,NaN,-1.477784,2.382214E-05,-1.058233,9.253787E-08,NaN,NaN,0.5292909,2.561124E-10,1.487512E-06,-1.099942E-07,-1.664325E-09,-2.622604E-08
882.9683,-0.1190801,2.985863E-09,NaN,-0.7726327,-1.320856E-07,NaN,-0.5766314,-5.343825E-07,NaN,-1.467078,2.382252E-05,-1.039692,9.243139E-08,NaN,NaN,0.5216345,2.561124E-10,1.500029E-06,-1.099948E-07,7.198607E-10,-2.861022E-08
882.9828,-0.1201887,2.986503E-09,NaN,-0.7695814,-1.320861E-07,NaN,-0.5653915,-5.342769E-07,NaN,-1.453842,2.382289E-05,-1.019597,9.232694E-08,NaN,NaN,0.5141263,2.561124E-10,1.488108E-06,-1.099954E-07,-5.240604E-09,-2.622604E-08
882.9976,-0.1201887,2.986503E-09,NaN,-0.7695814,-1.320861E-07,NaN,-0.5653915,-5.342769E-07,NaN,-1.453842,2.382289E-05,-1.019597,9.232694E-08,NaN,NaN,0.5141263,2.561124E-10,1.488108E-06,-1.099954E-07,-5.240604E-09,-2.622604E-08
883.0116,-0.1215335,2.987143E-09,NaN,-0.7657551,-1.320866E-07,NaN,-0.5540178,-5.341761E-07,NaN,-1.439905,2.382327E-05,-0.9998002,9.222731E-08,NaN,NaN,0.5070783,2.561124E-10,1.464862E-06,-1.09996E-07,-7.62479E-09,-2.861022E-08
883.0269,-0.1230058,2.987782E-09,NaN,-0.7614739,-1.320872E-07,NaN,-0.5426634,-5.340772E-07,NaN,-1.425703,2.382365E-05,-0.98021,9.212957E-08,NaN,NaN,0.5001684,2.561124E-10,1.444597E-06,-1.099966E-07,-7.62479E-09,-2.622604E-08
883.0417,-0.1245426,2.988422E-09,NaN,-0.7569354,-1.320877E-07,NaN,-0.5314848,-5.339802E-07,NaN,-1.411485,2.382402E-05,-0.9608226,9.203369E-08,NaN,NaN,0.4933939,2.561124E-10,1.428503E-06,-1.099972E-07,-1.358525E-08,-2.861022E-08
883.0564,-0.1245426,2.988422E-09,NaN,-0.7569354,-1.320877E-07,NaN,-0.5314848,-5.339802E-07,NaN,-1.411485,2.382402E-05,-0.9608226,9.203369E-08,NaN,NaN,0.4933939,2.561124E-10,1.428503E-06,-1.099972E-07,-1.358525E-08,-2.861022E-08
883.0705,-0.1261075,2.989062E-09,NaN,-0.7522606,-1.320882E-07,NaN,-0.5205396,-5.338878E-07,NaN,-1.397372,2.38244E-05,-0.9416625,9.194245E-08,NaN,NaN,0.486752,2.561124E-10,1.410026E-06,-1.099977E-07,-1.596944E-08,-2.622604E-08
883.0861,-0.1276432,2.989701E-09,NaN,-0.7476281,-1.320887E-07,NaN,-0.5102106,-5.337972E-07,NaN,-1.383838,2.382478E-05,-0.9234246,9.185295E-08,NaN,NaN,0.4805541,2.561124E-10,1.38082E-06,-1.099983E-07,-1.835362E-08,-2.861022E-08
883.1003,-0.1291545,2.990341E-09,NaN,-0.7430415,-1.320892E-07,NaN,-0.5002191,-5.337082E-07,NaN,-1.370643,2.382515E-05,-0.90562,9.176515E-08,NaN,NaN,0.4744779,2.561124E-10,1.358766E-06,-1.099989E-07,-2.19299E-08,-2.622604E-08
883.116,-0.1291545,2.990341E-09,NaN,-0.7430415,-1.320892E-07,NaN,-0.5002191,-5.337082E-07,NaN,-1.370643,2.382515E-05,-0.90562,9.176515E-08,NaN,NaN,0.4744779,2.561124E-10,1.358766E-06,-1.099989E-07,-2.19299E-08,-2.622604E-08
883.1301,-0.1306444,2.99098E-09,NaN,-0.7385028,-1.320897E-07,NaN,-0.4905136,-5.336237E-07,NaN,-1.357719,2.382553E-05,-0.8881067,9.168184E-08,NaN,NaN,0.4685208,2.561124E-10,1.331944E-06,-1.099995E-07,-1.954572E-08,-2.861022E-08
883.1445,-0.1321147,2.991619E-09,NaN,-0.7340132,-1.320902E-07,NaN,-0.4810596,-5.335902E-07,NaN,-1.345033,2.382591E-05,-0.870858,9.164948E-08,NaN,NaN,0.4626805,2.561124E-10,1.305718E-06,-1.100001E-07,-1.835362E-08,-2.622604E-08
883.1594,-0.1321147,2.991619E-09,NaN,-0.7340132,-1.320902E-07,NaN,-0.4810596,-5.335902E-07,NaN,-1.345033,2.382591E-05,-0.870858,9.164948E-08,NaN,NaN,0.4626805,2.561124E-10,1.305718E-06,-1.100001E-07,-1.835362E-08,-2.622604E-08
883.1729,-0.1335299,2.992258E-09,NaN,-0.7296777,-1.320907E-07,NaN,-0.4721627,-5.335601E-07,NaN,-1.332988,2.38263E-05,-0.8545772,9.162053E-08,NaN,NaN,0.4572684,2.514558E-10,1.275319E-06,-1.100007E-07,-1.716153E-08,-2.861022E-08
883.1883,-0.1349067,2.992897E-09,NaN,-0.7254547,-1.320912E-07,NaN,-0.4635772,-5.335305E-07,NaN,-1.321291,2.382669E-05,-0.838738,9.159208E-08,NaN,NaN,0.4519626,2.467992E-10,1.248199E-06,-1.100013E-07,-1.239316E-08,-2.622604E-08
883.2029,-0.1362549,2.993536E-09,NaN,-0.7213189,-1.320918E-07,NaN,-0.4552489,-5.335013E-07,NaN,-1.309861,2.382707E-05,-0.823178,9.156413E-08,NaN,NaN,0.4467608,2.467992E-10,1.220781E-06,-1.100018E-07,-1.239316E-08,-2.861022E-08
883.2175,-0.1362549,2.993536E-09,NaN,-0.7213189,-1.320918E-07,NaN,-0.4552489,-5.335013E-07,NaN,-1.309861,2.382707E-05,-0.823178,9.156413E-08,NaN,NaN,0.4467608,2.467992E-10,1.220781E-06,-1.100018E-07,-1.239316E-08,-2.861022E-08
883.2315,-0.1375435,2.994174E-09,NaN,-0.7173588,-1.320923E-07,NaN,-0.4474378,-5.334728E-07,NaN,-1.299082,2.382746E-05,-0.8085905,9.153668E-08,NaN,NaN,0.4419747,2.467992E-10,1.187104E-06,-1.100024E-07,-1.358525E-08,-2.622604E-08
883.2468,-0.1387917,2.994813E-09,NaN,-0.7135231,-1.320928E-07,NaN,-0.4399213,-5.334475E-07,NaN,-1.288639,2.382785E-05,-0.7944346,9.151253E-08,NaN,NaN,0.4372827,2.421426E-10,1.16207E-06,-1.10003E-07,-1.000897E-08,-2.861022E-08
883.2615,-0.1400105,2.995452E-09,NaN,-0.7097802,-1.320933E-07,NaN,-0.4326434,-5.334226E-07,NaN,-1.278448,2.382824E-05,-0.7805373,9.148879E-08,NaN,NaN,0.4326828,2.374859E-10,1.137334E-06,-1.100035E-07,-7.028741E-09,-2.622604E-08
883.2762,-0.1400105,2.995452E-09,NaN,-0.7097802,-1.320933E-07,NaN,-0.4326434,-5.334226E-07,NaN,-1.278448,2.382824E-05,-0.7805373,9.148879E-08,NaN,NaN,0.4326828,2.374859E-10,1.137334E-06,-1.100035E-07,-7.028741E-09,-2.622604E-08
883.2903,-0.1412065,2.996091E-09,NaN,-0.7061102,-1.320938E-07,NaN,-0.4255604,-5.333981E-07,NaN,-1.268465,2.382863E-05,-0.7668675,9.146545E-08,NaN,NaN,0.4281729,2.374859E-10,1.112599E-06,-1.100041E-07,-7.624788E-09,-2.861022E-08
883.3058,-0.1423471,2.99673E-09,NaN,-0.7026056,-1.320943E-07,NaN,-0.4189123,-5.333768E-07,NaN,-1.259098,2.382902E-05,-0.7541592,9.144534E-08,NaN,NaN,0.4240653,2.328293E-10,1.07922E-06,-1.100047E-07,-5.836648E-09,-2.622604E-08
883.3206,-0.1434502,2.997369E-09,NaN,-0.6992172,-1.320948E-07,NaN,-0.4125257,-5.333559E-07,NaN,-1.250031,2.382941E-05,-0.7418708,9.142557E-08,NaN,NaN,0.4200383,2.328293E-10,1.054782E-06,-1.100053E-07,-5.240602E-09,-2.861022E-08
883.3352,-0.1434502,2.997369E-09,NaN,-0.6992172,-1.320948E-07,NaN,-0.4125257,-5.333559E-07,NaN,-1.250031,2.382941E-05,-0.7418708,9.142557E-08,NaN,NaN,0.4200383,2.328293E-10,1.054782E-06,-1.100053E-07,-5.240602E-09,-2.861022E-08
883.3492,-0.1445261,2.998008E-09,NaN,-0.6959147,-1.320953E-07,NaN,-0.4063526,-5.333353E-07,NaN,-1.241187,2.382979E-05,-0.7298166,9.140613E-08,NaN,NaN,0.4160904,2.328293E-10,1.028258E-06,-1.100058E-07,-8.816881E-09,-2.622604E-08
883.3646,-0.1455811,2.998647E-09,NaN,-0.6926794,-1.320958E-07,NaN,-0.400349,-5.333179E-07,NaN,-1.232526,2.383018E-05,-0.7179632,9.138984E-08,NaN,NaN,0.4122198,2.281727E-10,1.003224E-06,-1.100064E-07,-1.060502E-08,-2.861022E-08
883.3804,-0.1465826,2.999286E-09,NaN,-0.6896039,-1.320963E-07,NaN,-0.3947234,-5.333007E-07,NaN,-1.224464,2.383057E-05,-0.7070537,9.137381E-08,NaN,NaN,0.4087389,2.281727E-10,9.705905E-07,-1.100069E-07,-9.412927E-09,-2.622604E-08
883.395,-0.1465826,2.999286E-09,NaN,-0.6896039,-1.320963E-07,NaN,-0.3947234,-5.333007E-07,NaN,-1.224464,2.383057E-05,-0.7070537,9.137381E-08,NaN,NaN,0.4087389,2.281727E-10,9.705905E-07,-1.100069E-07,-9.412927E-09,-2.622604E-08
883.4094,-0.147548,2.999925E-09,NaN,-0.6866397,-1.320968E-07,NaN,-0.3893372,-5.332838E-07,NaN,-1.216676,2.383095E-05,-0.6965482,9.135803E-08,NaN,NaN,0.4053264,2.281727E-10,9.491328E-07,-1.100075E-07,-1.060502E-08,-2.861022E-08
883.4234,-0.1484877,3.000564E-09,NaN,-0.6837565,-1.320973E-07,NaN,-0.3841468,-5.332699E-07,NaN,-1.209089,2.383134E-05,-0.6862503,9.134533E-08,NaN,NaN,0.4019809,2.235161E-10,9.312514E-07,-1.10008E-07,-1.298921E-08,-2.622604E-08
883.4379,-0.1484877,3.000564E-09,NaN,-0.6837565,-1.320973E-07,NaN,-0.3841468,-5.332699E-07,NaN,-1.209089,2.383134E-05,-0.6862503,9.134533E-08,NaN,NaN,0.4019809,2.235161E-10,9.312514E-07,-1.10008E-07,-1.298921E-08,-2.622604E-08
883.4519,-0.1493719,3.001203E-09,NaN,-0.6810403,-1.320977E-07,NaN,-0.3793209,-5.332562E-07,NaN,-1.202104,2.383173E-05,-0.6768739,9.133282E-08,NaN,NaN,0.3990147,2.235161E-10,9.038333E-07,-1.100086E-07,-1.298921E-08,-2.861022E-08
883.4671,-0.1502191,3.001842E-09,NaN,-0.6784382,-1.320982E-07,NaN,-0.3747302,-5.332428E-07,NaN,-1.195383,2.383212E-05,-0.6678784,9.13205E-08,NaN,NaN,0.3961069,2.235161E-10,8.861009E-07,-1.100092E-07,-1.507537E-08,-2.622604E-08
883.4816,-0.1510405,3.002481E-09,NaN,-0.6759174,-1.320987E-07,NaN,-0.3703267,-5.332323E-07,NaN,-1.18885,2.383251E-05,-0.6590631,9.131119E-08,NaN,NaN,0.3932562,2.188595E-10,8.667294E-07,-1.100097E-07,-1.358525E-08,-2.861022E-08
883.4962,-0.1510405,3.002481E-09,NaN,-0.6759174,-1.320987E-07,NaN,-0.3703267,-5.332323E-07,NaN,-1.18885,2.383251E-05,-0.6590631,9.131119E-08,NaN,NaN,0.3932562,2.188595E-10,8.667294E-07,-1.100097E-07,-1.358525E-08,-2.861022E-08
883.5103,-0.1518428,3.00312E-09,NaN,-0.6734578,-1.320992E-07,NaN,-0.3660593,-5.33222E-07,NaN,-1.182464,2.383289E-05,-0.6503922,9.1302E-08,NaN,NaN,0.3904614,2.188595E-10,8.463148E-07,-1.100102E-07,-1.388327E-08,-2.622604E-08
883.5258,-0.1525941,3.003759E-09,NaN,-0.671151,-1.320997E-07,NaN,-0.3620889,-5.332117E-07,NaN,-1.176648,2.383328E-05,-0.642618,9.129293E-08,NaN,NaN,0.3880351,2.188595E-10,8.184497E-07,-1.100108E-07,-1.090304E-08,-2.861022E-08
883.5404,-0.1533116,3.004399E-09,NaN,-0.668948,-1.321002E-07,NaN,-0.3583241,-5.332016E-07,NaN,-1.171064,2.383367E-05,-0.6352099,9.128398E-08,NaN,NaN,0.3856566,2.142029E-10,8.019094E-07,-1.100113E-07,-7.028741E-09,-2.622604E-08
883.555,-0.1533116,3.004399E-09,NaN,-0.668948,-1.321002E-07,NaN,-0.3583241,-5.332016E-07,NaN,-1.171064,2.383367E-05,-0.6352099,9.128398E-08,NaN,NaN,0.3856566,2.142029E-10,8.019094E-07,-1.100113E-07,-7.028741E-09,-2.622604E-08
883.5692,-0.1540056,3.005038E-09,NaN,-0.6668184,-1.321006E-07,NaN,-0.3547277,-5.331945E-07,NaN,-1.165644,2.383405E-05,-0.6279588,9.127798E-08,NaN,NaN,0.3833248,2.142029E-10,7.861887E-07,-1.100119E-07,-4.942579E-09,-2.861022E-08
883.5845,-0.1546824,3.005677E-09,NaN,-0.6647434,-1.321011E-07,NaN,-0.3512506,-5.331873E-07,NaN,-1.160349,2.383445E-05,-0.6208258,9.127203E-08,NaN,NaN,0.3810387,2.095463E-10,7.724051E-07,-1.100124E-07,-6.730718E-09,-2.622604E-08
883.5991,-0.1546824,3.005677E-09,NaN,-0.6647434,-1.321011E-07,NaN,-0.3512506,-5.331873E-07,NaN,-1.160349,2.383445E-05,-0.6208258,9.127203E-08,NaN,NaN,0.3810387,2.095463E-10,7.724051E-07,-1.100124E-07,-6.730718E-09,-2.622604E-08
883.613,-0.1553101,3.006316E-09,NaN,-0.6628156,-1.321016E-07,NaN,-0.3480344,-5.331803E-07,NaN,-1.15561,2.383483E-05,-0.6145634,9.126614E-08,NaN,NaN,0.3791112,2.095463E-10,7.483397E-07,-1.10013E-07,-6.134672E-09,-2.861022E-08
883.6287,-0.1559055,3.006955E-09,NaN,-0.6609865,-1.321021E-07,NaN,-0.3450088,-5.331761E-07,NaN,-1.151082,2.383522E-05,-0.6086468,9.126313E-08,NaN,NaN,0.3772218,2.095463E-10,7.341091E-07,-1.100135E-07,-3.452463E-09,-2.622604E-08
883.6432,-0.1564788,3.007594E-09,NaN,-0.6592263,-1.321026E-07,NaN,-0.3421405,-5.33172E-07,NaN,-1.146698,2.38356E-05,-0.6028618,9.126012E-08,NaN,NaN,0.3753694,2.095463E-10,7.227842E-07,-1.10014E-07,-3.750486E-09,-2.861022E-08
883.6588,-0.1564788,3.007594E-09,NaN,-0.6592263,-1.321026E-07,NaN,-0.3421405,-5.33172E-07,NaN,-1.146698,2.38356E-05,-0.6028618,9.126012E-08,NaN,NaN,0.3753694,2.095463E-10,7.227842E-07,-1.10014E-07,-3.750486E-09,-2.861022E-08
883.673,-0.1570006,3.008233E-09,NaN,-0.6576207,-1.32103E-07,NaN,-0.3395406,-5.331678E-07,NaN,-1.142873,2.383599E-05,-0.5979208,9.125711E-08,NaN,NaN,0.3738672,2.048897E-10,7.019971E-07,-1.100146E-07,-8.220834E-09,-2.622604E-08
883.6878,-0.157489,3.008872E-09,NaN,-0.6561171,-1.321035E-07,NaN,-0.3371363,-5.331665E-07,NaN,-1.139252,2.383638E-05,-0.5932977,9.125693E-08,NaN,NaN,0.3723947,2.048897E-10,6.904486E-07,-1.100151E-07,-4.346532E-09,-2.861022E-08
883.7019,-0.1579551,3.009511E-09,NaN,-0.6546829,-1.32104E-07,NaN,-0.3348875,-5.331652E-07,NaN,-1.135766,2.383676E-05,-0.5887781,9.125669E-08,NaN,NaN,0.3709511,2.048897E-10,6.81508E-07,-1.100156E-07,-3.750486E-09,-2.622604E-08
883.7165,-0.1579551,3.009511E-09,NaN,-0.6546829,-1.32104E-07,NaN,-0.3348875,-5.331652E-07,NaN,-1.135766,2.383676E-05,-0.5887781,9.125669E-08,NaN,NaN,0.3709511,2.048897E-10,6.81508E-07,-1.100156E-07,-3.750486E-09,-2.622604E-08
883.7303,-0.1584056,3.01015E-09,NaN,-0.6532977,-1.321044E-07,NaN,-0.3327392,-5.331638E-07,NaN,-1.132375,2.383715E-05,-0.5843225,9.12564E-08,NaN,NaN,0.3695357,2.048897E-10,6.710026E-07,-1.100162E-07,-1.664323E-09,-2.861022E-08
883.7457,-0.1588091,3.010789E-09,NaN,-0.6520534,-1.321049E-07,NaN,-0.3308043,-5.331651E-07,NaN,-1.129514,2.383754E-05,-0.5806854,9.125888E-08,NaN,NaN,0.3684619,2.048897E-10,6.548721E-07,-1.100167E-07,2.728278E-10,-2.622604E-08
883.7602,-0.1591824,3.011428E-09,NaN,-0.6509012,-1.321054E-07,NaN,-0.3290382,-5.331663E-07,NaN,-1.126831,2.383792E-05,-0.5773522,9.126126E-08,NaN,NaN,0.3674095,2.048897E-10,6.456334E-07,-1.100172E-07,-1.742071E-10,-2.861022E-08
883.7749,-0.1591824,3.011428E-09,NaN,-0.6509012,-1.321054E-07,NaN,-0.3290382,-5.331663E-07,NaN,-1.126831,2.383792E-05,-0.5773522,9.126126E-08,NaN,NaN,0.3674095,2.048897E-10,6.456334E-07,-1.100172E-07,-1.742071E-10,-2.861022E-08
883.7889,-0.1595356,3.012067E-09,NaN,-0.6498108,-1.321058E-07,NaN,-0.327412,-5.331674E-07,NaN,-1.12426,2.383831E-05,-0.5741037,9.126352E-08,NaN,NaN,0.3663777,2.048897E-10,6.391887E-07,-1.100177E-07,-5.09159E-09,-2.622604E-08
883.8043,-0.1598751,3.012706E-09,NaN,-0.6487633,-1.321063E-07,NaN,-0.3258743,-5.331713E-07,NaN,-1.121768,2.383869E-05,-0.5708971,9.126851E-08,NaN,NaN,0.3653662,2.048897E-10,6.327066E-07,-1.100183E-07,-7.103246E-09,-2.861022E-08
883.8193,-0.1598751,3.012706E-09,NaN,-0.6487633,-1.321063E-07,NaN,-0.3258743,-5.331713E-07,NaN,-1.121768,2.383869E-05,-0.5708971,9.126851E-08,NaN,NaN,0.3653662,2.048897E-10,6.327066E-07,-1.100183E-07,-7.103246E-09,-2.861022E-08
883.8329,-0.1601693,3.013344E-09,NaN,-0.6478514,-1.321068E-07,NaN,-0.32453,-5.33175E-07,NaN,-1.119791,2.383908E-05,-0.5684855,9.127335E-08,NaN,NaN,0.3646882,2.048897E-10,6.191466E-07,-1.100188E-07,-6.581706E-09,-2.622604E-08
883.8484,-0.1604346,3.013983E-09,NaN,-0.647027,-1.321072E-07,NaN,-0.3233452,-5.331785E-07,NaN,-1.117975,2.383946E-05,-0.5663574,9.127803E-08,NaN,NaN,0.3640239,2.048897E-10,6.155331E-07,-1.100193E-07,-2.521139E-09,-2.861022E-08
883.8629,-0.1606812,3.014622E-09,NaN,-0.6462602,-1.321077E-07,NaN,-0.322293,-5.331818E-07,NaN,-1.116257,2.383985E-05,-0.5642917,9.128257E-08,NaN,NaN,0.3633726,2.048897E-10,6.131489E-07,-1.100198E-07,1.31591E-09,-2.622604E-08
883.8778,-0.1606812,3.014622E-09,NaN,-0.6462602,-1.321077E-07,NaN,-0.322293,-5.331818E-07,NaN,-1.116257,2.383985E-05,-0.5642917,9.128257E-08,NaN,NaN,0.3633726,2.048897E-10,6.131489E-07,-1.100198E-07,1.31591E-09,-2.622604E-08
883.8931,-0.1608798,3.015261E-09,NaN,-0.6456367,-1.321081E-07,NaN,-0.3214567,-5.331879E-07,NaN,-1.115058,2.384024E-05,-0.5629964,9.128978E-08,NaN,NaN,0.3630479,2.048897E-10,6.027553E-07,-1.100203E-07,4.854935E-09,-2.861022E-08
883.9073,-0.1610484,3.0159E-09,NaN,-0.6451044,-1.321086E-07,NaN,-0.3207913,-5.331938E-07,NaN,-1.114016,2.384062E-05,-0.561956,9.129678E-08,NaN,NaN,0.3627298,2.048897E-10,6.024573E-07,-1.100209E-07,3.25306E-09,-2.622604E-08
883.9219,-0.1611978,3.016539E-09,NaN,-0.6446306,-1.32109E-07,NaN,-0.3202609,-5.331995E-07,NaN,-1.113062,2.384101E-05,-0.5609512,9.13036E-08,NaN,NaN,0.3624181,2.048897E-10,6.028671E-07,-1.100214E-07,3.923613E-09,-2.861022E-08
883.9378,-0.1611978,3.016539E-09,NaN,-0.6446306,-1.32109E-07,NaN,-0.3202609,-5.331995E-07,NaN,-1.113062,2.384101E-05,-0.5609512,9.13036E-08,NaN,NaN,0.3624181,2.048897E-10,6.028671E-07,-1.100214E-07,3.923613E-09,-2.861022E-08
883.9514,-0.1613349,3.017177E-09,NaN,-0.644195,-1.321095E-07,NaN,-0.3198085,-5.332078E-07,NaN,-1.112163,2.384139E-05,-0.5599409,9.131305E-08,NaN,NaN,0.3621124,2.048897E-10,6.02271E-07,-1.100219E-07,3.476578E-09,-2.622604E-08
883.9659,-0.1614285,3.017816E-09,NaN,-0.6438894,-1.321099E-07,NaN,-0.3195274,-5.332158E-07,NaN,-1.111754,2.384178E-05,-0.5596792,9.132226E-08,NaN,NaN,0.3621265,2.048897E-10,5.946342E-07,-1.100224E-07,7.198628E-10,-2.861022E-08
883.9803,-0.161495,3.018455E-09,NaN,-0.6436654,-1.321104E-07,NaN,-0.3193927,-5.332236E-07,NaN,-1.11148,2.384216E-05,-0.5596601,9.133122E-08,NaN,NaN,0.3621406,2.048897E-10,5.975027E-07,-1.100229E-07,5.498965E-10,-2.622604E-08
883.9947,-0.161495,3.018455E-09,NaN,-0.6436654,-1.321104E-07,NaN,-0.3193927,-5.332236E-07,NaN,-1.11148,2.384216E-05,-0.5596601,9.133122E-08,NaN,NaN,0.3621406,2.048897E-10,5.975027E-07,-1.100229E-07,5.498965E-10,-2.622604E-08
884.0089,-0.1615446,3.019094E-09,NaN,-0.6434928,-1.321109E-07,NaN,-0.3193787,-5.332312E-07,NaN,-1.111277,2.384255E-05,-0.559662,9.133996E-08,NaN,NaN,0.3621545,2.048897E-10,5.975772E-07,-1.100234E-07,3.172734E-09,-2.861022E-08
884.024,-0.1615837,3.019733E-09,NaN,-0.6433525,-1.321113E-07,NaN,-0.319433,-5.332413E-07,NaN,-1.111112,2.384293E-05,-0.5596415,9.135128E-08,NaN,NaN,0.3621682,2.048897E-10,5.990673E-07,-1.100239E-07,9.238432E-11,-2.622604E-08
884.0387,-0.1615837,3.019733E-09,NaN,-0.6433525,-1.321113E-07,NaN,-0.319433,-5.332413E-07,NaN,-1.111112,2.384293E-05,-0.5596415,9.135128E-08,NaN,NaN,0.3621682,2.048897E-10,5.990673E-07,-1.100239E-07,9.238432E-11,-2.622604E-08
884.0527,-0.1615815,3.020372E-09,NaN,-0.6433374,-1.321118E-07,NaN,-0.31965,-5.332512E-07,NaN,-1.111425,2.384332E-05,-0.5603503,9.136232E-08,NaN,NaN,0.3624953,2.048897E-10,5.938891E-07,-1.100244E-07,4.462869E-10,-2.861022E-08
884.0681,-0.161554,3.02101E-09,NaN,-0.6433991,-1.321122E-07,NaN,-0.3200075,-5.332637E-07,NaN,-1.111859,2.384371E-05,-0.5612828,9.137592E-08,NaN,NaN,0.3628163,2.048897E-10,5.963851E-07,-1.100249E-07,2.693356E-10,-2.622604E-08
884.0826,-0.161511,3.021649E-09,NaN,-0.6435078,-1.321126E-07,NaN,-0.3204802,-5.332786E-07,NaN,-1.112352,2.384409E-05,-0.5622173,9.139202E-08,NaN,NaN,0.3631311,2.048897E-10,6.018612E-07,-1.100254E-07,2.877039E-09,-2.861022E-08
884.0977,-0.161511,3.021649E-09,NaN,-0.6435078,-1.321126E-07,NaN,-0.3204802,-5.332786E-07,NaN,-1.112352,2.384409E-05,-0.5622173,9.139202E-08,NaN,NaN,0.3631311,2.048897E-10,6.018612E-07,-1.100254E-07,2.877039E-09,-2.861022E-08
884.1116,-0.1614234,3.022288E-09,NaN,-0.6437496,-1.321131E-07,NaN,-0.3211477,-5.332932E-07,NaN,-1.113326,2.384448E-05,-0.5638599,9.140774E-08,NaN,NaN,0.3637534,2.048897E-10,5.961243E-07,-1.100259E-07,2.541763E-09,-2.622604E-08
884.1268,-0.1613088,3.022927E-09,NaN,-0.6440725,-1.321135E-07,NaN,-0.3219705,-5.333074E-07,NaN,-1.11442,2.384486E-05,-0.5656987,9.14231E-08,NaN,NaN,0.3643639,2.048897E-10,6.003712E-07,-1.100264E-07,3.966687E-09,-2.861022E-08
884.1415,-0.1611782,3.023566E-09,NaN,-0.6444439,-1.32114E-07,NaN,-0.3229122,-5.333213E-07,NaN,-1.115566,2.384525E-05,-0.5675148,9.14381E-08,NaN,NaN,0.3649625,2.002331E-10,6.075609E-07,-1.100269E-07,1.256538E-09,-2.622604E-08
884.1564,-0.1611782,3.023566E-09,NaN,-0.6444439,-1.32114E-07,NaN,-0.3229122,-5.333213E-07,NaN,-1.115566,2.384525E-05,-0.5675148,9.14381E-08,NaN,NaN,0.3649625,2.002331E-10,6.075609E-07,-1.100269E-07,1.256538E-09,-2.622604E-08
884.1703,-0.1610385,3.024204E-09,NaN,-0.6448436,-1.321144E-07,NaN,-0.3239149,-5.333376E-07,NaN,-1.116731,2.384564E-05,-0.5692681,9.145557E-08,NaN,NaN,0.3655493,2.002331E-10,6.116215E-07,-1.100274E-07,3.501025E-09,-2.861022E-08
884.186,-0.1608583,3.024843E-09,NaN,-0.6453635,-1.321148E-07,NaN,-0.3250763,-5.333535E-07,NaN,-1.11835,2.384603E-05,-0.5717121,9.147264E-08,NaN,NaN,0.3664383,2.002331E-10,6.107647E-07,-1.100279E-07,3.578116E-10,-2.622604E-08
884.2025,-0.1606543,3.025482E-09,NaN,-0.6459551,-1.321153E-07,NaN,-0.3263696,-5.33369E-07,NaN,-1.120069,2.384641E-05,-0.5743417,9.148932E-08,NaN,NaN,0.3673103,2.002331E-10,6.158311E-07,-1.100284E-07,-2.631734E-09,-2.861022E-08
884.2162,-0.1606543,3.025482E-09,NaN,-0.6459551,-1.321153E-07,NaN,-0.3263696,-5.33369E-07,NaN,-1.120069,2.384641E-05,-0.5743417,9.148932E-08,NaN,NaN,0.3673103,2.002331E-10,6.158311E-07,-1.100284E-07,-2.631734E-09,-2.861022E-08
884.23,-0.1604366,3.026121E-09,NaN,-0.6465884,-1.321157E-07,NaN,-0.3277678,-5.33387E-07,NaN,-1.121826,2.38468E-05,-0.5769374,9.150844E-08,NaN,NaN,0.3681652,2.002331E-10,6.223876E-07,-1.100289E-07,-1.99145E-09,-2.622604E-08
884.2443,-0.1602116,3.02676E-09,NaN,-0.6472444,-1.321161E-07,NaN,-0.3292175,-5.334045E-07,NaN,-1.123588,2.384718E-05,-0.5794575,9.152713E-08,NaN,NaN,0.3690033,2.002331E-10,6.292421E-07,-1.100294E-07,3.834228E-10,-2.861022E-08
884.2593,-0.1602116,3.02676E-09,NaN,-0.6472444,-1.321161E-07,NaN,-0.3292175,-5.334045E-07,NaN,-1.123588,2.384718E-05,-0.5794575,9.152713E-08,NaN,NaN,0.3690033,2.002331E-10,6.292421E-07,-1.100294E-07,3.834228E-10,-2.861022E-08
884.2728,-0.1599478,3.027398E-09,NaN,-0.648016,-1.321166E-07,NaN,-0.3308255,-5.33425E-07,NaN,-1.125792,2.384757E-05,-0.5826535,9.154873E-08,NaN,NaN,0.3701387,2.002331E-10,6.281245E-07,-1.100298E-07,-1.637547E-09,-2.622604E-08
884.2881,-0.1596614,3.028037E-09,NaN,-0.6488554,-1.32117E-07,NaN,-0.332561,-5.33445E-07,NaN,-1.128086,2.384795E-05,-0.5860182,9.156986E-08,NaN,NaN,0.3712522,2.048897E-10,6.365436E-07,-1.100303E-07,-5.064814E-09,-2.861022E-08
884.3027,-0.1593626,3.028676E-09,NaN,-0.6497327,-1.321174E-07,NaN,-0.3343954,-5.334673E-07,NaN,-1.130408,2.384834E-05,-0.5893331,9.159334E-08,NaN,NaN,0.372344,2.048897E-10,6.438452E-07,-1.100308E-07,-3.798215E-09,-2.622604E-08
884.3174,-0.1593626,3.028676E-09,NaN,-0.6497327,-1.321174E-07,NaN,-0.3343954,-5.334673E-07,NaN,-1.130408,2.384834E-05,-0.5893331,9.159334E-08,NaN,NaN,0.372344,2.048897E-10,6.438452E-07,-1.100308E-07,-3.798215E-09,-2.622604E-08
884.3312,-0.1590221,3.029314E-09,NaN,-0.650734,-1.321178E-07,NaN,-0.336425,-5.334891E-07,NaN,-1.133177,2.384872E-05,-0.593305,9.161631E-08,NaN,NaN,0.373728,2.048897E-10,6.452609E-07,-1.100313E-07,-2.419858E-09,-2.861022E-08
884.3465,-0.1586579,3.029953E-09,NaN,-0.6518071,-1.321183E-07,NaN,-0.3385968,-5.335104E-07,NaN,-1.136036,2.384911E-05,-0.597419,9.163877E-08,NaN,NaN,0.3750852,2.048897E-10,6.548721E-07,-1.100318E-07,-1.823811E-09,-2.622604E-08
884.361,-0.1582809,3.030591E-09,NaN,-0.6529195,-1.321187E-07,NaN,-0.3408707,-5.335312E-07,NaN,-1.138916,2.384949E-05,-0.6014606,9.166072E-08,NaN,NaN,0.3764159,2.048897E-10,6.632912E-07,-1.100322E-07,-2.606122E-09,-2.861022E-08
884.3759,-0.1582809,3.030591E-09,NaN,-0.6529195,-1.321187E-07,NaN,-0.3408707,-5.335312E-07,NaN,-1.138916,2.384949E-05,-0.6014606,9.166072E-08,NaN,NaN,0.3764159,2.048897E-10,6.632912E-07,-1.100322E-07,-2.606122E-09,-2.861022E-08
884.3911,-0.1578978,3.03123E-09,NaN,-0.6540512,-1.321191E-07,NaN,-0.3431886,-5.335544E-07,NaN,-1.141786,2.384988E-05,-0.6053932,9.168502E-08,NaN,NaN,0.3777205,2.048897E-10,6.721575E-07,-1.100327E-07,-4.319756E-09,-2.622604E-08
884.4053,-0.1574772,3.031869E-09,NaN,-0.6552941,-1.321196E-07,NaN,-0.345672,-5.33577E-07,NaN,-1.145079,2.385026E-05,-0.60997,9.170878E-08,NaN,NaN,0.3793132,2.095463E-10,6.714869E-07,-1.100332E-07,-4.468767E-09,-2.861022E-08
884.4199,-0.1574772,3.031869E-09,NaN,-0.6552941,-1.321196E-07,NaN,-0.345672,-5.33577E-07,NaN,-1.145079,2.385026E-05,-0.60997,9.170878E-08,NaN,NaN,0.3793132,2.095463E-10,6.714869E-07,-1.100332E-07,-4.468767E-09,-2.861022E-08
884.4339,-0.1570358,3.032507E-09,NaN,-0.6565999,-1.3212E-07,NaN,-0.3482752,-5.335991E-07,NaN,-1.148444,2.385065E-05,-0.6146799,9.173201E-08,NaN,NaN,0.380875,2.095463E-10,6.816197E-07,-1.100337E-07,-4.021732E-09,-2.622604E-08
884.4492,-0.1565839,3.033146E-09,NaN,-0.6579385,-1.321204E-07,NaN,-0.3509656,-5.336235E-07,NaN,-1.151819,2.385103E-05,-0.6193089,9.175756E-08,NaN,NaN,0.3824063,2.095463E-10,6.935406E-07,-1.100341E-07,-2.680628E-09,-2.861022E-08
884.4638,-0.1561275,3.033784E-09,NaN,-0.6592913,-1.321208E-07,NaN,-0.35369,-5.336473E-07,NaN,-1.155172,2.385142E-05,-0.6238198,9.178255E-08,NaN,NaN,0.3839075,2.095463E-10,7.005442E-07,-1.100346E-07,1.044663E-09,-2.622604E-08
884.4785,-0.1561275,3.033784E-09,NaN,-0.6592913,-1.321208E-07,NaN,-0.35369,-5.336473E-07,NaN,-1.155172,2.385142E-05,-0.6238198,9.178255E-08,NaN,NaN,0.3839075,2.095463E-10,7.005442E-07,-1.100346E-07,1.044663E-09,-2.622604E-08
884.4945,-0.1556349,3.034422E-09,NaN,-0.6607512,-1.321212E-07,NaN,-0.3565848,-5.336706E-07,NaN,-1.158937,2.38518E-05,-0.6289634,9.1807E-08,NaN,NaN,0.385693,2.142029E-10,6.996501E-07,-1.100351E-07,3.130825E-09,-2.861022E-08
884.5089,-0.1551227,3.035061E-09,NaN,-0.6622703,-1.321216E-07,NaN,-0.3595944,-5.336934E-07,NaN,-1.162767,2.385218E-05,-0.6342244,9.18309E-08,NaN,NaN,0.3874438,2.142029E-10,7.093359E-07,-1.100355E-07,1.044663E-09,-2.622604E-08
884.5226,-0.1546009,3.035699E-09,NaN,-0.6638191,-1.321221E-07,NaN,-0.3626842,-5.337184E-07,NaN,-1.166599,2.385257E-05,-0.6393916,9.18571E-08,NaN,NaN,0.3891603,2.188595E-10,7.196177E-07,-1.10036E-07,1.938732E-09,-2.861022E-08
884.5372,-0.1546009,3.035699E-09,NaN,-0.6638191,-1.321221E-07,NaN,-0.3626842,-5.337184E-07,NaN,-1.166599,2.385257E-05,-0.6393916,9.18571E-08,NaN,NaN,0.3891603,2.188595E-10,7.196177E-07,-1.10036E-07,1.938732E-09,-2.861022E-08
884.5511,-0.1540401,3.036338E-09,NaN,-0.6654836,-1.321225E-07,NaN,-0.3659827,-5.337429E-07,NaN,-1.170848,2.385295E-05,-0.6451742,9.188273E-08,NaN,NaN,0.3911569,2.188595E-10,7.212568E-07,-1.100365E-07,1.938732E-09,-2.622604E-08
884.5662,-0.1534582,3.036976E-09,NaN,-0.6672117,-1.321229E-07,NaN,-0.369409,-5.337669E-07,NaN,-1.175163,2.385333E-05,-0.651049,9.19078E-08,NaN,NaN,0.3931147,2.235161E-10,7.36158E-07,-1.100369E-07,4.173907E-09,-2.861022E-08
884.5806,-0.1528663,3.037614E-09,NaN,-0.6689711,-1.321233E-07,NaN,-0.3729166,-5.337902E-07,NaN,-1.179477,2.385372E-05,-0.6568102,9.193232E-08,NaN,NaN,0.3950341,2.235161E-10,7.483769E-07,-1.100374E-07,5.515011E-09,-2.622604E-08
884.5953,-0.1528663,3.037614E-09,NaN,-0.6689711,-1.321233E-07,NaN,-0.3729166,-5.337902E-07,NaN,-1.179477,2.385372E-05,-0.6568102,9.193232E-08,NaN,NaN,0.3950341,2.235161E-10,7.483769E-07,-1.100374E-07,5.515011E-09,-2.622604E-08
884.6094,-0.1522711,3.038253E-09,NaN,-0.6707418,-1.321237E-07,NaN,-0.3764481,-5.338159E-07,NaN,-1.183758,2.385411E-05,-0.6624263,9.195913E-08,NaN,NaN,0.3969159,2.235161E-10,7.577647E-07,-1.100379E-07,5.515011E-09,-2.861022E-08
884.6248,-0.1516407,3.038891E-09,NaN,-0.672616,-1.321241E-07,NaN,-0.3801645,-5.338409E-07,NaN,-1.188431,2.385449E-05,-0.6686483,9.198536E-08,NaN,NaN,0.3990745,2.235161E-10,7.577647E-07,-1.100383E-07,4.173907E-09,-2.622604E-08
884.6395,-0.1516407,3.038891E-09,NaN,-0.672616,-1.321241E-07,NaN,-0.3801645,-5.338409E-07,NaN,-1.188431,2.385449E-05,-0.6686483,9.198536E-08,NaN,NaN,0.3990745,2.235161E-10,7.577647E-07,-1.100383E-07,4.173907E-09,-2.622604E-08
884.6534,-0.1509921,3.03953E-09,NaN,-0.6745453,-1.321245E-07,NaN,-0.3839866,-5.338654E-07,NaN,-1.193156,2.385488E-05,-0.6749544,9.201101E-08,NaN,NaN,0.4011911,2.235161E-10,7.656623E-07,-1.100388E-07,6.40908E-09,-2.861022E-08
884.6689,-0.1503354,3.040168E-09,NaN,-0.6764997,-1.321249E-07,NaN,-0.3878741,-5.338922E-07,NaN,-1.19787,2.385526E-05,-0.681141,9.203892E-08,NaN,NaN,0.4032662,2.281727E-10,7.777322E-07,-1.100392E-07,4.322918E-09,-2.622604E-08
884.6836,-0.1496769,3.040806E-09,NaN,-0.6784608,-1.321253E-07,NaN,-0.3917747,-5.339184E-07,NaN,-1.202542,2.385564E-05,-0.6871761,9.206624E-08,NaN,NaN,0.4053006,2.281727E-10,7.859279E-07,-1.100397E-07,2.534779E-09,-2.861022E-08
884.6984,-0.1496769,3.040806E-09,NaN,-0.6784608,-1.321253E-07,NaN,-0.3917747,-5.339184E-07,NaN,-1.202542,2.385564E-05,-0.6871761,9.206624E-08,NaN,NaN,0.4053006,2.281727E-10,7.859279E-07,-1.100397E-07,2.534779E-09,-2.861022E-08
884.7122,-0.1489843,3.041445E-09,NaN,-0.6805217,-1.321257E-07,NaN,-0.3958686,-5.339439E-07,NaN,-1.207596,2.385603E-05,-0.6938076,9.209295E-08,NaN,NaN,0.4076089,2.281727E-10,7.887591E-07,-1.100401E-07,-1.474303E-10,-2.622604E-08
884.7278,-0.1482745,3.042083E-09,NaN,-0.6826344,-1.321261E-07,NaN,-0.400062,-5.339689E-07,NaN,-1.212696,2.385641E-05,-0.7005087,9.211909E-08,NaN,NaN,0.4098722,2.328293E-10,8.000839E-07,-1.100406E-07,-2.233593E-09,-2.861022E-08
884.7424,-0.1475576,3.042721E-09,NaN,-0.6847695,-1.321265E-07,NaN,-0.4043118,-5.339962E-07,NaN,-1.21778,2.38568E-05,-0.7070802,9.214748E-08,NaN,NaN,0.4120912,2.328293E-10,8.094717E-07,-1.10041E-07,-2.233593E-09,-2.622604E-08
884.7572,-0.1475576,3.042721E-09,NaN,-0.6847695,-1.321265E-07,NaN,-0.4043118,-5.339962E-07,NaN,-1.21778,2.38568E-05,-0.7070802,9.214748E-08,NaN,NaN,0.4120912,2.328293E-10,8.094717E-07,-1.10041E-07,-2.233593E-09,-2.622604E-08
884.7733,-0.1468037,3.04336E-09,NaN,-0.6870132,-1.321269E-07,NaN,-0.4087924,-5.340228E-07,NaN,-1.223254,2.385718E-05,-0.7142314,9.217526E-08,NaN,NaN,0.4145804,2.328293E-10,8.127499E-07,-1.100415E-07,-5.213825E-09,-2.861022E-08
884.7867,-0.1460312,3.043998E-09,NaN,-0.6893134,-1.321273E-07,NaN,-0.413382,-5.340488E-07,NaN,-1.228777,2.385757E-05,-0.7214289,9.220243E-08,NaN,NaN,0.4170211,2.328293E-10,8.228827E-07,-1.100419E-07,-7.299987E-09,-2.622604E-08
884.8013,-0.1452509,3.044637E-09,NaN,-0.6916378,-1.321277E-07,NaN,-0.4180268,-5.340742E-07,NaN,-1.234281,2.385795E-05,-0.7284803,9.222902E-08,NaN,NaN,0.4194139,2.328293E-10,8.297372E-07,-1.100424E-07,-9.684173E-09,-2.861022E-08
884.816,-0.1452509,3.044637E-09,NaN,-0.6916378,-1.321277E-07,NaN,-0.4180268,-5.340742E-07,NaN,-1.234281,2.385795E-05,-0.7284803,9.222902E-08,NaN,NaN,0.4194139,2.328293E-10,8.297372E-07,-1.100424E-07,-9.684173E-09,-2.861022E-08
884.8297,-0.1444696,3.045275E-09,NaN,-0.6939666,-1.321281E-07,NaN,-0.422672,-5.341019E-07,NaN,-1.239733,2.385834E-05,-0.7353601,9.225785E-08,NaN,NaN,0.4217599,2.328293E-10,8.38976E-07,-1.100428E-07,-1.028022E-08,-2.622604E-08
884.845,-0.1436552,3.045913E-09,NaN,-0.6963921,-1.321285E-07,NaN,-0.4275297,-5.34129E-07,NaN,-1.245551,2.385873E-05,-0.7428117,9.228606E-08,NaN,NaN,0.4243735,2.328293E-10,8.383799E-07,-1.100432E-07,-1.147231E-08,-2.861022E-08
884.8596,-0.1436552,3.045913E-09,NaN,-0.6963921,-1.321285E-07,NaN,-0.4275297,-5.34129E-07,NaN,-1.245551,2.385873E-05,-0.7428117,9.228606E-08,NaN,NaN,0.4243735,2.328293E-10,8.383799E-07,-1.100432E-07,-1.147231E-08,-2.861022E-08
884.8757,-0.1428246,3.046552E-09,NaN,-0.698866,-1.321289E-07,NaN,-0.4324747,-5.341554E-07,NaN,-1.251407,2.385911E-05,-0.750302,9.231366E-08,NaN,NaN,0.4269362,2.328293E-10,8.461285E-07,-1.100437E-07,-1.564464E-08,-2.622604E-08
884.8893,-0.1419883,3.04719E-09,NaN,-0.7013583,-1.321293E-07,NaN,-0.4374584,-5.341813E-07,NaN,-1.257235,2.385949E-05,-0.7576426,9.234066E-08,NaN,NaN,0.4294488,2.374859E-10,8.535791E-07,-1.100441E-07,-1.683673E-08,-2.861022E-08
884.9038,-0.1411523,3.047828E-09,NaN,-0.7038507,-1.321297E-07,NaN,-0.4424311,-5.342093E-07,NaN,-1.263004,2.385988E-05,-0.7648082,9.236989E-08,NaN,NaN,0.431912,2.374859E-10,8.580494E-07,-1.100446E-07,-1.326045E-08,-2.622604E-08
884.9186,-0.1411523,3.047828E-09,NaN,-0.7038507,-1.321297E-07,NaN,-0.4424311,-5.342093E-07,NaN,-1.263004,2.385988E-05,-0.7648082,9.236989E-08,NaN,NaN,0.431912,2.374859E-10,8.580494E-07,-1.100446E-07,-1.326045E-08,-2.622604E-08
884.9326,-0.140284,3.048466E-09,NaN,-0.7064365,-1.321301E-07,NaN,-0.4476271,-5.342368E-07,NaN,-1.26913,2.386027E-05,-0.7725359,9.239858E-08,NaN,NaN,0.4346407,2.328293E-10,8.574534E-07,-1.10045E-07,-1.028022E-08,-2.861022E-08
884.9479,-0.1394006,3.049105E-09,NaN,-0.7090678,-1.321305E-07,NaN,-0.4529026,-5.342638E-07,NaN,-1.27529,2.386066E-05,-0.7802892,9.242665E-08,NaN,NaN,0.4373161,2.281727E-10,8.65202E-07,-1.100454E-07,-1.087627E-08,-2.622604E-08
884.9628,-0.1385121,3.049743E-09,NaN,-0.7117151,-1.321309E-07,NaN,-0.4582063,-5.342901E-07,NaN,-1.281419,2.386105E-05,-0.7878866,9.24541E-08,NaN,NaN,0.4399392,2.235161E-10,8.726525E-07,-1.100459E-07,-1.445255E-08,-2.861022E-08
884.9775,-0.1385121,3.049743E-09,NaN,-0.7117151,-1.321309E-07,NaN,-0.4582063,-5.342901E-07,NaN,-1.281419,2.386105E-05,-0.7878866,9.24541E-08,NaN,NaN,0.4399392,2.235161E-10,8.726525E-07,-1.100459E-07,-1.445255E-08,-2.861022E-08
884.9916,-0.1375884,3.050381E-09,NaN,-0.7144647,-1.321312E-07,NaN,-0.4637681,-5.343186E-07,NaN,-1.287913,2.386144E-05,-0.7960294,9.248378E-08,NaN,NaN,0.4428245,2.188595E-10,8.708644E-07,-1.100463E-07,-1.266441E-08,-2.622604E-08
885.007,-0.136648,3.051019E-09,NaN,-0.7172645,-1.321316E-07,NaN,-0.4694151,-5.343466E-07,NaN,-1.294445,2.386183E-05,-0.8041779,9.251282E-08,NaN,NaN,0.4456536,2.142029E-10,8.762289E-07,-1.100467E-07,-1.326045E-08,-2.861022E-08
885.0216,-0.135702,3.051657E-09,NaN,-0.7200825,-1.32132E-07,NaN,-0.4750868,-5.343738E-07,NaN,-1.300945,2.386223E-05,-0.8121581,9.254124E-08,NaN,NaN,0.4484272,2.095463E-10,8.827853E-07,-1.100472E-07,-9.684174E-09,-2.622604E-08
885.0374,-0.135702,3.051657E-09,NaN,-0.7200825,-1.32132E-07,NaN,-0.4750868,-5.343738E-07,NaN,-1.300945,2.386223E-05,-0.8121581,9.254124E-08,NaN,NaN,0.4484272,2.095463E-10,8.827853E-07,-1.100472E-07,-9.684174E-09,-2.622604E-08
885.0514,-0.134757,3.052295E-09,NaN,-0.7228988,-1.321324E-07,NaN,-0.4807329,-5.344005E-07,NaN,-1.307378,2.386262E-05,-0.8199496,9.256903E-08,NaN,NaN,0.4511465,2.048897E-10,8.848715E-07,-1.100476E-07,-1.147231E-08,-2.861022E-08
885.0659,-0.1337804,3.052934E-09,NaN,-0.7258059,-1.321328E-07,NaN,-0.4866246,-5.344294E-07,NaN,-1.314153,2.386301E-05,-0.8282769,9.259905E-08,NaN,NaN,0.4541261,2.002331E-10,8.806992E-07,-1.10048E-07,-7.896035E-09,-2.622604E-08
885.0803,-0.1327896,3.053572E-09,NaN,-0.7287555,-1.321332E-07,NaN,-0.4925803,-5.344576E-07,NaN,-1.320957,2.38634E-05,-0.8366033,9.262843E-08,NaN,NaN,0.4570476,1.955765E-10,8.833814E-07,-1.100484E-07,-6.703942E-09,-2.861022E-08
885.0948,-0.1327896,3.053572E-09,NaN,-0.7287555,-1.321332E-07,NaN,-0.4925803,-5.344576E-07,NaN,-1.320957,2.38634E-05,-0.8366033,9.262843E-08,NaN,NaN,0.4570476,1.955765E-10,8.833814E-07,-1.100484E-07,-6.703942E-09,-2.861022E-08
885.1089,-0.131795,3.05421E-09,NaN,-0.7317176,-1.321336E-07,NaN,-0.4985443,-5.344852E-07,NaN,-1.32772,2.386379E-05,-0.8447605,9.265716E-08,NaN,NaN,0.4599119,1.909199E-10,8.863616E-07,-1.100489E-07,-5.51185E-09,-2.622604E-08
885.1241,-0.1308026,3.054849E-09,NaN,-0.7346742,-1.321339E-07,NaN,-0.5044714,-5.345122E-07,NaN,-1.334412,2.386418E-05,-0.8527284,9.268528E-08,NaN,NaN,0.46272,1.862633E-10,8.872557E-07,-1.100493E-07,-9.088128E-09,-2.861022E-08
885.1389,-0.1308026,3.054849E-09,NaN,-0.7346742,-1.321339E-07,NaN,-0.5044714,-5.345122E-07,NaN,-1.334412,2.386418E-05,-0.8527284,9.268528E-08,NaN,NaN,0.46272,1.862633E-10,8.872557E-07,-1.100493E-07,-9.088128E-09,-2.861022E-08
885.1527,-0.1297794,3.055487E-09,NaN,-0.7377186,-1.321343E-07,NaN,-0.5106565,-5.345414E-07,NaN,-1.341437,2.386457E-05,-0.8612199,9.271561E-08,NaN,NaN,0.4657868,1.816066E-10,8.804012E-07,-1.100497E-07,-1.147231E-08,-2.622604E-08
885.1685,-0.1287428,3.056126E-09,NaN,-0.7408028,-1.321347E-07,NaN,-0.5168961,-5.345699E-07,NaN,-1.348488,2.386496E-05,-0.8697005,9.274529E-08,NaN,NaN,0.4687937,1.7695E-10,8.809973E-07,-1.100501E-07,-1.206836E-08,-2.861022E-08
885.1829,-0.127703,3.056764E-09,NaN,-0.7438975,-1.321351E-07,NaN,-0.5231328,-5.345979E-07,NaN,-1.355497,2.386535E-05,-0.8780097,9.277433E-08,NaN,NaN,0.4717418,1.7695E-10,8.801032E-07,-1.100505E-07,-1.326045E-08,-2.622604E-08
