JMolnar6/NonAnthroHands_User_Study/HandsLoggerWithURDF/tempdata/PID 0 (test)/files/Reachy_PID0_JointMotion_gesture_8_1.csv
Time,r_shoulder,r_shoulder_x,r_upper_arm,r_forearm,r_wrist,r_wrist2hand,
642.2397,0.04487079,-0.3303818,0.2909723,-0.5184211,-0.3456468,-0.02006825
642.2526,0.0448713,-0.3303437,0.2928378,-0.5184227,-0.3459528,-0.02006754
642.2664,0.04487181,-0.3303061,0.2946847,-0.518424,-0.3462573,-0.02006683
642.2812,0.04487231,-0.3302689,0.2965133,-0.5184252,-0.3465602,-0.02006613
642.296,0.04487231,-0.3302689,0.2965133,-0.5184252,-0.3465602,-0.02006613
642.3099,0.04487282,-0.3302321,0.2983236,-0.5184261,-0.3468616,-0.02006542
642.3252,0.04487332,-0.3301958,0.3001159,-0.5184267,-0.3471614,-0.02006472
642.3402,0.04487382,-0.33016,0.3018904,-0.5184271,-0.3474596,-0.02006402
642.3549,0.04487382,-0.33016,0.3018904,-0.5184271,-0.3474596,-0.02006402
642.3689,0.04487432,-0.3301245,0.3036471,-0.5184273,-0.3477561,-0.02006333
642.3842,0.04487481,-0.3300895,0.3053863,-0.5184273,-0.3480511,-0.02006263
642.399,0.04487481,-0.3300895,0.3053863,-0.5184273,-0.3480511,-0.02006263
642.4128,0.04487531,-0.3300549,0.307108,-0.518427,-0.3483445,-0.02006195
642.4285,0.0448758,-0.3300207,0.3088126,-0.5184265,-0.3486362,-0.02006126
642.4431,0.04487628,-0.329987,0.3105001,-0.5184259,-0.3489263,-0.02006057
642.4577,0.04487628,-0.329987,0.3105001,-0.5184259,-0.3489263,-0.02006057
642.4718,0.04487677,-0.3299536,0.3121707,-0.518425,-0.3492147,-0.02005989
642.4871,0.04487726,-0.3299206,0.3138246,-0.518424,-0.3495015,-0.02005921
642.5039,0.04487774,-0.329888,0.3154618,-0.5184227,-0.3497866,-0.02005853
642.5174,0.04487774,-0.329888,0.3154618,-0.5184227,-0.3497866,-0.02005853
642.5316,0.04487822,-0.3298559,0.3170826,-0.5184213,-0.3500701,-0.02005785
642.5458,0.0448787,-0.3298241,0.3186872,-0.5184197,-0.3503519,-0.02005718
642.5604,0.04487918,-0.3297926,0.3202756,-0.5184179,-0.350632,-0.02005651
642.5754,0.04487918,-0.3297926,0.3202756,-0.5184179,-0.350632,-0.02005651
642.5893,0.04487966,-0.3297616,0.3218481,-0.5184159,-0.3509105,-0.02005584
642.6049,0.04488013,-0.3297309,0.3234047,-0.5184138,-0.3511872,-0.02005517
642.6196,0.04488013,-0.3297309,0.3234047,-0.5184138,-0.3511872,-0.02005517
642.6336,0.0448806,-0.3297006,0.3249457,-0.5184116,-0.3514623,-0.02005451
642.6493,0.04488107,-0.3296707,0.3264711,-0.5184091,-0.3517357,-0.02005385
642.6638,0.04488154,-0.3296411,0.3279812,-0.5184066,-0.3520073,-0.02005319
642.6783,0.04488154,-0.3296411,0.3279812,-0.5184066,-0.3520073,-0.02005319
642.6926,0.044882,-0.3296118,0.329476,-0.5184038,-0.3522773,-0.02005254
642.7081,0.04488247,-0.329583,0.3309557,-0.518401,-0.3525456,-0.02005189
642.723,0.04488293,-0.3295544,0.3324205,-0.518398,-0.3528121,-0.02005124
642.7376,0.04488293,-0.3295544,0.3324205,-0.518398,-0.3528121,-0.02005124
642.7515,0.04488339,-0.3295262,0.3338705,-0.5183948,-0.353077,-0.02005059
642.7678,0.04488384,-0.3294984,0.3353058,-0.5183915,-0.3533401,-0.02004996
642.7815,0.0448843,-0.3294708,0.3367266,-0.5183882,-0.3536015,-0.02004932
642.7963,0.0448843,-0.3294708,0.3367266,-0.5183882,-0.3536015,-0.02004932
642.8104,0.04488475,-0.3294436,0.338133,-0.5183846,-0.3538613,-0.02004869
642.8257,0.0448852,-0.3294167,0.3395251,-0.518381,-0.3541193,-0.02004805
642.8405,0.04488565,-0.3293902,0.3409032,-0.5183772,-0.3543756,-0.02004742
642.8552,0.04488565,-0.3293902,0.3409032,-0.5183772,-0.3543756,-0.02004742
642.8693,0.0448861,-0.3293639,0.3422673,-0.5183734,-0.3546302,-0.0200468
642.8846,0.04488655,-0.329338,0.3436175,-0.5183694,-0.3548831,-0.02004618
642.8995,0.04488655,-0.329338,0.3436175,-0.5183694,-0.3548831,-0.02004618
642.9135,0.04488699,-0.3293124,0.344954,-0.5183653,-0.3551343,-0.02004556
642.9289,0.04488743,-0.3292871,0.346277,-0.5183612,-0.3553838,-0.02004494
642.9435,0.04488787,-0.3292621,0.3475865,-0.5183569,-0.3556315,-0.02004433
642.9583,0.04488787,-0.3292621,0.3475865,-0.5183569,-0.3556315,-0.02004433
642.9725,0.04488831,-0.3292374,0.3488827,-0.5183525,-0.3558776,-0.02004372
642.9878,0.04488875,-0.329213,0.3501657,-0.518348,-0.356122,-0.02004311
643.0023,0.04488919,-0.3291889,0.3514356,-0.5183435,-0.3563647,-0.02004251
643.0181,0.04488919,-0.3291889,0.3514356,-0.5183435,-0.3563647,-0.02004251
643.0321,0.04488963,-0.3291651,0.3526926,-0.5183389,-0.3566056,-0.02004191
643.0466,0.04489006,-0.3291415,0.3539368,-0.5183342,-0.3568449,-0.02004131
643.0612,0.04489049,-0.3291183,0.3551683,-0.5183293,-0.3570825,-0.02004072
643.0758,0.04489049,-0.3291183,0.3551683,-0.5183293,-0.3570825,-0.02004072
643.09,0.04489092,-0.3290953,0.3563873,-0.5183244,-0.3573184,-0.02004014
643.1053,0.04489135,-0.3290726,0.3575937,-0.5183195,-0.3575526,-0.02003955
643.1201,0.04489177,-0.3290502,0.3587879,-0.5183145,-0.3577852,-0.02003896
643.1348,0.04489177,-0.3290502,0.3587879,-0.5183145,-0.3577852,-0.02003896
643.1489,0.0448922,-0.329028,0.3599699,-0.5183094,-0.358016,-0.02003838
643.1644,0.04489262,-0.3290061,0.3611398,-0.5183042,-0.3582452,-0.02003781
643.179,0.04489262,-0.3290061,0.3611398,-0.5183042,-0.3582452,-0.02003781
643.193,0.04489304,-0.3289844,0.3622977,-0.5182989,-0.3584727,-0.02003724
643.2086,0.04489345,-0.3289631,0.3634438,-0.5182936,-0.3586985,-0.02003667
643.2233,0.04489387,-0.3289419,0.3645782,-0.5182883,-0.3589227,-0.0200361
643.2386,0.04489387,-0.3289419,0.3645782,-0.5182883,-0.3589227,-0.0200361
643.2546,0.0448943,-0.3289211,0.365842,-0.5195128,-0.3593347,-0.02003886
643.2695,0.04489472,-0.3289005,0.3670818,-0.5214351,-0.3597558,-0.02004019
643.2832,0.04489514,-0.3288801,0.3682673,-0.5236714,-0.3601358,-0.02004093
643.2974,0.04489514,-0.3288801,0.3682673,-0.5236714,-0.3601358,-0.02004093
643.311,0.04489556,-0.32886,0.3694094,-0.5260379,-0.360476,-0.02004142
643.3265,0.04489596,-0.3288401,0.3703835,-0.5272164,-0.3605994,-0.02003855
643.3411,0.04489636,-0.3288204,0.3713518,-0.5276973,-0.3606932,-0.02003702
643.3559,0.04489636,-0.3288204,0.3713518,-0.5276973,-0.3606932,-0.02003702
643.3701,0.04489677,-0.328801,0.372349,-0.5278447,-0.3608129,-0.02003602
643.3853,0.04489717,-0.3287818,0.3733671,-0.5278327,-0.3609606,-0.02003523
643.4,0.04489756,-0.3287628,0.3742544,-0.5265151,-0.3609394,-0.0200313
643.4147,0.04489756,-0.3287628,0.3742544,-0.5265151,-0.3609394,-0.0200313
643.4289,0.04489794,-0.3287441,0.3751517,-0.5244644,-0.3609176,-0.02002879
643.4443,0.04489833,-0.3287255,0.3760833,-0.5220841,-0.3609392,-0.02002687
643.459,0.04489833,-0.3287255,0.3760833,-0.5220841,-0.3609392,-0.02002687
643.4732,0.04489871,-0.3287072,0.3768959,-0.518337,-0.3608108,-0.02002189
643.4886,0.04489909,-0.3286891,0.3777246,-0.5138478,-0.3606956,-0.02001841
643.5031,0.04489947,-0.3286713,0.3785903,-0.5090449,-0.3606344,-0.02001555
643.5176,0.04489947,-0.3286713,0.3785903,-0.5090449,-0.3606344,-0.02001555
643.5336,0.04489985,-0.3286536,0.3794783,-0.5041329,-0.3606201,-0.02001295
643.5471,0.04490022,-0.3286362,0.3802262,-0.4979793,-0.3604448,-0.02000692
643.5618,0.04490058,-0.328619,0.3809765,-0.4911628,-0.3602745,-0.02000242
643.5767,0.04490058,-0.328619,0.3809765,-0.4911628,-0.3602745,-0.02000242
643.5905,0.04490095,-0.328602,0.3817571,-0.4840892,-0.3601547,-0.01999853
643.606,0.04490132,-0.3285851,0.3825574,-0.476952,-0.3600818,-0.0199949
643.6206,0.04490169,-0.3285685,0.3833449,-0.4696986,-0.3600195,-0.01999089
643.6356,0.04490169,-0.3285685,0.3833449,-0.4696986,-0.3600195,-0.01999089
643.6496,0.04490206,-0.3285522,0.3841285,-0.4624349,-0.3599786,-0.01998711
643.6648,0.04490242,-0.3285359,0.3849073,-0.4552261,-0.3599587,-0.0199834
643.6799,0.04490242,-0.3285359,0.3849073,-0.4552261,-0.3599587,-0.0199834
643.6948,0.04490279,-0.3285199,0.3856781,-0.4481025,-0.3599558,-0.01997971
643.7094,0.04490315,-0.3285041,0.3864387,-0.4410778,-0.3599665,-0.01997602
643.7239,0.04490351,-0.3284885,0.387188,-0.4341577,-0.3599885,-0.01997231
643.7388,0.04490351,-0.3284885,0.387188,-0.4341577,-0.3599885,-0.01997231
643.7526,0.04490387,-0.3284731,0.3879257,-0.427344,-0.3600201,-0.01996857
643.7684,0.04490424,-0.3284579,0.388652,-0.4206366,-0.3600607,-0.0199648
643.7838,0.04490459,-0.3284428,0.3893673,-0.4140348,-0.3601097,-0.019961
643.7984,0.04490459,-0.3284428,0.3893673,-0.4140348,-0.3601097,-0.019961
643.8126,0.04490495,-0.328428,0.3900722,-0.4075372,-0.3601669,-0.01995716
643.8272,0.04490531,-0.3284133,0.3907671,-0.4011424,-0.360232,-0.01995329
643.8418,0.04490566,-0.3283988,0.3914525,-0.3948488,-0.3603049,-0.01994938
643.8565,0.04490566,-0.3283988,0.3914525,-0.3948488,-0.3603049,-0.01994938
643.8707,0.04490602,-0.3283844,0.3921288,-0.3886548,-0.3603854,-0.01994543
643.8859,0.04490637,-0.3283703,0.3927964,-0.382559,-0.3604734,-0.01994143
643.9006,0.04490672,-0.3283563,0.3934557,-0.3765597,-0.3605688,-0.01993739
643.9155,0.04490672,-0.3283563,0.3934557,-0.3765597,-0.3605688,-0.01993739
643.9296,0.04490707,-0.3283425,0.3941071,-0.3706554,-0.3606716,-0.0199333
643.9449,0.04490742,-0.3283288,0.3947509,-0.3648447,-0.3607815,-0.01992917
643.9597,0.04490742,-0.3283288,0.3947509,-0.3648447,-0.3607815,-0.01992917
643.9738,0.04490776,-0.3283153,0.3953874,-0.3591261,-0.3608984,-0.01992498
643.9892,0.04490811,-0.328302,0.3960168,-0.353498,-0.3610224,-0.01992074
644.0038,0.04490845,-0.3282889,0.3966396,-0.3479591,-0.3611532,-0.01991645
644.0186,0.04490845,-0.3282889,0.3966396,-0.3479591,-0.3611532,-0.01991645
644.0322,0.0449088,-0.3282759,0.3972559,-0.3425079,-0.3612907,-0.0199121
644.0486,0.04490914,-0.328263,0.397866,-0.3371432,-0.3614349,-0.01990769
644.0623,0.04490948,-0.3282503,0.3984703,-0.3318634,-0.3615856,-0.01990322
644.0773,0.04490948,-0.3282503,0.3984703,-0.3318634,-0.3615856,-0.01990322
644.0912,0.04490982,-0.3282378,0.399069,-0.3266672,-0.3617429,-0.01989868
644.1067,0.04491016,-0.3282254,0.3996623,-0.3215534,-0.3619064,-0.01989408
644.1212,0.04491049,-0.3282132,0.4002506,-0.3165207,-0.3620763,-0.01988941
644.1359,0.04491049,-0.3282132,0.4002506,-0.3165207,-0.3620763,-0.01988941
644.15,0.04491083,-0.3282011,0.4008339,-0.3115676,-0.3622523,-0.01988467
644.1654,0.04491116,-0.3281892,0.4014126,-0.3066931,-0.3624344,-0.01987986
644.1801,0.04491149,-0.3281774,0.401987,-0.3018958,-0.3626226,-0.01987497
644.1948,0.04491149,-0.3281774,0.401987,-0.3018958,-0.3626226,-0.01987497
644.209,0.04491182,-0.3281657,0.4025571,-0.2971745,-0.3628167,-0.01987001
644.2242,0.04491216,-0.3281542,0.4031233,-0.292528,-0.3630167,-0.01986496
644.2393,0.04491216,-0.3281542,0.4031233,-0.292528,-0.3630167,-0.01986496
644.2532,0.04491248,-0.3281428,0.4036858,-0.2879551,-0.3632225,-0.01985984
644.2686,0.04491281,-0.3281316,0.4042448,-0.2834547,-0.363434,-0.01985463
644.283,0.04491314,-0.3281205,0.4048004,-0.2790257,-0.3636512,-0.01984933
644.2978,0.04491314,-0.3281205,0.4048004,-0.2790257,-0.3636512,-0.01984933
644.3137,0.04491346,-0.3281095,0.405353,-0.2746668,-0.3638739,-0.01984395
644.3273,0.04491379,-0.3280987,0.4059026,-0.270377,-0.3641022,-0.01983847
644.3419,0.04491411,-0.328088,0.4064495,-0.2661552,-0.3643359,-0.0198329
644.3569,0.04491411,-0.328088,0.4064495,-0.2661552,-0.3643359,-0.0198329
644.3705,0.04491443,-0.3280774,0.4069939,-0.2620002,-0.3645751,-0.01982723
644.3857,0.04491475,-0.3280669,0.4075359,-0.2579112,-0.3648196,-0.01982146
644.4002,0.04491507,-0.3280566,0.4080758,-0.2538869,-0.3650693,-0.01981559
644.4152,0.04491507,-0.3280566,0.4080758,-0.2538869,-0.3650693,-0.01981559
644.4294,0.04491539,-0.3280464,0.4086137,-0.2499264,-0.3653243,-0.01980962
644.4446,0.04491571,-0.3280363,0.4091496,-0.2460287,-0.3655845,-0.01980354
644.4596,0.04491571,-0.3280363,0.4091496,-0.2460287,-0.3655845,-0.01980354
644.4735,0.04491602,-0.3280264,0.409684,-0.2421928,-0.3658498,-0.01979734
644.4891,0.04491634,-0.3280165,0.4102168,-0.2384177,-0.3661202,-0.01979103
644.5037,0.04491665,-0.3280068,0.4107482,-0.2347024,-0.3663956,-0.01978461
644.5181,0.04491665,-0.3280068,0.4107482,-0.2347024,-0.3663956,-0.01978461
644.5319,0.04491697,-0.3279972,0.4112784,-0.231046,-0.3666759,-0.01977807
644.5474,0.04491728,-0.3279878,0.4118076,-0.2274475,-0.3669612,-0.0197714
644.5643,0.04491759,-0.3279784,0.4123358,-0.2239061,-0.3672513,-0.01976462
644.5779,0.04491759,-0.3279784,0.4123358,-0.2239061,-0.3672513,-0.01976462
644.5917,0.0449179,-0.3279691,0.4128632,-0.2204208,-0.3675463,-0.0197577
644.6062,0.04491821,-0.32796,0.4133899,-0.2169908,-0.367846,-0.01975065
644.6209,0.04491851,-0.3279509,0.413916,-0.2136151,-0.3681504,-0.01974347
644.6355,0.04491851,-0.3279509,0.413916,-0.2136151,-0.3681504,-0.01974347
644.6498,0.04491882,-0.327942,0.4144417,-0.210293,-0.3684595,-0.01973615
644.6648,0.04491912,-0.3279332,0.4149671,-0.2070235,-0.3687733,-0.0197287
644.6796,0.04491912,-0.3279332,0.4149671,-0.2070235,-0.3687733,-0.0197287
644.6937,0.04491942,-0.3279244,0.4154923,-0.2038059,-0.3690915,-0.01972109
644.7092,0.04491973,-0.3279158,0.4160174,-0.2006393,-0.3694144,-0.01971334
644.724,0.04492003,-0.3279073,0.4165424,-0.1975229,-0.3697417,-0.01970545
644.739,0.04492003,-0.3279073,0.4165424,-0.1975229,-0.3697417,-0.01970545
644.7527,0.04492033,-0.3278989,0.4170676,-0.1944558,-0.3700734,-0.0196974
644.7682,0.04492062,-0.3278906,0.4175929,-0.1914375,-0.3704095,-0.01968919
644.7828,0.04492092,-0.3278823,0.4181184,-0.188467,-0.37075,-0.01968083
644.7976,0.04492092,-0.3278823,0.4181184,-0.188467,-0.37075,-0.01968083
644.8115,0.04492122,-0.3278742,0.4186443,-0.1855435,-0.3710947,-0.0196723
644.829,0.04492151,-0.3278662,0.4191706,-0.1826665,-0.3714437,-0.01966361
644.8426,0.04492181,-0.3278583,0.4196974,-0.179835,-0.3717968,-0.01965475
644.856,0.04492181,-0.3278583,0.4196974,-0.179835,-0.3717968,-0.01965475
644.8704,0.0449221,-0.3278505,0.4202247,-0.1770485,-0.372154,-0.01964571
644.8856,0.04492239,-0.3278427,0.4207526,-0.1743061,-0.3725153,-0.0196365
644.9,0.04492268,-0.3278351,0.4212812,-0.1716073,-0.3728805,-0.01962712
644.9148,0.04492268,-0.3278351,0.4212812,-0.1716073,-0.3728805,-0.01962712
644.9294,0.04492297,-0.3278275,0.4218104,-0.1689512,-0.3732497,-0.01961755
644.9446,0.04492326,-0.3278201,0.4223404,-0.1663373,-0.3736228,-0.0196078
644.9593,0.04492326,-0.3278201,0.4223404,-0.1663373,-0.3736228,-0.0196078
644.9734,0.04492355,-0.3278127,0.4228712,-0.1637648,-0.3739996,-0.01959785
644.9887,0.04492383,-0.3278055,0.4234028,-0.1612331,-0.3743802,-0.01958772
645.0036,0.04492412,-0.3277982,0.4239351,-0.1587416,-0.3747645,-0.0195774
645.0183,0.04492412,-0.3277982,0.4239351,-0.1587416,-0.3747645,-0.0195774
645.0323,0.0449244,-0.3277911,0.4244684,-0.1562896,-0.3751523,-0.01956687
645.0479,0.04492469,-0.3277841,0.4250025,-0.1538765,-0.3755437,-0.01955615
645.0624,0.04492497,-0.3277771,0.4255376,-0.1515017,-0.3759385,-0.01954523
645.0792,0.04492497,-0.3277771,0.4255376,-0.1515017,-0.3759385,-0.01954523
645.0932,0.04492525,-0.3277703,0.4261388,-0.1493074,-0.3764044,-0.01953892
645.1075,0.04492554,-0.3277635,0.4267412,-0.1472341,-0.3768752,-0.01953048
645.1212,0.04492582,-0.3277568,0.4273323,-0.1452347,-0.3773375,-0.01952104
645.1359,0.04492582,-0.3277568,0.4273323,-0.1452347,-0.3773375,-0.01952104
645.15,0.0449261,-0.3277502,0.4279132,-0.1432864,-0.3777917,-0.01951109
645.1653,0.04492639,-0.3277437,0.4290787,-0.1425907,-0.3788516,-0.01954635
645.1801,0.04492667,-0.3277372,0.430226,-0.1426459,-0.379907,-0.01956288
645.1949,0.04492667,-0.3277372,0.430226,-0.1426459,-0.379907,-0.01956288
645.209,0.04492696,-0.3277309,0.4312533,-0.1430505,-0.3808482,-0.01957141
645.2243,0.04492724,-0.3277246,0.4321763,-0.143615,-0.381687,-0.01957649
645.2391,0.04492724,-0.3277246,0.4321763,-0.143615,-0.381687,-0.01957649
645.2531,0.04492753,-0.3277183,0.4336233,-0.1454625,-0.383069,-0.01962623
645.2685,0.04492782,-0.3277122,0.4349899,-0.1480548,-0.384382,-0.01965559
645.2831,0.04492811,-0.3277061,0.4361975,-0.1509724,-0.3855399,-0.01967604
645.298,0.04492811,-0.3277061,0.4361975,-0.1509724,-0.3855399,-0.01967604
645.3118,0.0449284,-0.3277001,0.4378467,-0.1552325,-0.3871589,-0.01973547
645.3271,0.04492869,-0.3276942,0.4393613,-0.1602435,-0.3886544,-0.0197736
645.3441,0.04492898,-0.3276884,0.4406827,-0.1655627,-0.3899596,-0.01980197
645.3575,0.04492898,-0.3276884,0.4406827,-0.1655627,-0.3899596,-0.01980197
645.3718,0.04492926,-0.3276826,0.4418497,-0.1709817,-0.3911091,-0.01982532
645.386,0.04492956,-0.3276769,0.4434129,-0.1776219,-0.3926734,-0.0198811
645.4005,0.04492985,-0.3276713,0.4448562,-0.1849313,-0.3941285,-0.01991856
645.4151,0.04492985,-0.3276713,0.4448562,-0.1849313,-0.3941285,-0.01991856
645.4294,0.04493013,-0.3276657,0.4461164,-0.192492,-0.3954031,-0.01994718
645.4446,0.04493042,-0.3276603,0.4472243,-0.2001076,-0.3965238,-0.01997088
645.4595,0.04493042,-0.3276603,0.4472243,-0.2001076,-0.3965238,-0.01997088
645.4736,0.04493069,-0.3276548,0.4477038,-0.2062461,-0.3969841,-0.01995941
645.4893,0.04493095,-0.3276495,0.4481166,-0.2114702,-0.3973542,-0.01996015
645.5038,0.04493122,-0.3276442,0.4485717,-0.2162237,-0.3977539,-0.01996531
645.5184,0.04493122,-0.3276442,0.4485717,-0.2162237,-0.3977539,-0.01996531
645.5325,0.04493149,-0.3276389,0.4490652,-0.2207171,-0.398185,-0.01997189
645.5478,0.04493176,-0.3276337,0.449575,-0.2250512,-0.3986283,-0.01997871
645.5627,0.04493203,-0.3276286,0.4500833,-0.2292743,-0.3990676,-0.01998534
645.5774,0.04493203,-0.3276286,0.4500833,-0.2292743,-0.3990676,-0.01998534
645.5912,0.04493229,-0.3276235,0.4505792,-0.2334103,-0.3994925,-0.0199916
645.6089,0.04493245,-0.3276185,0.4510572,-0.2374709,-0.3998977,-0.01999746
645.6223,0.04493257,-0.3276136,0.4515148,-0.2414626,-0.4002806,-0.0200029
645.6359,0.04493257,-0.3276136,0.4515148,-0.2414626,-0.4002806,-0.0200029
645.65,0.04493269,-0.3276087,0.4519511,-0.2453888,-0.4006404,-0.02000794
645.6652,0.04493279,-0.3276039,0.4523665,-0.2492516,-0.4009772,-0.0200126
645.6799,0.04493279,-0.3276039,0.4523665,-0.2492516,-0.4009772,-0.0200126
645.694,0.04420551,-0.3276015,0.4537064,-0.2526422,-0.4020723,-0.02001601
645.7095,0.04302359,-0.3276001,0.4553093,-0.2558542,-0.4033455,-0.02001899
645.7242,0.04156056,-0.3275989,0.4569248,-0.2590039,-0.4045897,-0.02002176
645.7393,0.04156056,-0.3275989,0.4569248,-0.2590039,-0.4045897,-0.02002176
645.7533,0.0391984,-0.3275989,0.45939,-0.2617198,-0.4065041,-0.02002351
645.7689,0.03628043,-0.3275987,0.4620453,-0.2643028,-0.4085226,-0.02002498
645.7833,0.03302499,-0.3275982,0.4646505,-0.2668651,-0.4104546,-0.02002634
645.7979,0.03302499,-0.3275982,0.4646505,-0.2668651,-0.4104546,-0.02002634
645.8122,0.02957086,-0.3275974,0.4671322,-0.2694393,-0.4122531,-0.02002759
645.8277,0.02527782,-0.3275975,0.4703843,-0.271618,-0.4146686,-0.0200279
645.8423,0.02047498,-0.3275974,0.4737895,-0.2736844,-0.4171712,-0.02002799
645.8568,0.02047498,-0.3275974,0.4737895,-0.2736844,-0.4171712,-0.02002799
645.873,0.01537154,-0.3275967,0.4771239,-0.2757439,-0.4195824,-0.020028
645.8862,0.01010037,-0.3275956,0.4803196,-0.2778262,-0.4218579,-0.02002797
645.9009,0.004017383,-0.3275954,0.4842654,-0.2795259,-0.4247453,-0.02002703
645.9156,0.004017383,-0.3275954,0.4842654,-0.2795259,-0.4247453,-0.02002703
645.9296,-0.002550829,-0.3275948,0.4883495,-0.2811244,-0.4277178,-0.02002591
645.9451,-0.009396767,-0.3275935,0.49235,-0.2827264,-0.4305972,-0.02002475
645.9597,-0.009396767,-0.3275935,0.49235,-0.2827264,-0.4305972,-0.02002475
645.9741,-0.01711711,-0.327593,0.4971001,-0.283958,-0.4340882,-0.02002272
645.9893,-0.02535515,-0.3275917,0.5019686,-0.2851081,-0.4376491,-0.02002055
646.0041,-0.03388433,-0.3275895,0.5067304,-0.2862824,-0.4411,-0.02001839
646.0188,-0.03388433,-0.3275895,0.5067304,-0.2862824,-0.4411,-0.02001839
646.0328,-0.04256091,-0.3275865,0.5113188,-0.287509,-0.4443971,-0.02001622
646.0485,-0.05202224,-0.3275844,0.5166376,-0.2883864,-0.4483082,-0.02001314
646.0629,-0.06193756,-0.3275816,0.5220689,-0.2891898,-0.4522982,-0.02000992
646.0775,-0.06193756,-0.3275816,0.5220689,-0.2891898,-0.4522982,-0.02000992
646.0919,-0.07209688,-0.3275773,0.5273902,-0.2900208,-0.4561853,-0.02000673
646.1072,-0.08236712,-0.3275714,0.5325354,-0.2909072,-0.4599238,-0.02000357
646.1238,-0.09339245,-0.3275665,0.5384254,-0.291454,-0.4643005,-0.01999945
646.1373,-0.09339245,-0.3275665,0.5384254,-0.291454,-0.4643005,-0.01999945
646.1514,-0.1048466,-0.3275604,0.5444267,-0.2919337,-0.4687628,-0.01999521
646.1655,-0.1165223,-0.3275523,0.5503135,-0.2924479,-0.4731242,-0.01999101
646.1804,-0.1282886,-0.3275423,0.5560187,-0.2930251,-0.4773367,-0.01998687
646.195,-0.1282886,-0.3275423,0.5560187,-0.2930251,-0.4773367,-0.01998687
646.2091,-0.1407908,-0.3275333,0.5624836,-0.2932757,-0.4822103,-0.01998171
646.2244,-0.1537035,-0.3275228,0.5690586,-0.2934688,-0.4871747,-0.01997644
646.2393,-0.1537035,-0.3275228,0.5690586,-0.2934688,-0.4871747,-0.01997644
646.2532,-0.1668203,-0.3275102,0.5755132,-0.293705,-0.4920374,-0.01997124
646.2689,-0.1807388,-0.327498,0.5827492,-0.2936273,-0.4975809,-0.01996501
646.2834,-0.1951032,-0.3274837,0.5900846,-0.2935109,-0.503206,-0.01995868
646.2982,-0.1951032,-0.3274837,0.5900846,-0.2935109,-0.503206,-0.01995868
646.3121,-0.2096878,-0.3274666,0.5972814,-0.2934564,-0.5087144,-0.01995244
646.3274,-0.2243496,-0.3274471,0.6042725,-0.2934905,-0.5140578,-0.01994627
646.3424,-0.239727,-0.3274283,0.6120543,-0.2932327,-0.5201064,-0.01993895
646.3571,-0.239727,-0.3274283,0.6120543,-0.2932327,-0.5201064,-0.01993895
646.371,-0.25549,-0.3274076,0.6199408,-0.2929422,-0.5262513,-0.01993152
646.3884,-0.2714293,-0.3273843,0.6276921,-0.2927154,-0.5322887,-0.0199242
646.4017,-0.2874126,-0.3273588,0.6352393,-0.2925786,-0.5381668,-0.01991695
646.4158,-0.2874126,-0.3273588,0.6352393,-0.2925786,-0.5381668,-0.01991695
646.4296,-0.3040851,-0.3273343,0.6436141,-0.2921604,-0.544793,-0.01990844
646.4449,-0.321121,-0.3273078,0.6521008,-0.2917156,-0.5515267,-0.01989985
646.4597,-0.321121,-0.3273078,0.6521008,-0.2917156,-0.5515267,-0.01989985
646.4738,-0.338314,-0.3272789,0.66045,-0.2913396,-0.5581539,-0.01989137
646.4894,-0.3562621,-0.3272503,0.6696611,-0.2906956,-0.5655604,-0.01988161
646.504,-0.3746098,-0.327219,0.6789764,-0.2900426,-0.5730672,-0.01987179
646.5187,-0.3746098,-0.327219,0.6789764,-0.2900426,-0.5730672,-0.01987179
646.5327,-0.3931318,-0.3271847,0.6881366,-0.2894764,-0.5804515,-0.01986213
646.5483,-0.4116856,-0.3271479,0.69707,-0.2890218,-0.5876583,-0.01985258
646.563,-0.4309101,-0.3271118,0.7068884,-0.2883226,-0.59568,-0.01984158
646.5779,-0.4309101,-0.3271118,0.7068884,-0.2883226,-0.59568,-0.01984158
646.5919,-0.4504757,-0.3270735,0.7168199,-0.2876203,-0.6038179,-0.01983051
646.6076,-0.4701737,-0.3270325,0.7265991,-0.2870057,-0.6118401,-0.01981962
646.6224,-0.4898724,-0.3269894,0.7361511,-0.2865031,-0.6196868,-0.01980888
646.6389,-0.4898724,-0.3269894,0.7361511,-0.2865031,-0.6196868,-0.01980888
646.6517,-0.5102172,-0.3269474,0.7466353,-0.2857687,-0.6283999,-0.01979658
646.6658,-0.5308831,-0.3269033,0.7572401,-0.2850374,-0.6372396,-0.01978425
646.6808,-0.5516642,-0.3268566,0.7676865,-0.2843981,-0.6459594,-0.01977216
646.6956,-0.5516642,-0.3268566,0.7676865,-0.2843981,-0.6459594,-0.01977216
646.7098,-0.5731588,-0.3268104,0.7791042,-0.2835428,-0.6555814,-0.01975849
646.725,-0.595012,-0.3267613,0.7906315,-0.2827084,-0.6653188,-0.01974487
646.7401,-0.616999,-0.326709,0.801977,-0.2819835,-0.6749141,-0.01973154
646.7546,-0.616999,-0.326709,0.801977,-0.2819835,-0.6749141,-0.01973154
646.7688,-0.6389779,-0.3266542,0.8130615,-0.2813907,-0.6843028,-0.01971845
646.7844,-0.6610806,-0.3265988,0.8242617,-0.2808302,-0.693832,-0.01970496
646.7989,-0.6610806,-0.3265988,0.8242617,-0.2808302,-0.693832,-0.01970496
646.8132,-0.6831685,-0.3265423,0.8353177,-0.2803595,-0.7032647,-0.01969158
646.8286,-0.7051545,-0.3264853,0.8461481,-0.2799951,-0.7125288,-0.01967843
646.8433,-0.7269844,-0.3264284,0.856735,-0.279736,-0.7216104,-0.01966553
646.858,-0.7269844,-0.3264284,0.856735,-0.279736,-0.7216104,-0.01966553
646.8722,-0.7486249,-0.3263721,0.8670798,-0.2795751,-0.7305117,-0.01965286
646.8896,-0.7700556,-0.3263169,0.8771884,-0.2795046,-0.7392382,-0.01964045
646.9032,-0.7912648,-0.3262631,0.8870654,-0.2795169,-0.7477937,-0.01962833
646.917,-0.7912648,-0.3262631,0.8870654,-0.2795169,-0.7477937,-0.01962833
646.931,-0.8122461,-0.3262111,0.8967138,-0.279606,-0.7561798,-0.01961653
646.9464,-0.8329963,-0.3261609,0.9061345,-0.2797665,-0.7643963,-0.01960506
646.9611,-0.8535145,-0.3261126,0.9153273,-0.2799941,-0.7724414,-0.01959395
646.9759,-0.8535145,-0.3261126,0.9153273,-0.2799941,-0.7724414,-0.01959395
646.9901,-0.873801,-0.3260663,0.9242911,-0.2802853,-0.780313,-0.0195832
647.0057,-0.8938571,-0.326022,0.9330242,-0.2806366,-0.788008,-0.01957283
647.0203,-0.9136844,-0.3259796,0.941525,-0.2810452,-0.7955235,-0.01956284
647.0352,-0.9136844,-0.3259796,0.941525,-0.2810452,-0.7955235,-0.01956284
647.0491,-0.9332849,-0.3259391,0.9497916,-0.2815084,-0.8028566,-0.01955324
647.0645,-0.952661,-0.3259005,0.9578221,-0.2820236,-0.8100042,-0.01954404
647.0795,-0.952661,-0.3259005,0.9578221,-0.2820236,-0.8100042,-0.01954404
647.0933,-0.9718149,-0.3258637,0.9656152,-0.2825884,-0.8169639,-0.01953523
647.1089,-0.990749,-0.3258288,0.9731696,-0.2832004,-0.8237332,-0.01952681
647.1232,-1.009466,-0.3257956,0.9804844,-0.2838574,-0.8303102,-0.01951879
647.1403,-1.027968,-0.3257641,0.9875588,-0.2845571,-0.8366932,-0.01951118
647.154,-1.027968,-0.3257641,0.9875588,-0.2845571,-0.8366932,-0.01951118
647.1668,-1.046257,-0.3257343,0.9943923,-0.2852974,-0.8428805,-0.01950395
647.1835,-1.064337,-0.325706,1.000985,-0.2860761,-0.848871,-0.0194971
647.1973,-1.064337,-0.325706,1.000985,-0.2860761,-0.848871,-0.0194971
647.2111,-1.082208,-0.3256793,1.007336,-0.2868913,-0.8546638,-0.01949064
647.2266,-1.099874,-0.3256542,1.013447,-0.2877409,-0.8602584,-0.01948455
647.2416,-1.117338,-0.3256305,1.019319,-0.2886229,-0.8656546,-0.01947883
647.2563,-1.117338,-0.3256305,1.019319,-0.2886229,-0.8656546,-0.01947883
647.2703,-1.134601,-0.3256082,1.024951,-0.2895355,-0.8708524,-0.01947347
647.2859,-1.151665,-0.3255873,1.030346,-0.2904767,-0.8758519,-0.01946845
647.3005,-1.168533,-0.3255678,1.035505,-0.2914448,-0.8806539,-0.01946378
647.3151,-1.168533,-0.3255678,1.035505,-0.2914448,-0.8806539,-0.01946378
647.3293,-1.185208,-0.3255495,1.04043,-0.292438,-0.8852589,-0.01945945
647.3447,-1.201691,-0.3255326,1.045122,-0.2934546,-0.8896678,-0.01945543
647.3596,-1.201691,-0.3255326,1.045122,-0.2934546,-0.8896678,-0.01945543
647.3741,-1.217763,-0.325516,1.049155,-0.2945645,-0.8934834,-0.01945233
647.3898,-1.233511,-0.3255011,1.052844,-0.2957157,-0.8970009,-0.01944958
647.4044,-1.248988,-0.3254878,1.056303,-0.2968849,-0.9003254,-0.01944706
647.4182,-1.248988,-0.3254878,1.056303,-0.2968849,-0.9003254,-0.01944706
647.4323,-1.26423,-0.3254763,1.059569,-0.2980625,-0.9034886,-0.01944476
647.4478,-1.278532,-0.3254641,1.061246,-0.2994753,-0.9051905,-0.01944461
647.4623,-1.292185,-0.3254541,1.062361,-0.3009623,-0.9063939,-0.01944483
647.4771,-1.292185,-0.3254541,1.062361,-0.3009623,-0.9063939,-0.01944483
647.491,-1.305371,-0.3254472,1.063278,-0.3024533,-0.9074365,-0.01944506
647.5067,-1.318208,-0.3254432,1.064105,-0.3039229,-0.9084153,-0.01944532
647.5214,-1.330045,-0.3254395,1.063479,-0.3055936,-0.9080554,-0.01944751
647.5359,-1.330045,-0.3254395,1.063479,-0.3055936,-0.9080554,-0.01944751
647.5502,-1.341203,-0.3254381,1.0624,-0.3073094,-0.907295,-0.01944996
647.5653,-1.351888,-0.3254384,1.061213,-0.3090045,-0.9064534,-0.01945237
647.5802,-1.362229,-0.3254398,1.060013,-0.3106577,-0.9056149,-0.01945472
647.5951,-1.362229,-0.3254398,1.060013,-0.3106577,-0.9056149,-0.01945472
647.6091,-1.371584,-0.3254407,1.057458,-0.3124974,-0.9035261,-0.01945882
647.6244,-1.38028,-0.3254427,1.054523,-0.3143689,-0.9010982,-0.0194631
647.6393,-1.38028,-0.3254427,1.054523,-0.3143689,-0.9010982,-0.0194631
647.6551,-1.388523,-0.325446,1.051541,-0.3162091,-0.8986418,-0.01946725
647.6685,-1.395721,-0.3254489,1.047284,-0.3182317,-0.8950071,-0.01947293
647.6829,-1.40223,-0.3254538,1.042728,-0.3202752,-0.8911089,-0.01947868
647.6978,-1.40223,-0.3254538,1.042728,-0.3202752,-0.8911089,-0.01947868
647.7117,-1.408278,-0.3254614,1.038205,-0.3222755,-0.8872525,-0.01948418
647.7272,-1.414012,-0.3254714,1.033793,-0.3242134,-0.8835105,-0.01948943
647.742,-1.418795,-0.3254811,1.028213,-0.3263289,-0.8786855,-0.0194961
647.7568,-1.418795,-0.3254811,1.028213,-0.3263289,-0.8786855,-0.0194961
647.7708,-1.422961,-0.3254921,1.022379,-0.3284638,-0.8736348,-0.01950281
647.7861,-1.426721,-0.3255048,1.016607,-0.3305548,-0.8686492,-0.01950925
647.8007,-1.43021,-0.325519,1.010976,-0.332583,-0.8638014,-0.0195154
647.8157,-1.43021,-0.325519,1.010976,-0.332583,-0.8638014,-0.0195154
647.8299,-1.432785,-0.325532,1.004251,-0.3347965,-0.8579408,-0.01952283
647.8452,-1.434775,-0.3255454,0.9973221,-0.3370305,-0.8518957,-0.01953028
647.86,-1.434775,-0.3255454,0.9973221,-0.3370305,-0.8518957,-0.01953028
647.8742,-1.436388,-0.3255595,0.9904926,-0.3392193,-0.8459493,-0.01953742
647.8896,-1.437029,-0.3255719,0.9826469,-0.3415994,-0.8390619,-0.01954569
647.9052,-1.437056,-0.3255839,0.9746696,-0.3439941,-0.8320575,-0.0195539
647.9199,-1.437056,-0.3255839,0.9746696,-0.3439941,-0.8320575,-0.0195539
647.9327,-1.436697,-0.3255961,0.9668601,-0.3463345,-0.8252138,-0.01956175
647.9484,-1.436097,-0.3256085,0.9592872,-0.3486012,-0.818594,-0.01956919
647.9631,-1.434619,-0.3256187,0.9507994,-0.3510625,-0.8111277,-0.01957768
647.9776,-1.434619,-0.3256187,0.9507994,-0.3510625,-0.8111277,-0.01957768
647.9917,-1.432595,-0.3256277,0.9422154,-0.3535412,-0.8035758,-0.0195861
648.0071,-1.430237,-0.3256361,0.9338149,-0.3559681,-0.7961974,-0.01959416
648.022,-1.427677,-0.3256442,0.9256662,-0.3583231,-0.7890555,-0.01960183
648.0369,-1.427677,-0.3256442,0.9256662,-0.3583231,-0.7890555,-0.01960183
648.0505,-1.424273,-0.3256496,0.9166731,-0.3608856,-0.7811342,-0.01961043
648.0661,-1.420353,-0.3256534,0.9076194,-0.3634687,-0.7731594,-0.01961896
648.0808,-1.416125,-0.3256559,0.8987742,-0.3659997,-0.7653803,-0.01962712
648.0956,-1.416125,-0.3256559,0.8987742,-0.3659997,-0.7653803,-0.01962712
648.1097,-1.410991,-0.3256564,0.8891562,-0.3687472,-0.7568897,-0.01963611
648.125,-1.40531,-0.3256557,0.8795409,-0.3715101,-0.7484043,-0.01964495
648.1398,-1.40531,-0.3256557,0.8795409,-0.3715101,-0.7484043,-0.01964495
648.1558,-1.399308,-0.3256542,0.8701887,-0.3742118,-0.7401645,-0.01965338
648.17,-1.39313,-0.3256521,0.8611572,-0.3768308,-0.7322238,-0.01966136
648.1834,-1.386138,-0.3256474,0.85144,-0.3796697,-0.7236553,-0.0196701
648.1981,-1.386138,-0.3256474,0.85144,-0.3796697,-0.7236553,-0.0196701
648.2122,-1.378664,-0.3256406,0.8417471,-0.3825264,-0.7151119,-0.0196787
648.2274,-1.370917,-0.3256323,0.8323203,-0.3853238,-0.7068162,-0.01968691
648.2421,-1.363032,-0.3256231,0.8232154,-0.3880393,-0.69882,-0.01969471
648.2569,-1.363032,-0.3256231,0.8232154,-0.3880393,-0.69882,-0.01969471
648.2709,-1.354364,-0.3256109,0.8134831,-0.3909876,-0.6902527,-0.01970318
648.2864,-1.34524,-0.3255963,0.8037966,-0.3939562,-0.6817304,-0.01971152
648.301,-1.335868,-0.3255801,0.7943866,-0.3968641,-0.6734645,-0.01971949
648.3159,-1.335868,-0.3255801,0.7943866,-0.3968641,-0.6734645,-0.01971949
648.3301,-1.32565,-0.3255603,0.7844087,-0.4000118,-0.6646842,-0.01972806
648.3453,-1.314943,-0.3255375,0.7745258,-0.4031724,-0.6559936,-0.01973645
648.36,-1.303973,-0.3255126,0.7649595,-0.4062612,-0.6475958,-0.01974445
648.3748,-1.303973,-0.3255126,0.7649595,-0.4062612,-0.6475958,-0.01974445
648.3887,-1.292884,-0.3254862,0.7557565,-0.4092545,-0.6395339,-0.01975201
648.4042,-1.281039,-0.3254565,0.7460561,-0.4124891,-0.6310267,-0.01976008
648.421,-1.268767,-0.325424,0.7364591,-0.415738,-0.6226175,-0.019768
648.4344,-1.268767,-0.325424,0.7364591,-0.415738,-0.6226175,-0.019768
648.4485,-1.256277,-0.3253895,0.7271693,-0.4189161,-0.6144918,-0.01977555
648.4627,-1.243704,-0.3253535,0.7182315,-0.4219987,-0.6066906,-0.01978269
648.4777,-1.243704,-0.3253535,0.7182315,-0.4219987,-0.6066906,-0.01978269
648.492,-1.230402,-0.3253145,0.7088388,-0.4253329,-0.5984863,-0.0197903
648.507,-1.216698,-0.3252727,0.6995574,-0.4286826,-0.590387,-0.01979776
648.5217,-1.202798,-0.3252288,0.690581,-0.4319589,-0.5825678,-0.01980488
648.5363,-1.202798,-0.3252288,0.690581,-0.4319589,-0.5825678,-0.01980488
648.5505,-1.188105,-0.3251812,0.6811956,-0.4354914,-0.5743884,-0.0198124
648.5656,-1.172974,-0.3251301,0.671957,-0.4390298,-0.5663456,-0.01981975
648.5807,-1.157632,-0.3250764,0.6630508,-0.4424819,-0.5586065,-0.01982672
648.5952,-1.157632,-0.3250764,0.6630508,-0.4424819,-0.5586065,-0.01982672
648.6094,-1.14222,-0.325021,0.6545137,-0.4458225,-0.5512047,-0.01983331
648.6248,-1.126102,-0.3249624,0.6456195,-0.4494176,-0.5434943,-0.01984024
648.6396,-1.126102,-0.3249624,0.6456195,-0.4494176,-0.5434943,-0.01984024
648.6535,-1.109607,-0.3249007,0.6368691,-0.4530192,-0.5359179,-0.01984702
648.6689,-1.092943,-0.3248368,0.6284325,-0.4565352,-0.528627,-0.01985347
648.6854,-1.076243,-0.3247714,0.6203449,-0.4599395,-0.5216535,-0.01985957
648.6992,-1.076243,-0.3247714,0.6203449,-0.4599395,-0.5216535,-0.01985957
648.7131,-1.058862,-0.3247033,0.6119276,-0.4636064,-0.5143987,-0.01986597
648.7273,-1.041126,-0.3246323,0.6036515,-0.46728,-0.5072746,-0.01987222
648.7422,-1.023241,-0.3245591,0.595678,-0.4708652,-0.5004237,-0.01987818
648.7568,-1.023241,-0.3245591,0.595678,-0.4708652,-0.5004237,-0.01987818
648.7711,-1.004608,-0.3244823,0.5874075,-0.4747152,-0.4933217,-0.0198844
648.7864,-0.9855837,-0.3244019,0.5793027,-0.4785612,-0.4863706,-0.01989045
648.8008,-0.9663925,-0.3243187,0.5715181,-0.482305,-0.4797064,-0.01989621
648.8158,-0.9663925,-0.3243187,0.5715181,-0.482305,-0.4797064,-0.01989621
648.83,-0.9471766,-0.3242339,0.5640829,-0.4859204,-0.4733555,-0.01990164
648.8455,-0.9272978,-0.3241462,0.5563865,-0.4897966,-0.466789,-0.01990727
648.86,-0.9070851,-0.3240555,0.5488452,-0.4936693,-0.4603637,-0.01991276
648.8749,-0.9070851,-0.3240555,0.5488452,-0.4936693,-0.4603637,-0.01991276
648.889,-0.8867471,-0.3239626,0.5416009,-0.4974411,-0.4542024,-0.01991798
648.9044,-0.8664154,-0.3238685,0.5346819,-0.5010853,-0.4483304,-0.01992292
648.9192,-0.8664154,-0.3238685,0.5346819,-0.5010853,-0.4483304,-0.01992292
648.9329,-0.8454449,-0.3237721,0.5275165,-0.5049968,-0.4422579,-0.01992803
648.9493,-0.8241604,-0.323673,0.5204974,-0.5089052,-0.436317,-0.01993302
648.9631,-0.8027676,-0.3235718,0.5137596,-0.5127108,-0.4306234,-0.01993778
648.9777,-0.8027676,-0.3235718,0.5137596,-0.5127108,-0.4306234,-0.01993778
648.9919,-0.7806683,-0.3234675,0.5067979,-0.5167845,-0.424749,-0.0199427
649.0073,-0.7582173,-0.3233595,0.499999,-0.5208438,-0.4190185,-0.01994749
649.0219,-0.735639,-0.3232489,0.4934928,-0.5247863,-0.4135427,-0.01995202
649.0367,-0.735639,-0.3232489,0.4934928,-0.5247863,-0.4135427,-0.01995202
649.0507,-0.7130751,-0.323137,0.4873029,-0.5285853,-0.4083429,-0.01995629
649.0662,-0.689887,-0.3230226,0.4809128,-0.5326473,-0.4029857,-0.01996069
649.0809,-0.6664034,-0.3229054,0.4746715,-0.5366961,-0.3977593,-0.01996496
649.0958,-0.6664034,-0.3229054,0.4746715,-0.5366961,-0.3977593,-0.01996496
649.1099,-0.6428322,-0.3227862,0.4686985,-0.5406307,-0.3927641,-0.01996902
649.1251,-0.6193045,-0.3226663,0.4630173,-0.544424,-0.3880205,-0.01997285
649.1401,-0.5953472,-0.3225452,0.4572543,-0.5483894,-0.383219,-0.01997672
649.1548,-0.5953472,-0.3225452,0.4572543,-0.5483894,-0.383219,-0.01997672
649.1688,-0.5712199,-0.3224226,0.4516566,-0.5523149,-0.3785604,-0.01998045
649.1841,-0.5470867,-0.3222993,0.4463063,-0.5561244,-0.3741127,-0.019984
649.1998,-0.5470867,-0.3222993,0.4463063,-0.5561244,-0.3741127,-0.019984
649.214,-0.5230508,-0.3221766,0.4412167,-0.5597988,-0.3698872,-0.01998734
649.2283,-0.4991767,-0.3220554,0.4363756,-0.5633406,-0.3658737,-0.01999049
649.2431,-0.4755044,-0.3219367,0.4317642,-0.5667586,-0.362056,-0.01999346
649.2577,-0.4755044,-0.3219367,0.4317642,-0.5667586,-0.362056,-0.01999346
649.2719,-0.4520582,-0.3218212,0.4273641,-0.5700626,-0.3584181,-0.01999627
649.2872,-0.4288524,-0.3217096,0.4231592,-0.5732607,-0.3549457,-0.01999894
649.3019,-0.4058951,-0.3216022,0.4191363,-0.5763596,-0.3516268,-0.02000147
649.3181,-0.4058951,-0.3216022,0.4191363,-0.5763596,-0.3516268,-0.02000147
649.3307,-0.3831903,-0.3214993,0.4152847,-0.5793645,-0.3484517,-0.02000387
649.3464,-0.3607396,-0.3214009,0.4115953,-0.5822795,-0.3454119,-0.02000617
649.3613,-0.3385427,-0.3213072,0.4080602,-0.5851077,-0.3425004,-0.02000836
649.3758,-0.3385427,-0.3213072,0.4080602,-0.5851077,-0.3425004,-0.02000836
649.3898,-0.3165985,-0.3212182,0.4046727,-0.5878517,-0.3397107,-0.02001045
649.4053,-0.2949052,-0.3211337,0.4014267,-0.5905138,-0.3370374,-0.02001244
649.4201,-0.2734607,-0.3210538,0.3983164,-0.5930958,-0.3344752,-0.02001434
649.4345,-0.2734607,-0.3210538,0.3983164,-0.5930958,-0.3344752,-0.02001434
649.4507,-0.2586362,-0.320999,0.398853,-0.5919164,-0.334812,-0.02001388
649.4647,-0.2480383,-0.3209773,0.4004676,-0.5896066,-0.3360549,-0.02001262
649.4786,-0.2480383,-0.3209773,0.4004676,-0.5896066,-0.3360549,-0.02001262
649.4927,-0.2401445,-0.3209813,0.4021476,-0.5871953,-0.3373829,-0.0200113
649.5081,-0.2339855,-0.321003,0.4035703,-0.5850235,-0.338517,-0.02001018
649.5226,-0.2289441,-0.3210375,0.4046902,-0.5831548,-0.3394062,-0.02000929
649.5378,-0.2289441,-0.3210375,0.4046902,-0.5831548,-0.3394062,-0.02000929
649.5516,-0.2246272,-0.3210806,0.4055548,-0.5815546,-0.3400815,-0.02000862
649.5671,-0.2207842,-0.3211291,0.4062304,-0.5801639,-0.3405936,-0.02000809
649.5821,-0.2172556,-0.3211811,0.4093502,-0.5789092,-0.344499,-0.02001315
649.5967,-0.2172556,-0.3211811,0.4093502,-0.5789092,-0.344499,-0.02001315
649.6109,-0.2139396,-0.3212351,0.4131044,-0.5777383,-0.3498605,-0.02001427
649.6261,-0.2107713,-0.3212901,0.4167001,-0.576628,-0.3556147,-0.02001407
649.6411,-0.207709,-0.3213457,0.4199585,-0.5755656,-0.3613778,-0.02001354
649.6557,-0.207709,-0.3213457,0.4199585,-0.5755656,-0.3613778,-0.02001354
649.6696,-0.2047264,-0.3214014,0.4217892,-0.5745496,-0.3655232,-0.02001049
649.6849,-0.2018063,-0.321457,0.4230517,-0.5735748,-0.3688672,-0.02000932
649.7018,-0.1989378,-0.3215124,0.4241635,-0.572632,-0.3718807,-0.02000884
649.7153,-0.1989378,-0.3215124,0.4241635,-0.572632,-0.3718807,-0.02000884
649.7294,-0.1961137,-0.3215673,0.4241516,-0.57172,-0.3732511,-0.020006
649.7437,-0.1933294,-0.3216219,0.4238387,-0.5708375,-0.3738849,-0.02000506
649.7585,-0.1933294,-0.3216219,0.4238387,-0.5708375,-0.3738849,-0.02000506
649.7725,-0.1905817,-0.321676,0.423579,-0.5699764,-0.374272,-0.02000473
649.7879,-0.1878685,-0.3217296,0.4234517,-0.5691292,-0.3745939,-0.02000455
649.8026,-0.1851884,-0.3217827,0.4223395,-0.5682994,-0.3734198,-0.02000177
649.8172,-0.1851884,-0.3217827,0.4223395,-0.5682994,-0.3734198,-0.02000177
649.8315,-0.1825403,-0.3218353,0.4209995,-0.5674916,-0.3715967,-0.02000082
649.847,-0.1799234,-0.3218874,0.4197589,-0.5667003,-0.3695891,-0.02000046
649.8618,-0.1773371,-0.321939,0.4186859,-0.5659192,-0.3675674,-0.02000025
649.8766,-0.1773371,-0.321939,0.4186859,-0.5659192,-0.3675674,-0.02000025
649.8905,-0.1747808,-0.3219901,0.4166574,-0.5651526,-0.3640995,-0.01999744
649.9061,-0.1722541,-0.3220407,0.4144268,-0.5644069,-0.3600265,-0.01999647
649.9206,-0.1697566,-0.3220909,0.4123206,-0.5636765,-0.3558103,-0.01999609
649.9355,-0.1697566,-0.3220909,0.4123206,-0.5636765,-0.3558103,-0.01999609
649.9495,-0.1672878,-0.3221405,0.4092966,-0.5629627,-0.3501328,-0.01999331
649.9659,-0.1648475,-0.3221896,0.4061264,-0.5622705,-0.3438758,-0.01999238
649.9795,-0.1648475,-0.3221896,0.4061264,-0.5622705,-0.3438758,-0.01999238
649.9936,-0.1624352,-0.3222383,0.4031347,-0.5615926,-0.3375144,-0.01999204
650.0093,-0.1600508,-0.3222865,0.4003822,-0.5609216,-0.3312208,-0.01999187
650.0239,-0.1576937,-0.3223342,0.3967343,-0.5602604,-0.3235626,-0.01998925
650.0386,-0.1576937,-0.3223342,0.3967343,-0.5602604,-0.3235626,-0.01998925
650.0524,-0.1553637,-0.3223814,0.3929405,-0.5596172,-0.3153784,-0.01998837
650.068,-0.1530606,-0.3224282,0.3893244,-0.5589859,-0.3071273,-0.01998807
650.0826,-0.1507839,-0.3224745,0.3859513,-0.5583594,-0.2989765,-0.01998794
650.0975,-0.1507839,-0.3224745,0.3859513,-0.5583594,-0.2989765,-0.01998794
650.1119,-0.1485334,-0.3225203,0.381688,-0.5577404,-0.2894903,-0.01998553
650.1271,-0.1463087,-0.3225657,0.3772905,-0.5571373,-0.2795092,-0.01998477
650.1422,-0.1441097,-0.3226107,0.373086,-0.5565442,-0.2694925,-0.01998457
650.1568,-0.1441097,-0.3226107,0.373086,-0.5565442,-0.2694925,-0.01998457
650.171,-0.1419359,-0.3226551,0.3680219,-0.5559597,-0.2581164,-0.01998238
650.186,-0.1397871,-0.3226992,0.3628758,-0.5553905,-0.2462646,-0.01998177
650.2029,-0.137663,-0.3227428,0.3579735,-0.554829,-0.2344108,-0.01998167
650.2167,-0.137663,-0.3227428,0.3579735,-0.554829,-0.2344108,-0.01998167
650.2299,-0.1355634,-0.3227859,0.3533746,-0.5542675,-0.2227249,-0.01998172
650.245,-0.1334878,-0.3228287,0.3479321,-0.5537062,-0.2097658,-0.01997996
650.2597,-0.1334878,-0.3228287,0.3479321,-0.5537062,-0.2097658,-0.01997996
650.2739,-0.1314362,-0.322871,0.3424033,-0.5531546,-0.1963773,-0.01997954
650.2894,-0.1294081,-0.3229128,0.3371132,-0.5526068,-0.1830184,-0.01997956
650.3043,-0.1274034,-0.3229543,0.3321254,-0.5520563,-0.1698537,-0.01997972
650.3188,-0.1274034,-0.3229543,0.3321254,-0.5520563,-0.1698537,-0.01997972
650.3329,-0.1254217,-0.3229953,0.3262937,-0.5515023,-0.1554381,-0.01997845
650.3488,-0.1234628,-0.323036,0.3203823,-0.5509543,-0.1406183,-0.01997826
650.3633,-0.1215264,-0.3230762,0.3147198,-0.550407,-0.1258539,-0.01997843
650.378,-0.1215264,-0.3230762,0.3147198,-0.550407,-0.1258539,-0.01997843
650.3921,-0.1196123,-0.323116,0.3082413,-0.5498561,-0.1098119,-0.01997757
650.4077,-0.1177202,-0.3231554,0.3017316,-0.5493091,-0.09338187,-0.01997758
650.4224,-0.1158498,-0.3231944,0.2955172,-0.5487598,-0.07703727,-0.01997785
650.437,-0.1158498,-0.3231944,0.2955172,-0.5487598,-0.07703727,-0.01997785
650.4531,-0.114001,-0.323233,0.2896556,-0.548202,-0.06094553,-0.0199782
650.4665,-0.1121734,-0.3232712,0.2829891,-0.5476322,-0.04365912,-0.01997798
650.4811,-0.1103668,-0.323309,0.2762797,-0.54706,-0.02602563,-0.01997823
650.4967,-0.1103668,-0.323309,0.2762797,-0.54706,-0.02602563,-0.01997823
650.5099,-0.108581,-0.3233465,0.2698531,-0.5464814,-0.008503575,-0.01997861
650.5253,-0.1068158,-0.3233835,0.2637712,-0.5458918,0.008744493,-0.01997902
650.5403,-0.1050708,-0.3234202,0.2568805,-0.5452867,0.02716478,-0.01997944
650.5548,-0.1050708,-0.3234202,0.2568805,-0.5452867,0.02716478,-0.01997944
650.5692,-0.1033459,-0.3234565,0.249946,-0.5446752,0.04591122,-0.01997991
650.5845,-0.1016409,-0.3234925,0.2432962,-0.5440544,0.06452575,-0.01998034
650.5994,-0.1016409,-0.3234925,0.2432962,-0.5440544,0.06452575,-0.01998034
650.6134,-0.09995543,-0.323528,0.2358629,-0.543417,0.08433715,-0.01998126
650.6288,-0.09828937,-0.3235632,0.2284277,-0.5427709,0.1044612,-0.01998186
650.6436,-0.09664247,-0.3235981,0.2213162,-0.542113,0.1244274,-0.0199823
650.6582,-0.09664247,-0.3235981,0.2213162,-0.542113,0.1244274,-0.0199823
650.6727,-0.09501451,-0.3236325,0.2145855,-0.5414406,0.1440702,-0.01998268
650.6879,-0.09340528,-0.3236667,0.2070811,-0.5407462,0.1648231,-0.01998421
650.7034,-0.09181455,-0.3237005,0.1995543,-0.540039,0.1858517,-0.01998495
650.718,-0.09181455,-0.3237005,0.1995543,-0.540039,0.1858517,-0.01998495
650.7311,-0.09024212,-0.3237339,0.1923288,-0.5393181,0.2067028,-0.01998536
650.7466,-0.08868778,-0.323767,0.1854675,-0.5385824,0.2272152,-0.01998564
650.7611,-0.08715131,-0.3237998,0.177828,-0.5378235,0.2488101,-0.01998771
650.776,-0.08715131,-0.3237998,0.177828,-0.5378235,0.2488101,-0.01998771
650.79,-0.08563252,-0.3238322,0.1701561,-0.5370502,0.270664,-0.01998852
650.8055,-0.0841312,-0.3238643,0.1627772,-0.5362629,0.2923269,-0.01998883
650.8203,-0.08264714,-0.3238961,0.1557576,-0.5354623,0.3136372,-0.01998896
650.8352,-0.08264714,-0.3238961,0.1557576,-0.5354623,0.3136372,-0.01998896
650.8494,-0.08118015,-0.3239275,0.1479669,-0.5346385,0.3359981,-0.01999144
650.8646,-0.07973003,-0.3239585,0.1401386,-0.5338003,0.3586013,-0.01999226
650.8793,-0.07973003,-0.3239585,0.1401386,-0.5338003,0.3586013,-0.01999226
650.8935,-0.0782966,-0.3239893,0.1325967,-0.5329493,0.3810012,-0.01999243
650.9095,-0.07687966,-0.3240198,0.1254106,-0.5320875,0.4030363,-0.01999236
650.9236,-0.07547902,-0.3240499,0.118566,-0.5312167,0.424656,-0.01999221
650.9384,-0.07547902,-0.3240499,0.118566,-0.5312167,0.424656,-0.01999221
650.9545,-0.07409448,-0.3240798,0.1120286,-0.5303389,0.4458519,-0.01999202
650.9679,-0.07272588,-0.3241093,0.1057646,-0.5294558,0.4666299,-0.0199918
650.9825,-0.07137302,-0.3241386,0.1008405,-0.5285822,0.4855852,-0.01998841
650.9978,-0.07137302,-0.3241386,0.1008405,-0.5285822,0.4855852,-0.01998841
651.0112,-0.07003571,-0.3241675,0.09649782,-0.5277159,0.5034934,-0.01998709
651.0266,-0.06871379,-0.3241961,0.09236696,-0.5268562,0.5208051,-0.0199865
651.0413,-0.06740708,-0.3242245,0.08833416,-0.5260012,0.5377022,-0.01998611
651.0561,-0.06740708,-0.3242245,0.08833416,-0.5260012,0.5377022,-0.01998611
651.0703,-0.0661154,-0.3242525,0.08546046,-0.5251637,0.5528623,-0.01998244
651.0856,-0.06483858,-0.3242803,0.08303349,-0.5243431,0.567059,-0.01998092
651.1004,-0.06357644,-0.3243077,0.08071493,-0.5235364,0.5807389,-0.01998013
651.1152,-0.06357644,-0.3243077,0.08071493,-0.5235364,0.5807389,-0.01998013
651.1295,-0.06232883,-0.3243349,0.07948704,-0.5227534,0.5926995,-0.01997621
651.1451,-0.06109557,-0.3243618,0.07863416,-0.5219936,0.6037424,-0.01997451
651.1596,-0.06109557,-0.3243618,0.07863416,-0.5219936,0.6037424,-0.01997451
651.1738,-0.0598765,-0.3243884,0.07782404,-0.5212517,0.6143241,-0.01997357
651.189,-0.05867146,-0.3244148,0.07697112,-0.5205218,0.6246272,-0.01997285
651.2047,-0.05748028,-0.3244409,0.07714349,-0.5198147,0.6333544,-0.01996878
651.2194,-0.05748028,-0.3244409,0.07714349,-0.5198147,0.6333544,-0.01996878
651.2324,-0.0563028,-0.3244667,0.07766827,-0.519133,0.6412491,-0.01996689
651.2477,-0.05513887,-0.3244922,0.0782223,-0.5184711,0.6487455,-0.01996577
651.2624,-0.05398833,-0.3245174,0.07871787,-0.5178227,0.656019,-0.01996488
651.2775,-0.05398833,-0.3245174,0.07871787,-0.5178227,0.656019,-0.01996488
651.2917,-0.05285104,-0.3245424,0.08021344,-0.5171978,0.6617814,-0.01996068
651.3069,-0.05172683,-0.3245672,0.08204153,-0.5166006,0.6667647,-0.01995866
651.3217,-0.05061555,-0.3245916,0.08387762,-0.5160245,0.6713997,-0.01995742
651.3367,-0.05061555,-0.3245916,0.08387762,-0.5160245,0.6713997,-0.01995742
651.3506,-0.04951706,-0.3246158,0.08669074,-0.5154763,0.6745111,-0.01995309
651.366,-0.04843121,-0.3246398,0.08979143,-0.5149586,0.6768686,-0.01995098
651.3809,-0.04735786,-0.3246635,0.09285144,-0.5144628,0.6789178,-0.01994967
651.3954,-0.04735786,-0.3246635,0.09285144,-0.5144628,0.6789178,-0.01994967
651.4097,-0.04629686,-0.3246869,0.09578251,-0.5139803,0.680839,-0.01994863
651.4252,-0.04524807,-0.3247102,0.09964061,-0.5135197,0.6813563,-0.0199443
651.4413,-0.04421135,-0.3247331,0.1037692,-0.5130873,0.6811907,-0.01994213
651.4557,-0.04421135,-0.3247331,0.1037692,-0.5130873,0.6811907,-0.01994213
651.4698,-0.04318656,-0.3247558,0.1078473,-0.5126755,0.6807683,-0.01994076
651.4842,-0.04217356,-0.3247783,0.111785,-0.5122759,0.680262,-0.01993966
651.499,-0.04217356,-0.3247783,0.111785,-0.5122759,0.680262,-0.01993966
651.5129,-0.04117222,-0.3248005,0.1166349,-0.5118971,0.6783955,-0.01993528
651.5288,-0.04018241,-0.3248225,0.1217382,-0.5115464,0.6758868,-0.01993307
651.5432,-0.03920399,-0.3248443,0.1267713,-0.5112159,0.6731609,-0.01993167
651.558,-0.03920399,-0.3248443,0.1267713,-0.5112159,0.6731609,-0.01993167
651.5724,-0.03823683,-0.3248658,0.1327016,-0.5109106,0.6690466,-0.01992717
651.5876,-0.0372808,-0.3248871,0.1388426,-0.5106356,0.6643059,-0.01992492
651.6025,-0.03633577,-0.3249082,0.1448657,-0.510381,0.6593803,-0.01992349
651.6172,-0.03633577,-0.3249082,0.1448657,-0.510381,0.6593803,-0.01992349
651.6312,-0.03540162,-0.324929,0.1506817,-0.5101362,0.6544478,-0.01992236
651.6469,-0.03447822,-0.3249497,0.1573509,-0.5099088,0.6482295,-0.01991791
651.6615,-0.03356546,-0.3249701,0.164214,-0.5097079,0.6414461,-0.01991567
651.6762,-0.03356546,-0.3249701,0.164214,-0.5097079,0.6414461,-0.01991567
651.6926,-0.0326632,-0.3249902,0.1709491,-0.5095249,0.6345214,-0.01991427
651.7059,-0.03177132,-0.3250102,0.1774671,-0.5093499,0.6276264,-0.01991317
651.7204,-0.03088971,-0.32503,0.1848304,-0.5091908,0.6194736,-0.01990873
651.7352,-0.03088971,-0.32503,0.1848304,-0.5091908,0.6194736,-0.01990873
651.7493,-0.03001826,-0.3250495,0.1923718,-0.5090573,0.6107873,-0.01990654
651.7646,-0.02915683,-0.3250689,0.1997663,-0.5089406,0.6019926,-0.01990521
651.7795,-0.02915683,-0.3250689,0.1997663,-0.5089406,0.6019926,-0.01990521
651.7937,-0.02830532,-0.325088,0.2079949,-0.5088442,0.5919021,-0.01990071
651.8093,-0.02746361,-0.3251069,0.2163589,-0.5087752,0.5812883,-0.01989856
651.8242,-0.02663159,-0.3251256,0.224528,-0.5087224,0.5705938,-0.01989729
651.8389,-0.02663159,-0.3251256,0.224528,-0.5087224,0.5705938,-0.01989729
651.8529,-0.02580915,-0.3251441,0.2324157,-0.5086743,0.5599944,-0.01989637
651.8685,-0.02499619,-0.3251624,0.2411007,-0.5086374,0.548188,-0.0198921
651.8832,-0.02419258,-0.3251806,0.2499066,-0.5086224,0.5359116,-0.01989013
651.8982,-0.02419258,-0.3251806,0.2499066,-0.5086224,0.5359116,-0.01989013
651.9122,-0.02339822,-0.3251985,0.2585092,-0.5086201,0.5235927,-0.01988905
651.9285,-0.02261301,-0.3252162,0.2668222,-0.5086198,0.5113998,-0.01988833
651.9425,-0.02183684,-0.3252337,0.2759307,-0.5086282,0.4980167,-0.01988433
651.9572,-0.02183684,-0.3252337,0.2759307,-0.5086282,0.4980167,-0.01988433
651.9713,-0.02106961,-0.325251,0.2851463,-0.5086562,0.4841893,-0.01988265
651.9865,-0.02031121,-0.3252682,0.2941409,-0.5086946,0.4703476,-0.01988185
652.001,-0.01956154,-0.3252851,0.3028281,-0.5087326,0.4566595,-0.01988142
652.0166,-0.01956154,-0.3252851,0.3028281,-0.5087326,0.4566595,-0.01988142
652.0302,-0.01882051,-0.3253019,0.3123018,-0.5087762,0.4417961,-0.01987787
652.0455,-0.01808801,-0.3253185,0.321863,-0.5088364,0.4265137,-0.01987657
652.0605,-0.01736394,-0.3253349,0.3311819,-0.5089039,0.4112451,-0.01987614
652.0755,-0.01736394,-0.3253349,0.3311819,-0.5089039,0.4112451,-0.01987614
652.0894,-0.01664822,-0.3253512,0.3412744,-0.5089799,0.3947586,-0.01987294
652.1049,-0.01594073,-0.3253672,0.3514094,-0.5090721,0.3778613,-0.01987198
652.1199,-0.01594073,-0.3253672,0.3514094,-0.5090721,0.3778613,-0.01987198
652.1335,-0.0152414,-0.3253831,0.3612535,-0.509169,0.3610038,-0.01987187
652.1492,-0.01455011,-0.3253988,0.3707274,-0.509259,0.3443582,-0.01987213
652.164,-0.01386679,-0.3254144,0.3809489,-0.5093462,0.3265722,-0.01986977
652.1796,-0.01386679,-0.3254144,0.3809489,-0.5093462,0.3265722,-0.01986977
652.1937,-0.01319134,-0.3254297,0.3912059,-0.5094413,0.3084213,-0.01986939
652.2083,-0.01252366,-0.3254449,0.4011697,-0.5095355,0.2903428,-0.0198698
652.223,-0.01186368,-0.32546,0.4107612,-0.5096186,0.2725023,-0.01987054
652.2379,-0.01186368,-0.32546,0.4107612,-0.5096186,0.2725023,-0.01987054
652.2517,-0.01121129,-0.3254748,0.4173982,-0.5096633,0.2582532,-0.01987693
652.2673,-0.01056641,-0.3254895,0.4228593,-0.5096411,0.2458221,-0.01987981
652.282,-0.009928957,-0.325504,0.4280172,-0.5095706,0.2341861,-0.01988154
652.297,-0.009928957,-0.325504,0.4280172,-0.5095706,0.2341861,-0.01988154
652.3113,-0.009298846,-0.3255183,0.4331411,-0.5094725,0.2229435,-0.01988296
652.3268,-0.008675992,-0.3255325,0.4382818,-0.5093602,0.2119428,-0.01988436
652.3416,-0.008060312,-0.3255466,0.4434213,-0.5092403,0.201131,-0.01988582
652.3564,-0.008060312,-0.3255466,0.4434213,-0.5092403,0.201131,-0.01988582
652.3704,-0.007451721,-0.3255605,0.4485268,-0.5091159,0.1904922,-0.01988736
652.3858,-0.006888724,-0.3381787,0.4630513,-0.5126637,0.1672271,-0.01990763
652.4003,-0.006362909,-0.3585061,0.477497,-0.5172649,0.14213,-0.01992827
652.4163,-0.006362909,-0.3585061,0.477497,-0.5172649,0.14213,-0.01992827
652.4305,-0.005863536,-0.3834968,0.4895929,-0.5218324,0.1184533,-0.01994472
652.4448,-0.005381753,-0.4112537,0.4993665,-0.5260152,0.09679563,-0.01995693
652.4597,-0.005381753,-0.4112537,0.4993665,-0.5260152,0.09679563,-0.01995693
652.4738,-0.004908445,-0.4398402,0.5068618,-0.5295352,0.0776636,-0.01996527
652.4893,-0.004441364,-0.4688114,0.5131479,-0.5326339,0.06008813,-0.01997121
652.5041,-0.00397924,-0.4978911,0.5187453,-0.5354613,0.04356124,-0.01997544
652.5189,-0.00397924,-0.4978911,0.5187453,-0.5354613,0.04356124,-0.01997544
652.533,-0.003517759,-0.5261463,0.5234111,-0.537861,0.02849922,-0.01997811
652.5485,-0.003058903,-0.5537658,0.5277767,-0.5400712,0.01415867,-0.01997976
652.5635,-0.002603673,-0.5808693,0.5320191,-0.5421923,0.0002702298,-0.01998054
652.5784,-0.002603673,-0.5808693,0.5320191,-0.5421923,0.0002702298,-0.01998054
652.5923,-0.002152546,-0.6075327,0.5361606,-0.5442635,-0.01325367,-0.01998053
652.6083,-0.001701172,-0.6330435,0.5397059,-0.5460459,-0.0257674,-0.01997989
652.6227,-0.001252644,-0.6577278,0.5431215,-0.5477298,-0.03784493,-0.01997869
652.6395,-0.001252644,-0.6577278,0.5431215,-0.5477298,-0.03784493,-0.01997869
652.6525,-0.0008082844,-0.6817911,0.5465015,-0.5493835,-0.04965734,-0.01997693
652.6669,-0.0003685729,-0.7053632,0.5498294,-0.5510254,-0.06123568,-0.01997462
652.6816,7.178006E-05,-0.7277645,0.5526096,-0.5523996,-0.07191996,-0.01997219
652.6965,7.178006E-05,-0.7277645,0.5526096,-0.5523996,-0.07191996,-0.01997219
652.7106,0.0005091879,-0.7493421,0.5552893,-0.5536914,-0.08225249,-0.01996943
652.726,0.0009422437,-0.7703143,0.5579563,-0.5549648,-0.09238708,-0.01996628
652.7408,0.001370521,-0.7908186,0.5605932,-0.5562356,-0.1023458,-0.01996273
652.7559,0.001370521,-0.7908186,0.5605932,-0.5562356,-0.1023458,-0.01996273
652.7698,0.001800131,-0.8101805,0.5627176,-0.5572432,-0.1114776,-0.01995943
652.7853,0.002227075,-0.8287499,0.5647681,-0.5581744,-0.1203121,-0.01995598
652.8,0.002227075,-0.8287499,0.5647681,-0.5581744,-0.1203121,-0.01995598
652.8142,0.002649834,-0.8467466,0.5668291,-0.5590929,-0.1289965,-0.01995224
652.8299,0.003074589,-0.8635473,0.5684419,-0.5597543,-0.1369203,-0.01994898
652.8447,0.003496994,-0.8795342,0.5700322,-0.5603507,-0.1446096,-0.01994563
652.8596,0.003496994,-0.8795342,0.5700322,-0.5603507,-0.1446096,-0.01994563
652.8755,0.003915416,-0.8949472,0.5716715,-0.5609467,-0.1522024,-0.01994204
652.89,0.004329364,-0.9099368,0.5733327,-0.5615565,-0.1597093,-0.01993818
652.9038,0.004745999,-0.9238365,0.57454,-0.5619153,-0.1664869,-0.01993503
652.9183,0.004745999,-0.9238365,0.57454,-0.5619153,-0.1664869,-0.01993503
652.9324,0.005160944,-0.9370009,0.575718,-0.562211,-0.1730487,-0.0199319
652.9479,0.005572469,-0.9496527,0.5769444,-0.5625074,-0.1795324,-0.01992857
652.9628,0.005979975,-0.9619318,0.5781989,-0.5628193,-0.1859516,-0.01992504
652.9778,0.005979975,-0.9619318,0.5781989,-0.5628193,-0.1859516,-0.01992504
652.9916,0.006390979,-0.9731641,0.5790139,-0.5628821,-0.1916704,-0.0199224
653.0076,0.006801,-0.9837005,0.5798136,-0.5628856,-0.1972012,-0.01991984
653.0222,0.00720816,-0.9937604,0.5806757,-0.5628943,-0.2026806,-0.01991711
653.0369,0.00720816,-0.9937604,0.5806757,-0.5628943,-0.2026806,-0.01991711
653.0511,0.007619643,-1.00272,0.5811485,-0.5626608,-0.2075067,-0.01991536
653.0665,0.008030817,-1.010961,0.5816474,-0.56238,-0.2121923,-0.01991367
653.0815,0.008439624,-1.018722,0.582239,-0.5621167,-0.2168677,-0.01991178
653.096,0.008439624,-1.018722,0.582239,-0.5621167,-0.2168677,-0.01991178
653.1123,0.008845142,-1.026153,0.582895,-0.5618851,-0.2215393,-0.01990967
653.1268,0.009255186,-1.032585,0.5831425,-0.561419,-0.2255678,-0.01990868
653.1404,0.009665451,-1.038373,0.583401,-0.560908,-0.2294604,-0.01990779
653.1551,0.009665451,-1.038373,0.583401,-0.560908,-0.2294604,-0.01990779
653.1692,0.01007383,-1.04374,0.5837457,-0.5604156,-0.2333497,-0.01990672
653.1844,0.01047925,-1.048822,0.5841552,-0.5599567,-0.2372461,-0.01990545
653.1992,0.01047925,-1.048822,0.5841552,-0.5599567,-0.2372461,-0.01990545
653.2133,0.01088956,-1.052944,0.5841587,-0.559266,-0.2405119,-0.01990539
653.2287,0.01130063,-1.056458,0.5841799,-0.5585341,-0.2436578,-0.01990545
653.2437,0.01171024,-1.059581,0.5842957,-0.5578252,-0.2468175,-0.01990533
653.2584,0.01171024,-1.059581,0.5842957,-0.5578252,-0.2468175,-0.01990533
653.2728,0.01212563,-1.061688,0.5840468,-0.5568917,-0.2493822,-0.01990644
653.2883,0.01254259,-1.063161,0.5838518,-0.5559291,-0.2518663,-0.01990762
653.3032,0.01295864,-1.064237,0.5837774,-0.5550013,-0.2543982,-0.01990855
653.3178,0.01295864,-1.064237,0.5837774,-0.5550013,-0.2543982,-0.01990855
653.3318,0.01337225,-1.065064,0.5837955,-0.5541221,-0.2569829,-0.01990921
653.3473,0.01379093,-1.064979,0.583425,-0.5530281,-0.2589752,-0.01991118
653.3628,0.01421042,-1.064329,0.5830867,-0.5519052,-0.2608801,-0.01991326
653.377,0.01421042,-1.064329,0.5830867,-0.5519052,-0.2608801,-0.01991326
653.3908,0.01462484,-1.063334,0.5828626,-0.5508161,-0.2628335,-0.0199151
653.4063,0.01503207,-1.062133,0.5827321,-0.5497754,-0.2648457,-0.01991668
653.4209,0.01544024,-1.060048,0.582207,-0.5485198,-0.2662632,-0.01991964
653.4357,0.01544024,-1.060048,0.582207,-0.5485198,-0.2662632,-0.01991964
653.4498,0.01584148,-1.057429,0.5817258,-0.5472376,-0.2676075,-0.01992269
653.465,0.01623335,-1.054494,0.581367,-0.5459926,-0.2690135,-0.01992549
653.48,0.01661585,-1.051378,0.5811083,-0.5448,-0.2704907,-0.019928
653.4949,0.01661585,-1.051378,0.5811083,-0.5448,-0.2704907,-0.019928
653.5092,0.01699825,-1.047403,0.5804523,-0.5433976,-0.271378,-0.01993193
653.5244,0.01737322,-1.042917,0.5798439,-0.5419731,-0.2722023,-0.01993595
653.5395,0.01737322,-1.042917,0.5798439,-0.5419731,-0.2722023,-0.01993595
653.5533,0.0177388,-1.038138,0.5793633,-0.54059,-0.2731002,-0.0199397
653.5703,0.01810361,-1.032438,0.5785214,-0.5390043,-0.2734355,-0.01994483
653.5837,0.01846021,-1.026198,0.5777608,-0.5374073,-0.273742,-0.01994997
653.6002,0.01880693,-1.019654,0.5771524,-0.5358627,-0.2741513,-0.01995476
653.6131,0.01880693,-1.019654,0.5771524,-0.5358627,-0.2741513,-0.01995476
653.627,0.01914435,-1.012951,0.5766659,-0.5343844,-0.2746676,-0.01995918
653.6426,0.01948181,-1.00542,0.5757804,-0.5327109,-0.2746074,-0.01996505
653.6573,0.01948181,-1.00542,0.5757804,-0.5327109,-0.2746074,-0.01996505
653.6714,0.01981219,-0.9974123,0.5749514,-0.5310266,-0.2745071,-0.01997096
653.6871,0.02013386,-0.989148,0.5742608,-0.5293938,-0.2745042,-0.01997653
653.7017,0.02044733,-0.9807625,0.5736865,-0.5278268,-0.2746078,-0.01998172
653.7166,0.02044733,-0.9807625,0.5736865,-0.5278268,-0.2746078,-0.01998172
653.7305,0.02076152,-0.9715776,0.5727007,-0.5260665,-0.2741276,-0.01998841
653.746,0.02106936,-0.9619429,0.5717705,-0.5242969,-0.2736102,-0.01999513
653.7608,0.02136924,-0.9520742,0.5709822,-0.5225805,-0.2731973,-0.02000149
653.7759,0.02136924,-0.9520742,0.5709822,-0.5225805,-0.2731973,-0.02000149
653.7898,0.02166918,-0.9413437,0.5698161,-0.5206766,-0.272223,-0.0200093
653.8054,0.02196222,-0.9301317,0.5687388,-0.518773,-0.2712429,-0.02001704
653.82,0.02224696,-0.9186733,0.5678279,-0.5169326,-0.2703949,-0.02002435
653.8368,0.02224696,-0.9186733,0.5678279,-0.5169326,-0.2703949,-0.02002435
653.8506,0.0225241,-0.9071141,0.567054,-0.515169,-0.2696837,-0.0200312
653.8641,0.02279483,-0.8955439,0.5663731,-0.5134788,-0.269082,-0.02003767
653.8786,0.02279483,-0.8955439,0.5663731,-0.5134788,-0.269082,-0.02003767
653.8927,0.02306028,-0.8840181,0.5657506,-0.5118538,-0.2685614,-0.02004381
653.9083,0.02332131,-0.8725705,0.5651645,-0.510286,-0.2681009,-0.0200497
653.9229,0.02357857,-0.8612217,0.564602,-0.5087689,-0.2676861,-0.02005539
653.9378,0.02357857,-0.8612217,0.564602,-0.5087689,-0.2676861,-0.02005539
653.9517,0.02382574,-0.8507457,0.5645797,-0.5075504,-0.2680088,-0.02005899
653.9674,0.02406992,-0.8408523,0.5645695,-0.5064387,-0.2684667,-0.02006212
653.9822,0.02431335,-0.8313612,0.5644546,-0.5053619,-0.2688874,-0.02006526
653.9971,0.02431335,-0.8313612,0.5644546,-0.5053619,-0.2688874,-0.02006526
654.0112,0.02454993,-0.8229215,0.5647711,-0.5045499,-0.2699491,-0.02006656
654.0267,0.02478548,-0.8151658,0.5650217,-0.5038107,-0.271064,-0.02006761
654.0414,0.02502156,-0.8078657,0.5651176,-0.5030773,-0.2720805,-0.02006886
654.0561,0.02502156,-0.8078657,0.5651176,-0.5030773,-0.2720805,-0.02006886
654.0699,0.0252581,-0.8008784,0.5650849,-0.5023326,-0.2729878,-0.02007033
654.0866,0.02548828,-0.7948767,0.565502,-0.5018307,-0.2745213,-0.02006999
654.1013,0.02571693,-0.7895082,0.5658721,-0.5013888,-0.2761051,-0.02006942
654.1148,0.02571693,-0.7895082,0.5658721,-0.5013888,-0.2761051,-0.02006942
654.1291,0.02594543,-0.7845535,0.5660987,-0.5009443,-0.2775871,-0.02006905
654.1443,0.02617383,-0.7798757,0.5662014,-0.5004818,-0.278954,-0.02006894
654.1592,0.02617383,-0.7798757,0.5662014,-0.5004818,-0.278954,-0.02006894
654.1732,0.02639564,-0.7761511,0.5667565,-0.5002561,-0.2809413,-0.02006699
654.1887,0.02661532,-0.77303,0.5672628,-0.500084,-0.2829701,-0.02006481
654.2032,0.02683429,-0.7702945,0.5676206,-0.4999031,-0.2848863,-0.02006288
654.2181,0.02683429,-0.7702945,0.5676206,-0.4999031,-0.2848863,-0.02006288
654.2325,0.0270468,-0.7685707,0.5683854,-0.4999519,-0.2873881,-0.02005915
654.2479,0.02725716,-0.7674776,0.5690613,-0.5000421,-0.2898933,-0.02005529
654.2624,0.02746683,-0.7667782,0.5695591,-0.5001113,-0.2922525,-0.02005176
654.2772,0.02746683,-0.7667782,0.5695591,-0.5001113,-0.2922525,-0.02005176
654.2915,0.02767602,-0.7663243,0.5699052,-0.5001456,-0.2944571,-0.0200486
654.307,0.0278786,-0.7667833,0.570679,-0.5004017,-0.2972436,-0.0200436
654.3215,0.02807769,-0.7678035,0.5713879,-0.5006966,-0.300042,-0.02003844
654.3376,0.02807769,-0.7678035,0.5713879,-0.5006966,-0.300042,-0.02003844
654.3514,0.02827414,-0.7691653,0.5719342,-0.5009691,-0.3026998,-0.0200336
654.3656,0.02846836,-0.7707314,0.5723358,-0.5012051,-0.3052033,-0.02002913
654.3805,0.02865458,-0.7731783,0.5731661,-0.5016621,-0.3082842,-0.02002277
654.3951,0.02865458,-0.7731783,0.5731661,-0.5016621,-0.3082842,-0.02002277
654.4093,0.02883596,-0.7761574,0.5739287,-0.5021546,-0.3113692,-0.02001626
654.4247,0.02901422,-0.7794514,0.5745238,-0.5026212,-0.3143041,-0.0200101
654.4395,0.02901422,-0.7794514,0.5745238,-0.5026212,-0.3143041,-0.0200101
654.4536,0.02918418,-0.7836866,0.575499,-0.5033031,-0.3177794,-0.02000208
654.4692,0.02934963,-0.7884836,0.576366,-0.50401,-0.32122,-0.01999401
654.4838,0.02951247,-0.7936056,0.577036,-0.5046803,-0.3244777,-0.01998639
654.4985,0.02951247,-0.7936056,0.577036,-0.5046803,-0.3244777,-0.01998639
654.5128,0.0296736,-0.7989053,0.5775353,-0.5053012,-0.3275441,-0.01997926
654.5284,0.02982717,-0.8050527,0.5784347,-0.5061324,-0.3311468,-0.01997024
654.5435,0.02997703,-0.8116958,0.579249,-0.506988,-0.3347231,-0.01996114
654.5577,0.02997703,-0.8116958,0.579249,-0.506988,-0.3347231,-0.01996114
654.574,0.03012498,-0.8186152,0.5798822,-0.5078074,-0.3381231,-0.01995248
654.5884,0.0302718,-0.8256741,0.5803537,-0.5085773,-0.3413339,-0.01994431
654.6019,0.03041128,-0.8335493,0.5812228,-0.5095568,-0.3450729,-0.01993421
654.6165,0.03041128,-0.8335493,0.5812228,-0.5095568,-0.3450729,-0.01993421
654.6306,0.03054757,-0.8418934,0.582006,-0.5105589,-0.3487798,-0.01992405
654.6459,0.03068254,-0.8504897,0.5826067,-0.5115223,-0.352304,-0.01991435
654.6607,0.03081686,-0.8592033,0.5830436,-0.5124333,-0.355632,-0.01990518
654.6758,0.03081686,-0.8592033,0.5830436,-0.5124333,-0.355632,-0.01990518
654.6896,0.03094396,-0.868712,0.5838687,-0.5135513,-0.3594736,-0.01989408
654.7051,0.03106839,-0.8786695,0.5846038,-0.5146885,-0.3632736,-0.01988294
654.72,0.03119204,-0.8888597,0.5851539,-0.5157837,-0.366883,-0.01987231
654.7347,0.03119204,-0.8888597,0.5851539,-0.5157837,-0.366883,-0.01987231
654.7489,0.03130852,-0.8999098,0.586044,-0.5170804,-0.3709686,-0.01985981
654.7644,0.03142083,-0.9114402,0.5868069,-0.5183851,-0.3749751,-0.01984739
654.7791,0.03142083,-0.9114402,0.5868069,-0.5183851,-0.3749751,-0.01984739
654.793,0.03153051,-0.9232147,0.58736,-0.5196368,-0.3787605,-0.0198356
654.8087,0.0316384,-0.9350868,0.5877315,-0.5208236,-0.3823186,-0.01982448
654.8244,0.03173758,-0.9477274,0.5884653,-0.5222076,-0.3863503,-0.01981147
654.8389,0.03173758,-0.9477274,0.5884653,-0.5222076,-0.3863503,-0.01981147
654.8521,0.03183115,-0.9607843,0.5890992,-0.5235994,-0.3903145,-0.01979852
654.8674,0.03192095,-0.9740386,0.5895442,-0.5249394,-0.3940684,-0.01978618
654.882,0.03200816,-0.9873548,0.5898211,-0.5262151,-0.3976018,-0.01977451
654.8968,0.03200816,-0.9873548,0.5898211,-0.5262151,-0.3976018,-0.01977451
654.9108,0.03208566,-1.001411,0.5904596,-0.5276881,-0.4016029,-0.01976095
654.9261,0.03215652,-1.015859,0.5910013,-0.5291676,-0.4055344,-0.01974746
654.9409,0.03222275,-1.030483,0.5913574,-0.5305932,-0.4092536,-0.01973461
654.9558,0.03222275,-1.030483,0.5913574,-0.5305932,-0.4092536,-0.01973461
654.9698,0.03227746,-1.04591,0.5920299,-0.5322107,-0.4134055,-0.01971995
654.9852,0.03232386,-1.061762,0.5925719,-0.5338247,-0.417454,-0.0197055
655.0001,0.03236417,-1.077803,0.5929065,-0.5353754,-0.421263,-0.0196918
655.0148,0.03236417,-1.077803,0.5929065,-0.5353754,-0.421263,-0.0196918
655.0291,0.03240008,-1.093888,0.5930625,-0.5368517,-0.4248287,-0.01967892
655.0446,0.03242409,-1.110688,0.5935585,-0.5385166,-0.4288276,-0.01966421
655.0591,0.03242409,-1.110688,0.5935585,-0.5385166,-0.4288276,-0.01966421
655.0754,0.03244587,-1.127852,0.5939451,-0.540181,-0.4327342,-0.01964967
655.0896,0.03246709,-1.14516,0.594141,-0.5417851,-0.4364131,-0.01963588
655.1034,0.03248861,-1.162481,0.5941699,-0.5433173,-0.4398575,-0.01962289
655.118,0.03248861,-1.162481,0.5941699,-0.5433173,-0.4398575,-0.01962289
655.1321,0.0325059,-1.180491,0.5945311,-0.5450405,-0.4437291,-0.01960807
655.1476,0.03252332,-1.198845,0.5947866,-0.5467623,-0.4475097,-0.01959345
655.1622,0.03254149,-1.217327,0.5948568,-0.5484225,-0.4510643,-0.01957959
655.177,0.03254149,-1.217327,0.5948568,-0.5484225,-0.4510643,-0.01957959
655.1916,0.03255556,-1.236565,0.595215,-0.5502681,-0.455013,-0.01956403
655.207,0.03256999,-1.256181,0.595435,-0.5521029,-0.4588389,-0.01954879
655.2214,0.03258532,-1.275941,0.5954489,-0.5538672,-0.4624142,-0.01953444
655.2364,0.03258532,-1.275941,0.5954489,-0.5538672,-0.4624142,-0.01953444
655.2502,0.03260144,-1.2957,0.5952889,-0.5555502,-0.4657377,-0.01952098
655.2658,0.03261329,-1.316124,0.5954372,-0.5574135,-0.4694531,-0.01950583
655.2805,0.03262551,-1.336864,0.5954762,-0.5592666,-0.4730617,-0.01949097
655.2954,0.03262551,-1.336864,0.5954762,-0.5592666,-0.4730617,-0.01949097
655.3094,0.03263868,-1.357703,0.5953332,-0.5610513,-0.4764363,-0.01947696
655.3257,0.03265266,-1.378511,0.5950332,-0.5627567,-0.4795722,-0.01946383
655.3396,0.03265266,-1.378511,0.5950332,-0.5627567,-0.4795722,-0.01946383
655.3536,0.03279871,-1.386599,0.5874419,-0.5601173,-0.4724092,-0.01949305
655.3694,0.03303692,-1.386838,0.5798968,-0.5564643,-0.4635954,-0.01952955
655.3837,0.03330757,-1.382237,0.5740663,-0.5528668,-0.4556721,-0.01956291
655.3986,0.03330757,-1.382237,0.5740663,-0.5528668,-0.4556721,-0.01956291
655.4125,0.03356441,-1.374681,0.569876,-0.5496072,-0.4490769,-0.01959122
655.428,0.03379088,-1.365346,0.566846,-0.5467059,-0.4436058,-0.01961513
655.4428,0.03398807,-1.354957,0.5645308,-0.5441083,-0.4389441,-0.01963579
655.4575,0.03398807,-1.354957,0.5645308,-0.5441083,-0.4389441,-0.01963579
655.4719,0.03416266,-1.343967,0.5626198,-0.5417491,-0.4348288,-0.0196542
655.4873,0.03432142,-1.332654,0.5683959,-0.5311335,-0.4376704,-0.03467003
655.502,0.03446952,-1.321193,0.5717006,-0.5236236,-0.4386427,-0.04939111
655.5166,0.03446952,-1.321193,0.5717006,-0.5236236,-0.4386427,-0.04939111
655.5307,0.03461049,-1.309691,0.573747,-0.5177084,-0.4386238,-0.06382355
655.5463,0.03474667,-1.298214,0.5751855,-0.5126456,-0.438119,-0.07797304
655.5608,0.03487951,-1.286804,0.5745865,-0.5099365,-0.435825,-0.0885198
655.5767,0.03487951,-1.286804,0.5745865,-0.5099365,-0.435825,-0.0885198
655.5908,0.03500997,-1.275485,0.5744823,-0.5068741,-0.4339714,-0.09885964
655.605,0.0351386,-1.264272,0.574629,-0.5036929,-0.4323748,-0.1089966
655.6197,0.0351386,-1.264272,0.574629,-0.5036929,-0.4323748,-0.1089966
655.6339,0.03526576,-1.253175,0.5731295,-0.5023822,-0.4293428,-0.1156016
655.6492,0.03539166,-1.242198,0.5723196,-0.5004595,-0.4269485,-0.1220769
655.6638,0.03551643,-1.231344,0.5718435,-0.4982766,-0.4249032,-0.1284251
655.6786,0.03551643,-1.231344,0.5718435,-0.4982766,-0.4249032,-0.1284251
655.693,0.03564014,-1.220613,0.5715244,-0.496004,-0.4230554,-0.1346487
655.7087,0.03576283,-1.210007,0.5695179,-0.495609,-0.4197397,-0.137417
655.7244,0.0358845,-1.199524,0.5681788,-0.4945849,-0.4170476,-0.140131
655.7381,0.0358845,-1.199524,0.5681788,-0.4945849,-0.4170476,-0.140131
655.752,0.03600518,-1.189163,0.5671667,-0.4932785,-0.4146982,-0.1427915
655.7678,0.03612485,-1.178924,0.5663132,-0.4918582,-0.4125448,-0.1453998
655.7825,0.0362435,-1.168805,0.563806,-0.4922994,-0.4089463,-0.1446237
655.797,0.0362435,-1.168805,0.563806,-0.4922994,-0.4089463,-0.1446237
655.8133,0.03636112,-1.158805,0.5619718,-0.4920841,-0.4059739,-0.1438626
655.8276,0.03647771,-1.148923,0.5604745,-0.4915607,-0.4033489,-0.1431163
655.8412,0.03659324,-1.139157,0.5591474,-0.4908989,-0.4009259,-0.1423845
655.8561,0.03659324,-1.139157,0.5591474,-0.4908989,-0.4009259,-0.1423845
655.8698,0.03670771,-1.129506,0.5562226,-0.492084,-0.397103,-0.1383338
655.8853,0.0368211,-1.11997,0.553974,-0.4925868,-0.3939055,-0.1343624
655.8998,0.0368211,-1.11997,0.553974,-0.4925868,-0.3939055,-0.1343624
655.914,0.03693341,-1.110545,0.552071,-0.4927576,-0.3910596,-0.1304686
655.9297,0.03704461,-1.101232,0.5487072,-0.4946783,-0.3869368,-0.1233179
655.9443,0.0371547,-1.092029,0.5460578,-0.4958527,-0.3834749,-0.1163072
655.9592,0.0371547,-1.092029,0.5460578,-0.4958527,-0.3834749,-0.1163072
655.9733,0.03726368,-1.082935,0.5437778,-0.4966541,-0.3803865,-0.1094337
655.9888,0.03737153,-1.073948,0.5416971,-0.4972644,-0.3775226,-0.1026949
656.0036,0.03747825,-1.065067,0.5381601,-0.4996936,-0.3733861,-0.0927549
656.0184,0.03747825,-1.065067,0.5381601,-0.4996936,-0.3733861,-0.0927549
656.0325,0.03758382,-1.056291,0.5352924,-0.5013924,-0.3698644,-0.08300964
656.0479,0.03768824,-1.047618,0.5327808,-0.5027165,-0.3666982,-0.07345525
656.0636,0.03779152,-1.039049,0.5304695,-0.5038396,-0.3637521,-0.06408803
656.0777,0.03779152,-1.039049,0.5304695,-0.5038396,-0.3637521,-0.06408803
656.0916,0.03789364,-1.03058,0.5267841,-0.5067778,-0.3596073,-0.05157122
656.1071,0.0379946,-1.022211,0.5237532,-0.5089668,-0.3560591,-0.03929964
656.1217,0.0380944,-1.013942,0.521077,-0.5107633,-0.3528611,-0.02726848
656.1365,0.0380944,-1.013942,0.521077,-0.5107633,-0.3528611,-0.02726848
656.1506,0.03819303,-1.00577,0.5171695,-0.5142806,-0.3485958,-0.01213992
656.1659,0.03829049,-0.9976951,0.5139396,-0.5169878,-0.3449478,0.002692204
656.1815,0.0383868,-0.9897156,0.511079,-0.5192644,-0.3416635,0.01723371
656.1957,0.0383868,-0.9897156,0.511079,-0.5192644,-0.3416635,0.01723371
656.2101,0.03848194,-0.9818305,0.5084347,-0.5212963,-0.3386102,0.03149027
656.2256,0.03857591,-0.9740388,0.5056112,-0.5236378,-0.3354324,0.04625951
656.2404,0.03866873,-0.9663392,0.5030161,-0.5257093,-0.3324833,0.0607393
656.2551,0.03866873,-0.9663392,0.5030161,-0.5257093,-0.3324833,0.0607393
656.2692,0.0387604,-0.9587309,0.5005721,-0.5276143,-0.3296963,0.07493534
656.2845,0.03885091,-0.9512126,0.4982407,-0.529404,-0.3270356,0.08885314
656.3004,0.03894027,-0.9437833,0.4960027,-0.5311042,-0.3244817,0.1024982
656.314,0.03894027,-0.9437833,0.4960027,-0.5311042,-0.3244817,0.1024982
656.3284,0.03902849,-0.9364421,0.4938482,-0.5327283,-0.3220234,0.1158758
656.3436,0.03911556,-0.9291879,0.4917717,-0.5342835,-0.3196541,0.1289912
656.3584,0.03911556,-0.9291879,0.4917717,-0.5342835,-0.3196541,0.1289912
656.3726,0.03920151,-0.9220196,0.4900658,-0.5353082,-0.3176318,0.1410575
656.388,0.03928632,-0.9149363,0.488321,-0.5364347,-0.3155982,0.1528873
656.4026,0.03937001,-0.9079369,0.4865899,-0.5375838,-0.3135934,0.1644852
656.4172,0.03937001,-0.9079369,0.4865899,-0.5375838,-0.3135934,0.1644852
656.4316,0.03945258,-0.9010205,0.4848982,-0.5387177,-0.3116373,0.1758559
656.4473,0.03953405,-0.8941861,0.4844623,-0.5378525,-0.310805,0.1836704
656.4619,0.03961442,-0.8874328,0.4836374,-0.5376361,-0.3096685,0.1913317
656.4769,0.03961442,-0.8874328,0.4836374,-0.5376361,-0.3096685,0.1913317
656.4911,0.03969369,-0.8807596,0.4826445,-0.5377222,-0.3083976,0.1988429
656.5068,0.03977188,-0.8741655,0.4815952,-0.5379423,-0.3070832,0.2062069
656.5212,0.03984899,-0.8676497,0.4817317,-0.5362459,-0.3068226,0.2100932
656.5371,0.03984899,-0.8676497,0.4817317,-0.5362459,-0.3068226,0.2100932
656.5513,0.03992504,-0.8612112,0.4814569,-0.535254,-0.3062322,0.2139034
656.5656,0.04000002,-0.8548492,0.4809966,-0.5346038,-0.3054876,0.217639
656.5804,0.04007395,-0.8485626,0.480464,-0.5341189,-0.3046826,0.2213013
656.595,0.04007395,-0.8485626,0.480464,-0.5341189,-0.3046826,0.2213013
656.6093,0.04014684,-0.8423507,0.4810998,-0.5317426,-0.3049161,0.2215585
656.6247,0.0402187,-0.8362125,0.4813145,-0.5300963,-0.3048097,0.2218108
656.6396,0.0402187,-0.8362125,0.4813145,-0.5300963,-0.3048097,0.2218108
656.6537,0.04028954,-0.8301471,0.481332,-0.5288153,-0.3045386,0.2220581
656.6697,0.04035936,-0.8241539,0.4824614,-0.525751,-0.3052587,0.2189673
656.684,0.04042819,-0.8182318,0.4831331,-0.5234804,-0.3056039,0.2159371
656.699,0.04042819,-0.8182318,0.4831331,-0.5234804,-0.3056039,0.2159371
656.7129,0.04049602,-0.8123801,0.4835855,-0.5216162,-0.3057625,0.2129663
656.7289,0.04056286,-0.8065978,0.4839381,-0.5199698,-0.3058345,0.2100538
656.7433,0.04062873,-0.8008843,0.4854695,-0.5164787,-0.3069603,0.2038651
656.758,0.04062873,-0.8008843,0.4854695,-0.5164787,-0.3069603,0.2038651
656.7744,0.04069364,-0.7952387,0.4865533,-0.5137601,-0.30772,0.1977978
656.7876,0.0407576,-0.7896602,0.4874173,-0.511447,-0.3082941,0.1918494
656.8022,0.04082062,-0.7841479,0.4881763,-0.50936,-0.3087783,0.1860176
656.8169,0.04082062,-0.7841479,0.4881763,-0.50936,-0.3087783,0.1860176
656.831,0.04088271,-0.7787012,0.4901429,-0.505443,-0.3103484,0.176967
656.8466,0.04094388,-0.7733192,0.4916453,-0.5023127,-0.311537,0.1680938
656.8612,0.04100414,-0.7680012,0.4929157,-0.4996031,-0.3125286,0.1593946
656.8761,0.04100414,-0.7680012,0.4929157,-0.4996031,-0.3125286,0.1593946
656.8903,0.04106351,-0.7627465,0.4953674,-0.4951693,-0.3145878,0.1475327
656.906,0.04112199,-0.7575542,0.497312,-0.4915804,-0.3162237,0.1359033
656.9207,0.0411796,-0.7524236,0.4990017,-0.4884488,-0.3176389,0.124502
656.9354,0.0411796,-0.7524236,0.4990017,-0.4884488,-0.3176389,0.124502
656.9495,0.04123633,-0.7473541,0.5005636,-0.4855847,-0.3189411,0.1133242
656.9653,0.04129221,-0.7423449,0.5034187,-0.4809329,-0.3214164,0.09903229
656.98,0.04129221,-0.7423449,0.5034187,-0.4809329,-0.3214164,0.09903229
656.9941,0.04134725,-0.7373953,0.5057696,-0.4770984,-0.3234686,0.08502062
657.0107,0.04140146,-0.7325045,0.5078638,-0.4737145,-0.3252981,0.07128365
657.0245,0.04145484,-0.727672,0.5098265,-0.4706012,-0.3270113,0.05781598
657.0395,0.04145484,-0.727672,0.5098265,-0.4706012,-0.3270113,0.05781598
657.0532,0.04150742,-0.7228969,0.5131515,-0.4657179,-0.3299685,0.041287
657.0687,0.04155919,-0.7181787,0.5159467,-0.4616586,-0.332477,0.02508208
657.0835,0.04161018,-0.7135166,0.5184706,-0.458059,-0.3347479,0.009194836
657.0983,0.04161018,-0.7135166,0.5184706,-0.458059,-0.3347479,0.009194836
657.1125,0.04166033,-0.70891,0.5140682,-0.4635203,-0.3306755,0.008618196
657.1282,0.04170968,-0.7043582,0.512073,-0.466097,-0.3286893,0.008053135
657.1432,0.04175827,-0.6998605,0.5112111,-0.4672689,-0.3277265,0.007499403
657.158,0.04175827,-0.6998605,0.5112111,-0.4672689,-0.3277265,0.007499403
657.1721,0.04180612,-0.6954164,0.5108796,-0.46776,-0.3272753,0.00695671
657.1877,0.04185324,-0.6910252,0.5107895,-0.4679237,-0.3270824,0.006424779
657.2026,0.04189963,-0.6866863,0.5108038,-0.4679322,-0.3270215,0.005903358
657.217,0.04189963,-0.6866863,0.5108038,-0.4679322,-0.3270215,0.005903358
657.2333,0.04194532,-0.682399,0.5108593,-0.4678695,-0.3270301,0.005392222
657.2478,0.0419903,-0.6781628,0.5109281,-0.4677764,-0.3270774,0.004891158
657.2614,0.04203458,-0.673977,0.5110005,-0.4676728,-0.3271453,0.004399951
657.2764,0.04203458,-0.673977,0.5110005,-0.4676728,-0.3271453,0.004399951
657.2902,0.04207817,-0.6698411,0.5110738,-0.467568,-0.3272287,0.003918412
657.306,0.0421211,-0.6657544,0.511147,-0.4674664,-0.327325,0.003446354
657.3204,0.04216335,-0.6617163,0.5112199,-0.4673699,-0.327433,0.002983594
657.3352,0.04216335,-0.6617163,0.5112199,-0.4673699,-0.327433,0.002983594
657.3492,0.04220495,-0.6577264,0.5111534,-0.467241,-0.3278553,0.002530923
657.3649,0.04224591,-0.653784,0.5108325,-0.4670996,-0.3283975,0.002087438
657.3798,0.04224591,-0.653784,0.5108325,-0.4670996,-0.3283975,0.002087438
657.3937,0.04228623,-0.6498885,0.5102735,-0.4669596,-0.328959,0.001652713
657.4096,0.04232592,-0.6460395,0.5093883,-0.4667886,-0.3298109,0.001227477
657.4243,0.042365,-0.6422363,0.5081125,-0.4666083,-0.3307519,0.0008108275
657.4393,0.042365,-0.6422363,0.5081125,-0.4666083,-0.3307519,0.0008108275
657.4531,0.04240347,-0.6384784,0.5065039,-0.4664327,-0.3316838,0.000402347
657.4695,0.04244133,-0.6347653,0.5046437,-0.4662678,-0.3325782,1.813343E-06
657.4844,0.04247861,-0.6310964,0.5024679,-0.4660766,-0.3337359,-0.0003899394
657.4982,0.04247861,-0.6310964,0.5024679,-0.4660766,-0.3337359,-0.0003899394
657.5123,0.04251531,-0.6274712,0.4999181,-0.4658783,-0.334968,-0.0007737828
657.5277,0.04255144,-0.6238892,0.4970519,-0.4656861,-0.336181,-0.001150105
657.5424,0.042587,-0.6203499,0.4939489,-0.4655055,-0.3373483,-0.001519115
657.5573,0.042587,-0.6203499,0.4939489,-0.4655055,-0.3373483,-0.001519115
657.5714,0.042622,-0.6168528,0.4905444,-0.4652988,-0.338771,-0.001879951
657.5867,0.04265647,-0.6133973,0.4867783,-0.4650851,-0.3402609,-0.002233483
657.6013,0.04269039,-0.609983,0.4827068,-0.4648779,-0.3417244,-0.002580093
657.6164,0.04269039,-0.609983,0.4827068,-0.4648779,-0.3417244,-0.002580093
657.6306,0.04272378,-0.6066094,0.478273,-0.4646431,-0.343438,-0.002918957
657.646,0.04275665,-0.603276,0.4734322,-0.4644015,-0.3452061,-0.003250969
657.6608,0.04278901,-0.5999823,0.4682543,-0.4641674,-0.3469344,-0.003576503
657.6758,0.04278901,-0.5999823,0.4682543,-0.4641674,-0.3469344,-0.003576503
657.6899,0.04282087,-0.5967279,0.4628292,-0.4639464,-0.3485971,-0.003895749
657.7063,0.04285222,-0.5935123,0.457102,-0.4637001,-0.3504955,-0.004207779
657.7208,0.04288309,-0.590335,0.4510184,-0.4634476,-0.3524439,-0.004513476
657.7346,0.04288309,-0.590335,0.4510184,-0.4634476,-0.3524439,-0.004513476
657.7488,0.04291347,-0.5871956,0.4446376,-0.4632026,-0.3543503,-0.004813199
657.764,0.04294338,-0.5840936,0.4380402,-0.4629706,-0.3561892,-0.005107134
657.7794,0.04294338,-0.5840936,0.4380402,-0.4629706,-0.3561892,-0.005107134
657.793,0.04297283,-0.5810285,0.4311655,-0.4627125,-0.3582601,-0.005394324
657.8087,0.04300181,-0.578,0.4239545,-0.4624477,-0.3603775,-0.005675667
657.8235,0.04303034,-0.5750076,0.4164624,-0.4621902,-0.3624491,-0.005951512
657.8387,0.04303034,-0.5750076,0.4164624,-0.4621902,-0.3624491,-0.005951512
657.8527,0.04305843,-0.5720509,0.4086353,-0.4619043,-0.3647493,-0.006220948
657.8679,0.04308608,-0.5691293,0.4004285,-0.4616115,-0.3670853,-0.006484903
657.8829,0.0431133,-0.5662427,0.3919108,-0.4613268,-0.3693638,-0.006743722
657.899,0.0431133,-0.5662427,0.3919108,-0.4613268,-0.3693638,-0.006743722
657.9119,0.04314009,-0.5633904,0.3831706,-0.4610563,-0.3715595,-0.006997569
657.9272,0.04316647,-0.5605721,0.3741553,-0.4607596,-0.3739709,-0.007245436
657.9431,0.04319243,-0.5577875,0.3648114,-0.4604566,-0.3764152,-0.007488232
657.9578,0.04319243,-0.5577875,0.3648114,-0.4604566,-0.3764152,-0.007488232
657.9708,0.04321799,-0.555036,0.3551966,-0.4601614,-0.3788019,-0.0077263
657.9863,0.04324316,-0.5523174,0.3453902,-0.4598802,-0.3811058,-0.007959797
658.0009,0.04326793,-0.5496311,0.3353335,-0.4595718,-0.3836228,-0.008187674
658.0157,0.04326793,-0.5496311,0.3353335,-0.4595718,-0.3836228,-0.008187674
658.0299,0.04329232,-0.5469769,0.3249685,-0.4592564,-0.386171,-0.008410873
658.0453,0.04331632,-0.5443544,0.3143489,-0.4589486,-0.3886596,-0.008629723
658.0602,0.04333996,-0.5417631,0.303551,-0.4586547,-0.3910629,-0.008844383
658.0752,0.04333996,-0.5417631,0.303551,-0.4586547,-0.3910629,-0.008844383
658.0893,0.04336322,-0.5392027,0.2925152,-0.4583329,-0.393675,-0.00905377
658.1047,0.04338613,-0.5366728,0.2811827,-0.4580036,-0.396315,-0.009258843
658.1194,0.04338613,-0.5366728,0.2811827,-0.4580036,-0.396315,-0.009258843
658.1333,0.04340868,-0.5341731,0.2696061,-0.4576819,-0.3988926,-0.00945993
658.1494,0.04343088,-0.5317032,0.257733,-0.4573299,-0.4016762,-0.009655999
658.1637,0.04345274,-0.5292628,0.2455194,-0.4569702,-0.4044786,-0.009848029
658.1796,0.04345274,-0.5292628,0.2455194,-0.4569702,-0.4044786,-0.009848029
658.1936,0.04347425,-0.5268514,0.2330314,-0.4566188,-0.4072083,-0.01003635
658.2083,0.04349544,-0.5244688,0.2203545,-0.4562826,-0.4098403,-0.01022111
658.2231,0.04351629,-0.5221146,0.2075645,-0.4559637,-0.412374,-0.01040235
658.2376,0.04351629,-0.5221146,0.2075645,-0.4559637,-0.412374,-0.01040235
658.2519,0.04353682,-0.5197885,0.1947203,-0.4556619,-0.4148166,-0.01058014
658.2671,0.04355704,-0.5174901,0.1818649,-0.4553763,-0.417176,-0.01075452
658.2819,0.04357694,-0.5152192,0.1690288,-0.4551059,-0.4194598,-0.01092554
658.2971,0.04357694,-0.5152192,0.1690288,-0.4551059,-0.4194598,-0.01092554
658.3111,0.04359653,-0.5129753,0.1562331,-0.4548496,-0.4216739,-0.01109325
658.3267,0.04361582,-0.5107582,0.1434921,-0.4546064,-0.4238231,-0.01125771
658.3416,0.04363481,-0.5085675,0.1308154,-0.4543757,-0.425911,-0.01141898
658.3563,0.04363481,-0.5085675,0.1308154,-0.4543757,-0.425911,-0.01141898
658.3706,0.0436535,-0.5064029,0.1182092,-0.4541566,-0.4279407,-0.01157711
658.3859,0.04367191,-0.5042642,0.1056775,-0.4539487,-0.4299146,-0.01173216
658.4005,0.04369003,-0.502151,0.09322304,-0.4537516,-0.4318346,-0.0118842
658.4164,0.04369003,-0.502151,0.09322304,-0.4537516,-0.4318346,-0.0118842
658.4305,0.04370787,-0.5000629,0.08084708,-0.4535649,-0.4337024,-0.01203328
658.445,0.04372543,-0.4979998,0.06855047,-0.4533881,-0.4355197,-0.01217945
658.4597,0.04372543,-0.4979998,0.06855047,-0.4533881,-0.4355197,-0.01217945
658.4738,0.04374272,-0.4959613,0.0563335,-0.4532211,-0.4372877,-0.01232279
658.4897,0.04375975,-0.4939471,0.04419616,-0.4530634,-0.4390077,-0.01246334
658.5041,0.04377652,-0.4919569,0.03213821,-0.4529149,-0.4406808,-0.01260115
658.5189,0.04377652,-0.4919569,0.03213821,-0.4529149,-0.4406808,-0.01260115
658.5329,0.04379302,-0.4899904,0.02015932,-0.4527752,-0.4423081,-0.01273628
658.5485,0.04380927,-0.4880474,0.00825901,-0.4526442,-0.4438908,-0.01286879
658.5633,0.04382527,-0.4861276,-0.003563199,-0.4525215,-0.4454297,-0.01299873
658.5783,0.04382527,-0.4861276,-0.003563199,-0.4525215,-0.4454297,-0.01299873
658.5924,0.04384103,-0.4842307,-0.01530786,-0.452407,-0.446926,-0.01312614
658.608,0.04385654,-0.4823564,-0.02697553,-0.4523005,-0.4483804,-0.01325109
658.6228,0.04387181,-0.4805044,-0.03856678,-0.4522016,-0.4497939,-0.0133736
658.6375,0.04387181,-0.4805044,-0.03856678,-0.4522016,-0.4497939,-0.0133736
658.6536,0.04388684,-0.4786746,-0.05008218,-0.4521102,-0.4511674,-0.01349375
658.6669,0.04390164,-0.4768665,-0.06152229,-0.452026,-0.4525018,-0.01361156
658.6818,0.04391622,-0.47508,-0.07288767,-0.451949,-0.4537978,-0.01372711
658.6965,0.04391622,-0.47508,-0.07288767,-0.451949,-0.4537978,-0.01372711
658.7104,0.04393057,-0.4733149,-0.08417887,-0.4518788,-0.4550564,-0.01384041
658.7259,0.0439447,-0.4715708,-0.09539644,-0.4518153,-0.4562782,-0.01395152
658.7408,0.04395862,-0.4698475,-0.1065409,-0.4517582,-0.457464,-0.01406049
658.7557,0.04395862,-0.4698475,-0.1065409,-0.4517582,-0.457464,-0.01406049
658.7697,0.04397231,-0.4681447,-0.1176128,-0.4517075,-0.4586147,-0.01416735
658.7852,0.0439858,-0.4664623,-0.1286126,-0.4516628,-0.4597309,-0.01427215
658.8,0.0439858,-0.4664623,-0.1286126,-0.4516628,-0.4597309,-0.01427215
658.8143,0.04399908,-0.4647999,-0.1395408,-0.4516241,-0.4608134,-0.01437493
658.83,0.04401216,-0.4631574,-0.150398,-0.4515911,-0.4618628,-0.01447574
658.8445,0.04402503,-0.4615345,-0.1611847,-0.4515637,-0.4628798,-0.0145746
658.8593,0.04402503,-0.4615345,-0.1611847,-0.4515637,-0.4628798,-0.0145746
658.8735,0.04403771,-0.4599309,-0.1719012,-0.4515417,-0.4638652,-0.01467155
658.8901,0.04405019,-0.4583465,-0.1825482,-0.4515249,-0.4648194,-0.01476664
658.9047,0.04406248,-0.4567809,-0.193126,-0.4515132,-0.4657433,-0.0148599
658.9184,0.04406248,-0.4567809,-0.193126,-0.4515132,-0.4657433,-0.0148599
658.9323,0.04407458,-0.4552341,-0.2036351,-0.4515064,-0.4666373,-0.01495137
658.9478,0.0440865,-0.4537056,-0.214076,-0.4515044,-0.4675022,-0.01504109
658.9627,0.04409823,-0.4521955,-0.2244491,-0.451507,-0.4683384,-0.01512908
658.9774,0.04409823,-0.4521955,-0.2244491,-0.451507,-0.4683384,-0.01512908
658.9915,0.04410978,-0.4507033,-0.2347548,-0.451514,-0.4691466,-0.01521538
659.0071,0.04412115,-0.4492289,-0.2449936,-0.4515254,-0.4699274,-0.01530004
659.0219,0.04413235,-0.4477721,-0.2551659,-0.4515409,-0.4706812,-0.01538307
659.0369,0.04413235,-0.4477721,-0.2551659,-0.4515409,-0.4706812,-0.01538307
659.0508,0.04414338,-0.4463328,-0.2652721,-0.4515605,-0.4714086,-0.01546452
659.0662,0.04415424,-0.4449105,-0.2753125,-0.451584,-0.4721102,-0.01554441
659.0811,0.04416493,-0.4435053,-0.2852876,-0.4516112,-0.4727864,-0.01562278
659.0961,0.04416493,-0.4435053,-0.2852876,-0.4516112,-0.4727864,-0.01562278
659.1102,0.04417546,-0.4421168,-0.2951979,-0.4516421,-0.4734378,-0.01569965
659.1265,0.04418582,-0.4407448,-0.3050436,-0.4516765,-0.4740648,-0.01577506
659.1406,0.04419603,-0.4393893,-0.3148251,-0.4517144,-0.474668,-0.01584903
659.1552,0.04419603,-0.4393893,-0.3148251,-0.4517144,-0.474668,-0.01584903
659.1692,0.04420608,-0.4380499,-0.324543,-0.4517555,-0.4752478,-0.01592159
659.1844,0.04421598,-0.4367265,-0.3341974,-0.4517998,-0.4758046,-0.01599277
659.1992,0.04421598,-0.4367265,-0.3341974,-0.4517998,-0.4758046,-0.01599277
659.2134,0.04422573,-0.4354189,-0.3437888,-0.4518472,-0.476339,-0.0160626
659.2289,0.04423532,-0.4341269,-0.3533176,-0.4518975,-0.4768513,-0.01613111
659.2437,0.04424477,-0.4328503,-0.362784,-0.4519506,-0.4773419,-0.01619832
659.2589,0.04424477,-0.4328503,-0.362784,-0.4519506,-0.4773419,-0.01619832
659.2731,0.04425407,-0.4315889,-0.3721885,-0.4520065,-0.4778114,-0.01626425
659.2889,0.04426323,-0.4303426,-0.3815315,-0.452065,-0.4782601,-0.01632893
659.3038,0.04427225,-0.4291111,-0.3908132,-0.4521261,-0.4786884,-0.01639239
659.3184,0.04427225,-0.4291111,-0.3908132,-0.4521261,-0.4786884,-0.01639239
659.3325,0.04428113,-0.4278943,-0.400034,-0.4521896,-0.4790968,-0.01645466
659.3479,0.04428988,-0.4266921,-0.4091942,-0.4522555,-0.4794856,-0.01651574
659.3637,0.04429849,-0.4255042,-0.4182943,-0.4523236,-0.4798551,-0.01657568
659.3776,0.04429849,-0.4255042,-0.4182943,-0.4523236,-0.4798551,-0.01657568
659.3917,0.04430697,-0.4243304,-0.4273344,-0.4523938,-0.4802058,-0.01663449
659.407,0.04431532,-0.4231707,-0.4363149,-0.4524662,-0.4805381,-0.01669219
659.422,0.04432354,-0.4220248,-0.4452362,-0.4525406,-0.4808522,-0.0167488
659.4367,0.04432354,-0.4220248,-0.4452362,-0.4525406,-0.4808522,-0.0167488
659.4507,0.04433164,-0.4208926,-0.4540986,-0.4526169,-0.4811486,-0.01680436
659.4662,0.04433961,-0.4197739,-0.4629023,-0.452695,-0.4814276,-0.01685886
659.4813,0.04434746,-0.4186685,-0.4716478,-0.4527749,-0.4816895,-0.01691235
659.496,0.04434746,-0.4186685,-0.4716478,-0.4527749,-0.4816895,-0.01691235
659.5106,0.04435519,-0.4175764,-0.4803353,-0.4528565,-0.4819347,-0.01696483
659.5259,0.0443628,-0.4164972,-0.4889651,-0.4529397,-0.4821634,-0.01701634
659.5406,0.0443703,-0.415431,-0.4975376,-0.4530245,-0.482376,-0.01706688
659.5558,0.0443703,-0.415431,-0.4975376,-0.4530245,-0.482376,-0.01706688
659.5698,0.04437768,-0.4143774,-0.506053,-0.4531107,-0.4825729,-0.01711648
659.5861,0.04438495,-0.4133365,-0.5145116,-0.4531984,-0.4827543,-0.01716516
659.5997,0.04438495,-0.4133365,-0.5145116,-0.4531984,-0.4827543,-0.01716516
659.6141,0.0443921,-0.4123079,-0.5229138,-0.4532874,-0.4829204,-0.01721293
659.6296,0.04439915,-0.4112917,-0.5312598,-0.4533776,-0.4830717,-0.01725981
659.6442,0.04440608,-0.4102875,-0.53955,-0.4534691,-0.4832085,-0.01730582
659.6588,0.04440608,-0.4102875,-0.53955,-0.4534691,-0.4832085,-0.01730582
659.6731,0.04441291,-0.4092953,-0.5477846,-0.4535618,-0.4833309,-0.01735097
659.6886,0.04441964,-0.408315,-0.5559639,-0.4536556,-0.4834393,-0.01739529
659.7034,0.04442627,-0.4073464,-0.5640882,-0.4537504,-0.4835339,-0.01743878
659.7181,0.04442627,-0.4073464,-0.5640882,-0.4537504,-0.4835339,-0.01743878
659.7325,0.04443279,-0.4063893,-0.5721577,-0.4538462,-0.4836151,-0.01748148
659.748,0.04443921,-0.4054436,-0.5801729,-0.453943,-0.4836831,-0.01752339
659.7628,0.04444554,-0.4045093,-0.5881339,-0.4540407,-0.4837381,-0.01756452
659.778,0.04444554,-0.4045093,-0.5881339,-0.4540407,-0.4837381,-0.01756452
659.7917,0.04445177,-0.4035861,-0.5960411,-0.4541392,-0.4837804,-0.01760489
659.8073,0.0444579,-0.4026739,-0.6038947,-0.4542385,-0.4838103,-0.01764453
659.8228,0.04446394,-0.4017726,-0.6116949,-0.4543385,-0.4838279,-0.01768344
659.837,0.04446394,-0.4017726,-0.6116949,-0.4543385,-0.4838279,-0.01768344
659.8506,0.04446988,-0.400882,-0.6194422,-0.4544393,-0.4838337,-0.01772162
659.8666,0.04447573,-0.4000021,-0.6271367,-0.4545407,-0.4838277,-0.01775911
659.8807,0.0444815,-0.3991326,-0.6347787,-0.4546427,-0.4838103,-0.01779591
659.8954,0.0444815,-0.3991326,-0.6347787,-0.4546427,-0.4838103,-0.01779591
659.9098,0.04448717,-0.3982736,-0.6423686,-0.4547454,-0.4837816,-0.01783205
659.9252,0.04449276,-0.3974248,-0.6499065,-0.4548485,-0.4837419,-0.01786752
659.9401,0.04449826,-0.3965861,-0.6573927,-0.4549522,-0.4836914,-0.01790234
659.9551,0.04449826,-0.3965861,-0.6573927,-0.4549522,-0.4836914,-0.01790234
659.9691,0.04450369,-0.3957574,-0.6648275,-0.4550563,-0.4836303,-0.01793653
659.9844,0.04450902,-0.3949386,-0.6722112,-0.4551608,-0.4835589,-0.0179701
659.9994,0.04450902,-0.3949386,-0.6722112,-0.4551608,-0.4835589,-0.0179701
660.0135,0.04451427,-0.3941296,-0.679544,-0.4552657,-0.4834774,-0.01800306
660.0293,0.04451945,-0.3933303,-0.6868262,-0.4553709,-0.4833859,-0.01803542
660.0439,0.04452454,-0.3925405,-0.6940581,-0.4554765,-0.4832847,-0.0180672
660.0626,0.04452955,-0.3917601,-0.7012399,-0.4555824,-0.4831739,-0.0180984
660.075,0.04452955,-0.3917601,-0.7012399,-0.4555824,-0.4831739,-0.0180984
660.0876,0.04453449,-0.390989,-0.7083719,-0.4556886,-0.4830539,-0.01812904
660.1026,0.04453935,-0.3902271,-0.7154543,-0.4557949,-0.4829247,-0.01815913
660.1174,0.04453935,-0.3902271,-0.7154543,-0.4557949,-0.4829247,-0.01815913
660.1316,0.04454414,-0.3894743,-0.7224875,-0.4559015,-0.4827866,-0.01818867
660.1473,0.04454885,-0.3887305,-0.7294716,-0.4560083,-0.4826396,-0.01821769
660.1619,0.0445535,-0.3879955,-0.7364067,-0.4561152,-0.4824839,-0.01824618
660.1767,0.0445535,-0.3879955,-0.7364067,-0.4561152,-0.4824839,-0.01824618
660.1908,0.04455807,-0.3872694,-0.7432932,-0.4562223,-0.4823199,-0.01827417
660.2067,0.04456257,-0.3865519,-0.7501312,-0.4563295,-0.4821477,-0.01830166
660.2213,0.044567,-0.3858429,-0.7567993,-0.4564876,-0.4816758,-0.01833005
660.2362,0.044567,-0.3858429,-0.7567993,-0.4564876,-0.4816758,-0.01833005
660.2501,0.04457135,-0.3851425,-0.7631877,-0.4566724,-0.4810845,-0.0183582
660.2659,0.04457565,-0.3844503,-0.7693065,-0.4568654,-0.4804703,-0.01838585
660.2803,0.04457987,-0.3837665,-0.7751997,-0.4570581,-0.4798665,-0.01841293
660.2964,0.04457987,-0.3837665,-0.7751997,-0.4570581,-0.4798665,-0.01841293
660.3097,0.04458403,-0.3830908,-0.7807909,-0.4572978,-0.4789887,-0.01844085
660.3246,0.04458812,-0.3824232,-0.7860085,-0.4575593,-0.4780169,-0.01846845
660.3397,0.04458812,-0.3824232,-0.7860085,-0.4575593,-0.4780169,-0.01846845
660.3538,0.04459215,-0.3817635,-0.7908918,-0.4578243,-0.4770447,-0.01849552
660.3693,0.04459612,-0.3811117,-0.7953836,-0.4581355,-0.4758078,-0.01852337
660.3837,0.04460002,-0.3804677,-0.7994343,-0.4584657,-0.4744928,-0.01855088
660.3986,0.04460002,-0.3804677,-0.7994343,-0.4584657,-0.4744928,-0.01855088
660.4127,0.04460386,-0.3798313,-0.803103,-0.4587961,-0.473194,-0.0185778
660.4283,0.04460764,-0.3792026,-0.8064708,-0.4591188,-0.4719394,-0.0186041
660.4433,0.04461136,-0.3785813,-0.809487,-0.4594817,-0.4704365,-0.01863115
660.4579,0.04461136,-0.3785813,-0.809487,-0.4594817,-0.4704365,-0.01863115
660.4722,0.04461503,-0.3779675,-0.8120975,-0.4598603,-0.4688635,-0.01865788
660.4878,0.04461863,-0.377361,-0.814355,-0.4602373,-0.4673118,-0.01868404
660.5025,0.04462218,-0.3767618,-0.8163344,-0.4606053,-0.465809,-0.01870959
660.5173,0.04462218,-0.3767618,-0.8163344,-0.4606053,-0.465809,-0.01870959
660.5322,0.04462567,-0.3761697,-0.8179797,-0.4610121,-0.4640602,-0.0187359
660.5471,0.04462911,-0.3755846,-0.8192319,-0.4614333,-0.4622458,-0.01876189
660.5615,0.04463249,-0.3750066,-0.8201414,-0.4618515,-0.4604583,-0.01878733
660.5764,0.04463249,-0.3750066,-0.8201414,-0.4618515,-0.4604583,-0.01878733
660.5904,0.04463582,-0.3744354,-0.8206568,-0.4623092,-0.4584253,-0.01881351
660.6059,0.04463909,-0.3738711,-0.8207313,-0.4627799,-0.4563366,-0.01883935
660.6206,0.04464231,-0.3733135,-0.8204288,-0.4632454,-0.4542871,-0.01886459
660.6354,0.04464231,-0.3733135,-0.8204288,-0.4632454,-0.4542871,-0.01886459
660.6497,0.04464548,-0.3727625,-0.8198339,-0.4636983,-0.4523039,-0.0188892
660.665,0.0446486,-0.3722181,-0.8188966,-0.4641858,-0.4500866,-0.01891453
660.6801,0.04465167,-0.3716803,-0.8175611,-0.4646838,-0.4478181,-0.01893954
660.6948,0.04465167,-0.3716803,-0.8175611,-0.4646838,-0.4478181,-0.01893954
660.709,0.04465469,-0.3711488,-0.8158822,-0.4651754,-0.4455914,-0.01896398
660.7245,0.04465766,-0.3706237,-0.8139371,-0.4656537,-0.4434337,-0.01898779
660.7394,0.04465766,-0.3706237,-0.8139371,-0.4656537,-0.4434337,-0.01898779
660.7531,0.04466058,-0.3701048,-0.8116689,-0.4661655,-0.4410417,-0.01901233
660.7697,0.04466345,-0.3695922,-0.8090162,-0.4666867,-0.4386014,-0.01903656
660.7834,0.04466628,-0.3690857,-0.8060308,-0.4672006,-0.4362072,-0.01906021
660.7983,0.04466628,-0.3690857,-0.8060308,-0.4672006,-0.4362072,-0.01906021
660.8123,0.04466905,-0.3685852,-0.8026607,-0.4677486,-0.433578,-0.01908457
660.8275,0.04467179,-0.3680907,-0.798857,-0.4683047,-0.4309102,-0.01910859
660.8424,0.04467448,-0.3676021,-0.7946854,-0.4688514,-0.4283003,-0.01913201
660.8572,0.04467448,-0.3676021,-0.7946854,-0.4688514,-0.4283003,-0.01913201
660.8715,0.04467712,-0.3671193,-0.7902334,-0.4693817,-0.4257756,-0.0191548
660.887,0.04467972,-0.3666423,-0.7854499,-0.4699416,-0.4230254,-0.01917825
660.9022,0.04468228,-0.366171,-0.7802764,-0.4705074,-0.4202397,-0.01920138
660.9167,0.04468228,-0.366171,-0.7802764,-0.4705074,-0.4202397,-0.01920138
660.9308,0.04468479,-0.3657053,-0.7747693,-0.471063,-0.4175138,-0.01922394
660.9462,0.04468727,-0.3652452,-0.7690088,-0.4716018,-0.4148746,-0.01924586
660.9613,0.0446897,-0.3647905,-0.7629365,-0.4721691,-0.4120084,-0.01926845
660.9761,0.0446897,-0.3647905,-0.7629365,-0.4721691,-0.4120084,-0.01926845
660.9922,0.04469208,-0.3643413,-0.756488,-0.4727415,-0.4091088,-0.01929073
661.0068,0.04469443,-0.3638975,-0.7497172,-0.473303,-0.4062724,-0.01931244
661.0203,0.04469674,-0.3634589,-0.7427028,-0.4738472,-0.4035269,-0.01933353
661.0364,0.04469674,-0.3634589,-0.7427028,-0.4738472,-0.4035269,-0.01933353
661.049,0.04469901,-0.3630256,-0.7353553,-0.4746361,-0.4005973,-0.01935613
661.0645,0.04470124,-0.3625975,-0.7276418,-0.4755523,-0.3976393,-0.01937803
661.0792,0.04470124,-0.3625975,-0.7276418,-0.4755523,-0.3976393,-0.01937803
661.0933,0.04470344,-0.3621745,-0.7196212,-0.4765122,-0.3947382,-0.01939921
661.1089,0.04470559,-0.3617565,-0.7113688,-0.4774772,-0.3919214,-0.01941972
661.1236,0.04470771,-0.3613435,-0.7029514,-0.4784303,-0.3891933,-0.0194396
661.1387,0.04470771,-0.3613435,-0.7029514,-0.4784303,-0.3891933,-0.0194396
661.153,0.04470979,-0.3609355,-0.6944222,-0.4793645,-0.3865502,-0.01945889
661.1682,0.04471184,-0.3605323,-0.6858208,-0.4802773,-0.3839865,-0.01947763
661.1832,0.04471386,-0.3601339,-0.677176,-0.4811684,-0.3814964,-0.01949586
661.1982,0.04471386,-0.3601339,-0.677176,-0.4811684,-0.3814964,-0.01949586
661.2124,0.04471584,-0.3597403,-0.6685083,-0.482038,-0.3790754,-0.0195136
661.2288,0.04471778,-0.3593515,-0.6598324,-0.4828869,-0.3767196,-0.01953087
661.2437,0.04471969,-0.3589672,-0.6511586,-0.4837157,-0.374426,-0.01954769
661.2572,0.04471969,-0.3589672,-0.6511586,-0.4837157,-0.374426,-0.01954769
661.2713,0.04472157,-0.3585876,-0.6424946,-0.4845252,-0.3721924,-0.01956407
661.2869,0.04472342,-0.3582124,-0.6338456,-0.4853158,-0.3700167,-0.01958004
661.3016,0.04472524,-0.3578418,-0.6252158,-0.4860882,-0.3678975,-0.01959558
661.3165,0.04472524,-0.3578418,-0.6252158,-0.4860882,-0.3678975,-0.01959558
661.3306,0.04472702,-0.3574756,-0.6166082,-0.4868428,-0.3658333,-0.01961073
661.3462,0.04472877,-0.3571137,-0.6080253,-0.4875802,-0.363823,-0.01962548
661.3613,0.04473049,-0.3567562,-0.5994691,-0.4883007,-0.3618655,-0.01963985
661.3765,0.04473049,-0.3567562,-0.5994691,-0.4883007,-0.3618655,-0.01963985
