JMolnar6/NonAnthroHands_User_Study/HandsLoggerWithURDF/tempdata/PID 0 (test)/files/Reachy_JointMotion_gesture_8_38.csv
Time,r_shoulder,r_shoulder_x,r_upper_arm,r_forearm,r_wrist,r_wrist2hand,
737.3312,0.04495263,0.0004531925,NaN,-0.3279178,0.0003721118,NaN,-0.5390207,-14.49138,NaN,-1.316122,-1.467152,0.3538547,14.11135,NaN,NaN,0.368413,0.8169784,0.8101005,1.044099,-0.0005978156,1.354737
737.3482,0.04495283,0.0004529612,NaN,-0.3279083,0.0003723608,NaN,-0.5378025,-14.49136,NaN,-1.316012,-1.467778,0.3528526,14.112,NaN,NaN,0.3680487,0.8170035,0.8093087,1.04501,-0.0005860982,1.352239
737.3608,0.04495304,0.0004527991,NaN,-0.3278988,0.0003723112,NaN,-0.5369751,-14.49259,NaN,-1.316066,-1.472603,0.3520633,14.11729,NaN,NaN,0.3671995,0.8158968,0.8090031,1.0521,-0.0005746103,1.359434
737.3758,0.04495304,0.0004527991,NaN,-0.3278988,0.0003723112,NaN,-0.5369751,-14.49259,NaN,-1.316066,-1.472603,0.3520633,14.11729,NaN,NaN,0.3671995,0.8158968,0.8090031,1.0521,-0.0005746103,1.359434
737.3901,0.04495324,0.000453334,NaN,-0.3278895,0.0003721542,NaN,-0.5361325,-14.49255,NaN,-1.316098,-1.479143,0.3512731,14.12423,NaN,NaN,0.36614,0.8160661,0.8087999,1.061638,-0.000563328,1.362251
737.4057,0.04495344,0.0004534994,NaN,-0.3278802,0.0003726753,NaN,-0.535255,-14.49125,NaN,-1.316096,-1.468597,0.3504532,14.11286,NaN,NaN,0.3649845,0.8172153,0.8086575,1.046216,-0.0005522996,1.352468
737.421,0.04495363,0.0004536893,NaN,-0.3278711,0.0003726396,NaN,-0.5358275,-14.49269,NaN,-1.315798,-1.475315,0.3507951,14.1202,NaN,NaN,0.3642413,0.8159387,0.810306,1.056078,-0.0005414739,1.360858
737.4359,0.04495363,0.0004536893,NaN,-0.3278711,0.0003726396,NaN,-0.5358275,-14.49269,NaN,-1.315798,-1.475315,0.3507951,14.1202,NaN,NaN,0.3642413,0.8159387,0.810306,1.056078,-0.0005414739,1.360858
737.4501,0.04495383,0.0004536079,NaN,-0.3278621,0.0003730621,NaN,-0.5362325,-14.49159,NaN,-1.315521,-1.46723,0.350938,14.11147,NaN,NaN,0.3642479,0.8168972,0.8114272,1.044247,-0.0005308503,1.352818
737.4658,0.04495402,0.0004536316,NaN,-0.3278532,0.0003736753,NaN,-0.5363114,-14.49242,NaN,-1.315417,-1.465958,0.3508013,14.11021,NaN,NaN,0.3648341,0.8160394,0.8117435,1.042417,-0.0005204466,1.358508
737.4808,0.04495421,0.0004536325,NaN,-0.3278444,0.0003741262,NaN,-0.5366462,-14.493,NaN,-1.315389,-1.466735,0.350829,14.1111,NaN,NaN,0.365498,0.8154776,0.8119085,1.043568,-0.0005102424,1.359793
737.4959,0.04495421,0.0004536325,NaN,-0.3278444,0.0003741262,NaN,-0.5366462,-14.493,NaN,-1.315389,-1.466735,0.350829,14.1111,NaN,NaN,0.365498,0.8154776,0.8119085,1.043568,-0.0005102424,1.359793
737.51,0.04495439,0.0004537854,NaN,-0.3278358,0.0003743271,NaN,-0.5381666,-14.49355,NaN,-1.315483,-1.471391,0.3518975,14.11611,NaN,NaN,0.3670025,0.815053,0.8132864,1.050374,-0.0005002376,1.364468
737.5268,0.04495443,0.0004541342,NaN,-0.3278273,0.0003746396,NaN,-0.5369491,-14.49378,NaN,-1.318573,-1.47237,0.3502971,14.11717,NaN,NaN,0.3700919,0.8148366,0.8082483,1.051806,-0.0004904195,1.36797
737.5404,0.04495455,0.0004539034,NaN,-0.3278189,0.0003748988,NaN,-0.5404354,-14.49232,NaN,-1.316213,-1.466166,0.3528526,14.11041,NaN,NaN,0.368282,0.8161621,0.8101427,1.042718,-0.0004807994,1.356547
737.5554,0.04495455,0.0004539034,NaN,-0.3278189,0.0003748988,NaN,-0.5404354,-14.49232,NaN,-1.316213,-1.466166,0.3528526,14.11041,NaN,NaN,0.368282,0.8161621,0.8101427,1.042718,-0.0004807994,1.356547
737.5697,0.04495458,0.0004537037,NaN,-0.3278106,0.0003752085,NaN,-0.5402633,-14.49291,NaN,-1.318058,-1.467032,0.3526054,14.1114,NaN,NaN,0.371144,0.8155954,0.807967,1.044002,-0.000471361,1.359516
737.5852,0.04495467,0.0004530406,NaN,-0.3278024,0.0003750334,NaN,-0.538865,-14.49293,NaN,-1.317238,-1.467799,0.3523579,14.11221,NaN,NaN,0.3739946,0.8155973,0.8077669,1.04512,-0.0004621151,1.361217
737.6,0.04495477,0.0004524038,NaN,-0.3277943,0.0003753135,NaN,-0.5380615,-14.49256,NaN,-1.318415,-1.465167,0.352441,14.10936,NaN,NaN,0.3789028,0.8158937,0.8099319,1.041265,-0.0004530533,1.35736
737.6151,0.04495477,0.0004524038,NaN,-0.3277943,0.0003753135,NaN,-0.5380615,-14.49256,NaN,-1.318415,-1.465167,0.352441,14.10936,NaN,NaN,0.3789028,0.8158937,0.8099319,1.041265,-0.0004530533,1.35736
737.6293,0.04495477,0.0004520471,NaN,-0.3277864,0.0003758719,NaN,-0.5370255,-14.49306,NaN,-1.321355,-1.464463,0.3514629,14.10867,NaN,NaN,0.3834938,0.8153722,0.8080624,1.040256,-0.0004441663,1.360608
737.6453,0.04495484,0.0004523005,NaN,-0.3277785,0.0003757316,NaN,-0.5360842,-14.49333,NaN,-1.320756,-1.478036,0.3518984,14.12311,NaN,NaN,0.3876143,0.8154933,0.8088982,1.060054,-0.0004354536,1.366656
737.6602,0.04495491,0.0004521505,NaN,-0.3277707,0.0003760275,NaN,-0.5356672,-14.49271,NaN,-1.322218,-1.467963,0.3526376,14.11233,NaN,NaN,0.3941149,0.8159441,0.8113389,1.045344,-0.0004269167,1.359498
737.6751,0.04495491,0.0004521505,NaN,-0.3277707,0.0003760275,NaN,-0.5356672,-14.49271,NaN,-1.322218,-1.467963,0.3526376,14.11233,NaN,NaN,0.3941149,0.8159441,0.8113389,1.045344,-0.0004269167,1.359498
737.6893,0.04495496,0.000452008,NaN,-0.327763,0.0003753844,NaN,-0.5348177,-14.49395,NaN,-1.324217,-1.479202,0.3527312,14.12442,NaN,NaN,0.4009127,0.8149811,0.8115314,1.061782,-0.0004185239,1.366783
737.7049,0.04495492,0.0004521578,NaN,-0.3277555,0.0003750323,NaN,-0.5326694,-14.49442,NaN,-1.327327,-1.476194,0.3514707,14.12127,NaN,NaN,0.4073967,0.8144633,0.8074844,1.057401,-0.0004103222,1.371179
737.7198,0.04495492,0.0004521578,NaN,-0.3277555,0.0003750323,NaN,-0.5326694,-14.49442,NaN,-1.327327,-1.476194,0.3514707,14.12127,NaN,NaN,0.4073967,0.8144633,0.8074844,1.057401,-0.0004103222,1.371179
737.735,0.04495496,0.0004522427,NaN,-0.327748,0.0003750937,NaN,-0.5316036,-14.49281,NaN,-1.327007,-1.471744,0.3523589,14.11636,NaN,NaN,0.4122529,0.8159918,0.8081297,1.050875,-0.0004022614,1.357758
737.7496,0.044955,0.0004521081,NaN,-0.3277406,0.0003754926,NaN,-0.5306263,-14.49297,NaN,-1.32877,-1.466653,0.3532433,14.11097,NaN,NaN,0.419038,0.8157176,0.8101777,1.04345,-0.000394372,1.360501
737.7646,0.04495495,0.0004522564,NaN,-0.3277333,0.0003760219,NaN,-0.528749,-14.49389,NaN,-1.332091,-1.467968,0.352621,14.11248,NaN,NaN,0.4255688,0.8148333,0.8079488,1.045401,-0.000386632,1.36623
737.7798,0.04495495,0.0004522564,NaN,-0.3277333,0.0003760219,NaN,-0.528749,-14.49389,NaN,-1.332091,-1.467968,0.352621,14.11248,NaN,NaN,0.4255688,0.8148333,0.8079488,1.045401,-0.000386632,1.36623
737.7955,0.04495499,0.0004517892,NaN,-0.327726,0.0003762277,NaN,-0.5277206,-14.49294,NaN,-1.331723,-1.464664,0.3538501,14.10885,NaN,NaN,0.4302598,0.8156898,0.8090562,1.040552,-0.0003790446,1.358986
737.8096,0.04495502,0.000451961,NaN,-0.3277189,0.0003758885,NaN,-0.5266751,-14.49284,NaN,-1.333467,-1.477182,0.355007,14.12212,NaN,NaN,0.4368963,0.8161445,0.8108829,1.058803,-0.0003716341,1.363219
737.8245,0.04495497,0.0004513349,NaN,-0.3277119,0.0003756103,NaN,-0.5245814,-14.49361,NaN,-1.336696,-1.465446,0.3545178,14.10972,NaN,NaN,0.4432704,0.8151829,0.808224,1.041687,-0.000364349,1.362969
737.8395,0.04495497,0.0004513349,NaN,-0.3277119,0.0003756103,NaN,-0.5245814,-14.49361,NaN,-1.336696,-1.465446,0.3545178,14.10972,NaN,NaN,0.4432704,0.8151829,0.808224,1.041687,-0.000364349,1.362969
737.8538,0.04495501,0.0004509134,NaN,-0.3277048,0.0003754245,NaN,-0.5234315,-14.4929,NaN,-1.336542,-1.470141,0.3560697,14.11461,NaN,NaN,0.4480301,0.8160039,0.8092434,1.048508,-0.0003572104,1.358529
737.8694,0.04495503,0.0004507776,NaN,-0.3276979,0.0003760195,NaN,-0.521638,-14.49317,NaN,-1.338831,-1.465202,0.3569023,14.10939,NaN,NaN,0.4547316,0.8156091,0.8098667,1.041315,-0.0003502071,1.360528
737.8845,0.04495498,0.000450651,NaN,-0.3276911,0.0003763318,NaN,-0.5201026,-14.49412,NaN,-1.341249,-1.467917,0.357387,14.1124,NaN,NaN,0.4600958,0.8147226,0.8083912,1.045315,-0.0003433301,1.36619
737.8996,0.04495498,0.000450651,NaN,-0.3276911,0.0003763318,NaN,-0.5201026,-14.49412,NaN,-1.341249,-1.467917,0.357387,14.1124,NaN,NaN,0.4600958,0.8147226,0.8083912,1.045315,-0.0003433301,1.36619
737.9136,0.04495493,0.0004508186,NaN,-0.3276844,0.0003763727,NaN,-0.5192109,-14.49479,NaN,-1.342682,-1.473688,0.3586494,14.11861,NaN,NaN,0.4640254,0.8141921,0.8073527,1.053749,-0.000336596,1.372538
737.9304,0.04495497,0.0004505834,NaN,-0.3276778,0.000376709,NaN,-0.51768,-14.49306,NaN,-1.34268,-1.465603,0.3606504,14.10984,NaN,NaN,0.468825,0.8157505,0.8092705,1.041927,-0.0003300089,1.360311
737.9444,0.04495493,0.00045094,NaN,-0.3276712,0.0003764987,NaN,-0.5159196,-14.49427,NaN,-1.345696,-1.477887,0.361364,14.12304,NaN,NaN,0.474644,0.814883,0.8087837,1.059893,-0.0003235198,1.371102
737.9593,0.04495493,0.00045094,NaN,-0.3276712,0.0003764987,NaN,-0.5159196,-14.49427,NaN,-1.345696,-1.477887,0.361364,14.12304,NaN,NaN,0.474644,0.814883,0.8087837,1.059893,-0.0003235198,1.371102
737.9733,0.04495497,0.0004509142,NaN,-0.3276647,0.0003768866,NaN,-0.5148608,-14.49344,NaN,-1.345747,-1.466428,0.3636171,14.11079,NaN,NaN,0.479228,0.815542,0.8106605,1.043172,-0.0003171668,1.362376
737.989,0.04495498,0.0004501053,NaN,-0.3276582,0.0003767355,NaN,-0.5128387,-14.49389,NaN,-1.348096,-1.464454,0.3647141,14.10875,NaN,NaN,0.4856319,0.8150357,0.8108364,1.040306,-0.0003109589,1.363827
738.0041,0.04495493,0.0004501859,NaN,-0.3276519,0.0003763983,NaN,-0.5111988,-14.49383,NaN,-1.350422,-1.47743,0.3655978,14.12249,NaN,NaN,0.4904995,0.8154569,0.8089454,1.059212,-0.0003048554,1.368909
738.0189,0.04495493,0.0004501859,NaN,-0.3276519,0.0003763983,NaN,-0.5111988,-14.49383,NaN,-1.350422,-1.47743,0.3655978,14.12249,NaN,NaN,0.4904995,0.8154569,0.8089454,1.059212,-0.0003048554,1.368909
738.0333,0.04495488,0.0004503566,NaN,-0.3276457,0.0003771147,NaN,-0.5099859,-14.49366,NaN,-1.351801,-1.467403,0.367273,14.11181,NaN,NaN,0.4942413,0.8154668,0.8078594,1.044576,-0.0002988525,1.364254
738.049,0.04495484,0.0004504598,NaN,-0.3276395,0.00037771,NaN,-0.50883,-14.49426,NaN,-1.353055,-1.466409,0.3692632,14.11083,NaN,NaN,0.4977689,0.8148313,0.8076712,1.043145,-0.000292998,1.366678
738.0639,0.04495479,0.0004506962,NaN,-0.3276334,0.0003775783,NaN,-0.5078263,-14.49494,NaN,-1.354236,-1.476311,0.3714335,14.12141,NaN,NaN,0.5010476,0.8144072,0.8079761,1.057597,-0.0002872409,1.374004
738.079,0.04495479,0.0004506962,NaN,-0.3276334,0.0003775783,NaN,-0.5078263,-14.49494,NaN,-1.354236,-1.476311,0.3714335,14.12141,NaN,NaN,0.5010476,0.8144072,0.8079761,1.057597,-0.0002872409,1.374004
738.0935,0.04495473,0.0004510406,NaN,-0.3276273,0.0003784771,NaN,-0.5072206,-14.49415,NaN,-1.355326,-1.467244,0.3738482,14.1117,NaN,NaN,0.503831,0.8150387,0.8083264,1.044365,-0.0002816136,1.367737
738.1088,0.04495477,0.0004515415,NaN,-0.3276213,0.0003783649,NaN,-0.5051554,-14.4946,NaN,-1.355644,-1.478578,0.3762054,14.12377,NaN,NaN,0.5084667,0.8148794,0.8102073,1.060899,-0.0002760957,1.373787
738.1237,0.04495472,0.0004513967,NaN,-0.3276154,0.0003784934,NaN,-0.5037354,-14.49369,NaN,-1.358134,-1.468052,0.3778298,14.1125,NaN,NaN,0.5131221,0.8156216,0.8101106,1.045532,-0.0002706828,1.364852
738.1387,0.04495472,0.0004513967,NaN,-0.3276154,0.0003784934,NaN,-0.5037354,-14.49369,NaN,-1.358134,-1.468052,0.3778298,14.1125,NaN,NaN,0.5131221,0.8156216,0.8101106,1.045532,-0.0002706828,1.364852
738.1529,0.04495468,0.0004507627,NaN,-0.3276096,0.0003783949,NaN,-0.5023499,-14.49396,NaN,-1.359517,-1.466269,0.3795518,14.11063,NaN,NaN,0.5165438,0.8152999,0.8090505,1.042939,-0.0002653696,1.365899
738.1684,0.04495463,0.0004500738,NaN,-0.3276038,0.0003785163,NaN,-0.5008816,-14.49375,NaN,-1.360816,-1.46546,0.381504,14.10974,NaN,NaN,0.5197959,0.8154763,0.808272,1.041749,-0.0002601628,1.363686
738.1834,0.04495458,0.0004503904,NaN,-0.3275982,0.0003782476,NaN,-0.4991703,-14.4945,NaN,-1.36218,-1.47836,0.3834096,14.12353,NaN,NaN,0.5230132,0.8150774,0.807755,1.060589,-0.0002550623,1.371889
738.1985,0.04495458,0.0004503904,NaN,-0.3275982,0.0003782476,NaN,-0.4991703,-14.4945,NaN,-1.36218,-1.47836,0.3834096,14.12353,NaN,NaN,0.5230132,0.8150774,0.807755,1.060589,-0.0002550623,1.371889
738.2129,0.04495452,0.0004504447,NaN,-0.3275925,0.0003786724,NaN,-0.4972504,-14.49381,NaN,-1.363587,-1.467893,0.3851818,14.11234,NaN,NaN,0.5261407,0.8156116,0.8073921,1.045313,-0.0002500624,1.364783
738.2285,0.04495445,0.0004500421,NaN,-0.3275869,0.0003788888,NaN,-0.4952144,-14.49351,NaN,-1.364985,-1.465752,0.3868775,14.11002,NaN,NaN,0.5291028,0.8158476,0.8071244,1.042176,-0.0002451525,1.361294
738.2435,0.04495438,0.0004500393,NaN,-0.3275814,0.0003784268,NaN,-0.4931396,-14.4947,NaN,-1.366354,-1.477888,0.3885484,14.12307,NaN,NaN,0.5318799,0.814994,0.8069507,1.059925,-0.0002403562,1.372796
738.2587,0.04495438,0.0004500393,NaN,-0.3275814,0.0003784268,NaN,-0.4931396,-14.4947,NaN,-1.366354,-1.477888,0.3885484,14.12307,NaN,NaN,0.5318799,0.814994,0.8069507,1.059925,-0.0002403562,1.372796
738.2742,0.04495431,0.0004496498,NaN,-0.327576,0.0003783968,NaN,-0.4910772,-14.49364,NaN,-1.367677,-1.467332,0.3902514,14.11175,NaN,NaN,0.5344657,0.8158849,0.8068588,1.044512,-0.0002356509,1.364004
738.2884,0.04495423,0.00044911,NaN,-0.3275706,0.0003785584,NaN,-0.4890505,-14.49395,NaN,-1.368957,-1.465457,0.3919892,14.10978,NaN,NaN,0.5368825,0.8155312,0.8068335,1.041782,-0.0002310235,1.362112
738.3034,0.04495415,0.0004492282,NaN,-0.3275653,0.000378119,NaN,-0.4870944,-14.49443,NaN,-1.37018,-1.478383,0.393805,14.12356,NaN,NaN,0.5391299,0.8154024,0.8068734,1.060647,-0.0002265058,1.369901
738.3188,0.04495415,0.0004492282,NaN,-0.3275653,0.000378119,NaN,-0.4870944,-14.49443,NaN,-1.37018,-1.478383,0.393805,14.12356,NaN,NaN,0.5391299,0.8154024,0.8068734,1.060647,-0.0002265058,1.369901
738.3338,0.04495408,0.0004492248,NaN,-0.3275601,0.0003787066,NaN,-0.4852026,-14.49417,NaN,-1.371363,-1.465957,0.3956737,14.11033,NaN,NaN,0.5412428,0.8154795,0.8069451,1.042513,-0.0002220536,1.363873
738.3484,0.044954,0.0004489823,NaN,-0.3275549,0.0003790436,NaN,-0.4834128,-14.4945,NaN,-1.372486,-1.465975,0.3976427,14.11038,NaN,NaN,0.5432118,0.8151463,0.8070706,1.042546,-0.0002176847,1.364231
738.3636,0.04495392,0.0004492808,NaN,-0.3275498,0.0003787348,NaN,-0.4816863,-14.49488,NaN,-1.373582,-1.47845,0.3996579,14.12366,NaN,NaN,0.5450807,0.8150964,0.8071865,1.060742,-0.0002134029,1.37276
738.3783,0.04495392,0.0004492808,NaN,-0.3275498,0.0003787348,NaN,-0.4816863,-14.49488,NaN,-1.373582,-1.47845,0.3996579,14.12366,NaN,NaN,0.5450807,0.8150964,0.8071865,1.060742,-0.0002134029,1.37276
738.3927,0.04495384,0.0004490484,NaN,-0.3275447,0.0003787988,NaN,-0.480082,-14.49427,NaN,-1.37461,-1.467001,0.4017891,14.11143,NaN,NaN,0.5468179,0.8155457,0.8073598,1.044033,-0.0002092146,1.365465
738.4083,0.04495376,0.000448506,NaN,-0.3275397,0.0003788432,NaN,-0.4785046,-14.49409,NaN,-1.375634,-1.465647,0.403943,14.10996,NaN,NaN,0.5484897,0.8156819,0.8074577,1.042048,-0.0002051125,1.363304
738.4233,0.04495369,0.0004479174,NaN,-0.3275347,0.0003790821,NaN,-0.4770829,-14.49432,NaN,-1.376578,-1.46481,0.4062323,14.1091,NaN,NaN,0.5500296,0.8154282,0.8076707,1.040831,-0.0002010865,1.363132
738.4383,0.04495369,0.0004479174,NaN,-0.3275347,0.0003790821,NaN,-0.4770829,-14.49432,NaN,-1.376578,-1.46481,0.4062323,14.1091,NaN,NaN,0.5500296,0.8154282,0.8076707,1.040831,-0.0002010865,1.363132
738.4526,0.04495365,0.0004478435,NaN,-0.3275298,0.0003786908,NaN,-0.4743406,-14.49461,NaN,-1.377541,-1.477976,0.4080251,14.1231,NaN,NaN,0.5530623,0.8155072,0.8080772,1.060038,-0.0001971433,1.368237
738.4683,0.04495359,0.000447464,NaN,-0.327525,0.0003788514,NaN,-0.4718227,-14.49409,NaN,-1.379244,-1.466724,0.4094922,14.11108,NaN,NaN,0.5561843,0.8158448,0.8082368,1.043607,-0.0001932775,1.364343
738.4833,0.04495351,0.0004476318,NaN,-0.3275202,0.000378766,NaN,-0.4703109,-14.4957,NaN,-1.380451,-1.475304,0.4115078,14.12039,NaN,NaN,0.5579674,0.8144416,0.808274,1.056177,-0.0001894905,1.375247
738.4982,0.04495351,0.0004476318,NaN,-0.3275202,0.000378766,NaN,-0.4703109,-14.4957,NaN,-1.380451,-1.475304,0.4115078,14.12039,NaN,NaN,0.5579674,0.8144416,0.808274,1.056177,-0.0001894905,1.375247
738.5126,0.04495343,0.0004477072,NaN,-0.3275155,0.000379222,NaN,-0.4695396,-14.49513,NaN,-1.381173,-1.467961,0.4143034,14.11254,NaN,NaN,0.5590268,0.8148764,0.8087415,1.045458,-0.0001857661,1.369722
738.5292,0.04495335,0.0004475973,NaN,-0.3275108,0.0003787852,NaN,-0.4685174,-14.49579,NaN,-1.38199,-1.476369,0.4169317,14.12153,NaN,NaN,0.5601999,0.8144205,0.8087222,1.05773,-0.0001821106,1.374055
738.5432,0.04495328,0.0004473588,NaN,-0.3275062,0.0003791201,NaN,-0.4675744,-14.49461,NaN,-1.382756,-1.466451,0.4196655,14.11087,NaN,NaN,0.5612611,0.8154302,0.8087289,1.043247,-0.0001785447,1.366547
738.558,0.04495328,0.0004473588,NaN,-0.3275062,0.0003791201,NaN,-0.4675744,-14.49461,NaN,-1.382756,-1.466451,0.4196655,14.11087,NaN,NaN,0.5612611,0.8154302,0.8087289,1.043247,-0.0001785447,1.366547
738.5721,0.0449532,0.0004474981,NaN,-0.3275017,0.0003786411,NaN,-0.4665539,-14.49522,NaN,-1.383547,-1.479076,0.4223429,14.12434,NaN,NaN,0.5623064,0.8151591,0.8086504,1.061675,-0.00017503,1.373579
738.5877,0.04495312,0.0004476099,NaN,-0.3274972,0.0003793303,NaN,-0.4655476,-14.49483,NaN,-1.384318,-1.466704,0.4250314,14.11116,NaN,NaN,0.5632601,0.8153827,0.8086189,1.043621,-0.0001716127,1.367908
738.6027,0.04495304,0.0004478997,NaN,-0.3274928,0.0003792095,NaN,-0.4645374,-14.49614,NaN,-1.385076,-1.477044,0.4277056,14.1223,NaN,NaN,0.5641388,0.814346,0.8086201,1.058742,-0.000168271,1.377634
738.6178,0.04495304,0.0004478997,NaN,-0.3274928,0.0003792095,NaN,-0.4645374,-14.49614,NaN,-1.385076,-1.477044,0.4277056,14.1223,NaN,NaN,0.5641388,0.814346,0.8086201,1.058742,-0.000168271,1.377634
738.6323,0.04495296,0.0004484426,NaN,-0.3274884,0.0003797893,NaN,-0.4635094,-14.49634,NaN,-1.385815,-1.471999,0.4303564,14.11696,NaN,NaN,0.5649607,0.8140756,0.8086451,1.051391,-0.0001649748,1.379002
738.6482,0.04495288,0.0004487303,NaN,-0.3274841,0.0003805978,NaN,-0.4624511,-14.49504,NaN,-1.386538,-1.466325,0.43297,14.11078,NaN,NaN,0.565742,0.8152467,0.8086696,1.043085,-0.0001617486,1.369175
738.6628,0.04495281,0.0004488146,NaN,-0.3274798,0.0003806684,NaN,-0.4613951,-14.49579,NaN,-1.387246,-1.471961,0.4355741,14.11686,NaN,NaN,0.5664752,0.8146537,0.8087237,1.051327,-0.0001585595,1.372149
738.6778,0.04495281,0.0004488146,NaN,-0.3274798,0.0003806684,NaN,-0.4613951,-14.49579,NaN,-1.387246,-1.471961,0.4355741,14.11686,NaN,NaN,0.5664752,0.8146537,0.8087237,1.051327,-0.0001585595,1.372149
738.6922,0.04495273,0.0004490888,NaN,-0.3274755,0.0003807818,NaN,-0.4603474,-14.49653,NaN,-1.38794,-1.473643,0.438169,14.11872,NaN,NaN,0.5671598,0.8139465,0.8087935,1.053796,-0.0001554412,1.378518
738.7076,0.04495265,0.000449581,NaN,-0.3274714,0.0003805924,NaN,-0.4593216,-14.49625,NaN,-1.388615,-1.478834,0.4407653,14.12417,NaN,NaN,0.5677908,0.8143128,0.8088799,1.061344,-0.0001523993,1.37871
738.7236,0.04495257,0.0004497191,NaN,-0.3274672,0.0003806211,NaN,-0.4583202,-14.49484,NaN,-1.38927,-1.471957,0.4433635,14.11672,NaN,NaN,0.5683694,0.8156226,0.8089725,1.051292,-0.0001493996,1.369501
738.7374,0.04495257,0.0004497191,NaN,-0.3274672,0.0003806211,NaN,-0.4583202,-14.49484,NaN,-1.38927,-1.471957,0.4433635,14.11672,NaN,NaN,0.5683694,0.8156226,0.8089725,1.051292,-0.0001493996,1.369501
738.7531,0.04495249,0.0004490374,NaN,-0.3274632,0.0003803755,NaN,-0.4573474,-14.49533,NaN,-1.389906,-1.465638,0.4459665,14.11006,NaN,NaN,0.5688969,0.815002,0.8090698,1.042087,-0.0001464922,1.370127
738.7673,0.04495241,0.0004488666,NaN,-0.3274591,0.0003809552,NaN,-0.4564019,-14.49541,NaN,-1.390522,-1.465369,0.4485722,14.10978,NaN,NaN,0.569375,0.8149211,0.8091652,1.041695,-0.0001436081,1.371054
738.7822,0.04495238,0.0004491167,NaN,-0.3274551,0.000381412,NaN,-0.4540761,-14.49641,NaN,-1.391213,-1.469563,0.4506835,14.11436,NaN,NaN,0.5715637,0.8140327,0.809607,1.047845,-0.0001408155,1.377941
738.7972,0.04495238,0.0004491167,NaN,-0.3274551,0.000381412,NaN,-0.4540761,-14.49641,NaN,-1.391213,-1.469563,0.4506835,14.11436,NaN,NaN,0.5715637,0.8140327,0.809607,1.047845,-0.0001408155,1.377941
738.8116,0.04495234,0.0004494778,NaN,-0.3274511,0.0003815617,NaN,-0.4518229,-14.49685,NaN,-1.392589,-1.473793,0.4524405,14.11888,NaN,NaN,0.5741057,0.8136918,0.8100604,1.054017,-0.0001380348,1.379992
738.8271,0.04495227,0.0004496487,NaN,-0.3274472,0.0003823146,NaN,-0.4502304,-14.49576,NaN,-1.393689,-1.46564,0.4543261,14.11012,NaN,NaN,0.5756261,0.8146262,0.81002,1.042117,-0.0001353187,1.372744
738.8424,0.0449522,0.0004501883,NaN,-0.3274434,0.0003821883,NaN,-0.4494672,-14.49585,NaN,-1.394301,-1.478144,0.457002,14.12338,NaN,NaN,0.5763428,0.8148768,0.8104205,1.060336,-0.0001326589,1.376493
738.8572,0.0449522,0.0004501883,NaN,-0.3274434,0.0003821883,NaN,-0.4494672,-14.49585,NaN,-1.394301,-1.478144,0.457002,14.12338,NaN,NaN,0.5763428,0.8148768,0.8104205,1.060336,-0.0001326589,1.376493
738.8714,0.04495214,0.0004506925,NaN,-0.3274395,0.0003833489,NaN,-0.448523,-14.49569,NaN,-1.394965,-1.466585,0.4595809,14.11109,NaN,NaN,0.5771395,0.8148698,0.810433,1.043479,-0.0001300603,1.374591
738.8871,0.04495207,0.000450771,NaN,-0.3274358,0.0003839343,NaN,-0.4476099,-14.49548,NaN,-1.395603,-1.465533,0.4622194,14.10994,NaN,NaN,0.5778743,0.8150424,0.8104283,1.041938,-0.0001275019,1.369337
738.902,0.04495201,0.0004502872,NaN,-0.3274321,0.0003840955,NaN,-0.4466418,-14.49488,NaN,-1.396257,-1.464785,0.4648201,14.10906,NaN,NaN,0.5785976,0.8156174,0.8103763,1.040823,-0.00012499,1.367554
738.9171,0.04495201,0.0004502872,NaN,-0.3274321,0.0003840955,NaN,-0.4466418,-14.49488,NaN,-1.396257,-1.464785,0.4648201,14.10906,NaN,NaN,0.5785976,0.8156174,0.8103763,1.040823,-0.00012499,1.367554
738.9335,0.04495194,0.0004500262,NaN,-0.3274284,0.0003834025,NaN,-0.4456816,-14.49503,NaN,-1.396896,-1.477822,0.4674205,14.12292,NaN,NaN,0.5792469,0.8158366,0.8103545,1.059842,-0.0001225369,1.37066
738.9468,0.04495187,0.0004496489,NaN,-0.3274248,0.00038357,NaN,-0.4447387,-14.49491,NaN,-1.397513,-1.466493,0.4700205,14.11086,NaN,NaN,0.5798108,0.815779,0.8103626,1.043307,-0.0001201289,1.369007
738.962,0.0449518,0.000449754,NaN,-0.3274212,0.0003838828,NaN,-0.4438242,-14.49615,NaN,-1.398102,-1.469897,0.4726253,14.11463,NaN,NaN,0.5802845,0.8146207,0.8103977,1.048315,-0.0001177815,1.37695
738.9768,0.0449518,0.000449754,NaN,-0.3274212,0.0003838828,NaN,-0.4438242,-14.49615,NaN,-1.398102,-1.469897,0.4726253,14.11463,NaN,NaN,0.5802845,0.8146207,0.8103977,1.048315,-0.0001177815,1.37695
738.991,0.04495174,0.0004495384,NaN,-0.3274176,0.0003840869,NaN,-0.4429366,-14.49534,NaN,-1.398665,-1.467045,0.4752323,14.1115,NaN,NaN,0.5806789,0.8153545,0.8104497,1.044129,-0.0001154781,1.370651
739.0066,0.04495167,0.0004491791,NaN,-0.3274141,0.0003844859,NaN,-0.4420727,-14.49534,NaN,-1.399206,-1.464734,0.4778378,14.10904,NaN,NaN,0.5810068,0.8152872,0.8105114,1.040758,-0.000113233,1.369767
739.0215,0.0449516,0.0004486851,NaN,-0.3274107,0.0003848203,NaN,-0.4412279,-14.49555,NaN,-1.399726,-1.464359,0.4804368,14.10866,NaN,NaN,0.581279,0.8150586,0.8105771,1.040215,-0.0001110114,1.369675
739.0366,0.0449516,0.0004486851,NaN,-0.3274107,0.0003848203,NaN,-0.4412279,-14.49555,NaN,-1.399726,-1.464359,0.4804368,14.10866,NaN,NaN,0.581279,0.8150586,0.8105771,1.040215,-0.0001110114,1.369675
739.051,0.04495154,0.000448547,NaN,-0.3274072,0.000384893,NaN,-0.4403982,-14.49687,NaN,-1.400229,-1.471157,0.4830261,14.11604,NaN,NaN,0.5815066,0.8139381,0.8106463,1.050175,-0.0001088236,1.380266
739.0667,0.04495147,0.000448452,NaN,-0.3274039,0.0003849501,NaN,-0.4395819,-14.49642,NaN,-1.400718,-1.470658,0.4856022,14.11545,NaN,NaN,0.5816958,0.8143648,0.810718,1.049432,-0.000106669,1.376135
739.0814,0.0449514,0.0004485292,NaN,-0.3274005,0.0003844767,NaN,-0.4387788,-14.49697,NaN,-1.401193,-1.477443,0.4881636,14.1227,NaN,NaN,0.58185,0.8139486,0.8107924,1.05933,-0.0001045732,1.38232
739.0966,0.0449514,0.0004485292,NaN,-0.3274005,0.0003844767,NaN,-0.4387788,-14.49697,NaN,-1.401193,-1.477443,0.4881636,14.1227,NaN,NaN,0.58185,0.8139486,0.8107924,1.05933,-0.0001045732,1.38232
739.1108,0.04495133,0.000448622,NaN,-0.3273972,0.000385038,NaN,-0.4379883,-14.49537,NaN,-1.401655,-1.467379,0.4907097,14.11186,NaN,NaN,0.581973,0.8153836,0.8108697,1.044636,-0.0001025131,1.370701
739.1274,0.04495127,0.0004490716,NaN,-0.327394,0.0003860841,NaN,-0.4372093,-14.49597,NaN,-1.402104,-1.46598,0.4932381,14.11044,NaN,NaN,0.5820688,0.8147467,0.8109484,1.042615,-0.000100498,1.375069
739.1413,0.04495124,0.0004496416,NaN,-0.3273907,0.0003863225,NaN,-0.4352603,-14.4974,NaN,-1.402693,-1.47438,0.4953458,14.11953,NaN,NaN,0.5837069,0.8135414,0.8113694,1.054907,-9.851182E-05,1.384213
739.1562,0.04495124,0.0004496416,NaN,-0.3273907,0.0003863225,NaN,-0.4352603,-14.4974,NaN,-1.402693,-1.47438,0.4953458,14.11953,NaN,NaN,0.5837069,0.8135414,0.8113694,1.054907,-9.851182E-05,1.384213
739.1702,0.04495121,0.0004501797,NaN,-0.3273875,0.0003863073,NaN,-0.4334283,-14.49749,NaN,-1.403731,-1.477102,0.4972551,14.12241,NaN,NaN,0.5856043,0.8134959,0.8119504,1.05887,-9.655872E-05,1.384531
739.1859,0.04495115,0.000450459,NaN,-0.3273844,0.0003864769,NaN,-0.4324214,-14.49588,NaN,-1.404441,-1.473057,0.4992874,14.11795,NaN,NaN,0.5863964,0.8150308,0.8118811,1.052944,-9.465436E-05,1.373592
739.2006,0.04495109,0.000450723,NaN,-0.3273812,0.0003873096,NaN,-0.4315189,-14.49612,NaN,-1.404975,-1.466341,0.5014885,14.11084,NaN,NaN,0.5868641,0.814663,0.8114238,1.043159,-9.281168E-05,1.374171
739.2158,0.04495109,0.000450723,NaN,-0.3273812,0.0003873096,NaN,-0.4315189,-14.49612,NaN,-1.404975,-1.466341,0.5014885,14.11084,NaN,NaN,0.5868641,0.814663,0.8114238,1.043159,-9.281168E-05,1.374171
739.2311,0.04495103,0.0004512476,NaN,-0.3273781,0.0003872728,NaN,-0.4305979,-14.49717,NaN,-1.405468,-1.477127,0.5037785,14.12241,NaN,NaN,0.587177,0.8139003,0.8110862,1.058913,-9.097481E-05,1.382713
739.2457,0.04495097,0.0004515163,NaN,-0.3273751,0.0003876441,NaN,-0.4296597,-14.49592,NaN,-1.405981,-1.470748,0.5060858,14.11551,NaN,NaN,0.5874144,0.8150361,0.8109236,1.049593,-8.919442E-05,1.373595
739.2607,0.04495091,0.0004514857,NaN,-0.327372,0.0003874045,NaN,-0.4287602,-14.49698,NaN,-1.406465,-1.47391,0.5083799,14.11899,NaN,NaN,0.5875157,0.8140495,0.8108405,1.054235,-8.743087E-05,1.37909
739.2756,0.04495091,0.0004514857,NaN,-0.327372,0.0003874045,NaN,-0.4287602,-14.49698,NaN,-1.406465,-1.47391,0.5083799,14.11899,NaN,NaN,0.5875157,0.8140495,0.8108405,1.054235,-8.743087E-05,1.37909
739.2898,0.04495087,0.0004511505,NaN,-0.3273691,0.0003872845,NaN,-0.4284911,-14.49609,NaN,-1.406327,-1.469113,0.5105397,14.1138,NaN,NaN,0.5859194,0.8148438,0.8109049,1.047222,-8.571202E-05,1.375158
739.3056,0.04495086,0.0004503804,NaN,-0.3273661,0.0003871399,NaN,-0.4282264,-14.49586,NaN,-1.406251,-1.465233,0.5128333,14.10965,NaN,NaN,0.5842554,0.814979,0.8114535,1.041559,-8.400837E-05,1.372042
739.3201,0.04495086,0.0004495381,NaN,-0.3273632,0.0003866829,NaN,-0.4279436,-14.49636,NaN,-1.40624,-1.46931,0.5150249,14.11404,NaN,NaN,0.5826424,0.8145851,0.8120106,1.047521,-8.235434E-05,1.375774
739.3362,0.04495086,0.0004495381,NaN,-0.3273632,0.0003866829,NaN,-0.4279436,-14.49636,NaN,-1.40624,-1.46931,0.5150249,14.11404,NaN,NaN,0.5826424,0.8145851,0.8120106,1.047521,-8.235434E-05,1.375774
739.3503,0.04495087,0.0004485908,NaN,-0.3273603,0.0003864928,NaN,-0.4276956,-14.49584,NaN,-1.40622,-1.465352,0.5171283,14.10977,NaN,NaN,0.5810318,0.8150155,0.8124085,1.041736,-8.072981E-05,1.372114
739.365,0.0449509,0.0004475266,NaN,-0.3273574,0.0003862108,NaN,-0.4279453,-14.49596,NaN,-1.405724,-1.465626,0.5188462,14.11007,NaN,NaN,0.5778528,0.8148957,0.8124286,1.042138,-7.913658E-05,1.372919
739.38,0.0449509,0.0004475266,NaN,-0.3273574,0.0003862108,NaN,-0.4279453,-14.49596,NaN,-1.405724,-1.465626,0.5188462,14.11007,NaN,NaN,0.5778528,0.8148957,0.8124286,1.042138,-7.913658E-05,1.372919
739.3942,0.04495093,0.0004470085,NaN,-0.3273546,0.0003856527,NaN,-0.4278576,-14.49736,NaN,-1.405438,-1.474665,0.5201669,14.11984,NaN,NaN,0.5742841,0.8137512,0.8117612,1.055366,-7.758164E-05,1.383679
739.4098,0.04495101,0.0004467017,NaN,-0.3273518,0.0003859694,NaN,-0.4272968,-14.49598,NaN,-1.404841,-1.467074,0.521968,14.11164,NaN,NaN,0.5713239,0.8149824,0.8129488,1.044276,-7.605011E-05,1.373283
739.4246,0.04495114,0.0004459175,NaN,-0.327349,0.0003855358,NaN,-0.4277473,-14.49628,NaN,-1.404146,-1.469734,0.524403,14.1145,NaN,NaN,0.5691427,0.8147537,0.8155628,1.048161,-7.455403E-05,1.376138
739.4395,0.04495114,0.0004459175,NaN,-0.327349,0.0003855358,NaN,-0.4277473,-14.49628,NaN,-1.404146,-1.469734,0.524403,14.1145,NaN,NaN,0.5691427,0.8147537,0.8155628,1.048161,-7.455403E-05,1.376138
739.4538,0.04495129,0.0004458757,NaN,-0.3273462,0.0003862325,NaN,-0.4279087,-14.49646,NaN,-1.40373,-1.465908,0.5254152,14.11046,NaN,NaN,0.5668174,0.8144769,0.8162806,1.042589,-7.309864E-05,1.376845
739.4696,0.04495146,0.000446335,NaN,-0.3273434,0.0003860577,NaN,-0.4279591,-14.49662,NaN,-1.403276,-1.478121,0.5261831,14.12341,NaN,NaN,0.5644913,0.8146408,0.816345,1.060383,-7.167915E-05,1.381692
739.4847,0.04495165,0.0004467192,NaN,-0.3273407,0.0003867722,NaN,-0.4280679,-14.49749,NaN,-1.402743,-1.468643,0.5272561,14.11344,NaN,NaN,0.5624631,0.8136296,0.8170711,1.046584,-7.02558E-05,1.383246
739.4994,0.04495165,0.0004467192,NaN,-0.3273407,0.0003867722,NaN,-0.4280679,-14.49749,NaN,-1.402743,-1.468643,0.5272561,14.11344,NaN,NaN,0.5624631,0.8136296,0.8170711,1.046584,-7.02558E-05,1.383246
739.5139,0.04495189,0.0004468732,NaN,-0.327338,0.0003874394,NaN,-0.4283234,-14.49668,NaN,-1.401852,-1.465562,0.5279735,14.11007,NaN,NaN,0.5595186,0.8143565,0.8179325,1.042068,-6.889174E-05,1.376702
739.5292,0.04495213,0.0004470369,NaN,-0.3273352,0.0003879832,NaN,-0.4288039,-14.49737,NaN,-1.401456,-1.466626,0.5283502,14.11128,NaN,NaN,0.5561604,0.8136889,0.8178695,1.043642,-6.752337E-05,1.381254
739.5452,0.04495238,0.0004473826,NaN,-0.3273326,0.0003884089,NaN,-0.4291407,-14.49777,NaN,-1.40085,-1.469834,0.5287341,14.11472,NaN,NaN,0.5527593,0.813369,0.8178576,1.048324,-6.620834E-05,1.385398
739.5593,0.04495238,0.0004473826,NaN,-0.3273326,0.0003884089,NaN,-0.4291407,-14.49777,NaN,-1.40085,-1.469834,0.5287341,14.11472,NaN,NaN,0.5527593,0.813369,0.8178576,1.048324,-6.620834E-05,1.385398
739.5734,0.04495264,0.000447376,NaN,-0.3273299,0.0003888149,NaN,-0.4295329,-14.49663,NaN,-1.400216,-1.465527,0.5292011,14.11002,NaN,NaN,0.5494645,0.8143963,0.8182878,1.042016,-6.489421E-05,1.374513
739.589,0.04495288,0.0004473543,NaN,-0.3273273,0.000389243,NaN,-0.42958,-14.49733,NaN,-1.400122,-1.465823,0.5300389,14.11041,NaN,NaN,0.5480633,0.8137035,0.8190808,1.042472,-6.363625E-05,1.379709
739.6036,0.04495311,0.0004471081,NaN,-0.3273247,0.000389549,NaN,-0.4297581,-14.49653,NaN,-1.399929,-1.465599,0.530939,14.11006,NaN,NaN,0.5472338,0.8144861,0.8199866,1.042113,-6.237085E-05,1.375657
739.6185,0.04495311,0.0004471081,NaN,-0.3273247,0.000389549,NaN,-0.4297581,-14.49653,NaN,-1.399929,-1.465599,0.530939,14.11006,NaN,NaN,0.5472338,0.8144861,0.8199866,1.042113,-6.237085E-05,1.375657
739.6329,0.04495335,0.0004468953,NaN,-0.3273221,0.0003888142,NaN,-0.4298298,-14.4962,NaN,-1.399752,-1.478292,0.5317355,14.12347,NaN,NaN,0.5469305,0.8151491,0.820782,1.060591,-6.113897E-05,1.376175
739.6483,0.04495361,0.0004472832,NaN,-0.3273196,0.0003890526,NaN,-0.4297148,-14.49828,NaN,-1.399624,-1.473688,0.5325174,14.1188,NaN,NaN,0.5472109,0.8129769,0.8217144,1.05392,-5.992125E-05,1.389838
739.6638,0.04495388,0.000447372,NaN,-0.3273171,0.0003896028,NaN,-0.4292198,-14.49666,NaN,-1.399761,-1.46599,0.5329412,14.11047,NaN,NaN,0.5480205,0.8144177,0.8219353,1.04268,-5.873079E-05,1.375432
739.6786,0.04495388,0.000447372,NaN,-0.3273171,0.0003896028,NaN,-0.4292198,-14.49666,NaN,-1.399761,-1.46599,0.5329412,14.11047,NaN,NaN,0.5480205,0.8144177,0.8219353,1.04268,-5.873079E-05,1.375432
739.6929,0.0449541,0.0004475063,NaN,-0.3273146,0.0003896621,NaN,-0.4291691,-14.498,NaN,-1.400132,-1.472343,0.5332841,14.11737,NaN,NaN,0.548224,0.8132243,0.8210498,1.051984,-5.757268E-05,1.385117
739.7097,0.04495436,0.0004474373,NaN,-0.3273122,0.0003901019,NaN,-0.4284789,-14.49684,NaN,-1.400298,-1.46592,0.5337775,14.11044,NaN,NaN,0.5492058,0.8142313,0.8212177,1.042604,-5.642842E-05,1.376759
739.7235,0.04495457,0.0004478555,NaN,-0.3273098,0.0003898714,NaN,-0.428486,-14.49693,NaN,-1.400818,-1.478014,0.5339945,14.12326,NaN,NaN,0.5491514,0.8144567,0.8199763,1.06022,-5.532051E-05,1.381637
739.7382,0.04495457,0.0004478555,NaN,-0.3273098,0.0003898714,NaN,-0.428486,-14.49693,NaN,-1.400818,-1.478014,0.5339945,14.12326,NaN,NaN,0.5491514,0.8144567,0.8199763,1.06022,-5.532051E-05,1.381637
739.7545,0.04495472,0.0004483258,NaN,-0.3273074,0.0003910654,NaN,-0.4279982,-14.49726,NaN,-1.400725,-1.465952,0.5348083,14.1105,NaN,NaN,0.549834,0.8139418,0.8209354,1.04265,-5.422453E-05,1.379455
739.7682,0.04495477,0.0004487283,NaN,-0.327305,0.0003917172,NaN,-0.4279072,-14.4981,NaN,-1.401266,-1.468364,0.5348288,14.11316,NaN,NaN,0.5495992,0.8131631,0.8194745,1.046193,-5.3167E-05,1.38429
739.7831,0.04495488,0.0004491796,NaN,-0.3273027,0.0003915012,NaN,-0.4277016,-14.49764,NaN,-1.400963,-1.478491,0.5359563,14.1238,NaN,NaN,0.5499525,0.8138561,0.8210229,1.060909,-5.212943E-05,1.38467
739.7979,0.04495488,0.0004491796,NaN,-0.3273027,0.0003915012,NaN,-0.4277016,-14.49764,NaN,-1.400963,-1.478491,0.5359563,14.1238,NaN,NaN,0.5499525,0.8138561,0.8210229,1.060909,-5.212943E-05,1.38467
739.8123,0.04422696,0.0004492979,NaN,-0.3273025,0.0003919187,NaN,-0.4278755,-14.49675,NaN,-1.400474,-1.468131,0.5363728,14.11273,NaN,NaN,0.5491706,0.8145885,0.8203238,1.045803,-5.108873E-05,1.376376
739.8279,0.04304408,0.0004493275,NaN,-0.3273028,0.0003911627,NaN,-0.4280448,-14.49686,NaN,-1.398998,-1.480382,0.537302,14.12571,NaN,NaN,0.548305,0.8147696,0.8209044,1.063651,-5.00768E-05,1.376345
739.843,0.04157993,0.0004495865,NaN,-0.3273031,0.0003906378,NaN,-0.4284298,-14.49764,NaN,-1.397217,-1.477704,0.538609,14.12294,NaN,NaN,0.5477371,0.8139349,0.8228666,1.059756,-4.910002E-05,1.375868
739.858,0.04157993,0.0004495865,NaN,-0.3273031,0.0003906378,NaN,-0.4284298,-14.49764,NaN,-1.397217,-1.477704,0.538609,14.12294,NaN,NaN,0.5477371,0.8139349,0.8228666,1.059756,-4.910002E-05,1.375868
739.8723,0.03994495,0.0004494016,NaN,-0.3273031,0.000390657,NaN,-0.4288679,-14.49676,NaN,-1.395322,-1.466895,0.5399631,14.11139,NaN,NaN,0.5476528,0.8146332,0.8252046,1.043989,-4.814039E-05,1.366593
739.8879,0.03748104,0.0004496551,NaN,-0.3273052,0.0003901209,NaN,-0.4339961,-14.4977,NaN,-1.391072,-1.479592,0.5447215,14.12495,NaN,NaN,0.5443062,0.8140202,0.8307126,1.062515,-4.720028E-05,1.376559
739.903,0.0345059,0.0004499355,NaN,-0.3273076,0.0003903317,NaN,-0.44056,-14.49811,NaN,-1.385875,-1.471848,0.5495766,14.11678,NaN,NaN,0.5395657,0.8135105,0.833769,1.051237,-4.627253E-05,1.376239
739.918,0.0345059,0.0004499355,NaN,-0.3273076,0.0003903317,NaN,-0.44056,-14.49811,NaN,-1.385875,-1.471848,0.5495766,14.11678,NaN,NaN,0.5395657,0.8135105,0.833769,1.051237,-4.627253E-05,1.376239
739.9324,0.03122163,0.0004500459,NaN,-0.3273095,0.0003909153,NaN,-0.4446853,-14.49725,NaN,-1.381138,-1.466178,0.5530828,14.11067,NaN,NaN,0.5371608,0.8142514,0.8338365,1.042951,-4.534881E-05,1.370376
739.9489,0.02775647,0.0004498348,NaN,-0.3273108,0.0003913178,NaN,-0.4445337,-14.49721,NaN,-1.378459,-1.464547,0.5522224,14.10892,NaN,NaN,0.5359994,0.8142493,0.8266475,1.040569,-4.445071E-05,1.368742
739.9631,0.0234637,0.000450326,NaN,-0.3273136,0.000391115,NaN,-0.4458728,-14.49737,NaN,-1.373869,-1.477766,0.5529913,14.12293,NaN,NaN,0.5320457,0.8144628,0.8220793,1.05982,-4.358376E-05,1.374221
739.9779,0.0234637,0.000450326,NaN,-0.3273136,0.000391115,NaN,-0.4458728,-14.49737,NaN,-1.373869,-1.477766,0.5529913,14.12293,NaN,NaN,0.5320457,0.8144628,0.8220793,1.05982,-4.358376E-05,1.374221
739.9921,0.0186682,0.0004500842,NaN,-0.3273163,0.0003909902,NaN,-0.4493129,-14.49637,NaN,-1.367925,-1.467175,0.5554202,14.11159,NaN,NaN,0.5254376,0.8152999,0.8207783,1.044363,-4.27493E-05,1.36727
740.0078,0.01357661,0.0004496205,NaN,-0.3273178,0.0003906669,NaN,-0.45157,-14.49632,NaN,-1.361219,-1.469431,0.5577348,14.11397,NaN,NaN,0.5198662,0.8154098,0.8218395,1.047652,-4.189904E-05,1.366226
740.0228,0.008320093,0.000449728,NaN,-0.3273183,0.0003899116,NaN,-0.4529834,-14.49656,NaN,-1.354835,-1.478757,0.5593393,14.1239,NaN,NaN,0.5159627,0.8153819,0.8239946,1.061262,-4.108327E-05,1.370073
740.0377,0.008320093,0.000449728,NaN,-0.3273183,0.0003899116,NaN,-0.4529834,-14.49656,NaN,-1.354835,-1.478757,0.5593393,14.1239,NaN,NaN,0.5159627,0.8153819,0.8239946,1.061262,-4.108327E-05,1.370073
740.052,0.002253399,0.0004499748,NaN,-0.3273199,0.0003906307,NaN,-0.4566618,-14.49685,NaN,-1.347861,-1.467204,0.5612445,14.11166,NaN,NaN,0.5088632,0.8149229,0.824249,1.044414,-4.027496E-05,1.369114
740.0677,-0.004297522,0.0004502544,NaN,-0.3273208,0.0003913859,NaN,-0.4641786,-14.49652,NaN,-1.338529,-1.466218,0.5657888,14.11056,NaN,NaN,0.4981053,0.8152151,0.8256261,1.042964,-3.948237E-05,1.367126
740.0828,-0.01112558,0.0004501352,NaN,-0.327321,0.0003913169,NaN,-0.4710455,-14.49661,NaN,-1.328806,-1.470966,0.5701225,14.11561,NaN,NaN,0.4878264,0.8152329,0.8255942,1.049889,-3.870698E-05,1.367723
740.0978,-0.01112558,0.0004501352,NaN,-0.327321,0.0003913169,NaN,-0.4710455,-14.49661,NaN,-1.328806,-1.470966,0.5701225,14.11561,NaN,NaN,0.4878264,0.8152329,0.8255942,1.049889,-3.870698E-05,1.367723
740.1123,-0.01882771,0.0004504522,NaN,-0.3273217,0.0003918367,NaN,-0.4684228,-14.49733,NaN,-1.320833,-1.469683,0.5676365,14.11433,NaN,NaN,0.484032,0.8144783,0.8192528,1.048039,-3.794189E-05,1.372792
740.1277,-0.02704741,0.0004509983,NaN,-0.3273216,0.0003915975,NaN,-0.4653546,-14.49706,NaN,-1.312765,-1.479502,0.5649617,14.12469,NaN,NaN,0.4803509,0.814959,0.8162408,1.062334,-3.720391E-05,1.373334
740.1438,-0.03555826,0.0004517273,NaN,-0.3273206,0.0003917363,NaN,-0.463215,-14.49789,NaN,-1.304343,-1.477051,0.5628803,14.12217,NaN,NaN,0.4758072,0.8140836,0.8163326,1.058773,-3.646321E-05,1.377746
740.1576,-0.03555826,0.0004517273,NaN,-0.3273206,0.0003917363,NaN,-0.463215,-14.49789,NaN,-1.304343,-1.477051,0.5628803,14.12217,NaN,NaN,0.4758072,0.8140836,0.8163326,1.058773,-3.646321E-05,1.377746
740.1719,-0.04421661,0.0004518705,NaN,-0.327319,0.0003915741,NaN,-0.4621017,-14.49707,NaN,-1.295552,-1.472486,0.5611311,14.11723,NaN,NaN,0.4701333,0.8148155,0.8169455,1.052103,-3.575458E-05,1.371674
740.1887,-0.05365984,0.0004522685,NaN,-0.3273182,0.0003916086,NaN,-0.4609859,-14.49631,NaN,-1.285742,-1.47486,0.5590427,14.11966,NaN,NaN,0.4634906,0.8156062,0.8160209,1.05554,-3.504544E-05,1.36485
740.2024,-0.06355724,0.0004522015,NaN,-0.3273166,0.0003918185,NaN,-0.4594285,-14.49632,NaN,-1.27527,-1.467422,0.5563929,14.11175,NaN,NaN,0.4561621,0.8154628,0.8136287,1.044688,-3.436001E-05,1.366888
740.2172,-0.06355724,0.0004522015,NaN,-0.3273166,0.0003918185,NaN,-0.4594285,-14.49632,NaN,-1.27527,-1.467422,0.5563929,14.11175,NaN,NaN,0.4561621,0.8154628,0.8136287,1.044688,-3.436001E-05,1.366888
740.2314,-0.07369886,0.000451907,NaN,-0.3273139,0.0003921039,NaN,-0.4572341,-14.49673,NaN,-1.264453,-1.4655,0.5532222,14.10975,NaN,NaN,0.4484197,0.8149976,0.8107047,1.041898,-3.368894E-05,1.367252
740.2471,-0.08395163,0.0004515251,NaN,-0.3273096,0.0003924168,NaN,-0.4544195,-14.4972,NaN,-1.253449,-1.46503,0.5496071,14.10931,NaN,NaN,0.440395,0.814513,0.8080744,1.041229,-3.303837E-05,1.36877
740.2625,-0.09495976,0.0004509646,NaN,-0.3273066,0.000392616,NaN,-0.446995,-14.49703,NaN,-1.243411,-1.464837,0.5418909,14.10908,NaN,NaN,0.4343651,0.8146716,0.8009971,1.040938,-3.239338E-05,1.366707
740.2773,-0.09495976,0.0004509646,NaN,-0.3273066,0.000392616,NaN,-0.446995,-14.49703,NaN,-1.243411,-1.464837,0.5418909,14.10908,NaN,NaN,0.4343651,0.8146716,0.8009971,1.040938,-3.239338E-05,1.366707
740.2916,-0.1063969,0.0004502806,NaN,-0.3273022,0.0003926984,NaN,-0.4372401,-14.49722,NaN,-1.23229,-1.465186,0.5325009,14.10946,NaN,NaN,0.4280249,0.8144853,0.7945073,1.041451,-3.176146E-05,1.367345
740.307,-0.1180559,0.0004498392,NaN,-0.3272958,0.000393126,NaN,-0.4242755,-14.49771,NaN,-1.220985,-1.46451,0.5205298,14.10881,NaN,NaN,0.4230353,0.8139732,0.7862509,1.040484,-3.11314E-05,1.370013
740.3226,-0.1298057,0.0004503266,NaN,-0.3272876,0.0003929495,NaN,-0.4114703,-14.49779,NaN,-1.209547,-1.477649,0.5083984,14.12272,NaN,NaN,0.417838,0.8142606,0.7782965,1.059613,-3.051445E-05,1.374594
740.3371,-0.1298057,0.0004503266,NaN,-0.3272876,0.0003929495,NaN,-0.4114703,-14.49779,NaN,-1.209547,-1.477649,0.5083984,14.12272,NaN,NaN,0.417838,0.8142606,0.7782965,1.059613,-3.051445E-05,1.374594
740.3526,-0.1422915,0.0004503234,NaN,-0.3272802,0.0003932637,NaN,-0.398016,-14.49731,NaN,-1.197218,-1.466011,0.4956788,14.11033,NaN,NaN,0.4124011,0.8145571,0.7695007,1.042647,-2.991699E-05,1.369067
740.3669,-0.1551881,0.000449996,NaN,-0.3272714,0.0003935016,NaN,-0.3839596,-14.49743,NaN,-1.184208,-1.465162,0.4823218,14.10943,NaN,NaN,0.4066103,0.8144073,0.7596558,1.04141,-2.933279E-05,1.367765
740.3818,-0.1682889,0.0004491163,NaN,-0.3272603,0.0003932617,NaN,-0.3694694,-14.49791,NaN,-1.170694,-1.464594,0.4685048,14.10888,NaN,NaN,0.4004387,0.8139073,0.7488823,1.040597,-2.874718E-05,1.370646
740.3967,-0.1682889,0.0004491163,NaN,-0.3272603,0.0003932617,NaN,-0.3694694,-14.49791,NaN,-1.170694,-1.464594,0.4685048,14.10888,NaN,NaN,0.4004387,0.8139073,0.7488823,1.040597,-2.874718E-05,1.370646
740.411,-0.1821915,0.0004478039,NaN,-0.3272497,0.0003926592,NaN,-0.3542563,-14.49838,NaN,-1.156048,-1.464363,0.4541307,14.1087,NaN,NaN,0.3936879,0.8134296,0.7369144,1.040275,-2.819107E-05,1.371285
740.4266,-0.1965403,0.0004471594,NaN,-0.327237,0.0003929815,NaN,-0.3383812,-14.49893,NaN,-1.140562,-1.464622,0.4391298,14.10904,NaN,NaN,0.3863205,0.8128842,0.7237517,1.040672,-2.763868E-05,1.377508
740.4416,-0.2111093,0.0004465172,NaN,-0.3272214,0.0003921639,NaN,-0.3219843,-14.4987,NaN,-1.124508,-1.477113,0.4237,14.12219,NaN,NaN,0.3784969,0.8134566,0.709675,1.058824,-2.709702E-05,1.378618
740.4567,-0.2111093,0.0004465172,NaN,-0.3272214,0.0003921639,NaN,-0.3219843,-14.4987,NaN,-1.124508,-1.477113,0.4237,14.12219,NaN,NaN,0.3784969,0.8134566,0.709675,1.058824,-2.709702E-05,1.378618
740.4709,-0.2257559,0.0004464758,NaN,-0.3272034,0.0003916464,NaN,-0.3055975,-14.50033,NaN,-1.107827,-1.476465,0.408316,14.12168,NaN,NaN,0.3700267,0.8118117,0.6952605,1.057916,-2.655999E-05,1.386953
740.4867,-0.2411181,0.0004466045,NaN,-0.3271861,0.0003916378,NaN,-0.2894159,-14.49877,NaN,-1.09183,-1.471855,0.3934884,14.11664,NaN,NaN,0.3623778,0.8132741,0.6816271,1.051179,-2.603159E-05,1.376551
740.5016,-0.2568659,0.0004463045,NaN,-0.3271668,0.0003917135,NaN,-0.2734206,-14.4988,NaN,-1.07615,-1.465989,0.3788307,14.11043,NaN,NaN,0.3548786,0.8131216,0.668261,1.042643,-2.552078E-05,1.375738
740.5167,-0.2568659,0.0004463045,NaN,-0.3271668,0.0003917135,NaN,-0.2734206,-14.4988,NaN,-1.07615,-1.465989,0.3788307,14.11043,NaN,NaN,0.3548786,0.8131216,0.668261,1.042643,-2.552078E-05,1.375738
740.5309,-0.2727904,0.0004466154,NaN,-0.327145,0.0003912753,NaN,-0.257714,-14.49971,NaN,-1.060917,-1.478197,0.364386,14.12345,NaN,NaN,0.3475264,0.812528,0.655157,1.060434,-2.500758E-05,1.384615
740.5475,-0.2887591,0.000446508,NaN,-0.327121,0.0003912955,NaN,-0.2423222,-14.49877,NaN,-1.046139,-1.467592,0.3501906,14.11214,NaN,NaN,0.3403184,0.8133073,0.6423101,1.044992,-2.451763E-05,1.376722
740.5616,-0.3054169,0.0004460698,NaN,-0.3270978,0.0003911542,NaN,-0.227071,-14.49923,NaN,-1.031343,-1.467391,0.336269,14.11198,NaN,NaN,0.3332516,0.8128382,0.629715,1.044711,-2.403364E-05,1.377024
740.5765,-0.3054169,0.0004460698,NaN,-0.3270978,0.0003911542,NaN,-0.227071,-14.49923,NaN,-1.031343,-1.467391,0.336269,14.11198,NaN,NaN,0.3332516,0.8128382,0.629715,1.044711,-2.403364E-05,1.377024
740.5906,-0.3224384,0.000445802,NaN,-0.3270728,0.00039027,NaN,-0.2120241,-14.49979,NaN,-1.016792,-1.478346,0.3225504,14.12361,NaN,NaN,0.3263233,0.8125551,0.6173668,1.060658,-2.356694E-05,1.381285
740.606,-0.3396172,0.000445665,NaN,-0.3270454,0.0003904444,NaN,-0.1972188,-14.49875,NaN,-1.002573,-1.468079,0.3090394,14.11265,NaN,NaN,0.3195307,0.8134409,0.6052608,1.045702,-2.310798E-05,1.372793
740.6211,-0.3568229,0.0004453179,NaN,-0.3270158,0.0003905302,NaN,-0.1826653,-14.49868,NaN,-0.9887032,-1.466931,0.2957449,14.11141,NaN,NaN,0.3128714,0.8134819,0.5933922,1.044023,-2.265797E-05,1.370321
740.6362,-0.3568229,0.0004453179,NaN,-0.3270158,0.0003905302,NaN,-0.1826653,-14.49868,NaN,-0.9887032,-1.466931,0.2957449,14.11141,NaN,NaN,0.3128714,0.8134819,0.5933922,1.044023,-2.265797E-05,1.370321
740.6503,-0.3747016,0.0004454803,NaN,-0.3269872,0.0003900073,NaN,-0.1681978,-14.49869,NaN,-0.9747351,-1.477924,0.2826762,14.12303,NaN,NaN,0.3063424,0.8137526,0.5817562,1.060018,-2.221332E-05,1.374918
740.6675,-0.3929287,0.0004454373,NaN,-0.3269567,0.0003902167,NaN,-0.1539019,-14.4987,NaN,-0.9609699,-1.467198,0.2697787,14.11167,NaN,NaN,0.2999414,0.8135785,0.5703484,1.044396,-2.177523E-05,1.371719
740.6812,-0.4112985,0.0004452411,NaN,-0.3269237,0.0003902998,NaN,-0.1398265,-14.4992,NaN,-0.9475124,-1.467999,0.257062,14.11257,NaN,NaN,0.2936658,0.8130908,0.5591643,1.045574,-2.134607E-05,1.372853
740.6961,-0.4112985,0.0004452411,NaN,-0.3269237,0.0003902998,NaN,-0.1398265,-14.4992,NaN,-0.9475124,-1.467999,0.257062,14.11257,NaN,NaN,0.2936658,0.8130908,0.5591643,1.045574,-2.134607E-05,1.372853
740.7104,-0.4304092,0.0004453392,NaN,-0.3268911,0.0003907706,NaN,-0.1258206,-14.49948,NaN,-0.9339453,-1.467303,0.2445385,14.11185,NaN,NaN,0.2875131,0.8127912,0.5481995,1.044564,-2.092467E-05,1.376894
740.7263,-0.4499057,0.0004454393,NaN,-0.3268557,0.0003912198,NaN,-0.1119799,-14.49941,NaN,-0.9205824,-1.466952,0.2321707,14.11146,NaN,NaN,0.281481,0.8128502,0.5374497,1.044045,-2.051757E-05,1.375438
740.7419,-0.4695631,0.0004455819,NaN,-0.3268172,0.0003906243,NaN,-0.09835544,-14.49955,NaN,-0.9075314,-1.478863,0.2199719,14.12405,NaN,NaN,0.2755671,0.8130102,0.5269107,1.061368,-2.012E-05,1.377105
740.757,-0.4695631,0.0004455819,NaN,-0.3268172,0.0003906243,NaN,-0.09835544,-14.49955,NaN,-0.9075314,-1.478863,0.2199719,14.12405,NaN,NaN,0.2755671,0.8130102,0.5269107,1.061368,-2.012E-05,1.377105
740.7699,-0.4892391,0.0004449614,NaN,-0.3267762,0.0003900082,NaN,-0.08496302,-14.4987,NaN,-0.8948156,-1.468339,0.2079541,14.11283,NaN,NaN,0.2697693,0.8137025,0.5165783,1.046037,-1.973138E-05,1.372313
740.7857,-0.5095726,0.0004444587,NaN,-0.326736,0.000389447,NaN,-0.07162413,-14.49854,NaN,-0.8819817,-1.471231,0.1961072,14.11587,NaN,NaN,0.2640851,0.8139144,0.5064486,1.050243,-1.934216E-05,1.372154
740.8006,-0.5302343,0.0004442483,NaN,-0.3266936,0.0003897264,NaN,-0.05843269,-14.49905,NaN,-0.8693355,-1.466688,0.1844024,14.11112,NaN,NaN,0.2585122,0.8133019,0.4965174,1.043646,-1.896308E-05,1.374156
740.8156,-0.5302343,0.0004442483,NaN,-0.3266936,0.0003897264,NaN,-0.05843269,-14.49905,NaN,-0.8693355,-1.466688,0.1844024,14.11112,NaN,NaN,0.2585122,0.8133019,0.4965174,1.043646,-1.896308E-05,1.374156
740.83,-0.5510159,0.0004445431,NaN,-0.3266484,0.0003893403,NaN,-0.04543865,-14.49891,NaN,-0.8569841,-1.477428,0.1728504,14.12245,NaN,NaN,0.2530487,0.8137226,0.486781,1.059266,-1.859591E-05,1.375626
740.8457,-0.5717855,0.0004441738,NaN,-0.3266011,0.0003889822,NaN,-0.03265887,-14.49868,NaN,-0.8449523,-1.468282,0.1614614,14.11274,NaN,NaN,0.2476924,0.8137857,0.4772356,1.045943,-1.823352E-05,1.372722
740.861,-0.5931888,0.0004444488,NaN,-0.326555,0.0003893968,NaN,-0.01990441,-14.49882,NaN,-0.8327861,-1.468749,0.150207,14.11325,NaN,NaN,0.242441,0.8136467,0.4678773,1.04663,-1.787708E-05,1.372987
740.8757,-0.5931888,0.0004444488,NaN,-0.326555,0.0003893968,NaN,-0.01990441,-14.49882,NaN,-0.8327861,-1.468749,0.150207,14.11325,NaN,NaN,0.242441,0.8136467,0.4678773,1.04663,-1.787708E-05,1.372987
740.8901,-0.6149009,0.0004449258,NaN,-0.3265069,0.0003901946,NaN,-0.007278666,-14.49885,NaN,-0.8207944,-1.467344,0.1390758,14.11176,NaN,NaN,0.2372926,0.8135724,0.4587025,1.044586,-1.752661E-05,1.373785
740.9058,-0.6367162,0.0004452104,NaN,-0.3264562,0.0003909199,NaN,0.005165856,-14.49892,NaN,-0.8090863,-1.465988,0.1280814,14.11033,NaN,NaN,0.2322453,0.813453,0.4497076,1.042615,-1.718388E-05,1.373938
740.9207,-0.6585048,0.0004455137,NaN,-0.3264036,0.0003909711,NaN,0.01741111,-14.49991,NaN,-0.7976881,-1.473937,0.1172335,14.11886,NaN,NaN,0.227297,0.8126729,0.4408891,1.054221,-1.684652E-05,1.379952
740.936,-0.6585048,0.0004455137,NaN,-0.3264036,0.0003909711,NaN,0.01741111,-14.49991,NaN,-0.7976881,-1.473937,0.1172335,14.11886,NaN,NaN,0.227297,0.8126729,0.4408891,1.054221,-1.684652E-05,1.379952
740.9522,-0.6804063,0.0004459366,NaN,-0.3263506,0.0003904173,NaN,0.02951843,-14.49922,NaN,-0.7864588,-1.480441,0.106519,14.12565,NaN,NaN,0.2224458,0.8134668,0.4322436,1.063661,-1.651452E-05,1.378154
740.9659,-0.7022871,0.0004463458,NaN,-0.3262969,0.0003905246,NaN,0.0414576,-14.49813,NaN,-0.7754824,-1.473655,0.0959386,14.11835,NaN,NaN,0.2176898,0.8144546,0.4237676,1.053761,-1.619385E-05,1.370806
740.9808,-0.7240633,0.0004468852,NaN,-0.3262428,0.0003901958,NaN,0.0532177,-14.49973,NaN,-0.7647819,-1.480133,0.08549454,14.12539,NaN,NaN,0.2130271,0.8129712,0.4154579,1.063239,-1.587675E-05,1.380082
740.9958,-0.7240633,0.0004468852,NaN,-0.3262428,0.0003901958,NaN,0.0532177,-14.49973,NaN,-0.7647819,-1.480133,0.08549454,14.12539,NaN,NaN,0.2130271,0.8129712,0.4154579,1.063239,-1.587675E-05,1.380082
741.0101,-0.7456824,0.000447057,NaN,-0.3261888,0.0003902988,NaN,0.06479845,-14.49844,NaN,-0.7543561,-1.470912,0.07518642,14.1155,NaN,NaN,0.208456,0.8141424,0.4073111,1.049798,-1.556442E-05,1.370804
741.0259,-0.7671123,0.0004477431,NaN,-0.3261356,0.0003905488,NaN,0.07620423,-14.49996,NaN,-0.7441961,-1.474972,0.06501172,14.11998,NaN,NaN,0.2039747,0.8127232,0.3993241,1.055758,-1.526163E-05,1.381016
741.0406,-0.7883336,0.0004479031,NaN,-0.3260835,0.0003909697,NaN,0.08744072,-14.49883,NaN,-0.7342913,-1.467503,0.05496692,14.11196,NaN,NaN,0.1995813,0.8137264,0.3914937,1.044866,-1.496241E-05,1.370218
741.056,-0.7883336,0.0004479031,NaN,-0.3260835,0.0003909697,NaN,0.08744072,-14.49883,NaN,-0.7342913,-1.467503,0.05496692,14.11196,NaN,NaN,0.1995813,0.8137264,0.3914937,1.044866,-1.496241E-05,1.370218
741.0703,-0.8093349,0.000448566,NaN,-0.3260329,0.000390716,NaN,0.09851352,-14.49905,NaN,-0.7246317,-1.4798,0.04504831,14.12499,NaN,NaN,0.1952742,0.8138199,0.3838169,1.062771,-1.466678E-05,1.376193
741.0861,-0.8301102,0.0004491055,NaN,-0.3259839,0.0003906129,NaN,0.1094276,-14.50038,NaN,-0.715209,-1.477131,0.0352524,14.12229,NaN,NaN,0.1910517,0.8124616,0.3762906,1.058906,-1.438008E-05,1.381626
741.101,-0.8506564,0.0004493649,NaN,-0.3259368,0.0003906048,NaN,0.1201871,-14.49873,NaN,-0.7060158,-1.473507,0.02557603,14.11828,NaN,NaN,0.1869121,0.8140543,0.3689119,1.053597,-1.409904E-05,1.370515
741.1162,-0.8506564,0.0004493649,NaN,-0.3259368,0.0003906048,NaN,0.1201871,-14.49873,NaN,-0.7060158,-1.473507,0.02557603,14.11828,NaN,NaN,0.1869121,0.8140543,0.3689119,1.053597,-1.409904E-05,1.370515
741.1304,-0.8709726,0.0004495564,NaN,-0.3258916,0.0003912202,NaN,0.1307958,-14.49916,NaN,-0.6970459,-1.467059,0.0160164,14.11149,NaN,NaN,0.1828539,0.8134986,0.3616779,1.044217,-1.382248E-05,1.372205
741.1484,-0.8910594,0.0004500724,NaN,-0.3258483,0.0003913488,NaN,0.1412568,-14.50047,NaN,-0.6882938,-1.474858,0.006571013,14.1199,NaN,NaN,0.1788753,0.8124008,0.3545858,1.055612,-1.355038E-05,1.381528
741.1613,-0.9109179,0.0004498806,NaN,-0.3258069,0.0003913262,NaN,0.1515729,-14.49942,NaN,-0.6797544,-1.467192,-0.002762324,14.11169,NaN,NaN,0.1749749,0.8133084,0.3476327,1.044439,-1.328484E-05,1.373659
741.1761,-0.9109179,0.0004498806,NaN,-0.3258069,0.0003913262,NaN,0.1515729,-14.49942,NaN,-0.6797544,-1.467192,-0.002762324,14.11169,NaN,NaN,0.1749749,0.8133084,0.3476327,1.044439,-1.328484E-05,1.373659
741.1903,-0.9305497,0.0004500045,NaN,-0.3257674,0.0003916133,NaN,0.1617466,-14.49932,NaN,-0.6714232,-1.469062,-0.01198561,14.11365,NaN,NaN,0.1711511,0.8134581,0.340816,1.047159,-1.302467E-05,1.373285
741.2059,-0.9499571,0.0004499953,NaN,-0.3257298,0.0003912372,NaN,0.1717802,-14.50053,NaN,-0.6632957,-1.47453,-0.02110066,14.11958,NaN,NaN,0.1674024,0.8123879,0.334133,1.055158,-1.276956E-05,1.379845
741.2208,-0.9691421,0.0004501681,NaN,-0.3256941,0.0003903685,NaN,0.1816758,-14.4999,NaN,-0.6553679,-1.480044,-0.03010909,14.12532,NaN,NaN,0.1637274,0.8131034,0.327581,1.063158,-1.252101E-05,1.376843
741.236,-0.9691421,0.0004501681,NaN,-0.3256941,0.0003903685,NaN,0.1816758,-14.4999,NaN,-0.6553679,-1.480044,-0.03010909,14.12532,NaN,NaN,0.1637274,0.8131034,0.327581,1.063158,-1.252101E-05,1.376843
741.2504,-0.9881071,0.0004501642,NaN,-0.3256602,0.0003897403,NaN,0.1914356,-14.49922,NaN,-0.6476357,-1.474496,-0.03901244,14.11937,NaN,NaN,0.1601246,0.8137038,0.3211575,1.055067,-1.227618E-05,1.371129
741.2661,-1.006855,0.0004502786,NaN,-0.325628,0.0003901094,NaN,0.2010613,-14.49929,NaN,-0.6400952,-1.468006,-0.04781214,14.1125,NaN,NaN,0.1565926,0.8135099,0.31486,1.045615,-1.203776E-05,1.370887
741.2813,-1.025387,0.0004501639,NaN,-0.3255976,0.0003904223,NaN,0.2105549,-14.49936,NaN,-0.6327426,-1.466111,-0.05650952,14.1105,NaN,NaN,0.15313,0.8133844,0.308686,1.042855,-1.180247E-05,1.36693
741.2964,-1.025387,0.0004501639,NaN,-0.3255976,0.0003904223,NaN,0.2105549,-14.49936,NaN,-0.6327426,-1.466111,-0.05650952,14.1105,NaN,NaN,0.15313,0.8133844,0.308686,1.042855,-1.180247E-05,1.36693
741.3105,-1.043706,0.0004505826,NaN,-0.3255688,0.0003901993,NaN,0.219918,-14.49912,NaN,-0.6255742,-1.477305,-0.0651058,14.12229,NaN,NaN,0.1497355,0.8139183,0.3026331,1.05913,-1.156942E-05,1.372682
741.3261,-1.061815,0.0004512157,NaN,-0.3255417,0.0003910689,NaN,0.2291524,-14.50045,NaN,-0.6185862,-1.469637,-0.07360211,14.11431,NaN,NaN,0.1464077,0.8124647,0.2966989,1.047988,-1.134225E-05,1.380305
741.3421,-1.079716,0.0004518195,NaN,-0.3255162,0.0003910188,NaN,0.2382596,-14.50005,NaN,-0.6117752,-1.478055,-0.08199953,14.12313,NaN,NaN,0.1431454,0.8130449,0.290881,1.06021,-1.111944E-05,1.376169
741.356,-1.079716,0.0004518195,NaN,-0.3255162,0.0003910188,NaN,0.2382596,-14.50005,NaN,-0.6117752,-1.478055,-0.08199953,14.12313,NaN,NaN,0.1431454,0.8130449,0.290881,1.06021,-1.111944E-05,1.376169
741.37,-1.097411,0.0004518752,NaN,-0.3254921,0.0003912095,NaN,0.2472411,-14.49923,NaN,-0.6051376,-1.469415,-0.09029902,14.1139,NaN,NaN,0.1399471,0.8137132,0.2851773,1.047618,-1.090352E-05,1.369516
741.386,-1.114903,0.0004515274,NaN,-0.3254696,0.0003914415,NaN,0.2560984,-14.4992,NaN,-0.5986698,-1.46562,-0.0985015,14.10988,NaN,NaN,0.1368118,0.8136533,0.2795854,1.042091,-1.06913E-05,1.367103
741.4008,-1.132194,0.0004513711,NaN,-0.3254485,0.0003919681,NaN,0.2648329,-14.49973,NaN,-0.5923684,-1.464801,-0.1066078,14.10907,NaN,NaN,0.1337381,0.8130898,0.2741031,1.040918,-1.048135E-05,1.371058
741.4158,-1.132194,0.0004513711,NaN,-0.3254485,0.0003919681,NaN,0.2648329,-14.49973,NaN,-0.5923684,-1.464801,-0.1066078,14.10907,NaN,NaN,0.1337381,0.8130898,0.2741031,1.040918,-1.048135E-05,1.371058
741.4301,-1.149286,0.000451656,NaN,-0.3254289,0.0003921026,NaN,0.2734459,-14.501,NaN,-0.58623,-1.472791,-0.1146187,14.11768,NaN,NaN,0.1307248,0.8120542,0.2687284,1.052588,-1.027877E-05,1.380157
741.446,-1.166182,0.0004523858,NaN,-0.3254105,0.000392011,NaN,0.2819386,-14.50049,NaN,-0.5802514,-1.478776,-0.122535,14.12392,NaN,NaN,0.1277708,0.8126712,0.263459,1.06127,-1.007998E-05,1.378687
741.461,-1.182884,0.0004526865,NaN,-0.3253936,0.0003922077,NaN,0.2903122,-14.4993,NaN,-0.5744292,-1.471911,-0.1303573,14.11653,NaN,NaN,0.1248749,0.8137573,0.258293,1.051257,-9.883139E-06,1.370594
741.4761,-1.182884,0.0004526865,NaN,-0.3253936,0.0003922077,NaN,0.2903122,-14.4993,NaN,-0.5744292,-1.471911,-0.1303573,14.11653,NaN,NaN,0.1248749,0.8137573,0.258293,1.051257,-9.883139E-06,1.370594
741.4905,-1.199394,0.0004527128,NaN,-0.3253778,0.0003927698,NaN,0.2985679,-14.49974,NaN,-0.5687601,-1.465439,-0.1380861,14.10973,NaN,NaN,0.122036,0.8131735,0.2532283,1.041844,-9.691957E-06,1.370842
741.506,-1.215714,0.0004527743,NaN,-0.3253633,0.0003934183,NaN,0.3067067,-14.50014,NaN,-0.5632411,-1.464674,-0.1457222,14.10896,NaN,NaN,0.1192529,0.8127555,0.2482629,1.040739,-9.499434E-06,1.3737
741.5209,-1.231846,0.0004529129,NaN,-0.32535,0.0003937506,NaN,0.3147297,-14.50107,NaN,-0.5578689,-1.468714,-0.1532659,14.11334,NaN,NaN,0.1165246,0.8119487,0.2433949,1.046647,-9.313169E-06,1.378283
741.536,-1.231846,0.0004529129,NaN,-0.32535,0.0003937506,NaN,0.3147297,-14.50107,NaN,-0.5578689,-1.468714,-0.1532659,14.11334,NaN,NaN,0.1165246,0.8119487,0.2433949,1.046647,-9.313169E-06,1.378283
741.5504,-1.247572,0.0004529454,NaN,-0.3253372,0.0003943178,NaN,0.322521,-14.50008,NaN,-0.552772,-1.465118,-0.1606361,14.10941,NaN,NaN,0.1138499,0.8128445,0.2386223,1.041384,-9.132567E-06,1.373341
741.5657,-1.262977,0.0004530745,NaN,-0.3253258,0.0003950848,NaN,0.3301608,-14.50019,NaN,-0.5478534,-1.464318,-0.167889,14.10857,NaN,NaN,0.1112278,0.8127071,0.2339434,1.040222,-8.953753E-06,1.375867
741.5807,-1.278115,0.0004527229,NaN,-0.3253161,0.000395381,NaN,0.3376814,-14.49994,NaN,-0.5430731,-1.463983,-0.1750469,14.10818,NaN,NaN,0.1086572,0.8129478,0.2293562,1.039721,-8.778814E-06,1.368283
741.5958,-1.278115,0.0004527229,NaN,-0.3253161,0.000395381,NaN,0.3376814,-14.49994,NaN,-0.5430731,-1.463983,-0.1750469,14.10818,NaN,NaN,0.1086572,0.8129478,0.2293562,1.039721,-8.778814E-06,1.368283
741.6102,-1.292295,0.0004532035,NaN,-0.3253056,0.0003953199,NaN,0.3446878,-14.50103,NaN,-0.5388462,-1.475915,-0.1818247,14.12092,NaN,NaN,0.1061371,0.8122063,0.2248589,1.057116,-8.606557E-06,1.377954
741.6272,-1.305812,0.0004533534,NaN,-0.3252976,0.000395875,NaN,0.3514616,-14.49988,NaN,-0.53486,-1.46656,-0.1884264,14.11091,NaN,NaN,0.1036664,0.8131917,0.2204499,1.043489,-8.437875E-06,1.368814
741.6411,-1.318855,0.0004529197,NaN,-0.3252927,0.0003958628,NaN,0.3581122,-14.50043,NaN,-0.5309917,-1.466379,-0.1949305,14.11079,NaN,NaN,0.1012443,0.8126398,0.2161273,1.043245,-8.27277E-06,1.372193
741.6559,-1.318855,0.0004529197,NaN,-0.3252927,0.0003958628,NaN,0.3581122,-14.50043,NaN,-0.5309917,-1.466379,-0.1949305,14.11079,NaN,NaN,0.1012443,0.8126398,0.2161273,1.043245,-8.27277E-06,1.372193
741.6701,-1.331547,0.0004530126,NaN,-0.3252907,0.0003956129,NaN,0.3646762,-14.50119,NaN,-0.5272007,-1.474976,-0.2013617,14.11996,NaN,NaN,0.0988699,0.8121135,0.2118894,1.055771,-8.11005E-06,1.379651
741.6859,-1.343237,0.000453275,NaN,-0.325289,0.0003960369,NaN,0.370728,-14.50106,NaN,-0.5239052,-1.469831,-0.2074023,14.11451,NaN,NaN,0.09654193,0.8121474,0.2077347,1.048288,-7.950905E-06,1.377005
741.7009,-1.354247,0.0004537511,NaN,-0.3252888,0.0003957869,NaN,0.3765628,-14.50003,NaN,-0.5208033,-1.478815,-0.2132726,14.12385,NaN,NaN,0.09425965,0.8133689,0.2036615,1.061307,-7.797125E-06,1.373966
741.7159,-1.354247,0.0004537511,NaN,-0.3252888,0.0003957869,NaN,0.3765628,-14.50003,NaN,-0.5208033,-1.478815,-0.2132726,14.12385,NaN,NaN,0.09425965,0.8133689,0.2036615,1.061307,-7.797125E-06,1.373966
741.7312,-1.364784,0.000453928,NaN,-0.32529,0.0003963596,NaN,0.3822916,-14.49963,NaN,-0.5177805,-1.467491,-0.2190539,14.11182,NaN,NaN,0.09202223,0.8136016,0.1996681,1.044817,-7.644538E-06,1.368036
741.7459,-1.374978,0.0004544258,NaN,-0.3252922,0.0003961756,NaN,0.3879488,-14.50059,NaN,-0.5148019,-1.478417,-0.2247703,14.12349,NaN,NaN,0.08982881,0.812914,0.195753,1.060751,-7.49493E-06,1.376449
741.7609,-1.384188,0.000454664,NaN,-0.3252938,0.0003962935,NaN,0.3930844,-14.50065,NaN,-0.5122868,-1.471975,-0.2300788,14.11668,NaN,NaN,0.08767822,0.8127495,0.1919147,1.051376,-7.34711E-06,1.372309
741.7758,-1.384188,0.000454664,NaN,-0.3252938,0.0003962935,NaN,0.3930844,-14.50065,NaN,-0.5122868,-1.471975,-0.2300788,14.11668,NaN,NaN,0.08767822,0.8127495,0.1919147,1.051376,-7.34711E-06,1.372309
741.79,-1.392738,0.0004550865,NaN,-0.3252965,0.0003964878,NaN,0.39801,-14.50127,NaN,-0.5099392,-1.47382,-0.2352178,14.11869,NaN,NaN,0.08556982,0.812156,0.1881517,1.054071,-7.202867E-06,1.38024
741.8057,-1.400839,0.0004554981,NaN,-0.325301,0.0003974671,NaN,0.402842,-14.50058,NaN,-0.5076477,-1.466402,-0.2402756,14.11077,NaN,NaN,0.08350284,0.8127032,0.1844625,1.043265,-7.05922E-06,1.378393
741.8207,-1.408623,0.0004561871,NaN,-0.3253078,0.0003974283,NaN,0.4076155,-14.50026,NaN,-0.5053792,-1.477814,-0.2452777,14.12277,NaN,NaN,0.08147649,0.8133131,0.1808456,1.059842,-6.920341E-06,1.374514
741.8358,-1.408623,0.0004561871,NaN,-0.3253078,0.0003974283,NaN,0.4076155,-14.50026,NaN,-0.5053792,-1.477814,-0.2452777,14.12277,NaN,NaN,0.08147649,0.8133131,0.1808456,1.059842,-6.920341E-06,1.374514
741.8501,-1.415447,0.0004562663,NaN,-0.3253143,0.0003978073,NaN,0.411858,-14.49987,NaN,-0.5035507,-1.466978,-0.2498566,14.11126,NaN,NaN,0.07948963,0.8135273,0.1772996,1.044061,-6.784442E-06,1.366469
741.8657,-1.421638,0.00045627,NaN,-0.3253225,0.0003972407,NaN,0.4158974,-14.50044,NaN,-0.5018696,-1.477595,-0.2542683,14.12255,NaN,NaN,0.0775417,0.8132212,0.1738231,1.059527,-6.65212E-06,1.372552
741.8806,-1.427406,0.0004561685,NaN,-0.3253331,0.0003975209,NaN,0.4198542,-14.5002,NaN,-0.5002258,-1.467014,-0.2586059,14.11133,NaN,NaN,0.07563203,0.8133009,0.1704149,1.044119,-6.522182E-06,1.367151
741.8958,-1.427406,0.0004561685,NaN,-0.3253331,0.0003975209,NaN,0.4198542,-14.5002,NaN,-0.5002258,-1.467014,-0.2586059,14.11133,NaN,NaN,0.07563203,0.8133009,0.1704149,1.044119,-6.522182E-06,1.367151
741.91,-1.432154,0.0004567503,NaN,-0.3253435,0.0003972649,NaN,0.4232762,-14.50027,NaN,-0.499005,-1.479013,-0.2625134,14.124,NaN,NaN,0.0737595,0.8135403,0.1670734,1.061573,-6.39582E-06,1.371814
741.9267,-1.436242,0.0004568821,NaN,-0.3253553,0.0003970155,NaN,0.4265113,-14.49989,NaN,-0.4979066,-1.473047,-0.266265,14.11764,NaN,NaN,0.07192366,0.813832,0.1637975,1.052877,-6.269458E-06,1.368182
741.9403,-1.439898,0.0004569252,NaN,-0.325369,0.000397381,NaN,0.429685,-14.50003,NaN,-0.4968204,-1.467682,-0.2699582,14.11197,NaN,NaN,0.07012386,0.8135803,0.1605859,1.045064,-6.147864E-06,1.367565
741.9554,-1.439898,0.0004569252,NaN,-0.325369,0.000397381,NaN,0.429685,-14.50003,NaN,-0.4968204,-1.467682,-0.2699582,14.11197,NaN,NaN,0.07012386,0.8135803,0.1605859,1.045064,-6.147864E-06,1.367565
741.9692,-1.443265,0.0004566173,NaN,-0.3253843,0.0003976611,NaN,0.4328322,-14.50003,NaN,-0.4957156,-1.465434,-0.2736191,14.10958,NaN,NaN,0.06835941,0.8135209,0.1574371,1.041789,-6.027463E-06,1.364514
741.9849,-1.44571,0.0004567709,NaN,-0.3253986,0.0003974771,NaN,0.4354541,-14.50126,NaN,-0.4950078,-1.475135,-0.2768513,14.12,NaN,NaN,0.06662922,0.8125713,0.1543502,1.055951,-5.910638E-06,1.375294
741.9998,-1.44571,0.0004567709,NaN,-0.3253986,0.0003974771,NaN,0.4354541,-14.50126,NaN,-0.4950078,-1.475135,-0.2768513,14.12,NaN,NaN,0.06662922,0.8125713,0.1543502,1.055951,-5.910638E-06,1.375294
742.0142,-1.447563,0.0004560951,NaN,-0.3254132,0.0003970456,NaN,0.4378964,-14.50042,NaN,-0.4944102,-1.466072,-0.2799307,14.11032,NaN,NaN,0.06493289,0.8132483,0.1513238,1.042747,-5.793813E-06,1.365944
742.0298,-1.449037,0.0004554754,NaN,-0.3254285,0.0003964992,NaN,0.4402854,-14.49998,NaN,-0.4938163,-1.470738,-0.2829567,14.11519,NaN,NaN,0.06326985,0.8138059,0.1483567,1.049519,-5.676988E-06,1.367769
742.0448,-1.450265,0.0004551815,NaN,-0.3254445,0.0003959999,NaN,0.4426571,-14.50153,NaN,-0.4931956,-1.473497,-0.285957,14.1183,NaN,NaN,0.06163945,0.8123223,0.1454478,1.053588,-5.566123E-06,1.374045
742.0598,-1.450265,0.0004551815,NaN,-0.3254445,0.0003959999,NaN,0.4426571,-14.50153,NaN,-0.4931956,-1.473497,-0.285957,14.1183,NaN,NaN,0.06163945,0.8123223,0.1454478,1.053588,-5.566123E-06,1.374045
742.074,-1.450606,0.0004543481,NaN,-0.3254587,0.000395484,NaN,0.444505,-14.50023,NaN,-0.492961,-1.466252,-0.2885264,14.11051,NaN,NaN,0.06004066,0.813469,0.1425959,1.043022,-5.458834E-06,1.368419
742.0897,-1.450389,0.0004538383,NaN,-0.3254723,0.0003951463,NaN,0.4461844,-14.49988,NaN,-0.4928255,-1.470058,-0.2909504,14.11448,NaN,NaN,0.05847312,0.8139185,0.1398,1.04855,-5.352738E-06,1.367289
742.1059,-1.44982,0.0004533256,NaN,-0.3254858,0.0003952156,NaN,0.4478244,-14.50039,NaN,-0.4926827,-1.466057,-0.2933319,14.11031,NaN,NaN,0.05693633,0.8133179,0.1370588,1.042745,-5.247834E-06,1.36614
742.1193,-1.44982,0.0004533256,NaN,-0.3254858,0.0003952156,NaN,0.4478244,-14.50039,NaN,-0.4926827,-1.466057,-0.2933319,14.11031,NaN,NaN,0.05693633,0.8133179,0.1370588,1.042745,-5.247834E-06,1.36614
742.1348,-1.448305,0.000452626,NaN,-0.3254969,0.0003952506,NaN,0.4489498,-14.50002,NaN,-0.4929149,-1.464975,-0.2952891,14.10912,NaN,NaN,0.05542929,0.8136512,0.1343715,1.041158,-5.144122E-06,1.362903
742.1494,-1.4462,0.0004524217,NaN,-0.3255069,0.0003958706,NaN,0.44993,-14.5006,NaN,-0.4932268,-1.464385,-0.2971198,14.10857,NaN,NaN,0.0539517,0.8130476,0.1317368,1.040323,-5.043986E-06,1.367043
742.1641,-1.443734,0.0004525288,NaN,-0.3255161,0.0003956943,NaN,0.4508975,-14.50183,NaN,-0.4935105,-1.475585,-0.2989298,14.12057,NaN,NaN,0.0525031,0.812143,0.1291538,1.056664,-4.947427E-06,1.376835
742.1788,-1.443734,0.0004525288,NaN,-0.3255161,0.0003956943,NaN,0.4508975,-14.50183,NaN,-0.4935105,-1.475585,-0.2989298,14.12057,NaN,NaN,0.0525031,0.812143,0.1291538,1.056664,-4.947427E-06,1.376835
742.1932,-1.44105,0.0004528929,NaN,-0.325525,0.000395458,NaN,0.4518882,-14.50219,NaN,-0.4937367,-1.477026,-0.3007472,14.12212,NaN,NaN,0.05108294,0.8118051,0.1266214,1.058767,-4.853251E-06,1.378881
742.2088,-1.437513,0.0004529484,NaN,-0.3255312,0.0003957204,NaN,0.4523878,-14.50033,NaN,-0.4943183,-1.467733,-0.3021577,14.11211,NaN,NaN,0.04969024,0.8135136,0.1241387,1.045223,-4.759076E-06,1.367488
742.2236,-1.433453,0.0004532788,NaN,-0.3255356,0.0003952371,NaN,0.4527546,-14.50133,NaN,-0.4949721,-1.479182,-0.3034507,14.12434,NaN,NaN,0.04832474,0.8127904,0.1217047,1.061916,-4.668477E-06,1.375619
742.2384,-1.433453,0.0004532788,NaN,-0.3255356,0.0003952371,NaN,0.4527546,-14.50133,NaN,-0.4949721,-1.479182,-0.3034507,14.12434,NaN,NaN,0.04832474,0.8127904,0.1217047,1.061916,-4.668477E-06,1.375619
742.2529,-1.429082,0.00045323,NaN,-0.3255388,0.0003955023,NaN,0.4531185,-14.50045,NaN,-0.4955935,-1.46646,-0.3047309,14.1108,NaN,NaN,0.04698602,0.8134991,0.1193184,1.043389,-4.576686E-06,1.367174
742.2684,-1.424533,0.0004527996,NaN,-0.3255413,0.0003957364,NaN,0.4535159,-14.50061,NaN,-0.4961532,-1.464318,-0.3060269,14.10854,NaN,NaN,0.04567359,0.8132818,0.1169788,1.04027,-4.487279E-06,1.366218
742.2836,-1.419163,0.0004529917,NaN,-0.3255419,0.0003953432,NaN,0.4534361,-14.50063,NaN,-0.497063,-1.477138,-0.3069274,14.12208,NaN,NaN,0.0443865,0.8136216,0.1146852,1.058915,-4.400256E-06,1.371288
742.2983,-1.419163,0.0004529917,NaN,-0.3255419,0.0003953432,NaN,0.4534361,-14.50063,NaN,-0.497063,-1.477138,-0.3069274,14.12208,NaN,NaN,0.0443865,0.8136216,0.1146852,1.058915,-4.400256E-06,1.371288
742.3127,-1.413299,0.0004526277,NaN,-0.3255417,0.0003951969,NaN,0.453238,-14.50068,NaN,-0.4980389,-1.466911,-0.3077225,14.11125,NaN,NaN,0.04312455,0.8134118,0.1124365,1.044022,-4.314425E-06,1.3689
742.3282,-1.407149,0.000452264,NaN,-0.3255409,0.0003951427,NaN,0.453052,-14.50138,NaN,-0.4989755,-1.468084,-0.3085176,14.11257,NaN,NaN,0.04188735,0.8127396,0.1102319,1.045747,-4.229787E-06,1.370537
742.3444,-1.400844,0.0004523819,NaN,-0.3255397,0.000394481,NaN,0.4529147,-14.50111,NaN,-0.4998426,-1.478836,-0.3093415,14.12387,NaN,NaN,0.04067445,0.8132653,0.1080706,1.061366,-4.14634E-06,1.373708
742.3581,-1.400844,0.0004523819,NaN,-0.3255397,0.000394481,NaN,0.4529147,-14.50111,NaN,-0.4998426,-1.478836,-0.3093415,14.12387,NaN,NaN,0.04067445,0.8132653,0.1080706,1.061366,-4.14634E-06,1.373708
742.3723,-1.393741,0.0004526909,NaN,-0.3255358,0.0003953839,NaN,0.4523182,-14.50124,NaN,-0.5010517,-1.466707,-0.3097843,14.11105,NaN,NaN,0.03948493,0.8129643,0.1059516,1.04371,-4.06647E-06,1.374221
742.3876,-1.386165,0.0004531099,NaN,-0.32553,0.0003958874,NaN,0.4516198,-14.50142,NaN,-0.5023184,-1.470128,-0.310135,14.11468,NaN,NaN,0.03831865,0.8128713,0.1038742,1.048688,-3.985408E-06,1.373348
742.4025,-1.378323,0.0004536055,NaN,-0.3255227,0.0003960441,NaN,0.4509499,-14.50189,NaN,-0.5035374,-1.474354,-0.3104991,14.11919,NaN,NaN,0.03717524,0.8124942,0.1018375,1.054846,-3.910306E-06,1.376554
742.4174,-1.378323,0.0004536055,NaN,-0.3255227,0.0003960441,NaN,0.4509499,-14.50189,NaN,-0.5035374,-1.474354,-0.3104991,14.11919,NaN,NaN,0.03717524,0.8124942,0.1018375,1.054846,-3.910306E-06,1.376554
742.4318,-1.369619,0.0004537349,NaN,-0.3255121,0.0003964518,NaN,0.449841,-14.50054,NaN,-0.5050911,-1.468218,-0.3104995,14.11255,NaN,NaN,0.03605388,0.8137253,0.09984074,1.045886,-3.836396E-06,1.367923
742.4474,-1.360408,0.0004535372,NaN,-0.3254988,0.000396757,NaN,0.4486582,-14.50025,NaN,-0.5066858,-1.466189,-0.3104314,14.11036,NaN,NaN,0.03495442,0.8139554,0.09788314,1.042921,-3.758314E-06,1.364174
742.4623,-1.350918,0.000453368,NaN,-0.3254836,0.0003970908,NaN,0.4475322,-14.50087,NaN,-0.5082148,-1.466834,-0.3104001,14.11112,NaN,NaN,0.03387656,0.8133597,0.09596392,1.043884,-3.683212E-06,1.367667
742.4774,-1.350918,0.000453368,NaN,-0.3254836,0.0003970908,NaN,0.4475322,-14.50087,NaN,-0.5082148,-1.466834,-0.3104001,14.11112,NaN,NaN,0.03387656,0.8133597,0.09596392,1.043884,-3.683212E-06,1.367667
742.4915,-1.341291,0.0004527609,NaN,-0.3254669,0.0003970905,NaN,0.4464963,-14.49989,NaN,-0.5096499,-1.465198,-0.3104326,14.10925,NaN,NaN,0.03281989,0.8142918,0.09408233,1.041466,-3.609302E-06,1.362745
742.5071,-1.330891,0.0004524575,NaN,-0.3254471,0.0003963658,NaN,0.4450525,-14.50111,NaN,-0.5114054,-1.477316,-0.3101279,14.12225,NaN,NaN,0.03178358,0.8134112,0.09223763,1.059165,-3.539565E-06,1.373594
742.5222,-1.320047,0.0004521848,NaN,-0.3254246,0.0003965033,NaN,0.4435467,-14.4998,NaN,-0.5131986,-1.467442,-0.3097644,14.11166,NaN,NaN,0.03076752,0.814558,0.0904291,1.044764,-3.473404E-06,1.363295
742.5369,-1.320047,0.0004521848,NaN,-0.3254246,0.0003965033,NaN,0.4435467,-14.4998,NaN,-0.5131986,-1.467442,-0.3097644,14.11166,NaN,NaN,0.03076752,0.814558,0.0904291,1.044764,-3.473404E-06,1.363295
742.5533,-1.308971,0.0004520639,NaN,-0.3254002,0.0003959141,NaN,0.4421039,-14.5013,NaN,-0.5149255,-1.476931,-0.3094431,14.1219,NaN,NaN,0.02977141,0.8133116,0.08865603,1.058641,-3.40605E-06,1.374565
742.5668,-1.297793,0.000452264,NaN,-0.3253744,0.0003952297,NaN,0.4407573,-14.50136,NaN,-0.5165577,-1.478294,-0.3091905,14.12334,NaN,NaN,0.02879488,0.8132664,0.08691773,1.060623,-3.341081E-06,1.375167
742.583,-1.285872,0.0004525954,NaN,-0.3253455,0.0003945461,NaN,0.4390196,-14.50133,NaN,-0.5185096,-1.478352,-0.3086157,14.12339,NaN,NaN,0.02783717,0.8132883,0.0852135,1.060703,-3.277304E-06,1.374541
742.5964,-1.285872,0.0004525954,NaN,-0.3253455,0.0003945461,NaN,0.4390196,-14.50133,NaN,-0.5185096,-1.478352,-0.3086157,14.12339,NaN,NaN,0.02783717,0.8132883,0.0852135,1.060703,-3.277304E-06,1.374541
742.6105,-1.273532,0.0004526155,NaN,-0.3253138,0.0003945521,NaN,0.4372312,-14.49969,NaN,-0.5204964,-1.467958,-0.3079916,14.11221,NaN,NaN,0.02689818,0.8147656,0.0835427,1.045539,-3.208163E-06,1.363819
742.6262,-1.26098,0.0004530364,NaN,-0.3252802,0.000393955,NaN,0.4355161,-14.49995,NaN,-0.5224131,-1.48006,-0.3074178,14.12506,NaN,NaN,0.02597762,0.8147976,0.08190465,1.063173,-3.146174E-06,1.368294
742.6411,-1.248348,0.0004533225,NaN,-0.3252451,0.00039437,NaN,0.4339072,-14.50091,NaN,-0.5242305,-1.469957,-0.306921,14.11442,NaN,NaN,0.02507517,0.813711,0.08029872,1.048453,-3.084185E-06,1.369977
742.6563,-1.248348,0.0004533225,NaN,-0.3252451,0.00039437,NaN,0.4339072,-14.50091,NaN,-0.5242305,-1.469957,-0.306921,14.11442,NaN,NaN,0.02507517,0.813711,0.08029872,1.048453,-3.084185E-06,1.369977
742.6702,-1.23499,0.000453308,NaN,-0.3252071,0.0003946735,NaN,0.4319281,-14.50024,NaN,-0.5263638,-1.46749,-0.3061206,14.11172,NaN,NaN,0.02419011,0.8143091,0.07872428,1.044832,-3.023388E-06,1.364421
742.686,-1.221231,0.000453391,NaN,-0.3251662,0.0003953158,NaN,0.4299121,-14.50081,NaN,-0.5285271,-1.465482,-0.3052821,14.10965,NaN,NaN,0.02332235,0.8136853,0.07718071,1.041921,-2.963188E-06,1.369258
742.701,-1.207278,0.0004529859,NaN,-0.3251233,0.0003955887,NaN,0.4279803,-14.50056,NaN,-0.5306149,-1.464217,-0.3045028,14.10826,NaN,NaN,0.02247164,0.8138946,0.07566741,1.040062,-2.90716E-06,1.363412
742.7159,-1.207278,0.0004529859,NaN,-0.3251233,0.0003955887,NaN,0.4279803,-14.50056,NaN,-0.5306149,-1.464217,-0.3045028,14.10826,NaN,NaN,0.02247164,0.8138946,0.07566741,1.040062,-2.90716E-06,1.363412
742.7302,-1.192532,0.0004535888,NaN,-0.3250766,0.0003954517,NaN,0.4256991,-14.50035,NaN,-0.5330141,-1.477053,-0.3034378,14.12181,NaN,NaN,0.02163732,0.8144668,0.07418378,1.058734,-2.848747E-06,1.366188
742.7456,-1.177351,0.0004540005,NaN,-0.3250264,0.0003962302,NaN,0.4234058,-14.50187,NaN,-0.5354287,-1.467481,-0.3023551,14.11182,NaN,NaN,0.02081932,0.8127887,0.07272924,1.044816,-2.793315E-06,1.373036
742.7617,-1.161958,0.0004542748,NaN,-0.3249736,0.0003971352,NaN,0.4212205,-14.50099,NaN,-0.5377518,-1.464377,-0.3013508,14.10841,NaN,NaN,0.02001741,0.8135743,0.07130322,1.040265,-2.73669E-06,1.366354
742.7755,-1.161958,0.0004542748,NaN,-0.3249736,0.0003971352,NaN,0.4212205,-14.50099,NaN,-0.5377518,-1.464377,-0.3013508,14.10841,NaN,NaN,0.02001741,0.8135743,0.07130322,1.040265,-2.73669E-06,1.366354
742.7897,-1.146497,0.00045391,NaN,-0.324919,0.0003973899,NaN,0.4191721,-14.50076,NaN,-0.5399556,-1.464294,-0.3004485,14.10828,NaN,NaN,0.01923131,0.8137912,0.06990515,1.040131,-2.683344E-06,1.365449
742.8052,-1.13033,0.0004532707,NaN,-0.3248613,0.0003975491,NaN,0.4168028,-14.50085,NaN,-0.5424597,-1.464159,-0.2992857,14.10814,NaN,NaN,0.01846035,0.8136854,0.06853451,1.039936,-2.630892E-06,1.3658
742.8201,-1.113786,0.0004523029,NaN,-0.3248005,0.0003974276,NaN,0.4144276,-14.50075,NaN,-0.5449785,-1.463973,-0.2981104,14.10793,NaN,NaN,0.01770444,0.8137695,0.06719073,1.039659,-2.580228E-06,1.365906
742.8351,-1.113786,0.0004523029,NaN,-0.3248005,0.0003974276,NaN,0.4144276,-14.50075,NaN,-0.5449785,-1.463973,-0.2981104,14.10793,NaN,NaN,0.01770444,0.8137695,0.06719073,1.039659,-2.580228E-06,1.365906
742.8494,-1.097074,0.0004512744,NaN,-0.3247373,0.0003965106,NaN,0.4121603,-14.50144,NaN,-0.5474075,-1.473733,-0.2970132,14.11834,NaN,NaN,0.0169634,0.813363,0.0658733,1.053892,-2.529266E-06,1.372429
742.8651,-1.080327,0.0004502654,NaN,-0.3246728,0.0003962861,NaN,0.4100295,-14.50078,NaN,-0.5497187,-1.465138,-0.2960171,14.10917,NaN,NaN,0.01623697,0.813842,0.06458171,1.041363,-2.479347E-06,1.366668
742.8802,-1.062899,0.0004498571,NaN,-0.3246054,0.0003964003,NaN,0.407591,-14.50202,NaN,-0.5523322,-1.468801,-0.2947727,14.1132,NaN,NaN,0.01552454,0.8126928,0.06331544,1.04674,-2.429875E-06,1.374341
742.8952,-1.062899,0.0004498571,NaN,-0.3246054,0.0003964003,NaN,0.407591,-14.50202,NaN,-0.5523322,-1.468801,-0.2947727,14.1132,NaN,NaN,0.01552454,0.8126928,0.06331544,1.04674,-2.429875E-06,1.374341
742.9095,-1.045117,0.0004501334,NaN,-0.3245352,0.000395935,NaN,0.4051526,-14.50123,NaN,-0.5549598,-1.479295,-0.2935203,14.12417,NaN,NaN,0.01482607,0.8137246,0.06207399,1.061969,-2.381893E-06,1.373641
742.9252,-1.027186,0.000450665,NaN,-0.3244627,0.0003953004,NaN,0.4028257,-14.50143,NaN,-0.5574958,-1.480773,-0.2923483,14.12575,NaN,NaN,0.01414136,0.8135225,0.06085689,1.064122,-2.335402E-06,1.374603
742.9401,-1.009236,0.0004504081,NaN,-0.324389,0.0003948704,NaN,0.4006388,-14.50041,NaN,-0.5599115,-1.468855,-0.2912796,14.11303,NaN,NaN,0.01347017,0.814369,0.05966365,1.046751,-2.288938E-06,1.36643
742.9551,-1.009236,0.0004504081,NaN,-0.324389,0.0003948704,NaN,0.4006388,-14.50041,NaN,-0.5599115,-1.468855,-0.2912796,14.11303,NaN,NaN,0.01347017,0.814369,0.05966365,1.046751,-2.288938E-06,1.36643
742.9705,-0.990622,0.0004504054,NaN,-0.3243127,0.0003944506,NaN,0.3981609,-14.50046,NaN,-0.5626279,-1.473303,-0.2899775,14.11775,NaN,NaN,0.0128119,0.8144221,0.0584938,1.053237,-2.24349E-06,1.36741
742.985,-0.9716678,0.0004509071,NaN,-0.3242336,0.0003938659,NaN,0.3956909,-14.50091,NaN,-0.5653554,-1.479598,-0.2886734,14.12447,NaN,NaN,0.01216652,0.8140888,0.0573469,1.062424,-2.199084E-06,1.371585
742.9998,-0.9716678,0.0004509071,NaN,-0.3242336,0.0003938659,NaN,0.3956909,-14.50091,NaN,-0.5653554,-1.479598,-0.2886734,14.12447,NaN,NaN,0.01216652,0.8140888,0.0573469,1.062424,-2.199084E-06,1.371585
743.0142,-0.9525791,0.0004513728,NaN,-0.3241524,0.0003936675,NaN,0.3933372,-14.50219,NaN,-0.567988,-1.475688,-0.2874528,14.12046,NaN,NaN,0.01153385,0.812752,0.05622248,1.056751,-2.156467E-06,1.375247
743.0299,-0.9327577,0.0004520838,NaN,-0.3240676,0.0003933179,NaN,0.3907098,-14.50101,NaN,-0.5709181,-1.480033,-0.286013,14.12491,NaN,NaN,0.01091338,0.8139895,0.0551201,1.06304,-2.112062E-06,1.371898
743.045,-0.9125586,0.0004526042,NaN,-0.3239793,0.0003938767,NaN,0.3881103,-14.50017,NaN,-0.573846,-1.470955,-0.2845866,14.11519,NaN,NaN,0.01030506,0.8147035,0.05403934,1.049798,-2.072127E-06,1.36549
743.0613,-0.8922063,0.0004528744,NaN,-0.3238882,0.0003943681,NaN,0.3856454,-14.5004,NaN,-0.5766639,-1.469059,-0.2832579,14.1132,NaN,NaN,0.009708734,0.8144235,0.05297977,1.047041,-2.031595E-06,1.366586
743.0753,-0.8922063,0.0004528744,NaN,-0.3238882,0.0003943681,NaN,0.3856454,-14.5004,NaN,-0.5766639,-1.469059,-0.2832579,14.1132,NaN,NaN,0.009708734,0.8144235,0.05297977,1.047041,-2.031595E-06,1.366586
743.0894,-0.8718428,0.0004525581,NaN,-0.3237955,0.0003945998,NaN,0.3833398,-14.50054,NaN,-0.5793444,-1.465138,-0.282047,14.10906,NaN,NaN,0.009124196,0.8141868,0.05194097,1.04133,-1.987786E-06,1.363001
743.1051,-0.8508297,0.0004524247,NaN,-0.3237001,0.0003950415,NaN,0.3807824,-14.50132,NaN,-0.5823133,-1.465709,-0.2806368,14.10976,NaN,NaN,0.008550928,0.8134183,0.05092255,1.042191,-1.947851E-06,1.367831
743.1201,-0.829496,0.0004526413,NaN,-0.3236017,0.0003951543,NaN,0.3782536,-14.50203,NaN,-0.585281,-1.472418,-0.2792406,14.11694,NaN,NaN,0.007988897,0.8128934,0.04992409,1.051978,-1.907916E-06,1.374296
743.135,-0.829496,0.0004526413,NaN,-0.3236017,0.0003951543,NaN,0.3782536,-14.50203,NaN,-0.585281,-1.472418,-0.2792406,14.11694,NaN,NaN,0.007988897,0.8128934,0.04992409,1.051978,-1.907916E-06,1.374296
743.1495,-0.80805,0.0004526199,NaN,-0.3235011,0.0003955826,NaN,0.3758542,-14.5006,NaN,-0.5881423,-1.466179,-0.2779372,14.11017,NaN,NaN,0.007437941,0.8141796,0.04894521,1.042859,-1.870961E-06,1.363801
743.1653,-0.7866229,0.0004524403,NaN,-0.3233995,0.0003959312,NaN,0.3736081,-14.50099,NaN,-0.5908694,-1.465604,-0.2767463,14.10961,NaN,NaN,0.00689787,0.8137736,0.04798552,1.042035,-1.83341E-06,1.365278
743.1802,-0.7645699,0.0004525587,NaN,-0.3232957,0.0003954121,NaN,0.3711186,-14.5013,NaN,-0.5938883,-1.478276,-0.2753637,14.12305,NaN,NaN,0.006368218,0.813813,0.04704465,1.06049,-1.800032E-06,1.371447
743.1951,-0.7645699,0.0004525587,NaN,-0.3232957,0.0003954121,NaN,0.3711186,-14.5013,NaN,-0.5938883,-1.478276,-0.2753637,14.12305,NaN,NaN,0.006368218,0.813813,0.04704465,1.06049,-1.800032E-06,1.371447
743.2094,-0.7422154,0.0004529244,NaN,-0.3231893,0.0003955736,NaN,0.3686584,-14.50261,NaN,-0.5969071,-1.473489,-0.2739953,14.11811,NaN,NaN,0.005848936,0.8124254,0.04612223,1.053543,-1.762481E-06,1.378088
743.2252,-0.7197649,0.0004525627,NaN,-0.3230809,0.0003954145,NaN,0.3663264,-14.50106,NaN,-0.5998192,-1.467768,-0.2727176,14.11189,NaN,NaN,0.005339903,0.8138556,0.04521789,1.045179,-1.729102E-06,1.367023
743.2401,-0.6973479,0.000451902,NaN,-0.3229718,0.0003949054,NaN,0.3641464,-14.50116,NaN,-0.602596,-1.470306,-0.2715503,14.11458,NaN,NaN,0.004840926,0.8138102,0.04433128,1.048879,-1.695724E-06,1.368863
743.2555,-0.6973479,0.000451902,NaN,-0.3229718,0.0003949054,NaN,0.3641464,-14.50116,NaN,-0.602596,-1.470306,-0.2715503,14.11458,NaN,NaN,0.004840926,0.8138102,0.04433128,1.048879,-1.695724E-06,1.368863
743.2697,-0.6743183,0.0004509072,NaN,-0.3228607,0.0003936942,NaN,0.3617341,-14.50157,NaN,-0.6056646,-1.467267,-0.2702014,14.11141,NaN,NaN,0.004351581,0.8133357,0.04346206,1.044468,-1.659961E-06,1.367153
743.2855,-0.6509997,0.0004502427,NaN,-0.3227472,0.0003924138,NaN,0.3593541,-14.50221,NaN,-0.6087314,-1.475727,-0.2688683,14.12044,NaN,NaN,0.003871819,0.8129106,0.04260987,1.056802,-1.62539E-06,1.37492
743.3006,-0.6275969,0.0004502747,NaN,-0.322632,0.0003924546,NaN,0.3571024,-14.50078,NaN,-0.6116896,-1.470286,-0.2676252,14.11452,NaN,NaN,0.003401522,0.8142241,0.0417744,1.048849,-1.593203E-06,1.364609
743.3158,-0.6275969,0.0004502747,NaN,-0.322632,0.0003924546,NaN,0.3571024,-14.50078,NaN,-0.6116896,-1.470286,-0.2676252,14.11452,NaN,NaN,0.003401522,0.8142241,0.0417744,1.048849,-1.593203E-06,1.364609
743.33,-0.6036836,0.0004507549,NaN,-0.3225143,0.0003921266,NaN,0.3547192,-14.50156,NaN,-0.6148362,-1.478579,-0.266277,14.12339,NaN,NaN,0.002940351,0.8136215,0.04095531,1.060952,-1.565785E-06,1.374097
743.3469,-0.5795494,0.0004511015,NaN,-0.3223942,0.0003930694,NaN,0.3399358,-14.50114,NaN,-0.6331041,-1.466176,-0.2552957,14.11022,NaN,NaN,0.01603095,0.8138499,0.04251973,1.042883,-1.540751E-06,1.369942
743.3608,-0.5553775,0.0004514114,NaN,-0.3222726,0.0003929962,NaN,0.3092955,-14.50209,NaN,-0.6717532,-1.476212,-0.2324203,14.12096,NaN,NaN,0.04535563,0.8131618,0.04715729,1.057528,-1.499028E-06,1.373878
743.3758,-0.5553775,0.0004514114,NaN,-0.3222726,0.0003929962,NaN,0.3092955,-14.50209,NaN,-0.6717532,-1.476212,-0.2324203,14.12096,NaN,NaN,0.04535563,0.8131618,0.04715729,1.057528,-1.499028E-06,1.373878
743.3904,-0.5312831,0.0004515941,NaN,-0.3221507,0.0003936452,NaN,0.282829,-14.50104,NaN,-0.709096,-1.467499,-0.2134428,14.11162,NaN,NaN,0.07070403,0.8140435,0.05095289,1.044822,-1.468034E-06,1.369428
743.406,-0.5073381,0.0004519106,NaN,-0.3220299,0.0003932939,NaN,0.2587121,-14.50152,NaN,-0.746652,-1.478773,-0.1966531,14.12361,NaN,NaN,0.09538697,0.8138462,0.05469476,1.061253,-1.437039E-06,1.373006
743.421,-0.4835874,0.0004522708,NaN,-0.321911,0.0003935504,NaN,0.2369647,-14.50061,NaN,-0.7836747,-1.473312,-0.1819214,14.11771,NaN,NaN,0.1192624,0.8146513,0.05845317,1.053275,-1.404257E-06,1.36696
743.436,-0.4835874,0.0004522708,NaN,-0.321911,0.0003935504,NaN,0.2369647,-14.50061,NaN,-0.7836747,-1.473312,-0.1819214,14.11771,NaN,NaN,0.1192624,0.8146513,0.05845317,1.053275,-1.404257E-06,1.36696
743.4507,-0.4600583,0.0004525716,NaN,-0.3217951,0.0003935884,NaN,0.2171961,-14.50226,NaN,-0.8201088,-1.474585,-0.1688604,14.11925,NaN,NaN,0.1425329,0.8130081,0.06231373,1.055172,-1.371474E-06,1.37433
743.4662,-0.4367672,0.0004526802,NaN,-0.3216828,0.0003941328,NaN,0.1991306,-14.50139,NaN,-0.8558637,-1.467083,-0.157202,14.11121,NaN,NaN,0.1652153,0.8137174,0.06630033,1.044231,-1.342864E-06,1.369261
743.4819,-0.4137233,0.0004528951,NaN,-0.3215744,0.0003936923,NaN,0.1825308,-14.50186,NaN,-0.8909004,-1.478759,-0.146726,14.12361,NaN,NaN,0.1873221,0.8135421,0.07042214,1.061238,-1.313062E-06,1.374199
743.4967,-0.4137233,0.0004528951,NaN,-0.3215744,0.0003936923,NaN,0.1825308,-14.50186,NaN,-0.8909004,-1.478759,-0.146726,14.12361,NaN,NaN,0.1873221,0.8135421,0.07042214,1.061238,-1.313062E-06,1.374199
743.511,-0.3909315,0.0004532534,NaN,-0.3214704,0.0003928863,NaN,0.1672017,-14.5023,NaN,-0.9251975,-1.481495,-0.1372551,14.12654,NaN,NaN,0.2088592,0.8131301,0.07468014,1.065227,-1.285048E-06,1.376392
743.5278,-0.3683938,0.0004535887,NaN,-0.3213708,0.0003936647,NaN,0.1529822,-14.50116,NaN,-0.958745,-1.467473,-0.1286454,14.11159,NaN,NaN,0.2298326,0.8141007,0.07907137,1.044797,-1.263292E-06,1.367249
743.5439,-0.3461103,0.0004539141,NaN,-0.3212759,0.0003937791,NaN,0.1397371,-14.50128,NaN,-0.9915425,-1.473879,-0.1207775,14.11841,NaN,NaN,0.2502518,0.8141341,0.08359149,1.054145,-1.231403E-06,1.368472
743.5571,-0.3461103,0.0004539141,NaN,-0.3212759,0.0003937791,NaN,0.1397371,-14.50128,NaN,-0.9915425,-1.473879,-0.1207775,14.11841,NaN,NaN,0.2502518,0.8141341,0.08359149,1.054145,-1.231403E-06,1.368472
743.5712,-0.3240801,0.0004539993,NaN,-0.3211855,0.0003942882,NaN,0.1273546,-14.50139,NaN,-1.023591,-1.467131,-0.1135536,14.11128,NaN,NaN,0.2701247,0.8138887,0.0882345,1.04433,-1.205773E-06,1.368174
743.5869,-0.3023016,0.0004540308,NaN,-0.3210998,0.0003946369,NaN,0.1157408,-14.50186,NaN,-1.054893,-1.46779,-0.1068922,14.11205,NaN,NaN,0.2894593,0.8134302,0.09299375,1.045315,-1.192213E-06,1.368946
743.6021,-0.2807725,0.0004538626,NaN,-0.3210185,0.0003950146,NaN,0.1048135,-14.50165,NaN,-1.08546,-1.465639,-0.1007233,14.10975,NaN,NaN,0.3082697,0.8135764,0.09786341,1.042184,-1.172246E-06,1.367177
743.6171,-0.2807725,0.0004538626,NaN,-0.3210185,0.0003950146,NaN,0.1048135,-14.50165,NaN,-1.08546,-1.465639,-0.1007233,14.10975,NaN,NaN,0.3082697,0.8135764,0.09786341,1.042184,-1.172246E-06,1.367177
743.6319,-0.2658643,0.0004531848,NaN,-0.3209623,0.0003950275,NaN,0.0977021,-14.50125,NaN,-1.106256,-1.464428,-0.09673971,14.10842,NaN,NaN,0.3221235,0.8139301,0.1019914,1.04041,-1.144679E-06,1.363889
743.6474,-0.2551834,0.0004519899,NaN,-0.3209394,0.0003946165,NaN,0.09264754,-14.50157,NaN,-1.121351,-1.464337,-0.09401438,14.10837,NaN,NaN,0.3327032,0.8136073,0.1056234,1.040295,-1.128138E-06,1.365948
743.6627,-0.2472074,0.0004510467,NaN,-0.3209427,0.0003947045,NaN,0.08890451,-14.50173,NaN,-1.132627,-1.464043,-0.09208617,14.10808,NaN,NaN,0.3408139,0.8134363,0.1088362,1.039876,-1.106681E-06,1.366682
743.6779,-0.2472074,0.0004510467,NaN,-0.3209427,0.0003947045,NaN,0.08890451,-14.50173,NaN,-1.132627,-1.464043,-0.09208617,14.10808,NaN,NaN,0.3408139,0.8134363,0.1088362,1.039876,-1.106681E-06,1.366682
743.6921,-0.2409671,0.0004509965,NaN,-0.3209644,0.000394549,NaN,0.08597736,-14.50302,NaN,-1.141469,-1.474741,-0.09063888,14.11956,NaN,NaN,0.347289,0.8124589,0.1117568,1.055496,-1.086713E-06,1.377882
743.709,-0.2358452,0.000450848,NaN,-0.3209994,0.000395039,NaN,0.08357359,-14.50172,NaN,-1.148748,-1.465433,-0.08949143,14.10959,NaN,NaN,0.3526908,0.8135747,0.1144746,1.041931,-1.0736E-06,1.366886
743.723,-0.2314487,0.0004507835,NaN,-0.3210431,0.0003947608,NaN,0.08151314,-14.5031,NaN,-1.155016,-1.47505,-0.08853623,14.11994,NaN,NaN,0.357388,0.8124651,0.1170513,1.055981,-1.045288E-06,1.377146
743.7377,-0.2314487,0.0004507835,NaN,-0.3210431,0.0003947608,NaN,0.08151314,-14.5031,NaN,-1.155016,-1.47505,-0.08853623,14.11994,NaN,NaN,0.357388,0.8124651,0.1170513,1.055981,-1.045288E-06,1.377146
743.7523,-0.2275269,0.0004499713,NaN,-0.3210925,0.0003942367,NaN,0.07968326,-14.50187,NaN,-1.160621,-1.46715,-0.08770811,14.11145,NaN,NaN,0.3616173,0.8135458,0.1195283,1.044463,-1.028301E-06,1.368398
743.768,-0.2239205,0.0004497162,NaN,-0.3211454,0.0003941755,NaN,0.07801139,-14.5016,NaN,-1.165785,-1.470015,-0.08696613,14.11445,NaN,NaN,0.365532,0.8138881,0.1219336,1.048625,-1.007439E-06,1.367575
743.7833,-0.2205275,0.0004496852,NaN,-0.3212005,0.0003945803,NaN,0.07575149,-14.50254,NaN,-1.170214,-1.467088,-0.08884666,14.11147,NaN,NaN,0.3689631,0.8128826,0.1259019,1.044395,-9.940279E-07,1.372336
743.7981,-0.2205275,0.0004496852,NaN,-0.3212005,0.0003945803,NaN,0.07575149,-14.50254,NaN,-1.170214,-1.467088,-0.08884666,14.11147,NaN,NaN,0.3689631,0.8128826,0.1259019,1.044395,-9.940279E-07,1.372336
743.8127,-0.2172829,0.0004491093,NaN,-0.3212568,0.0003945355,NaN,0.07303374,-14.50164,NaN,-1.174209,-1.465454,-0.09163143,14.10962,NaN,NaN,0.3720439,0.8137294,0.1300609,1.041987,-9.788288E-07,1.367462
743.8286,-0.2141454,0.0004493265,NaN,-0.3213136,0.0003940521,NaN,0.07020731,-14.50195,NaN,-1.177878,-1.477771,-0.09466086,14.12269,NaN,NaN,0.3748186,0.8137615,0.133974,1.059928,-9.582652E-07,1.373456
743.8437,-0.2110883,0.0004495403,NaN,-0.3213705,0.0003946957,NaN,0.06763905,-14.50155,NaN,-1.181387,-1.467335,-0.09792311,14.11159,NaN,NaN,0.3774469,0.8139918,0.1374299,1.044723,-9.415759E-07,1.366436
743.8589,-0.2110883,0.0004495403,NaN,-0.3213705,0.0003946957,NaN,0.06763905,-14.50155,NaN,-1.181387,-1.467335,-0.09792311,14.11159,NaN,NaN,0.3774469,0.8139918,0.1374299,1.044723,-9.415759E-07,1.366436
743.873,-0.2080947,0.0004496967,NaN,-0.3214274,0.0003951995,NaN,0.06534785,-14.50163,NaN,-1.184893,-1.467607,-0.1000004,14.11189,NaN,NaN,0.3800932,0.8139114,0.1401593,1.045121,-9.219064E-07,1.366811
743.8899,-0.2051534,0.0004492404,NaN,-0.3214839,0.000395225,NaN,0.06329351,-14.50154,NaN,-1.188493,-1.465783,-0.1016605,14.10994,NaN,NaN,0.3828673,0.8139415,0.1427091,1.042461,-8.956804E-07,1.366252
743.9041,-0.2022573,0.0004490448,NaN,-0.3215401,0.0003957042,NaN,0.06137449,-14.50199,NaN,-1.192104,-1.465124,-0.1032221,14.1093,NaN,NaN,0.3856865,0.8134642,0.145229,1.041519,-8.807792E-07,1.368621
743.9189,-0.2022573,0.0004490448,NaN,-0.3215401,0.0003957042,NaN,0.06137449,-14.50199,NaN,-1.192104,-1.465124,-0.1032221,14.1093,NaN,NaN,0.3856865,0.8134642,0.145229,1.041519,-8.807792E-07,1.368621
743.9334,-0.1994018,0.0004489686,NaN,-0.3215959,0.0003962732,NaN,0.05984693,-14.50224,NaN,-1.195897,-1.464344,-0.1036526,14.1085,NaN,NaN,0.3886392,0.8131889,0.1470368,1.040392,-8.679642E-07,1.370228
743.949,-0.1965838,0.0004487144,NaN,-0.3216512,0.0003966875,NaN,0.05858049,-14.5025,NaN,-1.199777,-1.464059,-0.1036996,14.10823,NaN,NaN,0.3916823,0.8129104,0.1487172,1.039986,-8.471026E-07,1.369404
743.9642,-0.1938011,0.0004483374,NaN,-0.321706,0.0003970534,NaN,0.05742085,-14.50244,NaN,-1.203681,-1.464002,-0.1036548,14.10815,NaN,NaN,0.394762,0.8129636,0.1504304,1.039899,-8.313073E-07,1.369
743.9794,-0.1938011,0.0004483374,NaN,-0.321706,0.0003970534,NaN,0.05742085,-14.50244,NaN,-1.203681,-1.464002,-0.1036548,14.10815,NaN,NaN,0.394762,0.8129636,0.1504304,1.039899,-8.313073E-07,1.369
743.9939,-0.1910523,0.0004476349,NaN,-0.3217604,0.0003971477,NaN,0.05631134,-14.50203,NaN,-1.207561,-1.463709,-0.1035982,14.10778,NaN,NaN,0.3978269,0.8133541,0.1521701,1.039455,-8.113398E-07,1.365797
744.0096,-0.1883363,0.0004470036,NaN,-0.3218141,0.0003973657,NaN,0.05553217,-14.50258,NaN,-1.211621,-1.464591,-0.1024184,14.10878,NaN,NaN,0.4009968,0.8128253,0.1532401,1.040761,-7.946505E-07,1.368735
744.0262,-0.1856522,0.0004465408,NaN,-0.3218674,0.0003978062,NaN,0.05497663,-14.50257,NaN,-1.215743,-1.463778,-0.1008608,14.10792,NaN,NaN,0.4041952,0.8128069,0.1542011,1.039575,-7.824315E-07,1.368814
744.0398,-0.1856522,0.0004465408,NaN,-0.3218674,0.0003978062,NaN,0.05497663,-14.50257,NaN,-1.215743,-1.463778,-0.1008608,14.10792,NaN,NaN,0.4041952,0.8128069,0.1542011,1.039575,-7.824315E-07,1.368814
744.0541,-0.1829994,0.0004467635,NaN,-0.3219202,0.0003975211,NaN,0.05450809,-14.50235,NaN,-1.219857,-1.476787,-0.09921926,14.12162,NaN,NaN,0.4073744,0.8133975,0.1552158,1.058481,-7.618679E-07,1.372641
744.0709,-0.1803775,0.0004468544,NaN,-0.3219725,0.0003979927,NaN,0.05407075,-14.50331,NaN,-1.223926,-1.466993,-0.09757186,14.11136,NaN,NaN,0.4105097,0.8122754,0.156289,1.044246,-7.553114E-07,1.373625
744.0851,-0.1777859,0.000447166,NaN,-0.3220243,0.0003976538,NaN,0.05393608,-14.50359,NaN,-1.228178,-1.47824,-0.09479451,14.12325,NaN,NaN,0.4137397,0.8122787,0.1567442,1.060596,-7.436885E-07,1.380666
744.1,-0.1752242,0.0004479704,NaN,-0.3220755,0.0003973855,NaN,0.05400802,-14.50271,NaN,-1.232479,-1.480289,-0.09165227,14.1253,NaN,NaN,0.4169555,0.8131701,0.1571078,1.063552,-7.332577E-07,1.376118
744.1152,-0.1752242,0.0004479704,NaN,-0.3220755,0.0003973855,NaN,0.05400802,-14.50271,NaN,-1.232479,-1.480289,-0.09165227,14.1253,NaN,NaN,0.4169555,0.8131701,0.1571078,1.063552,-7.332577E-07,1.376118
744.1296,-0.172692,0.0004485465,NaN,-0.3221263,0.0003976044,NaN,0.05416207,-14.50232,NaN,-1.236742,-1.474702,-0.08844335,14.11934,NaN,NaN,0.4201027,0.813479,0.157539,1.055409,-7.144823E-07,1.373401
744.1454,-0.170189,0.0004488287,NaN,-0.3221765,0.0003980074,NaN,0.05433784,-14.50206,NaN,-1.240942,-1.470158,-0.08524046,14.11449,NaN,NaN,0.4231792,0.813656,0.1580552,1.048782,-7.013692E-07,1.370419
744.1608,-0.1677148,0.0004488127,NaN,-0.3222263,0.0003985126,NaN,0.05479707,-14.50229,NaN,-1.245317,-1.465052,-0.08090396,14.10911,NaN,NaN,0.426342,0.8133147,0.1580011,1.041353,-6.805076E-07,1.368124
744.1757,-0.1677148,0.0004488127,NaN,-0.3222263,0.0003985126,NaN,0.05479707,-14.50229,NaN,-1.245317,-1.465052,-0.08090396,14.10911,NaN,NaN,0.426342,0.8133147,0.1580011,1.041353,-6.805076E-07,1.368124
744.1901,-0.165269,0.0004490943,NaN,-0.3222755,0.0003982426,NaN,0.05545523,-14.50315,NaN,-1.249733,-1.477269,-0.07622162,14.12213,NaN,NaN,0.4294531,0.8127951,0.1578646,1.059157,-6.702258E-07,1.376301
744.2058,-0.1628514,0.000449119,NaN,-0.3223243,0.0003984208,NaN,0.05619775,-14.50183,NaN,-1.254082,-1.46854,-0.07149476,14.11275,NaN,NaN,0.4324494,0.8139694,0.1578013,1.046426,-6.562187E-07,1.367857
744.2209,-0.1604615,0.0004492756,NaN,-0.3223726,0.0003979457,NaN,0.05695724,-14.5032,NaN,-1.258348,-1.47736,-0.06678824,14.12225,NaN,NaN,0.4353499,0.8128183,0.1578432,1.059313,-6.472781E-07,1.375024
744.236,-0.1604615,0.0004492756,NaN,-0.3223726,0.0003979457,NaN,0.05695724,-14.5032,NaN,-1.258348,-1.47736,-0.06678824,14.12225,NaN,NaN,0.4353499,0.8128183,0.1578432,1.059313,-6.472781E-07,1.375024
744.2513,-0.1580992,0.0004494408,NaN,-0.3224204,0.0003971406,NaN,0.05798595,-14.50349,NaN,-1.262782,-1.478459,-0.0609437,14.12344,NaN,NaN,0.4383296,0.8125455,0.1573594,1.060916,-6.295457E-07,1.374675
744.2662,-0.155764,0.00044888,NaN,-0.3224678,0.0003964667,NaN,0.05923812,-14.50221,NaN,-1.267237,-1.467896,-0.05479032,14.11214,NaN,NaN,0.4412544,0.8136608,0.1567974,1.045526,-6.197109E-07,1.364772
744.2811,-0.1534557,0.0004486813,NaN,-0.3225146,0.0003958707,NaN,0.0613759,-14.502,NaN,-1.271971,-1.473358,-0.04931138,14.11789,NaN,NaN,0.4442038,0.8140099,0.1554761,1.053474,-6.130054E-07,1.364516
744.2966,-0.1534557,0.0004486813,NaN,-0.3225146,0.0003958707,NaN,0.0613759,-14.502,NaN,-1.271971,-1.473358,-0.04931138,14.11789,NaN,NaN,0.4442038,0.8140099,0.1554761,1.053474,-6.130054E-07,1.364516
744.3106,-0.1511739,0.0004485468,NaN,-0.322561,0.0003959969,NaN,0.06315954,-14.50276,NaN,-1.276465,-1.467185,-0.04216069,14.11145,NaN,NaN,0.4468969,0.813136,0.1543444,1.04451,-6.08237E-07,1.367018
744.3265,-0.1489183,0.0004489243,NaN,-0.3226069,0.0003956222,NaN,0.06408699,-14.50359,NaN,-1.280626,-1.478379,-0.03374072,14.12338,NaN,NaN,0.4493181,0.8125984,0.1541907,1.060826,-5.969122E-07,1.374951
744.3412,-0.1466886,0.0004489881,NaN,-0.3226524,0.0003952807,NaN,0.06432143,-14.50283,NaN,-1.284474,-1.472538,-0.02465757,14.11713,NaN,NaN,0.4515074,0.8132671,0.1548895,1.052318,-5.867794E-07,1.368689
744.3566,-0.1466886,0.0004489881,NaN,-0.3226524,0.0003952807,NaN,0.06432143,-14.50283,NaN,-1.284474,-1.472538,-0.02465757,14.11713,NaN,NaN,0.4515074,0.8132671,0.1548895,1.052318,-5.867794E-07,1.368689
744.3709,-0.1444846,0.0004494834,NaN,-0.3226975,0.0003951203,NaN,0.06411476,-14.50406,NaN,-1.288087,-1.476309,-0.01518575,14.12126,NaN,NaN,0.4535042,0.8121124,0.1561469,1.057842,-5.81415E-07,1.376543
744.3868,-0.1423059,0.0004496846,NaN,-0.322742,0.0003952953,NaN,0.06768282,-14.50266,NaN,-1.292754,-1.47063,-0.007401196,14.11511,NaN,NaN,0.4567502,0.813408,0.1538532,1.049554,-5.727723E-07,1.367354
744.4019,-0.1401523,0.000449616,NaN,-0.3227861,0.0003956506,NaN,0.0712072,-14.50307,NaN,-1.297785,-1.466449,0.0007081334,14.11073,NaN,NaN,0.4603457,0.8129095,0.151973,1.043482,-5.636825E-07,1.367703
744.417,-0.1401523,0.000449616,NaN,-0.3227861,0.0003956506,NaN,0.0712072,-14.50307,NaN,-1.297785,-1.466449,0.0007081334,14.11073,NaN,NaN,0.4603457,0.8129095,0.151973,1.043482,-5.636825E-07,1.367703
744.4324,-0.1380234,0.0004498856,NaN,-0.3228298,0.0003956414,NaN,0.07466631,-14.50445,NaN,-1.302744,-1.474258,0.008861752,14.11916,NaN,NaN,0.4638396,0.8117428,0.1503911,1.05489,-5.529537E-07,1.377814
744.4471,-0.135919,0.000450215,NaN,-0.322873,0.0003964593,NaN,0.07809687,-14.5039,NaN,-1.307604,-1.466857,0.01695732,14.11129,NaN,NaN,0.4672269,0.8121538,0.1489971,1.044121,-5.402877E-07,1.373246
744.4622,-0.1338387,0.0004499767,NaN,-0.3229158,0.0003965439,NaN,0.08187322,-14.50365,NaN,-1.312519,-1.467734,0.02613668,14.11217,NaN,NaN,0.470713,0.8124196,0.147137,1.045384,-5.301549E-07,1.371734
744.4772,-0.1338387,0.0004499767,NaN,-0.3229158,0.0003965439,NaN,0.08187322,-14.50365,NaN,-1.312519,-1.467734,0.02613668,14.11217,NaN,NaN,0.470713,0.8124196,0.147137,1.045384,-5.301549E-07,1.371734
744.4916,-0.1317824,0.0004499042,NaN,-0.3229581,0.0003969485,NaN,0.08563663,-14.5045,NaN,-1.317425,-1.466471,0.03575891,14.11094,NaN,NaN,0.4742047,0.811545,0.1455046,1.043578,-5.171909E-07,1.375466
744.5107,-0.1297497,0.0004497981,NaN,-0.323,0.0003973533,NaN,0.08937934,-14.50469,NaN,-1.322246,-1.465601,0.0454331,14.11005,NaN,NaN,0.477613,0.8113339,0.1441027,1.04232,-5.075051E-07,1.375424
744.5239,-0.1277404,0.0004501769,NaN,-0.3230415,0.0003970841,NaN,0.09308681,-14.50512,NaN,-1.326961,-1.477785,0.05505864,14.12292,NaN,NaN,0.480922,0.8112313,0.1429038,1.060026,-4.976704E-07,1.382262
744.5377,-0.1277404,0.0004501769,NaN,-0.3230415,0.0003970841,NaN,0.09308681,-14.50512,NaN,-1.326961,-1.477785,0.05505864,14.12292,NaN,NaN,0.480922,0.8112313,0.1429038,1.060026,-4.976704E-07,1.382262
744.5521,-0.1257542,0.0004503354,NaN,-0.3230825,0.0003977113,NaN,0.09714152,-14.50457,NaN,-1.331712,-1.466476,0.06577331,14.11095,NaN,NaN,0.484334,0.8116028,0.1412694,1.043589,-4.785969E-07,1.375901
744.5679,-0.1237908,0.0004505274,NaN,-0.3231232,0.0003974384,NaN,0.101175,-14.50545,NaN,-1.336428,-1.476426,0.07692505,14.12154,NaN,NaN,0.4877258,0.8109824,0.1398803,1.058069,-4.659309E-07,1.381241
744.583,-0.12185,0.0004508728,NaN,-0.3231634,0.0003980299,NaN,0.1051861,-14.50427,NaN,-1.341046,-1.469722,0.08811764,14.11434,NaN,NaN,0.4910228,0.8120402,0.1387301,1.048305,-4.727854E-07,1.376257
744.5983,-0.12185,0.0004508728,NaN,-0.3231634,0.0003980299,NaN,0.1051861,-14.50427,NaN,-1.341046,-1.469722,0.08811764,14.11434,NaN,NaN,0.4910228,0.8120402,0.1387301,1.048305,-4.727854E-07,1.376257
744.6136,-0.1199315,0.0004512158,NaN,-0.3232032,0.0003987436,NaN,0.1095419,-14.50444,NaN,-1.345676,-1.467954,0.1004278,14.11249,NaN,NaN,0.4944134,0.8118277,0.137197,1.045739,-4.617586E-07,1.377576
744.6282,-0.118035,0.0004513962,NaN,-0.3232426,0.0003994584,NaN,0.113874,-14.50486,NaN,-1.350244,-1.465393,0.11317,14.10984,NaN,NaN,0.4977541,0.8113365,0.1359325,1.042032,-4.547551E-07,1.378746
744.6432,-0.1161604,0.0004515959,NaN,-0.3232816,0.0003998593,NaN,0.1181804,-14.5056,NaN,-1.354697,-1.46851,0.1259441,14.11321,NaN,NaN,0.5009855,0.810682,0.1349242,1.046583,-4.364266E-07,1.381945
744.6582,-0.1161604,0.0004515959,NaN,-0.3232816,0.0003998593,NaN,0.1181804,-14.5056,NaN,-1.354697,-1.46851,0.1259441,14.11321,NaN,NaN,0.5009855,0.810682,0.1349242,1.046583,-4.364266E-07,1.381945
744.6725,-0.1143073,0.0004517204,NaN,-0.3233203,0.0004005268,NaN,0.122442,-14.505,NaN,-1.359031,-1.465039,0.1386541,14.10947,NaN,NaN,0.5041044,0.8111859,0.1341515,1.041524,-4.28231E-07,1.379706
744.6883,-0.1124755,0.00045148,NaN,-0.3233585,0.0004008381,NaN,0.1270508,-14.50454,NaN,-1.363342,-1.465109,0.1524538,14.10948,NaN,NaN,0.5073158,0.8116424,0.1330016,1.041605,-4.191413E-07,1.373507
744.7033,-0.1106648,0.0004513406,NaN,-0.3233963,0.000401151,NaN,0.1316359,-14.5054,NaN,-1.367577,-1.466853,0.1666661,14.11143,NaN,NaN,0.5104676,0.8108361,0.1321174,1.044171,-4.03048E-07,1.378668
744.7185,-0.1106648,0.0004513406,NaN,-0.3233963,0.000401151,NaN,0.1316359,-14.5054,NaN,-1.367577,-1.466853,0.1666661,14.11143,NaN,NaN,0.5104676,0.8108361,0.1321174,1.044171,-4.03048E-07,1.378668
744.7331,-0.1088749,0.0004511547,NaN,-0.3234337,0.0004015953,NaN,0.1361912,-14.5051,NaN,-1.37169,-1.464677,0.1808999,14.10909,NaN,NaN,0.5135039,0.8110707,0.1314926,1.041002,-3.981307E-07,1.377643
744.7488,-0.1071055,0.0004516669,NaN,-0.3234708,0.0004014755,NaN,0.1406975,-14.50572,NaN,-1.375677,-1.476798,0.1950624,14.12193,NaN,NaN,0.5164218,0.8107836,0.1311107,1.05862,-3.912016E-07,1.38568
744.764,-0.1053566,0.0004514049,NaN,-0.3235074,0.0004009207,NaN,0.145552,-14.50551,NaN,-1.379609,-1.471029,0.2103158,14.11583,NaN,NaN,0.5194312,0.8108895,0.1303743,1.050241,-3.90084E-07,1.380411
744.7789,-0.1053566,0.0004514049,NaN,-0.3235074,0.0004009207,NaN,0.145552,-14.50551,NaN,-1.379609,-1.471029,0.2103158,14.11583,NaN,NaN,0.5194312,0.8108895,0.1303743,1.050241,-3.90084E-07,1.380411
744.7943,-0.1036277,0.0004516164,NaN,-0.3235437,0.000400619,NaN,0.1503842,-14.50489,NaN,-1.383447,-1.474688,0.2259678,14.1196,NaN,NaN,0.5223642,0.8115753,0.1299047,1.055535,-3.827824E-07,1.381595
744.8091,-0.1019187,0.0004518612,NaN,-0.3235796,0.000401265,NaN,0.1551818,-14.50555,NaN,-1.387157,-1.466611,0.2416329,14.11116,NaN,NaN,0.5251772,0.8107646,0.1296999,1.043821,-3.777906E-07,1.381663
744.8241,-0.1002293,0.0004521463,NaN,-0.3236152,0.000401652,NaN,0.1599252,-14.50593,NaN,-1.390737,-1.469389,0.2572201,14.11413,NaN,NaN,0.5278661,0.8104614,0.1297452,1.047866,-3.63709E-07,1.383703
744.8391,-0.1002293,0.0004521463,NaN,-0.3236152,0.000401652,NaN,0.1599252,-14.50593,NaN,-1.390737,-1.469389,0.2572201,14.11413,NaN,NaN,0.5278661,0.8104614,0.1297452,1.047866,-3.63709E-07,1.383703
744.8535,-0.09855939,0.000452102,NaN,-0.3236503,0.0004020393,NaN,0.1650166,-14.50468,NaN,-1.394228,-1.465404,0.2738989,14.10978,NaN,NaN,0.5306444,0.8116016,0.1294569,1.042042,-3.57078E-07,1.374137
744.8691,-0.09690867,0.0004523532,NaN,-0.3236851,0.0004016167,NaN,0.1700868,-14.50519,NaN,-1.397609,-1.477763,0.2909621,14.12286,NaN,NaN,0.5333338,0.8114325,0.1294345,1.060011,-3.479138E-07,1.38208
