JMolnar6/NonAnthroHands_User_Study/HandsLoggerWithURDF/tempdata/PID 0 (test)/files/Reachy_PID0_JointMotion_gesture_10_49.csv
Time,r_shoulder,r_shoulder_x,r_upper_arm,r_forearm,r_wrist,r_wrist2hand,
708.4792,-0.2492199,-2.866026E-09,NaN,-0.5872835,-1.32639E-07,NaN,-0.2870535,-4.987028E-07,NaN,-0.9632074,2.027717E-05,0.4176466,5.605219E-08,NaN,NaN,-0.4874094,-1.583254E-10,9.908824E-07,-1.108241E-07,-2.085601E-08,-2.622604E-08
708.4921,-0.2447731,-2.865316E-09,NaN,-0.5871535,-1.326401E-07,NaN,-0.2884435,-4.99186E-07,NaN,-0.9616208,2.02776E-05,0.4197524,5.653684E-08,NaN,NaN,-0.4872938,-1.629821E-10,9.861141E-07,-1.108247E-07,-2.264415E-08,-2.861022E-08
708.5077,-0.2401674,-2.864607E-09,NaN,-0.5870169,-1.326411E-07,NaN,-0.2899045,-4.996625E-07,NaN,-0.9599933,2.027802E-05,0.4218482,5.701473E-08,NaN,NaN,-0.4871805,-1.583254E-10,9.71809E-07,-1.108252E-07,-2.025997E-08,-2.622604E-08
708.5222,-0.2354851,-2.863898E-09,NaN,-0.5868771,-1.326422E-07,NaN,-0.2913674,-5.001295E-07,NaN,-0.9583312,2.027844E-05,0.4239229,5.748318E-08,NaN,NaN,-0.4870694,-1.629821E-10,9.563117E-07,-1.108257E-07,-2.32402E-08,-2.861022E-08
708.5372,-0.2354851,-2.863898E-09,NaN,-0.5868771,-1.326422E-07,NaN,-0.2913674,-5.001295E-07,NaN,-0.9583312,2.027844E-05,0.4239229,5.748318E-08,NaN,NaN,-0.4870694,-1.629821E-10,9.563117E-07,-1.108257E-07,-2.32402E-08,-2.861022E-08
708.5513,-0.2311188,-2.863189E-09,NaN,-0.5867497,-1.326433E-07,NaN,-0.2921809,-5.005872E-07,NaN,-0.9565982,2.027886E-05,0.4252432,5.794237E-08,NaN,NaN,-0.4870064,-1.583254E-10,9.312778E-07,-1.108262E-07,-2.20481E-08,-2.622604E-08
708.5669,-0.2269664,-2.86248E-09,NaN,-0.5866306,-1.326444E-07,NaN,-0.2928635,-5.010388E-07,NaN,-0.9549118,2.027928E-05,0.4265181,5.83953E-08,NaN,NaN,-0.4869447,-1.536688E-10,9.133964E-07,-1.108267E-07,-2.145206E-08,-2.861022E-08
708.5816,-0.2229642,-2.861771E-09,NaN,-0.586517,-1.326455E-07,NaN,-0.293483,-5.014813E-07,NaN,-0.9532745,2.02797E-05,0.4277582,5.883928E-08,NaN,NaN,-0.4868842,-1.443556E-10,8.931308E-07,-1.108272E-07,-2.145206E-08,-2.622604E-08
708.5964,-0.2229642,-2.861771E-09,NaN,-0.586517,-1.326455E-07,NaN,-0.293483,-5.014813E-07,NaN,-0.9532745,2.02797E-05,0.4277582,5.883928E-08,NaN,NaN,-0.4868842,-1.443556E-10,8.931308E-07,-1.108272E-07,-2.145206E-08,-2.622604E-08
708.6103,-0.2190725,-2.861062E-09,NaN,-0.5864075,-1.326466E-07,NaN,-0.2940689,-5.019151E-07,NaN,-0.9516795,2.028014E-05,0.4289685,5.927448E-08,NaN,NaN,-0.4868249,-1.490122E-10,8.788257E-07,-1.108277E-07,-2.562438E-08,-2.861022E-08
708.6258,-0.215608,-2.860353E-09,NaN,-0.5863147,-1.326477E-07,NaN,-0.2940096,-5.023402E-07,NaN,-0.9500706,2.028058E-05,0.4294281,5.970107E-08,NaN,NaN,-0.4868126,-1.490122E-10,8.525997E-07,-1.108282E-07,-2.383624E-08,-2.622604E-08
708.6415,-0.2124216,-2.859644E-09,NaN,-0.5862324,-1.326487E-07,NaN,-0.2938403,-5.027598E-07,NaN,-0.9485477,2.028102E-05,0.4298467,6.012203E-08,NaN,NaN,-0.4868006,-1.536688E-10,8.323341E-07,-1.108288E-07,-1.847182E-08,-2.861022E-08
708.6555,-0.2124216,-2.859644E-09,NaN,-0.5862324,-1.326487E-07,NaN,-0.2938403,-5.027598E-07,NaN,-0.9485477,2.028102E-05,0.4298467,6.012203E-08,NaN,NaN,-0.4868006,-1.536688E-10,8.323341E-07,-1.108288E-07,-1.847182E-08,-2.861022E-08
708.6695,-0.2094206,-2.858935E-09,NaN,-0.586157,-1.326498E-07,NaN,-0.2936334,-5.03171E-07,NaN,-0.9470991,2.028145E-05,0.4302401,6.053465E-08,NaN,NaN,-0.4867889,-1.490122E-10,8.168369E-07,-1.108293E-07,-1.549159E-08,-2.622604E-08
708.6849,-0.2065471,-2.858226E-09,NaN,-0.5860862,-1.326509E-07,NaN,-0.293418,-5.03574E-07,NaN,-0.9457088,2.02819E-05,0.430616,6.093912E-08,NaN,NaN,-0.4867773,-1.583254E-10,8.013396E-07,-1.108298E-07,-1.847183E-08,-2.861022E-08
708.6996,-0.2065471,-2.858226E-09,NaN,-0.5860862,-1.326509E-07,NaN,-0.293418,-5.03574E-07,NaN,-0.9457088,2.02819E-05,0.430616,6.093912E-08,NaN,NaN,-0.4867773,-1.583254E-10,8.013396E-07,-1.108298E-07,-1.847183E-08,-2.861022E-08
708.7136,-0.2041066,-2.857517E-09,NaN,-0.586032,-1.326519E-07,NaN,-0.2925783,-5.039719E-07,NaN,-0.9443144,2.028233E-05,0.4302566,6.133839E-08,NaN,NaN,-0.4868119,-1.536688E-10,7.727294E-07,-1.108303E-07,-1.727973E-08,-2.622604E-08
708.7288,-0.2019432,-2.856807E-09,NaN,-0.5859883,-1.32653E-07,NaN,-0.2916497,-5.045198E-07,NaN,-0.9430117,2.028277E-05,0.4298688,6.188773E-08,NaN,NaN,-0.4868458,-1.583254E-10,7.524638E-07,-1.108305E-07,-2.025996E-08,-2.861022E-08
708.7436,-0.19996,-2.856098E-09,NaN,-0.585951,-1.326545E-07,NaN,-0.2907026,-5.047014E-07,NaN,-0.9417865,2.028322E-05,0.4294695,6.207077E-08,NaN,NaN,-0.4868791,-1.629821E-10,7.333904E-07,-1.108301E-07,-1.906787E-08,-2.622604E-08
708.7583,-0.19996,-2.856098E-09,NaN,-0.585951,-1.326545E-07,NaN,-0.2907026,-5.047014E-07,NaN,-0.9417865,2.028322E-05,0.4294695,6.207077E-08,NaN,NaN,-0.4868791,-1.629821E-10,7.333904E-07,-1.108301E-07,-1.906787E-08,-2.622604E-08
708.7725,-0.1984381,-2.855389E-09,NaN,-0.5859315,-1.326559E-07,NaN,-0.2891368,-5.048991E-07,NaN,-0.9405724,2.028366E-05,0.4283444,6.226988E-08,NaN,NaN,-0.4869576,-1.722953E-10,7.119327E-07,-1.108295E-07,-1.966392E-08,-2.861022E-08
708.788,-0.1972067,-2.854679E-09,NaN,-0.5859227,-1.326572E-07,NaN,-0.2874962,-5.049461E-07,NaN,-0.9394608,2.028411E-05,0.4272008,6.231832E-08,NaN,NaN,-0.4870345,-1.769519E-10,6.928593E-07,-1.108292E-07,-1.727973E-08,-2.622604E-08
708.8029,-0.1961594,-2.85397E-09,NaN,-0.5859203,-1.326581E-07,NaN,-0.2858539,-5.053532E-07,NaN,-0.9384336,2.028454E-05,0.4260575,6.272683E-08,NaN,NaN,-0.4871099,-1.722953E-10,6.749779E-07,-1.108296E-07,-1.906787E-08,-2.861022E-08
708.8176,-0.1961594,-2.85397E-09,NaN,-0.5859203,-1.326581E-07,NaN,-0.2858539,-5.053532E-07,NaN,-0.9384336,2.028454E-05,0.4260575,6.272683E-08,NaN,NaN,-0.4871099,-1.722953E-10,6.749779E-07,-1.108296E-07,-1.906787E-08,-2.861022E-08
708.8316,-0.1952301,-2.85326E-09,NaN,-0.5859212,-1.326591E-07,NaN,-0.2842375,-5.057353E-07,NaN,-0.9374702,2.028498E-05,0.4249234,6.311031E-08,NaN,NaN,-0.4871839,-1.769519E-10,6.606728E-07,-1.108301E-07,-1.966392E-08,-2.622604E-08
708.8471,-0.1947192,-2.852551E-09,NaN,-0.5859376,-1.326601E-07,NaN,-0.2820255,-5.061041E-07,NaN,-0.9365047,2.028542E-05,0.4230802,6.348056E-08,NaN,NaN,-0.4873022,-1.816085E-10,6.38023E-07,-1.108305E-07,-1.906787E-08,-2.861022E-08
708.8618,-0.1944678,-2.851841E-09,NaN,-0.5859631,-1.326611E-07,NaN,-0.2797565,-5.0646E-07,NaN,-0.9356316,2.028586E-05,0.4212339,6.383783E-08,NaN,NaN,-0.4874183,-1.862651E-10,6.213337E-07,-1.10831E-07,-1.906787E-08,-2.622604E-08
708.8765,-0.1944678,-2.851841E-09,NaN,-0.5859631,-1.326611E-07,NaN,-0.2797565,-5.0646E-07,NaN,-0.9356316,2.028586E-05,0.4212339,6.383783E-08,NaN,NaN,-0.4874183,-1.862651E-10,6.213337E-07,-1.10831E-07,-1.906787E-08,-2.622604E-08
708.8926,-0.1943772,-2.851131E-09,NaN,-0.5859939,-1.326621E-07,NaN,-0.2774995,-5.068059E-07,NaN,-0.9348353,2.028631E-05,0.4194021,6.418519E-08,NaN,NaN,-0.487532,-1.909217E-10,6.058365E-07,-1.108315E-07,-1.906787E-08,-2.861022E-08
708.9073,-0.1943849,-2.850421E-09,NaN,-0.5860277,-1.326632E-07,NaN,-0.275281,-5.07145E-07,NaN,-0.9340976,2.028674E-05,0.4175928,6.452566E-08,NaN,NaN,-0.4876436,-1.862651E-10,5.891472E-07,-1.10832E-07,-1.42995E-08,-2.622604E-08
708.9207,-0.1947947,-2.849712E-09,NaN,-0.5860767,-1.326642E-07,NaN,-0.2724765,-5.074773E-07,NaN,-0.9333533,2.028718E-05,0.415085,6.485938E-08,NaN,NaN,-0.4877988,-1.909217E-10,5.688816E-07,-1.108325E-07,-1.668369E-08,-2.861022E-08
708.9353,-0.1947947,-2.849712E-09,NaN,-0.5860767,-1.326642E-07,NaN,-0.2724765,-5.074773E-07,NaN,-0.9333533,2.028718E-05,0.415085,6.485938E-08,NaN,NaN,-0.4877988,-1.909217E-10,5.688816E-07,-1.108325E-07,-1.668369E-08,-2.861022E-08
708.9494,-0.1954499,-2.849002E-09,NaN,-0.5861343,-1.326652E-07,NaN,-0.2696276,-5.07803E-07,NaN,-0.9326981,2.028761E-05,0.4125864,6.518647E-08,NaN,NaN,-0.487951,-1.862651E-10,5.533844E-07,-1.10833E-07,-1.608764E-08,-2.622604E-08
708.9645,-0.1962529,-2.848292E-09,NaN,-0.5861967,-1.326662E-07,NaN,-0.2668029,-5.081221E-07,NaN,-0.932117,2.028806E-05,0.4101142,6.550707E-08,NaN,NaN,-0.4881001,-1.909217E-10,5.378872E-07,-1.108335E-07,-1.847182E-08,-2.861022E-08
708.9791,-0.1962529,-2.848292E-09,NaN,-0.5861967,-1.326662E-07,NaN,-0.2668029,-5.081221E-07,NaN,-0.932117,2.028806E-05,0.4101142,6.550707E-08,NaN,NaN,-0.4881001,-1.909217E-10,5.378872E-07,-1.108335E-07,-1.847182E-08,-2.861022E-08
708.993,-0.1974847,-2.847582E-09,NaN,-0.586275,-1.326672E-07,NaN,-0.2633937,-5.084349E-07,NaN,-0.9315418,2.028849E-05,0.406948,6.58213E-08,NaN,NaN,-0.4882922,-1.862651E-10,5.164295E-07,-1.10834E-07,-1.906787E-08,-2.622604E-08
709.0086,-0.1989745,-2.846872E-09,NaN,-0.5863622,-1.326682E-07,NaN,-0.2599524,-5.087443E-07,NaN,-0.9310649,2.028893E-05,0.4037998,6.613212E-08,NaN,NaN,-0.4884806,-1.909217E-10,5.033165E-07,-1.108345E-07,-2.20481E-08,-2.861022E-08
709.0233,-0.2006161,-2.846162E-09,NaN,-0.5864539,-1.326692E-07,NaN,-0.2565495,-5.090475E-07,NaN,-0.930668,2.028936E-05,0.400688,6.643675E-08,NaN,NaN,-0.4886652,-1.862651E-10,4.866272E-07,-1.10835E-07,-2.145206E-08,-2.622604E-08
709.0382,-0.2006161,-2.846162E-09,NaN,-0.5864539,-1.326692E-07,NaN,-0.2565495,-5.090475E-07,NaN,-0.930668,2.028936E-05,0.400688,6.643675E-08,NaN,NaN,-0.4886652,-1.862651E-10,4.866272E-07,-1.10835E-07,-2.145206E-08,-2.622604E-08
709.0521,-0.2023436,-2.845451E-09,NaN,-0.5865476,-1.326703E-07,NaN,-0.2532111,-5.093447E-07,NaN,-0.9303303,2.028981E-05,0.3976206,6.673534E-08,NaN,NaN,-0.4888462,-1.909217E-10,4.7113E-07,-1.108355E-07,-1.847182E-08,-2.861022E-08
709.0679,-0.2044577,-2.844741E-09,NaN,-0.5866557,-1.326712E-07,NaN,-0.2493077,-5.096359E-07,NaN,-0.9299843,2.029024E-05,0.3938697,6.702799E-08,NaN,NaN,-0.4890695,-1.862651E-10,4.484802E-07,-1.10836E-07,-1.787578E-08,-2.622604E-08
709.0825,-0.2067997,-2.844031E-09,NaN,-0.5867712,-1.326722E-07,NaN,-0.2453876,-5.099242E-07,NaN,-0.9297258,2.029069E-05,0.3901509,6.731765E-08,NaN,NaN,-0.4892884,-1.955783E-10,4.317909E-07,-1.108365E-07,-1.847182E-08,-2.861022E-08
709.0969,-0.2067997,-2.844031E-09,NaN,-0.5867712,-1.326722E-07,NaN,-0.2453876,-5.099242E-07,NaN,-0.9297258,2.029069E-05,0.3901509,6.731765E-08,NaN,NaN,-0.4892884,-1.955783E-10,4.317909E-07,-1.108365E-07,-1.847182E-08,-2.861022E-08
709.111,-0.2092712,-2.843321E-09,NaN,-0.5868902,-1.326732E-07,NaN,-0.241517,-5.102067E-07,NaN,-0.9295391,2.029112E-05,0.3864805,6.760155E-08,NaN,NaN,-0.489503,-1.909217E-10,4.127174E-07,-1.108369E-07,-1.549159E-08,-2.622604E-08
709.1265,-0.2118111,-2.842611E-09,NaN,-0.5870106,-1.326742E-07,NaN,-0.2377205,-5.104835E-07,NaN,-0.929406,2.029155E-05,0.3828655,6.787981E-08,NaN,NaN,-0.4897133,-1.862651E-10,3.984123E-07,-1.108374E-07,-1.847182E-08,-2.861022E-08
709.1412,-0.2147231,-2.8419E-09,NaN,-0.5871446,-1.326752E-07,NaN,-0.2333656,-5.107577E-07,NaN,-0.9292594,2.029199E-05,0.3785716,6.815536E-08,NaN,NaN,-0.4899654,-1.816085E-10,3.745704E-07,-1.108379E-07,-2.145206E-08,-2.622604E-08
709.157,-0.2147231,-2.8419E-09,NaN,-0.5871446,-1.326752E-07,NaN,-0.2333656,-5.107577E-07,NaN,-0.9292594,2.029199E-05,0.3785716,6.815536E-08,NaN,NaN,-0.4899654,-1.816085E-10,3.745704E-07,-1.108379E-07,-2.145206E-08,-2.622604E-08
709.1711,-0.2178507,-2.84119E-09,NaN,-0.5872855,-1.326762E-07,NaN,-0.2290049,-5.110263E-07,NaN,-0.9291966,2.029243E-05,0.374321,6.842542E-08,NaN,NaN,-0.4902125,-1.862651E-10,3.590732E-07,-1.108384E-07,-2.264415E-08,-2.861022E-08
709.1854,-0.2210965,-2.84048E-09,NaN,-0.5874293,-1.326772E-07,NaN,-0.2247037,-5.112896E-07,NaN,-0.9292029,2.029286E-05,0.3701287,6.869011E-08,NaN,NaN,-0.4904547,-1.816085E-10,3.423839E-07,-1.108389E-07,-2.622043E-08,-2.622604E-08
709.2001,-0.2244001,-2.839769E-09,NaN,-0.5875739,-1.326782E-07,NaN,-0.220486,-5.115476E-07,NaN,-0.9292604,2.02933E-05,0.3660013,6.894953E-08,NaN,NaN,-0.4906922,-1.862651E-10,3.245025E-07,-1.108393E-07,-2.502833E-08,-2.861022E-08
709.2148,-0.2244001,-2.839769E-09,NaN,-0.5875739,-1.326782E-07,NaN,-0.220486,-5.115476E-07,NaN,-0.9292604,2.02933E-05,0.3660013,6.894953E-08,NaN,NaN,-0.4906922,-1.862651E-10,3.245025E-07,-1.108393E-07,-2.502833E-08,-2.861022E-08
709.2285,-0.2280662,-2.839059E-09,NaN,-0.5877318,-1.326791E-07,NaN,-0.2157169,-5.118033E-07,NaN,-0.9293016,2.029374E-05,0.3611979,6.92066E-08,NaN,NaN,-0.4909708,-1.816085E-10,3.006606E-07,-1.108398E-07,-2.443229E-08,-2.622604E-08
709.2438,-0.2319383,-2.838349E-09,NaN,-0.5878961,-1.326807E-07,NaN,-0.2109531,-5.118514E-07,NaN,-0.9294243,2.029418E-05,0.3564484,6.925617E-08,NaN,NaN,-0.491244,-1.955784E-10,2.79203E-07,-1.108375E-07,-2.443229E-08,-2.622604E-08
709.2585,-0.2319383,-2.838349E-09,NaN,-0.5878961,-1.326807E-07,NaN,-0.2109531,-5.118514E-07,NaN,-0.9294243,2.029418E-05,0.3564484,6.925617E-08,NaN,NaN,-0.491244,-1.955784E-10,2.79203E-07,-1.108375E-07,-2.443229E-08,-2.622604E-08
709.2726,-0.2359194,-2.837639E-09,NaN,-0.5880629,-1.326818E-07,NaN,-0.2062588,-5.120762E-07,NaN,-0.9296143,2.029462E-05,0.3517666,6.948243E-08,NaN,NaN,-0.4915117,-2.048916E-10,2.637058E-07,-1.108348E-07,-2.681647E-08,-2.622604E-08
709.2881,-0.2402913,-2.836928E-09,NaN,-0.5882437,-1.326826E-07,NaN,-0.2010138,-5.123896E-07,NaN,-0.9298008,2.029505E-05,0.3464086,6.979729E-08,NaN,NaN,-0.49182,-2.142048E-10,2.374797E-07,-1.108319E-07,-2.622043E-08,-2.622604E-08
709.3029,-0.2448834,-2.836218E-09,NaN,-0.5884311,-1.326833E-07,NaN,-0.1957854,-5.127476E-07,NaN,-0.930078,2.029548E-05,0.3411129,7.015669E-08,NaN,NaN,-0.4921223,-2.235181E-10,2.160221E-07,-1.108289E-07,-2.025996E-08,-2.622604E-08
709.3176,-0.2448834,-2.836218E-09,NaN,-0.5884311,-1.326833E-07,NaN,-0.1957854,-5.127476E-07,NaN,-0.930078,2.029548E-05,0.3411129,7.015669E-08,NaN,NaN,-0.4921223,-2.235181E-10,2.160221E-07,-1.108289E-07,-2.025996E-08,-2.622604E-08
709.3316,-0.2495898,-2.835508E-09,NaN,-0.5886208,-1.326838E-07,NaN,-0.1906391,-5.131267E-07,NaN,-0.9304283,2.029591E-05,0.3358933,7.053718E-08,NaN,NaN,-0.4924185,-2.328313E-10,1.957565E-07,-1.108258E-07,-2.085601E-08,-2.622604E-08
709.3469,-0.2543452,-2.834798E-09,NaN,-0.5888106,-1.326842E-07,NaN,-0.1855983,-5.135124E-07,NaN,-0.9308316,2.029633E-05,0.3307564,7.092426E-08,NaN,NaN,-0.492709,-2.374879E-10,1.802593E-07,-1.108227E-07,-2.502833E-08,-2.622604E-08
709.3618,-0.2594512,-2.834089E-09,NaN,-0.5890131,-1.326846E-07,NaN,-0.1800229,-5.138988E-07,NaN,-0.9312175,2.029675E-05,0.3249477,7.131214E-08,NaN,NaN,-0.4930395,-2.468011E-10,1.576095E-07,-1.108196E-07,-2.32402E-08,-2.622604E-08
709.3781,-0.2594512,-2.834089E-09,NaN,-0.5890131,-1.326846E-07,NaN,-0.1800229,-5.138988E-07,NaN,-0.9312175,2.029675E-05,0.3249477,7.131214E-08,NaN,NaN,-0.4930395,-2.468011E-10,1.576095E-07,-1.108196E-07,-2.32402E-08,-2.622604E-08
709.3903,-0.2647491,-2.833379E-09,NaN,-0.5892211,-1.32685E-07,NaN,-0.1744768,-5.142804E-07,NaN,-0.9316832,2.029717E-05,0.3192136,7.169518E-08,NaN,NaN,-0.4933635,-2.561143E-10,1.409202E-07,-1.108165E-07,-2.383624E-08,-2.622604E-08
709.4073,-0.2701411,-2.832669E-09,NaN,-0.5894308,-1.326854E-07,NaN,-0.169021,-5.146234E-07,NaN,-0.9322143,2.02976E-05,0.3135655,7.203962E-08,NaN,NaN,-0.4936811,-2.654275E-10,1.230388E-07,-1.108135E-07,-2.502833E-08,-2.622604E-08
709.4214,-0.2755663,-2.831959E-09,NaN,-0.5896401,-1.326854E-07,NaN,-0.1636773,-5.151994E-07,NaN,-0.9327927,2.029801E-05,0.3080087,7.261703E-08,NaN,NaN,-0.4939924,-2.654275E-10,1.075416E-07,-1.108114E-07,-2.800857E-08,-2.622604E-08
709.4353,-0.2755663,-2.831959E-09,NaN,-0.5896401,-1.326854E-07,NaN,-0.1636773,-5.151994E-07,NaN,-0.9327927,2.029801E-05,0.3080087,7.261703E-08,NaN,NaN,-0.4939924,-2.654275E-10,1.075416E-07,-1.108114E-07,-2.800857E-08,-2.622604E-08
709.4494,-0.2813294,-2.831249E-09,NaN,-0.5898618,-1.326854E-07,NaN,-0.1578031,-5.157358E-07,NaN,-0.933349,2.029842E-05,0.3017801,7.315484E-08,NaN,NaN,-0.4943434,-2.607709E-10,8.369977E-08,-1.108093E-07,-2.860461E-08,-2.622604E-08
709.4645,-0.2872739,-2.830539E-09,NaN,-0.5900885,-1.326854E-07,NaN,-0.1519667,-5.162474E-07,NaN,-0.9339817,2.029884E-05,0.2956358,7.366794E-08,NaN,NaN,-0.4946874,-2.607709E-10,6.462628E-08,-1.108072E-07,-3.039275E-08,-2.622604E-08
709.4791,-0.2872739,-2.830539E-09,NaN,-0.5900885,-1.326854E-07,NaN,-0.1519667,-5.162474E-07,NaN,-0.9339817,2.029884E-05,0.2956358,7.366794E-08,NaN,NaN,-0.4946874,-2.607709E-10,6.462628E-08,-1.108072E-07,-3.039275E-08,-2.622604E-08
709.493,-0.2933028,-2.82983E-09,NaN,-0.5903165,-1.326855E-07,NaN,-0.1462277,-5.167405E-07,NaN,-0.9346771,2.029925E-05,0.2895856,7.416246E-08,NaN,NaN,-0.4950247,-2.607709E-10,4.43607E-08,-1.108052E-07,-3.396903E-08,-2.622604E-08
709.5084,-0.2996984,-2.82912E-09,NaN,-0.5905576,-1.326855E-07,NaN,-0.1399585,-5.172153E-07,NaN,-0.9353629,2.029967E-05,0.2828623,7.463874E-08,NaN,NaN,-0.4954011,-2.607709E-10,1.336628E-08,-1.108032E-07,-2.860461E-08,-2.622604E-08
709.5229,-0.30629,-2.828411E-09,NaN,-0.5908039,-1.326856E-07,NaN,-0.1337371,-5.176779E-07,NaN,-0.9361341,2.030008E-05,0.2762311,7.510281E-08,NaN,NaN,-0.4957701,-2.607709E-10,-1.405185E-08,-1.108012E-07,-2.562438E-08,-2.622604E-08
709.5377,-0.30629,-2.828411E-09,NaN,-0.5908039,-1.326856E-07,NaN,-0.1337371,-5.176779E-07,NaN,-0.9361341,2.030008E-05,0.2762311,7.510281E-08,NaN,NaN,-0.4957701,-2.607709E-10,-1.405185E-08,-1.108012E-07,-2.562438E-08,-2.622604E-08
709.5518,-0.3129721,-2.827702E-09,NaN,-0.5910515,-1.326857E-07,NaN,-0.1276243,-5.181286E-07,NaN,-0.9369741,2.030049E-05,0.269702,7.55549E-08,NaN,NaN,-0.4961318,-2.607709E-10,-3.550952E-08,-1.107993E-07,-2.741252E-08,-2.622604E-08
709.5674,-0.3196795,-2.826993E-09,NaN,-0.5912982,-1.326858E-07,NaN,-0.1216416,-5.185646E-07,NaN,-0.9378633,2.030091E-05,0.2632801,7.599242E-08,NaN,NaN,-0.4964863,-2.607709E-10,-5.815929E-08,-1.107973E-07,-2.20481E-08,-2.622604E-08
709.5821,-0.3267145,-2.826284E-09,NaN,-0.5915566,-1.326859E-07,NaN,-0.1151423,-5.189892E-07,NaN,-0.9387296,2.030132E-05,0.2561862,7.641847E-08,NaN,NaN,-0.4968797,-2.607709E-10,-8.796161E-08,-1.107953E-07,-1.847182E-08,-2.622604E-08
709.5967,-0.3267145,-2.826284E-09,NaN,-0.5915566,-1.326859E-07,NaN,-0.1151423,-5.189892E-07,NaN,-0.9387296,2.030132E-05,0.2561862,7.641847E-08,NaN,NaN,-0.4968797,-2.607709E-10,-8.796161E-08,-1.107953E-07,-1.847182E-08,-2.622604E-08
709.6106,-0.3339184,-2.825575E-09,NaN,-0.5918196,-1.32686E-07,NaN,-0.1087007,-5.194082E-07,NaN,-0.939671,2.030174E-05,0.249195,7.683894E-08,NaN,NaN,-0.4972652,-2.607709E-10,-1.118035E-07,-1.107934E-07,-1.251136E-08,-2.622604E-08
709.6262,-0.3411935,-2.824866E-09,NaN,-0.5920832,-1.32686E-07,NaN,-0.1023739,-5.198161E-07,NaN,-0.9406736,2.030215E-05,0.2423144,7.724827E-08,NaN,NaN,-0.4976432,-2.607709E-10,-1.368374E-07,-1.107914E-07,-1.191531E-08,-2.622604E-08
709.641,-0.3484793,-2.824157E-09,NaN,-0.5923457,-1.326861E-07,NaN,-0.09618162,-5.202131E-07,NaN,-0.9417202,2.030257E-05,0.2355483,7.76467E-08,NaN,NaN,-0.4980136,-2.607709E-10,-1.57103E-07,-1.107895E-07,-5.954848E-09,-2.622604E-08
709.6558,-0.3484793,-2.824157E-09,NaN,-0.5923457,-1.326861E-07,NaN,-0.09618162,-5.202131E-07,NaN,-0.9417202,2.030257E-05,0.2355483,7.76467E-08,NaN,NaN,-0.4980136,-2.607709E-10,-1.57103E-07,-1.107895E-07,-5.954848E-09,-2.622604E-08
709.6696,-0.3560811,-2.823449E-09,NaN,-0.5926196,-1.326862E-07,NaN,-0.08947563,-5.205994E-07,NaN,-0.9427401,2.030299E-05,0.228108,7.803443E-08,NaN,NaN,-0.4984226,-2.700841E-10,-1.916737E-07,-1.107876E-07,-2.37857E-09,-2.622604E-08
709.686,-0.3638424,-2.82274E-09,NaN,-0.5928978,-1.326863E-07,NaN,-0.08283362,-5.209752E-07,NaN,-0.9438316,2.030341E-05,0.2207786,7.841167E-08,NaN,NaN,-0.4988235,-2.700841E-10,-2.202839E-07,-1.107856E-07,-2.37857E-09,-2.622604E-08
709.6998,-0.3638424,-2.82274E-09,NaN,-0.5928978,-1.326863E-07,NaN,-0.08283362,-5.209752E-07,NaN,-0.9438316,2.030341E-05,0.2207786,7.841167E-08,NaN,NaN,-0.4988235,-2.700841E-10,-2.202839E-07,-1.107856E-07,-2.37857E-09,-2.622604E-08
709.7139,-0.3716663,-2.822031E-09,NaN,-0.5931764,-1.326864E-07,NaN,-0.07631165,-5.213435E-07,NaN,-0.9449823,2.030382E-05,0.2135671,7.878146E-08,NaN,NaN,-0.4992164,-2.700841E-10,-2.429337E-07,-1.107837E-07,-2.37857E-09,-2.622604E-08
709.7292,-0.3798358,-2.821323E-09,NaN,-0.5934673,-1.326865E-07,NaN,-0.06927614,-5.217017E-07,NaN,-0.9461191,2.030424E-05,0.2056795,7.914111E-08,NaN,NaN,-0.4996474,-2.700841E-10,-2.763123E-07,-1.107818E-07,-3.272639E-09,-2.622604E-08
709.7435,-0.3881802,-2.820614E-09,NaN,-0.5937625,-1.326866E-07,NaN,-0.0623134,-5.22057E-07,NaN,-0.9473369,2.030465E-05,0.1979104,7.949789E-08,NaN,NaN,-0.5000698,-2.700841E-10,-3.061146E-07,-1.107799E-07,-8.339034E-09,-2.622604E-08
709.7583,-0.3881802,-2.820614E-09,NaN,-0.5937625,-1.326866E-07,NaN,-0.0623134,-5.22057E-07,NaN,-0.9473369,2.030465E-05,0.1979104,7.949789E-08,NaN,NaN,-0.5000698,-2.700841E-10,-3.061146E-07,-1.107799E-07,-8.339034E-09,-2.622604E-08
709.7722,-0.3965941,-2.819906E-09,NaN,-0.594058,-1.326866E-07,NaN,-0.05548065,-5.224024E-07,NaN,-0.9486201,2.030507E-05,0.1902668,7.98448E-08,NaN,NaN,-0.5004839,-2.700841E-10,-3.323406E-07,-1.10778E-07,-9.829151E-09,-2.622604E-08
709.7876,-0.4050125,-2.819198E-09,NaN,-0.5943519,-1.326867E-07,NaN,-0.04879701,-5.227382E-07,NaN,-0.9499499,2.030549E-05,0.1827515,8.018201E-08,NaN,NaN,-0.5008898,-2.793974E-10,-3.597588E-07,-1.107761E-07,-1.251136E-08,-2.622604E-08
709.8025,-0.4137384,-2.818489E-09,NaN,-0.594657,-1.326868E-07,NaN,-0.04161124,-5.230673E-07,NaN,-0.9512537,2.03059E-05,0.1745588,8.051256E-08,NaN,NaN,-0.5013334,-2.793974E-10,-3.985018E-07,-1.107742E-07,-7.146942E-09,-2.622604E-08
709.8173,-0.4137384,-2.818489E-09,NaN,-0.594657,-1.326868E-07,NaN,-0.04161124,-5.230673E-07,NaN,-0.9512537,2.03059E-05,0.1745588,8.051256E-08,NaN,NaN,-0.5013334,-2.793974E-10,-3.985018E-07,-1.107742E-07,-7.146942E-09,-2.622604E-08
709.8311,-0.4226132,-2.817781E-09,NaN,-0.5949658,-1.326869E-07,NaN,-0.0345058,-5.23387E-07,NaN,-0.9526287,2.030632E-05,0.1664935,8.083374E-08,NaN,NaN,-0.5017683,-2.793974E-10,-4.330725E-07,-1.107724E-07,-5.656826E-09,-2.622604E-08
709.8487,-0.4315391,-2.817073E-09,NaN,-0.5952744,-1.32687E-07,NaN,-0.02753434,-5.236976E-07,NaN,-0.9540622,2.030673E-05,0.1585609,8.114574E-08,NaN,NaN,-0.5021946,-2.793974E-10,-4.634709E-07,-1.107705E-07,-2.676594E-09,-2.622604E-08
709.8611,-0.4404559,-2.816365E-09,NaN,-0.5955812,-1.326871E-07,NaN,-0.02071468,-5.239991E-07,NaN,-0.9555375,2.030715E-05,0.150763,8.144873E-08,NaN,NaN,-0.5026125,-2.793974E-10,-4.90293E-07,-1.107686E-07,-6.252873E-09,-2.622604E-08
709.876,-0.4404559,-2.816365E-09,NaN,-0.5955812,-1.326871E-07,NaN,-0.02071468,-5.239991E-07,NaN,-0.9555375,2.030715E-05,0.150763,8.144873E-08,NaN,NaN,-0.5026125,-2.793974E-10,-4.90293E-07,-1.107686E-07,-6.252873E-09,-2.622604E-08
709.89,-0.4496698,-2.815657E-09,NaN,-0.595899,-1.326871E-07,NaN,-0.01339436,-5.242946E-07,NaN,-0.9569838,2.030757E-05,0.1422834,8.174572E-08,NaN,NaN,-0.5030679,-2.887106E-10,-5.29036E-07,-1.107668E-07,-7.146943E-09,-2.622604E-08
709.9054,-0.4590238,-2.814949E-09,NaN,-0.5962204,-1.326872E-07,NaN,-0.006158756,-5.245815E-07,NaN,-0.9584985,2.0308E-05,0.1339386,8.203401E-08,NaN,NaN,-0.5035142,-2.933672E-10,-5.659908E-07,-1.107649E-07,-8.935082E-09,-2.622604E-08
709.9202,-0.4684215,-2.814241E-09,NaN,-0.5965415,-1.326873E-07,NaN,0.0009392444,-5.248598E-07,NaN,-0.9600699,2.030843E-05,0.1257327,8.231375E-08,NaN,NaN,-0.5039518,-2.980238E-10,-5.987734E-07,-1.107631E-07,-9.531129E-09,-2.622604E-08
709.9348,-0.4684215,-2.814241E-09,NaN,-0.5965415,-1.326873E-07,NaN,0.0009392444,-5.248598E-07,NaN,-0.9600699,2.030843E-05,0.1257327,8.231375E-08,NaN,NaN,-0.5039518,-2.980238E-10,-5.987734E-07,-1.107631E-07,-9.531129E-09,-2.622604E-08
709.9501,-0.4781463,-2.813533E-09,NaN,-0.5968742,-1.326874E-07,NaN,0.008537903,-5.251325E-07,NaN,-0.9616256,2.030885E-05,0.116843,8.258796E-08,NaN,NaN,-0.5044265,-2.980238E-10,-6.428808E-07,-1.107612E-07,-9.829152E-09,-2.622604E-08
709.9642,-0.4880276,-2.812825E-09,NaN,-0.5972105,-1.326874E-07,NaN,0.01604402,-5.25397E-07,NaN,-0.9632594,2.030928E-05,0.1080956,8.285389E-08,NaN,NaN,-0.5048918,-3.07337E-10,-6.822199E-07,-1.107594E-07,-8.041012E-09,-2.622604E-08
709.979,-0.4880276,-2.812825E-09,NaN,-0.5972105,-1.326874E-07,NaN,0.01604402,-5.25397E-07,NaN,-0.9632594,2.030928E-05,0.1080956,8.285389E-08,NaN,NaN,-0.5048918,-3.07337E-10,-6.822199E-07,-1.107594E-07,-8.041012E-09,-2.622604E-08
709.9929,-0.49796,-2.812117E-09,NaN,-0.5975465,-1.326875E-07,NaN,0.02340376,-5.256534E-07,NaN,-0.9649564,2.030972E-05,0.09949456,8.311174E-08,NaN,NaN,-0.505348,-3.166502E-10,-7.203669E-07,-1.107576E-07,-5.507815E-09,-2.622604E-08
710.0081,-0.5078787,-2.811409E-09,NaN,-0.5978803,-1.326874E-07,NaN,0.03060012,-5.260566E-07,NaN,-0.9666985,2.031014E-05,0.09104109,8.351636E-08,NaN,NaN,-0.5057951,-3.166502E-10,-7.567257E-07,-1.107576E-07,-1.335489E-09,-2.861022E-08
710.0228,-0.5180873,-2.810701E-09,NaN,-0.5982248,-1.326878E-07,NaN,0.03828793,-5.263022E-07,NaN,-0.9684144,2.031057E-05,0.0819,8.376347E-08,NaN,NaN,-0.5062792,-3.119936E-10,-8.00237E-07,-1.10758E-07,4.326952E-09,-2.622604E-08
710.0374,-0.5180873,-2.810701E-09,NaN,-0.5982248,-1.326878E-07,NaN,0.03828793,-5.263022E-07,NaN,-0.9684144,2.031057E-05,0.0819,8.376347E-08,NaN,NaN,-0.5062792,-3.119936E-10,-8.00237E-07,-1.10758E-07,4.326952E-09,-2.622604E-08
710.0515,-0.5284272,-2.809994E-09,NaN,-0.5985723,-1.326883E-07,NaN,0.04587774,-5.26464E-07,NaN,-0.9701992,2.031102E-05,0.07290879,8.392668E-08,NaN,NaN,-0.5067537,-3.119936E-10,-8.437484E-07,-1.107585E-07,2.687824E-09,-2.861022E-08
710.067,-0.5388008,-2.809286E-09,NaN,-0.5989192,-1.326891E-07,NaN,0.05331894,-5.265774E-07,NaN,-0.9720407,2.031145E-05,0.06407027,8.404148E-08,NaN,NaN,-0.5072188,-3.026804E-10,-8.854716E-07,-1.107591E-07,1.793754E-09,-2.622604E-08
710.0817,-0.5491479,-2.808578E-09,NaN,-0.5992637,-1.326899E-07,NaN,0.06059562,-5.266602E-07,NaN,-0.973923,2.03119E-05,0.05538476,8.412575E-08,NaN,NaN,-0.5076748,-2.980238E-10,-9.254068E-07,-1.107598E-07,5.295527E-09,-2.861022E-08
710.0966,-0.5491479,-2.808578E-09,NaN,-0.5992637,-1.326899E-07,NaN,0.06059562,-5.266602E-07,NaN,-0.973923,2.03119E-05,0.05538476,8.412575E-08,NaN,NaN,-0.5076748,-2.980238E-10,-9.254068E-07,-1.107598E-07,5.295527E-09,-2.861022E-08
710.1105,-0.5597754,-2.80787E-09,NaN,-0.5996189,-1.326907E-07,NaN,0.0683635,-5.267272E-07,NaN,-0.975777,2.031235E-05,0.04600595,8.41942E-08,NaN,NaN,-0.5081676,-2.887106E-10,-9.760707E-07,-1.107605E-07,6.040585E-09,-2.622604E-08
710.1259,-0.5705264,-2.807162E-09,NaN,-0.599977,-1.326916E-07,NaN,0.07603048,-5.267843E-07,NaN,-0.9776977,2.031281E-05,0.03678369,8.425277E-08,NaN,NaN,-0.5086505,-2.933672E-10,-1.024947E-06,-1.107612E-07,9.616864E-09,-2.861022E-08
710.1405,-0.5813042,-2.806454E-09,NaN,-0.6003343,-1.326925E-07,NaN,0.08354663,-5.268374E-07,NaN,-0.9796736,2.031327E-05,0.02771989,8.43073E-08,NaN,NaN,-0.509124,-2.933672E-10,-1.065478E-06,-1.10762E-07,8.53653E-09,-2.622604E-08
710.1553,-0.5813042,-2.806454E-09,NaN,-0.6003343,-1.326925E-07,NaN,0.08354663,-5.268374E-07,NaN,-0.9796736,2.031327E-05,0.02771989,8.43073E-08,NaN,NaN,-0.509124,-2.933672E-10,-1.065478E-06,-1.10762E-07,8.53653E-09,-2.622604E-08
710.1695,-0.5923932,-2.805745E-09,NaN,-0.6007028,-1.326934E-07,NaN,0.09155409,-5.26575E-07,NaN,-0.9816353,2.031372E-05,0.01796084,8.404628E-08,NaN,NaN,-0.509634,-2.980238E-10,-1.116738E-06,-1.107627E-07,8.070868E-09,-2.861022E-08
710.1849,-0.6036224,-2.805037E-09,NaN,-0.6010744,-1.326943E-07,NaN,0.09945362,-5.263176E-07,NaN,-0.9836732,2.031416E-05,0.008366209,8.379033E-08,NaN,NaN,-0.5101338,-2.887106E-10,-1.16621E-06,-1.107635E-07,3.162798E-09,-2.622604E-08
710.2015,-0.6148865,-2.804328E-09,NaN,-0.601445,-1.326952E-07,NaN,0.1071946,-5.260652E-07,NaN,-0.9857733,2.031461E-05,-0.001062543,8.353935E-08,NaN,NaN,-0.5106238,-2.84054E-10,-1.214489E-06,-1.107642E-07,1.411912E-09,-2.861022E-08
710.2152,-0.6148865,-2.804328E-09,NaN,-0.601445,-1.326952E-07,NaN,0.1071946,-5.260652E-07,NaN,-0.9857733,2.031461E-05,-0.001062543,8.353935E-08,NaN,NaN,-0.5106238,-2.84054E-10,-1.214489E-06,-1.107642E-07,1.411912E-09,-2.861022E-08
710.2292,-0.626121,-2.803619E-09,NaN,-0.601813,-1.326962E-07,NaN,0.1147618,-5.258177E-07,NaN,-0.987918,2.031505E-05,-0.01032613,8.329324E-08,NaN,NaN,-0.5111042,-2.700841E-10,-1.259193E-06,-1.10765E-07,-8.162083E-09,-2.622604E-08
710.2437,-0.6376302,-2.802911E-09,NaN,-0.6021913,-1.326971E-07,NaN,0.1228132,-5.255749E-07,NaN,-0.9900393,2.03155E-05,-0.02029074,8.305189E-08,NaN,NaN,-0.5116209,-2.654275E-10,-1.314625E-06,-1.107657E-07,-1.173836E-08,-2.861022E-08
710.2582,-0.6376302,-2.802911E-09,NaN,-0.6021913,-1.326971E-07,NaN,0.1228132,-5.255749E-07,NaN,-0.9900393,2.03155E-05,-0.02029074,8.305189E-08,NaN,NaN,-0.5116209,-2.654275E-10,-1.314625E-06,-1.107657E-07,-1.173836E-08,-2.861022E-08
710.272,-0.6492553,-2.802202E-09,NaN,-0.6025722,-1.32698E-07,NaN,0.1307528,-5.257576E-07,NaN,-0.9922285,2.031595E-05,-0.03008426,8.323601E-08,NaN,NaN,-0.5121274,-2.654275E-10,-1.365885E-06,-1.107664E-07,-1.285595E-08,-2.622604E-08
710.2873,-0.6608986,-2.801492E-09,NaN,-0.602952,-1.326989E-07,NaN,0.1385331,-5.255187E-07,NaN,-0.9944738,2.03164E-05,-0.03970638,8.29985E-08,NaN,NaN,-0.5126239,-2.607709E-10,-1.417145E-06,-1.107672E-07,-1.419705E-08,-2.861022E-08
710.3021,-0.6725002,-2.800783E-09,NaN,-0.603329,-1.326998E-07,NaN,0.1461399,-5.257051E-07,NaN,-0.9967594,2.031685E-05,-0.04915851,8.318638E-08,NaN,NaN,-0.5131107,-2.607709E-10,-1.464829E-06,-1.107679E-07,-1.881641E-08,-2.622604E-08
710.3181,-0.6725002,-2.800783E-09,NaN,-0.603329,-1.326998E-07,NaN,0.1461399,-5.257051E-07,NaN,-0.9967594,2.031685E-05,-0.04915851,8.318638E-08,NaN,NaN,-0.5131107,-2.607709E-10,-1.464829E-06,-1.107679E-07,-1.881641E-08,-2.622604E-08
710.3306,-0.6843677,-2.800074E-09,NaN,-0.6037163,-1.327007E-07,NaN,0.1542313,-5.25467E-07,NaN,-0.9990209,2.031729E-05,-0.05931842,8.294974E-08,NaN,NaN,-0.5136337,-2.561143E-10,-1.520857E-06,-1.107686E-07,-1.136583E-08,-2.861022E-08
710.3461,-0.6963439,-2.799364E-09,NaN,-0.6041062,-1.327016E-07,NaN,0.1622094,-5.256543E-07,NaN,-1.001348,2.031775E-05,-0.06930099,8.313845E-08,NaN,NaN,-0.5141464,-2.561143E-10,-1.578078E-06,-1.107694E-07,-8.534612E-09,-2.622604E-08
710.3607,-0.7083324,-2.798655E-09,NaN,-0.6044948,-1.327025E-07,NaN,0.1700271,-5.254199E-07,NaN,-1.003731,2.031819E-05,-0.07910682,8.290547E-08,NaN,NaN,-0.514649,-2.514577E-10,-1.629338E-06,-1.107701E-07,-1.240891E-08,-2.861022E-08
710.3759,-0.7083324,-2.798655E-09,NaN,-0.6044948,-1.327025E-07,NaN,0.1700271,-5.254199E-07,NaN,-1.003731,2.031819E-05,-0.07910682,8.290547E-08,NaN,NaN,-0.514649,-2.514577E-10,-1.629338E-06,-1.107701E-07,-1.240891E-08,-2.861022E-08
710.3898,-0.720618,-2.797945E-09,NaN,-0.6048943,-1.327034E-07,NaN,0.1783297,-5.256108E-07,NaN,-1.006103,2.031864E-05,-0.08962199,8.309777E-08,NaN,NaN,-0.5151875,-2.468011E-10,-1.694307E-06,-1.107708E-07,-1.211089E-08,-2.622604E-08
710.405,-0.7330297,-2.797235E-09,NaN,-0.6052964,-1.327043E-07,NaN,0.1865125,-5.253799E-07,NaN,-1.008551,2.031909E-05,-0.09995151,8.28683E-08,NaN,NaN,-0.5157154,-2.468011E-10,-1.756892E-06,-1.107716E-07,-8.832636E-09,-2.861022E-08
710.4199,-0.7330297,-2.797235E-09,NaN,-0.6052964,-1.327043E-07,NaN,0.1865125,-5.253799E-07,NaN,-1.008551,2.031909E-05,-0.09995151,8.28683E-08,NaN,NaN,-0.5157154,-2.468011E-10,-1.756892E-06,-1.107716E-07,-8.832636E-09,-2.861022E-08
710.4339,-0.7454621,-2.796525E-09,NaN,-0.6056972,-1.327052E-07,NaN,0.194528,-5.255742E-07,NaN,-1.011061,2.031954E-05,-0.1100967,8.306404E-08,NaN,NaN,-0.516233,-2.468011E-10,-1.809344E-06,-1.107723E-07,-7.640543E-09,-2.622604E-08
710.4492,-0.7578509,-2.795815E-09,NaN,-0.6060948,-1.327061E-07,NaN,0.2023628,-5.257646E-07,NaN,-1.013616,2.031997E-05,-0.1200601,8.325588E-08,NaN,NaN,-0.5167403,-2.374879E-10,-1.86716E-06,-1.10773E-07,-7.640543E-09,-2.861022E-08
710.4639,-0.770501,-2.795105E-09,NaN,-0.6065026,-1.32707E-07,NaN,0.2106766,-5.255333E-07,NaN,-1.016153,2.032041E-05,-0.1307402,8.302597E-08,NaN,NaN,-0.5172836,-2.281747E-10,-1.935706E-06,-1.107737E-07,-9.130659E-09,-2.622604E-08
710.4794,-0.770501,-2.795105E-09,NaN,-0.6065026,-1.32707E-07,NaN,0.2106766,-5.255333E-07,NaN,-1.016153,2.032041E-05,-0.1307402,8.302597E-08,NaN,NaN,-0.5172836,-2.281747E-10,-1.935706E-06,-1.107737E-07,-9.130659E-09,-2.622604E-08
710.4934,-0.7832535,-2.794395E-09,NaN,-0.6069126,-1.327079E-07,NaN,0.2188685,-5.257272E-07,NaN,-1.018758,2.032086E-05,-0.1412287,8.322129E-08,NaN,NaN,-0.5178162,-2.281747E-10,-1.99531E-06,-1.107745E-07,-7.342519E-09,-2.861022E-08
710.5078,-0.7960107,-2.793685E-09,NaN,-0.607321,-1.327087E-07,NaN,0.2268934,-5.254992E-07,NaN,-1.021418,2.03213E-05,-0.1515279,8.299479E-08,NaN,NaN,-0.5183383,-2.188614E-10,-2.056703E-06,-1.107752E-07,-1.330298E-08,-2.622604E-08
710.5225,-0.8087128,-2.792975E-09,NaN,-0.6077264,-1.327096E-07,NaN,0.2347385,-5.256965E-07,NaN,-1.02412,2.032175E-05,-0.161641,8.319343E-08,NaN,NaN,-0.5188501,-2.188614E-10,-2.111539E-06,-1.107759E-07,-1.86674E-08,-2.861022E-08
710.537,-0.8087128,-2.792975E-09,NaN,-0.6077264,-1.327096E-07,NaN,0.2347385,-5.256965E-07,NaN,-1.02412,2.032175E-05,-0.161641,8.319343E-08,NaN,NaN,-0.5188501,-2.188614E-10,-2.111539E-06,-1.107759E-07,-1.86674E-08,-2.861022E-08
710.551,-0.8216681,-2.792264E-09,NaN,-0.6081418,-1.327105E-07,NaN,0.2430641,-5.25469E-07,NaN,-1.026804,2.032218E-05,-0.1724783,8.296736E-08,NaN,NaN,-0.5193979,-2.095482E-10,-2.186641E-06,-1.107766E-07,-1.568717E-08,-2.622604E-08
710.5665,-0.8347194,-2.791554E-09,NaN,-0.6085595,-1.327113E-07,NaN,0.251267,-5.256666E-07,NaN,-1.029554,2.032262E-05,-0.1831179,8.316643E-08,NaN,NaN,-0.5199348,-2.00235E-10,-2.253398E-06,-1.107773E-07,-9.726707E-09,-2.861022E-08
710.5811,-0.8477699,-2.790843E-09,NaN,-0.6089756,-1.327122E-07,NaN,0.2593027,-5.254424E-07,NaN,-1.032359,2.032306E-05,-0.1935632,8.294361E-08,NaN,NaN,-0.5204611,-1.909217E-10,-2.317175E-06,-1.10778E-07,-1.032275E-08,-2.622604E-08
710.5957,-0.8477699,-2.790843E-09,NaN,-0.6089756,-1.327122E-07,NaN,0.2593027,-5.254424E-07,NaN,-1.032359,2.032306E-05,-0.1935632,8.294361E-08,NaN,NaN,-0.5204611,-1.909217E-10,-2.317175E-06,-1.10778E-07,-1.032275E-08,-2.622604E-08
710.6097,-0.8611054,-2.790133E-09,NaN,-0.6094023,-1.327131E-07,NaN,0.2678188,-5.256432E-07,NaN,-1.035162,2.032351E-05,-0.2047336,8.314586E-08,NaN,NaN,-0.5210231,-1.909217E-10,-2.391681E-06,-1.107787E-07,-9.726707E-09,-2.861022E-08
710.625,-0.8745546,-2.789422E-09,NaN,-0.6098312,-1.32714E-07,NaN,0.2762064,-5.254221E-07,NaN,-1.03804,2.032396E-05,-0.2156975,8.292617E-08,NaN,NaN,-0.521574,-1.909217E-10,-2.460822E-06,-1.107794E-07,-1.211089E-08,-2.622604E-08
710.64,-0.8745546,-2.789422E-09,NaN,-0.6098312,-1.32714E-07,NaN,0.2762064,-5.254221E-07,NaN,-1.03804,2.032396E-05,-0.2156975,8.292617E-08,NaN,NaN,-0.521574,-1.909217E-10,-2.460822E-06,-1.107794E-07,-1.211089E-08,-2.622604E-08
710.6537,-0.888012,-2.788711E-09,NaN,-0.6102583,-1.327148E-07,NaN,0.2844207,-5.25626E-07,NaN,-1.04098,2.032439E-05,-0.226459,8.313148E-08,NaN,NaN,-0.522114,-1.816085E-10,-2.526387E-06,-1.107801E-07,-4.958335E-09,-2.861022E-08
710.6691,-0.9014134,-2.788001E-09,NaN,-0.6106821,-1.327157E-07,NaN,0.2924495,-5.254079E-07,NaN,-1.043964,2.032483E-05,-0.2370228,8.291478E-08,NaN,NaN,-0.5226436,-1.722953E-10,-2.592548E-06,-1.107808E-07,-1.509112E-08,-2.622604E-08
710.6841,-0.9150646,-2.78729E-09,NaN,-0.6111158,-1.327165E-07,NaN,0.3009539,-5.256119E-07,NaN,-1.04694,2.032527E-05,-0.2483201,8.31202E-08,NaN,NaN,-0.5232087,-1.62982E-10,-2.665862E-06,-1.107815E-07,-1.807136E-08,-2.861022E-08
710.6987,-0.9150646,-2.78729E-09,NaN,-0.6111158,-1.327165E-07,NaN,0.3009539,-5.256119E-07,NaN,-1.04694,2.032527E-05,-0.2483201,8.31202E-08,NaN,NaN,-0.5232087,-1.62982E-10,-2.665862E-06,-1.107815E-07,-1.807136E-08,-2.861022E-08
710.7125,-0.9288062,-2.786579E-09,NaN,-0.6115513,-1.327174E-07,NaN,0.3093288,-5.253939E-07,NaN,-1.049984,2.032571E-05,-0.2594057,8.290363E-08,NaN,NaN,-0.5237626,-1.536688E-10,-2.739176E-06,-1.107822E-07,-2.045554E-08,-2.622604E-08
710.728,-0.9425408,-2.785868E-09,NaN,-0.611985,-1.327182E-07,NaN,0.3175315,-5.256008E-07,NaN,-1.053084,2.032615E-05,-0.2702845,8.311197E-08,NaN,NaN,-0.5243058,-1.443556E-10,-2.805933E-06,-1.107829E-07,-1.86674E-08,-2.861022E-08
710.7437,-0.9562085,-2.785157E-09,NaN,-0.6124154,-1.327191E-07,NaN,0.3255504,-5.253857E-07,NaN,-1.056223,2.03266E-05,-0.2809615,8.289827E-08,NaN,NaN,-0.5248383,-1.443556E-10,-2.87269E-06,-1.107836E-07,-2.641601E-08,-2.622604E-08
710.7584,-0.9562085,-2.785157E-09,NaN,-0.6124154,-1.327191E-07,NaN,0.3255504,-5.253857E-07,NaN,-1.056223,2.03266E-05,-0.2809615,8.289827E-08,NaN,NaN,-0.5248383,-1.443556E-10,-2.87269E-06,-1.107836E-07,-2.641601E-08,-2.622604E-08
710.7724,-0.9701183,-2.784446E-09,NaN,-0.6128558,-1.327199E-07,NaN,0.3340465,-5.255955E-07,NaN,-1.059356,2.032704E-05,-0.29238,8.310944E-08,NaN,NaN,-0.5254064,-1.443556E-10,-2.953156E-06,-1.107842E-07,-2.641601E-08,-2.861022E-08
710.7866,-0.9841127,-2.783735E-09,NaN,-0.613298,-1.327208E-07,NaN,0.3424131,-5.253831E-07,NaN,-1.062555,2.032749E-05,-0.3035808,8.289851E-08,NaN,NaN,-0.5259632,-1.443556E-10,-3.022893E-06,-1.107849E-07,-2.76081E-08,-2.622604E-08
710.8026,-0.9980951,-2.783024E-09,NaN,-0.6137384,-1.327216E-07,NaN,0.350608,-5.255927E-07,NaN,-1.065807,2.032794E-05,-0.3145699,8.310955E-08,NaN,NaN,-0.5265092,-1.443556E-10,-3.091439E-06,-1.107856E-07,-2.641601E-08,-2.861022E-08
710.816,-0.9980951,-2.783024E-09,NaN,-0.6137384,-1.327216E-07,NaN,0.350608,-5.255927E-07,NaN,-1.065807,2.032794E-05,-0.3145699,8.310955E-08,NaN,NaN,-0.5265092,-1.443556E-10,-3.091439E-06,-1.107856E-07,-2.641601E-08,-2.861022E-08
710.8298,-1.012352,-2.782312E-09,NaN,-0.6141891,-1.327224E-07,NaN,0.3592795,-5.253802E-07,NaN,-1.069068,2.032839E-05,-0.3263005,8.289851E-08,NaN,NaN,-0.5270905,-1.443556E-10,-3.173097E-06,-1.107863E-07,-2.403182E-08,-2.622604E-08
710.8449,-1.026711,-2.781601E-09,NaN,-0.6146417,-1.327233E-07,NaN,0.3678164,-5.255926E-07,NaN,-1.072405,2.032882E-05,-0.3378038,8.311227E-08,NaN,NaN,-0.5276603,-1.350424E-10,-3.252967E-06,-1.10787E-07,-2.999229E-08,-2.861022E-08
710.8596,-1.026711,-2.781601E-09,NaN,-0.6146417,-1.327233E-07,NaN,0.3678164,-5.255926E-07,NaN,-1.072405,2.032882E-05,-0.3378038,8.311227E-08,NaN,NaN,-0.5276603,-1.350424E-10,-3.252967E-06,-1.10787E-07,-2.999229E-08,-2.861022E-08
710.8737,-1.041068,-2.780889E-09,NaN,-0.6150922,-1.327241E-07,NaN,0.3761759,-5.253829E-07,NaN,-1.075802,2.032926E-05,-0.3490871,8.290395E-08,NaN,NaN,-0.528219,-1.257291E-10,-3.325089E-06,-1.107876E-07,-2.880019E-08,-2.622604E-08
710.8893,-1.055358,-2.780178E-09,NaN,-0.6155393,-1.327249E-07,NaN,0.3843471,-5.255978E-07,NaN,-1.079242,2.03297E-05,-0.3601567,8.312037E-08,NaN,NaN,-0.5287668,-1.164159E-10,-3.396913E-06,-1.107883E-07,-2.76081E-08,-2.861022E-08
710.9041,-1.069888,-2.779466E-09,NaN,-0.615996,-1.327258E-07,NaN,0.3929904,-5.253906E-07,NaN,-1.082686,2.033014E-05,-0.3719771,8.291461E-08,NaN,NaN,-0.5293499,-1.071027E-10,-3.479167E-06,-1.10789E-07,-1.926345E-08,-2.622604E-08
710.9185,-1.069888,-2.779466E-09,NaN,-0.615996,-1.327258E-07,NaN,0.3929904,-5.253906E-07,NaN,-1.082686,2.033014E-05,-0.3719771,8.291461E-08,NaN,NaN,-0.5293499,-1.071027E-10,-3.479167E-06,-1.10789E-07,-1.926345E-08,-2.622604E-08
710.9326,-1.084497,-2.778754E-09,NaN,-0.6164543,-1.327266E-07,NaN,0.4014989,-5.256082E-07,NaN,-1.086197,2.033058E-05,-0.3835655,8.313354E-08,NaN,NaN,-0.5299215,-9.778944E-11,-3.556355E-06,-1.107896E-07,-1.807136E-08,-2.861022E-08
710.9483,-1.09909,-2.778043E-09,NaN,-0.6169106,-1.327274E-07,NaN,0.4098318,-5.254007E-07,NaN,-1.089763,2.033102E-05,-0.3949297,8.292741E-08,NaN,NaN,-0.530482,-9.778944E-11,-3.627285E-06,-1.107903E-07,-2.045554E-08,-2.622604E-08
710.9626,-1.113604,-2.777331E-09,NaN,-0.6173633,-1.327282E-07,NaN,0.4179784,-5.256178E-07,NaN,-1.093367,2.033146E-05,-0.4060763,8.314598E-08,NaN,NaN,-0.5310315,-8.847622E-11,-3.69732E-06,-1.10791E-07,-2.403182E-08,-2.861022E-08
710.9775,-1.113604,-2.777331E-09,NaN,-0.6173633,-1.327282E-07,NaN,0.4179784,-5.256178E-07,NaN,-1.093367,2.033146E-05,-0.4060763,8.314598E-08,NaN,NaN,-0.5310315,-8.847622E-11,-3.69732E-06,-1.10791E-07,-2.403182E-08,-2.861022E-08
710.9915,-1.116593,-2.776619E-09,NaN,-0.6173605,-1.32729E-07,NaN,0.4042245,-5.254127E-07,NaN,-1.097643,2.033191E-05,-0.3849885,8.294233E-08,NaN,NaN,-0.53005,-8.847622E-11,-3.251179E-06,-1.107916E-07,-2.283973E-08,-2.622604E-08
711.007,-1.112524,-2.775907E-09,NaN,-0.6171358,-1.327299E-07,NaN,0.3886924,-5.256323E-07,NaN,-1.100562,2.033235E-05,-0.3649257,8.316332E-08,NaN,NaN,-0.5290931,-7.9163E-11,-2.902343E-06,-1.107923E-07,-1.807135E-08,-2.861022E-08
711.0225,-1.104152,-2.775195E-09,NaN,-0.6167839,-1.327307E-07,NaN,0.3728622,-5.254296E-07,NaN,-1.102188,2.033279E-05,-0.3457168,8.296205E-08,NaN,NaN,-0.5281577,-6.984977E-11,-2.621307E-06,-1.10793E-07,-1.807135E-08,-2.622604E-08
711.0363,-1.104152,-2.775195E-09,NaN,-0.6167839,-1.327307E-07,NaN,0.3728622,-5.254296E-07,NaN,-1.102188,2.033279E-05,-0.3457168,8.296205E-08,NaN,NaN,-0.5281577,-6.984977E-11,-2.621307E-06,-1.10793E-07,-1.807135E-08,-2.622604E-08
711.0505,-1.093536,-2.774483E-09,NaN,-0.6163703,-1.327315E-07,NaN,0.3579288,-5.256515E-07,NaN,-1.102745,2.033323E-05,-0.3281573,8.318536E-08,NaN,NaN,-0.5272879,-6.053655E-11,-2.399876E-06,-1.107936E-07,-1.687926E-08,-2.861022E-08
711.0657,-1.081597,-2.773771E-09,NaN,-0.6159201,-1.327323E-07,NaN,0.3434764,-5.254483E-07,NaN,-1.102568,2.033367E-05,-0.3111355,8.298355E-08,NaN,NaN,-0.5264356,-6.053655E-11,-2.210333E-06,-1.107943E-07,-2.283972E-08,-2.622604E-08
711.0801,-1.068906,-2.773059E-09,NaN,-0.6154485,-1.327331E-07,NaN,0.3294742,-5.256696E-07,NaN,-1.101886,2.033411E-05,-0.2945816,8.320633E-08,NaN,NaN,-0.5256003,-5.587994E-11,-2.041354E-06,-1.107949E-07,-1.807135E-08,-2.861022E-08
711.0947,-1.068906,-2.773059E-09,NaN,-0.6154485,-1.327331E-07,NaN,0.3294742,-5.256696E-07,NaN,-1.101886,2.033411E-05,-0.2945816,8.320633E-08,NaN,NaN,-0.5256003,-5.587994E-11,-2.041354E-06,-1.107949E-07,-1.807135E-08,-2.861022E-08
711.1088,-1.055814,-2.772347E-09,NaN,-0.6149656,-1.327339E-07,NaN,0.3158752,-5.254687E-07,NaN,-1.100866,2.033455E-05,-0.2784489,8.300682E-08,NaN,NaN,-0.5247815,-5.122332E-11,-1.88668E-06,-1.107956E-07,-2.164763E-08,-2.622604E-08
711.1241,-1.042884,-2.771634E-09,NaN,-0.6144915,-1.327347E-07,NaN,0.3032747,-5.256923E-07,NaN,-1.099589,2.033499E-05,-0.2636431,8.323187E-08,NaN,NaN,-0.5240248,-4.656671E-11,-1.757338E-06,-1.107962E-07,-2.164763E-08,-2.861022E-08
711.1388,-1.042884,-2.771634E-09,NaN,-0.6144915,-1.327347E-07,NaN,0.3032747,-5.256923E-07,NaN,-1.099589,2.033499E-05,-0.2636431,8.323187E-08,NaN,NaN,-0.5240248,-4.656671E-11,-1.757338E-06,-1.107962E-07,-2.164763E-08,-2.861022E-08
711.1528,-1.030111,-2.770922E-09,NaN,-0.6140253,-1.327355E-07,NaN,0.291068,-5.254936E-07,NaN,-1.09821,2.033543E-05,-0.2491638,8.303458E-08,NaN,NaN,-0.523283,-4.19101E-11,-1.637234E-06,-1.107969E-07,-2.283973E-08,-2.622604E-08
711.1685,-1.017495,-2.77021E-09,NaN,-0.6135665,-1.327363E-07,NaN,0.2791736,-5.257194E-07,NaN,-1.096778,2.033586E-05,-0.2350019,8.32618E-08,NaN,NaN,-0.5225557,-3.725349E-11,-1.519217E-06,-1.107975E-07,-2.283973E-08,-2.861022E-08
711.1828,-1.005032,-2.769498E-09,NaN,-0.6131146,-1.327371E-07,NaN,0.2675505,-5.2552E-07,NaN,-1.095318,2.03363E-05,-0.221149,8.306382E-08,NaN,NaN,-0.5218427,-3.259688E-11,-1.405968E-06,-1.107981E-07,-2.045554E-08,-2.622604E-08
711.1976,-1.005032,-2.769498E-09,NaN,-0.6131146,-1.327371E-07,NaN,0.2675505,-5.2552E-07,NaN,-1.095318,2.03363E-05,-0.221149,8.306382E-08,NaN,NaN,-0.5218427,-3.259688E-11,-1.405968E-06,-1.107981E-07,-2.045554E-08,-2.622604E-08
711.2114,-0.9930645,-2.768785E-09,NaN,-0.6126832,-1.327379E-07,NaN,0.2568111,-5.257451E-07,NaN,-1.093805,2.033675E-05,-0.2085204,8.329035E-08,NaN,NaN,-0.5211897,-3.259688E-11,-1.312389E-06,-1.107988E-07,-2.283973E-08,-2.861022E-08
711.2269,-0.9814555,-2.768072E-09,NaN,-0.6122669,-1.327386E-07,NaN,0.2463792,-5.255478E-07,NaN,-1.092327,2.033719E-05,-0.1961493,8.309453E-08,NaN,NaN,-0.5205494,-3.259688E-11,-1.218214E-06,-1.107994E-07,-2.522391E-08,-2.622604E-08
711.2415,-0.9701187,-2.76736E-09,NaN,-0.6118622,-1.327394E-07,NaN,0.2361892,-5.253544E-07,NaN,-1.090884,2.033763E-05,-0.1840359,8.29025E-08,NaN,NaN,-0.5199216,-3.259688E-11,-1.124635E-06,-1.108001E-07,-1.211089E-08,-2.861022E-08
711.2564,-0.9701187,-2.76736E-09,NaN,-0.6118622,-1.327394E-07,NaN,0.2361892,-5.253544E-07,NaN,-1.090884,2.033763E-05,-0.1840359,8.29025E-08,NaN,NaN,-0.5199216,-3.259688E-11,-1.124635E-06,-1.108001E-07,-1.211089E-08,-2.861022E-08
711.2715,-0.9593455,-2.766647E-09,NaN,-0.6114807,-1.327402E-07,NaN,0.2268445,-5.255853E-07,NaN,-1.089428,2.033807E-05,-0.1730905,8.313486E-08,NaN,NaN,-0.5193521,-3.259688E-11,-1.046552E-06,-1.108007E-07,-1.09188E-08,-2.622604E-08
711.2868,-0.948966,-2.765935E-09,NaN,-0.6111156,-1.32741E-07,NaN,0.2177716,-5.253938E-07,NaN,-1.088036,2.033851E-05,-0.1623623,8.294475E-08,NaN,NaN,-0.5187936,-3.259688E-11,-9.732388E-07,-1.108013E-07,-1.807135E-08,-2.861022E-08
711.3015,-0.938875,-2.765222E-09,NaN,-0.6107627,-1.327418E-07,NaN,0.2089066,-5.256267E-07,NaN,-1.086698,2.033896E-05,-0.1518531,8.3179E-08,NaN,NaN,-0.5182461,-3.259688E-11,-8.957527E-07,-1.108019E-07,-2.403182E-08,-2.622604E-08
711.3151,-0.938875,-2.765222E-09,NaN,-0.6107627,-1.327418E-07,NaN,0.2089066,-5.256267E-07,NaN,-1.086698,2.033896E-05,-0.1518531,8.3179E-08,NaN,NaN,-0.5182461,-3.259688E-11,-8.957527E-07,-1.108019E-07,-2.403182E-08,-2.622604E-08
711.3292,-0.9290066,-2.764509E-09,NaN,-0.6104193,-1.327425E-07,NaN,0.200223,-5.25437E-07,NaN,-1.085402,2.03394E-05,-0.1415618,8.299074E-08,NaN,NaN,-0.5177093,-3.259688E-11,-8.21843E-07,-1.108026E-07,-2.880019E-08,-2.861022E-08
711.3443,-0.9196646,-2.763796E-09,NaN,-0.6100972,-1.327433E-07,NaN,0.1923395,-5.256688E-07,NaN,-1.084089,2.033984E-05,-0.1323871,8.322397E-08,NaN,NaN,-0.517229,-3.259688E-11,-7.628344E-07,-1.108032E-07,-3.178042E-08,-2.622604E-08
711.3588,-0.9196646,-2.763796E-09,NaN,-0.6100972,-1.327433E-07,NaN,0.1923395,-5.256688E-07,NaN,-1.084089,2.033984E-05,-0.1323871,8.322397E-08,NaN,NaN,-0.517229,-3.259688E-11,-7.628344E-07,-1.108032E-07,-3.178042E-08,-2.622604E-08
711.3728,-0.9106873,-2.763083E-09,NaN,-0.6097901,-1.327441E-07,NaN,0.1846941,-5.254781E-07,NaN,-1.082838,2.034029E-05,-0.1233922,8.303473E-08,NaN,NaN,-0.516758,-4.19101E-11,-7.032298E-07,-1.108038E-07,-3.118438E-08,-2.861022E-08
711.3882,-0.9019742,-2.76237E-09,NaN,-0.609494,-1.327448E-07,NaN,0.177226,-5.257118E-07,NaN,-1.08164,2.034073E-05,-0.1145791,8.326982E-08,NaN,NaN,-0.5162962,-4.19101E-11,-6.466054E-07,-1.108044E-07,-2.701205E-08,-2.622604E-08
711.4025,-0.8934627,-2.761657E-09,NaN,-0.6092061,-1.327456E-07,NaN,0.1699104,-5.25523E-07,NaN,-1.080482,2.034117E-05,-0.1059468,8.308239E-08,NaN,NaN,-0.5158435,-4.19101E-11,-5.887889E-07,-1.108051E-07,-1.98595E-08,-2.861022E-08
711.4177,-0.8934627,-2.761657E-09,NaN,-0.6092061,-1.327456E-07,NaN,0.1699104,-5.25523E-07,NaN,-1.080482,2.034117E-05,-0.1059468,8.308239E-08,NaN,NaN,-0.5158435,-4.19101E-11,-5.887889E-07,-1.108051E-07,-1.98595E-08,-2.861022E-08
711.4316,-0.8854584,-2.760944E-09,NaN,-0.6089386,-1.327464E-07,NaN,0.163365,-5.253378E-07,NaN,-1.079303,2.034162E-05,-0.09838463,8.289859E-08,NaN,NaN,-0.5154455,-4.19101E-11,-5.458735E-07,-1.108057E-07,-1.449508E-08,-2.622604E-08
711.447,-0.8778011,-2.760231E-09,NaN,-0.6086851,-1.327471E-07,NaN,0.157031,-5.255768E-07,NaN,-1.078186,2.034206E-05,-0.0909686,8.3139E-08,NaN,NaN,-0.5150552,-4.19101E-11,-5.0117E-07,-1.108063E-07,-1.449508E-08,-2.861022E-08
711.4615,-0.8703911,-2.759518E-09,NaN,-0.6084416,-1.327479E-07,NaN,0.1508479,-5.253932E-07,NaN,-1.077122,2.03425E-05,-0.08370074,8.29568E-08,NaN,NaN,-0.5146725,-4.19101E-11,-4.534863E-07,-1.108069E-07,-1.032275E-08,-2.622604E-08
711.4763,-0.8703911,-2.759518E-09,NaN,-0.6084416,-1.327479E-07,NaN,0.1508479,-5.253932E-07,NaN,-1.077122,2.03425E-05,-0.08370074,8.29568E-08,NaN,NaN,-0.5146725,-4.19101E-11,-4.534863E-07,-1.108069E-07,-1.032275E-08,-2.622604E-08
711.4904,-0.8635111,-2.758805E-09,NaN,-0.6082193,-1.327487E-07,NaN,0.1454175,-5.256338E-07,NaN,-1.076049,2.034294E-05,-0.0774659,8.319878E-08,NaN,NaN,-0.5143433,-3.725349E-11,-4.218958E-07,-1.108075E-07,-1.151485E-08,-2.861022E-08
711.506,-0.856987,-2.758091E-09,NaN,-0.6080111,-1.327494E-07,NaN,0.140177,-5.254517E-07,NaN,-1.075048,2.034338E-05,-0.07134914,8.301814E-08,NaN,NaN,-0.5140203,-3.725349E-11,-3.867291E-07,-1.108081E-07,-6.746474E-09,-2.622604E-08
711.5207,-0.8507106,-2.757378E-09,NaN,-0.6078128,-1.327502E-07,NaN,0.1350641,-5.25691E-07,NaN,-1.074108,2.034382E-05,-0.06535294,8.32588E-08,NaN,NaN,-0.5137037,-3.725349E-11,-3.509663E-07,-1.108087E-07,-9.726706E-09,-2.861022E-08
711.5352,-0.8507106,-2.757378E-09,NaN,-0.6078128,-1.327502E-07,NaN,0.1350641,-5.25691E-07,NaN,-1.074108,2.034382E-05,-0.06535294,8.32588E-08,NaN,NaN,-0.5137037,-3.725349E-11,-3.509663E-07,-1.108087E-07,-9.726706E-09,-2.861022E-08
711.5514,-0.8446147,-2.756664E-09,NaN,-0.6076215,-1.327509E-07,NaN,0.1300544,-5.255076E-07,NaN,-1.073214,2.034426E-05,-0.05947717,8.307687E-08,NaN,NaN,-0.5133933,-3.259688E-11,-3.140114E-07,-1.108093E-07,-6.150427E-09,-2.622604E-08
711.5658,-0.8390017,-2.755951E-09,NaN,-0.6074493,-1.327517E-07,NaN,0.1257647,-5.253278E-07,NaN,-1.072301,2.03447E-05,-0.05459916,8.289845E-08,NaN,NaN,-0.5131348,-3.259688E-11,-2.95534E-07,-1.108099E-07,-1.09188E-08,-2.861022E-08
711.5794,-0.8390017,-2.755951E-09,NaN,-0.6074493,-1.327517E-07,NaN,0.1257647,-5.253278E-07,NaN,-1.072301,2.03447E-05,-0.05459916,8.289845E-08,NaN,NaN,-0.5131348,-3.259688E-11,-2.95534E-07,-1.108099E-07,-1.09188E-08,-2.861022E-08
711.5933,-0.8337101,-2.755237E-09,NaN,-0.6072896,-1.327524E-07,NaN,0.12164,-5.25572E-07,NaN,-1.071454,2.034515E-05,-0.04981238,8.314413E-08,NaN,NaN,-0.5128813,-3.259688E-11,-2.69904E-07,-1.108106E-07,-9.726706E-09,-2.622604E-08
711.6085,-0.8286396,-2.754523E-09,NaN,-0.6071385,-1.327531E-07,NaN,0.1176203,-5.253936E-07,NaN,-1.070663,2.034559E-05,-0.04511911,8.296711E-08,NaN,NaN,-0.5126328,-3.259688E-11,-2.44274E-07,-1.108112E-07,-5.554381E-09,-2.861022E-08
711.6232,-0.8237277,-2.75381E-09,NaN,-0.6069933,-1.327539E-07,NaN,0.1136824,-5.256392E-07,NaN,-1.069915,2.034603E-05,-0.04051934,8.321415E-08,NaN,NaN,-0.5123891,-3.259688E-11,-2.192401E-07,-1.108117E-07,-4.362287E-09,-2.622604E-08
711.6379,-0.8237277,-2.75381E-09,NaN,-0.6069933,-1.327539E-07,NaN,0.1136824,-5.256392E-07,NaN,-1.069915,2.034603E-05,-0.04051934,8.321415E-08,NaN,NaN,-0.5123891,-3.259688E-11,-2.192401E-07,-1.108117E-07,-4.362287E-09,-2.622604E-08
711.6519,-0.8192799,-2.753096E-09,NaN,-0.6068664,-1.327546E-07,NaN,0.1104429,-5.254622E-07,NaN,-1.069145,2.034647E-05,-0.03688528,8.303848E-08,NaN,NaN,-0.5121961,-3.259688E-11,-2.073191E-07,-1.108123E-07,-4.362287E-09,-2.861022E-08
711.6672,-0.8151367,-2.752382E-09,NaN,-0.6067511,-1.327553E-07,NaN,0.1073476,-5.257063E-07,NaN,-1.06844,2.034691E-05,-0.03331774,8.328401E-08,NaN,NaN,-0.5120067,-3.259688E-11,-1.936101E-07,-1.108129E-07,-3.170195E-09,-2.622604E-08
711.6821,-0.8111992,-2.751668E-09,NaN,-0.6066436,-1.327561E-07,NaN,0.104337,-5.255278E-07,NaN,-1.067792,2.034736E-05,-0.02981908,8.310687E-08,NaN,NaN,-0.511821,-4.19101E-11,-1.763247E-07,-1.108135E-07,-7.342519E-09,-2.861022E-08
711.6968,-0.8111992,-2.751668E-09,NaN,-0.6066436,-1.327561E-07,NaN,0.104337,-5.255278E-07,NaN,-1.067792,2.034736E-05,-0.02981908,8.310687E-08,NaN,NaN,-0.511821,-4.19101E-11,-1.763247E-07,-1.108135E-07,-7.342519E-09,-2.861022E-08
711.7108,-0.80775,-2.750954E-09,NaN,-0.606555,-1.327568E-07,NaN,0.1020123,-5.253526E-07,NaN,-1.067134,2.034781E-05,-0.02725974,8.293314E-08,NaN,NaN,-0.5116848,-4.19101E-11,-1.733445E-07,-1.108141E-07,-4.958334E-09,-2.622604E-08
711.7262,-0.8046159,-2.75024E-09,NaN,-0.6064784,-1.327575E-07,NaN,0.09981414,-5.256015E-07,NaN,-1.066553,2.034825E-05,-0.02474551,8.318339E-08,NaN,NaN,-0.5115513,-3.725349E-11,-1.661919E-07,-1.108147E-07,-1.978102E-09,-2.861022E-08
711.7408,-0.8016891,-2.749526E-09,NaN,-0.6064094,-1.327582E-07,NaN,0.09768128,-5.254275E-07,NaN,-1.066036,2.034868E-05,-0.02227906,8.301088E-08,NaN,NaN,-0.5114202,-3.259688E-11,-1.584433E-07,-1.108153E-07,1.598177E-09,-2.622604E-08
711.757,-0.8016891,-2.749526E-09,NaN,-0.6064094,-1.327582E-07,NaN,0.09768128,-5.254275E-07,NaN,-1.066036,2.034868E-05,-0.02227906,8.301088E-08,NaN,NaN,-0.5114202,-3.259688E-11,-1.584433E-07,-1.108153E-07,1.598177E-09,-2.622604E-08
711.7697,-0.7989029,-2.748812E-09,NaN,-0.6063455,-1.32759E-07,NaN,0.09559059,-5.256776E-07,NaN,-1.065567,2.034913E-05,-0.01986093,8.326233E-08,NaN,NaN,-0.5112918,-3.259688E-11,-1.500987E-07,-1.108159E-07,3.386316E-09,-2.861022E-08
711.7855,-0.79656,-2.748098E-09,NaN,-0.6062986,-1.327597E-07,NaN,0.09415915,-5.255048E-07,NaN,-1.065079,2.034957E-05,-0.01835809,8.309099E-08,NaN,NaN,-0.5112117,-3.259688E-11,-1.524829E-07,-1.108165E-07,3.386316E-09,-2.622604E-08
711.8,-0.79656,-2.748098E-09,NaN,-0.6062986,-1.327597E-07,NaN,0.09415915,-5.255048E-07,NaN,-1.065079,2.034957E-05,-0.01835809,8.309099E-08,NaN,NaN,-0.5112117,-3.259688E-11,-1.524829E-07,-1.108165E-07,3.386316E-09,-2.622604E-08
711.8163,-0.7944995,-2.747384E-09,NaN,-0.6062621,-1.327604E-07,NaN,0.092834,-5.253354E-07,NaN,-1.064661,2.035002E-05,-0.01688014,8.292296E-08,NaN,NaN,-0.5111331,-4.19101E-11,-1.506947E-07,-1.10817E-07,3.386316E-09,-2.861022E-08
711.8306,-0.7926215,-2.74667E-09,NaN,-0.6062323,-1.327611E-07,NaN,0.09155651,-5.255898E-07,NaN,-1.064301,2.035046E-05,-0.0154297,8.31788E-08,NaN,NaN,-0.511056,-4.19101E-11,-1.471184E-07,-1.108176E-07,-1.899625E-10,-2.622604E-08
711.844,-0.7908641,-2.745955E-09,NaN,-0.6062065,-1.327619E-07,NaN,0.09030458,-5.254214E-07,NaN,-1.063986,2.03509E-05,-0.01400745,8.301178E-08,NaN,NaN,-0.5109804,-4.19101E-11,-1.41158E-07,-1.108182E-07,-5.55438E-09,-2.861022E-08
711.8588,-0.7908641,-2.745955E-09,NaN,-0.6062065,-1.327619E-07,NaN,0.09030458,-5.254214E-07,NaN,-1.063986,2.03509E-05,-0.01400745,8.301178E-08,NaN,NaN,-0.5109804,-4.19101E-11,-1.41158E-07,-1.108182E-07,-5.55438E-09,-2.861022E-08
711.8726,-0.7895329,-2.745241E-09,NaN,-0.606197,-1.327626E-07,NaN,0.08969573,-5.25674E-07,NaN,-1.06365,2.035134E-05,-0.01347896,8.326576E-08,NaN,NaN,-0.5109522,-4.19101E-11,-1.506947E-07,-1.108188E-07,-7.938565E-09,-2.622604E-08
711.8879,-0.7884693,-2.744526E-09,NaN,-0.6061972,-1.327633E-07,NaN,0.08917683,-5.255037E-07,NaN,-1.063382,2.035179E-05,-0.01295665,8.309692E-08,NaN,NaN,-0.5109244,-4.19101E-11,-1.530789E-07,-1.108194E-07,-1.389903E-08,-2.861022E-08
711.9025,-0.7875748,-2.743812E-09,NaN,-0.6062025,-1.32764E-07,NaN,0.08868945,-5.253367E-07,NaN,-1.063173,2.035223E-05,-0.01244326,8.293134E-08,NaN,NaN,-0.5108972,-4.19101E-11,-1.560591E-07,-1.108199E-07,-1.389903E-08,-2.622604E-08
711.9174,-0.7875748,-2.743812E-09,NaN,-0.6062025,-1.32764E-07,NaN,0.08868945,-5.253367E-07,NaN,-1.063173,2.035223E-05,-0.01244326,8.293134E-08,NaN,NaN,-0.5108972,-4.19101E-11,-1.560591E-07,-1.108199E-07,-1.389903E-08,-2.622604E-08
711.9316,-0.7871323,-2.743097E-09,NaN,-0.6062245,-1.327647E-07,NaN,0.08883634,-5.255935E-07,NaN,-1.062955,2.035267E-05,-0.01280494,8.318956E-08,NaN,NaN,-0.5109163,-4.19101E-11,-1.67384E-07,-1.108205E-07,-2.105159E-08,-2.861022E-08
711.9468,-0.7869692,-2.742383E-09,NaN,-0.6062564,-1.327654E-07,NaN,0.08905812,-5.254274E-07,NaN,-1.062816,2.035311E-05,-0.01315573,8.302488E-08,NaN,NaN,-0.5109349,-3.725349E-11,-1.733445E-07,-1.108211E-07,-1.807135E-08,-2.622604E-08
711.9614,-0.7869771,-2.741668E-09,NaN,-0.6062939,-1.327661E-07,NaN,0.08929453,-5.256851E-07,NaN,-1.062743,2.035355E-05,-0.01349866,8.328399E-08,NaN,NaN,-0.5109532,-3.259688E-11,-1.79901E-07,-1.108216E-07,-1.985949E-08,-2.861022E-08
711.9762,-0.7869771,-2.741668E-09,NaN,-0.6062939,-1.327661E-07,NaN,0.08929453,-5.256851E-07,NaN,-1.062743,2.035355E-05,-0.01349866,8.328399E-08,NaN,NaN,-0.5109532,-3.259688E-11,-1.79901E-07,-1.108216E-07,-1.985949E-08,-2.861022E-08
711.9901,-0.7870899,-2.740953E-09,NaN,-0.6063345,-1.327668E-07,NaN,0.08952408,-5.255199E-07,NaN,-1.06272,2.035399E-05,-0.01383493,8.312017E-08,NaN,NaN,-0.5109711,-3.259688E-11,-1.840733E-07,-1.108222E-07,-2.164763E-08,-2.622604E-08
712.0057,-0.7876109,-2.740238E-09,NaN,-0.6063905,-1.327675E-07,NaN,0.09036579,-5.253578E-07,NaN,-1.062678,2.035443E-05,-0.01503055,8.295952E-08,NaN,NaN,-0.5110344,-3.259688E-11,-2.019547E-07,-1.108228E-07,-2.045554E-08,-2.861022E-08
712.0203,-0.7883799,-2.739524E-09,NaN,-0.6064553,-1.327682E-07,NaN,0.09126583,-5.256194E-07,NaN,-1.062708,2.035487E-05,-0.01619954,8.322256E-08,NaN,NaN,-0.5110965,-3.259688E-11,-2.150677E-07,-1.108233E-07,-1.86674E-08,-2.622604E-08
712.035,-0.7883799,-2.739524E-09,NaN,-0.6064553,-1.327682E-07,NaN,0.09126583,-5.256194E-07,NaN,-1.062708,2.035487E-05,-0.01619954,8.322256E-08,NaN,NaN,-0.5110965,-3.259688E-11,-2.150677E-07,-1.108233E-07,-1.86674E-08,-2.622604E-08
712.0492,-0.7892974,-2.738809E-09,NaN,-0.6065246,-1.327689E-07,NaN,0.09216706,-5.254581E-07,NaN,-1.062798,2.035532E-05,-0.017345,8.306262E-08,NaN,NaN,-0.5111573,-3.259688E-11,-2.240084E-07,-1.108239E-07,-2.76081E-08,-2.861022E-08
712.0643,-0.7903018,-2.738094E-09,NaN,-0.6065964,-1.327696E-07,NaN,0.0930487,-5.257176E-07,NaN,-1.062933,2.035576E-05,-0.01846836,8.332353E-08,NaN,NaN,-0.5112169,-3.259688E-11,-2.359294E-07,-1.108244E-07,-2.701205E-08,-2.622604E-08
712.0801,-0.7916992,-2.737379E-09,NaN,-0.6066827,-1.327703E-07,NaN,0.09453041,-5.255541E-07,NaN,-1.063048,2.03562E-05,-0.02043721,8.31615E-08,NaN,NaN,-0.5113212,-3.259688E-11,-2.585791E-07,-1.10825E-07,-3.297252E-08,-2.861022E-08
712.0948,-0.7916992,-2.737379E-09,NaN,-0.6066827,-1.327703E-07,NaN,0.09453041,-5.255541E-07,NaN,-1.063048,2.03562E-05,-0.02043721,8.31615E-08,NaN,NaN,-0.5113212,-3.259688E-11,-2.585791E-07,-1.10825E-07,-3.297252E-08,-2.861022E-08
712.1089,-0.7933313,-2.736664E-09,NaN,-0.606777,-1.327709E-07,NaN,0.09605733,-5.253938E-07,NaN,-1.063231,2.035664E-05,-0.0223647,8.300259E-08,NaN,NaN,-0.5114233,-3.259688E-11,-2.794407E-07,-1.108256E-07,-2.999228E-08,-2.622604E-08
712.1233,-0.7950997,-2.735949E-09,NaN,-0.6068752,-1.327716E-07,NaN,0.09757267,-5.256572E-07,NaN,-1.063474,2.035708E-05,-0.0242542,8.326734E-08,NaN,NaN,-0.5115235,-3.259688E-11,-2.943419E-07,-1.108261E-07,-2.939624E-08,-2.861022E-08
712.1379,-0.7950997,-2.735949E-09,NaN,-0.6068752,-1.327716E-07,NaN,0.09757267,-5.256572E-07,NaN,-1.063474,2.035708E-05,-0.0242542,8.326734E-08,NaN,NaN,-0.5115235,-3.259688E-11,-2.943419E-07,-1.108261E-07,-2.939624E-08,-2.861022E-08
712.1519,-0.797288,-2.735234E-09,NaN,-0.6069888,-1.327723E-07,NaN,0.0996817,-5.254975E-07,NaN,-1.06371,2.035753E-05,-0.02697589,8.310907E-08,NaN,NaN,-0.5116675,-3.259688E-11,-3.2176E-07,-1.108267E-07,-2.522391E-08,-2.622604E-08
712.1672,-0.7997237,-2.734519E-09,NaN,-0.6071104,-1.32773E-07,NaN,0.101823,-5.253409E-07,NaN,-1.064025,2.035797E-05,-0.02964194,8.295385E-08,NaN,NaN,-0.5118086,-3.259688E-11,-3.426217E-07,-1.108272E-07,-2.045554E-08,-2.861022E-08
712.1819,-0.8022999,-2.733804E-09,NaN,-0.6072358,-1.327737E-07,NaN,0.1039384,-5.256078E-07,NaN,-1.064406,2.035841E-05,-0.03225606,8.322222E-08,NaN,NaN,-0.5119469,-3.259688E-11,-3.605031E-07,-1.108277E-07,-2.224368E-08,-2.622604E-08
712.1965,-0.8022999,-2.733804E-09,NaN,-0.6072358,-1.327737E-07,NaN,0.1039384,-5.256078E-07,NaN,-1.064406,2.035841E-05,-0.03225606,8.322222E-08,NaN,NaN,-0.5119469,-3.259688E-11,-3.605031E-07,-1.108277E-07,-2.224368E-08,-2.622604E-08
712.2105,-0.8049504,-2.733088E-09,NaN,-0.6073626,-1.327743E-07,NaN,0.1060076,-5.254517E-07,NaN,-1.064836,2.035885E-05,-0.03482024,8.30675E-08,NaN,NaN,-0.5120825,-3.259688E-11,-3.742121E-07,-1.108283E-07,-2.999229E-08,-2.861022E-08
712.2274,-0.8079789,-2.732373E-09,NaN,-0.6075032,-1.32775E-07,NaN,0.1086521,-5.252986E-07,NaN,-1.065249,2.035929E-05,-0.03820721,8.291577E-08,NaN,NaN,-0.5122612,-3.259688E-11,-4.022263E-07,-1.108288E-07,-2.403182E-08,-2.622604E-08
712.2407,-0.8112252,-2.731658E-09,NaN,-0.6076505,-1.327757E-07,NaN,0.1113154,-5.255689E-07,NaN,-1.065733,2.035973E-05,-0.04152593,8.318754E-08,NaN,NaN,-0.5124364,-2.794026E-11,-4.290484E-07,-1.108294E-07,-1.86674E-08,-2.861022E-08
712.2554,-0.8112252,-2.731658E-09,NaN,-0.6076505,-1.327757E-07,NaN,0.1113154,-5.255689E-07,NaN,-1.065733,2.035973E-05,-0.04152593,8.318754E-08,NaN,NaN,-0.5124364,-2.794026E-11,-4.290484E-07,-1.108294E-07,-1.86674E-08,-2.861022E-08
712.2694,-0.8145902,-2.730942E-09,NaN,-0.6078007,-1.327763E-07,NaN,0.1139421,-5.254161E-07,NaN,-1.066278,2.036017E-05,-0.04478031,8.303617E-08,NaN,NaN,-0.5126081,-2.328365E-11,-4.516982E-07,-1.108299E-07,-2.164764E-08,-2.622604E-08
712.285,-0.8180124,-2.730227E-09,NaN,-0.6079516,-1.32777E-07,NaN,0.1165128,-5.25684E-07,NaN,-1.066867,2.036061E-05,-0.04797262,8.330547E-08,NaN,NaN,-0.5127764,-2.328365E-11,-4.725598E-07,-1.108305E-07,-2.283973E-08,-2.861022E-08
712.2997,-0.8180124,-2.730227E-09,NaN,-0.6079516,-1.32777E-07,NaN,0.1165128,-5.25684E-07,NaN,-1.066867,2.036061E-05,-0.04797262,8.330547E-08,NaN,NaN,-0.5127764,-2.328365E-11,-4.725598E-07,-1.108305E-07,-2.283973E-08,-2.861022E-08
712.3135,-0.8217987,-2.729512E-09,NaN,-0.6081158,-1.327777E-07,NaN,0.1196499,-5.255288E-07,NaN,-1.067437,2.036105E-05,-0.05197957,8.315168E-08,NaN,NaN,-0.5129873,-1.862704E-11,-5.053423E-07,-1.10831E-07,-2.641601E-08,-2.622604E-08
712.3289,-0.8257908,-2.728796E-09,NaN,-0.6082862,-1.327783E-07,NaN,0.1227955,-5.253766E-07,NaN,-1.068075,2.03615E-05,-0.05590627,8.300085E-08,NaN,NaN,-0.513194,-2.794027E-11,-5.345486E-07,-1.108315E-07,-2.581996E-08,-2.861022E-08
712.3457,-0.8298907,-2.72808E-09,NaN,-0.608459,-1.32779E-07,NaN,0.1258945,-5.256479E-07,NaN,-1.068773,2.036194E-05,-0.05975702,8.32735E-08,NaN,NaN,-0.5133966,-2.794027E-11,-5.601786E-07,-1.108321E-07,-2.164764E-08,-2.622604E-08
712.3594,-0.8298907,-2.72808E-09,NaN,-0.608459,-1.32779E-07,NaN,0.1258945,-5.256479E-07,NaN,-1.068773,2.036194E-05,-0.05975702,8.32735E-08,NaN,NaN,-0.5133966,-2.794027E-11,-5.601786E-07,-1.108321E-07,-2.164764E-08,-2.622604E-08
712.3732,-0.8343827,-2.727365E-09,NaN,-0.6086457,-1.327797E-07,NaN,0.1295553,-5.25496E-07,NaN,-1.069464,2.036239E-05,-0.06441294,8.3123E-08,NaN,NaN,-0.513641,-2.794027E-11,-5.947493E-07,-1.108326E-07,-2.045554E-08,-2.861022E-08
712.3875,-0.8390942,-2.726649E-09,NaN,-0.6088389,-1.327803E-07,NaN,0.1332133,-5.25347E-07,NaN,-1.070234,2.036283E-05,-0.06897605,8.29754E-08,NaN,NaN,-0.5138806,-2.794027E-11,-6.275318E-07,-1.108331E-07,-1.98595E-08,-2.622604E-08
712.4022,-0.8439186,-2.725933E-09,NaN,-0.6090343,-1.32781E-07,NaN,0.1368124,-5.256214E-07,NaN,-1.071069,2.036327E-05,-0.07345113,8.325121E-08,NaN,NaN,-0.5141155,-2.328365E-11,-6.55546E-07,-1.108337E-07,-2.641601E-08,-2.861022E-08
712.4167,-0.8439186,-2.725933E-09,NaN,-0.6090343,-1.32781E-07,NaN,0.1368124,-5.256214E-07,NaN,-1.071069,2.036327E-05,-0.07345113,8.325121E-08,NaN,NaN,-0.5141155,-2.328365E-11,-6.55546E-07,-1.108337E-07,-2.641601E-08,-2.861022E-08
712.4305,-0.8487903,-2.725217E-09,NaN,-0.6092297,-1.327816E-07,NaN,0.1403336,-5.254726E-07,NaN,-1.071952,2.036371E-05,-0.07784115,8.310381E-08,NaN,NaN,-0.5143457,-2.328365E-11,-6.829642E-07,-1.108342E-07,-2.76081E-08,-2.622604E-08
712.4461,-0.8540135,-2.724502E-09,NaN,-0.6094376,-1.327823E-07,NaN,0.1444013,-5.253266E-07,NaN,-1.07282,2.036415E-05,-0.08303189,8.295925E-08,NaN,NaN,-0.5146173,-2.328365E-11,-7.211112E-07,-1.108347E-07,-3.178043E-08,-2.861022E-08
712.4607,-0.859428,-2.723786E-09,NaN,-0.609651,-1.327829E-07,NaN,0.1484553,-5.25604E-07,NaN,-1.073758,2.036459E-05,-0.08811948,8.323803E-08,NaN,NaN,-0.5148835,-2.328365E-11,-7.550858E-07,-1.108352E-07,-2.820415E-08,-2.622604E-08
712.4753,-0.859428,-2.723786E-09,NaN,-0.609651,-1.327829E-07,NaN,0.1484553,-5.25604E-07,NaN,-1.073758,2.036459E-05,-0.08811948,8.323803E-08,NaN,NaN,-0.5148835,-2.328365E-11,-7.550858E-07,-1.108352E-07,-2.820415E-08,-2.622604E-08
712.4893,-0.864935,-2.72307E-09,NaN,-0.609866,-1.327836E-07,NaN,0.1524423,-5.254581E-07,NaN,-1.074756,2.036504E-05,-0.09310898,8.309355E-08,NaN,NaN,-0.5151445,-3.259688E-11,-7.884644E-07,-1.108357E-07,-3.058834E-08,-2.861022E-08
712.5046,-0.8704734,-2.722354E-09,NaN,-0.6100805,-1.327842E-07,NaN,0.1563442,-5.25315E-07,NaN,-1.075797,2.036548E-05,-0.09800366,8.295186E-08,NaN,NaN,-0.5154003,-2.794026E-11,-8.182668E-07,-1.108363E-07,-2.641601E-08,-2.622604E-08
712.5195,-0.8704734,-2.722354E-09,NaN,-0.6100805,-1.327842E-07,NaN,0.1563442,-5.25315E-07,NaN,-1.075797,2.036548E-05,-0.09800366,8.295186E-08,NaN,NaN,-0.5154003,-2.794026E-11,-8.182668E-07,-1.108363E-07,-2.641601E-08,-2.622604E-08
712.5332,-0.8763508,-2.721638E-09,NaN,-0.6103073,-1.327848E-07,NaN,0.1607862,-5.255952E-07,NaN,-1.076821,2.036592E-05,-0.1036952,8.323344E-08,NaN,NaN,-0.5156969,-2.794026E-11,-8.617781E-07,-1.108368E-07,-2.403183E-08,-2.861022E-08
712.5488,-0.8824089,-2.720921E-09,NaN,-0.6105391,-1.327855E-07,NaN,0.1652065,-5.254492E-07,NaN,-1.077913,2.036637E-05,-0.1092735,8.308889E-08,NaN,NaN,-0.5159877,-2.794026E-11,-9.005211E-07,-1.108373E-07,-2.581997E-08,-2.622604E-08
712.5632,-0.8885499,-2.720205E-09,NaN,-0.6107721,-1.327861E-07,NaN,0.1695521,-5.253088E-07,NaN,-1.079062,2.036681E-05,-0.1147441,8.294995E-08,NaN,NaN,-0.5162727,-2.794026E-11,-9.333037E-07,-1.108378E-07,-2.045555E-08,-2.861022E-08
712.5779,-0.8885499,-2.720205E-09,NaN,-0.6107721,-1.327861E-07,NaN,0.1695521,-5.253088E-07,NaN,-1.079062,2.036681E-05,-0.1147441,8.294995E-08,NaN,NaN,-0.5162727,-2.794026E-11,-9.333037E-07,-1.108378E-07,-2.045555E-08,-2.861022E-08
712.5921,-0.8950586,-2.719489E-09,NaN,-0.611018,-1.327868E-07,NaN,0.1744345,-5.255889E-07,NaN,-1.080207,2.036725E-05,-0.1210046,8.32314E-08,NaN,NaN,-0.516598,-2.794026E-11,-9.827755E-07,-1.108383E-07,-2.522392E-08,-2.622604E-08
712.6074,-0.9017627,-2.718773E-09,NaN,-0.6112691,-1.327874E-07,NaN,0.1792853,-5.254457E-07,NaN,-1.08143,2.036769E-05,-0.1271403,8.308955E-08,NaN,NaN,-0.5169169,-2.794026E-11,-1.022711E-06,-1.108388E-07,-2.10516E-08,-2.861022E-08
712.6241,-0.9085557,-2.718056E-09,NaN,-0.6115213,-1.32788E-07,NaN,0.1840506,-5.253052E-07,NaN,-1.082717,2.036813E-05,-0.1331575,8.295044E-08,NaN,NaN,-0.5172294,-2.794026E-11,-1.060858E-06,-1.108394E-07,-1.98595E-08,-2.622604E-08
712.6378,-0.9085557,-2.718056E-09,NaN,-0.6115213,-1.32788E-07,NaN,0.1840506,-5.253052E-07,NaN,-1.082717,2.036813E-05,-0.1331575,8.295044E-08,NaN,NaN,-0.5172294,-2.794026E-11,-1.060858E-06,-1.108394E-07,-1.98595E-08,-2.622604E-08
712.6519,-0.9153723,-2.71734E-09,NaN,-0.6117725,-1.327887E-07,NaN,0.1887129,-5.255878E-07,NaN,-1.084051,2.036858E-05,-0.1390603,8.323454E-08,NaN,NaN,-0.5175359,-2.794026E-11,-1.097216E-06,-1.108399E-07,-1.98595E-08,-2.861022E-08
712.6663,-0.9225173,-2.716624E-09,NaN,-0.6120355,-1.327893E-07,NaN,0.1938992,-5.254472E-07,NaN,-1.085373,2.036901E-05,-0.1457523,8.30953E-08,NaN,NaN,-0.5178822,-2.328365E-11,-1.145496E-06,-1.108404E-07,-1.270695E-08,-2.622604E-08
712.6805,-0.9298306,-2.715907E-09,NaN,-0.6123029,-1.327899E-07,NaN,0.1990454,-5.253092E-07,NaN,-1.086763,2.036946E-05,-0.1523108,8.295874E-08,NaN,NaN,-0.5182217,-2.328365E-11,-1.189008E-06,-1.108409E-07,-1.151485E-08,-2.861022E-08
712.6952,-0.9298306,-2.715907E-09,NaN,-0.6123029,-1.327899E-07,NaN,0.1990454,-5.253092E-07,NaN,-1.086763,2.036946E-05,-0.1523108,8.295874E-08,NaN,NaN,-0.5182217,-2.328365E-11,-1.189008E-06,-1.108409E-07,-1.151485E-08,-2.861022E-08
712.7104,-0.9372135,-2.715191E-09,NaN,-0.6125708,-1.327905E-07,NaN,0.2041002,-5.255944E-07,NaN,-1.088212,2.03699E-05,-0.1587425,8.324534E-08,NaN,NaN,-0.5185544,-2.328365E-11,-1.227751E-06,-1.108414E-07,-7.938575E-09,-2.622604E-08
712.7244,-0.9446054,-2.714474E-09,NaN,-0.6128374,-1.327912E-07,NaN,0.2090468,-5.254562E-07,NaN,-1.089704,2.037034E-05,-0.1650518,8.310855E-08,NaN,NaN,-0.5188807,-2.328365E-11,-1.264109E-06,-1.108419E-07,-9.130668E-09,-2.861022E-08
712.7393,-0.9446054,-2.714474E-09,NaN,-0.6128374,-1.327912E-07,NaN,0.2090468,-5.254562E-07,NaN,-1.089704,2.037034E-05,-0.1650518,8.310855E-08,NaN,NaN,-0.5188807,-2.328365E-11,-1.264109E-06,-1.108419E-07,-9.130668E-09,-2.861022E-08
712.7532,-0.9523143,-2.713758E-09,NaN,-0.6131155,-1.327918E-07,NaN,0.2145129,-5.253136E-07,NaN,-1.091181,2.037078E-05,-0.1721497,8.296732E-08,NaN,NaN,-0.5192465,-2.328365E-11,-1.314773E-06,-1.108424E-07,-7.938575E-09,-2.622604E-08
712.7685,-0.9601819,-2.713041E-09,NaN,-0.6133978,-1.327924E-07,NaN,0.2199329,-5.250773E-07,NaN,-1.092725,2.037123E-05,-0.1791054,8.273237E-08,NaN,NaN,-0.519605,-2.794026E-11,-1.360073E-06,-1.108429E-07,-1.032276E-08,-2.861022E-08
712.7833,-0.9681107,-2.712325E-09,NaN,-0.6136804,-1.32793E-07,NaN,0.2252558,-5.248483E-07,NaN,-1.094326,2.037167E-05,-0.185926,8.250479E-08,NaN,NaN,-0.5199564,-2.794026E-11,-1.404776E-06,-1.108434E-07,-1.151485E-08,-2.622604E-08
712.7977,-0.9681107,-2.712325E-09,NaN,-0.6136804,-1.32793E-07,NaN,0.2252558,-5.248483E-07,NaN,-1.094326,2.037167E-05,-0.185926,8.250479E-08,NaN,NaN,-0.5199564,-2.794026E-11,-1.404776E-06,-1.108434E-07,-1.151485E-08,-2.622604E-08
712.8118,-0.9763861,-2.711608E-09,NaN,-0.6139752,-1.327936E-07,NaN,0.2310958,-5.246237E-07,NaN,-1.095926,2.037212E-05,-0.1935301,8.228161E-08,NaN,NaN,-0.5203469,-3.259688E-11,-1.460209E-06,-1.108439E-07,-7.938575E-09,-2.861022E-08
712.827,-0.9848358,-2.710892E-09,NaN,-0.6142743,-1.327942E-07,NaN,0.2368811,-5.244034E-07,NaN,-1.097603,2.037256E-05,-0.2009808,8.206273E-08,NaN,NaN,-0.5207297,-3.259688E-11,-1.510873E-06,-1.108444E-07,-5.554389E-09,-2.622604E-08
712.8419,-0.9933535,-2.710175E-09,NaN,-0.6145735,-1.327948E-07,NaN,0.2425597,-5.241874E-07,NaN,-1.099342,2.0373E-05,-0.2082865,8.184808E-08,NaN,NaN,-0.5211049,-3.259688E-11,-1.560345E-06,-1.108449E-07,-1.978111E-09,-2.861022E-08
712.8565,-0.9933535,-2.710175E-09,NaN,-0.6145735,-1.327948E-07,NaN,0.2425597,-5.241874E-07,NaN,-1.099342,2.0373E-05,-0.2082865,8.184808E-08,NaN,NaN,-0.5211049,-3.259688E-11,-1.560345E-06,-1.108449E-07,-1.978111E-09,-2.861022E-08
712.8705,-1.001874,-2.709458E-09,NaN,-0.6148711,-1.327954E-07,NaN,0.2481155,-5.239783E-07,NaN,-1.101128,2.037345E-05,-0.2154523,8.164039E-08,NaN,NaN,-0.5214728,-3.259688E-11,-1.605048E-06,-1.108453E-07,-4.362296E-09,-2.622604E-08
712.886,-1.010703,-2.708741E-09,NaN,-0.6151798,-1.327961E-07,NaN,0.2541777,-5.237732E-07,NaN,-1.102905,2.037389E-05,-0.223404,8.143672E-08,NaN,NaN,-0.5218794,-3.259688E-11,-1.664057E-06,-1.108458E-07,4.060752E-10,-2.861022E-08
712.9024,-1.01968,-2.708024E-09,NaN,-0.615492,-1.327967E-07,NaN,0.2601787,-5.240962E-07,NaN,-1.104751,2.037434E-05,-0.231195,8.176108E-08,NaN,NaN,-0.522278,-3.725349E-11,-1.716509E-06,-1.108463E-07,4.060752E-10,-2.622604E-08
712.9161,-1.01968,-2.708024E-09,NaN,-0.615492,-1.327967E-07,NaN,0.2601787,-5.240962E-07,NaN,-1.104751,2.037434E-05,-0.231195,8.176108E-08,NaN,NaN,-0.522278,-3.725349E-11,-1.716509E-06,-1.108463E-07,4.060752E-10,-2.622604E-08
712.93,-1.028706,-2.707307E-09,NaN,-0.6158041,-1.327973E-07,NaN,0.2660689,-5.244128E-07,NaN,-1.106653,2.037479E-05,-0.2388339,8.207903E-08,NaN,NaN,-0.5226687,-3.725349E-11,-1.765384E-06,-1.108468E-07,-3.170203E-09,-2.861022E-08
712.9442,-1.037722,-2.70659E-09,NaN,-0.6161143,-1.327979E-07,NaN,0.2718329,-5.24723E-07,NaN,-1.108597,2.037523E-05,-0.2463263,8.239068E-08,NaN,NaN,-0.5230517,-3.725349E-11,-1.812472E-06,-1.108473E-07,-7.860177E-10,-2.622604E-08
712.9589,-1.037722,-2.70659E-09,NaN,-0.6161143,-1.327979E-07,NaN,0.2718329,-5.24723E-07,NaN,-1.108597,2.037523E-05,-0.2463263,8.239068E-08,NaN,NaN,-0.5230517,-3.725349E-11,-1.812472E-06,-1.108473E-07,-7.860177E-10,-2.622604E-08
712.9728,-1.047036,-2.705873E-09,NaN,-0.6164354,-1.327985E-07,NaN,0.2781003,-5.245058E-07,NaN,-1.110532,2.037568E-05,-0.2546063,8.217485E-08,NaN,NaN,-0.5234733,-4.19101E-11,-1.873865E-06,-1.108478E-07,-3.170203E-09,-2.861022E-08
712.9879,-1.056489,-2.705156E-09,NaN,-0.61676,-1.327991E-07,NaN,0.284302,-5.242927E-07,NaN,-1.112534,2.037613E-05,-0.2627179,8.196318E-08,NaN,NaN,-0.5238865,-4.19101E-11,-1.926913E-06,-1.108483E-07,-9.130668E-09,-2.622604E-08
713.0026,-1.065984,-2.704438E-09,NaN,-0.6170843,-1.327997E-07,NaN,0.2903889,-5.240837E-07,NaN,-1.114591,2.037658E-05,-0.2706701,8.175559E-08,NaN,NaN,-0.5242916,-4.656671E-11,-1.976981E-06,-1.108488E-07,-7.938575E-09,-2.861022E-08
713.0172,-1.065984,-2.704438E-09,NaN,-0.6170843,-1.327997E-07,NaN,0.2903889,-5.240837E-07,NaN,-1.114591,2.037658E-05,-0.2706701,8.175559E-08,NaN,NaN,-0.5242916,-4.656671E-11,-1.976981E-06,-1.108488E-07,-7.938575E-09,-2.861022E-08
