JMolnar6/NonAnthroHands_User_Study/HandsLoggerWithURDF/tempdata/PID 0 (test)/files/Reachy_PID0_JointMotion_gesture_10_50.csv
Time,r_shoulder,r_shoulder_x,r_upper_arm,r_forearm,r_wrist,r_wrist2hand,
719.8197,-0.2857038,-2.459225E-09,NaN,-0.5882865,-1.326722E-07,NaN,-0.2882165,-5.20775E-07,NaN,-0.9821396,2.052585E-05,0.411817,6.955317E-08,NaN,NaN,-0.4876325,-7.916308E-11,1.251207E-06,-1.104692E-07,-1.144966E-08,-2.861022E-08
719.8359,-0.2808183,-2.458506E-09,NaN,-0.5881422,-1.326706E-07,NaN,-0.2896537,-5.206088E-07,NaN,-0.9803394,2.052629E-05,0.4140063,6.898875E-08,NaN,NaN,-0.4875125,-7.916308E-11,1.233325E-06,-1.104684E-07,-7.873385E-09,-2.622604E-08
719.8492,-0.275779,-2.457788E-09,NaN,-0.5879916,-1.326691E-07,NaN,-0.2911606,-5.204427E-07,NaN,-0.9785005,2.052673E-05,0.4161808,6.842794E-08,NaN,NaN,-0.4873948,-7.916308E-11,1.211867E-06,-1.104675E-07,-7.575362E-09,-2.861022E-08
719.8638,-0.2706683,-2.457069E-09,NaN,-0.5878379,-1.326675E-07,NaN,-0.2926685,-5.202765E-07,NaN,-0.976629,2.052716E-05,0.4183321,6.787072E-08,NaN,NaN,-0.4872795,-6.984986E-11,1.19041E-06,-1.104667E-07,-6.979315E-09,-2.622604E-08
719.8785,-0.2706683,-2.457069E-09,NaN,-0.5878379,-1.326675E-07,NaN,-0.2926685,-5.202765E-07,NaN,-0.976629,2.052716E-05,0.4183321,6.787072E-08,NaN,NaN,-0.4872795,-6.984986E-11,1.19041E-06,-1.104667E-07,-6.979315E-09,-2.622604E-08
719.8924,-0.2655372,-2.456351E-09,NaN,-0.5876831,-1.32666E-07,NaN,-0.2941488,-5.201103E-07,NaN,-0.9747374,2.05276E-05,0.4204555,6.731709E-08,NaN,NaN,-0.4871664,-6.984986E-11,1.171336E-06,-1.104659E-07,-6.383269E-09,-2.861022E-08
719.908,-0.2607586,-2.455632E-09,NaN,-0.5875422,-1.326645E-07,NaN,-0.2949742,-5.199442E-07,NaN,-0.9727886,2.052804E-05,0.4218157,6.676703E-08,NaN,NaN,-0.4871015,-6.984986E-11,1.140342E-06,-1.104651E-07,-1.018851E-09,-2.622604E-08
719.9227,-0.2562183,-2.454914E-09,NaN,-0.5874104,-1.326629E-07,NaN,-0.2956653,-5.19778E-07,NaN,-0.9708973,2.052847E-05,0.4231306,6.622052E-08,NaN,NaN,-0.4870378,-6.984986E-11,1.118884E-06,-1.104643E-07,-1.018851E-09,-2.861022E-08
719.9376,-0.2562183,-2.454914E-09,NaN,-0.5874104,-1.326629E-07,NaN,-0.2956653,-5.19778E-07,NaN,-0.9708973,2.052847E-05,0.4231306,6.622052E-08,NaN,NaN,-0.4870378,-6.984986E-11,1.118884E-06,-1.104643E-07,-1.018851E-09,-2.861022E-08
719.9517,-0.2518448,-2.454195E-09,NaN,-0.587285,-1.326615E-07,NaN,-0.2962927,-5.196119E-07,NaN,-0.969063,2.052891E-05,0.4244097,6.567755E-08,NaN,NaN,-0.4869754,-6.984986E-11,1.098619E-06,-1.104635E-07,-6.979315E-09,-2.622604E-08
719.9672,-0.2475937,-2.453477E-09,NaN,-0.587164,-1.3266E-07,NaN,-0.2968872,-5.194457E-07,NaN,-0.9672772,2.052934E-05,0.4256581,6.51381E-08,NaN,NaN,-0.4869143,-6.053663E-11,1.075969E-06,-1.104627E-07,-9.959548E-09,-2.861022E-08
719.9821,-0.2437789,-2.452758E-09,NaN,-0.5870601,-1.326585E-07,NaN,-0.2968423,-5.192796E-07,NaN,-0.9654821,2.052978E-05,0.426151,6.460215E-08,NaN,NaN,-0.4869002,-6.053663E-11,1.047359E-06,-1.10462E-07,-9.959548E-09,-2.622604E-08
719.9967,-0.2437789,-2.452758E-09,NaN,-0.5870601,-1.326585E-07,NaN,-0.2968423,-5.192796E-07,NaN,-0.9654821,2.052978E-05,0.426151,6.460215E-08,NaN,NaN,-0.4869002,-6.053663E-11,1.047359E-06,-1.10462E-07,-9.959548E-09,-2.622604E-08
720.0107,-0.2402493,-2.452039E-09,NaN,-0.5869671,-1.32657E-07,NaN,-0.2966883,-5.191134E-07,NaN,-0.9637765,2.053022E-05,0.4266056,6.406967E-08,NaN,NaN,-0.4868864,-6.053663E-11,1.024709E-06,-1.104612E-07,-1.055559E-08,-2.861022E-08
720.0261,-0.2369109,-2.451321E-09,NaN,-0.5868811,-1.326556E-07,NaN,-0.2964964,-5.189473E-07,NaN,-0.9621482,2.053066E-05,0.4270353,6.354064E-08,NaN,NaN,-0.4868729,-6.519325E-11,1.002059E-06,-1.104605E-07,-1.293978E-08,-2.622604E-08
720.0408,-0.2337052,-2.450602E-09,NaN,-0.5867999,-1.326542E-07,NaN,-0.2962957,-5.187811E-07,NaN,-0.9605808,2.05311E-05,0.4274475,6.301504E-08,NaN,NaN,-0.4868596,-6.519325E-11,9.806015E-07,-1.104597E-07,-9.959549E-09,-2.861022E-08
720.0557,-0.2337052,-2.450602E-09,NaN,-0.5867999,-1.326542E-07,NaN,-0.2962957,-5.187811E-07,NaN,-0.9605808,2.05311E-05,0.4274475,6.301504E-08,NaN,NaN,-0.4868596,-6.519325E-11,9.806015E-07,-1.104597E-07,-9.959549E-09,-2.861022E-08
720.0696,-0.2309373,-2.449884E-09,NaN,-0.5867356,-1.326527E-07,NaN,-0.2954753,-5.18615E-07,NaN,-0.9590116,2.053154E-05,0.42712,6.249286E-08,NaN,NaN,-0.4868925,-6.519325E-11,9.519913E-07,-1.10459E-07,-5.787224E-09,-2.622604E-08
720.0861,-0.2284508,-2.449165E-09,NaN,-0.5866819,-1.326513E-07,NaN,-0.2945656,-5.184488E-07,NaN,-0.9575362,2.053198E-05,0.4267671,6.197406E-08,NaN,NaN,-0.4869247,-6.519325E-11,9.269573E-07,-1.104583E-07,-1.018852E-09,-2.861022E-08
720.0997,-0.2284508,-2.449165E-09,NaN,-0.5866819,-1.326513E-07,NaN,-0.2945656,-5.184488E-07,NaN,-0.9575362,2.053198E-05,0.4267671,6.197406E-08,NaN,NaN,-0.4869247,-6.519325E-11,9.269573E-07,-1.104583E-07,-1.018852E-09,-2.861022E-08
720.1138,-0.2261487,-2.448447E-09,NaN,-0.5866349,-1.326499E-07,NaN,-0.2936367,-5.182827E-07,NaN,-0.9561404,2.053242E-05,0.4264033,6.145864E-08,NaN,NaN,-0.4869563,-6.984986E-11,9.066918E-07,-1.104576E-07,-3.403038E-09,-2.622604E-08
720.1292,-0.2243119,-2.447728E-09,NaN,-0.5866057,-1.326485E-07,NaN,-0.2920928,-5.181165E-07,NaN,-0.9547577,2.053286E-05,0.4253096,6.094655E-08,NaN,NaN,-0.4870332,-6.984986E-11,8.780816E-07,-1.104569E-07,-3.999084E-09,-2.861022E-08
720.1439,-0.2227695,-2.447009E-09,NaN,-0.5865875,-1.326471E-07,NaN,-0.2904736,-5.179504E-07,NaN,-0.9534795,2.05333E-05,0.4242004,6.043778E-08,NaN,NaN,-0.4871086,-7.450648E-11,8.542397E-07,-1.104562E-07,-3.403038E-09,-2.622604E-08
720.1584,-0.2227695,-2.447009E-09,NaN,-0.5865875,-1.326471E-07,NaN,-0.2904736,-5.179504E-07,NaN,-0.9534795,2.05333E-05,0.4242004,6.043778E-08,NaN,NaN,-0.4871086,-7.450648E-11,8.542397E-07,-1.104562E-07,-3.403038E-09,-2.622604E-08
720.1727,-0.2214149,-2.446291E-09,NaN,-0.586576,-1.326458E-07,NaN,-0.2888514,-5.177842E-07,NaN,-0.9522875,2.053373E-05,0.4230922,5.993233E-08,NaN,NaN,-0.4871824,-6.519325E-11,8.375504E-07,-1.104555E-07,-1.174769E-08,-2.861022E-08
720.1882,-0.220182,-2.445572E-09,NaN,-0.5865685,-1.326444E-07,NaN,-0.287254,-5.17618E-07,NaN,-0.9511611,2.053417E-05,0.4219931,5.943015E-08,NaN,NaN,-0.4872549,-6.519325E-11,8.18477E-07,-1.104548E-07,-1.472792E-08,-2.622604E-08
720.2031,-0.2193712,-2.444853E-09,NaN,-0.5865764,-1.326431E-07,NaN,-0.2850643,-5.174519E-07,NaN,-0.9500347,2.05346E-05,0.4201811,5.893123E-08,NaN,NaN,-0.4873717,-6.053664E-11,7.970193E-07,-1.104541E-07,-1.770815E-08,-2.861022E-08
720.2181,-0.2193712,-2.444853E-09,NaN,-0.5865764,-1.326431E-07,NaN,-0.2850643,-5.174519E-07,NaN,-0.9500347,2.05346E-05,0.4201811,5.893123E-08,NaN,NaN,-0.4873717,-6.053664E-11,7.970193E-07,-1.104541E-07,-1.770815E-08,-2.861022E-08
720.2319,-0.2188236,-2.444134E-09,NaN,-0.5865934,-1.326417E-07,NaN,-0.2828171,-5.172857E-07,NaN,-0.9490026,2.053503E-05,0.4183686,5.843555E-08,NaN,NaN,-0.4874863,-5.588003E-11,7.707933E-07,-1.104534E-07,-1.234373E-08,-2.622604E-08
720.2476,-0.2184403,-2.443416E-09,NaN,-0.5866159,-1.326403E-07,NaN,-0.2805804,-5.171196E-07,NaN,-0.948049,2.053548E-05,0.4165713,5.794288E-08,NaN,NaN,-0.4875986,-6.519325E-11,7.481435E-07,-1.104546E-07,-1.234373E-08,-2.861022E-08
720.262,-0.2181598,-2.442697E-09,NaN,-0.5866414,-1.326392E-07,NaN,-0.2783807,-5.169534E-07,NaN,-0.9471555,2.053591E-05,0.4147966,5.74534E-08,NaN,NaN,-0.4877087,-6.053664E-11,7.302621E-07,-1.104561E-07,-1.115164E-08,-2.622604E-08
720.2768,-0.2181598,-2.442697E-09,NaN,-0.5866414,-1.326392E-07,NaN,-0.2783807,-5.169534E-07,NaN,-0.9471555,2.053591E-05,0.4147966,5.74534E-08,NaN,NaN,-0.4877087,-6.053664E-11,7.302621E-07,-1.104561E-07,-1.115164E-08,-2.622604E-08
720.2922,-0.2182845,-2.441979E-09,NaN,-0.5866822,-1.326384E-07,NaN,-0.2755982,-5.167873E-07,NaN,-0.9462575,2.053635E-05,0.4123196,5.696709E-08,NaN,NaN,-0.4878626,-6.519325E-11,7.02844E-07,-1.104578E-07,-6.979317E-09,-2.861022E-08
720.3062,-0.2186579,-2.44126E-09,NaN,-0.5867319,-1.326377E-07,NaN,-0.2727708,-5.166211E-07,NaN,-0.9454506,2.053679E-05,0.4098544,5.648394E-08,NaN,NaN,-0.4880134,-6.053664E-11,6.801942E-07,-1.104596E-07,-6.979317E-09,-2.622604E-08
720.3229,-0.2191825,-2.440542E-09,NaN,-0.5867864,-1.326372E-07,NaN,-0.2699662,-5.16455E-07,NaN,-0.9447196,2.053723E-05,0.4074163,5.600392E-08,NaN,NaN,-0.4881612,-6.053664E-11,6.611207E-07,-1.104615E-07,-5.787224E-09,-2.861022E-08
720.3366,-0.2191825,-2.440542E-09,NaN,-0.5867864,-1.326372E-07,NaN,-0.2699662,-5.16455E-07,NaN,-0.9447196,2.053723E-05,0.4074163,5.600392E-08,NaN,NaN,-0.4881612,-6.053664E-11,6.611207E-07,-1.104615E-07,-5.787224E-09,-2.861022E-08
720.3509,-0.2201392,-2.439823E-09,NaN,-0.5868571,-1.326367E-07,NaN,-0.2665802,-5.162888E-07,NaN,-0.9439963,2.053765E-05,0.4042807,5.552701E-08,NaN,NaN,-0.488352,-5.122341E-11,6.396631E-07,-1.104633E-07,-8.17141E-09,-2.622604E-08
720.3651,-0.2213573,-2.439104E-09,NaN,-0.5869369,-1.326362E-07,NaN,-0.2631611,-5.161227E-07,NaN,-0.9433731,2.053809E-05,0.4011658,5.50532E-08,NaN,NaN,-0.4885391,-5.122341E-11,6.217817E-07,-1.104652E-07,-1.174769E-08,-2.861022E-08
720.3798,-0.2213573,-2.439104E-09,NaN,-0.5869369,-1.326362E-07,NaN,-0.2631611,-5.161227E-07,NaN,-0.9433731,2.053809E-05,0.4011658,5.50532E-08,NaN,NaN,-0.4885391,-5.122341E-11,6.217817E-07,-1.104652E-07,-1.174769E-08,-2.861022E-08
720.3937,-0.2227304,-2.438386E-09,NaN,-0.5870214,-1.326358E-07,NaN,-0.2597789,-5.159565E-07,NaN,-0.9428316,2.053852E-05,0.3980878,5.458246E-08,NaN,NaN,-0.4887225,-4.65668E-11,6.050924E-07,-1.104672E-07,-1.174769E-08,-2.622604E-08
720.4094,-0.2241926,-2.437667E-09,NaN,-0.587108,-1.326354E-07,NaN,-0.2564598,-5.157904E-07,NaN,-0.9423511,2.053896E-05,0.3950544,5.411478E-08,NaN,NaN,-0.4889022,-5.122341E-11,5.87211E-07,-1.104691E-07,-9.363504E-09,-2.861022E-08
720.4243,-0.2260446,-2.436949E-09,NaN,-0.5872091,-1.32635E-07,NaN,-0.2525785,-5.156242E-07,NaN,-0.9418641,2.053939E-05,0.3913343,5.365013E-08,NaN,NaN,-0.4891243,-4.191019E-11,5.597929E-07,-1.10471E-07,-9.959551E-09,-2.622604E-08
720.4388,-0.2260446,-2.436949E-09,NaN,-0.5872091,-1.32635E-07,NaN,-0.2525785,-5.156242E-07,NaN,-0.9418641,2.053939E-05,0.3913343,5.365013E-08,NaN,NaN,-0.4891243,-4.191019E-11,5.597929E-07,-1.10471E-07,-9.959551E-09,-2.622604E-08
720.4531,-0.2281278,-2.43623E-09,NaN,-0.5873178,-1.326346E-07,NaN,-0.2486795,-5.154581E-07,NaN,-0.9414662,2.053983E-05,0.3876486,5.31885E-08,NaN,NaN,-0.4893421,-4.65668E-11,5.395273E-07,-1.104729E-07,-6.979318E-09,-2.861022E-08
720.4686,-0.2303436,-2.435512E-09,NaN,-0.5874302,-1.326342E-07,NaN,-0.2448285,-5.152919E-07,NaN,-0.9411419,2.054026E-05,0.3840117,5.272986E-08,NaN,NaN,-0.4895555,-4.191019E-11,5.204538E-07,-1.104748E-07,-5.191179E-09,-2.622604E-08
720.4832,-0.2326308,-2.434793E-09,NaN,-0.5875441,-1.326339E-07,NaN,-0.2410502,-5.151257E-07,NaN,-0.9408728,2.054071E-05,0.3804303,5.227421E-08,NaN,NaN,-0.4897647,-5.122341E-11,5.013803E-07,-1.104767E-07,1.732388E-10,-2.861022E-08
720.4981,-0.2326308,-2.434793E-09,NaN,-0.5875441,-1.326339E-07,NaN,-0.2410502,-5.151257E-07,NaN,-0.9408728,2.054071E-05,0.3804303,5.227421E-08,NaN,NaN,-0.4897647,-5.122341E-11,5.013803E-07,-1.104767E-07,1.732388E-10,-2.861022E-08
720.5119,-0.2352933,-2.434074E-09,NaN,-0.5876718,-1.326335E-07,NaN,-0.2367162,-5.149596E-07,NaN,-0.9405921,2.054115E-05,0.3761672,5.182151E-08,NaN,NaN,-0.4900157,-4.65668E-11,4.799227E-07,-1.104787E-07,-1.018854E-09,-2.622604E-08
720.5273,-0.2381743,-2.433356E-09,NaN,-0.5878065,-1.326332E-07,NaN,-0.2323752,-5.147934E-07,NaN,-0.9403968,2.054159E-05,0.3719495,5.137174E-08,NaN,NaN,-0.4902617,-5.588003E-11,4.58465E-07,-1.104806E-07,4.345564E-09,-2.861022E-08
720.5421,-0.2411765,-2.432637E-09,NaN,-0.5879443,-1.326328E-07,NaN,-0.2280922,-5.146273E-07,NaN,-0.9402722,2.054203E-05,0.3677906,5.09249E-08,NaN,NaN,-0.4905028,-5.588003E-11,4.393915E-07,-1.104825E-07,5.537657E-09,-2.622604E-08
720.5568,-0.2411765,-2.432637E-09,NaN,-0.5879443,-1.326328E-07,NaN,-0.2280922,-5.146273E-07,NaN,-0.9402722,2.054203E-05,0.3677906,5.09249E-08,NaN,NaN,-0.4905028,-5.588003E-11,4.393915E-07,-1.104825E-07,5.537657E-09,-2.622604E-08
720.5708,-0.2445814,-2.431919E-09,NaN,-0.5880967,-1.326325E-07,NaN,-0.2232542,-5.144611E-07,NaN,-0.9401484,2.054248E-05,0.3629511,5.048096E-08,NaN,NaN,-0.4907851,-6.519325E-11,4.143575E-07,-1.104844E-07,2.557424E-09,-2.861022E-08
720.5872,-0.2482182,-2.4312E-09,NaN,-0.5882562,-1.326322E-07,NaN,-0.2184204,-5.14295E-07,NaN,-0.9401188,2.054292E-05,0.3581654,5.00399E-08,NaN,NaN,-0.4910618,-6.519325E-11,3.95284E-07,-1.104863E-07,3.749517E-09,-2.622604E-08
720.6011,-0.251981,-2.430481E-09,NaN,-0.5884187,-1.326319E-07,NaN,-0.2136573,-5.141288E-07,NaN,-0.9401658,2.054335E-05,0.3534471,4.960171E-08,NaN,NaN,-0.4913331,-6.053664E-11,3.762106E-07,-1.104883E-07,4.94161E-09,-2.861022E-08
720.6157,-0.251981,-2.430481E-09,NaN,-0.5884187,-1.326319E-07,NaN,-0.2136573,-5.141288E-07,NaN,-0.9401658,2.054335E-05,0.3534471,4.960171E-08,NaN,NaN,-0.4913331,-6.053664E-11,3.762106E-07,-1.104883E-07,4.94161E-09,-2.861022E-08
720.6296,-0.255804,-2.429763E-09,NaN,-0.5885818,-1.326315E-07,NaN,-0.2089891,-5.139627E-07,NaN,-0.9402689,2.054378E-05,0.3488029,4.916636E-08,NaN,NaN,-0.491599,-5.122341E-11,3.619054E-07,-1.104902E-07,2.557424E-09,-2.622604E-08
720.6451,-0.2599888,-2.429044E-09,NaN,-0.588758,-1.326312E-07,NaN,-0.2037826,-5.137965E-07,NaN,-0.9403583,2.054422E-05,0.343484,4.873383E-08,NaN,NaN,-0.4919055,-5.588003E-11,3.356794E-07,-1.104921E-07,1.365331E-09,-2.861022E-08
720.66,-0.2599888,-2.429044E-09,NaN,-0.588758,-1.326312E-07,NaN,-0.2037826,-5.137965E-07,NaN,-0.9403583,2.054422E-05,0.343484,4.873383E-08,NaN,NaN,-0.4919055,-5.588003E-11,3.356794E-07,-1.104921E-07,1.365331E-09,-2.861022E-08
720.6741,-0.2643766,-2.428325E-09,NaN,-0.5889402,-1.326309E-07,NaN,-0.1985936,-5.136304E-07,NaN,-0.9405311,2.054465E-05,0.3382312,4.830412E-08,NaN,NaN,-0.4922059,-5.122341E-11,3.130296E-07,-1.10494E-07,-3.40304E-09,-2.622604E-08
720.6896,-0.2688694,-2.427606E-09,NaN,-0.5891246,-1.326307E-07,NaN,-0.1934841,-5.134642E-07,NaN,-0.9407724,2.05451E-05,0.3330562,4.787719E-08,NaN,NaN,-0.4925005,-5.588003E-11,2.92764E-07,-1.104959E-07,-4.228082E-10,-2.861022E-08
720.7043,-0.2734061,-2.426888E-09,NaN,-0.5893092,-1.326304E-07,NaN,-0.1884768,-5.132981E-07,NaN,-0.9410641,2.054553E-05,0.3279644,4.745304E-08,NaN,NaN,-0.4927892,-5.122341E-11,2.760747E-07,-1.104978E-07,-4.595133E-09,-2.622604E-08
720.7194,-0.2734061,-2.426888E-09,NaN,-0.5893092,-1.326304E-07,NaN,-0.1884768,-5.132981E-07,NaN,-0.9410641,2.054553E-05,0.3279644,4.745304E-08,NaN,NaN,-0.4927892,-5.122341E-11,2.760747E-07,-1.104978E-07,-4.595133E-09,-2.622604E-08
720.7333,-0.2782915,-2.426169E-09,NaN,-0.5895063,-1.326301E-07,NaN,-0.1829359,-5.131319E-07,NaN,-0.9413371,2.054598E-05,0.3221989,4.703163E-08,NaN,NaN,-0.493118,-6.053664E-11,2.486566E-07,-1.104997E-07,-2.806994E-09,-2.861022E-08
720.7488,-0.2833687,-2.42545E-09,NaN,-0.5897091,-1.326298E-07,NaN,-0.1774212,-5.129658E-07,NaN,-0.9416898,2.054641E-05,0.3165095,4.661297E-08,NaN,NaN,-0.4934404,-5.122341E-11,2.212385E-07,-1.105016E-07,1.365331E-09,-2.622604E-08
720.7654,-0.2885407,-2.424731E-09,NaN,-0.5899137,-1.326296E-07,NaN,-0.1719941,-5.127996E-07,NaN,-0.9421082,2.054684E-05,0.3109064,4.619702E-08,NaN,NaN,-0.4937564,-5.122341E-11,1.985887E-07,-1.105035E-07,2.557424E-09,-2.861022E-08
720.7782,-0.2885407,-2.424731E-09,NaN,-0.5899137,-1.326296E-07,NaN,-0.1719941,-5.127996E-07,NaN,-0.9421082,2.054684E-05,0.3109064,4.619702E-08,NaN,NaN,-0.4937564,-5.122341E-11,1.985887E-07,-1.105035E-07,2.557424E-09,-2.861022E-08
720.7924,-0.2940896,-2.424013E-09,NaN,-0.5901316,-1.326293E-07,NaN,-0.1660334,-5.126334E-07,NaN,-0.9425206,2.054728E-05,0.3046289,4.578377E-08,NaN,NaN,-0.494112,-5.122341E-11,1.699784E-07,-1.105054E-07,1.961378E-09,-2.622604E-08
720.8079,-0.2998447,-2.423294E-09,NaN,-0.5903553,-1.326291E-07,NaN,-0.1601092,-5.124673E-07,NaN,-0.9430215,2.054772E-05,0.2984354,4.537321E-08,NaN,NaN,-0.4944605,-5.122341E-11,1.449445E-07,-1.105073E-07,-1.614901E-09,-2.861022E-08
720.8234,-0.3057003,-2.422575E-09,NaN,-0.5905806,-1.326288E-07,NaN,-0.154284,-5.123011E-07,NaN,-0.943594,2.054816E-05,0.2923361,4.496531E-08,NaN,NaN,-0.4948022,-5.122341E-11,1.25871E-07,-1.105092E-07,-2.210947E-09,-2.622604E-08
720.8381,-0.3057003,-2.422575E-09,NaN,-0.5905806,-1.326288E-07,NaN,-0.154284,-5.123011E-07,NaN,-0.943594,2.054816E-05,0.2923361,4.496531E-08,NaN,NaN,-0.4948022,-5.122341E-11,1.25871E-07,-1.105092E-07,-2.210947E-09,-2.622604E-08
720.852,-0.3115911,-2.421856E-09,NaN,-0.5908055,-1.326286E-07,NaN,-0.14858,-5.12135E-07,NaN,-0.9442183,2.05486E-05,0.2863362,4.456006E-08,NaN,NaN,-0.4951371,-5.122341E-11,1.008371E-07,-1.105111E-07,1.732383E-10,-2.861022E-08
720.8664,-0.3178191,-2.421137E-09,NaN,-0.5910424,-1.326284E-07,NaN,-0.1423568,-5.119688E-07,NaN,-0.9448228,2.054904E-05,0.2796643,4.415744E-08,NaN,NaN,-0.4955112,-5.122341E-11,7.461102E-08,-1.10513E-07,-1.018855E-09,-2.622604E-08
720.881,-0.3242257,-2.420418E-09,NaN,-0.5912842,-1.326282E-07,NaN,-0.136181,-5.118027E-07,NaN,-0.9455053,2.054947E-05,0.2730872,4.375744E-08,NaN,NaN,-0.495878,-5.122341E-11,4.719289E-08,-1.105149E-07,-3.40304E-09,-2.861022E-08
720.8959,-0.3242257,-2.420418E-09,NaN,-0.5912842,-1.326282E-07,NaN,-0.136181,-5.118027E-07,NaN,-0.9455053,2.054947E-05,0.2730872,4.375744E-08,NaN,NaN,-0.495878,-5.122341E-11,4.719289E-08,-1.105149E-07,-3.40304E-09,-2.861022E-08
720.9099,-0.330713,-2.419699E-09,NaN,-0.5915271,-1.326279E-07,NaN,-0.1301108,-5.116365E-07,NaN,-0.9462517,2.054991E-05,0.2666132,4.336002E-08,NaN,NaN,-0.4962375,-5.122341E-11,2.573522E-08,-1.105168E-07,-6.383273E-09,-2.622604E-08
720.9254,-0.3372205,-2.41898E-09,NaN,-0.5917691,-1.326277E-07,NaN,-0.1241672,-5.114704E-07,NaN,-0.9470444,2.055035E-05,0.2602464,4.29652E-08,NaN,NaN,-0.4965899,-5.122341E-11,7.853824E-09,-1.105187E-07,-2.806994E-09,-2.861022E-08
720.9403,-0.3440532,-2.418261E-09,NaN,-0.5920229,-1.326275E-07,NaN,-0.1177074,-5.113042E-07,NaN,-0.9478131,2.055079E-05,0.2532061,4.257293E-08,NaN,NaN,-0.4969811,-5.122341E-11,-2.433268E-08,-1.105205E-07,-8.171412E-09,-2.622604E-08
720.9549,-0.3440532,-2.418261E-09,NaN,-0.5920229,-1.326275E-07,NaN,-0.1177074,-5.113042E-07,NaN,-0.9478131,2.055079E-05,0.2532061,4.257293E-08,NaN,NaN,-0.4969811,-5.122341E-11,-2.433268E-08,-1.105205E-07,-8.171412E-09,-2.622604E-08
720.9692,-0.3510546,-2.417542E-09,NaN,-0.5922813,-1.326273E-07,NaN,-0.1113019,-5.111381E-07,NaN,-0.9486562,2.055123E-05,0.2462692,4.218321E-08,NaN,NaN,-0.4973646,-5.122341E-11,-5.175082E-08,-1.105224E-07,-8.171412E-09,-2.861022E-08
720.9847,-0.3581277,-2.416823E-09,NaN,-0.5925404,-1.326272E-07,NaN,-0.1050082,-5.109719E-07,NaN,-0.9495609,2.055165E-05,0.2394427,4.179602E-08,NaN,NaN,-0.4977405,-3.725358E-11,-7.797686E-08,-1.105243E-07,-9.959551E-09,-2.622604E-08
720.9993,-0.3581277,-2.416823E-09,NaN,-0.5925404,-1.326272E-07,NaN,-0.1050082,-5.109719E-07,NaN,-0.9495609,2.055165E-05,0.2394427,4.179602E-08,NaN,NaN,-0.4977405,-3.725358E-11,-7.797686E-08,-1.105243E-07,-9.959551E-09,-2.622604E-08
721.0134,-0.3655552,-2.416104E-09,NaN,-0.5928121,-1.32627E-07,NaN,-0.09819842,-5.108058E-07,NaN,-0.9504542,2.055208E-05,0.2319412,4.141135E-08,NaN,NaN,-0.4981548,-3.259696E-11,-1.101634E-07,-1.105262E-07,-9.065482E-09,-2.861022E-08
721.0289,-0.3731665,-2.415385E-09,NaN,-0.5930885,-1.326268E-07,NaN,-0.09145199,-5.106396E-07,NaN,-0.9514311,2.055252E-05,0.2245506,4.102917E-08,NaN,NaN,-0.4985609,-2.794035E-11,-1.399657E-07,-1.105281E-07,-9.363505E-09,-2.622604E-08
721.0436,-0.3808561,-2.414666E-09,NaN,-0.5933656,-1.326266E-07,NaN,-0.08482756,-5.104735E-07,NaN,-0.9524757,2.055295E-05,0.2172782,4.064948E-08,NaN,NaN,-0.498959,-2.328374E-11,-1.685759E-07,-1.105299E-07,-8.171412E-09,-2.861022E-08
721.0581,-0.3808561,-2.414666E-09,NaN,-0.5933656,-1.326266E-07,NaN,-0.08482756,-5.104735E-07,NaN,-0.9524757,2.055295E-05,0.2172782,4.064948E-08,NaN,NaN,-0.498959,-2.328374E-11,-1.685759E-07,-1.105299E-07,-8.171412E-09,-2.861022E-08
721.0743,-0.3885589,-2.413947E-09,NaN,-0.5936412,-1.326265E-07,NaN,-0.07834515,-5.103073E-07,NaN,-0.9535689,2.055339E-05,0.2101272,4.027225E-08,NaN,NaN,-0.4993492,-2.328374E-11,-1.94802E-07,-1.105318E-07,-6.979319E-09,-2.622604E-08
721.0888,-0.3965776,-2.413228E-09,NaN,-0.5939283,-1.326263E-07,NaN,-0.07135887,-5.101411E-07,NaN,-0.9546382,2.055382E-05,0.2023007,3.989746E-08,NaN,NaN,-0.4997775,-1.862713E-11,-2.281806E-07,-1.105337E-07,-5.787227E-09,-2.861022E-08
721.1023,-0.4047536,-2.412509E-09,NaN,-0.5942193,-1.326261E-07,NaN,-0.06444428,-5.09975E-07,NaN,-0.955781,2.055425E-05,0.1945943,3.952512E-08,NaN,NaN,-0.5001974,-1.397051E-11,-2.555987E-07,-1.105355E-07,-4.297111E-09,-2.622604E-08
721.117,-0.4047536,-2.412509E-09,NaN,-0.5942193,-1.326261E-07,NaN,-0.06444428,-5.09975E-07,NaN,-0.955781,2.055425E-05,0.1945943,3.952512E-08,NaN,NaN,-0.5001974,-1.397051E-11,-2.555987E-07,-1.105355E-07,-4.297111E-09,-2.622604E-08
721.1308,-0.4129891,-2.41179E-09,NaN,-0.5945106,-1.32626E-07,NaN,-0.05765638,-5.098088E-07,NaN,-0.9569843,2.055469E-05,0.1870136,3.915518E-08,NaN,NaN,-0.5006089,-9.313902E-12,-2.788445E-07,-1.105374E-07,-2.806995E-09,-2.861022E-08
721.1465,-0.4212238,-2.411071E-09,NaN,-0.5948003,-1.326259E-07,NaN,-0.05101381,-5.096427E-07,NaN,-0.9582311,2.055512E-05,0.1795611,3.878765E-08,NaN,NaN,-0.5010123,-4.657289E-12,-3.080508E-07,-1.105393E-07,-4.297111E-09,-2.622604E-08
721.1609,-0.4297635,-2.410352E-09,NaN,-0.5951012,-1.326257E-07,NaN,-0.04386923,-5.094765E-07,NaN,-0.9594505,2.055556E-05,0.1714294,3.842251E-08,NaN,NaN,-0.5014535,-9.313902E-12,-3.432175E-07,-1.105411E-07,-3.999087E-09,-2.861022E-08
721.1757,-0.4297635,-2.410352E-09,NaN,-0.5951012,-1.326257E-07,NaN,-0.04386923,-5.094765E-07,NaN,-0.9594505,2.055556E-05,0.1714294,3.842251E-08,NaN,NaN,-0.5014535,-9.313902E-12,-3.432175E-07,-1.105411E-07,-3.999087E-09,-2.861022E-08
721.1896,-0.4384514,-2.409633E-09,NaN,-0.5954058,-1.326256E-07,NaN,-0.03680131,-5.093104E-07,NaN,-0.9607405,2.0556E-05,0.1634253,3.805973E-08,NaN,NaN,-0.501886,-4.657289E-12,-3.867289E-07,-1.10543E-07,-1.316878E-09,-2.622604E-08
721.2051,-0.447191,-2.408914E-09,NaN,-0.5957105,-1.326255E-07,NaN,-0.0298643,-5.091442E-07,NaN,-0.962089,2.055644E-05,0.1555534,3.769931E-08,NaN,NaN,-0.5023099,-9.313902E-12,-4.165312E-07,-1.105449E-07,-3.701064E-09,-2.861022E-08
721.22,-0.447191,-2.408914E-09,NaN,-0.5957105,-1.326255E-07,NaN,-0.0298643,-5.091442E-07,NaN,-0.962089,2.055644E-05,0.1555534,3.769931E-08,NaN,NaN,-0.5023099,-9.313902E-12,-4.165312E-07,-1.105449E-07,-3.701064E-09,-2.861022E-08
721.2359,-0.4562654,-2.408195E-09,NaN,-0.5960271,-1.326253E-07,NaN,-0.02242517,-5.089781E-07,NaN,-0.9634233,2.055687E-05,0.1470005,3.734123E-08,NaN,NaN,-0.5027713,-4.657289E-12,-4.618308E-07,-1.105467E-07,-1.912925E-09,-2.622604E-08
721.2496,-0.4655041,-2.407476E-09,NaN,-0.5963475,-1.326252E-07,NaN,-0.01507079,-5.088119E-07,NaN,-0.9648374,2.05573E-05,0.1385826,3.698548E-08,NaN,NaN,-0.5032235,-6.765422E-16,-4.981896E-07,-1.105486E-07,-2.210948E-09,-2.861022E-08
721.2639,-0.4748015,-2.406757E-09,NaN,-0.5966678,-1.326251E-07,NaN,-0.007856439,-5.086458E-07,NaN,-0.9663166,2.055775E-05,0.1303042,3.663203E-08,NaN,NaN,-0.5036668,-4.657289E-12,-5.363366E-07,-1.105504E-07,-1.614902E-09,-2.622604E-08
721.2787,-0.4748015,-2.406757E-09,NaN,-0.5966678,-1.326251E-07,NaN,-0.007856439,-5.086458E-07,NaN,-0.9663166,2.055775E-05,0.1303042,3.663203E-08,NaN,NaN,-0.5036668,-4.657289E-12,-5.363366E-07,-1.105504E-07,-1.614902E-09,-2.622604E-08
721.293,-0.4840929,-2.406038E-09,NaN,-0.5969862,-1.32625E-07,NaN,-0.0007999763,-5.084796E-07,NaN,-0.9678422,2.055818E-05,0.1221671,3.628088E-08,NaN,NaN,-0.5041013,-6.765422E-16,-5.744836E-07,-1.105523E-07,-2.508971E-09,-2.861022E-08
721.3083,-0.4936815,-2.405319E-09,NaN,-0.5973154,-1.326249E-07,NaN,0.006748723,-5.083135E-07,NaN,-0.9693425,2.055862E-05,0.1133458,3.593201E-08,NaN,NaN,-0.5045731,-4.657289E-12,-6.162068E-07,-1.105541E-07,9.182957E-10,-2.622604E-08
721.3226,-0.5034088,-2.4046E-09,NaN,-0.5976479,-1.326248E-07,NaN,0.01420647,-5.081473E-07,NaN,-0.9709133,2.055905E-05,0.1046674,3.558541E-08,NaN,NaN,-0.5050355,-6.765422E-16,-6.555459E-07,-1.10556E-07,3.15347E-09,-2.861022E-08
721.3394,-0.5034088,-2.4046E-09,NaN,-0.5976479,-1.326248E-07,NaN,0.01420647,-5.081473E-07,NaN,-0.9709133,2.055905E-05,0.1046674,3.558541E-08,NaN,NaN,-0.5050355,-6.765422E-16,-6.555459E-07,-1.10556E-07,3.15347E-09,-2.861022E-08
721.3525,-0.5131771,-2.403881E-09,NaN,-0.59798,-1.326247E-07,NaN,0.02152132,-5.079812E-07,NaN,-0.9725423,2.055949E-05,0.09613522,3.524105E-08,NaN,NaN,-0.5054888,4.655936E-12,-6.948849E-07,-1.105578E-07,4.792597E-09,-2.622604E-08
721.3671,-0.5229262,-2.403162E-09,NaN,-0.5983099,-1.326247E-07,NaN,0.02867658,-5.07815E-07,NaN,-0.9742133,2.055992E-05,0.08774988,3.489894E-08,NaN,NaN,-0.5059332,1.396916E-11,-7.324359E-07,-1.105596E-07,5.388644E-09,-2.861022E-08
721.3816,-0.5329627,-2.402443E-09,NaN,-0.5986506,-1.326246E-07,NaN,0.03632351,-5.076488E-07,NaN,-0.9758565,2.056035E-05,0.07867519,3.455904E-08,NaN,NaN,-0.5064145,1.396916E-11,-7.819077E-07,-1.105615E-07,7.772829E-09,-2.622604E-08
721.3961,-0.5329627,-2.402443E-09,NaN,-0.5986506,-1.326246E-07,NaN,0.03632351,-5.076488E-07,NaN,-0.9758565,2.056035E-05,0.07867519,3.455904E-08,NaN,NaN,-0.5064145,1.396916E-11,-7.819077E-07,-1.105615E-07,7.772829E-09,-2.622604E-08
721.4101,-0.5431296,-2.401724E-09,NaN,-0.5989944,-1.326245E-07,NaN,0.04387605,-5.074827E-07,NaN,-0.9775677,2.056078E-05,0.0697502,3.422134E-08,NaN,NaN,-0.5068864,2.328239E-11,-8.260151E-07,-1.105633E-07,4.047539E-09,-2.861022E-08
721.4255,-0.5533304,-2.401006E-09,NaN,-0.5993376,-1.326245E-07,NaN,0.05128298,-5.073165E-07,NaN,-0.9793355,2.056121E-05,0.06097724,3.388584E-08,NaN,NaN,-0.5073489,3.259561E-11,-8.665463E-07,-1.105651E-07,4.122045E-09,-2.622604E-08
721.4402,-0.5635058,-2.400287E-09,NaN,-0.5996786,-1.326244E-07,NaN,0.05852798,-5.071504E-07,NaN,-0.9811442,2.056164E-05,0.05235644,3.355252E-08,NaN,NaN,-0.5078023,4.190884E-11,-9.076735E-07,-1.10567E-07,3.004458E-09,-2.861022E-08
721.4551,-0.5635058,-2.400287E-09,NaN,-0.5996786,-1.326244E-07,NaN,0.05852798,-5.071504E-07,NaN,-0.9811442,2.056164E-05,0.05235644,3.355252E-08,NaN,NaN,-0.5078023,4.190884E-11,-9.076735E-07,-1.10567E-07,3.004458E-09,-2.861022E-08
721.4693,-0.5739629,-2.399568E-09,NaN,-0.6000302,-1.326243E-07,NaN,0.06626329,-5.069842E-07,NaN,-0.9829254,2.056207E-05,0.04304069,3.322137E-08,NaN,NaN,-0.5082926,5.122206E-11,-9.589335E-07,-1.105688E-07,2.743688E-09,-2.622604E-08
721.4847,-0.584545,-2.398849E-09,NaN,-0.6003848,-1.326243E-07,NaN,0.07390031,-5.068181E-07,NaN,-0.9847736,2.056251E-05,0.03388125,3.289236E-08,NaN,NaN,-0.5087731,4.656545E-11,-1.003041E-06,-1.105706E-07,1.918639E-10,-2.861022E-08
721.4994,-0.584545,-2.398849E-09,NaN,-0.6003848,-1.326243E-07,NaN,0.07390031,-5.068181E-07,NaN,-0.9847736,2.056251E-05,0.03388125,3.289236E-08,NaN,NaN,-0.5087731,4.656545E-11,-1.003041E-06,-1.105706E-07,1.918639E-10,-2.861022E-08
721.5135,-0.5951558,-2.398131E-09,NaN,-0.6007388,-1.326242E-07,NaN,0.08138875,-5.066519E-07,NaN,-0.9866779,2.056295E-05,0.02487958,3.256549E-08,NaN,NaN,-0.5092443,4.656545E-11,-1.045956E-06,-1.105725E-07,-1.419324E-09,-2.622604E-08
721.5287,-0.6060796,-2.397412E-09,NaN,-0.601104,-1.326242E-07,NaN,0.0893674,-5.064858E-07,NaN,-0.9885688,2.056339E-05,0.01518116,3.224074E-08,NaN,NaN,-0.5097519,4.656545E-11,-1.100196E-06,-1.105743E-07,-5.997604E-10,-2.861022E-08
721.5432,-0.6171455,-2.396693E-09,NaN,-0.6014723,-1.326242E-07,NaN,0.09724054,-5.063196E-07,NaN,-0.9905367,2.056383E-05,0.005646911,3.19181E-08,NaN,NaN,-0.5102494,4.656545E-11,-1.150264E-06,-1.105761E-07,-8.977836E-10,-2.622604E-08
721.5583,-0.6171455,-2.396693E-09,NaN,-0.6014723,-1.326242E-07,NaN,0.09724054,-5.063196E-07,NaN,-0.9905367,2.056383E-05,0.005646911,3.19181E-08,NaN,NaN,-0.5102494,4.656545E-11,-1.150264E-06,-1.105761E-07,-8.977836E-10,-2.622604E-08
721.572,-0.6282482,-2.395974E-09,NaN,-0.6018397,-1.326241E-07,NaN,0.1049572,-5.061535E-07,NaN,-0.9925677,2.056427E-05,-0.003722139,3.159755E-08,NaN,NaN,-0.5107372,4.656545E-11,-1.19914E-06,-1.105779E-07,7.074337E-09,-2.861022E-08
721.5875,-0.6393232,-2.395256E-09,NaN,-0.6022044,-1.326241E-07,NaN,0.112502,-5.059873E-07,NaN,-0.994644,2.05647E-05,-0.01292688,3.127909E-08,NaN,NaN,-0.5112153,4.656545E-11,-1.24444E-06,-1.105797E-07,5.43521E-09,-2.622604E-08
721.6032,-0.6506747,-2.394537E-09,NaN,-0.6025796,-1.326241E-07,NaN,0.1205297,-5.058212E-07,NaN,-0.9966978,2.056514E-05,-0.02283411,3.096269E-08,NaN,NaN,-0.5117299,4.656545E-11,-1.300468E-06,-1.105815E-07,1.273678E-08,-2.861022E-08
721.6179,-0.6506747,-2.394537E-09,NaN,-0.6025796,-1.326241E-07,NaN,0.1205297,-5.058212E-07,NaN,-0.9966978,2.056514E-05,-0.02283411,3.096269E-08,NaN,NaN,-0.5117299,4.656545E-11,-1.300468E-06,-1.105815E-07,1.273678E-08,-2.861022E-08
721.6317,-0.662144,-2.393818E-09,NaN,-0.6029574,-1.326241E-07,NaN,0.1284479,-5.05655E-07,NaN,-0.9988203,2.056558E-05,-0.03257052,3.064834E-08,NaN,NaN,-0.5122343,4.656545E-11,-1.353516E-06,-1.105833E-07,1.392887E-08,-2.622604E-08
721.6461,-0.6736333,-2.393099E-09,NaN,-0.6033341,-1.32624E-07,NaN,0.1362086,-5.054889E-07,NaN,-1.001,2.056602E-05,-0.04213619,3.033604E-08,NaN,NaN,-0.5127288,4.656545E-11,-1.405372E-06,-1.105851E-07,1.661108E-08,-2.861022E-08
721.6606,-0.6850829,-2.392381E-09,NaN,-0.6037081,-1.32624E-07,NaN,0.1437974,-5.053227E-07,NaN,-1.00322,2.056646E-05,-0.05153272,3.002577E-08,NaN,NaN,-0.5132135,4.656545E-11,-1.456036E-06,-1.10587E-07,1.869724E-08,-2.622604E-08
721.6753,-0.6850829,-2.392381E-09,NaN,-0.6037081,-1.32624E-07,NaN,0.1437974,-5.053227E-07,NaN,-1.00322,2.056646E-05,-0.05153272,3.002577E-08,NaN,NaN,-0.5132135,4.656545E-11,-1.456036E-06,-1.10587E-07,1.869724E-08,-2.622604E-08
721.6893,-0.6968001,-2.391662E-09,NaN,-0.6040924,-1.32624E-07,NaN,0.1518697,-5.051565E-07,NaN,-1.005417,2.05669E-05,-0.06163835,2.97175E-08,NaN,NaN,-0.5137345,4.656545E-11,-1.516237E-06,-1.105888E-07,1.959131E-08,-2.861022E-08
721.706,-0.7086278,-2.390943E-09,NaN,-0.6044793,-1.32624E-07,NaN,0.1598307,-5.049904E-07,NaN,-1.007681,2.056734E-05,-0.07156692,2.941124E-08,NaN,NaN,-0.5142453,4.656545E-11,-1.575246E-06,-1.105905E-07,1.750515E-08,-2.622604E-08
721.7196,-0.7086278,-2.390943E-09,NaN,-0.6044793,-1.32624E-07,NaN,0.1598307,-5.049904E-07,NaN,-1.007681,2.056734E-05,-0.07156692,2.941124E-08,NaN,NaN,-0.5142453,4.656545E-11,-1.575246E-06,-1.105905E-07,1.750515E-08,-2.622604E-08
721.7335,-0.7204695,-2.390224E-09,NaN,-0.604865,-1.32624E-07,NaN,0.167633,-5.048242E-07,NaN,-1.01,2.056777E-05,-0.08131941,2.910697E-08,NaN,NaN,-0.514746,4.656545E-11,-1.631274E-06,-1.105923E-07,2.465771E-08,-2.861022E-08
721.7491,-0.7326102,-2.389505E-09,NaN,-0.6052616,-1.32624E-07,NaN,0.1759189,-5.046581E-07,NaN,-1.012311,2.056821E-05,-0.09178247,2.880468E-08,NaN,NaN,-0.5152826,4.656545E-11,-1.694455E-06,-1.105941E-07,2.137945E-08,-2.622604E-08
721.7635,-0.7448786,-2.388786E-09,NaN,-0.6056609,-1.326241E-07,NaN,0.1840872,-5.044919E-07,NaN,-1.014698,2.056865E-05,-0.1020601,2.850434E-08,NaN,NaN,-0.5158087,4.656545E-11,-1.752867E-06,-1.105959E-07,1.959131E-08,-2.861022E-08
721.7785,-0.7448786,-2.388786E-09,NaN,-0.6056609,-1.326241E-07,NaN,0.1840872,-5.044919E-07,NaN,-1.014698,2.056865E-05,-0.1020601,2.850434E-08,NaN,NaN,-0.5158087,4.656545E-11,-1.752867E-06,-1.105959E-07,1.959131E-08,-2.861022E-08
721.7923,-0.7571696,-2.388067E-09,NaN,-0.6060588,-1.326241E-07,NaN,0.1920899,-5.043258E-07,NaN,-1.017147,2.056909E-05,-0.1121541,2.820596E-08,NaN,NaN,-0.5163245,4.656545E-11,-1.814856E-06,-1.105977E-07,2.19755E-08,-2.622604E-08
721.8078,-0.7694185,-2.387348E-09,NaN,-0.6064537,-1.326241E-07,NaN,0.1999133,-5.041596E-07,NaN,-1.019641,2.056952E-05,-0.122067,2.790951E-08,NaN,NaN,-0.5168301,5.122206E-11,-1.873865E-06,-1.105995E-07,2.406166E-08,-2.861022E-08
721.8224,-0.7819306,-2.386629E-09,NaN,-0.6068587,-1.326241E-07,NaN,0.2082145,-5.039935E-07,NaN,-1.022119,2.056995E-05,-0.1326979,2.761499E-08,NaN,NaN,-0.5173717,5.587867E-11,-1.943006E-06,-1.106013E-07,2.376364E-08,-2.622604E-08
721.8374,-0.7819306,-2.386629E-09,NaN,-0.6068587,-1.326241E-07,NaN,0.2082145,-5.039935E-07,NaN,-1.022119,2.056995E-05,-0.1326979,2.761499E-08,NaN,NaN,-0.5173717,5.587867E-11,-1.943006E-06,-1.106013E-07,2.376364E-08,-2.622604E-08
721.8513,-0.7945465,-2.38591E-09,NaN,-0.6072659,-1.326242E-07,NaN,0.2163956,-5.038273E-07,NaN,-1.024665,2.057039E-05,-0.1431374,2.732238E-08,NaN,NaN,-0.5179026,6.053529E-11,-2.004995E-06,-1.106031E-07,2.406166E-08,-2.861022E-08
721.8685,-0.8071688,-2.385191E-09,NaN,-0.6076716,-1.326242E-07,NaN,0.2244113,-5.036612E-07,NaN,-1.027268,2.057082E-05,-0.1533883,2.703167E-08,NaN,NaN,-0.518423,6.984851E-11,-2.066388E-06,-1.106048E-07,2.048538E-08,-2.622604E-08
721.8822,-0.8197377,-2.384472E-09,NaN,-0.6080743,-1.326242E-07,NaN,0.2322486,-5.03495E-07,NaN,-1.029912,2.057125E-05,-0.1634538,2.674285E-08,NaN,NaN,-0.5189333,7.450512E-11,-2.125993E-06,-1.106066E-07,1.929329E-08,-2.861022E-08
721.8959,-0.8197377,-2.384472E-09,NaN,-0.6080743,-1.326242E-07,NaN,0.2322486,-5.03495E-07,NaN,-1.029912,2.057125E-05,-0.1634538,2.674285E-08,NaN,NaN,-0.5189333,7.450512E-11,-2.125993E-06,-1.106066E-07,1.929329E-08,-2.861022E-08
721.9098,-0.8325614,-2.383753E-09,NaN,-0.6084871,-1.326243E-07,NaN,0.2405649,-5.033289E-07,NaN,-1.032539,2.057168E-05,-0.1742446,2.64559E-08,NaN,NaN,-0.5194795,7.916174E-11,-2.196326E-06,-1.106084E-07,1.810119E-08,-2.622604E-08
721.9252,-0.8454826,-2.383034E-09,NaN,-0.6089021,-1.326243E-07,NaN,0.2487604,-5.031627E-07,NaN,-1.035233,2.057212E-05,-0.1848381,2.617081E-08,NaN,NaN,-0.5200148,8.381836E-11,-2.261295E-06,-1.106101E-07,1.988933E-08,-2.861022E-08
721.9399,-0.8454826,-2.383034E-09,NaN,-0.6089021,-1.326243E-07,NaN,0.2487604,-5.031627E-07,NaN,-1.035233,2.057212E-05,-0.1848381,2.617081E-08,NaN,NaN,-0.5200148,8.381836E-11,-2.261295E-06,-1.106101E-07,1.988933E-08,-2.861022E-08
721.9539,-0.8584046,-2.382316E-09,NaN,-0.6093156,-1.326244E-07,NaN,0.2567901,-5.029966E-07,NaN,-1.037982,2.057255E-05,-0.1952378,2.588758E-08,NaN,NaN,-0.5205397,8.381836E-11,-2.32388E-06,-1.106119E-07,1.392887E-08,-2.622604E-08
721.9694,-0.8716131,-2.381597E-09,NaN,-0.6097397,-1.326244E-07,NaN,0.2652989,-5.028304E-07,NaN,-1.04073,2.057297E-05,-0.2063636,2.560618E-08,NaN,NaN,-0.5211002,9.313158E-11,-2.398982E-06,-1.106137E-07,1.512096E-08,-2.861022E-08
721.9841,-0.8849368,-2.380878E-09,NaN,-0.610166,-1.326245E-07,NaN,0.273681,-5.026642E-07,NaN,-1.043554,2.057339E-05,-0.2172832,2.532661E-08,NaN,NaN,-0.5216496,9.778819E-11,-2.468719E-06,-1.106154E-07,1.154468E-08,-2.622604E-08
721.9987,-0.8849368,-2.380878E-09,NaN,-0.610166,-1.326245E-07,NaN,0.273681,-5.026642E-07,NaN,-1.043554,2.057339E-05,-0.2172832,2.532661E-08,NaN,NaN,-0.5216496,9.778819E-11,-2.468719E-06,-1.106154E-07,1.154468E-08,-2.622604E-08
722.0126,-0.8982703,-2.38016E-09,NaN,-0.6105906,-1.326245E-07,NaN,0.2818912,-5.024981E-07,NaN,-1.04644,2.057381E-05,-0.2280011,2.504886E-08,NaN,NaN,-0.5221882,1.024448E-10,-2.534284E-06,-1.106172E-07,1.810119E-08,-2.861022E-08
722.0283,-0.9115492,-2.379441E-09,NaN,-0.6110119,-1.326246E-07,NaN,0.2899171,-5.023319E-07,NaN,-1.04937,2.057424E-05,-0.2385218,2.477291E-08,NaN,NaN,-0.5227163,1.071014E-10,-2.596273E-06,-1.106189E-07,1.035259E-08,-2.622604E-08
722.0427,-0.9250794,-2.378723E-09,NaN,-0.6114432,-1.326247E-07,NaN,0.2984173,-5.021658E-07,NaN,-1.052293,2.057468E-05,-0.2497773,2.449875E-08,NaN,NaN,-0.5232801,1.071014E-10,-2.673759E-06,-1.106207E-07,1.452491E-08,-2.861022E-08
722.0574,-0.9250794,-2.378723E-09,NaN,-0.6114432,-1.326247E-07,NaN,0.2984173,-5.021658E-07,NaN,-1.052293,2.057468E-05,-0.2497773,2.449875E-08,NaN,NaN,-0.5232801,1.071014E-10,-2.673759E-06,-1.106207E-07,1.452491E-08,-2.861022E-08
722.0714,-0.9387015,-2.378004E-09,NaN,-0.6118762,-1.326247E-07,NaN,0.3067895,-5.019996E-07,NaN,-1.055285,2.057512E-05,-0.2608211,2.422637E-08,NaN,NaN,-0.5238327,1.024448E-10,-2.743496E-06,-1.106224E-07,7.372357E-09,-2.622604E-08
722.0868,-0.9523179,-2.377285E-09,NaN,-0.6123075,-1.326248E-07,NaN,0.3149908,-5.018335E-07,NaN,-1.058333,2.057557E-05,-0.2716588,2.395576E-08,NaN,NaN,-0.5243745,9.778819E-11,-2.810253E-06,-1.106242E-07,5.584218E-09,-2.861022E-08
722.1014,-0.9658688,-2.376567E-09,NaN,-0.6127356,-1.326249E-07,NaN,0.3230095,-5.016673E-07,NaN,-1.06142,2.0576E-05,-0.2822953,2.368691E-08,NaN,NaN,-0.5249057,1.024448E-10,-2.878799E-06,-1.106259E-07,1.035259E-08,-2.622604E-08
722.1163,-0.9658688,-2.376567E-09,NaN,-0.6127356,-1.326249E-07,NaN,0.3230095,-5.016673E-07,NaN,-1.06142,2.0576E-05,-0.2822953,2.368691E-08,NaN,NaN,-0.5249057,1.024448E-10,-2.878799E-06,-1.106259E-07,1.035259E-08,-2.622604E-08
722.1321,-0.9796633,-2.375848E-09,NaN,-0.6131735,-1.32625E-07,NaN,0.3315039,-5.015012E-07,NaN,-1.064502,2.057644E-05,-0.2936744,2.34198E-08,NaN,NaN,-0.5254725,9.778819E-11,-2.959265E-06,-1.106277E-07,1.571701E-08,-2.861022E-08
722.1462,-0.9935437,-2.37513E-09,NaN,-0.6136134,-1.326251E-07,NaN,0.3398703,-5.01335E-07,NaN,-1.06765,2.057687E-05,-0.304836,2.315442E-08,NaN,NaN,-0.5260281,1.024448E-10,-3.030791E-06,-1.106294E-07,1.154468E-08,-2.622604E-08
722.1609,-1.007414,-2.374411E-09,NaN,-0.6140514,-1.326252E-07,NaN,0.3480663,-5.011689E-07,NaN,-1.070853,2.057731E-05,-0.3157865,2.289077E-08,NaN,NaN,-0.5265728,1.071014E-10,-3.096356E-06,-1.106311E-07,1.035259E-08,-2.861022E-08
722.1744,-1.007414,-2.374411E-09,NaN,-0.6140514,-1.326252E-07,NaN,0.3480663,-5.011689E-07,NaN,-1.070853,2.057731E-05,-0.3157865,2.289077E-08,NaN,NaN,-0.5265728,1.071014E-10,-3.096356E-06,-1.106311E-07,1.035259E-08,-2.861022E-08
722.1899,-1.021559,-2.373693E-09,NaN,-0.6144999,-1.326253E-07,NaN,0.3567376,-5.010027E-07,NaN,-1.074064,2.057774E-05,-0.3274794,2.262883E-08,NaN,NaN,-0.5271529,1.11758E-10,-3.17861E-06,-1.106329E-07,6.776312E-09,-2.622604E-08
722.2037,-1.035809,-2.372974E-09,NaN,-0.6149502,-1.326254E-07,NaN,0.3652757,-5.008366E-07,NaN,-1.077352,2.057818E-05,-0.3389452,2.236859E-08,NaN,NaN,-0.5277215,1.071014E-10,-3.256692E-06,-1.106346E-07,9.160498E-09,-2.861022E-08
722.2185,-1.035809,-2.372974E-09,NaN,-0.6149502,-1.326254E-07,NaN,0.3652757,-5.008366E-07,NaN,-1.077352,2.057818E-05,-0.3389452,2.236859E-08,NaN,NaN,-0.5277215,1.071014E-10,-3.256692E-06,-1.106346E-07,9.160498E-09,-2.861022E-08
722.2324,-1.050057,-2.372255E-09,NaN,-0.6153985,-1.326255E-07,NaN,0.3736376,-5.006704E-07,NaN,-1.0807,2.057861E-05,-0.3501915,2.211004E-08,NaN,NaN,-0.5282791,1.11758E-10,-3.32941E-06,-1.106363E-07,7.968405E-09,-2.622604E-08
722.2478,-1.06424,-2.371537E-09,NaN,-0.6158432,-1.326264E-07,NaN,0.3818121,-5.013375E-07,NaN,-1.084092,2.057906E-05,-0.3612248,2.270363E-08,NaN,NaN,-0.5288257,1.024448E-10,-3.396763E-06,-1.106357E-07,7.968405E-09,-2.861022E-08
722.2625,-1.078663,-2.370819E-09,NaN,-0.6162977,-1.326272E-07,NaN,0.3904573,-5.02119E-07,NaN,-1.087487,2.057949E-05,-0.3730099,2.342657E-08,NaN,NaN,-0.5294077,9.313159E-11,-3.47872E-06,-1.106346E-07,1.392887E-08,-2.622604E-08
722.2771,-1.078663,-2.370819E-09,NaN,-0.6162977,-1.326272E-07,NaN,0.3904573,-5.02119E-07,NaN,-1.087487,2.057949E-05,-0.3730099,2.342657E-08,NaN,NaN,-0.5294077,9.313159E-11,-3.47872E-06,-1.106346E-07,1.392887E-08,-2.622604E-08
722.2911,-1.093168,-2.370101E-09,NaN,-0.6167538,-1.326277E-07,NaN,0.3989691,-5.029363E-07,NaN,-1.090951,2.057994E-05,-0.3845631,2.419731E-08,NaN,NaN,-0.5299783,7.450514E-11,-3.558292E-06,-1.106335E-07,1.035259E-08,-2.861022E-08
722.3068,-1.107657,-2.369382E-09,NaN,-0.6172079,-1.326281E-07,NaN,0.4073064,-5.037655E-07,NaN,-1.094469,2.058038E-05,-0.3958927,2.498954E-08,NaN,NaN,-0.5305377,6.519191E-11,-3.630413E-06,-1.106322E-07,7.968405E-09,-2.622604E-08
722.3214,-1.122069,-2.368664E-09,NaN,-0.6176584,-1.326285E-07,NaN,0.4154583,-5.045883E-07,NaN,-1.098026,2.058081E-05,-0.4070054,2.578309E-08,NaN,NaN,-0.5310861,5.122208E-11,-3.701641E-06,-1.106309E-07,2.00794E-09,-2.861022E-08
722.3363,-1.122069,-2.368664E-09,NaN,-0.6176584,-1.326285E-07,NaN,0.4154583,-5.045883E-07,NaN,-1.098026,2.058081E-05,-0.4070054,2.578309E-08,NaN,NaN,-0.5310861,5.122208E-11,-3.701641E-06,-1.106309E-07,2.00794E-09,-2.861022E-08
722.3501,-1.124956,-2.367946E-09,NaN,-0.6176543,-1.326288E-07,NaN,0.4017842,-5.054006E-07,NaN,-1.102255,2.058123E-05,-0.3858792,2.657229E-08,NaN,NaN,-0.5301034,5.122208E-11,-3.240599E-06,-1.106296E-07,2.108143E-08,-2.622604E-08
722.3655,-1.120784,-2.367228E-09,NaN,-0.6174275,-1.326291E-07,NaN,0.3863095,-5.061981E-07,NaN,-1.105127,2.058165E-05,-0.3657918,2.735159E-08,NaN,NaN,-0.5291454,4.656546E-11,-2.889826E-06,-1.106283E-07,1.988933E-08,-2.861022E-08
722.3802,-1.112312,-2.36651E-09,NaN,-0.6170728,-1.326293E-07,NaN,0.3705253,-5.069792E-07,NaN,-1.106705,2.058206E-05,-0.346564,2.811835E-08,NaN,NaN,-0.5282089,4.190885E-11,-2.605512E-06,-1.10627E-07,1.750515E-08,-2.622604E-08
722.3946,-1.112312,-2.36651E-09,NaN,-0.6170728,-1.326293E-07,NaN,0.3705253,-5.069792E-07,NaN,-1.106705,2.058206E-05,-0.346564,2.811835E-08,NaN,NaN,-0.5282089,4.190885E-11,-2.605512E-06,-1.10627E-07,1.750515E-08,-2.622604E-08
722.4109,-1.101596,-2.365792E-09,NaN,-0.616656,-1.326296E-07,NaN,0.3556297,-5.077449E-07,NaN,-1.107216,2.058249E-05,-0.3289878,2.887284E-08,NaN,NaN,-0.5273381,2.793901E-11,-2.384974E-06,-1.106257E-07,1.631305E-08,-2.861022E-08
722.425,-1.089559,-2.365074E-09,NaN,-0.6162022,-1.326299E-07,NaN,0.341212,-5.084931E-07,NaN,-1.106993,2.058291E-05,-0.3119495,2.961246E-08,NaN,NaN,-0.5264848,1.862579E-11,-2.193345E-06,-1.106243E-07,1.273678E-08,-2.622604E-08
722.4389,-1.089559,-2.365074E-09,NaN,-0.6162022,-1.326299E-07,NaN,0.341212,-5.084931E-07,NaN,-1.106993,2.058291E-05,-0.3119495,2.961246E-08,NaN,NaN,-0.5264848,1.862579E-11,-2.193345E-06,-1.106243E-07,1.273678E-08,-2.622604E-08
722.4529,-1.076771,-2.364356E-09,NaN,-0.6157269,-1.326301E-07,NaN,0.3272426,-5.092219E-07,NaN,-1.106266,2.058333E-05,-0.2953793,3.033467E-08,NaN,NaN,-0.5256485,1.396917E-11,-2.022876E-06,-1.10623E-07,1.392887E-08,-2.861022E-08
722.4683,-1.063583,-2.363639E-09,NaN,-0.6152401,-1.326303E-07,NaN,0.3136748,-5.099349E-07,NaN,-1.105201,2.058374E-05,-0.2792304,3.104266E-08,NaN,NaN,-0.5248287,9.312561E-12,-1.866414E-06,-1.106217E-07,1.869724E-08,-2.622604E-08
722.483,-1.050559,-2.362922E-09,NaN,-0.6147621,-1.326306E-07,NaN,0.3011026,-5.106327E-07,NaN,-1.10388,2.058416E-05,-0.264409,3.173669E-08,NaN,NaN,-0.5240712,4.655948E-12,-1.735582E-06,-1.106204E-07,1.750515E-08,-2.861022E-08
722.4974,-1.050559,-2.362922E-09,NaN,-0.6147621,-1.326306E-07,NaN,0.3011026,-5.106327E-07,NaN,-1.10388,2.058416E-05,-0.264409,3.173669E-08,NaN,NaN,-0.5240712,4.655948E-12,-1.735582E-06,-1.106204E-07,1.750515E-08,-2.861022E-08
722.5115,-1.037694,-2.362204E-09,NaN,-0.6142921,-1.326308E-07,NaN,0.2889239,-5.113129E-07,NaN,-1.102457,2.058459E-05,-0.2499141,3.241421E-08,NaN,NaN,-0.5233284,-4.657277E-12,-1.612498E-06,-1.106191E-07,1.988933E-08,-2.622604E-08
722.5269,-1.024986,-2.361487E-09,NaN,-0.6138294,-1.326311E-07,NaN,0.277057,-5.11979E-07,NaN,-1.100981,2.058501E-05,-0.2357368,3.307839E-08,NaN,NaN,-0.5226002,-1.39705E-11,-1.495375E-06,-1.106178E-07,2.46577E-08,-2.861022E-08
722.5419,-1.012432,-2.36077E-09,NaN,-0.6133738,-1.326313E-07,NaN,0.2654608,-5.126284E-07,NaN,-1.099479,2.058543E-05,-0.2218689,3.372664E-08,NaN,NaN,-0.5218863,-2.328373E-11,-1.380338E-06,-1.106165E-07,2.108142E-08,-2.622604E-08
722.5569,-1.012432,-2.36077E-09,NaN,-0.6133738,-1.326313E-07,NaN,0.2654608,-5.126284E-07,NaN,-1.099479,2.058543E-05,-0.2218689,3.372664E-08,NaN,NaN,-0.5218863,-2.328373E-11,-1.380338E-06,-1.106165E-07,2.108142E-08,-2.622604E-08
722.5705,-1.000375,-2.360053E-09,NaN,-0.6129386,-1.326316E-07,NaN,0.2547463,-5.132646E-07,NaN,-1.097924,2.058586E-05,-0.2092262,3.436212E-08,NaN,NaN,-0.5212324,-3.259695E-11,-1.285567E-06,-1.106152E-07,1.631305E-08,-2.861022E-08
722.5861,-0.9886779,-2.359336E-09,NaN,-0.6125186,-1.326318E-07,NaN,0.2443393,-5.13885E-07,NaN,-1.096403,2.058628E-05,-0.196841,3.498223E-08,NaN,NaN,-0.5205913,-4.191018E-11,-1.189603E-06,-1.106139E-07,1.512096E-08,-2.622604E-08
722.6006,-0.9772539,-2.358619E-09,NaN,-0.6121103,-1.32632E-07,NaN,0.2341739,-5.144928E-07,NaN,-1.094918,2.058671E-05,-0.1847137,3.559012E-08,NaN,NaN,-0.5199627,-5.12234E-11,-1.095428E-06,-1.106127E-07,1.750514E-08,-2.861022E-08
722.6155,-0.9772539,-2.358619E-09,NaN,-0.6121103,-1.32632E-07,NaN,0.2341739,-5.144928E-07,NaN,-1.094918,2.058671E-05,-0.1847137,3.559012E-08,NaN,NaN,-0.5199627,-5.12234E-11,-1.095428E-06,-1.106127E-07,1.750514E-08,-2.861022E-08
722.6296,-0.9663945,-2.357902E-09,NaN,-0.6117252,-1.326323E-07,NaN,0.2248518,-5.150855E-07,NaN,-1.093421,2.058713E-05,-0.1737554,3.61832E-08,NaN,NaN,-0.5193924,-6.053662E-11,-1.021518E-06,-1.106114E-07,1.988933E-08,-2.622604E-08
722.6447,-0.95593,-2.357186E-09,NaN,-0.6113566,-1.326325E-07,NaN,0.2158018,-5.156663E-07,NaN,-1.091988,2.058755E-05,-0.1630141,3.676456E-08,NaN,NaN,-0.5188332,-6.984985E-11,-9.434359E-07,-1.106101E-07,1.154468E-08,-2.861022E-08
722.6592,-0.95593,-2.357186E-09,NaN,-0.6113566,-1.326325E-07,NaN,0.2158018,-5.156663E-07,NaN,-1.091988,2.058755E-05,-0.1630141,3.676456E-08,NaN,NaN,-0.5188332,-6.984985E-11,-9.434359E-07,-1.106101E-07,1.154468E-08,-2.861022E-08
722.6758,-0.9457549,-2.356469E-09,NaN,-0.6110002,-1.326327E-07,NaN,0.2069595,-5.162327E-07,NaN,-1.090611,2.058798E-05,-0.1524921,3.733164E-08,NaN,NaN,-0.5182849,-7.916307E-11,-8.665459E-07,-1.106088E-07,1.273677E-08,-2.622604E-08
722.6899,-0.9358035,-2.355752E-09,NaN,-0.6106534,-1.32633E-07,NaN,0.1982984,-5.167877E-07,NaN,-1.089274,2.058839E-05,-0.1421885,3.788753E-08,NaN,NaN,-0.5177473,-7.916307E-11,-7.914441E-07,-1.106076E-07,1.273677E-08,-2.861022E-08
722.7036,-0.9263794,-2.355035E-09,NaN,-0.610328,-1.326332E-07,NaN,0.1904356,-5.173288E-07,NaN,-1.087922,2.058882E-05,-0.1330021,3.842962E-08,NaN,NaN,-0.5172663,-8.84763E-11,-7.348197E-07,-1.106063E-07,4.392121E-09,-2.622604E-08
722.7183,-0.9263794,-2.355035E-09,NaN,-0.610328,-1.326332E-07,NaN,0.1904356,-5.173288E-07,NaN,-1.087922,2.058882E-05,-0.1330021,3.842962E-08,NaN,NaN,-0.5172663,-8.84763E-11,-7.348197E-07,-1.106063E-07,4.392121E-09,-2.622604E-08
722.7322,-0.9173211,-2.354319E-09,NaN,-0.6100176,-1.326334E-07,NaN,0.1828111,-5.178592E-07,NaN,-1.086631,2.058924E-05,-0.1239955,3.896109E-08,NaN,NaN,-0.5167946,-9.778952E-11,-6.75215E-07,-1.106051E-07,6.180261E-09,-2.861022E-08
722.7474,-0.908528,-2.353603E-09,NaN,-0.6097182,-1.326337E-07,NaN,0.1753637,-5.183762E-07,NaN,-1.085395,2.058966E-05,-0.115171,3.947924E-08,NaN,NaN,-0.516332,-1.071027E-10,-6.173985E-07,-1.106038E-07,9.160493E-09,-2.622604E-08
722.7621,-0.8999374,-2.352886E-09,NaN,-0.6094272,-1.326339E-07,NaN,0.1680686,-5.188829E-07,NaN,-1.084198,2.059009E-05,-0.1065276,3.998716E-08,NaN,NaN,-0.5158786,-1.16416E-10,-5.566018E-07,-1.106026E-07,1.5717E-08,-2.861022E-08
722.7769,-0.8999374,-2.352886E-09,NaN,-0.6094272,-1.326339E-07,NaN,0.1680686,-5.188829E-07,NaN,-1.084198,2.059009E-05,-0.1065276,3.998716E-08,NaN,NaN,-0.5158786,-1.16416E-10,-5.566018E-07,-1.106026E-07,1.5717E-08,-2.861022E-08
722.7908,-0.891855,-2.35217E-09,NaN,-0.6091565,-1.326341E-07,NaN,0.1615421,-5.193767E-07,NaN,-1.082981,2.059051E-05,-0.09895494,4.048222E-08,NaN,NaN,-0.5154799,-1.257292E-10,-5.160706E-07,-1.106013E-07,1.392886E-08,-2.622604E-08
722.8066,-0.8841205,-2.351454E-09,NaN,-0.6089,-1.326343E-07,NaN,0.1552271,-5.198607E-07,NaN,-1.081825,2.059093E-05,-0.09152837,4.096751E-08,NaN,NaN,-0.515089,-1.257292E-10,-4.719632E-07,-1.106001E-07,2.942607E-08,-2.861022E-08
722.8212,-0.8766342,-2.350738E-09,NaN,-0.6086535,-1.326346E-07,NaN,0.1490629,-5.203323E-07,NaN,-1.080724,2.059135E-05,-0.08425014,4.144039E-08,NaN,NaN,-0.5147057,-1.350424E-10,-4.278558E-07,-1.105989E-07,2.704189E-08,-2.622604E-08
722.8359,-0.8766342,-2.350738E-09,NaN,-0.6086535,-1.326346E-07,NaN,0.1490629,-5.203323E-07,NaN,-1.080724,2.059135E-05,-0.08425014,4.144039E-08,NaN,NaN,-0.5147057,-1.350424E-10,-4.278558E-07,-1.105989E-07,2.704189E-08,-2.622604E-08
722.85,-0.869679,-2.350022E-09,NaN,-0.6084282,-1.326348E-07,NaN,0.1436499,-5.207945E-07,NaN,-1.079614,2.059177E-05,-0.07800552,4.190393E-08,NaN,NaN,-0.5143757,-1.443557E-10,-3.962653E-07,-1.105977E-07,2.942607E-08,-2.861022E-08
722.8654,-0.8630805,-2.349306E-09,NaN,-0.6082171,-1.32635E-07,NaN,0.138427,-5.212447E-07,NaN,-1.078576,2.05922E-05,-0.07187884,4.235548E-08,NaN,NaN,-0.5140522,-1.536689E-10,-3.622906E-07,-1.105964E-07,2.883002E-08,-2.622604E-08
722.88,-0.8567306,-2.34859E-09,NaN,-0.6080159,-1.326353E-07,NaN,0.1333316,-5.216859E-07,NaN,-1.0776,2.059262E-05,-0.06587286,4.27981E-08,NaN,NaN,-0.513735,-1.629821E-10,-3.271239E-07,-1.105952E-07,2.704189E-08,-2.861022E-08
722.8947,-0.8567306,-2.34859E-09,NaN,-0.6080159,-1.326353E-07,NaN,0.1333316,-5.216859E-07,NaN,-1.0776,2.059262E-05,-0.06587286,4.27981E-08,NaN,NaN,-0.513735,-1.629821E-10,-3.271239E-07,-1.105952E-07,2.704189E-08,-2.861022E-08
722.9088,-0.8505621,-2.347874E-09,NaN,-0.6078218,-1.326355E-07,NaN,0.1283394,-5.221156E-07,NaN,-1.07667,2.059304E-05,-0.05998758,4.322915E-08,NaN,NaN,-0.513424,-1.676387E-10,-2.90169E-07,-1.10594E-07,2.048537E-08,-2.622604E-08
722.9241,-0.8448774,-2.347158E-09,NaN,-0.6076468,-1.326357E-07,NaN,0.1240657,-5.225368E-07,NaN,-1.075722,2.059346E-05,-0.0551006,4.365168E-08,NaN,NaN,-0.5131649,-1.722953E-10,-2.669232E-07,-1.105928E-07,1.750514E-08,-2.861022E-08
722.9397,-0.8448774,-2.347158E-09,NaN,-0.6076468,-1.326357E-07,NaN,0.1240657,-5.225368E-07,NaN,-1.075722,2.059346E-05,-0.0551006,4.365168E-08,NaN,NaN,-0.5131649,-1.722953E-10,-2.669232E-07,-1.105928E-07,1.750514E-08,-2.861022E-08
722.9536,-0.8395149,-2.346443E-09,NaN,-0.6074843,-1.326359E-07,NaN,0.1199571,-5.229496E-07,NaN,-1.074839,2.059388E-05,-0.05030473,4.406586E-08,NaN,NaN,-0.5129109,-1.76952E-10,-2.424853E-07,-1.105916E-07,2.167747E-08,-2.622604E-08
722.9682,-0.8343744,-2.345727E-09,NaN,-0.6073305,-1.326361E-07,NaN,0.1159537,-5.233513E-07,NaN,-1.074013,2.059429E-05,-0.04560248,4.446903E-08,NaN,NaN,-0.5126618,-1.816086E-10,-2.186435E-07,-1.105904E-07,1.750514E-08,-2.861022E-08
722.9828,-0.8293933,-2.345012E-09,NaN,-0.6071827,-1.326363E-07,NaN,0.1120319,-5.237451E-07,NaN,-1.07323,2.059471E-05,-0.04099394,4.486421E-08,NaN,NaN,-0.5124176,-1.862652E-10,-1.936095E-07,-1.105892E-07,2.108142E-08,-2.622604E-08
722.9973,-0.8293933,-2.345012E-09,NaN,-0.6071827,-1.326363E-07,NaN,0.1120319,-5.237451E-07,NaN,-1.07323,2.059471E-05,-0.04099394,4.486421E-08,NaN,NaN,-0.5124176,-1.862652E-10,-1.936095E-07,-1.105892E-07,2.108142E-08,-2.622604E-08
723.0112,-0.8248771,-2.344296E-09,NaN,-0.6070532,-1.326366E-07,NaN,0.1088069,-5.241283E-07,NaN,-1.072425,2.059513E-05,-0.0373516,4.524875E-08,NaN,NaN,-0.512224,-1.909218E-10,-1.828807E-07,-1.10588E-07,2.048537E-08,-2.861022E-08
723.0266,-0.8206665,-2.343581E-09,NaN,-0.6069353,-1.326368E-07,NaN,0.1057265,-5.245038E-07,NaN,-1.071687,2.059555E-05,-0.03377562,4.562569E-08,NaN,NaN,-0.5120341,-1.955784E-10,-1.673835E-07,-1.105868E-07,1.810119E-08,-2.622604E-08
723.0414,-0.8166623,-2.342866E-09,NaN,-0.6068252,-1.32637E-07,NaN,0.1027308,-5.24869E-07,NaN,-1.071004,2.059597E-05,-0.03026861,4.599233E-08,NaN,NaN,-0.5118479,-2.00235E-10,-1.495021E-07,-1.105856E-07,1.869723E-08,-2.861022E-08
723.056,-0.8166623,-2.342866E-09,NaN,-0.6068252,-1.32637E-07,NaN,0.1027308,-5.24869E-07,NaN,-1.071004,2.059597E-05,-0.03026861,4.599233E-08,NaN,NaN,-0.5118479,-2.00235E-10,-1.495021E-07,-1.105856E-07,1.869723E-08,-2.861022E-08
723.0699,-0.8131472,-2.342151E-09,NaN,-0.6067342,-1.326372E-07,NaN,0.1004196,-5.25227E-07,NaN,-1.070313,2.059639E-05,-0.02770137,4.635172E-08,NaN,NaN,-0.5117112,-2.048916E-10,-1.447337E-07,-1.105845E-07,1.5717E-08,-2.622604E-08
723.0855,-0.809948,-2.341436E-09,NaN,-0.6066552,-1.326374E-07,NaN,0.09823533,-5.25575E-07,NaN,-1.069699,2.05968E-05,-0.02517905,4.670117E-08,NaN,NaN,-0.5115771,-2.095482E-10,-1.369851E-07,-1.105833E-07,1.512096E-08,-2.861022E-08
723.1003,-0.8069569,-2.340721E-09,NaN,-0.6065838,-1.326376E-07,NaN,0.09611636,-5.259162E-07,NaN,-1.069149,2.059722E-05,-0.0227046,4.704369E-08,NaN,NaN,-0.5114456,-2.142048E-10,-1.286405E-07,-1.105821E-07,1.631305E-08,-2.622604E-08
723.1147,-0.8069569,-2.340721E-09,NaN,-0.6065838,-1.326376E-07,NaN,0.09611636,-5.259162E-07,NaN,-1.069149,2.059722E-05,-0.0227046,4.704369E-08,NaN,NaN,-0.5114456,-2.142048E-10,-1.286405E-07,-1.105821E-07,1.631305E-08,-2.622604E-08
723.1288,-0.8041072,-2.340006E-09,NaN,-0.6065175,-1.326378E-07,NaN,0.09403954,-5.262477E-07,NaN,-1.068647,2.059764E-05,-0.02027864,4.73766E-08,NaN,NaN,-0.5113167,-2.188614E-10,-1.173156E-07,-1.10581E-07,1.452491E-08,-2.861022E-08
723.1457,-0.8017015,-2.339291E-09,NaN,-0.6064683,-1.32638E-07,NaN,0.09262069,-5.265726E-07,NaN,-1.068127,2.059806E-05,-0.0187684,4.770292E-08,NaN,NaN,-0.5112361,-2.23518E-10,-1.196997E-07,-1.105798E-07,1.512096E-08,-2.622604E-08
723.1588,-0.8017015,-2.339291E-09,NaN,-0.6064683,-1.32638E-07,NaN,0.09262069,-5.265726E-07,NaN,-1.068127,2.059806E-05,-0.0187684,4.770292E-08,NaN,NaN,-0.5112361,-2.23518E-10,-1.196997E-07,-1.105798E-07,1.512096E-08,-2.622604E-08
723.1727,-0.799579,-2.338577E-09,NaN,-0.6064296,-1.326383E-07,NaN,0.09130838,-5.268882E-07,NaN,-1.067677,2.059848E-05,-0.01728289,4.801994E-08,NaN,NaN,-0.5111571,-2.281746E-10,-1.173156E-07,-1.105786E-07,2.108142E-08,-2.861022E-08
723.1882,-0.7976397,-2.337862E-09,NaN,-0.6063974,-1.326374E-07,NaN,0.0900438,-5.273274E-07,NaN,-1.067286,2.05989E-05,-0.01582493,4.833912E-08,NaN,NaN,-0.5110795,-2.328313E-10,-1.149314E-07,-1.105776E-07,2.525375E-08,-2.622604E-08
723.2048,-0.7958217,-2.337148E-09,NaN,-0.6063694,-1.326361E-07,NaN,0.08880478,-5.277666E-07,NaN,-1.06694,2.059933E-05,-0.01439532,4.856907E-08,NaN,NaN,-0.5110035,-2.374879E-10,-1.107591E-07,-1.105763E-07,2.286956E-08,-2.861022E-08
723.2185,-0.7958217,-2.337148E-09,NaN,-0.6063694,-1.326361E-07,NaN,0.08880478,-5.277666E-07,NaN,-1.06694,2.059933E-05,-0.01439532,4.856907E-08,NaN,NaN,-0.5110035,-2.374879E-10,-1.107591E-07,-1.105763E-07,2.286956E-08,-2.861022E-08
723.2324,-0.7944308,-2.336433E-09,NaN,-0.6063578,-1.326346E-07,NaN,0.08820764,-5.282059E-07,NaN,-1.066573,2.059976E-05,-0.01385987,4.873352E-08,NaN,NaN,-0.5109748,-2.468011E-10,-1.185077E-07,-1.10575E-07,2.048538E-08,-2.622604E-08
723.2469,-0.7933081,-2.335719E-09,NaN,-0.606356,-1.326331E-07,NaN,0.08770069,-5.286451E-07,NaN,-1.066274,2.060019E-05,-0.01333043,4.884987E-08,NaN,NaN,-0.5109466,-2.468011E-10,-1.220839E-07,-1.105736E-07,2.227351E-08,-2.861022E-08
723.2613,-0.7923552,-2.335004E-09,NaN,-0.6063593,-1.326315E-07,NaN,0.08722536,-5.290843E-07,NaN,-1.066034,2.060062E-05,-0.01280995,4.893095E-08,NaN,NaN,-0.5109189,-2.468011E-10,-1.250642E-07,-1.105722E-07,2.525375E-08,-2.622604E-08
723.276,-0.7923552,-2.335004E-09,NaN,-0.6063593,-1.326315E-07,NaN,0.08722536,-5.290843E-07,NaN,-1.066034,2.060062E-05,-0.01280995,4.893095E-08,NaN,NaN,-0.5109189,-2.468011E-10,-1.250642E-07,-1.105722E-07,2.525375E-08,-2.622604E-08
723.29,-0.7918551,-2.33429E-09,NaN,-0.6063793,-1.326298E-07,NaN,0.08738317,-5.295236E-07,NaN,-1.065786,2.060106E-05,-0.01316489,4.898614E-08,NaN,NaN,-0.5109376,-2.514577E-10,-1.405614E-07,-1.105708E-07,2.704189E-08,-2.861022E-08
723.3054,-0.791635,-2.333575E-09,NaN,-0.6064091,-1.326282E-07,NaN,0.08761616,-5.299628E-07,NaN,-1.065617,2.060149E-05,-0.01350876,4.902235E-08,NaN,NaN,-0.5109559,-2.561143E-10,-1.512902E-07,-1.105695E-07,2.704189E-08,-2.622604E-08
723.3203,-0.7915877,-2.332861E-09,NaN,-0.6064446,-1.326266E-07,NaN,0.08786428,-5.30402E-07,NaN,-1.065515,2.060194E-05,-0.01384479,4.904465E-08,NaN,NaN,-0.5109738,-2.654275E-10,-1.566546E-07,-1.105681E-07,3.479049E-08,-2.861022E-08
723.3348,-0.7915877,-2.332861E-09,NaN,-0.6064446,-1.326266E-07,NaN,0.08786428,-5.30402E-07,NaN,-1.065515,2.060194E-05,-0.01384479,4.904465E-08,NaN,NaN,-0.5109738,-2.654275E-10,-1.566546E-07,-1.105681E-07,3.479049E-08,-2.861022E-08
723.3489,-0.7916455,-2.332146E-09,NaN,-0.6064833,-1.326255E-07,NaN,0.08810529,-5.308412E-07,NaN,-1.065462,2.060238E-05,-0.01417429,4.905675E-08,NaN,NaN,-0.5109912,-2.747407E-10,-1.62019E-07,-1.105658E-07,2.883002E-08,-2.622604E-08
723.3644,-0.7921119,-2.331431E-09,NaN,-0.6065373,-1.326243E-07,NaN,0.08895728,-5.312805E-07,NaN,-1.065392,2.060283E-05,-0.01536351,4.90614E-08,NaN,NaN,-0.5110542,-2.840539E-10,-1.793044E-07,-1.105635E-07,2.704189E-08,-2.861022E-08
723.3794,-0.7921119,-2.331431E-09,NaN,-0.6065373,-1.326243E-07,NaN,0.08895728,-5.312805E-07,NaN,-1.065392,2.060283E-05,-0.01536351,4.90614E-08,NaN,NaN,-0.5110542,-2.840539E-10,-1.793044E-07,-1.105635E-07,2.704189E-08,-2.861022E-08
723.3929,-0.7928269,-2.330717E-09,NaN,-0.6066002,-1.326231E-07,NaN,0.08986785,-5.317197E-07,NaN,-1.065393,2.060328E-05,-0.01652592,4.90606E-08,NaN,NaN,-0.5111159,-2.980238E-10,-1.948016E-07,-1.105611E-07,2.227351E-08,-2.622604E-08
723.4084,-0.7936909,-2.330002E-09,NaN,-0.6066677,-1.326218E-07,NaN,0.09077974,-5.321589E-07,NaN,-1.065454,2.060373E-05,-0.01766483,4.905582E-08,NaN,NaN,-0.5111763,-3.119936E-10,-2.061265E-07,-1.105587E-07,2.048538E-08,-2.861022E-08
723.4231,-0.7946424,-2.329287E-09,NaN,-0.6067376,-1.326206E-07,NaN,0.0916721,-5.325982E-07,NaN,-1.065562,2.060417E-05,-0.01878174,4.904816E-08,NaN,NaN,-0.5112356,-3.213068E-10,-2.204316E-07,-1.105563E-07,2.286956E-08,-2.622604E-08
723.438,-0.7946424,-2.329287E-09,NaN,-0.6067376,-1.326206E-07,NaN,0.0916721,-5.325982E-07,NaN,-1.065562,2.060417E-05,-0.01878174,4.904816E-08,NaN,NaN,-0.5112356,-3.213068E-10,-2.204316E-07,-1.105563E-07,2.286956E-08,-2.622604E-08
723.4517,-0.7959877,-2.328571E-09,NaN,-0.6068221,-1.326193E-07,NaN,0.09316351,-5.330374E-07,NaN,-1.065649,2.060461E-05,-0.02074447,4.903839E-08,NaN,NaN,-0.5113395,-3.259634E-10,-2.401011E-07,-1.10554E-07,2.704189E-08,-2.861022E-08
723.4673,-0.7975681,-2.327856E-09,NaN,-0.6069146,-1.32618E-07,NaN,0.09470041,-5.334766E-07,NaN,-1.065805,2.060505E-05,-0.02266568,4.902712E-08,NaN,NaN,-0.5114413,-3.3062E-10,-2.585786E-07,-1.105516E-07,2.227351E-08,-2.622604E-08
723.4829,-0.7992855,-2.327141E-09,NaN,-0.6070111,-1.326168E-07,NaN,0.09622587,-5.339159E-07,NaN,-1.066021,2.060549E-05,-0.02454891,4.901476E-08,NaN,NaN,-0.5115411,-3.352766E-10,-2.734797E-07,-1.105492E-07,2.406165E-08,-2.861022E-08
723.4975,-0.7992855,-2.327141E-09,NaN,-0.6070111,-1.326168E-07,NaN,0.09622587,-5.339159E-07,NaN,-1.066021,2.060549E-05,-0.02454891,4.901476E-08,NaN,NaN,-0.5115411,-3.352766E-10,-2.734797E-07,-1.105492E-07,2.406165E-08,-2.861022E-08
723.5105,-0.8014234,-2.326426E-09,NaN,-0.6071231,-1.326155E-07,NaN,0.09834407,-5.343551E-07,NaN,-1.06623,2.060593E-05,-0.02726462,4.900163E-08,NaN,NaN,-0.5116848,-3.445899E-10,-3.003018E-07,-1.105469E-07,1.988933E-08,-2.622604E-08
723.5258,-0.8038093,-2.325711E-09,NaN,-0.6072431,-1.326143E-07,NaN,0.1004948,-5.347943E-07,NaN,-1.066518,2.060637E-05,-0.02992452,4.898797E-08,NaN,NaN,-0.5118256,-3.492465E-10,-3.211634E-07,-1.105446E-07,2.167747E-08,-2.861022E-08
723.5404,-0.8063364,-2.324995E-09,NaN,-0.6073669,-1.326131E-07,NaN,0.1026199,-5.352335E-07,NaN,-1.066872,2.060681E-05,-0.03253252,4.897393E-08,NaN,NaN,-0.5119635,-3.539031E-10,-3.408329E-07,-1.105422E-07,2.286956E-08,-2.622604E-08
723.5551,-0.8063364,-2.324995E-09,NaN,-0.6073669,-1.326131E-07,NaN,0.1026199,-5.352335E-07,NaN,-1.066872,2.060681E-05,-0.03253252,4.897393E-08,NaN,NaN,-0.5119635,-3.539031E-10,-3.408329E-07,-1.105422E-07,2.286956E-08,-2.622604E-08
723.5694,-0.8089384,-2.32428E-09,NaN,-0.6074921,-1.326118E-07,NaN,0.1046988,-5.356728E-07,NaN,-1.067277,2.060724E-05,-0.03509067,4.895965E-08,NaN,NaN,-0.5120988,-3.539031E-10,-3.587143E-07,-1.105399E-07,2.704189E-08,-2.861022E-08
723.5847,-0.8119189,-2.323564E-09,NaN,-0.6076311,-1.326106E-07,NaN,0.1073521,-5.36112E-07,NaN,-1.067664,2.060768E-05,-0.0384719,4.894521E-08,NaN,NaN,-0.5122772,-3.585597E-10,-3.897088E-07,-1.105376E-07,2.525375E-08,-2.622604E-08
723.5993,-0.8119189,-2.323564E-09,NaN,-0.6076311,-1.326106E-07,NaN,0.1073521,-5.36112E-07,NaN,-1.067664,2.060768E-05,-0.0384719,4.894521E-08,NaN,NaN,-0.5122772,-3.585597E-10,-3.897088E-07,-1.105376E-07,2.525375E-08,-2.622604E-08
723.6132,-0.8151178,-2.322849E-09,NaN,-0.6077769,-1.326093E-07,NaN,0.1100245,-5.365512E-07,NaN,-1.068123,2.060811E-05,-0.04178471,4.893068E-08,NaN,NaN,-0.5124521,-3.632163E-10,-4.147427E-07,-1.105353E-07,2.46577E-08,-2.861022E-08
723.6309,-0.8184359,-2.322134E-09,NaN,-0.6079257,-1.326081E-07,NaN,0.1126604,-5.369905E-07,NaN,-1.068642,2.060855E-05,-0.04503321,4.891612E-08,NaN,NaN,-0.5126235,-3.678729E-10,-4.385846E-07,-1.10533E-07,2.942607E-08,-2.622604E-08
723.6434,-0.8218119,-2.321418E-09,NaN,-0.6080751,-1.326069E-07,NaN,0.1152405,-5.374297E-07,NaN,-1.069206,2.060899E-05,-0.04821973,4.890155E-08,NaN,NaN,-0.5127916,-3.725295E-10,-4.57062E-07,-1.105307E-07,2.584979E-08,-2.861022E-08
723.6582,-0.8218119,-2.321418E-09,NaN,-0.6080751,-1.326069E-07,NaN,0.1152405,-5.374297E-07,NaN,-1.069206,2.060899E-05,-0.04821973,4.890155E-08,NaN,NaN,-0.5127916,-3.725295E-10,-4.57062E-07,-1.105307E-07,2.584979E-08,-2.861022E-08
723.6721,-0.8255525,-2.320703E-09,NaN,-0.6082379,-1.326057E-07,NaN,0.118386,-5.378689E-07,NaN,-1.069751,2.060943E-05,-0.05222115,4.8887E-08,NaN,NaN,-0.5130022,-3.771861E-10,-4.898446E-07,-1.105285E-07,2.346561E-08,-2.622604E-08
723.6876,-0.8294995,-2.319987E-09,NaN,-0.6084068,-1.32604E-07,NaN,0.1215403,-5.383081E-07,NaN,-1.070366,2.060986E-05,-0.05614218,4.88725E-08,NaN,NaN,-0.5132086,-3.771861E-10,-5.196469E-07,-1.105272E-07,2.644584E-08,-2.861022E-08
723.7021,-0.8335548,-2.319272E-09,NaN,-0.6085783,-1.326025E-07,NaN,0.1246482,-5.387474E-07,NaN,-1.071039,2.06103E-05,-0.05998728,4.885806E-08,NaN,NaN,-0.5134109,-3.818427E-10,-5.452769E-07,-1.105259E-07,2.584979E-08,-2.622604E-08
723.7169,-0.8335548,-2.319272E-09,NaN,-0.6085783,-1.326025E-07,NaN,0.1246482,-5.387474E-07,NaN,-1.071039,2.06103E-05,-0.05998728,4.885806E-08,NaN,NaN,-0.5134109,-3.818427E-10,-5.452769E-07,-1.105259E-07,2.584979E-08,-2.622604E-08
723.7308,-0.8380027,-2.318556E-09,NaN,-0.6087637,-1.326009E-07,NaN,0.1283171,-5.391866E-07,NaN,-1.071706,2.061073E-05,-0.06463775,4.884368E-08,NaN,NaN,-0.5136551,-3.818427E-10,-5.834239E-07,-1.105247E-07,3.35984E-08,-2.861022E-08
723.748,-0.8426707,-2.317841E-09,NaN,-0.6089556,-1.325994E-07,NaN,0.1319835,-5.396258E-07,NaN,-1.072452,2.061117E-05,-0.06919527,4.882937E-08,NaN,NaN,-0.5138944,-3.864993E-10,-6.144184E-07,-1.105235E-07,3.538653E-08,-2.622604E-08
723.7614,-0.8474522,-2.317126E-09,NaN,-0.6091497,-1.325979E-07,NaN,0.1355911,-5.400651E-07,NaN,-1.073264,2.061161E-05,-0.07366478,4.881515E-08,NaN,NaN,-0.514129,-3.911559E-10,-6.454128E-07,-1.105223E-07,3.061816E-08,-2.861022E-08
723.7751,-0.8474522,-2.317126E-09,NaN,-0.6091497,-1.325979E-07,NaN,0.1355911,-5.400651E-07,NaN,-1.073264,2.061161E-05,-0.07366478,4.881515E-08,NaN,NaN,-0.514129,-3.911559E-10,-6.454128E-07,-1.105223E-07,3.061816E-08,-2.861022E-08
723.7892,-0.8522815,-2.31641E-09,NaN,-0.6093438,-1.325965E-07,NaN,0.1391209,-5.405043E-07,NaN,-1.074125,2.061205E-05,-0.07804933,4.8801E-08,NaN,NaN,-0.5143589,-3.958125E-10,-6.710428E-07,-1.105212E-07,3.121421E-08,-2.622604E-08
723.8047,-0.8574626,-2.315695E-09,NaN,-0.6095506,-1.32595E-07,NaN,0.1431965,-5.409435E-07,NaN,-1.074969,2.061249E-05,-0.08323483,4.878694E-08,NaN,NaN,-0.5146303,-4.004692E-10,-7.079977E-07,-1.1052E-07,3.300235E-08,-2.861022E-08
723.8192,-0.8574626,-2.315695E-09,NaN,-0.6095506,-1.32595E-07,NaN,0.1431965,-5.409435E-07,NaN,-1.074969,2.061249E-05,-0.08323483,4.878694E-08,NaN,NaN,-0.5146303,-4.004692E-10,-7.079977E-07,-1.1052E-07,3.300235E-08,-2.861022E-08
723.8332,-0.8628357,-2.314979E-09,NaN,-0.6097628,-1.325936E-07,NaN,0.1472587,-5.413827E-07,NaN,-1.075885,2.061292E-05,-0.08831704,4.877296E-08,NaN,NaN,-0.5148962,-4.004692E-10,-7.455486E-07,-1.105189E-07,3.300235E-08,-2.622604E-08
723.8487,-0.8683017,-2.314263E-09,NaN,-0.6099766,-1.325921E-07,NaN,0.151254,-5.41822E-07,NaN,-1.07686,2.061335E-05,-0.09330118,4.875907E-08,NaN,NaN,-0.5151569,-4.004692E-10,-7.765431E-07,-1.105177E-07,3.479049E-08,-2.861022E-08
723.8631,-0.8737998,-2.313548E-09,NaN,-0.6101899,-1.325907E-07,NaN,0.1551643,-5.422612E-07,NaN,-1.077879,2.061379E-05,-0.09819058,4.874526E-08,NaN,NaN,-0.5154125,-4.051258E-10,-8.081335E-07,-1.105166E-07,3.657862E-08,-2.622604E-08
723.8779,-0.8737998,-2.313548E-09,NaN,-0.6101899,-1.325907E-07,NaN,0.1551643,-5.422612E-07,NaN,-1.077879,2.061379E-05,-0.09819058,4.874526E-08,NaN,NaN,-0.5154125,-4.051258E-10,-8.081335E-07,-1.105166E-07,3.657862E-08,-2.622604E-08
723.892,-0.8796372,-2.312832E-09,NaN,-0.6104155,-1.325892E-07,NaN,0.1596139,-5.427004E-07,NaN,-1.078881,2.061423E-05,-0.1038771,4.873155E-08,NaN,NaN,-0.515709,-4.097824E-10,-8.498567E-07,-1.105154E-07,3.598258E-08,-2.861022E-08
723.9073,-0.8856558,-2.312116E-09,NaN,-0.6106462,-1.325878E-07,NaN,0.1640422,-5.431397E-07,NaN,-1.079951,2.061467E-05,-0.1094502,4.871792E-08,NaN,NaN,-0.5159995,-4.14439E-10,-8.868116E-07,-1.105143E-07,3.777071E-08,-2.622604E-08
723.9221,-0.8917578,-2.311401E-09,NaN,-0.6108781,-1.325864E-07,NaN,0.1683958,-5.435789E-07,NaN,-1.081079,2.061511E-05,-0.1149156,4.870437E-08,NaN,NaN,-0.5162843,-4.190956E-10,-9.225744E-07,-1.105132E-07,4.194304E-08,-2.861022E-08
723.9367,-0.8917578,-2.311401E-09,NaN,-0.6108781,-1.325864E-07,NaN,0.1683958,-5.435789E-07,NaN,-1.081079,2.061511E-05,-0.1149156,4.870437E-08,NaN,NaN,-0.5162843,-4.190956E-10,-9.225744E-07,-1.105132E-07,4.194304E-08,-2.861022E-08
723.951,-0.898228,-2.310685E-09,NaN,-0.6111229,-1.32585E-07,NaN,0.1732856,-5.440181E-07,NaN,-1.082203,2.061555E-05,-0.1211711,4.869091E-08,NaN,NaN,-0.5166094,-4.237522E-10,-9.660858E-07,-1.105121E-07,4.313513E-08,-2.622604E-08
723.9662,-0.9048941,-2.30997E-09,NaN,-0.6113729,-1.325836E-07,NaN,0.1781442,-5.444574E-07,NaN,-1.083405,2.061598E-05,-0.1273017,4.867755E-08,NaN,NaN,-0.516928,-4.284088E-10,-1.007809E-06,-1.105109E-07,4.849955E-08,-2.861022E-08
723.9808,-0.9116496,-2.309254E-09,NaN,-0.6116241,-1.325821E-07,NaN,0.1829174,-5.448966E-07,NaN,-1.084671,2.061642E-05,-0.1333138,4.866426E-08,NaN,NaN,-0.5172403,-4.330654E-10,-1.046552E-06,-1.105098E-07,5.147978E-08,-2.622604E-08
723.9955,-0.9116496,-2.309254E-09,NaN,-0.6116241,-1.325821E-07,NaN,0.1829174,-5.448966E-07,NaN,-1.084671,2.061642E-05,-0.1333138,4.866426E-08,NaN,NaN,-0.5172403,-4.330654E-10,-1.046552E-06,-1.105098E-07,5.147978E-08,-2.622604E-08
724.0095,-0.918429,-2.30854E-09,NaN,-0.6118743,-1.325807E-07,NaN,0.1875876,-5.453358E-07,NaN,-1.085985,2.061685E-05,-0.1392116,4.865106E-08,NaN,NaN,-0.5175466,-4.330654E-10,-1.082911E-06,-1.105087E-07,4.432722E-08,-2.861022E-08
724.0259,-0.9255373,-2.307828E-09,NaN,-0.6121362,-1.325793E-07,NaN,0.1927812,-5.45775E-07,NaN,-1.087285,2.061728E-05,-0.1458988,4.863795E-08,NaN,NaN,-0.5178927,-4.284088E-10,-1.130595E-06,-1.105076E-07,4.432722E-08,-2.622604E-08
724.0405,-0.9328144,-2.307115E-09,NaN,-0.6124026,-1.325779E-07,NaN,0.197935,-5.462143E-07,NaN,-1.088656,2.06177E-05,-0.1524524,4.862492E-08,NaN,NaN,-0.518232,-4.237522E-10,-1.174106E-06,-1.105065E-07,4.194304E-08,-2.861022E-08
724.0542,-0.9328144,-2.307115E-09,NaN,-0.6124026,-1.325779E-07,NaN,0.197935,-5.462143E-07,NaN,-1.088656,2.06177E-05,-0.1524524,4.862492E-08,NaN,NaN,-0.518232,-4.237522E-10,-1.174106E-06,-1.105065E-07,4.194304E-08,-2.861022E-08
724.0684,-0.9401615,-2.306403E-09,NaN,-0.6126696,-1.325765E-07,NaN,0.2029975,-5.466535E-07,NaN,-1.090085,2.061812E-05,-0.1588792,4.861198E-08,NaN,NaN,-0.5185646,-4.190956E-10,-1.214041E-06,-1.105054E-07,4.432722E-08,-2.622604E-08
724.0834,-0.9475181,-2.305691E-09,NaN,-0.6129352,-1.325752E-07,NaN,0.2079519,-5.470927E-07,NaN,-1.091557,2.061855E-05,-0.1651836,4.859912E-08,NaN,NaN,-0.5188906,-4.14439E-10,-1.252784E-06,-1.105043E-07,4.551931E-08,-2.861022E-08
724.0984,-0.9475181,-2.305691E-09,NaN,-0.6129352,-1.325752E-07,NaN,0.2079519,-5.470927E-07,NaN,-1.091557,2.061855E-05,-0.1651836,4.859912E-08,NaN,NaN,-0.5188906,-4.14439E-10,-1.252784E-06,-1.105043E-07,4.551931E-08,-2.861022E-08
724.1135,-0.955192,-2.304978E-09,NaN,-0.6132124,-1.325738E-07,NaN,0.2134252,-5.47532E-07,NaN,-1.093014,2.061897E-05,-0.1722769,4.858634E-08,NaN,NaN,-0.5192562,-4.097824E-10,-1.302256E-06,-1.105032E-07,4.075094E-08,-2.622604E-08
724.1273,-0.9630251,-2.304266E-09,NaN,-0.6134937,-1.325724E-07,NaN,0.2188527,-5.479712E-07,NaN,-1.094539,2.061939E-05,-0.1792279,4.857365E-08,NaN,NaN,-0.5196146,-4.051258E-10,-1.351132E-06,-1.105021E-07,4.79035E-08,-2.861022E-08
724.1421,-0.9709198,-2.303554E-09,NaN,-0.6137754,-1.32571E-07,NaN,0.2241831,-5.484104E-07,NaN,-1.096121,2.061981E-05,-0.1860438,4.856104E-08,NaN,NaN,-0.5199658,-3.958125E-10,-1.393451E-06,-1.10501E-07,4.432722E-08,-2.622604E-08
724.1567,-0.9709198,-2.303554E-09,NaN,-0.6137754,-1.32571E-07,NaN,0.2241831,-5.484104E-07,NaN,-1.096121,2.061981E-05,-0.1860438,4.856104E-08,NaN,NaN,-0.5199658,-3.958125E-10,-1.393451E-06,-1.10501E-07,4.432722E-08,-2.622604E-08
724.1708,-0.9791616,-2.302842E-09,NaN,-0.6140693,-1.325696E-07,NaN,0.2300301,-5.488496E-07,NaN,-1.097702,2.062024E-05,-0.1936433,4.854851E-08,NaN,NaN,-0.5203562,-3.911559E-10,-1.449479E-06,-1.104999E-07,4.194304E-08,-2.861022E-08
724.1865,-0.9875779,-2.30213E-09,NaN,-0.6143675,-1.325683E-07,NaN,0.2358226,-5.492889E-07,NaN,-1.09936,2.062066E-05,-0.2010894,4.853606E-08,NaN,NaN,-0.5207387,-3.864993E-10,-1.499547E-06,-1.104989E-07,4.075094E-08,-2.622604E-08
724.2009,-0.9960627,-2.301418E-09,NaN,-0.6146659,-1.325669E-07,NaN,0.2415086,-5.497281E-07,NaN,-1.101081,2.062108E-05,-0.2083904,4.852369E-08,NaN,NaN,-0.5211138,-3.818427E-10,-1.546635E-06,-1.104978E-07,4.075094E-08,-2.861022E-08
724.2156,-0.9960627,-2.301418E-09,NaN,-0.6146659,-1.325669E-07,NaN,0.2415086,-5.497281E-07,NaN,-1.101081,2.062108E-05,-0.2083904,4.852369E-08,NaN,NaN,-0.5211138,-3.818427E-10,-1.546635E-06,-1.104978E-07,4.075094E-08,-2.861022E-08
724.2294,-1.004551,-2.300706E-09,NaN,-0.6149625,-1.325655E-07,NaN,0.247072,-5.501673E-07,NaN,-1.102849,2.062152E-05,-0.2155517,4.851141E-08,NaN,NaN,-0.5214815,-3.864993E-10,-1.591339E-06,-1.104967E-07,3.717467E-08,-2.622604E-08
724.2448,-1.013347,-2.299994E-09,NaN,-0.6152703,-1.325642E-07,NaN,0.2531411,-5.506066E-07,NaN,-1.104607,2.062194E-05,-0.2234991,4.84992E-08,NaN,NaN,-0.5218879,-3.771861E-10,-1.649751E-06,-1.104957E-07,3.002211E-08,-2.861022E-08
724.2595,-1.013347,-2.299994E-09,NaN,-0.6152703,-1.325642E-07,NaN,0.2531411,-5.506066E-07,NaN,-1.104607,2.062194E-05,-0.2234991,4.84992E-08,NaN,NaN,-0.5218879,-3.771861E-10,-1.649751E-06,-1.104957E-07,3.002211E-08,-2.861022E-08
724.2734,-1.022293,-2.299282E-09,NaN,-0.6155818,-1.325628E-07,NaN,0.2591493,-5.510458E-07,NaN,-1.106435,2.062236E-05,-0.2312857,4.848707E-08,NaN,NaN,-0.5222863,-3.725295E-10,-1.703395E-06,-1.104946E-07,2.763792E-08,-2.622604E-08
724.2908,-1.031288,-2.29857E-09,NaN,-0.615893,-1.325615E-07,NaN,0.2650468,-5.51485E-07,NaN,-1.10832,2.062278E-05,-0.2389201,4.847502E-08,NaN,NaN,-0.5226768,-3.678729E-10,-1.754655E-06,-1.104935E-07,2.644583E-08,-2.861022E-08
724.3044,-1.040273,-2.297858E-09,NaN,-0.6162024,-1.325602E-07,NaN,0.2708182,-5.519242E-07,NaN,-1.110246,2.062321E-05,-0.2464081,4.846305E-08,NaN,NaN,-0.5230597,-3.632163E-10,-1.799955E-06,-1.104925E-07,1.929327E-08,-2.622604E-08
724.3183,-1.040273,-2.297858E-09,NaN,-0.6162024,-1.325602E-07,NaN,0.2708182,-5.519242E-07,NaN,-1.110246,2.062321E-05,-0.2464081,4.846305E-08,NaN,NaN,-0.5230597,-3.632163E-10,-1.799955E-06,-1.104925E-07,1.929327E-08,-2.622604E-08
724.3321,-1.049556,-2.297146E-09,NaN,-0.6165227,-1.325588E-07,NaN,0.2770924,-5.523635E-07,NaN,-1.112164,2.062363E-05,-0.254684,4.845116E-08,NaN,NaN,-0.5234811,-3.585597E-10,-1.860156E-06,-1.104914E-07,2.644583E-08,-2.861022E-08
724.3473,-1.058979,-2.296434E-09,NaN,-0.6168464,-1.325575E-07,NaN,0.2833012,-5.528027E-07,NaN,-1.114149,2.062405E-05,-0.2627913,4.843934E-08,NaN,NaN,-0.5238942,-3.539031E-10,-1.914992E-06,-1.104904E-07,1.929327E-08,-2.622604E-08
724.3618,-1.068445,-2.295723E-09,NaN,-0.6171699,-1.325562E-07,NaN,0.2893953,-5.532419E-07,NaN,-1.116188,2.062448E-05,-0.2707392,4.842761E-08,NaN,NaN,-0.5242991,-3.492465E-10,-1.965656E-06,-1.104893E-07,2.048536E-08,-2.861022E-08
