JMolnar6/NonAnthroHands_User_Study/HandsLoggerWithURDF/tempdata/PID 0 (test)/files/Reachy_PID0_JointMotion_gesture_10_51.csv
Time,r_shoulder,r_shoulder_x,r_upper_arm,r_forearm,r_wrist,r_wrist2hand,
739.1871,-0.8432898,-1.75571E-09,NaN,-0.3579715,-1.326389E-07,NaN,1.152145,-4.060377E-07,NaN,-0.6662279,2.095398E-05,0.4329608,-6.81473E-08,NaN,NaN,-0.01010216,-9.313613E-12,-7.449522E-07,-1.105433E-07,1.292302E-08,-2.622604E-08
739.2015,-0.8412009,-1.754987E-09,NaN,-0.357259,-1.326397E-07,NaN,1.152063,-4.056371E-07,NaN,-0.6635568,2.095442E-05,0.4339993,-6.787651E-08,NaN,NaN,-0.009933964,-1.397023E-11,-7.437601E-07,-1.105444E-07,1.053883E-08,-2.861022E-08
739.2172,-0.8412009,-1.754987E-09,NaN,-0.357259,-1.326397E-07,NaN,1.152063,-4.056371E-07,NaN,-0.6635568,2.095442E-05,0.4339993,-6.787651E-08,NaN,NaN,-0.009933964,-1.397023E-11,-7.437601E-07,-1.105444E-07,1.053883E-08,-2.861022E-08
739.2292,-0.8390019,-1.754265E-09,NaN,-0.3565075,-1.326403E-07,NaN,1.151888,-4.052365E-07,NaN,-0.6605964,2.095485E-05,0.4352241,-6.763475E-08,NaN,NaN,-0.009769044,-9.313613E-12,-7.473364E-07,-1.105453E-07,1.053883E-08,-2.622604E-08
739.2445,-0.8367435,-1.753543E-09,NaN,-0.3557359,-1.326409E-07,NaN,1.151737,-4.048359E-07,NaN,-0.6575232,2.09553E-05,0.4364811,-6.74146E-08,NaN,NaN,-0.009607458,-1.862684E-11,-7.509127E-07,-1.105463E-07,9.346739E-09,-2.861022E-08
739.2593,-0.8367435,-1.753543E-09,NaN,-0.3557359,-1.326409E-07,NaN,1.151737,-4.048359E-07,NaN,-0.6575232,2.09553E-05,0.4364811,-6.74146E-08,NaN,NaN,-0.009607458,-1.862684E-11,-7.509127E-07,-1.105463E-07,9.346739E-09,-2.861022E-08
739.2735,-0.8346702,-1.752818E-09,NaN,-0.3550324,-1.326412E-07,NaN,1.151987,-4.07169E-07,NaN,-0.6549104,2.095573E-05,0.4372388,-6.458453E-08,NaN,NaN,-0.009533265,-1.862684E-11,-7.449522E-07,-1.105452E-07,1.173093E-08,-2.622604E-08
739.289,-0.8327211,-1.752096E-09,NaN,-0.3543734,-1.326403E-07,NaN,1.152382,-4.093175E-07,NaN,-0.652633,2.095616E-05,0.4377574,-6.215084E-08,NaN,NaN,-0.009460648,-1.862684E-11,-7.366075E-07,-1.105443E-07,1.053883E-08,-2.861022E-08
739.3036,-0.8308579,-1.751373E-09,NaN,-0.3537445,-1.3264E-07,NaN,1.152794,-4.120093E-07,NaN,-0.650533,2.09566E-05,0.4381898,-5.923042E-08,NaN,NaN,-0.009389434,-1.862684E-11,-7.211103E-07,-1.10545E-07,5.770461E-09,-2.622604E-08
739.3185,-0.8308579,-1.751373E-09,NaN,-0.3537445,-1.3264E-07,NaN,1.152794,-4.120093E-07,NaN,-0.650533,2.09566E-05,0.4381898,-5.923042E-08,NaN,NaN,-0.009389434,-1.862684E-11,-7.211103E-07,-1.10545E-07,5.770461E-09,-2.622604E-08
739.3327,-0.8290563,-1.750651E-09,NaN,-0.3531367,-1.326402E-07,NaN,1.153184,-4.143959E-07,NaN,-0.6485331,2.095704E-05,0.4385937,-5.666072E-08,NaN,NaN,-0.009319571,-3.259668E-11,-7.115736E-07,-1.105461E-07,6.962554E-09,-2.861022E-08
739.3483,-0.8275132,-1.749929E-09,NaN,-0.3526215,-1.326408E-07,NaN,1.153901,-4.166556E-07,NaN,-0.6470844,2.095748E-05,0.4385132,-5.425431E-08,NaN,NaN,-0.009335199,-3.259668E-11,-6.91308E-07,-1.105475E-07,6.962554E-09,-2.622604E-08
739.3627,-0.8261381,-1.749207E-09,NaN,-0.3521648,-1.326416E-07,NaN,1.154699,-4.188322E-07,NaN,-0.6460031,2.095792E-05,0.4382253,-5.196001E-08,NaN,NaN,-0.009350512,-4.190991E-11,-6.722345E-07,-1.10549E-07,9.34674E-09,-2.861022E-08
739.3776,-0.8261381,-1.749207E-09,NaN,-0.3521648,-1.326416E-07,NaN,1.154699,-4.188322E-07,NaN,-0.6460031,2.095792E-05,0.4382253,-5.196001E-08,NaN,NaN,-0.009350512,-4.190991E-11,-6.722345E-07,-1.10549E-07,9.34674E-09,-2.861022E-08
739.3917,-0.824874,-1.748484E-09,NaN,-0.351746,-1.326425E-07,NaN,1.155463,-4.209476E-07,NaN,-0.6451036,2.095835E-05,0.4378836,-4.975026E-08,NaN,NaN,-0.009365418,-4.190991E-11,-6.567373E-07,-1.105505E-07,1.53072E-08,-2.622604E-08
739.4075,-0.8236847,-1.747762E-09,NaN,-0.3513522,-1.326435E-07,NaN,1.15617,-4.230184E-07,NaN,-0.6442961,2.09588E-05,0.4375421,-4.760364E-08,NaN,NaN,-0.009379926,-5.122313E-11,-6.436243E-07,-1.105521E-07,2.126767E-08,-2.861022E-08
739.422,-0.8227594,-1.74704E-09,NaN,-0.3510523,-1.326445E-07,NaN,1.15718,-4.250507E-07,NaN,-0.644026,2.095923E-05,0.4367411,-4.551044E-08,NaN,NaN,-0.009478248,-4.656652E-11,-6.162061E-07,-1.105538E-07,2.365185E-08,-2.622604E-08
739.4379,-0.8227594,-1.74704E-09,NaN,-0.3510523,-1.326445E-07,NaN,1.15718,-4.250507E-07,NaN,-0.644026,2.095923E-05,0.4367411,-4.551044E-08,NaN,NaN,-0.009478248,-4.656652E-11,-6.162061E-07,-1.105538E-07,2.365185E-08,-2.622604E-08
739.4518,-0.8220035,-1.746318E-09,NaN,-0.3508111,-1.326455E-07,NaN,1.158251,-4.270481E-07,NaN,-0.6441072,2.095967E-05,0.4357529,-4.346397E-08,NaN,NaN,-0.009574595,-4.190991E-11,-5.911722E-07,-1.105554E-07,2.484395E-08,-2.861022E-08
739.4664,-0.8213569,-1.745596E-09,NaN,-0.3506071,-1.326466E-07,NaN,1.159274,-4.290121E-07,NaN,-0.644353,2.09601E-05,0.4347285,-4.146051E-08,NaN,NaN,-0.009668919,-3.725329E-11,-5.744829E-07,-1.105571E-07,3.080441E-08,-2.622604E-08
739.4809,-0.8207815,-1.744873E-09,NaN,-0.3504266,-1.326477E-07,NaN,1.160226,-4.309444E-07,NaN,-0.6446733,2.096053E-05,0.4337202,-3.949637E-08,NaN,NaN,-0.009761275,-3.259668E-11,-5.506411E-07,-1.105587E-07,2.484395E-08,-2.861022E-08
739.4956,-0.8207815,-1.744873E-09,NaN,-0.3504266,-1.326477E-07,NaN,1.160226,-4.309444E-07,NaN,-0.6446733,2.096053E-05,0.4337202,-3.949637E-08,NaN,NaN,-0.009761275,-3.259668E-11,-5.506411E-07,-1.105587E-07,2.484395E-08,-2.861022E-08
739.5097,-0.8204653,-1.744151E-09,NaN,-0.3503384,-1.326487E-07,NaN,1.16147,-4.328442E-07,NaN,-0.6455139,2.096096E-05,0.4322659,-3.75708E-08,NaN,NaN,-0.009935878,-2.328346E-11,-5.208387E-07,-1.105604E-07,2.722813E-08,-2.622604E-08
739.5253,-0.8203132,-1.743429E-09,NaN,-0.3503072,-1.326498E-07,NaN,1.162765,-4.347139E-07,NaN,-0.6466886,2.09614E-05,0.4306386,-3.568022E-08,NaN,NaN,-0.010107,-2.794007E-11,-4.910364E-07,-1.10562E-07,2.842023E-08,-2.861022E-08
739.54,-0.8202646,-1.742707E-09,NaN,-0.3503101,-1.326509E-07,NaN,1.163999,-4.365504E-07,NaN,-0.6480103,2.096184E-05,0.4289894,-3.382675E-08,NaN,NaN,-0.01027461,-2.328346E-11,-4.636183E-07,-1.105636E-07,3.19965E-08,-2.622604E-08
739.5547,-0.8202646,-1.742707E-09,NaN,-0.3503101,-1.326509E-07,NaN,1.163999,-4.365504E-07,NaN,-0.6480103,2.096184E-05,0.4289894,-3.382675E-08,NaN,NaN,-0.01027461,-2.328346E-11,-4.636183E-07,-1.105636E-07,3.19965E-08,-2.622604E-08
739.5689,-0.8204924,-1.741985E-09,NaN,-0.3504108,-1.326519E-07,NaN,1.165506,-4.383565E-07,NaN,-0.6498787,2.096227E-05,0.4268928,-3.200686E-08,NaN,NaN,-0.01052291,-2.328346E-11,-4.302397E-07,-1.105653E-07,3.795697E-08,-2.861022E-08
739.5844,-0.8208928,-1.741263E-09,NaN,-0.3505712,-1.32653E-07,NaN,1.167038,-4.401321E-07,NaN,-0.652085,2.096271E-05,0.4246365,-3.021987E-08,NaN,NaN,-0.01076623,-1.862685E-11,-3.968611E-07,-1.105669E-07,4.272534E-08,-2.622604E-08
739.5991,-0.8208928,-1.741263E-09,NaN,-0.3505712,-1.32653E-07,NaN,1.167038,-4.401321E-07,NaN,-0.652085,2.096271E-05,0.4246365,-3.021987E-08,NaN,NaN,-0.01076623,-1.862685E-11,-3.968611E-07,-1.105669E-07,4.272534E-08,-2.622604E-08
739.6132,-0.8213997,-1.740541E-09,NaN,-0.3507676,-1.326541E-07,NaN,1.168486,-4.418775E-07,NaN,-0.654432,2.096315E-05,0.4223748,-2.846516E-08,NaN,NaN,-0.0110046,-2.794007E-11,-3.634825E-07,-1.105685E-07,3.676487E-08,-2.861022E-08
739.6285,-0.8219715,-1.739819E-09,NaN,-0.3509851,-1.326551E-07,NaN,1.169835,-4.4359E-07,NaN,-0.6568248,2.096359E-05,0.4201587,-2.67449E-08,NaN,NaN,-0.01123811,-2.328346E-11,-3.360643E-07,-1.105701E-07,3.795697E-08,-2.622604E-08
739.6432,-0.8227937,-1.739097E-09,NaN,-0.3512914,-1.326562E-07,NaN,1.171449,-4.452728E-07,NaN,-0.6597073,2.096403E-05,0.4175191,-2.50556E-08,NaN,NaN,-0.01155095,-3.259668E-11,-3.003016E-07,-1.105718E-07,3.318859E-08,-2.861022E-08
739.6581,-0.8227937,-1.739097E-09,NaN,-0.3512914,-1.326562E-07,NaN,1.171449,-4.452728E-07,NaN,-0.6597073,2.096403E-05,0.4175191,-2.50556E-08,NaN,NaN,-0.01155095,-3.259668E-11,-3.003016E-07,-1.105718E-07,3.318859E-08,-2.861022E-08
739.6719,-0.8237695,-1.738374E-09,NaN,-0.3516507,-1.326572E-07,NaN,1.173083,-4.469263E-07,NaN,-0.6628928,2.096447E-05,0.4147357,-2.339666E-08,NaN,NaN,-0.01185756,-3.259668E-11,-2.681151E-07,-1.105734E-07,3.795697E-08,-2.622604E-08
739.6887,-0.8248374,-1.737652E-09,NaN,-0.3520407,-1.326582E-07,NaN,1.174631,-4.485509E-07,NaN,-0.6661945,2.096492E-05,0.4119584,-2.176746E-08,NaN,NaN,-0.01215798,-4.190991E-11,-2.335444E-07,-1.10575E-07,4.391743E-08,-2.861022E-08
739.7031,-0.8259587,-1.73693E-09,NaN,-0.3524477,-1.326593E-07,NaN,1.176077,-4.501469E-07,NaN,-0.6695228,2.096534E-05,0.4092368,-2.016743E-08,NaN,NaN,-0.01245232,-4.190991E-11,-2.001658E-07,-1.105766E-07,4.034115E-08,-2.622604E-08
739.7169,-0.8259587,-1.73693E-09,NaN,-0.3524477,-1.326593E-07,NaN,1.176077,-4.501469E-07,NaN,-0.6695228,2.096534E-05,0.4092368,-2.016743E-08,NaN,NaN,-0.01245232,-4.190991E-11,-2.001658E-07,-1.105766E-07,4.034115E-08,-2.622604E-08
739.7307,-0.8273208,-1.736208E-09,NaN,-0.3529401,-1.326603E-07,NaN,1.177781,-4.517121E-07,NaN,-0.6733243,2.096578E-05,0.4060955,-1.859883E-08,NaN,NaN,-0.0128247,-4.656652E-11,-1.596346E-07,-1.105781E-07,3.795697E-08,-2.861022E-08
739.7462,-0.8288282,-1.735486E-09,NaN,-0.3534822,-1.326614E-07,NaN,1.179495,-4.532497E-07,NaN,-0.6774133,2.09662E-05,0.4028226,-1.705821E-08,NaN,NaN,-0.01318968,-3.725329E-11,-1.179114E-07,-1.105797E-07,3.318859E-08,-2.622604E-08
739.7606,-0.8304201,-1.734764E-09,NaN,-0.3540521,-1.326624E-07,NaN,1.181111,-4.547602E-07,NaN,-0.6816038,2.096663E-05,0.3995685,-1.554503E-08,NaN,NaN,-0.0135473,-3.725329E-11,-7.738019E-08,-1.105813E-07,3.080441E-08,-2.861022E-08
739.7755,-0.8304201,-1.734764E-09,NaN,-0.3540521,-1.326624E-07,NaN,1.181111,-4.547602E-07,NaN,-0.6816038,2.096663E-05,0.3995685,-1.554503E-08,NaN,NaN,-0.0135473,-3.725329E-11,-7.738019E-08,-1.105813E-07,3.080441E-08,-2.861022E-08
739.7896,-0.8322706,-1.734042E-09,NaN,-0.3547132,-1.326634E-07,NaN,1.182965,-4.56244E-07,NaN,-0.6862953,2.096705E-05,0.3958902,-1.405874E-08,NaN,NaN,-0.0139816,-3.725329E-11,-3.088857E-08,-1.105829E-07,2.842022E-08,-2.622604E-08
739.8049,-0.8342751,-1.73332E-09,NaN,-0.3554266,-1.326644E-07,NaN,1.184799,-4.576989E-07,NaN,-0.6912797,2.096748E-05,0.3920951,-1.260165E-08,NaN,NaN,-0.01440724,-3.725329E-11,1.441096E-08,-1.105845E-07,3.080441E-08,-2.861022E-08
739.8197,-0.8342751,-1.73332E-09,NaN,-0.3554266,-1.326644E-07,NaN,1.184799,-4.576989E-07,NaN,-0.6912797,2.096748E-05,0.3920951,-1.260165E-08,NaN,NaN,-0.01440724,-3.725329E-11,1.441096E-08,-1.105845E-07,3.080441E-08,-2.861022E-08
739.8337,-0.8363676,-1.732599E-09,NaN,-0.3561684,-1.326655E-07,NaN,1.18651,-4.591282E-07,NaN,-0.6963603,2.096791E-05,0.3883367,-1.117036E-08,NaN,NaN,-0.01482431,-3.725329E-11,5.494212E-08,-1.10586E-07,3.438069E-08,-2.622604E-08
739.8494,-0.8385063,-1.731877E-09,NaN,-0.356924,-1.326665E-07,NaN,1.188092,-4.605322E-07,NaN,-0.7014433,2.096834E-05,0.3846619,-9.764355E-09,NaN,NaN,-0.01523297,-3.725329E-11,9.547328E-08,-1.105876E-07,3.557278E-08,-2.861022E-08
739.864,-0.8408774,-1.731155E-09,NaN,-0.3577614,-1.326675E-07,NaN,1.189908,-4.619117E-07,NaN,-0.7069729,2.096877E-05,0.3805797,-8.38315E-09,NaN,NaN,-0.0157172,-3.725329E-11,1.395807E-07,-1.105891E-07,3.080441E-08,-2.622604E-08
739.8787,-0.8408774,-1.731155E-09,NaN,-0.3577614,-1.326675E-07,NaN,1.189908,-4.619117E-07,NaN,-0.7069729,2.096877E-05,0.3805797,-8.38315E-09,NaN,NaN,-0.0157172,-3.725329E-11,1.395807E-07,-1.105891E-07,3.080441E-08,-2.622604E-08
739.8926,-0.8433838,-1.730433E-09,NaN,-0.3586444,-1.326685E-07,NaN,1.191699,-4.63264E-07,NaN,-0.7127631,2.09692E-05,0.3763958,-7.029083E-09,NaN,NaN,-0.01619183,-3.725329E-11,1.824961E-07,-1.105907E-07,3.438069E-08,-2.861022E-08
739.9084,-0.8459643,-1.729712E-09,NaN,-0.3595509,-1.326695E-07,NaN,1.193366,-4.645927E-07,NaN,-0.7186279,2.096963E-05,0.3722601,-5.698792E-09,NaN,NaN,-0.01665693,-3.725329E-11,2.277956E-07,-1.105922E-07,3.19965E-08,-2.622604E-08
739.9229,-0.8485802,-1.72899E-09,NaN,-0.3604673,-1.326705E-07,NaN,1.194904,-4.658981E-07,NaN,-0.7244785,2.097006E-05,0.3682171,-4.391812E-09,NaN,NaN,-0.01711269,-3.725329E-11,2.671347E-07,-1.105937E-07,2.842022E-08,-2.861022E-08
739.9387,-0.8485802,-1.72899E-09,NaN,-0.3604673,-1.326705E-07,NaN,1.194904,-4.658981E-07,NaN,-0.7244785,2.097006E-05,0.3682171,-4.391812E-09,NaN,NaN,-0.01711269,-3.725329E-11,2.671347E-07,-1.105937E-07,2.842022E-08,-2.861022E-08
739.9526,-0.85142,-1.728269E-09,NaN,-0.3614625,-1.326715E-07,NaN,1.196673,-4.671807E-07,NaN,-0.7307615,2.097049E-05,0.3637647,-3.107687E-09,NaN,NaN,-0.01764298,-3.725329E-11,3.088579E-07,-1.105953E-07,2.961231E-08,-2.622604E-08
739.9673,-0.8543877,-1.727547E-09,NaN,-0.3625005,-1.326725E-07,NaN,1.198404,-4.684381E-07,NaN,-0.7372921,2.097092E-05,0.3592239,-1.848793E-09,NaN,NaN,-0.01816278,-3.725329E-11,3.577337E-07,-1.105968E-07,3.19965E-08,-2.861022E-08
739.9819,-0.8574227,-1.726826E-09,NaN,-0.3635595,-1.326735E-07,NaN,1.200003,-4.696736E-07,NaN,-0.743885,2.097134E-05,0.3547448,-6.118094E-10,NaN,NaN,-0.01867216,-2.794007E-11,4.054174E-07,-1.105983E-07,3.080441E-08,-2.622604E-08
739.9963,-0.8574227,-1.726826E-09,NaN,-0.3635595,-1.326735E-07,NaN,1.200003,-4.696736E-07,NaN,-0.743885,2.097134E-05,0.3547448,-6.118094E-10,NaN,NaN,-0.01867216,-2.794007E-11,4.054174E-07,-1.105983E-07,3.080441E-08,-2.622604E-08
740.0104,-0.8606999,-1.726105E-09,NaN,-0.3647031,-1.326745E-07,NaN,1.20181,-4.708877E-07,NaN,-0.7509395,2.097177E-05,0.3498517,6.036934E-10,NaN,NaN,-0.01925492,-2.794007E-11,4.495249E-07,-1.105998E-07,3.438069E-08,-2.861022E-08
740.0258,-0.8641143,-1.725384E-09,NaN,-0.3658923,-1.326755E-07,NaN,1.203548,-4.72205E-07,NaN,-0.7582483,2.097219E-05,0.3448886,1.922431E-09,NaN,NaN,-0.01982613,-1.862684E-11,4.995928E-07,-1.106013E-07,3.676487E-08,-2.622604E-08
740.0406,-0.8676001,-1.724663E-09,NaN,-0.3671032,-1.326765E-07,NaN,1.205134,-4.734738E-07,NaN,-0.7656158,2.097263E-05,0.3400067,3.192677E-09,NaN,NaN,-0.02038589,-2.794007E-11,5.41316E-07,-1.106029E-07,3.676487E-08,-2.861022E-08
740.0554,-0.8676001,-1.724663E-09,NaN,-0.3671032,-1.326765E-07,NaN,1.205134,-4.734738E-07,NaN,-0.7656158,2.097263E-05,0.3400067,3.192677E-09,NaN,NaN,-0.02038589,-2.794007E-11,5.41316E-07,-1.106029E-07,3.676487E-08,-2.861022E-08
740.0694,-0.8711157,-1.723942E-09,NaN,-0.3683216,-1.326775E-07,NaN,1.206572,-4.747149E-07,NaN,-0.7729491,2.097306E-05,0.3352443,4.435129E-09,NaN,NaN,-0.02093443,-2.794007E-11,5.830393E-07,-1.106045E-07,3.557278E-08,-2.622604E-08
740.0852,-0.8748484,-1.723221E-09,NaN,-0.3696159,-1.326784E-07,NaN,1.208222,-4.759315E-07,NaN,-0.780692,2.097351E-05,0.3300734,5.653153E-09,NaN,NaN,-0.02155551,-3.725329E-11,6.30723E-07,-1.106061E-07,3.318859E-08,-2.861022E-08
740.0997,-0.8748484,-1.723221E-09,NaN,-0.3696159,-1.326784E-07,NaN,1.208222,-4.759315E-07,NaN,-0.780692,2.097351E-05,0.3300734,5.653153E-09,NaN,NaN,-0.02155551,-3.725329E-11,6.30723E-07,-1.106061E-07,3.318859E-08,-2.861022E-08
740.1137,-0.8787006,-1.722501E-09,NaN,-0.3709494,-1.326794E-07,NaN,1.209805,-4.771242E-07,NaN,-0.7886595,2.097394E-05,0.3248476,6.847225E-09,NaN,NaN,-0.02216432,-3.725329E-11,6.807909E-07,-1.106076E-07,3.080441E-08,-2.622604E-08
740.129,-0.8826112,-1.72178E-09,NaN,-0.3723003,-1.326804E-07,NaN,1.211238,-4.782962E-07,NaN,-0.7966665,2.097437E-05,0.3197142,8.020641E-09,NaN,NaN,-0.02276096,-3.725329E-11,7.248983E-07,-1.106092E-07,2.842022E-08,-2.861022E-08
740.1437,-0.8865417,-1.721059E-09,NaN,-0.3736553,-1.326814E-07,NaN,1.21253,-4.794452E-07,NaN,-0.8046253,2.097481E-05,0.3147078,9.17098E-09,NaN,NaN,-0.02334567,-3.725329E-11,7.701979E-07,-1.106108E-07,2.365185E-08,-2.622604E-08
740.16,-0.8865417,-1.721059E-09,NaN,-0.3736553,-1.326814E-07,NaN,1.21253,-4.794452E-07,NaN,-0.8046253,2.097481E-05,0.3147078,9.17098E-09,NaN,NaN,-0.02334567,-3.725329E-11,7.701979E-07,-1.106108E-07,2.365185E-08,-2.622604E-08
740.1731,-0.8906817,-1.720339E-09,NaN,-0.3750836,-1.326824E-07,NaN,1.214034,-4.805744E-07,NaN,-0.8129815,2.097525E-05,0.3092844,1.030152E-08,NaN,NaN,-0.02400214,-4.656651E-11,8.154974E-07,-1.106123E-07,2.365185E-08,-2.861022E-08
740.1881,-0.8949347,-1.719618E-09,NaN,-0.3765488,-1.326833E-07,NaN,1.215459,-4.816813E-07,NaN,-0.8215516,2.097568E-05,0.3038225,1.140982E-08,NaN,NaN,-0.02464565,-4.656651E-11,8.596048E-07,-1.106139E-07,2.365185E-08,-2.622604E-08
740.2037,-0.8992401,-1.718897E-09,NaN,-0.3780293,-1.326843E-07,NaN,1.216734,-4.827693E-07,NaN,-0.8301511,2.097612E-05,0.2984671,1.249915E-08,NaN,NaN,-0.02527633,-5.587974E-11,9.049044E-07,-1.106154E-07,2.722813E-08,-2.861022E-08
740.2175,-0.8992401,-1.718897E-09,NaN,-0.3780293,-1.326843E-07,NaN,1.216734,-4.827693E-07,NaN,-0.8301511,2.097612E-05,0.2984671,1.249915E-08,NaN,NaN,-0.02527633,-5.587974E-11,9.049044E-07,-1.106154E-07,2.722813E-08,-2.861022E-08
740.2315,-0.9037738,-1.718176E-09,NaN,-0.379589,-1.326853E-07,NaN,1.218195,-4.838386E-07,NaN,-0.8391782,2.097655E-05,0.2926911,1.356987E-08,NaN,NaN,-0.02597778,-5.587974E-11,9.454355E-07,-1.10617E-07,2.722813E-08,-2.622604E-08
740.2469,-0.9084305,-1.717456E-09,NaN,-0.3811884,-1.326862E-07,NaN,1.21955,-4.848898E-07,NaN,-0.8484273,2.097699E-05,0.2869003,1.462235E-08,NaN,NaN,-0.02666538,-5.587974E-11,9.966956E-07,-1.106185E-07,2.245976E-08,-2.861022E-08
740.2615,-0.9131439,-1.716735E-09,NaN,-0.382804,-1.326872E-07,NaN,1.22074,-4.859202E-07,NaN,-0.8577038,2.097742E-05,0.2812356,1.565419E-08,NaN,NaN,-0.02733926,-5.587974E-11,1.040803E-06,-1.1062E-07,2.007557E-08,-2.622604E-08
740.2763,-0.9131439,-1.716735E-09,NaN,-0.382804,-1.326872E-07,NaN,1.22074,-4.859202E-07,NaN,-0.8577038,2.097742E-05,0.2812356,1.565419E-08,NaN,NaN,-0.02733926,-5.587974E-11,1.040803E-06,-1.1062E-07,2.007557E-08,-2.622604E-08
740.2903,-0.917873,-1.716015E-09,NaN,-0.3844218,-1.326882E-07,NaN,1.221786,-4.869332E-07,NaN,-0.8669162,2.097787E-05,0.2757206,1.666856E-08,NaN,NaN,-0.02799971,-6.984958E-11,1.07895E-06,-1.106215E-07,1.769139E-08,-2.861022E-08
740.306,-0.9228062,-1.715294E-09,NaN,-0.3861104,-1.326891E-07,NaN,1.223033,-4.879291E-07,NaN,-0.876507,2.09783E-05,0.2697761,1.766579E-08,NaN,NaN,-0.02873032,-6.984958E-11,1.117097E-06,-1.106231E-07,1.53072E-08,-2.622604E-08
740.3205,-0.9278454,-1.714574E-09,NaN,-0.387833,-1.326901E-07,NaN,1.224177,-4.889082E-07,NaN,-0.8862923,2.097874E-05,0.2638338,1.864622E-08,NaN,NaN,-0.02944653,-7.91628E-11,1.163589E-06,-1.106246E-07,1.173092E-08,-2.861022E-08
740.3356,-0.9278454,-1.714574E-09,NaN,-0.387833,-1.326901E-07,NaN,1.224177,-4.889082E-07,NaN,-0.8862923,2.097874E-05,0.2638338,1.864622E-08,NaN,NaN,-0.02944653,-7.91628E-11,1.163589E-06,-1.106246E-07,1.173092E-08,-2.861022E-08
740.3495,-0.9329292,-1.713853E-09,NaN,-0.3895678,-1.32691E-07,NaN,1.225167,-4.89868E-07,NaN,-0.8960882,2.097918E-05,0.2580276,1.960735E-08,NaN,NaN,-0.03014848,-7.91628E-11,1.205312E-06,-1.106261E-07,1.292302E-08,-2.622604E-08
740.3649,-0.9380195,-1.713133E-09,NaN,-0.3913018,-1.32692E-07,NaN,1.226025,-4.908117E-07,NaN,-0.9058084,2.097962E-05,0.2523752,2.05524E-08,NaN,NaN,-0.03083648,-8.847603E-11,1.244651E-06,-1.106276E-07,1.173092E-08,-2.861022E-08
740.3797,-0.9380195,-1.713133E-09,NaN,-0.3913018,-1.32692E-07,NaN,1.226025,-4.908117E-07,NaN,-0.9058084,2.097962E-05,0.2523752,2.05524E-08,NaN,NaN,-0.03083648,-8.847603E-11,1.244651E-06,-1.106276E-07,1.173092E-08,-2.861022E-08
740.3936,-0.9433072,-1.712412E-09,NaN,-0.3931043,-1.326929E-07,NaN,1.227085,-4.917396E-07,NaN,-0.9158967,2.098005E-05,0.2462779,2.148168E-08,NaN,NaN,-0.03159407,-8.381941E-11,1.285182E-06,-1.106291E-07,9.346738E-09,-2.622604E-08
740.4094,-0.9486949,-1.711691E-09,NaN,-0.3949389,-1.326939E-07,NaN,1.228034,-4.926492E-07,NaN,-0.9261706,2.098049E-05,0.2402052,2.239266E-08,NaN,NaN,-0.03233673,-9.313263E-11,1.329289E-06,-1.106306E-07,9.346738E-09,-2.861022E-08
740.4238,-0.9541221,-1.710971E-09,NaN,-0.3967838,-1.326948E-07,NaN,1.228835,-4.935438E-07,NaN,-0.9364474,2.098092E-05,0.2342804,2.328853E-08,NaN,NaN,-0.03306463,-9.313263E-11,1.366244E-06,-1.106321E-07,1.232697E-08,-2.622604E-08
740.4408,-0.9595512,-1.71025E-09,NaN,-0.3986263,-1.326957E-07,NaN,1.229513,-4.944235E-07,NaN,-0.9466413,2.098136E-05,0.2285141,2.416959E-08,NaN,NaN,-0.03377808,-1.024459E-10,1.403199E-06,-1.106336E-07,1.471116E-08,-2.861022E-08
740.4542,-0.9595512,-1.71025E-09,NaN,-0.3986263,-1.326957E-07,NaN,1.229513,-4.944235E-07,NaN,-0.9466413,2.098136E-05,0.2285141,2.416959E-08,NaN,NaN,-0.03377808,-1.024459E-10,1.403199E-06,-1.106336E-07,1.471116E-08,-2.861022E-08
740.4682,-0.9651737,-1.70953E-09,NaN,-0.400536,-1.326967E-07,NaN,1.230391,-4.952887E-07,NaN,-0.9571955,2.09818E-05,0.2222877,2.503614E-08,NaN,NaN,-0.03456061,-1.024459E-10,1.446115E-06,-1.10635E-07,1.292302E-08,-2.622604E-08
740.4826,-0.9708923,-1.708809E-09,NaN,-0.4024763,-1.326976E-07,NaN,1.231151,-4.961369E-07,NaN,-0.9679278,2.098224E-05,0.216111,2.588562E-08,NaN,NaN,-0.03532771,-1.117591E-10,1.486646E-06,-1.106365E-07,9.346738E-09,-2.861022E-08
740.4972,-0.9708923,-1.708809E-09,NaN,-0.4024763,-1.326976E-07,NaN,1.231151,-4.961369E-07,NaN,-0.9679278,2.098224E-05,0.216111,2.588562E-08,NaN,NaN,-0.03532771,-1.117591E-10,1.486646E-06,-1.106365E-07,9.346738E-09,-2.861022E-08
740.511,-0.9766465,-1.708089E-09,NaN,-0.4044255,-1.326986E-07,NaN,1.23177,-4.971034E-07,NaN,-0.978656,2.098267E-05,0.2100925,2.685351E-08,NaN,NaN,-0.0360796,-1.164157E-10,1.521217E-06,-1.10638E-07,7.558599E-09,-2.622604E-08
740.5265,-0.9826139,-1.70737E-09,NaN,-0.406448,-1.326995E-07,NaN,1.232564,-4.98051E-07,NaN,-0.9897763,2.098311E-05,0.2036122,2.780236E-08,NaN,NaN,-0.03689978,-1.257289E-10,1.554595E-06,-1.106395E-07,1.232697E-08,-2.861022E-08
740.5413,-0.988688,-1.70665E-09,NaN,-0.4085039,-1.327004E-07,NaN,1.233222,-4.989826E-07,NaN,-1.001085,2.098352E-05,0.1972109,2.873538E-08,NaN,NaN,-0.03770377,-1.210723E-10,1.589166E-06,-1.106409E-07,1.232697E-08,-2.622604E-08
740.556,-0.988688,-1.70665E-09,NaN,-0.4085039,-1.327004E-07,NaN,1.233222,-4.989826E-07,NaN,-1.001085,2.098352E-05,0.1972109,2.873538E-08,NaN,NaN,-0.03770377,-1.210723E-10,1.589166E-06,-1.106409E-07,1.232697E-08,-2.622604E-08
740.57,-0.9948027,-1.705931E-09,NaN,-0.4105699,-1.327013E-07,NaN,1.233738,-4.998988E-07,NaN,-1.012389,2.098395E-05,0.1909807,2.965288E-08,NaN,NaN,-0.03849183,-1.210723E-10,1.621352E-06,-1.106424E-07,9.942784E-09,-2.861022E-08
740.5854,-1.000917,-1.705212E-09,NaN,-0.4126322,-1.327023E-07,NaN,1.234143,-5.007969E-07,NaN,-1.0236,2.098437E-05,0.1849186,3.055233E-08,NaN,NaN,-0.0392643,-1.210723E-10,1.651155E-06,-1.106438E-07,1.471116E-08,-2.622604E-08
740.6005,-1.007221,-1.704493E-09,NaN,-0.4147598,-1.327032E-07,NaN,1.234735,-5.016801E-07,NaN,-1.035158,2.098479E-05,0.1783741,3.143692E-08,NaN,NaN,-0.04010466,-1.210723E-10,1.679765E-06,-1.106453E-07,9.346738E-09,-2.861022E-08
740.6151,-1.007221,-1.704493E-09,NaN,-0.4147598,-1.327032E-07,NaN,1.234735,-5.016801E-07,NaN,-1.035158,2.098479E-05,0.1783741,3.143692E-08,NaN,NaN,-0.04010466,-1.210723E-10,1.679765E-06,-1.106453E-07,9.346738E-09,-2.861022E-08
740.6289,-1.013616,-1.703774E-09,NaN,-0.4169157,-1.327041E-07,NaN,1.235198,-5.025488E-07,NaN,-1.046878,2.098522E-05,0.1719312,3.230693E-08,NaN,NaN,-0.04092843,-1.210723E-10,1.713143E-06,-1.106467E-07,9.346738E-09,-2.622604E-08
740.6456,-1.020041,-1.703055E-09,NaN,-0.419078,-1.32705E-07,NaN,1.235537,-5.034004E-07,NaN,-1.05858,2.098563E-05,0.1656611,3.315983E-08,NaN,NaN,-0.04173592,-1.117591E-10,1.744138E-06,-1.106481E-07,6.366506E-09,-2.861022E-08
740.6589,-1.020041,-1.703055E-09,NaN,-0.419078,-1.32705E-07,NaN,1.235537,-5.034004E-07,NaN,-1.05858,2.098563E-05,0.1656611,3.315983E-08,NaN,NaN,-0.04173592,-1.117591E-10,1.744138E-06,-1.106481E-07,6.366506E-09,-2.861022E-08
740.6731,-1.026672,-1.702336E-09,NaN,-0.4213111,-1.327059E-07,NaN,1.236039,-5.04238E-07,NaN,-1.07066,2.098606E-05,0.1589073,3.399878E-08,NaN,NaN,-0.04261059,-1.117591E-10,1.771556E-06,-1.106496E-07,6.962553E-09,-2.622604E-08
740.6885,-1.033404,-1.701617E-09,NaN,-0.4235749,-1.327068E-07,NaN,1.236404,-5.050619E-07,NaN,-1.082912,2.098648E-05,0.1522817,3.482405E-08,NaN,NaN,-0.043468,-1.117591E-10,1.798974E-06,-1.10651E-07,8.750692E-09,-2.861022E-08
740.7053,-1.040169,-1.700898E-09,NaN,-0.425846,-1.327078E-07,NaN,1.236646,-5.058724E-07,NaN,-1.095148,2.09869E-05,0.1458355,3.563591E-08,NaN,NaN,-0.04430848,-1.117591E-10,1.822816E-06,-1.106524E-07,7.260576E-09,-2.622604E-08
740.7189,-1.040169,-1.700898E-09,NaN,-0.425846,-1.327078E-07,NaN,1.236646,-5.058724E-07,NaN,-1.095148,2.09869E-05,0.1458355,3.563591E-08,NaN,NaN,-0.04430848,-1.117591E-10,1.822816E-06,-1.106524E-07,7.260576E-09,-2.622604E-08
740.7328,-1.046927,-1.70018E-09,NaN,-0.4281107,-1.327087E-07,NaN,1.236798,-5.06667E-07,NaN,-1.107277,2.098733E-05,0.1395589,3.643179E-08,NaN,NaN,-0.04513237,-1.117591E-10,1.844274E-06,-1.106538E-07,5.174413E-09,-2.861022E-08
740.7473,-1.053868,-1.699461E-09,NaN,-0.4304385,-1.327096E-07,NaN,1.237117,-5.075794E-07,NaN,-1.119739,2.098775E-05,0.1327828,3.734552E-08,NaN,NaN,-0.04602312,-1.024459E-10,1.864539E-06,-1.106552E-07,7.558599E-09,-2.622604E-08
740.7617,-1.060893,-1.698742E-09,NaN,-0.4327919,-1.327105E-07,NaN,1.237312,-5.084767E-07,NaN,-1.13235,2.098819E-05,0.1261533,3.824411E-08,NaN,NaN,-0.04689631,-1.024459E-10,1.884805E-06,-1.106566E-07,7.856622E-09,-2.861022E-08
740.7765,-1.060893,-1.698742E-09,NaN,-0.4327919,-1.327105E-07,NaN,1.237312,-5.084767E-07,NaN,-1.13235,2.098819E-05,0.1261533,3.824411E-08,NaN,NaN,-0.04689631,-1.024459E-10,1.884805E-06,-1.106566E-07,7.856622E-09,-2.861022E-08
740.7905,-1.067941,-1.698023E-09,NaN,-0.4351491,-1.327113E-07,NaN,1.237403,-5.093563E-07,NaN,-1.144931,2.098863E-05,0.1196993,3.912505E-08,NaN,NaN,-0.04775228,-9.778926E-11,1.902686E-06,-1.10658E-07,5.77046E-09,-2.622604E-08
740.8064,-1.074973,-1.697304E-09,NaN,-0.4374976,-1.327122E-07,NaN,1.237418,-5.102214E-07,NaN,-1.157399,2.098907E-05,0.1134107,3.999149E-08,NaN,NaN,-0.04859139,-9.313264E-11,1.916991E-06,-1.106594E-07,3.684297E-09,-2.861022E-08
740.8207,-1.082183,-1.696585E-09,NaN,-0.4399074,-1.327131E-07,NaN,1.237587,-5.110722E-07,NaN,-1.170191,2.098951E-05,0.106617,4.084373E-08,NaN,NaN,-0.04949704,-8.847603E-11,1.931297E-06,-1.106608E-07,1.896158E-09,-2.622604E-08
740.8354,-1.082183,-1.696585E-09,NaN,-0.4399074,-1.327131E-07,NaN,1.237587,-5.110722E-07,NaN,-1.170191,2.098951E-05,0.106617,4.084373E-08,NaN,NaN,-0.04949704,-8.847603E-11,1.931297E-06,-1.106608E-07,1.896158E-09,-2.622604E-08
740.8497,-1.089472,-1.695866E-09,NaN,-0.4423412,-1.32714E-07,NaN,1.237642,-5.119064E-07,NaN,-1.183128,2.098996E-05,0.09998409,4.167921E-08,NaN,NaN,-0.05038486,-8.381941E-11,1.94441E-06,-1.106622E-07,2.492204E-09,-2.861022E-08
740.8652,-1.096779,-1.695147E-09,NaN,-0.4447776,-1.327149E-07,NaN,1.237609,-5.127269E-07,NaN,-1.19603,2.099039E-05,0.09352234,4.250109E-08,NaN,NaN,-0.05125519,-7.450619E-11,1.956331E-06,-1.106636E-07,1.300111E-09,-2.622604E-08
740.8798,-1.096779,-1.695147E-09,NaN,-0.4447776,-1.327149E-07,NaN,1.237609,-5.127269E-07,NaN,-1.19603,2.099039E-05,0.09352234,4.250109E-08,NaN,NaN,-0.05125519,-7.450619E-11,1.956331E-06,-1.106636E-07,1.300111E-09,-2.622604E-08
740.8939,-1.104284,-1.694428E-09,NaN,-0.4472813,-1.327158E-07,NaN,1.237706,-5.135341E-07,NaN,-1.20929,2.099083E-05,0.0865622,4.330964E-08,NaN,NaN,-0.05219144,-6.519296E-11,1.970636E-06,-1.10665E-07,5.550533E-10,-2.861022E-08
740.9095,-1.11188,-1.693709E-09,NaN,-0.449812,-1.327167E-07,NaN,1.23769,-5.143254E-07,NaN,-1.222707,2.099127E-05,0.0797741,4.410229E-08,NaN,NaN,-0.05310926,-5.587974E-11,1.980173E-06,-1.106663E-07,2.790227E-09,-2.622604E-08
740.924,-1.119499,-1.69299E-09,NaN,-0.4523462,-1.327175E-07,NaN,1.23759,-5.151039E-07,NaN,-1.236092,2.099171E-05,0.07315823,4.488219E-08,NaN,NaN,-0.05400903,-5.122313E-11,1.988517E-06,-1.106677E-07,2.790227E-09,-2.861022E-08
740.9388,-1.119499,-1.69299E-09,NaN,-0.4523462,-1.327175E-07,NaN,1.23759,-5.151039E-07,NaN,-1.236092,2.099171E-05,0.07315823,4.488219E-08,NaN,NaN,-0.05400903,-5.122313E-11,1.988517E-06,-1.106677E-07,2.790227E-09,-2.861022E-08
740.9527,-1.1271,-1.692271E-09,NaN,-0.4548708,-1.327184E-07,NaN,1.237427,-5.158699E-07,NaN,-1.249358,2.099215E-05,0.06670573,4.564957E-08,NaN,NaN,-0.0548911,-4.656651E-11,1.994478E-06,-1.106691E-07,1.225606E-09,-2.622604E-08
740.9694,-1.129632,-1.691551E-09,NaN,-0.4556041,-1.327193E-07,NaN,1.233266,-5.166209E-07,NaN,-1.251543,2.09926E-05,0.07542974,4.640187E-08,NaN,NaN,-0.05384668,-4.19099E-11,1.920568E-06,-1.106704E-07,-3.542766E-09,-2.861022E-08
740.983,-1.129045,-1.690832E-09,NaN,-0.4552952,-1.327201E-07,NaN,1.230102,-5.173599E-07,NaN,-1.246383,2.099304E-05,0.08388308,4.714219E-08,NaN,NaN,-0.05282256,-3.725329E-11,1.827584E-06,-1.106718E-07,-3.396083E-09,-2.622604E-08
740.9977,-1.129045,-1.690832E-09,NaN,-0.4552952,-1.327201E-07,NaN,1.230102,-5.173599E-07,NaN,-1.246383,2.099304E-05,0.08388308,4.714219E-08,NaN,NaN,-0.05282256,-3.725329E-11,1.827584E-06,-1.106718E-07,-3.396083E-09,-2.622604E-08
741.0114,-1.126513,-1.690113E-09,NaN,-0.4543434,-1.32721E-07,NaN,1.227531,-5.180871E-07,NaN,-1.237744,2.099348E-05,0.09208141,4.787078E-08,NaN,NaN,-0.05181842,-3.259668E-11,1.762019E-06,-1.106731E-07,-5.985159E-09,-2.861022E-08
741.0269,-1.122788,-1.689394E-09,NaN,-0.4530058,-1.327219E-07,NaN,1.225322,-5.188001E-07,NaN,-1.227507,2.099392E-05,0.1000653,4.858505E-08,NaN,NaN,-0.05083393,-2.794007E-11,1.703607E-06,-1.106745E-07,-7.549781E-09,-2.622604E-08
741.0416,-1.118562,-1.688674E-09,NaN,-0.45152,-1.327227E-07,NaN,1.223526,-5.195017E-07,NaN,-1.217057,2.099437E-05,0.1072045,4.928809E-08,NaN,NaN,-0.04995181,-2.794007E-11,1.652347E-06,-1.106758E-07,-5.687136E-09,-2.861022E-08
741.0564,-1.118562,-1.688674E-09,NaN,-0.45152,-1.327227E-07,NaN,1.223526,-5.195017E-07,NaN,-1.217057,2.099437E-05,0.1072045,4.928809E-08,NaN,NaN,-0.04995181,-2.794007E-11,1.652347E-06,-1.106758E-07,-5.687136E-09,-2.861022E-08
741.0704,-1.114046,-1.687955E-09,NaN,-0.4499526,-1.327236E-07,NaN,1.22185,-5.201924E-07,NaN,-1.206677,2.099481E-05,0.1141786,4.998013E-08,NaN,NaN,-0.04908697,-2.328346E-11,1.605855E-06,-1.106772E-07,-3.898997E-09,-2.622604E-08
741.0895,-1.109372,-1.687235E-09,NaN,-0.4483441,-1.327244E-07,NaN,1.220259,-5.208695E-07,NaN,-1.196409,2.099525E-05,0.1210035,5.065856E-08,NaN,NaN,-0.04823908,-1.862684E-11,1.558171E-06,-1.106785E-07,-4.495043E-09,-2.861022E-08
741.1005,-1.10462,-1.686516E-09,NaN,-0.4467185,-1.327253E-07,NaN,1.218731,-5.21536E-07,NaN,-1.186272,2.09957E-05,0.1276869,5.132647E-08,NaN,NaN,-0.0474078,-1.397023E-11,1.514064E-06,-1.106798E-07,-4.19702E-09,-2.622604E-08
741.1153,-1.10462,-1.686516E-09,NaN,-0.4467185,-1.327253E-07,NaN,1.218731,-5.21536E-07,NaN,-1.186272,2.09957E-05,0.1276869,5.132647E-08,NaN,NaN,-0.0474078,-1.397023E-11,1.514064E-06,-1.106798E-07,-4.19702E-09,-2.622604E-08
741.1309,-1.100061,-1.685796E-09,NaN,-0.4451672,-1.327261E-07,NaN,1.217452,-5.221923E-07,NaN,-1.176749,2.099613E-05,0.1335774,5.198406E-08,NaN,NaN,-0.04667592,-3.920475E-16,1.475917E-06,-1.106811E-07,-4.048008E-09,-2.861022E-08
741.1447,-1.095639,-1.685077E-09,NaN,-0.4436674,-1.32727E-07,NaN,1.216175,-5.228356E-07,NaN,-1.167686,2.099656E-05,0.1393415,5.262872E-08,NaN,NaN,-0.04595837,1.396945E-11,1.435386E-06,-1.106825E-07,-6.730217E-09,-2.622604E-08
741.1594,-1.095639,-1.685077E-09,NaN,-0.4436674,-1.32727E-07,NaN,1.216175,-5.228356E-07,NaN,-1.167686,2.099656E-05,0.1393415,5.262872E-08,NaN,NaN,-0.04595837,1.396945E-11,1.435386E-06,-1.106825E-07,-6.730217E-09,-2.622604E-08
741.1733,-1.091322,-1.684357E-09,NaN,-0.4422049,-1.327278E-07,NaN,1.214906,-5.234691E-07,NaN,-1.158911,2.0997E-05,0.144995,5.326352E-08,NaN,NaN,-0.04525486,1.862606E-11,1.396047E-06,-1.106838E-07,-4.644055E-09,-2.861022E-08
741.189,-1.087305,-1.683638E-09,NaN,-0.4408484,-1.327287E-07,NaN,1.213866,-5.240929E-07,NaN,-1.150815,2.099745E-05,0.1498821,5.388866E-08,NaN,NaN,-0.04464827,2.328267E-11,1.367437E-06,-1.106851E-07,-2.855916E-09,-2.622604E-08
741.2034,-1.083491,-1.682918E-09,NaN,-0.4395612,-1.327295E-07,NaN,1.212802,-5.247043E-07,NaN,-1.1432,2.099789E-05,0.1546607,5.450149E-08,NaN,NaN,-0.04405355,2.793928E-11,1.332866E-06,-1.106864E-07,1.912456E-09,-2.861022E-08
741.2183,-1.083491,-1.682918E-09,NaN,-0.4395612,-1.327295E-07,NaN,1.212802,-5.247043E-07,NaN,-1.1432,2.099789E-05,0.1546607,5.450149E-08,NaN,NaN,-0.04405355,2.793928E-11,1.332866E-06,-1.106864E-07,1.912456E-09,-2.861022E-08
741.2343,-1.079819,-1.682198E-09,NaN,-0.4383215,-1.327303E-07,NaN,1.211729,-5.253066E-07,NaN,-1.135872,2.099832E-05,0.1593518,5.51051E-08,NaN,NaN,-0.04347048,4.190912E-11,1.299487E-06,-1.106877E-07,3.998618E-09,-2.622604E-08
741.2476,-1.07625,-1.681479E-09,NaN,-0.4371156,-1.327312E-07,NaN,1.21066,-5.25897E-07,NaN,-1.128736,2.099876E-05,0.1639553,5.569683E-08,NaN,NaN,-0.04289881,4.656573E-11,1.267301E-06,-1.10689E-07,7.276874E-09,-2.861022E-08
741.2623,-1.072979,-1.680759E-09,NaN,-0.4360126,-1.32732E-07,NaN,1.209829,-5.264785E-07,NaN,-1.122223,2.09992E-05,0.1678158,5.627973E-08,NaN,NaN,-0.0424215,5.122235E-11,1.241075E-06,-1.106903E-07,6.97885E-09,-2.622604E-08
741.2769,-1.072979,-1.680759E-09,NaN,-0.4360126,-1.32732E-07,NaN,1.209829,-5.264785E-07,NaN,-1.122223,2.09992E-05,0.1678158,5.627973E-08,NaN,NaN,-0.0424215,5.122235E-11,1.241075E-06,-1.106903E-07,6.97885E-09,-2.622604E-08
741.2908,-1.069905,-1.680039E-09,NaN,-0.4349763,-1.327328E-07,NaN,1.208969,-5.270514E-07,NaN,-1.11615,2.099965E-05,0.1715788,5.6854E-08,NaN,NaN,-0.04195353,5.587896E-11,1.216041E-06,-1.106916E-07,7.87292E-09,-2.861022E-08
741.3062,-1.066966,-1.67932E-09,NaN,-0.4339849,-1.327337E-07,NaN,1.208092,-5.276131E-07,NaN,-1.110334,2.100008E-05,0.1752758,5.741696E-08,NaN,NaN,-0.04149472,6.984879E-11,1.191007E-06,-1.106929E-07,6.680827E-09,-2.622604E-08
741.321,-1.064124,-1.6786E-09,NaN,-0.4330249,-1.327345E-07,NaN,1.207214,-5.281664E-07,NaN,-1.104685,2.100052E-05,0.1789056,5.797166E-08,NaN,NaN,-0.04104489,7.450541E-11,1.163589E-06,-1.106941E-07,9.363037E-09,-2.861022E-08
741.3358,-1.064124,-1.6786E-09,NaN,-0.4330249,-1.327345E-07,NaN,1.207214,-5.281664E-07,NaN,-1.104685,2.100052E-05,0.1789056,5.797166E-08,NaN,NaN,-0.04104489,7.450541E-11,1.163589E-06,-1.106941E-07,9.363037E-09,-2.861022E-08
741.3499,-1.061572,-1.67788E-09,NaN,-0.4321652,-1.327353E-07,NaN,1.20658,-5.287117E-07,NaN,-1.099635,2.100097E-05,0.1818152,5.851827E-08,NaN,NaN,-0.04068704,7.450541E-11,1.139747E-06,-1.106954E-07,1.025711E-08,-2.622604E-08
741.3652,-1.05921,-1.67716E-09,NaN,-0.4313699,-1.327361E-07,NaN,1.205913,-5.292462E-07,NaN,-1.095003,2.100142E-05,0.1846372,5.905412E-08,NaN,NaN,-0.04033621,7.450541E-11,1.121866E-06,-1.106967E-07,9.66106E-09,-2.861022E-08
741.3801,-1.056975,-1.67644E-09,NaN,-0.4306172,-1.327369E-07,NaN,1.205222,-5.297729E-07,NaN,-1.090605,2.100186E-05,0.1874127,5.958224E-08,NaN,NaN,-0.03999223,7.916202E-11,1.105176E-06,-1.10698E-07,9.065013E-09,-2.622604E-08
741.3945,-1.056975,-1.67644E-09,NaN,-0.4306172,-1.327369E-07,NaN,1.205222,-5.297729E-07,NaN,-1.090605,2.100186E-05,0.1874127,5.958224E-08,NaN,NaN,-0.03999223,7.916202E-11,1.105176E-06,-1.10698E-07,9.065013E-09,-2.622604E-08
741.4089,-1.055047,-1.67572E-09,NaN,-0.4299707,-1.327378E-07,NaN,1.204768,-5.302893E-07,NaN,-1.086829,2.10023E-05,0.1894908,6.009996E-08,NaN,NaN,-0.03973816,8.381864E-11,1.094447E-06,-1.106992E-07,7.276873E-09,-2.861022E-08
741.4241,-1.053318,-1.675E-09,NaN,-0.4293915,-1.327386E-07,NaN,1.20427,-5.307983E-07,NaN,-1.083472,2.100275E-05,0.1914942,6.061032E-08,NaN,NaN,-0.03948908,8.381864E-11,1.080142E-06,-1.107005E-07,6.680827E-09,-2.622604E-08
741.4389,-1.053318,-1.675E-09,NaN,-0.4293915,-1.327386E-07,NaN,1.20427,-5.307983E-07,NaN,-1.083472,2.100275E-05,0.1914942,6.061032E-08,NaN,NaN,-0.03948908,8.381864E-11,1.080142E-06,-1.107005E-07,6.680827E-09,-2.622604E-08
741.4528,-1.051718,-1.67428E-09,NaN,-0.4288558,-1.327394E-07,NaN,1.20374,-5.312974E-07,NaN,-1.08034,2.100319E-05,0.1934692,6.111068E-08,NaN,NaN,-0.03924484,8.847525E-11,1.067029E-06,-1.107017E-07,6.97885E-09,-2.861022E-08
741.4683,-1.050207,-1.67356E-09,NaN,-0.4283489,-1.327402E-07,NaN,1.203195,-5.317893E-07,NaN,-1.077339,2.100363E-05,0.1954139,6.160402E-08,NaN,NaN,-0.03900538,9.313187E-11,1.052724E-06,-1.10703E-07,7.574897E-09,-2.622604E-08
741.4852,-1.048974,-1.67284E-09,NaN,-0.4279389,-1.32741E-07,NaN,1.202896,-5.322744E-07,NaN,-1.074899,2.100408E-05,0.1966789,6.209046E-08,NaN,NaN,-0.0388538,9.313187E-11,1.045572E-06,-1.107042E-07,6.680827E-09,-2.861022E-08
741.4985,-1.048974,-1.67284E-09,NaN,-0.4279389,-1.32741E-07,NaN,1.202896,-5.322744E-07,NaN,-1.074899,2.100408E-05,0.1966789,6.209046E-08,NaN,NaN,-0.0388538,9.313187E-11,1.045572E-06,-1.107042E-07,6.680827E-09,-2.861022E-08
741.5126,-1.047919,-1.67212E-09,NaN,-0.4275898,-1.327418E-07,NaN,1.202556,-5.327499E-07,NaN,-1.07284,2.100452E-05,0.1978783,6.256733E-08,NaN,NaN,-0.0387052,9.778849E-11,1.037227E-06,-1.107055E-07,5.786758E-09,-2.622604E-08
741.5269,-1.04698,-1.6714E-09,NaN,-0.4272795,-1.327426E-07,NaN,1.202179,-5.332189E-07,NaN,-1.070977,2.100496E-05,0.1990653,6.303763E-08,NaN,NaN,-0.03855947,1.024451E-10,1.030074E-06,-1.107067E-07,3.700595E-09,-2.861022E-08
741.5415,-1.046116,-1.67068E-09,NaN,-0.4269941,-1.327434E-07,NaN,1.201784,-5.336814E-07,NaN,-1.069221,2.100541E-05,0.2002381,6.350149E-08,NaN,NaN,-0.03841659,1.071017E-10,1.022922E-06,-1.107079E-07,2.210479E-09,-2.622604E-08
741.5562,-1.046116,-1.67068E-09,NaN,-0.4269941,-1.327434E-07,NaN,1.201784,-5.336814E-07,NaN,-1.069221,2.100541E-05,0.2002381,6.350149E-08,NaN,NaN,-0.03841659,1.071017E-10,1.022922E-06,-1.107079E-07,2.210479E-09,-2.622604E-08
741.5704,-1.045521,-1.669959E-09,NaN,-0.4268025,-1.327442E-07,NaN,1.201634,-5.341348E-07,NaN,-1.068006,2.100585E-05,0.2007488,6.395621E-08,NaN,NaN,-0.0383597,1.117583E-10,1.015769E-06,-1.107092E-07,6.382805E-09,-2.861022E-08
741.5859,-1.045094,-1.669239E-09,NaN,-0.426669,-1.32745E-07,NaN,1.201439,-5.345821E-07,NaN,-1.067153,2.100629E-05,0.2012058,6.440479E-08,NaN,NaN,-0.03830393,1.164149E-10,1.013385E-06,-1.107104E-07,7.574897E-09,-2.622604E-08
741.6004,-1.044775,-1.668519E-09,NaN,-0.4265718,-1.327458E-07,NaN,1.201201,-5.350204E-07,NaN,-1.066476,2.100673E-05,0.201666,6.484454E-08,NaN,NaN,-0.03824922,1.210716E-10,1.007424E-06,-1.107116E-07,8.468967E-09,-2.861022E-08
741.6174,-1.044775,-1.668519E-09,NaN,-0.4265718,-1.327458E-07,NaN,1.201201,-5.350204E-07,NaN,-1.066476,2.100673E-05,0.201666,6.484454E-08,NaN,NaN,-0.03824922,1.210716E-10,1.007424E-06,-1.107116E-07,8.468967E-09,-2.861022E-08
741.6294,-1.044742,-1.667798E-09,NaN,-0.4265734,-1.327465E-07,NaN,1.201193,-5.35453E-07,NaN,-1.066365,2.100717E-05,0.2014835,6.527846E-08,NaN,NaN,-0.03827877,1.257282E-10,1.008617E-06,-1.107128E-07,1.025711E-08,-2.622604E-08
741.6447,-1.044885,-1.667078E-09,NaN,-0.426636,-1.327473E-07,NaN,1.201126,-5.35877E-07,NaN,-1.066617,2.100762E-05,0.2012635,6.570382E-08,NaN,NaN,-0.03830773,1.303848E-10,1.012193E-06,-1.10714E-07,1.025711E-08,-2.861022E-08
741.6595,-1.044885,-1.667078E-09,NaN,-0.426636,-1.327473E-07,NaN,1.201126,-5.35877E-07,NaN,-1.066617,2.100762E-05,0.2012635,6.570382E-08,NaN,NaN,-0.03830773,1.303848E-10,1.012193E-06,-1.10714E-07,1.025711E-08,-2.861022E-08
741.6736,-1.045139,-1.666357E-09,NaN,-0.4267357,-1.327481E-07,NaN,1.201008,-5.362955E-07,NaN,-1.067039,2.100806E-05,0.2010627,6.612362E-08,NaN,NaN,-0.03833608,1.303848E-10,1.014577E-06,-1.107152E-07,1.025711E-08,-2.622604E-08
741.6891,-1.04546,-1.665637E-09,NaN,-0.4268577,-1.327489E-07,NaN,1.20086,-5.367085E-07,NaN,-1.067539,2.10085E-05,0.2008782,6.653798E-08,NaN,NaN,-0.03836385,1.350414E-10,1.013385E-06,-1.107164E-07,9.363037E-09,-2.861022E-08
741.7036,-1.046039,-1.664917E-09,NaN,-0.42707,-1.327497E-07,NaN,1.200947,-5.371134E-07,NaN,-1.068547,2.100893E-05,0.2000614,6.694417E-08,NaN,NaN,-0.03847426,1.443546E-10,1.014577E-06,-1.107176E-07,9.959083E-09,-2.622604E-08
741.7186,-1.046039,-1.664917E-09,NaN,-0.42707,-1.327497E-07,NaN,1.200947,-5.371134E-07,NaN,-1.068547,2.100893E-05,0.2000614,6.694417E-08,NaN,NaN,-0.03847426,1.443546E-10,1.014577E-06,-1.107176E-07,9.959083E-09,-2.622604E-08
741.7324,-1.046776,-1.664196E-09,NaN,-0.4273365,-1.327505E-07,NaN,1.200976,-5.37513E-07,NaN,-1.069883,2.100937E-05,0.1992193,6.734519E-08,NaN,NaN,-0.0385825,1.490112E-10,1.024114E-06,-1.107188E-07,6.978851E-09,-2.861022E-08
741.7498,-1.047608,-1.663476E-09,NaN,-0.427635,-1.327512E-07,NaN,1.200952,-5.379048E-07,NaN,-1.071363,2.100981E-05,0.1984088,6.77383E-08,NaN,NaN,-0.03868859,1.536678E-10,1.028882E-06,-1.1072E-07,5.488735E-09,-2.622604E-08
741.7634,-1.048496,-1.662755E-09,NaN,-0.4279516,-1.32752E-07,NaN,1.200896,-5.382916E-07,NaN,-1.0729,2.101024E-05,0.197627,6.812648E-08,NaN,NaN,-0.03879255,1.629811E-10,1.030074E-06,-1.107212E-07,4.594666E-09,-2.861022E-08
741.777,-1.048496,-1.662755E-09,NaN,-0.4279516,-1.32752E-07,NaN,1.200896,-5.382916E-07,NaN,-1.0729,2.101024E-05,0.197627,6.812648E-08,NaN,NaN,-0.03879255,1.629811E-10,1.030074E-06,-1.107212E-07,4.594666E-09,-2.861022E-08
741.791,-1.049632,-1.662035E-09,NaN,-0.4283549,-1.327528E-07,NaN,1.201069,-5.386736E-07,NaN,-1.074928,2.101068E-05,0.1962238,6.850983E-08,NaN,NaN,-0.03897767,1.676377E-10,1.039611E-06,-1.107224E-07,6.680828E-09,-2.622604E-08
741.8065,-1.050918,-1.661314E-09,NaN,-0.4288091,-1.327535E-07,NaN,1.20118,-5.39048E-07,NaN,-1.077266,2.101112E-05,0.194811,6.888563E-08,NaN,NaN,-0.03915914,1.722943E-10,1.047956E-06,-1.107236E-07,9.065014E-09,-2.861022E-08
741.8213,-1.052291,-1.660594E-09,NaN,-0.4292923,-1.327543E-07,NaN,1.201234,-5.394179E-07,NaN,-1.079733,2.101156E-05,0.1934422,6.925685E-08,NaN,NaN,-0.03933701,1.769509E-10,1.059877E-06,-1.107248E-07,3.998619E-09,-2.622604E-08
741.836,-1.052291,-1.660594E-09,NaN,-0.4292923,-1.327543E-07,NaN,1.201234,-5.394179E-07,NaN,-1.079733,2.101156E-05,0.1934422,6.925685E-08,NaN,NaN,-0.03933701,1.769509E-10,1.059877E-06,-1.107248E-07,3.998619E-09,-2.622604E-08
741.8502,-1.05393,-1.659874E-09,NaN,-0.4298679,-1.327551E-07,NaN,1.201499,-5.397804E-07,NaN,-1.082717,2.1012E-05,0.1914668,6.962074E-08,NaN,NaN,-0.03959455,1.816075E-10,1.074182E-06,-1.107259E-07,1.31641E-09,-2.861022E-08
741.8657,-1.055726,-1.659153E-09,NaN,-0.4304968,-1.327558E-07,NaN,1.201688,-5.401386E-07,NaN,-1.086017,2.101244E-05,0.1895005,6.998028E-08,NaN,NaN,-0.03984702,1.862641E-10,1.089679E-06,-1.107271E-07,-2.259869E-09,-2.622604E-08
741.8802,-1.057613,-1.658433E-09,NaN,-0.4311553,-1.327566E-07,NaN,1.201812,-5.404897E-07,NaN,-1.08944,2.101288E-05,0.1875922,7.033272E-08,NaN,NaN,-0.04009449,1.816075E-10,1.099216E-06,-1.107283E-07,-4.644054E-09,-2.861022E-08
741.8948,-1.057613,-1.658433E-09,NaN,-0.4311553,-1.327566E-07,NaN,1.201812,-5.404897E-07,NaN,-1.08944,2.101288E-05,0.1875922,7.033272E-08,NaN,NaN,-0.04009449,1.816075E-10,1.099216E-06,-1.107283E-07,-4.644054E-09,-2.861022E-08
741.9089,-1.059549,-1.657712E-09,NaN,-0.4318285,-1.327573E-07,NaN,1.201894,-5.408367E-07,NaN,-1.092894,2.101332E-05,0.1857372,7.068104E-08,NaN,NaN,-0.04033707,1.862641E-10,1.109944E-06,-1.107294E-07,-5.538124E-09,-2.622604E-08
741.9244,-1.061723,-1.656992E-09,NaN,-0.4325847,-1.327581E-07,NaN,1.202189,-5.411768E-07,NaN,-1.096812,2.101376E-05,0.1832801,7.102248E-08,NaN,NaN,-0.04065805,1.909207E-10,1.120673E-06,-1.107306E-07,-5.538124E-09,-2.861022E-08
741.939,-1.061723,-1.656992E-09,NaN,-0.4325847,-1.327581E-07,NaN,1.202189,-5.411768E-07,NaN,-1.096812,2.101376E-05,0.1832801,7.102248E-08,NaN,NaN,-0.04065805,1.909207E-10,1.120673E-06,-1.107306E-07,-5.538124E-09,-2.861022E-08
741.9531,-1.064036,-1.656271E-09,NaN,-0.4333874,-1.327588E-07,NaN,1.202409,-5.41513E-07,NaN,-1.101011,2.10142E-05,0.1808471,7.136002E-08,NaN,NaN,-0.04097271,1.955773E-10,1.136171E-06,-1.107317E-07,-7.02824E-09,-2.622604E-08
741.9688,-1.066426,-1.655551E-09,NaN,-0.4342145,-1.327596E-07,NaN,1.202566,-5.418453E-07,NaN,-1.105312,2.101465E-05,0.1784813,7.169372E-08,NaN,NaN,-0.04128115,1.909207E-10,1.145707E-06,-1.107329E-07,-6.730217E-09,-2.861022E-08
741.9832,-1.068853,-1.65483E-09,NaN,-0.4350525,-1.327603E-07,NaN,1.20268,-5.421711E-07,NaN,-1.109625,2.101509E-05,0.1761776,7.202083E-08,NaN,NaN,-0.04158351,1.909207E-10,1.155244E-06,-1.10734E-07,-5.836147E-09,-2.622604E-08
741.9977,-1.068853,-1.65483E-09,NaN,-0.4350525,-1.327603E-07,NaN,1.20268,-5.421711E-07,NaN,-1.109625,2.101509E-05,0.1761776,7.202083E-08,NaN,NaN,-0.04158351,1.909207E-10,1.155244E-06,-1.10734E-07,-5.836147E-09,-2.622604E-08
742.0138,-1.07151,-1.654109E-09,NaN,-0.4359702,-1.327611E-07,NaN,1.202999,-5.424932E-07,NaN,-1.114387,2.101553E-05,0.1732784,7.234432E-08,NaN,NaN,-0.04196308,1.909207E-10,1.170741E-06,-1.107352E-07,-5.240101E-09,-2.861022E-08
742.027,-1.074298,-1.653389E-09,NaN,-0.4369317,-1.327618E-07,NaN,1.20324,-5.42809E-07,NaN,-1.119417,2.101597E-05,0.1704202,7.266142E-08,NaN,NaN,-0.04233517,1.909207E-10,1.185046E-06,-1.107363E-07,-5.836147E-09,-2.622604E-08
742.0417,-1.077156,-1.652668E-09,NaN,-0.437915,-1.327625E-07,NaN,1.203417,-5.431213E-07,NaN,-1.124534,2.101641E-05,0.1676383,7.297509E-08,NaN,NaN,-0.04269992,1.909207E-10,1.199351E-06,-1.107374E-07,-7.773298E-09,-2.861022E-08
742.0565,-1.077156,-1.652668E-09,NaN,-0.437915,-1.327625E-07,NaN,1.203417,-5.431213E-07,NaN,-1.124534,2.101641E-05,0.1676383,7.297509E-08,NaN,NaN,-0.04269992,1.909207E-10,1.199351E-06,-1.107374E-07,-7.773298E-09,-2.861022E-08
742.0703,-1.080262,-1.651947E-09,NaN,-0.4389839,-1.327633E-07,NaN,1.203778,-5.434274E-07,NaN,-1.130128,2.101685E-05,0.1642725,7.328256E-08,NaN,NaN,-0.04314064,1.955773E-10,1.211272E-06,-1.107386E-07,-4.346032E-09,-2.622604E-08
742.0858,-1.083509,-1.651226E-09,NaN,-0.4400991,-1.32764E-07,NaN,1.204051,-5.437303E-07,NaN,-1.135996,2.101729E-05,0.1609664,7.35868E-08,NaN,NaN,-0.04357267,1.955773E-10,1.22677E-06,-1.107397E-07,-4.346032E-09,-2.861022E-08
742.1016,-1.086829,-1.650505E-09,NaN,-0.4412368,-1.327648E-07,NaN,1.204254,-5.440272E-07,NaN,-1.141948,2.101774E-05,0.1577476,7.388502E-08,NaN,NaN,-0.04399617,1.955773E-10,1.238691E-06,-1.107408E-07,-4.346032E-09,-2.622604E-08
742.1152,-1.086829,-1.650505E-09,NaN,-0.4412368,-1.327648E-07,NaN,1.204254,-5.440272E-07,NaN,-1.141948,2.101774E-05,0.1577476,7.388502E-08,NaN,NaN,-0.04399617,1.955773E-10,1.238691E-06,-1.107408E-07,-4.346032E-09,-2.622604E-08
742.129,-1.09018,-1.649785E-09,NaN,-0.4423828,-1.327655E-07,NaN,1.204409,-5.44321E-07,NaN,-1.147893,2.101818E-05,0.1546098,7.418018E-08,NaN,NaN,-0.04441134,1.955773E-10,1.251804E-06,-1.107419E-07,-3.898997E-09,-2.861022E-08
742.1445,-1.093754,-1.649064E-09,NaN,-0.4436054,-1.327662E-07,NaN,1.204746,-5.44609E-07,NaN,-1.154263,2.101862E-05,0.1508912,7.44695E-08,NaN,NaN,-0.04490147,2.002339E-10,1.268493E-06,-1.10743E-07,-5.836148E-09,-2.622604E-08
742.1591,-1.093754,-1.649064E-09,NaN,-0.4436054,-1.327662E-07,NaN,1.204746,-5.44609E-07,NaN,-1.154263,2.101862E-05,0.1508912,7.44695E-08,NaN,NaN,-0.04490147,2.002339E-10,1.268493E-06,-1.10743E-07,-5.836148E-09,-2.622604E-08
742.1734,-1.097451,-1.648343E-09,NaN,-0.4448681,-1.327669E-07,NaN,1.205,-5.44894E-07,NaN,-1.160877,2.101906E-05,0.1472464,7.475595E-08,NaN,NaN,-0.04538194,2.048905E-10,1.280414E-06,-1.107441E-07,-6.283182E-09,-2.861022E-08
742.1888,-1.101207,-1.647623E-09,NaN,-0.4461488,-1.327678E-07,NaN,1.205189,-5.445662E-07,NaN,-1.167555,2.101949E-05,0.1436946,7.442949E-08,NaN,NaN,-0.04585295,2.002339E-10,1.294719E-06,-1.107434E-07,-7.624287E-09,-2.622604E-08
742.2035,-1.104985,-1.646903E-09,NaN,-0.4474343,-1.327681E-07,NaN,1.205332,-5.450071E-07,NaN,-1.174211,2.101993E-05,0.1402299,7.487181E-08,NaN,NaN,-0.04631468,1.955773E-10,1.304256E-06,-1.107442E-07,-5.61263E-09,-2.861022E-08
742.2183,-1.104985,-1.646903E-09,NaN,-0.4474343,-1.327681E-07,NaN,1.205332,-5.450071E-07,NaN,-1.174211,2.101993E-05,0.1402299,7.487181E-08,NaN,NaN,-0.04631468,1.955773E-10,1.304256E-06,-1.107442E-07,-5.61263E-09,-2.861022E-08
742.2324,-1.108978,-1.646184E-09,NaN,-0.4487939,-1.327688E-07,NaN,1.205645,-5.447613E-07,NaN,-1.181278,2.102036E-05,0.1361907,7.462738E-08,NaN,NaN,-0.04685046,1.955773E-10,1.323329E-06,-1.107433E-07,-5.314607E-09,-2.622604E-08
742.2481,-1.113086,-1.645465E-09,NaN,-0.4501911,-1.327691E-07,NaN,1.205876,-5.446385E-07,NaN,-1.188578,2.102079E-05,0.132239,7.450585E-08,NaN,NaN,-0.04737568,1.862641E-10,1.33525E-06,-1.107421E-07,-2.110857E-09,-2.622604E-08
742.2622,-1.117249,-1.644745E-09,NaN,-0.4516042,-1.327691E-07,NaN,1.206045,-5.451878E-07,NaN,-1.195932,2.102122E-05,0.1283857,7.505658E-08,NaN,NaN,-0.04789056,1.862641E-10,1.347171E-06,-1.107426E-07,-2.818663E-09,-2.861022E-08
742.278,-1.117249,-1.644745E-09,NaN,-0.4516042,-1.327691E-07,NaN,1.206045,-5.451878E-07,NaN,-1.195932,2.102122E-05,0.1283857,7.505658E-08,NaN,NaN,-0.04789056,1.862641E-10,1.347171E-06,-1.107426E-07,-2.818663E-09,-2.861022E-08
742.2923,-1.121645,-1.644026E-09,NaN,-0.4530973,-1.327695E-07,NaN,1.206363,-5.450002E-07,NaN,-1.203726,2.102165E-05,0.1239695,7.487026E-08,NaN,NaN,-0.04847841,1.816075E-10,1.360284E-06,-1.107416E-07,-1.179535E-09,-2.622604E-08
742.3063,-1.126168,-1.643307E-09,NaN,-0.4546307,-1.327697E-07,NaN,1.206594,-5.449062E-07,NaN,-1.211761,2.102207E-05,0.1196546,7.477758E-08,NaN,NaN,-0.04905469,1.816075E-10,1.373397E-06,-1.107403E-07,1.708828E-10,-2.622604E-08
742.321,-1.130748,-1.642589E-09,NaN,-0.4561808,-1.327698E-07,NaN,1.20676,-5.448617E-07,NaN,-1.219849,2.10225E-05,0.1154462,7.473449E-08,NaN,NaN,-0.04961963,1.722942E-10,1.381742E-06,-1.10739E-07,7.389895E-10,-2.622604E-08
742.3358,-1.130748,-1.642589E-09,NaN,-0.4561808,-1.327698E-07,NaN,1.20676,-5.448617E-07,NaN,-1.219849,2.10225E-05,0.1154462,7.473449E-08,NaN,NaN,-0.04961963,1.722942E-10,1.381742E-06,-1.10739E-07,7.389895E-10,-2.622604E-08
742.3497,-1.135345,-1.64187E-09,NaN,-0.4577336,-1.327698E-07,NaN,1.206878,-5.448434E-07,NaN,-1.227897,2.102292E-05,0.1113387,7.471752E-08,NaN,NaN,-0.05017346,1.722942E-10,1.391278E-06,-1.107376E-07,-4.33214E-11,-2.622604E-08
742.3652,-1.140151,-1.641152E-09,NaN,-0.4593579,-1.327697E-07,NaN,1.20714,-5.448395E-07,NaN,-1.236338,2.102334E-05,0.1066748,7.471489E-08,NaN,NaN,-0.05079948,1.676376E-10,1.405584E-06,-1.107361E-07,3.664605E-10,-2.622604E-08
742.3799,-1.140151,-1.641152E-09,NaN,-0.4593579,-1.327697E-07,NaN,1.20714,-5.448395E-07,NaN,-1.236338,2.102334E-05,0.1066748,7.471489E-08,NaN,NaN,-0.05079948,1.676376E-10,1.405584E-06,-1.107361E-07,3.664605E-10,-2.622604E-08
742.3937,-1.145066,-1.640434E-09,NaN,-0.4610168,-1.327696E-07,NaN,1.207324,-5.448439E-07,NaN,-1.244991,2.102377E-05,0.1021198,7.472071E-08,NaN,NaN,-0.05141319,1.62981E-10,1.418697E-06,-1.107347E-07,-1.719702E-09,-2.622604E-08
