JMolnar6/NonAnthroHands_User_Study/HandsLoggerWithURDF/tempdata/PID 0 (test)/files/Reachy_PID0_JointMotion_gesture_10_1.csv
Time,r_shoulder,r_shoulder_x,r_upper_arm,r_forearm,r_wrist,r_wrist2hand,
882.3738,0.02677753,-0.5811883,-0.2962976,-0.8448349,0.4901676,-0.4841751
882.3892,0.0275667,-0.5811594,-0.29616,-0.8444899,0.4903247,-0.4841698
882.4036,0.02834639,-0.5811307,-0.2960217,-0.8441489,0.4904791,-0.4841646
882.4182,0.02834639,-0.5811307,-0.2960217,-0.8441489,0.4904791,-0.4841646
882.4323,0.02911672,-0.5811026,-0.295883,-0.8438119,0.4906309,-0.4841595
882.4478,0.02987781,-0.5810747,-0.2957439,-0.8434788,0.4907801,-0.4841546
882.4625,0.03062975,-0.5810472,-0.2956043,-0.8431496,0.4909267,-0.4841497
882.4774,0.03062975,-0.5810472,-0.2956043,-0.8431496,0.4909267,-0.4841497
882.4919,0.03137266,-0.5810201,-0.2954644,-0.8428243,0.4910708,-0.4841449
882.5067,0.03210666,-0.5809934,-0.2953241,-0.8425028,0.4912125,-0.4841402
882.5214,0.03283184,-0.5809669,-0.2951834,-0.842185,0.4913518,-0.4841356
882.5359,0.03283184,-0.5809669,-0.2951834,-0.842185,0.4913518,-0.4841356
882.5522,0.03354831,-0.5809408,-0.2950425,-0.841871,0.4914886,-0.4841311
882.5654,0.03425618,-0.5809151,-0.2949014,-0.8415606,0.4916231,-0.4841267
882.5802,0.03495555,-0.5808897,-0.29476,-0.8412539,0.4917553,-0.4841225
882.5964,0.03495555,-0.5808897,-0.29476,-0.8412539,0.4917553,-0.4841225
882.6089,0.03564652,-0.5808646,-0.2946185,-0.8409507,0.4918853,-0.4841182
882.624,0.0363292,-0.5808399,-0.2944767,-0.8406512,0.492013,-0.4841141
882.6385,0.0363292,-0.5808399,-0.2944767,-0.8406512,0.492013,-0.4841141
882.6526,0.03700368,-0.5808154,-0.2943348,-0.8403551,0.4921385,-0.48411
882.668,0.03767006,-0.5807914,-0.2941929,-0.8400625,0.4922619,-0.4841061
882.6827,0.03832844,-0.5807676,-0.2940508,-0.8397734,0.4923832,-0.4841022
882.6973,0.03832844,-0.5807676,-0.2940508,-0.8397734,0.4923832,-0.4841022
882.7115,0.03897891,-0.5807441,-0.2939087,-0.8394876,0.4925024,-0.4840984
882.7271,0.03962158,-0.5807209,-0.2937665,-0.8392052,0.4926195,-0.4840947
882.7416,0.04025653,-0.580698,-0.2936243,-0.8389261,0.4927346,-0.484091
882.7565,0.04025653,-0.580698,-0.2936243,-0.8389261,0.4927346,-0.484091
882.7705,0.04088385,-0.5806754,-0.2934822,-0.8386503,0.4928477,-0.4840875
882.7857,0.04150364,-0.5806531,-0.29334,-0.8383778,0.4929589,-0.484084
882.8005,0.04211599,-0.5806311,-0.293198,-0.8381084,0.4930682,-0.4840806
882.8163,0.04211599,-0.5806311,-0.293198,-0.8381084,0.4930682,-0.4840806
882.8303,0.04272099,-0.5806094,-0.293056,-0.8378422,0.4931756,-0.4840772
882.8447,0.04331873,-0.580588,-0.2929141,-0.8375792,0.4932811,-0.4840739
882.8594,0.04331873,-0.580588,-0.2929141,-0.8375792,0.4932811,-0.4840739
882.8733,0.04390929,-0.5805669,-0.2927723,-0.8373193,0.4933848,-0.4840707
882.8888,0.04449275,-0.580546,-0.2926307,-0.8370624,0.4934867,-0.4840676
882.9032,0.04506921,-0.5805255,-0.2924892,-0.8368085,0.4935869,-0.4840645
882.918,0.04506921,-0.5805255,-0.2924892,-0.8368085,0.4935869,-0.4840645
882.9323,0.04563875,-0.5805051,-0.2923479,-0.8365576,0.4936853,-0.4840615
882.9476,0.04620146,-0.5804851,-0.2922068,-0.8363097,0.4937821,-0.4840585
882.9623,0.04675741,-0.5804653,-0.292066,-0.8360648,0.4938771,-0.4840556
882.9773,0.04675741,-0.5804653,-0.292066,-0.8360648,0.4938771,-0.4840556
882.9913,0.04730668,-0.5804458,-0.2919253,-0.8358227,0.4939706,-0.4840528
883.007,0.04784936,-0.5804265,-0.291785,-0.8355835,0.4940624,-0.48405
883.0216,0.04838552,-0.5804075,-0.2916449,-0.8353471,0.4941526,-0.4840473
883.0364,0.04838552,-0.5804075,-0.2916449,-0.8353471,0.4941526,-0.4840473
883.0505,0.04891524,-0.5803887,-0.2915051,-0.8351135,0.4942412,-0.4840447
883.0666,0.04943861,-0.5803702,-0.2913656,-0.8348827,0.4943283,-0.4840421
883.0807,0.04995569,-0.5803519,-0.2912264,-0.8346547,0.4944139,-0.4840395
883.0953,0.04995569,-0.5803519,-0.2912264,-0.8346547,0.4944139,-0.4840395
883.1093,0.05046657,-0.5803338,-0.2910875,-0.8344293,0.494498,-0.484037
883.1245,0.05097131,-0.580316,-0.290949,-0.8342066,0.4945807,-0.4840346
883.1392,0.05097131,-0.580316,-0.290949,-0.8342066,0.4945807,-0.4840346
883.1531,0.05146999,-0.5802984,-0.2908109,-0.8339866,0.4946619,-0.4840322
883.1686,0.05196268,-0.5802811,-0.2906731,-0.8337691,0.4947417,-0.4840299
883.1833,0.05244946,-0.580264,-0.2905357,-0.8335543,0.4948201,-0.4840276
883.1979,0.05244946,-0.580264,-0.2905357,-0.8335543,0.4948201,-0.4840276
883.2121,0.0529304,-0.580247,-0.2903987,-0.833342,0.4948972,-0.4840254
883.2275,0.05340556,-0.5802304,-0.2902622,-0.8331321,0.4949729,-0.4840232
883.2423,0.05387502,-0.5802139,-0.2901261,-0.8329248,0.4950472,-0.484021
883.257,0.05387502,-0.5802139,-0.2901261,-0.8329248,0.4950472,-0.484021
883.2709,0.05433884,-0.5801976,-0.2899903,-0.83272,0.4951203,-0.484019
883.2865,0.05479709,-0.5801816,-0.2898551,-0.8325176,0.4951921,-0.4840169
883.3011,0.05524984,-0.5801657,-0.2897203,-0.8323175,0.4952627,-0.4840149
883.3159,0.05524984,-0.5801657,-0.2897203,-0.8323175,0.4952627,-0.4840149
883.3319,0.05569715,-0.5801501,-0.289586,-0.8321199,0.495332,-0.4840129
883.3453,0.0561391,-0.5801347,-0.2894521,-0.8319246,0.4954001,-0.484011
883.36,0.0561391,-0.5801347,-0.2894521,-0.8319246,0.4954001,-0.484011
883.3739,0.05657574,-0.5801195,-0.2893188,-0.8317317,0.495467,-0.4840091
883.39,0.057348,-0.5800909,-0.2898252,-0.8315886,0.4961781,-0.4839613
883.4036,0.05832321,-0.5800545,-0.2904536,-0.8313891,0.496957,-0.4839143
883.4183,0.05832321,-0.5800545,-0.2904536,-0.8313891,0.496957,-0.4839143
883.4324,0.05941883,-0.5800136,-0.2911086,-0.8311405,0.4977503,-0.4838683
883.4481,0.06058354,-0.5799704,-0.2917578,-0.8308563,0.4985451,-0.4838232
883.4625,0.06144462,-0.5799395,-0.2917502,-0.8305012,0.4986916,-0.4838249
883.4773,0.06144462,-0.5799395,-0.2917502,-0.8305012,0.4986916,-0.4838249
883.4913,0.06211506,-0.5799161,-0.291598,-0.8301905,0.4987582,-0.4838268
883.5067,0.06266519,-0.5798973,-0.2913978,-0.829923,0.4987973,-0.4838286
883.5213,0.06313883,-0.5798814,-0.2911836,-0.8296893,0.4988209,-0.4838304
883.5366,0.06313883,-0.5798814,-0.2911836,-0.8296893,0.4988209,-0.4838304
883.5503,0.06322242,-0.5798808,-0.2903316,-0.8294324,0.4981938,-0.4838781
883.5659,0.0630669,-0.5798882,-0.289363,-0.8292522,0.4974903,-0.483925
883.5804,0.06276496,-0.5799002,-0.2883754,-0.8291352,0.4967678,-0.4839709
883.5959,0.06276496,-0.5799002,-0.2883754,-0.8291352,0.4967678,-0.4839709
883.6095,0.06203347,-0.5799284,-0.2867619,-0.8290163,0.4953979,-0.4840619
883.6245,0.06104103,-0.5799659,-0.2850508,-0.8289877,0.4939599,-0.4841512
883.6392,0.06104103,-0.5799659,-0.2850508,-0.8289877,0.4939599,-0.4841512
883.653,0.05989258,-0.5800086,-0.2833413,-0.8290311,0.4925133,-0.4842387
883.6683,0.05865334,-0.580054,-0.281665,-0.8291255,0.4910735,-0.4843244
883.683,0.05702301,-0.5801143,-0.2793912,-0.8292059,0.4890027,-0.4844544
883.6977,0.05702301,-0.5801143,-0.2793912,-0.8292059,0.4890027,-0.4844544
883.7118,0.05515952,-0.5801829,-0.2770414,-0.8293676,0.4868812,-0.4845819
883.7271,0.05316107,-0.5802557,-0.2747092,-0.8295943,0.4847656,-0.4847068
883.742,0.05108866,-0.5803306,-0.2724235,-0.8298671,0.4826699,-0.4848293
883.7568,0.05108866,-0.5803306,-0.2724235,-0.8298671,0.4826699,-0.4848293
883.7706,0.04863923,-0.5804197,-0.2695501,-0.8301217,0.4799496,-0.4849952
883.7862,0.04596907,-0.5805165,-0.2666152,-0.8304545,0.4771923,-0.485158
883.8008,0.04317524,-0.5806169,-0.2637106,-0.83085,0.4744526,-0.4853176
883.8158,0.04317524,-0.5806169,-0.2637106,-0.83085,0.4744526,-0.4853176
883.83,0.03997707,-0.5807323,-0.260219,-0.8312404,0.4710861,-0.4855199
883.8474,0.03654479,-0.5808555,-0.2566794,-0.8317184,0.4676916,-0.4857183
883.861,0.0329841,-0.5809823,-0.2531853,-0.8322652,0.4643237,-0.4859128
883.8747,0.0329841,-0.5809823,-0.2531853,-0.8322652,0.4643237,-0.4859128
883.8887,0.02936055,-0.5811102,-0.2497656,-0.8328594,0.4609965,-0.4861034
883.9039,0.02537373,-0.5812516,-0.2457787,-0.8334339,0.4570504,-0.4863361
883.9184,0.02537373,-0.5812516,-0.2457787,-0.8334339,0.4570504,-0.4863361
883.9326,0.02118167,-0.5813996,-0.2417624,-0.8340853,0.4530939,-0.4865643
883.948,0.01688238,-0.5815503,-0.2378035,-0.8347975,0.4491767,-0.4867879
883.9628,0.01253662,-0.5817016,-0.2339288,-0.8355516,0.4453112,-0.4870072
883.9776,0.01253662,-0.5817016,-0.2339288,-0.8355516,0.4453112,-0.4870072
883.9916,0.007840851,-0.5818659,-0.2294918,-0.8362811,0.440826,-0.487268
884.007,0.002951224,-0.5820363,-0.2250388,-0.8370841,0.4363446,-0.4875237
884.0217,-0.002035439,-0.582209,-0.2206535,-0.8379453,0.4319127,-0.4877743
884.0365,-0.002035439,-0.582209,-0.2206535,-0.8379453,0.4319127,-0.4877743
884.0507,-0.007400348,-0.5823954,-0.2157046,-0.838795,0.4268552,-0.4880659
884.0661,-0.0129734,-0.5825881,-0.2107532,-0.8397274,0.4218111,-0.4883517
884.0809,-0.01864917,-0.5827829,-0.2058834,-0.840724,0.416825,-0.4886319
884.0959,-0.01864917,-0.5827829,-0.2058834,-0.840724,0.416825,-0.4886319
884.1118,-0.02436242,-0.5829777,-0.2011214,-0.841764,0.4119087,-0.4889065
884.1251,-0.03041414,-0.5831848,-0.1958115,-0.842778,0.4063688,-0.4892215
884.1396,-0.03041414,-0.5831848,-0.1958115,-0.842778,0.4063688,-0.4892215
884.1536,-0.03664641,-0.5833973,-0.1905161,-0.8438638,0.4008597,-0.4895304
884.169,-0.04296146,-0.5836113,-0.1853118,-0.8450063,0.3954201,-0.4898331
884.1835,-0.04929882,-0.5838248,-0.1802227,-0.8461867,0.3900601,-0.4901297
884.1983,-0.04929882,-0.5838248,-0.1802227,-0.8461867,0.3900601,-0.4901297
884.2123,-0.05596264,-0.5840505,-0.1745881,-0.8473365,0.3840714,-0.4904664
884.2277,-0.06279682,-0.5842811,-0.1689798,-0.8485549,0.3781278,-0.4907965
884.2424,-0.06970476,-0.5845129,-0.163471,-0.8498275,0.3722628,-0.49112
884.2572,-0.06970476,-0.5845129,-0.163471,-0.8498275,0.3722628,-0.49112
884.2712,-0.07696824,-0.5847575,-0.1574151,-0.8510824,0.3657621,-0.491483
884.2867,-0.08441719,-0.5850073,-0.1513983,-0.8524154,0.3593165,-0.4918388
884.3013,-0.0919464,-0.5852581,-0.1454935,-0.8538086,0.3529578,-0.4921875
884.3162,-0.0919464,-0.5852581,-0.1454935,-0.8538086,0.3529578,-0.4921875
884.3302,-0.0994909,-0.5855079,-0.1397238,-0.855242,0.3466954,-0.4925292
884.3457,-0.1073523,-0.5857694,-0.1334202,-0.856644,0.3397959,-0.4929101
884.3624,-0.1153727,-0.5860352,-0.1271699,-0.8581136,0.3329678,-0.4932834
884.3762,-0.1153727,-0.5860352,-0.1271699,-0.8581136,0.3329678,-0.4932834
884.3901,-0.1234545,-0.5863016,-0.1210387,-0.8596361,0.3262369,-0.4936493
884.4044,-0.1315374,-0.5865667,-0.1150478,-0.8611938,0.3196109,-0.4940079
884.4191,-0.1315374,-0.5865667,-0.1150478,-0.8611938,0.3196109,-0.4940079
884.433,-0.1399264,-0.5868434,-0.1085244,-0.8627161,0.3123414,-0.4944053
884.4484,-0.1484651,-0.5871241,-0.1020638,-0.8643031,0.3051561,-0.4947948
884.463,-0.1570573,-0.5874052,-0.09572837,-0.865941,0.2980765,-0.4951765
884.4778,-0.1570573,-0.5874052,-0.09572837,-0.865941,0.2980765,-0.4951765
884.4922,-0.1659852,-0.5876985,-0.08885963,-0.8675569,0.290347,-0.4955965
884.5096,-0.1750788,-0.5879959,-0.08206483,-0.8692468,0.2827115,-0.4960082
884.522,-0.184233,-0.5882937,-0.07540639,-0.8709942,0.2751896,-0.4964116
884.5366,-0.184233,-0.5882937,-0.07540639,-0.8709942,0.2751896,-0.4964116
884.5508,-0.193383,-0.5885897,-0.06890443,-0.8727795,0.2677881,-0.4968071
884.5663,-0.2028311,-0.5888968,-0.06188086,-0.8745303,0.2597343,-0.4972405
884.5809,-0.2124194,-0.5892075,-0.05494158,-0.8763453,0.2517879,-0.4976653
884.5955,-0.2124194,-0.5892075,-0.05494158,-0.8763453,0.2517879,-0.4976653
884.6099,-0.2220504,-0.5895181,-0.04814334,-0.8782108,0.2439639,-0.4980817
884.6261,-0.231664,-0.5898268,-0.04150459,-0.8801098,0.2362679,-0.4984898
884.6409,-0.2415657,-0.5901465,-0.03434536,-0.8819712,0.2279133,-0.4989356
884.6542,-0.2415657,-0.5901465,-0.03434536,-0.8819712,0.2279133,-0.4989356
884.6683,-0.2515993,-0.5904697,-0.0272765,-0.8838942,0.2196763,-0.4993726
884.6835,-0.2616684,-0.5907926,-0.02035267,-0.8858662,0.2115692,-0.4998009
884.6981,-0.2616684,-0.5907926,-0.02035267,-0.8858662,0.2115692,-0.4998009
884.7122,-0.2720561,-0.5911271,-0.01290844,-0.8878142,0.2027987,-0.5002664
884.7276,-0.2825921,-0.5914651,-0.005563724,-0.8898335,0.1941544,-0.5007228
884.7422,-0.2931715,-0.5918027,0.001626369,-0.8919086,0.1856477,-0.50117
884.757,-0.2931715,-0.5918027,0.001626369,-0.8919086,0.1856477,-0.50117
884.7709,-0.3037296,-0.5921381,0.008644467,-0.8940208,0.1772828,-0.5016084
884.7864,-0.3145695,-0.5924842,0.01617283,-0.896098,0.1682512,-0.5020839
884.8011,-0.3255331,-0.5928333,0.02359517,-0.8982373,0.1593558,-0.5025499
884.8159,-0.3255331,-0.5928333,0.02359517,-0.8982373,0.1593558,-0.5025499
884.83,-0.3365228,-0.5931817,0.03086057,-0.9004261,0.1506053,-0.5030068
884.8455,-0.347479,-0.5935278,0.03795303,-0.9026479,0.1420028,-0.5034545
884.8603,-0.3587077,-0.5938845,0.04555517,-0.9048327,0.1327273,-0.5039392
884.8749,-0.3587077,-0.5938845,0.04555517,-0.9048327,0.1327273,-0.5039392
884.8911,-0.3700526,-0.5942441,0.05304814,-0.9070774,0.1235957,-0.5044142
884.9043,-0.3814173,-0.5946029,0.06038209,-0.9093704,0.1146154,-0.5048798
884.9189,-0.3814173,-0.5946029,0.06038209,-0.9093704,0.1146154,-0.5048798
884.9329,-0.3930856,-0.5949729,0.06822525,-0.9116404,0.1049584,-0.505382
884.9484,-0.4048871,-0.5953459,0.07595167,-0.9139803,0.09545319,-0.5058742
884.963,-0.4167167,-0.595718,0.08351087,-0.9163756,0.08610655,-0.5063567
884.9776,-0.4167167,-0.595718,0.08351087,-0.9163756,0.08610655,-0.5063567
884.9917,-0.4285102,-0.5960874,0.09088787,-0.9188083,0.07692043,-0.5068296
885.0073,-0.4405712,-0.5964671,0.09876601,-0.9212084,0.06705275,-0.5073389
885.0217,-0.4527413,-0.5968494,0.1065237,-0.9236701,0.05734463,-0.5078381
885.0366,-0.4527413,-0.5968494,0.1065237,-0.9236701,0.05734463,-0.5078381
885.0506,-0.4649232,-0.5972307,0.1141136,-0.9261812,0.04780114,-0.5083275
885.0662,-0.4770572,-0.5976092,0.121522,-0.928726,0.03842323,-0.5088072
885.0811,-0.4894502,-0.597998,0.1294319,-0.9312373,0.02835674,-0.5093232
885.0959,-0.4894502,-0.597998,0.1294319,-0.9312373,0.02835674,-0.5093232
885.1099,-0.5019456,-0.5983893,0.13722,-0.9338084,0.01845641,-0.509829
885.1254,-0.5144471,-0.5987794,0.1448397,-0.9364281,0.008726209,-0.5103248
885.142,-0.5268958,-0.5991667,0.1522775,-0.9390813,-0.000833611,-0.5108108
885.1562,-0.5268958,-0.5991667,0.1522775,-0.9390813,-0.000833611,-0.5108108
885.1699,-0.5395991,-0.5995643,0.1602163,-0.9417025,-0.01108913,-0.511333
885.1841,-0.5524006,-0.5999643,0.1680312,-0.9443834,-0.02117205,-0.5118449
885.1987,-0.5524006,-0.5999643,0.1680312,-0.9443834,-0.02117205,-0.5118449
885.2128,-0.5652044,-0.6003631,0.1756767,-0.9471132,-0.03107941,-0.5123467
885.2283,-0.5782951,-0.6007726,0.1838223,-0.9498259,-0.04168498,-0.5128844
885.2428,-0.591502,-0.6011845,0.1918373,-0.9526087,-0.05210976,-0.5134114
885.2576,-0.591502,-0.6011845,0.1918373,-0.9526087,-0.05210976,-0.5134114
885.2715,-0.6047202,-0.601595,0.1996758,-0.9554476,-0.06235146,-0.5139281
885.2874,-0.6178855,-0.6020024,0.2073255,-0.9583255,-0.07241104,-0.5144346
885.3019,-0.6313025,-0.6024199,0.2154694,-0.961179,-0.08317579,-0.5149769
885.3167,-0.6313025,-0.6024199,0.2154694,-0.961179,-0.08317579,-0.5149769
885.3307,-0.6448126,-0.6028394,0.2234812,-0.9640951,-0.09375349,-0.5155085
885.3463,-0.6583185,-0.6032572,0.2313175,-0.9670618,-0.1041431,-0.5160297
885.3612,-0.6717605,-0.603672,0.2389667,-0.9700639,-0.1143462,-0.5165406
885.376,-0.6717605,-0.603672,0.2389667,-0.9700639,-0.1143462,-0.5165406
885.3918,-0.6854466,-0.6040969,0.2471115,-0.973042,-0.1252621,-0.5170873
885.4064,-0.6992197,-0.6045238,0.2551241,-0.9760814,-0.1359849,-0.5176232
885.42,-0.6992197,-0.6045238,0.2551241,-0.9760814,-0.1359849,-0.5176232
885.434,-0.7129836,-0.6049491,0.2629616,-0.9791705,-0.1465145,-0.5181487
885.4493,-0.7270237,-0.6053849,0.2712941,-0.9822508,-0.1577586,-0.5187097
885.4638,-0.7411688,-0.6058227,0.2794883,-0.9854024,-0.1688008,-0.5192596
885.4786,-0.7411688,-0.6058227,0.2794883,-0.9854024,-0.1688008,-0.5192596
885.4937,-0.7553141,-0.6062588,0.2875014,-0.9886109,-0.1796421,-0.5197988
885.5084,-0.7693952,-0.6066915,0.2953224,-0.9918595,-0.1902853,-0.5203273
885.5229,-0.7837177,-0.607134,0.3036338,-0.9950932,-0.2016513,-0.5208914
885.5379,-0.7837177,-0.607134,0.3036338,-0.9950932,-0.2016513,-0.5208914
885.5519,-0.7981226,-0.6075783,0.3118067,-0.9983907,-0.2128099,-0.5214444
885.5676,-0.8125125,-0.6080207,0.3198003,-1.00174,-0.223763,-0.5219866
885.5825,-0.8268279,-0.6084597,0.3276042,-1.005125,-0.2345142,-0.5225182
885.597,-0.8268279,-0.6084597,0.3276042,-1.005125,-0.2345142,-0.5225182
885.6113,-0.8413774,-0.6089087,0.3359001,-1.008497,-0.2459962,-0.5230852
885.6269,-0.8560038,-0.6093594,0.3440581,-1.011932,-0.257265,-0.5236412
885.6422,-0.8706108,-0.6098082,0.3520379,-1.015417,-0.2683235,-0.5241862
885.6569,-0.8706108,-0.6098082,0.3520379,-1.015417,-0.2683235,-0.5241862
885.6699,-0.8854843,-0.6102674,0.3605087,-1.018903,-0.2801135,-0.5247665
885.6852,-0.900453,-0.6107283,0.3688361,-1.022463,-0.2916809,-0.5253354
885.7,-0.915412,-0.6111872,0.3769796,-1.026079,-0.3030298,-0.5258932
885.7145,-0.915412,-0.6111872,0.3769796,-1.026079,-0.3030298,-0.5258932
885.7285,-0.930297,-0.6116424,0.3849295,-1.029735,-0.3141653,-0.52644
885.744,-0.9454143,-0.6121073,0.3933666,-1.033389,-0.3260414,-0.5270222
885.7589,-0.9454143,-0.6121073,0.3933666,-1.033389,-0.3260414,-0.5270222
885.7728,-0.9606046,-0.6125737,0.4016607,-1.037108,-0.33769,-0.5275929
885.7884,-0.9757705,-0.613038,0.4097734,-1.040877,-0.349116,-0.5281525
885.8028,-0.9908524,-0.6134987,0.4176953,-1.044683,-0.3603249,-0.5287011
885.8177,-0.9908524,-0.6134987,0.4176953,-1.044683,-0.3603249,-0.5287011
885.8318,-1.00616,-0.6139693,0.4261054,-1.048489,-0.3722826,-0.5292851
885.8474,-1.021535,-0.6144413,0.434374,-1.052358,-0.3840069,-0.5298576
885.8619,-1.036882,-0.6149113,0.4424626,-1.056276,-0.395504,-0.530419
885.877,-1.036882,-0.6149113,0.4424626,-1.056276,-0.395504,-0.530419
885.8911,-1.052142,-0.6153777,0.4503618,-1.060229,-0.4067799,-0.5309694
885.9075,-1.067279,-0.6158401,0.4580733,-1.064204,-0.4178399,-0.531509
885.921,-1.082272,-0.6162986,0.4656029,-1.068191,-0.4286888,-0.5320382
885.9355,-1.082272,-0.6162986,0.4656029,-1.068191,-0.4286888,-0.5320382
885.9499,-1.097108,-0.6167533,0.4729566,-1.072183,-0.4393308,-0.5325571
885.9651,-1.111436,-0.6171907,0.4794666,-1.07619,-0.4487908,-0.5330198
885.9799,-1.111436,-0.6171907,0.4794666,-1.07619,-0.4487908,-0.5330198
885.9938,-1.125388,-0.617619,0.4857702,-1.080144,-0.4580809,-0.5334737
886.0097,-1.139047,-0.6180421,0.4919164,-1.084049,-0.4672018,-0.5339189
886.0242,-1.152463,-0.6184618,0.4979244,-1.087914,-0.4761529,-0.5343553
886.0391,-1.152463,-0.6184618,0.4979244,-1.087914,-0.4761529,-0.5343553
886.053,-1.165325,-0.6188649,0.5031314,-1.091755,-0.4839484,-0.5347371
886.0686,-1.177789,-0.6192596,0.5081671,-1.095519,-0.491607,-0.5351117
886.0834,-1.189953,-0.6196495,0.513078,-1.099218,-0.4991276,-0.535479
886.0981,-1.189953,-0.6196495,0.513078,-1.099218,-0.4991276,-0.535479
886.1124,-1.201532,-0.6200225,0.5172141,-1.102872,-0.5055177,-0.5357931
886.1278,-1.2127,-0.620387,0.5212023,-1.106434,-0.5117989,-0.5361012
886.1436,-1.223566,-0.6207466,0.5250897,-1.10992,-0.5179692,-0.5364033
886.1586,-1.223566,-0.6207466,0.5250897,-1.10992,-0.5179692,-0.5364033
886.1714,-1.234199,-0.621103,0.5288922,-1.113348,-0.5240248,-0.5366996
886.1866,-1.244292,-0.6214431,0.5319521,-1.116729,-0.5289697,-0.5369439
886.201,-1.254011,-0.6217745,0.5348842,-1.120024,-0.5338305,-0.5371836
886.2158,-1.254011,-0.6217745,0.5348842,-1.120024,-0.5338305,-0.5371836
886.23,-1.263457,-0.6221008,0.5377353,-1.123245,-0.5386061,-0.5374188
886.2452,-1.272691,-0.6224237,0.5405209,-1.126409,-0.5432922,-0.5376493
886.26,-1.281408,-0.6227301,0.5425887,-1.129524,-0.5468897,-0.5378292
886.2747,-1.281408,-0.6227301,0.5425887,-1.129524,-0.5468897,-0.5378292
886.2888,-1.28977,-0.6230274,0.5445457,-1.132552,-0.5504283,-0.5380057
886.3043,-1.297875,-0.6233193,0.5464404,-1.135507,-0.5539072,-0.5381789
886.319,-1.297875,-0.6233193,0.5464404,-1.135507,-0.5539072,-0.5381789
886.3333,-1.30544,-0.6235939,0.5476356,-1.1384,-0.5563232,-0.5383025
886.3487,-1.31264,-0.6238589,0.5487367,-1.141197,-0.5587058,-0.5384238
886.3635,-1.319584,-0.6241182,0.5497938,-1.143915,-0.5610534,-0.5385429
886.3782,-1.319584,-0.6241182,0.5497938,-1.143915,-0.5610534,-0.5385429
886.3922,-1.32634,-0.6243739,0.5508229,-1.14657,-0.5633596,-0.5386596
886.4087,-1.332603,-0.6246129,0.5511797,-1.14917,-0.5646214,-0.5387279
886.4223,-1.338536,-0.6248425,0.5514575,-1.151681,-0.5658708,-0.5387951
886.437,-1.338536,-0.6248425,0.5514575,-1.151681,-0.5658708,-0.5387951
886.451,-1.34424,-0.6250664,0.5517062,-1.154117,-0.5671068,-0.5388609
886.4662,-1.349778,-0.6252865,0.5519418,-1.156494,-0.5683227,-0.5389255
886.4809,-1.354842,-0.62549,0.5515252,-1.158818,-0.5685151,-0.5389427
886.4957,-1.354842,-0.62549,0.5515252,-1.158818,-0.5685151,-0.5389427
886.5099,-1.359593,-0.625684,0.5510424,-1.161055,-0.5687166,-0.5389597
886.525,-1.364131,-0.6258721,0.5505449,-1.163219,-0.5689261,-0.5389764
886.5397,-1.364131,-0.6258721,0.5505449,-1.163219,-0.5689261,-0.5389764
886.5536,-1.368172,-0.6260427,0.5494093,-1.16532,-0.568137,-0.5389467
886.5692,-1.371889,-0.6262032,0.5482208,-1.167326,-0.5673804,-0.5389177
886.5855,-1.375391,-0.6263576,0.5470327,-1.169255,-0.5666534,-0.5388893
886.5986,-1.375391,-0.6263576,0.5470327,-1.169255,-0.5666534,-0.5388893
886.6127,-1.378747,-0.6265081,0.5458613,-1.171123,-0.5659477,-0.5388615
886.6284,-1.381649,-0.626642,0.5440754,-1.172938,-0.5642591,-0.5387881
886.6429,-1.384262,-0.6267663,0.5422488,-1.174666,-0.5626201,-0.5387163
886.6591,-1.384262,-0.6267663,0.5422488,-1.174666,-0.5626201,-0.5387163
886.6726,-1.386685,-0.6268848,0.5404339,-1.176323,-0.5610281,-0.538646
886.687,-1.388982,-0.6269995,0.5386474,-1.177924,-0.5594746,-0.5385771
886.7018,-1.390843,-0.6270978,0.5362621,-1.179476,-0.5569563,-0.5384634
886.7162,-1.390843,-0.6270978,0.5362621,-1.179476,-0.5569563,-0.5384634
886.7302,-1.392429,-0.6271866,0.533846,-1.180945,-0.5545058,-0.538352
886.7456,-1.39384,-0.6272695,0.5314526,-1.182346,-0.5521195,-0.5382429
886.7603,-1.395138,-0.6273488,0.5290989,-1.183692,-0.5497884,-0.5381361
886.7749,-1.395138,-0.6273488,0.5290989,-1.183692,-0.5497884,-0.5381361
886.7889,-1.396012,-0.6274118,0.5261615,-1.184993,-0.5465104,-0.5379851
886.8041,-1.396624,-0.6274654,0.5232032,-1.186213,-0.5433175,-0.5378373
886.819,-1.396624,-0.6274654,0.5232032,-1.186213,-0.5433175,-0.5378373
886.8329,-1.397073,-0.6275131,0.520278,-1.187367,-0.5402049,-0.5376924
886.8487,-1.397073,-0.6275436,0.5167785,-1.188466,-0.5361681,-0.5375043
886.8631,-1.396799,-0.6275637,0.5132688,-1.189478,-0.5322367,-0.53732
886.8782,-1.396799,-0.6275637,0.5132688,-1.189478,-0.5322367,-0.53732
886.8922,-1.396359,-0.6275777,0.5098042,-1.190419,-0.5284033,-0.5371395
886.9077,-1.39582,-0.627588,0.5064024,-1.191304,-0.5246573,-0.5369626
886.9233,-1.394875,-0.6275839,0.5024453,-1.19215,-0.5199988,-0.5367429
886.9378,-1.394875,-0.6275839,0.5024453,-1.19215,-0.5199988,-0.5367429
886.951,-1.393687,-0.6275713,0.4984869,-1.192916,-0.5154581,-0.5365278
886.9663,-1.392354,-0.6275537,0.4945817,-1.193618,-0.5110275,-0.5363169
886.9808,-1.39094,-0.6275332,0.4907473,-1.194271,-0.5066963,-0.5361103
886.9955,-1.39094,-0.6275332,0.4907473,-1.194271,-0.5066963,-0.5361103
887.0094,-1.389135,-0.6274974,0.4863687,-1.194888,-0.5014677,-0.5358616
887.0248,-1.387099,-0.6274526,0.4819961,-1.195431,-0.4963707,-0.5356179
887.0396,-1.387099,-0.6274526,0.4819961,-1.195431,-0.4963707,-0.5356179
887.0536,-1.384932,-0.6274026,0.4776843,-1.195912,-0.4913959,-0.5353791
887.0692,-1.382347,-0.6273361,0.4728345,-1.196351,-0.4855445,-0.5350989
887.0837,-1.379518,-0.6272601,0.4679989,-1.196707,-0.4798422,-0.5348244
887.0984,-1.379518,-0.6272601,0.4679989,-1.196707,-0.4798422,-0.5348244
887.1124,-1.376554,-0.6271788,0.4632344,-1.196999,-0.4742769,-0.5345554
887.1277,-1.37352,-0.6270947,0.4585593,-1.197239,-0.4688369,-0.5342918
887.1426,-1.370111,-0.6269957,0.453363,-1.197451,-0.4625305,-0.5339872
887.1575,-1.370111,-0.6269957,0.453363,-1.197451,-0.4625305,-0.5339872
887.1713,-1.366488,-0.6268883,0.4481889,-1.19759,-0.4563823,-0.5336887
887.1875,-1.362751,-0.6267764,0.4430921,-1.197668,-0.4503796,-0.5333963
887.202,-1.358962,-0.6266624,0.4380909,-1.197702,-0.4445111,-0.5331097
887.2162,-1.358962,-0.6266624,0.4380909,-1.197702,-0.4445111,-0.5331097
887.2299,-1.354811,-0.6265339,0.4325769,-1.197713,-0.4377897,-0.5327826
887.2451,-1.350459,-0.6263974,0.4270904,-1.197655,-0.4312366,-0.5324621
887.2598,-1.350459,-0.6263974,0.4270904,-1.197655,-0.4312366,-0.5324621
887.2738,-1.346003,-0.6262569,0.4216871,-1.197539,-0.4248378,-0.532148
887.2893,-1.341157,-0.6261008,0.4157747,-1.197394,-0.4176058,-0.531794
887.3035,-1.336097,-0.6259362,0.4098966,-1.197172,-0.4105567,-0.5314472
887.3182,-1.336097,-0.6259362,0.4098966,-1.197172,-0.4105567,-0.5314472
887.3322,-1.330927,-0.6257673,0.4041103,-1.196887,-0.4036741,-0.5311073
887.3478,-1.325716,-0.6255966,0.3984348,-1.196556,-0.3969459,-0.5307742
887.3625,-1.320156,-0.6254121,0.3922653,-1.196209,-0.3893935,-0.5304015
887.3773,-1.320156,-0.6254121,0.3922653,-1.196209,-0.3893935,-0.5304015
887.3911,-1.314408,-0.6252201,0.3861366,-1.195792,-0.38203,-0.5300363
887.4068,-1.308573,-0.6250246,0.3801045,-1.19532,-0.3748385,-0.5296785
887.4212,-1.302711,-0.624828,0.3741879,-1.194804,-0.3678074,-0.5293277
887.4362,-1.302711,-0.624828,0.3741879,-1.194804,-0.3678074,-0.5293277
887.4501,-1.296513,-0.6246181,0.3677835,-1.19428,-0.3599646,-0.5289378
887.4664,-1.290139,-0.624401,0.3614237,-1.193689,-0.3523173,-0.5285557
887.4803,-1.283686,-0.6241809,0.3551649,-1.193044,-0.344848,-0.5281813
887.4948,-1.283686,-0.6241809,0.3551649,-1.193044,-0.344848,-0.5281813
887.5091,-1.276868,-0.6239461,0.3484202,-1.192382,-0.3365856,-0.5277681
887.5241,-1.269859,-0.6237038,0.3417254,-1.191645,-0.3285303,-0.5273634
887.5388,-1.269859,-0.6237038,0.3417254,-1.191645,-0.3285303,-0.5273634
887.5528,-1.262766,-0.6234581,0.3351391,-1.190849,-0.3206629,-0.5269668
887.5683,-1.255654,-0.6232116,0.3286808,-1.190007,-0.312971,-0.5265779
887.5831,-1.248217,-0.6229521,0.3217503,-1.189161,-0.3044948,-0.5261508
887.5976,-1.248217,-0.6229521,0.3217503,-1.189161,-0.3044948,-0.5261508
887.6118,-1.240616,-0.6226861,0.314875,-1.188249,-0.2962283,-0.5257322
887.6278,-1.232949,-0.6224174,0.3081116,-1.187281,-0.2881526,-0.5253219
887.6418,-1.225279,-0.6221486,0.3014794,-1.186273,-0.2802562,-0.5249197
887.6568,-1.225279,-0.6221486,0.3014794,-1.186273,-0.2802562,-0.5249197
887.6707,-1.217294,-0.6218674,0.2943799,-1.185267,-0.2715875,-0.5244795
887.6862,-1.209156,-0.6215799,0.2873379,-1.184196,-0.2631318,-0.5240481
887.7011,-1.20096,-0.6212901,0.2804108,-1.183072,-0.2548704,-0.5236254
887.7167,-1.20096,-0.6212901,0.2804108,-1.183072,-0.2548704,-0.5236254
887.7309,-1.192421,-0.6209868,0.2730166,-1.181942,-0.2458542,-0.5231649
887.7452,-1.183713,-0.6206766,0.2656841,-1.180739,-0.2370598,-0.5227138
887.7599,-1.183713,-0.6206766,0.2656841,-1.180739,-0.2370598,-0.5227138
887.7739,-1.174941,-0.6203638,0.258473,-1.179476,-0.2284674,-0.5222716
887.7892,-1.16617,-0.6200511,0.2514036,-1.178168,-0.220065,-0.5218381
887.8038,-1.157095,-0.6197264,0.2438796,-1.176865,-0.2109164,-0.5213673
887.8184,-1.157095,-0.6197264,0.2438796,-1.176865,-0.2109164,-0.5213673
887.8326,-1.147877,-0.6193959,0.2364214,-1.175498,-0.2019897,-0.5209058
887.8481,-1.138612,-0.6190635,0.2290871,-1.174075,-0.1932658,-0.5204535
887.8629,-1.129364,-0.6187317,0.2218965,-1.172611,-0.1847337,-0.5200101
887.8777,-1.129364,-0.6187317,0.2218965,-1.172611,-0.1847337,-0.5200101
887.8917,-1.119821,-0.6183884,0.2142547,-1.171159,-0.1754668,-0.5195295
887.9074,-1.110142,-0.6180396,0.2066799,-1.169643,-0.1664224,-0.5190586
887.9219,-1.100426,-0.6176893,0.1992309,-1.168073,-0.1575822,-0.5185969
887.9368,-1.100426,-0.6176893,0.1992309,-1.168073,-0.1575822,-0.5185969
887.9508,-1.090386,-0.6173262,0.1913295,-1.166505,-0.1480235,-0.5180985
887.9683,-1.080194,-0.616957,0.1834984,-1.164864,-0.1386935,-0.51761
887.9819,-1.069957,-0.616586,0.1757986,-1.163162,-0.1295736,-0.5171312
887.9955,-1.069957,-0.616586,0.1757986,-1.163162,-0.1295736,-0.5171312
888.0098,-1.05974,-0.6162157,0.1682511,-1.161414,-0.1206525,-0.5166618
888.0251,-1.049236,-0.6158341,0.1602627,-1.15968,-0.1110214,-0.5161558
888.0397,-1.049236,-0.6158341,0.1602627,-1.15968,-0.1110214,-0.5161558
888.0535,-1.038606,-0.6154475,0.1523478,-1.15788,-0.101617,-0.5156598
888.0689,-1.027948,-0.6150598,0.1445658,-1.156024,-0.09242202,-0.5151737
888.0838,-1.017322,-0.6146734,0.1369373,-1.154126,-0.08342604,-0.5146971
888.0986,-1.017322,-0.6146734,0.1369373,-1.154126,-0.08342604,-0.5146971
888.1128,-1.006419,-0.6142761,0.1288699,-1.152246,-0.07373077,-0.514184
888.1281,-0.9953976,-0.6138741,0.1208763,-1.150303,-0.06426109,-0.5136811
888.143,-0.9843547,-0.6134713,0.1130166,-1.148304,-0.05500022,-0.5131882
888.1579,-0.9843547,-0.6134713,0.1130166,-1.148304,-0.05500022,-0.5131882
888.1719,-0.9730043,-0.6130564,0.1047154,-1.146313,-0.04505501,-0.5126591
888.1874,-0.9615188,-0.612636,0.09649043,-1.144248,-0.03533955,-0.5121405
888.2021,-0.9500036,-0.6122144,0.08840422,-1.14212,-0.02583705,-0.5116321
888.2179,-0.9500036,-0.6122144,0.08840422,-1.14212,-0.02583705,-0.5116321
888.2321,-0.9385237,-0.6117942,0.08047838,-1.139944,-0.01653774,-0.5111337
888.2466,-0.926773,-0.6113635,0.07212184,-1.137789,-0.006562644,-0.5105993
888.261,-0.9149114,-0.6109283,0.06384408,-1.135566,0.003185991,-0.5100754
888.2759,-0.9149114,-0.6109283,0.06384408,-1.135566,0.003185991,-0.5100754
888.2899,-0.9030368,-0.6104926,0.05570585,-1.133286,0.01272349,-0.5095618
888.3051,-0.8912091,-0.610059,0.04772835,-1.130963,0.02205885,-0.5090584
888.3214,-0.8794645,-0.6096287,0.03991634,-1.12861,0.03119826,-0.5085648
888.3348,-0.8794645,-0.6096287,0.03991634,-1.12861,0.03119826,-0.5085648
888.3489,-0.8678249,-0.609203,0.03226822,-1.126237,0.04014671,-0.5080808
888.3643,-0.8563031,-0.6087822,0.02478022,-1.123853,0.04890864,-0.5076064
888.379,-0.8563031,-0.6087822,0.02478022,-1.123853,0.04890864,-0.5076064
888.393,-0.8449063,-0.6083668,0.01744809,-1.121463,0.05748829,-0.5071412
888.4091,-0.8336384,-0.6079568,0.01026776,-1.119071,0.06588978,-0.5066852
888.4235,-0.8225012,-0.6075525,0.003235421,-1.116678,0.07411715,-0.5062381
888.4385,-0.8225012,-0.6075525,0.003235421,-1.116678,0.07411715,-0.5062381
888.4523,-0.8114951,-0.6071537,-0.003652427,-1.114287,0.08217435,-0.5057998
888.4703,-0.8006197,-0.6067604,-0.01039904,-1.111898,0.09006528,-0.50537
888.4827,-0.7898744,-0.6063728,-0.01700746,-1.109513,0.09779372,-0.5049487
888.4973,-0.7898744,-0.6063728,-0.01700746,-1.109513,0.09779372,-0.5049487
888.5117,-0.7792579,-0.6059905,-0.02348059,-1.107132,0.1053634,-0.5045356
888.5267,-0.768769,-0.6056137,-0.02982123,-1.104756,0.112778,-0.5041305
888.5416,-0.7584064,-0.6052422,-0.03603204,-1.102385,0.120041,-0.5037335
888.5563,-0.7584064,-0.6052422,-0.03603204,-1.102385,0.120041,-0.5037335
888.5704,-0.7481686,-0.604876,-0.04211564,-1.100019,0.1271559,-0.5033441
888.5858,-0.7380543,-0.604515,-0.04807455,-1.097658,0.1341261,-0.5029624
888.6005,-0.7280619,-0.6041591,-0.05391125,-1.095304,0.1409548,-0.5025882
888.6156,-0.7280619,-0.6041591,-0.05391125,-1.095304,0.1409548,-0.5025882
888.6298,-0.7181899,-0.6038082,-0.05962814,-1.092956,0.1476453,-0.5022213
888.6452,-0.708437,-0.6034623,-0.06522758,-1.090614,0.1542007,-0.5018616
888.66,-0.708437,-0.6034623,-0.06522758,-1.090614,0.1542007,-0.5018616
888.674,-0.6988017,-0.6031213,-0.07071187,-1.08828,0.160624,-0.501509
888.6896,-0.6892826,-0.6027851,-0.07608329,-1.085952,0.1669182,-0.5011632
888.7054,-0.6798783,-0.6024537,-0.08134402,-1.083632,0.1730863,-0.5008242
888.7192,-0.6798783,-0.6024537,-0.08134402,-1.083632,0.1730863,-0.5008242
888.7333,-0.6705874,-0.602127,-0.08649626,-1.081319,0.1791309,-0.5004918
888.7488,-0.6614085,-0.6018049,-0.0915421,-1.079015,0.1850549,-0.5001659
888.7635,-0.6523402,-0.6014873,-0.09648364,-1.076718,0.190861,-0.4998464
888.7782,-0.6523402,-0.6014873,-0.09648364,-1.076718,0.190861,-0.4998464
888.7922,-0.6433813,-0.6011742,-0.1013229,-1.07443,0.1965517,-0.4995332
888.8079,-0.6345304,-0.6008655,-0.1060619,-1.07215,0.2021297,-0.499226
888.8225,-0.6257861,-0.6005613,-0.1107025,-1.06988,0.2075973,-0.4989249
888.8374,-0.6257861,-0.6005613,-0.1107025,-1.06988,0.2075973,-0.4989249
888.8516,-0.6171473,-0.6002613,-0.1152468,-1.067618,0.212957,-0.4986297
888.8669,-0.6086127,-0.5999655,-0.1196965,-1.065366,0.2182112,-0.4983402
888.8818,-0.6001808,-0.5996739,-0.1240535,-1.063123,0.2233622,-0.4980564
888.8969,-0.6001808,-0.5996739,-0.1240535,-1.063123,0.2233622,-0.4980564
888.9109,-0.5918506,-0.5993865,-0.1283195,-1.060891,0.2284122,-0.4977782
888.9263,-0.5836208,-0.599103,-0.1324965,-1.058668,0.2333634,-0.4975054
888.942,-0.5754901,-0.5988236,-0.136586,-1.056456,0.2382179,-0.497238
888.9559,-0.5754901,-0.5988236,-0.136586,-1.056456,0.2382179,-0.497238
888.97,-0.5674574,-0.5985481,-0.1405899,-1.054254,0.2429779,-0.4969757
888.9854,-0.5595216,-0.5982765,-0.1445096,-1.052062,0.2476453,-0.4967186
888.9999,-0.5595216,-0.5982765,-0.1445096,-1.052062,0.2476453,-0.4967186
889.0142,-0.5516813,-0.5980087,-0.148347,-1.049882,0.2522222,-0.4964665
889.0297,-0.5439355,-0.5977446,-0.1521035,-1.047712,0.2567104,-0.4962194
889.0446,-0.536283,-0.5974843,-0.1557807,-1.045554,0.2611119,-0.4959771
889.0592,-0.536283,-0.5974843,-0.1557807,-1.045554,0.2611119,-0.4959771
889.0734,-0.5287227,-0.5972276,-0.1593802,-1.043407,0.2654285,-0.4957395
889.0889,-0.5212535,-0.5969746,-0.1629035,-1.041272,0.269662,-0.4955066
889.1036,-0.5138742,-0.596725,-0.166352,-1.039148,0.2738141,-0.4952783
889.1185,-0.5138742,-0.596725,-0.166352,-1.039148,0.2738141,-0.4952783
889.1329,-0.5065839,-0.5964791,-0.1697271,-1.037037,0.2778867,-0.4950544
889.1484,-0.4993813,-0.5962365,-0.1730304,-1.034937,0.2818813,-0.4948349
889.1631,-0.4922655,-0.5959974,-0.1762632,-1.03285,0.2857995,-0.4946197
889.179,-0.4922655,-0.5959974,-0.1762632,-1.03285,0.2857995,-0.4946197
889.1929,-0.4852354,-0.5957616,-0.1794268,-1.030774,0.289643,-0.4944087
889.2074,-0.4782899,-0.5955291,-0.1825225,-1.028712,0.2934134,-0.4942019
889.2222,-0.4714281,-0.5952998,-0.1855518,-1.026662,0.2971121,-0.4939991
889.2369,-0.4714281,-0.5952998,-0.1855518,-1.026662,0.2971121,-0.4939991
889.2509,-0.4646489,-0.5950738,-0.1885158,-1.024624,0.3007406,-0.4938002
889.2663,-0.4579513,-0.594851,-0.1914158,-1.022599,0.3043005,-0.4936053
889.2811,-0.4513344,-0.5946312,-0.1942531,-1.020587,0.307793,-0.4934141
889.296,-0.4513344,-0.5946312,-0.1942531,-1.020587,0.307793,-0.4934141
889.3101,-0.4447972,-0.5944145,-0.1970289,-1.018588,0.3112196,-0.4932267
889.3255,-0.4383386,-0.5942009,-0.1997442,-1.016603,0.3145816,-0.493043
889.3402,-0.4319578,-0.5939903,-0.2024004,-1.01463,0.3178804,-0.4928629
889.3551,-0.4319578,-0.5939903,-0.2024004,-1.01463,0.3178804,-0.4928629
889.3699,-0.4256539,-0.5937826,-0.2049986,-1.012671,0.3211172,-0.4926863
889.3849,-0.4194258,-0.5935778,-0.2075398,-1.010724,0.3242933,-0.4925131
889.3997,-0.4194258,-0.5935778,-0.2075398,-1.010724,0.3242933,-0.4925131
889.4158,-0.4132727,-0.5933759,-0.2100251,-1.008792,0.32741,-0.4923434
889.4292,-0.4071936,-0.5931768,-0.2124557,-1.006872,0.3304684,-0.4921769
889.4442,-0.4011878,-0.5929804,-0.2148326,-1.004967,0.3334697,-0.4920138
889.4587,-0.4011878,-0.5929804,-0.2148326,-1.004967,0.3334697,-0.4920138
889.4727,-0.3952542,-0.5927868,-0.2171568,-1.003075,0.3364151,-0.4918538
889.4882,-0.389392,-0.592596,-0.2194293,-1.001196,0.3393056,-0.491697
889.5027,-0.3836004,-0.5924078,-0.2216511,-0.9993313,0.3421424,-0.4915433
889.5176,-0.3836004,-0.5924078,-0.2216511,-0.9993313,0.3421424,-0.4915433
889.5316,-0.3778785,-0.5922222,-0.2238233,-0.9974802,0.3449265,-0.4913925
889.5471,-0.3722255,-0.5920392,-0.2259467,-0.9956428,0.3476591,-0.4912447
889.562,-0.3666405,-0.5918588,-0.2280223,-0.9938192,0.350341,-0.4910998
889.5768,-0.3666405,-0.5918588,-0.2280223,-0.9938192,0.350341,-0.4910998
889.5907,-0.3611227,-0.5916809,-0.230051,-0.9920094,0.3529733,-0.4909578
889.6065,-0.3556713,-0.5915055,-0.2320337,-0.9902135,0.3555571,-0.4908185
889.621,-0.3502856,-0.5913325,-0.2339714,-0.9884313,0.3580932,-0.490682
889.6359,-0.3502856,-0.5913325,-0.2339714,-0.9884313,0.3580932,-0.490682
889.65,-0.3449646,-0.5911619,-0.2358648,-0.986663,0.3605826,-0.4905482
889.6663,-0.3397076,-0.5909937,-0.2377149,-0.9849086,0.3630262,-0.4904169
889.6802,-0.3345139,-0.5908278,-0.2395225,-0.9831681,0.365425,-0.4902883
889.6954,-0.3345139,-0.5908278,-0.2395225,-0.9831681,0.365425,-0.4902883
889.709,-0.3293827,-0.5906643,-0.2412883,-0.9814414,0.3677798,-0.4901622
889.7243,-0.3243132,-0.590503,-0.2430133,-0.9797286,0.3700914,-0.4900385
889.7388,-0.3243132,-0.590503,-0.2430133,-0.9797286,0.3700914,-0.4900385
889.7528,-0.3193047,-0.590344,-0.2446981,-0.9780297,0.3723608,-0.4899173
889.7684,-0.3143564,-0.5901871,-0.2463437,-0.9763446,0.3745887,-0.4897984
889.7831,-0.3094677,-0.5900325,-0.2479506,-0.9746734,0.3767759,-0.4896819
889.7977,-0.3094677,-0.5900325,-0.2479506,-0.9746734,0.3767759,-0.4896819
889.8119,-0.3046378,-0.58988,-0.2495198,-0.973016,0.3789233,-0.4895677
889.8276,-0.299866,-0.5897297,-0.2510518,-0.9713724,0.3810316,-0.4894557
889.8421,-0.2951516,-0.5895814,-0.2525475,-0.9697425,0.3831016,-0.4893459
889.8569,-0.2951516,-0.5895814,-0.2525475,-0.9697425,0.3831016,-0.4893459
889.8709,-0.2904939,-0.5894352,-0.2540075,-0.9681265,0.385134,-0.4892382
889.8865,-0.2858922,-0.589291,-0.2554326,-0.9665241,0.3871295,-0.4891327
889.9013,-0.2813459,-0.5891488,-0.2568235,-0.9649355,0.389089,-0.4890293
889.9171,-0.2813459,-0.5891488,-0.2568235,-0.9649355,0.389089,-0.4890293
