JMolnar6/NonAnthroHands_User_Study/HandsLoggerWithURDF/tempdata/PID 0 (test)/files/Reachy_PID0_JointMotion_gesture_3_4.csv
Time,r_shoulder,r_shoulder_x,r_upper_arm,r_forearm,r_wrist,r_wrist2hand,
246.0279,0.0450031,-0.3269998,0.2767306,-2.149909,-0.3653756,-0.02002914
246.0423,0.0450031,-0.3269998,0.2770373,-2.149878,-0.3652809,-0.02002884
246.0571,0.0450031,-0.3269998,0.2770373,-2.149878,-0.3652809,-0.02002884
246.0714,0.0450031,-0.3269998,0.2773392,-2.149848,-0.3651874,-0.02002855
246.0869,0.0450031,-0.3269998,0.2776366,-2.149818,-0.3650951,-0.02002826
246.1018,0.04500311,-0.3269998,0.2779294,-2.149788,-0.3650041,-0.02002797
246.1164,0.04500311,-0.3269998,0.2779294,-2.149788,-0.3650041,-0.02002797
246.1304,0.04500311,-0.3269998,0.2782176,-2.149759,-0.3649142,-0.02002769
246.1456,0.04500311,-0.3269998,0.2785015,-2.149729,-0.3648255,-0.02002742
246.1605,0.04500311,-0.3269998,0.278781,-2.149701,-0.3647379,-0.02002715
246.1751,0.04500311,-0.3269998,0.278781,-2.149701,-0.3647379,-0.02002715
246.1914,0.04500311,-0.3269998,0.2790563,-2.149672,-0.3646515,-0.02002687
246.2047,0.04500311,-0.3269998,0.2793272,-2.149644,-0.3645662,-0.02002661
246.2194,0.04500311,-0.3269998,0.2793272,-2.149644,-0.3645662,-0.02002661
246.2334,0.04500311,-0.3269998,0.2795941,-2.149616,-0.364482,-0.02002635
246.2489,0.04500311,-0.3269998,0.2798569,-2.149589,-0.3643989,-0.02002609
246.2633,0.04500311,-0.3269998,0.2801156,-2.149562,-0.3643169,-0.02002583
246.2781,0.04500311,-0.3269998,0.2801156,-2.149562,-0.3643169,-0.02002583
246.2921,0.04500311,-0.3269998,0.2803703,-2.149535,-0.364236,-0.02002558
246.3076,0.04500311,-0.3269998,0.2806212,-2.149508,-0.3641562,-0.02002533
246.3223,0.04500311,-0.3269998,0.2808682,-2.149482,-0.3640774,-0.02002508
246.3372,0.04500311,-0.3269998,0.2808682,-2.149482,-0.3640774,-0.02002508
246.3513,0.04500311,-0.3269998,0.2811114,-2.149456,-0.3639996,-0.02002484
246.3669,0.04500311,-0.3269998,0.2813508,-2.14943,-0.3639229,-0.0200246
246.3817,0.04500312,-0.3269998,0.2815866,-2.149405,-0.3638471,-0.02002437
246.396,0.04500312,-0.3269998,0.2815866,-2.149405,-0.3638471,-0.02002437
246.4103,0.04500312,-0.3269998,0.2818187,-2.14938,-0.3637724,-0.02002413
246.4257,0.04500312,-0.3269998,0.2820473,-2.149355,-0.3636987,-0.0200239
246.4412,0.04500312,-0.3269998,0.2822724,-2.149331,-0.3636259,-0.02002368
246.456,0.04500312,-0.3269998,0.2822724,-2.149331,-0.3636259,-0.02002368
246.4692,0.04500312,-0.3269998,0.282494,-2.149306,-0.3635541,-0.02002345
246.4845,0.04500312,-0.3269998,0.2827122,-2.149282,-0.3634833,-0.02002323
246.4992,0.04500312,-0.3269998,0.2827122,-2.149282,-0.3634833,-0.02002323
246.5132,0.04500312,-0.3269998,0.2829271,-2.149259,-0.3634134,-0.02002302
246.5286,0.04500312,-0.3269998,0.2831386,-2.149235,-0.3633444,-0.0200228
246.5434,0.04500312,-0.3269998,0.2833469,-2.149212,-0.3632763,-0.02002259
246.5582,0.04500312,-0.3269998,0.2833469,-2.149212,-0.3632763,-0.02002259
246.5724,0.04500312,-0.3269998,0.283552,-2.149189,-0.3632092,-0.02002238
246.5893,0.04500312,-0.3269998,0.2837539,-2.149167,-0.3631429,-0.02002217
246.6027,0.04500312,-0.3269998,0.2839528,-2.149144,-0.3630776,-0.02002197
246.6175,0.04500312,-0.3269998,0.2839528,-2.149144,-0.3630776,-0.02002197
246.6314,0.04500312,-0.3269998,0.2841485,-2.149122,-0.3630131,-0.02002176
246.6473,0.04500312,-0.3269998,0.2843413,-2.1491,-0.3629495,-0.02002157
246.6615,0.04500312,-0.3269998,0.2845311,-2.149079,-0.3628867,-0.02002137
246.6763,0.04500312,-0.3269998,0.2845311,-2.149079,-0.3628867,-0.02002137
246.6928,0.04500312,-0.3269998,0.2847179,-2.149057,-0.3628248,-0.02002118
246.7059,0.04500312,-0.3269998,0.2849019,-2.149036,-0.3627637,-0.02002098
246.7205,0.04500312,-0.3269998,0.2850831,-2.149016,-0.3627034,-0.0200208
246.7356,0.04500312,-0.3269998,0.2850831,-2.149016,-0.3627034,-0.0200208
246.7494,0.04500312,-0.3269998,0.2852615,-2.148995,-0.3626439,-0.02002062
246.7647,0.04500312,-0.3269998,0.2854371,-2.148975,-0.3625853,-0.02002043
246.7794,0.04500312,-0.3269998,0.2854371,-2.148975,-0.3625853,-0.02002043
246.7934,0.04500312,-0.3269998,0.28561,-2.148955,-0.3625274,-0.02002025
246.8089,0.04500312,-0.3269998,0.2857802,-2.148935,-0.3624703,-0.02002007
246.8237,0.04500312,-0.3269998,0.2859478,-2.148916,-0.362414,-0.0200199
246.8385,0.04500312,-0.3269998,0.2859478,-2.148916,-0.362414,-0.0200199
246.8526,0.04500312,-0.3269998,0.2861129,-2.148896,-0.3623584,-0.02001972
246.8682,0.04500312,-0.3269998,0.2862754,-2.148877,-0.3623036,-0.02001955
246.883,0.04500312,-0.3269998,0.2864353,-2.148858,-0.3622496,-0.02001938
246.8984,0.04500312,-0.3269998,0.2864353,-2.148858,-0.3622496,-0.02001938
246.9116,0.04500312,-0.3269998,0.2865928,-2.148839,-0.3621962,-0.02001921
246.9268,0.04500312,-0.3269998,0.2867479,-2.148821,-0.3621436,-0.02001905
246.9427,0.04500312,-0.3269998,0.2869006,-2.148802,-0.3620917,-0.02001889
246.9564,0.04500312,-0.3269998,0.2869006,-2.148802,-0.3620917,-0.02001889
246.9706,0.04500313,-0.3269998,0.287051,-2.148784,-0.3620406,-0.02001873
246.9858,0.04500313,-0.3269998,0.287199,-2.148766,-0.3619901,-0.02001858
247.0005,0.04500313,-0.3269998,0.2873447,-2.148749,-0.3619403,-0.02001842
247.0154,0.04500313,-0.3269998,0.2873447,-2.148749,-0.3619403,-0.02001842
247.0302,0.04500312,-0.3269998,0.2882308,-2.148811,-0.3627971,-0.02002099
247.0447,0.04500312,-0.3269998,0.2899462,-2.148895,-0.3635057,-0.02002307
247.0595,0.04500312,-0.3269998,0.2899462,-2.148895,-0.3635057,-0.02002307
247.0736,0.04500312,-0.3269998,0.2921008,-2.14897,-0.3640026,-0.02002451
247.0892,0.04500312,-0.3269998,0.2944437,-2.149031,-0.3643742,-0.02002559
247.1041,0.04500312,-0.3269998,0.2961094,-2.149,-0.3637743,-0.02002374
247.1187,0.04500312,-0.3269998,0.2961094,-2.149,-0.3637743,-0.02002374
247.1329,0.04500313,-0.3269998,0.2969521,-2.148939,-0.3632875,-0.02002229
247.1485,0.04500313,-0.3269998,0.2973372,-2.148882,-0.3629918,-0.02002142
247.163,0.04500313,-0.3269998,0.2975054,-2.148836,-0.3628074,-0.02002089
247.1778,0.04500313,-0.3269998,0.2975054,-2.148836,-0.3628074,-0.02002089
247.1938,0.04500314,-0.3269998,0.2968343,-2.148719,-0.3617715,-0.02001778
247.2073,0.04500315,-0.3269998,0.295289,-2.148588,-0.3609101,-0.02001525
247.2218,0.04500315,-0.3269998,0.2932834,-2.148471,-0.3602733,-0.02001339
247.2366,0.04500315,-0.3269998,0.2932834,-2.148471,-0.3602733,-0.02001339
247.2507,0.04500316,-0.3269998,0.2903357,-2.148291,-0.3588628,-0.02000921
247.2661,0.04500317,-0.3269998,0.286485,-2.148107,-0.3576719,-0.02000573
247.2808,0.04500318,-0.3269998,0.28218,-2.147941,-0.3567322,-0.020003
247.2983,0.04500318,-0.3269998,0.28218,-2.147941,-0.3567322,-0.020003
247.3097,0.04500318,-0.3269998,0.277697,-2.147796,-0.3559425,-0.0200007
247.3254,0.04500319,-0.3269998,0.2724255,-2.147589,-0.35433,-0.01999595
247.3402,0.04500321,-0.3269998,0.2663377,-2.147375,-0.3529186,-0.01999185
247.3548,0.04500321,-0.3269998,0.2663377,-2.147375,-0.3529186,-0.01999185
247.3691,0.04500321,-0.3269998,0.2598509,-2.147181,-0.3517546,-0.01998849
247.3844,0.04500322,-0.3269998,0.2532275,-2.147006,-0.3507441,-0.01998557
247.3996,0.04500322,-0.3269998,0.2532275,-2.147006,-0.3507441,-0.01998557
247.4132,0.04500323,-0.3269998,0.2458479,-2.146769,-0.348917,-0.01998024
247.4308,0.04500324,-0.3269998,0.2376824,-2.146529,-0.3473003,-0.01997559
247.4445,0.04500325,-0.3269998,0.2291481,-2.146308,-0.3459396,-0.01997169
247.458,0.04500325,-0.3269998,0.2291481,-2.146308,-0.3459396,-0.01997169
247.4721,0.04500327,-0.3269998,0.2197571,-2.146031,-0.3438335,-0.0199656
247.4875,0.04500328,-0.3269998,0.2095505,-2.145757,-0.3419793,-0.01996031
247.5023,0.04500329,-0.3269998,0.1989789,-2.145507,-0.3404045,-0.01995584
247.5171,0.04500329,-0.3269998,0.1989789,-2.145507,-0.3404045,-0.01995584
247.5313,0.0450033,-0.3269998,0.1883179,-2.145281,-0.3390064,-0.01995189
247.5466,0.04500332,-0.3269998,0.1769486,-2.144997,-0.3368101,-0.01994563
247.5612,0.04500333,-0.3269998,0.1648452,-2.144715,-0.3348448,-0.01994009
247.5761,0.04500333,-0.3269998,0.1648452,-2.144715,-0.3348448,-0.01994009
247.5903,0.04500334,-0.3269998,0.1524279,-2.144456,-0.3331523,-0.01993535
247.6059,0.04500335,-0.3269998,0.1399581,-2.144219,-0.331637,-0.01993112
247.6206,0.04500337,-0.3269998,0.1268074,-2.143926,-0.3293267,-0.01992464
247.6357,0.04500337,-0.3269998,0.1268074,-2.143926,-0.3293267,-0.01992464
247.6495,0.04500338,-0.3269998,0.1129484,-2.143637,-0.3272545,-0.01991889
247.6646,0.0450034,-0.3269998,0.09880161,-2.14337,-0.3254611,-0.01991395
247.6805,0.04500341,-0.3269998,0.0846277,-2.143127,-0.3238503,-0.01990953
247.6944,0.04500341,-0.3269998,0.0846277,-2.143127,-0.3238503,-0.01990953
247.7083,0.04500343,-0.3269998,0.06979435,-2.142829,-0.3214496,-0.01990292
247.7236,0.04500344,-0.3269998,0.05427562,-2.142536,-0.3192943,-0.01989704
247.7384,0.04500344,-0.3269998,0.05427562,-2.142536,-0.3192943,-0.01989704
247.7525,0.04500346,-0.3269998,0.03849309,-2.142267,-0.3174235,-0.01989199
247.7681,0.04500347,-0.3269998,0.02194681,-2.141948,-0.3148312,-0.01988496
247.7827,0.04500348,-0.3269998,0.004682191,-2.14164,-0.3125235,-0.01987878
247.7973,0.04500348,-0.3269998,0.004682191,-2.14164,-0.3125235,-0.01987878
247.8113,0.0450035,-0.3269998,-0.01284576,-2.141359,-0.3105209,-0.01987346
247.8269,0.04500351,-0.3269998,-0.03036237,-2.141104,-0.3087184,-0.01986871
247.8418,0.04500353,-0.3269998,-0.04850057,-2.140799,-0.3061385,-0.01986188
247.8566,0.04500353,-0.3269998,-0.04850057,-2.140799,-0.3061385,-0.01986188
247.8707,0.04500354,-0.3269998,-0.06728131,-2.140502,-0.3038199,-0.01985581
247.886,0.04500356,-0.3269998,-0.08627944,-2.14023,-0.3017972,-0.01985057
247.9009,0.04500357,-0.3269998,-0.1052343,-2.139983,-0.2999722,-0.01984588
247.9154,0.04500357,-0.3269998,-0.1052343,-2.139983,-0.2999722,-0.01984588
247.9315,0.04500359,-0.3269998,-0.1247884,-2.139687,-0.2973705,-0.01983916
247.9457,0.04500361,-0.3269998,-0.144964,-2.1394,-0.2950343,-0.0198332
247.9595,0.04500361,-0.3269998,-0.144964,-2.1394,-0.2950343,-0.0198332
247.9735,0.04500363,-0.3269998,-0.1653355,-2.139138,-0.2929973,-0.01982807
247.9889,0.04500364,-0.3269998,-0.1856433,-2.138901,-0.2911604,-0.01982349
248.0035,0.04500366,-0.3269998,-0.2057638,-2.138683,-0.2894597,-0.01981929
248.0183,0.04500366,-0.3269998,-0.2057638,-2.138683,-0.2894597,-0.01981929
248.0322,0.04500367,-0.3269998,-0.2256436,-2.138482,-0.2878626,-0.01981537
248.0476,0.04500369,-0.3269998,-0.2452615,-2.138295,-0.2863531,-0.0198117
248.0622,0.0450037,-0.3269998,-0.2646104,-2.13812,-0.2849229,-0.01980825
248.0773,0.0450037,-0.3269998,-0.2646104,-2.13812,-0.2849229,-0.01980825
248.0911,0.04500371,-0.3269998,-0.2836895,-2.137957,-0.2835673,-0.01980501
248.1066,0.04500372,-0.3269998,-0.3025003,-2.137804,-0.2822831,-0.01980197
248.1211,0.04500373,-0.3269998,-0.3210456,-2.137662,-0.2810676,-0.01979912
248.136,0.04500373,-0.3269998,-0.3210456,-2.137662,-0.2810676,-0.01979912
248.1501,0.04500375,-0.3269998,-0.3393284,-2.137529,-0.2799187,-0.01979644
248.1655,0.04500376,-0.3269998,-0.3573522,-2.137406,-0.2788343,-0.01979394
248.1801,0.04500377,-0.3269998,-0.3751203,-2.137292,-0.2778124,-0.01979161
248.1958,0.04500377,-0.3269998,-0.3751203,-2.137292,-0.2778124,-0.01979161
248.2099,0.04500378,-0.3269998,-0.3926359,-2.137187,-0.2768512,-0.01978944
248.2242,0.04500379,-0.3269998,-0.4099025,-2.13709,-0.2759488,-0.01978743
248.239,0.04500379,-0.3269998,-0.4099025,-2.13709,-0.2759488,-0.01978743
248.2529,0.0450038,-0.3269998,-0.4269234,-2.137002,-0.2751034,-0.01978556
248.2684,0.04500381,-0.3269998,-0.4437018,-2.136922,-0.2743132,-0.01978384
248.2834,0.04500382,-0.3269998,-0.460241,-2.136849,-0.2735767,-0.01978226
248.2979,0.04500382,-0.3269998,-0.460241,-2.136849,-0.2735767,-0.01978226
248.3118,0.04500384,-0.3269998,-0.4765443,-2.136784,-0.2728922,-0.0197808
248.3276,0.04500385,-0.3269998,-0.4926146,-2.136726,-0.272258,-0.01977948
248.3428,0.04500385,-0.3269998,-0.5084553,-2.136675,-0.2716726,-0.01977827
248.3572,0.04500385,-0.3269998,-0.5084553,-2.136675,-0.2716726,-0.01977827
248.3713,0.04500386,-0.3269998,-0.5240694,-2.136631,-0.2711344,-0.01977719
248.3866,0.04500387,-0.3269998,-0.53946,-2.136594,-0.2706421,-0.01977622
248.4018,0.04500388,-0.3269998,-0.5546301,-2.136563,-0.2701941,-0.01977536
248.4164,0.04500388,-0.3269998,-0.5546301,-2.136563,-0.2701941,-0.01977536
248.4325,0.04500388,-0.3269998,-0.5695827,-2.136538,-0.269789,-0.0197746
248.4465,0.04500389,-0.3269998,-0.5843208,-2.136519,-0.2694254,-0.01977395
248.4605,0.0450039,-0.3269998,-0.5988473,-2.136507,-0.2691021,-0.0197734
248.4751,0.0450039,-0.3269998,-0.5988473,-2.136507,-0.2691021,-0.0197734
248.4905,0.04500391,-0.3269998,-0.6131652,-2.136499,-0.2688178,-0.01977293
248.5046,0.04500391,-0.3269998,-0.6272772,-2.136497,-0.2685711,-0.01977256
248.519,0.04500391,-0.3269998,-0.6272772,-2.136497,-0.2685711,-0.01977256
248.5335,0.04500392,-0.3269998,-0.6411862,-2.136501,-0.2683609,-0.01977227
248.5488,0.04500393,-0.3269998,-0.6548951,-2.136509,-0.2681859,-0.01977206
248.5636,0.04500394,-0.3269998,-0.6684064,-2.136522,-0.2680449,-0.01977193
248.5785,0.04500394,-0.3269998,-0.6684064,-2.136522,-0.2680449,-0.01977193
248.5925,0.04500394,-0.3269998,-0.6817231,-2.13654,-0.2679369,-0.01977188
248.608,0.04500395,-0.3269998,-0.6948478,-2.136563,-0.2678607,-0.0197719
248.6226,0.04500395,-0.3269998,-0.707783,-2.13659,-0.2678153,-0.01977199
248.6375,0.04500395,-0.3269998,-0.707783,-2.13659,-0.2678153,-0.01977199
248.6516,0.04500395,-0.3269998,-0.7205316,-2.136621,-0.2677996,-0.01977215
248.667,0.04500396,-0.3269998,-0.733096,-2.136656,-0.2678126,-0.01977238
248.6839,0.04500396,-0.3269998,-0.7454788,-2.136696,-0.2678532,-0.01977267
248.6974,0.04500396,-0.3269998,-0.7454788,-2.136696,-0.2678532,-0.01977267
248.7114,0.04500397,-0.3269998,-0.7576826,-2.136739,-0.2679206,-0.01977301
248.7257,0.04500397,-0.3269998,-0.7697098,-2.136786,-0.2680137,-0.01977342
248.7403,0.04500397,-0.3269998,-0.781563,-2.136836,-0.2681317,-0.01977388
248.7551,0.04500397,-0.3269998,-0.781563,-2.136836,-0.2681317,-0.01977388
248.7692,0.04500398,-0.3269998,-0.7932445,-2.13689,-0.2682737,-0.01977439
248.7846,0.04500398,-0.3269998,-0.8047568,-2.136947,-0.2684388,-0.01977495
248.7995,0.04500398,-0.3269998,-0.8047568,-2.136947,-0.2684388,-0.01977495
248.8135,0.04500398,-0.3269998,-0.8161021,-2.137007,-0.2686261,-0.01977556
248.8291,0.04500399,-0.3269998,-0.827283,-2.137071,-0.2688349,-0.01977622
248.8437,0.04500399,-0.3269998,-0.8383017,-2.137137,-0.2690643,-0.01977692
248.8584,0.04500399,-0.3269998,-0.8383017,-2.137137,-0.2690643,-0.01977692
248.8726,0.045004,-0.3269998,-0.8491604,-2.137206,-0.2693136,-0.01977766
248.8881,0.045004,-0.3269998,-0.8598614,-2.137278,-0.269582,-0.01977844
248.903,0.045004,-0.3269998,-0.8704069,-2.137353,-0.2698688,-0.01977926
248.9176,0.045004,-0.3269998,-0.8704069,-2.137353,-0.2698688,-0.01977926
248.9338,0.045004,-0.3269998,-0.8807992,-2.13743,-0.2701732,-0.01978013
248.948,0.045004,-0.3269998,-0.8910404,-2.137509,-0.2704946,-0.01978102
248.9615,0.045004,-0.3269998,-0.9011326,-2.137591,-0.2708322,-0.01978195
248.9761,0.045004,-0.3269998,-0.9011326,-2.137591,-0.2708322,-0.01978195
248.9901,0.045004,-0.3269998,-0.911078,-2.137676,-0.2711855,-0.01978292
249.0055,0.045004,-0.3269998,-0.9208785,-2.137762,-0.2715538,-0.01978391
249.0203,0.045004,-0.3269998,-0.9305364,-2.13785,-0.2719364,-0.01978493
249.0351,0.045004,-0.3269998,-0.9305364,-2.13785,-0.2719364,-0.01978493
249.0491,0.045004,-0.3269998,-0.9400535,-2.137941,-0.2723327,-0.01978598
249.0644,0.045004,-0.3269998,-0.949432,-2.138033,-0.2727423,-0.01978705
249.0794,0.045004,-0.3269998,-0.949432,-2.138033,-0.2727423,-0.01978705
249.0934,0.045004,-0.3269998,-0.9586737,-2.138127,-0.2731644,-0.01978816
249.1088,0.045004,-0.3269998,-0.9677806,-2.138223,-0.2735986,-0.01978929
249.1233,0.045004,-0.3269998,-0.9767547,-2.13832,-0.2740442,-0.01979044
249.1383,0.045004,-0.3269998,-0.9767547,-2.13832,-0.2740442,-0.01979044
249.1525,0.045004,-0.3269998,-0.9855977,-2.13842,-0.2745009,-0.01979161
249.168,0.045004,-0.3269998,-0.9943117,-2.13852,-0.274968,-0.0197928
249.1823,0.045004,-0.3269998,-1.002898,-2.138622,-0.2754451,-0.01979402
249.198,0.045004,-0.3269998,-1.002898,-2.138622,-0.2754451,-0.01979402
249.212,0.045004,-0.3269998,-1.01136,-2.138726,-0.2759317,-0.01979525
249.2265,0.045004,-0.3269998,-1.019697,-2.13883,-0.2764273,-0.01979651
249.241,0.045004,-0.3269998,-1.027913,-2.138937,-0.2769314,-0.01979777
249.2555,0.045004,-0.3269998,-1.027913,-2.138937,-0.2769314,-0.01979777
249.2698,0.045004,-0.3269998,-1.036008,-2.139044,-0.2774437,-0.01979906
249.2851,0.045004,-0.3269998,-1.043985,-2.139152,-0.2779637,-0.01980036
249.2999,0.045004,-0.3269998,-1.043985,-2.139152,-0.2779637,-0.01980036
249.3137,0.045004,-0.3269998,-1.051846,-2.139261,-0.278491,-0.01980167
249.3289,0.045004,-0.3269998,-1.059591,-2.139372,-0.2790252,-0.01980299
249.3441,0.04500399,-0.3269998,-1.067223,-2.139483,-0.2795659,-0.01980433
249.3587,0.04500399,-0.3269998,-1.067223,-2.139483,-0.2795659,-0.01980433
249.3729,0.04500399,-0.3269998,-1.074743,-2.139596,-0.2801127,-0.01980569
249.3883,0.04500398,-0.3269998,-1.082153,-2.139709,-0.2806652,-0.01980705
249.4028,0.04500398,-0.3269998,-1.089454,-2.139822,-0.2812231,-0.01980842
249.4177,0.04500398,-0.3269998,-1.089454,-2.139822,-0.2812231,-0.01980842
249.4316,0.04500398,-0.3269998,-1.096649,-2.139937,-0.281786,-0.0198098
249.4471,0.04500397,-0.3269998,-1.103737,-2.140053,-0.2823536,-0.01981119
249.4628,0.04500397,-0.3269998,-1.110722,-2.140168,-0.2829257,-0.01981259
249.4772,0.04500397,-0.3269998,-1.110722,-2.140168,-0.2829257,-0.01981259
249.4904,0.04500397,-0.3269998,-1.117605,-2.140285,-0.2835017,-0.01981399
249.5057,0.04500396,-0.3269998,-1.124386,-2.140402,-0.2840816,-0.0198154
249.5201,0.04500396,-0.3269998,-1.131068,-2.14052,-0.2846649,-0.01981682
249.5351,0.04500396,-0.3269998,-1.131068,-2.14052,-0.2846649,-0.01981682
249.549,0.04500395,-0.3269998,-1.137651,-2.140638,-0.2852513,-0.01981825
249.5644,0.04500395,-0.3269998,-1.144138,-2.140756,-0.2858407,-0.01981968
249.579,0.04500395,-0.3269998,-1.144138,-2.140756,-0.2858407,-0.01981968
249.5929,0.04500395,-0.3269998,-1.15053,-2.140875,-0.2864327,-0.01982111
249.6087,0.04500394,-0.3269998,-1.156828,-2.140994,-0.2870271,-0.01982255
249.6233,0.04500394,-0.3269998,-1.163033,-2.141114,-0.2876235,-0.01982399
249.6379,0.04500394,-0.3269998,-1.163033,-2.141114,-0.2876235,-0.01982399
249.652,0.04500394,-0.3269998,-1.169147,-2.141234,-0.2882218,-0.01982543
249.6675,0.04500393,-0.3269998,-1.175171,-2.141354,-0.2888218,-0.01982688
249.6824,0.04500393,-0.3269998,-1.181106,-2.141474,-0.2894231,-0.01982833
249.697,0.04500393,-0.3269998,-1.181106,-2.141474,-0.2894231,-0.01982833
249.7109,0.04500392,-0.3269998,-1.186954,-2.141595,-0.2900256,-0.01982978
249.7273,0.04500392,-0.3269998,-1.192716,-2.141716,-0.2906291,-0.01983124
249.7408,0.04500392,-0.3269998,-1.198394,-2.141837,-0.2912333,-0.01983269
249.7556,0.04500392,-0.3269998,-1.198394,-2.141837,-0.2912333,-0.01983269
249.7699,0.04500391,-0.3269998,-1.203987,-2.141958,-0.2918381,-0.01983415
249.7847,0.04500391,-0.3269998,-1.209498,-2.142078,-0.2924432,-0.0198356
249.7996,0.04500391,-0.3269998,-1.209498,-2.142078,-0.2924432,-0.0198356
249.8133,0.04500391,-0.3269998,-1.214928,-2.1422,-0.2930485,-0.01983706
249.8289,0.0450039,-0.3269998,-1.220278,-2.142321,-0.2936537,-0.01983851
249.8434,0.04500389,-0.3269998,-1.225549,-2.142442,-0.2942588,-0.01983996
249.8581,0.04500389,-0.3269998,-1.225549,-2.142442,-0.2942588,-0.01983996
249.8724,0.04500388,-0.3269998,-1.230743,-2.142563,-0.2948635,-0.01984142
249.8878,0.04500388,-0.3269998,-1.23586,-2.142684,-0.2954677,-0.01984287
249.9026,0.04500387,-0.3269998,-1.240901,-2.142804,-0.2960718,-0.01984433
249.9173,0.04500387,-0.3269998,-1.240901,-2.142804,-0.2960718,-0.01984433
249.9312,0.04500386,-0.3269998,-1.245867,-2.142925,-0.2966749,-0.01984578
249.9466,0.04500385,-0.3269998,-1.25076,-2.143046,-0.297277,-0.01984722
249.9615,0.04500385,-0.3269998,-1.25558,-2.143166,-0.2978778,-0.01984867
249.9763,0.04500385,-0.3269998,-1.25558,-2.143166,-0.2978778,-0.01984867
249.9922,0.04500384,-0.3269998,-1.259567,-2.143355,-0.2993867,-0.0198525
250.0054,0.04500384,-0.3269998,-1.262644,-2.14356,-0.3007329,-0.01985588
250.0202,0.04500382,-0.3269998,-1.265214,-2.143756,-0.3018636,-0.0198587
250.0349,0.04500382,-0.3269998,-1.265214,-2.143756,-0.3018636,-0.0198587
250.0487,0.04500382,-0.3269998,-1.26677,-2.144011,-0.3037775,-0.0198636
250.064,0.04500381,-0.3269998,-1.267356,-2.144273,-0.3054647,-0.01986789
250.0787,0.04500381,-0.3269998,-1.267356,-2.144273,-0.3054647,-0.01986789
250.0928,0.04500379,-0.3269998,-1.267429,-2.144521,-0.3069013,-0.01987152
250.1082,0.04500378,-0.3269998,-1.267265,-2.144753,-0.3081902,-0.01987476
250.1231,0.04500378,-0.3269998,-1.266241,-2.145042,-0.3103059,-0.01988025
250.1379,0.04500378,-0.3269998,-1.266241,-2.145042,-0.3103059,-0.01988025
250.152,0.04500376,-0.3269998,-1.264335,-2.14534,-0.3122134,-0.01988516
250.1674,0.04500375,-0.3269998,-1.261974,-2.145624,-0.3138727,-0.01988942
250.1821,0.04500374,-0.3269998,-1.259419,-2.145891,-0.3153796,-0.01989328
250.1971,0.04500374,-0.3269998,-1.259419,-2.145891,-0.3153796,-0.01989328
250.2107,0.04500373,-0.3269998,-1.256045,-2.146216,-0.317705,-0.0198994
250.2264,0.04500372,-0.3269998,-1.251825,-2.14655,-0.3198157,-0.01990492
250.242,0.0450037,-0.3269998,-1.247183,-2.146869,-0.3216697,-0.01990975
250.2567,0.0450037,-0.3269998,-1.247183,-2.146869,-0.3216697,-0.01990975
250.2699,0.04500369,-0.3269998,-1.241628,-2.147243,-0.3242699,-0.01991668
250.2853,0.04500367,-0.3269998,-1.235204,-2.147622,-0.3266167,-0.01992291
250.2999,0.04500367,-0.3269998,-1.235204,-2.147622,-0.3266167,-0.01992291
250.3137,0.04500366,-0.3269998,-1.228364,-2.147983,-0.3286839,-0.01992838
250.329,0.04500365,-0.3269998,-1.221383,-2.148321,-0.3305741,-0.0199334
250.3439,0.04500363,-0.3269998,-1.213647,-2.148715,-0.3332615,-0.01994069
250.3586,0.04500363,-0.3269998,-1.213647,-2.148715,-0.3332615,-0.01994069
250.3726,0.04500362,-0.3269998,-1.205129,-2.149119,-0.33572,-0.01994733
250.3883,0.0450036,-0.3269998,-1.196248,-2.149504,-0.3379054,-0.01995322
250.403,0.04500359,-0.3269998,-1.187265,-2.149867,-0.3399125,-0.01995865
250.4186,0.04500359,-0.3269998,-1.187265,-2.149867,-0.3399125,-0.01995865
250.4317,0.04500358,-0.3269998,-1.177563,-2.150286,-0.3427113,-0.01996639
250.4472,0.04500356,-0.3269998,-1.167111,-2.150715,-0.3452783,-0.01997346
250.4617,0.04500355,-0.3269998,-1.156324,-2.151125,-0.3475664,-0.01997976
250.4765,0.04500355,-0.3269998,-1.156324,-2.151125,-0.3475664,-0.01997976
250.4908,0.04500353,-0.3269998,-1.14472,-2.151589,-0.3505754,-0.01998821
250.507,0.04500352,-0.3269998,-1.132338,-2.152058,-0.353316,-0.01999588
250.5217,0.0450035,-0.3269998,-1.119623,-2.152504,-0.3557565,-0.02000271
250.5355,0.0450035,-0.3269998,-1.119623,-2.152504,-0.3557565,-0.02000271
250.5493,0.04500348,-0.3269998,-1.10685,-2.152922,-0.3579985,-0.02000901
250.5646,0.04500347,-0.3269998,-1.093414,-2.153396,-0.3610144,-0.02001765
250.5792,0.04500347,-0.3269998,-1.093414,-2.153396,-0.3610144,-0.02001765
250.5932,0.04500346,-0.3269998,-1.079283,-2.153878,-0.3637897,-0.02002558
250.6088,0.04500344,-0.3269998,-1.064867,-2.154339,-0.366274,-0.02003269
250.6235,0.04500342,-0.3269998,-1.050426,-2.154772,-0.3685606,-0.02003924
250.6384,0.04500342,-0.3269998,-1.050426,-2.154772,-0.3685606,-0.02003924
250.6527,0.04500341,-0.3269998,-1.035356,-2.155261,-0.3716179,-0.02004818
250.6682,0.04500339,-0.3269998,-1.019617,-2.15576,-0.3744339,-0.02005639
250.6826,0.04500337,-0.3269998,-1.003617,-2.156236,-0.3769555,-0.02006375
250.6976,0.04500337,-0.3269998,-1.003617,-2.156236,-0.3769555,-0.02006375
250.7116,0.04500335,-0.3269998,-0.9868863,-2.156765,-0.3801779,-0.02007332
250.7269,0.04500334,-0.3269998,-0.9694549,-2.157299,-0.3831239,-0.02008205
250.7416,0.04500332,-0.3269998,-0.9517604,-2.157805,-0.3857551,-0.02008986
250.7574,0.04500332,-0.3269998,-0.9517604,-2.157805,-0.3857551,-0.02008986
250.7715,0.0450033,-0.3269998,-0.9340756,-2.158279,-0.3881716,-0.02009705
250.7869,0.04500328,-0.3269998,-0.9165335,-2.158724,-0.3904414,-0.02010384
250.8004,0.04500327,-0.3269998,-0.8991925,-2.159145,-0.3926003,-0.02011034
250.815,0.04500327,-0.3269998,-0.8991925,-2.159145,-0.3926003,-0.02011034
250.8292,0.04500325,-0.3269998,-0.8820763,-2.159547,-0.3946658,-0.02011657
250.8445,0.04500324,-0.3269998,-0.8651931,-2.159932,-0.3966469,-0.02012258
250.8592,0.04500324,-0.3269998,-0.8651931,-2.159932,-0.3966469,-0.02012258
250.8732,0.04500322,-0.3269998,-0.8485443,-2.160301,-0.3985485,-0.02012838
250.8887,0.04500321,-0.3269998,-0.8321287,-2.160657,-0.4003741,-0.02013396
250.9036,0.04500319,-0.3269998,-0.8159438,-2.160999,-0.4021259,-0.02013934
250.9182,0.04500319,-0.3269998,-0.8159438,-2.160999,-0.4021259,-0.02013934
250.9326,0.04500318,-0.3269998,-0.7999865,-2.161328,-0.4038062,-0.02014451
250.9479,0.04500317,-0.3269998,-0.7842539,-2.161644,-0.4054171,-0.0201495
250.9626,0.04500316,-0.3269998,-0.7687427,-2.161948,-0.4069602,-0.02015429
250.9778,0.04500316,-0.3269998,-0.7687427,-2.161948,-0.4069602,-0.02015429
250.9916,0.04500315,-0.3269998,-0.7534498,-2.16224,-0.4084375,-0.02015889
251.0081,0.04500313,-0.3269998,-0.7383721,-2.162521,-0.4098507,-0.02016331
251.0218,0.04500312,-0.3269998,-0.7235065,-2.16279,-0.4112015,-0.02016754
251.0367,0.04500312,-0.3269998,-0.7235065,-2.16279,-0.4112015,-0.02016754
251.0509,0.04500311,-0.3269998,-0.70885,-2.163047,-0.4124917,-0.02017161
251.066,0.0450031,-0.3269998,-0.6943997,-2.163294,-0.4137228,-0.0201755
251.0806,0.04500309,-0.3269998,-0.6801525,-2.16353,-0.4148963,-0.02017922
251.0953,0.04500309,-0.3269998,-0.6801525,-2.16353,-0.4148963,-0.02017922
251.1095,0.04500308,-0.3269998,-0.6661056,-2.163755,-0.416014,-0.02018278
251.125,0.04500307,-0.3269998,-0.6522562,-2.16397,-0.4170773,-0.02018618
251.14,0.04500306,-0.3269998,-0.6386015,-2.164175,-0.4180878,-0.02018942
251.1548,0.04500306,-0.3269998,-0.6386015,-2.164175,-0.4180878,-0.02018942
251.1691,0.04500305,-0.3269998,-0.6251387,-2.16437,-0.4190468,-0.02019251
251.1843,0.04500303,-0.3269998,-0.6118652,-2.164555,-0.4199559,-0.02019545
251.1992,0.04500303,-0.3269998,-0.6118652,-2.164555,-0.4199559,-0.02019545
251.2131,0.04500302,-0.3269998,-0.5987782,-2.164731,-0.4208163,-0.02019824
251.2286,0.04500302,-0.3269998,-0.5858753,-2.164898,-0.4216296,-0.02020089
251.2445,0.04500301,-0.3269998,-0.5731537,-2.165056,-0.4223969,-0.0202034
251.2592,0.04500301,-0.3269998,-0.5731537,-2.165056,-0.4223969,-0.0202034
251.2724,0.045003,-0.3269998,-0.560611,-2.165205,-0.4231197,-0.02020577
251.2878,0.04500299,-0.3269998,-0.5482447,-2.165346,-0.4237992,-0.02020801
251.3026,0.04500299,-0.3269998,-0.5360522,-2.165478,-0.4244365,-0.02021013
251.3172,0.04500299,-0.3269998,-0.5360522,-2.165478,-0.4244365,-0.02021013
251.3312,0.04500298,-0.3269998,-0.5240312,-2.165602,-0.4250331,-0.02021212
251.3467,0.04500297,-0.3269998,-0.5121793,-2.165718,-0.42559,-0.02021399
251.3615,0.04500296,-0.3269998,-0.5004941,-2.165827,-0.4261084,-0.02021573
251.3766,0.04500296,-0.3269998,-0.5004941,-2.165827,-0.4261084,-0.02021573
251.3907,0.04500296,-0.3269998,-0.4889733,-2.165927,-0.4265894,-0.02021737
251.4062,0.04500295,-0.3269998,-0.4776146,-2.166021,-0.4270342,-0.02021889
251.4209,0.04500294,-0.3269998,-0.4664158,-2.166107,-0.4274438,-0.0202203
251.4359,0.04500294,-0.3269998,-0.4664158,-2.166107,-0.4274438,-0.0202203
251.4502,0.04500293,-0.3269998,-0.4553746,-2.166187,-0.4278193,-0.0202216
251.4654,0.04500293,-0.3269998,-0.4444889,-2.166259,-0.4281616,-0.0202228
251.4809,0.04500292,-0.3269998,-0.4337566,-2.166325,-0.4284719,-0.0202239
251.4959,0.04500292,-0.3269998,-0.4337566,-2.166325,-0.4284719,-0.0202239
251.509,0.04500291,-0.3269998,-0.4231754,-2.166385,-0.4287511,-0.0202249
251.5243,0.0450029,-0.3269998,-0.4127434,-2.166438,-0.4290002,-0.02022581
251.5395,0.0450029,-0.3269998,-0.4127434,-2.166438,-0.4290002,-0.02022581
251.5533,0.0450029,-0.3269998,-0.4024584,-2.166485,-0.4292201,-0.02022663
251.5689,0.04500289,-0.3269998,-0.3923184,-2.166526,-0.4294116,-0.02022735
251.5837,0.04500289,-0.3269998,-0.3823214,-2.166562,-0.4295758,-0.02022799
251.5984,0.04500289,-0.3269998,-0.3823214,-2.166562,-0.4295758,-0.02022799
251.6125,0.04500288,-0.3269998,-0.3724656,-2.166592,-0.4297135,-0.02022854
251.6284,0.04500288,-0.3269998,-0.3627487,-2.166616,-0.4298255,-0.02022902
251.643,0.04500287,-0.3269998,-0.3531691,-2.166635,-0.4299126,-0.02022941
251.6579,0.04500287,-0.3269998,-0.3531691,-2.166635,-0.4299126,-0.02022941
251.6722,0.04500287,-0.3269998,-0.3437248,-2.166649,-0.4299757,-0.02022972
251.6884,0.04500287,-0.3269998,-0.3344139,-2.166658,-0.4300156,-0.02022996
251.7027,0.04500286,-0.3269998,-0.3252347,-2.166662,-0.4300329,-0.02023012
251.7185,0.04500286,-0.3269998,-0.3252347,-2.166662,-0.4300329,-0.02023012
251.7326,0.04500286,-0.3269998,-0.3161851,-2.166661,-0.4300286,-0.02023022
251.7469,0.04500286,-0.3269998,-0.3072636,-2.166656,-0.4300033,-0.02023025
251.7614,0.04500285,-0.3269998,-0.2984684,-2.166646,-0.4299576,-0.02023021
251.7763,0.04500285,-0.3269998,-0.2984684,-2.166646,-0.4299576,-0.02023021
251.7905,0.04500285,-0.3269998,-0.2897976,-2.166632,-0.4298924,-0.02023011
251.8061,0.04500284,-0.3269998,-0.2812497,-2.166614,-0.4298083,-0.02022995
251.8208,0.04500284,-0.3269998,-0.2728228,-2.166592,-0.4297059,-0.02022973
251.8359,0.04500284,-0.3269998,-0.2728228,-2.166592,-0.4297059,-0.02022973
251.8503,0.04500284,-0.3269998,-0.2645154,-2.166566,-0.429586,-0.02022944
251.8655,0.04500283,-0.3269998,-0.2563258,-2.166536,-0.429449,-0.0202291
251.8803,0.04500283,-0.3269998,-0.2482523,-2.166502,-0.4292957,-0.02022871
251.895,0.04500283,-0.3269998,-0.2482523,-2.166502,-0.4292957,-0.02022871
251.9093,0.04500283,-0.3269998,-0.2402935,-2.166465,-0.4291267,-0.02022827
251.9247,0.04500282,-0.3269998,-0.2324476,-2.166425,-0.4289424,-0.02022778
251.9404,0.04500282,-0.3269998,-0.2247132,-2.166381,-0.4287436,-0.02022724
251.9554,0.04500282,-0.3269998,-0.2247132,-2.166381,-0.4287436,-0.02022724
251.9686,0.04500281,-0.3269998,-0.2170887,-2.166333,-0.4285307,-0.02022666
251.9838,0.04500281,-0.3269998,-0.2095726,-2.166283,-0.4283042,-0.02022602
251.9985,0.04500281,-0.3269998,-0.2095726,-2.166283,-0.4283042,-0.02022602
252.0126,0.04500281,-0.3269998,-0.2021634,-2.16623,-0.4280648,-0.02022535
252.0281,0.0450028,-0.3269998,-0.1948596,-2.166174,-0.4278129,-0.02022463
252.0428,0.0450028,-0.3269998,-0.1876599,-2.166115,-0.427549,-0.02022388
252.0576,0.0450028,-0.3269998,-0.1876599,-2.166115,-0.427549,-0.02022388
252.072,0.0450028,-0.3269998,-0.1805627,-2.166053,-0.4272736,-0.02022309
252.0878,0.04500279,-0.3269998,-0.1735666,-2.165989,-0.4269871,-0.02022226
252.1026,0.04500279,-0.3269998,-0.1666703,-2.165922,-0.4266901,-0.0202214
252.1172,0.04500279,-0.3269998,-0.1666703,-2.165922,-0.4266901,-0.0202214
252.1314,0.04500279,-0.3269998,-0.1598724,-2.165853,-0.426383,-0.02022049
252.1469,0.04500279,-0.3269998,-0.1531715,-2.165782,-0.4260661,-0.02021956
252.1613,0.04500279,-0.3269998,-0.1465662,-2.165708,-0.42574,-0.0202186
252.1773,0.04500279,-0.3269998,-0.1465662,-2.165708,-0.42574,-0.0202186
252.1914,0.04500279,-0.3269998,-0.1400554,-2.165632,-0.425405,-0.0202176
252.2058,0.04500279,-0.3269998,-0.1336376,-2.165554,-0.4250615,-0.02021658
252.2205,0.04500279,-0.3269998,-0.1273116,-2.165474,-0.42471,-0.02021553
252.2353,0.04500279,-0.3269998,-0.1273116,-2.165474,-0.42471,-0.02021553
252.2495,0.04500279,-0.3269998,-0.1210761,-2.165393,-0.4243507,-0.02021445
252.2648,0.04500279,-0.3269998,-0.1149298,-2.165309,-0.4239842,-0.02021334
252.2797,0.04500279,-0.3269998,-0.1149298,-2.165309,-0.4239842,-0.02021334
252.2939,0.04500279,-0.3269998,-0.1088716,-2.165224,-0.4236106,-0.02021221
252.3095,0.04500279,-0.3269998,-0.1029002,-2.165136,-0.4232305,-0.02021106
252.3242,0.04500279,-0.3269998,-0.0970144,-2.165048,-0.422844,-0.02020989
252.3392,0.04500279,-0.3269998,-0.0970144,-2.165048,-0.422844,-0.02020989
252.3532,0.04500279,-0.3269998,-0.09121302,-2.164957,-0.4224516,-0.0202087
252.369,0.04500279,-0.3269998,-0.0854949,-2.164865,-0.4220536,-0.02020749
252.3836,0.04500279,-0.3269998,-0.07985888,-2.164772,-0.4216502,-0.02020625
252.3982,0.04500279,-0.3269998,-0.07985888,-2.164772,-0.4216502,-0.02020625
252.4145,0.04500279,-0.3269998,-0.07430383,-2.164678,-0.4212418,-0.02020501
252.4289,0.04500279,-0.3269998,-0.06882862,-2.164582,-0.4208286,-0.02020374
252.4426,0.04500279,-0.3269998,-0.06343215,-2.164485,-0.4204111,-0.02020246
252.4574,0.04500279,-0.3269998,-0.06343215,-2.164485,-0.4204111,-0.02020246
252.4743,0.04500279,-0.3269998,-0.05811332,-2.164387,-0.4199893,-0.02020117
252.4887,0.04500279,-0.3269998,-0.05287106,-2.164288,-0.4195636,-0.02019986
252.5018,0.04500279,-0.3269998,-0.04770429,-2.164187,-0.4191343,-0.02019854
