JMolnar6/NonAnthroHands_User_Study/HandsLoggerWithURDF/tempdata/PID 0 (test)/files/Reachy_JointMotion_gesture_2_11.csv
Time,r_shoulder,r_shoulder_x,r_upper_arm,r_forearm,r_wrist,r_wrist2hand,
284.8693,0.04515797,0.0006063341,NaN,-0.329683,0.0003227617,NaN,0.3006717,-14.15944,NaN,-2.148032,-1.470003,-0.3590184,14.1675,NaN,NaN,-0.02000991,0.802735,-2.314702E-07,1.035604,8.79966E-09,1.462503
284.8865,0.0451574,0.0006064585,NaN,-0.3296523,0.0003226546,NaN,0.3013594,-14.15899,NaN,-2.148098,-1.464919,-0.3599026,14.16219,NaN,NaN,-0.02001254,0.8033297,-2.723366E-07,1.028303,8.79966E-09,1.460911
284.899,0.0451574,0.0006064585,NaN,-0.3296523,0.0003226546,NaN,0.3013594,-14.15899,NaN,-2.148098,-1.464919,-0.3599026,14.16219,NaN,NaN,-0.02001254,0.8033297,-2.723366E-07,1.028303,8.79966E-09,1.460911
284.9138,0.04515684,0.0006067279,NaN,-0.3296219,0.0003231063,NaN,0.30288,-14.1588,NaN,-2.148184,-1.458551,-0.3606372,14.15557,NaN,NaN,-0.02001468,0.8036754,-3.070936E-07,1.019133,8.79966E-09,1.455991
284.929,0.04515627,0.0006069904,NaN,-0.3295919,0.0003237364,NaN,0.3048424,-14.15925,NaN,-2.148262,-1.454972,-0.3611602,14.15188,NaN,NaN,-0.0200162,0.8032845,-3.299017E-07,1.013959,6.415474E-09,1.457927
284.9449,0.04515572,0.000607706,NaN,-0.3295622,0.0003238905,NaN,0.3069957,-14.16007,NaN,-2.148326,-1.465563,-0.3615577,14.16293,NaN,NaN,-0.02001734,0.8023049,-3.494409E-07,1.029188,8.79966E-09,1.464999
284.9589,0.04515572,0.000607706,NaN,-0.3295622,0.0003238905,NaN,0.3069957,-14.16007,NaN,-2.148326,-1.465563,-0.3615577,14.16293,NaN,NaN,-0.02001734,0.8023049,-3.494409E-07,1.029188,8.79966E-09,1.464999
284.973,0.04515516,0.0006081486,NaN,-0.3295329,0.0003237379,NaN,0.3084725,-14.15969,NaN,-2.148298,-1.467919,-0.3609836,14.16532,NaN,NaN,-0.02001557,0.8026146,-3.208306E-07,1.032585,7.607567E-09,1.460345
284.9884,0.04515461,0.0006081106,NaN,-0.329504,0.000323184,NaN,0.3091284,-14.15845,NaN,-2.148241,-1.469012,-0.3605238,14.16635,NaN,NaN,-0.02001421,0.8038061,-2.998572E-07,1.034204,5.223381E-09,1.456021
285.0035,0.04515406,0.0006083328,NaN,-0.3294753,0.0003233585,NaN,0.3093296,-14.15912,NaN,-2.148188,-1.46295,-0.360255,14.1601,NaN,NaN,-0.02001343,0.8032978,-2.875638E-07,1.025436,5.223381E-09,1.461658
285.0183,0.04515406,0.0006083328,NaN,-0.3294753,0.0003233585,NaN,0.3093296,-14.15912,NaN,-2.148188,-1.46295,-0.360255,14.1601,NaN,NaN,-0.02001343,0.8032978,-2.875638E-07,1.025436,5.223381E-09,1.461658
285.0327,0.04515352,0.0006087781,NaN,-0.3294471,0.0003236083,NaN,0.3085732,-14.15996,NaN,-2.148066,-1.46299,-0.3591912,14.16019,NaN,NaN,-0.02001026,0.8024548,-2.385017E-07,1.025457,8.79966E-09,1.461917
285.0481,0.04515297,0.0006088087,NaN,-0.3294191,0.0003239322,NaN,0.3068902,-14.15894,NaN,-2.147933,-1.458462,-0.3583315,14.1554,NaN,NaN,-0.02000774,0.8035629,-1.99945E-07,1.018963,8.79966E-09,1.45665
285.0631,0.04515243,0.0006087192,NaN,-0.3293915,0.0003244291,NaN,0.3047259,-14.15933,NaN,-2.147817,-1.455505,-0.3577097,14.15235,NaN,NaN,-0.02000593,0.8032192,-1.726013E-07,1.014687,6.415474E-09,1.454961
285.0781,0.04515243,0.0006087192,NaN,-0.3293915,0.0003244291,NaN,0.3047259,-14.15933,NaN,-2.147817,-1.455505,-0.3577097,14.15235,NaN,NaN,-0.02000593,0.8032192,-1.726013E-07,1.014687,6.415474E-09,1.454961
285.0923,0.04515189,0.0006083107,NaN,-0.3293643,0.0003244462,NaN,0.3023555,-14.15901,NaN,-2.147719,-1.461779,-0.3572259,14.15881,NaN,NaN,-0.02000453,0.8034413,-1.506221E-07,1.023723,9.991752E-09,1.456141
285.1081,0.04515136,0.0006074604,NaN,-0.3293373,0.0003238338,NaN,0.299168,-14.15936,NaN,-2.147556,-1.467136,-0.355908,14.16438,NaN,NaN,-0.02000063,0.8029688,-8.781372E-08,1.031423,1.356803E-08,1.459171
285.1232,0.04515083,0.0006075614,NaN,-0.3293107,0.0003236135,NaN,0.2951357,-14.15977,NaN,-2.147384,-1.467332,-0.3547804,14.16461,NaN,NaN,-0.01999734,0.8025426,-3.573417E-08,1.031684,1.118384E-08,1.462508
285.1378,0.04515083,0.0006075614,NaN,-0.3293107,0.0003236135,NaN,0.2951357,-14.15977,NaN,-2.147384,-1.467332,-0.3547804,14.16461,NaN,NaN,-0.01999734,0.8025426,-3.573417E-08,1.031684,1.118384E-08,1.462508
285.1541,0.04515029,0.0006068976,NaN,-0.3292844,0.0003235012,NaN,0.2906765,-14.15915,NaN,-2.14723,-1.456682,-0.3538896,14.15352,NaN,NaN,-0.01999477,0.8034384,5.69106E-09,1.016377,1.476012E-08,1.457777
285.1674,0.04514976,0.0006064097,NaN,-0.3292584,0.0003236938,NaN,0.2860525,-14.15875,NaN,-2.147094,-1.457566,-0.3531422,14.15439,NaN,NaN,-0.01999261,0.8038106,3.936768E-08,1.017655,1.356803E-08,1.452444
285.1825,0.04514924,0.0006065692,NaN,-0.3292327,0.0003243335,NaN,0.2806454,-14.15951,NaN,-2.146894,-1.455815,-0.3515684,14.15264,NaN,NaN,-0.01998799,0.8030859,1.129049E-07,1.01511,1.95285E-08,1.459284
285.1971,0.04514924,0.0006065692,NaN,-0.3292327,0.0003243335,NaN,0.2806454,-14.15951,NaN,-2.146894,-1.455815,-0.3515684,14.15264,NaN,NaN,-0.01998799,0.8030859,1.129049E-07,1.01511,1.95285E-08,1.459284
285.2115,0.04514871,0.0006060436,NaN,-0.3292074,0.0003245621,NaN,0.2744254,-14.15855,NaN,-2.146688,-1.455272,-0.3501951,14.15197,NaN,NaN,-0.01998402,0.8040424,1.769799E-07,1.014347,1.356803E-08,1.452079
285.227,0.04514819,0.0006057755,NaN,-0.3291823,0.0003243526,NaN,0.2678098,-14.15842,NaN,-2.146501,-1.463507,-0.3490683,14.1605,NaN,NaN,-0.01998078,0.8040475,2.301771E-07,1.026216,1.237594E-08,1.452741
285.2421,0.04514766,0.0006054586,NaN,-0.3291575,0.0003237649,NaN,0.2610602,-14.16011,NaN,-2.146333,-1.46828,-0.3480941,14.16559,NaN,NaN,-0.01997798,0.8022198,2.771157E-07,1.033038,8.799661E-09,1.465804
285.2569,0.04514766,0.0006054586,NaN,-0.3291575,0.0003237649,NaN,0.2610602,-14.16011,NaN,-2.146333,-1.46828,-0.3480941,14.16559,NaN,NaN,-0.01997798,0.8022198,2.771157E-07,1.033038,8.799661E-09,1.465804
285.2712,0.04514715,0.0006055155,NaN,-0.3291331,0.000324179,NaN,0.2535554,-14.15914,NaN,-2.146103,-1.458399,-0.3463024,14.15529,NaN,NaN,-0.01997278,0.8034309,3.624993E-07,1.018864,7.607568E-09,1.456722
285.287,0.04514663,0.0006059177,NaN,-0.3291089,0.000324096,NaN,0.2452662,-14.15906,NaN,-2.14587,-1.466322,-0.3447216,14.16349,NaN,NaN,-0.01996824,0.8033459,4.35664E-07,1.030272,5.223382E-09,1.461711
285.3018,0.04514612,0.0006063802,NaN,-0.329085,0.0003245922,NaN,0.2366105,-14.15862,NaN,-2.145657,-1.459799,-0.3433963,14.15668,NaN,NaN,-0.01996445,0.8039226,4.955667E-07,1.020887,7.607568E-09,1.45525
285.3168,0.04514612,0.0006063802,NaN,-0.329085,0.0003245922,NaN,0.2366105,-14.15862,NaN,-2.145657,-1.459799,-0.3433963,14.15668,NaN,NaN,-0.01996445,0.8039226,4.955667E-07,1.020887,7.607568E-09,1.45525
285.3311,0.04514561,0.0006070627,NaN,-0.3290614,0.0003246785,NaN,0.227099,-14.15893,NaN,-2.145387,-1.464761,-0.3413247,14.16184,NaN,NaN,-0.0199585,0.8034925,5.951065E-07,1.028021,4.031289E-09,1.459813
285.3479,0.0451451,0.0006075294,NaN,-0.3290381,0.0003252252,NaN,0.2167735,-14.15839,NaN,-2.145121,-1.457723,-0.3395055,14.15448,NaN,NaN,-0.01995333,0.8041641,6.810862E-07,1.017891,5.223382E-09,1.453438
285.3625,0.04514459,0.000607194,NaN,-0.329015,0.0003255219,NaN,0.2060853,-14.15822,NaN,-2.144878,-1.454778,-0.3379653,14.15138,NaN,NaN,-0.01994898,0.8043546,7.55592E-07,1.013638,4.550103E-10,1.451928
285.3762,0.04514459,0.000607194,NaN,-0.329015,0.0003255219,NaN,0.2060853,-14.15822,NaN,-2.144878,-1.454778,-0.3379653,14.15138,NaN,NaN,-0.01994898,0.8043546,7.55592E-07,1.013638,4.550103E-10,1.451928
285.3906,0.04514408,0.0006067723,NaN,-0.3289923,0.0003251325,NaN,0.1953101,-14.15936,NaN,-2.144659,-1.466658,-0.336601,14.16382,NaN,NaN,-0.01994514,0.8030218,8.178789E-07,1.030733,6.415474E-09,1.462184
285.4062,0.04514358,0.0006063489,NaN,-0.3289698,0.0003252311,NaN,0.1838272,-14.15902,NaN,-2.144383,-1.458745,-0.3344377,14.15557,NaN,NaN,-0.019939,0.8035392,9.202498E-07,1.019342,7.607567E-09,1.458654
285.4211,0.04514308,0.0006063284,NaN,-0.3289476,0.0003259271,NaN,0.1716117,-14.15858,NaN,-2.144109,-1.454017,-0.3325058,14.15061,NaN,NaN,-0.01993359,0.8040361,1.011296E-06,1.012532,7.607567E-09,1.454067
285.4362,0.04514308,0.0006063284,NaN,-0.3289476,0.0003259271,NaN,0.1716117,-14.15858,NaN,-2.144109,-1.454017,-0.3325058,14.15061,NaN,NaN,-0.01993359,0.8040361,1.011296E-06,1.012532,7.607567E-09,1.454067
285.4504,0.04514258,0.0006064238,NaN,-0.3289256,0.000326418,NaN,0.1590844,-14.15927,NaN,-2.143857,-1.456082,-0.3308464,14.15281,NaN,NaN,-0.01992896,0.8033045,1.090123E-06,1.015486,1.647103E-09,1.45828
285.4658,0.04514208,0.0006066462,NaN,-0.328904,0.0003262985,NaN,0.1465069,-14.15976,NaN,-2.143627,-1.466015,-0.3293635,14.16313,NaN,NaN,-0.01992484,0.8026394,1.160158E-06,1.029771,1.647103E-09,1.466382
285.481,0.04514159,0.0006058593,NaN,-0.3288825,0.0003261484,NaN,0.1332489,-14.15912,NaN,-2.143342,-1.455475,-0.3270849,14.15216,NaN,NaN,-0.01991848,0.8035271,1.271023E-06,1.014621,-3.121269E-09,1.457148
285.4959,0.04514159,0.0006058593,NaN,-0.3288825,0.0003261484,NaN,0.1332489,-14.15912,NaN,-2.143342,-1.455475,-0.3270849,14.15216,NaN,NaN,-0.01991848,0.8035271,1.271023E-06,1.014621,-3.121269E-09,1.457148
285.51,0.0451411,0.0006053324,NaN,-0.3288614,0.0003257789,NaN,0.1192842,-14.16023,NaN,-2.14306,-1.464642,-0.3250447,14.16177,NaN,NaN,-0.01991285,0.8022831,1.368328E-06,1.027797,-5.505454E-09,1.466523
285.5258,0.04514061,0.0006050702,NaN,-0.3288405,0.0003254588,NaN,0.1050338,-14.16021,NaN,-2.142801,-1.465106,-0.3232829,14.16222,NaN,NaN,-0.01990802,0.802256,1.451178E-06,1.028451,-4.313361E-09,1.466472
285.5406,0.04514011,0.0006055371,NaN,-0.3288198,0.0003253873,NaN,0.09075828,-14.15999,NaN,-2.142565,-1.466266,-0.3217031,14.16338,NaN,NaN,-0.01990371,0.8024194,1.528366E-06,1.030112,-3.121268E-09,1.467405
285.5559,0.04514011,0.0006055371,NaN,-0.3288198,0.0003253873,NaN,0.09075828,-14.15999,NaN,-2.142565,-1.466266,-0.3217031,14.16338,NaN,NaN,-0.01990371,0.8024194,1.528366E-06,1.030112,-3.121268E-09,1.467405
285.5719,0.04513963,0.0006052115,NaN,-0.3287995,0.0003245903,NaN,0.07582396,-14.15882,NaN,-2.142275,-1.468301,-0.3193326,14.16537,NaN,NaN,-0.01989722,0.8035006,1.646234E-06,1.033071,-6.697547E-09,1.463558
285.5854,0.04513915,0.0006054155,NaN,-0.3287793,0.0003252096,NaN,0.06020561,-14.15904,NaN,-2.14199,-1.4561,-0.317208,14.15272,NaN,NaN,-0.01989146,0.8035976,1.750989E-06,1.015479,-1.027383E-08,1.458958
285.6001,0.04513866,0.0006057656,NaN,-0.3287594,0.0003251323,NaN,0.04432545,-14.15964,NaN,-2.141729,-1.464552,-0.3153673,14.16152,NaN,NaN,-0.01988651,0.8028373,1.839055E-06,1.027632,-1.027383E-08,1.463571
285.6153,0.04513866,0.0006057656,NaN,-0.3287594,0.0003251323,NaN,0.04432545,-14.15964,NaN,-2.141729,-1.464552,-0.3153673,14.16152,NaN,NaN,-0.01988651,0.8028373,1.839055E-06,1.027632,-1.027383E-08,1.463571
285.6295,0.04513818,0.000605773,NaN,-0.3287397,0.0003253933,NaN,0.02768228,-14.15886,NaN,-2.141418,-1.458195,-0.3128046,14.15485,NaN,NaN,-0.01987959,0.8037125,1.962139E-06,1.018492,-1.027383E-08,1.458565
285.6451,0.0451377,0.0006064334,NaN,-0.3287203,0.0003256937,NaN,0.01032217,-14.16039,NaN,-2.141119,-1.463152,-0.3105265,14.16011,NaN,NaN,-0.01987353,0.8020712,2.074941E-06,1.025581,-1.027383E-08,1.469087
285.6601,0.04513723,0.0006067913,NaN,-0.3287011,0.0003262782,NaN,-0.007299278,-14.15906,NaN,-2.140846,-1.455641,-0.3085533,14.15221,NaN,NaN,-0.01986831,0.8035358,2.172096E-06,1.01481,-1.38501E-08,1.457888
285.675,0.04513723,0.0006067913,NaN,-0.3287011,0.0003262782,NaN,-0.007299278,-14.15906,NaN,-2.140846,-1.455641,-0.3085533,14.15221,NaN,NaN,-0.01986831,0.8035358,2.172096E-06,1.01481,-1.38501E-08,1.457888
285.6894,0.04513675,0.0006072216,NaN,-0.3286822,0.0003261733,NaN,-0.02490745,-14.15986,NaN,-2.140598,-1.466883,-0.3067794,14.16393,NaN,NaN,-0.01986366,0.8025485,2.255543E-06,1.030975,-1.38501E-08,1.467184
285.705,0.04513628,0.0006071927,NaN,-0.3286635,0.0003255767,NaN,-0.04313659,-14.15888,NaN,-2.140301,-1.468609,-0.3042276,14.16562,NaN,NaN,-0.01985693,0.8034427,2.378925E-06,1.033485,-1.742638E-08,1.460483
285.72,0.04513628,0.0006071927,NaN,-0.3286635,0.0003255767,NaN,-0.04313659,-14.15888,NaN,-2.140301,-1.468609,-0.3042276,14.16562,NaN,NaN,-0.01985693,0.8034427,2.378925E-06,1.033485,-1.742638E-08,1.460483
285.7341,0.04513581,0.0006072121,NaN,-0.328645,0.0003258431,NaN,-0.062007,-14.15848,NaN,-2.140012,-1.458137,-0.3019371,14.15472,NaN,NaN,-0.01985097,0.8041089,2.496942E-06,1.01841,-1.742638E-08,1.457157
285.7497,0.04513534,0.0006075694,NaN,-0.3286268,0.0003256868,NaN,-0.08109295,-14.15958,NaN,-2.139748,-1.466845,-0.2999423,14.16384,NaN,NaN,-0.01984583,0.802839,2.592905E-06,1.03092,-1.50422E-08,1.466399
285.7645,0.04513487,0.000607849,NaN,-0.3286088,0.0003260275,NaN,-0.1001338,-14.15949,NaN,-2.139509,-1.459478,-0.2981446,14.15618,NaN,NaN,-0.01984124,0.8031046,2.679779E-06,1.020306,-1.50422E-08,1.460914
285.7805,0.0451344,0.0006085287,NaN,-0.3285909,0.0003260223,NaN,-0.1197734,-14.15949,NaN,-2.13922,-1.467112,-0.2955695,14.16406,NaN,NaN,-0.01983462,0.8029301,2.810313E-06,1.031283,-1.265801E-08,1.465191
285.7958,0.0451344,0.0006085287,NaN,-0.3285909,0.0003260223,NaN,-0.1197734,-14.15949,NaN,-2.13922,-1.467112,-0.2955695,14.16406,NaN,NaN,-0.01983462,0.8029301,2.810313E-06,1.031283,-1.265801E-08,1.465191
285.8085,0.04513394,0.0006091023,NaN,-0.3285733,0.0003268414,NaN,-0.1400332,-14.1592,NaN,-2.138942,-1.455804,-0.2932603,14.15231,NaN,NaN,-0.01982878,0.8035033,2.92535E-06,1.015007,-1.50422E-08,1.460644
285.8241,0.04513348,0.0006093922,NaN,-0.328556,0.0003268211,NaN,-0.1604871,-14.16048,NaN,-2.138688,-1.465306,-0.2912498,14.16227,NaN,NaN,-0.01982375,0.8020821,3.027572E-06,1.028656,-1.265801E-08,1.468493
285.8389,0.04513348,0.0006093922,NaN,-0.328556,0.0003268211,NaN,-0.1604871,-14.16048,NaN,-2.138688,-1.465306,-0.2912498,14.16227,NaN,NaN,-0.01982375,0.8020821,3.027572E-06,1.028656,-1.265801E-08,1.468493
285.8535,0.04513302,0.0006096949,NaN,-0.3285388,0.0003275011,NaN,-0.1808756,-14.15932,NaN,-2.138458,-1.45566,-0.2894389,14.15219,NaN,NaN,-0.01981926,0.8034613,3.116979E-06,1.014817,-7.88964E-09,1.4608
285.8688,0.04513256,0.0006092926,NaN,-0.3285219,0.0003270785,NaN,-0.2010753,-14.15916,NaN,-2.138248,-1.467022,-0.2877637,14.16393,NaN,NaN,-0.01981515,0.8034533,3.201618E-06,1.031178,-6.697547E-09,1.461095
285.884,0.0451321,0.0006088317,NaN,-0.3285052,0.0003272353,NaN,-0.2210328,-14.15946,NaN,-2.138054,-1.458364,-0.2861916,14.15497,NaN,NaN,-0.01981132,0.8033645,3.285064E-06,1.018693,-1.265801E-08,1.459569
285.8988,0.0451321,0.0006088317,NaN,-0.3285052,0.0003272353,NaN,-0.2210328,-14.15946,NaN,-2.138054,-1.458364,-0.2861916,14.15497,NaN,NaN,-0.01981132,0.8033645,3.285064E-06,1.018693,-1.265801E-08,1.459569
285.9133,0.04513164,0.0006087161,NaN,-0.3284887,0.0003270052,NaN,-0.2407269,-14.16004,NaN,-2.137875,-1.466354,-0.2847068,14.16329,NaN,NaN,-0.01980773,0.8026413,3.361507E-06,1.030177,-2.100266E-08,1.466917
285.9287,0.04513118,0.0006086096,NaN,-0.3284724,0.0003274987,NaN,-0.2601508,-14.1592,NaN,-2.137707,-1.456416,-0.2833008,14.15292,NaN,NaN,-0.01980437,0.8037094,3.433927E-06,1.015898,-1.981057E-08,1.459855
285.9437,0.04513073,0.0006089248,NaN,-0.3284563,0.0003274446,NaN,-0.2793034,-14.15964,NaN,-2.137551,-1.465069,-0.2819691,14.16192,NaN,NaN,-0.01980121,0.8031306,3.504409E-06,1.028345,-1.742638E-08,1.465624
285.9586,0.04513073,0.0006089248,NaN,-0.3284563,0.0003274446,NaN,-0.2793034,-14.15964,NaN,-2.137551,-1.465069,-0.2819691,14.16192,NaN,NaN,-0.01980121,0.8031306,3.504409E-06,1.028345,-1.742638E-08,1.465624
285.9727,0.04513027,0.000609238,NaN,-0.3284404,0.000327198,NaN,-0.2981865,-14.16011,NaN,-2.137406,-1.466468,-0.2807084,14.16338,NaN,NaN,-0.01979824,0.8025977,3.568782E-06,1.030326,-1.50422E-08,1.466157
285.9896,0.04512982,0.0006093992,NaN,-0.3284247,0.000327372,NaN,-0.3168027,-14.15916,NaN,-2.137271,-1.461102,-0.2795161,14.15772,NaN,NaN,-0.01979547,0.8036335,3.627195E-06,1.022616,-1.385011E-08,1.460702
286.0035,0.04512937,0.0006097833,NaN,-0.3284092,0.0003278642,NaN,-0.3351554,-14.15982,NaN,-2.137145,-1.458722,-0.27839,14.15528,NaN,NaN,-0.01979287,0.8030002,3.68367E-06,1.019152,-4.313363E-09,1.463421
286.0182,0.04512937,0.0006097833,NaN,-0.3284092,0.0003278642,NaN,-0.3351554,-14.15982,NaN,-2.137145,-1.458722,-0.27839,14.15528,NaN,NaN,-0.01979287,0.8030002,3.68367E-06,1.019152,-4.313363E-09,1.463421
286.0322,0.04512892,0.0006102886,NaN,-0.3283939,0.0003278254,NaN,-0.3532477,-14.1598,NaN,-2.137029,-1.46604,-0.277328,14.16283,NaN,NaN,-0.01979044,0.8028588,3.739251E-06,1.029673,-6.697549E-09,1.466486
286.0478,0.04512846,0.0006103651,NaN,-0.3283788,0.0003280114,NaN,-0.3710831,-14.15909,NaN,-2.136922,-1.46001,-0.2763283,14.15651,NaN,NaN,-0.01978818,0.8036789,3.793044E-06,1.021005,-5.505456E-09,1.460132
286.0628,0.04512802,0.0006107253,NaN,-0.3283639,0.0003280643,NaN,-0.3886649,-14.16045,NaN,-2.136823,-1.464784,-0.2753889,14.16156,NaN,NaN,-0.01978609,0.8022149,3.840728E-06,1.027833,-7.370842E-10,1.468426
286.0778,0.04512802,0.0006107253,NaN,-0.3283639,0.0003280643,NaN,-0.3886649,-14.16045,NaN,-2.136823,-1.464784,-0.2753889,14.16156,NaN,NaN,-0.01978609,0.8022149,3.840728E-06,1.027833,-7.370842E-10,1.468426
286.0921,0.04512757,0.0006111228,NaN,-0.3283491,0.0003282314,NaN,-0.4059965,-14.16035,NaN,-2.136734,-1.463171,-0.2745079,14.15986,NaN,NaN,-0.01978414,0.8023335,3.885879E-06,1.025505,5.22338E-09,1.466559
286.1078,0.04512712,0.000611368,NaN,-0.3283346,0.0003278936,NaN,-0.4230813,-14.16036,NaN,-2.136652,-1.468799,-0.2736837,14.16566,NaN,NaN,-0.01978234,0.8021728,3.928347E-06,1.033591,7.607566E-09,1.469749
286.1228,0.04512668,0.0006110542,NaN,-0.3283202,0.0003272147,NaN,-0.4399225,-14.15965,NaN,-2.136578,-1.467908,-0.2729144,14.16467,NaN,NaN,-0.01978068,0.8028812,3.968878E-06,1.032328,2.839195E-09,1.466177
286.1377,0.04512668,0.0006110542,NaN,-0.3283202,0.0003272147,NaN,-0.4399225,-14.15965,NaN,-2.136578,-1.467908,-0.2729144,14.16467,NaN,NaN,-0.01978068,0.8028812,3.968878E-06,1.032328,2.839195E-09,1.466177
286.1523,0.04512624,0.000610687,NaN,-0.328306,0.0003273088,NaN,-0.4565234,-14.15837,NaN,-2.136512,-1.457105,-0.2721984,14.15338,NaN,NaN,-0.01977916,0.8044429,4.007472E-06,1.016824,4.550089E-10,1.456266
286.1675,0.04512579,0.0006101775,NaN,-0.328292,0.0003275688,NaN,-0.4728872,-14.15882,NaN,-2.136453,-1.455586,-0.271534,14.15183,NaN,NaN,-0.01977777,0.804008,4.041447E-06,1.014614,4.550089E-10,1.454926
286.1824,0.04512535,0.0006095797,NaN,-0.3282782,0.0003277785,NaN,-0.4890172,-14.15931,NaN,-2.136402,-1.456997,-0.2709197,14.15333,NaN,NaN,-0.0197765,0.8034853,4.073931E-06,1.01663,4.550089E-10,1.457707
286.1983,0.04512535,0.0006095797,NaN,-0.3282782,0.0003277785,NaN,-0.4890172,-14.15931,NaN,-2.136402,-1.456997,-0.2709197,14.15333,NaN,NaN,-0.0197765,0.8034853,4.073931E-06,1.01663,4.550089E-10,1.457707
286.2117,0.04512491,0.0006087702,NaN,-0.3282646,0.0003278777,NaN,-0.5049164,-14.15915,NaN,-2.136358,-1.457194,-0.2703539,14.1535,NaN,NaN,-0.01977536,0.803634,4.105224E-06,1.016911,2.839195E-09,1.457563
286.227,0.04512448,0.0006084221,NaN,-0.3282511,0.0003276593,NaN,-0.520588,-14.15974,NaN,-2.13632,-1.465212,-0.2698351,14.16186,NaN,NaN,-0.01977434,0.8028998,4.134728E-06,1.028442,5.22338E-09,1.463303
286.2419,0.04512404,0.0006084222,NaN,-0.3282378,0.0003282261,NaN,-0.5360352,-14.15893,NaN,-2.136289,-1.456115,-0.2693618,14.15236,NaN,NaN,-0.01977342,0.8039132,4.16319E-06,1.015366,5.22338E-09,1.455904
286.2581,0.04512404,0.0006084222,NaN,-0.3282378,0.0003282261,NaN,-0.5360352,-14.15893,NaN,-2.136289,-1.456115,-0.2693618,14.15236,NaN,NaN,-0.01977342,0.8039132,4.16319E-06,1.015366,5.22338E-09,1.455904
286.2712,0.04512361,0.0006085808,NaN,-0.3282246,0.0003281695,NaN,-0.5512609,-14.16033,NaN,-2.136264,-1.465382,-0.2689325,14.16209,NaN,NaN,-0.01977261,0.8023621,4.187479E-06,1.028679,2.839195E-09,1.467769
286.2868,0.04512317,0.0006085793,NaN,-0.3282117,0.0003277016,NaN,-0.5662681,-14.15998,NaN,-2.136245,-1.46827,-0.2685459,14.16503,NaN,NaN,-0.01977191,0.8026091,4.210724E-06,1.032835,7.607566E-09,1.463485
286.3018,0.04512274,0.0006080255,NaN,-0.3281989,0.0003275523,NaN,-0.58106,-14.15906,NaN,-2.136232,-1.457375,-0.2682005,14.15367,NaN,NaN,-0.01977131,0.8038115,4.228457E-06,1.017185,5.22338E-09,1.455646
286.3167,0.04512274,0.0006080255,NaN,-0.3281989,0.0003275523,NaN,-0.58106,-14.15906,NaN,-2.136232,-1.457375,-0.2682005,14.15367,NaN,NaN,-0.01977131,0.8038115,4.228457E-06,1.017185,5.22338E-09,1.455646
286.3309,0.04512231,0.000607062,NaN,-0.3281862,0.0003273476,NaN,-0.5956393,-14.15842,NaN,-2.136225,-1.456724,-0.2678951,14.15292,NaN,NaN,-0.0197708,0.8044561,4.249617E-06,1.016257,4.550089E-10,1.453602
286.3466,0.04512188,0.0006055416,NaN,-0.3281737,0.0003263044,NaN,-0.610009,-14.15799,NaN,-2.136223,-1.467641,-0.2676284,14.16421,NaN,NaN,-0.01977038,0.8047055,4.264965E-06,1.032005,-1.929177E-09,1.458675
286.3616,0.04512145,0.0006041324,NaN,-0.3281614,0.0003260222,NaN,-0.624172,-14.15859,NaN,-2.136227,-1.456938,-0.2673991,14.15313,NaN,NaN,-0.01977006,0.8043754,4.280313E-06,1.016548,-1.929177E-09,1.455659
286.3764,0.04512145,0.0006041324,NaN,-0.3281614,0.0003260222,NaN,-0.624172,-14.15859,NaN,-2.136227,-1.456938,-0.2673991,14.15313,NaN,NaN,-0.01977006,0.8043754,4.280313E-06,1.016548,-1.929177E-09,1.455659
286.3908,0.04512103,0.0006032963,NaN,-0.3281492,0.0003263779,NaN,-0.6381312,-14.15881,NaN,-2.136236,-1.455076,-0.267206,14.15122,NaN,NaN,-0.01976982,0.8041666,4.29432E-06,1.013857,5.22338E-09,1.455067
286.4076,0.0451206,0.0006022179,NaN,-0.3281372,0.0003265432,NaN,-0.6518893,-14.15835,NaN,-2.13625,-1.455561,-0.2670479,14.15167,NaN,NaN,-0.01976965,0.8046002,4.304006E-06,1.014566,5.22338E-09,1.453096
286.4214,0.04512018,0.0006009245,NaN,-0.3281253,0.0003262285,NaN,-0.6654491,-14.15917,NaN,-2.136268,-1.461136,-0.2669236,14.15754,NaN,NaN,-0.01976958,0.8037019,4.312648E-06,1.022588,9.991751E-09,1.459283
286.4363,0.04512018,0.0006009245,NaN,-0.3281253,0.0003262285,NaN,-0.6654491,-14.15917,NaN,-2.136268,-1.461136,-0.2669236,14.15754,NaN,NaN,-0.01976958,0.8037019,4.312648E-06,1.022588,9.991751E-09,1.459283
286.4507,0.04511975,0.000599543,NaN,-0.3281135,0.0003258896,NaN,-0.6788135,-14.1592,NaN,-2.136292,-1.459494,-0.266832,14.15584,NaN,NaN,-0.01976957,0.8036883,4.32144E-06,1.020221,1.237594E-08,1.459718
286.4661,0.04511933,0.0005988495,NaN,-0.3281019,0.0003256316,NaN,-0.691985,-14.15994,NaN,-2.13632,-1.464182,-0.2667719,14.16076,NaN,NaN,-0.01976964,0.8028566,4.328146E-06,1.026954,1.237594E-08,1.465593
286.481,0.04511891,0.0005984999,NaN,-0.3280905,0.000325219,NaN,-0.7049663,-14.16008,NaN,-2.136352,-1.466873,-0.2667424,14.16355,NaN,NaN,-0.01976977,0.8026395,4.331424E-06,1.030819,9.991751E-09,1.46721
286.4962,0.04511891,0.0005984999,NaN,-0.3280905,0.000325219,NaN,-0.7049663,-14.16008,NaN,-2.136352,-1.466873,-0.2667424,14.16355,NaN,NaN,-0.01976977,0.8026395,4.331424E-06,1.030819,9.991751E-09,1.46721
286.5106,0.04511849,0.0005985572,NaN,-0.3280792,0.0003257447,NaN,-0.7177601,-14.15843,NaN,-2.136388,-1.456789,-0.2667423,14.15297,NaN,NaN,-0.01976997,0.8045362,4.334851E-06,1.016366,9.991751E-09,1.455048
286.5264,0.04511807,0.0005986195,NaN,-0.328068,0.0003255716,NaN,-0.7303691,-14.15933,NaN,-2.136429,-1.466431,-0.2667707,14.16306,NaN,NaN,-0.01977023,0.8034752,4.336565E-06,1.030241,7.607566E-09,1.461957
286.541,0.04511765,0.0005983945,NaN,-0.3280571,0.0003249615,NaN,-0.7427957,-14.15866,NaN,-2.136473,-1.468318,-0.2668266,14.16495,NaN,NaN,-0.01977057,0.8040739,4.336416E-06,1.032973,9.991751E-09,1.457945
286.5561,0.04511765,0.0005983945,NaN,-0.3280571,0.0003249615,NaN,-0.7427957,-14.15866,NaN,-2.136473,-1.468318,-0.2668266,14.16495,NaN,NaN,-0.01977057,0.8040739,4.336416E-06,1.032973,9.991751E-09,1.457945
286.5704,0.04511724,0.0005979657,NaN,-0.3280462,0.0003250093,NaN,-0.7550426,-14.15823,NaN,-2.136521,-1.457748,-0.2669089,14.15392,NaN,NaN,-0.01977095,0.8047531,4.334329E-06,1.017745,1.476012E-08,1.455648
286.5862,0.04511682,0.0005974389,NaN,-0.3280354,0.0003253306,NaN,-0.7671121,-14.15842,NaN,-2.136573,-1.455232,-0.2670168,14.15131,NaN,NaN,-0.01977139,0.8045864,4.332392E-06,1.014101,1.476012E-08,1.453237
286.602,0.04511641,0.0005962135,NaN,-0.3280248,0.0003247154,NaN,-0.7790069,-14.15899,NaN,-2.136628,-1.464651,-0.2671494,14.16114,NaN,NaN,-0.01977189,0.8038725,4.328592E-06,1.027665,1.476012E-08,1.461411
286.6158,0.04511641,0.0005962135,NaN,-0.3280248,0.0003247154,NaN,-0.7790069,-14.15899,NaN,-2.136628,-1.464651,-0.2671494,14.16114,NaN,NaN,-0.01977189,0.8038725,4.328592E-06,1.027665,1.476012E-08,1.461411
286.6299,0.045116,0.0005957445,NaN,-0.3280144,0.000325229,NaN,-0.7907293,-14.15859,NaN,-2.136686,-1.456583,-0.2673057,14.15272,NaN,NaN,-0.01977243,0.8044589,4.322408E-06,1.016048,1.237594E-08,1.454462
286.6455,0.04511559,0.0005956078,NaN,-0.328004,0.0003257719,NaN,-0.8022819,-14.15915,NaN,-2.136748,-1.455948,-0.2674849,14.15211,NaN,NaN,-0.01977303,0.8039089,4.315852E-06,1.015115,9.991751E-09,1.457592
286.6604,0.04511518,0.0005958761,NaN,-0.3279938,0.0003258186,NaN,-0.8136668,-14.15991,NaN,-2.136813,-1.464361,-0.2676862,14.1609,NaN,NaN,-0.01977367,0.8030258,4.309146E-06,1.027217,7.607566E-09,1.465443
286.6755,0.04511518,0.0005958761,NaN,-0.3279938,0.0003258186,NaN,-0.8136668,-14.15991,NaN,-2.136813,-1.464361,-0.2676862,14.1609,NaN,NaN,-0.01977367,0.8030258,4.309146E-06,1.027217,7.607566E-09,1.465443
286.6897,0.04511477,0.0005963855,NaN,-0.3279837,0.0003257399,NaN,-0.8248866,-14.15981,NaN,-2.136881,-1.467498,-0.2679087,14.16413,NaN,NaN,-0.01977436,0.803045,4.299982E-06,1.031732,7.607566E-09,1.466542
286.7068,0.04511436,0.0005968254,NaN,-0.3279738,0.000326368,NaN,-0.8359435,-14.15827,NaN,-2.136952,-1.457108,-0.2681516,14.15324,NaN,NaN,-0.0197751,0.8048533,4.290519E-06,1.016832,5.22338E-09,1.455196
286.7207,0.04511395,0.0005971432,NaN,-0.3279639,0.0003262709,NaN,-0.8468398,-14.15889,NaN,-2.137025,-1.464981,-0.2684142,14.16148,NaN,NaN,-0.01977587,0.8041125,4.280312E-06,1.028173,5.22338E-09,1.458457
286.7354,0.04511395,0.0005971432,NaN,-0.3279639,0.0003262709,NaN,-0.8468398,-14.15889,NaN,-2.137025,-1.464981,-0.2684142,14.16148,NaN,NaN,-0.01977587,0.8041125,4.280312E-06,1.028173,5.22338E-09,1.458457
286.7495,0.04511355,0.0005975508,NaN,-0.3279542,0.0003263727,NaN,-0.8575779,-14.15959,NaN,-2.137102,-1.463626,-0.2686957,14.16012,NaN,NaN,-0.01977669,0.8034278,4.267646E-06,1.026187,2.839195E-09,1.463423
286.765,0.04511315,0.0005981459,NaN,-0.3279446,0.0003270455,NaN,-0.8681598,-14.1583,NaN,-2.13718,-1.457991,-0.2689954,14.15415,NaN,NaN,-0.01977754,0.8048239,4.253267E-06,1.018105,5.22338E-09,1.455705
286.7801,0.04511274,0.0005989139,NaN,-0.3279352,0.0003273174,NaN,-0.8785879,-14.15963,NaN,-2.137262,-1.463809,-0.2693126,14.16031,NaN,NaN,-0.01977843,0.8033932,4.241494E-06,1.026458,-1.929177E-09,1.464524
286.795,0.04511274,0.0005989139,NaN,-0.3279352,0.0003273174,NaN,-0.8785879,-14.15963,NaN,-2.137262,-1.463809,-0.2693126,14.16031,NaN,NaN,-0.01977843,0.8033932,4.241494E-06,1.026458,-1.929177E-09,1.464524
286.8102,0.04511234,0.0005990884,NaN,-0.3279258,0.0003268833,NaN,-0.8888643,-14.15893,NaN,-2.137345,-1.4679,-0.2696465,14.16447,NaN,NaN,-0.01977936,0.8039793,4.225327E-06,1.032364,-1.929177E-09,1.459615
286.825,0.04511194,0.0005994262,NaN,-0.3279166,0.0003274602,NaN,-0.8989911,-14.1584,NaN,-2.137431,-1.456406,-0.2699965,14.15249,NaN,NaN,-0.01978031,0.8047903,4.207297E-06,1.015814,2.839195E-09,1.454962
286.8397,0.04511194,0.0005994262,NaN,-0.3279166,0.0003274602,NaN,-0.8989911,-14.1584,NaN,-2.137431,-1.456406,-0.2699965,14.15249,NaN,NaN,-0.01978031,0.8047903,4.207297E-06,1.015814,2.839195E-09,1.454962
286.8539,0.04511154,0.000599522,NaN,-0.3279074,0.0003278477,NaN,-0.9089705,-14.15838,NaN,-2.137519,-1.456727,-0.270362,14.1528,NaN,NaN,-0.0197813,0.8047902,4.190533E-06,1.016268,7.607566E-09,1.455894
286.8695,0.04511115,0.000600046,NaN,-0.3278984,0.0003278504,NaN,-0.9188046,-14.15891,NaN,-2.137609,-1.464344,-0.2707422,14.16076,NaN,NaN,-0.01978233,0.8041239,4.173844E-06,1.027235,9.991751E-09,1.461756
286.8843,0.04511075,0.0006003752,NaN,-0.3278895,0.0003283411,NaN,-0.9284954,-14.15817,NaN,-2.137702,-1.456122,-0.2711367,14.15214,NaN,NaN,-0.01978338,0.8050132,4.156558E-06,1.015396,7.607566E-09,1.453537
286.8992,0.04511075,0.0006003752,NaN,-0.3278895,0.0003283411,NaN,-0.9284954,-14.15817,NaN,-2.137702,-1.456122,-0.2711367,14.15214,NaN,NaN,-0.01978338,0.8050132,4.156558E-06,1.015396,7.607566E-09,1.453537
286.9135,0.04511036,0.0006005122,NaN,-0.3278807,0.000328721,NaN,-0.938045,-14.1589,NaN,-2.137796,-1.456558,-0.2715447,14.15264,NaN,NaN,-0.01978445,0.8042414,4.137559E-06,1.015995,7.607566E-09,1.456953
286.9294,0.04510996,0.0006009981,NaN,-0.3278721,0.0003286576,NaN,-0.9474553,-14.15952,NaN,-2.137892,-1.466203,-0.2719657,14.16269,NaN,NaN,-0.01978556,0.8034477,4.119454E-06,1.029872,9.991751E-09,1.464568
286.9442,0.04510957,0.0006008063,NaN,-0.3278635,0.0003280215,NaN,-0.9567283,-14.15873,NaN,-2.137989,-1.46781,-0.2723992,14.16427,NaN,NaN,-0.01978669,0.8041685,4.09904E-06,1.032204,1.237594E-08,1.460027
286.9591,0.04510957,0.0006008063,NaN,-0.3278635,0.0003280215,NaN,-0.9567283,-14.15873,NaN,-2.137989,-1.46781,-0.2723992,14.16427,NaN,NaN,-0.01978669,0.8041685,4.09904E-06,1.032204,1.237594E-08,1.460027
286.9737,0.04510918,0.0006009128,NaN,-0.327855,0.0003284878,NaN,-0.9658661,-14.15806,NaN,-2.138089,-1.456486,-0.2728446,14.15245,NaN,NaN,-0.01978784,0.8051106,4.079594E-06,1.015899,1.476012E-08,1.453588
286.9892,0.04510879,0.0006009752,NaN,-0.3278466,0.0003284444,NaN,-0.9748705,-14.15979,NaN,-2.13819,-1.463678,-0.2733012,14.16008,NaN,NaN,-0.01978901,0.8032463,4.057987E-06,1.026224,1.476012E-08,1.463861
287.0044,0.0451084,0.0006006802,NaN,-0.3278384,0.0003281288,NaN,-0.9837434,-14.15915,NaN,-2.138292,-1.464172,-0.2737687,14.16051,NaN,NaN,-0.01979021,0.8038365,4.037573E-06,1.026945,1.237594E-08,1.460981
287.02,0.04510801,0.0006006591,NaN,-0.3278302,0.0003286508,NaN,-0.9924868,-14.15836,NaN,-2.138396,-1.455997,-0.2742465,14.15195,NaN,NaN,-0.01979142,0.8047932,4.016786E-06,1.015183,1.237594E-08,1.455013
287.0338,0.04510801,0.0006006591,NaN,-0.3278302,0.0003286508,NaN,-0.9924868,-14.15836,NaN,-2.138396,-1.455997,-0.2742465,14.15195,NaN,NaN,-0.01979142,0.8047932,4.016786E-06,1.015183,1.237594E-08,1.455013
287.0479,0.04510763,0.0006007524,NaN,-0.3278222,0.0003292508,NaN,-1.001102,-14.15867,NaN,-2.138502,-1.45434,-0.2747341,14.15024,NaN,NaN,-0.01979266,0.8044869,3.993614E-06,1.012778,9.991751E-09,1.456489
287.0634,0.04510724,0.0006007939,NaN,-0.3278142,0.000329861,NaN,-1.009592,-14.15879,NaN,-2.138608,-1.453558,-0.2752311,14.14943,NaN,NaN,-0.01979392,0.8043669,3.970741E-06,1.01164,1.237594E-08,1.45605
287.0784,0.04510724,0.0006007939,NaN,-0.3278142,0.000329861,NaN,-1.009592,-14.15879,NaN,-2.138608,-1.453558,-0.2752311,14.14943,NaN,NaN,-0.01979392,0.8043669,3.970741E-06,1.01164,1.237594E-08,1.45605
287.0928,0.04510686,0.0006003708,NaN,-0.3278064,0.000329965,NaN,-1.017957,-14.15857,NaN,-2.138716,-1.458721,-0.2757369,14.15475,NaN,NaN,-0.01979519,0.8045107,3.946974E-06,1.019083,7.607565E-09,1.455626
287.1083,0.04510647,0.0005999303,NaN,-0.3277986,0.000329569,NaN,-1.026201,-14.15994,NaN,-2.138825,-1.466278,-0.2762511,14.16272,NaN,NaN,-0.01979648,0.8030059,3.922685E-06,1.02994,7.607565E-09,1.464537
287.1234,0.04510609,0.0005994607,NaN,-0.3277909,0.0003298821,NaN,-1.034323,-14.15859,NaN,-2.138936,-1.455984,-0.2767734,14.15194,NaN,NaN,-0.01979778,0.8045943,3.897949E-06,1.015164,9.991751E-09,1.454737
287.1384,0.04510609,0.0005994607,NaN,-0.3277909,0.0003298821,NaN,-1.034323,-14.15859,NaN,-2.138936,-1.455984,-0.2767734,14.15194,NaN,NaN,-0.01979778,0.8045943,3.897949E-06,1.015164,9.991751E-09,1.454737
287.1527,0.04510571,0.0005990775,NaN,-0.3277834,0.0003303039,NaN,-1.042327,-14.15913,NaN,-2.139047,-1.455206,-0.2773032,14.15117,NaN,NaN,-0.0197991,0.8040636,3.872542E-06,1.014025,1.237594E-08,1.456508
287.1697,0.04510533,0.000598467,NaN,-0.3277759,0.0003299627,NaN,-1.050213,-14.15967,NaN,-2.139159,-1.465137,-0.2778401,14.16152,NaN,NaN,-0.01980043,0.8033827,3.847136E-06,1.028323,1.476012E-08,1.462637
287.1832,0.04510496,0.0005981387,NaN,-0.3277685,0.0003298719,NaN,-1.057984,-14.16021,NaN,-2.139272,-1.463344,-0.2783838,14.1597,NaN,NaN,-0.01980178,0.8028775,3.821506E-06,1.025718,1.476012E-08,1.464483
287.1981,0.04510496,0.0005981387,NaN,-0.3277685,0.0003298719,NaN,-1.057984,-14.16021,NaN,-2.139272,-1.463344,-0.2783838,14.1597,NaN,NaN,-0.01980178,0.8028775,3.821506E-06,1.025718,1.476012E-08,1.464483
287.2145,0.04510458,0.000598561,NaN,-0.3277612,0.0003297229,NaN,-1.065642,-14.15963,NaN,-2.139387,-1.468219,-0.2789338,14.16469,NaN,NaN,-0.01980313,0.8033384,3.794386E-06,1.032749,9.991751E-09,1.465552
287.229,0.04510421,0.0005994813,NaN,-0.327754,0.0003298464,NaN,-1.073187,-14.15979,NaN,-2.139502,-1.46797,-0.2794898,14.16443,NaN,NaN,-0.0198045,0.8031799,3.767713E-06,1.032379,9.991751E-09,1.466127
287.2429,0.04510383,0.0006001177,NaN,-0.3277469,0.0003301103,NaN,-1.080621,-14.1599,NaN,-2.139617,-1.463333,-0.2800515,14.15961,NaN,NaN,-0.01980588,0.8031654,3.74104E-06,1.025689,7.607564E-09,1.462956
287.2577,0.04510383,0.0006001177,NaN,-0.3277469,0.0003301103,NaN,-1.080621,-14.1599,NaN,-2.139617,-1.463333,-0.2800515,14.15961,NaN,NaN,-0.01980588,0.8031654,3.74104E-06,1.025689,7.607564E-09,1.462956
287.2722,0.04510346,0.0006005284,NaN,-0.3277398,0.0003299257,NaN,-1.087947,-14.15958,NaN,-2.139734,-1.467198,-0.2806183,14.16357,NaN,NaN,-0.01980727,0.8033735,3.713324E-06,1.031255,5.223379E-09,1.463263
287.2876,0.04510309,0.0006007948,NaN,-0.3277329,0.0003303768,NaN,-1.095165,-14.1588,NaN,-2.139851,-1.457663,-0.2811901,14.15361,NaN,NaN,-0.01980867,0.8043712,3.685608E-06,1.017544,5.223379E-09,1.457837
287.3026,0.04510272,0.000600166,NaN,-0.327726,0.0003303868,NaN,-1.102277,-14.15842,NaN,-2.139969,-1.455839,-0.2817665,14.15167,NaN,NaN,-0.01981008,0.8047731,3.657593E-06,1.014918,5.223379E-09,1.457033
287.3175,0.04510272,0.000600166,NaN,-0.327726,0.0003303868,NaN,-1.102277,-14.15842,NaN,-2.139969,-1.455839,-0.2817665,14.15167,NaN,NaN,-0.01981008,0.8047731,3.657593E-06,1.014918,5.223379E-09,1.457033
287.3319,0.04510235,0.0006000286,NaN,-0.3277193,0.0003301767,NaN,-1.109285,-14.15954,NaN,-2.140088,-1.465654,-0.2823471,14.16197,NaN,NaN,-0.01981149,0.8035089,3.627344E-06,1.029046,5.223379E-09,1.464134
287.3478,0.04510198,0.000600136,NaN,-0.3277126,0.0003306784,NaN,-1.11619,-14.15837,NaN,-2.140207,-1.457234,-0.2829316,14.15313,NaN,NaN,-0.01981292,0.8048608,3.601714E-06,1.016952,5.223379E-09,1.45605
287.3625,0.04510161,0.0006005618,NaN,-0.327706,0.0003306426,NaN,-1.122993,-14.15888,NaN,-2.140326,-1.464972,-0.2835198,14.16122,NaN,NaN,-0.01981435,0.8042237,3.572359E-06,1.028097,5.223379E-09,1.461114
287.3773,0.04510161,0.0006005618,NaN,-0.327706,0.0003306426,NaN,-1.122993,-14.15888,NaN,-2.140326,-1.464972,-0.2835198,14.16122,NaN,NaN,-0.01981435,0.8042237,3.572359E-06,1.028097,5.223379E-09,1.461114
287.3917,0.04510124,0.0006012858,NaN,-0.3276995,0.0003312202,NaN,-1.129697,-14.15826,NaN,-2.140446,-1.460304,-0.2841113,14.15629,NaN,NaN,-0.01981578,0.8049288,3.543749E-06,1.021375,5.223379E-09,1.45568
287.4071,0.04510088,0.0006017865,NaN,-0.327693,0.000331275,NaN,-1.136302,-14.15967,NaN,-2.140566,-1.465003,-0.2847059,14.16129,NaN,NaN,-0.01981723,0.8034071,3.514989E-06,1.028103,9.99175E-09,1.463757
287.4232,0.04510051,0.0006017917,NaN,-0.3276867,0.0003307548,NaN,-1.142811,-14.15779,NaN,-2.140687,-1.467291,-0.2853033,14.16348,NaN,NaN,-0.01981867,0.8051983,3.487571E-06,1.031451,5.223378E-09,1.455063
287.4372,0.04510051,0.0006017917,NaN,-0.3276867,0.0003307548,NaN,-1.142811,-14.15779,NaN,-2.140687,-1.467291,-0.2853033,14.16348,NaN,NaN,-0.01981867,0.8051983,3.487571E-06,1.031451,5.223378E-09,1.455063
287.4514,0.04510015,0.0006014517,NaN,-0.3276804,0.0003307984,NaN,-1.149223,-14.15767,NaN,-2.140808,-1.456968,-0.2859031,14.15272,NaN,NaN,-0.01982012,0.8055537,3.459557E-06,1.016555,7.607564E-09,1.452237
287.4666,0.04509979,0.0006010432,NaN,-0.3276742,0.0003302988,NaN,-1.155542,-14.15837,NaN,-2.14093,-1.465981,-0.2865052,14.16216,NaN,NaN,-0.01982158,0.8047045,3.429159E-06,1.029543,5.223379E-09,1.455846
287.4815,0.04509943,0.0006009563,NaN,-0.327668,0.0003307441,NaN,-1.161767,-14.15903,NaN,-2.141052,-1.457056,-0.2871093,14.15292,NaN,NaN,-0.01982304,0.8042315,3.399208E-06,1.016641,5.223379E-09,1.458349
287.4966,0.04509943,0.0006009563,NaN,-0.327668,0.0003307441,NaN,-1.161767,-14.15903,NaN,-2.141052,-1.457056,-0.2871093,14.15292,NaN,NaN,-0.01982304,0.8042315,3.399208E-06,1.016641,5.223379E-09,1.458349
287.5111,0.04509907,0.0006011867,NaN,-0.327662,0.0003313525,NaN,-1.167901,-14.15911,NaN,-2.141174,-1.455647,-0.2877152,14.15145,NaN,NaN,-0.01982449,0.8041499,3.369703E-06,1.014598,2.839193E-09,1.459246
287.5266,0.04509871,0.0006013371,NaN,-0.327656,0.0003311753,NaN,-1.173944,-14.15924,NaN,-2.141296,-1.465911,-0.2883225,14.1621,NaN,NaN,-0.01982596,0.8038498,3.340348E-06,1.029382,4.550071E-10,1.461585
287.5416,0.04509836,0.0006016369,NaN,-0.3276501,0.0003317478,NaN,-1.179899,-14.15832,NaN,-2.141418,-1.456495,-0.2889312,14.15224,NaN,NaN,-0.01982742,0.8049541,3.31144E-06,1.015837,4.550071E-10,1.454667
287.5568,0.04509836,0.0006016369,NaN,-0.3276501,0.0003317478,NaN,-1.179899,-14.15832,NaN,-2.141418,-1.456495,-0.2889312,14.15224,NaN,NaN,-0.01982742,0.8049541,3.31144E-06,1.015837,4.550071E-10,1.454667
287.5711,0.045098,0.0006015636,NaN,-0.3276443,0.0003319904,NaN,-1.185766,-14.15843,NaN,-2.141541,-1.457964,-0.2895409,14.15376,NaN,NaN,-0.01982888,0.8047898,3.283128E-06,1.017943,5.223379E-09,1.454064
287.5866,0.04509765,0.0006020917,NaN,-0.3276385,0.0003319654,NaN,-1.191547,-14.15933,NaN,-2.141664,-1.466207,-0.2901515,14.16239,NaN,NaN,-0.01983035,0.8037282,3.253027E-06,1.029801,5.223379E-09,1.46311
287.6014,0.0450973,0.0006022533,NaN,-0.3276328,0.0003323107,NaN,-1.197242,-14.15803,NaN,-2.141786,-1.457205,-0.2907627,14.15293,NaN,NaN,-0.01983182,0.8052164,3.223523E-06,1.016869,5.223379E-09,1.452752
287.6177,0.0450973,0.0006022533,NaN,-0.3276328,0.0003323107,NaN,-1.197242,-14.15803,NaN,-2.141786,-1.457205,-0.2907627,14.15293,NaN,NaN,-0.01983182,0.8052164,3.223523E-06,1.016869,5.223379E-09,1.452752
287.6315,0.04509694,0.0006029438,NaN,-0.3276272,0.0003323812,NaN,-1.202854,-14.15973,NaN,-2.141909,-1.46574,-0.2913744,14.16196,NaN,NaN,-0.01983328,0.8033726,3.193572E-06,1.029135,2.839193E-09,1.465313
287.6464,0.04509659,0.0006036489,NaN,-0.3276216,0.0003332452,NaN,-1.208383,-14.1587,NaN,-2.142032,-1.455731,-0.2919863,14.15149,NaN,NaN,-0.01983475,0.8046234,3.163322E-06,1.014751,-1.929179E-09,1.45797
287.6613,0.04509624,0.0006040391,NaN,-0.3276162,0.0003339345,NaN,-1.21383,-14.15893,NaN,-2.142155,-1.454111,-0.2925983,14.14981,NaN,NaN,-0.01983622,0.804406,3.132328E-06,1.012404,-1.929179E-09,1.457808
287.6759,0.04509624,0.0006040391,NaN,-0.3276162,0.0003339345,NaN,-1.21383,-14.15893,NaN,-2.142155,-1.454111,-0.2925983,14.14981,NaN,NaN,-0.01983622,0.804406,3.132328E-06,1.012404,-1.929179E-09,1.457808
287.6904,0.04509589,0.000603704,NaN,-0.3276107,0.0003341773,NaN,-1.219198,-14.15811,NaN,-2.142277,-1.455804,-0.2932101,14.15147,NaN,NaN,-0.01983769,0.8051785,3.102079E-06,1.014854,-6.69755E-09,1.454433
287.706,0.04509554,0.0006038068,NaN,-0.3276054,0.0003340316,NaN,-1.224486,-14.15955,NaN,-2.1424,-1.465914,-0.2938218,14.16213,NaN,NaN,-0.01983916,0.8035988,3.072574E-06,1.029409,-6.69755E-09,1.467305
287.7209,0.0450952,0.0006043238,NaN,-0.3276001,0.000334921,NaN,-1.229696,-14.15904,NaN,-2.142523,-1.454902,-0.2944329,14.15065,NaN,NaN,-0.01984062,0.8043515,3.043219E-06,1.013557,-9.081736E-09,1.460329
287.7359,0.0450952,0.0006043238,NaN,-0.3276001,0.000334921,NaN,-1.229696,-14.15904,NaN,-2.142523,-1.454902,-0.2944329,14.15065,NaN,NaN,-0.01984062,0.8043515,3.043219E-06,1.013557,-9.081736E-09,1.460329
287.7503,0.04509485,0.0006044071,NaN,-0.3275949,0.0003352441,NaN,-1.234829,-14.15863,NaN,-2.142645,-1.457077,-0.2950434,14.15285,NaN,NaN,-0.01984209,0.8047183,3.013566E-06,1.016694,-9.081736E-09,1.456832
287.7658,0.04509451,0.000603715,NaN,-0.3275897,0.0003347787,NaN,-1.239887,-14.15951,NaN,-2.142768,-1.463266,-0.2956532,14.15936,NaN,NaN,-0.01984355,0.8037323,2.983614E-06,1.025595,-1.146592E-08,1.464146
287.7808,0.04509417,0.0006026865,NaN,-0.3275846,0.000334666,NaN,-1.24487,-14.15869,NaN,-2.14289,-1.45502,-0.296262,14.15073,NaN,NaN,-0.019845,0.8047159,2.952769E-06,1.013738,-9.081736E-09,1.458501
287.7959,0.04509417,0.0006026865,NaN,-0.3275846,0.000334666,NaN,-1.24487,-14.15869,NaN,-2.14289,-1.45502,-0.296262,14.15073,NaN,NaN,-0.019845,0.8047159,2.952769E-06,1.013738,-9.081736E-09,1.458501
287.81,0.04509382,0.0006017425,NaN,-0.3275796,0.0003348084,NaN,-1.249779,-14.15836,NaN,-2.143012,-1.454607,-0.2968703,14.15026,NaN,NaN,-0.01984646,0.8050356,2.923712E-06,1.013147,-6.697551E-09,1.453904
287.8255,0.04509348,0.0006009169,NaN,-0.3275746,0.0003349355,NaN,-1.254614,-14.15897,NaN,-2.143134,-1.456951,-0.2974773,14.15275,NaN,NaN,-0.01984791,0.8043936,2.89376E-06,1.016515,-9.081736E-09,1.457533
287.8415,0.04509315,0.0006001805,NaN,-0.3275697,0.0003349874,NaN,-1.259379,-14.15929,NaN,-2.143255,-1.458865,-0.2980829,14.15477,NaN,NaN,-0.01984937,0.8040392,2.864405E-06,1.019266,-9.081736E-09,1.460085
287.8554,0.04509315,0.0006001805,NaN,-0.3275697,0.0003349874,NaN,-1.259379,-14.15929,NaN,-2.143255,-1.458865,-0.2980829,14.15477,NaN,NaN,-0.01984937,0.8040392,2.864405E-06,1.019266,-9.081736E-09,1.460085
287.8695,0.04509281,0.0005991454,NaN,-0.3275648,0.0003346034,NaN,-1.263311,-14.15942,NaN,-2.143446,-1.461578,-0.2995962,14.15759,NaN,NaN,-0.0198532,0.8038548,2.789899E-06,1.023172,-6.697551E-09,1.462754
287.8853,0.04509247,0.0005992482,NaN,-0.32756,0.0003343885,NaN,-1.266334,-14.15945,NaN,-2.143652,-1.467378,-0.3009467,14.1636,NaN,NaN,-0.0198566,0.8036952,2.724781E-06,1.031527,-6.697551E-09,1.465222
287.8998,0.04509247,0.0005992482,NaN,-0.32756,0.0003343885,NaN,-1.266334,-14.15945,NaN,-2.143652,-1.467378,-0.3009467,14.1636,NaN,NaN,-0.0198566,0.8036952,2.724781E-06,1.031527,-6.697551E-09,1.465222
287.9142,0.04509213,0.0005999503,NaN,-0.3275553,0.0003344126,NaN,-1.268851,-14.15913,NaN,-2.14385,-1.467281,-0.3020816,14.16347,NaN,NaN,-0.01985942,0.8040034,2.669945E-06,1.031396,-9.081736E-09,1.463974
287.9298,0.04509179,0.0005999522,NaN,-0.3275506,0.0003338332,NaN,-1.271114,-14.15843,NaN,-2.144036,-1.468181,-0.3030902,14.16433,NaN,NaN,-0.01986192,0.8046411,2.621367E-06,1.032712,-4.313365E-09,1.460531
287.9451,0.04509146,0.0005995736,NaN,-0.327546,0.0003338212,NaN,-1.272487,-14.15745,NaN,-2.144282,-1.4569,-0.3049412,14.15252,NaN,NaN,-0.01986666,0.8058712,2.530619E-06,1.016474,-6.697551E-09,1.4524
287.9598,0.04509146,0.0005995736,NaN,-0.327546,0.0003338212,NaN,-1.272487,-14.15745,NaN,-2.144282,-1.4569,-0.3049412,14.15252,NaN,NaN,-0.01986666,0.8058712,2.530619E-06,1.016474,-6.697551E-09,1.4524
287.9742,0.04509112,0.0005983625,NaN,-0.3275414,0.0003334809,NaN,-1.272948,-14.15895,NaN,-2.144539,-1.454693,-0.3065954,14.15036,NaN,NaN,-0.01987087,0.8043863,2.451643E-06,1.013249,-6.697551E-09,1.458884
287.9898,0.04509079,0.0005973686,NaN,-0.3275369,0.0003327119,NaN,-1.272921,-14.1589,NaN,-2.144783,-1.466036,-0.3080124,14.16212,NaN,NaN,-0.01987445,0.8042595,2.381757E-06,1.029598,-1.146592E-08,1.462188
288.005,0.04509045,0.0005979685,NaN,-0.3275325,0.0003337817,NaN,-1.272668,-14.15935,NaN,-2.145012,-1.455325,-0.3092875,14.15102,NaN,NaN,-0.01987766,0.8040398,2.319842E-06,1.014132,-4.313364E-09,1.467216
288.0197,0.04509045,0.0005979685,NaN,-0.3275325,0.0003337817,NaN,-1.272668,-14.15935,NaN,-2.145012,-1.455325,-0.3092875,14.15102,NaN,NaN,-0.01987766,0.8040398,2.319842E-06,1.014132,-4.313364E-09,1.467216
288.0359,0.04509012,0.0005984295,NaN,-0.3275281,0.0003341322,NaN,-1.271561,-14.15917,NaN,-2.1453,-1.459685,-0.3113916,14.15551,NaN,NaN,-0.01988312,0.8041277,2.218067E-06,1.020414,-1.929179E-09,1.460838
288.0504,0.04508979,0.0005991579,NaN,-0.3275238,0.0003349473,NaN,-1.269576,-14.15901,NaN,-2.145597,-1.455851,-0.313289,14.1515,NaN,NaN,-0.01988801,0.8043265,2.127319E-06,1.014885,-6.69755E-09,1.462379
288.0641,0.04508946,0.0005993851,NaN,-0.3275195,0.0003353702,NaN,-1.267137,-14.15872,NaN,-2.14588,-1.455033,-0.3149388,14.15061,NaN,NaN,-0.01989224,0.8046022,2.04704E-06,1.013707,-1.929179E-09,1.456166
288.0814,0.04508913,0.0005996666,NaN,-0.3275152,0.0003353272,NaN,-1.264506,-14.16021,NaN,-2.146147,-1.463876,-0.3164361,14.15994,NaN,NaN,-0.01989608,0.8029737,1.976296E-06,1.026426,-4.313364E-09,1.468529
288.0941,0.04508913,0.0005996666,NaN,-0.3275152,0.0003353272,NaN,-1.264506,-14.16021,NaN,-2.146147,-1.463876,-0.3164361,14.15994,NaN,NaN,-0.01989608,0.8029737,1.976296E-06,1.026426,-4.313364E-09,1.468529
288.1082,0.0450888,0.0006004489,NaN,-0.327511,0.0003353382,NaN,-1.261057,-14.15927,NaN,-2.146471,-1.466269,-0.3187521,14.16233,NaN,NaN,-0.01990218,0.8038384,1.864985E-06,1.029898,-6.69755E-09,1.466425
288.1239,0.04508847,0.0006006055,NaN,-0.3275069,0.0003355266,NaN,-1.256764,-14.15827,NaN,-2.146805,-1.457526,-0.3208537,14.15317,NaN,NaN,-0.01990768,0.8050148,1.765259E-06,1.017333,-9.081736E-09,1.460421
288.1389,0.04508847,0.0006006055,NaN,-0.3275069,0.0003355266,NaN,-1.256764,-14.15827,NaN,-2.146805,-1.457526,-0.3208537,14.15317,NaN,NaN,-0.01990768,0.8050148,1.765259E-06,1.017333,-9.081736E-09,1.460421
288.1532,0.04508814,0.0006004416,NaN,-0.3275028,0.0003357055,NaN,-1.252049,-14.15831,NaN,-2.147124,-1.457643,-0.3226986,14.15329,NaN,NaN,-0.0199125,0.8049589,1.67683E-06,1.017501,-4.313365E-09,1.460621
288.1689,0.04508781,0.0005999924,NaN,-0.3274988,0.0003351521,NaN,-1.246423,-14.15806,NaN,-2.147497,-1.465755,-0.3252896,14.1617,NaN,NaN,-0.01991941,0.8050568,1.552209E-06,1.02921,4.550067E-10,1.461414
288.1836,0.04508749,0.0006003162,NaN,-0.3274948,0.0003348143,NaN,-1.23993,-14.15924,NaN,-2.147876,-1.467991,-0.3276276,14.16411,NaN,NaN,-0.01992562,0.8037848,1.440106E-06,1.032395,2.839192E-09,1.470592
288.1987,0.04508749,0.0006003162,NaN,-0.3274948,0.0003348143,NaN,-1.23993,-14.15924,NaN,-2.147876,-1.467991,-0.3276276,14.16411,NaN,NaN,-0.01992562,0.8037848,1.440106E-06,1.032395,2.839192E-09,1.470592
288.213,0.04508716,0.0006006945,NaN,-0.3274908,0.0003353671,NaN,-1.233021,-14.1584,NaN,-2.148236,-1.456894,-0.329686,14.15253,NaN,NaN,-0.01993108,0.8048822,1.340622E-06,1.016438,4.550067E-10,1.462746
288.2285,0.04508683,0.0006014134,NaN,-0.3274869,0.0003354138,NaN,-1.225973,-14.15882,NaN,-2.148573,-1.465206,-0.3315674,14.16121,NaN,NaN,-0.01993607,0.8043175,1.251625E-06,1.028417,4.550067E-10,1.46744
288.2445,0.04508651,0.0006016403,NaN,-0.3274831,0.0003358191,NaN,-1.21817,-14.15817,NaN,-2.148967,-1.456161,-0.3342458,14.15175,NaN,NaN,-0.01994335,0.8051383,1.125151E-06,1.015394,-1.929179E-09,1.459891
288.2584,0.04508651,0.0006016403,NaN,-0.3274831,0.0003358191,NaN,-1.21817,-14.15817,NaN,-2.148967,-1.456161,-0.3342458,14.15175,NaN,NaN,-0.01994335,0.8051383,1.125151E-06,1.015394,-1.929179E-09,1.459891
288.2728,0.04508619,0.0006015079,NaN,-0.3274792,0.0003359997,NaN,-1.209587,-14.15854,NaN,-2.14937,-1.458428,-0.3366957,14.15413,NaN,NaN,-0.01994998,0.8047132,1.009258E-06,1.01865,-1.929179E-09,1.46128
288.2881,0.04508587,0.0006018853,NaN,-0.3274755,0.0003361627,NaN,-1.200641,-14.15946,NaN,-2.149755,-1.462798,-0.3388725,14.15874,NaN,NaN,-0.01995586,0.8037094,9.084513E-07,1.024925,-4.313365E-09,1.470369
288.3029,0.04508555,0.0006021653,NaN,-0.3274717,0.0003359285,NaN,-1.191594,-14.1596,NaN,-2.150117,-1.466938,-0.340871,14.16304,NaN,NaN,-0.01996128,0.8034596,8.156916E-07,1.03088,-1.929179E-09,1.470554
288.3179,0.04508555,0.0006021653,NaN,-0.3274717,0.0003359285,NaN,-1.191594,-14.1596,NaN,-2.150117,-1.466938,-0.340871,14.16304,NaN,NaN,-0.01996128,0.8034596,8.156916E-07,1.03088,-1.929179E-09,1.470554
288.3319,0.04508523,0.0006022459,NaN,-0.327468,0.0003353494,NaN,-1.18183,-14.1593,NaN,-2.150536,-1.468662,-0.343661,14.16479,NaN,NaN,-0.019969,0.8036943,6.85828E-07,1.033369,-4.313365E-09,1.4666
288.3476,0.04508491,0.0006021315,NaN,-0.3274644,0.0003351731,NaN,-1.171317,-14.15812,NaN,-2.150964,-1.461814,-0.3462196,14.15758,NaN,NaN,-0.01997606,0.8050324,5.663206E-07,1.023541,-1.929179E-09,1.458232
