JMolnar6/NonAnthroHands_User_Study/HandsLoggerWithURDF/tempdata/PID 0 (test)/files/Reachy_JointMotion_gesture_6_29.csv
Time,r_shoulder,r_shoulder_x,r_upper_arm,r_forearm,r_wrist,r_wrist2hand,
474.6794,0.04500344,0.0005273931,NaN,-0.3269999,0.0003399125,NaN,0.4591065,-14.18777,NaN,-2.158759,-1.462845,-0.3678023,14.1094,NaN,NaN,-0.6188866,0.8123377,-7.815447E-07,1.019417,3.23413E-09,1.388207
474.6939,0.04500344,0.0005270223,NaN,-0.3269999,0.0003400765,NaN,0.4599319,-14.1875,NaN,-2.156883,-1.462905,-0.3672779,14.10942,NaN,NaN,-0.6221448,0.8125948,-8.456942E-07,1.01949,4.426222E-09,1.389133
474.7086,0.04500345,0.0005263031,NaN,-0.3269999,0.0003400752,NaN,0.4604113,-14.18751,NaN,-2.155688,-1.462758,-0.3669349,14.10926,NaN,NaN,-0.6253388,0.8125747,-8.854802E-07,1.019276,-9.381953E-10,1.389313
474.7234,0.04500346,0.0005253237,NaN,-0.3269999,0.000339971,NaN,0.4607315,-14.18713,NaN,-2.154836,-1.462293,-0.3666919,14.10871,NaN,NaN,-0.6284701,0.8129397,-9.137179E-07,1.018583,-2.726335E-09,1.386219
474.7384,0.04500346,0.0005253237,NaN,-0.3269999,0.000339971,NaN,0.4607315,-14.18713,NaN,-2.154836,-1.462293,-0.3666919,14.10871,NaN,NaN,-0.6284701,0.8129397,-9.137179E-07,1.018583,-2.726335E-09,1.386219
474.7527,0.04500345,0.0005251435,NaN,-0.3269999,0.0003405631,NaN,0.4601523,-14.18748,NaN,-2.15609,-1.461577,-0.3670242,14.108,NaN,NaN,-0.6282139,0.8125631,-8.713241E-07,1.017554,-6.302614E-09,1.388878
474.7683,0.04500345,0.0005247332,NaN,-0.3269999,0.0003408527,NaN,0.4598807,-14.18733,NaN,-2.156756,-1.462013,-0.3672087,14.10843,NaN,NaN,-0.627963,0.8127167,-8.487489E-07,1.01818,-9.878892E-09,1.386585
474.7835,0.04500344,0.0005243029,NaN,-0.3269999,0.0003410979,NaN,0.4597485,-14.18765,NaN,-2.157136,-1.463337,-0.3673116,14.10987,NaN,NaN,-0.627717,0.8124336,-8.37871E-07,1.020115,-8.090753E-09,1.388728
474.7983,0.04500344,0.0005243029,NaN,-0.3269999,0.0003410979,NaN,0.4597485,-14.18765,NaN,-2.157136,-1.463337,-0.3673116,14.10987,NaN,NaN,-0.627717,0.8124336,-8.37871E-07,1.020115,-8.090753E-09,1.388728
474.8141,0.04500344,0.00052417,NaN,-0.3269999,0.0003415715,NaN,0.4596775,-14.18746,NaN,-2.157376,-1.462456,-0.3673715,14.1089,NaN,NaN,-0.6274759,0.8125926,-8.298989E-07,1.018826,-3.322381E-09,1.387609
474.8284,0.04500343,0.0005245057,NaN,-0.3269999,0.0003421619,NaN,0.4588014,-14.18826,NaN,-2.159479,-1.464038,-0.3679352,14.11068,NaN,NaN,-0.6239057,0.8118404,-7.594164E-07,1.021157,6.214361E-09,1.393392
474.8433,0.04500342,0.0005248377,NaN,-0.3269999,0.0003425514,NaN,0.4582789,-14.18833,NaN,-2.160863,-1.465595,-0.3683109,14.11232,NaN,NaN,-0.6204057,0.8117986,-7.146384E-07,1.023422,7.406454E-09,1.393722
474.8582,0.04500342,0.0005248377,NaN,-0.3269999,0.0003425514,NaN,0.4582789,-14.18833,NaN,-2.160863,-1.465595,-0.3683109,14.11232,NaN,NaN,-0.6204057,0.8117986,-7.146384E-07,1.023422,7.406454E-09,1.393722
474.8746,0.04500341,0.0005245947,NaN,-0.3269999,0.0003424254,NaN,0.4579194,-14.18822,NaN,-2.161884,-1.466782,-0.3685825,14.11355,NaN,NaN,-0.6169745,0.8119364,-6.805893E-07,1.025141,9.194594E-09,1.393943
474.8892,0.0450034,0.0005242912,NaN,-0.3269999,0.000342696,NaN,0.4576351,-14.18748,NaN,-2.162716,-1.46223,-0.3687975,14.10865,NaN,NaN,-0.6136105,0.8125551,-6.533202E-07,1.018502,1.098273E-08,1.387413
474.9029,0.04500338,0.0005240391,NaN,-0.3269999,0.0003421725,NaN,0.4565483,-14.1883,NaN,-2.165376,-1.474217,-0.3695149,14.12141,NaN,NaN,-0.6069787,0.8120761,-5.662974E-07,1.035961,1.634715E-08,1.395859
474.9177,0.04500338,0.0005240391,NaN,-0.3269999,0.0003421725,NaN,0.4565483,-14.1883,NaN,-2.165376,-1.474217,-0.3695149,14.12141,NaN,NaN,-0.6069787,0.8120761,-5.662974E-07,1.035961,1.634715E-08,1.395859
474.9322,0.04500337,0.0005244907,NaN,-0.3269999,0.0003418355,NaN,0.4558251,-14.18851,NaN,-2.167289,-1.475743,-0.3700355,14.12303,NaN,NaN,-0.6004772,0.8118646,-5.049791E-07,1.038179,1.634715E-08,1.399177
474.9478,0.04500335,0.0005246934,NaN,-0.3269999,0.0003417638,NaN,0.4552736,-14.18732,NaN,-2.168817,-1.468665,-0.3704446,14.11543,NaN,NaN,-0.5941032,0.8129297,-4.572209E-07,1.027863,1.277087E-08,1.390593
474.9628,0.04500334,0.0005246589,NaN,-0.3269999,0.000342099,NaN,0.4548055,-14.18736,NaN,-2.170133,-1.462625,-0.3707907,14.10904,NaN,NaN,-0.5878543,0.8127508,-4.154976E-07,1.019076,1.575111E-08,1.387252
474.9779,0.04500334,0.0005246589,NaN,-0.3269999,0.000342099,NaN,0.4548055,-14.18736,NaN,-2.170133,-1.462625,-0.3707907,14.10904,NaN,NaN,-0.5878543,0.8127508,-4.154976E-07,1.019076,1.575111E-08,1.387252
474.9925,0.04500332,0.0005250051,NaN,-0.3269999,0.0003418661,NaN,0.4535318,-14.18782,NaN,-2.173254,-1.474286,-0.3716447,14.12141,NaN,NaN,-0.5783941,0.8126075,-3.18044E-07,1.036047,5.618316E-09,1.395823
475.008,0.04500331,0.0005253718,NaN,-0.3269999,0.0003423991,NaN,0.4526309,-14.18796,NaN,-2.17561,-1.46475,-0.3722936,14.11135,NaN,NaN,-0.5691197,0.812297,-2.447303E-07,1.022179,3.23413E-09,1.39188
475.0229,0.04500329,0.0005257612,NaN,-0.3269999,0.0003421888,NaN,0.4519103,-14.18819,NaN,-2.177561,-1.474898,-0.372824,14.12207,NaN,NaN,-0.5600272,0.8123137,-1.846041E-07,1.036933,6.214362E-09,1.397595
475.0378,0.04500329,0.0005257612,NaN,-0.3269999,0.0003421888,NaN,0.4519103,-14.18819,NaN,-2.177561,-1.474898,-0.372824,14.12207,NaN,NaN,-0.5600272,0.8123137,-1.846041E-07,1.036933,6.214362E-09,1.397595
475.052,0.04500327,0.0005260046,NaN,-0.3269999,0.000341638,NaN,0.4504202,-14.18846,NaN,-2.18121,-1.476003,-0.3738422,14.12326,NaN,NaN,-0.5477793,0.8120424,-7.351599E-08,1.038541,2.538978E-10,1.39713
475.0674,0.04500324,0.0005257194,NaN,-0.3269999,0.0003413905,NaN,0.4493288,-14.18731,NaN,-2.184035,-1.465765,-0.374634,14.11232,NaN,NaN,-0.5357717,0.8130075,1.231469E-08,1.023629,2.042037E-09,1.390557
475.0835,0.04500322,0.0005255467,NaN,-0.3269999,0.0003414639,NaN,0.4484633,-14.18722,NaN,-2.185683,-1.465535,-0.3752097,14.11205,NaN,NaN,-0.5239985,0.8130786,1.217637E-07,1.023289,6.810409E-09,1.388768
475.0975,0.04500322,0.0005255467,NaN,-0.3269999,0.0003414639,NaN,0.4484633,-14.18722,NaN,-2.185683,-1.465535,-0.3752097,14.11205,NaN,NaN,-0.5239985,0.8130786,1.217637E-07,1.023289,6.810409E-09,1.388768
475.1119,0.04500319,0.0005256143,NaN,-0.3269998,0.0003418579,NaN,0.4477169,-14.18789,NaN,-2.186135,-1.464185,-0.3756286,14.11071,NaN,NaN,-0.5124554,0.8123669,2.446238E-07,1.021347,9.194594E-09,1.391905
475.1275,0.04500315,0.0005261782,NaN,-0.3269998,0.0003417479,NaN,0.4461438,-14.1889,NaN,-2.187757,-1.47452,-0.3765548,14.12174,NaN,NaN,-0.4978051,0.811622,4.086856E-07,1.036404,1.634715E-08,1.40114
475.1425,0.04500311,0.0005265994,NaN,-0.3269998,0.0003423697,NaN,0.4449691,-14.18801,NaN,-2.187726,-1.464174,-0.3772116,14.11073,NaN,NaN,-0.4834416,0.8123393,5.700651E-07,1.021353,1.455901E-08,1.393337
475.1578,0.04500311,0.0005265994,NaN,-0.3269998,0.0003423697,NaN,0.4449691,-14.18801,NaN,-2.187726,-1.464174,-0.3772116,14.11073,NaN,NaN,-0.4834416,0.8123393,5.700651E-07,1.021353,1.455901E-08,1.393337
475.1717,0.04500308,0.0005270302,NaN,-0.3269998,0.0003428955,NaN,0.443974,-14.1886,NaN,-2.186895,-1.465057,-0.377753,14.11173,NaN,NaN,-0.4693603,0.8117739,6.96576E-07,1.022657,1.038669E-08,1.396353
475.1876,0.04500305,0.0005274087,NaN,-0.3269997,0.0003429971,NaN,0.4430596,-14.18907,NaN,-2.185966,-1.470265,-0.3782725,14.11727,NaN,NaN,-0.4555558,0.8114321,7.900063E-07,1.030238,1.277087E-08,1.399314
475.2023,0.04500301,0.000527662,NaN,-0.3269997,0.0003433194,NaN,0.4413096,-14.18841,NaN,-2.187228,-1.466023,-0.3793772,14.11272,NaN,NaN,-0.4386891,0.8120012,9.101096E-07,1.024057,1.575111E-08,1.393475
475.2173,0.04500301,0.000527662,NaN,-0.3269997,0.0003433194,NaN,0.4413096,-14.18841,NaN,-2.187228,-1.466023,-0.3793772,14.11272,NaN,NaN,-0.4386891,0.8120012,9.101096E-07,1.024057,1.575111E-08,1.393475
475.2316,0.04500297,0.000527702,NaN,-0.3269997,0.0003431754,NaN,0.4399812,-14.18855,NaN,-2.187449,-1.470639,-0.3802203,14.1176,NaN,NaN,-0.4221524,0.8119773,1.034683E-06,1.030768,1.575111E-08,1.394674
475.2473,0.04500294,0.0005274698,NaN,-0.3269996,0.0003432589,NaN,0.438862,-14.18741,NaN,-2.187054,-1.46427,-0.3809151,14.11074,NaN,NaN,-0.40594,0.812983,1.141823E-06,1.021479,1.992343E-08,1.388547
475.2632,0.04500291,0.0005264722,NaN,-0.3269996,0.0003427905,NaN,0.4378474,-14.18812,NaN,-2.186479,-1.467279,-0.3815435,14.114,NaN,NaN,-0.3900459,0.8123486,1.228697E-06,1.02588,1.873134E-08,1.393311
475.2782,0.04500291,0.0005264722,NaN,-0.3269996,0.0003427905,NaN,0.4378474,-14.18812,NaN,-2.186479,-1.467279,-0.3815435,14.114,NaN,NaN,-0.3900459,0.8123486,1.228697E-06,1.02588,1.873134E-08,1.393311
475.2924,0.04500287,0.0005251543,NaN,-0.3269996,0.0003420781,NaN,0.4359998,-14.18815,NaN,-2.187916,-1.464249,-0.3827293,14.11081,NaN,NaN,-0.3711304,0.8122423,1.337624E-06,1.021476,1.515506E-08,1.393049
475.3069,0.04500283,0.0005240751,NaN,-0.3269995,0.0003411272,NaN,0.4345761,-14.18849,NaN,-2.188162,-1.471793,-0.3836442,14.1188,NaN,NaN,-0.352585,0.8120976,1.452065E-06,1.032453,1.157878E-08,1.396536
475.3219,0.04500279,0.0005241734,NaN,-0.3269995,0.0003404931,NaN,0.4333625,-14.1882,NaN,-2.187708,-1.475979,-0.3844101,14.12318,NaN,NaN,-0.3344034,0.8124518,1.548177E-06,1.038526,9.194594E-09,1.397251
475.3368,0.04500279,0.0005241734,NaN,-0.3269995,0.0003404931,NaN,0.4333625,-14.1882,NaN,-2.187708,-1.475979,-0.3844101,14.12318,NaN,NaN,-0.3344034,0.8124518,1.548177E-06,1.038526,9.194594E-09,1.397251
475.3511,0.04500275,0.0005241983,NaN,-0.3269995,0.0003405197,NaN,0.4313516,-14.1869,NaN,-2.188969,-1.465775,-0.3857023,14.11225,NaN,NaN,-0.3132453,0.8135954,1.659638E-06,1.023659,4.426222E-09,1.386932
475.3667,0.0450027,0.0005247623,NaN,-0.3269995,0.0003402293,NaN,0.42978,-14.18734,NaN,-2.188963,-1.476314,-0.3867218,14.12345,NaN,NaN,-0.2925015,0.8134101,1.768268E-06,1.03901,1.157878E-08,1.392891
475.3817,0.04500266,0.0005254203,NaN,-0.3269994,0.0003408974,NaN,0.4284277,-14.18774,NaN,-2.18831,-1.466272,-0.3875953,14.11286,NaN,NaN,-0.2721647,0.8128667,1.855886E-06,1.024397,6.810407E-09,1.392582
475.3966,0.04500266,0.0005254203,NaN,-0.3269994,0.0003408974,NaN,0.4284277,-14.18774,NaN,-2.18831,-1.466272,-0.3875953,14.11286,NaN,NaN,-0.2721647,0.8128667,1.855886E-06,1.024397,6.810407E-09,1.392582
475.4108,0.04500262,0.0005257219,NaN,-0.3269994,0.0003414197,NaN,0.4271928,-14.18708,NaN,-2.187548,-1.463441,-0.3883975,14.10978,NaN,NaN,-0.2522272,0.8134483,1.918322E-06,1.020253,9.194594E-09,1.387149
475.4266,0.04500258,0.0005261344,NaN,-0.3269994,0.0003414211,NaN,0.4258175,-14.18839,NaN,-2.187427,-1.472041,-0.3893004,14.11904,NaN,NaN,-0.2318889,0.8123817,1.968837E-06,1.032816,8.002501E-09,1.396766
475.4416,0.04500255,0.0005269011,NaN,-0.3269993,0.0003413217,NaN,0.4245926,-14.18725,NaN,-2.187237,-1.476035,-0.3901144,14.12311,NaN,NaN,-0.2119494,0.8135804,2.009666E-06,1.03859,8.002501E-09,1.392429
475.4565,0.04500255,0.0005269011,NaN,-0.3269993,0.0003413217,NaN,0.4245926,-14.18725,NaN,-2.187237,-1.476035,-0.3901144,14.12311,NaN,NaN,-0.2119494,0.8135804,2.009666E-06,1.03859,8.002501E-09,1.392429
475.4706,0.04500252,0.0005271694,NaN,-0.3269993,0.0003406084,NaN,0.4234633,-14.18658,NaN,-2.187039,-1.477278,-0.3908662,14.12434,NaN,NaN,-0.192401,0.8142619,2.040363E-06,1.040384,1.038669E-08,1.388492
475.4872,0.04500248,0.0005266128,NaN,-0.3269993,0.0003396157,NaN,0.422403,-14.18768,NaN,-2.186866,-1.4733,-0.391572,14.12024,NaN,NaN,-0.1732359,0.8130916,2.065397E-06,1.034606,1.157878E-08,1.392156
475.501,0.04500245,0.0005262707,NaN,-0.3269992,0.0003385207,NaN,0.4213989,-14.18653,NaN,-2.186726,-1.474645,-0.3922402,14.12151,NaN,NaN,-0.1544467,0.8142366,2.083874E-06,1.036523,1.396297E-08,1.387161
475.5162,0.04500245,0.0005262707,NaN,-0.3269992,0.0003385207,NaN,0.4213989,-14.18653,NaN,-2.186726,-1.474645,-0.3922402,14.12151,NaN,NaN,-0.1544467,0.8142366,2.083874E-06,1.036523,1.396297E-08,1.387161
475.5302,0.04500242,0.0005255927,NaN,-0.3269992,0.0003379314,NaN,0.4204451,-14.186,NaN,-2.186611,-1.465613,-0.3928752,14.11186,NaN,NaN,-0.136026,0.8145842,2.094603E-06,1.023346,1.277087E-08,1.381852
475.5459,0.04500239,0.0005243588,NaN,-0.3269992,0.0003363717,NaN,0.4195382,-14.18675,NaN,-2.18651,-1.463323,-0.3934793,14.10952,NaN,NaN,-0.1179665,0.8137544,2.100116E-06,1.020031,1.157878E-08,1.382878
475.5607,0.04500236,0.0005227703,NaN,-0.3269992,0.0003351922,NaN,0.4186763,-14.18724,NaN,-2.186412,-1.462638,-0.3940538,14.10885,NaN,NaN,-0.1002611,0.813225,2.100563E-06,1.01905,1.396297E-08,1.387043
475.5762,0.04500236,0.0005227703,NaN,-0.3269992,0.0003351922,NaN,0.4186763,-14.18724,NaN,-2.186412,-1.462638,-0.3940538,14.10885,NaN,NaN,-0.1002611,0.813225,2.100563E-06,1.01905,1.396297E-08,1.387043
475.5902,0.04500234,0.0005215653,NaN,-0.3269992,0.0003347873,NaN,0.4180796,-14.18715,NaN,-2.185859,-1.461657,-0.3944536,14.10779,NaN,NaN,-0.08369504,0.8132669,2.093858E-06,1.017614,1.396297E-08,1.384966
475.6059,0.04500232,0.0005200177,NaN,-0.3269992,0.0003333461,NaN,0.4174408,-14.18796,NaN,-2.185628,-1.461582,-0.3948673,14.10782,NaN,NaN,-0.06745406,0.812438,2.077318E-06,1.017536,1.396297E-08,1.388368
475.6206,0.04500229,0.0005193072,NaN,-0.3269992,0.000333294,NaN,0.4168027,-14.18822,NaN,-2.1856,-1.461106,-0.3952782,14.10735,NaN,NaN,-0.05153157,0.812152,2.057499E-06,1.016852,1.753924E-08,1.392503
475.6356,0.04500229,0.0005193072,NaN,-0.3269992,0.000333294,NaN,0.4168027,-14.18822,NaN,-2.1856,-1.461106,-0.3952782,14.10735,NaN,NaN,-0.05153157,0.812152,2.057499E-06,1.016852,1.753924E-08,1.392503
475.65,0.04500228,0.0005184305,NaN,-0.3269992,0.000333192,NaN,0.4171193,-14.18786,NaN,-2.183736,-1.461448,-0.3950623,14.10765,NaN,NaN,-0.03925434,0.8125094,2.030975E-06,1.01733,1.515506E-08,1.389683
475.6655,0.04500227,0.0005181573,NaN,-0.3269992,0.0003327257,NaN,0.4171126,-14.18891,NaN,-2.183217,-1.473887,-0.3949943,14.12091,NaN,NaN,-0.02721877,0.8118192,1.988358E-06,1.035452,1.873134E-08,1.402598
475.6801,0.04500226,0.0005182028,NaN,-0.3269992,0.0003320723,NaN,0.4169633,-14.18886,NaN,-2.183504,-1.47653,-0.3950133,14.12368,NaN,NaN,-0.0154192,0.8119022,1.946932E-06,1.039289,1.634715E-08,1.401241
475.696,0.04500226,0.0005182028,NaN,-0.3269992,0.0003320723,NaN,0.4169633,-14.18886,NaN,-2.183504,-1.47653,-0.3950133,14.12368,NaN,NaN,-0.0154192,0.8119022,1.946932E-06,1.039289,1.634715E-08,1.401241
475.7105,0.04500225,0.000518504,NaN,-0.3269992,0.0003325307,NaN,0.4167554,-14.1873,NaN,-2.184042,-1.465212,-0.3950903,14.11157,NaN,NaN,-0.003850668,0.8132802,1.909679E-06,1.022804,1.277087E-08,1.389509
475.7263,0.04500224,0.0005186856,NaN,-0.3269992,0.0003330907,NaN,0.4174657,-14.18788,NaN,-2.182566,-1.461834,-0.3945863,14.10806,NaN,NaN,0.004158231,0.8126072,1.876226E-06,1.017907,1.157878E-08,1.391111
475.7397,0.04500224,0.0005186856,NaN,-0.3269992,0.0003330907,NaN,0.4174657,-14.18788,NaN,-2.182566,-1.461834,-0.3945863,14.10806,NaN,NaN,0.004158231,0.8126072,1.876226E-06,1.017907,1.157878E-08,1.391111
475.754,0.04500224,0.0005185021,NaN,-0.3269992,0.0003332511,NaN,0.4178385,-14.18782,NaN,-2.182217,-1.465181,-0.3942379,14.11158,NaN,NaN,0.01200929,0.8127578,1.833236E-06,1.022764,9.194595E-09,1.390202
475.7696,0.04500224,0.0005183512,NaN,-0.3269992,0.0003328337,NaN,0.4180528,-14.18882,NaN,-2.182518,-1.47389,-0.3939882,14.12089,NaN,NaN,0.0197064,0.8119823,1.789203E-06,1.03546,1.038669E-08,1.398211
475.7846,0.04500223,0.000518079,NaN,-0.3269992,0.0003326647,NaN,0.4181941,-14.18788,NaN,-2.183,-1.467778,-0.393808,14.11433,NaN,NaN,0.02725283,0.812797,1.749417E-06,1.026549,1.515506E-08,1.394067
475.7996,0.04500223,0.000518079,NaN,-0.3269992,0.0003326647,NaN,0.4181941,-14.18788,NaN,-2.183,-1.467778,-0.393808,14.11433,NaN,NaN,0.02725283,0.812797,1.749417E-06,1.026549,1.515506E-08,1.394067
475.8139,0.04500223,0.0005176092,NaN,-0.3269992,0.0003326984,NaN,0.4192379,-14.18723,NaN,-2.181464,-1.463932,-0.393058,14.11017,NaN,NaN,0.03131844,0.8133385,1.714772E-06,1.020931,1.515506E-08,1.38958
475.8294,0.04500224,0.0005169361,NaN,-0.3269992,0.0003319299,NaN,0.419926,-14.18759,NaN,-2.180876,-1.474416,-0.3924847,14.1213,NaN,NaN,0.03530377,0.8132614,1.672676E-06,1.036195,1.515506E-08,1.395209
475.8445,0.04500224,0.0005166674,NaN,-0.3269992,0.0003315236,NaN,0.4204393,-14.1893,NaN,-2.180735,-1.472372,-0.392031,14.11932,NaN,NaN,0.03921103,0.8114886,1.631475E-06,1.033261,1.396297E-08,1.402806
475.8593,0.04500224,0.0005166674,NaN,-0.3269992,0.0003315236,NaN,0.4204393,-14.1893,NaN,-2.180735,-1.472372,-0.392031,14.11932,NaN,NaN,0.03921103,0.8114886,1.631475E-06,1.033261,1.396297E-08,1.402806
475.8737,0.04500225,0.0005166702,NaN,-0.3269992,0.0003313137,NaN,0.4218022,-14.18919,NaN,-2.178891,-1.471505,-0.3910294,14.11839,NaN,NaN,0.03970861,0.8115572,1.594147E-06,1.031997,1.038669E-08,1.401733
475.8891,0.04500226,0.000516416,NaN,-0.3269992,0.0003315049,NaN,0.4227563,-14.18797,NaN,-2.177804,-1.462836,-0.3902767,14.1091,NaN,NaN,0.04019637,0.8125885,1.557342E-06,1.019369,5.618316E-09,1.394
475.9051,0.04500226,0.00051607,NaN,-0.3269992,0.0003318443,NaN,0.4235232,-14.18801,NaN,-2.177091,-1.461819,-0.3896539,14.10803,NaN,NaN,0.04067453,0.8125011,1.521504E-06,1.017891,3.234131E-09,1.39363
475.9189,0.04500226,0.00051607,NaN,-0.3269992,0.0003318443,NaN,0.4235232,-14.18801,NaN,-2.177091,-1.461819,-0.3896539,14.10803,NaN,NaN,0.04067453,0.8125011,1.521504E-06,1.017891,3.234131E-09,1.39363
475.9331,0.04500227,0.000516232,NaN,-0.3269992,0.0003321783,NaN,0.4242054,-14.18912,NaN,-2.17656,-1.466124,-0.3890948,14.11272,NaN,NaN,0.04114331,0.8115159,1.485816E-06,1.024193,4.426224E-09,1.401978
475.9487,0.04500228,0.0005164848,NaN,-0.3269992,0.0003318462,NaN,0.4257625,-14.1889,NaN,-2.174207,-1.475397,-0.3879699,14.12245,NaN,NaN,0.03826981,0.8119441,1.454151E-06,1.037652,4.426224E-09,1.40468
475.9634,0.04500229,0.0005168197,NaN,-0.3269992,0.0003325306,NaN,0.426922,-14.18804,NaN,-2.17257,-1.463155,-0.3870839,14.10944,NaN,NaN,0.03545257,0.8126045,1.421816E-06,1.019842,2.042038E-09,1.394841
475.9785,0.04500229,0.0005168197,NaN,-0.3269992,0.0003325306,NaN,0.426922,-14.18804,NaN,-2.17257,-1.463155,-0.3870839,14.10944,NaN,NaN,0.03545257,0.8126045,1.421816E-06,1.019842,2.042038E-09,1.394841
475.9927,0.0450023,0.000517039,NaN,-0.3269992,0.0003331029,NaN,0.427893,-14.18845,NaN,-2.171295,-1.461918,-0.3863272,14.10818,NaN,NaN,0.03269054,0.8121501,1.38799E-06,1.018058,-1.534241E-09,1.3959
476.0083,0.04500231,0.0005173109,NaN,-0.3269992,0.0003328677,NaN,0.4287731,-14.18894,NaN,-2.17021,-1.473763,-0.3856381,14.12074,NaN,NaN,0.02998264,0.8120031,1.355952E-06,1.035288,-1.534241E-09,1.403449
476.0236,0.04500232,0.0005174123,NaN,-0.3269992,0.0003331079,NaN,0.4305077,-14.18819,NaN,-2.167315,-1.46562,-0.3844011,14.11205,NaN,NaN,0.02399474,0.8125812,1.324213E-06,1.023429,-2.726333E-09,1.3967
476.0382,0.04500232,0.0005174123,NaN,-0.3269992,0.0003331079,NaN,0.4305077,-14.18819,NaN,-2.167315,-1.46562,-0.3844011,14.11205,NaN,NaN,0.02399474,0.8125812,1.324213E-06,1.023429,-2.726333E-09,1.3967
476.0526,0.04500234,0.0005173505,NaN,-0.3269992,0.0003335352,NaN,0.4318396,-14.18834,NaN,-2.165154,-1.462058,-0.3834061,14.10829,NaN,NaN,0.01812418,0.8123178,1.291207E-06,1.018249,-3.421476E-10,1.395198
476.0681,0.04500235,0.0005167266,NaN,-0.3269992,0.0003333106,NaN,0.4329762,-14.18886,NaN,-2.163374,-1.466367,-0.3825456,14.1129,NaN,NaN,0.01236867,0.8119082,1.260213E-06,1.024527,8.499452E-10,1.400622
476.083,0.04500237,0.0005162841,NaN,-0.3269992,0.0003327276,NaN,0.4340142,-14.18966,NaN,-2.161805,-1.473377,-0.3817585,14.12038,NaN,NaN,0.006726,0.811269,1.226387E-06,1.034735,-1.534241E-09,1.406652
476.0978,0.04500237,0.0005162841,NaN,-0.3269992,0.0003327276,NaN,0.4340142,-14.18966,NaN,-2.161805,-1.473377,-0.3817585,14.12038,NaN,NaN,0.006726,0.811269,1.226387E-06,1.034735,-1.534241E-09,1.406652
476.1141,0.04500239,0.0005167841,NaN,-0.3269992,0.0003324921,NaN,0.4358841,-14.18926,NaN,-2.158441,-1.475129,-0.3804446,14.12216,NaN,NaN,-0.002139134,0.8116707,1.195765E-06,1.037262,-3.421476E-10,1.406007
476.1277,0.04500241,0.0005165942,NaN,-0.3269992,0.000332374,NaN,0.4373485,-14.18908,NaN,-2.155831,-1.464013,-0.3793739,14.11041,NaN,NaN,-0.01083053,0.8116609,1.162088E-06,1.021102,3.234131E-09,1.400121
476.1426,0.04500243,0.0005172085,NaN,-0.3269992,0.0003328741,NaN,0.4386119,-14.18771,NaN,-2.153623,-1.465245,-0.3784418,14.11153,NaN,NaN,-0.01935154,0.8130375,1.12722E-06,1.022841,6.81041E-09,1.39426
476.1578,0.04500243,0.0005172085,NaN,-0.3269992,0.0003328741,NaN,0.4386119,-14.18771,NaN,-2.153623,-1.465245,-0.3784418,14.11153,NaN,NaN,-0.01935154,0.8130375,1.12722E-06,1.022841,6.81041E-09,1.39426
