JMolnar6/NonAnthroHands_User_Study/HandsLoggerWithURDF/tempdata/PID 0 (test)/files/Reachy_JointMotion_gesture_12_61.csv
Time,r_shoulder,r_shoulder_x,r_upper_arm,r_forearm,r_wrist,r_wrist2hand,
1121.196,-0.2246325,0.0008114306,NaN,-0.4567235,0.002420285,NaN,-0.3781967,-14.98932,NaN,-0.9571543,-1.472405,0.3802208,14.14147,NaN,NaN,0.3321076,0.8035086,0.2820863,1.081546,4.178246E-08,1.343816
1121.212,-0.2251235,0.0008110176,NaN,-0.4551384,0.002421675,NaN,-0.380109,-14.98806,NaN,-0.9580488,-1.468964,0.3867006,14.13778,NaN,NaN,0.3317538,0.8047646,0.2860138,1.076594,3.612002E-08,1.33547
1121.226,-0.2256294,0.0008108916,NaN,-0.453507,0.002423131,NaN,-0.3820038,-14.98859,NaN,-0.9589074,-1.466062,0.3934681,14.13481,NaN,NaN,0.3313446,0.8042352,0.2900498,1.072408,3.552397E-08,1.337599
1121.241,-0.2261425,0.0008108959,NaN,-0.4518544,0.002424014,NaN,-0.3839244,-14.98889,NaN,-0.9597811,-1.465581,0.4003461,14.13434,NaN,NaN,0.3308844,0.8039361,0.2942196,1.071716,2.747735E-08,1.338203
1121.257,-0.2261425,0.0008108959,NaN,-0.4518544,0.002424014,NaN,-0.3839244,-14.98889,NaN,-0.9597811,-1.465581,0.4003461,14.13434,NaN,NaN,0.3308844,0.8039361,0.2942196,1.071716,2.747735E-08,1.338203
1121.271,-0.2266576,0.0008108575,NaN,-0.4501962,0.002423166,NaN,-0.3858565,-14.98952,NaN,-0.9606541,-1.478178,0.4072207,14.14748,NaN,NaN,0.3303628,0.8033412,0.2984571,1.089873,2.717933E-08,1.344766
1121.286,-0.2271387,0.0008100136,NaN,-0.4486465,0.002423919,NaN,-0.3877,-14.98921,NaN,-0.9613367,-1.466714,0.4132303,14.13556,NaN,NaN,0.3295282,0.8037516,0.3025645,1.073362,2.419909E-08,1.341332
1121.301,-0.2275967,0.0008091846,NaN,-0.4471705,0.002424605,NaN,-0.3895325,-14.98889,NaN,-0.9620408,-1.465867,0.4187771,14.13464,NaN,NaN,0.3286649,0.8040584,0.3065259,1.072136,2.390107E-08,1.338477
1121.316,-0.2275967,0.0008091846,NaN,-0.4471705,0.002424605,NaN,-0.3895325,-14.98889,NaN,-0.9620408,-1.465867,0.4187771,14.13464,NaN,NaN,0.3286649,0.8040584,0.3065259,1.072136,2.390107E-08,1.338477
1121.33,-0.2280384,0.0008085576,NaN,-0.4457464,0.002423125,NaN,-0.391291,-14.98898,NaN,-0.9627032,-1.478248,0.4240146,14.1475,NaN,NaN,0.3277678,0.8039954,0.3102867,1.089981,2.479514E-08,1.340454
1121.346,-0.2284682,0.000808183,NaN,-0.4443606,0.002422085,NaN,-0.3929847,-14.98864,NaN,-0.9633327,-1.472054,0.4290498,14.14103,NaN,NaN,0.3268475,0.8043627,0.3139056,1.081055,3.015955E-08,1.339624
1121.361,-0.2288556,0.0008074973,NaN,-0.4431091,0.002419991,NaN,-0.3945464,-14.98848,NaN,-0.9637571,-1.466124,0.4331297,14.13485,NaN,NaN,0.3256494,0.804531,0.317271,1.072503,3.015955E-08,1.33622
1121.376,-0.2288556,0.0008074973,NaN,-0.4431091,0.002419991,NaN,-0.3945464,-14.98848,NaN,-0.9637571,-1.466124,0.4331297,14.13485,NaN,NaN,0.3256494,0.804531,0.317271,1.072503,3.015955E-08,1.33622
1121.39,-0.2292151,0.0008064459,NaN,-0.441946,0.002418908,NaN,-0.3960478,-14.98851,NaN,-0.9641985,-1.466176,0.4366975,14.1349,NaN,NaN,0.3244607,0.8044797,0.3204087,1.072575,3.403386E-08,1.33647
1121.406,-0.2295558,0.0008058011,NaN,-0.4408423,0.002419758,NaN,-0.3974576,-14.98906,NaN,-0.9645709,-1.465208,0.4399545,14.13395,NaN,NaN,0.3232616,0.8039173,0.3233181,1.071177,2.390107E-08,1.339779
1121.421,-0.2298834,0.0008042693,NaN,-0.4397803,0.002416682,NaN,-0.3986024,-14.98955,NaN,-0.9650329,-1.474942,0.4428695,14.1441,NaN,NaN,0.3222268,0.8034534,0.3259601,1.085206,1.853665E-08,1.344189
1121.436,-0.2298834,0.0008042693,NaN,-0.4397803,0.002416682,NaN,-0.3986024,-14.98955,NaN,-0.9650329,-1.474942,0.4428695,14.1441,NaN,NaN,0.3222268,0.8034534,0.3259601,1.085206,1.853665E-08,1.344189
1121.452,-0.2301683,0.0008035828,NaN,-0.4388532,0.002415255,NaN,-0.399073,-14.99018,NaN,-0.9653689,-1.479027,0.4443931,14.14839,NaN,NaN,0.3212109,0.802786,0.328016,1.091083,2.002676E-08,1.348266
1121.466,-0.2304256,0.0008034185,NaN,-0.4380134,0.002416523,NaN,-0.3997369,-14.98859,NaN,-0.9656304,-1.471617,0.4456354,14.14058,NaN,NaN,0.3201154,0.8044364,0.3300653,1.080436,1.823862E-08,1.337532
1121.481,-0.2306645,0.000803561,NaN,-0.4372311,0.002416154,NaN,-0.4001779,-14.99017,NaN,-0.9660413,-1.476099,0.4464788,14.14538,NaN,NaN,0.3192216,0.8028487,0.3318395,1.086891,1.585444E-08,1.345102
1121.496,-0.2306645,0.000803561,NaN,-0.4372311,0.002416154,NaN,-0.4001779,-14.99017,NaN,-0.9660413,-1.476099,0.4464788,14.14538,NaN,NaN,0.3192216,0.8028487,0.3318395,1.086891,1.585444E-08,1.345102
1121.51,-0.230858,0.0008029538,NaN,-0.4365923,0.002414535,NaN,-0.3997667,-14.98856,NaN,-0.9663815,-1.466144,0.445729,14.13492,NaN,NaN,0.3184173,0.8045247,0.3328444,1.072576,1.91327E-08,1.338365
1121.526,-0.2310224,0.0008032073,NaN,-0.4360448,0.002414368,NaN,-0.3996379,-14.98858,NaN,-0.9665082,-1.466317,0.4447648,14.1351,NaN,NaN,0.3174175,0.8044943,0.3338543,1.072824,9.29793E-09,1.338578
1121.54,-0.2311679,0.0008036328,NaN,-0.4355561,0.002414641,NaN,-0.3993451,-14.98886,NaN,-0.966828,-1.478493,0.4434777,14.14778,NaN,NaN,0.3166587,0.8042347,0.3346382,1.090382,6.317697E-09,1.343978
1121.556,-0.2311679,0.0008036328,NaN,-0.4355561,0.002414641,NaN,-0.3993451,-14.98886,NaN,-0.966828,-1.478493,0.4434777,14.14778,NaN,NaN,0.3166587,0.8042347,0.3346382,1.090382,6.317697E-09,1.343978
1121.57,-0.231301,0.0008032757,NaN,-0.4351058,0.002413233,NaN,-0.3990352,-14.98989,NaN,-0.9670131,-1.479471,0.442084,14.14887,NaN,NaN,0.3158373,0.8031815,0.3352648,1.091773,7.50979E-09,1.349668
1121.586,-0.2313928,0.0008033915,NaN,-0.4347858,0.00241271,NaN,-0.397797,-14.98904,NaN,-0.9673032,-1.477373,0.4391201,14.14661,NaN,NaN,0.3152694,0.8040254,0.3351529,1.088756,4.231535E-09,1.337548
1121.601,-0.2314585,0.0008032522,NaN,-0.4345475,0.002413435,NaN,-0.3968181,-14.98816,NaN,-0.9673384,-1.469237,0.4359602,14.13808,NaN,NaN,0.3144768,0.8049567,0.3350332,1.077032,4.529558E-09,1.338716
1121.616,-0.2314585,0.0008032522,NaN,-0.4345475,0.002413435,NaN,-0.3968181,-14.98816,NaN,-0.9673384,-1.469237,0.4359602,14.13808,NaN,NaN,0.3144768,0.8049567,0.3350332,1.077032,4.529558E-09,1.338716
1121.63,-0.2315074,0.0008031632,NaN,-0.4343609,0.002412949,NaN,-0.3957839,-14.98856,NaN,-0.9675351,-1.479089,0.4326073,14.14835,NaN,NaN,0.3138823,0.8045388,0.3347768,1.091238,6.61572E-09,1.342147
1121.647,-0.2315458,0.000802886,NaN,-0.4342068,0.00241153,NaN,-0.394705,-14.98841,NaN,-0.9676514,-1.47111,0.4291581,14.14003,NaN,NaN,0.3132799,0.8047495,0.3343622,1.079723,1.198014E-08,1.340693
1121.662,-0.2315449,0.0008028491,NaN,-0.4341782,0.002409606,NaN,-0.392732,-14.98847,NaN,-0.9678404,-1.479306,0.424194,14.14854,NaN,NaN,0.3128954,0.8046535,0.3332285,1.091536,1.347025E-08,1.340571
1121.675,-0.2315449,0.0008028491,NaN,-0.4341782,0.002409606,NaN,-0.392732,-14.98847,NaN,-0.9678404,-1.479306,0.424194,14.14854,NaN,NaN,0.3128954,0.8046535,0.3332285,1.091536,1.347025E-08,1.340571
1121.69,-0.2315197,0.0008037259,NaN,-0.4342264,0.002410143,NaN,-0.3909555,-14.98849,NaN,-0.967829,-1.473084,0.4190075,14.14206,NaN,NaN,0.3123424,0.8046724,0.3320575,1.082552,1.317223E-08,1.33948
1121.706,-0.2314793,0.0008034369,NaN,-0.4343219,0.002412151,NaN,-0.3891991,-14.98913,NaN,-0.9679179,-1.467793,0.4137146,14.1366,NaN,NaN,0.3119246,0.8040396,0.3307946,1.074904,1.108607E-08,1.343361
1121.72,-0.2314295,0.0008031953,NaN,-0.434446,0.002413303,NaN,-0.3874057,-14.98847,NaN,-0.9679635,-1.466144,0.4083608,14.1348,NaN,NaN,0.311529,0.804676,0.3293938,1.072518,6.615721E-09,1.338574
1121.736,-0.2314295,0.0008031953,NaN,-0.434446,0.002413303,NaN,-0.3874057,-14.98847,NaN,-0.9679635,-1.466144,0.4083608,14.1348,NaN,NaN,0.311529,0.804676,0.3293938,1.072518,6.615721E-09,1.338574
1121.75,-0.2313411,0.0008033797,NaN,-0.4346919,0.002413316,NaN,-0.3847397,-14.98959,NaN,-0.9680709,-1.477532,0.4015327,14.14675,NaN,NaN,0.3113295,0.8035748,0.3272844,1.088941,2.443396E-09,1.347664
1121.766,-0.2312289,0.000802902,NaN,-0.4350119,0.00241426,NaN,-0.3822218,-14.9884,NaN,-0.9680203,-1.466956,0.3944653,14.13567,NaN,NaN,0.3109977,0.8048436,0.3251165,1.073713,3.933512E-09,1.338883
1121.781,-0.2311023,0.0008031653,NaN,-0.4353761,0.002414859,NaN,-0.3797638,-14.98876,NaN,-0.9680235,-1.478695,0.3873459,14.1479,NaN,NaN,0.3107526,0.8044903,0.3228802,1.090641,3.933512E-09,1.344165
1121.796,-0.2311023,0.0008031653,NaN,-0.4353761,0.002414859,NaN,-0.3797638,-14.98876,NaN,-0.9680235,-1.478695,0.3873459,14.1479,NaN,NaN,0.3107526,0.8044903,0.3228802,1.090641,3.933512E-09,1.344165
1121.81,-0.2309342,0.0008030508,NaN,-0.4358706,0.002413753,NaN,-0.376417,-14.98897,NaN,-0.9680842,-1.480939,0.3787166,14.15023,NaN,NaN,0.3106919,0.8042294,0.3198873,1.093865,-5.368364E-10,1.342656
1121.826,-0.230741,0.0008038282,NaN,-0.4364431,0.002413118,NaN,-0.373165,-14.98838,NaN,-0.968006,-1.475861,0.3698029,14.14489,NaN,NaN,0.3105198,0.8048395,0.3167816,1.086539,9.532797E-10,1.340251
1121.842,-0.2305328,0.0008046684,NaN,-0.4370613,0.002414987,NaN,-0.3700069,-14.98835,NaN,-0.9679441,-1.475238,0.3608769,14.14421,NaN,NaN,0.3103948,0.8048421,0.3136194,1.085626,1.251303E-09,1.339469
1121.856,-0.2305328,0.0008046684,NaN,-0.4370613,0.002414987,NaN,-0.3700069,-14.98835,NaN,-0.9679441,-1.475238,0.3608769,14.14421,NaN,NaN,0.3103948,0.8048421,0.3136194,1.085626,1.251303E-09,1.339469
1121.87,-0.2303162,0.0008051596,NaN,-0.4377048,0.00241739,NaN,-0.3668845,-14.98947,NaN,-0.9678642,-1.472273,0.3519986,14.1412,NaN,NaN,0.3102933,0.8037239,0.3103908,1.081324,2.741419E-09,1.343233
1121.886,-0.2300622,0.0008048493,NaN,-0.4384656,0.002418908,NaN,-0.3629229,-14.9877,NaN,-0.9678555,-1.473181,0.3417224,14.14196,NaN,NaN,0.3103489,0.8054652,0.3064909,1.082629,6.61572E-09,1.334091
1121.901,-0.2297861,0.0008044268,NaN,-0.4392953,0.002421974,NaN,-0.3590277,-14.98824,NaN,-0.9677526,-1.467303,0.3311756,14.13587,NaN,NaN,0.3103135,0.8049317,0.3024937,1.074128,6.019674E-09,1.337588
1121.916,-0.2297861,0.0008044268,NaN,-0.4392953,0.002421974,NaN,-0.3590277,-14.98824,NaN,-0.9677526,-1.467303,0.3311756,14.13587,NaN,NaN,0.3103135,0.8049317,0.3024937,1.074128,6.019674E-09,1.337588
1121.93,-0.2294972,0.000804369,NaN,-0.4401637,0.002423031,NaN,-0.3552352,-14.98906,NaN,-0.9676417,-1.47867,0.3206469,14.14776,NaN,NaN,0.3102905,0.8041262,0.2984591,1.09052,5.721651E-09,1.341876
1121.946,-0.2292017,0.0008048127,NaN,-0.4410521,0.002423444,NaN,-0.351521,-14.98948,NaN,-0.9675158,-1.479627,0.3102244,14.14877,NaN,NaN,0.310277,0.8036726,0.294407,1.091883,5.423627E-09,1.342798
1121.961,-0.2288702,0.0008052622,NaN,-0.4420535,0.002424352,NaN,-0.3463554,-14.98822,NaN,-0.9676293,-1.474042,0.2979439,14.14286,NaN,NaN,0.3107136,0.8049725,0.2892406,1.083847,3.039442E-09,1.334343
1121.976,-0.2288702,0.0008052622,NaN,-0.4420535,0.002424352,NaN,-0.3463554,-14.98822,NaN,-0.9676293,-1.474042,0.2979439,14.14286,NaN,NaN,0.3107136,0.8049725,0.2892406,1.083847,3.039442E-09,1.334343
1121.99,-0.2285177,0.0008049192,NaN,-0.4431198,0.002422691,NaN,-0.3412818,-14.98787,NaN,-0.9677336,-1.479647,0.2854465,14.14865,NaN,NaN,0.3111096,0.8052769,0.2840035,1.09193,-2.388139E-10,1.333592
1122.006,-0.2281537,0.0008045596,NaN,-0.4442215,0.002421118,NaN,-0.3364422,-14.98823,NaN,-0.9677809,-1.471519,0.2731006,14.14021,NaN,NaN,0.3114364,0.8049831,0.2788192,1.080188,5.72165E-09,1.334506
1122.021,-0.227784,0.0008048463,NaN,-0.4453399,0.002421372,NaN,-0.331799,-14.98903,NaN,-0.9677771,-1.479706,0.260986,14.14878,NaN,NaN,0.3117081,0.8041458,0.2736968,1.091989,4.827581E-09,1.340378
1122.037,-0.227784,0.0008048463,NaN,-0.4453399,0.002421372,NaN,-0.331799,-14.98903,NaN,-0.9677771,-1.479706,0.260986,14.14878,NaN,NaN,0.3117081,0.8041458,0.2736968,1.091989,4.827581E-09,1.340378
1122.05,-0.2273792,0.000805113,NaN,-0.4465682,0.002422621,NaN,-0.3269684,-14.9897,NaN,-0.9676977,-1.472296,0.2480858,14.14113,NaN,NaN,0.3118127,0.8035344,0.2683594,1.081287,1.251302E-09,1.341446
1122.066,-0.2269545,0.0008048269,NaN,-0.4478587,0.002422733,NaN,-0.3223597,-14.98849,NaN,-0.967495,-1.466891,0.2351192,14.1354,NaN,NaN,0.3117438,0.8047441,0.2630172,1.0735,-5.368374E-10,1.332509
1122.081,-0.226519,0.0008049267,NaN,-0.4491816,0.002422511,NaN,-0.3179804,-14.98927,NaN,-0.9672003,-1.478687,0.2223371,14.14773,NaN,NaN,0.3115692,0.8039855,0.2577149,1.090511,-1.132884E-09,1.341508
1122.095,-0.226519,0.0008049267,NaN,-0.4491816,0.002422511,NaN,-0.3179804,-14.98927,NaN,-0.9672003,-1.478687,0.2223371,14.14773,NaN,NaN,0.3115692,0.8039855,0.2577149,1.090511,-1.132884E-09,1.341508
1122.11,-0.2260456,0.0008044897,NaN,-0.4506232,0.002423452,NaN,-0.3137727,-14.98824,NaN,-0.9676898,-1.467944,0.2090898,14.13648,NaN,NaN,0.3119455,0.805107,0.2526616,1.075035,-1.132884E-09,1.333681
1122.127,-0.2255508,0.000803789,NaN,-0.4521313,0.002423886,NaN,-0.3097453,-14.98906,NaN,-0.9682867,-1.471314,0.1957198,14.14006,NaN,NaN,0.3123142,0.8042788,0.2475854,1.079893,-1.72893E-09,1.337856
1122.141,-0.2250447,0.0008046748,NaN,-0.4536735,0.002426012,NaN,-0.3055224,-14.98936,NaN,-0.9687213,-1.478138,0.1821682,14.14716,NaN,NaN,0.3126401,0.8039546,0.242294,1.089723,-5.368374E-10,1.341565
1122.156,-0.2250447,0.0008046748,NaN,-0.4536735,0.002426012,NaN,-0.3055224,-14.98936,NaN,-0.9687213,-1.478138,0.1821682,14.14716,NaN,NaN,0.3126401,0.8039546,0.242294,1.089723,-5.368374E-10,1.341565
1122.17,-0.2245337,0.0008049195,NaN,-0.4552298,0.002427429,NaN,-0.3019587,-14.98852,NaN,-0.9692402,-1.468067,0.1692505,14.13663,NaN,NaN,0.3129949,0.8048727,0.2375431,1.075215,-1.132884E-09,1.333894
1122.186,-0.2239887,0.000805316,NaN,-0.4568925,0.002427859,NaN,-0.2984586,-14.98851,NaN,-0.9702834,-1.468012,0.1557882,14.13656,NaN,NaN,0.313657,0.8048718,0.2328854,1.07513,-1.72893E-09,1.334705
1122.201,-0.223425,0.0008058542,NaN,-0.4586129,0.002428706,NaN,-0.2952744,-14.98861,NaN,-0.9714683,-1.478919,0.1423408,14.1479,NaN,NaN,0.3143059,0.8047614,0.228319,1.090861,-1.132884E-09,1.338804
1122.216,-0.223425,0.0008058542,NaN,-0.4586129,0.002428706,NaN,-0.2952744,-14.98861,NaN,-0.9714683,-1.478919,0.1423408,14.1479,NaN,NaN,0.3143059,0.8047614,0.228319,1.090861,-1.132884E-09,1.338804
1122.231,-0.222852,0.0008059869,NaN,-0.4603613,0.002428729,NaN,-0.292381,-14.98824,NaN,-0.972731,-1.468628,0.1291356,14.13716,NaN,NaN,0.3149421,0.8052053,0.2238421,1.076018,-2.324977E-09,1.333062
1122.246,-0.2222757,0.0008060202,NaN,-0.462119,0.002428573,NaN,-0.2897042,-14.98806,NaN,-0.97404,-1.479053,0.1162144,14.14798,NaN,NaN,0.3155659,0.8053621,0.219453,1.091055,-7.093348E-09,1.335706
1122.261,-0.2216666,0.000806354,NaN,-0.463979,0.002427542,NaN,-0.2870828,-14.98926,NaN,-0.9758884,-1.4764,0.1027459,14.1453,NaN,NaN,0.3164918,0.8041682,0.21515,1.087201,-9.477533E-09,1.339114
1122.275,-0.2216666,0.000806354,NaN,-0.463979,0.002427542,NaN,-0.2870828,-14.98926,NaN,-0.9758884,-1.4764,0.1027459,14.1453,NaN,NaN,0.3164918,0.8041682,0.21515,1.087201,-9.477533E-09,1.339114
1122.29,-0.2210397,0.0008066429,NaN,-0.4658937,0.002428852,NaN,-0.2847556,-14.98806,NaN,-0.9778704,-1.473213,0.08928353,14.14188,NaN,NaN,0.3173993,0.8053612,0.2109313,1.082613,-8.881487E-09,1.332124
1122.306,-0.2204045,0.0008069465,NaN,-0.4678333,0.002429422,NaN,-0.2826999,-14.98941,NaN,-0.9798973,-1.478455,0.07606561,14.14745,NaN,NaN,0.318289,0.8039785,0.2067954,1.090166,-9.477533E-09,1.341568
1122.321,-0.2197669,0.0008067212,NaN,-0.4697796,0.002431824,NaN,-0.2808455,-14.98858,NaN,-0.9819266,-1.468226,0.06314312,14.13675,NaN,NaN,0.3191614,0.8048829,0.2027406,1.075427,-8.285441E-09,1.335325
1122.336,-0.2197669,0.0008067212,NaN,-0.4697796,0.002431824,NaN,-0.2808455,-14.98858,NaN,-0.9819266,-1.468226,0.06314312,14.13675,NaN,NaN,0.3191614,0.8048829,0.2027406,1.075427,-8.285441E-09,1.335325
1122.35,-0.2190971,0.0008072093,NaN,-0.4718258,0.002434499,NaN,-0.2790541,-14.98853,NaN,-0.9844451,-1.478643,0.04969997,14.14756,NaN,NaN,0.320331,0.8049262,0.1987652,1.090448,-7.689394E-09,1.337186
1122.366,-0.2184103,0.0008081578,NaN,-0.4739242,0.00243582,NaN,-0.2775441,-14.98831,NaN,-0.9870491,-1.468118,0.03628185,14.13659,NaN,NaN,0.3214775,0.8052091,0.1948678,1.075263,-5.305208E-09,1.332258
1122.381,-0.2177159,0.000808218,NaN,-0.4760452,0.002435634,NaN,-0.2762878,-14.98872,NaN,-0.9896693,-1.469307,0.02311311,14.13785,NaN,NaN,0.3226016,0.8047794,0.1910469,1.076971,-2.921023E-09,1.333869
1122.396,-0.2177159,0.000808218,NaN,-0.4760452,0.002435634,NaN,-0.2762878,-14.98872,NaN,-0.9896693,-1.469307,0.02311311,14.13785,NaN,NaN,0.3226016,0.8047794,0.1910469,1.076971,-2.921023E-09,1.333869
1122.41,-0.2169864,0.0008090487,NaN,-0.4782752,0.002436813,NaN,-0.2751494,-14.98841,NaN,-0.9927768,-1.479721,0.009435705,14.14863,NaN,NaN,0.3240179,0.8050552,0.1873008,1.091986,-5.901255E-09,1.337279
1122.427,-0.2162383,0.0008093623,NaN,-0.4805621,0.00243803,NaN,-0.2743109,-14.98811,NaN,-0.9959617,-1.470322,-0.004200256,14.13882,NaN,NaN,0.3254063,0.8054222,0.1836282,1.078423,-2.921023E-09,1.33288
1122.441,-0.215482,0.0008101239,NaN,-0.4828736,0.002437467,NaN,-0.2737302,-14.98831,NaN,-0.9991535,-1.466485,-0.01757198,14.13484,NaN,NaN,0.3267676,0.8052139,0.1800276,1.072882,-4.113115E-09,1.331363
1122.456,-0.215482,0.0008101239,NaN,-0.4828736,0.002437467,NaN,-0.2737302,-14.98831,NaN,-0.9991535,-1.466485,-0.01757198,14.13484,NaN,NaN,0.3267676,0.8052139,0.1800276,1.072882,-4.113115E-09,1.331363
1122.47,-0.2147238,0.0008108515,NaN,-0.4851899,0.00243814,NaN,-0.2733308,-14.98942,NaN,-1.002319,-1.47071,-0.03063682,14.13934,NaN,NaN,0.3281023,0.8041081,0.1764977,1.078979,-2.921022E-09,1.338893
1122.485,-0.2139341,0.0008115285,NaN,-0.4876033,0.002439172,NaN,-0.2730117,-14.98879,NaN,-1.005943,-1.479762,-0.0442027,14.14867,NaN,NaN,0.3297251,0.804701,0.1730369,1.092026,-2.324976E-09,1.338311
1122.5,-0.2131285,0.0008118308,NaN,-0.4900655,0.002437878,NaN,-0.2729513,-14.98878,NaN,-1.009627,-1.468313,-0.05773754,14.13676,NaN,NaN,0.3313159,0.8048191,0.169644,1.075512,-2.324976E-09,1.335334
1122.516,-0.2131285,0.0008118308,NaN,-0.4900655,0.002437878,NaN,-0.2729513,-14.98878,NaN,-1.009627,-1.468313,-0.05773754,14.13676,NaN,NaN,0.3313159,0.8048191,0.169644,1.075512,-2.324976E-09,1.335334
1122.53,-0.2123164,0.0008120718,NaN,-0.4925464,0.002437929,NaN,-0.2731198,-14.98867,NaN,-1.013304,-1.473943,-0.07101691,14.1426,NaN,NaN,0.3328756,0.8049285,0.1663176,1.083636,-2.921022E-09,1.333551
1122.546,-0.2115038,0.0008129975,NaN,-0.4950279,0.002438652,NaN,-0.2734492,-14.98951,NaN,-1.016945,-1.480564,-0.08399528,14.14956,NaN,NaN,0.3344048,0.8040429,0.1630564,1.093184,3.572334E-10,1.342301
1122.561,-0.2106607,0.0008127282,NaN,-0.497603,0.002437965,NaN,-0.2738663,-14.98918,NaN,-1.021031,-1.474675,-0.09747263,14.14342,NaN,NaN,0.3362182,0.804426,0.1598592,1.0847,-2.388131E-10,1.336848
1122.575,-0.2106607,0.0008127282,NaN,-0.497603,0.002437965,NaN,-0.2738663,-14.98918,NaN,-1.021031,-1.474675,-0.09747263,14.14342,NaN,NaN,0.3362182,0.804426,0.1598592,1.0847,-2.388131E-10,1.336848
1122.59,-0.2098025,0.0008123874,NaN,-0.5002241,0.002435915,NaN,-0.2745273,-14.98867,NaN,-1.025167,-1.481243,-0.1109202,14.1502,NaN,NaN,0.3379961,0.8048785,0.1567247,1.094175,1.251303E-09,1.336192
1122.607,-0.2089386,0.0008123642,NaN,-0.5028614,0.002436331,NaN,-0.2754018,-14.98843,NaN,-1.029287,-1.476323,-0.1241124,14.14505,NaN,NaN,0.3397391,0.8051693,0.1536517,1.087076,5.721651E-09,1.334626
1122.622,-0.208075,0.0008119025,NaN,-0.505497,0.002434899,NaN,-0.2764223,-14.98905,NaN,-1.033363,-1.478177,-0.1370044,14.14703,NaN,NaN,0.341448,0.804522,0.1506389,1.089741,8.999907E-09,1.335027
1122.635,-0.208075,0.0008119025,NaN,-0.505497,0.002434899,NaN,-0.2764223,-14.98905,NaN,-1.033363,-1.478177,-0.1370044,14.14703,NaN,NaN,0.341448,0.804522,0.1506389,1.089741,8.999907E-09,1.335027
1122.65,-0.2071813,0.0008120806,NaN,-0.5082243,0.002434576,NaN,-0.2775405,-14.98865,NaN,-1.037874,-1.468254,-0.1503913,14.13668,NaN,NaN,0.3434376,0.8049988,0.1476851,1.075433,7.211767E-09,1.329804
1122.665,-0.2062732,0.0008126005,NaN,-0.5109955,0.00243558,NaN,-0.2788888,-14.98956,NaN,-1.042424,-1.47183,-0.1637477,14.14048,NaN,NaN,0.3453881,0.8040844,0.1447893,1.080586,1.317223E-08,1.336296
1122.68,-0.20536,0.0008137174,NaN,-0.5137811,0.002436324,NaN,-0.2804347,-14.98963,NaN,-1.046952,-1.479762,-0.1768482,14.14871,NaN,NaN,0.3473005,0.8039839,0.1419503,1.092016,7.807813E-09,1.337914
1122.695,-0.20536,0.0008137174,NaN,-0.5137811,0.002436324,NaN,-0.2804347,-14.98963,NaN,-1.046952,-1.479762,-0.1768482,14.14871,NaN,NaN,0.3473005,0.8039839,0.1419503,1.092016,7.807813E-09,1.337914
1122.71,-0.2044138,0.0008145639,NaN,-0.5166677,0.002438931,NaN,-0.2821319,-14.98899,NaN,-1.051918,-1.467755,-0.1904335,14.13618,NaN,NaN,0.3494895,0.8047444,0.139167,1.074716,8.701883E-09,1.33252
1122.725,-0.2034515,0.0008151532,NaN,-0.5196031,0.002439759,NaN,-0.2840741,-14.98975,NaN,-1.056922,-1.478437,-0.2039704,14.14736,NaN,NaN,0.3516356,0.8039922,0.1364382,1.090121,1.0192E-08,1.33765
1122.741,-0.2024834,0.0008144726,NaN,-0.5225553,0.002439356,NaN,-0.2862139,-14.98822,NaN,-1.061899,-1.475159,-0.2172369,14.14382,NaN,NaN,0.3537397,0.8055396,0.1337629,1.085413,1.138409E-08,1.328143
1122.756,-0.2024834,0.0008144726,NaN,-0.5225553,0.002439356,NaN,-0.2862139,-14.98822,NaN,-1.061899,-1.475159,-0.2172369,14.14382,NaN,NaN,0.3537397,0.8055396,0.1337629,1.085413,1.138409E-08,1.328143
1122.77,-0.2015159,0.0008142061,NaN,-0.5255045,0.002440045,NaN,-0.2884778,-14.98894,NaN,-1.066819,-1.467597,-0.2301936,14.136,NaN,NaN,0.3558026,0.8048589,0.1311401,1.074484,1.168211E-08,1.330693
1122.786,-0.2005189,0.0008138448,NaN,-0.5285431,0.002439087,NaN,-0.2908601,-14.98856,NaN,-1.072153,-1.477694,-0.2436325,14.14645,NaN,NaN,0.3581391,0.8052385,0.1285687,1.089046,6.615719E-09,1.331796
1122.801,-0.1995082,0.0008132273,NaN,-0.5316229,0.00243593,NaN,-0.2934486,-14.98901,NaN,-1.077511,-1.468599,-0.2570315,14.13701,NaN,NaN,0.3604298,0.8048481,0.1260478,1.07591,4.82758E-09,1.332384
1122.816,-0.1995082,0.0008132273,NaN,-0.5316229,0.00243593,NaN,-0.2934486,-14.98901,NaN,-1.077511,-1.468599,-0.2570315,14.13701,NaN,NaN,0.3604298,0.8048481,0.1260478,1.07591,4.82758E-09,1.332384
1122.83,-0.1984934,0.0008119314,NaN,-0.534714,0.002432708,NaN,-0.2962062,-14.98853,NaN,-1.082833,-1.469763,-0.2701677,14.13817,NaN,NaN,0.3626756,0.8053,0.1235762,1.077587,-1.728931E-09,1.328881
1122.846,-0.1974805,0.0008111182,NaN,-0.5377982,0.002430604,NaN,-0.2990669,-14.9893,NaN,-1.088092,-1.468228,-0.2830002,14.13665,NaN,NaN,0.3648775,0.8045211,0.1211532,1.075369,-2.388152E-10,1.331631
1122.861,-0.1964388,0.0008112686,NaN,-0.5409688,0.002429143,NaN,-0.3020549,-14.98987,NaN,-1.093754,-1.472769,-0.2963157,14.14142,NaN,NaN,0.3673502,0.8039455,0.1187776,1.081918,-4.41114E-09,1.335279
1122.876,-0.1964388,0.0008112686,NaN,-0.5409688,0.002429143,NaN,-0.3020549,-14.98987,NaN,-1.093754,-1.472769,-0.2963157,14.14142,NaN,NaN,0.3673502,0.8039455,0.1187776,1.081918,-4.41114E-09,1.335279
1122.89,-0.1953843,0.0008113895,NaN,-0.5441781,0.002428139,NaN,-0.3052343,-14.98935,NaN,-1.099434,-1.469331,-0.3095899,14.1378,NaN,NaN,0.3697745,0.8044596,0.1164486,1.076965,-6.795326E-09,1.331868
1122.906,-0.1943263,0.0008119425,NaN,-0.5473965,0.002427938,NaN,-0.3085657,-14.99025,NaN,-1.105074,-1.476625,-0.3226011,14.14546,NaN,NaN,0.3721513,0.8035479,0.1141653,1.08748,-9.92457E-09,1.339595
1122.921,-0.1932707,0.0008126615,NaN,-0.5506062,0.002428096,NaN,-0.311984,-14.98964,NaN,-1.110646,-1.481346,-0.3353097,14.1503,NaN,NaN,0.3744814,0.8041097,0.1119268,1.094287,-8.285442E-09,1.338132
1122.936,-0.1932707,0.0008126615,NaN,-0.5506062,0.002428096,NaN,-0.311984,-14.98964,NaN,-1.110646,-1.481346,-0.3353097,14.1503,NaN,NaN,0.3744814,0.8041097,0.1119268,1.094287,-8.285442E-09,1.338132
1122.95,-0.1921869,0.0008124056,NaN,-0.5539007,0.00242533,NaN,-0.3155409,-14.98977,NaN,-1.116612,-1.469985,-0.3485003,14.13851,NaN,NaN,0.3770799,0.8041103,0.1097321,1.077908,-8.881488E-09,1.333847
1122.966,-0.1910906,0.000811742,NaN,-0.5572321,0.002423212,NaN,-0.319275,-14.98865,NaN,-1.122591,-1.475209,-0.3616463,14.14383,NaN,NaN,0.3796276,0.8052145,0.1075805,1.085447,-7.987419E-09,1.331389
1122.981,-0.1899914,0.0008111064,NaN,-0.5605712,0.00241929,NaN,-0.3231439,-14.9895,NaN,-1.128527,-1.479698,-0.3745282,14.14859,NaN,NaN,0.3821253,0.8043252,0.1054711,1.091924,-4.560152E-09,1.336637
1122.997,-0.1899914,0.0008111064,NaN,-0.5605712,0.00241929,NaN,-0.3231439,-14.9895,NaN,-1.128527,-1.479698,-0.3745282,14.14859,NaN,NaN,0.3821253,0.8043252,0.1054711,1.091924,-4.560152E-09,1.336637
1123.011,-0.1888608,0.0008105892,NaN,-0.5640045,0.002417248,NaN,-0.3271997,-14.98893,NaN,-1.134861,-1.468193,-0.3878815,14.13659,NaN,NaN,0.384888,0.8050152,0.1034031,1.075349,-3.740588E-09,1.329418
1123.026,-0.1877161,0.00081082,NaN,-0.56748,0.002417524,NaN,-0.3314424,-14.98901,NaN,-1.141211,-1.479665,-0.4011709,14.14853,NaN,NaN,0.3875967,0.8049381,0.1013756,1.091899,-1.877943E-09,1.334045
1123.041,-0.1865678,0.0008114313,NaN,-0.5709655,0.002418341,NaN,-0.3358162,-14.99033,NaN,-1.147516,-1.47876,-0.4141827,14.14768,NaN,NaN,0.3902523,0.8036166,0.0993878,1.090569,-2.10146E-09,1.339749
1123.056,-0.1865678,0.0008114313,NaN,-0.5709655,0.002418341,NaN,-0.3358162,-14.99033,NaN,-1.147516,-1.47876,-0.4141827,14.14768,NaN,NaN,0.3902523,0.8036166,0.0993878,1.090569,-2.10146E-09,1.339749
1123.07,-0.1854221,0.0008114419,NaN,-0.5744416,0.002417976,NaN,-0.3402525,-14.98878,NaN,-1.153747,-1.468613,-0.4268853,14.13703,NaN,NaN,0.3928558,0.8052531,0.09743904,1.07597,1.959106E-09,1.330212
1123.087,-0.1842485,0.0008118527,NaN,-0.5780008,0.002418641,NaN,-0.3448494,-14.98958,NaN,-1.160353,-1.469388,-0.4400611,14.1379,NaN,NaN,0.3957222,0.8044484,0.09552848,1.077084,5.963793E-09,1.332943
1123.101,-0.1830631,0.0008130571,NaN,-0.5815948,0.002421784,NaN,-0.3495989,-14.98902,NaN,-1.166966,-1.479911,-0.4531781,14.14877,NaN,NaN,0.3985325,0.8049857,0.09365538,1.092252,4.857847E-09,1.332123
1123.116,-0.1830631,0.0008130571,NaN,-0.5815948,0.002421784,NaN,-0.3495989,-14.98902,NaN,-1.166966,-1.479911,-0.4531781,14.14877,NaN,NaN,0.3985325,0.8049857,0.09365538,1.092252,4.857847E-09,1.332123
1123.13,-0.1818756,0.0008132069,NaN,-0.5851939,0.002423627,NaN,-0.3544528,-14.98897,NaN,-1.173527,-1.468083,-0.4660242,14.13645,NaN,NaN,0.4012877,0.8051568,0.091819,1.075184,-7.859673E-10,1.330113
1123.146,-0.180692,0.0008138667,NaN,-0.5887798,0.00242449,NaN,-0.3593498,-14.99005,NaN,-1.18001,-1.478983,-0.4785672,14.14789,NaN,NaN,0.4039889,0.8040777,0.09001864,1.090909,-2.089819E-09,1.338675
1123.161,-0.179481,0.0008142607,NaN,-0.5924462,0.002427642,NaN,-0.3644185,-14.98879,NaN,-1.186859,-1.47065,-0.4915844,14.13913,NaN,NaN,0.406951,0.8054098,0.08825359,1.07891,-2.983889E-09,1.328917
1123.175,-0.179481,0.0008142607,NaN,-0.5924462,0.002427642,NaN,-0.3644185,-14.98879,NaN,-1.186859,-1.47065,-0.4915844,14.13913,NaN,NaN,0.406951,0.8054098,0.08825359,1.07891,-2.983889E-09,1.328917
1123.19,-0.1782589,0.0008150563,NaN,-0.5961452,0.002430229,NaN,-0.3696253,-14.99013,NaN,-1.193712,-1.474063,-0.5045382,14.1428,NaN,NaN,0.4098552,0.8040712,0.08652314,1.083829,-2.909383E-09,1.337221
1123.205,-0.1770354,0.0008149301,NaN,-0.5998473,0.002432296,NaN,-0.3749193,-14.9894,NaN,-1.200512,-1.468758,-0.5172212,14.13722,NaN,NaN,0.4127024,0.8048159,0.08482662,1.076183,-5.99703E-10,1.332237
1123.22,-0.1758162,0.0008152255,NaN,-0.6035348,0.00243376,NaN,-0.3802408,-14.98889,NaN,-1.20723,-1.471028,-0.5296039,14.13952,NaN,NaN,0.4154938,0.8053216,0.08316337,1.079455,-3.579935E-09,1.3297
1123.235,-0.1758162,0.0008152255,NaN,-0.6035348,0.00243376,NaN,-0.3802408,-14.98889,NaN,-1.20723,-1.471028,-0.5296039,14.13952,NaN,NaN,0.4154938,0.8053216,0.08316337,1.079455,-3.579935E-09,1.3297
1123.25,-0.17457,0.000815536,NaN,-0.6073014,0.002432244,NaN,-0.3857471,-14.99012,NaN,-1.214307,-1.478742,-0.5424597,14.14766,NaN,NaN,0.4185443,0.8040669,0.08153272,1.090584,-5.070051E-09,1.336659
1123.265,-0.173313,0.0008148807,NaN,-0.6110991,0.002429297,NaN,-0.3913774,-14.98911,NaN,-1.221386,-1.470144,-0.5552462,14.13865,NaN,NaN,0.4215351,0.8051466,0.07993406,1.078209,-2.834877E-09,1.331804
1123.28,-0.1720551,0.0008153169,NaN,-0.6148988,0.002430694,NaN,-0.397078,-14.98995,NaN,-1.228411,-1.474182,-0.5677621,14.14294,NaN,NaN,0.4244673,0.8042973,0.07836674,1.084035,-4.175981E-09,1.336665
1123.295,-0.1720551,0.0008153169,NaN,-0.6148988,0.002430694,NaN,-0.397078,-14.98995,NaN,-1.228411,-1.474182,-0.5677621,14.14294,NaN,NaN,0.4244673,0.8042973,0.07836674,1.084035,-4.175981E-09,1.336665
1123.31,-0.1707669,0.0008153126,NaN,-0.6187871,0.002431528,NaN,-0.4030054,-14.9887,NaN,-1.235801,-1.471989,-0.5807387,14.14054,NaN,NaN,0.4276558,0.8055366,0.07683016,1.080878,-1.791796E-09,1.329424
1123.325,-0.1694663,0.0008148922,NaN,-0.622712,0.002431347,NaN,-0.4090613,-14.98902,NaN,-1.243199,-1.467259,-0.5936272,14.13564,NaN,NaN,0.430782,0.8052312,0.0753237,1.074046,-1.195749E-09,1.329348
1123.34,-0.168164,0.0008152105,NaN,-0.6266413,0.002431415,NaN,-0.415181,-14.99032,NaN,-1.250543,-1.476012,-0.6062349,14.14487,NaN,NaN,0.4338468,0.8039412,0.07384679,1.086678,-3.579935E-09,1.338492
1123.355,-0.168164,0.0008152105,NaN,-0.6266413,0.002431415,NaN,-0.415181,-14.99032,NaN,-1.250543,-1.476012,-0.6062349,14.14487,NaN,NaN,0.4338468,0.8039412,0.07384679,1.086678,-3.579935E-09,1.338492
1123.37,-0.1668663,0.0008150216,NaN,-0.6305558,0.00243138,NaN,-0.421304,-14.98922,NaN,-1.257802,-1.46722,-0.6185403,14.13565,NaN,NaN,0.4368516,0.8050925,0.07239883,1.074016,-6.85819E-09,1.330196
1123.385,-0.1655417,0.0008148951,NaN,-0.6345481,0.002431937,NaN,-0.4276365,-14.98934,NaN,-1.265404,-1.466132,-0.6313082,14.13452,NaN,NaN,0.4401112,0.8049627,0.07097927,1.072442,-7.454237E-09,1.331635
1123.401,-0.1642068,0.0008148614,NaN,-0.6385699,0.00243209,NaN,-0.4340682,-14.99059,NaN,-1.273007,-1.474265,-0.64399,14.1431,NaN,NaN,0.4433071,0.8037348,0.06958754,1.084178,-4.474005E-09,1.339286
1123.415,-0.1642068,0.0008148614,NaN,-0.6385699,0.00243209,NaN,-0.4340682,-14.99059,NaN,-1.273007,-1.474265,-0.64399,14.1431,NaN,NaN,0.4433071,0.8037348,0.06958754,1.084178,-4.474005E-09,1.339286
1123.429,-0.1628718,0.000814913,NaN,-0.6425914,0.002432868,NaN,-0.4405401,-14.99075,NaN,-1.28055,-1.474947,-0.6563981,14.14382,NaN,NaN,0.4464404,0.8035603,0.0682231,1.085158,-5.666098E-09,1.340679
1123.445,-0.1615423,0.0008151768,NaN,-0.6465947,0.00243385,NaN,-0.4469986,-14.98896,NaN,-1.288005,-1.480117,-0.6685112,14.14902,NaN,NaN,0.4495122,0.8053107,0.06688541,1.092622,-7.75226E-09,1.333346
1123.46,-0.1601866,0.00081475,NaN,-0.6506734,0.002435056,NaN,-0.4536801,-14.98883,NaN,-1.295795,-1.467619,-0.6810843,14.136,NaN,NaN,0.4528376,0.8055685,0.06557396,1.074586,-8.348307E-09,1.32811
1123.475,-0.1601866,0.00081475,NaN,-0.6506734,0.002435056,NaN,-0.4536801,-14.98883,NaN,-1.295795,-1.467619,-0.6810843,14.136,NaN,NaN,0.4528376,0.8055685,0.06557396,1.074586,-8.348307E-09,1.32811
1123.489,-0.1588212,0.0008139222,NaN,-0.6547797,0.002432831,NaN,-0.4604463,-14.98827,NaN,-1.303585,-1.478793,-0.693566,14.14757,NaN,NaN,0.4560979,0.8061253,0.06428822,1.090717,-5.368075E-09,1.329419
1123.505,-0.1574561,0.0008127668,NaN,-0.6588841,0.002429271,NaN,-0.4672364,-14.98925,NaN,-1.311315,-1.481003,-0.7057771,14.14996,NaN,NaN,0.4592943,0.8050994,0.06302769,1.093899,-4.772029E-09,1.333288
1123.52,-0.1560971,0.0008117776,NaN,-0.662969,0.002428321,NaN,-0.4739994,-14.99068,NaN,-1.318955,-1.476644,-0.7176988,14.14554,NaN,NaN,0.4624281,0.8036951,0.06179188,1.087583,-5.368075E-09,1.33897
1123.535,-0.1560971,0.0008117776,NaN,-0.662969,0.002428321,NaN,-0.4739994,-14.99068,NaN,-1.318955,-1.476644,-0.7176988,14.14554,NaN,NaN,0.4624281,0.8036951,0.06179188,1.087583,-5.368075E-09,1.33897
1123.551,-0.1547119,0.0008104588,NaN,-0.6671281,0.002425474,NaN,-0.4810004,-14.98957,NaN,-1.326922,-1.476752,-0.7300751,14.14555,NaN,NaN,0.4658141,0.8047796,0.0605803,1.08775,-5.368075E-09,1.333532
1123.566,-0.1533175,0.0008094852,NaN,-0.6713136,0.002425163,NaN,-0.4880721,-14.989,NaN,-1.334891,-1.46789,-0.742355,14.13629,NaN,NaN,0.469134,0.8054006,0.05939248,1.074973,-4.175982E-09,1.328247
1123.58,-0.1519238,0.0008093314,NaN,-0.6754962,0.002425855,NaN,-0.4951521,-14.98962,NaN,-1.342799,-1.466641,-0.7543687,14.13505,NaN,NaN,0.4723888,0.8047661,0.05822795,1.07317,5.923892E-10,1.330768
1123.596,-0.1519238,0.0008093314,NaN,-0.6754962,0.002425855,NaN,-0.4951521,-14.98962,NaN,-1.342799,-1.466641,-0.7543687,14.13505,NaN,NaN,0.4723888,0.8047661,0.05822795,1.07317,5.923892E-10,1.330768
1123.609,-0.1505007,0.0008095087,NaN,-0.6797628,0.002426421,NaN,-0.5025048,-14.98977,NaN,-1.351044,-1.469218,-0.7668225,14.13774,NaN,NaN,0.4758936,0.8046095,0.05708624,1.076886,5.923892E-10,1.331524
1123.625,-0.1490667,0.0008095965,NaN,-0.6840612,0.00242687,NaN,-0.509928,-14.98922,NaN,-1.359297,-1.479275,-0.7791664,14.14813,NaN,NaN,0.4793298,0.8051344,0.05596693,1.091389,1.188436E-09,1.332911
1123.64,-0.1490667,0.0008095965,NaN,-0.6840612,0.00242687,NaN,-0.509928,-14.98922,NaN,-1.359297,-1.479275,-0.7791664,14.14813,NaN,NaN,0.4793298,0.8051344,0.05596693,1.091389,1.188436E-09,1.332911
1123.654,-0.1476327,0.0008095058,NaN,-0.6883595,0.002426869,NaN,-0.5173519,-14.98957,NaN,-1.36749,-1.470107,-0.7912399,14.13861,NaN,NaN,0.4826987,0.8048722,0.05486957,1.078154,2.380529E-09,1.329116
1123.67,-0.1462049,0.0008095679,NaN,-0.6926384,0.002427108,NaN,-0.5247276,-14.9888,NaN,-1.37559,-1.479167,-0.8030288,14.14795,NaN,NaN,0.4860015,0.8056039,0.05379372,1.091219,1.188436E-09,1.32786
1123.685,-0.144751,0.0008092987,NaN,-0.6969907,0.002426849,NaN,-0.5323676,-14.98904,NaN,-1.384004,-1.468477,-0.8152515,14.13682,NaN,NaN,0.4895533,0.805458,0.05273896,1.075778,-1.791796E-09,1.326744
1123.7,-0.144751,0.0008092987,NaN,-0.6969907,0.002426849,NaN,-0.5323676,-14.98904,NaN,-1.384004,-1.468477,-0.8152515,14.13682,NaN,NaN,0.4895533,0.805458,0.05273896,1.075778,-1.791796E-09,1.326744
1123.714,-0.1432883,0.0008092931,NaN,-0.7013679,0.002425175,NaN,-0.5400532,-14.98976,NaN,-1.392421,-1.48015,-0.8273664,14.14904,NaN,NaN,0.4930357,0.8047333,0.05170489,1.092622,-3.579935E-09,1.330907
1123.73,-0.141827,0.0008091611,NaN,-0.7057405,0.002425907,NaN,-0.54772,-14.98889,NaN,-1.400772,-1.471135,-0.8392207,14.13959,NaN,NaN,0.4964498,0.8056819,0.05069109,1.079625,-2.983889E-09,1.324405
1123.745,-0.140373,0.0008094029,NaN,-0.7100906,0.002426463,NaN,-0.5553249,-14.98931,NaN,-1.409027,-1.46693,-0.8507995,14.13524,NaN,NaN,0.499797,0.8052668,0.04969717,1.073547,-8.348307E-09,1.326554
1123.76,-0.1388933,0.0008098613,NaN,-0.714512,0.002425201,NaN,-0.5632084,-14.99047,NaN,-1.41759,-1.478037,-0.8628011,14.14691,NaN,NaN,0.5033924,0.804125,0.04872274,1.089577,-1.252063E-08,1.335121
1123.775,-0.1388933,0.0008098613,NaN,-0.714512,0.002425201,NaN,-0.5632084,-14.99047,NaN,-1.41759,-1.478037,-0.8628011,14.14691,NaN,NaN,0.5033924,0.804125,0.04872274,1.089577,-1.252063E-08,1.335121
1123.791,-0.1374053,0.0008094228,NaN,-0.7189565,0.002424827,NaN,-0.5711237,-14.98964,NaN,-1.426155,-1.467455,-0.8746946,14.13584,NaN,NaN,0.5069175,0.8050359,0.04776741,1.074329,-1.073249E-08,1.328407
1123.805,-0.1359192,0.0008091246,NaN,-0.7233951,0.002422853,NaN,-0.5790063,-14.99004,NaN,-1.434655,-1.479126,-0.8863361,14.14802,NaN,NaN,0.5103735,0.804641,0.04683082,1.091165,-1.132854E-08,1.332462
1123.82,-0.1359192,0.0008091246,NaN,-0.7233951,0.002422853,NaN,-0.5790063,-14.99004,NaN,-1.434655,-1.479126,-0.8863361,14.14802,NaN,NaN,0.5103735,0.804641,0.04683082,1.091165,-1.132854E-08,1.332462
1123.834,-0.1344042,0.0008082986,NaN,-0.7279146,0.002424377,NaN,-0.5871965,-14.98894,NaN,-1.443472,-1.469393,-0.898385,14.13779,NaN,NaN,0.5140755,0.8058169,0.04591259,1.077132,-1.013645E-08,1.323874
1123.85,-0.1328794,0.0008076408,NaN,-0.7324626,0.002425798,NaN,-0.5954162,-14.98916,NaN,-1.452299,-1.474328,-0.9103199,14.14294,NaN,NaN,0.5177051,0.8055714,0.04501237,1.084251,-8.348307E-09,1.324495
1123.865,-0.1313557,0.0008077708,NaN,-0.7370075,0.002427526,NaN,-0.6035959,-14.99061,NaN,-1.461062,-1.478414,-0.9220039,14.14732,NaN,NaN,0.5212636,0.8040786,0.04412979,1.090132,-5.964121E-09,1.336578
1123.88,-0.1313557,0.0008077708,NaN,-0.7370075,0.002427526,NaN,-0.6035959,-14.99061,NaN,-1.461062,-1.478414,-0.9220039,14.14732,NaN,NaN,0.5212636,0.8040786,0.04412979,1.090132,-5.964121E-09,1.336578
1123.894,-0.1298395,0.0008078396,NaN,-0.7415299,0.002427186,NaN,-0.6116954,-14.98997,NaN,-1.469725,-1.481374,-0.9334222,14.15033,NaN,NaN,0.5247524,0.8046597,0.04326452,1.094402,-1.430877E-08,1.332781
1123.91,-0.1282977,0.0008085762,NaN,-0.7461228,0.00242895,NaN,-0.6200986,-14.98937,NaN,-1.478684,-1.47645,-0.9452307,14.14515,NaN,NaN,0.5284865,0.8052929,0.04241621,1.087304,-1.430877E-08,1.329094
1123.925,-0.1267481,0.000809089,NaN,-0.7507376,0.002430063,NaN,-0.6285099,-14.98908,NaN,-1.487646,-1.47299,-0.9569304,14.14151,NaN,NaN,0.5321477,0.8055939,0.04158455,1.082308,-8.348307E-09,1.326624
1123.94,-0.1267481,0.000809089,NaN,-0.7507376,0.002430063,NaN,-0.6285099,-14.98908,NaN,-1.487646,-1.47299,-0.9569304,14.14151,NaN,NaN,0.5321477,0.8055939,0.04158455,1.082308,-8.348307E-09,1.326624
1123.954,-0.125201,0.0008091989,NaN,-0.7553449,0.002430425,NaN,-0.636865,-14.98977,NaN,-1.496539,-1.479874,-0.9683913,14.14873,NaN,NaN,0.5357371,0.8048586,0.04076919,1.092237,-1.073249E-08,1.331247
1123.97,-0.1236623,0.0008089407,NaN,-0.7599267,0.002429248,NaN,-0.6451288,-14.98897,NaN,-1.50533,-1.47283,-0.9795969,14.14134,NaN,NaN,0.5392562,0.8057107,0.03996981,1.082084,-1.550086E-08,1.325519
1123.986,-0.1220983,0.0008082734,NaN,-0.764577,0.002426603,NaN,-0.6537092,-14.98914,NaN,-1.514409,-1.480147,-0.9911737,14.14897,NaN,NaN,0.5430201,0.8055051,0.0391861,1.092646,-1.669296E-08,1.326641
1124,-0.1220983,0.0008082734,NaN,-0.764577,0.002426603,NaN,-0.6537092,-14.98914,NaN,-1.514409,-1.480147,-0.9911737,14.14897,NaN,NaN,0.5430201,0.8055051,0.0391861,1.092646,-1.669296E-08,1.326641
1124.014,-0.120527,0.0008085241,NaN,-0.7692477,0.002427751,NaN,-0.6622857,-14.98898,NaN,-1.523493,-1.471965,-1.002648,14.14043,NaN,NaN,0.5467104,0.8057352,0.03841776,1.080832,-1.550086E-08,1.326452
1124.031,-0.1189587,0.0008083948,NaN,-0.7739096,0.002427618,NaN,-0.6707947,-14.99042,NaN,-1.532508,-1.476273,-1.013896,14.14505,NaN,NaN,0.5503284,0.8042843,0.03766449,1.087042,-1.550086E-08,1.331835
1124.044,-0.1173992,0.0008077563,NaN,-0.7785451,0.002426611,NaN,-0.6792039,-14.98938,NaN,-1.541417,-1.469356,-1.024899,14.13776,NaN,NaN,0.5538755,0.8053604,0.03692599,1.077077,-1.550086E-08,1.325342
1124.059,-0.1173992,0.0008077563,NaN,-0.7785451,0.002426611,NaN,-0.6792039,-14.98938,NaN,-1.541417,-1.469356,-1.024899,14.13776,NaN,NaN,0.5538755,0.8053604,0.03692599,1.077077,-1.550086E-08,1.325342
1124.074,-0.1172337,0.0008082215,NaN,-0.7792781,0.002425745,NaN,-0.6710673,-14.99056,NaN,-1.535306,-1.478917,-1.013695,14.14782,NaN,NaN,0.5457422,0.8041738,0.03620202,1.09087,-1.550086E-08,1.334941
1124.089,-0.1178784,0.0008083075,NaN,-0.7776286,0.002425787,NaN,-0.6592845,-14.98952,NaN,-1.523842,-1.467058,-0.9962702,14.13542,NaN,NaN,0.5377632,0.8053252,0.0354922,1.073788,-2.146133E-08,1.326274
1124.104,-0.1190039,0.0008086907,NaN,-0.7745187,0.002425679,NaN,-0.6461033,-14.98978,NaN,-1.509861,-1.465357,-0.9772987,14.13367,NaN,NaN,0.5299388,0.8050604,0.03479629,1.071329,-1.430877E-08,1.326258
1124.12,-0.1190039,0.0008086907,NaN,-0.7745187,0.002425679,NaN,-0.6461033,-14.98978,NaN,-1.509861,-1.465357,-0.9772987,14.13367,NaN,NaN,0.5299388,0.8050604,0.03479629,1.071329,-1.430877E-08,1.326258
1124.133,-0.1203648,0.0008086275,NaN,-0.7706347,0.002424336,NaN,-0.6329567,-14.99002,NaN,-1.495174,-1.478435,-0.958555,14.14729,NaN,NaN,0.5225809,0.8048618,0.03411403,1.090198,-1.192458E-08,1.331632
1124.149,-0.1218524,0.0008079834,NaN,-0.7662969,0.002421976,NaN,-0.6199263,-14.99057,NaN,-1.480213,-1.480614,-0.939935,14.14959,NaN,NaN,0.5153671,0.8042827,0.03344514,1.093327,-1.430877E-08,1.334436
1124.164,-0.1234036,0.0008067115,NaN,-0.7617026,0.002418008,NaN,-0.6071324,-14.99034,NaN,-1.465234,-1.478445,-0.9214573,14.1473,NaN,NaN,0.5082945,0.80452,0.03278937,1.090194,-1.311668E-08,1.332554
1124.179,-0.1234036,0.0008067115,NaN,-0.7617026,0.002418008,NaN,-0.6071324,-14.99034,NaN,-1.465234,-1.478445,-0.9214573,14.1473,NaN,NaN,0.5082945,0.80452,0.03278937,1.090194,-1.311668E-08,1.332554
1124.194,-0.1249825,0.0008059013,NaN,-0.7569729,0.002415117,NaN,-0.5946157,-14.9895,NaN,-1.450364,-1.473294,-0.9031613,14.14187,NaN,NaN,0.5013605,0.8053789,0.03214645,1.082768,-1.550086E-08,1.326962
1124.209,-0.1265315,0.0008058703,NaN,-0.7522863,0.002413108,NaN,-0.5827748,-14.99111,NaN,-1.436075,-1.476972,-0.8857573,14.14583,NaN,NaN,0.4948762,0.8037439,0.03151614,1.088057,-2.265342E-08,1.333883
1124.223,-0.1280558,0.0008054608,NaN,-0.7476462,0.002411609,NaN,-0.5713024,-14.99004,NaN,-1.42213,-1.466154,-0.8687428,14.13451,NaN,NaN,0.4885191,0.8048894,0.03089819,1.072476,-2.026924E-08,1.324314
1124.238,-0.1280558,0.0008054608,NaN,-0.7476462,0.002411609,NaN,-0.5713024,-14.99004,NaN,-1.42213,-1.466154,-0.8687428,14.13451,NaN,NaN,0.4885191,0.8048894,0.03089819,1.072476,-2.026924E-08,1.324314
1124.253,-0.1295585,0.0008053988,NaN,-0.7430547,0.002409213,NaN,-0.5601392,-14.99062,NaN,-1.408464,-1.479017,-0.8519899,14.14793,NaN,NaN,0.4822867,0.804334,0.03029235,1.091027,-1.788505E-08,1.330749
1124.268,-0.1310413,0.0008053147,NaN,-0.7385129,0.002408194,NaN,-0.5492506,-14.99161,NaN,-1.395043,-1.476132,-0.8354775,14.145,NaN,NaN,0.4761764,0.8033556,0.02969839,1.086841,-1.669296E-08,1.335519
1124.283,-0.1324688,0.000805169,NaN,-0.7341257,0.002408901,NaN,-0.5389682,-14.98991,NaN,-1.38227,-1.467134,-0.8199213,14.1355,NaN,NaN,0.4704997,0.8051034,0.02911607,1.073889,-1.311668E-08,1.325074
1124.298,-0.1324688,0.000805169,NaN,-0.7341257,0.002408901,NaN,-0.5389682,-14.98991,NaN,-1.38227,-1.467134,-0.8199213,14.1355,NaN,NaN,0.4704997,0.8051034,0.02911607,1.073889,-1.311668E-08,1.325074
1124.313,-0.1338578,0.0008047495,NaN,-0.7298517,0.002410636,NaN,-0.5290228,-14.99013,NaN,-1.369853,-1.466329,-0.8047712,14.13467,NaN,NaN,0.4649344,0.804869,0.02854518,1.072716,-1.073249E-08,1.326369
1124.328,-0.1352179,0.0008052781,NaN,-0.7256653,0.002415077,NaN,-0.5193539,-14.99008,NaN,-1.357711,-1.466166,-0.7898775,14.13448,NaN,NaN,0.4594782,0.8049013,0.02798547,1.072471,-7.156213E-09,1.327183
1124.343,-0.136555,0.0008059593,NaN,-0.7215506,0.002417145,NaN,-0.5099234,-14.99037,NaN,-1.345803,-1.479363,-0.775215,14.14822,NaN,NaN,0.454129,0.8046334,0.02743675,1.091505,-1.192458E-08,1.331483
1124.358,-0.136555,0.0008059593,NaN,-0.7215506,0.002417145,NaN,-0.5099234,-14.99037,NaN,-1.345803,-1.479363,-0.775215,14.14822,NaN,NaN,0.454129,0.8046334,0.02743675,1.091505,-1.192458E-08,1.331483
1124.372,-0.1378358,0.0008070617,NaN,-0.7176024,0.002417028,NaN,-0.5010247,-14.99023,NaN,-1.334531,-1.467847,-0.7615211,14.13623,NaN,NaN,0.4491984,0.8048779,0.02689877,1.074896,-1.073249E-08,1.32829
1124.388,-0.1390779,0.0008066578,NaN,-0.7137727,0.002417572,NaN,-0.4924341,-14.98981,NaN,-1.32359,-1.471195,-0.7482285,14.13967,NaN,NaN,0.4443646,0.8052877,0.02637135,1.079727,-1.192458E-08,1.325126
1124.404,-0.1402919,0.0008065508,NaN,-0.7100322,0.002416845,NaN,-0.4840935,-14.99085,NaN,-1.312901,-1.47989,-0.7351726,14.14882,NaN,NaN,0.4396257,0.8042226,0.02585427,1.092273,-8.348306E-09,1.332528
1124.418,-0.1402919,0.0008065508,NaN,-0.7100322,0.002416845,NaN,-0.4840935,-14.99085,NaN,-1.312901,-1.47989,-0.7351726,14.14882,NaN,NaN,0.4396257,0.8042226,0.02585427,1.092273,-8.348306E-09,1.332528
1124.432,-0.1414473,0.0008062159,NaN,-0.7064672,0.002417994,NaN,-0.4762507,-14.98995,NaN,-1.302854,-1.475491,-0.7230792,14.14417,NaN,NaN,0.4352934,0.8051429,0.02534732,1.08594,-7.156213E-09,1.32466
1124.447,-0.1425632,0.0008055777,NaN,-0.7030247,0.00242004,NaN,-0.4687028,-14.98987,NaN,-1.293125,-1.471954,-0.7113736,14.14047,NaN,NaN,0.4310463,0.805236,0.02485032,1.080831,-2.983888E-09,1.32515
1124.462,-0.1436509,0.0008057292,NaN,-0.6996724,0.00242408,NaN,-0.4613889,-14.99007,NaN,-1.283633,-1.47233,-0.6998823,14.14086,NaN,NaN,0.4268824,0.8050175,0.02436307,1.081365,-2.983888E-09,1.325608
1124.477,-0.1436509,0.0008057292,NaN,-0.6996724,0.00242408,NaN,-0.4613889,-14.99007,NaN,-1.283633,-1.47233,-0.6998823,14.14086,NaN,NaN,0.4268824,0.8050175,0.02436307,1.081365,-2.983888E-09,1.325608
1124.491,-0.1447168,0.0008062008,NaN,-0.6963899,0.002427726,NaN,-0.4542631,-14.99162,NaN,-1.274335,-1.47651,-0.6885782,14.14534,NaN,NaN,0.4228002,0.8034482,0.02388536,1.087381,-1.791795E-09,1.336576
1124.509,-0.1457289,0.0008069034,NaN,-0.693269,0.002430931,NaN,-0.4475572,-14.99019,NaN,-1.265645,-1.468455,-0.6782229,14.13686,NaN,NaN,0.4191118,0.8049168,0.02341702,1.075791,-2.983888E-09,1.327071
1124.523,-0.1467045,0.0008074948,NaN,-0.6902607,0.002432797,NaN,-0.4411154,-14.99121,NaN,-1.257236,-1.472293,-0.668244,14.14095,NaN,NaN,0.4154959,0.8039036,0.02295787,1.081327,-4.772028E-09,1.332452
1124.537,-0.1467045,0.0008074948,NaN,-0.6902607,0.002432797,NaN,-0.4411154,-14.99121,NaN,-1.257236,-1.472293,-0.668244,14.14095,NaN,NaN,0.4154959,0.8039036,0.02295787,1.081327,-4.772028E-09,1.332452
1124.551,-0.1476543,0.000807584,NaN,-0.6873345,0.002435383,NaN,-0.4348848,-14.9905,NaN,-1.249038,-1.466948,-0.6584558,14.13533,NaN,NaN,0.4119509,0.8046266,0.02250772,1.073627,-4.175981E-09,1.328837
1124.567,-0.1485842,0.0008075445,NaN,-0.6844715,0.002437123,NaN,-0.4288192,-14.99106,NaN,-1.241011,-1.468718,-0.6488286,14.13723,NaN,NaN,0.4084754,0.8040701,0.0220664,1.076181,-1.195749E-09,1.330893
1124.582,-0.1494621,0.0008069815,NaN,-0.6817644,0.002439484,NaN,-0.4231215,-14.991,NaN,-1.233574,-1.467848,-0.6401299,14.13631,NaN,NaN,0.4053819,0.8041331,0.02163373,1.074924,-3.656409E-12,1.331846
1124.598,-0.1494621,0.0008069815,NaN,-0.6817644,0.002439484,NaN,-0.4231215,-14.991,NaN,-1.233574,-1.467848,-0.6401299,14.13631,NaN,NaN,0.4053819,0.8041331,0.02163373,1.074924,-3.656409E-12,1.331846
1124.612,-0.1503052,0.0008063027,NaN,-0.6791646,0.002441757,NaN,-0.4176679,-14.99055,NaN,-1.226395,-1.466347,-0.6317918,14.1347,NaN,NaN,0.4023492,0.8045815,0.02120954,1.072757,-1.791796E-09,1.328947
1124.627,-0.1511238,0.0008062336,NaN,-0.6766421,0.002444284,NaN,-0.4124092,-14.99072,NaN,-1.219405,-1.479101,-0.6236188,14.14796,NaN,NaN,0.399376,0.8044327,0.02079367,1.091148,-2.387842E-09,1.33196
1124.642,-0.1519239,0.0008061067,NaN,-0.674178,0.002444879,NaN,-0.4072969,-14.99177,NaN,-1.212566,-1.476616,-0.6155791,14.14546,NaN,NaN,0.396461,0.8034071,0.02038596,1.087548,-4.175981E-09,1.334677
1124.657,-0.1519239,0.0008061067,NaN,-0.674178,0.002444879,NaN,-0.4072969,-14.99177,NaN,-1.212566,-1.476616,-0.6155791,14.14546,NaN,NaN,0.396461,0.8034071,0.02038596,1.087548,-4.175981E-09,1.334677
1124.671,-0.1526735,0.0008056978,NaN,-0.6718652,0.002446076,NaN,-0.4025084,-14.99047,NaN,-1.206302,-1.466908,-0.6084439,14.13528,NaN,NaN,0.3939171,0.8047794,0.01998624,1.073578,-6.560167E-09,1.327717
1124.687,-0.1533897,0.0008050304,NaN,-0.6696554,0.002443768,NaN,-0.3979464,-14.9903,NaN,-1.200274,-1.47912,-0.6016512,14.14795,NaN,NaN,0.3914232,0.8049743,0.01959436,1.091193,-1.013645E-08,1.328797
1124.702,-0.1540826,0.0008041988,NaN,-0.6675184,0.002441897,NaN,-0.3935654,-14.99207,NaN,-1.194416,-1.477808,-0.5949985,14.14673,NaN,NaN,0.3889783,0.8032055,0.01921016,1.089273,-1.550086E-08,1.337469
1124.717,-0.1540826,0.0008041988,NaN,-0.6675184,0.002441897,NaN,-0.3935654,-14.99207,NaN,-1.194416,-1.477808,-0.5949985,14.14673,NaN,NaN,0.3889783,0.8032055,0.01921016,1.089273,-1.550086E-08,1.337469
1124.731,-0.1547226,0.0008039274,NaN,-0.6655402,0.002440687,NaN,-0.3895062,-14.99153,NaN,-1.189137,-1.47956,-0.5892226,14.1485,NaN,NaN,0.3868951,0.8037136,0.01883349,1.091802,-1.281865E-08,1.335796
1124.747,-0.1553281,0.0008039249,NaN,-0.6636682,0.00243925,NaN,-0.3856735,-14.99037,NaN,-1.184086,-1.473249,-0.5837638,14.14185,NaN,NaN,0.384853,0.8049068,0.01846422,1.082723,-1.371272E-08,1.328568
1124.762,-0.1559101,0.0008044527,NaN,-0.6618695,0.002441499,NaN,-0.3820164,-14.99191,NaN,-1.179193,-1.477163,-0.5784178,14.14605,NaN,NaN,0.382851,0.8033406,0.01810218,1.088355,-1.222261E-08,1.338069
1124.777,-0.1559101,0.0008044527,NaN,-0.6618695,0.002441499,NaN,-0.3820164,-14.99191,NaN,-1.179193,-1.477163,-0.5784178,14.14605,NaN,NaN,0.382851,0.8033406,0.01810218,1.088355,-1.222261E-08,1.338069
1124.791,-0.1564754,0.0008047048,NaN,-0.6601239,0.002443321,NaN,-0.3784802,-14.99034,NaN,-1.174418,-1.467405,-0.5731511,14.13579,NaN,NaN,0.3808883,0.8049736,0.01774724,1.074316,-1.520284E-08,1.326675
1124.808,-0.1569923,0.0008047482,NaN,-0.6585233,0.002442458,NaN,-0.3752057,-14.99004,NaN,-1.170193,-1.466979,-0.5687377,14.13531,NaN,NaN,0.3792778,0.8052695,0.01739926,1.0737,-1.579889E-08,1.324003
1124.822,-0.1574779,0.0008053382,NaN,-0.6570187,0.002442675,NaN,-0.37213,-14.99093,NaN,-1.166168,-1.478818,-0.5646286,14.14772,NaN,NaN,0.3776991,0.8043901,0.01705811,1.090788,-1.818307E-08,1.333325
1124.836,-0.1574779,0.0008053382,NaN,-0.6570187,0.002442675,NaN,-0.37213,-14.99093,NaN,-1.166168,-1.478818,-0.5646286,14.14772,NaN,NaN,0.3776991,0.8043901,0.01705811,1.090788,-1.818307E-08,1.333325
1124.851,-0.1579423,0.0008058337,NaN,-0.6555798,0.002444751,NaN,-0.3692133,-14.9903,NaN,-1.162278,-1.468028,-0.5606127,14.13645,NaN,NaN,0.3761515,0.8051019,0.01672364,1.075235,-1.967319E-08,1.326048
1124.867,-0.1583918,0.0008062287,NaN,-0.6541877,0.002447188,NaN,-0.3664033,-14.99024,NaN,-1.158488,-1.468868,-0.556653,14.13731,NaN,NaN,0.3746342,0.8051368,0.01639573,1.076442,-1.848109E-08,1.32559
1124.882,-0.1587947,0.0008068598,NaN,-0.6529352,0.002448661,NaN,-0.3638281,-14.99047,NaN,-1.155231,-1.479544,-0.5535215,14.14843,NaN,NaN,0.3734604,0.8048881,0.01607425,1.091844,-2.11633E-08,1.330515
1124.897,-0.1587947,0.0008068598,NaN,-0.6529352,0.002448661,NaN,-0.3638281,-14.99047,NaN,-1.155231,-1.479544,-0.5535215,14.14843,NaN,NaN,0.3734604,0.8048881,0.01607425,1.091844,-2.11633E-08,1.330515
1124.911,-0.1591677,0.0008078075,NaN,-0.651774,0.002449239,NaN,-0.3614396,-14.99108,NaN,-1.152157,-1.481608,-0.5506753,14.15062,NaN,NaN,0.37231,0.8042334,0.01575908,1.094808,-2.026923E-08,1.333679
1124.927,-0.1595209,0.0008086973,NaN,-0.6506742,0.002449692,NaN,-0.3592007,-14.98997,NaN,-1.149201,-1.472872,-0.5478995,14.14145,NaN,NaN,0.3711821,0.8054214,0.01545009,1.082229,-2.012022E-08,1.32575
1124.942,-0.1598604,0.0008088481,NaN,-0.649617,0.002449159,NaN,-0.3570588,-14.99123,NaN,-1.14633,-1.474806,-0.545156,14.14357,NaN,NaN,0.3700764,0.80414,0.01514716,1.085008,-2.056726E-08,1.330035
1124.957,-0.1598604,0.0008088481,NaN,-0.649617,0.002449159,NaN,-0.3570588,-14.99123,NaN,-1.14633,-1.474806,-0.545156,14.14357,NaN,NaN,0.3700764,0.80414,0.01514716,1.085008,-2.056726E-08,1.330035
1124.971,-0.1601546,0.0008085615,NaN,-0.6486952,0.002447542,NaN,-0.3551309,-14.98994,NaN,-1.143978,-1.469983,-0.5432158,14.13844,NaN,NaN,0.3693061,0.8054428,0.01485016,1.078065,-2.444156E-08,1.324447
1124.988,-0.16042,0.0008082832,NaN,-0.647861,0.002444005,NaN,-0.3533793,-14.99068,NaN,-1.141793,-1.477725,-0.5415412,14.14658,NaN,NaN,0.3685512,0.8046833,0.01455899,1.089243,-1.654394E-08,1.330616
1125.002,-0.1606667,0.0008086015,NaN,-0.6470844,0.002441764,NaN,-0.3517695,-14.99065,NaN,-1.139711,-1.481405,-0.5399153,14.1504,NaN,NaN,0.3678112,0.8046712,0.01427354,1.094553,-1.639493E-08,1.331553
1125.017,-0.1606667,0.0008086015,NaN,-0.6470844,0.002441764,NaN,-0.3517695,-14.99065,NaN,-1.139711,-1.481405,-0.5399153,14.1504,NaN,NaN,0.3678112,0.8046712,0.01427354,1.094553,-1.639493E-08,1.331553
1125.031,-0.1608654,0.000808947,NaN,-0.6464512,0.002440974,NaN,-0.3503937,-14.99016,NaN,-1.138154,-1.47493,-0.5390662,14.14363,NaN,NaN,0.3673995,0.8052186,0.01399367,1.085221,-1.639493E-08,1.328239
1125.047,-0.1610341,0.0008094059,NaN,-0.6459092,0.002441523,NaN,-0.3492036,-14.99096,NaN,-1.136759,-1.470719,-0.5384549,14.13931,NaN,NaN,0.3669961,0.804442,0.0137193,1.079134,-2.041824E-08,1.329892
1125.062,-0.1611837,0.0008093187,NaN,-0.6454259,0.002439211,NaN,-0.348156,-14.99045,NaN,-1.135458,-1.470462,-0.5378663,14.13899,NaN,NaN,0.3666007,0.8049361,0.01345031,1.078766,-2.11633E-08,1.328903
1125.076,-0.1611837,0.0008093187,NaN,-0.6454259,0.002439211,NaN,-0.348156,-14.99045,NaN,-1.135458,-1.470462,-0.5378663,14.13899,NaN,NaN,0.3666007,0.8049361,0.01345031,1.078766,-2.11633E-08,1.328903
1125.091,-0.1613209,0.0008088162,NaN,-0.6449808,0.002436449,NaN,-0.3471925,-14.99054,NaN,-1.134216,-1.479565,-0.5372638,14.14847,NaN,NaN,0.366213,0.8048221,0.01318659,1.0919,-1.907714E-08,1.330207
1125.106,-0.1614146,0.0008086372,NaN,-0.644666,0.002435963,NaN,-0.3464175,-14.99012,NaN,-1.13347,-1.468418,-0.5374178,14.13684,NaN,NaN,0.3661467,0.8053489,0.01292804,1.075825,-1.684197E-08,1.326068
1125.121,-0.1614812,0.0008083305,NaN,-0.6444327,0.002434769,NaN,-0.3458034,-14.99004,NaN,-1.132863,-1.478901,-0.5377986,14.14773,NaN,NaN,0.3660821,0.8054278,0.01267456,1.090952,-1.699098E-08,1.328202
1125.137,-0.1614812,0.0008083305,NaN,-0.6444327,0.002434769,NaN,-0.3458034,-14.99004,NaN,-1.132863,-1.478901,-0.5377986,14.14773,NaN,NaN,0.3660821,0.8054278,0.01267456,1.090952,-1.699098E-08,1.328202
1125.151,-0.161531,0.0008080768,NaN,-0.6442509,0.002434326,NaN,-0.3453172,-14.98999,NaN,-1.132333,-1.468153,-0.5381882,14.13653,NaN,NaN,0.3660187,0.8055685,0.01242606,1.075435,-1.408525E-08,1.323863
1125.167,-0.1615702,0.0008086764,NaN,-0.6441016,0.002435206,NaN,-0.344905,-14.98993,NaN,-1.131846,-1.479236,-0.5385473,14.14806,NaN,NaN,0.3659566,0.8056179,0.01218242,1.09143,-1.177557E-08,1.327746
1125.182,-0.1615681,0.0008090783,NaN,-0.6440775,0.002438639,NaN,-0.3446713,-14.98973,NaN,-1.131841,-1.470174,-0.5396432,14.13859,NaN,NaN,0.3662095,0.8058894,0.01194356,1.078342,-9.391385E-09,1.325364
1125.197,-0.1615681,0.0008090783,NaN,-0.6440775,0.002438639,NaN,-0.3446713,-14.98973,NaN,-1.131841,-1.470174,-0.5396432,14.13859,NaN,NaN,0.3662095,0.8058894,0.01194356,1.078342,-9.391385E-09,1.325364
1125.211,-0.1615407,0.0008089793,NaN,-0.6441303,0.002439083,NaN,-0.3445914,-14.98969,NaN,-1.131962,-1.466964,-0.5409479,14.13523,NaN,NaN,0.3664577,0.8059126,0.01170939,1.073702,-9.83842E-09,1.320465
1125.226,-0.1614978,0.0008084193,NaN,-0.6442304,0.002439099,NaN,-0.3446331,-14.99009,NaN,-1.132147,-1.466648,-0.5422432,14.13493,NaN,NaN,0.3667011,0.8054969,0.01147981,1.073241,-1.006194E-08,1.322168
1125.241,-0.1614457,0.0008087143,NaN,-0.6443591,0.002441638,NaN,-0.3447422,-14.99124,NaN,-1.132363,-1.47528,-0.5434898,14.14403,NaN,NaN,0.3669397,0.804361,0.01125473,1.0857,-9.614903E-09,1.330879
1125.256,-0.1614457,0.0008087143,NaN,-0.6443591,0.002441638,NaN,-0.3447422,-14.99124,NaN,-1.132363,-1.47528,-0.5434898,14.14403,NaN,NaN,0.3669397,0.804361,0.01125473,1.0857,-9.614903E-09,1.330879
1125.271,-0.1613527,0.0008093558,NaN,-0.6446094,0.002443384,NaN,-0.345025,-14.99076,NaN,-1.133049,-1.480895,-0.5454537,14.14981,NaN,NaN,0.3674875,0.804791,0.01103406,1.093798,-7.975775E-09,1.330494
1125.286,-0.1612352,0.0008092331,NaN,-0.6449337,0.002444294,NaN,-0.3454556,-14.98937,NaN,-1.13385,-1.474313,-0.5476089,14.14285,NaN,NaN,0.3680247,0.8062522,0.01081773,1.084326,-9.987431E-09,1.321995
1125.301,-0.1611031,0.0008091478,NaN,-0.6453022,0.002443763,NaN,-0.3460016,-14.98947,NaN,-1.134702,-1.466862,-0.5497371,14.13509,NaN,NaN,0.3685515,0.8061912,0.01060563,1.07356,-1.013644E-08,1.318706
1125.316,-0.1611031,0.0008091478,NaN,-0.6453022,0.002443763,NaN,-0.3460016,-14.98947,NaN,-1.134702,-1.466862,-0.5497371,14.13509,NaN,NaN,0.3685515,0.8061912,0.01060563,1.07356,-1.013644E-08,1.318706
1125.331,-0.1609273,0.0008097097,NaN,-0.6458007,0.002443883,NaN,-0.3467535,-14.99079,NaN,-1.13603,-1.476907,-0.5525605,14.1457,NaN,NaN,0.3693818,0.8048975,0.01039769,1.088072,-1.207359E-08,1.329227
1125.346,-0.1607256,0.0008100981,NaN,-0.6463773,0.002445468,NaN,-0.3476663,-14.99003,NaN,-1.137469,-1.466977,-0.5555481,14.1353,NaN,NaN,0.3701961,0.8057272,0.01019383,1.073753,-7.826763E-09,1.322179
1125.361,-0.160509,0.000810666,NaN,-0.6469993,0.002447575,NaN,-0.3486971,-14.99087,NaN,-1.138955,-1.478284,-0.5584853,14.14715,NaN,NaN,0.3709944,0.8049142,0.009993971,1.090077,-8.124786E-09,1.329645
1125.376,-0.160509,0.000810666,NaN,-0.6469993,0.002447575,NaN,-0.3486971,-14.99087,NaN,-1.138955,-1.478284,-0.5584853,14.14715,NaN,NaN,0.3709944,0.8049142,0.009993971,1.090077,-8.124786E-09,1.329645
1125.392,-0.1602843,0.0008114249,NaN,-0.6476465,0.002450892,NaN,-0.3497867,-14.98987,NaN,-1.140452,-1.471641,-0.5613368,14.14015,NaN,NaN,0.3717771,0.8059679,0.009798029,1.080502,-7.826763E-09,1.321387
1125.406,-0.1600203,0.0008113299,NaN,-0.648411,0.002450522,NaN,-0.3510477,-14.99018,NaN,-1.142398,-1.469994,-0.5648687,14.13846,NaN,NaN,0.3728582,0.8056607,0.009605922,1.07812,-7.379728E-09,1.324577
1125.421,-0.1597334,0.0008103497,NaN,-0.6492441,0.002447516,NaN,-0.3524463,-14.99052,NaN,-1.144437,-1.466671,-0.568556,14.13503,NaN,NaN,0.3739184,0.8053238,0.009417591,1.073323,-9.689408E-09,1.325667
1125.436,-0.1597334,0.0008103497,NaN,-0.6492441,0.002447516,NaN,-0.3524463,-14.99052,NaN,-1.144437,-1.466671,-0.568556,14.13503,NaN,NaN,0.3739184,0.8053238,0.009417591,1.073323,-9.689408E-09,1.325667
1125.451,-0.159434,0.0008102547,NaN,-0.6501159,0.002444997,NaN,-0.3539484,-14.9911,NaN,-1.146508,-1.478887,-0.5721834,14.14781,NaN,NaN,0.3749579,0.8047612,0.009232956,1.090956,-8.199292E-09,1.33146
1125.466,-0.1591283,0.0008102273,NaN,-0.6510075,0.002442708,NaN,-0.3554996,-14.99011,NaN,-1.148579,-1.468543,-0.5757137,14.13696,NaN,NaN,0.375977,0.8058378,0.009051939,1.076047,-8.05028E-09,1.322283
1125.481,-0.1587846,0.0008096402,NaN,-0.6520119,0.002440273,NaN,-0.357223,-14.99074,NaN,-1.151085,-1.471394,-0.5799105,14.13999,NaN,NaN,0.3772899,0.8052014,0.008874465,1.08016,-5.368071E-09,1.325803
1125.496,-0.1587846,0.0008096402,NaN,-0.6520119,0.002440273,NaN,-0.357223,-14.99074,NaN,-1.151085,-1.471394,-0.5799105,14.13999,NaN,NaN,0.3772899,0.8052014,0.008874465,1.08016,-5.368071E-09,1.325803
1125.51,-0.1584195,0.0008091747,NaN,-0.6530811,0.00243798,NaN,-0.3590786,-14.9905,NaN,-1.153676,-1.469784,-0.5842468,14.13828,NaN,NaN,0.3785773,0.8054317,0.008700477,1.077833,-2.238828E-09,1.323797
1125.526,-0.158043,0.0008091328,NaN,-0.6541855,0.002435484,NaN,-0.3610309,-14.99085,NaN,-1.156289,-1.480259,-0.588509,14.14922,NaN,NaN,0.3798395,0.8050619,0.0085299,1.09295,-1.52665E-10,1.328372
1125.541,-0.1576612,0.0008087938,NaN,-0.6553065,0.002434004,NaN,-0.3630259,-14.99,NaN,-1.158893,-1.469713,-0.5926608,14.13817,NaN,NaN,0.381077,0.8060186,0.008362669,1.077743,2.082509E-09,1.321619
1125.556,-0.1576612,0.0008087938,NaN,-0.6553065,0.002434004,NaN,-0.3630259,-14.99,NaN,-1.158893,-1.469713,-0.5926608,14.13817,NaN,NaN,0.381077,0.8060186,0.008362669,1.077743,2.082509E-09,1.321619
1125.57,-0.1572425,0.0008085537,NaN,-0.6565373,0.002433202,NaN,-0.3651969,-14.99156,NaN,-1.161922,-1.475796,-0.597465,14.14466,NaN,NaN,0.382604,0.8044521,0.008198709,1.086522,2.976579E-09,1.331117
1125.587,-0.1568032,0.0008088192,NaN,-0.6578301,0.002431627,NaN,-0.3674949,-14.99033,NaN,-1.165026,-1.481466,-0.6023925,14.15043,NaN,NaN,0.3841013,0.8056307,0.008037973,1.094708,2.976579E-09,1.325827
1125.601,-0.1563535,0.000807945,NaN,-0.6591551,0.00243108,NaN,-0.3698828,-14.98941,NaN,-1.168145,-1.47174,-0.6072323,14.14023,NaN,NaN,0.3855693,0.8066498,0.007880391,1.08068,-1.046734E-09,1.318997
1125.616,-0.1563535,0.000807945,NaN,-0.6591551,0.00243108,NaN,-0.3698828,-14.98941,NaN,-1.168145,-1.47174,-0.6072323,14.14023,NaN,NaN,0.3855693,0.8066498,0.007880391,1.08068,-1.046734E-09,1.318997
1125.63,-0.1558639,0.0008070409,NaN,-0.6605985,0.002430716,NaN,-0.3724834,-14.98973,NaN,-1.171694,-1.471737,-0.6127051,14.14025,NaN,NaN,0.3873223,0.8063195,0.007725889,1.080669,-2.089816E-09,1.321292
1125.646,-0.1553525,0.0008067726,NaN,-0.6621082,0.002430474,NaN,-0.3752233,-14.99114,NaN,-1.17532,-1.479344,-0.618276,14.14831,NaN,NaN,0.3890412,0.8048818,0.007574426,1.09165,-2.983886E-09,1.32853
1125.66,-0.1548301,0.0008064186,NaN,-0.6636519,0.002429833,NaN,-0.3780541,-14.99007,NaN,-1.178956,-1.481243,-0.623739,14.15019,NaN,NaN,0.3907265,0.8059112,0.007425931,1.094402,-3.579932E-09,1.324673
1125.675,-0.1548301,0.0008064186,NaN,-0.6636519,0.002429833,NaN,-0.3780541,-14.99007,NaN,-1.178956,-1.481243,-0.623739,14.15019,NaN,NaN,0.3907265,0.8059112,0.007425931,1.094402,-3.579932E-09,1.324673
1125.689,-0.1543034,0.0008060873,NaN,-0.6652096,0.002430096,NaN,-0.3809175,-14.99092,NaN,-1.182569,-1.475721,-0.6290636,14.14449,NaN,NaN,0.3923787,0.8051188,0.007280347,1.086407,-5.666094E-09,1.324923
1125.705,-0.153741,0.0008061345,NaN,-0.6668733,0.002430515,NaN,-0.3839678,-14.99089,NaN,-1.186587,-1.475149,-0.6350114,14.14388,NaN,NaN,0.3943123,0.8051416,0.007137616,1.085575,-4.32499E-09,1.324827
1125.72,-0.1531594,0.0008064611,NaN,-0.6685947,0.002430805,NaN,-0.387135,-14.99093,NaN,-1.190666,-1.475928,-0.6410497,14.14468,NaN,NaN,0.3962082,0.8050882,0.006997686,1.086693,-4.32499E-09,1.325005
1125.735,-0.1531594,0.0008064611,NaN,-0.6685947,0.002430805,NaN,-0.387135,-14.99093,NaN,-1.190666,-1.475928,-0.6410497,14.14468,NaN,NaN,0.3962082,0.8050882,0.006997686,1.086693,-4.32499E-09,1.325005
1125.75,-0.152569,0.0008067953,NaN,-0.6703438,0.002431542,NaN,-0.3903775,-14.9898,NaN,-1.194745,-1.472763,-0.6469738,14.14128,NaN,NaN,0.398067,0.8062242,0.006860502,1.082132,-3.43092E-09,1.322418
1125.765,-0.1519759,0.0008066075,NaN,-0.672102,0.00243164,NaN,-0.393642,-14.99122,NaN,-1.198791,-1.477732,-0.6527526,14.14658,NaN,NaN,0.3998893,0.8047774,0.006726007,1.089297,7.414052E-10,1.329456
1125.78,-0.1513481,0.0008060652,NaN,-0.6739624,0.002430755,NaN,-0.3971002,-14.98986,NaN,-1.203232,-1.468093,-0.659144,14.13644,NaN,NaN,0.4019897,0.8062106,0.006594143,1.075409,4.91373E-09,1.319036
1125.797,-0.1513481,0.0008060652,NaN,-0.6739624,0.002430755,NaN,-0.3971002,-14.98986,NaN,-1.203232,-1.468093,-0.659144,14.13644,NaN,NaN,0.4019897,0.8062106,0.006594143,1.075409,4.91373E-09,1.319036
1125.809,-0.1507023,0.0008067552,NaN,-0.6758772,0.002431463,NaN,-0.400669,-14.99004,NaN,-1.207728,-1.480432,-0.6656117,14.14931,NaN,NaN,0.4040492,0.8060363,0.006464874,1.093226,2.231521E-09,1.323689
1125.825,-0.1500486,0.0008076269,NaN,-0.6778167,0.002432456,NaN,-0.4043044,-14.99076,NaN,-1.212216,-1.482208,-0.6719547,14.15121,NaN,NaN,0.4060683,0.8052838,0.006338138,1.095772,-1.940804E-09,1.328436
1125.84,-0.1493931,0.0008082606,NaN,-0.6797628,0.002435044,NaN,-0.4079541,-14.98979,NaN,-1.216665,-1.477473,-0.6781437,14.14619,NaN,NaN,0.4080479,0.8063057,0.006213885,1.088946,1.337452E-09,1.321352
1125.855,-0.1493931,0.0008082606,NaN,-0.6797628,0.002435044,NaN,-0.4079541,-14.98979,NaN,-1.216665,-1.477473,-0.6781437,14.14619,NaN,NaN,0.4080479,0.8063057,0.006213885,1.088946,1.337452E-09,1.321352
1125.869,-0.1487035,0.0008082545,NaN,-0.6818086,0.002435573,NaN,-0.4118063,-14.98943,NaN,-1.2215,-1.468364,-0.6849341,14.13665,NaN,NaN,0.4103023,0.8067372,0.006092063,1.075786,-1.344757E-09,1.317007
1125.885,-0.1479968,0.000808124,NaN,-0.6839063,0.00243511,NaN,-0.4157628,-14.98997,NaN,-1.226385,-1.480016,-0.6917862,14.14885,NaN,NaN,0.4125128,0.8062016,0.005972638,1.092622,2.231521E-09,1.324513
1125.9,-0.1472829,0.0008085914,NaN,-0.6860265,0.002434088,NaN,-0.4197769,-14.99038,NaN,-1.231257,-1.48236,-0.698504,14.15132,NaN,NaN,0.4146801,0.8057513,0.005855554,1.095995,5.509777E-09,1.32572
1125.915,-0.1472829,0.0008085914,NaN,-0.6860265,0.002434088,NaN,-0.4197769,-14.99038,NaN,-1.231257,-1.48236,-0.698504,14.15132,NaN,NaN,0.4146801,0.8057513,0.005855554,1.095995,5.509777E-09,1.32572
1125.931,-0.146532,0.0008088591,NaN,-0.6882554,0.002433863,NaN,-0.4240298,-14.98941,NaN,-1.236521,-1.476241,-0.7058055,14.14486,NaN,NaN,0.4171186,0.8067822,0.005740757,1.08717,4.615707E-09,1.319194
1125.945,-0.1457623,0.0008098937,NaN,-0.6905409,0.002436354,NaN,-0.4283953,-14.98929,NaN,-1.241838,-1.471845,-0.7131459,14.14024,NaN,NaN,0.4195095,0.8069249,0.005628221,1.08081,5.211753E-09,1.319019
1125.96,-0.144985,0.0008101533,NaN,-0.6928508,0.002437682,NaN,-0.4328167,-14.98994,NaN,-1.24714,-1.469939,-0.7203361,14.1383,NaN,NaN,0.4218537,0.8062796,0.00551789,1.078046,7.297916E-09,1.319845
1125.975,-0.144985,0.0008101533,NaN,-0.6928508,0.002437682,NaN,-0.4328167,-14.98994,NaN,-1.24714,-1.469939,-0.7203361,14.1383,NaN,NaN,0.4218537,0.8062796,0.00551789,1.078046,7.297916E-09,1.319845
1125.99,-0.1442066,0.0008109053,NaN,-0.6951652,0.002439511,NaN,-0.4372392,-14.98958,NaN,-1.252393,-1.480116,-0.7273525,14.14887,NaN,NaN,0.4241518,0.8066189,0.005409721,1.092744,8.788032E-09,1.3214
1126.005,-0.143395,0.0008112206,NaN,-0.6975766,0.002442018,NaN,-0.4418824,-14.98928,NaN,-1.258014,-1.468741,-0.7349448,14.13696,NaN,NaN,0.4267187,0.8070312,0.005303665,1.076305,5.8078E-09,1.317807
1126.02,-0.143395,0.0008112206,NaN,-0.6975766,0.002442018,NaN,-0.4418824,-14.98928,NaN,-1.258014,-1.468741,-0.7349448,14.13696,NaN,NaN,0.4267187,0.8070312,0.005303665,1.076305,5.8078E-09,1.317807
1126.034,-0.1425673,0.0008110665,NaN,-0.7000365,0.002442031,NaN,-0.4466166,-14.98938,NaN,-1.263676,-1.479075,-0.7425689,14.14776,NaN,NaN,0.4292354,0.8069233,0.005199695,1.091243,8.490009E-09,1.320673
1126.05,-0.1417338,0.0008112456,NaN,-0.7025149,0.002444077,NaN,-0.4513902,-14.98918,NaN,-1.269314,-1.469291,-0.7500396,14.13751,NaN,NaN,0.4317029,0.807207,0.005097767,1.077094,8.490009E-09,1.317316
1126.065,-0.1409005,0.0008112394,NaN,-0.7049937,0.002444293,NaN,-0.4561537,-14.98959,NaN,-1.274896,-1.470458,-0.7573333,14.13876,NaN,NaN,0.434122,0.8067881,0.004997835,1.078776,6.105823E-09,1.31681
1126.08,-0.1409005,0.0008112394,NaN,-0.7049937,0.002444293,NaN,-0.4561537,-14.98959,NaN,-1.274896,-1.470458,-0.7573333,14.13876,NaN,NaN,0.434122,0.8067881,0.004997835,1.078776,6.105823E-09,1.31681
1126.094,-0.140035,0.0008108215,NaN,-0.707566,0.002442536,NaN,-0.4611483,-14.98912,NaN,-1.280838,-1.467194,-0.7651926,14.1353,NaN,NaN,0.4368074,0.8072478,0.004899852,1.074057,5.509777E-09,1.313576
1126.109,-0.1391542,0.0008099114,NaN,-0.710184,0.002440958,NaN,-0.4662255,-14.99002,NaN,-1.286816,-1.471387,-0.7730712,14.13978,NaN,NaN,0.4394404,0.8063511,0.0048038,1.080121,7.297916E-09,1.319523
1126.124,-0.1382684,0.0008098549,NaN,-0.712818,0.00244212,NaN,-0.4713317,-14.98931,NaN,-1.292766,-1.469821,-0.7807904,14.13807,NaN,NaN,0.4420218,0.8070512,0.004709631,1.077858,4.317684E-09,1.314897
1126.139,-0.1382684,0.0008098549,NaN,-0.712818,0.00244212,NaN,-0.4713317,-14.98931,NaN,-1.292766,-1.469821,-0.7807904,14.13807,NaN,NaN,0.4420218,0.8070512,0.004709631,1.077858,4.317684E-09,1.314897
1126.154,-0.1373472,0.0008095832,NaN,-0.7155547,0.002441828,NaN,-0.4767028,-14.99064,NaN,-1.299084,-1.47819,-0.7890579,14.14693,NaN,NaN,0.4448664,0.805715,0.004617303,1.089955,2.529545E-09,1.325311
1126.169,-0.1364094,0.0008100848,NaN,-0.7183416,0.002440988,NaN,-0.4821614,-14.99013,NaN,-1.305443,-1.482624,-0.7973253,14.15151,NaN,NaN,0.4476555,0.8061722,0.004526791,1.096365,1.337452E-09,1.323022
1126.185,-0.135466,0.0008101238,NaN,-0.7211468,0.002442566,NaN,-0.4876451,-14.98878,NaN,-1.311772,-1.469487,-0.8054214,14.13771,NaN,NaN,0.4503899,0.8076863,0.004438051,1.077414,7.414053E-10,1.312542
1126.199,-0.135466,0.0008101238,NaN,-0.7211468,0.002442566,NaN,-0.4876451,-14.98878,NaN,-1.311772,-1.469487,-0.8054214,14.13771,NaN,NaN,0.4503899,0.8076863,0.004438051,1.077414,7.414053E-10,1.312542
1126.214,-0.1345235,0.0008093411,NaN,-0.7239505,0.00244463,NaN,-0.4931041,-14.98937,NaN,-1.318037,-1.467335,-0.8133274,14.1355,NaN,NaN,0.4530707,0.8070956,0.004351051,1.074293,-4.506876E-10,1.317289
1126.229,-0.1335494,0.0008089625,NaN,-0.7268453,0.002445086,NaN,-0.4988154,-14.98937,NaN,-1.324647,-1.479988,-0.8217719,14.14871,NaN,NaN,0.4560127,0.80712,0.004265752,1.092583,3.721638E-09,1.319387
1126.244,-0.1325611,0.0008093889,NaN,-0.7297826,0.00244764,NaN,-0.5045933,-14.99001,NaN,-1.331287,-1.482019,-0.8302101,14.15087,NaN,NaN,0.4588973,0.806443,0.004182132,1.095502,6.70187E-09,1.322017
1126.259,-0.1325611,0.0008093889,NaN,-0.7297826,0.00244764,NaN,-0.5045933,-14.99001,NaN,-1.331287,-1.482019,-0.8302101,14.15087,NaN,NaN,0.4588973,0.806443,0.004182132,1.095502,6.70187E-09,1.322017
1126.273,-0.1315689,0.0008092103,NaN,-0.7327327,0.002450488,NaN,-0.5103799,-14.98873,NaN,-1.337891,-1.475161,-0.8384765,14.1436,NaN,NaN,0.4617253,0.8077968,0.00410015,1.085608,2.529545E-09,1.313436
