JMolnar6/NonAnthroHands_User_Study/HandsLoggerWithURDF/tempdata/PID 0 (test)/files/Reachy_JointMotion_gesture_12_57.csv
Time,r_shoulder,r_shoulder_x,r_upper_arm,r_forearm,r_wrist,r_wrist2hand,
1063.918,-0.651252,0.0008931786,NaN,-0.642764,0.002076115,NaN,0.1186292,-14.91838,NaN,-0.6480243,-1.467475,0.08170341,14.12562,NaN,NaN,0.1332994,0.810722,-1.86343E-06,1.066352,-1.391906E-09,1.340852
1063.931,-0.6471384,0.0008939176,NaN,-0.6392155,0.002076167,NaN,0.1177028,-14.9176,NaN,-0.6465173,-1.465196,0.08342133,14.12313,NaN,NaN,0.1334026,0.8114678,-1.856277E-06,1.063032,-4.372138E-09,1.335903
1063.948,-0.6429393,0.0008945767,NaN,-0.6355867,0.002075481,NaN,0.1167034,-14.9181,NaN,-0.6450006,-1.465544,0.08534551,14.12356,NaN,NaN,0.133504,0.8109721,-1.853893E-06,1.06355,-4.372138E-09,1.338086
1063.962,-0.6387113,0.0008951871,NaN,-0.6319268,0.002073898,NaN,0.1157804,-14.91765,NaN,-0.643474,-1.47906,0.08728345,14.13773,NaN,NaN,0.1336034,0.8116078,-1.852701E-06,1.083164,-3.776092E-09,1.339852
1063.977,-0.6387113,0.0008951871,NaN,-0.6319268,0.002073898,NaN,0.1157804,-14.91765,NaN,-0.643474,-1.47906,0.08728345,14.13773,NaN,NaN,0.1336034,0.8116078,-1.852701E-06,1.083164,-3.776092E-09,1.339852
1063.991,-0.6347145,0.00089637,NaN,-0.6284646,0.002073723,NaN,0.1155083,-14.91751,NaN,-0.6421989,-1.469476,0.088498,14.12761,NaN,NaN,0.1339824,0.8117219,-1.850317E-06,1.069239,-3.776092E-09,1.335068
1064.006,-0.6308717,0.000897511,NaN,-0.6251344,0.00207206,NaN,0.1154282,-14.9189,NaN,-0.6409494,-1.4784,0.08940957,14.13716,NaN,NaN,0.1343539,0.8104231,-1.841972E-06,1.082225,-4.372138E-09,1.346117
1064.021,-0.6271375,0.0008973559,NaN,-0.6218969,0.002070923,NaN,0.115372,-14.91772,NaN,-0.6397304,-1.466401,0.09021186,14.12443,NaN,NaN,0.1347179,0.8115758,-1.828859E-06,1.064807,-7.35237E-09,1.335654
1064.036,-0.6271375,0.0008973559,NaN,-0.6218969,0.002070923,NaN,0.115372,-14.91772,NaN,-0.6397304,-1.466401,0.09021186,14.12443,NaN,NaN,0.1347179,0.8115758,-1.828859E-06,1.064807,-7.35237E-09,1.335654
1064.051,-0.623485,0.0008975366,NaN,-0.6187286,0.002068239,NaN,0.1152955,-14.9186,NaN,-0.6385389,-1.475878,0.09097596,14.13451,NaN,NaN,0.1350749,0.8108031,-1.820514E-06,1.078585,-4.372138E-09,1.342431
1064.067,-0.6201241,0.0008978696,NaN,-0.6158154,0.002069354,NaN,0.1157444,-14.91749,NaN,-0.6376249,-1.46653,0.09105197,14.12455,NaN,NaN,0.1357064,0.8118738,-1.81217E-06,1.065004,3.962333E-10,1.336209
1064.082,-0.6169508,0.0008981559,NaN,-0.6130666,0.002070785,NaN,0.1162802,-14.91747,NaN,-0.636752,-1.466323,0.09087934,14.12432,NaN,NaN,0.1363253,0.8118842,-1.794288E-06,1.064698,9.922797E-10,1.33568
1064.097,-0.6169508,0.0008981559,NaN,-0.6130666,0.002070785,NaN,0.1162802,-14.91747,NaN,-0.636752,-1.466323,0.09087934,14.12432,NaN,NaN,0.1363253,0.8118842,-1.794288E-06,1.064698,9.922797E-10,1.33568
1064.113,-0.6139034,0.0008976986,NaN,-0.610428,0.002069704,NaN,0.116763,-14.91798,NaN,-0.6359173,-1.470413,0.09064768,14.12869,NaN,NaN,0.136932,0.8114238,-1.776407E-06,1.070648,-2.583999E-09,1.33794
1064.126,-0.610945,0.0008970713,NaN,-0.607867,0.002067354,NaN,0.1171714,-14.91802,NaN,-0.6351125,-1.471678,0.09041973,14.13002,NaN,NaN,0.1375269,0.8113912,-1.760314E-06,1.072487,-7.958595E-10,1.33923
1064.143,-0.6082784,0.0008967778,NaN,-0.6055636,0.002067379,NaN,0.1180663,-14.91882,NaN,-0.6345841,-1.471768,0.08953904,14.1302,NaN,NaN,0.1383916,0.8105847,-1.745413E-06,1.072624,1.588326E-09,1.344058
1064.156,-0.6082784,0.0008967778,NaN,-0.6055636,0.002067379,NaN,0.1180663,-14.91882,NaN,-0.6345841,-1.471768,0.08953904,14.1302,NaN,NaN,0.1383916,0.8105847,-1.745413E-06,1.072624,1.588326E-09,1.344058
1064.171,-0.6057978,0.0008966117,NaN,-0.6034247,0.002068576,NaN,0.1190208,-14.91906,NaN,-0.6340931,-1.476763,0.0884378,14.13547,NaN,NaN,0.1392392,0.8103808,-1.726339E-06,1.079872,4.568558E-09,1.346464
1064.186,-0.6034397,0.0008962743,NaN,-0.6013941,0.002069659,NaN,0.1199018,-14.91728,NaN,-0.6336356,-1.469407,0.08730119,14.12756,NaN,NaN,0.1400702,0.8121287,-1.703093E-06,1.06919,5.164605E-09,1.335128
1064.202,-0.6011659,0.0008966317,NaN,-0.5994378,0.002070566,NaN,0.1206912,-14.91897,NaN,-0.6332029,-1.476892,0.08618946,14.13564,NaN,NaN,0.1408848,0.8105268,-1.676867E-06,1.080094,2.780419E-09,1.345888
1064.217,-0.6011659,0.0008966317,NaN,-0.5994378,0.002070566,NaN,0.1206912,-14.91897,NaN,-0.6332029,-1.476892,0.08618946,14.13564,NaN,NaN,0.1408848,0.8105268,-1.676867E-06,1.080094,2.780419E-09,1.345888
1064.231,-0.5991774,0.0008970171,NaN,-0.5977347,0.002071765,NaN,0.1219498,-14.91784,NaN,-0.6330412,-1.466522,0.0844463,14.12462,NaN,NaN,0.141965,0.8116265,-1.656602E-06,1.065041,5.760651E-09,1.337247
1064.247,-0.5973693,0.0008966096,NaN,-0.5961921,0.002070935,NaN,0.1232549,-14.91863,NaN,-0.6329109,-1.471634,0.08250046,14.1301,NaN,NaN,0.1430239,0.810908,-1.629184E-06,1.072482,1.112507E-08,1.341274
1064.262,-0.595678,0.0008959164,NaN,-0.5947534,0.00206903,NaN,0.1244739,-14.91799,NaN,-0.6328081,-1.468797,0.08053623,14.12705,NaN,NaN,0.144062,0.8115226,-1.605342E-06,1.068358,8.144837E-09,1.338271
1064.277,-0.595678,0.0008959164,NaN,-0.5947534,0.00206903,NaN,0.1244739,-14.91799,NaN,-0.6328081,-1.468797,0.08053623,14.12705,NaN,NaN,0.144062,0.8115226,-1.605342E-06,1.068358,8.144837E-09,1.338271
1064.291,-0.5942887,0.0008952861,NaN,-0.5935838,0.002065906,NaN,0.126131,-14.91921,NaN,-0.6329789,-1.478441,0.07794611,14.13735,NaN,NaN,0.1453613,0.8104064,-1.580904E-06,1.082386,6.356697E-09,1.34559
1064.307,-0.5930882,0.0008947841,NaN,-0.5925828,0.002064117,NaN,0.1278018,-14.91809,NaN,-0.633181,-1.466684,0.07517188,14.12488,NaN,NaN,0.146635,0.8115177,-1.550506E-06,1.065327,5.760651E-09,1.338012
1064.322,-0.5920075,0.0008941326,NaN,-0.5916889,0.002061112,NaN,0.1293576,-14.91857,NaN,-0.6334088,-1.480025,0.07240127,14.13899,NaN,NaN,0.1478836,0.8112012,-1.524279E-06,1.084713,5.164605E-09,1.341356
1064.338,-0.5920075,0.0008941326,NaN,-0.5916889,0.002061112,NaN,0.1293576,-14.91857,NaN,-0.6334088,-1.480025,0.07240127,14.13899,NaN,NaN,0.1478836,0.8112012,-1.524279E-06,1.084713,5.164605E-09,1.341356
1064.351,-0.5910044,0.0008933273,NaN,-0.5908642,0.002058116,NaN,0.1307857,-14.91886,NaN,-0.6336527,-1.474338,0.06969387,14.13302,NaN,NaN,0.1491078,0.8109083,-1.495073E-06,1.076452,5.760651E-09,1.343786
1064.367,-0.5902766,0.0008938312,NaN,-0.5902853,0.002058826,NaN,0.1326442,-14.91792,NaN,-0.6341594,-1.470498,0.06639612,14.12888,NaN,NaN,0.1505895,0.8118218,-1.471231E-06,1.070868,6.952744E-09,1.33792
1064.382,-0.5897196,0.0008949306,NaN,-0.5898591,0.002062635,NaN,0.1345224,-14.91815,NaN,-0.6346869,-1.466152,0.06292811,14.12431,NaN,NaN,0.152042,0.8115528,-1.438449E-06,1.064551,3.376466E-09,1.340227
1064.397,-0.5897196,0.0008949306,NaN,-0.5898591,0.002062635,NaN,0.1345224,-14.91815,NaN,-0.6346869,-1.466152,0.06292811,14.12431,NaN,NaN,0.152042,0.8115528,-1.438449E-06,1.064551,3.376466E-09,1.340227
1064.411,-0.5892692,0.000894827,NaN,-0.5895284,0.002063579,NaN,0.1362897,-14.91944,NaN,-0.6352312,-1.47728,0.05947309,14.13618,NaN,NaN,0.153466,0.8104091,-1.406262E-06,1.080737,3.962335E-10,1.347914
1064.427,-0.5888861,0.0008945167,NaN,-0.5892578,0.002065062,NaN,0.1379294,-14.91949,NaN,-0.6357843,-1.471111,0.05609068,14.12969,NaN,NaN,0.1548621,0.8103569,-1.371096E-06,1.071784,-2.583999E-09,1.3463
1064.442,-0.5887691,0.0008944249,NaN,-0.5892249,0.002067048,NaN,0.1399903,-14.91866,NaN,-0.6365946,-1.466034,0.05213176,14.12426,NaN,NaN,0.1565124,0.8111458,-1.341293E-06,1.064407,-4.372138E-09,1.340939
1064.457,-0.5887691,0.0008944249,NaN,-0.5892249,0.002067048,NaN,0.1399903,-14.91866,NaN,-0.6365946,-1.466034,0.05213176,14.12426,NaN,NaN,0.1565124,0.8111458,-1.341293E-06,1.064407,-4.372138E-09,1.340939
1064.471,-0.5888149,0.000895049,NaN,-0.5893376,0.002068247,NaN,0.1420647,-14.91964,NaN,-0.6374199,-1.478435,0.04801316,14.13743,NaN,NaN,0.1581302,0.8103235,-1.306126E-06,1.08243,-4.372138E-09,1.349193
1064.487,-0.5889602,0.0008957574,NaN,-0.5895394,0.002067823,NaN,0.1440213,-14.92002,NaN,-0.6382566,-1.478817,0.04391864,14.13786,NaN,NaN,0.1597163,0.8099392,-1.270364E-06,1.082982,-4.968184E-09,1.348929
1064.502,-0.5891659,0.0008951828,NaN,-0.5897951,0.002066911,NaN,0.145842,-14.91867,NaN,-0.6390971,-1.468307,0.03990875,14.12669,NaN,NaN,0.1612713,0.8112847,-1.233409E-06,1.067739,-6.160277E-09,1.339279
1064.517,-0.5891659,0.0008951828,NaN,-0.5897951,0.002066911,NaN,0.145842,-14.91867,NaN,-0.6390971,-1.468307,0.03990875,14.12669,NaN,NaN,0.1612713,0.8112847,-1.233409E-06,1.067739,-6.160277E-09,1.339279
1064.533,-0.5896311,0.0008949473,NaN,-0.5902826,0.002066917,NaN,0.1480686,-14.91879,NaN,-0.6401911,-1.465578,0.03533881,14.12383,NaN,NaN,0.1630774,0.8111392,-1.20003E-06,1.063778,-3.180045E-09,1.338373
1064.547,-0.590253,0.0008947794,NaN,-0.5909101,0.00206478,NaN,0.1503008,-14.91998,NaN,-0.6412951,-1.478565,0.0306198,14.13764,NaN,NaN,0.1648479,0.810124,-1.162479E-06,1.082657,1.588327E-09,1.34565
1064.562,-0.5909677,0.0008939675,NaN,-0.5916204,0.002064533,NaN,0.1524055,-14.91846,NaN,-0.6424063,-1.467138,0.02593731,14.12549,NaN,NaN,0.1665837,0.8116274,-1.127313E-06,1.066078,5.164606E-09,1.337822
1064.577,-0.5909677,0.0008939675,NaN,-0.5916204,0.002064533,NaN,0.1524055,-14.91846,NaN,-0.6424063,-1.467138,0.02593731,14.12549,NaN,NaN,0.1665837,0.8116274,-1.127313E-06,1.066078,5.164606E-09,1.337822
1064.594,-0.5919593,0.0008933705,NaN,-0.5925779,0.002062629,NaN,0.1548844,-14.91842,NaN,-0.6437744,-1.466433,0.02069804,14.12473,NaN,NaN,0.1685671,0.8116544,-1.090954E-06,1.065052,6.356698E-09,1.336714
1064.607,-0.5931152,0.0008933202,NaN,-0.5936819,0.002063794,NaN,0.1573372,-14.91902,NaN,-0.6451541,-1.465485,0.01532532,14.1238,NaN,NaN,0.1705115,0.8110334,-1.052807E-06,1.063683,9.33693E-09,1.341003
1064.623,-0.5943656,0.0008936875,NaN,-0.59487,0.002064478,NaN,0.159635,-14.91942,NaN,-0.6465405,-1.47929,0.01000881,14.13837,NaN,NaN,0.1724178,0.8108155,-1.012872E-06,1.08373,9.932977E-09,1.346934
1064.637,-0.5943656,0.0008936875,NaN,-0.59487,0.002064478,NaN,0.159635,-14.91942,NaN,-0.6465405,-1.47929,0.01000881,14.13837,NaN,NaN,0.1724178,0.8108155,-1.012872E-06,1.08373,9.932977E-09,1.346934
1064.652,-0.5956678,0.0008937768,NaN,-0.5961038,0.002065738,NaN,0.161766,-14.91899,NaN,-0.6479251,-1.46599,0.004808684,14.12433,NaN,NaN,0.1742867,0.8112485,-9.771088E-07,1.064422,1.470135E-08,1.339822
1064.667,-0.5972196,0.0008936928,NaN,-0.5975597,0.002066761,NaN,0.1642628,-14.91913,NaN,-0.6495585,-1.464978,-0.0009134533,14.12327,NaN,NaN,0.1764006,0.8110934,-9.389618E-07,1.06295,1.350926E-08,1.340125
1064.683,-0.5989155,0.0008934865,NaN,-0.5991434,0.002066551,NaN,0.1667421,-14.92016,NaN,-0.6511952,-1.471009,-0.0067585,14.12974,NaN,NaN,0.1784729,0.810145,-8.966425E-07,1.071725,1.708553E-08,1.346058
1064.697,-0.5989155,0.0008934865,NaN,-0.5991434,0.002066551,NaN,0.1667421,-14.92016,NaN,-0.6511952,-1.471009,-0.0067585,14.12974,NaN,NaN,0.1784729,0.810145,-8.966425E-07,1.071725,1.708553E-08,1.346058
1064.714,-0.600691,0.0008934704,NaN,-0.6007974,0.002065651,NaN,0.1690735,-14.91898,NaN,-0.6528317,-1.465184,-0.0125413,14.12349,NaN,NaN,0.1805047,0.8112705,-8.525351E-07,1.063263,1.350926E-08,1.337849
1064.727,-0.6025067,0.0008934822,NaN,-0.6024863,0.002067934,NaN,0.1712418,-14.91885,NaN,-0.6544607,-1.465978,-0.0182021,14.1243,NaN,NaN,0.1824967,0.8114121,-8.13196E-07,1.064411,1.648949E-08,1.340036
1064.743,-0.604563,0.0008940392,NaN,-0.6043884,0.002070157,NaN,0.1737672,-14.91973,NaN,-0.6563342,-1.479177,-0.02437305,14.13831,NaN,NaN,0.1847311,0.8106934,-7.756451E-07,1.083597,2.006577E-08,1.347299
1064.757,-0.604563,0.0008940392,NaN,-0.6043884,0.002070157,NaN,0.1737672,-14.91973,NaN,-0.6563342,-1.479177,-0.02437305,14.13831,NaN,NaN,0.1847311,0.8106934,-7.756451E-07,1.083597,2.006577E-08,1.347299
1064.772,-0.6067551,0.0008939394,NaN,-0.6064103,0.002071656,NaN,0.1762732,-14.91963,NaN,-0.6582066,-1.468096,-0.030661,14.12664,NaN,NaN,0.1869217,0.8108047,-7.339219E-07,1.067515,2.185391E-08,1.341892
1064.787,-0.609019,0.0008943629,NaN,-0.608495,0.002071084,NaN,0.1786276,-14.91952,NaN,-0.6600747,-1.480507,-0.03687918,14.13968,NaN,NaN,0.1890694,0.8110347,-6.910065E-07,1.085527,2.006577E-08,1.34401
1064.802,-0.6113161,0.0008945548,NaN,-0.610608,0.002072611,NaN,0.1808148,-14.92028,NaN,-0.6619315,-1.470702,-0.04296707,14.12942,NaN,NaN,0.191175,0.8102977,-6.522635E-07,1.071284,2.244995E-08,1.348506
1064.818,-0.6113161,0.0008945548,NaN,-0.610608,0.002072611,NaN,0.1808148,-14.92028,NaN,-0.6619315,-1.470702,-0.04296707,14.12942,NaN,NaN,0.191175,0.8102977,-6.522635E-07,1.071284,2.244995E-08,1.348506
1064.832,-0.613848,0.0008942572,NaN,-0.6129283,0.002072497,NaN,0.1833447,-14.91844,NaN,-0.6640301,-1.466053,-0.04955059,14.12433,NaN,NaN,0.1935209,0.8120892,-6.182889E-07,1.064517,2.602623E-08,1.335202
1064.848,-0.6165094,0.0008949636,NaN,-0.615362,0.002075253,NaN,0.1858504,-14.91975,NaN,-0.6661242,-1.477215,-0.05624393,14.13625,NaN,NaN,0.1958208,0.8109217,-5.777577E-07,1.080761,2.602623E-08,1.347105
1064.863,-0.6192365,0.0008952012,NaN,-0.6178526,0.002074692,NaN,0.1881998,-14.91882,NaN,-0.6682106,-1.46662,-0.06285939,14.12501,NaN,NaN,0.1980757,0.811841,-5.342463E-07,1.06538,2.483414E-08,1.340492
1064.878,-0.6192365,0.0008952012,NaN,-0.6178526,0.002074692,NaN,0.1881998,-14.91882,NaN,-0.6682106,-1.46662,-0.06285939,14.12501,NaN,NaN,0.1980757,0.811841,-5.342463E-07,1.06538,2.483414E-08,1.340492
1064.892,-0.6222165,0.0008947633,NaN,-0.6205656,0.002072953,NaN,0.1908607,-14.91828,NaN,-0.6705427,-1.467505,-0.06996904,14.12589,NaN,NaN,0.2005678,0.8123841,-4.937152E-07,1.066664,2.602623E-08,1.336895
1064.909,-0.6253341,0.0008946708,NaN,-0.6233987,0.00207082,NaN,0.193469,-14.91896,NaN,-0.6728721,-1.465749,-0.07717635,14.12412,NaN,NaN,0.2030112,0.8116915,-4.490117E-07,1.064128,2.900646E-08,1.337466
1064.923,-0.6285197,0.0008951004,NaN,-0.6262901,0.002070812,NaN,0.195897,-14.91975,NaN,-0.6751939,-1.466686,-0.08428919,14.1252,NaN,NaN,0.2054067,0.8109224,-4.037121E-07,1.065507,2.960251E-08,1.342578
1064.937,-0.6285197,0.0008951004,NaN,-0.6262901,0.002070812,NaN,0.195897,-14.91975,NaN,-0.6751939,-1.466686,-0.08428919,14.1252,NaN,NaN,0.2054067,0.8109224,-4.037121E-07,1.065507,2.960251E-08,1.342578
1064.952,-0.6317316,0.0008954819,NaN,-0.6292031,0.002069085,NaN,0.1981352,-14.91891,NaN,-0.6775002,-1.464958,-0.09124711,14.12329,NaN,NaN,0.2077553,0.8117392,-3.590087E-07,1.062991,3.07946E-08,1.336813
1064.967,-0.6351718,0.0008956119,NaN,-0.6323155,0.002069,NaN,0.2006796,-14.91898,NaN,-0.6800449,-1.464574,-0.09866621,14.1229,NaN,NaN,0.2103393,0.8116586,-3.190735E-07,1.062437,3.198669E-08,1.337261
1064.982,-0.638732,0.0008957371,NaN,-0.6355315,0.002068155,NaN,0.2031853,-14.92046,NaN,-0.6825798,-1.476123,-0.1061767,14.13525,NaN,NaN,0.2128727,0.810353,-2.707938E-07,1.079249,3.139064E-08,1.349542
1064.997,-0.638732,0.0008957371,NaN,-0.6355315,0.002068155,NaN,0.2031853,-14.92046,NaN,-0.6825798,-1.476123,-0.1061767,14.13525,NaN,NaN,0.2128727,0.810353,-2.707938E-07,1.079249,3.139064E-08,1.349542
1065.012,-0.6423473,0.0008949311,NaN,-0.6387942,0.002065983,NaN,0.2055225,-14.9196,NaN,-0.6851012,-1.465317,-0.1135905,14.12381,NaN,NaN,0.2153566,0.8111857,-2.260903E-07,1.063572,2.841041E-08,1.342578
1065.027,-0.6459791,0.0008941314,NaN,-0.6420693,0.002063466,NaN,0.2076779,-14.91951,NaN,-0.687602,-1.469578,-0.1208474,14.12829,NaN,NaN,0.2177917,0.8113303,-1.801947E-07,1.069766,2.841041E-08,1.342195
1065.042,-0.6498327,0.0008933531,NaN,-0.6455368,0.002064096,NaN,0.2101322,-14.92033,NaN,-0.6903378,-1.467202,-0.1285551,14.12589,NaN,NaN,0.2204606,0.8104932,-1.432398E-07,1.06633,2.721832E-08,1.346661
1065.057,-0.6498327,0.0008933531,NaN,-0.6455368,0.002064096,NaN,0.2101322,-14.92033,NaN,-0.6903378,-1.467202,-0.1285551,14.12589,NaN,NaN,0.2204606,0.8104932,-1.432398E-07,1.06633,2.721832E-08,1.346661
1065.073,-0.6537998,0.0008928236,NaN,-0.6491014,0.002063698,NaN,0.2125499,-14.92017,NaN,-0.6930604,-1.479277,-0.1363518,14.13857,NaN,NaN,0.2230772,0.810787,-1.015166E-07,1.083852,2.781436E-08,1.34783
1065.087,-0.6578159,0.000893041,NaN,-0.6527068,0.002063508,NaN,0.2147996,-14.92114,NaN,-0.6957661,-1.478805,-0.1440476,14.13816,NaN,NaN,0.2256427,0.8098139,-5.681311E-08,1.083167,2.841041E-08,1.353354
1065.103,-0.6618429,0.0008936537,NaN,-0.6563194,0.002064313,NaN,0.2168674,-14.91933,NaN,-0.6984484,-1.472468,-0.1515812,14.13133,NaN,NaN,0.2281578,0.8116042,-1.210962E-08,1.073977,3.139064E-08,1.3415
1065.117,-0.6618429,0.0008936537,NaN,-0.6563194,0.002064313,NaN,0.2168674,-14.91933,NaN,-0.6984484,-1.472468,-0.1515812,14.13133,NaN,NaN,0.2281578,0.8116042,-1.210962E-08,1.073977,3.139064E-08,1.3415
1065.131,-0.6660879,0.0008932047,NaN,-0.6601197,0.002066144,NaN,0.2192214,-14.92105,NaN,-0.7013636,-1.476926,-0.1595526,14.1362,NaN,NaN,0.2309051,0.8099126,2.842154E-08,1.080465,2.781436E-08,1.352407
1065.147,-0.6704416,0.0008930915,NaN,-0.6640122,0.002066558,NaN,0.2215381,-14.91936,NaN,-0.7042632,-1.467671,-0.1676089,14.12632,NaN,NaN,0.2335986,0.8115699,7.133688E-08,1.067038,2.483413E-08,1.342056
1065.162,-0.6748392,0.0008925398,NaN,-0.6679406,0.002064902,NaN,0.2236861,-14.91936,NaN,-0.7071435,-1.465694,-0.1755592,14.12423,NaN,NaN,0.2362395,0.8115427,1.154443E-07,1.064163,2.304599E-08,1.341004
1065.177,-0.6748392,0.0008925398,NaN,-0.6679406,0.002064902,NaN,0.2236861,-14.91936,NaN,-0.7071435,-1.465694,-0.1755592,14.12423,NaN,NaN,0.2362395,0.8115427,1.154443E-07,1.064163,2.304599E-08,1.341004
1065.191,-0.6794735,0.0008919317,NaN,-0.6720716,0.00206263,NaN,0.22609,-14.92071,NaN,-0.7102606,-1.476979,-0.1839478,14.13627,NaN,NaN,0.2391099,0.8103433,1.613399E-07,1.08058,2.304599E-08,1.352138
1065.207,-0.6842247,0.0008907288,NaN,-0.6763015,0.002059387,NaN,0.2284311,-14.91993,NaN,-0.7133647,-1.466614,-0.192411,14.1253,NaN,NaN,0.2419242,0.8111021,2.096197E-07,1.065536,2.304599E-08,1.345186
1065.222,-0.6890225,0.0008901167,NaN,-0.680569,0.002057529,NaN,0.2305829,-14.9198,NaN,-0.7164503,-1.472949,-0.2007539,14.13195,NaN,NaN,0.2446834,0.8112952,2.578994E-07,1.074736,2.304599E-08,1.344814
1065.237,-0.6890225,0.0008901167,NaN,-0.680569,0.002057529,NaN,0.2305829,-14.9198,NaN,-0.7164503,-1.472949,-0.2007539,14.13195,NaN,NaN,0.2446834,0.8112952,2.578994E-07,1.074736,2.304599E-08,1.344814
1065.251,-0.6938258,0.0008904636,NaN,-0.6848385,0.00205587,NaN,0.2325378,-14.9203,NaN,-0.7195099,-1.466419,-0.2089147,14.12513,NaN,NaN,0.2473886,0.8107595,3.011128E-07,1.065261,2.06618E-08,1.345017
1065.267,-0.6988431,0.0008907313,NaN,-0.6892895,0.002054734,NaN,0.2347467,-14.91984,NaN,-0.7227997,-1.47873,-0.217482,14.13803,NaN,NaN,0.250322,0.8113573,3.395578E-07,1.083123,2.006576E-08,1.34765
1065.282,-0.7039615,0.0008910236,NaN,-0.6938245,0.002055245,NaN,0.2369109,-14.91998,NaN,-0.7260708,-1.47,-0.2261201,14.12884,NaN,NaN,0.2531981,0.8111985,3.851553E-07,1.070442,1.857564E-08,1.345766
1065.299,-0.7039615,0.0008910236,NaN,-0.6938245,0.002055245,NaN,0.2369109,-14.91998,NaN,-0.7260708,-1.47,-0.2261201,14.12884,NaN,NaN,0.2531981,0.8111985,3.851553E-07,1.070442,1.857564E-08,1.345766
1065.312,-0.709115,0.000891039,NaN,-0.6983869,0.002056132,NaN,0.2389013,-14.92005,NaN,-0.7293183,-1.468293,-0.2346384,14.12705,NaN,NaN,0.256018,0.8111019,4.31945E-07,1.067963,2.18539E-08,1.345751
1065.327,-0.7142655,0.0008911484,NaN,-0.7029437,0.002055697,NaN,0.2407064,-14.92158,NaN,-0.7325357,-1.476012,-0.2429752,14.13534,NaN,NaN,0.2587825,0.8096552,4.769465E-07,1.079193,2.304599E-08,1.355332
1065.342,-0.7196254,0.0008913066,NaN,-0.7076763,0.002055997,NaN,0.2427602,-14.92026,NaN,-0.7359803,-1.466685,-0.2517098,14.12542,NaN,NaN,0.2617741,0.8109448,5.168816E-07,1.065667,2.781436E-08,1.346027
1065.357,-0.7196254,0.0008913066,NaN,-0.7076763,0.002055997,NaN,0.2427602,-14.92026,NaN,-0.7359803,-1.466685,-0.2517098,14.12542,NaN,NaN,0.2617741,0.8109448,5.168816E-07,1.065667,2.781436E-08,1.346027
1065.371,-0.7250809,0.0008923633,NaN,-0.7124875,0.00205762,NaN,0.2447743,-14.92088,NaN,-0.7394038,-1.479436,-0.2605149,14.13891,NaN,NaN,0.2647073,0.8104709,5.603929E-07,1.084186,2.632425E-08,1.352908
1065.387,-0.7305663,0.0008926557,NaN,-0.7173211,0.002060931,NaN,0.2466184,-14.92143,NaN,-0.7428016,-1.470426,-0.2691983,14.12947,NaN,NaN,0.2675831,0.8099303,6.062885E-07,1.071106,2.781436E-08,1.355565
1065.402,-0.736044,0.0008931607,NaN,-0.722145,0.002063025,NaN,0.24828,-14.92016,NaN,-0.7461672,-1.46669,-0.2776971,14.12541,NaN,NaN,0.2704025,0.8111575,6.506939E-07,1.065673,2.498314E-08,1.345359
1065.417,-0.736044,0.0008931607,NaN,-0.722145,0.002063025,NaN,0.24828,-14.92016,NaN,-0.7461672,-1.46669,-0.2776971,14.12541,NaN,NaN,0.2704025,0.8111575,6.506939E-07,1.065673,2.498314E-08,1.345359
1065.431,-0.7417287,0.0008931445,NaN,-0.727141,0.002063757,NaN,0.25018,-14.92131,NaN,-0.7497584,-1.477423,-0.2865825,14.13684,NaN,NaN,0.2734478,0.8101321,6.891389E-07,1.081276,2.125785E-08,1.355304
1065.447,-0.7475051,0.0008924187,NaN,-0.7322114,0.002064007,NaN,0.2520424,-14.92009,NaN,-0.7533274,-1.466891,-0.295536,14.12565,NaN,NaN,0.2764337,0.8113366,7.305641E-07,1.065998,2.110884E-08,1.344562
1065.462,-0.753307,0.0008919956,NaN,-0.7373003,0.00206428,NaN,0.2537372,-14.92061,NaN,-0.756869,-1.480383,-0.3043647,14.13991,NaN,NaN,0.2793612,0.8109782,7.746715E-07,1.085597,2.304599E-08,1.350019
1065.477,-0.753307,0.0008919956,NaN,-0.7373003,0.00206428,NaN,0.2537372,-14.92061,NaN,-0.756869,-1.480383,-0.3043647,14.13991,NaN,NaN,0.2793612,0.8109782,7.746715E-07,1.085597,2.304599E-08,1.350019
1065.493,-0.7593347,0.000892463,NaN,-0.742576,0.002063104,NaN,0.2556415,-14.92111,NaN,-0.7606403,-1.477962,-0.3135822,14.13741,NaN,NaN,0.2825124,0.8104895,8.095403E-07,1.08208,2.453611E-08,1.350182
1065.507,-0.765462,0.0008928095,NaN,-0.7479324,0.002061635,NaN,0.2574851,-14.91973,NaN,-0.7643928,-1.467559,-0.3228592,14.12634,NaN,NaN,0.2856022,0.8118624,8.518596E-07,1.066985,2.371654E-08,1.341345
1065.522,-0.7716171,0.0008931984,NaN,-0.753309,0.002063051,NaN,0.2591435,-14.92037,NaN,-0.7681196,-1.46869,-0.3319983,14.1276,NaN,NaN,0.2886315,0.8112435,8.95669E-07,1.068639,2.215192E-08,1.344166
1065.537,-0.7716171,0.0008931984,NaN,-0.753309,0.002063051,NaN,0.2591435,-14.92037,NaN,-0.7681196,-1.46869,-0.3319983,14.1276,NaN,NaN,0.2886315,0.8112435,8.95669E-07,1.068639,2.215192E-08,1.344166
1065.552,-0.7777597,0.0008939158,NaN,-0.7586715,0.002063248,NaN,0.2606105,-14.92074,NaN,-0.7718132,-1.47956,-0.3409369,14.13909,NaN,NaN,0.2916014,0.8109823,9.412665E-07,1.084431,2.464787E-08,1.349235
1065.567,-0.784107,0.0008941793,NaN,-0.764201,0.002063456,NaN,0.2622884,-14.91965,NaN,-0.7757302,-1.468448,-0.3502339,14.12729,NaN,NaN,0.2947942,0.8120747,9.782215E-07,1.068298,2.739527E-08,1.340324
1065.582,-0.7905393,0.0008950123,NaN,-0.769798,0.002063742,NaN,0.2639262,-14.91951,NaN,-0.779624,-1.480166,-0.3595877,14.13962,NaN,NaN,0.2979247,0.8123271,1.024415E-06,1.085324,2.904371E-08,1.34258
1065.597,-0.7905393,0.0008950123,NaN,-0.769798,0.002063742,NaN,0.2639262,-14.91951,NaN,-0.779624,-1.480166,-0.3595877,14.13962,NaN,NaN,0.2979247,0.8123271,1.024415E-06,1.085324,2.904371E-08,1.34258
1065.611,-0.7969891,0.0008961912,NaN,-0.7754061,0.002064324,NaN,0.2653969,-14.92101,NaN,-0.783488,-1.473111,-0.3688061,14.1323,NaN,NaN,0.3009938,0.8108256,1.069416E-06,1.075058,2.926723E-08,1.347715
1065.627,-0.8034187,0.0008970133,NaN,-0.7809938,0.002064792,NaN,0.2666897,-14.92041,NaN,-0.7873155,-1.46875,-0.3778263,14.12764,NaN,NaN,0.3040028,0.8113845,1.112332E-06,1.068719,3.045932E-08,1.343337
1065.642,-0.8100498,0.0008981026,NaN,-0.7867438,0.002065289,NaN,0.26819,-14.92088,NaN,-0.7913637,-1.479418,-0.3871983,14.13892,NaN,NaN,0.3072338,0.8110132,1.146605E-06,1.084215,2.807513E-08,1.349208
1065.656,-0.8100498,0.0008981026,NaN,-0.7867438,0.002065289,NaN,0.26819,-14.92088,NaN,-0.7913637,-1.479418,-0.3871983,14.13892,NaN,NaN,0.3072338,0.8110132,1.146605E-06,1.084215,2.807513E-08,1.349208
1065.671,-0.8167613,0.0008986311,NaN,-0.7925566,0.002064151,NaN,0.2696568,-14.92021,NaN,-0.7953876,-1.483225,-0.3966277,14.14286,NaN,NaN,0.3104018,0.8116571,1.187732E-06,1.089742,2.874568E-08,1.342811
1065.687,-0.8234856,0.0008988406,NaN,-0.7983766,0.002064617,NaN,0.270962,-14.91938,NaN,-0.7993804,-1.477188,-0.4059212,14.13642,NaN,NaN,0.3135078,0.812506,1.229753E-06,1.080972,3.098086E-08,1.336767
1065.703,-0.8301855,0.0008981078,NaN,-0.8041728,0.002064331,NaN,0.2720944,-14.91898,NaN,-0.8033353,-1.468724,-0.415015,14.12744,NaN,NaN,0.3165528,0.8128889,1.271178E-06,1.068659,3.202394E-08,1.332037
1065.716,-0.8301855,0.0008981078,NaN,-0.8041728,0.002064331,NaN,0.2720944,-14.91898,NaN,-0.8033353,-1.468724,-0.415015,14.12744,NaN,NaN,0.3165528,0.8128889,1.271178E-06,1.068659,3.202394E-08,1.332037
1065.731,-0.8370857,0.0008990244,NaN,-0.8101285,0.002065822,NaN,0.2734258,-14.91941,NaN,-0.8075094,-1.48095,-0.4244513,14.14039,NaN,NaN,0.3198192,0.8125683,1.308729E-06,1.086443,2.785162E-08,1.337616
1065.746,-0.8440626,0.0008996091,NaN,-0.8161435,0.002067754,NaN,0.2747272,-14.92026,NaN,-0.8116595,-1.468419,-0.4339434,14.12722,NaN,NaN,0.3230218,0.8117531,1.349558E-06,1.068208,2.844766E-08,1.339158
1065.761,-0.8510484,0.000900595,NaN,-0.8221622,0.002070215,NaN,0.2758711,-14.92098,NaN,-0.8157776,-1.469224,-0.4432977,14.12813,NaN,NaN,0.3261617,0.8110323,1.391282E-06,1.06938,2.844766E-08,1.344683
1065.776,-0.8510484,0.000900595,NaN,-0.8221622,0.002070215,NaN,0.2758711,-14.92098,NaN,-0.8157776,-1.469224,-0.4432977,14.12813,NaN,NaN,0.3261617,0.8110323,1.391282E-06,1.06938,2.844766E-08,1.344683
1065.791,-0.8582529,0.0009016278,NaN,-0.8283545,0.002071714,NaN,0.2771868,-14.92155,NaN,-0.8201194,-1.477193,-0.4529988,14.13657,NaN,NaN,0.3295211,0.8105313,1.427342E-06,1.080953,2.695755E-08,1.348445
1065.806,-0.8655413,0.0009023658,NaN,-0.8346118,0.002074154,NaN,0.2784512,-14.92096,NaN,-0.8244415,-1.467876,-0.4627476,14.12671,NaN,NaN,0.332815,0.8111024,1.466681E-06,1.067426,2.814964E-08,1.343425
1065.821,-0.87284,0.000903261,NaN,-0.8408744,0.002074528,NaN,0.2795426,-14.92091,NaN,-0.8287339,-1.465843,-0.4723467,14.12456,NaN,NaN,0.3360444,0.8111281,1.508852E-06,1.064472,3.142789E-08,1.340946
1065.836,-0.87284,0.000903261,NaN,-0.8408744,0.002074528,NaN,0.2795426,-14.92091,NaN,-0.8287339,-1.465843,-0.4723467,14.12456,NaN,NaN,0.3360444,0.8111281,1.508852E-06,1.064472,3.142789E-08,1.340946
1065.85,-0.8801094,0.0009028994,NaN,-0.8471095,0.002072905,NaN,0.2804564,-14.92184,NaN,-0.8329886,-1.476149,-0.4817328,14.13551,NaN,NaN,0.3392104,0.8103326,1.549681E-06,1.079451,2.904371E-08,1.347313
1065.866,-0.8875781,0.00090229,NaN,-0.8535001,0.002069782,NaN,0.2815461,-14.92066,NaN,-0.8374609,-1.467654,-0.4914372,14.12647,NaN,NaN,0.3425953,0.8114966,1.584103E-06,1.067126,2.63615E-08,1.342509
1065.881,-0.8951172,0.0009020024,NaN,-0.8599437,0.002066857,NaN,0.282606,-14.92039,NaN,-0.8419101,-1.46769,-0.5011872,14.12648,NaN,NaN,0.3459142,0.8117594,1.62374E-06,1.067179,2.516941E-08,1.338975
1065.897,-0.8951172,0.0009020024,NaN,-0.8599437,0.002066857,NaN,0.282606,-14.92039,NaN,-0.8419101,-1.46769,-0.5011872,14.12648,NaN,NaN,0.3459142,0.8117594,1.62374E-06,1.067179,2.516941E-08,1.338975
1065.911,-0.9026571,0.0009011918,NaN,-0.8663848,0.002063169,NaN,0.2835118,-14.92064,NaN,-0.8463263,-1.479412,-0.5107909,14.13888,NaN,NaN,0.349168,0.8116426,1.665612E-06,1.084219,2.487138E-08,1.34157
1065.926,-0.9101608,0.0009005321,NaN,-0.8727931,0.002062852,NaN,0.2842544,-14.92062,NaN,-0.8507019,-1.468313,-0.5201854,14.12717,NaN,NaN,0.352358,0.8116611,1.704653E-06,1.068093,2.069906E-08,1.341507
1065.941,-0.9178619,0.0009000323,NaN,-0.8793533,0.002061328,NaN,0.2851708,-14.92194,NaN,-0.8552924,-1.478197,-0.5298936,14.13774,NaN,NaN,0.3557665,0.8104424,1.734008E-06,1.082474,2.189115E-08,1.349634
1065.956,-0.9178619,0.0009000323,NaN,-0.8793533,0.002061328,NaN,0.2851708,-14.92194,NaN,-0.8552924,-1.478197,-0.5298936,14.13774,NaN,NaN,0.3557665,0.8104424,1.734008E-06,1.082474,2.189115E-08,1.349634
1065.97,-0.9256293,0.00089996,NaN,-0.8859627,0.002061998,NaN,0.2860639,-14.92048,NaN,-0.85986,-1.470515,-0.5396481,14.12952,NaN,NaN,0.3591084,0.8118756,1.770963E-06,1.071323,1.950697E-08,1.340656
1065.985,-0.933393,0.0008994291,NaN,-0.8925661,0.002062385,NaN,0.2868091,-14.92103,NaN,-0.8643937,-1.467555,-0.5492565,14.12645,NaN,NaN,0.3623849,0.811305,1.810749E-06,1.067026,2.069906E-08,1.342113
1066,-0.9411166,0.0008991887,NaN,-0.8991341,0.002060845,NaN,0.2873971,-14.92095,NaN,-0.868886,-1.46602,-0.5586555,14.12483,NaN,NaN,0.3655972,0.8113554,1.848002E-06,1.064798,1.771883E-08,1.340773
1066.016,-0.9411166,0.0008991887,NaN,-0.8991341,0.002060845,NaN,0.2873971,-14.92095,NaN,-0.868886,-1.46602,-0.5586555,14.12483,NaN,NaN,0.3655972,0.8113554,1.848002E-06,1.064798,1.771883E-08,1.340773
1066.031,-0.9490374,0.0008990432,NaN,-0.9058517,0.0020587,NaN,0.2881519,-14.92227,NaN,-0.873592,-1.478251,-0.5683609,14.13786,NaN,NaN,0.3690273,0.8101916,1.880189E-06,1.082585,1.891092E-08,1.35118
1066.046,-0.9570209,0.0008971395,NaN,-0.9126157,0.002054687,NaN,0.288887,-14.92009,NaN,-0.8782761,-1.480936,-0.5781111,14.14048,NaN,NaN,0.3723906,0.8123522,1.918112E-06,1.086483,1.652674E-08,1.340555
1066.06,-0.9649971,0.0008959892,NaN,-0.9193709,0.002050415,NaN,0.2894792,-14.92047,NaN,-0.8829262,-1.478053,-0.5877142,14.13746,NaN,NaN,0.375688,0.8119645,1.95693E-06,1.082282,1.533464E-08,1.347431
1066.075,-0.9649971,0.0008959892,NaN,-0.9193709,0.002050415,NaN,0.2894792,-14.92047,NaN,-0.8829262,-1.478053,-0.5877142,14.13746,NaN,NaN,0.375688,0.8119645,1.95693E-06,1.082282,1.533464E-08,1.347431
1066.089,-0.973188,0.0008956398,NaN,-0.926289,0.002048249,NaN,0.2902124,-14.92042,NaN,-0.887795,-1.467131,-0.5976296,14.12593,NaN,NaN,0.3792017,0.8120098,1.987999E-06,1.066402,1.175836E-08,1.344352
1066.106,-0.9814475,0.0008958415,NaN,-0.9332584,0.002047011,NaN,0.2909055,-14.9209,NaN,-0.8926471,-1.465968,-0.6075818,14.12475,NaN,NaN,0.3826468,0.8115167,2.023836E-06,1.064714,1.295046E-08,1.345681
1066.12,-0.9814475,0.0008958415,NaN,-0.9332584,0.002047011,NaN,0.2909055,-14.9209,NaN,-0.8926471,-1.465968,-0.6075818,14.12475,NaN,NaN,0.3826468,0.8115167,2.023836E-06,1.064714,1.295046E-08,1.345681
1066.134,-0.9897001,0.0008972379,NaN,-0.9402202,0.002047698,NaN,0.2914419,-14.92168,NaN,-0.8974678,-1.479226,-0.6173757,14.1388,NaN,NaN,0.3860244,0.8108971,2.058407E-06,1.08398,8.778132E-09,1.354403
1066.15,-0.9979072,0.0008977053,NaN,-0.9471437,0.002045515,NaN,0.2918186,-14.92138,NaN,-0.9022475,-1.466566,-0.6269492,14.12544,NaN,NaN,0.3893358,0.8111963,2.094616E-06,1.065601,1.295046E-08,1.349167
1066.165,-1.006311,0.0008973278,NaN,-0.9542137,0.002044185,NaN,0.2923429,-14.92097,NaN,-0.9072395,-1.46991,-0.6368091,14.12892,NaN,NaN,0.3928632,0.8116422,2.119501E-06,1.070454,1.235441E-08,1.348199
1066.18,-1.006311,0.0008973278,NaN,-0.9542137,0.002044185,NaN,0.2923429,-14.92097,NaN,-0.9072395,-1.46991,-0.6368091,14.12892,NaN,NaN,0.3928632,0.8116422,2.119501E-06,1.070454,1.235441E-08,1.348199
1066.194,-1.014772,0.0008974868,NaN,-0.9613246,0.002043534,NaN,0.2928481,-14.92135,NaN,-0.912212,-1.466364,-0.6467039,14.12523,NaN,NaN,0.3963217,0.811233,2.151613E-06,1.06531,1.47386E-08,1.34924
1066.21,-1.023217,0.0008974385,NaN,-0.9684212,0.002042836,NaN,0.293215,-14.92119,NaN,-0.91715,-1.479092,-0.6564446,14.13861,NaN,NaN,0.3997125,0.8115464,2.18678E-06,1.083791,1.712278E-08,1.351261
1066.225,-1.03161,0.0008967944,NaN,-0.9754753,0.002042353,NaN,0.2934365,-14.92105,NaN,-0.9220443,-1.469747,-0.6659695,14.12875,NaN,NaN,0.4030368,0.8116747,2.221313E-06,1.070216,2.069906E-08,1.348651
1066.24,-1.03161,0.0008967944,NaN,-0.9754753,0.002042353,NaN,0.2934365,-14.92105,NaN,-0.9220443,-1.469747,-0.6659695,14.12875,NaN,NaN,0.4030368,0.8116747,2.221313E-06,1.070216,2.069906E-08,1.348651
1066.254,-1.0402,0.0008961808,NaN,-0.9826733,0.002040042,NaN,0.2938039,-14.92206,NaN,-0.9271485,-1.478852,-0.6757782,14.13845,NaN,NaN,0.4065769,0.8107411,2.246939E-06,1.083456,2.069906E-08,1.352822
1066.27,-1.048842,0.0008954074,NaN,-0.9899089,0.002039511,NaN,0.2941579,-14.92132,NaN,-0.9322339,-1.466704,-0.6856223,14.1256,NaN,NaN,0.4100478,0.8114933,2.279556E-06,1.065823,1.47386E-08,1.344496
1066.285,-1.057464,0.0008952677,NaN,-0.9971277,0.002036918,NaN,0.2943799,-14.92189,NaN,-0.9372843,-1.473341,-0.695313,14.13265,NaN,NaN,0.4134507,0.811,2.316259E-06,1.075469,1.35465E-08,1.349661
1066.301,-1.066032,0.0008953435,NaN,-1.004302,0.002036694,NaN,0.2944626,-14.9217,NaN,-0.9422902,-1.46625,-0.7047886,14.12516,NaN,NaN,0.416787,0.8111551,2.351482E-06,1.065171,9.970225E-09,1.346972
1066.315,-1.066032,0.0008953435,NaN,-1.004302,0.002036694,NaN,0.2944626,-14.9217,NaN,-0.9422902,-1.46625,-0.7047886,14.12516,NaN,NaN,0.416787,0.8111551,2.351482E-06,1.065171,9.970225E-09,1.346972
1066.329,-1.074796,0.0008953279,NaN,-1.011619,0.002038491,NaN,0.2946852,-14.92191,NaN,-0.9475047,-1.4652,-0.7145428,14.12407,NaN,NaN,0.4203387,0.8109305,2.379235E-06,1.063646,2.817667E-09,1.349036
1066.344,-1.083609,0.0008956944,NaN,-1.018971,0.00203928,NaN,0.2948973,-14.92321,NaN,-0.9527022,-1.476278,-0.7243308,14.13588,NaN,NaN,0.4238211,0.8097811,2.410193E-06,1.079749,5.201853E-09,1.356873
1066.359,-1.083609,0.0008956944,NaN,-1.018971,0.00203928,NaN,0.2948973,-14.92321,NaN,-0.9527022,-1.476278,-0.7243308,14.13588,NaN,NaN,0.4238211,0.8097811,2.410193E-06,1.079749,5.201853E-09,1.356873
1066.374,-1.092399,0.000895984,NaN,-1.026304,0.002038687,NaN,0.2949824,-14.92214,NaN,-0.9578646,-1.481578,-0.7339649,14.14134,NaN,NaN,0.4272353,0.8108508,2.442565E-06,1.087431,8.778132E-09,1.35053
1066.389,-1.101402,0.0008967879,NaN,-1.033791,0.002040878,NaN,0.2951824,-14.92167,NaN,-0.9632413,-1.476534,-0.7438844,14.13597,NaN,NaN,0.4308635,0.8113316,2.465364E-06,1.0801,9.970225E-09,1.351163
1066.404,-1.110458,0.0008979206,NaN,-1.041318,0.002045224,NaN,0.2953525,-14.92139,NaN,-0.9686067,-1.469216,-0.7538296,14.12822,NaN,NaN,0.4344209,0.8115914,2.498668E-06,1.06946,6.393946E-09,1.348837
1066.419,-1.110458,0.0008979206,NaN,-1.041318,0.002045224,NaN,0.2953525,-14.92139,NaN,-0.9686067,-1.469216,-0.7538296,14.12822,NaN,NaN,0.4344209,0.8115914,2.498668E-06,1.06946,6.393946E-09,1.348837
1066.434,-1.11949,0.0008989376,NaN,-1.048827,0.002049655,NaN,0.2953833,-14.92226,NaN,-0.9739394,-1.466107,-0.7636106,14.12502,NaN,NaN,0.4379086,0.8107001,2.528619E-06,1.064945,4.00976E-09,1.350288
1066.449,-1.128461,0.0008993971,NaN,-1.05629,0.002052261,NaN,0.2952745,-14.92204,NaN,-0.9792276,-1.468675,-0.7731681,14.12768,NaN,NaN,0.4413279,0.8109501,2.559018E-06,1.068662,4.334815E-10,1.348638
1066.464,-1.13763,0.0009010273,NaN,-1.063893,0.002055163,NaN,0.2952887,-14.92224,NaN,-0.984723,-1.479456,-0.7829885,14.13904,NaN,NaN,0.4449611,0.8108453,2.580699E-06,1.08431,1.625574E-09,1.354864
1066.479,-1.13763,0.0009010273,NaN,-1.063893,0.002055163,NaN,0.2952887,-14.92224,NaN,-0.984723,-1.479456,-0.7829885,14.13904,NaN,NaN,0.4449611,0.8108453,2.580699E-06,1.08431,1.625574E-09,1.354864
1066.493,-1.146841,0.0009019565,NaN,-1.071526,0.00205908,NaN,0.2952925,-14.92165,NaN,-0.9902043,-1.466324,-0.792833,14.12515,NaN,NaN,0.4485234,0.8114516,2.610427E-06,1.065241,-3.142797E-09,1.350204
1066.511,-1.15602,0.0009028161,NaN,-1.079136,0.002062672,NaN,0.2951746,-14.92139,NaN,-0.9956499,-1.469449,-0.8025182,14.1284,NaN,NaN,0.4520159,0.8117448,2.640453E-06,1.069772,-1.950704E-09,1.348435
1066.524,-1.165134,0.0009041423,NaN,-1.086696,0.002066936,NaN,0.2949304,-14.92284,NaN,-1.001048,-1.471635,-0.8119853,14.13086,NaN,NaN,0.4554399,0.8103071,2.672639E-06,1.072963,-3.142797E-09,1.356774
1066.539,-1.165134,0.0009041423,NaN,-1.086696,0.002066936,NaN,0.2949304,-14.92284,NaN,-1.001048,-1.471635,-0.8119853,14.13086,NaN,NaN,0.4554399,0.8103071,2.672639E-06,1.072963,-3.142797E-09,1.356774
1066.553,-1.174445,0.0009051837,NaN,-1.094395,0.00207125,NaN,0.2948075,-14.92136,NaN,-1.006651,-1.467826,-0.8217143,14.12669,NaN,NaN,0.4590778,0.8117446,2.696481E-06,1.067421,-1.950704E-09,1.348596
1066.569,-1.183795,0.0009052971,NaN,-1.102122,0.002073846,NaN,0.2946789,-14.92134,NaN,-1.012241,-1.465357,-0.8314676,14.12408,NaN,NaN,0.4626446,0.8117366,2.723899E-06,1.063834,1.625574E-09,1.343687
1066.584,-1.19311,0.0009055084,NaN,-1.109823,0.002077302,NaN,0.2944343,-14.92164,NaN,-1.017795,-1.464189,-0.8410628,14.12288,NaN,NaN,0.4661415,0.8114152,2.75236E-06,1.062142,-3.142797E-09,1.344877
1066.599,-1.19311,0.0009055084,NaN,-1.109823,0.002077302,NaN,0.2944343,-14.92164,NaN,-1.017795,-1.464189,-0.8410628,14.12288,NaN,NaN,0.4661415,0.8114152,2.75236E-06,1.062142,-3.142797E-09,1.344877
1066.613,-1.202637,0.0009057109,NaN,-1.117675,0.002080642,NaN,0.294287,-14.9221,NaN,-1.023559,-1.464142,-0.850927,14.12288,NaN,NaN,0.4698509,0.8109461,2.772179E-06,1.062081,-5.526983E-09,1.347174
1066.629,-1.212206,0.000906167,NaN,-1.125558,0.002081892,NaN,0.2941154,-14.92322,NaN,-1.029317,-1.477823,-0.8608075,14.13741,NaN,NaN,0.4734879,0.8100232,2.803322E-06,1.081964,-4.33489E-09,1.355409
1066.644,-1.221738,0.0009063447,NaN,-1.133417,0.002084251,NaN,0.2938171,-14.92264,NaN,-1.035039,-1.465836,-0.8705209,14.12475,NaN,NaN,0.4770536,0.8105925,2.834615E-06,1.064574,-6.719076E-09,1.350742
1066.659,-1.221738,0.0009063447,NaN,-1.133417,0.002084251,NaN,0.2938171,-14.92264,NaN,-1.035039,-1.465836,-0.8705209,14.12475,NaN,NaN,0.4770536,0.8105925,2.834615E-06,1.064574,-6.719076E-09,1.350742
1066.673,-1.231199,0.0009067135,NaN,-1.141225,0.002087754,NaN,0.293394,-14.92199,NaN,-1.040714,-1.464929,-0.8800108,14.12371,NaN,NaN,0.4805493,0.8112209,2.863672E-06,1.063241,-3.142797E-09,1.347693
1066.689,-1.240859,0.0009076829,NaN,-1.14917,0.002088973,NaN,0.2930768,-14.92154,NaN,-1.046592,-1.478293,-0.8897501,14.13772,NaN,NaN,0.4842576,0.8118438,2.881106E-06,1.082638,-3.142797E-09,1.34894
1066.705,-1.25055,0.0009085509,NaN,-1.157139,0.002089096,NaN,0.2927538,-14.92347,NaN,-1.052459,-1.479577,-0.8995047,14.13925,NaN,NaN,0.4878935,0.8099028,2.908227E-06,1.084501,1.625575E-09,1.359721
1066.719,-1.25055,0.0009085509,NaN,-1.157139,0.002089096,NaN,0.2927538,-14.92347,NaN,-1.052459,-1.479577,-0.8995047,14.13925,NaN,NaN,0.4878935,0.8099028,2.908227E-06,1.084501,1.625575E-09,1.359721
1066.733,-1.260198,0.000908445,NaN,-1.165079,0.00208841,NaN,0.2923207,-14.92153,NaN,-1.058289,-1.47321,-0.9090975,14.13238,NaN,NaN,0.4914581,0.8118356,2.937135E-06,1.075267,-7.586112E-10,1.350691
1066.748,-1.269771,0.0009087439,NaN,-1.172966,0.0020892,NaN,0.2917754,-14.92174,NaN,-1.064067,-1.473812,-0.9184731,14.13303,NaN,NaN,0.4949528,0.811613,2.964553E-06,1.076141,4.009761E-09,1.348013
1066.764,-1.269136,0.0009087311,NaN,-1.173347,0.002090687,NaN,0.2844083,-14.92177,NaN,-1.059965,-1.467026,-0.9101861,14.12587,NaN,NaN,0.4879788,0.8115509,3.324416E-06,1.066281,6.393946E-09,1.347576
1066.778,-1.269136,0.0009087311,NaN,-1.173347,0.002090687,NaN,0.2844083,-14.92177,NaN,-1.059965,-1.467026,-0.9101861,14.12587,NaN,NaN,0.4879788,0.8115509,3.324416E-06,1.066281,6.393946E-09,1.347576
1066.793,-1.262932,0.0009087602,NaN,-1.169657,0.002091722,NaN,0.2730918,-14.92279,NaN,-1.053971,-1.471416,-0.8922336,14.13061,NaN,NaN,0.4811333,0.8105738,3.309515E-06,1.072673,6.393946E-09,1.352152
1066.808,-1.253826,0.0009075403,NaN,-1.163635,0.002090117,NaN,0.2624139,-14.92243,NaN,-1.047037,-1.467272,-0.8714254,14.12621,NaN,NaN,0.4744187,0.8108997,3.178086E-06,1.066655,8.778132E-09,1.350455
1066.823,-1.243452,0.0009075879,NaN,-1.156424,0.002092053,NaN,0.2535003,-14.9222,NaN,-1.039518,-1.470155,-0.8505467,14.12921,NaN,NaN,0.4678345,0.8111576,3.042635E-06,1.070834,1.116232E-08,1.350877
1066.838,-1.243452,0.0009075879,NaN,-1.156424,0.002092053,NaN,0.2535003,-14.9222,NaN,-1.039518,-1.470155,-0.8505467,14.12921,NaN,NaN,0.4678345,0.8111576,3.042635E-06,1.070834,1.116232E-08,1.350877
1066.853,-1.23292,0.0009075889,NaN,-1.148819,0.002093626,NaN,0.2467139,-14.92306,NaN,-1.031681,-1.469679,-0.8308602,14.1288,NaN,NaN,0.4611991,0.8102962,2.923426E-06,1.070152,6.393946E-09,1.352856
1066.868,-1.222412,0.0009081408,NaN,-1.14104,0.002097193,NaN,0.2410767,-14.9226,NaN,-1.023757,-1.466164,-0.8121527,14.12505,NaN,NaN,0.454694,0.8107132,2.830591E-06,1.065044,1.116232E-08,1.353462
1066.883,-1.211995,0.0009078462,NaN,-1.133194,0.002098808,NaN,0.236052,-14.92221,NaN,-1.015829,-1.465252,-0.7941664,14.12403,NaN,NaN,0.4483166,0.8110886,2.754111E-06,1.063711,1.35465E-08,1.34797
1066.9,-1.201691,0.0009083176,NaN,-1.125339,0.002102391,NaN,0.231344,-14.92304,NaN,-1.007961,-1.466149,-0.7767038,14.12507,NaN,NaN,0.4420643,0.8102627,2.685226E-06,1.065026,1.35465E-08,1.353252
1066.913,-1.201691,0.0009083176,NaN,-1.125339,0.002102391,NaN,0.231344,-14.92304,NaN,-1.007961,-1.466149,-0.7767038,14.12507,NaN,NaN,0.4420643,0.8102627,2.685226E-06,1.065026,1.35465E-08,1.353252
1066.927,-1.191801,0.0009097533,NaN,-1.117678,0.002104697,NaN,0.2273909,-14.92193,NaN,-1.000218,-1.478963,-0.7600925,14.1384,NaN,NaN,0.4357544,0.8115229,2.617929E-06,1.083594,1.35465E-08,1.349926
1066.943,-1.182158,0.0009102727,NaN,-1.110132,0.00210701,NaN,0.2236551,-14.92221,NaN,-0.9926928,-1.466319,-0.7439761,14.12509,NaN,NaN,0.4295685,0.8112391,2.55512E-06,1.065224,1.831487E-08,1.349354
1066.958,-1.182158,0.0009102727,NaN,-1.110132,0.00210701,NaN,0.2236551,-14.92221,NaN,-0.9926928,-1.466319,-0.7439761,14.12509,NaN,NaN,0.4295685,0.8112391,2.55512E-06,1.065224,1.831487E-08,1.349354
1066.972,-1.172684,0.0009103788,NaN,-1.102668,0.002107762,NaN,0.2199864,-14.92326,NaN,-0.9853489,-1.47309,-0.7282003,14.13234,NaN,NaN,0.4235039,0.8102723,2.496335E-06,1.075069,1.35465E-08,1.355094
1066.988,-1.163638,0.0009104342,NaN,-1.095445,0.002107899,NaN,0.216932,-14.92376,NaN,-0.9781816,-1.475223,-0.7131575,14.13462,NaN,NaN,0.4173781,0.8097809,2.430099E-06,1.078165,1.35465E-08,1.356633
1067.006,-1.15484,0.0009106994,NaN,-1.088366,0.002110161,NaN,0.2140239,-14.92283,NaN,-0.9712595,-1.466606,-0.698531,14.12547,NaN,NaN,0.4113726,0.8106858,2.37042E-06,1.065663,1.116232E-08,1.349332
1067.02,-1.15484,0.0009106994,NaN,-1.088366,0.002110161,NaN,0.2140239,-14.92283,NaN,-0.9712595,-1.466606,-0.698531,14.12547,NaN,NaN,0.4113726,0.8106858,2.37042E-06,1.065663,1.116232E-08,1.349332
1067.032,-1.14621,0.0009116173,NaN,-1.081384,0.002110812,NaN,0.2111446,-14.92249,NaN,-0.9645275,-1.478523,-0.6841927,14.13796,NaN,NaN,0.4054849,0.8111622,2.312082E-06,1.082949,1.35465E-08,1.350626
1067.048,-1.137707,0.0009126005,NaN,-1.074478,0.002113391,NaN,0.2082703,-14.9226,NaN,-0.9579551,-1.47214,-0.6700919,14.13124,NaN,NaN,0.3997125,0.8110355,2.256203E-06,1.073672,1.116232E-08,1.348631
1067.063,-1.129605,0.0009137258,NaN,-1.067811,0.002114513,NaN,0.205995,-14.92384,NaN,-0.9515278,-1.478981,-0.6566802,14.13855,NaN,NaN,0.3938732,0.8098289,2.193469E-06,1.083611,1.116232E-08,1.357841
1067.078,-1.129605,0.0009137258,NaN,-1.067811,0.002114513,NaN,0.205995,-14.92384,NaN,-0.9515278,-1.478981,-0.6566802,14.13855,NaN,NaN,0.3938732,0.8098289,2.193469E-06,1.083611,1.116232E-08,1.357841
1067.092,-1.121738,0.0009148213,NaN,-1.061289,0.002117994,NaN,0.2038686,-14.92268,NaN,-0.9453275,-1.470569,-0.6436569,14.1296,NaN,NaN,0.3881485,0.8109698,2.138931E-06,1.071404,1.116232E-08,1.349779
1067.108,-1.11403,0.0009154857,NaN,-1.054868,0.002121177,NaN,0.2017717,-14.92281,NaN,-0.9393011,-1.466465,-0.6308991,14.12528,NaN,NaN,0.3825361,0.8108086,2.082157E-06,1.065441,8.778132E-09,1.349281
1067.122,-1.106442,0.0009166989,NaN,-1.048524,0.002123618,NaN,0.199677,-14.92408,NaN,-0.9334193,-1.476642,-0.6183577,14.13612,NaN,NaN,0.3770337,0.8096598,2.023596E-06,1.080229,9.970225E-09,1.358342
1067.137,-1.106442,0.0009166989,NaN,-1.048524,0.002123618,NaN,0.199677,-14.92408,NaN,-0.9334193,-1.476642,-0.6183577,14.13612,NaN,NaN,0.3770337,0.8096598,2.023596E-06,1.080229,9.970225E-09,1.358342
1067.152,-1.099243,0.0009177013,NaN,-1.04242,0.00212722,NaN,0.1981772,-14.92363,NaN,-0.927659,-1.468233,-0.6064928,14.12724,NaN,NaN,0.371459,0.8101001,1.959819E-06,1.068032,7.586038E-09,1.353738
1067.167,-1.092274,0.0009190117,NaN,-1.036463,0.002129487,NaN,0.1968249,-14.92381,NaN,-0.9221119,-1.47894,-0.5949988,14.1385,NaN,NaN,0.3659938,0.8100199,1.904386E-06,1.08356,4.00976E-09,1.35756
1067.182,-1.085459,0.0009203415,NaN,-1.030608,0.002130235,NaN,0.1954962,-14.92252,NaN,-0.9167266,-1.481328,-0.5837495,14.14088,NaN,NaN,0.3606359,0.811301,1.848954E-06,1.087023,5.201852E-09,1.351839
1067.197,-1.085459,0.0009203415,NaN,-1.030608,0.002130235,NaN,0.1954962,-14.92252,NaN,-0.9167266,-1.481328,-0.5837495,14.14088,NaN,NaN,0.3606359,0.811301,1.848954E-06,1.087023,5.201852E-09,1.351839
1067.211,-1.079044,0.0009217713,NaN,-1.025004,0.002132345,NaN,0.1947522,-14.92263,NaN,-0.9114628,-1.479004,-0.5731771,14.13842,NaN,NaN,0.3552028,0.8111818,1.79382E-06,1.083637,2.817667E-09,1.354223
1067.227,-1.072863,0.0009220663,NaN,-1.019555,0.00213305,NaN,0.1941411,-14.92127,NaN,-0.9064119,-1.470644,-0.5629595,14.12948,NaN,NaN,0.3498766,0.8125343,1.741964E-06,1.071491,4.00976E-09,1.343724
1067.242,-1.066836,0.0009219418,NaN,-1.014212,0.002133389,NaN,0.1935373,-14.92258,NaN,-0.9015197,-1.468471,-0.5529652,14.12732,NaN,NaN,0.3446548,0.8112094,1.691002E-06,1.068342,-1.950704E-09,1.349169
1067.257,-1.066836,0.0009219418,NaN,-1.014212,0.002133389,NaN,0.1935373,-14.92258,NaN,-0.9015197,-1.468471,-0.5529652,14.12732,NaN,NaN,0.3446548,0.8112094,1.691002E-06,1.068342,-1.950704E-09,1.349169
1067.271,-1.060921,0.0009224899,NaN,-1.008948,0.0021363,NaN,0.1929126,-14.92263,NaN,-0.8967553,-1.46626,-0.5431432,14.12499,NaN,NaN,0.3395354,0.8111316,1.640338E-06,1.065127,2.817667E-09,1.353734
1067.287,-1.055377,0.0009230325,NaN,-1.003923,0.002137968,NaN,0.1928627,-14.92365,NaN,-0.8920817,-1.474215,-0.5339673,14.13347,NaN,NaN,0.3343362,0.8102167,1.583713E-06,1.07669,-7.586116E-10,1.354471
1067.302,-1.050055,0.0009235893,NaN,-0.9990483,0.002141442,NaN,0.1929476,-14.92276,NaN,-0.8876026,-1.467503,-0.5251253,14.12632,NaN,NaN,0.3292392,0.8110643,1.533944E-06,1.066944,-3.142797E-09,1.348004
1067.317,-1.050055,0.0009235893,NaN,-0.9990483,0.002141442,NaN,0.1929476,-14.92276,NaN,-0.8876026,-1.467503,-0.5251253,14.12632,NaN,NaN,0.3292392,0.8110643,1.533944E-06,1.066944,-3.142797E-09,1.348004
1067.331,-1.044877,0.0009242411,NaN,-0.9942757,0.002142982,NaN,0.193039,-14.9241,NaN,-0.8832681,-1.47756,-0.5164875,14.13705,NaN,NaN,0.3242422,0.8098528,1.485068E-06,1.081567,-7.586116E-10,1.357609
1067.347,-1.039802,0.000924092,NaN,-0.9895802,0.002144072,NaN,0.1931054,-14.92268,NaN,-0.8790493,-1.467915,-0.5080032,14.12678,NaN,NaN,0.3193432,0.8112568,1.435894E-06,1.067577,4.00976E-09,1.348034
1067.362,-1.035088,0.0009248453,NaN,-0.9851204,0.002146476,NaN,0.1937412,-14.92408,NaN,-0.8749055,-1.473043,-0.5001524,14.13233,NaN,NaN,0.3143601,0.8099197,1.387316E-06,1.075042,-7.586118E-10,1.356117
1067.377,-1.035088,0.0009248453,NaN,-0.9851204,0.002146476,NaN,0.1937412,-14.92408,NaN,-0.8749055,-1.473043,-0.5001524,14.13233,NaN,NaN,0.3143601,0.8099197,1.387316E-06,1.075042,-7.586118E-10,1.356117
1067.391,-1.03059,0.0009258055,NaN,-0.9808097,0.002150475,NaN,0.1945078,-14.92351,NaN,-0.8709463,-1.467471,-0.4926183,14.12641,NaN,NaN,0.309475,0.8104619,1.342613E-06,1.066953,-7.586118E-10,1.352613
1067.407,-1.02623,0.0009266813,NaN,-0.9766006,0.002154418,NaN,0.1952733,-14.92383,NaN,-0.8671229,-1.466022,-0.4852684,14.12492,NaN,NaN,0.3046858,0.8101245,1.299697E-06,1.064851,-4.334891E-09,1.35473
1067.422,-1.021967,0.0009272434,NaN,-0.9724668,0.002154705,NaN,0.1960047,-14.92371,NaN,-0.8634071,-1.47921,-0.4780516,14.13875,NaN,NaN,0.2999905,0.8104099,1.256186E-06,1.083976,-5.526983E-09,1.351557
1067.437,-1.021967,0.0009272434,NaN,-0.9724668,0.002154705,NaN,0.1960047,-14.92371,NaN,-0.8634071,-1.47921,-0.4780516,14.13875,NaN,NaN,0.2999905,0.8104099,1.256186E-06,1.083976,-5.526983E-09,1.351557
1067.451,-1.018056,0.000927419,NaN,-0.9685665,0.002156311,NaN,0.1972975,-14.92347,NaN,-0.8597543,-1.467889,-0.4714542,14.12682,NaN,NaN,0.2952071,0.8106505,1.208204E-06,1.067545,-4.334891E-09,1.351402
1067.467,-1.014355,0.0009269827,NaN,-0.9648141,0.002156033,NaN,0.1987144,-14.92364,NaN,-0.8562783,-1.471549,-0.4651552,14.13068,NaN,NaN,0.2905178,0.810517,1.168865E-06,1.072855,-4.334891E-09,1.354136
1067.483,-1.010786,0.0009267242,NaN,-0.961162,0.002157292,NaN,0.2001216,-14.92366,NaN,-0.8529307,-1.466929,-0.4590203,14.12581,NaN,NaN,0.2859206,0.8104535,1.131314E-06,1.066147,-4.334891E-09,1.353179
1067.497,-1.010786,0.0009267242,NaN,-0.961162,0.002157292,NaN,0.2001216,-14.92366,NaN,-0.8529307,-1.466929,-0.4590203,14.12581,NaN,NaN,0.2859206,0.8104535,1.131314E-06,1.066147,-4.334891E-09,1.353179
1067.512,-1.007585,0.0009272149,NaN,-0.957756,0.002157165,NaN,0.2020807,-14.92342,NaN,-0.849654,-1.479009,-0.4535049,14.13848,NaN,NaN,0.2812334,0.8108265,1.089293E-06,1.083667,-5.526983E-09,1.353904
1067.526,-1.004599,0.000927825,NaN,-0.9545051,0.002159633,NaN,0.2041468,-14.9235,NaN,-0.846558,-1.468084,-0.4482717,14.12697,NaN,NaN,0.2766385,0.8107415,1.054126E-06,1.067801,4.334808E-10,1.352759
1067.541,-1.001747,0.0009280208,NaN,-0.9513578,0.002159627,NaN,0.206185,-14.9244,NaN,-0.8435909,-1.47579,-0.4431813,14.13517,NaN,NaN,0.2721337,0.809911,1.02045E-06,1.078995,-1.950705E-09,1.357569
1067.556,-1.001747,0.0009280208,NaN,-0.9513578,0.002159627,NaN,0.206185,-14.9244,NaN,-0.8435909,-1.47579,-0.4431813,14.13517,NaN,NaN,0.2721337,0.809911,1.02045E-06,1.078995,-1.950705E-09,1.357569
1067.57,-0.9989836,0.0009277291,NaN,-0.9482842,0.002160249,NaN,0.2081631,-14.92319,NaN,-0.8407224,-1.467559,-0.438182,14.1264,NaN,NaN,0.2677173,0.8110835,9.867729E-07,1.06705,-1.950705E-09,1.350783
1067.586,-0.9965581,0.0009277799,NaN,-0.9454401,0.002162772,NaN,0.2106817,-14.92326,NaN,-0.8379028,-1.467046,-0.4337726,14.12586,NaN,NaN,0.2632074,0.8109947,9.474338E-07,1.066301,-3.142798E-09,1.351056
1067.601,-0.9943316,0.0009274376,NaN,-0.9427413,0.002161487,NaN,0.213307,-14.92361,NaN,-0.8352492,-1.479851,-0.4296259,14.13937,NaN,NaN,0.2587863,0.810783,9.155453E-07,1.084895,-3.142798E-09,1.351192
1067.617,-0.9943316,0.0009274376,NaN,-0.9427413,0.002161487,NaN,0.213307,-14.92361,NaN,-0.8352492,-1.479851,-0.4296259,14.13937,NaN,NaN,0.2587863,0.810783,9.155453E-07,1.084895,-3.142798E-09,1.351192
1067.631,-0.9922273,0.0009270888,NaN,-0.9401393,0.002162058,NaN,0.2159028,-14.92349,NaN,-0.8327132,-1.467507,-0.4256054,14.12636,NaN,NaN,0.2544519,0.8109068,8.863391E-07,1.066974,-3.142798E-09,1.352775
1067.646,-0.990202,0.0009274315,NaN,-0.9376057,0.00216223,NaN,0.2184344,-14.92463,NaN,-0.8302669,-1.476628,-0.4216602,14.13609,NaN,NaN,0.2502026,0.8098595,8.574308E-07,1.080231,-1.950705E-09,1.361324
1067.661,-0.9885046,0.00092771,NaN,-0.9352966,0.0021641,NaN,0.2215031,-14.92363,NaN,-0.8278608,-1.467441,-0.4182949,14.12633,NaN,NaN,0.2458565,0.8108241,8.252443E-07,1.066902,-1.950705E-09,1.353295
1067.676,-0.9885046,0.00092771,NaN,-0.9352966,0.0021641,NaN,0.2215031,-14.92363,NaN,-0.8278608,-1.467441,-0.4182949,14.12633,NaN,NaN,0.2458565,0.8108241,8.252443E-07,1.066902,-1.950705E-09,1.353295
1067.691,-0.9869994,0.0009274157,NaN,-0.9331295,0.002165091,NaN,0.2246731,-14.9235,NaN,-0.8256141,-1.466174,-0.4151771,14.12498,NaN,NaN,0.2415959,0.810928,7.984223E-07,1.065057,-1.950705E-09,1.350951
1067.707,-0.9856101,0.0009276018,NaN,-0.931056,0.002167152,NaN,0.2278055,-14.92426,NaN,-0.8234788,-1.468199,-0.4121682,14.12719,NaN,NaN,0.2374191,0.8101901,7.736863E-07,1.068006,-3.142798E-09,1.356049
1067.721,-0.9842935,0.0009288834,NaN,-0.9290475,0.002169166,NaN,0.230865,-14.92428,NaN,-0.8214275,-1.47937,-0.4092169,14.13892,NaN,NaN,0.2333241,0.8102739,7.489504E-07,1.084208,-3.142798E-09,1.359971
1067.736,-0.9842935,0.0009288834,NaN,-0.9290475,0.002169166,NaN,0.230865,-14.92428,NaN,-0.8214275,-1.47937,-0.4092169,14.13892,NaN,NaN,0.2333241,0.8102739,7.489504E-07,1.084208,-3.142798E-09,1.359971
1067.75,-0.9832968,0.0009300169,NaN,-0.9272595,0.00216992,NaN,0.2344551,-14.9248,NaN,-0.8194109,-1.480349,-0.4068343,14.13999,NaN,NaN,0.2291294,0.8097436,7.17956E-07,1.085624,-4.334891E-09,1.361975
1067.766,-0.9824863,0.0009311163,NaN,-0.9256106,0.002172311,NaN,0.2381388,-14.92341,NaN,-0.8175485,-1.474738,-0.4046831,14.13396,NaN,NaN,0.2250172,0.8111251,6.953063E-07,1.077487,-4.334891E-09,1.352136
1067.781,-0.9817861,0.0009318724,NaN,-0.9240524,0.00217394,NaN,0.241776,-14.92475,NaN,-0.8157926,-1.472006,-0.4026231,14.13121,NaN,NaN,0.2209858,0.8097749,6.720604E-07,1.073525,-3.142798E-09,1.358747
1067.797,-0.9817861,0.0009318724,NaN,-0.9240524,0.00217394,NaN,0.241776,-14.92475,NaN,-0.8157926,-1.472006,-0.4026231,14.13121,NaN,NaN,0.2209858,0.8097749,6.720604E-07,1.073525,-3.142798E-09,1.358747
1067.811,-0.9814237,0.0009325418,NaN,-0.9227284,0.002176815,NaN,0.2459365,-14.92335,NaN,-0.8140836,-1.468453,-0.4011337,14.12732,NaN,NaN,0.2168535,0.811144,6.470265E-07,1.068357,-1.950705E-09,1.351613
1067.826,-0.9812564,0.0009337496,NaN,-0.9215511,0.002178928,NaN,0.2501726,-14.92476,NaN,-0.8125348,-1.477116,-0.3998601,14.1366,NaN,NaN,0.2128025,0.8098213,6.291451E-07,1.080956,-3.738844E-09,1.360834
1067.841,-0.9812022,0.0009342593,NaN,-0.9204679,0.002180664,NaN,0.2543434,-14.92334,NaN,-0.8110945,-1.470627,-0.3986577,14.12964,NaN,NaN,0.208831,0.8112223,6.112637E-07,1.071543,-3.142798E-09,1.351724
1067.856,-0.9812022,0.0009342593,NaN,-0.9204679,0.002180664,NaN,0.2543434,-14.92334,NaN,-0.8110945,-1.470627,-0.3986577,14.12964,NaN,NaN,0.208831,0.8112223,6.112637E-07,1.071543,-3.142798E-09,1.351724
1067.871,-0.9812118,0.0009347344,NaN,-0.9194466,0.002180676,NaN,0.2584137,-14.92488,NaN,-0.8097337,-1.478664,-0.3974751,14.13827,NaN,NaN,0.2049375,0.8097603,5.915941E-07,1.083234,-3.142798E-09,1.361526
1067.886,-0.9815294,0.0009347049,NaN,-0.9186405,0.002181407,NaN,0.2629977,-14.92326,NaN,-0.8084032,-1.46904,-0.3968371,14.12801,NaN,NaN,0.2009402,0.8113766,5.665602E-07,1.069279,-1.62566E-10,1.351074
1067.902,-0.9820238,0.0009356146,NaN,-0.9179714,0.002181975,NaN,0.2676568,-14.92358,NaN,-0.8072208,-1.480741,-0.3964,14.14037,NaN,NaN,0.1970217,0.8111688,5.486788E-07,1.086277,1.625573E-09,1.353034
1067.916,-0.9820238,0.0009356146,NaN,-0.9179714,0.002181975,NaN,0.2676568,-14.92358,NaN,-0.8072208,-1.480741,-0.3964,14.14037,NaN,NaN,0.1970217,0.8111688,5.486788E-07,1.086277,1.625573E-09,1.353034
1067.931,-0.9826185,0.0009363588,NaN,-0.91739,0.002184454,NaN,0.2722493,-14.92421,NaN,-0.8061375,-1.468786,-0.3960215,14.12782,NaN,NaN,0.1931802,0.8105764,5.343737E-07,1.068909,3.413713E-09,1.353248
1067.947,-0.9832684,0.0009365855,NaN,-0.9168651,0.002186269,NaN,0.2767392,-14.92333,NaN,-0.8051255,-1.466281,-0.3956503,14.12508,NaN,NaN,0.189414,0.8114216,5.212606E-07,1.065259,4.605806E-09,1.34683
1067.961,-0.9842176,0.0009373517,NaN,-0.9165501,0.002187412,NaN,0.2817414,-14.92446,NaN,-0.8041399,-1.477345,-0.3958172,14.13686,NaN,NaN,0.1855416,0.8104288,4.99803E-07,1.081346,4.605806E-09,1.35534
1067.976,-0.9842176,0.0009373517,NaN,-0.9165501,0.002187412,NaN,0.2817414,-14.92446,NaN,-0.8041399,-1.477345,-0.3958172,14.13686,NaN,NaN,0.1855416,0.8104288,4.99803E-07,1.081346,4.605806E-09,1.35534
1067.99,-0.985337,0.0009383127,NaN,-0.9163651,0.00219033,NaN,0.2868115,-14.92284,NaN,-0.803297,-1.471111,-0.3961696,14.13014,NaN,NaN,0.1817455,0.8120342,4.902662E-07,1.072294,5.201852E-09,1.348149
1068.006,-0.9865505,0.0009393546,NaN,-0.9162605,0.002194175,NaN,0.2918067,-14.92383,NaN,-0.8025481,-1.467388,-0.3965639,14.12632,NaN,NaN,0.1780239,0.8110235,4.771532E-07,1.066892,6.393945E-09,1.352091
1068.021,-0.9878132,0.0009400476,NaN,-0.9162052,0.002196403,NaN,0.2966913,-14.92282,NaN,-0.8018657,-1.471578,-0.3969501,14.1306,NaN,NaN,0.1743754,0.8120804,4.652323E-07,1.072958,4.009759E-09,1.347713
1068.036,-0.9878132,0.0009400476,NaN,-0.9162052,0.002196403,NaN,0.2966913,-14.92282,NaN,-0.8018657,-1.471578,-0.3969501,14.1306,NaN,NaN,0.1743754,0.8120804,4.652323E-07,1.072958,4.009759E-09,1.347713
1068.05,-0.9893686,0.0009404561,NaN,-0.9163511,0.002199024,NaN,0.3020839,-14.92337,NaN,-0.8012077,-1.466093,-0.3978651,14.12488,NaN,NaN,0.1706183,0.8114859,4.515232E-07,1.064993,6.393945E-09,1.349041
1068.066,-0.9910865,0.0009403266,NaN,-0.9166194,0.002200551,NaN,0.3075347,-14.92356,NaN,-0.8006895,-1.46626,-0.3989501,14.12507,NaN,NaN,0.1669353,0.8112963,4.384102E-07,1.065239,8.182084E-09,1.346264
1068.081,-0.9928892,0.0009407356,NaN,-0.9169604,0.002200814,NaN,0.3128994,-14.92412,NaN,-0.8002623,-1.479682,-0.4000602,14.13927,NaN,NaN,0.1633247,0.8108875,4.264893E-07,1.084743,6.393945E-09,1.350237
1068.097,-0.9928892,0.0009407356,NaN,-0.9169604,0.002200814,NaN,0.3128994,-14.92412,NaN,-0.8002623,-1.479682,-0.4000602,14.13927,NaN,NaN,0.1633247,0.8108875,4.264893E-07,1.084743,6.393945E-09,1.350237
1068.111,-0.9950016,0.0009415328,NaN,-0.9175164,0.002200011,NaN,0.3187654,-14.92338,NaN,-0.7998751,-1.481535,-0.4017021,14.14115,NaN,NaN,0.1596048,0.8116054,4.10396E-07,1.087432,6.989991E-09,1.349201
1068.126,-0.997281,0.000942453,NaN,-0.9181989,0.002200893,NaN,0.3246666,-14.9229,NaN,-0.7996357,-1.477337,-0.4034955,14.13667,NaN,NaN,0.1559582,0.8120774,4.008593E-07,1.081328,8.182084E-09,1.347657
1068.141,-0.9996441,0.0009427551,NaN,-0.9189541,0.002201227,NaN,0.3304609,-14.92269,NaN,-0.7994903,-1.473028,-0.405293,14.13209,NaN,NaN,0.1523833,0.8122665,3.931107E-07,1.075059,6.393945E-09,1.34217
1068.156,-0.9996441,0.0009427551,NaN,-0.9189541,0.002201227,NaN,0.3304609,-14.92269,NaN,-0.7994903,-1.473028,-0.405293,14.13209,NaN,NaN,0.1523833,0.8122665,3.931107E-07,1.075059,6.393945E-09,1.34217
1068.17,-1.002043,0.0009438251,NaN,-0.9197491,0.002201938,NaN,0.3361174,-14.92434,NaN,-0.799409,-1.48146,-0.4070476,14.14114,NaN,NaN,0.1488785,0.8106586,3.859581E-07,1.087324,5.797899E-09,1.351497
1068.186,-1.004719,0.0009436877,NaN,-0.9207372,0.002202492,NaN,0.3422693,-14.92339,NaN,-0.7993541,-1.46648,-0.4093139,14.1253,NaN,NaN,0.1452623,0.8116538,3.692688E-07,1.065584,6.393945E-09,1.345171
1068.2,-1.00754,0.0009426512,NaN,-0.9218354,0.002200889,NaN,0.3484537,-14.92299,NaN,-0.7994362,-1.468377,-0.4117164,14.12726,NaN,NaN,0.1417175,0.8120706,3.627123E-07,1.068342,7.586038E-09,1.34132
1068.216,-1.00754,0.0009426512,NaN,-0.9218354,0.002200889,NaN,0.3484537,-14.92299,NaN,-0.7994362,-1.468377,-0.4117164,14.12726,NaN,NaN,0.1417175,0.8120706,3.627123E-07,1.068342,7.586038E-09,1.34132
1068.23,-1.010429,0.0009417252,NaN,-0.9229937,0.002200043,NaN,0.3545296,-14.92352,NaN,-0.7996036,-1.466626,-0.4141115,14.12548,NaN,NaN,0.1382423,0.8115292,3.59136E-07,1.065811,4.605806E-09,1.341863
1068.245,-1.01334,0.0009408793,NaN,-0.9241824,0.002200055,NaN,0.3604659,-14.92333,NaN,-0.7998281,-1.465493,-0.4164539,14.12427,NaN,NaN,0.1348352,0.8117077,3.531756E-07,1.064167,5.797898E-09,1.341045
1068.26,-1.016521,0.0009410697,NaN,-0.9255565,0.002202445,NaN,0.3668999,-14.92417,NaN,-0.8000777,-1.467684,-0.4193055,14.12668,NaN,NaN,0.1313149,0.8108948,3.424468E-07,1.067367,5.201852E-09,1.34853
1068.275,-1.016521,0.0009410697,NaN,-0.9255565,0.002202445,NaN,0.3668999,-14.92417,NaN,-0.8000777,-1.467684,-0.4193055,14.12668,NaN,NaN,0.1313149,0.8108948,3.424468E-07,1.067367,5.201852E-09,1.34853
1068.289,-1.019837,0.0009412244,NaN,-0.9270332,0.002205202,NaN,0.373359,-14.92336,NaN,-0.8004603,-1.465113,-0.4222809,14.12388,NaN,NaN,0.1278641,0.8116804,3.376784E-07,1.063623,5.201852E-09,1.34269
1068.305,-1.023212,0.0009412392,NaN,-0.9285634,0.002207719,NaN,0.3797019,-14.92367,NaN,-0.800924,-1.46463,-0.4252357,14.1234,NaN,NaN,0.124481,0.8113632,3.335061E-07,1.062927,2.817666E-09,1.342246
1068.32,-1.026602,0.0009413337,NaN,-0.9301179,0.002210544,NaN,0.3858982,-14.92407,NaN,-0.8014405,-1.464647,-0.4281255,14.12346,NaN,NaN,0.1211643,0.8109602,3.317179E-07,1.06296,4.605806E-09,1.343756
1068.335,-1.026602,0.0009413337,NaN,-0.9301179,0.002210544,NaN,0.3858982,-14.92407,NaN,-0.8014405,-1.464647,-0.4281255,14.12346,NaN,NaN,0.1211643,0.8109602,3.317179E-07,1.06296,4.605806E-09,1.343756
1068.349,-1.030256,0.000940842,NaN,-0.9318525,0.002211461,NaN,0.3925914,-14.92439,NaN,-0.801983,-1.466172,-0.4315204,14.1251,NaN,NaN,0.1177325,0.8106619,3.209891E-07,1.06518,5.201852E-09,1.345871
1068.365,-1.034037,0.0009407842,NaN,-0.933684,0.002213949,NaN,0.3993003,-14.92445,NaN,-0.8026556,-1.464509,-0.4350255,14.12335,NaN,NaN,0.1143685,0.8105809,3.150286E-07,1.062765,6.393945E-09,1.346029
1068.38,-1.034037,0.0009407842,NaN,-0.933684,0.002213949,NaN,0.3993003,-14.92445,NaN,-0.8026556,-1.464509,-0.4350255,14.12335,NaN,NaN,0.1143685,0.8105809,3.150286E-07,1.062765,6.393945E-09,1.346029
1068.394,-1.037871,0.0009415784,NaN,-0.9355633,0.002218063,NaN,0.4058841,-14.92528,NaN,-0.8034056,-1.465847,-0.4384961,14.12485,NaN,NaN,0.1110706,0.8097672,3.120484E-07,1.064721,8.182084E-09,1.352327
1068.411,-1.041987,0.0009422922,NaN,-0.9376347,0.0022206,NaN,0.4129567,-14.92591,NaN,-0.8041981,-1.471278,-0.4424722,14.13062,NaN,NaN,0.1076573,0.8092111,3.037037E-07,1.072605,8.182084E-09,1.355583
1068.425,-1.046238,0.0009428071,NaN,-0.9398073,0.002220238,NaN,0.4200233,-14.92445,NaN,-0.8051277,-1.480257,-0.4465406,14.13988,NaN,NaN,0.1043113,0.8107226,3.019156E-07,1.085604,8.778131E-09,1.346909
1068.44,-1.046238,0.0009428071,NaN,-0.9398073,0.002220238,NaN,0.4200233,-14.92445,NaN,-0.8051277,-1.480257,-0.4465406,14.13988,NaN,NaN,0.1043113,0.8107226,3.019156E-07,1.085604,8.778131E-09,1.346909
1068.454,-1.050541,0.0009425496,NaN,-0.9420282,0.002220316,NaN,0.4269451,-14.92391,NaN,-0.8061373,-1.469441,-0.4505554,14.12845,NaN,NaN,0.1010311,0.811271,3.013195E-07,1.069905,8.182084E-09,1.343087
1068.47,-1.054852,0.000942873,NaN,-0.9442667,0.002221937,NaN,0.4336978,-14.92381,NaN,-0.8071961,-1.47381,-0.4544763,14.13304,NaN,NaN,0.09781519,0.8113945,2.977432E-07,1.076251,8.182084E-09,1.343027
1068.485,-1.059417,0.000943668,NaN,-0.946678,0.002225426,NaN,0.4409392,-14.9246,NaN,-0.8082857,-1.468648,-0.4588897,14.12768,NaN,NaN,0.09448227,0.8105701,2.864184E-07,1.068758,7.586038E-09,1.3464
1068.501,-1.064099,0.0009440584,NaN,-0.9491768,0.002228116,NaN,0.4481738,-14.92474,NaN,-0.8095017,-1.466947,-0.4633844,14.1259,NaN,NaN,0.09121515,0.8104038,2.810539E-07,1.066292,7.586038E-09,1.342039
1068.515,-1.064099,0.0009440584,NaN,-0.9491768,0.002228116,NaN,0.4481738,-14.92474,NaN,-0.8095017,-1.466947,-0.4633844,14.1259,NaN,NaN,0.09121515,0.8104038,2.810539E-07,1.066292,7.586038E-09,1.342039
1068.529,-1.06882,0.0009446441,NaN,-0.951714,0.002231286,NaN,0.4552637,-14.92545,NaN,-0.8107892,-1.466708,-0.4678172,14.12572,NaN,NaN,0.08801222,0.8096892,2.82246E-07,1.065956,7.586038E-09,1.346356
1068.545,-1.073539,0.0009450314,NaN,-0.9542615,0.002231198,NaN,0.4621839,-14.92554,NaN,-0.8121192,-1.479638,-0.4721491,14.1393,NaN,NaN,0.0848721,0.8097436,2.804579E-07,1.084704,6.393945E-09,1.347246
1068.559,-1.073539,0.0009450314,NaN,-0.9542615,0.002231198,NaN,0.4621839,-14.92554,NaN,-0.8121192,-1.479638,-0.4721491,14.1393,NaN,NaN,0.0848721,0.8097436,2.804579E-07,1.084704,6.393945E-09,1.347246
1068.574,-1.078506,0.0009443093,NaN,-0.9569761,0.002230369,NaN,0.4695967,-14.92535,NaN,-0.8134807,-1.467287,-0.4769735,14.12632,NaN,NaN,0.08161347,0.8099453,2.709211E-07,1.066797,6.393945E-09,1.34627
1068.589,-1.083584,0.0009448089,NaN,-0.9597725,0.002231167,NaN,0.4769957,-14.92488,NaN,-0.814965,-1.474226,-0.4818682,14.13356,NaN,NaN,0.07841921,0.8104761,2.664508E-07,1.076859,7.586038E-09,1.342785
1068.604,-1.088694,0.0009458069,NaN,-0.9626023,0.002230742,NaN,0.4842435,-14.92518,NaN,-0.8165163,-1.480673,-0.4866897,14.14037,NaN,NaN,0.0752877,0.8102071,2.643646E-07,1.086222,9.970224E-09,1.348267
1068.619,-1.088694,0.0009458069,NaN,-0.9626023,0.002230742,NaN,0.4842435,-14.92518,NaN,-0.8165163,-1.480673,-0.4866897,14.14037,NaN,NaN,0.0752877,0.8102071,2.643646E-07,1.086222,9.970224E-09,1.348267
1068.634,-1.094072,0.0009460829,NaN,-0.9656107,0.002230611,NaN,0.4919744,-14.92462,NaN,-0.8181163,-1.472262,-0.4920027,14.13148,NaN,NaN,0.07203753,0.8107827,2.587022E-07,1.074025,9.374177E-09,1.341736
1068.649,-1.099567,0.0009464084,NaN,-0.9687051,0.002231486,NaN,0.4996695,-14.92614,NaN,-0.8198454,-1.470501,-0.4973677,14.12978,NaN,NaN,0.06885155,0.8092589,2.566161E-07,1.07148,1.056627E-08,1.348866
1068.664,-1.105096,0.0009465128,NaN,-0.9718333,0.002231513,NaN,0.5071945,-14.92592,NaN,-0.8216434,-1.474129,-0.5026413,14.13356,NaN,NaN,0.06572817,0.8095002,2.55722E-07,1.076733,8.77813E-09,1.346817
1068.679,-1.105096,0.0009465128,NaN,-0.9718333,0.002231513,NaN,0.5071945,-14.92592,NaN,-0.8216434,-1.474129,-0.5026413,14.13356,NaN,NaN,0.06572817,0.8095002,2.55722E-07,1.076733,8.77813E-09,1.346817
1068.693,-1.110615,0.0009471094,NaN,-0.9749659,0.002233431,NaN,0.5145305,-14.9266,NaN,-0.8234794,-1.471527,-0.5077889,14.13089,NaN,NaN,0.06266603,0.8088079,2.569141E-07,1.072963,9.970223E-09,1.350056
1068.71,-1.116376,0.0009485265,NaN,-0.9782596,0.002235797,NaN,0.5223534,-14.92677,NaN,-0.8253534,-1.477997,-0.5134199,14.13768,NaN,NaN,0.05948383,0.8086762,2.473774E-07,1.082334,1.056627E-08,1.352673
1068.724,-1.122237,0.0009492313,NaN,-0.9816271,0.002237412,NaN,0.5301411,-14.92626,NaN,-0.827346,-1.470809,-0.5190945,14.13009,NaN,NaN,0.05636452,0.8091909,2.42311E-07,1.07192,1.116232E-08,1.347139
1068.739,-1.122237,0.0009492313,NaN,-0.9816271,0.002237412,NaN,0.5301411,-14.92626,NaN,-0.827346,-1.470809,-0.5190945,14.13009,NaN,NaN,0.05636452,0.8091909,2.42311E-07,1.07192,1.116232E-08,1.347139
1068.753,-1.12812,0.0009503833,NaN,-0.9850198,0.002239272,NaN,0.5377601,-14.92681,NaN,-0.8293992,-1.477767,-0.5246714,14.13743,NaN,NaN,0.05330649,0.8086942,2.446951E-07,1.082005,9.970224E-09,1.352521
1068.769,-1.133985,0.0009510173,NaN,-0.9884108,0.002241533,NaN,0.5451908,-14.92526,NaN,-0.8314835,-1.468157,-0.530117,14.12721,NaN,NaN,0.05030842,0.8102438,2.438011E-07,1.068083,6.393945E-09,1.341714
1068.783,-1.140087,0.0009517141,NaN,-0.9919581,0.002244673,NaN,0.5531129,-14.92556,NaN,-0.833608,-1.466558,-0.5360476,14.12556,NaN,NaN,0.04718904,0.8099265,2.345624E-07,1.065765,8.182084E-09,1.343206
1068.798,-1.140087,0.0009517141,NaN,-0.9919581,0.002244673,NaN,0.5531129,-14.92556,NaN,-0.833608,-1.466558,-0.5360476,14.12556,NaN,NaN,0.04718904,0.8099265,2.345624E-07,1.065765,8.182084E-09,1.343206
1068.813,-1.146284,0.000952283,NaN,-0.9955747,0.00224494,NaN,0.5609933,-14.92641,NaN,-0.8358471,-1.47923,-0.5420115,14.13896,NaN,NaN,0.04413133,0.809233,2.354564E-07,1.084154,5.201852E-09,1.349171
1068.828,-1.152498,0.0009530316,NaN,-0.9992121,0.002247936,NaN,0.5686995,-14.92538,NaN,-0.8381422,-1.469022,-0.5478679,14.12815,NaN,NaN,0.04113368,0.8102655,2.360525E-07,1.069357,4.605806E-09,1.342595
1068.843,-1.158688,0.0009532706,NaN,-1.002844,0.002249766,NaN,0.5762132,-14.92597,NaN,-0.8404641,-1.467973,-0.5535851,14.1271,NaN,NaN,0.03819482,0.8096733,2.369466E-07,1.06784,6.989992E-09,1.344002
1068.858,-1.158688,0.0009532706,NaN,-1.002844,0.002249766,NaN,0.5762132,-14.92597,NaN,-0.8404641,-1.467973,-0.5535851,14.1271,NaN,NaN,0.03819482,0.8096733,2.369466E-07,1.06784,6.989992E-09,1.344002
1068.874,-1.165114,0.0009529992,NaN,-1.00663,0.002251012,NaN,0.58422,-14.92553,NaN,-0.8428295,-1.465948,-0.5597868,14.12492,NaN,NaN,0.03513348,0.8100933,2.29794E-07,1.064894,8.182084E-09,1.341043
1068.888,-1.171629,0.0009527827,NaN,-1.01048,0.002252399,NaN,0.5921767,-14.92616,NaN,-0.8453065,-1.466302,-0.5660105,14.12536,NaN,NaN,0.03213267,0.8094693,2.303901E-07,1.065416,6.393945E-09,1.344632
1068.903,-1.178156,0.000953735,NaN,-1.014348,0.002253235,NaN,0.5999531,-14.92557,NaN,-0.8478351,-1.479263,-0.5721166,14.13888,NaN,NaN,0.02919082,0.8102086,2.321782E-07,1.08419,5.797899E-09,1.345154
1068.919,-1.178156,0.000953735,NaN,-1.014348,0.002253235,NaN,0.5999531,-14.92557,NaN,-0.8478351,-1.479263,-0.5721166,14.13888,NaN,NaN,0.02919082,0.8102086,2.321782E-07,1.08419,5.797899E-09,1.345154
1068.932,-1.184938,0.0009540319,NaN,-1.018381,0.002254788,NaN,0.6082106,-14.92543,NaN,-0.8504246,-1.467355,-0.5787032,14.12635,NaN,NaN,0.02612656,0.8103526,2.238335E-07,1.066914,9.970224E-09,1.341587
1068.948,-1.191815,0.0009544888,NaN,-1.022483,0.002254389,NaN,0.6163957,-14.92602,NaN,-0.8531309,-1.480137,-0.5852927,14.13984,NaN,NaN,0.02312288,0.8099012,2.223434E-07,1.085465,9.970224E-09,1.344741
1068.963,-1.198706,0.0009542682,NaN,-1.026602,0.002251087,NaN,0.6243832,-14.92479,NaN,-0.8558898,-1.481993,-0.5917476,14.14168,NaN,NaN,0.02017821,0.8111089,2.259197E-07,1.088159,8.778131E-09,1.342696
1068.978,-1.198706,0.0009542682,NaN,-1.026602,0.002251087,NaN,0.6243832,-14.92479,NaN,-0.8558898,-1.481993,-0.5917476,14.14168,NaN,NaN,0.02017821,0.8111089,2.259197E-07,1.088159,8.778131E-09,1.342696
1068.992,-1.205566,0.000953866,NaN,-1.030712,0.002248268,NaN,0.6321616,-14.92469,NaN,-0.8586701,-1.47862,-0.5980424,14.1381,NaN,NaN,0.01729127,0.8112026,2.274098E-07,1.083251,7.586038E-09,1.347309
1069.007,-1.212658,0.0009543557,NaN,-1.034971,0.002246596,NaN,0.640429,-14.92609,NaN,-0.8615025,-1.480498,-0.6048163,14.14019,NaN,NaN,0.01428082,0.8097867,2.214494E-07,1.085967,6.393946E-09,1.351939
1069.022,-1.219831,0.0009540574,NaN,-1.039288,0.002245736,NaN,0.6486263,-14.9253,NaN,-0.8644412,-1.467619,-0.6115871,14.12657,NaN,NaN,0.01132992,0.8105891,2.202573E-07,1.06728,2.817667E-09,1.345708
1069.037,-1.219831,0.0009540574,NaN,-1.039288,0.002245736,NaN,0.6486263,-14.9253,NaN,-0.8644412,-1.467619,-0.6115871,14.12657,NaN,NaN,0.01132992,0.8105891,2.202573E-07,1.06728,2.817667E-09,1.345708
1069.052,-1.227007,0.000953758,NaN,-1.043616,0.002245011,NaN,0.6566291,-14.92593,NaN,-0.867424,-1.469,-0.6182194,14.12808,NaN,NaN,0.008436979,0.8099593,2.229395E-07,1.069284,2.817667E-09,1.348851
1069.067,-1.234145,0.0009534923,NaN,-1.04793,0.002245396,NaN,0.6644251,-14.92584,NaN,-0.8704218,-1.46659,-0.6246888,14.12553,NaN,NaN,0.005600762,0.8100157,2.229395E-07,1.065778,1.625574E-09,1.348249
1069.083,-1.241512,0.0009533048,NaN,-1.052388,0.002243215,NaN,0.672715,-14.9256,NaN,-0.8734748,-1.478791,-0.6316405,14.1383,NaN,NaN,0.00264005,0.8103842,2.16383E-07,1.083464,-1.950704E-09,1.347871
1069.097,-1.241512,0.0009533048,NaN,-1.052388,0.002243215,NaN,0.672715,-14.9256,NaN,-0.8734748,-1.478791,-0.6316405,14.1383,NaN,NaN,0.00264005,0.8103842,2.16383E-07,1.083464,-1.950704E-09,1.347871
1069.113,-1.248956,0.0009528745,NaN,-1.056902,0.002242513,NaN,0.6809289,-14.92555,NaN,-0.8766299,-1.468656,-0.6385796,14.12763,NaN,NaN,-0.0002620986,0.8104247,2.157869E-07,1.068751,-1.950704E-09,1.347561
1069.127,-1.256398,0.0009527254,NaN,-1.061423,0.002242578,NaN,0.6889445,-14.92639,NaN,-0.8798243,-1.470503,-0.6453725,14.12965,NaN,NaN,-0.003107243,0.8095884,2.16085E-07,1.071434,-1.950704E-09,1.352104
1069.142,-1.263798,0.0009529309,NaN,-1.065927,0.002243653,NaN,0.6967512,-14.92642,NaN,-0.8830288,-1.470525,-0.651997,14.12967,NaN,NaN,-0.005896601,0.8095477,2.16383E-07,1.07146,-4.33489E-09,1.352799
1069.157,-1.263798,0.0009529309,NaN,-1.065927,0.002243653,NaN,0.6967512,-14.92642,NaN,-0.8830288,-1.470525,-0.651997,14.12967,NaN,NaN,-0.005896601,0.8095477,2.16383E-07,1.07146,-4.33489E-09,1.352799
1069.171,-1.271425,0.0009531359,NaN,-1.070574,0.002245944,NaN,0.7050538,-14.92586,NaN,-0.886293,-1.466568,-0.6591057,14.12544,NaN,NaN,-0.008811362,0.8100542,2.083364E-07,1.065711,-6.719076E-09,1.348446
1069.186,-1.279125,0.0009535109,NaN,-1.075272,0.002245799,NaN,0.713273,-14.92662,NaN,-0.8896556,-1.479108,-0.666191,14.13869,NaN,NaN,-0.01166847,0.8094395,2.065482E-07,1.083907,-5.526982E-09,1.355155
1069.201,-1.286819,0.0009531077,NaN,-1.079976,0.002245709,NaN,0.7212896,-14.92585,NaN,-0.8930528,-1.466965,-0.6731225,14.12587,NaN,NaN,-0.01446945,0.8102109,2.047601E-07,1.066303,2.817668E-09,1.347691
1069.216,-1.286819,0.0009531077,NaN,-1.079976,0.002245709,NaN,0.7212896,-14.92585,NaN,-0.8930528,-1.466965,-0.6731225,14.12587,NaN,NaN,-0.01446945,0.8102109,2.047601E-07,1.066303,2.817668E-09,1.347691
1069.23,-1.294758,0.0009528713,NaN,-1.084832,0.002243785,NaN,0.7297882,-14.92564,NaN,-0.8965263,-1.480285,-0.6805318,14.13983,NaN,NaN,-0.0173956,0.8105658,1.985016E-07,1.085615,4.009761E-09,1.346451
1069.246,-1.302775,0.0009529984,NaN,-1.089744,0.002244737,NaN,0.7381817,-14.92687,NaN,-0.9001019,-1.469663,-0.6878988,14.12876,NaN,NaN,-0.02026387,0.8093525,1.949253E-07,1.070188,4.334819E-10,1.35502
1069.261,-1.310786,0.0009539757,NaN,-1.094661,0.002245225,NaN,0.7463574,-14.92635,NaN,-0.9037117,-1.479919,-0.695097,14.13945,NaN,NaN,-0.02307582,0.8099472,1.964154E-07,1.085039,4.334819E-10,1.355273
1069.276,-1.310786,0.0009539757,NaN,-1.094661,0.002245225,NaN,0.7463574,-14.92635,NaN,-0.9037117,-1.479919,-0.695097,14.13945,NaN,NaN,-0.02307582,0.8099472,1.964154E-07,1.085039,4.334819E-10,1.355273
1069.29,-1.318749,0.0009544931,NaN,-1.099556,0.002246998,NaN,0.7543118,-14.9255,NaN,-0.9073251,-1.46919,-0.7021113,14.12809,NaN,NaN,-0.02583265,0.8108007,1.946273E-07,1.069475,4.334819E-10,1.348379
1069.306,-1.326938,0.0009544801,NaN,-1.104592,0.002247705,NaN,0.7627589,-14.92576,NaN,-0.9110073,-1.469646,-0.7096082,14.12859,NaN,NaN,-0.0287155,0.810539,1.859846E-07,1.070137,1.625575E-09,1.346906
1069.32,-1.335192,0.000953313,NaN,-1.109674,0.002246392,NaN,0.7711044,-14.92582,NaN,-0.9147816,-1.466619,-0.7170583,14.12541,NaN,NaN,-0.03154134,0.8104484,1.862827E-07,1.065743,4.334819E-10,1.348004
1069.337,-1.335192,0.000953313,NaN,-1.109674,0.002246392,NaN,0.7711044,-14.92582,NaN,-0.9147816,-1.466619,-0.7170583,14.12541,NaN,NaN,-0.03154134,0.8104484,1.862827E-07,1.065743,4.334819E-10,1.348004
1069.351,-1.34343,0.0009522606,NaN,-1.114754,0.002243344,NaN,0.7792368,-14.9261,NaN,-0.9185818,-1.478902,-0.724338,14.13835,NaN,NaN,-0.03431169,0.8103039,1.856866E-07,1.083569,4.334819E-10,1.350242
1069.365,-1.351615,0.0009523528,NaN,-1.11981,0.00224116,NaN,0.7871517,-14.92605,NaN,-0.9223793,-1.481922,-0.7314333,14.14151,NaN,NaN,-0.03702773,0.8103381,1.877728E-07,1.087949,4.334819E-10,1.350888
1069.38,-1.360023,0.0009525321,NaN,-1.125004,0.002241786,NaN,0.795564,-14.92496,NaN,-0.9262497,-1.470349,-0.7390164,14.12924,NaN,NaN,-0.03987057,0.811457,1.77938E-07,1.071157,4.334819E-10,1.343473
1069.395,-1.360023,0.0009525321,NaN,-1.125004,0.002241786,NaN,0.795564,-14.92496,NaN,-0.9262497,-1.470349,-0.7390164,14.12924,NaN,NaN,-0.03987057,0.811457,1.77938E-07,1.071157,4.334819E-10,1.343473
1069.409,-1.368493,0.0009532484,NaN,-1.13024,0.002241709,NaN,0.8038694,-14.92678,NaN,-0.9302074,-1.478992,-0.7465432,14.13854,NaN,NaN,-0.04265719,0.809715,1.78236E-07,1.083728,2.817668E-09,1.354566
1069.425,-1.376943,0.0009538373,NaN,-1.135473,0.002244019,NaN,0.81196,-14.92618,NaN,-0.934186,-1.466922,-0.7538943,14.1258,NaN,NaN,-0.04538911,0.8103175,1.761499E-07,1.066221,5.201853E-09,1.349321
1069.439,-1.376943,0.0009538373,NaN,-1.135473,0.002244019,NaN,0.81196,-14.92618,NaN,-0.934186,-1.466922,-0.7538943,14.1258,NaN,NaN,-0.04538911,0.8103175,1.761499E-07,1.066221,5.201853E-09,1.349321
1069.454,-1.385633,0.0009544129,NaN,-1.140852,0.00224627,NaN,0.8205334,-14.9259,NaN,-0.9382532,-1.469846,-0.7617263,14.12883,NaN,NaN,-0.04824749,0.8106235,1.675072E-07,1.070454,7.586038E-09,1.348209
