JMolnar6/NonAnthroHands_User_Study/HandsLoggerWithURDF/tempdata/PID 0 (test)/files/Reachy_PID0_JointMotion_gesture_7_4.csv
Time,r_shoulder,r_shoulder_x,r_upper_arm,r_forearm,r_wrist,r_wrist2hand,
570.7186,-0.116424,-0.3272679,0.46478,-2.141489,-0.3569506,-0.01919985
570.7343,-0.1165679,-0.3272664,0.4647932,-2.141575,-0.3569717,-0.01921568
570.7477,-0.1167102,-0.3272649,0.4648061,-2.14166,-0.3569925,-0.01923119
570.7625,-0.1168508,-0.3272634,0.4648188,-2.141744,-0.3570129,-0.0192464
570.7773,-0.1168508,-0.3272634,0.4648188,-2.141744,-0.3570129,-0.0192464
570.7913,-0.1169898,-0.3272619,0.4648311,-2.141827,-0.3570329,-0.01926132
570.807,-0.1171272,-0.3272605,0.4648432,-2.14191,-0.3570526,-0.01927594
570.8217,-0.117263,-0.327259,0.4648551,-2.141992,-0.3570718,-0.01929027
570.8366,-0.117263,-0.327259,0.4648551,-2.141992,-0.3570718,-0.01929027
570.8506,-0.1173972,-0.3272576,0.4648666,-2.142072,-0.3570907,-0.01930433
570.8663,-0.1175299,-0.3272562,0.464878,-2.142153,-0.3571092,-0.0193181
570.881,-0.1176611,-0.3272548,0.464889,-2.142232,-0.3571274,-0.0193316
570.8961,-0.1176611,-0.3272548,0.464889,-2.142232,-0.3571274,-0.0193316
570.9102,-0.1177907,-0.3272534,0.4648998,-2.14231,-0.3571453,-0.01934485
570.9258,-0.1179189,-0.3272521,0.4649104,-2.142388,-0.3571628,-0.01935782
570.9406,-0.1180456,-0.3272507,0.4649208,-2.142465,-0.35718,-0.01937055
570.9575,-0.1180456,-0.3272507,0.4649208,-2.142465,-0.35718,-0.01937055
570.9706,-0.1181708,-0.3272494,0.4649309,-2.142541,-0.3571968,-0.01938303
570.9849,-0.1182946,-0.327248,0.4649407,-2.142616,-0.3572134,-0.01939526
570.9995,-0.1182946,-0.327248,0.4649407,-2.142616,-0.3572134,-0.01939526
571.0136,-0.1184169,-0.3272467,0.4649504,-2.14269,-0.3572296,-0.01940725
571.0291,-0.1185379,-0.3272454,0.4649598,-2.142764,-0.3572455,-0.019419
571.0439,-0.1186574,-0.3272441,0.464969,-2.142837,-0.3572612,-0.01943053
571.0587,-0.1186574,-0.3272441,0.464969,-2.142837,-0.3572612,-0.01943053
571.0729,-0.1187756,-0.3272429,0.464978,-2.142909,-0.3572765,-0.01944183
571.0888,-0.1188924,-0.3272416,0.4649868,-2.142981,-0.3572915,-0.01945291
571.1033,-0.1190079,-0.3272403,0.4649954,-2.143052,-0.3573063,-0.01946376
571.1182,-0.1190079,-0.3272403,0.4649954,-2.143052,-0.3573063,-0.01946376
571.1328,-0.119122,-0.3272391,0.4650038,-2.143122,-0.3573208,-0.01947442
571.148,-0.1192349,-0.3272379,0.4650119,-2.143191,-0.357335,-0.01948485
571.1629,-0.1193464,-0.3272367,0.4650199,-2.14326,-0.3573489,-0.01949508
571.1777,-0.1193464,-0.3272367,0.4650199,-2.14326,-0.3573489,-0.01949508
571.1938,-0.1194566,-0.3272355,0.4650277,-2.143328,-0.3573626,-0.01950511
571.2073,-0.1195656,-0.3272343,0.4650353,-2.143395,-0.3573761,-0.01951494
571.2222,-0.1196733,-0.3272331,0.4650427,-2.143461,-0.3573893,-0.01952458
571.2369,-0.1196733,-0.3272331,0.4650427,-2.143461,-0.3573893,-0.01952458
571.2508,-0.1197798,-0.327232,0.4650499,-2.143527,-0.3574022,-0.01953403
571.2662,-0.1198851,-0.3272308,0.4650569,-2.143592,-0.3574149,-0.0195433
571.2811,-0.1199891,-0.3272297,0.4650638,-2.143657,-0.3574274,-0.01955238
571.2963,-0.1199891,-0.3272297,0.4650638,-2.143657,-0.3574274,-0.01955238
571.3103,-0.1200919,-0.3272285,0.4650705,-2.14372,-0.3574396,-0.01956128
571.3257,-0.1201936,-0.3272274,0.465077,-2.143784,-0.3574516,-0.01957001
571.3408,-0.1202941,-0.3272263,0.4650833,-2.143846,-0.3574634,-0.01957856
571.3555,-0.1202941,-0.3272263,0.4650833,-2.143846,-0.3574634,-0.01957856
571.3699,-0.1203934,-0.3272252,0.4650895,-2.143908,-0.357475,-0.01958695
571.3855,-0.1204916,-0.3272242,0.4650956,-2.143969,-0.3574864,-0.01959518
571.4,-0.1204916,-0.3272242,0.4650956,-2.143969,-0.3574864,-0.01959518
571.4172,-0.1205886,-0.3272231,0.4651015,-2.144029,-0.3574976,-0.01960324
571.43,-0.1206846,-0.327222,0.4651072,-2.144089,-0.3575085,-0.01961115
571.4444,-0.1207794,-0.327221,0.4651127,-2.144148,-0.3575193,-0.01961889
571.4593,-0.1207794,-0.327221,0.4651127,-2.144148,-0.3575193,-0.01961889
571.4732,-0.1208731,-0.32722,0.4651182,-2.144207,-0.3575298,-0.01962649
571.4887,-0.1209658,-0.3272189,0.4651234,-2.144265,-0.3575402,-0.01963393
571.5036,-0.1210574,-0.3272179,0.4651286,-2.144322,-0.3575504,-0.01964123
571.5183,-0.1210574,-0.3272179,0.4651286,-2.144322,-0.3575504,-0.01964123
571.5325,-0.1211479,-0.3272169,0.4651336,-2.144379,-0.3575604,-0.01964839
571.5481,-0.1212374,-0.3272159,0.4651385,-2.144435,-0.3575702,-0.01965541
571.5627,-0.1213259,-0.327215,0.4651432,-2.144491,-0.3575798,-0.01966229
571.5778,-0.1213259,-0.327215,0.4651432,-2.144491,-0.3575798,-0.01966229
571.5918,-0.1214133,-0.327214,0.4651478,-2.144546,-0.3575892,-0.01966904
571.6077,-0.1214997,-0.327213,0.4651523,-2.1446,-0.3575985,-0.01967565
571.6223,-0.1215852,-0.3272121,0.4651566,-2.144654,-0.3576077,-0.01968213
571.6371,-0.1215852,-0.3272121,0.4651566,-2.144654,-0.3576077,-0.01968213
571.6533,-0.1216696,-0.3272111,0.4651608,-2.144707,-0.3576166,-0.01968849
571.6664,-0.1217531,-0.3272102,0.465165,-2.14476,-0.3576254,-0.01969472
571.6811,-0.1218356,-0.3272093,0.4651689,-2.144812,-0.357634,-0.01970083
571.696,-0.1218356,-0.3272093,0.4651689,-2.144812,-0.357634,-0.01970083
571.7101,-0.1219172,-0.3272083,0.4651728,-2.144864,-0.3576425,-0.01970682
571.7278,-0.1212706,-0.327205,0.4650066,-2.1453,-0.3576462,-0.0197124
571.7403,-0.1201685,-0.3272007,0.4647675,-2.145849,-0.3576981,-0.01971793
571.7549,-0.1201685,-0.3272007,0.4647675,-2.145849,-0.3576981,-0.01971793
571.7693,-0.1187845,-0.3271958,0.46452,-2.146404,-0.3577707,-0.01972341
571.7847,-0.1172288,-0.3271908,0.4642883,-2.146927,-0.357846,-0.0197288
571.7995,-0.1172288,-0.3271908,0.4642883,-2.146927,-0.357846,-0.0197288
571.8137,-0.1162999,-0.3271883,0.4642472,-2.147025,-0.3579225,-0.0197344
571.8294,-0.1157694,-0.327187,0.4642977,-2.146974,-0.3579449,-0.01973983
571.8441,-0.1154917,-0.3271864,0.4643713,-2.146887,-0.357941,-0.0197451
571.8588,-0.1154917,-0.3271864,0.4643713,-2.146887,-0.357941,-0.0197451
571.8731,-0.1161014,-0.3271874,0.4646106,-2.146421,-0.3579347,-0.01975054
571.8895,-0.117267,-0.3271888,0.4649115,-2.14586,-0.3578805,-0.0197558
571.9033,-0.1187775,-0.32719,0.4652095,-2.145311,-0.3578077,-0.0197609
571.918,-0.1187775,-0.32719,0.4652095,-2.145311,-0.3578077,-0.0197609
571.9326,-0.1204987,-0.3271908,0.4654826,-2.144809,-0.3577347,-0.01976587
571.9476,-0.1230735,-0.3271936,0.4658987,-2.143972,-0.3576725,-0.01977101
571.9621,-0.1261747,-0.3271965,0.4663648,-2.143064,-0.3575685,-0.01977599
571.9769,-0.1261747,-0.3271965,0.4663648,-2.143064,-0.3575685,-0.01977599
571.991,-0.129594,-0.3271989,0.466821,-2.142186,-0.3574491,-0.0197808
572.0069,-0.1331992,-0.3272005,0.4672472,-2.141367,-0.3573313,-0.01978549
572.022,-0.1376345,-0.3272037,0.4678119,-2.140224,-0.3572245,-0.01979034
572.0364,-0.1376345,-0.3272037,0.4678119,-2.140224,-0.3572245,-0.01979034
572.0505,-0.1425735,-0.3272065,0.468422,-2.13902,-0.3570767,-0.01979504
572.066,-0.1478087,-0.3272082,0.4690177,-2.137855,-0.3569148,-0.01979957
572.0808,-0.1532083,-0.3272089,0.4695792,-2.136758,-0.3567556,-0.01980398
572.0959,-0.1532083,-0.3272089,0.4695792,-2.136758,-0.3567556,-0.01980398
572.11,-0.1594171,-0.3272106,0.4702753,-2.135345,-0.3566068,-0.01980855
572.1266,-0.1661089,-0.3272116,0.4710122,-2.133881,-0.356418,-0.01981297
572.1404,-0.1730765,-0.3272117,0.4717301,-2.132465,-0.3562168,-0.01981722
572.1552,-0.1730765,-0.3272117,0.4717301,-2.132465,-0.3562168,-0.01981722
572.1693,-0.1809167,-0.3272126,0.4725805,-2.130739,-0.3560196,-0.01982162
572.1845,-0.189273,-0.3272126,0.4734624,-2.128979,-0.3557835,-0.01982585
572.1992,-0.189273,-0.3272126,0.4734624,-2.128979,-0.3557835,-0.01982585
572.2134,-0.197919,-0.3272118,0.4743161,-2.127283,-0.3555374,-0.01982992
572.2291,-0.2067109,-0.3272104,0.4751231,-2.125679,-0.355298,-0.01983387
572.2443,-0.2162862,-0.3272097,0.4760545,-2.123782,-0.355068,-0.01983796
572.2587,-0.2162862,-0.3272097,0.4760545,-2.123782,-0.355068,-0.01983796
572.273,-0.2263141,-0.3272083,0.477015,-2.121854,-0.3548017,-0.0198419
572.2887,-0.2365847,-0.3272059,0.4779466,-2.119993,-0.3545266,-0.01984569
572.3072,-0.2469649,-0.3272024,0.4788313,-2.118225,-0.3542583,-0.01984935
572.3186,-0.2469649,-0.3272024,0.4788313,-2.118225,-0.3542583,-0.01984935
572.3324,-0.2580988,-0.3272,0.4798396,-2.116167,-0.3539975,-0.01985317
572.3491,-0.2696603,-0.3271967,0.4808743,-2.114082,-0.3537009,-0.01985682
572.3627,-0.2814422,-0.3271914,0.4818777,-2.112068,-0.3533963,-0.01986032
572.3773,-0.2814422,-0.3271914,0.4818777,-2.112068,-0.3533963,-0.01986032
572.3915,-0.2940417,-0.3271867,0.4830027,-2.109769,-0.3530931,-0.01986395
572.4069,-0.3071026,-0.3271801,0.4841458,-2.107456,-0.3527551,-0.01986741
572.4215,-0.320399,-0.3271709,0.4852488,-2.105229,-0.3524119,-0.01987073
572.4365,-0.320399,-0.3271709,0.4852488,-2.105229,-0.3524119,-0.01987073
572.4504,-0.3337877,-0.3271593,0.4862948,-2.103115,-0.3520792,-0.01987393
572.4657,-0.3479067,-0.3271485,0.487456,-2.100729,-0.351752,-0.01987726
572.4807,-0.3624258,-0.3271357,0.4886334,-2.098334,-0.351393,-0.01988043
572.4963,-0.3624258,-0.3271357,0.4886334,-2.098334,-0.351393,-0.01988043
572.5097,-0.3771356,-0.3271205,0.4897708,-2.096024,-0.3510302,-0.01988346
572.5253,-0.3919038,-0.3271032,0.4908518,-2.093826,-0.3506784,-0.01988639
572.5403,-0.407375,-0.3270867,0.4920481,-2.091359,-0.3503294,-0.01988942
572.5552,-0.407375,-0.3270867,0.4920481,-2.091359,-0.3503294,-0.01988942
572.5696,-0.4232236,-0.3270684,0.4932584,-2.088884,-0.3499498,-0.01989231
572.5858,-0.439243,-0.3270477,0.4944269,-2.086497,-0.3495678,-0.01989507
572.5994,-0.439243,-0.3270477,0.4944269,-2.086497,-0.3495678,-0.01989507
572.6136,-0.4560309,-0.3270273,0.4957087,-2.083845,-0.3491832,-0.01989793
572.6292,-0.4732319,-0.3270043,0.4969965,-2.081198,-0.3487697,-0.01990063
572.6437,-0.4906204,-0.3269784,0.4982344,-2.078653,-0.348357,-0.0199032
572.6584,-0.4906204,-0.3269784,0.4982344,-2.078653,-0.348357,-0.0199032
572.6727,-0.5080539,-0.3269499,0.4994076,-2.076237,-0.3479592,-0.01990568
572.6884,-0.5261709,-0.3269221,0.500689,-2.073569,-0.3475618,-0.01990825
572.7032,-0.5446418,-0.3268921,0.5019754,-2.070906,-0.3471383,-0.01991067
572.718,-0.5446418,-0.3268921,0.5019754,-2.070906,-0.3471383,-0.01991067
572.7321,-0.5632578,-0.3268595,0.5032129,-2.068345,-0.3467169,-0.01991298
572.7477,-0.5818869,-0.3268247,0.5043872,-2.065911,-0.3463109,-0.0199152
572.7629,-0.6011744,-0.3267909,0.5056703,-2.063225,-0.3459023,-0.0199175
572.7777,-0.6011744,-0.3267909,0.5056703,-2.063225,-0.3459023,-0.0199175
572.7916,-0.6207952,-0.3267551,0.5069569,-2.060545,-0.3454691,-0.01991967
572.8082,-0.6405433,-0.3267167,0.5081937,-2.057969,-0.3450397,-0.01992173
572.8229,-0.6602886,-0.3266763,0.5093665,-2.055522,-0.3446267,-0.01992371
572.8369,-0.6602886,-0.3266763,0.5093665,-2.055522,-0.3446267,-0.01992371
572.8506,-0.6806775,-0.326637,0.5106471,-2.052826,-0.3442089,-0.01992576
572.8658,-0.7013859,-0.3265957,0.5119287,-2.05014,-0.3437687,-0.01992768
572.8806,-0.7222082,-0.3265519,0.5131589,-2.04756,-0.343334,-0.0199295
572.8954,-0.7222082,-0.3265519,0.5131589,-2.04756,-0.343334,-0.0199295
572.9097,-0.7432359,-0.3265069,0.5143757,-2.044998,-0.342909,-0.01993129
572.9251,-0.7643046,-0.3264602,0.5155461,-2.042535,-0.3424922,-0.01993299
572.9401,-0.7853107,-0.3264123,0.5166582,-2.040194,-0.3420916,-0.01993462
572.9548,-0.7853107,-0.3264123,0.5166582,-2.040194,-0.3420916,-0.01993462
572.9691,-0.8061896,-0.326364,0.5177122,-2.037977,-0.3417097,-0.01993619
572.9848,-0.826901,-0.3263159,0.5187125,-2.035876,-0.3413459,-0.01993771
572.9995,-0.826901,-0.3263159,0.5187125,-2.035876,-0.3413459,-0.01993771
573.0135,-0.8474203,-0.3262684,0.5196635,-2.033882,-0.3409991,-0.01993917
573.0293,-0.8677331,-0.3262221,0.5205693,-2.031989,-0.3406678,-0.01994057
573.0449,-0.887831,-0.3261772,0.5214331,-2.03019,-0.340351,-0.01994194
573.0587,-0.887831,-0.3261772,0.5214331,-2.03019,-0.340351,-0.01994194
573.0728,-0.9077098,-0.3261339,0.5222574,-2.028481,-0.3400478,-0.01994325
573.0882,-0.9273676,-0.3260923,0.5230444,-2.026855,-0.3397576,-0.01994452
573.1027,-0.9468043,-0.3260525,0.5237957,-2.025312,-0.3394798,-0.01994575
573.1172,-0.9468043,-0.3260525,0.5237957,-2.025312,-0.3394798,-0.01994575
573.1313,-0.9660206,-0.3260144,0.5245126,-2.023847,-0.339214,-0.01994693
573.147,-0.9850181,-0.3259781,0.5251964,-2.022459,-0.3389598,-0.01994808
573.1616,-1.003799,-0.3259436,0.5258483,-2.021145,-0.338717,-0.01994919
573.1765,-1.003799,-0.3259436,0.5258483,-2.021145,-0.338717,-0.01994919
573.1904,-1.022364,-0.3259107,0.5264692,-2.019903,-0.3384852,-0.01995026
573.2062,-1.040717,-0.3258796,0.52706,-2.018731,-0.3382641,-0.01995129
573.2209,-1.058859,-0.3258501,0.5276217,-2.017628,-0.3380535,-0.0199523
573.2357,-1.058859,-0.3258501,0.5276217,-2.017628,-0.3380535,-0.0199523
573.2498,-1.076792,-0.3258222,0.5281552,-2.016593,-0.3378531,-0.01995327
573.2653,-1.09452,-0.3257958,0.5286613,-2.015622,-0.3376628,-0.0199542
573.2803,-1.112044,-0.325771,0.5291406,-2.014715,-0.3374821,-0.01995512
573.2961,-1.112044,-0.325771,0.5291406,-2.014715,-0.3374821,-0.01995512
573.3092,-1.129367,-0.3257476,0.5295941,-2.01387,-0.337311,-0.01995599
573.3243,-1.146491,-0.3257257,0.5300224,-2.013086,-0.3371491,-0.01995685
573.3393,-1.146491,-0.3257257,0.5300224,-2.013086,-0.3371491,-0.01995685
573.3533,-1.163418,-0.3257051,0.5304263,-2.012361,-0.3369963,-0.01995767
573.3688,-1.180151,-0.3256859,0.5308064,-2.011693,-0.3368524,-0.01995847
573.3836,-1.196691,-0.325668,0.5311634,-2.011082,-0.3367171,-0.01995924
573.3984,-1.196691,-0.325668,0.5311634,-2.011082,-0.3367171,-0.01995924
573.4124,-1.213041,-0.3256513,0.531498,-2.010526,-0.3365901,-0.01995999
573.428,-1.229204,-0.3256359,0.5318108,-2.010023,-0.3364714,-0.01996071
573.4427,-1.24518,-0.3256216,0.5321025,-2.009573,-0.3363607,-0.01996142
573.4575,-1.24518,-0.3256216,0.5321025,-2.009573,-0.3363607,-0.01996142
573.4717,-1.260973,-0.3256085,0.5323735,-2.009173,-0.3362577,-0.01996211
573.4874,-1.276585,-0.3255965,0.5326246,-2.008823,-0.3361624,-0.01996277
573.5021,-1.291795,-0.3255848,0.5328053,-2.008635,-0.3360853,-0.01996339
573.5169,-1.291795,-0.3255848,0.5328053,-2.008635,-0.3360853,-0.01996339
573.5319,-1.306691,-0.3255745,0.5329518,-2.008528,-0.3360256,-0.01996401
573.5463,-1.321326,-0.3255657,0.5330806,-2.008467,-0.3359748,-0.01996461
573.561,-1.335736,-0.3255585,0.5331972,-2.008442,-0.3359298,-0.0199652
573.5757,-1.335736,-0.3255585,0.5331972,-2.008442,-0.3359298,-0.0199652
573.5897,-1.349216,-0.3255504,0.5331343,-2.008824,-0.3359253,-0.01996569
573.6051,-1.362054,-0.3255443,0.5330095,-2.009348,-0.3359585,-0.01996621
573.62,-1.374436,-0.325541,0.5328749,-2.009909,-0.3360031,-0.01996674
573.6346,-1.374436,-0.325541,0.5328749,-2.009909,-0.3360031,-0.01996674
573.6487,-1.385751,-0.3255381,0.5325774,-2.010847,-0.3360841,-0.01996718
573.6639,-1.396347,-0.3255371,0.5322363,-2.011891,-0.3361966,-0.01996765
573.6788,-1.396347,-0.3255371,0.5322363,-2.011891,-0.3361966,-0.01996765
573.6929,-1.406447,-0.3255377,0.5319014,-2.012937,-0.336314,-0.01996812
573.7084,-1.416192,-0.3255393,0.5315849,-2.013955,-0.3364272,-0.01996858
573.7255,-1.424946,-0.3255404,0.5311171,-2.015319,-0.3365695,-0.01996895
573.7379,-1.424946,-0.3255404,0.5311171,-2.015319,-0.3365695,-0.01996895
573.7521,-1.43304,-0.3255425,0.5306113,-2.016771,-0.3367407,-0.01996935
573.7677,-1.440684,-0.3255458,0.5301156,-2.018213,-0.3369156,-0.01996976
573.783,-1.448013,-0.3255509,0.5296419,-2.019618,-0.3370852,-0.01997016
573.7972,-1.448013,-0.3255509,0.5296419,-2.019618,-0.3370852,-0.01997016
573.8111,-1.454386,-0.3255553,0.5290205,-2.021358,-0.3372813,-0.01997046
573.8264,-1.46013,-0.3255612,0.5283644,-2.023176,-0.3375056,-0.0199708
573.841,-1.465455,-0.3255691,0.5277222,-2.024974,-0.3377328,-0.01997115
573.8556,-1.465455,-0.3255691,0.5277222,-2.024974,-0.3377328,-0.01997115
573.8699,-1.469766,-0.3255767,0.5269374,-2.027099,-0.337985,-0.01997139
573.8853,-1.473421,-0.3255855,0.5261257,-2.029284,-0.3382636,-0.01997167
573.8997,-1.473421,-0.3255855,0.5261257,-2.029284,-0.3382636,-0.01997167
573.9139,-1.476647,-0.325596,0.5253365,-2.03143,-0.3385422,-0.01997196
573.9294,-1.479591,-0.325608,0.5245811,-2.033511,-0.3388113,-0.01997225
573.9443,-1.481617,-0.3256189,0.523688,-2.035902,-0.3390992,-0.01997243
573.959,-1.481617,-0.3256189,0.523688,-2.035902,-0.3390992,-0.01997243
573.9731,-1.483056,-0.32563,0.522768,-2.038345,-0.3394131,-0.01997264
573.9889,-1.48412,-0.3256417,0.5218704,-2.040745,-0.3397274,-0.01997287
574.0033,-1.484944,-0.325654,0.5210074,-2.043075,-0.3400321,-0.0199731
574.0204,-1.484886,-0.3256644,0.5200081,-2.045709,-0.3403523,-0.01997319
574.0339,-1.484886,-0.3256644,0.5200081,-2.045709,-0.3403523,-0.01997319
574.0473,-1.484274,-0.3256742,0.5189829,-2.048389,-0.340699,-0.01997333
574.0623,-1.483316,-0.3256837,0.5179819,-2.05102,-0.3410458,-0.01997349
574.0771,-1.483316,-0.3256837,0.5179819,-2.05102,-0.3410458,-0.01997349
574.0912,-1.481416,-0.3256909,0.5168481,-2.05395,-0.341407,-0.01997351
574.1064,-1.478932,-0.3256968,0.5156947,-2.056912,-0.3417936,-0.01997358
574.121,-1.476089,-0.3257019,0.5145728,-2.059808,-0.3421784,-0.01997366
574.1359,-1.476089,-0.3257019,0.5145728,-2.059808,-0.3421784,-0.01997366
574.1498,-1.473034,-0.3257065,0.5134947,-2.06261,-0.3425507,-0.01997375
574.1655,-1.469129,-0.3257085,0.5122881,-2.065697,-0.3429292,-0.01997368
574.1802,-1.464707,-0.3257096,0.51106,-2.068811,-0.3433338,-0.01997366
574.195,-1.464707,-0.3257096,0.51106,-2.068811,-0.3433338,-0.01997366
574.2092,-1.459977,-0.3257103,0.5098621,-2.071857,-0.3437377,-0.01997366
574.2248,-1.455073,-0.3257109,0.5087076,-2.074808,-0.3441295,-0.01997367
574.2397,-1.455073,-0.3257109,0.5087076,-2.074808,-0.3441295,-0.01997367
574.2537,-1.449352,-0.3257099,0.5074249,-2.078041,-0.3445241,-0.0199735
574.2703,-1.443142,-0.3257079,0.50612,-2.081299,-0.3449454,-0.01997338
574.2836,-1.436649,-0.325705,0.5048459,-2.084483,-0.3453666,-0.01997328
574.2985,-1.436649,-0.325705,0.5048459,-2.084483,-0.3453666,-0.01997328
574.3126,-1.429278,-0.3256992,0.5034466,-2.087946,-0.3457894,-0.01997301
574.3278,-1.421385,-0.3256911,0.5020306,-2.091419,-0.3462384,-0.01997279
574.3425,-1.413196,-0.3256814,0.5006519,-2.094804,-0.3466858,-0.01997259
574.3572,-1.413196,-0.3256814,0.5006519,-2.094804,-0.3466858,-0.01997259
574.3712,-1.404857,-0.3256705,0.4993244,-2.098074,-0.3471189,-0.01997241
574.3868,-1.395728,-0.3256567,0.4978762,-2.10161,-0.3475442,-0.01997201
574.4012,-1.386142,-0.3256403,0.4964083,-2.105154,-0.347996,-0.01997167
574.416,-1.386142,-0.3256403,0.4964083,-2.105154,-0.347996,-0.01997167
574.4303,-1.376308,-0.3256222,0.4949753,-2.108609,-0.3484478,-0.01997136
574.4459,-1.36636,-0.3256028,0.4935922,-2.111949,-0.3488863,-0.01997107
574.4606,-1.355652,-0.3255804,0.4920885,-2.115556,-0.3493124,-0.01997055
574.4756,-1.355652,-0.3255804,0.4920885,-2.115556,-0.3493124,-0.01997055
574.4897,-1.344512,-0.3255554,0.4905633,-2.119168,-0.3497661,-0.01997008
574.5049,-1.333147,-0.3255284,0.4890726,-2.122689,-0.3502212,-0.01996965
574.5206,-1.321688,-0.3255002,0.4876328,-2.126091,-0.3506633,-0.01996924
574.5344,-1.321688,-0.3255002,0.4876328,-2.126091,-0.3506633,-0.01996924
574.5486,-1.309489,-0.325469,0.4860744,-2.129756,-0.3510877,-0.01996857
574.5638,-1.296876,-0.325435,0.4844936,-2.133423,-0.3515405,-0.01996796
574.5784,-1.296876,-0.325435,0.4844936,-2.133423,-0.3515405,-0.01996796
574.5926,-1.284055,-0.325399,0.4829476,-2.136995,-0.3519956,-0.0199674
574.6082,-1.27043,-0.3253593,0.4812848,-2.140826,-0.3524334,-0.01996659
574.6229,-1.256355,-0.3253163,0.4796044,-2.144647,-0.3528997,-0.01996583
574.6378,-1.256355,-0.3253163,0.4796044,-2.144647,-0.3528997,-0.01996583
574.6517,-1.242056,-0.3252707,0.4779646,-2.148358,-0.3533675,-0.01996513
574.6671,-1.227677,-0.3252234,0.4763827,-2.151934,-0.3538214,-0.01996445
574.682,-1.212578,-0.3251729,0.4746903,-2.155759,-0.3542463,-0.01996349
574.6967,-1.212578,-0.3251729,0.4746903,-2.155759,-0.3542463,-0.01996349
574.7109,-1.197091,-0.3251193,0.4729768,-2.159572,-0.3546992,-0.01996258
574.7266,-1.181424,-0.3250635,0.4713002,-2.163277,-0.3551557,-0.01996173
574.7413,-1.165709,-0.3250063,0.4696793,-2.166849,-0.3555999,-0.01996091
574.7561,-1.165709,-0.3250063,0.4696793,-2.166849,-0.3555999,-0.01996091
574.7715,-1.149302,-0.3249462,0.467948,-2.170671,-0.3560106,-0.01995978
574.7856,-1.132528,-0.3248831,0.4661929,-2.174482,-0.3564505,-0.0199587
574.8001,-1.115594,-0.3248179,0.4644733,-2.178184,-0.3568959,-0.0199577
574.815,-1.115594,-0.3248179,0.4644733,-2.178184,-0.3568959,-0.0199577
574.8292,-1.097902,-0.3247491,0.4626435,-2.182135,-0.35731,-0.01995638
574.8443,-1.079808,-0.3246766,0.4607924,-2.186029,-0.3577571,-0.01995509
574.8592,-1.079808,-0.3246766,0.4607924,-2.186029,-0.3577571,-0.01995509
574.8734,-1.061535,-0.3246013,0.4589289,-2.188378,-0.3583279,-0.01995233
574.889,-1.043227,-0.3245243,0.4571106,-2.18907,-0.358944,-0.01994921
574.9037,-1.024246,-0.3244444,0.455202,-2.189062,-0.3595128,-0.01994604
574.9183,-1.024246,-0.3244444,0.455202,-2.189062,-0.3595128,-0.01994604
574.9324,-1.004921,-0.3243613,0.4532864,-2.188622,-0.3600905,-0.01994333
574.9482,-0.9854599,-0.324276,0.4514237,-2.188061,-0.3606532,-0.0199411
574.9632,-0.965995,-0.3241895,0.4496334,-2.187592,-0.3611891,-0.01993923
574.9778,-0.965995,-0.3241895,0.4496334,-2.187592,-0.3611891,-0.01993923
574.9918,-0.9458813,-0.3241004,0.4477495,-2.187678,-0.3616785,-0.01993723
575.0084,-0.9254438,-0.3240085,0.4458463,-2.187889,-0.36221,-0.01993525
575.0222,-0.904888,-0.3239145,0.4439856,-2.188001,-0.3627632,-0.01993329
575.037,-0.904888,-0.3239145,0.4439856,-2.188001,-0.3627632,-0.01993329
575.051,-0.8836161,-0.3238172,0.4420272,-2.188353,-0.3632931,-0.01993103
575.066,-0.8619829,-0.3237162,0.4400572,-2.188573,-0.3638676,-0.0199288
575.0807,-0.8402129,-0.3236125,0.4381397,-2.188563,-0.3644564,-0.01992667
575.0956,-0.8402129,-0.3236125,0.4381397,-2.188563,-0.3644564,-0.01992667
575.1098,-0.8184479,-0.3235073,0.436299,-2.188382,-0.3650333,-0.01992473
575.1252,-0.7960494,-0.3233995,0.4343714,-2.188525,-0.3655681,-0.0199226
575.1401,-0.7733462,-0.3232889,0.4324329,-2.188656,-0.3661394,-0.01992055
575.1548,-0.7733462,-0.3232889,0.4324329,-2.188656,-0.3661394,-0.01992055
575.1694,-0.7505464,-0.3231761,0.4305437,-2.18865,-0.3667242,-0.01991859
575.1846,-0.7277812,-0.3230624,0.4287277,-2.188517,-0.3672998,-0.01991677
575.1993,-0.7277812,-0.3230624,0.4287277,-2.188517,-0.3672998,-0.01991677
575.2137,-0.7044054,-0.3229468,0.4268217,-2.188712,-0.367838,-0.01991474
575.2291,-0.6807434,-0.3228285,0.4249035,-2.188878,-0.3684147,-0.01991275
575.2448,-0.6570004,-0.3227085,0.4230342,-2.188885,-0.3690056,-0.01991085
575.2585,-0.6570004,-0.3227085,0.4230342,-2.188885,-0.3690056,-0.01991085
575.273,-0.6327503,-0.3225861,0.4211109,-2.189048,-0.3695745,-0.01990881
575.2882,-0.6082827,-0.3224612,0.4192004,-2.18912,-0.370169,-0.01990686
575.3027,-0.5837806,-0.3223347,0.4173496,-2.189042,-0.3707668,-0.01990503
575.3176,-0.5837806,-0.3223347,0.4173496,-2.189042,-0.3707668,-0.01990503
575.3315,-0.5593595,-0.322208,0.4155749,-2.188859,-0.3713497,-0.01990335
575.3472,-0.5350914,-0.3220824,0.4138765,-2.188642,-0.3719102,-0.01990187
575.3619,-0.5110211,-0.3219589,0.4122487,-2.188443,-0.3724484,-0.01990052
575.3771,-0.5110211,-0.3219589,0.4122487,-2.188443,-0.3724484,-0.01990052
575.3909,-0.4871762,-0.3218384,0.410685,-2.188287,-0.3729669,-0.01989931
575.4067,-0.4635727,-0.3217216,0.4091796,-2.18817,-0.3734688,-0.01989818
575.4218,-0.4402201,-0.321609,0.4077284,-2.188081,-0.3739567,-0.01989712
575.4366,-0.4402201,-0.321609,0.4077284,-2.188081,-0.3739567,-0.01989712
575.4506,-0.4171232,-0.3215008,0.4063282,-2.188004,-0.3744317,-0.01989613
575.4659,-0.3942838,-0.3213973,0.4049766,-2.18793,-0.3748947,-0.01989521
575.4819,-0.3717022,-0.3212985,0.4036719,-2.187852,-0.3753457,-0.01989435
575.496,-0.3717022,-0.3212985,0.4036719,-2.187852,-0.3753457,-0.01989435
575.5099,-0.3493773,-0.3212045,0.4024125,-2.187771,-0.3757849,-0.01989357
575.5254,-0.3273075,-0.3211151,0.4011971,-2.187688,-0.3762123,-0.01989286
575.5401,-0.3054906,-0.3210304,0.4000245,-2.187605,-0.3766281,-0.0198922
575.555,-0.3054906,-0.3210304,0.4000245,-2.187605,-0.3766281,-0.0198922
575.5692,-0.2902979,-0.3209709,0.400356,-2.184047,-0.3771293,-0.01989482
575.5845,-0.2793358,-0.3209451,0.4014534,-2.180734,-0.3770793,-0.01989859
575.5993,-0.2793358,-0.3209451,0.4014534,-2.180734,-0.3770793,-0.01989859
575.6136,-0.2710819,-0.320947,0.4027033,-2.178655,-0.3767614,-0.01990215
575.6292,-0.264567,-0.320967,0.4038431,-2.177409,-0.3764215,-0.01990488
575.6445,-0.2591738,-0.3209999,0.4048313,-2.176718,-0.3761236,-0.01990722
575.6591,-0.2591738,-0.3209999,0.4048313,-2.176718,-0.3761236,-0.01990722
575.6731,-0.2545091,-0.3210416,0.4056894,-2.176393,-0.375874,-0.01990934
575.689,-0.2503224,-0.3210889,0.4064501,-2.176303,-0.3756638,-0.01991134
575.7045,-0.246454,-0.3211399,0.4071415,-2.176361,-0.3754823,-0.01991326
575.7185,-0.246454,-0.3211399,0.4071415,-2.176361,-0.3754823,-0.01991326
575.7322,-0.2428401,-0.3337974,0.4068476,-2.179617,-0.3791485,-0.0199239
575.7478,-0.2394827,-0.3540769,0.4072529,-2.183701,-0.3825552,-0.01993297
575.7623,-0.2363393,-0.3789198,0.4080514,-2.187138,-0.3854043,-0.0199394
575.7772,-0.2363393,-0.3789198,0.4080514,-2.187138,-0.3854043,-0.0199394
575.7912,-0.2333576,-0.4056894,0.409001,-2.188567,-0.3876783,-0.01994281
575.8068,-0.2304924,-0.4335211,0.4099264,-2.188404,-0.3896905,-0.01994559
575.8217,-0.2277121,-0.4618793,0.4108289,-2.187472,-0.3914928,-0.01994862
575.8367,-0.2277121,-0.4618793,0.4108289,-2.187472,-0.3914928,-0.01994862
575.8519,-0.2249953,-0.4904323,0.411712,-2.186467,-0.393116,-0.01995207
575.8661,-0.2223247,-0.518213,0.4126279,-2.185568,-0.394361,-0.01995523
575.8807,-0.219689,-0.5453943,0.4134592,-2.185057,-0.3955251,-0.01995862
575.8962,-0.219689,-0.5453943,0.4134592,-2.185057,-0.3955251,-0.01995862
575.9103,-0.2170829,-0.5720835,0.414218,-2.184914,-0.3966666,-0.01996209
575.9269,-0.2145038,-0.5983482,0.4149262,-2.184987,-0.3977948,-0.01996545
575.9407,-0.2119461,-0.6234695,0.4156621,-2.184931,-0.3986656,-0.01996807
575.9556,-0.2119461,-0.6234695,0.4156621,-2.184931,-0.3986656,-0.01996807
575.9695,-0.2094073,-0.6477752,0.4163336,-2.184858,-0.3995225,-0.01997071
575.9847,-0.2068874,-0.6714692,0.416964,-2.184813,-0.4003834,-0.01997341
575.9996,-0.2068874,-0.6714692,0.416964,-2.184813,-0.4003834,-0.01997341
576.0137,-0.2043825,-0.6939173,0.4176352,-2.184604,-0.4009947,-0.01997553
576.0293,-0.2018912,-0.7155,0.418252,-2.184429,-0.4015978,-0.01997779
576.0442,-0.1994151,-0.7364538,0.4188334,-2.184348,-0.4022121,-0.01998015
576.0591,-0.1994151,-0.7364538,0.4188334,-2.184348,-0.4022121,-0.01998015
576.0733,-0.1969559,-0.7569262,0.4193983,-2.184345,-0.402827,-0.0199825
576.0898,-0.1945097,-0.7762477,0.4200152,-2.184183,-0.4031925,-0.01998423
576.1045,-0.1920754,-0.7947779,0.4205825,-2.184039,-0.4035532,-0.01998607
576.1191,-0.1920754,-0.7947779,0.4205825,-2.184039,-0.4035532,-0.01998607
576.1329,-0.1896542,-0.8127394,0.4211169,-2.183972,-0.40393,-0.01998801
576.1496,-0.1872486,-0.8302711,0.4216368,-2.18397,-0.4043124,-0.01998996
576.1636,-0.1848539,-0.8466979,0.4222097,-2.183804,-0.4044513,-0.01999129
576.1782,-0.1848539,-0.8466979,0.4222097,-2.183804,-0.4044513,-0.01999129
576.1923,-0.1824687,-0.8623762,0.4227332,-2.183657,-0.4045916,-0.01999275
576.2078,-0.1800945,-0.8775262,0.4232245,-2.183591,-0.4047544,-0.01999433
576.2227,-0.1777339,-0.8922849,0.423702,-2.183594,-0.4049289,-0.01999592
576.2377,-0.1777339,-0.8922849,0.423702,-2.183594,-0.4049289,-0.01999592
576.2516,-0.1753823,-0.9059758,0.4242325,-2.183434,-0.4048669,-0.01999692
576.2671,-0.1730377,-0.9189546,0.4247137,-2.183294,-0.4048131,-0.01999805
576.2819,-0.1707021,-0.9314411,0.4251631,-2.183234,-0.404788,-0.0199993
576.2969,-0.1707021,-0.9314411,0.4251631,-2.183234,-0.404788,-0.0199993
576.3113,-0.168371,-0.9428092,0.4256564,-2.183049,-0.4045431,-0.02000003
576.3267,-0.166043,-0.9534464,0.4260969,-2.182916,-0.4043197,-0.02000093
576.3418,-0.1637208,-0.9635913,0.4265047,-2.182882,-0.4041358,-0.02000194
576.3564,-0.1637208,-0.9635913,0.4265047,-2.182882,-0.4041358,-0.02000194
576.3729,-0.1614083,-0.9733909,0.4269002,-2.182917,-0.4039783,-0.02000298
576.3861,-0.1591011,-0.9821749,0.4273499,-2.182781,-0.403598,-0.02000343
576.4008,-0.1567973,-0.9903032,0.4277513,-2.182656,-0.4032379,-0.02000403
576.4159,-0.1567973,-0.9903032,0.4277513,-2.182656,-0.4032379,-0.02000403
576.4298,-0.1544993,-0.9979973,0.4281224,-2.182607,-0.4029173,-0.02000477
576.4453,-0.1522112,-1.005393,0.4284825,-2.182622,-0.4026242,-0.02000554
576.4604,-0.1499284,-1.011814,0.4288971,-2.182472,-0.4021111,-0.02000575
576.4752,-0.1499284,-1.011814,0.4288971,-2.182472,-0.4021111,-0.02000575
576.4895,-0.1476485,-1.017615,0.429263,-2.182342,-0.4016219,-0.02000612
576.5049,-0.145374,-1.023015,0.4295985,-2.182295,-0.4011764,-0.02000664
576.5198,-0.145374,-1.023015,0.4295985,-2.182295,-0.4011764,-0.02000664
576.5341,-0.1431012,-1.027386,0.4299788,-2.18212,-0.4005268,-0.02000665
576.5497,-0.1408278,-1.031115,0.4303068,-2.182,-0.3999135,-0.02000685
576.5646,-0.1385577,-1.034439,0.4306033,-2.181963,-0.3993546,-0.02000718
576.5795,-0.1385577,-1.034439,0.4306033,-2.181963,-0.3993546,-0.02000718
576.5957,-0.1362961,-1.037504,0.4308901,-2.181981,-0.3988351,-0.02000753
576.6093,-0.1340393,-1.039637,0.4312338,-2.181834,-0.3981044,-0.02000736
576.624,-0.1317848,-1.041196,0.4315284,-2.181658,-0.3974108,-0.02000728
576.6389,-0.1317848,-1.041196,0.4315284,-2.181658,-0.3974108,-0.02000728
576.6529,-0.1295359,-1.042403,0.4317936,-2.181498,-0.3967718,-0.02000733
576.6687,-0.1272976,-1.043392,0.4320509,-2.18136,-0.3961712,-0.02000743
576.6833,-0.1250662,-1.043483,0.4323657,-2.181046,-0.3953608,-0.02000701
576.698,-0.1250662,-1.043483,0.4323657,-2.181046,-0.3953608,-0.02000701
576.7122,-0.1228388,-1.043035,0.4326311,-2.1807,-0.3945912,-0.02000672
576.728,-0.1206326,-1.04226,0.4328775,-2.180364,-0.393875,-0.02000655
576.7428,-0.1184574,-1.041292,0.4331263,-2.18005,-0.393196,-0.02000643
576.7578,-0.1184574,-1.041292,0.4331263,-2.18005,-0.393196,-0.02000643
576.7719,-0.1163074,-1.03945,0.4334383,-2.179559,-0.3923087,-0.02000581
576.7875,-0.1142007,-1.037088,0.4337208,-2.17903,-0.3914581,-0.0200053
576.8023,-0.1121401,-1.034422,0.4339888,-2.178513,-0.3906615,-0.02000491
576.8187,-0.1121401,-1.034422,0.4339888,-2.178513,-0.3906615,-0.02000491
576.8316,-0.1101143,-1.030821,0.434309,-2.177826,-0.3896742,-0.02000407
576.8469,-0.1081367,-1.026672,0.4345942,-2.17711,-0.3887356,-0.02000336
576.8615,-0.1062067,-1.022207,0.4348619,-2.176418,-0.3878592,-0.0200028
576.8765,-0.1062067,-1.022207,0.4348619,-2.176418,-0.3878592,-0.0200028
576.8904,-0.1043194,-1.017571,0.4351267,-2.175762,-0.3870293,-0.0200023
576.9063,-0.1024611,-1.012088,0.4354452,-2.174943,-0.3860055,-0.02000134
576.921,-0.1006436,-1.006116,0.4357274,-2.174098,-0.3850287,-0.02000051
576.9361,-0.1006436,-1.006116,0.4357274,-2.174098,-0.3850287,-0.02000051
576.9502,-0.0988666,-0.999873,0.4359895,-2.173277,-0.3841141,-0.01999982
576.9656,-0.097126,-0.9934916,0.4362466,-2.172495,-0.3832474,-0.0199992
576.9811,-0.09540913,-0.9862913,0.4365541,-2.17155,-0.3821922,-0.01999813
576.9955,-0.09540913,-0.9862913,0.4365541,-2.17155,-0.3821922,-0.01999813
577.0101,-0.09372762,-0.9786254,0.4368236,-2.170582,-0.3811869,-0.0199972
577.0256,-0.09208159,-0.9707091,0.4370721,-2.169641,-0.380246,-0.01999641
577.0415,-0.09046745,-0.9626742,0.4373147,-2.168741,-0.379355,-0.01999572
577.0554,-0.09046745,-0.9626742,0.4373147,-2.168741,-0.379355,-0.01999572
577.0695,-0.08887344,-0.9538392,0.4376052,-2.167681,-0.378282,-0.01999458
577.0847,-0.08731056,-0.9445563,0.437857,-2.166601,-0.3772616,-0.01999359
577.0996,-0.08731056,-0.9445563,0.437857,-2.166601,-0.3772616,-0.01999359
577.1138,-0.08577911,-0.9350404,0.4380874,-2.165552,-0.3763076,-0.01999274
577.1295,-0.0842685,-0.924661,0.4383579,-2.164347,-0.3751887,-0.01999151
577.1442,-0.08278878,-0.9138013,0.438588,-2.163131,-0.3741322,-0.01999044
577.1592,-0.08278878,-0.9138013,0.438588,-2.163131,-0.3741322,-0.01999044
577.1735,-0.0813396,-0.9026949,0.4387968,-2.161952,-0.373148,-0.01998953
577.189,-0.0799174,-0.8914855,0.439,-2.160826,-0.3722199,-0.01998872
577.2042,-0.07851836,-0.8802606,0.4392033,-2.159749,-0.3713353,-0.01998797
577.2191,-0.07851836,-0.8802606,0.4392033,-2.159749,-0.3713353,-0.01998797
577.233,-0.07713931,-0.8690741,0.4394079,-2.158716,-0.3704866,-0.01998727
577.2495,-0.07577791,-0.8579588,0.4396131,-2.157721,-0.3696693,-0.01998662
577.2634,-0.07443251,-0.8469345,0.4398183,-2.15676,-0.3688807,-0.01998599
577.2784,-0.07443251,-0.8469345,0.4398183,-2.15676,-0.3688807,-0.01998599
577.2923,-0.07310865,-0.8367749,0.4399802,-2.156028,-0.3683265,-0.01998586
577.3079,-0.07179444,-0.827186,0.4401806,-2.155379,-0.3677751,-0.01998564
577.3227,-0.07048688,-0.8179871,0.440401,-2.154755,-0.3672104,-0.01998535
577.3376,-0.07048688,-0.8179871,0.440401,-2.154755,-0.3672104,-0.01998535
577.3517,-0.0691927,-0.809828,0.4405836,-2.154336,-0.3668488,-0.01998548
577.3676,-0.06790297,-0.8023391,0.4408032,-2.153975,-0.3664715,-0.0199855
577.3821,-0.06661656,-0.7952925,0.4410396,-2.153618,-0.3660684,-0.01998542
577.397,-0.06661656,-0.7952925,0.4410396,-2.153618,-0.3660684,-0.01998542
577.4113,-0.06533501,-0.788547,0.4412773,-2.153248,-0.3656537,-0.01998529
577.4276,-0.06406662,-0.7827771,0.4414693,-2.153068,-0.3654418,-0.01998561
577.4419,-0.06280401,-0.7776285,0.4416953,-2.152936,-0.3652128,-0.01998582
577.4567,-0.06280401,-0.7776285,0.4416953,-2.152936,-0.3652128,-0.01998582
577.4731,-0.06154619,-0.7728825,0.4419373,-2.1528,-0.3649552,-0.01998592
577.4865,-0.06029449,-0.7684036,0.4421806,-2.152647,-0.3646821,-0.01998598
577.5013,-0.05905671,-0.7648696,0.4423789,-2.152678,-0.3646069,-0.01998647
577.5157,-0.05905671,-0.7648696,0.4423789,-2.152678,-0.3646069,-0.01998647
577.5302,-0.0578259,-0.7619291,0.4426113,-2.152753,-0.3645104,-0.01998685
577.5454,-0.05660092,-0.7593647,0.4428599,-2.152819,-0.3643814,-0.01998712
577.5604,-0.05538276,-0.7570417,0.4431101,-2.152864,-0.3642327,-0.01998733
577.5754,-0.05538276,-0.7570417,0.4431101,-2.152864,-0.3642327,-0.01998733
577.5893,-0.05417886,-0.7556386,0.4433152,-2.153087,-0.364278,-0.01998797
577.6052,-0.05298261,-0.7548047,0.4435546,-2.153349,-0.3642985,-0.01998849
577.6198,-0.05298261,-0.7548047,0.4435546,-2.153349,-0.3642985,-0.01998849
577.634,-0.05179272,-0.754323,0.4438103,-2.153598,-0.3642826,-0.0199889
577.6498,-0.05061574,-0.7548155,0.4440268,-2.15402,-0.3644459,-0.01998969
577.6643,-0.04945063,-0.755907,0.4442807,-2.15447,-0.3645766,-0.01999035
577.6794,-0.04945063,-0.755907,0.4442807,-2.15447,-0.3645766,-0.01999035
577.6946,-0.04830015,-0.7573605,0.4445547,-2.154894,-0.3646635,-0.01999089
577.7094,-0.04716499,-0.7590294,0.4448325,-2.15528,-0.3647209,-0.01999136
577.7239,-0.0460508,-0.7615847,0.4450649,-2.155834,-0.364966,-0.01999224
577.7387,-0.0460508,-0.7615847,0.4450649,-2.155834,-0.364966,-0.01999224
577.7529,-0.04495689,-0.7646718,0.4453354,-2.156412,-0.3651788,-0.01999299
577.7684,-0.0438815,-0.7680713,0.4456257,-2.156963,-0.3653474,-0.01999363
577.7833,-0.04282279,-0.7716472,0.4459192,-2.157477,-0.3654855,-0.01999419
577.798,-0.04282279,-0.7716472,0.4459192,-2.157477,-0.3654855,-0.01999419
577.8121,-0.04178514,-0.7760772,0.4461658,-2.158158,-0.3658117,-0.01999516
577.8278,-0.04076672,-0.7810114,0.4464502,-2.158862,-0.3661044,-0.01999601
577.8427,-0.0397653,-0.7862329,0.4467543,-2.159538,-0.3663507,-0.01999673
577.8575,-0.0397653,-0.7862329,0.4467543,-2.159538,-0.3663507,-0.01999673
577.8719,-0.03878501,-0.7923694,0.4470175,-2.160376,-0.3667739,-0.01999783
577.8876,-0.03782336,-0.7990399,0.4473203,-2.16123,-0.3671554,-0.01999878
577.9048,-0.0368778,-0.8060086,0.4476427,-2.162048,-0.3674846,-0.0199996
577.9181,-0.0368778,-0.8060086,0.4476427,-2.162048,-0.3674846,-0.0199996
577.9323,-0.03594625,-0.8131294,0.4479676,-2.162818,-0.3677765,-0.02000033
577.9467,-0.03503342,-0.8210734,0.4482425,-2.163747,-0.3682559,-0.02000149
577.9613,-0.03413684,-0.8294876,0.4485549,-2.16469,-0.3686974,-0.0200025
577.9777,-0.03413684,-0.8294876,0.4485549,-2.16469,-0.3686974,-0.0200025
577.9903,-0.0332542,-0.8381531,0.4488872,-2.165599,-0.3690874,-0.02000338
578.006,-0.03238373,-0.8469341,0.449223,-2.16646,-0.3694392,-0.02000417
578.0209,-0.03153075,-0.8565088,0.449508,-2.16748,-0.3699807,-0.02000539
578.0356,-0.03153075,-0.8565088,0.449508,-2.16748,-0.3699807,-0.02000539
578.0499,-0.03069253,-0.8665282,0.4498315,-2.168514,-0.3704834,-0.02000648
578.0652,-0.02986686,-0.8767762,0.4501759,-2.169511,-0.3709323,-0.02000742
578.0803,-0.02905208,-0.8871189,0.4505244,-2.170459,-0.371341,-0.02000827
578.0953,-0.02905208,-0.8871189,0.4505244,-2.170459,-0.371341,-0.02000827
578.1095,-0.02825403,-0.8982351,0.4508209,-2.171563,-0.3719411,-0.02000956
578.1249,-0.02746964,-0.9097773,0.4511565,-2.17268,-0.3725012,-0.0200107
578.141,-0.02669664,-0.9215298,0.4515138,-2.173759,-0.3730053,-0.0200117
578.1547,-0.02669664,-0.9215298,0.4515138,-2.173759,-0.3730053,-0.0200117
578.1692,-0.02594077,-0.9341206,0.4518252,-2.17499,-0.3736908,-0.02001309
578.1844,-0.02519824,-0.9471709,0.4521781,-2.176227,-0.374328,-0.02001433
578.1989,-0.02519824,-0.9471709,0.4521781,-2.176227,-0.374328,-0.02001433
578.2131,-0.0244665,-0.9604453,0.4525531,-2.177417,-0.3749035,-0.02001541
578.2287,-0.02374395,-0.9737982,0.4529323,-2.178549,-0.3754322,-0.02001639
578.2435,-0.02303735,-0.9879012,0.4532555,-2.17983,-0.376155,-0.02001781
578.2584,-0.02303735,-0.9879012,0.4532555,-2.17983,-0.376155,-0.02001781
578.2729,-0.02234264,-1.002403,0.4536181,-2.181118,-0.3768348,-0.02001908
578.2885,-0.02165739,-1.017085,0.4540033,-2.182361,-0.3774539,-0.0200202
578.3033,-0.02098024,-1.031812,0.4543892,-2.18343,-0.378036,-0.02002108
578.3182,-0.02098024,-1.031812,0.4543892,-2.18343,-0.378036,-0.02002108
578.3322,-0.02031866,-1.047263,0.4547054,-2.18421,-0.3788472,-0.020022
578.348,-0.01966799,-1.06309,0.455063,-2.184511,-0.3796273,-0.02002259
578.3638,-0.01902577,-1.079079,0.4554562,-2.184436,-0.380334,-0.02002303
578.3777,-0.01902577,-1.079079,0.4554562,-2.184436,-0.380334,-0.02002303
578.3917,-0.01839939,-1.095856,0.4558145,-2.184392,-0.3812025,-0.02002403
578.4071,-0.01778327,-1.113045,0.4562236,-2.184321,-0.3820008,-0.0200249
578.4219,-0.01717476,-1.130411,0.4566603,-2.184221,-0.3827167,-0.02002564
578.4368,-0.01717476,-1.130411,0.4566603,-2.184221,-0.3827167,-0.02002564
578.4509,-0.01657267,-1.147808,0.457104,-2.184117,-0.3833681,-0.0200263
578.4665,-0.01598571,-1.165907,0.4574906,-2.184236,-0.3842038,-0.02002743
578.4816,-0.01540769,-1.184359,0.4579134,-2.184361,-0.3849913,-0.02002833
578.4963,-0.01540769,-1.184359,0.4579134,-2.184361,-0.3849913,-0.02002833
578.5106,-0.01483606,-1.202946,0.4583572,-2.184403,-0.3857114,-0.02002901
578.5261,-0.01426989,-1.221533,0.4588072,-2.184364,-0.3863734,-0.02002958
578.5414,-0.01371865,-1.240798,0.4592027,-2.184489,-0.3872203,-0.02003062
578.5558,-0.01371865,-1.240798,0.4592027,-2.184489,-0.3872203,-0.02003062
578.5703,-0.01317516,-1.260396,0.4596363,-2.18459,-0.3880171,-0.02003144
578.5867,-0.01263689,-1.280112,0.4600924,-2.184603,-0.3887437,-0.02003206
578.6003,-0.01210313,-1.299813,0.4605554,-2.184542,-0.3894098,-0.02003259
578.6152,-0.01210313,-1.299813,0.4605554,-2.184542,-0.3894098,-0.02003259
578.6292,-0.01158396,-1.32017,0.4609649,-2.184657,-0.390257,-0.02003358
578.6445,-0.01107119,-1.340842,0.4614107,-2.184757,-0.391054,-0.02003435
578.6592,-0.01107119,-1.340842,0.4614107,-2.184757,-0.391054,-0.02003435
578.6735,-0.01056245,-1.361617,0.4618775,-2.184774,-0.3917811,-0.02003493
578.689,-0.009881761,-1.369756,0.4632344,-2.181227,-0.3885794,-0.02002681
578.7038,-0.009135298,-1.370066,0.4638377,-2.177661,-0.3855661,-0.02002178
578.7186,-0.009135298,-1.370066,0.4638377,-2.177661,-0.3855661,-0.02002178
578.7326,-0.008327648,-1.365584,0.4638862,-2.174551,-0.3832602,-0.02001845
578.7482,-0.007546392,-1.358194,0.4637782,-2.171946,-0.3814422,-0.02001612
578.7632,-0.006821947,-1.349064,0.4636881,-2.169762,-0.3799051,-0.02001422
578.778,-0.006821947,-1.349064,0.4636881,-2.169762,-0.3799051,-0.02001422
578.7921,-0.00615155,-1.33891,0.4636573,-2.167895,-0.3785307,-0.02001251
578.8092,-0.005522822,-1.328173,0.4636789,-2.166256,-0.3772594,-0.02001088
578.8226,-0.00492375,-1.317124,0.463736,-2.164778,-0.3760613,-0.02000931
578.8373,-0.00492375,-1.317124,0.463736,-2.164778,-0.3760613,-0.02000931
578.8513,-0.004345319,-1.305931,0.4638215,-2.163416,-0.3749294,-0.02000782
578.8665,-0.003781429,-1.294699,0.4639269,-2.162138,-0.3738438,-0.02000638
578.8812,-0.003228145,-1.28349,0.464042,-2.160923,-0.3727975,-0.02000497
578.8961,-0.003228145,-1.28349,0.464042,-2.160923,-0.3727975,-0.02000497
578.9103,-0.002682968,-1.272345,0.4634404,-2.159677,-0.370886,-0.02000087
578.9255,-0.002144378,-1.261288,0.4620144,-2.158457,-0.3691415,-0.01999728
578.9405,-0.001611437,-1.250333,0.4601384,-2.157289,-0.3676403,-0.01999439
578.9553,-0.001611437,-1.250333,0.4601384,-2.157289,-0.3676403,-0.01999439
578.9696,-0.001083566,-1.239488,0.4580615,-2.156176,-0.366299,-0.01999191
578.9851,-0.0005603961,-1.228758,0.4551803,-2.155029,-0.3641526,-0.01998694
578.9999,-0.0005603961,-1.228758,0.4551803,-2.155029,-0.3641526,-0.01998694
579.0142,-4.173903E-05,-1.218146,0.4514537,-2.15391,-0.3622118,-0.01998261
579.0297,0.000472517,-1.207653,0.4472886,-2.152846,-0.3605333,-0.01997902
579.0454,0.0009824354,-1.197278,0.4429465,-2.151837,-0.3590257,-0.0199759
579.0592,0.0009824354,-1.197278,0.4429465,-2.151837,-0.3590257,-0.0199759
579.0735,0.001488068,-1.187022,0.4378195,-2.150797,-0.35672,-0.01997034
579.0889,0.001989407,-1.176884,0.4318735,-2.149789,-0.3546333,-0.01996545
579.1036,0.002486445,-1.166862,0.4255205,-2.148837,-0.3528168,-0.01996132
579.1183,0.002486445,-1.166862,0.4255205,-2.148837,-0.3528168,-0.01996132
579.1323,0.002979192,-1.156955,0.4182785,-2.147863,-0.3502712,-0.01995499
579.1478,0.00346762,-1.147164,0.4101871,-2.14693,-0.3479881,-0.01994945
579.1625,0.003951708,-1.137485,0.4016944,-2.146059,-0.345998,-0.01994473
579.1773,0.003951708,-1.137485,0.4016944,-2.146059,-0.345998,-0.01994473
579.1913,0.004431442,-1.127918,0.3930768,-2.145249,-0.3441984,-0.01994054
579.2073,0.004906828,-1.118462,0.3837177,-2.144416,-0.3416142,-0.01993403
579.222,0.005377837,-1.109116,0.3735923,-2.143622,-0.3392727,-0.01992824
579.2368,0.005377837,-1.109116,0.3735923,-2.143622,-0.3392727,-0.01992824
579.2507,0.005844451,-1.099878,0.3631206,-2.142889,-0.3372161,-0.01992325
579.2662,0.00630666,-1.090747,0.3525647,-2.142215,-0.3353484,-0.01991879
579.2821,0.006764474,-1.081723,0.341294,-2.141519,-0.3326968,-0.01991205
579.2969,0.006764474,-1.081723,0.341294,-2.141519,-0.3326968,-0.01991205
579.3099,0.007217872,-1.072803,0.3292846,-2.140862,-0.3302959,-0.01990605
579.3253,0.007666843,-1.063987,0.3169585,-2.140267,-0.3281845,-0.01990086
579.3399,0.007666843,-1.063987,0.3169585,-2.140267,-0.3281845,-0.01990086
579.3544,0.008111401,-1.055273,0.3038146,-2.139656,-0.3253567,-0.01989363
579.3698,0.00855153,-1.04666,0.2899013,-2.139092,-0.3228193,-0.01988726
579.3843,0.008987225,-1.038148,0.2756751,-2.138593,-0.3205918,-0.01988173
579.399,0.008987225,-1.038148,0.2756751,-2.138593,-0.3205918,-0.01988173
579.4133,0.009418488,-1.029735,0.2614114,-2.138156,-0.3185687,-0.01987678
579.4291,0.009845341,-1.02142,0.2464742,-2.137701,-0.3157722,-0.01986966
579.4437,0.01026778,-1.013202,0.2308468,-2.137289,-0.3132434,-0.01986332
579.4586,0.01026778,-1.013202,0.2308468,-2.137289,-0.3132434,-0.01986332
579.473,0.0106858,-1.00508,0.2149566,-2.136939,-0.3110149,-0.01985782
579.4888,0.01109941,-0.997052,0.1990649,-2.136647,-0.3089875,-0.01985286
579.5036,0.01150864,-0.989118,0.1825252,-2.136337,-0.3061865,-0.0198458
579.5194,0.01150864,-0.989118,0.1825252,-2.136337,-0.3061865,-0.0198458
579.5327,0.0119135,-0.9812768,0.1653197,-2.13607,-0.3036577,-0.01983952
579.548,0.01231398,-0.973527,0.1478766,-2.135861,-0.3014317,-0.01983407
579.5625,0.0127101,-0.9658679,0.1304567,-2.13571,-0.2994092,-0.01982917
579.5776,0.0127101,-0.9658679,0.1304567,-2.13571,-0.2994092,-0.01982917
579.5914,0.0131019,-0.9582983,0.1124094,-2.135539,-0.296615,-0.01982222
579.6074,0.01348939,-0.9508172,0.0937181,-2.135411,-0.2940975,-0.01981605
579.6218,0.01387257,-0.9434236,0.0748123,-2.13534,-0.2918856,-0.01981071
579.6369,0.01387257,-0.9434236,0.0748123,-2.13534,-0.2918856,-0.01981071
579.6511,0.01425148,-0.9361166,0.05517626,-2.135255,-0.2889684,-0.01980356
579.6664,0.01462614,-0.9288952,0.03486376,-2.135216,-0.2863638,-0.01979727
579.6812,0.01499655,-0.9217585,0.01433707,-2.135237,-0.2840833,-0.01979185
579.6964,0.01499655,-0.9217585,0.01433707,-2.135237,-0.2840833,-0.01979185
579.7105,0.01536275,-0.9147053,-0.006129554,-2.135313,-0.2820189,-0.019787
579.7258,0.01572478,-0.9077349,-0.02718476,-2.135371,-0.2791913,-0.01978024
579.7418,0.01608264,-0.9008463,-0.04884233,-2.135469,-0.2766501,-0.01977427
579.756,0.01608264,-0.9008463,-0.04884233,-2.135469,-0.2766501,-0.01977427
579.77,0.01643637,-0.8940385,-0.07067025,-2.135622,-0.2744218,-0.01976912
579.7852,0.01678599,-0.8873106,-0.092408,-2.135825,-0.2724054,-0.01976453
579.7997,0.01678599,-0.8873106,-0.092408,-2.135825,-0.2724054,-0.01976453
579.8141,0.01713153,-0.8806618,-0.1139333,-2.136071,-0.2705356,-0.01976033
579.8297,0.01747301,-0.874091,-0.1351938,-2.136356,-0.2687804,-0.01975643
579.8444,0.01781048,-0.8675975,-0.156169,-2.136674,-0.2671235,-0.01975277
579.8597,0.01781048,-0.8675975,-0.156169,-2.136674,-0.2671235,-0.01975277
579.8738,0.01814396,-0.8611804,-0.176852,-2.137022,-0.2655564,-0.01974936
579.8892,0.01847348,-0.8548387,-0.1972425,-2.137399,-0.2640741,-0.01974617
579.9041,0.01879907,-0.8485716,-0.2173423,-2.137801,-0.262673,-0.01974319
579.9191,0.01879907,-0.8485716,-0.2173423,-2.137801,-0.262673,-0.01974319
579.9332,0.01912078,-0.8423783,-0.2371545,-2.138227,-0.2613502,-0.01974042
579.9489,0.01943863,-0.8362579,-0.2566825,-2.138675,-0.2601031,-0.01973783
579.9647,0.01975266,-0.8302096,-0.27593,-2.139143,-0.2589295,-0.01973543
579.9785,0.01975266,-0.8302096,-0.27593,-2.139143,-0.2589295,-0.01973543
579.9927,0.0200629,-0.8242326,-0.2949007,-2.139631,-0.257827,-0.01973321
580.0081,0.02036939,-0.818326,-0.3135982,-2.140135,-0.2567935,-0.01973116
580.0228,0.02067216,-0.812489,-0.3320264,-2.140655,-0.2558269,-0.01972928
580.0378,0.02067216,-0.812489,-0.3320264,-2.140655,-0.2558269,-0.01972928
580.0518,0.02097125,-0.8067209,-0.3501888,-2.14119,-0.2549251,-0.01972755
580.0671,0.02126669,-0.8010208,-0.368089,-2.141738,-0.2540863,-0.01972597
580.0822,0.02155853,-0.7953879,-0.3857307,-2.142298,-0.2533084,-0.01972454
580.097,0.02155853,-0.7953879,-0.3857307,-2.142298,-0.2533084,-0.01972454
580.1127,0.02184679,-0.7898216,-0.4031174,-2.142868,-0.2525896,-0.01972325
580.127,0.02213152,-0.7843209,-0.4202527,-2.143448,-0.2519282,-0.01972209
580.1418,0.02241275,-0.7788852,-0.43714,-2.144037,-0.2513222,-0.01972106
580.1569,0.02241275,-0.7788852,-0.43714,-2.144037,-0.2513222,-0.01972106
580.1711,0.02269051,-0.7735137,-0.4537829,-2.144633,-0.2507701,-0.01972015
580.1878,0.02296485,-0.7682056,-0.4701847,-2.145235,-0.2502701,-0.01971937
580.2013,0.0232358,-0.7629603,-0.4863487,-2.145843,-0.2498206,-0.0197187
580.216,0.0232358,-0.7629603,-0.4863487,-2.145843,-0.2498206,-0.0197187
580.2302,0.02350339,-0.7577769,-0.5022785,-2.146455,-0.24942,-0.01971814
580.2457,0.02376767,-0.7526549,-0.5179772,-2.147071,-0.2490668,-0.01971768
580.2604,0.02402867,-0.7475933,-0.5334481,-2.14769,-0.2487595,-0.01971733
580.2755,0.02402867,-0.7475933,-0.5334481,-2.14769,-0.2487595,-0.01971733
580.2896,0.02428643,-0.7425917,-0.5486945,-2.14831,-0.2484966,-0.01971707
580.3052,0.02454098,-0.7376492,-0.5637195,-2.148932,-0.2482767,-0.01971691
580.3201,0.02479236,-0.7327652,-0.5785264,-2.149555,-0.2480984,-0.01971684
580.3348,0.02479236,-0.7327652,-0.5785264,-2.149555,-0.2480984,-0.01971684
580.3489,0.0250406,-0.727939,-0.5931181,-2.150177,-0.2479604,-0.01971685
580.3647,0.02528575,-0.7231699,-0.6074979,-2.150799,-0.2478614,-0.01971694
580.3797,0.02528575,-0.7231699,-0.6074979,-2.150799,-0.2478614,-0.01971694
580.3937,0.02552783,-0.7184572,-0.6216686,-2.151419,-0.2478,-0.01971712
580.4102,0.02576688,-0.7138004,-0.6356335,-2.152037,-0.247775,-0.01971736
580.4241,0.02600295,-0.7091987,-0.6493953,-2.152653,-0.2477852,-0.01971768
580.4388,0.02600295,-0.7091987,-0.6493953,-2.152653,-0.2477852,-0.01971768
580.4529,0.02623606,-0.7046515,-0.662957,-2.153265,-0.2478295,-0.01971808
580.4682,0.02646624,-0.7001582,-0.6763214,-2.153874,-0.2479066,-0.01971853
580.4828,0.02669354,-0.6957181,-0.6894916,-2.15448,-0.2480155,-0.01971905
580.4979,0.02669354,-0.6957181,-0.6894916,-2.15448,-0.2480155,-0.01971905
580.5118,0.02691799,-0.6913307,-0.7024701,-2.155081,-0.2481551,-0.01971963
580.5275,0.02713962,-0.6869952,-0.7152599,-2.155677,-0.2483243,-0.01972027
580.5423,0.02735846,-0.6827111,-0.7278635,-2.156268,-0.248522,-0.01972098
580.5571,0.02735846,-0.6827111,-0.7278635,-2.156268,-0.248522,-0.01972098
580.5717,0.02757456,-0.6784778,-0.7402837,-2.156853,-0.2487472,-0.01972173
580.5869,0.02778794,-0.6742948,-0.7525232,-2.157433,-0.248999,-0.01972253
580.6022,0.02799863,-0.6701613,-0.7645846,-2.158006,-0.2492765,-0.01972338
580.6166,0.02799863,-0.6701613,-0.7645846,-2.158006,-0.2492765,-0.01972338
580.6327,0.02820668,-0.6660769,-0.7764704,-2.158574,-0.2495786,-0.01972428
580.6473,0.0284121,-0.6620409,-0.7881833,-2.159134,-0.2499044,-0.01972523
580.6611,0.02861495,-0.6580528,-0.7997257,-2.159688,-0.2502531,-0.01972621
580.6759,0.02861495,-0.6580528,-0.7997257,-2.159688,-0.2502531,-0.01972621
580.6899,0.02881523,-0.654112,-0.8111,-2.160234,-0.2506238,-0.01972724
580.7054,0.029013,-0.650218,-0.8223088,-2.160774,-0.2510157,-0.0197283
580.7201,0.02920828,-0.6463702,-0.8333544,-2.161305,-0.2514279,-0.01972941
580.7347,0.02920828,-0.6463702,-0.8333544,-2.161305,-0.2514279,-0.01972941
580.7489,0.02940109,-0.6425681,-0.8442391,-2.161829,-0.2518596,-0.01973055
580.7645,0.02959148,-0.6388111,-0.8549654,-2.162345,-0.2523102,-0.01973174
580.7795,0.02959148,-0.6388111,-0.8549654,-2.162345,-0.2523102,-0.01973174
580.7934,0.02977947,-0.6350988,-0.8655356,-2.162854,-0.2527787,-0.01973295
580.809,0.02996509,-0.6314304,-0.8759519,-2.163354,-0.2532645,-0.01973419
580.824,0.03014837,-0.6278057,-0.8862165,-2.163846,-0.2537668,-0.01973546
580.839,0.03014837,-0.6278057,-0.8862165,-2.163846,-0.2537668,-0.01973546
580.8528,0.03032934,-0.6242241,-0.8963315,-2.16433,-0.2542849,-0.01973676
580.8695,0.03050804,-0.6206849,-0.9062994,-2.164805,-0.2548183,-0.01973809
580.8831,0.03068448,-0.6171879,-0.916122,-2.165272,-0.2553661,-0.01973944
580.8985,0.03068448,-0.6171879,-0.916122,-2.165272,-0.2553661,-0.01973944
580.912,0.0308587,-0.6137323,-0.9258016,-2.16573,-0.2559279,-0.01974082
580.9274,0.03103073,-0.6103179,-0.9353403,-2.16618,-0.2565028,-0.01974222
580.9421,0.03120059,-0.606944,-0.9447401,-2.166622,-0.2570903,-0.01974364
580.957,0.03120059,-0.606944,-0.9447401,-2.166622,-0.2570903,-0.01974364
580.971,0.03136832,-0.6036102,-0.9540029,-2.167054,-0.2576899,-0.01974509
580.9865,0.03153393,-0.600316,-0.9631309,-2.167478,-0.2583009,-0.01974655
581.0013,0.03169746,-0.597061,-0.9721259,-2.167894,-0.2589228,-0.01974804
581.0161,0.03169746,-0.597061,-0.9721259,-2.167894,-0.2589228,-0.01974804
581.0304,0.03185892,-0.5938447,-0.9809899,-2.1683,-0.259555,-0.01974954
581.046,0.03201836,-0.5906665,-0.9897248,-2.168698,-0.260197,-0.01975105
581.061,0.0321758,-0.5875262,-0.9983324,-2.169088,-0.2608483,-0.01975258
581.0756,0.0321758,-0.5875262,-0.9983324,-2.169088,-0.2608483,-0.01975258
581.0898,0.03233125,-0.5844232,-1.006815,-2.169468,-0.2615083,-0.01975413
581.1063,0.03248475,-0.5813572,-1.015173,-2.169841,-0.2621767,-0.01975569
581.1201,0.03263632,-0.5783275,-1.02341,-2.170204,-0.2628528,-0.01975727
581.1349,0.03263632,-0.5783275,-1.02341,-2.170204,-0.2628528,-0.01975727
581.1487,0.03278599,-0.575334,-1.031527,-2.170559,-0.2635363,-0.01975886
581.1642,0.03293377,-0.572376,-1.039526,-2.170906,-0.2642267,-0.01976046
581.1779,0.03293377,-0.572376,-1.039526,-2.170906,-0.2642267,-0.01976046
581.1911,0.0330797,-0.5694532,-1.047408,-2.171244,-0.2649236,-0.01976207
581.2058,0.0332238,-0.5665652,-1.055175,-2.171573,-0.2656265,-0.01976369
581.2199,0.0332238,-0.5665652,-1.055175,-2.171573,-0.2656265,-0.01976369
581.2334,0.03336609,-0.5637115,-1.062829,-2.171894,-0.266335,-0.01976532
581.2485,0.03350659,-0.5608917,-1.070372,-2.172207,-0.2670487,-0.01976696
581.2628,0.03364533,-0.5581056,-1.077804,-2.172512,-0.2677673,-0.01976861
581.2775,0.03364533,-0.5581056,-1.077804,-2.172512,-0.2677673,-0.01976861
581.2913,0.03378233,-0.5553526,-1.085129,-2.172809,-0.2684903,-0.01977027
581.3066,0.03391762,-0.5526323,-1.092346,-2.173097,-0.2692174,-0.01977193
581.3211,0.03405121,-0.5499444,-1.099458,-2.173378,-0.2699483,-0.01977359
581.3358,0.03405121,-0.5499444,-1.099458,-2.173378,-0.2699483,-0.01977359
581.3499,0.03418312,-0.5472885,-1.106467,-2.17365,-0.2706825,-0.01977527
581.365,0.03431338,-0.5446642,-1.113373,-2.173915,-0.2714198,-0.01977695
581.3796,0.03431338,-0.5446642,-1.113373,-2.173915,-0.2714198,-0.01977695
581.3937,0.03444202,-0.5420712,-1.120179,-2.174172,-0.2721598,-0.01977863
581.4092,0.03456904,-0.5395089,-1.126885,-2.174421,-0.2729023,-0.01978031
581.4258,0.03469447,-0.5369772,-1.133494,-2.174663,-0.2736468,-0.019782
581.4407,0.03481834,-0.5344757,-1.140006,-2.174897,-0.2743932,-0.0197837
581.4543,0.03481834,-0.5344757,-1.140006,-2.174897,-0.2743932,-0.0197837
581.4684,0.03494066,-0.5320039,-1.146423,-2.175123,-0.2751411,-0.01978539
581.4827,0.03506145,-0.5295615,-1.152747,-2.175343,-0.2758903,-0.0197871
581.4979,0.03506145,-0.5295615,-1.152747,-2.175343,-0.2758903,-0.0197871
581.5118,0.03518073,-0.5271482,-1.158978,-2.175555,-0.2766404,-0.01978879
581.5272,0.03529852,-0.5247637,-1.165118,-2.17576,-0.2773913,-0.01979049
581.5419,0.03541484,-0.5224075,-1.171169,-2.175958,-0.2781427,-0.0197922
581.5567,0.03541484,-0.5224075,-1.171169,-2.175958,-0.2781427,-0.0197922
581.571,0.03552971,-0.5200794,-1.177131,-2.176149,-0.2788942,-0.0197939
581.5866,0.03564315,-0.5177791,-1.183006,-2.176333,-0.2796459,-0.0197956
581.6012,0.03575517,-0.5155061,-1.188796,-2.176511,-0.2803972,-0.0197973
581.6162,0.03575517,-0.5155061,-1.188796,-2.176511,-0.2803972,-0.0197973
581.6312,0.03586579,-0.5132602,-1.194501,-2.176681,-0.2811482,-0.019799
581.6467,0.03597504,-0.511041,-1.200123,-2.176846,-0.2818984,-0.0198007
581.6633,0.03608293,-0.5088482,-1.205662,-2.177003,-0.2826479,-0.0198024
581.6771,0.03608293,-0.5088482,-1.205662,-2.177003,-0.2826479,-0.0198024
581.6902,0.03618948,-0.5066816,-1.211121,-2.177155,-0.2833962,-0.0198041
581.7057,0.0362947,-0.5045408,-1.2165,-2.1773,-0.2841434,-0.01980579
581.7205,0.03639861,-0.5024255,-1.221799,-2.177439,-0.2848896,-0.01980748
581.7352,0.03639861,-0.5024255,-1.221799,-2.177439,-0.2848896,-0.01980748
581.7494,0.03650123,-0.5003354,-1.227021,-2.177572,-0.2856341,-0.01980918
581.765,0.03660257,-0.4982702,-1.232166,-2.177699,-0.2863768,-0.01981086
581.7798,0.03660257,-0.4982702,-1.232166,-2.177699,-0.2863768,-0.01981086
581.7939,0.03670266,-0.4962296,-1.236532,-2.177886,-0.2880147,-0.01981481
581.8096,0.03680149,-0.4942133,-1.240002,-2.178083,-0.2895274,-0.01981843
581.8243,0.0368991,-0.492221,-1.242947,-2.178268,-0.290827,-0.0198215
581.8391,0.0368991,-0.492221,-1.242947,-2.178268,-0.290827,-0.0198215
581.853,0.03699549,-0.4902524,-1.245619,-2.178435,-0.2919929,-0.01982424
581.8691,0.03709069,-0.4883073,-1.247447,-2.178654,-0.2939824,-0.0198291
581.8834,0.03718471,-0.4863854,-1.248369,-2.178879,-0.295809,-0.01983353
581.9001,0.03727756,-0.4844863,-1.248784,-2.179086,-0.2973989,-0.01983735
581.9138,0.03727756,-0.4844863,-1.248784,-2.179086,-0.2973989,-0.01983735
581.927,0.03736926,-0.4826099,-1.248952,-2.179274,-0.2988381,-0.0198408
581.9425,0.03745983,-0.4807559,-1.248309,-2.179513,-0.3010864,-0.01984638
581.9572,0.03745983,-0.4807559,-1.248309,-2.179513,-0.3010864,-0.01984638
581.9714,0.03754928,-0.4789239,-1.246795,-2.179756,-0.3031611,-0.01985149
581.9868,0.03763761,-0.4771138,-1.244805,-2.179981,-0.3049881,-0.01985597
582.0017,0.03772486,-0.4753253,-1.242603,-2.180185,-0.3066535,-0.01986004
582.0165,0.03772486,-0.4753253,-1.242603,-2.180185,-0.3066535,-0.01986004
582.0306,0.03781104,-0.473558,-1.239623,-2.180439,-0.3091165,-0.01986625
582.0461,0.03789615,-0.4718118,-1.235807,-2.180698,-0.3113976,-0.01987197
582.061,0.0379802,-0.4700865,-1.231547,-2.180938,-0.3134217,-0.01987702
582.0758,0.0379802,-0.4700865,-1.231547,-2.180938,-0.3134217,-0.01987702
582.09,0.03806322,-0.4683816,-1.22641,-2.181226,-0.3161691,-0.01988406
582.1056,0.03814522,-0.4666972,-1.220407,-2.181516,-0.3186927,-0.01989049
582.1199,0.03814522,-0.4666972,-1.220407,-2.181516,-0.3186927,-0.01989049
582.1362,0.03822621,-0.4650327,-1.213965,-2.181783,-0.3209344,-0.01989619
582.1504,0.0383062,-0.4633881,-1.207359,-2.182023,-0.3229882,-0.01990141
582.1644,0.03838522,-0.4617631,-1.200037,-2.182313,-0.3258163,-0.0199088
582.1791,0.03838522,-0.4617631,-1.200037,-2.182313,-0.3258163,-0.0199088
582.1931,0.03846326,-0.4601575,-1.191943,-2.182509,-0.3284544,-0.01991555
582.2087,0.03854034,-0.458571,-1.183464,-2.182569,-0.3308228,-0.01992155
582.2236,0.03861648,-0.4570034,-1.17486,-2.182528,-0.3330018,-0.01992706
582.24,0.03861648,-0.4570034,-1.17486,-2.182528,-0.3330018,-0.01992706
582.2525,0.03869169,-0.4554545,-1.16557,-2.18252,-0.3359464,-0.01993483
582.2681,0.03876597,-0.4539241,-1.155534,-2.182513,-0.3386872,-0.01994203
582.2827,0.03883935,-0.4524119,-1.145139,-2.182488,-0.341147,-0.01994849
582.2979,0.03883935,-0.4524119,-1.145139,-2.182488,-0.341147,-0.01994849
582.3118,0.03891183,-0.4509177,-1.133956,-2.182523,-0.3443031,-0.019957
582.3276,0.03898343,-0.4494413,-1.121994,-2.182556,-0.3472173,-0.01996482
582.342,0.03905415,-0.4479825,-1.109673,-2.18255,-0.3498287,-0.0199718
582.3568,0.03905415,-0.4479825,-1.109673,-2.18255,-0.3498287,-0.0199718
582.3729,0.03912401,-0.4465412,-1.097268,-2.182513,-0.3522296,-0.01997823
582.3873,0.03919302,-0.4451169,-1.084229,-2.18254,-0.3553802,-0.01998693
582.4011,0.03926119,-0.4437097,-1.070496,-2.182571,-0.3583163,-0.019995
582.4158,0.03926119,-0.4437097,-1.070496,-2.182571,-0.3583163,-0.019995
582.4299,0.03932853,-0.4423192,-1.056455,-2.182569,-0.3609602,-0.02000225
582.4454,0.03939505,-0.4409453,-1.042366,-2.182534,-0.3633954,-0.02000894
582.4603,0.03946077,-0.4395878,-1.027673,-2.182564,-0.3665781,-0.02001794
582.4752,0.03946077,-0.4395878,-1.027673,-2.182564,-0.3665781,-0.02001794
582.4894,0.03952568,-0.4382464,-1.012312,-2.182598,-0.3695441,-0.02002629
582.505,0.03958981,-0.4369211,-0.996667,-2.182595,-0.3722143,-0.02003378
582.5195,0.03958981,-0.4369211,-0.996667,-2.182595,-0.3722143,-0.02003378
582.5336,0.03965317,-0.4356115,-0.9803113,-2.182639,-0.3755631,-0.02004341
582.5492,0.03971576,-0.4343175,-0.9632515,-2.182669,-0.3786567,-0.02005226
582.5638,0.03977758,-0.433039,-0.9459038,-2.182654,-0.3814323,-0.02006019
582.5787,0.03977758,-0.433039,-0.9459038,-2.182654,-0.3814323,-0.02006019
582.5926,0.03983867,-0.4317757,-0.9285408,-2.182603,-0.3839814,-0.02006752
582.6093,0.03989902,-0.4305274,-0.9106174,-2.182624,-0.3872631,-0.0200772
582.624,0.03995864,-0.429294,-0.8920716,-2.182653,-0.390319,-0.02008617
582.6381,0.03995864,-0.429294,-0.8920716,-2.182653,-0.390319,-0.02008617
582.6518,0.04001754,-0.4280753,-0.8732854,-2.182648,-0.3930699,-0.02009424
582.6672,0.04007573,-0.4268712,-0.8545156,-2.182609,-0.3955986,-0.02010169
582.682,0.04013323,-0.4256813,-0.8358996,-2.182554,-0.39796,-0.02010871
582.6968,0.04013323,-0.4256813,-0.8358996,-2.182554,-0.39796,-0.02010871
582.7109,0.04019003,-0.4245057,-0.8174982,-2.182501,-0.4002004,-0.02011544
582.7267,0.04024616,-0.423344,-0.7993325,-2.18246,-0.4023398,-0.02012191
582.7413,0.04030161,-0.4221963,-0.7814091,-2.182432,-0.4043876,-0.02012815
582.7562,0.04030161,-0.4221963,-0.7814091,-2.182432,-0.4043876,-0.02012815
582.7703,0.0403564,-0.4210622,-0.7637287,-2.182412,-0.4063493,-0.02013416
582.7856,0.04041053,-0.4199416,-0.74629,-2.182396,-0.4082285,-0.02013994
582.8004,0.04046401,-0.4188343,-0.7290902,-2.18238,-0.4100279,-0.02014552
582.8151,0.04046401,-0.4188343,-0.7290902,-2.18238,-0.4100279,-0.02014552
582.8297,0.04051676,-0.4177404,-0.7125655,-2.17171,-0.4127297,-0.02013621
582.8469,0.04056886,-0.4166595,-0.6960487,-2.155003,-0.4152323,-0.02013292
582.8605,0.04062035,-0.4155914,-0.6795192,-2.135574,-0.4174067,-0.02013204
582.8745,0.04062035,-0.4155914,-0.6795192,-2.135574,-0.4174067,-0.02013204
582.8888,0.04067126,-0.4145361,-0.6630363,-2.115005,-0.4193177,-0.02013218
582.9044,0.04072158,-0.4134933,-0.6466739,-2.09281,-0.4211212,-0.0201312
582.9187,0.04072158,-0.4134933,-0.6466739,-2.09281,-0.4211212,-0.0201312
582.9329,0.04077134,-0.4124629,-0.6303788,-2.069889,-0.4227105,-0.02013104
582.9485,0.04082054,-0.4114447,-0.6141671,-2.046795,-0.4240927,-0.02013116
582.9633,0.04086918,-0.4104386,-0.598057,-2.023792,-0.425285,-0.02013137
582.9784,0.04086918,-0.4104386,-0.598057,-2.023792,-0.425285,-0.02013137
582.9923,0.04091728,-0.4094444,-0.5820907,-1.999762,-0.4263877,-0.02013019
583.0079,0.04096483,-0.4084621,-0.5662299,-1.975302,-0.4272877,-0.02012949
583.0226,0.04101185,-0.4074914,-0.5504948,-1.950824,-0.4279976,-0.02012896
583.0377,0.04101185,-0.4074914,-0.5504948,-1.950824,-0.4279976,-0.02012896
583.0515,0.04105833,-0.4065323,-0.5349202,-1.925279,-0.4286065,-0.0201272
583.0668,0.04110429,-0.4055846,-0.5194824,-1.899301,-0.4290199,-0.0201259
583.0826,0.04114975,-0.4046481,-0.5041995,-1.873315,-0.4292575,-0.02012476
583.0976,0.04114975,-0.4046481,-0.5041995,-1.873315,-0.4292575,-0.02012476
583.1106,0.0411947,-0.4037227,-0.4890835,-1.847524,-0.429336,-0.02012368
583.126,0.04123913,-0.4028084,-0.4741524,-1.820779,-0.4293164,-0.02012147
583.141,0.04128307,-0.4019049,-0.4593965,-1.793664,-0.4291352,-0.02011965
583.1556,0.04128307,-0.4019049,-0.4593965,-1.793664,-0.4291352,-0.02011965
583.1699,0.04132653,-0.4010121,-0.4448267,-1.766585,-0.4288119,-0.020118
583.1854,0.04136949,-0.4001299,-0.4304496,-1.739731,-0.428361,-0.02011643
583.1999,0.04136949,-0.4001299,-0.4304496,-1.739731,-0.428361,-0.02011643
583.2141,0.04141198,-0.3992582,-0.4162705,-1.713045,-0.4277973,-0.02011476
583.2297,0.04145398,-0.3983968,-0.4022923,-1.68663,-0.4271263,-0.02011315
583.2444,0.04149551,-0.3975458,-0.3885181,-1.660549,-0.4263577,-0.02011157
583.2592,0.04149551,-0.3975458,-0.3885181,-1.660549,-0.4263577,-0.02011157
583.2736,0.04153656,-0.3967048,-0.3749498,-1.634827,-0.4255,-0.02011001
583.2891,0.04157714,-0.3958738,-0.3615889,-1.609476,-0.4245607,-0.02010847
583.3036,0.04161725,-0.3950527,-0.3484364,-1.584497,-0.4235466,-0.02010702
583.3193,0.04161725,-0.3950527,-0.3484364,-1.584497,-0.4235466,-0.02010702
583.3333,0.04165689,-0.3942414,-0.3354926,-1.55989,-0.4224639,-0.02010562
583.3481,0.04169606,-0.3934397,-0.3227578,-1.535651,-0.4213182,-0.02010429
583.3627,0.04173477,-0.3926477,-0.3102316,-1.511776,-0.4201147,-0.02010297
583.3779,0.04173477,-0.3926477,-0.3102316,-1.511776,-0.4201147,-0.02010297
583.3917,0.04177301,-0.391865,-0.2979138,-1.488261,-0.418858,-0.02010163
583.4073,0.04181078,-0.3910917,-0.2858036,-1.465101,-0.4175523,-0.02010028
583.4223,0.04184809,-0.3903276,-0.2739004,-1.442292,-0.4162015,-0.02009894
583.4371,0.04184809,-0.3903276,-0.2739004,-1.442292,-0.4162015,-0.02009894
583.4512,0.04188494,-0.3895727,-0.2622031,-1.419828,-0.414809,-0.02009764
583.4666,0.04192134,-0.3888267,-0.2507108,-1.397706,-0.4133778,-0.02009637
583.4814,0.04195727,-0.3880897,-0.2394224,-1.37592,-0.4119109,-0.02009515
583.4968,0.04195727,-0.3880897,-0.2394224,-1.37592,-0.4119109,-0.02009515
583.5107,0.04199276,-0.3873615,-0.2283369,-1.354466,-0.4104109,-0.02009396
583.526,0.04202779,-0.386642,-0.2174532,-1.33334,-0.4088804,-0.02009282
583.5419,0.04206238,-0.3859311,-0.20677,-1.312536,-0.407322,-0.02009172
583.5569,0.04206238,-0.3859311,-0.20677,-1.312536,-0.407322,-0.02009172
583.5704,0.04209652,-0.3852287,-0.1962861,-1.292051,-0.4057384,-0.02009067
583.5856,0.04213022,-0.3845347,-0.1859999,-1.271879,-0.4041325,-0.02008965
583.6003,0.04216349,-0.3838491,-0.17591,-1.252017,-0.4025076,-0.02008866
583.6149,0.04216349,-0.3838491,-0.17591,-1.252017,-0.4025076,-0.02008866
583.6293,0.04219632,-0.3831716,-0.1660144,-1.232459,-0.400867,-0.0200877
583.6449,0.04222873,-0.3825022,-0.1563113,-1.213203,-0.3992144,-0.02008676
583.6597,0.04222873,-0.3825022,-0.1563113,-1.213203,-0.3992144,-0.02008676
583.674,0.04226072,-0.3818409,-0.1467985,-1.194242,-0.3975533,-0.02008584
583.6898,0.04229229,-0.3811875,-0.1374736,-1.175574,-0.3958875,-0.02008493
583.7045,0.04232344,-0.3805419,-0.1283343,-1.157194,-0.3942205,-0.02008403
583.7194,0.04232344,-0.3805419,-0.1283343,-1.157194,-0.3942205,-0.02008403
583.7332,0.04235419,-0.3799041,-0.1193778,-1.139097,-0.392556,-0.02008313
583.749,0.04238454,-0.3792739,-0.1106016,-1.12128,-0.3908972,-0.02008224
583.7657,0.04241448,-0.3786512,-0.1020028,-1.103739,-0.3892474,-0.02008136
583.7796,0.04241448,-0.3786512,-0.1020028,-1.103739,-0.3892474,-0.02008136
583.7926,0.04244404,-0.378036,-0.09357872,-1.086469,-0.3876094,-0.02008047
583.8083,0.0424732,-0.3774282,-0.0853264,-1.069466,-0.385986,-0.02007957
583.8231,0.04250199,-0.3768277,-0.07724299,-1.052728,-0.3843797,-0.02007867
583.8379,0.04250199,-0.3768277,-0.07724299,-1.052728,-0.3843797,-0.02007867
583.8519,0.04253039,-0.3762344,-0.06932561,-1.036249,-0.3827927,-0.02007776
583.8675,0.04255842,-0.3756481,-0.06157137,-1.020026,-0.3812273,-0.02007684
583.8824,0.04258609,-0.3750689,-0.0539774,-1.004055,-0.3796851,-0.02007591
583.8973,0.04258609,-0.3750689,-0.0539774,-1.004055,-0.3796851,-0.02007591
583.9113,0.04261339,-0.3744967,-0.04654081,-0.9883329,-0.3781678,-0.02007497
583.9268,0.04264034,-0.3739313,-0.03925876,-0.9728552,-0.3766771,-0.02007402
583.9418,0.04266693,-0.3733726,-0.0321284,-0.9576184,-0.375214,-0.02007306
583.9565,0.04266693,-0.3733726,-0.0321284,-0.9576184,-0.375214,-0.02007306
583.9706,0.04269317,-0.3728207,-0.02514695,-0.9426191,-0.37378,-0.02007208
583.9859,0.04271907,-0.3722754,-0.01831162,-0.9278536,-0.3723758,-0.02007108
584.0019,0.04274464,-0.3717366,-0.01161965,-0.9133184,-0.3710024,-0.02007008
584.0156,0.04274464,-0.3717366,-0.01161965,-0.9133184,-0.3710024,-0.02007008
584.0298,0.04276987,-0.3712043,-0.005068329,-0.89901,-0.3696606,-0.02006906
584.0453,0.04279477,-0.3706783,0.001345031,-0.8849249,-0.368351,-0.02006803
584.0601,0.04281934,-0.3701587,0.007623094,-0.8710599,-0.3670741,-0.02006698
584.0748,0.04281934,-0.3701587,0.007623094,-0.8710599,-0.3670741,-0.02006698
584.0893,0.0428436,-0.3696452,0.01376847,-0.8574115,-0.3658304,-0.02006592
584.1047,0.04286754,-0.369138,0.01978376,-0.8439764,-0.3646201,-0.02006484
584.1194,0.04286754,-0.369138,0.01978376,-0.8439764,-0.3646201,-0.02006484
584.1338,0.04289117,-0.3686368,0.02567151,-0.8307514,-0.3634435,-0.02006375
584.1495,0.04291449,-0.3681416,0.03143425,-0.8177333,-0.3623008,-0.02006264
584.1642,0.04293752,-0.3676523,0.03707446,-0.8049189,-0.3611921,-0.02006151
584.179,0.04293752,-0.3676523,0.03707446,-0.8049189,-0.3611921,-0.02006151
584.1931,0.04296024,-0.3671689,0.04259458,-0.7923051,-0.3601174,-0.02006036
584.2086,0.04298268,-0.3666913,0.04799703,-0.7798887,-0.3590767,-0.02005919
584.2246,0.04300482,-0.3662194,0.0532842,-0.7676668,-0.35807,-0.02005801
584.2399,0.04300482,-0.3662194,0.0532842,-0.7676668,-0.35807,-0.02005801
584.2525,0.04302667,-0.3657532,0.05845842,-0.7556364,-0.357097,-0.02005681
584.268,0.04304825,-0.3652925,0.063522,-0.7437945,-0.3561577,-0.02005559
584.2826,0.04306955,-0.3648374,0.06847724,-0.7321382,-0.3552518,-0.02005434
584.2977,0.04306955,-0.3648374,0.06847724,-0.7321382,-0.3552518,-0.02005434
584.3119,0.04309057,-0.3643877,0.07332635,-0.7206647,-0.354379,-0.02005308
584.3274,0.04311133,-0.3639434,0.07807156,-0.7093711,-0.353539,-0.0200518
584.3423,0.04313182,-0.3635044,0.08271502,-0.6982546,-0.3527316,-0.02005049
584.3572,0.04313182,-0.3635044,0.08271502,-0.6982546,-0.3527316,-0.02005049
584.3715,0.04315205,-0.3630706,0.08725889,-0.6873126,-0.3519564,-0.02004916
584.3902,0.04317202,-0.3626421,0.09170527,-0.6765423,-0.351213,-0.02004781
584.4039,0.04319173,-0.3622186,0.09605622,-0.6659409,-0.350501,-0.02004644
584.4171,0.04319173,-0.3622186,0.09605622,-0.6659409,-0.350501,-0.02004644
584.4306,0.0432112,-0.3618003,0.1003138,-0.655506,-0.34982,-0.02004504
584.4472,0.04323041,-0.361387,0.10448,-0.6452349,-0.3491695,-0.02004362
584.4609,0.04324939,-0.3609785,0.1085568,-0.6351251,-0.3485491,-0.02004217
584.4757,0.04324939,-0.3609785,0.1085568,-0.6351251,-0.3485491,-0.02004217
584.49,0.04326812,-0.360575,0.1125461,-0.625174,-0.3479583,-0.02004069
584.5054,0.04328661,-0.3601763,0.1164499,-0.6153793,-0.3473967,-0.02003918
584.5205,0.04330487,-0.3597824,0.12027,-0.6057384,-0.3468637,-0.02003765
584.5352,0.04330487,-0.3597824,0.12027,-0.6057384,-0.3468637,-0.02003765
584.5491,0.0433229,-0.3593932,0.1240082,-0.596249,-0.3463589,-0.02003609
584.5647,0.0433407,-0.3590087,0.1276665,-0.5869087,-0.3458817,-0.0200345
584.5795,0.0433407,-0.3590087,0.1276665,-0.5869087,-0.3458817,-0.0200345
584.5937,0.04335828,-0.3586287,0.1312465,-0.5777152,-0.3454316,-0.02003288
584.6093,0.04337563,-0.3582534,0.13475,-0.5686661,-0.3450082,-0.02003124
584.6241,0.04339277,-0.3578824,0.1381788,-0.5597593,-0.3446109,-0.02002956
584.639,0.04339277,-0.3578824,0.1381788,-0.5597593,-0.3446109,-0.02002956
584.6535,0.04340969,-0.357516,0.1415345,-0.5509924,-0.3442391,-0.02002785
584.6684,0.0434264,-0.3571539,0.1448188,-0.5423635,-0.3438925,-0.0200261
584.6842,0.0434429,-0.3567961,0.1480484,-0.5340146,-0.3435912,-0.02002464
584.6982,0.0434429,-0.3567961,0.1480484,-0.5340146,-0.3435912,-0.02002464
584.7123,0.04345919,-0.3564426,0.1512087,-0.5258814,-0.3433149,-0.02002303
584.728,0.04347528,-0.3560934,0.1542982,-0.5179166,-0.3430576,-0.02002132
584.7424,0.04349117,-0.3557483,0.1573198,-0.5100966,-0.3428187,-0.02001955
584.7573,0.04349117,-0.3557483,0.1573198,-0.5100966,-0.3428187,-0.02001955
584.7715,0.04350688,-0.3554074,0.1604148,-0.503637,-0.3427834,-0.0200209
584.787,0.04352239,-0.3550705,0.1634392,-0.4980004,-0.3427784,-0.02002093
584.8019,0.04353772,-0.3547377,0.1663658,-0.4927993,-0.3427534,-0.02002041
584.8168,0.04353772,-0.3547377,0.1663658,-0.4927993,-0.3427534,-0.02002041
584.831,0.04355287,-0.3544088,0.1693514,-0.4890747,-0.3428979,-0.02002306
584.8464,0.04356784,-0.3540839,0.1722598,-0.4862064,-0.3430443,-0.02002421
584.8611,0.04358262,-0.3537628,0.1750726,-0.4837665,-0.3431508,-0.02002474
584.8763,0.04358262,-0.3537628,0.1750726,-0.4837665,-0.3431508,-0.02002474
584.8904,0.04359722,-0.3534456,0.1778085,-0.4815496,-0.3432242,-0.020025
584.907,0.04361165,-0.3531322,0.1806356,-0.4806842,-0.3434713,-0.02002874
584.9206,0.04362591,-0.3528225,0.1834097,-0.4805923,-0.3437212,-0.02003091
584.9355,0.04362591,-0.3528225,0.1834097,-0.4805923,-0.3437212,-0.02003091
584.9495,0.04364,-0.3525165,0.186107,-0.4808671,-0.3439294,-0.02003242
584.965,0.04365391,-0.3522142,0.1887432,-0.4813131,-0.344101,-0.02003365
584.9799,0.04365391,-0.3522142,0.1887432,-0.4813131,-0.344101,-0.02003365
584.994,0.04366767,-0.3519155,0.1914845,-0.4830645,-0.3444418,-0.02003833
585.0098,0.04368126,-0.3516203,0.1941837,-0.4855461,-0.3447788,-0.02004139
585.0248,0.04369469,-0.3513287,0.1968163,-0.4883527,-0.3450675,-0.02004375
585.0395,0.04369469,-0.3513287,0.1968163,-0.4883527,-0.3450675,-0.02004375
585.0538,0.04370809,-0.3510406,0.2006709,-0.5019812,-0.3469754,-0.02007634
585.0694,0.04372136,-0.350756,0.2043267,-0.5217263,-0.3488719,-0.02009484
585.084,0.04373446,-0.3504747,0.207543,-0.5442036,-0.3503388,-0.02010719
585.099,0.04373446,-0.3504747,0.207543,-0.5442036,-0.3503388,-0.02010719
585.113,0.04374739,-0.3501968,0.2104624,-0.5677925,-0.3514245,-0.02011657
585.1295,0.04376014,-0.3499223,0.2132415,-0.5917163,-0.352245,-0.02012423
585.1433,0.04377273,-0.349651,0.2159815,-0.6156035,-0.352891,-0.02013071
585.1583,0.04377273,-0.349651,0.2159815,-0.6156035,-0.352891,-0.02013071
585.1724,0.04378517,-0.3493829,0.2187352,-0.6392779,-0.3534206,-0.0201363
585.1878,0.04379747,-0.349118,0.2215253,-0.6626574,-0.3538691,-0.02014113
585.2027,0.04380963,-0.3488563,0.2269199,-0.6856862,-0.3580859,-0.02014969
585.2174,0.04380963,-0.3488563,0.2269199,-0.6856862,-0.3580859,-0.02014969
585.2318,0.04382166,-0.3485976,0.2327245,-0.7083436,-0.3637104,-0.02015425
585.2476,0.04383356,-0.3483421,0.2381819,-0.7306411,-0.3696331,-0.02015748
585.2622,0.04384534,-0.3480896,0.2432032,-0.7525927,-0.3755091,-0.02016021
585.277,0.04384534,-0.3480896,0.2432032,-0.7525927,-0.3755091,-0.02016021
585.2913,0.04385701,-0.34784,0.2467778,-0.7742166,-0.3794259,-0.02016123
585.307,0.04386856,-0.3475934,0.2500272,-0.795521,-0.3826061,-0.02016339
585.3215,0.04387999,-0.3473497,0.2532991,-0.816503,-0.3855763,-0.02016554
585.3365,0.04387999,-0.3473497,0.2532991,-0.816503,-0.3855763,-0.02016554
585.3528,0.04389131,-0.3471089,0.2555587,-0.8371693,-0.3865158,-0.02016626
585.3661,0.04390253,-0.3468709,0.2578602,-0.8575261,-0.3868696,-0.02016792
585.3808,0.04391363,-0.3466357,0.2603981,-0.8775665,-0.3871523,-0.0201694
585.3958,0.04391363,-0.3466357,0.2603981,-0.8775665,-0.3871523,-0.0201694
585.41,0.04392462,-0.3464034,0.2631056,-0.8972884,-0.3874616,-0.02017054
585.4255,0.04393551,-0.3461737,0.2648756,-0.9167036,-0.3856449,-0.02017063
585.4404,0.0439463,-0.3459468,0.2668011,-0.9358233,-0.3833939,-0.0201715
585.4564,0.0439463,-0.3459468,0.2668011,-0.9358233,-0.3833939,-0.0201715
585.4695,0.04395698,-0.3457225,0.2689921,-0.9546404,-0.3811765,-0.02017215
585.4852,0.04396756,-0.3455009,0.2713503,-0.9731536,-0.3790427,-0.02017249
585.5,0.04397804,-0.345282,0.2728323,-0.9913749,-0.3746495,-0.02017223
585.5149,0.04397804,-0.345282,0.2728323,-0.9913749,-0.3746495,-0.02017223
585.5291,0.04398843,-0.3450655,0.2745622,-1.009317,-0.3699971,-0.02017252
585.5447,0.04399871,-0.3448517,0.2765591,-1.026971,-0.3654681,-0.02017254
585.5594,0.04399871,-0.3448517,0.2765591,-1.026971,-0.3654681,-0.02017254
585.575,0.04400891,-0.3446403,0.2778068,-1.044343,-0.3586302,-0.02017217
585.5892,0.044019,-0.3444315,0.2793874,-1.061446,-0.3516983,-0.02017212
585.6041,0.044029,-0.3442251,0.2812392,-1.07827,-0.3449594,-0.02017177
585.6185,0.044029,-0.3442251,0.2812392,-1.07827,-0.3449594,-0.02017177
585.6328,0.04403891,-0.3440211,0.2832388,-1.094816,-0.3383929,-0.02017119
585.6484,0.04404873,-0.3438196,0.2845175,-1.111094,-0.3294201,-0.02017056
585.6633,0.04405846,-0.3436204,0.2861301,-1.127117,-0.3205157,-0.02017003
585.6781,0.04405846,-0.3436204,0.2861301,-1.127117,-0.3205157,-0.02017003
585.6924,0.04406809,-0.3434236,0.2879671,-1.142878,-0.3118468,-0.02016922
585.7082,0.04407763,-0.3432291,0.2899236,-1.158377,-0.3033821,-0.02016822
585.7229,0.0440871,-0.3430369,0.2912596,-1.173623,-0.2924842,-0.02016735
585.7378,0.0440871,-0.3430369,0.2912596,-1.173623,-0.2924842,-0.02016735
585.7518,0.04409647,-0.342847,0.2929216,-1.188629,-0.2817918,-0.02016638
585.7676,0.04410575,-0.3426593,0.2947699,-1.203389,-0.2713669,-0.02016517
585.7821,0.04411494,-0.3424738,0.2967171,-1.217903,-0.2611784,-0.02016379
585.7979,0.04411494,-0.3424738,0.2967171,-1.217903,-0.2611784,-0.02016379
585.8119,0.04412406,-0.3422905,0.2981496,-1.232179,-0.2485767,-0.0201626
585.8265,0.04413308,-0.3421094,0.2998743,-1.246229,-0.2362678,-0.0201612
585.8411,0.04414202,-0.3419304,0.3017503,-1.260047,-0.2242502,-0.0201596
585.8568,0.04414202,-0.3419304,0.3017503,-1.260047,-0.2242502,-0.0201596
585.8703,0.04415089,-0.3417535,0.3032173,-1.273636,-0.2098753,-0.02015816
585.8857,0.04415966,-0.3415787,0.3049566,-1.287009,-0.1958451,-0.02015647
585.9005,0.04416835,-0.3414059,0.3068315,-1.300161,-0.1821351,-0.0201546
585.9153,0.04416835,-0.3414059,0.3068315,-1.300161,-0.1821351,-0.0201546
585.9296,0.04417696,-0.3412353,0.3087784,-1.313097,-0.1687223,-0.02015259
585.9452,0.04418549,-0.3410665,0.3103789,-1.325817,-0.1529987,-0.02015072
585.9598,0.04418549,-0.3410665,0.3103789,-1.325817,-0.1529987,-0.02015072
585.9741,0.04419394,-0.3408999,0.3121915,-1.338336,-0.137639,-0.02014866
585.9898,0.04420231,-0.3407351,0.3141069,-1.350651,-0.1226141,-0.02014647
586.0044,0.04421059,-0.3405724,0.3160757,-1.362766,-0.1079061,-0.02014419
586.0212,0.0442188,-0.3404115,0.3177726,-1.374679,-0.09093861,-0.02014199
586.0349,0.0442188,-0.3404115,0.3177726,-1.374679,-0.09093861,-0.02014199
586.0479,0.04422693,-0.3402525,0.3196363,-1.386405,-0.07434471,-0.02013966
586.0635,0.04423498,-0.3400954,0.3215786,-1.397943,-0.05810015,-0.02013727
586.0781,0.04423498,-0.3400954,0.3215786,-1.397943,-0.05810015,-0.02013727
586.0928,0.04424296,-0.3399402,0.3233142,-1.409289,-0.03964358,-0.0201349
586.1078,0.04425086,-0.3397868,0.3251945,-1.420458,-0.02158008,-0.02013246
586.1226,0.04425867,-0.3396352,0.3271423,-1.431451,-0.00388906,-0.02012999
586.1378,0.04425867,-0.3396352,0.3271423,-1.431451,-0.00388906,-0.02012999
586.1516,0.04426641,-0.3394854,0.3291233,-1.442271,0.0134425,-0.02012752
586.1672,0.04427408,-0.3393374,0.3309412,-1.452913,0.03295355,-0.02012507
586.1818,0.04428167,-0.3391911,0.3328628,-1.463392,0.05206358,-0.02012262
586.1968,0.04428167,-0.3391911,0.3328628,-1.463392,0.05206358,-0.02012262
586.2111,0.04428918,-0.3390466,0.3348314,-1.47371,0.07078759,-0.0201202
586.2264,0.04429662,-0.3389038,0.3368217,-1.48387,0.08913639,-0.02011782
586.2411,0.04430399,-0.3387626,0.3386999,-1.493867,0.1096369,-0.02011547
586.2579,0.04430399,-0.3387626,0.3386999,-1.493867,0.1096369,-0.02011547
586.271,0.04431128,-0.3386232,0.3406511,-1.503713,0.1297254,-0.02011318
586.2855,0.04431849,-0.3384854,0.3426338,-1.513413,0.1494135,-0.02011096
586.3002,0.04432563,-0.3383492,0.3446298,-1.522969,0.1687109,-0.02010883
586.3151,0.04432563,-0.3383492,0.3446298,-1.522969,0.1687109,-0.02010883
586.3292,0.04433271,-0.3382146,0.3465608,-1.532375,0.1901378,-0.02010675
586.3447,0.0443397,-0.3380816,0.3485377,-1.541644,0.2111402,-0.02010479
586.3596,0.0443397,-0.3380816,0.3485377,-1.541644,0.2111402,-0.02010479
586.3739,0.04434662,-0.3379502,0.350533,-1.550779,0.2317279,-0.02010294
586.3895,0.04435348,-0.3378204,0.352502,-1.559775,0.2544195,-0.02010118
586.4043,0.04436027,-0.337692,0.354501,-1.568643,0.2766647,-0.02009956
586.4192,0.04436027,-0.337692,0.354501,-1.568643,0.2766647,-0.02009956
586.4332,0.04436697,-0.3375652,0.3565109,-1.577386,0.2984729,-0.02009808
586.449,0.04437361,-0.33744,0.3585228,-1.586008,0.319853,-0.02009674
586.4636,0.04438018,-0.3373161,0.3605473,-1.594504,0.3433239,-0.02009554
586.4785,0.04438018,-0.3373161,0.3605473,-1.594504,0.3433239,-0.02009554
586.494,0.04438668,-0.3371938,0.362577,-1.602884,0.3663356,-0.0200945
586.5083,0.04439311,-0.3370729,0.3646058,-1.61115,0.3888972,-0.0200936
586.5231,0.04439946,-0.3369535,0.3666303,-1.619305,0.4110177,-0.02009286
586.5421,0.04440575,-0.3368354,0.3686485,-1.627351,0.4327061,-0.02009225
586.5526,0.04440575,-0.3368354,0.3686485,-1.627351,0.4327061,-0.02009225
586.5668,0.04441196,-0.3367188,0.370659,-1.63529,0.4539711,-0.02009179
586.5824,0.04441811,-0.3366036,0.3726607,-1.643123,0.4748214,-0.02009146
586.5973,0.04441811,-0.3366036,0.3726607,-1.643123,0.4748214,-0.02009146
586.6115,0.04442418,-0.3364898,0.3745585,-1.650855,0.4927474,-0.02009116
586.6273,0.04443018,-0.3363773,0.3764677,-1.658485,0.5103258,-0.020091
586.6419,0.04443612,-0.3362662,0.3783742,-1.666012,0.5275627,-0.02009095
586.6568,0.04443612,-0.3362662,0.3783742,-1.666012,0.5275627,-0.02009095
586.6711,0.04444198,-0.3361564,0.3802714,-1.673439,0.5444647,-0.020091
586.6868,0.04444778,-0.3360479,0.3820181,-1.680766,0.5585124,-0.02009098
586.7013,0.04445351,-0.3359407,0.3837903,-1.687992,0.5722913,-0.02009109
586.7172,0.04445351,-0.3359407,0.3837903,-1.687992,0.5722913,-0.02009109
586.7304,0.04445917,-0.3358348,0.3855644,-1.69512,0.5858044,-0.02009128
586.746,0.04446477,-0.3357301,0.3873298,-1.70215,0.5990561,-0.02009155
586.7608,0.04447029,-0.3356267,0.3888995,-1.709081,0.6095154,-0.02009166
586.7756,0.04447029,-0.3356267,0.3888995,-1.709081,0.6095154,-0.02009166
586.7897,0.04447575,-0.3355246,0.39051,-1.715914,0.6197792,-0.02009188
586.8056,0.04448115,-0.3354236,0.3921283,-1.722651,0.6298476,-0.02009217
586.8203,0.04448649,-0.3353239,0.3937396,-1.729294,0.6397224,-0.02009252
586.8353,0.04448649,-0.3353239,0.3937396,-1.729294,0.6397224,-0.02009252
586.8494,0.04449176,-0.3352253,0.3951122,-1.735838,0.646859,-0.02009263
586.8646,0.04449696,-0.335128,0.3965418,-1.742286,0.6538688,-0.02009285
586.8796,0.04449696,-0.335128,0.3965418,-1.742286,0.6538688,-0.02009285
586.894,0.04450211,-0.3350318,0.3979864,-1.748641,0.6607482,-0.02009313
586.9094,0.04450718,-0.3349367,0.39917,-1.754899,0.6649397,-0.02009314
586.9243,0.04451219,-0.3348428,0.4004274,-1.761061,0.669065,-0.02009327
586.9397,0.04451219,-0.3348428,0.4004274,-1.761061,0.669065,-0.02009327
586.9531,0.04451715,-0.3347501,0.4017076,-1.767134,0.6731176,-0.02009345
586.9688,0.04452205,-0.3346584,0.402988,-1.773117,0.6770949,-0.02009366
586.9835,0.04452688,-0.3345678,0.403959,-1.779005,0.6784265,-0.02009353
586.9982,0.04452688,-0.3345678,0.403959,-1.779005,0.6784265,-0.02009353
587.0125,0.04453165,-0.3344783,0.4050179,-1.784799,0.6797501,-0.02009351
587.0281,0.04453636,-0.3343899,0.4061071,-1.790507,0.6810574,-0.02009355
587.0432,0.04454102,-0.3343026,0.4072005,-1.796129,0.6823434,-0.02009362
587.058,0.04454102,-0.3343026,0.4072005,-1.796129,0.6823434,-0.02009362
587.0723,0.04454562,-0.3342163,0.4079467,-1.801658,0.6810244,-0.0200933
587.0879,0.04455015,-0.334131,0.4087988,-1.807095,0.6797511,-0.0200931
587.1026,0.04455464,-0.3340468,0.4096909,-1.81245,0.6785146,-0.02009295
587.1174,0.04455464,-0.3340468,0.4096909,-1.81245,0.6785146,-0.02009295
587.1316,0.04455905,-0.3339635,0.4102238,-1.817713,0.6747173,-0.02009242
587.1479,0.04456342,-0.3338813,0.4108829,-1.822888,0.6710162,-0.020092
587.1629,0.04456773,-0.3338,0.4115935,-1.827982,0.667402,-0.02009166
587.1766,0.04456773,-0.3338,0.4115935,-1.827982,0.667402,-0.02009166
587.1907,0.044572,-0.3337197,0.4123206,-1.832998,0.6638647,-0.02009134
587.2062,0.04457619,-0.3336404,0.4126416,-1.837927,0.6578002,-0.02009058
587.2209,0.04458034,-0.3335621,0.4131011,-1.842769,0.651874,-0.02008992
587.2359,0.04458034,-0.3335621,0.4131011,-1.842769,0.651874,-0.02008992
587.2501,0.04458444,-0.3334846,0.4136203,-1.847534,0.6460807,-0.02008935
587.2657,0.04458848,-0.3334081,0.4141618,-1.852225,0.6404083,-0.0200888
587.2806,0.04459247,-0.3333326,0.4142661,-1.856833,0.632245,-0.0200878
587.2956,0.04459247,-0.3333326,0.4142661,-1.856833,0.632245,-0.0200878
587.3098,0.04459641,-0.3332579,0.4145264,-1.861356,0.6242583,-0.0200869
587.3251,0.0446003,-0.3331841,0.4148578,-1.865807,0.6164485,-0.02008608
587.3401,0.04460414,-0.3331112,0.4152188,-1.870189,0.6088009,-0.02008529
587.355,0.04460414,-0.3331112,0.4152188,-1.870189,0.6088009,-0.02008529
587.369,0.04460792,-0.3330392,0.4151147,-1.874491,0.5986986,-0.02008405
587.3854,0.04461166,-0.3329681,0.4151836,-1.878712,0.5888063,-0.02008289
587.3992,0.04461166,-0.3329681,0.4151836,-1.878712,0.5888063,-0.02008289
587.4135,0.04461534,-0.3328978,0.4153353,-1.882865,0.5791323,-0.02008181
587.429,0.04461898,-0.3328283,0.4150247,-1.886943,0.5670493,-0.02008034
587.4437,0.04462256,-0.3327597,0.4149094,-1.890942,0.5552136,-0.02007892
587.4586,0.04462256,-0.3327597,0.4149094,-1.890942,0.5552136,-0.02007892
587.473,0.04462611,-0.3326919,0.4148909,-1.894876,0.5436385,-0.02007763
587.4886,0.04462961,-0.3326249,0.414918,-1.89875,0.5323042,-0.02007638
587.5035,0.04463305,-0.3325588,0.4144398,-1.902554,0.5185893,-0.02007472
587.5183,0.04463305,-0.3325588,0.4144398,-1.902554,0.5185893,-0.02007472
587.5328,0.04463645,-0.3324934,0.4141631,-1.906282,0.5051439,-0.02007308
587.5483,0.04463981,-0.3324288,0.4139909,-1.90995,0.4919937,-0.02007157
587.5632,0.04464313,-0.332365,0.4138702,-1.913561,0.4791171,-0.02007012
587.5778,0.04464313,-0.332365,0.4138702,-1.913561,0.4791171,-0.02007012
587.594,0.0446464,-0.332302,0.4132223,-1.917108,0.4638934,-0.0200683
587.6076,0.04464963,-0.3322397,0.4127898,-1.920583,0.4489607,-0.02006648
587.6224,0.04465281,-0.3321782,0.4124728,-1.924002,0.4343565,-0.0200648
587.6373,0.04465281,-0.3321782,0.4124728,-1.924002,0.4343565,-0.0200648
587.6512,0.04465595,-0.3321174,0.4116411,-1.927361,0.4174512,-0.02006283
587.6666,0.04465904,-0.3320573,0.4110467,-1.930653,0.4008675,-0.02006086
587.6815,0.0446621,-0.331998,0.4105822,-1.933892,0.3846495,-0.02005906
587.6966,0.0446621,-0.331998,0.4105822,-1.933892,0.3846495,-0.02005906
587.7107,0.04466512,-0.3319393,0.410185,-1.937085,0.3687707,-0.02005735
587.7264,0.0446681,-0.3318814,0.4092307,-1.940224,0.350613,-0.02005538
587.7411,0.04467103,-0.3318242,0.408515,-1.9433,0.3327889,-0.02005339
587.7562,0.04467103,-0.3318242,0.408515,-1.9433,0.3327889,-0.02005339
587.7704,0.04467393,-0.3317677,0.4079348,-1.946328,0.3153571,-0.02005158
587.7857,0.0446768,-0.3317118,0.4074263,-1.949313,0.2982902,-0.02004986
587.8005,0.04467961,-0.3316566,0.4063433,-1.952252,0.2789735,-0.02004798
587.8164,0.04467961,-0.3316566,0.4063433,-1.952252,0.2789735,-0.02004798
587.8304,0.04468239,-0.3316021,0.4055088,-1.955132,0.2600037,-0.02004608
587.8449,0.04468514,-0.3315482,0.4048193,-1.957968,0.2414524,-0.02004437
587.8597,0.04468514,-0.3315482,0.4048193,-1.957968,0.2414524,-0.02004437
587.8741,0.04468788,-0.3314949,0.4056731,-1.96077,0.2292961,-0.0200432
587.8896,0.04469058,-0.3314423,0.406062,-1.963566,0.2175056,-0.02004231
587.9045,0.04469324,-0.3313903,0.4061994,-1.966327,0.2058607,-0.02004126
587.9193,0.04469324,-0.3313903,0.4061994,-1.966327,0.2058607,-0.02004126
587.9335,0.04469587,-0.3313389,0.4062344,-1.969046,0.1944048,-0.02004016
587.9491,0.04469846,-0.3312881,0.4062324,-1.971722,0.1831592,-0.02003905
587.9639,0.04470102,-0.331238,0.4062209,-1.974355,0.1721306,-0.02003797
587.9786,0.04470102,-0.331238,0.4062209,-1.974355,0.1721306,-0.02003797
587.9928,0.04470355,-0.3311884,0.4062117,-1.976947,0.1613194,-0.02003693
588.0086,0.04470604,-0.3311394,0.4062095,-1.9795,0.1507234,-0.02003592
588.0233,0.04470855,-0.3310911,0.4048038,-1.972837,0.1396832,-0.03503451
588.0401,0.04471105,-0.3310433,0.4041543,-1.969341,0.1291841,-0.04973919
588.0538,0.04471105,-0.3310433,0.4041543,-1.969341,0.1291841,-0.04973919
588.0669,0.04471352,-0.3309961,0.4038344,-1.967427,0.1190491,-0.06415563
588.0823,0.04471597,-0.3309495,0.4036704,-1.966321,0.1091945,-0.07828944
588.0974,0.04471597,-0.3309495,0.4036704,-1.966321,0.1091945,-0.07828944
588.1114,0.04471837,-0.3309034,0.4038184,-1.967687,0.09968472,-0.08882072
588.1269,0.04472074,-0.3308578,0.4038994,-1.96858,0.0903465,-0.09914552
588.142,0.04472308,-0.3308128,0.4039724,-1.969261,0.08119671,-0.1092679
588.1568,0.04472308,-0.3308128,0.4039724,-1.969261,0.08119671,-0.1092679
588.1713,0.04472537,-0.3307684,0.4042293,-1.971914,0.07231711,-0.1158585
588.1866,0.04472763,-0.3307244,0.4044101,-1.973824,0.06358946,-0.12232
588.2012,0.04472987,-0.330681,0.4045732,-1.975379,0.05503123,-0.1286547
588.2161,0.04472987,-0.330681,0.4045732,-1.975379,0.05503123,-0.1286547
588.2304,0.04473207,-0.3306381,0.4047417,-1.976766,0.04664943,-0.1348653
588.2459,0.04473423,-0.3305957,0.4050204,-1.980136,0.03848547,-0.1376209
588.2617,0.04473636,-0.3305538,0.4052472,-1.982751,0.03046626,-0.1403224
588.2767,0.04473636,-0.3305538,0.4052472,-1.982751,0.03046626,-0.1403224
588.2897,0.04473847,-0.3305124,0.4054605,-1.98499,0.02260143,-0.1429709
588.3054,0.04474054,-0.3304715,0.4056753,-1.987039,0.01489447,-0.1455676
588.3202,0.04474258,-0.3304311,0.4059274,-1.991049,0.007353302,-0.14478
588.3348,0.04474258,-0.3304311,0.4059274,-1.991049,0.007353302,-0.14478
588.3491,0.04474459,-0.3303911,0.40615,-1.994277,-4.968327E-05,-0.1440079
588.3646,0.04474657,-0.3303517,0.4063645,-1.997104,-0.007310677,-0.1432509
588.3795,0.04474657,-0.3303517,0.4063645,-1.997104,-0.007310677,-0.1432509
588.3939,0.04474851,-0.3303127,0.4065632,-2.001779,-0.01444432,-0.1391755
588.4093,0.04475042,-0.3302742,0.4067479,-2.005604,-0.02144423,-0.1351801
588.4241,0.04475231,-0.3302362,0.406929,-2.008983,-0.0283103,-0.131263
588.4392,0.04475231,-0.3302362,0.406929,-2.008983,-0.0283103,-0.131263
588.4531,0.04475417,-0.3301986,0.4071098,-2.012114,-0.03504427,-0.1274227
588.4687,0.04475599,-0.3301615,0.4072158,-2.017155,-0.04169508,-0.1203244
588.4844,0.04475778,-0.3301248,0.4073324,-2.021366,-0.04821323,-0.1133654
588.4993,0.04475778,-0.3301248,0.4073324,-2.021366,-0.04821323,-0.1133654
588.5125,0.04475955,-0.3300886,0.4074544,-2.025132,-0.05460401,-0.1065428
588.5279,0.04476129,-0.3300527,0.4075787,-2.02864,-0.06087222,-0.09985395
588.543,0.044763,-0.3300174,0.407572,-2.03404,-0.06709941,-0.08996303
588.5576,0.044763,-0.3300174,0.407572,-2.03404,-0.06709941,-0.08996303
588.5721,0.04476468,-0.3299824,0.4076001,-2.038596,-0.07319231,-0.08026607
588.5875,0.04476633,-0.3299479,0.4076439,-2.042689,-0.07916158,-0.07075927
588.6023,0.04476796,-0.3299137,0.4076938,-2.046508,-0.08501509,-0.06143887
588.6174,0.04476796,-0.3299137,0.4076938,-2.046508,-0.08501509,-0.06143887
588.6314,0.04476956,-0.32988,0.4075605,-2.052198,-0.09086747,-0.048968
588.6473,0.04477112,-0.3298467,0.4074865,-2.057029,-0.09658122,-0.03674166
588.6617,0.04477267,-0.3298138,0.4074392,-2.061382,-0.1021728,-0.02475506
588.677,0.04477267,-0.3298138,0.4074392,-2.061382,-0.1021728,-0.02475506
588.6922,0.04477417,-0.3297813,0.4071786,-2.067496,-0.1077877,-0.009670263
588.7076,0.04477565,-0.3297492,0.4069987,-2.072691,-0.1132573,0.005118755
588.7212,0.04477711,-0.3297175,0.4068554,-2.077371,-0.1186039,0.01961779
588.736,0.04477711,-0.3297175,0.4068554,-2.077371,-0.1186039,0.01961779
588.7503,0.04477854,-0.3296862,0.4067282,-2.081734,-0.1238412,0.03383252
588.7657,0.04477995,-0.3296552,0.4065432,-2.086365,-0.1290162,0.04856063
588.7805,0.04478134,-0.3296247,0.4063862,-2.090655,-0.1340798,0.06299993
588.7952,0.04478134,-0.3296247,0.4063862,-2.090655,-0.1340798,0.06299993
588.8097,0.04478271,-0.3295944,0.4062432,-2.094715,-0.1390405,0.07715613
588.825,0.04478405,-0.3295646,0.4061084,-2.098601,-0.1439034,0.09103474
588.84,0.04478405,-0.3295646,0.4061084,-2.098601,-0.1439034,0.09103474
588.8542,0.04478537,-0.3295351,0.4059795,-2.102341,-0.1486713,0.1046412
588.8697,0.04478668,-0.329506,0.4058561,-2.105951,-0.153346,0.1179809
588.8843,0.04478796,-0.3294773,0.4057382,-2.109439,-0.1579289,0.1310591
588.8991,0.04478796,-0.3294773,0.4057382,-2.109439,-0.1579289,0.1310591
588.9133,0.04478922,-0.3294488,0.4057111,-2.112328,-0.1623686,0.1430887
588.9287,0.04479047,-0.3294208,0.4056583,-2.115276,-0.1667369,0.1548824
588.9446,0.0447917,-0.3293931,0.4055983,-2.118202,-0.1710261,0.1664449
588.9583,0.0447917,-0.3293931,0.4055983,-2.118202,-0.1710261,0.1664449
588.9728,0.04479291,-0.3293657,0.4055393,-2.121068,-0.1752324,0.1777806
588.9879,0.04479412,-0.3293386,0.4058836,-2.121825,-0.1791052,0.1855609
589.0026,0.0447953,-0.3293119,0.4060806,-2.123213,-0.1829829,0.1931885
589.0175,0.0447953,-0.3293119,0.4060806,-2.123213,-0.1829829,0.1931885
589.0316,0.04479648,-0.3292855,0.4062172,-2.124875,-0.186821,0.2006666
589.0472,0.04479764,-0.3292594,0.4063322,-2.126639,-0.1905982,0.2079981
589.0623,0.04479879,-0.3292336,0.4068761,-2.126394,-0.194033,0.2118526
589.077,0.04479879,-0.3292336,0.4068761,-2.126394,-0.194033,0.2118526
589.0912,0.04479993,-0.3292082,0.4072513,-2.12684,-0.1974929,0.2156314
589.1069,0.04480105,-0.329183,0.4075562,-2.127605,-0.2009265,0.2193362
589.1215,0.04480216,-0.3291582,0.407834,-2.128509,-0.2043096,0.2229683
589.1364,0.04480216,-0.3291582,0.407834,-2.128509,-0.2043096,0.2229683
589.1505,0.04480327,-0.3291336,0.4085683,-2.127443,-0.2073401,0.223196
589.167,0.04480436,-0.3291094,0.4091164,-2.127096,-0.2104126,0.2234191
589.1808,0.04480545,-0.3290854,0.4095851,-2.127097,-0.213471,0.2236379
589.1955,0.04480545,-0.3290854,0.4095851,-2.127097,-0.213471,0.2236379
589.2101,0.04480653,-0.3290617,0.4105062,-2.125247,-0.2161859,0.2205191
589.2255,0.0448076,-0.3290384,0.4112194,-2.124183,-0.2189613,0.2174615
589.2404,0.04480866,-0.3290153,0.4118418,-2.123512,-0.2217349,0.2144638
589.255,0.04480866,-0.3290153,0.4118418,-2.123512,-0.2217349,0.2144638
589.2692,0.04480971,-0.3289924,0.4124244,-2.12304,-0.2244774,0.2115249
589.285,0.04481076,-0.3289699,0.4134978,-2.120662,-0.2268601,0.2053103
589.2996,0.04481076,-0.3289699,0.4134978,-2.120662,-0.2268601,0.2053103
589.3138,0.0448118,-0.3289476,0.4143563,-2.119052,-0.229312,0.1992176
589.3294,0.04481283,-0.3289255,0.4151185,-2.117835,-0.2317704,0.1932444
589.3443,0.04481385,-0.3289038,0.4158359,-2.116831,-0.2342056,0.1873883
589.3593,0.04481385,-0.3289038,0.4158359,-2.116831,-0.2342056,0.1873883
589.3733,0.04481487,-0.3288823,0.4170596,-2.11394,-0.236279,0.1783137
589.3896,0.04481589,-0.3288611,0.4180545,-2.111833,-0.238434,0.1694171
589.4045,0.04481689,-0.32884,0.4189444,-2.110139,-0.2406054,0.160695
589.4182,0.04481689,-0.32884,0.4189444,-2.110139,-0.2406054,0.160695
589.4324,0.0448179,-0.3288193,0.4203247,-2.106669,-0.2424316,0.1488106
589.4477,0.0448189,-0.3287988,0.4214557,-2.104045,-0.2443552,0.1371592
589.4625,0.04481989,-0.3287785,0.4224702,-2.101873,-0.2463062,0.1257363
589.4774,0.04481989,-0.3287785,0.4224702,-2.101873,-0.2463062,0.1257363
589.4915,0.04482087,-0.3287585,0.4234266,-2.09996,-0.2482504,0.1145374
589.5074,0.04482186,-0.3287387,0.4249048,-2.096209,-0.2498376,0.1002249
589.5221,0.04482284,-0.3287192,0.4261318,-2.093278,-0.2515247,0.08619295
589.5369,0.04482284,-0.3287192,0.4261318,-2.093278,-0.2515247,0.08619295
589.5509,0.04482381,-0.3286999,0.4272386,-2.090794,-0.2532442,0.07243615
589.5665,0.04482478,-0.3286808,0.428283,-2.088575,-0.2549624,0.0589491
589.5825,0.04409781,-0.3286643,0.4274846,-2.093132,-0.2577959,0.05740041
589.5964,0.04409781,-0.3286643,0.4274846,-2.093132,-0.2577959,0.05740041
589.6105,0.04291595,-0.328649,0.427516,-2.095243,-0.2601372,0.05588228
589.6268,0.04145286,-0.3286343,0.4278861,-2.096213,-0.2622218,0.05439402
589.6406,0.03981898,-0.3286197,0.4283807,-2.096662,-0.2641757,0.05293496
589.6555,0.03981898,-0.3286197,0.4283807,-2.096662,-0.2641757,0.05293496
589.6697,0.03808451,-0.3286052,0.4289134,-2.096883,-0.266055,0.0515045
589.6851,0.03629401,-0.3285906,0.4294516,-2.097009,-0.2678838,0.05010208
589.6998,0.03629401,-0.3285906,0.4294516,-2.097009,-0.2678838,0.05010208
589.7139,0.03447577,-0.3285759,0.4299842,-2.097102,-0.269672,0.04872715
589.7295,0.03264769,-0.3285613,0.430508,-2.097189,-0.2714237,0.04737917
589.7444,0.03082108,-0.3285467,0.4310229,-2.097281,-0.2731407,0.04605762
589.7594,0.03082108,-0.3285467,0.4310229,-2.097281,-0.2731407,0.04605762
589.7736,0.02900304,-0.3285322,0.4315295,-2.097381,-0.2748239,0.04476199
589.7893,0.02719801,-0.3285177,0.4320284,-2.097492,-0.276474,0.04349176
589.8041,0.02540872,-0.3285034,0.4325202,-2.097611,-0.2780915,0.04224643
589.819,0.02540872,-0.3285034,0.4325202,-2.097611,-0.2780915,0.04224643
589.833,0.02363682,-0.3284892,0.4330053,-2.097741,-0.2796768,0.04102553
589.8499,0.02188329,-0.3284751,0.4334841,-2.097879,-0.2812307,0.03982856
589.8678,0.02014865,-0.3284611,0.4339568,-2.098025,-0.2827536,0.03865506
