JMolnar6/NonAnthroHands_User_Study/HandsLoggerWithURDF/tempdata/PID 0 (test)/files/Reachy_PID0_JointMotion_gesture_11_3.csv
Time,r_shoulder,r_shoulder_x,r_upper_arm,r_forearm,r_wrist,r_wrist2hand,
993.0373,-0.6972628,-0.3095329,1.19937,-0.5336203,0.4392709,-0.006046529
993.0529,-0.6970696,-0.3094723,1.199502,-0.5335006,0.4392072,-0.006044326
993.0675,-0.6968786,-0.3094124,1.199634,-0.5333827,0.4391437,-0.006042168
993.0812,-0.6966898,-0.3093532,1.199765,-0.5332668,0.4390804,-0.00604006
993.0957,-0.6966898,-0.3093532,1.199765,-0.5332668,0.4390804,-0.00604006
993.1098,-0.6965032,-0.3092948,1.199894,-0.5331527,0.4390173,-0.006037997
993.125,-0.6963187,-0.3092371,1.200022,-0.5330404,0.4389544,-0.006035979
993.1395,-0.6963187,-0.3092371,1.200022,-0.5330404,0.4389544,-0.006035979
993.1536,-0.6961364,-0.30918,1.200149,-0.53293,0.4388917,-0.006034006
993.1691,-0.6959562,-0.3091237,1.200275,-0.5328212,0.4388292,-0.006032073
993.1837,-0.695778,-0.309068,1.2004,-0.5327142,0.438767,-0.006030182
993.1984,-0.695778,-0.309068,1.2004,-0.5327142,0.438767,-0.006030182
993.2125,-0.6956019,-0.309013,1.200524,-0.532609,0.438705,-0.006028333
993.2278,-0.6954278,-0.3089586,1.200647,-0.5325054,0.4386433,-0.006026526
993.2426,-0.6952557,-0.3089049,1.200768,-0.5324035,0.4385818,-0.006024757
993.2574,-0.6952557,-0.3089049,1.200768,-0.5324035,0.4385818,-0.006024757
993.2712,-0.6950856,-0.3088519,1.200889,-0.5323032,0.4385205,-0.006023026
993.2871,-0.6949174,-0.3087994,1.201008,-0.5322044,0.4384595,-0.006021333
993.3016,-0.6947512,-0.3087476,1.201127,-0.5321074,0.4383987,-0.006019677
993.3182,-0.6947512,-0.3087476,1.201127,-0.5321074,0.4383987,-0.006019677
993.3312,-0.6945869,-0.3086965,1.201244,-0.5320118,0.4383382,-0.006018058
993.3457,-0.6944245,-0.3086459,1.20136,-0.5319178,0.438278,-0.006016472
993.3604,-0.6942639,-0.308596,1.201475,-0.5318253,0.438218,-0.006014922
993.3751,-0.6942639,-0.308596,1.201475,-0.5318253,0.438218,-0.006014922
993.3888,-0.6941051,-0.3085466,1.20159,-0.5317343,0.4381583,-0.006013406
993.4041,-0.6939483,-0.3084978,1.201703,-0.5316447,0.4380989,-0.006011925
993.4188,-0.6939483,-0.3084978,1.201703,-0.5316447,0.4380989,-0.006011925
993.4328,-0.6937932,-0.3084497,1.201815,-0.5315565,0.4380397,-0.006010476
993.4483,-0.6936399,-0.3084021,1.201926,-0.5314698,0.4379809,-0.006009059
993.4628,-0.6934884,-0.308355,1.202036,-0.5313845,0.4379223,-0.006007671
993.4778,-0.6934884,-0.308355,1.202036,-0.5313845,0.4379223,-0.006007671
993.4918,-0.6933386,-0.3083086,1.202145,-0.5313005,0.4378641,-0.006006315
993.5072,-0.6931905,-0.3082626,1.202253,-0.5312179,0.4378061,-0.006004992
993.5217,-0.6930441,-0.3082173,1.20236,-0.5311366,0.4377484,-0.006003696
993.5364,-0.6930441,-0.3082173,1.20236,-0.5311366,0.4377484,-0.006003696
993.5505,-0.6928995,-0.3081725,1.202466,-0.5310566,0.437691,-0.006002428
993.566,-0.6927564,-0.3081282,1.202571,-0.5309778,0.4376339,-0.006001188
993.5806,-0.692615,-0.3080844,1.202675,-0.5309004,0.4375771,-0.00599998
993.5963,-0.692615,-0.3080844,1.202675,-0.5309004,0.4375771,-0.00599998
993.6108,-0.6924753,-0.3080412,1.202778,-0.5308241,0.4375207,-0.005998794
993.6248,-0.6923371,-0.3079985,1.20288,-0.5307491,0.4374645,-0.005997638
993.6394,-0.6923371,-0.3079985,1.20288,-0.5307491,0.4374645,-0.005997638
993.6547,-0.6922005,-0.3079563,1.202981,-0.5306754,0.4374086,-0.005996508
993.6686,-0.6920655,-0.3079146,1.203081,-0.5306028,0.4373531,-0.005995402
993.6832,-0.6919321,-0.3078734,1.20318,-0.5305313,0.4372979,-0.005994321
993.698,-0.6919321,-0.3078734,1.20318,-0.5305313,0.4372979,-0.005994321
993.712,-0.6918002,-0.3078327,1.203279,-0.530461,0.437243,-0.005993264
993.7274,-0.6916698,-0.3077925,1.203376,-0.5303918,0.4371884,-0.00599223
993.7421,-0.691541,-0.3077528,1.203472,-0.5303237,0.4371341,-0.00599122
993.7568,-0.691541,-0.3077528,1.203472,-0.5303237,0.4371341,-0.00599122
993.771,-0.6914136,-0.3077135,1.203568,-0.5302567,0.4370801,-0.005990231
993.7862,-0.6912876,-0.3076748,1.203662,-0.5301908,0.4370265,-0.005989265
993.8009,-0.6911631,-0.3076364,1.203756,-0.5301259,0.4369732,-0.00598832
993.8159,-0.6911631,-0.3076364,1.203756,-0.5301259,0.4369732,-0.00598832
993.83,-0.69104,-0.3075986,1.203848,-0.5300621,0.4369203,-0.0059874
993.8452,-0.6909184,-0.3075612,1.20394,-0.5299994,0.4368676,-0.005986497
993.8608,-0.6907982,-0.3075242,1.204031,-0.5299376,0.4368153,-0.005985615
993.8746,-0.6907982,-0.3075242,1.204031,-0.5299376,0.4368153,-0.005985615
993.8887,-0.6906793,-0.3074877,1.204121,-0.5298768,0.4367633,-0.005984753
993.9039,-0.6905618,-0.3074517,1.20421,-0.529817,0.4367117,-0.005983911
993.9183,-0.6905618,-0.3074517,1.20421,-0.529817,0.4367117,-0.005983911
993.9324,-0.6904457,-0.307416,1.204298,-0.5297582,0.4366603,-0.005983088
993.9478,-0.6903309,-0.3073808,1.204386,-0.5297003,0.4366094,-0.005982284
993.9624,-0.6902174,-0.307346,1.204472,-0.5296434,0.4365587,-0.005981497
993.9771,-0.6902174,-0.307346,1.204472,-0.5296434,0.4365587,-0.005981497
993.9911,-0.6901053,-0.3073117,1.204558,-0.5295873,0.4365084,-0.005980729
994.0063,-0.6899944,-0.3072777,1.204643,-0.5295322,0.4364583,-0.005979978
994.0211,-0.6898848,-0.3072442,1.204727,-0.529478,0.4364087,-0.005979245
994.0359,-0.6898848,-0.3072442,1.204727,-0.529478,0.4364087,-0.005979245
994.0508,-0.6895664,-0.3071342,1.204427,-0.5289304,0.4368205,-0.00589371
994.0656,-0.689118,-0.3069778,1.203986,-0.5280595,0.4374494,-0.005809974
994.0803,-0.6885896,-0.3067935,1.203541,-0.5270436,0.4381419,-0.005728046
994.095,-0.6885896,-0.3067935,1.203541,-0.5270436,0.4381419,-0.005728046
994.1091,-0.6880131,-0.306593,1.203135,-0.5259684,0.4388367,-0.005647871
994.1254,-0.6876188,-0.3064602,1.203158,-0.5253691,0.4390521,-0.005654248
994.1392,-0.6876188,-0.3064602,1.203158,-0.5253691,0.4390521,-0.005654248
994.1531,-0.6873406,-0.3063696,1.203364,-0.525095,0.4390259,-0.005660455
994.1689,-0.6871368,-0.3063053,1.203606,-0.5249767,0.4389126,-0.005666437
994.1829,-0.6869805,-0.3062575,1.203835,-0.5249324,0.4387759,-0.005672202
994.1976,-0.6869805,-0.3062575,1.203835,-0.5249324,0.4387759,-0.005672202
994.2119,-0.6870636,-0.3062955,1.204419,-0.5254161,0.4381816,-0.005762644
994.2271,-0.687297,-0.3063862,1.205118,-0.5262398,0.4373788,-0.005851107
994.2419,-0.6876241,-0.3065088,1.205799,-0.5272163,0.4365218,-0.005937611
994.2563,-0.6876241,-0.3065088,1.205799,-0.5272163,0.4365218,-0.005937611
994.2703,-0.6882188,-0.3067273,1.206807,-0.5287501,0.4352093,-0.006107071
994.2858,-0.6889794,-0.3070037,1.207894,-0.5306281,0.4337066,-0.006272911
994.3005,-0.6898412,-0.3073142,1.20893,-0.5326519,0.4321711,-0.006435199
994.3153,-0.6898412,-0.3073142,1.20893,-0.5326519,0.4321711,-0.006435199
994.3292,-0.690763,-0.3076441,1.209882,-0.5347264,0.4306616,-0.00659406
994.345,-0.6919287,-0.3080613,1.211133,-0.5373008,0.4287332,-0.006834343
994.3596,-0.6919287,-0.3080613,1.211133,-0.5373008,0.4287332,-0.006834343
994.3758,-0.693243,-0.3085298,1.212448,-0.540184,0.4266368,-0.00706962
994.3898,-0.694645,-0.3090275,1.213701,-0.543188,0.4245228,-0.007299978
994.4035,-0.6960963,-0.3095407,1.214862,-0.5462231,0.4224471,-0.007525557
994.4192,-0.6960963,-0.3095407,1.214862,-0.5462231,0.4224471,-0.007525557
994.4323,-0.6977827,-0.3101378,1.216312,-0.5497411,0.4199609,-0.007831085
994.4476,-0.6996096,-0.3107833,1.21781,-0.553552,0.4173194,-0.008130329
994.4622,-0.7015172,-0.3114551,1.219233,-0.5574688,0.4146732,-0.008423381
994.4769,-0.7015172,-0.3114551,1.219233,-0.5574688,0.4146732,-0.008423381
994.4909,-0.7036775,-0.3122167,1.220928,-0.5618963,0.4116091,-0.008794868
994.5063,-0.7059875,-0.3130292,1.222643,-0.5666218,0.4084016,-0.009158728
994.5208,-0.7083817,-0.3138688,1.224254,-0.5714477,0.4052059,-0.009515076
994.5355,-0.7083817,-0.3138688,1.224254,-0.5714477,0.4052059,-0.009515076
994.5497,-0.7108188,-0.3147209,1.225736,-0.5762796,0.4020773,-0.009864103
994.5653,-0.7134829,-0.3156536,1.227471,-0.5815674,0.3985572,-0.01029029
994.5798,-0.7134829,-0.3156536,1.227471,-0.5815674,0.3985572,-0.01029029
994.5938,-0.7162783,-0.3166306,1.229213,-0.5871206,0.3949118,-0.01070781
994.6096,-0.7191442,-0.3176298,1.230844,-0.592752,0.3912908,-0.01111678
994.6241,-0.7220424,-0.3186379,1.232341,-0.5983724,0.3877469,-0.01151741
994.6388,-0.7220424,-0.3186379,1.232341,-0.5983724,0.3877469,-0.01151741
994.6537,-0.7251595,-0.3197235,1.234082,-0.6044341,0.3838144,-0.01199399
994.6683,-0.7284005,-0.3208508,1.235816,-0.6107478,0.3797683,-0.01246096
994.6829,-0.7317056,-0.321998,1.237427,-0.6171271,0.3757591,-0.01291842
994.6976,-0.7317056,-0.321998,1.237427,-0.6171271,0.3757591,-0.01291842
994.7118,-0.7352479,-0.3232287,1.239263,-0.6239766,0.3713529,-0.01345054
994.727,-0.7389236,-0.3245037,1.24106,-0.6310849,0.3668466,-0.01397194
994.7415,-0.7426676,-0.3257996,1.242707,-0.6382546,0.3623946,-0.01448273
994.7559,-0.7426676,-0.3257996,1.242707,-0.6382546,0.3623946,-0.01448273
994.7703,-0.7464387,-0.3271018,1.24419,-0.6453924,0.3580474,-0.01498315
994.7854,-0.7504222,-0.3284789,1.24589,-0.6529478,0.3533213,-0.01555725
994.8001,-0.7545218,-0.3298942,1.247543,-0.6607316,0.3485115,-0.01611985
994.8151,-0.7545218,-0.3298942,1.247543,-0.6607316,0.3485115,-0.01611985
994.8289,-0.7586768,-0.331326,1.249046,-0.668557,0.343768,-0.01667107
994.8447,-0.7628493,-0.3327609,1.250388,-0.6763358,0.3391382,-0.01721115
994.8593,-0.7628493,-0.3327609,1.250388,-0.6763358,0.3391382,-0.01721115
994.8733,-0.7672268,-0.3342681,1.251943,-0.6845197,0.3341264,-0.017824
994.8887,-0.7717138,-0.3358113,1.25344,-0.6929206,0.3290431,-0.01842463
994.9054,-0.7762507,-0.3373689,1.254781,-0.7013528,0.3240394,-0.01901316
994.919,-0.7762507,-0.3373689,1.254781,-0.7013528,0.3240394,-0.01901316
994.9324,-0.7810113,-0.3390048,1.256313,-0.7102202,0.3186457,-0.0196734
994.9478,-0.7858916,-0.3406795,1.257757,-0.7193124,0.3131979,-0.02032049
994.9622,-0.7908262,-0.3423696,1.259024,-0.7284333,0.307849,-0.02095455
994.9769,-0.7908262,-0.3423696,1.259024,-0.7284333,0.307849,-0.02095455
994.9908,-0.7957743,-0.344061,1.260116,-0.7374904,0.3026406,-0.02157586
995.0061,-0.8009223,-0.3458223,1.261404,-0.7469324,0.297048,-0.02226815
995.0206,-0.8061731,-0.3476168,1.262607,-0.7565712,0.2914166,-0.0229467
995.0354,-0.8061731,-0.3476168,1.262607,-0.7565712,0.2914166,-0.0229467
995.0495,-0.8114664,-0.3494228,1.26364,-0.7662212,0.2858956,-0.02361167
995.0649,-0.8167641,-0.3512271,1.264508,-0.7757952,0.280522,-0.0242633
995.0797,-0.8167641,-0.3512271,1.264508,-0.7757952,0.280522,-0.0242633
995.0938,-0.822255,-0.3530992,1.265577,-0.7857434,0.2747531,-0.02498525
995.1094,-0.8278431,-0.3550025,1.266553,-0.7958792,0.2689609,-0.02569292
995.124,-0.8334686,-0.3569155,1.26736,-0.8060179,0.2632929,-0.02638646
995.1387,-0.8334686,-0.3569155,1.26736,-0.8060179,0.2632929,-0.02638646
995.1528,-0.8393065,-0.3589023,1.268346,-0.816562,0.2572232,-0.02714943
995.1692,-0.845252,-0.3609233,1.269211,-0.8273028,0.2511536,-0.0278973
995.1838,-0.8512399,-0.3629549,1.269895,-0.8380454,0.2452283,-0.02863024
995.1974,-0.8512399,-0.3629549,1.269895,-0.8380454,0.2452283,-0.02863024
995.2121,-0.8572291,-0.3649835,1.270419,-0.8486988,0.2394721,-0.02934855
995.2269,-0.8634076,-0.3670779,1.27114,-0.8597099,0.2333031,-0.03013581
995.2413,-0.8696776,-0.3692012,1.271747,-0.8708919,0.2271512,-0.03090752
995.2561,-0.8696776,-0.3692012,1.271747,-0.8708919,0.2271512,-0.03090752
995.2699,-0.8759785,-0.3713316,1.272189,-0.8820605,0.2211526,-0.03166386
995.2852,-0.8822725,-0.3734563,1.272488,-0.8931301,0.2153259,-0.03240517
995.3003,-0.8887497,-0.3756449,1.272987,-0.9045486,0.2090673,-0.03321495
995.3147,-0.8887497,-0.3756449,1.272987,-0.9045486,0.2090673,-0.03321495
995.3287,-0.8953134,-0.3778607,1.27337,-0.9161305,0.2028477,-0.03400874
995.3442,-0.9019035,-0.380082,1.273596,-0.9276929,0.1967928,-0.03478677
995.3589,-0.9019035,-0.380082,1.273596,-0.9276929,0.1967928,-0.03478677
995.3731,-0.9086964,-0.3823734,1.273999,-0.9396365,0.1903013,-0.03563253
995.3884,-0.9155865,-0.3846948,1.274264,-0.951754,0.1838783,-0.03646158
995.4033,-0.9225082,-0.3870229,1.274371,-0.9638525,0.177635,-0.03727419
995.4181,-0.9225082,-0.3870229,1.274371,-0.9638525,0.177635,-0.03727419
995.4342,-0.9294208,-0.3893442,1.274353,-0.9758426,0.1715737,-0.0380707
995.4487,-0.9365135,-0.3917278,1.274531,-0.9881686,0.1650517,-0.03893458
995.4622,-0.943688,-0.3941365,1.274579,-1.000644,0.15862,-0.03978143
995.477,-0.943688,-0.3941365,1.274579,-1.000644,0.15862,-0.03978143
995.4907,-0.9508833,-0.3965485,1.27449,-1.013088,0.1523707,-0.04061151
995.506,-0.9580615,-0.3989514,1.274296,-1.025416,0.1463001,-0.04142518
995.5209,-0.9654145,-0.4014149,1.274294,-1.038072,0.139749,-0.04230589
995.5353,-0.9654145,-0.4014149,1.274294,-1.038072,0.139749,-0.04230589
995.5494,-0.9728446,-0.403902,1.274163,-1.050872,0.1333146,-0.04316924
995.5648,-0.9802914,-0.4063912,1.273912,-1.063636,0.1270642,-0.04401553
995.5796,-0.9802914,-0.4063912,1.273912,-1.063636,0.1270642,-0.04401553
995.5936,-0.9879329,-0.4089471,1.273828,-1.076762,0.1203316,-0.04492821
995.6092,-0.9956626,-0.4115295,1.273607,-1.090043,0.1137424,-0.04582289
995.6251,-1.003414,-0.4141152,1.273271,-1.103291,0.1073421,-0.04669992
995.6389,-1.003414,-0.4141152,1.273271,-1.103291,0.1073421,-0.04669992
995.6527,-1.011148,-0.4166907,1.27285,-1.116415,0.1011189,-0.04755966
995.668,-1.019053,-0.4193255,1.2726,-1.129859,0.09439626,-0.04848552
995.6829,-1.027032,-0.4219822,1.272229,-1.143435,0.08783346,-0.04939315
995.6987,-1.027032,-0.4219822,1.272229,-1.143435,0.08783346,-0.04939315
995.7127,-1.035023,-0.4246389,1.271763,-1.156966,0.08145252,-0.0502829
995.7272,-1.042988,-0.4272834,1.271228,-1.170367,0.07524209,-0.05115513
995.7416,-1.05112,-0.4299858,1.270851,-1.184082,0.06852674,-0.05209324
995.7563,-1.05112,-0.4299858,1.270851,-1.184082,0.06852674,-0.05209324
995.7704,-1.059321,-0.4327086,1.270366,-1.197925,0.06198192,-0.05301289
995.7856,-1.067531,-0.4354305,1.269801,-1.211719,0.05561191,-0.05391444
995.8004,-1.075711,-0.4381392,1.269179,-1.225381,0.04940675,-0.05479827
995.8152,-1.075711,-0.4381392,1.269179,-1.225381,0.04940675,-0.05479827
995.8293,-1.083839,-0.4408278,1.268513,-1.238873,0.04335851,-0.05566473
995.8448,-1.091901,-0.4434927,1.267813,-1.252181,0.03746079,-0.05651416
995.8593,-1.091901,-0.4434927,1.267813,-1.252181,0.03746079,-0.05651416
995.8732,-1.09989,-0.4461316,1.267086,-1.265296,0.03170813,-0.0573469
995.889,-1.107582,-0.4486667,1.26617,-1.277742,0.02674886,-0.05808028
995.9036,-1.115061,-0.4511309,1.265284,-1.289684,0.02190364,-0.05879926
995.9186,-1.115061,-0.4511309,1.265284,-1.289684,0.02190364,-0.05879926
995.9325,-1.122377,-0.4535434,1.264415,-1.301297,0.01716977,-0.05950411
995.9488,-1.129563,-0.4559153,1.263554,-1.312665,0.01254593,-0.06019513
995.9628,-1.136421,-0.4581762,1.26255,-1.323352,0.008674153,-0.06078959
995.9775,-1.136421,-0.4581762,1.26255,-1.323352,0.008674153,-0.06078959
995.9912,-1.143048,-0.4603631,1.261585,-1.333544,0.004889127,-0.06137237
996.0063,-1.149506,-0.4624975,1.260647,-1.343424,0.001189811,-0.06194371
996.0211,-1.155834,-0.464592,1.259725,-1.353081,-0.002424617,-0.06250384
996.0359,-1.155834,-0.464592,1.259725,-1.353081,-0.002424617,-0.06250384
996.0499,-1.161835,-0.466577,1.258686,-1.36208,-0.00531906,-0.06296999
996.0649,-1.167611,-0.4684895,1.257685,-1.37061,-0.008148311,-0.06342698
996.0799,-1.167611,-0.4684895,1.257685,-1.37061,-0.008148311,-0.06342698
996.0938,-1.173223,-0.4703515,1.256713,-1.378851,-0.01091341,-0.063875
996.1096,-1.178493,-0.4720985,1.255643,-1.386417,-0.01298325,-0.06423124
996.1243,-1.183528,-0.4737707,1.254615,-1.393515,-0.01500628,-0.06458049
996.1387,-1.183528,-0.4737707,1.254615,-1.393515,-0.01500628,-0.06458049
996.1529,-1.1884,-0.4753918,1.25362,-1.400335,-0.01698333,-0.06492288
996.1686,-1.193149,-0.4769756,1.252649,-1.406972,-0.0189149,-0.06525855
996.1834,-1.197582,-0.4784533,1.251589,-1.412996,-0.02017409,-0.06550465
996.1978,-1.197582,-0.4784533,1.251589,-1.412996,-0.02017409,-0.06550465
996.2142,-1.201803,-0.4798621,1.250564,-1.418592,-0.02140355,-0.06574592
996.2276,-1.205875,-0.4812239,1.24957,-1.423943,-0.02260416,-0.06598245
996.2422,-1.209837,-0.482552,1.248602,-1.429135,-0.02377636,-0.06621435
996.257,-1.209837,-0.482552,1.248602,-1.429135,-0.02377636,-0.06621435
996.2706,-1.213495,-0.4837769,1.247551,-1.433738,-0.02429641,-0.0663587
996.2861,-1.216949,-0.4849353,1.246533,-1.437935,-0.02480256,-0.06650022
996.3008,-1.220264,-0.486049,1.245546,-1.441907,-0.02529554,-0.06663897
996.3156,-1.220264,-0.486049,1.245546,-1.441907,-0.02529554,-0.06663897
996.3296,-1.223257,-0.487054,1.244486,-1.445268,-0.02515333,-0.066692
996.345,-1.226039,-0.4879897,1.243461,-1.448221,-0.02501151,-0.066744
996.3598,-1.226039,-0.4879897,1.243461,-1.448221,-0.02501151,-0.066744
996.3738,-1.228679,-0.4888799,1.242469,-1.450957,-0.02487053,-0.06679498
996.3892,-1.23122,-0.4897388,1.241505,-1.45357,-0.02473042,-0.06684495
996.4042,-1.233468,-0.4904979,1.24047,-1.45563,-0.02397051,-0.06681095
996.4188,-1.233468,-0.4904979,1.24047,-1.45563,-0.02397051,-0.06681095
996.4329,-1.235525,-0.4911937,1.239465,-1.45732,-0.02322396,-0.06677762
996.4484,-1.237455,-0.4918484,1.23849,-1.458821,-0.02249104,-0.06674495
996.4641,-1.239299,-0.4924753,1.237542,-1.46022,-0.02177162,-0.06671292
996.478,-1.239299,-0.4924753,1.237542,-1.46022,-0.02177162,-0.06671292
996.4921,-1.24086,-0.4930054,1.236524,-1.461087,-0.02044593,-0.06659853
996.5071,-1.242239,-0.4934747,1.235536,-1.461603,-0.01914543,-0.06648639
996.5217,-1.2435,-0.493905,1.234576,-1.461946,-0.0178702,-0.06637644
996.5365,-1.2435,-0.493905,1.234576,-1.461946,-0.0178702,-0.06637644
996.5505,-1.244461,-0.4942325,1.233552,-1.461733,-0.01600083,-0.06618566
996.5661,-1.245233,-0.494496,1.232558,-1.461164,-0.01416789,-0.06599863
996.5807,-1.245883,-0.4947195,1.231596,-1.460429,-0.01237135,-0.06581527
996.5953,-1.245883,-0.4947195,1.231596,-1.460429,-0.01237135,-0.06581527
996.6097,-1.246455,-0.4949174,1.230663,-1.459621,-0.01061069,-0.0656355
996.6251,-1.246755,-0.4950216,1.229661,-1.458312,-0.008266268,-0.06537627
996.6399,-1.246755,-0.4950216,1.229661,-1.458312,-0.008266268,-0.06537627
996.6538,-1.246886,-0.495068,1.228688,-1.456681,-0.005967907,-0.06512213
996.6693,-1.24691,-0.4950788,1.227744,-1.45491,-0.003715466,-0.06487297
996.6842,-1.246869,-0.4950683,1.226828,-1.453085,-0.001508301,-0.06462871
996.6989,-1.246869,-0.4950683,1.226828,-1.453085,-0.001508301,-0.06462871
996.715,-1.246567,-0.4949676,1.225842,-1.450777,0.001273691,-0.06430624
996.7293,-1.246103,-0.494812,1.224883,-1.448162,0.004000904,-0.06399009
996.7432,-1.245542,-0.4946234,1.223954,-1.445422,0.006673534,-0.06368016
996.7577,-1.245542,-0.4946234,1.223954,-1.445422,0.006673534,-0.06368016
996.7716,-1.244701,-0.4943382,1.222956,-1.44217,0.009912107,-0.0632933
996.7869,-1.243691,-0.4939953,1.221989,-1.438607,0.01308688,-0.06291404
996.8015,-1.242581,-0.4936187,1.221054,-1.434922,0.01619811,-0.06254221
996.8163,-1.242581,-0.4936187,1.221054,-1.434922,0.01619811,-0.06254221
996.8302,-1.241413,-0.4932233,1.220148,-1.431206,0.0192467,-0.06217767
996.8458,-1.239994,-0.4927411,1.219167,-1.427033,0.02285478,-0.06173728
996.8604,-1.238426,-0.4922082,1.218215,-1.422581,0.02639196,-0.06130554
996.8753,-1.238426,-0.4922082,1.218215,-1.422581,0.02639196,-0.06130554
996.8892,-1.236773,-0.4916469,1.217296,-1.418029,0.0298585,-0.06088226
996.9046,-1.235074,-0.4910709,1.216404,-1.413463,0.03325544,-0.06046728
996.9194,-1.235074,-0.4910709,1.216404,-1.413463,0.03325544,-0.06046728
996.9337,-1.233134,-0.4904114,1.215431,-1.408456,0.03720672,-0.05997744
996.949,-1.231054,-0.4897043,1.214489,-1.403181,0.04108064,-0.05949721
996.9636,-1.228896,-0.4889716,1.21358,-1.39782,0.04487742,-0.05902639
996.9794,-1.228896,-0.4889716,1.21358,-1.39782,0.04487742,-0.05902639
996.9935,-1.226479,-0.4881496,1.212587,-1.391986,0.04922254,-0.05848179
997.0078,-1.223913,-0.4872773,1.211631,-1.385878,0.05348276,-0.05794788
997.0224,-1.221267,-0.4863787,1.210709,-1.379686,0.05765837,-0.05742444
997.037,-1.221267,-0.4863787,1.210709,-1.379686,0.05765837,-0.05742444
997.0511,-1.218583,-0.4854683,1.209817,-1.373499,0.06175062,-0.05691126
997.0665,-1.215667,-0.4844778,1.208833,-1.366892,0.06638843,-0.05632512
997.0811,-1.212621,-0.4834435,1.207885,-1.36004,0.07093594,-0.05575047
997.096,-1.212621,-0.4834435,1.207885,-1.36004,0.07093594,-0.05575047
997.1102,-1.209509,-0.4823877,1.206971,-1.353124,0.0753935,-0.0551871
997.1254,-1.20637,-0.4813237,1.206088,-1.346229,0.07976244,-0.05463477
997.1401,-1.203008,-0.4801824,1.205101,-1.338925,0.08467557,-0.05401023
997.1548,-1.203008,-0.4801824,1.205101,-1.338925,0.08467557,-0.05401023
997.1691,-1.199524,-0.4790001,1.204154,-1.331388,0.08949333,-0.05339795
997.1845,-1.19598,-0.4777984,1.203242,-1.323797,0.09421606,-0.05279766
997.1992,-1.19598,-0.4777984,1.203242,-1.323797,0.09421606,-0.05279766
997.2134,-1.192195,-0.4765135,1.202223,-1.315766,0.09947969,-0.0521261
997.2298,-1.188279,-0.4751846,1.20125,-1.307492,0.1046413,-0.05146771
997.2437,-1.1843,-0.4738355,1.200316,-1.299164,0.1097013,-0.05082223
997.2582,-1.1843,-0.4738355,1.200316,-1.299164,0.1097013,-0.05082223
997.272,-1.1803,-0.4724805,1.199415,-1.290874,0.1146614,-0.05018939
997.2874,-1.176085,-0.4710509,1.19839,-1.282194,0.1201633,-0.0494859
997.3021,-1.171756,-0.4695834,1.197413,-1.273298,0.1255592,-0.04879621
997.3168,-1.171756,-0.4695834,1.197413,-1.273298,0.1255592,-0.04879621
997.3307,-1.167378,-0.4680999,1.196476,-1.264368,0.1308493,-0.04812003
997.3463,-1.162988,-0.4666137,1.195571,-1.255488,0.1360353,-0.0474571
997.3608,-1.158392,-0.4650555,1.194527,-1.246228,0.1417645,-0.04672407
997.3759,-1.158392,-0.4650555,1.194527,-1.246228,0.1417645,-0.04672407
997.3896,-1.153689,-0.4634614,1.193535,-1.236762,0.1473849,-0.04600542
997.405,-1.148941,-0.4618534,1.192585,-1.22727,0.152895,-0.04530086
997.4197,-1.148941,-0.4618534,1.192585,-1.22727,0.152895,-0.04530086
997.434,-1.143969,-0.4601672,1.19149,-1.217364,0.1589455,-0.04452699
997.4498,-1.138881,-0.4584422,1.190453,-1.207243,0.1648833,-0.0437683
997.4641,-1.133744,-0.4567021,1.189463,-1.197095,0.1707043,-0.04302448
997.4789,-1.133744,-0.4567021,1.189463,-1.197095,0.1707043,-0.04302448
997.4949,-1.128601,-0.454961,1.188509,-1.187011,0.1764112,-0.04229522
997.5096,-1.123476,-0.4532272,1.187583,-1.177034,0.1820069,-0.04158026
997.5231,-1.118385,-0.4515055,1.186682,-1.167185,0.187494,-0.04087929
997.5378,-1.118385,-0.4515055,1.186682,-1.167185,0.187494,-0.04087929
997.5518,-1.113338,-0.4497988,1.185804,-1.157471,0.1928749,-0.04019205
997.5671,-1.10834,-0.4481087,1.184945,-1.147896,0.198152,-0.03951827
997.5815,-1.103394,-0.4464361,1.184106,-1.13846,0.2033274,-0.03885768
997.5996,-1.103394,-0.4464361,1.184106,-1.13846,0.2033274,-0.03885768
997.6122,-1.098502,-0.4447815,1.183285,-1.129163,0.2084032,-0.03821002
997.6262,-1.093665,-0.4431449,1.182482,-1.120002,0.2133814,-0.03757504
997.6407,-1.088882,-0.4415266,1.181696,-1.110977,0.2182638,-0.0369525
997.6554,-1.088882,-0.4415266,1.181696,-1.110977,0.2182638,-0.0369525
997.6693,-1.084155,-0.4399263,1.180927,-1.102085,0.2230522,-0.03634214
997.6847,-1.079482,-0.4383441,1.180175,-1.093325,0.2277485,-0.03574373
997.6995,-1.079482,-0.4383441,1.180175,-1.093325,0.2277485,-0.03574373
997.7136,-1.074864,-0.4367796,1.179439,-1.084695,0.2323543,-0.03515704
997.7289,-1.070299,-0.4352329,1.17872,-1.076193,0.2368712,-0.03458184
997.7458,-1.065787,-0.4337038,1.178016,-1.067818,0.2413011,-0.0340179
997.7595,-1.065787,-0.4337038,1.178016,-1.067818,0.2413011,-0.0340179
997.7733,-1.061328,-0.4321919,1.177329,-1.059566,0.2456454,-0.03346499
997.7876,-1.056921,-0.4306972,1.176658,-1.051438,0.2499059,-0.03292292
997.8022,-1.052565,-0.4292195,1.176002,-1.04343,0.254084,-0.03239145
997.8168,-1.052565,-0.4292195,1.176002,-1.04343,0.254084,-0.03239145
997.8309,-1.048259,-0.4277587,1.175362,-1.035541,0.2581812,-0.03187039
997.8467,-1.044004,-0.4263145,1.174737,-1.02777,0.2621992,-0.03135953
997.8611,-1.039799,-0.4248867,1.174127,-1.020114,0.2661393,-0.03085868
997.876,-1.039799,-0.4248867,1.174127,-1.020114,0.2661393,-0.03085868
997.8899,-1.035643,-0.4234752,1.173532,-1.012573,0.2700031,-0.03036763
997.9055,-1.031535,-0.4220799,1.172952,-1.005144,0.2737918,-0.02988619
997.9203,-1.027474,-0.4207005,1.172387,-0.997826,0.2775071,-0.02941418
997.9352,-1.027474,-0.4207005,1.172387,-0.997826,0.2775071,-0.02941418
997.9495,-1.023462,-0.4193368,1.171836,-0.9906172,0.2811501,-0.02895141
997.9647,-1.019495,-0.4179888,1.171299,-0.983516,0.2847222,-0.0284977
997.9794,-1.019495,-0.4179888,1.171299,-0.983516,0.2847222,-0.0284977
997.9955,-1.015575,-0.4166562,1.170777,-0.976521,0.2882248,-0.02805287
998.0098,-1.011701,-0.4153388,1.170269,-0.9696305,0.2916591,-0.02761675
998.0237,-1.007872,-0.4140366,1.169774,-0.9628431,0.2950265,-0.02718918
998.0382,-1.007872,-0.4140366,1.169774,-0.9628431,0.2950265,-0.02718918
998.0522,-1.004087,-0.4127493,1.169294,-0.9561572,0.298328,-0.02676997
998.0674,-1.000347,-0.4114767,1.168826,-0.9495715,0.3015651,-0.02635897
998.0822,-0.9966494,-0.4102188,1.168373,-0.9430845,0.3047388,-0.02595602
998.097,-0.9966494,-0.4102188,1.168373,-0.9430845,0.3047388,-0.02595602
998.111,-0.9929952,-0.4089753,1.167932,-0.9366947,0.3078504,-0.02556097
998.1264,-0.9893835,-0.4077462,1.167505,-0.9304007,0.310901,-0.02517364
998.141,-0.9858139,-0.4065312,1.16709,-0.9242012,0.3138917,-0.02479391
998.156,-0.9858139,-0.4065312,1.16709,-0.9242012,0.3138917,-0.02479391
998.17,-0.9822857,-0.4053301,1.166688,-0.9180948,0.3168236,-0.02442161
998.1854,-0.9787985,-0.4041429,1.166299,-0.91208,0.3196979,-0.0240566
998.2,-0.9787985,-0.4041429,1.166299,-0.91208,0.3196979,-0.0240566
998.2142,-0.9753519,-0.4029694,1.165922,-0.9061558,0.3225155,-0.02369874
998.2297,-0.9719453,-0.4018095,1.165558,-0.9003205,0.3252776,-0.02334789
998.2444,-0.9685783,-0.4006629,1.165205,-0.8945731,0.3279851,-0.02300391
998.2599,-0.9685783,-0.4006629,1.165205,-0.8945731,0.3279851,-0.02300391
998.274,-0.9652504,-0.3995295,1.164865,-0.8889121,0.3306391,-0.02266667
998.2885,-0.9619611,-0.3984092,1.164537,-0.8833364,0.3332405,-0.02233604
998.3033,-0.95871,-0.3973019,1.16422,-0.8778448,0.3357904,-0.02201188
998.3176,-0.95871,-0.3973019,1.16422,-0.8778448,0.3357904,-0.02201188
998.3318,-0.9554967,-0.3962074,1.163914,-0.8724358,0.3382896,-0.02169408
998.3474,-0.9523206,-0.3951256,1.16362,-0.8671085,0.3407391,-0.0213825
998.362,-0.9491815,-0.3940562,1.163338,-0.8618615,0.3431398,-0.02107702
998.3769,-0.9491815,-0.3940562,1.163338,-0.8618615,0.3431398,-0.02107702
998.3907,-0.9460788,-0.3929993,1.163066,-0.8566937,0.3454927,-0.02077753
998.4063,-0.9430121,-0.3919546,1.162805,-0.851604,0.3477985,-0.02048391
998.421,-0.9399809,-0.390922,1.162555,-0.8465912,0.3500582,-0.02019605
998.4358,-0.9399809,-0.390922,1.162555,-0.8465912,0.3500582,-0.02019605
998.4499,-0.936985,-0.3899014,1.162316,-0.8416541,0.3522725,-0.01991383
998.4653,-0.9340238,-0.3888926,1.162087,-0.8367918,0.3544424,-0.01963713
998.4802,-0.931097,-0.3878956,1.161869,-0.8320029,0.3565687,-0.01936587
998.4948,-0.931097,-0.3878956,1.161869,-0.8320029,0.3565687,-0.01936587
998.511,-0.9282041,-0.3869101,1.16166,-0.8272866,0.3586521,-0.01909992
998.5253,-0.9253447,-0.3859361,1.161462,-0.8226417,0.3606934,-0.01883918
998.5388,-0.9253447,-0.3859361,1.161462,-0.8226417,0.3606934,-0.01883918
998.553,-0.9225185,-0.3849733,1.161274,-0.8180671,0.3626935,-0.01858356
998.5683,-0.9197251,-0.3840218,1.161095,-0.8135619,0.364653,-0.01833295
998.5831,-0.916964,-0.3830814,1.160926,-0.809125,0.3665726,-0.01808725
998.5978,-0.916964,-0.3830814,1.160926,-0.809125,0.3665726,-0.01808725
998.6121,-0.9142349,-0.3821519,1.160767,-0.8047554,0.3684533,-0.01784638
998.6277,-0.9115375,-0.3812332,1.160617,-0.8004521,0.3702955,-0.01761022
998.6421,-0.9088714,-0.3803252,1.160476,-0.796214,0.3721001,-0.0173787
998.657,-0.9088714,-0.3803252,1.160476,-0.796214,0.3721001,-0.0173787
998.6708,-0.9062362,-0.3794278,1.160344,-0.7920404,0.3738678,-0.01715172
998.6865,-0.9036314,-0.3785409,1.160221,-0.7879302,0.3755991,-0.01692919
998.7012,-0.9010569,-0.3776643,1.160107,-0.7838824,0.3772949,-0.01671103
998.7161,-0.9010569,-0.3776643,1.160107,-0.7838824,0.3772949,-0.01671103
998.7303,-0.8985122,-0.3767979,1.160002,-0.7798963,0.3789556,-0.01649716
998.7457,-0.8959969,-0.3759417,1.159906,-0.7759707,0.3805821,-0.01628748
998.7612,-0.8935108,-0.3750954,1.159817,-0.7721049,0.3821748,-0.01608191
998.775,-0.8935108,-0.3750954,1.159817,-0.7721049,0.3821748,-0.01608191
998.7893,-0.8910535,-0.374259,1.159737,-0.7682979,0.3837344,-0.01588038
998.8043,-0.8886246,-0.3734324,1.159666,-0.7645489,0.3852615,-0.01568281
998.819,-0.8886246,-0.3734324,1.159666,-0.7645489,0.3852615,-0.01568281
998.8331,-0.8862239,-0.3726155,1.159602,-0.760857,0.3867567,-0.01548912
998.8488,-0.8838509,-0.3718081,1.159546,-0.7572213,0.3882207,-0.01529923
998.8634,-0.8815054,-0.3710101,1.159498,-0.7536411,0.3896539,-0.01511307
998.8782,-0.8815054,-0.3710101,1.159498,-0.7536411,0.3896539,-0.01511307
998.8923,-0.879187,-0.3702215,1.159458,-0.7501155,0.3910569,-0.01493057
998.908,-0.8768955,-0.3694421,1.159425,-0.7466437,0.3924302,-0.01475165
998.9227,-0.8746306,-0.3686718,1.159399,-0.7432249,0.3937745,-0.01457625
998.9374,-0.8746306,-0.3686718,1.159399,-0.7432249,0.3937745,-0.01457625
998.9514,-0.8723918,-0.3679106,1.159381,-0.7398583,0.3950903,-0.0144043
998.967,-0.8701789,-0.3671583,1.15937,-0.7365431,0.396378,-0.01423572
998.9819,-0.8679916,-0.3664148,1.159366,-0.7332786,0.3976382,-0.01407046
998.9987,-0.8679916,-0.3664148,1.159366,-0.7332786,0.3976382,-0.01407046
999.0118,-0.8658296,-0.3656799,1.159369,-0.7300639,0.3988714,-0.01390845
999.0262,-0.8636927,-0.3649538,1.159379,-0.7268984,0.4000781,-0.01374962
999.0408,-0.8615804,-0.3642361,1.159396,-0.7237813,0.4012588,-0.01359392
999.0554,-0.8615804,-0.3642361,1.159396,-0.7237813,0.4012588,-0.01359392
999.0693,-0.8594926,-0.3635268,1.159419,-0.7207119,0.4024139,-0.01344128
999.0849,-0.8574289,-0.3628259,1.159448,-0.7176895,0.4035439,-0.01329165
999.0997,-0.8574289,-0.3628259,1.159448,-0.7176895,0.4035439,-0.01329165
999.1138,-0.8553891,-0.3621332,1.159484,-0.7147133,0.4046493,-0.01314495
999.1292,-0.8533729,-0.3614486,1.159526,-0.7117828,0.4057305,-0.01300115
999.1442,-0.8513799,-0.3607721,1.159575,-0.7088971,0.406788,-0.01286017
999.1591,-0.8513799,-0.3607721,1.159575,-0.7088971,0.406788,-0.01286017
999.1733,-0.8494101,-0.3601035,1.159629,-0.7060556,0.4078223,-0.01272197
999.189,-0.847463,-0.3594428,1.159689,-0.7032577,0.4088336,-0.0125865
999.2035,-0.8455384,-0.3587898,1.159755,-0.7005026,0.4098226,-0.01245369
999.2183,-0.8455384,-0.3587898,1.159755,-0.7005026,0.4098226,-0.01245369
999.2324,-0.843636,-0.3581446,1.159826,-0.6977898,0.4107895,-0.01232349
999.2488,-0.8417557,-0.3575069,1.159903,-0.6951187,0.4117348,-0.01219586
